%
(1001)
(z0 top machine -5-5)
(T1  D=1.587 CR=0 - ZMIN=-2 - flat end mill)
G90 G94
G17
G21

(2D Adaptive8)
M9
T1 M6
S20000 M3
G54
M9
G0 X-66.901 Y-65.297
Z15
Z5
Z2.709
G1 Z2.55 F849.6
G3 X-65.393 Y-65.303 Z2.467 I0.754 J-0.003 F283.2
X-66.901 Y-65.297 Z2.385 I-0.754 J0.003
X-65.393 Y-65.303 Z2.302 I0.754 J-0.003
X-66.901 Y-65.297 Z2.219 I-0.754 J0.003
X-65.393 Y-65.303 Z2.136 I0.754 J-0.003
X-66.901 Y-65.297 Z2.054 I-0.754 J0.003
X-65.393 Y-65.303 Z1.971 I0.754 J-0.003
X-66.901 Y-65.297 Z1.888 I-0.754 J0.003
X-65.393 Y-65.303 Z1.805 I0.754 J-0.003
X-66.901 Y-65.297 Z1.723 I-0.754 J0.003
X-65.393 Y-65.303 Z1.64 I0.754 J-0.003
X-66.901 Y-65.297 Z1.557 I-0.754 J0.003
X-65.393 Y-65.303 Z1.475 I0.754 J-0.003
X-66.901 Y-65.297 Z1.392 I-0.754 J0.003
X-65.393 Y-65.303 Z1.309 I0.754 J-0.003
X-66.901 Y-65.297 Z1.226 I-0.754 J0.003
X-65.393 Y-65.303 Z1.144 I0.754 J-0.003
X-66.901 Y-65.297 Z1.061 I-0.754 J0.003
X-65.393 Y-65.303 Z0.978 I0.754 J-0.003
X-66.901 Y-65.297 Z0.895 I-0.754 J0.003
X-65.393 Y-65.303 Z0.813 I0.754 J-0.003
X-66.901 Y-65.297 Z0.73 I-0.754 J0.003
X-65.393 Y-65.303 Z0.647 I0.754 J-0.003
X-66.901 Y-65.297 Z0.565 I-0.754 J0.003
X-65.393 Y-65.303 Z0.482 I0.754 J-0.003
X-66.901 Y-65.297 Z0.399 I-0.754 J0.003
X-65.393 Y-65.303 Z0.316 I0.754 J-0.003
X-66.901 Y-65.297 Z0.234 I-0.754 J0.003
X-65.393 Y-65.303 Z0.151 I0.754 J-0.003
X-66.901 Y-65.297 Z0.068 I-0.754 J0.003
X-65.393 Y-65.303 Z-0.014 I0.754 J-0.003
X-66.901 Y-65.297 Z-0.097 I-0.754 J0.003
X-65.393 Y-65.303 Z-0.18 I0.754 J-0.003
X-66.901 Y-65.297 Z-0.263 I-0.754 J0.003
X-65.393 Y-65.303 Z-0.345 I0.754 J-0.003
X-66.901 Y-65.297 Z-0.428 I-0.754 J0.003
X-65.393 Y-65.303 Z-0.511 I0.754 J-0.003
X-66.901 Y-65.297 Z-0.594 I-0.754 J0.003
X-65.393 Y-65.303 Z-0.676 I0.754 J-0.003
X-66.901 Y-65.297 Z-0.759 I-0.754 J0.003
X-65.393 Y-65.303 Z-0.842 I0.754 J-0.003
X-66.901 Y-65.297 Z-0.924 I-0.754 J0.003
X-65.393 Y-65.303 Z-1.007 I0.754 J-0.003
X-66.901 Y-65.297 Z-1.09 I-0.754 J0.003
X-65.393 Y-65.303 Z-1.173 I0.754 J-0.003
X-66.901 Y-65.297 Z-1.255 I-0.754 J0.003
X-65.393 Y-65.303 Z-1.338 I0.754 J-0.003
X-66.901 Y-65.297 Z-1.421 I-0.754 J0.003
X-65.393 Y-65.303 Z-1.504 I0.754 J-0.003
X-66.901 Y-65.297 Z-1.586 I-0.754 J0.003
X-65.393 Y-65.303 Z-1.669 I0.754 J-0.003
X-66.901 Y-65.297 Z-1.752 I-0.754 J0.003
X-65.393 Y-65.303 Z-1.834 I0.754 J-0.003
X-66.901 Y-65.297 Z-1.917 I-0.754 J0.003
X-66.148 Y-66.054 Z-1.959 I0.754 J-0.003
X-65.393 Y-65.3 Z-2 I0.001 J0.754
X-66.901 I-0.754
X-65.401 Y-65.411 I0.754
X-65.393 Y-65.3 I-0.746 J0.111
G1 X-65.365 Y-64.927 F849.6
X-65.364 Y-64.777
X-65.414 Y-64.636
X-65.497 Y-64.511
X-65.605 Y-64.407
X-65.73 Y-64.324
X-65.867 Y-64.264
X-66.012 Y-64.226
X-66.162 Y-64.211
X-66.312 Y-64.219
X-66.459 Y-64.248
X-66.6 Y-64.298
X-66.733 Y-64.367
X-66.855 Y-64.454
X-66.964 Y-64.557
X-67.058 Y-64.674
X-67.135 Y-64.803
X-67.193 Y-64.941
X-67.233 Y-65.086
X-67.252 Y-65.235
X-67.251 Y-65.385
X-67.229 Y-65.533
X-67.188 Y-65.677
X-67.127 Y-65.815
X-67.049 Y-65.942
X-66.954 Y-66.058
X-66.844 Y-66.161
X-66.721 Y-66.247
X-66.588 Y-66.316
X-66.447 Y-66.366
X-66.3 Y-66.397
X-66.15 Y-66.408
X-66.001 Y-66.398
X-65.854 Y-66.368
X-65.712 Y-66.319
X-65.578 Y-66.25
X-65.455 Y-66.165
X-65.345 Y-66.064
X-65.249 Y-65.948
X-65.169 Y-65.821
X-65.107 Y-65.685
X-65.056 Y-65.543
X-65.014 Y-65.394
X-64.982 Y-65.247
X-64.964 Y-65.098
Y-64.948
X-64.983 Y-64.799
X-65.02 Y-64.654
X-65.077 Y-64.515
X-65.151 Y-64.385
X-65.2 Y-64.321
X-65.301 Y-64.223
X-65.428 Y-64.16
X-65.567 Y-64.139
X-65.597
X-65.681 Y-64.132
X-65.728 Y-64.128
X-65.86 Y-64.108
X-65.991 Y-64.075
X-66.057 Y-64.052
X-66.123 Y-64.024
X-66.148 Y-64.011
X-66.169 Y-64.001
X-66.306 Y-63.94
X-66.346 Y-63.939
X-66.425 Y-63.944
X-66.502 Y-63.963
X-66.574 Y-63.994
G3 X-66.621 Y-64.035 I0.08 J-0.137
X-66.5 Y-64.29 I0.126 J-0.096
G1 X-66.251 Y-64.299
G3 X-66.169 Y-64.001 I0.006 J0.159
G1 X-66.254 Y-63.958
X-66.32 Y-63.92
X-66.336 Y-63.914
X-66.353 Y-63.91
X-66.369 Y-63.908
X-66.386
X-66.402 Y-63.909
X-66.418 Y-63.912
X-66.435 Y-63.917
X-66.451 Y-63.924
X-66.517 Y-63.963
X-66.587 Y-64.001
X-66.648 Y-64.03
X-66.78 Y-64.077
X-66.82 Y-64.088
X-66.963 Y-64.132
X-67.09 Y-64.211
X-67.206 Y-64.306
X-67.31 Y-64.415
X-67.399 Y-64.535
X-67.475 Y-64.665
X-67.536 Y-64.802
X-67.583 Y-64.944
X-67.613 Y-65.091
X-67.629 Y-65.24
Y-65.39
X-67.613 Y-65.54
X-67.582 Y-65.686
X-67.536 Y-65.829
X-67.476 Y-65.967
X-67.434 Y-66.043
X-67.348 Y-66.153
X-67.233 Y-66.232
X-67.099 Y-66.273
X-67.043 Y-66.282
X-66.911 Y-66.312
X-66.78 Y-66.354
X-66.755 Y-66.366
X-66.583 Y-66.454
X-66.55 Y-66.475
X-66.517 Y-66.497
X-66.495 Y-66.516
X-66.462 Y-66.544
X-66.439 Y-66.563
X-66.32 Y-66.654
X-66.205 Y-66.671
X-66.09 Y-66.654
X-65.985 Y-66.604
G3 X-65.943 Y-66.559 I-0.093 J0.129
X-66.059 Y-66.317 I-0.135 J0.084
G1 X-66.314 Y-66.288
G3 X-66.439 Y-66.563 I-0.018 J-0.158
G1 X-66.362 Y-66.629
X-66.308 Y-66.682
X-66.294 Y-66.694
X-66.281 Y-66.704
X-66.268 Y-66.712
X-66.254 Y-66.718
X-66.238 Y-66.724
X-66.221 Y-66.727
X-66.205 Y-66.729
X-66.188
X-66.172 Y-66.728
X-66.156 Y-66.724
X-66.139 Y-66.719
X-66.123 Y-66.712
X-66.11 Y-66.705
X-66.096 Y-66.695
X-66.07 Y-66.672
X-66.018 Y-66.629
X-65.991 Y-66.608
X-65.86 Y-66.521
X-65.818 Y-66.497
X-65.728 Y-66.454
X-65.597 Y-66.404
X-65.437 Y-66.366
X-65.291 Y-66.333
X-65.158 Y-66.264
X-65.04 Y-66.171
X-64.937 Y-66.062
X-64.847 Y-65.942
X-64.77 Y-65.813
X-64.705 Y-65.678
X-64.652 Y-65.538
X-64.612 Y-65.393
X-64.586 Y-65.246
X-64.573 Y-65.096
X-64.574 Y-64.946
X-64.589 Y-64.797
X-64.619 Y-64.65
X-64.663 Y-64.507
X-64.702 Y-64.416
X-64.803 Y-64.27
X-64.951 Y-64.173
X-65.124 Y-64.139
X-65.567
G3 X-65.627 Y-64.153 I0.005 J-0.159
X-65.72 Y-64.306 I0.066 J-0.144
G1 X-65.617 Y-66.217
G3 X-65.437 Y-66.366 I0.159 J0.009
G1 X-65.334 Y-66.348
X-65.203 Y-66.336
X-65.071 Y-66.329
X-64.922 Y-66.316
X-64.785 Y-66.256
X-64.662 Y-66.169
X-64.554 Y-66.065
X-64.461 Y-65.947
X-64.381 Y-65.82
X-64.315 Y-65.685
X-64.262 Y-65.545
X-64.222 Y-65.401
X-64.194 Y-65.253
X-64.179 Y-65.104
X-64.177 Y-64.954
X-64.187 Y-64.804
X-64.209 Y-64.656
X-64.248 Y-64.511
X-64.276 Y-64.437
X-64.374 Y-64.281
X-64.526 Y-64.176
X-64.707 Y-64.139
X-65.124
G3 X-65.278 Y-64.301 I0.006 J-0.159
G1 X-65.23 Y-66.174
G3 X-65.071 Y-66.329 I0.159 J0.004
G1 X-64.736 Y-66.317
X-64.677 Y-66.315
X-64.527 Y-66.305
X-64.39 Y-66.245
X-64.267 Y-66.159
X-64.159 Y-66.055
X-64.065 Y-65.938
X-63.986 Y-65.81
X-63.92 Y-65.676
X-63.868 Y-65.535
X-63.827 Y-65.391
X-63.798 Y-65.244
X-63.781 Y-65.095
X-63.777 Y-64.945
X-63.784 Y-64.795
X-63.805 Y-64.646
X-63.842 Y-64.501
X-63.866 Y-64.438
X-63.934 Y-64.317
X-64.035 Y-64.221
X-64.16 Y-64.16
X-64.297 Y-64.139
X-64.707
G3 X-64.767 Y-64.153 I0.006 J-0.159
X-64.86 Y-64.3 I0.066 J-0.144
G1 X-64.834 Y-66.159
G3 X-64.677 Y-66.315 I0.159 J0.002
G1 X-64.309 Y-66.308
X-64.16 Y-66.297
X-64.019 Y-66.245
X-63.893 Y-66.164
X-63.782 Y-66.062
X-63.686 Y-65.947
X-63.604 Y-65.822
X-63.536 Y-65.688
X-63.48 Y-65.549
X-63.436 Y-65.406
X-63.404 Y-65.259
X-63.384 Y-65.11
X-63.376 Y-64.961
X-63.38 Y-64.811
X-63.398 Y-64.662
X-63.431 Y-64.515
X-63.458 Y-64.442
X-63.525 Y-64.319
X-63.626 Y-64.222
X-63.752 Y-64.16
X-63.89 Y-64.139
X-64.297
G3 X-64.45 Y-64.296 I0.006 J-0.159
G1 X-64.466 Y-66.148
G3 X-64.37 Y-66.295 I0.159 J-0.001
X-64.309 Y-66.308 I0.063 J0.146
G1 X-63.915 Y-66.301
X-63.765 Y-66.292
X-63.625 Y-66.238
X-63.499 Y-66.157
X-63.388 Y-66.056
X-63.292 Y-65.941
X-63.209 Y-65.816
X-63.14 Y-65.683
X-63.083 Y-65.544
X-63.039 Y-65.401
X-63.005 Y-65.254
X-62.984 Y-65.106
X-62.975 Y-64.956
X-62.978 Y-64.806
X-62.996 Y-64.657
X-63.028 Y-64.511
X-63.053 Y-64.441
X-63.121 Y-64.318
X-63.222 Y-64.222
X-63.348 Y-64.16
X-63.486 Y-64.139
X-63.89
G3 X-64.043 Y-64.295 I0.006 J-0.159
G1 X-64.071 Y-66.14
G3 X-63.976 Y-66.288 I0.159 J-0.002
X-63.915 Y-66.301 I0.064 J0.145
G1 X-63.521 Y-66.296
X-63.371 Y-66.287
X-63.231 Y-66.234
X-63.105 Y-66.152
X-62.994 Y-66.051
X-62.897 Y-65.937
X-62.814 Y-65.812
X-62.744 Y-65.679
X-62.686 Y-65.541
X-62.64 Y-65.398
X-62.606 Y-65.252
X-62.584 Y-65.104
X-62.574 Y-64.954
X-62.577 Y-64.804
X-62.594 Y-64.655
X-62.626 Y-64.508
X-62.651 Y-64.441
X-62.718 Y-64.318
X-62.819 Y-64.222
X-62.945 Y-64.16
X-63.083 Y-64.139
X-63.486
G3 X-63.639 Y-64.294 I0.006 J-0.159
G1 X-63.676 Y-66.135
G3 X-63.521 Y-66.296 I0.159 J-0.003
G1 X-63.126 Y-66.292
X-62.977 Y-66.283
X-62.836 Y-66.23
X-62.71 Y-66.149
X-62.599 Y-66.049
X-62.501 Y-65.935
X-62.418 Y-65.81
X-62.347 Y-65.678
X-62.288 Y-65.54
X-62.242 Y-65.397
X-62.207 Y-65.251
X-62.184 Y-65.103
X-62.174 Y-64.953
X-62.176 Y-64.803
X-62.193 Y-64.654
X-62.224 Y-64.508
X-62.249 Y-64.441
X-62.316 Y-64.319
X-62.417 Y-64.222
X-62.543 Y-64.16
X-62.681 Y-64.139
X-63.083
G3 X-63.236 Y-64.294 I0.006 J-0.159
G1 X-63.281 Y-66.129
G3 X-63.126 Y-66.292 I0.159 J-0.004
G1 X-62.732 Y-66.288
X-62.582 Y-66.279
X-62.442 Y-66.227
X-62.315 Y-66.147
X-62.203 Y-66.047
X-62.105 Y-65.933
X-62.021 Y-65.809
X-61.95 Y-65.677
X-61.891 Y-65.54
X-61.843 Y-65.397
X-61.808 Y-65.251
X-61.785 Y-65.103
X-61.774 Y-64.954
X-61.775 Y-64.804
X-61.792 Y-64.654
X-61.823 Y-64.508
X-61.847 Y-64.442
X-61.915 Y-64.319
X-62.016 Y-64.222
X-62.142 Y-64.16
X-62.28 Y-64.139
X-62.681
G3 X-62.834 Y-64.293 I0.006 J-0.159
G1 X-62.887 Y-66.125
G3 X-62.732 Y-66.288 I0.159 J-0.005
G1 X-62.338 Y-66.285
X-62.188 Y-66.276
X-62.047 Y-66.225
X-61.92 Y-66.145
X-61.807 Y-66.046
X-61.709 Y-65.933
X-61.624 Y-65.809
X-61.552 Y-65.678
X-61.493 Y-65.54
X-61.445 Y-65.398
X-61.409 Y-65.252
X-61.385 Y-65.104
X-61.374 Y-64.955
X-61.375 Y-64.805
X-61.391 Y-64.655
X-61.423 Y-64.509
X-61.447 Y-64.442
X-61.514 Y-64.319
X-61.615 Y-64.222
X-61.741 Y-64.16
X-61.879 Y-64.139
X-62.28
G3 X-62.433 Y-64.292 I0.006 J-0.159
G1 X-62.492 Y-66.121
G3 X-62.338 Y-66.285 I0.159 J-0.005
G1 X-61.944 Y-66.282
X-61.794 Y-66.273
X-61.652 Y-66.223
X-61.525 Y-66.144
X-61.412 Y-66.046
X-61.313 Y-65.933
X-61.227 Y-65.81
X-61.155 Y-65.679
X-61.095 Y-65.541
X-61.047 Y-65.399
X-61.01 Y-65.254
X-60.986 Y-65.106
X-60.974 Y-64.956
X-60.975 Y-64.806
X-60.991 Y-64.657
X-61.022 Y-64.51
X-61.046 Y-64.443
X-61.113 Y-64.32
X-61.215 Y-64.223
X-61.34 Y-64.16
X-61.479 Y-64.139
X-61.879
G3 X-62.033 Y-64.292 I0.006 J-0.159
G1 X-62.098 Y-66.118
G3 X-62.004 Y-66.268 I0.159 J-0.006
X-61.944 Y-66.282 I0.065 J0.145
G1 X-61.549 Y-66.279
X-61.4 Y-66.271
X-61.258 Y-66.222
X-61.13 Y-66.144
X-61.016 Y-66.046
X-60.916 Y-65.934
X-60.83 Y-65.811
X-60.758 Y-65.68
X-60.697 Y-65.543
X-60.649 Y-65.401
X-60.612 Y-65.255
X-60.587 Y-65.107
X-60.575 Y-64.958
Y-64.808
X-60.591 Y-64.659
X-60.622 Y-64.512
X-60.646 Y-64.444
X-60.713 Y-64.32
X-60.814 Y-64.223
X-60.94 Y-64.16
X-61.079 Y-64.139
X-61.479
G3 X-61.632 Y-64.291 I0.006 J-0.159
G1 X-61.703 Y-66.114
G3 X-61.549 Y-66.279 I0.159 J-0.006
G1 X-61.155 Y-66.277
X-61.005 Y-66.269
X-60.863 Y-66.221
X-60.734 Y-66.144
X-60.62 Y-66.047
X-60.52 Y-65.935
X-60.434 Y-65.812
X-60.36 Y-65.681
X-60.299 Y-65.544
X-60.251 Y-65.402
X-60.213 Y-65.257
X-60.188 Y-65.109
X-60.176 Y-64.96
Y-64.81
X-60.191 Y-64.661
X-60.222 Y-64.514
X-60.246 Y-64.445
X-60.313 Y-64.321
X-60.414 Y-64.223
X-60.541 Y-64.16
X-60.68 Y-64.139
X-61.079
G3 X-61.233 Y-64.291 I0.006 J-0.159
G1 X-61.309 Y-66.112
G3 X-61.155 Y-66.277 I0.159 J-0.007
G1 X-60.734 Y-66.275
X-60.584 Y-66.266
X-60.444 Y-66.213
X-60.318 Y-66.132
X-60.206 Y-66.032
X-60.108 Y-65.919
X-60.023 Y-65.795
X-59.952 Y-65.663
X-59.893 Y-65.525
X-59.846 Y-65.383
X-59.81 Y-65.237
X-59.787 Y-65.089
X-59.776 Y-64.939
X-59.778 Y-64.789
X-59.795 Y-64.64
X-59.828 Y-64.494
X-59.849 Y-64.437
X-59.948 Y-64.281
X-60.099 Y-64.176
X-60.28 Y-64.139
X-60.68
G3 X-60.833 Y-64.293 I0.006 J-0.159
G1 X-60.888 Y-66.111
G3 X-60.734 Y-66.275 I0.159 J-0.005
G1 X-60.34 Y-66.273
X-60.19 Y-66.265
X-60.049 Y-66.213
X-59.922 Y-66.133
X-59.81 Y-66.034
X-59.711 Y-65.92
X-59.627 Y-65.797
X-59.555 Y-65.665
X-59.495 Y-65.527
X-59.447 Y-65.385
X-59.411 Y-65.24
X-59.388 Y-65.091
X-59.377 Y-64.942
X-59.378 Y-64.792
X-59.395 Y-64.643
X-59.429 Y-64.497
X-59.449 Y-64.443
X-59.516 Y-64.32
X-59.617 Y-64.222
X-59.743 Y-64.16
X-59.882 Y-64.139
X-60.28
G3 X-60.433 Y-64.292 I0.006 J-0.159
G1 X-60.494 Y-66.109
G3 X-60.4 Y-66.259 I0.159 J-0.005
X-60.34 Y-66.273 I0.065 J0.145
G1 X-59.945 Y-66.271
X-59.796 Y-66.263
X-59.655 Y-66.212
X-59.527 Y-66.133
X-59.414 Y-66.034
X-59.315 Y-65.922
X-59.23 Y-65.798
X-59.157 Y-65.667
X-59.097 Y-65.53
X-59.049 Y-65.387
X-59.013 Y-65.242
X-58.989 Y-65.094
X-58.978 Y-64.944
X-58.979 Y-64.794
X-58.996 Y-64.645
X-59.028 Y-64.499
X-59.051 Y-64.439
X-59.118 Y-64.317
X-59.219 Y-64.221
X-59.344 Y-64.16
X-59.482 Y-64.139
X-59.882
G3 X-60.035 Y-64.292 I0.006 J-0.159
G1 X-60.099 Y-66.107
G3 X-59.945 Y-66.271 I0.159 J-0.006
G1 X-59.551 Y-66.269
X-59.401 Y-66.261
X-59.26 Y-66.212
X-59.132 Y-66.134
X-59.018 Y-66.036
X-58.919 Y-65.923
X-58.833 Y-65.8
X-58.76 Y-65.669
X-58.7 Y-65.532
X-58.652 Y-65.39
X-58.615 Y-65.244
X-58.591 Y-65.096
X-58.579 Y-64.947
X-58.58 Y-64.797
X-58.597 Y-64.648
X-58.628 Y-64.501
X-58.651 Y-64.44
X-58.718 Y-64.318
X-58.82 Y-64.222
X-58.945 Y-64.16
X-59.083 Y-64.139
X-59.482
G3 X-59.635 Y-64.291 I0.006 J-0.159
G1 X-59.705 Y-66.105
G3 X-59.551 Y-66.269 I0.159 J-0.006
G1 X-59.157 Y-66.268
X-59.007 Y-66.26
X-58.865 Y-66.212
X-58.737 Y-66.134
X-58.623 Y-66.037
X-58.523 Y-65.925
X-58.436 Y-65.802
X-58.363 Y-65.671
X-58.303 Y-65.534
X-58.254 Y-65.392
X-58.217 Y-65.247
X-58.193 Y-65.099
X-58.181 Y-64.949
Y-64.799
X-58.197 Y-64.65
X-58.229 Y-64.503
X-58.251 Y-64.441
X-58.319 Y-64.319
X-58.42 Y-64.222
X-58.546 Y-64.16
X-58.684 Y-64.139
X-59.083
G3 X-59.236 Y-64.291 I0.006 J-0.159
G1 X-59.311 Y-66.103
G3 X-59.157 Y-66.268 I0.159 J-0.007
G1 X-58.723 Y-66.266
X-58.573 Y-66.258
X-58.434 Y-66.201
X-58.31 Y-66.118
X-58.199 Y-66.016
X-58.103 Y-65.901
X-58.02 Y-65.776
X-57.95 Y-65.644
X-57.892 Y-65.505
X-57.846 Y-65.363
X-57.812 Y-65.216
X-57.79 Y-65.068
X-57.78 Y-64.918
X-57.784 Y-64.768
X-57.803 Y-64.62
X-57.838 Y-64.474
X-57.856 Y-64.429
X-57.955 Y-64.277
X-58.106 Y-64.175
X-58.284 Y-64.139
X-58.684
G3 X-58.837 Y-64.294 I0.006 J-0.159
G1 X-58.877 Y-66.104
G3 X-58.723 Y-66.266 I0.159 J-0.003
G1 X-58.329 Y-66.265
X-58.179 Y-66.257
X-58.04 Y-66.201
X-57.914 Y-66.119
X-57.803 Y-66.018
X-57.706 Y-65.903
X-57.623 Y-65.779
X-57.552 Y-65.646
X-57.494 Y-65.508
X-57.448 Y-65.366
X-57.413 Y-65.22
X-57.391 Y-65.071
X-57.381 Y-64.922
X-57.384 Y-64.772
X-57.403 Y-64.623
X-57.439 Y-64.477
X-57.455 Y-64.435
X-57.554 Y-64.28
X-57.705 Y-64.175
X-57.886 Y-64.139
X-58.284
G3 X-58.437 Y-64.293 I0.006 J-0.159
G1 X-58.482 Y-66.103
G3 X-58.389 Y-66.251 I0.159 J-0.004
X-58.329 Y-66.265 I0.065 J0.145
G1 X-57.934 Y-66.264
X-57.784 Y-66.256
X-57.645 Y-66.202
X-57.519 Y-66.12
X-57.408 Y-66.02
X-57.31 Y-65.905
X-57.226 Y-65.781
X-57.155 Y-65.649
X-57.097 Y-65.511
X-57.05 Y-65.368
X-57.015 Y-65.223
X-56.992 Y-65.074
X-56.983 Y-64.925
X-56.985 Y-64.775
X-57.004 Y-64.626
X-57.04 Y-64.48
X-57.057 Y-64.436
X-57.155 Y-64.28
X-57.307 Y-64.176
X-57.487 Y-64.139
X-57.886
G3 X-58.039 Y-64.293 I0.006 J-0.159
G1 X-58.088 Y-66.101
G3 X-57.934 Y-66.264 I0.159 J-0.004
G1 X-57.54 Y-66.263
X-57.39 Y-66.255
X-57.25 Y-66.202
X-57.124 Y-66.121
X-57.012 Y-66.021
X-56.914 Y-65.907
X-56.83 Y-65.783
X-56.758 Y-65.652
X-56.699 Y-65.514
X-56.652 Y-65.371
X-56.617 Y-65.225
X-56.594 Y-65.077
X-56.584 Y-64.927
X-56.587 Y-64.777
X-56.605 Y-64.629
X-56.641 Y-64.483
X-56.658 Y-64.437
X-56.756 Y-64.281
X-56.908 Y-64.176
X-57.089 Y-64.139
X-57.487
G3 X-57.64 Y-64.293 I0.006 J-0.159
G1 X-57.693 Y-66.1
G3 X-57.54 Y-66.263 I0.159 J-0.005
G1 X-57.146 Y-66.262
X-56.996 Y-66.255
X-56.855 Y-66.202
X-56.728 Y-66.122
X-56.616 Y-66.023
X-56.518 Y-65.909
X-56.433 Y-65.786
X-56.361 Y-65.654
X-56.302 Y-65.516
X-56.255 Y-65.374
X-56.219 Y-65.228
X-56.196 Y-65.08
X-56.186 Y-64.93
X-56.188 Y-64.78
X-56.206 Y-64.631
X-56.241 Y-64.486
X-56.259 Y-64.438
X-56.327 Y-64.317
X-56.428 Y-64.221
X-56.553 Y-64.16
X-56.69 Y-64.139
X-57.089
G3 X-57.242 Y-64.292 I0.006 J-0.159
G1 X-57.299 Y-66.099
G3 X-57.146 Y-66.262 I0.159 J-0.005
G1 X-56.751
X-56.602 Y-66.254
X-56.461 Y-66.203
X-56.333 Y-66.123
X-56.22 Y-66.024
X-56.122 Y-65.911
X-56.037 Y-65.788
X-55.964 Y-65.656
X-55.905 Y-65.519
X-55.857 Y-65.377
X-55.821 Y-65.231
X-55.798 Y-65.083
X-55.788 Y-64.933
X-55.79 Y-64.783
X-55.807 Y-64.634
X-55.841 Y-64.488
X-55.861 Y-64.435
X-55.96 Y-64.28
X-56.111 Y-64.175
X-56.291 Y-64.139
X-56.69
G3 X-56.843 Y-64.292 I0.006 J-0.159
G1 X-56.905 Y-66.097
G3 X-56.751 Y-66.262 I0.159 J-0.005
G1 X-56.357 Y-66.261
X-56.207 Y-66.253
X-56.066 Y-66.203
X-55.938 Y-66.124
X-55.825 Y-66.026
X-55.726 Y-65.913
X-55.64 Y-65.79
X-55.568 Y-65.659
X-55.508 Y-65.521
X-55.46 Y-65.379
X-55.424 Y-65.234
X-55.4 Y-65.086
X-55.389 Y-64.936
X-55.391 Y-64.786
X-55.408 Y-64.637
X-55.442 Y-64.491
X-55.461 Y-64.441
X-55.528 Y-64.318
X-55.629 Y-64.222
X-55.755 Y-64.16
X-55.893 Y-64.139
X-56.291
G3 X-56.444 Y-64.292 I0.006 J-0.159
G1 X-56.51 Y-66.096
G3 X-56.357 Y-66.261 I0.159 J-0.006
G1 X-55.963 Y-66.26
X-55.813 Y-66.253
X-55.671 Y-66.203
X-55.543 Y-66.125
X-55.429 Y-66.028
X-55.33 Y-65.915
X-55.244 Y-65.792
X-55.171 Y-65.661
X-55.111 Y-65.524
X-55.063 Y-65.382
X-55.026 Y-65.236
X-55.002 Y-65.088
X-54.991 Y-64.939
X-54.992 Y-64.789
X-55.01 Y-64.64
X-55.042 Y-64.493
X-55.063 Y-64.437
X-55.162 Y-64.281
X-55.313 Y-64.176
X-55.494 Y-64.139
X-55.893
G3 X-56.046 Y-64.291 I0.006 J-0.159
G1 X-56.116 Y-66.095
G3 X-55.963 Y-66.26 I0.159 J-0.006
G1 X-55.568
X-55.419 Y-66.252
X-55.277 Y-66.204
X-55.148 Y-66.127
X-55.034 Y-66.029
X-54.934 Y-65.917
X-54.848 Y-65.795
X-54.775 Y-65.664
X-54.714 Y-65.527
X-54.665 Y-65.385
X-54.629 Y-65.239
X-54.605 Y-65.091
X-54.593 Y-64.942
X-54.594 Y-64.792
X-54.611 Y-64.643
X-54.644 Y-64.496
X-54.663 Y-64.443
X-54.73 Y-64.32
X-54.832 Y-64.222
X-54.958 Y-64.16
X-55.097 Y-64.139
X-55.494
G3 X-55.647 Y-64.291 I0.006 J-0.159
G1 X-55.722 Y-66.095
G3 X-55.629 Y-66.246 I0.159 J-0.007
X-55.568 Y-66.26 I0.066 J0.145
G1 X-55.174 Y-66.259
X-55.024 Y-66.252
X-54.882 Y-66.205
X-54.753 Y-66.128
X-54.639 Y-66.031
X-54.538 Y-65.919
X-54.452 Y-65.797
X-54.378 Y-65.666
X-54.317 Y-65.529
X-54.268 Y-65.387
X-54.231 Y-65.242
X-54.207 Y-65.094
X-54.195 Y-64.944
X-54.196 Y-64.794
X-54.212 Y-64.645
X-54.244 Y-64.499
X-54.266 Y-64.439
X-54.334 Y-64.317
X-54.435 Y-64.221
X-54.56 Y-64.16
X-54.698 Y-64.139
X-55.097
G3 X-55.25 Y-64.29 I0.006 J-0.159
G1 X-55.327 Y-66.094
G3 X-55.174 Y-66.259 I0.159 J-0.007
G1 X-54.752
X-54.602 Y-66.251
X-54.462 Y-66.198
X-54.336 Y-66.117
X-54.224 Y-66.017
X-54.126 Y-65.904
X-54.041 Y-65.78
X-53.97 Y-65.648
X-53.911 Y-65.51
X-53.864 Y-65.368
X-53.829 Y-65.222
X-53.806 Y-65.074
X-53.796 Y-64.924
X-53.798 Y-64.774
X-53.817 Y-64.625
X-53.851 Y-64.479
X-53.87 Y-64.431
X-53.969 Y-64.278
X-54.12 Y-64.175
X-54.299 Y-64.139
X-54.698
G3 X-54.851 Y-64.293 I0.006 J-0.159
G1 X-54.905 Y-66.095
G3 X-54.752 Y-66.259 I0.159 J-0.005
G1 X-54.353
X-54.203 Y-66.251
X-54.063 Y-66.198
X-53.937 Y-66.117
X-53.825 Y-66.017
X-53.727 Y-65.903
X-53.643 Y-65.779
X-53.571 Y-65.647
X-53.512 Y-65.509
X-53.465 Y-65.367
X-53.43 Y-65.221
X-53.407 Y-65.073
X-53.397 Y-64.923
X-53.4 Y-64.773
X-53.418 Y-64.624
X-53.454 Y-64.479
X-53.47 Y-64.436
X-53.569 Y-64.28
X-53.72 Y-64.175
X-53.901 Y-64.139
X-54.299
G3 X-54.452 Y-64.293 I0.006 J-0.159
G1 X-54.506 Y-66.095
G3 X-54.413 Y-66.244 I0.159 J-0.005
X-54.353 Y-66.259 I0.066 J0.144
G1 X-53.959 Y-66.258
X-53.809 Y-66.251
X-53.668 Y-66.198
X-53.542 Y-66.118
X-53.429 Y-66.019
X-53.331 Y-65.906
X-53.246 Y-65.782
X-53.174 Y-65.65
X-53.115 Y-65.512
X-53.068 Y-65.37
X-53.032 Y-65.224
X-53.009 Y-65.076
X-52.999 Y-64.927
X-53.001 Y-64.777
X-53.02 Y-64.628
X-53.055 Y-64.482
X-53.072 Y-64.437
X-53.17 Y-64.281
X-53.322 Y-64.176
X-53.503 Y-64.139
X-53.901
G3 X-54.054 Y-64.292 I0.006 J-0.159
G1 X-54.112 Y-66.095
G3 X-53.959 Y-66.258 I0.159 J-0.005
G1 X-53.564
X-53.415 Y-66.251
X-53.274 Y-66.199
X-53.146 Y-66.12
X-53.034 Y-66.021
X-52.935 Y-65.908
X-52.85 Y-65.785
X-52.778 Y-65.653
X-52.718 Y-65.516
X-52.67 Y-65.373
X-52.635 Y-65.228
X-52.611 Y-65.079
X-52.601 Y-64.93
X-52.603 Y-64.78
X-52.621 Y-64.631
X-52.656 Y-64.485
X-52.673 Y-64.438
X-52.741 Y-64.317
X-52.842 Y-64.221
X-52.967 Y-64.16
X-53.105 Y-64.139
X-53.503
G3 X-53.656 Y-64.292 I0.006 J-0.159
G1 X-53.718 Y-66.094
G3 X-53.564 Y-66.258 I0.159 J-0.005
G1 X-53.17
X-53.02 Y-66.251
X-52.879 Y-66.2
X-52.751 Y-66.122
X-52.638 Y-66.023
X-52.539 Y-65.911
X-52.454 Y-65.787
X-52.381 Y-65.656
X-52.321 Y-65.519
X-52.273 Y-65.376
X-52.237 Y-65.231
X-52.214 Y-65.083
X-52.203 Y-64.933
X-52.205 Y-64.783
X-52.222 Y-64.634
X-52.256 Y-64.488
X-52.276 Y-64.435
X-52.374 Y-64.28
X-52.526 Y-64.175
X-52.706 Y-64.139
X-53.105
G3 X-53.258 Y-64.292 I0.006 J-0.159
G1 X-53.323 Y-66.094
G3 X-53.17 Y-66.258 I0.159 J-0.006
G1 X-52.776
X-52.626 Y-66.251
X-52.484 Y-66.201
X-52.356 Y-66.123
X-52.243 Y-66.025
X-52.143 Y-65.913
X-52.057 Y-65.79
X-51.985 Y-65.659
X-51.924 Y-65.522
X-51.876 Y-65.38
X-51.84 Y-65.234
X-51.816 Y-65.086
X-51.805 Y-64.936
X-51.806 Y-64.786
X-51.823 Y-64.637
X-51.857 Y-64.491
X-51.876 Y-64.441
X-51.943 Y-64.319
X-52.044 Y-64.222
X-52.17 Y-64.16
X-52.308 Y-64.139
X-52.706
G3 X-52.859 Y-64.291 I0.006 J-0.159
G1 X-52.929 Y-66.093
G3 X-52.836 Y-66.244 I0.159 J-0.006
X-52.776 Y-66.258 I0.066 J0.144
G1 X-52.382
X-52.232 Y-66.251
X-52.09 Y-66.202
X-51.961 Y-66.125
X-51.847 Y-66.027
X-51.747 Y-65.916
X-51.661 Y-65.793
X-51.588 Y-65.662
X-51.528 Y-65.525
X-51.479 Y-65.383
X-51.442 Y-65.237
X-51.418 Y-65.089
X-51.407 Y-64.94
X-51.408 Y-64.79
X-51.425 Y-64.641
X-51.457 Y-64.494
X-51.479 Y-64.437
X-51.546 Y-64.316
X-51.647 Y-64.221
X-51.772 Y-64.16
X-51.91 Y-64.139
X-52.308
G3 X-52.461 Y-64.291 I0.006 J-0.159
G1 X-52.535 Y-66.093
G3 X-52.442 Y-66.244 I0.159 J-0.006
X-52.382 Y-66.258 I0.066 J0.144
G1 X-51.987
X-51.837 Y-66.251
X-51.695 Y-66.203
X-51.566 Y-66.127
X-51.452 Y-66.03
X-51.352 Y-65.918
X-51.265 Y-65.795
X-51.192 Y-65.665
X-51.131 Y-65.528
X-51.082 Y-65.386
X-51.045 Y-65.24
X-51.021 Y-65.092
X-51.009 Y-64.943
Y-64.793
X-51.026 Y-64.644
X-51.058 Y-64.497
X-51.079 Y-64.439
X-51.147 Y-64.317
X-51.248 Y-64.221
X-51.373 Y-64.16
X-51.511 Y-64.139
X-51.91
G3 X-52.063 Y-64.29 I0.006 J-0.159
G1 X-52.14 Y-66.093
G3 X-52.048 Y-66.244 I0.159 J-0.007
X-51.987 Y-66.258 I0.066 J0.144
G1 X-51.56
X-51.411 Y-66.251
X-51.271 Y-66.196
X-51.145 Y-66.114
X-51.034 Y-66.014
X-50.936 Y-65.9
X-50.852 Y-65.775
X-50.781 Y-65.643
X-50.723 Y-65.505
X-50.676 Y-65.363
X-50.642 Y-65.217
X-50.619 Y-65.068
X-50.609 Y-64.919
X-50.612 Y-64.769
X-50.631 Y-64.62
X-50.666 Y-64.474
X-50.684 Y-64.429
X-50.783 Y-64.277
X-50.934 Y-64.175
X-51.112 Y-64.139
X-51.511
G3 X-51.571 Y-64.153 I0.006 J-0.159
X-51.664 Y-64.293 I0.066 J-0.144
G1 X-51.714 Y-66.095
G3 X-51.621 Y-66.244 I0.159 J-0.004
X-51.56 Y-66.258 I0.066 J0.144
G1 X-51.166
X-51.016 Y-66.251
X-50.876 Y-66.197
X-50.75 Y-66.116
X-50.638 Y-66.016
X-50.54 Y-65.902
X-50.456 Y-65.778
X-50.385 Y-65.646
X-50.326 Y-65.509
X-50.279 Y-65.366
X-50.243 Y-65.22
X-50.221 Y-65.072
X-50.211 Y-64.922
X-50.213 Y-64.772
X-50.232 Y-64.624
X-50.268 Y-64.478
X-50.284 Y-64.435
X-50.382 Y-64.28
X-50.534 Y-64.175
X-50.714 Y-64.139
X-51.112
G3 X-51.265 Y-64.293 I0.006 J-0.159
G1 X-51.319 Y-66.095
G3 X-51.226 Y-66.244 I0.159 J-0.005
X-51.166 Y-66.258 I0.066 J0.144
G1 X-50.772
X-50.622 Y-66.251
X-50.482 Y-66.198
X-50.355 Y-66.118
X-50.243 Y-66.018
X-50.144 Y-65.905
X-50.06 Y-65.781
X-49.988 Y-65.65
X-49.928 Y-65.512
X-49.881 Y-65.369
X-49.846 Y-65.224
X-49.823 Y-65.076
X-49.812 Y-64.926
X-49.815 Y-64.776
X-49.833 Y-64.627
X-49.869 Y-64.481
X-49.885 Y-64.437
X-49.984 Y-64.281
X-50.135 Y-64.176
X-50.316 Y-64.139
X-50.714
G3 X-50.867 Y-64.292 I0.006 J-0.159
G1 X-50.925 Y-66.095
G3 X-50.832 Y-66.244 I0.159 J-0.005
X-50.772 Y-66.258 I0.066 J0.144
G1 X-50.378
X-50.228 Y-66.251
X-50.087 Y-66.199
X-49.96 Y-66.12
X-49.847 Y-66.021
X-49.748 Y-65.908
X-49.663 Y-65.784
X-49.591 Y-65.653
X-49.531 Y-65.515
X-49.484 Y-65.373
X-49.448 Y-65.227
X-49.425 Y-65.079
X-49.414 Y-64.929
X-49.416 Y-64.779
X-49.435 Y-64.63
X-49.47 Y-64.485
X-49.487 Y-64.438
X-49.555 Y-64.317
X-49.656 Y-64.221
X-49.781 Y-64.16
X-49.918 Y-64.139
X-50.316
G3 X-50.469 Y-64.292 I0.006 J-0.159
G1 X-50.531 Y-66.094
G3 X-50.438 Y-66.244 I0.159 J-0.005
X-50.378 Y-66.258 I0.066 J0.144
G1 X-49.983
X-49.833 Y-66.251
X-49.692 Y-66.2
X-49.565 Y-66.121
X-49.451 Y-66.023
X-49.352 Y-65.91
X-49.267 Y-65.787
X-49.194 Y-65.656
X-49.134 Y-65.518
X-49.087 Y-65.376
X-49.051 Y-65.23
X-49.027 Y-65.082
X-49.016 Y-64.933
X-49.018 Y-64.783
X-49.036 Y-64.634
X-49.069 Y-64.488
X-49.089 Y-64.435
X-49.188 Y-64.28
X-49.339 Y-64.175
X-49.519 Y-64.139
X-49.918
G3 X-50.071 Y-64.292 I0.006 J-0.159
G1 X-50.136 Y-66.094
G3 X-50.044 Y-66.244 I0.159 J-0.006
X-49.983 Y-66.258 I0.066 J0.144
G1 X-49.589
X-49.439 Y-66.251
X-49.298 Y-66.201
X-49.17 Y-66.123
X-49.056 Y-66.025
X-48.957 Y-65.913
X-48.871 Y-65.79
X-48.798 Y-65.659
X-48.738 Y-65.521
X-48.689 Y-65.379
X-48.653 Y-65.234
X-48.629 Y-65.086
X-48.618 Y-64.936
X-48.619 Y-64.786
X-48.637 Y-64.637
X-48.671 Y-64.491
X-48.689 Y-64.441
X-48.757 Y-64.318
X-48.858 Y-64.222
X-48.983 Y-64.16
X-49.122 Y-64.139
X-49.519
G3 X-49.673 Y-64.291 I0.006 J-0.159
G1 X-49.742 Y-66.093
G3 X-49.649 Y-66.244 I0.159 J-0.006
X-49.589 Y-66.258 I0.066 J0.144
G1 X-49.195
X-49.045 Y-66.251
X-48.903 Y-66.202
X-48.775 Y-66.125
X-48.661 Y-66.027
X-48.561 Y-65.915
X-48.475 Y-65.792
X-48.401 Y-65.662
X-48.341 Y-65.524
X-48.292 Y-65.382
X-48.256 Y-65.237
X-48.232 Y-65.089
X-48.22 Y-64.939
X-48.221 Y-64.789
X-48.238 Y-64.64
X-48.271 Y-64.494
X-48.292 Y-64.437
X-48.36 Y-64.316
X-48.461 Y-64.221
X-48.586 Y-64.16
X-48.723 Y-64.139
X-49.122
G3 X-49.275 Y-64.291 I0.006 J-0.159
G1 X-49.348 Y-66.093
G3 X-49.255 Y-66.244 I0.159 J-0.006
X-49.195 Y-66.258 I0.066 J0.144
G1 X-48.8
X-48.651 Y-66.251
X-48.508 Y-66.203
X-48.38 Y-66.126
X-48.265 Y-66.029
X-48.165 Y-65.918
X-48.078 Y-65.795
X-48.005 Y-65.664
X-47.944 Y-65.527
X-47.895 Y-65.385
X-47.858 Y-65.24
X-47.834 Y-65.092
X-47.822 Y-64.943
X-47.823 Y-64.793
X-47.839 Y-64.643
X-47.871 Y-64.497
X-47.893 Y-64.439
X-47.961 Y-64.317
X-48.062 Y-64.221
X-48.187 Y-64.16
X-48.325 Y-64.139
X-48.723
G3 X-48.876 Y-64.29 I0.006 J-0.159
G1 X-48.953 Y-66.093
G3 X-48.861 Y-66.244 I0.159 J-0.007
X-48.8 Y-66.258 I0.066 J0.144
G1 X-48.379
X-48.23 Y-66.251
X-48.09 Y-66.197
X-47.963 Y-66.116
X-47.851 Y-66.017
X-47.753 Y-65.903
X-47.669 Y-65.779
X-47.597 Y-65.647
X-47.538 Y-65.509
X-47.491 Y-65.367
X-47.456 Y-65.221
X-47.433 Y-65.073
X-47.423 Y-64.923
X-47.425 Y-64.773
X-47.444 Y-64.624
X-47.478 Y-64.478
X-47.497 Y-64.431
X-47.596 Y-64.278
X-47.747 Y-64.175
X-47.926 Y-64.139
X-48.325
G3 X-48.478 Y-64.292 I0.006 J-0.159
G1 X-48.533 Y-66.095
G3 X-48.44 Y-66.244 I0.159 J-0.005
X-48.379 Y-66.258 I0.066 J0.144
G1 X-47.985
X-47.835 Y-66.251
X-47.695 Y-66.198
X-47.568 Y-66.118
X-47.456 Y-66.019
X-47.357 Y-65.906
X-47.272 Y-65.782
X-47.201 Y-65.65
X-47.141 Y-65.513
X-47.094 Y-65.37
X-47.058 Y-65.225
X-47.035 Y-65.076
X-47.025 Y-64.927
X-47.027 Y-64.777
X-47.045 Y-64.628
X-47.08 Y-64.482
X-47.097 Y-64.437
X-47.165 Y-64.316
X-47.266 Y-64.221
X-47.39 Y-64.16
X-47.528 Y-64.139
X-47.926
G3 X-48.079 Y-64.292 I0.006 J-0.159
G1 X-48.138 Y-66.094
G3 X-48.045 Y-66.244 I0.159 J-0.005
X-47.985 Y-66.258 I0.066 J0.144
G1 X-47.591
X-47.441 Y-66.251
X-47.3 Y-66.199
X-47.173 Y-66.12
X-47.06 Y-66.021
X-46.961 Y-65.908
X-46.876 Y-65.785
X-46.804 Y-65.654
X-46.744 Y-65.516
X-46.696 Y-65.374
X-46.66 Y-65.228
X-46.637 Y-65.08
X-46.626 Y-64.93
X-46.628 Y-64.78
X-46.646 Y-64.631
X-46.68 Y-64.485
X-46.699 Y-64.434
X-46.798 Y-64.279
X-46.949 Y-64.175
X-47.129 Y-64.139
X-47.528
G3 X-47.681 Y-64.292 I0.006 J-0.159
G1 X-47.744 Y-66.094
G3 X-47.651 Y-66.244 I0.159 J-0.006
X-47.591 Y-66.258 I0.066 J0.144
G1 X-47.197
X-47.047 Y-66.251
X-46.905 Y-66.201
X-46.778 Y-66.122
X-46.664 Y-66.024
X-46.565 Y-65.911
X-46.48 Y-65.788
X-46.407 Y-65.657
X-46.347 Y-65.519
X-46.299 Y-65.377
X-46.263 Y-65.231
X-46.239 Y-65.083
X-46.228 Y-64.934
X-46.229 Y-64.784
X-46.247 Y-64.635
X-46.281 Y-64.489
X-46.299 Y-64.44
X-46.367 Y-64.318
X-46.468 Y-64.221
X-46.593 Y-64.16
X-46.731 Y-64.139
X-47.129
G3 X-47.189 Y-64.153 I0.006 J-0.159
X-47.282 Y-64.291 I0.066 J-0.144
G1 X-47.35 Y-66.094
G3 X-47.257 Y-66.244 I0.159 J-0.006
X-47.197 Y-66.258 I0.066 J0.144
G1 X-46.802
X-46.653 Y-66.251
X-46.511 Y-66.202
X-46.383 Y-66.124
X-46.269 Y-66.026
X-46.169 Y-65.914
X-46.083 Y-65.791
X-46.01 Y-65.66
X-45.95 Y-65.522
X-45.902 Y-65.38
X-45.865 Y-65.235
X-45.841 Y-65.087
X-45.83 Y-64.937
X-45.831 Y-64.787
X-45.849 Y-64.638
X-45.881 Y-64.492
X-45.902 Y-64.437
X-46 Y-64.28
X-46.152 Y-64.176
X-46.333 Y-64.139
X-46.731
G3 X-46.885 Y-64.291 I0.006 J-0.159
G1 X-46.955 Y-66.093
G3 X-46.863 Y-66.244 I0.159 J-0.006
X-46.802 Y-66.258 I0.066 J0.144
G1 X-46.408
X-46.258 Y-66.251
X-46.116 Y-66.203
X-45.988 Y-66.125
X-45.873 Y-66.028
X-45.774 Y-65.916
X-45.687 Y-65.793
X-45.614 Y-65.663
X-45.553 Y-65.525
X-45.505 Y-65.383
X-45.468 Y-65.238
X-45.444 Y-65.09
X-45.432 Y-64.94
X-45.433 Y-64.79
X-45.45 Y-64.641
X-45.483 Y-64.495
X-45.502 Y-64.443
X-45.569 Y-64.32
X-45.671 Y-64.222
X-45.796 Y-64.16
X-45.935 Y-64.139
X-46.333
G3 X-46.486 Y-64.291 I0.006 J-0.159
G1 X-46.561 Y-66.093
G3 X-46.468 Y-66.244 I0.159 J-0.007
X-46.408 Y-66.258 I0.066 J0.144
G1 X-46.014
X-45.864 Y-66.251
X-45.722 Y-66.204
X-45.593 Y-66.127
X-45.478 Y-66.03
X-45.378 Y-65.919
X-45.291 Y-65.796
X-45.217 Y-65.665
X-45.156 Y-65.528
X-45.107 Y-65.387
X-45.07 Y-65.241
X-45.046 Y-65.093
X-45.034 Y-64.944
X-45.035 Y-64.794
X-45.051 Y-64.645
X-45.083 Y-64.498
X-45.105 Y-64.439
X-45.173 Y-64.317
X-45.274 Y-64.221
X-45.399 Y-64.16
X-45.537 Y-64.139
X-45.935
G3 X-46.088 Y-64.29 I0.006 J-0.159
G1 X-46.167 Y-66.093
G3 X-46.074 Y-66.244 I0.159 J-0.007
X-46.014 Y-66.258 I0.066 J0.144
G1 X-45.58
X-45.43 Y-66.251
X-45.291 Y-66.194
X-45.166 Y-66.111
X-45.055 Y-66.01
X-44.958 Y-65.896
X-44.875 Y-65.771
X-44.804 Y-65.639
X-44.746 Y-65.501
X-44.7 Y-65.358
X-44.666 Y-65.212
X-44.644 Y-65.063
X-44.634 Y-64.914
X-44.638 Y-64.764
X-44.658 Y-64.615
X-44.693 Y-64.469
X-44.71 Y-64.427
X-44.809 Y-64.276
X-44.96 Y-64.174
X-45.137 Y-64.139
X-45.537
G3 X-45.69 Y-64.293 I0.006 J-0.159
G1 X-45.733 Y-66.096
G3 X-45.64 Y-66.244 I0.159 J-0.004
X-45.58 Y-66.258 I0.066 J0.144
G1 X-45.185
X-45.036 Y-66.251
X-44.896 Y-66.196
X-44.77 Y-66.114
X-44.659 Y-66.013
X-44.562 Y-65.899
X-44.478 Y-65.774
X-44.407 Y-65.642
X-44.349 Y-65.504
X-44.302 Y-65.362
X-44.268 Y-65.216
X-44.245 Y-65.067
X-44.236 Y-64.918
X-44.239 Y-64.768
X-44.258 Y-64.619
X-44.294 Y-64.473
X-44.31 Y-64.433
X-44.408 Y-64.279
X-44.559 Y-64.175
X-44.739 Y-64.139
X-45.137
G3 X-45.29 Y-64.293 I0.006 J-0.159
G1 X-45.339 Y-66.095
G3 X-45.246 Y-66.244 I0.159 J-0.004
X-45.185 Y-66.258 I0.066 J0.144
G1 X-44.791
X-44.641 Y-66.251
X-44.501 Y-66.197
X-44.375 Y-66.115
X-44.264 Y-66.015
X-44.166 Y-65.902
X-44.082 Y-65.777
X-44.01 Y-65.645
X-43.952 Y-65.507
X-43.905 Y-65.365
X-43.87 Y-65.219
X-43.847 Y-65.071
X-43.837 Y-64.921
X-43.84 Y-64.771
X-43.859 Y-64.622
X-43.895 Y-64.477
X-43.911 Y-64.435
X-44.01 Y-64.279
X-44.161 Y-64.175
X-44.341 Y-64.139
X-44.739
G3 X-44.892 Y-64.293 I0.006 J-0.159
G1 X-44.944 Y-66.095
G3 X-44.851 Y-66.244 I0.159 J-0.005
X-44.791 Y-66.258 I0.066 J0.144
G1 X-44.397
X-44.247 Y-66.251
X-44.107 Y-66.198
X-43.98 Y-66.117
X-43.868 Y-66.018
X-43.77 Y-65.904
X-43.685 Y-65.78
X-43.614 Y-65.649
X-43.554 Y-65.511
X-43.507 Y-65.368
X-43.472 Y-65.223
X-43.449 Y-65.074
X-43.439 Y-64.925
X-43.442 Y-64.775
X-43.46 Y-64.626
X-43.496 Y-64.48
X-43.512 Y-64.436
X-43.611 Y-64.28
X-43.763 Y-64.175
X-43.943 Y-64.139
G3 X-44.091 Y-64.258 I0.006 J-0.159
G1 X-44.545 Y-66.061
G3 X-44.457 Y-66.244 I0.154 J-0.039
X-44.397 Y-66.258 I0.066 J0.144
G1 X-44.002
X-43.853 Y-66.251
X-43.712 Y-66.199
X-43.585 Y-66.119
X-43.472 Y-66.02
X-43.374 Y-65.907
X-43.289 Y-65.783
X-43.217 Y-65.652
X-43.157 Y-65.514
X-43.11 Y-65.372
X-43.074 Y-65.226
X-43.051 Y-65.078
X-43.041 Y-64.928
X-43.043 Y-64.778
X-43.062 Y-64.629
X-43.097 Y-64.483
X-43.114 Y-64.437
X-43.182 Y-64.316
X-43.283 Y-64.221
X-43.408 Y-64.159
X-43.545 Y-64.139
G3 X-43.693 Y-64.258 I0.006 J-0.159
G1 X-44.151 Y-66.061
G3 X-44.063 Y-66.244 I0.154 J-0.039
X-44.002 Y-66.258 I0.066 J0.144
G1 X-43.608
X-43.458 Y-66.251
X-43.317 Y-66.2
X-43.19 Y-66.121
X-43.077 Y-66.022
X-42.978 Y-65.909
X-42.893 Y-65.786
X-42.82 Y-65.655
X-42.76 Y-65.517
X-42.713 Y-65.375
X-42.677 Y-65.229
X-42.654 Y-65.081
X-42.643 Y-64.931
X-42.645 Y-64.781
X-42.663 Y-64.632
X-42.696 Y-64.486
X-42.716 Y-64.434
X-42.815 Y-64.279
X-42.966 Y-64.175
X-43.146 Y-64.138
G3 X-43.294 Y-64.258 I0.006 J-0.159
G1 X-43.756 Y-66.06
G3 X-43.668 Y-66.244 I0.154 J-0.039
X-43.608 Y-66.258 I0.066 J0.144
G1 X-43.214
X-43.064 Y-66.251
X-42.923 Y-66.201
X-42.795 Y-66.122
X-42.681 Y-66.024
X-42.582 Y-65.912
X-42.496 Y-65.789
X-42.424 Y-65.657
X-42.364 Y-65.52
X-42.316 Y-65.378
X-42.279 Y-65.232
X-42.256 Y-65.084
X-42.245 Y-64.935
X-42.246 Y-64.785
X-42.264 Y-64.636
X-42.298 Y-64.49
X-42.316 Y-64.44
X-42.384 Y-64.318
X-42.485 Y-64.221
X-42.61 Y-64.16
X-42.748 Y-64.138
G3 X-42.809 Y-64.153 I0.006 J-0.159
X-42.897 Y-64.257 I0.066 J-0.144
G1 X-43.362 Y-66.06
G3 X-43.274 Y-66.244 I0.154 J-0.04
X-43.214 Y-66.258 I0.066 J0.144
G1 X-42.82
X-42.67 Y-66.251
X-42.528 Y-66.202
X-42.4 Y-66.124
X-42.286 Y-66.026
X-42.186 Y-65.914
X-42.1 Y-65.791
X-42.027 Y-65.66
X-41.967 Y-65.523
X-41.919 Y-65.381
X-41.882 Y-65.236
X-41.858 Y-65.087
X-41.847 Y-64.938
X-41.848 Y-64.788
X-41.865 Y-64.639
X-41.898 Y-64.492
X-41.919 Y-64.437
X-42.017 Y-64.281
X-42.169 Y-64.175
X-42.35 Y-64.138
G3 X-42.498 Y-64.257 I0.006 J-0.159
G1 X-42.968 Y-66.06
G3 X-42.88 Y-66.244 I0.154 J-0.04
X-42.82 Y-66.258 I0.066 J0.144
G1 X-42.425
X-42.276 Y-66.251
X-42.133 Y-66.203
X-42.005 Y-66.126
X-41.891 Y-66.028
X-41.791 Y-65.917
X-41.704 Y-65.794
X-41.631 Y-65.663
X-41.57 Y-65.526
X-41.521 Y-65.384
X-41.485 Y-65.239
X-41.46 Y-65.091
X-41.449 Y-64.941
Y-64.791
X-41.466 Y-64.642
X-41.5 Y-64.496
X-41.519 Y-64.443
X-41.586 Y-64.32
X-41.687 Y-64.222
X-41.813 Y-64.16
X-41.952 Y-64.138
G3 X-42.1 Y-64.257 I0.006 J-0.159
G1 X-42.573 Y-66.059
G3 X-42.486 Y-66.244 I0.154 J-0.04
X-42.425 Y-66.258 I0.066 J0.144
G1 X-42.031
X-41.881 Y-66.251
X-41.739 Y-66.204
X-41.61 Y-66.127
X-41.495 Y-66.03
X-41.395 Y-65.919
X-41.377 Y-65.894
X-41.33 Y-65.811
X-41.302 Y-65.721
X-41.292 Y-65.627
G3 X-41.551 Y-65.51 I-0.159 J-0.006
G1 X-42.126 Y-65.976
G3 X-42.091 Y-66.244 I0.1 J-0.123
X-42.031 Y-66.258 I0.066 J0.144
G1 X-41.609
X-41.574
X-41.545
X-41.417 Y-66.252
G3 X-41.45 Y-66.037 I-0.031 J0.105
G1 X-41.544 Y-66.039
G3 X-41.545 Y-66.258 I0.002 J-0.11
G1 X-41.446
X-41.43 Y-66.255
X-41.414 Y-66.251
X-41.395 Y-66.244
X-41.377 Y-66.235
X-41.358 Y-66.221
X-41.339 Y-66.202
X-41.325 Y-66.185
X-41.314 Y-66.169
X-41.305 Y-66.152
X-41.299 Y-66.136
X-41.295 Y-66.12
X-41.293 Y-66.103
X-41.292 Y-65.578
Y-64.487
X-41.3 Y-64.337
X-41.364 Y-64.233
X-41.463 Y-64.163
X-41.583 Y-64.138
G3 X-41.708 Y-64.387 I0.006 J-0.159
G1 X-41.581 Y-64.571
G3 X-41.292 Y-64.487 I0.131 J0.09
G1 Y-64.296
X-41.294 Y-64.28
X-41.298 Y-64.264
X-41.303 Y-64.249
X-41.31 Y-64.234
X-41.319 Y-64.219
X-41.33 Y-64.205
X-41.351 Y-64.183
X-41.372 Y-64.166
X-41.393 Y-64.154
X-41.414 Y-64.146
X-41.43 Y-64.141
X-41.446 Y-64.139
X-41.545 Y-64.138
X-44.341 Y-64.139
G3 X-44.401 Y-64.153 I0.006 J-0.159
G1 X-44.446 Y-64.173 Z-1.992
X-44.486 Y-64.191 Z-1.97
X-44.518 Y-64.206 Z-1.935
X-44.539 Y-64.215 Z-1.89
X-44.546 Y-64.219 Z-1.841
G0 Z5
X-66.93 Y-64.231
Z-1.683
G1 Z-1.841 F849.6
X-66.923 Y-64.226 Z-1.89
X-66.904 Y-64.214 Z-1.935
X-66.875 Y-64.195 Z-1.97
X-66.837 Y-64.172 Z-1.992
X-66.796 Y-64.145 Z-2
G3 X-66.82 Y-64.088 I-0.017 J0.027
G1 X-66.911 Y-64.111
X-66.944 Y-64.118
X-66.961 Y-64.121
X-67.148 Y-64.129
X-67.297 Y-64.143
X-67.436 Y-64.199
X-67.56 Y-64.282
X-67.669 Y-64.386
X-67.763 Y-64.503
X-67.841 Y-64.631
X-67.905 Y-64.767
X-67.954 Y-64.908
X-67.988 Y-65.054
X-68.009 Y-65.203
X-68.016 Y-65.353
X-68.011 Y-65.503
X-67.992 Y-65.651
X-67.96 Y-65.798
X-67.914 Y-65.941
X-67.896 Y-65.982
X-67.796 Y-66.127
X-67.648 Y-66.224
X-67.474 Y-66.258
X-67.306 Y-66.26
X-67.174 Y-66.262
X-67.099 Y-66.273
G3 X-67.038 Y-66.268 I0.018 J0.158
X-66.923 Y-66.11 I-0.044 J0.153
G1 X-66.988 Y-64.282
G3 X-67.087 Y-64.14 I-0.159 J-0.006
X-67.148 Y-64.129 I-0.06 J-0.147
G1 X-67.306 Y-64.135
X-67.437 Y-64.138
X-67.542
X-67.692 Y-64.146
X-67.83 Y-64.204
X-67.953 Y-64.29
X-68.06 Y-64.395
X-68.152 Y-64.514
X-68.229 Y-64.642
X-68.291 Y-64.779
X-68.34 Y-64.921
X-68.376 Y-65.066
X-68.399 Y-65.214
X-68.41 Y-65.364
X-68.408 Y-65.514
X-68.395 Y-65.663
X-68.366 Y-65.811
X-68.322 Y-65.954
X-68.309 Y-65.985
X-68.208 Y-66.129
X-68.061 Y-66.225
X-67.888 Y-66.258
X-67.474
G3 X-67.414 Y-66.244 I-0.006 J0.159
X-67.321 Y-66.094 I-0.066 J0.144
G1 X-67.389 Y-64.291
G3 X-67.542 Y-64.138 I-0.159 J-0.006
G1 X-67.904
X-68.053 Y-64.146
X-68.194 Y-64.199
X-68.319 Y-64.281
X-68.429 Y-64.383
X-68.523 Y-64.5
X-68.603 Y-64.627
X-68.669 Y-64.762
X-68.722 Y-64.902
X-68.762 Y-65.047
X-68.789 Y-65.194
X-68.805 Y-65.343
X-68.808 Y-65.493
X-68.8 Y-65.643
X-68.777 Y-65.791
X-68.736 Y-65.936
X-68.721 Y-65.973
X-68.621 Y-66.123
X-68.472 Y-66.223
X-68.295 Y-66.258
X-67.888
G3 X-67.735 Y-66.098 I-0.006 J0.159
G1 X-67.75 Y-64.296
G3 X-67.904 Y-64.138 I-0.159 J-0.001
G1 X-68.298
X-68.448 Y-64.146
X-68.587 Y-64.202
X-68.711 Y-64.286
X-68.82 Y-64.389
X-68.914 Y-64.506
X-68.994 Y-64.633
X-69.061 Y-64.768
X-69.114 Y-64.908
X-69.156 Y-65.052
X-69.186 Y-65.199
X-69.203 Y-65.348
X-69.208 Y-65.498
X-69.201 Y-65.647
X-69.177 Y-65.796
X-69.138 Y-65.94
X-69.124 Y-65.974
X-69.024 Y-66.123
X-68.875 Y-66.223
X-68.699 Y-66.258
X-68.295
G3 X-68.142 Y-66.099 I-0.006 J0.159
G1 X-68.145 Y-64.297
G3 X-68.298 Y-64.138 I-0.159
G1 X-68.687
X-68.837 Y-64.146
X-68.976 Y-64.203
X-69.1 Y-64.287
X-69.209 Y-64.39
X-69.304 Y-64.506
X-69.385 Y-64.633
X-69.453 Y-64.766
X-69.508 Y-64.906
X-69.551 Y-65.05
X-69.582 Y-65.196
X-69.601 Y-65.345
X-69.607 Y-65.495
X-69.601 Y-65.645
X-69.579 Y-65.793
X-69.54 Y-65.938
X-69.527 Y-65.972
X-69.427 Y-66.122
X-69.277 Y-66.223
X-69.1 Y-66.258
X-68.699
G3 X-68.638 Y-66.244 I-0.006 J0.159
X-68.545 Y-66.1 I-0.066 J0.144
G1 X-68.534 Y-64.298
G3 X-68.687 Y-64.138 I-0.159 J0.001
G1 X-69.054
X-69.204 Y-64.146
X-69.345 Y-64.196
X-69.472 Y-64.276
X-69.584 Y-64.375
X-69.682 Y-64.489
X-69.766 Y-64.613
X-69.837 Y-64.746
X-69.895 Y-64.884
X-69.941 Y-65.027
X-69.975 Y-65.173
X-69.997 Y-65.321
X-70.006 Y-65.471
X-70.003 Y-65.621
X-69.984 Y-65.77
X-69.948 Y-65.915
X-69.931 Y-65.961
X-69.832 Y-66.117
X-69.681 Y-66.221
X-69.5 Y-66.258
X-69.1
G3 X-68.947 Y-66.104 I-0.006 J0.159
G1 X-68.901 Y-64.301
G3 X-69.054 Y-64.138 I-0.159 J0.004
G1 X-69.448
X-69.598 Y-64.146
X-69.739 Y-64.197
X-69.866 Y-64.277
X-69.979 Y-64.376
X-70.077 Y-64.489
X-70.161 Y-64.613
X-70.233 Y-64.745
X-70.291 Y-64.883
X-70.338 Y-65.026
X-70.373 Y-65.172
X-70.395 Y-65.32
X-70.405 Y-65.47
X-70.402 Y-65.62
X-70.383 Y-65.769
X-70.347 Y-65.914
X-70.33 Y-65.96
X-70.232 Y-66.116
X-70.08 Y-66.221
X-69.899 Y-66.258
X-69.5
G3 X-69.44 Y-66.244 I-0.006 J0.159
X-69.347 Y-66.104 I-0.066 J0.144
G1 X-69.295 Y-64.302
G3 X-69.448 Y-64.138 I-0.159 J0.005
G1 X-69.843
X-69.992 Y-64.146
X-70.133 Y-64.197
X-70.261 Y-64.276
X-70.373 Y-64.375
X-70.472 Y-64.488
X-70.557 Y-64.612
X-70.628 Y-64.744
X-70.688 Y-64.882
X-70.735 Y-65.024
X-70.77 Y-65.17
X-70.793 Y-65.318
X-70.803 Y-65.468
X-70.8 Y-65.618
X-70.782 Y-65.767
X-70.746 Y-65.912
X-70.729 Y-65.959
X-70.661 Y-66.081
X-70.56 Y-66.176
X-70.435 Y-66.237
X-70.298 Y-66.258
X-69.899
G3 X-69.746 Y-66.104 I-0.006 J0.159
G1 X-69.689 Y-64.302
G3 X-69.843 Y-64.138 I-0.159 J0.005
G1 X-70.237
X-70.387 Y-64.146
X-70.528 Y-64.196
X-70.655 Y-64.275
X-70.769 Y-64.374
X-70.867 Y-64.487
X-70.953 Y-64.61
X-71.025 Y-64.742
X-71.084 Y-64.879
X-71.132 Y-65.022
X-71.167 Y-65.167
X-71.19 Y-65.316
X-71.201 Y-65.465
X-71.199 Y-65.615
X-71.181 Y-65.764
X-71.147 Y-65.91
X-71.127 Y-65.963
X-71.028 Y-66.118
X-70.877 Y-66.222
X-70.697 Y-66.258
X-70.298
G3 X-70.145 Y-66.105 I-0.006 J0.159
G1 X-70.084 Y-64.302
G3 X-70.237 Y-64.138 I-0.159 J0.005
G1 X-70.631
X-70.781 Y-64.146
X-70.923 Y-64.196
X-71.05 Y-64.274
X-71.164 Y-64.372
X-71.263 Y-64.485
X-71.348 Y-64.608
X-71.421 Y-64.739
X-71.481 Y-64.877
X-71.529 Y-65.019
X-71.565 Y-65.165
X-71.588 Y-65.313
X-71.599 Y-65.462
X-71.597 Y-65.612
X-71.58 Y-65.761
X-71.545 Y-65.907
X-71.527 Y-65.957
X-71.46 Y-66.079
X-71.359 Y-66.175
X-71.233 Y-66.237
X-71.095 Y-66.258
X-70.697
G3 X-70.544 Y-66.105 I-0.006 J0.159
G1 X-70.478 Y-64.303
G3 X-70.631 Y-64.138 I-0.159 J0.006
G1 X-71.025
X-71.175 Y-64.146
X-71.317 Y-64.195
X-71.445 Y-64.273
X-71.559 Y-64.371
X-71.659 Y-64.483
X-71.744 Y-64.606
X-71.817 Y-64.737
X-71.878 Y-64.874
X-71.926 Y-65.016
X-71.962 Y-65.162
X-71.986 Y-65.31
X-71.997 Y-65.459
X-71.996 Y-65.609
X-71.978 Y-65.758
X-71.946 Y-65.905
X-71.925 Y-65.96
X-71.826 Y-66.116
X-71.675 Y-66.221
X-71.494 Y-66.258
X-71.095
G3 X-70.942 Y-66.106 I-0.006 J0.159
G1 X-70.872 Y-64.303
G3 X-71.025 Y-64.138 I-0.159 J0.006
G1 X-71.42
X-71.57 Y-64.146
X-71.712 Y-64.194
X-71.84 Y-64.271
X-71.954 Y-64.369
X-72.054 Y-64.481
X-72.14 Y-64.603
X-72.214 Y-64.734
X-72.274 Y-64.871
X-72.323 Y-65.013
X-72.36 Y-65.159
X-72.384 Y-65.307
X-72.395 Y-65.456
X-72.394 Y-65.606
X-72.377 Y-65.755
X-72.344 Y-65.902
X-72.325 Y-65.954
X-72.258 Y-66.077
X-72.156 Y-66.174
X-72.03 Y-66.237
X-71.892 Y-66.258
X-71.494
G3 X-71.434 Y-66.244 I-0.006 J0.159
X-71.341 Y-66.106 I-0.066 J0.144
G1 X-71.267 Y-64.304
G3 X-71.42 Y-64.138 I-0.159 J0.007
G1 X-71.814
X-71.964 Y-64.146
X-72.106 Y-64.193
X-72.235 Y-64.27
X-72.35 Y-64.367
X-72.45 Y-64.478
X-72.537 Y-64.601
X-72.61 Y-64.731
X-72.671 Y-64.868
X-72.72 Y-65.01
X-72.757 Y-65.156
X-72.781 Y-65.304
X-72.793 Y-65.453
X-72.792 Y-65.603
X-72.776 Y-65.752
X-72.744 Y-65.899
X-72.722 Y-65.958
X-72.654 Y-66.08
X-72.553 Y-66.176
X-72.428 Y-66.237
X-72.29 Y-66.258
X-71.892
G3 X-71.831 Y-66.244 I-0.006 J0.159
X-71.739 Y-66.106 I-0.066 J0.144
G1 X-71.661 Y-64.304
G3 X-71.814 Y-64.138 I-0.159 J0.007
G1 X-72.236
X-72.386 Y-64.146
X-72.526 Y-64.2
X-72.652 Y-64.28
X-72.764 Y-64.38
X-72.862 Y-64.494
X-72.947 Y-64.618
X-73.018 Y-64.749
X-73.077 Y-64.887
X-73.124 Y-65.03
X-73.159 Y-65.176
X-73.182 Y-65.324
X-73.192 Y-65.474
X-73.19 Y-65.624
X-73.171 Y-65.772
X-73.137 Y-65.918
X-73.118 Y-65.966
X-73.019 Y-66.119
X-72.868 Y-66.222
X-72.689 Y-66.258
X-72.29
G3 X-72.137 Y-66.104 I-0.006 J0.159
G1 X-72.083 Y-64.302
G3 X-72.236 Y-64.138 I-0.159 J0.005
G1 X-72.635
X-72.785 Y-64.146
X-72.925 Y-64.199
X-73.051 Y-64.28
X-73.163 Y-64.38
X-73.261 Y-64.494
X-73.346 Y-64.618
X-73.417 Y-64.75
X-73.476 Y-64.888
X-73.523 Y-65.03
X-73.558 Y-65.176
X-73.581 Y-65.324
X-73.591 Y-65.474
X-73.588 Y-65.624
X-73.57 Y-65.773
X-73.534 Y-65.918
X-73.518 Y-65.961
X-73.419 Y-66.117
X-73.268 Y-66.221
X-73.087 Y-66.258
X-72.689
G3 X-72.536 Y-66.104 I-0.006 J0.159
G1 X-72.482 Y-64.302
G3 X-72.635 Y-64.138 I-0.159 J0.005
G1 X-73.03
X-73.179 Y-64.146
X-73.32 Y-64.198
X-73.447 Y-64.279
X-73.559 Y-64.378
X-73.657 Y-64.491
X-73.742 Y-64.615
X-73.814 Y-64.747
X-73.873 Y-64.885
X-73.92 Y-65.027
X-73.956 Y-65.173
X-73.979 Y-65.321
X-73.989 Y-65.47
X-73.987 Y-65.62
X-73.968 Y-65.769
X-73.933 Y-65.915
X-73.916 Y-65.96
X-73.818 Y-66.116
X-73.666 Y-66.221
X-73.485 Y-66.258
X-73.087
G3 X-72.934 Y-66.105 I-0.006 J0.159
G1 X-72.876 Y-64.302
G3 X-73.03 Y-64.138 I-0.159 J0.005
G1 X-73.424
X-73.574 Y-64.146
X-73.714 Y-64.197
X-73.842 Y-64.277
X-73.954 Y-64.376
X-74.053 Y-64.489
X-74.138 Y-64.612
X-74.21 Y-64.744
X-74.27 Y-64.881
X-74.318 Y-65.024
X-74.354 Y-65.169
X-74.377 Y-65.317
X-74.387 Y-65.467
X-74.385 Y-65.617
X-74.367 Y-65.766
X-74.332 Y-65.912
X-74.315 Y-65.959
X-74.247 Y-66.08
X-74.146 Y-66.176
X-74.021 Y-66.237
X-73.883 Y-66.258
X-73.485
G3 X-73.332 Y-66.105 I-0.006 J0.159
G1 X-73.271 Y-64.302
G3 X-73.424 Y-64.138 I-0.159 J0.005
G1 X-73.818
X-73.968 Y-64.146
X-74.109 Y-64.196
X-74.237 Y-64.275
X-74.35 Y-64.373
X-74.449 Y-64.486
X-74.535 Y-64.609
X-74.607 Y-64.741
X-74.667 Y-64.878
X-74.715 Y-65.02
X-74.751 Y-65.166
X-74.774 Y-65.314
X-74.785 Y-65.464
X-74.783 Y-65.614
X-74.766 Y-65.763
X-74.732 Y-65.909
X-74.712 Y-65.962
X-74.614 Y-66.117
X-74.462 Y-66.221
X-74.282 Y-66.258
X-73.883
G3 X-73.73 Y-66.105 I-0.006 J0.159
G1 X-73.665 Y-64.303
G3 X-73.818 Y-64.138 I-0.159 J0.006
G1 X-74.212
X-74.362 Y-64.146
X-74.504 Y-64.195
X-74.632 Y-64.273
X-74.745 Y-64.371
X-74.845 Y-64.484
X-74.931 Y-64.607
X-75.004 Y-64.738
X-75.064 Y-64.875
X-75.112 Y-65.017
X-75.148 Y-65.163
X-75.172 Y-65.311
X-75.183 Y-65.46
X-75.182 Y-65.61
X-75.165 Y-65.759
X-75.131 Y-65.905
X-75.112 Y-65.956
X-75.045 Y-66.078
X-74.944 Y-66.175
X-74.818 Y-66.237
X-74.68 Y-66.258
X-74.282
G3 X-74.129 Y-66.106 I-0.006 J0.159
G1 X-74.059 Y-64.303
G3 X-74.212 Y-64.138 I-0.159 J0.006
G1 X-74.607
X-74.756 Y-64.146
X-74.898 Y-64.194
X-75.027 Y-64.272
X-75.141 Y-64.369
X-75.241 Y-64.481
X-75.327 Y-64.604
X-75.4 Y-64.735
X-75.461 Y-64.872
X-75.509 Y-65.014
X-75.546 Y-65.16
X-75.57 Y-65.308
X-75.581 Y-65.457
X-75.58 Y-65.607
X-75.563 Y-65.756
X-75.531 Y-65.903
X-75.51 Y-65.959
X-75.442 Y-66.081
X-75.341 Y-66.176
X-75.216 Y-66.237
X-75.078 Y-66.258
X-74.68
G3 X-74.527 Y-66.106 I-0.006 J0.159
G1 X-74.454 Y-64.303
G3 X-74.607 Y-64.138 I-0.159 J0.006
G1 X-75.001
X-75.151 Y-64.146
X-75.293 Y-64.193
X-75.422 Y-64.27
X-75.536 Y-64.367
X-75.636 Y-64.479
X-75.723 Y-64.601
X-75.797 Y-64.732
X-75.857 Y-64.869
X-75.906 Y-65.011
X-75.943 Y-65.156
X-75.968 Y-65.304
X-75.979 Y-65.454
Y-65.604
X-75.962 Y-65.753
X-75.93 Y-65.9
X-75.909 Y-65.958
X-75.841 Y-66.08
X-75.74 Y-66.176
X-75.615 Y-66.237
X-75.477 Y-66.258
X-75.078
G3 X-74.925 Y-66.106 I-0.006 J0.159
G1 X-74.848 Y-64.304
G3 X-75.001 Y-64.138 I-0.159 J0.007
G1 X-75.428
X-75.578 Y-64.146
X-75.717 Y-64.201
X-75.843 Y-64.283
X-75.954 Y-64.383
X-76.052 Y-64.497
X-76.136 Y-64.621
X-76.207 Y-64.753
X-76.265 Y-64.892
X-76.312 Y-65.034
X-76.347 Y-65.18
X-76.369 Y-65.328
X-76.379 Y-65.478
X-76.376 Y-65.628
X-76.357 Y-65.777
X-76.322 Y-65.923
X-76.304 Y-65.967
X-76.205 Y-66.12
X-76.054 Y-66.222
X-75.876 Y-66.258
X-75.477
G3 X-75.324 Y-66.104 I-0.006 J0.159
G1 X-75.275 Y-64.301
G3 X-75.428 Y-64.138 I-0.159 J0.004
G1 X-75.822
X-75.972 Y-64.146
X-76.112 Y-64.2
X-76.238 Y-64.281
X-76.35 Y-64.38
X-76.448 Y-64.494
X-76.532 Y-64.618
X-76.604 Y-64.75
X-76.663 Y-64.888
X-76.71 Y-65.031
X-76.745 Y-65.176
X-76.767 Y-65.325
X-76.777 Y-65.474
X-76.775 Y-65.624
X-76.756 Y-65.773
X-76.721 Y-65.919
X-76.704 Y-65.961
X-76.606 Y-66.117
X-76.454 Y-66.221
X-76.274 Y-66.258
X-75.876
G3 X-75.816 Y-66.244 I-0.006 J0.159
X-75.723 Y-66.104 I-0.066 J0.144
G1 X-75.669 Y-64.302
G3 X-75.822 Y-64.138 I-0.159 J0.005
G1 X-76.216
X-76.366 Y-64.146
X-76.507 Y-64.199
X-76.633 Y-64.279
X-76.746 Y-64.378
X-76.844 Y-64.492
X-76.929 Y-64.615
X-77 Y-64.747
X-77.06 Y-64.885
X-77.107 Y-65.027
X-77.143 Y-65.173
X-77.166 Y-65.321
X-77.176 Y-65.471
X-77.173 Y-65.621
X-77.155 Y-65.77
X-77.12 Y-65.915
X-77.103 Y-65.96
X-77.004 Y-66.116
X-76.853 Y-66.221
X-76.672 Y-66.258
X-76.274
G3 X-76.121 Y-66.105 I-0.006 J0.159
G1 X-76.063 Y-64.302
G3 X-76.216 Y-64.138 I-0.159 J0.005
G1 X-76.611
X-76.76 Y-64.146
X-76.901 Y-64.197
X-77.029 Y-64.277
X-77.141 Y-64.376
X-77.24 Y-64.489
X-77.325 Y-64.612
X-77.397 Y-64.744
X-77.457 Y-64.882
X-77.504 Y-65.024
X-77.54 Y-65.17
X-77.563 Y-65.318
X-77.574 Y-65.467
X-77.572 Y-65.617
X-77.553 Y-65.766
X-77.519 Y-65.912
X-77.501 Y-65.959
X-77.433 Y-66.08
X-77.332 Y-66.176
X-77.207 Y-66.237
X-77.07 Y-66.258
X-76.672
G3 X-76.519 Y-66.105 I-0.006 J0.159
G1 X-76.458 Y-64.302
G3 X-76.611 Y-64.138 I-0.159 J0.005
G1 X-77.005
X-77.155 Y-64.146
X-77.296 Y-64.196
X-77.424 Y-64.275
X-77.537 Y-64.374
X-77.636 Y-64.486
X-77.721 Y-64.61
X-77.794 Y-64.741
X-77.854 Y-64.878
X-77.902 Y-65.021
X-77.938 Y-65.166
X-77.961 Y-65.314
X-77.972 Y-65.464
X-77.97 Y-65.614
X-77.952 Y-65.763
X-77.919 Y-65.909
X-77.899 Y-65.962
X-77.8 Y-66.117
X-77.649 Y-66.221
X-77.469 Y-66.258
X-77.07
G3 X-76.917 Y-66.105 I-0.006 J0.159
G1 X-76.852 Y-64.303
G3 X-77.005 Y-64.138 I-0.159 J0.006
G1 X-77.399
X-77.549 Y-64.146
X-77.691 Y-64.195
X-77.819 Y-64.274
X-77.932 Y-64.372
X-78.032 Y-64.484
X-78.118 Y-64.607
X-78.19 Y-64.738
X-78.251 Y-64.875
X-78.299 Y-65.017
X-78.335 Y-65.163
X-78.359 Y-65.311
X-78.37 Y-65.461
X-78.369 Y-65.611
X-78.351 Y-65.76
X-78.317 Y-65.906
X-78.299 Y-65.956
X-78.232 Y-66.078
X-78.13 Y-66.175
X-78.005 Y-66.237
X-77.866 Y-66.258
X-77.469
G3 X-77.408 Y-66.244 I-0.006 J0.159
X-77.316 Y-66.106 I-0.066 J0.144
G1 X-77.246 Y-64.303
G3 X-77.399 Y-64.138 I-0.159 J0.006
G1 X-77.794
X-77.943 Y-64.146
X-78.085 Y-64.194
X-78.214 Y-64.272
X-78.328 Y-64.369
X-78.427 Y-64.481
X-78.514 Y-64.604
X-78.587 Y-64.735
X-78.647 Y-64.872
X-78.696 Y-65.014
X-78.733 Y-65.16
X-78.757 Y-65.308
X-78.768 Y-65.457
X-78.767 Y-65.607
X-78.75 Y-65.756
X-78.717 Y-65.903
X-78.696 Y-65.959
X-78.628 Y-66.081
X-78.527 Y-66.176
X-78.403 Y-66.237
X-78.265 Y-66.258
X-77.866
G3 X-77.713 Y-66.106 I-0.006 J0.159
G1 X-77.64 Y-64.303
G3 X-77.794 Y-64.138 I-0.159 J0.006
G1 X-78.188
X-78.338 Y-64.146
X-78.48 Y-64.193
X-78.609 Y-64.27
X-78.723 Y-64.367
X-78.823 Y-64.479
X-78.91 Y-64.602
X-78.983 Y-64.732
X-79.044 Y-64.869
X-79.093 Y-65.011
X-79.13 Y-65.157
X-79.154 Y-65.305
X-79.166 Y-65.454
X-79.165 Y-65.604
X-79.149 Y-65.753
X-79.117 Y-65.9
X-79.095 Y-65.958
X-79.028 Y-66.08
X-78.927 Y-66.176
X-78.801 Y-66.237
X-78.664 Y-66.258
X-78.265
G3 X-78.112 Y-66.106 I-0.006 J0.159
G1 X-78.035 Y-64.304
G3 X-78.188 Y-64.138 I-0.159 J0.007
G1 X-78.609
X-78.759 Y-64.146
X-78.899 Y-64.2
X-79.025 Y-64.28
X-79.137 Y-64.38
X-79.235 Y-64.494
X-79.32 Y-64.617
X-79.391 Y-64.749
X-79.45 Y-64.887
X-79.497 Y-65.03
X-79.532 Y-65.176
X-79.555 Y-65.324
X-79.566 Y-65.473
X-79.563 Y-65.623
X-79.544 Y-65.772
X-79.51 Y-65.918
X-79.491 Y-65.966
X-79.392 Y-66.119
X-79.242 Y-66.222
X-79.063 Y-66.258
X-78.664
G3 X-78.51 Y-66.104 I-0.006 J0.159
G1 X-78.456 Y-64.302
G3 X-78.609 Y-64.138 I-0.159 J0.005
G1 X-79.003
X-79.153 Y-64.146
X-79.293 Y-64.198
X-79.42 Y-64.278
X-79.533 Y-64.378
X-79.631 Y-64.491
X-79.716 Y-64.615
X-79.788 Y-64.746
X-79.847 Y-64.884
X-79.895 Y-65.026
X-79.93 Y-65.172
X-79.953 Y-65.32
X-79.964 Y-65.47
X-79.962 Y-65.62
X-79.944 Y-65.769
X-79.908 Y-65.914
X-79.891 Y-65.959
X-79.824 Y-66.081
X-79.723 Y-66.176
X-79.598 Y-66.237
X-79.46 Y-66.258
X-79.063
G3 X-78.909 Y-66.105 I-0.006 J0.159
G1 X-78.85 Y-64.302
G3 X-79.003 Y-64.138 I-0.159 J0.005
G1 X-79.397
X-79.547 Y-64.146
X-79.688 Y-64.197
X-79.815 Y-64.277
X-79.928 Y-64.375
X-80.027 Y-64.488
X-80.112 Y-64.612
X-80.185 Y-64.743
X-80.244 Y-64.881
X-80.292 Y-65.023
X-80.328 Y-65.169
X-80.351 Y-65.317
X-80.362 Y-65.466
X-80.36 Y-65.616
X-80.342 Y-65.765
X-80.309 Y-65.911
X-80.289 Y-65.963
X-80.19 Y-66.118
X-80.039 Y-66.222
X-79.859 Y-66.258
X-79.46
G3 X-79.307 Y-66.105 I-0.006 J0.159
G1 X-79.244 Y-64.303
G3 X-79.397 Y-64.138 I-0.159 J0.006
G1 X-79.792
X-79.941 Y-64.146
X-80.083 Y-64.196
X-80.211 Y-64.275
X-80.324 Y-64.373
X-80.423 Y-64.486
X-80.509 Y-64.609
X-80.581 Y-64.74
X-80.641 Y-64.877
X-80.689 Y-65.02
X-80.726 Y-65.165
X-80.749 Y-65.313
X-80.76 Y-65.463
X-80.759 Y-65.613
X-80.741 Y-65.762
X-80.707 Y-65.908
X-80.689 Y-65.957
X-80.621 Y-66.079
X-80.52 Y-66.175
X-80.395 Y-66.237
X-80.257 Y-66.258
X-79.859
G3 X-79.706 Y-66.105 I-0.006 J0.159
G1 X-79.639 Y-64.303
G3 X-79.792 Y-64.138 I-0.159 J0.006
G1 X-80.186
X-80.336 Y-64.146
X-80.477 Y-64.195
X-80.606 Y-64.273
X-80.719 Y-64.371
X-80.819 Y-64.483
X-80.905 Y-64.606
X-80.978 Y-64.737
X-81.038 Y-64.874
X-81.087 Y-65.016
X-81.123 Y-65.162
X-81.147 Y-65.31
X-81.158 Y-65.459
X-81.157 Y-65.609
X-81.14 Y-65.758
X-81.107 Y-65.905
X-81.086 Y-65.96
X-80.988 Y-66.116
X-80.836 Y-66.221
X-80.655 Y-66.258
X-80.257
G3 X-80.104 Y-66.106 I-0.006 J0.159
G1 X-80.033 Y-64.303
G3 X-80.186 Y-64.138 I-0.159 J0.006
G1 X-80.58
X-80.73 Y-64.146
X-80.872 Y-64.194
X-81.001 Y-64.271
X-81.115 Y-64.369
X-81.215 Y-64.481
X-81.301 Y-64.603
X-81.374 Y-64.734
X-81.435 Y-64.871
X-81.484 Y-65.013
X-81.52 Y-65.159
X-81.545 Y-65.307
X-81.556 Y-65.456
Y-65.606
X-81.539 Y-65.755
X-81.505 Y-65.901
X-81.486 Y-65.954
X-81.419 Y-66.077
X-81.318 Y-66.174
X-81.192 Y-66.237
X-81.053 Y-66.258
X-80.655
G3 X-80.502 Y-66.106 I-0.006 J0.159
G1 X-80.427 Y-64.304
G3 X-80.58 Y-64.138 I-0.159 J0.007
G1 X-80.975
X-81.124 Y-64.146
X-81.267 Y-64.193
X-81.396 Y-64.27
X-81.51 Y-64.367
X-81.611 Y-64.478
X-81.697 Y-64.6
X-81.771 Y-64.731
X-81.832 Y-64.868
X-81.881 Y-65.01
X-81.918 Y-65.155
X-81.943 Y-65.303
X-81.954 Y-65.453
X-81.953 Y-65.603
X-81.937 Y-65.752
X-81.905 Y-65.898
X-81.883 Y-65.958
X-81.816 Y-66.08
X-81.715 Y-66.176
X-81.589 Y-66.237
X-81.451 Y-66.258
X-81.053
G3 X-80.9 Y-66.106 I-0.006 J0.159
G1 X-80.821 Y-64.304
G3 X-80.975 Y-64.138 I-0.159 J0.007
G1 X-81.409
X-81.558 Y-64.146
X-81.697 Y-64.202
X-81.822 Y-64.285
X-81.933 Y-64.386
X-82.03 Y-64.501
X-82.114 Y-64.625
X-82.184 Y-64.758
X-82.242 Y-64.896
X-82.288 Y-65.039
X-82.322 Y-65.185
X-82.345 Y-65.333
X-82.354 Y-65.483
X-82.35 Y-65.633
X-82.331 Y-65.782
X-82.295 Y-65.927
X-82.278 Y-65.969
X-82.179 Y-66.121
X-82.029 Y-66.222
X-81.851 Y-66.258
X-81.451
G3 X-81.298 Y-66.103 I-0.006 J0.159
G1 X-81.255 Y-64.301
G3 X-81.409 Y-64.138 I-0.159 J0.004
G1 X-81.803
X-81.953 Y-64.146
X-82.092 Y-64.201
X-82.218 Y-64.283
X-82.329 Y-64.383
X-82.426 Y-64.498
X-82.51 Y-64.622
X-82.581 Y-64.754
X-82.639 Y-64.893
X-82.686 Y-65.035
X-82.721 Y-65.181
X-82.743 Y-65.329
X-82.752 Y-65.479
X-82.75 Y-65.629
X-82.73 Y-65.778
X-82.694 Y-65.923
X-82.679 Y-65.963
X-82.58 Y-66.118
X-82.429 Y-66.222
X-82.249 Y-66.258
X-81.851
G3 X-81.698 Y-66.104 I-0.006 J0.159
G1 X-81.65 Y-64.301
G3 X-81.743 Y-64.153 I-0.159 J0.004
X-81.803 Y-64.138 I-0.066 J-0.144
G1 X-82.197
X-82.347 Y-64.146
X-82.487 Y-64.2
X-82.613 Y-64.281
X-82.725 Y-64.381
X-82.822 Y-64.495
X-82.907 Y-64.619
X-82.978 Y-64.751
X-83.037 Y-64.889
X-83.083 Y-65.032
X-83.119 Y-65.178
X-83.141 Y-65.326
X-83.151 Y-65.476
X-83.148 Y-65.626
X-83.129 Y-65.774
X-83.093 Y-65.92
X-83.077 Y-65.962
X-82.979 Y-66.117
X-82.827 Y-66.221
X-82.647 Y-66.258
X-82.249
G3 X-82.096 Y-66.104 I-0.006 J0.159
G1 X-82.044 Y-64.302
G3 X-82.137 Y-64.153 I-0.159 J0.005
X-82.197 Y-64.138 I-0.066 J-0.144
G1 X-82.591
X-82.741 Y-64.146
X-82.882 Y-64.199
X-83.008 Y-64.279
X-83.12 Y-64.379
X-83.218 Y-64.492
X-83.303 Y-64.616
X-83.375 Y-64.748
X-83.434 Y-64.886
X-83.481 Y-65.028
X-83.516 Y-65.174
X-83.539 Y-65.322
X-83.549 Y-65.472
X-83.547 Y-65.622
X-83.528 Y-65.771
X-83.492 Y-65.917
X-83.476 Y-65.961
X-83.377 Y-66.117
X-83.226 Y-66.221
X-83.045 Y-66.258
X-82.647
G3 X-82.494 Y-66.104 I-0.006 J0.159
G1 X-82.438 Y-64.302
G3 X-82.591 Y-64.138 I-0.159 J0.005
G1 X-82.986
X-83.136 Y-64.146
X-83.276 Y-64.198
X-83.403 Y-64.278
X-83.516 Y-64.377
X-83.614 Y-64.49
X-83.699 Y-64.613
X-83.771 Y-64.745
X-83.831 Y-64.883
X-83.878 Y-65.025
X-83.914 Y-65.171
X-83.937 Y-65.319
X-83.947 Y-65.469
X-83.945 Y-65.619
X-83.927 Y-65.767
X-83.892 Y-65.913
X-83.874 Y-65.959
X-83.806 Y-66.081
X-83.706 Y-66.176
X-83.581 Y-66.237
X-83.443 Y-66.258
X-83.045
G3 X-82.892 Y-66.105 I-0.006 J0.159
G1 X-82.833 Y-64.302
G3 X-82.986 Y-64.138 I-0.159 J0.005
G1 X-83.38
X-83.53 Y-64.146
X-83.671 Y-64.197
X-83.798 Y-64.276
X-83.911 Y-64.374
X-84.01 Y-64.487
X-84.096 Y-64.611
X-84.168 Y-64.742
X-84.228 Y-64.88
X-84.275 Y-65.022
X-84.311 Y-65.167
X-84.335 Y-65.316
X-84.345 Y-65.465
X-84.343 Y-65.615
X-84.325 Y-65.764
X-84.292 Y-65.91
X-84.272 Y-65.963
X-84.173 Y-66.117
X-84.022 Y-66.222
X-83.842 Y-66.258
X-83.443
G3 X-83.29 Y-66.105 I-0.006 J0.159
G1 X-83.227 Y-64.303
G3 X-83.38 Y-64.138 I-0.159 J0.006
G1 X-83.774
X-83.924 Y-64.146
X-84.066 Y-64.196
X-84.193 Y-64.274
X-84.307 Y-64.372
X-84.406 Y-64.485
X-84.492 Y-64.608
X-84.564 Y-64.739
X-84.625 Y-64.877
X-84.673 Y-65.019
X-84.709 Y-65.164
X-84.732 Y-65.312
X-84.744 Y-65.462
X-84.742 Y-65.612
X-84.725 Y-65.761
X-84.69 Y-65.907
X-84.672 Y-65.956
X-84.605 Y-66.079
X-84.504 Y-66.175
X-84.378 Y-66.237
X-84.24 Y-66.258
X-83.842
G3 X-83.689 Y-66.105 I-0.006 J0.159
G1 X-83.621 Y-64.303
G3 X-83.774 Y-64.138 I-0.159 J0.006
G1 X-84.169
X-84.318 Y-64.146
X-84.46 Y-64.195
X-84.589 Y-64.273
X-84.702 Y-64.37
X-84.802 Y-64.482
X-84.888 Y-64.605
X-84.961 Y-64.736
X-85.021 Y-64.874
X-85.07 Y-65.016
X-85.106 Y-65.161
X-85.13 Y-65.309
X-85.142 Y-65.459
X-85.14 Y-65.609
X-85.123 Y-65.758
X-85.091 Y-65.904
X-85.07 Y-65.96
X-84.971 Y-66.116
X-84.819 Y-66.221
X-84.639 Y-66.258
X-84.24
G3 X-84.087 Y-66.106 I-0.006 J0.159
G1 X-84.016 Y-64.303
G3 X-84.169 Y-64.138 I-0.159 J0.006
G1 X-84.563
X-84.713 Y-64.146
X-84.855 Y-64.194
X-84.984 Y-64.271
X-85.098 Y-64.368
X-85.198 Y-64.48
X-85.284 Y-64.603
X-85.357 Y-64.733
X-85.418 Y-64.871
X-85.467 Y-65.013
X-85.504 Y-65.158
X-85.528 Y-65.306
X-85.54 Y-65.455
X-85.539 Y-65.605
X-85.522 Y-65.755
X-85.488 Y-65.901
X-85.469 Y-65.954
X-85.402 Y-66.077
X-85.301 Y-66.174
X-85.175 Y-66.237
X-85.036 Y-66.258
X-84.639
G3 X-84.486 Y-66.106 I-0.006 J0.159
G1 X-84.41 Y-64.304
G3 X-84.563 Y-64.138 I-0.159 J0.007
G1 X-84.957
X-85.107 Y-64.146
X-85.25 Y-64.193
X-85.379 Y-64.269
X-85.493 Y-64.366
X-85.593 Y-64.478
X-85.68 Y-64.6
X-85.754 Y-64.731
X-85.815 Y-64.868
X-85.864 Y-65.009
X-85.901 Y-65.155
X-85.926 Y-65.303
X-85.938 Y-65.452
X-85.937 Y-65.602
X-85.92 Y-65.751
X-85.889 Y-65.898
X-85.867 Y-65.957
X-85.799 Y-66.079
X-85.698 Y-66.176
X-85.573 Y-66.237
X-85.435 Y-66.258
X-85.036
G3 X-84.883 Y-66.106 I-0.006 J0.159
G1 X-84.804 Y-64.304
G3 X-84.957 Y-64.138 I-0.159 J0.007
G1 X-85.379
X-85.529 Y-64.146
X-85.669 Y-64.199
X-85.796 Y-64.28
X-85.908 Y-64.379
X-86.006 Y-64.493
X-86.091 Y-64.617
X-86.162 Y-64.749
X-86.221 Y-64.886
X-86.268 Y-65.029
X-86.304 Y-65.175
X-86.327 Y-65.323
X-86.337 Y-65.473
X-86.334 Y-65.623
X-86.316 Y-65.771
X-86.281 Y-65.917
X-86.263 Y-65.965
X-86.164 Y-66.119
X-86.013 Y-66.222
X-85.834 Y-66.258
X-85.435
G3 X-85.282 Y-66.104 I-0.006 J0.159
G1 X-85.226 Y-64.302
G3 X-85.379 Y-64.138 I-0.159 J0.005
G1 X-85.778
X-85.928 Y-64.146
X-86.068 Y-64.199
X-86.195 Y-64.28
X-86.307 Y-64.38
X-86.405 Y-64.493
X-86.489 Y-64.617
X-86.561 Y-64.749
X-86.62 Y-64.887
X-86.667 Y-65.029
X-86.702 Y-65.175
X-86.725 Y-65.323
X-86.735 Y-65.473
X-86.733 Y-65.623
X-86.714 Y-65.772
X-86.679 Y-65.918
X-86.662 Y-65.961
X-86.564 Y-66.117
X-86.412 Y-66.221
X-86.232 Y-66.258
X-85.834
G3 X-85.681 Y-66.104 I-0.006 J0.159
G1 X-85.625 Y-64.302
G3 X-85.718 Y-64.153 I-0.159 J0.005
X-85.778 Y-64.138 I-0.066 J-0.144
G1 X-86.173
X-86.322 Y-64.146
X-86.463 Y-64.198
X-86.59 Y-64.278
X-86.702 Y-64.377
X-86.801 Y-64.491
X-86.886 Y-64.614
X-86.958 Y-64.746
X-87.017 Y-64.884
X-87.064 Y-65.026
X-87.1 Y-65.172
X-87.123 Y-65.32
X-87.133 Y-65.469
X-87.131 Y-65.619
X-87.113 Y-65.768
X-87.078 Y-65.914
X-87.061 Y-65.96
X-86.993 Y-66.081
X-86.892 Y-66.176
X-86.767 Y-66.237
X-86.63 Y-66.258
X-86.232
G3 X-86.079 Y-66.105 I-0.006 J0.159
G1 X-86.02 Y-64.302
G3 X-86.173 Y-64.138 I-0.159 J0.005
G1 X-86.567
X-86.717 Y-64.146
X-86.858 Y-64.197
X-86.985 Y-64.276
X-87.098 Y-64.375
X-87.197 Y-64.488
X-87.282 Y-64.611
X-87.354 Y-64.743
X-87.414 Y-64.88
X-87.462 Y-65.023
X-87.498 Y-65.168
X-87.521 Y-65.316
X-87.531 Y-65.466
X-87.53 Y-65.616
X-87.512 Y-65.765
X-87.478 Y-65.911
X-87.458 Y-65.963
X-87.36 Y-66.118
X-87.208 Y-66.222
X-87.029 Y-66.258
X-86.63
G3 X-86.476 Y-66.105 I-0.006 J0.159
G1 X-86.414 Y-64.303
G3 X-86.507 Y-64.153 I-0.159 J0.006
X-86.567 Y-64.138 I-0.066 J-0.144
G1 X-86.961
X-87.111 Y-64.146
X-87.252 Y-64.196
X-87.38 Y-64.275
X-87.494 Y-64.373
X-87.593 Y-64.485
X-87.678 Y-64.609
X-87.751 Y-64.74
X-87.811 Y-64.877
X-87.859 Y-65.019
X-87.895 Y-65.165
X-87.919 Y-65.313
X-87.93 Y-65.463
X-87.928 Y-65.613
X-87.911 Y-65.762
X-87.876 Y-65.908
X-87.858 Y-65.957
X-87.791 Y-66.079
X-87.69 Y-66.175
X-87.564 Y-66.237
X-87.426 Y-66.258
X-87.029
G3 X-86.875 Y-66.105 I-0.006 J0.159
G1 X-86.808 Y-64.303
G3 X-86.901 Y-64.153 I-0.159 J0.006
X-86.961 Y-64.138 I-0.066 J-0.144
G1 X-87.356
X-87.505 Y-64.146
X-87.647 Y-64.195
X-87.775 Y-64.273
X-87.889 Y-64.371
X-87.989 Y-64.483
X-88.074 Y-64.606
X-88.147 Y-64.737
X-88.208 Y-64.874
X-88.256 Y-65.016
X-88.293 Y-65.162
X-88.317 Y-65.31
X-88.328 Y-65.459
X-88.326 Y-65.609
X-88.309 Y-65.758
X-88.277 Y-65.905
X-88.256 Y-65.96
X-88.157 Y-66.116
X-88.006 Y-66.221
X-87.825 Y-66.258
X-87.426
G3 X-87.273 Y-66.106 I-0.006 J0.159
G1 X-87.202 Y-64.303
G3 X-87.356 Y-64.138 I-0.159 J0.006
G1 X-87.75
X-87.9 Y-64.146
X-88.042 Y-64.194
X-88.17 Y-64.271
X-88.284 Y-64.369
X-88.384 Y-64.48
X-88.471 Y-64.603
X-88.544 Y-64.734
X-88.605 Y-64.871
X-88.653 Y-65.013
X-88.69 Y-65.159
X-88.714 Y-65.307
X-88.726 Y-65.456
X-88.725 Y-65.606
X-88.708 Y-65.755
X-88.675 Y-65.901
X-88.656 Y-65.954
X-88.588 Y-66.077
X-88.487 Y-66.174
X-88.361 Y-66.237
X-88.222 Y-66.258
X-87.825
G3 X-87.672 Y-66.106 I-0.006 J0.159
G1 X-87.597 Y-64.304
G3 X-87.75 Y-64.138 I-0.159 J0.007
G1 X-88.144
X-88.294 Y-64.146
X-88.436 Y-64.193
X-88.565 Y-64.27
X-88.68 Y-64.367
X-88.78 Y-64.478
X-88.867 Y-64.6
X-88.94 Y-64.731
X-89.001 Y-64.868
X-89.05 Y-65.01
X-89.087 Y-65.155
X-89.112 Y-65.303
X-89.124 Y-65.453
X-89.123 Y-65.603
X-89.107 Y-65.752
X-89.075 Y-65.898
X-89.053 Y-65.958
X-88.985 Y-66.08
X-88.884 Y-66.176
X-88.759 Y-66.237
X-88.621 Y-66.258
X-88.222
G3 X-88.069 Y-66.106 I-0.006 J0.159
G1 X-87.991 Y-64.304
G3 X-88.084 Y-64.153 I-0.159 J0.007
X-88.144 Y-64.138 I-0.066 J-0.144
G1 X-88.571
X-88.721 Y-64.146
X-88.86 Y-64.201
X-88.986 Y-64.282
X-89.098 Y-64.382
X-89.196 Y-64.496
X-89.28 Y-64.62
X-89.351 Y-64.753
X-89.409 Y-64.891
X-89.456 Y-65.033
X-89.491 Y-65.179
X-89.513 Y-65.327
X-89.523 Y-65.477
X-89.52 Y-65.627
X-89.501 Y-65.776
X-89.466 Y-65.922
X-89.448 Y-65.967
X-89.349 Y-66.12
X-89.199 Y-66.222
X-89.02 Y-66.258
X-88.621
G3 X-88.468 Y-66.104 I-0.006 J0.159
G1 X-88.418 Y-64.301
G3 X-88.571 Y-64.138 I-0.159 J0.004
G1 X-88.965
X-89.115 Y-64.146
X-89.255 Y-64.199
X-89.382 Y-64.28
X-89.494 Y-64.38
X-89.592 Y-64.493
X-89.676 Y-64.617
X-89.747 Y-64.749
X-89.806 Y-64.887
X-89.854 Y-65.03
X-89.889 Y-65.175
X-89.911 Y-65.324
X-89.922 Y-65.473
X-89.919 Y-65.623
X-89.901 Y-65.772
X-89.865 Y-65.918
X-89.849 Y-65.961
X-89.75 Y-66.117
X-89.599 Y-66.221
X-89.418 Y-66.258
X-89.02
G3 X-88.867 Y-66.104 I-0.006 J0.159
G1 X-88.812 Y-64.302
G3 X-88.965 Y-64.138 I-0.159 J0.005
G1 X-89.36
X-89.509 Y-64.146
X-89.65 Y-64.198
X-89.777 Y-64.278
X-89.889 Y-64.378
X-89.988 Y-64.491
X-90.072 Y-64.615
X-90.144 Y-64.746
X-90.204 Y-64.884
X-90.251 Y-65.026
X-90.287 Y-65.172
X-90.31 Y-65.32
X-90.32 Y-65.47
X-90.318 Y-65.62
X-90.299 Y-65.769
X-90.264 Y-65.915
X-90.247 Y-65.96
X-90.149 Y-66.116
X-89.997 Y-66.221
X-89.816 Y-66.258
X-89.418
G3 X-89.265 Y-66.105 I-0.006 J0.159
G1 X-89.206 Y-64.302
G3 X-89.36 Y-64.138 I-0.159 J0.005
G1 X-89.754
X-89.904 Y-64.146
X-90.045 Y-64.197
X-90.172 Y-64.277
X-90.285 Y-64.375
X-90.383 Y-64.488
X-90.469 Y-64.612
X-90.541 Y-64.743
X-90.601 Y-64.881
X-90.648 Y-65.023
X-90.684 Y-65.169
X-90.707 Y-65.317
X-90.718 Y-65.466
X-90.716 Y-65.616
X-90.698 Y-65.765
X-90.663 Y-65.911
X-90.645 Y-65.958
X-90.578 Y-66.08
X-90.477 Y-66.176
X-90.352 Y-66.237
X-90.214 Y-66.258
X-89.816
G3 X-89.663 Y-66.105 I-0.006 J0.159
G1 X-89.601 Y-64.302
G3 X-89.754 Y-64.138 I-0.159 J0.005
G1 X-90.148
X-90.298 Y-64.146
X-90.439 Y-64.196
X-90.567 Y-64.275
X-90.68 Y-64.373
X-90.779 Y-64.486
X-90.865 Y-64.609
X-90.938 Y-64.74
X-90.998 Y-64.878
X-91.046 Y-65.02
X-91.082 Y-65.165
X-91.105 Y-65.313
X-91.116 Y-65.463
X-91.114 Y-65.613
X-91.097 Y-65.762
X-91.063 Y-65.908
X-91.043 Y-65.962
X-90.945 Y-66.117
X-90.793 Y-66.221
X-90.613 Y-66.258
X-90.214
G3 X-90.061 Y-66.105 I-0.006 J0.159
G1 X-89.995 Y-64.303
G3 X-90.148 Y-64.138 I-0.159 J0.006
G1 X-90.542
X-90.692 Y-64.146
X-90.834 Y-64.195
X-90.962 Y-64.273
X-91.076 Y-64.371
X-91.175 Y-64.483
X-91.261 Y-64.606
X-91.334 Y-64.737
X-91.394 Y-64.875
X-91.443 Y-65.017
X-91.479 Y-65.162
X-91.503 Y-65.31
X-91.514 Y-65.46
X-91.513 Y-65.61
X-91.496 Y-65.759
X-91.462 Y-65.905
X-91.443 Y-65.955
X-91.376 Y-66.078
X-91.275 Y-66.175
X-91.149 Y-66.237
X-91.011 Y-66.258
X-90.613
G3 X-90.46 Y-66.106 I-0.006 J0.159
G1 X-90.389 Y-64.303
G3 X-90.542 Y-64.138 I-0.159 J0.006
G1 X-90.937
X-91.087 Y-64.146
X-91.229 Y-64.194
X-91.357 Y-64.271
X-91.471 Y-64.369
X-91.571 Y-64.481
X-91.657 Y-64.604
X-91.73 Y-64.734
X-91.791 Y-64.872
X-91.84 Y-65.014
X-91.876 Y-65.159
X-91.901 Y-65.307
X-91.912 Y-65.457
X-91.911 Y-65.607
X-91.894 Y-65.756
X-91.862 Y-65.902
X-91.84 Y-65.959
X-91.773 Y-66.08
X-91.672 Y-66.176
X-91.547 Y-66.237
X-91.409 Y-66.258
X-91.011
G3 X-90.857 Y-66.106 I-0.006 J0.159
G1 X-90.784 Y-64.303
G3 X-90.937 Y-64.138 I-0.159 J0.006
G1 X-91.331
X-91.481 Y-64.146
X-91.623 Y-64.193
X-91.752 Y-64.27
X-91.867 Y-64.367
X-91.967 Y-64.478
X-92.053 Y-64.601
X-92.127 Y-64.732
X-92.188 Y-64.869
X-92.237 Y-65.01
X-92.274 Y-65.156
X-92.298 Y-65.304
X-92.31 Y-65.453
Y-65.603
X-92.293 Y-65.752
X-92.261 Y-65.899
X-92.239 Y-65.958
X-92.172 Y-66.08
X-92.071 Y-66.176
X-91.946 Y-66.237
X-91.808 Y-66.258
X-91.409
G3 X-91.256 Y-66.106 I-0.006 J0.159
G1 X-91.178 Y-64.304
G3 X-91.271 Y-64.153 I-0.159 J0.007
X-91.331 Y-64.138 I-0.066 J-0.144
G1 X-91.752
X-91.902 Y-64.146
X-92.042 Y-64.199
X-92.168 Y-64.28
X-92.281 Y-64.379
X-92.379 Y-64.493
X-92.463 Y-64.617
X-92.535 Y-64.749
X-92.594 Y-64.887
X-92.641 Y-65.029
X-92.676 Y-65.175
X-92.699 Y-65.323
X-92.71 Y-65.473
X-92.707 Y-65.623
X-92.688 Y-65.771
X-92.654 Y-65.918
X-92.635 Y-65.965
X-92.537 Y-66.119
X-92.386 Y-66.222
X-92.207 Y-66.258
X-91.808
G3 X-91.655 Y-66.104 I-0.006 J0.159
G1 X-91.599 Y-64.302
G3 X-91.752 Y-64.138 I-0.159 J0.005
G1 X-92.146
X-92.296 Y-64.146
X-92.437 Y-64.198
X-92.564 Y-64.278
X-92.676 Y-64.377
X-92.775 Y-64.49
X-92.859 Y-64.614
X-92.931 Y-64.746
X-92.991 Y-64.883
X-93.038 Y-65.025
X-93.074 Y-65.171
X-93.097 Y-65.319
X-93.108 Y-65.469
X-93.106 Y-65.619
X-93.088 Y-65.768
X-93.053 Y-65.914
X-93.036 Y-65.959
X-92.968 Y-66.08
X-92.867 Y-66.176
X-92.742 Y-66.237
X-92.604 Y-66.258
X-92.207
G3 X-92.054 Y-66.105 I-0.006 J0.159
G1 X-91.993 Y-64.302
G3 X-92.146 Y-64.138 I-0.159 J0.005
G1 X-92.541
X-92.69 Y-64.146
X-92.831 Y-64.197
X-92.959 Y-64.276
X-93.072 Y-64.375
X-93.171 Y-64.488
X-93.256 Y-64.611
X-93.328 Y-64.742
X-93.388 Y-64.88
X-93.436 Y-65.022
X-93.472 Y-65.168
X-93.495 Y-65.316
X-93.506 Y-65.466
X-93.504 Y-65.616
X-93.486 Y-65.765
X-93.453 Y-65.911
X-93.433 Y-65.963
X-93.334 Y-66.117
X-93.183 Y-66.222
X-93.003 Y-66.258
G3 X-92.943 Y-66.244 I-0.006 J0.159
X-92.855 Y-66.139 I-0.066 J0.144
G1 X-92.392 Y-64.336
G3 X-92.541 Y-64.138 I-0.154 J0.039
G1 X-92.935
X-93.085 Y-64.146
X-93.226 Y-64.196
X-93.354 Y-64.274
X-93.467 Y-64.373
X-93.566 Y-64.485
X-93.652 Y-64.608
X-93.725 Y-64.739
X-93.785 Y-64.877
X-93.833 Y-65.019
X-93.869 Y-65.164
X-93.893 Y-65.313
X-93.904 Y-65.462
X-93.903 Y-65.612
X-93.885 Y-65.761
X-93.851 Y-65.907
X-93.833 Y-65.956
X-93.766 Y-66.079
X-93.664 Y-66.175
X-93.539 Y-66.237
X-93.401 Y-66.258
G3 X-93.253 Y-66.139 I-0.006 J0.159
G1 X-92.787 Y-64.337
G3 X-92.935 Y-64.138 I-0.154 J0.04
G1 X-93.329
X-93.479 Y-64.146
X-93.621 Y-64.195
X-93.749 Y-64.273
X-93.863 Y-64.37
X-93.962 Y-64.483
X-94.048 Y-64.605
X-94.121 Y-64.736
X-94.182 Y-64.874
X-94.23 Y-65.016
X-94.267 Y-65.161
X-94.291 Y-65.309
X-94.302 Y-65.459
X-94.301 Y-65.609
X-94.284 Y-65.758
X-94.251 Y-65.904
X-94.23 Y-65.96
X-94.132 Y-66.116
X-93.98 Y-66.221
X-93.799 Y-66.258
X-92.604
G3 X-92.463 Y-66.04 I-0.006 J0.159
G1 X-93.187 Y-64.238
G3 X-93.329 Y-64.138 I-0.147 J-0.059
G1 X-93.723
X-93.873 Y-64.146
X-94.015 Y-64.194
X-94.144 Y-64.271
X-94.258 Y-64.368
X-94.358 Y-64.48
X-94.445 Y-64.603
X-94.518 Y-64.733
X-94.579 Y-64.871
X-94.627 Y-65.012
X-94.664 Y-65.158
X-94.689 Y-65.306
X-94.7 Y-65.455
Y-65.605
X-94.683 Y-65.755
X-94.649 Y-65.901
X-94.63 Y-65.953
X-94.563 Y-66.077
X-94.462 Y-66.174
X-94.336 Y-66.237
X-94.197 Y-66.258
G3 X-94.049 Y-66.14 I-0.006 J0.159
G1 X-93.575 Y-64.337
G3 X-93.723 Y-64.138 I-0.154 J0.04
G1 X-94.118
X-94.268 Y-64.146
X-94.41 Y-64.193
X-94.539 Y-64.269
X-94.654 Y-64.366
X-94.754 Y-64.478
X-94.841 Y-64.6
X-94.914 Y-64.731
X-94.976 Y-64.868
X-95.025 Y-65.009
X-95.062 Y-65.155
X-95.086 Y-65.303
X-95.098 Y-65.452
Y-65.602
X-95.081 Y-65.751
X-95.049 Y-65.898
X-95.027 Y-65.957
X-94.96 Y-66.079
X-94.859 Y-66.176
X-94.733 Y-66.237
X-94.595 Y-66.258
G3 X-94.448 Y-66.14 I-0.006 J0.159
G1 X-93.97 Y-64.338
G3 X-94.118 Y-64.138 I-0.153 J0.041
G1 X-94.552
X-94.702 Y-64.146
X-94.841 Y-64.202
X-94.966 Y-64.285
X-95.077 Y-64.386
X-95.174 Y-64.5
X-95.257 Y-64.625
X-95.328 Y-64.757
X-95.386 Y-64.895
X-95.432 Y-65.038
X-95.466 Y-65.184
X-95.488 Y-65.333
X-95.498 Y-65.482
X-95.494 Y-65.632
X-95.475 Y-65.781
X-95.439 Y-65.927
X-95.422 Y-65.969
X-95.323 Y-66.121
X-95.173 Y-66.222
X-94.995 Y-66.258
G3 X-94.846 Y-66.137 I-0.006 J0.159
G1 X-94.403 Y-64.335
G3 X-94.552 Y-64.138 I-0.154 J0.038
G1 X-94.946
X-95.096 Y-64.146
X-95.235 Y-64.201
X-95.361 Y-64.283
X-95.473 Y-64.383
X-95.57 Y-64.497
X-95.654 Y-64.622
X-95.725 Y-64.754
X-95.783 Y-64.892
X-95.83 Y-65.035
X-95.865 Y-65.18
X-95.887 Y-65.329
X-95.896 Y-65.478
X-95.894 Y-65.628
X-95.874 Y-65.777
X-95.838 Y-65.923
X-95.823 Y-65.963
X-95.724 Y-66.118
X-95.573 Y-66.222
X-95.393 Y-66.258
G3 X-95.244 Y-66.138 I-0.006 J0.159
G1 X-94.798 Y-64.335
G3 X-94.946 Y-64.138 I-0.154 J0.038
G1 X-95.34
X-95.49 Y-64.146
X-95.63 Y-64.2
X-95.756 Y-64.281
X-95.868 Y-64.381
X-95.904 Y-64.423
X-95.965 Y-64.513
X-96.003 Y-64.615
X-96.016 Y-64.723
G3 X-95.756 Y-64.84 I0.159 J0.006
G1 X-95.245 Y-64.42
G3 X-95.34 Y-64.138 I-0.101 J0.123
G1 X-95.735
X-95.762
X-95.798
X-95.824 Y-64.14
X-95.871 Y-64.146
X-95.916 Y-64.162
X-95.958 Y-64.185
X-95.972 Y-64.2
X-95.961 Y-64.226
G3 X-95.947 I0.012 J0.509
X-95.789 Y-64.2 I-0.002 J0.509
X-95.798 Y-64.138 I-0.01 J0.03
G1 X-95.859 Y-64.139
X-95.876 Y-64.142
X-95.892 Y-64.147
X-95.908 Y-64.153
X-95.925 Y-64.162
X-95.958 Y-64.185
X-95.968 Y-64.194
X-95.978 Y-64.204
X-95.992 Y-64.224
X-96.002 Y-64.244
X-96.009 Y-64.264
X-96.013 Y-64.28
X-96.015 Y-64.296
X-96.016 Y-65.945
Y-65.972
X-96.015 Y-66.011
X-95.976 Y-66.136
X-95.881 Y-66.226
X-95.755 Y-66.258
G3 X-95.693 Y-66.248 I-0.008 J0.241
X-95.534 Y-65.942 I-0.07 J0.231
X-96.006 Y-65.95 I-0.235 J-0.077
X-96.015 Y-66.011 I0.237 J-0.069
G1 Y-66.103
X-96.01 Y-66.13
X-96.006 Y-66.144
X-96 Y-66.157
X-95.993 Y-66.171
X-95.984 Y-66.184
X-95.972 Y-66.198
X-95.958 Y-66.211
X-95.925 Y-66.235
X-95.9 Y-66.247
X-95.875 Y-66.254
X-95.851 Y-66.258
X-93.799
X-93.776 Y-66.253 Z-1.995
X-93.757 Y-66.248 Z-1.982
X-93.744 Y-66.245 Z-1.961
X-93.739 Y-66.244 Z-1.938
G0 Z5
X-67.81 Y-84.679
Z2.709
G1 Z2.55 F849.6
G3 X-66.302 Y-84.684 Z2.467 I0.754 J-0.003 F283.2
X-67.81 Y-84.679 Z2.385 I-0.754 J0.003
X-66.302 Y-84.684 Z2.302 I0.754 J-0.003
X-67.81 Y-84.679 Z2.219 I-0.754 J0.003
X-66.302 Y-84.684 Z2.136 I0.754 J-0.003
X-67.81 Y-84.679 Z2.054 I-0.754 J0.003
X-66.302 Y-84.684 Z1.971 I0.754 J-0.003
X-67.81 Y-84.679 Z1.888 I-0.754 J0.003
X-66.302 Y-84.684 Z1.805 I0.754 J-0.003
X-67.81 Y-84.679 Z1.723 I-0.754 J0.003
X-66.302 Y-84.684 Z1.64 I0.754 J-0.003
X-67.81 Y-84.679 Z1.557 I-0.754 J0.003
X-66.302 Y-84.684 Z1.475 I0.754 J-0.003
X-67.81 Y-84.679 Z1.392 I-0.754 J0.003
X-66.302 Y-84.684 Z1.309 I0.754 J-0.003
X-67.81 Y-84.679 Z1.226 I-0.754 J0.003
X-66.302 Y-84.684 Z1.144 I0.754 J-0.003
X-67.81 Y-84.679 Z1.061 I-0.754 J0.003
X-66.302 Y-84.684 Z0.978 I0.754 J-0.003
X-67.81 Y-84.679 Z0.895 I-0.754 J0.003
X-66.302 Y-84.684 Z0.813 I0.754 J-0.003
X-67.81 Y-84.679 Z0.73 I-0.754 J0.003
X-66.302 Y-84.684 Z0.647 I0.754 J-0.003
X-67.81 Y-84.679 Z0.565 I-0.754 J0.003
X-66.302 Y-84.684 Z0.482 I0.754 J-0.003
X-67.81 Y-84.679 Z0.399 I-0.754 J0.003
X-66.302 Y-84.684 Z0.316 I0.754 J-0.003
X-67.81 Y-84.679 Z0.234 I-0.754 J0.003
X-66.302 Y-84.684 Z0.151 I0.754 J-0.003
X-67.81 Y-84.679 Z0.068 I-0.754 J0.003
X-66.302 Y-84.684 Z-0.014 I0.754 J-0.003
X-67.81 Y-84.679 Z-0.097 I-0.754 J0.003
X-66.302 Y-84.684 Z-0.18 I0.754 J-0.003
X-67.81 Y-84.679 Z-0.263 I-0.754 J0.003
X-66.302 Y-84.684 Z-0.345 I0.754 J-0.003
X-67.81 Y-84.679 Z-0.428 I-0.754 J0.003
X-66.302 Y-84.684 Z-0.511 I0.754 J-0.003
X-67.81 Y-84.679 Z-0.594 I-0.754 J0.003
X-66.302 Y-84.684 Z-0.676 I0.754 J-0.003
X-67.81 Y-84.679 Z-0.759 I-0.754 J0.003
X-66.302 Y-84.684 Z-0.842 I0.754 J-0.003
X-67.81 Y-84.679 Z-0.924 I-0.754 J0.003
X-66.302 Y-84.684 Z-1.007 I0.754 J-0.003
X-67.81 Y-84.679 Z-1.09 I-0.754 J0.003
X-66.302 Y-84.684 Z-1.173 I0.754 J-0.003
X-67.81 Y-84.679 Z-1.255 I-0.754 J0.003
X-66.302 Y-84.684 Z-1.338 I0.754 J-0.003
X-67.81 Y-84.679 Z-1.421 I-0.754 J0.003
X-66.302 Y-84.684 Z-1.504 I0.754 J-0.003
X-67.81 Y-84.679 Z-1.586 I-0.754 J0.003
X-66.302 Y-84.684 Z-1.669 I0.754 J-0.003
X-67.81 Y-84.679 Z-1.752 I-0.754 J0.003
X-66.302 Y-84.684 Z-1.834 I0.754 J-0.003
X-67.81 Y-84.679 Z-1.917 I-0.754 J0.003
X-67.057 Y-85.435 Z-1.959 I0.754 J-0.003
X-66.302 Y-84.681 Z-2 I0.001 J0.754
X-67.81 I-0.754
X-66.31 Y-84.793 I0.754
X-66.302 Y-84.681 I-0.746 J0.111
G1 X-66.274 Y-84.309 F849.6
X-66.273 Y-84.159
X-66.323 Y-84.017
X-66.406 Y-83.893
X-66.514 Y-83.788
X-66.639 Y-83.705
X-66.776 Y-83.645
X-66.922 Y-83.607
X-67.071 Y-83.593
X-67.221 Y-83.6
X-67.368 Y-83.629
X-67.509 Y-83.679
X-67.642 Y-83.748
X-67.764 Y-83.835
X-67.873 Y-83.939
X-67.967 Y-84.056
X-68.044 Y-84.185
X-68.103 Y-84.323
X-68.142 Y-84.467
X-68.161 Y-84.616
X-68.16 Y-84.766
X-68.138 Y-84.915
X-68.097 Y-85.059
X-68.037 Y-85.196
X-67.958 Y-85.324
X-67.863 Y-85.44
X-67.753 Y-85.542
X-67.63 Y-85.628
X-67.497 Y-85.697
X-67.356 Y-85.748
X-67.209 Y-85.778
X-67.059 Y-85.789
X-66.91 Y-85.779
X-66.763 Y-85.749
X-66.621 Y-85.7
X-66.487 Y-85.632
X-66.364 Y-85.546
X-66.254 Y-85.445
X-66.158 Y-85.33
X-66.078 Y-85.202
X-66.016 Y-85.066
X-65.965 Y-84.925
X-65.923 Y-84.775
X-65.891 Y-84.629
X-65.874 Y-84.48
X-65.873 Y-84.33
X-65.892 Y-84.181
X-65.929 Y-84.036
X-65.986 Y-83.897
X-66.06 Y-83.767
X-66.151 Y-83.647
X-66.257 Y-83.541
X-66.375 Y-83.448
X-66.503 Y-83.371
X-66.64 Y-83.309
X-66.783 Y-83.264
X-66.93 Y-83.236
X-67.08 Y-83.224
X-67.23 Y-83.228
X-67.378 Y-83.249
X-67.524 Y-83.286
X-67.664 Y-83.338
X-67.799 Y-83.404
X-67.926 Y-83.484
X-68.043 Y-83.577
X-68.151 Y-83.682
X-68.248 Y-83.797
X-68.332 Y-83.921
X-68.402 Y-84.053
X-68.459 Y-84.192
X-68.502 Y-84.336
X-68.53 Y-84.483
X-68.542 Y-84.633
X-68.54 Y-84.783
X-68.523 Y-84.932
X-68.49 Y-85.078
X-68.443 Y-85.22
X-68.382 Y-85.357
X-68.308 Y-85.488
X-68.22 Y-85.609
X-68.121 Y-85.722
X-68.011 Y-85.824
X-67.891 Y-85.914
X-67.763 Y-85.992
X-67.627 Y-86.056
X-67.486 Y-86.107
X-67.34 Y-86.143
X-67.192 Y-86.164
X-67.042 Y-86.17
X-66.892 Y-86.161
X-66.744 Y-86.137
X-66.599 Y-86.098
X-66.459 Y-86.045
X-66.325 Y-85.978
X-66.198 Y-85.898
X-66.08 Y-85.806
X-65.972 Y-85.702
X-65.874 Y-85.588
X-65.787 Y-85.466
X-65.71 Y-85.337
X-65.643 Y-85.203
X-65.586 Y-85.064
X-65.54 Y-84.921
X-65.505 Y-84.775
X-65.482 Y-84.627
X-65.473 Y-84.477
X-65.476 Y-84.327
X-65.492 Y-84.178
X-65.523 Y-84.032
X-65.568 Y-83.889
X-65.626 Y-83.75
X-65.697 Y-83.618
X-65.78 Y-83.493
X-65.875 Y-83.377
X-65.98 Y-83.27
X-66.095 Y-83.173
X-66.218 Y-83.087
X-66.348 Y-83.014
X-66.485 Y-82.952
X-66.626 Y-82.902
X-66.772 Y-82.865
X-66.92 Y-82.841
X-67.07 Y-82.83
X-67.22 Y-82.832
X-67.369 Y-82.847
X-67.516 Y-82.874
X-67.661 Y-82.913
X-67.802 Y-82.965
X-67.938 Y-83.027
X-68.069 Y-83.101
X-68.193 Y-83.185
X-68.31 Y-83.28
X-68.418 Y-83.383
X-68.519 Y-83.495
X-68.609 Y-83.614
X-68.69 Y-83.74
X-68.76 Y-83.873
X-68.82 Y-84.011
X-68.868 Y-84.153
X-68.905 Y-84.298
X-68.93 Y-84.446
X-68.943 Y-84.595
X-68.944 Y-84.745
X-68.934 Y-84.895
X-68.911 Y-85.043
X-68.876 Y-85.189
X-68.83 Y-85.332
X-68.774 Y-85.471
X-68.706 Y-85.605
X-68.627 Y-85.733
X-68.539 Y-85.854
X-68.441 Y-85.968
X-68.335 Y-86.074
X-68.221 Y-86.171
X-68.099 Y-86.258
X-67.971 Y-86.336
X-67.837 Y-86.403
X-67.698 Y-86.46
X-67.555 Y-86.505
X-67.409 Y-86.539
X-67.26 Y-86.561
X-67.111 Y-86.572
X-66.961 Y-86.57
X-66.811 Y-86.557
X-66.664 Y-86.531
X-66.518 Y-86.494
X-66.376 Y-86.446
X-66.238 Y-86.387
X-66.106 Y-86.317
X-65.979 Y-86.236
X-65.859 Y-86.146
X-65.746 Y-86.047
X-65.641 Y-85.94
X-65.544 Y-85.826
X-65.455 Y-85.706
X-65.373 Y-85.578
X-65.299 Y-85.443
X-65.235 Y-85.306
X-65.181 Y-85.166
X-65.136 Y-85.023
X-65.102 Y-84.877
X-65.077 Y-84.729
X-65.063 Y-84.58
X-65.059 Y-84.43
X-65.067 Y-84.28
X-65.085 Y-84.131
X-65.114 Y-83.984
X-65.153 Y-83.839
X-65.204 Y-83.698
X-65.265 Y-83.561
X-65.336 Y-83.429
X-65.417 Y-83.302
X-65.506 Y-83.182
X-65.605 Y-83.069
X-65.711 Y-82.964
X-65.826 Y-82.867
X-65.947 Y-82.778
X-66.074 Y-82.698
X-66.206 Y-82.628
X-66.344 Y-82.568
X-66.485 Y-82.517
X-66.629 Y-82.477
X-66.776 Y-82.447
X-66.925 Y-82.428
X-67.075 Y-82.419
X-67.225 Y-82.42
X-67.374 Y-82.432
X-67.523 Y-82.454
X-67.669 Y-82.486
X-67.813 Y-82.528
X-67.954 Y-82.58
X-68.091 Y-82.641
X-68.225 Y-82.712
X-68.352 Y-82.791
X-68.474 Y-82.878
X-68.59 Y-82.973
X-68.699 Y-83.076
X-68.803 Y-83.188
X-68.9 Y-83.306
X-68.987 Y-83.429
X-69.065 Y-83.557
X-69.134 Y-83.69
X-69.196 Y-83.829
X-69.249 Y-83.974
X-69.292 Y-84.122
X-69.324 Y-84.269
X-69.347 Y-84.418
X-69.359 Y-84.568
X-69.362 Y-84.722
X-69.354 Y-84.876
X-69.336 Y-85.03
X-69.309 Y-85.179
X-69.272 Y-85.324
X-69.225 Y-85.469
X-69.168 Y-85.611
X-69.101 Y-85.751
X-69.024 Y-85.887
X-68.941 Y-86.013
X-68.851 Y-86.133
X-68.751 Y-86.248
X-68.643 Y-86.357
X-68.527 Y-86.461
X-68.403 Y-86.556
X-68.278 Y-86.64
X-68.148 Y-86.716
X-68.012 Y-86.783
X-67.869 Y-86.842
X-67.722 Y-86.892
X-67.571 Y-86.932
X-67.422 Y-86.961
X-67.273 Y-86.98
X-67.121 Y-86.989
X-66.967 Y-86.988
X-66.812 Y-86.977
X-66.658 Y-86.956
X-66.509 Y-86.925
X-66.364 Y-86.884
X-66.22 Y-86.834
X-66.078 Y-86.773
X-65.937 Y-86.701
X-65.801 Y-86.62
X-65.668 Y-86.528
X-65.541 Y-86.428
X-65.419 Y-86.317
X-65.302 Y-86.197
X-65.192 Y-86.066
X-65.09 Y-85.927
X-64.997 Y-85.782
X-64.913 Y-85.63
X-64.84 Y-85.473
X-64.777 Y-85.311
X-64.726 Y-85.146
X-64.685 Y-84.98
X-64.657 Y-84.813
X-64.639 Y-84.646
X-64.633 Y-84.477
X-64.637 Y-84.309
X-64.653 Y-84.144
X-64.68 Y-83.981
X-64.716 Y-83.823
X-64.763 Y-83.668
X-64.82 Y-83.517
X-64.887 Y-83.37
X-64.964 Y-83.227
X-65.05 Y-83.09
X-65.145 Y-82.957
X-65.25 Y-82.831
X-65.363 Y-82.711
X-65.484 Y-82.599
X-65.611 Y-82.497
X-65.744 Y-82.403
X-65.884 Y-82.318
X-66.031 Y-82.241
X-66.184 Y-82.174
X-66.342 Y-82.117
X-66.503 Y-82.07
X-66.669 Y-82.034
X-66.837 Y-82.009
X-67.008 Y-81.995
X-67.18 Y-81.992
X-67.352 Y-82.001
X-67.524 Y-82.021
X-67.694 Y-82.052
X-67.863 Y-82.095
X-68.03 Y-82.15
X-68.193 Y-82.215
X-68.352 Y-82.292
X-68.505 Y-82.378
X-68.653 Y-82.475
X-68.795 Y-82.583
X-68.929 Y-82.699
X-69.056 Y-82.825
X-69.174 Y-82.958
X-69.283 Y-83.099
X-69.383 Y-83.248
X-69.473 Y-83.404
X-69.553 Y-83.566
X-69.622 Y-83.732
X-69.679 Y-83.902
X-69.726 Y-84.076
X-69.76 Y-84.253
X-69.783 Y-84.433
X-69.794 Y-84.614
X-69.793 Y-84.795
X-69.78 Y-84.975
X-69.755 Y-85.154
X-69.718 Y-85.332
X-69.669 Y-85.507
X-69.609 Y-85.679
X-69.538 Y-85.845
X-69.456 Y-86.007
X-69.363 Y-86.162
X-69.26 Y-86.312
X-69.147 Y-86.455
X-69.024 Y-86.59
X-68.894 Y-86.716
X-68.755 Y-86.833
X-68.61 Y-86.941
X-68.456 Y-87.039
X-68.297 Y-87.127
X-68.131 Y-87.204
X-67.962 Y-87.27
X-67.789 Y-87.324
X-67.612 Y-87.367
X-67.433 Y-87.397
X-67.252 Y-87.417
X-67.069 Y-87.424
X-66.887 Y-87.418
X-66.707 Y-87.401
X-66.528 Y-87.372
X-66.35 Y-87.331
X-66.174 Y-87.278
X-66.002 Y-87.213
X-65.832 Y-87.136
X-65.667 Y-87.048
X-65.507 Y-86.948
X-65.352 Y-86.836
X-65.203 Y-86.713
X-65.061 Y-86.578
X-64.927 Y-86.433
X-64.803 Y-86.279
X-64.688 Y-86.116
X-64.583 Y-85.944
X-64.49 Y-85.766
X-64.409 Y-85.582
X-64.341 Y-85.394
X-64.286 Y-85.203
X-64.243 Y-85.008
X-64.214 Y-84.812
X-64.197 Y-84.615
X-64.194 Y-84.418
X-64.204 Y-84.223
X-64.226 Y-84.031
X-64.261 Y-83.841
X-64.309 Y-83.654
X-64.368 Y-83.472
X-64.44 Y-83.294
X-64.523 Y-83.121
X-64.618 Y-82.954
X-64.723 Y-82.793
X-64.84 Y-82.639
X-64.966 Y-82.493
X-65.102 Y-82.356
X-65.246 Y-82.228
X-65.399 Y-82.11
X-65.56 Y-82.002
X-65.728 Y-81.904
X-65.903 Y-81.818
X-66.085 Y-81.743
X-66.271 Y-81.68
X-66.463 Y-81.629
X-66.658 Y-81.591
X-66.856 Y-81.565
X-67.056 Y-81.553
X-67.257 Y-81.554
X-67.458 Y-81.569
X-67.659 Y-81.597
X-67.857 Y-81.638
X-68.054 Y-81.693
X-68.246 Y-81.76
X-68.435 Y-81.841
X-68.618 Y-81.934
X-68.795 Y-82.039
X-68.965 Y-82.156
X-69.127 Y-82.284
X-69.28 Y-82.423
X-69.424 Y-82.572
X-69.559 Y-82.731
X-69.683 Y-82.899
X-69.795 Y-83.074
X-69.896 Y-83.257
X-69.984 Y-83.447
X-70.06 Y-83.642
X-70.123 Y-83.842
X-70.172 Y-84.046
X-70.208 Y-84.253
X-70.23 Y-84.461
X-70.238 Y-84.671
X-70.232 Y-84.881
X-70.212 Y-85.091
X-70.179 Y-85.299
X-70.131 Y-85.504
X-70.07 Y-85.706
X-69.996 Y-85.903
X-69.909 Y-86.095
X-69.81 Y-86.281
X-69.698 Y-86.46
X-69.574 Y-86.631
X-69.439 Y-86.794
X-69.294 Y-86.947
X-69.14 Y-87.09
X-68.975 Y-87.223
X-68.803 Y-87.345
X-68.622 Y-87.455
X-68.435 Y-87.553
X-68.242 Y-87.638
X-68.043 Y-87.71
X-67.84 Y-87.769
X-67.634 Y-87.814
X-67.425 Y-87.845
X-67.214 Y-87.863
X-67.003 Y-87.867
X-66.792 Y-87.856
X-66.581 Y-87.831
X-66.372 Y-87.793
X-66.166 Y-87.74
X-65.962 Y-87.674
X-65.762 Y-87.594
X-65.567 Y-87.5
X-65.377 Y-87.392
X-65.193 Y-87.272
X-65.016 Y-87.138
X-64.846 Y-86.991
X-64.686 Y-86.833
X-64.536 Y-86.663
X-64.396 Y-86.483
X-64.269 Y-86.293
X-64.154 Y-86.095
X-64.053 Y-85.89
X-63.965 Y-85.678
X-63.892 Y-85.462
X-63.833 Y-85.241
X-63.789 Y-85.017
X-63.76 Y-84.792
X-63.746 Y-84.566
X-63.748 Y-84.341
X-63.764 Y-84.117
X-63.795 Y-83.896
X-63.84 Y-83.678
X-63.899 Y-83.463
X-63.973 Y-83.253
X-64.06 Y-83.049
X-64.161 Y-82.85
X-64.275 Y-82.659
X-64.401 Y-82.476
X-64.539 Y-82.301
X-64.688 Y-82.136
X-64.848 Y-81.981
X-65.019 Y-81.837
X-65.199 Y-81.704
X-65.388 Y-81.583
X-65.585 Y-81.475
X-65.789 Y-81.379
X-66 Y-81.297
X-66.217 Y-81.229
X-66.439 Y-81.175
X-66.664 Y-81.136
X-66.893 Y-81.112
X-67.123 Y-81.103
X-67.354 Y-81.109
X-67.584 Y-81.131
X-67.814 Y-81.168
X-68.041 Y-81.22
X-68.264 Y-81.288
X-68.484 Y-81.37
X-68.698 Y-81.467
X-68.905 Y-81.578
X-69.105 Y-81.703
X-69.296 Y-81.841
X-69.479 Y-81.992
X-69.651 Y-82.155
X-69.812 Y-82.329
X-69.962 Y-82.514
X-70.099 Y-82.709
X-70.224 Y-82.912
X-70.334 Y-83.124
X-70.43 Y-83.343
X-70.512 Y-83.568
X-70.579 Y-83.798
X-70.63 Y-84.032
X-70.666 Y-84.269
X-70.686 Y-84.508
X-70.69 Y-84.748
X-70.678 Y-84.988
X-70.65 Y-85.227
X-70.607 Y-85.464
X-70.548 Y-85.697
X-70.473 Y-85.926
X-70.383 Y-86.149
X-70.279 Y-86.367
X-70.161 Y-86.577
X-70.028 Y-86.778
X-69.883 Y-86.97
X-69.726 Y-87.153
X-69.556 Y-87.324
X-69.375 Y-87.484
X-69.185 Y-87.632
X-68.984 Y-87.767
X-68.776 Y-87.888
X-68.56 Y-87.995
X-68.337 Y-88.087
X-68.108 Y-88.164
X-67.875 Y-88.227
X-67.638 Y-88.273
X-67.398 Y-88.304
X-67.157 Y-88.319
X-66.916 Y-88.317
X-66.674 Y-88.3
X-66.434 Y-88.267
X-66.195 Y-88.217
X-65.96 Y-88.152
X-65.728 Y-88.071
X-65.501 Y-87.974
X-65.279 Y-87.861
X-65.065 Y-87.734
X-64.857 Y-87.591
X-64.659 Y-87.435
X-64.471 Y-87.264
X-64.293 Y-87.081
X-64.127 Y-86.885
X-63.974 Y-86.678
X-63.835 Y-86.461
X-63.71 Y-86.234
X-63.601 Y-86
X-63.507 Y-85.759
X-63.429 Y-85.513
X-63.368 Y-85.262
X-63.324 Y-85.009
X-63.297 Y-84.754
X-63.287 Y-84.498
X-63.294 Y-84.243
X-63.318 Y-83.989
X-63.359 Y-83.739
X-63.415 Y-83.491
X-63.489 Y-83.249
X-63.578 Y-83.012
X-63.682 Y-82.781
X-63.801 Y-82.558
X-63.935 Y-82.344
X-64.083 Y-82.139
X-64.245 Y-81.944
X-64.419 Y-81.759
X-64.605 Y-81.587
X-64.802 Y-81.427
X-65.01 Y-81.28
X-65.228 Y-81.147
X-65.455 Y-81.029
X-65.689 Y-80.925
X-65.931 Y-80.837
X-66.179 Y-80.765
X-66.432 Y-80.71
X-66.688 Y-80.671
X-66.947 Y-80.649
X-67.208 Y-80.645
X-67.469 Y-80.658
X-67.73 Y-80.688
X-67.989 Y-80.736
X-68.244 Y-80.8
X-68.495 Y-80.882
X-68.741 Y-80.981
X-68.98 Y-81.095
X-69.212 Y-81.226
X-69.434 Y-81.372
X-69.647 Y-81.533
X-69.849 Y-81.707
X-70.04 Y-81.896
X-70.218 Y-82.096
X-70.382 Y-82.308
X-70.532 Y-82.531
X-70.667 Y-82.764
X-70.787 Y-83.005
X-70.89 Y-83.254
X-70.977 Y-83.51
X-71.046 Y-83.771
X-71.098 Y-84.036
X-71.133 Y-84.304
X-71.149 Y-84.574
X-71.148 Y-84.845
X-71.129 Y-85.115
X-71.092 Y-85.384
X-71.037 Y-85.649
X-70.964 Y-85.91
X-70.875 Y-86.167
X-70.768 Y-86.416
X-70.645 Y-86.658
X-70.507 Y-86.892
X-70.353 Y-87.116
X-70.185 Y-87.329
X-70.002 Y-87.53
X-69.807 Y-87.719
X-69.6 Y-87.895
X-69.381 Y-88.057
X-69.153 Y-88.203
X-68.915 Y-88.335
X-68.668 Y-88.45
X-68.415 Y-88.549
X-68.156 Y-88.63
X-67.891 Y-88.695
X-67.623 Y-88.741
X-67.353 Y-88.77
X-67.081 Y-88.781
X-66.808 Y-88.773
X-66.536 Y-88.748
X-66.266 Y-88.704
X-65.998 Y-88.643
X-65.734 Y-88.563
X-65.474 Y-88.466
X-65.221 Y-88.351
X-64.974 Y-88.219
X-64.736 Y-88.07
X-64.507 Y-87.905
X-64.288 Y-87.725
X-64.08 Y-87.529
X-63.886 Y-87.319
X-63.705 Y-87.096
X-63.539 Y-86.861
X-63.389 Y-86.614
X-63.255 Y-86.359
X-63.138 Y-86.094
X-63.039 Y-85.823
X-62.959 Y-85.546
X-62.897 Y-85.265
X-62.854 Y-84.98
X-62.83 Y-84.694
X-62.825 Y-84.408
X-62.839 Y-84.123
X-62.872 Y-83.84
X-62.923 Y-83.56
X-62.993 Y-83.284
X-63.081 Y-83.014
X-63.186 Y-82.75
X-63.309 Y-82.494
X-63.449 Y-82.247
X-63.604 Y-82.009
X-63.775 Y-81.783
X-63.961 Y-81.568
X-64.161 Y-81.366
X-64.374 Y-81.177
X-64.599 Y-81.002
X-64.836 Y-80.842
X-65.083 Y-80.699
X-65.341 Y-80.571
X-65.606 Y-80.461
X-65.879 Y-80.368
X-66.158 Y-80.294
X-66.443 Y-80.238
X-66.731 Y-80.201
X-67.021 Y-80.183
X-67.313 Y-80.184
X-67.605 Y-80.205
X-67.895 Y-80.245
X-68.183 Y-80.304
X-68.467 Y-80.383
X-68.745 Y-80.48
X-69.017 Y-80.596
X-69.281 Y-80.73
X-69.537 Y-80.882
X-69.782 Y-81.05
X-70.015 Y-81.234
X-70.237 Y-81.434
X-70.444 Y-81.649
X-70.638 Y-81.877
X-70.816 Y-82.117
X-70.978 Y-82.369
X-71.122 Y-82.632
X-71.25 Y-82.904
X-71.359 Y-83.184
X-71.449 Y-83.47
X-71.52 Y-83.763
X-71.572 Y-84.059
X-71.604 Y-84.359
X-71.616 Y-84.66
X-71.608 Y-84.962
X-71.58 Y-85.262
X-71.532 Y-85.56
X-71.464 Y-85.855
X-71.377 Y-86.144
X-71.271 Y-86.427
X-71.147 Y-86.702
X-71.004 Y-86.969
X-70.844 Y-87.225
X-70.668 Y-87.471
X-70.475 Y-87.704
X-70.267 Y-87.924
X-70.045 Y-88.13
X-69.81 Y-88.321
X-69.563 Y-88.495
X-69.305 Y-88.653
X-69.037 Y-88.793
X-68.76 Y-88.916
X-68.475 Y-89.019
X-68.184 Y-89.104
X-67.889 Y-89.169
X-67.589 Y-89.215
X-67.287 Y-89.24
X-66.983 Y-89.245
X-66.68 Y-89.231
X-66.377 Y-89.196
X-66.077 Y-89.141
X-65.78 Y-89.065
X-65.488 Y-88.971
X-65.201 Y-88.856
X-64.922 Y-88.722
X-64.65 Y-88.569
X-64.389 Y-88.398
X-64.138 Y-88.209
X-63.9 Y-88.003
X-63.675 Y-87.781
X-63.464 Y-87.544
X-63.269 Y-87.292
X-63.091 Y-87.028
X-62.931 Y-86.752
X-62.789 Y-86.466
X-62.666 Y-86.171
X-62.563 Y-85.869
X-62.481 Y-85.56
X-62.419 Y-85.248
X-62.379 Y-84.932
X-62.359 Y-84.615
X-62.36 Y-84.298
X-62.383 Y-83.982
X-62.426 Y-83.669
X-62.49 Y-83.36
X-62.574 Y-83.056
X-62.678 Y-82.758
X-62.801 Y-82.468
X-62.944 Y-82.187
X-63.104 Y-81.917
X-63.282 Y-81.657
X-63.478 Y-81.41
X-63.689 Y-81.176
X-63.916 Y-80.956
X-64.156 Y-80.751
X-64.411 Y-80.563
X-64.678 Y-80.392
X-64.956 Y-80.238
X-65.244 Y-80.103
X-65.541 Y-79.987
X-65.846 Y-79.891
X-66.157 Y-79.815
X-66.473 Y-79.76
X-66.793 Y-79.726
X-67.115 Y-79.713
X-67.438 Y-79.722
X-67.76 Y-79.751
X-68.081 Y-79.803
X-68.398 Y-79.876
X-68.71 Y-79.969
X-69.015 Y-80.084
X-69.313 Y-80.218
X-69.602 Y-80.373
X-69.88 Y-80.546
X-70.147 Y-80.738
X-70.4 Y-80.947
X-70.64 Y-81.173
X-70.864 Y-81.415
X-71.072 Y-81.671
X-71.263 Y-81.941
X-71.436 Y-82.223
X-71.589 Y-82.517
X-71.723 Y-82.82
X-71.837 Y-83.131
X-71.93 Y-83.45
X-72.001 Y-83.774
X-72.051 Y-84.103
X-72.079 Y-84.434
X-72.085 Y-84.767
X-72.069 Y-85.099
X-72.031 Y-85.43
X-71.971 Y-85.757
X-71.889 Y-86.08
X-71.786 Y-86.397
X-71.663 Y-86.707
X-71.519 Y-87.008
X-71.355 Y-87.298
X-71.172 Y-87.577
X-70.972 Y-87.844
X-70.754 Y-88.097
X-70.519 Y-88.334
X-70.27 Y-88.556
X-70.006 Y-88.76
X-69.729 Y-88.947
X-69.441 Y-89.115
X-69.141 Y-89.263
X-68.833 Y-89.391
X-68.517 Y-89.499
X-68.194 Y-89.585
X-67.866 Y-89.65
X-67.535 Y-89.693
X-67.201 Y-89.714
X-66.866 Y-89.712
X-66.531 Y-89.689
X-66.198 Y-89.643
X-65.867 Y-89.575
X-65.541 Y-89.485
X-65.221 Y-89.373
X-64.908 Y-89.24
X-64.603 Y-89.085
X-64.308 Y-88.911
X-64.024 Y-88.716
X-63.752 Y-88.502
X-63.495 Y-88.27
X-63.253 Y-88.02
X-63.027 Y-87.754
X-62.819 Y-87.474
X-62.63 Y-87.179
X-62.461 Y-86.873
X-62.312 Y-86.556
X-62.185 Y-86.229
X-62.079 Y-85.895
X-61.996 Y-85.555
X-61.936 Y-85.211
X-61.899 Y-84.864
X-61.885 Y-84.516
X-61.894 Y-84.168
X-61.926 Y-83.821
X-61.981 Y-83.478
X-62.059 Y-83.14
X-62.158 Y-82.808
X-62.28 Y-82.483
X-62.422 Y-82.167
X-62.586 Y-81.862
X-62.769 Y-81.568
X-62.971 Y-81.286
X-63.192 Y-81.019
X-63.43 Y-80.767
X-63.684 Y-80.53
X-63.954 Y-80.311
X-64.238 Y-80.11
X-64.536 Y-79.928
X-64.845 Y-79.766
X-65.165 Y-79.625
X-65.494 Y-79.504
X-65.831 Y-79.406
X-66.175 Y-79.33
X-66.524 Y-79.277
X-66.876 Y-79.247
X-67.23 Y-79.241
X-67.584 Y-79.258
X-67.937 Y-79.298
X-68.287 Y-79.362
X-68.633 Y-79.45
X-68.973 Y-79.56
X-69.305 Y-79.693
X-69.628 Y-79.847
X-69.941 Y-80.023
X-70.242 Y-80.22
X-70.53 Y-80.437
X-70.802 Y-80.672
X-71.059 Y-80.925
X-71.299 Y-81.195
X-71.521 Y-81.481
X-71.723 Y-81.781
X-71.906 Y-82.094
X-72.067 Y-82.419
X-72.206 Y-82.754
X-72.323 Y-83.098
X-72.417 Y-83.449
X-72.488 Y-83.806
X-72.535 Y-84.166
X-72.558 Y-84.53
X-72.556 Y-84.894
X-72.531 Y-85.257
X-72.481 Y-85.618
X-72.408 Y-85.975
X-72.311 Y-86.327
X-72.19 Y-86.671
X-72.048 Y-87.007
X-71.883 Y-87.332
X-71.697 Y-87.646
X-71.491 Y-87.948
X-71.265 Y-88.234
X-71.02 Y-88.505
X-70.758 Y-88.76
X-70.48 Y-88.996
X-70.186 Y-89.214
X-69.879 Y-89.411
X-69.559 Y-89.588
X-69.228 Y-89.743
X-68.888 Y-89.876
X-68.539 Y-89.987
X-68.184 Y-90.073
X-67.824 Y-90.136
X-67.46 Y-90.176
X-67.094 Y-90.19
X-66.727 Y-90.181
X-66.361 Y-90.147
X-65.997 Y-90.089
X-65.637 Y-90.007
X-65.282 Y-89.9
X-64.934 Y-89.77
X-64.595 Y-89.617
X-64.265 Y-89.441
X-63.946 Y-89.243
X-63.641 Y-89.023
X-63.35 Y-88.783
X-63.074 Y-88.523
X-62.816 Y-88.246
X-62.576 Y-87.95
X-62.356 Y-87.64
X-62.157 Y-87.315
X-61.98 Y-86.977
X-61.826 Y-86.628
X-61.695 Y-86.269
X-61.588 Y-85.903
X-61.506 Y-85.531
X-61.448 Y-85.154
X-61.416 Y-84.775
X-61.409 Y-84.395
X-61.427 Y-84.016
X-61.47 Y-83.639
X-61.538 Y-83.266
X-61.631 Y-82.899
X-61.747 Y-82.539
X-61.888 Y-82.188
X-62.051 Y-81.847
X-62.236 Y-81.517
X-62.443 Y-81.2
X-62.671 Y-80.898
X-62.918 Y-80.611
X-63.184 Y-80.342
X-63.467 Y-80.09
X-63.767 Y-79.857
X-64.082 Y-79.644
X-64.411 Y-79.453
X-64.752 Y-79.283
X-65.105 Y-79.136
X-65.467 Y-79.013
X-65.837 Y-78.914
X-66.213 Y-78.839
X-66.594 Y-78.79
X-66.979 Y-78.765
X-67.365 Y-78.767
X-67.75 Y-78.794
X-68.134 Y-78.846
X-68.514 Y-78.924
X-68.889 Y-79.028
X-69.256 Y-79.156
X-69.615 Y-79.308
X-69.963 Y-79.484
X-70.299 Y-79.683
X-70.622 Y-79.904
X-70.93 Y-80.147
X-71.221 Y-80.409
X-71.495 Y-80.691
X-71.749 Y-80.991
X-71.984 Y-81.307
X-72.197 Y-81.638
X-72.388 Y-81.982
X-72.555 Y-82.339
X-72.699 Y-82.707
X-72.818 Y-83.084
X-72.912 Y-83.467
X-72.98 Y-83.857
X-73.023 Y-84.25
X-73.039 Y-84.646
X-73.029 Y-85.041
X-72.992 Y-85.436
X-72.93 Y-85.827
X-72.842 Y-86.213
X-72.728 Y-86.593
X-72.589 Y-86.965
X-72.426 Y-87.326
X-72.239 Y-87.676
X-72.03 Y-88.013
X-71.798 Y-88.336
X-71.546 Y-88.642
X-71.274 Y-88.931
X-70.983 Y-89.201
X-70.675 Y-89.451
X-70.351 Y-89.681
X-70.012 Y-89.888
X-69.66 Y-90.073
X-69.297 Y-90.234
X-68.924 Y-90.37
X-68.543 Y-90.482
X-68.154 Y-90.568
X-67.761 Y-90.628
X-67.364 Y-90.662
X-66.966 Y-90.669
X-66.567 Y-90.65
X-66.169 Y-90.605
X-65.775 Y-90.533
X-65.386 Y-90.435
X-65.002 Y-90.311
X-64.627 Y-90.161
X-64.262 Y-89.987
X-63.908 Y-89.788
X-63.567 Y-89.565
X-63.24 Y-89.319
X-62.93 Y-89.052
X-62.638 Y-88.764
X-62.364 Y-88.457
X-62.111 Y-88.131
X-61.881 Y-87.79
X-61.673 Y-87.433
X-61.489 Y-87.063
X-61.33 Y-86.681
X-61.196 Y-86.29
X-61.089 Y-85.891
X-61.009 Y-85.486
X-60.956 Y-85.077
X-60.93 Y-84.666
X-60.931 Y-84.254
X-60.959 Y-83.844
X-61.015 Y-83.436
X-61.098 Y-83.034
X-61.207 Y-82.638
X-61.342 Y-82.25
X-61.502 Y-81.872
X-61.687 Y-81.506
X-61.896 Y-81.153
X-62.128 Y-80.815
X-62.382 Y-80.492
X-62.657 Y-80.187
X-62.951 Y-79.901
X-63.265 Y-79.634
X-63.595 Y-79.389
X-63.942 Y-79.165
X-64.303 Y-78.965
X-64.677 Y-78.79
X-65.063 Y-78.639
X-65.458 Y-78.514
X-65.862 Y-78.415
X-66.271 Y-78.343
X-66.686 Y-78.298
X-67.103 Y-78.281
X-67.521 Y-78.292
X-67.938 Y-78.33
X-68.352 Y-78.396
X-68.761 Y-78.489
X-69.164 Y-78.61
X-69.559 Y-78.757
X-69.944 Y-78.93
X-70.316 Y-79.129
X-70.676 Y-79.352
X-71.02 Y-79.599
X-71.347 Y-79.869
X-71.656 Y-80.16
X-71.945 Y-80.471
X-72.213 Y-80.801
X-72.459 Y-81.148
X-72.682 Y-81.511
X-72.88 Y-81.888
X-73.053 Y-82.278
X-73.2 Y-82.679
X-73.32 Y-83.089
X-73.412 Y-83.506
X-73.477 Y-83.929
X-73.513 Y-84.355
X-73.521 Y-84.782
X-73.501 Y-85.21
X-73.453 Y-85.635
X-73.376 Y-86.057
X-73.272 Y-86.472
X-73.14 Y-86.88
X-72.981 Y-87.278
X-72.796 Y-87.665
X-72.586 Y-88.039
X-72.352 Y-88.398
X-72.094 Y-88.741
X-71.814 Y-89.066
X-71.513 Y-89.372
X-71.193 Y-89.657
X-70.854 Y-89.92
X-70.498 Y-90.161
X-70.128 Y-90.377
X-69.743 Y-90.568
X-69.347 Y-90.733
X-68.941 Y-90.872
X-68.526 Y-90.984
X-68.104 Y-91.067
X-67.677 Y-91.123
X-67.248 Y-91.15
X-66.817 Y-91.149
X-66.386 Y-91.119
X-65.958 Y-91.061
X-65.533 Y-90.974
X-65.114 Y-90.859
X-64.703 Y-90.716
X-64.302 Y-90.545
X-63.911 Y-90.348
X-63.534 Y-90.125
X-63.171 Y-89.877
X-62.824 Y-89.604
X-62.496 Y-89.308
X-62.187 Y-88.991
X-61.9 Y-88.653
X-61.635 Y-88.296
X-61.394 Y-87.923
X-61.178 Y-87.533
X-60.989 Y-87.13
X-60.827 Y-86.716
X-60.692 Y-86.291
X-60.586 Y-85.859
X-60.509 Y-85.421
X-60.461 Y-84.979
X-60.443 Y-84.535
X-60.454 Y-84.091
X-60.494 Y-83.65
X-60.564 Y-83.212
X-60.662 Y-82.78
X-60.789 Y-82.356
X-60.944 Y-81.941
X-61.125 Y-81.538
X-61.333 Y-81.147
X-61.567 Y-80.772
X-61.825 Y-80.412
X-62.106 Y-80.07
X-62.41 Y-79.748
X-62.734 Y-79.446
X-63.078 Y-79.166
X-63.441 Y-78.909
X-63.82 Y-78.676
X-64.214 Y-78.469
X-64.621 Y-78.288
X-65.04 Y-78.135
X-65.469 Y-78.009
X-65.907 Y-77.912
X-66.35 Y-77.844
X-66.797 Y-77.806
X-67.247 Y-77.797
X-67.697 Y-77.818
X-68.145 Y-77.869
X-68.59 Y-77.95
X-69.028 Y-78.06
X-69.459 Y-78.199
X-69.881 Y-78.367
X-70.291 Y-78.563
X-70.687 Y-78.785
X-71.069 Y-79.034
X-71.433 Y-79.308
X-71.779 Y-79.605
X-72.104 Y-79.926
X-72.408 Y-80.267
X-72.689 Y-80.628
X-72.945 Y-81.007
X-73.176 Y-81.403
X-73.381 Y-81.813
X-73.557 Y-82.237
X-73.706 Y-82.671
X-73.825 Y-83.115
X-73.915 Y-83.565
X-73.974 Y-84.021
X-74.004 Y-84.48
X-74.002 Y-84.94
X-73.971 Y-85.399
X-73.909 Y-85.856
X-73.816 Y-86.307
X-73.694 Y-86.751
X-73.543 Y-87.186
X-73.363 Y-87.61
X-73.156 Y-88.022
X-72.921 Y-88.419
X-72.661 Y-88.799
X-72.376 Y-89.162
X-72.067 Y-89.505
X-71.737 Y-89.826
X-71.386 Y-90.125
X-71.015 Y-90.4
X-70.627 Y-90.65
X-70.224 Y-90.874
X-69.806 Y-91.071
X-69.377 Y-91.239
X-68.936 Y-91.379
X-68.488 Y-91.489
X-68.033 Y-91.569
X-67.573 Y-91.619
X-67.11 Y-91.638
X-66.647 Y-91.627
X-66.185 Y-91.584
X-65.726 Y-91.511
X-65.271 Y-91.408
X-64.824 Y-91.275
X-64.386 Y-91.111
X-63.958 Y-90.919
X-63.543 Y-90.698
X-63.143 Y-90.449
X-62.759 Y-90.174
X-62.394 Y-89.873
X-62.048 Y-89.549
X-61.724 Y-89.201
X-61.424 Y-88.832
X-61.148 Y-88.443
X-60.899 Y-88.036
X-60.676 Y-87.614
X-60.483 Y-87.178
X-60.318 Y-86.729
X-60.184 Y-86.271
X-60.08 Y-85.806
X-60.008 Y-85.334
X-59.967 Y-84.859
X-59.958 Y-84.383
X-59.98 Y-83.908
X-60.034 Y-83.435
X-60.119 Y-82.967
X-60.234 Y-82.506
X-60.38 Y-82.055
X-60.555 Y-81.613
X-60.76 Y-81.185
X-60.992 Y-80.771
X-61.251 Y-80.373
X-61.536 Y-79.994
X-61.846 Y-79.634
X-62.179 Y-79.295
X-62.534 Y-78.978
X-62.91 Y-78.686
X-63.305 Y-78.419
X-63.717 Y-78.178
X-64.144 Y-77.965
X-64.586 Y-77.781
X-65.039 Y-77.626
X-65.502 Y-77.501
X-65.973 Y-77.407
X-66.449 Y-77.345
X-66.93 Y-77.314
X-67.412 Y-77.315
X-67.894 Y-77.348
X-68.373 Y-77.414
X-68.847 Y-77.511
X-69.315 Y-77.639
X-69.773 Y-77.798
X-70.221 Y-77.988
X-70.655 Y-78.207
X-71.075 Y-78.454
X-71.477 Y-78.73
X-71.861 Y-79.031
X-72.225 Y-79.358
X-72.566 Y-79.708
X-72.883 Y-80.081
X-73.175 Y-80.474
X-73.441 Y-80.886
X-73.679 Y-81.315
X-73.888 Y-81.759
X-74.067 Y-82.216
X-74.216 Y-82.684
X-74.333 Y-83.162
X-74.419 Y-83.646
X-74.472 Y-84.135
X-74.493 Y-84.627
X-74.481 Y-85.119
X-74.436 Y-85.61
X-74.359 Y-86.096
X-74.25 Y-86.577
X-74.109 Y-87.049
X-73.937 Y-87.511
X-73.735 Y-87.961
X-73.503 Y-88.396
X-73.243 Y-88.815
X-72.955 Y-89.216
X-72.642 Y-89.597
X-72.304 Y-89.957
X-71.943 Y-90.293
X-71.56 Y-90.605
X-71.158 Y-90.891
X-70.737 Y-91.149
X-70.3 Y-91.379
X-69.849 Y-91.579
X-69.386 Y-91.75
X-68.911 Y-91.889
X-68.429 Y-91.996
X-67.94 Y-92.071
X-67.447 Y-92.114
X-66.952 Y-92.124
X-66.456 Y-92.101
X-65.963 Y-92.045
X-65.473 Y-91.956
X-64.99 Y-91.835
X-64.514 Y-91.682
X-64.049 Y-91.497
X-63.596 Y-91.281
X-63.158 Y-91.035
X-62.736 Y-90.76
X-62.332 Y-90.457
X-61.948 Y-90.127
X-61.587 Y-89.772
X-61.249 Y-89.393
X-60.937 Y-88.992
X-60.651 Y-88.571
X-60.394 Y-88.131
X-60.167 Y-87.675
X-59.97 Y-87.205
X-59.805 Y-86.722
X-59.673 Y-86.23
X-59.573 Y-85.731
X-59.507 Y-85.226
X-59.474 Y-84.718
X-59.475 Y-84.21
X-59.51 Y-83.703
X-59.578 Y-83.2
X-59.68 Y-82.703
X-59.814 Y-82.213
X-59.98 Y-81.734
X-60.178 Y-81.267
X-60.406 Y-80.814
X-60.663 Y-80.378
X-60.95 Y-79.959
X-61.263 Y-79.56
X-61.602 Y-79.183
X-61.966 Y-78.829
X-62.352 Y-78.499
X-62.76 Y-78.195
X-63.188 Y-77.919
X-63.634 Y-77.672
X-64.095 Y-77.455
X-64.571 Y-77.268
X-65.058 Y-77.113
X-65.555 Y-76.991
X-66.06 Y-76.901
X-66.57 Y-76.846
X-67.084 Y-76.824
X-67.598 Y-76.837
X-68.112 Y-76.883
X-68.621 Y-76.964
X-69.125 Y-77.078
X-69.621 Y-77.226
X-70.107 Y-77.406
X-70.58 Y-77.619
X-71.038 Y-77.863
X-71.479 Y-78.137
X-71.902 Y-78.439
X-72.304 Y-78.77
X-72.684 Y-79.127
X-73.04 Y-79.508
X-73.369 Y-79.913
X-73.672 Y-80.338
X-73.945 Y-80.784
X-74.189 Y-81.246
X-74.402 Y-81.724
X-74.582 Y-82.216
X-74.73 Y-82.718
X-74.844 Y-83.23
X-74.924 Y-83.748
X-74.969 Y-84.27
X-74.98 Y-84.795
X-74.955 Y-85.319
X-74.896 Y-85.84
X-74.803 Y-86.357
X-74.675 Y-86.866
X-74.514 Y-87.366
X-74.32 Y-87.855
X-74.095 Y-88.329
X-73.838 Y-88.788
X-73.551 Y-89.228
X-73.235 Y-89.649
X-72.893 Y-90.047
X-72.524 Y-90.423
X-72.132 Y-90.772
X-71.717 Y-91.096
X-71.282 Y-91.391
X-70.828 Y-91.656
X-70.357 Y-91.891
X-69.872 Y-92.094
X-69.374 Y-92.265
X-68.865 Y-92.402
X-68.349 Y-92.505
X-67.826 Y-92.574
X-67.3 Y-92.608
X-66.772 Y-92.607
X-66.244 Y-92.571
X-65.72 Y-92.5
X-65.2 Y-92.394
X-64.688 Y-92.254
X-64.185 Y-92.079
X-63.694 Y-91.872
X-63.217 Y-91.631
X-62.756 Y-91.36
X-62.313 Y-91.057
X-61.89 Y-90.725
X-61.489 Y-90.365
X-61.113 Y-89.979
X-60.762 Y-89.568
X-60.439 Y-89.134
X-60.145 Y-88.679
X-59.882 Y-88.206
X-59.651 Y-87.715
X-59.453 Y-87.211
X-59.289 Y-86.695
X-59.159 Y-86.168
X-59.065 Y-85.635
X-59.006 Y-85.097
X-58.983 Y-84.556
X-58.996 Y-84.016
X-59.045 Y-83.478
X-59.129 Y-82.944
X-59.248 Y-82.418
X-59.402 Y-81.9
X-59.59 Y-81.395
X-59.811 Y-80.903
X-60.064 Y-80.426
X-60.348 Y-79.968
X-60.662 Y-79.529
X-61.005 Y-79.112
X-61.374 Y-78.718
X-61.769 Y-78.35
X-62.188 Y-78.008
X-62.63 Y-77.695
X-63.091 Y-77.411
X-63.57 Y-77.158
X-64.066 Y-76.938
X-64.576 Y-76.75
X-65.098 Y-76.597
X-65.63 Y-76.478
X-66.169 Y-76.395
X-66.713 Y-76.348
X-67.259 Y-76.336
X-67.806 Y-76.362
X-68.35 Y-76.423
X-68.89 Y-76.52
X-69.423 Y-76.654
X-69.947 Y-76.822
X-70.458 Y-77.025
X-70.956 Y-77.262
X-71.437 Y-77.532
X-71.9 Y-77.833
X-72.342 Y-78.164
X-72.762 Y-78.524
X-73.157 Y-78.912
X-73.526 Y-79.326
X-73.867 Y-79.763
X-74.178 Y-80.222
X-74.458 Y-80.701
X-74.706 Y-81.198
X-74.921 Y-81.711
X-75.101 Y-82.236
X-75.246 Y-82.773
X-75.356 Y-83.319
X-75.428 Y-83.871
X-75.464 Y-84.427
Y-84.984
X-75.426 Y-85.54
X-75.351 Y-86.092
X-75.24 Y-86.638
X-75.093 Y-87.176
X-74.91 Y-87.703
X-74.693 Y-88.217
X-74.443 Y-88.715
X-74.159 Y-89.196
X-73.845 Y-89.657
X-73.5 Y-90.096
X-73.127 Y-90.511
X-72.728 Y-90.901
X-72.303 Y-91.263
X-71.855 Y-91.597
X-71.386 Y-91.9
X-70.898 Y-92.171
X-70.393 Y-92.41
X-69.873 Y-92.614
X-69.341 Y-92.784
X-68.798 Y-92.917
X-68.247 Y-93.015
X-67.691 Y-93.076
X-67.131 Y-93.1
X-66.571 Y-93.087
X-66.012 Y-93.036
X-65.456 Y-92.949
X-64.907 Y-92.824
X-64.367 Y-92.664
X-63.837 Y-92.467
X-63.321 Y-92.235
X-62.82 Y-91.969
X-62.337 Y-91.67
X-61.874 Y-91.339
X-61.433 Y-90.977
X-61.016 Y-90.586
X-60.626 Y-90.168
X-60.264 Y-89.724
X-59.932 Y-89.257
X-59.631 Y-88.768
X-59.363 Y-88.26
X-59.129 Y-87.736
X-58.931 Y-87.196
X-58.769 Y-86.646
X-58.644 Y-86.085
X-58.556 Y-85.518
X-58.506 Y-84.947
X-58.494 Y-84.373
X-58.52 Y-83.801
X-58.584 Y-83.232
X-58.686 Y-82.668
X-58.825 Y-82.113
X-59 Y-81.568
X-59.211 Y-81.037
X-59.456 Y-80.52
X-59.735 Y-80.021
X-60.047 Y-79.542
X-60.39 Y-79.084
X-60.763 Y-78.65
X-61.164 Y-78.241
X-61.591 Y-77.859
X-62.043 Y-77.507
X-62.518 Y-77.185
X-63.013 Y-76.895
X-63.528 Y-76.638
X-64.058 Y-76.415
X-64.603 Y-76.228
X-65.16 Y-76.078
X-65.726 Y-75.964
X-66.299 Y-75.889
X-66.876 Y-75.851
X-67.455 Y-75.852
X-68.032 Y-75.891
X-68.606 Y-75.968
X-69.173 Y-76.083
X-69.731 Y-76.235
X-70.279 Y-76.423
X-70.812 Y-76.648
X-71.33 Y-76.906
X-71.829 Y-77.199
X-72.308 Y-77.523
X-72.765 Y-77.878
X-73.198 Y-78.262
X-73.604 Y-78.674
X-73.983 Y-79.112
X-74.333 Y-79.573
X-74.651 Y-80.056
X-74.937 Y-80.559
X-75.19 Y-81.08
X-75.408 Y-81.616
X-75.591 Y-82.165
X-75.738 Y-82.725
X-75.847 Y-83.293
X-75.92 Y-83.867
X-75.955 Y-84.444
X-75.953 Y-85.023
X-75.912 Y-85.6
X-75.835 Y-86.174
X-75.72 Y-86.741
X-75.568 Y-87.3
X-75.381 Y-87.847
X-75.158 Y-88.381
X-74.902 Y-88.9
X-74.612 Y-89.401
X-74.29 Y-89.881
X-73.937 Y-90.34
X-73.556 Y-90.776
X-73.147 Y-91.185
X-72.712 Y-91.567
