%
(1001)
(T1  D=3 CR=0 - ZMIN=10 - flat end mill)
G90 G94
G17
G21

(2D Adaptive2 2)
M9
T1 M6
S10000 M3
G54
M9
G0 X-118.289 Y-113.785
Z48
Z38
Z10.6
G1 Z10.3 F850
X-118.296 Y-113.786 Z10.233
X-118.318 Y-113.792 Z10.17
X-118.352 Y-113.801 Z10.113
X-118.398 Y-113.812 Z10.065
X-118.454 Y-113.826 Z10.03
X-118.515 Y-113.842 Z10.008
X-118.58 Y-113.859 Z10
G3 X-120.028 Y-114.649 I0.819 J-3.222
G1 X-120.066 Y-114.687
X-120.091 Y-114.715
X-120.078 Y-114.864
X-120.042 Y-115.01
X-119.992 Y-115.151
X-119.932 Y-115.289
X-119.848 Y-115.455
X-119.728 Y-115.662
X-119.553 Y-115.928
X-119.28 Y-116.297
X-118.881 Y-116.777
X-118.461 Y-117.237
X-118.03 Y-117.689
X-117.594 Y-118.135
X-117.155 Y-118.579
X-116.275 Y-119.464
X-115.888 Y-119.851
X-115.681 Y-120.011
X-115.44 Y-120.111
X-115.181 Y-120.145
X-114.922 Y-120.111
X-114.681 Y-120.011
X-114.473 Y-119.852
G3 X-114.49 Y-119.426 I-0.219 J0.205
G1 X-119.658 Y-114.685
G3 X-119.966 Y-114.625 I-0.203 J-0.221
X-120.066 Y-114.687 I0.105 J-0.281
G1 X-120.239 Y-114.86
X-120.264 Y-114.888
X-120.292 Y-115.035
X-120.297 Y-115.185
X-120.286 Y-115.335
X-120.262 Y-115.483
X-120.226 Y-115.629
X-120.178 Y-115.784
X-120.118 Y-115.945
X-120.031 Y-116.145
X-119.916 Y-116.372
X-119.764 Y-116.633
X-119.55 Y-116.959
X-119.228 Y-117.392
X-118.829 Y-117.871
X-118.411 Y-118.334
X-117.982 Y-118.787
X-117.548 Y-119.236
X-117.111 Y-119.681
X-116.844 Y-119.938
X-116.695 Y-120.066
X-116.528 Y-120.194
X-116.403 Y-120.279
X-116.275 Y-120.357
X-116.14 Y-120.427
X-116.015 Y-120.483
X-115.785 Y-120.554
X-115.545 Y-120.568
X-115.308 Y-120.525
X-115.088 Y-120.426
X-114.899 Y-120.277
G3 X-114.837 Y-120.178 I-0.219 J0.205
X-114.904 Y-119.862 I-0.281 J0.105
G1 X-119.82 Y-114.869
G3 X-120.139 Y-114.799 I-0.214 J-0.21
X-120.239 Y-114.86 I0.105 J-0.281
G1 X-120.428 Y-115.049
X-120.529 Y-115.161
X-120.572 Y-115.304
X-120.597 Y-115.452
X-120.606 Y-115.602
X-120.602 Y-115.752
X-120.586 Y-115.901
X-120.561 Y-116.049
X-120.525 Y-116.205
X-120.472 Y-116.388
X-120.405 Y-116.577
X-120.306 Y-116.815
X-120.191 Y-117.053
X-120.02 Y-117.36
X-119.809 Y-117.692
X-119.496 Y-118.13
X-119.105 Y-118.616
X-118.693 Y-119.085
X-118.269 Y-119.543
X-117.842 Y-119.985
X-117.561 Y-120.244
X-117.331 Y-120.434
X-117.131 Y-120.581
X-116.946 Y-120.701
X-116.789 Y-120.791
X-116.654 Y-120.859
X-116.508 Y-120.921
X-116.367 Y-120.972
X-116.333 Y-120.982
X-116.071 Y-121.021
X-115.807 Y-120.989
X-115.56 Y-120.889
X-115.349 Y-120.728
G3 X-115.344 Y-120.324 I-0.219 J0.205
G1 X-119.999 Y-115.07
G3 X-120.428 Y-115.049 I-0.225 J-0.199
G1 X-120.712 Y-115.333
X-120.812 Y-115.444
X-120.875 Y-115.58
X-120.919 Y-115.724
X-120.946 Y-115.871
X-120.96 Y-116.021
X-120.962 Y-116.171
X-120.953 Y-116.32
X-120.935 Y-116.469
X-120.905 Y-116.642
X-120.862 Y-116.821
X-120.8 Y-117.033
X-120.723 Y-117.247
X-120.609 Y-117.516
X-120.476 Y-117.785
X-120.283 Y-118.129
X-120.041 Y-118.507
X-119.689 Y-118.993
X-119.296 Y-119.477
X-118.883 Y-119.945
X-118.527 Y-120.313
X-118.216 Y-120.599
X-117.953 Y-120.816
X-117.718 Y-120.988
X-117.504 Y-121.127
X-117.342 Y-121.219
X-117.175 Y-121.303
X-117.02 Y-121.37
X-116.879 Y-121.421
X-116.799 Y-121.445
X-116.536 Y-121.484
X-116.271 Y-121.453
X-116.025 Y-121.353
X-115.813 Y-121.192
X-115.349 Y-120.728
G3 X-115.356 Y-120.312 I-0.219 J0.205
G1 X-120.294 Y-115.341
G3 X-120.712 Y-115.333 I-0.213 J-0.211
G1 X-121.02 Y-115.642
X-121.121 Y-115.753
X-121.201 Y-115.88
X-121.26 Y-116.018
X-121.303 Y-116.161
X-121.332 Y-116.309
X-121.348 Y-116.458
X-121.353 Y-116.608
X-121.349 Y-116.759
X-121.335 Y-116.914
X-121.309 Y-117.094
X-121.272 Y-117.28
X-121.214 Y-117.498
X-121.14 Y-117.729
X-121.039 Y-117.989
X-120.905 Y-118.285
X-120.735 Y-118.611
X-120.503 Y-118.999
X-120.205 Y-119.44
X-119.845 Y-119.914
X-119.491 Y-120.328
X-119.153 Y-120.682
X-118.833 Y-120.981
X-118.557 Y-121.21
X-118.302 Y-121.4
X-118.068 Y-121.554
X-117.875 Y-121.666
X-117.71 Y-121.75
X-117.534 Y-121.827
X-117.393 Y-121.879
X-117.25 Y-121.923
X-117.22 Y-121.93
X-116.968 Y-121.956
X-116.718 Y-121.918
X-116.485 Y-121.818
X-116.285 Y-121.664
X-115.813 Y-121.192
G3 X-115.751 Y-121.092 I-0.219 J0.205
X-115.813 Y-120.782 I-0.281 J0.105
G1 X-120.597 Y-115.656
G3 X-120.921 Y-115.58 I-0.219 J-0.205
X-121.02 Y-115.642 I0.105 J-0.281
G1 X-121.421 Y-116.042
X-121.521 Y-116.153
X-121.601 Y-116.28
X-121.662 Y-116.417
X-121.708 Y-116.56
X-121.74 Y-116.707
X-121.761 Y-116.855
X-121.771 Y-117.005
X-121.772 Y-117.155
X-121.763 Y-117.317
X-121.743 Y-117.502
X-121.711 Y-117.693
X-121.661 Y-117.918
X-121.596 Y-118.147
X-121.503 Y-118.417
X-121.382 Y-118.711
X-121.229 Y-119.031
X-121.021 Y-119.409
X-120.778 Y-119.797
X-120.502 Y-120.189
X-120.192 Y-120.579
X-119.869 Y-120.941
X-119.564 Y-121.247
X-119.268 Y-121.512
X-118.988 Y-121.736
X-118.739 Y-121.913
X-118.507 Y-122.059
X-118.303 Y-122.172
X-118.147 Y-122.247
X-117.972 Y-122.319
X-117.83 Y-122.369
X-117.686 Y-122.41
X-117.677 Y-122.412
X-117.429 Y-122.433
X-117.185 Y-122.392
X-116.958 Y-122.293
X-116.762 Y-122.141
X-116.285 Y-121.664
G3 X-116.282 Y-121.257 I-0.219 J0.205
G1 X-120.994 Y-116.06
G3 X-121.421 Y-116.042 I-0.222 J-0.201
G1 X-121.815 Y-116.436
X-121.916 Y-116.548
X-122.001 Y-116.671
X-122.068 Y-116.805
X-122.12 Y-116.946
X-122.158 Y-117.091
X-122.185 Y-117.239
X-122.201 Y-117.388
X-122.207 Y-117.538
X-122.205 Y-117.701
X-122.193 Y-117.884
X-122.169 Y-118.077
X-122.128 Y-118.301
X-122.072 Y-118.529
X-121.992 Y-118.795
X-121.885 Y-119.088
X-121.755 Y-119.389
X-121.586 Y-119.728
X-121.376 Y-120.094
X-121.134 Y-120.467
X-120.867 Y-120.832
X-120.577 Y-121.185
X-120.278 Y-121.509
X-119.983 Y-121.794
X-119.694 Y-122.045
X-119.416 Y-122.259
X-119.17 Y-122.428
X-118.939 Y-122.568
X-118.738 Y-122.674
X-118.584 Y-122.745
X-118.412 Y-122.813
X-118.27 Y-122.86
X-118.201 Y-122.878
X-117.943 Y-122.911
X-117.685 Y-122.876
X-117.446 Y-122.776
X-117.239 Y-122.618
X-116.762 Y-122.141
G3 X-116.7 Y-122.041 I-0.219 J0.205
X-116.756 Y-121.738 I-0.281 J0.105
G1 X-121.385 Y-116.458
G3 X-121.715 Y-116.375 I-0.226 J-0.198
X-121.815 Y-116.436 I0.105 J-0.281
G1 X-122.271 Y-116.893
X-122.372 Y-117.004
X-122.453 Y-117.13
X-122.518 Y-117.265
X-122.568 Y-117.407
X-122.606 Y-117.552
X-122.633 Y-117.699
X-122.649 Y-117.848
X-122.658 Y-118.008
X-122.657 Y-118.175
X-122.645 Y-118.363
X-122.62 Y-118.572
X-122.582 Y-118.788
X-122.523 Y-119.038
X-122.445 Y-119.301
X-122.343 Y-119.586
X-122.209 Y-119.904
X-122.043 Y-120.242
X-121.854 Y-120.577
X-121.629 Y-120.929
X-121.373 Y-121.284
X-121.095 Y-121.627
X-120.802 Y-121.948
X-120.503 Y-122.243
X-120.214 Y-122.496
X-119.944 Y-122.707
X-119.689 Y-122.884
X-119.452 Y-123.03
X-119.259 Y-123.134
X-119.086 Y-123.215
X-118.914 Y-123.285
X-118.771 Y-123.333
X-118.626 Y-123.371
X-118.381 Y-123.39
X-118.139 Y-123.349
X-117.914 Y-123.25
X-117.72 Y-123.099
X-117.239 Y-122.618
G3 X-117.232 Y-122.217 I-0.219 J0.205
G1 X-121.84 Y-116.915
G3 X-122.271 Y-116.893 I-0.226 J-0.197
G1 X-122.722 Y-117.343
X-122.823 Y-117.455
X-122.904 Y-117.581
X-122.969 Y-117.716
X-123.02 Y-117.857
X-123.059 Y-118.001
X-123.088 Y-118.149
X-123.106 Y-118.298
X-123.116 Y-118.46
X-123.118 Y-118.626
X-123.108 Y-118.818
X-123.086 Y-119.022
X-123.05 Y-119.245
X-122.993 Y-119.501
X-122.921 Y-119.758
X-122.824 Y-120.04
X-122.697 Y-120.351
X-122.541 Y-120.679
X-122.363 Y-121.006
X-122.15 Y-121.349
X-121.905 Y-121.697
X-121.635 Y-122.039
X-121.349 Y-122.362
X-121.056 Y-122.657
X-120.763 Y-122.921
X-120.49 Y-123.139
X-120.234 Y-123.322
X-119.988 Y-123.478
X-119.77 Y-123.599
X-119.607 Y-123.678
X-119.436 Y-123.749
X-119.286 Y-123.802
X-119.142 Y-123.844
X-119.119 Y-123.849
X-118.871 Y-123.871
X-118.625 Y-123.831
X-118.397 Y-123.732
X-118.2 Y-123.579
X-117.72 Y-123.099
G3 X-117.658 Y-122.999 I-0.219 J0.205
X-117.712 Y-122.699 I-0.281 J0.105
G1 X-122.29 Y-117.367
G3 X-122.622 Y-117.282 I-0.228 J-0.195
X-122.722 Y-117.343 I0.105 J-0.281
G1 X-123.164 Y-117.786
X-123.265 Y-117.897
X-123.349 Y-118.021
X-123.418 Y-118.154
X-123.472 Y-118.294
X-123.514 Y-118.438
X-123.545 Y-118.585
X-123.567 Y-118.733
X-123.58 Y-118.892
X-123.584 Y-119.057
X-123.578 Y-119.248
X-123.561 Y-119.448
X-123.529 Y-119.669
X-123.478 Y-119.919
X-123.412 Y-120.171
X-123.323 Y-120.448
X-123.205 Y-120.752
X-123.061 Y-121.072
X-122.894 Y-121.391
X-122.692 Y-121.73
X-122.459 Y-122.075
X-122.2 Y-122.416
X-121.921 Y-122.742
X-121.633 Y-123.044
X-121.343 Y-123.315
X-121.056 Y-123.554
X-120.797 Y-123.746
X-120.55 Y-123.909
X-120.318 Y-124.044
X-120.14 Y-124.134
X-119.975 Y-124.207
X-119.812 Y-124.268
X-119.669 Y-124.312
X-119.619 Y-124.324
X-119.366 Y-124.351
X-119.115 Y-124.314
X-118.881 Y-124.214
X-118.68 Y-124.058
X-118.2 Y-123.579
G3 X-118.191 Y-123.181 I-0.219 J0.205
G1 X-122.731 Y-117.811
G3 X-123.164 Y-117.786 I-0.229 J-0.194
G1 X-123.627 Y-118.249
X-123.728 Y-118.36
X-123.813 Y-118.483
X-123.882 Y-118.617
X-123.937 Y-118.756
X-123.98 Y-118.9
X-124.012 Y-119.046
X-124.035 Y-119.195
X-124.049 Y-119.354
X-124.054 Y-119.521
X-124.05 Y-119.707
X-124.033 Y-119.917
X-124.004 Y-120.131
X-123.956 Y-120.376
X-123.888 Y-120.641
X-123.804 Y-120.908
X-123.692 Y-121.203
X-123.551 Y-121.523
X-123.379 Y-121.856
X-123.186 Y-122.186
X-122.961 Y-122.524
X-122.708 Y-122.861
X-122.433 Y-123.187
X-122.144 Y-123.494
X-121.854 Y-123.769
X-121.574 Y-124.005
X-121.31 Y-124.205
X-121.058 Y-124.373
X-120.829 Y-124.508
X-120.648 Y-124.602
X-120.475 Y-124.679
X-120.311 Y-124.741
X-120.168 Y-124.787
X-120.106 Y-124.802
X-119.852 Y-124.831
X-119.598 Y-124.795
X-119.362 Y-124.695
X-119.16 Y-124.538
X-118.68 Y-124.058
G3 X-118.618 Y-123.959 I-0.219 J0.205
X-118.669 Y-123.661 I-0.281 J0.105
G1 X-123.193 Y-118.275
G3 X-123.627 Y-118.249 I-0.23 J-0.193
G1 X-124.084 Y-118.705
X-124.184 Y-118.816
X-124.272 Y-118.938
X-124.343 Y-119.07
X-124.401 Y-119.208
X-124.446 Y-119.352
X-124.48 Y-119.498
X-124.504 Y-119.646
X-124.52 Y-119.805
X-124.527 Y-119.97
X-124.525 Y-120.154
X-124.51 Y-120.36
X-124.484 Y-120.572
X-124.439 Y-120.813
X-124.376 Y-121.074
X-124.295 Y-121.342
X-124.187 Y-121.637
X-124.051 Y-121.953
X-123.887 Y-122.281
X-123.701 Y-122.606
X-123.482 Y-122.943
X-123.234 Y-123.281
X-122.964 Y-123.61
X-122.68 Y-123.918
X-122.39 Y-124.198
X-122.106 Y-124.444
X-121.842 Y-124.648
X-121.589 Y-124.821
X-121.352 Y-124.964
X-121.161 Y-125.066
X-120.993 Y-125.143
X-120.82 Y-125.211
X-120.677 Y-125.258
X-120.599 Y-125.279
X-120.342 Y-125.311
X-120.085 Y-125.276
X-119.845 Y-125.176
X-119.64 Y-125.018
X-119.16 Y-124.538
G3 X-119.148 Y-124.142 I-0.219 J0.205
G1 X-123.648 Y-118.733
G3 X-124.084 Y-118.705 I-0.231 J-0.192
G1 X-124.565 Y-119.187
X-124.666 Y-119.298
X-124.752 Y-119.421
X-124.822 Y-119.553
X-124.879 Y-119.692
X-124.923 Y-119.835
X-124.956 Y-119.982
X-124.98 Y-120.13
X-124.995 Y-120.287
X-125.002 Y-120.46
X-125 Y-120.641
X-124.985 Y-120.85
X-124.957 Y-121.068
X-124.912 Y-121.306
X-124.847 Y-121.573
X-124.763 Y-121.848
X-124.657 Y-122.135
X-124.522 Y-122.446
X-124.356 Y-122.776
X-124.16 Y-123.117
X-123.94 Y-123.454
X-123.695 Y-123.786
X-123.426 Y-124.111
X-123.143 Y-124.416
X-122.861 Y-124.689
X-122.581 Y-124.929
X-122.312 Y-125.136
X-122.057 Y-125.309
X-121.827 Y-125.448
X-121.64 Y-125.547
X-121.461 Y-125.629
X-121.295 Y-125.693
X-121.152 Y-125.74
X-121.075 Y-125.76
X-120.819 Y-125.791
X-120.563 Y-125.756
X-120.324 Y-125.656
X-120.12 Y-125.498
X-119.64 Y-125.018
G3 X-119.578 Y-124.919 I-0.219 J0.205
X-119.628 Y-124.622 I-0.281 J0.105
G1 X-124.13 Y-119.214
G3 X-124.466 Y-119.125 I-0.231 J-0.192
X-124.565 Y-119.187 I0.105 J-0.281
G1 X-125.045 Y-119.667
X-125.146 Y-119.778
X-125.231 Y-119.901
X-125.301 Y-120.034
X-125.357 Y-120.173
X-125.4 Y-120.317
X-125.433 Y-120.463
X-125.457 Y-120.611
X-125.472 Y-120.771
X-125.479 Y-120.943
X-125.476 Y-121.128
X-125.46 Y-121.339
X-125.432 Y-121.556
X-125.387 Y-121.795
X-125.321 Y-122.062
X-125.237 Y-122.336
X-125.128 Y-122.629
X-124.991 Y-122.944
X-124.824 Y-123.275
X-124.627 Y-123.615
X-124.408 Y-123.951
X-124.163 Y-124.282
X-123.896 Y-124.604
X-123.615 Y-124.905
X-123.332 Y-125.177
X-123.054 Y-125.416
X-122.786 Y-125.621
X-122.531 Y-125.794
X-122.302 Y-125.931
X-122.115 Y-126.03
X-121.937 Y-126.11
X-121.771 Y-126.175
X-121.628 Y-126.221
X-121.554 Y-126.24
X-121.298 Y-126.271
X-121.042 Y-126.236
X-120.804 Y-126.136
X-120.6 Y-125.979
X-120.12 Y-125.498
G3 X-120.108 Y-125.102 I-0.219 J0.205
G1 X-124.61 Y-119.694
G3 X-125.045 Y-119.667 I-0.231 J-0.192
G1 X-125.533 Y-120.154
X-125.633 Y-120.265
X-125.717 Y-120.39
X-125.784 Y-120.523
X-125.839 Y-120.663
X-125.881 Y-120.807
X-125.913 Y-120.954
X-125.936 Y-121.102
X-125.951 Y-121.263
X-125.957 Y-121.438
X-125.953 Y-121.624
X-125.936 Y-121.837
X-125.906 Y-122.057
X-125.859 Y-122.298
X-125.791 Y-122.569
X-125.704 Y-122.847
X-125.593 Y-123.141
X-125.453 Y-123.458
X-125.284 Y-123.789
X-125.085 Y-124.13
X-124.861 Y-124.468
X-124.615 Y-124.798
X-124.348 Y-125.115
X-124.07 Y-125.411
X-123.789 Y-125.679
X-123.51 Y-125.916
X-123.242 Y-126.118
X-122.99 Y-126.287
X-122.763 Y-126.422
X-122.58 Y-126.517
X-122.4 Y-126.598
X-122.239 Y-126.66
X-122.096 Y-126.705
X-122.016 Y-126.725
X-121.75 Y-126.754
X-121.485 Y-126.712
X-121.242 Y-126.601
X-121.036 Y-126.429
X-120.896 Y-126.274
X-120.6 Y-125.979
G3 X-120.538 Y-125.879 I-0.219 J0.205
X-120.589 Y-125.582 I-0.281 J0.105
G1 X-125.098 Y-120.181
G3 X-125.433 Y-120.092 I-0.23 J-0.192
X-125.533 Y-120.154 I0.105 J-0.281
G1 X-126 Y-120.621
X-126.101 Y-120.733
X-126.186 Y-120.856
X-126.255 Y-120.989
X-126.311 Y-121.128
X-126.355 Y-121.272
X-126.388 Y-121.418
X-126.411 Y-121.566
X-126.427 Y-121.729
X-126.434 Y-121.897
X-126.431 Y-122.087
X-126.416 Y-122.297
X-126.388 Y-122.512
X-126.342 Y-122.757
X-126.276 Y-123.025
X-126.193 Y-123.294
X-126.083 Y-123.593
X-125.944 Y-123.913
X-125.776 Y-124.245
X-125.586 Y-124.576
X-125.369 Y-124.908
X-125.124 Y-125.239
X-124.858 Y-125.56
X-124.578 Y-125.862
X-124.291 Y-126.138
X-124.014 Y-126.376
X-123.75 Y-126.578
X-123.495 Y-126.751
X-123.263 Y-126.891
X-123.071 Y-126.992
X-122.902 Y-127.069
X-122.725 Y-127.138
X-122.583 Y-127.185
X-122.438 Y-127.222
X-122.351 Y-127.238
X-122.098 Y-127.254
X-121.85 Y-127.205
X-121.622 Y-127.096
X-121.428 Y-126.933
X-121.282 Y-126.726
G3 X-121.252 Y-126.613 I-0.27 J0.132
X-121.31 Y-126.416 I-0.299 J0.019
G1 X-125.554 Y-120.663
G3 X-125.901 Y-120.56 I-0.241 J-0.178
X-126 Y-120.621 I0.105 J-0.281
G1 X-126.425 Y-121.046
X-126.449 Y-121.067
X-126.557 Y-121.171
X-126.646 Y-121.292
X-126.718 Y-121.423
X-126.777 Y-121.561
X-126.824 Y-121.704
X-126.86 Y-121.849
X-126.885 Y-121.997
X-126.903 Y-122.156
X-126.913 Y-122.32
Y-122.507
X-126.901 Y-122.709
X-126.877 Y-122.924
X-126.835 Y-123.168
X-126.777 Y-123.423
X-126.698 Y-123.695
X-126.594 Y-123.991
X-126.463 Y-124.307
X-126.307 Y-124.628
X-126.127 Y-124.952
X-125.916 Y-125.287
X-125.676 Y-125.623
X-125.414 Y-125.951
X-125.136 Y-126.259
X-124.852 Y-126.542
X-124.565 Y-126.796
X-124.298 Y-127.008
X-124.045 Y-127.185
X-123.801 Y-127.338
X-123.582 Y-127.458
X-123.392 Y-127.548
X-123.225 Y-127.616
X-123.051 Y-127.676
X-122.906 Y-127.717
X-122.76 Y-127.748
X-122.611 Y-127.771
X-122.462 Y-127.784
X-122.396
X-122.146 Y-127.754
X-121.911 Y-127.662
X-121.707 Y-127.514
X-121.546 Y-127.32
X-121.439 Y-127.092
G3 X-121.429 Y-126.975 I-0.288 J0.082
X-121.492 Y-126.823 I-0.298 J-0.034
G1 X-126.024 Y-121.113
G3 X-126.449 Y-121.067 I-0.235 J-0.186
G1 X-126.569 Y-121.172
X-126.709 Y-121.271
X-126.779 Y-121.313
X-126.819 Y-121.333
X-126.95 Y-121.405
X-127.051 Y-121.516
X-127.136 Y-121.639
X-127.207 Y-121.771
X-127.266 Y-121.909
X-127.314 Y-122.052
X-127.351 Y-122.197
X-127.379 Y-122.344
X-127.4 Y-122.503
X-127.412 Y-122.673
X-127.415 Y-122.866
X-127.407 Y-123.067
X-127.386 Y-123.288
X-127.348 Y-123.535
X-127.294 Y-123.791
X-127.22 Y-124.063
X-127.122 Y-124.358
X-126.997 Y-124.673
X-126.847 Y-124.996
X-126.673 Y-125.321
X-126.468 Y-125.659
X-126.234 Y-125.999
X-125.976 Y-126.332
X-125.699 Y-126.649
X-125.415 Y-126.942
X-125.128 Y-127.205
X-124.848 Y-127.434
X-124.586 Y-127.625
X-124.335 Y-127.787
X-124.095 Y-127.924
X-123.878 Y-128.032
X-123.672 Y-128.12
X-123.474 Y-128.192
X-123.309 Y-128.241
X-123.153 Y-128.279
X-122.99 Y-128.308
X-122.841 Y-128.326
X-122.692 Y-128.334
X-122.542 Y-128.332
X-122.392 Y-128.32
X-122.331 Y-128.31
X-122.079 Y-128.233
X-121.855 Y-128.093
X-121.676 Y-127.9
X-121.553 Y-127.667
X-121.494 Y-127.411
G3 X-121.51 Y-127.295 I-0.299 J0.018
X-121.564 Y-127.199 I-0.284 J-0.098
G1 X-126.468 Y-121.413
G3 X-126.819 Y-121.333 I-0.229 J-0.194
G1 X-126.851 Y-121.348
X-126.993 Y-121.41
X-127.106 Y-121.443
X-127.248 Y-121.491
X-127.372 Y-121.575
X-127.48 Y-121.679
X-127.574 Y-121.797
X-127.654 Y-121.923
X-127.722 Y-122.057
X-127.78 Y-122.195
X-127.827 Y-122.338
X-127.865 Y-122.483
X-127.896 Y-122.641
X-127.919 Y-122.804
X-127.935 Y-122.986
X-127.94 Y-123.189
X-127.934 Y-123.397
X-127.914 Y-123.627
X-127.878 Y-123.883
X-127.825 Y-124.147
X-127.752 Y-124.426
X-127.656 Y-124.727
X-127.532 Y-125.048
X-127.381 Y-125.382
X-127.327 Y-125.486
X-127.276 Y-125.573
X-127.216 Y-125.656
X-127.147 Y-125.731
X-124.901 Y-127.978
X-124.738 Y-128.125
X-124.601 Y-128.236
X-124.452 Y-128.342
X-124.295 Y-128.443
X-124.131 Y-128.534
X-123.96 Y-128.617
X-123.791 Y-128.689
X-123.622 Y-128.748
X-123.454 Y-128.798
X-123.286 Y-128.837
X-123.139 Y-128.862
X-122.99 Y-128.88
X-122.837 Y-128.887
X-122.687 Y-128.886
X-122.538 Y-128.875
X-122.39 Y-128.852
X-122.243 Y-128.818
X-122.132 Y-128.783
X-121.923 Y-128.686
X-121.743 Y-128.543
X-121.603 Y-128.361
X-121.51 Y-128.15
X-121.47 Y-127.924
X-121.486 Y-127.694
X-121.496 Y-127.552
X-121.494 Y-127.411
G3 X-121.83 Y-127.119 I-0.3 J-0.006
G1 X-124.718 Y-127.475
G3 X-124.963 Y-127.878 I0.037 J-0.298
X-124.901 Y-127.978 I0.281 J0.105
G1 X-124.015 Y-128.864
X-123.904 Y-128.964
X-123.785 Y-129.056
X-123.657 Y-129.135
X-123.523 Y-129.202
X-123.384 Y-129.258
X-123.241 Y-129.303
X-123.095 Y-129.338
X-122.947 Y-129.362
X-122.798 Y-129.375
X-122.648 Y-129.378
X-122.498 Y-129.37
X-122.349 Y-129.351
X-122.203 Y-129.319
X-122.059 Y-129.275
X-121.959 Y-129.235
X-121.74 Y-129.111
X-121.56 Y-128.934
X-121.431 Y-128.717
X-121.362 Y-128.475
X-121.357 Y-128.223
X-121.417 Y-127.978
X-121.459 Y-127.836
X-121.486 Y-127.694
G3 X-121.534 Y-127.587 I-0.293 J-0.067
X-121.901 Y-127.487 I-0.245 J-0.173
G1 X-123.918 Y-128.385
G3 X-124.077 Y-128.764 I0.122 J-0.274
X-124.015 Y-128.864 I0.281 J0.105
G1 X-123.448 Y-129.431
X-123.337 Y-129.531
X-123.212 Y-129.615
X-123.078 Y-129.682
X-122.937 Y-129.733
X-122.791 Y-129.77
X-122.643 Y-129.793
X-122.494 Y-129.803
X-122.344 Y-129.798
X-122.195 Y-129.781
X-122.048 Y-129.751
X-121.904 Y-129.706
X-121.815 Y-129.67
X-121.573 Y-129.529
X-121.378 Y-129.327
X-121.245 Y-129.08
X-121.184 Y-128.807
X-121.199 Y-128.527
X-121.29 Y-128.261
X-121.362 Y-128.119
X-121.417 Y-127.978
G3 X-121.871 Y-127.855 I-0.276 J-0.118
G1 X-123.406 Y-128.985
G3 X-123.509 Y-129.331 I0.178 J-0.242
X-123.448 Y-129.431 I0.281 J0.105
G1 X-123.022 Y-129.856
X-122.911 Y-129.957
X-122.785 Y-130.039
X-122.648 Y-130.1
X-122.505 Y-130.142
X-122.357 Y-130.168
X-122.207 Y-130.176
X-122.057 Y-130.168
X-121.909 Y-130.146
X-121.764 Y-130.107
X-121.623 Y-130.055
X-121.489 Y-129.989
X-121.363 Y-129.907
X-121.245 Y-129.815
X-121.228 Y-129.799
X-121.069 Y-129.599
X-120.966 Y-129.366
X-120.925 Y-129.114
X-120.95 Y-128.86
X-121.038 Y-128.621
X-121.183 Y-128.411
G3 X-121.279 Y-128.345 I-0.215 J-0.209
X-121.576 Y-128.378 I-0.119 J-0.275
G1 X-122.981 Y-129.41
G3 X-123.084 Y-129.757 I0.178 J-0.242
X-123.022 Y-129.856 I0.281 J0.105
G1 X-122.632 Y-130.246
X-122.521 Y-130.347
X-122.391 Y-130.421
X-122.25 Y-130.472
X-122.103 Y-130.503
X-121.953 Y-130.515
X-121.803 Y-130.51
X-121.655 Y-130.488
X-121.509 Y-130.452
X-121.369 Y-130.4
X-121.234 Y-130.334
X-121.107 Y-130.255
X-120.989 Y-130.162
X-120.881 Y-130.058
X-120.865 Y-130.039
X-120.733 Y-129.833
X-120.655 Y-129.602
X-120.635 Y-129.358
X-120.675 Y-129.117
X-120.773 Y-128.893
X-120.921 Y-128.7
X-120.934 Y-128.687
X-121.183 Y-128.411
G3 X-121.279 Y-128.345 I-0.215 J-0.209
X-121.643 Y-128.446 I-0.119 J-0.275
G1 X-122.657 Y-129.868
G3 X-122.694 Y-130.147 I0.244 J-0.174
X-122.632 Y-130.246 I0.281 J0.105
G1 X-122.281 Y-130.597
X-122.17 Y-130.698
X-122.037 Y-130.767
X-121.893 Y-130.811
X-121.745 Y-130.835
X-121.595 Y-130.84
X-121.446 Y-130.827
X-121.299 Y-130.798
X-121.155 Y-130.754
X-121.017 Y-130.696
X-120.886 Y-130.623
X-120.763 Y-130.538
X-120.65 Y-130.439
X-120.546 Y-130.33
X-120.533 Y-130.313
X-120.412 Y-130.107
X-120.343 Y-129.878
X-120.331 Y-129.64
X-120.375 Y-129.405
X-120.474 Y-129.188
X-120.622 Y-129
X-120.921 Y-128.7
G3 X-121.381 Y-128.757 I-0.207 J-0.218
G1 X-122.315 Y-130.232
G3 X-122.281 Y-130.597 I0.253 J-0.16
G1 X-121.971 Y-130.907
X-121.86 Y-131.008
X-121.728 Y-131.079
X-121.585 Y-131.124
X-121.437 Y-131.149
X-121.287 Y-131.153
X-121.138 Y-131.139
X-120.991 Y-131.109
X-120.848 Y-131.064
X-120.709 Y-131.006
X-120.579 Y-130.932
X-120.456 Y-130.846
X-120.342 Y-130.748
X-120.24 Y-130.638
X-120.227 Y-130.622
X-120.106 Y-130.416
X-120.036 Y-130.187
X-120.024 Y-129.948
X-120.068 Y-129.713
X-120.167 Y-129.495
X-120.314 Y-129.307
X-120.622 Y-129
G3 X-120.721 Y-128.938 I-0.205 J-0.219
X-121.081 Y-129.06 I-0.105 J-0.281
G1 X-122.006 Y-130.544
G3 X-122.033 Y-130.808 I0.255 J-0.159
X-121.971 Y-130.907 I0.281 J0.105
G1 X-121.661 Y-131.217
X-121.55 Y-131.318
X-121.418 Y-131.389
X-121.275 Y-131.435
X-121.127 Y-131.458
X-120.977 Y-131.462
X-120.828 Y-131.448
X-120.681 Y-131.418
X-120.538 Y-131.372
X-120.4 Y-131.313
X-120.27 Y-131.239
X-120.147 Y-131.153
X-120.034 Y-131.055
X-119.931 Y-130.945
X-119.918 Y-130.928
X-119.797 Y-130.722
X-119.729 Y-130.493
X-119.716 Y-130.255
X-119.76 Y-130.02
X-119.859 Y-129.803
X-120.007 Y-129.615
X-120.314 Y-129.307
G3 X-120.774 Y-129.368 I-0.205 J-0.219
G1 X-121.697 Y-130.854
G3 X-121.723 Y-131.118 I0.255 J-0.158
X-121.661 Y-131.217 I0.281 J0.105
G1 X-121.356 Y-131.522
X-121.245 Y-131.623
X-121.113 Y-131.695
X-120.971 Y-131.742
X-120.823 Y-131.766
X-120.673 Y-131.77
X-120.523 Y-131.757
X-120.377 Y-131.727
X-120.233 Y-131.682
X-120.095 Y-131.623
X-119.965 Y-131.549
X-119.842 Y-131.463
X-119.728 Y-131.365
X-119.626 Y-131.256
X-119.612 Y-131.238
X-119.491 Y-131.032
X-119.421 Y-130.803
X-119.408 Y-130.564
X-119.452 Y-130.329
X-119.551 Y-130.111
X-119.699 Y-129.922
X-120.007 Y-129.615
G3 X-120.466 Y-129.675 I-0.205 J-0.219
G1 X-121.391 Y-131.159
G3 X-121.418 Y-131.423 I0.255 J-0.159
X-121.356 Y-131.522 I0.281 J0.105
G1 X-121.037 Y-131.841
X-120.926 Y-131.942
X-120.793 Y-132.011
X-120.649 Y-132.055
X-120.501 Y-132.077
X-120.351 Y-132.079
X-120.202 Y-132.064
X-120.055 Y-132.032
X-119.913 Y-131.986
X-119.775 Y-131.925
X-119.645 Y-131.85
X-119.523 Y-131.763
X-119.411 Y-131.664
X-119.309 Y-131.553
X-119.298 Y-131.538
X-119.179 Y-131.332
X-119.112 Y-131.104
X-119.1 Y-130.867
X-119.145 Y-130.634
X-119.244 Y-130.418
X-119.391 Y-130.231
X-119.699 Y-129.922
G3 X-119.798 Y-129.861 I-0.205 J-0.219
X-120.159 Y-129.985 I-0.105 J-0.281
G1 X-121.074 Y-131.48
G3 X-121.037 Y-131.841 I0.256 J-0.157
G1 X-120.722 Y-132.157
X-120.61 Y-132.258
X-120.476 Y-132.325
X-120.332 Y-132.367
X-120.183 Y-132.387
X-120.033 Y-132.388
X-119.884 Y-132.372
X-119.738 Y-132.339
X-119.596 Y-132.291
X-119.459 Y-132.23
X-119.329 Y-132.154
X-119.208 Y-132.066
X-119.096 Y-131.966
X-118.995 Y-131.855
X-118.985 Y-131.842
X-118.868 Y-131.636
X-118.802 Y-131.409
X-118.792 Y-131.173
X-118.837 Y-130.94
X-118.936 Y-130.725
X-119.082 Y-130.539
X-119.391 Y-130.231
G3 X-119.852 Y-130.295 I-0.205 J-0.219
G1 X-120.759 Y-131.798
G3 X-120.722 Y-132.157 I0.257 J-0.155
G1 X-120.438 Y-132.441
X-120.327 Y-132.541
X-120.197 Y-132.616
X-120.055 Y-132.664
X-119.907 Y-132.69
X-119.757 Y-132.695
X-119.607 Y-132.682
X-119.46 Y-132.653
X-119.317 Y-132.609
X-119.179 Y-132.551
X-119.047 Y-132.479
X-118.924 Y-132.393
X-118.81 Y-132.296
X-118.707 Y-132.187
X-118.692 Y-132.168
X-118.568 Y-131.962
X-118.497 Y-131.732
X-118.483 Y-131.492
X-118.527 Y-131.255
X-118.626 Y-131.036
X-118.774 Y-130.847
X-119.082 Y-130.539
G3 X-119.181 Y-130.478 I-0.205 J-0.219
X-119.54 Y-130.599 I-0.105 J-0.281
G1 X-120.472 Y-132.076
G3 X-120.5 Y-132.341 I0.254 J-0.16
X-120.438 Y-132.441 I0.281 J0.105
G1 X-120.128 Y-132.751
X-120.017 Y-132.851
X-119.886 Y-132.925
X-119.744 Y-132.972
X-119.596 Y-132.998
X-119.446 Y-133.003
X-119.296 Y-132.99
X-119.149 Y-132.96
X-119.006 Y-132.916
X-118.868 Y-132.858
X-118.737 Y-132.784
X-118.614 Y-132.699
X-118.5 Y-132.601
X-118.397 Y-132.492
X-118.382 Y-132.473
X-118.26 Y-132.267
X-118.189 Y-132.037
X-118.176 Y-131.798
X-118.22 Y-131.562
X-118.319 Y-131.343
X-118.467 Y-131.155
X-118.774 Y-130.847
G3 X-119.233 Y-130.907 I-0.205 J-0.219
G1 X-120.163 Y-132.387
G3 X-120.19 Y-132.651 I0.254 J-0.16
X-120.128 Y-132.751 I0.281 J0.105
G1 X-119.818 Y-133.061
X-119.707 Y-133.161
X-119.576 Y-133.234
X-119.433 Y-133.281
X-119.285 Y-133.306
X-119.135 Y-133.311
X-118.986 Y-133.297
X-118.839 Y-133.268
X-118.696 Y-133.223
X-118.558 Y-133.164
X-118.427 Y-133.09
X-118.304 Y-133.005
X-118.19 Y-132.907
X-118.088 Y-132.797
X-118.073 Y-132.779
X-117.951 Y-132.573
X-117.882 Y-132.344
X-117.868 Y-132.104
X-117.912 Y-131.869
X-118.011 Y-131.651
X-118.159 Y-131.462
X-118.467 Y-131.155
G3 X-118.566 Y-131.093 I-0.205 J-0.219
X-118.926 Y-131.215 I-0.105 J-0.281
G1 X-119.853 Y-132.697
G3 X-119.88 Y-132.961 I0.254 J-0.159
X-119.818 Y-133.061 I0.281 J0.105
G1 X-119.513 Y-133.366
X-119.402 Y-133.466
X-119.271 Y-133.54
X-119.129 Y-133.588
X-118.981 Y-133.613
X-118.831 Y-133.618
X-118.682 Y-133.605
X-118.534 Y-133.576
X-118.391 Y-133.531
X-118.253 Y-133.473
X-118.122 Y-133.4
X-117.999 Y-133.314
X-117.885 Y-133.217
X-117.782 Y-133.107
X-117.767 Y-133.089
X-117.645 Y-132.882
X-117.574 Y-132.653
X-117.561 Y-132.413
X-117.605 Y-132.177
X-117.703 Y-131.959
X-117.852 Y-131.77
X-118.159 Y-131.462
G3 X-118.259 Y-131.401 I-0.205 J-0.219
X-118.618 Y-131.522 I-0.105 J-0.281
G1 X-119.548 Y-133.002
G3 X-119.575 Y-133.266 I0.254 J-0.16
X-119.513 Y-133.366 I0.281 J0.105
G1 X-119.194 Y-133.685
X-119.083 Y-133.785
X-118.95 Y-133.855
X-118.807 Y-133.9
X-118.659 Y-133.923
X-118.509 Y-133.927
X-118.36 Y-133.912
X-118.213 Y-133.881
X-118.07 Y-133.835
X-117.933 Y-133.775
X-117.802 Y-133.7
X-117.68 Y-133.614
X-117.567 Y-133.515
X-117.465 Y-133.405
X-117.453 Y-133.388
X-117.333 Y-133.182
X-117.265 Y-132.954
X-117.253 Y-132.716
X-117.297 Y-132.482
X-117.396 Y-132.265
X-117.543 Y-132.078
X-117.852 Y-131.77
G3 X-117.951 Y-131.708 I-0.205 J-0.219
X-118.312 Y-131.832 I-0.105 J-0.281
G1 X-119.23 Y-133.323
G3 X-119.194 Y-133.685 I0.255 J-0.157
G1 X-118.878 Y-134
X-118.767 Y-134.101
X-118.633 Y-134.169
X-118.49 Y-134.212
X-118.341 Y-134.234
X-118.191 Y-134.235
X-118.042 Y-134.219
X-117.896 Y-134.187
X-117.753 Y-134.14
X-117.616 Y-134.079
X-117.486 Y-134.004
X-117.364 Y-133.916
X-117.252 Y-133.817
X-117.151 Y-133.706
X-117.14 Y-133.691
X-117.022 Y-133.486
X-116.956 Y-133.258
X-116.945 Y-133.021
X-116.99 Y-132.789
X-117.088 Y-132.573
X-117.235 Y-132.387
X-117.543 Y-132.078
G3 X-118.004 Y-132.142 I-0.205 J-0.219
G1 X-118.915 Y-133.64
G3 X-118.94 Y-133.901 I0.256 J-0.156
X-118.878 Y-134 I0.281 J0.105
G1 X-118.572 Y-134.307
X-118.461 Y-134.407
X-118.328 Y-134.476
X-118.184 Y-134.519
X-118.036 Y-134.541
X-117.886 Y-134.543
X-117.736 Y-134.528
X-117.59 Y-134.496
X-117.447 Y-134.449
X-117.31 Y-134.389
X-117.18 Y-134.313
X-117.058 Y-134.226
X-116.946 Y-134.127
X-116.844 Y-134.016
X-116.833 Y-134.002
X-116.715 Y-133.796
X-116.648 Y-133.568
X-116.636 Y-133.331
X-116.681 Y-133.098
X-116.78 Y-132.882
X-116.926 Y-132.695
X-117.235 Y-132.387
G3 X-117.334 Y-132.325 I-0.205 J-0.219
X-117.695 Y-132.45 I-0.105 J-0.281
G1 X-118.609 Y-133.946
G3 X-118.572 Y-134.307 I0.256 J-0.156
G1 X-118.258 Y-134.62
X-118.147 Y-134.721
X-118.013 Y-134.788
X-117.869 Y-134.83
X-117.72 Y-134.851
X-117.57 Y-134.852
X-117.421 Y-134.836
X-117.275 Y-134.803
X-117.133 Y-134.755
X-116.996 Y-134.694
X-116.866 Y-134.618
X-116.744 Y-134.531
X-116.633 Y-134.431
X-116.532 Y-134.32
X-116.522 Y-134.306
X-116.404 Y-134.101
X-116.338 Y-133.873
X-116.328 Y-133.637
X-116.373 Y-133.405
X-116.471 Y-133.189
X-116.618 Y-133.003
X-116.926 Y-132.695
G3 X-117.026 Y-132.633 I-0.205 J-0.219
X-117.388 Y-132.759 I-0.105 J-0.281
G1 X-118.296 Y-134.261
G3 X-118.258 Y-134.62 I0.257 J-0.155
G1 X-117.975 Y-134.904
X-117.864 Y-135.005
X-117.734 Y-135.08
X-117.592 Y-135.128
X-117.444 Y-135.153
X-117.294 Y-135.159
X-117.144 Y-135.146
X-116.997 Y-135.117
X-116.854 Y-135.073
X-116.715 Y-135.015
X-116.584 Y-134.943
X-116.461 Y-134.858
X-116.346 Y-134.761
X-116.243 Y-134.651
X-116.229 Y-134.632
X-116.105 Y-134.426
X-116.034 Y-134.196
X-116.019 Y-133.956
X-116.063 Y-133.72
X-116.162 Y-133.5
X-116.31 Y-133.311
X-116.618 Y-133.003
G3 X-116.717 Y-132.942 I-0.205 J-0.219
X-117.076 Y-133.063 I-0.105 J-0.281
G1 X-118.009 Y-134.539
G3 X-117.975 Y-134.904 I0.254 J-0.16
G1 X-117.634 Y-135.244
X-117.523 Y-135.345
X-117.388 Y-135.41
X-117.243 Y-135.45
X-117.095 Y-135.469
X-116.945
X-116.796 Y-135.452
X-116.649 Y-135.418
X-116.507 Y-135.37
X-116.371 Y-135.307
X-116.242 Y-135.231
X-116.121 Y-135.142
X-116.01 Y-135.041
X-115.91 Y-134.93
X-115.9 Y-134.916
X-115.785 Y-134.711
X-115.721 Y-134.484
X-115.711 Y-134.249
X-115.757 Y-134.019
X-115.855 Y-133.805
X-116.001 Y-133.62
X-116.31 Y-133.311
G3 X-116.41 Y-133.249 I-0.205 J-0.219
X-116.773 Y-133.377 I-0.105 J-0.281
G1 X-117.673 Y-134.886
G3 X-117.696 Y-135.145 I0.258 J-0.154
X-117.634 Y-135.244 I0.281 J0.105
G1 X-117.351 Y-135.528
X-117.239 Y-135.629
X-117.108 Y-135.702
X-116.966 Y-135.748
X-116.818 Y-135.772
X-116.668 Y-135.777
X-116.518 Y-135.763
X-116.371 Y-135.733
X-116.228 Y-135.688
X-116.09 Y-135.629
X-115.96 Y-135.555
X-115.837 Y-135.469
X-115.723 Y-135.371
X-115.621 Y-135.262
X-115.608 Y-135.244
X-115.485 Y-135.038
X-115.416 Y-134.809
X-115.403 Y-134.57
X-115.447 Y-134.335
X-115.545 Y-134.116
X-115.693 Y-133.928
X-116.001 Y-133.62
G3 X-116.46 Y-133.681 I-0.205 J-0.219
G1 X-117.386 Y-135.165
G3 X-117.351 Y-135.528 I0.255 J-0.159
G1 X-117.035 Y-135.844
X-116.924 Y-135.944
X-116.791 Y-136.014
X-116.648 Y-136.059
X-116.499 Y-136.082
X-116.349 Y-136.085
X-116.2 Y-136.07
X-116.054 Y-136.039
X-115.911 Y-135.993
X-115.773 Y-135.933
X-115.643 Y-135.858
X-115.521 Y-135.771
X-115.408 Y-135.672
X-115.306 Y-135.562
X-115.294 Y-135.546
X-115.174 Y-135.34
X-115.107 Y-135.112
X-115.095 Y-134.874
X-115.139 Y-134.64
X-115.238 Y-134.423
X-115.385 Y-134.236
X-115.693 Y-133.928
G3 X-115.793 Y-133.866 I-0.205 J-0.219
X-116.153 Y-133.99 I-0.105 J-0.281
G1 X-117.071 Y-135.482
G3 X-117.096 Y-135.744 I0.256 J-0.157
X-117.035 Y-135.844 I0.281 J0.105
G1 X-116.725 Y-136.154
X-116.614 Y-136.254
X-116.481 Y-136.324
X-116.337 Y-136.368
X-116.189 Y-136.39
X-116.039 Y-136.393
X-115.89 Y-136.378
X-115.743 Y-136.346
X-115.601 Y-136.3
X-115.463 Y-136.24
X-115.333 Y-136.165
X-115.211 Y-136.078
X-115.098 Y-135.979
X-114.997 Y-135.868
X-114.985 Y-135.853
X-114.866 Y-135.647
X-114.798 Y-135.419
X-114.786 Y-135.182
X-114.831 Y-134.948
X-114.93 Y-134.731
X-115.077 Y-134.544
X-115.385 Y-134.236
G3 X-115.845 Y-134.299 I-0.205 J-0.219
G1 X-116.761 Y-135.792
G3 X-116.787 Y-136.054 I0.256 J-0.157
X-116.725 Y-136.154 I0.281 J0.105
G1 X-116.415 Y-136.464
X-116.304 Y-136.564
X-116.171 Y-136.633
X-116.027 Y-136.677
X-115.879 Y-136.699
X-115.729 Y-136.701
X-115.58 Y-136.686
X-115.433 Y-136.654
X-115.29 Y-136.607
X-115.153 Y-136.547
X-115.023 Y-136.472
X-114.901 Y-136.385
X-114.789 Y-136.285
X-114.687 Y-136.175
X-114.676 Y-136.16
X-114.557 Y-135.954
X-114.49 Y-135.726
X-114.478 Y-135.489
X-114.523 Y-135.256
X-114.622 Y-135.04
X-114.769 Y-134.853
X-115.077 Y-134.544
G3 X-115.537 Y-134.607 I-0.205 J-0.219
G1 X-116.452 Y-136.103
G3 X-116.415 Y-136.464 I0.256 J-0.156
G1 X-116.11 Y-136.769
X-115.999 Y-136.869
X-115.866 Y-136.939
X-115.723 Y-136.984
X-115.574 Y-137.006
X-115.424 Y-137.009
X-115.275 Y-136.994
X-115.128 Y-136.963
X-114.986 Y-136.917
X-114.848 Y-136.857
X-114.718 Y-136.782
X-114.596 Y-136.695
X-114.483 Y-136.596
X-114.381 Y-136.486
X-114.37 Y-136.471
X-114.25 Y-136.265
X-114.182 Y-136.037
X-114.17 Y-135.799
X-114.215 Y-135.565
X-114.313 Y-135.348
X-114.46 Y-135.161
X-114.769 Y-134.853
G3 X-115.229 Y-134.915 I-0.205 J-0.219
G1 X-116.146 Y-136.407
G3 X-116.172 Y-136.669 I0.256 J-0.157
X-116.11 Y-136.769 I0.281 J0.105
G1 X-115.807 Y-137.072
X-115.696 Y-137.172
X-115.564 Y-137.244
X-115.421 Y-137.289
X-115.273 Y-137.313
X-115.123 Y-137.317
X-114.973 Y-137.303
X-114.827 Y-137.272
X-114.684 Y-137.227
X-114.546 Y-137.167
X-114.415 Y-137.093
X-114.293 Y-137.007
X-114.179 Y-136.909
X-114.077 Y-136.799
X-114.064 Y-136.782
X-113.943 Y-136.576
X-113.875 Y-136.347
X-113.862 Y-136.109
X-113.906 Y-135.874
X-114.005 Y-135.657
X-114.153 Y-135.469
X-114.46 Y-135.161
G3 X-114.56 Y-135.099 I-0.205 J-0.219
X-114.92 Y-135.222 I-0.105 J-0.281
G1 X-115.842 Y-136.709
G3 X-115.807 Y-137.072 I0.255 J-0.158
G1 X-115.507 Y-137.371
X-115.396 Y-137.472
X-115.266 Y-137.546
X-115.123 Y-137.593
X-114.975 Y-137.619
X-114.826 Y-137.624
X-114.676 Y-137.611
X-114.529 Y-137.582
X-114.386 Y-137.538
X-114.247 Y-137.479
X-114.116 Y-137.406
X-113.993 Y-137.321
X-113.879 Y-137.224
X-113.776 Y-137.114
X-113.762 Y-137.096
X-113.638 Y-136.889
X-113.568 Y-136.66
X-113.554 Y-136.42
X-113.598 Y-136.184
X-113.697 Y-135.965
X-113.845 Y-135.776
X-114.153 Y-135.469
G3 X-114.252 Y-135.407 I-0.205 J-0.219
X-114.611 Y-135.528 I-0.105 J-0.281
G1 X-115.542 Y-137.007
G3 X-115.507 Y-137.371 I0.254 J-0.16
G1 X-115.192 Y-137.687
X-115.08 Y-137.788
X-114.948 Y-137.859
X-114.805 Y-137.905
X-114.657 Y-137.929
X-114.507 Y-137.933
X-114.358 Y-137.919
X-114.211 Y-137.888
X-114.068 Y-137.842
X-113.931 Y-137.783
X-113.8 Y-137.709
X-113.677 Y-137.623
X-113.564 Y-137.524
X-113.462 Y-137.415
X-113.449 Y-137.397
X-113.328 Y-137.191
X-113.259 Y-136.962
X-113.247 Y-136.724
X-113.291 Y-136.489
X-113.39 Y-136.272
X-113.537 Y-136.084
X-113.845 Y-135.776
G3 X-114.305 Y-135.837 I-0.205 J-0.219
G1 X-115.227 Y-137.324
G3 X-115.192 Y-137.687 I0.255 J-0.158
G1 X-114.882 Y-137.997
X-114.77 Y-138.098
X-114.638 Y-138.168
X-114.495 Y-138.214
X-114.347 Y-138.237
X-114.197 Y-138.241
X-114.048 Y-138.226
X-113.901 Y-138.195
X-113.758 Y-138.149
X-113.62 Y-138.09
X-113.49 Y-138.016
X-113.367 Y-137.929
X-113.255 Y-137.831
X-113.153 Y-137.721
X-113.14 Y-137.704
X-113.019 Y-137.498
X-112.951 Y-137.27
X-112.939 Y-137.031
X-112.983 Y-136.797
X-113.082 Y-136.58
X-113.229 Y-136.392
X-113.537 Y-136.084
G3 X-113.997 Y-136.146 I-0.205 J-0.219
G1 X-114.917 Y-137.635
G3 X-114.882 Y-137.997 I0.255 J-0.158
G1 X-114.572 Y-138.307
X-114.461 Y-138.408
X-114.328 Y-138.478
X-114.185 Y-138.523
X-114.037 Y-138.546
X-113.887 Y-138.549
X-113.737 Y-138.534
X-113.591 Y-138.503
X-113.448 Y-138.457
X-113.31 Y-138.397
X-113.18 Y-138.322
X-113.058 Y-138.236
X-112.945 Y-138.137
X-112.843 Y-138.027
X-112.831 Y-138.011
X-112.711 Y-137.805
X-112.643 Y-137.577
X-112.631 Y-137.339
X-112.675 Y-137.104
X-112.774 Y-136.888
X-112.921 Y-136.7
X-113.229 Y-136.392
G3 X-113.329 Y-136.331 I-0.205 J-0.219
X-113.689 Y-136.454 I-0.105 J-0.281
G1 X-114.608 Y-137.945
G3 X-114.633 Y-138.207 I0.255 J-0.157
X-114.572 Y-138.307 I0.281 J0.105
G1 X-114.267 Y-138.612
X-114.155 Y-138.713
X-114.023 Y-138.784
X-113.88 Y-138.829
X-113.732 Y-138.853
X-113.582 Y-138.856
X-113.433 Y-138.842
X-113.286 Y-138.811
X-113.143 Y-138.766
X-113.005 Y-138.706
X-112.875 Y-138.632
X-112.752 Y-138.546
X-112.639 Y-138.447
X-112.537 Y-138.338
X-112.525 Y-138.321
X-112.404 Y-138.115
X-112.335 Y-137.886
X-112.323 Y-137.648
X-112.367 Y-137.413
X-112.466 Y-137.196
X-112.613 Y-137.008
X-112.921 Y-136.7
G3 X-113.021 Y-136.639 I-0.205 J-0.219
X-113.381 Y-136.762 I-0.105 J-0.281
G1 X-114.302 Y-138.25
G3 X-114.328 Y-138.513 I0.255 J-0.158
X-114.267 Y-138.612 I0.281 J0.105
G1 X-113.964 Y-138.915
X-113.852 Y-139.016
X-113.721 Y-139.088
X-113.578 Y-139.135
X-113.43 Y-139.159
X-113.281 Y-139.164
X-113.131 Y-139.15
X-112.984 Y-139.12
X-112.841 Y-139.075
X-112.703 Y-139.017
X-112.572 Y-138.943
X-112.449 Y-138.857
X-112.336 Y-138.759
X-112.233 Y-138.65
X-112.22 Y-138.632
X-112.097 Y-138.426
X-112.028 Y-138.197
X-112.015 Y-137.958
X-112.059 Y-137.722
X-112.158 Y-137.504
X-112.305 Y-137.316
X-112.613 Y-137.008
G3 X-113.072 Y-137.069 I-0.205 J-0.219
G1 X-113.999 Y-138.552
G3 X-113.964 Y-138.915 I0.254 J-0.159
G1 X-113.632 Y-139.247
X-113.521 Y-139.347
X-113.386 Y-139.413
X-113.241 Y-139.454
X-113.093 Y-139.474
X-112.943
X-112.794 Y-139.457
X-112.647 Y-139.423
X-112.505 Y-139.375
X-112.369 Y-139.313
X-112.24 Y-139.237
X-112.118 Y-139.149
X-112.007 Y-139.048
X-111.907 Y-138.937
X-111.897 Y-138.923
X-111.781 Y-138.718
X-111.716 Y-138.491
X-111.706 Y-138.256
X-111.752 Y-138.024
X-111.851 Y-137.81
X-111.996 Y-137.625
X-112.305 Y-137.316
G3 X-112.405 Y-137.254 I-0.205 J-0.219
X-112.767 Y-137.381 I-0.105 J-0.281
G1 X-113.67 Y-138.888
G3 X-113.632 Y-139.247 I0.257 J-0.154
G1 X-113.348 Y-139.53
X-113.237 Y-139.631
X-113.106 Y-139.705
X-112.964 Y-139.752
X-112.816 Y-139.776
X-112.666 Y-139.781
X-112.517 Y-139.768
X-112.37 Y-139.738
X-112.226 Y-139.693
X-112.088 Y-139.635
X-111.957 Y-139.561
X-111.834 Y-139.476
X-111.72 Y-139.378
X-111.618 Y-139.268
X-111.604 Y-139.251
X-111.481 Y-139.044
X-111.411 Y-138.815
X-111.398 Y-138.576
X-111.442 Y-138.34
X-111.541 Y-138.121
X-111.689 Y-137.933
X-111.996 Y-137.625
G3 X-112.096 Y-137.563 I-0.205 J-0.219
X-112.455 Y-137.685 I-0.105 J-0.281
G1 X-113.383 Y-139.167
G3 X-113.348 Y-139.53 I0.254 J-0.159
G1 X-113.038 Y-139.84
X-112.927 Y-139.941
X-112.796 Y-140.013
X-112.653 Y-140.06
X-112.505 Y-140.084
X-112.355 Y-140.089
X-112.206 Y-140.075
X-112.059 Y-140.045
X-111.916 Y-140
X-111.778 Y-139.941
X-111.647 Y-139.867
X-111.524 Y-139.782
X-111.411 Y-139.683
X-111.308 Y-139.574
X-111.294 Y-139.556
X-111.173 Y-139.35
X-111.103 Y-139.121
X-111.09 Y-138.882
X-111.134 Y-138.647
X-111.233 Y-138.429
X-111.381 Y-138.24
X-111.689 Y-137.933
G3 X-112.148 Y-137.993 I-0.205 J-0.219
G1 X-113.073 Y-139.477
G3 X-113.038 Y-139.84 I0.255 J-0.159
G1 X-112.728 Y-140.15
X-112.617 Y-140.251
X-112.485 Y-140.323
X-112.343 Y-140.369
X-112.195 Y-140.393
X-112.045 Y-140.397
X-111.895 Y-140.383
X-111.748 Y-140.352
X-111.605 Y-140.307
X-111.468 Y-140.248
X-111.337 Y-140.174
X-111.214 Y-140.088
X-111.101 Y-139.989
X-110.999 Y-139.88
X-110.985 Y-139.862
X-110.864 Y-139.656
X-110.795 Y-139.427
X-110.782 Y-139.189
X-110.827 Y-138.954
X-110.925 Y-138.736
X-111.073 Y-138.548
X-111.381 Y-138.24
G3 X-111.48 Y-138.179 I-0.205 J-0.219
X-111.84 Y-138.301 I-0.105 J-0.281
G1 X-112.764 Y-139.787
G3 X-112.728 Y-140.15 I0.255 J-0.158
G1 X-112.423 Y-140.455
X-112.312 Y-140.556
X-112.181 Y-140.628
X-112.038 Y-140.675
X-111.89 Y-140.7
X-111.74 Y-140.704
X-111.591 Y-140.691
X-111.444 Y-140.661
X-111.301 Y-140.616
X-111.163 Y-140.557
X-111.032 Y-140.483
X-110.909 Y-140.398
X-110.796 Y-140.299
X-110.693 Y-140.19
X-110.679 Y-140.172
X-110.557 Y-139.966
X-110.488 Y-139.737
X-110.475 Y-139.498
X-110.519 Y-139.262
X-110.618 Y-139.044
X-110.765 Y-138.856
X-111.073 Y-138.548
G3 X-111.173 Y-138.487 I-0.205 J-0.219
X-111.532 Y-138.609 I-0.105 J-0.281
G1 X-112.458 Y-140.092
G3 X-112.485 Y-140.356 I0.254 J-0.159
X-112.423 Y-140.455 I0.281 J0.105
G1 X-112.104 Y-140.774
X-111.993 Y-140.875
X-111.86 Y-140.944
X-111.717 Y-140.988
X-111.568 Y-141.01
X-111.418 Y-141.013
X-111.269 Y-140.998
X-111.122 Y-140.966
X-110.98 Y-140.92
X-110.842 Y-140.859
X-110.713 Y-140.784
X-110.59 Y-140.697
X-110.478 Y-140.598
X-110.376 Y-140.488
X-110.364 Y-140.472
X-110.245 Y-140.266
X-110.178 Y-140.038
X-110.167 Y-139.801
X-110.211 Y-139.567
X-110.31 Y-139.351
X-110.457 Y-139.164
X-110.765 Y-138.856
G3 X-110.865 Y-138.794 I-0.205 J-0.219
X-111.226 Y-138.919 I-0.105 J-0.281
G1 X-112.141 Y-140.413
G3 X-112.104 Y-140.774 I0.256 J-0.157
G1 X-111.789 Y-141.09
X-111.677 Y-141.191
X-111.543 Y-141.258
X-111.399 Y-141.3
X-111.251 Y-141.321
X-111.101 Y-141.322
X-110.952 Y-141.305
X-110.805 Y-141.272
X-110.663 Y-141.225
X-110.526 Y-141.164
X-110.397 Y-141.088
X-110.275 Y-141
X-110.163 Y-140.9
X-110.062 Y-140.789
X-110.052 Y-140.776
X-109.935 Y-140.57
X-109.869 Y-140.343
X-109.858 Y-140.106
X-109.903 Y-139.874
X-110.002 Y-139.659
X-110.148 Y-139.473
X-110.457 Y-139.164
G3 X-110.918 Y-139.229 I-0.205 J-0.219
G1 X-111.826 Y-140.73
G3 X-111.789 Y-141.09 I0.257 J-0.155
G1 X-111.505 Y-141.374
X-111.394 Y-141.474
X-111.264 Y-141.549
X-111.122 Y-141.597
X-110.974 Y-141.623
X-110.824 Y-141.629
X-110.675 Y-141.616
X-110.527 Y-141.587
X-110.384 Y-141.543
X-110.246 Y-141.485
X-110.114 Y-141.412
X-109.991 Y-141.327
X-109.877 Y-141.23
X-109.774 Y-141.121
X-109.759 Y-141.102
X-109.635 Y-140.896
X-109.564 Y-140.666
X-109.55 Y-140.426
X-109.594 Y-140.189
X-109.692 Y-139.97
X-109.841 Y-139.78
X-110.148 Y-139.473
G3 X-110.248 Y-139.411 I-0.205 J-0.219
X-110.607 Y-139.532 I-0.105 J-0.281
G1 X-111.539 Y-141.009
G3 X-111.567 Y-141.274 I0.254 J-0.16
X-111.505 Y-141.374 I0.281 J0.105
G1 X-111.195 Y-141.684
X-111.084 Y-141.784
X-110.953 Y-141.858
X-110.811 Y-141.905
X-110.663 Y-141.931
X-110.513 Y-141.936
X-110.364 Y-141.923
X-110.217 Y-141.894
X-110.073 Y-141.85
X-109.935 Y-141.791
X-109.804 Y-141.718
X-109.681 Y-141.633
X-109.567 Y-141.535
X-109.464 Y-141.426
X-109.449 Y-141.407
X-109.326 Y-141.201
X-109.256 Y-140.971
X-109.242 Y-140.732
X-109.286 Y-140.496
X-109.385 Y-140.277
X-109.533 Y-140.088
X-109.841 Y-139.78
G3 X-109.94 Y-139.719 I-0.205 J-0.219
X-110.299 Y-139.84 I-0.105 J-0.281
G1 X-111.23 Y-141.319
G3 X-111.195 Y-141.684 I0.254 J-0.16
G1 X-110.885 Y-141.994
X-110.774 Y-142.094
X-110.643 Y-142.167
X-110.5 Y-142.214
X-110.353 Y-142.239
X-110.203 Y-142.244
X-110.053 Y-142.231
X-109.906 Y-142.201
X-109.763 Y-142.156
X-109.625 Y-142.098
X-109.494 Y-142.024
X-109.371 Y-141.939
X-109.257 Y-141.841
X-109.155 Y-141.731
X-109.14 Y-141.713
X-109.018 Y-141.507
X-108.948 Y-141.278
X-108.935 Y-141.038
X-108.979 Y-140.803
X-109.078 Y-140.584
X-109.226 Y-140.396
X-109.533 Y-140.088
G3 X-109.992 Y-140.148 I-0.205 J-0.219
G1 X-110.92 Y-141.63
G3 X-110.885 Y-141.994 I0.254 J-0.159
G1 X-110.58 Y-142.299
X-110.469 Y-142.399
X-110.338 Y-142.473
X-110.196 Y-142.521
X-110.048 Y-142.546
X-109.898 Y-142.551
X-109.749 Y-142.539
X-109.602 Y-142.509
X-109.458 Y-142.465
X-109.32 Y-142.407
X-109.189 Y-142.333
X-109.066 Y-142.248
X-108.952 Y-142.151
X-108.849 Y-142.041
X-108.834 Y-142.022
X-108.711 Y-141.816
X-108.641 Y-141.587
X-108.627 Y-141.347
X-108.671 Y-141.111
X-108.77 Y-140.892
X-108.918 Y-140.703
X-109.226 Y-140.396
G3 X-109.684 Y-140.455 I-0.205 J-0.219
G1 X-110.615 Y-141.934
G3 X-110.58 Y-142.299 I0.254 J-0.16
G1 X-110.261 Y-142.618
X-110.15 Y-142.718
X-110.017 Y-142.789
X-109.874 Y-142.834
X-109.726 Y-142.857
X-109.576 Y-142.86
X-109.427 Y-142.846
X-109.28 Y-142.815
X-109.137 Y-142.768
X-109 Y-142.709
X-108.869 Y-142.634
X-108.747 Y-142.548
X-108.634 Y-142.449
X-108.532 Y-142.339
X-108.52 Y-142.322
X-108.399 Y-142.116
X-108.331 Y-141.888
X-108.319 Y-141.65
X-108.364 Y-141.416
X-108.463 Y-141.199
X-108.61 Y-141.011
X-108.918 Y-140.703
G3 X-109.018 Y-140.642 I-0.205 J-0.219
X-109.378 Y-140.765 I-0.105 J-0.281
G1 X-110.297 Y-142.256
G3 X-110.261 Y-142.618 I0.255 J-0.157
G1 X-109.945 Y-142.933
X-109.834 Y-143.034
X-109.7 Y-143.102
X-109.557 Y-143.145
X-109.408 Y-143.167
X-109.258 Y-143.169
X-109.109 Y-143.153
X-108.963 Y-143.121
X-108.82 Y-143.074
X-108.683 Y-143.013
X-108.553 Y-142.937
X-108.431 Y-142.85
X-108.319 Y-142.75
X-108.218 Y-142.64
X-108.207 Y-142.625
X-108.089 Y-142.42
X-108.022 Y-142.192
X-108.011 Y-141.955
X-108.056 Y-141.722
X-108.155 Y-141.506
X-108.301 Y-141.32
X-108.61 Y-141.011
G3 X-108.709 Y-140.95 I-0.205 J-0.219
X-109.071 Y-141.075 I-0.105 J-0.281
G1 X-109.982 Y-142.573
G3 X-110.007 Y-142.834 I0.256 J-0.156
X-109.945 Y-142.933 I0.281 J0.105
G1 X-109.639 Y-143.239
X-109.528 Y-143.34
X-109.395 Y-143.409
X-109.251 Y-143.453
X-109.103 Y-143.475
X-108.953 Y-143.477
X-108.804 Y-143.461
X-108.657 Y-143.429
X-108.515 Y-143.382
X-108.377 Y-143.322
X-108.247 Y-143.247
X-108.125 Y-143.16
X-108.013 Y-143.061
X-107.911 Y-142.95
X-107.9 Y-142.936
X-107.781 Y-142.73
X-107.714 Y-142.502
X-107.703 Y-142.265
X-107.748 Y-142.031
X-107.846 Y-141.815
X-107.993 Y-141.628
X-108.301 Y-141.32
G3 X-108.401 Y-141.258 I-0.205 J-0.219
X-108.762 Y-141.383 I-0.105 J-0.281
G1 X-109.676 Y-142.878
G3 X-109.701 Y-143.14 I0.256 J-0.156
X-109.639 Y-143.239 I0.281 J0.105
G1 X-109.325 Y-143.553
X-109.214 Y-143.654
X-109.08 Y-143.721
X-108.936 Y-143.763
X-108.788 Y-143.784
X-108.638 Y-143.785
X-108.488 Y-143.769
X-108.342 Y-143.736
X-108.2 Y-143.689
X-108.063 Y-143.628
X-107.933 Y-143.552
X-107.812 Y-143.465
X-107.7 Y-143.364
X-107.599 Y-143.254
X-107.589 Y-143.24
X-107.471 Y-143.034
X-107.405 Y-142.807
X-107.394 Y-142.571
X-107.439 Y-142.338
X-107.538 Y-142.123
X-107.684 Y-141.937
X-107.993 Y-141.628
G3 X-108.093 Y-141.567 I-0.205 J-0.219
X-108.454 Y-141.692 I-0.105 J-0.281
G1 X-109.363 Y-143.193
G3 X-109.387 Y-143.454 I0.257 J-0.155
X-109.325 Y-143.553 I0.281 J0.105
G1 X-109.02 Y-143.858
X-108.909 Y-143.959
X-108.775 Y-144.027
X-108.632 Y-144.07
X-108.483 Y-144.092
X-108.333 Y-144.094
X-108.184 Y-144.078
X-108.038 Y-144.045
X-107.895 Y-143.998
X-107.758 Y-143.938
X-107.628 Y-143.863
X-107.506 Y-143.775
X-107.394 Y-143.676
X-107.293 Y-143.565
X-107.282 Y-143.551
X-107.164 Y-143.346
X-107.097 Y-143.118
X-107.086 Y-142.881
X-107.131 Y-142.648
X-107.229 Y-142.432
X-107.376 Y-142.245
X-107.684 Y-141.937
G3 X-107.784 Y-141.875 I-0.205 J-0.219
X-108.145 Y-142 I-0.105 J-0.281
G1 X-109.057 Y-143.498
G3 X-109.082 Y-143.759 I0.256 J-0.156
X-109.02 Y-143.858 I0.281 J0.105
G1 X-108.717 Y-144.161
X-108.606 Y-144.262
X-108.473 Y-144.332
X-108.33 Y-144.376
X-108.182 Y-144.399
X-108.032 Y-144.401
X-107.882 Y-144.386
X-107.736 Y-144.355
X-107.593 Y-144.309
X-107.455 Y-144.249
X-107.325 Y-144.174
X-107.203 Y-144.088
X-107.09 Y-143.988
X-106.989 Y-143.878
X-106.977 Y-143.863
X-106.857 Y-143.657
X-106.789 Y-143.429
X-106.778 Y-143.191
X-106.822 Y-142.957
X-106.921 Y-142.741
X-107.068 Y-142.553
X-107.376 Y-142.245
G3 X-107.476 Y-142.184 I-0.205 J-0.219
X-107.836 Y-142.308 I-0.105 J-0.281
G1 X-108.753 Y-143.8
G3 X-108.779 Y-144.062 I0.256 J-0.157
X-108.717 Y-144.161 I0.281 J0.105
G1 X-108.418 Y-144.461
X-108.306 Y-144.562
X-108.175 Y-144.634
X-108.032 Y-144.68
X-107.884 Y-144.705
X-107.734 Y-144.709
X-107.585 Y-144.695
X-107.438 Y-144.665
X-107.295 Y-144.62
X-107.157 Y-144.561
X-107.026 Y-144.488
X-106.903 Y-144.402
X-106.79 Y-144.304
X-106.687 Y-144.194
X-106.674 Y-144.177
X-106.552 Y-143.971
X-106.483 Y-143.742
X-106.47 Y-143.503
X-106.514 Y-143.267
X-106.613 Y-143.049
X-106.76 Y-142.861
X-107.068 Y-142.553
G3 X-107.168 Y-142.492 I-0.205 J-0.219
X-107.527 Y-142.614 I-0.105 J-0.281
G1 X-108.453 Y-144.098
G3 X-108.418 Y-144.461 I0.255 J-0.159
G1 X-108.102 Y-144.777
X-107.991 Y-144.877
X-107.858 Y-144.947
X-107.715 Y-144.992
X-107.566 Y-145.015
X-107.416 Y-145.018
X-107.267 Y-145.003
X-107.12 Y-144.971
X-106.978 Y-144.925
X-106.84 Y-144.865
X-106.71 Y-144.791
X-106.588 Y-144.704
X-106.475 Y-144.605
X-106.373 Y-144.495
X-106.361 Y-144.479
X-106.241 Y-144.273
X-106.174 Y-144.045
X-106.162 Y-143.807
X-106.206 Y-143.573
X-106.305 Y-143.356
X-106.452 Y-143.169
X-106.76 Y-142.861
G3 X-106.86 Y-142.799 I-0.205 J-0.219
X-107.22 Y-142.923 I-0.105 J-0.281
G1 X-108.138 Y-144.415
G3 X-108.164 Y-144.677 I0.256 J-0.157
X-108.102 Y-144.777 I0.281 J0.105
G1 X-107.792 Y-145.087
X-107.681 Y-145.187
X-107.548 Y-145.257
X-107.404 Y-145.301
X-107.256 Y-145.323
X-107.106 Y-145.326
X-106.957 Y-145.311
X-106.81 Y-145.279
X-106.668 Y-145.233
X-106.53 Y-145.173
X-106.4 Y-145.098
X-106.278 Y-145.011
X-106.165 Y-144.912
X-106.064 Y-144.801
X-106.052 Y-144.786
X-105.933 Y-144.58
X-105.865 Y-144.352
X-105.854 Y-144.115
X-105.898 Y-143.881
X-105.997 Y-143.664
X-106.144 Y-143.477
X-106.452 Y-143.169
G3 X-106.913 Y-143.232 I-0.205 J-0.219
G1 X-107.828 Y-144.725
G3 X-107.792 Y-145.087 I0.256 J-0.157
G1 X-107.482 Y-145.397
X-107.371 Y-145.497
X-107.238 Y-145.566
X-107.094 Y-145.61
X-106.946 Y-145.632
X-106.796 Y-145.634
X-106.647 Y-145.619
X-106.5 Y-145.587
X-106.357 Y-145.54
X-106.22 Y-145.48
X-106.09 Y-145.405
X-105.968 Y-145.318
X-105.856 Y-145.218
X-105.754 Y-145.108
X-105.743 Y-145.093
X-105.624 Y-144.887
X-105.557 Y-144.659
X-105.545 Y-144.422
X-105.59 Y-144.189
X-105.689 Y-143.972
X-105.836 Y-143.786
X-106.144 Y-143.477
G3 X-106.605 Y-143.54 I-0.205 J-0.219
G1 X-107.519 Y-145.035
G3 X-107.544 Y-145.297 I0.256 J-0.156
X-107.482 Y-145.397 I0.281 J0.105
G1 X-107.177 Y-145.702
X-107.066 Y-145.802
X-106.933 Y-145.872
X-106.79 Y-145.917
X-106.641 Y-145.939
X-106.491 Y-145.942
X-106.342 Y-145.927
X-106.196 Y-145.896
X-106.053 Y-145.849
X-105.915 Y-145.79
X-105.785 Y-145.715
X-105.663 Y-145.628
X-105.55 Y-145.529
X-105.448 Y-145.419
X-105.437 Y-145.404
X-105.317 Y-145.198
X-105.249 Y-144.969
X-105.237 Y-144.732
X-105.282 Y-144.498
X-105.38 Y-144.281
X-105.528 Y-144.094
X-105.836 Y-143.786
G3 X-105.935 Y-143.724 I-0.205 J-0.219
X-106.296 Y-143.848 I-0.105 J-0.281
G1 X-107.213 Y-145.34
G3 X-107.239 Y-145.602 I0.256 J-0.157
X-107.177 Y-145.702 I0.281 J0.105
G1 X-106.874 Y-146.005
X-106.763 Y-146.105
X-106.631 Y-146.177
X-106.488 Y-146.222
X-106.34 Y-146.246
X-106.19 Y-146.25
X-106.04 Y-146.236
X-105.894 Y-146.205
X-105.751 Y-146.159
X-105.613 Y-146.1
X-105.482 Y-146.026
X-105.36 Y-145.94
X-105.246 Y-145.841
X-105.144 Y-145.732
X-105.132 Y-145.715
X-105.01 Y-145.509
X-104.942 Y-145.28
X-104.929 Y-145.042
X-104.973 Y-144.807
X-105.072 Y-144.589
X-105.22 Y-144.402
X-105.528 Y-144.094
G3 X-105.987 Y-144.155 I-0.205 J-0.219
G1 X-106.909 Y-145.642
G3 X-106.935 Y-145.905 I0.255 J-0.158
X-106.874 Y-146.005 I0.281 J0.105
G1 X-106.574 Y-146.304
X-106.463 Y-146.405
X-106.333 Y-146.479
X-106.19 Y-146.526
X-106.042 Y-146.552
X-105.893 Y-146.557
X-105.743 Y-146.544
X-105.596 Y-146.515
X-105.453 Y-146.471
X-105.314 Y-146.412
X-105.183 Y-146.339
X-105.06 Y-146.254
X-104.946 Y-146.156
X-104.843 Y-146.047
X-104.829 Y-146.028
X-104.706 Y-145.822
X-104.635 Y-145.593
X-104.621 Y-145.353
X-104.665 Y-145.117
X-104.764 Y-144.898
X-104.912 Y-144.709
X-105.22 Y-144.402
G3 X-105.319 Y-144.34 I-0.205 J-0.219
X-105.678 Y-144.461 I-0.105 J-0.281
G1 X-106.609 Y-145.94
G3 X-106.636 Y-146.205 I0.254 J-0.16
X-106.574 Y-146.304 I0.281 J0.105
G1 X-106.259 Y-146.62
X-106.147 Y-146.721
X-106.015 Y-146.792
X-105.872 Y-146.838
X-105.724 Y-146.862
X-105.574 Y-146.865
X-105.425 Y-146.851
X-105.278 Y-146.821
X-105.135 Y-146.775
X-104.998 Y-146.716
X-104.867 Y-146.642
X-104.744 Y-146.556
X-104.631 Y-146.457
X-104.529 Y-146.347
X-104.516 Y-146.33
X-104.395 Y-146.124
X-104.326 Y-145.895
X-104.314 Y-145.657
X-104.358 Y-145.422
X-104.457 Y-145.205
X-104.604 Y-145.017
X-104.912 Y-144.709
G3 X-105.012 Y-144.647 I-0.205 J-0.219
X-105.372 Y-144.77 I-0.105 J-0.281
G1 X-106.294 Y-146.257
G3 X-106.259 Y-146.62 I0.255 J-0.158
G1 X-105.949 Y-146.93
X-105.837 Y-147.031
X-105.705 Y-147.101
X-105.562 Y-147.147
X-105.414 Y-147.17
X-105.264 Y-147.174
X-105.115 Y-147.159
X-104.968 Y-147.128
X-104.825 Y-147.082
X-104.687 Y-147.023
X-104.557 Y-146.949
X-104.435 Y-146.862
X-104.322 Y-146.763
X-104.22 Y-146.654
X-104.207 Y-146.637
X-104.086 Y-146.431
X-104.018 Y-146.203
X-104.006 Y-145.964
X-104.05 Y-145.73
X-104.149 Y-145.513
X-104.296 Y-145.325
X-104.604 Y-145.017
G3 X-105.064 Y-145.079 I-0.205 J-0.219
G1 X-105.984 Y-146.568
G3 X-105.949 Y-146.93 I0.255 J-0.158
G1 X-105.639 Y-147.24
X-105.528 Y-147.34
X-105.395 Y-147.411
X-105.252 Y-147.456
X-105.104 Y-147.479
X-104.954 Y-147.482
X-104.804 Y-147.467
X-104.658 Y-147.436
X-104.515 Y-147.39
X-104.377 Y-147.33
X-104.247 Y-147.255
X-104.125 Y-147.169
X-104.012 Y-147.07
X-103.91 Y-146.96
X-103.898 Y-146.944
X-103.778 Y-146.738
X-103.71 Y-146.509
X-103.698 Y-146.271
X-103.742 Y-146.037
X-103.841 Y-145.821
X-103.988 Y-145.633
X-104.296 Y-145.325
G3 X-104.396 Y-145.263 I-0.205 J-0.219
X-104.756 Y-145.387 I-0.105 J-0.281
G1 X-105.675 Y-146.878
G3 X-105.639 Y-147.24 I0.255 J-0.157
G1 X-105.334 Y-147.545
X-105.222 Y-147.646
X-105.09 Y-147.717
X-104.947 Y-147.762
X-104.799 Y-147.786
X-104.649 Y-147.789
X-104.5 Y-147.775
X-104.353 Y-147.744
X-104.21 Y-147.699
X-104.073 Y-147.639
X-103.942 Y-147.565
X-103.819 Y-147.479
X-103.706 Y-147.38
X-103.604 Y-147.27
X-103.592 Y-147.254
X-103.471 Y-147.048
X-103.402 Y-146.819
X-103.39 Y-146.581
X-103.434 Y-146.346
X-103.533 Y-146.129
X-103.68 Y-145.941
X-103.988 Y-145.633
G3 X-104.088 Y-145.572 I-0.205 J-0.219
X-104.448 Y-145.695 I-0.105 J-0.281
G1 X-105.369 Y-147.182
G3 X-105.334 Y-147.545 I0.255 J-0.158
G1 X-105.031 Y-147.848
X-104.919 Y-147.949
X-104.788 Y-148.021
X-104.645 Y-148.068
X-104.497 Y-148.092
X-104.348 Y-148.097
X-104.198 Y-148.083
X-104.051 Y-148.053
X-103.908 Y-148.008
X-103.77 Y-147.95
X-103.639 Y-147.876
X-103.516 Y-147.79
X-103.403 Y-147.692
X-103.3 Y-147.583
X-103.287 Y-147.565
X-103.165 Y-147.359
X-103.095 Y-147.13
X-103.082 Y-146.891
X-103.126 Y-146.655
X-103.225 Y-146.437
X-103.373 Y-146.249
X-103.68 Y-145.941
G3 X-104.139 Y-146.002 I-0.205 J-0.219
G1 X-105.066 Y-147.485
G3 X-105.031 Y-147.848 I0.254 J-0.159
G1 X-104.699 Y-148.18
X-104.588 Y-148.28
X-104.453 Y-148.346
X-104.308 Y-148.387
X-104.16 Y-148.407
X-104.01
X-103.861 Y-148.39
X-103.714 Y-148.356
X-103.572 Y-148.308
X-103.436 Y-148.246
X-103.307 Y-148.17
X-103.185 Y-148.081
X-103.074 Y-147.981
X-102.974 Y-147.869
X-102.964 Y-147.856
X-102.848 Y-147.651
X-102.783 Y-147.424
X-102.773 Y-147.188
X-102.819 Y-146.957
X-102.918 Y-146.743
X-103.063 Y-146.558
X-103.373 Y-146.249
G3 X-103.472 Y-146.187 I-0.205 J-0.219
X-103.835 Y-146.314 I-0.105 J-0.281
G1 X-104.737 Y-147.821
G3 X-104.699 Y-148.18 I0.257 J-0.154
G1 X-104.415 Y-148.463
X-104.304 Y-148.564
X-104.173 Y-148.638
X-104.031 Y-148.685
X-103.883 Y-148.709
X-103.733 Y-148.714
X-103.584 Y-148.701
X-103.437 Y-148.671
X-103.293 Y-148.626
X-103.155 Y-148.567
X-103.024 Y-148.494
X-102.901 Y-148.409
X-102.787 Y-148.311
X-102.685 Y-148.201
X-102.671 Y-148.183
X-102.548 Y-147.977
X-102.478 Y-147.748
X-102.465 Y-147.509
X-102.509 Y-147.273
X-102.608 Y-147.054
X-102.756 Y-146.866
X-103.063 Y-146.558
G3 X-103.163 Y-146.496 I-0.205 J-0.219
X-103.522 Y-146.618 I-0.105 J-0.281
G1 X-104.45 Y-148.1
G3 X-104.415 Y-148.463 I0.254 J-0.159
G1 X-104.105 Y-148.773
X-103.994 Y-148.874
X-103.863 Y-148.946
X-103.72 Y-148.993
X-103.572 Y-149.017
X-103.422 Y-149.022
X-103.273 Y-149.008
X-103.126 Y-148.978
X-102.983 Y-148.933
X-102.845 Y-148.874
X-102.714 Y-148.8
X-102.591 Y-148.715
X-102.478 Y-148.616
X-102.375 Y-148.507
X-102.361 Y-148.489
X-102.24 Y-148.283
X-102.17 Y-148.054
X-102.157 Y-147.815
X-102.201 Y-147.58
X-102.3 Y-147.362
X-102.448 Y-147.173
X-102.756 Y-146.866
G3 X-103.215 Y-146.926 I-0.205 J-0.219
G1 X-104.141 Y-148.41
G3 X-104.105 Y-148.773 I0.255 J-0.159
G1 X-103.796 Y-149.083
X-103.684 Y-149.184
X-103.552 Y-149.255
X-103.41 Y-149.302
X-103.262 Y-149.326
X-103.112 Y-149.33
X-102.962 Y-149.316
X-102.815 Y-149.285
X-102.673 Y-149.24
X-102.535 Y-149.181
X-102.404 Y-149.107
X-102.281 Y-149.021
X-102.168 Y-148.922
X-102.066 Y-148.813
X-102.052 Y-148.795
X-101.931 Y-148.589
X-101.862 Y-148.36
X-101.849 Y-148.122
X-101.894 Y-147.887
X-101.993 Y-147.669
X-102.14 Y-147.481
X-102.448 Y-147.173
G3 X-102.548 Y-147.112 I-0.205 J-0.219
X-102.907 Y-147.234 I-0.105 J-0.281
G1 X-103.831 Y-148.72
G3 X-103.796 Y-149.083 I0.255 J-0.158
G1 X-103.49 Y-149.388
X-103.379 Y-149.489
X-103.248 Y-149.561
X-103.105 Y-149.608
X-102.957 Y-149.633
X-102.807 Y-149.637
X-102.658 Y-149.624
X-102.511 Y-149.594
X-102.368 Y-149.549
X-102.23 Y-149.49
X-102.099 Y-149.416
X-101.976 Y-149.331
X-101.863 Y-149.232
X-101.76 Y-149.123
X-101.746 Y-149.105
X-101.624 Y-148.899
X-101.555 Y-148.67
X-101.542 Y-148.431
X-101.586 Y-148.195
X-101.685 Y-147.977
X-101.832 Y-147.789
X-102.14 Y-147.481
G3 X-102.24 Y-147.42 I-0.205 J-0.219
X-102.599 Y-147.542 I-0.105 J-0.281
G1 X-103.525 Y-149.025
G3 X-103.552 Y-149.289 I0.254 J-0.159
X-103.49 Y-149.388 I0.281 J0.105
G1 X-103.171 Y-149.707
X-103.06 Y-149.808
X-102.927 Y-149.877
X-102.783 Y-149.921
X-102.635 Y-149.943
X-102.485 Y-149.946
X-102.336 Y-149.931
X-102.189 Y-149.899
X-102.047 Y-149.852
X-101.909 Y-149.792
X-101.78 Y-149.717
X-101.657 Y-149.63
X-101.545 Y-149.531
X-101.443 Y-149.42
X-101.431 Y-149.405
X-101.312 Y-149.199
X-101.245 Y-148.971
X-101.234 Y-148.734
X-101.279 Y-148.5
X-101.377 Y-148.284
X-101.524 Y-148.097
X-101.832 Y-147.789
G3 X-101.932 Y-147.727 I-0.205 J-0.219
X-102.293 Y-147.852 I-0.105 J-0.281
G1 X-103.208 Y-149.346
G3 X-103.233 Y-149.608 I0.256 J-0.157
X-103.171 Y-149.707 I0.281 J0.105
G1 X-102.856 Y-150.023
X-102.744 Y-150.124
X-102.61 Y-150.191
X-102.466 Y-150.233
X-102.318 Y-150.254
X-102.168 Y-150.255
X-102.019 Y-150.238
X-101.872 Y-150.205
X-101.73 Y-150.158
X-101.593 Y-150.097
X-101.464 Y-150.021
X-101.342 Y-149.933
X-101.23 Y-149.833
X-101.129 Y-149.722
X-101.119 Y-149.709
X-101.002 Y-149.503
X-100.936 Y-149.276
X-100.925 Y-149.039
X-100.97 Y-148.807
X-101.069 Y-148.592
X-101.215 Y-148.406
X-101.524 Y-148.097
G3 X-101.624 Y-148.036 I-0.205 J-0.219
X-101.985 Y-148.162 I-0.105 J-0.281
G1 X-102.893 Y-149.663
G3 X-102.856 Y-150.023 I0.257 J-0.155
G1 X-102.572 Y-150.307
X-102.461 Y-150.407
X-102.331 Y-150.482
X-102.189 Y-150.53
X-102.041 Y-150.556
X-101.891 Y-150.562
X-101.742 Y-150.549
X-101.594 Y-150.52
X-101.451 Y-150.476
X-101.313 Y-150.418
X-101.181 Y-150.345
X-101.058 Y-150.26
X-100.944 Y-150.163
X-100.841 Y-150.054
X-100.826 Y-150.035
X-100.702 Y-149.828
X-100.631 Y-149.599
X-100.617 Y-149.358
X-100.661 Y-149.122
X-100.76 Y-148.903
X-100.908 Y-148.713
X-101.215 Y-148.406
G3 X-101.315 Y-148.344 I-0.205 J-0.219
X-101.674 Y-148.465 I-0.105 J-0.281
G1 X-102.606 Y-149.942
G3 X-102.634 Y-150.207 I0.254 J-0.16
X-102.572 Y-150.307 I0.281 J0.105
G1 X-102.262 Y-150.617
X-102.151 Y-150.717
X-102.02 Y-150.791
X-101.878 Y-150.838
X-101.73 Y-150.864
X-101.58 Y-150.869
X-101.431 Y-150.856
X-101.284 Y-150.827
X-101.14 Y-150.783
X-101.002 Y-150.724
X-100.871 Y-150.651
X-100.748 Y-150.566
X-100.634 Y-150.468
X-100.531 Y-150.359
X-100.516 Y-150.34
X-100.393 Y-150.134
X-100.323 Y-149.904
X-100.309 Y-149.664
X-100.353 Y-149.428
X-100.452 Y-149.21
X-100.6 Y-149.021
X-100.908 Y-148.713
G3 X-101.007 Y-148.652 I-0.205 J-0.219
X-101.367 Y-148.773 I-0.105 J-0.281
G1 X-102.297 Y-150.252
G3 X-102.262 Y-150.617 I0.254 J-0.16
G1 X-101.952 Y-150.926
X-101.841 Y-151.027
X-101.71 Y-151.1
X-101.568 Y-151.147
X-101.42 Y-151.172
X-101.27 Y-151.177
X-101.12 Y-151.164
X-100.973 Y-151.134
X-100.83 Y-151.089
X-100.692 Y-151.031
X-100.561 Y-150.957
X-100.438 Y-150.872
X-100.324 Y-150.774
X-100.222 Y-150.664
X-100.207 Y-150.646
X-100.085 Y-150.44
X-100.015 Y-150.21
X-100.002 Y-149.971
X-100.046 Y-149.736
X-100.145 Y-149.517
X-100.293 Y-149.329
X-100.6 Y-149.021
G3 X-101.059 Y-149.081 I-0.205 J-0.219
G1 X-101.987 Y-150.563
G3 X-102.014 Y-150.827 I0.254 J-0.159
X-101.952 Y-150.926 I0.281 J0.105
G1 X-101.647 Y-151.232
X-101.536 Y-151.332
X-101.405 Y-151.406
X-101.263 Y-151.454
X-101.115 Y-151.479
X-100.965 Y-151.484
X-100.816 Y-151.472
X-100.669 Y-151.442
X-100.526 Y-151.398
X-100.387 Y-151.34
X-100.256 Y-151.266
X-100.133 Y-151.181
X-100.019 Y-151.084
X-99.916 Y-150.974
X-99.901 Y-150.955
X-99.778 Y-150.749
X-99.708 Y-150.52
X-99.694 Y-150.28
X-99.738 Y-150.044
X-99.837 Y-149.825
X-99.985 Y-149.636
X-100.293 Y-149.329
G3 X-100.751 Y-149.388 I-0.205 J-0.219
G1 X-101.682 Y-150.867
G3 X-101.647 Y-151.232 I0.254 J-0.16
G1 X-101.328 Y-151.551
X-101.217 Y-151.651
X-101.084 Y-151.722
X-100.941 Y-151.767
X-100.793 Y-151.79
X-100.643 Y-151.793
X-100.494 Y-151.778
X-100.347 Y-151.747
X-100.204 Y-151.701
X-100.067 Y-151.642
X-99.936 Y-151.567
X-99.814 Y-151.481
X-99.701 Y-151.381
X-99.599 Y-151.272
X-99.587 Y-151.255
X-99.466 Y-151.049
X-99.398 Y-150.821
X-99.386 Y-150.583
X-99.431 Y-150.349
X-99.53 Y-150.132
X-99.677 Y-149.944
X-99.985 Y-149.636
G3 X-100.085 Y-149.575 I-0.205 J-0.219
X-100.445 Y-149.698 I-0.105 J-0.281
G1 X-101.364 Y-151.189
G3 X-101.39 Y-151.451 I0.255 J-0.157
X-101.328 Y-151.551 I0.281 J0.105
G1 X-101.012 Y-151.866
X-100.901 Y-151.967
X-100.767 Y-152.035
X-100.624 Y-152.078
X-100.475 Y-152.1
X-100.325 Y-152.102
X-100.176 Y-152.086
X-100.03 Y-152.054
X-99.887 Y-152.006
X-99.75 Y-151.946
X-99.62 Y-151.87
X-99.498 Y-151.783
X-99.386 Y-151.683
X-99.285 Y-151.573
X-99.274 Y-151.558
X-99.156 Y-151.353
X-99.089 Y-151.125
X-99.078 Y-150.888
X-99.123 Y-150.655
X-99.222 Y-150.439
X-99.368 Y-150.253
X-99.677 Y-149.944
G3 X-100.138 Y-150.008 I-0.205 J-0.219
G1 X-101.049 Y-151.506
G3 X-101.074 Y-151.767 I0.256 J-0.156
X-101.012 Y-151.866 I0.281 J0.105
G1 X-100.706 Y-152.172
X-100.595 Y-152.273
X-100.462 Y-152.342
X-100.318 Y-152.386
X-100.17 Y-152.408
X-100.02 Y-152.41
X-99.871 Y-152.394
X-99.724 Y-152.362
X-99.582 Y-152.315
X-99.444 Y-152.255
X-99.314 Y-152.18
X-99.192 Y-152.093
X-99.08 Y-151.994
X-98.978 Y-151.883
X-98.967 Y-151.868
X-98.848 Y-151.663
X-98.781 Y-151.435
X-98.77 Y-151.198
X-98.815 Y-150.964
X-98.913 Y-150.748
X-99.06 Y-150.561
X-99.368 Y-150.253
G3 X-99.468 Y-150.191 I-0.205 J-0.219
X-99.829 Y-150.316 I-0.105 J-0.281
G1 X-100.743 Y-151.811
G3 X-100.768 Y-152.073 I0.256 J-0.156
X-100.706 Y-152.172 I0.281 J0.105
G1 X-100.393 Y-152.486
X-100.281 Y-152.587
X-100.147 Y-152.654
X-100.003 Y-152.696
X-99.855 Y-152.717
X-99.705 Y-152.718
X-99.556 Y-152.702
X-99.409 Y-152.669
X-99.267 Y-152.622
X-99.13 Y-152.561
X-99 Y-152.485
X-98.879 Y-152.397
X-98.767 Y-152.297
X-98.666 Y-152.187
X-98.656 Y-152.173
X-98.538 Y-151.967
X-98.472 Y-151.74
X-98.461 Y-151.504
X-98.507 Y-151.271
X-98.605 Y-151.056
X-98.752 Y-150.87
X-99.06 Y-150.561
G3 X-99.521 Y-150.625 I-0.205 J-0.219
G1 X-100.43 Y-152.126
G3 X-100.393 Y-152.486 I0.257 J-0.155
G1 X-100.087 Y-152.791
X-99.976 Y-152.892
X-99.843 Y-152.96
X-99.699 Y-153.003
X-99.55 Y-153.025
X-99.4 Y-153.026
X-99.251 Y-153.011
X-99.105 Y-152.978
X-98.962 Y-152.931
X-98.825 Y-152.871
X-98.695 Y-152.796
X-98.573 Y-152.708
X-98.461 Y-152.609
X-98.36 Y-152.498
X-98.349 Y-152.484
X-98.231 Y-152.278
X-98.164 Y-152.051
X-98.153 Y-151.814
X-98.198 Y-151.581
X-98.296 Y-151.365
X-98.443 Y-151.178
X-98.752 Y-150.87
G3 X-98.851 Y-150.808 I-0.205 J-0.219
X-99.212 Y-150.933 I-0.105 J-0.281
G1 X-100.124 Y-152.431
G3 X-100.087 Y-152.791 I0.256 J-0.156
G1 X-99.784 Y-153.094
X-99.673 Y-153.195
X-99.54 Y-153.265
X-99.397 Y-153.309
X-99.249 Y-153.332
X-99.099 Y-153.334
X-98.949 Y-153.319
X-98.803 Y-153.288
X-98.66 Y-153.242
X-98.522 Y-153.182
X-98.392 Y-153.107
X-98.27 Y-153.02
X-98.157 Y-152.921
X-98.056 Y-152.811
X-98.044 Y-152.796
X-97.924 Y-152.59
X-97.856 Y-152.362
X-97.845 Y-152.124
X-97.889 Y-151.89
X-97.988 Y-151.673
X-98.135 Y-151.486
X-98.443 Y-151.178
G3 X-98.903 Y-151.24 I-0.205 J-0.219
G1 X-99.82 Y-152.733
G3 X-99.846 Y-152.995 I0.256 J-0.157
X-99.784 Y-153.094 I0.281 J0.105
G1 X-99.485 Y-153.394
X-99.373 Y-153.495
X-99.242 Y-153.567
X-99.099 Y-153.613
X-98.951 Y-153.638
X-98.801 Y-153.642
X-98.652 Y-153.628
X-98.505 Y-153.598
X-98.362 Y-153.553
X-98.224 Y-153.494
X-98.093 Y-153.421
X-97.97 Y-153.335
X-97.857 Y-153.237
X-97.754 Y-153.127
X-97.741 Y-153.11
X-97.619 Y-152.904
X-97.55 Y-152.675
X-97.537 Y-152.436
X-97.581 Y-152.2
X-97.68 Y-151.982
X-97.827 Y-151.794
X-98.135 Y-151.486
G3 X-98.235 Y-151.425 I-0.205 J-0.219
X-98.594 Y-151.547 I-0.105 J-0.281
G1 X-99.52 Y-153.031
G3 X-99.485 Y-153.394 I0.255 J-0.159
G1 X-99.169 Y-153.71
X-99.058 Y-153.81
X-98.925 Y-153.88
X-98.782 Y-153.925
X-98.633 Y-153.948
X-98.483 Y-153.951
X-98.334 Y-153.936
X-98.187 Y-153.904
X-98.045 Y-153.858
X-97.907 Y-153.798
X-97.777 Y-153.724
X-97.655 Y-153.637
X-97.542 Y-153.538
X-97.44 Y-153.428
X-97.428 Y-153.412
X-97.308 Y-153.206
X-97.241 Y-152.978
X-97.229 Y-152.74
X-97.273 Y-152.506
X-97.372 Y-152.289
X-97.519 Y-152.102
X-97.827 Y-151.794
G3 X-98.288 Y-151.856 I-0.205 J-0.219
G1 X-99.205 Y-153.348
G3 X-99.231 Y-153.61 I0.256 J-0.157
X-99.169 Y-153.71 I0.281 J0.105
G1 X-98.859 Y-154.02
X-98.748 Y-154.12
X-98.615 Y-154.19
X-98.471 Y-154.234
X-98.323 Y-154.256
X-98.173 Y-154.259
X-98.024 Y-154.244
X-97.877 Y-154.212
X-97.735 Y-154.166
X-97.597 Y-154.105
X-97.467 Y-154.031
X-97.345 Y-153.944
X-97.232 Y-153.845
X-97.131 Y-153.734
X-97.119 Y-153.719
X-97 Y-153.513
X-96.932 Y-153.285
X-96.921 Y-153.047
X-96.965 Y-152.814
X-97.064 Y-152.597
X-97.211 Y-152.41
X-97.519 Y-152.102
G3 X-97.619 Y-152.04 I-0.205 J-0.219
X-97.98 Y-152.165 I-0.105 J-0.281
G1 X-98.895 Y-153.658
G3 X-98.921 Y-153.92 I0.256 J-0.157
X-98.859 Y-154.02 I0.281 J0.105
G1 X-98.549 Y-154.329
X-98.438 Y-154.43
X-98.305 Y-154.499
X-98.161 Y-154.543
X-98.013 Y-154.565
X-97.863 Y-154.567
X-97.714 Y-154.552
X-97.567 Y-154.52
X-97.425 Y-154.473
X-97.287 Y-154.413
X-97.157 Y-154.338
X-97.035 Y-154.251
X-96.923 Y-154.151
X-96.821 Y-154.041
X-96.81 Y-154.026
X-96.691 Y-153.82
X-96.624 Y-153.592
X-96.612 Y-153.355
X-96.657 Y-153.122
X-96.756 Y-152.905
X-96.903 Y-152.719
X-97.211 Y-152.41
G3 X-97.672 Y-152.473 I-0.205 J-0.219
G1 X-98.586 Y-153.968
G3 X-98.549 Y-154.329 I0.256 J-0.156
G1 X-98.244 Y-154.635
X-98.133 Y-154.735
X-98 Y-154.805
X-97.857 Y-154.85
X-97.709 Y-154.872
X-97.559 Y-154.875
X-97.409 Y-154.86
X-97.263 Y-154.829
X-97.12 Y-154.782
X-96.982 Y-154.723
X-96.852 Y-154.648
X-96.73 Y-154.561
X-96.617 Y-154.462
X-96.515 Y-154.352
X-96.504 Y-154.337
X-96.384 Y-154.131
X-96.316 Y-153.902
X-96.304 Y-153.665
X-96.349 Y-153.431
X-96.447 Y-153.214
X-96.595 Y-153.027
X-96.903 Y-152.719
G3 X-97.363 Y-152.781 I-0.205 J-0.219
G1 X-98.28 Y-154.273
G3 X-98.244 Y-154.635 I0.256 J-0.157
G1 X-97.941 Y-154.938
X-97.83 Y-155.038
X-97.698 Y-155.11
X-97.555 Y-155.155
X-97.407 Y-155.179
X-97.257 Y-155.183
X-97.107 Y-155.168
X-96.961 Y-155.138
X-96.818 Y-155.092
X-96.68 Y-155.033
X-96.549 Y-154.959
X-96.427 Y-154.873
X-96.313 Y-154.774
X-96.211 Y-154.665
X-96.199 Y-154.648
X-96.077 Y-154.442
X-96.009 Y-154.213
X-95.996 Y-153.975
X-96.04 Y-153.74
X-96.139 Y-153.522
X-96.287 Y-153.335
X-96.595 Y-153.027
G3 X-96.694 Y-152.965 I-0.205 J-0.219
X-97.054 Y-153.088 I-0.105 J-0.281
G1 X-97.976 Y-154.575
G3 X-97.941 Y-154.938 I0.255 J-0.158
G1 X-97.641 Y-155.237
X-97.53 Y-155.338
X-97.399 Y-155.412
X-97.257 Y-155.459
X-97.109 Y-155.485
X-96.959 Y-155.49
X-96.81 Y-155.477
X-96.663 Y-155.448
X-96.52 Y-155.403
X-96.381 Y-155.345
X-96.25 Y-155.272
X-96.127 Y-155.187
X-96.013 Y-155.089
X-95.91 Y-154.98
X-95.896 Y-154.961
X-95.773 Y-154.755
X-95.702 Y-154.526
X-95.688 Y-154.286
X-95.732 Y-154.05
X-95.831 Y-153.831
X-95.979 Y-153.642
X-96.287 Y-153.335
G3 X-96.386 Y-153.273 I-0.205 J-0.219
X-96.745 Y-153.394 I-0.105 J-0.281
G1 X-97.676 Y-154.873
G3 X-97.641 Y-155.237 I0.254 J-0.16
G1 X-97.326 Y-155.553
X-97.214 Y-155.654
X-97.082 Y-155.725
X-96.94 Y-155.771
X-96.791 Y-155.795
X-96.641 Y-155.798
X-96.492 Y-155.784
X-96.345 Y-155.754
X-96.202 Y-155.708
X-96.065 Y-155.649
X-95.934 Y-155.575
X-95.811 Y-155.489
X-95.698 Y-155.39
X-95.596 Y-155.28
X-95.583 Y-155.263
X-95.462 Y-155.057
X-95.393 Y-154.828
X-95.381 Y-154.59
X-95.425 Y-154.355
X-95.524 Y-154.138
X-95.671 Y-153.95
X-95.979 Y-153.642
G3 X-96.079 Y-153.58 I-0.205 J-0.219
X-96.439 Y-153.703 I-0.105 J-0.281
G1 X-97.361 Y-155.19
G3 X-97.326 Y-155.553 I0.255 J-0.158
G1 X-97.016 Y-155.863
X-96.905 Y-155.964
X-96.772 Y-156.034
X-96.629 Y-156.08
X-96.481 Y-156.103
X-96.331 Y-156.106
X-96.182 Y-156.092
X-96.035 Y-156.061
X-95.892 Y-156.015
X-95.755 Y-155.956
X-95.624 Y-155.881
X-95.502 Y-155.795
X-95.389 Y-155.696
X-95.287 Y-155.586
X-95.274 Y-155.57
X-95.153 Y-155.364
X-95.085 Y-155.135
X-95.073 Y-154.897
X-95.117 Y-154.663
X-95.216 Y-154.446
X-95.363 Y-154.258
X-95.671 Y-153.95
G3 X-95.771 Y-153.888 I-0.205 J-0.219
X-96.131 Y-154.012 I-0.105 J-0.281
G1 X-97.052 Y-155.501
G3 X-97.077 Y-155.763 I0.255 J-0.158
X-97.016 Y-155.863 I0.281 J0.105
G1 X-96.706 Y-156.173
X-96.595 Y-156.273
X-96.462 Y-156.344
X-96.319 Y-156.388
X-96.171 Y-156.411
X-96.021 Y-156.415
X-95.871 Y-156.4
X-95.725 Y-156.369
X-95.582 Y-156.323
X-95.444 Y-156.263
X-95.314 Y-156.188
X-95.192 Y-156.102
X-95.079 Y-156.003
X-94.977 Y-155.893
X-94.965 Y-155.877
X-94.845 Y-155.671
X-94.777 Y-155.442
X-94.765 Y-155.204
X-94.809 Y-154.97
X-94.908 Y-154.753
X-95.055 Y-154.566
X-95.363 Y-154.258
G3 X-95.823 Y-154.32 I-0.205 J-0.219
G1 X-96.742 Y-155.811
G3 X-96.767 Y-156.073 I0.255 J-0.157
X-96.706 Y-156.173 I0.281 J0.105
G1 X-96.401 Y-156.478
X-96.29 Y-156.578
X-96.158 Y-156.65
X-96.015 Y-156.695
X-95.866 Y-156.719
X-95.716 Y-156.722
X-95.567 Y-156.708
X-95.42 Y-156.677
X-95.277 Y-156.632
X-95.14 Y-156.572
X-95.009 Y-156.498
X-94.887 Y-156.412
X-94.774 Y-156.313
X-94.671 Y-156.203
X-94.659 Y-156.187
X-94.538 Y-155.981
X-94.469 Y-155.752
X-94.457 Y-155.514
X-94.501 Y-155.279
X-94.6 Y-155.062
X-94.747 Y-154.874
X-95.055 Y-154.566
G3 X-95.515 Y-154.628 I-0.205 J-0.219
G1 X-96.436 Y-156.115
G3 X-96.462 Y-156.378 I0.255 J-0.158
X-96.401 Y-156.478 I0.281 J0.105
G1 X-96.098 Y-156.781
X-95.986 Y-156.882
X-95.855 Y-156.954
X-95.712 Y-157.001
X-95.565 Y-157.025
X-95.415 Y-157.03
X-95.265 Y-157.016
X-95.118 Y-156.986
X-94.975 Y-156.941
X-94.837 Y-156.883
X-94.706 Y-156.809
X-94.583 Y-156.723
X-94.47 Y-156.625
X-94.367 Y-156.516
X-94.354 Y-156.498
X-94.232 Y-156.292
X-94.162 Y-156.063
X-94.149 Y-155.824
X-94.193 Y-155.588
X-94.292 Y-155.37
X-94.44 Y-155.182
X-94.747 Y-154.874
G3 X-94.847 Y-154.812 I-0.205 J-0.219
X-95.206 Y-154.934 I-0.105 J-0.281
G1 X-96.133 Y-156.418
G3 X-96.098 Y-156.781 I0.254 J-0.159
G1 X-95.766 Y-157.113
X-95.655 Y-157.213
X-95.52 Y-157.279
X-95.375 Y-157.32
X-95.227 Y-157.34
X-95.077
X-94.928 Y-157.323
X-94.781 Y-157.289
X-94.639 Y-157.241
X-94.503 Y-157.179
X-94.374 Y-157.103
X-94.252 Y-157.014
X-94.141 Y-156.914
X-94.041 Y-156.802
X-94.031 Y-156.789
X-93.915 Y-156.584
X-93.85 Y-156.357
X-93.841 Y-156.121
X-93.886 Y-155.89
X-93.985 Y-155.676
X-94.131 Y-155.491
X-94.44 Y-155.182
G3 X-94.539 Y-155.12 I-0.205 J-0.219
X-94.902 Y-155.247 I-0.105 J-0.281
G1 X-95.804 Y-156.754
G3 X-95.766 Y-157.113 I0.257 J-0.154
G1 X-95.482 Y-157.396
X-95.371 Y-157.497
X-95.24 Y-157.571
X-95.098 Y-157.618
X-94.95 Y-157.642
X-94.8 Y-157.647
X-94.651 Y-157.633
X-94.504 Y-157.604
X-94.36 Y-157.559
X-94.222 Y-157.5
X-94.091 Y-157.427
X-93.968 Y-157.341
X-93.855 Y-157.244
X-93.752 Y-157.134
X-93.738 Y-157.116
X-93.616 Y-156.91
X-93.545 Y-156.681
X-93.532 Y-156.441
X-93.576 Y-156.206
X-93.675 Y-155.987
X-93.823 Y-155.798
X-94.131 Y-155.491
G3 X-94.23 Y-155.429 I-0.205 J-0.219
X-94.589 Y-155.551 I-0.105 J-0.281
G1 X-95.517 Y-157.033
G3 X-95.482 Y-157.396 I0.254 J-0.159
G1 X-95.172 Y-157.706
X-95.061 Y-157.807
X-94.93 Y-157.879
X-94.787 Y-157.926
X-94.639 Y-157.95
X-94.489 Y-157.955
X-94.34 Y-157.941
X-94.193 Y-157.911
X-94.05 Y-157.866
X-93.912 Y-157.807
X-93.781 Y-157.733
X-93.658 Y-157.647
X-93.545 Y-157.549
X-93.442 Y-157.44
X-93.428 Y-157.422
X-93.307 Y-157.216
X-93.237 Y-156.987
X-93.224 Y-156.748
X-93.269 Y-156.512
X-93.367 Y-156.295
X-93.515 Y-156.106
X-93.823 Y-155.798
G3 X-94.282 Y-155.859 I-0.205 J-0.219
G1 X-95.208 Y-157.343
G3 X-95.234 Y-157.607 I0.255 J-0.159
X-95.172 Y-157.706 I0.281 J0.105
G1 X-94.863 Y-158.016
X-94.751 Y-158.117
X-94.62 Y-158.188
X-94.477 Y-158.234
X-94.329 Y-158.259
X-94.179 Y-158.263
X-94.029 Y-158.249
X-93.883 Y-158.218
X-93.74 Y-158.173
X-93.602 Y-158.114
X-93.471 Y-158.04
X-93.348 Y-157.954
X-93.235 Y-157.855
X-93.133 Y-157.746
X-93.12 Y-157.728
X-92.998 Y-157.522
X-92.929 Y-157.293
X-92.917 Y-157.055
X-92.961 Y-156.82
X-93.06 Y-156.602
X-93.207 Y-156.414
X-93.515 Y-156.106
G3 X-93.974 Y-156.167 I-0.205 J-0.219
G1 X-94.898 Y-157.653
G3 X-94.924 Y-157.917 I0.255 J-0.158
X-94.863 Y-158.016 I0.281 J0.105
G1 X-94.558 Y-158.321
X-94.446 Y-158.422
X-94.315 Y-158.494
X-94.172 Y-158.541
X-94.024 Y-158.566
X-93.875 Y-158.57
X-93.725 Y-158.557
X-93.578 Y-158.527
X-93.435 Y-158.482
X-93.297 Y-158.423
X-93.166 Y-158.349
X-93.043 Y-158.264
X-92.93 Y-158.165
X-92.827 Y-158.056
X-92.813 Y-158.038
X-92.691 Y-157.832
X-92.622 Y-157.603
X-92.609 Y-157.364
X-92.653 Y-157.128
X-92.752 Y-156.91
X-92.899 Y-156.722
X-93.207 Y-156.414
G3 X-93.307 Y-156.353 I-0.205 J-0.219
X-93.666 Y-156.475 I-0.105 J-0.281
G1 X-94.593 Y-157.958
G3 X-94.558 Y-158.321 I0.254 J-0.159
G1 X-94.238 Y-158.64
X-94.127 Y-158.741
X-93.994 Y-158.81
X-93.85 Y-158.854
X-93.702 Y-158.876
X-93.552 Y-158.879
X-93.403 Y-158.864
X-93.256 Y-158.832
X-93.114 Y-158.785
X-92.976 Y-158.725
X-92.846 Y-158.65
X-92.724 Y-158.563
X-92.612 Y-158.464
X-92.51 Y-158.353
X-92.499 Y-158.338
X-92.379 Y-158.132
X-92.312 Y-157.904
X-92.301 Y-157.667
X-92.346 Y-157.433
X-92.444 Y-157.217
X-92.591 Y-157.03
X-92.899 Y-156.722
G3 X-93.36 Y-156.785 I-0.205 J-0.219
G1 X-94.275 Y-158.279
G3 X-94.3 Y-158.541 I0.256 J-0.157
X-94.238 Y-158.64 I0.281 J0.105
G1 X-93.923 Y-158.956
X-93.811 Y-159.057
X-93.677 Y-159.124
X-93.533 Y-159.166
X-93.385 Y-159.187
X-93.235 Y-159.188
X-93.086 Y-159.171
X-92.939 Y-159.138
X-92.797 Y-159.091
X-92.66 Y-159.03
X-92.531 Y-158.954
X-92.409 Y-158.866
X-92.297 Y-158.766
X-92.196 Y-158.655
X-92.186 Y-158.641
X-92.069 Y-158.436
X-92.003 Y-158.209
X-91.992 Y-157.972
X-92.038 Y-157.74
X-92.136 Y-157.525
X-92.282 Y-157.339
X-92.591 Y-157.03
G3 X-93.052 Y-157.094 I-0.205 J-0.219
G1 X-93.96 Y-158.596
G3 X-93.984 Y-158.857 I0.257 J-0.155
X-93.923 Y-158.956 I0.281 J0.105
G1 X-93.639 Y-159.24
X-93.528 Y-159.34
X-93.398 Y-159.415
X-93.256 Y-159.463
X-93.108 Y-159.489
X-92.958 Y-159.494
X-92.809 Y-159.482
X-92.661 Y-159.453
X-92.518 Y-159.409
X-92.38 Y-159.351
X-92.248 Y-159.278
X-92.125 Y-159.193
X-92.011 Y-159.096
X-91.908 Y-158.987
X-91.893 Y-158.968
X-91.769 Y-158.761
X-91.698 Y-158.532
X-91.684 Y-158.291
X-91.728 Y-158.055
X-91.827 Y-157.836
X-91.975 Y-157.646
X-92.282 Y-157.339
G3 X-92.741 Y-157.398 I-0.205 J-0.219
G1 X-93.673 Y-158.875
G3 X-93.639 Y-159.24 I0.254 J-0.16
G1 X-93.329 Y-159.55
X-93.218 Y-159.65
X-93.087 Y-159.724
X-92.945 Y-159.771
X-92.797 Y-159.797
X-92.647 Y-159.802
X-92.498 Y-159.789
X-92.351 Y-159.76
X-92.207 Y-159.716
X-92.069 Y-159.657
X-91.938 Y-159.584
X-91.815 Y-159.499
X-91.701 Y-159.401
X-91.598 Y-159.292
X-91.583 Y-159.273
X-91.46 Y-159.066
X-91.39 Y-158.837
X-91.377 Y-158.597
X-91.42 Y-158.361
X-91.519 Y-158.143
X-91.667 Y-157.954
X-91.975 Y-157.646
G3 X-92.075 Y-157.585 I-0.205 J-0.219
X-92.434 Y-157.706 I-0.105 J-0.281
G1 X-93.364 Y-159.185
G3 X-93.391 Y-159.45 I0.254 J-0.16
X-93.329 Y-159.55 I0.281 J0.105
G1 X-93.019 Y-159.859
X-92.908 Y-159.96
X-92.777 Y-160.033
X-92.635 Y-160.08
X-92.487 Y-160.105
X-92.337 Y-160.11
X-92.187 Y-160.097
X-92.04 Y-160.067
X-91.897 Y-160.022
X-91.759 Y-159.964
X-91.628 Y-159.89
X-91.505 Y-159.805
X-91.392 Y-159.707
X-91.289 Y-159.597
X-91.274 Y-159.579
X-91.152 Y-159.373
X-91.082 Y-159.143
X-91.069 Y-158.904
X-91.113 Y-158.669
X-91.212 Y-158.45
X-91.36 Y-158.262
X-91.667 Y-157.954
G3 X-92.126 Y-158.014 I-0.205 J-0.219
G1 X-93.054 Y-159.496
G3 X-93.019 Y-159.859 I0.254 J-0.159
G1 X-92.714 Y-160.164
X-92.603 Y-160.265
X-92.472 Y-160.339
X-92.33 Y-160.387
X-92.182 Y-160.412
X-92.032 Y-160.417
X-91.883 Y-160.405
X-91.736 Y-160.375
X-91.593 Y-160.331
X-91.454 Y-160.273
X-91.323 Y-160.199
X-91.2 Y-160.114
X-91.086 Y-160.016
X-90.983 Y-159.907
X-90.968 Y-159.888
X-90.845 Y-159.682
X-90.775 Y-159.453
X-90.761 Y-159.213
X-90.805 Y-158.977
X-90.904 Y-158.758
X-91.052 Y-158.569
X-91.36 Y-158.262
G3 X-91.459 Y-158.2 I-0.205 J-0.219
X-91.818 Y-158.321 I-0.105 J-0.281
G1 X-92.749 Y-159.8
G3 X-92.776 Y-160.065 I0.254 J-0.16
X-92.714 Y-160.164 I0.281 J0.105
G1 X-92.395 Y-160.484
X-92.284 Y-160.584
X-92.151 Y-160.655
X-92.008 Y-160.7
X-91.86 Y-160.723
X-91.71 Y-160.726
X-91.561 Y-160.711
X-91.414 Y-160.68
X-91.271 Y-160.634
X-91.134 Y-160.575
X-91.003 Y-160.5
X-90.881 Y-160.413
X-90.768 Y-160.314
X-90.666 Y-160.204
X-90.654 Y-160.188
X-90.533 Y-159.982
X-90.465 Y-159.753
X-90.453 Y-159.516
X-90.498 Y-159.282
X-90.597 Y-159.065
X-90.744 Y-158.877
X-91.052 Y-158.569
G3 X-91.152 Y-158.508 I-0.205 J-0.219
X-91.512 Y-158.631 I-0.105 J-0.281
G1 X-92.431 Y-160.122
G3 X-92.457 Y-160.384 I0.255 J-0.157
X-92.395 Y-160.484 I0.281 J0.105
G1 X-92.079 Y-160.799
X-91.968 Y-160.9
X-91.834 Y-160.968
X-91.691 Y-161.011
X-91.542 Y-161.033
X-91.392 Y-161.035
X-91.243 Y-161.019
X-91.097 Y-160.986
X-90.954 Y-160.939
X-90.817 Y-160.879
X-90.687 Y-160.803
X-90.565 Y-160.716
X-90.453 Y-160.616
X-90.352 Y-160.506
X-90.341 Y-160.491
X-90.223 Y-160.285
X-90.156 Y-160.058
X-90.145 Y-159.821
X-90.19 Y-159.588
X-90.289 Y-159.372
X-90.435 Y-159.186
X-90.744 Y-158.877
G3 X-91.205 Y-158.941 I-0.205 J-0.219
G1 X-92.116 Y-160.439
G3 X-92.141 Y-160.7 I0.256 J-0.156
X-92.079 Y-160.799 I0.281 J0.105
G1 X-91.773 Y-161.105
X-91.662 Y-161.206
X-91.529 Y-161.275
X-91.385 Y-161.319
X-91.237 Y-161.34
X-91.087 Y-161.343
X-90.938 Y-161.327
X-90.791 Y-161.295
X-90.649 Y-161.248
X-90.511 Y-161.188
X-90.381 Y-161.113
X-90.259 Y-161.026
X-90.147 Y-160.927
X-90.045 Y-160.816
X-90.034 Y-160.801
X-89.915 Y-160.596
X-89.848 Y-160.368
X-89.837 Y-160.13
X-89.882 Y-159.897
X-89.98 Y-159.681
X-90.127 Y-159.494
X-90.435 Y-159.186
G3 X-90.535 Y-159.124 I-0.205 J-0.219
X-90.896 Y-159.249 I-0.105 J-0.281
G1 X-91.81 Y-160.744
G3 X-91.835 Y-161.006 I0.256 J-0.156
X-91.773 Y-161.105 I0.281 J0.105
G1 X-91.46 Y-161.419
X-91.348 Y-161.52
X-91.214 Y-161.587
X-91.07 Y-161.629
X-90.922 Y-161.65
X-90.772 Y-161.651
X-90.623 Y-161.635
X-90.476 Y-161.602
X-90.334 Y-161.555
X-90.197 Y-161.494
X-90.067 Y-161.418
X-89.946 Y-161.33
X-89.834 Y-161.23
X-89.733 Y-161.12
X-89.723 Y-161.106
X-89.605 Y-160.9
X-89.539 Y-160.673
X-89.528 Y-160.437
X-89.574 Y-160.204
X-89.672 Y-159.989
X-89.819 Y-159.803
X-90.127 Y-159.494
G3 X-90.588 Y-159.558 I-0.205 J-0.219
G1 X-91.497 Y-161.059
G3 X-91.46 Y-161.419 I0.257 J-0.155
G1 X-91.155 Y-161.724
X-91.043 Y-161.825
X-90.91 Y-161.893
X-90.766 Y-161.936
X-90.618 Y-161.958
X-90.468 Y-161.959
X-90.318 Y-161.943
X-90.172 Y-161.911
X-90.029 Y-161.864
X-89.892 Y-161.804
X-89.762 Y-161.729
X-89.64 Y-161.641
X-89.528 Y-161.542
X-89.427 Y-161.431
X-89.416 Y-161.417
X-89.298 Y-161.211
X-89.231 Y-160.984
X-89.22 Y-160.747
X-89.265 Y-160.514
X-89.363 Y-160.298
X-89.51 Y-160.111
X-89.819 Y-159.803
G3 X-89.918 Y-159.741 I-0.205 J-0.219
X-90.279 Y-159.866 I-0.105 J-0.281
G1 X-91.191 Y-161.364
G3 X-91.216 Y-161.625 I0.256 J-0.156
X-91.155 Y-161.724 I0.281 J0.105
G1 X-90.851 Y-162.027
X-90.74 Y-162.128
X-90.607 Y-162.198
X-90.464 Y-162.242
X-90.316 Y-162.265
X-90.166 Y-162.267
X-90.016 Y-162.252
X-89.87 Y-162.221
X-89.727 Y-162.175
X-89.59 Y-162.115
X-89.459 Y-162.04
X-89.337 Y-161.953
X-89.224 Y-161.854
X-89.123 Y-161.744
X-89.111 Y-161.729
X-88.991 Y-161.523
X-88.924 Y-161.295
X-88.912 Y-161.057
X-88.956 Y-160.823
X-89.055 Y-160.606
X-89.202 Y-160.419
X-89.51 Y-160.111
G3 X-89.61 Y-160.049 I-0.205 J-0.219
X-89.97 Y-160.173 I-0.105 J-0.281
G1 X-90.887 Y-161.666
G3 X-90.851 Y-162.027 I0.256 J-0.157
G1 X-90.552 Y-162.327
X-90.44 Y-162.428
X-90.309 Y-162.5
X-90.166 Y-162.546
X-90.018 Y-162.571
X-89.868 Y-162.575
X-89.719 Y-162.561
X-89.572 Y-162.531
X-89.429 Y-162.486
X-89.291 Y-162.427
X-89.16 Y-162.353
X-89.037 Y-162.268
X-88.924 Y-162.169
X-88.821 Y-162.06
X-88.808 Y-162.043
X-88.686 Y-161.837
X-88.617 Y-161.607
X-88.604 Y-161.368
X-88.648 Y-161.133
X-88.747 Y-160.915
X-88.894 Y-160.727
X-89.202 Y-160.419
G3 X-89.661 Y-160.48 I-0.205 J-0.219
G1 X-90.587 Y-161.964
G3 X-90.613 Y-162.228 I0.255 J-0.159
X-90.552 Y-162.327 I0.281 J0.105
G1 X-90.236 Y-162.643
X-90.125 Y-162.743
X-89.992 Y-162.813
X-89.849 Y-162.858
X-89.7 Y-162.881
X-89.55 Y-162.883
X-89.401 Y-162.869
X-89.254 Y-162.837
X-89.112 Y-162.791
X-88.974 Y-162.731
X-88.844 Y-162.656
X-88.722 Y-162.57
X-88.609 Y-162.471
X-88.507 Y-162.361
X-88.495 Y-162.345
X-88.375 Y-162.139
X-88.308 Y-161.911
X-88.296 Y-161.673
X-88.34 Y-161.439
X-88.439 Y-161.222
X-88.586 Y-161.035
X-88.894 Y-160.727
G3 X-89.355 Y-160.789 I-0.205 J-0.219
G1 X-90.272 Y-162.281
G3 X-90.236 Y-162.643 I0.256 J-0.157
G1 X-89.926 Y-162.953
X-89.815 Y-163.053
X-89.682 Y-163.123
X-89.539 Y-163.167
X-89.39 Y-163.189
X-89.24 Y-163.192
X-89.091 Y-163.177
X-88.944 Y-163.145
X-88.802 Y-163.098
X-88.664 Y-163.038
X-88.534 Y-162.964
X-88.412 Y-162.877
X-88.3 Y-162.778
X-88.198 Y-162.667
X-88.186 Y-162.652
X-88.067 Y-162.446
X-87.999 Y-162.218
X-87.988 Y-161.98
X-88.032 Y-161.747
X-88.131 Y-161.53
X-88.278 Y-161.343
X-88.586 Y-161.035
G3 X-88.686 Y-160.973 I-0.205 J-0.219
X-89.047 Y-161.098 I-0.105 J-0.281
G1 X-89.962 Y-162.591
G3 X-89.988 Y-162.853 I0.256 J-0.157
X-89.926 Y-162.953 I0.281 J0.105
G1 X-89.616 Y-163.262
X-89.505 Y-163.363
X-89.372 Y-163.432
X-89.228 Y-163.476
X-89.08 Y-163.498
X-88.93 Y-163.5
X-88.781 Y-163.484
X-88.634 Y-163.453
X-88.492 Y-163.406
X-88.354 Y-163.346
X-88.224 Y-163.271
X-88.102 Y-163.184
X-87.99 Y-163.084
X-87.888 Y-162.974
X-87.877 Y-162.959
X-87.758 Y-162.753
X-87.691 Y-162.525
X-87.679 Y-162.288
X-87.724 Y-162.055
X-87.823 Y-161.838
X-87.97 Y-161.652
X-88.278 Y-161.343
G3 X-88.739 Y-161.406 I-0.205 J-0.219
G1 X-89.653 Y-162.901
G3 X-89.678 Y-163.163 I0.256 J-0.156
X-89.616 Y-163.262 I0.281 J0.105
G1 X-89.311 Y-163.567
X-89.2 Y-163.668
X-89.067 Y-163.738
X-88.924 Y-163.782
X-88.776 Y-163.805
X-88.626 Y-163.808
X-88.476 Y-163.793
X-88.33 Y-163.762
X-88.187 Y-163.715
X-88.05 Y-163.656
X-87.919 Y-163.581
X-87.797 Y-163.494
X-87.684 Y-163.395
X-87.583 Y-163.285
X-87.571 Y-163.269
X-87.451 Y-163.064
X-87.383 Y-162.835
X-87.371 Y-162.598
X-87.416 Y-162.364
X-87.515 Y-162.147
X-87.662 Y-161.96
X-87.97 Y-161.652
G3 X-88.43 Y-161.714 I-0.205 J-0.219
G1 X-89.347 Y-163.206
G3 X-89.311 Y-163.567 I0.256 J-0.157
G1 X-89.008 Y-163.871
X-88.897 Y-163.971
X-88.765 Y-164.043
X-88.622 Y-164.088
X-88.474 Y-164.112
X-88.324 Y-164.116
X-88.174 Y-164.101
X-88.028 Y-164.071
X-87.885 Y-164.025
X-87.747 Y-163.966
X-87.616 Y-163.892
X-87.494 Y-163.806
X-87.381 Y-163.707
X-87.278 Y-163.597
X-87.266 Y-163.581
X-87.145 Y-163.375
X-87.076 Y-163.146
X-87.063 Y-162.908
X-87.108 Y-162.673
X-87.206 Y-162.455
X-87.354 Y-162.267
X-87.662 Y-161.96
G3 X-88.121 Y-162.021 I-0.205 J-0.219
G1 X-89.044 Y-163.508
G3 X-89.07 Y-163.771 I0.255 J-0.158
X-89.008 Y-163.871 I0.281 J0.105
G1 X-88.708 Y-164.17
X-88.597 Y-164.271
X-88.466 Y-164.345
X-88.324 Y-164.392
X-88.176 Y-164.418
X-88.026 Y-164.423
X-87.877 Y-164.41
X-87.73 Y-164.381
X-87.587 Y-164.336
X-87.448 Y-164.278
X-87.317 Y-164.205
X-87.194 Y-164.12
X-87.08 Y-164.022
X-86.977 Y-163.913
X-86.963 Y-163.894
X-86.84 Y-163.688
X-86.769 Y-163.459
X-86.755 Y-163.219
X-86.799 Y-162.983
X-86.898 Y-162.764
X-87.046 Y-162.575
X-87.354 Y-162.267
G3 X-87.812 Y-162.327 I-0.205 J-0.219
G1 X-88.743 Y-163.806
G3 X-88.708 Y-164.17 I0.254 J-0.16
G1 X-88.393 Y-164.486
X-88.281 Y-164.587
X-88.149 Y-164.658
X-88.007 Y-164.704
X-87.858 Y-164.728
X-87.708 Y-164.731
X-87.559 Y-164.717
X-87.412 Y-164.687
X-87.269 Y-164.641
X-87.132 Y-164.582
X-87.001 Y-164.508
X-86.878 Y-164.422
X-86.765 Y-164.323
X-86.663 Y-164.213
X-86.65 Y-164.196
X-86.529 Y-163.99
X-86.46 Y-163.761
X-86.448 Y-163.523
X-86.492 Y-163.288
X-86.591 Y-163.071
X-86.738 Y-162.883
X-87.046 Y-162.575
G3 X-87.146 Y-162.513 I-0.205 J-0.219
X-87.506 Y-162.636 I-0.105 J-0.281
G1 X-88.428 Y-164.123
G3 X-88.454 Y-164.387 I0.255 J-0.158
X-88.393 Y-164.486 I0.281 J0.105
G1 X-88.083 Y-164.796
X-87.972 Y-164.897
X-87.839 Y-164.967
X-87.696 Y-165.013
X-87.548 Y-165.036
X-87.398 Y-165.039
X-87.249 Y-165.025
X-87.102 Y-164.994
X-86.959 Y-164.948
X-86.822 Y-164.889
X-86.691 Y-164.814
X-86.569 Y-164.728
X-86.456 Y-164.629
X-86.354 Y-164.519
X-86.341 Y-164.503
X-86.22 Y-164.297
X-86.152 Y-164.068
X-86.14 Y-163.83
X-86.184 Y-163.596
X-86.283 Y-163.379
X-86.43 Y-163.191
X-86.738 Y-162.883
G3 X-86.838 Y-162.821 I-0.205 J-0.219
X-87.198 Y-162.945 I-0.105 J-0.281
G1 X-88.119 Y-164.434
G3 X-88.144 Y-164.696 I0.255 J-0.158
X-88.083 Y-164.796 I0.281 J0.105
G1 X-87.773 Y-165.106
X-87.662 Y-165.206
X-87.529 Y-165.277
X-87.386 Y-165.321
X-87.238 Y-165.344
X-87.088 Y-165.347
X-86.939 Y-165.333
X-86.792 Y-165.302
X-86.649 Y-165.256
X-86.511 Y-165.196
X-86.381 Y-165.121
X-86.259 Y-165.035
X-86.146 Y-164.936
X-86.044 Y-164.826
X-86.032 Y-164.81
X-85.912 Y-164.604
X-85.844 Y-164.375
X-85.832 Y-164.137
X-85.876 Y-163.903
X-85.975 Y-163.686
X-86.122 Y-163.499
X-86.43 Y-163.191
G3 X-86.89 Y-163.253 I-0.205 J-0.219
G1 X-87.809 Y-164.744
G3 X-87.773 Y-165.106 I0.255 J-0.157
G1 X-87.468 Y-165.411
X-87.357 Y-165.511
X-87.225 Y-165.582
X-87.082 Y-165.628
X-86.934 Y-165.652
X-86.784 Y-165.655
X-86.634 Y-165.641
X-86.487 Y-165.61
X-86.345 Y-165.565
X-86.207 Y-165.505
X-86.076 Y-165.431
X-85.954 Y-165.345
X-85.841 Y-165.246
X-85.738 Y-165.136
X-85.726 Y-165.12
X-85.605 Y-164.914
X-85.536 Y-164.685
X-85.524 Y-164.447
X-85.568 Y-164.212
X-85.667 Y-163.995
X-85.814 Y-163.807
X-86.122 Y-163.499
G3 X-86.222 Y-163.437 I-0.205 J-0.219
X-86.582 Y-163.56 I-0.105 J-0.281
G1 X-87.504 Y-165.048
G3 X-87.53 Y-165.311 I0.255 J-0.158
X-87.468 Y-165.411 I0.281 J0.105
G1 X-87.165 Y-165.714
X-87.053 Y-165.815
X-86.922 Y-165.887
X-86.78 Y-165.934
X-86.632 Y-165.958
X-86.482 Y-165.963
X-86.332 Y-165.949
X-86.185 Y-165.919
X-86.042 Y-165.874
X-85.904 Y-165.816
X-85.773 Y-165.742
X-85.65 Y-165.656
X-85.537 Y-165.558
X-85.434 Y-165.449
X-85.421 Y-165.431
X-85.299 Y-165.225
X-85.229 Y-164.996
X-85.216 Y-164.757
X-85.26 Y-164.521
X-85.359 Y-164.303
X-85.507 Y-164.115
X-85.814 Y-163.807
G3 X-85.914 Y-163.745 I-0.205 J-0.219
X-86.273 Y-163.867 I-0.105 J-0.281
G1 X-87.2 Y-165.35
G3 X-87.165 Y-165.714 I0.254 J-0.159
G1 X-86.833 Y-166.046
X-86.722 Y-166.146
X-86.587 Y-166.212
X-86.442 Y-166.253
X-86.294 Y-166.273
X-86.144
X-85.995 Y-166.256
X-85.848 Y-166.222
X-85.706 Y-166.174
X-85.57 Y-166.112
X-85.441 Y-166.035
X-85.319 Y-165.947
X-85.208 Y-165.846
X-85.108 Y-165.735
X-85.098 Y-165.722
X-84.982 Y-165.517
X-84.917 Y-165.29
X-84.908 Y-165.054
X-84.953 Y-164.823
X-85.052 Y-164.609
X-85.198 Y-164.424
X-85.507 Y-164.115
G3 X-85.606 Y-164.053 I-0.205 J-0.219
X-85.969 Y-164.18 I-0.105 J-0.281
G1 X-86.871 Y-165.687
G3 X-86.833 Y-166.046 I0.257 J-0.154
G1 X-86.549 Y-166.329
X-86.438 Y-166.43
X-86.307 Y-166.504
X-86.165 Y-166.551
X-86.017 Y-166.575
X-85.867 Y-166.58
X-85.718 Y-166.566
X-85.571 Y-166.537
X-85.427 Y-166.492
X-85.289 Y-166.433
X-85.158 Y-166.36
X-85.035 Y-166.274
X-84.922 Y-166.177
X-84.819 Y-166.067
X-84.805 Y-166.049
X-84.683 Y-165.843
X-84.613 Y-165.614
X-84.599 Y-165.374
X-84.643 Y-165.139
X-84.742 Y-164.92
X-84.89 Y-164.731
X-85.198 Y-164.424
G3 X-85.297 Y-164.362 I-0.205 J-0.219
X-85.656 Y-164.484 I-0.105 J-0.281
G1 X-86.584 Y-165.966
G3 X-86.549 Y-166.329 I0.254 J-0.159
G1 X-86.239 Y-166.639
X-86.128 Y-166.74
X-85.997 Y-166.812
X-85.854 Y-166.859
X-85.706 Y-166.883
X-85.556 Y-166.888
X-85.407 Y-166.874
X-85.26 Y-166.844
X-85.117 Y-166.799
X-84.979 Y-166.74
X-84.848 Y-166.666
X-84.725 Y-166.58
X-84.612 Y-166.482
X-84.509 Y-166.373
X-84.496 Y-166.355
X-84.374 Y-166.149
X-84.304 Y-165.92
X-84.291 Y-165.681
X-84.336 Y-165.445
X-84.434 Y-165.227
X-84.582 Y-165.039
X-84.89 Y-164.731
G3 X-85.349 Y-164.792 I-0.205 J-0.219
G1 X-86.275 Y-166.276
G3 X-86.301 Y-166.54 I0.255 J-0.159
X-86.239 Y-166.639 I0.281 J0.105
G1 X-85.93 Y-166.949
X-85.818 Y-167.05
X-85.687 Y-167.121
X-85.544 Y-167.167
X-85.396 Y-167.191
X-85.246 Y-167.195
X-85.097 Y-167.182
X-84.95 Y-167.151
X-84.807 Y-167.106
X-84.669 Y-167.047
X-84.538 Y-166.973
X-84.415 Y-166.887
X-84.302 Y-166.788
X-84.2 Y-166.679
X-84.187 Y-166.661
X-84.065 Y-166.455
X-83.996 Y-166.226
X-83.984 Y-165.988
X-84.028 Y-165.753
X-84.127 Y-165.535
X-84.274 Y-165.347
X-84.582 Y-165.039
G3 X-85.041 Y-165.1 I-0.205 J-0.219
G1 X-85.965 Y-166.586
G3 X-85.93 Y-166.949 I0.255 J-0.158
G1 X-85.625 Y-167.254
X-85.513 Y-167.355
X-85.382 Y-167.427
X-85.24 Y-167.474
X-85.092 Y-167.499
X-84.942 Y-167.503
X-84.792 Y-167.49
X-84.645 Y-167.46
X-84.502 Y-167.415
X-84.364 Y-167.356
X-84.233 Y-167.282
X-84.11 Y-167.197
X-83.997 Y-167.098
X-83.894 Y-166.989
X-83.881 Y-166.971
X-83.758 Y-166.765
X-83.689 Y-166.536
X-83.676 Y-166.297
X-83.72 Y-166.061
X-83.819 Y-165.843
X-83.967 Y-165.655
X-84.274 Y-165.347
G3 X-84.374 Y-165.285 I-0.205 J-0.219
X-84.733 Y-165.408 I-0.105 J-0.281
G1 X-85.66 Y-166.891
G3 X-85.625 Y-167.254 I0.254 J-0.159
G1 X-85.305 Y-167.573
X-85.194 Y-167.674
X-85.061 Y-167.743
X-84.917 Y-167.787
X-84.769 Y-167.809
X-84.619 Y-167.812
X-84.47 Y-167.797
X-84.323 Y-167.765
X-84.181 Y-167.718
X-84.043 Y-167.658
X-83.913 Y-167.583
X-83.791 Y-167.496
X-83.679 Y-167.397
X-83.577 Y-167.286
X-83.566 Y-167.271
X-83.446 Y-167.065
X-83.379 Y-166.837
X-83.368 Y-166.6
X-83.413 Y-166.366
X-83.511 Y-166.15
X-83.658 Y-165.963
X-83.967 Y-165.655
G3 X-84.066 Y-165.593 I-0.205 J-0.219
X-84.427 Y-165.718 I-0.105 J-0.281
G1 X-85.342 Y-167.212
G3 X-85.305 Y-167.573 I0.256 J-0.157
G1 X-84.99 Y-167.889
X-84.878 Y-167.99
X-84.744 Y-168.057
X-84.6 Y-168.099
X-84.452 Y-168.12
X-84.302 Y-168.121
X-84.153 Y-168.104
X-84.006 Y-168.071
X-83.864 Y-168.024
X-83.727 Y-167.963
X-83.598 Y-167.887
X-83.476 Y-167.799
X-83.364 Y-167.699
X-83.263 Y-167.588
X-83.253 Y-167.574
X-83.136 Y-167.369
X-83.07 Y-167.142
X-83.059 Y-166.905
X-83.105 Y-166.673
X-83.203 Y-166.458
X-83.349 Y-166.272
X-83.658 Y-165.963
G3 X-84.12 Y-166.027 I-0.205 J-0.219
G1 X-85.027 Y-167.529
G3 X-85.051 Y-167.79 I0.257 J-0.155
X-84.99 Y-167.889 I0.281 J0.105
G1 X-84.706 Y-168.173
X-84.595 Y-168.273
X-84.465 Y-168.348
X-84.323 Y-168.396
X-84.175 Y-168.422
X-84.025 Y-168.427
X-83.876 Y-168.415
X-83.728 Y-168.386
X-83.585 Y-168.342
X-83.447 Y-168.284
X-83.315 Y-168.211
X-83.192 Y-168.126
X-83.078 Y-168.029
X-82.975 Y-167.92
X-82.96 Y-167.9
X-82.836 Y-167.694
X-82.765 Y-167.464
X-82.751 Y-167.224
X-82.795 Y-166.988
X-82.894 Y-166.769
X-83.042 Y-166.579
X-83.349 Y-166.272
G3 X-83.449 Y-166.21 I-0.205 J-0.219
X-83.808 Y-166.331 I-0.105 J-0.281
G1 X-84.74 Y-167.808
G3 X-84.706 Y-168.173 I0.254 J-0.16
G1 X-84.396 Y-168.482
X-84.285 Y-168.583
X-84.154 Y-168.657
X-84.012 Y-168.704
X-83.864 Y-168.73
X-83.714 Y-168.735
X-83.565 Y-168.722
X-83.418 Y-168.693
X-83.274 Y-168.649
X-83.136 Y-168.59
X-83.005 Y-168.517
X-82.882 Y-168.432
X-82.768 Y-168.334
X-82.665 Y-168.225
X-82.65 Y-168.206
X-82.527 Y-167.999
X-82.457 Y-167.77
X-82.444 Y-167.53
X-82.487 Y-167.294
X-82.586 Y-167.076
X-82.734 Y-166.887
X-83.042 Y-166.579
G3 X-83.142 Y-166.518 I-0.205 J-0.219
X-83.501 Y-166.639 I-0.105 J-0.281
G1 X-84.431 Y-168.118
G3 X-84.458 Y-168.383 I0.254 J-0.16
X-84.396 Y-168.482 I0.281 J0.105
G1 X-84.086 Y-168.792
X-83.975 Y-168.893
X-83.844 Y-168.966
X-83.702 Y-169.013
X-83.554 Y-169.038
X-83.404 Y-169.043
X-83.254 Y-169.03
X-83.107 Y-169
X-82.964 Y-168.955
X-82.826 Y-168.897
X-82.695 Y-168.823
X-82.572 Y-168.738
X-82.459 Y-168.64
X-82.356 Y-168.53
X-82.342 Y-168.512
X-82.219 Y-168.306
X-82.149 Y-168.076
X-82.136 Y-167.837
X-82.18 Y-167.601
X-82.279 Y-167.383
X-82.427 Y-167.195
X-82.734 Y-166.887
G3 X-83.193 Y-166.947 I-0.205 J-0.219
G1 X-84.121 Y-168.428
G3 X-84.148 Y-168.693 I0.254 J-0.159
X-84.086 Y-168.792 I0.281 J0.105
G1 X-83.781 Y-169.097
X-83.67 Y-169.198
X-83.54 Y-169.272
X-83.397 Y-169.32
X-83.25 Y-169.345
X-83.1 Y-169.35
X-82.95 Y-169.338
X-82.803 Y-169.308
X-82.66 Y-169.264
X-82.522 Y-169.206
X-82.391 Y-169.132
X-82.267 Y-169.047
X-82.153 Y-168.95
X-82.05 Y-168.84
X-82.036 Y-168.821
X-81.912 Y-168.615
X-81.842 Y-168.386
X-81.828 Y-168.146
X-81.872 Y-167.91
X-81.971 Y-167.691
X-82.119 Y-167.502
X-82.427 Y-167.195
G3 X-82.526 Y-167.133 I-0.205 J-0.219
X-82.885 Y-167.254 I-0.105 J-0.281
G1 X-83.816 Y-168.733
G3 X-83.781 Y-169.097 I0.254 J-0.16
G1 X-83.462 Y-169.417
X-83.351 Y-169.517
X-83.218 Y-169.588
X-83.075 Y-169.633
X-82.927 Y-169.656
X-82.777 Y-169.659
X-82.628 Y-169.644
X-82.481 Y-169.613
X-82.338 Y-169.567
X-82.2 Y-169.507
X-82.07 Y-169.433
X-81.948 Y-169.346
X-81.835 Y-169.247
X-81.733 Y-169.137
X-81.721 Y-169.121
X-81.6 Y-168.915
X-81.533 Y-168.686
X-81.521 Y-168.448
X-81.565 Y-168.214
X-81.664 Y-167.998
X-81.811 Y-167.81
X-82.119 Y-167.502
G3 X-82.219 Y-167.441 I-0.205 J-0.219
X-82.579 Y-167.564 I-0.105 J-0.281
G1 X-83.498 Y-169.055
G3 X-83.462 Y-169.417 I0.255 J-0.157
G1 X-83.146 Y-169.732
X-83.035 Y-169.833
X-82.901 Y-169.901
X-82.758 Y-169.944
X-82.609 Y-169.966
X-82.459 Y-169.968
X-82.31 Y-169.952
X-82.164 Y-169.919
X-82.021 Y-169.872
X-81.884 Y-169.812
X-81.754 Y-169.736
X-81.632 Y-169.649
X-81.52 Y-169.549
X-81.419 Y-169.439
X-81.408 Y-169.424
X-81.29 Y-169.218
X-81.223 Y-168.991
X-81.212 Y-168.754
X-81.257 Y-168.521
X-81.356 Y-168.305
X-81.503 Y-168.119
X-81.811 Y-167.81
G3 X-81.911 Y-167.749 I-0.205 J-0.219
X-82.272 Y-167.874 I-0.105 J-0.281
G1 X-83.183 Y-169.372
G3 X-83.208 Y-169.633 I0.256 J-0.156
X-83.146 Y-169.732 I0.281 J0.105
G1 X-82.84 Y-170.038
X-82.729 Y-170.139
X-82.596 Y-170.208
X-82.452 Y-170.251
X-82.304 Y-170.273
X-82.154 Y-170.276
X-82.005 Y-170.26
X-81.858 Y-170.228
X-81.716 Y-170.181
X-81.578 Y-170.121
X-81.448 Y-170.046
X-81.326 Y-169.959
X-81.214 Y-169.86
X-81.112 Y-169.749
X-81.101 Y-169.734
X-80.982 Y-169.529
X-80.915 Y-169.301
X-80.904 Y-169.063
X-80.949 Y-168.83
X-81.047 Y-168.614
X-81.194 Y-168.427
X-81.503 Y-168.119
G3 X-81.963 Y-168.182 I-0.205 J-0.219
G1 X-82.877 Y-169.677
G3 X-82.84 Y-170.038 I0.256 J-0.156
G1 X-82.527 Y-170.352
X-82.415 Y-170.453
X-82.281 Y-170.52
X-82.137 Y-170.562
X-81.989 Y-170.583
X-81.839 Y-170.584
X-81.69 Y-170.568
X-81.543 Y-170.535
X-81.401 Y-170.488
X-81.264 Y-170.427
X-81.135 Y-170.351
X-81.013 Y-170.263
X-80.901 Y-170.163
X-80.8 Y-170.053
X-80.79 Y-170.039
X-80.672 Y-169.833
X-80.606 Y-169.606
X-80.595 Y-169.369
X-80.641 Y-169.137
X-80.739 Y-168.922
X-80.886 Y-168.736
X-81.194 Y-168.427
G3 X-81.294 Y-168.365 I-0.205 J-0.219
X-81.655 Y-168.491 I-0.105 J-0.281
G1 X-82.564 Y-169.992
G3 X-82.588 Y-170.252 I0.257 J-0.155
X-82.527 Y-170.352 I0.281 J0.105
G1 X-82.222 Y-170.657
X-82.11 Y-170.758
X-81.977 Y-170.826
X-81.833 Y-170.869
X-81.685 Y-170.891
X-81.535 Y-170.892
X-81.386 Y-170.876
X-81.239 Y-170.844
X-81.097 Y-170.797
X-80.959 Y-170.737
X-80.83 Y-170.662
X-80.708 Y-170.574
X-80.595 Y-170.475
X-80.494 Y-170.364
X-80.484 Y-170.35
X-80.365 Y-170.144
X-80.298 Y-169.917
X-80.287 Y-169.68
X-80.332 Y-169.447
X-80.431 Y-169.231
X-80.577 Y-169.044
X-80.886 Y-168.736
G3 X-81.346 Y-168.799 I-0.205 J-0.219
G1 X-82.258 Y-170.296
G3 X-82.222 Y-170.657 I0.256 J-0.156
G1 X-81.918 Y-170.96
X-81.807 Y-171.061
X-81.674 Y-171.131
X-81.531 Y-171.175
X-81.383 Y-171.198
X-81.233 Y-171.2
X-81.083 Y-171.185
X-80.937 Y-171.154
X-80.794 Y-171.108
X-80.657 Y-171.048
X-80.526 Y-170.973
X-80.404 Y-170.886
X-80.291 Y-170.787
X-80.19 Y-170.677
X-80.178 Y-170.662
X-80.058 Y-170.456
X-79.991 Y-170.228
X-79.979 Y-169.99
X-80.023 Y-169.756
X-80.122 Y-169.539
X-80.269 Y-169.352
X-80.577 Y-169.044
G3 X-80.677 Y-168.982 I-0.205 J-0.219
X-81.037 Y-169.106 I-0.105 J-0.281
G1 X-81.955 Y-170.599
G3 X-81.918 Y-170.96 I0.256 J-0.157
G1 X-81.619 Y-171.26
X-81.507 Y-171.361
X-81.376 Y-171.433
X-81.233 Y-171.479
X-81.085 Y-171.504
X-80.935 Y-171.508
X-80.786 Y-171.494
X-80.639 Y-171.464
X-80.496 Y-171.419
X-80.358 Y-171.36
X-80.227 Y-171.286
X-80.104 Y-171.201
X-79.991 Y-171.102
X-79.888 Y-170.993
X-79.875 Y-170.975
X-79.753 Y-170.769
X-79.684 Y-170.54
X-79.671 Y-170.301
X-79.715 Y-170.066
X-79.814 Y-169.848
X-79.962 Y-169.66
X-80.269 Y-169.352
G3 X-80.369 Y-169.291 I-0.205 J-0.219
X-80.728 Y-169.413 I-0.105 J-0.281
G1 X-81.654 Y-170.897
G3 X-81.68 Y-171.161 I0.255 J-0.159
X-81.619 Y-171.26 I0.281 J0.105
G1 X-81.303 Y-171.576
X-81.192 Y-171.676
X-81.059 Y-171.746
X-80.916 Y-171.791
X-80.767 Y-171.813
X-80.617 Y-171.816
X-80.468 Y-171.802
X-80.321 Y-171.77
X-80.179 Y-171.724
X-80.041 Y-171.664
X-79.911 Y-171.589
X-79.789 Y-171.503
X-79.676 Y-171.404
X-79.574 Y-171.294
X-79.562 Y-171.277
X-79.442 Y-171.072
X-79.375 Y-170.843
X-79.363 Y-170.606
X-79.408 Y-170.372
X-79.506 Y-170.155
X-79.653 Y-169.968
X-79.962 Y-169.66
G3 X-80.422 Y-169.722 I-0.205 J-0.219
G1 X-81.339 Y-171.214
G3 X-81.303 Y-171.576 I0.256 J-0.157
G1 X-80.993 Y-171.886
X-80.882 Y-171.986
X-80.749 Y-172.056
X-80.606 Y-172.1
X-80.457 Y-172.122
X-80.307 Y-172.125
X-80.158 Y-172.109
X-80.011 Y-172.078
X-79.869 Y-172.031
X-79.731 Y-171.971
X-79.601 Y-171.897
X-79.479 Y-171.81
X-79.367 Y-171.71
X-79.265 Y-171.6
X-79.253 Y-171.585
X-79.134 Y-171.379
X-79.066 Y-171.151
X-79.055 Y-170.913
X-79.099 Y-170.68
X-79.198 Y-170.463
X-79.345 Y-170.276
X-79.653 Y-169.968
G3 X-79.753 Y-169.906 I-0.205 J-0.219
X-80.114 Y-170.031 I-0.105 J-0.281
G1 X-81.029 Y-171.524
G3 X-80.993 Y-171.886 I0.256 J-0.157
G1 X-80.683 Y-172.195
X-80.572 Y-172.296
X-80.439 Y-172.365
X-80.295 Y-172.409
X-80.147 Y-172.431
X-79.997 Y-172.433
X-79.848 Y-172.417
X-79.701 Y-172.386
X-79.559 Y-172.339
X-79.421 Y-172.279
X-79.291 Y-172.204
X-79.169 Y-172.117
X-79.057 Y-172.017
X-78.955 Y-171.907
X-78.944 Y-171.892
X-78.825 Y-171.686
X-78.758 Y-171.458
X-78.746 Y-171.221
X-78.791 Y-170.988
X-78.89 Y-170.771
X-79.037 Y-170.585
X-79.345 Y-170.276
G3 X-79.445 Y-170.215 I-0.205 J-0.219
X-79.806 Y-170.339 I-0.105 J-0.281
G1 X-80.72 Y-171.834
G3 X-80.683 Y-172.195 I0.256 J-0.157
G1 X-80.378 Y-172.5
X-80.267 Y-172.601
X-80.134 Y-172.671
X-79.991 Y-172.715
X-79.843 Y-172.738
X-79.693 Y-172.741
X-79.544 Y-172.726
X-79.397 Y-172.695
X-79.254 Y-172.648
X-79.117 Y-172.589
X-78.987 Y-172.514
X-78.864 Y-172.427
X-78.751 Y-172.328
X-78.65 Y-172.218
X-78.638 Y-172.202
X-78.518 Y-171.997
X-78.45 Y-171.768
X-78.438 Y-171.531
X-78.483 Y-171.297
X-78.582 Y-171.08
X-78.729 Y-170.893
X-79.037 Y-170.585
G3 X-79.497 Y-170.647 I-0.205 J-0.219
G1 X-80.414 Y-172.139
G3 X-80.44 Y-172.401 I0.256 J-0.157
X-80.378 Y-172.5 I0.281 J0.105
G1 X-80.075 Y-172.804
X-79.964 Y-172.904
X-79.832 Y-172.976
X-79.689 Y-173.021
X-79.541 Y-173.045
X-79.391 Y-173.049
X-79.241 Y-173.034
X-79.095 Y-173.004
X-78.952 Y-172.958
X-78.814 Y-172.899
X-78.683 Y-172.825
X-78.561 Y-172.739
X-78.448 Y-172.64
X-78.345 Y-172.53
X-78.333 Y-172.514
X-78.212 Y-172.308
X-78.143 Y-172.079
X-78.13 Y-171.841
X-78.175 Y-171.606
X-78.273 Y-171.388
X-78.421 Y-171.2
X-78.729 Y-170.893
G3 X-79.188 Y-170.954 I-0.205 J-0.219
G1 X-80.111 Y-172.441
G3 X-80.137 Y-172.704 I0.255 J-0.158
X-80.075 Y-172.804 I0.281 J0.105
G1 X-79.775 Y-173.103
X-79.664 Y-173.204
X-79.533 Y-173.278
X-79.391 Y-173.325
X-79.243 Y-173.351
X-79.093 Y-173.356
X-78.944 Y-173.343
X-78.797 Y-173.314
X-78.654 Y-173.269
X-78.515 Y-173.211
X-78.384 Y-173.138
X-78.261 Y-173.053
X-78.147 Y-172.955
X-78.044 Y-172.846
X-78.03 Y-172.827
X-77.907 Y-172.621
X-77.836 Y-172.391
X-77.823 Y-172.152
X-77.866 Y-171.916
X-77.965 Y-171.697
X-78.113 Y-171.508
X-78.421 Y-171.2
G3 X-78.879 Y-171.26 I-0.205 J-0.219
G1 X-79.81 Y-172.739
G3 X-79.837 Y-173.004 I0.254 J-0.16
X-79.775 Y-173.103 I0.281 J0.105
G1 X-79.46 Y-173.419
X-79.348 Y-173.52
X-79.216 Y-173.591
X-79.074 Y-173.637
X-78.925 Y-173.66
X-78.775 Y-173.664
X-78.626 Y-173.65
X-78.479 Y-173.62
X-78.336 Y-173.574
X-78.199 Y-173.515
X-78.068 Y-173.441
X-77.945 Y-173.355
X-77.832 Y-173.256
X-77.73 Y-173.146
X-77.717 Y-173.129
X-77.596 Y-172.923
X-77.527 Y-172.694
X-77.515 Y-172.456
X-77.559 Y-172.221
X-77.658 Y-172.004
X-77.805 Y-171.816
X-78.113 Y-171.508
G3 X-78.573 Y-171.569 I-0.205 J-0.219
G1 X-79.495 Y-173.056
G3 X-79.521 Y-173.32 I0.255 J-0.158
X-79.46 Y-173.419 I0.281 J0.105
G1 X-79.15 Y-173.729
X-79.039 Y-173.829
X-78.906 Y-173.9
X-78.763 Y-173.946
X-78.615 Y-173.969
X-78.465 Y-173.972
X-78.316 Y-173.958
X-78.169 Y-173.927
X-78.026 Y-173.881
X-77.889 Y-173.822
X-77.758 Y-173.747
X-77.636 Y-173.661
X-77.523 Y-173.562
X-77.421 Y-173.452
X-77.408 Y-173.436
X-77.288 Y-173.23
X-77.219 Y-173.001
X-77.207 Y-172.763
X-77.251 Y-172.529
X-77.35 Y-172.312
X-77.497 Y-172.124
X-77.805 Y-171.816
G3 X-78.265 Y-171.878 I-0.205 J-0.219
G1 X-79.186 Y-173.366
G3 X-79.15 Y-173.729 I0.255 J-0.158
G1 X-78.84 Y-174.039
X-78.729 Y-174.139
X-78.596 Y-174.209
X-78.453 Y-174.254
X-78.305 Y-174.277
X-78.155 Y-174.28
X-78.006 Y-174.266
X-77.859 Y-174.235
X-77.716 Y-174.188
X-77.579 Y-174.129
X-77.448 Y-174.054
X-77.326 Y-173.968
X-77.213 Y-173.869
X-77.111 Y-173.759
X-77.099 Y-173.743
X-76.979 Y-173.537
X-76.911 Y-173.308
X-76.899 Y-173.07
X-76.943 Y-172.836
X-77.042 Y-172.619
X-77.189 Y-172.432
X-77.497 Y-172.124
G3 X-77.597 Y-172.062 I-0.205 J-0.219
X-77.957 Y-172.186 I-0.105 J-0.281
G1 X-78.876 Y-173.677
G3 X-78.84 Y-174.039 I0.255 J-0.157
G1 X-78.535 Y-174.344
X-78.424 Y-174.444
X-78.292 Y-174.515
X-78.149 Y-174.561
X-78.001 Y-174.585
X-77.851 Y-174.588
X-77.701 Y-174.574
X-77.555 Y-174.543
X-77.412 Y-174.498
X-77.274 Y-174.438
X-77.144 Y-174.364
X-77.021 Y-174.278
X-76.908 Y-174.179
X-76.806 Y-174.069
X-76.793 Y-174.053
X-76.672 Y-173.847
X-76.603 Y-173.618
X-76.591 Y-173.38
X-76.635 Y-173.145
X-76.734 Y-172.928
X-76.881 Y-172.74
X-77.189 Y-172.432
G3 X-77.649 Y-172.493 I-0.205 J-0.219
G1 X-78.571 Y-173.981
G3 X-78.535 Y-174.344 I0.255 J-0.158
G1 X-78.232 Y-174.647
