%
(1001)
(T1  D=6 CR=0 - ZMIN=10 - flat end mill)
G90 G94
G17
G21

(2D Adaptive5)
M9
T1 M6
S6000 M3
G54
M9
G0 X-8.893 Y-8.795
Z33
Z23
Z21.15
G1 Z20.55 F850
G3 X-12.824 Y-12.923 Z20.237 I-1.966 J-2.064 F283.3
X-8.893 Y-8.795 Z19.925 I1.966 J2.064
X-12.824 Y-12.923 Z19.612 I-1.966 J-2.064
X-8.893 Y-8.795 Z19.299 I1.966 J2.064
X-12.824 Y-12.923 Z18.987 I-1.966 J-2.064
X-8.893 Y-8.795 Z18.674 I1.966 J2.064
X-12.824 Y-12.923 Z18.361 I-1.966 J-2.064
X-8.893 Y-8.795 Z18.049 I1.966 J2.064
X-12.824 Y-12.923 Z17.736 I-1.966 J-2.064
X-8.893 Y-8.795 Z17.423 I1.966 J2.064
X-12.824 Y-12.923 Z17.111 I-1.966 J-2.064
X-8.893 Y-8.795 Z16.798 I1.966 J2.064
X-12.824 Y-12.923 Z16.485 I-1.966 J-2.064
X-8.893 Y-8.795 Z16.173 I1.966 J2.064
X-12.824 Y-12.923 Z15.86 I-1.966 J-2.064
X-8.893 Y-8.795 Z15.547 I1.966 J2.064
X-12.824 Y-12.923 Z15.235 I-1.966 J-2.064
X-8.893 Y-8.795 Z14.922 I1.966 J2.064
X-12.824 Y-12.923 Z14.609 I-1.966 J-2.064
X-8.893 Y-8.795 Z14.297 I1.966 J2.064
X-12.824 Y-12.923 Z13.984 I-1.966 J-2.064
X-8.893 Y-8.795 Z13.671 I1.966 J2.064
X-12.824 Y-12.923 Z13.359 I-1.966 J-2.064
X-8.893 Y-8.795 Z13.046 I1.966 J2.064
X-12.824 Y-12.923 Z12.733 I-1.966 J-2.064
X-8.893 Y-8.795 Z12.421 I1.966 J2.064
X-12.824 Y-12.923 Z12.108 I-1.966 J-2.064
X-8.893 Y-8.795 Z11.795 I1.966 J2.064
X-12.824 Y-12.923 Z11.483 I-1.966 J-2.064
X-8.893 Y-8.795 Z11.17 I1.966 J2.064
X-12.824 Y-12.923 Z10.857 I-1.966 J-2.064
X-8.893 Y-8.795 Z10.545 I1.966 J2.064
X-12.824 Y-12.923 Z10.232 I-1.966 J-2.064
X-8.008 Y-10.859 Z10 I1.966 J2.064
X-13.708 I-2.85
X-8.008 I2.85
G1 X-8.004 Y-10.574 F850
X-8 Y-10.539
Y-10.522
Y-9.517
X-8.007 Y-9.367
X-8.081 Y-9.053
X-8.217 Y-8.761
X-8.41 Y-8.503
X-8.652 Y-8.29
X-8.932 Y-8.131
X-9.239 Y-8.033
X-9.559 Y-8
G3 X-9.953 Y-9.034 I0.021 J-0.6
G1 X-9.014 Y-9.93
G3 X-8 Y-9.517 I0.414 J0.434
G1 Y-8.762
Y-8.719
Y-8.689
X-8.007 Y-8.54
X-8.02 Y-8.494
X-8.067 Y-8.367
X-8.136 Y-8.25
X-8.224 Y-8.147
G3 X-8.896 Y-8.068 I-0.406 J-0.56
X-8.4 Y-9.266 I0.248 J-0.599
X-8 Y-8.689 I-0.248 J0.599
G1 Y-8.621
X-8.005 Y-8.537
X-8.023 Y-8.452
X-8.033 Y-8.42
X-8.053 Y-8.369
X-8.079 Y-8.319
X-8.111 Y-8.269
X-8.152 Y-8.218
X-8.224 Y-8.147
X-8.275 Y-8.108
X-8.325 Y-8.076
X-8.375 Y-8.051
X-8.426 Y-8.032
X-8.476 Y-8.017
X-8.551 Y-8.004
X-8.627 Y-8
X-12.211
X-12.361 Y-8.007
X-12.51 Y-8.028
X-12.656 Y-8.061
X-12.799 Y-8.106
X-12.938 Y-8.162
X-13.073 Y-8.227
X-13.204 Y-8.301
X-13.329 Y-8.384
X-13.449 Y-8.473
X-13.565 Y-8.57
X-13.678 Y-8.677
X-13.788 Y-8.793
X-13.894 Y-8.918
X-13.995 Y-9.052
X-14.091 Y-9.195
X-14.18 Y-9.345
X-14.263 Y-9.504
X-14.337 Y-9.67
X-14.403 Y-9.842
X-14.46 Y-10.02
X-14.507 Y-10.204
X-14.517 Y-10.256
X-14.556 Y-10.615
X-14.529 Y-10.975
X-14.437 Y-11.324
X-14.285 Y-11.651
X-14.076 Y-11.946
X-13.818 Y-12.198
X-13.518 Y-12.399
X-13.46 Y-12.431
X-13.259 Y-12.558
X-13.142 Y-12.647
X-13.057 Y-12.717
X-12.911 Y-12.849
X-12.856 Y-12.906
X-12.722 Y-13.05
X-12.655 Y-13.133
X-12.564 Y-13.251
X-12.435 Y-13.453
X-12.402 Y-13.513
X-12.323 Y-13.641
X-12.231 Y-13.76
X-12.127 Y-13.868
X-12.013 Y-13.966
X-11.892 Y-14.054
X-11.765 Y-14.133
X-11.632 Y-14.203
X-11.494 Y-14.263
X-11.354 Y-14.315
X-11.21 Y-14.358
X-11.064 Y-14.392
X-10.912 Y-14.419
X-10.754 Y-14.438
X-10.591 Y-14.448
X-10.424 Y-14.449
X-10.254 Y-14.441
X-10.08 Y-14.422
X-9.905 Y-14.393
X-9.728 Y-14.354
X-9.551 Y-14.304
X-9.375 Y-14.243
X-9.2 Y-14.172
X-9.14 Y-14.144
X-8.819 Y-13.952
X-8.538 Y-13.703
X-8.309 Y-13.406
X-8.139 Y-13.071
X-8.035 Y-12.711
X-8 Y-12.338
Y-10.522
G3 X-8.317 Y-10.013 I-0.6 J-0.021
G1 X-11.949 Y-8.071
G3 X-11.983 Y-8.054 I-0.283 J-0.529
X-12.211 Y-8 I-0.249 J-0.546
G1 X-13.168
X-13.318 Y-8.007
X-13.467 Y-8.028
X-13.612 Y-8.064
X-13.754 Y-8.112
X-13.892 Y-8.172
X-14.025 Y-8.242
X-14.152 Y-8.32
X-14.275 Y-8.407
X-14.392 Y-8.501
X-14.504 Y-8.603
X-14.616 Y-8.716
X-14.715 Y-8.829
X-14.812 Y-8.952
X-14.911 Y-9.093
X-14.992 Y-9.224
X-15.064 Y-9.356
X-15.138 Y-9.513
X-15.197 Y-9.658
X-15.245 Y-9.8
X-15.291 Y-9.965
X-15.326 Y-10.122
X-15.33 Y-10.152
X-15.351 Y-10.521
X-15.295 Y-10.886
X-15.166 Y-11.231
X-14.969 Y-11.543
X-14.712 Y-11.808
X-14.406 Y-12.014
X-14.064 Y-12.154
G3 X-13.294 Y-11.718 I0.185 J0.571
G1 X-12.604 Y-8.735
G3 X-13.168 Y-8 I-0.585 J0.135
G1 X-14.064
X-14.214 Y-8.007
X-14.363 Y-8.028
X-14.508 Y-8.064
X-14.65 Y-8.113
X-14.787 Y-8.174
X-14.919 Y-8.246
X-15.045 Y-8.327
X-15.166 Y-8.416
X-15.281 Y-8.512
X-15.389 Y-8.616
X-15.492 Y-8.725
X-15.587 Y-8.841
X-15.676 Y-8.962
X-15.762 Y-9.095
X-15.836 Y-9.225
X-15.902 Y-9.36
X-15.963 Y-9.507
X-16.013 Y-9.649
X-16.054 Y-9.793
X-16.087 Y-9.939
X-16.112 Y-10.095
X-16.128 Y-10.244
X-16.134 Y-10.394
X-16.131 Y-10.553
X-16.13 Y-10.572
X-16.073 Y-10.887
X-15.954 Y-11.184
X-15.777 Y-11.45
X-15.55 Y-11.675
X-15.282 Y-11.85
X-14.984 Y-11.966
X-14.668 Y-12.019
X-14.467 Y-12.051
X-14.266 Y-12.095
X-14.064 Y-12.154
G3 X-13.317 Y-11.538 I0.148 J0.582
G1 X-13.486 Y-8.566
G3 X-14.064 Y-8 I-0.599 J-0.034
G1 X-14.931
X-15.08 Y-8.007
X-15.229 Y-8.028
X-15.374 Y-8.066
X-15.515 Y-8.117
X-15.651 Y-8.18
X-15.782 Y-8.254
X-15.906 Y-8.338
X-16.024 Y-8.43
X-16.136 Y-8.53
X-16.241 Y-8.638
X-16.339 Y-8.751
X-16.43 Y-8.87
X-16.514 Y-8.994
X-16.593 Y-9.126
X-16.662 Y-9.259
X-16.724 Y-9.396
X-16.781 Y-9.545
X-16.826 Y-9.688
X-16.863 Y-9.834
X-16.891 Y-9.983
X-16.91 Y-10.132
X-16.92 Y-10.281
X-16.921 Y-10.431
X-16.863 Y-10.785
X-16.731 Y-11.118
X-16.53 Y-11.415
X-16.269 Y-11.662
X-15.962 Y-11.847
X-15.623 Y-11.961
X-15.267 Y-12
X-15.071
X-14.87 Y-12.006
X-14.668 Y-12.019
G3 X-14.053 Y-11.356 I0.018 J0.6
G1 X-14.355 Y-8.536
G3 X-14.931 Y-8 I-0.597 J-0.064
G1 X-15.786
X-15.936 Y-8.007
X-16.084 Y-8.033
X-16.228 Y-8.074
X-16.367 Y-8.129
X-16.501 Y-8.196
X-16.63 Y-8.274
X-16.752 Y-8.361
X-16.867 Y-8.457
X-16.976 Y-8.56
X-17.078 Y-8.67
X-17.173 Y-8.786
X-17.261 Y-8.908
X-17.341 Y-9.034
X-17.414 Y-9.165
X-17.479 Y-9.301
X-17.538 Y-9.446
X-17.586 Y-9.588
X-17.626 Y-9.732
X-17.656 Y-9.879
X-17.678 Y-10.028
X-17.691 Y-10.178
X-17.695 Y-10.328
X-17.65 Y-10.657
X-17.543 Y-10.973
X-17.378 Y-11.262
X-17.162 Y-11.514
X-16.901 Y-11.721
X-16.605 Y-11.874
X-16.286 Y-11.968
X-15.955 Y-12
X-15.267
G3 X-14.697 Y-11.291 I-0.02 J0.6
G1 X-15.217 Y-8.49
G3 X-15.786 Y-8 I-0.59 J-0.11
G1 X-16.591
X-16.741 Y-8.007
X-16.889 Y-8.032
X-17.033 Y-8.074
X-17.172 Y-8.13
X-17.306 Y-8.198
X-17.434 Y-8.277
X-17.555 Y-8.365
X-17.67 Y-8.462
X-17.777 Y-8.566
X-17.878 Y-8.678
X-17.971 Y-8.795
X-18.057 Y-8.918
X-18.135 Y-9.046
X-18.206 Y-9.178
X-18.268 Y-9.316
X-18.322 Y-9.456
X-18.367 Y-9.599
X-18.403 Y-9.745
X-18.43 Y-9.892
X-18.449 Y-10.041
X-18.458 Y-10.191
Y-10.341
X-18.408 Y-10.67
X-18.297 Y-10.983
X-18.129 Y-11.27
X-17.91 Y-11.52
X-17.649 Y-11.724
X-17.353 Y-11.875
X-17.034 Y-11.969
X-16.703 Y-12
X-15.955
G3 X-15.391 Y-11.267 I-0.021 J0.6
G1 X-16.027 Y-8.467
G3 X-16.591 Y-8 I-0.585 J-0.133
G1 X-17.397
X-17.547 Y-8.007
X-17.694 Y-8.034
X-17.838 Y-8.078
X-17.976 Y-8.135
X-18.109 Y-8.205
X-18.236 Y-8.286
X-18.355 Y-8.376
X-18.468 Y-8.475
X-18.574 Y-8.581
X-18.673 Y-8.694
X-18.764 Y-8.814
X-18.847 Y-8.938
X-18.923 Y-9.067
X-18.991 Y-9.201
X-19.051 Y-9.341
X-19.102 Y-9.482
X-19.144 Y-9.626
X-19.178 Y-9.774
X-19.203 Y-9.922
X-19.218 Y-10.071
X-19.225 Y-10.221
X-19.222 Y-10.371
X-19.221 Y-10.389
X-19.167 Y-10.71
X-19.054 Y-11.014
X-18.887 Y-11.293
X-18.671 Y-11.535
X-18.413 Y-11.733
X-18.123 Y-11.88
X-17.811 Y-11.97
X-17.488 Y-12
X-16.703
G3 X-16.142 Y-11.256 I-0.021 J0.6
G1 X-16.835 Y-8.455
G3 X-17.397 Y-8 I-0.582 J-0.144
G1 X-18.153
X-18.302 Y-8.007
X-18.45 Y-8.031
X-18.595 Y-8.072
X-18.734 Y-8.128
X-18.868 Y-8.196
X-18.995 Y-8.276
X-19.115 Y-8.365
X-19.229 Y-8.463
X-19.335 Y-8.569
X-19.434 Y-8.682
X-19.526 Y-8.8
X-19.61 Y-8.925
X-19.686 Y-9.054
X-19.754 Y-9.187
X-19.814 Y-9.325
X-19.866 Y-9.466
X-19.909 Y-9.609
X-19.944 Y-9.755
X-19.97 Y-9.903
X-19.987 Y-10.052
X-19.995 Y-10.202
X-19.993 Y-10.354
X-19.984 Y-10.503
X-19.903 Y-10.847
X-19.754 Y-11.167
X-19.543 Y-11.449
X-19.278 Y-11.682
X-18.971 Y-11.856
X-18.635 Y-11.964
X-18.284 Y-12
X-17.488
G3 X-16.925 Y-11.262 I-0.021 J0.6
G1 X-17.59 Y-8.461
G3 X-18.153 Y-8 I-0.584 J-0.139
G1 X-18.958
X-19.108 Y-8.007
X-19.255 Y-8.036
X-19.398 Y-8.081
X-19.536 Y-8.14
X-19.668 Y-8.211
X-19.793 Y-8.294
X-19.912 Y-8.385
X-20.024 Y-8.485
X-20.128 Y-8.593
X-20.226 Y-8.707
X-20.315 Y-8.827
X-20.398 Y-8.953
X-20.472 Y-9.083
X-20.539 Y-9.217
X-20.598 Y-9.355
X-20.649 Y-9.498
X-20.69 Y-9.642
X-20.724 Y-9.788
X-20.748 Y-9.936
X-20.764 Y-10.09
X-20.771 Y-10.24
X-20.769 Y-10.39
X-20.712 Y-10.711
X-20.597 Y-11.016
X-20.428 Y-11.294
X-20.21 Y-11.536
X-19.951 Y-11.734
X-19.66 Y-11.88
X-19.347 Y-11.97
X-19.023 Y-12
X-18.284
G3 X-17.722 Y-11.26 I-0.021 J0.6
G1 X-18.396 Y-8.459
G3 X-18.958 Y-8 I-0.583 J-0.14
G1 X-19.703
X-19.852 Y-8.007
X-20 Y-8.032
X-20.144 Y-8.074
X-20.283 Y-8.131
X-20.416 Y-8.2
X-20.543 Y-8.28
X-20.663 Y-8.37
X-20.776 Y-8.468
X-20.883 Y-8.574
X-20.981 Y-8.687
X-21.073 Y-8.806
X-21.157 Y-8.931
X-21.233 Y-9.06
X-21.301 Y-9.193
X-21.361 Y-9.331
X-21.412 Y-9.472
X-21.456 Y-9.615
X-21.49 Y-9.761
X-21.515 Y-9.909
X-21.532 Y-10.058
X-21.539 Y-10.208
X-21.538 Y-10.36
X-21.484 Y-10.686
X-21.371 Y-10.996
X-21.202 Y-11.279
X-20.983 Y-11.526
X-20.722 Y-11.728
X-20.428 Y-11.877
X-20.111 Y-11.969
X-19.782 Y-12
X-19.023
G3 X-18.461 Y-11.259 I-0.021 J0.6
G1 X-19.14 Y-8.458
G3 X-19.703 Y-8 I-0.583 J-0.142
G1 X-20.467
X-20.617 Y-8.007
X-20.765 Y-8.031
X-20.909 Y-8.072
X-21.049 Y-8.128
X-21.182 Y-8.197
X-21.309 Y-8.276
X-21.43 Y-8.366
X-21.543 Y-8.464
X-21.65 Y-8.57
X-21.749 Y-8.682
X-21.84 Y-8.801
X-21.924 Y-8.925
X-22 Y-9.054
X-22.069 Y-9.188
X-22.128 Y-9.326
X-22.18 Y-9.466
X-22.223 Y-9.61
X-22.257 Y-9.756
X-22.282 Y-9.904
X-22.299 Y-10.053
X-22.306 Y-10.203
X-22.305 Y-10.353
X-22.252 Y-10.68
X-22.138 Y-10.991
X-21.969 Y-11.276
X-21.749 Y-11.524
X-21.487 Y-11.727
X-21.191 Y-11.877
X-20.873 Y-11.969
X-20.543 Y-12
X-19.782
G3 X-19.22 Y-11.258 I-0.021 J0.6
G1 X-19.905 Y-8.457
G3 X-20.467 Y-8 I-0.583 J-0.143
G1 X-21.273
X-21.423 Y-8.007
X-21.57 Y-8.036
X-21.713 Y-8.081
X-21.851 Y-8.14
X-21.983 Y-8.212
X-22.108 Y-8.294
X-22.227 Y-8.386
X-22.338 Y-8.486
X-22.443 Y-8.593
X-22.54 Y-8.708
X-22.629 Y-8.828
X-22.712 Y-8.954
X-22.786 Y-9.084
X-22.852 Y-9.219
X-22.91 Y-9.359
X-22.96 Y-9.501
X-23 Y-9.645
X-23.032 Y-9.794
X-23.055 Y-9.942
X-23.069 Y-10.092
X-23.074 Y-10.243
X-23.07 Y-10.393
X-23.012 Y-10.713
X-22.896 Y-11.018
X-22.726 Y-11.296
X-22.508 Y-11.537
X-22.249 Y-11.734
X-21.957 Y-11.88
X-21.644 Y-11.97
X-21.32 Y-12
X-20.543
G3 X-19.983 Y-11.249 I-0.021 J0.6
G1 X-20.713 Y-8.448
G3 X-21.273 Y-8 I-0.581 J-0.151
G1 X-22.028
X-22.178 Y-8.007
X-22.326 Y-8.034
X-22.469 Y-8.077
X-22.608 Y-8.135
X-22.74 Y-8.205
X-22.866 Y-8.287
X-22.986 Y-8.378
X-23.098 Y-8.477
X-23.203 Y-8.584
X-23.301 Y-8.698
X-23.391 Y-8.818
X-23.473 Y-8.943
X-23.548 Y-9.073
X-23.615 Y-9.207
X-23.673 Y-9.346
X-23.724 Y-9.487
X-23.765 Y-9.631
X-23.798 Y-9.778
X-23.822 Y-9.926
X-23.837 Y-10.075
X-23.843 Y-10.225
X-23.84 Y-10.376
X-23.838 Y-10.408
X-23.783 Y-10.725
X-23.671 Y-11.026
X-23.505 Y-11.301
X-23.29 Y-11.541
X-23.035 Y-11.736
X-22.748 Y-11.881
X-22.439 Y-11.97
X-22.119 Y-12
X-21.32
G3 X-20.759 Y-11.253 I-0.021 J0.6
G1 X-21.468 Y-8.452
G3 X-22.028 Y-8 I-0.582 J-0.147
G1 X-22.784
X-22.934 Y-8.007
X-23.082 Y-8.032
X-23.226 Y-8.074
X-23.365 Y-8.131
X-23.498 Y-8.2
X-23.624 Y-8.28
X-23.744 Y-8.371
X-23.857 Y-8.469
X-23.963 Y-8.576
X-24.061 Y-8.689
X-24.152 Y-8.808
X-24.235 Y-8.933
X-24.311 Y-9.063
X-24.379 Y-9.197
X-24.438 Y-9.334
X-24.489 Y-9.475
X-24.532 Y-9.619
X-24.566 Y-9.765
X-24.591 Y-9.914
X-24.608 Y-10.063
X-24.616 Y-10.213
X-24.614 Y-10.365
X-24.604 Y-10.514
X-24.523 Y-10.855
X-24.375 Y-11.173
X-24.164 Y-11.453
X-23.9 Y-11.685
X-23.595 Y-11.857
X-23.261 Y-11.964
X-22.912 Y-12
X-22.119
G3 X-21.556 Y-11.262 I-0.021 J0.6
G1 X-22.221 Y-8.461
G3 X-22.784 Y-8 I-0.584 J-0.139
G1 X-23.562
X-23.712 Y-8.007
X-23.86 Y-8.033
X-24.003 Y-8.077
X-24.142 Y-8.134
X-24.274 Y-8.204
X-24.401 Y-8.285
X-24.52 Y-8.376
X-24.633 Y-8.475
X-24.738 Y-8.582
X-24.836 Y-8.696
X-24.927 Y-8.815
X-25.01 Y-8.94
X-25.085 Y-9.07
X-25.153 Y-9.203
X-25.213 Y-9.341
X-25.264 Y-9.482
X-25.308 Y-9.629
X-25.342 Y-9.775
X-25.368 Y-9.922
X-25.385 Y-10.077
X-25.392 Y-10.227
X-25.391 Y-10.377
X-25.337 Y-10.7
X-25.223 Y-11.007
X-25.054 Y-11.287
X-24.836 Y-11.532
X-24.576 Y-11.731
X-24.284 Y-11.879
X-23.969 Y-11.969
X-23.643 Y-12
X-22.912
G3 X-22.349 Y-11.265 I-0.021 J0.6
G1 X-22.999 Y-8.464
G3 X-23.562 Y-8 I-0.584 J-0.136
G1 X-24.334
X-24.484 Y-8.007
X-24.632 Y-8.034
X-24.775 Y-8.077
X-24.914 Y-8.135
X-25.046 Y-8.205
X-25.173 Y-8.286
X-25.292 Y-8.376
X-25.405 Y-8.476
X-25.51 Y-8.582
X-25.609 Y-8.695
X-25.7 Y-8.815
X-25.783 Y-8.939
X-25.859 Y-9.069
X-25.927 Y-9.202
X-25.986 Y-9.34
X-26.037 Y-9.481
X-26.08 Y-9.625
X-26.113 Y-9.771
X-26.138 Y-9.919
X-26.154 Y-10.068
X-26.161 Y-10.218
X-26.158 Y-10.368
X-26.104 Y-10.693
X-25.991 Y-11.001
X-25.822 Y-11.283
X-25.603 Y-11.529
X-25.343 Y-11.729
X-25.049 Y-11.878
X-24.733 Y-11.969
X-24.406 Y-12
X-23.643
G3 X-23.082 Y-11.257 I-0.021 J0.6
G1 X-23.773 Y-8.456
G3 X-24.334 Y-8 I-0.583 J-0.144
G1 X-25.099
X-25.249 Y-8.007
X-25.397 Y-8.033
X-25.54 Y-8.075
X-25.679 Y-8.132
X-25.812 Y-8.201
X-25.939 Y-8.281
X-26.059 Y-8.372
X-26.172 Y-8.47
X-26.278 Y-8.576
X-26.376 Y-8.69
X-26.467 Y-8.809
X-26.551 Y-8.933
X-26.627 Y-9.063
X-26.694 Y-9.197
X-26.753 Y-9.335
X-26.805 Y-9.476
X-26.847 Y-9.619
X-26.881 Y-9.766
X-26.905 Y-9.914
X-26.922 Y-10.063
X-26.928 Y-10.212
X-26.926 Y-10.362
X-26.872 Y-10.688
X-26.759 Y-10.998
X-26.589 Y-11.281
X-26.37 Y-11.527
X-26.108 Y-11.728
X-25.814 Y-11.878
X-25.497 Y-11.969
X-25.169 Y-12
X-24.406
G3 X-23.844 Y-11.256 I-0.021 J0.6
G1 X-24.537 Y-8.456
G3 X-25.099 Y-8 I-0.582 J-0.144
G1 X-25.854
X-26.004 Y-8.007
X-26.153 Y-8.03
X-26.297 Y-8.071
X-26.436 Y-8.126
X-26.57 Y-8.194
X-26.697 Y-8.274
X-26.818 Y-8.363
X-26.931 Y-8.461
X-27.038 Y-8.567
X-27.137 Y-8.679
X-27.229 Y-8.798
X-27.313 Y-8.922
X-27.389 Y-9.051
X-27.457 Y-9.185
X-27.517 Y-9.322
X-27.569 Y-9.463
X-27.612 Y-9.607
X-27.646 Y-9.753
X-27.671 Y-9.901
X-27.688 Y-10.05
X-27.696 Y-10.2
X-27.694 Y-10.35
X-27.693 Y-10.365
X-27.64 Y-10.69
X-27.528 Y-10.999
X-27.36 Y-11.282
X-27.142 Y-11.528
X-26.881 Y-11.729
X-26.588 Y-11.878
X-26.272 Y-11.969
X-25.945 Y-12
X-25.169
G3 X-24.607 Y-11.258 I-0.021 J0.6
G1 X-25.293 Y-8.457
G3 X-25.854 Y-8 I-0.583 J-0.143
G1 X-26.66
X-26.81 Y-8.007
X-26.957 Y-8.035
X-27.1 Y-8.08
X-27.238 Y-8.139
X-27.37 Y-8.21
X-27.496 Y-8.292
X-27.615 Y-8.384
X-27.726 Y-8.484
X-27.831 Y-8.592
X-27.928 Y-8.706
X-28.018 Y-8.826
X-28.1 Y-8.952
X-28.174 Y-9.082
X-28.241 Y-9.216
X-28.299 Y-9.358
X-28.349 Y-9.499
X-28.39 Y-9.643
X-28.422 Y-9.792
X-28.446 Y-9.94
X-28.46 Y-10.09
X-28.465 Y-10.24
X-28.461 Y-10.39
X-28.458 Y-10.426
X-28.39 Y-10.784
X-28.248 Y-11.119
X-28.039 Y-11.416
X-27.771 Y-11.663
X-27.458 Y-11.847
X-27.112 Y-11.961
X-26.751 Y-12
X-25.945
G3 X-25.385 Y-11.252 I-0.021 J0.6
G1 X-26.1 Y-8.451
G3 X-26.66 Y-8 I-0.581 J-0.148
G1 X-27.416
X-27.565 Y-8.007
X-27.713 Y-8.034
X-27.857 Y-8.077
X-27.995 Y-8.134
X-28.128 Y-8.204
X-28.254 Y-8.286
X-28.373 Y-8.376
X-28.486 Y-8.476
X-28.591 Y-8.583
X-28.689 Y-8.696
X-28.779 Y-8.816
X-28.862 Y-8.941
X-28.937 Y-9.071
X-29.005 Y-9.205
X-29.063 Y-9.343
X-29.116 Y-9.491
X-29.158 Y-9.635
X-29.192 Y-9.781
X-29.217 Y-9.933
X-29.232 Y-10.082
X-29.239 Y-10.232
X-29.237 Y-10.382
X-29.181 Y-10.704
X-29.067 Y-11.01
X-28.897 Y-11.29
X-28.679 Y-11.533
X-28.419 Y-11.732
X-28.127 Y-11.879
X-27.813 Y-11.97
X-27.488 Y-12
X-26.751
G3 X-26.188 Y-11.262 I-0.021 J0.6
G1 X-26.853 Y-8.461
G3 X-27.416 Y-8 I-0.584 J-0.139
G1 X-28.16
X-28.31 Y-8.007
X-28.458 Y-8.03
X-28.603 Y-8.071
X-28.742 Y-8.126
X-28.876 Y-8.194
X-29.003 Y-8.273
X-29.124 Y-8.362
X-29.237 Y-8.46
X-29.344 Y-8.566
X-29.443 Y-8.678
X-29.535 Y-8.797
X-29.62 Y-8.921
X-29.696 Y-9.05
X-29.765 Y-9.183
X-29.825 Y-9.32
X-29.877 Y-9.461
X-29.921 Y-9.604
X-29.956 Y-9.75
X-29.982 Y-9.898
X-29.999 Y-10.047
X-30.007 Y-10.197
X-30.006 Y-10.349
X-29.953 Y-10.677
X-29.84 Y-10.989
X-29.671 Y-11.274
X-29.452 Y-11.523
X-29.189 Y-11.726
X-28.894 Y-11.876
X-28.575 Y-11.969
X-28.245 Y-12
X-27.488
G3 X-26.925 Y-11.26 I-0.021 J0.6
G1 X-27.598 Y-8.46
G3 X-28.16 Y-8 I-0.583 J-0.14
G1 X-28.966
X-29.115 Y-8.007
X-29.263 Y-8.035
X-29.406 Y-8.079
X-29.544 Y-8.138
X-29.676 Y-8.209
X-29.802 Y-8.291
X-29.921 Y-8.382
X-30.033 Y-8.482
X-30.138 Y-8.589
X-30.235 Y-8.703
X-30.325 Y-8.823
X-30.408 Y-8.949
X-30.483 Y-9.079
X-30.549 Y-9.213
X-30.608 Y-9.353
X-30.658 Y-9.495
X-30.699 Y-9.639
X-30.731 Y-9.788
X-30.755 Y-9.936
X-30.769 Y-10.085
X-30.774 Y-10.236
X-30.771 Y-10.386
X-30.714 Y-10.708
X-30.598 Y-11.013
X-30.428 Y-11.292
X-30.21 Y-11.535
X-29.95 Y-11.733
X-29.658 Y-11.88
X-29.344 Y-11.97
X-29.019 Y-12
X-28.245
G3 X-27.685 Y-11.251 I-0.021 J0.6
G1 X-28.406 Y-8.45
G3 X-28.966 Y-8 I-0.581 J-0.15
G1 X-29.73
X-29.88 Y-8.007
X-30.028 Y-8.034
X-30.171 Y-8.078
X-30.31 Y-8.136
X-30.442 Y-8.207
X-30.568 Y-8.288
X-30.687 Y-8.379
X-30.799 Y-8.479
X-30.904 Y-8.586
X-31.002 Y-8.7
X-31.092 Y-8.82
X-31.174 Y-8.945
X-31.249 Y-9.075
X-31.316 Y-9.209
X-31.374 Y-9.348
X-31.424 Y-9.489
X-31.466 Y-9.633
X-31.498 Y-9.779
X-31.522 Y-9.928
X-31.537 Y-10.077
X-31.543 Y-10.227
X-31.54 Y-10.377
X-31.484 Y-10.7
X-31.37 Y-11.007
X-31.2 Y-11.288
X-30.981 Y-11.532
X-30.721 Y-11.731
X-30.428 Y-11.879
X-30.113 Y-11.969
X-29.787 Y-12
X-29.019
G3 X-28.458 Y-11.253 I-0.021 J0.6
G1 X-29.17 Y-8.452
G3 X-29.73 Y-8 I-0.582 J-0.148
G1 X-30.486
X-30.636 Y-8.007
X-30.784 Y-8.032
X-30.928 Y-8.075
X-31.066 Y-8.131
X-31.199 Y-8.201
X-31.326 Y-8.281
X-31.446 Y-8.372
X-31.559 Y-8.471
X-31.664 Y-8.577
X-31.762 Y-8.69
X-31.853 Y-8.81
X-31.936 Y-8.935
X-32.012 Y-9.064
X-32.079 Y-9.198
X-32.138 Y-9.336
X-32.189 Y-9.477
X-32.231 Y-9.621
X-32.264 Y-9.768
X-32.289 Y-9.916
X-32.305 Y-10.065
X-32.311 Y-10.215
X-32.309 Y-10.365
X-32.307 Y-10.39
X-32.254 Y-10.71
X-32.141 Y-11.015
X-31.974 Y-11.293
X-31.758 Y-11.535
X-31.501 Y-11.733
X-31.211 Y-11.88
X-30.9 Y-11.97
X-30.577 Y-12
X-29.787
G3 X-29.225 Y-11.255 I-0.021 J0.6
G1 X-29.925 Y-8.454
G3 X-30.486 Y-8 I-0.582 J-0.145
G1 X-31.242
X-31.391 Y-8.007
X-31.54 Y-8.031
X-31.684 Y-8.071
X-31.823 Y-8.127
X-31.957 Y-8.195
X-32.084 Y-8.275
X-32.204 Y-8.365
X-32.318 Y-8.463
X-32.424 Y-8.569
X-32.523 Y-8.681
X-32.614 Y-8.8
X-32.698 Y-8.925
X-32.774 Y-9.054
X-32.842 Y-9.188
X-32.902 Y-9.325
X-32.954 Y-9.466
X-32.997 Y-9.61
X-33.031 Y-9.756
X-33.057 Y-9.903
X-33.074 Y-10.052
X-33.082 Y-10.202
X-33.081 Y-10.354
X-33.071 Y-10.504
X-32.991 Y-10.847
X-32.842 Y-11.167
X-32.63 Y-11.449
X-32.365 Y-11.682
X-32.059 Y-11.856
X-31.723 Y-11.964
X-31.372 Y-12
X-30.577
G3 X-30.014 Y-11.262 I-0.021 J0.6
G1 X-30.679 Y-8.461
G3 X-31.242 Y-8 I-0.584 J-0.139
G1 X-32.047
X-32.197 Y-8.007
X-32.344 Y-8.036
X-32.487 Y-8.081
X-32.625 Y-8.14
X-32.757 Y-8.212
X-32.882 Y-8.294
X-33.001 Y-8.386
X-33.113 Y-8.486
X-33.217 Y-8.594
X-33.314 Y-8.708
X-33.404 Y-8.828
X-33.486 Y-8.954
X-33.561 Y-9.084
X-33.628 Y-9.218
X-33.686 Y-9.356
X-33.737 Y-9.499
X-33.779 Y-9.643
X-33.812 Y-9.789
X-33.836 Y-9.937
X-33.852 Y-10.091
X-33.859 Y-10.241
X-33.856 Y-10.391
X-33.8 Y-10.712
X-33.685 Y-11.016
X-33.515 Y-11.295
X-33.298 Y-11.536
X-33.039 Y-11.734
X-32.748 Y-11.88
X-32.435 Y-11.97
X-32.111 Y-12
X-31.372
G3 X-30.809 Y-11.26 I-0.021 J0.6
G1 X-31.485 Y-8.459
G3 X-32.047 Y-8 I-0.583 J-0.141
G1 X-32.792
X-32.941 Y-8.007
X-33.089 Y-8.032
X-33.233 Y-8.075
X-33.372 Y-8.131
X-33.505 Y-8.201
X-33.632 Y-8.281
X-33.752 Y-8.371
X-33.865 Y-8.469
X-33.971 Y-8.575
X-34.07 Y-8.688
X-34.161 Y-8.807
X-34.245 Y-8.932
X-34.321 Y-9.061
X-34.39 Y-9.194
X-34.449 Y-9.332
X-34.501 Y-9.473
X-34.544 Y-9.617
X-34.578 Y-9.763
X-34.603 Y-9.911
X-34.62 Y-10.06
X-34.627 Y-10.209
X-34.625 Y-10.361
X-34.572 Y-10.687
X-34.459 Y-10.996
X-34.29 Y-11.28
X-34.071 Y-11.527
X-33.81 Y-11.728
X-33.516 Y-11.877
X-33.199 Y-11.969
X-32.87 Y-12
X-32.111
G3 X-31.549 Y-11.259 I-0.021 J0.6
G1 X-32.23 Y-8.458
G3 X-32.792 Y-8 I-0.583 J-0.142
G1 X-33.556
X-33.706 Y-8.007
X-33.854 Y-8.031
X-33.999 Y-8.073
X-34.138 Y-8.129
X-34.271 Y-8.197
X-34.398 Y-8.277
X-34.518 Y-8.366
X-34.632 Y-8.465
X-34.738 Y-8.57
X-34.837 Y-8.683
X-34.929 Y-8.802
X-35.013 Y-8.926
X-35.089 Y-9.056
X-35.157 Y-9.189
X-35.217 Y-9.327
X-35.268 Y-9.468
X-35.311 Y-9.611
X-35.345 Y-9.757
X-35.37 Y-9.905
X-35.387 Y-10.054
X-35.394 Y-10.204
X-35.393 Y-10.354
X-35.339 Y-10.681
X-35.226 Y-10.992
X-35.056 Y-11.277
X-34.837 Y-11.524
X-34.575 Y-11.727
X-34.279 Y-11.877
X-33.961 Y-11.969
X-33.631 Y-12
X-32.87
G3 X-32.308 Y-11.258 I-0.021 J0.6
G1 X-32.995 Y-8.457
G3 X-33.556 Y-8 I-0.583 J-0.143
G1 X-34.312
X-34.462 Y-8.007
X-34.61 Y-8.029
X-34.755 Y-8.069
X-34.895 Y-8.123
X-35.029 Y-8.191
X-35.156 Y-8.269
X-35.277 Y-8.358
X-35.391 Y-8.456
X-35.498 Y-8.561
X-35.598 Y-8.673
X-35.69 Y-8.791
X-35.774 Y-8.915
X-35.851 Y-9.044
X-35.92 Y-9.178
X-35.98 Y-9.315
X-36.032 Y-9.456
X-36.076 Y-9.599
X-36.11 Y-9.745
X-36.136 Y-9.893
X-36.153 Y-10.042
X-36.161 Y-10.192
X-36.16 Y-10.343
X-36.159 Y-10.353
X-36.107 Y-10.68
X-35.994 Y-10.991
X-35.825 Y-11.276
X-35.606 Y-11.524
X-35.345 Y-11.727
X-35.05 Y-11.877
X-34.732 Y-11.969
X-34.403 Y-12
X-33.631
G3 X-33.069 Y-11.259 I-0.021 J0.6
G1 X-33.75 Y-8.458
G3 X-34.312 Y-8 I-0.583 J-0.142
G1 X-35.118
X-35.267 Y-8.007
X-35.415 Y-8.034
X-35.558 Y-8.078
X-35.697 Y-8.136
X-35.829 Y-8.207
X-35.955 Y-8.288
X-36.074 Y-8.379
X-36.186 Y-8.479
X-36.291 Y-8.586
X-36.389 Y-8.7
X-36.479 Y-8.82
X-36.561 Y-8.945
X-36.636 Y-9.075
X-36.703 Y-9.21
X-36.762 Y-9.35
X-36.812 Y-9.492
X-36.853 Y-9.636
X-36.885 Y-9.785
X-36.909 Y-9.933
X-36.924 Y-10.082
X-36.929 Y-10.233
X-36.926 Y-10.383
X-36.923 Y-10.417
X-36.868 Y-10.733
X-36.755 Y-11.032
X-36.589 Y-11.306
X-36.375 Y-11.544
X-36.12 Y-11.738
X-35.835 Y-11.882
X-35.527 Y-11.97
X-35.208 Y-12
X-34.403
G3 X-33.842 Y-11.252 I-0.021 J0.6
G1 X-34.557 Y-8.451
G3 X-35.118 Y-8 I-0.581 J-0.148
G1 X-35.873
X-36.023 Y-8.007
X-36.171 Y-8.032
X-36.315 Y-8.075
X-36.454 Y-8.132
X-36.587 Y-8.201
X-36.713 Y-8.282
X-36.833 Y-8.372
X-36.946 Y-8.471
X-37.051 Y-8.578
X-37.149 Y-8.691
X-37.24 Y-8.81
X-37.323 Y-8.935
X-37.398 Y-9.065
X-37.466 Y-9.199
X-37.525 Y-9.337
X-37.576 Y-9.478
X-37.619 Y-9.622
X-37.653 Y-9.768
X-37.678 Y-9.917
X-37.695 Y-10.066
X-37.702 Y-10.216
X-37.701 Y-10.368
X-37.69 Y-10.518
X-37.61 Y-10.858
X-37.461 Y-11.175
X-37.251 Y-11.455
X-36.987 Y-11.686
X-36.683 Y-11.858
X-36.349 Y-11.964
X-36.001 Y-12
X-35.208
G3 X-34.645 Y-11.262 I-0.021 J0.6
G1 X-35.31 Y-8.461
G3 X-35.873 Y-8 I-0.584 J-0.139
G1 X-36.618
X-36.768 Y-8.007
X-36.916 Y-8.029
X-37.061 Y-8.069
X-37.2 Y-8.123
X-37.334 Y-8.191
X-37.462 Y-8.27
X-37.583 Y-8.359
X-37.697 Y-8.456
X-37.804 Y-8.561
X-37.903 Y-8.673
X-37.996 Y-8.792
X-38.08 Y-8.916
X-38.157 Y-9.044
X-38.226 Y-9.177
X-38.288 Y-9.314
X-38.341 Y-9.454
X-38.387 Y-9.603
X-38.423 Y-9.749
X-38.451 Y-9.896
X-38.469 Y-10.049
X-38.478 Y-10.199
X-38.479 Y-10.349
X-38.427 Y-10.676
X-38.315 Y-10.988
X-38.147 Y-11.274
X-37.928 Y-11.522
X-37.666 Y-11.726
X-37.371 Y-11.876
X-37.053 Y-11.969
X-36.723 Y-12
X-36.001
G3 X-35.436 Y-11.271 I-0.021 J0.6
G1 X-36.053 Y-8.471
G3 X-36.618 Y-8 I-0.586 J-0.129
G1 X-37.423
X-37.573 Y-8.007
X-37.721 Y-8.034
X-37.864 Y-8.078
X-38.002 Y-8.136
X-38.135 Y-8.206
X-38.261 Y-8.288
X-38.38 Y-8.378
X-38.493 Y-8.478
X-38.598 Y-8.584
X-38.697 Y-8.698
X-38.787 Y-8.817
X-38.871 Y-8.942
X-38.946 Y-9.071
X-39.014 Y-9.205
X-39.073 Y-9.344
X-39.124 Y-9.486
X-39.167 Y-9.63
X-39.2 Y-9.777
X-39.224 Y-9.925
X-39.24 Y-10.074
X-39.246 Y-10.224
X-39.243 Y-10.374
X-39.188 Y-10.697
X-39.074 Y-11.005
X-38.905 Y-11.286
X-38.686 Y-11.531
X-38.426 Y-11.731
X-38.133 Y-11.879
X-37.817 Y-11.969
X-37.491 Y-12
X-36.723
G3 X-36.162 Y-11.255 I-0.021 J0.6
G1 X-36.862 Y-8.454
G3 X-37.423 Y-8 I-0.582 J-0.146
G1 X-38.188
X-38.338 Y-8.007
X-38.486 Y-8.033
X-38.629 Y-8.076
X-38.768 Y-8.133
X-38.901 Y-8.202
X-39.027 Y-8.283
X-39.147 Y-8.373
X-39.26 Y-8.472
X-39.366 Y-8.579
X-39.464 Y-8.692
X-39.555 Y-8.811
X-39.638 Y-8.936
X-39.714 Y-9.066
X-39.781 Y-9.199
X-39.84 Y-9.337
X-39.891 Y-9.479
X-39.934 Y-9.622
X-39.967 Y-9.769
X-39.991 Y-9.917
X-40.007 Y-10.066
X-40.014 Y-10.216
X-40.011 Y-10.366
X-39.957 Y-10.691
X-39.843 Y-11
X-39.674 Y-11.282
X-39.454 Y-11.528
X-39.193 Y-11.729
X-38.899 Y-11.878
X-38.583 Y-11.969
X-38.255 Y-12
X-37.491
G3 X-36.929 Y-11.255 I-0.021 J0.6
G1 X-37.627 Y-8.455
G3 X-38.188 Y-8 I-0.582 J-0.145
G1 X-38.944
X-39.093 Y-8.007
X-39.242 Y-8.031
X-39.386 Y-8.072
X-39.525 Y-8.127
X-39.659 Y-8.196
X-39.786 Y-8.275
X-39.906 Y-8.365
X-40.02 Y-8.463
X-40.126 Y-8.569
X-40.225 Y-8.682
X-40.316 Y-8.801
X-40.4 Y-8.925
X-40.476 Y-9.054
X-40.544 Y-9.188
X-40.604 Y-9.326
X-40.655 Y-9.466
X-40.698 Y-9.61
X-40.732 Y-9.756
X-40.757 Y-9.904
X-40.774 Y-10.053
X-40.781 Y-10.203
X-40.779 Y-10.354
X-40.778 Y-10.371
X-40.725 Y-10.695
X-40.613 Y-11.003
X-40.445 Y-11.284
X-40.227 Y-11.529
X-39.968 Y-11.73
X-39.676 Y-11.878
X-39.361 Y-11.969
X-39.034 Y-12
X-38.255
G3 X-37.693 Y-11.257 I-0.021 J0.6
G1 X-38.382 Y-8.456
G3 X-38.944 Y-8 I-0.583 J-0.143
G1 X-39.749
X-39.899 Y-8.007
X-40.046 Y-8.036
X-40.189 Y-8.081
X-40.327 Y-8.14
X-40.459 Y-8.212
X-40.584 Y-8.294
X-40.703 Y-8.386
X-40.814 Y-8.486
X-40.919 Y-8.594
X-41.016 Y-8.708
X-41.105 Y-8.829
X-41.187 Y-8.954
X-41.262 Y-9.085
X-41.328 Y-9.219
X-41.386 Y-9.361
X-41.436 Y-9.502
X-41.477 Y-9.647
X-41.509 Y-9.796
X-41.532 Y-9.944
X-41.546 Y-10.093
X-41.551 Y-10.243
X-41.547 Y-10.393
X-41.491 Y-10.714
X-41.376 Y-11.018
X-41.206 Y-11.296
X-40.988 Y-11.537
X-40.73 Y-11.734
X-40.439 Y-11.88
X-40.126 Y-11.97
X-39.802 Y-12
X-39.034
G3 X-38.474 Y-11.252 I-0.021 J0.6
G1 X-39.189 Y-8.451
G3 X-39.749 Y-8 I-0.581 J-0.148
G1 X-40.505
X-40.654 Y-8.007
X-40.802 Y-8.034
X-40.946 Y-8.078
X-41.084 Y-8.135
X-41.216 Y-8.206
X-41.342 Y-8.287
X-41.462 Y-8.378
X-41.574 Y-8.478
X-41.679 Y-8.585
X-41.777 Y-8.699
X-41.867 Y-8.818
X-41.95 Y-8.944
X-42.025 Y-9.073
X-42.092 Y-9.208
X-42.15 Y-9.346
X-42.2 Y-9.487
X-42.242 Y-9.631
X-42.275 Y-9.778
X-42.299 Y-9.926
X-42.315 Y-10.075
X-42.321 Y-10.225
X-42.318 Y-10.375
X-42.263 Y-10.699
X-42.149 Y-11.006
X-41.98 Y-11.287
X-41.761 Y-11.531
X-41.501 Y-11.731
X-41.208 Y-11.879
X-40.893 Y-11.969
X-40.567 Y-12
X-39.802
G3 X-39.241 Y-11.254 I-0.021 J0.6
G1 X-39.944 Y-8.454
G3 X-40.505 Y-8 I-0.582 J-0.146
G1 X-41.249
X-41.399 Y-8.007
X-41.547 Y-8.031
X-41.692 Y-8.071
X-41.831 Y-8.127
X-41.964 Y-8.195
X-42.092 Y-8.275
X-42.212 Y-8.364
X-42.326 Y-8.462
X-42.432 Y-8.568
X-42.531 Y-8.681
X-42.622 Y-8.8
X-42.706 Y-8.924
X-42.782 Y-9.053
X-42.851 Y-9.187
X-42.91 Y-9.324
X-42.962 Y-9.465
X-43.005 Y-9.609
X-43.039 Y-9.755
X-43.065 Y-9.903
X-43.082 Y-10.052
X-43.089 Y-10.202
X-43.087 Y-10.353
X-43.034 Y-10.68
X-42.921 Y-10.991
X-42.751 Y-11.276
X-42.532 Y-11.524
X-42.27 Y-11.727
X-41.974 Y-11.877
X-41.656 Y-11.969
X-41.326 Y-12
X-40.567
G3 X-40.005 Y-11.258 I-0.021 J0.6
G1 X-40.687 Y-8.458
G3 X-41.249 Y-8 I-0.583 J-0.142
G1 X-42.055
X-42.205 Y-8.007
X-42.352 Y-8.036
X-42.495 Y-8.08
X-42.633 Y-8.14
X-42.765 Y-8.211
X-42.89 Y-8.293
X-43.009 Y-8.385
X-43.121 Y-8.485
X-43.225 Y-8.593
X-43.322 Y-8.707
X-43.412 Y-8.828
X-43.494 Y-8.953
X-43.568 Y-9.083
X-43.634 Y-9.218
X-43.693 Y-9.359
X-43.742 Y-9.5
X-43.783 Y-9.645
X-43.815 Y-9.794
X-43.838 Y-9.942
X-43.852 Y-10.091
X-43.857 Y-10.242
X-43.853 Y-10.392
X-43.795 Y-10.713
X-43.679 Y-11.017
X-43.509 Y-11.295
X-43.291 Y-11.537
X-43.031 Y-11.734
X-42.74 Y-11.88
X-42.427 Y-11.97
X-42.102 Y-12
X-41.326
G3 X-40.766 Y-11.249 I-0.021 J0.6
G1 X-41.495 Y-8.449
G3 X-42.055 Y-8 I-0.581 J-0.151
G1 X-42.819
X-42.969 Y-8.007
X-43.117 Y-8.035
X-43.26 Y-8.079
X-43.398 Y-8.138
X-43.53 Y-8.209
X-43.656 Y-8.291
X-43.775 Y-8.382
X-43.887 Y-8.482
X-43.991 Y-8.59
X-44.088 Y-8.704
X-44.178 Y-8.824
X-44.26 Y-8.95
X-44.335 Y-9.08
X-44.401 Y-9.214
X-44.459 Y-9.353
X-44.509 Y-9.494
X-44.55 Y-9.639
X-44.582 Y-9.785
X-44.606 Y-9.933
X-44.621 Y-10.083
X-44.626 Y-10.232
X-44.623 Y-10.382
X-44.566 Y-10.705
X-44.452 Y-11.011
X-44.282 Y-11.29
X-44.063 Y-11.534
X-43.804 Y-11.732
X-43.511 Y-11.879
X-43.197 Y-11.97
X-42.872 Y-12
X-42.102
G3 X-41.542 Y-11.252 I-0.021 J0.6
G1 X-42.259 Y-8.451
G3 X-42.819 Y-8 I-0.581 J-0.149
G1 X-43.575
X-43.725 Y-8.007
X-43.873 Y-8.033
X-44.016 Y-8.076
X-44.155 Y-8.134
X-44.288 Y-8.204
X-44.414 Y-8.285
X-44.533 Y-8.375
X-44.646 Y-8.474
X-44.751 Y-8.581
X-44.849 Y-8.695
X-44.94 Y-8.815
X-45.022 Y-8.94
X-45.098 Y-9.069
X-45.165 Y-9.203
X-45.223 Y-9.342
X-45.274 Y-9.483
X-45.316 Y-9.627
X-45.349 Y-9.773
X-45.373 Y-9.921
X-45.389 Y-10.07
X-45.395 Y-10.22
X-45.392 Y-10.371
X-45.39 Y-10.399
X-45.336 Y-10.718
X-45.224 Y-11.021
X-45.057 Y-11.297
X-44.842 Y-11.538
X-44.586 Y-11.735
X-44.298 Y-11.88
X-43.987 Y-11.97
X-43.666 Y-12
X-42.872
G3 X-42.311 Y-11.254 I-0.021 J0.6
G1 X-43.014 Y-8.453
G3 X-43.575 Y-8 I-0.582 J-0.146
G1 X-44.331
X-44.481 Y-8.007
X-44.629 Y-8.031
X-44.773 Y-8.073
X-44.912 Y-8.129
X-45.045 Y-8.198
X-45.172 Y-8.278
X-45.292 Y-8.368
X-45.405 Y-8.466
X-45.511 Y-8.573
X-45.61 Y-8.686
X-45.701 Y-8.805
X-45.784 Y-8.929
X-45.86 Y-9.059
X-45.928 Y-9.193
X-45.987 Y-9.33
X-46.039 Y-9.471
X-46.082 Y-9.615
X-46.116 Y-9.761
X-46.142 Y-9.909
X-46.159 Y-10.058
X-46.166 Y-10.208
X-46.165 Y-10.36
X-46.155 Y-10.509
X-46.075 Y-10.852
X-45.926 Y-11.17
X-45.715 Y-11.451
X-45.45 Y-11.684
X-45.144 Y-11.857
X-44.81 Y-11.964
X-44.46 Y-12
X-43.666
G3 X-43.103 Y-11.262 I-0.021 J0.6
G1 X-43.768 Y-8.461
G3 X-44.331 Y-8 I-0.584 J-0.139
G1 X-45.109
X-45.259 Y-8.007
X-45.406 Y-8.033
X-45.55 Y-8.075
X-45.689 Y-8.133
X-45.822 Y-8.202
X-45.948 Y-8.283
X-46.068 Y-8.374
X-46.181 Y-8.472
X-46.286 Y-8.579
X-46.384 Y-8.692
X-46.475 Y-8.812
X-46.559 Y-8.936
X-46.634 Y-9.066
X-46.702 Y-9.2
X-46.762 Y-9.337
X-46.814 Y-9.478
X-46.857 Y-9.625
X-46.892 Y-9.771
X-46.918 Y-9.918
X-46.935 Y-10.073
X-46.943 Y-10.223
X-46.942 Y-10.373
X-46.887 Y-10.696
X-46.773 Y-11.004
X-46.604 Y-11.285
X-46.386 Y-11.53
X-46.126 Y-11.73
X-45.833 Y-11.878
X-45.518 Y-11.969
X-45.191 Y-12
X-44.46
G3 X-43.896 Y-11.265 I-0.021 J0.6
G1 X-44.545 Y-8.464
G3 X-45.109 Y-8 I-0.585 J-0.135
G1 X-45.881
X-46.031 Y-8.007
X-46.178 Y-8.033
X-46.322 Y-8.076
X-46.461 Y-8.133
X-46.594 Y-8.203
X-46.72 Y-8.284
X-46.84 Y-8.374
X-46.953 Y-8.473
X-47.058 Y-8.579
X-47.157 Y-8.692
X-47.248 Y-8.812
X-47.331 Y-8.936
X-47.407 Y-9.066
X-47.476 Y-9.199
X-47.535 Y-9.337
X-47.586 Y-9.478
X-47.629 Y-9.622
X-47.662 Y-9.768
X-47.687 Y-9.916
X-47.704 Y-10.065
X-47.71 Y-10.215
X-47.708 Y-10.365
X-47.655 Y-10.69
X-47.541 Y-10.999
X-47.372 Y-11.282
X-47.153 Y-11.528
X-46.892 Y-11.729
X-46.598 Y-11.878
X-46.282 Y-11.969
X-45.954 Y-12
X-45.191
G3 X-44.629 Y-11.257 I-0.021 J0.6
G1 X-45.319 Y-8.456
G3 X-45.881 Y-8 I-0.583 J-0.143
G1 X-46.645
X-46.795 Y-8.007
X-46.943 Y-8.032
X-47.087 Y-8.074
X-47.226 Y-8.13
X-47.359 Y-8.199
X-47.486 Y-8.28
X-47.606 Y-8.369
X-47.72 Y-8.468
X-47.826 Y-8.574
X-47.924 Y-8.687
X-48.015 Y-8.806
X-48.099 Y-8.931
X-48.175 Y-9.06
X-48.243 Y-9.194
X-48.302 Y-9.332
X-48.353 Y-9.472
X-48.396 Y-9.616
X-48.43 Y-9.762
X-48.455 Y-9.91
X-48.471 Y-10.059
X-48.478 Y-10.209
X-48.476 Y-10.359
X-48.422 Y-10.685
X-48.308 Y-10.996
X-48.139 Y-11.279
X-47.919 Y-11.526
X-47.658 Y-11.728
X-47.363 Y-11.877
X-47.046 Y-11.969
X-46.717 Y-12
X-45.954
G3 X-45.392 Y-11.257 I-0.021 J0.6
G1 X-46.084 Y-8.456
G3 X-46.645 Y-8 I-0.582 J-0.144
G1 X-47.401
X-47.551 Y-8.007
X-47.699 Y-8.03
X-47.844 Y-8.07
X-47.983 Y-8.125
X-48.117 Y-8.193
X-48.245 Y-8.272
X-48.365 Y-8.361
X-48.479 Y-8.459
X-48.586 Y-8.564
X-48.685 Y-8.677
X-48.777 Y-8.796
X-48.861 Y-8.92
X-48.937 Y-9.049
X-49.006 Y-9.182
X-49.066 Y-9.32
X-49.117 Y-9.461
X-49.161 Y-9.604
X-49.195 Y-9.75
X-49.22 Y-9.898
X-49.237 Y-10.047
X-49.245 Y-10.197
X-49.243 Y-10.348
X-49.242 Y-10.361
X-49.19 Y-10.687
X-49.077 Y-10.996
X-48.909 Y-11.28
X-48.691 Y-11.526
X-48.43 Y-11.728
X-48.136 Y-11.877
X-47.82 Y-11.969
X-47.492 Y-12
X-46.717
G3 X-46.155 Y-11.258 I-0.021 J0.6
G1 X-46.839 Y-8.457
G3 X-47.401 Y-8 I-0.583 J-0.142
G1 X-48.207
X-48.356 Y-8.007
X-48.504 Y-8.035
X-48.647 Y-8.079
X-48.785 Y-8.138
X-48.917 Y-8.209
X-49.043 Y-8.291
X-49.162 Y-8.382
X-49.274 Y-8.482
X-49.378 Y-8.59
X-49.476 Y-8.704
X-49.566 Y-8.824
X-49.648 Y-8.949
X-49.722 Y-9.079
X-49.789 Y-9.214
X-49.848 Y-9.355
X-49.897 Y-9.497
X-49.939 Y-9.641
X-49.971 Y-9.79
X-49.994 Y-9.938
X-50.009 Y-10.087
X-50.014 Y-10.238
X-50.01 Y-10.387
X-50.007 Y-10.423
X-49.939 Y-10.781
X-49.797 Y-11.117
X-49.588 Y-11.415
X-49.32 Y-11.662
X-49.006 Y-11.847
X-48.66 Y-11.961
X-48.297 Y-12
X-47.492
G3 X-46.931 Y-11.252 I-0.021 J0.6
G1 X-47.646 Y-8.451
G3 X-48.207 Y-8 I-0.581 J-0.148
G1 X-48.962
X-49.112 Y-8.007
X-49.26 Y-8.033
X-49.404 Y-8.076
X-49.542 Y-8.133
X-49.675 Y-8.203
X-49.801 Y-8.284
X-49.921 Y-8.375
X-50.033 Y-8.474
X-50.139 Y-8.581
X-50.237 Y-8.694
X-50.327 Y-8.814
X-50.41 Y-8.939
X-50.485 Y-9.069
X-50.553 Y-9.203
X-50.611 Y-9.341
X-50.664 Y-9.489
X-50.707 Y-9.632
X-50.74 Y-9.779
X-50.765 Y-9.931
X-50.781 Y-10.08
X-50.788 Y-10.23
X-50.785 Y-10.38
X-50.73 Y-10.702
X-50.615 Y-11.009
X-50.446 Y-11.289
X-50.227 Y-11.533
X-49.968 Y-11.732
X-49.675 Y-11.879
X-49.361 Y-11.969
X-49.035 Y-12
X-48.297
G3 X-47.734 Y-11.262 I-0.021 J0.6
G1 X-48.399 Y-8.461
G3 X-48.962 Y-8 I-0.584 J-0.139
G1 X-49.707
X-49.857 Y-8.007
X-50.005 Y-8.03
X-50.149 Y-8.07
X-50.289 Y-8.125
X-50.423 Y-8.193
X-50.55 Y-8.272
X-50.671 Y-8.361
X-50.785 Y-8.459
X-50.891 Y-8.564
X-50.991 Y-8.677
X-51.083 Y-8.795
X-51.167 Y-8.919
X-51.244 Y-9.048
X-51.313 Y-9.181
X-51.373 Y-9.318
X-51.425 Y-9.459
X-51.469 Y-9.603
X-51.504 Y-9.748
X-51.53 Y-9.896
X-51.547 Y-10.045
X-51.555 Y-10.195
X-51.554 Y-10.347
X-51.502 Y-10.675
X-51.389 Y-10.987
X-51.22 Y-11.273
X-51 Y-11.522
X-50.737 Y-11.726
X-50.441 Y-11.876
X-50.123 Y-11.969
X-49.792 Y-12
X-49.035
G3 X-48.472 Y-11.26 I-0.021 J0.6
G1 X-49.144 Y-8.46
G3 X-49.707 Y-8 I-0.583 J-0.14
G1 X-50.512
X-50.662 Y-8.007
X-50.81 Y-8.035
X-50.953 Y-8.079
X-51.091 Y-8.137
X-51.223 Y-8.208
X-51.349 Y-8.29
X-51.468 Y-8.381
X-51.58 Y-8.481
X-51.685 Y-8.588
X-51.783 Y-8.702
X-51.873 Y-8.822
X-51.955 Y-8.947
X-52.03 Y-9.077
X-52.097 Y-9.212
X-52.156 Y-9.352
X-52.206 Y-9.493
X-52.247 Y-9.637
X-52.279 Y-9.786
X-52.303 Y-9.934
X-52.317 Y-10.084
X-52.322 Y-10.234
X-52.319 Y-10.384
X-52.262 Y-10.706
X-52.147 Y-11.012
X-51.977 Y-11.292
X-51.758 Y-11.534
X-51.498 Y-11.733
X-51.206 Y-11.879
X-50.891 Y-11.97
X-50.566 Y-12
X-49.792
G3 X-49.232 Y-11.251 I-0.021 J0.6
G1 X-49.952 Y-8.45
G3 X-50.512 Y-8 I-0.581 J-0.149
G1 X-51.277
X-51.427 Y-8.007
X-51.574 Y-8.034
X-51.718 Y-8.078
X-51.856 Y-8.135
X-51.989 Y-8.206
X-52.115 Y-8.287
X-52.234 Y-8.378
X-52.346 Y-8.478
X-52.451 Y-8.585
X-52.549 Y-8.699
X-52.639 Y-8.818
X-52.722 Y-8.944
X-52.797 Y-9.074
X-52.864 Y-9.208
X-52.922 Y-9.346
X-52.972 Y-9.487
X-53.014 Y-9.632
X-53.046 Y-9.778
X-53.07 Y-9.926
X-53.085 Y-10.075
X-53.091 Y-10.225
X-53.088 Y-10.375
X-53.033 Y-10.699
X-52.918 Y-11.006
X-52.748 Y-11.287
X-52.529 Y-11.531
X-52.269 Y-11.731
X-51.976 Y-11.879
X-51.661 Y-11.969
X-51.334 Y-12
X-50.566
G3 X-50.005 Y-11.253 I-0.021 J0.6
G1 X-50.716 Y-8.452
G3 X-51.277 Y-8 I-0.582 J-0.148
G1 X-52.033
X-52.182 Y-8.007
X-52.33 Y-8.032
X-52.474 Y-8.074
X-52.613 Y-8.131
X-52.746 Y-8.2
X-52.873 Y-8.281
X-52.993 Y-8.371
X-53.106 Y-8.47
X-53.211 Y-8.576
X-53.31 Y-8.689
X-53.401 Y-8.809
X-53.484 Y-8.934
X-53.559 Y-9.063
X-53.627 Y-9.197
X-53.686 Y-9.335
X-53.737 Y-9.476
X-53.779 Y-9.62
X-53.812 Y-9.766
X-53.837 Y-9.914
X-53.853 Y-10.063
X-53.859 Y-10.213
X-53.857 Y-10.364
X-53.855 Y-10.389
X-53.802 Y-10.709
X-53.689 Y-11.014
X-53.522 Y-11.292
X-53.306 Y-11.535
X-53.049 Y-11.733
X-52.759 Y-11.88
X-52.447 Y-11.97
X-52.123 Y-12
X-51.334
G3 X-50.773 Y-11.255 I-0.021 J0.6
G1 X-51.471 Y-8.454
G3 X-52.033 Y-8 I-0.582 J-0.145
G1 X-52.788
X-52.938 Y-8.007
X-53.086 Y-8.03
X-53.231 Y-8.071
X-53.37 Y-8.127
X-53.504 Y-8.195
X-53.631 Y-8.274
X-53.751 Y-8.364
X-53.865 Y-8.462
X-53.971 Y-8.568
X-54.07 Y-8.68
X-54.162 Y-8.799
X-54.245 Y-8.924
X-54.322 Y-9.053
X-54.39 Y-9.186
X-54.449 Y-9.324
X-54.501 Y-9.465
X-54.545 Y-9.608
X-54.579 Y-9.754
X-54.605 Y-9.902
X-54.622 Y-10.051
X-54.63 Y-10.201
X-54.629 Y-10.353
X-54.619 Y-10.503
X-54.539 Y-10.846
X-54.389 Y-11.166
X-54.178 Y-11.449
X-53.913 Y-11.682
X-53.606 Y-11.856
X-53.27 Y-11.964
X-52.919 Y-12
X-52.123
G3 X-51.56 Y-11.262 I-0.021 J0.6
G1 X-52.225 Y-8.461
G3 X-52.788 Y-8 I-0.584 J-0.139
G1 X-53.594
X-53.744 Y-8.007
X-53.891 Y-8.035
X-54.034 Y-8.08
X-54.172 Y-8.14
X-54.304 Y-8.211
X-54.429 Y-8.293
X-54.548 Y-8.385
X-54.66 Y-8.485
X-54.764 Y-8.593
X-54.861 Y-8.707
X-54.951 Y-8.827
X-55.033 Y-8.953
X-55.108 Y-9.083
X-55.175 Y-9.217
X-55.234 Y-9.355
X-55.284 Y-9.498
X-55.326 Y-9.642
X-55.36 Y-9.788
X-55.384 Y-9.936
X-55.399 Y-10.09
X-55.406 Y-10.24
X-55.404 Y-10.39
X-55.347 Y-10.711
X-55.232 Y-11.016
X-55.063 Y-11.294
X-54.845 Y-11.536
X-54.586 Y-11.734
X-54.295 Y-11.88
X-53.982 Y-11.97
X-53.658 Y-12
X-52.919
G3 X-52.356 Y-11.26 I-0.021 J0.6
G1 X-53.031 Y-8.459
G3 X-53.594 Y-8 I-0.583 J-0.141
G1 X-54.338
X-54.488 Y-8.007
X-54.636 Y-8.032
X-54.78 Y-8.074
X-54.919 Y-8.131
X-55.052 Y-8.2
X-55.179 Y-8.28
X-55.299 Y-8.37
X-55.412 Y-8.469
X-55.518 Y-8.575
X-55.617 Y-8.687
X-55.708 Y-8.806
X-55.792 Y-8.931
X-55.868 Y-9.06
X-55.937 Y-9.194
X-55.996 Y-9.331
X-56.048 Y-9.472
X-56.091 Y-9.616
X-56.125 Y-9.762
X-56.15 Y-9.91
X-56.167 Y-10.059
X-56.175 Y-10.208
X-56.173 Y-10.36
X-56.12 Y-10.686
X-56.006 Y-10.996
X-55.837 Y-11.279
X-55.618 Y-11.526
X-55.357 Y-11.728
X-55.063 Y-11.877
X-54.746 Y-11.969
X-54.417 Y-12
X-53.658
G3 X-53.096 Y-11.259 I-0.021 J0.6
G1 X-53.776 Y-8.458
G3 X-54.338 Y-8 I-0.583 J-0.142
G1 X-55.103
X-55.253 Y-8.007
X-55.401 Y-8.031
X-55.545 Y-8.072
X-55.684 Y-8.128
X-55.818 Y-8.197
X-55.945 Y-8.276
X-56.065 Y-8.366
X-56.179 Y-8.464
X-56.285 Y-8.57
X-56.384 Y-8.683
X-56.476 Y-8.801
X-56.56 Y-8.926
X-56.636 Y-9.055
X-56.704 Y-9.188
X-56.764 Y-9.326
X-56.815 Y-9.467
X-56.859 Y-9.61
X-56.892 Y-9.757
X-56.918 Y-9.904
X-56.935 Y-10.054
X-56.942 Y-10.203
X-56.94 Y-10.353
X-56.887 Y-10.68
X-56.773 Y-10.992
X-56.604 Y-11.276
X-56.384 Y-11.524
X-56.122 Y-11.727
X-55.827 Y-11.877
X-55.508 Y-11.969
X-55.178 Y-12
X-54.417
G3 X-53.855 Y-11.258 I-0.021 J0.6
G1 X-54.541 Y-8.457
G3 X-55.103 Y-8 I-0.583 J-0.143
G1 X-55.859
X-56.009 Y-8.007
X-56.157 Y-8.029
X-56.302 Y-8.068
X-56.441 Y-8.123
X-56.575 Y-8.19
X-56.703 Y-8.269
X-56.824 Y-8.358
X-56.938 Y-8.455
X-57.045 Y-8.56
X-57.145 Y-8.672
X-57.237 Y-8.791
X-57.321 Y-8.915
X-57.398 Y-9.044
X-57.467 Y-9.177
X-57.527 Y-9.314
X-57.579 Y-9.455
X-57.623 Y-9.598
X-57.657 Y-9.744
X-57.683 Y-9.892
X-57.7 Y-10.041
X-57.708 Y-10.191
X-57.707 Y-10.342
X-57.706 Y-10.352
X-57.654 Y-10.679
X-57.542 Y-10.991
X-57.373 Y-11.275
X-57.154 Y-11.524
X-56.892 Y-11.726
X-56.597 Y-11.877
X-56.279 Y-11.969
X-55.949 Y-12
X-55.178
G3 X-54.616 Y-11.259 I-0.021 J0.6
G1 X-55.297 Y-8.458
G3 X-55.859 Y-8 I-0.583 J-0.142
G1 X-56.664
X-56.814 Y-8.007
X-56.962 Y-8.034
X-57.105 Y-8.078
X-57.243 Y-8.136
X-57.376 Y-8.206
X-57.502 Y-8.288
X-57.621 Y-8.379
X-57.733 Y-8.478
X-57.838 Y-8.586
X-57.936 Y-8.7
X-58.026 Y-8.819
X-58.108 Y-8.945
X-58.183 Y-9.075
X-58.25 Y-9.209
X-58.309 Y-9.35
X-58.359 Y-9.491
X-58.4 Y-9.635
X-58.433 Y-9.784
X-58.456 Y-9.932
X-58.471 Y-10.081
X-58.476 Y-10.232
X-58.473 Y-10.382
X-58.47 Y-10.417
X-58.415 Y-10.732
X-58.302 Y-11.032
X-58.136 Y-11.305
X-57.922 Y-11.544
X-57.668 Y-11.738
X-57.381 Y-11.882
X-57.074 Y-11.97
X-56.755 Y-12
X-55.949
G3 X-55.389 Y-11.252 I-0.021 J0.6
G1 X-56.104 Y-8.451
G3 X-56.664 Y-8 I-0.581 J-0.148
G1 X-57.42
X-57.57 Y-8.007
X-57.718 Y-8.032
X-57.861 Y-8.075
X-58 Y-8.131
X-58.133 Y-8.201
X-58.26 Y-8.281
X-58.38 Y-8.372
X-58.492 Y-8.471
X-58.598 Y-8.577
X-58.696 Y-8.69
X-58.787 Y-8.81
X-58.87 Y-8.935
X-58.945 Y-9.064
X-59.013 Y-9.198
X-59.072 Y-9.336
X-59.123 Y-9.477
X-59.166 Y-9.621
X-59.2 Y-9.767
X-59.225 Y-9.917
X-59.242 Y-10.066
X-59.25 Y-10.215
X-59.248 Y-10.368
X-59.238 Y-10.517
X-59.157 Y-10.858
X-59.008 Y-11.175
X-58.798 Y-11.455
X-58.535 Y-11.685
X-58.23 Y-11.858
X-57.896 Y-11.964
X-57.548 Y-12
X-56.755
G3 X-56.192 Y-11.262 I-0.021 J0.6
G1 X-56.857 Y-8.461
G3 X-57.42 Y-8 I-0.584 J-0.139
G1 X-58.198
X-58.348 Y-8.007
X-58.495 Y-8.034
X-58.639 Y-8.077
X-58.777 Y-8.135
X-58.91 Y-8.205
X-59.036 Y-8.286
X-59.155 Y-8.377
X-59.268 Y-8.477
X-59.373 Y-8.583
X-59.471 Y-8.697
X-59.562 Y-8.817
X-59.645 Y-8.942
X-59.72 Y-9.071
X-59.788 Y-9.205
X-59.848 Y-9.343
X-59.899 Y-9.484
X-59.942 Y-9.631
X-59.977 Y-9.777
X-60.002 Y-9.924
X-60.019 Y-10.079
X-60.026 Y-10.229
X-60.025 Y-10.379
X-59.971 Y-10.701
X-59.857 Y-11.008
X-59.688 Y-11.288
X-59.47 Y-11.532
X-59.211 Y-11.731
X-58.919 Y-11.879
X-58.604 Y-11.969
X-58.279 Y-12
X-57.548
G3 X-56.985 Y-11.265 I-0.021 J0.6
G1 X-57.634 Y-8.464
G3 X-58.198 Y-8 I-0.584 J-0.136
G1 X-58.97
X-59.12 Y-8.007
X-59.267 Y-8.034
X-59.411 Y-8.078
X-59.549 Y-8.135
X-59.682 Y-8.206
X-59.808 Y-8.287
X-59.927 Y-8.378
X-60.04 Y-8.477
X-60.145 Y-8.583
X-60.244 Y-8.697
X-60.335 Y-8.816
X-60.418 Y-8.941
X-60.494 Y-9.07
X-60.562 Y-9.204
X-60.62 Y-9.342
X-60.672 Y-9.483
X-60.714 Y-9.627
X-60.747 Y-9.773
X-60.772 Y-9.921
X-60.788 Y-10.07
X-60.795 Y-10.22
X-60.793 Y-10.37
X-60.739 Y-10.694
X-60.625 Y-11.002
X-60.456 Y-11.284
X-60.238 Y-11.529
X-59.977 Y-11.73
X-59.684 Y-11.878
X-59.368 Y-11.969
X-59.041 Y-12
X-58.279
G3 X-57.717 Y-11.257 I-0.021 J0.6
G1 X-58.408 Y-8.456
G3 X-58.97 Y-8 I-0.583 J-0.144
G1 X-59.735
X-59.884 Y-8.007
X-60.032 Y-8.033
X-60.176 Y-8.075
X-60.315 Y-8.132
X-60.448 Y-8.202
X-60.574 Y-8.282
X-60.694 Y-8.373
X-60.807 Y-8.471
X-60.913 Y-8.578
X-61.011 Y-8.691
X-61.102 Y-8.81
X-61.186 Y-8.935
X-61.261 Y-9.064
X-61.329 Y-9.198
X-61.388 Y-9.336
X-61.439 Y-9.477
X-61.482 Y-9.621
X-61.515 Y-9.767
X-61.54 Y-9.915
X-61.556 Y-10.064
X-61.563 Y-10.214
X-61.561 Y-10.364
X-61.507 Y-10.689
X-61.393 Y-10.999
X-61.223 Y-11.281
X-61.004 Y-11.528
X-60.743 Y-11.729
X-60.449 Y-11.878
X-60.132 Y-11.969
X-59.804 Y-12
X-59.041
G3 X-58.48 Y-11.256 I-0.021 J0.6
G1 X-59.173 Y-8.455
G3 X-59.735 Y-8 I-0.582 J-0.144
G1 X-60.49
X-60.64 Y-8.007
X-60.788 Y-8.031
X-60.933 Y-8.071
X-61.072 Y-8.127
X-61.206 Y-8.195
X-61.333 Y-8.275
X-61.453 Y-8.364
X-61.567 Y-8.462
X-61.673 Y-8.568
X-61.772 Y-8.68
X-61.864 Y-8.799
X-61.948 Y-8.923
X-62.024 Y-9.053
X-62.092 Y-9.186
X-62.152 Y-9.324
X-62.204 Y-9.465
X-62.247 Y-9.608
X-62.281 Y-9.754
X-62.306 Y-9.902
X-62.323 Y-10.051
X-62.33 Y-10.201
X-62.328 Y-10.352
X-62.327 Y-10.367
X-62.275 Y-10.691
X-62.162 Y-11
X-61.994 Y-11.282
X-61.776 Y-11.528
X-61.516 Y-11.729
X-61.223 Y-11.878
X-60.908 Y-11.969
X-60.581 Y-12
X-59.804
G3 X-59.242 Y-11.258 I-0.021 J0.6
G1 X-59.928 Y-8.457
G3 X-60.49 Y-8 I-0.583 J-0.143
G1 X-61.296
X-61.446 Y-8.007
X-61.593 Y-8.035
X-61.736 Y-8.08
X-61.874 Y-8.139
X-62.006 Y-8.211
X-62.131 Y-8.293
X-62.25 Y-8.385
X-62.362 Y-8.485
X-62.466 Y-8.592
X-62.563 Y-8.707
X-62.653 Y-8.827
X-62.735 Y-8.953
X-62.809 Y-9.083
X-62.876 Y-9.217
X-62.934 Y-9.359
X-62.984 Y-9.5
X-63.025 Y-9.645
X-63.057 Y-9.793
X-63.08 Y-9.942
X-63.095 Y-10.091
X-63.1 Y-10.241
X-63.096 Y-10.391
X-63.093 Y-10.428
X-63.025 Y-10.785
X-62.883 Y-11.12
X-62.674 Y-11.417
X-62.406 Y-11.663
X-62.093 Y-11.847
X-61.748 Y-11.961
X-61.386 Y-12
X-60.581
G3 X-60.02 Y-11.252 I-0.021 J0.6
G1 X-60.735 Y-8.451
G3 X-61.296 Y-8 I-0.581 J-0.148
G1 X-62.051
X-62.201 Y-8.007
X-62.349 Y-8.034
X-62.492 Y-8.077
X-62.631 Y-8.135
X-62.763 Y-8.205
X-62.89 Y-8.286
X-63.009 Y-8.377
X-63.121 Y-8.476
X-63.226 Y-8.583
X-63.324 Y-8.697
X-63.415 Y-8.817
X-63.497 Y-8.942
X-63.572 Y-9.072
X-63.64 Y-9.206
X-63.698 Y-9.344
X-63.751 Y-9.492
X-63.793 Y-9.636
X-63.827 Y-9.782
X-63.851 Y-9.934
X-63.867 Y-10.083
X-63.874 Y-10.233
X-63.872 Y-10.383
X-63.816 Y-10.705
X-63.701 Y-11.011
X-63.532 Y-11.291
X-63.314 Y-11.534
X-63.055 Y-11.732
X-62.763 Y-11.879
X-62.449 Y-11.97
X-62.123 Y-12
X-61.386
G3 X-60.823 Y-11.262 I-0.021 J0.6
G1 X-61.489 Y-8.461
G3 X-62.051 Y-8 I-0.584 J-0.139
G1 X-62.796
X-62.946 Y-8.007
X-63.094 Y-8.03
X-63.238 Y-8.071
X-63.378 Y-8.126
X-63.511 Y-8.194
X-63.639 Y-8.274
X-63.759 Y-8.363
X-63.873 Y-8.461
X-63.98 Y-8.566
X-64.079 Y-8.679
X-64.171 Y-8.798
X-64.255 Y-8.922
X-64.332 Y-9.051
X-64.4 Y-9.184
X-64.461 Y-9.321
X-64.513 Y-9.462
X-64.556 Y-9.605
X-64.591 Y-9.751
X-64.617 Y-9.899
X-64.634 Y-10.048
X-64.642 Y-10.198
X-64.641 Y-10.35
X-64.588 Y-10.677
X-64.475 Y-10.989
X-64.306 Y-11.274
X-64.087 Y-11.523
X-63.824 Y-11.726
X-63.529 Y-11.876
X-63.21 Y-11.969
X-62.88 Y-12
X-62.123
G3 X-61.561 Y-11.26 I-0.021 J0.6
G1 X-62.233 Y-8.46
G3 X-62.796 Y-8 I-0.583 J-0.14
G1 X-63.601
X-63.751 Y-8.007
X-63.899 Y-8.035
X-64.042 Y-8.08
X-64.18 Y-8.138
X-64.312 Y-8.21
X-64.438 Y-8.291
X-64.557 Y-8.383
X-64.669 Y-8.483
X-64.773 Y-8.59
X-64.871 Y-8.704
X-64.961 Y-8.824
X-65.043 Y-8.949
X-65.118 Y-9.079
X-65.184 Y-9.214
X-65.243 Y-9.354
X-65.293 Y-9.496
X-65.334 Y-9.64
X-65.366 Y-9.789
X-65.39 Y-9.937
X-65.404 Y-10.086
X-65.409 Y-10.237
X-65.406 Y-10.387
X-65.349 Y-10.708
X-65.233 Y-11.014
X-65.063 Y-11.293
X-64.845 Y-11.535
X-64.585 Y-11.733
X-64.293 Y-11.88
X-63.979 Y-11.97
X-63.654 Y-12
X-62.88
G3 X-62.32 Y-11.251 I-0.021 J0.6
G1 X-63.041 Y-8.45
G3 X-63.601 Y-8 I-0.581 J-0.15
G1 X-64.366
X-64.516 Y-8.007
X-64.663 Y-8.034
X-64.807 Y-8.078
X-64.945 Y-8.136
X-65.078 Y-8.207
X-65.203 Y-8.288
X-65.323 Y-8.38
X-65.435 Y-8.479
X-65.54 Y-8.586
X-65.637 Y-8.7
X-65.727 Y-8.82
X-65.81 Y-8.946
X-65.885 Y-9.076
X-65.951 Y-9.21
X-66.009 Y-9.348
X-66.059 Y-9.49
X-66.101 Y-9.634
X-66.133 Y-9.78
X-66.157 Y-9.928
X-66.173 Y-10.077
X-66.178 Y-10.227
X-66.175 Y-10.377
X-66.12 Y-10.7
X-66.005 Y-11.007
X-65.835 Y-11.288
X-65.617 Y-11.532
X-65.356 Y-11.731
X-65.064 Y-11.879
X-64.749 Y-11.969
X-64.422 Y-12
X-63.654
G3 X-63.094 Y-11.253 I-0.021 J0.6
G1 X-63.806 Y-8.452
G3 X-64.366 Y-8 I-0.582 J-0.148
G1 X-65.122
X-65.272 Y-8.007
X-65.419 Y-8.033
X-65.563 Y-8.075
X-65.702 Y-8.132
X-65.835 Y-8.201
X-65.962 Y-8.282
X-66.081 Y-8.372
X-66.194 Y-8.471
X-66.3 Y-8.578
X-66.398 Y-8.691
X-66.489 Y-8.81
X-66.572 Y-8.935
X-66.647 Y-9.065
X-66.715 Y-9.199
X-66.773 Y-9.337
X-66.824 Y-9.478
X-66.867 Y-9.622
X-66.9 Y-9.768
X-66.924 Y-9.916
X-66.94 Y-10.065
X-66.947 Y-10.215
X-66.944 Y-10.366
X-66.942 Y-10.391
X-66.889 Y-10.711
X-66.776 Y-11.015
X-66.609 Y-11.294
X-66.394 Y-11.536
X-66.136 Y-11.733
X-65.847 Y-11.88
X-65.535 Y-11.97
X-65.212 Y-12
X-64.422
G3 X-63.861 Y-11.255 I-0.021 J0.6
G1 X-64.561 Y-8.454
G3 X-65.122 Y-8 I-0.582 J-0.145
G1 X-65.877
X-66.027 Y-8.007
X-66.175 Y-8.031
X-66.32 Y-8.072
X-66.459 Y-8.127
X-66.592 Y-8.196
X-66.72 Y-8.275
X-66.84 Y-8.365
X-66.953 Y-8.463
X-67.06 Y-8.569
X-67.158 Y-8.682
X-67.25 Y-8.801
X-67.334 Y-8.925
X-67.41 Y-9.055
X-67.478 Y-9.188
X-67.537 Y-9.326
X-67.589 Y-9.467
X-67.633 Y-9.61
X-67.667 Y-9.756
X-67.692 Y-9.904
X-67.71 Y-10.053
X-67.717 Y-10.203
X-67.716 Y-10.355
X-67.707 Y-10.504
X-67.626 Y-10.848
X-67.477 Y-11.167
X-67.266 Y-11.45
X-67.001 Y-11.683
X-66.694 Y-11.856
X-66.358 Y-11.964
X-66.007 Y-12
X-65.212
G3 X-64.65 Y-11.262 I-0.021 J0.6
G1 X-65.315 Y-8.461
G3 X-65.877 Y-8 I-0.584 J-0.139
G1 X-66.683
X-66.833 Y-8.007
X-66.98 Y-8.036
X-67.123 Y-8.081
X-67.261 Y-8.14
X-67.393 Y-8.212
X-67.518 Y-8.294
X-67.637 Y-8.386
X-67.748 Y-8.486
X-67.853 Y-8.594
X-67.95 Y-8.708
X-68.039 Y-8.828
X-68.122 Y-8.954
X-68.196 Y-9.084
X-68.263 Y-9.218
X-68.322 Y-9.356
X-68.372 Y-9.499
X-68.414 Y-9.643
X-68.447 Y-9.79
X-68.472 Y-9.938
X-68.487 Y-10.092
X-68.494 Y-10.242
X-68.491 Y-10.392
X-68.435 Y-10.712
X-68.32 Y-11.017
X-68.151 Y-11.295
X-67.933 Y-11.537
X-67.674 Y-11.734
X-67.383 Y-11.88
X-67.071 Y-11.97
X-66.747 Y-12
X-66.007
G3 X-65.445 Y-11.26 I-0.021 J0.6
G1 X-66.121 Y-8.459
G3 X-66.683 Y-8 I-0.583 J-0.141
G1 X-67.427
X-67.577 Y-8.007
X-67.725 Y-8.032
X-67.869 Y-8.075
X-68.008 Y-8.131
X-68.141 Y-8.201
X-68.268 Y-8.281
X-68.388 Y-8.371
X-68.501 Y-8.47
X-68.607 Y-8.576
X-68.706 Y-8.689
X-68.797 Y-8.808
X-68.88 Y-8.932
X-68.957 Y-9.061
X-69.025 Y-9.195
X-69.085 Y-9.332
X-69.136 Y-9.473
X-69.179 Y-9.617
X-69.213 Y-9.763
X-69.238 Y-9.911
X-69.255 Y-10.06
X-69.262 Y-10.21
X-69.261 Y-10.361
X-69.207 Y-10.687
X-69.094 Y-10.997
X-68.925 Y-11.28
X-68.706 Y-11.527
X-68.445 Y-11.728
X-68.151 Y-11.877
X-67.834 Y-11.969
X-67.506 Y-12
X-66.747
G3 X-66.184 Y-11.259 I-0.021 J0.6
G1 X-66.865 Y-8.458
G3 X-67.427 Y-8 I-0.583 J-0.142
G1 X-68.192
X-68.342 Y-8.007
X-68.49 Y-8.031
X-68.634 Y-8.073
X-68.773 Y-8.129
X-68.907 Y-8.197
X-69.034 Y-8.277
X-69.154 Y-8.367
X-69.268 Y-8.465
X-69.374 Y-8.571
X-69.473 Y-8.684
X-69.564 Y-8.802
X-69.648 Y-8.927
X-69.724 Y-9.056
X-69.793 Y-9.189
X-69.852 Y-9.327
X-69.904 Y-9.468
X-69.947 Y-9.612
X-69.981 Y-9.758
X-70.006 Y-9.906
X-70.023 Y-10.055
X-70.03 Y-10.205
X-70.028 Y-10.355
X-69.975 Y-10.681
X-69.861 Y-10.992
X-69.692 Y-11.277
X-69.472 Y-11.525
X-69.21 Y-11.727
X-68.915 Y-11.877
X-68.597 Y-11.969
X-68.267 Y-12
X-67.506
G3 X-66.944 Y-11.258 I-0.021 J0.6
G1 X-67.63 Y-8.457
G3 X-68.192 Y-8 I-0.583 J-0.143
G1 X-68.948
X-69.098 Y-8.007
X-69.246 Y-8.029
X-69.391 Y-8.069
X-69.53 Y-8.123
X-69.664 Y-8.191
X-69.792 Y-8.27
X-69.913 Y-8.358
X-70.027 Y-8.456
X-70.134 Y-8.561
X-70.233 Y-8.673
X-70.325 Y-8.792
X-70.41 Y-8.916
X-70.487 Y-9.045
X-70.555 Y-9.178
X-70.615 Y-9.315
X-70.667 Y-9.456
X-70.711 Y-9.6
X-70.745 Y-9.746
X-70.771 Y-9.893
X-70.789 Y-10.042
X-70.796 Y-10.192
X-70.795 Y-10.343
X-70.794 Y-10.354
X-70.742 Y-10.681
X-70.63 Y-10.992
X-70.461 Y-11.276
X-70.242 Y-11.524
X-69.98 Y-11.727
X-69.685 Y-11.877
X-69.368 Y-11.969
X-69.038 Y-12
X-68.267
G3 X-67.705 Y-11.259 I-0.021 J0.6
G1 X-68.386 Y-8.458
G3 X-68.948 Y-8 I-0.583 J-0.142
G1 X-69.753
X-69.903 Y-8.007
X-70.051 Y-8.034
X-70.194 Y-8.078
X-70.332 Y-8.136
X-70.465 Y-8.207
X-70.591 Y-8.288
X-70.71 Y-8.379
X-70.822 Y-8.479
X-70.927 Y-8.586
X-71.024 Y-8.7
X-71.114 Y-8.82
X-71.197 Y-8.946
X-71.272 Y-9.076
X-71.338 Y-9.21
X-71.397 Y-9.351
X-71.447 Y-9.492
X-71.489 Y-9.636
X-71.521 Y-9.785
X-71.545 Y-9.933
X-71.559 Y-10.082
X-71.565 Y-10.233
X-71.561 Y-10.383
X-71.558 Y-10.418
X-71.503 Y-10.733
X-71.391 Y-11.033
X-71.224 Y-11.306
X-71.01 Y-11.544
X-70.756 Y-11.738
X-70.47 Y-11.882
X-70.163 Y-11.97
X-69.844 Y-12
X-69.038
G3 X-68.478 Y-11.252 I-0.021 J0.6
G1 X-69.193 Y-8.451
G3 X-69.753 Y-8 I-0.581 J-0.148
G1 X-70.509
X-70.659 Y-8.007
X-70.807 Y-8.033
X-70.951 Y-8.075
X-71.089 Y-8.132
X-71.222 Y-8.201
X-71.349 Y-8.282
X-71.468 Y-8.372
X-71.581 Y-8.471
X-71.687 Y-8.578
X-71.785 Y-8.691
X-71.876 Y-8.811
X-71.959 Y-8.936
X-72.034 Y-9.065
X-72.102 Y-9.199
X-72.161 Y-9.337
X-72.212 Y-9.478
X-72.255 Y-9.622
X-72.288 Y-9.768
X-72.314 Y-9.917
X-72.331 Y-10.066
X-72.338 Y-10.216
X-72.336 Y-10.369
X-72.326 Y-10.518
X-72.245 Y-10.859
X-72.096 Y-11.175
X-71.886 Y-11.455
X-71.623 Y-11.686
X-71.318 Y-11.858
X-70.985 Y-11.964
X-70.637 Y-12
X-69.844
G3 X-69.281 Y-11.262 I-0.021 J0.6
G1 X-69.946 Y-8.461
G3 X-70.509 Y-8 I-0.584 J-0.139
G1 X-71.253
X-71.403 Y-8.007
X-71.552 Y-8.029
X-71.696 Y-8.069
X-71.836 Y-8.124
X-71.97 Y-8.191
X-72.098 Y-8.27
X-72.219 Y-8.359
X-72.333 Y-8.456
X-72.439 Y-8.561
X-72.539 Y-8.674
X-72.631 Y-8.792
X-72.716 Y-8.916
X-72.793 Y-9.045
X-72.862 Y-9.178
X-72.924 Y-9.314
X-72.977 Y-9.455
X-73.023 Y-9.603
X-73.059 Y-9.749
X-73.086 Y-9.896
X-73.104 Y-10.05
X-73.114 Y-10.199
Y-10.349
X-73.063 Y-10.677
X-72.951 Y-10.988
X-72.783 Y-11.274
X-72.564 Y-11.523
X-72.302 Y-11.726
X-72.007 Y-11.876
X-71.689 Y-11.969
X-71.359 Y-12
X-70.637
G3 X-70.072 Y-11.271 I-0.021 J0.6
G1 X-70.688 Y-8.471
G3 X-71.253 Y-8 I-0.586 J-0.129
G1 X-72.059
X-72.209 Y-8.007
X-72.356 Y-8.034
X-72.5 Y-8.078
X-72.638 Y-8.136
X-72.771 Y-8.206
X-72.897 Y-8.288
X-73.016 Y-8.378
X-73.129 Y-8.478
X-73.234 Y-8.584
X-73.332 Y-8.698
X-73.423 Y-8.817
X-73.506 Y-8.942
X-73.582 Y-9.071
X-73.65 Y-9.205
X-73.709 Y-9.345
X-73.76 Y-9.486
X-73.802 Y-9.63
X-73.835 Y-9.777
X-73.86 Y-9.925
X-73.875 Y-10.074
X-73.881 Y-10.224
X-73.879 Y-10.374
X-73.824 Y-10.698
X-73.71 Y-11.005
X-73.54 Y-11.286
X-73.321 Y-11.531
X-73.061 Y-11.731
X-72.768 Y-11.879
X-72.453 Y-11.969
X-72.126 Y-12
X-71.359
G3 X-70.798 Y-11.255 I-0.021 J0.6
G1 X-71.498 Y-8.454
G3 X-72.059 Y-8 I-0.582 J-0.146
G1 X-72.824
X-72.973 Y-8.007
X-73.121 Y-8.033
X-73.265 Y-8.076
X-73.404 Y-8.133
X-73.537 Y-8.202
X-73.663 Y-8.283
X-73.783 Y-8.373
X-73.896 Y-8.472
X-74.001 Y-8.579
X-74.1 Y-8.692
X-74.191 Y-8.811
X-74.274 Y-8.936
X-74.349 Y-9.066
X-74.417 Y-9.2
X-74.476 Y-9.338
X-74.527 Y-9.479
X-74.569 Y-9.623
X-74.602 Y-9.769
X-74.627 Y-9.917
X-74.643 Y-10.066
X-74.649 Y-10.216
X-74.647 Y-10.366
X-74.593 Y-10.691
X-74.479 Y-11
X-74.309 Y-11.282
X-74.09 Y-11.528
X-73.829 Y-11.729
X-73.535 Y-11.878
X-73.218 Y-11.969
X-72.89 Y-12
X-72.126
G3 X-71.565 Y-11.255 I-0.021 J0.6
G1 X-72.262 Y-8.455
G3 X-72.824 Y-8 I-0.582 J-0.145
G1 X-73.579
X-73.729 Y-8.007
X-73.877 Y-8.031
X-74.022 Y-8.072
X-74.161 Y-8.127
X-74.294 Y-8.196
X-74.421 Y-8.276
X-74.542 Y-8.365
X-74.655 Y-8.463
X-74.762 Y-8.569
X-74.86 Y-8.682
X-74.952 Y-8.801
X-75.036 Y-8.925
X-75.112 Y-9.054
X-75.18 Y-9.188
X-75.239 Y-9.326
X-75.291 Y-9.467
X-75.334 Y-9.61
X-75.368 Y-9.756
X-75.393 Y-9.904
X-75.41 Y-10.053
X-75.417 Y-10.203
X-75.415 Y-10.354
X-75.414 Y-10.371
X-75.361 Y-10.695
X-75.248 Y-11.003
X-75.081 Y-11.284
X-74.863 Y-11.529
X-74.604 Y-11.73
X-74.311 Y-11.878
X-73.996 Y-11.969
X-73.67 Y-12
X-72.89
G3 X-72.329 Y-11.257 I-0.021 J0.6
G1 X-73.018 Y-8.456
G3 X-73.579 Y-8 I-0.583 J-0.143
G1 X-74.385
X-74.535 Y-8.007
X-74.682 Y-8.036
X-74.825 Y-8.081
X-74.963 Y-8.14
X-75.095 Y-8.212
X-75.22 Y-8.294
X-75.339 Y-8.386
X-75.45 Y-8.486
X-75.554 Y-8.594
X-75.651 Y-8.708
X-75.741 Y-8.829
X-75.823 Y-8.954
X-75.897 Y-9.085
X-75.963 Y-9.219
X-76.022 Y-9.361
X-76.071 Y-9.502
X-76.112 Y-9.647
X-76.144 Y-9.796
X-76.168 Y-9.944
X-76.182 Y-10.093
X-76.187 Y-10.244
X-76.183 Y-10.394
X-76.126 Y-10.714
X-76.011 Y-11.018
X-75.842 Y-11.296
X-75.624 Y-11.537
X-75.365 Y-11.734
X-75.075 Y-11.88
X-74.762 Y-11.97
X-74.438 Y-12
X-73.67
G3 X-73.11 Y-11.252 I-0.021 J0.6
G1 X-73.824 Y-8.451
G3 X-74.385 Y-8 I-0.581 J-0.148
G1 X-75.14
X-75.29 Y-8.007
X-75.438 Y-8.034
X-75.581 Y-8.078
X-75.72 Y-8.136
X-75.852 Y-8.206
X-75.978 Y-8.287
X-76.097 Y-8.378
X-76.21 Y-8.478
X-76.315 Y-8.585
X-76.413 Y-8.699
X-76.503 Y-8.818
X-76.585 Y-8.944
X-76.66 Y-9.074
X-76.727 Y-9.208
X-76.786 Y-9.346
X-76.836 Y-9.487
X-76.878 Y-9.631
X-76.911 Y-9.778
X-76.935 Y-9.926
X-76.951 Y-10.075
X-76.957 Y-10.225
X-76.954 Y-10.375
X-76.899 Y-10.699
X-76.785 Y-11.006
X-76.615 Y-11.287
X-76.397 Y-11.531
X-76.137 Y-11.731
X-75.844 Y-11.879
X-75.529 Y-11.969
X-75.202 Y-12
X-74.438
G3 X-73.877 Y-11.254 I-0.021 J0.6
G1 X-74.579 Y-8.454
G3 X-75.14 Y-8 I-0.582 J-0.146
G1 X-75.885
X-76.035 Y-8.007
X-76.183 Y-8.031
X-76.327 Y-8.071
X-76.467 Y-8.127
X-76.6 Y-8.195
X-76.727 Y-8.275
X-76.848 Y-8.364
X-76.961 Y-8.462
X-77.068 Y-8.568
X-77.167 Y-8.681
X-77.258 Y-8.8
X-77.342 Y-8.924
X-77.418 Y-9.053
X-77.487 Y-9.187
X-77.546 Y-9.325
X-77.598 Y-9.465
X-77.641 Y-9.609
X-77.675 Y-9.755
X-77.7 Y-9.903
X-77.717 Y-10.052
X-77.725 Y-10.202
X-77.723 Y-10.353
X-77.67 Y-10.68
X-77.556 Y-10.992
X-77.387 Y-11.276
X-77.167 Y-11.524
X-76.905 Y-11.727
X-76.61 Y-11.877
X-76.292 Y-11.969
X-75.962 Y-12
X-75.202
G3 X-74.64 Y-11.258 I-0.021 J0.6
G1 X-75.323 Y-8.458
G3 X-75.885 Y-8 I-0.583 J-0.142
G1 X-76.69
X-76.84 Y-8.007
X-76.988 Y-8.036
X-77.131 Y-8.081
X-77.269 Y-8.14
X-77.4 Y-8.211
X-77.526 Y-8.293
X-77.645 Y-8.385
X-77.756 Y-8.485
X-77.861 Y-8.593
X-77.958 Y-8.707
X-78.047 Y-8.828
X-78.129 Y-8.953
X-78.204 Y-9.083
X-78.27 Y-9.218
X-78.328 Y-9.359
X-78.378 Y-9.5
X-78.419 Y-9.645
X-78.45 Y-9.794
X-78.473 Y-9.942
X-78.488 Y-10.091
X-78.492 Y-10.242
X-78.488 Y-10.392
X-78.431 Y-10.713
X-78.315 Y-11.017
X-78.145 Y-11.295
X-77.926 Y-11.537
X-77.667 Y-11.734
X-77.376 Y-11.88
X-77.062 Y-11.97
X-76.738 Y-12
X-75.962
G3 X-75.402 Y-11.249 I-0.021 J0.6
G1 X-76.131 Y-8.449
G3 X-76.69 Y-8 I-0.581 J-0.151
G1 X-77.455
X-77.605 Y-8.007
X-77.752 Y-8.035
X-77.896 Y-8.079
X-78.034 Y-8.138
X-78.166 Y-8.209
X-78.292 Y-8.291
X-78.41 Y-8.383
X-78.522 Y-8.482
X-78.627 Y-8.59
X-78.724 Y-8.704
X-78.814 Y-8.824
X-78.896 Y-8.95
X-78.97 Y-9.08
X-79.037 Y-9.215
X-79.095 Y-9.353
X-79.144 Y-9.495
X-79.186 Y-9.639
X-79.218 Y-9.785
X-79.241 Y-9.933
X-79.256 Y-10.083
X-79.262 Y-10.233
X-79.258 Y-10.383
X-79.202 Y-10.705
X-79.087 Y-11.011
X-78.918 Y-11.29
X-78.699 Y-11.534
X-78.439 Y-11.732
X-78.147 Y-11.879
X-77.833 Y-11.97
X-77.507 Y-12
X-76.738
G3 X-76.178 Y-11.252 I-0.021 J0.6
G1 X-76.895 Y-8.451
G3 X-77.455 Y-8 I-0.581 J-0.149
G1 X-78.211
X-78.361 Y-8.007
X-78.508 Y-8.033
X-78.652 Y-8.076
X-78.791 Y-8.134
X-78.923 Y-8.204
X-79.05 Y-8.285
X-79.169 Y-8.375
X-79.282 Y-8.474
X-79.387 Y-8.581
X-79.485 Y-8.695
X-79.575 Y-8.815
X-79.658 Y-8.94
X-79.733 Y-9.069
X-79.801 Y-9.204
X-79.859 Y-9.342
X-79.909 Y-9.483
X-79.952 Y-9.627
X-79.984 Y-9.773
X-80.009 Y-9.921
X-80.024 Y-10.071
X-80.03 Y-10.22
X-80.028 Y-10.371
X-80.026 Y-10.4
X-79.972 Y-10.718
X-79.859 Y-11.021
X-79.693 Y-11.297
X-79.478 Y-11.538
X-79.222 Y-11.735
X-78.933 Y-11.88
X-78.623 Y-11.97
X-78.301 Y-12
X-77.507
G3 X-76.946 Y-11.254 I-0.021 J0.6
G1 X-77.65 Y-8.453
G3 X-78.211 Y-8 I-0.582 J-0.146
G1 X-78.966
X-79.116 Y-8.007
X-79.264 Y-8.032
X-79.409 Y-8.073
X-79.548 Y-8.129
X-79.681 Y-8.198
X-79.808 Y-8.278
X-79.928 Y-8.368
X-80.041 Y-8.467
X-80.147 Y-8.573
X-80.245 Y-8.686
X-80.337 Y-8.805
X-80.42 Y-8.93
X-80.496 Y-9.059
X-80.564 Y-9.193
X-80.623 Y-9.33
X-80.675 Y-9.471
X-80.718 Y-9.615
X-80.752 Y-9.761
X-80.777 Y-9.909
X-80.795 Y-10.058
X-80.802 Y-10.208
X-80.801 Y-10.36
X-80.791 Y-10.51
X-80.71 Y-10.852
X-80.561 Y-11.17
X-80.35 Y-11.452
X-80.086 Y-11.684
X-79.78 Y-11.857
X-79.445 Y-11.964
X-79.096 Y-12
X-78.301
G3 X-77.739 Y-11.262 I-0.021 J0.6
G1 X-78.404 Y-8.461
G3 X-78.966 Y-8 I-0.584 J-0.139
G1 X-79.745
X-79.894 Y-8.007
X-80.042 Y-8.033
X-80.186 Y-8.075
X-80.325 Y-8.133
X-80.457 Y-8.202
X-80.584 Y-8.283
X-80.704 Y-8.374
X-80.816 Y-8.473
X-80.922 Y-8.579
X-81.02 Y-8.692
X-81.111 Y-8.812
X-81.194 Y-8.937
X-81.27 Y-9.066
X-81.338 Y-9.2
X-81.398 Y-9.337
X-81.449 Y-9.478
X-81.493 Y-9.625
X-81.528 Y-9.771
X-81.554 Y-9.918
X-81.57 Y-10.073
X-81.578 Y-10.223
X-81.577 Y-10.373
X-81.523 Y-10.696
X-81.409 Y-11.004
X-81.24 Y-11.285
X-81.022 Y-11.53
X-80.762 Y-11.73
X-80.469 Y-11.878
X-80.154 Y-11.969
X-79.827 Y-12
X-79.096
G3 X-78.532 Y-11.265 I-0.021 J0.6
G1 X-79.181 Y-8.464
G3 X-79.745 Y-8 I-0.585 J-0.135
G1 X-80.517
X-80.666 Y-8.007
X-80.814 Y-8.033
X-80.958 Y-8.076
X-81.097 Y-8.133
X-81.229 Y-8.203
X-81.356 Y-8.284
X-81.475 Y-8.374
X-81.588 Y-8.473
X-81.694 Y-8.579
X-81.793 Y-8.693
X-81.884 Y-8.812
X-81.967 Y-8.936
X-82.043 Y-9.066
X-82.111 Y-9.199
X-82.171 Y-9.337
X-82.222 Y-9.478
X-82.265 Y-9.622
X-82.298 Y-9.768
X-82.323 Y-9.916
X-82.339 Y-10.065
X-82.346 Y-10.215
X-82.344 Y-10.365
X-82.29 Y-10.69
X-82.177 Y-10.999
X-82.008 Y-11.282
X-81.789 Y-11.528
X-81.528 Y-11.729
X-81.234 Y-11.878
X-80.917 Y-11.969
X-80.59 Y-12
X-79.827
G3 X-79.265 Y-11.257 I-0.021 J0.6
G1 X-79.955 Y-8.456
G3 X-80.517 Y-8 I-0.583 J-0.143
G1 X-81.281
X-81.431 Y-8.007
X-81.579 Y-8.032
X-81.723 Y-8.074
X-81.862 Y-8.13
X-81.995 Y-8.199
X-82.122 Y-8.28
X-82.242 Y-8.369
X-82.355 Y-8.468
X-82.461 Y-8.574
X-82.56 Y-8.687
X-82.651 Y-8.806
X-82.735 Y-8.931
X-82.811 Y-9.06
X-82.879 Y-9.194
X-82.938 Y-9.332
X-82.989 Y-9.473
X-83.032 Y-9.616
X-83.065 Y-9.762
X-83.09 Y-9.91
X-83.107 Y-10.059
X-83.114 Y-10.209
X-83.112 Y-10.359
X-83.058 Y-10.685
X-82.944 Y-10.996
X-82.775 Y-11.279
X-82.555 Y-11.526
X-82.293 Y-11.728
X-81.999 Y-11.877
X-81.681 Y-11.969
X-81.352 Y-12
X-80.59
G3 X-80.028 Y-11.256 I-0.021 J0.6
G1 X-80.72 Y-8.456
G3 X-81.281 Y-8 I-0.582 J-0.144
G1 X-82.037
X-82.187 Y-8.007
X-82.335 Y-8.03
X-82.48 Y-8.07
X-82.619 Y-8.125
X-82.753 Y-8.193
X-82.88 Y-8.272
X-83.001 Y-8.361
X-83.115 Y-8.459
X-83.221 Y-8.564
X-83.321 Y-8.677
X-83.412 Y-8.796
X-83.497 Y-8.92
X-83.573 Y-9.049
X-83.642 Y-9.182
X-83.701 Y-9.32
X-83.753 Y-9.461
X-83.797 Y-9.604
X-83.831 Y-9.75
X-83.856 Y-9.898
X-83.873 Y-10.047
X-83.88 Y-10.197
X-83.879 Y-10.348
X-83.878 Y-10.362
X-83.826 Y-10.687
X-83.713 Y-10.997
X-83.545 Y-11.28
X-83.326 Y-11.526
X-83.066 Y-11.728
X-82.772 Y-11.877
X-82.456 Y-11.969
X-82.128 Y-12
X-81.352
G3 X-80.79 Y-11.258 I-0.021 J0.6
G1 X-81.475 Y-8.457
G3 X-82.037 Y-8 I-0.583 J-0.142
G1 X-82.842
X-82.992 Y-8.007
X-83.14 Y-8.035
X-83.283 Y-8.079
X-83.421 Y-8.138
X-83.553 Y-8.209
X-83.679 Y-8.291
X-83.798 Y-8.382
X-83.91 Y-8.482
X-84.014 Y-8.59
X-84.111 Y-8.704
X-84.201 Y-8.824
X-84.284 Y-8.949
X-84.358 Y-9.079
X-84.425 Y-9.214
X-84.483 Y-9.355
X-84.533 Y-9.497
X-84.574 Y-9.641
X-84.607 Y-9.79
X-84.63 Y-9.938
X-84.645 Y-10.087
X-84.65 Y-10.238
X-84.646 Y-10.388
X-84.643 Y-10.423
X-84.575 Y-10.781
X-84.433 Y-11.117
X-84.223 Y-11.415
X-83.955 Y-11.662
X-83.641 Y-11.847
X-83.295 Y-11.961
X-82.933 Y-12
X-82.128
G3 X-81.567 Y-11.252 I-0.021 J0.6
G1 X-82.282 Y-8.451
G3 X-82.842 Y-8 I-0.581 J-0.148
G1 X-83.598
X-83.748 Y-8.007
X-83.896 Y-8.033
X-84.039 Y-8.076
X-84.178 Y-8.133
X-84.311 Y-8.203
X-84.437 Y-8.284
X-84.556 Y-8.375
X-84.669 Y-8.474
X-84.774 Y-8.581
X-84.872 Y-8.694
X-84.963 Y-8.814
X-85.046 Y-8.939
X-85.121 Y-9.069
X-85.188 Y-9.203
X-85.247 Y-9.341
X-85.3 Y-9.489
X-85.342 Y-9.632
X-85.376 Y-9.779
X-85.401 Y-9.931
X-85.416 Y-10.08
X-85.424 Y-10.23
X-85.421 Y-10.38
X-85.366 Y-10.702
X-85.251 Y-11.009
X-85.082 Y-11.289
X-84.863 Y-11.533
X-84.603 Y-11.732
X-84.311 Y-11.879
X-83.996 Y-11.969
X-83.67 Y-12
X-82.933
G3 X-82.37 Y-11.262 I-0.021 J0.6
G1 X-83.035 Y-8.461
G3 X-83.598 Y-8 I-0.584 J-0.139
G1 X-84.343
X-84.492 Y-8.007
X-84.641 Y-8.03
X-84.785 Y-8.07
X-84.925 Y-8.125
X-85.059 Y-8.193
X-85.186 Y-8.272
X-85.307 Y-8.361
X-85.42 Y-8.459
X-85.527 Y-8.564
X-85.627 Y-8.677
X-85.719 Y-8.795
X-85.803 Y-8.919
X-85.88 Y-9.048
X-85.949 Y-9.181
X-86.009 Y-9.318
X-86.061 Y-9.459
X-86.105 Y-9.603
X-86.14 Y-9.749
X-86.166 Y-9.896
X-86.183 Y-10.045
X-86.191 Y-10.195
X-86.19 Y-10.347
X-86.137 Y-10.675
X-86.025 Y-10.987
X-85.855 Y-11.273
X-85.636 Y-11.522
X-85.373 Y-11.726
X-85.077 Y-11.876
X-84.758 Y-11.969
X-84.428 Y-12
X-83.67
G3 X-83.108 Y-11.26 I-0.021 J0.6
G1 X-83.78 Y-8.46
G3 X-84.343 Y-8 I-0.583 J-0.14
G1 X-85.148
X-85.298 Y-8.007
X-85.445 Y-8.035
X-85.589 Y-8.079
X-85.727 Y-8.137
X-85.859 Y-8.208
X-85.985 Y-8.29
X-86.104 Y-8.381
X-86.216 Y-8.481
X-86.321 Y-8.588
X-86.418 Y-8.702
X-86.509 Y-8.822
X-86.591 Y-8.947
X-86.666 Y-9.077
X-86.733 Y-9.212
X-86.791 Y-9.352
X-86.841 Y-9.493
X-86.883 Y-9.637
X-86.915 Y-9.786
X-86.938 Y-9.934
X-86.953 Y-10.084
X-86.958 Y-10.234
X-86.955 Y-10.384
X-86.898 Y-10.706
X-86.782 Y-11.012
X-86.612 Y-11.292
X-86.394 Y-11.534
X-86.134 Y-11.733
X-85.841 Y-11.879
X-85.527 Y-11.97
X-85.202 Y-12
X-84.428
G3 X-83.867 Y-11.251 I-0.021 J0.6
G1 X-84.588 Y-8.45
G3 X-85.148 Y-8 I-0.581 J-0.149
G1 X-85.913
X-86.063 Y-8.007
X-86.21 Y-8.034
X-86.354 Y-8.078
X-86.492 Y-8.135
X-86.625 Y-8.206
X-86.751 Y-8.287
X-86.87 Y-8.378
X-86.982 Y-8.478
X-87.087 Y-8.585
X-87.185 Y-8.699
X-87.275 Y-8.818
X-87.358 Y-8.944
X-87.432 Y-9.074
X-87.499 Y-9.208
X-87.558 Y-9.346
X-87.608 Y-9.488
X-87.649 Y-9.632
X-87.682 Y-9.778
X-87.706 Y-9.926
X-87.721 Y-10.075
X-87.727 Y-10.225
X-87.724 Y-10.375
X-87.668 Y-10.699
X-87.554 Y-11.006
X-87.384 Y-11.287
X-87.165 Y-11.531
X-86.905 Y-11.731
X-86.612 Y-11.879
X-86.296 Y-11.969
X-85.97 Y-12
X-85.202
G3 X-84.641 Y-11.253 I-0.021 J0.6
G1 X-85.352 Y-8.452
G3 X-85.913 Y-8 I-0.582 J-0.148
G1 X-86.668
X-86.818 Y-8.007
X-86.966 Y-8.032
X-87.11 Y-8.074
X-87.249 Y-8.131
X-87.382 Y-8.2
X-87.509 Y-8.281
X-87.629 Y-8.371
X-87.741 Y-8.47
X-87.847 Y-8.576
X-87.945 Y-8.689
X-88.036 Y-8.809
X-88.119 Y-8.934
X-88.195 Y-9.063
X-88.263 Y-9.197
X-88.321 Y-9.335
X-88.372 Y-9.476
X-88.415 Y-9.62
X-88.448 Y-9.766
X-88.472 Y-9.914
X-88.489 Y-10.063
X-88.495 Y-10.213
X-88.493 Y-10.364
X-88.491 Y-10.389
X-88.437 Y-10.709
X-88.325 Y-11.014
X-88.158 Y-11.292
X-87.942 Y-11.535
X-87.684 Y-11.733
X-87.395 Y-11.88
X-87.082 Y-11.97
X-86.759 Y-12
X-85.97
G3 X-85.408 Y-11.255 I-0.021 J0.6
G1 X-86.107 Y-8.454
G3 X-86.668 Y-8 I-0.582 J-0.145
G1 X-87.424
X-87.574 Y-8.007
X-87.722 Y-8.03
X-87.866 Y-8.071
X-88.006 Y-8.127
X-88.139 Y-8.195
X-88.267 Y-8.274
X-88.387 Y-8.364
X-88.501 Y-8.462
X-88.607 Y-8.568
X-88.706 Y-8.68
X-88.797 Y-8.799
X-88.881 Y-8.924
X-88.957 Y-9.053
X-89.026 Y-9.186
X-89.085 Y-9.324
X-89.137 Y-9.465
X-89.181 Y-9.608
X-89.215 Y-9.754
X-89.24 Y-9.902
X-89.258 Y-10.051
X-89.266 Y-10.201
X-89.264 Y-10.353
X-89.255 Y-10.503
X-89.174 Y-10.846
X-89.025 Y-11.166
X-88.814 Y-11.449
X-88.549 Y-11.682
X-88.242 Y-11.856
X-87.905 Y-11.964
X-87.554 Y-12
X-86.759
G3 X-86.196 Y-11.262 I-0.021 J0.6
G1 X-86.861 Y-8.461
G3 X-87.424 Y-8 I-0.584 J-0.139
G1 X-88.23
X-88.379 Y-8.007
X-88.527 Y-8.035
X-88.67 Y-8.08
X-88.808 Y-8.14
X-88.94 Y-8.211
X-89.065 Y-8.293
X-89.184 Y-8.385
X-89.295 Y-8.485
X-89.4 Y-8.593
X-89.497 Y-8.707
X-89.587 Y-8.827
X-89.669 Y-8.953
X-89.744 Y-9.083
X-89.811 Y-9.217
X-89.87 Y-9.355
X-89.92 Y-9.498
X-89.962 Y-9.642
X-89.995 Y-9.788
X-90.02 Y-9.936
X-90.035 Y-10.09
X-90.042 Y-10.24
X-90.04 Y-10.39
X-89.983 Y-10.711
X-89.868 Y-11.016
X-89.699 Y-11.294
X-89.481 Y-11.536
X-89.222 Y-11.734
X-88.931 Y-11.88
X-88.618 Y-11.97
X-88.294 Y-12
X-87.554
G3 X-86.992 Y-11.26 I-0.021 J0.6
G1 X-87.667 Y-8.459
G3 X-88.23 Y-8 I-0.583 J-0.141
G1 X-88.974
X-89.124 Y-8.007
X-89.272 Y-8.032
X-89.416 Y-8.074
X-89.555 Y-8.131
X-89.688 Y-8.2
X-89.815 Y-8.28
X-89.935 Y-8.37
X-90.048 Y-8.469
X-90.154 Y-8.575
X-90.253 Y-8.687
X-90.344 Y-8.806
X-90.428 Y-8.931
X-90.504 Y-9.06
X-90.573 Y-9.194
X-90.632 Y-9.331
X-90.684 Y-9.472
X-90.727 Y-9.616
X-90.761 Y-9.762
X-90.786 Y-9.91
X-90.803 Y-10.059
X-90.81 Y-10.209
X-90.809 Y-10.36
X-90.755 Y-10.686
X-90.642 Y-10.996
X-90.473 Y-11.279
X-90.254 Y-11.526
X-89.993 Y-11.728
X-89.699 Y-11.877
X-89.382 Y-11.969
X-89.053 Y-12
X-88.294
G3 X-87.732 Y-11.259 I-0.021 J0.6
G1 X-88.412 Y-8.458
G3 X-88.974 Y-8 I-0.583 J-0.142
G1 X-89.739
X-89.889 Y-8.007
X-90.037 Y-8.031
X-90.181 Y-8.072
X-90.32 Y-8.128
X-90.454 Y-8.197
X-90.581 Y-8.276
X-90.701 Y-8.366
X-90.815 Y-8.464
X-90.921 Y-8.57
X-91.02 Y-8.683
X-91.111 Y-8.801
X-91.195 Y-8.926
X-91.272 Y-9.055
X-91.34 Y-9.188
X-91.4 Y-9.326
X-91.451 Y-9.467
X-91.494 Y-9.61
X-91.528 Y-9.757
X-91.554 Y-9.904
X-91.57 Y-10.054
X-91.577 Y-10.203
X-91.576 Y-10.353
X-91.523 Y-10.68
X-91.409 Y-10.992
X-91.24 Y-11.276
X-91.02 Y-11.524
X-90.758 Y-11.727
X-90.462 Y-11.877
X-90.144 Y-11.969
X-89.814 Y-12
X-89.053
G3 X-88.491 Y-11.258 I-0.021 J0.6
G1 X-89.177 Y-8.457
G3 X-89.739 Y-8 I-0.583 J-0.143
G1 X-90.494
X-90.644 Y-8.007
X-90.793 Y-8.029
X-90.937 Y-8.068
X-91.077 Y-8.123
X-91.211 Y-8.19
X-91.339 Y-8.269
X-91.46 Y-8.358
X-91.574 Y-8.455
X-91.681 Y-8.56
X-91.78 Y-8.672
X-91.873 Y-8.791
X-91.957 Y-8.915
X-92.034 Y-9.044
X-92.103 Y-9.177
X-92.163 Y-9.314
X-92.215 Y-9.455
X-92.259 Y-9.598
X-92.293 Y-9.744
X-92.319 Y-9.892
X-92.336 Y-10.041
X-92.344 Y-10.191
X-92.343 Y-10.342
X-92.342 Y-10.352
X-92.29 Y-10.679
X-92.177 Y-10.991
X-92.009 Y-11.275
X-91.789 Y-11.524
X-91.528 Y-11.726
X-91.233 Y-11.877
X-90.915 Y-11.969
X-90.585 Y-12
X-89.814
G3 X-89.252 Y-11.259 I-0.021 J0.6
G1 X-89.932 Y-8.458
G3 X-90.494 Y-8 I-0.583 J-0.142
G1 X-91.3
X-91.45 Y-8.007
X-91.597 Y-8.034
X-91.741 Y-8.078
X-91.879 Y-8.136
X-92.012 Y-8.206
X-92.137 Y-8.288
X-92.257 Y-8.379
X-92.369 Y-8.478
X-92.474 Y-8.586
X-92.571 Y-8.7
X-92.662 Y-8.819
X-92.744 Y-8.945
X-92.819 Y-9.075
X-92.886 Y-9.209
X-92.945 Y-9.35
X-92.995 Y-9.491
X-93.036 Y-9.635
X-93.068 Y-9.784
X-93.092 Y-9.932
X-93.107 Y-10.081
X-93.112 Y-10.232
X-93.109 Y-10.382
X-93.106 Y-10.417
X-93.051 Y-10.732
X-92.938 Y-11.032
X-92.772 Y-11.305
X-92.558 Y-11.544
X-92.303 Y-11.738
X-92.017 Y-11.882
X-91.709 Y-11.97
X-91.391 Y-12
X-90.585
G3 X-90.025 Y-11.252 I-0.021 J0.6
G1 X-90.74 Y-8.451
G3 X-91.3 Y-8 I-0.581 J-0.148
G1 X-92.056
X-92.205 Y-8.007
X-92.353 Y-8.032
X-92.497 Y-8.075
X-92.636 Y-8.131
X-92.769 Y-8.201
X-92.896 Y-8.281
X-93.015 Y-8.372
X-93.128 Y-8.471
X-93.234 Y-8.577
X-93.332 Y-8.69
X-93.423 Y-8.81
X-93.506 Y-8.935
X-93.581 Y-9.064
X-93.649 Y-9.198
X-93.708 Y-9.336
X-93.759 Y-9.477
X-93.802 Y-9.621
X-93.836 Y-9.767
X-93.861 Y-9.917
X-93.878 Y-10.066
X-93.885 Y-10.215
X-93.884 Y-10.368
X-93.873 Y-10.517
X-93.793 Y-10.858
X-93.644 Y-11.175
X-93.433 Y-11.455
X-93.17 Y-11.685
X-92.866 Y-11.858
X-92.532 Y-11.964
X-92.184 Y-12
X-91.391
G3 X-90.828 Y-11.262 I-0.021 J0.6
G1 X-91.493 Y-8.461
G3 X-92.056 Y-8 I-0.584 J-0.139
G1 X-92.834
X-92.983 Y-8.007
X-93.131 Y-8.034
X-93.275 Y-8.077
X-93.413 Y-8.135
X-93.546 Y-8.205
X-93.672 Y-8.286
X-93.791 Y-8.377
X-93.904 Y-8.477
X-94.009 Y-8.583
X-94.107 Y-8.697
X-94.197 Y-8.817
X-94.28 Y-8.942
X-94.356 Y-9.071
X-94.423 Y-9.205
X-94.483 Y-9.343
X-94.534 Y-9.484
X-94.578 Y-9.631
X-94.613 Y-9.777
X-94.638 Y-9.924
X-94.655 Y-10.079
X-94.662 Y-10.229
X-94.661 Y-10.379
X-94.606 Y-10.701
X-94.493 Y-11.008
X-94.324 Y-11.288
X-94.106 Y-11.532
X-93.846 Y-11.731
X-93.554 Y-11.879
X-93.24 Y-11.969
X-92.914 Y-12
X-92.184
G3 X-91.62 Y-11.265 I-0.021 J0.6
G1 X-92.27 Y-8.464
G3 X-92.834 Y-8 I-0.584 J-0.136
G1 X-93.606
X-93.755 Y-8.007
X-93.903 Y-8.034
X-94.047 Y-8.078
X-94.185 Y-8.135
X-94.317 Y-8.206
X-94.444 Y-8.287
X-94.563 Y-8.378
X-94.676 Y-8.477
X-94.781 Y-8.583
X-94.879 Y-8.697
X-94.97 Y-8.816
X-95.054 Y-8.941
X-95.129 Y-9.07
X-95.197 Y-9.204
X-95.256 Y-9.342
X-95.307 Y-9.483
X-95.35 Y-9.627
X-95.383 Y-9.773
X-95.408 Y-9.921
X-95.424 Y-10.07
X-95.431 Y-10.22
X-95.428 Y-10.37
X-95.374 Y-10.694
X-95.261 Y-11.002
X-95.092 Y-11.284
X-94.873 Y-11.529
X-94.613 Y-11.73
X-94.32 Y-11.878
X-94.004 Y-11.969
X-93.677 Y-12
X-92.914
G3 X-92.353 Y-11.257 I-0.021 J0.6
G1 X-93.044 Y-8.456
G3 X-93.606 Y-8 I-0.583 J-0.144
G1 X-94.37
X-94.52 Y-8.007
X-94.668 Y-8.033
X-94.812 Y-8.075
X-94.951 Y-8.132
X-95.084 Y-8.202
X-95.21 Y-8.282
X-95.33 Y-8.373
X-95.443 Y-8.471
X-95.549 Y-8.578
X-95.647 Y-8.691
X-95.738 Y-8.81
X-95.821 Y-8.935
X-95.897 Y-9.064
X-95.965 Y-9.198
X-96.024 Y-9.336
X-96.075 Y-9.477
X-96.118 Y-9.621
X-96.151 Y-9.767
X-96.176 Y-9.915
X-96.192 Y-10.064
X-96.199 Y-10.214
X-96.196 Y-10.364
X-96.142 Y-10.689
X-96.029 Y-10.999
X-95.859 Y-11.281
X-95.64 Y-11.528
X-95.379 Y-11.729
X-95.085 Y-11.878
X-94.768 Y-11.969
X-94.44 Y-12
X-93.677
G3 X-93.115 Y-11.256 I-0.021 J0.6
G1 X-93.809 Y-8.455
G3 X-94.37 Y-8 I-0.582 J-0.144
G1 X-95.126
X-95.276 Y-8.007
X-95.424 Y-8.031
X-95.568 Y-8.071
X-95.708 Y-8.127
X-95.841 Y-8.195
X-95.968 Y-8.275
X-96.089 Y-8.364
X-96.203 Y-8.462
X-96.309 Y-8.568
X-96.408 Y-8.68
X-96.5 Y-8.799
X-96.584 Y-8.923
X-96.66 Y-9.053
X-96.728 Y-9.186
X-96.788 Y-9.324
X-96.839 Y-9.465
X-96.883 Y-9.608
X-96.916 Y-9.754
X-96.942 Y-9.902
X-96.959 Y-10.051
X-96.966 Y-10.201
X-96.964 Y-10.352
X-96.963 Y-10.367
X-96.91 Y-10.691
X-96.798 Y-11
X-96.63 Y-11.282
X-96.412 Y-11.528
X-96.152 Y-11.729
X-95.859 Y-11.878
X-95.544 Y-11.969
X-95.217 Y-12
X-94.44
G3 X-93.878 Y-11.258 I-0.021 J0.6
G1 X-94.564 Y-8.457
G3 X-95.126 Y-8 I-0.583 J-0.143
G1 X-95.931
X-96.081 Y-8.007
X-96.229 Y-8.035
X-96.372 Y-8.08
X-96.51 Y-8.139
X-96.642 Y-8.211
X-96.767 Y-8.293
X-96.886 Y-8.385
X-96.997 Y-8.485
X-97.102 Y-8.592
X-97.199 Y-8.707
X-97.289 Y-8.827
X-97.371 Y-8.953
X-97.445 Y-9.083
X-97.511 Y-9.217
X-97.57 Y-9.359
X-97.62 Y-9.5
X-97.661 Y-9.645
X-97.693 Y-9.794
X-97.716 Y-9.942
X-97.731 Y-10.091
X-97.735 Y-10.241
X-97.732 Y-10.391
X-97.729 Y-10.428
X-97.661 Y-10.785
X-97.519 Y-11.12
X-97.309 Y-11.417
X-97.042 Y-11.663
X-96.729 Y-11.847
X-96.384 Y-11.961
X-96.022 Y-12
X-95.217
G3 X-94.656 Y-11.252 I-0.021 J0.6
G1 X-95.371 Y-8.451
G3 X-95.931 Y-8 I-0.581 J-0.148
G1 X-96.687
X-96.837 Y-8.007
X-96.985 Y-8.034
X-97.128 Y-8.077
X-97.267 Y-8.135
X-97.399 Y-8.205
X-97.525 Y-8.286
X-97.645 Y-8.377
X-97.757 Y-8.476
X-97.862 Y-8.583
X-97.96 Y-8.697
X-98.05 Y-8.817
X-98.133 Y-8.942
X-98.208 Y-9.072
X-98.275 Y-9.206
X-98.334 Y-9.344
X-98.387 Y-9.492
X-98.429 Y-9.636
X-98.463 Y-9.782
X-98.487 Y-9.934
X-98.503 Y-10.083
X-98.51 Y-10.233
X-98.507 Y-10.383
X-98.452 Y-10.705
X-98.337 Y-11.011
X-98.168 Y-11.291
X-97.95 Y-11.534
X-97.69 Y-11.732
X-97.398 Y-11.879
X-97.084 Y-11.97
X-96.759 Y-12
X-96.022
G3 X-95.459 Y-11.262 I-0.021 J0.6
G1 X-96.124 Y-8.461
G3 X-96.687 Y-8 I-0.584 J-0.139
G1 X-97.432
X-97.581 Y-8.007
X-97.73 Y-8.03
X-97.874 Y-8.071
X-98.014 Y-8.126
X-98.147 Y-8.194
X-98.274 Y-8.274
X-98.395 Y-8.363
X-98.509 Y-8.461
X-98.615 Y-8.566
X-98.715 Y-8.679
X-98.806 Y-8.798
X-98.891 Y-8.922
X-98.967 Y-9.051
X-99.036 Y-9.184
X-99.096 Y-9.321
X-99.148 Y-9.462
X-99.192 Y-9.605
X-99.227 Y-9.751
X-99.252 Y-9.899
X-99.27 Y-10.048
X-99.278 Y-10.198
X-99.276 Y-10.35
X-99.224 Y-10.677
X-99.111 Y-10.989
X-98.942 Y-11.274
X-98.722 Y-11.523
X-98.46 Y-11.726
X-98.165 Y-11.876
X-97.846 Y-11.969
X-97.516 Y-12
X-96.759
G3 X-96.197 Y-11.26 I-0.021 J0.6
G1 X-96.869 Y-8.46
G3 X-97.432 Y-8 I-0.583 J-0.14
G1 X-98.237
X-98.387 Y-8.007
X-98.534 Y-8.035
X-98.678 Y-8.08
X-98.816 Y-8.138
X-98.948 Y-8.21
X-99.073 Y-8.291
X-99.192 Y-8.383
X-99.304 Y-8.483
X-99.409 Y-8.59
X-99.506 Y-8.704
X-99.596 Y-8.824
X-99.679 Y-8.949
X-99.754 Y-9.079
X-99.82 Y-9.214
X-99.879 Y-9.354
X-99.929 Y-9.496
X-99.97 Y-9.64
X-100.002 Y-9.789
X-100.026 Y-9.937
X-100.04 Y-10.086
X-100.045 Y-10.237
X-100.041 Y-10.387
X-99.984 Y-10.708
X-99.869 Y-11.014
X-99.699 Y-11.293
X-99.481 Y-11.535
X-99.221 Y-11.733
X-98.929 Y-11.88
X-98.615 Y-11.97
X-98.29 Y-12
X-97.516
G3 X-96.956 Y-11.251 I-0.021 J0.6
G1 X-97.677 Y-8.45
G3 X-98.237 Y-8 I-0.581 J-0.15
G1 X-99.002
X-99.152 Y-8.007
X-99.299 Y-8.034
X-99.443 Y-8.078
X-99.581 Y-8.136
X-99.713 Y-8.207
X-99.839 Y-8.288
X-99.958 Y-8.38
X-100.071 Y-8.479
X-100.175 Y-8.586
X-100.273 Y-8.7
X-100.363 Y-8.82
X-100.446 Y-8.946
X-100.52 Y-9.076
X-100.587 Y-9.21
X-100.645 Y-9.348
X-100.695 Y-9.49
X-100.737 Y-9.634
X-100.769 Y-9.78
X-100.793 Y-9.928
X-100.808 Y-10.077
X-100.814 Y-10.227
X-100.811 Y-10.377
X-100.755 Y-10.7
X-100.641 Y-11.007
X-100.471 Y-11.288
X-100.252 Y-11.532
X-99.992 Y-11.731
X-99.699 Y-11.879
X-99.384 Y-11.969
X-99.058 Y-12
X-98.29
G3 X-97.729 Y-11.253 I-0.021 J0.6
G1 X-98.441 Y-8.452
G3 X-99.002 Y-8 I-0.582 J-0.148
G1 X-99.757
X-99.907 Y-8.007
X-100.055 Y-8.033
X-100.199 Y-8.075
X-100.338 Y-8.132
X-100.471 Y-8.201
X-100.597 Y-8.282
X-100.717 Y-8.372
X-100.83 Y-8.471
X-100.935 Y-8.578
X-101.034 Y-8.691
X-101.124 Y-8.81
X-101.208 Y-8.935
X-101.283 Y-9.065
X-101.351 Y-9.199
X-101.409 Y-9.337
X-101.46 Y-9.478
X-101.502 Y-9.622
X-101.535 Y-9.768
X-101.56 Y-9.916
X-101.576 Y-10.065
X-101.582 Y-10.215
X-101.58 Y-10.366
X-101.578 Y-10.391
X-101.524 Y-10.711
X-101.412 Y-11.015
X-101.245 Y-11.294
X-101.029 Y-11.536
X-100.772 Y-11.733
X-100.483 Y-11.88
X-100.171 Y-11.97
X-99.848 Y-12
X-99.058
G3 X-98.497 Y-11.255 I-0.021 J0.6
G1 X-99.196 Y-8.454
G3 X-99.757 Y-8 I-0.582 J-0.145
G1 X-100.513
X-100.663 Y-8.007
X-100.811 Y-8.031
X-100.955 Y-8.072
X-101.095 Y-8.127
X-101.228 Y-8.196
X-101.355 Y-8.275
X-101.476 Y-8.365
X-101.589 Y-8.463
X-101.695 Y-8.569
X-101.794 Y-8.682
X-101.886 Y-8.801
X-101.969 Y-8.925
X-102.045 Y-9.055
X-102.114 Y-9.188
X-102.173 Y-9.326
X-102.225 Y-9.467
X-102.268 Y-9.61
X-102.303 Y-9.756
X-102.328 Y-9.904
X-102.345 Y-10.053
X-102.353 Y-10.203
X-102.352 Y-10.355
X-102.342 Y-10.504
X-102.262 Y-10.848
X-102.113 Y-11.167
X-101.901 Y-11.45
X-101.637 Y-11.683
X-101.33 Y-11.856
X-100.994 Y-11.964
X-100.643 Y-12
X-99.848
G3 X-99.285 Y-11.262 I-0.021 J0.6
G1 X-99.95 Y-8.461
G3 X-100.513 Y-8 I-0.584 J-0.139
G1 X-101.319
X-101.468 Y-8.007
X-101.616 Y-8.036
X-101.759 Y-8.081
X-101.897 Y-8.14
X-102.028 Y-8.212
X-102.154 Y-8.294
X-102.272 Y-8.386
X-102.384 Y-8.486
X-102.488 Y-8.594
X-102.586 Y-8.708
X-102.675 Y-8.828
X-102.757 Y-8.954
X-102.832 Y-9.084
X-102.899 Y-9.218
X-102.958 Y-9.356
X-103.008 Y-9.499
X-103.05 Y-9.643
X-103.083 Y-9.79
X-103.107 Y-9.938
X-103.123 Y-10.092
X-103.13 Y-10.242
X-103.127 Y-10.392
X-103.071 Y-10.712
X-102.956 Y-11.017
X-102.787 Y-11.295
X-102.569 Y-11.537
X-102.31 Y-11.734
X-102.019 Y-11.88
X-101.706 Y-11.97
X-101.382 Y-12
X-100.643
G3 X-100.081 Y-11.26 I-0.021 J0.6
G1 X-100.756 Y-8.459
G3 X-101.319 Y-8 I-0.583 J-0.141
G1 X-102.063
X-102.213 Y-8.007
X-102.361 Y-8.032
X-102.505 Y-8.075
X-102.644 Y-8.131
X-102.777 Y-8.201
X-102.903 Y-8.281
X-103.023 Y-8.371
X-103.137 Y-8.47
X-103.243 Y-8.576
X-103.341 Y-8.689
X-103.433 Y-8.808
X-103.516 Y-8.932
X-103.592 Y-9.061
X-103.661 Y-9.195
X-103.72 Y-9.332
X-103.772 Y-9.473
X-103.815 Y-9.617
X-103.849 Y-9.763
X-103.874 Y-9.911
X-103.891 Y-10.06
X-103.898 Y-10.21
X-103.896 Y-10.361
X-103.843 Y-10.687
X-103.73 Y-10.997
X-103.561 Y-11.28
X-103.342 Y-11.527
X-103.081 Y-11.728
X-102.787 Y-11.877
X-102.47 Y-11.969
X-102.142 Y-12
X-101.382
G3 X-100.82 Y-11.259 I-0.021 J0.6
G1 X-101.501 Y-8.458
G3 X-102.063 Y-8 I-0.583 J-0.142
G1 X-102.828
X-102.978 Y-8.007
X-103.126 Y-8.031
X-103.27 Y-8.073
X-103.409 Y-8.129
X-103.543 Y-8.197
X-103.67 Y-8.277
X-103.79 Y-8.367
X-103.903 Y-8.465
X-104.01 Y-8.571
X-104.108 Y-8.684
X-104.2 Y-8.802
X-104.284 Y-8.927
X-104.36 Y-9.056
X-104.428 Y-9.189
X-104.488 Y-9.327
X-104.539 Y-9.468
X-104.583 Y-9.612
X-104.616 Y-9.758
X-104.642 Y-9.906
X-104.658 Y-10.055
X-104.665 Y-10.205
X-104.664 Y-10.355
X-104.61 Y-10.681
X-104.497 Y-10.992
X-104.328 Y-11.277
X-104.108 Y-11.525
X-103.846 Y-11.727
X-103.551 Y-11.877
X-103.233 Y-11.969
X-102.903 Y-12
X-102.142
G3 X-101.58 Y-11.258 I-0.021 J0.6
G1 X-102.266 Y-8.457
G3 X-102.828 Y-8 I-0.583 J-0.143
G1 X-103.584
X-103.733 Y-8.007
X-103.882 Y-8.029
X-104.026 Y-8.069
X-104.166 Y-8.123
X-104.3 Y-8.191
X-104.428 Y-8.27
X-104.549 Y-8.358
X-104.663 Y-8.456
X-104.77 Y-8.561
X-104.869 Y-8.673
X-104.961 Y-8.792
X-105.046 Y-8.916
X-105.122 Y-9.045
X-105.191 Y-9.178
X-105.251 Y-9.315
X-105.303 Y-9.456
X-105.347 Y-9.6
X-105.381 Y-9.746
X-105.407 Y-9.893
X-105.424 Y-10.042
X-105.432 Y-10.192
X-105.431 Y-10.343
X-105.43 Y-10.354
X-105.378 Y-10.681
X-105.265 Y-10.992
X-105.097 Y-11.276
X-104.878 Y-11.524
X-104.616 Y-11.727
X-104.321 Y-11.877
X-104.004 Y-11.969
X-103.674 Y-12
X-102.903
G3 X-102.341 Y-11.259 I-0.021 J0.6
G1 X-103.021 Y-8.458
G3 X-103.584 Y-8 I-0.583 J-0.142
G1 X-104.389
X-104.539 Y-8.007
X-104.686 Y-8.034
X-104.83 Y-8.078
X-104.968 Y-8.136
X-105.1 Y-8.207
X-105.226 Y-8.288
X-105.346 Y-8.379
X-105.458 Y-8.479
X-105.563 Y-8.586
X-105.66 Y-8.7
X-105.75 Y-8.82
X-105.833 Y-8.946
X-105.907 Y-9.076
X-105.974 Y-9.21
X-106.033 Y-9.351
X-106.083 Y-9.492
X-106.124 Y-9.636
X-106.157 Y-9.785
X-106.18 Y-9.933
X-106.195 Y-10.082
X-106.2 Y-10.233
X-106.197 Y-10.383
X-106.194 Y-10.418
X-106.139 Y-10.733
X-106.026 Y-11.033
X-105.86 Y-11.306
X-105.646 Y-11.544
X-105.392 Y-11.738
X-105.106 Y-11.882
X-104.798 Y-11.97
X-104.48 Y-12
X-103.674
G3 X-103.114 Y-11.252 I-0.021 J0.6
G1 X-103.829 Y-8.451
G3 X-104.389 Y-8 I-0.581 J-0.148
G1 X-105.145
X-105.294 Y-8.007
X-105.442 Y-8.033
X-105.586 Y-8.075
X-105.725 Y-8.132
X-105.858 Y-8.201
X-105.984 Y-8.282
X-106.104 Y-8.372
X-106.217 Y-8.471
X-106.323 Y-8.578
X-106.421 Y-8.691
X-106.511 Y-8.811
X-106.594 Y-8.936
X-106.67 Y-9.065
X-106.737 Y-9.199
X-106.796 Y-9.337
X-106.847 Y-9.478
X-106.89 Y-9.622
X-106.924 Y-9.768
X-106.95 Y-9.917
X-106.966 Y-10.066
X-106.974 Y-10.216
X-106.972 Y-10.369
X-106.962 Y-10.518
X-106.881 Y-10.859
X-106.732 Y-11.175
X-106.522 Y-11.455
X-106.259 Y-11.686
X-105.954 Y-11.858
X-105.621 Y-11.964
X-105.273 Y-12
X-104.48
G3 X-103.917 Y-11.262 I-0.021 J0.6
G1 X-104.582 Y-8.461
G3 X-105.145 Y-8 I-0.584 J-0.139
G1 X-105.889
X-106.039 Y-8.007
X-106.187 Y-8.029
X-106.332 Y-8.069
X-106.472 Y-8.124
X-106.606 Y-8.191
X-106.733 Y-8.27
X-106.854 Y-8.359
X-106.968 Y-8.456
X-107.075 Y-8.561
X-107.175 Y-8.674
X-107.267 Y-8.792
X-107.352 Y-8.916
X-107.428 Y-9.045
X-107.498 Y-9.178
X-107.559 Y-9.314
X-107.612 Y-9.455
X-107.658 Y-9.603
X-107.695 Y-9.749
X-107.722 Y-9.897
X-107.74 Y-10.05
X-107.75 Y-10.199
Y-10.349
X-107.699 Y-10.677
X-107.587 Y-10.988
X-107.418 Y-11.274
X-107.199 Y-11.523
X-106.938 Y-11.726
X-106.643 Y-11.876
X-106.324 Y-11.969
X-105.994 Y-12
X-105.273
G3 X-104.708 Y-11.271 I-0.021 J0.6
G1 X-105.324 Y-8.471
G3 X-105.889 Y-8 I-0.586 J-0.129
G1 X-106.695
X-106.845 Y-8.007
X-106.992 Y-8.034
X-107.136 Y-8.078
X-107.274 Y-8.136
X-107.406 Y-8.207
X-107.532 Y-8.288
X-107.652 Y-8.378
X-107.764 Y-8.478
X-107.87 Y-8.584
X-107.968 Y-8.698
X-108.059 Y-8.817
X-108.142 Y-8.942
X-108.218 Y-9.071
X-108.285 Y-9.205
X-108.345 Y-9.345
X-108.396 Y-9.486
X-108.438 Y-9.63
X-108.471 Y-9.777
X-108.495 Y-9.925
X-108.511 Y-10.074
X-108.517 Y-10.224
X-108.514 Y-10.374
X-108.459 Y-10.698
X-108.345 Y-11.005
X-108.176 Y-11.286
X-107.957 Y-11.531
X-107.697 Y-11.731
X-107.404 Y-11.879
X-107.089 Y-11.969
X-106.762 Y-12
X-105.994
G3 X-105.433 Y-11.255 I-0.021 J0.6
G1 X-106.134 Y-8.454
G3 X-106.695 Y-8 I-0.582 J-0.146
G1 X-107.459
X-107.609 Y-8.007
X-107.757 Y-8.033
X-107.901 Y-8.076
X-108.04 Y-8.133
X-108.172 Y-8.202
X-108.299 Y-8.283
X-108.419 Y-8.373
X-108.532 Y-8.472
X-108.637 Y-8.579
X-108.735 Y-8.692
X-108.826 Y-8.811
X-108.91 Y-8.936
X-108.985 Y-9.066
X-109.053 Y-9.2
X-109.112 Y-9.338
X-109.162 Y-9.479
X-109.205 Y-9.623
X-109.238 Y-9.769
X-109.263 Y-9.917
X-109.279 Y-10.066
X-109.285 Y-10.216
X-109.283 Y-10.366
X-109.228 Y-10.691
X-109.114 Y-11
X-108.945 Y-11.282
X-108.726 Y-11.528
X-108.465 Y-11.729
X-108.171 Y-11.878
X-107.854 Y-11.969
X-107.526 Y-12
X-106.762
G3 X-106.201 Y-11.255 I-0.021 J0.6
G1 X-106.898 Y-8.455
G3 X-107.459 Y-8 I-0.582 J-0.145
G1 X-108.215
X-108.365 Y-8.007
X-108.513 Y-8.031
X-108.657 Y-8.072
X-108.797 Y-8.127
X-108.93 Y-8.196
X-109.057 Y-8.276
X-109.178 Y-8.365
X-109.291 Y-8.463
X-109.397 Y-8.569
X-109.496 Y-8.682
X-109.588 Y-8.801
X-109.671 Y-8.925
X-109.748 Y-9.054
X-109.816 Y-9.188
X-109.875 Y-9.326
X-109.927 Y-9.467
X-109.97 Y-9.61
X-110.004 Y-9.756
X-110.029 Y-9.904
X-110.045 Y-10.053
X-110.052 Y-10.203
X-110.051 Y-10.354
X-110.05 Y-10.371
X-109.997 Y-10.695
X-109.884 Y-11.003
X-109.716 Y-11.284
X-109.499 Y-11.529
X-109.239 Y-11.73
X-108.947 Y-11.878
X-108.632 Y-11.969
X-108.306 Y-12
X-107.526
G3 X-106.964 Y-11.257 I-0.021 J0.6
G1 X-107.653 Y-8.456
G3 X-108.215 Y-8 I-0.583 J-0.143
G1 X-109.021
X-109.17 Y-8.007
X-109.318 Y-8.036
X-109.461 Y-8.081
X-109.599 Y-8.14
X-109.73 Y-8.212
X-109.856 Y-8.294
X-109.974 Y-8.386
X-110.086 Y-8.486
X-110.19 Y-8.594
X-110.287 Y-8.708
X-110.377 Y-8.829
X-110.459 Y-8.954
X-110.533 Y-9.085
X-110.599 Y-9.219
X-110.658 Y-9.361
X-110.707 Y-9.502
X-110.748 Y-9.647
X-110.78 Y-9.796
X-110.803 Y-9.944
X-110.818 Y-10.093
X-110.823 Y-10.244
X-110.819 Y-10.394
X-110.762 Y-10.714
X-110.647 Y-11.018
X-110.478 Y-11.296
X-110.26 Y-11.537
X-110.001 Y-11.734
X-109.71 Y-11.88
X-109.398 Y-11.97
X-109.074 Y-12
X-108.306
G3 X-107.745 Y-11.252 I-0.021 J0.6
G1 X-108.46 Y-8.451
G3 X-109.021 Y-8 I-0.581 J-0.148
G1 X-109.776
X-109.926 Y-8.007
X-110.074 Y-8.034
X-110.217 Y-8.078
X-110.356 Y-8.136
X-110.488 Y-8.206
X-110.614 Y-8.287
X-110.733 Y-8.378
X-110.846 Y-8.478
X-110.951 Y-8.585
X-111.048 Y-8.699
X-111.139 Y-8.818
X-111.221 Y-8.944
X-111.296 Y-9.074
X-111.363 Y-9.208
X-111.422 Y-9.346
X-111.472 Y-9.487
X-111.514 Y-9.631
X-111.547 Y-9.778
X-111.571 Y-9.926
X-111.586 Y-10.075
X-111.592 Y-10.225
X-111.59 Y-10.375
X-111.534 Y-10.699
X-111.42 Y-11.006
X-111.251 Y-11.287
X-111.032 Y-11.531
X-110.772 Y-11.731
X-110.48 Y-11.879
X-110.164 Y-11.969
X-109.838 Y-12
X-109.074
G3 X-108.513 Y-11.254 I-0.021 J0.6
G1 X-109.215 Y-8.454
G3 X-109.776 Y-8 I-0.582 J-0.146
G1 X-110.521
X-110.671 Y-8.007
X-110.819 Y-8.031
X-110.963 Y-8.071
X-111.102 Y-8.127
X-111.236 Y-8.195
X-111.363 Y-8.275
X-111.484 Y-8.364
X-111.597 Y-8.462
X-111.703 Y-8.568
X-111.802 Y-8.681
X-111.894 Y-8.8
X-111.978 Y-8.924
X-112.054 Y-9.053
X-112.122 Y-9.187
X-112.182 Y-9.325
X-112.233 Y-9.465
X-112.277 Y-9.609
X-112.311 Y-9.755
X-112.336 Y-9.903
X-112.353 Y-10.052
X-112.36 Y-10.202
X-112.359 Y-10.353
X-112.306 Y-10.68
X-112.192 Y-10.992
X-112.023 Y-11.276
X-111.803 Y-11.524
X-111.541 Y-11.727
X-111.246 Y-11.877
X-110.927 Y-11.969
X-110.598 Y-12
X-109.838
G3 X-109.276 Y-11.258 I-0.021 J0.6
G1 X-109.959 Y-8.458
G3 X-110.521 Y-8 I-0.583 J-0.142
G1 X-111.326
X-111.476 Y-8.007
X-111.623 Y-8.036
X-111.767 Y-8.081
X-111.904 Y-8.14
X-112.036 Y-8.211
X-112.162 Y-8.293
X-112.28 Y-8.385
X-112.392 Y-8.485
X-112.496 Y-8.593
X-112.593 Y-8.707
X-112.683 Y-8.828
X-112.765 Y-8.953
X-112.84 Y-9.083
X-112.906 Y-9.218
X-112.964 Y-9.359
X-113.014 Y-9.5
X-113.054 Y-9.645
X-113.086 Y-9.794
X-113.109 Y-9.942
X-113.123 Y-10.091
X-113.128 Y-10.242
X-113.124 Y-10.392
X-113.066 Y-10.713
X-112.951 Y-11.017
X-112.781 Y-11.295
X-112.562 Y-11.537
X-112.303 Y-11.734
X-112.011 Y-11.88
X-111.698 Y-11.97
X-111.374 Y-12
X-110.598
G3 X-110.038 Y-11.249 I-0.021 J0.6
G1 X-110.767 Y-8.449
G3 X-111.326 Y-8 I-0.581 J-0.151
G1 X-112.091
X-112.241 Y-8.007
X-112.388 Y-8.035
X-112.532 Y-8.079
X-112.67 Y-8.138
X-112.802 Y-8.209
X-112.927 Y-8.291
X-113.046 Y-8.383
X-113.158 Y-8.482
X-113.263 Y-8.59
X-113.36 Y-8.704
X-113.45 Y-8.824
X-113.532 Y-8.95
X-113.606 Y-9.08
X-113.673 Y-9.215
X-113.73 Y-9.353
X-113.78 Y-9.495
X-113.822 Y-9.639
X-113.854 Y-9.785
X-113.877 Y-9.933
X-113.892 Y-10.083
X-113.897 Y-10.233
X-113.894 Y-10.383
X-113.838 Y-10.705
X-113.723 Y-11.011
X-113.553 Y-11.29
X-113.335 Y-11.534
X-113.075 Y-11.732
X-112.783 Y-11.879
X-112.469 Y-11.97
X-112.143 Y-12
X-111.374
G3 X-110.813 Y-11.252 I-0.021 J0.6
G1 X-111.531 Y-8.451
G3 X-112.091 Y-8 I-0.581 J-0.149
G1 X-112.847
X-112.996 Y-8.007
X-113.144 Y-8.033
X-113.288 Y-8.076
X-113.426 Y-8.134
X-113.559 Y-8.204
X-113.685 Y-8.285
X-113.805 Y-8.375
X-113.917 Y-8.474
X-114.023 Y-8.581
X-114.121 Y-8.695
X-114.211 Y-8.815
X-114.294 Y-8.94
X-114.369 Y-9.069
X-114.436 Y-9.204
X-114.495 Y-9.342
X-114.545 Y-9.483
X-114.587 Y-9.627
X-114.62 Y-9.773
X-114.644 Y-9.921
X-114.66 Y-10.071
X-114.666 Y-10.22
X-114.663 Y-10.371
X-114.661 Y-10.4
X-114.607 Y-10.718
X-114.495 Y-11.021
X-114.329 Y-11.297
X-114.113 Y-11.538
X-113.857 Y-11.735
X-113.569 Y-11.88
X-113.259 Y-11.97
X-112.937 Y-12
X-112.143
G3 X-111.582 Y-11.254 I-0.021 J0.6
G1 X-112.286 Y-8.453
G3 X-112.847 Y-8 I-0.582 J-0.146
G1 X-113.602
X-113.752 Y-8.007
X-113.9 Y-8.032
X-114.044 Y-8.073
X-114.183 Y-8.129
X-114.317 Y-8.198
X-114.443 Y-8.278
X-114.564 Y-8.368
X-114.677 Y-8.467
X-114.783 Y-8.573
X-114.881 Y-8.686
X-114.972 Y-8.805
X-115.056 Y-8.93
X-115.132 Y-9.059
X-115.2 Y-9.193
X-115.259 Y-9.33
X-115.31 Y-9.471
X-115.354 Y-9.615
X-115.388 Y-9.761
X-115.413 Y-9.909
X-115.43 Y-10.058
X-115.438 Y-10.208
X-115.436 Y-10.36
X-115.427 Y-10.51
X-115.346 Y-10.852
X-115.197 Y-11.17
X-114.986 Y-11.452
X-114.722 Y-11.684
X-114.416 Y-11.857
X-114.081 Y-11.964
X-113.731 Y-12
X-112.937
G3 X-112.374 Y-11.262 I-0.021 J0.6
G1 X-113.039 Y-8.461
G3 X-113.602 Y-8 I-0.584 J-0.139
G1 X-114.38
X-114.53 Y-8.007
X-114.678 Y-8.033
X-114.822 Y-8.075
X-114.96 Y-8.133
X-115.093 Y-8.202
X-115.22 Y-8.283
X-115.339 Y-8.374
X-115.452 Y-8.473
X-115.558 Y-8.579
X-115.656 Y-8.692
X-115.747 Y-8.812
X-115.83 Y-8.937
X-115.906 Y-9.066
X-115.974 Y-9.2
X-116.034 Y-9.337
X-116.085 Y-9.478
X-116.129 Y-9.625
X-116.164 Y-9.771
X-116.189 Y-9.918
X-116.206 Y-10.073
X-116.214 Y-10.223
X-116.213 Y-10.373
X-116.159 Y-10.696
X-116.045 Y-11.004
X-115.876 Y-11.285
X-115.658 Y-11.53
X-115.397 Y-11.73
X-115.105 Y-11.878
X-114.789 Y-11.969
X-114.463 Y-12
X-113.731
G3 X-113.168 Y-11.265 I-0.021 J0.6
G1 X-113.817 Y-8.464
G3 X-114.38 Y-8 I-0.585 J-0.135
G1 X-115.152
X-115.302 Y-8.007
X-115.45 Y-8.033
X-115.594 Y-8.076
X-115.732 Y-8.133
X-115.865 Y-8.203
X-115.991 Y-8.284
X-116.111 Y-8.374
X-116.224 Y-8.473
X-116.33 Y-8.579
X-116.428 Y-8.693
X-116.519 Y-8.812
X-116.603 Y-8.936
X-116.679 Y-9.066
X-116.747 Y-9.199
X-116.806 Y-9.337
X-116.858 Y-9.478
X-116.9 Y-9.622
X-116.934 Y-9.768
X-116.959 Y-9.916
X-116.975 Y-10.065
X-116.982 Y-10.215
X-116.98 Y-10.365
X-116.926 Y-10.69
X-116.813 Y-10.999
X-116.643 Y-11.282
X-116.424 Y-11.528
X-116.164 Y-11.729
X-115.87 Y-11.878
X-115.553 Y-11.969
X-115.225 Y-12
X-114.463
G3 X-113.901 Y-11.257 I-0.021 J0.6
G1 X-114.591 Y-8.456
G3 X-115.152 Y-8 I-0.583 J-0.143
G1 X-115.917
X-116.067 Y-8.007
X-116.215 Y-8.032
X-116.359 Y-8.074
X-116.498 Y-8.13
X-116.631 Y-8.199
X-116.758 Y-8.28
X-116.878 Y-8.369
X-116.991 Y-8.468
X-117.097 Y-8.574
X-117.196 Y-8.687
X-117.287 Y-8.806
X-117.371 Y-8.931
X-117.446 Y-9.06
X-117.515 Y-9.194
X-117.574 Y-9.332
X-117.625 Y-9.473
X-117.668 Y-9.616
X-117.701 Y-9.762
X-117.726 Y-9.91
X-117.743 Y-10.059
X-117.749 Y-10.209
X-117.747 Y-10.359
X-117.694 Y-10.685
X-117.58 Y-10.996
X-117.41 Y-11.279
X-117.191 Y-11.526
X-116.929 Y-11.728
X-116.634 Y-11.877
X-116.317 Y-11.969
X-115.988 Y-12
X-115.225
G3 X-114.664 Y-11.256 I-0.021 J0.6
G1 X-115.355 Y-8.456
G3 X-115.917 Y-8 I-0.582 J-0.144
G1 X-116.673
X-116.822 Y-8.007
X-116.971 Y-8.03
X-117.115 Y-8.07
X-117.255 Y-8.125
X-117.389 Y-8.193
X-117.516 Y-8.272
X-117.637 Y-8.361
X-117.751 Y-8.459
X-117.857 Y-8.564
X-117.956 Y-8.677
X-118.048 Y-8.796
X-118.132 Y-8.92
X-118.209 Y-9.049
X-118.277 Y-9.182
X-118.337 Y-9.32
X-118.389 Y-9.461
X-118.432 Y-9.604
X-118.466 Y-9.75
X-118.492 Y-9.898
X-118.509 Y-10.047
X-118.516 Y-10.197
X-118.515 Y-10.348
X-118.514 Y-10.362
X-118.461 Y-10.687
X-118.349 Y-10.997
X-118.18 Y-11.28
X-117.962 Y-11.526
X-117.701 Y-11.728
X-117.408 Y-11.877
X-117.091 Y-11.969
X-116.763 Y-12
X-115.988
G3 X-115.426 Y-11.258 I-0.021 J0.6
G1 X-116.111 Y-8.457
G3 X-116.673 Y-8 I-0.583 J-0.142
G1 X-117.478
X-117.628 Y-8.007
X-117.775 Y-8.035
X-117.919 Y-8.079
X-118.057 Y-8.138
X-118.189 Y-8.209
X-118.315 Y-8.291
X-118.433 Y-8.382
X-118.545 Y-8.482
X-118.65 Y-8.59
X-118.747 Y-8.704
X-118.837 Y-8.824
X-118.919 Y-8.949
X-118.994 Y-9.079
X-119.06 Y-9.214
X-119.119 Y-9.355
X-119.169 Y-9.497
X-119.21 Y-9.641
X-119.242 Y-9.79
X-119.266 Y-9.938
X-119.28 Y-10.087
X-119.285 Y-10.238
X-119.282 Y-10.388
X-119.279 Y-10.423
X-119.211 Y-10.781
X-119.069 Y-11.117
X-118.859 Y-11.415
X-118.591 Y-11.662
X-118.277 Y-11.847
X-117.931 Y-11.961
X-117.569 Y-12
X-116.763
G3 X-116.203 Y-11.252 I-0.021 J0.6
G1 X-116.918 Y-8.451
G3 X-117.478 Y-8 I-0.581 J-0.148
G1 X-118.234
X-118.384 Y-8.007
X-118.531 Y-8.033
X-118.675 Y-8.076
X-118.814 Y-8.133
X-118.946 Y-8.203
X-119.073 Y-8.284
X-119.192 Y-8.375
X-119.305 Y-8.474
X-119.41 Y-8.581
X-119.508 Y-8.694
X-119.599 Y-8.814
X-119.681 Y-8.939
X-119.757 Y-9.069
X-119.824 Y-9.203
X-119.883 Y-9.341
X-119.936 Y-9.489
X-119.978 Y-9.632
X-120.012 Y-9.779
X-120.036 Y-9.931
X-120.052 Y-10.08
X-120.059 Y-10.23
X-120.057 Y-10.38
X-120.001 Y-10.702
X-119.887 Y-11.009
X-119.717 Y-11.289
X-119.499 Y-11.533
X-119.239 Y-11.732
X-118.947 Y-11.879
X-118.632 Y-11.969
X-118.306 Y-12
X-117.569
G3 X-117.006 Y-11.262 I-0.021 J0.6
G1 X-117.671 Y-8.461
G3 X-118.234 Y-8 I-0.584 J-0.139
G1 X-118.978
X-119.128 Y-8.007
X-119.276 Y-8.03
X-119.421 Y-8.07
X-119.561 Y-8.125
X-119.694 Y-8.193
X-119.822 Y-8.272
X-119.942 Y-8.361
X-120.056 Y-8.459
X-120.163 Y-8.564
X-120.262 Y-8.677
X-120.354 Y-8.795
X-120.439 Y-8.919
X-120.515 Y-9.048
X-120.585 Y-9.181
X-120.645 Y-9.318
X-120.697 Y-9.459
X-120.741 Y-9.603
X-120.775 Y-9.749
X-120.801 Y-9.896
X-120.819 Y-10.045
X-120.827 Y-10.195
X-120.826 Y-10.347
X-120.773 Y-10.675
X-120.66 Y-10.987
X-120.491 Y-11.273
X-120.271 Y-11.522
X-120.009 Y-11.726
X-119.713 Y-11.876
X-119.394 Y-11.969
X-119.063 Y-12
X-118.306
G3 X-117.744 Y-11.26 I-0.021 J0.6
G1 X-118.416 Y-8.46
G3 X-118.978 Y-8 I-0.583 J-0.14
G1 X-119.784
X-119.934 Y-8.007
X-120.081 Y-8.035
X-120.224 Y-8.079
X-120.363 Y-8.137
X-120.495 Y-8.208
X-120.621 Y-8.29
X-120.74 Y-8.381
X-120.852 Y-8.481
X-120.957 Y-8.588
X-121.054 Y-8.702
X-121.144 Y-8.822
X-121.227 Y-8.947
X-121.302 Y-9.077
X-121.368 Y-9.212
X-121.427 Y-9.352
X-121.477 Y-9.493
X-121.518 Y-9.637
X-121.551 Y-9.786
X-121.574 Y-9.934
X-121.589 Y-10.084
X-121.594 Y-10.234
X-121.59 Y-10.384
X-121.534 Y-10.706
X-121.418 Y-11.012
X-121.248 Y-11.292
X-121.029 Y-11.534
X-120.769 Y-11.733
X-120.477 Y-11.879
X-120.163 Y-11.97
X-119.837 Y-12
X-119.063
G3 X-118.503 Y-11.251 I-0.021 J0.6
G1 X-119.224 Y-8.45
G3 X-119.784 Y-8 I-0.581 J-0.149
G1 X-120.549
X-120.698 Y-8.007
X-120.846 Y-8.034
X-120.99 Y-8.078
X-121.128 Y-8.135
X-121.26 Y-8.206
X-121.386 Y-8.287
X-121.506 Y-8.378
X-121.618 Y-8.478
X-121.723 Y-8.585
X-121.821 Y-8.699
X-121.911 Y-8.818
X-121.993 Y-8.944
X-122.068 Y-9.074
X-122.135 Y-9.208
X-122.193 Y-9.346
X-122.243 Y-9.488
X-122.285 Y-9.632
X-122.318 Y-9.778
X-122.342 Y-9.926
X-122.357 Y-10.075
X-122.363 Y-10.225
X-122.36 Y-10.375
X-122.304 Y-10.699
X-122.189 Y-11.006
X-122.02 Y-11.287
X-121.801 Y-11.531
X-121.54 Y-11.731
X-121.247 Y-11.879
X-120.932 Y-11.969
X-120.605 Y-12
X-119.837
G3 X-119.277 Y-11.253 I-0.021 J0.6
G1 X-119.988 Y-8.452
G3 X-120.549 Y-8 I-0.582 J-0.148
G1 X-121.304
X-121.454 Y-8.007
X-121.602 Y-8.032
X-121.746 Y-8.074
X-121.885 Y-8.131
X-122.018 Y-8.2
X-122.144 Y-8.281
X-122.264 Y-8.371
X-122.377 Y-8.47
X-122.483 Y-8.576
X-122.581 Y-8.689
X-122.672 Y-8.809
X-122.755 Y-8.934
X-122.831 Y-9.063
X-122.898 Y-9.197
X-122.957 Y-9.335
X-123.008 Y-9.476
X-123.051 Y-9.62
X-123.084 Y-9.766
X-123.108 Y-9.914
X-123.124 Y-10.063
X-123.131 Y-10.213
X-123.128 Y-10.364
X-123.127 Y-10.389
X-123.073 Y-10.709
X-122.961 Y-11.014
X-122.794 Y-11.292
X-122.578 Y-11.535
X-122.32 Y-11.733
X-122.03 Y-11.88
X-121.718 Y-11.97
X-121.395 Y-12
X-120.605
G3 X-120.044 Y-11.255 I-0.021 J0.6
G1 X-120.743 Y-8.454
G3 X-121.304 Y-8 I-0.582 J-0.145
G1 X-122.06
X-122.21 Y-8.007
X-122.358 Y-8.03
X-122.502 Y-8.071
X-122.642 Y-8.127
X-122.775 Y-8.195
X-122.902 Y-8.274
X-123.023 Y-8.364
X-123.136 Y-8.462
X-123.243 Y-8.568
X-123.342 Y-8.68
X-123.433 Y-8.799
X-123.517 Y-8.924
X-123.593 Y-9.053
X-123.661 Y-9.186
X-123.721 Y-9.324
X-123.773 Y-9.465
X-123.816 Y-9.608
X-123.851 Y-9.754
X-123.876 Y-9.902
X-123.894 Y-10.051
X-123.901 Y-10.201
X-123.9 Y-10.353
X-123.891 Y-10.503
X-123.81 Y-10.846
X-123.661 Y-11.166
X-123.449 Y-11.449
X-123.185 Y-11.682
X-122.877 Y-11.856
X-122.541 Y-11.964
X-122.19 Y-12
X-121.395
G3 X-120.832 Y-11.262 I-0.021 J0.6
G1 X-121.497 Y-8.461
G3 X-122.06 Y-8 I-0.584 J-0.139
G1 X-122.865
X-123.015 Y-8.007
X-123.162 Y-8.035
X-123.306 Y-8.08
X-123.443 Y-8.14
X-123.575 Y-8.211
X-123.701 Y-8.293
X-123.819 Y-8.385
X-123.931 Y-8.485
X-124.036 Y-8.593
X-124.133 Y-8.707
X-124.223 Y-8.827
X-124.305 Y-8.953
X-124.379 Y-9.083
X-124.446 Y-9.217
X-124.505 Y-9.355
X-124.556 Y-9.498
X-124.597 Y-9.642
X-124.631 Y-9.788
X-124.655 Y-9.936
X-124.671 Y-10.09
X-124.678 Y-10.24
X-124.675 Y-10.39
X-124.619 Y-10.711
X-124.504 Y-11.016
X-124.335 Y-11.294
X-124.117 Y-11.536
X-123.858 Y-11.734
X-123.567 Y-11.88
X-123.254 Y-11.97
X-122.929 Y-12
X-122.19
G3 X-121.628 Y-11.26 I-0.021 J0.6
G1 X-122.303 Y-8.459
G3 X-122.865 Y-8 I-0.583 J-0.141
G1 X-123.61
X-123.76 Y-8.007
X-123.908 Y-8.032
X-124.052 Y-8.074
X-124.191 Y-8.131
X-124.324 Y-8.2
X-124.45 Y-8.28
X-124.57 Y-8.37
X-124.684 Y-8.469
X-124.79 Y-8.575
X-124.888 Y-8.687
X-124.98 Y-8.806
X-125.064 Y-8.931
X-125.14 Y-9.06
X-125.208 Y-9.194
X-125.268 Y-9.331
X-125.319 Y-9.472
X-125.363 Y-9.616
X-125.397 Y-9.762
X-125.422 Y-9.91
X-125.439 Y-10.059
X-125.446 Y-10.209
X-125.444 Y-10.36
X-125.391 Y-10.686
X-125.278 Y-10.996
X-125.109 Y-11.279
X-124.89 Y-11.526
X-124.629 Y-11.728
X-124.334 Y-11.877
X-124.017 Y-11.969
X-123.689 Y-12
X-122.929
G3 X-122.367 Y-11.259 I-0.021 J0.6
G1 X-123.048 Y-8.458
G3 X-123.61 Y-8 I-0.583 J-0.142
G1 X-124.375
X-124.524 Y-8.007
X-124.672 Y-8.031
X-124.817 Y-8.072
X-124.956 Y-8.128
X-125.089 Y-8.197
X-125.216 Y-8.276
X-125.337 Y-8.366
X-125.45 Y-8.464
X-125.557 Y-8.57
X-125.656 Y-8.683
X-125.747 Y-8.801
X-125.831 Y-8.926
X-125.907 Y-9.055
X-125.976 Y-9.188
X-126.035 Y-9.326
X-126.087 Y-9.467
X-126.13 Y-9.61
X-126.164 Y-9.757
X-126.189 Y-9.904
X-126.206 Y-10.054
X-126.213 Y-10.203
X-126.212 Y-10.353
X-126.158 Y-10.68
X-126.045 Y-10.992
X-125.875 Y-11.276
X-125.656 Y-11.524
X-125.393 Y-11.727
X-125.098 Y-11.877
X-124.78 Y-11.969
X-124.45 Y-12
X-123.689
G3 X-123.127 Y-11.258 I-0.021 J0.6
G1 X-123.813 Y-8.457
G3 X-124.375 Y-8 I-0.583 J-0.143
G1 X-125.13
X-125.28 Y-8.007
X-125.428 Y-8.029
X-125.573 Y-8.068
X-125.713 Y-8.123
X-125.847 Y-8.19
X-125.975 Y-8.269
X-126.096 Y-8.358
X-126.21 Y-8.455
X-126.317 Y-8.56
X-126.416 Y-8.672
X-126.508 Y-8.791
X-126.593 Y-8.915
X-126.67 Y-9.044
X-126.739 Y-9.177
X-126.799 Y-9.314
X-126.851 Y-9.455
X-126.894 Y-9.598
X-126.929 Y-9.744
X-126.955 Y-9.892
X-126.972 Y-10.041
X-126.98 Y-10.191
X-126.978 Y-10.342
Y-10.352
X-126.926 Y-10.679
X-126.813 Y-10.991
X-126.644 Y-11.275
X-126.425 Y-11.524
X-126.163 Y-11.726
X-125.868 Y-11.877
X-125.55 Y-11.969
X-125.221 Y-12
X-124.45
G3 X-123.888 Y-11.259 I-0.021 J0.6
G1 X-124.568 Y-8.458
G3 X-125.13 Y-8 I-0.583 J-0.142
G1 X-125.936
X-126.086 Y-8.007
X-126.233 Y-8.034
X-126.377 Y-8.078
X-126.515 Y-8.136
X-126.647 Y-8.206
X-126.773 Y-8.288
X-126.892 Y-8.379
X-127.005 Y-8.478
X-127.11 Y-8.586
X-127.207 Y-8.7
X-127.297 Y-8.819
X-127.38 Y-8.945
X-127.455 Y-9.075
X-127.521 Y-9.209
X-127.58 Y-9.35
X-127.63 Y-9.491
X-127.672 Y-9.635
X-127.704 Y-9.784
X-127.728 Y-9.932
X-127.743 Y-10.081
X-127.748 Y-10.232
X-127.744 Y-10.382
X-127.742 Y-10.417
X-127.687 Y-10.732
X-127.574 Y-11.032
X-127.408 Y-11.305
X-127.194 Y-11.544
X-126.939 Y-11.738
X-126.653 Y-11.882
X-126.345 Y-11.97
X-126.026 Y-12
X-125.221
G3 X-124.66 Y-11.252 I-0.021 J0.6
G1 X-125.375 Y-8.451
G3 X-125.936 Y-8 I-0.581 J-0.148
G1 X-126.691
X-126.841 Y-8.007
X-126.989 Y-8.032
X-127.133 Y-8.075
X-127.272 Y-8.131
X-127.405 Y-8.201
X-127.531 Y-8.281
X-127.651 Y-8.372
X-127.764 Y-8.471
X-127.87 Y-8.577
X-127.968 Y-8.69
X-128.058 Y-8.81
X-128.142 Y-8.935
X-128.217 Y-9.064
X-128.285 Y-9.198
X-128.344 Y-9.336
X-128.395 Y-9.477
X-128.438 Y-9.621
X-128.472 Y-9.767
X-128.497 Y-9.917
X-128.514 Y-10.066
X-128.521 Y-10.215
X-128.519 Y-10.368
X-128.509 Y-10.517
X-128.428 Y-10.858
X-128.28 Y-11.175
X-128.069 Y-11.455
X-127.806 Y-11.685
X-127.501 Y-11.858
X-127.168 Y-11.964
X-126.82 Y-12
X-126.026
G3 X-125.463 Y-11.262 I-0.021 J0.6
G1 X-126.129 Y-8.461
G3 X-126.691 Y-8 I-0.584 J-0.139
G1 X-127.469
X-127.619 Y-8.007
X-127.767 Y-8.034
X-127.911 Y-8.077
X-128.049 Y-8.135
X-128.181 Y-8.205
X-128.307 Y-8.286
X-128.427 Y-8.377
X-128.539 Y-8.477
X-128.645 Y-8.583
X-128.742 Y-8.697
X-128.833 Y-8.817
X-128.916 Y-8.942
X-128.991 Y-9.071
X-129.059 Y-9.205
X-129.119 Y-9.343
X-129.17 Y-9.484
X-129.214 Y-9.631
X-129.248 Y-9.777
X-129.274 Y-9.924
X-129.29 Y-10.079
X-129.298 Y-10.229
X-129.297 Y-10.379
X-129.242 Y-10.701
X-129.128 Y-11.008
X-128.96 Y-11.288
X-128.742 Y-11.532
X-128.482 Y-11.731
X-128.19 Y-11.879
X-127.876 Y-11.969
X-127.55 Y-12
X-126.82
G3 X-126.256 Y-11.265 I-0.021 J0.6
G1 X-126.906 Y-8.464
G3 X-127.469 Y-8 I-0.584 J-0.136
G1 X-128.241
X-128.391 Y-8.007
X-128.539 Y-8.034
X-128.682 Y-8.078
X-128.821 Y-8.135
X-128.953 Y-8.206
X-129.079 Y-8.287
X-129.199 Y-8.378
X-129.311 Y-8.477
X-129.417 Y-8.583
X-129.515 Y-8.697
X-129.606 Y-8.816
X-129.689 Y-8.941
X-129.765 Y-9.07
X-129.833 Y-9.204
X-129.892 Y-9.342
X-129.943 Y-9.483
X-129.986 Y-9.627
X-130.019 Y-9.773
X-130.044 Y-9.921
X-130.06 Y-10.07
X-130.066 Y-10.22
X-130.064 Y-10.37
X-130.01 Y-10.694
X-129.896 Y-11.002
X-129.728 Y-11.284
X-129.509 Y-11.529
X-129.249 Y-11.73
X-128.955 Y-11.878
X-128.64 Y-11.969
X-128.313 Y-12
X-127.55
G3 X-126.989 Y-11.257 I-0.021 J0.6
G1 X-127.68 Y-8.456
G3 X-128.014 Y-8.054 I-0.583 J-0.144
X-128.241 Y-8 I-0.249 J-0.546
G1 X-129.006
X-129.156 Y-8.007
X-129.304 Y-8.033
X-129.448 Y-8.075
X-129.586 Y-8.132
X-129.719 Y-8.202
X-129.846 Y-8.282
X-129.966 Y-8.373
X-130.079 Y-8.471
X-130.184 Y-8.578
X-130.283 Y-8.691
X-130.374 Y-8.81
X-130.457 Y-8.935
X-130.533 Y-9.064
X-130.601 Y-9.198
X-130.66 Y-9.336
X-130.711 Y-9.477
X-130.753 Y-9.621
X-130.787 Y-9.767
X-130.811 Y-9.915
X-130.828 Y-10.064
X-130.834 Y-10.214
X-130.832 Y-10.364
X-130.778 Y-10.689
X-130.664 Y-10.999
X-130.495 Y-11.281
X-130.276 Y-11.528
X-130.015 Y-11.729
X-129.72 Y-11.878
X-129.404 Y-11.969
X-129.076 Y-12
X-128.313
G3 X-127.751 Y-11.256 I-0.021 J0.6
G1 X-128.445 Y-8.455
G3 X-129.006 Y-8 I-0.582 J-0.144
G1 X-129.762
X-129.912 Y-8.007
X-130.06 Y-8.031
X-130.204 Y-8.071
X-130.343 Y-8.127
X-130.477 Y-8.195
X-130.604 Y-8.275
X-130.725 Y-8.364
X-130.838 Y-8.462
X-130.945 Y-8.568
X-131.044 Y-8.68
X-131.135 Y-8.799
X-131.219 Y-8.923
X-131.296 Y-9.053
X-131.364 Y-9.186
X-131.423 Y-9.324
X-131.475 Y-9.465
X-131.518 Y-9.608
X-131.552 Y-9.754
X-131.578 Y-9.902
X-131.594 Y-10.051
X-131.602 Y-10.201
X-131.6 Y-10.352
X-131.599 Y-10.367
X-131.546 Y-10.691
X-131.434 Y-11
X-131.266 Y-11.282
X-131.048 Y-11.528
X-130.788 Y-11.729
X-130.495 Y-11.878
X-130.179 Y-11.969
X-129.852 Y-12
X-129.076
G3 X-128.514 Y-11.258 I-0.021 J0.6
G1 X-129.2 Y-8.457
G3 X-129.762 Y-8 I-0.583 J-0.143
G1 X-130.567
X-130.717 Y-8.007
X-130.864 Y-8.035
X-131.008 Y-8.08
X-131.145 Y-8.139
X-131.277 Y-8.211
X-131.403 Y-8.293
X-131.522 Y-8.385
X-131.633 Y-8.485
X-131.738 Y-8.592
X-131.835 Y-8.707
X-131.924 Y-8.827
X-132.006 Y-8.953
X-132.081 Y-9.083
X-132.147 Y-9.217
X-132.206 Y-9.359
X-132.255 Y-9.5
X-132.296 Y-9.645
X-132.329 Y-9.794
X-132.352 Y-9.942
X-132.366 Y-10.091
X-132.371 Y-10.241
X-132.368 Y-10.391
X-132.365 Y-10.428
X-132.297 Y-10.785
X-132.155 Y-11.12
X-131.945 Y-11.417
X-131.678 Y-11.663
X-131.364 Y-11.847
X-131.019 Y-11.961
X-130.658 Y-12
X-129.852
