%
(1001)
(z0 bottom)
(T1  D=6 CR=0 - ZMIN=12 - flat end mill)
G90 G94
G17
G21

(2D Contour1)
M9
T1 M6
S6500 M3
G54
M9
G0 X-15.2 Y-238.548
Z33
Z23
G1 Z21 F283.3
Z19.6
G18 G3 X-15.8 Z19 I-0.6
G1 X-16.4 F850
G17 G3 X-17 Y-239.148 J-0.6
G1 Y-282.05 Z16 F283.3
Y-357.6 F850
G2 X-20 Y-360.6 I-3
G1 X-724.746
X-742.746
G2 X-745.746 Y-357.6 J3
G1 Y-207.6
G2 X-742.746 Y-204.6 I3
G1 X-20
G2 X-17 Y-207.6 J-3
G1 Y-282.05
Y-357.6 Z15.144 F283.3
G2 X-20 Y-360.6 Z15.09 I-3
G1 X-116.172 Z14
X-724.746 F850
X-742.746
G2 X-745.746 Y-357.6 J3
G1 Y-207.6
G2 X-742.746 Y-204.6 I3
G1 X-20
G2 X-17 Y-207.6 J-3
G1 Y-357.6
G2 X-20 Y-360.6 I-3
G1 X-116.172
X-292.606 Z12 F283.3
X-724.746 F850
X-742.746
G2 X-745.746 Y-357.6 J3
G1 Y-207.6
G2 X-742.746 Y-204.6 I3
G1 X-20
G2 X-17 Y-207.6 J-3
G1 Y-357.6
G2 X-20 Y-360.6 I-3
G1 X-292.606
G0 Z23
X-549.513 Y-518.9
G1 Z21 F283.3
Z19.6
G19 G3 Y-518.3 Z19 J0.6
G1 Y-517.7 F850
G17 G3 X-550.113 Y-517.1 I-0.6
G1 X-593.015 Z16 F283.3
X-724.746 F850
G2 X-727.746 Y-514.1 J3
G1 Y-364.1
G2 X-724.746 Y-361.1 I3
G1 X-20
G2 X-17 Y-364.1 J-3
G1 Y-514.1
G2 X-20 Y-517.1 I-3
G1 X-593.015
X-724.746 Z14.476 F283.3
G2 X-727.746 Y-514.1 Z14.421 J3
G1 Y-477.709 Z14
Y-364.1 F850
G2 X-724.746 Y-361.1 I3
G1 X-20
G2 X-17 Y-364.1 J-3
G1 Y-514.1
G2 X-20 Y-517.1 I-3
G1 X-593.015
X-724.746
G2 X-727.746 Y-514.1 J3
G1 Y-477.709
Y-364.1 Z12.685 F283.3
G2 X-724.746 Y-361.1 Z12.631 I3
G1 X-670.233 Z12
X-20 F850
G2 X-17 Y-364.1 J-3
G1 Y-514.1
G2 X-20 Y-517.1 I-3
G1 X-724.746
G2 X-727.746 Y-514.1 J3
G1 Y-364.1
G2 X-724.746 Y-361.1 I3
G1 X-670.233
G0 Z23
X-727.846 Y-475.352
G1 Z21 F283.3
Z19.599
G19 G2 Y-475.91 Z19 J-0.6
G1 Y-514.1 Z16.33
G17 G2 X-730.846 Y-517.1 Z16 I-3
G1 X-1108.25 F850
G2 X-1111.25 Y-514.1 J3
G1 Y-364.1
G2 X-1108.25 Y-361.1 I3
G1 X-730.846
G2 X-727.846 Y-364.1 J-3
G1 Y-514.1
G2 X-730.846 Y-517.1 I-3
G1 X-838.212 Z14 F283.3
X-1108.25 F850
G2 X-1111.25 Y-514.1 J3
G1 Y-364.1
G2 X-1108.25 Y-361.1 I3
G1 X-730.846
G2 X-727.846 Y-364.1 J-3
G1 Y-514.1
G2 X-730.846 Y-517.1 I-3
G1 X-838.212
X-945.578 Z12 F283.3
X-1108.25 F850
G2 X-1111.25 Y-514.1 J3
G1 Y-364.1
G2 X-1108.25 Y-361.1 I3
G1 X-730.846
G2 X-727.846 Y-364.1 J-3
G1 Y-514.1
G2 X-730.846 Y-517.1 I-3
G1 X-945.578
G0 Z23
X-1087.071 Y-360.6
G1 Z21 F283.3
Z19.599
G18 G3 X-1087.629 Z19 I-0.6
G1 X-1126.25 Z16.299
G17 G2 X-1129.219 Y-358.03 Z16 J3
X-1129.25 Y-357.6 I2.969 J0.43 F850
G1 Y-207.6
G2 X-1126.25 Y-204.6 I3
G1 X-748.846
G2 X-745.846 Y-207.6 J-3
G1 Y-357.6
G2 X-748.846 Y-360.6 I-3
G1 X-1126.25
G2 X-1129.219 Y-358.03 J3
X-1129.25 Y-357.6 Z15.992 I2.969 J0.43 F283.3
G1 Y-250.666 Z14
Y-207.6 F850
G2 X-1126.25 Y-204.6 I3
G1 X-748.846
G2 X-745.846 Y-207.6 J-3
G1 Y-357.6
G2 X-748.846 Y-360.6 I-3
G1 X-1126.25
G2 X-1129.25 Y-357.6 J3
G1 Y-250.666
Y-207.6 Z13.198 F283.3
G2 X-1126.25 Y-204.6 Z13.11 I3
G1 X-1066.662 Z12
X-748.846 F850
G2 X-745.846 Y-207.6 J-3
G1 Y-357.6
G2 X-748.846 Y-360.6 I-3
G1 X-1126.25
G2 X-1129.25 Y-357.6 J3
G1 Y-250.666
Y-207.6
G2 X-1126.25 Y-204.6 I3
G1 X-1066.662
G0 Z23
X-1059.532 Y-45.2
G1 Z21 F283.3
Z19.6
G19 G2 Y-45.8 Z19 J-0.6
G1 Y-46.4 F850
G17 G3 X-1058.932 Y-47 I0.6
G1 X-1016.03 Z16 F283.3
G2 X-1013.03 Y-50 J-3 F850
G1 Y-201.421
G2 X-1016.03 Y-204.421 I-3
G1 X-1166.03
G2 X-1169.03 Y-201.421 J3
G1 Y-50
G2 X-1166.03 Y-47 I3
G1 X-1016.03
G2 X-1013.03 Y-50 Z15.848 J-3 F283.3
G1 Y-107.457 Z14
Y-201.421 F850
G2 X-1016.03 Y-204.421 I-3
G1 X-1166.03
G2 X-1169.03 Y-201.421 J3
G1 Y-50
G2 X-1166.03 Y-47 I3
G1 X-1016.03
G2 X-1013.03 Y-50 J-3
G1 Y-107.457
Y-169.626 Z12 F283.3
Y-201.421 F850
G2 X-1016.03 Y-204.421 I-3
G1 X-1166.03
G2 X-1169.03 Y-201.421 J3
G1 Y-50
G2 X-1166.03 Y-47 I3
G1 X-1016.03
G2 X-1013.03 Y-50 J-3
G1 Y-169.626
G0 Z23
X-902.941 Y-45.2
G1 Z21 F283.3
Z19.6
G19 G2 Y-45.8 Z19 J-0.6
G1 Y-46.4 F850
G17 G3 X-902.341 Y-47 I0.6
G1 X-859.531 Z16.006 F283.3
G2 X-859.439 Y-47.001 Z16 J-3
X-856.531 Y-50 I-0.092 J-2.999 F850
G1 Y-201.421
G2 X-859.531 Y-204.421 I-3
G1 X-1009.53
G2 X-1012.53 Y-201.421 J3
G1 Y-50
G2 X-1009.53 Y-47 I3
G1 X-859.531
G2 X-859.439 Y-47.001 J-3
X-856.531 Y-50 Z15.851 I-0.092 J-2.999 F283.3
G1 Y-107.549 Z14
Y-201.421 F850
G2 X-859.531 Y-204.421 I-3
G1 X-1009.53
G2 X-1012.53 Y-201.421 J3
G1 Y-50
G2 X-1009.53 Y-47 I3
G1 X-859.531
G2 X-856.531 Y-50 J-3
G1 Y-107.549
Y-169.718 Z12 F283.3
Y-201.421 F850
G2 X-859.531 Y-204.421 I-3
G1 X-1009.53
G2 X-1012.53 Y-201.421 J3
G1 Y-50
G2 X-1009.53 Y-47 I3
G1 X-859.531
G2 X-856.531 Y-50 J-3
G1 Y-169.718
G0 Z23
X-636.517 Y-46.3
G1 Z21 F283.3
Z19.6
G19 G2 Y-46.9 Z19 J-0.6
G1 Y-47.5 F850
G17 G3 X-635.917 Y-48.1 I0.6
G1 X-593.015 Z16 F283.3
X-20 F850
G2 X-17 Y-51.1 J-3
G1 Y-201.1
G2 X-20 Y-204.1 I-3
G1 X-748.846
X-853.431
G2 X-856.431 Y-201.1 J3
G1 Y-51.1
G2 X-853.431 Y-48.1 I3
G1 X-593.015
X-394.444 Z14 F283.3
X-20 F850
G2 X-17 Y-51.1 J-3
G1 Y-201.1
G2 X-20 Y-204.1 I-3
G1 X-748.846
X-853.431
G2 X-856.431 Y-201.1 J3
G1 Y-51.1
G2 X-853.431 Y-48.1 I3
G1 X-593.015
X-394.444
X-195.873 Z12 F283.3
X-20 F850
G2 X-17 Y-51.1 J-3
G1 Y-201.1
G2 X-20 Y-204.1 I-3
G1 X-748.846
X-853.431
G2 X-856.431 Y-201.1 J3
G1 Y-51.1
G2 X-853.431 Y-48.1 I3
G1 X-394.444
X-195.873
G0 Z23
X-641.916 Y-82.598
G1 Z21 F283.3
Z19.6
G18 G3 X-642.516 Z19 I-0.6
G1 X-643.116 F850
G17 G3 X-643.716 Y-83.198 J-0.6
G1 Y-126.1 Z16 F283.3
Y-180.1 F850
X-229.716
Y-72.1
X-643.716
Y-126.1
Y-180.1 Z14.966 F283.3
X-593.316 Z14
X-229.716 F850
Y-72.1
X-643.716
Y-180.1
X-593.316
X-488.916 Z12 F283.3
X-229.716 F850
Y-72.1
X-643.716
Y-180.1
X-488.916
G0 Z33
M9
M30
%
