%
(1001)
(z0 bottom)
(T1  D=6 CR=0 - ZMIN=10 - flat end mill)
G90 G94
G17
G21

(2D Adaptive2)
M9
T1 M6
S6500 M3
G54
M9
G0 X-853.993 Y-258.453
Z48
Z38
Z11.2
G1 Z10.6 F850
X-853.991 Y-258.446 Z10.506
X-853.983 Y-258.425 Z10.415
X-853.97 Y-258.391 Z10.328
X-853.953 Y-258.345 Z10.247
X-853.932 Y-258.288 Z10.176
X-853.907 Y-258.221 Z10.115
X-853.879 Y-258.145 Z10.065
X-853.849 Y-258.064 Z10.029
X-853.817 Y-257.978 Z10.007
X-853.784 Y-257.89 Z10
G3 X-852.974 Y-254.691 I-14.358 J5.337
G1 X-852.96 Y-254.551
X-852.928 Y-254.349
X-852.873 Y-254.148
X-852.841 Y-254.044
X-852.804 Y-253.946
X-852.722 Y-253.745
X-852.62 Y-253.544
X-852.55 Y-253.433
X-852.454 Y-253.26
X-852.356 Y-253.057
X-852.25 Y-252.803
X-852.136 Y-252.482
X-852.016 Y-252.068
X-851.889 Y-251.519
X-851.756 Y-250.747
X-851.655 Y-249.867
X-851.591 Y-248.983
X-851.549 Y-248.098
X-851.522 Y-247.212
X-851.504 Y-246.326
X-851.492 Y-245.44
X-851.485 Y-244.554
X-851.482 Y-244.012
X-851.504 Y-243.701
X-851.575 Y-243.397
X-851.692 Y-243.107
X-851.853 Y-242.84
X-852.053 Y-242.6
G3 X-852.251 Y-242.475 I-0.414 J-0.435
G1 X-852.339 Y-242.442 Z10.007
X-852.424 Y-242.409 Z10.029
X-852.505 Y-242.377 Z10.065
X-852.58 Y-242.349 Z10.115
X-852.647 Y-242.323 Z10.176
X-852.704 Y-242.301 Z10.247
X-852.75 Y-242.283 Z10.328
X-852.784 Y-242.27 Z10.415
X-852.804 Y-242.262 Z10.506
X-852.811 Y-242.26 Z10.6
G0 Z38
X-853.333 Y-253.279
Z11.2
G1 Z10.6 F850
X-853.326 Y-253.282 Z10.506
X-853.305 Y-253.29 Z10.415
X-853.272 Y-253.303 Z10.328
X-853.226 Y-253.322 Z10.247
X-853.17 Y-253.344 Z10.176
X-853.103 Y-253.371 Z10.115
X-853.029 Y-253.401 Z10.065
X-852.948 Y-253.433 Z10.029
X-852.863 Y-253.467 Z10.007
X-852.776 Y-253.502 Z10
G3 X-852.55 Y-253.433 I0.07 J0.174
G1 X-852.494 Y-253.342
X-852.439 Y-253.258
X-852.343 Y-253.141
X-851.971 Y-252.738
X-851.835 Y-252.592
X-851.779 Y-252.537
X-851.599 Y-252.337
X-851.496 Y-252.21
X-851.388 Y-252.059
X-851.267 Y-251.868
X-851.142 Y-251.645
X-851.014 Y-251.383
X-850.876 Y-251.054
X-850.738 Y-250.667
X-850.593 Y-250.171
X-850.444 Y-249.53
X-850.293 Y-248.659
X-850.19 Y-247.779
X-850.121 Y-246.895
X-850.073 Y-246.01
X-850.059 Y-245.387
X-850.074 Y-244.945
X-850.084 Y-244.839
X-850.145 Y-244.49
X-850.265 Y-244.156
X-850.439 Y-243.846
X-850.662 Y-243.57
X-850.928 Y-243.335
X-851.23 Y-243.149
X-851.315 Y-243.106
G3 X-851.542 Y-243.051 I-0.252 J-0.544
X-852.165 Y-243.607 I-0.025 J-0.599
G1 X-852.787 Y-252.054
G3 X-851.779 Y-252.537 I0.598 J-0.044
G1 X-850.425 Y-251.182
X-850.268 Y-251.008
X-850.15 Y-250.863
X-850.018 Y-250.678
X-849.882 Y-250.464
X-849.746 Y-250.223
X-849.596 Y-249.915
X-849.452 Y-249.57
X-849.295 Y-249.128
X-849.14 Y-248.599
X-848.987 Y-247.941
X-848.866 Y-247.246
X-848.803 Y-246.7
X-848.775 Y-246.237
X-848.774 Y-245.891
X-848.792 Y-245.553
X-848.822 Y-245.278
X-848.87 Y-244.992
X-848.891 Y-244.9
X-849.012 Y-244.534
X-849.201 Y-244.197
X-849.452 Y-243.903
X-849.754 Y-243.663
X-850.096 Y-243.485
X-850.467 Y-243.377
G3 X-850.701 Y-243.387 I-0.092 J-0.593
X-851.158 Y-243.945 I0.142 J-0.583
G1 X-851.434 Y-250.719
G3 X-850.624 Y-251.305 I0.599 J-0.024
X-850.425 Y-251.182 I-0.21 J0.562
G1 X-849.015 Y-249.773
X-848.838 Y-249.576
X-848.72 Y-249.43
X-848.587 Y-249.246
X-848.453 Y-249.034
X-848.318 Y-248.793
X-848.186 Y-248.523
X-848.058 Y-248.217
X-847.944 Y-247.897
X-847.847 Y-247.564
X-847.767 Y-247.22
X-847.707 Y-246.874
X-847.668 Y-246.545
X-847.651 Y-246.249
X-847.65 Y-245.946
X-847.663 Y-245.705
X-847.691 Y-245.443
X-847.73 Y-245.212
X-847.776 Y-245.008
X-847.841 Y-244.782
X-847.908 Y-244.588
X-847.919 Y-244.563
X-848.076 Y-244.262
X-848.285 Y-243.994
X-848.539 Y-243.768
X-848.83 Y-243.592
X-849.147 Y-243.471
X-849.481 Y-243.409
X-849.821 Y-243.408
G3 X-850.047 Y-243.466 I0.033 J-0.599
X-850.386 Y-244.048 I0.26 J-0.541
G1 X-850.023 Y-249.375
G3 X-849.015 Y-249.773 I0.599 J0.041
G1 X-847.671 Y-248.429
X-847.521 Y-248.263
X-847.424 Y-248.142
X-847.327 Y-248.008
X-847.229 Y-247.853
X-847.137 Y-247.689
X-847.048 Y-247.506
X-846.965 Y-247.308
X-846.89 Y-247.097
X-846.826 Y-246.878
X-846.773 Y-246.65
X-846.732 Y-246.415
X-846.704 Y-246.172
X-846.689 Y-245.929
Y-245.715
X-846.701 Y-245.481
X-846.724 Y-245.276
X-846.756 Y-245.083
X-846.803 Y-244.876
X-846.853 Y-244.7
X-846.914 Y-244.525
X-846.989 Y-244.343
X-847.01 Y-244.3
X-847.205 Y-243.98
X-847.46 Y-243.705
X-847.765 Y-243.486
X-848.107 Y-243.332
X-848.473 Y-243.25
X-848.847 Y-243.241
X-849.217 Y-243.308
G3 X-849.426 Y-243.412 I0.158 J-0.579
X-849.643 Y-244.026 I0.367 J-0.475
G1 X-848.664 Y-248.129
G3 X-847.87 Y-248.552 I0.584 J0.139
X-847.671 Y-248.429 I-0.21 J0.562
G1 X-846.599 Y-247.356
X-846.497 Y-247.244
X-846.403 Y-247.127
X-846.317 Y-247.004
X-846.24 Y-246.875
X-846.171 Y-246.742
X-846.107 Y-246.601
X-846.048 Y-246.448
X-845.996 Y-246.285
X-845.952 Y-246.115
X-845.917 Y-245.939
X-845.891 Y-245.755
X-845.875 Y-245.563
X-845.87 Y-245.385
X-845.875 Y-245.206
X-845.892 Y-245.009
X-845.916 Y-244.839
X-845.948 Y-244.678
X-845.995 Y-244.496
X-846.047 Y-244.332
X-846.102 Y-244.188
X-846.174 Y-244.028
X-846.255 Y-243.874
X-846.333 Y-243.742
X-846.421 Y-243.611
X-846.66 Y-243.353
X-846.944 Y-243.146
X-847.263 Y-242.999
X-847.605 Y-242.917
X-847.956 Y-242.903
X-848.303 Y-242.958
X-848.633 Y-243.08
G3 X-848.814 Y-243.228 I0.281 J-0.53
X-848.908 Y-243.836 I0.462 J-0.382
G1 X-847.564 Y-247.143
G3 X-846.798 Y-247.479 I0.556 J0.226
X-846.599 Y-247.356 I-0.21 J0.562
G1 X-845.738 Y-246.495
X-845.637 Y-246.384
X-845.547 Y-246.264
X-845.467 Y-246.137
X-845.397 Y-246.005
X-845.336 Y-245.867
X-845.285 Y-245.726
X-845.243 Y-245.582
X-845.21 Y-245.436
X-845.184 Y-245.287
X-845.167 Y-245.129
X-845.158 Y-244.965
Y-244.798
X-845.168 Y-244.628
X-845.186 Y-244.467
X-845.212 Y-244.317
X-845.252 Y-244.146
X-845.297 Y-243.99
X-845.347 Y-243.849
X-845.411 Y-243.697
X-845.483 Y-243.549
X-845.556 Y-243.418
X-845.638 Y-243.29
X-845.735 Y-243.155
X-845.83 Y-243.038
X-845.931 Y-242.927
X-845.944 Y-242.914
X-846.222 Y-242.694
X-846.539 Y-242.537
X-846.882 Y-242.449
X-847.236 Y-242.435
X-847.585 Y-242.494
X-847.915 Y-242.624
X-848.21 Y-242.82
G3 X-848.366 Y-242.994 I0.359 J-0.481
X-848.361 Y-243.616 I0.516 J-0.307
G1 X-846.657 Y-246.372
G3 X-845.937 Y-246.618 I0.51 J0.316
X-845.738 Y-246.495 I-0.21 J0.562
G1 X-845.053 Y-245.811
X-844.953 Y-245.699
X-844.86 Y-245.582
X-844.779 Y-245.455
X-844.71 Y-245.322
X-844.652 Y-245.184
X-844.604 Y-245.042
X-844.566 Y-244.896
X-844.538 Y-244.749
X-844.519 Y-244.6
X-844.51 Y-244.451
X-844.508 Y-244.301
X-844.516 Y-244.148
X-844.533 Y-243.99
X-844.559 Y-243.83
X-844.594 Y-243.669
X-844.635 Y-243.524
X-844.684 Y-243.381
X-844.749 Y-243.222
X-844.815 Y-243.083
X-844.887 Y-242.952
X-844.972 Y-242.816
X-845.064 Y-242.686
X-845.157 Y-242.569
X-845.257 Y-242.458
X-845.373 Y-242.344
X-845.638 Y-242.151
X-845.935 Y-242.011
X-846.253 Y-241.929
X-846.581 Y-241.909
X-846.906 Y-241.95
X-847.219 Y-242.051
X-847.506 Y-242.209
X-847.76 Y-242.418
X-847.809 Y-242.467
X-848.008 Y-242.653
X-848.21 Y-242.82
G3 X-848.351 Y-243.006 I0.398 J-0.449
X-848.212 Y-243.716 I0.539 J-0.263
G1 X-845.863 Y-245.819
G3 X-845.252 Y-245.934 I0.4 J0.447
X-845.053 Y-245.811 I-0.21 J0.562
G1 X-844.383 Y-245.141
X-844.283 Y-245.03
X-844.194 Y-244.909
X-844.118 Y-244.78
X-844.054 Y-244.644
X-844.002 Y-244.503
X-843.96 Y-244.359
X-843.929 Y-244.212
X-843.908 Y-244.064
X-843.897 Y-243.914
X-843.894 Y-243.764
X-843.901 Y-243.614
X-843.916 Y-243.463
X-843.94 Y-243.311
X-843.973 Y-243.158
X-844.016 Y-243.002
X-844.065 Y-242.86
X-844.124 Y-242.713
X-844.193 Y-242.566
X-844.264 Y-242.435
X-844.344 Y-242.307
X-844.437 Y-242.174
X-844.53 Y-242.057
X-844.63 Y-241.945
X-844.744 Y-241.831
X-844.856 Y-241.731
X-844.864 Y-241.725
X-845.172 Y-241.529
X-845.515 Y-241.402
X-845.876 Y-241.347
X-846.241 Y-241.368
X-846.594 Y-241.464
X-846.919 Y-241.631
X-847.203 Y-241.861
X-847.76 Y-242.418
G3 X-847.883 Y-242.617 I0.438 J-0.41
X-847.678 Y-243.31 I0.562 J-0.211
G1 X-845.15 Y-245.184
G3 X-844.582 Y-245.264 I0.357 J0.482
X-844.383 Y-245.141 I-0.21 J0.562
G1 X-843.779 Y-244.537
X-843.679 Y-244.425
X-843.589 Y-244.305
X-843.513 Y-244.176
X-843.45 Y-244.04
X-843.398 Y-243.899
X-843.358 Y-243.754
X-843.329 Y-243.607
X-843.31 Y-243.458
X-843.301 Y-243.309
Y-243.159
X-843.311 Y-243.009
X-843.329 Y-242.86
X-843.356 Y-242.708
X-843.392 Y-242.556
X-843.438 Y-242.402
X-843.491 Y-242.256
X-843.55 Y-242.118
X-843.623 Y-241.97
X-843.703 Y-241.83
X-843.785 Y-241.704
X-843.873 Y-241.583
X-843.979 Y-241.455
X-844.081 Y-241.345
X-844.189 Y-241.241
X-844.31 Y-241.138
X-844.621 Y-240.95
X-844.963 Y-240.828
X-845.323 Y-240.779
X-845.686 Y-240.804
X-846.035 Y-240.902
X-846.358 Y-241.069
X-846.64 Y-241.298
X-847.203 Y-241.861
G3 X-847.326 Y-242.06 I0.439 J-0.409
X-847.111 Y-242.76 I0.562 J-0.21
G1 X-844.536 Y-244.587
G3 X-843.978 Y-244.66 I0.347 J0.489
X-843.779 Y-244.537 I-0.21 J0.562
G1 X-843.175 Y-243.932
X-843.074 Y-243.821
X-842.987 Y-243.699
X-842.913 Y-243.569
X-842.852 Y-243.432
X-842.804 Y-243.29
X-842.766 Y-243.145
X-842.74 Y-242.997
X-842.723 Y-242.848
X-842.717 Y-242.698
X-842.72 Y-242.548
X-842.732 Y-242.399
X-842.753 Y-242.249
X-842.783 Y-242.097
X-842.822 Y-241.944
X-842.87 Y-241.792
X-842.926 Y-241.646
X-842.987 Y-241.509
X-843.063 Y-241.363
X-843.146 Y-241.224
X-843.229 Y-241.1
X-843.32 Y-240.98
X-843.428 Y-240.854
X-843.532 Y-240.746
X-843.642 Y-240.644
X-843.922 Y-240.455
X-844.231 Y-240.32
X-844.56 Y-240.244
X-844.898 Y-240.229
X-845.232 Y-240.277
X-845.552 Y-240.385
X-845.847 Y-240.549
X-846.107 Y-240.765
X-846.64 Y-241.298
G3 X-846.763 Y-241.497 I0.439 J-0.409
X-846.539 Y-242.203 I0.562 J-0.21
G1 X-843.923 Y-243.989
G3 X-843.374 Y-244.056 I0.338 J0.496
X-843.175 Y-243.932 I-0.21 J0.562
G1 X-842.601 Y-243.358
X-842.5 Y-243.247
X-842.411 Y-243.126
X-842.337 Y-242.995
X-842.275 Y-242.859
X-842.226 Y-242.717
X-842.189 Y-242.572
X-842.162 Y-242.424
X-842.146 Y-242.275
X-842.139 Y-242.125
X-842.142 Y-241.975
X-842.154 Y-241.826
X-842.175 Y-241.677
X-842.205 Y-241.527
X-842.244 Y-241.375
X-842.291 Y-241.227
X-842.344 Y-241.086
X-842.411 Y-240.94
X-842.483 Y-240.8
X-842.56 Y-240.671
X-842.648 Y-240.543
X-842.745 Y-240.416
X-842.842 Y-240.302
X-842.947 Y-240.195
X-843.066 Y-240.085
X-843.347 Y-239.894
X-843.659 Y-239.758
X-843.99 Y-239.681
X-844.33 Y-239.667
X-844.666 Y-239.714
X-844.989 Y-239.823
X-845.286 Y-239.989
X-845.547 Y-240.206
X-846.107 Y-240.765
G3 X-846.23 Y-240.964 I0.439 J-0.409
X-845.997 Y-241.676 I0.562 J-0.21
G1 X-843.339 Y-243.421
G3 X-842.8 Y-243.481 I0.329 J0.502
X-842.601 Y-243.358 I-0.21 J0.562
G1 X-842.032 Y-242.79
X-841.932 Y-242.679
X-841.842 Y-242.559
X-841.766 Y-242.429
X-841.704 Y-242.293
X-841.654 Y-242.151
X-841.615 Y-242.006
X-841.588 Y-241.859
X-841.571 Y-241.71
X-841.565 Y-241.56
X-841.567 Y-241.41
X-841.579 Y-241.26
X-841.6 Y-241.112
X-841.63 Y-240.964
X-841.668 Y-240.815
X-841.715 Y-240.666
X-841.769 Y-240.526
X-841.835 Y-240.379
X-841.908 Y-240.239
X-841.985 Y-240.111
X-842.073 Y-239.982
X-842.17 Y-239.855
X-842.268 Y-239.741
X-842.372 Y-239.633
X-842.492 Y-239.523
X-842.774 Y-239.331
X-843.088 Y-239.194
X-843.421 Y-239.117
X-843.762 Y-239.102
X-844.101 Y-239.15
X-844.424 Y-239.259
X-844.723 Y-239.426
X-844.986 Y-239.645
X-845.547 Y-240.206
G3 X-845.67 Y-240.405 I0.439 J-0.409
X-845.436 Y-241.118 I0.562 J-0.21
G1 X-842.769 Y-242.854
G3 X-842.232 Y-242.913 I0.327 J0.503
X-842.032 Y-242.79 I-0.21 J0.562
G1 X-841.428 Y-242.186
X-841.328 Y-242.074
X-841.242 Y-241.951
X-841.171 Y-241.819
X-841.113 Y-241.681
X-841.066 Y-241.538
X-841.032 Y-241.392
X-841.008 Y-241.244
X-840.994 Y-241.095
X-840.991 Y-240.945
X-840.997 Y-240.795
X-841.012 Y-240.646
X-841.036 Y-240.498
X-841.069 Y-240.348
X-841.111 Y-240.197
X-841.159 Y-240.055
X-841.216 Y-239.916
X-841.287 Y-239.766
X-841.359 Y-239.633
X-841.439 Y-239.506
X-841.533 Y-239.373
X-841.629 Y-239.253
X-841.729 Y-239.141
X-841.842 Y-239.029
X-841.96 Y-238.925
X-841.989 Y-238.901
X-842.305 Y-238.701
X-842.656 Y-238.571
X-843.026 Y-238.515
X-843.399 Y-238.537
X-843.76 Y-238.636
X-844.093 Y-238.806
X-844.383 Y-239.042
X-844.986 Y-239.645
G3 X-845.109 Y-239.844 I0.439 J-0.409
X-844.865 Y-240.563 I0.562 J-0.21
G1 X-842.155 Y-242.256
G3 X-841.627 Y-242.309 I0.318 J0.509
X-841.428 Y-242.186 I-0.21 J0.562
G1 X-840.86 Y-241.618
X-840.76 Y-241.506
X-840.673 Y-241.384
X-840.602 Y-241.252
X-840.543 Y-241.114
X-840.497 Y-240.971
X-840.462 Y-240.825
X-840.438 Y-240.677
X-840.424 Y-240.528
X-840.421 Y-240.378
X-840.427 Y-240.228
X-840.442 Y-240.079
X-840.466 Y-239.931
X-840.498 Y-239.783
X-840.54 Y-239.633
X-840.591 Y-239.482
X-840.648 Y-239.343
X-840.714 Y-239.204
X-840.796 Y-239.054
X-840.875 Y-238.925
X-840.962 Y-238.802
X-841.064 Y-238.673
X-841.17 Y-238.555
X-841.276 Y-238.449
X-841.388 Y-238.349
X-841.518 Y-238.246
X-841.825 Y-238.074
X-842.16 Y-237.965
X-842.51 Y-237.925
X-842.862 Y-237.956
X-843.2 Y-238.055
X-843.511 Y-238.22
X-843.784 Y-238.443
X-844.383 Y-239.042
G3 X-844.507 Y-239.241 I0.439 J-0.409
X-844.27 Y-239.955 I0.562 J-0.21
G1 X-841.595 Y-241.683
G3 X-841.059 Y-241.741 I0.326 J0.504
X-840.86 Y-241.618 I-0.21 J0.562
G1 X-840.3 Y-241.058
X-840.2 Y-240.946
X-840.112 Y-240.825
X-840.039 Y-240.694
X-839.979 Y-240.556
X-839.932 Y-240.414
X-839.896 Y-240.268
X-839.871 Y-240.12
X-839.856 Y-239.971
X-839.852 Y-239.821
X-839.857 Y-239.671
X-839.871 Y-239.522
X-839.894 Y-239.374
X-839.925 Y-239.224
X-839.966 Y-239.074
X-840.017 Y-238.922
X-840.078 Y-238.769
X-840.141 Y-238.633
X-840.213 Y-238.497
X-840.301 Y-238.353
X-840.387 Y-238.228
X-840.479 Y-238.11
X-840.588 Y-237.985
X-840.696 Y-237.875
X-840.807 Y-237.774
X-840.928 Y-237.677
X-841.235 Y-237.5
X-841.572 Y-237.389
X-841.924 Y-237.347
X-842.277 Y-237.376
X-842.617 Y-237.475
X-842.931 Y-237.64
X-843.206 Y-237.864
X-843.784 Y-238.443
G3 X-843.907 Y-238.642 I0.439 J-0.409
X-843.679 Y-239.35 I0.562 J-0.21
G1 X-841.044 Y-241.117
G3 X-840.499 Y-241.181 I0.334 J0.498
X-840.3 Y-241.058 I-0.21 J0.562
G1 X-839.721 Y-240.478
X-839.62 Y-240.367
X-839.534 Y-240.244
X-839.463 Y-240.113
X-839.404 Y-239.975
X-839.357 Y-239.832
X-839.322 Y-239.686
X-839.298 Y-239.538
X-839.284 Y-239.389
X-839.28 Y-239.239
X-839.285 Y-239.089
X-839.299 Y-238.94
X-839.322 Y-238.791
X-839.355 Y-238.64
X-839.396 Y-238.488
X-839.447 Y-238.336
X-839.507 Y-238.184
X-839.57 Y-238.048
X-839.645 Y-237.909
X-839.732 Y-237.766
X-839.818 Y-237.643
X-839.91 Y-237.525
X-840.02 Y-237.4
X-840.126 Y-237.292
X-840.237 Y-237.191
X-840.515 Y-237.008
X-840.821 Y-236.878
X-841.145 Y-236.806
X-841.478 Y-236.794
X-841.807 Y-236.843
X-842.121 Y-236.95
X-842.411 Y-237.113
X-842.667 Y-237.326
X-843.206 Y-237.864
G3 X-843.329 Y-238.063 I0.439 J-0.409
X-843.101 Y-238.772 I0.562 J-0.21
G1 X-840.464 Y-240.538
G3 X-839.721 Y-240.478 I0.334 J0.498
G1 X-839.147 Y-239.905
X-839.047 Y-239.794
X-838.961 Y-239.671
X-838.889 Y-239.539
X-838.83 Y-239.401
X-838.784 Y-239.258
X-838.748 Y-239.113
X-838.724 Y-238.965
X-838.71 Y-238.815
X-838.706 Y-238.665
X-838.711 Y-238.515
X-838.725 Y-238.366
X-838.747 Y-238.217
X-838.779 Y-238.067
X-838.82 Y-237.915
X-838.87 Y-237.765
X-838.925 Y-237.625
X-838.993 Y-237.479
X-839.068 Y-237.339
X-839.146 Y-237.211
X-839.235 Y-237.083
X-839.334 Y-236.958
X-839.433 Y-236.845
X-839.539 Y-236.738
X-839.658 Y-236.63
X-839.937 Y-236.445
X-840.245 Y-236.314
X-840.572 Y-236.241
X-840.906 Y-236.228
X-841.238 Y-236.277
X-841.555 Y-236.385
X-841.847 Y-236.549
X-842.104 Y-236.763
X-842.667 Y-237.326
G3 X-842.79 Y-237.525 I0.439 J-0.409
X-842.554 Y-238.238 I0.562 J-0.21
G1 X-839.883 Y-239.969
G3 X-839.346 Y-240.028 I0.326 J0.504
X-839.147 Y-239.905 I-0.21 J0.562
G1 X-838.573 Y-239.33
X-838.472 Y-239.219
X-838.386 Y-239.096
X-838.314 Y-238.964
X-838.256 Y-238.826
X-838.209 Y-238.684
X-838.173 Y-238.538
X-838.149 Y-238.39
X-838.135 Y-238.241
X-838.131 Y-238.091
X-838.136 Y-237.941
X-838.15 Y-237.792
X-838.173 Y-237.643
X-838.205 Y-237.494
X-838.246 Y-237.344
X-838.296 Y-237.196
X-838.351 Y-237.056
X-838.42 Y-236.909
X-838.495 Y-236.77
X-838.573 Y-236.643
X-838.664 Y-236.513
X-838.762 Y-236.388
X-838.861 Y-236.276
X-838.969 Y-236.168
X-839.089 Y-236.06
X-839.369 Y-235.876
X-839.677 Y-235.745
X-840.004 Y-235.673
X-840.339 Y-235.661
X-840.671 Y-235.709
X-840.988 Y-235.818
X-841.28 Y-235.982
X-841.538 Y-236.196
X-842.104 Y-236.763
G3 X-842.227 Y-236.962 I0.439 J-0.409
X-841.989 Y-237.677 I0.562 J-0.21
G1 X-839.306 Y-239.397
G3 X-838.772 Y-239.453 I0.324 J0.505
X-838.573 Y-239.33 I-0.21 J0.562
G1 X-838.005 Y-238.762
X-837.904 Y-238.651
X-837.817 Y-238.529
X-837.745 Y-238.397
X-837.685 Y-238.26
X-837.638 Y-238.117
X-837.602 Y-237.972
X-837.577 Y-237.824
X-837.563 Y-237.674
X-837.558 Y-237.525
X-837.564 Y-237.375
X-837.578 Y-237.225
X-837.6 Y-237.077
X-837.632 Y-236.929
X-837.673 Y-236.779
X-837.723 Y-236.629
X-837.778 Y-236.49
X-837.846 Y-236.344
X-837.922 Y-236.204
X-838 Y-236.076
X-838.09 Y-235.948
X-838.189 Y-235.822
X-838.288 Y-235.71
X-838.395 Y-235.602
X-838.515 Y-235.494
X-838.527 Y-235.485
X-838.805 Y-235.301
X-839.111 Y-235.171
X-839.436 Y-235.099
X-839.769 Y-235.086
X-840.098 Y-235.135
X-840.414 Y-235.243
X-840.704 Y-235.406
X-840.96 Y-235.619
X-841.538 Y-236.196
G3 X-841.661 Y-236.395 I0.439 J-0.409
X-841.422 Y-237.111 I0.562 J-0.21
G1 X-838.737 Y-238.829
G3 X-838.204 Y-238.885 I0.323 J0.505
X-838.005 Y-238.762 I-0.21 J0.562
G1 X-837.437 Y-238.194
X-837.336 Y-238.083
X-837.248 Y-237.961
X-837.175 Y-237.83
X-837.115 Y-237.693
X-837.068 Y-237.55
X-837.032 Y-237.405
X-837.007 Y-237.257
X-836.992 Y-237.108
X-836.988 Y-236.958
X-836.992 Y-236.808
X-837.006 Y-236.658
X-837.029 Y-236.51
X-837.06 Y-236.362
X-837.101 Y-236.212
X-837.151 Y-236.062
X-837.206 Y-235.923
X-837.274 Y-235.777
X-837.35 Y-235.635
X-837.429 Y-235.507
X-837.518 Y-235.379
X-837.617 Y-235.253
X-837.716 Y-235.14
X-837.822 Y-235.033
X-837.943 Y-234.924
X-838.059 Y-234.83
X-838.371 Y-234.652
X-838.712 Y-234.54
X-839.068 Y-234.499
X-839.425 Y-234.528
X-839.769 Y-234.629
X-840.086 Y-234.796
X-840.364 Y-235.023
X-840.96 Y-235.619
G3 X-841.083 Y-235.818 I0.439 J-0.409
X-840.847 Y-236.532 I0.562 J-0.21
G1 X-838.171 Y-238.259
G3 X-837.437 Y-238.194 I0.325 J0.504
G1 X-836.877 Y-237.634
X-836.776 Y-237.523
X-836.687 Y-237.402
X-836.612 Y-237.272
X-836.551 Y-237.135
X-836.502 Y-236.993
X-836.465 Y-236.848
X-836.439 Y-236.7
X-836.423 Y-236.551
X-836.418 Y-236.401
X-836.422 Y-236.251
X-836.435 Y-236.102
X-836.457 Y-235.953
X-836.487 Y-235.805
X-836.527 Y-235.656
X-836.576 Y-235.504
X-836.635 Y-235.352
X-836.698 Y-235.215
X-836.769 Y-235.079
X-836.856 Y-234.935
X-836.941 Y-234.811
X-837.032 Y-234.692
X-837.141 Y-234.568
X-837.249 Y-234.457
X-837.359 Y-234.355
X-837.479 Y-234.258
X-837.789 Y-234.078
X-838.129 Y-233.964
X-838.486 Y-233.92
X-838.843 Y-233.949
X-839.188 Y-234.049
X-839.506 Y-234.215
X-839.784 Y-234.442
X-840.364 Y-235.023
G3 X-840.487 Y-235.222 I0.439 J-0.409
X-840.259 Y-235.931 I0.562 J-0.21
G1 X-837.619 Y-237.694
G3 X-837.076 Y-237.757 I0.333 J0.499
X-836.877 Y-237.634 I-0.21 J0.562
G1 X-836.298 Y-237.055
X-836.197 Y-236.944
X-836.109 Y-236.822
X-836.036 Y-236.691
X-835.976 Y-236.554
X-835.928 Y-236.412
X-835.891 Y-236.266
X-835.866 Y-236.118
X-835.851 Y-235.969
X-835.846 Y-235.819
X-835.851 Y-235.669
X-835.864 Y-235.52
X-835.886 Y-235.371
X-835.917 Y-235.221
X-835.958 Y-235.069
X-836.008 Y-234.918
X-836.067 Y-234.768
X-836.129 Y-234.631
X-836.203 Y-234.492
X-836.29 Y-234.349
X-836.375 Y-234.226
X-836.466 Y-234.107
X-836.576 Y-233.982
X-836.682 Y-233.873
X-836.793 Y-233.772
X-836.916 Y-233.673
X-837.224 Y-233.496
X-837.561 Y-233.383
X-837.914 Y-233.341
X-838.269 Y-233.37
X-838.61 Y-233.469
X-838.925 Y-233.634
X-839.201 Y-233.859
X-839.784 Y-234.442
G3 X-839.907 Y-234.641 I0.439 J-0.409
X-839.678 Y-235.35 I0.562 J-0.21
G1 X-837.04 Y-237.115
G3 X-836.497 Y-237.178 I0.334 J0.499
X-836.298 Y-237.055 I-0.21 J0.562
G1 X-835.724 Y-236.481
X-835.623 Y-236.37
X-835.536 Y-236.248
X-835.463 Y-236.117
X-835.403 Y-235.98
X-835.355 Y-235.838
X-835.319 Y-235.692
X-835.293 Y-235.544
X-835.278 Y-235.395
X-835.273 Y-235.245
X-835.277 Y-235.095
X-835.291 Y-234.946
X-835.313 Y-234.797
X-835.344 Y-234.647
X-835.384 Y-234.496
X-835.434 Y-234.344
X-835.493 Y-234.192
X-835.555 Y-234.055
X-835.628 Y-233.918
X-835.715 Y-233.774
X-835.8 Y-233.65
X-835.891 Y-233.531
X-836 Y-233.406
X-836.107 Y-233.297
X-836.217 Y-233.195
X-836.496 Y-233.009
X-836.804 Y-232.877
X-837.131 Y-232.803
X-837.466 Y-232.789
X-837.797 Y-232.837
X-838.114 Y-232.945
X-838.407 Y-233.109
X-838.664 Y-233.323
X-839.201 Y-233.859
G3 X-839.324 Y-234.058 I0.439 J-0.409
X-839.097 Y-234.766 I0.562 J-0.21
G1 X-836.469 Y-236.54
G3 X-835.923 Y-236.604 I0.336 J0.497
X-835.724 Y-236.481 I-0.21 J0.562
G1 X-835.149 Y-235.907
X-835.049 Y-235.795
X-834.961 Y-235.674
X-834.888 Y-235.542
X-834.828 Y-235.405
X-834.781 Y-235.263
X-834.744 Y-235.117
X-834.719 Y-234.969
X-834.704 Y-234.82
X-834.699 Y-234.67
X-834.703 Y-234.52
X-834.716 Y-234.371
X-834.738 Y-234.222
X-834.769 Y-234.072
X-834.809 Y-233.92
X-834.858 Y-233.771
X-834.912 Y-233.631
X-834.98 Y-233.485
X-835.054 Y-233.345
X-835.131 Y-233.217
X-835.22 Y-233.088
X-835.318 Y-232.962
X-835.417 Y-232.849
X-835.522 Y-232.742
X-835.641 Y-232.633
X-835.922 Y-232.446
X-836.231 Y-232.313
X-836.56 Y-232.238
X-836.897 Y-232.225
X-837.23 Y-232.273
X-837.549 Y-232.381
X-837.843 Y-232.546
X-838.103 Y-232.761
X-838.664 Y-233.323
G3 X-838.788 Y-233.522 I0.439 J-0.409
X-838.553 Y-234.235 I0.562 J-0.21
G1 X-835.886 Y-235.971
G3 X-835.149 Y-235.907 I0.327 J0.503
G1 X-834.581 Y-235.339
X-834.481 Y-235.227
X-834.392 Y-235.106
X-834.318 Y-234.976
X-834.258 Y-234.839
X-834.209 Y-234.697
X-834.172 Y-234.551
X-834.146 Y-234.403
X-834.13 Y-234.254
X-834.125 Y-234.104
X-834.129 Y-233.954
X-834.142 Y-233.805
X-834.164 Y-233.657
X-834.194 Y-233.508
X-834.233 Y-233.359
X-834.282 Y-233.21
X-834.336 Y-233.07
X-834.404 Y-232.923
X-834.478 Y-232.783
X-834.555 Y-232.655
X-834.644 Y-232.526
X-834.742 Y-232.4
X-834.841 Y-232.287
X-834.946 Y-232.179
X-835.069 Y-232.068
X-835.35 Y-231.88
X-835.66 Y-231.746
X-835.99 Y-231.671
X-836.327 Y-231.657
X-836.662 Y-231.705
X-836.982 Y-231.814
X-837.277 Y-231.979
X-837.536 Y-232.195
X-838.103 Y-232.761
G3 X-838.226 Y-232.96 I0.439 J-0.409
X-837.99 Y-233.674 I0.562 J-0.21
G1 X-835.316 Y-235.404
G3 X-834.78 Y-235.462 I0.326 J0.504
X-834.581 Y-235.339 I-0.21 J0.562
G1 X-834.013 Y-234.771
X-833.913 Y-234.659
X-833.823 Y-234.539
X-833.749 Y-234.409
X-833.687 Y-234.272
X-833.638 Y-234.13
X-833.601 Y-233.985
X-833.575 Y-233.837
X-833.559 Y-233.688
X-833.553 Y-233.538
X-833.557 Y-233.388
X-833.57 Y-233.239
X-833.592 Y-233.09
X-833.622 Y-232.942
X-833.662 Y-232.793
X-833.71 Y-232.644
X-833.764 Y-232.504
X-833.832 Y-232.357
X-833.906 Y-232.218
X-833.983 Y-232.089
X-834.072 Y-231.96
X-834.17 Y-231.834
X-834.269 Y-231.721
X-834.374 Y-231.613
X-834.494 Y-231.504
X-834.611 Y-231.409
X-834.925 Y-231.228
X-835.268 Y-231.114
X-835.628 Y-231.07
X-835.99 Y-231.099
X-836.338 Y-231.2
X-836.659 Y-231.369
X-836.939 Y-231.598
X-837.536 Y-232.195
G3 X-837.66 Y-232.394 I0.439 J-0.409
X-837.423 Y-233.108 I0.562 J-0.21
G1 X-834.748 Y-234.836
G3 X-834.212 Y-234.894 I0.326 J0.504
X-834.013 Y-234.771 I-0.21 J0.562
G1 X-833.429 Y-234.186
X-833.328 Y-234.075
X-833.241 Y-233.953
X-833.168 Y-233.822
X-833.109 Y-233.684
X-833.061 Y-233.542
X-833.025 Y-233.396
X-833.001 Y-233.248
X-832.986 Y-233.099
X-832.982 Y-232.949
X-832.987 Y-232.799
X-833.001 Y-232.65
X-833.024 Y-232.501
X-833.056 Y-232.353
X-833.097 Y-232.202
X-833.148 Y-232.051
X-833.207 Y-231.903
X-833.27 Y-231.767
X-833.347 Y-231.626
X-833.433 Y-231.486
X-833.518 Y-231.362
X-833.611 Y-231.245
X-833.722 Y-231.12
X-833.828 Y-231.013
X-833.939 Y-230.912
X-834.064 Y-230.812
X-834.373 Y-230.637
X-834.71 Y-230.527
X-835.063 Y-230.486
X-835.417 Y-230.516
X-835.758 Y-230.615
X-836.072 Y-230.781
X-836.347 Y-231.006
X-836.939 Y-231.598
G3 X-837.063 Y-231.797 I0.439 J-0.409
X-836.829 Y-232.509 I0.562 J-0.21
G1 X-834.166 Y-234.25
G3 X-833.628 Y-234.309 I0.328 J0.502
X-833.429 Y-234.186 I-0.21 J0.562
G1 X-832.849 Y-233.606
X-832.748 Y-233.495
X-832.663 Y-233.372
X-832.591 Y-233.24
X-832.533 Y-233.102
X-832.487 Y-232.959
X-832.452 Y-232.813
X-832.428 Y-232.665
X-832.414 Y-232.516
X-832.411 Y-232.366
X-832.417 Y-232.216
X-832.431 Y-232.067
X-832.455 Y-231.918
X-832.487 Y-231.768
X-832.529 Y-231.616
X-832.58 Y-231.465
X-832.641 Y-231.314
X-832.705 Y-231.179
X-832.78 Y-231.04
X-832.868 Y-230.898
X-832.954 Y-230.775
X-833.047 Y-230.657
X-833.157 Y-230.532
X-833.264 Y-230.424
X-833.376 Y-230.324
X-833.653 Y-230.142
X-833.96 Y-230.013
X-834.284 Y-229.942
X-834.616 Y-229.931
X-834.945 Y-229.98
X-835.259 Y-230.087
X-835.549 Y-230.25
X-835.804 Y-230.463
X-836.347 Y-231.006
G3 X-836.47 Y-231.205 I0.439 J-0.409
X-836.239 Y-231.915 I0.562 J-0.21
G1 X-833.589 Y-233.668
G3 X-833.048 Y-233.73 I0.331 J0.5
X-832.849 Y-233.606 I-0.21 J0.562
G1 X-832.3 Y-233.058
X-832.2 Y-232.947
X-832.11 Y-232.826
X-832.036 Y-232.696
X-831.974 Y-232.559
X-831.925 Y-232.417
X-831.888 Y-232.272
X-831.862 Y-232.124
X-831.846 Y-231.975
X-831.84 Y-231.825
X-831.843 Y-231.675
X-831.855 Y-231.526
X-831.877 Y-231.377
X-831.907 Y-231.228
X-831.946 Y-231.076
X-831.996 Y-230.923
X-832.05 Y-230.783
X-832.114 Y-230.642
X-832.189 Y-230.498
X-832.266 Y-230.369
X-832.351 Y-230.245
X-832.45 Y-230.115
X-832.548 Y-230.002
X-832.652 Y-229.894
X-832.772 Y-229.784
X-833.053 Y-229.594
X-833.364 Y-229.458
X-833.694 Y-229.382
X-834.033 Y-229.368
X-834.369 Y-229.415
X-834.69 Y-229.524
X-834.986 Y-229.689
X-835.247 Y-229.906
X-835.804 Y-230.463
G3 X-835.927 Y-230.662 I0.439 J-0.409
X-835.695 Y-231.373 I0.562 J-0.21
G1 X-833.039 Y-233.12
G3 X-832.499 Y-233.181 I0.33 J0.501
X-832.3 Y-233.058 I-0.21 J0.562
G1 X-831.726 Y-232.483
X-831.625 Y-232.372
X-831.536 Y-232.251
X-831.462 Y-232.121
X-831.401 Y-231.984
X-831.352 Y-231.842
X-831.314 Y-231.697
X-831.288 Y-231.549
X-831.272 Y-231.4
X-831.266 Y-231.25
X-831.27 Y-231.1
X-831.283 Y-230.951
X-831.304 Y-230.802
X-831.335 Y-230.653
X-831.374 Y-230.504
X-831.422 Y-230.356
X-831.476 Y-230.216
X-831.544 Y-230.068
X-831.617 Y-229.93
X-831.694 Y-229.801
X-831.784 Y-229.671
X-831.881 Y-229.546
X-831.979 Y-229.432
X-832.086 Y-229.324
X-832.205 Y-229.215
X-832.487 Y-229.026
X-832.798 Y-228.891
X-833.129 Y-228.816
X-833.468 Y-228.802
X-833.805 Y-228.85
X-834.126 Y-228.959
X-834.422 Y-229.125
X-834.683 Y-229.342
X-835.247 Y-229.906
G3 X-835.37 Y-230.105 I0.439 J-0.409
X-835.134 Y-230.819 I0.562 J-0.21
G1 X-832.461 Y-232.548
G3 X-831.925 Y-232.606 I0.326 J0.504
X-831.726 Y-232.483 I-0.21 J0.562
G1 X-831.158 Y-231.915
X-831.057 Y-231.804
X-830.967 Y-231.684
X-830.892 Y-231.554
X-830.831 Y-231.417
X-830.781 Y-231.275
X-830.744 Y-231.13
X-830.717 Y-230.983
X-830.701 Y-230.833
X-830.695 Y-230.684
X-830.698 Y-230.534
X-830.711 Y-230.384
X-830.733 Y-230.236
X-830.763 Y-230.088
X-830.802 Y-229.939
X-830.85 Y-229.79
X-830.904 Y-229.65
X-830.972 Y-229.504
X-831.045 Y-229.364
X-831.123 Y-229.236
X-831.211 Y-229.107
X-831.309 Y-228.98
X-831.408 Y-228.867
X-831.513 Y-228.759
X-831.639 Y-228.645
X-831.92 Y-228.456
X-832.231 Y-228.322
X-832.562 Y-228.246
X-832.9 Y-228.233
X-833.236 Y-228.281
X-833.557 Y-228.389
X-833.852 Y-228.555
X-834.113 Y-228.771
X-834.683 Y-229.342
G3 X-834.807 Y-229.541 I0.439 J-0.409
X-834.57 Y-230.256 I0.562 J-0.21
G1 X-831.892 Y-231.981
G3 X-831.357 Y-232.038 I0.325 J0.504
X-831.158 Y-231.915 I-0.21 J0.562
G1 X-830.554 Y-231.311
X-830.453 Y-231.2
X-830.368 Y-231.076
X-830.298 Y-230.943
X-830.24 Y-230.805
X-830.195 Y-230.662
X-830.161 Y-230.516
X-830.138 Y-230.367
X-830.125 Y-230.218
X-830.123 Y-230.068
X-830.129 Y-229.918
X-830.145 Y-229.769
X-830.17 Y-229.621
X-830.203 Y-229.471
X-830.246 Y-229.32
X-830.296 Y-229.177
X-830.353 Y-229.039
X-830.424 Y-228.889
X-830.498 Y-228.756
X-830.578 Y-228.628
X-830.673 Y-228.496
X-830.77 Y-228.375
X-830.87 Y-228.264
X-830.984 Y-228.152
X-831.101 Y-228.049
X-831.133 Y-228.024
X-831.448 Y-227.826
X-831.796 Y-227.698
X-832.163 Y-227.643
X-832.533 Y-227.666
X-832.891 Y-227.764
X-833.221 Y-227.934
X-833.509 Y-228.167
X-834.113 Y-228.771
G3 X-834.236 Y-228.971 I0.439 J-0.409
X-833.992 Y-229.69 I0.562 J-0.21
G1 X-831.28 Y-231.381
G3 X-830.753 Y-231.434 I0.318 J0.509
X-830.554 Y-231.311 I-0.21 J0.562
G1 X-829.985 Y-230.743
X-829.885 Y-230.632
X-829.8 Y-230.508
X-829.729 Y-230.376
X-829.671 Y-230.237
X-829.626 Y-230.094
X-829.592 Y-229.948
X-829.569 Y-229.8
X-829.556 Y-229.651
X-829.553 Y-229.501
X-829.56 Y-229.351
X-829.575 Y-229.202
X-829.6 Y-229.054
X-829.633 Y-228.905
X-829.675 Y-228.755
X-829.727 Y-228.604
X-829.784 Y-228.465
X-829.851 Y-228.326
X-829.933 Y-228.176
X-830.014 Y-228.047
X-830.1 Y-227.924
X-830.203 Y-227.796
X-830.309 Y-227.677
X-830.416 Y-227.572
X-830.528 Y-227.472
X-830.658 Y-227.37
X-830.964 Y-227.199
X-831.297 Y-227.092
X-831.645 Y-227.053
X-831.994 Y-227.084
X-832.329 Y-227.183
X-832.639 Y-227.347
X-832.91 Y-227.568
X-833.509 Y-228.167
G3 X-833.632 Y-228.366 I0.439 J-0.409
X-833.395 Y-229.081 I0.562 J-0.21
G1 X-830.72 Y-230.808
G3 X-830.185 Y-230.866 I0.325 J0.504
X-829.985 Y-230.743 I-0.21 J0.562
G1 X-829.425 Y-230.183
X-829.325 Y-230.072
X-829.238 Y-229.949
X-829.166 Y-229.818
X-829.107 Y-229.68
X-829.06 Y-229.537
X-829.025 Y-229.391
X-829.001 Y-229.243
X-828.987 Y-229.094
X-828.984 Y-228.944
X-828.989 Y-228.794
X-829.004 Y-228.645
X-829.027 Y-228.496
X-829.059 Y-228.346
X-829.101 Y-228.196
X-829.152 Y-228.044
X-829.213 Y-227.89
X-829.277 Y-227.754
X-829.349 Y-227.619
X-829.438 Y-227.474
X-829.524 Y-227.35
X-829.617 Y-227.232
X-829.726 Y-227.108
X-829.835 Y-226.998
X-829.946 Y-226.897
X-830.067 Y-226.8
X-830.373 Y-226.626
X-830.707 Y-226.516
X-831.057 Y-226.474
X-831.408 Y-226.504
X-831.746 Y-226.602
X-832.058 Y-226.767
X-832.331 Y-226.989
X-832.91 Y-227.568
G3 X-833.033 Y-227.767 I0.439 J-0.409
X-832.805 Y-228.476 I0.562 J-0.21
G1 X-830.169 Y-230.242
G3 X-829.624 Y-230.306 I0.334 J0.498
X-829.425 Y-230.183 I-0.21 J0.562
G1 X-828.877 Y-229.634
X-828.776 Y-229.523
X-828.686 Y-229.403
X-828.611 Y-229.273
X-828.549 Y-229.136
X-828.5 Y-228.995
X-828.462 Y-228.85
X-828.436 Y-228.702
X-828.419 Y-228.553
X-828.413 Y-228.403
X-828.416 Y-228.253
X-828.428 Y-228.104
X-828.449 Y-227.955
X-828.479 Y-227.805
X-828.518 Y-227.653
X-828.567 Y-227.499
X-828.626 Y-227.346
X-828.687 Y-227.209
X-828.756 Y-227.076
X-828.842 Y-226.929
X-828.928 Y-226.802
X-829.018 Y-226.683
X-829.124 Y-226.559
X-829.232 Y-226.445
X-829.342 Y-226.343
X-829.458 Y-226.248
X-829.767 Y-226.065
X-830.107 Y-225.949
X-830.463 Y-225.903
X-830.822 Y-225.931
X-831.167 Y-226.029
X-831.486 Y-226.196
X-831.764 Y-226.423
X-832.331 Y-226.989
G3 X-832.454 Y-227.188 I0.439 J-0.409
X-832.233 Y-227.893 I0.562 J-0.21
G1 X-829.627 Y-229.689
G3 X-829.076 Y-229.757 I0.341 J0.494
X-828.877 Y-229.634 I-0.21 J0.562
G1 X-828.273 Y-229.03
X-828.172 Y-228.919
X-828.087 Y-228.795
X-828.016 Y-228.663
X-827.958 Y-228.525
X-827.912 Y-228.382
X-827.878 Y-228.236
X-827.854 Y-228.088
X-827.84 Y-227.938
X-827.836 Y-227.788
X-827.842 Y-227.639
X-827.856 Y-227.489
X-827.879 Y-227.339
X-827.912 Y-227.187
X-827.954 Y-227.033
X-828.005 Y-226.881
X-828.063 Y-226.735
X-828.127 Y-226.599
X-828.205 Y-226.454
X-828.29 Y-226.316
X-828.375 Y-226.193
X-828.468 Y-226.075
X-828.578 Y-225.951
X-828.683 Y-225.844
X-828.795 Y-225.744
X-829.072 Y-225.562
X-829.378 Y-225.432
X-829.703 Y-225.361
X-830.035 Y-225.349
X-830.363 Y-225.398
X-830.677 Y-225.506
X-830.967 Y-225.668
X-831.222 Y-225.881
X-831.764 Y-226.423
G3 X-831.887 Y-226.622 I0.439 J-0.409
X-831.658 Y-227.331 I0.562 J-0.21
G1 X-829.014 Y-229.091
G3 X-828.472 Y-229.153 I0.333 J0.499
X-828.273 Y-229.03 I-0.21 J0.562
G1 X-827.734 Y-228.492
X-827.633 Y-228.38
X-827.543 Y-228.261
X-827.467 Y-228.132
X-827.404 Y-227.995
X-827.354 Y-227.854
X-827.315 Y-227.709
X-827.287 Y-227.562
X-827.27 Y-227.413
X-827.263 Y-227.263
X-827.265 Y-227.113
X-827.276 Y-226.963
X-827.296 Y-226.815
X-827.325 Y-226.665
X-827.363 Y-226.512
X-827.412 Y-226.359
X-827.464 Y-226.218
X-827.526 Y-226.08
X-827.601 Y-225.934
X-827.677 Y-225.805
X-827.76 Y-225.68
X-827.859 Y-225.549
X-827.956 Y-225.435
X-828.06 Y-225.326
X-828.179 Y-225.215
X-828.46 Y-225.022
X-828.773 Y-224.884
X-829.105 Y-224.805
X-829.447 Y-224.789
X-829.785 Y-224.836
X-830.109 Y-224.945
X-830.408 Y-225.111
X-830.671 Y-225.329
X-831.222 Y-225.881
G3 X-831.346 Y-226.08 I0.439 J-0.409
X-831.117 Y-226.789 I0.562 J-0.21
G1 X-828.477 Y-228.552
G3 X-827.933 Y-228.615 I0.333 J0.499
X-827.734 Y-228.492 I-0.21 J0.562
G1 X-827.13 Y-227.887
X-827.029 Y-227.776
X-826.943 Y-227.653
X-826.871 Y-227.522
X-826.812 Y-227.384
X-826.765 Y-227.241
X-826.729 Y-227.096
X-826.705 Y-226.948
X-826.69 Y-226.798
X-826.686 Y-226.648
X-826.691 Y-226.499
X-826.705 Y-226.349
X-826.728 Y-226.201
X-826.76 Y-226.05
X-826.801 Y-225.899
X-826.849 Y-225.757
X-826.904 Y-225.617
X-826.974 Y-225.467
X-827.046 Y-225.334
X-827.125 Y-225.206
X-827.218 Y-225.073
X-827.313 Y-224.952
X-827.412 Y-224.839
X-827.525 Y-224.727
X-827.641 Y-224.622
X-827.658 Y-224.609
X-827.935 Y-224.426
X-828.241 Y-224.296
X-828.565 Y-224.225
X-828.897 Y-224.213
X-829.226 Y-224.261
X-829.54 Y-224.369
X-829.83 Y-224.531
X-830.085 Y-224.744
X-830.671 Y-225.329
G3 X-830.794 Y-225.528 I0.439 J-0.409
X-830.554 Y-226.245 I0.562 J-0.21
G1 X-827.861 Y-227.955
G3 X-827.329 Y-228.011 I0.322 J0.506
X-827.13 Y-227.887 I-0.21 J0.562
G1 X-826.562 Y-227.319
X-826.461 Y-227.208
X-826.374 Y-227.086
X-826.301 Y-226.955
X-826.241 Y-226.817
X-826.194 Y-226.675
X-826.158 Y-226.529
X-826.133 Y-226.381
X-826.119 Y-226.232
X-826.114 Y-226.082
X-826.119 Y-225.932
X-826.133 Y-225.783
X-826.156 Y-225.635
X-826.188 Y-225.487
X-826.228 Y-225.337
X-826.278 Y-225.187
X-826.334 Y-225.048
X-826.402 Y-224.902
X-826.478 Y-224.76
X-826.557 Y-224.632
X-826.646 Y-224.504
X-826.746 Y-224.377
X-826.845 Y-224.265
X-826.951 Y-224.158
X-827.071 Y-224.049
X-827.188 Y-223.955
X-827.499 Y-223.778
X-827.84 Y-223.666
X-828.195 Y-223.625
X-828.552 Y-223.655
X-828.896 Y-223.755
X-829.212 Y-223.922
X-829.49 Y-224.148
X-830.085 Y-224.744
G3 X-830.208 Y-224.943 I0.439 J-0.409
X-829.972 Y-225.657 I0.562 J-0.21
G1 X-827.297 Y-227.384
G3 X-826.761 Y-227.442 I0.326 J0.504
X-826.562 Y-227.319 I-0.21 J0.562
G1 X-826.002 Y-226.759
X-825.901 Y-226.648
X-825.812 Y-226.527
X-825.738 Y-226.397
X-825.677 Y-226.26
X-825.628 Y-226.118
X-825.591 Y-225.973
X-825.565 Y-225.825
X-825.55 Y-225.676
X-825.544 Y-225.526
X-825.549 Y-225.376
X-825.562 Y-225.226
X-825.584 Y-225.078
X-825.614 Y-224.93
X-825.654 Y-224.78
X-825.704 Y-224.628
X-825.763 Y-224.476
X-825.826 Y-224.339
X-825.898 Y-224.204
X-825.985 Y-224.059
X-826.069 Y-223.936
X-826.161 Y-223.817
X-826.269 Y-223.692
X-826.377 Y-223.581
X-826.488 Y-223.48
X-826.608 Y-223.383
X-826.918 Y-223.203
X-827.257 Y-223.09
X-827.613 Y-223.046
X-827.97 Y-223.075
X-828.314 Y-223.175
X-828.631 Y-223.341
X-828.909 Y-223.568
X-829.49 Y-224.148
G3 X-829.613 Y-224.347 I0.439 J-0.409
X-829.384 Y-225.056 I0.562 J-0.21
G1 X-826.744 Y-226.819
G3 X-826.201 Y-226.882 I0.333 J0.499
X-826.002 Y-226.759 I-0.21 J0.562
G1 X-825.423 Y-226.18
X-825.322 Y-226.069
X-825.234 Y-225.947
X-825.161 Y-225.816
X-825.101 Y-225.679
X-825.054 Y-225.536
X-825.018 Y-225.391
X-824.992 Y-225.243
X-824.978 Y-225.094
X-824.973 Y-224.944
X-824.977 Y-224.794
X-824.991 Y-224.644
X-825.013 Y-224.496
X-825.045 Y-224.346
X-825.085 Y-224.194
X-825.135 Y-224.043
X-825.194 Y-223.892
X-825.257 Y-223.756
X-825.331 Y-223.616
X-825.418 Y-223.474
X-825.503 Y-223.35
X-825.594 Y-223.232
X-825.704 Y-223.107
X-825.81 Y-222.998
X-825.921 Y-222.897
X-826.2 Y-222.711
X-826.508 Y-222.579
X-826.835 Y-222.506
X-827.17 Y-222.493
X-827.502 Y-222.542
X-827.819 Y-222.65
X-828.112 Y-222.814
X-828.369 Y-223.028
X-828.909 Y-223.568
G3 X-829.032 Y-223.767 I0.439 J-0.409
X-828.804 Y-224.476 I0.562 J-0.21
G1 X-826.165 Y-226.24
G3 X-825.622 Y-226.303 I0.334 J0.499
X-825.423 Y-226.18 I-0.21 J0.562
G1 X-824.849 Y-225.607
X-824.749 Y-225.495
X-824.661 Y-225.373
X-824.588 Y-225.242
X-824.528 Y-225.105
X-824.481 Y-224.963
X-824.445 Y-224.817
X-824.419 Y-224.669
X-824.405 Y-224.52
X-824.4 Y-224.37
X-824.404 Y-224.22
X-824.417 Y-224.071
X-824.439 Y-223.922
X-824.471 Y-223.772
X-824.511 Y-223.62
X-824.56 Y-223.471
X-824.615 Y-223.331
X-824.682 Y-223.185
X-824.756 Y-223.046
X-824.834 Y-222.918
X-824.923 Y-222.789
X-825.021 Y-222.663
X-825.12 Y-222.55
X-825.225 Y-222.443
X-825.345 Y-222.335
X-825.625 Y-222.148
X-825.935 Y-222.015
X-826.264 Y-221.941
X-826.6 Y-221.927
X-826.934 Y-221.976
X-827.253 Y-222.084
X-827.547 Y-222.249
X-827.806 Y-222.464
X-828.369 Y-223.028
G3 X-828.492 Y-223.227 I0.439 J-0.409
X-828.257 Y-223.941 I0.562 J-0.21
G1 X-825.585 Y-225.671
G3 X-825.048 Y-225.73 I0.326 J0.504
X-824.849 Y-225.607 I-0.21 J0.562
G1 X-824.275 Y-225.032
X-824.174 Y-224.921
X-824.087 Y-224.799
X-824.014 Y-224.667
X-823.954 Y-224.53
X-823.907 Y-224.388
X-823.87 Y-224.242
X-823.845 Y-224.094
X-823.831 Y-223.945
X-823.826 Y-223.795
X-823.831 Y-223.645
X-823.844 Y-223.496
X-823.867 Y-223.347
X-823.898 Y-223.199
X-823.938 Y-223.049
X-823.987 Y-222.901
X-824.043 Y-222.761
X-824.111 Y-222.614
X-824.185 Y-222.476
X-824.264 Y-222.348
X-824.354 Y-222.218
X-824.452 Y-222.093
X-824.551 Y-221.98
X-824.658 Y-221.872
X-824.778 Y-221.764
X-825.059 Y-221.578
X-825.369 Y-221.446
X-825.697 Y-221.372
X-826.034 Y-221.36
X-826.367 Y-221.409
X-826.686 Y-221.517
X-826.98 Y-221.682
X-827.239 Y-221.898
X-827.806 Y-222.464
G3 X-827.929 Y-222.664 I0.439 J-0.409
X-827.691 Y-223.379 I0.562 J-0.21
G1 X-825.007 Y-225.098
G3 X-824.275 Y-225.032 I0.324 J0.505
G1 X-823.706 Y-224.464
X-823.606 Y-224.353
X-823.518 Y-224.231
X-823.444 Y-224.1
X-823.384 Y-223.963
X-823.336 Y-223.821
X-823.3 Y-223.675
X-823.274 Y-223.527
X-823.259 Y-223.378
X-823.254 Y-223.228
X-823.259 Y-223.078
X-823.273 Y-222.929
X-823.295 Y-222.781
X-823.326 Y-222.633
X-823.367 Y-222.483
X-823.416 Y-222.334
X-823.471 Y-222.195
X-823.539 Y-222.048
X-823.614 Y-221.909
X-823.692 Y-221.781
X-823.781 Y-221.652
X-823.88 Y-221.526
X-823.979 Y-221.414
X-824.086 Y-221.306
X-824.206 Y-221.198
X-824.217 Y-221.188
X-824.496 Y-221.003
X-824.804 Y-220.872
X-825.13 Y-220.799
X-825.465 Y-220.786
X-825.796 Y-220.835
X-826.113 Y-220.943
X-826.404 Y-221.106
X-826.662 Y-221.32
X-827.239 Y-221.898
G3 X-827.362 Y-222.097 I0.439 J-0.409
X-827.124 Y-222.812 I0.562 J-0.21
G1 X-824.439 Y-224.53
G3 X-823.906 Y-224.587 I0.323 J0.505
X-823.706 Y-224.464 I-0.21 J0.562
G1 X-823.138 Y-223.896
X-823.038 Y-223.784
X-822.949 Y-223.663
X-822.875 Y-223.533
X-822.815 Y-223.396
X-822.767 Y-223.253
X-822.73 Y-223.108
X-822.704 Y-222.96
X-822.689 Y-222.811
X-822.684 Y-222.661
X-822.689 Y-222.511
X-822.702 Y-222.362
X-822.725 Y-222.213
X-822.756 Y-222.065
X-822.796 Y-221.916
X-822.845 Y-221.767
X-822.9 Y-221.627
X-822.968 Y-221.481
X-823.044 Y-221.34
X-823.122 Y-221.212
X-823.211 Y-221.083
X-823.31 Y-220.956
X-823.409 Y-220.843
X-823.515 Y-220.736
X-823.635 Y-220.627
X-823.751 Y-220.533
X-824.064 Y-220.354
X-824.406 Y-220.241
X-824.763 Y-220.199
X-825.122 Y-220.228
X-825.468 Y-220.329
X-825.787 Y-220.496
X-826.066 Y-220.724
X-826.662 Y-221.32
G3 X-826.785 Y-221.519 I0.439 J-0.409
X-826.548 Y-222.234 I0.562 J-0.21
G1 X-823.873 Y-223.961
G3 X-823.337 Y-224.019 I0.325 J0.504
X-823.138 Y-223.896 I-0.21 J0.562
G1 X-822.578 Y-223.336
X-822.478 Y-223.224
X-822.388 Y-223.104
X-822.312 Y-222.975
X-822.251 Y-222.838
X-822.201 Y-222.696
X-822.164 Y-222.551
X-822.137 Y-222.403
X-822.121 Y-222.254
X-822.115 Y-222.104
X-822.119 Y-221.954
X-822.131 Y-221.805
X-822.153 Y-221.657
X-822.183 Y-221.509
X-822.222 Y-221.359
X-822.272 Y-221.207
X-822.331 Y-221.056
X-822.393 Y-220.919
X-822.464 Y-220.783
X-822.551 Y-220.639
X-822.635 Y-220.515
X-822.726 Y-220.396
X-822.834 Y-220.271
X-822.942 Y-220.16
X-823.052 Y-220.058
X-823.172 Y-219.961
X-823.483 Y-219.78
X-823.825 Y-219.665
X-824.182 Y-219.621
X-824.541 Y-219.649
X-824.887 Y-219.749
X-825.206 Y-219.916
X-825.485 Y-220.144
X-826.066 Y-220.724
G3 X-826.189 Y-220.923 I0.439 J-0.409
X-825.96 Y-221.632 I0.562 J-0.21
G1 X-823.321 Y-223.396
G3 X-822.777 Y-223.459 I0.333 J0.499
X-822.578 Y-223.336 I-0.21 J0.562
G1 X-821.974 Y-222.731
X-821.873 Y-222.62
X-821.789 Y-222.496
X-821.718 Y-222.364
X-821.661 Y-222.225
X-821.615 Y-222.082
X-821.581 Y-221.936
X-821.558 Y-221.788
X-821.545 Y-221.639
X-821.542 Y-221.489
X-821.549 Y-221.339
X-821.564 Y-221.19
X-821.588 Y-221.04
X-821.622 Y-220.889
X-821.664 Y-220.736
X-821.716 Y-220.584
X-821.775 Y-220.439
X-821.84 Y-220.303
X-821.919 Y-220.158
X-822.004 Y-220.021
X-822.091 Y-219.899
X-822.184 Y-219.781
X-822.295 Y-219.658
X-822.401 Y-219.552
X-822.513 Y-219.452
X-822.791 Y-219.271
X-823.097 Y-219.144
X-823.421 Y-219.074
X-823.753 Y-219.063
X-824.08 Y-219.113
X-824.394 Y-219.221
X-824.683 Y-219.384
X-824.937 Y-219.596
X-825.485 Y-220.144
G3 X-825.608 Y-220.343 I0.439 J-0.409
X-825.375 Y-221.055 I0.562 J-0.21
G1 X-822.711 Y-222.795
G3 X-822.173 Y-222.855 I0.328 J0.502
X-821.974 Y-222.731 I-0.21 J0.562
G1 X-821.426 Y-222.183
X-821.325 Y-222.072
X-821.237 Y-221.951
X-821.163 Y-221.82
X-821.102 Y-221.683
X-821.054 Y-221.541
X-821.017 Y-221.395
X-820.991 Y-221.248
X-820.976 Y-221.098
X-820.971 Y-220.949
X-820.974 Y-220.799
X-820.987 Y-220.649
X-821.009 Y-220.501
X-821.04 Y-220.351
X-821.08 Y-220.199
X-821.13 Y-220.046
X-821.184 Y-219.906
X-821.249 Y-219.766
X-821.325 Y-219.622
X-821.402 Y-219.494
X-821.487 Y-219.37
X-821.587 Y-219.241
X-821.685 Y-219.128
X-821.79 Y-219.02
X-821.91 Y-218.91
X-822.191 Y-218.722
X-822.501 Y-218.588
X-822.831 Y-218.513
X-823.168 Y-218.499
X-823.503 Y-218.547
X-823.823 Y-218.655
X-824.118 Y-218.82
X-824.378 Y-219.036
X-824.937 Y-219.596
G3 X-825.06 Y-219.795 I0.439 J-0.409
X-824.826 Y-220.507 I0.562 J-0.21
G1 X-822.163 Y-222.247
G3 X-821.426 Y-222.183 I0.328 J0.502
G1 X-820.851 Y-221.608
X-820.75 Y-221.497
X-820.662 Y-221.376
X-820.589 Y-221.245
X-820.528 Y-221.108
X-820.48 Y-220.966
X-820.444 Y-220.82
X-820.418 Y-220.672
X-820.403 Y-220.523
X-820.397 Y-220.373
X-820.402 Y-220.223
X-820.415 Y-220.074
X-820.437 Y-219.926
X-820.468 Y-219.777
X-820.508 Y-219.627
X-820.556 Y-219.479
X-820.611 Y-219.339
X-820.679 Y-219.192
X-820.753 Y-219.053
X-820.831 Y-218.925
X-820.921 Y-218.795
X-821.018 Y-218.67
X-821.117 Y-218.557
X-821.224 Y-218.448
X-821.344 Y-218.34
X-821.625 Y-218.153
X-821.936 Y-218.02
X-822.265 Y-217.945
X-822.603 Y-217.932
X-822.938 Y-217.981
X-823.258 Y-218.09
X-823.552 Y-218.255
X-823.812 Y-218.471
X-824.378 Y-219.036
G3 X-824.501 Y-219.235 I0.439 J-0.409
X-824.264 Y-219.95 I0.562 J-0.21
G1 X-821.585 Y-221.674
G3 X-821.05 Y-221.732 I0.325 J0.505
X-820.851 Y-221.608 I-0.21 J0.562
G1 X-820.283 Y-221.04
X-820.182 Y-220.929
X-820.094 Y-220.808
X-820.019 Y-220.678
X-819.958 Y-220.541
X-819.91 Y-220.399
X-819.873 Y-220.253
X-819.847 Y-220.106
X-819.832 Y-219.956
X-819.826 Y-219.807
X-819.83 Y-219.657
X-819.844 Y-219.507
X-819.866 Y-219.359
X-819.896 Y-219.211
X-819.936 Y-219.061
X-819.985 Y-218.913
X-820.039 Y-218.773
X-820.107 Y-218.627
X-820.181 Y-218.487
X-820.259 Y-218.359
X-820.348 Y-218.23
X-820.447 Y-218.104
X-820.545 Y-217.991
X-820.651 Y-217.883
X-820.771 Y-217.775
X-820.78 Y-217.767
X-821.06 Y-217.581
X-821.37 Y-217.448
X-821.698 Y-217.374
X-822.034 Y-217.361
X-822.367 Y-217.409
X-822.686 Y-217.517
X-822.979 Y-217.682
X-823.238 Y-217.897
X-823.812 Y-218.471
G3 X-823.936 Y-218.67 I0.439 J-0.409
X-823.698 Y-219.385 I0.562 J-0.21
G1 X-821.016 Y-221.106
G3 X-820.482 Y-221.163 I0.324 J0.505
X-820.283 Y-221.04 I-0.21 J0.562
G1 X-819.715 Y-220.472
X-819.614 Y-220.361
X-819.525 Y-220.24
X-819.45 Y-220.11
X-819.389 Y-219.973
X-819.34 Y-219.831
X-819.303 Y-219.686
X-819.277 Y-219.538
X-819.262 Y-219.389
X-819.256 Y-219.239
X-819.26 Y-219.089
X-819.273 Y-218.94
X-819.295 Y-218.791
X-819.326 Y-218.644
X-819.366 Y-218.494
X-819.415 Y-218.345
X-819.469 Y-218.206
X-819.537 Y-218.059
X-819.612 Y-217.919
X-819.689 Y-217.79
X-819.778 Y-217.662
X-819.877 Y-217.535
X-819.975 Y-217.422
X-820.081 Y-217.314
X-820.201 Y-217.205
X-820.318 Y-217.111
X-820.631 Y-216.93
X-820.974 Y-216.816
X-821.333 Y-216.773
X-821.694 Y-216.802
X-822.041 Y-216.903
X-822.362 Y-217.072
X-822.642 Y-217.3
X-823.238 Y-217.897
G3 X-823.361 Y-218.096 I0.439 J-0.409
X-823.125 Y-218.81 I0.562 J-0.21
G1 X-820.449 Y-220.537
G3 X-819.914 Y-220.595 I0.325 J0.504
X-819.715 Y-220.472 I-0.21 J0.562
G1 X-819.155 Y-219.912
X-819.054 Y-219.801
X-818.963 Y-219.681
X-818.887 Y-219.552
X-818.825 Y-219.416
X-818.775 Y-219.274
X-818.737 Y-219.129
X-818.71 Y-218.981
X-818.694 Y-218.832
X-818.687 Y-218.682
X-818.69 Y-218.533
X-818.703 Y-218.383
X-818.724 Y-218.235
X-818.754 Y-218.087
X-818.793 Y-217.938
X-818.841 Y-217.786
X-818.9 Y-217.635
X-818.962 Y-217.498
X-819.033 Y-217.362
X-819.119 Y-217.217
X-819.203 Y-217.093
X-819.294 Y-216.974
X-819.402 Y-216.849
X-819.51 Y-216.737
X-819.62 Y-216.636
X-819.739 Y-216.538
X-820.051 Y-216.356
X-820.394 Y-216.24
X-820.753 Y-216.196
X-821.113 Y-216.224
X-821.461 Y-216.324
X-821.781 Y-216.492
X-822.062 Y-216.72
X-822.642 Y-217.3
G3 X-822.765 Y-217.499 I0.439 J-0.409
X-822.536 Y-218.208 I0.562 J-0.21
G1 X-819.897 Y-219.972
G3 X-819.354 Y-220.035 I0.333 J0.499
X-819.155 Y-219.912 I-0.21 J0.562
G1 X-818.55 Y-219.308
X-818.45 Y-219.197
X-818.365 Y-219.073
X-818.294 Y-218.941
X-818.235 Y-218.803
X-818.19 Y-218.66
X-818.155 Y-218.514
X-818.131 Y-218.366
X-818.118 Y-218.216
X-818.115 Y-218.066
X-818.121 Y-217.917
X-818.136 Y-217.767
X-818.16 Y-217.618
X-818.193 Y-217.467
X-818.235 Y-217.314
X-818.287 Y-217.163
X-818.346 Y-217.017
X-818.409 Y-216.882
X-818.489 Y-216.737
X-818.574 Y-216.6
X-818.66 Y-216.477
X-818.753 Y-216.36
X-818.864 Y-216.236
X-818.97 Y-216.13
X-819.081 Y-216.03
X-819.36 Y-215.848
X-819.667 Y-215.72
X-819.992 Y-215.649
X-820.325 Y-215.638
X-820.654 Y-215.688
X-820.968 Y-215.796
X-821.258 Y-215.959
X-821.514 Y-216.172
X-822.062 Y-216.72
G3 X-822.185 Y-216.919 I0.439 J-0.409
X-821.951 Y-217.632 I0.562 J-0.21
G1 X-819.288 Y-219.371
G3 X-818.75 Y-219.431 I0.328 J0.502
X-818.55 Y-219.308 I-0.21 J0.562
G1 X-818.002 Y-218.76
X-817.901 Y-218.648
X-817.813 Y-218.527
X-817.738 Y-218.397
X-817.677 Y-218.26
X-817.628 Y-218.118
X-817.591 Y-217.973
X-817.565 Y-217.825
X-817.549 Y-217.676
X-817.544 Y-217.526
X-817.547 Y-217.376
X-817.56 Y-217.227
X-817.581 Y-217.078
X-817.612 Y-216.929
X-817.652 Y-216.777
X-817.701 Y-216.625
X-817.755 Y-216.485
X-817.82 Y-216.344
X-817.896 Y-216.2
X-817.973 Y-216.072
X-818.058 Y-215.948
X-818.157 Y-215.819
X-818.255 Y-215.705
X-818.36 Y-215.598
X-818.48 Y-215.488
X-818.761 Y-215.298
X-819.072 Y-215.164
X-819.402 Y-215.088
X-819.741 Y-215.074
X-820.076 Y-215.122
X-820.398 Y-215.231
X-820.693 Y-215.396
X-820.954 Y-215.613
X-821.514 Y-216.172
G3 X-821.637 Y-216.371 I0.439 J-0.409
X-821.403 Y-217.084 I0.562 J-0.21
G1 X-818.739 Y-218.823
G3 X-818.201 Y-218.883 I0.328 J0.502
X-818.002 Y-218.76 I-0.21 J0.562
G1 X-817.427 Y-218.185
X-817.327 Y-218.074
X-817.238 Y-217.953
X-817.164 Y-217.822
X-817.103 Y-217.685
X-817.055 Y-217.543
X-817.018 Y-217.398
X-816.992 Y-217.25
X-816.976 Y-217.101
X-816.971 Y-216.951
X-816.975 Y-216.801
X-816.988 Y-216.652
X-817.01 Y-216.503
X-817.04 Y-216.354
X-817.08 Y-216.205
X-817.128 Y-216.057
X-817.183 Y-215.917
X-817.251 Y-215.77
X-817.324 Y-215.631
X-817.402 Y-215.503
X-817.492 Y-215.373
X-817.589 Y-215.248
X-817.688 Y-215.135
X-817.795 Y-215.026
X-817.914 Y-214.918
X-818.196 Y-214.729
X-818.507 Y-214.596
X-818.838 Y-214.521
X-819.176 Y-214.507
X-819.511 Y-214.556
X-819.832 Y-214.665
X-820.128 Y-214.83
X-820.388 Y-215.047
X-820.954 Y-215.613
G3 X-821.077 Y-215.812 I0.439 J-0.409
X-820.84 Y-216.526 I0.562 J-0.21
G1 X-818.161 Y-218.251
G3 X-817.627 Y-218.308 I0.325 J0.505
X-817.427 Y-218.185 I-0.21 J0.562
G1 X-816.859 Y-217.617
X-816.759 Y-217.505
X-816.669 Y-217.385
X-816.595 Y-217.255
X-816.534 Y-217.118
X-816.485 Y-216.976
X-816.447 Y-216.831
X-816.421 Y-216.683
X-816.406 Y-216.534
X-816.4 Y-216.384
X-816.404 Y-216.234
X-816.417 Y-216.085
X-816.439 Y-215.936
X-816.469 Y-215.788
X-816.509 Y-215.639
X-816.557 Y-215.491
X-816.612 Y-215.351
X-816.679 Y-215.204
X-816.753 Y-215.065
X-816.831 Y-214.937
X-816.92 Y-214.808
X-817.018 Y-214.682
X-817.117 Y-214.568
X-817.223 Y-214.461
X-817.342 Y-214.352
X-817.351 Y-214.345
X-817.632 Y-214.157
X-817.941 Y-214.024
X-818.27 Y-213.949
X-818.607 Y-213.936
X-818.941 Y-213.984
X-819.261 Y-214.093
X-819.555 Y-214.258
X-819.815 Y-214.473
X-820.388 Y-215.047
G3 X-820.512 Y-215.246 I0.439 J-0.409
X-820.274 Y-215.961 I0.562 J-0.21
G1 X-817.593 Y-217.683
G3 X-816.859 Y-217.617 I0.324 J0.505
G1 X-816.291 Y-217.049
X-816.191 Y-216.937
X-816.101 Y-216.817
X-816.026 Y-216.687
X-815.964 Y-216.55
X-815.915 Y-216.409
X-815.878 Y-216.263
X-815.852 Y-216.116
X-815.836 Y-215.966
X-815.83 Y-215.817
X-815.834 Y-215.667
X-815.847 Y-215.517
X-815.869 Y-215.369
X-815.899 Y-215.221
X-815.939 Y-215.072
X-815.987 Y-214.923
X-816.042 Y-214.783
X-816.109 Y-214.637
X-816.184 Y-214.496
X-816.262 Y-214.368
X-816.35 Y-214.239
X-816.449 Y-214.112
X-816.547 Y-213.999
X-816.653 Y-213.892
X-816.773 Y-213.782
X-816.889 Y-213.688
X-817.203 Y-213.507
X-817.547 Y-213.392
X-817.907 Y-213.349
X-818.268 Y-213.378
X-818.616 Y-213.479
X-818.937 Y-213.647
X-819.218 Y-213.877
X-819.815 Y-214.473
G3 X-819.938 Y-214.672 I0.439 J-0.409
X-819.701 Y-215.387 I0.562 J-0.21
G1 X-817.026 Y-217.114
G3 X-816.49 Y-217.172 I0.326 J0.504
X-816.291 Y-217.049 I-0.21 J0.562
G1 X-815.707 Y-216.464
X-815.606 Y-216.353
X-815.519 Y-216.231
X-815.446 Y-216.1
X-815.386 Y-215.962
X-815.339 Y-215.82
X-815.303 Y-215.674
X-815.279 Y-215.526
X-815.264 Y-215.377
X-815.26 Y-215.227
X-815.265 Y-215.077
X-815.279 Y-214.928
X-815.303 Y-214.78
X-815.334 Y-214.631
X-815.376 Y-214.48
X-815.426 Y-214.329
X-815.485 Y-214.181
X-815.549 Y-214.045
X-815.625 Y-213.904
X-815.712 Y-213.764
X-815.797 Y-213.641
X-815.89 Y-213.523
X-816 Y-213.398
X-816.107 Y-213.291
X-816.218 Y-213.19
X-816.343 Y-213.09
X-816.652 Y-212.915
X-816.989 Y-212.805
X-817.342 Y-212.764
X-817.696 Y-212.794
X-818.036 Y-212.894
X-818.35 Y-213.059
X-818.625 Y-213.284
X-819.218 Y-213.877
G3 X-819.341 Y-214.076 I0.439 J-0.409
X-819.107 Y-214.788 I0.562 J-0.21
G1 X-816.444 Y-216.528
G3 X-815.906 Y-216.587 I0.328 J0.502
X-815.707 Y-216.464 I-0.21 J0.562
G1 X-815.127 Y-215.884
X-815.026 Y-215.773
X-814.941 Y-215.65
X-814.869 Y-215.518
X-814.811 Y-215.38
X-814.765 Y-215.237
X-814.73 Y-215.091
X-814.706 Y-214.943
X-814.693 Y-214.794
X-814.689 Y-214.644
X-814.695 Y-214.494
X-814.71 Y-214.345
X-814.733 Y-214.196
X-814.766 Y-214.046
X-814.808 Y-213.894
X-814.859 Y-213.743
X-814.92 Y-213.592
X-814.983 Y-213.457
X-815.059 Y-213.318
X-815.147 Y-213.175
X-815.233 Y-213.052
X-815.325 Y-212.935
X-815.436 Y-212.81
X-815.543 Y-212.702
X-815.654 Y-212.602
X-815.932 Y-212.42
X-816.238 Y-212.291
X-816.563 Y-212.22
X-816.895 Y-212.209
X-817.223 Y-212.258
X-817.538 Y-212.366
X-817.827 Y-212.529
X-818.082 Y-212.741
X-818.625 Y-213.284
G3 X-818.749 Y-213.483 I0.439 J-0.409
X-818.517 Y-214.194 I0.562 J-0.21
G1 X-815.867 Y-215.946
G3 X-815.326 Y-216.007 I0.331 J0.501
X-815.127 Y-215.884 I-0.21 J0.562
G1 X-814.579 Y-215.336
X-814.478 Y-215.225
X-814.389 Y-215.104
X-814.314 Y-214.974
X-814.253 Y-214.837
X-814.204 Y-214.695
X-814.166 Y-214.55
X-814.14 Y-214.403
X-814.124 Y-214.253
X-814.118 Y-214.104
X-814.121 Y-213.954
X-814.134 Y-213.804
X-814.155 Y-213.656
X-814.185 Y-213.506
X-814.225 Y-213.354
X-814.274 Y-213.201
X-814.328 Y-213.061
X-814.392 Y-212.92
X-814.468 Y-212.776
X-814.545 Y-212.647
X-814.629 Y-212.523
X-814.729 Y-212.394
X-814.826 Y-212.28
X-814.931 Y-212.172
X-815.051 Y-212.062
X-815.332 Y-211.872
X-815.643 Y-211.737
X-815.973 Y-211.66
X-816.312 Y-211.646
X-816.647 Y-211.694
X-816.969 Y-211.802
X-817.265 Y-211.967
X-817.526 Y-212.184
X-818.082 Y-212.741
G3 X-818.206 Y-212.94 I0.439 J-0.409
X-817.973 Y-213.652 I0.562 J-0.21
G1 X-815.318 Y-215.398
G3 X-814.778 Y-215.459 I0.33 J0.501
X-814.579 Y-215.336 I-0.21 J0.562
G1 X-814.004 Y-214.761
X-813.903 Y-214.65
X-813.814 Y-214.529
X-813.74 Y-214.399
X-813.679 Y-214.262
X-813.63 Y-214.12
X-813.593 Y-213.975
X-813.566 Y-213.827
X-813.551 Y-213.678
X-813.545 Y-213.528
X-813.548 Y-213.378
X-813.561 Y-213.229
X-813.583 Y-213.08
X-813.613 Y-212.931
X-813.652 Y-212.782
X-813.7 Y-212.634
X-813.755 Y-212.494
X-813.822 Y-212.347
X-813.895 Y-212.208
X-813.973 Y-212.079
X-814.062 Y-211.949
X-814.159 Y-211.824
X-814.258 Y-211.711
X-814.364 Y-211.602
X-814.483 Y-211.493
X-814.765 Y-211.304
X-815.077 Y-211.17
X-815.408 Y-211.094
X-815.747 Y-211.08
X-816.083 Y-211.129
X-816.404 Y-211.238
X-816.701 Y-211.403
X-816.962 Y-211.62
X-817.526 Y-212.184
G3 X-817.649 Y-212.383 I0.439 J-0.409
X-817.413 Y-213.097 I0.562 J-0.21
G1 X-814.739 Y-214.826
G3 X-814.203 Y-214.884 I0.326 J0.504
X-814.004 Y-214.761 I-0.21 J0.562
G1 X-813.436 Y-214.193
X-813.335 Y-214.082
X-813.246 Y-213.962
X-813.17 Y-213.832
X-813.109 Y-213.695
X-813.06 Y-213.553
X-813.022 Y-213.408
X-812.995 Y-213.261
X-812.979 Y-213.111
X-812.973 Y-212.962
X-812.977 Y-212.812
X-812.99 Y-212.662
X-813.011 Y-212.514
X-813.041 Y-212.366
X-813.081 Y-212.217
X-813.129 Y-212.068
X-813.183 Y-211.928
X-813.25 Y-211.782
X-813.324 Y-211.642
X-813.401 Y-211.514
X-813.49 Y-211.385
X-813.588 Y-211.258
X-813.686 Y-211.145
X-813.792 Y-211.037
X-813.918 Y-210.923
X-814.199 Y-210.734
X-814.51 Y-210.6
X-814.84 Y-210.525
X-815.179 Y-210.511
X-815.514 Y-210.559
X-815.835 Y-210.668
X-816.131 Y-210.833
X-816.391 Y-211.05
X-816.962 Y-211.62
G3 X-817.085 Y-211.819 I0.439 J-0.409
X-816.848 Y-212.534 I0.562 J-0.21
G1 X-814.17 Y-214.259
G3 X-813.635 Y-214.316 I0.325 J0.504
X-813.436 Y-214.193 I-0.21 J0.562
G1 X-812.832 Y-213.589
X-812.731 Y-213.478
X-812.647 Y-213.354
X-812.576 Y-213.221
X-812.519 Y-213.083
X-812.473 Y-212.94
X-812.439 Y-212.794
X-812.416 Y-212.645
X-812.404 Y-212.496
X-812.401 Y-212.346
X-812.408 Y-212.196
X-812.424 Y-212.047
X-812.448 Y-211.899
X-812.482 Y-211.749
X-812.525 Y-211.598
X-812.574 Y-211.456
X-812.631 Y-211.317
X-812.703 Y-211.167
X-812.777 Y-211.034
X-812.857 Y-210.907
X-812.952 Y-210.774
X-813.048 Y-210.653
X-813.149 Y-210.542
X-813.263 Y-210.43
X-813.38 Y-210.327
X-813.412 Y-210.302
X-813.726 Y-210.104
X-814.074 Y-209.976
X-814.441 Y-209.922
X-814.811 Y-209.944
X-815.169 Y-210.042
X-815.499 Y-210.212
X-815.787 Y-210.446
X-816.391 Y-211.05
G3 X-816.514 Y-211.249 I0.439 J-0.409
X-816.27 Y-211.968 I0.562 J-0.21
G1 X-813.558 Y-213.659
G3 X-813.031 Y-213.712 I0.318 J0.509
X-812.832 Y-213.589 I-0.21 J0.562
G1 X-812.263 Y-213.021
X-812.163 Y-212.91
X-812.078 Y-212.786
X-812.007 Y-212.654
X-811.949 Y-212.515
X-811.904 Y-212.372
X-811.87 Y-212.226
X-811.847 Y-212.078
X-811.834 Y-211.929
X-811.831 Y-211.779
X-811.838 Y-211.629
X-811.854 Y-211.48
X-811.878 Y-211.332
X-811.911 Y-211.183
X-811.954 Y-211.033
X-812.006 Y-210.882
X-812.063 Y-210.743
X-812.129 Y-210.604
X-812.212 Y-210.454
X-812.292 Y-210.325
X-812.379 Y-210.202
X-812.482 Y-210.074
X-812.588 Y-209.955
X-812.694 Y-209.85
X-812.807 Y-209.75
X-812.937 Y-209.648
X-813.242 Y-209.477
X-813.576 Y-209.37
X-813.923 Y-209.331
X-814.272 Y-209.362
X-814.608 Y-209.461
X-814.917 Y-209.625
X-815.188 Y-209.846
X-815.787 Y-210.446
G3 X-815.91 Y-210.645 I0.439 J-0.409
X-815.674 Y-211.359 I0.562 J-0.21
G1 X-812.998 Y-213.086
G3 X-812.463 Y-213.144 I0.325 J0.504
X-812.263 Y-213.021 I-0.21 J0.562
G1 X-811.703 Y-212.461
X-811.603 Y-212.349
X-811.516 Y-212.227
X-811.444 Y-212.095
X-811.385 Y-211.957
X-811.339 Y-211.815
X-811.304 Y-211.669
X-811.279 Y-211.521
X-811.266 Y-211.372
X-811.262 Y-211.222
X-811.268 Y-211.072
X-811.282 Y-210.922
X-811.305 Y-210.774
X-811.338 Y-210.624
X-811.379 Y-210.473
X-811.43 Y-210.322
X-811.492 Y-210.168
X-811.555 Y-210.032
X-811.628 Y-209.897
X-811.717 Y-209.752
X-811.803 Y-209.628
X-811.895 Y-209.51
X-812.005 Y-209.386
X-812.113 Y-209.276
X-812.224 Y-209.175
X-812.346 Y-209.078
X-812.651 Y-208.904
X-812.986 Y-208.794
X-813.336 Y-208.753
X-813.687 Y-208.782
X-814.025 Y-208.881
X-814.336 Y-209.045
X-814.609 Y-209.267
X-815.188 Y-209.846
G3 X-815.311 Y-210.046 I0.439 J-0.409
X-815.083 Y-210.754 I0.562 J-0.21
G1 X-812.446 Y-212.52
G3 X-811.902 Y-212.584 I0.334 J0.498
X-811.703 Y-212.461 I-0.21 J0.562
G1 X-811.155 Y-211.912
X-811.055 Y-211.801
X-810.965 Y-211.681
X-810.889 Y-211.551
X-810.828 Y-211.415
X-810.778 Y-211.273
X-810.741 Y-211.128
X-810.714 Y-210.98
X-810.698 Y-210.831
X-810.691 Y-210.681
X-810.694 Y-210.531
X-810.706 Y-210.382
X-810.727 Y-210.233
X-810.757 Y-210.083
X-810.796 Y-209.931
X-810.845 Y-209.777
X-810.904 Y-209.624
X-810.965 Y-209.487
X-811.034 Y-209.354
X-811.121 Y-209.208
X-811.206 Y-209.08
X-811.296 Y-208.961
X-811.402 Y-208.837
X-811.511 Y-208.724
X-811.62 Y-208.621
X-811.736 Y-208.526
X-812.046 Y-208.343
X-812.385 Y-208.227
X-812.742 Y-208.182
X-813.1 Y-208.209
X-813.445 Y-208.307
X-813.764 Y-208.474
X-814.042 Y-208.701
X-814.609 Y-209.267
G3 X-814.732 Y-209.467 I0.439 J-0.409
X-814.511 Y-210.171 I0.562 J-0.21
G1 X-811.905 Y-211.968
G3 X-811.155 Y-211.912 I0.341 J0.494
G1 X-810.551 Y-211.308
X-810.45 Y-211.197
X-810.366 Y-211.073
X-810.295 Y-210.941
X-810.237 Y-210.803
X-810.191 Y-210.66
X-810.156 Y-210.514
X-810.132 Y-210.366
X-810.118 Y-210.217
X-810.115 Y-210.067
X-810.12 Y-209.917
X-810.134 Y-209.768
X-810.158 Y-209.618
X-810.19 Y-209.465
X-810.232 Y-209.312
X-810.283 Y-209.159
X-810.342 Y-209.013
X-810.405 Y-208.877
X-810.483 Y-208.732
X-810.568 Y-208.595
X-810.654 Y-208.471
X-810.746 Y-208.354
X-810.856 Y-208.229
X-810.962 Y-208.123
X-811.073 Y-208.022
X-811.351 Y-207.84
X-811.657 Y-207.711
X-811.981 Y-207.639
X-812.313 Y-207.628
X-812.641 Y-207.676
X-812.956 Y-207.784
X-813.245 Y-207.947
X-813.5 Y-208.159
X-814.042 Y-208.701
G3 X-814.165 Y-208.9 I0.439 J-0.409
X-813.936 Y-209.609 I0.562 J-0.21
G1 X-811.293 Y-211.369
G3 X-810.75 Y-211.432 I0.333 J0.499
X-810.551 Y-211.308 I-0.21 J0.562
G1 X-810.012 Y-210.77
X-809.912 Y-210.658
X-809.821 Y-210.539
X-809.745 Y-210.41
X-809.682 Y-210.273
X-809.632 Y-210.132
X-809.593 Y-209.987
X-809.565 Y-209.84
X-809.548 Y-209.691
X-809.541 Y-209.541
X-809.543 Y-209.391
X-809.554 Y-209.241
X-809.574 Y-209.093
X-809.603 Y-208.943
X-809.642 Y-208.79
X-809.69 Y-208.637
X-809.743 Y-208.497
X-809.804 Y-208.358
X-809.879 Y-208.212
X-809.955 Y-208.083
X-810.039 Y-207.958
X-810.138 Y-207.827
X-810.235 Y-207.713
X-810.338 Y-207.604
X-810.457 Y-207.493
X-810.739 Y-207.3
X-811.051 Y-207.162
X-811.384 Y-207.083
X-811.725 Y-207.067
X-812.063 Y-207.115
X-812.387 Y-207.223
X-812.686 Y-207.389
X-812.949 Y-207.607
X-813.5 Y-208.159
G3 X-813.624 Y-208.358 I0.439 J-0.409
X-813.395 Y-209.067 I0.562 J-0.21
G1 X-810.755 Y-210.83
G3 X-810.211 Y-210.893 I0.333 J0.499
X-810.012 Y-210.77 I-0.21 J0.562
G1 X-809.408 Y-210.165
X-809.307 Y-210.054
X-809.221 Y-209.931
X-809.149 Y-209.8
X-809.09 Y-209.662
X-809.043 Y-209.52
X-809.008 Y-209.374
X-808.983 Y-209.226
X-808.969 Y-209.077
X-808.964 Y-208.927
X-808.969 Y-208.777
X-808.983 Y-208.627
X-809.006 Y-208.479
X-809.038 Y-208.329
X-809.08 Y-208.177
X-809.127 Y-208.035
X-809.183 Y-207.895
X-809.253 Y-207.745
X-809.325 Y-207.612
X-809.403 Y-207.484
X-809.496 Y-207.351
X-809.592 Y-207.23
X-809.691 Y-207.117
X-809.803 Y-207.005
X-809.92 Y-206.9
X-809.936 Y-206.887
X-810.214 Y-206.704
X-810.519 Y-206.575
X-810.844 Y-206.503
X-811.176 Y-206.491
X-811.504 Y-206.54
X-811.818 Y-206.647
X-812.108 Y-206.81
X-812.363 Y-207.022
X-812.949 Y-207.607
G3 X-813.072 Y-207.807 I0.439 J-0.409
X-812.832 Y-208.523 I0.562 J-0.21
G1 X-810.139 Y-210.233
G3 X-809.607 Y-210.289 I0.322 J0.507
X-809.408 Y-210.165 I-0.21 J0.562
G1 X-808.84 Y-209.597
X-808.739 Y-209.486
X-808.652 Y-209.364
X-808.579 Y-209.233
X-808.52 Y-209.095
X-808.472 Y-208.953
X-808.436 Y-208.807
X-808.411 Y-208.659
X-808.397 Y-208.51
X-808.392 Y-208.36
X-808.397 Y-208.21
X-808.412 Y-208.061
X-808.434 Y-207.913
X-808.466 Y-207.765
X-808.507 Y-207.615
X-808.557 Y-207.465
X-808.612 Y-207.326
X-808.681 Y-207.18
X-808.757 Y-207.038
X-808.835 Y-206.91
X-808.925 Y-206.782
X-809.024 Y-206.655
X-809.123 Y-206.543
X-809.229 Y-206.436
X-809.35 Y-206.327
X-809.467 Y-206.233
X-809.778 Y-206.056
X-810.118 Y-205.944
X-810.474 Y-205.903
X-810.83 Y-205.933
X-811.174 Y-206.033
X-811.491 Y-206.2
X-811.768 Y-206.426
X-812.363 Y-207.022
G3 X-812.487 Y-207.221 I0.439 J-0.409
X-812.25 Y-207.935 I0.562 J-0.21
G1 X-809.575 Y-209.663
G3 X-809.039 Y-209.72 I0.325 J0.504
X-808.84 Y-209.597 I-0.21 J0.562
G1 X-808.28 Y-209.037
X-808.179 Y-208.926
X-808.09 Y-208.805
X-808.016 Y-208.675
X-807.955 Y-208.538
X-807.906 Y-208.396
X-807.869 Y-208.251
X-807.843 Y-208.103
X-807.828 Y-207.954
X-807.823 Y-207.804
X-807.827 Y-207.654
X-807.84 Y-207.504
X-807.862 Y-207.356
X-807.893 Y-207.208
X-807.932 Y-207.058
X-807.982 Y-206.906
X-808.042 Y-206.754
X-808.104 Y-206.617
X-808.176 Y-206.482
X-808.263 Y-206.337
X-808.348 Y-206.213
X-808.439 Y-206.095
X-808.548 Y-205.97
X-808.656 Y-205.859
X-808.766 Y-205.758
X-808.886 Y-205.661
X-809.196 Y-205.481
X-809.536 Y-205.368
X-809.891 Y-205.324
X-810.248 Y-205.353
X-810.592 Y-205.453
X-810.91 Y-205.619
X-811.187 Y-205.846
X-811.768 Y-206.426
G3 X-811.891 Y-206.626 I0.439 J-0.409
X-811.662 Y-207.335 I0.562 J-0.21
G1 X-809.022 Y-209.097
G3 X-808.479 Y-209.16 I0.333 J0.499
X-808.28 Y-209.037 I-0.21 J0.562
G1 X-807.701 Y-208.458
X-807.6 Y-208.347
X-807.513 Y-208.225
X-807.44 Y-208.094
X-807.38 Y-207.957
X-807.332 Y-207.814
X-807.296 Y-207.669
X-807.271 Y-207.521
X-807.256 Y-207.372
X-807.251 Y-207.222
X-807.256 Y-207.072
X-807.269 Y-206.922
X-807.292 Y-206.774
X-807.323 Y-206.624
X-807.363 Y-206.472
X-807.413 Y-206.321
X-807.472 Y-206.17
X-807.535 Y-206.034
X-807.609 Y-205.894
X-807.696 Y-205.752
X-807.781 Y-205.628
X-807.873 Y-205.51
X-807.982 Y-205.385
X-808.088 Y-205.276
X-808.199 Y-205.175
X-808.478 Y-204.989
X-808.786 Y-204.858
X-809.114 Y-204.784
X-809.448 Y-204.771
X-809.78 Y-204.82
X-810.097 Y-204.928
X-810.39 Y-205.092
X-810.647 Y-205.306
X-811.187 Y-205.846
G3 X-811.31 Y-206.045 I0.439 J-0.409
X-811.082 Y-206.754 I0.562 J-0.21
G1 X-808.444 Y-208.518
G3 X-807.9 Y-208.581 I0.334 J0.499
X-807.701 Y-208.458 I-0.21 J0.562
G1 X-807.127 Y-207.885
X-807.027 Y-207.774
X-806.939 Y-207.652
X-806.866 Y-207.521
X-806.807 Y-207.383
X-806.759 Y-207.241
X-806.723 Y-207.095
X-806.698 Y-206.947
X-806.683 Y-206.798
X-806.678 Y-206.648
X-806.682 Y-206.498
X-806.696 Y-206.349
X-806.718 Y-206.2
X-806.749 Y-206.05
X-806.789 Y-205.899
X-806.838 Y-205.749
X-806.893 Y-205.609
X-806.96 Y-205.464
X-807.035 Y-205.324
X-807.112 Y-205.196
X-807.201 Y-205.067
X-807.299 Y-204.942
X-807.398 Y-204.829
X-807.504 Y-204.721
X-807.623 Y-204.613
X-807.903 Y-204.426
X-808.213 Y-204.293
X-808.542 Y-204.219
X-808.878 Y-204.206
X-809.212 Y-204.254
X-809.531 Y-204.362
X-809.825 Y-204.527
X-810.084 Y-204.743
X-810.647 Y-205.306
G3 X-810.771 Y-205.505 I0.439 J-0.409
X-810.535 Y-206.219 I0.562 J-0.21
G1 X-807.863 Y-207.95
G3 X-807.327 Y-208.008 I0.326 J0.504
X-807.127 Y-207.885 I-0.21 J0.562
G1 X-806.553 Y-207.31
X-806.452 Y-207.199
X-806.365 Y-207.077
X-806.292 Y-206.946
X-806.232 Y-206.808
X-806.185 Y-206.666
X-806.149 Y-206.52
X-806.123 Y-206.372
X-806.109 Y-206.223
X-806.104 Y-206.073
X-806.109 Y-205.923
X-806.123 Y-205.774
X-806.145 Y-205.626
X-806.176 Y-205.477
X-806.217 Y-205.327
X-806.266 Y-205.179
X-806.321 Y-205.04
X-806.389 Y-204.892
X-806.464 Y-204.754
X-806.542 Y-204.626
X-806.632 Y-204.496
X-806.73 Y-204.371
X-806.829 Y-204.259
X-806.937 Y-204.15
X-807.056 Y-204.042
X-807.337 Y-203.856
X-807.647 Y-203.724
X-807.976 Y-203.651
X-808.312 Y-203.638
X-808.646 Y-203.687
X-808.964 Y-203.796
X-809.258 Y-203.96
X-809.517 Y-204.176
X-810.084 Y-204.743
G3 X-810.207 Y-204.942 I0.439 J-0.409
X-809.969 Y-205.657 I0.562 J-0.21
G1 X-807.286 Y-207.376
G3 X-806.752 Y-207.433 I0.324 J0.505
X-806.553 Y-207.31 I-0.21 J0.562
G1 X-805.985 Y-206.742
X-805.884 Y-206.631
X-805.796 Y-206.509
X-805.722 Y-206.378
X-805.662 Y-206.241
X-805.614 Y-206.099
X-805.578 Y-205.953
X-805.552 Y-205.806
X-805.538 Y-205.656
X-805.533 Y-205.506
X-805.537 Y-205.356
X-805.551 Y-205.207
X-805.573 Y-205.059
X-805.604 Y-204.911
X-805.645 Y-204.761
X-805.694 Y-204.612
X-805.749 Y-204.473
X-805.817 Y-204.326
X-805.892 Y-204.187
X-805.97 Y-204.059
X-806.06 Y-203.93
X-806.158 Y-203.804
X-806.257 Y-203.692
X-806.364 Y-203.584
X-806.484 Y-203.476
X-806.495 Y-203.467
X-806.774 Y-203.282
X-807.082 Y-203.15
X-807.408 Y-203.077
X-807.743 Y-203.064
X-808.074 Y-203.113
X-808.391 Y-203.221
X-808.683 Y-203.384
X-808.94 Y-203.599
X-809.517 Y-204.176
G3 X-809.64 Y-204.375 I0.439 J-0.409
X-809.402 Y-205.09 I0.562 J-0.21
G1 X-806.717 Y-206.808
G3 X-806.184 Y-206.865 I0.323 J0.505
X-805.985 Y-206.742 I-0.21 J0.562
G1 X-805.416 Y-206.174
X-805.316 Y-206.063
X-805.227 Y-205.941
X-805.153 Y-205.811
X-805.093 Y-205.674
X-805.045 Y-205.531
X-805.008 Y-205.386
X-804.983 Y-205.238
X-804.968 Y-205.089
X-804.962 Y-204.939
X-804.967 Y-204.789
X-804.981 Y-204.64
X-805.003 Y-204.491
X-805.034 Y-204.343
X-805.074 Y-204.194
X-805.124 Y-204.045
X-805.179 Y-203.905
X-805.247 Y-203.759
X-805.322 Y-203.618
X-805.4 Y-203.49
X-805.489 Y-203.361
X-805.588 Y-203.234
X-805.687 Y-203.121
X-805.793 Y-203.014
X-805.913 Y-202.905
X-806.03 Y-202.811
X-806.342 Y-202.632
X-806.684 Y-202.519
X-807.042 Y-202.477
X-807.401 Y-202.506
X-807.746 Y-202.607
X-808.065 Y-202.775
X-808.344 Y-203.002
X-808.94 Y-203.599
G3 X-809.063 Y-203.798 I0.439 J-0.409
X-808.826 Y-204.512 I0.562 J-0.21
G1 X-806.151 Y-206.239
G3 X-805.615 Y-206.297 I0.325 J0.504
X-805.416 Y-206.174 I-0.21 J0.562
G1 X-804.856 Y-205.614
X-804.756 Y-205.502
X-804.666 Y-205.382
X-804.59 Y-205.253
X-804.529 Y-205.116
X-804.479 Y-204.974
X-804.442 Y-204.829
X-804.415 Y-204.681
X-804.399 Y-204.532
X-804.393 Y-204.382
X-804.397 Y-204.232
X-804.41 Y-204.083
X-804.431 Y-203.934
X-804.461 Y-203.787
X-804.501 Y-203.637
X-804.55 Y-203.485
X-804.609 Y-203.333
X-804.671 Y-203.197
X-804.742 Y-203.061
X-804.829 Y-202.917
X-804.913 Y-202.793
X-805.005 Y-202.674
X-805.113 Y-202.549
X-805.221 Y-202.438
X-805.331 Y-202.336
X-805.45 Y-202.239
X-805.762 Y-202.058
X-806.103 Y-201.943
X-806.46 Y-201.899
X-806.819 Y-201.927
X-807.165 Y-202.027
X-807.484 Y-202.194
X-807.763 Y-202.422
X-808.344 Y-203.002
G3 X-808.467 Y-203.201 I0.439 J-0.409
X-808.238 Y-203.91 I0.562 J-0.21
G1 X-805.599 Y-205.674
G3 X-805.055 Y-205.737 I0.333 J0.499
X-804.856 Y-205.614 I-0.21 J0.562
G1 X-804.252 Y-205.009
X-804.151 Y-204.898
X-804.067 Y-204.774
X-803.996 Y-204.642
X-803.939 Y-204.503
X-803.894 Y-204.36
X-803.86 Y-204.214
X-803.836 Y-204.066
X-803.823 Y-203.917
X-803.82 Y-203.767
X-803.827 Y-203.617
X-803.842 Y-203.467
X-803.866 Y-203.318
X-803.9 Y-203.166
X-803.943 Y-203.014
X-803.995 Y-202.862
X-804.054 Y-202.716
X-804.118 Y-202.581
X-804.197 Y-202.436
X-804.283 Y-202.299
X-804.369 Y-202.177
X-804.463 Y-202.059
X-804.573 Y-201.936
X-804.68 Y-201.83
X-804.792 Y-201.73
X-805.07 Y-201.549
X-805.376 Y-201.422
X-805.7 Y-201.352
X-806.031 Y-201.342
X-806.359 Y-201.391
X-806.672 Y-201.499
X-806.961 Y-201.662
X-807.215 Y-201.874
X-807.763 Y-202.422
G3 X-807.886 Y-202.621 I0.439 J-0.409
X-807.653 Y-203.333 I0.562 J-0.21
G1 X-804.989 Y-205.073
G3 X-804.252 Y-205.009 I0.328 J0.502
G1 X-803.704 Y-204.461
X-803.603 Y-204.35
X-803.515 Y-204.229
X-803.441 Y-204.098
X-803.38 Y-203.961
X-803.332 Y-203.819
X-803.295 Y-203.674
X-803.27 Y-203.526
X-803.254 Y-203.377
X-803.249 Y-203.227
X-803.253 Y-203.077
X-803.266 Y-202.927
X-803.287 Y-202.779
X-803.318 Y-202.629
X-803.358 Y-202.477
X-803.408 Y-202.324
X-803.463 Y-202.185
X-803.527 Y-202.044
X-803.603 Y-201.9
X-803.681 Y-201.772
X-803.765 Y-201.648
X-803.865 Y-201.519
X-803.964 Y-201.406
X-804.068 Y-201.298
X-804.189 Y-201.189
X-804.469 Y-201
X-804.779 Y-200.866
X-805.109 Y-200.791
X-805.446 Y-200.777
X-805.781 Y-200.825
X-806.101 Y-200.934
X-806.396 Y-201.098
X-806.656 Y-201.315
X-807.215 Y-201.874
G3 X-807.339 Y-202.073 I0.439 J-0.409
X-807.105 Y-202.785 I0.562 J-0.21
G1 X-804.441 Y-204.525
G3 X-803.903 Y-204.584 I0.328 J0.502
X-803.704 Y-204.461 I-0.21 J0.562
G1 X-803.129 Y-203.887
X-803.029 Y-203.775
X-802.94 Y-203.654
X-802.867 Y-203.523
X-802.807 Y-203.386
X-802.758 Y-203.244
X-802.722 Y-203.098
X-802.696 Y-202.951
X-802.681 Y-202.801
X-802.676 Y-202.651
X-802.68 Y-202.501
X-802.693 Y-202.352
X-802.715 Y-202.204
X-802.746 Y-202.055
X-802.786 Y-201.905
X-802.835 Y-201.757
X-802.889 Y-201.617
X-802.957 Y-201.47
X-803.031 Y-201.331
X-803.109 Y-201.203
X-803.199 Y-201.073
X-803.297 Y-200.948
X-803.395 Y-200.835
X-803.502 Y-200.727
X-803.622 Y-200.618
X-803.903 Y-200.431
X-804.214 Y-200.298
X-804.543 Y-200.223
X-804.881 Y-200.21
X-805.216 Y-200.259
X-805.536 Y-200.368
X-805.831 Y-200.533
X-806.09 Y-200.749
X-806.656 Y-201.315
G3 X-806.779 Y-201.514 I0.439 J-0.409
X-806.542 Y-202.228 I0.562 J-0.21
G1 X-803.863 Y-203.952
G3 X-803.328 Y-204.01 I0.325 J0.505
X-803.129 Y-203.887 I-0.21 J0.562
G1 X-802.561 Y-203.318
X-802.46 Y-203.207
X-802.372 Y-203.086
X-802.297 Y-202.956
X-802.237 Y-202.819
X-802.188 Y-202.677
X-802.151 Y-202.531
X-802.125 Y-202.384
X-802.11 Y-202.235
X-802.104 Y-202.085
X-802.108 Y-201.935
X-802.122 Y-201.785
X-802.144 Y-201.637
X-802.174 Y-201.489
X-802.214 Y-201.34
X-802.263 Y-201.191
X-802.318 Y-201.051
X-802.385 Y-200.905
X-802.46 Y-200.765
X-802.537 Y-200.637
X-802.627 Y-200.508
X-802.725 Y-200.382
X-802.824 Y-200.269
X-802.93 Y-200.162
X-803.05 Y-200.053
X-803.058 Y-200.046
X-803.338 Y-199.859
X-803.648 Y-199.726
X-803.976 Y-199.652
X-804.312 Y-199.639
X-804.645 Y-199.687
X-804.964 Y-199.795
X-805.258 Y-199.96
X-805.516 Y-200.175
X-806.09 Y-200.749
G3 X-806.214 Y-200.948 I0.439 J-0.409
X-805.976 Y-201.663 I0.562 J-0.21
G1 X-803.294 Y-203.384
G3 X-802.76 Y-203.442 I0.324 J0.505
X-802.561 Y-203.318 I-0.21 J0.562
G1 X-801.993 Y-202.75
X-801.892 Y-202.639
X-801.803 Y-202.518
X-801.728 Y-202.388
X-801.667 Y-202.251
X-801.618 Y-202.109
X-801.581 Y-201.964
X-801.555 Y-201.816
X-801.54 Y-201.667
X-801.534 Y-201.517
X-801.538 Y-201.367
X-801.552 Y-201.218
X-801.574 Y-201.07
X-801.604 Y-200.922
X-801.644 Y-200.772
X-801.693 Y-200.623
X-801.747 Y-200.484
X-801.815 Y-200.337
X-801.89 Y-200.197
X-801.968 Y-200.068
X-802.056 Y-199.94
X-802.155 Y-199.813
X-802.254 Y-199.7
X-802.359 Y-199.592
X-802.479 Y-199.483
X-802.596 Y-199.389
X-802.909 Y-199.208
X-803.253 Y-199.094
X-803.612 Y-199.051
X-803.972 Y-199.081
X-804.32 Y-199.181
X-804.64 Y-199.35
X-804.92 Y-199.578
X-805.516 Y-200.175
G3 X-805.64 Y-200.374 I0.439 J-0.409
X-805.403 Y-201.088 I0.562 J-0.21
G1 X-802.727 Y-202.815
G3 X-802.192 Y-202.873 I0.325 J0.504
X-801.993 Y-202.75 I-0.21 J0.562
G1 X-801.433 Y-202.19
X-801.332 Y-202.079
X-801.241 Y-201.959
X-801.165 Y-201.83
X-801.103 Y-201.693
X-801.053 Y-201.552
X-801.015 Y-201.407
X-800.988 Y-201.259
X-800.972 Y-201.11
X-800.965 Y-200.96
X-800.969 Y-200.81
X-800.981 Y-200.661
X-801.002 Y-200.512
X-801.032 Y-200.365
X-801.071 Y-200.216
X-801.12 Y-200.064
X-801.178 Y-199.913
X-801.24 Y-199.776
X-801.311 Y-199.64
X-801.398 Y-199.495
X-801.482 Y-199.371
X-801.573 Y-199.252
X-801.681 Y-199.127
X-801.788 Y-199.015
X-801.898 Y-198.914
X-802.017 Y-198.816
X-802.33 Y-198.634
X-802.672 Y-198.518
X-803.031 Y-198.474
X-803.392 Y-198.502
X-803.739 Y-198.602
X-804.059 Y-198.77
X-804.34 Y-198.998
X-804.92 Y-199.578
G3 X-805.043 Y-199.778 I0.439 J-0.409
X-804.814 Y-200.487 I0.562 J-0.21
G1 X-802.175 Y-202.25
G3 X-801.632 Y-202.313 I0.333 J0.499
X-801.433 Y-202.19 I-0.21 J0.562
G1 X-800.828 Y-201.586
X-800.728 Y-201.475
X-800.643 Y-201.351
X-800.572 Y-201.219
X-800.514 Y-201.081
X-800.468 Y-200.938
X-800.433 Y-200.792
X-800.41 Y-200.644
X-800.396 Y-200.494
X-800.393 Y-200.344
X-800.399 Y-200.195
X-800.414 Y-200.045
X-800.438 Y-199.896
X-800.471 Y-199.745
X-800.513 Y-199.592
X-800.565 Y-199.44
X-800.624 Y-199.295
X-800.688 Y-199.16
X-800.767 Y-199.015
X-800.852 Y-198.878
X-800.938 Y-198.755
X-801.032 Y-198.638
X-801.142 Y-198.514
X-801.248 Y-198.408
X-801.36 Y-198.308
X-801.638 Y-198.126
X-801.945 Y-197.998
X-802.27 Y-197.927
X-802.603 Y-197.917
X-802.932 Y-197.966
X-803.246 Y-198.074
X-803.536 Y-198.237
X-803.792 Y-198.45
X-804.34 Y-198.998
G3 X-804.463 Y-199.197 I0.439 J-0.409
X-804.229 Y-199.91 I0.562 J-0.21
G1 X-801.566 Y-201.649
G3 X-801.028 Y-201.709 I0.328 J0.502
X-800.828 Y-201.586 I-0.21 J0.562
G1 X-800.28 Y-201.038
X-800.18 Y-200.927
X-800.091 Y-200.806
X-800.016 Y-200.676
X-799.955 Y-200.539
X-799.906 Y-200.397
X-799.869 Y-200.251
X-799.843 Y-200.104
X-799.828 Y-199.954
X-799.822 Y-199.805
X-799.825 Y-199.655
X-799.838 Y-199.505
X-799.859 Y-199.357
X-799.89 Y-199.207
X-799.93 Y-199.055
X-799.979 Y-198.903
X-800.034 Y-198.763
X-800.098 Y-198.623
X-800.174 Y-198.479
X-800.251 Y-198.35
X-800.336 Y-198.226
X-800.435 Y-198.097
X-800.533 Y-197.984
X-800.638 Y-197.876
X-800.758 Y-197.766
X-801.039 Y-197.577
X-801.35 Y-197.442
X-801.68 Y-197.366
X-802.019 Y-197.352
X-802.355 Y-197.4
X-802.676 Y-197.509
X-802.971 Y-197.674
X-803.232 Y-197.891
X-803.792 Y-198.45
G3 X-803.915 Y-198.649 I0.439 J-0.409
X-803.681 Y-199.362 I0.562 J-0.21
G1 X-801.018 Y-201.101
G3 X-800.479 Y-201.161 I0.328 J0.502
X-800.28 Y-201.038 I-0.21 J0.562
G1 X-799.706 Y-200.463
X-799.605 Y-200.352
X-799.516 Y-200.231
X-799.442 Y-200.1
X-799.382 Y-199.963
X-799.333 Y-199.821
X-799.296 Y-199.676
X-799.27 Y-199.528
X-799.254 Y-199.379
X-799.249 Y-199.229
X-799.253 Y-199.079
X-799.266 Y-198.93
X-799.288 Y-198.781
X-799.319 Y-198.632
X-799.358 Y-198.483
X-799.406 Y-198.335
X-799.461 Y-198.196
X-799.529 Y-198.048
X-799.602 Y-197.91
X-799.68 Y-197.781
X-799.77 Y-197.651
X-799.867 Y-197.526
X-799.966 Y-197.413
X-800.073 Y-197.304
X-800.192 Y-197.196
X-800.474 Y-197.008
X-800.785 Y-196.874
X-801.116 Y-196.799
X-801.454 Y-196.786
X-801.79 Y-196.834
X-802.11 Y-196.943
X-802.406 Y-197.109
X-802.667 Y-197.325
X-803.232 Y-197.891
G3 X-803.355 Y-198.09 I0.439 J-0.409
X-803.118 Y-198.804 I0.562 J-0.21
G1 X-800.44 Y-200.529
G3 X-799.905 Y-200.586 I0.325 J0.505
X-799.706 Y-200.463 I-0.21 J0.562
G1 X-799.137 Y-199.895
X-799.037 Y-199.784
X-798.948 Y-199.663
X-798.873 Y-199.533
X-798.812 Y-199.396
X-798.763 Y-199.254
X-798.726 Y-199.109
X-798.699 Y-198.961
X-798.684 Y-198.812
X-798.678 Y-198.662
X-798.682 Y-198.512
X-798.695 Y-198.363
X-798.717 Y-198.214
X-798.747 Y-198.067
X-798.787 Y-197.917
X-798.835 Y-197.769
X-798.89 Y-197.629
X-798.957 Y-197.482
X-799.031 Y-197.343
X-799.109 Y-197.215
X-799.198 Y-197.086
X-799.296 Y-196.96
X-799.395 Y-196.847
X-799.501 Y-196.739
X-799.621 Y-196.63
X-799.629 Y-196.623
X-799.91 Y-196.435
X-800.219 Y-196.302
X-800.549 Y-196.228
X-800.886 Y-196.214
X-801.22 Y-196.263
X-801.539 Y-196.371
X-801.833 Y-196.536
X-802.093 Y-196.751
X-802.667 Y-197.325
G3 X-802.79 Y-197.524 I0.439 J-0.409
X-802.552 Y-198.239 I0.562 J-0.21
G1 X-799.871 Y-199.961
G3 X-799.337 Y-200.018 I0.324 J0.505
X-799.137 Y-199.895 I-0.21 J0.562
G1 X-798.569 Y-199.327
X-798.469 Y-199.215
X-798.379 Y-199.095
X-798.304 Y-198.965
X-798.243 Y-198.828
X-798.193 Y-198.687
X-798.156 Y-198.541
X-798.13 Y-198.394
X-798.114 Y-198.244
X-798.108 Y-198.095
X-798.112 Y-197.945
X-798.125 Y-197.795
X-798.147 Y-197.647
X-798.177 Y-197.499
X-798.217 Y-197.35
X-798.266 Y-197.201
X-798.32 Y-197.061
X-798.388 Y-196.915
X-798.462 Y-196.774
X-798.54 Y-196.646
X-798.629 Y-196.517
X-798.727 Y-196.39
X-798.826 Y-196.277
X-798.931 Y-196.17
X-799.051 Y-196.06
X-799.168 Y-195.966
X-799.482 Y-195.785
X-799.825 Y-195.67
X-800.185 Y-195.627
X-800.547 Y-195.656
X-800.895 Y-195.757
X-801.215 Y-195.926
X-801.496 Y-196.155
X-802.093 Y-196.751
G3 X-802.216 Y-196.951 I0.439 J-0.409
X-801.979 Y-197.665 I0.562 J-0.21
G1 X-799.304 Y-199.392
G3 X-798.768 Y-199.45 I0.325 J0.504
X-798.569 Y-199.327 I-0.21 J0.562
G1 X-797.985 Y-198.742
X-797.884 Y-198.631
X-797.797 Y-198.509
X-797.724 Y-198.378
X-797.664 Y-198.24
X-797.617 Y-198.098
X-797.581 Y-197.952
X-797.557 Y-197.804
X-797.542 Y-197.655
X-797.538 Y-197.505
X-797.543 Y-197.355
X-797.558 Y-197.206
X-797.581 Y-197.058
X-797.613 Y-196.909
X-797.654 Y-196.758
X-797.705 Y-196.607
X-797.764 Y-196.459
X-797.827 Y-196.323
X-797.904 Y-196.182
X-797.99 Y-196.042
X-798.075 Y-195.919
X-798.168 Y-195.801
X-798.279 Y-195.676
X-798.385 Y-195.569
X-798.496 Y-195.468
X-798.621 Y-195.369
X-798.93 Y-195.193
X-799.268 Y-195.083
X-799.62 Y-195.042
X-799.974 Y-195.072
X-800.315 Y-195.172
X-800.629 Y-195.337
X-800.903 Y-195.562
X-801.496 Y-196.155
G3 X-801.619 Y-196.354 I0.439 J-0.409
X-801.385 Y-197.066 I0.562 J-0.21
G1 X-798.722 Y-198.806
G3 X-798.184 Y-198.865 I0.328 J0.502
X-797.985 Y-198.742 I-0.21 J0.562
G1 X-797.405 Y-198.162
X-797.304 Y-198.051
X-797.219 Y-197.928
X-797.147 Y-197.796
X-797.089 Y-197.658
X-797.043 Y-197.515
X-797.008 Y-197.369
X-796.984 Y-197.221
X-796.971 Y-197.072
X-796.967 Y-196.922
X-796.973 Y-196.772
X-796.988 Y-196.623
X-797.011 Y-196.474
X-797.044 Y-196.324
X-797.086 Y-196.172
X-797.137 Y-196.021
X-797.198 Y-195.87
X-797.262 Y-195.734
X-797.337 Y-195.595
X-797.425 Y-195.453
X-797.511 Y-195.33
X-797.604 Y-195.213
X-797.714 Y-195.088
X-797.821 Y-194.98
X-797.933 Y-194.88
X-798.211 Y-194.698
X-798.517 Y-194.569
X-798.841 Y-194.498
X-799.173 Y-194.487
X-799.502 Y-194.536
X-799.816 Y-194.644
X-800.105 Y-194.807
X-800.361 Y-195.019
X-800.903 Y-195.562
G3 X-801.027 Y-195.761 I0.439 J-0.409
X-800.796 Y-196.472 I0.562 J-0.21
G1 X-798.145 Y-198.224
G3 X-797.604 Y-198.285 I0.331 J0.501
X-797.405 Y-198.162 I-0.21 J0.562
G1 X-796.857 Y-197.614
X-796.756 Y-197.503
X-796.667 Y-197.382
X-796.592 Y-197.252
X-796.531 Y-197.116
X-796.482 Y-196.974
X-796.445 Y-196.828
X-796.418 Y-196.681
X-796.402 Y-196.532
X-796.396 Y-196.382
X-796.399 Y-196.232
X-796.412 Y-196.082
X-796.433 Y-195.934
X-796.463 Y-195.784
X-796.503 Y-195.632
X-796.552 Y-195.479
X-796.606 Y-195.339
X-796.67 Y-195.198
X-796.746 Y-195.054
X-796.823 Y-194.925
X-796.907 Y-194.801
X-797.007 Y-194.672
X-797.104 Y-194.558
X-797.209 Y-194.45
X-797.329 Y-194.34
X-797.61 Y-194.15
X-797.921 Y-194.015
X-798.251 Y-193.939
X-798.59 Y-193.924
X-798.925 Y-193.972
X-799.247 Y-194.08
X-799.543 Y-194.246
X-799.804 Y-194.462
X-800.361 Y-195.019
G3 X-800.484 Y-195.218 I0.439 J-0.409
X-800.251 Y-195.93 I0.562 J-0.21
G1 X-797.596 Y-197.677
G3 X-797.056 Y-197.737 I0.33 J0.501
X-796.857 Y-197.614 I-0.21 J0.562
G1 X-796.282 Y-197.039
X-796.182 Y-196.928
X-796.093 Y-196.807
X-796.018 Y-196.677
X-795.957 Y-196.54
X-795.908 Y-196.398
X-795.871 Y-196.253
X-795.844 Y-196.105
X-795.829 Y-195.956
X-795.823 Y-195.806
X-795.826 Y-195.656
X-795.839 Y-195.507
X-795.861 Y-195.359
X-795.891 Y-195.21
X-795.931 Y-195.06
X-795.978 Y-194.912
X-796.033 Y-194.772
X-796.1 Y-194.625
X-796.173 Y-194.486
X-796.251 Y-194.358
X-796.34 Y-194.228
X-796.437 Y-194.102
X-796.536 Y-193.989
X-796.642 Y-193.88
X-796.761 Y-193.771
X-797.043 Y-193.582
X-797.355 Y-193.448
X-797.686 Y-193.372
X-798.025 Y-193.358
X-798.361 Y-193.407
X-798.683 Y-193.516
X-798.979 Y-193.681
X-799.24 Y-193.898
X-799.804 Y-194.462
G3 X-799.927 Y-194.661 I0.439 J-0.409
X-799.691 Y-195.375 I0.562 J-0.21
G1 X-797.017 Y-197.104
G3 X-796.481 Y-197.163 I0.326 J0.504
X-796.282 Y-197.039 I-0.21 J0.562
G1 X-795.714 Y-196.471
X-795.613 Y-196.36
X-795.524 Y-196.24
X-795.449 Y-196.11
X-795.387 Y-195.973
X-795.338 Y-195.831
X-795.3 Y-195.686
X-795.273 Y-195.539
X-795.257 Y-195.39
X-795.251 Y-195.24
X-795.255 Y-195.09
X-795.268 Y-194.94
X-795.289 Y-194.792
X-795.319 Y-194.644
X-795.359 Y-194.495
X-795.407 Y-194.346
X-795.461 Y-194.207
X-795.528 Y-194.06
X-795.602 Y-193.92
X-795.679 Y-193.792
X-795.768 Y-193.663
X-795.866 Y-193.537
X-795.964 Y-193.423
X-796.07 Y-193.316
X-796.196 Y-193.201
X-796.477 Y-193.013
X-796.788 Y-192.878
X-797.118 Y-192.803
X-797.457 Y-192.789
X-797.792 Y-192.837
X-798.113 Y-192.946
X-798.409 Y-193.111
X-798.669 Y-193.328
X-799.24 Y-193.898
G3 X-799.363 Y-194.098 I0.439 J-0.409
X-799.126 Y-194.812 I0.562 J-0.21
G1 X-796.448 Y-196.537
G3 X-795.913 Y-196.594 I0.325 J0.504
X-795.714 Y-196.471 I-0.21 J0.562
G1 X-795.11 Y-195.867
X-795.009 Y-195.756
X-794.925 Y-195.632
X-794.854 Y-195.499
X-794.797 Y-195.361
X-794.751 Y-195.218
X-794.718 Y-195.072
X-794.695 Y-194.924
X-794.682 Y-194.774
X-794.679 Y-194.624
X-794.686 Y-194.474
X-794.702 Y-194.325
X-794.726 Y-194.177
X-794.76 Y-194.027
X-794.803 Y-193.876
X-794.852 Y-193.734
X-794.909 Y-193.595
X-794.981 Y-193.445
X-795.055 Y-193.312
X-795.135 Y-193.185
X-795.23 Y-193.052
X-795.326 Y-192.932
X-795.427 Y-192.82
X-795.541 Y-192.708
X-795.658 Y-192.605
X-795.69 Y-192.58
X-796.004 Y-192.383
X-796.352 Y-192.254
X-796.719 Y-192.2
X-797.089 Y-192.222
X-797.447 Y-192.32
X-797.777 Y-192.49
X-798.065 Y-192.724
X-798.669 Y-193.328
G3 X-798.793 Y-193.527 I0.439 J-0.409
X-798.548 Y-194.246 I0.562 J-0.21
G1 X-795.836 Y-195.937
G3 X-795.309 Y-195.99 I0.318 J0.509
X-795.11 Y-195.867 I-0.21 J0.562
G1 X-794.542 Y-195.299
X-794.441 Y-195.188
X-794.356 Y-195.064
X-794.285 Y-194.932
X-794.227 Y-194.793
X-794.182 Y-194.65
X-794.148 Y-194.504
X-794.125 Y-194.356
X-794.112 Y-194.207
X-794.109 Y-194.057
X-794.116 Y-193.907
X-794.132 Y-193.758
X-794.156 Y-193.61
X-794.189 Y-193.461
X-794.232 Y-193.311
X-794.284 Y-193.16
X-794.341 Y-193.021
X-794.408 Y-192.882
X-794.49 Y-192.732
X-794.57 Y-192.603
X-794.657 Y-192.481
X-794.76 Y-192.352
X-794.866 Y-192.234
X-794.973 Y-192.128
X-795.085 Y-192.028
X-795.215 Y-191.926
X-795.521 Y-191.755
X-795.854 Y-191.648
X-796.202 Y-191.61
X-796.55 Y-191.64
X-796.886 Y-191.739
X-797.195 Y-191.903
X-797.466 Y-192.125
X-798.065 Y-192.724
G3 X-798.188 Y-192.923 I0.439 J-0.409
X-797.952 Y-193.637 I0.562 J-0.21
G1 X-795.276 Y-195.364
G3 X-794.741 Y-195.422 I0.325 J0.504
X-794.542 Y-195.299 I-0.21 J0.562
G1 X-793.981 Y-194.739
X-793.881 Y-194.627
X-793.794 Y-194.505
X-793.722 Y-194.373
X-793.663 Y-194.235
X-793.617 Y-194.093
X-793.582 Y-193.947
X-793.558 Y-193.799
X-793.544 Y-193.649
X-793.54 Y-193.5
X-793.546 Y-193.35
X-793.56 Y-193.2
X-793.583 Y-193.052
X-793.616 Y-192.902
X-793.657 Y-192.751
X-793.708 Y-192.599
X-793.77 Y-192.446
X-793.833 Y-192.31
X-793.906 Y-192.175
X-793.995 Y-192.03
X-794.081 Y-191.906
X-794.174 Y-191.788
X-794.283 Y-191.664
X-794.392 Y-191.554
X-794.503 Y-191.453
X-794.624 Y-191.356
X-794.93 Y-191.182
X-795.264 Y-191.072
X-795.614 Y-191.031
X-795.965 Y-191.06
X-796.303 Y-191.159
X-796.614 Y-191.323
X-796.887 Y-191.546
X-797.466 Y-192.125
G3 X-797.589 Y-192.324 I0.439 J-0.409
X-797.361 Y-193.032 I0.562 J-0.21
G1 X-794.724 Y-194.798
G3 X-794.18 Y-194.862 I0.334 J0.499
X-793.981 Y-194.739 I-0.21 J0.562
G1 X-793.433 Y-194.191
X-793.333 Y-194.079
X-793.243 Y-193.959
X-793.168 Y-193.83
X-793.106 Y-193.693
X-793.056 Y-193.551
X-793.019 Y-193.406
X-792.992 Y-193.258
X-792.976 Y-193.109
X-792.969 Y-192.96
X-792.972 Y-192.81
X-792.984 Y-192.66
X-793.005 Y-192.511
X-793.035 Y-192.362
X-793.074 Y-192.209
X-793.123 Y-192.056
X-793.182 Y-191.902
X-793.243 Y-191.765
X-793.312 Y-191.632
X-793.399 Y-191.486
X-793.484 Y-191.359
X-793.575 Y-191.239
X-793.68 Y-191.115
X-793.789 Y-191.002
X-793.899 Y-190.899
X-794.014 Y-190.804
X-794.324 Y-190.621
X-794.664 Y-190.505
X-795.02 Y-190.46
X-795.378 Y-190.487
X-795.723 Y-190.586
X-796.042 Y-190.752
X-796.32 Y-190.979
X-796.887 Y-191.546
G3 X-797.01 Y-191.745 I0.439 J-0.409
X-796.789 Y-192.449 I0.562 J-0.21
G1 X-794.183 Y-194.246
G3 X-793.632 Y-194.314 I0.341 J0.494
X-793.433 Y-194.191 I-0.21 J0.562
G1 X-792.829 Y-193.587
X-792.729 Y-193.475
X-792.644 Y-193.352
X-792.573 Y-193.219
X-792.515 Y-193.081
X-792.469 Y-192.938
X-792.434 Y-192.792
X-792.41 Y-192.644
X-792.397 Y-192.495
X-792.393 Y-192.345
X-792.398 Y-192.195
X-792.413 Y-192.046
X-792.436 Y-191.896
X-792.468 Y-191.743
X-792.51 Y-191.59
X-792.562 Y-191.437
X-792.62 Y-191.291
X-792.683 Y-191.155
X-792.761 Y-191.01
X-792.846 Y-190.873
X-792.932 Y-190.75
X-793.024 Y-190.632
X-793.134 Y-190.508
X-793.24 Y-190.401
X-793.351 Y-190.3
X-793.629 Y-190.118
X-793.935 Y-189.989
X-794.259 Y-189.917
X-794.591 Y-189.906
X-794.919 Y-189.954
X-795.234 Y-190.062
X-795.523 Y-190.225
X-795.779 Y-190.437
X-796.32 Y-190.979
G3 X-796.443 Y-191.178 I0.439 J-0.409
X-796.214 Y-191.887 I0.562 J-0.21
G1 X-793.571 Y-193.647
G3 X-793.028 Y-193.71 I0.333 J0.499
X-792.829 Y-193.587 I-0.21 J0.562
G1 X-792.29 Y-193.048
X-792.19 Y-192.936
X-792.099 Y-192.817
X-792.023 Y-192.688
X-791.96 Y-192.551
X-791.91 Y-192.41
X-791.871 Y-192.265
X-791.844 Y-192.118
X-791.826 Y-191.969
X-791.819 Y-191.819
X-791.821 Y-191.669
X-791.832 Y-191.519
X-791.852 Y-191.371
X-791.881 Y-191.221
X-791.92 Y-191.068
X-791.968 Y-190.915
X-792.021 Y-190.775
X-792.082 Y-190.636
X-792.158 Y-190.49
X-792.234 Y-190.361
X-792.317 Y-190.236
X-792.416 Y-190.106
X-792.513 Y-189.991
X-792.616 Y-189.883
X-792.735 Y-189.772
X-793.017 Y-189.578
X-793.329 Y-189.44
X-793.662 Y-189.362
X-794.003 Y-189.346
X-794.342 Y-189.393
X-794.666 Y-189.501
X-794.964 Y-189.667
X-795.227 Y-189.886
X-795.779 Y-190.437
G3 X-795.902 Y-190.636 I0.439 J-0.409
X-795.673 Y-191.346 I0.562 J-0.21
G1 X-793.033 Y-193.108
G3 X-792.489 Y-193.171 I0.333 J0.499
X-792.29 Y-193.048 I-0.21 J0.562
G1 X-791.686 Y-192.444
X-791.586 Y-192.332
X-791.5 Y-192.209
X-791.427 Y-192.078
X-791.368 Y-191.94
X-791.321 Y-191.798
X-791.286 Y-191.652
X-791.261 Y-191.504
X-791.247 Y-191.355
X-791.242 Y-191.205
X-791.247 Y-191.055
X-791.262 Y-190.905
X-791.284 Y-190.757
X-791.317 Y-190.607
X-791.358 Y-190.455
X-791.405 Y-190.313
X-791.461 Y-190.173
X-791.531 Y-190.024
X-791.603 Y-189.89
X-791.681 Y-189.762
X-791.774 Y-189.629
X-791.87 Y-189.508
X-791.969 Y-189.395
X-792.081 Y-189.283
X-792.198 Y-189.178
X-792.214 Y-189.165
X-792.492 Y-188.982
X-792.797 Y-188.853
X-793.122 Y-188.781
X-793.454 Y-188.769
X-793.782 Y-188.818
X-794.097 Y-188.925
X-794.386 Y-189.088
X-794.642 Y-189.3
X-795.227 Y-189.886
G3 X-795.35 Y-190.085 I0.439 J-0.409
X-795.11 Y-190.801 I0.562 J-0.21
G1 X-792.417 Y-192.511
G3 X-791.885 Y-192.567 I0.322 J0.507
X-791.686 Y-192.444 I-0.21 J0.562
G1 X-791.118 Y-191.875
X-791.017 Y-191.764
X-790.93 Y-191.642
X-790.857 Y-191.511
X-790.798 Y-191.373
X-790.75 Y-191.231
X-790.714 Y-191.085
X-790.689 Y-190.937
X-790.675 Y-190.788
X-790.671 Y-190.638
X-790.676 Y-190.488
X-790.69 Y-190.339
X-790.713 Y-190.191
X-790.744 Y-190.043
X-790.785 Y-189.893
X-790.835 Y-189.743
X-790.89 Y-189.604
X-790.959 Y-189.458
X-791.035 Y-189.316
X-791.113 Y-189.188
X-791.203 Y-189.06
X-791.302 Y-188.933
X-791.401 Y-188.821
X-791.508 Y-188.714
X-791.628 Y-188.605
X-791.745 Y-188.511
X-792.056 Y-188.334
X-792.396 Y-188.223
X-792.752 Y-188.181
X-793.108 Y-188.211
X-793.452 Y-188.311
X-793.769 Y-188.478
X-794.046 Y-188.705
X-794.642 Y-189.3
G3 X-794.765 Y-189.499 I0.439 J-0.409
X-794.528 Y-190.214 I0.562 J-0.21
G1 X-791.853 Y-191.941
G3 X-791.317 Y-191.999 I0.325 J0.504
X-791.118 Y-191.875 I-0.21 J0.562
G1 X-790.558 Y-191.315
X-790.457 Y-191.204
X-790.368 Y-191.083
X-790.294 Y-190.953
X-790.233 Y-190.816
X-790.184 Y-190.674
X-790.147 Y-190.528
X-790.122 Y-190.381
X-790.106 Y-190.231
X-790.101 Y-190.082
X-790.105 Y-189.932
X-790.118 Y-189.782
X-790.14 Y-189.634
X-790.171 Y-189.486
X-790.211 Y-189.336
X-790.26 Y-189.184
X-790.32 Y-189.032
X-790.382 Y-188.895
X-790.454 Y-188.759
X-790.541 Y-188.615
X-790.626 Y-188.491
X-790.718 Y-188.373
X-790.826 Y-188.248
X-790.934 Y-188.137
X-791.044 Y-188.036
X-791.164 Y-187.939
X-791.475 Y-187.759
X-791.814 Y-187.646
X-792.17 Y-187.603
X-792.527 Y-187.631
X-792.871 Y-187.731
X-793.188 Y-187.897
X-793.465 Y-188.124
X-794.046 Y-188.705
G3 X-794.169 Y-188.904 I0.439 J-0.409
X-793.94 Y-189.613 I0.562 J-0.21
G1 X-791.3 Y-191.375
G3 X-790.757 Y-191.438 I0.333 J0.499
X-790.558 Y-191.315 I-0.21 J0.562
G1 X-789.979 Y-190.736
X-789.878 Y-190.625
X-789.791 Y-190.503
X-789.718 Y-190.372
X-789.658 Y-190.235
X-789.61 Y-190.092
X-789.574 Y-189.947
X-789.549 Y-189.799
X-789.534 Y-189.65
X-789.529 Y-189.5
X-789.534 Y-189.35
X-789.547 Y-189.201
X-789.57 Y-189.052
X-789.601 Y-188.902
X-789.642 Y-188.75
X-789.691 Y-188.599
X-789.751 Y-188.448
X-789.813 Y-188.312
X-789.888 Y-188.172
X-789.974 Y-188.03
X-790.059 Y-187.906
X-790.151 Y-187.788
X-790.26 Y-187.663
X-790.367 Y-187.554
X-790.477 Y-187.453
X-790.757 Y-187.267
X-791.065 Y-187.136
X-791.392 Y-187.062
X-791.727 Y-187.05
X-792.058 Y-187.098
X-792.375 Y-187.206
X-792.668 Y-187.37
X-792.925 Y-187.584
X-793.465 Y-188.124
G3 X-793.588 Y-188.323 I0.439 J-0.409
X-793.36 Y-189.032 I0.562 J-0.21
G1 X-790.722 Y-190.796
G3 X-790.178 Y-190.859 I0.334 J0.499
X-789.979 Y-190.736 I-0.21 J0.562
G1 X-789.406 Y-190.163
X-789.305 Y-190.052
X-789.218 Y-189.93
X-789.145 Y-189.799
X-789.085 Y-189.661
X-789.037 Y-189.519
X-789.001 Y-189.373
X-788.976 Y-189.226
X-788.961 Y-189.076
X-788.956 Y-188.926
X-788.96 Y-188.776
X-788.974 Y-188.627
X-788.996 Y-188.479
X-789.027 Y-188.328
X-789.067 Y-188.177
X-789.116 Y-188.027
X-789.171 Y-187.888
X-789.238 Y-187.742
X-789.313 Y-187.602
X-789.39 Y-187.474
X-789.479 Y-187.346
X-789.577 Y-187.22
X-789.676 Y-187.107
X-789.782 Y-187
X-789.901 Y-186.891
X-790.181 Y-186.704
X-790.491 Y-186.571
X-790.82 Y-186.497
X-791.156 Y-186.484
X-791.49 Y-186.532
X-791.809 Y-186.641
X-792.103 Y-186.805
X-792.362 Y-187.021
X-792.925 Y-187.584
G3 X-793.049 Y-187.783 I0.439 J-0.409
X-792.813 Y-188.497 I0.562 J-0.21
G1 X-790.141 Y-190.228
G3 X-789.605 Y-190.286 I0.326 J0.504
X-789.406 Y-190.163 I-0.21 J0.562
G1 X-788.831 Y-189.588
X-788.73 Y-189.477
X-788.643 Y-189.355
X-788.57 Y-189.224
X-788.51 Y-189.086
X-788.463 Y-188.944
X-788.427 Y-188.798
X-788.402 Y-188.651
X-788.387 Y-188.501
X-788.382 Y-188.351
X-788.387 Y-188.201
X-788.401 Y-188.052
X-788.423 Y-187.904
X-788.454 Y-187.755
X-788.495 Y-187.605
X-788.544 Y-187.457
X-788.599 Y-187.318
X-788.667 Y-187.17
X-788.742 Y-187.032
X-788.82 Y-186.904
X-788.91 Y-186.774
X-789.008 Y-186.649
X-789.107 Y-186.537
X-789.215 Y-186.428
X-789.334 Y-186.321
X-789.615 Y-186.134
X-789.925 Y-186.002
X-790.254 Y-185.929
X-790.59 Y-185.916
X-790.924 Y-185.965
X-791.243 Y-186.074
X-791.536 Y-186.239
X-791.795 Y-186.454
X-792.362 Y-187.021
G3 X-792.485 Y-187.22 I0.439 J-0.409
X-792.247 Y-187.935 I0.562 J-0.21
G1 X-789.564 Y-189.655
G3 X-789.03 Y-189.711 I0.324 J0.505
X-788.831 Y-189.588 I-0.21 J0.562
G1 X-788.263 Y-189.02
X-788.162 Y-188.909
X-788.074 Y-188.787
X-788.001 Y-188.657
X-787.94 Y-188.519
X-787.892 Y-188.377
X-787.856 Y-188.232
X-787.831 Y-188.084
X-787.816 Y-187.934
X-787.811 Y-187.785
X-787.815 Y-187.635
X-787.829 Y-187.485
X-787.852 Y-187.337
X-787.883 Y-187.189
X-787.923 Y-187.039
X-787.972 Y-186.89
X-788.027 Y-186.751
X-788.095 Y-186.604
X-788.17 Y-186.465
X-788.248 Y-186.337
X-788.338 Y-186.208
X-788.436 Y-186.083
X-788.535 Y-185.97
X-788.642 Y-185.862
X-788.762 Y-185.754
X-788.773 Y-185.745
X-789.052 Y-185.56
X-789.36 Y-185.428
X-789.687 Y-185.355
X-790.021 Y-185.343
X-790.352 Y-185.391
X-790.669 Y-185.499
X-790.961 Y-185.663
X-791.218 Y-185.877
X-791.795 Y-186.454
G3 X-791.919 Y-186.653 I0.439 J-0.409
X-791.68 Y-187.369 I0.562 J-0.21
G1 X-788.995 Y-189.087
G3 X-788.462 Y-189.143 I0.323 J0.505
X-788.263 Y-189.02 I-0.21 J0.562
G1 X-787.694 Y-188.452
X-787.594 Y-188.341
X-787.505 Y-188.219
X-787.432 Y-188.089
X-787.371 Y-187.952
X-787.323 Y-187.81
X-787.286 Y-187.664
X-787.261 Y-187.516
X-787.246 Y-187.367
X-787.241 Y-187.217
X-787.245 Y-187.067
X-787.259 Y-186.918
X-787.281 Y-186.769
X-787.312 Y-186.621
X-787.352 Y-186.472
X-787.402 Y-186.323
X-787.457 Y-186.183
X-787.525 Y-186.037
X-787.6 Y-185.896
X-787.678 Y-185.768
X-787.767 Y-185.639
X-787.866 Y-185.512
X-787.965 Y-185.4
X-788.071 Y-185.292
X-788.191 Y-185.183
X-788.308 Y-185.089
X-788.621 Y-184.91
X-788.962 Y-184.797
X-789.32 Y-184.755
X-789.679 Y-184.785
X-790.024 Y-184.885
X-790.343 Y-185.053
X-790.622 Y-185.281
X-791.218 Y-185.877
G3 X-791.341 Y-186.076 I0.439 J-0.409
X-791.105 Y-186.79 I0.562 J-0.21
G1 X-788.429 Y-188.517
G3 X-787.893 Y-188.575 I0.325 J0.504
X-787.694 Y-188.452 I-0.21 J0.562
G1 X-787.134 Y-187.892
X-787.034 Y-187.78
X-786.944 Y-187.66
X-786.868 Y-187.53
X-786.807 Y-187.394
X-786.757 Y-187.252
X-786.72 Y-187.107
X-786.693 Y-186.959
X-786.677 Y-186.81
X-786.671 Y-186.66
X-786.675 Y-186.51
X-786.688 Y-186.361
X-786.709 Y-186.212
X-786.74 Y-186.065
X-786.779 Y-185.915
X-786.828 Y-185.763
X-786.887 Y-185.611
X-786.949 Y-185.475
X-787.021 Y-185.339
X-787.107 Y-185.195
X-787.192 Y-185.071
X-787.283 Y-184.952
X-787.391 Y-184.827
X-787.499 Y-184.716
X-787.609 Y-184.614
X-787.729 Y-184.517
X-788.04 Y-184.336
X-788.381 Y-184.221
X-788.739 Y-184.177
X-789.098 Y-184.205
X-789.443 Y-184.305
X-789.762 Y-184.472
X-790.041 Y-184.7
X-790.622 Y-185.281
G3 X-790.745 Y-185.48 I0.439 J-0.409
X-790.516 Y-186.189 I0.562 J-0.21
G1 X-787.877 Y-187.952
G3 X-787.333 Y-188.015 I0.333 J0.499
X-787.134 Y-187.892 I-0.21 J0.562
G1 X-786.53 Y-187.287
X-786.429 Y-187.176
X-786.345 Y-187.052
X-786.274 Y-186.92
X-786.217 Y-186.781
X-786.172 Y-186.638
X-786.138 Y-186.492
X-786.114 Y-186.344
X-786.102 Y-186.194
X-786.099 Y-186.044
X-786.105 Y-185.895
X-786.12 Y-185.745
X-786.144 Y-185.596
X-786.178 Y-185.444
X-786.221 Y-185.292
X-786.273 Y-185.14
X-786.332 Y-184.994
X-786.396 Y-184.859
X-786.476 Y-184.714
X-786.561 Y-184.577
X-786.648 Y-184.455
X-786.741 Y-184.337
X-786.852 Y-184.214
X-786.958 Y-184.108
X-787.07 Y-184.008
X-787.348 Y-183.827
X-787.654 Y-183.7
X-787.978 Y-183.63
X-788.309 Y-183.62
X-788.637 Y-183.669
X-788.95 Y-183.777
X-789.239 Y-183.94
X-789.493 Y-184.152
X-790.041 Y-184.7
G3 X-790.165 Y-184.899 I0.439 J-0.409
X-789.931 Y-185.612 I0.562 J-0.21
G1 X-787.267 Y-187.351
G3 X-786.729 Y-187.411 I0.328 J0.502
X-786.53 Y-187.287 I-0.21 J0.562
G1 X-785.982 Y-186.74
X-785.882 Y-186.628
X-785.793 Y-186.507
X-785.719 Y-186.377
X-785.659 Y-186.239
X-785.61 Y-186.097
X-785.574 Y-185.952
X-785.548 Y-185.804
X-785.532 Y-185.655
X-785.527 Y-185.505
X-785.531 Y-185.355
X-785.544 Y-185.206
X-785.565 Y-185.057
X-785.596 Y-184.907
X-785.636 Y-184.755
X-785.686 Y-184.603
X-785.741 Y-184.463
X-785.805 Y-184.323
X-785.881 Y-184.178
X-785.959 Y-184.05
X-786.044 Y-183.926
X-786.143 Y-183.797
X-786.242 Y-183.684
X-786.346 Y-183.576
X-786.467 Y-183.467
X-786.747 Y-183.278
X-787.057 Y-183.144
X-787.387 Y-183.069
X-787.725 Y-183.055
X-788.059 Y-183.103
X-788.379 Y-183.212
X-788.674 Y-183.377
X-788.934 Y-183.593
X-789.493 Y-184.152
G3 X-789.617 Y-184.351 I0.439 J-0.409
X-789.383 Y-185.064 I0.562 J-0.21
G1 X-786.719 Y-186.803
G3 X-786.181 Y-186.863 I0.328 J0.502
X-785.982 Y-186.74 I-0.21 J0.562
G1 X-785.407 Y-186.165
X-785.307 Y-186.053
X-785.219 Y-185.932
X-785.145 Y-185.801
X-785.085 Y-185.664
X-785.036 Y-185.522
X-785 Y-185.377
X-784.974 Y-185.229
X-784.959 Y-185.08
X-784.954 Y-184.93
X-784.958 Y-184.78
X-784.971 Y-184.63
X-784.993 Y-184.482
X-785.024 Y-184.333
X-785.064 Y-184.183
X-785.113 Y-184.035
X-785.167 Y-183.896
X-785.236 Y-183.748
X-785.309 Y-183.61
X-785.387 Y-183.481
X-785.477 Y-183.351
X-785.575 Y-183.226
X-785.673 Y-183.113
X-785.781 Y-183.005
X-785.9 Y-182.897
X-786.181 Y-182.709
X-786.492 Y-182.576
X-786.821 Y-182.502
X-787.159 Y-182.488
X-787.494 Y-182.537
X-787.814 Y-182.646
X-788.109 Y-182.811
X-788.369 Y-183.027
X-788.934 Y-183.593
G3 X-789.057 Y-183.792 I0.439 J-0.409
X-788.82 Y-184.506 I0.562 J-0.21
G1 X-786.141 Y-186.23
G3 X-785.606 Y-186.288 I0.325 J0.505
X-785.407 Y-186.165 I-0.21 J0.562
G1 X-784.839 Y-185.596
X-784.738 Y-185.485
X-784.65 Y-185.364
X-784.576 Y-185.234
X-784.515 Y-185.097
X-784.466 Y-184.955
X-784.429 Y-184.81
X-784.403 Y-184.662
X-784.388 Y-184.513
X-784.382 Y-184.363
X-784.387 Y-184.213
X-784.4 Y-184.063
X-784.422 Y-183.915
X-784.453 Y-183.767
X-784.492 Y-183.618
X-784.541 Y-183.469
X-784.596 Y-183.329
X-784.663 Y-183.183
X-784.738 Y-183.043
X-784.816 Y-182.915
X-784.905 Y-182.786
X-785.003 Y-182.66
X-785.102 Y-182.547
X-785.208 Y-182.44
X-785.328 Y-182.331
X-785.336 Y-182.324
X-785.616 Y-182.137
X-785.926 Y-182.004
X-786.254 Y-181.93
X-786.59 Y-181.917
X-786.923 Y-181.965
X-787.242 Y-182.074
X-787.536 Y-182.238
X-787.795 Y-182.453
X-788.369 Y-183.027
G3 X-788.492 Y-183.226 I0.439 J-0.409
X-788.254 Y-183.941 I0.562 J-0.21
G1 X-785.572 Y-185.663
G3 X-785.038 Y-185.72 I0.324 J0.505
X-784.839 Y-185.596 I-0.21 J0.562
G1 X-784.271 Y-185.028
X-784.17 Y-184.917
X-784.081 Y-184.796
X-784.007 Y-184.666
X-783.945 Y-184.529
X-783.897 Y-184.387
X-783.859 Y-184.242
X-783.833 Y-184.094
X-783.818 Y-183.945
X-783.812 Y-183.795
X-783.816 Y-183.645
X-783.83 Y-183.496
X-783.852 Y-183.348
X-783.882 Y-183.2
X-783.922 Y-183.05
X-783.971 Y-182.901
X-784.026 Y-182.762
X-784.093 Y-182.615
X-784.168 Y-182.475
X-784.246 Y-182.346
X-784.335 Y-182.218
X-784.433 Y-182.091
X-784.532 Y-181.978
X-784.638 Y-181.87
X-784.758 Y-181.761
X-784.874 Y-181.667
X-785.188 Y-181.487
X-785.531 Y-181.373
X-785.89 Y-181.329
X-786.25 Y-181.359
X-786.598 Y-181.46
X-786.918 Y-181.628
X-787.198 Y-181.857
X-787.795 Y-182.453
G3 X-787.918 Y-182.652 I0.439 J-0.409
X-787.681 Y-183.367 I0.562 J-0.21
G1 X-785.005 Y-185.094
G3 X-784.47 Y-185.151 I0.325 J0.504
X-784.271 Y-185.028 I-0.21 J0.562
G1 X-783.711 Y-184.468
X-783.61 Y-184.357
X-783.519 Y-184.237
X-783.443 Y-184.108
X-783.381 Y-183.971
X-783.331 Y-183.83
X-783.293 Y-183.685
X-783.266 Y-183.537
X-783.25 Y-183.388
X-783.243 Y-183.238
X-783.247 Y-183.088
X-783.259 Y-182.939
X-783.28 Y-182.79
X-783.31 Y-182.643
X-783.349 Y-182.494
X-783.398 Y-182.342
X-783.456 Y-182.19
X-783.518 Y-182.054
X-783.589 Y-181.918
X-783.676 Y-181.773
X-783.76 Y-181.649
X-783.851 Y-181.53
X-783.959 Y-181.405
X-784.067 Y-181.293
X-784.177 Y-181.192
X-784.296 Y-181.094
X-784.608 Y-180.912
X-784.951 Y-180.796
X-785.309 Y-180.752
X-785.67 Y-180.78
X-786.017 Y-180.88
X-786.338 Y-181.048
X-786.618 Y-181.276
X-787.198 Y-181.857
G3 X-787.321 Y-182.056 I0.439 J-0.409
X-787.092 Y-182.765 I0.562 J-0.21
G1 X-784.453 Y-184.528
G3 X-783.711 Y-184.468 I0.333 J0.499
G1 X-783.106 Y-183.864
X-783.006 Y-183.753
X-782.921 Y-183.629
X-782.85 Y-183.497
X-782.792 Y-183.359
X-782.746 Y-183.216
X-782.711 Y-183.07
X-782.688 Y-182.922
X-782.674 Y-182.772
X-782.671 Y-182.622
X-782.677 Y-182.472
X-782.692 Y-182.323
X-782.716 Y-182.174
X-782.749 Y-182.023
X-782.792 Y-181.87
X-782.843 Y-181.718
X-782.902 Y-181.573
X-782.966 Y-181.438
X-783.045 Y-181.293
X-783.13 Y-181.156
X-783.216 Y-181.033
X-783.31 Y-180.916
X-783.42 Y-180.792
X-783.526 Y-180.686
X-783.638 Y-180.586
X-783.917 Y-180.404
X-784.224 Y-180.276
X-784.549 Y-180.205
X-784.881 Y-180.195
X-785.21 Y-180.244
X-785.524 Y-180.352
X-785.814 Y-180.515
X-786.07 Y-180.728
X-786.618 Y-181.276
G3 X-786.741 Y-181.475 I0.439 J-0.409
X-786.507 Y-182.188 I0.562 J-0.21
G1 X-783.844 Y-183.927
G3 X-783.106 Y-183.864 I0.328 J0.502
G1 X-782.559 Y-183.316
X-782.458 Y-183.205
X-782.369 Y-183.084
X-782.294 Y-182.954
X-782.233 Y-182.817
X-782.185 Y-182.675
X-782.148 Y-182.53
X-782.121 Y-182.382
X-782.106 Y-182.233
X-782.1 Y-182.083
X-782.103 Y-181.933
X-782.116 Y-181.783
X-782.138 Y-181.635
X-782.168 Y-181.485
X-782.208 Y-181.334
X-782.257 Y-181.181
X-782.312 Y-181.041
X-782.376 Y-180.901
X-782.452 Y-180.757
X-782.529 Y-180.628
X-782.614 Y-180.504
X-782.713 Y-180.375
X-782.811 Y-180.262
X-782.916 Y-180.154
X-783.036 Y-180.044
X-783.317 Y-179.855
X-783.628 Y-179.72
X-783.959 Y-179.644
X-784.297 Y-179.63
X-784.633 Y-179.678
X-784.954 Y-179.787
X-785.25 Y-179.952
X-785.51 Y-180.169
X-786.07 Y-180.728
G3 X-786.193 Y-180.927 I0.439 J-0.409
X-785.959 Y-181.64 I0.562 J-0.21
G1 X-783.296 Y-183.379
G3 X-782.758 Y-183.439 I0.328 J0.502
X-782.559 Y-183.316 I-0.21 J0.562
G1 X-781.984 Y-182.741
X-781.883 Y-182.63
X-781.795 Y-182.509
X-781.721 Y-182.378
X-781.66 Y-182.241
X-781.611 Y-182.099
X-781.574 Y-181.954
X-781.548 Y-181.806
X-781.533 Y-181.657
X-781.527 Y-181.507
X-781.531 Y-181.357
X-781.544 Y-181.208
X-781.566 Y-181.06
X-781.597 Y-180.911
X-781.636 Y-180.761
X-781.685 Y-180.613
X-781.739 Y-180.474
X-781.807 Y-180.326
X-781.88 Y-180.188
X-781.958 Y-180.059
X-782.048 Y-179.929
X-782.145 Y-179.804
X-782.244 Y-179.691
X-782.351 Y-179.582
X-782.47 Y-179.474
X-782.752 Y-179.286
X-783.063 Y-179.152
X-783.394 Y-179.077
X-783.732 Y-179.064
X-784.068 Y-179.112
X-784.389 Y-179.221
X-784.684 Y-179.387
X-784.945 Y-179.603
X-785.51 Y-180.169
G3 X-785.633 Y-180.368 I0.439 J-0.409
X-785.396 Y-181.082 I0.562 J-0.21
G1 X-782.718 Y-182.807
G3 X-781.984 Y-182.741 I0.325 J0.504
G1 X-781.416 Y-182.173
X-781.315 Y-182.062
X-781.226 Y-181.941
X-781.151 Y-181.811
X-781.09 Y-181.674
X-781.041 Y-181.532
X-781.004 Y-181.387
X-780.977 Y-181.239
X-780.962 Y-181.09
X-780.956 Y-180.94
X-780.96 Y-180.79
X-780.973 Y-180.641
X-780.995 Y-180.492
X-781.025 Y-180.345
X-781.065 Y-180.195
X-781.113 Y-180.047
X-781.168 Y-179.907
X-781.236 Y-179.761
X-781.31 Y-179.621
X-781.387 Y-179.493
X-781.476 Y-179.364
X-781.574 Y-179.238
X-781.673 Y-179.125
X-781.779 Y-179.017
X-781.899 Y-178.908
X-781.907 Y-178.901
X-782.188 Y-178.714
X-782.498 Y-178.58
X-782.827 Y-178.506
X-783.164 Y-178.492
