%
(1001)
(T1  D=3 CR=0 - ZMIN=10 - flat end mill)
G90 G94
G17
G21

(2D Adaptive4)
M9
T1 M6
S10000 M3
G54
M9
G0 X-330.713 Y-35.66
Z33
Z23
Z20.85
G1 Z20.55 F850
G3 X-330.574 Y-38.506 Z20.394 I0.069 J-1.423 F283.3
X-330.713 Y-35.66 Z20.237 I-0.069 J1.423
X-330.574 Y-38.506 Z20.081 I0.069 J-1.423
X-330.713 Y-35.66 Z19.925 I-0.069 J1.423
X-330.574 Y-38.506 Z19.768 I0.069 J-1.423
X-330.713 Y-35.66 Z19.612 I-0.069 J1.423
X-330.574 Y-38.506 Z19.456 I0.069 J-1.423
X-330.713 Y-35.66 Z19.299 I-0.069 J1.423
X-330.574 Y-38.506 Z19.143 I0.069 J-1.423
X-329.632 Y-36.079 Z19.028 I-0.069 J1.423
X-331.995 Y-36.633 Z18.927 I-1.011 J-1.004
X-329.291 Y-37.533 Z18.771 I1.352 J-0.45
X-329.479 Y-36.262 Z18.724 I-1.352 J0.45
X-331.901 Y-36.414 Z18.623 I-1.165 J-0.821
X-329.385 Y-37.752 Z18.466 I1.258 J-0.669
X-329.358 Y-36.467 Z18.42 I-1.258 J0.669
X-331.928 Y-37.699 Z18.263 I-1.285 J-0.616
X-329.358 Y-36.467 Z18.107 I1.285 J0.616
X-331.928 Y-37.699 Z17.951 I-1.285 J-0.616
X-329.358 Y-36.467 Z17.794 I1.285 J0.616
X-331.928 Y-37.699 Z17.638 I-1.285 J-0.616
X-331.356 Y-38.317 Z17.608 I1.285 J0.616
X-329.22 Y-37.163 Z17.507 I0.713 J1.234
X-331.214 Y-35.777 Z17.405 I-1.423 J0.08
X-330.073 Y-38.389 Z17.249 I0.57 J-1.306
X-331.214 Y-35.777 Z17.093 I-0.57 J1.306
X-330.073 Y-38.389 Z16.936 I0.57 J-1.306
X-331.214 Y-35.777 Z16.78 I-0.57 J1.306
X-331.862 Y-37.821 Z16.695 I0.57 J-1.306
X-329.435 Y-37.838 Z16.594 I1.219 J0.738
X-331.852 Y-36.328 Z16.437 I-1.208 J0.755
X-331.968 Y-37.607 Z16.391 I1.208 J-0.755
X-329.578 Y-38.029 Z16.289 I1.325 J0.524
X-331.709 Y-36.137 Z16.133 I-1.066 J0.946
X-332.037 Y-37.379 Z16.087 I1.066 J-0.946
X-329.75 Y-38.194 Z15.985 I1.394 J0.296
X-331.536 Y-35.972 Z15.829 I-0.893 J1.111
X-332.067 Y-37.143 Z15.782 I0.893 J-1.111
X-329.219 Y-37.023 Z15.626 I1.424 J0.06
X-332.067 Y-37.143 Z15.47 I-1.424 J-0.06
X-329.219 Y-37.023 Z15.313 I1.424 J0.06
X-329.66 Y-36.051 Z15.275 I-1.424 J-0.06
X-332.007 Y-36.671 Z15.174 I-0.983 J-1.032
X-330.396 Y-38.486 Z15.072 I1.364 J-0.412
X-330.891 Y-35.68 Z14.916 I-0.247 J1.403
X-331.919 Y-36.449 Z14.869 I0.247 J-1.403
X-329.367 Y-37.717 Z14.713 I1.276 J-0.634
X-331.92 Y-36.449 Z14.557 I-1.276 J0.634
X-329.367 Y-37.717 Z14.4 I1.276 J-0.634
X-329.285 Y-36.652 Z14.362 I-1.276 J0.634
X-332.001 Y-37.514 Z14.206 I-1.358 J-0.431
X-329.285 Y-36.652 Z14.049 I1.358 J0.431
X-332.001 Y-37.514 Z13.893 I-1.358 J-0.431
X-329.285 Y-36.652 Z13.737 I1.358 J0.431
X-332.001 Y-37.514 Z13.58 I-1.358 J-0.431
X-329.285 Y-36.652 Z13.424 I1.358 J0.431
X-332.001 Y-37.514 Z13.268 I-1.358 J-0.431
X-329.285 Y-36.652 Z13.111 I1.358 J0.431
X-331.25 Y-35.794 Z13.027 I-1.358 J-0.431
X-331.841 Y-37.855 Z12.942 I0.607 J-1.289
X-329.414 Y-37.804 Z12.84 I1.198 J0.772
X-331.872 Y-36.362 Z12.684 I-1.229 J0.721
X-329.414 Y-37.804 Z12.528 I1.229 J-0.721
X-331.872 Y-36.362 Z12.371 I-1.229 J0.721
X-332.028 Y-37.418 Z12.333 I1.229 J-0.721
X-329.72 Y-38.168 Z12.232 I1.385 J0.335
X-331.567 Y-35.998 Z12.075 I-0.924 J1.085
X-332.065 Y-37.182 Z12.029 I0.924 J-1.085
X-329.914 Y-38.307 Z11.927 I1.422 J0.099
X-331.373 Y-35.859 Z11.771 I-0.73 J1.224
X-332.061 Y-36.944 Z11.725 I0.73 J-1.224
X-329.225 Y-37.222 Z11.568 I1.418 J-0.139
X-332.018 Y-36.709 Z11.42 I-1.418 J0.139
X-329.268 Y-37.457 Z11.264 I1.375 J-0.374
X-329.526 Y-36.198 Z11.217 I-1.375 J0.374
X-331.76 Y-37.968 Z11.061 I-1.117 J-0.885
X-329.526 Y-36.198 Z10.905 I1.117 J0.885
X-331.76 Y-37.968 Z10.748 I-1.117 J-0.885
X-329.526 Y-36.198 Z10.592 I1.117 J0.885
X-331.76 Y-37.968 Z10.436 I-1.117 J-0.885
X-329.526 Y-36.198 Z10.279 I1.117 J0.885
X-331.76 Y-37.968 Z10.123 I-1.117 J-0.885
X-331.286 Y-38.355 Z10.101 I1.117 J0.885
X-329.218 Y-37.083 Z10 I0.642 J1.272
X-332.068 I-1.425
X-330.069 Y-38.387 I1.425
X-329.218 Y-37.083 I-0.574 J1.304
G1 X-329.216 Y-37.033 F850
X-329.217 Y-36.997
X-329.218 Y-36.96
X-329.226 Y-36.818
X-329.216 Y-36.677
X-329.194 Y-36.535
X-329.171 Y-36.387
X-329.184 Y-36.237
X-329.222 Y-36.092
X-329.281 Y-35.954
X-329.358 Y-35.825
X-329.449 Y-35.706
X-329.553 Y-35.598
X-329.667 Y-35.501
X-329.791 Y-35.416
X-329.922 Y-35.343
X-330.059 Y-35.282
X-330.201 Y-35.234
X-330.245 Y-35.223
X-330.512 Y-35.196
X-330.776 Y-35.243
X-331.017 Y-35.361
X-331.216 Y-35.54
X-332.189 Y-36.7
X-332.28 Y-36.82
X-332.346 Y-37.009
X-332.36 Y-37.209
X-332.32 Y-37.406
X-332.229 Y-37.585
X-332.094 Y-37.733
G3 X-331.99 Y-37.786 I0.185 J0.236
X-331.611 Y-37.468 I0.08 J0.289
G1 X-331.668 Y-36.872
G3 X-332.096 Y-36.63 I-0.299 J-0.029
X-332.189 Y-36.7 I0.129 J-0.271
G1 X-332.445 Y-37.005
X-332.466 Y-37.032
X-332.483 Y-37.054
X-332.503 Y-37.094
X-332.512 Y-37.115
X-332.52 Y-37.137
G3 X-332.152 Y-37.205 I0.184 J-0.034
X-332.348 Y-36.985 I-0.184 J0.034
X-332.385 Y-36.991 I0.013 J-0.191
X-332.483 Y-37.054 I0.05 J-0.185
G1 X-332.497 Y-37.078
X-332.508 Y-37.102
X-332.52 Y-37.137
X-332.527 Y-37.173
X-332.532 Y-37.208
Y-37.244
X-332.527 Y-37.279
X-332.519 Y-37.315
X-332.505 Y-37.35
X-332.486 Y-37.385
X-332.468 Y-37.411
X-332.445 Y-37.436
X-332.304 Y-37.557
X-331.027 Y-38.628
X-330.908 Y-38.718
X-330.774 Y-38.787
X-330.632 Y-38.833
X-330.484 Y-38.859
X-330.334 Y-38.866
X-330.184 Y-38.857
X-330.037 Y-38.831
X-329.892 Y-38.79
X-329.752 Y-38.736
X-329.618 Y-38.669
X-329.491 Y-38.59
X-329.401 Y-38.523
X-329.221 Y-38.345
X-329.096 Y-38.125
X-329.035 Y-37.88
X-329.042 Y-37.627
X-329.117 Y-37.385
X-329.167 Y-37.244
X-329.184 Y-37.171
X-329.198 Y-37.102
X-329.218 Y-36.96
G3 X-329.261 Y-36.851 I-0.295 J-0.053
X-329.731 Y-36.807 I-0.253 J-0.162
G1 X-331.045 Y-38.199
G3 X-331.027 Y-38.628 I0.218 J-0.206
G1 X-330.602 Y-38.985
X-330.483 Y-39.075
X-330.345 Y-39.136
X-330.2 Y-39.173
X-330.051 Y-39.19
X-329.901 Y-39.188
X-329.752 Y-39.17
X-329.606 Y-39.135
X-329.464 Y-39.087
X-329.328 Y-39.024
X-329.287 Y-38.999
X-329.088 Y-38.839
X-328.938 Y-38.632
X-328.847 Y-38.393
X-328.822 Y-38.139
X-328.865 Y-37.887
X-328.971 Y-37.655
G3 X-329.055 Y-37.573 I-0.248 J-0.169
X-329.405 Y-37.589 I-0.164 J-0.251
G1 X-330.588 Y-38.527
G3 X-330.672 Y-38.891 I0.186 J-0.235
X-330.602 Y-38.985 I0.271 J0.129
G1 X-330.238 Y-39.29
X-330.118 Y-39.381
X-329.983 Y-39.446
X-329.838 Y-39.486
X-329.689 Y-39.503
X-329.539 Y-39.499
X-329.391 Y-39.476
X-329.247 Y-39.434
X-329.109 Y-39.375
X-328.979 Y-39.301
X-328.95 Y-39.279
X-328.758 Y-39.087
X-328.626 Y-38.849
X-328.567 Y-38.584
X-328.583 Y-38.312
X-328.675 Y-38.056
X-328.834 Y-37.836
G3 X-329.257 Y-37.842 I-0.209 J-0.216
G1 X-330.251 Y-38.858
G3 X-330.308 Y-39.197 I0.214 J-0.21
X-330.238 Y-39.29 I0.271 J0.129
G1 X-329.867 Y-39.602
X-329.747 Y-39.692
X-329.61 Y-39.754
X-329.464 Y-39.787
X-329.314 Y-39.798
X-329.165 Y-39.785
X-329.019 Y-39.751
X-328.878 Y-39.699
X-328.746 Y-39.628
X-328.622 Y-39.544
X-328.51 Y-39.444
X-328.501 Y-39.435
X-328.357 Y-39.222
X-328.275 Y-38.978
X-328.259 Y-38.722
X-328.312 Y-38.47
X-328.429 Y-38.241
X-328.602 Y-38.052
X-328.717 Y-37.952
X-328.759 Y-37.914
X-328.834 Y-37.836
G3 X-329.314 Y-37.924 I-0.209 J-0.216
G1 X-329.938 Y-39.251
G3 X-329.937 Y-39.508 I0.272 J-0.127
X-329.867 Y-39.602 I0.271 J0.129
G1 X-329.532 Y-39.883
X-329.412 Y-39.973
X-329.275 Y-40.034
X-329.128 Y-40.066
X-328.979 Y-40.072
X-328.829 Y-40.057
X-328.684 Y-40.021
X-328.544 Y-39.965
X-328.413 Y-39.894
X-328.291 Y-39.806
X-328.181 Y-39.704
X-328.17 Y-39.691
X-328.031 Y-39.478
X-327.952 Y-39.237
X-327.94 Y-38.983
X-327.993 Y-38.734
X-328.11 Y-38.508
X-328.282 Y-38.32
X-328.602 Y-38.052
G3 X-328.706 Y-37.999 I-0.185 J-0.236
X-329.065 Y-38.177 I-0.08 J-0.289
G1 X-329.61 Y-39.549
G3 X-329.532 Y-39.883 I0.279 J-0.111
G1 X-329.184 Y-40.174
X-329.065 Y-40.265
X-328.925 Y-40.319
X-328.777 Y-40.344
X-328.627 Y-40.345
X-328.478 Y-40.324
X-328.334 Y-40.284
X-328.196 Y-40.224
X-328.067 Y-40.149
X-327.948 Y-40.057
X-327.84 Y-39.953
X-327.832 Y-39.943
X-327.7 Y-39.731
X-327.627 Y-39.491
X-327.618 Y-39.241
X-327.673 Y-38.997
X-327.79 Y-38.775
X-327.959 Y-38.591
X-328.282 Y-38.32
G3 X-328.748 Y-38.452 I-0.185 J-0.236
G1 X-329.265 Y-39.847
G3 X-329.254 Y-40.081 I0.281 J-0.104
X-329.184 Y-40.174 I0.271 J0.129
G1 X-328.868 Y-40.44
X-328.748 Y-40.53
X-328.609 Y-40.587
X-328.462 Y-40.614
X-328.312 Y-40.616
X-328.163 Y-40.596
X-328.018 Y-40.558
X-327.88 Y-40.498
X-327.75 Y-40.424
X-327.631 Y-40.333
X-327.522 Y-40.229
X-327.515 Y-40.22
X-327.38 Y-40.007
X-327.305 Y-39.767
X-327.295 Y-39.516
X-327.35 Y-39.27
X-327.467 Y-39.047
X-327.637 Y-38.862
X-327.959 Y-38.591
G3 X-328.424 Y-38.722 I-0.185 J-0.236
G1 X-328.948 Y-40.111
G3 X-328.938 Y-40.346 I0.281 J-0.106
X-328.868 Y-40.44 I0.271 J0.129
G1 X-328.539 Y-40.716
X-328.42 Y-40.806
X-328.28 Y-40.861
X-328.132 Y-40.886
X-327.982 Y-40.887
X-327.834 Y-40.866
X-327.689 Y-40.826
X-327.552 Y-40.766
X-327.422 Y-40.691
X-327.303 Y-40.599
X-327.195 Y-40.495
X-327.188 Y-40.486
X-327.055 Y-40.273
X-326.982 Y-40.034
X-326.973 Y-39.783
X-327.028 Y-39.539
X-327.144 Y-39.317
X-327.314 Y-39.132
X-327.637 Y-38.862
G3 X-328.103 Y-38.994 I-0.185 J-0.236
G1 X-328.62 Y-40.388
G3 X-328.609 Y-40.622 I0.281 J-0.104
X-328.539 Y-40.716 I0.271 J0.129
G1 X-328.234 Y-40.972
X-328.114 Y-41.062
X-327.977 Y-41.123
X-327.83 Y-41.153
X-327.68 Y-41.158
X-327.531 Y-41.14
X-327.386 Y-41.103
X-327.247 Y-41.046
X-327.116 Y-40.972
X-326.995 Y-40.883
X-326.886 Y-40.78
X-326.877 Y-40.769
X-326.739 Y-40.556
X-326.662 Y-40.315
X-326.65 Y-40.062
X-326.704 Y-39.814
X-326.821 Y-39.589
X-326.992 Y-39.402
X-327.314 Y-39.132
G3 X-327.778 Y-39.26 I-0.185 J-0.236
G1 X-328.313 Y-40.641
G3 X-328.234 Y-40.972 I0.28 J-0.108
G1 X-327.908 Y-41.245
X-327.789 Y-41.336
X-327.651 Y-41.395
X-327.504 Y-41.424
X-327.354 Y-41.427
X-327.205 Y-41.409
X-327.06 Y-41.372
X-326.921 Y-41.313
X-326.791 Y-41.24
X-326.67 Y-41.15
X-326.561 Y-41.047
X-326.552 Y-41.036
X-326.416 Y-40.823
X-326.34 Y-40.582
X-326.328 Y-40.33
X-326.383 Y-40.083
X-326.499 Y-39.859
X-326.67 Y-39.673
X-326.992 Y-39.402
G3 X-327.457 Y-39.531 I-0.185 J-0.236
G1 X-327.988 Y-40.915
G3 X-327.908 Y-41.245 I0.28 J-0.108
G1 X-327.571 Y-41.528
X-327.452 Y-41.618
X-327.312 Y-41.672
X-327.164 Y-41.697
X-327.014 Y-41.698
X-326.865 Y-41.677
X-326.721 Y-41.637
X-326.583 Y-41.576
X-326.454 Y-41.501
X-326.335 Y-41.409
X-326.227 Y-41.305
X-326.22 Y-41.296
X-326.088 Y-41.083
X-326.015 Y-40.844
X-326.006 Y-40.593
X-326.062 Y-40.349
X-326.178 Y-40.128
X-326.347 Y-39.944
X-326.67 Y-39.673
G3 X-326.775 Y-39.62 I-0.185 J-0.236
X-327.136 Y-39.805 I-0.08 J-0.289
G1 X-327.652 Y-41.201
G3 X-327.641 Y-41.434 I0.281 J-0.104
X-327.571 Y-41.528 I0.271 J0.129
G1 X-327.25 Y-41.798
X-327.13 Y-41.888
X-326.991 Y-41.943
X-326.843 Y-41.968
X-326.693 Y-41.969
X-326.544 Y-41.948
X-326.4 Y-41.908
X-326.262 Y-41.848
X-326.132 Y-41.773
X-326.013 Y-41.682
X-325.906 Y-41.577
X-325.899 Y-41.568
X-325.766 Y-41.356
X-325.693 Y-41.116
X-325.683 Y-40.866
X-325.738 Y-40.621
X-325.855 Y-40.399
X-326.024 Y-40.214
X-326.347 Y-39.944
G3 X-326.452 Y-39.891 I-0.185 J-0.236
X-326.813 Y-40.076 I-0.08 J-0.289
G1 X-327.33 Y-41.47
G3 X-327.32 Y-41.704 I0.281 J-0.104
X-327.25 Y-41.798 I0.271 J0.129
G1 X-326.934 Y-42.063
X-326.814 Y-42.153
X-326.675 Y-42.21
X-326.528 Y-42.237
X-326.378 Y-42.24
X-326.229 Y-42.22
X-326.084 Y-42.181
X-325.946 Y-42.122
X-325.816 Y-42.048
X-325.697 Y-41.957
X-325.588 Y-41.854
X-325.58 Y-41.844
X-325.446 Y-41.631
X-325.371 Y-41.391
X-325.36 Y-41.139
X-325.415 Y-40.894
X-325.532 Y-40.67
X-325.702 Y-40.485
X-326.024 Y-40.214
G3 X-326.49 Y-40.345 I-0.185 J-0.236
G1 X-327.014 Y-41.734
G3 X-327.004 Y-41.969 I0.281 J-0.106
X-326.934 Y-42.063 I0.271 J0.129
G1 X-326.596 Y-42.346
X-326.476 Y-42.437
X-326.336 Y-42.488
X-326.187 Y-42.512
X-326.037 Y-42.511
X-325.889 Y-42.488
X-325.745 Y-42.447
X-325.608 Y-42.385
X-325.479 Y-42.309
X-325.361 Y-42.217
X-325.254 Y-42.112
X-325.247 Y-42.103
X-325.117 Y-41.891
X-325.046 Y-41.652
X-325.038 Y-41.403
X-325.094 Y-41.16
X-325.21 Y-40.94
X-325.379 Y-40.756
X-325.702 Y-40.485
G3 X-326.169 Y-40.619 I-0.185 J-0.236
G1 X-326.677 Y-42.021
G3 X-326.666 Y-42.252 I0.282 J-0.102
X-326.596 Y-42.346 I0.271 J0.129
G1 X-326.299 Y-42.595
X-326.179 Y-42.686
X-326.042 Y-42.747
X-325.895 Y-42.777
X-325.745 Y-42.781
X-325.596 Y-42.764
X-325.451 Y-42.727
X-325.312 Y-42.67
X-325.181 Y-42.596
X-325.06 Y-42.508
X-324.951 Y-42.405
X-324.942 Y-42.393
X-324.804 Y-42.18
X-324.727 Y-41.939
X-324.715 Y-41.686
X-324.769 Y-41.438
X-324.886 Y-41.213
X-325.057 Y-41.026
X-325.379 Y-40.756
G3 X-325.843 Y-40.884 I-0.185 J-0.236
G1 X-326.378 Y-42.264
G3 X-326.369 Y-42.502 I0.28 J-0.108
X-326.299 Y-42.595 I0.271 J0.129
G1 X-325.952 Y-42.886
X-325.833 Y-42.977
X-325.692 Y-43.029
X-325.544 Y-43.053
X-325.394 Y-43.052
X-325.245 Y-43.03
X-325.101 Y-42.989
X-324.964 Y-42.928
X-324.835 Y-42.852
X-324.717 Y-42.759
X-324.61 Y-42.654
X-324.602 Y-42.645
X-324.472 Y-42.433
X-324.401 Y-42.194
X-324.393 Y-41.945
X-324.449 Y-41.702
X-324.565 Y-41.481
X-324.733 Y-41.298
X-325.057 Y-41.026
G3 X-325.161 Y-40.974 I-0.185 J-0.236
X-325.523 Y-41.16 I-0.08 J-0.289
G1 X-326.033 Y-42.561
G3 X-326.022 Y-42.793 I0.282 J-0.103
X-325.952 Y-42.886 I0.271 J0.129
G1 X-325.64 Y-43.148
X-325.52 Y-43.239
X-325.381 Y-43.295
X-325.233 Y-43.322
X-325.083 Y-43.323
X-324.935 Y-43.303
X-324.79 Y-43.264
X-324.652 Y-43.204
X-324.522 Y-43.129
X-324.403 Y-43.039
X-324.295 Y-42.934
X-324.288 Y-42.925
X-324.154 Y-42.713
X-324.079 Y-42.473
X-324.069 Y-42.222
X-324.124 Y-41.976
X-324.241 Y-41.754
X-324.411 Y-41.568
X-324.733 Y-41.298
G3 X-325.199 Y-41.429 I-0.185 J-0.236
G1 X-325.72 Y-42.82
G3 X-325.71 Y-43.055 I0.281 J-0.105
X-325.64 Y-43.148 I0.271 J0.129
G1 X-325.323 Y-43.415
X-325.203 Y-43.505
X-325.064 Y-43.563
X-324.917 Y-43.591
X-324.767 Y-43.594
X-324.618 Y-43.574
X-324.473 Y-43.536
X-324.335 Y-43.477
X-324.205 Y-43.403
X-324.085 Y-43.313
X-323.977 Y-43.209
X-323.968 Y-43.199
X-323.833 Y-42.986
X-323.758 Y-42.746
X-323.747 Y-42.494
X-323.802 Y-42.248
X-323.918 Y-42.025
X-324.088 Y-41.839
X-324.411 Y-41.568
G3 X-324.876 Y-41.698 I-0.185 J-0.236
G1 X-325.402 Y-43.085
G3 X-325.393 Y-43.321 I0.28 J-0.106
X-325.323 Y-43.415 I0.271 J0.129
G1 X-324.995 Y-43.69
X-324.875 Y-43.78
X-324.736 Y-43.836
X-324.588 Y-43.862
X-324.438 Y-43.864
X-324.29 Y-43.844
X-324.145 Y-43.805
X-324.007 Y-43.745
X-323.877 Y-43.67
X-323.758 Y-43.579
X-323.65 Y-43.475
X-323.642 Y-43.466
X-323.509 Y-43.253
X-323.434 Y-43.013
X-323.425 Y-42.762
X-323.48 Y-42.517
X-323.596 Y-42.295
X-323.766 Y-42.11
X-324.088 Y-41.839
G3 X-324.554 Y-41.97 I-0.185 J-0.236
G1 X-325.075 Y-43.362
G3 X-325.065 Y-43.596 I0.281 J-0.105
X-324.995 Y-43.69 I0.271 J0.129
G1 X-324.688 Y-43.947
X-324.569 Y-44.038
X-324.432 Y-44.099
X-324.285 Y-44.129
X-324.135 Y-44.135
X-323.986 Y-44.117
X-323.84 Y-44.081
X-323.702 Y-44.024
X-323.571 Y-43.951
X-323.45 Y-43.862
X-323.34 Y-43.759
X-323.33 Y-43.747
X-323.192 Y-43.534
X-323.115 Y-43.293
X-323.102 Y-43.04
X-323.156 Y-42.792
X-323.273 Y-42.567
X-323.444 Y-42.379
X-323.766 Y-42.11
G3 X-323.87 Y-42.057 I-0.185 J-0.236
X-324.23 Y-42.237 I-0.08 J-0.289
G1 X-324.767 Y-43.615
G3 X-324.758 Y-43.853 I0.28 J-0.109
X-324.688 Y-43.947 I0.271 J0.129
G1 X-324.364 Y-44.219
X-324.244 Y-44.31
X-324.107 Y-44.37
X-323.96 Y-44.4
X-323.81 Y-44.404
X-323.661 Y-44.387
X-323.516 Y-44.35
X-323.377 Y-44.292
X-323.246 Y-44.219
X-323.126 Y-44.13
X-323.016 Y-44.027
X-323.006 Y-44.015
X-322.869 Y-43.802
X-322.792 Y-43.561
X-322.781 Y-43.308
X-322.835 Y-43.061
X-322.952 Y-42.836
X-323.122 Y-42.649
X-323.444 Y-42.379
G3 X-323.909 Y-42.508 I-0.185 J-0.236
G1 X-324.443 Y-43.888
G3 X-324.434 Y-44.125 I0.28 J-0.108
X-324.364 Y-44.219 I0.271 J0.129
G1 X-324.025 Y-44.504
X-323.905 Y-44.594
X-323.765 Y-44.649
X-323.618 Y-44.674
X-323.468 Y-44.675
X-323.319 Y-44.654
X-323.174 Y-44.614
X-323.037 Y-44.554
X-322.907 Y-44.478
X-322.788 Y-44.387
X-322.681 Y-44.282
X-322.673 Y-44.273
X-322.541 Y-44.06
X-322.468 Y-43.821
X-322.459 Y-43.571
X-322.514 Y-43.326
X-322.63 Y-43.105
X-322.8 Y-42.92
X-323.122 Y-42.649
G3 X-323.588 Y-42.782 I-0.185 J-0.236
G1 X-324.105 Y-44.176
G3 X-324.095 Y-44.41 I0.281 J-0.104
X-324.025 Y-44.504 I0.271 J0.129
G1 X-323.686 Y-44.788
X-323.567 Y-44.878
X-323.425 Y-44.928
X-323.276 Y-44.949
X-323.126 Y-44.946
X-322.978 Y-44.922
X-322.834 Y-44.88
X-322.698 Y-44.817
X-322.569 Y-44.74
X-322.452 Y-44.647
X-322.346 Y-44.541
X-322.34 Y-44.534
X-322.212 Y-44.322
X-322.142 Y-44.084
X-322.135 Y-43.836
X-322.192 Y-43.594
X-322.308 Y-43.375
X-322.476 Y-43.192
X-322.8 Y-42.92
G3 X-322.904 Y-42.868 I-0.185 J-0.236
X-323.267 Y-43.056 I-0.08 J-0.289
G1 X-323.768 Y-44.464
G3 X-323.686 Y-44.788 I0.283 J-0.101
G1 X-323.387 Y-45.039
X-323.267 Y-45.13
X-323.128 Y-45.187
X-322.981 Y-45.215
X-322.831 Y-45.218
X-322.682 Y-45.198
X-322.537 Y-45.159
X-322.399 Y-45.101
X-322.269 Y-45.026
X-322.149 Y-44.936
X-322.041 Y-44.832
X-322.033 Y-44.823
X-321.898 Y-44.61
X-321.823 Y-44.37
X-321.812 Y-44.118
X-321.867 Y-43.872
X-321.983 Y-43.648
X-322.153 Y-43.463
X-322.476 Y-43.192
G3 X-322.941 Y-43.322 I-0.185 J-0.236
G1 X-323.466 Y-44.71
G3 X-323.387 Y-45.039 I0.281 J-0.106
G1 X-323.066 Y-45.308
X-322.947 Y-45.398
X-322.808 Y-45.457
X-322.661 Y-45.485
X-322.511 Y-45.488
X-322.362 Y-45.469
X-322.217 Y-45.431
X-322.079 Y-45.372
X-321.949 Y-45.298
X-321.829 Y-45.208
X-321.72 Y-45.105
X-321.711 Y-45.094
X-321.576 Y-44.881
X-321.5 Y-44.641
X-321.49 Y-44.389
X-321.544 Y-44.142
X-321.661 Y-43.919
X-321.831 Y-43.733
X-322.153 Y-43.463
G3 X-322.618 Y-43.592 I-0.185 J-0.236
G1 X-323.146 Y-44.978
G3 X-323.136 Y-45.214 I0.28 J-0.107
X-323.066 Y-45.308 I0.271 J0.129
G1 X-322.753 Y-45.571
X-322.633 Y-45.661
X-322.496 Y-45.723
X-322.349 Y-45.753
X-322.199 Y-45.758
X-322.05 Y-45.741
X-321.905 Y-45.704
X-321.766 Y-45.647
X-321.635 Y-45.574
X-321.514 Y-45.485
X-321.405 Y-45.382
X-321.395 Y-45.37
X-321.257 Y-45.157
X-321.18 Y-44.916
X-321.168 Y-44.663
X-321.222 Y-44.415
X-321.338 Y-44.19
X-321.509 Y-44.003
X-321.831 Y-43.733
G3 X-322.295 Y-43.861 I-0.185 J-0.236
G1 X-322.832 Y-45.239
G3 X-322.753 Y-45.571 I0.28 J-0.109
G1 X-322.408 Y-45.861
X-322.288 Y-45.951
X-322.148 Y-46.004
X-322 Y-46.028
X-321.85
X-321.701 Y-46.007
X-321.557 Y-45.966
X-321.42 Y-45.905
X-321.29 Y-45.83
X-321.172 Y-45.737
X-321.064 Y-45.633
X-321.057 Y-45.623
X-320.926 Y-45.411
X-320.854 Y-45.172
X-320.845 Y-44.922
X-320.901 Y-44.679
X-321.017 Y-44.458
X-321.186 Y-44.274
X-321.509 Y-44.003
G3 X-321.614 Y-43.95 I-0.185 J-0.236
X-321.976 Y-44.136 I-0.08 J-0.289
G1 X-322.489 Y-45.534
G3 X-322.408 Y-45.861 I0.282 J-0.103
G1 X-322.095 Y-46.123
X-321.976 Y-46.213
X-321.837 Y-46.27
X-321.689 Y-46.297
X-321.539 Y-46.299
X-321.391 Y-46.28
X-321.246 Y-46.241
X-321.108 Y-46.182
X-320.978 Y-46.107
X-320.858 Y-46.017
X-320.75 Y-45.913
X-320.742 Y-45.903
X-320.608 Y-45.691
X-320.533 Y-45.45
X-320.522 Y-45.199
X-320.577 Y-44.953
X-320.694 Y-44.73
X-320.864 Y-44.545
X-321.186 Y-44.274
G3 X-321.652 Y-44.405 I-0.185 J-0.236
G1 X-322.175 Y-45.794
G3 X-322.095 Y-46.123 I0.281 J-0.106
G1 X-321.777 Y-46.39
X-321.658 Y-46.48
X-321.519 Y-46.538
X-321.372 Y-46.567
X-321.222 Y-46.57
X-321.073 Y-46.551
X-320.928 Y-46.513
X-320.79 Y-46.454
X-320.66 Y-46.38
X-320.54 Y-46.29
X-320.431 Y-46.187
X-320.422 Y-46.176
X-320.287 Y-45.963
X-320.211 Y-45.723
X-320.2 Y-45.471
X-320.255 Y-45.225
X-320.371 Y-45.001
X-320.542 Y-44.815
X-320.864 Y-44.545
G3 X-321.329 Y-44.674 I-0.185 J-0.236
G1 X-321.857 Y-46.06
G3 X-321.847 Y-46.296 I0.28 J-0.107
X-321.777 Y-46.39 I0.271 J0.129
G1 X-321.45 Y-46.664
X-321.331 Y-46.754
X-321.192 Y-46.811
X-321.044 Y-46.838
X-320.894 Y-46.84
X-320.745 Y-46.82
X-320.601 Y-46.781
X-320.463 Y-46.722
X-320.333 Y-46.648
X-320.213 Y-46.557
X-320.105 Y-46.453
X-320.097 Y-46.443
X-319.963 Y-46.23
X-319.888 Y-45.99
X-319.878 Y-45.739
X-319.933 Y-45.494
X-320.049 Y-45.271
X-320.219 Y-45.085
X-320.542 Y-44.815
G3 X-320.646 Y-44.762 I-0.185 J-0.236
X-321.007 Y-44.946 I-0.08 J-0.289
G1 X-321.53 Y-46.335
G3 X-321.52 Y-46.57 I0.281 J-0.106
X-321.45 Y-46.664 I0.271 J0.129
G1 X-321.142 Y-46.922
X-321.023 Y-47.013
X-320.886 Y-47.074
X-320.739 Y-47.105
X-320.589 Y-47.11
X-320.44 Y-47.093
X-320.295 Y-47.057
X-320.156 Y-47
X-320.025 Y-46.927
X-319.904 Y-46.839
X-319.794 Y-46.736
X-319.784 Y-46.724
X-319.646 Y-46.511
X-319.568 Y-46.269
X-319.556 Y-46.016
X-319.61 Y-45.768
X-319.726 Y-45.543
X-319.898 Y-45.355
X-320.219 Y-45.085
G3 X-320.683 Y-45.213 I-0.185 J-0.236
G1 X-321.221 Y-46.59
G3 X-321.142 Y-46.922 I0.279 J-0.109
G1 X-320.819 Y-47.193
X-320.7 Y-47.284
X-320.563 Y-47.345
X-320.416 Y-47.375
X-320.266 Y-47.38
X-320.117 Y-47.363
X-319.971 Y-47.326
X-319.833 Y-47.269
X-319.702 Y-47.196
X-319.581 Y-47.107
X-319.472 Y-47.004
X-319.461 Y-46.992
X-319.324 Y-46.779
X-319.246 Y-46.538
X-319.234 Y-46.285
X-319.288 Y-46.037
X-319.405 Y-45.812
X-319.576 Y-45.625
X-319.898 Y-45.355
G3 X-320.002 Y-45.303 I-0.185 J-0.236
X-320.362 Y-45.483 I-0.08 J-0.289
G1 X-320.898 Y-46.862
G3 X-320.819 Y-47.193 I0.28 J-0.109
G1 X-320.478 Y-47.479
X-320.359 Y-47.57
X-320.219 Y-47.624
X-320.071 Y-47.65
X-319.921
X-319.773 Y-47.63
X-319.628 Y-47.59
X-319.491 Y-47.529
X-319.361 Y-47.454
X-319.242 Y-47.363
X-319.134 Y-47.258
X-319.126 Y-47.249
X-318.994 Y-47.036
X-318.921 Y-46.797
X-318.912 Y-46.546
X-318.968 Y-46.302
X-319.084 Y-46.081
X-319.253 Y-45.896
X-319.576 Y-45.625
G3 X-320.042 Y-45.757 I-0.185 J-0.236
G1 X-320.559 Y-47.152
G3 X-320.548 Y-47.386 I0.281 J-0.104
X-320.478 Y-47.479 I0.271 J0.129
G1 X-320.14 Y-47.763
X-320.021 Y-47.854
X-319.879 Y-47.903
X-319.731 Y-47.924
X-319.581 Y-47.922
X-319.433 Y-47.898
X-319.289 Y-47.856
X-319.152 Y-47.793
X-319.024 Y-47.716
X-318.906 Y-47.623
X-318.8 Y-47.517
X-318.794 Y-47.51
X-318.666 Y-47.298
X-318.596 Y-47.06
X-318.589 Y-46.812
X-318.645 Y-46.57
X-318.761 Y-46.351
X-318.929 Y-46.168
X-319.253 Y-45.896
G3 X-319.358 Y-45.843 I-0.185 J-0.236
X-319.72 Y-46.032 I-0.08 J-0.289
G1 X-320.222 Y-47.439
G3 X-320.14 Y-47.763 I0.283 J-0.101
G1 X-319.839 Y-48.016
X-319.72 Y-48.106
X-319.581 Y-48.163
X-319.434 Y-48.191
X-319.284 Y-48.193
X-319.135 Y-48.174
X-318.99 Y-48.135
X-318.852 Y-48.076
X-318.722 Y-48.002
X-318.602 Y-47.911
X-318.494 Y-47.807
X-318.486 Y-47.798
X-318.351 Y-47.585
X-318.276 Y-47.345
X-318.265 Y-47.093
X-318.32 Y-46.847
X-318.437 Y-46.624
X-318.607 Y-46.438
X-318.929 Y-46.168
G3 X-319.034 Y-46.115 I-0.185 J-0.236
X-319.395 Y-46.298 I-0.08 J-0.289
G1 X-319.919 Y-47.687
G3 X-319.909 Y-47.922 I0.281 J-0.106
X-319.839 Y-48.016 I0.271 J0.129
G1 X-319.52 Y-48.283
X-319.401 Y-48.374
X-319.262 Y-48.432
X-319.115 Y-48.46
X-318.965 Y-48.463
X-318.816 Y-48.445
X-318.671 Y-48.407
X-318.533 Y-48.348
X-318.403 Y-48.274
X-318.283 Y-48.184
X-318.174 Y-48.081
X-318.165 Y-48.07
X-318.03 Y-47.857
X-317.954 Y-47.617
X-317.943 Y-47.365
X-317.998 Y-47.118
X-318.114 Y-46.895
X-318.285 Y-46.709
X-318.607 Y-46.438
G3 X-319.072 Y-46.568 I-0.185 J-0.236
G1 X-319.6 Y-47.954
G3 X-319.59 Y-48.19 I0.28 J-0.107
X-319.52 Y-48.283 I0.271 J0.129
G1 X-319.207 Y-48.546
X-319.087 Y-48.637
X-318.95 Y-48.698
X-318.803 Y-48.729
X-318.654 Y-48.734
X-318.505 Y-48.716
X-318.359 Y-48.68
X-318.22 Y-48.623
X-318.089 Y-48.55
X-317.968 Y-48.461
X-317.859 Y-48.358
X-317.849 Y-48.346
X-317.711 Y-48.133
X-317.633 Y-47.892
X-317.621 Y-47.639
X-317.675 Y-47.391
X-317.792 Y-47.166
X-317.963 Y-46.979
X-318.285 Y-46.709
G3 X-318.749 Y-46.836 I-0.185 J-0.236
G1 X-319.286 Y-48.215
G3 X-319.277 Y-48.453 I0.28 J-0.109
X-319.207 Y-48.546 I0.271 J0.129
G1 X-318.863 Y-48.835
X-318.743 Y-48.925
X-318.603 Y-48.979
X-318.455 Y-49.004
X-318.305
X-318.157 Y-48.983
X-318.013 Y-48.942
X-317.875 Y-48.882
X-317.746 Y-48.806
X-317.627 Y-48.714
X-317.52 Y-48.61
X-317.512 Y-48.6
X-317.38 Y-48.388
X-317.308 Y-48.149
X-317.299 Y-47.899
X-317.355 Y-47.655
X-317.471 Y-47.434
X-317.64 Y-47.25
X-317.963 Y-46.979
G3 X-318.429 Y-47.111 I-0.185 J-0.236
G1 X-318.944 Y-48.508
G3 X-318.933 Y-48.741 I0.281 J-0.104
X-318.863 Y-48.835 I0.271 J0.129
G1 X-318.551 Y-49.097
X-318.431 Y-49.187
X-318.293 Y-49.245
X-318.145 Y-49.272
X-317.995 Y-49.275
X-317.847 Y-49.255
X-317.702 Y-49.217
X-317.564 Y-49.158
X-317.433 Y-49.084
X-317.313 Y-48.994
X-317.205 Y-48.89
X-317.197 Y-48.88
X-317.062 Y-48.667
X-316.987 Y-48.427
X-316.976 Y-48.175
X-317.031 Y-47.929
X-317.148 Y-47.706
X-317.318 Y-47.52
X-317.64 Y-47.25
G3 X-318.105 Y-47.38 I-0.185 J-0.236
G1 X-318.631 Y-48.768
G3 X-318.551 Y-49.097 I0.281 J-0.106
G1 X-318.232 Y-49.364
X-318.112 Y-49.455
X-317.974 Y-49.514
X-317.827 Y-49.542
X-317.677 Y-49.545
X-317.528 Y-49.526
X-317.383 Y-49.488
X-317.245 Y-49.43
X-317.114 Y-49.356
X-316.994 Y-49.266
X-316.885 Y-49.163
X-316.876 Y-49.152
X-316.741 Y-48.939
X-316.665 Y-48.699
X-316.654 Y-48.447
X-316.709 Y-48.2
X-316.825 Y-47.976
X-316.996 Y-47.79
X-317.318 Y-47.52
G3 X-317.422 Y-47.467 I-0.185 J-0.236
X-317.783 Y-47.65 I-0.08 J-0.289
G1 X-318.311 Y-49.035
G3 X-318.302 Y-49.271 I0.28 J-0.107
X-318.232 Y-49.364 I0.271 J0.129
G1 X-317.905 Y-49.639
X-317.785 Y-49.73
X-317.646 Y-49.786
X-317.499 Y-49.813
X-317.349 Y-49.815
X-317.2 Y-49.796
X-317.055 Y-49.757
X-316.917 Y-49.698
X-316.787 Y-49.623
X-316.667 Y-49.533
X-316.559 Y-49.429
X-316.551 Y-49.419
X-316.417 Y-49.206
X-316.342 Y-48.966
X-316.332 Y-48.715
X-316.387 Y-48.469
X-316.503 Y-48.246
X-316.673 Y-48.061
X-316.996 Y-47.79
G3 X-317.1 Y-47.738 I-0.185 J-0.236
X-317.461 Y-47.921 I-0.08 J-0.289
G1 X-317.985 Y-49.31
G3 X-317.975 Y-49.545 I0.281 J-0.106
X-317.905 Y-49.639 I0.271 J0.129
G1 X-317.597 Y-49.897
X-317.477 Y-49.988
X-317.34 Y-50.05
X-317.193 Y-50.08
X-317.044 Y-50.086
X-316.895 Y-50.069
X-316.749 Y-50.032
X-316.61 Y-49.976
X-316.479 Y-49.903
X-316.358 Y-49.814
X-316.249 Y-49.712
X-316.238 Y-49.699
X-316.1 Y-49.487
X-316.022 Y-49.245
X-316.01 Y-48.992
X-316.064 Y-48.743
X-316.18 Y-48.518
X-316.352 Y-48.331
X-316.673 Y-48.061
G3 X-317.137 Y-48.188 I-0.185 J-0.236
G1 X-317.675 Y-49.565
G3 X-317.667 Y-49.804 I0.279 J-0.109
X-317.597 Y-49.897 I0.271 J0.129
G1 X-317.252 Y-50.187
X-317.132 Y-50.277
X-316.992 Y-50.331
X-316.844 Y-50.356
X-316.694
X-316.546 Y-50.335
X-316.401 Y-50.295
X-316.264 Y-50.234
X-316.134 Y-50.159
X-316.016 Y-50.067
X-315.908 Y-49.962
X-315.9 Y-49.953
X-315.769 Y-49.74
X-315.696 Y-49.501
X-315.688 Y-49.251
X-315.743 Y-49.007
X-315.86 Y-48.786
X-316.029 Y-48.602
X-316.352 Y-48.331
G3 X-316.456 Y-48.278 I-0.185 J-0.236
X-316.818 Y-48.463 I-0.08 J-0.289
G1 X-317.333 Y-49.86
G3 X-317.322 Y-50.093 I0.281 J-0.104
X-317.252 Y-50.187 I0.271 J0.129
G1 X-316.932 Y-50.455
X-316.812 Y-50.546
X-316.673 Y-50.601
X-316.525 Y-50.626
X-316.375 Y-50.627
X-316.226 Y-50.606
X-316.082 Y-50.566
X-315.944 Y-50.507
X-315.814 Y-50.431
X-315.695 Y-50.34
X-315.588 Y-50.236
X-315.581 Y-50.227
X-315.448 Y-50.014
X-315.374 Y-49.775
X-315.365 Y-49.524
X-315.42 Y-49.28
X-315.536 Y-49.057
X-315.706 Y-48.873
X-316.029 Y-48.602
G3 X-316.133 Y-48.549 I-0.185 J-0.236
X-316.495 Y-48.734 I-0.08 J-0.289
G1 X-317.012 Y-50.128
G3 X-317.002 Y-50.361 I0.281 J-0.104
X-316.932 Y-50.455 I0.271 J0.129
G1 X-316.595 Y-50.738
X-316.475 Y-50.829
X-316.334 Y-50.879
X-316.185 Y-50.901
X-316.035 Y-50.898
X-315.887 Y-50.875
X-315.743 Y-50.833
X-315.607 Y-50.771
X-315.478 Y-50.694
X-315.36 Y-50.601
X-315.254 Y-50.495
X-315.248 Y-50.488
X-315.119 Y-50.275
X-315.049 Y-50.037
X-315.042 Y-49.789
X-315.098 Y-49.547
X-315.214 Y-49.327
X-315.382 Y-49.144
X-315.706 Y-48.873
G3 X-315.81 Y-48.82 I-0.185 J-0.236
X-316.173 Y-49.008 I-0.08 J-0.289
G1 X-316.676 Y-50.414
G3 X-316.595 Y-50.738 I0.282 J-0.101
G1 X-316.292 Y-50.992
X-316.172 Y-51.083
X-316.034 Y-51.14
X-315.886 Y-51.167
X-315.736 Y-51.17
X-315.588 Y-51.15
X-315.443 Y-51.111
X-315.305 Y-51.053
X-315.174 Y-50.978
X-315.055 Y-50.888
X-314.947 Y-50.784
X-314.939 Y-50.774
X-314.804 Y-50.562
X-314.729 Y-50.321
X-314.718 Y-50.07
X-314.773 Y-49.824
X-314.89 Y-49.601
X-315.06 Y-49.415
X-315.382 Y-49.144
G3 X-315.848 Y-49.275 I-0.185 J-0.236
G1 X-316.372 Y-50.663
G3 X-316.362 Y-50.898 I0.281 J-0.106
X-316.292 Y-50.992 I0.271 J0.129
G1 X-315.974 Y-51.259
X-315.855 Y-51.349
X-315.717 Y-51.408
X-315.569 Y-51.437
X-315.419 Y-51.44
X-315.271 Y-51.421
X-315.125 Y-51.383
X-314.987 Y-51.325
X-314.857 Y-51.251
X-314.736 Y-51.161
X-314.628 Y-51.058
X-314.619 Y-51.047
X-314.483 Y-50.834
X-314.407 Y-50.594
X-314.396 Y-50.342
X-314.451 Y-50.095
X-314.567 Y-49.871
X-314.738 Y-49.685
X-315.06 Y-49.415
G3 X-315.525 Y-49.544 I-0.185 J-0.236
G1 X-316.054 Y-50.929
G3 X-316.044 Y-51.165 I0.28 J-0.107
X-315.974 Y-51.259 I0.271 J0.129
G1 X-315.636 Y-51.542
X-315.517 Y-51.633
X-315.376 Y-51.686
X-315.228 Y-51.71
X-315.078
X-314.93 Y-51.689
X-314.786 Y-51.648
X-314.648 Y-51.588
X-314.519 Y-51.512
X-314.4 Y-51.42
X-314.293 Y-51.315
X-314.286 Y-51.306
X-314.155 Y-51.094
X-314.082 Y-50.855
X-314.074 Y-50.605
X-314.129 Y-50.361
X-314.246 Y-50.14
X-314.415 Y-49.956
X-314.738 Y-49.685
G3 X-314.842 Y-49.632 I-0.185 J-0.236
X-315.204 Y-49.818 I-0.08 J-0.289
G1 X-315.717 Y-51.216
G3 X-315.706 Y-51.449 I0.282 J-0.103
X-315.636 Y-51.542 I0.271 J0.129
G1 X-315.319 Y-51.809
X-315.199 Y-51.899
X-315.06 Y-51.955
X-314.912 Y-51.98
X-314.762 Y-51.981
X-314.613 Y-51.961
X-314.469 Y-51.921
X-314.331 Y-51.861
X-314.201 Y-51.786
X-314.082 Y-51.695
X-313.974 Y-51.591
X-313.967 Y-51.582
X-313.834 Y-51.369
X-313.76 Y-51.13
X-313.751 Y-50.879
X-313.806 Y-50.634
X-313.922 Y-50.412
X-314.092 Y-50.227
X-314.415 Y-49.956
G3 X-314.519 Y-49.904 I-0.185 J-0.236
X-314.88 Y-50.088 I-0.08 J-0.289
G1 X-315.399 Y-51.481
G3 X-315.389 Y-51.715 I0.281 J-0.105
X-315.319 Y-51.809 I0.271 J0.129
G1 X-315.006 Y-52.071
X-314.887 Y-52.161
X-314.749 Y-52.22
X-314.601 Y-52.249
X-314.451 Y-52.252
X-314.303 Y-52.233
X-314.158 Y-52.195
X-314.019 Y-52.137
X-313.889 Y-52.063
X-313.769 Y-51.974
X-313.66 Y-51.87
X-313.651 Y-51.86
X-313.515 Y-51.647
X-313.439 Y-51.406
X-313.428 Y-51.154
X-313.483 Y-50.907
X-313.599 Y-50.683
X-313.77 Y-50.497
X-314.092 Y-50.227
G3 X-314.196 Y-50.174 I-0.185 J-0.236
X-314.557 Y-50.356 I-0.08 J-0.289
G1 X-315.086 Y-51.741
G3 X-315.076 Y-51.977 I0.28 J-0.107
X-315.006 Y-52.071 I0.271 J0.129
G1 X-314.686 Y-52.339
X-314.567 Y-52.43
X-314.429 Y-52.489
X-314.282 Y-52.518
X-314.132 Y-52.522
X-313.983 Y-52.504
X-313.838 Y-52.466
X-313.7 Y-52.408
X-313.569 Y-52.335
X-313.449 Y-52.245
X-313.34 Y-52.142
X-313.33 Y-52.131
X-313.194 Y-51.918
X-313.117 Y-51.677
X-313.106 Y-51.425
X-313.161 Y-51.178
X-313.277 Y-50.954
X-313.448 Y-50.767
X-313.77 Y-50.497
G3 X-313.874 Y-50.445 I-0.185 J-0.236
X-314.234 Y-50.626 I-0.08 J-0.289
G1 X-314.766 Y-52.009
G3 X-314.757 Y-52.246 I0.28 J-0.108
X-314.686 Y-52.339 I0.271 J0.129
G1 X-314.359 Y-52.614
X-314.239 Y-52.705
X-314.101 Y-52.762
X-313.953 Y-52.79
X-313.803 Y-52.792
X-313.654 Y-52.773
X-313.509 Y-52.735
X-313.372 Y-52.676
X-313.241 Y-52.602
X-313.121 Y-52.511
X-313.013 Y-52.408
X-313.004 Y-52.397
X-312.87 Y-52.184
X-312.795 Y-51.944
X-312.784 Y-51.692
X-312.839 Y-51.447
X-312.955 Y-51.223
X-313.126 Y-51.038
X-313.448 Y-50.767
G3 X-313.552 Y-50.715 I-0.185 J-0.236
X-313.913 Y-50.898 I-0.08 J-0.289
G1 X-314.439 Y-52.285
G3 X-314.429 Y-52.52 I0.281 J-0.106
X-314.359 Y-52.614 I0.271 J0.129
G1 X-314.014 Y-52.904
X-313.894 Y-52.994
X-313.753 Y-53.044
X-313.604 Y-53.066
X-313.454 Y-53.064
X-313.306 Y-53.04
X-313.162 Y-52.998
X-313.026 Y-52.936
X-312.897 Y-52.859
X-312.78 Y-52.765
X-312.673 Y-52.66
X-312.667 Y-52.652
X-312.539 Y-52.44
X-312.468 Y-52.202
X-312.461 Y-51.953
X-312.518 Y-51.712
X-312.634 Y-51.492
X-312.802 Y-51.31
X-313.126 Y-51.038
G3 X-313.593 Y-51.173 I-0.185 J-0.236
G1 X-314.096 Y-52.58
G3 X-314.014 Y-52.904 I0.283 J-0.101
G1 X-313.707 Y-53.161
X-313.587 Y-53.252
X-313.448 Y-53.308
X-313.3 Y-53.334
X-313.15 Y-53.335
X-313.002 Y-53.315
X-312.857 Y-53.275
X-312.719 Y-53.216
X-312.589 Y-53.14
X-312.47 Y-53.05
X-312.362 Y-52.945
X-312.355 Y-52.936
X-312.222 Y-52.724
X-312.148 Y-52.484
X-312.138 Y-52.233
X-312.193 Y-51.988
X-312.309 Y-51.765
X-312.479 Y-51.58
X-312.802 Y-51.31
G3 X-313.268 Y-51.441 I-0.185 J-0.236
G1 X-313.787 Y-52.833
G3 X-313.777 Y-53.068 I0.281 J-0.105
X-313.707 Y-53.161 I0.271 J0.129
G1 X-313.385 Y-53.431
X-313.266 Y-53.522
X-313.127 Y-53.578
X-312.979 Y-53.604
X-312.829 Y-53.605
X-312.68 Y-53.585
X-312.536 Y-53.546
X-312.398 Y-53.487
X-312.268 Y-53.412
X-312.149 Y-53.321
X-312.041 Y-53.217
X-312.033 Y-53.207
X-311.899 Y-52.995
X-311.825 Y-52.755
X-311.815 Y-52.504
X-311.87 Y-52.259
X-311.987 Y-52.036
X-312.156 Y-51.851
X-312.479 Y-51.58
G3 X-312.584 Y-51.528 I-0.185 J-0.236
X-312.945 Y-51.712 I-0.08 J-0.289
G1 X-313.466 Y-53.103
G3 X-313.455 Y-53.337 I0.281 J-0.105
X-313.385 Y-53.431 I0.271 J0.129
G1 X-313.049 Y-53.713
X-312.929 Y-53.804
X-312.788 Y-53.855
X-312.64 Y-53.878
X-312.49 Y-53.876
X-312.342 Y-53.854
X-312.198 Y-53.812
X-312.061 Y-53.751
X-311.932 Y-53.674
X-311.814 Y-53.581
X-311.707 Y-53.476
X-311.701 Y-53.468
X-311.571 Y-53.256
X-311.5 Y-53.017
X-311.492 Y-52.769
X-311.548 Y-52.526
X-311.665 Y-52.306
X-311.833 Y-52.122
X-312.156 Y-51.851
G3 X-312.261 Y-51.798 I-0.185 J-0.236
X-312.623 Y-51.985 I-0.08 J-0.289
G1 X-313.13 Y-53.388
G3 X-313.119 Y-53.62 I0.282 J-0.102
X-313.049 Y-53.713 I0.271 J0.129
G1 X-312.745 Y-53.969
X-312.625 Y-54.059
X-312.487 Y-54.117
X-312.339 Y-54.145
X-312.189 Y-54.148
X-312.041 Y-54.128
X-311.896 Y-54.09
X-311.757 Y-54.032
X-311.627 Y-53.957
X-311.507 Y-53.867
X-311.399 Y-53.763
X-311.391 Y-53.754
X-311.255 Y-53.541
X-311.18 Y-53.3
X-311.169 Y-53.048
X-311.224 Y-52.802
X-311.34 Y-52.579
X-311.511 Y-52.393
X-311.833 Y-52.122
G3 X-311.938 Y-52.07 I-0.185 J-0.236
X-312.298 Y-52.252 I-0.08 J-0.289
G1 X-312.824 Y-53.639
G3 X-312.815 Y-53.875 I0.28 J-0.106
X-312.745 Y-53.969 I0.271 J0.129
G1 X-312.428 Y-54.234
X-312.309 Y-54.325
X-312.171 Y-54.384
X-312.024 Y-54.414
X-311.874 Y-54.418
X-311.725 Y-54.4
X-311.58 Y-54.362
X-311.441 Y-54.305
X-311.311 Y-54.231
X-311.19 Y-54.142
X-311.081 Y-54.039
X-311.072 Y-54.027
X-310.935 Y-53.814
X-310.859 Y-53.573
X-310.847 Y-53.321
X-310.901 Y-53.074
X-311.018 Y-52.849
X-311.189 Y-52.663
X-311.511 Y-52.393
G3 X-311.615 Y-52.34 I-0.185 J-0.236
X-311.975 Y-52.521 I-0.08 J-0.289
G1 X-312.507 Y-53.903
G3 X-312.498 Y-54.14 I0.28 J-0.108
X-312.428 Y-54.234 I0.271 J0.129
G1 X-312.09 Y-54.518
X-311.97 Y-54.609
X-311.83 Y-54.663
X-311.682 Y-54.688
X-311.532
X-311.384 Y-54.667
X-311.239 Y-54.627
X-311.102 Y-54.566
X-310.972 Y-54.491
X-310.853 Y-54.399
X-310.746 Y-54.295
X-310.738 Y-54.286
X-310.607 Y-54.073
X-310.534 Y-53.834
X-310.525 Y-53.584
X-310.58 Y-53.34
X-310.697 Y-53.118
X-310.866 Y-52.934
X-311.189 Y-52.663
G3 X-311.655 Y-52.796 I-0.185 J-0.236
G1 X-312.17 Y-54.191
G3 X-312.16 Y-54.425 I0.281 J-0.104
X-312.09 Y-54.518 I0.271 J0.129
G1 X-311.774 Y-54.783
X-311.654 Y-54.874
X-311.516 Y-54.93
X-311.368 Y-54.957
X-311.218 Y-54.959
X-311.069 Y-54.939
X-310.924 Y-54.9
X-310.787 Y-54.841
X-310.657 Y-54.766
X-310.537 Y-54.676
X-310.429 Y-54.572
X-310.421 Y-54.562
X-310.287 Y-54.35
X-310.212 Y-54.11
X-310.202 Y-53.858
X-310.257 Y-53.613
X-310.373 Y-53.39
X-310.543 Y-53.205
X-310.866 Y-52.934
G3 X-310.97 Y-52.881 I-0.185 J-0.236
X-311.331 Y-53.065 I-0.08 J-0.289
G1 X-311.854 Y-54.454
G3 X-311.844 Y-54.689 I0.281 J-0.106
X-311.774 Y-54.783 I0.271 J0.129
G1 X-311.462 Y-55.045
X-311.342 Y-55.136
X-311.205 Y-55.196
X-311.058 Y-55.225
X-310.908 Y-55.229
X-310.759 Y-55.212
X-310.614 Y-55.174
X-310.475 Y-55.117
X-310.344 Y-55.043
X-310.224 Y-54.954
X-310.115 Y-54.851
X-310.105 Y-54.84
X-309.968 Y-54.627
X-309.891 Y-54.386
X-309.88 Y-54.133
X-309.934 Y-53.886
X-310.051 Y-53.661
X-310.222 Y-53.475
X-310.543 Y-53.205
G3 X-311.008 Y-53.333 I-0.185 J-0.236
G1 X-311.541 Y-54.714
G3 X-311.462 Y-55.045 I0.28 J-0.108
G1 X-311.141 Y-55.314
X-311.022 Y-55.405
X-310.884 Y-55.465
X-310.737 Y-55.495
X-310.587 Y-55.499
X-310.438 Y-55.482
X-310.293 Y-55.445
X-310.154 Y-55.387
X-310.023 Y-55.314
X-309.903 Y-55.225
X-309.794 Y-55.122
X-309.784 Y-55.11
X-309.647 Y-54.897
X-309.57 Y-54.656
X-309.558 Y-54.403
X-309.612 Y-54.156
X-309.729 Y-53.931
X-309.9 Y-53.745
X-310.222 Y-53.475
G3 X-310.686 Y-53.603 I-0.185 J-0.236
G1 X-311.22 Y-54.983
G3 X-311.211 Y-55.22 I0.28 J-0.108
X-311.141 Y-55.314 I0.271 J0.129
G1 X-310.813 Y-55.589
X-310.693 Y-55.68
X-310.555 Y-55.738
X-310.408 Y-55.766
X-310.258 Y-55.769
X-310.109 Y-55.751
X-309.964 Y-55.712
X-309.826 Y-55.654
X-309.695 Y-55.58
X-309.575 Y-55.49
X-309.467 Y-55.386
X-309.458 Y-55.376
X-309.323 Y-55.163
X-309.247 Y-54.922
X-309.236 Y-54.67
X-309.291 Y-54.424
X-309.407 Y-54.201
X-309.578 Y-54.015
X-309.9 Y-53.745
G3 X-310.004 Y-53.692 I-0.185 J-0.236
X-310.365 Y-53.874 I-0.08 J-0.289
G1 X-310.893 Y-55.26
G3 X-310.813 Y-55.589 I0.28 J-0.107
G1 X-310.469 Y-55.878
X-310.35 Y-55.968
X-310.209 Y-56.019
X-310.06 Y-56.042
X-309.91 Y-56.04
X-309.762 Y-56.018
X-309.618 Y-55.976
X-309.481 Y-55.914
X-309.352 Y-55.838
X-309.234 Y-55.745
X-309.128 Y-55.639
X-309.121 Y-55.631
X-308.992 Y-55.419
X-308.921 Y-55.18
X-308.914 Y-54.932
X-308.97 Y-54.689
X-309.086 Y-54.469
X-309.254 Y-54.286
X-309.578 Y-54.015
G3 X-310.045 Y-54.149 I-0.185 J-0.236
G1 X-310.551 Y-55.553
G3 X-310.469 Y-55.878 I0.282 J-0.102
G1 X-310.162 Y-56.136
X-310.043 Y-56.226
X-309.904 Y-56.283
X-309.756 Y-56.31
X-309.606 Y-56.312
X-309.457 Y-56.292
X-309.313 Y-56.253
X-309.175 Y-56.194
X-309.045 Y-56.119
X-308.925 Y-56.028
X-308.817 Y-55.924
X-308.809 Y-55.915
X-308.675 Y-55.702
X-308.601 Y-55.462
X-308.59 Y-55.211
X-308.645 Y-54.965
X-308.762 Y-54.742
X-308.932 Y-54.557
X-309.254 Y-54.286
G3 X-309.359 Y-54.234 I-0.185 J-0.236
X-309.72 Y-54.417 I-0.08 J-0.289
G1 X-310.242 Y-55.807
G3 X-310.232 Y-56.042 I0.281 J-0.106
X-310.162 Y-56.136 I0.271 J0.129
G1 X-309.839 Y-56.407
X-309.719 Y-56.497
X-309.58 Y-56.554
X-309.433 Y-56.58
X-309.283 Y-56.582
X-309.134 Y-56.562
X-308.989 Y-56.523
X-308.852 Y-56.464
X-308.721 Y-56.389
X-308.602 Y-56.298
X-308.494 Y-56.194
X-308.486 Y-56.185
X-308.352 Y-55.972
X-308.278 Y-55.732
X-308.268 Y-55.481
X-308.323 Y-55.235
X-308.439 Y-55.013
X-308.609 Y-54.828
X-308.932 Y-54.557
G3 X-309.397 Y-54.688 I-0.185 J-0.236
G1 X-309.919 Y-56.078
G3 X-309.839 Y-56.407 I0.281 J-0.105
G1 X-309.503 Y-56.689
X-309.384 Y-56.779
X-309.243 Y-56.831
X-309.095 Y-56.854
X-308.945 Y-56.853
X-308.796 Y-56.83
X-308.652 Y-56.789
X-308.515 Y-56.728
X-308.386 Y-56.652
X-308.268 Y-56.559
X-308.161 Y-56.454
X-308.155 Y-56.446
X-308.025 Y-56.233
X-307.953 Y-55.995
X-307.945 Y-55.746
X-308.001 Y-55.503
X-308.117 Y-55.282
X-308.286 Y-55.099
X-308.609 Y-54.828
G3 X-308.714 Y-54.775 I-0.185 J-0.236
X-309.076 Y-54.962 I-0.08 J-0.289
G1 X-309.584 Y-56.363
G3 X-309.573 Y-56.595 I0.282 J-0.102
X-309.503 Y-56.689 I0.271 J0.129
G1 X-309.197 Y-56.945
X-309.078 Y-57.036
X-308.939 Y-57.093
X-308.792 Y-57.121
X-308.642 Y-57.124
X-308.493 Y-57.105
X-308.348 Y-57.066
X-308.21 Y-57.008
X-308.08 Y-56.933
X-307.96 Y-56.844
X-307.852 Y-56.74
X-307.843 Y-56.73
X-307.708 Y-56.517
X-307.633 Y-56.277
X-307.622 Y-56.025
X-307.677 Y-55.779
X-307.793 Y-55.555
X-307.964 Y-55.369
X-308.286 Y-55.099
G3 X-308.39 Y-55.046 I-0.185 J-0.236
X-308.751 Y-55.229 I-0.08 J-0.289
G1 X-309.277 Y-56.616
G3 X-309.267 Y-56.851 I0.28 J-0.106
X-309.197 Y-56.945 I0.271 J0.129
G1 X-308.882 Y-57.21
X-308.763 Y-57.3
X-308.625 Y-57.36
X-308.478 Y-57.39
X-308.328 Y-57.394
X-308.179 Y-57.376
X-308.034 Y-57.339
X-307.895 Y-57.281
X-307.765 Y-57.208
X-307.644 Y-57.119
X-307.535 Y-57.016
X-307.525 Y-57.004
X-307.388 Y-56.792
X-307.312 Y-56.551
X-307.3 Y-56.298
X-307.354 Y-56.051
X-307.471 Y-55.826
X-307.642 Y-55.639
X-307.964 Y-55.369
G3 X-308.068 Y-55.317 I-0.185 J-0.236
X-308.428 Y-55.498 I-0.08 J-0.289
G1 X-308.961 Y-56.879
G3 X-308.882 Y-57.21 I0.28 J-0.108
G1 X-308.543 Y-57.494
X-308.423 Y-57.585
X-308.283 Y-57.639
X-308.135 Y-57.664
X-307.985 Y-57.665
X-307.837 Y-57.643
X-307.692 Y-57.603
X-307.555 Y-57.543
X-307.425 Y-57.468
X-307.307 Y-57.376
X-307.199 Y-57.271
X-307.191 Y-57.262
X-307.06 Y-57.05
X-306.987 Y-56.81
X-306.978 Y-56.56
X-307.033 Y-56.316
X-307.15 Y-56.095
X-307.319 Y-55.91
X-307.642 Y-55.639
G3 X-308.108 Y-55.772 I-0.185 J-0.236
G1 X-308.624 Y-57.167
G3 X-308.613 Y-57.401 I0.281 J-0.104
X-308.543 Y-57.494 I0.271 J0.129
G1 X-308.23 Y-57.757
X-308.11 Y-57.848
X-307.971 Y-57.905
X-307.824 Y-57.933
X-307.674 Y-57.935
X-307.525 Y-57.916
X-307.38 Y-57.877
X-307.242 Y-57.819
X-307.112 Y-57.744
X-306.992 Y-57.654
X-306.884 Y-57.55
X-306.876 Y-57.541
X-306.741 Y-57.328
X-306.666 Y-57.087
X-306.655 Y-56.836
X-306.71 Y-56.59
X-306.826 Y-56.366
X-306.997 Y-56.181
X-307.319 Y-55.91
G3 X-307.784 Y-56.04 I-0.185 J-0.236
G1 X-308.309 Y-57.428
G3 X-308.3 Y-57.663 I0.281 J-0.106
X-308.23 Y-57.757 I0.271 J0.129
G1 X-307.917 Y-58.019
X-307.798 Y-58.11
X-307.661 Y-58.171
X-307.514 Y-58.201
X-307.364 Y-58.206
X-307.215 Y-58.188
X-307.069 Y-58.151
X-306.931 Y-58.094
X-306.8 Y-58.021
X-306.679 Y-57.932
X-306.57 Y-57.829
X-306.56 Y-57.817
X-306.422 Y-57.605
X-306.345 Y-57.363
X-306.333 Y-57.11
X-306.387 Y-56.863
X-306.504 Y-56.638
X-306.675 Y-56.451
X-306.997 Y-56.181
G3 X-307.461 Y-56.309 I-0.185 J-0.236
G1 X-307.996 Y-57.688
G3 X-307.987 Y-57.925 I0.28 J-0.109
X-307.917 Y-58.019 I0.271 J0.129
G1 X-307.596 Y-58.289
X-307.476 Y-58.38
X-307.339 Y-58.44
X-307.192 Y-58.471
X-307.042 Y-58.475
X-306.893 Y-58.458
X-306.748 Y-58.421
X-306.609 Y-58.364
X-306.478 Y-58.291
X-306.357 Y-58.202
X-306.248 Y-58.099
X-306.238 Y-58.087
X-306.101 Y-57.874
X-306.023 Y-57.633
X-306.011 Y-57.38
X-306.065 Y-57.132
X-306.182 Y-56.908
X-306.353 Y-56.721
X-306.675 Y-56.451
G3 X-306.779 Y-56.398 I-0.185 J-0.236
X-307.139 Y-56.579 I-0.08 J-0.289
G1 X-307.675 Y-57.957
G3 X-307.596 Y-58.289 I0.28 J-0.109
G1 X-307.267 Y-58.565
X-307.148 Y-58.655
X-307.01 Y-58.714
X-306.862 Y-58.742
X-306.712 Y-58.745
X-306.564 Y-58.727
X-306.418 Y-58.689
X-306.28 Y-58.63
X-306.15 Y-58.557
X-306.03 Y-58.467
X-305.921 Y-58.363
X-305.912 Y-58.352
X-305.776 Y-58.139
X-305.7 Y-57.899
X-305.69 Y-57.647
X-305.744 Y-57.401
X-305.861 Y-57.177
X-306.031 Y-56.991
X-306.353 Y-56.721
G3 X-306.818 Y-56.85 I-0.185 J-0.236
G1 X-307.347 Y-58.235
G3 X-307.267 Y-58.565 I0.28 J-0.107
G1 X-306.925 Y-58.852
X-306.805 Y-58.943
X-306.664 Y-58.994
X-306.516 Y-59.017
X-306.366 Y-59.016
X-306.218 Y-58.994
X-306.074 Y-58.952
X-305.937 Y-58.891
X-305.808 Y-58.815
X-305.69 Y-58.722
X-305.583 Y-58.617
X-305.576 Y-58.609
X-305.446 Y-58.396
X-305.375 Y-58.158
X-305.367 Y-57.909
X-305.423 Y-57.666
X-305.539 Y-57.446
X-305.708 Y-57.262
X-306.031 Y-56.991
G3 X-306.498 Y-57.125 I-0.185 J-0.236
G1 X-307.006 Y-58.527
G3 X-306.925 Y-58.852 I0.282 J-0.102
G1 X-306.618 Y-59.11
X-306.498 Y-59.2
X-306.359 Y-59.258
X-306.212 Y-59.285
X-306.062 Y-59.287
X-305.913 Y-59.268
X-305.768 Y-59.229
X-305.63 Y-59.17
X-305.5 Y-59.096
X-305.38 Y-59.006
X-305.272 Y-58.902
X-305.264 Y-58.892
X-305.13 Y-58.679
X-305.054 Y-58.439
X-305.044 Y-58.187
X-305.099 Y-57.942
X-305.215 Y-57.718
X-305.385 Y-57.533
X-305.708 Y-57.262
G3 X-306.173 Y-57.393 I-0.185 J-0.236
G1 X-306.698 Y-58.781
G3 X-306.688 Y-59.016 I0.281 J-0.106
X-306.618 Y-59.11 I0.271 J0.129
G1 X-306.293 Y-59.383
X-306.173 Y-59.473
X-306.034 Y-59.529
X-305.886 Y-59.556
X-305.736 Y-59.558
X-305.588 Y-59.538
X-305.443 Y-59.499
X-305.305 Y-59.439
X-305.175 Y-59.364
X-305.056 Y-59.274
X-304.948 Y-59.17
X-304.94 Y-59.16
X-304.806 Y-58.947
X-304.732 Y-58.707
X-304.722 Y-58.456
X-304.777 Y-58.211
X-304.893 Y-57.988
X-305.063 Y-57.803
X-305.385 Y-57.533
G3 X-305.49 Y-57.48 I-0.185 J-0.236
X-305.851 Y-57.664 I-0.08 J-0.289
G1 X-306.373 Y-59.054
G3 X-306.363 Y-59.289 I0.281 J-0.105
X-306.293 Y-59.383 I0.271 J0.129
G1 X-305.957 Y-59.664
X-305.838 Y-59.754
X-305.697 Y-59.806
X-305.549 Y-59.83
X-305.399 Y-59.829
X-305.251 Y-59.806
X-305.106 Y-59.765
X-304.969 Y-59.704
X-304.84 Y-59.627
X-304.722 Y-59.535
X-304.615 Y-59.43
X-304.609 Y-59.422
X-304.478 Y-59.21
X-304.407 Y-58.971
X-304.399 Y-58.722
X-304.455 Y-58.479
X-304.571 Y-58.258
X-304.74 Y-58.075
X-305.063 Y-57.803
G3 X-305.167 Y-57.751 I-0.185 J-0.236
X-305.53 Y-57.937 I-0.08 J-0.289
G1 X-306.039 Y-59.338
G3 X-305.957 Y-59.664 I0.282 J-0.102
G1 X-305.65 Y-59.922
X-305.531 Y-60.012
X-305.392 Y-60.07
X-305.245 Y-60.097
X-305.095 Y-60.1
X-304.946 Y-60.08
X-304.801 Y-60.042
X-304.663 Y-59.983
X-304.533 Y-59.908
X-304.413 Y-59.818
X-304.304 Y-59.714
X-304.296 Y-59.705
X-304.162 Y-59.492
X-304.086 Y-59.252
X-304.076 Y-59
X-304.131 Y-58.754
X-304.247 Y-58.531
X-304.417 Y-58.345
X-304.74 Y-58.075
G3 X-305.205 Y-58.205 I-0.185 J-0.236
G1 X-305.73 Y-59.592
G3 X-305.72 Y-59.828 I0.281 J-0.106
X-305.65 Y-59.922 I0.271 J0.129
G1 X-305.336 Y-60.185
X-305.217 Y-60.276
X-305.079 Y-60.336
X-304.932 Y-60.365
X-304.782 Y-60.37
X-304.633 Y-60.352
X-304.488 Y-60.315
X-304.349 Y-60.257
X-304.219 Y-60.184
X-304.098 Y-60.095
X-303.989 Y-59.992
X-303.979 Y-59.98
X-303.842 Y-59.768
X-303.765 Y-59.526
X-303.754 Y-59.274
X-303.808 Y-59.026
X-303.925 Y-58.802
X-304.095 Y-58.615
X-304.417 Y-58.345
G3 X-304.522 Y-58.292 I-0.185 J-0.236
X-304.882 Y-58.473 I-0.08 J-0.289
G1 X-305.415 Y-59.854
G3 X-305.336 Y-60.185 I0.28 J-0.108
G1 X-304.996 Y-60.47
X-304.877 Y-60.561
X-304.737 Y-60.615
X-304.589 Y-60.64
X-304.439
X-304.29 Y-60.619
X-304.146 Y-60.579
X-304.008 Y-60.519
X-303.879 Y-60.443
X-303.76 Y-60.351
X-303.652 Y-60.247
X-303.645 Y-60.238
X-303.513 Y-60.025
X-303.44 Y-59.786
X-303.432 Y-59.536
X-303.487 Y-59.292
X-303.603 Y-59.07
X-303.773 Y-58.886
X-304.095 Y-58.615
G3 X-304.2 Y-58.562 I-0.185 J-0.236
X-304.562 Y-58.748 I-0.08 J-0.289
G1 X-305.077 Y-60.143
G3 X-305.066 Y-60.377 I0.281 J-0.104
X-304.996 Y-60.47 I0.271 J0.129
G1 X-304.685 Y-60.731
X-304.565 Y-60.822
X-304.427 Y-60.88
X-304.28 Y-60.908
X-304.13 Y-60.911
X-303.981 Y-60.892
X-303.836 Y-60.854
X-303.698 Y-60.795
X-303.568 Y-60.721
X-303.447 Y-60.631
X-303.339 Y-60.528
X-303.331 Y-60.518
X-303.195 Y-60.305
X-303.12 Y-60.064
X-303.109 Y-59.812
X-303.163 Y-59.566
X-303.28 Y-59.342
X-303.45 Y-59.156
X-303.773 Y-58.886
G3 X-304.238 Y-59.016 I-0.185 J-0.236
G1 X-304.765 Y-60.402
G3 X-304.755 Y-60.638 I0.28 J-0.107
X-304.685 Y-60.731 I0.271 J0.129
G1 X-304.373 Y-60.993
X-304.253 Y-61.084
X-304.116 Y-61.145
X-303.969 Y-61.176
X-303.82 Y-61.181
X-303.671 Y-61.164
X-303.525 Y-61.127
X-303.386 Y-61.07
X-303.255 Y-60.998
X-303.134 Y-60.909
X-303.025 Y-60.806
X-303.015 Y-60.794
X-302.877 Y-60.581
X-302.799 Y-60.34
X-302.787 Y-60.086
X-302.841 Y-59.839
X-302.957 Y-59.613
X-303.129 Y-59.426
X-303.45 Y-59.156
G3 X-303.555 Y-59.104 I-0.185 J-0.236
X-303.915 Y-59.284 I-0.08 J-0.289
G1 X-304.452 Y-60.661
G3 X-304.443 Y-60.9 I0.28 J-0.109
X-304.373 Y-60.993 I0.271 J0.129
G1 X-304.05 Y-61.264
X-303.931 Y-61.354
X-303.794 Y-61.416
X-303.647 Y-61.446
X-303.497 Y-61.451
X-303.348 Y-61.434
X-303.203 Y-61.397
X-303.064 Y-61.34
X-302.933 Y-61.267
X-302.812 Y-61.178
X-302.703 Y-61.075
X-302.692 Y-61.063
X-302.555 Y-60.85
X-302.477 Y-60.609
X-302.465 Y-60.356
X-302.519 Y-60.108
X-302.636 Y-59.883
X-302.807 Y-59.696
X-303.129 Y-59.426
G3 X-303.593 Y-59.554 I-0.185 J-0.236
G1 X-304.129 Y-60.932
G3 X-304.12 Y-61.17 I0.28 J-0.109
X-304.05 Y-61.264 I0.271 J0.129
G1 X-303.722 Y-61.54
X-303.602 Y-61.63
X-303.464 Y-61.689
X-303.317 Y-61.717
X-303.167 Y-61.721
X-303.018 Y-61.702
X-302.873 Y-61.664
X-302.734 Y-61.606
X-302.604 Y-61.532
X-302.484 Y-61.442
X-302.375 Y-61.339
X-302.366 Y-61.328
X-302.23 Y-61.115
X-302.154 Y-60.874
X-302.144 Y-60.622
X-302.198 Y-60.376
X-302.315 Y-60.152
X-302.485 Y-59.966
X-302.807 Y-59.696
G3 X-302.912 Y-59.643 I-0.185 J-0.236
X-303.272 Y-59.825 I-0.08 J-0.289
G1 X-303.801 Y-61.21
G3 X-303.722 Y-61.54 I0.28 J-0.107
G1 X-303.38 Y-61.826
X-303.261 Y-61.917
X-303.12 Y-61.969
X-302.972 Y-61.992
X-302.822
X-302.674 Y-61.969
X-302.529 Y-61.928
X-302.392 Y-61.867
X-302.263 Y-61.791
X-302.145 Y-61.699
X-302.038 Y-61.594
X-302.031 Y-61.585
X-301.901 Y-61.373
X-301.829 Y-61.134
X-301.821 Y-60.885
X-301.877 Y-60.642
X-301.993 Y-60.421
X-302.162 Y-60.238
X-302.485 Y-59.966
G3 X-302.952 Y-60.1 I-0.185 J-0.236
G1 X-303.461 Y-61.501
G3 X-303.38 Y-61.826 I0.282 J-0.103
G1 X-303.073 Y-62.084
X-302.954 Y-62.174
X-302.815 Y-62.232
X-302.668 Y-62.26
X-302.518 Y-62.263
X-302.369 Y-62.243
X-302.224 Y-62.205
X-302.086 Y-62.146
X-301.956 Y-62.072
X-301.836 Y-61.982
X-301.727 Y-61.878
X-301.719 Y-61.868
X-301.584 Y-61.656
X-301.509 Y-61.415
X-301.498 Y-61.163
X-301.553 Y-60.917
X-301.669 Y-60.694
X-301.84 Y-60.508
X-302.162 Y-60.238
G3 X-302.627 Y-60.368 I-0.185 J-0.236
G1 X-303.153 Y-61.755
G3 X-303.073 Y-62.084 I0.281 J-0.106
G1 X-302.746 Y-62.358
X-302.626 Y-62.449
X-302.487 Y-62.505
X-302.34 Y-62.531
X-302.19 Y-62.533
X-302.041 Y-62.513
X-301.896 Y-62.474
X-301.759 Y-62.414
X-301.629 Y-62.339
X-301.509 Y-62.248
X-301.401 Y-62.144
X-301.393 Y-62.135
X-301.26 Y-61.922
X-301.186 Y-61.682
X-301.176 Y-61.431
X-301.231 Y-61.186
X-301.347 Y-60.964
X-301.517 Y-60.779
X-301.84 Y-60.508
G3 X-302.305 Y-60.639 I-0.185 J-0.236
G1 X-302.826 Y-62.03
G3 X-302.746 Y-62.358 I0.281 J-0.105
G1 X-302.412 Y-62.639
X-302.292 Y-62.73
X-302.151 Y-62.781
X-302.003 Y-62.805
X-301.853 Y-62.804
X-301.705 Y-62.781
X-301.561 Y-62.74
X-301.424 Y-62.679
X-301.294 Y-62.603
X-301.176 Y-62.51
X-301.069 Y-62.405
X-301.063 Y-62.398
X-300.933 Y-62.185
X-300.861 Y-61.946
X-300.853 Y-61.697
X-300.909 Y-61.454
X-301.025 Y-61.233
X-301.194 Y-61.05
X-301.517 Y-60.779
G3 X-301.984 Y-60.913 I-0.185 J-0.236
G1 X-302.493 Y-62.314
G3 X-302.482 Y-62.545 I0.282 J-0.102
X-302.412 Y-62.639 I0.271 J0.129
G1 X-302.104 Y-62.897
X-301.985 Y-62.987
X-301.846 Y-63.045
X-301.699 Y-63.072
X-301.549 Y-63.075
X-301.4 Y-63.056
X-301.255 Y-63.017
X-301.117 Y-62.958
X-300.987 Y-62.884
X-300.867 Y-62.794
X-300.759 Y-62.69
X-300.751 Y-62.68
X-300.616 Y-62.467
X-300.541 Y-62.227
X-300.53 Y-61.975
X-300.585 Y-61.729
X-300.701 Y-61.506
X-300.871 Y-61.32
X-301.194 Y-61.05
G3 X-301.659 Y-61.18 I-0.185 J-0.236
G1 X-302.184 Y-62.568
G3 X-302.174 Y-62.803 I0.281 J-0.106
X-302.104 Y-62.897 I0.271 J0.129
G1 X-301.79 Y-63.16
X-301.67 Y-63.251
X-301.533 Y-63.311
X-301.386 Y-63.341
X-301.236 Y-63.345
X-301.087 Y-63.327
X-300.942 Y-63.29
X-300.803 Y-63.232
X-300.672 Y-63.159
X-300.552 Y-63.07
X-300.443 Y-62.967
X-300.433 Y-62.956
X-300.296 Y-62.743
X-300.22 Y-62.502
X-300.208 Y-62.249
X-300.262 Y-62.002
X-300.379 Y-61.777
X-300.55 Y-61.59
X-300.871 Y-61.32
G3 X-301.336 Y-61.449 I-0.185 J-0.236
G1 X-301.869 Y-62.829
G3 X-301.79 Y-63.16 I0.28 J-0.108
G1 X-301.449 Y-63.446
X-301.33 Y-63.537
X-301.19 Y-63.59
X-301.042 Y-63.615
X-300.892 Y-63.616
X-300.743 Y-63.594
X-300.599 Y-63.554
X-300.462 Y-63.493
X-300.332 Y-63.418
X-300.213 Y-63.326
X-300.106 Y-63.221
X-300.098 Y-63.212
X-299.967 Y-63
X-299.894 Y-62.76
X-299.886 Y-62.51
X-299.941 Y-62.267
X-300.058 Y-62.045
X-300.227 Y-61.861
X-300.55 Y-61.59
G3 X-301.016 Y-61.723 I-0.185 J-0.236
G1 X-301.53 Y-63.12
G3 X-301.519 Y-63.353 I0.281 J-0.104
X-301.449 Y-63.446 I0.271 J0.129
G1 X-301.141 Y-63.705
X-301.021 Y-63.796
X-300.883 Y-63.855
X-300.736 Y-63.883
X-300.586 Y-63.886
X-300.437 Y-63.868
X-300.292 Y-63.829
X-300.153 Y-63.771
X-300.023 Y-63.697
X-299.903 Y-63.608
X-299.794 Y-63.504
X-299.786 Y-63.494
X-299.65 Y-63.281
X-299.574 Y-63.04
X-299.563 Y-62.788
X-299.618 Y-62.542
X-299.734 Y-62.318
X-299.905 Y-62.132
X-300.227 Y-61.861
G3 X-300.692 Y-61.991 I-0.185 J-0.236
G1 X-301.22 Y-63.376
G3 X-301.211 Y-63.612 I0.28 J-0.107
X-301.141 Y-63.705 I0.271 J0.129
G1 X-300.805 Y-63.987
X-300.685 Y-64.078
X-300.545 Y-64.131
X-300.398 Y-64.156
X-300.248 Y-64.157
X-300.099 Y-64.136
X-299.955 Y-64.095
X-299.817 Y-64.035
X-299.688 Y-63.959
X-299.569 Y-63.868
X-299.461 Y-63.763
X-299.454 Y-63.754
X-299.322 Y-63.542
X-299.25 Y-63.302
X-299.241 Y-63.052
X-299.296 Y-62.808
X-299.413 Y-62.587
X-299.582 Y-62.403
X-299.905 Y-62.132
G3 X-300.009 Y-62.079 I-0.185 J-0.236
X-300.371 Y-62.264 I-0.08 J-0.289
G1 X-300.886 Y-63.66
G3 X-300.805 Y-63.987 I0.281 J-0.104
G1 X-300.477 Y-64.262
X-300.358 Y-64.352
X-300.217 Y-64.405
X-300.069 Y-64.429
X-299.919 Y-64.428
X-299.771 Y-64.406
X-299.627 Y-64.365
X-299.489 Y-64.304
X-299.36 Y-64.228
X-299.242 Y-64.135
X-299.135 Y-64.03
X-299.129 Y-64.023
X-298.998 Y-63.81
X-298.926 Y-63.571
X-298.918 Y-63.322
X-298.973 Y-63.078
X-299.09 Y-62.858
X-299.259 Y-62.674
X-299.582 Y-62.403
G3 X-299.686 Y-62.35 I-0.185 J-0.236
X-300.048 Y-62.536 I-0.08 J-0.289
G1 X-300.559 Y-63.936
G3 X-300.547 Y-64.168 I0.282 J-0.103
X-300.477 Y-64.262 I0.271 J0.129
G1 X-300.176 Y-64.515
X-300.056 Y-64.606
X-299.919 Y-64.665
X-299.771 Y-64.695
X-299.622 Y-64.699
X-299.473 Y-64.681
X-299.327 Y-64.643
X-299.189 Y-64.585
X-299.058 Y-64.512
X-298.938 Y-64.423
X-298.829 Y-64.319
X-298.82 Y-64.309
X-298.683 Y-64.096
X-298.606 Y-63.855
X-298.595 Y-63.602
X-298.649 Y-63.355
X-298.766 Y-63.13
X-298.937 Y-62.944
X-299.259 Y-62.674
G3 X-299.363 Y-62.621 I-0.185 J-0.236
X-299.723 Y-62.802 I-0.08 J-0.289
G1 X-300.255 Y-64.184
G3 X-300.246 Y-64.421 I0.28 J-0.108
X-300.176 Y-64.515 I0.271 J0.129
G1 X-299.836 Y-64.8
X-299.716 Y-64.891
X-299.576 Y-64.944
X-299.428 Y-64.969
X-299.278
X-299.13 Y-64.948
X-298.985 Y-64.907
X-298.848 Y-64.847
X-298.718 Y-64.771
X-298.6 Y-64.679
X-298.492 Y-64.574
X-298.485 Y-64.565
X-298.354 Y-64.353
X-298.281 Y-64.114
X-298.273 Y-63.864
X-298.328 Y-63.62
X-298.445 Y-63.399
X-298.614 Y-63.215
X-298.937 Y-62.944
G3 X-299.403 Y-63.077 I-0.185 J-0.236
G1 X-299.917 Y-64.474
G3 X-299.906 Y-64.706 I0.282 J-0.104
X-299.836 Y-64.8 I0.271 J0.129
G1 X-299.529 Y-65.058
X-299.409 Y-65.149
X-299.271 Y-65.208
X-299.124 Y-65.236
X-298.974 Y-65.24
X-298.825 Y-65.221
X-298.68 Y-65.183
X-298.542 Y-65.126
X-298.411 Y-65.052
X-298.291 Y-64.962
X-298.182 Y-64.859
X-298.173 Y-64.848
X-298.037 Y-64.635
X-297.961 Y-64.395
X-297.95 Y-64.142
X-298.004 Y-63.896
X-298.121 Y-63.671
X-298.292 Y-63.485
X-298.614 Y-63.215
G3 X-298.718 Y-63.162 I-0.185 J-0.236
X-299.078 Y-63.344 I-0.08 J-0.289
G1 X-299.608 Y-64.728
G3 X-299.599 Y-64.964 I0.28 J-0.107
X-299.529 Y-65.058 I0.271 J0.129
G1 X-299.2 Y-65.334
X-299.08 Y-65.425
X-298.941 Y-65.481
X-298.794 Y-65.508
X-298.644 Y-65.51
X-298.495 Y-65.49
X-298.35 Y-65.451
X-298.212 Y-65.392
X-298.082 Y-65.317
X-297.963 Y-65.227
X-297.854 Y-65.123
X-297.846 Y-65.113
X-297.712 Y-64.9
X-297.638 Y-64.66
X-297.628 Y-64.409
X-297.683 Y-64.164
X-297.799 Y-63.941
X-297.969 Y-63.756
X-298.292 Y-63.485
G3 X-298.396 Y-63.432 I-0.185 J-0.236
X-298.757 Y-63.616 I-0.08 J-0.289
G1 X-299.28 Y-65.006
G3 X-299.27 Y-65.24 I0.281 J-0.106
X-299.2 Y-65.334 I0.271 J0.129
G1 X-298.866 Y-65.614
X-298.746 Y-65.705
X-298.606 Y-65.757
X-298.458 Y-65.781
X-298.308
X-298.159 Y-65.759
X-298.015 Y-65.718
X-297.878 Y-65.657
X-297.749 Y-65.581
X-297.63 Y-65.489
X-297.523 Y-65.384
X-297.516 Y-65.376
X-297.386 Y-65.163
X-297.314 Y-64.924
X-297.305 Y-64.675
X-297.361 Y-64.432
X-297.477 Y-64.211
X-297.646 Y-64.027
X-297.969 Y-63.756
G3 X-298.074 Y-63.703 I-0.185 J-0.236
X-298.436 Y-63.889 I-0.08 J-0.289
G1 X-298.947 Y-65.288
G3 X-298.936 Y-65.52 I0.282 J-0.103
X-298.866 Y-65.614 I0.271 J0.129
G1 X-298.56 Y-65.871
X-298.44 Y-65.962
X-298.302 Y-66.02
X-298.155 Y-66.048
X-298.005 Y-66.052
X-297.856 Y-66.033
X-297.711 Y-65.995
X-297.573 Y-65.937
X-297.442 Y-65.863
X-297.322 Y-65.773
X-297.214 Y-65.669
X-297.205 Y-65.659
X-297.069 Y-65.446
X-296.993 Y-65.206
X-296.982 Y-64.954
X-297.037 Y-64.707
X-297.153 Y-64.483
X-297.324 Y-64.297
X-297.646 Y-64.027
G3 X-298.111 Y-64.156 I-0.185 J-0.236
G1 X-298.639 Y-65.541
G3 X-298.56 Y-65.871 I0.28 J-0.107
G1 X-298.244 Y-66.136
X-298.124 Y-66.226
X-297.987 Y-66.287
X-297.84 Y-66.317
X-297.69 Y-66.322
X-297.541 Y-66.304
X-297.396 Y-66.267
X-297.257 Y-66.21
X-297.126 Y-66.137
X-297.006 Y-66.048
X-296.897 Y-65.945
X-296.887 Y-65.933
X-296.749 Y-65.72
X-296.672 Y-65.479
X-296.66 Y-65.226
X-296.715 Y-64.979
X-296.831 Y-64.754
X-297.002 Y-64.567
X-297.324 Y-64.297
G3 X-297.428 Y-64.244 I-0.185 J-0.236
X-297.788 Y-64.425 I-0.08 J-0.289
G1 X-298.323 Y-65.805
G3 X-298.314 Y-66.042 I0.28 J-0.108
X-298.244 Y-66.136 I0.271 J0.129
G1 X-297.903 Y-66.422
X-297.783 Y-66.513
X-297.643 Y-66.567
X-297.495 Y-66.592
X-297.345
X-297.197 Y-66.571
X-297.052 Y-66.531
X-296.915 Y-66.47
X-296.785 Y-66.395
X-296.667 Y-66.303
X-296.559 Y-66.199
X-296.551 Y-66.189
X-296.42 Y-65.977
X-296.347 Y-65.737
X-296.338 Y-65.487
X-296.394 Y-65.244
X-296.51 Y-65.022
X-296.679 Y-64.838
X-297.002 Y-64.567
G3 X-297.107 Y-64.514 I-0.185 J-0.236
X-297.468 Y-64.7 I-0.08 J-0.289
G1 X-297.983 Y-66.096
G3 X-297.973 Y-66.329 I0.281 J-0.104
X-297.903 Y-66.422 I0.271 J0.129
G1 X-297.596 Y-66.68
X-297.476 Y-66.77
X-297.339 Y-66.83
X-297.192 Y-66.859
X-297.042 Y-66.863
X-296.893 Y-66.845
X-296.748 Y-66.807
X-296.609 Y-66.749
X-296.479 Y-66.676
X-296.358 Y-66.586
X-296.249 Y-66.483
X-296.24 Y-66.472
X-296.104 Y-66.259
X-296.027 Y-66.019
X-296.016 Y-65.766
X-296.07 Y-65.519
X-296.187 Y-65.295
X-296.357 Y-65.108
X-296.679 Y-64.838
G3 X-296.784 Y-64.785 I-0.185 J-0.236
X-297.144 Y-64.967 I-0.08 J-0.289
G1 X-297.675 Y-66.349
G3 X-297.666 Y-66.586 I0.28 J-0.108
X-297.596 Y-66.68 I0.271 J0.129
G1 X-297.26 Y-66.962
X-297.14 Y-67.052
X-297 Y-67.107
X-296.853 Y-67.132
X-296.703 Y-67.133
X-296.554 Y-67.112
X-296.409 Y-67.072
X-296.272 Y-67.012
X-296.142 Y-66.937
X-296.023 Y-66.845
X-295.916 Y-66.741
X-295.908 Y-66.732
X-295.776 Y-66.519
X-295.703 Y-66.28
X-295.694 Y-66.029
X-295.749 Y-65.785
X-295.865 Y-65.563
X-296.035 Y-65.379
X-296.357 Y-65.108
G3 X-296.823 Y-65.24 I-0.185 J-0.236
G1 X-297.34 Y-66.635
G3 X-297.33 Y-66.868 I0.281 J-0.104
X-297.26 Y-66.962 I0.271 J0.129
G1 X-296.931 Y-67.237
X-296.812 Y-67.328
X-296.672 Y-67.381
X-296.523 Y-67.405
X-296.373 Y-67.404
X-296.225 Y-67.382
X-296.081 Y-67.341
X-295.944 Y-67.281
X-295.814 Y-67.205
X-295.696 Y-67.113
X-295.589 Y-67.008
X-295.582 Y-67
X-295.451 Y-66.787
X-295.379 Y-66.548
X-295.371 Y-66.298
X-295.426 Y-66.055
X-295.543 Y-65.834
X-295.712 Y-65.65
X-296.035 Y-65.379
G3 X-296.139 Y-65.326 I-0.185 J-0.236
X-296.501 Y-65.512 I-0.08 J-0.289
G1 X-297.012 Y-66.911
G3 X-296.931 Y-67.237 I0.282 J-0.103
G1 X-296.63 Y-67.49
X-296.51 Y-67.581
X-296.373 Y-67.641
X-296.226 Y-67.671
X-296.076 Y-67.675
X-295.927 Y-67.657
X-295.782 Y-67.62
X-295.643 Y-67.562
X-295.512 Y-67.489
X-295.392 Y-67.4
X-295.283 Y-67.297
X-295.274 Y-67.286
X-295.137 Y-67.073
X-295.06 Y-66.832
X-295.048 Y-66.579
X-295.102 Y-66.332
X-295.219 Y-66.107
X-295.39 Y-65.92
X-295.712 Y-65.65
G3 X-295.816 Y-65.597 I-0.185 J-0.236
X-296.176 Y-65.778 I-0.08 J-0.289
G1 X-296.709 Y-67.159
G3 X-296.63 Y-67.49 I0.28 J-0.108
G1 X-296.291 Y-67.774
X-296.172 Y-67.865
X-296.032 Y-67.919
X-295.884 Y-67.944
X-295.734 Y-67.945
X-295.585 Y-67.924
X-295.441 Y-67.884
X-295.304 Y-67.824
X-295.174 Y-67.749
X-295.055 Y-67.657
X-294.947 Y-67.553
X-294.94 Y-67.543
X-294.808 Y-67.331
X-294.735 Y-67.091
X-294.726 Y-66.841
X-294.781 Y-66.597
X-294.898 Y-66.375
X-295.067 Y-66.191
X-295.39 Y-65.92
G3 X-295.494 Y-65.867 I-0.185 J-0.236
X-295.856 Y-66.052 I-0.08 J-0.289
G1 X-296.372 Y-67.447
G3 X-296.361 Y-67.681 I0.281 J-0.104
X-296.291 Y-67.774 I0.271 J0.129
G1 X-295.984 Y-68.032
X-295.865 Y-68.123
X-295.727 Y-68.182
X-295.58 Y-68.212
X-295.43 Y-68.216
X-295.281 Y-68.198
X-295.136 Y-68.16
X-294.997 Y-68.103
X-294.867 Y-68.029
X-294.746 Y-67.94
X-294.637 Y-67.837
X-294.628 Y-67.826
X-294.491 Y-67.613
X-294.415 Y-67.372
X-294.403 Y-67.119
X-294.458 Y-66.872
X-294.574 Y-66.648
X-294.745 Y-66.461
X-295.067 Y-66.191
G3 X-295.532 Y-66.32 I-0.185 J-0.236
G1 X-296.063 Y-67.701
G3 X-296.054 Y-67.938 I0.28 J-0.108
X-295.984 Y-68.032 I0.271 J0.129
G1 X-295.653 Y-68.31
X-295.534 Y-68.4
X-295.395 Y-68.457
X-295.247 Y-68.484
X-295.097 Y-68.486
X-294.948 Y-68.466
X-294.804 Y-68.427
X-294.666 Y-68.368
X-294.536 Y-68.294
X-294.416 Y-68.203
X-294.308 Y-68.099
X-294.3 Y-68.089
X-294.166 Y-67.876
X-294.091 Y-67.636
X-294.081 Y-67.385
X-294.136 Y-67.14
X-294.253 Y-66.917
X-294.423 Y-66.732
X-294.745 Y-66.461
G3 X-294.849 Y-66.408 I-0.185 J-0.236
X-295.21 Y-66.592 I-0.08 J-0.289
G1 X-295.733 Y-67.981
G3 X-295.653 Y-68.31 I0.281 J-0.106
G1 X-295.32 Y-68.589
X-295.201 Y-68.68
X-295.06 Y-68.733
X-294.912 Y-68.757
X-294.762
X-294.614 Y-68.735
X-294.469 Y-68.694
X-294.332 Y-68.633
X-294.203 Y-68.558
X-294.084 Y-68.466
X-293.977 Y-68.361
X-293.97 Y-68.352
X-293.839 Y-68.14
X-293.767 Y-67.901
X-293.759 Y-67.651
X-293.814 Y-67.408
X-293.931 Y-67.187
X-294.1 Y-67.003
X-294.423 Y-66.732
G3 X-294.527 Y-66.679 I-0.185 J-0.236
X-294.889 Y-66.865 I-0.08 J-0.289
G1 X-295.401 Y-68.263
G3 X-295.39 Y-68.496 I0.282 J-0.103
X-295.32 Y-68.589 I0.271 J0.129
G1 X-295.015 Y-68.845
X-294.896 Y-68.936
X-294.758 Y-68.995
X-294.611 Y-69.024
X-294.461 Y-69.028
X-294.312 Y-69.009
X-294.167 Y-68.971
X-294.028 Y-68.914
X-293.898 Y-68.84
X-293.777 Y-68.75
X-293.669 Y-68.647
X-293.66 Y-68.636
X-293.524 Y-68.424
X-293.447 Y-68.183
X-293.436 Y-67.93
X-293.49 Y-67.683
X-293.607 Y-67.459
X-293.778 Y-67.273
X-294.1 Y-67.003
G3 X-294.564 Y-67.132 I-0.185 J-0.236
G1 X-295.095 Y-68.515
G3 X-295.085 Y-68.751 I0.28 J-0.107
X-295.015 Y-68.845 I0.271 J0.129
G1 X-294.698 Y-69.111
X-294.578 Y-69.202
X-294.441 Y-69.263
X-294.294 Y-69.293
X-294.144 Y-69.298
X-293.995 Y-69.28
X-293.85 Y-69.243
X-293.711 Y-69.186
X-293.58 Y-69.113
X-293.46 Y-69.024
X-293.35 Y-68.921
X-293.34 Y-68.909
X-293.203 Y-68.696
X-293.126 Y-68.455
X-293.114 Y-68.202
X-293.168 Y-67.955
X-293.285 Y-67.73
X-293.456 Y-67.543
X-293.778 Y-67.273
G3 X-293.882 Y-67.22 I-0.185 J-0.236
X-294.242 Y-67.401 I-0.08 J-0.289
G1 X-294.777 Y-68.78
G3 X-294.698 Y-69.111 I0.28 J-0.109
G1 X-294.356 Y-69.398
X-294.236 Y-69.489
X-294.096 Y-69.543
X-293.948 Y-69.568
X-293.798
X-293.65 Y-69.547
X-293.505 Y-69.506
X-293.368 Y-69.446
X-293.239 Y-69.37
X-293.12 Y-69.279
X-293.012 Y-69.174
X-293.005 Y-69.165
X-292.873 Y-68.952
X-292.801 Y-68.713
X-292.792 Y-68.463
X-292.848 Y-68.219
X-292.964 Y-67.998
X-293.133 Y-67.814
X-293.456 Y-67.543
G3 X-293.56 Y-67.49 I-0.185 J-0.236
X-293.922 Y-67.675 I-0.08 J-0.289
G1 X-294.437 Y-69.072
G3 X-294.426 Y-69.305 I0.281 J-0.104
X-294.356 Y-69.398 I0.271 J0.129
G1 X-294.051 Y-69.654
X-293.932 Y-69.744
X-293.794 Y-69.805
X-293.647 Y-69.834
X-293.497 Y-69.839
X-293.348 Y-69.821
X-293.203 Y-69.783
X-293.065 Y-69.726
X-292.934 Y-69.652
X-292.813 Y-69.563
X-292.704 Y-69.46
X-292.695 Y-69.449
X-292.558 Y-69.236
X-292.481 Y-68.995
X-292.469 Y-68.742
X-292.524 Y-68.495
X-292.64 Y-68.271
X-292.811 Y-68.084
X-293.133 Y-67.814
G3 X-293.237 Y-67.761 I-0.185 J-0.236
X-293.598 Y-67.942 I-0.08 J-0.289
G1 X-294.13 Y-69.323
G3 X-294.051 Y-69.654 I0.28 J-0.108
G1 X-293.714 Y-69.937
X-293.595 Y-70.027
X-293.455 Y-70.082
X-293.307 Y-70.108
X-293.157 Y-70.109
X-293.009 Y-70.088
X-292.864 Y-70.048
X-292.727 Y-69.988
X-292.597 Y-69.913
X-292.478 Y-69.822
X-292.37 Y-69.718
X-292.362 Y-69.708
X-292.23 Y-69.495
X-292.157 Y-69.256
X-292.147 Y-69.005
X-292.203 Y-68.761
X-292.319 Y-68.539
X-292.488 Y-68.355
X-292.811 Y-68.084
G3 X-292.916 Y-68.031 I-0.185 J-0.236
X-293.277 Y-68.216 I-0.08 J-0.289
G1 X-293.795 Y-69.609
G3 X-293.714 Y-69.937 I0.281 J-0.104
G1 X-293.386 Y-70.213
X-293.266 Y-70.303
X-293.126 Y-70.356
X-292.978 Y-70.38
X-292.828
X-292.679 Y-70.358
X-292.535 Y-70.317
X-292.398 Y-70.256
X-292.268 Y-70.18
X-292.15 Y-70.088
X-292.043 Y-69.983
X-292.036 Y-69.975
X-291.905 Y-69.763
X-291.833 Y-69.524
X-291.824 Y-69.274
X-291.88 Y-69.031
X-291.996 Y-68.81
X-292.165 Y-68.626
X-292.488 Y-68.355
G3 X-292.593 Y-68.302 I-0.185 J-0.236
X-292.955 Y-68.488 I-0.08 J-0.289
G1 X-293.467 Y-69.887
G3 X-293.456 Y-70.119 I0.282 J-0.103
X-293.386 Y-70.213 I0.271 J0.129
G1 X-293.084 Y-70.465
X-292.965 Y-70.556
X-292.827 Y-70.616
X-292.68 Y-70.646
X-292.53 Y-70.651
X-292.381 Y-70.633
X-292.236 Y-70.595
X-292.098 Y-70.538
X-291.967 Y-70.465
X-291.846 Y-70.376
X-291.737 Y-70.273
X-291.728 Y-70.262
X-291.591 Y-70.049
X-291.514 Y-69.808
X-291.502 Y-69.555
X-291.556 Y-69.307
X-291.673 Y-69.082
X-291.844 Y-68.896
X-292.165 Y-68.626
G3 X-292.27 Y-68.573 I-0.185 J-0.236
X-292.63 Y-68.754 I-0.08 J-0.289
G1 X-293.163 Y-70.134
G3 X-293.154 Y-70.372 I0.28 J-0.108
X-293.084 Y-70.465 I0.271 J0.129
G1 X-292.747 Y-70.749
X-292.627 Y-70.839
X-292.488 Y-70.894
X-292.34 Y-70.92
X-292.19 Y-70.921
X-292.041 Y-70.9
X-291.897 Y-70.86
X-291.759 Y-70.8
X-291.629 Y-70.725
X-291.51 Y-70.634
X-291.403 Y-70.529
X-291.395 Y-70.52
X-291.262 Y-70.307
X-291.189 Y-70.068
X-291.18 Y-69.817
X-291.235 Y-69.573
X-291.351 Y-69.351
X-291.521 Y-69.166
X-291.844 Y-68.896
G3 X-291.948 Y-68.843 I-0.185 J-0.236
X-292.309 Y-69.028 I-0.08 J-0.289
G1 X-292.827 Y-70.421
G3 X-292.747 Y-70.749 I0.281 J-0.104
G1 X-292.42 Y-71.022
X-292.301 Y-71.113
X-292.161 Y-71.167
X-292.013 Y-71.191
X-291.863 Y-71.192
X-291.714 Y-71.17
X-291.57 Y-71.13
X-291.433 Y-71.069
X-291.303 Y-70.994
X-291.184 Y-70.902
X-291.077 Y-70.797
X-291.07 Y-70.789
X-290.939 Y-70.576
X-290.866 Y-70.337
X-290.857 Y-70.087
X-290.912 Y-69.843
X-291.029 Y-69.622
X-291.198 Y-69.437
X-291.521 Y-69.166
G3 X-291.987 Y-69.299 I-0.185 J-0.236
G1 X-292.501 Y-70.696
G3 X-292.49 Y-70.929 I0.282 J-0.104
X-292.42 Y-71.022 I0.271 J0.129
G1 X-292.107 Y-71.286
X-291.987 Y-71.376
X-291.848 Y-71.433
X-291.701 Y-71.46
X-291.551 Y-71.462
X-291.402 Y-71.443
X-291.257 Y-71.404
X-291.119 Y-71.345
X-290.989 Y-71.27
X-290.87 Y-71.18
X-290.761 Y-71.076
X-290.754 Y-71.066
X-290.619 Y-70.854
X-290.544 Y-70.613
X-290.534 Y-70.362
X-290.589 Y-70.116
X-290.705 Y-69.893
X-290.876 Y-69.708
X-291.198 Y-69.437
G3 X-291.302 Y-69.385 I-0.185 J-0.236
X-291.663 Y-69.568 I-0.08 J-0.289
G1 X-292.187 Y-70.957
G3 X-292.177 Y-71.192 I0.281 J-0.106
X-292.107 Y-71.286 I0.271 J0.129
G1 X-291.774 Y-71.565
X-291.655 Y-71.655
X-291.515 Y-71.709
X-291.367 Y-71.733
X-291.217
X-291.068 Y-71.711
X-290.924 Y-71.671
X-290.786 Y-71.61
X-290.657 Y-71.535
X-290.538 Y-71.443
X-290.431 Y-71.338
X-290.424 Y-71.33
X-290.293 Y-71.117
X-290.22 Y-70.878
X-290.212 Y-70.628
X-290.267 Y-70.384
X-290.383 Y-70.163
X-290.553 Y-69.979
X-290.876 Y-69.708
G3 X-290.98 Y-69.655 I-0.185 J-0.236
X-291.342 Y-69.841 I-0.08 J-0.289
G1 X-291.855 Y-71.238
G3 X-291.844 Y-71.471 I0.282 J-0.103
X-291.774 Y-71.565 I0.271 J0.129
G1 X-291.471 Y-71.819
X-291.351 Y-71.91
X-291.214 Y-71.97
X-291.067 Y-71.999
X-290.917 Y-72.004
X-290.768 Y-71.986
X-290.623 Y-71.948
X-290.484 Y-71.891
X-290.353 Y-71.818
X-290.233 Y-71.728
X-290.124 Y-71.625
X-290.114 Y-71.614
X-289.978 Y-71.401
X-289.901 Y-71.16
X-289.889 Y-70.908
X-289.943 Y-70.66
X-290.06 Y-70.436
X-290.231 Y-70.249
X-290.553 Y-69.979
G3 X-290.657 Y-69.926 I-0.185 J-0.236
X-291.017 Y-70.107 I-0.08 J-0.289
G1 X-291.55 Y-71.488
G3 X-291.471 Y-71.819 I0.28 J-0.108
G1 X-291.152 Y-72.087
X-291.032 Y-72.177
X-290.895 Y-72.238
X-290.748 Y-72.269
X-290.599 Y-72.274
X-290.45 Y-72.256
X-290.304 Y-72.22
X-290.165 Y-72.162
X-290.034 Y-72.089
X-289.914 Y-72
X-289.804 Y-71.898
X-289.794 Y-71.886
X-289.657 Y-71.673
X-289.579 Y-71.432
X-289.567 Y-71.178
X-289.621 Y-70.931
X-289.738 Y-70.706
X-289.909 Y-70.519
X-290.231 Y-70.249
G3 X-290.695 Y-70.377 I-0.185 J-0.236
G1 X-291.231 Y-71.755
G3 X-291.152 Y-72.087 I0.28 J-0.109
G1 X-290.809 Y-72.374
X-290.69 Y-72.465
X-290.55 Y-72.519
X-290.402 Y-72.544
X-290.252
X-290.103 Y-72.523
X-289.959 Y-72.482
X-289.821 Y-72.422
X-289.692 Y-72.347
X-289.573 Y-72.255
X-289.466 Y-72.15
X-289.458 Y-72.141
X-289.327 Y-71.928
X-289.254 Y-71.689
X-289.245 Y-71.439
X-289.301 Y-71.195
X-289.417 Y-70.974
X-289.586 Y-70.79
X-289.909 Y-70.519
G3 X-290.375 Y-70.652 I-0.185 J-0.236
G1 X-290.89 Y-72.048
G3 X-290.879 Y-72.281 I0.281 J-0.104
X-290.809 Y-72.374 I0.271 J0.129
G1 X-290.506 Y-72.629
X-290.387 Y-72.719
X-290.249 Y-72.78
X-290.103 Y-72.81
X-289.953 Y-72.815
X-289.804 Y-72.797
X-289.658 Y-72.76
X-289.52 Y-72.703
X-289.389 Y-72.63
X-289.268 Y-72.541
X-289.159 Y-72.438
X-289.149 Y-72.426
X-289.012 Y-72.214
X-288.935 Y-71.972
X-288.923 Y-71.719
X-288.977 Y-71.472
X-289.093 Y-71.247
X-289.264 Y-71.06
X-289.586 Y-70.79
G3 X-289.691 Y-70.737 I-0.185 J-0.236
X-290.051 Y-70.918 I-0.08 J-0.289
G1 X-290.585 Y-72.297
G3 X-290.576 Y-72.535 I0.28 J-0.108
X-290.506 Y-72.629 I0.271 J0.129
G1 X-290.169 Y-72.912
X-290.049 Y-73.002
X-289.91 Y-73.057
X-289.762 Y-73.083
X-289.612 Y-73.085
X-289.464 Y-73.064
X-289.319 Y-73.025
X-289.181 Y-72.965
X-289.051 Y-72.89
X-288.932 Y-72.799
X-288.824 Y-72.695
X-288.816 Y-72.685
X-288.684 Y-72.472
X-288.61 Y-72.232
X-288.601 Y-71.982
X-288.656 Y-71.737
X-288.772 Y-71.515
X-288.942 Y-71.331
X-289.264 Y-71.06
G3 X-289.369 Y-71.007 I-0.185 J-0.236
X-289.73 Y-71.191 I-0.08 J-0.289
G1 X-290.249 Y-72.584
G3 X-290.239 Y-72.818 I0.281 J-0.105
X-290.169 Y-72.912 I0.271 J0.129
G1 X-289.84 Y-73.188
X-289.72 Y-73.279
X-289.58 Y-73.332
X-289.432 Y-73.356
X-289.282
X-289.133 Y-73.334
X-288.989 Y-73.293
X-288.852 Y-73.232
X-288.722 Y-73.157
X-288.604 Y-73.065
X-288.497 Y-72.96
X-288.49 Y-72.952
X-288.359 Y-72.739
X-288.287 Y-72.5
X-288.278 Y-72.25
X-288.334 Y-72.007
X-288.45 Y-71.786
X-288.619 Y-71.602
X-288.942 Y-71.331
G3 X-289.408 Y-71.464 I-0.185 J-0.236
G1 X-289.921 Y-72.862
G3 X-289.91 Y-73.094 I0.282 J-0.103
X-289.84 Y-73.188 I0.271 J0.129
G1 X-289.538 Y-73.441
X-289.419 Y-73.531
X-289.282 Y-73.592
X-289.135 Y-73.622
X-288.985 Y-73.626
X-288.836 Y-73.609
X-288.69 Y-73.572
X-288.552 Y-73.514
X-288.421 Y-73.441
X-288.3 Y-73.352
X-288.191 Y-73.249
X-288.182 Y-73.238
X-288.044 Y-73.025
X-287.967 Y-72.784
X-287.955 Y-72.531
X-288.009 Y-72.283
X-288.126 Y-72.058
X-288.297 Y-71.872
X-288.619 Y-71.602
G3 X-289.083 Y-71.73 I-0.185 J-0.236
G1 X-289.618 Y-73.109
G3 X-289.609 Y-73.347 I0.28 J-0.108
X-289.538 Y-73.441 I0.271 J0.129
G1 X-289.202 Y-73.723
X-289.083 Y-73.813
X-288.943 Y-73.869
X-288.796 Y-73.895
X-288.646 Y-73.896
X-288.497 Y-73.876
X-288.352 Y-73.837
X-288.215 Y-73.777
X-288.085 Y-73.702
X-287.966 Y-73.611
X-287.858 Y-73.507
X-287.85 Y-73.497
X-287.717 Y-73.284
X-287.643 Y-73.045
X-287.633 Y-72.794
X-287.689 Y-72.549
X-287.805 Y-72.327
X-287.975 Y-72.142
X-288.297 Y-71.872
G3 X-288.402 Y-71.819 I-0.185 J-0.236
X-288.763 Y-72.003 I-0.08 J-0.289
G1 X-289.283 Y-73.395
G3 X-289.272 Y-73.629 I0.281 J-0.105
X-289.202 Y-73.723 I0.271 J0.129
G1 X-288.876 Y-73.997
X-288.756 Y-74.087
X-288.616 Y-74.142
X-288.469 Y-74.167
X-288.319
X-288.17 Y-74.146
X-288.026 Y-74.106
X-287.888 Y-74.046
X-287.758 Y-73.97
X-287.64 Y-73.879
X-287.532 Y-73.774
X-287.525 Y-73.766
X-287.393 Y-73.553
X-287.32 Y-73.314
X-287.311 Y-73.063
X-287.366 Y-72.819
X-287.482 Y-72.598
X-287.652 Y-72.413
X-287.975 Y-72.142
G3 X-288.441 Y-72.275 I-0.185 J-0.236
G1 X-288.956 Y-73.67
G3 X-288.946 Y-73.903 I0.281 J-0.104
X-288.876 Y-73.997 I0.271 J0.129
G1 X-288.56 Y-74.261
X-288.441 Y-74.352
X-288.302 Y-74.409
X-288.154 Y-74.436
X-288.004 Y-74.438
X-287.856 Y-74.418
X-287.711 Y-74.379
X-287.573 Y-74.32
X-287.443 Y-74.246
X-287.323 Y-74.155
X-287.215 Y-74.051
X-287.207 Y-74.042
X-287.073 Y-73.829
X-286.998 Y-73.589
X-286.988 Y-73.337
X-287.043 Y-73.092
X-287.159 Y-72.869
X-287.329 Y-72.684
X-287.652 Y-72.413
G3 X-287.756 Y-72.36 I-0.185 J-0.236
X-288.117 Y-72.544 I-0.08 J-0.289
G1 X-288.64 Y-73.933
G3 X-288.63 Y-74.168 I0.281 J-0.106
X-288.56 Y-74.261 I0.271 J0.129
G1 X-288.251 Y-74.52
X-288.132 Y-74.611
X-287.995 Y-74.672
X-287.848 Y-74.703
X-287.698 Y-74.708
X-287.549 Y-74.691
X-287.404 Y-74.654
X-287.265 Y-74.597
X-287.134 Y-74.525
X-287.013 Y-74.436
X-286.904 Y-74.333
X-286.894 Y-74.321
X-286.756 Y-74.108
X-286.678 Y-73.867
X-286.666 Y-73.614
X-286.72 Y-73.366
X-286.837 Y-73.141
X-287.008 Y-72.953
X-287.329 Y-72.684
G3 X-287.434 Y-72.631 I-0.185 J-0.236
X-287.794 Y-72.811 I-0.08 J-0.289
G1 X-288.33 Y-74.189
G3 X-288.251 Y-74.52 I0.28 J-0.109
G1 X-287.926 Y-74.793
X-287.807 Y-74.884
X-287.669 Y-74.944
X-287.522 Y-74.974
X-287.372 Y-74.978
X-287.223 Y-74.96
X-287.078 Y-74.923
X-286.94 Y-74.865
X-286.809 Y-74.792
X-286.688 Y-74.703
X-286.579 Y-74.6
X-286.569 Y-74.588
X-286.433 Y-74.375
X-286.356 Y-74.134
X-286.344 Y-73.882
X-286.399 Y-73.634
X-286.515 Y-73.41
X-286.686 Y-73.223
X-287.008 Y-72.953
G3 X-287.112 Y-72.901 I-0.185 J-0.236
X-287.472 Y-73.082 I-0.08 J-0.289
G1 X-288.005 Y-74.462
G3 X-287.996 Y-74.7 I0.28 J-0.108
X-287.926 Y-74.793 I0.271 J0.129
G1 X-287.606 Y-75.062
X-287.486 Y-75.153
X-287.349 Y-75.213
X-287.202 Y-75.243
X-287.052 Y-75.248
X-286.903 Y-75.23
X-286.758 Y-75.193
X-286.619 Y-75.136
X-286.488 Y-75.063
X-286.368 Y-74.974
X-286.258 Y-74.871
X-286.249 Y-74.859
X-286.111 Y-74.646
X-286.034 Y-74.405
X-286.022 Y-74.152
X-286.077 Y-73.905
X-286.193 Y-73.68
X-286.364 Y-73.493
X-286.686 Y-73.223
G3 X-287.15 Y-73.351 I-0.185 J-0.236
G1 X-287.685 Y-74.731
G3 X-287.676 Y-74.968 I0.28 J-0.108
X-287.606 Y-75.062 I0.271 J0.129
G1 X-287.263 Y-75.35
X-287.143 Y-75.441
X-287.003 Y-75.494
X-286.855 Y-75.518
X-286.705
X-286.556 Y-75.497
X-286.412 Y-75.456
X-286.275 Y-75.396
X-286.145 Y-75.32
X-286.027 Y-75.228
X-285.919 Y-75.123
X-285.912 Y-75.114
X-285.781 Y-74.901
X-285.709 Y-74.662
X-285.7 Y-74.413
X-285.756 Y-74.169
X-285.872 Y-73.948
X-286.041 Y-73.764
X-286.364 Y-73.493
G3 X-286.469 Y-73.441 I-0.185 J-0.236
X-286.831 Y-73.626 I-0.08 J-0.289
G1 X-287.343 Y-75.024
G3 X-287.333 Y-75.257 I0.282 J-0.103
X-287.263 Y-75.35 I0.271 J0.129
G1 X-286.961 Y-75.603
X-286.842 Y-75.694
X-286.704 Y-75.754
X-286.557 Y-75.784
X-286.408 Y-75.789
X-286.259 Y-75.772
X-286.113 Y-75.734
X-285.975 Y-75.677
X-285.844 Y-75.604
X-285.723 Y-75.515
X-285.614 Y-75.412
X-285.604 Y-75.401
X-285.467 Y-75.188
X-285.39 Y-74.947
X-285.378 Y-74.694
X-285.432 Y-74.446
X-285.549 Y-74.221
X-285.72 Y-74.034
X-286.041 Y-73.764
G3 X-286.506 Y-73.892 I-0.185 J-0.236
G1 X-287.04 Y-75.272
G3 X-286.961 Y-75.603 I0.28 J-0.108
G1 X-286.624 Y-75.886
X-286.504 Y-75.977
X-286.365 Y-76.032
X-286.217 Y-76.058
X-286.067 Y-76.059
X-285.918 Y-76.039
X-285.774 Y-75.999
X-285.636 Y-75.939
X-285.506 Y-75.864
X-285.387 Y-75.773
X-285.279 Y-75.669
X-285.271 Y-75.659
X-285.139 Y-75.446
X-285.065 Y-75.207
X-285.056 Y-74.956
X-285.111 Y-74.712
X-285.227 Y-74.49
X-285.397 Y-74.305
X-285.72 Y-74.034
G3 X-286.185 Y-74.166 I-0.185 J-0.236
G1 X-286.704 Y-75.559
G3 X-286.694 Y-75.793 I0.281 J-0.105
X-286.624 Y-75.886 I0.271 J0.129
G1 X-286.294 Y-76.163
X-286.174 Y-76.254
X-286.034 Y-76.307
X-285.886 Y-76.331
X-285.736 Y-76.33
X-285.587 Y-76.308
X-285.443 Y-76.267
X-285.306 Y-76.207
X-285.177 Y-76.131
X-285.058 Y-76.039
X-284.951 Y-75.934
X-284.945 Y-75.926
X-284.814 Y-75.713
X-284.741 Y-75.474
X-284.733 Y-75.225
X-284.789 Y-74.981
X-284.905 Y-74.76
X-285.074 Y-74.576
X-285.397 Y-74.305
G3 X-285.863 Y-74.438 I-0.185 J-0.236
G1 X-286.375 Y-75.837
G3 X-286.364 Y-76.069 I0.282 J-0.103
X-286.294 Y-76.163 I0.271 J0.129
G1 X-285.993 Y-76.416
X-285.873 Y-76.506
X-285.736 Y-76.567
X-285.589 Y-76.596
X-285.439 Y-76.601
X-285.29 Y-76.583
X-285.145 Y-76.546
X-285.006 Y-76.489
X-284.875 Y-76.415
X-284.754 Y-76.326
X-284.646 Y-76.223
X-284.636 Y-76.212
X-284.499 Y-75.999
X-284.422 Y-75.758
X-284.41 Y-75.505
X-284.465 Y-75.258
X-284.581 Y-75.033
X-284.752 Y-74.846
X-285.074 Y-74.576
G3 X-285.538 Y-74.704 I-0.185 J-0.236
G1 X-286.072 Y-76.085
G3 X-285.993 Y-76.416 I0.28 J-0.108
G1 X-285.658 Y-76.697
X-285.538 Y-76.787
X-285.399 Y-76.843
X-285.251 Y-76.869
X-285.101 Y-76.871
X-284.953 Y-76.851
X-284.808 Y-76.811
X-284.67 Y-76.752
X-284.54 Y-76.677
X-284.421 Y-76.586
X-284.313 Y-76.482
X-284.305 Y-76.472
X-284.172 Y-76.259
X-284.098 Y-76.02
X-284.088 Y-75.769
X-284.144 Y-75.524
X-284.26 Y-75.302
X-284.43 Y-75.117
X-284.752 Y-74.846
G3 X-284.857 Y-74.794 I-0.185 J-0.236
X-285.218 Y-74.978 I-0.08 J-0.289
G1 X-285.738 Y-76.369
G3 X-285.728 Y-76.603 I0.281 J-0.105
X-285.658 Y-76.697 I0.271 J0.129
G1 X-285.331 Y-76.971
X-285.212 Y-77.061
X-285.072 Y-77.116
X-284.924 Y-77.141
X-284.774 Y-77.142
X-284.626 Y-77.121
X-284.481 Y-77.081
X-284.344 Y-77.021
X-284.214 Y-76.945
X-284.095 Y-76.854
X-283.987 Y-76.749
X-283.98 Y-76.741
X-283.848 Y-76.528
X-283.775 Y-76.288
X-283.766 Y-76.038
X-283.821 Y-75.794
X-283.937 Y-75.572
X-284.107 Y-75.388
X-284.43 Y-75.117
G3 X-284.534 Y-75.064 I-0.185 J-0.236
X-284.896 Y-75.249 I-0.08 J-0.289
G1 X-285.412 Y-76.644
G3 X-285.401 Y-76.877 I0.281 J-0.104
X-285.331 Y-76.971 I0.271 J0.129
G1 X-285.014 Y-77.237
X-284.894 Y-77.328
X-284.755 Y-77.384
X-284.608 Y-77.411
X-284.458 Y-77.412
X-284.309 Y-77.392
X-284.164 Y-77.353
X-284.026 Y-77.294
X-283.896 Y-77.219
X-283.777 Y-77.129
X-283.669 Y-77.025
X-283.661 Y-77.015
X-283.527 Y-76.803
X-283.453 Y-76.562
X-283.443 Y-76.311
X-283.498 Y-76.066
X-283.614 Y-75.843
X-283.784 Y-75.658
X-284.107 Y-75.388
G3 X-284.572 Y-75.519 I-0.185 J-0.236
G1 X-285.094 Y-76.909
G3 X-285.014 Y-77.237 I0.281 J-0.105
G1 X-284.704 Y-77.497
X-284.585 Y-77.588
X-284.447 Y-77.648
X-284.3 Y-77.678
X-284.151 Y-77.683
X-284.002 Y-77.665
X-283.856 Y-77.628
X-283.718 Y-77.571
X-283.587 Y-77.498
X-283.466 Y-77.409
X-283.357 Y-77.306
X-283.347 Y-77.294
X-283.21 Y-77.082
X-283.133 Y-76.84
X-283.121 Y-76.587
X-283.175 Y-76.34
X-283.292 Y-76.115
X-283.463 Y-75.928
X-283.784 Y-75.658
G3 X-283.889 Y-75.606 I-0.185 J-0.236
X-284.249 Y-75.786 I-0.08 J-0.289
G1 X-284.783 Y-77.166
G3 X-284.704 Y-77.497 I0.28 J-0.108
G1 X-284.382 Y-77.768
X-284.262 Y-77.858
X-284.125 Y-77.918
X-283.978 Y-77.948
X-283.828 Y-77.953
X-283.679 Y-77.935
X-283.534 Y-77.898
X-283.395 Y-77.84
X-283.264 Y-77.767
X-283.144 Y-77.678
X-283.034 Y-77.575
X-283.025 Y-77.563
X-282.888 Y-77.35
X-282.811 Y-77.109
X-282.799 Y-76.857
X-282.853 Y-76.609
X-282.97 Y-76.385
X-283.141 Y-76.198
X-283.463 Y-75.928
G3 X-283.567 Y-75.875 I-0.185 J-0.236
X-283.927 Y-76.056 I-0.08 J-0.289
G1 X-284.461 Y-77.436
G3 X-284.382 Y-77.768 I0.28 J-0.108
G1 X-284.06 Y-78.038
X-283.94 Y-78.128
X-283.803 Y-78.188
X-283.656 Y-78.218
X-283.506 Y-78.223
X-283.357 Y-78.205
X-283.212 Y-78.168
X-283.073 Y-78.11
X-282.942 Y-78.037
X-282.822 Y-77.948
X-282.713 Y-77.845
X-282.703 Y-77.833
X-282.566 Y-77.62
X-282.489 Y-77.379
X-282.477 Y-77.126
X-282.532 Y-76.879
X-282.648 Y-76.655
X-282.819 Y-76.468
X-283.141 Y-76.198
G3 X-283.245 Y-76.145 I-0.185 J-0.236
X-283.605 Y-76.326 I-0.08 J-0.289
G1 X-284.139 Y-77.707
G3 X-284.13 Y-77.944 I0.28 J-0.108
X-284.06 Y-78.038 I0.271 J0.129
G1 X-283.716 Y-78.326
X-283.596 Y-78.417
X-283.456 Y-78.469
X-283.308 Y-78.494
X-283.158 Y-78.493
X-283.009 Y-78.471
X-282.865 Y-78.43
X-282.728 Y-78.369
X-282.599 Y-78.294
X-282.48 Y-78.201
X-282.373 Y-78.096
X-282.366 Y-78.088
X-282.235 Y-77.875
X-282.164 Y-77.636
X-282.155 Y-77.387
X-282.211 Y-77.144
X-282.327 Y-76.923
X-282.496 Y-76.739
X-282.819 Y-76.468
G3 X-283.286 Y-76.602 I-0.185 J-0.236
G1 X-283.797 Y-78
G3 X-283.786 Y-78.233 I0.282 J-0.103
X-283.716 Y-78.326 I0.271 J0.129
G1 X-283.416 Y-78.578
X-283.297 Y-78.668
X-283.159 Y-78.729
X-283.012 Y-78.759
X-282.862 Y-78.764
X-282.714 Y-78.746
X-282.568 Y-78.709
X-282.429 Y-78.652
X-282.299 Y-78.579
X-282.178 Y-78.49
X-282.069 Y-78.387
X-282.059 Y-78.376
X-281.922 Y-78.163
X-281.845 Y-77.922
X-281.832 Y-77.669
X-281.887 Y-77.421
X-282.003 Y-77.196
X-282.174 Y-77.009
X-282.496 Y-76.739
G3 X-282.601 Y-76.687 I-0.185 J-0.236
X-282.961 Y-76.867 I-0.08 J-0.289
G1 X-283.495 Y-78.246
G3 X-283.486 Y-78.484 I0.28 J-0.108
X-283.416 Y-78.578 I0.271 J0.129
G1 X-283.078 Y-78.861
X-282.959 Y-78.952
X-282.819 Y-79.007
X-282.671 Y-79.033
X-282.521 Y-79.034
X-282.373 Y-79.014
X-282.228 Y-78.974
X-282.091 Y-78.914
X-281.961 Y-78.839
X-281.842 Y-78.748
X-281.734 Y-78.643
X-281.726 Y-78.634
X-281.593 Y-78.421
X-281.52 Y-78.181
X-281.511 Y-77.931
X-281.566 Y-77.687
X-281.682 Y-77.465
X-281.852 Y-77.28
X-282.174 Y-77.009
G3 X-282.279 Y-76.956 I-0.185 J-0.236
X-282.64 Y-77.141 I-0.08 J-0.289
G1 X-283.159 Y-78.534
G3 X-283.078 Y-78.861 I0.281 J-0.105
G1 X-282.749 Y-79.137
X-282.63 Y-79.228
X-282.49 Y-79.281
X-282.341 Y-79.305
X-282.191
X-282.043 Y-79.283
X-281.899 Y-79.242
X-281.762 Y-79.182
X-281.632 Y-79.106
X-281.514 Y-79.014
X-281.406 Y-78.909
X-281.4 Y-78.901
X-281.269 Y-78.688
X-281.196 Y-78.449
X-281.188 Y-78.2
X-281.243 Y-77.956
X-281.36 Y-77.735
X-281.529 Y-77.551
X-281.852 Y-77.28
G3 X-282.318 Y-77.413 I-0.185 J-0.236
G1 X-282.83 Y-78.811
G3 X-282.749 Y-79.137 I0.282 J-0.103
G1 X-282.447 Y-79.391
X-282.327 Y-79.482
X-282.19 Y-79.542
X-282.043 Y-79.571
X-281.893 Y-79.576
X-281.744 Y-79.558
X-281.599 Y-79.52
X-281.46 Y-79.463
X-281.329 Y-79.389
X-281.209 Y-79.3
X-281.1 Y-79.197
X-281.091 Y-79.186
X-280.954 Y-78.973
X-280.877 Y-78.732
X-280.865 Y-78.48
X-280.919 Y-78.232
X-281.036 Y-78.008
X-281.207 Y-77.821
X-281.529 Y-77.551
G3 X-281.993 Y-77.679 I-0.185 J-0.236
G1 X-282.526 Y-79.06
G3 X-282.517 Y-79.297 I0.28 J-0.108
X-282.447 Y-79.391 I0.271 J0.129
G1 X-282.113 Y-79.671
X-281.994 Y-79.762
X-281.854 Y-79.817
X-281.707 Y-79.844
X-281.557 Y-79.846
X-281.408 Y-79.826
X-281.263 Y-79.786
X-281.126 Y-79.727
X-280.996 Y-79.652
X-280.876 Y-79.561
X-280.768 Y-79.457
X-280.76 Y-79.447
X-280.627 Y-79.235
X-280.553 Y-78.995
X-280.543 Y-78.744
X-280.598 Y-78.499
X-280.715 Y-78.277
X-280.884 Y-78.092
X-281.207 Y-77.821
G3 X-281.311 Y-77.768 I-0.185 J-0.236
X-281.673 Y-77.952 I-0.08 J-0.289
G1 X-282.193 Y-79.343
G3 X-282.113 Y-79.671 I0.281 J-0.105
G1 X-281.787 Y-79.945
X-281.667 Y-80.035
X-281.528 Y-80.09
X-281.38 Y-80.116
X-281.23
X-281.081 Y-80.095
X-280.937 Y-80.056
X-280.799 Y-79.996
X-280.669 Y-79.92
X-280.55 Y-79.829
X-280.443 Y-79.724
X-280.436 Y-79.716
X-280.303 Y-79.503
X-280.23 Y-79.264
X-280.221 Y-79.013
X-280.276 Y-78.769
X-280.392 Y-78.547
X-280.562 Y-78.362
X-280.884 Y-78.092
G3 X-280.989 Y-78.039 I-0.185 J-0.236
X-281.35 Y-78.224 I-0.08 J-0.289
G1 X-281.867 Y-79.618
G3 X-281.857 Y-79.851 I0.281 J-0.104
X-281.787 Y-79.945 I0.271 J0.129
G1 X-281.467 Y-80.213
X-281.348 Y-80.303
X-281.209 Y-80.359
X-281.061 Y-80.386
X-280.911 Y-80.387
X-280.762 Y-80.367
X-280.618 Y-80.328
X-280.48 Y-80.268
X-280.35 Y-80.193
X-280.231 Y-80.102
X-280.123 Y-79.998
X-280.115 Y-79.989
X-279.982 Y-79.776
X-279.908 Y-79.536
X-279.898 Y-79.285
X-279.953 Y-79.04
X-280.069 Y-78.818
X-280.239 Y-78.633
X-280.562 Y-78.362
G3 X-280.666 Y-78.31 I-0.185 J-0.236
X-281.027 Y-78.494 I-0.08 J-0.289
G1 X-281.548 Y-79.885
G3 X-281.537 Y-80.119 I0.281 J-0.105
X-281.467 Y-80.213 I0.271 J0.129
G1 X-281.157 Y-80.473
X-281.037 Y-80.564
X-280.9 Y-80.624
X-280.753 Y-80.653
X-280.603 Y-80.658
X-280.454 Y-80.64
X-280.309 Y-80.602
X-280.17 Y-80.545
X-280.039 Y-80.471
X-279.919 Y-80.382
X-279.81 Y-80.279
X-279.801 Y-80.268
X-279.664 Y-80.055
X-279.587 Y-79.814
X-279.576 Y-79.561
X-279.63 Y-79.314
X-279.747 Y-79.09
X-279.917 Y-78.903
X-280.239 Y-78.633
G3 X-280.344 Y-78.58 I-0.185 J-0.236
X-280.704 Y-78.761 I-0.08 J-0.289
G1 X-281.236 Y-80.143
G3 X-281.157 Y-80.473 I0.28 J-0.108
G1 X-280.837 Y-80.742
X-280.718 Y-80.832
X-280.58 Y-80.893
X-280.433 Y-80.923
X-280.284 Y-80.927
X-280.135 Y-80.91
X-279.989 Y-80.873
X-279.851 Y-80.816
X-279.72 Y-80.742
X-279.599 Y-80.653
X-279.49 Y-80.55
X-279.48 Y-80.539
X-279.343 Y-80.326
X-279.266 Y-80.085
X-279.254 Y-79.832
X-279.308 Y-79.584
X-279.425 Y-79.36
X-279.596 Y-79.173
X-279.917 Y-78.903
G3 X-280.022 Y-78.85 I-0.185 J-0.236
X-280.382 Y-79.031 I-0.08 J-0.289
G1 X-280.916 Y-80.41
G3 X-280.907 Y-80.648 I0.28 J-0.108
X-280.837 Y-80.742 I0.271 J0.129
G1 X-280.514 Y-81.013
X-280.394 Y-81.104
X-280.257 Y-81.164
X-280.11 Y-81.193
X-279.96 Y-81.197
X-279.811 Y-81.18
X-279.666 Y-81.142
X-279.527 Y-81.085
X-279.396 Y-81.011
X-279.276 Y-80.922
X-279.167 Y-80.819
X-279.157 Y-80.807
X-279.02 Y-80.595
X-278.944 Y-80.354
X-278.932 Y-80.101
X-278.987 Y-79.854
X-279.103 Y-79.629
X-279.274 Y-79.443
X-279.596 Y-79.173
G3 X-280.06 Y-79.301 I-0.185 J-0.236
G1 X-280.593 Y-80.682
G3 X-280.584 Y-80.919 I0.28 J-0.108
X-280.514 Y-81.013 I0.271 J0.129
G1 X-280.169 Y-81.302
X-280.049 Y-81.393
X-279.909 Y-81.445
X-279.761 Y-81.469
X-279.611 Y-81.468
X-279.462 Y-81.446
X-279.318 Y-81.405
X-279.181 Y-81.344
X-279.052 Y-81.268
X-278.934 Y-81.175
X-278.827 Y-81.07
X-278.82 Y-81.062
X-278.69 Y-80.849
X-278.618 Y-80.61
X-278.61 Y-80.361
X-278.666 Y-80.118
X-278.782 Y-79.898
X-278.951 Y-79.714
X-279.274 Y-79.443
G3 X-279.741 Y-79.577 I-0.185 J-0.236
G1 X-280.25 Y-80.977
G3 X-280.239 Y-81.209 I0.282 J-0.103
X-280.169 Y-81.302 I0.271 J0.129
G1 X-279.871 Y-81.552
X-279.751 Y-81.643
X-279.614 Y-81.704
X-279.467 Y-81.734
X-279.317 Y-81.739
X-279.169 Y-81.721
X-279.023 Y-81.684
X-278.884 Y-81.627
X-278.754 Y-81.554
X-278.633 Y-81.465
X-278.524 Y-81.362
X-278.512 Y-81.349
X-278.372 Y-81.131
X-278.295 Y-80.884
X-278.287 Y-80.625
X-278.347 Y-80.373
X-278.472 Y-80.146
X-278.653 Y-79.961
X-278.721 Y-79.907
X-278.951 Y-79.714
G3 X-279.415 Y-79.842 I-0.185 J-0.236
G1 X-279.95 Y-81.221
G3 X-279.941 Y-81.459 I0.28 J-0.108
X-279.871 Y-81.552 I0.271 J0.129
G1 X-279.533 Y-81.836
X-279.413 Y-81.927
X-279.274 Y-81.982
X-279.126 Y-82.008
X-278.976 Y-82.009
X-278.827 Y-81.988
X-278.683 Y-81.949
X-278.545 Y-81.889
X-278.415 Y-81.814
X-278.296 Y-81.723
X-278.188 Y-81.619
X-278.093 Y-81.503
X-278.012 Y-81.376
X-277.933 Y-81.147
X-277.915 Y-80.906
X-277.96 Y-80.668
X-278.066 Y-80.449
X-278.224 Y-80.266
X-278.424 Y-80.129
G3 X-278.802 Y-80.239 I-0.126 J-0.272
G1 X-279.584 Y-81.45
G3 X-279.603 Y-81.742 I0.252 J-0.163
X-279.533 Y-81.836 I0.271 J0.129
G1 X-279.205 Y-82.111
X-279.085 Y-82.202
X-278.945 Y-82.255
X-278.797 Y-82.28
X-278.647
X-278.499 Y-82.258
X-278.354 Y-82.218
X-278.216 Y-82.161
X-278.084 Y-82.088
X-277.963 Y-82
X-277.852 Y-81.899
X-277.753 Y-81.787
X-277.708 Y-81.722
X-277.594 Y-81.5
X-277.54 Y-81.257
X-277.548 Y-81.008
X-277.619 Y-80.769
X-277.748 Y-80.555
X-277.927 Y-80.381
X-278.143 Y-80.258
X-278.285 Y-80.199
X-278.424 Y-80.129
G3 X-278.837 Y-80.314 I-0.126 J-0.272
G1 X-279.291 Y-81.801
G3 X-279.275 Y-82.018 I0.287 J-0.088
X-279.205 Y-82.111 I0.271 J0.129
G1 X-278.961 Y-82.316
X-278.874 Y-82.385
X-278.852 Y-82.402
X-278.817 Y-82.42
X-278.781 Y-82.433
X-278.746 Y-82.441
X-278.711 Y-82.445
X-278.569 Y-82.435
X-278.172 Y-82.4
X-278.024 Y-82.38
X-277.879 Y-82.339
X-277.743 Y-82.276
X-277.616 Y-82.196
X-277.5 Y-82.101
X-277.398 Y-81.991
X-277.308 Y-81.871
X-277.234 Y-81.741
X-277.174 Y-81.603
X-277.131 Y-81.459
X-277.129 Y-81.446
X-277.115 Y-81.197
X-277.166 Y-80.952
X-277.278 Y-80.728
X-277.444 Y-80.541
X-277.652 Y-80.402
X-277.889 Y-80.321
G3 X-278.006 Y-80.325 I-0.049 J-0.296
X-278.233 Y-80.568 I0.068 J-0.292
G1 X-278.484 Y-82.051
G3 X-278.288 Y-82.383 I0.296 J-0.05
X-278.172 Y-82.4 I0.1 J0.283
G1 X-277.605 Y-82.35
X-277.456 Y-82.33
X-277.315 Y-82.281
X-277.184 Y-82.208
X-277.066 Y-82.115
X-276.962 Y-82.007
X-276.875 Y-81.885
X-276.802 Y-81.753
X-276.748 Y-81.613
X-276.71 Y-81.468
X-276.705 Y-81.43
X-276.703 Y-81.196
X-276.757 Y-80.968
X-276.864 Y-80.76
X-277.018 Y-80.584
X-277.21 Y-80.45
X-277.428 Y-80.366
X-277.661 Y-80.337
G3 X-277.775 Y-80.363 I0.01 J-0.3
X-277.951 Y-80.643 I0.124 J-0.273
G1 X-277.921 Y-82.057
G3 X-277.721 Y-82.334 I0.3 J0.006
X-277.605 Y-82.35 I0.1 J0.283
G1 X-277.108 Y-82.307
X-276.959 Y-82.286
X-276.82 Y-82.23
X-276.695 Y-82.148
X-276.584 Y-82.047
X-276.489 Y-81.931
X-276.412 Y-81.803
X-276.352 Y-81.665
X-276.309 Y-81.521
X-276.284 Y-81.373
X-276.278 Y-81.223
Y-81.216
X-276.329 Y-80.966
X-276.444 Y-80.738
X-276.614 Y-80.548
X-276.828 Y-80.408
X-277.07 Y-80.33
X-277.325 Y-80.318
X-277.435 Y-80.328
X-277.576 Y-80.337
X-277.661
G3 X-277.775 Y-80.363 I0.01 J-0.3
X-277.931 Y-80.744 I0.124 J-0.273
G1 X-277.404 Y-82.115
G3 X-277.224 Y-82.29 I0.28 J0.108
X-277.108 Y-82.307 I0.1 J0.283
G1 X-276.683 Y-82.27
X-276.534 Y-82.249
X-276.394 Y-82.195
X-276.269 Y-82.112
X-276.159 Y-82.01
X-276.066 Y-81.893
X-275.988 Y-81.764
X-275.93 Y-81.626
X-275.889 Y-81.482
X-275.866 Y-81.333
X-275.861 Y-81.184
X-275.862 Y-81.168
X-275.915 Y-80.92
X-276.031 Y-80.695
X-276.202 Y-80.507
X-276.415 Y-80.37
X-276.657 Y-80.293
X-276.91 Y-80.282
X-277.325 Y-80.318
G3 X-277.564 Y-80.736 I0.036 J-0.298
G1 X-276.973 Y-82.09
G3 X-276.799 Y-82.253 I0.275 J0.12
X-276.683 Y-82.27 I0.1 J0.283
G1 X-276.257 Y-82.233
X-276.109 Y-82.212
X-275.969 Y-82.157
X-275.845 Y-82.073
X-275.736 Y-81.97
X-275.643 Y-81.852
X-275.567 Y-81.723
X-275.51 Y-81.584
X-275.469 Y-81.44
X-275.447 Y-81.291
X-275.443 Y-81.142
X-275.444 Y-81.127
X-275.498 Y-80.88
X-275.615 Y-80.655
X-275.785 Y-80.469
X-275.998 Y-80.333
X-276.239 Y-80.256
X-276.492 Y-80.245
X-276.91 Y-80.282
G3 X-277.148 Y-80.701 I0.037 J-0.298
G1 X-276.547 Y-82.055
G3 X-276.373 Y-82.216 I0.274 J0.122
X-276.257 Y-82.233 I0.1 J0.283
G1 X-275.832 Y-82.195
X-275.683 Y-82.175
X-275.545 Y-82.118
X-275.421 Y-82.033
X-275.313 Y-81.929
X-275.221 Y-81.811
X-275.145 Y-81.681
X-275.089 Y-81.542
X-275.049 Y-81.398
X-275.028 Y-81.249
X-275.025 Y-81.099
X-275.026 Y-81.085
X-275.081 Y-80.84
X-275.198 Y-80.616
X-275.368 Y-80.431
X-275.581 Y-80.295
X-275.821 Y-80.22
X-276.073 Y-80.209
X-276.492 Y-80.245
G3 X-276.603 Y-80.282 I0.037 J-0.298
X-276.729 Y-80.666 I0.148 J-0.261
G1 X-276.121 Y-82.019
G3 X-275.832 Y-82.195 I0.274 J0.123
G1 X-275.407 Y-82.158
X-275.258 Y-82.138
X-275.12 Y-82.079
X-274.997 Y-81.994
X-274.889 Y-81.889
X-274.798 Y-81.77
X-274.724 Y-81.64
X-274.668 Y-81.5
X-274.629 Y-81.355
X-274.609 Y-81.207
X-274.606 Y-81.057
X-274.607 Y-81.044
X-274.663 Y-80.799
X-274.78 Y-80.577
X-274.951 Y-80.392
X-275.163 Y-80.258
X-275.403 Y-80.183
X-275.654 Y-80.172
X-276.073 Y-80.209
G3 X-276.184 Y-80.245 I0.037 J-0.298
X-276.31 Y-80.631 I0.148 J-0.261
G1 X-275.696 Y-81.983
G3 X-275.523 Y-82.141 I0.273 J0.124
X-275.407 Y-82.158 I0.1 J0.283
G1 X-274.981 Y-82.121
X-274.833 Y-82.1
X-274.695 Y-82.04
X-274.573 Y-81.954
X-274.466 Y-81.848
X-274.376 Y-81.729
X-274.302 Y-81.598
X-274.247 Y-81.458
X-274.208 Y-81.314
X-274.189 Y-81.165
X-274.187 Y-81.015
X-274.188 Y-81.003
X-274.244 Y-80.759
X-274.362 Y-80.538
X-274.532 Y-80.354
X-274.744 Y-80.221
X-274.984 Y-80.146
X-275.234 Y-80.135
X-275.654 Y-80.172
G3 X-275.89 Y-80.595 I0.037 J-0.298
G1 X-275.27 Y-81.946
G3 X-275.097 Y-82.104 I0.273 J0.125
X-274.981 Y-82.121 I0.1 J0.283
G1 X-274.556 Y-82.084
X-274.407 Y-82.063
X-274.271 Y-82.002
X-274.149 Y-81.914
X-274.043 Y-81.808
X-273.953 Y-81.688
X-273.88 Y-81.557
X-273.826 Y-81.417
X-273.788 Y-81.272
X-273.769 Y-81.123
X-273.767 Y-80.973
X-273.768 Y-80.963
X-273.826 Y-80.72
X-273.943 Y-80.499
X-274.114 Y-80.316
X-274.326 Y-80.183
X-274.564 Y-80.109
X-274.814 Y-80.099
X-275.234 Y-80.135
G3 X-275.345 Y-80.172 I0.037 J-0.298
X-275.47 Y-80.559 I0.148 J-0.261
G1 X-274.844 Y-81.91
G3 X-274.556 Y-82.084 I0.272 J0.126
G1 X-274.131 Y-82.047
X-273.982 Y-82.026
X-273.846 Y-81.963
X-273.725 Y-81.875
X-273.619 Y-81.768
X-273.53 Y-81.647
X-273.457 Y-81.516
X-273.404 Y-81.376
X-273.367 Y-81.231
X-273.348 Y-81.082
X-273.347 Y-80.932
X-273.348 Y-80.923
X-273.406 Y-80.68
X-273.524 Y-80.461
X-273.695 Y-80.279
X-273.906 Y-80.146
X-274.144 Y-80.072
X-274.393 Y-80.062
X-274.814 Y-80.099
G3 X-274.925 Y-80.135 I0.037 J-0.298
X-275.049 Y-80.523 I0.148 J-0.261
G1 X-274.418 Y-81.874
G3 X-274.247 Y-82.03 I0.272 J0.127
X-274.131 Y-82.047 I0.1 J0.283
G1 X-273.705 Y-82.009
X-273.557 Y-81.989
X-273.421 Y-81.925
X-273.3 Y-81.836
X-273.196 Y-81.728
X-273.107 Y-81.607
X-273.035 Y-81.476
X-272.982 Y-81.335
X-272.945 Y-81.19
X-272.927 Y-81.041
Y-80.891
X-272.928 Y-80.882
X-272.986 Y-80.641
X-273.105 Y-80.422
X-273.275 Y-80.241
X-273.486 Y-80.109
X-273.724 Y-80.035
X-273.973 Y-80.025
X-274.393 Y-80.062
G3 X-274.505 Y-80.098 I0.037 J-0.298
X-274.628 Y-80.487 I0.148 J-0.261
G1 X-273.992 Y-81.838
G3 X-273.705 Y-82.009 I0.271 J0.128
G1 X-273.323 Y-81.976
X-273.174 Y-81.955
X-273.034 Y-81.901
X-272.909 Y-81.818
X-272.8 Y-81.716
X-272.707 Y-81.598
X-272.631 Y-81.469
X-272.573 Y-81.331
X-272.532 Y-81.186
X-272.509 Y-81.038
X-272.505 Y-80.888
X-272.506 Y-80.873
X-272.56 Y-80.626
X-272.676 Y-80.4
X-272.846 Y-80.213
X-273.06 Y-80.076
X-273.301 Y-80
X-273.554 Y-79.988
X-273.973 Y-80.025
G3 X-274.084 Y-80.062 I0.037 J-0.298
X-274.211 Y-80.444 I0.148 J-0.261
G1 X-273.613 Y-81.797
G3 X-273.439 Y-81.959 I0.274 J0.121
X-273.323 Y-81.976 I0.1 J0.283
G1 X-272.898 Y-81.939
X-272.749 Y-81.918
X-272.61 Y-81.862
X-272.485 Y-81.778
X-272.377 Y-81.675
X-272.285 Y-81.556
X-272.209 Y-81.427
X-272.152 Y-81.288
X-272.112 Y-81.143
X-272.091 Y-80.995
X-272.087 Y-80.845
X-272.088 Y-80.831
X-272.143 Y-80.584
X-272.259 Y-80.36
X-272.43 Y-80.174
X-272.643 Y-80.039
X-272.883 Y-79.963
X-273.136 Y-79.952
X-273.554 Y-79.988
G3 X-273.665 Y-80.025 I0.037 J-0.298
X-273.792 Y-80.409 I0.148 J-0.261
G1 X-273.187 Y-81.761
G3 X-273.013 Y-81.922 I0.274 J0.122
X-272.898 Y-81.939 I0.1 J0.283
G1 X-272.472 Y-81.901
X-272.324 Y-81.881
X-272.185 Y-81.823
X-272.062 Y-81.738
X-271.954 Y-81.634
X-271.863 Y-81.515
X-271.787 Y-81.385
X-271.732 Y-81.246
X-271.692 Y-81.101
X-271.672 Y-80.952
X-271.668 Y-80.802
X-271.67 Y-80.789
X-271.725 Y-80.544
X-271.842 Y-80.321
X-272.013 Y-80.136
X-272.225 Y-80.001
X-272.465 Y-79.926
X-272.716 Y-79.915
X-273.136 Y-79.952
G3 X-273.247 Y-79.988 I0.037 J-0.298
X-273.372 Y-80.373 I0.148 J-0.261
G1 X-272.761 Y-81.725
G3 X-272.588 Y-81.885 I0.273 J0.124
X-272.472 Y-81.901 I0.1 J0.283
G1 X-272.047 Y-81.864
X-271.898 Y-81.844
X-271.76 Y-81.784
X-271.638 Y-81.698
X-271.531 Y-81.593
X-271.44 Y-81.474
X-271.366 Y-81.343
X-271.311 Y-81.204
X-271.272 Y-81.059
X-271.252 Y-80.91
X-271.249 Y-80.76
X-271.25 Y-80.748
X-271.307 Y-80.504
X-271.424 Y-80.282
X-271.595 Y-80.098
X-271.807 Y-79.964
X-272.046 Y-79.889
X-272.297 Y-79.878
X-272.716 Y-79.915
G3 X-272.828 Y-79.952 I0.037 J-0.298
X-272.953 Y-80.337 I0.148 J-0.261
G1 X-272.335 Y-81.689
G3 X-272.163 Y-81.847 I0.273 J0.125
X-272.047 Y-81.864 I0.1 J0.283
G1 X-271.622 Y-81.827
X-271.473 Y-81.806
X-271.336 Y-81.746
X-271.214 Y-81.659
X-271.107 Y-81.553
X-271.017 Y-81.433
X-270.944 Y-81.302
X-270.889 Y-81.162
X-270.851 Y-81.017
X-270.832 Y-80.868
X-270.83 Y-80.718
X-270.831 Y-80.708
X-270.888 Y-80.464
X-271.006 Y-80.243
X-271.176 Y-80.06
X-271.388 Y-79.927
X-271.627 Y-79.852
X-271.877 Y-79.842
X-272.297 Y-79.878
G3 X-272.408 Y-79.915 I0.037 J-0.298
X-272.533 Y-80.302 I0.148 J-0.261
G1 X-271.91 Y-81.653
G3 X-271.737 Y-81.81 I0.272 J0.126
X-271.622 Y-81.827 I0.1 J0.283
G1 X-271.225 Y-81.792
X-271.076 Y-81.772
X-270.937 Y-81.717
X-270.812 Y-81.634
X-270.703 Y-81.531
X-270.61 Y-81.413
X-270.534 Y-81.284
X-270.476 Y-81.145
X-270.436 Y-81.001
X-270.414 Y-80.852
X-270.41 Y-80.702
X-270.411 Y-80.688
X-270.465 Y-80.441
X-270.581 Y-80.216
X-270.751 Y-80.029
X-270.964 Y-79.893
X-271.206 Y-79.816
X-271.458 Y-79.805
X-271.877 Y-79.842
G3 X-272.115 Y-80.261 I0.037 J-0.298
G1 X-271.515 Y-81.614
G3 X-271.341 Y-81.775 I0.274 J0.122
X-271.225 Y-81.792 I0.1 J0.283
G1 X-270.8 Y-81.755
X-270.651 Y-81.735
X-270.512 Y-81.678
X-270.388 Y-81.594
X-270.28 Y-81.49
X-270.188 Y-81.371
X-270.112 Y-81.242
X-270.056 Y-81.103
X-270.016 Y-80.958
X-269.995 Y-80.81
X-269.991 Y-80.66
X-269.992 Y-80.646
X-270.047 Y-80.4
X-270.164 Y-80.176
X-270.335 Y-79.99
X-270.547 Y-79.855
X-270.788 Y-79.779
X-271.04 Y-79.768
X-271.458 Y-79.805
G3 X-271.696 Y-80.226 I0.037 J-0.298
G1 X-271.089 Y-81.578
G3 X-270.8 Y-81.755 I0.274 J0.123
G1 X-270.374 Y-81.718
X-270.226 Y-81.697
X-270.087 Y-81.639
X-269.964 Y-81.554
X-269.857 Y-81.449
X-269.766 Y-81.33
X-269.691 Y-81.2
X-269.635 Y-81.061
X-269.596 Y-80.916
X-269.576 Y-80.767
X-269.573 Y-80.617
X-269.574 Y-80.605
X-269.629 Y-80.359
X-269.747 Y-80.137
X-269.917 Y-79.952
X-270.129 Y-79.818
X-270.369 Y-79.743
X-270.62 Y-79.732
X-271.04 Y-79.768
G3 X-271.276 Y-80.19 I0.037 J-0.298
G1 X-270.663 Y-81.542
G3 X-270.49 Y-81.701 I0.273 J0.124
X-270.374 Y-81.718 I0.1 J0.283
G1 X-269.949 Y-81.681
X-269.8 Y-81.66
X-269.663 Y-81.6
X-269.54 Y-81.514
X-269.433 Y-81.408
X-269.343 Y-81.289
X-269.269 Y-81.158
X-269.214 Y-81.019
X-269.175 Y-80.874
X-269.156 Y-80.725
X-269.153 Y-80.575
X-269.154 Y-80.564
X-269.211 Y-80.319
X-269.329 Y-80.098
X-269.499 Y-79.914
X-269.711 Y-79.78
X-269.95 Y-79.706
X-270.201 Y-79.695
X-270.62 Y-79.732
G3 X-270.732 Y-79.768 I0.037 J-0.298
X-270.857 Y-80.154 I0.148 J-0.261
G1 X-270.237 Y-81.506
G3 X-270.065 Y-81.664 I0.273 J0.125
X-269.949 Y-81.681 I0.1 J0.283
G1 X-269.524 Y-81.643
X-269.375 Y-81.623
X-269.238 Y-81.562
X-269.116 Y-81.474
X-269.01 Y-81.368
X-268.92 Y-81.248
X-268.847 Y-81.117
X-268.793 Y-80.977
X-268.755 Y-80.832
X-268.736 Y-80.683
X-268.734 Y-80.534
X-268.735 Y-80.523
X-268.792 Y-80.28
X-268.91 Y-80.059
X-269.081 Y-79.876
X-269.292 Y-79.743
X-269.531 Y-79.669
X-269.781 Y-79.658
X-270.201 Y-79.695
G3 X-270.436 Y-80.119 I0.037 J-0.298
G1 X-269.811 Y-81.47
G3 X-269.639 Y-81.627 I0.272 J0.126
X-269.524 Y-81.643 I0.1 J0.283
G1 X-269.111 Y-81.607
X-268.962 Y-81.587
X-268.825 Y-81.528
X-268.702 Y-81.441
X-268.595 Y-81.336
X-268.504 Y-81.217
X-268.43 Y-81.086
X-268.375 Y-80.947
X-268.336 Y-80.802
X-268.316 Y-80.653
X-268.314 Y-80.503
X-268.315 Y-80.492
X-268.371 Y-80.247
X-268.488 Y-80.026
X-268.659 Y-79.841
X-268.871 Y-79.707
X-269.11 Y-79.632
X-269.361 Y-79.622
X-269.781 Y-79.658
G3 X-270.017 Y-80.081 I0.037 J-0.298
G1 X-269.4 Y-81.432
G3 X-269.227 Y-81.591 I0.273 J0.125
X-269.111 Y-81.607 I0.1 J0.283
G1 X-268.708 Y-81.572
X-268.559 Y-81.552
X-268.42 Y-81.497
X-268.295 Y-81.413
X-268.186 Y-81.31
X-268.094 Y-81.192
X-268.017 Y-81.063
X-267.96 Y-80.924
X-267.92 Y-80.78
X-267.898 Y-80.631
X-267.894 Y-80.481
X-267.895 Y-80.467
X-267.949 Y-80.22
X-268.065 Y-79.995
X-268.236 Y-79.808
X-268.449 Y-79.672
X-268.69 Y-79.596
X-268.943 Y-79.585
X-269.361 Y-79.622
G3 X-269.472 Y-79.658 I0.037 J-0.298
X-269.599 Y-80.041 I0.148 J-0.261
G1 X-268.998 Y-81.394
G3 X-268.708 Y-81.572 I0.274 J0.122
G1 X-268.283 Y-81.535
X-268.134 Y-81.514
X-267.995 Y-81.457
X-267.871 Y-81.373
X-267.763 Y-81.269
X-267.671 Y-81.15
X-267.596 Y-81.021
X-267.54 Y-80.882
X-267.5 Y-80.737
X-267.479 Y-80.589
X-267.475 Y-80.439
X-267.477 Y-80.425
X-267.532 Y-80.179
X-267.648 Y-79.956
X-267.819 Y-79.77
X-268.031 Y-79.635
X-268.272 Y-79.559
X-268.524 Y-79.548
X-268.943 Y-79.585
G3 X-269.18 Y-80.006 I0.037 J-0.298
G1 X-268.572 Y-81.358
G3 X-268.398 Y-81.518 I0.274 J0.123
X-268.283 Y-81.535 I0.1 J0.283
G1 X-267.857 Y-81.498
X-267.709 Y-81.477
X-267.571 Y-81.419
X-267.447 Y-81.333
X-267.34 Y-81.228
X-267.249 Y-81.109
X-267.174 Y-80.979
X-267.119 Y-80.84
X-267.08 Y-80.695
X-267.059 Y-80.546
X-267.056 Y-80.396
X-267.058 Y-80.384
X-267.114 Y-80.139
X-267.231 Y-79.917
X-267.401 Y-79.732
X-267.614 Y-79.598
X-267.853 Y-79.522
X-268.104 Y-79.512
X-268.524 Y-79.548
G3 X-268.635 Y-79.585 I0.037 J-0.298
X-268.76 Y-79.97 I0.148 J-0.261
G1 X-268.146 Y-81.322
G3 X-267.857 Y-81.498 I0.273 J0.124
G1 X-267.454 Y-81.462
X-267.305 Y-81.442
X-267.165 Y-81.387
X-267.04 Y-81.305
X-266.931 Y-81.202
X-266.838 Y-81.084
X-266.762 Y-80.955
X-266.704 Y-80.816
X-266.664 Y-80.672
X-266.641 Y-80.524
X-266.637 Y-80.374
X-266.638 Y-80.359
X-266.692 Y-80.111
X-266.808 Y-79.886
X-266.978 Y-79.699
X-267.191 Y-79.563
X-267.433 Y-79.486
X-267.686 Y-79.475
X-268.104 Y-79.512
G3 X-268.342 Y-79.931 I0.037 J-0.298
G1 X-267.744 Y-81.284
G3 X-267.57 Y-81.446 I0.274 J0.121
X-267.454 Y-81.462 I0.1 J0.283
G1 X-267.012 Y-81.424
X-266.863 Y-81.403
X-266.726 Y-81.342
X-266.604 Y-81.256
X-266.497 Y-81.15
X-266.407 Y-81.03
X-266.333 Y-80.9
X-266.279 Y-80.76
X-266.24 Y-80.615
X-266.221 Y-80.466
X-266.219 Y-80.316
X-266.22 Y-80.304
X-266.277 Y-80.061
X-266.395 Y-79.84
X-266.565 Y-79.657
X-266.777 Y-79.523
X-267.016 Y-79.449
X-267.266 Y-79.438
X-267.686 Y-79.475
G3 X-267.797 Y-79.512 I0.037 J-0.298
X-267.922 Y-79.898 I0.148 J-0.261
G1 X-267.3 Y-81.25
G3 X-267.128 Y-81.407 I0.273 J0.125
X-267.012 Y-81.424 I0.1 J0.283
G1 X-266.616 Y-81.389
X-266.468 Y-81.369
X-266.328 Y-81.314
X-266.203 Y-81.232
X-266.093 Y-81.129
X-266 Y-81.011
X-265.924 Y-80.882
X-265.866 Y-80.744
X-265.826 Y-80.599
X-265.803 Y-80.451
X-265.799 Y-80.301
X-265.8 Y-80.287
X-265.853 Y-80.039
X-265.969 Y-79.814
X-266.14 Y-79.626
X-266.353 Y-79.489
X-266.594 Y-79.413
X-266.848 Y-79.402
X-267.266 Y-79.438
G3 X-267.377 Y-79.475 I0.037 J-0.298
X-267.504 Y-79.857 I0.148 J-0.261
G1 X-266.906 Y-81.211
G3 X-266.616 Y-81.389 I0.274 J0.121
G1 X-266.191 Y-81.352
X-266.042 Y-81.331
X-265.903 Y-81.275
X-265.779 Y-81.191
X-265.67 Y-81.088
X-265.578 Y-80.969
X-265.502 Y-80.84
X-265.446 Y-80.701
X-265.406 Y-80.557
X-265.384 Y-80.408
X-265.38 Y-80.258
X-265.382 Y-80.244
X-265.436 Y-79.997
X-265.553 Y-79.774
X-265.723 Y-79.588
X-265.936 Y-79.452
X-266.177 Y-79.376
X-266.429 Y-79.365
X-266.848 Y-79.402
G3 X-267.085 Y-79.822 I0.037 J-0.298
G1 X-266.481 Y-81.175
G3 X-266.191 Y-81.352 I0.274 J0.122
G1 X-265.766 Y-81.315
X-265.617 Y-81.294
X-265.479 Y-81.236
X-265.355 Y-81.151
X-265.247 Y-81.047
X-265.156 Y-80.928
X-265.081 Y-80.798
X-265.025 Y-80.659
X-264.986 Y-80.514
X-264.965 Y-80.366
X-264.962 Y-80.216
X-264.963 Y-80.203
X-265.018 Y-79.957
X-265.135 Y-79.734
X-265.306 Y-79.549
X-265.518 Y-79.415
X-265.758 Y-79.339
X-266.01 Y-79.328
X-266.429 Y-79.365
G3 X-266.54 Y-79.402 I0.037 J-0.298
X-266.666 Y-79.786 I0.148 J-0.261
G1 X-266.055 Y-81.139
G3 X-265.881 Y-81.298 I0.273 J0.124
X-265.766 Y-81.315 I0.1 J0.283
G1 X-265.34 Y-81.277
X-265.192 Y-81.257
X-265.054 Y-81.198
X-264.931 Y-81.111
X-264.824 Y-81.006
X-264.734 Y-80.887
X-264.659 Y-80.757
X-264.604 Y-80.617
X-264.565 Y-80.472
X-264.545 Y-80.323
X-264.543 Y-80.174
X-264.544 Y-80.162
X-264.6 Y-79.917
X-264.718 Y-79.695
X-264.888 Y-79.511
X-265.1 Y-79.377
X-265.34 Y-79.302
X-265.59 Y-79.292
X-266.01 Y-79.328
