%
(1001)
(Z0 stock topleft)
(T1  D=22 CR=0 - ZMIN=-3 - flat end mill)
G90 G94
G17
G21

(2D Adaptive3)
M9
T1 M6
(22mm Facing Bit)
S6000 M3
G54
M9
G0 X345.625 Y-50.003
Z15
Z5
Z4.75
G1 Z2.55 F850
G3 X363.974 Y-39.997 Z1.404 I9.175 J5.003 F283.3
X345.625 Y-50.003 Z0.257 I-9.175 J-5.003
X365.042 Y-42.927 Z-0.78 I9.175 J5.003
X353.241 Y-34.667 Z-1.335 I-10.242 J-2.073
X355.321 Y-55.437 Z-2.445 I1.559 J-10.333
X365.25 Y-45 Z-3 I-0.521 J10.437
X344.35 I-10.45
X360.038 Y-54.043 I10.45
X365.24 Y-45.446 I-5.238 J9.043
X365.25 Y-45 I-10.44 J0.446
G1 X365.252 Y-44.575 F850
X365.442 Y-42.883
X365.473 Y-42.782
X365.517 Y-42.622
X365.558 Y-42.445
X365.593 Y-42.249
X365.621 Y-42.036
X365.641 Y-41.806
X365.651 Y-41.558
X365.649 Y-41.293
X365.635 Y-41.013
X365.606 Y-40.717
X365.561 Y-40.408
X365.499 Y-40.085
X365.419 Y-39.751
X365.319 Y-39.407
X365.2 Y-39.054
X365.059 Y-38.694
X364.896 Y-38.328
X364.711 Y-37.959
X364.503 Y-37.588
X364.272 Y-37.217
X364.018 Y-36.847
X363.741 Y-36.481
X363.441 Y-36.121
X363.119 Y-35.767
X362.774 Y-35.423
X362.408 Y-35.089
X362.02 Y-34.767
X361.613 Y-34.459
X361.187 Y-34.166
X360.742 Y-33.89
X360.28 Y-33.632
X359.803 Y-33.393
X359.31 Y-33.174
X358.803 Y-32.976
X358.285 Y-32.8
X357.755 Y-32.648
X357.215 Y-32.519
X356.667 Y-32.414
X356.112 Y-32.334
X355.551 Y-32.279
X354.986 Y-32.25
X354.418 Y-32.247
X353.849 Y-32.27
X353.279 Y-32.32
X352.711 Y-32.395
X352.145 Y-32.497
X351.584 Y-32.625
X351.027 Y-32.779
X350.478 Y-32.958
X349.936 Y-33.163
X349.403 Y-33.393
X348.881 Y-33.647
X348.37 Y-33.926
X347.872 Y-34.228
X347.388 Y-34.552
X346.919 Y-34.899
X346.466 Y-35.268
X346.03 Y-35.657
X345.612 Y-36.065
X345.213 Y-36.493
X344.834 Y-36.939
X344.475 Y-37.402
X344.138 Y-37.882
X343.823 Y-38.376
X343.531 Y-38.884
X343.263 Y-39.406
X343.018 Y-39.939
X342.798 Y-40.484
X342.604 Y-41.037
X342.435 Y-41.6
X342.292 Y-42.169
X342.175 Y-42.745
X342.085 Y-43.325
X342.021 Y-43.909
X341.984 Y-44.496
X341.974 Y-45.084
X341.991 Y-45.671
X342.035 Y-46.257
X342.106 Y-46.841
X342.204 Y-47.42
X342.328 Y-47.995
X342.478 Y-48.564
X342.654 Y-49.125
X342.856 Y-49.677
X343.083 Y-50.219
X343.334 Y-50.751
X343.61 Y-51.271
X343.909 Y-51.777
X344.231 Y-52.269
X344.575 Y-52.746
X344.941 Y-53.207
X345.328 Y-53.65
X345.734 Y-54.075
X346.16 Y-54.481
X346.603 Y-54.867
X347.064 Y-55.233
X347.542 Y-55.577
X348.034 Y-55.898
X348.541 Y-56.197
X349.061 Y-56.472
X349.593 Y-56.723
X350.136 Y-56.95
X350.688 Y-57.151
X351.25 Y-57.327
X351.819 Y-57.476
X352.394 Y-57.6
X352.974 Y-57.697
X353.558 Y-57.767
X354.145 Y-57.811
X354.733 Y-57.828
X355.321 Y-57.817
X355.908 Y-57.78
X356.493 Y-57.716
X357.074 Y-57.625
X357.65 Y-57.507
X358.221 Y-57.363
X358.784 Y-57.193
X359.339 Y-56.998
X359.884 Y-56.777
X360.419 Y-56.532
X360.942 Y-56.262
X361.451 Y-55.969
X361.947 Y-55.652
X362.428 Y-55.313
X362.893 Y-54.953
X363.341 Y-54.571
X363.771 Y-54.169
X364.182 Y-53.748
X364.573 Y-53.309
X364.944 Y-52.852
X365.293 Y-52.379
X365.62 Y-51.89
X365.925 Y-51.387
X366.206 Y-50.87
X366.463 Y-50.341
X366.946 Y-49.218
X367.349 Y-48.151
X367.641 Y-47.255
X367.859 Y-46.463
X368.026 Y-45.724
X368.15 Y-45.035
X368.237 Y-44.377
X368.291 Y-43.737
X368.316 Y-43.114
X368.312 Y-42.507
X368.281 Y-41.913
X368.224 Y-41.328
X368.14 Y-40.752
X368.031 Y-40.184
X367.896 Y-39.623
X367.736 Y-39.068
X367.55 Y-38.521
X367.339 Y-37.982
X367.102 Y-37.45
X366.84 Y-36.928
X366.553 Y-36.415
X366.24 Y-35.913
X365.903 Y-35.422
X365.541 Y-34.945
X365.155 Y-34.481
X364.745 Y-34.032
X364.312 Y-33.599
X363.856 Y-33.184
X363.378 Y-32.787
X362.878 Y-32.409
X362.358 Y-32.052
X361.818 Y-31.717
X361.26 Y-31.405
X360.684 Y-31.117
X360.092 Y-30.854
X359.485 Y-30.617
X358.864 Y-30.407
X358.231 Y-30.225
X357.587 Y-30.071
X356.933 Y-29.947
X356.272 Y-29.852
X355.604 Y-29.787
X354.931 Y-29.752
X354.255 Y-29.749
X353.577 Y-29.777
X352.899 Y-29.835
X352.223 Y-29.926
X351.549 Y-30.047
X350.881 Y-30.2
X350.218 Y-30.383
X349.563 Y-30.597
X348.917 Y-30.841
X348.282 Y-31.116
X347.66 Y-31.419
X347.05 Y-31.752
X346.456 Y-32.112
X345.878 Y-32.5
X345.318 Y-32.914
X344.777 Y-33.354
X344.256 Y-33.819
X343.757 Y-34.308
X343.28 Y-34.82
X342.826 Y-35.353
X342.398 Y-35.907
X341.994 Y-36.481
X341.618 Y-37.073
X341.268 Y-37.682
X340.947 Y-38.306
X340.654 Y-38.945
X340.391 Y-39.597
X340.158 Y-40.261
X339.956 Y-40.935
X339.785 Y-41.617
X339.645 Y-42.307
X339.537 Y-43.003
X339.461 Y-43.704
X339.417 Y-44.407
X339.405 Y-45.112
X339.426 Y-45.816
X339.479 Y-46.519
X339.564 Y-47.219
X339.681 Y-47.915
X339.83 Y-48.604
X340.011 Y-49.286
X340.222 Y-49.959
X340.465 Y-50.622
X340.737 Y-51.273
X341.039 Y-51.91
X341.37 Y-52.534
X341.729 Y-53.141
X342.116 Y-53.732
X342.529 Y-54.304
X342.968 Y-54.857
X343.432 Y-55.389
X343.92 Y-55.899
X344.431 Y-56.386
X344.964 Y-56.85
X345.517 Y-57.288
X346.09 Y-57.701
X346.682 Y-58.087
X347.29 Y-58.445
X347.914 Y-58.775
X348.553 Y-59.076
X349.205 Y-59.348
X349.868 Y-59.59
X350.542 Y-59.8
X351.225 Y-59.98
X351.916 Y-60.128
X352.612 Y-60.244
X353.314 Y-60.329
X354.018 Y-60.381
X354.724 Y-60.4
X355.43 Y-60.388
X356.135 Y-60.343
X356.837 Y-60.265
X357.535 Y-60.156
X358.227 Y-60.015
X358.911 Y-59.842
X359.587 Y-59.638
X360.254 Y-59.403
X360.908 Y-59.138
X361.55 Y-58.843
X362.177 Y-58.519
X362.789 Y-58.166
X363.385 Y-57.786
X363.962 Y-57.379
X364.52 Y-56.946
X365.057 Y-56.488
X365.573 Y-56.005
X366.078 Y-55.488
X366.6 Y-54.901
X367.133 Y-54.244
X367.649 Y-53.544
X368.139 Y-52.812
X368.598 Y-52.054
X369.019 Y-51.279
X369.399 Y-50.496
X369.738 Y-49.709
X370.034 Y-48.922
X370.29 Y-48.136
X370.506 Y-47.352
X370.683 Y-46.571
X370.821 Y-45.795
X370.923 Y-45.025
X370.988 Y-44.261
X371.018 Y-43.503
X371.013 Y-42.753
X370.974 Y-42.01
X370.902 Y-41.275
X370.796 Y-40.549
X370.658 Y-39.832
X370.488 Y-39.124
X370.286 Y-38.425
X370.052 Y-37.738
X369.787 Y-37.062
X369.492 Y-36.399
X369.165 Y-35.749
X368.809 Y-35.113
X368.423 Y-34.494
X368.008 Y-33.891
X367.564 Y-33.305
X367.092 Y-32.739
X366.593 Y-32.193
X366.068 Y-31.668
X365.516 Y-31.166
X364.94 Y-30.687
X364.339 Y-30.234
X363.716 Y-29.806
X363.07 Y-29.406
X362.404 Y-29.034
X361.719 Y-28.691
X361.015 Y-28.379
X360.295 Y-28.098
X359.559 Y-27.85
X358.81 Y-27.634
X358.049 Y-27.453
X357.278 Y-27.306
X356.497 Y-27.194
X355.71 Y-27.118
X354.918 Y-27.077
X354.122 Y-27.074
X353.325 Y-27.106
X352.527 Y-27.176
X351.732 Y-27.282
X350.94 Y-27.425
X350.155 Y-27.604
X349.376 Y-27.82
X348.606 Y-28.072
X347.848 Y-28.359
X347.102 Y-28.682
X346.37 Y-29.039
X345.655 Y-29.429
X344.957 Y-29.853
X344.278 Y-30.309
X343.62 Y-30.796
X342.984 Y-31.313
X342.372 Y-31.86
X341.785 Y-32.435
X341.225 Y-33.036
X340.692 Y-33.664
X340.188 Y-34.315
X339.714 Y-34.99
X339.271 Y-35.686
X338.86 Y-36.402
X338.483 Y-37.136
X338.139 Y-37.888
X337.83 Y-38.655
X337.556 Y-39.436
X337.318 Y-40.228
X337.117 Y-41.032
X336.953 Y-41.843
X336.826 Y-42.662
X336.737 Y-43.486
X336.685 Y-44.314
X336.672 Y-45.143
X336.696 Y-45.972
X336.759 Y-46.8
X336.859 Y-47.624
X336.997 Y-48.442
X337.173 Y-49.254
X337.386 Y-50.056
X337.635 Y-50.849
X337.92 Y-51.629
X338.241 Y-52.395
X338.597 Y-53.146
X338.987 Y-53.88
X339.41 Y-54.595
X339.865 Y-55.29
X340.352 Y-55.964
X340.87 Y-56.614
X341.416 Y-57.241
X341.991 Y-57.841
X342.593 Y-58.415
X343.22 Y-58.96
X343.872 Y-59.476
X344.547 Y-59.962
X345.244 Y-60.416
X345.96 Y-60.838
X346.695 Y-61.227
X347.448 Y-61.582
X348.215 Y-61.901
X348.997 Y-62.185
X349.791 Y-62.433
X350.595 Y-62.645
X351.409 Y-62.819
X352.229 Y-62.956
X353.055 Y-63.055
X353.884 Y-63.116
X354.716 Y-63.139
X355.548 Y-63.124
X356.378 Y-63.07
X357.204 Y-62.979
X358.026 Y-62.85
X358.841 Y-62.683
X359.648 Y-62.479
X360.444 Y-62.239
X361.228 Y-61.962
X361.999 Y-61.649
X362.755 Y-61.302
X363.496 Y-60.919
X364.227 Y-60.498
X364.951 Y-60.035
X365.663 Y-59.532
X366.363 Y-58.989
X367.048 Y-58.405
X367.715 Y-57.781
X368.362 Y-57.117
X368.986 Y-56.416
X369.582 Y-55.681
X370.145 Y-54.917
X370.673 Y-54.126
X371.165 Y-53.313
X371.617 Y-52.481
X372.029 Y-51.632
X372.399 Y-50.771
X372.727 Y-49.898
X373.014 Y-49.017
X373.257 Y-48.131
X373.459 Y-47.241
X373.618 Y-46.35
X373.735 Y-45.459
X373.81 Y-44.57
X373.845 Y-43.683
X373.839 Y-42.8
X373.793 Y-41.922
X373.707 Y-41.051
X373.581 Y-40.188
X373.416 Y-39.334
X373.213 Y-38.489
X372.972 Y-37.656
X372.693 Y-36.836
X372.377 Y-36.03
X372.024 Y-35.239
X371.635 Y-34.464
X371.21 Y-33.708
X370.751 Y-32.971
X370.258 Y-32.255
X369.731 Y-31.56
X369.172 Y-30.889
X368.581 Y-30.243
X367.959 Y-29.623
X367.308 Y-29.031
X366.629 Y-28.467
X365.922 Y-27.934
X365.19 Y-27.432
X364.432 Y-26.962
X363.652 Y-26.527
X363.294 Y-26.348
X362.943 Y-26.197
X362.577 Y-26.088
X362.201 Y-26.022
X361.819 Y-26
X350.181
X349.296 Y-26.044
X348.781 Y-26.094
X348.233 Y-26.172
X347.651 Y-26.283
X347.054 Y-26.425
X346.447 Y-26.599
X345.817 Y-26.811
X345.168 Y-27.063
X344.506 Y-27.357
X343.843 Y-27.688
X343.181 Y-28.057
X342.522 Y-28.465
X341.864 Y-28.916
X341.211 Y-29.408
X340.569 Y-29.941
X339.94 Y-30.512
X339.328 Y-31.122
X338.738 Y-31.768
X338.171 Y-32.447
X337.63 Y-33.159
X337.119 Y-33.901
X336.638 Y-34.671
X336.191 Y-35.469
X335.777 Y-36.291
X335.4 Y-37.135
X335.06 Y-38.001
X334.759 Y-38.884
X334.498 Y-39.785
X334.277 Y-40.699
X334.099 Y-41.626
X333.962 Y-42.562
X333.868 Y-43.506
X333.818 Y-44.455
X333.811 Y-45.406
X333.848 Y-46.359
X333.928 Y-47.311
X334.053 Y-48.258
X334.22 Y-49.201
X334.431 Y-50.135
X334.685 Y-51.059
X334.981 Y-51.972
X335.319 Y-52.87
X335.698 Y-53.753
X336.117 Y-54.617
X336.576 Y-55.462
X337.073 Y-56.285
X337.607 Y-57.085
X338.178 Y-57.86
X338.783 Y-58.607
X339.423 Y-59.327
X340.095 Y-60.016
X340.797 Y-60.674
X341.53 Y-61.299
X342.29 Y-61.891
X343.077 Y-62.446
X343.888 Y-62.965
X344.723 Y-63.446
X345.579 Y-63.889
X345.742 Y-63.95
X345.912 Y-63.988
X346.085 Y-64
X359.781
X360.44 Y-63.967
X360.945 Y-63.918
X361.488 Y-63.841
X362.042 Y-63.736
X362.625 Y-63.597
X363.244 Y-63.42
X363.882 Y-63.205
X364.524 Y-62.954
X365.19 Y-62.66
X365.876 Y-62.317
X366.577 Y-61.927
X367.276 Y-61.493
X367.971 Y-61.018
X368.666 Y-60.494
X369.358 Y-59.92
X370.042 Y-59.298
X370.712 Y-58.63
X371.362 Y-57.919
X371.989 Y-57.168
X372.588 Y-56.379
X373.154 Y-55.557
X373.5 Y-55.003
X373.716 Y-54.597
X373.873 Y-54.165
X373.968 Y-53.715
X374 Y-53.256
Y-36.797
X373.977 Y-36.344
X373.936 Y-35.913
X373.868 Y-35.439
X373.777 Y-34.957
X373.653 Y-34.438
X373.495 Y-33.885
X373.306 Y-33.325
X373.08 Y-32.744
X372.81 Y-32.135
X372.498 Y-31.509
X372.149 Y-30.884
X371.76 Y-30.255
X371.323 Y-29.617
X370.839 Y-28.975
X370.309 Y-28.336
X369.736 Y-27.706
X369.161 Y-27.13
X368.873 Y-26.865
X368.489 Y-26.563
X368.064 Y-26.321
X367.609 Y-26.144
X367.132 Y-26.036
X366.645 Y-26
X361.819
G3 X360.461 Y-29.866 I0.077 J-2.199
G1 X370.367 Y-38.388
G3 X374 Y-36.797 I1.435 J1.668
G1 Y-32.638
X373.975 Y-32.144
X373.943 Y-31.812
X373.892 Y-31.451
X373.817 Y-31.055
X373.72 Y-30.651
X373.593 Y-30.206
X373.436 Y-29.741
X373.253 Y-29.269
X373.056 Y-28.826
X372.837 Y-28.387
X372.625 Y-28.006
X372.404 Y-27.65
X372.173 Y-27.313
X371.889 Y-26.983
X371.563 Y-26.694
X371.202 Y-26.45
X370.812 Y-26.256
X370.4 Y-26.114
X369.973 Y-26.029
X369.539 Y-26
G3 X367.649 Y-29.184 I0.077 J-2.199
G1 X369.834 Y-33.547
G3 X374 Y-32.638 I1.967 J0.985
G1 Y-29.176
X373.982 Y-28.823
X373.963 Y-28.621
X373.936 Y-28.434
X373.899 Y-28.237
X373.852 Y-28.039
X373.799 Y-27.856
X373.782 Y-27.806
X373.622 Y-27.43
X373.406 Y-27.082
X373.138 Y-26.772
X372.826 Y-26.506
X372.477 Y-26.292
X372.1 Y-26.134
X371.702 Y-26.036
X371.294 Y-26
G3 X370.443 Y-26.136 I0.122 J-3.493
X369.149 Y-26.833 I0.973 J-3.357
X372.967 Y-31.314 I1.909 J-2.241
X374 Y-29.176 I-1.909 J2.241
G1 Y-28.219
X373.984 Y-27.948
X373.933 Y-27.677
X373.9 Y-27.559
X373.767 Y-27.23
X373.675 Y-27.065
X373.563 Y-26.9
X373.433 Y-26.74
X373.273 Y-26.581
X373.027 Y-26.386
X372.781 Y-26.24
X372.614 Y-26.163
X372.284 Y-26.058
X371.954 Y-26.007
X371.294 Y-26
X366.645
G3 X364.566 Y-27.758 I0.077 J-2.199
G1 X357.702 Y-61.361
G3 X358.946 Y-63.803 I2.156 J-0.44
X359.781 Y-64 I0.912 J2.002
G1 X364.399
X365.025 Y-63.969
X365.384 Y-63.934
X365.783 Y-63.877
X366.192 Y-63.8
X366.648 Y-63.691
X367.119 Y-63.556
X367.615 Y-63.389
X368.153 Y-63.18
X368.696 Y-62.939
X369.262 Y-62.656
X369.861 Y-62.323
X370.471 Y-61.945
X371.079 Y-61.529
X371.705 Y-61.056
X372.294 Y-60.568
X372.819 Y-60.09
X373.03 Y-59.88
X373.315 Y-59.556
X373.556 Y-59.196
X373.748 Y-58.808
X373.887 Y-58.399
X373.972 Y-57.975
X374 Y-57.543
Y-53.256
G3 X370.137 Y-51.894 I-2.199 J-0.077
G1 X362.812 Y-60.362
G3 X363.564 Y-63.803 I1.664 J-1.439
X364.399 Y-64 I0.912 J2.002
G1 X368.358
X368.823 Y-63.977
X369.149 Y-63.945
X369.485 Y-63.897
X369.855 Y-63.827
X370.248 Y-63.734
X370.646 Y-63.619
X371.025 Y-63.492
X371.406 Y-63.343
X371.741 Y-63.195
X372.074 Y-63.029
X372.379 Y-62.859
X372.438 Y-62.823
X372.825 Y-62.542
X373.168 Y-62.208
X373.459 Y-61.828
X373.692 Y-61.409
X373.862 Y-60.962
X373.965 Y-60.495
X374 Y-60.017
G3 X370.806 Y-58.132 I-2.199 J-0.077
G1 X367.44 Y-59.839
G3 X368.358 Y-64 I0.995 J-1.962
G1 X371.294
X371.494 Y-63.998
X371.706 Y-63.985
X371.864 Y-63.968
X372.012 Y-63.946
X372.159 Y-63.916
X372.325 Y-63.875
X372.48 Y-63.828
X372.626 Y-63.778
X372.942 Y-63.623
X373.234 Y-63.426
X373.495 Y-63.19
G3 X373.865 Y-62.413 I-2.155 J1.504
X373.777 Y-60.702 I-2.525 J0.727
X369.302 Y-62.428 I-2.224 J-0.898
X370.652 Y-63.823 I2.251 J0.828
X371.494 Y-63.998 I0.901 J2.223
G1 X371.954 Y-63.993
X372.268 Y-63.946
X372.582 Y-63.849
X372.614 Y-63.837
X372.943 Y-63.668
X373.108 Y-63.556
X373.273 Y-63.421
X373.495 Y-63.19
X373.619 Y-63.025
X373.721 Y-62.86
X373.871 Y-62.53
X373.933 Y-62.326
X373.978 Y-62.098
X373.998 Y-61.87
X374 Y-61.21
Y-57.543
G3 X373.803 Y-56.708 I-2.199 J-0.077
X373.572 Y-56.314 I-2.002 J-0.912
G1 X351.875 Y-26.893
G3 X351.017 Y-26.197 I-1.771 J-1.306
X350.181 Y-26 I-0.912 J-2.002
G1 X345.2
X344.723 Y-26.024
X344.373 Y-26.058
X343.981 Y-26.114
X343.578 Y-26.19
X343.142 Y-26.294
X342.674 Y-26.428
X342.199 Y-26.588
X341.691 Y-26.786
X341.157 Y-27.022
X340.621 Y-27.29
X340.066 Y-27.599
X339.489 Y-27.956
X338.903 Y-28.358
X338.323 Y-28.795
X337.741 Y-29.278
X337.155 Y-29.811
X336.572 Y-30.392
X335.996 Y-31.021
X335.438 Y-31.69
X334.901 Y-32.398
X334.387 Y-33.144
X333.895 Y-33.932
X333.43 Y-34.76
X332.996 Y-35.624
X332.594 Y-36.522
X332.23 Y-37.451
X331.904 Y-38.408
X331.619 Y-39.388
X331.378 Y-40.391
X331.181 Y-41.412
X331.03 Y-42.448
X330.925 Y-43.496
X330.869 Y-44.554
X330.862 Y-45.618
X330.903 Y-46.686
X330.993 Y-47.754
X331.133 Y-48.821
X331.322 Y-49.884
X331.561 Y-50.939
X331.848 Y-51.985
X332.183 Y-53.019
X332.566 Y-54.038
X332.997 Y-55.039
X333.473 Y-56.022
X333.994 Y-56.982
X334.56 Y-57.919
X335.168 Y-58.83
X335.818 Y-59.712
X336.508 Y-60.565
X337.237 Y-61.385
X338.004 Y-62.171
X338.806 Y-62.922
X339.143 Y-63.21
X339.518 Y-63.487
X339.928 Y-63.708
X340.365 Y-63.869
X340.821 Y-63.967
X341.285 Y-64
X346.085
G3 X346.921 Y-63.803 I-0.077 J2.199
X348.208 Y-61.743 I-0.912 J2.002
G1 X347.323 Y-28.141
G3 X346.036 Y-26.197 I-2.199 J-0.058
X345.2 Y-26 I-0.912 J-2.002
G1 X341.405
X341.013 Y-26.02
X340.702 Y-26.05
X340.371 Y-26.097
X340.02 Y-26.163
X339.633 Y-26.255
X339.238 Y-26.369
X338.811 Y-26.513
X338.357 Y-26.689
X337.898 Y-26.893
X337.408 Y-27.137
X336.896 Y-27.423
X336.385 Y-27.739
X335.855 Y-28.102
X335.306 Y-28.516
X334.754 Y-28.973
X334.21 Y-29.468
X333.66 Y-30.017
X333.106 Y-30.622
X332.558 Y-31.28
X332.026 Y-31.98
X331.516 Y-32.72
X331.022 Y-33.511
X330.549 Y-34.354
X330.102 Y-35.244
X329.685 Y-36.178
X329.302 Y-37.152
X328.958 Y-38.161
X328.657 Y-39.2
X328.4 Y-40.267
X328.189 Y-41.357
X328.027 Y-42.47
X327.914 Y-43.604
X327.853 Y-44.755
X327.845 Y-45.92
X327.89 Y-47.093
X327.99 Y-48.272
X328.145 Y-49.453
X328.355 Y-50.632
X328.62 Y-51.807
X328.94 Y-52.972
X329.314 Y-54.126
X329.743 Y-55.266
X330.225 Y-56.387
X330.758 Y-57.489
X331.343 Y-58.566
X331.978 Y-59.618
X332.661 Y-60.641
X333.276 Y-61.476
X333.806 Y-62.129
X334.294 Y-62.679
X334.61 Y-63.003
X334.937 Y-63.296
X335.299 Y-63.544
X335.691 Y-63.741
X336.106 Y-63.884
X336.536 Y-63.971
X336.974 Y-64
X341.285
G3 X343.409 Y-61.809 I-0.077 J2.199
G1 X343.528 Y-28.206
G3 X341.405 Y-26 I-2.2 J0.008
G1 X337.943
X337.635 Y-26.015
X337.357 Y-26.042
X337.043 Y-26.087
X336.715 Y-26.149
X336.365 Y-26.233
X335.981 Y-26.343
X335.592 Y-26.474
X335.171 Y-26.638
X334.725 Y-26.835
X334.275 Y-27.06
X333.795 Y-27.327
X333.295 Y-27.637
X332.798 Y-27.977
X332.281 Y-28.367
X331.745 Y-28.812
X331.212 Y-29.296
X330.682 Y-29.824
X330.143 Y-30.413
X329.602 Y-31.063
X329.072 Y-31.76
X328.563 Y-32.498
X328.067 Y-33.294
X327.587 Y-34.149
X327.13 Y-35.058
X326.7 Y-36.02
X326.306 Y-37.024
X325.952 Y-38.064
X325.639 Y-39.14
X325.37 Y-40.258
X325.147 Y-41.414
X324.973 Y-42.604
X324.852 Y-43.822
X324.786 Y-45.064
X324.777 Y-46.325
X324.826 Y-47.6
X324.935 Y-48.885
X325.104 Y-50.176
X325.335 Y-51.469
X325.626 Y-52.758
X325.978 Y-54.041
X326.391 Y-55.313
X326.864 Y-56.571
X327.383 Y-57.781
X327.933 Y-58.916
X328.5 Y-59.959
X329.017 Y-60.815
X329.462 Y-61.482
X329.893 Y-62.067
X330.277 Y-62.542
X330.666 Y-62.979
X330.689 Y-63.003
X331.016 Y-63.296
X331.378 Y-63.544
X331.77 Y-63.741
X332.185 Y-63.884
X332.615 Y-63.971
X333.053 Y-64
X336.974
G3 X339.096 Y-61.865 I-0.077 J2.199
G1 X340.065 Y-28.262
G3 X338.778 Y-26.197 I-2.199 J0.063
X337.943 Y-26 I-0.912 J-2.002
G1 X334.807
X334.419 Y-26.019
X334.148 Y-26.045
X333.855 Y-26.087
X333.531 Y-26.149
X333.198 Y-26.228
X332.833 Y-26.333
X332.448 Y-26.462
X332.051 Y-26.617
X331.618 Y-26.809
X331.178 Y-27.028
X330.719 Y-27.284
X330.232 Y-27.586
X329.742 Y-27.922
X329.242 Y-28.299
X328.719 Y-28.732
X328.189 Y-29.214
X327.668 Y-29.734
X327.135 Y-30.316
X326.596 Y-30.962
X326.066 Y-31.66
X325.557 Y-32.398
X325.058 Y-33.199
X324.572 Y-34.065
X324.105 Y-34.993
X323.666 Y-35.976
X323.264 Y-36.999
X322.901 Y-38.067
X322.574 Y-39.191
X322.291 Y-40.367
X322.055 Y-41.589
X321.871 Y-42.852
X321.742 Y-44.151
X321.671 Y-45.48
X321.661 Y-46.832
X321.714 Y-48.2
X321.831 Y-49.581
X322.013 Y-50.97
X322.261 Y-52.364
X322.575 Y-53.752
X322.95 Y-55.118
X323.375 Y-56.429
X323.829 Y-57.636
X324.31 Y-58.755
X324.797 Y-59.76
X325.232 Y-60.561
X325.642 Y-61.24
X326.017 Y-61.803
X326.376 Y-62.289
X326.726 Y-62.722
X326.878 Y-62.892
X327.21 Y-63.217
X327.584 Y-63.491
X327.992 Y-63.71
X328.428 Y-63.87
X328.882 Y-63.967
X329.344 Y-64
X333.053
G3 X335.173 Y-61.916 I-0.077 J2.199
G1 X336.928 Y-28.313
G3 X335.643 Y-26.197 I-2.197 J0.115
X334.807 Y-26 I-0.912 J-2.002
G1 X331.708
X331.296 Y-26.021
X331.025 Y-26.047
X330.742 Y-26.087
X330.423 Y-26.148
X330.095 Y-26.226
X329.74 Y-26.327
X329.358 Y-26.456
X328.969 Y-26.608
X328.546 Y-26.795
X328.107 Y-27.014
X327.658 Y-27.265
X327.178 Y-27.561
X326.689 Y-27.896
X326.197 Y-28.268
X325.679 Y-28.697
X325.15 Y-29.178
X324.631 Y-29.696
X324.099 Y-30.277
X323.558 Y-30.925
X323.028 Y-31.624
X322.516 Y-32.366
X322.01 Y-33.177
X321.514 Y-34.06
X321.036 Y-35.011
X320.591 Y-36.008
X320.181 Y-37.052
X319.802 Y-38.164
X319.461 Y-39.34
X319.163 Y-40.575
X318.915 Y-41.862
X318.72 Y-43.195
X318.585 Y-44.561
X318.511 Y-45.955
X318.5 Y-47.374
X318.556 Y-48.821
X318.68 Y-50.287
X318.873 Y-51.757
X319.132 Y-53.207
X319.451 Y-54.622
X319.816 Y-55.952
X320.212 Y-57.171
X320.635 Y-58.296
X321.066 Y-59.3
X321.471 Y-60.135
X321.863 Y-60.858
X322.213 Y-61.438
X322.563 Y-61.961
X322.887 Y-62.402
X323.221 Y-62.814
X323.291 Y-62.892
X323.623 Y-63.217
X323.997 Y-63.491
X324.405 Y-63.71
X324.841 Y-63.87
X325.295 Y-63.967
X325.757 Y-64
X329.344
G3 X330.18 Y-63.803 I-0.077 J2.199
X331.462 Y-61.956 I-0.912 J2.002
G1 X333.826 Y-28.353
G3 X331.708 Y-26 I-2.195 J0.154
G1 X328.543
X328.219 Y-26.016
X327.949 Y-26.042
X327.669 Y-26.082
X327.352 Y-26.142
X327.026 Y-26.22
X326.675 Y-26.321
X326.294 Y-26.449
X325.908 Y-26.599
X325.487 Y-26.786
X325.048 Y-27.004
X324.602 Y-27.253
X324.125 Y-27.549
X323.636 Y-27.884
X323.144 Y-28.255
X322.626 Y-28.684
X322.096 Y-29.167
X321.575 Y-29.686
X321.039 Y-30.272
X320.493 Y-30.925
X319.961 Y-31.627
X319.443 Y-32.378
X318.926 Y-33.208
X318.417 Y-34.114
X317.929 Y-35.083
X317.478 Y-36.094
X317.052 Y-37.177
X316.658 Y-38.335
X316.303 Y-39.561
X315.992 Y-40.848
X315.734 Y-42.188
X315.533 Y-43.563
X315.393 Y-44.975
X315.315 Y-46.432
X315.304 Y-47.925
X315.363 Y-49.437
X315.491 Y-50.948
X315.686 Y-52.435
X315.943 Y-53.881
X316.251 Y-55.242
X316.594 Y-56.491
X316.968 Y-57.645
X317.359 Y-58.686
X317.757 Y-59.612
X318.124 Y-60.369
X318.476 Y-61.017
X318.808 Y-61.567
X319.132 Y-62.052
X319.446 Y-62.478
X319.762 Y-62.868
X319.783 Y-62.892
X320.115 Y-63.217
X320.489 Y-63.491
X320.898 Y-63.71
X321.333 Y-63.87
X321.787 Y-63.967
X322.249 Y-64
X325.757
G3 X326.593 Y-63.803 I-0.077 J2.199
X327.873 Y-61.983 I-0.912 J2.002
G1 X330.659 Y-28.38
G3 X328.543 Y-26 I-2.192 J0.182
G1 X325.571
X325.144 Y-26.021
X324.875 Y-26.047
X324.596 Y-26.087
X324.281 Y-26.147
X323.956 Y-26.224
X323.606 Y-26.325
X323.226 Y-26.453
X322.84 Y-26.603
X322.42 Y-26.789
X321.981 Y-27.008
X321.535 Y-27.257
X321.057 Y-27.553
X320.568 Y-27.888
X320.073 Y-28.261
X319.55 Y-28.694
X319.018 Y-29.178
X318.493 Y-29.702
X317.95 Y-30.295
X317.398 Y-30.957
X316.863 Y-31.661
X316.333 Y-32.43
X315.803 Y-33.281
X315.28 Y-34.211
X314.789 Y-35.189
X314.325 Y-36.228
X313.884 Y-37.349
X313.477 Y-38.545
X313.109 Y-39.814
X312.788 Y-41.144
X312.524 Y-42.512
X312.318 Y-43.927
X312.172 Y-45.397
X312.091 Y-46.906
X312.08 Y-48.44
X312.14 Y-49.974
X312.268 Y-51.486
X312.461 Y-52.959
X312.711 Y-54.365
X313.004 Y-55.662
X313.333 Y-56.861
X313.69 Y-57.96
X314.056 Y-58.934
X314.431 Y-59.806
X314.776 Y-60.519
X315.102 Y-61.12
X315.424 Y-61.652
X315.731 Y-62.113
X316.039 Y-62.53
X316.239 Y-62.777
X316.574 Y-63.133
X316.958 Y-63.436
X317.383 Y-63.679
X317.838 Y-63.856
X318.315 Y-63.964
X318.803 Y-64
X322.249
G3 X324.362 Y-62.018 I-0.077 J2.199
G1 X327.683 Y-28.415
G3 X325.571 Y-26 I-2.189 J0.216
G1 X322.471
X322.083 Y-26.019
X321.813 Y-26.045
X321.533 Y-26.085
X321.217 Y-26.145
X320.891 Y-26.223
X320.539 Y-26.324
X320.158 Y-26.452
X319.771 Y-26.603
X319.347 Y-26.791
X318.908 Y-27.01
X318.458 Y-27.26
X317.975 Y-27.56
X317.486 Y-27.895
X316.984 Y-28.273
X316.453 Y-28.714
X315.92 Y-29.198
X315.386 Y-29.73
X314.834 Y-30.334
X314.275 Y-31.005
X313.735 Y-31.715
X313.192 Y-32.504
X312.647 Y-33.378
X312.115 Y-34.324
X311.618 Y-35.313
X311.14 Y-36.384
X310.687 Y-37.538
X310.266 Y-38.772
X309.887 Y-40.077
X309.562 Y-41.428
X309.292 Y-42.825
X309.079 Y-44.285
X308.93 Y-45.791
X308.848 Y-47.327
X308.837 Y-48.873
X308.896 Y-50.404
X309.023 Y-51.903
X309.213 Y-53.352
X309.454 Y-54.709
X309.737 Y-55.961
X310.056 Y-57.123
X310.396 Y-58.17
X310.749 Y-59.109
X311.094 Y-59.912
X311.434 Y-60.614
X311.743 Y-61.183
X312.06 Y-61.708
X312.352 Y-62.145
X312.663 Y-62.567
X312.833 Y-62.777
X313.168 Y-63.133
X313.552 Y-63.436
X313.977 Y-63.679
X314.432 Y-63.856
X314.909 Y-63.964
X315.397 Y-64
X318.803
G3 X319.639 Y-63.803 I-0.077 J2.199
X320.913 Y-62.04 I-0.912 J2.002
G1 X324.582 Y-28.437
G3 X323.307 Y-26.197 I-2.187 J0.239
X322.471 Y-26 I-0.912 J-2.002
G1 X319.469
X319.004 Y-26.023
X318.734 Y-26.049
X318.453 Y-26.089
X318.136 Y-26.15
X317.809 Y-26.227
X317.454 Y-26.329
X317.071 Y-26.458
X316.681 Y-26.61
X316.253 Y-26.8
X315.814 Y-27.019
X315.36 Y-27.272
X314.871 Y-27.575
X314.38 Y-27.911
X313.87 Y-28.295
X313.331 Y-28.743
X312.797 Y-29.228
X312.253 Y-29.77
X311.69 Y-30.386
X311.127 Y-31.061
X310.579 Y-31.783
X310.021 Y-32.592
X309.462 Y-33.488
X308.927 Y-34.44
X308.42 Y-35.45
X307.929 Y-36.548
X307.464 Y-37.732
X307.033 Y-38.998
X306.649 Y-40.323
X306.319 Y-41.69
X306.043 Y-43.12
X305.826 Y-44.607
X305.675 Y-46.132
X305.593 Y-47.678
X305.581 Y-49.223
X305.64 Y-50.744
X305.766 Y-52.227
X305.951 Y-53.642
X306.185 Y-54.954
X306.461 Y-56.178
X306.771 Y-57.307
X307.098 Y-58.313
X307.443 Y-59.232
X307.775 Y-60.004
X308.101 Y-60.678
X308.404 Y-61.236
X308.712 Y-61.746
X308.999 Y-62.175
X309.305 Y-62.59
X309.456 Y-62.777
X309.791 Y-63.133
X310.175 Y-63.436
X310.6 Y-63.679
X311.056 Y-63.856
X311.533 Y-63.964
X312.02 Y-64
X315.397
G3 X316.233 Y-63.803 I-0.077 J2.199
X317.504 Y-62.066 I-0.912 J2.002
G1 X321.577 Y-28.463
G3 X319.469 Y-26 I-2.184 J0.265
G1 X316.334
X315.92 Y-26.021
X315.65 Y-26.047
X315.365 Y-26.087
X315.045 Y-26.148
X314.717 Y-26.226
X314.357 Y-26.329
X313.973 Y-26.459
X313.579 Y-26.612
X313.145 Y-26.804
X312.705 Y-27.024
X312.243 Y-27.281
X311.748 Y-27.588
X311.255 Y-27.925
X310.735 Y-28.318
X310.189 Y-28.771
X309.652 Y-29.259
X309.098 Y-29.811
X308.523 Y-30.44
X307.959 Y-31.116
X307.398 Y-31.854
X306.827 Y-32.683
X306.258 Y-33.595
X305.721 Y-34.552
X305.202 Y-35.585
X304.7 Y-36.708
X304.225 Y-37.918
X303.786 Y-39.206
X303.399 Y-40.54
X303.065 Y-41.927
X302.784 Y-43.38
X302.565 Y-44.882
X302.413 Y-46.417
X302.33 Y-47.964
X302.319 Y-49.501
X302.378 Y-51.009
X302.502 Y-52.474
X302.683 Y-53.856
X302.912 Y-55.14
X303.183 Y-56.342
X303.485 Y-57.442
X303.803 Y-58.422
X304.141 Y-59.321
X304.464 Y-60.073
X304.78 Y-60.725
X305.079 Y-61.275
X305.38 Y-61.774
X305.663 Y-62.199
X305.965 Y-62.608
X306.102 Y-62.777
X306.437 Y-63.133
X306.821 Y-63.436
X307.246 Y-63.679
X307.701 Y-63.856
X308.178 Y-63.964
X308.666 Y-64
X312.02
G3 X312.856 Y-63.803 I-0.077 J2.199
X314.126 Y-62.081 I-0.912 J2.002
G1 X318.439 Y-28.479
G3 X316.334 Y-26 I-2.182 J0.28
G1 X313.235
X312.812 Y-26.021
X312.541 Y-26.047
X312.253 Y-26.088
X311.931 Y-26.149
X311.601 Y-26.228
X311.237 Y-26.332
X310.852 Y-26.462
X310.452 Y-26.618
X310.014 Y-26.812
X309.573 Y-27.032
X309.104 Y-27.293
X308.604 Y-27.603
X308.107 Y-27.943
X307.577 Y-28.343
X307.027 Y-28.799
X306.485 Y-29.292
X305.921 Y-29.854
X305.337 Y-30.492
X304.771 Y-31.171
X304.198 Y-31.926
X303.615 Y-32.772
X303.04 Y-33.693
X302.498 Y-34.659
X301.968 Y-35.712
X301.458 Y-36.856
X300.974 Y-38.086
X300.532 Y-39.386
X300.142 Y-40.729
X299.803 Y-42.135
X299.52 Y-43.601
X299.3 Y-45.113
X299.147 Y-46.651
X299.065 Y-48.194
X299.054 Y-49.721
X299.112 Y-51.218
X299.234 Y-52.662
X299.412 Y-54.02
X299.637 Y-55.284
X299.904 Y-56.468
X300.199 Y-57.543
X300.512 Y-58.506
X300.843 Y-59.387
X301.16 Y-60.125
X301.468 Y-60.761
X301.764 Y-61.305
X302.06 Y-61.796
X302.341 Y-62.217
X302.639 Y-62.622
X302.765 Y-62.777
X303.1 Y-63.133
X303.484 Y-63.436
X303.909 Y-63.679
X304.365 Y-63.856
X304.842 Y-63.964
X305.33 Y-64
X308.666
G3 X309.502 Y-63.803 I-0.077 J2.199
X310.769 Y-62.098 I-0.912 J2.002
G1 X315.338 Y-28.495
G3 X313.235 Y-26 I-2.18 J0.296
G1 X310.069
X309.686 Y-26.019
X309.416 Y-26.045
X309.124 Y-26.087
X308.8 Y-26.148
X308.468 Y-26.227
X308.099 Y-26.333
X307.714 Y-26.463
X307.307 Y-26.621
X306.866 Y-26.817
X306.422 Y-27.038
X305.946 Y-27.304
X305.443 Y-27.615
X304.94 Y-27.959
X304.402 Y-28.366
X303.849 Y-28.824
X303.301 Y-29.322
X302.726 Y-29.895
X302.137 Y-30.539
X301.566 Y-31.224
X300.982 Y-31.993
X300.389 Y-32.853
X299.812 Y-33.778
X299.263 Y-34.756
X298.725 Y-35.826
X298.206 Y-36.987
X297.717 Y-38.233
X297.272 Y-39.539
X296.88 Y-40.891
X296.538 Y-42.31
X296.253 Y-43.786
X296.032 Y-45.302
X295.879 Y-46.84
X295.797 Y-48.378
X295.786 Y-49.897
X295.844 Y-51.383
X295.965 Y-52.809
X296.14 Y-54.146
X296.362 Y-55.397
X296.626 Y-56.566
X296.916 Y-57.62
X297.225 Y-58.572
X297.55 Y-59.438
X297.863 Y-60.165
X298.165 Y-60.789
X298.458 Y-61.329
X298.751 Y-61.813
X299.03 Y-62.231
X299.325 Y-62.632
X299.442 Y-62.777
X299.778 Y-63.133
X300.162 Y-63.436
X300.586 Y-63.679
X301.042 Y-63.856
X301.519 Y-63.964
X302.007 Y-64
X305.33
G3 X306.165 Y-63.803 I-0.077 J2.199
X307.431 Y-62.109 I-0.912 J2.002
G1 X312.171 Y-28.506
G3 X310.069 Y-26 I-2.178 J0.307
G1 X306.934
X306.538 Y-26.02
X306.267 Y-26.046
X305.972 Y-26.088
X305.646 Y-26.15
X305.312 Y-26.229
X304.939 Y-26.336
X304.553 Y-26.466
X304.142 Y-26.626
X303.698 Y-26.823
X303.251 Y-27.046
X302.768 Y-27.315
X302.264 Y-27.627
X301.755 Y-27.976
X301.209 Y-28.388
X300.655 Y-28.847
X300.1 Y-29.352
X299.517 Y-29.933
X298.924 Y-30.581
X298.347 Y-31.273
X297.754 Y-32.054
X297.153 Y-32.925
X296.575 Y-33.852
X296.019 Y-34.842
X295.474 Y-35.926
X294.95 Y-37.1
X294.456 Y-38.357
X294.01 Y-39.668
X293.615 Y-41.029
X293.271 Y-42.457
X292.985 Y-43.938
X292.763 Y-45.457
X292.611 Y-46.993
X292.529 Y-48.526
X292.518 Y-50.038
X292.575 Y-51.515
X292.695 Y-52.924
X292.868 Y-54.246
X293.089 Y-55.485
X293.35 Y-56.641
X293.635 Y-57.68
X293.941 Y-58.624
X294.262 Y-59.477
X294.571 Y-60.196
X294.868 Y-60.81
X295.16 Y-61.347
X295.449 Y-61.826
X295.727 Y-62.243
X296.02 Y-62.641
X296.131 Y-62.777
X296.466 Y-63.133
X296.85 Y-63.436
X297.275 Y-63.679
X297.73 Y-63.856
X298.207 Y-63.964
X298.695 Y-64
X302.007
G3 X302.842 Y-63.803 I-0.077 J2.199
X304.107 Y-62.121 I-0.912 J2.002
G1 X309.034 Y-28.518
G3 X307.769 Y-26.197 I-2.177 J0.319
X306.934 Y-26 I-0.912 J-2.002
G1 X303.798
X303.37 Y-26.021
X303.099 Y-26.048
X302.801 Y-26.09
X302.474 Y-26.152
X302.138 Y-26.232
X301.761 Y-26.34
X301.375 Y-26.47
X300.959 Y-26.632
X300.513 Y-26.83
X300.063 Y-27.054
X299.574 Y-27.327
X299.07 Y-27.639
X298.554 Y-27.993
X298.002 Y-28.409
X297.448 Y-28.868
X296.885 Y-29.38
X296.295 Y-29.968
X295.701 Y-30.617
X295.117 Y-31.317
X294.517 Y-32.108
X293.911 Y-32.987
X293.331 Y-33.916
X292.769 Y-34.917
X292.219 Y-36.012
X291.69 Y-37.197
X291.193 Y-38.461
X290.745 Y-39.776
X290.348 Y-41.144
X290.003 Y-42.578
X289.716 Y-44.063
X289.494 Y-45.583
X289.342 Y-47.117
X289.261 Y-48.645
X289.25 Y-50.15
X289.307 Y-51.619
X289.425 Y-53.015
X289.596 Y-54.325
X289.816 Y-55.556
X290.074 Y-56.701
X290.356 Y-57.727
X290.66 Y-58.665
X290.977 Y-59.507
X291.283 Y-60.221
X291.578 Y-60.828
X291.868 Y-61.362
X292.155 Y-61.837
X292.432 Y-62.252
X292.723 Y-62.647
X292.828 Y-62.777
X293.163 Y-63.133
X293.547 Y-63.436
X293.972 Y-63.679
X294.428 Y-63.856
X294.905 Y-63.964
X295.392 Y-64
X298.695
G3 X300.793 Y-62.132 I-0.077 J2.199
G1 X305.897 Y-28.529
G3 X304.634 Y-26.197 I-2.175 J0.33
X303.798 Y-26 I-0.912 J-2.002
G1 X300.699
X300.183 Y-26.026
X299.911 Y-26.052
X299.612 Y-26.095
X299.284 Y-26.157
X298.946 Y-26.237
X298.566 Y-26.346
X298.179 Y-26.477
X297.76 Y-26.64
X297.312 Y-26.838
X296.859 Y-27.064
X296.365 Y-27.34
X295.861 Y-27.652
X295.339 Y-28.009
X294.783 Y-28.429
X294.228 Y-28.889
X293.66 Y-29.405
X293.064 Y-30
X292.47 Y-30.649
X291.88 Y-31.357
X291.273 Y-32.156
X290.663 Y-33.041
X290.082 Y-33.972
X289.515 Y-34.982
X288.96 Y-36.086
X288.427 Y-37.278
X287.929 Y-38.548
X287.48 Y-39.866
X287.081 Y-41.24
X286.734 Y-42.678
X286.447 Y-44.166
X286.225 Y-45.686
X286.073 Y-47.218
X285.992 Y-48.741
X285.981 Y-50.241
X286.038 Y-51.702
X286.155 Y-53.087
X286.326 Y-54.388
X286.544 Y-55.612
X286.8 Y-56.748
X287.079 Y-57.765
X287.382 Y-58.698
X287.696 Y-59.532
X288 Y-60.24
X288.291 Y-60.841
X288.58 Y-61.373
X288.865 Y-61.845
X289.142 Y-62.259
X289.431 Y-62.653
X289.532 Y-62.777
X289.867 Y-63.133
X290.251 Y-63.436
X290.676 Y-63.679
X291.132 Y-63.856
X291.609 Y-63.964
X292.097 Y-64
X295.392
G3 X297.489 Y-62.145 I-0.077 J2.199
G1 X302.795 Y-28.542
G3 X300.699 Y-26 I-2.173 J0.343
G1 X297.4
X296.996 Y-26.02
X296.724 Y-26.046
X296.421 Y-26.09
X296.093 Y-26.152
X295.751 Y-26.233
X295.368 Y-26.343
X294.98 Y-26.474
X294.556 Y-26.639
X294.108 Y-26.837
X293.651 Y-27.065
X293.152 Y-27.344
X292.647 Y-27.656
X292.12 Y-28.017
X291.559 Y-28.44
X291.004 Y-28.901
X290.43 Y-29.423
X289.828 Y-30.023
X289.234 Y-30.672
X288.637 Y-31.387
X288.025 Y-32.193
X287.412 Y-33.082
X286.83 Y-34.016
X286.258 Y-35.034
X285.699 Y-36.145
X285.164 Y-37.345
X284.664 Y-38.619
X284.214 Y-39.939
X283.814 Y-41.318
X283.466 Y-42.76
X283.179 Y-44.25
X282.957 Y-45.77
X282.805 Y-47.299
X282.724 Y-48.819
X282.713 Y-50.315
X282.77 Y-51.769
X282.886 Y-53.145
X283.056 Y-54.439
X283.273 Y-55.657
X283.527 Y-56.785
X283.805 Y-57.795
X284.106 Y-58.724
X284.417 Y-59.551
X284.72 Y-60.256
X285.009 Y-60.852
X285.297 Y-61.382
X285.58 Y-61.852
X285.856 Y-62.265
X286.145 Y-62.657
X286.242 Y-62.777
X286.577 Y-63.133
X286.961 Y-63.436
X287.386 Y-63.679
X287.842 Y-63.856
X288.319 Y-63.964
X288.806 Y-64
X292.097
G3 X294.193 Y-62.144 I-0.077 J2.199
G1 X299.497 Y-28.542
G3 X297.4 Y-26 I-2.173 J0.343
G1 X294.101
X293.792 Y-26.015
X293.519 Y-26.042
X293.214 Y-26.085
X292.886 Y-26.148
X292.541 Y-26.23
X292.157 Y-26.34
X291.767 Y-26.471
X291.34 Y-26.637
X290.892 Y-26.836
X290.431 Y-27.066
X289.929 Y-27.346
X289.424 Y-27.659
X288.892 Y-28.023
X288.328 Y-28.448
X287.771 Y-28.91
X287.193 Y-29.436
X286.587 Y-30.04
X285.992 Y-30.69
X285.391 Y-31.411
X284.774 Y-32.223
X284.159 Y-33.115
X283.575 Y-34.052
X282.999 Y-35.076
X282.438 Y-36.194
X281.9 Y-37.399
X281.398 Y-38.675
X280.948 Y-39.998
X280.546 Y-41.381
X280.198 Y-42.826
X279.91 Y-44.317
X279.689 Y-45.837
X279.537 Y-47.365
X279.456 Y-48.881
X279.445 Y-50.373
X279.501 Y-51.821
X279.617 Y-53.191
X279.786 Y-54.479
X280.002 Y-55.693
X280.256 Y-56.815
X280.532 Y-57.819
X280.832 Y-58.745
X281.141 Y-59.566
X281.442 Y-60.268
X281.729 Y-60.861
X282.017 Y-61.39
X282.299 Y-61.858
X282.574 Y-62.27
X282.862 Y-62.66
X282.956 Y-62.777
X283.292 Y-63.133
X283.676 Y-63.436
X284.1 Y-63.679
X284.556 Y-63.856
X285.033 Y-63.964
X285.521 Y-64
X288.806
G3 X289.642 Y-63.803 I-0.077 J2.199
X290.903 Y-62.144 I-0.912 J2.002
G1 X296.198 Y-28.541
G3 X294.101 Y-26 I-2.173 J0.342
G1 X290.936
X290.567 Y-26.018
X290.294 Y-26.045
X289.988 Y-26.088
X289.66 Y-26.151
X289.314 Y-26.233
X288.929 Y-26.343
X288.538 Y-26.475
X288.11 Y-26.642
X287.661 Y-26.841
X287.198 Y-27.071
X286.694 Y-27.353
X286.188 Y-27.666
X285.653 Y-28.032
X285.088 Y-28.459
X284.53 Y-28.921
X283.948 Y-29.451
X283.339 Y-30.057
X282.743 Y-30.708
X282.139 Y-31.433
X281.519 Y-32.25
X280.903 Y-33.144
X280.317 Y-34.083
X279.739 Y-35.113
X279.174 Y-36.235
X278.634 Y-37.444
X278.132 Y-38.722
X277.681 Y-40.047
X277.279 Y-41.433
X276.93 Y-42.88
X276.642 Y-44.372
X276.421 Y-45.892
X276.269 Y-47.417
X276.189 Y-48.932
X276.178 Y-50.421
X276.234 Y-51.864
X276.349 Y-53.228
X276.517 Y-54.512
X276.733 Y-55.722
X276.985 Y-56.838
X277.26 Y-57.839
X277.559 Y-58.762
X277.866 Y-59.578
X278.166 Y-60.278
X278.453 Y-60.868
X278.739 Y-61.396
X279.02 Y-61.862
X279.296 Y-62.274
X279.582 Y-62.663
X279.675 Y-62.777
X280.01 Y-63.133
X280.394 Y-63.436
X280.818 Y-63.679
X281.274 Y-63.856
X281.751 Y-63.964
X282.239 Y-64
X285.521
G3 X286.356 Y-63.803 I-0.077 J2.199
X287.616 Y-62.151 I-0.912 J2.002
G1 X293.031 Y-28.549
G3 X290.936 Y-26 I-2.172 J0.35
G1 X287.801
X287.334 Y-26.023
X287.06 Y-26.05
X286.754 Y-26.093
X286.426 Y-26.156
X286.079 Y-26.238
X285.693 Y-26.349
X285.301 Y-26.481
X284.871 Y-26.648
X284.422 Y-26.847
X283.958 Y-27.079
X283.452 Y-27.361
X282.945 Y-27.675
X282.408 Y-28.043
X281.841 Y-28.47
X281.282 Y-28.934
X280.698 Y-29.465
X280.087 Y-30.074
X279.491 Y-30.726
X278.883 Y-31.454
X278.261 Y-32.274
X277.644 Y-33.169
X277.056 Y-34.111
X276.476 Y-35.144
X275.91 Y-36.269
X275.369 Y-37.482
X274.866 Y-38.762
X274.415 Y-40.088
X274.012 Y-41.476
X273.662 Y-42.925
X273.374 Y-44.417
X273.153 Y-45.936
X273.001 Y-47.461
X272.921 Y-48.973
X272.91 Y-50.459
X272.966 Y-51.898
X273.081 Y-53.258
X273.249 Y-54.539
X273.464 Y-55.745
X273.715 Y-56.857
X273.989 Y-57.855
X274.288 Y-58.776
X274.593 Y-59.588
X274.893 Y-60.286
X275.178 Y-60.874
X275.464 Y-61.401
X275.744 Y-61.865
X276.019 Y-62.277
X276.305 Y-62.665
X276.396 Y-62.777
X276.731 Y-63.133
X277.115 Y-63.436
X277.54 Y-63.679
X277.995 Y-63.856
X278.472 Y-63.964
X278.96 Y-64
X282.239
G3 X284.333 Y-62.161 I-0.077 J2.199
G1 X289.894 Y-28.558
G3 X287.801 Y-26 I-2.17 J0.359
G1 X284.502
X284.107 Y-26.02
X283.832 Y-26.046
X283.523 Y-26.09
X283.195 Y-26.153
X282.846 Y-26.236
X282.459 Y-26.346
X282.066 Y-26.479
X281.634 Y-26.647
X281.185 Y-26.846
X280.718 Y-27.079
X280.21 Y-27.362
X279.702 Y-27.677
X279.163 Y-28.046
X278.595 Y-28.475
X278.034 Y-28.939
X277.447 Y-29.473
X276.834 Y-30.084
X276.237 Y-30.737
X275.627 Y-31.468
X275.002 Y-32.291
X274.385 Y-33.187
X273.796 Y-34.132
X273.213 Y-35.168
X272.646 Y-36.297
X272.103 Y-37.512
X271.6 Y-38.793
X271.148 Y-40.12
X270.745 Y-41.511
X270.395 Y-42.961
X270.107 Y-44.454
X269.885 Y-45.972
X269.734 Y-47.495
X269.654 Y-49.006
X269.643 Y-50.491
X269.699 Y-51.926
X269.813 Y-53.282
X269.981 Y-54.56
X270.195 Y-55.764
X270.446 Y-56.873
X270.719 Y-57.867
X271.017 Y-58.787
X271.321 Y-59.596
X271.62 Y-60.292
X271.904 Y-60.878
X272.19 Y-61.404
X272.47 Y-61.868
X272.745 Y-62.279
X273.03 Y-62.667
X273.119 Y-62.777
X273.454 Y-63.133
X273.839 Y-63.436
X274.263 Y-63.679
X274.719 Y-63.856
X275.196 Y-63.964
X275.684 Y-64
X278.96
G3 X279.796 Y-63.803 I-0.077 J2.199
X281.054 Y-62.159 I-0.912 J2.002
G1 X286.596 Y-28.557
G3 X284.502 Y-26 I-2.171 J0.358
G1 X281.203
X280.87 Y-26.017
X280.594 Y-26.043
X280.285 Y-26.087
X279.957 Y-26.15
X279.606 Y-26.233
X279.219 Y-26.344
X278.825 Y-26.477
X278.391 Y-26.646
X277.942 Y-26.845
X277.473 Y-27.079
X276.964 Y-27.363
X276.455 Y-27.677
X275.914 Y-28.048
X275.344 Y-28.478
X274.783 Y-28.943
X274.193 Y-29.479
X273.579 Y-30.091
X272.981 Y-30.745
X272.369 Y-31.479
X271.742 Y-32.305
X271.124 Y-33.201
X270.534 Y-34.148
X269.95 Y-35.187
X269.381 Y-36.318
X268.838 Y-37.536
X268.334 Y-38.818
X267.882 Y-40.146
X267.478 Y-41.539
X267.128 Y-42.99
X266.84 Y-44.483
X266.618 Y-46.001
X266.467 Y-47.523
X266.387 Y-49.032
X266.376 Y-50.516
X266.431 Y-51.948
X266.546 Y-53.302
X266.713 Y-54.577
X266.927 Y-55.78
X267.177 Y-56.885
X267.45 Y-57.878
X267.748 Y-58.796
X268.051 Y-59.602
X268.349 Y-60.297
X268.632 Y-60.882
X268.918 Y-61.408
X269.197 Y-61.871
X269.472 Y-62.281
X269.757 Y-62.668
X269.845 Y-62.777
X270.18 Y-63.133
X270.564 Y-63.436
X270.989 Y-63.679
X271.444 Y-63.856
X271.922 Y-63.964
X272.409 Y-64
X275.684
G3 X276.519 Y-63.803 I-0.077 J2.199
X277.778 Y-62.158 I-0.912 J2.002
G1 X283.297 Y-28.555
G3 X281.203 Y-26 I-2.171 J0.357
G1 X278.068
X277.616 Y-26.023
X277.341 Y-26.049
X277.031 Y-26.093
X276.703 Y-26.156
X276.352 Y-26.239
X275.965 Y-26.35
X275.571 Y-26.483
X275.137 Y-26.652
X274.688 Y-26.851
X274.218 Y-27.085
X273.709 Y-27.369
X273.2 Y-27.684
X272.657 Y-28.056
X272.088 Y-28.485
X271.526 Y-28.951
X270.935 Y-29.488
X270.32 Y-30.101
X269.722 Y-30.755
X269.108 Y-31.491
X268.48 Y-32.319
X267.862 Y-33.216
X267.271 Y-34.163
X266.686 Y-35.205
X266.116 Y-36.338
X265.572 Y-37.557
X265.068 Y-38.839
X264.615 Y-40.169
X264.211 Y-41.562
X263.861 Y-43.014
X263.572 Y-44.508
X263.351 Y-46.025
X263.2 Y-47.546
X263.12 Y-49.054
X263.109 Y-50.536
X263.164 Y-51.966
X263.279 Y-53.317
X263.446 Y-54.591
X263.66 Y-55.792
X263.909 Y-56.895
X264.181 Y-57.886
X264.479 Y-58.803
X264.781 Y-59.608
X265.079 Y-60.301
X265.362 Y-60.885
X265.647 Y-61.41
X265.926 Y-61.872
X266.2 Y-62.283
X266.485 Y-62.67
X266.572 Y-62.777
X266.907 Y-63.133
X267.291 Y-63.436
X267.716 Y-63.679
X268.172 Y-63.856
X268.649 Y-63.964
X269.136 Y-64
X272.409
G3 X273.245 Y-63.803 I-0.077 J2.199
X274.502 Y-62.167 I-0.912 J2.002
G1 X280.16 Y-28.564
G3 X278.068 Y-26 I-2.169 J0.365
G1 X274.769
X274.372 Y-26.02
X274.097 Y-26.046
X273.786 Y-26.091
X273.457 Y-26.153
X273.105 Y-26.237
X272.718 Y-26.348
X272.323 Y-26.481
X271.887 Y-26.651
X271.438 Y-26.85
X270.967 Y-27.085
X270.456 Y-27.369
X269.947 Y-27.685
X269.403 Y-28.057
X268.832 Y-28.488
X268.269 Y-28.954
X267.677 Y-29.493
X267.062 Y-30.107
X266.462 Y-30.761
X265.847 Y-31.499
X265.218 Y-32.328
X264.599 Y-33.226
X264.007 Y-34.175
X263.421 Y-35.218
X262.851 Y-36.353
X262.306 Y-37.573
X261.802 Y-38.856
X261.349 Y-40.186
X260.944 Y-41.581
X260.594 Y-43.033
X260.306 Y-44.527
X260.084 Y-46.044
X259.933 Y-47.565
X259.853 Y-49.072
X259.842 Y-50.553
X259.898 Y-51.981
X260.012 Y-53.33
X260.179 Y-54.603
X260.392 Y-55.802
X260.641 Y-56.903
X260.913 Y-57.893
X261.21 Y-58.809
X261.512 Y-59.612
X261.809 Y-60.305
X262.092 Y-60.887
X262.377 Y-61.412
X262.655 Y-61.874
X262.93 Y-62.284
X263.214 Y-62.671
X263.3 Y-62.777
X263.635 Y-63.133
X264.02 Y-63.436
X264.444 Y-63.679
X264.9 Y-63.856
X265.377 Y-63.964
X265.865 Y-64
X269.136
G3 X269.972 Y-63.803 I-0.077 J2.199
X271.229 Y-62.165 I-0.912 J2.002
G1 X276.862 Y-28.562
G3 X274.769 Y-26 I-2.17 J0.364
G1 X271.47
X271.123 Y-26.017
X270.847 Y-26.044
X270.535 Y-26.088
X270.207 Y-26.151
X269.854 Y-26.235
X269.466 Y-26.346
X269.07 Y-26.479
X268.634 Y-26.649
X268.185 Y-26.848
X267.712 Y-27.084
X267.201 Y-27.369
X266.691 Y-27.685
X266.146 Y-28.058
X265.575 Y-28.489
X265.012 Y-28.956
X264.418 Y-29.496
X263.802 Y-30.11
X263.202 Y-30.766
X262.585 Y-31.505
X261.955 Y-32.335
X261.336 Y-33.233
X260.743 Y-34.183
X260.157 Y-35.228
X259.585 Y-36.364
X259.04 Y-37.586
X258.536 Y-38.869
X258.082 Y-40.2
X257.677 Y-41.596
X257.327 Y-43.049
X257.039 Y-44.543
X256.818 Y-46.06
X256.667 Y-47.58
X256.587 Y-49.086
X256.576 Y-50.566
X256.631 Y-51.993
X256.745 Y-53.34
X256.912 Y-54.612
X257.125 Y-55.81
X257.373 Y-56.91
X257.645 Y-57.898
X257.942 Y-58.814
X258.243 Y-59.615
X258.54 Y-60.307
X258.822 Y-60.889
X259.107 Y-61.414
X259.386 Y-61.875
X259.66 Y-62.285
X259.944 Y-62.671
X260.03 Y-62.777
X260.365 Y-63.133
X260.749 Y-63.436
X261.174 Y-63.679
X261.629 Y-63.856
X262.106 Y-63.964
X262.594 Y-64
X265.865
G3 X267.958 Y-62.163 I-0.077 J2.199
G1 X273.563 Y-28.561
G3 X271.47 Y-26 I-2.17 J0.362
G1 X268.371
X267.856 Y-26.026
X267.581 Y-26.052
X267.27 Y-26.097
X266.942 Y-26.159
X266.59 Y-26.243
X266.202 Y-26.354
X265.806 Y-26.487
X265.37 Y-26.657
X264.921 Y-26.856
X264.449 Y-27.091
X263.938 Y-27.376
X263.428 Y-27.692
X262.883 Y-28.066
X262.312 Y-28.496
X261.748 Y-28.963
X261.155 Y-29.503
X260.538 Y-30.118
X259.938 Y-30.774
X259.321 Y-31.514
X258.69 Y-32.344
X258.071 Y-33.242
X257.478 Y-34.193
X256.891 Y-35.239
X256.319 Y-36.375
X255.773 Y-37.598
X255.269 Y-38.882
X254.816 Y-40.213
X254.411 Y-41.609
X254.061 Y-43.062
X253.772 Y-44.556
X253.551 Y-46.073
X253.4 Y-47.592
X253.32 Y-49.098
X253.309 Y-50.577
X253.364 Y-52.002
X253.478 Y-53.349
X253.645 Y-54.619
X253.858 Y-55.817
X254.106 Y-56.915
X254.377 Y-57.903
X254.674 Y-58.818
X254.975 Y-59.618
X255.272 Y-60.31
X255.554 Y-60.891
X255.839 Y-61.415
X256.117 Y-61.876
X256.391 Y-62.286
X256.675 Y-62.672
X256.76 Y-62.777
X257.095 Y-63.133
X257.479 Y-63.436
X257.904 Y-63.679
X258.36 Y-63.856
X258.837 Y-63.964
X259.324 Y-64
X262.594
G3 X264.686 Y-62.174 I-0.077 J2.199
G1 X270.462 Y-28.571
G3 X268.371 Y-26 I-2.168 J0.373
G1 X265.072
X264.605 Y-26.023
X264.329 Y-26.05
X264.018 Y-26.094
X263.689 Y-26.157
X263.336 Y-26.241
X262.948 Y-26.352
X262.551 Y-26.486
X262.114 Y-26.656
X261.665 Y-26.855
X261.192 Y-27.091
X260.68 Y-27.376
X260.169 Y-27.692
X259.623 Y-28.067
X259.052 Y-28.497
X258.488 Y-28.965
X257.893 Y-29.506
X257.276 Y-30.121
X256.675 Y-30.777
X256.057 Y-31.518
X255.426 Y-32.35
X254.807 Y-33.248
X254.213 Y-34.2
X253.626 Y-35.246
X253.054 Y-36.384
X252.507 Y-37.607
X252.003 Y-38.891
X251.55 Y-40.223
X251.144 Y-41.619
X250.794 Y-43.073
X250.506 Y-44.567
X250.284 Y-46.083
X250.134 Y-47.602
X250.054 Y-49.107
X250.043 Y-50.586
X250.098 Y-52.01
X250.212 Y-53.356
X250.378 Y-54.625
X250.591 Y-55.822
X250.839 Y-56.919
X251.11 Y-57.906
X251.407 Y-58.821
X251.707 Y-59.62
X252.004 Y-60.311
X252.286 Y-60.892
X252.57 Y-61.416
X252.848 Y-61.877
X253.122 Y-62.287
X253.406 Y-62.672
X253.491 Y-62.777
X253.826 Y-63.133
X254.21 Y-63.436
X254.635 Y-63.679
X255.091 Y-63.856
X255.568 Y-63.964
X256.055 Y-64
X259.324
G3 X260.16 Y-63.803 I-0.077 J2.199
X261.416 Y-62.172 I-0.912 J2.002
G1 X267.164 Y-28.57
G3 X265.072 Y-26 I-2.169 J0.371
G1 X261.773
X261.35 Y-26.021
X261.074 Y-26.048
X260.761 Y-26.092
X260.433 Y-26.155
X260.079 Y-26.239
X259.69 Y-26.35
X259.294 Y-26.484
X258.856 Y-26.654
X258.407 Y-26.853
X257.933 Y-27.09
X257.421 Y-27.375
X256.91 Y-27.692
X256.363 Y-28.066
X255.791 Y-28.497
X255.226 Y-28.966
X254.631 Y-29.507
X254.014 Y-30.123
X253.413 Y-30.779
X252.794 Y-31.521
X252.162 Y-32.354
X251.543 Y-33.252
X250.949 Y-34.205
X250.361 Y-35.252
X249.788 Y-36.39
X249.241 Y-37.614
X248.737 Y-38.898
X248.283 Y-40.231
X247.878 Y-41.628
X247.528 Y-43.081
X247.239 Y-44.575
X247.018 Y-46.092
X246.867 Y-47.61
X246.787 Y-49.115
X246.777 Y-50.593
X246.832 Y-52.016
X246.945 Y-53.361
X247.112 Y-54.63
X247.325 Y-55.827
X247.572 Y-56.923
X247.843 Y-57.909
X248.14 Y-58.824
X248.44 Y-59.622
X248.737 Y-60.313
X249.018 Y-60.893
X249.302 Y-61.417
X249.58 Y-61.878
X249.854 Y-62.287
X250.138 Y-62.673
X250.222 Y-62.777
X250.558 Y-63.133
X250.942 Y-63.436
X251.366 Y-63.679
X251.822 Y-63.856
X252.299 Y-63.964
X252.787 Y-64
X256.055
G3 X258.147 Y-62.17 I-0.077 J2.199
G1 X263.865 Y-28.568
G3 X261.773 Y-26 I-2.169 J0.369
G1 X258.474
X258.092 Y-26.019
X257.815 Y-26.046
X257.503 Y-26.09
X257.174 Y-26.153
X256.82 Y-26.237
X256.431 Y-26.348
X256.034 Y-26.482
X255.596 Y-26.653
X255.147 Y-26.852
X254.673 Y-27.088
X254.16 Y-27.374
X253.649 Y-27.691
X253.101 Y-28.066
X252.53 Y-28.497
X251.964 Y-28.966
X251.368 Y-29.508
X250.751 Y-30.123
X250.149 Y-30.78
X249.53 Y-31.523
X248.897 Y-32.356
X248.278 Y-33.254
X247.684 Y-34.208
X247.095 Y-35.256
X246.522 Y-36.395
X245.976 Y-37.619
X245.471 Y-38.904
X245.017 Y-40.236
X244.612 Y-41.634
X244.261 Y-43.088
X243.973 Y-44.582
X243.752 Y-46.098
X243.601 Y-47.617
X243.521 Y-49.121
X243.51 Y-50.599
X243.565 Y-52.021
X243.679 Y-53.366
X243.845 Y-54.634
X244.058 Y-55.83
X244.306 Y-56.926
X244.576 Y-57.912
X244.873 Y-58.826
X245.173 Y-59.623
X245.469 Y-60.314
X245.751 Y-60.894
X246.035 Y-61.418
X246.313 Y-61.878
X246.587 Y-62.288
X246.87 Y-62.673
X246.954 Y-62.777
X247.29 Y-63.133
X247.674 Y-63.436
X248.098 Y-63.679
X248.554 Y-63.856
X249.031 Y-63.964
X249.519 Y-64
X252.787
G3 X254.879 Y-62.168 I-0.077 J2.199
G1 X260.566 Y-28.566
G3 X258.474 Y-26 I-2.169 J0.367
G1 X255.175
X254.832 Y-26.017
X254.555 Y-26.044
X254.243 Y-26.088
X253.914 Y-26.151
X253.56 Y-26.235
X253.171 Y-26.347
X252.774 Y-26.481
X252.335 Y-26.651
X251.886 Y-26.85
X251.411 Y-27.087
X250.898 Y-27.373
X250.387 Y-27.69
X249.839 Y-28.065
X249.267 Y-28.496
X248.702 Y-28.965
X248.105 Y-29.508
X247.487 Y-30.124
X246.885 Y-30.781
X246.266 Y-31.524
X245.633 Y-32.358
X245.013 Y-33.256
X244.419 Y-34.21
X243.83 Y-35.259
X243.257 Y-36.398
X242.71 Y-37.623
X242.205 Y-38.908
X241.751 Y-40.241
X241.346 Y-41.639
X240.995 Y-43.093
X240.706 Y-44.587
X240.485 Y-46.104
X240.335 Y-47.622
X240.255 Y-49.126
X240.244 Y-50.604
X240.299 Y-52.026
X240.413 Y-53.369
X240.579 Y-54.638
X240.792 Y-55.833
X241.039 Y-56.928
X241.31 Y-57.913
X241.606 Y-58.827
X241.906 Y-59.625
X242.202 Y-60.315
X242.483 Y-60.894
X242.768 Y-61.418
X243.045 Y-61.878
X243.319 Y-62.288
X243.603 Y-62.673
X243.687 Y-62.777
X244.022 Y-63.133
X244.406 Y-63.436
X244.831 Y-63.679
X245.286 Y-63.856
X245.764 Y-63.964
X246.251 Y-64
X249.519
G3 X250.354 Y-63.803 I-0.077 J2.199
X251.612 Y-62.167 I-0.912 J2.002
G1 X257.268 Y-28.564
G3 X255.175 Y-26 I-2.169 J0.365
G1 X251.876
X251.571 Y-26.015
X251.294 Y-26.042
X250.981 Y-26.087
X250.653 Y-26.149
X250.298 Y-26.233
X249.909 Y-26.345
X249.512 Y-26.479
X249.073 Y-26.65
X248.624 Y-26.849
X248.149 Y-27.086
X247.636 Y-27.372
X247.124 Y-27.689
X246.576 Y-28.064
X246.004 Y-28.495
X245.438 Y-28.964
X244.841 Y-29.507
X244.223 Y-30.123
X243.621 Y-30.781
X243.001 Y-31.525
X242.368 Y-32.359
X241.748 Y-33.257
X241.153 Y-34.212
X240.564 Y-35.261
X239.991 Y-36.401
X239.444 Y-37.626
X238.939 Y-38.911
X238.485 Y-40.244
X238.079 Y-41.642
X237.729 Y-43.097
X237.44 Y-44.591
X237.219 Y-46.108
X237.068 Y-47.626
X236.988 Y-49.13
X236.978 Y-50.607
X237.033 Y-52.029
X237.146 Y-53.372
X237.313 Y-54.64
X237.525 Y-55.835
X237.772 Y-56.93
X238.043 Y-57.915
X238.339 Y-58.828
X238.639 Y-59.625
X238.935 Y-60.316
X239.216 Y-60.895
X239.501 Y-61.419
X239.778 Y-61.879
X240.052 Y-62.288
X240.336 Y-62.674
X240.419 Y-62.777
X240.755 Y-63.133
X241.139 Y-63.436
X241.563 Y-63.679
X242.019 Y-63.856
X242.496 Y-63.964
X242.984 Y-64
X246.251
G3 X248.344 Y-62.165 I-0.077 J2.199
G1 X253.969 Y-28.562
G3 X251.876 Y-26 I-2.17 J0.363
G1 X248.711
X248.3 Y-26.021
X248.024 Y-26.047
X247.711 Y-26.092
X247.383 Y-26.154
X247.029 Y-26.238
X246.64 Y-26.35
X246.243 Y-26.484
X245.805 Y-26.654
X245.356 Y-26.853
X244.881 Y-27.09
X244.368 Y-27.376
X243.857 Y-27.693
X243.309 Y-28.068
X242.737 Y-28.499
X242.172 Y-28.968
X241.575 Y-29.511
X240.957 Y-30.127
X240.355 Y-30.784
X239.735 Y-31.528
X239.102 Y-32.362
X238.482 Y-33.261
X237.887 Y-34.215
X237.298 Y-35.264
X236.725 Y-36.404
X236.177 Y-37.63
X235.673 Y-38.915
X235.219 Y-40.248
X234.813 Y-41.646
X234.462 Y-43.1
X234.174 Y-44.595
X233.953 Y-46.111
X233.802 Y-47.629
X233.722 Y-49.133
X233.711 Y-50.61
X233.766 Y-52.031
X233.88 Y-53.374
X234.046 Y-54.642
X234.259 Y-55.837
X234.506 Y-56.931
X234.776 Y-57.916
X235.073 Y-58.83
X235.372 Y-59.626
X235.669 Y-60.316
X235.95 Y-60.895
X236.234 Y-61.419
X236.511 Y-61.879
X236.785 Y-62.289
X237.069 Y-62.674
X237.152 Y-62.777
X237.487 Y-63.133
X237.871 Y-63.436
X238.296 Y-63.679
X238.752 Y-63.856
X239.229 Y-63.964
X239.717 Y-64
X242.984
G3 X245.076 Y-62.171 I-0.077 J2.199
G1 X250.803 Y-28.568
G3 X248.711 Y-26 I-2.169 J0.37
G1 X245.412
X245.04 Y-26.019
X244.764 Y-26.045
X244.451 Y-26.09
X244.123 Y-26.152
X243.768 Y-26.237
X243.379 Y-26.348
X242.982 Y-26.482
X242.543 Y-26.653
X242.094 Y-26.852
X241.618 Y-27.089
X241.105 Y-27.375
X240.594 Y-27.692
X240.045 Y-28.067
X239.473 Y-28.499
X238.907 Y-28.968
X238.31 Y-29.511
X237.692 Y-30.127
X237.09 Y-30.785
X236.47 Y-31.529
X235.836 Y-32.363
X235.217 Y-33.262
X234.621 Y-34.216
X234.032 Y-35.266
X233.459 Y-36.407
X232.911 Y-37.632
X232.407 Y-38.917
X231.952 Y-40.25
X231.547 Y-41.649
X231.196 Y-43.103
X230.908 Y-44.598
X230.686 Y-46.114
X230.536 Y-47.632
X230.456 Y-49.136
X230.445 Y-50.613
X230.5 Y-52.033
X230.614 Y-53.376
X230.78 Y-54.644
X230.993 Y-55.839
X231.24 Y-56.932
X231.51 Y-57.917
X231.806 Y-58.83
X232.106 Y-59.627
X232.402 Y-60.317
X232.683 Y-60.896
X232.967 Y-61.42
X233.245 Y-61.879
X233.518 Y-62.289
X233.802 Y-62.674
X233.885 Y-62.777
X234.22 Y-63.133
X234.605 Y-63.436
X235.029 Y-63.679
X235.485 Y-63.856
X235.962 Y-63.964
X236.45 Y-64
X239.717
G3 X240.552 Y-63.803 I-0.077 J2.199
X241.809 Y-62.169 I-0.912 J2.002
G1 X247.505 Y-28.566
G3 X245.412 Y-26 I-2.169 J0.368
G1 X242.277
X241.767 Y-26.026
X241.491 Y-26.052
X241.179 Y-26.097
X240.851 Y-26.159
X240.497 Y-26.243
X240.108 Y-26.355
X239.711 Y-26.488
X239.273 Y-26.659
X238.824 Y-26.858
X238.349 Y-27.095
X237.837 Y-27.381
X237.325 Y-27.697
X236.777 Y-28.073
X236.205 Y-28.504
X235.64 Y-28.973
X235.043 Y-29.516
X234.425 Y-30.132
X233.823 Y-30.789
X233.203 Y-31.533
X232.57 Y-32.367
X231.95 Y-33.266
X231.355 Y-34.22
X230.766 Y-35.269
X230.192 Y-36.41
X229.645 Y-37.635
X229.14 Y-38.921
X228.686 Y-40.254
X228.28 Y-41.652
X227.93 Y-43.106
X227.641 Y-44.601
X227.42 Y-46.117
X227.27 Y-47.635
X227.19 Y-49.138
X227.179 Y-50.615
X227.234 Y-52.035
X227.347 Y-53.378
X227.514 Y-54.645
X227.726 Y-55.84
X227.973 Y-56.933
X228.244 Y-57.918
X228.54 Y-58.831
X228.839 Y-59.627
X229.136 Y-60.317
X229.416 Y-60.896
X229.7 Y-61.42
X229.978 Y-61.88
X230.252 Y-62.289
X230.535 Y-62.674
X230.618 Y-62.777
X230.954 Y-63.133
X231.338 Y-63.436
X231.762 Y-63.679
X232.218 Y-63.856
X232.695 Y-63.964
X233.183 Y-64
X236.45
G3 X238.541 Y-62.177 I-0.077 J2.199
G1 X244.368 Y-28.575
G3 X242.277 Y-26 I-2.168 J0.376
G1 X238.978
X238.509 Y-26.024
X238.232 Y-26.05
X237.919 Y-26.095
X237.591 Y-26.157
X237.236 Y-26.242
X236.847 Y-26.353
X236.45 Y-26.487
X236.011 Y-26.658
X235.562 Y-26.857
X235.086 Y-27.094
X234.573 Y-27.38
X234.062 Y-27.697
X233.513 Y-28.072
X232.941 Y-28.504
X232.375 Y-28.973
X231.778 Y-29.516
X231.16 Y-30.132
X230.558 Y-30.79
X229.937 Y-31.534
X229.304 Y-32.369
X228.685 Y-33.267
X228.089 Y-34.222
X227.5 Y-35.271
X226.926 Y-36.412
X226.379 Y-37.638
X225.874 Y-38.923
X225.42 Y-40.256
X225.014 Y-41.654
X224.664 Y-43.109
X224.375 Y-44.603
X224.154 Y-46.119
X224.003 Y-47.637
X223.923 Y-49.14
X223.913 Y-50.617
X223.968 Y-52.037
X224.081 Y-53.379
X224.247 Y-54.646
X224.46 Y-55.841
X224.707 Y-56.934
X224.977 Y-57.919
X225.274 Y-58.832
X225.573 Y-59.628
X225.869 Y-60.318
X226.15 Y-60.896
X226.434 Y-61.42
X226.711 Y-61.88
X226.985 Y-62.289
X227.269 Y-62.674
X227.352 Y-62.777
X227.687 Y-63.133
X228.071 Y-63.436
X228.496 Y-63.679
X228.952 Y-63.856
X229.429 Y-63.964
X229.916 Y-64
X233.183
G3 X234.019 Y-63.803 I-0.077 J2.199
X235.274 Y-62.175 I-0.912 J2.002
G1 X241.069 Y-28.573
G3 X238.978 Y-26 I-2.168 J0.374
G1 X235.679
X235.247 Y-26.022
X234.97 Y-26.048
X234.657 Y-26.093
X234.328 Y-26.155
X233.973 Y-26.24
X233.584 Y-26.351
X233.187 Y-26.485
X232.748 Y-26.656
X232.298 Y-26.855
X231.823 Y-27.092
X231.31 Y-27.379
X230.798 Y-27.696
X230.249 Y-28.071
X229.677 Y-28.503
X229.111 Y-28.972
X228.513 Y-29.516
X227.895 Y-30.132
X227.293 Y-30.79
X226.672 Y-31.534
X226.038 Y-32.369
X225.419 Y-33.268
X224.823 Y-34.222
X224.234 Y-35.272
X223.66 Y-36.413
X223.113 Y-37.639
X222.608 Y-38.924
X222.154 Y-40.258
X221.748 Y-41.656
X221.398 Y-43.11
X221.109 Y-44.605
X220.888 Y-46.121
X220.737 Y-47.638
X220.657 Y-49.142
X220.647 Y-50.618
X220.702 Y-52.038
X220.815 Y-53.38
X220.981 Y-54.647
X221.194 Y-55.842
X221.441 Y-56.935
X221.711 Y-57.919
X222.007 Y-58.832
X222.307 Y-59.628
X222.603 Y-60.318
X222.883 Y-60.897
X223.168 Y-61.42
X223.445 Y-61.88
X223.719 Y-62.289
X224.002 Y-62.674
X224.085 Y-62.777
X224.42 Y-63.133
X224.805 Y-63.436
X225.229 Y-63.679
X225.685 Y-63.856
X226.162 Y-63.964
X226.65 Y-64
X229.916
G3 X230.752 Y-63.803 I-0.077 J2.199
X232.008 Y-62.173 I-0.912 J2.002
G1 X237.771 Y-28.571
G3 X235.679 Y-26 I-2.168 J0.372
G1 X232.38
X231.983 Y-26.02
X231.707 Y-26.046
X231.393 Y-26.091
X231.065 Y-26.154
X230.71 Y-26.238
X230.321 Y-26.35
X229.923 Y-26.484
X229.484 Y-26.655
X229.035 Y-26.854
X228.559 Y-27.091
X228.045 Y-27.377
X227.533 Y-27.694
X226.984 Y-28.07
X226.412 Y-28.502
X225.846 Y-28.971
X225.248 Y-29.515
X224.63 Y-30.131
X224.028 Y-30.789
X223.407 Y-31.534
X222.773 Y-32.369
X222.153 Y-33.267
X221.558 Y-34.223
X220.968 Y-35.273
X220.394 Y-36.414
X219.847 Y-37.64
X219.342 Y-38.925
X218.888 Y-40.258
X218.482 Y-41.657
X218.131 Y-43.111
X217.843 Y-44.606
X217.622 Y-46.122
X217.471 Y-47.64
X217.391 Y-49.143
X217.381 Y-50.619
X217.435 Y-52.039
X217.549 Y-53.381
X217.715 Y-54.648
X217.928 Y-55.843
X218.175 Y-56.935
X218.445 Y-57.92
X218.741 Y-58.833
X219.04 Y-59.628
X219.336 Y-60.318
X219.617 Y-60.897
X219.901 Y-61.42
X220.179 Y-61.88
X220.452 Y-62.289
X220.736 Y-62.674
X220.819 Y-62.777
X221.154 Y-63.133
X221.538 Y-63.436
X221.963 Y-63.679
X222.419 Y-63.856
X222.896 Y-63.964
X223.383 Y-64
X226.65
G3 X228.742 Y-62.171 I-0.077 J2.199
G1 X234.472 Y-28.569
G3 X232.38 Y-26 I-2.169 J0.37
G1 X229.082
X228.72 Y-26.018
X228.443 Y-26.045
X228.129 Y-26.089
X227.801 Y-26.152
X227.446 Y-26.236
X227.057 Y-26.348
X226.659 Y-26.482
X226.219 Y-26.653
X225.77 Y-26.852
X225.294 Y-27.089
X224.781 Y-27.376
X224.269 Y-27.693
X223.72 Y-28.069
X223.148 Y-28.5
X222.581 Y-28.97
X221.983 Y-29.514
X221.365 Y-30.13
X220.762 Y-30.788
X220.141 Y-31.533
X219.507 Y-32.368
X218.888 Y-33.267
X218.292 Y-34.222
X217.702 Y-35.273
X217.128 Y-36.414
X216.581 Y-37.64
X216.076 Y-38.925
X215.622 Y-40.259
X215.216 Y-41.658
X214.865 Y-43.112
X214.577 Y-44.607
X214.356 Y-46.123
X214.205 Y-47.64
X214.125 Y-49.144
X214.114 Y-50.62
X214.169 Y-52.04
X214.283 Y-53.382
X214.449 Y-54.649
X214.662 Y-55.843
X214.908 Y-56.936
X215.179 Y-57.92
X215.475 Y-58.833
X215.774 Y-59.629
X216.07 Y-60.318
X216.351 Y-60.897
X216.635 Y-61.42
X216.912 Y-61.88
X217.186 Y-62.289
X217.469 Y-62.674
X217.552 Y-62.777
X217.888 Y-63.133
X218.272 Y-63.436
X218.696 Y-63.679
X219.152 Y-63.856
X219.629 Y-63.964
X220.117 Y-64
X223.383
G3 X224.219 Y-63.803 I-0.077 J2.199
X225.476 Y-62.169 I-0.912 J2.002
G1 X231.174 Y-28.566
G3 X229.082 Y-26 I-2.169 J0.368
G1 X225.783
X225.455 Y-26.016
X225.179 Y-26.043
X224.865 Y-26.088
X224.537 Y-26.15
X224.181 Y-26.235
X223.792 Y-26.346
X223.394 Y-26.48
X222.955 Y-26.651
X222.506 Y-26.85
X222.029 Y-27.088
X221.516 Y-27.374
X221.004 Y-27.691
X220.455 Y-28.067
X219.882 Y-28.499
X219.316 Y-28.969
X218.718 Y-29.513
X218.099 Y-30.129
X217.497 Y-30.787
X216.876 Y-31.532
X216.242 Y-32.368
X215.622 Y-33.266
X215.026 Y-34.222
X214.436 Y-35.272
X213.862 Y-36.414
X213.315 Y-37.64
X212.81 Y-38.925
X212.356 Y-40.259
X211.95 Y-41.658
X211.599 Y-43.112
X211.311 Y-44.607
X211.089 Y-46.123
X210.939 Y-47.641
X210.859 Y-49.144
X210.848 Y-50.621
X210.903 Y-52.04
X211.017 Y-53.382
X211.183 Y-54.649
X211.395 Y-55.843
X211.642 Y-56.936
X211.912 Y-57.92
X212.209 Y-58.833
X212.508 Y-59.629
X212.804 Y-60.318
X213.084 Y-60.897
X213.369 Y-61.42
X213.646 Y-61.88
X213.92 Y-62.289
X214.203 Y-62.674
X214.286 Y-62.777
X214.621 Y-63.133
X215.005 Y-63.436
X215.43 Y-63.679
X215.886 Y-63.856
X216.363 Y-63.964
X216.851 Y-64
X220.117
G3 X220.952 Y-63.803 I-0.077 J2.199
X222.21 Y-62.167 I-0.912 J2.002
G1 X227.875 Y-28.564
G3 X225.783 Y-26 I-2.169 J0.366
G1 X222.484
X222.191 Y-26.015
X221.914 Y-26.041
X221.6 Y-26.086
X221.272 Y-26.148
X220.916 Y-26.233
X220.527 Y-26.345
X220.129 Y-26.479
X219.69 Y-26.65
X219.241 Y-26.849
X218.764 Y-27.086
X218.251 Y-27.373
X217.739 Y-27.69
X217.189 Y-28.066
X216.617 Y-28.498
X216.051 Y-28.967
X215.453 Y-29.511
X214.834 Y-30.128
X214.232 Y-30.786
X213.61 Y-31.531
X212.976 Y-32.367
X212.356 Y-33.265
X211.761 Y-34.221
X211.17 Y-35.272
X210.596 Y-36.413
X210.049 Y-37.64
X209.544 Y-38.925
X209.09 Y-40.259
X208.684 Y-41.658
X208.333 Y-43.113
X208.044 Y-44.607
X207.823 Y-46.124
X207.673 Y-47.641
X207.593 Y-49.144
X207.582 Y-50.621
X207.637 Y-52.041
X207.751 Y-53.382
X207.917 Y-54.649
X208.129 Y-55.844
X208.376 Y-56.936
X208.646 Y-57.921
X208.942 Y-58.833
X209.242 Y-59.629
X209.538 Y-60.318
X209.818 Y-60.897
X210.102 Y-61.421
X210.38 Y-61.88
X210.653 Y-62.289
X210.937 Y-62.674
X211.02 Y-62.777
X211.355 Y-63.133
X211.739 Y-63.436
X212.164 Y-63.679
X212.619 Y-63.856
X213.097 Y-63.964
X213.584 Y-64
X216.851
G3 X217.686 Y-63.803 I-0.077 J2.199
X218.944 Y-62.165 I-0.912 J2.002
G1 X224.577 Y-28.562
G3 X222.484 Y-26 I-2.17 J0.364
G1 X219.348
X218.915 Y-26.022
X218.638 Y-26.048
X218.326 Y-26.093
X217.998 Y-26.155
X217.643 Y-26.24
X217.254 Y-26.351
X216.857 Y-26.485
X216.418 Y-26.656
X215.969 Y-26.855
X215.494 Y-27.092
X214.981 Y-27.378
X214.469 Y-27.695
X213.92 Y-28.071
X213.348 Y-28.502
X212.782 Y-28.971
X212.184 Y-29.515
X211.566 Y-30.131
X210.964 Y-30.789
X210.343 Y-31.534
X209.709 Y-32.369
X209.09 Y-33.268
X208.494 Y-34.223
X207.904 Y-35.273
X207.33 Y-36.415
X206.782 Y-37.641
X206.278 Y-38.926
X205.823 Y-40.26
X205.417 Y-41.659
X205.067 Y-43.113
X204.778 Y-44.608
X204.557 Y-46.124
X204.406 Y-47.642
X204.327 Y-49.145
X204.316 Y-50.621
X204.371 Y-52.041
X204.484 Y-53.383
X204.65 Y-54.65
X204.863 Y-55.844
X205.11 Y-56.937
X205.38 Y-57.921
X205.676 Y-58.833
X205.975 Y-59.629
X206.271 Y-60.319
X206.552 Y-60.897
X206.836 Y-61.421
X207.113 Y-61.88
X207.387 Y-62.29
X207.671 Y-62.674
X207.754 Y-62.777
X208.089 Y-63.133
X208.473 Y-63.436
X208.897 Y-63.679
X209.353 Y-63.856
X209.83 Y-63.964
X210.318 Y-64
X213.584
G3 X214.42 Y-63.803 I-0.077 J2.199
X215.676 Y-62.173 I-0.912 J2.002
G1 X221.44 Y-28.571
G3 X219.348 Y-26 I-2.168 J0.372
G1 X216.05
X215.654 Y-26.02
X215.377 Y-26.046
X215.064 Y-26.091
X214.735 Y-26.153
X214.38 Y-26.238
X213.991 Y-26.349
X213.594 Y-26.484
X213.154 Y-26.654
X212.705 Y-26.853
X212.229 Y-27.091
X211.716 Y-27.377
X211.204 Y-27.694
X210.655 Y-28.07
X210.083 Y-28.502
X209.517 Y-28.971
X208.919 Y-29.515
X208.3 Y-30.131
X207.698 Y-30.79
X207.077 Y-31.534
X206.443 Y-32.369
X205.823 Y-33.268
X205.228 Y-34.223
X204.638 Y-35.274
X204.064 Y-36.415
X203.516 Y-37.641
X203.011 Y-38.927
X202.557 Y-40.26
X202.151 Y-41.659
X201.801 Y-43.114
X201.512 Y-44.609
X201.291 Y-46.125
X201.14 Y-47.642
X201.06 Y-49.145
X201.05 Y-50.622
X201.105 Y-52.041
X201.218 Y-53.383
X201.384 Y-54.65
X201.597 Y-55.844
X201.844 Y-56.937
X202.114 Y-57.921
X202.41 Y-58.834
X202.709 Y-59.629
X203.005 Y-60.319
X203.286 Y-60.897
X203.57 Y-61.421
X203.847 Y-61.88
X204.121 Y-62.29
X204.404 Y-62.674
X204.487 Y-62.777
X204.822 Y-63.133
X205.206 Y-63.436
X205.631 Y-63.679
X206.087 Y-63.856
X206.564 Y-63.964
X207.052 Y-64
X210.318
G3 X211.154 Y-63.803 I-0.077 J2.199
X212.41 Y-62.171 I-0.912 J2.002
G1 X218.141 Y-28.569
G3 X216.05 Y-26 I-2.169 J0.37
G1 X212.751
X212.39 Y-26.018
X212.113 Y-26.045
X211.8 Y-26.089
X211.472 Y-26.152
X211.116 Y-26.236
X210.727 Y-26.348
X210.329 Y-26.482
X209.89 Y-26.653
X209.441 Y-26.852
X208.965 Y-27.089
X208.451 Y-27.376
X207.939 Y-27.693
X207.39 Y-28.069
X206.818 Y-28.501
X206.251 Y-28.97
X205.653 Y-29.514
X205.035 Y-30.131
X204.432 Y-30.789
X203.811 Y-31.534
X203.177 Y-32.369
X202.558 Y-33.268
X201.962 Y-34.223
X201.372 Y-35.274
X200.798 Y-36.415
X200.25 Y-37.642
X199.745 Y-38.927
X199.291 Y-40.261
X198.885 Y-41.659
X198.534 Y-43.114
X198.246 Y-44.609
X198.025 Y-46.125
X197.874 Y-47.642
X197.794 Y-49.146
X197.784 Y-50.622
X197.838 Y-52.042
X197.952 Y-53.383
X198.118 Y-54.65
X198.331 Y-55.844
X198.577 Y-56.937
X198.848 Y-57.921
X199.144 Y-58.834
X199.443 Y-59.629
X199.739 Y-60.319
X200.019 Y-60.897
X200.304 Y-61.421
X200.581 Y-61.88
X200.855 Y-62.29
X201.138 Y-62.674
X201.221 Y-62.777
X201.556 Y-63.133
X201.94 Y-63.436
X202.365 Y-63.679
X202.821 Y-63.856
X203.298 Y-63.964
X203.785 Y-64
X207.052
G3 X209.144 Y-62.169 I-0.077 J2.199
G1 X214.843 Y-28.567
G3 X212.751 Y-26 I-2.169 J0.368
G1 X209.452
X209.126 Y-26.016
X208.849 Y-26.043
X208.536 Y-26.088
X208.207 Y-26.15
X207.851 Y-26.235
X207.463 Y-26.346
X207.065 Y-26.48
X206.625 Y-26.651
X206.176 Y-26.85
X205.7 Y-27.088
X205.186 Y-27.374
X204.674 Y-27.691
X204.125 Y-28.068
X203.553 Y-28.499
X202.986 Y-28.969
X202.388 Y-29.513
X201.769 Y-30.13
X201.167 Y-30.788
X200.546 Y-31.533
X199.911 Y-32.368
X199.292 Y-33.267
X198.696 Y-34.223
X198.106 Y-35.273
X197.532 Y-36.415
X196.984 Y-37.641
X196.479 Y-38.927
X196.025 Y-40.26
X195.619 Y-41.659
X195.268 Y-43.114
X194.98 Y-44.609
X194.759 Y-46.125
X194.608 Y-47.643
X194.528 Y-49.146
X194.517 Y-50.622
X194.572 Y-52.042
X194.686 Y-53.383
X194.852 Y-54.65
X195.065 Y-55.844
X195.311 Y-56.937
X195.581 Y-57.921
X195.878 Y-58.834
X196.177 Y-59.629
X196.473 Y-60.319
X196.753 Y-60.897
X197.037 Y-61.421
X197.315 Y-61.88
X197.588 Y-62.29
X197.872 Y-62.674
X197.955 Y-62.777
X198.29 Y-63.133
X198.674 Y-63.436
X199.099 Y-63.679
X199.555 Y-63.856
X200.032 Y-63.964
X200.519 Y-64
X203.785
G3 X204.621 Y-63.803 I-0.077 J2.199
X205.878 Y-62.167 I-0.912 J2.002
G1 X211.544 Y-28.564
G3 X209.452 Y-26 I-2.169 J0.366
G1 X206.353
X205.848 Y-26.025
X205.571 Y-26.052
X205.259 Y-26.096
X204.931 Y-26.159
X204.576 Y-26.243
X204.188 Y-26.354
X203.791 Y-26.488
X203.352 Y-26.659
X202.903 Y-26.858
X202.428 Y-27.095
X201.915 Y-27.381
X201.403 Y-27.698
X200.855 Y-28.074
X200.283 Y-28.505
X199.717 Y-28.974
X199.119 Y-29.518
X198.501 Y-30.134
X197.899 Y-30.792
X197.278 Y-31.536
X196.644 Y-32.371
X196.025 Y-33.27
X195.429 Y-34.225
X194.839 Y-35.275
X194.265 Y-36.417
X193.718 Y-37.643
X193.213 Y-38.928
X192.759 Y-40.262
X192.353 Y-41.66
X192.002 Y-43.115
X191.714 Y-44.61
X191.492 Y-46.126
X191.342 Y-47.643
X191.262 Y-49.146
X191.251 Y-50.623
X191.306 Y-52.042
X191.42 Y-53.384
X191.586 Y-54.65
X191.798 Y-55.845
X192.045 Y-56.937
X192.315 Y-57.921
X192.611 Y-58.834
X192.911 Y-59.629
X193.207 Y-60.319
X193.487 Y-60.897
X193.771 Y-61.421
X194.049 Y-61.88
X194.322 Y-62.29
X194.606 Y-62.674
X194.689 Y-62.777
X195.024 Y-63.133
X195.408 Y-63.436
X195.832 Y-63.679
X196.288 Y-63.856
X196.765 Y-63.964
X197.253 Y-64
X200.519
G3 X201.355 Y-63.803 I-0.077 J2.199
X202.61 Y-62.178 I-0.912 J2.002
G1 X208.443 Y-28.575
G3 X206.353 Y-26 I-2.168 J0.376
G1 X203.054
X202.588 Y-26.023
X202.311 Y-26.05
X201.998 Y-26.095
X201.669 Y-26.157
X201.314 Y-26.241
X200.925 Y-26.353
X200.528 Y-26.487
X200.089 Y-26.658
X199.639 Y-26.857
X199.164 Y-27.094
X198.651 Y-27.38
X198.139 Y-27.697
X197.59 Y-28.073
X197.018 Y-28.505
X196.451 Y-28.974
X195.854 Y-29.518
X195.235 Y-30.134
X194.633 Y-30.792
X194.012 Y-31.537
X193.378 Y-32.372
X192.759 Y-33.271
X192.163 Y-34.226
X191.573 Y-35.276
X190.999 Y-36.418
X190.451 Y-37.644
X189.947 Y-38.929
X189.493 Y-40.263
X189.087 Y-41.661
X188.736 Y-43.116
X188.448 Y-44.61
X188.226 Y-46.126
X188.076 Y-47.644
X187.996 Y-49.147
X187.985 Y-50.623
X188.04 Y-52.042
X188.154 Y-53.384
X188.32 Y-54.651
X188.532 Y-55.845
X188.779 Y-56.937
X189.049 Y-57.921
X189.345 Y-58.834
X189.644 Y-59.629
X189.941 Y-60.319
X190.221 Y-60.897
X190.505 Y-61.421
X190.782 Y-61.88
X191.056 Y-62.29
X191.339 Y-62.674
X191.422 Y-62.777
X191.758 Y-63.133
X192.142 Y-63.436
X192.566 Y-63.679
X193.022 Y-63.856
X193.499 Y-63.964
X193.987 Y-64
X197.253
G3 X199.344 Y-62.176 I-0.077 J2.199
G1 X205.145 Y-28.573
G3 X203.054 Y-26 I-2.168 J0.374
G1 X199.755
X199.324 Y-26.022
X199.048 Y-26.048
X198.734 Y-26.093
X198.406 Y-26.155
X198.05 Y-26.24
X197.662 Y-26.351
X197.264 Y-26.485
X196.824 Y-26.656
X196.375 Y-26.855
X195.899 Y-27.093
X195.386 Y-27.379
X194.874 Y-27.696
X194.325 Y-28.072
X193.753 Y-28.504
X193.186 Y-28.973
X192.588 Y-29.517
X191.97 Y-30.134
X191.367 Y-30.792
X190.746 Y-31.537
X190.112 Y-32.372
X189.493 Y-33.271
X188.897 Y-34.226
X188.307 Y-35.276
X187.733 Y-36.418
X187.185 Y-37.644
X186.681 Y-38.929
X186.226 Y-40.263
X185.821 Y-41.662
X185.47 Y-43.116
X185.181 Y-44.611
X184.96 Y-46.127
X184.81 Y-47.644
X184.73 Y-49.147
X184.719 Y-50.623
X184.774 Y-52.043
X184.888 Y-53.384
X185.054 Y-54.651
X185.266 Y-55.845
X185.513 Y-56.937
X185.783 Y-57.921
X186.079 Y-58.834
X186.378 Y-59.629
X186.674 Y-60.319
X186.955 Y-60.897
X187.239 Y-61.421
X187.516 Y-61.88
X187.79 Y-62.29
X188.073 Y-62.675
X188.156 Y-62.777
X188.491 Y-63.133
X188.876 Y-63.436
X189.3 Y-63.679
X189.756 Y-63.856
X190.233 Y-63.964
X190.721 Y-64
X193.987
G3 X194.822 Y-63.803 I-0.077 J2.199
X196.078 Y-62.174 I-0.912 J2.002
G1 X201.847 Y-28.571
G3 X199.755 Y-26 I-2.168 J0.372
G1 X196.456
X196.06 Y-26.02
X195.783 Y-26.046
X195.47 Y-26.091
X195.142 Y-26.154
X194.786 Y-26.238
X194.397 Y-26.35
X193.999 Y-26.484
X193.56 Y-26.655
X193.111 Y-26.854
X192.634 Y-27.091
X192.121 Y-27.378
X191.609 Y-27.695
X191.06 Y-28.071
X190.487 Y-28.503
X189.921 Y-28.972
X189.323 Y-29.516
X188.704 Y-30.133
X188.102 Y-30.791
X187.481 Y-31.536
X186.846 Y-32.371
X186.227 Y-33.27
X185.631 Y-34.225
X185.041 Y-35.276
X184.467 Y-36.417
X183.919 Y-37.644
X183.415 Y-38.929
X182.96 Y-40.263
X182.555 Y-41.662
X182.204 Y-43.116
X181.915 Y-44.611
X181.694 Y-46.127
X181.544 Y-47.644
X181.464 Y-49.147
X181.453 Y-50.623
X181.508 Y-52.043
X181.621 Y-53.384
X181.788 Y-54.651
X182 Y-55.845
X182.247 Y-56.937
X182.517 Y-57.921
X182.813 Y-58.834
X183.112 Y-59.629
X183.408 Y-60.319
X183.689 Y-60.897
X183.973 Y-61.421
X184.25 Y-61.88
X184.524 Y-62.29
X184.807 Y-62.675
X184.89 Y-62.777
X185.225 Y-63.133
X185.609 Y-63.436
X186.034 Y-63.679
X186.49 Y-63.856
X186.967 Y-63.964
X187.455 Y-64
X190.721
G3 X192.813 Y-62.171 I-0.077 J2.199
G1 X198.548 Y-28.569
G3 X196.456 Y-26 I-2.169 J0.37
G1 X193.157
X192.796 Y-26.018
X192.519 Y-26.045
X192.205 Y-26.089
X191.877 Y-26.152
X191.521 Y-26.236
X191.132 Y-26.348
X190.734 Y-26.482
X190.295 Y-26.653
X189.846 Y-26.852
X189.369 Y-27.09
X188.856 Y-27.376
X188.344 Y-27.693
X187.794 Y-28.069
X187.222 Y-28.501
X186.656 Y-28.971
X186.057 Y-29.515
X185.439 Y-30.131
X184.836 Y-30.79
X184.215 Y-31.535
X183.581 Y-32.37
X182.961 Y-33.269
X182.365 Y-34.225
X181.775 Y-35.275
X181.201 Y-36.417
X180.653 Y-37.643
X180.149 Y-38.929
X179.694 Y-40.262
X179.288 Y-41.661
X178.938 Y-43.116
X178.649 Y-44.611
X178.428 Y-46.127
X178.277 Y-47.644
X178.198 Y-49.147
X178.187 Y-50.623
X178.242 Y-52.043
X178.355 Y-53.384
X178.521 Y-54.651
X178.734 Y-55.845
X178.981 Y-56.937
X179.251 Y-57.921
X179.547 Y-58.834
X179.846 Y-59.629
X180.142 Y-60.319
X180.423 Y-60.897
X180.707 Y-61.421
X180.984 Y-61.88
X181.258 Y-62.29
X181.541 Y-62.675
X181.624 Y-62.777
X181.959 Y-63.133
X182.343 Y-63.436
X182.768 Y-63.679
X183.224 Y-63.856
X183.701 Y-63.964
X184.188 Y-64
X187.455
G3 X189.547 Y-62.169 I-0.077 J2.199
G1 X195.25 Y-28.567
G3 X193.157 Y-26 I-2.169 J0.368
G1 X189.859
X189.531 Y-26.016
X189.254 Y-26.043
X188.94 Y-26.088
X188.612 Y-26.15
X188.256 Y-26.235
X187.867 Y-26.346
X187.469 Y-26.48
X187.03 Y-26.652
X186.58 Y-26.851
X186.104 Y-27.088
X185.591 Y-27.374
X185.078 Y-27.692
X184.529 Y-28.068
X183.957 Y-28.5
X183.39 Y-28.969
X182.792 Y-29.513
X182.173 Y-30.13
X181.571 Y-30.788
X180.949 Y-31.534
X180.315 Y-32.369
X179.695 Y-33.268
X179.099 Y-34.224
X178.509 Y-35.274
X177.935 Y-36.416
X177.387 Y-37.643
X176.883 Y-38.928
X176.428 Y-40.262
X176.022 Y-41.661
X175.672 Y-43.116
X175.383 Y-44.61
X175.162 Y-46.126
X175.011 Y-47.644
X174.931 Y-49.147
X174.921 Y-50.623
X174.976 Y-52.043
X175.089 Y-53.384
X175.255 Y-54.651
X175.468 Y-55.845
X175.715 Y-56.937
X175.985 Y-57.921
X176.281 Y-58.834
X176.58 Y-59.629
X176.876 Y-60.319
X177.156 Y-60.897
X177.441 Y-61.421
X177.718 Y-61.88
X177.991 Y-62.29
X178.275 Y-62.675
X178.358 Y-62.777
X178.693 Y-63.133
X179.077 Y-63.436
X179.502 Y-63.679
X179.958 Y-63.856
X180.435 Y-63.964
X180.922 Y-64
X184.188
G3 X186.281 Y-62.167 I-0.077 J2.199
G1 X191.951 Y-28.565
G3 X189.859 Y-26 I-2.169 J0.366
G1 X186.56
X186.266 Y-26.015
X185.989 Y-26.041
X185.675 Y-26.086
X185.347 Y-26.148
X184.991 Y-26.233
X184.602 Y-26.345
X184.204 Y-26.479
X183.764 Y-26.65
X183.315 Y-26.849
X182.839 Y-27.087
X182.325 Y-27.373
X181.813 Y-27.69
X181.263 Y-28.066
X180.691 Y-28.498
X180.124 Y-28.968
X179.526 Y-29.512
X178.907 Y-30.129
X178.305 Y-30.787
X177.683 Y-31.532
X177.049 Y-32.368
X176.43 Y-33.267
X175.833 Y-34.223
X175.243 Y-35.273
X174.669 Y-36.415
X174.121 Y-37.642
X173.617 Y-38.927
X173.162 Y-40.261
X172.756 Y-41.66
X172.406 Y-43.115
X172.117 Y-44.61
X171.896 Y-46.126
X171.745 Y-47.644
X171.665 Y-49.147
X171.655 Y-50.623
X171.709 Y-52.043
X171.823 Y-53.384
X171.989 Y-54.651
X172.202 Y-55.845
X172.448 Y-56.937
X172.719 Y-57.921
X173.015 Y-58.834
X173.314 Y-59.629
X173.61 Y-60.319
X173.89 Y-60.897
X174.174 Y-61.421
X174.452 Y-61.88
X174.725 Y-62.29
X175.009 Y-62.675
X175.092 Y-62.777
X175.427 Y-63.133
X175.811 Y-63.436
X176.236 Y-63.679
X176.691 Y-63.856
X177.168 Y-63.964
X177.656 Y-64
X180.922
G3 X183.015 Y-62.165 I-0.077 J2.199
G1 X188.653 Y-28.563
G3 X186.56 Y-26 I-2.17 J0.364
G1 X183.394
X182.991 Y-26.02
X182.715 Y-26.047
X182.402 Y-26.091
X182.074 Y-26.154
X181.719 Y-26.238
X181.33 Y-26.35
X180.933 Y-26.484
X180.494 Y-26.654
X180.044 Y-26.853
X179.569 Y-27.091
X179.056 Y-27.377
X178.544 Y-27.694
X177.995 Y-28.07
X177.423 Y-28.501
X176.856 Y-28.971
X176.258 Y-29.515
X175.64 Y-30.131
X175.038 Y-30.789
X174.416 Y-31.534
X173.782 Y-32.37
X173.163 Y-33.268
X172.567 Y-34.224
X171.977 Y-35.274
X171.403 Y-36.416
X170.855 Y-37.642
X170.35 Y-38.928
X169.896 Y-40.262
X169.49 Y-41.66
X169.139 Y-43.115
X168.851 Y-44.61
X168.63 Y-46.126
X168.479 Y-47.644
X168.399 Y-49.147
X168.388 Y-50.623
X168.443 Y-52.043
X168.557 Y-53.384
X168.723 Y-54.651
X168.936 Y-55.845
X169.182 Y-56.937
X169.452 Y-57.921
X169.749 Y-58.834
X170.048 Y-59.629
X170.344 Y-60.319
X170.624 Y-60.897
X170.908 Y-61.421
X171.186 Y-61.88
X171.459 Y-62.29
X171.743 Y-62.675
X171.826 Y-62.777
X172.161 Y-63.133
X172.545 Y-63.436
X172.969 Y-63.679
X173.425 Y-63.856
X173.902 Y-63.964
X174.39 Y-64
X177.656
G3 X178.492 Y-63.803 I-0.077 J2.199
X179.748 Y-62.172 I-0.912 J2.002
G1 X185.486 Y-28.569
G3 X183.394 Y-26 I-2.169 J0.37
G1 X180.096
X179.729 Y-26.018
X179.452 Y-26.045
X179.139 Y-26.09
X178.811 Y-26.152
X178.455 Y-26.237
X178.066 Y-26.348
X177.669 Y-26.482
X177.229 Y-26.653
X176.78 Y-26.852
X176.304 Y-27.09
X175.791 Y-27.376
X175.278 Y-27.693
X174.729 Y-28.069
X174.157 Y-28.501
X173.591 Y-28.97
X172.993 Y-29.514
X172.374 Y-30.131
X171.772 Y-30.789
X171.15 Y-31.534
X170.516 Y-32.369
X169.897 Y-33.268
X169.301 Y-34.224
X168.711 Y-35.274
X168.137 Y-36.416
X167.589 Y-37.642
X167.084 Y-38.928
X166.63 Y-40.262
X166.224 Y-41.661
X165.873 Y-43.115
X165.585 Y-44.61
X165.363 Y-46.126
X165.213 Y-47.644
X165.133 Y-49.147
X165.122 Y-50.623
X165.177 Y-52.043
X165.291 Y-53.384
X165.457 Y-54.651
X165.669 Y-55.845
X165.916 Y-56.937
X166.186 Y-57.921
X166.482 Y-58.834
X166.782 Y-59.629
X167.078 Y-60.319
X167.358 Y-60.897
X167.642 Y-61.421
X167.919 Y-61.88
X168.193 Y-62.29
X168.476 Y-62.675
X168.559 Y-62.777
X168.895 Y-63.133
X169.279 Y-63.436
X169.703 Y-63.679
X170.159 Y-63.856
X170.636 Y-63.964
X171.124 Y-64
X174.39
G3 X175.226 Y-63.803 I-0.077 J2.199
X176.482 Y-62.17 I-0.912 J2.002
G1 X182.188 Y-28.567
G3 X180.096 Y-26 I-2.169 J0.368
G1 X176.96
X176.454 Y-26.025
X176.178 Y-26.052
X175.865 Y-26.097
X175.537 Y-26.159
X175.182 Y-26.243
X174.794 Y-26.355
X174.397 Y-26.489
X173.958 Y-26.659
X173.509 Y-26.858
X173.034 Y-27.095
X172.52 Y-27.381
X172.009 Y-27.698
X171.46 Y-28.074
X170.888 Y-28.505
X170.322 Y-28.975
X169.724 Y-29.518
X169.106 Y-30.135
X168.504 Y-30.793
X167.883 Y-31.537
X167.249 Y-32.372
X166.63 Y-33.271
X166.034 Y-34.226
X165.444 Y-35.276
X164.87 Y-36.418
X164.322 Y-37.644
X163.818 Y-38.929
X163.364 Y-40.263
X162.958 Y-41.661
X162.607 Y-43.116
X162.318 Y-44.611
X162.097 Y-46.127
X161.947 Y-47.644
X161.867 Y-49.147
X161.856 Y-50.623
X161.911 Y-52.043
X162.025 Y-53.384
X162.191 Y-54.651
X162.403 Y-55.845
X162.65 Y-56.937
X162.92 Y-57.921
X163.216 Y-58.834
X163.515 Y-59.629
X163.811 Y-60.319
X164.092 Y-60.897
X164.376 Y-61.421
X164.653 Y-61.88
X164.927 Y-62.29
X165.21 Y-62.675
X165.293 Y-62.777
X165.628 Y-63.133
X166.012 Y-63.436
X166.437 Y-63.679
X166.893 Y-63.856
X167.37 Y-63.964
X167.858 Y-64
X171.124
G3 X173.215 Y-62.178 I-0.077 J2.199
G1 X179.051 Y-28.575
G3 X176.96 Y-26 I-2.168 J0.376
G1 X173.661
X173.193 Y-26.023
X172.917 Y-26.05
X172.603 Y-26.095
X172.275 Y-26.157
X171.92 Y-26.242
X171.531 Y-26.353
X171.133 Y-26.487
X170.694 Y-26.658
X170.245 Y-26.857
X169.769 Y-27.094
X169.256 Y-27.381
X168.744 Y-27.698
X168.195 Y-28.074
X167.623 Y-28.505
X167.057 Y-28.975
X166.459 Y-29.518
X165.84 Y-30.135
X165.238 Y-30.793
X164.617 Y-31.537
X163.983 Y-32.373
X163.364 Y-33.271
X162.768 Y-34.227
X162.178 Y-35.277
X161.604 Y-36.418
X161.056 Y-37.644
X160.552 Y-38.93
X160.097 Y-40.263
X159.692 Y-41.662
X159.341 Y-43.116
X159.052 Y-44.611
X158.831 Y-46.127
X158.681 Y-47.644
X158.601 Y-49.147
X158.59 Y-50.624
X158.645 Y-52.043
X158.759 Y-53.384
X158.925 Y-54.651
X159.137 Y-55.845
X159.384 Y-56.938
X159.654 Y-57.922
X159.95 Y-58.834
X160.249 Y-59.629
X160.545 Y-60.319
X160.826 Y-60.897
X161.11 Y-61.421
X161.387 Y-61.88
X161.661 Y-62.29
X161.944 Y-62.675
X162.027 Y-62.777
X162.362 Y-63.133
X162.746 Y-63.436
X163.171 Y-63.679
X163.627 Y-63.856
X164.104 Y-63.964
X164.592 Y-64
X167.858
G3 X168.693 Y-63.803 I-0.077 J2.199
X169.949 Y-62.176 I-0.912 J2.002
G1 X175.752 Y-28.573
G3 X173.661 Y-26 I-2.168 J0.374
G1 X170.362
X169.93 Y-26.022
X169.653 Y-26.048
X169.34 Y-26.093
X169.011 Y-26.155
X168.656 Y-26.24
X168.267 Y-26.351
X167.869 Y-26.486
X167.43 Y-26.657
X166.981 Y-26.856
X166.505 Y-27.093
X165.991 Y-27.379
X165.479 Y-27.696
X164.93 Y-28.072
X164.358 Y-28.504
X163.791 Y-28.974
X163.193 Y-29.517
X162.575 Y-30.134
X161.972 Y-30.792
X161.351 Y-31.537
X160.717 Y-32.372
X160.098 Y-33.271
X159.502 Y-34.226
X158.912 Y-35.277
X158.338 Y-36.418
X157.79 Y-37.645
X157.286 Y-38.93
X156.831 Y-40.263
X156.425 Y-41.662
X156.075 Y-43.117
X155.786 Y-44.611
X155.565 Y-46.127
X155.415 Y-47.644
X155.335 Y-49.147
X155.324 Y-50.624
X155.379 Y-52.043
X155.492 Y-53.384
X155.659 Y-54.651
X155.871 Y-55.845
X156.118 Y-56.938
X156.388 Y-57.922
X156.684 Y-58.834
X156.983 Y-59.629
X157.279 Y-60.319
X157.56 Y-60.897
X157.844 Y-61.421
X158.121 Y-61.88
X158.395 Y-62.29
X158.678 Y-62.675
X158.761 Y-62.777
X159.096 Y-63.133
X159.48 Y-63.436
X159.905 Y-63.679
X160.361 Y-63.856
X160.838 Y-63.964
X161.325 Y-64
X164.592
G3 X165.427 Y-63.803 I-0.077 J2.199
X166.683 Y-62.174 I-0.912 J2.002
G1 X172.454 Y-28.571
G3 X170.362 Y-26 I-2.168 J0.372
G1 X167.064
X166.666 Y-26.02
X166.389 Y-26.047
X166.075 Y-26.091
X165.747 Y-26.154
X165.391 Y-26.238
X165.002 Y-26.35
X164.605 Y-26.484
X164.165 Y-26.655
X163.716 Y-26.854
X163.24 Y-27.091
X162.726 Y-27.378
X162.214 Y-27.695
X161.665 Y-28.071
X161.093 Y-28.503
X160.526 Y-28.972
X159.928 Y-29.516
X159.309 Y-30.133
X158.707 Y-30.791
X158.086 Y-31.536
X157.451 Y-32.372
X156.832 Y-33.27
X156.236 Y-34.226
X155.646 Y-35.276
X155.072 Y-36.418
X154.524 Y-37.644
X154.02 Y-38.93
X153.565 Y-40.263
X153.159 Y-41.662
X152.809 Y-43.117
X152.52 Y-44.611
X152.299 Y-46.127
X152.148 Y-47.645
X152.069 Y-49.148
X152.058 Y-50.624
X152.113 Y-52.043
X152.226 Y-53.385
X152.392 Y-54.651
X152.605 Y-55.845
X152.852 Y-56.938
X153.122 Y-57.922
X153.418 Y-58.834
X153.717 Y-59.63
X154.013 Y-60.319
X154.294 Y-60.897
X154.578 Y-61.421
X154.855 Y-61.88
X155.129 Y-62.29
X155.412 Y-62.675
X155.495 Y-62.777
X155.83 Y-63.133
X156.214 Y-63.436
X156.639 Y-63.679
X157.095 Y-63.856
X157.572 Y-63.964
X158.059 Y-64
X161.325
G3 X162.161 Y-63.803 I-0.077 J2.199
X163.417 Y-62.172 I-0.912 J2.002
G1 X169.155 Y-28.569
G3 X167.064 Y-26 I-2.169 J0.37
G1 X163.765
X163.401 Y-26.018
X163.124 Y-26.045
X162.811 Y-26.09
X162.482 Y-26.152
X162.126 Y-26.237
X161.738 Y-26.348
X161.34 Y-26.482
X160.9 Y-26.653
X160.451 Y-26.852
X159.975 Y-27.09
X159.461 Y-27.376
X158.949 Y-27.693
X158.399 Y-28.07
X157.827 Y-28.501
X157.261 Y-28.971
X156.662 Y-29.515
X156.044 Y-30.132
X155.441 Y-30.79
X154.82 Y-31.535
X154.186 Y-32.371
X153.566 Y-33.269
X152.97 Y-34.225
X152.38 Y-35.276
X151.806 Y-36.417
X151.258 Y-37.644
X150.754 Y-38.929
X150.299 Y-40.263
X149.893 Y-41.662
X149.543 Y-43.116
X149.254 Y-44.611
X149.033 Y-46.127
X148.882 Y-47.644
X148.802 Y-49.147
X148.792 Y-50.624
X148.847 Y-52.043
X148.96 Y-53.385
X149.126 Y-54.651
X149.339 Y-55.845
X149.586 Y-56.938
X149.856 Y-57.922
X150.152 Y-58.834
X150.451 Y-59.63
X150.747 Y-60.319
X151.027 Y-60.897
X151.312 Y-61.421
X151.589 Y-61.88
X151.862 Y-62.29
X152.146 Y-62.675
X152.229 Y-62.777
X152.564 Y-63.133
X152.948 Y-63.436
X153.373 Y-63.679
X153.828 Y-63.856
X154.306 Y-63.964
X154.793 Y-64
X158.059
G3 X160.152 Y-62.17 I-0.077 J2.199
G1 X165.857 Y-28.567
G3 X163.765 Y-26 I-2.169 J0.368
G1 X160.466
X160.136 Y-26.017
X159.859 Y-26.043
X159.545 Y-26.088
X159.217 Y-26.15
X158.861 Y-26.235
X158.472 Y-26.346
X158.074 Y-26.481
X157.635 Y-26.652
X157.186 Y-26.851
X156.709 Y-27.088
X156.196 Y-27.375
X155.683 Y-27.692
X155.134 Y-28.068
X154.562 Y-28.5
X153.995 Y-28.969
X153.397 Y-29.514
X152.778 Y-30.13
X152.176 Y-30.789
X151.554 Y-31.534
X150.92 Y-32.369
X150.3 Y-33.268
X149.704 Y-34.224
X149.114 Y-35.275
X148.54 Y-36.416
X147.992 Y-37.643
X147.488 Y-38.928
X147.033 Y-40.262
X146.627 Y-41.661
X146.277 Y-43.116
X145.988 Y-44.611
X145.767 Y-46.127
X145.616 Y-47.644
X145.536 Y-49.147
X145.526 Y-50.624
X145.58 Y-52.043
X145.694 Y-53.384
X145.86 Y-54.651
X146.073 Y-55.845
X146.319 Y-56.938
X146.59 Y-57.922
X146.886 Y-58.834
X147.185 Y-59.629
X147.481 Y-60.319
X147.761 Y-60.897
X148.045 Y-61.421
X148.323 Y-61.88
X148.596 Y-62.29
X148.88 Y-62.675
X148.963 Y-62.777
X149.298 Y-63.133
X149.682 Y-63.436
X150.107 Y-63.679
X150.562 Y-63.856
X151.039 Y-63.964
X151.527 Y-64
X154.793
G3 X156.886 Y-62.168 I-0.077 J2.199
G1 X162.559 Y-28.565
G3 X160.466 Y-26 I-2.169 J0.366
G1 X157.167
X156.871 Y-26.015
X156.594 Y-26.041
X156.28 Y-26.086
X155.952 Y-26.149
X155.596 Y-26.233
X155.207 Y-26.345
X154.809 Y-26.479
X154.369 Y-26.65
X153.92 Y-26.849
X153.444 Y-27.087
X152.93 Y-27.373
X152.418 Y-27.69
X151.868 Y-28.067
X151.296 Y-28.498
X150.729 Y-28.968
X150.131 Y-29.512
X149.512 Y-30.129
X148.91 Y-30.787
X148.288 Y-31.533
X147.654 Y-32.368
X147.035 Y-33.267
X146.438 Y-34.223
X145.848 Y-35.274
X145.274 Y-36.416
X144.726 Y-37.642
X144.222 Y-38.928
X143.767 Y-40.261
X143.361 Y-41.661
X143.01 Y-43.115
X142.722 Y-44.61
X142.501 Y-46.126
X142.35 Y-47.644
X142.27 Y-49.147
X142.259 Y-50.623
X142.314 Y-52.043
X142.428 Y-53.384
X142.594 Y-54.651
X142.807 Y-55.845
X143.053 Y-56.938
X143.323 Y-57.922
X143.62 Y-58.834
X143.919 Y-59.629
X144.215 Y-60.319
X144.495 Y-60.897
X144.779 Y-61.421
X145.057 Y-61.88
X145.33 Y-62.29
X145.614 Y-62.675
X145.697 Y-62.777
X146.032 Y-63.133
X146.416 Y-63.436
X146.84 Y-63.679
X147.296 Y-63.856
X147.773 Y-63.964
X148.261 Y-64
X151.527
G3 X153.62 Y-62.166 I-0.077 J2.199
G1 X159.26 Y-28.563
G3 X157.167 Y-26 I-2.17 J0.364
G1 X154.032
X153.594 Y-26.022
X153.318 Y-26.048
X153.005 Y-26.093
X152.677 Y-26.155
X152.322 Y-26.24
X151.934 Y-26.351
X151.536 Y-26.485
X151.097 Y-26.656
X150.648 Y-26.855
X150.173 Y-27.092
X149.66 Y-27.378
X149.148 Y-27.695
X148.599 Y-28.071
X148.027 Y-28.503
X147.461 Y-28.972
X146.863 Y-29.516
X146.244 Y-30.132
X145.642 Y-30.79
X145.021 Y-31.535
X144.387 Y-32.37
X143.767 Y-33.269
X143.172 Y-34.224
X142.582 Y-35.275
X142.008 Y-36.417
X141.46 Y-37.643
X140.955 Y-38.928
X140.501 Y-40.262
X140.095 Y-41.661
X139.744 Y-43.116
X139.456 Y-44.61
X139.235 Y-46.126
X139.084 Y-47.644
X139.004 Y-49.147
X138.993 Y-50.623
X139.048 Y-52.043
X139.162 Y-53.384
X139.328 Y-54.651
X139.54 Y-55.845
X139.787 Y-56.938
X140.057 Y-57.922
X140.354 Y-58.834
X140.653 Y-59.629
X140.949 Y-60.319
X141.229 Y-60.897
X141.513 Y-61.421
X141.791 Y-61.88
X142.064 Y-62.29
X142.348 Y-62.675
X142.43 Y-62.777
X142.766 Y-63.133
X143.15 Y-63.436
X143.574 Y-63.679
X144.03 Y-63.856
X144.507 Y-63.964
X144.995 Y-64
X148.261
G3 X150.353 Y-62.174 I-0.077 J2.199
G1 X156.123 Y-28.571
G3 X154.032 Y-26 I-2.168 J0.372
G1 X150.733
X150.333 Y-26.02
X150.056 Y-26.047
X149.743 Y-26.091
X149.415 Y-26.154
X149.059 Y-26.238
X148.67 Y-26.35
X148.273 Y-26.484
X147.833 Y-26.655
X147.384 Y-26.854
X146.908 Y-27.091
X146.395 Y-27.377
X145.883 Y-27.695
X145.334 Y-28.071
X144.761 Y-28.502
X144.195 Y-28.972
X143.597 Y-29.515
X142.978 Y-30.132
X142.376 Y-30.79
X141.755 Y-31.535
X141.121 Y-32.371
X140.501 Y-33.269
X139.905 Y-34.225
X139.315 Y-35.275
X138.741 Y-36.417
X138.194 Y-37.643
X137.689 Y-38.929
X137.235 Y-40.262
X136.829 Y-41.661
X136.478 Y-43.116
X136.19 Y-44.611
X135.968 Y-46.127
X135.818 Y-47.644
X135.738 Y-49.147
X135.727 Y-50.623
X135.782 Y-52.043
X135.896 Y-53.384
X136.062 Y-54.651
X136.274 Y-55.845
X136.521 Y-56.938
X136.791 Y-57.922
X137.087 Y-58.834
X137.386 Y-59.629
X137.682 Y-60.319
X137.963 Y-60.897
X138.247 Y-61.421
X138.524 Y-61.88
X138.798 Y-62.29
X139.081 Y-62.675
X139.164 Y-62.777
X139.499 Y-63.133
X139.884 Y-63.436
X140.308 Y-63.679
X140.764 Y-63.856
X141.241 Y-63.964
X141.729 Y-64
X144.995
G3 X147.087 Y-62.172 I-0.077 J2.199
G1 X152.825 Y-28.569
G3 X150.733 Y-26 I-2.169 J0.37
G1 X147.434
X147.069 Y-26.018
X146.792 Y-26.045
X146.479 Y-26.09
X146.15 Y-26.152
X145.795 Y-26.237
X145.406 Y-26.348
X145.008 Y-26.482
X144.569 Y-26.653
X144.119 Y-26.852
X143.643 Y-27.09
X143.13 Y-27.376
X142.618 Y-27.693
X142.068 Y-28.069
X141.496 Y-28.501
X140.93 Y-28.971
X140.331 Y-29.515
X139.713 Y-30.131
X139.11 Y-30.79
X138.489 Y-31.534
X137.855 Y-32.37
X137.235 Y-33.269
X136.639 Y-34.224
X136.049 Y-35.275
X135.475 Y-36.417
X134.928 Y-37.643
X134.423 Y-38.928
X133.969 Y-40.262
X133.563 Y-41.661
X133.212 Y-43.116
X132.923 Y-44.611
X132.702 Y-46.127
X132.552 Y-47.644
X132.472 Y-49.147
X132.461 Y-50.623
X132.516 Y-52.043
X132.63 Y-53.384
X132.796 Y-54.651
X133.008 Y-55.845
X133.255 Y-56.937
X133.525 Y-57.922
X133.821 Y-58.834
X134.12 Y-59.629
X134.416 Y-60.319
X134.697 Y-60.897
X134.981 Y-61.421
X135.258 Y-61.88
X135.532 Y-62.29
X135.815 Y-62.675
X135.898 Y-62.777
X136.233 Y-63.133
X136.617 Y-63.436
X137.042 Y-63.679
X137.498 Y-63.856
X137.975 Y-63.964
X138.463 Y-64
X141.729
G3 X143.821 Y-62.17 I-0.077 J2.199
G1 X149.526 Y-28.567
G3 X147.434 Y-26 I-2.169 J0.368
G1 X144.135
X143.804 Y-26.017
X143.528 Y-26.043
X143.214 Y-26.088
X142.886 Y-26.15
X142.53 Y-26.235
X142.141 Y-26.346
X141.743 Y-26.481
X141.304 Y-26.652
X140.854 Y-26.851
X140.378 Y-27.088
X139.865 Y-27.375
X139.352 Y-27.692
X138.803 Y-28.068
X138.231 Y-28.5
X137.664 Y-28.969
X137.066 Y-29.513
X136.447 Y-30.13
X135.845 Y-30.788
X135.223 Y-31.533
X134.589 Y-32.369
X133.97 Y-33.268
X133.374 Y-34.223
X132.783 Y-35.274
X132.209 Y-36.416
X131.662 Y-37.642
X131.157 Y-38.928
X130.703 Y-40.262
X130.297 Y-41.661
X129.946 Y-43.115
X129.657 Y-44.61
X129.436 Y-46.126
X129.285 Y-47.644
X129.206 Y-49.147
X129.195 Y-50.623
X129.25 Y-52.043
X129.363 Y-53.384
X129.529 Y-54.651
X129.742 Y-55.845
X129.989 Y-56.937
X130.259 Y-57.921
X130.555 Y-58.834
X130.854 Y-59.629
X131.15 Y-60.319
X131.431 Y-60.897
X131.715 Y-61.421
X131.992 Y-61.88
X132.266 Y-62.29
X132.549 Y-62.675
X132.632 Y-62.777
X132.967 Y-63.133
X133.351 Y-63.436
X133.776 Y-63.679
X134.232 Y-63.856
X134.709 Y-63.964
X135.197 Y-64
X138.463
G3 X139.298 Y-63.803 I-0.077 J2.199
X140.555 Y-62.168 I-0.912 J2.002
G1 X146.228 Y-28.565
G3 X144.135 Y-26 I-2.169 J0.366
G1 X141.036
X140.526 Y-26.026
X140.25 Y-26.052
X139.937 Y-26.097
X139.609 Y-26.159
X139.255 Y-26.243
X138.866 Y-26.355
X138.469 Y-26.489
X138.03 Y-26.659
X137.581 Y-26.858
X137.106 Y-27.095
X136.593 Y-27.381
X136.081 Y-27.698
X135.533 Y-28.074
X134.961 Y-28.505
X134.395 Y-28.975
X133.797 Y-29.518
X133.179 Y-30.135
X132.577 Y-30.793
X131.956 Y-31.537
X131.322 Y-32.372
X130.702 Y-33.271
X130.107 Y-34.226
X129.517 Y-35.276
X128.943 Y-36.418
X128.395 Y-37.644
X127.891 Y-38.929
X127.436 Y-40.263
X127.03 Y-41.662
X126.68 Y-43.116
X126.391 Y-44.611
X126.17 Y-46.127
X126.019 Y-47.644
X125.939 Y-49.147
X125.929 Y-50.623
X125.984 Y-52.043
X126.097 Y-53.384
X126.263 Y-54.651
X126.476 Y-55.845
X126.723 Y-56.938
X126.993 Y-57.922
X127.289 Y-58.834
X127.588 Y-59.629
X127.884 Y-60.319
X128.164 Y-60.897
X128.449 Y-61.421
X128.726 Y-61.88
X129 Y-62.29
X129.283 Y-62.675
X129.366 Y-62.777
X129.701 Y-63.133
X130.085 Y-63.436
X130.51 Y-63.679
X130.966 Y-63.856
X131.443 Y-63.964
X131.93 Y-64
X135.197
G3 X137.287 Y-62.178 I-0.077 J2.199
G1 X143.127 Y-28.575
G3 X141.036 Y-26 I-2.168 J0.377
G1 X137.737
X137.266 Y-26.024
X136.989 Y-26.05
X136.676 Y-26.095
X136.348 Y-26.157
X135.992 Y-26.242
X135.604 Y-26.353
X135.206 Y-26.487
X134.767 Y-26.658
X134.318 Y-26.857
X133.842 Y-27.095
X133.329 Y-27.381
X132.817 Y-27.698
X132.268 Y-28.074
X131.695 Y-28.505
X131.129 Y-28.975
X130.531 Y-29.518
X129.913 Y-30.135
X129.311 Y-30.793
X128.69 Y-31.538
X128.056 Y-32.373
X127.436 Y-33.271
X126.84 Y-34.227
X126.251 Y-35.277
X125.677 Y-36.418
X125.129 Y-37.645
X124.624 Y-38.93
X124.17 Y-40.263
X123.764 Y-41.662
X123.414 Y-43.117
X123.125 Y-44.611
X122.904 Y-46.127
X122.753 Y-47.644
X122.673 Y-49.147
X122.663 Y-50.624
X122.718 Y-52.043
X122.831 Y-53.384
X122.997 Y-54.651
X123.21 Y-55.845
X123.457 Y-56.938
X123.727 Y-57.922
X124.023 Y-58.834
X124.322 Y-59.629
X124.618 Y-60.319
X124.898 Y-60.897
X125.182 Y-61.421
X125.46 Y-61.88
X125.733 Y-62.29
X126.017 Y-62.675
X126.1 Y-62.777
X126.435 Y-63.133
X126.819 Y-63.436
X127.244 Y-63.679
X127.699 Y-63.856
X128.176 Y-63.964
X128.664 Y-64
X131.93
G3 X134.021 Y-62.176 I-0.077 J2.199
G1 X139.828 Y-28.573
G3 X137.737 Y-26 I-2.168 J0.375
G1 X134.438
X134.002 Y-26.022
X133.726 Y-26.048
X133.412 Y-26.093
X133.084 Y-26.155
X132.728 Y-26.24
X132.34 Y-26.352
X131.942 Y-26.486
X131.502 Y-26.657
X131.053 Y-26.856
X130.577 Y-27.093
X130.064 Y-27.379
X129.552 Y-27.697
X129.003 Y-28.073
X128.43 Y-28.504
X127.864 Y-28.974
X127.266 Y-29.518
X126.647 Y-30.134
X126.045 Y-30.792
X125.424 Y-31.537
X124.79 Y-32.372
X124.17 Y-33.271
X123.575 Y-34.227
X122.985 Y-35.277
X122.411 Y-36.418
X121.863 Y-37.645
X121.358 Y-38.93
X120.904 Y-40.264
X120.498 Y-41.662
X120.148 Y-43.117
X119.859 Y-44.611
X119.638 Y-46.127
X119.487 Y-47.645
X119.407 Y-49.148
X119.397 Y-50.624
X119.452 Y-52.043
X119.565 Y-53.385
X119.731 Y-54.651
X119.944 Y-55.845
X120.19 Y-56.938
X120.461 Y-57.922
X120.757 Y-58.834
X121.056 Y-59.63
X121.352 Y-60.319
X121.632 Y-60.897
X121.916 Y-61.421
X122.194 Y-61.88
X122.467 Y-62.29
X122.751 Y-62.675
X122.834 Y-62.777
X123.169 Y-63.133
X123.553 Y-63.436
X123.978 Y-63.679
X124.433 Y-63.856
X124.91 Y-63.964
X125.398 Y-64
X128.664
G3 X129.5 Y-63.803 I-0.077 J2.199
X130.756 Y-62.174 I-0.912 J2.002
G1 X136.53 Y-28.571
G3 X134.438 Y-26 I-2.168 J0.373
G1 X131.139
X130.738 Y-26.02
X130.461 Y-26.047
X130.148 Y-26.091
X129.82 Y-26.154
X129.464 Y-26.238
X129.075 Y-26.35
X128.677 Y-26.484
X128.238 Y-26.655
X127.788 Y-26.854
X127.312 Y-27.092
X126.799 Y-27.378
X126.287 Y-27.695
X125.737 Y-28.071
X125.165 Y-28.503
X124.599 Y-28.972
X124.001 Y-29.516
X123.382 Y-30.133
X122.78 Y-30.791
X122.158 Y-31.536
X121.524 Y-32.372
X120.905 Y-33.27
X120.309 Y-34.226
X119.719 Y-35.276
X119.145 Y-36.418
X118.597 Y-37.644
X118.092 Y-38.93
X117.638 Y-40.263
X117.232 Y-41.662
X116.881 Y-43.117
X116.593 Y-44.611
X116.372 Y-46.127
X116.221 Y-47.645
X116.141 Y-49.148
X116.131 Y-50.624
X116.185 Y-52.043
X116.299 Y-53.385
X116.465 Y-54.651
X116.678 Y-55.845
X116.924 Y-56.938
X117.195 Y-57.922
X117.491 Y-58.834
X117.79 Y-59.63
X118.086 Y-60.319
X118.366 Y-60.897
X118.65 Y-61.421
X118.928 Y-61.88
X119.201 Y-62.29
X119.485 Y-62.675
X119.568 Y-62.777
X119.903 Y-63.133
X120.287 Y-63.436
X120.711 Y-63.679
X121.167 Y-63.856
X121.644 Y-63.964
X122.132 Y-64
X125.398
G3 X127.49 Y-62.172 I-0.077 J2.199
G1 X133.231 Y-28.569
G3 X131.139 Y-26 I-2.169 J0.371
G1 X127.841
X127.474 Y-26.018
X127.197 Y-26.045
X126.883 Y-26.09
X126.555 Y-26.152
X126.199 Y-26.237
X125.81 Y-26.348
X125.412 Y-26.482
X124.973 Y-26.653
X124.523 Y-26.852
X124.047 Y-27.09
X123.534 Y-27.376
X123.021 Y-27.694
X122.472 Y-28.07
X121.9 Y-28.501
X121.333 Y-28.971
X120.735 Y-29.515
X120.116 Y-30.132
X119.514 Y-30.79
X118.893 Y-31.535
X118.258 Y-32.371
X117.639 Y-33.269
X117.043 Y-34.225
X116.453 Y-35.276
X115.879 Y-36.417
X115.331 Y-37.644
X114.826 Y-38.929
X114.372 Y-40.263
X113.966 Y-41.662
X113.615 Y-43.116
X113.327 Y-44.611
X113.106 Y-46.127
X112.955 Y-47.645
X112.875 Y-49.148
X112.864 Y-50.624
X112.919 Y-52.043
X113.033 Y-53.385
X113.199 Y-54.651
X113.412 Y-55.845
X113.658 Y-56.938
X113.928 Y-57.922
X114.225 Y-58.834
X114.524 Y-59.63
X114.82 Y-60.319
X115.1 Y-60.897
X115.384 Y-61.421
X115.662 Y-61.88
X115.935 Y-62.29
X116.219 Y-62.675
X116.301 Y-62.777
X116.637 Y-63.133
X117.021 Y-63.436
X117.445 Y-63.679
X117.901 Y-63.856
X118.378 Y-63.964
X118.866 Y-64
X122.132
G3 X124.224 Y-62.17 I-0.077 J2.199
G1 X129.933 Y-28.567
G3 X127.841 Y-26 I-2.169 J0.368
G1 X124.542
X124.209 Y-26.017
X123.932 Y-26.043
X123.618 Y-26.088
X123.29 Y-26.15
X122.934 Y-26.235
X122.545 Y-26.347
X122.147 Y-26.481
X121.707 Y-26.652
X121.258 Y-26.851
X120.782 Y-27.088
X120.268 Y-27.375
X119.756 Y-27.692
X119.207 Y-28.068
X118.634 Y-28.5
X118.068 Y-28.97
X117.469 Y-29.514
X116.851 Y-30.13
X116.248 Y-30.789
X115.627 Y-31.534
X114.992 Y-32.37
X114.373 Y-33.268
X113.777 Y-34.224
X113.187 Y-35.275
X112.613 Y-36.417
X112.065 Y-37.643
X111.56 Y-38.929
X111.106 Y-40.262
X110.7 Y-41.661
X110.349 Y-43.116
X110.061 Y-44.611
X109.84 Y-46.127
X109.689 Y-47.644
X109.609 Y-49.147
X109.598 Y-50.624
X109.653 Y-52.043
X109.767 Y-53.385
X109.933 Y-54.651
X110.145 Y-55.845
X110.392 Y-56.938
X110.662 Y-57.922
X110.958 Y-58.834
X111.258 Y-59.63
X111.554 Y-60.319
X111.834 Y-60.897
X112.118 Y-61.421
X112.395 Y-61.88
X112.669 Y-62.29
X112.952 Y-62.675
X113.035 Y-62.777
X113.37 Y-63.133
X113.755 Y-63.436
X114.179 Y-63.679
X114.635 Y-63.856
X115.112 Y-63.964
X115.6 Y-64
X118.866
G3 X119.701 Y-63.803 I-0.077 J2.199
X120.958 Y-62.168 I-0.912 J2.002
G1 X126.634 Y-28.565
G3 X124.542 Y-26 I-2.169 J0.366
G1 X121.243
X120.943 Y-26.015
X120.666 Y-26.042
X120.353 Y-26.086
X120.024 Y-26.149
X119.669 Y-26.233
X119.28 Y-26.345
X118.882 Y-26.479
X118.442 Y-26.65
X117.993 Y-26.849
X117.516 Y-27.087
X117.003 Y-27.373
X116.491 Y-27.69
X115.941 Y-28.067
X115.369 Y-28.498
X114.802 Y-28.968
X114.204 Y-29.512
X113.585 Y-30.129
X112.983 Y-30.787
X112.361 Y-31.533
X111.727 Y-32.368
X111.107 Y-33.267
X110.511 Y-34.223
X109.921 Y-35.274
X109.347 Y-36.416
X108.799 Y-37.642
X108.294 Y-38.928
X107.84 Y-40.262
X107.434 Y-41.661
X107.083 Y-43.115
X106.795 Y-44.61
X106.573 Y-46.126
X106.423 Y-47.644
X106.343 Y-49.147
X106.332 Y-50.623
X106.387 Y-52.043
X106.501 Y-53.384
X106.667 Y-54.651
X106.879 Y-55.845
X107.126 Y-56.938
X107.396 Y-57.922
X107.692 Y-58.834
X107.991 Y-59.629
X108.287 Y-60.319
X108.568 Y-60.897
X108.852 Y-61.421
X109.129 Y-61.88
X109.403 Y-62.29
X109.686 Y-62.675
X109.769 Y-62.777
X110.104 Y-63.133
X110.488 Y-63.436
X110.913 Y-63.679
X111.369 Y-63.856
X111.846 Y-63.964
X112.334 Y-64
X115.6
G3 X117.693 Y-62.166 I-0.077 J2.199
G1 X123.336 Y-28.563
G3 X121.243 Y-26 I-2.17 J0.364
G1 X118.078
X117.669 Y-26.02
X117.392 Y-26.047
X117.08 Y-26.092
X116.751 Y-26.154
X116.396 Y-26.238
X116.008 Y-26.35
X115.61 Y-26.484
X115.171 Y-26.655
X114.722 Y-26.854
X114.247 Y-27.091
X113.733 Y-27.377
X113.221 Y-27.694
X112.672 Y-28.07
X112.1 Y-28.502
X111.534 Y-28.971
X110.936 Y-29.515
X110.317 Y-30.132
X109.715 Y-30.79
X109.094 Y-31.534
X108.46 Y-32.37
X107.84 Y-33.269
X107.244 Y-34.224
X106.654 Y-35.275
X106.08 Y-36.416
X105.533 Y-37.643
X105.028 Y-38.928
X104.574 Y-40.262
X104.168 Y-41.661
X103.817 Y-43.116
X103.528 Y-44.61
X103.307 Y-46.126
X103.157 Y-47.644
X103.077 Y-49.147
X103.066 Y-50.623
X103.121 Y-52.043
X103.234 Y-53.384
X103.401 Y-54.651
X103.613 Y-55.845
X103.86 Y-56.938
X104.13 Y-57.922
X104.426 Y-58.834
X104.725 Y-59.629
X105.021 Y-60.319
X105.302 Y-60.897
X105.586 Y-61.421
X105.863 Y-61.88
X106.137 Y-62.29
X106.42 Y-62.675
X106.503 Y-62.777
X106.838 Y-63.133
X107.222 Y-63.436
X107.647 Y-63.679
X108.103 Y-63.856
X108.58 Y-63.964
X109.068 Y-64
X112.334
G3 X114.425 Y-62.172 I-0.077 J2.199
G1 X120.169 Y-28.569
G3 X118.078 Y-26 I-2.169 J0.371
G1 X114.779
X114.407 Y-26.019
X114.13 Y-26.045
X113.817 Y-26.09
X113.488 Y-26.152
X113.133 Y-26.237
X112.744 Y-26.348
X112.346 Y-26.483
X111.907 Y-26.653
X111.458 Y-26.852
X110.982 Y-27.09
X110.468 Y-27.376
X109.956 Y-27.693
X109.407 Y-28.069
X108.835 Y-28.501
X108.268 Y-28.971
X107.67 Y-29.514
X107.052 Y-30.131
X106.449 Y-30.789
X105.828 Y-31.534
X105.194 Y-32.37
X104.574 Y-33.268
X103.978 Y-34.224
X103.388 Y-35.275
X102.814 Y-36.416
X102.266 Y-37.643
X101.762 Y-38.928
X101.307 Y-40.262
X100.901 Y-41.661
X100.551 Y-43.116
X100.262 Y-44.61
X100.041 Y-46.126
X99.89 Y-47.644
X99.811 Y-49.147
X99.8 Y-50.623
X99.855 Y-52.043
X99.968 Y-53.384
X100.134 Y-54.651
X100.347 Y-55.845
X100.594 Y-56.937
X100.864 Y-57.922
X101.16 Y-58.834
X101.459 Y-59.629
X101.755 Y-60.319
X102.036 Y-60.897
X102.32 Y-61.421
X102.597 Y-61.88
X102.871 Y-62.29
X103.154 Y-62.675
X103.237 Y-62.777
X103.572 Y-63.133
X103.956 Y-63.436
X104.381 Y-63.679
X104.837 Y-63.856
X105.314 Y-63.964
X105.801 Y-64
X109.068
G3 X111.16 Y-62.17 I-0.077 J2.199
G1 X116.871 Y-28.567
G3 X114.779 Y-26 I-2.169 J0.369
G1 X111.643
X111.132 Y-26.026
X110.855 Y-26.052
X110.543 Y-26.097
X110.215 Y-26.159
X109.86 Y-26.243
X109.471 Y-26.355
X109.074 Y-26.489
X108.636 Y-26.66
X108.186 Y-26.858
X107.711 Y-27.096
X107.198 Y-27.382
X106.686 Y-27.699
X106.138 Y-28.074
X105.566 Y-28.506
X105 Y-28.975
X104.402 Y-29.518
X103.784 Y-30.135
X103.182 Y-30.793
X102.561 Y-31.537
X101.927 Y-32.372
X101.307 Y-33.271
X100.711 Y-34.226
X100.122 Y-35.277
X99.548 Y-36.418
X99 Y-37.644
X98.495 Y-38.929
X98.041 Y-40.263
X97.635 Y-41.662
X97.285 Y-43.116
X96.996 Y-44.611
X96.775 Y-46.127
X96.624 Y-47.644
X96.544 Y-49.147
X96.534 Y-50.623
X96.589 Y-52.043
X96.702 Y-53.384
X96.868 Y-54.651
X97.081 Y-55.845
X97.328 Y-56.938
X97.598 Y-57.922
X97.894 Y-58.834
X98.193 Y-59.629
X98.489 Y-60.319
X98.769 Y-60.897
X99.054 Y-61.421
X99.331 Y-61.88
X99.604 Y-62.29
X99.888 Y-62.675
X99.971 Y-62.777
X100.306 Y-63.133
X100.69 Y-63.436
X101.115 Y-63.679
X101.571 Y-63.856
X102.048 Y-63.964
X102.535 Y-64
X105.801
G3 X106.637 Y-63.803 I-0.077 J2.199
X107.892 Y-62.178 I-0.912 J2.002
G1 X113.734 Y-28.575
G3 X111.643 Y-26 I-2.167 J0.377
G1 X108.345
X107.871 Y-26.024
X107.594 Y-26.05
X107.281 Y-26.095
X106.953 Y-26.157
X106.597 Y-26.242
X106.209 Y-26.353
X105.811 Y-26.487
X105.372 Y-26.658
X104.923 Y-26.857
X104.447 Y-27.095
X103.934 Y-27.381
X103.422 Y-27.698
X102.873 Y-28.074
X102.3 Y-28.505
X101.734 Y-28.975
X101.136 Y-29.519
X100.518 Y-30.135
X99.916 Y-30.793
X99.295 Y-31.538
X98.661 Y-32.373
X98.041 Y-33.272
X97.445 Y-34.227
X96.855 Y-35.277
X96.282 Y-36.419
X95.734 Y-37.645
X95.229 Y-38.93
X94.775 Y-40.264
X94.369 Y-41.662
X94.019 Y-43.117
X93.73 Y-44.611
X93.509 Y-46.127
X93.358 Y-47.645
X93.278 Y-49.148
X93.268 Y-50.624
X93.323 Y-52.043
X93.436 Y-53.385
X93.602 Y-54.651
X93.815 Y-55.845
X94.062 Y-56.938
X94.332 Y-57.922
X94.628 Y-58.834
X94.927 Y-59.629
X95.223 Y-60.319
X95.503 Y-60.897
X95.787 Y-61.421
X96.065 Y-61.88
X96.338 Y-62.29
X96.622 Y-62.675
X96.705 Y-62.777
X97.04 Y-63.133
X97.424 Y-63.436
X97.849 Y-63.679
X98.304 Y-63.856
X98.781 Y-63.964
X99.269 Y-64
X102.535
G3 X104.626 Y-62.176 I-0.077 J2.199
G1 X110.436 Y-28.573
G3 X108.345 Y-26 I-2.168 J0.375
G1 X105.046
X104.608 Y-26.022
X104.331 Y-26.049
X104.017 Y-26.093
X103.689 Y-26.156
X103.333 Y-26.24
X102.945 Y-26.352
X102.547 Y-26.486
X102.107 Y-26.657
X101.658 Y-26.856
X101.182 Y-27.093
X100.669 Y-27.38
X100.157 Y-27.697
X99.608 Y-28.073
X99.035 Y-28.504
X98.469 Y-28.974
X97.871 Y-29.518
X97.252 Y-30.134
X96.65 Y-30.793
X96.029 Y-31.537
X95.395 Y-32.373
X94.775 Y-33.271
X94.179 Y-34.227
X93.59 Y-35.277
X93.016 Y-36.419
X92.468 Y-37.645
X91.963 Y-38.93
X91.509 Y-40.264
X91.103 Y-41.662
X90.752 Y-43.117
X90.464 Y-44.612
X90.243 Y-46.127
X90.092 Y-47.645
X90.012 Y-49.148
X90.002 Y-50.624
X90.056 Y-52.043
X90.17 Y-53.385
X90.336 Y-54.651
X90.549 Y-55.845
X90.795 Y-56.938
X91.066 Y-57.922
X91.362 Y-58.834
X91.661 Y-59.63
X91.957 Y-60.319
X92.237 Y-60.897
X92.521 Y-61.421
X92.799 Y-61.88
X93.072 Y-62.29
X93.356 Y-62.675
X93.439 Y-62.777
X93.774 Y-63.133
X94.158 Y-63.436
X94.582 Y-63.679
X95.038 Y-63.856
X95.515 Y-63.964
X96.003 Y-64
X99.269
G3 X100.105 Y-63.803 I-0.077 J2.199
X101.361 Y-62.174 I-0.912 J2.002
G1 X107.137 Y-28.571
G3 X105.046 Y-26 I-2.168 J0.373
G1 X101.747
X101.343 Y-26.02
X101.066 Y-26.047
X100.753 Y-26.092
X100.425 Y-26.154
X100.069 Y-26.238
X99.68 Y-26.35
X99.282 Y-26.484
X98.843 Y-26.655
X98.393 Y-26.854
X97.917 Y-27.092
X97.404 Y-27.378
X96.892 Y-27.695
X96.342 Y-28.071
X95.77 Y-28.503
X95.204 Y-28.973
X94.606 Y-29.517
X93.987 Y-30.133
X93.385 Y-30.792
X92.763 Y-31.536
X92.129 Y-32.372
X91.51 Y-33.27
X90.914 Y-34.226
X90.324 Y-35.277
X89.75 Y-36.418
X89.202 Y-37.644
X88.697 Y-38.93
X88.243 Y-40.264
X87.837 Y-41.662
X87.486 Y-43.117
X87.198 Y-44.612
X86.977 Y-46.127
X86.826 Y-47.645
X86.746 Y-49.148
X86.736 Y-50.624
X86.79 Y-52.043
X86.904 Y-53.385
X87.07 Y-54.651
X87.283 Y-55.845
X87.529 Y-56.938
X87.799 Y-57.922
X88.096 Y-58.834
X88.395 Y-59.63
X88.691 Y-60.319
X88.971 Y-60.897
X89.255 Y-61.421
X89.533 Y-61.88
X89.806 Y-62.29
X90.09 Y-62.675
X90.173 Y-62.777
X90.508 Y-63.133
X90.892 Y-63.436
X91.316 Y-63.679
X91.772 Y-63.856
X92.249 Y-63.964
X92.737 Y-64
X96.003
G3 X96.839 Y-63.803 I-0.077 J2.199
X98.095 Y-62.172 I-0.912 J2.002
G1 X103.839 Y-28.569
G3 X101.747 Y-26 I-2.169 J0.371
G1 X98.448
X98.079 Y-26.018
X97.802 Y-26.045
X97.488 Y-26.09
X97.16 Y-26.152
X96.804 Y-26.237
X96.415 Y-26.348
X96.017 Y-26.483
X95.578 Y-26.654
X95.128 Y-26.853
X94.652 Y-27.09
X94.139 Y-27.376
X93.626 Y-27.694
X93.077 Y-28.07
X92.505 Y-28.502
X91.938 Y-28.971
X91.34 Y-29.515
X90.721 Y-30.132
X90.119 Y-30.79
X89.498 Y-31.535
X88.863 Y-32.371
X88.244 Y-33.27
X87.648 Y-34.225
X87.058 Y-35.276
X86.484 Y-36.418
X85.936 Y-37.644
X85.431 Y-38.929
X84.977 Y-40.263
X84.571 Y-41.662
X84.22 Y-43.117
X83.932 Y-44.611
X83.711 Y-46.127
X83.56 Y-47.645
X83.48 Y-49.148
X83.469 Y-50.624
X83.524 Y-52.043
X83.638 Y-53.385
X83.804 Y-54.651
X84.017 Y-55.845
X84.263 Y-56.938
X84.533 Y-57.922
X84.83 Y-58.834
X85.129 Y-59.63
X85.425 Y-60.319
X85.705 Y-60.897
X85.989 Y-61.421
X86.267 Y-61.88
X86.54 Y-62.29
X86.824 Y-62.675
X86.906 Y-62.777
X87.242 Y-63.133
X87.626 Y-63.436
X88.05 Y-63.679
X88.506 Y-63.856
X88.983 Y-63.964
X89.471 Y-64
X92.737
G3 X93.573 Y-63.803 I-0.077 J2.199
X94.829 Y-62.17 I-0.912 J2.002
G1 X100.54 Y-28.567
G3 X98.448 Y-26 I-2.169 J0.369
G1 X95.149
X94.813 Y-26.017
X94.537 Y-26.043
X94.223 Y-26.088
X93.895 Y-26.151
X93.539 Y-26.235
X93.15 Y-26.347
X92.752 Y-26.481
X92.312 Y-26.652
X91.863 Y-26.851
X91.387 Y-27.089
X90.873 Y-27.375
X90.361 Y-27.692
X89.812 Y-28.068
X89.239 Y-28.5
X88.673 Y-28.97
X88.074 Y-29.514
X87.456 Y-30.131
X86.853 Y-30.789
X86.232 Y-31.534
X85.597 Y-32.37
X84.978 Y-33.268
X84.382 Y-34.224
X83.792 Y-35.275
X83.218 Y-36.417
X82.67 Y-37.643
X82.165 Y-38.929
X81.711 Y-40.262
X81.305 Y-41.661
X80.954 Y-43.116
X80.666 Y-44.611
X80.445 Y-46.127
X80.294 Y-47.644
X80.214 Y-49.147
X80.203 Y-50.624
X80.258 Y-52.043
X80.372 Y-53.385
X80.538 Y-54.651
X80.75 Y-55.845
X80.997 Y-56.938
X81.267 Y-57.922
X81.563 Y-58.834
X81.863 Y-59.63
X82.159 Y-60.319
X82.439 Y-60.897
X82.723 Y-61.421
X83 Y-61.88
X83.274 Y-62.29
X83.557 Y-62.675
X83.64 Y-62.777
X83.975 Y-63.133
X84.36 Y-63.436
X84.784 Y-63.679
X85.24 Y-63.856
X85.717 Y-63.964
X86.205 Y-64
X89.471
G3 X91.563 Y-62.168 I-0.077 J2.199
G1 X97.242 Y-28.565
G3 X95.149 Y-26 I-2.169 J0.367
G1 X91.85
X91.548 Y-26.015
X91.271 Y-26.042
X90.958 Y-26.087
X90.629 Y-26.149
X90.274 Y-26.233
X89.885 Y-26.345
X89.487 Y-26.479
X89.047 Y-26.65
X88.598 Y-26.849
X88.121 Y-27.087
X87.608 Y-27.373
X87.096 Y-27.691
X86.546 Y-28.067
X85.974 Y-28.499
X85.407 Y-28.968
X84.809 Y-29.512
X84.19 Y-30.129
X83.588 Y-30.788
X82.966 Y-31.533
X82.332 Y-32.368
X81.712 Y-33.267
X81.116 Y-34.223
X80.526 Y-35.274
X79.952 Y-36.416
X79.404 Y-37.642
X78.899 Y-38.928
