%
(1001)
(Z0 stock topleft)
(T7  D=16 CR=0 TAPER=45deg - ZMIN=-6.559 - chamfer mill)
G90 G94
G17
G21

(Engrave1)
M9
T7 M6
S6000 M3
G54
M9
G0 X28.34 Y-39.257
Z15
Z2
G1 Z-3.003 F850
X29.879 Y-37.717 Z-4.542
X28.75 Y-36.854 Z-3.412
X28.34 Y-36.532 Z-3.003
X28.75 Y-36.854 Z-3.412
X29.879 Y-37.717 Z-4.542
X30.546 Y-37.609 Z-4.65
X31.416 Y-37.433 Z-4.826
X32.463 Y-37.169 Z-5.09
X33.038 Y-37.021 Z-5.26
X33.737 Y-36.894 Z-5.561
X34.258 Y-36.822 Z-5.852
X34.883 Y-36.776 Z-6.244
X35.033 Y-36.267 Z-5.989
X35.235 Y-35.697 Z-5.754
X35.478 Y-34.99 Z-5.51
X35.744 Y-34.093 Z-5.245
X35.944 Y-33.342 Z-5.045
X36.104 Y-32.538 Z-4.884
X36.362 Y-31.034 Z-4.627
X36.506 Y-29.996 Z-4.483
X36.638 Y-28.75 Z-4.351
X36.666 Y-28.433 Z-4.322
X35.546 Y-27.114 Z-3.004
X36.666 Y-28.433 Z-4.322
X37.986 Y-27.113 Z-3.003
X36.666 Y-28.433 Z-4.322
X36.638 Y-28.75 Z-4.351
X36.506 Y-29.996 Z-4.483
X36.362 Y-31.034 Z-4.627
X36.104 Y-32.538 Z-4.884
X35.944 Y-33.342 Z-5.045
X35.744 Y-34.093 Z-5.245
X35.478 Y-34.99 Z-5.51
X35.235 Y-35.697 Z-5.754
X35.033 Y-36.267 Z-5.989
X34.883 Y-36.776 Z-6.244
X35.188 Y-37.231 Z-6.119
X35.473 Y-37.656 Z-6.079
X36.588 Z-5.232
X36.932 Z-5.017
X37.267 Z-4.842
X37.595 Z-4.712
X37.918 Z-4.631
X38.239 Z-4.603
X44.201
X45.801 Y-36.056 Z-3.003
X44.201 Y-37.656 Z-4.603
X45.801 Y-39.257 Z-3.003
X44.201 Y-37.656 Z-4.603
X38.239
X37.918 Z-4.631
X37.595 Z-4.712
X37.267 Z-4.842
X36.932 Z-5.017
X36.588 Z-5.232
X35.473 Z-6.079
Y-38.151 Z-5.831
Y-38.619 Z-5.656
Y-39.069 Z-5.551
Y-39.509 Z-5.516
Y-54.832
X35.477 Y-55.73 Z-5.519
X35.515 Y-56.516 Z-5.534
X35.593 Y-57.156 Z-5.548
X35.734 Y-57.813
X35.906 Y-58.424 Z-5.54
X36.128 Y-58.816 Z-5.493
X36.307 Y-59.064 Z-5.448
X36.627 Y-59.41 Z-5.349
X37.014 Y-59.762 Z-5.244
X37.507 Y-60.111 Z-5.125
X38.011 Y-60.404 Z-5.026
X38.39 Y-60.579 Z-4.946
X38.955 Y-60.76 Z-4.839
X39.545 Y-60.901 Z-4.739
X39.822 Y-60.935 Z-4.69
X40.431 Y-60.961 Z-4.598
X41.115 Y-60.945 Z-4.527
X41.715 Y-60.863 Z-4.512
X42.555 Y-60.699 Z-4.488
X43.394 Y-60.474 Z-4.434
X44.164 Y-60.201 Z-4.368
X44.901 Y-59.882 Z-4.306
X45.735 Y-59.462 Z-4.25
X46.984 Y-60.163 Z-3.001
X45.735 Y-59.462 Z-4.25
X46.431 Y-58.324 Z-3.554
X46.981 Y-57.377 Z-3.004
G0 Z5
X53.87 Y-43.522
Z2
G1 Z-5.319 F850
X53.878 Y-43.483 Z-5.355
X53.949 Y-43.307 Z-5.51
X54.037 Y-43.179 Z-5.612
X54.679 Y-43.918 Z-4.696
X54.728 Y-43.976 Z-4.62
X54.679 Y-43.918 Z-4.696
X54.037 Y-43.179 Z-5.612
X54.055 Y-43.06 Z-5.64
X54.181 Y-42.524 Z-5.697
X54.261 Y-42.174 Z-5.704
X54.385 Y-41.809 Z-5.674
X54.732 Y-41.03 Z-5.549
X55.231 Y-40.208 Z-5.331
X55.649 Y-39.661 Z-5.194
X56.008 Y-39.278 Z-5.081
X56.459 Y-38.884 Z-4.958
X56.998 Y-38.483 Z-4.836
X57.454 Y-38.197 Z-4.764
X58.14 Y-37.856 Z-4.655
X58.69 Y-37.63 Z-4.603
X59.4 Y-37.393 Z-4.564
X59.933 Y-37.258 Z-4.549
X60.645 Y-37.122 Z-4.529
X61.401 Y-37.035 Z-4.517
X62.327 Y-36.988 Z-4.522
X63.173 Y-36.983 Z-4.546
X64.205 Y-37.042 Z-4.566
X64.922 Y-37.125 Z-4.602
X65.604 Y-37.254 Z-4.653
X66.153 Y-37.402 Z-4.704
X66.807 Y-37.631 Z-4.768
X67.747 Y-38.025 Z-4.864
X68.006 Y-38.15 Z-4.899
X68.391 Y-38.387 Z-4.985
X69.235 Y-39.07 Z-5.185
X69.624 Y-39.447 Z-5.279
X69.913 Y-39.792 Z-5.341
X70.252 Y-40.301 Z-5.412
X70.518 Y-40.781 Z-5.487
X70.593 Y-40.999 Z-5.492
X70.794 Y-41.71 Z-5.526
X70.901 Y-42.274 Z-5.552
X70.976 Y-43.053 Z-5.566
X71.014 Y-46.014 Z-5.559
X70.986 Y-46.594 Z-5.586
X70.905 Y-47.148 Z-5.668
X70.768 Y-47.701 Z-5.804
X70.11 Y-47.698 Z-5.274
X69.506 Y-47.695 Z-4.855
X69.219 Y-47.694 Z-4.689
X68.938 Y-47.693 Z-4.557
X68.662 Y-47.692 Z-4.463
X68.387 Y-47.69 Z-4.41
X68.011 Y-47.71 Z-4.388
X66.477 Y-47.919 Z-4.423
X64.135 Y-48.266 Z-4.471
X62.084 Y-48.621 Z-4.501
X60.707 Y-48.887 Z-4.513
X59.433 Y-49.17 Z-4.544
X58.495 Y-49.417 Z-4.588
X57.536 Y-49.73 Z-4.656
X56.509 Y-50.125 Z-4.741
X56.15 Y-50.293 Z-4.778
X55.466 Y-50.672 Z-4.863
X54.876 Y-51.058 Z-4.955
X54.355 Y-51.453 Z-5.069
X53.89 Y-51.884 Z-5.172
X53.54 Y-52.261 Z-5.256
X53.245 Y-52.656 Z-5.346
X52.953 Y-53.14 Z-5.428
X52.683 Y-53.695 Z-5.528
X52.577 Y-54.01 Z-5.57
X52.436 Y-54.535 Z-5.642
X52.371 Y-54.976 Z-5.674
X52.355 Y-55.522 Z-5.71
X52.459 Y-56.295 Z-5.705
X52.589 Y-56.845 Z-5.707
X52.731 Y-57.211 Z-5.689
X52.94 Y-57.586 Z-5.643
X53.34 Y-58.175 Z-5.554
X53.598 Y-58.5 Z-5.515
X54.273 Y-59.12 Z-5.371
X54.717 Y-59.468 Z-5.301
X55.207 Y-59.781 Z-5.238
X55.71 Y-60.029 Z-5.167
X56.219 Y-60.226 Z-5.082
X56.966 Y-60.43 Z-4.976
X57.652 Y-60.567 Z-4.893
X58.208 Y-60.634 Z-4.847
X59 Y-60.65 Z-4.784
X59.492 Y-60.633 Z-4.761
X60.45 Y-60.525 Z-4.734
X61.228 Y-60.378 Z-4.694
X61.987 Y-60.18 Z-4.662
X62.879 Y-59.888 Z-4.636
X63.794 Y-59.504 Z-4.582
X64.817 Y-58.988 Z-4.54
X65.604 Y-58.531 Z-4.475
X66.35 Y-58.038 Z-4.394
X67.357 Y-57.298 Z-4.281
X67.786 Y-56.983 Z-4.251
X68.009 Y-56.852 Z-4.266
X68.243 Y-56.74 Z-4.304
X68.487 Y-56.646 Z-4.364
X68.741 Y-56.57 Z-4.445
X69.283 Y-56.471 Z-4.67
X69.646 Y-56.43 Z-4.867
X70.02 Y-56.387 Z-5.112
X70.841 Y-56.293 Z-5.746
X70.925 Y-55.859 Z-5.649
X70.988 Y-55.346 Z-5.582
X71.006 Y-49.337 Z-5.566
X70.98 Y-48.792 Z-5.592
X70.901 Y-48.246 Z-5.672
X70.768 Y-47.701 Z-5.804
X70.901 Y-48.246 Z-5.672
X70.98 Y-48.792 Z-5.592
X71.006 Y-49.337 Z-5.566
X70.988 Y-55.346 Z-5.582
X70.925 Y-55.859 Z-5.649
X70.841 Y-56.293 Z-5.746
X71.019 Y-56.793 Z-5.596
X71.135 Y-57.208 Z-5.514
X71.235 Y-57.7 Z-5.464
X71.334 Y-58.199 Z-5.448
X71.403 Y-58.386 Z-5.434
X71.612 Y-58.8 Z-5.368
X71.96 Y-59.318 Z-5.257
X72.206 Y-59.599 Z-5.183
X72.588 Y-59.934 Z-5.069
X72.736 Y-60.05 Z-5.03
X73.286 Y-60.388 Z-4.87
X73.68 Y-60.579 Z-4.78
X74.253 Y-60.774 Z-4.668
X74.761 Y-60.895 Z-4.578
X75.286 Y-60.971 Z-4.513
X75.895 Y-60.988 Z-4.454
X76.423 Y-60.971 Z-4.425
X77.411 Y-60.857 Z-4.396
X78.144 Y-60.728 Z-4.363
X79.503 Y-61.773 Z-3.004
X78.144 Y-60.728 Z-4.363
X78.935 Y-59.771 Z-3.572
X79.502 Y-59.055 Z-3.005
G0 Z5
X81.03 Y-62.03
Z2
G1 Z-3.003 F850
X82.419 Y-60.642 Z-4.391
X81.034 Y-59.276 Z-3.007
X82.419 Y-60.642 Z-4.391
X83.699 Y-60.6 Z-4.433
X84.391 Y-60.54 Z-4.492
X84.456 Y-60.529 Z-4.504
X85.08 Y-60.407 Z-4.626
X85.597 Y-60.27 Z-4.762
X86.156 Y-60.076 Z-4.956
X86.733 Y-59.827 Z-5.206
X87.577 Y-59.39 Z-5.643
X88.055 Y-59.075 Z-5.958
X88.971 Y-59.644 Z-5.389
X89.558 Y-59.942 Z-5.091
X90.07 Y-60.154 Z-4.879
X90.589 Y-60.325 Z-4.708
X90.796 Y-60.384 Z-4.648
X91.512 Y-60.519 Z-4.514
X92.322 Y-60.607 Z-4.426
X93.03 Y-60.641 Z-4.391
X93.803 Y-60.645 Z-4.387
X95.188 Y-59.259 Z-3.003
X93.803 Y-60.645 Z-4.387
X95.188 Y-62.03 Z-3.003
X93.803 Y-60.645 Z-4.387
X93.03 Y-60.641 Z-4.391
X92.322 Y-60.607 Z-4.426
X91.512 Y-60.519 Z-4.514
X90.796 Y-60.384 Z-4.648
X90.589 Y-60.325 Z-4.708
X90.07 Y-60.154 Z-4.879
X89.558 Y-59.942 Z-5.091
X88.971 Y-59.644 Z-5.389
X88.055 Y-59.075 Z-5.958
X88.068 Y-58.413 Z-5.781
X88.086 Y-57.62 Z-5.619
X88.098 Y-56.946 Z-5.542
X88.108 Y-56.197 Z-5.513
X88.109 Y-55.469 Z-5.516
Y-52.584
X88.145 Y-51.958 Z-5.551
X88.251 Y-51.332 Z-5.658
X88.428 Y-50.707 Z-5.835
X88.251 Y-50.081 Z-5.658
X88.145 Y-49.455 Z-5.551
X88.109 Y-48.829 Z-5.516
Y-28.042
X88.074 Y-27.417 Z-5.551
X87.968 Y-26.793 Z-5.657
X87.792 Y-26.168 Z-5.834
X87.164 Y-26.034 Z-5.46
X86.699 Y-25.972 Z-5.225
X86.295 Y-25.945 Z-5.053
X85.903 Y-25.947 Z-4.918
X85.343 Y-26.002 Z-4.79
X84.414 Y-26.132 Z-4.66
X83.349 Y-26.249 Z-4.543
X82.496 Y-26.324 Z-4.468
X81.033 Y-25.06 Z-3.005
X82.496 Y-26.324 Z-4.468
X81.03 Y-27.789 Z-3.003
X82.496 Y-26.324 Z-4.468
X83.349 Y-26.249 Z-4.543
X84.414 Y-26.132 Z-4.66
X85.343 Y-26.002 Z-4.79
X85.903 Y-25.947 Z-4.918
X86.295 Y-25.945 Z-5.053
X86.699 Y-25.972 Z-5.225
X87.164 Y-26.034 Z-5.46
X87.792 Y-26.168 Z-5.834
X88.658 Y-24.807 Z-4.967
X88.209 Y-22.844 Z-3.004
X88.658 Y-24.807 Z-4.967
X90.623 Y-22.843 Z-3.003
X88.658 Y-24.807 Z-4.967
X87.792 Y-26.168 Z-5.834
X87.968 Y-26.793 Z-5.657
X88.074 Y-27.417 Z-5.551
X88.109 Y-28.042 Z-5.516
Y-48.829
X88.145 Y-49.455 Z-5.551
X88.251 Y-50.081 Z-5.658
X88.428 Y-50.707 Z-5.835
X88.909 Z-5.469
X89.349 Z-5.169
X89.935 Y-50.677 Z-4.823
X90.473 Y-50.587 Z-4.553
X90.962 Y-50.438 Z-4.361
X91.402 Y-50.228 Z-4.245
X91.825 Y-49.934 Z-4.207
X93.621 Y-48.433 Z-4.238
X94.019 Y-48.152 Z-4.285
X94.47 Y-47.931 Z-4.41
X94.971 Y-47.769 Z-4.615
X95.525 Y-47.668 Z-4.899
X96.13 Y-47.628 Z-5.262
X96.295 Y-47.095 Z-4.966
X96.502 Y-46.613 Z-4.735
X96.753 Y-46.18 Z-4.57
X97.046 Y-45.798 Z-4.471
X97.383 Y-45.465 Z-4.438
X100.727 Y-42.644 Z-4.477
X101.18 Y-42.288 Z-4.463
X101.847 Y-41.739 Z-4.46
X102.425 Y-41.221 Z-4.491
X103.087 Y-40.554 Z-4.582
X103.601 Y-39.956 Z-4.714
X103.88 Y-39.511 Z-4.879
X104.115 Y-39.014 Z-5.112
X104.308 Y-38.465 Z-5.412
X104.411 Y-38.428 Z-5.375
X104.862 Y-38.287 Z-5.234
X105.676 Y-38.13 Z-5.077
X108.727 Y-37.644 Z-4.591
X110.005 Y-37.518 Z-4.465
X110.813 Y-37.471 Z-4.417
X111.117 Y-37.46 Z-4.407
X112.098 Y-38.408 Z-3.426
X112.517 Y-38.825 Z-3.007
X112.098 Y-38.408 Z-3.426
X111.117 Y-37.46 Z-4.407
X112.521 Y-36.056 Z-3.003
X111.117 Y-37.46 Z-4.407
X110.813 Y-37.471 Z-4.417
X110.005 Y-37.518 Z-4.465
X108.727 Y-37.644 Z-4.591
X105.676 Y-38.13 Z-5.077
X104.862 Y-38.287 Z-5.234
X104.411 Y-38.428 Z-5.375
X104.308 Y-38.465 Z-5.412
X103.807 Y-38.133 Z-5.08
X103.307 Y-37.873 Z-4.82
X102.807 Y-37.686 Z-4.633
X102.679 Y-37.649 Z-4.596
X102.509 Y-37.606 Z-4.553
X102.333 Y-37.568 Z-4.515
X102.297 Y-37.561 Z-4.508
X102.26 Y-37.554 Z-4.501
X102.234 Y-37.549 Z-4.496
X102.198 Y-37.543 Z-4.49
X101.83 Y-37.496 Z-4.443
X101.03 Y-37.446 Z-4.393
X100.236 Y-37.441 Z-4.388
X99.955
X98.569 Y-36.056 Z-3.003
X99.955 Y-37.441 Z-4.388
X98.569 Y-38.827 Z-3.003
X99.955 Y-37.441 Z-4.388
X100.236
X101.03 Y-37.446 Z-4.393
X101.83 Y-37.496 Z-4.443
X102.198 Y-37.543 Z-4.49
X102.234 Y-37.549 Z-4.496
X102.26 Y-37.554 Z-4.501
X102.297 Y-37.561 Z-4.508
X102.333 Y-37.568 Z-4.515
X102.509 Y-37.606 Z-4.553
X102.679 Y-37.649 Z-4.596
X102.807 Y-37.686 Z-4.633
X103.307 Y-37.873 Z-4.82
X103.807 Y-38.133 Z-5.08
X104.308 Y-38.465 Z-5.412
X104.115 Y-39.014 Z-5.112
X103.88 Y-39.511 Z-4.879
X103.601 Y-39.956 Z-4.714
X103.087 Y-40.554 Z-4.582
X102.425 Y-41.221 Z-4.491
X101.847 Y-41.739 Z-4.46
X101.18 Y-42.288 Z-4.463
X100.727 Y-42.644 Z-4.477
X97.383 Y-45.465 Z-4.438
X97.046 Y-45.798 Z-4.471
X96.753 Y-46.18 Z-4.57
X96.502 Y-46.613 Z-4.735
X96.295 Y-47.095 Z-4.966
X96.13 Y-47.628 Z-5.262
X96.272 Y-47.823 Z-5.209
X96.653 Y-48.321 Z-5.164
X103.344 Y-55.976 Z-5.239
X103.523 Y-56.193 Z-5.25
X103.832 Y-56.537 Z-5.247
X104.215 Y-57.021 Z-5.281
X104.55 Y-57.51 Z-5.355
X104.898 Y-58.083 Z-5.511
X104.971 Y-58.209 Z-5.562
X105.186 Y-58.623 Z-5.748
X105.375 Y-59.063 Z-5.969
X104.876 Y-59.463 Z-5.57
X104.602 Y-59.656 Z-5.376
X104.369 Y-59.808 Z-5.225
X103.954 Y-60.043 Z-4.99
X103.387 Y-60.295 Z-4.738
X102.937 Y-60.44 Z-4.593
X102.595 Y-60.52 Z-4.513
X101.905 Y-60.601 Z-4.432
X101.216 Y-60.641 Z-4.391
X100.383 Y-60.646 Z-4.387
X100.297 Y-60.645 Z-4.388
X100.257 Y-60.604 Z-4.348
X98.915 Y-59.262 Z-3.005
X100.257 Y-60.604 Z-4.348
X100.297 Y-60.645 Z-4.388
X98.912 Y-62.03 Z-3.003
X100.297 Y-60.645 Z-4.388
X100.383 Y-60.646 Z-4.387
X101.216 Y-60.641 Z-4.391
X101.905 Y-60.601 Z-4.432
X102.595 Y-60.52 Z-4.513
X102.937 Y-60.44 Z-4.593
X103.387 Y-60.295 Z-4.738
X103.954 Y-60.043 Z-4.99
X104.369 Y-59.808 Z-5.225
X104.602 Y-59.656 Z-5.376
X104.876 Y-59.463 Z-5.57
X105.375 Y-59.063 Z-5.969
X107.326 Y-59.735 Z-5.297
X108.499 Y-60.109 Z-4.924
X109.255 Y-60.305 Z-4.728
X109.991 Y-60.449 Z-4.584
X110.525 Y-60.525 Z-4.508
X111.883 Y-60.618 Z-4.414
X112.093 Y-60.627 Z-4.406
X113.122 Y-59.642 Z-3.377
X113.492 Y-59.277 Z-3.007
X113.122 Y-59.642 Z-3.377
X112.093 Y-60.627 Z-4.406
X113.496 Y-62.03 Z-3.003
G0 Z5
X138.333 Y-54.726
Z2
G1 Z-3.006 F850
X138.403 Y-56.475 Z-4.325
X140.258 Y-56.269 Z-3.002
X138.403 Y-56.475 Z-4.325
X138.199 Y-56.69 Z-4.344
X137.496 Y-57.385 Z-4.402
X136.782 Y-58.019 Z-4.446
X135.896 Y-58.724 Z-4.501
X135.363 Y-59.109 Z-4.529
X134.453 Y-59.704 Z-4.545
X134.081 Y-59.907 Z-4.559
X133.309 Y-60.259 Z-4.583
X132.51 Y-60.567 Z-4.607
X131.708 Y-60.771 Z-4.612
X131.019 Y-60.894 Z-4.63
X130.202 Y-60.973 Z-4.637
X129.611 Y-60.999 Z-4.638
X128.667 Y-60.961 Z-4.667
X127.819 Y-60.881 Z-4.699
X127.27 Y-60.799 Z-4.732
X126.583 Y-60.65 Z-4.789
X125.977 Y-60.467 Z-4.845
X125.209 Y-60.167 Z-4.908
X124.513 Y-59.843 Z-4.954
X123.592 Y-59.282 Z-5.088
X123.405 Y-59.156 Z-5.114
X122.697 Y-58.592 Z-5.186
X122.176 Y-58.126 Z-5.26
X121.653 Y-57.586 Z-5.352
X121.313 Y-57.18 Z-5.416
X120.877 Y-56.576 Z-5.493
X120.324 Y-55.687 Z-5.581
X119.933 Y-54.95 Z-5.672
X119.816 Y-54.678 Z-5.691
X119.419 Y-53.653 Z-5.743
X119.145 Y-52.816 Z-5.784
X118.988 Y-52.199 Z-5.805
X118.874 Y-51.571 Z-5.815
X118.776 Y-50.75 Z-5.817
X118.698 Y-49.569 Z-5.816
X118.68 Y-49.055 Z-5.814
X118.706 Y-47.944 Z-5.786
X118.772 Y-46.972 Z-5.767
X118.854 Y-46.479 Z-5.781
X118.977 Y-46.033 Z-5.818
X119.141 Y-45.612 Z-5.874
X119.346 Y-45.211 Z-5.95
X119.336 Y-44.631 Z-5.745
X119.391 Y-44.048 Z-5.579
X119.513 Y-43.459 Z-5.463
X119.641 Y-43.052 Z-5.417
X120.015 Y-42.338 Z-5.344
X120.465 Y-41.574 Z-5.277
X120.828 Y-41.035 Z-5.225
X121.307 Y-40.434 Z-5.148
X121.823 Y-39.877 Z-5.051
X122.363 Y-39.37 Z-4.964
X123.034 Y-38.806 Z-4.881
X123.621 Y-38.428 Z-4.795
X124.197 Y-38.105 Z-4.74
X124.949 Y-37.739 Z-4.685
X125.5 Y-37.524 Z-4.654
X126.242 Y-37.299 Z-4.608
X126.96 Y-37.145 Z-4.563
X127.543 Y-37.064 Z-4.541
X128.701 Y-36.98 Z-4.532
X129.493 Y-36.999 Z-4.542
X130.288 Y-37.067 Z-4.563
X130.947 Y-37.176 Z-4.599
X131.527 Y-37.324 Z-4.638
X132.326 Y-37.595 Z-4.689
X132.988 Y-37.886 Z-4.76
X133.326 Y-38.056 Z-4.799
X133.904 Y-38.417 Z-4.857
X134.398 Y-38.783 Z-4.93
X134.79 Y-39.132 Z-4.995
X135.29 Y-39.67 Z-5.065
X135.738 Y-40.265 Z-5.156
X136.11 Y-40.852 Z-5.229
X136.512 Y-41.599 Z-5.319
X136.775 Y-42.194 Z-5.388
X137.051 Y-42.989 Z-5.452
X137.192 Y-43.498 Z-5.494
X137.263 Y-43.886 Z-5.553
X137.274 Y-44.05 Z-5.575
X137.279 Y-44.41 Z-5.637
X138.282 Y-45.269 Z-4.778
X139.225 Y-46.139 Z-3.908
X140.163 Y-47.045 Z-3.002
X139.225 Y-46.139 Z-3.908
X138.282 Y-45.269 Z-4.778
X137.279 Y-44.41 Z-5.637
X136.81 Y-44.755 Z-5.292
X136.34 Y-45.037 Z-5.01
X135.871 Y-45.256 Z-4.791
X135.401 Y-45.413 Z-4.634
X134.932 Y-45.507 Z-4.54
X134.462 Y-45.538 Z-4.509
X122.207
X121.772 Y-45.511 Z-4.536
X121.491 Y-45.477 Z-4.592
X121.208 Y-45.442 Z-4.689
X120.628 Y-45.37 Z-4.991
X120.013 Y-45.294 Z-5.416
X119.346 Y-45.211 Z-5.95
G0 Z5
X166.179 Y-43.522
Z2
G1 Z-5.319 F850
X166.187 Y-43.487 Z-5.352
X166.258 Y-43.308 Z-5.51
X166.347 Y-43.179 Z-5.612
X167.01 Y-43.944 Z-4.663
X167.052 Y-43.992 Z-4.599
X167.01 Y-43.944 Z-4.663
X166.347 Y-43.179 Z-5.612
X166.364 Y-43.063 Z-5.639
X166.491 Y-42.522 Z-5.697
X166.602 Y-42.066 Z-5.7
X166.744 Y-41.689 Z-5.657
X167.043 Y-41.028 Z-5.549
X167.443 Y-40.355 Z-5.369
X167.827 Y-39.821 Z-5.237
X168.201 Y-39.394 Z-5.117
X168.596 Y-39.026 Z-5.003
X169.138 Y-38.605 Z-4.873
X169.538 Y-38.332 Z-4.795
X170.1 Y-38.023 Z-4.705
X170.669 Y-37.76 Z-4.631
X171.293 Y-37.526 Z-4.585
X171.939 Y-37.329 Z-4.555
X172.692 Y-37.167 Z-4.536
X173.438 Y-37.06 Z-4.519
X174.416 Y-36.995 Z-4.52
X175.482 Y-36.983 Z-4.546
X176.428 Y-37.035 Z-4.564
X177.135 Y-37.111 Z-4.596
X177.736 Y-37.215 Z-4.638
X178.404 Y-37.385 Z-4.698
X179.021 Y-37.594 Z-4.759
X180.055 Y-38.025 Z-4.864
X180.537 Y-38.276 Z-4.945
X180.995 Y-38.615 Z-5.054
X181.541 Y-39.067 Z-5.185
X181.928 Y-39.44 Z-5.278
X182.214 Y-39.781 Z-5.339
X182.547 Y-40.276 Z-5.409
X182.828 Y-40.781 Z-5.487
X182.911 Y-41.026 Z-5.493
X183.102 Y-41.708 Z-5.526
X183.21 Y-42.272 Z-5.551
X183.285 Y-43.055 Z-5.566
X183.323 Y-46.014 Z-5.559
X183.296 Y-46.594 Z-5.586
X183.214 Y-47.148 Z-5.668
X183.078 Y-47.701 Z-5.804
X183.21 Y-48.247 Z-5.672
X183.29 Y-48.792 Z-5.592
X183.316 Y-49.337 Z-5.566
X183.317 Y-54.751 Z-5.565
Y-54.854
X183.298 Y-55.339 Z-5.582
X183.237 Y-55.849 Z-5.648
X183.15 Y-56.292 Z-5.746
X183.331 Y-56.801 Z-5.594
X183.445 Y-57.21 Z-5.513
X183.545 Y-57.708 Z-5.464
X183.643 Y-58.197 Z-5.448
X183.715 Y-58.391 Z-5.434
X183.922 Y-58.8 Z-5.368
X184.269 Y-59.317 Z-5.257
X184.514 Y-59.597 Z-5.183
X184.915 Y-59.949 Z-5.064
X185.046 Y-60.05 Z-5.03
X185.594 Y-60.388 Z-4.87
X185.99 Y-60.58 Z-4.78
X186.553 Y-60.771 Z-4.67
X187.07 Y-60.895 Z-4.578
X187.599 Y-60.971 Z-4.513
X188.222 Y-60.988 Z-4.453
X188.732 Y-60.971 Z-4.425
X189.721 Y-60.857 Z-4.396
X190.454 Y-60.728 Z-4.363
X191.245 Y-59.771 Z-3.572
X191.812 Y-59.055 Z-3.005
X191.245 Y-59.771 Z-3.572
X190.454 Y-60.728 Z-4.363
X191.813 Y-61.773 Z-3.004
X190.454 Y-60.728 Z-4.363
X189.721 Y-60.857 Z-4.396
X188.732 Y-60.971 Z-4.425
X188.222 Y-60.988 Z-4.453
X187.599 Y-60.971 Z-4.513
X187.07 Y-60.895 Z-4.578
X186.553 Y-60.771 Z-4.67
X185.99 Y-60.58 Z-4.78
X185.594 Y-60.388 Z-4.87
X185.046 Y-60.05 Z-5.03
X184.915 Y-59.949 Z-5.064
X184.514 Y-59.597 Z-5.183
X184.269 Y-59.317 Z-5.257
X183.922 Y-58.8 Z-5.368
X183.715 Y-58.391 Z-5.434
X183.643 Y-58.197 Z-5.448
X183.545 Y-57.708 Z-5.464
X183.445 Y-57.21 Z-5.513
X183.331 Y-56.801 Z-5.594
X183.15 Y-56.292 Z-5.746
X182.331 Y-56.386 Z-5.113
X181.958 Y-56.429 Z-4.868
X181.595 Y-56.471 Z-4.671
X181.05 Y-56.571 Z-4.444
X180.797 Y-56.646 Z-4.364
X180.55 Y-56.741 Z-4.303
X180.318 Y-56.852 Z-4.266
X180.097 Y-56.981 Z-4.251
X179.677 Y-57.29 Z-4.28
X178.658 Y-58.039 Z-4.394
X177.914 Y-58.531 Z-4.475
X177.127 Y-58.988 Z-4.54
X176.104 Y-59.504 Z-4.581
X175.19 Y-59.887 Z-4.636
X174.296 Y-60.18 Z-4.662
X173.539 Y-60.378 Z-4.694
X172.759 Y-60.525 Z-4.734
X171.801 Y-60.633 Z-4.761
X171.31 Y-60.65 Z-4.784
X170.518 Y-60.634 Z-4.847
X169.961 Y-60.567 Z-4.893
X169.276 Y-60.43 Z-4.976
X168.528 Y-60.226 Z-5.082
X168.02 Y-60.03 Z-5.166
X167.515 Y-59.78 Z-5.238
X167.037 Y-59.475 Z-5.3
X166.532 Y-59.077 Z-5.381
X165.909 Y-58.502 Z-5.514
X165.872 Y-58.458 Z-5.519
X165.502 Y-57.968 Z-5.586
X165.167 Y-57.448 Z-5.662
X165.006 Y-57.136 Z-5.696
X164.876 Y-56.769 Z-5.707
X164.765 Y-56.27 Z-5.704
X164.665 Y-55.522 Z-5.71
X164.683 Y-54.957 Z-5.673
X164.744 Y-54.538 Z-5.642
X164.892 Y-53.994 Z-5.567
X164.994 Y-53.693 Z-5.528
X165.273 Y-53.122 Z-5.425
X165.553 Y-52.658 Z-5.347
X165.85 Y-52.261 Z-5.256
X166.199 Y-51.884 Z-5.172
X166.524 Y-51.568 Z-5.106
X167.061 Y-51.148 Z-4.979
X167.624 Y-50.766 Z-4.884
X168.27 Y-50.392 Z-4.802
X168.818 Y-50.125 Z-4.741
X169.846 Y-49.729 Z-4.656
X170.804 Y-49.417 Z-4.588
X171.575 Y-49.21 Z-4.551
X172.842 Y-48.924 Z-4.516
X174.312 Y-48.636 Z-4.502
X176.444 Y-48.266 Z-4.471
X178.787 Y-47.919 Z-4.423
X180.32 Y-47.71 Z-4.388
X180.697 Y-47.691 Z-4.41
X180.971 Y-47.692 Z-4.463
X181.248 Y-47.693 Z-4.557
X181.528 Y-47.694 Z-4.689
X181.816 Y-47.696 Z-4.855
X182.419 Y-47.698 Z-5.275
X183.078 Y-47.701 Z-5.804
G0 Z5
X212.049 Y-52.983
Z2
G1 Z-3.004 F850
X214.129 Y-53.935 Z-4.631
X214.759 Y-51.957 Z-3.004
X214.129 Y-53.935 Z-4.631
X214.746 Y-55.103 Z-4.809
X215.258 Y-56.02 Z-4.976
X215.954 Y-57.179 Z-5.232
X216.607 Y-58.195 Z-5.497
X216.463 Y-58.802 Z-5.154
X216.39 Y-59.382 Z-4.886
X216.389 Y-59.937 Z-4.694
X216.424 Y-60.497 Z-4.535
X217.644 Y-62.029 Z-3.004
X216.424 Y-60.497 Z-4.535
X215.352 Y-62.029 Z-3.004
X216.424 Y-60.497 Z-4.535
X216.389 Y-59.937 Z-4.694
X216.39 Y-59.382 Z-4.886
X216.463 Y-58.802 Z-5.154
X216.607 Y-58.195 Z-5.497
X217.212 Y-58.251 Z-5.125
X217.585 Y-58.316 Z-4.92
X217.922 Y-58.399 Z-4.754
X218.242 Y-58.504 Z-4.617
X218.525 Y-58.61 Z-4.527
X218.785 Y-58.719 Z-4.476
X219.04 Y-58.85 Z-4.448
X219.526 Y-59.165 Z-4.455
X220.324 Y-59.679 Z-4.497
X221.106 Y-60.12 Z-4.546
X221.729 Y-60.407 Z-4.58
X222.253 Y-60.595 Z-4.6
X222.971 Y-60.778 Z-4.607
X223.693 Y-60.901 Z-4.601
X224.862 Y-61.023 Z-4.584
X225.569 Y-61.073 Z-4.575
X226.52 Y-61.021 Z-4.579
X227.282 Y-60.935 Z-4.596
X227.767 Y-60.843 Z-4.613
X228.352 Y-60.678 Z-4.641
X228.948 Y-60.45 Z-4.68
X229.817 Y-60.037 Z-4.761
X230.06 Y-59.908 Z-4.784
X230.481 Y-59.628 Z-4.824
X231.04 Y-59.198 Z-4.901
X231.44 Y-58.832 Z-4.958
X231.779 Y-58.443 Z-5.006
X232.12 Y-57.951 Z-5.069
X232.401 Y-57.465 Z-5.153
X232.657 Y-56.839 Z-5.24
X232.838 Y-56.278 Z-5.317
X232.913 Y-55.919 Z-5.355
X232.944 Y-55.476 Z-5.405
X232.937 Y-54.797 Z-5.482
X232.86 Y-54.321 Z-5.51
X232.749 Y-53.861 Z-5.55
X232.622 Y-53.494 Z-5.581
X232.396 Y-53.064 Z-5.589
X231.937 Y-52.396 Z-5.591
X231.554 Y-52.028 Z-5.552
X231.137 Y-51.689 Z-5.55
X230.501 Y-51.211 Z-5.543
X229.95 Y-50.849 Z-5.532
X229.316 Y-50.497 Z-5.515
X228.492 Y-50.117 Z-5.5
X220.963 Y-47.384 Z-5.469
X219.855 Y-46.954 Z-5.477
X219.067 Y-46.6 Z-5.498
X218.341 Y-46.213 Z-5.521
X217.794 Y-45.872 Z-5.525
X217.311 Y-45.533 Z-5.518
X216.951 Y-45.225 Z-5.537
X216.424 Y-44.716 Z-5.594
X216.067 Y-44.225 Z-5.595
X215.821 Y-43.806 Z-5.601
X215.693 Y-43.491 Z-5.588
X215.566 Y-43.015 Z-5.55
X215.477 Y-42.515 Z-5.517
X215.481 Y-41.728 Z-5.395
X215.542 Y-41.235 Z-5.339
X215.661 Y-40.804 Z-5.29
X215.814 Y-40.436 Z-5.216
X216.064 Y-39.973 Z-5.107
X216.38 Y-39.5 Z-5.002
X216.755 Y-39.046 Z-4.923
X217.175 Y-38.673 Z-4.836
X217.725 Y-38.249 Z-4.761
X218.196 Y-37.94 Z-4.717
X218.716 Y-37.668 Z-4.689
X219.311 Y-37.419 Z-4.642
X219.855 Y-37.253 Z-4.598
X220.438 Y-37.132 Z-4.564
X221.012 Y-37.057 Z-4.548
X221.904 Y-36.994 Z-4.547
X222.313 Y-36.995 Z-4.551
X223.466 Y-37.099 Z-4.584
X224.064 Y-37.197 Z-4.589
X224.819 Y-37.376 Z-4.591
X225.402 Y-37.56 Z-4.601
X226.101 Y-37.859 Z-4.604
X226.525 Y-38.096 Z-4.587
X227.039 Y-38.454 Z-4.533
X227.593 Y-38.858 Z-4.483
X227.962 Y-39.065 Z-4.51
X228.191 Y-39.177 Z-4.559
X228.459 Y-39.295 Z-4.646
X228.751 Y-39.398 Z-4.76
X229.069 Y-39.485 Z-4.904
X229.414 Y-39.557 Z-5.082
X230.014 Y-39.635 Z-5.433
X230.188 Y-39.089 Z-5.118
X230.3 Y-38.561 Z-4.867
X230.349 Y-38.051 Z-4.682
X230.364 Y-37.598 Z-4.545
X231.53 Y-36.06 Z-3.007
X230.364 Y-37.598 Z-4.545
X229.278 Y-36.056 Z-3.003
X230.364 Y-37.598 Z-4.545
X230.349 Y-38.051 Z-4.682
X230.3 Y-38.561 Z-4.867
X230.188 Y-39.089 Z-5.118
X230.014 Y-39.635 Z-5.433
X230.567 Y-40.586 Z-5.157
X230.934 Y-41.267 Z-4.988
X231.375 Y-42.171 Z-4.807
X231.76 Y-43.04 Z-4.672
X231.942 Y-43.478 Z-4.614
X231.175 Y-45.317 Z-3.08
X231.136 Y-45.408 Z-3.004
X231.175 Y-45.317 Z-3.08
X231.942 Y-43.478 Z-4.614
X233.918 Y-44.559 Z-3.004
G0 Z5
X262.753 Y-54.72
Z2
G1 Z-3.001 F850
X262.824 Y-56.475 Z-4.325
X264.679 Y-56.269 Z-3.002
X262.824 Y-56.475 Z-4.325
X262.104 Y-57.207 Z-4.388
X261.372 Y-57.875 Z-4.436
X260.613 Y-58.496 Z-4.481
X259.784 Y-59.11 Z-4.529
X258.749 Y-59.779 Z-4.546
X258.13 Y-60.085 Z-4.574
X257.287 Y-60.436 Z-4.593
X256.699 Y-60.632 Z-4.605
X255.925 Y-60.813 Z-4.617
X255.308 Y-60.911 Z-4.632
X254.475 Y-60.982 Z-4.636
X254.013 Y-60.998 Z-4.639
X253.264 Y-60.972 Z-4.663
X252.241 Y-60.881 Z-4.699
X251.691 Y-60.799 Z-4.733
X250.954 Y-60.637 Z-4.794
X250.287 Y-60.429 Z-4.856
X249.592 Y-60.149 Z-4.911
X248.934 Y-59.842 Z-4.954
X248.196 Y-59.398 Z-5.06
X247.777 Y-59.119 Z-5.119
X247.009 Y-58.498 Z-5.2
X246.452 Y-57.984 Z-5.284
X246.027 Y-57.533 Z-5.361
X245.582 Y-56.981 Z-5.443
X245.171 Y-56.381 Z-5.514
X244.715 Y-55.636 Z-5.585
X244.448 Y-55.134 Z-5.647
X244.232 Y-54.666 Z-5.691
X243.783 Y-53.49 Z-5.751
X243.547 Y-52.743 Z-5.787
X243.394 Y-52.123 Z-5.807
X243.284 Y-51.497 Z-5.815
X243.189 Y-50.644 Z-5.817
X243.119 Y-49.556
X243.102 Y-48.797 Z-5.804
X243.139 Y-47.712 Z-5.782
X243.2 Y-46.916 Z-5.767
X243.275 Y-46.479 Z-5.781
X243.398 Y-46.033 Z-5.818
X243.563 Y-45.612 Z-5.874
X243.767 Y-45.211 Z-5.95
X243.754 Y-44.906 Z-5.837
X243.776 Y-44.343 Z-5.657
X243.864 Y-43.757 Z-5.514
X244.026 Y-43.159 Z-5.425
X244.096 Y-42.98 Z-5.405
X244.442 Y-42.329 Z-5.343
X244.886 Y-41.574 Z-5.277
X245.276 Y-40.999 Z-5.221
X245.676 Y-40.495 Z-5.157
X246.234 Y-39.887 Z-5.053
X246.776 Y-39.378 Z-4.965
X247.455 Y-38.806 Z-4.881
X247.941 Y-38.49 Z-4.807
X248.61 Y-38.109 Z-4.741
X249.376 Y-37.737 Z-4.685
X249.921 Y-37.524 Z-4.654
X250.594 Y-37.317 Z-4.612
X251.262 Y-37.167 Z-4.569
X251.965 Y-37.064 Z-4.541
X253.122 Y-36.98 Z-4.532
X253.914 Y-36.999 Z-4.541
X254.708 Y-37.067 Z-4.563
X255.365 Y-37.176 Z-4.598
X255.949 Y-37.324 Z-4.639
X256.748 Y-37.595 Z-4.689
X257.41 Y-37.886 Z-4.76
X257.757 Y-38.062 Z-4.799
X258.326 Y-38.417 Z-4.857
X258.831 Y-38.793 Z-4.932
X259.211 Y-39.132 Z-4.995
X259.712 Y-39.67 Z-5.065
X260.232 Y-40.369 Z-5.173
X260.62 Y-41.005 Z-5.247
X260.939 Y-41.609 Z-5.32
X261.204 Y-42.213 Z-5.39
X261.445 Y-42.904 Z-5.446
X261.612 Y-43.492 Z-5.494
X261.685 Y-43.893 Z-5.554
X261.701 Y-44.41 Z-5.637
X262.704 Y-45.269 Z-4.778
X263.814 Y-46.299 Z-3.748
X264.581 Y-47.041 Z-3.006
X263.814 Y-46.299 Z-3.748
X262.704 Y-45.269 Z-4.778
X261.701 Y-44.41 Z-5.637
X261.231 Y-44.755 Z-5.293
X260.762 Y-45.037 Z-5.011
X260.292 Y-45.256 Z-4.791
X259.822 Y-45.413 Z-4.634
X259.353 Y-45.507 Z-4.54
X258.883 Y-45.538 Z-4.509
X246.628
X246.193 Y-45.511 Z-4.536
X245.912 Y-45.477 Z-4.592
X245.629 Y-45.442 Z-4.689
X245.342 Y-45.406 Z-4.824
X245.049 Y-45.37 Z-4.991
X244.434 Y-45.294 Z-5.416
X243.767 Y-45.211 Z-5.95
G0 Z5
X272.983 Y-43.522
Z2
G1 Z-5.319 F850
X272.992 Y-43.484 Z-5.355
X273.063 Y-43.308 Z-5.51
X273.151 Y-43.179 Z-5.613
X273.784 Y-43.91 Z-4.707
X273.834 Y-43.969 Z-4.631
X273.784 Y-43.91 Z-4.707
X273.151 Y-43.179 Z-5.613
X273.169 Y-43.059 Z-5.64
X273.295 Y-42.522 Z-5.697
X273.406 Y-42.067 Z-5.7
X273.542 Y-41.703 Z-5.659
X273.847 Y-41.027 Z-5.548
X274.247 Y-40.355 Z-5.369
X274.632 Y-39.821 Z-5.236
X274.959 Y-39.442 Z-5.131
X275.361 Y-39.059 Z-5.014
X275.942 Y-38.605 Z-4.873
X276.342 Y-38.332 Z-4.795
X276.904 Y-38.023 Z-4.705
X277.483 Y-37.756 Z-4.63
X278.097 Y-37.526 Z-4.585
X278.74 Y-37.33 Z-4.555
X279.501 Y-37.166 Z-4.536
X280.242 Y-37.06 Z-4.519
X281.222 Y-36.995 Z-4.52
X282.286 Y-36.983 Z-4.546
X283.232 Y-37.035 Z-4.564
X283.939 Y-37.111 Z-4.596
X284.54 Y-37.215 Z-4.638
X285.208 Y-37.384 Z-4.699
X285.825 Y-37.594 Z-4.759
X286.864 Y-38.027 Z-4.864
X287.341 Y-38.276 Z-4.945
X287.799 Y-38.615 Z-5.054
X288.345 Y-39.067 Z-5.185
X288.732 Y-39.44 Z-5.278
X289.018 Y-39.78 Z-5.339
X289.348 Y-40.271 Z-5.408
X289.632 Y-40.78 Z-5.487
X289.704 Y-40.993 Z-5.492
X289.906 Y-41.703 Z-5.525
X290.015 Y-42.278 Z-5.552
X290.09 Y-43.055 Z-5.566
X290.127 Y-46.014 Z-5.559
X290.1 Y-46.594 Z-5.586
X290.018 Y-47.148 Z-5.668
X289.882 Y-47.701 Z-5.804
X289.223 Y-47.698 Z-5.275
X288.62 Y-47.696 Z-4.855
X288.332 Y-47.694 Z-4.689
X288.052 Y-47.693 Z-4.557
X287.775 Y-47.692 Z-4.463
X287.501 Y-47.691 Z-4.41
X287.124 Y-47.71 Z-4.388
X284.422 Y-48.086 Z-4.449
X282.368 Y-48.411 Z-4.486
X280.04 Y-48.842 Z-4.509
X278.565 Y-49.166 Z-4.544
X277.611 Y-49.416 Z-4.588
X276.65 Y-49.729 Z-4.656
X275.622 Y-50.125 Z-4.741
X275.074 Y-50.392 Z-4.802
X274.428 Y-50.766 Z-4.884
X273.865 Y-51.148 Z-4.979
X273.328 Y-51.568 Z-5.106
X273.003 Y-51.884 Z-5.172
X272.654 Y-52.261 Z-5.256
X272.388 Y-52.613 Z-5.338
X272.09 Y-53.098 Z-5.422
X271.799 Y-53.691 Z-5.527
X271.689 Y-54.014 Z-5.57
X271.554 Y-54.513 Z-5.639
X271.491 Y-54.917 Z-5.671
X271.469 Y-55.522 Z-5.71
X271.569 Y-56.27 Z-5.704
X271.671 Y-56.736 Z-5.708
X271.795 Y-57.102 Z-5.698
X271.974 Y-57.453 Z-5.661
X272.297 Y-57.953 Z-5.589
X272.676 Y-58.458 Z-5.519
X272.711 Y-58.5 Z-5.515
X273.337 Y-59.077 Z-5.381
X273.831 Y-59.468 Z-5.301
X274.32 Y-59.781 Z-5.237
X274.81 Y-60.023 Z-5.169
X275.333 Y-60.226 Z-5.082
X276.08 Y-60.43 Z-4.976
X276.765 Y-60.567 Z-4.893
X277.322 Y-60.634 Z-4.847
X278.114 Y-60.65 Z-4.784
X278.606 Y-60.633 Z-4.761
X279.563 Y-60.525 Z-4.734
X280.343 Y-60.378 Z-4.694
X281.102 Y-60.18 Z-4.662
X281.993 Y-59.888 Z-4.636
X282.909 Y-59.504 Z-4.582
X283.932 Y-58.988 Z-4.54
X284.718 Y-58.531 Z-4.475
X285.465 Y-58.037 Z-4.393
X286.471 Y-57.297 Z-4.281
X286.899 Y-56.983 Z-4.251
X287.123 Y-56.852 Z-4.266
X287.358 Y-56.74 Z-4.304
X287.601 Y-56.646 Z-4.364
X287.854 Y-56.571 Z-4.444
X288.399 Y-56.471 Z-4.671
X288.762 Y-56.429 Z-4.868
X289.135 Y-56.386 Z-5.113
X289.954 Y-56.292 Z-5.746
X290.041 Y-55.849 Z-5.648
X290.102 Y-55.339 Z-5.582
X290.121 Y-54.854 Z-5.565
Y-54.751
X290.12 Y-49.337 Z-5.566
X290.094 Y-48.792 Z-5.592
X290.014 Y-48.247 Z-5.672
X289.882 Y-47.701 Z-5.804
X290.014 Y-48.247 Z-5.672
X290.094 Y-48.792 Z-5.592
X290.12 Y-49.337 Z-5.566
X290.121 Y-54.751 Z-5.565
Y-54.854
X290.102 Y-55.339 Z-5.582
X290.041 Y-55.849 Z-5.648
X289.954 Y-56.292 Z-5.746
X290.135 Y-56.8 Z-5.594
X290.249 Y-57.21 Z-5.513
X290.35 Y-57.71 Z-5.464
X290.459 Y-58.239 Z-5.448
X290.539 Y-58.433 Z-5.427
X290.726 Y-58.8 Z-5.368
X291.058 Y-59.297 Z-5.261
X291.284 Y-59.563 Z-5.194
X291.656 Y-59.897 Z-5.081
X291.85 Y-60.05 Z-5.03
X292.401 Y-60.389 Z-4.87
X292.793 Y-60.579 Z-4.78
X293.369 Y-60.775 Z-4.668
X293.875 Y-60.895 Z-4.578
X294.399 Y-60.971 Z-4.513
X295.008 Y-60.988 Z-4.454
X295.536 Y-60.971 Z-4.425
X296.524 Y-60.857 Z-4.396
X297.258 Y-60.728 Z-4.363
X298.617 Y-61.773 Z-3.004
X297.258 Y-60.728 Z-4.363
X298.049 Y-59.771 Z-3.572
X298.616 Y-59.055 Z-3.005
G0 Z5
X300.305 Y-36.531
Z2
G1 Z-3.002 F850
X300.714 Y-36.853 Z-3.411
X301.845 Y-37.717 Z-4.542
X300.306 Y-39.257 Z-3.003
X301.845 Y-37.717 Z-4.542
X302.514 Y-37.609 Z-4.65
X303.378 Y-37.434 Z-4.825
X304.426 Y-37.17 Z-5.089
X305.004 Y-37.021 Z-5.26
X305.709 Y-36.893 Z-5.564
X306.216 Y-36.823 Z-5.848
X306.848 Y-36.776 Z-6.244
X306.999 Y-36.267 Z-5.989
X307.201 Y-35.695 Z-5.753
X307.444 Y-34.988 Z-5.51
X307.708 Y-34.098 Z-5.246
X307.909 Y-33.341 Z-5.045
X308.071 Y-32.533 Z-4.883
X308.328 Y-31.031 Z-4.626
X308.471 Y-29.996 Z-4.483
X308.604 Y-28.745 Z-4.35
X308.632 Y-28.433 Z-4.322
X307.511 Y-27.115 Z-3.004
X308.632 Y-28.433 Z-4.322
X309.951 Y-27.113 Z-3.003
X308.632 Y-28.433 Z-4.322
X308.604 Y-28.745 Z-4.35
X308.471 Y-29.996 Z-4.483
X308.328 Y-31.031 Z-4.626
X308.071 Y-32.533 Z-4.883
X307.909 Y-33.341 Z-5.045
X307.708 Y-34.098 Z-5.246
X307.444 Y-34.988 Z-5.51
X307.201 Y-35.695 Z-5.753
X306.999 Y-36.267 Z-5.989
X306.848 Y-36.776 Z-6.244
X307.153 Y-37.231 Z-6.118
X307.438 Y-37.656 Z-6.079
X308.553 Z-5.232
X308.897 Z-5.017
X309.232 Z-4.842
X309.56 Z-4.712
X309.883 Z-4.631
X310.204 Z-4.603
X316.166
X317.766 Y-39.257 Z-3.003
X316.166 Y-37.656 Z-4.603
X317.766 Y-36.056 Z-3.003
X316.166 Y-37.656 Z-4.603
X310.204
X309.883 Z-4.631
X309.56 Z-4.712
X309.232 Z-4.842
X308.897 Z-5.017
X308.553 Z-5.232
X307.438 Z-6.079
Y-38.151 Z-5.831
Y-38.619 Z-5.656
Y-39.069 Z-5.551
Y-39.509 Z-5.516
X307.459 Y-56.203 Z-5.527
X307.534 Y-56.997 Z-5.545
X307.644 Y-57.588 Z-5.551
X307.848 Y-58.35 Z-5.539
X307.872 Y-58.426 Z-5.54
X308.086 Y-58.805 Z-5.494
X308.271 Y-59.061 Z-5.448
X308.59 Y-59.408 Z-5.35
X308.979 Y-59.762 Z-5.244
X309.476 Y-60.114 Z-5.124
X309.975 Y-60.403 Z-5.026
X310.355 Y-60.579 Z-4.946
X310.917 Y-60.759 Z-4.84
X311.514 Y-60.901 Z-4.739
X311.787 Y-60.935 Z-4.69
X312.395 Y-60.961 Z-4.599
X313.081 Y-60.945 Z-4.527
X313.68 Y-60.863 Z-4.512
X314.52 Y-60.699 Z-4.488
X315.359 Y-60.474 Z-4.434
X316.13 Y-60.201 Z-4.368
X316.864 Y-59.883 Z-4.306
X317.701 Y-59.462 Z-4.25
X318.95 Y-60.163 Z-3.001
X317.701 Y-59.462 Z-4.25
X318.397 Y-58.324 Z-3.554
X318.946 Y-57.377 Z-3.005
G0 Z5
X327.168 Y-58.396
Z2
G1 Z-5.257 F850
X328.378 Y-58.893 Z-6.536
X328.381 Y-58.895 Z-6.54
X327.889 Y-57.702 Z-5.278
X328.381 Y-58.895 Z-6.54
X328.395 Y-58.909 Z-6.555
X328.396 Z-6.556
X328.39 Y-58.913 Z-6.55
X328.396 Y-58.909 Z-6.556
X328.403 Y-58.912 Z-6.559
X328.404
X328.405
X328.432 Y-58.911 Z-6.556
X328.449 Y-58.907 Z-6.549
X328.471 Z-6.536
X328.472 Y-58.906 Z-6.535
X328.486 Z-6.524
X329.688 Y-58.408 Z-5.251
X328.486 Y-58.906 Z-6.524
X328.494 Y-58.909 Z-6.517
X329.687 Y-59.411 Z-5.252
G0 Z5
X344.786 Y-58.395
Z2
G1 Z-5.257 F850
X345.999 Y-58.895 Z-6.54
X345.997 Y-58.893 Z-6.538
X345.506 Y-57.702 Z-5.278
X345.997 Y-58.893 Z-6.538
X345.999 Y-58.895 Z-6.54
X346.012 Y-58.909 Z-6.555
X346.013 Y-58.91 Z-6.556
X346.007 Y-58.913 Z-6.55
X344.789 Y-59.422 Z-5.26
X346.007 Y-58.913 Z-6.55
X346.013 Y-58.91 Z-6.556
X346.02 Y-58.912 Z-6.559
X345.53 Y-60.1 Z-5.302
X346.02 Y-58.912 Z-6.559
X346.022
X346.049 Y-58.911 Z-6.556
X346.066 Y-58.907 Z-6.549
X346.09 Z-6.534
X346.091 Y-58.906
X346.101 Z-6.526
X346.109 Y-58.909 Z-6.518
X347.304 Y-59.411 Z-5.252
X346.109 Y-58.909 Z-6.518
X346.101 Y-58.906 Z-6.526
X347.31 Y-58.396 Z-5.242
G0 Z5
X362.403 Y-59.424
Z2
G1 Z-5.256 F850
X363.621 Y-58.914 Z-6.546
X363.626 Y-58.911 Z-6.552
X363.63 Y-58.909 Z-6.556
X363.615 Y-58.894 Z-6.539
X363.614 Y-58.893 Z-6.538
X363.615 Y-58.894 Z-6.539
X363.63 Y-58.909 Z-6.556
X363.638 Y-58.912 Z-6.559
X363.639
X363.667 Y-58.911 Z-6.556
X363.683 Y-58.907 Z-6.55
X363.704 Z-6.537
X363.711 Y-58.906 Z-6.532
X363.717 Z-6.527
X364.835 Y-58.441 Z-5.344
X363.717 Y-58.906 Z-6.527
X363.726 Y-58.909 Z-6.518
X364.093 Y-59.063 Z-6.134
X364.921 Y-59.411 Z-5.252
G0 Z15
M9
M30
%
