%
(1001)
(originhole top centre)
(T1  D=5 CR=0 - ZMIN=-6.5 - flat end mill)
G90 G94
G17
G21

(2D Adaptive1)
M9
T1 M6
S5500 M3
G54
G0 X-0.796 Y0.518
Z15
Z5
Z2.5
G3 X0.796 Y-0.518 Z2.396 I0.796 J-0.518 F333.3
X-0.796 Y0.518 Z2.292 I-0.796 J0.518
X0.796 Y-0.518 Z2.187 I0.796 J-0.518
X-0.796 Y0.518 Z2.083 I-0.796 J0.518
X0.796 Y-0.518 Z1.979 I0.796 J-0.518
X-0.796 Y0.518 Z1.875 I-0.796 J0.518
X0.796 Y-0.518 Z1.77 I0.796 J-0.518
X-0.796 Y0.518 Z1.666 I-0.796 J0.518
X0.796 Y-0.518 Z1.562 I0.796 J-0.518
X-0.796 Y0.518 Z1.458 I-0.796 J0.518
X0.796 Y-0.518 Z1.354 I0.796 J-0.518
X-0.796 Y0.518 Z1.249 I-0.796 J0.518
X0.796 Y-0.518 Z1.145 I0.796 J-0.518
X-0.796 Y0.518 Z1.041 I-0.796 J0.518
X0.796 Y-0.518 Z0.937 I0.796 J-0.518
X-0.796 Y0.518 Z0.832 I-0.796 J0.518
X0.796 Y-0.518 Z0.728 I0.796 J-0.518
X-0.796 Y0.518 Z0.624 I-0.796 J0.518
X0.796 Y-0.518 Z0.52 I0.796 J-0.518
X-0.796 Y0.518 Z0.416 I-0.796 J0.518
X0.796 Y-0.518 Z0.311 I0.796 J-0.518
X-0.796 Y0.518 Z0.207 I-0.796 J0.518
X0.796 Y-0.518 Z0.103 I0.796 J-0.518
X-0.796 Y0.518 Z-0.001 I-0.796 J0.518
X0.796 Y-0.518 Z-0.106 I0.796 J-0.518
X-0.796 Y0.518 Z-0.21 I-0.796 J0.518
X0.796 Y-0.518 Z-0.314 I0.796 J-0.518
X-0.796 Y0.518 Z-0.418 I-0.796 J0.518
X0.796 Y-0.518 Z-0.522 I0.796 J-0.518
X-0.796 Y0.518 Z-0.627 I-0.796 J0.518
X0.796 Y-0.518 Z-0.731 I0.796 J-0.518
X0.95 Y0 Z-0.75 I-0.796 J0.518
X-0.95 I-0.95
X0.95 I0.95
G1 Y0.052 F850
X0.947 Y0.104
X0.939 Y0.155
X0.914 Y0.289
X0.867 Y0.399
X0.825 Y0.482
X0.764 Y0.578
X0.674 Y0.675
X0.578 Y0.764
X0.482 Y0.825
X0.399 Y0.867
X0.289 Y0.914
X0.096 Y0.95
X0 Y0.959
X-0.096 Y0.95
X-0.289 Y0.914
X-0.399 Y0.867
X-0.482 Y0.825
X-0.578 Y0.764
X-0.675 Y0.674
X-0.764 Y0.578
X-0.825 Y0.482
X-0.867 Y0.399
X-0.914 Y0.289
X-0.95 Y0.096
X-0.959 Y0
X-0.95 Y-0.096
X-0.914 Y-0.289
X-0.867 Y-0.399
X-0.825 Y-0.482
X-0.764 Y-0.578
X-0.674 Y-0.675
X-0.578 Y-0.764
X-0.482 Y-0.825
X-0.399 Y-0.867
X-0.289 Y-0.914
X-0.096 Y-0.95
X0 Y-0.959
X0.096 Y-0.95
X0.289 Y-0.914
X0.399 Y-0.867
X0.482 Y-0.825
X0.578 Y-0.764
X0.675 Y-0.674
X0.764 Y-0.578
X0.825 Y-0.482
X0.867 Y-0.399
X0.914 Y-0.289
X0.95 Y-0.096
X0.959 Y0
X0.95 Y0.096
X0.939 Y0.155
G3 X0.803 Y0.402 I-0.488 J-0.109
G1 X0.747 Y0.439 Z-0.745
X0.691 Y0.475 Z-0.731
X0.638 Y0.51 Z-0.709
X0.568 Y0.524 Z-0.67
X0.506 Y0.536 Z-0.621
X0.451 Y0.546 Z-0.563
X0.405 Y0.541 Z-0.493
X0.371 Y0.538 Z-0.416
X0.35 Y0.535 Z-0.334
X0.343 Y0.534 Z-0.25
G0 Z5
X-0.796 Y0.518
Z1.75
G3 X0.796 Y-0.518 Z1.646 I0.796 J-0.518 F333.3
X-0.796 Y0.518 Z1.542 I-0.796 J0.518
X0.796 Y-0.518 Z1.437 I0.796 J-0.518
X-0.796 Y0.518 Z1.333 I-0.796 J0.518
X0.796 Y-0.518 Z1.229 I0.796 J-0.518
X-0.796 Y0.518 Z1.125 I-0.796 J0.518
X0.796 Y-0.518 Z1.02 I0.796 J-0.518
X-0.796 Y0.518 Z0.916 I-0.796 J0.518
X0.796 Y-0.518 Z0.812 I0.796 J-0.518
X-0.796 Y0.518 Z0.708 I-0.796 J0.518
X0.796 Y-0.518 Z0.604 I0.796 J-0.518
X-0.796 Y0.518 Z0.499 I-0.796 J0.518
X0.796 Y-0.518 Z0.395 I0.796 J-0.518
X-0.796 Y0.518 Z0.291 I-0.796 J0.518
X0.796 Y-0.518 Z0.187 I0.796 J-0.518
X-0.796 Y0.518 Z0.082 I-0.796 J0.518
X0.796 Y-0.518 Z-0.022 I0.796 J-0.518
X-0.796 Y0.518 Z-0.126 I-0.796 J0.518
X0.796 Y-0.518 Z-0.23 I0.796 J-0.518
X-0.796 Y0.518 Z-0.334 I-0.796 J0.518
X0.796 Y-0.518 Z-0.439 I0.796 J-0.518
X-0.796 Y0.518 Z-0.543 I-0.796 J0.518
X0.796 Y-0.518 Z-0.647 I0.796 J-0.518
X-0.796 Y0.518 Z-0.751 I-0.796 J0.518
X0.796 Y-0.518 Z-0.856 I0.796 J-0.518
X-0.796 Y0.518 Z-0.96 I-0.796 J0.518
X0.796 Y-0.518 Z-1.064 I0.796 J-0.518
X-0.796 Y0.518 Z-1.168 I-0.796 J0.518
X0.796 Y-0.518 Z-1.272 I0.796 J-0.518
X-0.796 Y0.518 Z-1.377 I-0.796 J0.518
X0.796 Y-0.518 Z-1.481 I0.796 J-0.518
X0.95 Y0 Z-1.5 I-0.796 J0.518
X-0.95 I-0.95
X0.95 I0.95
G1 Y0.052 F850
X0.947 Y0.104
X0.939 Y0.155
X0.914 Y0.289
X0.867 Y0.399
X0.825 Y0.482
X0.764 Y0.578
X0.674 Y0.675
X0.578 Y0.764
X0.482 Y0.825
X0.399 Y0.867
X0.289 Y0.914
X0.096 Y0.95
X0 Y0.959
X-0.096 Y0.95
X-0.289 Y0.914
X-0.399 Y0.867
X-0.482 Y0.825
X-0.578 Y0.764
X-0.675 Y0.674
X-0.764 Y0.578
X-0.825 Y0.482
X-0.867 Y0.399
X-0.914 Y0.289
X-0.95 Y0.096
X-0.959 Y0
X-0.95 Y-0.096
X-0.914 Y-0.289
X-0.867 Y-0.399
X-0.825 Y-0.482
X-0.764 Y-0.578
X-0.674 Y-0.675
X-0.578 Y-0.764
X-0.482 Y-0.825
X-0.399 Y-0.867
X-0.289 Y-0.914
X-0.096 Y-0.95
X0 Y-0.959
X0.096 Y-0.95
X0.289 Y-0.914
X0.399 Y-0.867
X0.482 Y-0.825
X0.578 Y-0.764
X0.675 Y-0.674
X0.764 Y-0.578
X0.825 Y-0.482
X0.867 Y-0.399
X0.914 Y-0.289
X0.95 Y-0.096
X0.959 Y0
X0.95 Y0.096
X0.939 Y0.155
G3 X0.803 Y0.402 I-0.488 J-0.109
G1 X0.747 Y0.439 Z-1.495
X0.691 Y0.475 Z-1.481
X0.638 Y0.51 Z-1.459
X0.568 Y0.524 Z-1.42
X0.506 Y0.536 Z-1.371
X0.451 Y0.546 Z-1.313
X0.405 Y0.541 Z-1.243
X0.371 Y0.538 Z-1.166
X0.35 Y0.535 Z-1.084
X0.343 Y0.534 Z-1
G0 Z5
X-0.796 Y0.518
Z1
G3 X0.796 Y-0.518 Z0.896 I0.796 J-0.518 F333.3
X-0.796 Y0.518 Z0.792 I-0.796 J0.518
X0.796 Y-0.518 Z0.687 I0.796 J-0.518
X-0.796 Y0.518 Z0.583 I-0.796 J0.518
X0.796 Y-0.518 Z0.479 I0.796 J-0.518
X-0.796 Y0.518 Z0.375 I-0.796 J0.518
X0.796 Y-0.518 Z0.27 I0.796 J-0.518
X-0.796 Y0.518 Z0.166 I-0.796 J0.518
X0.796 Y-0.518 Z0.062 I0.796 J-0.518
X-0.796 Y0.518 Z-0.042 I-0.796 J0.518
X0.796 Y-0.518 Z-0.146 I0.796 J-0.518
X-0.796 Y0.518 Z-0.251 I-0.796 J0.518
X0.796 Y-0.518 Z-0.355 I0.796 J-0.518
X-0.796 Y0.518 Z-0.459 I-0.796 J0.518
X0.796 Y-0.518 Z-0.563 I0.796 J-0.518
X-0.796 Y0.518 Z-0.668 I-0.796 J0.518
X0.796 Y-0.518 Z-0.772 I0.796 J-0.518
X-0.796 Y0.518 Z-0.876 I-0.796 J0.518
X0.796 Y-0.518 Z-0.98 I0.796 J-0.518
X-0.796 Y0.518 Z-1.084 I-0.796 J0.518
X0.796 Y-0.518 Z-1.189 I0.796 J-0.518
X-0.796 Y0.518 Z-1.293 I-0.796 J0.518
X0.796 Y-0.518 Z-1.397 I0.796 J-0.518
X-0.796 Y0.518 Z-1.501 I-0.796 J0.518
X0.796 Y-0.518 Z-1.606 I0.796 J-0.518
X-0.796 Y0.518 Z-1.71 I-0.796 J0.518
X0.796 Y-0.518 Z-1.814 I0.796 J-0.518
X-0.796 Y0.518 Z-1.918 I-0.796 J0.518
X0.796 Y-0.518 Z-2.022 I0.796 J-0.518
X-0.796 Y0.518 Z-2.127 I-0.796 J0.518
X0.796 Y-0.518 Z-2.231 I0.796 J-0.518
X0.95 Y0 Z-2.25 I-0.796 J0.518
X-0.95 I-0.95
X0.95 I0.95
G1 Y0.052 F850
X0.947 Y0.104
X0.939 Y0.155
X0.914 Y0.289
X0.867 Y0.399
X0.825 Y0.482
X0.764 Y0.578
X0.674 Y0.675
X0.578 Y0.764
X0.482 Y0.825
X0.399 Y0.867
X0.289 Y0.914
X0.096 Y0.95
X0 Y0.959
X-0.096 Y0.95
X-0.289 Y0.914
X-0.399 Y0.867
X-0.482 Y0.825
X-0.578 Y0.764
X-0.675 Y0.674
X-0.764 Y0.578
X-0.825 Y0.482
X-0.867 Y0.399
X-0.914 Y0.289
X-0.95 Y0.096
X-0.959 Y0
X-0.95 Y-0.096
X-0.914 Y-0.289
X-0.867 Y-0.399
X-0.825 Y-0.482
X-0.764 Y-0.578
X-0.674 Y-0.675
X-0.578 Y-0.764
X-0.482 Y-0.825
X-0.399 Y-0.867
X-0.289 Y-0.914
X-0.096 Y-0.95
X0 Y-0.959
X0.096 Y-0.95
X0.289 Y-0.914
X0.399 Y-0.867
X0.482 Y-0.825
X0.578 Y-0.764
X0.675 Y-0.674
X0.764 Y-0.578
X0.825 Y-0.482
X0.867 Y-0.399
X0.914 Y-0.289
X0.95 Y-0.096
X0.959 Y0
X0.95 Y0.096
X0.939 Y0.155
G3 X0.803 Y0.402 I-0.488 J-0.109
G1 X0.747 Y0.439 Z-2.245
X0.691 Y0.475 Z-2.231
X0.638 Y0.51 Z-2.209
X0.568 Y0.524 Z-2.17
X0.506 Y0.536 Z-2.121
X0.451 Y0.546 Z-2.063
X0.405 Y0.541 Z-1.993
X0.371 Y0.538 Z-1.916
X0.35 Y0.535 Z-1.834
X0.343 Y0.534 Z-1.75
G0 Z5
X-0.796 Y0.518
Z0.25
G3 X0.796 Y-0.518 Z0.146 I0.796 J-0.518 F333.3
X-0.796 Y0.518 Z0.042 I-0.796 J0.518
X0.796 Y-0.518 Z-0.063 I0.796 J-0.518
X-0.796 Y0.518 Z-0.167 I-0.796 J0.518
X0.796 Y-0.518 Z-0.271 I0.796 J-0.518
X-0.796 Y0.518 Z-0.375 I-0.796 J0.518
X0.796 Y-0.518 Z-0.48 I0.796 J-0.518
X-0.796 Y0.518 Z-0.584 I-0.796 J0.518
X0.796 Y-0.518 Z-0.688 I0.796 J-0.518
X-0.796 Y0.518 Z-0.792 I-0.796 J0.518
X0.796 Y-0.518 Z-0.896 I0.796 J-0.518
X-0.796 Y0.518 Z-1.001 I-0.796 J0.518
X0.796 Y-0.518 Z-1.105 I0.796 J-0.518
X-0.796 Y0.518 Z-1.209 I-0.796 J0.518
X0.796 Y-0.518 Z-1.313 I0.796 J-0.518
X-0.796 Y0.518 Z-1.418 I-0.796 J0.518
X0.796 Y-0.518 Z-1.522 I0.796 J-0.518
X-0.796 Y0.518 Z-1.626 I-0.796 J0.518
X0.796 Y-0.518 Z-1.73 I0.796 J-0.518
X-0.796 Y0.518 Z-1.834 I-0.796 J0.518
X0.796 Y-0.518 Z-1.939 I0.796 J-0.518
X-0.796 Y0.518 Z-2.043 I-0.796 J0.518
X0.796 Y-0.518 Z-2.147 I0.796 J-0.518
X-0.796 Y0.518 Z-2.251 I-0.796 J0.518
X0.796 Y-0.518 Z-2.356 I0.796 J-0.518
X-0.796 Y0.518 Z-2.46 I-0.796 J0.518
X0.796 Y-0.518 Z-2.564 I0.796 J-0.518
X-0.796 Y0.518 Z-2.668 I-0.796 J0.518
X0.796 Y-0.518 Z-2.772 I0.796 J-0.518
X-0.796 Y0.518 Z-2.877 I-0.796 J0.518
X0.796 Y-0.518 Z-2.981 I0.796 J-0.518
X0.95 Y0 Z-3 I-0.796 J0.518
X-0.95 I-0.95
X0.95 I0.95
G1 Y0.052 F850
X0.947 Y0.104
X0.939 Y0.155
X0.914 Y0.289
X0.867 Y0.399
X0.825 Y0.482
X0.764 Y0.578
X0.674 Y0.675
X0.578 Y0.764
X0.482 Y0.825
X0.399 Y0.867
X0.289 Y0.914
X0.096 Y0.95
X0 Y0.959
X-0.096 Y0.95
X-0.289 Y0.914
X-0.399 Y0.867
X-0.482 Y0.825
X-0.578 Y0.764
X-0.675 Y0.674
X-0.764 Y0.578
X-0.825 Y0.482
X-0.867 Y0.399
X-0.914 Y0.289
X-0.95 Y0.096
X-0.959 Y0
X-0.95 Y-0.096
X-0.914 Y-0.289
X-0.867 Y-0.399
X-0.825 Y-0.482
X-0.764 Y-0.578
X-0.674 Y-0.675
X-0.578 Y-0.764
X-0.482 Y-0.825
X-0.399 Y-0.867
X-0.289 Y-0.914
X-0.096 Y-0.95
X0 Y-0.959
X0.096 Y-0.95
X0.289 Y-0.914
X0.399 Y-0.867
X0.482 Y-0.825
X0.578 Y-0.764
X0.675 Y-0.674
X0.764 Y-0.578
X0.825 Y-0.482
X0.867 Y-0.399
X0.914 Y-0.289
X0.95 Y-0.096
X0.959 Y0
X0.95 Y0.096
X0.939 Y0.155
G3 X0.803 Y0.402 I-0.488 J-0.109
G1 X0.747 Y0.439 Z-2.995
X0.691 Y0.475 Z-2.981
X0.638 Y0.51 Z-2.959
X0.568 Y0.524 Z-2.92
X0.506 Y0.536 Z-2.871
X0.451 Y0.546 Z-2.813
X0.405 Y0.541 Z-2.743
X0.371 Y0.538 Z-2.666
X0.35 Y0.535 Z-2.584
X0.343 Y0.534 Z-2.5
G0 Z5
X-0.796 Y0.518
Z-0.5
G3 X0.796 Y-0.518 Z-0.604 I0.796 J-0.518 F333.3
X-0.796 Y0.518 Z-0.708 I-0.796 J0.518
X0.796 Y-0.518 Z-0.813 I0.796 J-0.518
X-0.796 Y0.518 Z-0.917 I-0.796 J0.518
X0.796 Y-0.518 Z-1.021 I0.796 J-0.518
X-0.796 Y0.518 Z-1.125 I-0.796 J0.518
X0.796 Y-0.518 Z-1.23 I0.796 J-0.518
X-0.796 Y0.518 Z-1.334 I-0.796 J0.518
X0.796 Y-0.518 Z-1.438 I0.796 J-0.518
X-0.796 Y0.518 Z-1.542 I-0.796 J0.518
X0.796 Y-0.518 Z-1.646 I0.796 J-0.518
X-0.796 Y0.518 Z-1.751 I-0.796 J0.518
X0.796 Y-0.518 Z-1.855 I0.796 J-0.518
X-0.796 Y0.518 Z-1.959 I-0.796 J0.518
X0.796 Y-0.518 Z-2.063 I0.796 J-0.518
X-0.796 Y0.518 Z-2.168 I-0.796 J0.518
X0.796 Y-0.518 Z-2.272 I0.796 J-0.518
X-0.796 Y0.518 Z-2.376 I-0.796 J0.518
X0.796 Y-0.518 Z-2.48 I0.796 J-0.518
X-0.796 Y0.518 Z-2.584 I-0.796 J0.518
X0.796 Y-0.518 Z-2.689 I0.796 J-0.518
X-0.796 Y0.518 Z-2.793 I-0.796 J0.518
X0.796 Y-0.518 Z-2.897 I0.796 J-0.518
X-0.796 Y0.518 Z-3.001 I-0.796 J0.518
X0.796 Y-0.518 Z-3.106 I0.796 J-0.518
X-0.796 Y0.518 Z-3.21 I-0.796 J0.518
X0.796 Y-0.518 Z-3.314 I0.796 J-0.518
X-0.796 Y0.518 Z-3.418 I-0.796 J0.518
X0.796 Y-0.518 Z-3.522 I0.796 J-0.518
X-0.796 Y0.518 Z-3.627 I-0.796 J0.518
X0.796 Y-0.518 Z-3.731 I0.796 J-0.518
X0.95 Y0 Z-3.75 I-0.796 J0.518
X-0.95 I-0.95
X0.95 I0.95
G1 Y0.052 F850
X0.947 Y0.104
X0.939 Y0.155
X0.914 Y0.289
X0.867 Y0.399
X0.825 Y0.482
X0.764 Y0.578
X0.674 Y0.675
X0.578 Y0.764
X0.482 Y0.825
X0.399 Y0.867
X0.289 Y0.914
X0.096 Y0.95
X0 Y0.959
X-0.096 Y0.95
X-0.289 Y0.914
X-0.399 Y0.867
X-0.482 Y0.825
X-0.578 Y0.764
X-0.675 Y0.674
X-0.764 Y0.578
X-0.825 Y0.482
X-0.867 Y0.399
X-0.914 Y0.289
X-0.95 Y0.096
X-0.959 Y0
X-0.95 Y-0.096
X-0.914 Y-0.289
X-0.867 Y-0.399
X-0.825 Y-0.482
X-0.764 Y-0.578
X-0.674 Y-0.675
X-0.578 Y-0.764
X-0.482 Y-0.825
X-0.399 Y-0.867
X-0.289 Y-0.914
X-0.096 Y-0.95
X0 Y-0.959
X0.096 Y-0.95
X0.289 Y-0.914
X0.399 Y-0.867
X0.482 Y-0.825
X0.578 Y-0.764
X0.675 Y-0.674
X0.764 Y-0.578
X0.825 Y-0.482
X0.867 Y-0.399
X0.914 Y-0.289
X0.95 Y-0.096
X0.959 Y0
X0.95 Y0.096
X0.939 Y0.155
G3 X0.803 Y0.402 I-0.488 J-0.109
G1 X0.747 Y0.439 Z-3.745
X0.691 Y0.475 Z-3.731
X0.638 Y0.51 Z-3.709
X0.568 Y0.524 Z-3.67
X0.506 Y0.536 Z-3.621
X0.451 Y0.546 Z-3.563
X0.405 Y0.541 Z-3.493
X0.371 Y0.538 Z-3.416
X0.35 Y0.535 Z-3.334
X0.343 Y0.534 Z-3.25
G0 Z5
X-0.796 Y0.518
Z-1.25
G3 X0.796 Y-0.518 Z-1.354 I0.796 J-0.518 F333.3
X-0.796 Y0.518 Z-1.458 I-0.796 J0.518
X0.796 Y-0.518 Z-1.563 I0.796 J-0.518
X-0.796 Y0.518 Z-1.667 I-0.796 J0.518
X0.796 Y-0.518 Z-1.771 I0.796 J-0.518
X-0.796 Y0.518 Z-1.875 I-0.796 J0.518
X0.796 Y-0.518 Z-1.98 I0.796 J-0.518
X-0.796 Y0.518 Z-2.084 I-0.796 J0.518
X0.796 Y-0.518 Z-2.188 I0.796 J-0.518
X-0.796 Y0.518 Z-2.292 I-0.796 J0.518
X0.796 Y-0.518 Z-2.396 I0.796 J-0.518
X-0.796 Y0.518 Z-2.501 I-0.796 J0.518
X0.796 Y-0.518 Z-2.605 I0.796 J-0.518
X-0.796 Y0.518 Z-2.709 I-0.796 J0.518
X0.796 Y-0.518 Z-2.813 I0.796 J-0.518
X-0.796 Y0.518 Z-2.918 I-0.796 J0.518
X0.796 Y-0.518 Z-3.022 I0.796 J-0.518
X-0.796 Y0.518 Z-3.126 I-0.796 J0.518
X0.796 Y-0.518 Z-3.23 I0.796 J-0.518
X-0.796 Y0.518 Z-3.334 I-0.796 J0.518
X0.796 Y-0.518 Z-3.439 I0.796 J-0.518
X-0.796 Y0.518 Z-3.543 I-0.796 J0.518
X0.796 Y-0.518 Z-3.647 I0.796 J-0.518
X-0.796 Y0.518 Z-3.751 I-0.796 J0.518
X0.796 Y-0.518 Z-3.856 I0.796 J-0.518
X-0.796 Y0.518 Z-3.96 I-0.796 J0.518
X0.796 Y-0.518 Z-4.064 I0.796 J-0.518
X-0.796 Y0.518 Z-4.168 I-0.796 J0.518
X0.796 Y-0.518 Z-4.272 I0.796 J-0.518
X-0.796 Y0.518 Z-4.377 I-0.796 J0.518
X0.796 Y-0.518 Z-4.481 I0.796 J-0.518
X0.95 Y0 Z-4.5 I-0.796 J0.518
X-0.95 I-0.95
X0.95 I0.95
G1 Y0.052 F850
X0.947 Y0.104
X0.939 Y0.155
X0.914 Y0.289
X0.867 Y0.399
X0.825 Y0.482
X0.764 Y0.578
X0.674 Y0.675
X0.578 Y0.764
X0.482 Y0.825
X0.399 Y0.867
X0.289 Y0.914
X0.096 Y0.95
X0 Y0.959
X-0.096 Y0.95
X-0.289 Y0.914
X-0.399 Y0.867
X-0.482 Y0.825
X-0.578 Y0.764
X-0.675 Y0.674
X-0.764 Y0.578
X-0.825 Y0.482
X-0.867 Y0.399
X-0.914 Y0.289
X-0.95 Y0.096
X-0.959 Y0
X-0.95 Y-0.096
X-0.914 Y-0.289
X-0.867 Y-0.399
X-0.825 Y-0.482
X-0.764 Y-0.578
X-0.674 Y-0.675
X-0.578 Y-0.764
X-0.482 Y-0.825
X-0.399 Y-0.867
X-0.289 Y-0.914
X-0.096 Y-0.95
X0 Y-0.959
X0.096 Y-0.95
X0.289 Y-0.914
X0.399 Y-0.867
X0.482 Y-0.825
X0.578 Y-0.764
X0.675 Y-0.674
X0.764 Y-0.578
X0.825 Y-0.482
X0.867 Y-0.399
X0.914 Y-0.289
X0.95 Y-0.096
X0.959 Y0
X0.95 Y0.096
X0.939 Y0.155
G3 X0.803 Y0.402 I-0.488 J-0.109
G1 X0.747 Y0.439 Z-4.495
X0.691 Y0.475 Z-4.481
X0.638 Y0.51 Z-4.459
X0.568 Y0.524 Z-4.42
X0.506 Y0.536 Z-4.371
X0.451 Y0.546 Z-4.313
X0.405 Y0.541 Z-4.243
X0.371 Y0.538 Z-4.166
X0.35 Y0.535 Z-4.084
X0.343 Y0.534 Z-4
G0 Z5
X-0.796 Y0.518
Z-2
G3 X0.796 Y-0.518 Z-2.104 I0.796 J-0.518 F333.3
X-0.796 Y0.518 Z-2.208 I-0.796 J0.518
X0.796 Y-0.518 Z-2.313 I0.796 J-0.518
X-0.796 Y0.518 Z-2.417 I-0.796 J0.518
X0.796 Y-0.518 Z-2.521 I0.796 J-0.518
X-0.796 Y0.518 Z-2.625 I-0.796 J0.518
X0.796 Y-0.518 Z-2.73 I0.796 J-0.518
X-0.796 Y0.518 Z-2.834 I-0.796 J0.518
X0.796 Y-0.518 Z-2.938 I0.796 J-0.518
X-0.796 Y0.518 Z-3.042 I-0.796 J0.518
X0.796 Y-0.518 Z-3.146 I0.796 J-0.518
X-0.796 Y0.518 Z-3.251 I-0.796 J0.518
X0.796 Y-0.518 Z-3.355 I0.796 J-0.518
X-0.796 Y0.518 Z-3.459 I-0.796 J0.518
X0.796 Y-0.518 Z-3.563 I0.796 J-0.518
X-0.796 Y0.518 Z-3.668 I-0.796 J0.518
X0.796 Y-0.518 Z-3.772 I0.796 J-0.518
X-0.796 Y0.518 Z-3.876 I-0.796 J0.518
X0.796 Y-0.518 Z-3.98 I0.796 J-0.518
X-0.796 Y0.518 Z-4.084 I-0.796 J0.518
X0.796 Y-0.518 Z-4.189 I0.796 J-0.518
X-0.796 Y0.518 Z-4.293 I-0.796 J0.518
X0.796 Y-0.518 Z-4.397 I0.796 J-0.518
X-0.796 Y0.518 Z-4.501 I-0.796 J0.518
X0.796 Y-0.518 Z-4.606 I0.796 J-0.518
X-0.796 Y0.518 Z-4.71 I-0.796 J0.518
X0.796 Y-0.518 Z-4.814 I0.796 J-0.518
X-0.796 Y0.518 Z-4.918 I-0.796 J0.518
X0.796 Y-0.518 Z-5.022 I0.796 J-0.518
X-0.796 Y0.518 Z-5.127 I-0.796 J0.518
X0.796 Y-0.518 Z-5.231 I0.796 J-0.518
X0.95 Y0 Z-5.25 I-0.796 J0.518
X-0.95 I-0.95
X0.95 I0.95
G1 Y0.052 F850
X0.947 Y0.104
X0.939 Y0.155
X0.914 Y0.289
X0.867 Y0.399
X0.825 Y0.482
X0.764 Y0.578
X0.674 Y0.675
X0.578 Y0.764
X0.482 Y0.825
X0.399 Y0.867
X0.289 Y0.914
X0.096 Y0.95
X0 Y0.959
X-0.096 Y0.95
X-0.289 Y0.914
X-0.399 Y0.867
X-0.482 Y0.825
X-0.578 Y0.764
X-0.675 Y0.674
X-0.764 Y0.578
X-0.825 Y0.482
X-0.867 Y0.399
X-0.914 Y0.289
X-0.95 Y0.096
X-0.959 Y0
X-0.95 Y-0.096
X-0.914 Y-0.289
X-0.867 Y-0.399
X-0.825 Y-0.482
X-0.764 Y-0.578
X-0.674 Y-0.675
X-0.578 Y-0.764
X-0.482 Y-0.825
X-0.399 Y-0.867
X-0.289 Y-0.914
X-0.096 Y-0.95
X0 Y-0.959
X0.096 Y-0.95
X0.289 Y-0.914
X0.399 Y-0.867
X0.482 Y-0.825
X0.578 Y-0.764
X0.675 Y-0.674
X0.764 Y-0.578
X0.825 Y-0.482
X0.867 Y-0.399
X0.914 Y-0.289
X0.95 Y-0.096
X0.959 Y0
X0.95 Y0.096
X0.939 Y0.155
G3 X0.803 Y0.402 I-0.488 J-0.109
G1 X0.747 Y0.439 Z-5.245
X0.691 Y0.475 Z-5.231
X0.638 Y0.51 Z-5.209
X0.568 Y0.524 Z-5.17
X0.506 Y0.536 Z-5.121
X0.451 Y0.546 Z-5.063
X0.405 Y0.541 Z-4.993
X0.371 Y0.538 Z-4.916
X0.35 Y0.535 Z-4.834
X0.343 Y0.534 Z-4.75
G0 Z5
X-0.796 Y0.518
Z-2.75
G3 X0.796 Y-0.518 Z-2.854 I0.796 J-0.518 F333.3
X-0.796 Y0.518 Z-2.958 I-0.796 J0.518
X0.796 Y-0.518 Z-3.063 I0.796 J-0.518
X-0.796 Y0.518 Z-3.167 I-0.796 J0.518
X0.796 Y-0.518 Z-3.271 I0.796 J-0.518
X-0.796 Y0.518 Z-3.375 I-0.796 J0.518
X0.796 Y-0.518 Z-3.48 I0.796 J-0.518
X-0.796 Y0.518 Z-3.584 I-0.796 J0.518
X0.796 Y-0.518 Z-3.688 I0.796 J-0.518
X-0.796 Y0.518 Z-3.792 I-0.796 J0.518
X0.796 Y-0.518 Z-3.896 I0.796 J-0.518
X-0.796 Y0.518 Z-4.001 I-0.796 J0.518
X0.796 Y-0.518 Z-4.105 I0.796 J-0.518
X-0.796 Y0.518 Z-4.209 I-0.796 J0.518
X0.796 Y-0.518 Z-4.313 I0.796 J-0.518
X-0.796 Y0.518 Z-4.418 I-0.796 J0.518
X0.796 Y-0.518 Z-4.522 I0.796 J-0.518
X-0.796 Y0.518 Z-4.626 I-0.796 J0.518
X0.796 Y-0.518 Z-4.73 I0.796 J-0.518
X-0.796 Y0.518 Z-4.834 I-0.796 J0.518
X0.796 Y-0.518 Z-4.939 I0.796 J-0.518
X-0.796 Y0.518 Z-5.043 I-0.796 J0.518
X0.796 Y-0.518 Z-5.147 I0.796 J-0.518
X-0.796 Y0.518 Z-5.251 I-0.796 J0.518
X0.796 Y-0.518 Z-5.356 I0.796 J-0.518
X-0.796 Y0.518 Z-5.46 I-0.796 J0.518
X0.796 Y-0.518 Z-5.564 I0.796 J-0.518
X-0.796 Y0.518 Z-5.668 I-0.796 J0.518
X0.796 Y-0.518 Z-5.772 I0.796 J-0.518
X-0.796 Y0.518 Z-5.877 I-0.796 J0.518
X0.796 Y-0.518 Z-5.981 I0.796 J-0.518
X0.95 Y0 Z-6 I-0.796 J0.518
X-0.95 I-0.95
X0.95 I0.95
G1 Y0.052 F850
X0.947 Y0.104
X0.939 Y0.155
X0.914 Y0.289
X0.867 Y0.399
X0.825 Y0.482
X0.764 Y0.578
X0.674 Y0.675
X0.578 Y0.764
X0.482 Y0.825
X0.399 Y0.867
X0.289 Y0.914
X0.096 Y0.95
X0 Y0.959
X-0.096 Y0.95
X-0.289 Y0.914
X-0.399 Y0.867
X-0.482 Y0.825
X-0.578 Y0.764
X-0.675 Y0.674
X-0.764 Y0.578
X-0.825 Y0.482
X-0.867 Y0.399
X-0.914 Y0.289
X-0.95 Y0.096
X-0.959 Y0
X-0.95 Y-0.096
X-0.914 Y-0.289
X-0.867 Y-0.399
X-0.825 Y-0.482
X-0.764 Y-0.578
X-0.674 Y-0.675
X-0.578 Y-0.764
X-0.482 Y-0.825
X-0.399 Y-0.867
X-0.289 Y-0.914
X-0.096 Y-0.95
X0 Y-0.959
X0.096 Y-0.95
X0.289 Y-0.914
X0.399 Y-0.867
X0.482 Y-0.825
X0.578 Y-0.764
X0.675 Y-0.674
X0.764 Y-0.578
X0.825 Y-0.482
X0.867 Y-0.399
X0.914 Y-0.289
X0.95 Y-0.096
X0.959 Y0
X0.95 Y0.096
X0.939 Y0.155
G3 X0.343 Y0.534 I-0.488 J-0.109
G1 X0.258 Y0.516 Z-5.992
X0.176 Y0.497 Z-5.97
X0.099 Y0.48 Z-5.933
X0.029 Y0.464 Z-5.883
X-0.031 Y0.451 Z-5.821
X-0.08 Y0.44 Z-5.75
X-0.116 Y0.432 Z-5.671
X-0.138 Y0.427 Z-5.587
X-0.145 Y0.426 Z-5.5
G0 Z15

(2D Contour1)
S8000 M3
X-0.25 Y-0.5
Z15
Z5
G1 Z1 F333.3
Z-6
G18 G2 X0.25 Z-6.5 I0.5
G1 X0.75 F850
G17 G3 X1.25 Y0 J0.5
X-1.25 I-1.25
X1.25 I1.25
X0.75 Y0.5 I-0.5
G1 X0.25
G18 G3 X-0.25 Z-6 K0.5
G0 Z15
G17
M30
%
