%
(1001)
(origin stock top)
(T1  D=3 CR=0 - ZMIN=-17 - flat end mill)
G90 G94
G17
G21

(2D Contour3)
M9
T1 M6
S12000 M3
G54
M9
G0 X-297.815 Y-3.5
Z15
Z5
G1 Z3 F283.3
Z2.5
X-255 Z-2
X-5 F850
G2 X-3.5 Y-5 J-1.5
G1 Y-295
G2 X-5 Y-296.5 I-1.5
G1 X-17
G2 X-18.5 Y-295.007 J1.5
G1 X-18.511 Y-292.573
X-18.542 Y-290.168
X-18.595 Y-287.784
X-18.669 Y-285.421
X-18.763 Y-283.08
X-18.879 Y-280.76
X-19.016 Y-278.46
X-19.174 Y-276.183
X-19.353 Y-273.927
X-19.553 Y-271.691
X-19.773 Y-269.478
X-20.015 Y-267.285
X-20.277 Y-265.113
X-20.56 Y-262.962
X-20.864 Y-260.833
X-21.189 Y-258.724
X-21.534 Y-256.636
X-21.9 Y-254.57
X-22.287 Y-252.523
X-22.693 Y-250.498
X-23.121 Y-248.494
X-23.569 Y-246.51
X-24.037 Y-244.547
X-24.526 Y-242.604
X-25.034 Y-240.682
X-25.563 Y-238.78
X-26.112 Y-236.898
X-26.681 Y-235.037
X-27.271 Y-233.197
X-27.88 Y-231.375
X-28.508 Y-229.574
X-29.157 Y-227.793
X-29.825 Y-226.032
X-30.513 Y-224.291
X-31.221 Y-222.568
X-31.948 Y-220.866
X-32.694 Y-219.183
X-33.46 Y-217.52
X-34.245 Y-215.876
X-35.049 Y-214.251
X-35.872 Y-212.645
X-36.714 Y-211.058
X-37.575 Y-209.489
X-38.455 Y-207.939
X-39.354 Y-206.409
X-40.271 Y-204.896
X-41.207 Y-203.403
X-42.162 Y-201.927
X-43.134 Y-200.47
X-44.126 Y-199.031
X-45.135 Y-197.609
X-46.163 Y-196.206
X-47.208 Y-194.82
X-48.272 Y-193.452
X-49.353 Y-192.101
X-50.453 Y-190.769
X-51.57 Y-189.453
X-52.704 Y-188.154
X-53.856 Y-186.873
X-55.026 Y-185.608
X-56.212 Y-184.36
X-57.416 Y-183.129
X-58.637 Y-181.915
X-59.875 Y-180.716
X-61.13 Y-179.535
X-62.402 Y-178.37
X-63.69 Y-177.221
X-64.995 Y-176.087
X-66.317 Y-174.971
X-67.655 Y-173.869
X-69.008 Y-172.783
X-70.378 Y-171.714
X-71.765 Y-170.659
X-73.167 Y-169.62
X-74.585 Y-168.596
X-76.018 Y-167.587
X-77.467 Y-166.594
X-78.931 Y-165.615
X-80.411 Y-164.652
X-81.906 Y-163.702
X-83.416 Y-162.768
X-84.941 Y-161.848
X-86.48 Y-160.942
X-88.035 Y-160.05
X-89.603 Y-159.173
X-91.186 Y-158.31
X-92.784 Y-157.461
X-94.395 Y-156.625
X-96.02 Y-155.804
X-97.66 Y-154.997
X-99.313 Y-154.202
X-100.98 Y-153.421
X-102.66 Y-152.653
X-104.353 Y-151.899
X-106.059 Y-151.159
X-107.778 Y-150.43
X-109.51 Y-149.715
X-111.255 Y-149.013
X-113.012 Y-148.323
X-114.782 Y-147.645
X-116.563 Y-146.982
X-118.358 Y-146.329
X-120.163 Y-145.689
X-121.981 Y-145.062
X-123.81 Y-144.446
X-125.651 Y-143.842
X-127.502 Y-143.251
X-129.365 Y-142.671
X-131.24 Y-142.103
X-133.125 Y-141.547
X-135.019 Y-141.002
X-136.925 Y-140.469
X-138.841 Y-139.947
X-140.768 Y-139.436
X-142.704 Y-138.937
X-144.651 Y-138.448
X-146.606 Y-137.97
X-148.572 Y-137.504
X-150.546 Y-137.049
X-152.53 Y-136.604
X-154.523 Y-136.169
X-156.525 Y-135.745
X-158.535 Y-135.331
X-160.553 Y-134.929
X-162.58 Y-134.536
X-164.615 Y-134.154
X-166.659 Y-133.781
X-168.709 Y-133.419
X-170.768 Y-133.067
X-172.833 Y-132.724
X-174.907 Y-132.393
X-176.986 Y-132.07
X-179.074 Y-131.757
X-181.167 Y-131.454
X-183.267 Y-131.16
X-185.374 Y-130.876
X-187.487 Y-130.601
X-189.603 Y-130.336
X-193.86 Y-129.833
X-198.136 Y-129.367
X-202.432 Y-128.938
X-206.747 Y-128.544
X-211.079 Y-128.186
X-215.426 Y-127.863
X-219.788 Y-127.576
X-224.162 Y-127.323
X-228.547 Y-127.103
X-232.941 Y-126.919
X-237.344 Y-126.767
X-241.752 Y-126.651
X-246.166 Y-126.567
X-250.582 Y-126.517
X-255 Y-126.5
X-259.418 Y-126.517
X-263.834 Y-126.567
X-268.248 Y-126.651
X-272.656 Y-126.767
X-277.059 Y-126.919
X-281.453 Y-127.103
X-285.838 Y-127.323
X-290.212 Y-127.576
X-294.574 Y-127.863
X-298.921 Y-128.186
X-303.253 Y-128.544
X-307.568 Y-128.938
X-311.864 Y-129.367
X-316.14 Y-129.833
X-320.397 Y-130.336
X-322.513 Y-130.601
X-324.626 Y-130.876
X-326.733 Y-131.16
X-328.833 Y-131.454
X-330.926 Y-131.757
X-333.014 Y-132.07
X-335.093 Y-132.393
X-337.167 Y-132.724
X-339.232 Y-133.067
X-341.291 Y-133.419
X-343.341 Y-133.781
X-345.385 Y-134.154
X-347.42 Y-134.536
X-349.447 Y-134.929
X-351.465 Y-135.331
X-353.475 Y-135.745
X-355.477 Y-136.169
X-357.47 Y-136.604
X-359.454 Y-137.049
X-361.428 Y-137.504
X-363.394 Y-137.97
X-365.349 Y-138.448
X-367.296 Y-138.937
X-369.232 Y-139.436
X-371.159 Y-139.947
X-373.075 Y-140.469
X-374.981 Y-141.002
X-376.875 Y-141.547
X-378.76 Y-142.103
X-380.635 Y-142.671
X-382.498 Y-143.251
X-384.349 Y-143.842
X-386.19 Y-144.446
X-388.019 Y-145.062
X-389.837 Y-145.689
X-391.642 Y-146.329
X-393.437 Y-146.982
X-395.218 Y-147.645
X-396.988 Y-148.323
X-398.745 Y-149.013
X-400.49 Y-149.715
X-402.222 Y-150.43
X-403.941 Y-151.159
X-405.647 Y-151.899
X-407.34 Y-152.653
X-409.02 Y-153.421
X-410.687 Y-154.202
X-412.34 Y-154.997
X-413.979 Y-155.804
X-415.604 Y-156.625
X-417.216 Y-157.461
X-418.814 Y-158.31
X-420.397 Y-159.173
X-421.966 Y-160.05
X-423.519 Y-160.942
X-425.059 Y-161.848
X-426.584 Y-162.768
X-428.094 Y-163.702
X-429.589 Y-164.652
X-431.069 Y-165.615
X-432.533 Y-166.594
X-433.982 Y-167.587
X-435.415 Y-168.596
X-436.833 Y-169.62
X-438.235 Y-170.659
X-439.621 Y-171.714
X-440.991 Y-172.783
X-442.345 Y-173.869
X-443.683 Y-174.971
X-445.005 Y-176.087
X-446.31 Y-177.221
X-447.598 Y-178.37
X-448.87 Y-179.535
X-450.124 Y-180.716
X-451.362 Y-181.915
X-452.584 Y-183.129
X-453.787 Y-184.36
X-454.975 Y-185.608
X-456.143 Y-186.873
X-457.295 Y-188.154
X-458.43 Y-189.453
X-459.548 Y-190.769
X-460.647 Y-192.101
X-461.728 Y-193.452
X-462.792 Y-194.82
X-463.837 Y-196.206
X-464.865 Y-197.61
X-465.875 Y-199.031
X-466.865 Y-200.47
X-467.838 Y-201.927
X-468.793 Y-203.403
X-469.729 Y-204.896
X-470.646 Y-206.409
X-471.545 Y-207.939
X-472.424 Y-209.489
X-473.286 Y-211.058
X-474.128 Y-212.645
X-474.951 Y-214.251
X-475.755 Y-215.876
X-476.541 Y-217.52
X-477.306 Y-219.183
X-478.053 Y-220.866
X-478.779 Y-222.568
X-479.487 Y-224.291
X-480.175 Y-226.032
X-480.843 Y-227.793
X-481.492 Y-229.574
X-482.12 Y-231.375
X-482.729 Y-233.196
X-483.318 Y-235.037
X-483.888 Y-236.898
X-484.436 Y-238.78
X-484.965 Y-240.682
X-485.475 Y-242.604
X-485.963 Y-244.547
X-486.431 Y-246.51
X-486.879 Y-248.494
X-487.306 Y-250.498
X-487.714 Y-252.523
X-488.1 Y-254.57
X-488.465 Y-256.636
X-488.811 Y-258.725
X-489.136 Y-260.833
X-489.44 Y-262.962
X-489.723 Y-265.113
X-489.985 Y-267.285
X-490.227 Y-269.478
X-490.448 Y-271.691
X-490.647 Y-273.927
X-490.826 Y-276.183
X-490.984 Y-278.46
X-491.12 Y-280.76
X-491.237 Y-283.08
X-491.331 Y-285.421
X-491.406 Y-287.784
X-491.458 Y-290.168
X-491.489 Y-292.573
X-491.5 Y-295.007
G2 X-493 Y-296.5 I-1.5 J0.007
G1 X-505
G2 X-506.5 Y-295 J1.5
G1 Y-5
G2 X-505 Y-3.5 I1.5
G1 X-255
X-5 Z-3.683 F283.3
G2 X-3.5 Y-5 Z-3.699 J-1.5
G1 Y-49.723 Z-4
Y-295 F850
G2 X-5 Y-296.5 I-1.5
G1 X-17
G2 X-18.5 Y-295.007 J1.5
G1 X-18.511 Y-292.573
X-18.542 Y-290.168
X-18.595 Y-287.784
X-18.669 Y-285.421
X-18.763 Y-283.08
X-18.879 Y-280.76
X-19.016 Y-278.46
X-19.174 Y-276.183
X-19.353 Y-273.927
X-19.553 Y-271.691
X-19.773 Y-269.478
X-20.015 Y-267.285
X-20.277 Y-265.113
X-20.56 Y-262.962
X-20.864 Y-260.833
X-21.189 Y-258.724
X-21.534 Y-256.636
X-21.9 Y-254.57
X-22.287 Y-252.523
X-22.693 Y-250.498
X-23.121 Y-248.494
X-23.569 Y-246.51
X-24.037 Y-244.547
X-24.526 Y-242.604
X-25.034 Y-240.682
X-25.563 Y-238.78
X-26.112 Y-236.898
X-26.681 Y-235.037
X-27.271 Y-233.197
X-27.88 Y-231.375
X-28.508 Y-229.574
X-29.157 Y-227.793
X-29.825 Y-226.032
X-30.513 Y-224.291
X-31.221 Y-222.568
X-31.948 Y-220.866
X-32.694 Y-219.183
X-33.46 Y-217.52
X-34.245 Y-215.876
X-35.049 Y-214.251
X-35.872 Y-212.645
X-36.714 Y-211.058
X-37.575 Y-209.489
X-38.455 Y-207.939
X-39.354 Y-206.409
X-40.271 Y-204.896
X-41.207 Y-203.403
X-42.162 Y-201.927
X-43.134 Y-200.47
X-44.126 Y-199.031
X-45.135 Y-197.609
X-46.163 Y-196.206
X-47.208 Y-194.82
X-48.272 Y-193.452
X-49.353 Y-192.101
X-50.453 Y-190.769
X-51.57 Y-189.453
X-52.704 Y-188.154
X-53.856 Y-186.873
X-55.026 Y-185.608
X-56.212 Y-184.36
X-57.416 Y-183.129
X-58.637 Y-181.915
X-59.875 Y-180.716
X-61.13 Y-179.535
X-62.402 Y-178.37
X-63.69 Y-177.221
X-64.995 Y-176.087
X-66.317 Y-174.971
X-67.655 Y-173.869
X-69.008 Y-172.783
X-70.378 Y-171.714
X-71.765 Y-170.659
X-73.167 Y-169.62
X-74.585 Y-168.596
X-76.018 Y-167.587
X-77.467 Y-166.594
X-78.931 Y-165.615
X-80.411 Y-164.652
X-81.906 Y-163.702
X-83.416 Y-162.768
X-84.941 Y-161.848
X-86.48 Y-160.942
X-88.035 Y-160.05
X-89.603 Y-159.173
X-91.186 Y-158.31
X-92.784 Y-157.461
X-94.395 Y-156.625
X-96.02 Y-155.804
X-97.66 Y-154.997
X-99.313 Y-154.202
X-100.98 Y-153.421
X-102.66 Y-152.653
X-104.353 Y-151.899
X-106.059 Y-151.159
X-107.778 Y-150.43
X-109.51 Y-149.715
X-111.255 Y-149.013
X-113.012 Y-148.323
X-114.782 Y-147.645
X-116.563 Y-146.982
X-118.358 Y-146.329
X-120.163 Y-145.689
X-121.981 Y-145.062
X-123.81 Y-144.446
X-125.651 Y-143.842
X-127.502 Y-143.251
X-129.365 Y-142.671
X-131.24 Y-142.103
X-133.125 Y-141.547
X-135.019 Y-141.002
X-136.925 Y-140.469
X-138.841 Y-139.947
X-140.768 Y-139.436
X-142.704 Y-138.937
X-144.651 Y-138.448
X-146.606 Y-137.97
X-148.572 Y-137.504
X-150.546 Y-137.049
X-152.53 Y-136.604
X-154.523 Y-136.169
X-156.525 Y-135.745
X-158.535 Y-135.331
X-160.553 Y-134.929
X-162.58 Y-134.536
X-164.615 Y-134.154
X-166.659 Y-133.781
X-168.709 Y-133.419
X-170.768 Y-133.067
X-172.833 Y-132.724
X-174.907 Y-132.393
X-176.986 Y-132.07
X-179.074 Y-131.757
X-181.167 Y-131.454
X-183.267 Y-131.16
X-185.374 Y-130.876
X-187.487 Y-130.601
X-189.603 Y-130.336
X-193.86 Y-129.833
X-198.136 Y-129.367
X-202.432 Y-128.938
X-206.747 Y-128.544
X-211.079 Y-128.186
X-215.426 Y-127.863
X-219.788 Y-127.576
X-224.162 Y-127.323
X-228.547 Y-127.103
X-232.941 Y-126.919
X-237.344 Y-126.767
X-241.752 Y-126.651
X-246.166 Y-126.567
X-250.582 Y-126.517
X-255 Y-126.5
X-259.418 Y-126.517
X-263.834 Y-126.567
X-268.248 Y-126.651
X-272.656 Y-126.767
X-277.059 Y-126.919
X-281.453 Y-127.103
X-285.838 Y-127.323
X-290.212 Y-127.576
X-294.574 Y-127.863
X-298.921 Y-128.186
X-303.253 Y-128.544
X-307.568 Y-128.938
X-311.864 Y-129.367
X-316.14 Y-129.833
X-320.397 Y-130.336
X-322.513 Y-130.601
X-324.626 Y-130.876
X-326.733 Y-131.16
X-328.833 Y-131.454
X-330.926 Y-131.757
X-333.014 Y-132.07
X-335.093 Y-132.393
X-337.167 Y-132.724
X-339.232 Y-133.067
X-341.291 Y-133.419
X-343.341 Y-133.781
X-345.385 Y-134.154
X-347.42 Y-134.536
X-349.447 Y-134.929
X-351.465 Y-135.331
X-353.475 Y-135.745
X-355.477 Y-136.169
X-357.47 Y-136.604
X-359.454 Y-137.049
X-361.428 Y-137.504
X-363.394 Y-137.97
X-365.349 Y-138.448
X-367.296 Y-138.937
X-369.232 Y-139.436
X-371.159 Y-139.947
X-373.075 Y-140.469
X-374.981 Y-141.002
X-376.875 Y-141.547
X-378.76 Y-142.103
X-380.635 Y-142.671
X-382.498 Y-143.251
X-384.349 Y-143.842
X-386.19 Y-144.446
X-388.019 Y-145.062
X-389.837 Y-145.689
X-391.642 Y-146.329
X-393.437 Y-146.982
X-395.218 Y-147.645
X-396.988 Y-148.323
X-398.745 Y-149.013
X-400.49 Y-149.715
X-402.222 Y-150.43
X-403.941 Y-151.159
X-405.647 Y-151.899
X-407.34 Y-152.653
X-409.02 Y-153.421
X-410.687 Y-154.202
X-412.34 Y-154.997
X-413.979 Y-155.804
X-415.604 Y-156.625
X-417.216 Y-157.461
X-418.814 Y-158.31
X-420.397 Y-159.173
X-421.966 Y-160.05
X-423.519 Y-160.942
X-425.059 Y-161.848
X-426.584 Y-162.768
X-428.094 Y-163.702
X-429.589 Y-164.652
X-431.069 Y-165.615
X-432.533 Y-166.594
X-433.982 Y-167.587
X-435.415 Y-168.596
X-436.833 Y-169.62
X-438.235 Y-170.659
X-439.621 Y-171.714
X-440.991 Y-172.783
X-442.345 Y-173.869
X-443.683 Y-174.971
X-445.005 Y-176.087
X-446.31 Y-177.221
X-447.598 Y-178.37
X-448.87 Y-179.535
X-450.124 Y-180.716
X-451.362 Y-181.915
X-452.584 Y-183.129
X-453.787 Y-184.36
X-454.975 Y-185.608
X-456.143 Y-186.873
X-457.295 Y-188.154
X-458.43 Y-189.453
X-459.548 Y-190.769
X-460.647 Y-192.101
X-461.728 Y-193.452
X-462.792 Y-194.82
X-463.837 Y-196.206
X-464.865 Y-197.61
X-465.875 Y-199.031
X-466.865 Y-200.47
X-467.838 Y-201.927
X-468.793 Y-203.403
X-469.729 Y-204.896
X-470.646 Y-206.409
X-471.545 Y-207.939
X-472.424 Y-209.489
X-473.286 Y-211.058
X-474.128 Y-212.645
X-474.951 Y-214.251
X-475.755 Y-215.876
X-476.541 Y-217.52
X-477.306 Y-219.183
X-478.053 Y-220.866
X-478.779 Y-222.568
X-479.487 Y-224.291
X-480.175 Y-226.032
X-480.843 Y-227.793
X-481.492 Y-229.574
X-482.12 Y-231.375
X-482.729 Y-233.196
X-483.318 Y-235.037
X-483.888 Y-236.898
X-484.436 Y-238.78
X-484.965 Y-240.682
X-485.475 Y-242.604
X-485.963 Y-244.547
X-486.431 Y-246.51
X-486.879 Y-248.494
X-487.306 Y-250.498
X-487.714 Y-252.523
X-488.1 Y-254.57
X-488.465 Y-256.636
X-488.811 Y-258.725
X-489.136 Y-260.833
X-489.44 Y-262.962
X-489.723 Y-265.113
X-489.985 Y-267.285
X-490.227 Y-269.478
X-490.448 Y-271.691
X-490.647 Y-273.927
X-490.826 Y-276.183
X-490.984 Y-278.46
X-491.12 Y-280.76
X-491.237 Y-283.08
X-491.331 Y-285.421
X-491.406 Y-287.784
X-491.458 Y-290.168
X-491.489 Y-292.573
X-491.5 Y-295.007
G2 X-493 Y-296.5 I-1.5 J0.007
G1 X-505
G2 X-506.5 Y-295 J1.5
G1 Y-5
G2 X-505 Y-3.5 I1.5
G1 X-5
G2 X-3.5 Y-5 J-1.5
G1 Y-49.723
Y-295 Z-5.651 F283.3
G2 X-5 Y-296.5 Z-5.667 I-1.5
G1 X-17 Z-5.748
G2 X-18.5 Y-295.007 Z-5.764 J1.5
G1 X-18.511 Y-292.573 Z-5.78
X-18.542 Y-290.168 Z-5.796
X-18.595 Y-287.784 Z-5.812
X-18.669 Y-285.421 Z-5.828
X-18.763 Y-283.08 Z-5.844
X-18.879 Y-280.76 Z-5.86
X-19.016 Y-278.46 Z-5.875
X-19.174 Y-276.183 Z-5.891
X-19.353 Y-273.927 Z-5.906
X-19.553 Y-271.691 Z-5.921
X-19.773 Y-269.478 Z-5.936
X-20.015 Y-267.285 Z-5.951
X-20.277 Y-265.113 Z-5.965
X-20.56 Y-262.962 Z-5.98
X-20.864 Y-260.833 Z-5.995
X-20.988 Y-260.032 Z-6
X-21.189 Y-258.724 F850
X-21.534 Y-256.636
X-21.9 Y-254.57
X-22.287 Y-252.523
X-22.693 Y-250.498
X-23.121 Y-248.494
X-23.569 Y-246.51
X-24.037 Y-244.547
X-24.526 Y-242.604
X-25.034 Y-240.682
X-25.563 Y-238.78
X-26.112 Y-236.898
X-26.681 Y-235.037
X-27.271 Y-233.197
X-27.88 Y-231.375
X-28.508 Y-229.574
X-29.157 Y-227.793
X-29.825 Y-226.032
X-30.513 Y-224.291
X-31.221 Y-222.568
X-31.948 Y-220.866
X-32.694 Y-219.183
X-33.46 Y-217.52
X-34.245 Y-215.876
X-35.049 Y-214.251
X-35.872 Y-212.645
X-36.714 Y-211.058
X-37.575 Y-209.489
X-38.455 Y-207.939
X-39.354 Y-206.409
X-40.271 Y-204.896
X-41.207 Y-203.403
X-42.162 Y-201.927
X-43.134 Y-200.47
X-44.126 Y-199.031
X-45.135 Y-197.609
X-46.163 Y-196.206
X-47.208 Y-194.82
X-48.272 Y-193.452
X-49.353 Y-192.101
X-50.453 Y-190.769
X-51.57 Y-189.453
X-52.704 Y-188.154
X-53.856 Y-186.873
X-55.026 Y-185.608
X-56.212 Y-184.36
X-57.416 Y-183.129
X-58.637 Y-181.915
X-59.875 Y-180.716
X-61.13 Y-179.535
X-62.402 Y-178.37
X-63.69 Y-177.221
X-64.995 Y-176.087
X-66.317 Y-174.971
X-67.655 Y-173.869
X-69.008 Y-172.783
X-70.378 Y-171.714
X-71.765 Y-170.659
X-73.167 Y-169.62
X-74.585 Y-168.596
X-76.018 Y-167.587
X-77.467 Y-166.594
X-78.931 Y-165.615
X-80.411 Y-164.652
X-81.906 Y-163.702
X-83.416 Y-162.768
X-84.941 Y-161.848
X-86.48 Y-160.942
X-88.035 Y-160.05
X-89.603 Y-159.173
X-91.186 Y-158.31
X-92.784 Y-157.461
X-94.395 Y-156.625
X-96.02 Y-155.804
X-97.66 Y-154.997
X-99.313 Y-154.202
X-100.98 Y-153.421
X-102.66 Y-152.653
X-104.353 Y-151.899
X-106.059 Y-151.159
X-107.778 Y-150.43
X-109.51 Y-149.715
X-111.255 Y-149.013
X-113.012 Y-148.323
X-114.782 Y-147.645
X-116.563 Y-146.982
X-118.358 Y-146.329
X-120.163 Y-145.689
X-121.981 Y-145.062
X-123.81 Y-144.446
X-125.651 Y-143.842
X-127.502 Y-143.251
X-129.365 Y-142.671
X-131.24 Y-142.103
X-133.125 Y-141.547
X-135.019 Y-141.002
X-136.925 Y-140.469
X-138.841 Y-139.947
X-140.768 Y-139.436
X-142.704 Y-138.937
X-144.651 Y-138.448
X-146.606 Y-137.97
X-148.572 Y-137.504
X-150.546 Y-137.049
X-152.53 Y-136.604
X-154.523 Y-136.169
X-156.525 Y-135.745
X-158.535 Y-135.331
X-160.553 Y-134.929
X-162.58 Y-134.536
X-164.615 Y-134.154
X-166.659 Y-133.781
X-168.709 Y-133.419
X-170.768 Y-133.067
X-172.833 Y-132.724
X-174.907 Y-132.393
X-176.986 Y-132.07
X-179.074 Y-131.757
X-181.167 Y-131.454
X-183.267 Y-131.16
X-185.374 Y-130.876
X-187.487 Y-130.601
X-189.603 Y-130.336
X-193.86 Y-129.833
X-198.136 Y-129.367
X-202.432 Y-128.938
X-206.747 Y-128.544
X-211.079 Y-128.186
X-215.426 Y-127.863
X-219.788 Y-127.576
X-224.162 Y-127.323
X-228.547 Y-127.103
X-232.941 Y-126.919
X-237.344 Y-126.767
X-241.752 Y-126.651
X-246.166 Y-126.567
X-250.582 Y-126.517
X-255 Y-126.5
X-259.418 Y-126.517
X-263.834 Y-126.567
X-268.248 Y-126.651
X-272.656 Y-126.767
X-277.059 Y-126.919
X-281.453 Y-127.103
X-285.838 Y-127.323
X-290.212 Y-127.576
X-294.574 Y-127.863
X-298.921 Y-128.186
X-303.253 Y-128.544
X-307.568 Y-128.938
X-311.864 Y-129.367
X-316.14 Y-129.833
X-320.397 Y-130.336
X-322.513 Y-130.601
X-324.626 Y-130.876
X-326.733 Y-131.16
X-328.833 Y-131.454
X-330.926 Y-131.757
X-333.014 Y-132.07
X-335.093 Y-132.393
X-337.167 Y-132.724
X-339.232 Y-133.067
X-341.291 Y-133.419
X-343.341 Y-133.781
X-345.385 Y-134.154
X-347.42 Y-134.536
X-349.447 Y-134.929
X-351.465 Y-135.331
X-353.475 Y-135.745
X-355.477 Y-136.169
X-357.47 Y-136.604
X-359.454 Y-137.049
X-361.428 Y-137.504
X-363.394 Y-137.97
X-365.349 Y-138.448
X-367.296 Y-138.937
X-369.232 Y-139.436
X-371.159 Y-139.947
X-373.075 Y-140.469
X-374.981 Y-141.002
X-376.875 Y-141.547
X-378.76 Y-142.103
X-380.635 Y-142.671
X-382.498 Y-143.251
X-384.349 Y-143.842
X-386.19 Y-144.446
X-388.019 Y-145.062
X-389.837 Y-145.689
X-391.642 Y-146.329
X-393.437 Y-146.982
X-395.218 Y-147.645
X-396.988 Y-148.323
X-398.745 Y-149.013
X-400.49 Y-149.715
X-402.222 Y-150.43
X-403.941 Y-151.159
X-405.647 Y-151.899
X-407.34 Y-152.653
X-409.02 Y-153.421
X-410.687 Y-154.202
X-412.34 Y-154.997
X-413.979 Y-155.804
X-415.604 Y-156.625
X-417.216 Y-157.461
X-418.814 Y-158.31
X-420.397 Y-159.173
X-421.966 Y-160.05
X-423.519 Y-160.942
X-425.059 Y-161.848
X-426.584 Y-162.768
X-428.094 Y-163.702
X-429.589 Y-164.652
X-431.069 Y-165.615
X-432.533 Y-166.594
X-433.982 Y-167.587
X-435.415 Y-168.596
X-436.833 Y-169.62
X-438.235 Y-170.659
X-439.621 Y-171.714
X-440.991 Y-172.783
X-442.345 Y-173.869
X-443.683 Y-174.971
X-445.005 Y-176.087
X-446.31 Y-177.221
X-447.598 Y-178.37
X-448.87 Y-179.535
X-450.124 Y-180.716
X-451.362 Y-181.915
X-452.584 Y-183.129
X-453.787 Y-184.36
X-454.975 Y-185.608
X-456.143 Y-186.873
X-457.295 Y-188.154
X-458.43 Y-189.453
X-459.548 Y-190.769
X-460.647 Y-192.101
X-461.728 Y-193.452
X-462.792 Y-194.82
X-463.837 Y-196.206
X-464.865 Y-197.61
X-465.875 Y-199.031
X-466.865 Y-200.47
X-467.838 Y-201.927
X-468.793 Y-203.403
X-469.729 Y-204.896
X-470.646 Y-206.409
X-471.545 Y-207.939
X-472.424 Y-209.489
X-473.286 Y-211.058
X-474.128 Y-212.645
X-474.951 Y-214.251
X-475.755 Y-215.876
X-476.541 Y-217.52
X-477.306 Y-219.183
X-478.053 Y-220.866
X-478.779 Y-222.568
X-479.487 Y-224.291
X-480.175 Y-226.032
X-480.843 Y-227.793
X-481.492 Y-229.574
X-482.12 Y-231.375
X-482.729 Y-233.196
X-483.318 Y-235.037
X-483.888 Y-236.898
X-484.436 Y-238.78
X-484.965 Y-240.682
X-485.475 Y-242.604
X-485.963 Y-244.547
X-486.431 Y-246.51
X-486.879 Y-248.494
X-487.306 Y-250.498
X-487.714 Y-252.523
X-488.1 Y-254.57
X-488.465 Y-256.636
X-488.811 Y-258.725
X-489.136 Y-260.833
X-489.44 Y-262.962
X-489.723 Y-265.113
X-489.985 Y-267.285
X-490.227 Y-269.478
X-490.448 Y-271.691
X-490.647 Y-273.927
X-490.826 Y-276.183
X-490.984 Y-278.46
X-491.12 Y-280.76
X-491.237 Y-283.08
X-491.331 Y-285.421
X-491.406 Y-287.784
X-491.458 Y-290.168
X-491.489 Y-292.573
X-491.5 Y-295.007
G2 X-493 Y-296.5 I-1.5 J0.007
G1 X-505
G2 X-506.5 Y-295 J1.5
G1 Y-5
G2 X-505 Y-3.5 I1.5
G1 X-5
G2 X-3.5 Y-5 J-1.5
G1 Y-295
G2 X-5 Y-296.5 I-1.5
G1 X-17
G2 X-18.5 Y-295.007 J1.5
G1 X-18.511 Y-292.573
X-18.542 Y-290.168
X-18.595 Y-287.784
X-18.669 Y-285.421
X-18.763 Y-283.08
X-18.879 Y-280.76
X-19.016 Y-278.46
X-19.174 Y-276.183
X-19.353 Y-273.927
X-19.553 Y-271.691
X-19.773 Y-269.478
X-20.015 Y-267.285
X-20.277 Y-265.113
X-20.56 Y-262.962
X-20.864 Y-260.833
X-20.988 Y-260.032
X-21.189 Y-258.724 Z-6.009 F283.3
X-21.534 Y-256.636 Z-6.023
X-21.9 Y-254.57 Z-6.037
X-22.287 Y-252.523 Z-6.051
X-22.693 Y-250.498 Z-6.065
X-23.121 Y-248.494 Z-6.079
X-23.569 Y-246.51 Z-6.093
X-24.037 Y-244.547 Z-6.106
X-24.526 Y-242.604 Z-6.12
X-25.034 Y-240.682 Z-6.133
X-25.563 Y-238.78 Z-6.146
X-26.112 Y-236.898 Z-6.16
X-26.681 Y-235.037 Z-6.173
X-27.271 Y-233.197 Z-6.186
X-27.88 Y-231.375 Z-6.199
X-28.508 Y-229.574 Z-6.212
X-29.157 Y-227.793 Z-6.224
X-29.825 Y-226.032 Z-6.237
X-30.513 Y-224.291 Z-6.25
X-31.221 Y-222.568 Z-6.262
X-31.948 Y-220.866 Z-6.275
X-32.694 Y-219.183 Z-6.287
X-33.46 Y-217.52 Z-6.299
X-34.245 Y-215.876 Z-6.312
X-35.049 Y-214.251 Z-6.324
X-35.872 Y-212.645 Z-6.336
X-36.714 Y-211.058 Z-6.348
X-37.575 Y-209.489 Z-6.36
X-38.455 Y-207.939 Z-6.372
X-39.354 Y-206.409 Z-6.384
X-40.271 Y-204.896 Z-6.396
X-41.207 Y-203.403 Z-6.408
X-42.162 Y-201.927 Z-6.42
X-43.134 Y-200.47 Z-6.431
X-44.126 Y-199.031 Z-6.443
X-45.135 Y-197.609 Z-6.455
X-46.163 Y-196.206 Z-6.467
X-47.208 Y-194.82 Z-6.478
X-48.272 Y-193.452 Z-6.49
X-49.353 Y-192.101 Z-6.502
X-50.453 Y-190.769 Z-6.513
X-51.57 Y-189.453 Z-6.525
X-52.704 Y-188.154 Z-6.536
X-53.856 Y-186.873 Z-6.548
X-55.026 Y-185.608 Z-6.56
X-56.212 Y-184.36 Z-6.571
X-57.416 Y-183.129 Z-6.583
X-58.637 Y-181.915 Z-6.594
X-59.875 Y-180.716 Z-6.606
X-61.13 Y-179.535 Z-6.618
X-62.402 Y-178.37 Z-6.629
X-63.69 Y-177.221 Z-6.641
X-64.995 Y-176.087 Z-6.653
X-66.317 Y-174.971 Z-6.664
X-67.655 Y-173.869 Z-6.676
X-69.008 Y-172.783 Z-6.688
X-70.378 Y-171.714 Z-6.699
X-71.765 Y-170.659 Z-6.711
X-73.167 Y-169.62 Z-6.723
X-74.585 Y-168.596 Z-6.734
X-76.018 Y-167.587 Z-6.746
X-77.467 Y-166.594 Z-6.758
X-78.931 Y-165.615 Z-6.77
X-80.411 Y-164.652 Z-6.782
X-81.906 Y-163.702 Z-6.794
X-83.416 Y-162.768 Z-6.806
X-84.941 Y-161.848 Z-6.818
X-86.48 Y-160.942 Z-6.83
X-88.035 Y-160.05 Z-6.842
X-89.603 Y-159.173 Z-6.854
X-91.186 Y-158.31 Z-6.866
X-92.784 Y-157.461 Z-6.878
X-94.395 Y-156.625 Z-6.89
X-96.02 Y-155.804 Z-6.903
X-97.66 Y-154.997 Z-6.915
X-99.313 Y-154.202 Z-6.927
X-100.98 Y-153.421 Z-6.94
X-102.66 Y-152.653 Z-6.952
X-104.353 Y-151.899 Z-6.965
X-106.059 Y-151.159 Z-6.977
X-107.778 Y-150.43 Z-6.99
X-109.51 Y-149.715 Z-7.002
X-111.255 Y-149.013 Z-7.015
X-113.012 Y-148.323 Z-7.028
X-114.782 Y-147.645 Z-7.04
X-116.563 Y-146.982 Z-7.053
X-118.358 Y-146.329 Z-7.066
X-120.163 Y-145.689 Z-7.079
X-121.981 Y-145.062 Z-7.092
X-123.81 Y-144.446 Z-7.105
X-125.651 Y-143.842 Z-7.118
X-127.502 Y-143.251 Z-7.131
X-129.365 Y-142.671 Z-7.144
X-131.24 Y-142.103 Z-7.157
X-133.125 Y-141.547 Z-7.171
X-135.019 Y-141.002 Z-7.184
X-136.925 Y-140.469 Z-7.197
X-138.841 Y-139.947 Z-7.211
X-140.768 Y-139.436 Z-7.224
X-142.704 Y-138.937 Z-7.237
X-144.651 Y-138.448 Z-7.251
X-146.606 Y-137.97 Z-7.265
X-148.572 Y-137.504 Z-7.278
X-150.546 Y-137.049 Z-7.292
X-152.53 Y-136.604 Z-7.305
X-154.523 Y-136.169 Z-7.319
X-156.525 Y-135.745 Z-7.333
X-158.535 Y-135.331 Z-7.347
X-160.553 Y-134.929 Z-7.361
X-162.58 Y-134.536 Z-7.375
X-164.615 Y-134.154 Z-7.389
X-166.659 Y-133.781 Z-7.402
X-168.709 Y-133.419 Z-7.417
X-170.768 Y-133.067 Z-7.431
X-172.833 Y-132.724 Z-7.445
X-174.907 Y-132.393 Z-7.459
X-176.986 Y-132.07 Z-7.473
X-179.074 Y-131.757 Z-7.487
X-181.167 Y-131.454 Z-7.501
X-183.267 Y-131.16 Z-7.516
X-185.374 Y-130.876 Z-7.53
X-187.487 Y-130.601 Z-7.544
X-189.603 Y-130.336 Z-7.559
X-193.86 Y-129.833 Z-7.588
X-198.136 Y-129.367 Z-7.617
X-202.432 Y-128.938 Z-7.646
X-206.747 Y-128.544 Z-7.675
X-211.079 Y-128.186 Z-7.704
X-215.426 Y-127.863 Z-7.733
X-219.788 Y-127.576 Z-7.763
X-224.162 Y-127.323 Z-7.792
X-228.547 Y-127.103 Z-7.822
X-232.941 Y-126.919 Z-7.851
X-237.344 Y-126.767 Z-7.881
X-241.752 Y-126.651 Z-7.911
X-246.166 Y-126.567 Z-7.941
X-250.582 Y-126.517 Z-7.97
X-255 Y-126.5 Z-8
X-259.418 Y-126.517 F850
X-263.834 Y-126.567
X-268.248 Y-126.651
X-272.656 Y-126.767
X-277.059 Y-126.919
X-281.453 Y-127.103
X-285.838 Y-127.323
X-290.212 Y-127.576
X-294.574 Y-127.863
X-298.921 Y-128.186
X-303.253 Y-128.544
X-307.568 Y-128.938
X-311.864 Y-129.367
X-316.14 Y-129.833
X-320.397 Y-130.336
X-322.513 Y-130.601
X-324.626 Y-130.876
X-326.733 Y-131.16
X-328.833 Y-131.454
X-330.926 Y-131.757
X-333.014 Y-132.07
X-335.093 Y-132.393
X-337.167 Y-132.724
X-339.232 Y-133.067
X-341.291 Y-133.419
X-343.341 Y-133.781
X-345.385 Y-134.154
X-347.42 Y-134.536
X-349.447 Y-134.929
X-351.465 Y-135.331
X-353.475 Y-135.745
X-355.477 Y-136.169
X-357.47 Y-136.604
X-359.454 Y-137.049
X-361.428 Y-137.504
X-363.394 Y-137.97
X-365.349 Y-138.448
X-367.296 Y-138.937
X-369.232 Y-139.436
X-371.159 Y-139.947
X-373.075 Y-140.469
X-374.981 Y-141.002
X-376.875 Y-141.547
X-378.76 Y-142.103
X-380.635 Y-142.671
X-382.498 Y-143.251
X-384.349 Y-143.842
X-386.19 Y-144.446
X-388.019 Y-145.062
X-389.837 Y-145.689
X-391.642 Y-146.329
X-393.437 Y-146.982
X-395.218 Y-147.645
X-396.988 Y-148.323
X-398.745 Y-149.013
X-400.49 Y-149.715
X-402.222 Y-150.43
X-403.941 Y-151.159
X-405.647 Y-151.899
X-407.34 Y-152.653
X-409.02 Y-153.421
X-410.687 Y-154.202
X-412.34 Y-154.997
X-413.979 Y-155.804
X-415.604 Y-156.625
X-417.216 Y-157.461
X-418.814 Y-158.31
X-420.397 Y-159.173
X-421.966 Y-160.05
X-423.519 Y-160.942
X-425.059 Y-161.848
X-426.584 Y-162.768
X-428.094 Y-163.702
X-429.589 Y-164.652
X-431.069 Y-165.615
X-432.533 Y-166.594
X-433.982 Y-167.587
X-435.415 Y-168.596
X-436.833 Y-169.62
X-438.235 Y-170.659
X-439.621 Y-171.714
X-440.991 Y-172.783
X-442.345 Y-173.869
X-443.683 Y-174.971
X-445.005 Y-176.087
X-446.31 Y-177.221
X-447.598 Y-178.37
X-448.87 Y-179.535
X-450.124 Y-180.716
X-451.362 Y-181.915
X-452.584 Y-183.129
X-453.787 Y-184.36
X-454.975 Y-185.608
X-456.143 Y-186.873
X-457.295 Y-188.154
X-458.43 Y-189.453
X-459.548 Y-190.769
X-460.647 Y-192.101
X-461.728 Y-193.452
X-462.792 Y-194.82
X-463.837 Y-196.206
X-464.865 Y-197.61
X-465.875 Y-199.031
X-466.865 Y-200.47
X-467.838 Y-201.927
X-468.793 Y-203.403
X-469.729 Y-204.896
X-470.646 Y-206.409
X-471.545 Y-207.939
X-472.424 Y-209.489
X-473.286 Y-211.058
X-474.128 Y-212.645
X-474.951 Y-214.251
X-475.755 Y-215.876
X-476.541 Y-217.52
X-477.306 Y-219.183
X-478.053 Y-220.866
X-478.779 Y-222.568
X-479.487 Y-224.291
X-480.175 Y-226.032
X-480.843 Y-227.793
X-481.492 Y-229.574
X-482.12 Y-231.375
X-482.729 Y-233.196
X-483.318 Y-235.037
X-483.888 Y-236.898
X-484.436 Y-238.78
X-484.965 Y-240.682
X-485.475 Y-242.604
X-485.963 Y-244.547
X-486.431 Y-246.51
X-486.879 Y-248.494
X-487.306 Y-250.498
X-487.714 Y-252.523
X-488.1 Y-254.57
X-488.465 Y-256.636
X-488.811 Y-258.725
X-489.136 Y-260.833
X-489.44 Y-262.962
X-489.723 Y-265.113
X-489.985 Y-267.285
X-490.227 Y-269.478
X-490.448 Y-271.691
X-490.647 Y-273.927
X-490.826 Y-276.183
X-490.984 Y-278.46
X-491.12 Y-280.76
X-491.237 Y-283.08
X-491.331 Y-285.421
X-491.406 Y-287.784
X-491.458 Y-290.168
X-491.489 Y-292.573
X-491.5 Y-295.007
G2 X-493 Y-296.5 I-1.5 J0.007
G1 X-505
G2 X-506.5 Y-295 J1.5
G1 Y-5
G2 X-505 Y-3.5 I1.5
G1 X-5
G2 X-3.5 Y-5 J-1.5
G1 Y-295
G2 X-5 Y-296.5 I-1.5
G1 X-17
G2 X-18.5 Y-295.007 J1.5
G1 X-18.511 Y-292.573
X-18.542 Y-290.168
X-18.595 Y-287.784
X-18.669 Y-285.421
X-18.763 Y-283.08
X-18.879 Y-280.76
X-19.016 Y-278.46
X-19.174 Y-276.183
X-19.353 Y-273.927
X-19.553 Y-271.691
X-19.773 Y-269.478
X-20.015 Y-267.285
X-20.277 Y-265.113
X-20.56 Y-262.962
X-20.864 Y-260.833
X-21.189 Y-258.724
X-21.534 Y-256.636
X-21.9 Y-254.57
X-22.287 Y-252.523
X-22.693 Y-250.498
X-23.121 Y-248.494
X-23.569 Y-246.51
X-24.037 Y-244.547
X-24.526 Y-242.604
X-25.034 Y-240.682
X-25.563 Y-238.78
X-26.112 Y-236.898
X-26.681 Y-235.037
X-27.271 Y-233.197
X-27.88 Y-231.375
X-28.508 Y-229.574
X-29.157 Y-227.793
X-29.825 Y-226.032
X-30.513 Y-224.291
X-31.221 Y-222.568
X-31.948 Y-220.866
X-32.694 Y-219.183
X-33.46 Y-217.52
X-34.245 Y-215.876
X-35.049 Y-214.251
X-35.872 Y-212.645
X-36.714 Y-211.058
X-37.575 Y-209.489
X-38.455 Y-207.939
X-39.354 Y-206.409
X-40.271 Y-204.896
X-41.207 Y-203.403
X-42.162 Y-201.927
X-43.134 Y-200.47
X-44.126 Y-199.031
X-45.135 Y-197.609
X-46.163 Y-196.206
X-47.208 Y-194.82
X-48.272 Y-193.452
X-49.353 Y-192.101
X-50.453 Y-190.769
X-51.57 Y-189.453
X-52.704 Y-188.154
X-53.856 Y-186.873
X-55.026 Y-185.608
X-56.212 Y-184.36
X-57.416 Y-183.129
X-58.637 Y-181.915
X-59.875 Y-180.716
X-61.13 Y-179.535
X-62.402 Y-178.37
X-63.69 Y-177.221
X-64.995 Y-176.087
X-66.317 Y-174.971
X-67.655 Y-173.869
X-69.008 Y-172.783
X-70.378 Y-171.714
X-71.765 Y-170.659
X-73.167 Y-169.62
X-74.585 Y-168.596
X-76.018 Y-167.587
X-77.467 Y-166.594
X-78.931 Y-165.615
X-80.411 Y-164.652
X-81.906 Y-163.702
X-83.416 Y-162.768
X-84.941 Y-161.848
X-86.48 Y-160.942
X-88.035 Y-160.05
X-89.603 Y-159.173
X-91.186 Y-158.31
X-92.784 Y-157.461
X-94.395 Y-156.625
X-96.02 Y-155.804
X-97.66 Y-154.997
X-99.313 Y-154.202
X-100.98 Y-153.421
X-102.66 Y-152.653
X-104.353 Y-151.899
X-106.059 Y-151.159
X-107.778 Y-150.43
X-109.51 Y-149.715
X-111.255 Y-149.013
X-113.012 Y-148.323
X-114.782 Y-147.645
X-116.563 Y-146.982
X-118.358 Y-146.329
X-120.163 Y-145.689
X-121.981 Y-145.062
X-123.81 Y-144.446
X-125.651 Y-143.842
X-127.502 Y-143.251
X-129.365 Y-142.671
X-131.24 Y-142.103
X-133.125 Y-141.547
X-135.019 Y-141.002
X-136.925 Y-140.469
X-138.841 Y-139.947
X-140.768 Y-139.436
X-142.704 Y-138.937
X-144.651 Y-138.448
X-146.606 Y-137.97
X-148.572 Y-137.504
X-150.546 Y-137.049
X-152.53 Y-136.604
X-154.523 Y-136.169
X-156.525 Y-135.745
X-158.535 Y-135.331
X-160.553 Y-134.929
X-162.58 Y-134.536
X-164.615 Y-134.154
X-166.659 Y-133.781
X-168.709 Y-133.419
X-170.768 Y-133.067
X-172.833 Y-132.724
X-174.907 Y-132.393
X-176.986 Y-132.07
X-179.074 Y-131.757
X-181.167 Y-131.454
X-183.267 Y-131.16
X-185.374 Y-130.876
X-187.487 Y-130.601
X-189.603 Y-130.336
X-193.86 Y-129.833
X-198.136 Y-129.367
X-202.432 Y-128.938
X-206.747 Y-128.544
X-211.079 Y-128.186
X-215.426 Y-127.863
X-219.788 Y-127.576
X-224.162 Y-127.323
X-228.547 Y-127.103
X-232.941 Y-126.919
X-237.344 Y-126.767
X-241.752 Y-126.651
X-246.166 Y-126.567
X-250.582 Y-126.517
X-255 Y-126.5
X-259.418 Y-126.517 Z-8.03 F283.3
X-263.834 Y-126.567 Z-8.059
X-268.248 Y-126.651 Z-8.089
X-272.656 Y-126.767 Z-8.119
X-277.059 Y-126.919 Z-8.149
X-281.453 Y-127.103 Z-8.178
X-285.838 Y-127.323 Z-8.208
X-290.212 Y-127.576 Z-8.237
X-294.574 Y-127.863 Z-8.267
X-298.921 Y-128.186 Z-8.296
X-303.253 Y-128.544 Z-8.325
X-307.568 Y-128.938 Z-8.354
X-311.864 Y-129.367 Z-8.383
X-316.14 Y-129.833 Z-8.412
X-320.397 Y-130.336 Z-8.441
X-322.513 Y-130.601 Z-8.456
X-324.626 Y-130.876 Z-8.47
X-326.733 Y-131.16 Z-8.484
X-328.833 Y-131.454 Z-8.499
X-330.926 Y-131.757 Z-8.513
X-333.014 Y-132.07 Z-8.527
X-335.093 Y-132.393 Z-8.541
X-337.167 Y-132.724 Z-8.555
X-339.232 Y-133.067 Z-8.569
X-341.291 Y-133.419 Z-8.583
X-343.341 Y-133.781 Z-8.598
X-345.385 Y-134.154 Z-8.611
X-347.42 Y-134.536 Z-8.625
X-349.447 Y-134.929 Z-8.639
X-351.465 Y-135.331 Z-8.653
X-353.475 Y-135.745 Z-8.667
X-355.477 Y-136.169 Z-8.681
X-357.47 Y-136.604 Z-8.695
X-359.454 Y-137.049 Z-8.708
X-361.428 Y-137.504 Z-8.722
X-363.394 Y-137.97 Z-8.735
X-365.349 Y-138.448 Z-8.749
X-367.296 Y-138.937 Z-8.763
X-369.232 Y-139.436 Z-8.776
X-371.159 Y-139.947 Z-8.789
X-373.075 Y-140.469 Z-8.803
X-374.981 Y-141.002 Z-8.816
X-376.875 Y-141.547 Z-8.829
X-378.76 Y-142.103 Z-8.843
X-380.635 Y-142.671 Z-8.856
X-382.498 Y-143.251 Z-8.869
X-384.349 Y-143.842 Z-8.882
X-386.19 Y-144.446 Z-8.895
X-388.019 Y-145.062 Z-8.908
X-389.837 Y-145.689 Z-8.921
X-391.642 Y-146.329 Z-8.934
X-393.437 Y-146.982 Z-8.947
X-395.218 Y-147.645 Z-8.96
X-396.988 Y-148.323 Z-8.972
X-398.745 Y-149.013 Z-8.985
X-400.49 Y-149.715 Z-8.998
X-402.222 Y-150.43 Z-9.01
X-403.941 Y-151.159 Z-9.023
X-405.647 Y-151.899 Z-9.035
X-407.34 Y-152.653 Z-9.048
X-409.02 Y-153.421 Z-9.06
X-410.687 Y-154.202 Z-9.073
X-412.34 Y-154.997 Z-9.085
X-413.979 Y-155.804 Z-9.097
X-415.604 Y-156.625 Z-9.11
X-417.216 Y-157.461 Z-9.122
X-418.814 Y-158.31 Z-9.134
X-420.397 Y-159.173 Z-9.146
X-421.966 Y-160.05 Z-9.158
X-423.519 Y-160.942 Z-9.17
X-425.059 Y-161.848 Z-9.182
X-426.584 Y-162.768 Z-9.194
X-428.094 Y-163.702 Z-9.206
X-429.589 Y-164.652 Z-9.218
X-431.069 Y-165.615 Z-9.23
X-432.533 Y-166.594 Z-9.242
X-433.982 Y-167.587 Z-9.254
X-435.415 Y-168.596 Z-9.266
X-436.833 Y-169.62 Z-9.277
X-438.235 Y-170.659 Z-9.289
X-439.621 Y-171.714 Z-9.301
X-440.991 Y-172.783 Z-9.312
X-442.345 Y-173.869 Z-9.324
X-443.683 Y-174.971 Z-9.336
X-445.005 Y-176.087 Z-9.347
X-446.31 Y-177.221 Z-9.359
X-447.598 Y-178.37 Z-9.371
X-448.87 Y-179.535 Z-9.382
X-450.124 Y-180.716 Z-9.394
X-451.362 Y-181.915 Z-9.406
X-452.584 Y-183.129 Z-9.417
X-453.787 Y-184.36 Z-9.429
X-454.975 Y-185.608 Z-9.44
X-456.143 Y-186.873 Z-9.452
X-457.295 Y-188.154 Z-9.464
X-458.43 Y-189.453 Z-9.475
X-459.548 Y-190.769 Z-9.487
X-460.647 Y-192.101 Z-9.498
X-461.728 Y-193.452 Z-9.51
X-462.792 Y-194.82 Z-9.522
X-463.837 Y-196.206 Z-9.533
X-464.865 Y-197.61 Z-9.545
X-465.875 Y-199.031 Z-9.557
X-466.865 Y-200.47 Z-9.569
X-467.838 Y-201.927 Z-9.58
X-468.793 Y-203.403 Z-9.592
X-469.729 Y-204.896 Z-9.604
X-470.646 Y-206.409 Z-9.616
X-471.545 Y-207.939 Z-9.628
X-472.424 Y-209.489 Z-9.64
X-473.286 Y-211.058 Z-9.652
X-474.128 Y-212.645 Z-9.664
X-474.951 Y-214.251 Z-9.676
X-475.755 Y-215.876 Z-9.688
X-476.541 Y-217.52 Z-9.701
X-477.306 Y-219.183 Z-9.713
X-478.053 Y-220.866 Z-9.725
X-478.779 Y-222.568 Z-9.738
X-479.487 Y-224.291 Z-9.75
X-480.175 Y-226.032 Z-9.763
X-480.843 Y-227.793 Z-9.776
X-481.492 Y-229.574 Z-9.788
X-482.12 Y-231.375 Z-9.801
X-482.729 Y-233.196 Z-9.814
X-483.318 Y-235.037 Z-9.827
X-483.888 Y-236.898 Z-9.84
X-484.436 Y-238.78 Z-9.854
X-484.965 Y-240.682 Z-9.867
X-485.475 Y-242.604 Z-9.88
X-485.963 Y-244.547 Z-9.894
X-486.431 Y-246.51 Z-9.907
X-486.879 Y-248.494 Z-9.921
X-487.306 Y-250.498 Z-9.935
X-487.714 Y-252.523 Z-9.949
X-488.1 Y-254.57 Z-9.963
X-488.465 Y-256.636 Z-9.977
X-488.811 Y-258.725 Z-9.991
X-489.012 Y-260.032 Z-10
X-489.136 Y-260.833 F850
X-489.44 Y-262.962
X-489.723 Y-265.113
X-489.985 Y-267.285
X-490.227 Y-269.478
X-490.448 Y-271.691
X-490.647 Y-273.927
X-490.826 Y-276.183
X-490.984 Y-278.46
X-491.12 Y-280.76
X-491.237 Y-283.08
X-491.331 Y-285.421
X-491.406 Y-287.784
X-491.458 Y-290.168
X-491.489 Y-292.573
X-491.5 Y-295.007
G2 X-493 Y-296.5 I-1.5 J0.007
G1 X-505
G2 X-506.5 Y-295 J1.5
G1 Y-5
G2 X-505 Y-3.5 I1.5
G1 X-5
G2 X-3.5 Y-5 J-1.5
G1 Y-295
G2 X-5 Y-296.5 I-1.5
G1 X-17
G2 X-18.5 Y-295.007 J1.5
G1 X-18.511 Y-292.573
X-18.542 Y-290.168
X-18.595 Y-287.784
X-18.669 Y-285.421
X-18.763 Y-283.08
X-18.879 Y-280.76
X-19.016 Y-278.46
X-19.174 Y-276.183
X-19.353 Y-273.927
X-19.553 Y-271.691
X-19.773 Y-269.478
X-20.015 Y-267.285
X-20.277 Y-265.113
X-20.56 Y-262.962
X-20.864 Y-260.833
X-21.189 Y-258.724
X-21.534 Y-256.636
X-21.9 Y-254.57
X-22.287 Y-252.523
X-22.693 Y-250.498
X-23.121 Y-248.494
X-23.569 Y-246.51
X-24.037 Y-244.547
X-24.526 Y-242.604
X-25.034 Y-240.682
X-25.563 Y-238.78
X-26.112 Y-236.898
X-26.681 Y-235.037
X-27.271 Y-233.197
X-27.88 Y-231.375
X-28.508 Y-229.574
X-29.157 Y-227.793
X-29.825 Y-226.032
X-30.513 Y-224.291
X-31.221 Y-222.568
X-31.948 Y-220.866
X-32.694 Y-219.183
X-33.46 Y-217.52
X-34.245 Y-215.876
X-35.049 Y-214.251
X-35.872 Y-212.645
X-36.714 Y-211.058
X-37.575 Y-209.489
X-38.455 Y-207.939
X-39.354 Y-206.409
X-40.271 Y-204.896
X-41.207 Y-203.403
X-42.162 Y-201.927
X-43.134 Y-200.47
X-44.126 Y-199.031
X-45.135 Y-197.609
X-46.163 Y-196.206
X-47.208 Y-194.82
X-48.272 Y-193.452
X-49.353 Y-192.101
X-50.453 Y-190.769
X-51.57 Y-189.453
X-52.704 Y-188.154
X-53.856 Y-186.873
X-55.026 Y-185.608
X-56.212 Y-184.36
X-57.416 Y-183.129
X-58.637 Y-181.915
X-59.875 Y-180.716
X-61.13 Y-179.535
X-62.402 Y-178.37
X-63.69 Y-177.221
X-64.995 Y-176.087
X-66.317 Y-174.971
X-67.655 Y-173.869
X-69.008 Y-172.783
X-70.378 Y-171.714
X-71.765 Y-170.659
X-73.167 Y-169.62
X-74.585 Y-168.596
X-76.018 Y-167.587
X-77.467 Y-166.594
X-78.931 Y-165.615
X-80.411 Y-164.652
X-81.906 Y-163.702
X-83.416 Y-162.768
X-84.941 Y-161.848
X-86.48 Y-160.942
X-88.035 Y-160.05
X-89.603 Y-159.173
X-91.186 Y-158.31
X-92.784 Y-157.461
X-94.395 Y-156.625
X-96.02 Y-155.804
X-97.66 Y-154.997
X-99.313 Y-154.202
X-100.98 Y-153.421
X-102.66 Y-152.653
X-104.353 Y-151.899
X-106.059 Y-151.159
X-107.778 Y-150.43
X-109.51 Y-149.715
X-111.255 Y-149.013
X-113.012 Y-148.323
X-114.782 Y-147.645
X-116.563 Y-146.982
X-118.358 Y-146.329
X-120.163 Y-145.689
X-121.981 Y-145.062
X-123.81 Y-144.446
X-125.651 Y-143.842
X-127.502 Y-143.251
X-129.365 Y-142.671
X-131.24 Y-142.103
X-133.125 Y-141.547
X-135.019 Y-141.002
X-136.925 Y-140.469
X-138.841 Y-139.947
X-140.768 Y-139.436
X-142.704 Y-138.937
X-144.651 Y-138.448
X-146.606 Y-137.97
X-148.572 Y-137.504
X-150.546 Y-137.049
X-152.53 Y-136.604
X-154.523 Y-136.169
X-156.525 Y-135.745
X-158.535 Y-135.331
X-160.553 Y-134.929
X-162.58 Y-134.536
X-164.615 Y-134.154
X-166.659 Y-133.781
X-168.709 Y-133.419
X-170.768 Y-133.067
X-172.833 Y-132.724
X-174.907 Y-132.393
X-176.986 Y-132.07
X-179.074 Y-131.757
X-181.167 Y-131.454
X-183.267 Y-131.16
X-185.374 Y-130.876
X-187.487 Y-130.601
X-189.603 Y-130.336
X-193.86 Y-129.833
X-198.136 Y-129.367
X-202.432 Y-128.938
X-206.747 Y-128.544
X-211.079 Y-128.186
X-215.426 Y-127.863
X-219.788 Y-127.576
X-224.162 Y-127.323
X-228.547 Y-127.103
X-232.941 Y-126.919
X-237.344 Y-126.767
X-241.752 Y-126.651
X-246.166 Y-126.567
X-250.582 Y-126.517
X-255 Y-126.5
X-259.418 Y-126.517
X-263.834 Y-126.567
X-268.248 Y-126.651
X-272.656 Y-126.767
X-277.059 Y-126.919
X-281.453 Y-127.103
X-285.838 Y-127.323
X-290.212 Y-127.576
X-294.574 Y-127.863
X-298.921 Y-128.186
X-303.253 Y-128.544
X-307.568 Y-128.938
X-311.864 Y-129.367
X-316.14 Y-129.833
X-320.397 Y-130.336
X-322.513 Y-130.601
X-324.626 Y-130.876
X-326.733 Y-131.16
X-328.833 Y-131.454
X-330.926 Y-131.757
X-333.014 Y-132.07
X-335.093 Y-132.393
X-337.167 Y-132.724
X-339.232 Y-133.067
X-341.291 Y-133.419
X-343.341 Y-133.781
X-345.385 Y-134.154
X-347.42 Y-134.536
X-349.447 Y-134.929
X-351.465 Y-135.331
X-353.475 Y-135.745
X-355.477 Y-136.169
X-357.47 Y-136.604
X-359.454 Y-137.049
X-361.428 Y-137.504
X-363.394 Y-137.97
X-365.349 Y-138.448
X-367.296 Y-138.937
X-369.232 Y-139.436
X-371.159 Y-139.947
X-373.075 Y-140.469
X-374.981 Y-141.002
X-376.875 Y-141.547
X-378.76 Y-142.103
X-380.635 Y-142.671
X-382.498 Y-143.251
X-384.349 Y-143.842
X-386.19 Y-144.446
X-388.019 Y-145.062
X-389.837 Y-145.689
X-391.642 Y-146.329
X-393.437 Y-146.982
X-395.218 Y-147.645
X-396.988 Y-148.323
X-398.745 Y-149.013
X-400.49 Y-149.715
X-402.222 Y-150.43
X-403.941 Y-151.159
X-405.647 Y-151.899
X-407.34 Y-152.653
X-409.02 Y-153.421
X-410.687 Y-154.202
X-412.34 Y-154.997
X-413.979 Y-155.804
X-415.604 Y-156.625
X-417.216 Y-157.461
X-418.814 Y-158.31
X-420.397 Y-159.173
X-421.966 Y-160.05
X-423.519 Y-160.942
X-425.059 Y-161.848
X-426.584 Y-162.768
X-428.094 Y-163.702
X-429.589 Y-164.652
X-431.069 Y-165.615
X-432.533 Y-166.594
X-433.982 Y-167.587
X-435.415 Y-168.596
X-436.833 Y-169.62
X-438.235 Y-170.659
X-439.621 Y-171.714
X-440.991 Y-172.783
X-442.345 Y-173.869
X-443.683 Y-174.971
X-445.005 Y-176.087
X-446.31 Y-177.221
X-447.598 Y-178.37
X-448.87 Y-179.535
X-450.124 Y-180.716
X-451.362 Y-181.915
X-452.584 Y-183.129
X-453.787 Y-184.36
X-454.975 Y-185.608
X-456.143 Y-186.873
X-457.295 Y-188.154
X-458.43 Y-189.453
X-459.548 Y-190.769
X-460.647 Y-192.101
X-461.728 Y-193.452
X-462.792 Y-194.82
X-463.837 Y-196.206
X-464.865 Y-197.61
X-465.875 Y-199.031
X-466.865 Y-200.47
X-467.838 Y-201.927
X-468.793 Y-203.403
X-469.729 Y-204.896
X-470.646 Y-206.409
X-471.545 Y-207.939
X-472.424 Y-209.489
X-473.286 Y-211.058
X-474.128 Y-212.645
X-474.951 Y-214.251
X-475.755 Y-215.876
X-476.541 Y-217.52
X-477.306 Y-219.183
X-478.053 Y-220.866
X-478.779 Y-222.568
X-479.487 Y-224.291
X-480.175 Y-226.032
X-480.843 Y-227.793
X-481.492 Y-229.574
X-482.12 Y-231.375
X-482.729 Y-233.196
X-483.318 Y-235.037
X-483.888 Y-236.898
X-484.436 Y-238.78
X-484.965 Y-240.682
X-485.475 Y-242.604
X-485.963 Y-244.547
X-486.431 Y-246.51
X-486.879 Y-248.494
X-487.306 Y-250.498
X-487.714 Y-252.523
X-488.1 Y-254.57
X-488.465 Y-256.636
X-488.811 Y-258.725
X-489.012 Y-260.032
X-489.136 Y-260.833 Z-10.005 F283.3
X-489.44 Y-262.962 Z-10.02
X-489.723 Y-265.113 Z-10.035
X-489.985 Y-267.285 Z-10.049
X-490.227 Y-269.478 Z-10.064
X-490.448 Y-271.691 Z-10.079
X-490.647 Y-273.927 Z-10.094
X-490.826 Y-276.183 Z-10.109
X-490.984 Y-278.46 Z-10.125
X-491.12 Y-280.76 Z-10.14
X-491.237 Y-283.08 Z-10.156
X-491.331 Y-285.421 Z-10.172
X-491.406 Y-287.784 Z-10.188
X-491.458 Y-290.168 Z-10.204
X-491.489 Y-292.573 Z-10.22
X-491.5 Y-295.007 Z-10.236
G2 X-493 Y-296.5 Z-10.252 I-1.5 J0.007
G1 X-505 Z-10.333
G2 X-506.5 Y-295 Z-10.349 J1.5
G1 Y-49.723 Z-12
Y-5 F850
G2 X-505 Y-3.5 I1.5
G1 X-5
G2 X-3.5 Y-5 J-1.5
G1 Y-295
G2 X-5 Y-296.5 I-1.5
G1 X-17
G2 X-18.5 Y-295.007 J1.5
G1 X-18.511 Y-292.573
X-18.542 Y-290.168
X-18.595 Y-287.784
X-18.669 Y-285.421
X-18.763 Y-283.08
X-18.879 Y-280.76
X-19.016 Y-278.46
X-19.174 Y-276.183
X-19.353 Y-273.927
X-19.553 Y-271.691
X-19.773 Y-269.478
X-20.015 Y-267.285
X-20.277 Y-265.113
X-20.56 Y-262.962
X-20.864 Y-260.833
X-21.189 Y-258.724
X-21.534 Y-256.636
X-21.9 Y-254.57
X-22.287 Y-252.523
X-22.693 Y-250.498
X-23.121 Y-248.494
X-23.569 Y-246.51
X-24.037 Y-244.547
X-24.526 Y-242.604
X-25.034 Y-240.682
X-25.563 Y-238.78
X-26.112 Y-236.898
X-26.681 Y-235.037
X-27.271 Y-233.197
X-27.88 Y-231.375
X-28.508 Y-229.574
X-29.157 Y-227.793
X-29.825 Y-226.032
X-30.513 Y-224.291
X-31.221 Y-222.568
X-31.948 Y-220.866
X-32.694 Y-219.183
X-33.46 Y-217.52
X-34.245 Y-215.876
X-35.049 Y-214.251
X-35.872 Y-212.645
X-36.714 Y-211.058
X-37.575 Y-209.489
X-38.455 Y-207.939
X-39.354 Y-206.409
X-40.271 Y-204.896
X-41.207 Y-203.403
X-42.162 Y-201.927
X-43.134 Y-200.47
X-44.126 Y-199.031
X-45.135 Y-197.609
X-46.163 Y-196.206
X-47.208 Y-194.82
X-48.272 Y-193.452
X-49.353 Y-192.101
X-50.453 Y-190.769
X-51.57 Y-189.453
X-52.704 Y-188.154
X-53.856 Y-186.873
X-55.026 Y-185.608
X-56.212 Y-184.36
X-57.416 Y-183.129
X-58.637 Y-181.915
X-59.875 Y-180.716
X-61.13 Y-179.535
X-62.402 Y-178.37
X-63.69 Y-177.221
X-64.995 Y-176.087
X-66.317 Y-174.971
X-67.655 Y-173.869
X-69.008 Y-172.783
X-70.378 Y-171.714
X-71.765 Y-170.659
X-73.167 Y-169.62
X-74.585 Y-168.596
X-76.018 Y-167.587
X-77.467 Y-166.594
X-78.931 Y-165.615
X-80.411 Y-164.652
X-81.906 Y-163.702
X-83.416 Y-162.768
X-84.941 Y-161.848
X-86.48 Y-160.942
X-88.035 Y-160.05
X-89.603 Y-159.173
X-91.186 Y-158.31
X-92.784 Y-157.461
X-94.395 Y-156.625
X-96.02 Y-155.804
X-97.66 Y-154.997
X-99.313 Y-154.202
X-100.98 Y-153.421
X-102.66 Y-152.653
X-104.353 Y-151.899
X-106.059 Y-151.159
X-107.778 Y-150.43
X-109.51 Y-149.715
X-111.255 Y-149.013
X-113.012 Y-148.323
X-114.782 Y-147.645
X-116.563 Y-146.982
X-118.358 Y-146.329
X-120.163 Y-145.689
X-121.981 Y-145.062
X-123.81 Y-144.446
X-125.651 Y-143.842
X-127.502 Y-143.251
X-129.365 Y-142.671
X-131.24 Y-142.103
X-133.125 Y-141.547
X-135.019 Y-141.002
X-136.925 Y-140.469
X-138.841 Y-139.947
X-140.768 Y-139.436
X-142.704 Y-138.937
X-144.651 Y-138.448
X-146.606 Y-137.97
X-148.572 Y-137.504
X-150.546 Y-137.049
X-152.53 Y-136.604
X-154.523 Y-136.169
X-156.525 Y-135.745
X-158.535 Y-135.331
X-160.553 Y-134.929
X-162.58 Y-134.536
X-164.615 Y-134.154
X-166.659 Y-133.781
X-168.709 Y-133.419
X-170.768 Y-133.067
X-172.833 Y-132.724
X-174.907 Y-132.393
X-176.986 Y-132.07
X-179.074 Y-131.757
X-181.167 Y-131.454
X-183.267 Y-131.16
X-185.374 Y-130.876
X-187.487 Y-130.601
X-189.603 Y-130.336
X-193.86 Y-129.833
X-198.136 Y-129.367
X-202.432 Y-128.938
X-206.747 Y-128.544
X-211.079 Y-128.186
X-215.426 Y-127.863
X-219.788 Y-127.576
X-224.162 Y-127.323
X-228.547 Y-127.103
X-232.941 Y-126.919
X-237.344 Y-126.767
X-241.752 Y-126.651
X-246.166 Y-126.567
X-250.582 Y-126.517
X-255 Y-126.5
X-259.418 Y-126.517
X-263.834 Y-126.567
X-268.248 Y-126.651
X-272.656 Y-126.767
X-277.059 Y-126.919
X-281.453 Y-127.103
X-285.838 Y-127.323
X-290.212 Y-127.576
X-294.574 Y-127.863
X-298.921 Y-128.186
X-303.253 Y-128.544
X-307.568 Y-128.938
X-311.864 Y-129.367
X-316.14 Y-129.833
X-320.397 Y-130.336
X-322.513 Y-130.601
X-324.626 Y-130.876
X-326.733 Y-131.16
X-328.833 Y-131.454
X-330.926 Y-131.757
X-333.014 Y-132.07
X-335.093 Y-132.393
X-337.167 Y-132.724
X-339.232 Y-133.067
X-341.291 Y-133.419
X-343.341 Y-133.781
X-345.385 Y-134.154
X-347.42 Y-134.536
X-349.447 Y-134.929
X-351.465 Y-135.331
X-353.475 Y-135.745
X-355.477 Y-136.169
X-357.47 Y-136.604
X-359.454 Y-137.049
X-361.428 Y-137.504
X-363.394 Y-137.97
X-365.349 Y-138.448
X-367.296 Y-138.937
X-369.232 Y-139.436
X-371.159 Y-139.947
X-373.075 Y-140.469
X-374.981 Y-141.002
X-376.875 Y-141.547
X-378.76 Y-142.103
X-380.635 Y-142.671
X-382.498 Y-143.251
X-384.349 Y-143.842
X-386.19 Y-144.446
X-388.019 Y-145.062
X-389.837 Y-145.689
X-391.642 Y-146.329
X-393.437 Y-146.982
X-395.218 Y-147.645
X-396.988 Y-148.323
X-398.745 Y-149.013
X-400.49 Y-149.715
X-402.222 Y-150.43
X-403.941 Y-151.159
X-405.647 Y-151.899
X-407.34 Y-152.653
X-409.02 Y-153.421
X-410.687 Y-154.202
X-412.34 Y-154.997
X-413.979 Y-155.804
X-415.604 Y-156.625
X-417.216 Y-157.461
X-418.814 Y-158.31
X-420.397 Y-159.173
X-421.966 Y-160.05
X-423.519 Y-160.942
X-425.059 Y-161.848
X-426.584 Y-162.768
X-428.094 Y-163.702
X-429.589 Y-164.652
X-431.069 Y-165.615
X-432.533 Y-166.594
X-433.982 Y-167.587
X-435.415 Y-168.596
X-436.833 Y-169.62
X-438.235 Y-170.659
X-439.621 Y-171.714
X-440.991 Y-172.783
X-442.345 Y-173.869
X-443.683 Y-174.971
X-445.005 Y-176.087
X-446.31 Y-177.221
X-447.598 Y-178.37
X-448.87 Y-179.535
X-450.124 Y-180.716
X-451.362 Y-181.915
X-452.584 Y-183.129
X-453.787 Y-184.36
X-454.975 Y-185.608
X-456.143 Y-186.873
X-457.295 Y-188.154
X-458.43 Y-189.453
X-459.548 Y-190.769
X-460.647 Y-192.101
X-461.728 Y-193.452
X-462.792 Y-194.82
X-463.837 Y-196.206
X-464.865 Y-197.61
X-465.875 Y-199.031
X-466.865 Y-200.47
X-467.838 Y-201.927
X-468.793 Y-203.403
X-469.729 Y-204.896
X-470.646 Y-206.409
X-471.545 Y-207.939
X-472.424 Y-209.489
X-473.286 Y-211.058
X-474.128 Y-212.645
X-474.951 Y-214.251
X-475.755 Y-215.876
X-476.541 Y-217.52
X-477.306 Y-219.183
X-478.053 Y-220.866
X-478.779 Y-222.568
X-479.487 Y-224.291
X-480.175 Y-226.032
X-480.843 Y-227.793
X-481.492 Y-229.574
X-482.12 Y-231.375
X-482.729 Y-233.196
X-483.318 Y-235.037
X-483.888 Y-236.898
X-484.436 Y-238.78
X-484.965 Y-240.682
X-485.475 Y-242.604
X-485.963 Y-244.547
X-486.431 Y-246.51
X-486.879 Y-248.494
X-487.306 Y-250.498
X-487.714 Y-252.523
X-488.1 Y-254.57
X-488.465 Y-256.636
X-488.811 Y-258.725
X-489.012 Y-260.032
X-489.136 Y-260.833
X-489.44 Y-262.962
X-489.723 Y-265.113
X-489.985 Y-267.285
X-490.227 Y-269.478
X-490.448 Y-271.691
X-490.647 Y-273.927
X-490.826 Y-276.183
X-490.984 Y-278.46
X-491.12 Y-280.76
X-491.237 Y-283.08
X-491.331 Y-285.421
X-491.406 Y-287.784
X-491.458 Y-290.168
X-491.489 Y-292.573
X-491.5 Y-295.007
G2 X-493 Y-296.5 I-1.5 J0.007
G1 X-505
G2 X-506.5 Y-295 J1.5
G1 Y-49.723
Y-5 Z-12.301 F283.3
G2 X-505 Y-3.5 Z-12.317 I1.5
G1 X-255 Z-14
X-5 F850
G2 X-3.5 Y-5 J-1.5
G1 Y-295
G2 X-5 Y-296.5 I-1.5
G1 X-17
G2 X-18.5 Y-295.007 J1.5
G1 X-18.511 Y-292.573
X-18.542 Y-290.168
X-18.595 Y-287.784
X-18.669 Y-285.421
X-18.763 Y-283.08
X-18.879 Y-280.76
X-19.016 Y-278.46
X-19.174 Y-276.183
X-19.353 Y-273.927
X-19.553 Y-271.691
X-19.773 Y-269.478
X-20.015 Y-267.285
X-20.277 Y-265.113
X-20.56 Y-262.962
X-20.864 Y-260.833
X-21.189 Y-258.724
X-21.534 Y-256.636
X-21.9 Y-254.57
X-22.287 Y-252.523
X-22.693 Y-250.498
X-23.121 Y-248.494
X-23.569 Y-246.51
X-24.037 Y-244.547
X-24.526 Y-242.604
X-25.034 Y-240.682
X-25.563 Y-238.78
X-26.112 Y-236.898
X-26.681 Y-235.037
X-27.271 Y-233.197
X-27.88 Y-231.375
X-28.508 Y-229.574
X-29.157 Y-227.793
X-29.825 Y-226.032
X-30.513 Y-224.291
X-31.221 Y-222.568
X-31.948 Y-220.866
X-32.694 Y-219.183
X-33.46 Y-217.52
X-34.245 Y-215.876
X-35.049 Y-214.251
X-35.872 Y-212.645
X-36.714 Y-211.058
X-37.575 Y-209.489
X-38.455 Y-207.939
X-39.354 Y-206.409
X-40.271 Y-204.896
X-41.207 Y-203.403
X-42.162 Y-201.927
X-43.134 Y-200.47
X-44.126 Y-199.031
X-45.135 Y-197.609
X-46.163 Y-196.206
X-47.208 Y-194.82
X-48.272 Y-193.452
X-49.353 Y-192.101
X-50.453 Y-190.769
X-51.57 Y-189.453
X-52.704 Y-188.154
X-53.856 Y-186.873
X-55.026 Y-185.608
X-56.212 Y-184.36
X-57.416 Y-183.129
X-58.637 Y-181.915
X-59.875 Y-180.716
X-61.13 Y-179.535
X-62.402 Y-178.37
X-63.69 Y-177.221
X-64.995 Y-176.087
X-66.317 Y-174.971
X-67.655 Y-173.869
X-69.008 Y-172.783
X-70.378 Y-171.714
X-71.765 Y-170.659
X-73.167 Y-169.62
X-74.585 Y-168.596
X-76.018 Y-167.587
X-77.467 Y-166.594
X-78.931 Y-165.615
X-80.411 Y-164.652
X-81.906 Y-163.702
X-83.416 Y-162.768
X-84.941 Y-161.848
X-86.48 Y-160.942
X-88.035 Y-160.05
X-89.603 Y-159.173
X-91.186 Y-158.31
X-92.784 Y-157.461
X-94.395 Y-156.625
X-96.02 Y-155.804
X-97.66 Y-154.997
X-99.313 Y-154.202
X-100.98 Y-153.421
X-102.66 Y-152.653
X-104.353 Y-151.899
X-106.059 Y-151.159
X-107.778 Y-150.43
X-109.51 Y-149.715
X-111.255 Y-149.013
X-113.012 Y-148.323
X-114.782 Y-147.645
X-116.563 Y-146.982
X-118.358 Y-146.329
X-120.163 Y-145.689
X-121.981 Y-145.062
X-123.81 Y-144.446
X-125.651 Y-143.842
X-127.502 Y-143.251
X-129.365 Y-142.671
X-131.24 Y-142.103
X-133.125 Y-141.547
X-135.019 Y-141.002
X-136.925 Y-140.469
X-138.841 Y-139.947
X-140.768 Y-139.436
X-142.704 Y-138.937
X-144.651 Y-138.448
X-146.606 Y-137.97
X-148.572 Y-137.504
X-150.546 Y-137.049
X-152.53 Y-136.604
X-154.523 Y-136.169
X-156.525 Y-135.745
X-158.535 Y-135.331
X-160.553 Y-134.929
X-162.58 Y-134.536
X-164.615 Y-134.154
X-166.659 Y-133.781
X-168.709 Y-133.419
X-170.768 Y-133.067
X-172.833 Y-132.724
X-174.907 Y-132.393
X-176.986 Y-132.07
X-179.074 Y-131.757
X-181.167 Y-131.454
X-183.267 Y-131.16
X-185.374 Y-130.876
X-187.487 Y-130.601
X-189.603 Y-130.336
X-193.86 Y-129.833
X-198.136 Y-129.367
X-202.432 Y-128.938
X-206.747 Y-128.544
X-211.079 Y-128.186
X-215.426 Y-127.863
X-219.788 Y-127.576
X-224.162 Y-127.323
X-228.547 Y-127.103
X-232.941 Y-126.919
X-237.344 Y-126.767
X-241.752 Y-126.651
X-246.166 Y-126.567
X-250.582 Y-126.517
X-255 Y-126.5
X-259.418 Y-126.517
X-263.834 Y-126.567
X-268.248 Y-126.651
X-272.656 Y-126.767
X-277.059 Y-126.919
X-281.453 Y-127.103
X-285.838 Y-127.323
X-290.212 Y-127.576
X-294.574 Y-127.863
X-298.921 Y-128.186
X-303.253 Y-128.544
X-307.568 Y-128.938
X-311.864 Y-129.367
X-316.14 Y-129.833
X-320.397 Y-130.336
X-322.513 Y-130.601
X-324.626 Y-130.876
X-326.733 Y-131.16
X-328.833 Y-131.454
X-330.926 Y-131.757
X-333.014 Y-132.07
X-335.093 Y-132.393
X-337.167 Y-132.724
X-339.232 Y-133.067
X-341.291 Y-133.419
X-343.341 Y-133.781
X-345.385 Y-134.154
X-347.42 Y-134.536
X-349.447 Y-134.929
X-351.465 Y-135.331
X-353.475 Y-135.745
X-355.477 Y-136.169
X-357.47 Y-136.604
X-359.454 Y-137.049
X-361.428 Y-137.504
X-363.394 Y-137.97
X-365.349 Y-138.448
X-367.296 Y-138.937
X-369.232 Y-139.436
X-371.159 Y-139.947
X-373.075 Y-140.469
X-374.981 Y-141.002
X-376.875 Y-141.547
X-378.76 Y-142.103
X-380.635 Y-142.671
X-382.498 Y-143.251
X-384.349 Y-143.842
X-386.19 Y-144.446
X-388.019 Y-145.062
X-389.837 Y-145.689
X-391.642 Y-146.329
X-393.437 Y-146.982
X-395.218 Y-147.645
X-396.988 Y-148.323
X-398.745 Y-149.013
X-400.49 Y-149.715
X-402.222 Y-150.43
X-403.941 Y-151.159
X-405.647 Y-151.899
X-407.34 Y-152.653
X-409.02 Y-153.421
X-410.687 Y-154.202
X-412.34 Y-154.997
X-413.979 Y-155.804
X-415.604 Y-156.625
X-417.216 Y-157.461
X-418.814 Y-158.31
X-420.397 Y-159.173
X-421.966 Y-160.05
X-423.519 Y-160.942
X-425.059 Y-161.848
X-426.584 Y-162.768
X-428.094 Y-163.702
X-429.589 Y-164.652
X-431.069 Y-165.615
X-432.533 Y-166.594
X-433.982 Y-167.587
X-435.415 Y-168.596
X-436.833 Y-169.62
X-438.235 Y-170.659
X-439.621 Y-171.714
X-440.991 Y-172.783
X-442.345 Y-173.869
X-443.683 Y-174.971
X-445.005 Y-176.087
X-446.31 Y-177.221
X-447.598 Y-178.37
X-448.87 Y-179.535
X-450.124 Y-180.716
X-451.362 Y-181.915
X-452.584 Y-183.129
X-453.787 Y-184.36
X-454.975 Y-185.608
X-456.143 Y-186.873
X-457.295 Y-188.154
X-458.43 Y-189.453
X-459.548 Y-190.769
X-460.647 Y-192.101
X-461.728 Y-193.452
X-462.792 Y-194.82
X-463.837 Y-196.206
X-464.865 Y-197.61
X-465.875 Y-199.031
X-466.865 Y-200.47
X-467.838 Y-201.927
X-468.793 Y-203.403
X-469.729 Y-204.896
X-470.646 Y-206.409
X-471.545 Y-207.939
X-472.424 Y-209.489
X-473.286 Y-211.058
X-474.128 Y-212.645
X-474.951 Y-214.251
X-475.755 Y-215.876
X-476.541 Y-217.52
X-477.306 Y-219.183
X-478.053 Y-220.866
X-478.779 Y-222.568
X-479.487 Y-224.291
X-480.175 Y-226.032
X-480.843 Y-227.793
X-481.492 Y-229.574
X-482.12 Y-231.375
X-482.729 Y-233.196
X-483.318 Y-235.037
X-483.888 Y-236.898
X-484.436 Y-238.78
X-484.965 Y-240.682
X-485.475 Y-242.604
X-485.963 Y-244.547
X-486.431 Y-246.51
X-486.879 Y-248.494
X-487.306 Y-250.498
X-487.714 Y-252.523
X-488.1 Y-254.57
X-488.465 Y-256.636
X-488.811 Y-258.725
X-489.136 Y-260.833
X-489.44 Y-262.962
X-489.723 Y-265.113
X-489.985 Y-267.285
X-490.227 Y-269.478
X-490.448 Y-271.691
X-490.647 Y-273.927
X-490.826 Y-276.183
X-490.984 Y-278.46
X-491.12 Y-280.76
X-491.237 Y-283.08
X-491.331 Y-285.421
X-491.406 Y-287.784
X-491.458 Y-290.168
X-491.489 Y-292.573
X-491.5 Y-295.007
G2 X-493 Y-296.5 I-1.5 J0.007
G1 X-505
G2 X-506.5 Y-295 J1.5
G1 Y-49.723
Y-5
G2 X-505 Y-3.5 I1.5
G1 X-255
X-5 Z-15.683 F283.3
G2 X-3.5 Y-5 Z-15.699 J-1.5
G1 Y-49.723 Z-16
Y-295 F850
G2 X-5 Y-296.5 I-1.5
G1 X-17
G2 X-18.5 Y-295.007 J1.5
G1 X-18.511 Y-292.573
X-18.542 Y-290.168
X-18.595 Y-287.784
X-18.669 Y-285.421
X-18.763 Y-283.08
X-18.879 Y-280.76
X-19.016 Y-278.46
X-19.174 Y-276.183
X-19.353 Y-273.927
X-19.553 Y-271.691
X-19.773 Y-269.478
X-20.015 Y-267.285
X-20.277 Y-265.113
X-20.56 Y-262.962
X-20.864 Y-260.833
X-21.189 Y-258.724
X-21.534 Y-256.636
X-21.9 Y-254.57
X-22.287 Y-252.523
X-22.693 Y-250.498
X-23.121 Y-248.494
X-23.569 Y-246.51
X-24.037 Y-244.547
X-24.526 Y-242.604
X-25.034 Y-240.682
X-25.563 Y-238.78
X-26.112 Y-236.898
X-26.681 Y-235.037
X-27.271 Y-233.197
X-27.88 Y-231.375
X-28.508 Y-229.574
X-29.157 Y-227.793
X-29.825 Y-226.032
X-30.513 Y-224.291
X-31.221 Y-222.568
X-31.948 Y-220.866
X-32.694 Y-219.183
X-33.46 Y-217.52
X-34.245 Y-215.876
X-35.049 Y-214.251
X-35.872 Y-212.645
X-36.714 Y-211.058
X-37.575 Y-209.489
X-38.455 Y-207.939
X-39.354 Y-206.409
X-40.271 Y-204.896
X-41.207 Y-203.403
X-42.162 Y-201.927
X-43.134 Y-200.47
X-44.126 Y-199.031
X-45.135 Y-197.609
X-46.163 Y-196.206
X-47.208 Y-194.82
X-48.272 Y-193.452
X-49.353 Y-192.101
X-50.453 Y-190.769
X-51.57 Y-189.453
X-52.704 Y-188.154
X-53.856 Y-186.873
X-55.026 Y-185.608
X-56.212 Y-184.36
X-57.416 Y-183.129
X-58.637 Y-181.915
X-59.875 Y-180.716
X-61.13 Y-179.535
X-62.402 Y-178.37
X-63.69 Y-177.221
X-64.995 Y-176.087
X-66.317 Y-174.971
X-67.655 Y-173.869
X-69.008 Y-172.783
X-70.378 Y-171.714
X-71.765 Y-170.659
X-73.167 Y-169.62
X-74.585 Y-168.596
X-76.018 Y-167.587
X-77.467 Y-166.594
X-78.931 Y-165.615
X-80.411 Y-164.652
X-81.906 Y-163.702
X-83.416 Y-162.768
X-84.941 Y-161.848
X-86.48 Y-160.942
X-88.035 Y-160.05
X-89.603 Y-159.173
X-91.186 Y-158.31
X-92.784 Y-157.461
X-94.395 Y-156.625
X-96.02 Y-155.804
X-97.66 Y-154.997
X-99.313 Y-154.202
X-100.98 Y-153.421
X-102.66 Y-152.653
X-104.353 Y-151.899
X-106.059 Y-151.159
X-107.778 Y-150.43
X-109.51 Y-149.715
X-111.255 Y-149.013
X-113.012 Y-148.323
X-114.782 Y-147.645
X-116.563 Y-146.982
X-118.358 Y-146.329
X-120.163 Y-145.689
X-121.981 Y-145.062
X-123.81 Y-144.446
X-125.651 Y-143.842
X-127.502 Y-143.251
X-129.365 Y-142.671
X-131.24 Y-142.103
X-133.125 Y-141.547
X-135.019 Y-141.002
X-136.925 Y-140.469
X-138.841 Y-139.947
X-140.768 Y-139.436
X-142.704 Y-138.937
X-144.651 Y-138.448
X-146.606 Y-137.97
X-148.572 Y-137.504
X-150.546 Y-137.049
X-152.53 Y-136.604
X-154.523 Y-136.169
X-156.525 Y-135.745
X-158.535 Y-135.331
X-160.553 Y-134.929
X-162.58 Y-134.536
X-164.615 Y-134.154
X-166.659 Y-133.781
X-168.709 Y-133.419
X-170.768 Y-133.067
X-172.833 Y-132.724
X-174.907 Y-132.393
X-176.986 Y-132.07
X-179.074 Y-131.757
X-181.167 Y-131.454
X-183.267 Y-131.16
X-185.374 Y-130.876
X-187.487 Y-130.601
X-189.603 Y-130.336
X-193.86 Y-129.833
X-198.136 Y-129.367
X-202.432 Y-128.938
X-206.747 Y-128.544
X-211.079 Y-128.186
X-215.426 Y-127.863
X-219.788 Y-127.576
X-224.162 Y-127.323
X-228.547 Y-127.103
X-232.941 Y-126.919
X-237.344 Y-126.767
X-241.752 Y-126.651
X-246.166 Y-126.567
X-250.582 Y-126.517
X-255 Y-126.5
X-259.418 Y-126.517
X-263.834 Y-126.567
X-268.248 Y-126.651
X-272.656 Y-126.767
X-277.059 Y-126.919
X-281.453 Y-127.103
X-285.838 Y-127.323
X-290.212 Y-127.576
X-294.574 Y-127.863
X-298.921 Y-128.186
X-303.253 Y-128.544
X-307.568 Y-128.938
X-311.864 Y-129.367
X-316.14 Y-129.833
X-320.397 Y-130.336
X-322.513 Y-130.601
X-324.626 Y-130.876
X-326.733 Y-131.16
X-328.833 Y-131.454
X-330.926 Y-131.757
X-333.014 Y-132.07
X-335.093 Y-132.393
X-337.167 Y-132.724
X-339.232 Y-133.067
X-341.291 Y-133.419
X-343.341 Y-133.781
X-345.385 Y-134.154
X-347.42 Y-134.536
X-349.447 Y-134.929
X-351.465 Y-135.331
X-353.475 Y-135.745
X-355.477 Y-136.169
X-357.47 Y-136.604
X-359.454 Y-137.049
X-361.428 Y-137.504
X-363.394 Y-137.97
X-365.349 Y-138.448
X-367.296 Y-138.937
X-369.232 Y-139.436
X-371.159 Y-139.947
X-373.075 Y-140.469
X-374.981 Y-141.002
X-376.875 Y-141.547
X-378.76 Y-142.103
X-380.635 Y-142.671
X-382.498 Y-143.251
X-384.349 Y-143.842
X-386.19 Y-144.446
X-388.019 Y-145.062
X-389.837 Y-145.689
X-391.642 Y-146.329
X-393.437 Y-146.982
X-395.218 Y-147.645
X-396.988 Y-148.323
X-398.745 Y-149.013
X-400.49 Y-149.715
X-402.222 Y-150.43
X-403.941 Y-151.159
X-405.647 Y-151.899
X-407.34 Y-152.653
X-409.02 Y-153.421
X-410.687 Y-154.202
X-412.34 Y-154.997
X-413.979 Y-155.804
X-415.604 Y-156.625
X-417.216 Y-157.461
X-418.814 Y-158.31
X-420.397 Y-159.173
X-421.966 Y-160.05
X-423.519 Y-160.942
X-425.059 Y-161.848
X-426.584 Y-162.768
X-428.094 Y-163.702
X-429.589 Y-164.652
X-431.069 Y-165.615
X-432.533 Y-166.594
X-433.982 Y-167.587
X-435.415 Y-168.596
X-436.833 Y-169.62
X-438.235 Y-170.659
X-439.621 Y-171.714
X-440.991 Y-172.783
X-442.345 Y-173.869
X-443.683 Y-174.971
X-445.005 Y-176.087
X-446.31 Y-177.221
X-447.598 Y-178.37
X-448.87 Y-179.535
X-450.124 Y-180.716
X-451.362 Y-181.915
X-452.584 Y-183.129
X-453.787 Y-184.36
X-454.975 Y-185.608
X-456.143 Y-186.873
X-457.295 Y-188.154
X-458.43 Y-189.453
X-459.548 Y-190.769
X-460.647 Y-192.101
X-461.728 Y-193.452
X-462.792 Y-194.82
X-463.837 Y-196.206
X-464.865 Y-197.61
X-465.875 Y-199.031
X-466.865 Y-200.47
X-467.838 Y-201.927
X-468.793 Y-203.403
X-469.729 Y-204.896
X-470.646 Y-206.409
X-471.545 Y-207.939
X-472.424 Y-209.489
X-473.286 Y-211.058
X-474.128 Y-212.645
X-474.951 Y-214.251
X-475.755 Y-215.876
X-476.541 Y-217.52
X-477.306 Y-219.183
X-478.053 Y-220.866
X-478.779 Y-222.568
X-479.487 Y-224.291
X-480.175 Y-226.032
X-480.843 Y-227.793
X-481.492 Y-229.574
X-482.12 Y-231.375
X-482.729 Y-233.196
X-483.318 Y-235.037
X-483.888 Y-236.898
X-484.436 Y-238.78
X-484.965 Y-240.682
X-485.475 Y-242.604
X-485.963 Y-244.547
X-486.431 Y-246.51
X-486.879 Y-248.494
X-487.306 Y-250.498
X-487.714 Y-252.523
X-488.1 Y-254.57
X-488.465 Y-256.636
X-488.811 Y-258.725
X-489.136 Y-260.833
X-489.44 Y-262.962
X-489.723 Y-265.113
X-489.985 Y-267.285
X-490.227 Y-269.478
X-490.448 Y-271.691
X-490.647 Y-273.927
X-490.826 Y-276.183
X-490.984 Y-278.46
X-491.12 Y-280.76
X-491.237 Y-283.08
X-491.331 Y-285.421
X-491.406 Y-287.784
X-491.458 Y-290.168
X-491.489 Y-292.573
X-491.5 Y-295.007
G2 X-493 Y-296.5 I-1.5 J0.007
G1 X-505
G2 X-506.5 Y-295 J1.5
G1 Y-5
G2 X-505 Y-3.5 I1.5
G1 X-5
G2 X-3.5 Y-5 J-1.5
G1 Y-49.723
Y-198.263 Z-17 F283.3
Y-295 F850
G2 X-5 Y-296.5 I-1.5
G1 X-17
G2 X-18.5 Y-295.007 J1.5
G1 X-18.511 Y-292.573
X-18.542 Y-290.168
X-18.595 Y-287.784
X-18.669 Y-285.421
X-18.763 Y-283.08
X-18.879 Y-280.76
X-19.016 Y-278.46
X-19.174 Y-276.183
X-19.353 Y-273.927
X-19.553 Y-271.691
X-19.773 Y-269.478
X-20.015 Y-267.285
X-20.277 Y-265.113
X-20.56 Y-262.962
X-20.864 Y-260.833
X-21.189 Y-258.724
X-21.534 Y-256.636
X-21.9 Y-254.57
X-22.287 Y-252.523
X-22.693 Y-250.498
X-23.121 Y-248.494
X-23.569 Y-246.51
X-24.037 Y-244.547
X-24.526 Y-242.604
X-25.034 Y-240.682
X-25.563 Y-238.78
X-26.112 Y-236.898
X-26.681 Y-235.037
X-27.271 Y-233.197
X-27.88 Y-231.375
X-28.508 Y-229.574
X-29.157 Y-227.793
X-29.825 Y-226.032
X-30.513 Y-224.291
X-31.221 Y-222.568
X-31.948 Y-220.866
X-32.694 Y-219.183
X-33.46 Y-217.52
X-34.245 Y-215.876
X-35.049 Y-214.251
X-35.872 Y-212.645
X-36.714 Y-211.058
X-37.575 Y-209.489
X-38.455 Y-207.939
X-39.354 Y-206.409
X-40.271 Y-204.896
X-41.207 Y-203.403
X-42.162 Y-201.927
X-43.134 Y-200.47
X-44.126 Y-199.031
X-45.135 Y-197.609
X-46.163 Y-196.206
X-47.208 Y-194.82
X-48.272 Y-193.452
X-49.353 Y-192.101
X-50.453 Y-190.769
X-51.57 Y-189.453
X-52.704 Y-188.154
X-53.856 Y-186.873
X-55.026 Y-185.608
X-56.212 Y-184.36
X-57.416 Y-183.129
X-58.637 Y-181.915
X-59.875 Y-180.716
X-61.13 Y-179.535
X-62.402 Y-178.37
X-63.69 Y-177.221
X-64.995 Y-176.087
X-66.317 Y-174.971
X-67.655 Y-173.869
X-69.008 Y-172.783
X-70.378 Y-171.714
X-71.765 Y-170.659
X-73.167 Y-169.62
X-74.585 Y-168.596
X-76.018 Y-167.587
X-77.467 Y-166.594
X-78.931 Y-165.615
X-80.411 Y-164.652
X-81.906 Y-163.702
X-83.416 Y-162.768
X-84.941 Y-161.848
X-86.48 Y-160.942
X-88.035 Y-160.05
X-89.603 Y-159.173
X-91.186 Y-158.31
X-92.784 Y-157.461
X-94.395 Y-156.625
X-96.02 Y-155.804
X-97.66 Y-154.997
X-99.313 Y-154.202
X-100.98 Y-153.421
X-102.66 Y-152.653
X-104.353 Y-151.899
X-106.059 Y-151.159
X-107.778 Y-150.43
X-109.51 Y-149.715
X-111.255 Y-149.013
X-113.012 Y-148.323
X-114.782 Y-147.645
X-116.563 Y-146.982
X-118.358 Y-146.329
X-120.163 Y-145.689
X-121.981 Y-145.062
X-123.81 Y-144.446
X-125.651 Y-143.842
X-127.502 Y-143.251
X-129.365 Y-142.671
X-131.24 Y-142.103
X-133.125 Y-141.547
X-135.019 Y-141.002
X-136.925 Y-140.469
X-138.841 Y-139.947
X-140.768 Y-139.436
X-142.704 Y-138.937
X-144.651 Y-138.448
X-146.606 Y-137.97
X-148.572 Y-137.504
X-150.546 Y-137.049
X-152.53 Y-136.604
X-154.523 Y-136.169
X-156.525 Y-135.745
X-158.535 Y-135.331
X-160.553 Y-134.929
X-162.58 Y-134.536
X-164.615 Y-134.154
X-166.659 Y-133.781
X-168.709 Y-133.419
X-170.768 Y-133.067
X-172.833 Y-132.724
X-174.907 Y-132.393
X-176.986 Y-132.07
X-179.074 Y-131.757
X-181.167 Y-131.454
X-183.267 Y-131.16
X-185.374 Y-130.876
X-187.487 Y-130.601
X-189.603 Y-130.336
X-193.86 Y-129.833
X-198.136 Y-129.367
X-202.432 Y-128.938
X-206.747 Y-128.544
X-211.079 Y-128.186
X-215.426 Y-127.863
X-219.788 Y-127.576
X-224.162 Y-127.323
X-228.547 Y-127.103
X-232.941 Y-126.919
X-237.344 Y-126.767
X-241.752 Y-126.651
X-246.166 Y-126.567
X-250.582 Y-126.517
X-255 Y-126.5
X-259.418 Y-126.517
X-263.834 Y-126.567
X-268.248 Y-126.651
X-272.656 Y-126.767
X-277.059 Y-126.919
X-281.453 Y-127.103
X-285.838 Y-127.323
X-290.212 Y-127.576
X-294.574 Y-127.863
X-298.921 Y-128.186
X-303.253 Y-128.544
X-307.568 Y-128.938
X-311.864 Y-129.367
X-316.14 Y-129.833
X-320.397 Y-130.336
X-322.513 Y-130.601
X-324.626 Y-130.876
X-326.733 Y-131.16
X-328.833 Y-131.454
X-330.926 Y-131.757
X-333.014 Y-132.07
X-335.093 Y-132.393
X-337.167 Y-132.724
X-339.232 Y-133.067
X-341.291 Y-133.419
X-343.341 Y-133.781
X-345.385 Y-134.154
X-347.42 Y-134.536
X-349.447 Y-134.929
X-351.465 Y-135.331
X-353.475 Y-135.745
X-355.477 Y-136.169
X-357.47 Y-136.604
X-359.454 Y-137.049
X-361.428 Y-137.504
X-363.394 Y-137.97
X-365.349 Y-138.448
X-367.296 Y-138.937
X-369.232 Y-139.436
X-371.159 Y-139.947
X-373.075 Y-140.469
X-374.981 Y-141.002
X-376.875 Y-141.547
X-378.76 Y-142.103
X-380.635 Y-142.671
X-382.498 Y-143.251
X-384.349 Y-143.842
X-386.19 Y-144.446
X-388.019 Y-145.062
X-389.837 Y-145.689
X-391.642 Y-146.329
X-393.437 Y-146.982
X-395.218 Y-147.645
X-396.988 Y-148.323
X-398.745 Y-149.013
X-400.49 Y-149.715
X-402.222 Y-150.43
X-403.941 Y-151.159
X-405.647 Y-151.899
X-407.34 Y-152.653
X-409.02 Y-153.421
X-410.687 Y-154.202
X-412.34 Y-154.997
X-413.979 Y-155.804
X-415.604 Y-156.625
X-417.216 Y-157.461
X-418.814 Y-158.31
X-420.397 Y-159.173
X-421.966 Y-160.05
X-423.519 Y-160.942
X-425.059 Y-161.848
X-426.584 Y-162.768
X-428.094 Y-163.702
X-429.589 Y-164.652
X-431.069 Y-165.615
X-432.533 Y-166.594
X-433.982 Y-167.587
X-435.415 Y-168.596
X-436.833 Y-169.62
X-438.235 Y-170.659
X-439.621 Y-171.714
X-440.991 Y-172.783
X-442.345 Y-173.869
X-443.683 Y-174.971
X-445.005 Y-176.087
X-446.31 Y-177.221
X-447.598 Y-178.37
X-448.87 Y-179.535
X-450.124 Y-180.716
X-451.362 Y-181.915
X-452.584 Y-183.129
X-453.787 Y-184.36
X-454.975 Y-185.608
X-456.143 Y-186.873
X-457.295 Y-188.154
X-458.43 Y-189.453
X-459.548 Y-190.769
X-460.647 Y-192.101
X-461.728 Y-193.452
X-462.792 Y-194.82
X-463.837 Y-196.206
X-464.865 Y-197.61
X-465.875 Y-199.031
X-466.865 Y-200.47
X-467.838 Y-201.927
X-468.793 Y-203.403
X-469.729 Y-204.896
X-470.646 Y-206.409
X-471.545 Y-207.939
X-472.424 Y-209.489
X-473.286 Y-211.058
X-474.128 Y-212.645
X-474.951 Y-214.251
X-475.755 Y-215.876
X-476.541 Y-217.52
X-477.306 Y-219.183
X-478.053 Y-220.866
X-478.779 Y-222.568
X-479.487 Y-224.291
X-480.175 Y-226.032
X-480.843 Y-227.793
X-481.492 Y-229.574
X-482.12 Y-231.375
X-482.729 Y-233.196
X-483.318 Y-235.037
X-483.888 Y-236.898
X-484.436 Y-238.78
X-484.965 Y-240.682
X-485.475 Y-242.604
X-485.963 Y-244.547
X-486.431 Y-246.51
X-486.879 Y-248.494
X-487.306 Y-250.498
X-487.714 Y-252.523
X-488.1 Y-254.57
X-488.465 Y-256.636
X-488.811 Y-258.725
X-489.136 Y-260.833
X-489.44 Y-262.962
X-489.723 Y-265.113
X-489.985 Y-267.285
X-490.227 Y-269.478
X-490.448 Y-271.691
X-490.647 Y-273.927
X-490.826 Y-276.183
X-490.984 Y-278.46
X-491.12 Y-280.76
X-491.237 Y-283.08
X-491.331 Y-285.421
X-491.406 Y-287.784
X-491.458 Y-290.168
X-491.489 Y-292.573
X-491.5 Y-295.007
G2 X-493 Y-296.5 I-1.5 J0.007
G1 X-505
G2 X-506.5 Y-295 J1.5
G1 Y-5
G2 X-505 Y-3.5 I1.5
G1 X-5
G2 X-3.5 Y-5 J-1.5
G1 Y-198.263
G3 X-3.2 Y-198.563 I0.3
G1 X-2.9
G18 G2 X-2.6 Z-16.7 K0.3
G0 Z15
G17
M9
M30
%
