%
(1001)
(origin stock top)
(T1  D=3 CR=0 - ZMIN=-16 - flat end mill)
G90 G94
G17
G21

(2D Contour1)
M9
T1 M6
S12000 M3
G54
M9
G0 X-444.365 Y-3.5
Z15
Z5
G1 Z3 F283.3
Z2.5
X-401.55 Z-2
X-5 F850
G2 X-3.5 Y-5 J-1.5
G1 Y-505
G2 X-5 Y-506.5 I-1.5
G1 X-505
G2 X-506.5 Y-505 J1.5
G1 Y-5
G2 X-505 Y-3.5 I1.5
G1 X-401.55
X-66.646 Z-4 F283.3
X-5 F850
G2 X-3.5 Y-5 J-1.5
G1 Y-505
G2 X-5 Y-506.5 I-1.5
G1 X-505
G2 X-506.5 Y-505 J1.5
G1 Y-5
G2 X-505 Y-3.5 I1.5
G1 X-66.646
X-5 Z-4.368 F283.3
G2 X-3.5 Y-5 Z-4.382 J-1.5
G1 Y-275.902 Z-6
Y-505 F850
G2 X-5 Y-506.5 I-1.5
G1 X-505
G2 X-506.5 Y-505 J1.5
G1 Y-5
G2 X-505 Y-3.5 I1.5
G1 X-66.646
X-5
G2 X-3.5 Y-5 J-1.5
G1 Y-275.902
Y-505 Z-7.368 F283.3
G2 X-5 Y-506.5 Z-7.382 I-1.5
G1 X-108.45 Z-8
X-505 F850
G2 X-506.5 Y-505 J1.5
G1 Y-5
G2 X-505 Y-3.5 I1.5
G1 X-5
G2 X-3.5 Y-5 J-1.5
G1 Y-275.902
Y-505
G2 X-5 Y-506.5 I-1.5
G1 X-108.45
X-443.354 Z-10 F283.3
X-505 F850
G2 X-506.5 Y-505 J1.5
G1 Y-5
G2 X-505 Y-3.5 I1.5
G1 X-5
G2 X-3.5 Y-5 J-1.5
G1 Y-505
G2 X-5 Y-506.5 I-1.5
G1 X-443.354
X-505 Z-10.368 F283.3
G2 X-506.5 Y-505 Z-10.382 J1.5
G1 Y-234.098 Z-12
Y-5 F850
G2 X-505 Y-3.5 I1.5
G1 X-5
G2 X-3.5 Y-5 J-1.5
G1 Y-505
G2 X-5 Y-506.5 I-1.5
G1 X-443.354
X-505
G2 X-506.5 Y-505 J1.5
G1 Y-234.098
Y-5 Z-13.368 F283.3
G2 X-505 Y-3.5 Z-13.382 I1.5
G1 X-401.55 Z-14
X-5 F850
G2 X-3.5 Y-5 J-1.5
G1 Y-505
G2 X-5 Y-506.5 I-1.5
G1 X-505
G2 X-506.5 Y-505 J1.5
G1 Y-234.098
Y-5
G2 X-505 Y-3.5 I1.5
G1 X-401.55
X-66.646 Z-16 F283.3
X-5 F850
G2 X-3.5 Y-5 J-1.5
G1 Y-505
G2 X-5 Y-506.5 I-1.5
G1 X-505
G2 X-506.5 Y-505 J1.5
G1 Y-5
G2 X-505 Y-3.5 I1.5
G1 X-66.646
G3 X-66.346 Y-3.2 J0.3
G1 Y-2.9
G19 G3 Y-2.6 Z-15.7 K0.3
G0 Z5
X-506.6 Y-464.542
G1 Z3 F283.3
Z2.5
Y-505 Z-1.752
G17 G2 X-508.1 Y-506.5 Z-2 I-1.5
G1 X-798.1 F850
G2 X-799.6 Y-505 J1.5
G1 Y-5
G2 X-798.1 Y-3.5 I1.5
G1 X-508.1
G2 X-506.6 Y-5 J-1.5
G1 Y-505
G2 X-508.1 Y-506.5 I-1.5
G1 X-773.004 Z-4 F283.3
X-798.1 F850
G2 X-799.6 Y-505 J1.5
G1 Y-5
G2 X-798.1 Y-3.5 I1.5
G1 X-508.1
G2 X-506.6 Y-5 J-1.5
G1 Y-505
G2 X-508.1 Y-506.5 I-1.5
G1 X-773.004
X-798.1 Z-4.189 F283.3
G2 X-799.6 Y-505 Z-4.207 J1.5
G1 Y-267.548 Z-6
Y-5 F850
G2 X-798.1 Y-3.5 I1.5
G1 X-508.1
G2 X-506.6 Y-5 J-1.5
G1 Y-505
G2 X-508.1 Y-506.5 I-1.5
G1 X-773.004
X-798.1
G2 X-799.6 Y-505 J1.5
G1 Y-267.548
Y-5 Z-7.982 F283.3
G2 X-798.1 Y-3.5 Z-8 I1.5
G1 X-508.1 F850
G2 X-506.6 Y-5 J-1.5
G1 Y-505
G2 X-508.1 Y-506.5 I-1.5
G1 X-798.1
G2 X-799.6 Y-505 J1.5
G1 Y-5
G2 X-798.1 Y-3.5 I1.5
G1 X-533.196 Z-10 F283.3
X-508.1 F850
G2 X-506.6 Y-5 J-1.5
G1 Y-505
G2 X-508.1 Y-506.5 I-1.5
G1 X-798.1
G2 X-799.6 Y-505 J1.5
G1 Y-5
G2 X-798.1 Y-3.5 I1.5
G1 X-533.196
X-508.1 Z-10.189 F283.3
G2 X-506.6 Y-5 Z-10.207 J-1.5
G1 Y-242.452 Z-12
Y-505 F850
G2 X-508.1 Y-506.5 I-1.5
G1 X-798.1
G2 X-799.6 Y-505 J1.5
G1 Y-5
G2 X-798.1 Y-3.5 I1.5
G1 X-533.196
X-508.1
G2 X-506.6 Y-5 J-1.5
G1 Y-242.452
Y-505 Z-13.982 F283.3
G2 X-508.1 Y-506.5 Z-14 I-1.5
G1 X-798.1 F850
G2 X-799.6 Y-505 J1.5
G1 Y-5
G2 X-798.1 Y-3.5 I1.5
G1 X-508.1
G2 X-506.6 Y-5 J-1.5
G1 Y-505
G2 X-508.1 Y-506.5 I-1.5
G1 X-773.004 Z-16 F283.3
X-798.1 F850
G2 X-799.6 Y-505 J1.5
G1 Y-5
G2 X-798.1 Y-3.5 I1.5
G1 X-508.1
G2 X-506.6 Y-5 J-1.5
G1 Y-505
G2 X-508.1 Y-506.5 I-1.5
G1 X-773.004
G3 X-773.304 Y-506.8 J-0.3
G1 Y-507.1
G19 G2 Y-507.4 Z-15.7 K0.3
G0 Z15
G17
M9
M30
%
