%
(1001)
(z0 bottom)
(T1  D=12.7 CR=0 - ZMIN=0 - flat end mill)
G90 G94
G17
G21

(2D Adaptive3)
M9
T1 M6
S6000 M3
G54
M9
G0 X-369.295 Y-55.739
Z60
Z50
Z48.77
G1 Z47.5 F850
G3 X-380.705 Y-59.661 Z46.838 I-5.705 J-1.961 F283.3
X-369.295 Y-55.739 Z46.176 I5.705 J1.961
X-380.705 Y-59.661 Z45.515 I-5.705 J-1.961
X-379.485 Y-61.734 Z45.43 I5.705 J1.961
X-369.552 Y-60.29 Z45.016 I4.485 J4.034
X-380.448 Y-55.11 Z44.354 I-5.448 J2.59
X-369.552 Y-60.29 Z43.692 I5.448 J-2.59
X-380.448 Y-55.11 Z43.031 I-5.448 J2.59
X-381.027 Y-57.445 Z42.946 I5.448 J-2.59
X-368.973 Y-57.955 Z42.284 I6.027 J-0.255
X-370.572 Y-53.603 Z42.118 I-6.027 J0.255
X-380.484 Y-55.187 Z41.704 I-4.428 J-4.097
X-369.516 Y-60.213 Z41.042 I5.484 J-2.513
X-380.484 Y-55.187 Z40.38 I-5.484 J2.513
X-377.474 Y-63.202 Z40.048 I5.484 J-2.513
X-368.97 Y-57.87 Z39.634 I2.474 J5.502
X-377.16 Y-52.068 Z39.22 I-6.03 J0.17
X-372.839 Y-63.332 Z38.558 I2.161 J-5.632
X-377.16 Y-52.068 Z37.896 I-2.161 J5.632
X-372.839 Y-63.332 Z37.235 I2.161 J-5.632
X-377.16 Y-52.068 Z36.573 I-2.161 J5.632
X-372.839 Y-63.332 Z35.911 I2.161 J-5.632
X-377.16 Y-52.068 Z35.249 I-2.161 J5.632
X-372.839 Y-63.332 Z34.587 I2.161 J-5.632
X-377.16 Y-52.068 Z33.926 I-2.161 J5.632
X-372.839 Y-63.332 Z33.264 I2.161 J-5.632
X-368.967 Y-57.7 Z33.01 I-2.161 J5.632
X-381.032 I-6.033
X-374.307 Y-63.693 I6.033
X-369.244 Y-59.505 I-0.693 J5.993
X-368.967 Y-57.7 I-5.756 J1.805
G1 X-368.964 Y-57.377 F850
X-368.931 Y-57.056
X-368.691 Y-55.786
X-368.642 Y-55.632
X-368.599 Y-55.457
X-368.565 Y-55.262
X-368.541 Y-55.049
X-368.532 Y-54.818
X-368.538 Y-54.571
X-368.562 Y-54.308
X-368.605 Y-54.03
X-368.671 Y-53.74
X-368.761 Y-53.439
X-368.876 Y-53.13
X-369.017 Y-52.815
X-369.187 Y-52.497
X-369.385 Y-52.177
X-369.612 Y-51.86
X-369.869 Y-51.548
X-370.154 Y-51.244
X-370.469 Y-50.95
X-370.812 Y-50.671
X-371.181 Y-50.409
X-371.577 Y-50.166
X-371.996 Y-49.945
X-372.438 Y-49.748
X-372.9 Y-49.579
X-373.38 Y-49.438
X-373.875 Y-49.327
X-374.384 Y-49.249
X-374.903 Y-49.204
X-375.429 Y-49.193
X-375.96 Y-49.218
X-376.492 Y-49.278
X-377.024 Y-49.374
X-377.552 Y-49.506
X-378.073 Y-49.674
X-378.585 Y-49.878
X-379.085 Y-50.116
X-379.57 Y-50.387
X-380.038 Y-50.692
X-380.487 Y-51.028
X-380.913 Y-51.395
X-381.315 Y-51.79
X-381.692 Y-52.212
X-382.04 Y-52.659
X-382.358 Y-53.129
X-382.645 Y-53.62
X-382.9 Y-54.129
X-383.12 Y-54.656
X-383.305 Y-55.196
X-383.454 Y-55.748
X-383.566 Y-56.309
X-383.641 Y-56.877
X-383.678 Y-57.449
X-383.677 Y-58.023
X-383.638 Y-58.596
X-383.56 Y-59.165
X-383.446 Y-59.728
X-383.294 Y-60.282
X-383.105 Y-60.826
X-382.881 Y-61.356
X-382.623 Y-61.87
X-382.33 Y-62.366
X-382.005 Y-62.841
X-381.65 Y-63.294
X-381.265 Y-63.723
X-380.852 Y-64.125
X-380.414 Y-64.499
X-379.952 Y-64.843
X-379.468 Y-65.155
X-378.964 Y-65.435
X-378.442 Y-65.681
X-377.906 Y-65.892
X-377.356 Y-66.067
X-376.797 Y-66.205
X-376.229 Y-66.305
X-375.656 Y-66.368
X-375.079 Y-66.392
X-374.503 Y-66.378
X-373.929 Y-66.326
X-373.359 Y-66.237
X-372.797 Y-66.109
X-372.244 Y-65.944
X-371.703 Y-65.744
X-371.177 Y-65.507
X-370.668 Y-65.237
X-370.177 Y-64.933
X-369.708 Y-64.597
X-369.263 Y-64.231
X-368.842 Y-63.836
X-368.449 Y-63.414
X-368.084 Y-62.967
X-367.75 Y-62.497
X-367.448 Y-62.006
X-366.879 Y-60.926
X-366.433 Y-59.924
X-366.124 Y-59.085
X-365.904 Y-58.334
X-365.745 Y-57.624
X-365.642 Y-56.953
X-365.586 Y-56.307
X-365.573 Y-55.675
X-365.601 Y-55.055
X-365.67 Y-54.447
X-365.777 Y-53.851
X-365.924 Y-53.266
X-366.108 Y-52.692
X-366.331 Y-52.132
X-366.591 Y-51.585
X-366.889 Y-51.053
X-367.224 Y-50.538
X-367.595 Y-50.042
X-368.003 Y-49.567
X-368.446 Y-49.116
X-368.923 Y-48.69
X-369.433 Y-48.293
X-369.974 Y-47.926
X-370.544 Y-47.592
X-371.141 Y-47.294
X-371.763 Y-47.034
X-372.406 Y-46.814
X-373.068 Y-46.635
X-373.746 Y-46.499
X-374.437 Y-46.408
X-375.139 Y-46.362
X-375.847 Y-46.364
X-376.559 Y-46.412
X-377.27 Y-46.508
X-377.978 Y-46.652
X-378.68 Y-46.844
X-379.371 Y-47.084
X-380.048 Y-47.37
X-380.708 Y-47.702
X-381.348 Y-48.079
X-381.963 Y-48.499
X-382.551 Y-48.96
X-383.11 Y-49.461
X-383.635 Y-50
X-384.125 Y-50.574
X-384.576 Y-51.181
X-384.988 Y-51.817
X-385.357 Y-52.481
X-385.682 Y-53.169
X-385.96 Y-53.878
X-386.192 Y-54.606
X-386.375 Y-55.348
X-386.509 Y-56.101
X-386.592 Y-56.862
X-386.625 Y-57.628
X-386.607 Y-58.395
X-386.538 Y-59.16
X-386.418 Y-59.919
X-386.248 Y-60.669
X-386.029 Y-61.406
X-385.761 Y-62.128
X-385.446 Y-62.83
X-385.084 Y-63.511
X-384.679 Y-64.166
X-384.23 Y-64.793
X-383.741 Y-65.389
X-383.213 Y-65.951
X-382.649 Y-66.478
X-382.051 Y-66.965
X-381.422 Y-67.413
X-380.765 Y-67.817
X-380.082 Y-68.177
X-379.377 Y-68.491
X-378.652 Y-68.758
X-377.911 Y-68.976
X-377.157 Y-69.144
X-376.394 Y-69.262
X-375.625 Y-69.33
X-374.852 Y-69.346
X-374.081 Y-69.31
X-373.313 Y-69.224
X-372.552 Y-69.087
X-371.803 Y-68.9
X-371.067 Y-68.663
X-370.349 Y-68.378
X-369.651 Y-68.047
X-368.977 Y-67.669
X-368.329 Y-67.248
X-367.71 Y-66.785
X-367.06 Y-66.227
X-366.433 Y-65.612
X-365.8 Y-64.902
X-365.198 Y-64.13
X-364.647 Y-63.318
X-364.155 Y-62.478
X-363.727 Y-61.621
X-363.364 Y-60.755
X-363.065 Y-59.883
X-362.829 Y-59.01
X-362.655 Y-58.141
X-362.54 Y-57.277
X-362.485 Y-56.42
X-362.486 Y-55.57
X-362.543 Y-54.731
X-362.654 Y-53.902
X-362.82 Y-53.086
X-363.039 Y-52.284
X-363.31 Y-51.5
X-363.633 Y-50.735
X-364.007 Y-49.992
X-364.43 Y-49.273
X-364.902 Y-48.582
X-365.421 Y-47.92
X-365.985 Y-47.292
X-366.592 Y-46.699
X-367.242 Y-46.144
X-367.93 Y-45.631
X-368.656 Y-45.162
X-369.415 Y-44.74
X-370.206 Y-44.367
X-371.025 Y-44.044
X-371.868 Y-43.776
X-372.733 Y-43.562
X-373.615 Y-43.405
X-374.512 Y-43.307
X-375.418 Y-43.268
X-376.331 Y-43.289
X-377.245 Y-43.371
X-378.157 Y-43.515
X-379.062 Y-43.719
X-379.956 Y-43.985
X-380.833 Y-44.311
X-381.691 Y-44.695
X-382.525 Y-45.138
X-383.33 Y-45.636
X-384.103 Y-46.189
X-384.84 Y-46.793
X-385.538 Y-47.447
X-386.192 Y-48.148
X-386.799 Y-48.892
X-387.357 Y-49.677
X-387.863 Y-50.498
X-388.314 Y-51.353
X-388.708 Y-52.237
X-389.043 Y-53.147
X-389.318 Y-54.078
X-389.53 Y-55.026
X-389.679 Y-55.988
X-389.764 Y-56.958
X-389.784 Y-57.933
X-389.74 Y-58.908
X-389.631 Y-59.879
X-389.458 Y-60.84
X-389.221 Y-61.789
X-388.922 Y-62.721
X-388.561 Y-63.631
X-388.141 Y-64.515
X-387.663 Y-65.37
X-387.129 Y-66.192
X-386.541 Y-66.977
X-385.903 Y-67.721
X-385.216 Y-68.422
X-384.484 Y-69.076
X-383.71 Y-69.679
X-382.898 Y-70.231
X-382.051 Y-70.727
X-381.173 Y-71.166
X-380.267 Y-71.546
X-379.338 Y-71.865
X-378.39 Y-72.122
X-377.427 Y-72.315
X-376.453 Y-72.444
X-375.472 Y-72.508
X-374.489 Y-72.507
X-373.509 Y-72.441
X-372.535 Y-72.31
X-371.572 Y-72.115
X-370.623 Y-71.856
X-369.694 Y-71.535
X-368.775 Y-71.147
X-367.868 Y-70.691
X-366.971 Y-70.163
X-366.089 Y-69.562
X-365.236 Y-68.893
X-364.416 Y-68.158
X-363.636 Y-67.359
X-362.904 Y-66.503
X-362.227 Y-65.594
X-361.611 Y-64.642
X-361.061 Y-63.654
X-360.581 Y-62.637
X-360.172 Y-61.599
X-359.836 Y-60.545
X-359.572 Y-59.48
X-359.382 Y-58.409
X-359.264 Y-57.335
X-359.217 Y-56.262
X-359.242 Y-55.194
X-359.337 Y-54.135
X-359.501 Y-53.087
X-359.734 Y-52.055
X-360.035 Y-51.042
X-360.402 Y-50.051
X-360.834 Y-49.087
X-361.33 Y-48.152
X-361.888 Y-47.251
X-362.505 Y-46.386
X-363.181 Y-45.563
X-363.911 Y-44.783
X-364.695 Y-44.052
X-365.528 Y-43.371
X-366.408 Y-42.745
X-367.331 Y-42.176
X-368.294 Y-41.667
X-369.294 Y-41.221
X-370.325 Y-40.841
X-371.385 Y-40.529
X-372.467 Y-40.286
X-373.569 Y-40.115
X-374.685 Y-40.017
X-375.81 Y-39.993
X-376.939 Y-40.044
X-378.067 Y-40.17
X-379.189 Y-40.372
X-380.301 Y-40.649
X-381.395 Y-41
X-382.468 Y-41.425
X-383.514 Y-41.921
X-384.528 Y-42.488
X-385.505 Y-43.123
X-386.44 Y-43.823
X-387.329 Y-44.585
X-388.168 Y-45.407
X-388.952 Y-46.284
X-389.678 Y-47.214
X-390.342 Y-48.191
X-390.94 Y-49.212
X-391.471 Y-50.272
X-391.93 Y-51.367
X-392.316 Y-52.491
X-392.628 Y-53.64
X-392.863 Y-54.808
X-393.02 Y-55.99
X-393.098 Y-57.181
X-393.097 Y-58.376
X-393.017 Y-59.569
X-392.857 Y-60.755
X-392.62 Y-61.928
X-392.305 Y-63.084
X-391.913 Y-64.217
X-391.447 Y-65.322
X-390.909 Y-66.394
X-390.301 Y-67.428
X-389.625 Y-68.42
X-388.884 Y-69.366
X-388.083 Y-70.26
X-387.223 Y-71.1
X-386.31 Y-71.881
X-385.346 Y-72.599
X-384.337 Y-73.253
X-383.286 Y-73.838
X-382.199 Y-74.352
X-381.08 Y-74.793
X-379.934 Y-75.159
X-378.766 Y-75.448
X-377.582 Y-75.659
X-376.386 Y-75.791
X-375.184 Y-75.843
X-373.98 Y-75.816
X-372.782 Y-75.709
X-371.589 Y-75.522
X-370.406 Y-75.255
X-369.233 Y-74.907
X-368.072 Y-74.477
X-366.928 Y-73.965
X-365.808 Y-73.371
X-364.716 Y-72.696
X-363.664 Y-71.945
X-362.664 Y-71.127
X-361.72 Y-70.245
X-360.835 Y-69.304
X-360.012 Y-68.307
X-359.255 Y-67.261
X-358.565 Y-66.168
X-357.948 Y-65.033
X-357.404 Y-63.861
X-356.938 Y-62.656
X-356.55 Y-61.423
X-356.243 Y-60.168
X-356.019 Y-58.896
X-355.879 Y-57.611
X-355.824 Y-56.32
X-355.854 Y-55.029
X-355.97 Y-53.743
X-356.17 Y-52.471
X-356.454 Y-51.215
X-356.82 Y-49.982
X-357.268 Y-48.776
X-357.794 Y-47.602
X-358.398 Y-46.464
X-359.077 Y-45.367
X-359.828 Y-44.316
X-360.647 Y-43.318
X-361.531 Y-42.375
X-362.475 Y-41.493
X-363.475 Y-40.675
X-364.527 Y-39.924
X-365.626 Y-39.244
X-366.766 Y-38.637
X-367.944 Y-38.106
X-369.154 Y-37.652
X-370.39 Y-37.277
X-371.648 Y-36.983
X-372.923 Y-36.77
X-374.208 Y-36.64
X-375.499 Y-36.591
X-376.791 Y-36.624
X-378.078 Y-36.738
X-379.355 Y-36.934
X-380.618 Y-37.208
X-381.861 Y-37.561
X-383.079 Y-37.991
X-384.269 Y-38.494
X-385.425 Y-39.071
X-386.544 Y-39.717
X-387.621 Y-40.431
X-388.651 Y-41.211
X-389.631 Y-42.053
X-390.557 Y-42.954
X-391.427 Y-43.91
X-392.236 Y-44.917
X-392.982 Y-45.972
X-393.663 Y-47.07
X-394.276 Y-48.207
X-394.82 Y-49.379
X-395.292 Y-50.582
X-395.691 Y-51.811
X-396.014 Y-53.062
X-396.261 Y-54.33
X-396.429 Y-55.611
X-396.52 Y-56.9
X-396.532 Y-58.192
X-396.467 Y-59.483
X-396.325 Y-60.767
X-396.105 Y-62.04
X-395.811 Y-63.298
X-395.441 Y-64.536
X-394.999 Y-65.75
X-394.484 Y-66.935
X-393.897 Y-68.086
X-393.242 Y-69.2
X-392.522 Y-70.272
X-391.738 Y-71.299
X-390.893 Y-72.278
X-389.993 Y-73.204
X-389.038 Y-74.075
X-388.034 Y-74.887
X-386.983 Y-75.639
X-385.888 Y-76.326
X-384.754 Y-76.945
X-383.585 Y-77.495
X-382.385 Y-77.973
X-381.158 Y-78.378
X-379.909 Y-78.709
X-378.642 Y-78.965
X-377.363 Y-79.145
X-376.075 Y-79.249
X-374.783 Y-79.277
X-373.492 Y-79.227
X-372.207 Y-79.1
X-370.931 Y-78.895
X-369.67 Y-78.614
X-368.427 Y-78.26
X-367.207 Y-77.834
X-366.014 Y-77.339
X-364.85 Y-76.777
X-363.721 Y-76.149
X-362.63 Y-75.457
X-361.58 Y-74.704
X-360.574 Y-73.893
X-359.615 Y-73.028
X-358.704 Y-72.111
X-357.845 Y-71.147
X-357.04 Y-70.136
X-356.293 Y-69.082
X-355.606 Y-67.987
X-354.98 Y-66.857
X-354.417 Y-65.694
X-353.918 Y-64.502
X-353.484 Y-63.285
X-353.12 Y-62.046
X-352.826 Y-60.787
X-352.603 Y-59.515
X-352.452 Y-58.231
X-352.371 Y-56.942
X-352.362 Y-55.65
X-352.425 Y-54.359
X-352.562 Y-53.075
X-352.771 Y-51.8
X-353.053 Y-50.539
X-353.405 Y-49.295
X-353.826 Y-48.074
X-354.313 Y-46.877
X-354.868 Y-45.71
X-355.489 Y-44.577
X-356.173 Y-43.481
X-356.918 Y-42.426
X-357.721 Y-41.413
X-358.578 Y-40.447
X-359.488 Y-39.529
X-360.448 Y-38.664
X-361.456 Y-37.856
X-362.508 Y-37.105
X-363.599 Y-36.414
X-364.727 Y-35.784
X-365.888 Y-35.217
X-367.078 Y-34.714
X-368.295 Y-34.278
X-369.534 Y-33.912
X-370.791 Y-33.614
X-372.063 Y-33.385
X-373.345 Y-33.225
X-374.633 Y-33.134
X-375.925 Y-33.113
X-377.216 Y-33.162
X-378.503 Y-33.283
X-379.781 Y-33.472
X-381.047 Y-33.729
X-382.298 Y-34.053
X-383.53 Y-34.443
X-384.74 Y-34.896
X-385.923 Y-35.414
X-387.077 Y-35.996
X-388.198 Y-36.638
X-389.284 Y-37.338
X-390.332 Y-38.095
X-391.338 Y-38.905
X-392.301 Y-39.767
X-393.216 Y-40.679
X-394.081 Y-41.638
X-394.895 Y-42.642
X-395.655 Y-43.687
X-396.36 Y-44.769
X-397.009 Y-45.887
X-397.599 Y-47.036
X-398.128 Y-48.215
X-398.594 Y-49.42
X-398.995 Y-50.648
X-399.332 Y-51.896
X-399.605 Y-53.159
X-399.812 Y-54.434
X-399.953 Y-55.718
X-400.027 Y-57.008
X-400.032 Y-58.3
X-399.97 Y-59.591
X-399.842 Y-60.877
X-399.648 Y-62.154
X-399.389 Y-63.42
X-399.066 Y-64.671
X-398.679 Y-65.903
X-398.226 Y-67.114
X-397.711 Y-68.299
X-397.135 Y-69.455
X-396.501 Y-70.581
X-395.81 Y-71.673
X-395.064 Y-72.728
X-394.265 Y-73.743
X-393.414 Y-74.715
X-392.513 Y-75.641
X-391.566 Y-76.52
X-390.575 Y-77.349
X-389.543 Y-78.127
X-388.473 Y-78.851
X-387.366 Y-79.518
X-386.226 Y-80.126
X-385.056 Y-80.674
X-383.859 Y-81.161
X-382.639 Y-81.585
X-381.399 Y-81.947
X-380.142 Y-82.246
X-378.871 Y-82.481
X-377.59 Y-82.648
X-376.302 Y-82.748
X-375.01 Y-82.782
X-373.719 Y-82.75
X-372.43 Y-82.651
X-371.149 Y-82.488
X-369.877 Y-82.26
X-368.618 Y-81.967
X-367.377 Y-81.61
X-366.154 Y-81.192
X-364.954 Y-80.712
X-363.78 Y-80.174
X-362.633 Y-79.578
X-361.517 Y-78.927
X-360.434 Y-78.223
X-359.388 Y-77.465
X-358.38 Y-76.657
X-357.412 Y-75.801
X-356.486 Y-74.899
X-355.605 Y-73.954
X-354.77 Y-72.968
X-353.983 Y-71.943
X-353.247 Y-70.882
X-352.563 Y-69.786
X-351.932 Y-68.658
X-351.357 Y-67.501
X-350.837 Y-66.318
X-350.374 Y-65.112
X-349.97 Y-63.885
X-349.625 Y-62.639
X-349.341 Y-61.379
X-349.12 Y-60.106
X-348.96 Y-58.824
X-348.862 Y-57.535
X-348.827 Y-56.244
X-348.854 Y-54.952
X-348.943 Y-53.663
X-348.975 Y-53.393
X-349.001 Y-53.219
X-349.035 Y-53.047
X-349.079 Y-52.877
X-349.146 Y-52.641
X-349.828 Y-49.978
X-349.959 Y-49.598
X-350.234 Y-48.837
X-350.543 Y-48.016
X-350.669 Y-47.696
X-350.979 Y-46.935
X-351.162 Y-46.555
X-351.935 Y-45.033
X-352.067 Y-44.778
X-352.605 Y-43.892
X-352.853 Y-43.512
X-353.602 Y-42.371
X-353.884 Y-41.99
X-353.971 Y-41.876
X-354.178 Y-41.61
X-354.806 Y-40.849
X-355.123 Y-40.469
X-355.494 Y-40.026
X-355.774 Y-39.708
X-357.018 Y-38.503
X-357.743 Y-37.806
X-357.779 Y-37.774
X-358.922 Y-36.886
X-359.697 Y-36.285
X-360.064 Y-36.032
X-360.826 Y-35.54
X-362.349 Y-34.606
X-362.73 Y-34.408
X-364.634 Y-33.51
X-365.015 Y-33.338
X-365.777 Y-33.063
X-366.158 Y-32.928
X-367.464 Y-32.481
X-367.681 Y-32.415
X-368.062 Y-32.302
X-369.966 Y-31.876
X-370.347 Y-31.803
X-371.109 Y-31.671
X-371.49 Y-31.627
X-373.013 Y-31.459
X-373.394 Y-31.433
X-374.156 Y-31.402
X-374.536 Y-31.399
X-376.06
X-376.441 Y-31.414
X-376.822 Y-31.444
X-377.202 Y-31.483
X-378.345 Y-31.609
X-379.107 Y-31.695
X-379.323 Y-31.72
X-379.487 Y-31.753
X-381.392 Y-32.179
X-382.153 Y-32.374
X-382.537 Y-32.481
X-384.438 Y-33.132
X-384.711 Y-33.242
X-385.2 Y-33.442
X-385.602 Y-33.622
X-387.485 Y-34.51
X-387.907 Y-34.763
X-389.389 Y-35.672
X-389.746 Y-35.904
X-390.532 Y-36.469
X-390.793 Y-36.665
X-391.773 Y-37.426
X-392.055 Y-37.652
X-392.652 Y-38.186
X-392.817 Y-38.342
X-393.96 Y-39.45
X-394.217 Y-39.708
X-394.721 Y-40.281
X-394.879 Y-40.469
X-395.864 Y-41.66
X-396.104 Y-41.99
X-396.625 Y-42.718
X-396.648 Y-42.751
X-397.147 Y-43.512
X-397.393 Y-43.892
X-397.768 Y-44.482
X-397.871 Y-44.653
X-398.911 Y-46.696
X-399.021 Y-46.935
X-399.331 Y-47.696
X-399.479 Y-48.076
X-399.766 Y-48.837
X-399.908 Y-49.217
X-400.053 Y-49.626
X-400.172 Y-49.978
X-400.854 Y-52.641
X-400.962 Y-53.021
X-401.086 Y-53.401
X-401.196 Y-53.73
X-401.591 Y-54.542
X-401.614 Y-54.577
X-401.69 Y-54.707
X-401.946 Y-55.242
X-402.184 Y-55.839
X-402.417 Y-56.557
X-402.613 Y-57.337
X-402.665 Y-57.619
X-402.716 Y-58.07
X-402.704 Y-58.524
X-402.63 Y-58.971
X-402.495 Y-59.405
X-402.303 Y-59.816
X-402.055 Y-60.196
G3 X-401.674 Y-60.513 I0.987 J0.799
X-399.807 Y-59.549 I0.607 J1.116
G1 X-399.315 Y-55.461
G3 X-401.614 Y-54.577 I-1.261 J0.152
G1 X-401.84 Y-54.923
X-402.114 Y-55.303
X-402.338 Y-55.563
X-402.446 Y-55.684
X-402.719 Y-55.958
X-402.831 Y-56.064
X-403.1 Y-56.291
X-403.213 Y-56.389
X-403.341 Y-56.518
X-403.368 Y-56.548
X-403.575 Y-56.843
X-403.718 Y-57.173
X-403.791 Y-57.525
Y-57.885
X-403.717 Y-58.237
X-403.572 Y-58.567
X-403.364 Y-58.861
X-403.1 Y-59.105
G3 X-402.678 Y-59.367 I1.116 J1.325
X-400.633 Y-58.864 I0.693 J1.587
X-402.662 Y-56.054 I-1.402 J1.125
X-403.1 Y-56.291 I0.627 J-1.685
G1 X-403.294 Y-56.444
X-403.481 Y-56.583
X-403.633 Y-56.688
X-403.786 Y-56.825
X-403.862 Y-56.912
X-403.962 Y-57.058
X-404.035 Y-57.205
X-404.099 Y-57.395
X-404.131 Y-57.585
X-404.134 Y-57.776
X-404.108 Y-57.966
X-404.051 Y-58.156
X-403.959 Y-58.346
X-403.862 Y-58.488
X-403.738 Y-58.624
X-403.614 Y-58.727
X-403.54 Y-58.777
X-403.53 Y-58.783
G2 X-403.296 Y-58.899 I-1.207 J-2.732
X-403.109 Y-59.025 I-0.612 J-1.113
X-403.031 Y-59.093 I-0.799 J-0.987
G1 X-402.395 Y-59.701
G2 X-402.323 Y-59.775 I-0.877 J-0.918
X-402.189 Y-59.956 I-0.948 J-0.845
X-402.063 Y-60.184 I-2.548 J-1.559
G1 X-402.057 Y-60.194
X-401.733 Y-60.628
X-401.576 Y-60.91
X-401.326 Y-61.389
X-401.196 Y-61.691
X-401.033 Y-62.15
X-400.912 Y-62.53
X-400.231 Y-65.193
X-400.111 Y-65.573
X-399.984 Y-65.954
X-399.852 Y-66.334
X-399.422 Y-67.475
X-399.131 Y-68.236
X-398.955 Y-68.616
X-397.988 Y-70.518
X-397.781 Y-70.899
X-397.542 Y-71.279
X-397.387 Y-71.522
X-396.798 Y-72.42
X-396.54 Y-72.8
X-396.245 Y-73.232
X-396.011 Y-73.561
X-394.44 Y-75.463
X-394.34 Y-75.577
X-393.579 Y-76.32
X-392.817 Y-77.058
X-392.436 Y-77.425
X-392.068 Y-77.745
X-390.913 Y-78.642
X-390.593 Y-78.886
X-389.77 Y-79.479
X-389.521 Y-79.647
X-387.66 Y-80.788
X-387.485 Y-80.884
X-386.723 Y-81.249
X-386.343 Y-81.429
X-385.581 Y-81.788
X-385.2 Y-81.951
X-384.819 Y-82.111
X-384.438 Y-82.268
X-382.534 Y-82.92
X-382.153 Y-83.026
X-381.392 Y-83.221
X-379.487 Y-83.647
X-379.107 Y-83.705
X-378.345 Y-83.791
X-377.583 Y-83.875
X-377.202 Y-83.915
X-376.441 Y-83.984
X-376.06 Y-84.001
X-374.536
X-374.156 Y-83.998
X-373.394 Y-83.967
X-373.013 Y-83.941
X-371.49 Y-83.773
X-371.109 Y-83.729
X-370.347 Y-83.597
X-369.966 Y-83.524
X-368.062 Y-83.098
X-367.968 Y-83.071
X-367.3 Y-82.857
X-366.92 Y-82.733
X-366.158 Y-82.472
X-365.701 Y-82.31
X-365.015 Y-82.062
X-364.719 Y-81.929
X-363.104 Y-81.169
X-362.73 Y-80.981
X-362.349 Y-80.778
X-361.969 Y-80.561
X-360.826 Y-79.86
X-360.481 Y-79.647
X-359.906 Y-79.267
X-359.683 Y-79.105
X-357.779 Y-77.626
X-357.502 Y-77.365
X-357.018 Y-76.898
X-355.875 Y-75.79
X-355.56 Y-75.463
X-353.971 Y-73.539
X-353.708 Y-73.181
X-353.59 Y-73.012
X-352.703 Y-71.659
X-352.465 Y-71.279
X-352.02 Y-70.518
X-351.819 Y-70.138
X-351.045 Y-68.616
X-350.924 Y-68.375
X-350.869 Y-68.236
X-350.543 Y-67.384
X-350.148 Y-66.334
X-349.89 Y-65.573
X-349.781 Y-65.24
X-349.283 Y-63.291
X-349.086 Y-62.53
X-349.02 Y-62.299
X-348.832 Y-61.77
X-348.686 Y-61.389
X-348.639 Y-61.291
X-348.485 Y-61.009
X-348.258 Y-60.625
X-347.877 Y-60.092
X-347.846 Y-60.055
X-347.674 Y-59.827
X-347.435 Y-59.461
X-347.177 Y-59.003
X-347.106 Y-58.856
X-346.952 Y-58.461
X-346.856 Y-58.048
X-346.823 Y-57.625
X-346.851 Y-57.202
X-346.942 Y-56.787
X-347.092 Y-56.39
X-347.298 Y-56.02
X-347.557 Y-55.684
G3 X-347.957 Y-55.391 I-0.935 J-0.86
X-349.754 Y-56.401 I-0.534 J-1.152
G1 X-350.054 Y-59.065
G3 X-347.846 Y-60.055 I1.262 J-0.142
G1 X-347.69 Y-59.868
X-347.116 Y-59.301
X-346.907 Y-59.107
X-346.735 Y-58.975
X-346.63 Y-58.9
X-346.482 Y-58.783
X-346.268 Y-58.541
X-346.113 Y-58.258
X-346.023 Y-57.947
X-346.003 Y-57.625
X-346.055 Y-57.306
X-346.175 Y-57.006
X-346.358 Y-56.74
X-346.595 Y-56.521
G3 X-347.045 Y-56.313 I-0.83 J-1.208
X-347.404 Y-56.263 I-0.38 J-1.415
X-348.854 Y-57.862 I-0.021 J-1.438
X-347.084 Y-59.099 I1.429 J0.161
X-346.63 Y-58.9 I-0.34 J1.398
G1 X-346.387 Y-58.727
X-346.354 Y-58.701
X-346.263 Y-58.621
X-346.171 Y-58.524
X-346.046 Y-58.346
X-345.973 Y-58.2
X-345.93 Y-58.083
X-345.9 Y-57.966
X-345.875 Y-57.776
X-345.877 Y-57.585
X-345.908 Y-57.395
X-345.97 Y-57.205
X-345.973 Y-57.199
X-346.071 Y-57.012
X-346.137 Y-56.918
X-346.217 Y-56.825
X-346.354 Y-56.699
X-346.543 Y-56.559
X-346.619 Y-56.52 Z33.018
X-346.693 Y-56.481 Z33.04
X-346.762 Y-56.446 Z33.076
X-346.825 Y-56.413 Z33.125
X-346.885 Y-56.396 Z33.186
X-346.933 Y-56.382 Z33.258
X-346.969 Y-56.372 Z33.337
X-346.991 Y-56.365 Z33.421
X-346.998 Y-56.363 Z33.509
G0 Z50
X-119.294 Y-55.739
Z48.77
G1 Z47.5 F850
G3 X-130.704 Y-59.661 Z46.838 I-5.705 J-1.961 F283.3
X-119.294 Y-55.739 Z46.176 I5.705 J1.961
X-130.704 Y-59.661 Z45.515 I-5.705 J-1.961
X-119.294 Y-55.739 Z44.853 I5.705 J1.961
X-130.704 Y-59.661 Z44.191 I-5.705 J-1.961
X-119.294 Y-55.739 Z43.529 I5.705 J1.961
X-130.704 Y-59.661 Z42.867 I-5.705 J-1.961
X-119.294 Y-55.739 Z42.206 I5.705 J1.961
X-130.704 Y-59.661 Z41.544 I-5.705 J-1.961
X-119.294 Y-55.739 Z40.882 I5.705 J1.961
X-130.704 Y-59.661 Z40.22 I-5.705 J-1.961
X-119.294 Y-55.739 Z39.558 I5.705 J1.961
X-130.704 Y-59.661 Z38.897 I-5.705 J-1.961
X-119.294 Y-55.739 Z38.235 I5.705 J1.961
X-130.704 Y-59.661 Z37.573 I-5.705 J-1.961
X-119.294 Y-55.739 Z36.911 I5.705 J1.961
X-130.704 Y-59.661 Z36.249 I-5.705 J-1.961
X-119.294 Y-55.739 Z35.587 I5.705 J1.961
X-130.704 Y-59.661 Z34.926 I-5.705 J-1.961
X-119.294 Y-55.739 Z34.264 I5.705 J1.961
X-130.704 Y-59.661 Z33.602 I-5.705 J-1.961
X-118.967 Y-57.7 Z33.01 I5.705 J1.961
X-131.032 I-6.033
X-119.243 Y-59.505 I6.032
X-118.967 Y-57.7 I-5.756 J1.805
G1 X-118.963 Y-57.377 F850
X-118.931 Y-57.056
X-118.69 Y-55.786
X-118.642 Y-55.632
X-118.598 Y-55.456
X-118.564 Y-55.262
X-118.541 Y-55.049
X-118.531 Y-54.818
X-118.537 Y-54.571
X-118.561 Y-54.308
X-118.605 Y-54.03
X-118.671 Y-53.74
X-118.76 Y-53.439
X-118.875 Y-53.13
X-119.017 Y-52.815
X-119.186 Y-52.496
X-119.384 Y-52.177
X-119.611 Y-51.86
X-119.868 Y-51.548
X-120.154 Y-51.244
X-120.468 Y-50.95
X-120.811 Y-50.671
X-121.181 Y-50.409
X-121.576 Y-50.166
X-121.996 Y-49.945
X-122.437 Y-49.748
X-122.899 Y-49.578
X-123.379 Y-49.438
X-123.875 Y-49.327
X-124.383 Y-49.249
X-124.902 Y-49.204
X-125.428 Y-49.193
X-125.959 Y-49.218
X-126.492 Y-49.278
X-127.024 Y-49.374
X-127.552 Y-49.506
X-128.073 Y-49.674
X-128.585 Y-49.877
X-129.085 Y-50.115
X-129.57 Y-50.387
X-130.038 Y-50.692
X-130.486 Y-51.028
X-130.912 Y-51.395
X-131.315 Y-51.79
X-131.691 Y-52.212
X-132.039 Y-52.659
X-132.358 Y-53.129
X-132.645 Y-53.62
X-132.899 Y-54.129
X-133.119 Y-54.655
X-133.304 Y-55.196
X-133.453 Y-55.748
X-133.565 Y-56.309
X-133.64 Y-56.877
X-133.677 Y-57.449
X-133.676 Y-58.023
X-133.637 Y-58.596
X-133.56 Y-59.165
X-133.445 Y-59.728
X-133.293 Y-60.282
X-133.105 Y-60.826
X-132.881 Y-61.356
X-132.622 Y-61.87
X-132.33 Y-62.366
X-132.005 Y-62.841
X-131.649 Y-63.294
X-131.264 Y-63.723
X-130.852 Y-64.125
X-130.413 Y-64.499
X-129.951 Y-64.843
X-129.467 Y-65.155
X-128.963 Y-65.435
X-128.442 Y-65.681
X-127.905 Y-65.892
X-127.356 Y-66.067
X-126.796 Y-66.204
X-126.228 Y-66.305
X-125.655 Y-66.368
X-125.079 Y-66.392
X-124.502 Y-66.378
X-123.928 Y-66.326
X-123.358 Y-66.236
X-122.796 Y-66.109
X-122.243 Y-65.944
X-121.703 Y-65.743
X-121.176 Y-65.507
X-120.667 Y-65.237
X-120.177 Y-64.933
X-119.708 Y-64.597
X-119.262 Y-64.231
X-118.842 Y-63.836
X-118.448 Y-63.414
X-118.084 Y-62.967
X-117.75 Y-62.497
X-117.447 Y-62.006
X-116.878 Y-60.925
X-116.433 Y-59.924
X-116.124 Y-59.084
X-115.903 Y-58.334
X-115.745 Y-57.624
X-115.641 Y-56.953
X-115.585 Y-56.307
X-115.572 Y-55.675
X-115.601 Y-55.055
X-115.669 Y-54.447
X-115.777 Y-53.851
X-115.923 Y-53.266
X-116.108 Y-52.692
X-116.33 Y-52.132
X-116.59 Y-51.585
X-116.888 Y-51.053
X-117.223 Y-50.538
X-117.595 Y-50.042
X-118.003 Y-49.567
X-118.446 Y-49.116
X-118.923 Y-48.69
X-119.433 Y-48.293
X-119.974 Y-47.926
X-120.544 Y-47.592
X-121.141 Y-47.294
X-121.762 Y-47.034
X-122.405 Y-46.814
X-123.067 Y-46.635
X-123.745 Y-46.499
X-124.437 Y-46.408
X-125.138 Y-46.362
X-125.846 Y-46.364
X-126.558 Y-46.412
X-127.27 Y-46.508
X-127.978 Y-46.652
X-128.679 Y-46.844
X-129.37 Y-47.083
X-130.048 Y-47.37
X-130.708 Y-47.702
X-131.347 Y-48.079
X-131.962 Y-48.499
X-132.551 Y-48.96
X-133.109 Y-49.461
X-133.634 Y-50
X-134.124 Y-50.574
X-134.576 Y-51.181
X-134.987 Y-51.817
X-135.356 Y-52.481
X-135.681 Y-53.169
X-135.96 Y-53.878
X-136.191 Y-54.606
X-136.374 Y-55.347
X-136.508 Y-56.101
X-136.591 Y-56.862
X-136.624 Y-57.628
X-136.606 Y-58.395
X-136.537 Y-59.16
X-136.417 Y-59.919
X-136.248 Y-60.669
X-136.028 Y-61.406
X-135.76 Y-62.128
X-135.445 Y-62.83
X-135.084 Y-63.511
X-134.678 Y-64.166
X-134.23 Y-64.793
X-133.74 Y-65.389
X-133.213 Y-65.951
X-132.648 Y-66.478
X-132.051 Y-66.965
X-131.422 Y-67.413
X-130.764 Y-67.817
X-130.081 Y-68.177
X-129.376 Y-68.491
X-128.651 Y-68.758
X-127.911 Y-68.976
X-127.157 Y-69.144
X-126.394 Y-69.262
X-125.624 Y-69.33
X-124.852 Y-69.346
X-124.08 Y-69.31
X-123.312 Y-69.224
X-122.552 Y-69.087
X-121.802 Y-68.9
X-121.067 Y-68.663
X-120.348 Y-68.378
X-119.65 Y-68.047
X-118.976 Y-67.669
X-118.328 Y-67.248
X-117.71 Y-66.785
X-117.06 Y-66.227
X-116.433 Y-65.612
X-115.799 Y-64.902
X-115.197 Y-64.13
X-114.647 Y-63.318
X-114.155 Y-62.478
X-113.727 Y-61.621
X-113.363 Y-60.755
X-113.064 Y-59.882
X-112.828 Y-59.01
X-112.654 Y-58.14
X-112.54 Y-57.277
X-112.484 Y-56.42
X-112.485 Y-55.57
X-112.542 Y-54.731
X-112.654 Y-53.902
X-112.82 Y-53.086
X-113.039 Y-52.284
X-113.31 Y-51.5
X-113.633 Y-50.735
X-114.006 Y-49.992
X-114.43 Y-49.273
X-114.901 Y-48.582
X-115.42 Y-47.92
X-115.984 Y-47.292
X-116.592 Y-46.699
X-117.241 Y-46.144
X-117.93 Y-45.631
X-118.655 Y-45.162
X-119.415 Y-44.74
X-120.205 Y-44.366
X-121.024 Y-44.044
X-121.867 Y-43.776
X-122.732 Y-43.562
X-123.615 Y-43.405
X-124.511 Y-43.307
X-125.418 Y-43.268
X-126.33 Y-43.289
X-127.245 Y-43.371
X-128.157 Y-43.515
X-129.061 Y-43.719
X-129.955 Y-43.985
X-130.833 Y-44.31
X-131.691 Y-44.695
X-132.524 Y-45.138
X-133.33 Y-45.636
X-134.103 Y-46.189
X-134.84 Y-46.793
X-135.537 Y-47.447
X-136.191 Y-48.148
X-136.799 Y-48.892
X-137.357 Y-49.677
X-137.863 Y-50.498
X-138.314 Y-51.353
X-138.708 Y-52.237
X-139.043 Y-53.147
X-139.317 Y-54.078
X-139.529 Y-55.026
X-139.678 Y-55.988
X-139.763 Y-56.958
X-139.784 Y-57.933
X-139.739 Y-58.908
X-139.63 Y-59.879
X-139.457 Y-60.84
X-139.221 Y-61.789
X-138.921 Y-62.721
X-138.561 Y-63.631
X-138.141 Y-64.515
X-137.662 Y-65.37
X-137.128 Y-66.192
X-136.541 Y-66.977
X-135.902 Y-67.721
X-135.215 Y-68.422
X-134.484 Y-69.076
X-133.71 Y-69.679
X-132.898 Y-70.231
X-132.05 Y-70.727
X-131.172 Y-71.166
X-130.266 Y-71.546
X-129.337 Y-71.865
X-128.389 Y-72.122
X-127.426 Y-72.315
X-126.452 Y-72.444
X-125.471 Y-72.508
X-124.489 Y-72.507
X-123.508 Y-72.441
X-122.534 Y-72.31
X-121.571 Y-72.115
X-120.623 Y-71.856
X-119.694 Y-71.535
X-118.774 Y-71.147
X-117.868 Y-70.691
X-116.97 Y-70.163
X-116.089 Y-69.562
X-115.235 Y-68.893
X-114.415 Y-68.157
X-113.636 Y-67.359
X-112.904 Y-66.502
X-112.227 Y-65.594
X-111.611 Y-64.642
X-111.061 Y-63.654
X-110.58 Y-62.637
X-110.171 Y-61.599
X-109.835 Y-60.545
X-109.572 Y-59.48
X-109.381 Y-58.409
X-109.263 Y-57.335
X-109.216 Y-56.262
X-109.241 Y-55.194
X-109.336 Y-54.135
X-109.501 Y-53.087
X-109.734 Y-52.055
X-110.035 Y-51.042
X-110.402 Y-50.051
X-110.834 Y-49.087
X-111.33 Y-48.152
X-111.887 Y-47.251
X-112.505 Y-46.386
X-113.18 Y-45.563
X-113.911 Y-44.783
X-114.694 Y-44.052
X-115.527 Y-43.371
X-116.407 Y-42.745
X-117.331 Y-42.176
X-118.294 Y-41.667
X-119.293 Y-41.221
X-120.325 Y-40.841
X-121.384 Y-40.529
X-122.467 Y-40.286
X-123.569 Y-40.115
X-124.684 Y-40.017
X-125.809 Y-39.993
X-126.938 Y-40.044
X-128.067 Y-40.17
X-129.189 Y-40.372
X-130.3 Y-40.649
X-131.394 Y-41
X-132.467 Y-41.425
X-133.513 Y-41.921
X-134.527 Y-42.488
X-135.504 Y-43.123
X-136.44 Y-43.823
X-137.329 Y-44.585
X-138.168 Y-45.407
X-138.952 Y-46.284
X-139.677 Y-47.214
X-140.341 Y-48.191
X-140.94 Y-49.212
X-141.47 Y-50.272
X-141.929 Y-51.367
X-142.316 Y-52.491
X-142.627 Y-53.64
X-142.862 Y-54.808
X-143.019 Y-55.99
X-143.097 Y-57.181
X-143.096 Y-58.376
X-143.016 Y-59.569
X-142.857 Y-60.755
X-142.619 Y-61.928
X-142.304 Y-63.084
X-141.913 Y-64.217
X-141.447 Y-65.322
X-140.909 Y-66.394
X-140.3 Y-67.428
X-139.624 Y-68.42
X-138.884 Y-69.366
X-138.082 Y-70.26
X-137.222 Y-71.1
X-136.309 Y-71.88
X-135.345 Y-72.599
X-134.336 Y-73.253
X-133.286 Y-73.838
X-132.199 Y-74.352
X-131.08 Y-74.793
X-129.934 Y-75.159
X-128.766 Y-75.448
X-127.581 Y-75.659
X-126.385 Y-75.791
X-125.183 Y-75.843
X-123.98 Y-75.816
X-122.781 Y-75.709
X-121.589 Y-75.522
X-120.405 Y-75.255
X-119.232 Y-74.907
X-118.071 Y-74.477
X-116.928 Y-73.965
X-115.807 Y-73.371
X-114.715 Y-72.696
X-113.664 Y-71.945
X-112.664 Y-71.127
X-111.72 Y-70.245
X-110.834 Y-69.303
X-110.011 Y-68.307
X-109.254 Y-67.261
X-108.565 Y-66.168
X-107.947 Y-65.033
X-107.404 Y-63.861
X-106.937 Y-62.656
X-106.55 Y-61.423
X-106.243 Y-60.168
X-106.019 Y-58.896
X-105.879 Y-57.611
X-105.824 Y-56.32
X-105.854 Y-55.029
X-105.969 Y-53.743
X-106.17 Y-52.471
X-106.453 Y-51.215
X-106.82 Y-49.982
X-107.267 Y-48.776
X-107.794 Y-47.602
X-108.398 Y-46.464
X-109.076 Y-45.367
X-109.827 Y-44.316
X-110.647 Y-43.317
X-111.531 Y-42.375
X-112.475 Y-41.493
X-113.475 Y-40.675
X-114.527 Y-39.924
X-115.625 Y-39.244
X-116.766 Y-38.637
X-117.943 Y-38.106
X-119.153 Y-37.652
X-120.39 Y-37.277
X-121.648 Y-36.983
X-122.922 Y-36.77
X-124.208 Y-36.64
X-125.499 Y-36.591
X-126.79 Y-36.624
X-128.077 Y-36.738
X-129.355 Y-36.934
X-130.617 Y-37.208
X-131.86 Y-37.561
X-133.079 Y-37.991
X-134.268 Y-38.494
X-135.425 Y-39.071
X-136.544 Y-39.717
X-137.62 Y-40.431
X-138.651 Y-41.211
X-139.631 Y-42.053
X-140.557 Y-42.954
X-141.426 Y-43.91
X-142.235 Y-44.917
X-142.981 Y-45.972
X-143.662 Y-47.07
X-144.275 Y-48.207
X-144.819 Y-49.379
X-145.291 Y-50.582
X-145.69 Y-51.811
X-146.014 Y-53.062
X-146.26 Y-54.33
X-146.429 Y-55.611
X-146.519 Y-56.9
X-146.532 Y-58.192
X-146.467 Y-59.483
X-146.324 Y-60.767
X-146.105 Y-62.04
X-145.81 Y-63.298
X-145.441 Y-64.536
X-144.998 Y-65.75
X-144.483 Y-66.935
X-143.897 Y-68.086
X-143.242 Y-69.2
X-142.521 Y-70.272
X-141.737 Y-71.299
X-140.893 Y-72.278
X-139.992 Y-73.204
X-139.038 Y-74.075
X-138.033 Y-74.887
X-136.982 Y-75.639
X-135.888 Y-76.326
X-134.754 Y-76.945
X-133.585 Y-77.495
X-132.384 Y-77.973
X-131.157 Y-78.378
X-129.908 Y-78.709
X-128.642 Y-78.965
X-127.362 Y-79.145
X-126.075 Y-79.249
X-124.783 Y-79.277
X-123.492 Y-79.227
X-122.206 Y-79.1
X-120.93 Y-78.895
X-119.669 Y-78.614
X-118.427 Y-78.26
X-117.207 Y-77.834
X-116.013 Y-77.339
X-114.85 Y-76.777
X-113.72 Y-76.149
X-112.629 Y-75.457
X-111.58 Y-74.704
X-110.574 Y-73.893
X-109.614 Y-73.028
X-108.704 Y-72.111
X-107.844 Y-71.147
X-107.039 Y-70.136
X-106.292 Y-69.081
X-105.605 Y-67.987
X-104.979 Y-66.857
X-104.416 Y-65.694
X-103.917 Y-64.502
X-103.484 Y-63.285
X-103.119 Y-62.045
X-102.826 Y-60.787
X-102.603 Y-59.515
X-102.451 Y-58.231
X-102.371 Y-56.942
X-102.361 Y-55.65
X-102.424 Y-54.359
X-102.561 Y-53.075
X-102.771 Y-51.8
X-103.053 Y-50.539
X-103.404 Y-49.295
X-103.825 Y-48.074
X-104.313 Y-46.877
X-104.867 Y-45.71
X-105.488 Y-44.577
X-106.173 Y-43.481
X-106.918 Y-42.426
X-107.72 Y-41.413
X-108.578 Y-40.447
X-109.487 Y-39.529
X-110.448 Y-38.664
X-111.455 Y-37.856
X-112.507 Y-37.105
X-113.599 Y-36.414
X-114.727 Y-35.784
X-115.888 Y-35.217
X-117.078 Y-34.714
X-118.294 Y-34.278
X-119.533 Y-33.912
X-120.79 Y-33.614
X-122.062 Y-33.385
X-123.344 Y-33.225
X-124.633 Y-33.134
X-125.925 Y-33.113
X-127.216 Y-33.162
X-128.502 Y-33.282
X-129.78 Y-33.472
X-131.047 Y-33.729
X-132.297 Y-34.053
X-133.529 Y-34.442
X-134.739 Y-34.896
X-135.923 Y-35.414
X-137.077 Y-35.996
X-138.198 Y-36.638
X-139.284 Y-37.338
X-140.331 Y-38.095
X-141.338 Y-38.905
X-142.3 Y-39.767
X-143.216 Y-40.679
X-144.081 Y-41.638
X-144.894 Y-42.642
X-145.654 Y-43.687
X-146.36 Y-44.769
X-147.008 Y-45.887
X-147.599 Y-47.036
X-148.127 Y-48.215
X-148.593 Y-49.42
X-148.995 Y-50.648
X-149.332 Y-51.896
X-149.604 Y-53.159
X-149.811 Y-54.434
X-149.952 Y-55.718
X-150.026 Y-57.008
X-150.031 Y-58.3
X-149.97 Y-59.591
X-149.841 Y-60.876
X-149.647 Y-62.154
X-149.389 Y-63.42
X-149.066 Y-64.671
X-148.678 Y-65.903
X-148.226 Y-67.114
X-147.711 Y-68.299
X-147.135 Y-69.455
X-146.5 Y-70.581
X-145.809 Y-71.673
X-145.064 Y-72.728
X-144.264 Y-73.743
X-143.413 Y-74.715
X-142.512 Y-75.641
X-141.565 Y-76.52
X-140.574 Y-77.349
X-139.542 Y-78.127
X-138.472 Y-78.851
X-137.366 Y-79.518
X-136.226 Y-80.126
X-135.056 Y-80.674
X-133.859 Y-81.161
X-132.639 Y-81.585
X-131.398 Y-81.947
X-130.141 Y-82.246
X-128.871 Y-82.48
X-127.589 Y-82.648
X-126.301 Y-82.748
X-125.01 Y-82.782
X-123.718 Y-82.749
X-122.43 Y-82.651
X-121.148 Y-82.488
X-119.876 Y-82.26
X-118.618 Y-81.967
X-117.376 Y-81.61
X-116.154 Y-81.191
X-114.954 Y-80.712
X-113.779 Y-80.174
X-112.633 Y-79.578
X-111.516 Y-78.927
X-110.434 Y-78.223
X-109.387 Y-77.465
X-108.379 Y-76.657
X-107.411 Y-75.8
X-106.486 Y-74.899
X-105.605 Y-73.954
X-104.77 Y-72.968
X-103.983 Y-71.943
X-103.246 Y-70.882
X-102.562 Y-69.785
X-101.932 Y-68.658
X-101.356 Y-67.501
X-100.836 Y-66.318
X-100.374 Y-65.112
X-99.969 Y-63.884
X-99.624 Y-62.639
X-99.341 Y-61.379
X-99.119 Y-60.106
X-98.959 Y-58.824
X-98.862 Y-57.535
X-98.826 Y-56.244
X-98.853 Y-54.952
X-98.943 Y-53.663
X-98.974 Y-53.4
X-98.999 Y-53.226
X-99.034 Y-53.054
X-99.077 Y-52.884
X-99.147 Y-52.641
X-99.828 Y-49.978
X-99.957 Y-49.598
X-100.091 Y-49.217
X-100.377 Y-48.456
X-100.521 Y-48.076
X-100.669 Y-47.696
X-100.979 Y-46.935
X-101.089 Y-46.697
X-102.129 Y-44.653
X-102.232 Y-44.483
X-102.613 Y-43.882
X-102.853 Y-43.512
X-103.352 Y-42.751
X-103.375 Y-42.718
X-103.895 Y-41.99
X-104.136 Y-41.66
X-105.12 Y-40.469
X-105.279 Y-40.281
X-105.783 Y-39.708
X-106.04 Y-39.45
X-107.183 Y-38.342
X-107.348 Y-38.186
X-107.945 Y-37.652
X-108.227 Y-37.426
X-109.207 Y-36.665
X-109.468 Y-36.469
X-110.254 Y-35.904
X-110.611 Y-35.672
X-112.134 Y-34.738
X-112.515 Y-34.51
X-114.419 Y-33.612
X-114.8 Y-33.442
X-115.289 Y-33.242
X-115.562 Y-33.132
X-117.466 Y-32.48
X-117.847 Y-32.374
X-118.608 Y-32.179
X-120.513 Y-31.753
X-120.677 Y-31.72
X-120.893 Y-31.695
X-122.036 Y-31.567
X-122.798 Y-31.483
X-123.178 Y-31.444
X-123.559 Y-31.414
X-123.94 Y-31.399
X-125.464
X-125.844 Y-31.402
X-126.606 Y-31.433
X-126.987 Y-31.459
X-128.51 Y-31.627
X-128.891 Y-31.671
X-129.653 Y-31.803
X-130.034 Y-31.876
X-131.938 Y-32.302
X-132.319 Y-32.415
X-132.536 Y-32.481
X-133.842 Y-32.928
X-134.223 Y-33.063
X-134.985 Y-33.338
X-135.366 Y-33.51
X-137.27 Y-34.408
X-137.651 Y-34.606
X-139.174 Y-35.54
X-139.936 Y-36.032
X-140.303 Y-36.285
X-141.84 Y-37.478
X-142.221 Y-37.774
X-142.257 Y-37.806
X-143.049 Y-38.567
X-144.226 Y-39.708
X-144.506 Y-40.026
X-144.887 Y-40.48
X-145.268 Y-40.938
X-145.822 Y-41.61
X-146.029 Y-41.876
X-146.116 Y-41.99
X-146.398 Y-42.371
X-147.172 Y-43.549
X-147.395 Y-43.892
X-147.933 Y-44.778
X-148.065 Y-45.033
X-148.838 Y-46.555
X-149.021 Y-46.935
X-149.331 Y-47.696
X-149.457 Y-48.016
X-149.766 Y-48.837
X-150.041 Y-49.598
X-150.172 Y-49.978
X-150.854 Y-52.641
X-150.962 Y-53.021
X-151.086 Y-53.401
X-151.215 Y-53.782
X-151.361 Y-54.111
X-151.388 Y-54.162
X-151.595 Y-54.542
X-151.744 Y-54.817
X-152.002 Y-55.376
X-152.235 Y-55.987
X-152.46 Y-56.719
X-152.654 Y-57.537
X-152.674 Y-57.655
X-152.717 Y-58.085
X-152.704 Y-58.517
X-152.634 Y-58.943
X-152.51 Y-59.357
X-152.332 Y-59.751
X-152.104 Y-60.119
G3 X-149.838 Y-59.507 I1.007 J0.774
G1 X-149.315 Y-55.461
G3 X-151.228 Y-54.209 I-1.26 J0.163
X-151.595 Y-54.542 I0.654 J-1.089
G1 X-152.123 Y-55.31
X-152.443 Y-55.684
X-152.504 Y-55.751
X-152.884 Y-56.113
X-153.094 Y-56.28
X-153.216 Y-56.388
X-153.344 Y-56.516
X-153.354 Y-56.528
X-153.563 Y-56.824
X-153.707 Y-57.157
X-153.781 Y-57.511
Y-57.874
X-153.708 Y-58.229
X-153.565 Y-58.562
X-153.357 Y-58.859
X-153.093 Y-59.107
G3 X-152.674 Y-59.376 I1.142 J1.318
X-150.563 Y-58.846 I0.724 J1.587
X-152.658 Y-56.041 I-1.448 J1.103
X-153.094 Y-56.28 I0.647 J-1.701
G1 X-153.265 Y-56.416
X-153.302 Y-56.444
X-153.646 Y-56.699
X-153.783 Y-56.825
X-153.863 Y-56.918
X-153.929 Y-57.012
X-154.027 Y-57.199
X-154.03 Y-57.205
X-154.092 Y-57.395
X-154.123 Y-57.585
X-154.125 Y-57.776
X-154.1 Y-57.966
X-154.07 Y-58.083
X-154.027 Y-58.2
X-153.954 Y-58.346
X-153.829 Y-58.524
X-153.737 Y-58.621
X-153.646 Y-58.701
X-153.613 Y-58.727
X-153.422 Y-58.863
X-153.411 Y-58.869
G2 X-153.197 Y-58.978 I-1.143 J-2.503
X-152.996 Y-59.12 I-0.626 J-1.105
X-152.947 Y-59.164 I-0.828 J-0.963
G1 X-152.425 Y-59.662
G2 X-152.381 Y-59.706 I-0.876 J-0.919
X-152.228 Y-59.903 I-0.92 J-0.875
X-152.109 Y-60.111 I-2.327 J-1.47
G1 X-152.104 Y-60.118
X-151.74 Y-60.628
X-151.515 Y-61.009
X-151.361 Y-61.291
X-151.314 Y-61.389
X-151.168 Y-61.77
X-150.98 Y-62.299
X-150.914 Y-62.53
X-150.62 Y-63.671
X-150.219 Y-65.24
X-150.11 Y-65.573
X-149.852 Y-66.334
X-149.422 Y-67.475
X-149.131 Y-68.236
X-149.076 Y-68.375
X-148.955 Y-68.616
X-148.181 Y-70.138
X-147.98 Y-70.518
X-147.535 Y-71.279
X-147.297 Y-71.659
X-146.41 Y-73.012
X-146.292 Y-73.181
X-146.029 Y-73.539
X-144.44 Y-75.463
X-144.125 Y-75.79
X-142.893 Y-76.985
X-142.498 Y-77.365
X-142.221 Y-77.626
X-140.317 Y-79.105
X-140.094 Y-79.267
X-139.519 Y-79.647
X-139.174 Y-79.86
X-138.031 Y-80.561
X-137.651 Y-80.778
X-137.27 Y-80.981
X-136.889 Y-81.172
X-135.281 Y-81.929
X-134.985 Y-82.062
X-134.223 Y-82.337
X-133.842 Y-82.472
X-133.08 Y-82.733
X-132.7 Y-82.857
X-132.032 Y-83.071
X-131.938 Y-83.098
X-130.034 Y-83.524
X-129.653 Y-83.597
X-128.891 Y-83.729
X-128.51 Y-83.773
X-126.987 Y-83.941
X-126.606 Y-83.967
X-125.844 Y-83.998
X-125.464 Y-84.001
X-123.94
X-123.559 Y-83.984
X-122.798 Y-83.915
X-122.417 Y-83.875
X-121.274 Y-83.748
X-120.893 Y-83.705
X-120.513 Y-83.647
X-118.608 Y-83.221
X-117.847 Y-83.026
X-117.466 Y-82.92
X-115.562 Y-82.268
X-115.181 Y-82.111
X-114.748 Y-81.929
X-114.419 Y-81.788
X-113.657 Y-81.429
X-113.11 Y-81.169
X-112.515 Y-80.884
X-112.34 Y-80.788
X-110.479 Y-79.647
X-110.23 Y-79.479
X-109.407 Y-78.886
X-109.087 Y-78.642
X-107.932 Y-77.745
X-107.564 Y-77.425
X-107.107 Y-76.985
X-106.322 Y-76.224
X-105.66 Y-75.577
X-105.56 Y-75.463
X-103.989 Y-73.561
X-103.755 Y-73.232
X-103.375 Y-72.675
X-103.202 Y-72.42
X-102.613 Y-71.522
X-102.459 Y-71.279
X-102.22 Y-70.899
X-102.013 Y-70.518
X-101.045 Y-68.616
X-100.869 Y-68.236
X-100.579 Y-67.475
X-100.148 Y-66.334
X-100.015 Y-65.954
X-99.889 Y-65.573
X-99.769 Y-65.193
X-99.088 Y-62.53
X-98.967 Y-62.15
X-98.804 Y-61.69
X-98.674 Y-61.389
X-98.424 Y-60.909
X-98.268 Y-60.628
X-97.984 Y-60.248
X-97.698 Y-59.868
X-97.608 Y-59.748
X-97.363 Y-59.358
X-97.107 Y-58.883
X-96.956 Y-58.476
X-96.865 Y-58.052
X-96.836 Y-57.619
X-96.869 Y-57.186
X-96.965 Y-56.763
X-97.121 Y-56.358
X-97.333 Y-55.979
X-97.598 Y-55.635
G3 X-99.785 Y-56.468 I-0.918 J-0.878
G1 X-99.871 Y-58.931
G3 X-97.698 Y-59.868 I1.269 J-0.044
G1 X-97.662 Y-59.828
X-97.324 Y-59.487
X-96.9 Y-59.105
X-96.596 Y-58.877
X-96.462 Y-58.764
X-96.256 Y-58.521
X-96.108 Y-58.238
X-96.024 Y-57.931
X-96.009 Y-57.612
X-96.063 Y-57.298
X-96.183 Y-57.003
X-96.365 Y-56.741
X-96.599 Y-56.524
G3 X-97.418 Y-56.27 I-0.818 J-1.186
X-98.837 Y-57.889 I0.001 J-1.432
X-97.046 Y-59.086 I1.42 J0.187
X-96.596 Y-58.877 I-0.37 J1.384
G1 X-96.519 Y-58.819
X-96.387 Y-58.727
X-96.263 Y-58.623
X-96.138 Y-58.488
X-96.041 Y-58.346
X-95.949 Y-58.156
X-95.893 Y-57.966
X-95.867 Y-57.776
X-95.87 Y-57.585
X-95.902 Y-57.395
X-95.965 Y-57.205
X-96.038 Y-57.059
X-96.138 Y-56.912
X-96.214 Y-56.825
X-96.367 Y-56.688
X-96.413 Y-56.656
X-96.49 Y-56.62 Z33.018
X-96.565 Y-56.584 Z33.04
X-96.636 Y-56.55 Z33.076
X-96.699 Y-56.52 Z33.125
X-96.76 Y-56.505 Z33.186
X-96.809 Y-56.492 Z33.258
X-96.845 Y-56.483 Z33.337
X-96.867 Y-56.478 Z33.421
X-96.874 Y-56.476 Z33.509
G0 Z50
X-369.295 Y-55.739
Z36.78
G1 Z35.51 F850
G3 X-380.705 Y-59.661 Z34.848 I-5.705 J-1.961 F283.3
X-369.295 Y-55.739 Z34.186 I5.705 J1.961
X-380.705 Y-59.661 Z33.525 I-5.705 J-1.961
X-379.485 Y-61.734 Z33.44 I5.705 J1.961
X-369.552 Y-60.29 Z33.026 I4.485 J4.034
X-380.448 Y-55.11 Z32.364 I-5.448 J2.59
X-369.552 Y-60.29 Z31.702 I5.448 J-2.59
X-380.448 Y-55.11 Z31.041 I-5.448 J2.59
X-381.027 Y-57.445 Z30.956 I5.448 J-2.59
X-368.973 Y-57.955 Z30.294 I6.027 J-0.255
X-370.572 Y-53.603 Z30.128 I-6.027 J0.255
X-380.484 Y-55.187 Z29.714 I-4.428 J-4.097
X-369.516 Y-60.213 Z29.052 I5.484 J-2.513
X-380.484 Y-55.187 Z28.39 I-5.484 J2.513
X-377.474 Y-63.202 Z28.058 I5.484 J-2.513
X-368.97 Y-57.87 Z27.644 I2.474 J5.502
X-377.16 Y-52.068 Z27.23 I-6.03 J0.17
X-372.839 Y-63.332 Z26.568 I2.161 J-5.632
X-377.16 Y-52.068 Z25.906 I-2.161 J5.632
X-372.839 Y-63.332 Z25.245 I2.161 J-5.632
X-377.16 Y-52.068 Z24.583 I-2.161 J5.632
X-372.839 Y-63.332 Z23.921 I2.161 J-5.632
X-377.16 Y-52.068 Z23.259 I-2.161 J5.632
X-372.839 Y-63.332 Z22.597 I2.161 J-5.632
X-377.16 Y-52.068 Z21.936 I-2.161 J5.632
X-372.839 Y-63.332 Z21.274 I2.161 J-5.632
X-368.967 Y-57.7 Z21.02 I-2.161 J5.632
X-381.032 I-6.033
X-374.307 Y-63.693 I6.033
X-369.244 Y-59.505 I-0.693 J5.993
X-368.967 Y-57.7 I-5.756 J1.805
G1 X-368.964 Y-57.377 F850
X-368.931 Y-57.056
X-368.691 Y-55.786
X-368.642 Y-55.632
X-368.599 Y-55.457
X-368.565 Y-55.262
X-368.541 Y-55.049
X-368.532 Y-54.818
X-368.538 Y-54.571
X-368.562 Y-54.308
X-368.605 Y-54.03
X-368.671 Y-53.74
X-368.761 Y-53.439
X-368.876 Y-53.13
X-369.017 Y-52.815
X-369.187 Y-52.497
X-369.385 Y-52.177
X-369.612 Y-51.86
X-369.869 Y-51.548
X-370.154 Y-51.244
X-370.469 Y-50.95
X-370.812 Y-50.671
X-371.181 Y-50.409
X-371.577 Y-50.166
X-371.996 Y-49.945
X-372.438 Y-49.748
X-372.9 Y-49.579
X-373.38 Y-49.438
X-373.875 Y-49.327
X-374.384 Y-49.249
X-374.903 Y-49.204
X-375.429 Y-49.193
X-375.96 Y-49.218
X-376.492 Y-49.278
X-377.024 Y-49.374
X-377.552 Y-49.506
X-378.073 Y-49.674
X-378.585 Y-49.878
X-379.085 Y-50.116
X-379.57 Y-50.387
X-380.038 Y-50.692
X-380.487 Y-51.028
X-380.913 Y-51.395
X-381.315 Y-51.79
X-381.692 Y-52.212
X-382.04 Y-52.659
X-382.358 Y-53.129
X-382.645 Y-53.62
X-382.9 Y-54.129
X-383.12 Y-54.656
X-383.305 Y-55.196
X-383.454 Y-55.748
X-383.566 Y-56.309
X-383.641 Y-56.877
X-383.678 Y-57.449
X-383.677 Y-58.023
X-383.638 Y-58.596
X-383.56 Y-59.165
X-383.446 Y-59.728
X-383.294 Y-60.282
X-383.105 Y-60.826
X-382.881 Y-61.356
X-382.623 Y-61.87
X-382.33 Y-62.366
X-382.005 Y-62.841
X-381.65 Y-63.294
X-381.265 Y-63.723
X-380.852 Y-64.125
X-380.414 Y-64.499
X-379.952 Y-64.843
X-379.468 Y-65.155
X-378.964 Y-65.435
X-378.442 Y-65.681
X-377.906 Y-65.892
X-377.356 Y-66.067
X-376.797 Y-66.205
X-376.229 Y-66.305
X-375.656 Y-66.368
X-375.079 Y-66.392
X-374.503 Y-66.378
X-373.929 Y-66.326
X-373.359 Y-66.237
X-372.797 Y-66.109
X-372.244 Y-65.944
X-371.703 Y-65.744
X-371.177 Y-65.507
X-370.668 Y-65.237
X-370.177 Y-64.933
X-369.708 Y-64.597
X-369.263 Y-64.231
X-368.842 Y-63.836
X-368.449 Y-63.414
X-368.084 Y-62.967
X-367.75 Y-62.497
X-367.448 Y-62.006
X-366.879 Y-60.926
X-366.433 Y-59.924
X-366.124 Y-59.085
X-365.904 Y-58.334
X-365.745 Y-57.624
X-365.642 Y-56.953
X-365.586 Y-56.307
X-365.573 Y-55.675
X-365.601 Y-55.055
X-365.67 Y-54.447
X-365.777 Y-53.851
X-365.924 Y-53.266
X-366.108 Y-52.692
X-366.331 Y-52.132
X-366.591 Y-51.585
X-366.889 Y-51.053
X-367.224 Y-50.538
X-367.595 Y-50.042
X-368.003 Y-49.567
X-368.446 Y-49.116
X-368.923 Y-48.69
X-369.433 Y-48.293
X-369.974 Y-47.926
X-370.544 Y-47.592
X-371.141 Y-47.294
X-371.763 Y-47.034
X-372.406 Y-46.814
X-373.068 Y-46.635
X-373.746 Y-46.499
X-374.437 Y-46.408
X-375.139 Y-46.362
X-375.847 Y-46.364
X-376.559 Y-46.412
X-377.27 Y-46.508
X-377.978 Y-46.652
X-378.68 Y-46.844
X-379.371 Y-47.084
X-380.048 Y-47.37
X-380.708 Y-47.702
X-381.348 Y-48.079
X-381.963 Y-48.499
X-382.551 Y-48.96
X-383.11 Y-49.461
X-383.635 Y-50
X-384.125 Y-50.574
X-384.576 Y-51.181
X-384.988 Y-51.817
X-385.357 Y-52.481
X-385.682 Y-53.169
X-385.96 Y-53.878
X-386.192 Y-54.606
X-386.375 Y-55.348
X-386.509 Y-56.101
X-386.592 Y-56.862
X-386.625 Y-57.628
X-386.607 Y-58.395
X-386.538 Y-59.16
X-386.418 Y-59.919
X-386.248 Y-60.669
X-386.029 Y-61.406
X-385.761 Y-62.128
X-385.446 Y-62.83
X-385.084 Y-63.511
X-384.679 Y-64.166
X-384.23 Y-64.793
X-383.741 Y-65.389
X-383.213 Y-65.951
X-382.649 Y-66.478
X-382.051 Y-66.965
X-381.422 Y-67.413
X-380.765 Y-67.817
X-380.082 Y-68.177
X-379.377 Y-68.491
X-378.652 Y-68.758
X-377.911 Y-68.976
X-377.157 Y-69.144
X-376.394 Y-69.262
X-375.625 Y-69.33
X-374.852 Y-69.346
X-374.081 Y-69.31
X-373.313 Y-69.224
X-372.552 Y-69.087
X-371.803 Y-68.9
X-371.067 Y-68.663
X-370.349 Y-68.378
X-369.651 Y-68.047
X-368.977 Y-67.669
X-368.329 Y-67.248
X-367.71 Y-66.785
X-367.06 Y-66.227
X-366.433 Y-65.612
X-365.8 Y-64.902
X-365.198 Y-64.13
X-364.647 Y-63.318
X-364.155 Y-62.478
X-363.727 Y-61.621
X-363.364 Y-60.755
X-363.065 Y-59.883
X-362.829 Y-59.01
X-362.655 Y-58.141
X-362.54 Y-57.277
X-362.485 Y-56.42
X-362.486 Y-55.57
X-362.543 Y-54.731
X-362.654 Y-53.902
X-362.82 Y-53.086
X-363.039 Y-52.284
X-363.31 Y-51.5
X-363.633 Y-50.735
X-364.007 Y-49.992
X-364.43 Y-49.273
X-364.902 Y-48.582
X-365.421 Y-47.92
X-365.985 Y-47.292
X-366.592 Y-46.699
X-367.242 Y-46.144
X-367.93 Y-45.631
X-368.656 Y-45.162
X-369.415 Y-44.74
X-370.206 Y-44.367
X-371.025 Y-44.044
X-371.868 Y-43.776
X-372.733 Y-43.562
X-373.615 Y-43.405
X-374.512 Y-43.307
X-375.418 Y-43.268
X-376.331 Y-43.289
X-377.245 Y-43.371
X-378.157 Y-43.515
X-379.062 Y-43.719
X-379.956 Y-43.985
X-380.833 Y-44.311
X-381.691 Y-44.695
X-382.525 Y-45.138
X-383.33 Y-45.636
X-384.103 Y-46.189
X-384.84 Y-46.793
X-385.538 Y-47.447
X-386.192 Y-48.148
X-386.799 Y-48.892
X-387.357 Y-49.677
X-387.863 Y-50.498
X-388.314 Y-51.353
X-388.708 Y-52.237
X-389.043 Y-53.147
X-389.318 Y-54.078
X-389.53 Y-55.026
X-389.679 Y-55.988
X-389.764 Y-56.958
X-389.784 Y-57.933
X-389.74 Y-58.908
X-389.631 Y-59.879
X-389.458 Y-60.84
X-389.221 Y-61.789
X-388.922 Y-62.721
X-388.561 Y-63.631
X-388.141 Y-64.515
X-387.663 Y-65.37
X-387.129 Y-66.192
X-386.541 Y-66.977
X-385.903 Y-67.721
X-385.216 Y-68.422
X-384.484 Y-69.076
X-383.71 Y-69.679
X-382.898 Y-70.231
X-382.051 Y-70.727
X-381.173 Y-71.166
X-380.267 Y-71.546
X-379.338 Y-71.865
X-378.39 Y-72.122
X-377.427 Y-72.315
X-376.453 Y-72.444
X-375.472 Y-72.508
X-374.489 Y-72.507
X-373.509 Y-72.441
X-372.535 Y-72.31
X-371.572 Y-72.115
X-370.623 Y-71.856
X-369.694 Y-71.535
X-368.775 Y-71.147
X-367.868 Y-70.691
X-366.971 Y-70.163
X-366.089 Y-69.562
X-365.236 Y-68.893
X-364.416 Y-68.158
X-363.636 Y-67.359
X-362.904 Y-66.503
X-362.227 Y-65.594
X-361.611 Y-64.642
X-361.061 Y-63.654
X-360.581 Y-62.637
X-360.172 Y-61.599
X-359.836 Y-60.545
X-359.572 Y-59.48
X-359.382 Y-58.409
X-359.264 Y-57.335
X-359.217 Y-56.262
X-359.242 Y-55.194
X-359.337 Y-54.135
X-359.501 Y-53.087
X-359.734 Y-52.055
X-360.035 Y-51.042
X-360.402 Y-50.051
X-360.834 Y-49.087
X-361.33 Y-48.152
X-361.888 Y-47.251
X-362.505 Y-46.386
X-363.181 Y-45.563
X-363.911 Y-44.783
X-364.695 Y-44.052
X-365.528 Y-43.371
X-366.408 Y-42.745
X-367.331 Y-42.176
X-368.294 Y-41.667
X-369.294 Y-41.221
X-370.325 Y-40.841
X-371.385 Y-40.529
X-372.467 Y-40.286
X-373.569 Y-40.115
X-374.685 Y-40.017
X-375.81 Y-39.993
X-376.939 Y-40.044
X-378.067 Y-40.17
X-379.189 Y-40.372
X-380.301 Y-40.649
X-381.395 Y-41
X-382.468 Y-41.425
X-383.514 Y-41.921
X-384.528 Y-42.488
X-385.505 Y-43.123
X-386.44 Y-43.823
X-387.329 Y-44.585
X-388.168 Y-45.407
X-388.952 Y-46.284
X-389.678 Y-47.214
X-390.342 Y-48.191
X-390.94 Y-49.212
X-391.471 Y-50.272
X-391.93 Y-51.367
X-392.316 Y-52.491
X-392.628 Y-53.64
X-392.863 Y-54.808
X-393.02 Y-55.99
X-393.098 Y-57.181
X-393.097 Y-58.376
X-393.017 Y-59.569
X-392.857 Y-60.755
X-392.62 Y-61.928
X-392.305 Y-63.084
X-391.913 Y-64.217
X-391.447 Y-65.322
X-390.909 Y-66.394
X-390.301 Y-67.428
X-389.625 Y-68.42
X-388.884 Y-69.366
X-388.083 Y-70.26
X-387.223 Y-71.1
X-386.31 Y-71.881
X-385.346 Y-72.599
X-384.337 Y-73.253
X-383.286 Y-73.838
X-382.199 Y-74.352
X-381.08 Y-74.793
X-379.934 Y-75.159
X-378.766 Y-75.448
X-377.582 Y-75.659
X-376.386 Y-75.791
X-375.184 Y-75.843
X-373.98 Y-75.816
X-372.782 Y-75.709
X-371.589 Y-75.522
X-370.406 Y-75.255
X-369.233 Y-74.907
X-368.072 Y-74.477
X-366.928 Y-73.965
X-365.808 Y-73.371
X-364.716 Y-72.696
X-363.664 Y-71.945
X-362.664 Y-71.127
X-361.72 Y-70.245
X-360.835 Y-69.304
X-360.012 Y-68.307
X-359.255 Y-67.261
X-358.565 Y-66.168
X-357.948 Y-65.033
X-357.404 Y-63.861
X-356.938 Y-62.656
X-356.55 Y-61.423
X-356.243 Y-60.168
X-356.019 Y-58.896
X-355.879 Y-57.611
X-355.824 Y-56.32
X-355.854 Y-55.029
X-355.97 Y-53.743
X-356.17 Y-52.471
X-356.454 Y-51.215
X-356.82 Y-49.982
X-357.268 Y-48.776
X-357.794 Y-47.602
X-358.398 Y-46.464
X-359.077 Y-45.367
X-359.828 Y-44.316
X-360.647 Y-43.318
X-361.531 Y-42.375
X-362.475 Y-41.493
X-363.475 Y-40.675
X-364.527 Y-39.924
X-365.626 Y-39.244
X-366.766 Y-38.637
X-367.944 Y-38.106
X-369.154 Y-37.652
X-370.39 Y-37.277
X-371.648 Y-36.983
X-372.923 Y-36.77
X-374.208 Y-36.64
X-375.499 Y-36.591
X-376.791 Y-36.624
X-378.078 Y-36.738
X-379.355 Y-36.934
X-380.618 Y-37.208
X-381.861 Y-37.561
X-383.079 Y-37.991
X-384.269 Y-38.494
X-385.425 Y-39.071
X-386.544 Y-39.717
X-387.621 Y-40.431
X-388.651 Y-41.211
X-389.631 Y-42.053
X-390.557 Y-42.954
X-391.427 Y-43.91
X-392.236 Y-44.917
X-392.982 Y-45.972
X-393.663 Y-47.07
X-394.276 Y-48.207
X-394.82 Y-49.379
X-395.292 Y-50.582
X-395.691 Y-51.811
X-396.014 Y-53.062
X-396.261 Y-54.33
X-396.429 Y-55.611
X-396.52 Y-56.9
X-396.532 Y-58.192
X-396.467 Y-59.483
X-396.325 Y-60.767
X-396.105 Y-62.04
X-395.811 Y-63.298
X-395.441 Y-64.536
X-394.999 Y-65.75
X-394.484 Y-66.935
X-393.897 Y-68.086
X-393.242 Y-69.2
X-392.522 Y-70.272
X-391.738 Y-71.299
X-390.893 Y-72.278
X-389.993 Y-73.204
X-389.038 Y-74.075
X-388.034 Y-74.887
X-386.983 Y-75.639
X-385.888 Y-76.326
X-384.754 Y-76.945
X-383.585 Y-77.495
X-382.385 Y-77.973
X-381.158 Y-78.378
X-379.909 Y-78.709
X-378.642 Y-78.965
X-377.363 Y-79.145
X-376.075 Y-79.249
X-374.783 Y-79.277
X-373.492 Y-79.227
X-372.207 Y-79.1
X-370.931 Y-78.895
X-369.67 Y-78.614
X-368.427 Y-78.26
X-367.207 Y-77.834
X-366.014 Y-77.339
X-364.85 Y-76.777
X-363.721 Y-76.149
X-362.63 Y-75.457
X-361.58 Y-74.704
X-360.574 Y-73.893
X-359.615 Y-73.028
X-358.704 Y-72.111
X-357.845 Y-71.147
X-357.04 Y-70.136
X-356.293 Y-69.082
X-355.606 Y-67.987
X-354.98 Y-66.857
X-354.417 Y-65.694
X-353.918 Y-64.502
X-353.484 Y-63.285
X-353.12 Y-62.046
X-352.826 Y-60.787
X-352.603 Y-59.515
X-352.452 Y-58.231
X-352.371 Y-56.942
X-352.362 Y-55.65
X-352.425 Y-54.359
X-352.562 Y-53.075
X-352.771 Y-51.8
X-353.053 Y-50.539
X-353.405 Y-49.295
X-353.826 Y-48.074
X-354.313 Y-46.877
X-354.868 Y-45.71
X-355.489 Y-44.577
X-356.173 Y-43.481
X-356.918 Y-42.426
X-357.721 Y-41.413
X-358.578 Y-40.447
X-359.488 Y-39.529
X-360.448 Y-38.664
X-361.456 Y-37.856
X-362.508 Y-37.105
X-363.599 Y-36.414
X-364.727 Y-35.784
X-365.888 Y-35.217
X-367.078 Y-34.714
X-368.295 Y-34.278
X-369.534 Y-33.912
X-370.791 Y-33.614
X-372.063 Y-33.385
X-373.345 Y-33.225
X-374.633 Y-33.134
X-375.925 Y-33.113
X-377.216 Y-33.162
X-378.503 Y-33.283
X-379.781 Y-33.472
X-381.047 Y-33.729
X-382.298 Y-34.053
X-383.53 Y-34.443
X-384.74 Y-34.896
X-385.923 Y-35.414
X-387.077 Y-35.996
X-388.198 Y-36.638
X-389.284 Y-37.338
X-390.332 Y-38.095
X-391.338 Y-38.905
X-392.301 Y-39.767
X-393.216 Y-40.679
X-394.081 Y-41.638
X-394.895 Y-42.642
X-395.655 Y-43.687
X-396.36 Y-44.769
X-397.009 Y-45.887
X-397.599 Y-47.036
X-398.128 Y-48.215
X-398.594 Y-49.42
X-398.995 Y-50.648
X-399.332 Y-51.896
X-399.605 Y-53.159
X-399.812 Y-54.434
X-399.953 Y-55.718
X-400.027 Y-57.008
X-400.032 Y-58.3
X-399.97 Y-59.591
X-399.842 Y-60.877
X-399.648 Y-62.154
X-399.389 Y-63.42
X-399.066 Y-64.671
X-398.679 Y-65.903
X-398.226 Y-67.114
X-397.711 Y-68.299
X-397.135 Y-69.455
X-396.501 Y-70.581
X-395.81 Y-71.673
X-395.064 Y-72.728
X-394.265 Y-73.743
X-393.414 Y-74.715
X-392.513 Y-75.641
X-391.566 Y-76.52
X-390.575 Y-77.349
X-389.543 Y-78.127
X-388.473 Y-78.851
X-387.366 Y-79.518
X-386.226 Y-80.126
X-385.056 Y-80.674
X-383.859 Y-81.161
X-382.639 Y-81.585
X-381.399 Y-81.947
X-380.142 Y-82.246
X-378.871 Y-82.481
X-377.59 Y-82.648
X-376.302 Y-82.748
X-375.01 Y-82.782
X-373.719 Y-82.75
X-372.43 Y-82.651
X-371.149 Y-82.488
X-369.877 Y-82.26
X-368.618 Y-81.967
X-367.377 Y-81.61
X-366.154 Y-81.192
X-364.954 Y-80.712
X-363.78 Y-80.174
X-362.633 Y-79.578
X-361.517 Y-78.927
X-360.434 Y-78.223
X-359.388 Y-77.465
X-358.38 Y-76.657
X-357.412 Y-75.801
X-356.486 Y-74.899
X-355.605 Y-73.954
X-354.77 Y-72.968
X-353.983 Y-71.943
X-353.247 Y-70.882
X-352.563 Y-69.786
X-351.932 Y-68.658
X-351.357 Y-67.501
X-350.837 Y-66.318
X-350.374 Y-65.112
X-349.97 Y-63.885
X-349.625 Y-62.639
X-349.341 Y-61.379
X-349.12 Y-60.106
X-348.96 Y-58.824
X-348.862 Y-57.535
X-348.827 Y-56.244
X-348.854 Y-54.952
X-348.943 Y-53.663
X-348.975 Y-53.393
X-349.001 Y-53.219
X-349.035 Y-53.047
X-349.079 Y-52.877
X-349.146 Y-52.641
X-349.828 Y-49.978
X-349.959 Y-49.598
X-350.234 Y-48.837
X-350.543 Y-48.016
X-350.669 Y-47.696
X-350.979 Y-46.935
X-351.162 Y-46.555
X-351.935 Y-45.033
X-352.067 Y-44.778
X-352.605 Y-43.892
X-352.853 Y-43.512
X-353.602 Y-42.371
X-353.884 Y-41.99
X-353.971 Y-41.876
X-354.178 Y-41.61
X-354.806 Y-40.849
X-355.123 Y-40.469
X-355.494 Y-40.026
X-355.774 Y-39.708
X-357.018 Y-38.503
X-357.743 Y-37.806
X-357.779 Y-37.774
X-358.922 Y-36.886
X-359.697 Y-36.285
X-360.064 Y-36.032
X-360.826 Y-35.54
X-362.349 Y-34.606
X-362.73 Y-34.408
X-364.634 Y-33.51
X-365.015 Y-33.338
X-365.777 Y-33.063
X-366.158 Y-32.928
X-367.464 Y-32.481
X-367.681 Y-32.415
X-368.062 Y-32.302
X-369.966 Y-31.876
X-370.347 Y-31.803
X-371.109 Y-31.671
X-371.49 Y-31.627
X-373.013 Y-31.459
X-373.394 Y-31.433
X-374.156 Y-31.402
X-374.536 Y-31.399
X-376.06
X-376.441 Y-31.414
X-376.822 Y-31.444
X-377.202 Y-31.483
X-378.345 Y-31.609
X-379.107 Y-31.695
X-379.323 Y-31.72
X-379.487 Y-31.753
X-381.392 Y-32.179
X-382.153 Y-32.374
X-382.537 Y-32.481
X-384.438 Y-33.132
X-384.711 Y-33.242
X-385.2 Y-33.442
X-385.602 Y-33.622
X-387.485 Y-34.51
X-387.907 Y-34.763
X-389.389 Y-35.672
X-389.746 Y-35.904
X-390.532 Y-36.469
X-390.793 Y-36.665
X-391.773 Y-37.426
X-392.055 Y-37.652
X-392.652 Y-38.186
X-392.817 Y-38.342
X-393.96 Y-39.45
X-394.217 Y-39.708
X-394.721 Y-40.281
X-394.879 Y-40.469
X-395.864 Y-41.66
X-396.104 Y-41.99
X-396.625 Y-42.718
X-396.648 Y-42.751
X-397.147 Y-43.512
X-397.393 Y-43.892
X-397.768 Y-44.482
X-397.871 Y-44.653
X-398.911 Y-46.696
X-399.021 Y-46.935
X-399.331 Y-47.696
X-399.479 Y-48.076
X-399.766 Y-48.837
X-399.908 Y-49.217
X-400.053 Y-49.626
X-400.172 Y-49.978
X-400.854 Y-52.641
X-400.962 Y-53.021
X-401.086 Y-53.401
X-401.196 Y-53.73
X-401.591 Y-54.542
X-401.614 Y-54.577
X-401.69 Y-54.707
X-401.946 Y-55.242
X-402.184 Y-55.839
X-402.417 Y-56.557
X-402.613 Y-57.337
X-402.665 Y-57.619
X-402.716 Y-58.07
X-402.704 Y-58.524
X-402.63 Y-58.971
X-402.495 Y-59.405
X-402.303 Y-59.816
X-402.055 Y-60.196
G3 X-401.674 Y-60.513 I0.987 J0.799
X-399.807 Y-59.549 I0.607 J1.116
G1 X-399.315 Y-55.461
G3 X-401.614 Y-54.577 I-1.261 J0.152
G1 X-401.84 Y-54.923
X-402.114 Y-55.303
X-402.338 Y-55.563
X-402.446 Y-55.684
X-402.719 Y-55.958
X-402.831 Y-56.064
X-403.1 Y-56.291
X-403.213 Y-56.389
X-403.341 Y-56.518
X-403.368 Y-56.548
X-403.575 Y-56.843
X-403.718 Y-57.173
X-403.791 Y-57.525
Y-57.885
X-403.717 Y-58.237
X-403.572 Y-58.567
X-403.364 Y-58.861
X-403.1 Y-59.105
G3 X-402.678 Y-59.367 I1.116 J1.325
X-400.633 Y-58.864 I0.693 J1.587
X-402.662 Y-56.054 I-1.402 J1.125
X-403.1 Y-56.291 I0.627 J-1.685
G1 X-403.294 Y-56.444
X-403.481 Y-56.583
X-403.633 Y-56.688
X-403.786 Y-56.825
X-403.862 Y-56.912
X-403.962 Y-57.058
X-404.035 Y-57.205
X-404.099 Y-57.395
X-404.131 Y-57.585
X-404.134 Y-57.776
X-404.108 Y-57.966
X-404.051 Y-58.156
X-403.959 Y-58.346
X-403.862 Y-58.488
X-403.738 Y-58.624
X-403.614 Y-58.727
X-403.54 Y-58.777
X-403.53 Y-58.783
G2 X-403.296 Y-58.899 I-1.207 J-2.732
X-403.109 Y-59.025 I-0.612 J-1.113
X-403.031 Y-59.093 I-0.799 J-0.987
G1 X-402.395 Y-59.701
G2 X-402.323 Y-59.775 I-0.877 J-0.918
X-402.189 Y-59.956 I-0.948 J-0.845
X-402.063 Y-60.184 I-2.548 J-1.559
G1 X-402.057 Y-60.194
X-401.733 Y-60.628
X-401.576 Y-60.91
X-401.326 Y-61.389
X-401.196 Y-61.691
X-401.033 Y-62.15
X-400.912 Y-62.53
X-400.231 Y-65.193
X-400.111 Y-65.573
X-399.984 Y-65.954
X-399.852 Y-66.334
X-399.422 Y-67.475
X-399.131 Y-68.236
X-398.955 Y-68.616
X-397.988 Y-70.518
X-397.781 Y-70.899
X-397.542 Y-71.279
X-397.387 Y-71.522
X-396.798 Y-72.42
X-396.54 Y-72.8
X-396.245 Y-73.232
X-396.011 Y-73.561
X-394.44 Y-75.463
X-394.34 Y-75.577
X-393.579 Y-76.32
X-392.817 Y-77.058
X-392.436 Y-77.425
X-392.068 Y-77.745
X-390.913 Y-78.642
X-390.593 Y-78.886
X-389.77 Y-79.479
X-389.521 Y-79.647
X-387.66 Y-80.788
X-387.485 Y-80.884
X-386.723 Y-81.249
X-386.343 Y-81.429
X-385.581 Y-81.788
X-385.2 Y-81.951
X-384.819 Y-82.111
X-384.438 Y-82.268
X-382.534 Y-82.92
X-382.153 Y-83.026
X-381.392 Y-83.221
X-379.487 Y-83.647
X-379.107 Y-83.705
X-378.345 Y-83.791
X-377.583 Y-83.875
X-377.202 Y-83.915
X-376.441 Y-83.984
X-376.06 Y-84.001
X-374.536
X-374.156 Y-83.998
X-373.394 Y-83.967
X-373.013 Y-83.941
X-371.49 Y-83.773
X-371.109 Y-83.729
X-370.347 Y-83.597
X-369.966 Y-83.524
X-368.062 Y-83.098
X-367.968 Y-83.071
X-367.3 Y-82.857
X-366.92 Y-82.733
X-366.158 Y-82.472
X-365.701 Y-82.31
X-365.015 Y-82.062
X-364.719 Y-81.929
X-363.104 Y-81.169
X-362.73 Y-80.981
X-362.349 Y-80.778
X-361.969 Y-80.561
X-360.826 Y-79.86
X-360.481 Y-79.647
X-359.906 Y-79.267
X-359.683 Y-79.105
X-357.779 Y-77.626
X-357.502 Y-77.365
X-357.018 Y-76.898
X-355.875 Y-75.79
X-355.56 Y-75.463
X-353.971 Y-73.539
X-353.708 Y-73.181
X-353.59 Y-73.012
X-352.703 Y-71.659
X-352.465 Y-71.279
X-352.02 Y-70.518
X-351.819 Y-70.138
X-351.045 Y-68.616
X-350.924 Y-68.375
X-350.869 Y-68.236
X-350.543 Y-67.384
X-350.148 Y-66.334
X-349.89 Y-65.573
X-349.781 Y-65.24
X-349.283 Y-63.291
X-349.086 Y-62.53
X-349.02 Y-62.299
X-348.832 Y-61.77
X-348.686 Y-61.389
X-348.639 Y-61.291
X-348.485 Y-61.009
X-348.258 Y-60.625
X-347.877 Y-60.092
X-347.846 Y-60.055
X-347.674 Y-59.827
X-347.435 Y-59.461
X-347.177 Y-59.003
X-347.106 Y-58.856
X-346.952 Y-58.461
X-346.856 Y-58.048
X-346.823 Y-57.625
X-346.851 Y-57.202
X-346.942 Y-56.787
X-347.092 Y-56.39
X-347.298 Y-56.02
X-347.557 Y-55.684
G3 X-347.957 Y-55.391 I-0.935 J-0.86
X-349.754 Y-56.401 I-0.534 J-1.152
G1 X-350.054 Y-59.065
G3 X-347.846 Y-60.055 I1.262 J-0.142
G1 X-347.69 Y-59.868
X-347.116 Y-59.301
X-346.907 Y-59.107
X-346.735 Y-58.975
X-346.63 Y-58.9
X-346.482 Y-58.783
X-346.268 Y-58.541
X-346.113 Y-58.258
X-346.023 Y-57.947
X-346.003 Y-57.625
X-346.055 Y-57.306
X-346.175 Y-57.006
X-346.358 Y-56.74
X-346.595 Y-56.521
G3 X-347.045 Y-56.313 I-0.83 J-1.208
X-347.404 Y-56.263 I-0.38 J-1.415
X-348.854 Y-57.862 I-0.021 J-1.438
X-347.084 Y-59.099 I1.429 J0.161
X-346.63 Y-58.9 I-0.34 J1.398
G1 X-346.387 Y-58.727
X-346.354 Y-58.701
X-346.263 Y-58.621
X-346.171 Y-58.524
X-346.046 Y-58.346
X-345.973 Y-58.2
X-345.93 Y-58.083
X-345.9 Y-57.966
X-345.875 Y-57.776
X-345.877 Y-57.585
X-345.908 Y-57.395
X-345.97 Y-57.205
X-345.973 Y-57.199
X-346.071 Y-57.012
X-346.137 Y-56.918
X-346.217 Y-56.825
X-346.354 Y-56.699
X-346.543 Y-56.559
X-346.619 Y-56.52 Z21.028
X-346.693 Y-56.481 Z21.05
X-346.762 Y-56.446 Z21.086
X-346.825 Y-56.413 Z21.135
X-346.885 Y-56.396 Z21.196
X-346.933 Y-56.382 Z21.268
X-346.969 Y-56.372 Z21.347
X-346.991 Y-56.365 Z21.431
X-346.998 Y-56.363 Z21.519
G0 Z50
X-119.294 Y-55.739
Z36.78
G1 Z35.51 F850
G3 X-130.704 Y-59.661 Z34.848 I-5.705 J-1.961 F283.3
X-119.294 Y-55.739 Z34.186 I5.705 J1.961
X-130.704 Y-59.661 Z33.525 I-5.705 J-1.961
X-119.294 Y-55.739 Z32.863 I5.705 J1.961
X-130.704 Y-59.661 Z32.201 I-5.705 J-1.961
X-119.294 Y-55.739 Z31.539 I5.705 J1.961
X-130.704 Y-59.661 Z30.877 I-5.705 J-1.961
X-119.294 Y-55.739 Z30.216 I5.705 J1.961
X-130.704 Y-59.661 Z29.554 I-5.705 J-1.961
X-119.294 Y-55.739 Z28.892 I5.705 J1.961
X-130.704 Y-59.661 Z28.23 I-5.705 J-1.961
X-119.294 Y-55.739 Z27.568 I5.705 J1.961
X-130.704 Y-59.661 Z26.907 I-5.705 J-1.961
X-119.294 Y-55.739 Z26.245 I5.705 J1.961
X-130.704 Y-59.661 Z25.583 I-5.705 J-1.961
X-119.294 Y-55.739 Z24.921 I5.705 J1.961
X-130.704 Y-59.661 Z24.259 I-5.705 J-1.961
X-119.294 Y-55.739 Z23.597 I5.705 J1.961
X-130.704 Y-59.661 Z22.936 I-5.705 J-1.961
X-119.294 Y-55.739 Z22.274 I5.705 J1.961
X-130.704 Y-59.661 Z21.612 I-5.705 J-1.961
X-118.967 Y-57.7 Z21.02 I5.705 J1.961
X-131.032 I-6.033
X-119.243 Y-59.505 I6.032
X-118.967 Y-57.7 I-5.756 J1.805
G1 X-118.963 Y-57.377 F850
X-118.931 Y-57.056
X-118.69 Y-55.786
X-118.642 Y-55.632
X-118.598 Y-55.456
X-118.564 Y-55.262
X-118.541 Y-55.049
X-118.531 Y-54.818
X-118.537 Y-54.571
X-118.561 Y-54.308
X-118.605 Y-54.03
X-118.671 Y-53.74
X-118.76 Y-53.439
X-118.875 Y-53.13
X-119.017 Y-52.815
X-119.186 Y-52.496
X-119.384 Y-52.177
X-119.611 Y-51.86
X-119.868 Y-51.548
X-120.154 Y-51.244
X-120.468 Y-50.95
X-120.811 Y-50.671
X-121.181 Y-50.409
X-121.576 Y-50.166
X-121.996 Y-49.945
X-122.437 Y-49.748
X-122.899 Y-49.578
X-123.379 Y-49.438
X-123.875 Y-49.327
X-124.383 Y-49.249
X-124.902 Y-49.204
X-125.428 Y-49.193
X-125.959 Y-49.218
X-126.492 Y-49.278
X-127.024 Y-49.374
X-127.552 Y-49.506
X-128.073 Y-49.674
X-128.585 Y-49.877
X-129.085 Y-50.115
X-129.57 Y-50.387
X-130.038 Y-50.692
X-130.486 Y-51.028
X-130.912 Y-51.395
X-131.315 Y-51.79
X-131.691 Y-52.212
X-132.039 Y-52.659
X-132.358 Y-53.129
X-132.645 Y-53.62
X-132.899 Y-54.129
X-133.119 Y-54.655
X-133.304 Y-55.196
X-133.453 Y-55.748
X-133.565 Y-56.309
X-133.64 Y-56.877
X-133.677 Y-57.449
X-133.676 Y-58.023
X-133.637 Y-58.596
X-133.56 Y-59.165
X-133.445 Y-59.728
X-133.293 Y-60.282
X-133.105 Y-60.826
X-132.881 Y-61.356
X-132.622 Y-61.87
X-132.33 Y-62.366
X-132.005 Y-62.841
X-131.649 Y-63.294
X-131.264 Y-63.723
X-130.852 Y-64.125
X-130.413 Y-64.499
X-129.951 Y-64.843
X-129.467 Y-65.155
X-128.963 Y-65.435
X-128.442 Y-65.681
X-127.905 Y-65.892
X-127.356 Y-66.067
X-126.796 Y-66.204
X-126.228 Y-66.305
X-125.655 Y-66.368
X-125.079 Y-66.392
X-124.502 Y-66.378
X-123.928 Y-66.326
X-123.358 Y-66.236
X-122.796 Y-66.109
X-122.243 Y-65.944
X-121.703 Y-65.743
X-121.176 Y-65.507
X-120.667 Y-65.237
X-120.177 Y-64.933
X-119.708 Y-64.597
X-119.262 Y-64.231
X-118.842 Y-63.836
X-118.448 Y-63.414
X-118.084 Y-62.967
X-117.75 Y-62.497
X-117.447 Y-62.006
X-116.878 Y-60.925
X-116.433 Y-59.924
X-116.124 Y-59.084
X-115.903 Y-58.334
X-115.745 Y-57.624
X-115.641 Y-56.953
X-115.585 Y-56.307
X-115.572 Y-55.675
X-115.601 Y-55.055
X-115.669 Y-54.447
X-115.777 Y-53.851
X-115.923 Y-53.266
X-116.108 Y-52.692
X-116.33 Y-52.132
X-116.59 Y-51.585
X-116.888 Y-51.053
X-117.223 Y-50.538
X-117.595 Y-50.042
X-118.003 Y-49.567
X-118.446 Y-49.116
X-118.923 Y-48.69
X-119.433 Y-48.293
X-119.974 Y-47.926
X-120.544 Y-47.592
X-121.141 Y-47.294
X-121.762 Y-47.034
X-122.405 Y-46.814
X-123.067 Y-46.635
X-123.745 Y-46.499
X-124.437 Y-46.408
X-125.138 Y-46.362
X-125.846 Y-46.364
X-126.558 Y-46.412
X-127.27 Y-46.508
X-127.978 Y-46.652
X-128.679 Y-46.844
X-129.37 Y-47.083
X-130.048 Y-47.37
X-130.708 Y-47.702
X-131.347 Y-48.079
X-131.962 Y-48.499
X-132.551 Y-48.96
X-133.109 Y-49.461
X-133.634 Y-50
X-134.124 Y-50.574
X-134.576 Y-51.181
X-134.987 Y-51.817
X-135.356 Y-52.481
X-135.681 Y-53.169
X-135.96 Y-53.878
X-136.191 Y-54.606
X-136.374 Y-55.347
X-136.508 Y-56.101
X-136.591 Y-56.862
X-136.624 Y-57.628
X-136.606 Y-58.395
X-136.537 Y-59.16
X-136.417 Y-59.919
X-136.248 Y-60.669
X-136.028 Y-61.406
X-135.76 Y-62.128
X-135.445 Y-62.83
X-135.084 Y-63.511
X-134.678 Y-64.166
X-134.23 Y-64.793
X-133.74 Y-65.389
X-133.213 Y-65.951
X-132.648 Y-66.478
X-132.051 Y-66.965
X-131.422 Y-67.413
X-130.764 Y-67.817
X-130.081 Y-68.177
X-129.376 Y-68.491
X-128.651 Y-68.758
X-127.911 Y-68.976
X-127.157 Y-69.144
X-126.394 Y-69.262
X-125.624 Y-69.33
X-124.852 Y-69.346
X-124.08 Y-69.31
X-123.312 Y-69.224
X-122.552 Y-69.087
X-121.802 Y-68.9
X-121.067 Y-68.663
X-120.348 Y-68.378
X-119.65 Y-68.047
X-118.976 Y-67.669
X-118.328 Y-67.248
X-117.71 Y-66.785
X-117.06 Y-66.227
X-116.433 Y-65.612
X-115.799 Y-64.902
X-115.197 Y-64.13
X-114.647 Y-63.318
X-114.155 Y-62.478
X-113.727 Y-61.621
X-113.363 Y-60.755
X-113.064 Y-59.882
X-112.828 Y-59.01
X-112.654 Y-58.14
X-112.54 Y-57.277
X-112.484 Y-56.42
X-112.485 Y-55.57
X-112.542 Y-54.731
X-112.654 Y-53.902
X-112.82 Y-53.086
X-113.039 Y-52.284
X-113.31 Y-51.5
X-113.633 Y-50.735
X-114.006 Y-49.992
X-114.43 Y-49.273
X-114.901 Y-48.582
X-115.42 Y-47.92
X-115.984 Y-47.292
X-116.592 Y-46.699
X-117.241 Y-46.144
X-117.93 Y-45.631
X-118.655 Y-45.162
X-119.415 Y-44.74
X-120.205 Y-44.366
X-121.024 Y-44.044
X-121.867 Y-43.776
X-122.732 Y-43.562
X-123.615 Y-43.405
X-124.511 Y-43.307
X-125.418 Y-43.268
X-126.33 Y-43.289
X-127.245 Y-43.371
X-128.157 Y-43.515
X-129.061 Y-43.719
X-129.955 Y-43.985
X-130.833 Y-44.31
X-131.691 Y-44.695
X-132.524 Y-45.138
X-133.33 Y-45.636
X-134.103 Y-46.189
X-134.84 Y-46.793
X-135.537 Y-47.447
X-136.191 Y-48.148
X-136.799 Y-48.892
X-137.357 Y-49.677
X-137.863 Y-50.498
X-138.314 Y-51.353
X-138.708 Y-52.237
X-139.043 Y-53.147
X-139.317 Y-54.078
X-139.529 Y-55.026
X-139.678 Y-55.988
X-139.763 Y-56.958
X-139.784 Y-57.933
X-139.739 Y-58.908
X-139.63 Y-59.879
X-139.457 Y-60.84
X-139.221 Y-61.789
X-138.921 Y-62.721
X-138.561 Y-63.631
X-138.141 Y-64.515
X-137.662 Y-65.37
X-137.128 Y-66.192
X-136.541 Y-66.977
X-135.902 Y-67.721
X-135.215 Y-68.422
X-134.484 Y-69.076
X-133.71 Y-69.679
X-132.898 Y-70.231
X-132.05 Y-70.727
X-131.172 Y-71.166
X-130.266 Y-71.546
X-129.337 Y-71.865
X-128.389 Y-72.122
X-127.426 Y-72.315
X-126.452 Y-72.444
X-125.471 Y-72.508
X-124.489 Y-72.507
X-123.508 Y-72.441
X-122.534 Y-72.31
X-121.571 Y-72.115
X-120.623 Y-71.856
X-119.694 Y-71.535
X-118.774 Y-71.147
X-117.868 Y-70.691
X-116.97 Y-70.163
X-116.089 Y-69.562
X-115.235 Y-68.893
X-114.415 Y-68.157
X-113.636 Y-67.359
X-112.904 Y-66.502
X-112.227 Y-65.594
X-111.611 Y-64.642
X-111.061 Y-63.654
X-110.58 Y-62.637
X-110.171 Y-61.599
X-109.835 Y-60.545
X-109.572 Y-59.48
X-109.381 Y-58.409
X-109.263 Y-57.335
X-109.216 Y-56.262
X-109.241 Y-55.194
X-109.336 Y-54.135
X-109.501 Y-53.087
X-109.734 Y-52.055
X-110.035 Y-51.042
X-110.402 Y-50.051
X-110.834 Y-49.087
X-111.33 Y-48.152
X-111.887 Y-47.251
X-112.505 Y-46.386
X-113.18 Y-45.563
X-113.911 Y-44.783
X-114.694 Y-44.052
X-115.527 Y-43.371
X-116.407 Y-42.745
X-117.331 Y-42.176
X-118.294 Y-41.667
X-119.293 Y-41.221
X-120.325 Y-40.841
X-121.384 Y-40.529
X-122.467 Y-40.286
X-123.569 Y-40.115
X-124.684 Y-40.017
X-125.809 Y-39.993
X-126.938 Y-40.044
X-128.067 Y-40.17
X-129.189 Y-40.372
X-130.3 Y-40.649
X-131.394 Y-41
X-132.467 Y-41.425
X-133.513 Y-41.921
X-134.527 Y-42.488
X-135.504 Y-43.123
X-136.44 Y-43.823
X-137.329 Y-44.585
X-138.168 Y-45.407
X-138.952 Y-46.284
X-139.677 Y-47.214
X-140.341 Y-48.191
X-140.94 Y-49.212
X-141.47 Y-50.272
X-141.929 Y-51.367
X-142.316 Y-52.491
X-142.627 Y-53.64
X-142.862 Y-54.808
X-143.019 Y-55.99
X-143.097 Y-57.181
X-143.096 Y-58.376
X-143.016 Y-59.569
X-142.857 Y-60.755
X-142.619 Y-61.928
X-142.304 Y-63.084
X-141.913 Y-64.217
X-141.447 Y-65.322
X-140.909 Y-66.394
X-140.3 Y-67.428
X-139.624 Y-68.42
X-138.884 Y-69.366
X-138.082 Y-70.26
X-137.222 Y-71.1
X-136.309 Y-71.88
X-135.345 Y-72.599
X-134.336 Y-73.253
X-133.286 Y-73.838
X-132.199 Y-74.352
X-131.08 Y-74.793
X-129.934 Y-75.159
X-128.766 Y-75.448
X-127.581 Y-75.659
X-126.385 Y-75.791
X-125.183 Y-75.843
X-123.98 Y-75.816
X-122.781 Y-75.709
X-121.589 Y-75.522
X-120.405 Y-75.255
X-119.232 Y-74.907
X-118.071 Y-74.477
X-116.928 Y-73.965
X-115.807 Y-73.371
X-114.715 Y-72.696
X-113.664 Y-71.945
X-112.664 Y-71.127
X-111.72 Y-70.245
X-110.834 Y-69.303
X-110.011 Y-68.307
X-109.254 Y-67.261
X-108.565 Y-66.168
X-107.947 Y-65.033
X-107.404 Y-63.861
X-106.937 Y-62.656
X-106.55 Y-61.423
X-106.243 Y-60.168
X-106.019 Y-58.896
X-105.879 Y-57.611
X-105.824 Y-56.32
X-105.854 Y-55.029
X-105.969 Y-53.743
X-106.17 Y-52.471
X-106.453 Y-51.215
X-106.82 Y-49.982
X-107.267 Y-48.776
X-107.794 Y-47.602
X-108.398 Y-46.464
X-109.076 Y-45.367
X-109.827 Y-44.316
X-110.647 Y-43.317
X-111.531 Y-42.375
X-112.475 Y-41.493
X-113.475 Y-40.675
X-114.527 Y-39.924
X-115.625 Y-39.244
X-116.766 Y-38.637
X-117.943 Y-38.106
X-119.153 Y-37.652
X-120.39 Y-37.277
X-121.648 Y-36.983
X-122.922 Y-36.77
X-124.208 Y-36.64
X-125.499 Y-36.591
X-126.79 Y-36.624
X-128.077 Y-36.738
X-129.355 Y-36.934
X-130.617 Y-37.208
X-131.86 Y-37.561
X-133.079 Y-37.991
X-134.268 Y-38.494
X-135.425 Y-39.071
X-136.544 Y-39.717
X-137.62 Y-40.431
X-138.651 Y-41.211
X-139.631 Y-42.053
X-140.557 Y-42.954
X-141.426 Y-43.91
X-142.235 Y-44.917
X-142.981 Y-45.972
X-143.662 Y-47.07
X-144.275 Y-48.207
X-144.819 Y-49.379
X-145.291 Y-50.582
X-145.69 Y-51.811
X-146.014 Y-53.062
X-146.26 Y-54.33
X-146.429 Y-55.611
X-146.519 Y-56.9
X-146.532 Y-58.192
X-146.467 Y-59.483
X-146.324 Y-60.767
X-146.105 Y-62.04
X-145.81 Y-63.298
X-145.441 Y-64.536
X-144.998 Y-65.75
X-144.483 Y-66.935
X-143.897 Y-68.086
X-143.242 Y-69.2
X-142.521 Y-70.272
X-141.737 Y-71.299
X-140.893 Y-72.278
X-139.992 Y-73.204
X-139.038 Y-74.075
X-138.033 Y-74.887
X-136.982 Y-75.639
X-135.888 Y-76.326
X-134.754 Y-76.945
X-133.585 Y-77.495
X-132.384 Y-77.973
X-131.157 Y-78.378
X-129.908 Y-78.709
X-128.642 Y-78.965
X-127.362 Y-79.145
X-126.075 Y-79.249
X-124.783 Y-79.277
X-123.492 Y-79.227
X-122.206 Y-79.1
X-120.93 Y-78.895
X-119.669 Y-78.614
X-118.427 Y-78.26
X-117.207 Y-77.834
X-116.013 Y-77.339
X-114.85 Y-76.777
X-113.72 Y-76.149
X-112.629 Y-75.457
X-111.58 Y-74.704
X-110.574 Y-73.893
X-109.614 Y-73.028
X-108.704 Y-72.111
X-107.844 Y-71.147
X-107.039 Y-70.136
X-106.292 Y-69.081
X-105.605 Y-67.987
X-104.979 Y-66.857
X-104.416 Y-65.694
X-103.917 Y-64.502
X-103.484 Y-63.285
X-103.119 Y-62.045
X-102.826 Y-60.787
X-102.603 Y-59.515
X-102.451 Y-58.231
X-102.371 Y-56.942
X-102.361 Y-55.65
X-102.424 Y-54.359
X-102.561 Y-53.075
X-102.771 Y-51.8
X-103.053 Y-50.539
X-103.404 Y-49.295
X-103.825 Y-48.074
X-104.313 Y-46.877
X-104.867 Y-45.71
X-105.488 Y-44.577
X-106.173 Y-43.481
X-106.918 Y-42.426
X-107.72 Y-41.413
X-108.578 Y-40.447
X-109.487 Y-39.529
X-110.448 Y-38.664
X-111.455 Y-37.856
X-112.507 Y-37.105
X-113.599 Y-36.414
X-114.727 Y-35.784
X-115.888 Y-35.217
X-117.078 Y-34.714
X-118.294 Y-34.278
X-119.533 Y-33.912
X-120.79 Y-33.614
X-122.062 Y-33.385
X-123.344 Y-33.225
X-124.633 Y-33.134
X-125.925 Y-33.113
X-127.216 Y-33.162
X-128.502 Y-33.282
X-129.78 Y-33.472
X-131.047 Y-33.729
X-132.297 Y-34.053
X-133.529 Y-34.442
X-134.739 Y-34.896
X-135.923 Y-35.414
X-137.077 Y-35.996
X-138.198 Y-36.638
X-139.284 Y-37.338
X-140.331 Y-38.095
X-141.338 Y-38.905
X-142.3 Y-39.767
X-143.216 Y-40.679
X-144.081 Y-41.638
X-144.894 Y-42.642
X-145.654 Y-43.687
X-146.36 Y-44.769
X-147.008 Y-45.887
X-147.599 Y-47.036
X-148.127 Y-48.215
X-148.593 Y-49.42
X-148.995 Y-50.648
X-149.332 Y-51.896
X-149.604 Y-53.159
X-149.811 Y-54.434
X-149.952 Y-55.718
X-150.026 Y-57.008
X-150.031 Y-58.3
X-149.97 Y-59.591
X-149.841 Y-60.876
X-149.647 Y-62.154
X-149.389 Y-63.42
X-149.066 Y-64.671
X-148.678 Y-65.903
X-148.226 Y-67.114
X-147.711 Y-68.299
X-147.135 Y-69.455
X-146.5 Y-70.581
X-145.809 Y-71.673
X-145.064 Y-72.728
X-144.264 Y-73.743
X-143.413 Y-74.715
X-142.512 Y-75.641
X-141.565 Y-76.52
X-140.574 Y-77.349
X-139.542 Y-78.127
X-138.472 Y-78.851
X-137.366 Y-79.518
X-136.226 Y-80.126
X-135.056 Y-80.674
X-133.859 Y-81.161
X-132.639 Y-81.585
X-131.398 Y-81.947
X-130.141 Y-82.246
X-128.871 Y-82.48
X-127.589 Y-82.648
X-126.301 Y-82.748
X-125.01 Y-82.782
X-123.718 Y-82.749
X-122.43 Y-82.651
X-121.148 Y-82.488
X-119.876 Y-82.26
X-118.618 Y-81.967
X-117.376 Y-81.61
X-116.154 Y-81.191
X-114.954 Y-80.712
X-113.779 Y-80.174
X-112.633 Y-79.578
X-111.516 Y-78.927
X-110.434 Y-78.223
X-109.387 Y-77.465
X-108.379 Y-76.657
X-107.411 Y-75.8
X-106.486 Y-74.899
X-105.605 Y-73.954
X-104.77 Y-72.968
X-103.983 Y-71.943
X-103.246 Y-70.882
X-102.562 Y-69.785
X-101.932 Y-68.658
X-101.356 Y-67.501
X-100.836 Y-66.318
X-100.374 Y-65.112
X-99.969 Y-63.884
X-99.624 Y-62.639
X-99.341 Y-61.379
X-99.119 Y-60.106
X-98.959 Y-58.824
X-98.862 Y-57.535
X-98.826 Y-56.244
X-98.853 Y-54.952
X-98.943 Y-53.663
X-98.974 Y-53.4
X-98.999 Y-53.226
X-99.034 Y-53.054
X-99.077 Y-52.884
X-99.147 Y-52.641
X-99.828 Y-49.978
X-99.957 Y-49.598
X-100.091 Y-49.217
X-100.377 Y-48.456
X-100.521 Y-48.076
X-100.669 Y-47.696
X-100.979 Y-46.935
X-101.089 Y-46.697
X-102.129 Y-44.653
X-102.232 Y-44.483
X-102.613 Y-43.882
X-102.853 Y-43.512
X-103.352 Y-42.751
X-103.375 Y-42.718
X-103.895 Y-41.99
X-104.136 Y-41.66
X-105.12 Y-40.469
X-105.279 Y-40.281
X-105.783 Y-39.708
X-106.04 Y-39.45
X-107.183 Y-38.342
X-107.348 Y-38.186
X-107.945 Y-37.652
X-108.227 Y-37.426
X-109.207 Y-36.665
X-109.468 Y-36.469
X-110.254 Y-35.904
X-110.611 Y-35.672
X-112.134 Y-34.738
X-112.515 Y-34.51
X-114.419 Y-33.612
X-114.8 Y-33.442
X-115.289 Y-33.242
X-115.562 Y-33.132
X-117.466 Y-32.48
X-117.847 Y-32.374
X-118.608 Y-32.179
X-120.513 Y-31.753
X-120.677 Y-31.72
X-120.893 Y-31.695
X-122.036 Y-31.567
X-122.798 Y-31.483
X-123.178 Y-31.444
X-123.559 Y-31.414
X-123.94 Y-31.399
X-125.464
X-125.844 Y-31.402
X-126.606 Y-31.433
X-126.987 Y-31.459
X-128.51 Y-31.627
X-128.891 Y-31.671
X-129.653 Y-31.803
X-130.034 Y-31.876
X-131.938 Y-32.302
X-132.319 Y-32.415
X-132.536 Y-32.481
X-133.842 Y-32.928
X-134.223 Y-33.063
X-134.985 Y-33.338
X-135.366 Y-33.51
X-137.27 Y-34.408
X-137.651 Y-34.606
X-139.174 Y-35.54
X-139.936 Y-36.032
X-140.303 Y-36.285
X-141.84 Y-37.478
X-142.221 Y-37.774
X-142.257 Y-37.806
X-143.049 Y-38.567
X-144.226 Y-39.708
X-144.506 Y-40.026
X-144.887 Y-40.48
X-145.268 Y-40.938
X-145.822 Y-41.61
X-146.029 Y-41.876
X-146.116 Y-41.99
X-146.398 Y-42.371
X-147.172 Y-43.549
X-147.395 Y-43.892
X-147.933 Y-44.778
X-148.065 Y-45.033
X-148.838 Y-46.555
X-149.021 Y-46.935
X-149.331 Y-47.696
X-149.457 Y-48.016
X-149.766 Y-48.837
X-150.041 Y-49.598
X-150.172 Y-49.978
X-150.854 Y-52.641
X-150.962 Y-53.021
X-151.086 Y-53.401
X-151.215 Y-53.782
X-151.361 Y-54.111
X-151.388 Y-54.162
X-151.595 Y-54.542
X-151.744 Y-54.817
X-152.002 Y-55.376
X-152.235 Y-55.987
X-152.46 Y-56.719
X-152.654 Y-57.537
X-152.674 Y-57.655
X-152.717 Y-58.085
X-152.704 Y-58.517
X-152.634 Y-58.943
X-152.51 Y-59.357
X-152.332 Y-59.751
X-152.104 Y-60.119
G3 X-149.838 Y-59.507 I1.007 J0.774
G1 X-149.315 Y-55.461
G3 X-151.228 Y-54.209 I-1.26 J0.163
X-151.595 Y-54.542 I0.654 J-1.089
G1 X-152.123 Y-55.31
X-152.443 Y-55.684
X-152.504 Y-55.751
X-152.884 Y-56.113
X-153.094 Y-56.28
X-153.216 Y-56.388
X-153.344 Y-56.516
X-153.354 Y-56.528
X-153.563 Y-56.824
X-153.707 Y-57.157
X-153.781 Y-57.511
Y-57.874
X-153.708 Y-58.229
X-153.565 Y-58.562
X-153.357 Y-58.859
X-153.093 Y-59.107
G3 X-152.674 Y-59.376 I1.142 J1.318
X-150.563 Y-58.846 I0.724 J1.587
X-152.658 Y-56.041 I-1.448 J1.103
X-153.094 Y-56.28 I0.647 J-1.701
G1 X-153.265 Y-56.416
X-153.302 Y-56.444
X-153.646 Y-56.699
X-153.783 Y-56.825
X-153.863 Y-56.918
X-153.929 Y-57.012
X-154.027 Y-57.199
X-154.03 Y-57.205
X-154.092 Y-57.395
X-154.123 Y-57.585
X-154.125 Y-57.776
X-154.1 Y-57.966
X-154.07 Y-58.083
X-154.027 Y-58.2
X-153.954 Y-58.346
X-153.829 Y-58.524
X-153.737 Y-58.621
X-153.646 Y-58.701
X-153.613 Y-58.727
X-153.422 Y-58.863
X-153.411 Y-58.869
G2 X-153.197 Y-58.978 I-1.143 J-2.503
X-152.996 Y-59.12 I-0.626 J-1.105
X-152.947 Y-59.164 I-0.828 J-0.963
G1 X-152.425 Y-59.662
G2 X-152.381 Y-59.706 I-0.876 J-0.919
X-152.228 Y-59.903 I-0.92 J-0.875
X-152.109 Y-60.111 I-2.327 J-1.47
G1 X-152.104 Y-60.118
X-151.74 Y-60.628
X-151.515 Y-61.009
X-151.361 Y-61.291
X-151.314 Y-61.389
X-151.168 Y-61.77
X-150.98 Y-62.299
X-150.914 Y-62.53
X-150.62 Y-63.671
X-150.219 Y-65.24
X-150.11 Y-65.573
X-149.852 Y-66.334
X-149.422 Y-67.475
X-149.131 Y-68.236
X-149.076 Y-68.375
X-148.955 Y-68.616
X-148.181 Y-70.138
X-147.98 Y-70.518
X-147.535 Y-71.279
X-147.297 Y-71.659
X-146.41 Y-73.012
X-146.292 Y-73.181
X-146.029 Y-73.539
X-144.44 Y-75.463
X-144.125 Y-75.79
X-142.893 Y-76.985
X-142.498 Y-77.365
X-142.221 Y-77.626
X-140.317 Y-79.105
X-140.094 Y-79.267
X-139.519 Y-79.647
X-139.174 Y-79.86
X-138.031 Y-80.561
X-137.651 Y-80.778
X-137.27 Y-80.981
X-136.889 Y-81.172
X-135.281 Y-81.929
X-134.985 Y-82.062
X-134.223 Y-82.337
X-133.842 Y-82.472
X-133.08 Y-82.733
X-132.7 Y-82.857
X-132.032 Y-83.071
X-131.938 Y-83.098
X-130.034 Y-83.524
X-129.653 Y-83.597
X-128.891 Y-83.729
X-128.51 Y-83.773
X-126.987 Y-83.941
X-126.606 Y-83.967
X-125.844 Y-83.998
X-125.464 Y-84.001
X-123.94
X-123.559 Y-83.984
X-122.798 Y-83.915
X-122.417 Y-83.875
X-121.274 Y-83.748
X-120.893 Y-83.705
X-120.513 Y-83.647
X-118.608 Y-83.221
X-117.847 Y-83.026
X-117.466 Y-82.92
X-115.562 Y-82.268
X-115.181 Y-82.111
X-114.748 Y-81.929
X-114.419 Y-81.788
X-113.657 Y-81.429
X-113.11 Y-81.169
X-112.515 Y-80.884
X-112.34 Y-80.788
X-110.479 Y-79.647
X-110.23 Y-79.479
X-109.407 Y-78.886
X-109.087 Y-78.642
X-107.932 Y-77.745
X-107.564 Y-77.425
X-107.107 Y-76.985
X-106.322 Y-76.224
X-105.66 Y-75.577
X-105.56 Y-75.463
X-103.989 Y-73.561
X-103.755 Y-73.232
X-103.375 Y-72.675
X-103.202 Y-72.42
X-102.613 Y-71.522
X-102.459 Y-71.279
X-102.22 Y-70.899
X-102.013 Y-70.518
X-101.045 Y-68.616
X-100.869 Y-68.236
X-100.579 Y-67.475
X-100.148 Y-66.334
X-100.015 Y-65.954
X-99.889 Y-65.573
X-99.769 Y-65.193
X-99.088 Y-62.53
X-98.967 Y-62.15
X-98.804 Y-61.69
X-98.674 Y-61.389
X-98.424 Y-60.909
X-98.268 Y-60.628
X-97.984 Y-60.248
X-97.698 Y-59.868
X-97.608 Y-59.748
X-97.363 Y-59.358
X-97.107 Y-58.883
X-96.956 Y-58.476
X-96.865 Y-58.052
X-96.836 Y-57.619
X-96.869 Y-57.186
X-96.965 Y-56.763
X-97.121 Y-56.358
X-97.333 Y-55.979
X-97.598 Y-55.635
G3 X-99.785 Y-56.468 I-0.918 J-0.878
G1 X-99.871 Y-58.931
G3 X-97.698 Y-59.868 I1.269 J-0.044
G1 X-97.662 Y-59.828
X-97.324 Y-59.487
X-96.9 Y-59.105
X-96.596 Y-58.877
X-96.462 Y-58.764
X-96.256 Y-58.521
X-96.108 Y-58.238
X-96.024 Y-57.931
X-96.009 Y-57.612
X-96.063 Y-57.298
X-96.183 Y-57.003
X-96.365 Y-56.741
X-96.599 Y-56.524
G3 X-97.418 Y-56.27 I-0.818 J-1.186
X-98.837 Y-57.889 I0.001 J-1.432
X-97.046 Y-59.086 I1.42 J0.187
X-96.596 Y-58.877 I-0.37 J1.384
G1 X-96.519 Y-58.819
X-96.387 Y-58.727
X-96.263 Y-58.623
X-96.138 Y-58.488
X-96.041 Y-58.346
X-95.949 Y-58.156
X-95.893 Y-57.966
X-95.867 Y-57.776
X-95.87 Y-57.585
X-95.902 Y-57.395
X-95.965 Y-57.205
X-96.038 Y-57.059
X-96.138 Y-56.912
X-96.214 Y-56.825
X-96.367 Y-56.688
X-96.413 Y-56.656
X-96.49 Y-56.62 Z21.028
X-96.565 Y-56.584 Z21.05
X-96.636 Y-56.55 Z21.086
X-96.699 Y-56.52 Z21.135
X-96.76 Y-56.505 Z21.196
X-96.809 Y-56.492 Z21.268
X-96.845 Y-56.483 Z21.347
X-96.867 Y-56.478 Z21.431
X-96.874 Y-56.476 Z21.519
G0 Z50
X-369.295 Y-55.739
Z24.79
G1 Z23.52 F850
G3 X-380.705 Y-59.661 Z22.858 I-5.705 J-1.961 F283.3
X-369.295 Y-55.739 Z22.196 I5.705 J1.961
X-380.705 Y-59.661 Z21.535 I-5.705 J-1.961
X-379.485 Y-61.734 Z21.45 I5.705 J1.961
X-369.552 Y-60.29 Z21.036 I4.485 J4.034
X-380.448 Y-55.11 Z20.374 I-5.448 J2.59
X-369.552 Y-60.29 Z19.712 I5.448 J-2.59
X-380.448 Y-55.11 Z19.051 I-5.448 J2.59
X-381.027 Y-57.445 Z18.966 I5.448 J-2.59
X-368.973 Y-57.955 Z18.304 I6.027 J-0.255
X-370.572 Y-53.603 Z18.138 I-6.027 J0.255
X-380.484 Y-55.187 Z17.724 I-4.428 J-4.097
X-369.516 Y-60.213 Z17.062 I5.484 J-2.513
X-380.484 Y-55.187 Z16.4 I-5.484 J2.513
X-377.474 Y-63.202 Z16.068 I5.484 J-2.513
X-368.97 Y-57.87 Z15.654 I2.474 J5.502
X-377.16 Y-52.068 Z15.24 I-6.03 J0.17
X-372.839 Y-63.332 Z14.578 I2.161 J-5.632
X-377.16 Y-52.068 Z13.916 I-2.161 J5.632
X-372.839 Y-63.332 Z13.255 I2.161 J-5.632
X-377.16 Y-52.068 Z12.593 I-2.161 J5.632
X-372.839 Y-63.332 Z11.931 I2.161 J-5.632
X-377.16 Y-52.068 Z11.269 I-2.161 J5.632
X-372.839 Y-63.332 Z10.607 I2.161 J-5.632
X-377.16 Y-52.068 Z9.946 I-2.161 J5.632
X-372.839 Y-63.332 Z9.284 I2.161 J-5.632
X-368.967 Y-57.7 Z9.03 I-2.161 J5.632
X-381.032 I-6.033
X-374.307 Y-63.693 I6.033
X-369.244 Y-59.505 I-0.693 J5.993
X-368.967 Y-57.7 I-5.756 J1.805
G1 X-368.964 Y-57.377 F850
X-368.931 Y-57.056
X-368.691 Y-55.786
X-368.642 Y-55.632
X-368.599 Y-55.457
X-368.565 Y-55.262
X-368.541 Y-55.049
X-368.532 Y-54.818
X-368.538 Y-54.571
X-368.562 Y-54.308
X-368.605 Y-54.03
X-368.671 Y-53.74
X-368.761 Y-53.439
X-368.876 Y-53.13
X-369.017 Y-52.815
X-369.187 Y-52.497
X-369.385 Y-52.177
X-369.612 Y-51.86
X-369.869 Y-51.548
X-370.154 Y-51.244
X-370.469 Y-50.95
X-370.812 Y-50.671
X-371.181 Y-50.409
X-371.577 Y-50.166
X-371.996 Y-49.945
X-372.438 Y-49.748
X-372.9 Y-49.579
X-373.38 Y-49.438
X-373.875 Y-49.327
X-374.384 Y-49.249
X-374.903 Y-49.204
X-375.429 Y-49.193
X-375.96 Y-49.218
X-376.492 Y-49.278
X-377.024 Y-49.374
X-377.552 Y-49.506
X-378.073 Y-49.674
X-378.585 Y-49.878
X-379.085 Y-50.116
X-379.57 Y-50.387
X-380.038 Y-50.692
X-380.487 Y-51.028
X-380.913 Y-51.395
X-381.315 Y-51.79
X-381.692 Y-52.212
X-382.04 Y-52.659
X-382.358 Y-53.129
X-382.645 Y-53.62
X-382.9 Y-54.129
X-383.12 Y-54.656
X-383.305 Y-55.196
X-383.454 Y-55.748
X-383.566 Y-56.309
X-383.641 Y-56.877
X-383.678 Y-57.449
X-383.677 Y-58.023
X-383.638 Y-58.596
X-383.56 Y-59.165
X-383.446 Y-59.728
X-383.294 Y-60.282
X-383.105 Y-60.826
X-382.881 Y-61.356
X-382.623 Y-61.87
X-382.33 Y-62.366
X-382.005 Y-62.841
X-381.65 Y-63.294
X-381.265 Y-63.723
X-380.852 Y-64.125
X-380.414 Y-64.499
X-379.952 Y-64.843
X-379.468 Y-65.155
X-378.964 Y-65.435
X-378.442 Y-65.681
X-377.906 Y-65.892
X-377.356 Y-66.067
X-376.797 Y-66.205
X-376.229 Y-66.305
X-375.656 Y-66.368
X-375.079 Y-66.392
X-374.503 Y-66.378
X-373.929 Y-66.326
X-373.359 Y-66.237
X-372.797 Y-66.109
X-372.244 Y-65.944
X-371.703 Y-65.744
X-371.177 Y-65.507
X-370.668 Y-65.237
X-370.177 Y-64.933
X-369.708 Y-64.597
X-369.263 Y-64.231
X-368.842 Y-63.836
X-368.449 Y-63.414
X-368.084 Y-62.967
X-367.75 Y-62.497
X-367.448 Y-62.006
X-366.879 Y-60.926
X-366.433 Y-59.924
X-366.124 Y-59.085
X-365.904 Y-58.334
X-365.745 Y-57.624
X-365.642 Y-56.953
X-365.586 Y-56.307
X-365.573 Y-55.675
X-365.601 Y-55.055
X-365.67 Y-54.447
X-365.777 Y-53.851
X-365.924 Y-53.266
X-366.108 Y-52.692
X-366.331 Y-52.132
X-366.591 Y-51.585
X-366.889 Y-51.053
X-367.224 Y-50.538
X-367.595 Y-50.042
X-368.003 Y-49.567
X-368.446 Y-49.116
X-368.923 Y-48.69
X-369.433 Y-48.293
X-369.974 Y-47.926
X-370.544 Y-47.592
X-371.141 Y-47.294
X-371.763 Y-47.034
X-372.406 Y-46.814
X-373.068 Y-46.635
X-373.746 Y-46.499
X-374.437 Y-46.408
X-375.139 Y-46.362
X-375.847 Y-46.364
X-376.559 Y-46.412
X-377.27 Y-46.508
X-377.978 Y-46.652
X-378.68 Y-46.844
X-379.371 Y-47.084
X-380.048 Y-47.37
X-380.708 Y-47.702
X-381.348 Y-48.079
X-381.963 Y-48.499
X-382.551 Y-48.96
X-383.11 Y-49.461
X-383.635 Y-50
X-384.125 Y-50.574
X-384.576 Y-51.181
X-384.988 Y-51.817
X-385.357 Y-52.481
X-385.682 Y-53.169
X-385.96 Y-53.878
X-386.192 Y-54.606
X-386.375 Y-55.348
X-386.509 Y-56.101
X-386.592 Y-56.862
X-386.625 Y-57.628
X-386.607 Y-58.395
X-386.538 Y-59.16
X-386.418 Y-59.919
X-386.248 Y-60.669
X-386.029 Y-61.406
X-385.761 Y-62.128
X-385.446 Y-62.83
X-385.084 Y-63.511
X-384.679 Y-64.166
X-384.23 Y-64.793
X-383.741 Y-65.389
X-383.213 Y-65.951
X-382.649 Y-66.478
X-382.051 Y-66.965
X-381.422 Y-67.413
X-380.765 Y-67.817
X-380.082 Y-68.177
X-379.377 Y-68.491
X-378.652 Y-68.758
X-377.911 Y-68.976
X-377.157 Y-69.144
X-376.394 Y-69.262
X-375.625 Y-69.33
X-374.852 Y-69.346
X-374.081 Y-69.31
X-373.313 Y-69.224
X-372.552 Y-69.087
X-371.803 Y-68.9
X-371.067 Y-68.663
X-370.349 Y-68.378
X-369.651 Y-68.047
X-368.977 Y-67.669
X-368.329 Y-67.248
X-367.71 Y-66.785
X-367.06 Y-66.227
X-366.433 Y-65.612
X-365.8 Y-64.902
X-365.198 Y-64.13
X-364.647 Y-63.318
X-364.155 Y-62.478
X-363.727 Y-61.621
X-363.364 Y-60.755
X-363.065 Y-59.883
X-362.829 Y-59.01
X-362.655 Y-58.141
X-362.54 Y-57.277
X-362.485 Y-56.42
X-362.486 Y-55.57
X-362.543 Y-54.731
X-362.654 Y-53.902
X-362.82 Y-53.086
X-363.039 Y-52.284
X-363.31 Y-51.5
X-363.633 Y-50.735
X-364.007 Y-49.992
X-364.43 Y-49.273
X-364.902 Y-48.582
X-365.421 Y-47.92
X-365.985 Y-47.292
X-366.592 Y-46.699
X-367.242 Y-46.144
X-367.93 Y-45.631
X-368.656 Y-45.162
X-369.415 Y-44.74
X-370.206 Y-44.367
X-371.025 Y-44.044
X-371.868 Y-43.776
X-372.733 Y-43.562
X-373.615 Y-43.405
X-374.512 Y-43.307
X-375.418 Y-43.268
X-376.331 Y-43.289
X-377.245 Y-43.371
X-378.157 Y-43.515
X-379.062 Y-43.719
X-379.956 Y-43.985
X-380.833 Y-44.311
X-381.691 Y-44.695
X-382.525 Y-45.138
X-383.33 Y-45.636
X-384.103 Y-46.189
X-384.84 Y-46.793
X-385.538 Y-47.447
X-386.192 Y-48.148
X-386.799 Y-48.892
X-387.357 Y-49.677
X-387.863 Y-50.498
X-388.314 Y-51.353
X-388.708 Y-52.237
X-389.043 Y-53.147
X-389.318 Y-54.078
X-389.53 Y-55.026
X-389.679 Y-55.988
X-389.764 Y-56.958
X-389.784 Y-57.933
X-389.74 Y-58.908
X-389.631 Y-59.879
X-389.458 Y-60.84
X-389.221 Y-61.789
X-388.922 Y-62.721
X-388.561 Y-63.631
X-388.141 Y-64.515
X-387.663 Y-65.37
X-387.129 Y-66.192
X-386.541 Y-66.977
X-385.903 Y-67.721
X-385.216 Y-68.422
X-384.484 Y-69.076
X-383.71 Y-69.679
X-382.898 Y-70.231
X-382.051 Y-70.727
X-381.173 Y-71.166
X-380.267 Y-71.546
X-379.338 Y-71.865
X-378.39 Y-72.122
X-377.427 Y-72.315
X-376.453 Y-72.444
X-375.472 Y-72.508
X-374.489 Y-72.507
X-373.509 Y-72.441
X-372.535 Y-72.31
X-371.572 Y-72.115
X-370.623 Y-71.856
X-369.694 Y-71.535
X-368.775 Y-71.147
X-367.868 Y-70.691
X-366.971 Y-70.163
X-366.089 Y-69.562
X-365.236 Y-68.893
X-364.416 Y-68.158
X-363.636 Y-67.359
X-362.904 Y-66.503
X-362.227 Y-65.594
X-361.611 Y-64.642
X-361.061 Y-63.654
X-360.581 Y-62.637
X-360.172 Y-61.599
X-359.836 Y-60.545
X-359.572 Y-59.48
X-359.382 Y-58.409
X-359.264 Y-57.335
X-359.217 Y-56.262
X-359.242 Y-55.194
X-359.337 Y-54.135
X-359.501 Y-53.087
X-359.734 Y-52.055
X-360.035 Y-51.042
X-360.402 Y-50.051
X-360.834 Y-49.087
X-361.33 Y-48.152
X-361.888 Y-47.251
X-362.505 Y-46.386
X-363.181 Y-45.563
X-363.911 Y-44.783
X-364.695 Y-44.052
X-365.528 Y-43.371
X-366.408 Y-42.745
X-367.331 Y-42.176
X-368.294 Y-41.667
X-369.294 Y-41.221
X-370.325 Y-40.841
X-371.385 Y-40.529
X-372.467 Y-40.286
X-373.569 Y-40.115
X-374.685 Y-40.017
X-375.81 Y-39.993
X-376.939 Y-40.044
X-378.067 Y-40.17
X-379.189 Y-40.372
X-380.301 Y-40.649
X-381.395 Y-41
X-382.468 Y-41.425
X-383.514 Y-41.921
X-384.528 Y-42.488
X-385.505 Y-43.123
X-386.44 Y-43.823
X-387.329 Y-44.585
X-388.168 Y-45.407
X-388.952 Y-46.284
X-389.678 Y-47.214
X-390.342 Y-48.191
X-390.94 Y-49.212
X-391.471 Y-50.272
X-391.93 Y-51.367
X-392.316 Y-52.491
X-392.628 Y-53.64
X-392.863 Y-54.808
X-393.02 Y-55.99
X-393.098 Y-57.181
X-393.097 Y-58.376
X-393.017 Y-59.569
X-392.857 Y-60.755
X-392.62 Y-61.928
X-392.305 Y-63.084
X-391.913 Y-64.217
X-391.447 Y-65.322
X-390.909 Y-66.394
X-390.301 Y-67.428
X-389.625 Y-68.42
X-388.884 Y-69.366
X-388.083 Y-70.26
X-387.223 Y-71.1
X-386.31 Y-71.881
X-385.346 Y-72.599
X-384.337 Y-73.253
X-383.286 Y-73.838
X-382.199 Y-74.352
X-381.08 Y-74.793
X-379.934 Y-75.159
X-378.766 Y-75.448
X-377.582 Y-75.659
X-376.386 Y-75.791
X-375.184 Y-75.843
X-373.98 Y-75.816
X-372.782 Y-75.709
X-371.589 Y-75.522
X-370.406 Y-75.255
X-369.233 Y-74.907
X-368.072 Y-74.477
X-366.928 Y-73.965
X-365.808 Y-73.371
X-364.716 Y-72.696
X-363.664 Y-71.945
X-362.664 Y-71.127
X-361.72 Y-70.245
X-360.835 Y-69.304
X-360.012 Y-68.307
X-359.255 Y-67.261
X-358.565 Y-66.168
X-357.948 Y-65.033
X-357.404 Y-63.861
X-356.938 Y-62.656
X-356.55 Y-61.423
X-356.243 Y-60.168
X-356.019 Y-58.896
X-355.879 Y-57.611
X-355.824 Y-56.32
X-355.854 Y-55.029
X-355.97 Y-53.743
X-356.17 Y-52.471
X-356.454 Y-51.215
X-356.82 Y-49.982
X-357.268 Y-48.776
X-357.794 Y-47.602
X-358.398 Y-46.464
X-359.077 Y-45.367
X-359.828 Y-44.316
X-360.647 Y-43.318
X-361.531 Y-42.375
X-362.475 Y-41.493
X-363.475 Y-40.675
X-364.527 Y-39.924
X-365.626 Y-39.244
X-366.766 Y-38.637
X-367.944 Y-38.106
X-369.154 Y-37.652
X-370.39 Y-37.277
X-371.648 Y-36.983
X-372.923 Y-36.77
X-374.208 Y-36.64
X-375.499 Y-36.591
X-376.791 Y-36.624
X-378.078 Y-36.738
X-379.355 Y-36.934
X-380.618 Y-37.208
X-381.861 Y-37.561
X-383.079 Y-37.991
X-384.269 Y-38.494
X-385.425 Y-39.071
X-386.544 Y-39.717
X-387.621 Y-40.431
X-388.651 Y-41.211
X-389.631 Y-42.053
X-390.557 Y-42.954
X-391.427 Y-43.91
X-392.236 Y-44.917
X-392.982 Y-45.972
X-393.663 Y-47.07
X-394.276 Y-48.207
X-394.82 Y-49.379
X-395.292 Y-50.582
X-395.691 Y-51.811
X-396.014 Y-53.062
X-396.261 Y-54.33
X-396.429 Y-55.611
X-396.52 Y-56.9
X-396.532 Y-58.192
X-396.467 Y-59.483
X-396.325 Y-60.767
X-396.105 Y-62.04
X-395.811 Y-63.298
X-395.441 Y-64.536
X-394.999 Y-65.75
X-394.484 Y-66.935
X-393.897 Y-68.086
X-393.242 Y-69.2
X-392.522 Y-70.272
X-391.738 Y-71.299
X-390.893 Y-72.278
X-389.993 Y-73.204
X-389.038 Y-74.075
X-388.034 Y-74.887
X-386.983 Y-75.639
X-385.888 Y-76.326
X-384.754 Y-76.945
X-383.585 Y-77.495
X-382.385 Y-77.973
X-381.158 Y-78.378
X-379.909 Y-78.709
X-378.642 Y-78.965
X-377.363 Y-79.145
X-376.075 Y-79.249
X-374.783 Y-79.277
X-373.492 Y-79.227
X-372.207 Y-79.1
X-370.931 Y-78.895
X-369.67 Y-78.614
X-368.427 Y-78.26
X-367.207 Y-77.834
X-366.014 Y-77.339
X-364.85 Y-76.777
X-363.721 Y-76.149
X-362.63 Y-75.457
X-361.58 Y-74.704
X-360.574 Y-73.893
X-359.615 Y-73.028
X-358.704 Y-72.111
X-357.845 Y-71.147
X-357.04 Y-70.136
X-356.293 Y-69.082
X-355.606 Y-67.987
X-354.98 Y-66.857
X-354.417 Y-65.694
X-353.918 Y-64.502
X-353.484 Y-63.285
X-353.12 Y-62.046
X-352.826 Y-60.787
X-352.603 Y-59.515
X-352.452 Y-58.231
X-352.371 Y-56.942
X-352.362 Y-55.65
X-352.425 Y-54.359
X-352.562 Y-53.075
X-352.771 Y-51.8
X-353.053 Y-50.539
X-353.405 Y-49.295
X-353.826 Y-48.074
X-354.313 Y-46.877
X-354.868 Y-45.71
X-355.489 Y-44.577
X-356.173 Y-43.481
X-356.918 Y-42.426
X-357.721 Y-41.413
X-358.578 Y-40.447
X-359.488 Y-39.529
X-360.448 Y-38.664
X-361.456 Y-37.856
X-362.508 Y-37.105
X-363.599 Y-36.414
X-364.727 Y-35.784
X-365.888 Y-35.217
X-367.078 Y-34.714
X-368.295 Y-34.278
X-369.534 Y-33.912
X-370.791 Y-33.614
X-372.063 Y-33.385
X-373.345 Y-33.225
X-374.633 Y-33.134
X-375.925 Y-33.113
X-377.216 Y-33.162
X-378.503 Y-33.283
X-379.781 Y-33.472
X-381.047 Y-33.729
X-382.298 Y-34.053
X-383.53 Y-34.443
X-384.74 Y-34.896
X-385.923 Y-35.414
X-387.077 Y-35.996
X-388.198 Y-36.638
X-389.284 Y-37.338
X-390.332 Y-38.095
X-391.338 Y-38.905
X-392.301 Y-39.767
X-393.216 Y-40.679
X-394.081 Y-41.638
X-394.895 Y-42.642
X-395.655 Y-43.687
X-396.36 Y-44.769
X-397.009 Y-45.887
X-397.599 Y-47.036
X-398.128 Y-48.215
X-398.594 Y-49.42
X-398.995 Y-50.648
X-399.332 Y-51.896
X-399.605 Y-53.159
X-399.812 Y-54.434
X-399.953 Y-55.718
X-400.027 Y-57.008
X-400.032 Y-58.3
X-399.97 Y-59.591
X-399.842 Y-60.877
X-399.648 Y-62.154
X-399.389 Y-63.42
X-399.066 Y-64.671
X-398.679 Y-65.903
X-398.226 Y-67.114
X-397.711 Y-68.299
X-397.135 Y-69.455
X-396.501 Y-70.581
X-395.81 Y-71.673
X-395.064 Y-72.728
X-394.265 Y-73.743
X-393.414 Y-74.715
X-392.513 Y-75.641
X-391.566 Y-76.52
X-390.575 Y-77.349
X-389.543 Y-78.127
X-388.473 Y-78.851
X-387.366 Y-79.518
X-386.226 Y-80.126
X-385.056 Y-80.674
X-383.859 Y-81.161
X-382.639 Y-81.585
X-381.399 Y-81.947
X-380.142 Y-82.246
X-378.871 Y-82.481
X-377.59 Y-82.648
X-376.302 Y-82.748
X-375.01 Y-82.782
X-373.719 Y-82.75
X-372.43 Y-82.651
X-371.149 Y-82.488
X-369.877 Y-82.26
X-368.618 Y-81.967
X-367.377 Y-81.61
X-366.154 Y-81.192
X-364.954 Y-80.712
X-363.78 Y-80.174
X-362.633 Y-79.578
X-361.517 Y-78.927
X-360.434 Y-78.223
X-359.388 Y-77.465
X-358.38 Y-76.657
X-357.412 Y-75.801
X-356.486 Y-74.899
X-355.605 Y-73.954
X-354.77 Y-72.968
X-353.983 Y-71.943
X-353.247 Y-70.882
X-352.563 Y-69.786
X-351.932 Y-68.658
X-351.357 Y-67.501
X-350.837 Y-66.318
X-350.374 Y-65.112
X-349.97 Y-63.885
X-349.625 Y-62.639
X-349.341 Y-61.379
X-349.12 Y-60.106
X-348.96 Y-58.824
X-348.862 Y-57.535
X-348.827 Y-56.244
X-348.854 Y-54.952
X-348.943 Y-53.663
X-348.975 Y-53.393
X-349.001 Y-53.219
X-349.035 Y-53.047
X-349.079 Y-52.877
X-349.146 Y-52.641
X-349.828 Y-49.978
X-349.959 Y-49.598
X-350.234 Y-48.837
X-350.543 Y-48.016
X-350.669 Y-47.696
X-350.979 Y-46.935
X-351.162 Y-46.555
X-351.935 Y-45.033
X-352.067 Y-44.778
X-352.605 Y-43.892
X-352.853 Y-43.512
X-353.602 Y-42.371
X-353.884 Y-41.99
X-353.971 Y-41.876
X-354.178 Y-41.61
X-354.806 Y-40.849
X-355.123 Y-40.469
X-355.494 Y-40.026
X-355.774 Y-39.708
X-357.018 Y-38.503
X-357.743 Y-37.806
X-357.779 Y-37.774
X-358.922 Y-36.886
X-359.697 Y-36.285
X-360.064 Y-36.032
X-360.826 Y-35.54
X-362.349 Y-34.606
X-362.73 Y-34.408
X-364.634 Y-33.51
X-365.015 Y-33.338
X-365.777 Y-33.063
X-366.158 Y-32.928
X-367.464 Y-32.481
X-367.681 Y-32.415
X-368.062 Y-32.302
X-369.966 Y-31.876
X-370.347 Y-31.803
X-371.109 Y-31.671
X-371.49 Y-31.627
X-373.013 Y-31.459
X-373.394 Y-31.433
X-374.156 Y-31.402
X-374.536 Y-31.399
X-376.06
X-376.441 Y-31.414
X-376.822 Y-31.444
X-377.202 Y-31.483
X-378.345 Y-31.609
X-379.107 Y-31.695
X-379.323 Y-31.72
X-379.487 Y-31.753
X-381.392 Y-32.179
X-382.153 Y-32.374
X-382.537 Y-32.481
X-384.438 Y-33.132
X-384.711 Y-33.242
X-385.2 Y-33.442
X-385.602 Y-33.622
X-387.485 Y-34.51
X-387.907 Y-34.763
X-389.389 Y-35.672
X-389.746 Y-35.904
X-390.532 Y-36.469
X-390.793 Y-36.665
X-391.773 Y-37.426
X-392.055 Y-37.652
X-392.652 Y-38.186
X-392.817 Y-38.342
X-393.96 Y-39.45
X-394.217 Y-39.708
X-394.721 Y-40.281
X-394.879 Y-40.469
X-395.864 Y-41.66
X-396.104 Y-41.99
X-396.625 Y-42.718
X-396.648 Y-42.751
X-397.147 Y-43.512
X-397.393 Y-43.892
X-397.768 Y-44.482
X-397.871 Y-44.653
X-398.911 Y-46.696
X-399.021 Y-46.935
X-399.331 Y-47.696
X-399.479 Y-48.076
X-399.766 Y-48.837
X-399.908 Y-49.217
X-400.053 Y-49.626
X-400.172 Y-49.978
X-400.854 Y-52.641
X-400.962 Y-53.021
X-401.086 Y-53.401
X-401.196 Y-53.73
X-401.591 Y-54.542
X-401.614 Y-54.577
X-401.69 Y-54.707
X-401.946 Y-55.242
X-402.184 Y-55.839
X-402.417 Y-56.557
X-402.613 Y-57.337
X-402.665 Y-57.619
X-402.716 Y-58.07
X-402.704 Y-58.524
X-402.63 Y-58.971
X-402.495 Y-59.405
X-402.303 Y-59.816
X-402.055 Y-60.196
G3 X-401.674 Y-60.513 I0.987 J0.799
X-399.807 Y-59.549 I0.607 J1.116
G1 X-399.315 Y-55.461
G3 X-401.614 Y-54.577 I-1.261 J0.152
G1 X-401.84 Y-54.923
X-402.114 Y-55.303
X-402.338 Y-55.563
X-402.446 Y-55.684
X-402.719 Y-55.958
X-402.831 Y-56.064
X-403.1 Y-56.291
X-403.213 Y-56.389
X-403.341 Y-56.518
X-403.368 Y-56.548
X-403.575 Y-56.843
X-403.718 Y-57.173
X-403.791 Y-57.525
Y-57.885
X-403.717 Y-58.237
X-403.572 Y-58.567
X-403.364 Y-58.861
X-403.1 Y-59.105
G3 X-402.678 Y-59.367 I1.116 J1.325
X-400.633 Y-58.864 I0.693 J1.587
X-402.662 Y-56.054 I-1.402 J1.125
X-403.1 Y-56.291 I0.627 J-1.685
G1 X-403.294 Y-56.444
X-403.481 Y-56.583
X-403.633 Y-56.688
X-403.786 Y-56.825
X-403.862 Y-56.912
X-403.962 Y-57.058
X-404.035 Y-57.205
X-404.099 Y-57.395
X-404.131 Y-57.585
X-404.134 Y-57.776
X-404.108 Y-57.966
X-404.051 Y-58.156
X-403.959 Y-58.346
X-403.862 Y-58.488
X-403.738 Y-58.624
X-403.614 Y-58.727
X-403.54 Y-58.777
X-403.53 Y-58.783
G2 X-403.296 Y-58.899 I-1.207 J-2.732
X-403.109 Y-59.025 I-0.612 J-1.113
X-403.031 Y-59.093 I-0.799 J-0.987
G1 X-402.395 Y-59.701
G2 X-402.323 Y-59.775 I-0.877 J-0.918
X-402.189 Y-59.956 I-0.948 J-0.845
X-402.063 Y-60.184 I-2.548 J-1.559
G1 X-402.057 Y-60.194
X-401.733 Y-60.628
X-401.576 Y-60.91
X-401.326 Y-61.389
X-401.196 Y-61.691
X-401.033 Y-62.15
X-400.912 Y-62.53
X-400.231 Y-65.193
X-400.111 Y-65.573
X-399.984 Y-65.954
X-399.852 Y-66.334
X-399.422 Y-67.475
X-399.131 Y-68.236
X-398.955 Y-68.616
X-397.988 Y-70.518
X-397.781 Y-70.899
X-397.542 Y-71.279
X-397.387 Y-71.522
X-396.798 Y-72.42
X-396.54 Y-72.8
X-396.245 Y-73.232
X-396.011 Y-73.561
X-394.44 Y-75.463
X-394.34 Y-75.577
X-393.579 Y-76.32
X-392.817 Y-77.058
X-392.436 Y-77.425
X-392.068 Y-77.745
X-390.913 Y-78.642
X-390.593 Y-78.886
X-389.77 Y-79.479
X-389.521 Y-79.647
X-387.66 Y-80.788
X-387.485 Y-80.884
X-386.723 Y-81.249
X-386.343 Y-81.429
X-385.581 Y-81.788
X-385.2 Y-81.951
X-384.819 Y-82.111
X-384.438 Y-82.268
X-382.534 Y-82.92
X-382.153 Y-83.026
X-381.392 Y-83.221
X-379.487 Y-83.647
X-379.107 Y-83.705
X-378.345 Y-83.791
X-377.583 Y-83.875
X-377.202 Y-83.915
X-376.441 Y-83.984
X-376.06 Y-84.001
X-374.536
X-374.156 Y-83.998
X-373.394 Y-83.967
X-373.013 Y-83.941
X-371.49 Y-83.773
X-371.109 Y-83.729
X-370.347 Y-83.597
X-369.966 Y-83.524
X-368.062 Y-83.098
X-367.968 Y-83.071
X-367.3 Y-82.857
X-366.92 Y-82.733
X-366.158 Y-82.472
X-365.701 Y-82.31
X-365.015 Y-82.062
X-364.719 Y-81.929
X-363.104 Y-81.169
X-362.73 Y-80.981
X-362.349 Y-80.778
X-361.969 Y-80.561
X-360.826 Y-79.86
X-360.481 Y-79.647
X-359.906 Y-79.267
X-359.683 Y-79.105
X-357.779 Y-77.626
X-357.502 Y-77.365
X-357.018 Y-76.898
X-355.875 Y-75.79
X-355.56 Y-75.463
X-353.971 Y-73.539
X-353.708 Y-73.181
X-353.59 Y-73.012
X-352.703 Y-71.659
X-352.465 Y-71.279
X-352.02 Y-70.518
X-351.819 Y-70.138
X-351.045 Y-68.616
X-350.924 Y-68.375
X-350.869 Y-68.236
X-350.543 Y-67.384
X-350.148 Y-66.334
X-349.89 Y-65.573
X-349.781 Y-65.24
X-349.283 Y-63.291
X-349.086 Y-62.53
X-349.02 Y-62.299
X-348.832 Y-61.77
X-348.686 Y-61.389
X-348.639 Y-61.291
X-348.485 Y-61.009
X-348.258 Y-60.625
X-347.877 Y-60.092
X-347.846 Y-60.055
X-347.674 Y-59.827
X-347.435 Y-59.461
X-347.177 Y-59.003
X-347.106 Y-58.856
X-346.952 Y-58.461
X-346.856 Y-58.048
X-346.823 Y-57.625
X-346.851 Y-57.202
X-346.942 Y-56.787
X-347.092 Y-56.39
X-347.298 Y-56.02
X-347.557 Y-55.684
G3 X-347.957 Y-55.391 I-0.935 J-0.86
X-349.754 Y-56.401 I-0.534 J-1.152
G1 X-350.054 Y-59.065
G3 X-347.846 Y-60.055 I1.262 J-0.142
G1 X-347.69 Y-59.868
X-347.116 Y-59.301
X-346.907 Y-59.107
X-346.735 Y-58.975
X-346.63 Y-58.9
X-346.482 Y-58.783
X-346.268 Y-58.541
X-346.113 Y-58.258
X-346.023 Y-57.947
X-346.003 Y-57.625
X-346.055 Y-57.306
X-346.175 Y-57.006
X-346.358 Y-56.74
X-346.595 Y-56.521
G3 X-347.045 Y-56.313 I-0.83 J-1.208
X-347.404 Y-56.263 I-0.38 J-1.415
X-348.854 Y-57.862 I-0.021 J-1.438
X-347.084 Y-59.099 I1.429 J0.161
X-346.63 Y-58.9 I-0.34 J1.398
G1 X-346.387 Y-58.727
X-346.354 Y-58.701
X-346.263 Y-58.621
X-346.171 Y-58.524
X-346.046 Y-58.346
X-345.973 Y-58.2
X-345.93 Y-58.083
X-345.9 Y-57.966
X-345.875 Y-57.776
X-345.877 Y-57.585
X-345.908 Y-57.395
X-345.97 Y-57.205
X-345.973 Y-57.199
X-346.071 Y-57.012
X-346.137 Y-56.918
X-346.217 Y-56.825
X-346.354 Y-56.699
X-346.543 Y-56.559
X-346.619 Y-56.52 Z9.038
X-346.693 Y-56.481 Z9.06
X-346.762 Y-56.446 Z9.096
X-346.825 Y-56.413 Z9.145
X-346.885 Y-56.396 Z9.206
X-346.933 Y-56.382 Z9.278
X-346.969 Y-56.372 Z9.357
X-346.991 Y-56.365 Z9.441
X-346.998 Y-56.363 Z9.529
G0 Z50
X-119.294 Y-55.739
Z24.79
G1 Z23.52 F850
G3 X-130.704 Y-59.661 Z22.858 I-5.705 J-1.961 F283.3
X-119.294 Y-55.739 Z22.196 I5.705 J1.961
X-130.704 Y-59.661 Z21.535 I-5.705 J-1.961
X-119.294 Y-55.739 Z20.873 I5.705 J1.961
X-130.704 Y-59.661 Z20.211 I-5.705 J-1.961
X-119.294 Y-55.739 Z19.549 I5.705 J1.961
X-130.704 Y-59.661 Z18.887 I-5.705 J-1.961
X-119.294 Y-55.739 Z18.226 I5.705 J1.961
X-130.704 Y-59.661 Z17.564 I-5.705 J-1.961
X-119.294 Y-55.739 Z16.902 I5.705 J1.961
X-130.704 Y-59.661 Z16.24 I-5.705 J-1.961
X-119.294 Y-55.739 Z15.578 I5.705 J1.961
X-130.704 Y-59.661 Z14.917 I-5.705 J-1.961
X-119.294 Y-55.739 Z14.255 I5.705 J1.961
X-130.704 Y-59.661 Z13.593 I-5.705 J-1.961
X-119.294 Y-55.739 Z12.931 I5.705 J1.961
X-130.704 Y-59.661 Z12.269 I-5.705 J-1.961
X-119.294 Y-55.739 Z11.607 I5.705 J1.961
X-130.704 Y-59.661 Z10.946 I-5.705 J-1.961
X-119.294 Y-55.739 Z10.284 I5.705 J1.961
X-130.704 Y-59.661 Z9.622 I-5.705 J-1.961
X-118.967 Y-57.7 Z9.03 I5.705 J1.961
X-131.032 I-6.033
X-119.243 Y-59.505 I6.032
X-118.967 Y-57.7 I-5.756 J1.805
G1 X-118.963 Y-57.377 F850
X-118.931 Y-57.056
X-118.69 Y-55.786
X-118.642 Y-55.632
X-118.598 Y-55.456
X-118.564 Y-55.262
X-118.541 Y-55.049
X-118.531 Y-54.818
X-118.537 Y-54.571
X-118.561 Y-54.308
X-118.605 Y-54.03
X-118.671 Y-53.74
X-118.76 Y-53.439
X-118.875 Y-53.13
X-119.017 Y-52.815
X-119.186 Y-52.496
X-119.384 Y-52.177
X-119.611 Y-51.86
X-119.868 Y-51.548
X-120.154 Y-51.244
X-120.468 Y-50.95
X-120.811 Y-50.671
X-121.181 Y-50.409
X-121.576 Y-50.166
X-121.996 Y-49.945
X-122.437 Y-49.748
X-122.899 Y-49.578
X-123.379 Y-49.438
X-123.875 Y-49.327
X-124.383 Y-49.249
X-124.902 Y-49.204
X-125.428 Y-49.193
X-125.959 Y-49.218
X-126.492 Y-49.278
X-127.024 Y-49.374
X-127.552 Y-49.506
X-128.073 Y-49.674
X-128.585 Y-49.877
X-129.085 Y-50.115
X-129.57 Y-50.387
X-130.038 Y-50.692
X-130.486 Y-51.028
X-130.912 Y-51.395
X-131.315 Y-51.79
X-131.691 Y-52.212
X-132.039 Y-52.659
X-132.358 Y-53.129
X-132.645 Y-53.62
X-132.899 Y-54.129
X-133.119 Y-54.655
X-133.304 Y-55.196
X-133.453 Y-55.748
X-133.565 Y-56.309
X-133.64 Y-56.877
X-133.677 Y-57.449
X-133.676 Y-58.023
X-133.637 Y-58.596
X-133.56 Y-59.165
X-133.445 Y-59.728
X-133.293 Y-60.282
X-133.105 Y-60.826
X-132.881 Y-61.356
X-132.622 Y-61.87
X-132.33 Y-62.366
X-132.005 Y-62.841
X-131.649 Y-63.294
X-131.264 Y-63.723
X-130.852 Y-64.125
X-130.413 Y-64.499
X-129.951 Y-64.843
X-129.467 Y-65.155
X-128.963 Y-65.435
X-128.442 Y-65.681
X-127.905 Y-65.892
X-127.356 Y-66.067
X-126.796 Y-66.204
X-126.228 Y-66.305
X-125.655 Y-66.368
X-125.079 Y-66.392
X-124.502 Y-66.378
X-123.928 Y-66.326
X-123.358 Y-66.236
X-122.796 Y-66.109
X-122.243 Y-65.944
X-121.703 Y-65.743
X-121.176 Y-65.507
X-120.667 Y-65.237
X-120.177 Y-64.933
X-119.708 Y-64.597
X-119.262 Y-64.231
X-118.842 Y-63.836
X-118.448 Y-63.414
X-118.084 Y-62.967
X-117.75 Y-62.497
X-117.447 Y-62.006
X-116.878 Y-60.925
X-116.433 Y-59.924
X-116.124 Y-59.084
X-115.903 Y-58.334
X-115.745 Y-57.624
X-115.641 Y-56.953
X-115.585 Y-56.307
X-115.572 Y-55.675
X-115.601 Y-55.055
X-115.669 Y-54.447
X-115.777 Y-53.851
X-115.923 Y-53.266
X-116.108 Y-52.692
X-116.33 Y-52.132
X-116.59 Y-51.585
X-116.888 Y-51.053
X-117.223 Y-50.538
X-117.595 Y-50.042
X-118.003 Y-49.567
X-118.446 Y-49.116
X-118.923 Y-48.69
X-119.433 Y-48.293
X-119.974 Y-47.926
X-120.544 Y-47.592
X-121.141 Y-47.294
X-121.762 Y-47.034
X-122.405 Y-46.814
X-123.067 Y-46.635
X-123.745 Y-46.499
X-124.437 Y-46.408
X-125.138 Y-46.362
X-125.846 Y-46.364
X-126.558 Y-46.412
X-127.27 Y-46.508
X-127.978 Y-46.652
X-128.679 Y-46.844
X-129.37 Y-47.083
X-130.048 Y-47.37
X-130.708 Y-47.702
X-131.347 Y-48.079
X-131.962 Y-48.499
X-132.551 Y-48.96
X-133.109 Y-49.461
X-133.634 Y-50
X-134.124 Y-50.574
X-134.576 Y-51.181
X-134.987 Y-51.817
X-135.356 Y-52.481
X-135.681 Y-53.169
X-135.96 Y-53.878
X-136.191 Y-54.606
X-136.374 Y-55.347
X-136.508 Y-56.101
X-136.591 Y-56.862
X-136.624 Y-57.628
X-136.606 Y-58.395
X-136.537 Y-59.16
X-136.417 Y-59.919
X-136.248 Y-60.669
X-136.028 Y-61.406
X-135.76 Y-62.128
X-135.445 Y-62.83
X-135.084 Y-63.511
