%
(1001)
(z0 bottom)
(T1  D=6 CR=0 TAPER=118deg - ZMIN=20 - drill)
G90 G94
G17
G21

(Drill1)
M9
T1 M6
(2.5mm tip overhang)
S3750 M3
G54
M9
G0 X-15 Y-47.7
Z60
Z50
Z47
G1 Z30 F400
G0 Z30.12
G1 Z20 F400
G0 Z50
Y-150
Z47
G1 Z30 F400
G0 Z30.12
G1 Z20 F400
G0 Z50
X-125 Y-135
Z47
G1 Z30 F400
G0 Z30.12
G1 Z20 F400
G0 Z50
X-265 Y-79.05
Z47
G1 Z30 F400
G0 Z30.12
G1 Z20 F400
G0 Z50
X-235
Z47
G1 Z30 F400
G0 Z30.12
G1 Z20 F400
G0 Z50
Y-150
Z47
G1 Z30 F400
G0 Z30.12
G1 Z20 F400
G0 Z50
X-265
Z47
G1 Z30 F400
G0 Z30.12
G1 Z20 F400
G0 Z50
X-375 Y-135
Z47
G1 Z30 F400
G0 Z30.12
G1 Z20 F400
G0 Z50
X-485 Y-150
Z47
G1 Z30 F400
G0 Z30.12
G1 Z20 F400
G0 Z50
Y-47.7
Z47
G1 Z30 F400
G0 Z30.12
G1 Z20 F400
G0 Z50
Z60
M9
M30
%
