%
(1001)
(z0 bottom)
(T1  D=12.7 CR=0 - ZMIN=0 - flat end mill)
G90 G94
G17
G21

(2D Adaptive3)
M9
T1 M6
S6000 M3
G54
M9
G0 X-369.295 Y-55.539
Z60
Z50
Z48.77
G1 Z47.5 F850
G3 X-380.705 Y-59.461 Z46.838 I-5.705 J-1.961 F283.3
X-377.628 Y-62.93 Z46.672 I5.705 J1.961
X-368.977 Y-57.84 Z46.258 I2.628 J5.43
X-381.023 Y-57.16 Z45.596 I-6.023 J0.34
X-379.485 Y-61.534 Z45.43 I6.023 J-0.34
X-369.552 Y-60.09 Z45.016 I4.485 J4.034
X-380.448 Y-54.91 Z44.354 I-5.448 J2.59
X-369.552 Y-60.09 Z43.692 I5.448 J-2.59
X-380.448 Y-54.91 Z43.031 I-5.448 J2.59
X-381.027 Y-57.245 Z42.946 I5.448 J-2.59
X-368.973 Y-57.755 Z42.284 I6.027 J-0.255
X-370.572 Y-53.403 Z42.118 I-6.027 J0.255
X-380.484 Y-54.987 Z41.704 I-4.428 J-4.097
X-369.516 Y-60.013 Z41.042 I5.484 J-2.513
X-369.352 Y-55.379 Z40.876 I-5.484 J2.513
X-380.647 Y-59.621 Z40.214 I-5.647 J-2.121
X-377.474 Y-63.002 Z40.048 I5.647 J2.121
X-368.97 Y-57.67 Z39.634 I2.474 J5.502
X-377.16 Y-51.868 Z39.22 I-6.03 J0.17
X-372.839 Y-63.132 Z38.558 I2.161 J-5.632
X-377.16 Y-51.868 Z37.896 I-2.161 J5.632
X-372.839 Y-63.132 Z37.235 I2.161 J-5.632
X-377.16 Y-51.868 Z36.573 I-2.161 J5.632
X-381.032 Y-57.415 Z36.322 I2.161 J-5.632
X-372.76 Y-63.101 Z35.908 I6.032 J-0.085
X-377.24 Y-51.899 Z35.246 I-2.24 J5.601
X-372.76 Y-63.101 Z34.584 I2.24 J-5.601
X-377.24 Y-51.899 Z33.923 I-2.24 J5.601
X-372.76 Y-63.101 Z33.261 I2.24 J-5.601
X-368.967 Y-57.5 Z33.01 I-2.24 J5.601
X-381.032 I-6.033
X-374.307 Y-63.492 I6.033
X-369.244 Y-59.305 I-0.693 J5.993
X-368.967 Y-57.5 I-5.756 J1.805
G1 X-368.964 Y-57.177 F850
X-368.931 Y-56.855
X-368.691 Y-55.586
X-368.641 Y-55.429
X-368.598 Y-55.253
X-368.564 Y-55.058
X-368.541 Y-54.845
X-368.532 Y-54.614
X-368.538 Y-54.366
X-368.562 Y-54.102
X-368.606 Y-53.825
X-368.673 Y-53.534
X-368.763 Y-53.233
X-368.878 Y-52.924
X-369.02 Y-52.609
X-369.19 Y-52.29
X-369.389 Y-51.971
X-369.617 Y-51.654
X-369.874 Y-51.342
X-370.16 Y-51.038
X-370.475 Y-50.745
X-370.818 Y-50.466
X-371.189 Y-50.204
X-371.585 Y-49.961
X-372.005 Y-49.74
X-372.447 Y-49.545
X-372.909 Y-49.375
X-373.389 Y-49.235
X-373.885 Y-49.125
X-374.394 Y-49.047
X-374.913 Y-49.003
X-375.439 Y-48.993
X-375.97 Y-49.018
X-376.503 Y-49.079
X-377.034 Y-49.176
X-377.562 Y-49.309
X-378.083 Y-49.478
X-378.595 Y-49.682
X-379.095 Y-49.92
X-379.58 Y-50.193
X-380.047 Y-50.498
X-380.495 Y-50.835
X-380.921 Y-51.202
X-381.323 Y-51.597
X-381.699 Y-52.02
X-382.046 Y-52.467
X-382.364 Y-52.938
X-382.651 Y-53.429
X-382.904 Y-53.939
X-383.124 Y-54.466
X-383.308 Y-55.006
X-383.456 Y-55.558
X-383.568 Y-56.12
X-383.642 Y-56.688
X-383.678 Y-57.26
X-383.676 Y-57.834
X-383.636 Y-58.406
X-383.559 Y-58.976
X-383.443 Y-59.539
X-383.291 Y-60.093
X-383.102 Y-60.636
X-382.877 Y-61.166
X-382.617 Y-61.679
X-382.324 Y-62.175
X-381.999 Y-62.65
X-381.643 Y-63.102
X-381.257 Y-63.53
X-380.844 Y-63.932
X-380.405 Y-64.305
X-379.943 Y-64.649
X-379.458 Y-64.961
X-378.954 Y-65.24
X-378.432 Y-65.485
X-377.895 Y-65.695
X-377.346 Y-65.869
X-376.786 Y-66.007
X-376.218 Y-66.106
X-375.645 Y-66.168
X-375.069 Y-66.192
X-374.492 Y-66.178
X-373.918 Y-66.125
X-373.348 Y-66.034
X-372.786 Y-65.906
X-372.233 Y-65.741
X-371.693 Y-65.539
X-371.167 Y-65.302
X-370.658 Y-65.031
X-370.168 Y-64.726
X-369.7 Y-64.39
X-369.254 Y-64.024
X-368.834 Y-63.628
X-368.442 Y-63.206
X-368.078 Y-62.758
X-367.744 Y-62.288
X-367.443 Y-61.796
X-366.868 Y-60.702
X-366.426 Y-59.706
X-366.12 Y-58.869
X-365.9 Y-58.119
X-365.743 Y-57.411
X-365.641 Y-56.74
X-365.585 Y-56.094
X-365.573 Y-55.462
X-365.602 Y-54.843
X-365.672 Y-54.235
X-365.78 Y-53.639
X-365.927 Y-53.054
X-366.112 Y-52.481
X-366.335 Y-51.921
X-366.596 Y-51.374
X-366.895 Y-50.843
X-367.231 Y-50.328
X-367.603 Y-49.833
X-368.012 Y-49.358
X-368.455 Y-48.907
X-368.933 Y-48.482
X-369.443 Y-48.085
X-369.985 Y-47.719
X-370.556 Y-47.386
X-371.153 Y-47.089
X-371.775 Y-46.829
X-372.418 Y-46.61
X-373.081 Y-46.432
X-373.759 Y-46.297
X-374.451 Y-46.206
X-375.152 Y-46.162
X-375.861 Y-46.164
X-376.572 Y-46.213
X-377.284 Y-46.31
X-377.992 Y-46.455
X-378.693 Y-46.648
X-379.384 Y-46.888
X-380.061 Y-47.175
X-380.721 Y-47.508
X-381.36 Y-47.886
X-381.975 Y-48.307
X-382.562 Y-48.769
X-383.12 Y-49.271
X-383.645 Y-49.811
X-384.134 Y-50.385
X-384.585 Y-50.992
X-384.995 Y-51.63
X-385.364 Y-52.294
X-385.687 Y-52.982
X-385.965 Y-53.692
X-386.196 Y-54.42
X-386.378 Y-55.162
X-386.511 Y-55.915
X-386.593 Y-56.677
X-386.625 Y-57.443
X-386.606 Y-58.21
X-386.536 Y-58.974
X-386.415 Y-59.733
X-386.244 Y-60.483
X-386.024 Y-61.22
X-385.755 Y-61.941
X-385.439 Y-62.643
X-385.077 Y-63.323
X-384.671 Y-63.978
X-384.221 Y-64.604
X-383.731 Y-65.2
X-383.203 Y-65.762
X-382.638 Y-66.287
X-382.04 Y-66.774
X-381.41 Y-67.221
X-380.752 Y-67.624
X-380.069 Y-67.984
X-379.363 Y-68.297
X-378.638 Y-68.562
X-377.897 Y-68.78
X-377.143 Y-68.947
X-376.38 Y-69.064
X-375.61 Y-69.13
X-374.838 Y-69.145
X-374.066 Y-69.109
X-373.298 Y-69.022
X-372.538 Y-68.884
X-371.789 Y-68.696
X-371.053 Y-68.458
X-370.335 Y-68.172
X-369.638 Y-67.84
X-368.964 Y-67.461
X-368.317 Y-67.039
X-367.699 Y-66.575
X-367.049 Y-66.016
X-366.421 Y-65.399
X-365.788 Y-64.688
X-365.187 Y-63.915
X-364.637 Y-63.102
X-364.147 Y-62.262
X-363.72 Y-61.405
X-363.358 Y-60.538
X-363.06 Y-59.665
X-362.825 Y-58.793
X-362.652 Y-57.924
X-362.539 Y-57.06
X-362.484 Y-56.203
X-362.486 Y-55.354
X-362.544 Y-54.514
X-362.657 Y-53.686
X-362.824 Y-52.87
X-363.044 Y-52.069
X-363.316 Y-51.285
X-363.64 Y-50.52
X-364.015 Y-49.778
X-364.439 Y-49.06
X-364.912 Y-48.369
X-365.431 Y-47.708
X-365.996 Y-47.08
X-366.605 Y-46.488
X-367.255 Y-45.934
X-367.944 Y-45.422
X-368.67 Y-44.954
X-369.43 Y-44.532
X-370.221 Y-44.16
X-371.041 Y-43.839
X-371.884 Y-43.571
X-372.75 Y-43.358
X-373.632 Y-43.203
X-374.529 Y-43.105
X-375.436 Y-43.067
X-376.349 Y-43.09
X-377.263 Y-43.173
X-378.175 Y-43.318
X-379.079 Y-43.524
X-379.973 Y-43.79
X-380.85 Y-44.117
X-381.708 Y-44.503
X-382.541 Y-44.947
X-383.346 Y-45.446
X-384.118 Y-46
X-384.854 Y-46.605
X-385.551 Y-47.26
X-386.204 Y-47.962
X-386.81 Y-48.707
X-387.368 Y-49.492
X-387.872 Y-50.314
X-388.322 Y-51.169
X-388.715 Y-52.054
X-389.049 Y-52.964
X-389.322 Y-53.896
X-389.533 Y-54.845
X-389.681 Y-55.806
X-389.765 Y-56.777
X-389.784 Y-57.752
X-389.739 Y-58.727
X-389.628 Y-59.697
X-389.454 Y-60.659
X-389.216 Y-61.607
X-388.916 Y-62.538
X-388.554 Y-63.448
X-388.133 Y-64.332
X-387.653 Y-65.186
X-387.118 Y-66.007
X-386.53 Y-66.792
X-385.89 Y-67.535
X-385.202 Y-68.235
X-384.47 Y-68.888
X-383.695 Y-69.49
X-382.882 Y-70.041
X-382.035 Y-70.536
X-381.156 Y-70.974
X-380.249 Y-71.352
X-379.32 Y-71.67
X-378.372 Y-71.926
X-377.408 Y-72.118
X-376.434 Y-72.246
X-375.453 Y-72.309
X-374.471 Y-72.306
X-373.49 Y-72.239
X-372.516 Y-72.107
X-371.553 Y-71.91
X-370.606 Y-71.65
X-369.677 Y-71.328
X-368.758 Y-70.938
X-367.851 Y-70.482
X-366.954 Y-69.952
X-366.073 Y-69.35
X-365.22 Y-68.679
X-364.401 Y-67.943
X-363.622 Y-67.143
X-362.891 Y-66.285
X-362.215 Y-65.376
X-361.6 Y-64.423
X-361.052 Y-63.434
X-360.573 Y-62.417
X-360.165 Y-61.379
X-359.83 Y-60.324
X-359.568 Y-59.259
X-359.379 Y-58.188
X-359.262 Y-57.114
X-359.217 Y-56.041
X-359.243 Y-54.974
X-359.339 Y-53.914
X-359.505 Y-52.867
X-359.74 Y-51.835
X-360.042 Y-50.822
X-360.41 Y-49.832
X-360.843 Y-48.868
X-361.34 Y-47.934
X-361.899 Y-47.034
X-362.518 Y-46.17
X-363.194 Y-45.347
X-363.926 Y-44.569
X-364.71 Y-43.838
X-365.544 Y-43.158
X-366.425 Y-42.533
X-367.349 Y-41.965
X-368.313 Y-41.458
X-369.313 Y-41.013
X-370.345 Y-40.634
X-371.405 Y-40.323
X-372.488 Y-40.082
X-373.59 Y-39.912
X-374.706 Y-39.816
X-375.832 Y-39.793
X-376.961 Y-39.846
X-378.089 Y-39.973
X-379.211 Y-40.176
X-380.322 Y-40.455
X-381.416 Y-40.807
X-382.488 Y-41.233
X-383.534 Y-41.731
X-384.547 Y-42.299
X-385.523 Y-42.935
X-386.458 Y-43.637
X-387.346 Y-44.4
X-388.184 Y-45.223
X-388.967 Y-46.101
X-389.691 Y-47.032
X-390.354 Y-48.01
X-390.951 Y-49.032
X-391.48 Y-50.093
X-391.938 Y-51.188
X-392.323 Y-52.313
X-392.633 Y-53.462
X-392.866 Y-54.63
X-393.022 Y-55.813
X-393.099 Y-57.004
X-393.096 Y-58.199
X-393.014 Y-59.391
X-392.854 Y-60.577
X-392.615 Y-61.75
X-392.298 Y-62.906
X-391.905 Y-64.038
X-391.438 Y-65.142
X-390.898 Y-66.214
X-390.289 Y-67.247
X-389.611 Y-68.239
X-388.87 Y-69.183
X-388.067 Y-70.077
X-387.206 Y-70.915
X-386.292 Y-71.695
X-385.327 Y-72.412
X-384.317 Y-73.064
X-383.266 Y-73.648
X-382.178 Y-74.161
X-381.059 Y-74.6
X-379.912 Y-74.965
X-378.744 Y-75.252
X-377.559 Y-75.462
X-376.363 Y-75.593
X-375.161 Y-75.643
X-373.958 Y-75.614
X-372.759 Y-75.506
X-371.567 Y-75.317
X-370.384 Y-75.049
X-369.211 Y-74.699
X-368.05 Y-74.268
X-366.907 Y-73.754
X-365.787 Y-73.159
X-364.695 Y-72.482
X-363.645 Y-71.73
X-362.646 Y-70.91
X-361.703 Y-70.027
X-360.819 Y-69.085
X-359.997 Y-68.088
X-359.241 Y-67.04
X-358.553 Y-65.946
X-357.937 Y-64.811
X-357.395 Y-63.638
X-356.93 Y-62.432
X-356.544 Y-61.199
X-356.239 Y-59.944
X-356.016 Y-58.671
X-355.878 Y-57.386
X-355.824 Y-56.096
X-355.856 Y-54.804
X-355.973 Y-53.519
X-356.175 Y-52.246
X-356.46 Y-50.991
X-356.828 Y-49.759
X-357.277 Y-48.553
X-357.805 Y-47.379
X-358.41 Y-46.242
X-359.091 Y-45.147
X-359.843 Y-44.097
X-360.664 Y-43.099
X-361.549 Y-42.157
X-362.494 Y-41.276
X-363.495 Y-40.46
X-364.548 Y-39.71
X-365.647 Y-39.032
X-366.788 Y-38.426
X-367.967 Y-37.896
X-369.177 Y-37.444
X-370.414 Y-37.071
X-371.673 Y-36.778
X-372.947 Y-36.567
X-374.233 Y-36.438
X-375.524 Y-36.39
X-376.816 Y-36.425
X-378.102 Y-36.541
X-379.379 Y-36.738
X-380.642 Y-37.014
X-381.884 Y-37.369
X-383.102 Y-37.799
X-384.291 Y-38.305
X-385.447 Y-38.882
X-386.565 Y-39.53
X-387.641 Y-40.245
X-388.67 Y-41.026
X-389.65 Y-41.869
X-390.575 Y-42.771
X-391.443 Y-43.728
X-392.251 Y-44.737
X-392.996 Y-45.792
X-393.675 Y-46.891
X-394.287 Y-48.029
X-394.829 Y-49.202
X-395.3 Y-50.405
X-395.698 Y-51.635
X-396.02 Y-52.886
X-396.265 Y-54.154
X-396.432 Y-55.436
X-396.521 Y-56.725
X-396.532 Y-58.017
X-396.465 Y-59.307
X-396.321 Y-60.591
X-396.101 Y-61.864
X-395.804 Y-63.122
X-395.434 Y-64.359
X-394.99 Y-65.573
X-394.473 Y-66.757
X-393.886 Y-67.908
X-393.229 Y-69.021
X-392.507 Y-70.092
X-391.722 Y-71.118
X-390.877 Y-72.096
X-389.975 Y-73.021
X-389.02 Y-73.891
X-388.014 Y-74.702
X-386.962 Y-75.452
X-385.867 Y-76.138
X-384.733 Y-76.756
X-383.563 Y-77.304
X-382.362 Y-77.781
X-381.134 Y-78.185
X-379.885 Y-78.515
X-378.618 Y-78.769
X-377.339 Y-78.948
X-376.051 Y-79.05
X-374.759 Y-79.076
X-373.468 Y-79.025
X-372.182 Y-78.896
X-370.907 Y-78.69
X-369.646 Y-78.408
X-368.404 Y-78.052
X-367.184 Y-77.625
X-365.991 Y-77.129
X-364.829 Y-76.566
X-363.7 Y-75.937
X-362.61 Y-75.243
X-361.561 Y-74.489
X-360.556 Y-73.677
X-359.597 Y-72.811
X-358.687 Y-71.893
X-357.829 Y-70.928
X-357.025 Y-69.916
X-356.279 Y-68.861
X-355.594 Y-67.766
X-354.969 Y-66.635
X-354.407 Y-65.471
X-353.909 Y-64.279
X-353.477 Y-63.061
X-353.114 Y-61.821
X-352.821 Y-60.563
X-352.6 Y-59.29
X-352.45 Y-58.007
X-352.371 Y-56.717
X-352.363 Y-55.425
X-352.427 Y-54.135
X-352.565 Y-52.85
X-352.776 Y-51.575
X-353.059 Y-50.315
X-353.413 Y-49.072
X-353.835 Y-47.85
X-354.323 Y-46.655
X-354.879 Y-45.488
X-355.501 Y-44.356
X-356.187 Y-43.261
X-356.933 Y-42.206
X-357.737 Y-41.194
X-358.595 Y-40.229
X-359.506 Y-39.312
X-360.467 Y-38.448
X-361.476 Y-37.641
X-362.528 Y-36.891
X-363.621 Y-36.201
X-364.749 Y-35.573
X-365.911 Y-35.006
X-367.101 Y-34.505
X-368.318 Y-34.071
X-369.558 Y-33.705
X-370.815 Y-33.409
X-372.087 Y-33.181
X-373.369 Y-33.023
X-374.658 Y-32.933
X-375.95 Y-32.913
X-377.241 Y-32.964
X-378.528 Y-33.085
X-379.805 Y-33.276
X-381.071 Y-33.535
X-382.322 Y-33.86
X-383.553 Y-34.25
X-384.763 Y-34.705
X-385.946 Y-35.225
X-387.099 Y-35.807
X-388.22 Y-36.451
X-389.305 Y-37.152
X-390.351 Y-37.91
X-391.357 Y-38.721
X-392.319 Y-39.583
X-393.233 Y-40.496
X-394.098 Y-41.457
X-394.91 Y-42.461
X-395.669 Y-43.507
X-396.373 Y-44.59
X-397.021 Y-45.708
X-397.61 Y-46.858
X-398.138 Y-48.038
X-398.602 Y-49.243
X-399.002 Y-50.472
X-399.338 Y-51.719
X-399.609 Y-52.983
X-399.815 Y-54.258
X-399.955 Y-55.543
X-400.027 Y-56.833
X-400.032 Y-58.125
X-399.968 Y-59.415
X-399.839 Y-60.701
X-399.644 Y-61.978
X-399.384 Y-63.244
X-399.06 Y-64.495
X-398.671 Y-65.727
X-398.217 Y-66.937
X-397.701 Y-68.121
X-397.124 Y-69.277
X-396.488 Y-70.402
X-395.796 Y-71.493
X-395.05 Y-72.547
X-394.249 Y-73.562
X-393.397 Y-74.533
X-392.495 Y-75.458
X-391.547 Y-76.336
X-390.555 Y-77.164
X-389.523 Y-77.941
X-388.452 Y-78.664
X-387.345 Y-79.33
X-386.204 Y-79.937
X-385.034 Y-80.484
X-383.836 Y-80.969
X-382.616 Y-81.393
X-381.375 Y-81.754
X-380.118 Y-82.051
X-378.847 Y-82.284
X-377.565 Y-82.45
X-376.277 Y-82.55
X-374.986 Y-82.582
X-373.694 Y-82.548
X-372.406 Y-82.448
X-371.124 Y-82.284
X-369.853 Y-82.055
X-368.595 Y-81.761
X-367.353 Y-81.403
X-366.131 Y-80.983
X-364.932 Y-80.502
X-363.758 Y-79.963
X-362.612 Y-79.366
X-361.496 Y-78.714
X-360.414 Y-78.008
X-359.368 Y-77.249
X-358.361 Y-76.44
X-357.394 Y-75.583
X-356.469 Y-74.681
X-355.589 Y-73.735
X-354.755 Y-72.748
X-353.969 Y-71.723
X-353.233 Y-70.661
X-352.55 Y-69.564
X-351.921 Y-68.436
X-351.346 Y-67.278
X-350.828 Y-66.095
X-350.366 Y-64.888
X-349.963 Y-63.661
X-349.619 Y-62.415
X-349.337 Y-61.154
X-349.116 Y-59.881
X-348.958 Y-58.599
X-348.861 Y-57.31
X-348.827 Y-56.019
X-348.855 Y-54.727
X-348.893 Y-54.194
X-348.927 Y-53.897
X-348.988 Y-53.603
X-349.076 Y-53.317
X-349.182 Y-53.021
X-349.298 Y-52.641
X-349.593 Y-51.499
X-349.984 Y-49.978
X-350.109 Y-49.598
X-350.239 Y-49.217
X-350.371 Y-48.837
X-350.659 Y-48.076
X-350.805 Y-47.696
X-351.101 Y-46.935
X-351.283 Y-46.555
X-352.067 Y-45.018
X-352.262 Y-44.653
X-352.481 Y-44.272
X-352.711 Y-43.892
X-353.59 Y-42.554
X-353.717 Y-42.371
X-353.989 Y-41.99
X-354.271 Y-41.61
X-355.529 Y-40.088
X-355.875 Y-39.693
X-356.256 Y-39.318
X-357.424 Y-38.186
X-357.779 Y-37.847
X-357.828 Y-37.806
X-358.16 Y-37.529
X-359.765 Y-36.285
X-360.064 Y-36.081
X-360.826 Y-35.575
X-360.908 Y-35.524
X-362.349 Y-34.64
X-362.73 Y-34.431
X-362.83 Y-34.383
X-363.111 Y-34.248
X-364.634 Y-33.532
X-365.015 Y-33.359
X-365.777 Y-33.076
X-366.158 Y-32.939
X-367.498 Y-32.481
X-367.681 Y-32.423
X-368.062 Y-32.306
X-369.966 Y-31.88
X-370.347 Y-31.807
X-371.109 Y-31.672
X-371.49 Y-31.628
X-373.013 Y-31.46
X-373.394 Y-31.433
X-374.156 Y-31.402
X-374.536 Y-31.399
X-376.06
X-376.441 Y-31.414
X-376.822 Y-31.444
X-377.202 Y-31.484
X-378.345 Y-31.61
X-379.288 Y-31.72
X-379.487 Y-31.758
X-381.392 Y-32.184
X-382.153 Y-32.384
X-382.503 Y-32.481
X-384.438 Y-33.143
X-384.68 Y-33.242
X-385.2 Y-33.46
X-385.581 Y-33.633
X-386.366 Y-34.002
X-386.723 Y-34.172
X-387.164 Y-34.383
X-387.485 Y-34.54
X-388.628 Y-35.239
X-389.389 Y-35.706
X-389.699 Y-35.904
X-390.532 Y-36.518
X-390.725 Y-36.665
X-391.706 Y-37.426
X-392.055 Y-37.714
X-392.568 Y-38.186
X-392.817 Y-38.42
X-393.96 Y-39.527
X-394.137 Y-39.708
X-394.785 Y-40.469
X-395.729 Y-41.61
X-395.864 Y-41.784
X-396.54 Y-42.751
X-397.039 Y-43.512
X-397.281 Y-43.892
X-397.768 Y-44.708
X-397.941 Y-45.033
X-398.717 Y-46.555
X-398.904 Y-46.935
X-399.291 Y-47.945
X-399.773 Y-49.217
X-399.915 Y-49.598
X-400.016 Y-49.978
X-400.505 Y-51.88
X-400.702 Y-52.641
X-400.81 Y-53.021
X-400.815 Y-53.037
X-400.942 Y-53.401
X-401.106 Y-53.782
X-401.306 Y-54.162
X-401.509 Y-54.542
X-401.529 Y-54.573
X-401.606 Y-54.702
X-401.857 Y-55.203
X-402.09 Y-55.758
X-402.322 Y-56.43
X-402.52 Y-57.16
X-402.534 Y-57.225
X-402.594 Y-57.693
X-402.586 Y-58.164
X-402.512 Y-58.629
X-402.372 Y-59.08
X-402.17 Y-59.505
X-401.909 Y-59.897
G3 X-401.524 Y-60.21 I0.977 J0.812
X-399.671 Y-59.232 I0.592 J1.124
G1 X-399.235 Y-55.458
G3 X-401.168 Y-54.234 I-1.262 J0.146
X-401.529 Y-54.573 I0.671 J-1.078
G1 X-401.576 Y-54.645
X-401.774 Y-54.923
X-402.073 Y-55.303
X-402.436 Y-55.684
X-402.719 Y-55.942
X-402.859 Y-56.064
X-402.932 Y-56.12
X-403.055 Y-56.225
X-403.274 Y-56.484
X-403.44 Y-56.78
X-403.547 Y-57.102
X-403.591 Y-57.439
X-403.571 Y-57.777
X-403.487 Y-58.106
X-403.342 Y-58.413
X-403.142 Y-58.687
X-402.893 Y-58.918
G3 X-402.45 Y-59.144 I0.984 J1.381
X-400.698 Y-58.724 I0.541 J1.607
X-402.491 Y-55.892 I-1.23 J1.204
X-402.932 Y-56.12 I0.563 J-1.627
G1 X-403.1 Y-56.25
X-403.368 Y-56.444
X-403.481 Y-56.529
X-403.629 Y-56.677
X-403.737 Y-56.825
X-403.809 Y-56.954
X-403.862 Y-57.083
X-403.897 Y-57.205
X-403.928 Y-57.395
X-403.929 Y-57.585
X-403.907 Y-57.751
X-403.862 Y-57.917
X-403.843 Y-57.966
X-403.749 Y-58.156
X-403.686 Y-58.251
X-403.609 Y-58.346
X-403.481 Y-58.471
X-403.143 Y-58.727
X-403.133 Y-58.733
G2 X-402.919 Y-58.85 I-1.23 J-2.503
X-402.725 Y-58.994 I-0.657 J-1.087
X-402.705 Y-59.012 I-0.852 J-0.942
G1 X-402.24 Y-59.45
G2 X-402.224 Y-59.466 I-0.871 J-0.924
X-402.066 Y-59.654 I-0.887 J-0.909
X-401.936 Y-59.861 I-2.297 J-1.582
G1 X-401.932 Y-59.868
X-401.785 Y-60.058
X-401.65 Y-60.248
X-401.407 Y-60.628
X-401.216 Y-61.009
X-401.032 Y-61.389
X-400.877 Y-61.77
X-400.763 Y-62.15
X-400.657 Y-62.53
X-399.972 Y-65.193
X-399.852 Y-65.573
X-399.276 Y-67.095
X-399.132 Y-67.475
X-398.911 Y-68.049
X-398.823 Y-68.236
X-397.768 Y-70.306
X-397.65 Y-70.518
X-397.172 Y-71.279
X-397.006 Y-71.539
X-396.427 Y-72.42
X-396.245 Y-72.681
X-395.864 Y-73.215
X-395.588 Y-73.561
X-394.644 Y-74.702
X-394.34 Y-75.066
X-393.96 Y-75.465
X-393.578 Y-75.843
X-392.4 Y-76.985
X-392.055 Y-77.293
X-391.674 Y-77.599
X-390.505 Y-78.506
X-390.151 Y-78.77
X-389.77 Y-79.045
X-389.434 Y-79.267
X-387.866 Y-80.228
X-387.568 Y-80.408
X-387.104 Y-80.645
X-386.812 Y-80.788
X-385.194 Y-81.549
X-384.819 Y-81.723
X-384.438 Y-81.857
X-382.534 Y-82.509
X-382.153 Y-82.62
X-381.772 Y-82.725
X-381.392 Y-82.816
X-379.487 Y-83.242
X-379.107 Y-83.301
X-378.345 Y-83.39
X-377.583 Y-83.474
X-377.202 Y-83.514
X-376.441 Y-83.584
X-376.06 Y-83.601
X-374.536
X-374.156 Y-83.598
X-373.394 Y-83.567
X-373.013 Y-83.54
X-371.49 Y-83.372
X-371.109 Y-83.328
X-370.347 Y-83.193
X-369.966 Y-83.12
X-368.062 Y-82.694
X-368.049 Y-82.69
X-367.681 Y-82.572
X-367.3 Y-82.447
X-366.885 Y-82.31
X-365.396 Y-81.8
X-365.015 Y-81.648
X-363.111 Y-80.752
X-362.73 Y-80.556
X-361.969 Y-80.122
X-361.807 Y-80.028
X-360.826 Y-79.425
X-360.016 Y-78.886
X-359.683 Y-78.652
X-358.514 Y-77.745
X-358.16 Y-77.463
X-357.779 Y-77.153
X-357.6 Y-76.985
X-356.256 Y-75.682
X-356.037 Y-75.463
X-355.875 Y-75.296
X-355.671 Y-75.083
X-354.412 Y-73.561
X-354.352 Y-73.484
X-353.846 Y-72.8
X-353.59 Y-72.446
X-352.823 Y-71.279
X-352.577 Y-70.899
X-352.349 Y-70.518
X-352.146 Y-70.138
X-351.305 Y-68.488
X-351.191 Y-68.236
X-350.872 Y-67.475
X-350.724 Y-67.095
X-350.436 Y-66.334
X-350.155 Y-65.573
X-350.028 Y-65.193
X-349.343 Y-62.53
X-349.232 Y-62.15
X-349.02 Y-61.494
X-348.789 Y-61.009
X-348.639 Y-60.703
X-348.068 Y-59.868
X-347.877 Y-59.639
X-347.781 Y-59.523
X-347.551 Y-59.194
X-347.302 Y-58.781
X-347.127 Y-58.366
X-347.019 Y-57.928
X-346.98 Y-57.479
X-347.012 Y-57.03
X-347.113 Y-56.591
X-347.281 Y-56.173
X-347.512 Y-55.787
X-347.801 Y-55.441
G3 X-348.219 Y-55.175 I-0.877 J-0.919
X-349.948 Y-56.327 I-0.459 J-1.184
G1 X-350.007 Y-58.672
G3 X-347.877 Y-59.639 I1.27 J-0.032
G1 X-347.338 Y-59.107
X-347.116 Y-58.912
X-346.867 Y-58.727
X-346.735 Y-58.631
X-346.706 Y-58.61
X-346.682 Y-58.593
X-346.566 Y-58.499
X-346.461 Y-58.392
X-346.378 Y-58.292
X-346.262 Y-58.133
X-346.168 Y-57.96
X-346.098 Y-57.776
G3 X-346.655 Y-56.534 I-1.34 J0.145
X-348.148 Y-58.547 I-0.729 J-1.02
X-347.14 Y-58.783 I0.765 J0.993
X-346.682 Y-58.593 I-0.244 J1.23
G1 X-346.563 Y-58.506
X-346.477 Y-58.433
X-346.391 Y-58.346
X-346.354 Y-58.303
X-346.238 Y-58.134
X-346.157 Y-57.966
X-346.098 Y-57.776
X-346.071 Y-57.585
X-346.072 Y-57.395
X-346.103 Y-57.205
X-346.164 Y-57.015
X-346.263 Y-56.825
X-346.354 Y-56.697
X-346.493 Y-56.552
X-346.632 Y-56.444
X-346.663 Y-56.423
X-346.741 Y-56.387 Z33.018
X-346.816 Y-56.352 Z33.04
X-346.887 Y-56.319 Z33.076
X-346.951 Y-56.29 Z33.125
X-347.011 Y-56.275 Z33.186
X-347.06 Y-56.263 Z33.258
X-347.097 Y-56.254 Z33.337
X-347.119 Y-56.249 Z33.421
X-347.126 Y-56.247 Z33.509
G0 Z50
X-119.295 Y-55.539
Z48.77
G1 Z47.5 F850
G3 X-130.705 Y-59.461 Z46.838 I-5.705 J-1.961 F283.3
X-119.295 Y-55.539 Z46.176 I5.705 J1.961
X-130.705 Y-59.461 Z45.515 I-5.705 J-1.961
X-119.295 Y-55.539 Z44.853 I5.705 J1.961
X-130.705 Y-59.461 Z44.191 I-5.705 J-1.961
X-119.295 Y-55.539 Z43.529 I5.705 J1.961
X-130.705 Y-59.461 Z42.867 I-5.705 J-1.961
X-119.295 Y-55.539 Z42.206 I5.705 J1.961
X-130.705 Y-59.461 Z41.544 I-5.705 J-1.961
X-119.295 Y-55.539 Z40.882 I5.705 J1.961
X-130.705 Y-59.461 Z40.22 I-5.705 J-1.961
X-119.295 Y-55.539 Z39.558 I5.705 J1.961
X-130.705 Y-59.461 Z38.897 I-5.705 J-1.961
X-119.295 Y-55.539 Z38.235 I5.705 J1.961
X-130.705 Y-59.461 Z37.573 I-5.705 J-1.961
X-119.295 Y-55.539 Z36.911 I5.705 J1.961
X-130.705 Y-59.461 Z36.249 I-5.705 J-1.961
X-119.295 Y-55.539 Z35.587 I5.705 J1.961
X-130.705 Y-59.461 Z34.926 I-5.705 J-1.961
X-119.295 Y-55.539 Z34.264 I5.705 J1.961
X-130.705 Y-59.461 Z33.602 I-5.705 J-1.961
X-118.967 Y-57.5 Z33.01 I5.705 J1.961
X-131.032 I-6.033
X-118.967 I6.033
G1 X-118.964 Y-57.177 F850
X-118.931 Y-56.856
X-118.691 Y-55.586
X-118.642 Y-55.432
X-118.599 Y-55.256
X-118.565 Y-55.062
X-118.541 Y-54.849
X-118.532 Y-54.618
X-118.538 Y-54.371
X-118.562 Y-54.108
X-118.605 Y-53.83
X-118.671 Y-53.54
X-118.761 Y-53.239
X-118.876 Y-52.93
X-119.017 Y-52.615
X-119.187 Y-52.296
X-119.385 Y-51.977
X-119.612 Y-51.66
X-119.869 Y-51.348
X-120.154 Y-51.044
X-120.469 Y-50.75
X-120.812 Y-50.471
X-121.181 Y-50.209
X-121.577 Y-49.966
X-121.996 Y-49.745
X-122.438 Y-49.548
X-122.9 Y-49.378
X-123.38 Y-49.238
X-123.875 Y-49.127
X-124.384 Y-49.049
X-124.903 Y-49.004
X-125.429 Y-48.993
X-125.96 Y-49.018
X-126.492 Y-49.078
X-127.024 Y-49.174
X-127.552 Y-49.306
X-128.073 Y-49.474
X-128.585 Y-49.677
X-129.085 Y-49.915
X-129.57 Y-50.187
X-130.038 Y-50.492
X-130.487 Y-50.828
X-130.913 Y-51.195
X-131.315 Y-51.59
X-131.692 Y-52.012
X-132.04 Y-52.459
X-132.358 Y-52.929
X-132.645 Y-53.42
X-132.9 Y-53.929
X-133.12 Y-54.455
X-133.305 Y-54.996
X-133.454 Y-55.548
X-133.566 Y-56.109
X-133.641 Y-56.677
X-133.678 Y-57.249
X-133.677 Y-57.823
X-133.638 Y-58.396
X-133.56 Y-58.965
X-133.446 Y-59.528
X-133.294 Y-60.082
X-133.106 Y-60.626
X-132.881 Y-61.156
X-132.623 Y-61.67
X-132.33 Y-62.166
X-132.006 Y-62.641
X-131.65 Y-63.094
X-131.265 Y-63.523
X-130.852 Y-63.925
X-130.414 Y-64.299
X-129.952 Y-64.643
X-129.468 Y-64.955
X-128.964 Y-65.235
X-128.442 Y-65.481
X-127.906 Y-65.692
X-127.356 Y-65.867
X-126.797 Y-66.005
X-126.229 Y-66.105
X-125.656 Y-66.168
X-125.08 Y-66.192
X-124.503 Y-66.178
X-123.929 Y-66.126
X-123.359 Y-66.036
X-122.797 Y-65.909
X-122.244 Y-65.744
X-121.703 Y-65.543
X-121.177 Y-65.307
X-120.668 Y-65.037
X-120.177 Y-64.733
X-119.708 Y-64.397
X-119.263 Y-64.031
X-118.842 Y-63.636
X-118.449 Y-63.214
X-118.084 Y-62.767
X-117.75 Y-62.297
X-117.448 Y-61.806
X-116.879 Y-60.725
X-116.433 Y-59.724
X-116.124 Y-58.884
X-115.904 Y-58.134
X-115.745 Y-57.424
X-115.642 Y-56.753
X-115.586 Y-56.107
X-115.573 Y-55.475
X-115.601 Y-54.855
X-115.67 Y-54.247
X-115.777 Y-53.651
X-115.924 Y-53.066
X-116.108 Y-52.492
X-116.331 Y-51.932
X-116.591 Y-51.385
X-116.889 Y-50.853
X-117.224 Y-50.338
X-117.596 Y-49.842
X-118.003 Y-49.367
X-118.446 Y-48.916
X-118.923 Y-48.49
X-119.433 Y-48.093
X-119.974 Y-47.726
X-120.544 Y-47.392
X-121.141 Y-47.094
X-121.763 Y-46.834
X-122.406 Y-46.614
X-123.068 Y-46.435
X-123.746 Y-46.299
X-124.437 Y-46.208
X-125.139 Y-46.162
X-125.847 Y-46.164
X-126.559 Y-46.212
X-127.27 Y-46.308
X-127.978 Y-46.452
X-128.68 Y-46.644
X-129.371 Y-46.883
X-130.048 Y-47.17
X-130.708 Y-47.502
X-131.348 Y-47.879
X-131.963 Y-48.299
X-132.551 Y-48.76
X-133.11 Y-49.261
X-133.635 Y-49.8
X-134.125 Y-50.374
X-134.576 Y-50.981
X-134.988 Y-51.617
X-135.357 Y-52.281
X-135.682 Y-52.969
X-135.96 Y-53.678
X-136.192 Y-54.406
X-136.375 Y-55.147
X-136.509 Y-55.901
X-136.592 Y-56.662
X-136.625 Y-57.428
X-136.607 Y-58.195
X-136.538 Y-58.96
X-136.418 Y-59.719
X-136.248 Y-60.469
X-136.029 Y-61.206
X-135.761 Y-61.928
X-135.446 Y-62.63
X-135.084 Y-63.311
X-134.679 Y-63.966
X-134.23 Y-64.593
X-133.741 Y-65.189
X-133.213 Y-65.751
X-132.649 Y-66.278
X-132.051 Y-66.765
X-131.422 Y-67.213
X-130.765 Y-67.617
X-130.082 Y-67.977
X-129.377 Y-68.291
X-128.652 Y-68.558
X-127.911 Y-68.776
X-127.157 Y-68.944
X-126.394 Y-69.062
X-125.625 Y-69.13
X-124.852 Y-69.146
X-124.081 Y-69.11
X-123.313 Y-69.024
X-122.552 Y-68.887
X-121.803 Y-68.7
X-121.067 Y-68.463
X-120.349 Y-68.178
X-119.651 Y-67.847
X-118.977 Y-67.469
X-118.329 Y-67.048
X-117.71 Y-66.585
X-117.061 Y-66.027
X-116.433 Y-65.412
X-115.8 Y-64.702
X-115.198 Y-63.93
X-114.647 Y-63.118
X-114.156 Y-62.278
X-113.727 Y-61.421
X-113.364 Y-60.555
X-113.065 Y-59.682
X-112.829 Y-58.81
X-112.655 Y-57.94
X-112.54 Y-57.077
X-112.485 Y-56.22
X-112.486 Y-55.37
X-112.543 Y-54.531
X-112.654 Y-53.702
X-112.82 Y-52.886
X-113.039 Y-52.084
X-113.311 Y-51.3
X-113.634 Y-50.535
X-114.007 Y-49.792
X-114.43 Y-49.073
X-114.902 Y-48.382
X-115.421 Y-47.72
X-115.985 Y-47.092
X-116.593 Y-46.499
X-117.242 Y-45.944
X-117.93 Y-45.431
X-118.656 Y-44.962
X-119.415 Y-44.54
X-120.206 Y-44.166
X-121.025 Y-43.844
X-121.868 Y-43.576
X-122.733 Y-43.362
X-123.615 Y-43.205
X-124.512 Y-43.107
X-125.418 Y-43.068
X-126.331 Y-43.089
X-127.245 Y-43.171
X-128.157 Y-43.315
X-129.062 Y-43.519
X-129.956 Y-43.785
X-130.833 Y-44.11
X-131.691 Y-44.495
X-132.525 Y-44.938
X-133.33 Y-45.436
X-134.104 Y-45.989
X-134.84 Y-46.593
X-135.538 Y-47.247
X-136.192 Y-47.948
X-136.799 Y-48.692
X-137.357 Y-49.477
X-137.863 Y-50.298
X-138.314 Y-51.153
X-138.708 Y-52.037
X-139.043 Y-52.947
X-139.318 Y-53.878
X-139.53 Y-54.826
X-139.679 Y-55.788
X-139.764 Y-56.758
X-139.784 Y-57.733
X-139.74 Y-58.708
X-139.631 Y-59.679
X-139.458 Y-60.64
X-139.221 Y-61.589
X-138.922 Y-62.521
X-138.562 Y-63.431
X-138.141 Y-64.315
X-137.663 Y-65.17
X-137.129 Y-65.992
X-136.541 Y-66.777
X-135.903 Y-67.521
X-135.216 Y-68.222
X-134.484 Y-68.876
X-133.71 Y-69.479
X-132.898 Y-70.031
X-132.051 Y-70.527
X-131.173 Y-70.966
X-130.267 Y-71.346
X-129.338 Y-71.665
X-128.39 Y-71.922
X-127.427 Y-72.115
X-126.453 Y-72.244
X-125.472 Y-72.308
X-124.489 Y-72.307
X-123.509 Y-72.241
X-122.535 Y-72.11
X-121.572 Y-71.915
X-120.624 Y-71.656
X-119.695 Y-71.335
X-118.775 Y-70.947
X-117.868 Y-70.491
X-116.971 Y-69.963
X-116.089 Y-69.362
X-115.236 Y-68.693
X-114.416 Y-67.957
X-113.636 Y-67.159
X-112.904 Y-66.302
X-112.227 Y-65.394
X-111.611 Y-64.442
X-111.061 Y-63.454
X-110.581 Y-62.437
X-110.172 Y-61.399
X-109.836 Y-60.345
X-109.572 Y-59.28
X-109.382 Y-58.209
X-109.264 Y-57.135
X-109.217 Y-56.062
X-109.242 Y-54.994
X-109.337 Y-53.935
X-109.501 Y-52.887
X-109.734 Y-51.855
X-110.035 Y-50.842
X-110.402 Y-49.851
X-110.834 Y-48.887
X-111.33 Y-47.952
X-111.888 Y-47.051
X-112.505 Y-46.186
X-113.181 Y-45.363
X-113.911 Y-44.583
X-114.695 Y-43.852
X-115.528 Y-43.171
X-116.408 Y-42.545
X-117.331 Y-41.976
X-118.295 Y-41.467
X-119.294 Y-41.021
X-120.325 Y-40.641
X-121.385 Y-40.329
X-122.467 Y-40.086
X-123.569 Y-39.915
X-124.685 Y-39.817
X-125.81 Y-39.793
X-126.939 Y-39.844
X-128.067 Y-39.97
X-129.19 Y-40.172
X-130.301 Y-40.449
X-131.395 Y-40.8
X-132.468 Y-41.225
X-133.514 Y-41.721
X-134.528 Y-42.288
X-135.505 Y-42.923
X-136.44 Y-43.623
X-137.329 Y-44.385
X-138.168 Y-45.207
X-138.952 Y-46.084
X-139.678 Y-47.014
X-140.342 Y-47.991
X-140.94 Y-49.012
X-141.471 Y-50.072
X-141.93 Y-51.167
X-142.316 Y-52.291
X-142.628 Y-53.44
X-142.863 Y-54.608
X-143.02 Y-55.79
X-143.098 Y-56.981
X-143.097 Y-58.176
X-143.017 Y-59.369
X-142.857 Y-60.555
X-142.62 Y-61.728
X-142.305 Y-62.884
X-141.913 Y-64.017
X-141.448 Y-65.122
X-140.909 Y-66.194
X-140.301 Y-67.228
X-139.625 Y-68.22
X-138.884 Y-69.166
X-138.083 Y-70.06
X-137.223 Y-70.9
X-136.31 Y-71.68
X-135.346 Y-72.399
X-134.337 Y-73.053
X-133.286 Y-73.638
X-132.199 Y-74.152
X-131.08 Y-74.593
X-129.934 Y-74.959
X-128.766 Y-75.248
X-127.582 Y-75.459
X-126.386 Y-75.591
X-125.184 Y-75.643
X-123.981 Y-75.616
X-122.782 Y-75.509
X-121.589 Y-75.322
X-120.406 Y-75.055
X-119.233 Y-74.707
X-118.072 Y-74.277
X-116.928 Y-73.765
X-115.808 Y-73.171
X-114.716 Y-72.496
X-113.664 Y-71.745
X-112.664 Y-70.927
X-111.72 Y-70.045
X-110.835 Y-69.103
X-110.012 Y-68.107
X-109.255 Y-67.061
X-108.566 Y-65.968
X-107.948 Y-64.833
X-107.405 Y-63.661
X-106.938 Y-62.456
X-106.55 Y-61.223
X-106.244 Y-59.968
X-106.019 Y-58.696
X-105.879 Y-57.411
X-105.824 Y-56.12
X-105.854 Y-54.829
X-105.97 Y-53.543
X-106.17 Y-52.271
X-106.454 Y-51.015
X-106.82 Y-49.782
X-107.268 Y-48.576
X-107.794 Y-47.402
X-108.398 Y-46.264
X-109.077 Y-45.167
X-109.828 Y-44.116
X-110.648 Y-43.117
X-111.531 Y-42.175
X-112.475 Y-41.293
X-113.475 Y-40.475
X-114.527 Y-39.724
X-115.626 Y-39.044
X-116.766 Y-38.437
X-117.944 Y-37.906
X-119.154 Y-37.452
X-120.39 Y-37.077
X-121.648 Y-36.783
X-122.923 Y-36.57
X-124.208 Y-36.44
X-125.499 Y-36.391
X-126.791 Y-36.424
X-128.078 Y-36.538
X-129.355 Y-36.734
X-130.618 Y-37.008
X-131.861 Y-37.361
X-133.079 Y-37.791
X-134.269 Y-38.294
X-135.425 Y-38.871
X-136.544 Y-39.517
X-137.621 Y-40.231
X-138.651 Y-41.011
X-139.631 Y-41.853
X-140.557 Y-42.754
X-141.427 Y-43.71
X-142.236 Y-44.717
X-142.982 Y-45.772
X-143.663 Y-46.87
X-144.276 Y-48.007
X-144.82 Y-49.179
X-145.292 Y-50.382
X-145.691 Y-51.611
X-146.014 Y-52.862
X-146.261 Y-54.13
X-146.429 Y-55.411
X-146.52 Y-56.7
X-146.533 Y-57.992
X-146.467 Y-59.283
X-146.325 Y-60.567
X-146.105 Y-61.84
X-145.811 Y-63.098
X-145.441 Y-64.336
X-144.999 Y-65.55
X-144.484 Y-66.735
X-143.898 Y-67.886
X-143.243 Y-69
X-142.522 Y-70.072
X-141.738 Y-71.099
X-140.894 Y-72.078
X-139.993 Y-73.004
X-139.038 Y-73.875
X-138.034 Y-74.687
X-136.983 Y-75.439
X-135.888 Y-76.126
X-134.754 Y-76.745
X-133.585 Y-77.295
X-132.385 Y-77.773
X-131.158 Y-78.178
X-129.909 Y-78.509
X-128.643 Y-78.765
X-127.363 Y-78.945
X-126.075 Y-79.049
X-124.784 Y-79.077
X-123.492 Y-79.027
X-122.207 Y-78.9
X-120.931 Y-78.695
X-119.67 Y-78.414
X-118.427 Y-78.06
X-117.207 Y-77.634
X-116.014 Y-77.139
X-114.85 Y-76.577
X-113.721 Y-75.949
X-112.63 Y-75.257
X-111.58 Y-74.504
X-110.574 Y-73.693
X-109.615 Y-72.828
X-108.704 Y-71.911
X-107.845 Y-70.947
X-107.04 Y-69.936
X-106.293 Y-68.881
X-105.606 Y-67.787
X-104.98 Y-66.657
X-104.417 Y-65.494
X-103.918 Y-64.302
X-103.484 Y-63.085
X-103.12 Y-61.845
X-102.826 Y-60.587
X-102.603 Y-59.315
X-102.452 Y-58.031
X-102.371 Y-56.742
X-102.362 Y-55.45
X-102.425 Y-54.159
X-102.562 Y-52.875
X-102.772 Y-51.6
X-103.053 Y-50.339
X-103.405 Y-49.095
X-103.826 Y-47.874
X-104.313 Y-46.677
X-104.868 Y-45.51
X-105.489 Y-44.377
X-106.173 Y-43.281
X-106.918 Y-42.226
X-107.721 Y-41.213
X-108.578 Y-40.247
X-109.488 Y-39.329
X-110.448 Y-38.464
X-111.456 Y-37.656
X-112.508 Y-36.905
X-113.599 Y-36.214
X-114.727 Y-35.584
X-115.888 Y-35.017
X-117.078 Y-34.514
X-118.295 Y-34.078
X-119.534 Y-33.712
X-120.791 Y-33.414
X-122.063 Y-33.185
X-123.345 Y-33.025
X-124.634 Y-32.934
X-125.925 Y-32.913
X-127.217 Y-32.962
X-128.503 Y-33.082
X-129.781 Y-33.272
X-131.047 Y-33.529
X-132.298 Y-33.853
X-133.53 Y-34.242
X-134.74 Y-34.696
X-135.923 Y-35.214
X-137.077 Y-35.796
X-138.198 Y-36.438
X-139.284 Y-37.138
X-140.332 Y-37.895
X-141.338 Y-38.705
X-142.301 Y-39.567
X-143.216 Y-40.479
X-144.081 Y-41.438
X-144.895 Y-42.442
X-145.655 Y-43.487
X-146.36 Y-44.569
X-147.009 Y-45.687
X-147.599 Y-46.836
X-148.128 Y-48.015
X-148.594 Y-49.22
X-148.995 Y-50.448
X-149.333 Y-51.696
X-149.605 Y-52.959
X-149.812 Y-54.234
X-149.953 Y-55.518
X-150.027 Y-56.808
X-150.032 Y-58.1
X-149.97 Y-59.391
X-149.842 Y-60.676
X-149.648 Y-61.954
X-149.389 Y-63.22
X-149.066 Y-64.471
X-148.679 Y-65.703
X-148.226 Y-66.914
X-147.711 Y-68.099
X-147.135 Y-69.255
X-146.501 Y-70.381
X-145.81 Y-71.473
X-145.064 Y-72.528
X-144.265 Y-73.543
X-143.414 Y-74.515
X-142.513 Y-75.441
X-141.566 Y-76.32
X-140.575 Y-77.149
X-139.543 Y-77.927
X-138.473 Y-78.651
X-137.366 Y-79.318
X-136.227 Y-79.926
X-135.056 Y-80.474
X-133.859 Y-80.961
X-132.639 Y-81.385
X-131.399 Y-81.747
X-130.142 Y-82.046
X-128.871 Y-82.28
X-127.59 Y-82.448
X-126.302 Y-82.548
X-125.01 Y-82.582
X-123.719 Y-82.549
X-122.43 Y-82.451
X-121.149 Y-82.288
X-119.877 Y-82.06
X-118.618 Y-81.767
X-117.377 Y-81.41
X-116.154 Y-80.991
X-114.955 Y-80.512
X-113.78 Y-79.974
X-112.633 Y-79.378
X-111.517 Y-78.727
X-110.434 Y-78.023
X-109.388 Y-77.265
X-108.38 Y-76.457
X-107.412 Y-75.6
X-106.487 Y-74.699
X-105.605 Y-73.754
X-104.77 Y-72.768
X-103.983 Y-71.743
X-103.247 Y-70.682
X-102.563 Y-69.585
X-101.932 Y-68.458
X-101.357 Y-67.301
X-100.837 Y-66.118
X-100.374 Y-64.912
X-99.97 Y-63.684
X-99.625 Y-62.439
X-99.341 Y-61.179
X-99.12 Y-59.906
X-98.96 Y-58.624
X-98.862 Y-57.335
X-98.827 Y-56.044
X-98.854 Y-54.752
X-98.889 Y-54.24
X-98.923 Y-53.949
X-98.982 Y-53.662
X-99.066 Y-53.381
X-99.185 Y-53.039
X-99.191 Y-53.021
X-99.298 Y-52.641
X-99.593 Y-51.499
X-99.984 Y-49.978
X-100.086 Y-49.598
X-100.227 Y-49.217
X-100.709 Y-47.945
X-101.095 Y-46.935
X-101.283 Y-46.555
X-102.059 Y-45.033
X-102.232 Y-44.707
X-102.718 Y-43.892
X-102.96 Y-43.512
X-103.46 Y-42.751
X-104.136 Y-41.784
X-104.27 Y-41.61
X-105.215 Y-40.469
X-105.863 Y-39.708
X-106.04 Y-39.527
X-107.183 Y-38.42
X-107.432 Y-38.186
X-107.945 Y-37.714
X-108.294 Y-37.426
X-109.275 Y-36.665
X-109.468 Y-36.518
X-110.301 Y-35.904
X-110.611 Y-35.706
X-112.149 Y-34.763
X-112.515 Y-34.54
X-112.896 Y-34.354
X-113.277 Y-34.172
X-113.657 Y-33.991
X-114.442 Y-33.622
X-114.8 Y-33.46
X-115.32 Y-33.242
X-115.562 Y-33.143
X-117.497 Y-32.481
X-117.847 Y-32.384
X-118.608 Y-32.184
X-120.513 Y-31.758
X-120.712 Y-31.72
X-121.655 Y-31.61
X-122.798 Y-31.484
X-123.178 Y-31.444
X-123.559 Y-31.414
X-123.94 Y-31.399
X-125.464
X-125.844 Y-31.402
X-126.606 Y-31.433
X-126.987 Y-31.46
X-128.51 Y-31.628
X-128.891 Y-31.672
X-129.653 Y-31.807
X-130.034 Y-31.88
X-131.938 Y-32.306
X-132.319 Y-32.423
X-132.502 Y-32.481
X-133.842 Y-32.939
X-134.223 Y-33.076
X-134.985 Y-33.359
X-135.366 Y-33.532
X-136.889 Y-34.248
X-137.17 Y-34.383
X-137.27 Y-34.431
X-137.651 Y-34.64
X-139.093 Y-35.524
X-139.174 Y-35.575
X-139.936 Y-36.081
X-140.235 Y-36.285
X-141.84 Y-37.529
X-142.172 Y-37.806
X-142.221 Y-37.847
X-142.602 Y-38.211
X-143.754 Y-39.328
X-144.125 Y-39.693
X-144.471 Y-40.088
X-145.729 Y-41.61
X-146.011 Y-41.99
X-146.283 Y-42.371
X-146.41 Y-42.554
X-147.289 Y-43.892
X-147.519 Y-44.272
X-147.738 Y-44.653
X-147.941 Y-45.033
X-148.717 Y-46.555
X-148.899 Y-46.935
X-149.195 Y-47.696
X-149.341 Y-48.076
X-149.629 Y-48.837
X-149.761 Y-49.217
X-149.891 Y-49.598
X-150.016 Y-49.978
X-150.505 Y-51.88
X-150.702 Y-52.641
X-150.818 Y-53.021
X-150.98 Y-53.475
X-151.101 Y-53.782
X-151.289 Y-54.162
X-151.361 Y-54.298
X-151.446 Y-54.432
X-151.666 Y-54.821
X-151.917 Y-55.343
X-152.147 Y-55.916
X-152.371 Y-56.602
X-152.567 Y-57.373
X-152.574 Y-57.409
X-152.622 Y-57.843
X-152.606 Y-58.28
X-152.527 Y-58.71
X-152.386 Y-59.123
X-152.186 Y-59.512
X-151.932 Y-59.868
G3 X-149.667 Y-59.262 I1.007 J0.774
G1 X-149.139 Y-55.317
G3 X-151.446 Y-54.432 I-1.259 J0.168
G1 X-151.516 Y-54.542
X-152.077 Y-55.303
X-152.123 Y-55.363
X-152.504 Y-55.753
X-152.884 Y-56.086
X-152.948 Y-56.134
X-153.064 Y-56.232
X-153.284 Y-56.488
X-153.45 Y-56.781
X-153.558 Y-57.101
X-153.602 Y-57.435
X-153.581 Y-57.772
X-153.496 Y-58.099
X-153.351 Y-58.403
X-153.149 Y-58.674
X-152.9 Y-58.901
G3 X-152.454 Y-59.12 I0.947 J1.363
X-150.781 Y-58.714 I0.501 J1.582
X-152.504 Y-55.911 I-1.193 J1.198
X-152.948 Y-56.134 I0.53 J-1.605
G1 X-153.265 Y-56.375
X-153.368 Y-56.444
X-153.507 Y-56.552
X-153.646 Y-56.697
X-153.737 Y-56.825
X-153.836 Y-57.015
X-153.897 Y-57.205
X-153.928 Y-57.395
X-153.929 Y-57.585
X-153.902 Y-57.776
X-153.843 Y-57.966
X-153.762 Y-58.134
X-153.646 Y-58.303
X-153.609 Y-58.346
X-153.523 Y-58.433
X-153.437 Y-58.506
X-153.265 Y-58.631
X-153.255 Y-58.637
G2 X-153.029 Y-58.753 I-1.22 J-2.636
X-152.839 Y-58.887 I-0.632 J-1.102
X-152.797 Y-58.925 I-0.822 J-0.968
G1 X-152.255 Y-59.428
G2 X-152.22 Y-59.462 I-0.865 J-0.93
X-152.067 Y-59.648 I-0.9 J-0.896
X-151.935 Y-59.864 I-2.408 J-1.625
G1 X-151.932 Y-59.868
X-151.361 Y-60.703
X-151.211 Y-61.009
X-150.98 Y-61.494
X-150.768 Y-62.15
X-150.657 Y-62.53
X-149.972 Y-65.193
X-149.845 Y-65.573
X-149.564 Y-66.334
X-149.276 Y-67.095
X-149.128 Y-67.475
X-148.809 Y-68.236
X-148.695 Y-68.488
X-147.854 Y-70.138
X-147.651 Y-70.518
X-147.423 Y-70.899
X-147.172 Y-71.287
X-146.41 Y-72.446
X-146.154 Y-72.8
X-145.648 Y-73.484
X-145.588 Y-73.561
X-144.329 Y-75.083
X-144.125 Y-75.296
X-143.963 Y-75.463
X-143.744 Y-75.682
X-142.4 Y-76.985
X-142.221 Y-77.153
X-141.84 Y-77.463
X-141.459 Y-77.766
X-140.317 Y-78.652
X-139.985 Y-78.886
X-139.174 Y-79.425
X-138.193 Y-80.028
X-138.031 Y-80.122
X-137.27 Y-80.556
X-136.889 Y-80.752
X-134.985 Y-81.648
X-134.604 Y-81.8
X-133.08 Y-82.322
X-132.7 Y-82.447
X-132.319 Y-82.572
X-131.951 Y-82.69
X-131.557 Y-82.779
X-130.034 Y-83.12
X-129.653 Y-83.193
X-128.891 Y-83.328
X-128.51 Y-83.372
X-126.987 Y-83.54
X-126.606 Y-83.567
X-125.844 Y-83.598
X-125.464 Y-83.601
X-123.94
X-123.559 Y-83.584
X-122.798 Y-83.514
X-122.417 Y-83.474
X-121.655 Y-83.39
X-120.893 Y-83.301
X-120.513 Y-83.242
X-118.608 Y-82.816
X-118.228 Y-82.725
X-117.847 Y-82.62
X-117.466 Y-82.509
X-115.562 Y-81.857
X-115.181 Y-81.723
X-114.8 Y-81.546
X-113.188 Y-80.788
X-112.896 Y-80.645
X-112.432 Y-80.408
X-112.134 Y-80.228
X-110.566 Y-79.267
X-110.23 Y-79.045
X-109.849 Y-78.77
X-109.495 Y-78.506
X-108.326 Y-77.599
X-107.945 Y-77.293
X-107.6 Y-76.985
X-106.421 Y-75.842
X-106.039 Y-75.463
X-105.66 Y-75.066
X-105.279 Y-74.609
X-104.412 Y-73.561
X-104.136 Y-73.215
X-103.755 Y-72.681
X-103.572 Y-72.42
X-102.994 Y-71.539
X-102.828 Y-71.279
X-102.349 Y-70.518
X-102.232 Y-70.307
X-101.176 Y-68.236
X-101.089 Y-68.05
X-100.868 Y-67.475
X-100.58 Y-66.714
X-100.148 Y-65.573
X-100.028 Y-65.193
X-99.344 Y-62.53
X-99.238 Y-62.15
X-99.124 Y-61.77
X-98.969 Y-61.389
X-98.784 Y-61.009
X-98.594 Y-60.628
X-98.35 Y-60.248
X-98.216 Y-60.058
X-98.068 Y-59.868
X-98.043 Y-59.84
X-97.851 Y-59.61
X-97.621 Y-59.293
X-97.377 Y-58.907
X-97.247 Y-58.667
X-97.078 Y-58.287
X-96.971 Y-57.885
X-96.929 Y-57.472
X-96.951 Y-57.056
X-97.039 Y-56.65
X-97.19 Y-56.263
X-97.399 Y-55.903
X-97.662 Y-55.582
G3 X-99.804 Y-56.288 I-0.888 J-0.908
G1 X-100.199 Y-58.744
G3 X-98.043 Y-59.84 I1.254 J-0.202
G1 X-97.662 Y-59.427
X-97.346 Y-59.107
X-97.281 Y-59.052
X-96.857 Y-58.727
X-96.671 Y-58.586
X-96.625 Y-58.551
X-96.593 Y-58.527
X-96.478 Y-58.43
X-96.47 Y-58.421
X-96.351 Y-58.279
X-96.247 Y-58.127
X-96.157 Y-57.966
G3 X-96.55 Y-56.674 I-1.111 J0.368
X-97.965 Y-58.494 I-0.708 J-0.91
X-96.593 Y-58.527 I0.708 J0.91
G1 X-96.519 Y-58.47
X-96.392 Y-58.346
X-96.314 Y-58.251
X-96.251 Y-58.156
X-96.157 Y-57.966
X-96.138 Y-57.916
X-96.093 Y-57.751
X-96.071 Y-57.585
X-96.073 Y-57.395
X-96.103 Y-57.205
X-96.138 Y-57.084
X-96.192 Y-56.955
X-96.263 Y-56.825
X-96.371 Y-56.677
X-96.519 Y-56.53
X-96.632 Y-56.444
X-96.78 Y-56.337
X-96.856 Y-56.299 Z33.018
X-96.93 Y-56.261 Z33.04
X-97 Y-56.226 Z33.076
X-97.063 Y-56.194 Z33.125
X-97.123 Y-56.178 Z33.186
X-97.171 Y-56.164 Z33.258
X-97.207 Y-56.154 Z33.337
X-97.229 Y-56.148 Z33.421
X-97.237 Y-56.146 Z33.509
G0 Z50
X-369.295 Y-55.539
Z36.78
G1 Z35.51 F850
G3 X-380.705 Y-59.461 Z34.848 I-5.705 J-1.961 F283.3
X-377.628 Y-62.93 Z34.682 I5.705 J1.961
X-368.977 Y-57.84 Z34.268 I2.628 J5.43
X-381.023 Y-57.16 Z33.606 I-6.023 J0.34
X-379.485 Y-61.534 Z33.44 I6.023 J-0.34
X-369.552 Y-60.09 Z33.026 I4.485 J4.034
X-380.448 Y-54.91 Z32.364 I-5.448 J2.59
X-369.552 Y-60.09 Z31.702 I5.448 J-2.59
X-380.448 Y-54.91 Z31.041 I-5.448 J2.59
X-381.027 Y-57.245 Z30.956 I5.448 J-2.59
X-368.973 Y-57.755 Z30.294 I6.027 J-0.255
X-370.572 Y-53.403 Z30.128 I-6.027 J0.255
X-380.484 Y-54.987 Z29.714 I-4.428 J-4.097
X-369.516 Y-60.013 Z29.052 I5.484 J-2.513
X-369.352 Y-55.379 Z28.886 I-5.484 J2.513
X-380.647 Y-59.621 Z28.224 I-5.647 J-2.121
X-377.474 Y-63.002 Z28.058 I5.647 J2.121
X-368.97 Y-57.67 Z27.644 I2.474 J5.502
X-377.16 Y-51.868 Z27.23 I-6.03 J0.17
X-372.839 Y-63.132 Z26.568 I2.161 J-5.632
X-377.16 Y-51.868 Z25.906 I-2.161 J5.632
X-372.839 Y-63.132 Z25.245 I2.161 J-5.632
X-377.16 Y-51.868 Z24.583 I-2.161 J5.632
X-381.032 Y-57.415 Z24.332 I2.161 J-5.632
X-372.76 Y-63.101 Z23.918 I6.032 J-0.085
X-377.24 Y-51.899 Z23.256 I-2.24 J5.601
X-372.76 Y-63.101 Z22.594 I2.24 J-5.601
X-377.24 Y-51.899 Z21.933 I-2.24 J5.601
X-372.76 Y-63.101 Z21.271 I2.24 J-5.601
X-368.967 Y-57.5 Z21.02 I-2.24 J5.601
X-381.032 I-6.033
X-374.307 Y-63.492 I6.033
X-369.244 Y-59.305 I-0.693 J5.993
X-368.967 Y-57.5 I-5.756 J1.805
G1 X-368.964 Y-57.177 F850
X-368.931 Y-56.855
X-368.691 Y-55.586
X-368.641 Y-55.429
X-368.598 Y-55.253
X-368.564 Y-55.058
X-368.541 Y-54.845
X-368.532 Y-54.614
X-368.538 Y-54.366
X-368.562 Y-54.102
X-368.606 Y-53.825
X-368.673 Y-53.534
X-368.763 Y-53.233
X-368.878 Y-52.924
X-369.02 Y-52.609
X-369.19 Y-52.29
X-369.389 Y-51.971
X-369.617 Y-51.654
X-369.874 Y-51.342
X-370.16 Y-51.038
X-370.475 Y-50.745
X-370.818 Y-50.466
X-371.189 Y-50.204
X-371.585 Y-49.961
X-372.005 Y-49.74
X-372.447 Y-49.545
X-372.909 Y-49.375
X-373.389 Y-49.235
X-373.885 Y-49.125
X-374.394 Y-49.047
X-374.913 Y-49.003
X-375.439 Y-48.993
X-375.97 Y-49.018
X-376.503 Y-49.079
X-377.034 Y-49.176
X-377.562 Y-49.309
X-378.083 Y-49.478
X-378.595 Y-49.682
X-379.095 Y-49.92
X-379.58 Y-50.193
X-380.047 Y-50.498
X-380.495 Y-50.835
X-380.921 Y-51.202
X-381.323 Y-51.597
X-381.699 Y-52.02
X-382.046 Y-52.467
X-382.364 Y-52.938
X-382.651 Y-53.429
X-382.904 Y-53.939
X-383.124 Y-54.466
X-383.308 Y-55.006
X-383.456 Y-55.558
X-383.568 Y-56.12
X-383.642 Y-56.688
X-383.678 Y-57.26
X-383.676 Y-57.834
X-383.636 Y-58.406
X-383.559 Y-58.976
X-383.443 Y-59.539
X-383.291 Y-60.093
X-383.102 Y-60.636
X-382.877 Y-61.166
X-382.617 Y-61.679
X-382.324 Y-62.175
X-381.999 Y-62.65
X-381.643 Y-63.102
X-381.257 Y-63.53
X-380.844 Y-63.932
X-380.405 Y-64.305
X-379.943 Y-64.649
X-379.458 Y-64.961
X-378.954 Y-65.24
X-378.432 Y-65.485
X-377.895 Y-65.695
X-377.346 Y-65.869
X-376.786 Y-66.007
X-376.218 Y-66.106
X-375.645 Y-66.168
X-375.069 Y-66.192
X-374.492 Y-66.178
X-373.918 Y-66.125
X-373.348 Y-66.034
X-372.786 Y-65.906
X-372.233 Y-65.741
X-371.693 Y-65.539
X-371.167 Y-65.302
X-370.658 Y-65.031
X-370.168 Y-64.726
X-369.7 Y-64.39
X-369.254 Y-64.024
X-368.834 Y-63.628
X-368.442 Y-63.206
X-368.078 Y-62.758
X-367.744 Y-62.288
X-367.443 Y-61.796
X-366.868 Y-60.702
X-366.426 Y-59.706
X-366.12 Y-58.869
X-365.9 Y-58.119
X-365.743 Y-57.411
X-365.641 Y-56.74
X-365.585 Y-56.094
X-365.573 Y-55.462
X-365.602 Y-54.843
X-365.672 Y-54.235
X-365.78 Y-53.639
X-365.927 Y-53.054
X-366.112 Y-52.481
X-366.335 Y-51.921
X-366.596 Y-51.374
X-366.895 Y-50.843
X-367.231 Y-50.328
X-367.603 Y-49.833
X-368.012 Y-49.358
X-368.455 Y-48.907
X-368.933 Y-48.482
X-369.443 Y-48.085
X-369.985 Y-47.719
X-370.556 Y-47.386
X-371.153 Y-47.089
X-371.775 Y-46.829
X-372.418 Y-46.61
X-373.081 Y-46.432
X-373.759 Y-46.297
X-374.451 Y-46.206
X-375.152 Y-46.162
X-375.861 Y-46.164
X-376.572 Y-46.213
X-377.284 Y-46.31
X-377.992 Y-46.455
X-378.693 Y-46.648
X-379.384 Y-46.888
X-380.061 Y-47.175
X-380.721 Y-47.508
X-381.36 Y-47.886
X-381.975 Y-48.307
X-382.562 Y-48.769
X-383.12 Y-49.271
X-383.645 Y-49.811
X-384.134 Y-50.385
X-384.585 Y-50.992
X-384.995 Y-51.63
X-385.364 Y-52.294
X-385.687 Y-52.982
X-385.965 Y-53.692
X-386.196 Y-54.42
X-386.378 Y-55.162
X-386.511 Y-55.915
X-386.593 Y-56.677
X-386.625 Y-57.443
X-386.606 Y-58.21
X-386.536 Y-58.974
X-386.415 Y-59.733
X-386.244 Y-60.483
X-386.024 Y-61.22
X-385.755 Y-61.941
X-385.439 Y-62.643
X-385.077 Y-63.323
X-384.671 Y-63.978
X-384.221 Y-64.604
X-383.731 Y-65.2
X-383.203 Y-65.762
X-382.638 Y-66.287
X-382.04 Y-66.774
X-381.41 Y-67.221
X-380.752 Y-67.624
X-380.069 Y-67.984
X-379.363 Y-68.297
X-378.638 Y-68.562
X-377.897 Y-68.78
X-377.143 Y-68.947
X-376.38 Y-69.064
X-375.61 Y-69.13
X-374.838 Y-69.145
X-374.066 Y-69.109
X-373.298 Y-69.022
X-372.538 Y-68.884
X-371.789 Y-68.696
X-371.053 Y-68.458
X-370.335 Y-68.172
X-369.638 Y-67.84
X-368.964 Y-67.461
X-368.317 Y-67.039
X-367.699 Y-66.575
X-367.049 Y-66.016
X-366.421 Y-65.399
X-365.788 Y-64.688
X-365.187 Y-63.915
X-364.637 Y-63.102
X-364.147 Y-62.262
X-363.72 Y-61.405
X-363.358 Y-60.538
X-363.06 Y-59.665
X-362.825 Y-58.793
X-362.652 Y-57.924
X-362.539 Y-57.06
X-362.484 Y-56.203
X-362.486 Y-55.354
X-362.544 Y-54.514
X-362.657 Y-53.686
X-362.824 Y-52.87
X-363.044 Y-52.069
X-363.316 Y-51.285
X-363.64 Y-50.52
X-364.015 Y-49.778
X-364.439 Y-49.06
X-364.912 Y-48.369
X-365.431 Y-47.708
X-365.996 Y-47.08
X-366.605 Y-46.488
X-367.255 Y-45.934
X-367.944 Y-45.422
X-368.67 Y-44.954
X-369.43 Y-44.532
X-370.221 Y-44.16
X-371.041 Y-43.839
X-371.884 Y-43.571
X-372.75 Y-43.358
X-373.632 Y-43.203
X-374.529 Y-43.105
X-375.436 Y-43.067
X-376.349 Y-43.09
X-377.263 Y-43.173
X-378.175 Y-43.318
X-379.079 Y-43.524
X-379.973 Y-43.79
X-380.85 Y-44.117
X-381.708 Y-44.503
X-382.541 Y-44.947
X-383.346 Y-45.446
X-384.118 Y-46
X-384.854 Y-46.605
X-385.551 Y-47.26
X-386.204 Y-47.962
X-386.81 Y-48.707
X-387.368 Y-49.492
X-387.872 Y-50.314
X-388.322 Y-51.169
X-388.715 Y-52.054
X-389.049 Y-52.964
X-389.322 Y-53.896
X-389.533 Y-54.845
X-389.681 Y-55.806
X-389.765 Y-56.777
X-389.784 Y-57.752
X-389.739 Y-58.727
X-389.628 Y-59.697
X-389.454 Y-60.659
X-389.216 Y-61.607
X-388.916 Y-62.538
X-388.554 Y-63.448
X-388.133 Y-64.332
X-387.653 Y-65.186
X-387.118 Y-66.007
X-386.53 Y-66.792
X-385.89 Y-67.535
X-385.202 Y-68.235
X-384.47 Y-68.888
X-383.695 Y-69.49
X-382.882 Y-70.041
X-382.035 Y-70.536
X-381.156 Y-70.974
X-380.249 Y-71.352
X-379.32 Y-71.67
X-378.372 Y-71.926
X-377.408 Y-72.118
X-376.434 Y-72.246
X-375.453 Y-72.309
X-374.471 Y-72.306
X-373.49 Y-72.239
X-372.516 Y-72.107
X-371.553 Y-71.91
X-370.606 Y-71.65
X-369.677 Y-71.328
X-368.758 Y-70.938
X-367.851 Y-70.482
X-366.954 Y-69.952
X-366.073 Y-69.35
X-365.22 Y-68.679
X-364.401 Y-67.943
X-363.622 Y-67.143
X-362.891 Y-66.285
X-362.215 Y-65.376
X-361.6 Y-64.423
X-361.052 Y-63.434
X-360.573 Y-62.417
X-360.165 Y-61.379
X-359.83 Y-60.324
X-359.568 Y-59.259
X-359.379 Y-58.188
X-359.262 Y-57.114
X-359.217 Y-56.041
X-359.243 Y-54.974
X-359.339 Y-53.914
X-359.505 Y-52.867
X-359.74 Y-51.835
X-360.042 Y-50.822
X-360.41 Y-49.832
X-360.843 Y-48.868
X-361.34 Y-47.934
X-361.899 Y-47.034
X-362.518 Y-46.17
X-363.194 Y-45.347
X-363.926 Y-44.569
X-364.71 Y-43.838
X-365.544 Y-43.158
X-366.425 Y-42.533
X-367.349 Y-41.965
X-368.313 Y-41.458
X-369.313 Y-41.013
X-370.345 Y-40.634
X-371.405 Y-40.323
X-372.488 Y-40.082
X-373.59 Y-39.912
X-374.706 Y-39.816
X-375.832 Y-39.793
X-376.961 Y-39.846
X-378.089 Y-39.973
X-379.211 Y-40.176
X-380.322 Y-40.455
X-381.416 Y-40.807
X-382.488 Y-41.233
X-383.534 Y-41.731
X-384.547 Y-42.299
X-385.523 Y-42.935
X-386.458 Y-43.637
X-387.346 Y-44.4
X-388.184 Y-45.223
X-388.967 Y-46.101
X-389.691 Y-47.032
X-390.354 Y-48.01
X-390.951 Y-49.032
X-391.48 Y-50.093
X-391.938 Y-51.188
X-392.323 Y-52.313
X-392.633 Y-53.462
X-392.866 Y-54.63
X-393.022 Y-55.813
X-393.099 Y-57.004
X-393.096 Y-58.199
X-393.014 Y-59.391
X-392.854 Y-60.577
X-392.615 Y-61.75
X-392.298 Y-62.906
X-391.905 Y-64.038
X-391.438 Y-65.142
X-390.898 Y-66.214
X-390.289 Y-67.247
X-389.611 Y-68.239
X-388.87 Y-69.183
X-388.067 Y-70.077
X-387.206 Y-70.915
X-386.292 Y-71.695
X-385.327 Y-72.412
X-384.317 Y-73.064
X-383.266 Y-73.648
X-382.178 Y-74.161
X-381.059 Y-74.6
X-379.912 Y-74.965
X-378.744 Y-75.252
X-377.559 Y-75.462
X-376.363 Y-75.593
X-375.161 Y-75.643
X-373.958 Y-75.614
X-372.759 Y-75.506
X-371.567 Y-75.317
X-370.384 Y-75.049
X-369.211 Y-74.699
X-368.05 Y-74.268
X-366.907 Y-73.754
X-365.787 Y-73.159
X-364.695 Y-72.482
X-363.645 Y-71.73
X-362.646 Y-70.91
X-361.703 Y-70.027
X-360.819 Y-69.085
X-359.997 Y-68.088
X-359.241 Y-67.04
X-358.553 Y-65.946
X-357.937 Y-64.811
X-357.395 Y-63.638
X-356.93 Y-62.432
X-356.544 Y-61.199
X-356.239 Y-59.944
X-356.016 Y-58.671
X-355.878 Y-57.386
X-355.824 Y-56.096
X-355.856 Y-54.804
X-355.973 Y-53.519
X-356.175 Y-52.246
X-356.46 Y-50.991
X-356.828 Y-49.759
X-357.277 Y-48.553
X-357.805 Y-47.379
X-358.41 Y-46.242
X-359.091 Y-45.147
X-359.843 Y-44.097
X-360.664 Y-43.099
X-361.549 Y-42.157
X-362.494 Y-41.276
X-363.495 Y-40.46
X-364.548 Y-39.71
X-365.647 Y-39.032
X-366.788 Y-38.426
X-367.967 Y-37.896
X-369.177 Y-37.444
X-370.414 Y-37.071
X-371.673 Y-36.778
X-372.947 Y-36.567
X-374.233 Y-36.438
X-375.524 Y-36.39
X-376.816 Y-36.425
X-378.102 Y-36.541
X-379.379 Y-36.738
X-380.642 Y-37.014
X-381.884 Y-37.369
X-383.102 Y-37.799
X-384.291 Y-38.305
X-385.447 Y-38.882
X-386.565 Y-39.53
X-387.641 Y-40.245
X-388.67 Y-41.026
X-389.65 Y-41.869
X-390.575 Y-42.771
X-391.443 Y-43.728
X-392.251 Y-44.737
X-392.996 Y-45.792
X-393.675 Y-46.891
X-394.287 Y-48.029
X-394.829 Y-49.202
X-395.3 Y-50.405
X-395.698 Y-51.635
X-396.02 Y-52.886
X-396.265 Y-54.154
X-396.432 Y-55.436
X-396.521 Y-56.725
X-396.532 Y-58.017
X-396.465 Y-59.307
X-396.321 Y-60.591
X-396.101 Y-61.864
X-395.804 Y-63.122
X-395.434 Y-64.359
X-394.99 Y-65.573
X-394.473 Y-66.757
X-393.886 Y-67.908
X-393.229 Y-69.021
X-392.507 Y-70.092
X-391.722 Y-71.118
X-390.877 Y-72.096
X-389.975 Y-73.021
X-389.02 Y-73.891
X-388.014 Y-74.702
X-386.962 Y-75.452
X-385.867 Y-76.138
X-384.733 Y-76.756
X-383.563 Y-77.304
X-382.362 Y-77.781
X-381.134 Y-78.185
X-379.885 Y-78.515
X-378.618 Y-78.769
X-377.339 Y-78.948
X-376.051 Y-79.05
X-374.759 Y-79.076
X-373.468 Y-79.025
X-372.182 Y-78.896
X-370.907 Y-78.69
X-369.646 Y-78.408
X-368.404 Y-78.052
X-367.184 Y-77.625
X-365.991 Y-77.129
X-364.829 Y-76.566
X-363.7 Y-75.937
X-362.61 Y-75.243
X-361.561 Y-74.489
X-360.556 Y-73.677
X-359.597 Y-72.811
X-358.687 Y-71.893
X-357.829 Y-70.928
X-357.025 Y-69.916
X-356.279 Y-68.861
X-355.594 Y-67.766
X-354.969 Y-66.635
X-354.407 Y-65.471
X-353.909 Y-64.279
X-353.477 Y-63.061
X-353.114 Y-61.821
X-352.821 Y-60.563
X-352.6 Y-59.29
X-352.45 Y-58.007
X-352.371 Y-56.717
X-352.363 Y-55.425
X-352.427 Y-54.135
X-352.565 Y-52.85
X-352.776 Y-51.575
X-353.059 Y-50.315
X-353.413 Y-49.072
X-353.835 Y-47.85
X-354.323 Y-46.655
X-354.879 Y-45.488
X-355.501 Y-44.356
X-356.187 Y-43.261
X-356.933 Y-42.206
X-357.737 Y-41.194
X-358.595 Y-40.229
X-359.506 Y-39.312
X-360.467 Y-38.448
X-361.476 Y-37.641
X-362.528 Y-36.891
X-363.621 Y-36.201
X-364.749 Y-35.573
X-365.911 Y-35.006
X-367.101 Y-34.505
X-368.318 Y-34.071
X-369.558 Y-33.705
X-370.815 Y-33.409
X-372.087 Y-33.181
X-373.369 Y-33.023
X-374.658 Y-32.933
X-375.95 Y-32.913
X-377.241 Y-32.964
X-378.528 Y-33.085
X-379.805 Y-33.276
X-381.071 Y-33.535
X-382.322 Y-33.86
X-383.553 Y-34.25
X-384.763 Y-34.705
X-385.946 Y-35.225
X-387.099 Y-35.807
X-388.22 Y-36.451
X-389.305 Y-37.152
X-390.351 Y-37.91
X-391.357 Y-38.721
X-392.319 Y-39.583
X-393.233 Y-40.496
X-394.098 Y-41.457
X-394.91 Y-42.461
X-395.669 Y-43.507
X-396.373 Y-44.59
X-397.021 Y-45.708
X-397.61 Y-46.858
X-398.138 Y-48.038
X-398.602 Y-49.243
X-399.002 Y-50.472
X-399.338 Y-51.719
X-399.609 Y-52.983
X-399.815 Y-54.258
X-399.955 Y-55.543
X-400.027 Y-56.833
X-400.032 Y-58.125
X-399.968 Y-59.415
X-399.839 Y-60.701
X-399.644 Y-61.978
X-399.384 Y-63.244
X-399.06 Y-64.495
X-398.671 Y-65.727
X-398.217 Y-66.937
X-397.701 Y-68.121
X-397.124 Y-69.277
X-396.488 Y-70.402
X-395.796 Y-71.493
X-395.05 Y-72.547
X-394.249 Y-73.562
X-393.397 Y-74.533
X-392.495 Y-75.458
X-391.547 Y-76.336
X-390.555 Y-77.164
X-389.523 Y-77.941
X-388.452 Y-78.664
X-387.345 Y-79.33
X-386.204 Y-79.937
X-385.034 Y-80.484
X-383.836 Y-80.969
X-382.616 Y-81.393
X-381.375 Y-81.754
X-380.118 Y-82.051
X-378.847 Y-82.284
X-377.565 Y-82.45
X-376.277 Y-82.55
X-374.986 Y-82.582
X-373.694 Y-82.548
X-372.406 Y-82.448
X-371.124 Y-82.284
X-369.853 Y-82.055
X-368.595 Y-81.761
X-367.353 Y-81.403
X-366.131 Y-80.983
X-364.932 Y-80.502
X-363.758 Y-79.963
X-362.612 Y-79.366
X-361.496 Y-78.714
X-360.414 Y-78.008
X-359.368 Y-77.249
X-358.361 Y-76.44
X-357.394 Y-75.583
X-356.469 Y-74.681
X-355.589 Y-73.735
X-354.755 Y-72.748
X-353.969 Y-71.723
X-353.233 Y-70.661
X-352.55 Y-69.564
X-351.921 Y-68.436
X-351.346 Y-67.278
X-350.828 Y-66.095
X-350.366 Y-64.888
X-349.963 Y-63.661
X-349.619 Y-62.415
X-349.337 Y-61.154
X-349.116 Y-59.881
X-348.958 Y-58.599
X-348.861 Y-57.31
X-348.827 Y-56.019
X-348.855 Y-54.727
X-348.893 Y-54.194
X-348.927 Y-53.897
X-348.988 Y-53.603
X-349.076 Y-53.317
X-349.182 Y-53.021
X-349.298 Y-52.641
X-349.593 Y-51.499
X-349.984 Y-49.978
X-350.109 Y-49.598
X-350.239 Y-49.217
X-350.371 Y-48.837
X-350.659 Y-48.076
X-350.805 Y-47.696
X-351.101 Y-46.935
X-351.283 Y-46.555
X-352.067 Y-45.018
X-352.262 Y-44.653
X-352.481 Y-44.272
X-352.711 Y-43.892
X-353.59 Y-42.554
X-353.717 Y-42.371
X-353.989 Y-41.99
X-354.271 Y-41.61
X-355.529 Y-40.088
X-355.875 Y-39.693
X-356.256 Y-39.318
X-357.424 Y-38.186
X-357.779 Y-37.847
X-357.828 Y-37.806
X-358.16 Y-37.529
X-359.765 Y-36.285
X-360.064 Y-36.081
X-360.826 Y-35.575
X-360.908 Y-35.524
X-362.349 Y-34.64
X-362.73 Y-34.431
X-362.83 Y-34.383
X-363.111 Y-34.248
X-364.634 Y-33.532
X-365.015 Y-33.359
X-365.777 Y-33.076
X-366.158 Y-32.939
X-367.498 Y-32.481
X-367.681 Y-32.423
X-368.062 Y-32.306
X-369.966 Y-31.88
X-370.347 Y-31.807
X-371.109 Y-31.672
X-371.49 Y-31.628
X-373.013 Y-31.46
X-373.394 Y-31.433
X-374.156 Y-31.402
X-374.536 Y-31.399
X-376.06
X-376.441 Y-31.414
X-376.822 Y-31.444
X-377.202 Y-31.484
X-378.345 Y-31.61
X-379.288 Y-31.72
X-379.487 Y-31.758
X-381.392 Y-32.184
X-382.153 Y-32.384
X-382.503 Y-32.481
X-384.438 Y-33.143
X-384.68 Y-33.242
X-385.2 Y-33.46
X-385.581 Y-33.633
X-386.366 Y-34.002
X-386.723 Y-34.172
X-387.164 Y-34.383
X-387.485 Y-34.54
X-388.628 Y-35.239
X-389.389 Y-35.706
X-389.699 Y-35.904
X-390.532 Y-36.518
X-390.725 Y-36.665
X-391.706 Y-37.426
X-392.055 Y-37.714
X-392.568 Y-38.186
X-392.817 Y-38.42
X-393.96 Y-39.527
X-394.137 Y-39.708
X-394.785 Y-40.469
X-395.729 Y-41.61
X-395.864 Y-41.784
X-396.54 Y-42.751
X-397.039 Y-43.512
X-397.281 Y-43.892
X-397.768 Y-44.708
X-397.941 Y-45.033
X-398.717 Y-46.555
X-398.904 Y-46.935
X-399.291 Y-47.945
X-399.773 Y-49.217
X-399.915 Y-49.598
X-400.016 Y-49.978
X-400.505 Y-51.88
X-400.702 Y-52.641
X-400.81 Y-53.021
X-400.815 Y-53.037
X-400.942 Y-53.401
X-401.106 Y-53.782
X-401.306 Y-54.162
X-401.509 Y-54.542
X-401.529 Y-54.573
X-401.606 Y-54.702
X-401.857 Y-55.203
X-402.09 Y-55.758
X-402.322 Y-56.43
X-402.52 Y-57.16
X-402.534 Y-57.225
X-402.594 Y-57.693
X-402.586 Y-58.164
X-402.512 Y-58.629
X-402.372 Y-59.08
X-402.17 Y-59.505
X-401.909 Y-59.897
G3 X-401.524 Y-60.21 I0.977 J0.812
X-399.671 Y-59.232 I0.592 J1.124
G1 X-399.235 Y-55.458
G3 X-401.168 Y-54.234 I-1.262 J0.146
X-401.529 Y-54.573 I0.671 J-1.078
G1 X-401.576 Y-54.645
X-401.774 Y-54.923
X-402.073 Y-55.303
X-402.436 Y-55.684
X-402.719 Y-55.942
X-402.859 Y-56.064
X-402.932 Y-56.12
X-403.055 Y-56.225
X-403.274 Y-56.484
X-403.44 Y-56.78
X-403.547 Y-57.102
X-403.591 Y-57.439
X-403.571 Y-57.777
X-403.487 Y-58.106
X-403.342 Y-58.413
X-403.142 Y-58.687
X-402.893 Y-58.918
G3 X-402.45 Y-59.144 I0.984 J1.381
X-400.698 Y-58.724 I0.541 J1.607
X-402.491 Y-55.892 I-1.23 J1.204
X-402.932 Y-56.12 I0.563 J-1.627
G1 X-403.1 Y-56.25
X-403.368 Y-56.444
X-403.481 Y-56.529
X-403.629 Y-56.677
X-403.737 Y-56.825
X-403.809 Y-56.954
X-403.862 Y-57.083
X-403.897 Y-57.205
X-403.928 Y-57.395
X-403.929 Y-57.585
X-403.907 Y-57.751
X-403.862 Y-57.917
X-403.843 Y-57.966
X-403.749 Y-58.156
X-403.686 Y-58.251
X-403.609 Y-58.346
X-403.481 Y-58.471
X-403.143 Y-58.727
X-403.133 Y-58.733
G2 X-402.919 Y-58.85 I-1.23 J-2.503
X-402.725 Y-58.994 I-0.657 J-1.087
X-402.705 Y-59.012 I-0.852 J-0.942
G1 X-402.24 Y-59.45
G2 X-402.224 Y-59.466 I-0.871 J-0.924
X-402.066 Y-59.654 I-0.887 J-0.909
X-401.936 Y-59.861 I-2.297 J-1.582
G1 X-401.932 Y-59.868
X-401.785 Y-60.058
X-401.65 Y-60.248
X-401.407 Y-60.628
X-401.216 Y-61.009
X-401.032 Y-61.389
X-400.877 Y-61.77
X-400.763 Y-62.15
X-400.657 Y-62.53
X-399.972 Y-65.193
X-399.852 Y-65.573
X-399.276 Y-67.095
X-399.132 Y-67.475
X-398.911 Y-68.049
X-398.823 Y-68.236
X-397.768 Y-70.306
X-397.65 Y-70.518
X-397.172 Y-71.279
X-397.006 Y-71.539
X-396.427 Y-72.42
X-396.245 Y-72.681
X-395.864 Y-73.215
X-395.588 Y-73.561
X-394.644 Y-74.702
X-394.34 Y-75.066
X-393.96 Y-75.465
X-393.578 Y-75.843
X-392.4 Y-76.985
X-392.055 Y-77.293
X-391.674 Y-77.599
X-390.505 Y-78.506
X-390.151 Y-78.77
X-389.77 Y-79.045
X-389.434 Y-79.267
X-387.866 Y-80.228
X-387.568 Y-80.408
X-387.104 Y-80.645
X-386.812 Y-80.788
X-385.194 Y-81.549
X-384.819 Y-81.723
X-384.438 Y-81.857
X-382.534 Y-82.509
X-382.153 Y-82.62
X-381.772 Y-82.725
X-381.392 Y-82.816
X-379.487 Y-83.242
X-379.107 Y-83.301
X-378.345 Y-83.39
X-377.583 Y-83.474
X-377.202 Y-83.514
X-376.441 Y-83.584
X-376.06 Y-83.601
X-374.536
X-374.156 Y-83.598
X-373.394 Y-83.567
X-373.013 Y-83.54
X-371.49 Y-83.372
X-371.109 Y-83.328
X-370.347 Y-83.193
X-369.966 Y-83.12
X-368.062 Y-82.694
X-368.049 Y-82.69
X-367.681 Y-82.572
X-367.3 Y-82.447
X-366.885 Y-82.31
X-365.396 Y-81.8
X-365.015 Y-81.648
X-363.111 Y-80.752
X-362.73 Y-80.556
X-361.969 Y-80.122
X-361.807 Y-80.028
X-360.826 Y-79.425
X-360.016 Y-78.886
X-359.683 Y-78.652
X-358.514 Y-77.745
X-358.16 Y-77.463
X-357.779 Y-77.153
X-357.6 Y-76.985
X-356.256 Y-75.682
X-356.037 Y-75.463
X-355.875 Y-75.296
X-355.671 Y-75.083
X-354.412 Y-73.561
X-354.352 Y-73.484
X-353.846 Y-72.8
X-353.59 Y-72.446
X-352.823 Y-71.279
X-352.577 Y-70.899
X-352.349 Y-70.518
X-352.146 Y-70.138
X-351.305 Y-68.488
X-351.191 Y-68.236
X-350.872 Y-67.475
X-350.724 Y-67.095
X-350.436 Y-66.334
X-350.155 Y-65.573
X-350.028 Y-65.193
X-349.343 Y-62.53
X-349.232 Y-62.15
X-349.02 Y-61.494
X-348.789 Y-61.009
X-348.639 Y-60.703
X-348.068 Y-59.868
X-347.877 Y-59.639
X-347.781 Y-59.523
X-347.551 Y-59.194
X-347.302 Y-58.781
X-347.127 Y-58.366
X-347.019 Y-57.928
X-346.98 Y-57.479
X-347.012 Y-57.03
X-347.113 Y-56.591
X-347.281 Y-56.173
X-347.512 Y-55.787
X-347.801 Y-55.441
G3 X-348.219 Y-55.175 I-0.877 J-0.919
X-349.948 Y-56.327 I-0.459 J-1.184
G1 X-350.007 Y-58.672
G3 X-347.877 Y-59.639 I1.27 J-0.032
G1 X-347.338 Y-59.107
X-347.116 Y-58.912
X-346.867 Y-58.727
X-346.735 Y-58.631
X-346.706 Y-58.61
X-346.682 Y-58.593
X-346.566 Y-58.499
X-346.461 Y-58.392
X-346.378 Y-58.292
X-346.262 Y-58.133
X-346.168 Y-57.96
X-346.098 Y-57.776
G3 X-346.655 Y-56.534 I-1.34 J0.145
X-348.148 Y-58.547 I-0.729 J-1.02
X-347.14 Y-58.783 I0.765 J0.993
X-346.682 Y-58.593 I-0.244 J1.23
G1 X-346.563 Y-58.506
X-346.477 Y-58.433
X-346.391 Y-58.346
X-346.354 Y-58.303
X-346.238 Y-58.134
X-346.157 Y-57.966
X-346.098 Y-57.776
X-346.071 Y-57.585
X-346.072 Y-57.395
X-346.103 Y-57.205
X-346.164 Y-57.015
X-346.263 Y-56.825
X-346.354 Y-56.697
X-346.493 Y-56.552
X-346.632 Y-56.444
X-346.663 Y-56.423
X-346.741 Y-56.387 Z21.028
X-346.816 Y-56.352 Z21.05
X-346.887 Y-56.319 Z21.086
X-346.951 Y-56.29 Z21.135
X-347.011 Y-56.275 Z21.196
X-347.06 Y-56.263 Z21.268
X-347.097 Y-56.254 Z21.347
X-347.119 Y-56.249 Z21.431
X-347.126 Y-56.247 Z21.519
G0 Z50
X-119.295 Y-55.539
Z36.78
G1 Z35.51 F850
G3 X-130.705 Y-59.461 Z34.848 I-5.705 J-1.961 F283.3
X-119.295 Y-55.539 Z34.186 I5.705 J1.961
X-130.705 Y-59.461 Z33.525 I-5.705 J-1.961
X-119.295 Y-55.539 Z32.863 I5.705 J1.961
X-130.705 Y-59.461 Z32.201 I-5.705 J-1.961
X-119.295 Y-55.539 Z31.539 I5.705 J1.961
X-130.705 Y-59.461 Z30.877 I-5.705 J-1.961
X-119.295 Y-55.539 Z30.216 I5.705 J1.961
X-130.705 Y-59.461 Z29.554 I-5.705 J-1.961
X-119.295 Y-55.539 Z28.892 I5.705 J1.961
X-130.705 Y-59.461 Z28.23 I-5.705 J-1.961
X-119.295 Y-55.539 Z27.568 I5.705 J1.961
X-130.705 Y-59.461 Z26.907 I-5.705 J-1.961
X-119.295 Y-55.539 Z26.245 I5.705 J1.961
X-130.705 Y-59.461 Z25.583 I-5.705 J-1.961
X-119.295 Y-55.539 Z24.921 I5.705 J1.961
X-130.705 Y-59.461 Z24.259 I-5.705 J-1.961
X-119.295 Y-55.539 Z23.597 I5.705 J1.961
X-130.705 Y-59.461 Z22.936 I-5.705 J-1.961
X-119.295 Y-55.539 Z22.274 I5.705 J1.961
X-130.705 Y-59.461 Z21.612 I-5.705 J-1.961
X-118.967 Y-57.5 Z21.02 I5.705 J1.961
X-131.032 I-6.033
X-118.967 I6.033
G1 X-118.964 Y-57.177 F850
X-118.931 Y-56.856
X-118.691 Y-55.586
X-118.642 Y-55.432
X-118.599 Y-55.256
X-118.565 Y-55.062
X-118.541 Y-54.849
X-118.532 Y-54.618
X-118.538 Y-54.371
X-118.562 Y-54.108
X-118.605 Y-53.83
X-118.671 Y-53.54
X-118.761 Y-53.239
X-118.876 Y-52.93
X-119.017 Y-52.615
X-119.187 Y-52.296
X-119.385 Y-51.977
X-119.612 Y-51.66
X-119.869 Y-51.348
X-120.154 Y-51.044
X-120.469 Y-50.75
X-120.812 Y-50.471
X-121.181 Y-50.209
X-121.577 Y-49.966
X-121.996 Y-49.745
X-122.438 Y-49.548
X-122.9 Y-49.378
X-123.38 Y-49.238
X-123.875 Y-49.127
X-124.384 Y-49.049
X-124.903 Y-49.004
X-125.429 Y-48.993
X-125.96 Y-49.018
X-126.492 Y-49.078
X-127.024 Y-49.174
X-127.552 Y-49.306
X-128.073 Y-49.474
X-128.585 Y-49.677
X-129.085 Y-49.915
X-129.57 Y-50.187
X-130.038 Y-50.492
X-130.487 Y-50.828
X-130.913 Y-51.195
X-131.315 Y-51.59
X-131.692 Y-52.012
X-132.04 Y-52.459
X-132.358 Y-52.929
X-132.645 Y-53.42
X-132.9 Y-53.929
X-133.12 Y-54.455
X-133.305 Y-54.996
X-133.454 Y-55.548
X-133.566 Y-56.109
X-133.641 Y-56.677
X-133.678 Y-57.249
X-133.677 Y-57.823
X-133.638 Y-58.396
X-133.56 Y-58.965
X-133.446 Y-59.528
X-133.294 Y-60.082
X-133.106 Y-60.626
X-132.881 Y-61.156
X-132.623 Y-61.67
X-132.33 Y-62.166
X-132.006 Y-62.641
X-131.65 Y-63.094
X-131.265 Y-63.523
X-130.852 Y-63.925
X-130.414 Y-64.299
X-129.952 Y-64.643
X-129.468 Y-64.955
X-128.964 Y-65.235
X-128.442 Y-65.481
X-127.906 Y-65.692
X-127.356 Y-65.867
X-126.797 Y-66.005
X-126.229 Y-66.105
X-125.656 Y-66.168
X-125.08 Y-66.192
X-124.503 Y-66.178
X-123.929 Y-66.126
X-123.359 Y-66.036
X-122.797 Y-65.909
X-122.244 Y-65.744
X-121.703 Y-65.543
X-121.177 Y-65.307
X-120.668 Y-65.037
X-120.177 Y-64.733
X-119.708 Y-64.397
X-119.263 Y-64.031
X-118.842 Y-63.636
X-118.449 Y-63.214
X-118.084 Y-62.767
X-117.75 Y-62.297
X-117.448 Y-61.806
X-116.879 Y-60.725
X-116.433 Y-59.724
X-116.124 Y-58.884
X-115.904 Y-58.134
X-115.745 Y-57.424
X-115.642 Y-56.753
X-115.586 Y-56.107
X-115.573 Y-55.475
X-115.601 Y-54.855
X-115.67 Y-54.247
X-115.777 Y-53.651
X-115.924 Y-53.066
X-116.108 Y-52.492
X-116.331 Y-51.932
X-116.591 Y-51.385
X-116.889 Y-50.853
X-117.224 Y-50.338
X-117.596 Y-49.842
X-118.003 Y-49.367
X-118.446 Y-48.916
X-118.923 Y-48.49
X-119.433 Y-48.093
X-119.974 Y-47.726
X-120.544 Y-47.392
X-121.141 Y-47.094
X-121.763 Y-46.834
X-122.406 Y-46.614
X-123.068 Y-46.435
X-123.746 Y-46.299
X-124.437 Y-46.208
X-125.139 Y-46.162
X-125.847 Y-46.164
X-126.559 Y-46.212
X-127.27 Y-46.308
X-127.978 Y-46.452
X-128.68 Y-46.644
X-129.371 Y-46.883
X-130.048 Y-47.17
X-130.708 Y-47.502
X-131.348 Y-47.879
X-131.963 Y-48.299
X-132.551 Y-48.76
X-133.11 Y-49.261
X-133.635 Y-49.8
X-134.125 Y-50.374
X-134.576 Y-50.981
X-134.988 Y-51.617
X-135.357 Y-52.281
X-135.682 Y-52.969
X-135.96 Y-53.678
X-136.192 Y-54.406
X-136.375 Y-55.147
X-136.509 Y-55.901
X-136.592 Y-56.662
X-136.625 Y-57.428
X-136.607 Y-58.195
X-136.538 Y-58.96
X-136.418 Y-59.719
X-136.248 Y-60.469
X-136.029 Y-61.206
X-135.761 Y-61.928
X-135.446 Y-62.63
X-135.084 Y-63.311
X-134.679 Y-63.966
X-134.23 Y-64.593
X-133.741 Y-65.189
X-133.213 Y-65.751
X-132.649 Y-66.278
X-132.051 Y-66.765
X-131.422 Y-67.213
X-130.765 Y-67.617
X-130.082 Y-67.977
X-129.377 Y-68.291
X-128.652 Y-68.558
X-127.911 Y-68.776
X-127.157 Y-68.944
X-126.394 Y-69.062
X-125.625 Y-69.13
X-124.852 Y-69.146
X-124.081 Y-69.11
X-123.313 Y-69.024
X-122.552 Y-68.887
X-121.803 Y-68.7
X-121.067 Y-68.463
X-120.349 Y-68.178
X-119.651 Y-67.847
X-118.977 Y-67.469
X-118.329 Y-67.048
X-117.71 Y-66.585
X-117.061 Y-66.027
X-116.433 Y-65.412
X-115.8 Y-64.702
X-115.198 Y-63.93
X-114.647 Y-63.118
X-114.156 Y-62.278
X-113.727 Y-61.421
X-113.364 Y-60.555
X-113.065 Y-59.682
X-112.829 Y-58.81
X-112.655 Y-57.94
X-112.54 Y-57.077
X-112.485 Y-56.22
X-112.486 Y-55.37
X-112.543 Y-54.531
X-112.654 Y-53.702
X-112.82 Y-52.886
X-113.039 Y-52.084
X-113.311 Y-51.3
X-113.634 Y-50.535
X-114.007 Y-49.792
X-114.43 Y-49.073
X-114.902 Y-48.382
X-115.421 Y-47.72
X-115.985 Y-47.092
X-116.593 Y-46.499
X-117.242 Y-45.944
X-117.93 Y-45.431
X-118.656 Y-44.962
X-119.415 Y-44.54
X-120.206 Y-44.166
X-121.025 Y-43.844
X-121.868 Y-43.576
X-122.733 Y-43.362
X-123.615 Y-43.205
X-124.512 Y-43.107
X-125.418 Y-43.068
X-126.331 Y-43.089
X-127.245 Y-43.171
X-128.157 Y-43.315
X-129.062 Y-43.519
X-129.956 Y-43.785
X-130.833 Y-44.11
X-131.691 Y-44.495
X-132.525 Y-44.938
X-133.33 Y-45.436
X-134.104 Y-45.989
X-134.84 Y-46.593
X-135.538 Y-47.247
X-136.192 Y-47.948
X-136.799 Y-48.692
X-137.357 Y-49.477
X-137.863 Y-50.298
X-138.314 Y-51.153
X-138.708 Y-52.037
X-139.043 Y-52.947
X-139.318 Y-53.878
X-139.53 Y-54.826
X-139.679 Y-55.788
X-139.764 Y-56.758
X-139.784 Y-57.733
X-139.74 Y-58.708
X-139.631 Y-59.679
X-139.458 Y-60.64
X-139.221 Y-61.589
X-138.922 Y-62.521
X-138.562 Y-63.431
X-138.141 Y-64.315
X-137.663 Y-65.17
X-137.129 Y-65.992
X-136.541 Y-66.777
X-135.903 Y-67.521
X-135.216 Y-68.222
X-134.484 Y-68.876
X-133.71 Y-69.479
X-132.898 Y-70.031
X-132.051 Y-70.527
X-131.173 Y-70.966
X-130.267 Y-71.346
X-129.338 Y-71.665
X-128.39 Y-71.922
X-127.427 Y-72.115
X-126.453 Y-72.244
X-125.472 Y-72.308
X-124.489 Y-72.307
X-123.509 Y-72.241
X-122.535 Y-72.11
X-121.572 Y-71.915
X-120.624 Y-71.656
X-119.695 Y-71.335
X-118.775 Y-70.947
X-117.868 Y-70.491
X-116.971 Y-69.963
X-116.089 Y-69.362
X-115.236 Y-68.693
X-114.416 Y-67.957
X-113.636 Y-67.159
X-112.904 Y-66.302
X-112.227 Y-65.394
X-111.611 Y-64.442
X-111.061 Y-63.454
X-110.581 Y-62.437
X-110.172 Y-61.399
X-109.836 Y-60.345
X-109.572 Y-59.28
X-109.382 Y-58.209
X-109.264 Y-57.135
X-109.217 Y-56.062
X-109.242 Y-54.994
X-109.337 Y-53.935
X-109.501 Y-52.887
X-109.734 Y-51.855
X-110.035 Y-50.842
X-110.402 Y-49.851
X-110.834 Y-48.887
X-111.33 Y-47.952
X-111.888 Y-47.051
X-112.505 Y-46.186
X-113.181 Y-45.363
X-113.911 Y-44.583
X-114.695 Y-43.852
X-115.528 Y-43.171
X-116.408 Y-42.545
X-117.331 Y-41.976
X-118.295 Y-41.467
X-119.294 Y-41.021
X-120.325 Y-40.641
X-121.385 Y-40.329
X-122.467 Y-40.086
X-123.569 Y-39.915
X-124.685 Y-39.817
X-125.81 Y-39.793
X-126.939 Y-39.844
X-128.067 Y-39.97
X-129.19 Y-40.172
X-130.301 Y-40.449
X-131.395 Y-40.8
X-132.468 Y-41.225
X-133.514 Y-41.721
X-134.528 Y-42.288
X-135.505 Y-42.923
X-136.44 Y-43.623
X-137.329 Y-44.385
X-138.168 Y-45.207
X-138.952 Y-46.084
X-139.678 Y-47.014
X-140.342 Y-47.991
X-140.94 Y-49.012
X-141.471 Y-50.072
X-141.93 Y-51.167
X-142.316 Y-52.291
X-142.628 Y-53.44
X-142.863 Y-54.608
X-143.02 Y-55.79
X-143.098 Y-56.981
X-143.097 Y-58.176
X-143.017 Y-59.369
X-142.857 Y-60.555
X-142.62 Y-61.728
X-142.305 Y-62.884
X-141.913 Y-64.017
X-141.448 Y-65.122
X-140.909 Y-66.194
X-140.301 Y-67.228
X-139.625 Y-68.22
X-138.884 Y-69.166
X-138.083 Y-70.06
X-137.223 Y-70.9
X-136.31 Y-71.68
X-135.346 Y-72.399
X-134.337 Y-73.053
X-133.286 Y-73.638
X-132.199 Y-74.152
X-131.08 Y-74.593
X-129.934 Y-74.959
X-128.766 Y-75.248
X-127.582 Y-75.459
X-126.386 Y-75.591
X-125.184 Y-75.643
X-123.981 Y-75.616
X-122.782 Y-75.509
X-121.589 Y-75.322
X-120.406 Y-75.055
X-119.233 Y-74.707
X-118.072 Y-74.277
X-116.928 Y-73.765
X-115.808 Y-73.171
X-114.716 Y-72.496
X-113.664 Y-71.745
X-112.664 Y-70.927
X-111.72 Y-70.045
X-110.835 Y-69.103
X-110.012 Y-68.107
X-109.255 Y-67.061
X-108.566 Y-65.968
X-107.948 Y-64.833
X-107.405 Y-63.661
X-106.938 Y-62.456
X-106.55 Y-61.223
X-106.244 Y-59.968
X-106.019 Y-58.696
X-105.879 Y-57.411
X-105.824 Y-56.12
X-105.854 Y-54.829
X-105.97 Y-53.543
X-106.17 Y-52.271
X-106.454 Y-51.015
X-106.82 Y-49.782
X-107.268 Y-48.576
X-107.794 Y-47.402
X-108.398 Y-46.264
X-109.077 Y-45.167
X-109.828 Y-44.116
X-110.648 Y-43.117
X-111.531 Y-42.175
X-112.475 Y-41.293
X-113.475 Y-40.475
X-114.527 Y-39.724
X-115.626 Y-39.044
X-116.766 Y-38.437
X-117.944 Y-37.906
X-119.154 Y-37.452
X-120.39 Y-37.077
X-121.648 Y-36.783
X-122.923 Y-36.57
X-124.208 Y-36.44
X-125.499 Y-36.391
X-126.791 Y-36.424
X-128.078 Y-36.538
X-129.355 Y-36.734
X-130.618 Y-37.008
X-131.861 Y-37.361
X-133.079 Y-37.791
X-134.269 Y-38.294
X-135.425 Y-38.871
X-136.544 Y-39.517
X-137.621 Y-40.231
X-138.651 Y-41.011
X-139.631 Y-41.853
X-140.557 Y-42.754
X-141.427 Y-43.71
X-142.236 Y-44.717
X-142.982 Y-45.772
X-143.663 Y-46.87
X-144.276 Y-48.007
X-144.82 Y-49.179
X-145.292 Y-50.382
X-145.691 Y-51.611
X-146.014 Y-52.862
X-146.261 Y-54.13
X-146.429 Y-55.411
X-146.52 Y-56.7
X-146.533 Y-57.992
X-146.467 Y-59.283
X-146.325 Y-60.567
X-146.105 Y-61.84
X-145.811 Y-63.098
X-145.441 Y-64.336
X-144.999 Y-65.55
X-144.484 Y-66.735
X-143.898 Y-67.886
X-143.243 Y-69
X-142.522 Y-70.072
X-141.738 Y-71.099
X-140.894 Y-72.078
X-139.993 Y-73.004
X-139.038 Y-73.875
X-138.034 Y-74.687
X-136.983 Y-75.439
X-135.888 Y-76.126
X-134.754 Y-76.745
X-133.585 Y-77.295
X-132.385 Y-77.773
X-131.158 Y-78.178
X-129.909 Y-78.509
X-128.643 Y-78.765
X-127.363 Y-78.945
X-126.075 Y-79.049
X-124.784 Y-79.077
X-123.492 Y-79.027
X-122.207 Y-78.9
X-120.931 Y-78.695
X-119.67 Y-78.414
X-118.427 Y-78.06
X-117.207 Y-77.634
X-116.014 Y-77.139
X-114.85 Y-76.577
X-113.721 Y-75.949
X-112.63 Y-75.257
X-111.58 Y-74.504
X-110.574 Y-73.693
X-109.615 Y-72.828
X-108.704 Y-71.911
X-107.845 Y-70.947
X-107.04 Y-69.936
X-106.293 Y-68.881
X-105.606 Y-67.787
X-104.98 Y-66.657
X-104.417 Y-65.494
X-103.918 Y-64.302
X-103.484 Y-63.085
X-103.12 Y-61.845
X-102.826 Y-60.587
X-102.603 Y-59.315
X-102.452 Y-58.031
X-102.371 Y-56.742
X-102.362 Y-55.45
X-102.425 Y-54.159
X-102.562 Y-52.875
X-102.772 Y-51.6
X-103.053 Y-50.339
X-103.405 Y-49.095
X-103.826 Y-47.874
X-104.313 Y-46.677
X-104.868 Y-45.51
X-105.489 Y-44.377
X-106.173 Y-43.281
X-106.918 Y-42.226
X-107.721 Y-41.213
X-108.578 Y-40.247
X-109.488 Y-39.329
X-110.448 Y-38.464
X-111.456 Y-37.656
X-112.508 Y-36.905
X-113.599 Y-36.214
X-114.727 Y-35.584
X-115.888 Y-35.017
X-117.078 Y-34.514
X-118.295 Y-34.078
X-119.534 Y-33.712
X-120.791 Y-33.414
X-122.063 Y-33.185
X-123.345 Y-33.025
X-124.634 Y-32.934
X-125.925 Y-32.913
X-127.217 Y-32.962
X-128.503 Y-33.082
X-129.781 Y-33.272
X-131.047 Y-33.529
X-132.298 Y-33.853
X-133.53 Y-34.242
X-134.74 Y-34.696
X-135.923 Y-35.214
X-137.077 Y-35.796
X-138.198 Y-36.438
X-139.284 Y-37.138
X-140.332 Y-37.895
X-141.338 Y-38.705
X-142.301 Y-39.567
X-143.216 Y-40.479
X-144.081 Y-41.438
X-144.895 Y-42.442
X-145.655 Y-43.487
X-146.36 Y-44.569
X-147.009 Y-45.687
X-147.599 Y-46.836
X-148.128 Y-48.015
X-148.594 Y-49.22
X-148.995 Y-50.448
X-149.333 Y-51.696
X-149.605 Y-52.959
X-149.812 Y-54.234
X-149.953 Y-55.518
X-150.027 Y-56.808
X-150.032 Y-58.1
X-149.97 Y-59.391
X-149.842 Y-60.676
X-149.648 Y-61.954
X-149.389 Y-63.22
X-149.066 Y-64.471
X-148.679 Y-65.703
X-148.226 Y-66.914
X-147.711 Y-68.099
X-147.135 Y-69.255
X-146.501 Y-70.381
X-145.81 Y-71.473
X-145.064 Y-72.528
X-144.265 Y-73.543
X-143.414 Y-74.515
X-142.513 Y-75.441
X-141.566 Y-76.32
X-140.575 Y-77.149
X-139.543 Y-77.927
X-138.473 Y-78.651
X-137.366 Y-79.318
X-136.227 Y-79.926
X-135.056 Y-80.474
X-133.859 Y-80.961
X-132.639 Y-81.385
X-131.399 Y-81.747
X-130.142 Y-82.046
X-128.871 Y-82.28
X-127.59 Y-82.448
X-126.302 Y-82.548
X-125.01 Y-82.582
X-123.719 Y-82.549
X-122.43 Y-82.451
X-121.149 Y-82.288
X-119.877 Y-82.06
X-118.618 Y-81.767
X-117.377 Y-81.41
X-116.154 Y-80.991
X-114.955 Y-80.512
X-113.78 Y-79.974
X-112.633 Y-79.378
X-111.517 Y-78.727
X-110.434 Y-78.023
X-109.388 Y-77.265
X-108.38 Y-76.457
X-107.412 Y-75.6
X-106.487 Y-74.699
X-105.605 Y-73.754
X-104.77 Y-72.768
X-103.983 Y-71.743
X-103.247 Y-70.682
X-102.563 Y-69.585
X-101.932 Y-68.458
X-101.357 Y-67.301
X-100.837 Y-66.118
X-100.374 Y-64.912
X-99.97 Y-63.684
X-99.625 Y-62.439
X-99.341 Y-61.179
X-99.12 Y-59.906
X-98.96 Y-58.624
X-98.862 Y-57.335
X-98.827 Y-56.044
X-98.854 Y-54.752
X-98.889 Y-54.24
X-98.923 Y-53.949
X-98.982 Y-53.662
X-99.066 Y-53.381
X-99.185 Y-53.039
X-99.191 Y-53.021
X-99.298 Y-52.641
X-99.593 Y-51.499
X-99.984 Y-49.978
X-100.086 Y-49.598
X-100.227 Y-49.217
X-100.709 Y-47.945
X-101.095 Y-46.935
X-101.283 Y-46.555
X-102.059 Y-45.033
X-102.232 Y-44.707
X-102.718 Y-43.892
X-102.96 Y-43.512
X-103.46 Y-42.751
X-104.136 Y-41.784
X-104.27 Y-41.61
X-105.215 Y-40.469
X-105.863 Y-39.708
X-106.04 Y-39.527
X-107.183 Y-38.42
X-107.432 Y-38.186
X-107.945 Y-37.714
X-108.294 Y-37.426
X-109.275 Y-36.665
X-109.468 Y-36.518
X-110.301 Y-35.904
X-110.611 Y-35.706
X-112.149 Y-34.763
X-112.515 Y-34.54
X-112.896 Y-34.354
X-113.277 Y-34.172
X-113.657 Y-33.991
X-114.442 Y-33.622
X-114.8 Y-33.46
X-115.32 Y-33.242
X-115.562 Y-33.143
X-117.497 Y-32.481
X-117.847 Y-32.384
X-118.608 Y-32.184
X-120.513 Y-31.758
X-120.712 Y-31.72
X-121.655 Y-31.61
X-122.798 Y-31.484
X-123.178 Y-31.444
X-123.559 Y-31.414
X-123.94 Y-31.399
X-125.464
X-125.844 Y-31.402
X-126.606 Y-31.433
X-126.987 Y-31.46
X-128.51 Y-31.628
X-128.891 Y-31.672
X-129.653 Y-31.807
X-130.034 Y-31.88
X-131.938 Y-32.306
X-132.319 Y-32.423
X-132.502 Y-32.481
X-133.842 Y-32.939
X-134.223 Y-33.076
X-134.985 Y-33.359
X-135.366 Y-33.532
X-136.889 Y-34.248
X-137.17 Y-34.383
X-137.27 Y-34.431
X-137.651 Y-34.64
X-139.093 Y-35.524
X-139.174 Y-35.575
X-139.936 Y-36.081
X-140.235 Y-36.285
X-141.84 Y-37.529
X-142.172 Y-37.806
X-142.221 Y-37.847
X-142.602 Y-38.211
X-143.754 Y-39.328
X-144.125 Y-39.693
X-144.471 Y-40.088
X-145.729 Y-41.61
X-146.011 Y-41.99
X-146.283 Y-42.371
X-146.41 Y-42.554
X-147.289 Y-43.892
X-147.519 Y-44.272
X-147.738 Y-44.653
X-147.941 Y-45.033
X-148.717 Y-46.555
X-148.899 Y-46.935
X-149.195 Y-47.696
X-149.341 Y-48.076
X-149.629 Y-48.837
X-149.761 Y-49.217
X-149.891 Y-49.598
X-150.016 Y-49.978
X-150.505 Y-51.88
X-150.702 Y-52.641
X-150.818 Y-53.021
X-150.98 Y-53.475
X-151.101 Y-53.782
X-151.289 Y-54.162
X-151.361 Y-54.298
X-151.446 Y-54.432
X-151.666 Y-54.821
X-151.917 Y-55.343
X-152.147 Y-55.916
X-152.371 Y-56.602
X-152.567 Y-57.373
X-152.574 Y-57.409
X-152.622 Y-57.843
X-152.606 Y-58.28
X-152.527 Y-58.71
X-152.386 Y-59.123
X-152.186 Y-59.512
X-151.932 Y-59.868
G3 X-149.667 Y-59.262 I1.007 J0.774
G1 X-149.139 Y-55.317
G3 X-151.446 Y-54.432 I-1.259 J0.168
G1 X-151.516 Y-54.542
X-152.077 Y-55.303
X-152.123 Y-55.363
X-152.504 Y-55.753
X-152.884 Y-56.086
X-152.948 Y-56.134
X-153.064 Y-56.232
X-153.284 Y-56.488
X-153.45 Y-56.781
X-153.558 Y-57.101
X-153.602 Y-57.435
X-153.581 Y-57.772
X-153.496 Y-58.099
X-153.351 Y-58.403
X-153.149 Y-58.674
X-152.9 Y-58.901
G3 X-152.454 Y-59.12 I0.947 J1.363
X-150.781 Y-58.714 I0.501 J1.582
X-152.504 Y-55.911 I-1.193 J1.198
X-152.948 Y-56.134 I0.53 J-1.605
G1 X-153.265 Y-56.375
X-153.368 Y-56.444
X-153.507 Y-56.552
X-153.646 Y-56.697
X-153.737 Y-56.825
X-153.836 Y-57.015
X-153.897 Y-57.205
X-153.928 Y-57.395
X-153.929 Y-57.585
X-153.902 Y-57.776
X-153.843 Y-57.966
X-153.762 Y-58.134
X-153.646 Y-58.303
X-153.609 Y-58.346
X-153.523 Y-58.433
X-153.437 Y-58.506
X-153.265 Y-58.631
X-153.255 Y-58.637
G2 X-153.029 Y-58.753 I-1.22 J-2.636
X-152.839 Y-58.887 I-0.632 J-1.102
X-152.797 Y-58.925 I-0.822 J-0.968
G1 X-152.255 Y-59.428
G2 X-152.22 Y-59.462 I-0.865 J-0.93
X-152.067 Y-59.648 I-0.9 J-0.896
X-151.935 Y-59.864 I-2.408 J-1.625
G1 X-151.932 Y-59.868
X-151.361 Y-60.703
X-151.211 Y-61.009
X-150.98 Y-61.494
X-150.768 Y-62.15
X-150.657 Y-62.53
X-149.972 Y-65.193
X-149.845 Y-65.573
X-149.564 Y-66.334
X-149.276 Y-67.095
X-149.128 Y-67.475
X-148.809 Y-68.236
X-148.695 Y-68.488
X-147.854 Y-70.138
X-147.651 Y-70.518
X-147.423 Y-70.899
X-147.172 Y-71.287
X-146.41 Y-72.446
X-146.154 Y-72.8
X-145.648 Y-73.484
X-145.588 Y-73.561
X-144.329 Y-75.083
X-144.125 Y-75.296
X-143.963 Y-75.463
X-143.744 Y-75.682
X-142.4 Y-76.985
X-142.221 Y-77.153
X-141.84 Y-77.463
X-141.459 Y-77.766
X-140.317 Y-78.652
X-139.985 Y-78.886
X-139.174 Y-79.425
X-138.193 Y-80.028
X-138.031 Y-80.122
X-137.27 Y-80.556
X-136.889 Y-80.752
X-134.985 Y-81.648
X-134.604 Y-81.8
X-133.08 Y-82.322
X-132.7 Y-82.447
X-132.319 Y-82.572
X-131.951 Y-82.69
X-131.557 Y-82.779
X-130.034 Y-83.12
X-129.653 Y-83.193
X-128.891 Y-83.328
X-128.51 Y-83.372
X-126.987 Y-83.54
X-126.606 Y-83.567
X-125.844 Y-83.598
X-125.464 Y-83.601
X-123.94
X-123.559 Y-83.584
X-122.798 Y-83.514
X-122.417 Y-83.474
X-121.655 Y-83.39
X-120.893 Y-83.301
X-120.513 Y-83.242
X-118.608 Y-82.816
X-118.228 Y-82.725
X-117.847 Y-82.62
X-117.466 Y-82.509
X-115.562 Y-81.857
X-115.181 Y-81.723
X-114.8 Y-81.546
X-113.188 Y-80.788
X-112.896 Y-80.645
X-112.432 Y-80.408
X-112.134 Y-80.228
X-110.566 Y-79.267
X-110.23 Y-79.045
X-109.849 Y-78.77
X-109.495 Y-78.506
X-108.326 Y-77.599
X-107.945 Y-77.293
X-107.6 Y-76.985
X-106.421 Y-75.842
X-106.039 Y-75.463
X-105.66 Y-75.066
X-105.279 Y-74.609
X-104.412 Y-73.561
X-104.136 Y-73.215
X-103.755 Y-72.681
X-103.572 Y-72.42
X-102.994 Y-71.539
X-102.828 Y-71.279
X-102.349 Y-70.518
X-102.232 Y-70.307
X-101.176 Y-68.236
X-101.089 Y-68.05
X-100.868 Y-67.475
X-100.58 Y-66.714
X-100.148 Y-65.573
X-100.028 Y-65.193
X-99.344 Y-62.53
X-99.238 Y-62.15
X-99.124 Y-61.77
X-98.969 Y-61.389
X-98.784 Y-61.009
X-98.594 Y-60.628
X-98.35 Y-60.248
X-98.216 Y-60.058
X-98.068 Y-59.868
X-98.043 Y-59.84
X-97.851 Y-59.61
X-97.621 Y-59.293
X-97.377 Y-58.907
X-97.247 Y-58.667
X-97.078 Y-58.287
X-96.971 Y-57.885
X-96.929 Y-57.472
X-96.951 Y-57.056
X-97.039 Y-56.65
X-97.19 Y-56.263
X-97.399 Y-55.903
X-97.662 Y-55.582
G3 X-99.804 Y-56.288 I-0.888 J-0.908
G1 X-100.199 Y-58.744
G3 X-98.043 Y-59.84 I1.254 J-0.202
G1 X-97.662 Y-59.427
X-97.346 Y-59.107
X-97.281 Y-59.052
X-96.857 Y-58.727
X-96.671 Y-58.586
X-96.625 Y-58.551
X-96.593 Y-58.527
X-96.478 Y-58.43
X-96.47 Y-58.421
X-96.351 Y-58.279
X-96.247 Y-58.127
X-96.157 Y-57.966
G3 X-96.55 Y-56.674 I-1.111 J0.368
X-97.965 Y-58.494 I-0.708 J-0.91
X-96.593 Y-58.527 I0.708 J0.91
G1 X-96.519 Y-58.47
X-96.392 Y-58.346
X-96.314 Y-58.251
X-96.251 Y-58.156
X-96.157 Y-57.966
X-96.138 Y-57.916
X-96.093 Y-57.751
X-96.071 Y-57.585
X-96.073 Y-57.395
X-96.103 Y-57.205
X-96.138 Y-57.084
X-96.192 Y-56.955
X-96.263 Y-56.825
X-96.371 Y-56.677
X-96.519 Y-56.53
X-96.632 Y-56.444
X-96.78 Y-56.337
X-96.856 Y-56.299 Z21.028
X-96.93 Y-56.261 Z21.05
X-97 Y-56.226 Z21.086
X-97.063 Y-56.194 Z21.135
X-97.123 Y-56.178 Z21.196
X-97.171 Y-56.164 Z21.268
X-97.207 Y-56.154 Z21.347
X-97.229 Y-56.148 Z21.431
X-97.237 Y-56.146 Z21.519
G0 Z50
X-369.295 Y-55.539
Z24.79
G1 Z23.52 F850
G3 X-380.705 Y-59.461 Z22.858 I-5.705 J-1.961 F283.3
X-377.628 Y-62.93 Z22.692 I5.705 J1.961
X-368.977 Y-57.84 Z22.278 I2.628 J5.43
X-381.023 Y-57.16 Z21.616 I-6.023 J0.34
X-379.485 Y-61.534 Z21.45 I6.023 J-0.34
X-369.552 Y-60.09 Z21.036 I4.485 J4.034
X-380.448 Y-54.91 Z20.374 I-5.448 J2.59
X-369.552 Y-60.09 Z19.712 I5.448 J-2.59
X-380.448 Y-54.91 Z19.051 I-5.448 J2.59
X-381.027 Y-57.245 Z18.966 I5.448 J-2.59
X-368.973 Y-57.755 Z18.304 I6.027 J-0.255
X-370.572 Y-53.403 Z18.138 I-6.027 J0.255
X-380.484 Y-54.987 Z17.724 I-4.428 J-4.097
X-369.516 Y-60.013 Z17.062 I5.484 J-2.513
X-369.352 Y-55.379 Z16.896 I-5.484 J2.513
X-380.647 Y-59.621 Z16.234 I-5.647 J-2.121
X-377.474 Y-63.002 Z16.068 I5.647 J2.121
X-368.97 Y-57.67 Z15.654 I2.474 J5.502
X-377.16 Y-51.868 Z15.24 I-6.03 J0.17
X-372.839 Y-63.132 Z14.578 I2.161 J-5.632
X-377.16 Y-51.868 Z13.916 I-2.161 J5.632
X-372.839 Y-63.132 Z13.255 I2.161 J-5.632
X-377.16 Y-51.868 Z12.593 I-2.161 J5.632
X-381.032 Y-57.415 Z12.342 I2.161 J-5.632
X-372.76 Y-63.101 Z11.928 I6.032 J-0.085
X-377.24 Y-51.899 Z11.266 I-2.24 J5.601
X-372.76 Y-63.101 Z10.604 I2.24 J-5.601
X-377.24 Y-51.899 Z9.943 I-2.24 J5.601
X-372.76 Y-63.101 Z9.281 I2.24 J-5.601
X-368.967 Y-57.5 Z9.03 I-2.24 J5.601
X-381.032 I-6.033
X-374.307 Y-63.492 I6.033
X-369.244 Y-59.305 I-0.693 J5.993
X-368.967 Y-57.5 I-5.756 J1.805
G1 X-368.964 Y-57.177 F850
X-368.931 Y-56.855
X-368.691 Y-55.586
X-368.641 Y-55.429
X-368.598 Y-55.253
X-368.564 Y-55.058
X-368.541 Y-54.845
X-368.532 Y-54.614
X-368.538 Y-54.366
X-368.562 Y-54.102
X-368.606 Y-53.825
X-368.673 Y-53.534
X-368.763 Y-53.233
X-368.878 Y-52.924
X-369.02 Y-52.609
X-369.19 Y-52.29
X-369.389 Y-51.971
X-369.617 Y-51.654
X-369.874 Y-51.342
X-370.16 Y-51.038
X-370.475 Y-50.745
X-370.818 Y-50.466
X-371.189 Y-50.204
X-371.585 Y-49.961
X-372.005 Y-49.74
X-372.447 Y-49.545
X-372.909 Y-49.375
X-373.389 Y-49.235
X-373.885 Y-49.125
X-374.394 Y-49.047
X-374.913 Y-49.003
X-375.439 Y-48.993
X-375.97 Y-49.018
X-376.503 Y-49.079
X-377.034 Y-49.176
X-377.562 Y-49.309
X-378.083 Y-49.478
X-378.595 Y-49.682
X-379.095 Y-49.92
X-379.58 Y-50.193
X-380.047 Y-50.498
X-380.495 Y-50.835
X-380.921 Y-51.202
X-381.323 Y-51.597
X-381.699 Y-52.02
X-382.046 Y-52.467
X-382.364 Y-52.938
X-382.651 Y-53.429
X-382.904 Y-53.939
X-383.124 Y-54.466
X-383.308 Y-55.006
X-383.456 Y-55.558
X-383.568 Y-56.12
X-383.642 Y-56.688
X-383.678 Y-57.26
X-383.676 Y-57.834
X-383.636 Y-58.406
X-383.559 Y-58.976
X-383.443 Y-59.539
X-383.291 Y-60.093
X-383.102 Y-60.636
X-382.877 Y-61.166
X-382.617 Y-61.679
X-382.324 Y-62.175
X-381.999 Y-62.65
X-381.643 Y-63.102
X-381.257 Y-63.53
X-380.844 Y-63.932
X-380.405 Y-64.305
X-379.943 Y-64.649
X-379.458 Y-64.961
X-378.954 Y-65.24
X-378.432 Y-65.485
X-377.895 Y-65.695
X-377.346 Y-65.869
X-376.786 Y-66.007
X-376.218 Y-66.106
X-375.645 Y-66.168
X-375.069 Y-66.192
X-374.492 Y-66.178
X-373.918 Y-66.125
X-373.348 Y-66.034
X-372.786 Y-65.906
X-372.233 Y-65.741
X-371.693 Y-65.539
X-371.167 Y-65.302
X-370.658 Y-65.031
X-370.168 Y-64.726
X-369.7 Y-64.39
X-369.254 Y-64.024
X-368.834 Y-63.628
X-368.442 Y-63.206
X-368.078 Y-62.758
X-367.744 Y-62.288
X-367.443 Y-61.796
X-366.868 Y-60.702
X-366.426 Y-59.706
X-366.12 Y-58.869
X-365.9 Y-58.119
X-365.743 Y-57.411
X-365.641 Y-56.74
X-365.585 Y-56.094
X-365.573 Y-55.462
X-365.602 Y-54.843
X-365.672 Y-54.235
X-365.78 Y-53.639
X-365.927 Y-53.054
X-366.112 Y-52.481
X-366.335 Y-51.921
X-366.596 Y-51.374
X-366.895 Y-50.843
X-367.231 Y-50.328
X-367.603 Y-49.833
X-368.012 Y-49.358
X-368.455 Y-48.907
X-368.933 Y-48.482
X-369.443 Y-48.085
X-369.985 Y-47.719
X-370.556 Y-47.386
X-371.153 Y-47.089
X-371.775 Y-46.829
X-372.418 Y-46.61
X-373.081 Y-46.432
X-373.759 Y-46.297
X-374.451 Y-46.206
X-375.152 Y-46.162
X-375.861 Y-46.164
X-376.572 Y-46.213
X-377.284 Y-46.31
X-377.992 Y-46.455
X-378.693 Y-46.648
X-379.384 Y-46.888
X-380.061 Y-47.175
X-380.721 Y-47.508
X-381.36 Y-47.886
X-381.975 Y-48.307
X-382.562 Y-48.769
X-383.12 Y-49.271
X-383.645 Y-49.811
X-384.134 Y-50.385
X-384.585 Y-50.992
X-384.995 Y-51.63
X-385.364 Y-52.294
X-385.687 Y-52.982
X-385.965 Y-53.692
X-386.196 Y-54.42
X-386.378 Y-55.162
X-386.511 Y-55.915
X-386.593 Y-56.677
X-386.625 Y-57.443
X-386.606 Y-58.21
X-386.536 Y-58.974
X-386.415 Y-59.733
X-386.244 Y-60.483
X-386.024 Y-61.22
X-385.755 Y-61.941
X-385.439 Y-62.643
X-385.077 Y-63.323
X-384.671 Y-63.978
X-384.221 Y-64.604
X-383.731 Y-65.2
X-383.203 Y-65.762
X-382.638 Y-66.287
X-382.04 Y-66.774
X-381.41 Y-67.221
X-380.752 Y-67.624
X-380.069 Y-67.984
X-379.363 Y-68.297
X-378.638 Y-68.562
X-377.897 Y-68.78
X-377.143 Y-68.947
X-376.38 Y-69.064
X-375.61 Y-69.13
X-374.838 Y-69.145
X-374.066 Y-69.109
X-373.298 Y-69.022
X-372.538 Y-68.884
X-371.789 Y-68.696
X-371.053 Y-68.458
X-370.335 Y-68.172
X-369.638 Y-67.84
X-368.964 Y-67.461
X-368.317 Y-67.039
X-367.699 Y-66.575
X-367.049 Y-66.016
X-366.421 Y-65.399
X-365.788 Y-64.688
X-365.187 Y-63.915
X-364.637 Y-63.102
X-364.147 Y-62.262
X-363.72 Y-61.405
X-363.358 Y-60.538
X-363.06 Y-59.665
X-362.825 Y-58.793
X-362.652 Y-57.924
X-362.539 Y-57.06
X-362.484 Y-56.203
X-362.486 Y-55.354
X-362.544 Y-54.514
X-362.657 Y-53.686
X-362.824 Y-52.87
X-363.044 Y-52.069
X-363.316 Y-51.285
X-363.64 Y-50.52
X-364.015 Y-49.778
X-364.439 Y-49.06
X-364.912 Y-48.369
X-365.431 Y-47.708
X-365.996 Y-47.08
X-366.605 Y-46.488
X-367.255 Y-45.934
X-367.944 Y-45.422
X-368.67 Y-44.954
X-369.43 Y-44.532
X-370.221 Y-44.16
X-371.041 Y-43.839
X-371.884 Y-43.571
X-372.75 Y-43.358
X-373.632 Y-43.203
X-374.529 Y-43.105
X-375.436 Y-43.067
X-376.349 Y-43.09
X-377.263 Y-43.173
X-378.175 Y-43.318
X-379.079 Y-43.524
X-379.973 Y-43.79
X-380.85 Y-44.117
X-381.708 Y-44.503
X-382.541 Y-44.947
X-383.346 Y-45.446
X-384.118 Y-46
X-384.854 Y-46.605
X-385.551 Y-47.26
X-386.204 Y-47.962
X-386.81 Y-48.707
X-387.368 Y-49.492
X-387.872 Y-50.314
X-388.322 Y-51.169
X-388.715 Y-52.054
X-389.049 Y-52.964
X-389.322 Y-53.896
X-389.533 Y-54.845
X-389.681 Y-55.806
X-389.765 Y-56.777
X-389.784 Y-57.752
X-389.739 Y-58.727
X-389.628 Y-59.697
X-389.454 Y-60.659
X-389.216 Y-61.607
X-388.916 Y-62.538
X-388.554 Y-63.448
X-388.133 Y-64.332
X-387.653 Y-65.186
X-387.118 Y-66.007
X-386.53 Y-66.792
X-385.89 Y-67.535
X-385.202 Y-68.235
X-384.47 Y-68.888
X-383.695 Y-69.49
X-382.882 Y-70.041
X-382.035 Y-70.536
X-381.156 Y-70.974
X-380.249 Y-71.352
X-379.32 Y-71.67
X-378.372 Y-71.926
X-377.408 Y-72.118
X-376.434 Y-72.246
X-375.453 Y-72.309
X-374.471 Y-72.306
X-373.49 Y-72.239
X-372.516 Y-72.107
X-371.553 Y-71.91
X-370.606 Y-71.65
X-369.677 Y-71.328
X-368.758 Y-70.938
X-367.851 Y-70.482
X-366.954 Y-69.952
X-366.073 Y-69.35
X-365.22 Y-68.679
X-364.401 Y-67.943
X-363.622 Y-67.143
X-362.891 Y-66.285
X-362.215 Y-65.376
X-361.6 Y-64.423
X-361.052 Y-63.434
X-360.573 Y-62.417
X-360.165 Y-61.379
X-359.83 Y-60.324
X-359.568 Y-59.259
X-359.379 Y-58.188
X-359.262 Y-57.114
X-359.217 Y-56.041
X-359.243 Y-54.974
X-359.339 Y-53.914
X-359.505 Y-52.867
X-359.74 Y-51.835
X-360.042 Y-50.822
X-360.41 Y-49.832
X-360.843 Y-48.868
X-361.34 Y-47.934
X-361.899 Y-47.034
X-362.518 Y-46.17
X-363.194 Y-45.347
X-363.926 Y-44.569
X-364.71 Y-43.838
X-365.544 Y-43.158
X-366.425 Y-42.533
X-367.349 Y-41.965
X-368.313 Y-41.458
X-369.313 Y-41.013
X-370.345 Y-40.634
X-371.405 Y-40.323
X-372.488 Y-40.082
X-373.59 Y-39.912
X-374.706 Y-39.816
X-375.832 Y-39.793
X-376.961 Y-39.846
X-378.089 Y-39.973
X-379.211 Y-40.176
X-380.322 Y-40.455
X-381.416 Y-40.807
X-382.488 Y-41.233
X-383.534 Y-41.731
X-384.547 Y-42.299
X-385.523 Y-42.935
X-386.458 Y-43.637
X-387.346 Y-44.4
X-388.184 Y-45.223
X-388.967 Y-46.101
X-389.691 Y-47.032
X-390.354 Y-48.01
X-390.951 Y-49.032
X-391.48 Y-50.093
X-391.938 Y-51.188
X-392.323 Y-52.313
X-392.633 Y-53.462
X-392.866 Y-54.63
X-393.022 Y-55.813
X-393.099 Y-57.004
X-393.096 Y-58.199
X-393.014 Y-59.391
X-392.854 Y-60.577
X-392.615 Y-61.75
X-392.298 Y-62.906
X-391.905 Y-64.038
X-391.438 Y-65.142
X-390.898 Y-66.214
X-390.289 Y-67.247
X-389.611 Y-68.239
X-388.87 Y-69.183
X-388.067 Y-70.077
X-387.206 Y-70.915
X-386.292 Y-71.695
X-385.327 Y-72.412
X-384.317 Y-73.064
X-383.266 Y-73.648
X-382.178 Y-74.161
X-381.059 Y-74.6
X-379.912 Y-74.965
X-378.744 Y-75.252
X-377.559 Y-75.462
X-376.363 Y-75.593
X-375.161 Y-75.643
X-373.958 Y-75.614
X-372.759 Y-75.506
X-371.567 Y-75.317
X-370.384 Y-75.049
X-369.211 Y-74.699
X-368.05 Y-74.268
X-366.907 Y-73.754
X-365.787 Y-73.159
X-364.695 Y-72.482
X-363.645 Y-71.73
X-362.646 Y-70.91
X-361.703 Y-70.027
X-360.819 Y-69.085
X-359.997 Y-68.088
X-359.241 Y-67.04
X-358.553 Y-65.946
X-357.937 Y-64.811
X-357.395 Y-63.638
X-356.93 Y-62.432
X-356.544 Y-61.199
X-356.239 Y-59.944
X-356.016 Y-58.671
X-355.878 Y-57.386
X-355.824 Y-56.096
X-355.856 Y-54.804
X-355.973 Y-53.519
X-356.175 Y-52.246
X-356.46 Y-50.991
X-356.828 Y-49.759
X-357.277 Y-48.553
X-357.805 Y-47.379
X-358.41 Y-46.242
X-359.091 Y-45.147
X-359.843 Y-44.097
X-360.664 Y-43.099
X-361.549 Y-42.157
X-362.494 Y-41.276
X-363.495 Y-40.46
X-364.548 Y-39.71
X-365.647 Y-39.032
X-366.788 Y-38.426
X-367.967 Y-37.896
X-369.177 Y-37.444
X-370.414 Y-37.071
X-371.673 Y-36.778
X-372.947 Y-36.567
X-374.233 Y-36.438
X-375.524 Y-36.39
X-376.816 Y-36.425
X-378.102 Y-36.541
X-379.379 Y-36.738
X-380.642 Y-37.014
X-381.884 Y-37.369
X-383.102 Y-37.799
X-384.291 Y-38.305
X-385.447 Y-38.882
X-386.565 Y-39.53
X-387.641 Y-40.245
X-388.67 Y-41.026
X-389.65 Y-41.869
X-390.575 Y-42.771
X-391.443 Y-43.728
X-392.251 Y-44.737
X-392.996 Y-45.792
X-393.675 Y-46.891
X-394.287 Y-48.029
X-394.829 Y-49.202
X-395.3 Y-50.405
X-395.698 Y-51.635
X-396.02 Y-52.886
X-396.265 Y-54.154
X-396.432 Y-55.436
X-396.521 Y-56.725
X-396.532 Y-58.017
X-396.465 Y-59.307
X-396.321 Y-60.591
X-396.101 Y-61.864
X-395.804 Y-63.122
X-395.434 Y-64.359
X-394.99 Y-65.573
X-394.473 Y-66.757
X-393.886 Y-67.908
X-393.229 Y-69.021
X-392.507 Y-70.092
X-391.722 Y-71.118
X-390.877 Y-72.096
X-389.975 Y-73.021
X-389.02 Y-73.891
X-388.014 Y-74.702
X-386.962 Y-75.452
X-385.867 Y-76.138
X-384.733 Y-76.756
X-383.563 Y-77.304
X-382.362 Y-77.781
X-381.134 Y-78.185
X-379.885 Y-78.515
X-378.618 Y-78.769
X-377.339 Y-78.948
X-376.051 Y-79.05
X-374.759 Y-79.076
X-373.468 Y-79.025
X-372.182 Y-78.896
X-370.907 Y-78.69
X-369.646 Y-78.408
X-368.404 Y-78.052
X-367.184 Y-77.625
X-365.991 Y-77.129
X-364.829 Y-76.566
X-363.7 Y-75.937
X-362.61 Y-75.243
X-361.561 Y-74.489
X-360.556 Y-73.677
X-359.597 Y-72.811
X-358.687 Y-71.893
X-357.829 Y-70.928
X-357.025 Y-69.916
X-356.279 Y-68.861
X-355.594 Y-67.766
X-354.969 Y-66.635
X-354.407 Y-65.471
X-353.909 Y-64.279
X-353.477 Y-63.061
X-353.114 Y-61.821
X-352.821 Y-60.563
X-352.6 Y-59.29
X-352.45 Y-58.007
X-352.371 Y-56.717
X-352.363 Y-55.425
X-352.427 Y-54.135
X-352.565 Y-52.85
X-352.776 Y-51.575
X-353.059 Y-50.315
X-353.413 Y-49.072
X-353.835 Y-47.85
X-354.323 Y-46.655
X-354.879 Y-45.488
X-355.501 Y-44.356
X-356.187 Y-43.261
X-356.933 Y-42.206
X-357.737 Y-41.194
X-358.595 Y-40.229
X-359.506 Y-39.312
X-360.467 Y-38.448
X-361.476 Y-37.641
X-362.528 Y-36.891
X-363.621 Y-36.201
X-364.749 Y-35.573
X-365.911 Y-35.006
X-367.101 Y-34.505
X-368.318 Y-34.071
X-369.558 Y-33.705
X-370.815 Y-33.409
X-372.087 Y-33.181
X-373.369 Y-33.023
X-374.658 Y-32.933
X-375.95 Y-32.913
X-377.241 Y-32.964
X-378.528 Y-33.085
X-379.805 Y-33.276
X-381.071 Y-33.535
X-382.322 Y-33.86
X-383.553 Y-34.25
X-384.763 Y-34.705
X-385.946 Y-35.225
X-387.099 Y-35.807
X-388.22 Y-36.451
X-389.305 Y-37.152
X-390.351 Y-37.91
X-391.357 Y-38.721
X-392.319 Y-39.583
X-393.233 Y-40.496
X-394.098 Y-41.457
X-394.91 Y-42.461
X-395.669 Y-43.507
X-396.373 Y-44.59
X-397.021 Y-45.708
X-397.61 Y-46.858
X-398.138 Y-48.038
X-398.602 Y-49.243
X-399.002 Y-50.472
X-399.338 Y-51.719
X-399.609 Y-52.983
X-399.815 Y-54.258
X-399.955 Y-55.543
X-400.027 Y-56.833
X-400.032 Y-58.125
X-399.968 Y-59.415
X-399.839 Y-60.701
X-399.644 Y-61.978
X-399.384 Y-63.244
X-399.06 Y-64.495
X-398.671 Y-65.727
X-398.217 Y-66.937
X-397.701 Y-68.121
X-397.124 Y-69.277
X-396.488 Y-70.402
X-395.796 Y-71.493
X-395.05 Y-72.547
X-394.249 Y-73.562
X-393.397 Y-74.533
X-392.495 Y-75.458
X-391.547 Y-76.336
X-390.555 Y-77.164
X-389.523 Y-77.941
X-388.452 Y-78.664
X-387.345 Y-79.33
X-386.204 Y-79.937
X-385.034 Y-80.484
X-383.836 Y-80.969
X-382.616 Y-81.393
X-381.375 Y-81.754
X-380.118 Y-82.051
X-378.847 Y-82.284
X-377.565 Y-82.45
X-376.277 Y-82.55
X-374.986 Y-82.582
X-373.694 Y-82.548
X-372.406 Y-82.448
X-371.124 Y-82.284
X-369.853 Y-82.055
X-368.595 Y-81.761
X-367.353 Y-81.403
X-366.131 Y-80.983
X-364.932 Y-80.502
X-363.758 Y-79.963
X-362.612 Y-79.366
X-361.496 Y-78.714
X-360.414 Y-78.008
X-359.368 Y-77.249
X-358.361 Y-76.44
X-357.394 Y-75.583
X-356.469 Y-74.681
X-355.589 Y-73.735
X-354.755 Y-72.748
X-353.969 Y-71.723
X-353.233 Y-70.661
X-352.55 Y-69.564
X-351.921 Y-68.436
X-351.346 Y-67.278
X-350.828 Y-66.095
X-350.366 Y-64.888
X-349.963 Y-63.661
X-349.619 Y-62.415
X-349.337 Y-61.154
X-349.116 Y-59.881
X-348.958 Y-58.599
X-348.861 Y-57.31
X-348.827 Y-56.019
X-348.855 Y-54.727
X-348.893 Y-54.194
X-348.927 Y-53.897
X-348.988 Y-53.603
X-349.076 Y-53.317
X-349.182 Y-53.021
X-349.298 Y-52.641
X-349.593 Y-51.499
X-349.984 Y-49.978
X-350.109 Y-49.598
X-350.239 Y-49.217
X-350.371 Y-48.837
X-350.659 Y-48.076
X-350.805 Y-47.696
X-351.101 Y-46.935
X-351.283 Y-46.555
X-352.067 Y-45.018
X-352.262 Y-44.653
X-352.481 Y-44.272
X-352.711 Y-43.892
X-353.59 Y-42.554
X-353.717 Y-42.371
X-353.989 Y-41.99
X-354.271 Y-41.61
X-355.529 Y-40.088
X-355.875 Y-39.693
X-356.256 Y-39.318
X-357.424 Y-38.186
X-357.779 Y-37.847
X-357.828 Y-37.806
X-358.16 Y-37.529
X-359.765 Y-36.285
X-360.064 Y-36.081
X-360.826 Y-35.575
X-360.908 Y-35.524
X-362.349 Y-34.64
X-362.73 Y-34.431
X-362.83 Y-34.383
X-363.111 Y-34.248
X-364.634 Y-33.532
X-365.015 Y-33.359
X-365.777 Y-33.076
X-366.158 Y-32.939
X-367.498 Y-32.481
X-367.681 Y-32.423
X-368.062 Y-32.306
X-369.966 Y-31.88
X-370.347 Y-31.807
X-371.109 Y-31.672
X-371.49 Y-31.628
X-373.013 Y-31.46
X-373.394 Y-31.433
X-374.156 Y-31.402
X-374.536 Y-31.399
X-376.06
X-376.441 Y-31.414
X-376.822 Y-31.444
X-377.202 Y-31.484
X-378.345 Y-31.61
X-379.288 Y-31.72
X-379.487 Y-31.758
X-381.392 Y-32.184
X-382.153 Y-32.384
X-382.503 Y-32.481
X-384.438 Y-33.143
X-384.68 Y-33.242
X-385.2 Y-33.46
X-385.581 Y-33.633
X-386.366 Y-34.002
X-386.723 Y-34.172
X-387.164 Y-34.383
X-387.485 Y-34.54
X-388.628 Y-35.239
X-389.389 Y-35.706
X-389.699 Y-35.904
X-390.532 Y-36.518
X-390.725 Y-36.665
X-391.706 Y-37.426
X-392.055 Y-37.714
X-392.568 Y-38.186
X-392.817 Y-38.42
X-393.96 Y-39.527
X-394.137 Y-39.708
X-394.785 Y-40.469
X-395.729 Y-41.61
X-395.864 Y-41.784
X-396.54 Y-42.751
X-397.039 Y-43.512
X-397.281 Y-43.892
X-397.768 Y-44.708
X-397.941 Y-45.033
X-398.717 Y-46.555
X-398.904 Y-46.935
X-399.291 Y-47.945
X-399.773 Y-49.217
X-399.915 Y-49.598
X-400.016 Y-49.978
X-400.505 Y-51.88
X-400.702 Y-52.641
X-400.81 Y-53.021
X-400.815 Y-53.037
X-400.942 Y-53.401
X-401.106 Y-53.782
X-401.306 Y-54.162
X-401.509 Y-54.542
X-401.529 Y-54.573
X-401.606 Y-54.702
X-401.857 Y-55.203
X-402.09 Y-55.758
X-402.322 Y-56.43
X-402.52 Y-57.16
X-402.534 Y-57.225
X-402.594 Y-57.693
X-402.586 Y-58.164
X-402.512 Y-58.629
X-402.372 Y-59.08
X-402.17 Y-59.505
X-401.909 Y-59.897
G3 X-401.524 Y-60.21 I0.977 J0.812
X-399.671 Y-59.232 I0.592 J1.124
G1 X-399.235 Y-55.458
G3 X-401.168 Y-54.234 I-1.262 J0.146
X-401.529 Y-54.573 I0.671 J-1.078
G1 X-401.576 Y-54.645
X-401.774 Y-54.923
X-402.073 Y-55.303
X-402.436 Y-55.684
X-402.719 Y-55.942
X-402.859 Y-56.064
X-402.932 Y-56.12
X-403.055 Y-56.225
X-403.274 Y-56.484
X-403.44 Y-56.78
X-403.547 Y-57.102
X-403.591 Y-57.439
X-403.571 Y-57.777
X-403.487 Y-58.106
X-403.342 Y-58.413
X-403.142 Y-58.687
X-402.893 Y-58.918
G3 X-402.45 Y-59.144 I0.984 J1.381
X-400.698 Y-58.724 I0.541 J1.607
X-402.491 Y-55.892 I-1.23 J1.204
X-402.932 Y-56.12 I0.563 J-1.627
G1 X-403.1 Y-56.25
X-403.368 Y-56.444
X-403.481 Y-56.529
X-403.629 Y-56.677
X-403.737 Y-56.825
X-403.809 Y-56.954
X-403.862 Y-57.083
X-403.897 Y-57.205
X-403.928 Y-57.395
X-403.929 Y-57.585
X-403.907 Y-57.751
X-403.862 Y-57.917
X-403.843 Y-57.966
X-403.749 Y-58.156
X-403.686 Y-58.251
X-403.609 Y-58.346
X-403.481 Y-58.471
X-403.143 Y-58.727
X-403.133 Y-58.733
G2 X-402.919 Y-58.85 I-1.23 J-2.503
X-402.725 Y-58.994 I-0.657 J-1.087
X-402.705 Y-59.012 I-0.852 J-0.942
G1 X-402.24 Y-59.45
G2 X-402.224 Y-59.466 I-0.871 J-0.924
X-402.066 Y-59.654 I-0.887 J-0.909
X-401.936 Y-59.861 I-2.297 J-1.582
G1 X-401.932 Y-59.868
X-401.785 Y-60.058
X-401.65 Y-60.248
X-401.407 Y-60.628
X-401.216 Y-61.009
X-401.032 Y-61.389
X-400.877 Y-61.77
X-400.763 Y-62.15
X-400.657 Y-62.53
X-399.972 Y-65.193
X-399.852 Y-65.573
X-399.276 Y-67.095
X-399.132 Y-67.475
X-398.911 Y-68.049
X-398.823 Y-68.236
X-397.768 Y-70.306
X-397.65 Y-70.518
X-397.172 Y-71.279
X-397.006 Y-71.539
X-396.427 Y-72.42
X-396.245 Y-72.681
X-395.864 Y-73.215
X-395.588 Y-73.561
X-394.644 Y-74.702
X-394.34 Y-75.066
X-393.96 Y-75.465
X-393.578 Y-75.843
X-392.4 Y-76.985
X-392.055 Y-77.293
X-391.674 Y-77.599
X-390.505 Y-78.506
X-390.151 Y-78.77
X-389.77 Y-79.045
X-389.434 Y-79.267
X-387.866 Y-80.228
X-387.568 Y-80.408
X-387.104 Y-80.645
X-386.812 Y-80.788
X-385.194 Y-81.549
X-384.819 Y-81.723
X-384.438 Y-81.857
X-382.534 Y-82.509
X-382.153 Y-82.62
X-381.772 Y-82.725
X-381.392 Y-82.816
X-379.487 Y-83.242
X-379.107 Y-83.301
X-378.345 Y-83.39
X-377.583 Y-83.474
X-377.202 Y-83.514
X-376.441 Y-83.584
X-376.06 Y-83.601
X-374.536
X-374.156 Y-83.598
X-373.394 Y-83.567
X-373.013 Y-83.54
X-371.49 Y-83.372
X-371.109 Y-83.328
X-370.347 Y-83.193
X-369.966 Y-83.12
X-368.062 Y-82.694
X-368.049 Y-82.69
X-367.681 Y-82.572
X-367.3 Y-82.447
X-366.885 Y-82.31
X-365.396 Y-81.8
X-365.015 Y-81.648
X-363.111 Y-80.752
X-362.73 Y-80.556
X-361.969 Y-80.122
X-361.807 Y-80.028
X-360.826 Y-79.425
X-360.016 Y-78.886
X-359.683 Y-78.652
X-358.514 Y-77.745
X-358.16 Y-77.463
X-357.779 Y-77.153
X-357.6 Y-76.985
X-356.256 Y-75.682
X-356.037 Y-75.463
X-355.875 Y-75.296
X-355.671 Y-75.083
X-354.412 Y-73.561
X-354.352 Y-73.484
X-353.846 Y-72.8
X-353.59 Y-72.446
X-352.823 Y-71.279
X-352.577 Y-70.899
X-352.349 Y-70.518
X-352.146 Y-70.138
X-351.305 Y-68.488
X-351.191 Y-68.236
X-350.872 Y-67.475
X-350.724 Y-67.095
X-350.436 Y-66.334
X-350.155 Y-65.573
X-350.028 Y-65.193
X-349.343 Y-62.53
X-349.232 Y-62.15
X-349.02 Y-61.494
X-348.789 Y-61.009
X-348.639 Y-60.703
X-348.068 Y-59.868
X-347.877 Y-59.639
X-347.781 Y-59.523
X-347.551 Y-59.194
X-347.302 Y-58.781
X-347.127 Y-58.366
X-347.019 Y-57.928
X-346.98 Y-57.479
X-347.012 Y-57.03
X-347.113 Y-56.591
X-347.281 Y-56.173
X-347.512 Y-55.787
X-347.801 Y-55.441
G3 X-348.219 Y-55.175 I-0.877 J-0.919
X-349.948 Y-56.327 I-0.459 J-1.184
G1 X-350.007 Y-58.672
G3 X-347.877 Y-59.639 I1.27 J-0.032
G1 X-347.338 Y-59.107
X-347.116 Y-58.912
X-346.867 Y-58.727
X-346.735 Y-58.631
X-346.706 Y-58.61
X-346.682 Y-58.593
X-346.566 Y-58.499
X-346.461 Y-58.392
X-346.378 Y-58.292
X-346.262 Y-58.133
X-346.168 Y-57.96
X-346.098 Y-57.776
G3 X-346.655 Y-56.534 I-1.34 J0.145
X-348.148 Y-58.547 I-0.729 J-1.02
X-347.14 Y-58.783 I0.765 J0.993
X-346.682 Y-58.593 I-0.244 J1.23
G1 X-346.563 Y-58.506
X-346.477 Y-58.433
X-346.391 Y-58.346
X-346.354 Y-58.303
X-346.238 Y-58.134
X-346.157 Y-57.966
X-346.098 Y-57.776
X-346.071 Y-57.585
X-346.072 Y-57.395
X-346.103 Y-57.205
X-346.164 Y-57.015
X-346.263 Y-56.825
X-346.354 Y-56.697
X-346.493 Y-56.552
X-346.632 Y-56.444
X-346.663 Y-56.423
X-346.741 Y-56.387 Z9.038
X-346.816 Y-56.352 Z9.06
X-346.887 Y-56.319 Z9.096
X-346.951 Y-56.29 Z9.145
X-347.011 Y-56.275 Z9.206
X-347.06 Y-56.263 Z9.278
X-347.097 Y-56.254 Z9.357
X-347.119 Y-56.249 Z9.441
X-347.126 Y-56.247 Z9.529
G0 Z50
X-119.295 Y-55.539
Z24.79
G1 Z23.52 F850
G3 X-130.705 Y-59.461 Z22.858 I-5.705 J-1.961 F283.3
X-119.295 Y-55.539 Z22.196 I5.705 J1.961
X-130.705 Y-59.461 Z21.535 I-5.705 J-1.961
X-119.295 Y-55.539 Z20.873 I5.705 J1.961
X-130.705 Y-59.461 Z20.211 I-5.705 J-1.961
X-119.295 Y-55.539 Z19.549 I5.705 J1.961
X-130.705 Y-59.461 Z18.887 I-5.705 J-1.961
X-119.295 Y-55.539 Z18.226 I5.705 J1.961
X-130.705 Y-59.461 Z17.564 I-5.705 J-1.961
X-119.295 Y-55.539 Z16.902 I5.705 J1.961
X-130.705 Y-59.461 Z16.24 I-5.705 J-1.961
X-119.295 Y-55.539 Z15.578 I5.705 J1.961
X-130.705 Y-59.461 Z14.917 I-5.705 J-1.961
X-119.295 Y-55.539 Z14.255 I5.705 J1.961
X-130.705 Y-59.461 Z13.593 I-5.705 J-1.961
X-119.295 Y-55.539 Z12.931 I5.705 J1.961
X-130.705 Y-59.461 Z12.269 I-5.705 J-1.961
X-119.295 Y-55.539 Z11.607 I5.705 J1.961
X-130.705 Y-59.461 Z10.946 I-5.705 J-1.961
X-119.295 Y-55.539 Z10.284 I5.705 J1.961
X-130.705 Y-59.461 Z9.622 I-5.705 J-1.961
X-118.967 Y-57.5 Z9.03 I5.705 J1.961
X-131.032 I-6.033
X-118.967 I6.033
G1 X-118.964 Y-57.177 F850
X-118.931 Y-56.856
X-118.691 Y-55.586
X-118.642 Y-55.432
X-118.599 Y-55.256
X-118.565 Y-55.062
X-118.541 Y-54.849
X-118.532 Y-54.618
X-118.538 Y-54.371
X-118.562 Y-54.108
X-118.605 Y-53.83
X-118.671 Y-53.54
X-118.761 Y-53.239
X-118.876 Y-52.93
X-119.017 Y-52.615
X-119.187 Y-52.296
X-119.385 Y-51.977
X-119.612 Y-51.66
X-119.869 Y-51.348
X-120.154 Y-51.044
X-120.469 Y-50.75
X-120.812 Y-50.471
X-121.181 Y-50.209
X-121.577 Y-49.966
X-121.996 Y-49.745
X-122.438 Y-49.548
X-122.9 Y-49.378
X-123.38 Y-49.238
X-123.875 Y-49.127
X-124.384 Y-49.049
X-124.903 Y-49.004
X-125.429 Y-48.993
X-125.96 Y-49.018
X-126.492 Y-49.078
X-127.024 Y-49.174
X-127.552 Y-49.306
X-128.073 Y-49.474
X-128.585 Y-49.677
X-129.085 Y-49.915
X-129.57 Y-50.187
X-130.038 Y-50.492
X-130.487 Y-50.828
X-130.913 Y-51.195
X-131.315 Y-51.59
X-131.692 Y-52.012
X-132.04 Y-52.459
X-132.358 Y-52.929
X-132.645 Y-53.42
X-132.9 Y-53.929
X-133.12 Y-54.455
X-133.305 Y-54.996
X-133.454 Y-55.548
X-133.566 Y-56.109
X-133.641 Y-56.677
X-133.678 Y-57.249
X-133.677 Y-57.823
X-133.638 Y-58.396
X-133.56 Y-58.965
X-133.446 Y-59.528
X-133.294 Y-60.082
X-133.106 Y-60.626
X-132.881 Y-61.156
X-132.623 Y-61.67
X-132.33 Y-62.166
X-132.006 Y-62.641
X-131.65 Y-63.094
X-131.265 Y-63.523
X-130.852 Y-63.925
X-130.414 Y-64.299
X-129.952 Y-64.643
X-129.468 Y-64.955
X-128.964 Y-65.235
X-128.442 Y-65.481
X-127.906 Y-65.692
X-127.356 Y-65.867
X-126.797 Y-66.005
X-126.229 Y-66.105
X-125.656 Y-66.168
X-125.08 Y-66.192
X-124.503 Y-66.178
X-123.929 Y-66.126
X-123.359 Y-66.036
X-122.797 Y-65.909
X-122.244 Y-65.744
X-121.703 Y-65.543
X-121.177 Y-65.307
X-120.668 Y-65.037
X-120.177 Y-64.733
X-119.708 Y-64.397
X-119.263 Y-64.031
X-118.842 Y-63.636
X-118.449 Y-63.214
X-118.084 Y-62.767
X-117.75 Y-62.297
X-117.448 Y-61.806
X-116.879 Y-60.725
X-116.433 Y-59.724
X-116.124 Y-58.884
X-115.904 Y-58.134
X-115.745 Y-57.424
X-115.642 Y-56.753
X-115.586 Y-56.107
X-115.573 Y-55.475
X-115.601 Y-54.855
X-115.67 Y-54.247
X-115.777 Y-53.651
X-115.924 Y-53.066
X-116.108 Y-52.492
X-116.331 Y-51.932
X-116.591 Y-51.385
X-116.889 Y-50.853
X-117.224 Y-50.338
X-117.596 Y-49.842
X-118.003 Y-49.367
X-118.446 Y-48.916
X-118.923 Y-48.49
X-119.433 Y-48.093
X-119.974 Y-47.726
X-120.544 Y-47.392
X-121.141 Y-47.094
X-121.763 Y-46.834
X-122.406 Y-46.614
X-123.068 Y-46.435
X-123.746 Y-46.299
X-124.437 Y-46.208
X-125.139 Y-46.162
X-125.847 Y-46.164
X-126.559 Y-46.212
X-127.27 Y-46.308
X-127.978 Y-46.452
X-128.68 Y-46.644
X-129.371 Y-46.883
X-130.048 Y-47.17
X-130.708 Y-47.502
X-131.348 Y-47.879
X-131.963 Y-48.299
X-132.551 Y-48.76
X-133.11 Y-49.261
X-133.635 Y-49.8
X-134.125 Y-50.374
X-134.576 Y-50.981
X-134.988 Y-51.617
X-135.357 Y-52.281
X-135.682 Y-52.969
