%
(1001)
(z0 circle bottom mid)
(T1  D=12.7 CR=0 - ZMIN=0 - flat end mill)
G90 G94
G17
G21

(2D Adaptive3)
M9
T1 M6
S6000 M3
G54
M9
G0 X5.705 Y1.961
Z60
Z50
Z48.77
G1 Z47.5 F850
G3 X-5.705 Y-1.961 Z46.838 I-5.705 J-1.961 F283.3
X5.705 Y1.961 Z46.176 I5.705 J1.961
X-5.705 Y-1.961 Z45.515 I-5.705 J-1.961
X5.705 Y1.961 Z44.853 I5.705 J1.961
X-5.705 Y-1.961 Z44.191 I-5.705 J-1.961
X5.705 Y1.961 Z43.529 I5.705 J1.961
X-5.705 Y-1.961 Z42.867 I-5.705 J-1.961
X5.705 Y1.961 Z42.206 I5.705 J1.961
X-5.705 Y-1.961 Z41.544 I-5.705 J-1.961
X5.705 Y1.961 Z40.882 I5.705 J1.961
X-5.705 Y-1.961 Z40.22 I-5.705 J-1.961
X5.705 Y1.961 Z39.558 I5.705 J1.961
X-5.705 Y-1.961 Z38.897 I-5.705 J-1.961
X5.705 Y1.961 Z38.235 I5.705 J1.961
X-5.705 Y-1.961 Z37.573 I-5.705 J-1.961
X5.705 Y1.961 Z36.911 I5.705 J1.961
X-5.705 Y-1.961 Z36.249 I-5.705 J-1.961
X5.705 Y1.961 Z35.587 I5.705 J1.961
X-5.705 Y-1.961 Z34.926 I-5.705 J-1.961
X5.705 Y1.961 Z34.264 I5.705 J1.961
X-5.705 Y-1.961 Z33.602 I-5.705 J-1.961
X6.033 Y0 Z33.01 I5.705 J1.961
X-6.032 I-6.033
X6.033 I6.033
G1 X6.036 Y0.336 F850
X6.174 Y1.671
X6.211 Y1.746
X6.27 Y1.884
X6.321 Y2.032
X6.367 Y2.199
X6.404 Y2.385
X6.432 Y2.589
X6.447 Y2.811
Y3.051
X6.43 Y3.307
X6.395 Y3.577
X6.338 Y3.861
X6.258 Y4.156
X6.153 Y4.461
X6.023 Y4.773
X5.865 Y5.089
X5.678 Y5.407
X5.463 Y5.724
X5.219 Y6.037
X4.945 Y6.344
X4.642 Y6.641
X4.311 Y6.925
X3.953 Y7.194
X3.568 Y7.444
X3.158 Y7.673
X2.725 Y7.879
X2.272 Y8.059
X1.799 Y8.211
X1.31 Y8.333
X0.807 Y8.423
X0.292 Y8.481
X-0.231 Y8.505
X-0.76 Y8.494
X-1.292 Y8.447
X-1.824 Y8.365
X-2.353 Y8.247
X-2.877 Y8.093
X-3.392 Y7.903
X-3.897 Y7.678
X-4.388 Y7.419
X-4.862 Y7.127
X-5.318 Y6.803
X-5.753 Y6.448
X-6.165 Y6.064
X-6.551 Y5.652
X-6.91 Y5.214
X-7.24 Y4.753
X-7.539 Y4.27
X-7.806 Y3.767
X-8.04 Y3.247
X-8.238 Y2.712
X-8.401 Y2.164
X-8.528 Y1.606
X-8.617 Y1.041
X-8.668 Y0.47
X-8.682 Y-0.104
X-8.657 Y-0.677
X-8.594 Y-1.248
X-8.494 Y-1.813
X-8.356 Y-2.372
X-8.182 Y-2.919
X-7.971 Y-3.455
X-7.726 Y-3.975
X-7.446 Y-4.478
X-7.133 Y-4.962
X-6.789 Y-5.423
X-6.416 Y-5.862
X-6.013 Y-6.274
X-5.585 Y-6.659
X-5.131 Y-7.014
X-4.655 Y-7.339
X-4.159 Y-7.632
X-3.644 Y-7.891
X-3.113 Y-8.115
X-2.568 Y-8.304
X-2.012 Y-8.456
X-1.447 Y-8.571
X-0.875 Y-8.648
X-0.3 Y-8.687
X0.277 Y-8.688
X0.852 Y-8.651
X1.424 Y-8.575
X1.989 Y-8.462
X2.546 Y-8.311
X3.092 Y-8.124
X3.624 Y-7.901
X4.14 Y-7.644
X4.637 Y-7.352
X5.115 Y-7.029
X5.57 Y-6.674
X6 Y-6.29
X6.404 Y-5.878
X6.78 Y-5.441
X7.126 Y-4.979
X7.44 Y-4.496
X7.837 Y-3.787
X8.395 Y-2.614
X8.752 Y-1.715
X9.004 Y-0.93
X9.187 Y-0.199
X9.311 Y0.489
X9.385 Y1.146
X9.414 Y1.785
X9.402 Y2.411
X9.348 Y3.024
X9.255 Y3.625
X9.124 Y4.215
X8.954 Y4.793
X8.746 Y5.358
X8.5 Y5.91
X8.217 Y6.448
X7.896 Y6.969
X7.539 Y7.472
X7.145 Y7.954
X6.716 Y8.415
X6.252 Y8.85
X5.755 Y9.258
X5.227 Y9.636
X4.668 Y9.982
X4.081 Y10.294
X3.47 Y10.569
X2.835 Y10.804
X2.181 Y10.999
X1.509 Y11.151
X0.823 Y11.26
X0.125 Y11.323
X-0.58 Y11.339
X-1.29 Y11.309
X-2.002 Y11.231
X-2.711 Y11.106
X-3.415 Y10.932
X-4.11 Y10.711
X-4.793 Y10.443
X-5.46 Y10.128
X-6.107 Y9.769
X-6.732 Y9.365
X-7.331 Y8.919
X-7.901 Y8.433
X-8.439 Y7.909
X-8.942 Y7.348
X-9.409 Y6.754
X-9.836 Y6.128
X-10.221 Y5.475
X-10.563 Y4.796
X-10.859 Y4.094
X-11.109 Y3.374
X-11.311 Y2.637
X-11.463 Y1.888
X-11.566 Y1.129
X-11.618 Y0.365
X-11.619 Y-0.402
X-11.57 Y-1.168
X-11.47 Y-1.93
X-11.319 Y-2.683
X-11.118 Y-3.426
X-10.869 Y-4.154
X-10.572 Y-4.864
X-10.228 Y-5.553
X-9.839 Y-6.218
X-9.406 Y-6.856
X-8.933 Y-7.465
X-8.419 Y-8.04
X-7.869 Y-8.581
X-7.284 Y-9.083
X-6.666 Y-9.546
X-6.019 Y-9.967
X-5.346 Y-10.345
X-4.649 Y-10.677
X-3.931 Y-10.961
X-3.196 Y-11.198
X-2.447 Y-11.386
X-1.687 Y-11.523
X-0.919 Y-11.61
X-0.148 Y-11.645
X0.625 Y-11.63
X1.394 Y-11.563
X2.158 Y-11.445
X2.912 Y-11.277
X3.653 Y-11.059
X4.379 Y-10.793
X5.085 Y-10.479
X5.768 Y-10.118
X6.427 Y-9.714
X7.057 Y-9.266
X7.684 Y-8.755
X8.313 Y-8.169
X8.946 Y-7.494
X9.562 Y-6.745
X10.133 Y-5.947
X10.649 Y-5.115
X11.102 Y-4.262
X11.491 Y-3.397
X11.816 Y-2.525
X12.076 Y-1.65
X12.274 Y-0.777
X12.411 Y0.09
X12.489 Y0.951
X12.51 Y1.804
X12.474 Y2.649
X12.383 Y3.483
X12.238 Y4.304
X12.039 Y5.112
X11.788 Y5.903
X11.484 Y6.675
X11.13 Y7.427
X10.726 Y8.155
X10.273 Y8.857
X9.772 Y9.53
X9.225 Y10.171
X8.634 Y10.778
X8.001 Y11.347
X7.328 Y11.876
X6.616 Y12.361
X5.87 Y12.802
X5.092 Y13.194
X4.284 Y13.536
X3.45 Y13.825
X2.593 Y14.06
X1.718 Y14.238
X0.827 Y14.359
X-0.076 Y14.421
X-0.986 Y14.423
X-1.9 Y14.364
X-2.813 Y14.244
X-3.72 Y14.063
X-4.618 Y13.821
X-5.502 Y13.518
X-6.368 Y13.156
X-7.211 Y12.736
X-8.027 Y12.258
X-8.813 Y11.726
X-9.564 Y11.142
X-10.277 Y10.506
X-10.947 Y9.823
X-11.573 Y9.096
X-12.15 Y8.326
X-12.676 Y7.519
X-13.148 Y6.677
X-13.564 Y5.803
X-13.922 Y4.903
X-14.22 Y3.98
X-14.456 Y3.037
X-14.629 Y2.08
X-14.739 Y1.113
X-14.784 Y0.139
X-14.764 Y-0.836
X-14.68 Y-1.809
X-14.531 Y-2.774
X-14.319 Y-3.728
X-14.044 Y-4.667
X-13.706 Y-5.586
X-13.309 Y-6.48
X-12.852 Y-7.347
X-12.339 Y-8.182
X-11.772 Y-8.981
X-11.153 Y-9.742
X-10.484 Y-10.459
X-9.769 Y-11.131
X-9.011 Y-11.754
X-8.213 Y-12.326
X-7.379 Y-12.844
X-6.512 Y-13.305
X-5.616 Y-13.708
X-4.696 Y-14.05
X-3.754 Y-14.331
X-2.796 Y-14.548
X-1.826 Y-14.702
X-0.848 Y-14.791
X0.135 Y-14.815
X1.117 Y-14.774
X2.094 Y-14.667
X3.062 Y-14.497
X4.016 Y-14.262
X4.953 Y-13.964
X5.874 Y-13.603
X6.782 Y-13.175
X7.681 Y-12.676
X8.568 Y-12.104
X9.432 Y-11.462
X10.265 Y-10.752
X11.059 Y-9.979
X11.81 Y-9.144
X12.508 Y-8.255
X13.148 Y-7.319
X13.724 Y-6.343
X14.232 Y-5.336
X14.668 Y-4.305
X15.033 Y-3.255
X15.324 Y-2.193
X15.543 Y-1.122
X15.689 Y-0.048
X15.763 Y1.026
X15.765 Y2.097
X15.697 Y3.16
X15.559 Y4.213
X15.352 Y5.252
X15.077 Y6.273
X14.735 Y7.272
X14.327 Y8.247
X13.856 Y9.194
X13.322 Y10.108
X12.727 Y10.987
X12.074 Y11.826
X11.364 Y12.622
X10.601 Y13.373
X9.787 Y14.073
X8.925 Y14.72
X8.018 Y15.311
X7.07 Y15.843
X6.084 Y16.313
X5.065 Y16.718
X4.016 Y17.056
X2.942 Y17.326
X1.848 Y17.524
X0.737 Y17.65
X-0.384 Y17.703
X-1.512 Y17.68
X-2.641 Y17.583
X-3.765 Y17.41
X-4.881 Y17.162
X-5.982 Y16.839
X-7.063 Y16.443
X-8.119 Y15.974
X-9.146 Y15.434
X-10.137 Y14.825
X-11.089 Y14.15
X-11.996 Y13.411
X-12.854 Y12.612
X-13.66 Y11.755
X-14.408 Y10.846
X-15.096 Y9.886
X-15.719 Y8.882
X-16.276 Y7.836
X-16.763 Y6.754
X-17.177 Y5.641
X-17.517 Y4.501
X-17.782 Y3.34
X-17.968 Y2.163
X-18.077 Y0.974
X-18.106 Y-0.219
X-18.056 Y-1.414
X-17.927 Y-2.603
X-17.72 Y-3.781
X-17.434 Y-4.945
X-17.072 Y-6.087
X-16.634 Y-7.203
X-16.123 Y-8.288
X-15.541 Y-9.337
X-14.891 Y-10.346
X-14.175 Y-11.31
X-13.396 Y-12.224
X-12.558 Y-13.085
X-11.665 Y-13.889
X-10.72 Y-14.632
X-9.728 Y-15.31
X-8.693 Y-15.922
X-7.619 Y-16.464
X-6.511 Y-16.933
X-5.375 Y-17.328
X-4.215 Y-17.646
X-3.036 Y-17.887
X-1.844 Y-18.05
X-0.644 Y-18.132
X0.56 Y-18.136
X1.761 Y-18.059
X2.956 Y-17.902
X4.142 Y-17.666
X5.318 Y-17.35
X6.483 Y-16.952
X7.632 Y-16.472
X8.761 Y-15.91
X9.863 Y-15.266
X10.933 Y-14.543
X11.963 Y-13.742
X12.946 Y-12.866
X13.876 Y-11.921
X14.745 Y-10.911
X15.546 Y-9.844
X16.276 Y-8.725
X16.928 Y-7.562
X17.501 Y-6.362
X17.991 Y-5.13
X18.397 Y-3.873
X18.718 Y-2.598
X18.952 Y-1.309
X19.099 Y-0.012
X19.16 Y1.287
X19.135 Y2.583
X19.024 Y3.871
X18.829 Y5.146
X18.549 Y6.404
X18.187 Y7.639
X17.745 Y8.848
X17.223 Y10.024
X16.623 Y11.164
X15.949 Y12.263
X15.202 Y13.316
X14.386 Y14.319
X13.503 Y15.268
X12.556 Y16.159
X11.55 Y16.987
X10.488 Y17.749
X9.374 Y18.441
X8.212 Y19.059
X7.008 Y19.602
X5.766 Y20.064
X4.491 Y20.445
X3.189 Y20.742
X1.865 Y20.952
X0.529 Y21.075
X-0.813 Y21.108
X-2.154 Y21.054
X-3.488 Y20.911
X-4.811 Y20.682
X-6.116 Y20.367
X-7.397 Y19.968
X-8.65 Y19.488
X-9.87 Y18.927
X-11.051 Y18.289
X-12.188 Y17.576
X-13.277 Y16.792
X-14.314 Y15.94
X-15.294 Y15.023
X-16.214 Y14.046
X-17.07 Y13.012
X-17.858 Y11.926
X-18.576 Y10.792
X-19.222 Y9.615
X-19.792 Y8.4
X-20.284 Y7.151
X-20.697 Y5.874
X-21.03 Y4.574
X-21.28 Y3.255
X-21.447 Y1.924
X-21.531 Y0.584
Y-0.758
X-21.448 Y-2.098
X-21.28 Y-3.429
X-21.03 Y-4.748
X-20.697 Y-6.048
X-20.283 Y-7.325
X-19.79 Y-8.573
X-19.219 Y-9.788
X-18.574 Y-10.965
X-17.857 Y-12.099
X-17.07 Y-13.187
X-16.218 Y-14.223
X-15.303 Y-15.205
X-14.328 Y-16.128
X-13.298 Y-16.989
X-12.217 Y-17.784
X-11.089 Y-18.511
X-9.917 Y-19.166
X-8.708 Y-19.747
X-7.464 Y-20.252
X-6.191 Y-20.678
X-4.894 Y-21.023
X-3.578 Y-21.287
X-2.248 Y-21.467
X-0.91 Y-21.565
X0.432 Y-21.579
X1.773 Y-21.51
X3.106 Y-21.358
X4.428 Y-21.125
X5.733 Y-20.811
X7.017 Y-20.419
X8.274 Y-19.951
X9.502 Y-19.408
X10.694 Y-18.791
X11.847 Y-18.104
X12.957 Y-17.35
X14.022 Y-16.533
X15.038 Y-15.656
X16.002 Y-14.723
X16.912 Y-13.736
X17.763 Y-12.698
X18.552 Y-11.612
X19.277 Y-10.483
X19.936 Y-9.314
X20.528 Y-8.109
X21.051 Y-6.873
X21.503 Y-5.609
X21.882 Y-4.322
X22.184 Y-3.014
X22.409 Y-1.691
X22.557 Y-0.357
X22.627 Y0.984
X22.62 Y2.326
X22.535 Y3.665
X22.373 Y4.998
X22.134 Y6.318
X21.817 Y7.622
X21.423 Y8.905
X20.954 Y10.163
X20.412 Y11.391
X19.8 Y12.585
X19.119 Y13.742
X18.373 Y14.857
X17.563 Y15.928
X16.692 Y16.949
X15.762 Y17.916
X14.776 Y18.828
X13.74 Y19.68
X12.656 Y20.471
X11.528 Y21.199
X10.361 Y21.862
X9.158 Y22.457
X7.922 Y22.981
X6.658 Y23.432
X5.37 Y23.81
X4.063 Y24.114
X2.741 Y24.345
X1.408 Y24.501
X0.068 Y24.582
X-1.274 Y24.587
X-2.614 Y24.514
X-3.948 Y24.367
X-5.272 Y24.146
X-6.582 Y23.852
X-7.873 Y23.487
X-9.143 Y23.051
X-10.385 Y22.544
X-11.598 Y21.968
X-12.776 Y21.326
X-13.918 Y20.621
X-15.02 Y19.854
X-16.078 Y19.029
X-17.09 Y18.147
X-18.052 Y17.211
X-18.959 Y16.222
X-19.812 Y15.185
X-20.607 Y14.104
X-21.342 Y12.981
X-22.017 Y11.821
X-22.629 Y10.626
X-23.173 Y9.4
X-23.65 Y8.145
X-24.058 Y6.867
X-24.397 Y5.568
X-24.666 Y4.253
X-24.865 Y2.926
X-24.993 Y1.589
X-25.048 Y0.248
X-25.029 Y-1.094
X-24.938 Y-2.433
X-24.775 Y-3.765
X-24.541 Y-5.086
X-24.237 Y-6.394
X-23.864 Y-7.683
X-23.421 Y-8.95
X-22.91 Y-10.191
X-22.332 Y-11.402
X-21.69 Y-12.581
X-20.986 Y-13.724
X-20.223 Y-14.828
X-19.403 Y-15.891
X-18.527 Y-16.907
X-17.597 Y-17.874
X-16.615 Y-18.79
X-15.587 Y-19.652
X-14.514 Y-20.459
X-13.4 Y-21.207
X-12.248 Y-21.896
X-11.061 Y-22.522
X-9.841 Y-23.082
X-8.592 Y-23.575
X-7.319 Y-24
X-6.026 Y-24.357
X-4.715 Y-24.645
X-3.39 Y-24.863
X-2.056 Y-25.01
X-0.716 Y-25.084
X0.626 Y-25.085
X1.966 Y-25.015
X3.301 Y-24.875
X4.627 Y-24.664
X5.94 Y-24.386
X7.236 Y-24.04
X8.513 Y-23.625
X9.765 Y-23.143
X10.991 Y-22.596
X12.187 Y-21.986
X13.35 Y-21.317
X14.478 Y-20.59
X15.569 Y-19.807
X16.618 Y-18.971
X17.623 Y-18.081
X18.582 Y-17.142
X19.492 Y-16.155
X20.351 Y-15.124
X21.159 Y-14.052
X21.912 Y-12.942
X22.611 Y-11.795
X23.25 Y-10.616
X23.679 Y-9.721
X23.71 Y-9.654
X23.739 Y-9.586
X23.767 Y-9.518
X24.097 Y-8.69
X24.245 Y-8.309
X24.47 Y-7.548
X24.581 Y-7.167
X24.809 Y-6.346
X24.89 Y-6.025
X25.072 Y-5.264
X25.144 Y-4.883
X25.393 Y-3.36
X25.453 Y-2.98
X25.513 Y-2.218
X25.54 Y-1.838
X25.582 Y-1.076
X25.598 Y-0.696
X25.625 Y0.066
X25.616 Y0.446
X25.533 Y1.969
X25.51 Y2.35
X25.421 Y3.111
X25.372 Y3.492
X25.059 Y5.395
X24.967 Y5.776
X24.544 Y7.299
X24.437 Y7.679
X24.18 Y8.441
X24.045 Y8.821
X23.59 Y9.963
X23.435 Y10.344
X23.277 Y10.725
X23.09 Y11.105
X22.142 Y12.894
X22.078 Y13.009
X21.587 Y13.77
X21.38 Y14.088
X20.822 Y14.912
X20.618 Y15.205
X20.278 Y15.673
X18.985 Y17.196
X18.713 Y17.485
X18.261 Y17.957
X17.952 Y18.261
X16.809 Y19.343
X16.644 Y19.48
X16.047 Y19.96
X15.666 Y20.251
X15.178 Y20.622
X14.904 Y20.826
X14.094 Y21.384
X13.761 Y21.6
X12.222 Y22.526
X11.856 Y22.718
X11.463 Y22.906
X9.817 Y23.668
X9.571 Y23.777
X8.798 Y24.048
X8.428 Y24.177
X6.904 Y24.69
X6.523 Y24.779
X4.618 Y25.199
X4.237 Y25.279
X3.475 Y25.372
X3.094 Y25.417
X2.332 Y25.5
X1.951 Y25.535
X1.19 Y25.592
X0.809 Y25.602
X-0.715
X-1.096 Y25.601
X-1.858 Y25.542
X-2.239 Y25.51
X-3.001 Y25.427
X-3.382 Y25.383
X-4.144 Y25.289
X-4.525 Y25.219
X-6.811 Y24.716
X-7.191 Y24.593
X-8.334 Y24.208
X-8.715 Y24.077
X-9.477 Y23.807
X-9.817 Y23.668
X-11.463 Y22.906
X-11.763 Y22.767
X-12.144 Y22.571
X-12.222 Y22.526
X-13.668 Y21.656
X-14.049 Y21.415
X-14.811 Y20.889
X-15.192 Y20.612
X-15.953 Y20.033
X-16.172 Y19.861
X-16.715 Y19.423
X-17.066 Y19.1
X-17.87 Y18.338
X-18.239 Y17.983
X-18.627 Y17.577
X-18.985 Y17.196
X-20.279 Y15.673
X-20.525 Y15.338
X-20.822 Y14.912
X-21.338 Y14.151
X-21.587 Y13.77
X-22.078 Y13.009
X-22.283 Y12.628
X-23.192 Y10.914
X-23.277 Y10.725
X-23.573 Y10.007
X-24.045 Y8.821
X-24.18 Y8.441
X-24.437 Y7.679
X-24.544 Y7.299
X-24.967 Y5.776
X-25.059 Y5.395
X-25.372 Y3.492
X-25.421 Y3.111
X-25.51 Y2.35
X-25.533 Y1.969
X-25.616 Y0.446
X-25.625 Y0.066
X-25.598 Y-0.696
X-25.582 Y-1.076
X-25.54 Y-1.838
X-25.513 Y-2.218
X-25.453 Y-2.98
X-25.393 Y-3.36
X-25.144 Y-4.883
X-25.096 Y-5.16
X-24.89 Y-6.025
X-24.792 Y-6.406
X-24.581 Y-7.167
X-24.47 Y-7.548
X-24.245 Y-8.309
X-24.097 Y-8.69
X-23.491 Y-10.213
X-23.327 Y-10.593
X-22.951 Y-11.355
X-22.811 Y-11.633
X-22.353 Y-12.497
X-22.134 Y-12.877
X-21.668 Y-13.662
X-21.287 Y-14.226
X-20.906 Y-14.786
X-20.38 Y-15.542
X-20.144 Y-15.832
X-19.001 Y-17.177
X-18.767 Y-17.445
X-18.399 Y-17.826
X-18.239 Y-17.988
X-17.096 Y-19.071
X-16.715 Y-19.43
X-16.352 Y-19.729
X-14.811 Y-20.901
X-14.43 Y-21.18
X-14.049 Y-21.422
X-13.668 Y-21.656
X-12.906 Y-22.114
X-12.525 Y-22.335
X-12.144 Y-22.552
X-11.763 Y-22.767
X-10.101 Y-23.536
X-9.858 Y-23.649
X-9.477 Y-23.807
X-8.715 Y-24.077
X-8.334 Y-24.208
X-7.572 Y-24.465
X-7.191 Y-24.579
X-6.43 Y-24.799
X-5.668 Y-24.968
X-4.525 Y-25.219
X-4.144 Y-25.289
X-3.382 Y-25.384
X-2.885 Y-25.44
X-2.239 Y-25.51
X-1.858 Y-25.542
X-1.096 Y-25.601
X-0.715 Y-25.602
X0.809
X1.19 Y-25.592
X1.951 Y-25.535
X2.332 Y-25.5
X3.094 Y-25.417
X3.475 Y-25.373
X4.237 Y-25.279
X4.618 Y-25.199
X6.142 Y-24.863
X6.523 Y-24.771
X7.285 Y-24.552
X7.666 Y-24.434
X8.428 Y-24.177
X8.809 Y-24.045
X9.571 Y-23.777
X9.952 Y-23.605
X11.475 Y-22.901
X11.745 Y-22.775
X11.856 Y-22.713
X12.618 Y-22.282
X12.999 Y-22.058
X13.761 Y-21.6
X14.142 Y-21.362
X14.316 Y-21.252
X14.523 Y-21.119
X15.851 Y-20.11
X16.428 Y-19.672
X16.809 Y-19.339
X17.205 Y-18.968
X18.008 Y-18.207
X18.333 Y-17.895
X18.769 Y-17.445
X19.097 Y-17.065
X20.237 Y-15.722
X20.375 Y-15.542
X20.909 Y-14.781
X20.999 Y-14.65
X21.427 Y-14.019
X21.682 Y-13.639
X22.142 Y-12.863
X22.353 Y-12.497
X22.756 Y-11.735
X22.904 Y-11.45
X23.327 Y-10.593
X23.491 Y-10.213
X23.767 Y-9.518
X23.786 Y-9.434 Z33.018
X23.804 Y-9.353 Z33.04
X23.821 Y-9.277 Z33.076
X23.836 Y-9.208 Z33.125
X23.838 Y-9.163 Z33.168
X23.84 Y-9.123 Z33.216
X23.842 Y-9.089 Z33.269
X23.841 Y-9.056 Z33.345
Y-9.035 Z33.426
X23.84 Y-9.028 Z33.509
G0 Z50
X5.705 Y1.961
Z36.78
G1 Z35.51 F850
G3 X-5.705 Y-1.961 Z34.848 I-5.705 J-1.961 F283.3
X5.705 Y1.961 Z34.186 I5.705 J1.961
X-5.705 Y-1.961 Z33.525 I-5.705 J-1.961
X5.705 Y1.961 Z32.863 I5.705 J1.961
X-5.705 Y-1.961 Z32.201 I-5.705 J-1.961
X5.705 Y1.961 Z31.539 I5.705 J1.961
X-5.705 Y-1.961 Z30.877 I-5.705 J-1.961
X5.705 Y1.961 Z30.216 I5.705 J1.961
X-5.705 Y-1.961 Z29.554 I-5.705 J-1.961
X5.705 Y1.961 Z28.892 I5.705 J1.961
X-5.705 Y-1.961 Z28.23 I-5.705 J-1.961
X5.705 Y1.961 Z27.568 I5.705 J1.961
X-5.705 Y-1.961 Z26.907 I-5.705 J-1.961
X5.705 Y1.961 Z26.245 I5.705 J1.961
X-5.705 Y-1.961 Z25.583 I-5.705 J-1.961
X5.705 Y1.961 Z24.921 I5.705 J1.961
X-5.705 Y-1.961 Z24.259 I-5.705 J-1.961
X5.705 Y1.961 Z23.597 I5.705 J1.961
X-5.705 Y-1.961 Z22.936 I-5.705 J-1.961
X5.705 Y1.961 Z22.274 I5.705 J1.961
X-5.705 Y-1.961 Z21.612 I-5.705 J-1.961
X6.033 Y0 Z21.02 I5.705 J1.961
X-6.032 I-6.033
X6.033 I6.033
G1 X6.036 Y0.336 F850
X6.174 Y1.671
X6.211 Y1.746
X6.27 Y1.884
X6.321 Y2.032
X6.367 Y2.199
X6.404 Y2.385
X6.432 Y2.589
X6.447 Y2.811
Y3.051
X6.43 Y3.307
X6.395 Y3.577
X6.338 Y3.861
X6.258 Y4.156
X6.153 Y4.461
X6.023 Y4.773
X5.865 Y5.089
X5.678 Y5.407
X5.463 Y5.724
X5.219 Y6.037
X4.945 Y6.344
X4.642 Y6.641
X4.311 Y6.925
X3.953 Y7.194
X3.568 Y7.444
X3.158 Y7.673
X2.725 Y7.879
X2.272 Y8.059
X1.799 Y8.211
X1.31 Y8.333
X0.807 Y8.423
X0.292 Y8.481
X-0.231 Y8.505
X-0.76 Y8.494
X-1.292 Y8.447
X-1.824 Y8.365
X-2.353 Y8.247
X-2.877 Y8.093
X-3.392 Y7.903
X-3.897 Y7.678
X-4.388 Y7.419
X-4.862 Y7.127
X-5.318 Y6.803
X-5.753 Y6.448
X-6.165 Y6.064
X-6.551 Y5.652
X-6.91 Y5.214
X-7.24 Y4.753
X-7.539 Y4.27
X-7.806 Y3.767
X-8.04 Y3.247
X-8.238 Y2.712
X-8.401 Y2.164
X-8.528 Y1.606
X-8.617 Y1.041
X-8.668 Y0.47
X-8.682 Y-0.104
X-8.657 Y-0.677
X-8.594 Y-1.248
X-8.494 Y-1.813
X-8.356 Y-2.372
X-8.182 Y-2.919
X-7.971 Y-3.455
X-7.726 Y-3.975
X-7.446 Y-4.478
X-7.133 Y-4.962
X-6.789 Y-5.423
X-6.416 Y-5.862
X-6.013 Y-6.274
X-5.585 Y-6.659
X-5.131 Y-7.014
X-4.655 Y-7.339
X-4.159 Y-7.632
X-3.644 Y-7.891
X-3.113 Y-8.115
X-2.568 Y-8.304
X-2.012 Y-8.456
X-1.447 Y-8.571
X-0.875 Y-8.648
X-0.3 Y-8.687
X0.277 Y-8.688
X0.852 Y-8.651
X1.424 Y-8.575
X1.989 Y-8.462
X2.546 Y-8.311
X3.092 Y-8.124
X3.624 Y-7.901
X4.14 Y-7.644
X4.637 Y-7.352
X5.115 Y-7.029
X5.57 Y-6.674
X6 Y-6.29
X6.404 Y-5.878
X6.78 Y-5.441
X7.126 Y-4.979
X7.44 Y-4.496
X7.837 Y-3.787
X8.395 Y-2.614
X8.752 Y-1.715
X9.004 Y-0.93
X9.187 Y-0.199
X9.311 Y0.489
X9.385 Y1.146
X9.414 Y1.785
X9.402 Y2.411
X9.348 Y3.024
X9.255 Y3.625
X9.124 Y4.215
X8.954 Y4.793
X8.746 Y5.358
X8.5 Y5.91
X8.217 Y6.448
X7.896 Y6.969
X7.539 Y7.472
X7.145 Y7.954
X6.716 Y8.415
X6.252 Y8.85
X5.755 Y9.258
X5.227 Y9.636
X4.668 Y9.982
X4.081 Y10.294
X3.47 Y10.569
X2.835 Y10.804
X2.181 Y10.999
X1.509 Y11.151
X0.823 Y11.26
X0.125 Y11.323
X-0.58 Y11.339
X-1.29 Y11.309
X-2.002 Y11.231
X-2.711 Y11.106
X-3.415 Y10.932
X-4.11 Y10.711
X-4.793 Y10.443
X-5.46 Y10.128
X-6.107 Y9.769
X-6.732 Y9.365
X-7.331 Y8.919
X-7.901 Y8.433
X-8.439 Y7.909
X-8.942 Y7.348
X-9.409 Y6.754
X-9.836 Y6.128
X-10.221 Y5.475
X-10.563 Y4.796
X-10.859 Y4.094
X-11.109 Y3.374
X-11.311 Y2.637
X-11.463 Y1.888
X-11.566 Y1.129
X-11.618 Y0.365
X-11.619 Y-0.402
X-11.57 Y-1.168
X-11.47 Y-1.93
X-11.319 Y-2.683
X-11.118 Y-3.426
X-10.869 Y-4.154
X-10.572 Y-4.864
X-10.228 Y-5.553
X-9.839 Y-6.218
X-9.406 Y-6.856
X-8.933 Y-7.465
X-8.419 Y-8.04
X-7.869 Y-8.581
X-7.284 Y-9.083
X-6.666 Y-9.546
X-6.019 Y-9.967
X-5.346 Y-10.345
X-4.649 Y-10.677
X-3.931 Y-10.961
X-3.196 Y-11.198
X-2.447 Y-11.386
X-1.687 Y-11.523
X-0.919 Y-11.61
X-0.148 Y-11.645
X0.625 Y-11.63
X1.394 Y-11.563
X2.158 Y-11.445
X2.912 Y-11.277
X3.653 Y-11.059
X4.379 Y-10.793
X5.085 Y-10.479
X5.768 Y-10.118
X6.427 Y-9.714
X7.057 Y-9.266
X7.684 Y-8.755
X8.313 Y-8.169
X8.946 Y-7.494
X9.562 Y-6.745
X10.133 Y-5.947
X10.649 Y-5.115
X11.102 Y-4.262
X11.491 Y-3.397
X11.816 Y-2.525
X12.076 Y-1.65
X12.274 Y-0.777
X12.411 Y0.09
X12.489 Y0.951
X12.51 Y1.804
X12.474 Y2.649
X12.383 Y3.483
X12.238 Y4.304
X12.039 Y5.112
X11.788 Y5.903
X11.484 Y6.675
X11.13 Y7.427
X10.726 Y8.155
X10.273 Y8.857
X9.772 Y9.53
X9.225 Y10.171
X8.634 Y10.778
X8.001 Y11.347
X7.328 Y11.876
X6.616 Y12.361
X5.87 Y12.802
X5.092 Y13.194
X4.284 Y13.536
X3.45 Y13.825
X2.593 Y14.06
X1.718 Y14.238
X0.827 Y14.359
X-0.076 Y14.421
X-0.986 Y14.423
X-1.9 Y14.364
X-2.813 Y14.244
X-3.72 Y14.063
X-4.618 Y13.821
X-5.502 Y13.518
X-6.368 Y13.156
X-7.211 Y12.736
X-8.027 Y12.258
X-8.813 Y11.726
X-9.564 Y11.142
X-10.277 Y10.506
X-10.947 Y9.823
X-11.573 Y9.096
X-12.15 Y8.326
X-12.676 Y7.519
X-13.148 Y6.677
X-13.564 Y5.803
X-13.922 Y4.903
X-14.22 Y3.98
X-14.456 Y3.037
X-14.629 Y2.08
X-14.739 Y1.113
X-14.784 Y0.139
X-14.764 Y-0.836
X-14.68 Y-1.809
X-14.531 Y-2.774
X-14.319 Y-3.728
X-14.044 Y-4.667
X-13.706 Y-5.586
X-13.309 Y-6.48
X-12.852 Y-7.347
X-12.339 Y-8.182
X-11.772 Y-8.981
X-11.153 Y-9.742
X-10.484 Y-10.459
X-9.769 Y-11.131
X-9.011 Y-11.754
X-8.213 Y-12.326
X-7.379 Y-12.844
X-6.512 Y-13.305
X-5.616 Y-13.708
X-4.696 Y-14.05
X-3.754 Y-14.331
X-2.796 Y-14.548
X-1.826 Y-14.702
X-0.848 Y-14.791
X0.135 Y-14.815
X1.117 Y-14.774
X2.094 Y-14.667
X3.062 Y-14.497
X4.016 Y-14.262
X4.953 Y-13.964
X5.874 Y-13.603
X6.782 Y-13.175
X7.681 Y-12.676
X8.568 Y-12.104
X9.432 Y-11.462
X10.265 Y-10.752
X11.059 Y-9.979
X11.81 Y-9.144
X12.508 Y-8.255
X13.148 Y-7.319
X13.724 Y-6.343
X14.232 Y-5.336
X14.668 Y-4.305
X15.033 Y-3.255
X15.324 Y-2.193
X15.543 Y-1.122
X15.689 Y-0.048
X15.763 Y1.026
X15.765 Y2.097
X15.697 Y3.16
X15.559 Y4.213
X15.352 Y5.252
X15.077 Y6.273
X14.735 Y7.272
X14.327 Y8.247
X13.856 Y9.194
X13.322 Y10.108
X12.727 Y10.987
X12.074 Y11.826
X11.364 Y12.622
X10.601 Y13.373
X9.787 Y14.073
X8.925 Y14.72
X8.018 Y15.311
X7.07 Y15.843
X6.084 Y16.313
X5.065 Y16.718
X4.016 Y17.056
X2.942 Y17.326
X1.848 Y17.524
X0.737 Y17.65
X-0.384 Y17.703
X-1.512 Y17.68
X-2.641 Y17.583
X-3.765 Y17.41
X-4.881 Y17.162
X-5.982 Y16.839
X-7.063 Y16.443
X-8.119 Y15.974
X-9.146 Y15.434
X-10.137 Y14.825
X-11.089 Y14.15
X-11.996 Y13.411
X-12.854 Y12.612
X-13.66 Y11.755
X-14.408 Y10.846
X-15.096 Y9.886
X-15.719 Y8.882
X-16.276 Y7.836
X-16.763 Y6.754
X-17.177 Y5.641
X-17.517 Y4.501
X-17.782 Y3.34
X-17.968 Y2.163
X-18.077 Y0.974
X-18.106 Y-0.219
X-18.056 Y-1.414
X-17.927 Y-2.603
X-17.72 Y-3.781
X-17.434 Y-4.945
X-17.072 Y-6.087
X-16.634 Y-7.203
X-16.123 Y-8.288
X-15.541 Y-9.337
X-14.891 Y-10.346
X-14.175 Y-11.31
X-13.396 Y-12.224
X-12.558 Y-13.085
X-11.665 Y-13.889
X-10.72 Y-14.632
X-9.728 Y-15.31
X-8.693 Y-15.922
X-7.619 Y-16.464
X-6.511 Y-16.933
X-5.375 Y-17.328
X-4.215 Y-17.646
X-3.036 Y-17.887
X-1.844 Y-18.05
X-0.644 Y-18.132
X0.56 Y-18.136
X1.761 Y-18.059
X2.956 Y-17.902
X4.142 Y-17.666
X5.318 Y-17.35
X6.483 Y-16.952
X7.632 Y-16.472
X8.761 Y-15.91
X9.863 Y-15.266
X10.933 Y-14.543
X11.963 Y-13.742
X12.946 Y-12.866
X13.876 Y-11.921
X14.745 Y-10.911
X15.546 Y-9.844
X16.276 Y-8.725
X16.928 Y-7.562
X17.501 Y-6.362
X17.991 Y-5.13
X18.397 Y-3.873
X18.718 Y-2.598
X18.952 Y-1.309
X19.099 Y-0.012
X19.16 Y1.287
X19.135 Y2.583
X19.024 Y3.871
X18.829 Y5.146
X18.549 Y6.404
X18.187 Y7.639
X17.745 Y8.848
X17.223 Y10.024
X16.623 Y11.164
X15.949 Y12.263
X15.202 Y13.316
X14.386 Y14.319
X13.503 Y15.268
X12.556 Y16.159
X11.55 Y16.987
X10.488 Y17.749
X9.374 Y18.441
X8.212 Y19.059
X7.008 Y19.602
X5.766 Y20.064
X4.491 Y20.445
X3.189 Y20.742
X1.865 Y20.952
X0.529 Y21.075
X-0.813 Y21.108
X-2.154 Y21.054
X-3.488 Y20.911
X-4.811 Y20.682
X-6.116 Y20.367
X-7.397 Y19.968
X-8.65 Y19.488
X-9.87 Y18.927
X-11.051 Y18.289
X-12.188 Y17.576
X-13.277 Y16.792
X-14.314 Y15.94
X-15.294 Y15.023
X-16.214 Y14.046
X-17.07 Y13.012
X-17.858 Y11.926
X-18.576 Y10.792
X-19.222 Y9.615
X-19.792 Y8.4
X-20.284 Y7.151
X-20.697 Y5.874
X-21.03 Y4.574
X-21.28 Y3.255
X-21.447 Y1.924
X-21.531 Y0.584
Y-0.758
X-21.448 Y-2.098
X-21.28 Y-3.429
X-21.03 Y-4.748
X-20.697 Y-6.048
X-20.283 Y-7.325
X-19.79 Y-8.573
X-19.219 Y-9.788
X-18.574 Y-10.965
X-17.857 Y-12.099
X-17.07 Y-13.187
X-16.218 Y-14.223
X-15.303 Y-15.205
X-14.328 Y-16.128
X-13.298 Y-16.989
X-12.217 Y-17.784
X-11.089 Y-18.511
X-9.917 Y-19.166
X-8.708 Y-19.747
X-7.464 Y-20.252
X-6.191 Y-20.678
X-4.894 Y-21.023
X-3.578 Y-21.287
X-2.248 Y-21.467
X-0.91 Y-21.565
X0.432 Y-21.579
X1.773 Y-21.51
X3.106 Y-21.358
X4.428 Y-21.125
X5.733 Y-20.811
X7.017 Y-20.419
X8.274 Y-19.951
X9.502 Y-19.408
X10.694 Y-18.791
X11.847 Y-18.104
X12.957 Y-17.35
X14.022 Y-16.533
X15.038 Y-15.656
X16.002 Y-14.723
X16.912 Y-13.736
X17.763 Y-12.698
X18.552 Y-11.612
X19.277 Y-10.483
X19.936 Y-9.314
X20.528 Y-8.109
X21.051 Y-6.873
X21.503 Y-5.609
X21.882 Y-4.322
X22.184 Y-3.014
X22.409 Y-1.691
X22.557 Y-0.357
X22.627 Y0.984
X22.62 Y2.326
X22.535 Y3.665
X22.373 Y4.998
X22.134 Y6.318
X21.817 Y7.622
X21.423 Y8.905
X20.954 Y10.163
X20.412 Y11.391
X19.8 Y12.585
X19.119 Y13.742
X18.373 Y14.857
X17.563 Y15.928
X16.692 Y16.949
X15.762 Y17.916
X14.776 Y18.828
X13.74 Y19.68
X12.656 Y20.471
X11.528 Y21.199
X10.361 Y21.862
X9.158 Y22.457
X7.922 Y22.981
X6.658 Y23.432
X5.37 Y23.81
X4.063 Y24.114
X2.741 Y24.345
X1.408 Y24.501
X0.068 Y24.582
X-1.274 Y24.587
X-2.614 Y24.514
X-3.948 Y24.367
X-5.272 Y24.146
X-6.582 Y23.852
X-7.873 Y23.487
X-9.143 Y23.051
X-10.385 Y22.544
X-11.598 Y21.968
X-12.776 Y21.326
X-13.918 Y20.621
X-15.02 Y19.854
X-16.078 Y19.029
X-17.09 Y18.147
X-18.052 Y17.211
X-18.959 Y16.222
X-19.812 Y15.185
X-20.607 Y14.104
X-21.342 Y12.981
X-22.017 Y11.821
X-22.629 Y10.626
X-23.173 Y9.4
X-23.65 Y8.145
X-24.058 Y6.867
X-24.397 Y5.568
X-24.666 Y4.253
X-24.865 Y2.926
X-24.993 Y1.589
X-25.048 Y0.248
X-25.029 Y-1.094
X-24.938 Y-2.433
X-24.775 Y-3.765
X-24.541 Y-5.086
X-24.237 Y-6.394
X-23.864 Y-7.683
X-23.421 Y-8.95
X-22.91 Y-10.191
X-22.332 Y-11.402
X-21.69 Y-12.581
X-20.986 Y-13.724
X-20.223 Y-14.828
X-19.403 Y-15.891
X-18.527 Y-16.907
X-17.597 Y-17.874
X-16.615 Y-18.79
X-15.587 Y-19.652
X-14.514 Y-20.459
X-13.4 Y-21.207
X-12.248 Y-21.896
X-11.061 Y-22.522
X-9.841 Y-23.082
X-8.592 Y-23.575
X-7.319 Y-24
X-6.026 Y-24.357
X-4.715 Y-24.645
X-3.39 Y-24.863
X-2.056 Y-25.01
X-0.716 Y-25.084
X0.626 Y-25.085
X1.966 Y-25.015
X3.301 Y-24.875
X4.627 Y-24.664
X5.94 Y-24.386
X7.236 Y-24.04
X8.513 Y-23.625
X9.765 Y-23.143
X10.991 Y-22.596
X12.187 Y-21.986
X13.35 Y-21.317
X14.478 Y-20.59
X15.569 Y-19.807
X16.618 Y-18.971
X17.623 Y-18.081
X18.582 Y-17.142
X19.492 Y-16.155
X20.351 Y-15.124
X21.159 Y-14.052
X21.912 Y-12.942
X22.611 Y-11.795
X23.25 Y-10.616
X23.679 Y-9.721
X23.71 Y-9.654
X23.739 Y-9.586
X23.767 Y-9.518
X24.097 Y-8.69
X24.245 Y-8.309
X24.47 Y-7.548
X24.581 Y-7.167
X24.809 Y-6.346
X24.89 Y-6.025
X25.072 Y-5.264
X25.144 Y-4.883
X25.393 Y-3.36
X25.453 Y-2.98
X25.513 Y-2.218
X25.54 Y-1.838
X25.582 Y-1.076
X25.598 Y-0.696
X25.625 Y0.066
X25.616 Y0.446
X25.533 Y1.969
X25.51 Y2.35
X25.421 Y3.111
X25.372 Y3.492
X25.059 Y5.395
X24.967 Y5.776
X24.544 Y7.299
X24.437 Y7.679
X24.18 Y8.441
X24.045 Y8.821
X23.59 Y9.963
X23.435 Y10.344
X23.277 Y10.725
X23.09 Y11.105
X22.142 Y12.894
X22.078 Y13.009
X21.587 Y13.77
X21.38 Y14.088
X20.822 Y14.912
X20.618 Y15.205
X20.278 Y15.673
X18.985 Y17.196
X18.713 Y17.485
X18.261 Y17.957
X17.952 Y18.261
X16.809 Y19.343
X16.644 Y19.48
X16.047 Y19.96
X15.666 Y20.251
X15.178 Y20.622
X14.904 Y20.826
X14.094 Y21.384
X13.761 Y21.6
X12.222 Y22.526
X11.856 Y22.718
X11.463 Y22.906
X9.817 Y23.668
X9.571 Y23.777
X8.798 Y24.048
X8.428 Y24.177
X6.904 Y24.69
X6.523 Y24.779
X4.618 Y25.199
X4.237 Y25.279
X3.475 Y25.372
X3.094 Y25.417
X2.332 Y25.5
X1.951 Y25.535
X1.19 Y25.592
X0.809 Y25.602
X-0.715
X-1.096 Y25.601
X-1.858 Y25.542
X-2.239 Y25.51
X-3.001 Y25.427
X-3.382 Y25.383
X-4.144 Y25.289
X-4.525 Y25.219
X-6.811 Y24.716
X-7.191 Y24.593
X-8.334 Y24.208
X-8.715 Y24.077
X-9.477 Y23.807
X-9.817 Y23.668
X-11.463 Y22.906
X-11.763 Y22.767
X-12.144 Y22.571
X-12.222 Y22.526
X-13.668 Y21.656
X-14.049 Y21.415
X-14.811 Y20.889
X-15.192 Y20.612
X-15.953 Y20.033
X-16.172 Y19.861
X-16.715 Y19.423
X-17.066 Y19.1
X-17.87 Y18.338
X-18.239 Y17.983
X-18.627 Y17.577
X-18.985 Y17.196
X-20.279 Y15.673
X-20.525 Y15.338
X-20.822 Y14.912
X-21.338 Y14.151
X-21.587 Y13.77
X-22.078 Y13.009
X-22.283 Y12.628
X-23.192 Y10.914
X-23.277 Y10.725
X-23.573 Y10.007
X-24.045 Y8.821
X-24.18 Y8.441
X-24.437 Y7.679
X-24.544 Y7.299
X-24.967 Y5.776
X-25.059 Y5.395
X-25.372 Y3.492
X-25.421 Y3.111
X-25.51 Y2.35
X-25.533 Y1.969
X-25.616 Y0.446
X-25.625 Y0.066
X-25.598 Y-0.696
X-25.582 Y-1.076
X-25.54 Y-1.838
X-25.513 Y-2.218
X-25.453 Y-2.98
X-25.393 Y-3.36
X-25.144 Y-4.883
X-25.096 Y-5.16
X-24.89 Y-6.025
X-24.792 Y-6.406
X-24.581 Y-7.167
X-24.47 Y-7.548
X-24.245 Y-8.309
X-24.097 Y-8.69
X-23.491 Y-10.213
X-23.327 Y-10.593
X-22.951 Y-11.355
X-22.811 Y-11.633
X-22.353 Y-12.497
X-22.134 Y-12.877
X-21.668 Y-13.662
X-21.287 Y-14.226
X-20.906 Y-14.786
X-20.38 Y-15.542
X-20.144 Y-15.832
X-19.001 Y-17.177
X-18.767 Y-17.445
X-18.399 Y-17.826
X-18.239 Y-17.988
X-17.096 Y-19.071
X-16.715 Y-19.43
X-16.352 Y-19.729
X-14.811 Y-20.901
X-14.43 Y-21.18
X-14.049 Y-21.422
X-13.668 Y-21.656
X-12.906 Y-22.114
X-12.525 Y-22.335
X-12.144 Y-22.552
X-11.763 Y-22.767
X-10.101 Y-23.536
X-9.858 Y-23.649
X-9.477 Y-23.807
X-8.715 Y-24.077
X-8.334 Y-24.208
X-7.572 Y-24.465
X-7.191 Y-24.579
X-6.43 Y-24.799
X-5.668 Y-24.968
X-4.525 Y-25.219
X-4.144 Y-25.289
X-3.382 Y-25.384
X-2.885 Y-25.44
X-2.239 Y-25.51
X-1.858 Y-25.542
X-1.096 Y-25.601
X-0.715 Y-25.602
X0.809
X1.19 Y-25.592
X1.951 Y-25.535
X2.332 Y-25.5
X3.094 Y-25.417
X3.475 Y-25.373
X4.237 Y-25.279
X4.618 Y-25.199
X6.142 Y-24.863
X6.523 Y-24.771
X7.285 Y-24.552
X7.666 Y-24.434
X8.428 Y-24.177
X8.809 Y-24.045
X9.571 Y-23.777
X9.952 Y-23.605
X11.475 Y-22.901
X11.745 Y-22.775
X11.856 Y-22.713
X12.618 Y-22.282
X12.999 Y-22.058
X13.761 Y-21.6
X14.142 Y-21.362
X14.316 Y-21.252
X14.523 Y-21.119
X15.851 Y-20.11
X16.428 Y-19.672
X16.809 Y-19.339
X17.205 Y-18.968
X18.008 Y-18.207
X18.333 Y-17.895
X18.769 Y-17.445
X19.097 Y-17.065
X20.237 Y-15.722
X20.375 Y-15.542
X20.909 Y-14.781
X20.999 Y-14.65
X21.427 Y-14.019
X21.682 Y-13.639
X22.142 Y-12.863
X22.353 Y-12.497
X22.756 Y-11.735
X22.904 Y-11.45
X23.327 Y-10.593
X23.491 Y-10.213
X23.767 Y-9.518
X23.786 Y-9.434 Z21.028
X23.804 Y-9.353 Z21.05
X23.821 Y-9.277 Z21.086
X23.836 Y-9.208 Z21.135
X23.838 Y-9.163 Z21.178
X23.84 Y-9.123 Z21.226
X23.842 Y-9.089 Z21.279
X23.841 Y-9.056 Z21.355
Y-9.035 Z21.436
X23.84 Y-9.028 Z21.519
G0 Z50
X5.705 Y1.961
Z24.79
G1 Z23.52 F850
G3 X-5.705 Y-1.961 Z22.858 I-5.705 J-1.961 F283.3
X5.705 Y1.961 Z22.196 I5.705 J1.961
X-5.705 Y-1.961 Z21.535 I-5.705 J-1.961
X5.705 Y1.961 Z20.873 I5.705 J1.961
X-5.705 Y-1.961 Z20.211 I-5.705 J-1.961
X5.705 Y1.961 Z19.549 I5.705 J1.961
X-5.705 Y-1.961 Z18.887 I-5.705 J-1.961
X5.705 Y1.961 Z18.226 I5.705 J1.961
X-5.705 Y-1.961 Z17.564 I-5.705 J-1.961
X5.705 Y1.961 Z16.902 I5.705 J1.961
X-5.705 Y-1.961 Z16.24 I-5.705 J-1.961
X5.705 Y1.961 Z15.578 I5.705 J1.961
X-5.705 Y-1.961 Z14.917 I-5.705 J-1.961
X5.705 Y1.961 Z14.255 I5.705 J1.961
X-5.705 Y-1.961 Z13.593 I-5.705 J-1.961
X5.705 Y1.961 Z12.931 I5.705 J1.961
X-5.705 Y-1.961 Z12.269 I-5.705 J-1.961
X5.705 Y1.961 Z11.607 I5.705 J1.961
X-5.705 Y-1.961 Z10.946 I-5.705 J-1.961
X5.705 Y1.961 Z10.284 I5.705 J1.961
X-5.705 Y-1.961 Z9.622 I-5.705 J-1.961
X6.033 Y0 Z9.03 I5.705 J1.961
X-6.032 I-6.033
X6.033 I6.033
G1 X6.036 Y0.336 F850
X6.174 Y1.671
X6.211 Y1.746
X6.27 Y1.884
X6.321 Y2.032
X6.367 Y2.199
X6.404 Y2.385
X6.432 Y2.589
X6.447 Y2.811
Y3.051
X6.43 Y3.307
X6.395 Y3.577
X6.338 Y3.861
X6.258 Y4.156
X6.153 Y4.461
X6.023 Y4.773
X5.865 Y5.089
X5.678 Y5.407
X5.463 Y5.724
X5.219 Y6.037
X4.945 Y6.344
X4.642 Y6.641
X4.311 Y6.925
X3.953 Y7.194
X3.568 Y7.444
X3.158 Y7.673
X2.725 Y7.879
X2.272 Y8.059
X1.799 Y8.211
X1.31 Y8.333
X0.807 Y8.423
X0.292 Y8.481
X-0.231 Y8.505
X-0.76 Y8.494
X-1.292 Y8.447
X-1.824 Y8.365
X-2.353 Y8.247
X-2.877 Y8.093
X-3.392 Y7.903
X-3.897 Y7.678
X-4.388 Y7.419
X-4.862 Y7.127
X-5.318 Y6.803
X-5.753 Y6.448
X-6.165 Y6.064
X-6.551 Y5.652
X-6.91 Y5.214
X-7.24 Y4.753
X-7.539 Y4.27
X-7.806 Y3.767
X-8.04 Y3.247
X-8.238 Y2.712
X-8.401 Y2.164
X-8.528 Y1.606
X-8.617 Y1.041
X-8.668 Y0.47
X-8.682 Y-0.104
X-8.657 Y-0.677
X-8.594 Y-1.248
X-8.494 Y-1.813
X-8.356 Y-2.372
X-8.182 Y-2.919
X-7.971 Y-3.455
X-7.726 Y-3.975
X-7.446 Y-4.478
X-7.133 Y-4.962
X-6.789 Y-5.423
X-6.416 Y-5.862
X-6.013 Y-6.274
X-5.585 Y-6.659
X-5.131 Y-7.014
X-4.655 Y-7.339
X-4.159 Y-7.632
X-3.644 Y-7.891
X-3.113 Y-8.115
X-2.568 Y-8.304
X-2.012 Y-8.456
X-1.447 Y-8.571
X-0.875 Y-8.648
X-0.3 Y-8.687
X0.277 Y-8.688
X0.852 Y-8.651
X1.424 Y-8.575
X1.989 Y-8.462
X2.546 Y-8.311
X3.092 Y-8.124
X3.624 Y-7.901
X4.14 Y-7.644
X4.637 Y-7.352
X5.115 Y-7.029
X5.57 Y-6.674
X6 Y-6.29
X6.404 Y-5.878
X6.78 Y-5.441
X7.126 Y-4.979
X7.44 Y-4.496
X7.837 Y-3.787
X8.395 Y-2.614
X8.752 Y-1.715
X9.004 Y-0.93
X9.187 Y-0.199
X9.311 Y0.489
X9.385 Y1.146
X9.414 Y1.785
X9.402 Y2.411
X9.348 Y3.024
X9.255 Y3.625
X9.124 Y4.215
X8.954 Y4.793
X8.746 Y5.358
X8.5 Y5.91
X8.217 Y6.448
X7.896 Y6.969
X7.539 Y7.472
X7.145 Y7.954
X6.716 Y8.415
X6.252 Y8.85
X5.755 Y9.258
X5.227 Y9.636
X4.668 Y9.982
X4.081 Y10.294
X3.47 Y10.569
X2.835 Y10.804
X2.181 Y10.999
X1.509 Y11.151
X0.823 Y11.26
X0.125 Y11.323
X-0.58 Y11.339
X-1.29 Y11.309
X-2.002 Y11.231
X-2.711 Y11.106
X-3.415 Y10.932
X-4.11 Y10.711
X-4.793 Y10.443
X-5.46 Y10.128
X-6.107 Y9.769
X-6.732 Y9.365
X-7.331 Y8.919
X-7.901 Y8.433
X-8.439 Y7.909
X-8.942 Y7.348
X-9.409 Y6.754
X-9.836 Y6.128
X-10.221 Y5.475
X-10.563 Y4.796
X-10.859 Y4.094
X-11.109 Y3.374
X-11.311 Y2.637
X-11.463 Y1.888
X-11.566 Y1.129
X-11.618 Y0.365
X-11.619 Y-0.402
X-11.57 Y-1.168
X-11.47 Y-1.93
X-11.319 Y-2.683
X-11.118 Y-3.426
X-10.869 Y-4.154
X-10.572 Y-4.864
X-10.228 Y-5.553
X-9.839 Y-6.218
X-9.406 Y-6.856
X-8.933 Y-7.465
X-8.419 Y-8.04
X-7.869 Y-8.581
X-7.284 Y-9.083
X-6.666 Y-9.546
X-6.019 Y-9.967
X-5.346 Y-10.345
X-4.649 Y-10.677
X-3.931 Y-10.961
X-3.196 Y-11.198
X-2.447 Y-11.386
X-1.687 Y-11.523
X-0.919 Y-11.61
X-0.148 Y-11.645
X0.625 Y-11.63
X1.394 Y-11.563
X2.158 Y-11.445
X2.912 Y-11.277
X3.653 Y-11.059
X4.379 Y-10.793
X5.085 Y-10.479
X5.768 Y-10.118
X6.427 Y-9.714
X7.057 Y-9.266
X7.684 Y-8.755
X8.313 Y-8.169
X8.946 Y-7.494
X9.562 Y-6.745
X10.133 Y-5.947
X10.649 Y-5.115
X11.102 Y-4.262
X11.491 Y-3.397
X11.816 Y-2.525
X12.076 Y-1.65
X12.274 Y-0.777
X12.411 Y0.09
X12.489 Y0.951
X12.51 Y1.804
X12.474 Y2.649
X12.383 Y3.483
X12.238 Y4.304
X12.039 Y5.112
X11.788 Y5.903
X11.484 Y6.675
X11.13 Y7.427
X10.726 Y8.155
X10.273 Y8.857
X9.772 Y9.53
X9.225 Y10.171
X8.634 Y10.778
X8.001 Y11.347
X7.328 Y11.876
X6.616 Y12.361
X5.87 Y12.802
X5.092 Y13.194
X4.284 Y13.536
X3.45 Y13.825
X2.593 Y14.06
X1.718 Y14.238
X0.827 Y14.359
X-0.076 Y14.421
X-0.986 Y14.423
X-1.9 Y14.364
X-2.813 Y14.244
X-3.72 Y14.063
X-4.618 Y13.821
X-5.502 Y13.518
X-6.368 Y13.156
X-7.211 Y12.736
X-8.027 Y12.258
X-8.813 Y11.726
X-9.564 Y11.142
X-10.277 Y10.506
X-10.947 Y9.823
X-11.573 Y9.096
X-12.15 Y8.326
X-12.676 Y7.519
X-13.148 Y6.677
X-13.564 Y5.803
X-13.922 Y4.903
X-14.22 Y3.98
X-14.456 Y3.037
X-14.629 Y2.08
X-14.739 Y1.113
X-14.784 Y0.139
X-14.764 Y-0.836
X-14.68 Y-1.809
X-14.531 Y-2.774
X-14.319 Y-3.728
X-14.044 Y-4.667
X-13.706 Y-5.586
X-13.309 Y-6.48
X-12.852 Y-7.347
X-12.339 Y-8.182
X-11.772 Y-8.981
X-11.153 Y-9.742
X-10.484 Y-10.459
X-9.769 Y-11.131
X-9.011 Y-11.754
X-8.213 Y-12.326
X-7.379 Y-12.844
X-6.512 Y-13.305
X-5.616 Y-13.708
X-4.696 Y-14.05
X-3.754 Y-14.331
X-2.796 Y-14.548
X-1.826 Y-14.702
X-0.848 Y-14.791
X0.135 Y-14.815
X1.117 Y-14.774
X2.094 Y-14.667
X3.062 Y-14.497
X4.016 Y-14.262
X4.953 Y-13.964
X5.874 Y-13.603
X6.782 Y-13.175
X7.681 Y-12.676
X8.568 Y-12.104
X9.432 Y-11.462
X10.265 Y-10.752
X11.059 Y-9.979
X11.81 Y-9.144
X12.508 Y-8.255
X13.148 Y-7.319
X13.724 Y-6.343
X14.232 Y-5.336
X14.668 Y-4.305
X15.033 Y-3.255
X15.324 Y-2.193
X15.543 Y-1.122
X15.689 Y-0.048
X15.763 Y1.026
X15.765 Y2.097
X15.697 Y3.16
X15.559 Y4.213
X15.352 Y5.252
X15.077 Y6.273
X14.735 Y7.272
X14.327 Y8.247
X13.856 Y9.194
X13.322 Y10.108
X12.727 Y10.987
X12.074 Y11.826
X11.364 Y12.622
X10.601 Y13.373
X9.787 Y14.073
X8.925 Y14.72
X8.018 Y15.311
X7.07 Y15.843
X6.084 Y16.313
X5.065 Y16.718
X4.016 Y17.056
X2.942 Y17.326
X1.848 Y17.524
X0.737 Y17.65
X-0.384 Y17.703
X-1.512 Y17.68
X-2.641 Y17.583
X-3.765 Y17.41
X-4.881 Y17.162
X-5.982 Y16.839
X-7.063 Y16.443
X-8.119 Y15.974
X-9.146 Y15.434
X-10.137 Y14.825
X-11.089 Y14.15
X-11.996 Y13.411
X-12.854 Y12.612
X-13.66 Y11.755
X-14.408 Y10.846
X-15.096 Y9.886
X-15.719 Y8.882
X-16.276 Y7.836
X-16.763 Y6.754
X-17.177 Y5.641
X-17.517 Y4.501
X-17.782 Y3.34
X-17.968 Y2.163
X-18.077 Y0.974
X-18.106 Y-0.219
X-18.056 Y-1.414
X-17.927 Y-2.603
X-17.72 Y-3.781
X-17.434 Y-4.945
X-17.072 Y-6.087
X-16.634 Y-7.203
X-16.123 Y-8.288
X-15.541 Y-9.337
X-14.891 Y-10.346
X-14.175 Y-11.31
X-13.396 Y-12.224
X-12.558 Y-13.085
X-11.665 Y-13.889
X-10.72 Y-14.632
X-9.728 Y-15.31
X-8.693 Y-15.922
X-7.619 Y-16.464
X-6.511 Y-16.933
X-5.375 Y-17.328
X-4.215 Y-17.646
X-3.036 Y-17.887
X-1.844 Y-18.05
X-0.644 Y-18.132
X0.56 Y-18.136
X1.761 Y-18.059
X2.956 Y-17.902
X4.142 Y-17.666
X5.318 Y-17.35
X6.483 Y-16.952
X7.632 Y-16.472
X8.761 Y-15.91
X9.863 Y-15.266
X10.933 Y-14.543
X11.963 Y-13.742
X12.946 Y-12.866
X13.876 Y-11.921
X14.745 Y-10.911
X15.546 Y-9.844
X16.276 Y-8.725
X16.928 Y-7.562
X17.501 Y-6.362
X17.991 Y-5.13
X18.397 Y-3.873
X18.718 Y-2.598
X18.952 Y-1.309
X19.099 Y-0.012
X19.16 Y1.287
X19.135 Y2.583
X19.024 Y3.871
X18.829 Y5.146
X18.549 Y6.404
X18.187 Y7.639
X17.745 Y8.848
X17.223 Y10.024
X16.623 Y11.164
X15.949 Y12.263
X15.202 Y13.316
X14.386 Y14.319
X13.503 Y15.268
X12.556 Y16.159
X11.55 Y16.987
X10.488 Y17.749
X9.374 Y18.441
X8.212 Y19.059
X7.008 Y19.602
X5.766 Y20.064
X4.491 Y20.445
X3.189 Y20.742
X1.865 Y20.952
X0.529 Y21.075
X-0.813 Y21.108
X-2.154 Y21.054
X-3.488 Y20.911
X-4.811 Y20.682
X-6.116 Y20.367
X-7.397 Y19.968
X-8.65 Y19.488
X-9.87 Y18.927
X-11.051 Y18.289
X-12.188 Y17.576
X-13.277 Y16.792
X-14.314 Y15.94
X-15.294 Y15.023
X-16.214 Y14.046
X-17.07 Y13.012
X-17.858 Y11.926
X-18.576 Y10.792
X-19.222 Y9.615
X-19.792 Y8.4
X-20.284 Y7.151
X-20.697 Y5.874
X-21.03 Y4.574
X-21.28 Y3.255
X-21.447 Y1.924
X-21.531 Y0.584
Y-0.758
X-21.448 Y-2.098
X-21.28 Y-3.429
X-21.03 Y-4.748
X-20.697 Y-6.048
X-20.283 Y-7.325
X-19.79 Y-8.573
X-19.219 Y-9.788
X-18.574 Y-10.965
X-17.857 Y-12.099
X-17.07 Y-13.187
X-16.218 Y-14.223
X-15.303 Y-15.205
X-14.328 Y-16.128
X-13.298 Y-16.989
X-12.217 Y-17.784
X-11.089 Y-18.511
X-9.917 Y-19.166
X-8.708 Y-19.747
X-7.464 Y-20.252
X-6.191 Y-20.678
X-4.894 Y-21.023
X-3.578 Y-21.287
X-2.248 Y-21.467
X-0.91 Y-21.565
X0.432 Y-21.579
X1.773 Y-21.51
X3.106 Y-21.358
X4.428 Y-21.125
X5.733 Y-20.811
X7.017 Y-20.419
X8.274 Y-19.951
X9.502 Y-19.408
X10.694 Y-18.791
X11.847 Y-18.104
X12.957 Y-17.35
X14.022 Y-16.533
X15.038 Y-15.656
X16.002 Y-14.723
X16.912 Y-13.736
X17.763 Y-12.698
X18.552 Y-11.612
X19.277 Y-10.483
X19.936 Y-9.314
X20.528 Y-8.109
X21.051 Y-6.873
X21.503 Y-5.609
X21.882 Y-4.322
X22.184 Y-3.014
X22.409 Y-1.691
X22.557 Y-0.357
X22.627 Y0.984
X22.62 Y2.326
X22.535 Y3.665
X22.373 Y4.998
X22.134 Y6.318
X21.817 Y7.622
X21.423 Y8.905
X20.954 Y10.163
X20.412 Y11.391
X19.8 Y12.585
X19.119 Y13.742
X18.373 Y14.857
X17.563 Y15.928
X16.692 Y16.949
X15.762 Y17.916
X14.776 Y18.828
X13.74 Y19.68
X12.656 Y20.471
X11.528 Y21.199
X10.361 Y21.862
X9.158 Y22.457
X7.922 Y22.981
X6.658 Y23.432
X5.37 Y23.81
X4.063 Y24.114
X2.741 Y24.345
X1.408 Y24.501
X0.068 Y24.582
X-1.274 Y24.587
X-2.614 Y24.514
X-3.948 Y24.367
X-5.272 Y24.146
X-6.582 Y23.852
X-7.873 Y23.487
X-9.143 Y23.051
X-10.385 Y22.544
X-11.598 Y21.968
X-12.776 Y21.326
X-13.918 Y20.621
X-15.02 Y19.854
X-16.078 Y19.029
X-17.09 Y18.147
X-18.052 Y17.211
X-18.959 Y16.222
X-19.812 Y15.185
X-20.607 Y14.104
X-21.342 Y12.981
X-22.017 Y11.821
X-22.629 Y10.626
X-23.173 Y9.4
X-23.65 Y8.145
X-24.058 Y6.867
X-24.397 Y5.568
X-24.666 Y4.253
X-24.865 Y2.926
X-24.993 Y1.589
X-25.048 Y0.248
X-25.029 Y-1.094
X-24.938 Y-2.433
X-24.775 Y-3.765
X-24.541 Y-5.086
X-24.237 Y-6.394
X-23.864 Y-7.683
X-23.421 Y-8.95
X-22.91 Y-10.191
X-22.332 Y-11.402
X-21.69 Y-12.581
X-20.986 Y-13.724
X-20.223 Y-14.828
X-19.403 Y-15.891
X-18.527 Y-16.907
X-17.597 Y-17.874
X-16.615 Y-18.79
X-15.587 Y-19.652
X-14.514 Y-20.459
X-13.4 Y-21.207
X-12.248 Y-21.896
X-11.061 Y-22.522
X-9.841 Y-23.082
X-8.592 Y-23.575
X-7.319 Y-24
X-6.026 Y-24.357
X-4.715 Y-24.645
X-3.39 Y-24.863
X-2.056 Y-25.01
X-0.716 Y-25.084
X0.626 Y-25.085
X1.966 Y-25.015
X3.301 Y-24.875
X4.627 Y-24.664
X5.94 Y-24.386
X7.236 Y-24.04
X8.513 Y-23.625
X9.765 Y-23.143
X10.991 Y-22.596
X12.187 Y-21.986
X13.35 Y-21.317
X14.478 Y-20.59
X15.569 Y-19.807
X16.618 Y-18.971
X17.623 Y-18.081
X18.582 Y-17.142
X19.492 Y-16.155
X20.351 Y-15.124
X21.159 Y-14.052
X21.912 Y-12.942
X22.611 Y-11.795
X23.25 Y-10.616
X23.679 Y-9.721
X23.71 Y-9.654
X23.739 Y-9.586
X23.767 Y-9.518
X24.097 Y-8.69
X24.245 Y-8.309
X24.47 Y-7.548
X24.581 Y-7.167
X24.809 Y-6.346
X24.89 Y-6.025
X25.072 Y-5.264
X25.144 Y-4.883
X25.393 Y-3.36
X25.453 Y-2.98
X25.513 Y-2.218
X25.54 Y-1.838
X25.582 Y-1.076
X25.598 Y-0.696
X25.625 Y0.066
X25.616 Y0.446
X25.533 Y1.969
X25.51 Y2.35
X25.421 Y3.111
X25.372 Y3.492
X25.059 Y5.395
X24.967 Y5.776
X24.544 Y7.299
X24.437 Y7.679
X24.18 Y8.441
X24.045 Y8.821
X23.59 Y9.963
X23.435 Y10.344
X23.277 Y10.725
X23.09 Y11.105
X22.142 Y12.894
X22.078 Y13.009
X21.587 Y13.77
X21.38 Y14.088
X20.822 Y14.912
X20.618 Y15.205
X20.278 Y15.673
X18.985 Y17.196
X18.713 Y17.485
X18.261 Y17.957
X17.952 Y18.261
X16.809 Y19.343
X16.644 Y19.48
X16.047 Y19.96
X15.666 Y20.251
X15.178 Y20.622
X14.904 Y20.826
X14.094 Y21.384
X13.761 Y21.6
X12.222 Y22.526
X11.856 Y22.718
X11.463 Y22.906
X9.817 Y23.668
X9.571 Y23.777
X8.798 Y24.048
X8.428 Y24.177
X6.904 Y24.69
X6.523 Y24.779
X4.618 Y25.199
X4.237 Y25.279
X3.475 Y25.372
X3.094 Y25.417
X2.332 Y25.5
X1.951 Y25.535
X1.19 Y25.592
X0.809 Y25.602
X-0.715
X-1.096 Y25.601
X-1.858 Y25.542
X-2.239 Y25.51
X-3.001 Y25.427
X-3.382 Y25.383
X-4.144 Y25.289
X-4.525 Y25.219
X-6.811 Y24.716
X-7.191 Y24.593
X-8.334 Y24.208
X-8.715 Y24.077
X-9.477 Y23.807
X-9.817 Y23.668
X-11.463 Y22.906
X-11.763 Y22.767
X-12.144 Y22.571
X-12.222 Y22.526
X-13.668 Y21.656
X-14.049 Y21.415
X-14.811 Y20.889
X-15.192 Y20.612
X-15.953 Y20.033
X-16.172 Y19.861
X-16.715 Y19.423
X-17.066 Y19.1
X-17.87 Y18.338
X-18.239 Y17.983
X-18.627 Y17.577
X-18.985 Y17.196
X-20.279 Y15.673
X-20.525 Y15.338
X-20.822 Y14.912
X-21.338 Y14.151
X-21.587 Y13.77
X-22.078 Y13.009
X-22.283 Y12.628
X-23.192 Y10.914
X-23.277 Y10.725
X-23.573 Y10.007
X-24.045 Y8.821
X-24.18 Y8.441
X-24.437 Y7.679
X-24.544 Y7.299
X-24.967 Y5.776
X-25.059 Y5.395
X-25.372 Y3.492
X-25.421 Y3.111
X-25.51 Y2.35
X-25.533 Y1.969
X-25.616 Y0.446
X-25.625 Y0.066
X-25.598 Y-0.696
X-25.582 Y-1.076
X-25.54 Y-1.838
X-25.513 Y-2.218
X-25.453 Y-2.98
X-25.393 Y-3.36
X-25.144 Y-4.883
X-25.096 Y-5.16
X-24.89 Y-6.025
X-24.792 Y-6.406
X-24.581 Y-7.167
X-24.47 Y-7.548
X-24.245 Y-8.309
X-24.097 Y-8.69
X-23.491 Y-10.213
X-23.327 Y-10.593
X-22.951 Y-11.355
X-22.811 Y-11.633
X-22.353 Y-12.497
X-22.134 Y-12.877
X-21.668 Y-13.662
X-21.287 Y-14.226
X-20.906 Y-14.786
X-20.38 Y-15.542
X-20.144 Y-15.832
X-19.001 Y-17.177
X-18.767 Y-17.445
X-18.399 Y-17.826
X-18.239 Y-17.988
X-17.096 Y-19.071
X-16.715 Y-19.43
X-16.352 Y-19.729
X-14.811 Y-20.901
X-14.43 Y-21.18
X-14.049 Y-21.422
X-13.668 Y-21.656
X-12.906 Y-22.114
X-12.525 Y-22.335
X-12.144 Y-22.552
X-11.763 Y-22.767
X-10.101 Y-23.536
X-9.858 Y-23.649
X-9.477 Y-23.807
X-8.715 Y-24.077
X-8.334 Y-24.208
X-7.572 Y-24.465
X-7.191 Y-24.579
X-6.43 Y-24.799
X-5.668 Y-24.968
X-4.525 Y-25.219
X-4.144 Y-25.289
X-3.382 Y-25.384
X-2.885 Y-25.44
X-2.239 Y-25.51
X-1.858 Y-25.542
X-1.096 Y-25.601
X-0.715 Y-25.602
X0.809
X1.19 Y-25.592
X1.951 Y-25.535
X2.332 Y-25.5
X3.094 Y-25.417
X3.475 Y-25.373
X4.237 Y-25.279
X4.618 Y-25.199
X6.142 Y-24.863
X6.523 Y-24.771
X7.285 Y-24.552
X7.666 Y-24.434
X8.428 Y-24.177
X8.809 Y-24.045
X9.571 Y-23.777
X9.952 Y-23.605
X11.475 Y-22.901
X11.745 Y-22.775
X11.856 Y-22.713
X12.618 Y-22.282
X12.999 Y-22.058
X13.761 Y-21.6
X14.142 Y-21.362
X14.316 Y-21.252
X14.523 Y-21.119
X15.851 Y-20.11
X16.428 Y-19.672
X16.809 Y-19.339
X17.205 Y-18.968
X18.008 Y-18.207
X18.333 Y-17.895
X18.769 Y-17.445
X19.097 Y-17.065
X20.237 Y-15.722
X20.375 Y-15.542
X20.909 Y-14.781
X20.999 Y-14.65
X21.427 Y-14.019
X21.682 Y-13.639
X22.142 Y-12.863
X22.353 Y-12.497
X22.756 Y-11.735
X22.904 Y-11.45
X23.327 Y-10.593
X23.491 Y-10.213
X23.767 Y-9.518
X23.786 Y-9.434 Z9.038
X23.804 Y-9.353 Z9.06
X23.821 Y-9.277 Z9.096
X23.836 Y-9.208 Z9.145
X23.838 Y-9.163 Z9.188
X23.84 Y-9.123 Z9.236
X23.842 Y-9.089 Z9.289
X23.841 Y-9.056 Z9.365
Y-9.035 Z9.446
X23.84 Y-9.028 Z9.529
G0 Z50
X-1.463 Y5.853
Z12.8
G1 Z11.53 F850
G3 X1.463 Y-5.852 Z10.868 I1.463 J-5.852 F283.3
X-1.463 Y5.853 Z10.206 I-1.463 J5.852
X1.463 Y-5.852 Z9.545 I1.463 J-5.852
X-1.463 Y5.853 Z8.883 I-1.463 J5.852
X1.463 Y-5.852 Z8.221 I1.463 J-5.852
X-1.463 Y5.853 Z7.559 I-1.463 J5.852
X1.463 Y-5.852 Z6.897 I1.463 J-5.852
X-1.463 Y5.853 Z6.236 I-1.463 J5.852
X1.463 Y-5.852 Z5.574 I1.463 J-5.852
X-1.463 Y5.853 Z4.912 I-1.463 J5.852
X1.463 Y-5.852 Z4.25 I1.463 J-5.852
X-1.463 Y5.853 Z3.588 I-1.463 J5.852
X1.463 Y-5.852 Z2.927 I1.463 J-5.852
X-1.463 Y5.853 Z2.265 I-1.463 J5.852
X1.463 Y-5.852 Z1.603 I1.463 J-5.852
X-1.463 Y5.853 Z0.941 I-1.463 J5.852
X1.463 Y-5.852 Z0.279 I1.463 J-5.852
X6.033 Y0 Z0 I-1.463 J5.852
X-6.032 I-6.033
X6.033 I6.033
G1 X6.036 Y0.336 F850
X6.174 Y1.671
X6.211 Y1.746
X6.27 Y1.884
X6.321 Y2.032
X6.367 Y2.199
X6.404 Y2.385
X6.432 Y2.589
X6.447 Y2.811
Y3.051
X6.43 Y3.307
X6.395 Y3.577
X6.338 Y3.861
X6.258 Y4.156
X6.153 Y4.461
X6.023 Y4.773
X5.865 Y5.089
X5.678 Y5.407
X5.463 Y5.724
X5.219 Y6.037
X4.945 Y6.344
X4.642 Y6.641
X4.311 Y6.925
X3.953 Y7.194
X3.568 Y7.444
X3.158 Y7.673
X2.725 Y7.879
X2.272 Y8.059
X1.799 Y8.211
X1.31 Y8.333
X0.807 Y8.423
X0.292 Y8.481
X-0.231 Y8.505
X-0.76 Y8.494
X-1.292 Y8.447
X-1.824 Y8.365
X-2.353 Y8.247
X-2.877 Y8.093
X-3.392 Y7.903
X-3.897 Y7.678
X-4.388 Y7.419
X-4.862 Y7.127
X-5.318 Y6.803
X-5.753 Y6.448
X-6.165 Y6.064
X-6.551 Y5.652
X-6.91 Y5.214
X-7.24 Y4.753
X-7.539 Y4.27
X-7.806 Y3.767
X-8.04 Y3.247
X-8.238 Y2.712
X-8.401 Y2.164
X-8.528 Y1.606
X-8.617 Y1.041
X-8.668 Y0.47
X-8.682 Y-0.104
X-8.657 Y-0.677
X-8.594 Y-1.248
X-8.494 Y-1.813
X-8.356 Y-2.372
X-8.182 Y-2.919
X-7.971 Y-3.455
X-7.726 Y-3.975
X-7.446 Y-4.478
X-7.133 Y-4.962
X-6.789 Y-5.423
X-6.416 Y-5.862
X-6.013 Y-6.274
X-5.585 Y-6.659
X-5.131 Y-7.014
X-4.655 Y-7.339
X-4.159 Y-7.632
X-3.644 Y-7.891
X-3.113 Y-8.115
X-2.568 Y-8.304
X-2.012 Y-8.456
X-1.447 Y-8.571
X-0.875 Y-8.648
X-0.3 Y-8.687
X0.277 Y-8.688
X0.852 Y-8.651
X1.424 Y-8.575
X1.989 Y-8.462
X2.546 Y-8.311
X3.092 Y-8.124
X3.624 Y-7.901
X4.14 Y-7.644
X4.637 Y-7.352
X5.115 Y-7.029
X5.57 Y-6.674
X6 Y-6.29
X6.404 Y-5.878
X6.78 Y-5.441
X7.126 Y-4.979
X7.44 Y-4.496
X7.837 Y-3.787
X8.395 Y-2.614
X8.752 Y-1.715
X9.004 Y-0.93
X9.187 Y-0.199
X9.311 Y0.489
X9.385 Y1.146
X9.414 Y1.785
X9.402 Y2.411
X9.348 Y3.024
X9.255 Y3.625
X9.124 Y4.215
X8.954 Y4.793
X8.746 Y5.358
X8.5 Y5.91
X8.217 Y6.448
X7.896 Y6.969
X7.539 Y7.472
X7.145 Y7.954
X6.716 Y8.415
X6.252 Y8.85
X5.755 Y9.258
X5.227 Y9.636
X4.668 Y9.982
X4.081 Y10.294
X3.47 Y10.569
X2.835 Y10.804
X2.181 Y10.999
X1.509 Y11.151
X0.823 Y11.26
X0.125 Y11.323
X-0.58 Y11.339
X-1.29 Y11.309
X-2.002 Y11.231
X-2.711 Y11.106
X-3.415 Y10.932
X-4.11 Y10.711
X-4.793 Y10.443
X-5.46 Y10.128
X-6.107 Y9.769
X-6.732 Y9.365
X-7.331 Y8.919
X-7.901 Y8.433
X-8.439 Y7.909
X-8.942 Y7.348
X-9.409 Y6.754
X-9.836 Y6.128
X-10.221 Y5.475
X-10.563 Y4.796
X-10.859 Y4.094
X-11.109 Y3.374
X-11.311 Y2.637
X-11.463 Y1.888
X-11.566 Y1.129
X-11.618 Y0.365
X-11.619 Y-0.402
X-11.57 Y-1.168
X-11.47 Y-1.93
X-11.319 Y-2.683
X-11.118 Y-3.426
X-10.869 Y-4.154
X-10.572 Y-4.864
X-10.228 Y-5.553
X-9.839 Y-6.218
X-9.406 Y-6.856
X-8.933 Y-7.465
X-8.419 Y-8.04
X-7.869 Y-8.581
X-7.284 Y-9.083
X-6.666 Y-9.546
X-6.019 Y-9.967
X-5.346 Y-10.345
X-4.649 Y-10.677
X-3.931 Y-10.961
X-3.196 Y-11.198
X-2.447 Y-11.386
X-1.687 Y-11.523
X-0.919 Y-11.61
X-0.148 Y-11.645
X0.625 Y-11.63
X1.394 Y-11.563
X2.158 Y-11.445
X2.912 Y-11.277
X3.653 Y-11.059
X4.379 Y-10.793
X5.085 Y-10.479
X5.768 Y-10.118
X6.427 Y-9.714
X7.057 Y-9.266
X7.684 Y-8.755
X8.313 Y-8.169
X8.946 Y-7.494
X9.562 Y-6.745
X10.133 Y-5.947
X10.649 Y-5.115
X11.102 Y-4.262
X11.491 Y-3.397
X11.816 Y-2.525
X12.076 Y-1.65
X12.274 Y-0.777
X12.411 Y0.09
X12.489 Y0.951
X12.51 Y1.804
X12.474 Y2.649
X12.383 Y3.483
X12.238 Y4.304
X12.039 Y5.112
X11.788 Y5.903
X11.484 Y6.675
X11.13 Y7.427
X10.726 Y8.155
X10.273 Y8.857
X9.772 Y9.53
X9.225 Y10.171
X8.634 Y10.778
X8.001 Y11.347
X7.328 Y11.876
X6.616 Y12.361
X5.87 Y12.802
X5.092 Y13.194
X4.284 Y13.536
X3.45 Y13.825
X2.593 Y14.06
X1.718 Y14.238
X0.827 Y14.359
X-0.076 Y14.421
X-0.986 Y14.423
X-1.9 Y14.364
X-2.813 Y14.244
X-3.72 Y14.063
X-4.618 Y13.821
X-5.502 Y13.518
X-6.368 Y13.156
X-7.211 Y12.736
X-8.027 Y12.258
X-8.813 Y11.726
X-9.564 Y11.142
X-10.277 Y10.506
X-10.947 Y9.823
X-11.573 Y9.096
X-12.15 Y8.326
X-12.676 Y7.519
X-13.148 Y6.677
X-13.564 Y5.803
X-13.922 Y4.903
X-14.22 Y3.98
X-14.456 Y3.037
X-14.629 Y2.08
X-14.739 Y1.113
X-14.784 Y0.139
X-14.764 Y-0.836
X-14.68 Y-1.809
X-14.531 Y-2.774
X-14.319 Y-3.728
X-14.044 Y-4.667
X-13.706 Y-5.586
X-13.309 Y-6.48
X-12.852 Y-7.347
X-12.339 Y-8.182
X-11.772 Y-8.981
X-11.153 Y-9.742
X-10.484 Y-10.459
X-9.769 Y-11.131
X-9.011 Y-11.754
X-8.213 Y-12.326
X-7.379 Y-12.844
X-6.512 Y-13.305
X-5.616 Y-13.708
X-4.696 Y-14.05
X-3.754 Y-14.331
X-2.796 Y-14.548
X-1.826 Y-14.702
X-0.848 Y-14.791
X0.135 Y-14.815
X1.117 Y-14.774
X2.094 Y-14.667
X3.062 Y-14.497
X4.016 Y-14.262
X4.953 Y-13.964
X5.874 Y-13.603
X6.782 Y-13.175
X7.681 Y-12.676
X8.568 Y-12.104
X9.432 Y-11.462
X10.265 Y-10.752
X11.059 Y-9.979
X11.81 Y-9.144
X12.508 Y-8.255
X13.148 Y-7.319
X13.724 Y-6.343
X14.232 Y-5.336
X14.668 Y-4.305
X15.033 Y-3.255
X15.324 Y-2.193
X15.543 Y-1.122
X15.689 Y-0.048
X15.763 Y1.026
X15.765 Y2.097
X15.697 Y3.16
X15.559 Y4.213
X15.352 Y5.252
X15.077 Y6.273
X14.735 Y7.272
X14.327 Y8.247
X13.856 Y9.194
X13.322 Y10.108
X12.727 Y10.987
X12.074 Y11.826
X11.364 Y12.622
X10.601 Y13.373
X9.787 Y14.073
X8.925 Y14.72
X8.018 Y15.311
X7.07 Y15.843
X6.084 Y16.313
X5.065 Y16.718
X4.016 Y17.056
X2.942 Y17.326
X1.848 Y17.524
X0.737 Y17.65
X-0.384 Y17.703
X-1.512 Y17.68
X-2.641 Y17.583
X-3.765 Y17.41
X-4.881 Y17.162
X-5.982 Y16.839
X-7.063 Y16.443
X-8.119 Y15.974
X-9.146 Y15.434
X-10.137 Y14.825
X-11.089 Y14.15
X-11.996 Y13.411
X-12.854 Y12.612
X-13.66 Y11.755
X-14.408 Y10.846
X-15.096 Y9.886
X-15.719 Y8.882
X-16.276 Y7.836
X-16.763 Y6.754
X-17.177 Y5.641
X-17.517 Y4.501
X-17.782 Y3.34
X-17.968 Y2.163
X-18.077 Y0.974
X-18.106 Y-0.219
X-18.056 Y-1.414
X-17.927 Y-2.603
X-17.72 Y-3.781
X-17.434 Y-4.945
X-17.072 Y-6.087
X-16.634 Y-7.203
X-16.123 Y-8.288
X-15.541 Y-9.337
X-14.891 Y-10.346
X-14.175 Y-11.31
X-13.396 Y-12.224
X-12.558 Y-13.085
X-11.665 Y-13.889
X-10.72 Y-14.632
X-9.728 Y-15.31
X-8.693 Y-15.922
X-7.619 Y-16.464
X-6.511 Y-16.933
X-5.375 Y-17.328
X-4.215 Y-17.646
X-3.036 Y-17.887
X-1.844 Y-18.05
X-0.644 Y-18.132
X0.56 Y-18.136
X1.761 Y-18.059
X2.956 Y-17.902
X4.142 Y-17.666
X5.318 Y-17.35
X6.483 Y-16.952
X7.632 Y-16.472
X8.761 Y-15.91
X9.863 Y-15.266
X10.933 Y-14.543
X11.963 Y-13.742
X12.946 Y-12.866
X13.876 Y-11.921
X14.745 Y-10.911
X15.546 Y-9.844
X16.276 Y-8.725
X16.928 Y-7.562
X17.501 Y-6.362
X17.991 Y-5.13
X18.397 Y-3.873
X18.718 Y-2.598
X18.952 Y-1.309
X19.099 Y-0.012
X19.16 Y1.287
X19.135 Y2.583
X19.024 Y3.871
X18.829 Y5.146
X18.549 Y6.404
X18.187 Y7.639
X17.745 Y8.848
X17.223 Y10.024
X16.623 Y11.164
X15.949 Y12.263
X15.202 Y13.316
X14.386 Y14.319
X13.503 Y15.268
X12.556 Y16.159
X11.55 Y16.987
X10.488 Y17.749
X9.374 Y18.441
X8.212 Y19.059
X7.008 Y19.602
X5.766 Y20.064
X4.491 Y20.445
X3.189 Y20.742
X1.865 Y20.952
X0.529 Y21.075
X-0.813 Y21.108
X-2.154 Y21.054
X-3.488 Y20.911
X-4.811 Y20.682
X-6.116 Y20.367
X-7.397 Y19.968
X-8.65 Y19.488
X-9.87 Y18.927
X-11.051 Y18.289
X-12.188 Y17.576
X-13.277 Y16.792
X-14.314 Y15.94
X-15.294 Y15.023
X-16.214 Y14.046
X-17.07 Y13.012
X-17.858 Y11.926
X-18.576 Y10.792
X-19.222 Y9.615
X-19.792 Y8.4
X-20.284 Y7.151
X-20.697 Y5.874
X-21.03 Y4.574
X-21.28 Y3.255
X-21.447 Y1.924
X-21.531 Y0.584
Y-0.758
X-21.448 Y-2.098
X-21.28 Y-3.429
X-21.03 Y-4.748
X-20.697 Y-6.048
X-20.283 Y-7.325
X-19.79 Y-8.573
X-19.219 Y-9.788
X-18.574 Y-10.965
X-17.857 Y-12.099
X-17.07 Y-13.187
X-16.218 Y-14.223
X-15.303 Y-15.205
X-14.328 Y-16.128
X-13.298 Y-16.989
X-12.217 Y-17.784
X-11.089 Y-18.511
X-9.917 Y-19.166
X-8.708 Y-19.747
X-7.464 Y-20.252
X-6.191 Y-20.678
X-4.894 Y-21.023
X-3.578 Y-21.287
X-2.248 Y-21.467
X-0.91 Y-21.565
X0.432 Y-21.579
X1.773 Y-21.51
X3.106 Y-21.358
X4.428 Y-21.125
X5.733 Y-20.811
X7.017 Y-20.419
X8.274 Y-19.951
X9.502 Y-19.408
X10.694 Y-18.791
X11.847 Y-18.104
X12.957 Y-17.35
X14.022 Y-16.533
X15.038 Y-15.656
X16.002 Y-14.723
X16.912 Y-13.736
X17.763 Y-12.698
X18.552 Y-11.612
X19.277 Y-10.483
X19.936 Y-9.314
X20.528 Y-8.109
X21.051 Y-6.873
X21.503 Y-5.609
X21.882 Y-4.322
X22.184 Y-3.014
X22.409 Y-1.691
X22.557 Y-0.357
X22.627 Y0.984
X22.62 Y2.326
X22.535 Y3.665
X22.373 Y4.998
X22.134 Y6.318
X21.817 Y7.622
X21.423 Y8.905
X20.954 Y10.163
X20.412 Y11.391
X19.8 Y12.585
X19.119 Y13.742
X18.373 Y14.857
X17.563 Y15.928
X16.692 Y16.949
X15.762 Y17.916
X14.776 Y18.828
X13.74 Y19.68
X12.656 Y20.471
X11.528 Y21.199
X10.361 Y21.862
X9.158 Y22.457
X7.922 Y22.981
X6.658 Y23.432
X5.37 Y23.81
X4.063 Y24.114
X2.741 Y24.345
X1.408 Y24.501
X0.068 Y24.582
X-1.274 Y24.587
X-2.614 Y24.514
X-3.948 Y24.367
X-5.272 Y24.146
X-6.582 Y23.852
X-7.873 Y23.487
X-9.143 Y23.051
X-10.385 Y22.544
X-11.598 Y21.968
X-12.776 Y21.326
X-13.918 Y20.621
X-15.02 Y19.854
X-16.078 Y19.029
X-17.09 Y18.147
X-18.052 Y17.211
X-18.959 Y16.222
X-19.812 Y15.185
X-20.607 Y14.104
X-21.342 Y12.981
X-22.017 Y11.821
X-22.629 Y10.626
X-23.173 Y9.4
X-23.65 Y8.145
X-24.058 Y6.867
X-24.397 Y5.568
X-24.666 Y4.253
X-24.865 Y2.926
X-24.993 Y1.589
X-25.048 Y0.248
X-25.029 Y-1.094
X-24.938 Y-2.433
X-24.775 Y-3.765
X-24.541 Y-5.086
X-24.237 Y-6.394
X-23.864 Y-7.683
X-23.421 Y-8.95
X-22.91 Y-10.191
X-22.332 Y-11.402
X-21.69 Y-12.581
X-20.986 Y-13.724
X-20.223 Y-14.828
X-19.403 Y-15.891
X-18.527 Y-16.907
X-17.597 Y-17.874
X-16.615 Y-18.79
X-15.587 Y-19.652
X-14.514 Y-20.459
X-13.4 Y-21.207
X-12.248 Y-21.896
X-11.061 Y-22.522
X-9.841 Y-23.082
X-8.592 Y-23.575
X-7.319 Y-24
X-6.026 Y-24.357
X-4.715 Y-24.645
X-3.39 Y-24.863
X-2.056 Y-25.01
X-0.716 Y-25.084
X0.626 Y-25.085
X1.966 Y-25.015
X3.301 Y-24.875
X4.627 Y-24.664
X5.94 Y-24.386
X7.236 Y-24.04
X8.513 Y-23.625
X9.765 Y-23.143
X10.991 Y-22.596
X12.187 Y-21.986
X13.35 Y-21.317
X14.478 Y-20.59
X15.569 Y-19.807
X16.618 Y-18.971
X17.623 Y-18.081
X18.582 Y-17.142
X19.492 Y-16.155
X20.351 Y-15.124
X21.159 Y-14.052
X21.912 Y-12.942
X22.611 Y-11.795
X23.25 Y-10.616
X23.679 Y-9.721
X23.71 Y-9.654
X23.739 Y-9.586
X23.767 Y-9.518
X24.097 Y-8.69
X24.245 Y-8.309
X24.47 Y-7.548
X24.581 Y-7.167
X24.809 Y-6.346
X24.89 Y-6.025
X25.072 Y-5.264
X25.144 Y-4.883
X25.393 Y-3.36
X25.453 Y-2.98
X25.513 Y-2.218
X25.54 Y-1.838
X25.582 Y-1.076
X25.598 Y-0.696
X25.625 Y0.066
X25.616 Y0.446
X25.533 Y1.969
X25.51 Y2.35
X25.421 Y3.111
X25.372 Y3.492
X25.059 Y5.395
X24.967 Y5.776
X24.544 Y7.299
X24.437 Y7.679
X24.18 Y8.441
X24.045 Y8.821
X23.59 Y9.963
X23.435 Y10.344
X23.277 Y10.725
X23.09 Y11.105
X22.142 Y12.894
X22.078 Y13.009
X21.587 Y13.77
X21.38 Y14.088
X20.822 Y14.912
X20.618 Y15.205
X20.278 Y15.673
X18.985 Y17.196
X18.713 Y17.485
X18.261 Y17.957
X17.952 Y18.261
X16.809 Y19.343
X16.644 Y19.48
X16.047 Y19.96
X15.666 Y20.251
X15.178 Y20.622
X14.904 Y20.826
X14.094 Y21.384
X13.761 Y21.6
X12.222 Y22.526
X11.856 Y22.718
X11.463 Y22.906
X9.817 Y23.668
X9.571 Y23.777
X8.798 Y24.048
X8.428 Y24.177
X6.904 Y24.69
X6.523 Y24.779
X4.618 Y25.199
X4.237 Y25.279
X3.475 Y25.372
X3.094 Y25.417
X2.332 Y25.5
X1.951 Y25.535
X1.19 Y25.592
X0.809 Y25.602
X-0.715
X-1.096 Y25.601
X-1.858 Y25.542
X-2.239 Y25.51
X-3.001 Y25.427
X-3.382 Y25.383
X-4.144 Y25.289
X-4.525 Y25.219
X-6.811 Y24.716
X-7.191 Y24.593
X-8.334 Y24.208
X-8.715 Y24.077
X-9.477 Y23.807
X-9.817 Y23.668
X-11.463 Y22.906
X-11.763 Y22.767
X-12.144 Y22.571
X-12.222 Y22.526
X-13.668 Y21.656
X-14.049 Y21.415
X-14.811 Y20.889
X-15.192 Y20.612
X-15.953 Y20.033
X-16.172 Y19.861
X-16.715 Y19.423
X-17.066 Y19.1
X-17.87 Y18.338
X-18.239 Y17.983
X-18.627 Y17.577
X-18.985 Y17.196
X-20.279 Y15.673
X-20.525 Y15.338
X-20.822 Y14.912
X-21.338 Y14.151
X-21.587 Y13.77
X-22.078 Y13.009
X-22.283 Y12.628
X-23.192 Y10.914
X-23.277 Y10.725
X-23.573 Y10.007
X-24.045 Y8.821
X-24.18 Y8.441
X-24.437 Y7.679
X-24.544 Y7.299
X-24.967 Y5.776
X-25.059 Y5.395
X-25.372 Y3.492
X-25.421 Y3.111
X-25.51 Y2.35
X-25.533 Y1.969
X-25.616 Y0.446
X-25.625 Y0.066
X-25.598 Y-0.696
X-25.582 Y-1.076
X-25.54 Y-1.838
X-25.513 Y-2.218
X-25.453 Y-2.98
X-25.393 Y-3.36
X-25.144 Y-4.883
X-25.096 Y-5.16
X-24.89 Y-6.025
X-24.792 Y-6.406
X-24.581 Y-7.167
X-24.47 Y-7.548
X-24.245 Y-8.309
X-24.097 Y-8.69
X-23.491 Y-10.213
X-23.327 Y-10.593
X-22.951 Y-11.355
X-22.811 Y-11.633
X-22.353 Y-12.497
X-22.134 Y-12.877
X-21.668 Y-13.662
X-21.287 Y-14.226
X-20.906 Y-14.786
X-20.38 Y-15.542
X-20.144 Y-15.832
X-19.001 Y-17.177
X-18.767 Y-17.445
X-18.399 Y-17.826
X-18.239 Y-17.988
X-17.096 Y-19.071
X-16.715 Y-19.43
X-16.352 Y-19.729
X-14.811 Y-20.901
X-14.43 Y-21.18
X-14.049 Y-21.422
X-13.668 Y-21.656
X-12.906 Y-22.114
X-12.525 Y-22.335
X-12.144 Y-22.552
X-11.763 Y-22.767
X-10.101 Y-23.536
X-9.858 Y-23.649
X-9.477 Y-23.807
X-8.715 Y-24.077
X-8.334 Y-24.208
X-7.572 Y-24.465
X-7.191 Y-24.579
X-6.43 Y-24.799
X-5.668 Y-24.968
X-4.525 Y-25.219
X-4.144 Y-25.289
X-3.382 Y-25.384
X-2.885 Y-25.44
X-2.239 Y-25.51
X-1.858 Y-25.542
X-1.096 Y-25.601
X-0.715 Y-25.602
X0.809
X1.19 Y-25.592
X1.951 Y-25.535
X2.332 Y-25.5
X3.094 Y-25.417
X3.475 Y-25.373
X4.237 Y-25.279
X4.618 Y-25.199
X6.142 Y-24.863
X6.523 Y-24.771
X7.285 Y-24.552
X7.666 Y-24.434
X8.428 Y-24.177
X8.809 Y-24.045
X9.571 Y-23.777
X9.952 Y-23.605
X11.475 Y-22.901
X11.745 Y-22.775
X11.856 Y-22.713
X12.618 Y-22.282
X12.999 Y-22.058
X13.761 Y-21.6
X14.142 Y-21.362
X14.316 Y-21.252
X14.523 Y-21.119
X15.851 Y-20.11
X16.428 Y-19.672
X16.809 Y-19.339
X17.205 Y-18.968
X18.008 Y-18.207
X18.333 Y-17.895
X18.769 Y-17.445
X19.097 Y-17.065
X20.237 Y-15.722
X20.375 Y-15.542
X20.909 Y-14.781
X20.999 Y-14.65
X21.427 Y-14.019
X21.682 Y-13.639
X22.142 Y-12.863
X22.353 Y-12.497
X22.756 Y-11.735
X22.904 Y-11.45
X23.327 Y-10.593
X23.491 Y-10.213
X23.767 Y-9.518
G3 X23.84 Y-9.028 I-1.195 J0.429
G1 X23.834 Y-8.886 Z0.008
X23.827 Y-8.746 Z0.032
X23.82 Y-8.609 Z0.071
X23.814 Y-8.477 Z0.126
X23.808 Y-8.353 Z0.195
X23.802 Y-8.237 Z0.277
X23.797 Y-8.131 Z0.372
X23.792 Y-8.036 Z0.478
X23.788 Y-7.954 Z0.594
X23.785 Y-7.885 Z0.719
X23.782 Y-7.831 Z0.851
X23.78 Y-7.791 Z0.987
X23.779 Y-7.767 Z1.128
Y-7.759 Z1.27
G0 Z60

(2D Contour2)
M9
X26.15 Y0
Z60
Z50
G1 Z46 F283.3
Z0
G3 X-26.15 I-26.15 F850
X26.15 I26.15
G0 Z60

(2D Contour4)
M9
X-31.874 Y0
Z60
Z50
G1 Z47.5 F283.3
Z43.5
X-85 F850
G0 Z50
X-31.874
G1 Z46 F283.3
Z42
X-85 F850
G0 Z50
X-31.874
G1 Z44.5 F283.3
Z40.5
X-85 F850
G0 Z50
X-31.874
G1 Z43 F283.3
Z39
X-85 F850
G0 Z50
X-31.874
G1 Z41.5 F283.3
Z37.5
X-85 F850
G0 Z50
X-31.874
G1 Z40 F283.3
Z36
X-85 F850
G0 Z50
X-31.874
G1 Z38.5 F283.3
Z34.5
X-85 F850
G0 Z50
X-31.874
G1 Z37 F283.3
Z33
X-85 F850
G0 Z50
X-31.874
G1 Z35.5 F283.3
Z31.5
X-85 F850
G0 Z50
X-31.874
G1 Z34 F283.3
Z30
X-85 F850
G0 Z50
X-31.874
G1 Z32.5 F283.3
Z28.5
X-85 F850
G0 Z50
X-31.874
G1 Z31 F283.3
Z27
X-85 F850
G0 Z50
X-31.874
G1 Z29.5 F283.3
Z25.5
X-85 F850
G0 Z50
X-31.874
G1 Z28 F283.3
Z24
X-85 F850
G0 Z50
X-31.874
G1 Z26.5 F283.3
Z22.5
X-85 F850
G0 Z50
X-31.874
G1 Z25 F283.3
Z21
X-85 F850
G0 Z50
X-31.874
G1 Z23.5 F283.3
Z19.5
X-85 F850
G0 Z50
X-31.874
G1 Z22 F283.3
Z18
X-85 F850
G0 Z50
X-31.874
G1 Z20.5 F283.3
Z16.5
X-85 F850
G0 Z50
X-31.874
G1 Z19 F283.3
Z15
X-85 F850
G0 Z50
X-31.874
G1 Z17.5 F283.3
Z13.5
X-85 F850
G0 Z50
X-31.874
G1 Z16 F283.3
Z12
X-85 F850
G0 Z50
X-31.874
G1 Z14.5 F283.3
Z10.5
X-85 F850
G0 Z50
X-31.874
G1 Z13 F283.3
Z9
X-85 F850
G0 Z50
X-31.874
G1 Z11.5 F283.3
Z7.5
X-85 F850
G0 Z50
X-31.874
G1 Z10 F283.3
Z6
X-85 F850
G0 Z50
X-31.874
G1 Z8.5 F283.3
Z4.5
X-85 F850
G0 Z50
X-31.874
G1 Z7 F283.3
Z3
X-85 F850
G0 Z50
X-31.874
G1 Z5.5 F283.3
Z1.5
X-85 F850
G0 Z50
X-31.874
G1 Z4 F283.3
Z0
X-85 F850
G0 Z50
X125
G1 Z47.5 F283.3
Z43.5
X31.874 F850
G0 Z50
X125
G1 Z46 F283.3
Z42
X31.874 F850
G0 Z50
X125
G1 Z44.5 F283.3
Z40.5
X31.874 F850
G0 Z50
X125
G1 Z43 F283.3
Z39
X31.874 F850
G0 Z50
X125
G1 Z41.5 F283.3
Z37.5
X31.874 F850
G0 Z50
X125
G1 Z40 F283.3
Z36
X31.874 F850
G0 Z50
X125
G1 Z38.5 F283.3
Z34.5
X31.874 F850
G0 Z50
X125
G1 Z37 F283.3
Z33
X31.874 F850
G0 Z50
X125
G1 Z35.5 F283.3
Z31.5
X31.874 F850
G0 Z50
X125
G1 Z34 F283.3
Z30
X31.874 F850
G0 Z50
X125
G1 Z32.5 F283.3
Z28.5
X31.874 F850
G0 Z50
X125
G1 Z31 F283.3
Z27
X31.874 F850
G0 Z50
X125
G1 Z29.5 F283.3
Z25.5
X31.874 F850
G0 Z50
X125
G1 Z28 F283.3
Z24
X31.874 F850
G0 Z50
X125
G1 Z26.5 F283.3
Z22.5
X31.874 F850
G0 Z50
X125
G1 Z25 F283.3
Z21
X31.874 F850
G0 Z50
X125
G1 Z23.5 F283.3
Z19.5
X31.874 F850
G0 Z50
X125
G1 Z22 F283.3
Z18
X31.874 F850
G0 Z50
X125
G1 Z20.5 F283.3
Z16.5
X31.874 F850
G0 Z50
X125
G1 Z19 F283.3
Z15
X31.874 F850
G0 Z50
X125
G1 Z17.5 F283.3
Z13.5
X31.874 F850
G0 Z50
X125
G1 Z16 F283.3
Z12
X31.874 F850
G0 Z50
X125
G1 Z14.5 F283.3
Z10.5
X31.874 F850
G0 Z50
X125
G1 Z13 F283.3
Z9
X31.874 F850
G0 Z50
X125
G1 Z11.5 F283.3
Z7.5
X31.874 F850
G0 Z50
X125
G1 Z10 F283.3
Z6
X31.874 F850
G0 Z50
X125
G1 Z8.5 F283.3
Z4.5
X31.874 F850
G0 Z50
X125
G1 Z7 F283.3
Z3
X31.874 F850
G0 Z50
X125
G1 Z5.5 F283.3
Z1.5
X31.874 F850
G0 Z50
X125
G1 Z4 F283.3
Z0
X31.874 F850
G0 Z60

(2D Contour3)
M9
X125 Y-31.35
Z60
Z50
G1 Z47.5 F283.3
Z43.5
X55.624 F850
G2 X-55.624 I-55.624 J31.35
G1 X-125
G0 Z50
X125
G1 Z46 F283.3
Z42
X55.624 F850
G2 X-55.624 I-55.624 J31.35
G1 X-125
G0 Z50
X125
G1 Z44.5 F283.3
Z40.5
X55.624 F850
G2 X-55.624 I-55.624 J31.35
G1 X-125
G0 Z50
X125
G1 Z43 F283.3
Z39
X55.624 F850
G2 X-55.624 I-55.624 J31.35
G1 X-125
G0 Z50
X125
G1 Z41.5 F283.3
Z37.5
X55.624 F850
G2 X-55.624 I-55.624 J31.35
G1 X-125
G0 Z50
X125
G1 Z40 F283.3
Z36
X55.624 F850
G2 X-55.624 I-55.624 J31.35
G1 X-125
G0 Z50
X125
G1 Z38.5 F283.3
Z34.5
X55.624 F850
G2 X-55.624 I-55.624 J31.35
G1 X-125
G0 Z50
X125
G1 Z37 F283.3
Z33
X55.624 F850
G2 X-55.624 I-55.624 J31.35
G1 X-125
G0 Z50
X125
G1 Z35.5 F283.3
Z31.5
X55.624 F850
G2 X-55.624 I-55.624 J31.35
G1 X-125
G0 Z50
X125
G1 Z34 F283.3
Z30
X55.624 F850
G2 X-55.624 I-55.624 J31.35
G1 X-125
G0 Z50
X125
G1 Z32.5 F283.3
Z28.5
X55.624 F850
G2 X-55.624 I-55.624 J31.35
G1 X-125
G0 Z50
X125
G1 Z31 F283.3
Z27
X55.624 F850
G2 X-55.624 I-55.624 J31.35
G1 X-125
G0 Z50
X125
G1 Z29.5 F283.3
Z25.5
X55.624 F850
G2 X-55.624 I-55.624 J31.35
G1 X-125
G0 Z50
X125
G1 Z28 F283.3
Z24
X55.624 F850
G2 X-55.624 I-55.624 J31.35
G1 X-125
G0 Z50
X125
G1 Z26.5 F283.3
Z22.5
X55.624 F850
G2 X-55.624 I-55.624 J31.35
G1 X-125
G0 Z50
X125
G1 Z25 F283.3
Z21
X55.624 F850
G2 X-55.624 I-55.624 J31.35
G1 X-125
G0 Z50
X125
G1 Z23.5 F283.3
Z19.5
X55.624 F850
G2 X-55.624 I-55.624 J31.35
G1 X-125
G0 Z50
X125
G1 Z22 F283.3
Z19
X55.624 F850
G2 X-55.624 I-55.624 J31.35
G1 X-125
G0 Z60
M9
M30
%
