%
(1001)
(origin stock bottom)
(T1  D=12.7 CR=0 - ZMIN=0 - flat end mill)
G90 G94
G17
G21

(2D Adaptive2)
M9
T1 M6
S8000 M3
G54
G0 X-394.551 Y6.354
Z33
Z23
Z21.82
G1 Z20.55 F849.6
Z9 F283.3
X-394.742 Y6.3 F849.6
X-394.869 Y6.245
X-394.997 Y6.172
X-395.122 Y6.079
X-395.271 Y5.935
X-395.292 Y5.904
X-395.11 Y5.769
X-394.879 Y5.617
X-394.591 Y5.448
X-394.232 Y5.263
X-393.785 Y5.063
X-393.226 Y4.848
X-392.517 Y4.618
X-391.598 Y4.375
X-390.364 Y4.119
X-389.086 Y3.926
X-387.802 Y3.783
X-386.515 Y3.677
X-385.225 Y3.597
X-383.934 Y3.537
X-382.643 Y3.492
X-381.352 Y3.457
X-380.06 Y3.432
X-378.768 Y3.412
X-377.476 Y3.397
X-376.184 Y3.386
X-374.892 Y3.377
X-373.6 Y3.371
X-372.308 Y3.366
X-369.724 Y3.359
X-365.847 Y3.354
X-359.387 Y3.351
X-345.175 Y3.35
X-294.784
X-244.394
X-194.004
X-143.614
X-93.224
X-42.834
X-6.885
X-6.483 Y3.377
X-6.088 Y3.457
X-5.707 Y3.589
X-5.348 Y3.771
X-5.015 Y3.999
X-4.717 Y4.269
X-4.664 Y4.364 Z9.008
X-4.613 Y4.458 Z9.03
X-4.564 Y4.547 Z9.067
X-4.541 Y4.636 Z9.115
X-4.52 Y4.717 Z9.175
X-4.501 Y4.791 Z9.245
X-4.485 Y4.855 Z9.325
X-4.481 Y4.907 Z9.408
X-4.479 Y4.949 Z9.497
X-4.476 Y4.979 Z9.591
X-4.475 Y4.997 Z9.687
Y5.003 Z9.785
G0 Z23
X-394.576 Y6.301
Z12.27
G1 Z11 F849.6
Z9
G3 X-395.271 Y5.935 I0.365 J-1.54
G1 X-395.381 Y5.791
X-395.45 Y5.673
X-395.503 Y5.554
X-395.549 Y5.411
X-395.553 Y5.377
X-395.461 Y5.215
X-395.356 Y5.052
X-395.219 Y4.864
X-395.066 Y4.674
X-394.876 Y4.464
X-394.65 Y4.239
X-394.395 Y4.012
X-394.072 Y3.755
X-393.721 Y3.505
X-393.298 Y3.236
X-392.808 Y2.962
X-392.222 Y2.674
X-391.543 Y2.385
X-390.713 Y2.084
X-389.695 Y1.776
X-388.44 Y1.469
X-387.17 Y1.23
X-385.892 Y1.042
X-384.608 Y0.894
X-383.322 Y0.778
X-382.033 Y0.687
X-380.743 Y0.615
X-379.452 Y0.558
X-378.161 Y0.513
X-376.869 Y0.478
X-375.577 Y0.45
X-374.285 Y0.429
X-372.993 Y0.412
X-371.701 Y0.398
X-370.409 Y0.388
X-369.117 Y0.379
X-367.825 Y0.373
X-366.533 Y0.368
X-363.949 Y0.361
X-360.073 Y0.355
X-354.905 Y0.352
X-345.86 Y0.35
X-295.47
X-245.08
X-194.69
X-144.3
X-93.91
X-43.52
X-11.218
X-9.926 Y0.366
X-9.776 Y0.375
X-9.303 Y0.439
X-8.844 Y0.57
X-8.408 Y0.766
X-8.006 Y1.023
X-7.645 Y1.335
X-4.878 Y4.102
X-4.717 Y4.269
X-4.664 Y4.364 Z9.008
X-4.613 Y4.458 Z9.03
X-4.564 Y4.547 Z9.067
X-4.541 Y4.636 Z9.115
X-4.52 Y4.717 Z9.175
X-4.501 Y4.791 Z9.245
X-4.485 Y4.855 Z9.325
X-4.481 Y4.907 Z9.408
X-4.479 Y4.949 Z9.497
X-4.476 Y4.979 Z9.591
X-4.475 Y4.997 Z9.687
Y5.003 Z9.785
G0 Z23
X-395.108 Y6.061
Z12.27
G1 Z11 F849.6
Z9
G3 X-395.549 Y5.411 I1.048 J-1.186
G1 X-395.582 Y5.221
X-395.587 Y5.03
X-395.563 Y4.84
X-395.508 Y4.65
X-395.503 Y4.636
X-395.414 Y4.453
X-395.355 Y4.361
X-395.283 Y4.269
X-395.122 Y4.103
X-392.838 Y1.818
X-392.353 Y1.379
X-392.016 Y1.106
X-391.645 Y0.838
X-391.183 Y0.54
X-390.673 Y0.248
X-390.047 Y-0.065
X-389.31 Y-0.385
X-388.435 Y-0.71
X-387.356 Y-1.046
X-386.104 Y-1.362
X-384.837 Y-1.615
X-383.561 Y-1.819
X-382.279 Y-1.982
X-380.994 Y-2.114
X-379.706 Y-2.22
X-378.417 Y-2.305
X-377.127 Y-2.373
X-375.836 Y-2.428
X-374.544 Y-2.473
X-373.253 Y-2.508
X-371.961 Y-2.537
X-370.669 Y-2.56
X-369.377 Y-2.578
X-368.085 Y-2.593
X-366.793 Y-2.604
X-365.501 Y-2.614
X-364.209 Y-2.621
X-362.917 Y-2.627
X-360.333 Y-2.636
X-357.749 Y-2.641
X-353.873 Y-2.646
X-347.413 Y-2.649
X-343.536
X-293.146 Y-2.65
X-242.756
X-192.366
X-141.976
X-91.586
X-41.196
X-15.355
X-14.063 Y-2.646
X-12.771 Y-2.617
X-12.719 Y-2.613
X-12.256 Y-2.545
X-11.808 Y-2.411
X-11.383 Y-2.216
X-10.99 Y-1.963
X-10.636 Y-1.656
X-7.645 Y1.335
G3 X-7.315 Y2.034 I-0.929 J0.866
G1 X-7.296 Y2.175 Z9.008
X-7.278 Y2.314 Z9.032
X-7.26 Y2.45 Z9.071
X-7.242 Y2.58 Z9.126
X-7.226 Y2.704 Z9.195
X-7.211 Y2.819 Z9.277
X-7.197 Y2.924 Z9.372
X-7.184 Y3.018 Z9.478
X-7.173 Y3.1 Z9.594
X-7.164 Y3.168 Z9.719
X-7.157 Y3.222 Z9.851
X-7.152 Y3.261 Z9.987
X-7.149 Y3.285 Z10.128
X-7.148 Y3.293 Z10.27
G0 Z23
X-393.527 Y3.738
Z11.54
G1 Z10.27 F849.6
X-393.525 Y3.731 Z10.128
X-393.519 Y3.708 Z9.987
X-393.51 Y3.669 Z9.851
X-393.496 Y3.616 Z9.719
X-393.479 Y3.55 Z9.594
X-393.459 Y3.47 Z9.478
X-393.436 Y3.378 Z9.372
X-393.409 Y3.275 Z9.277
X-393.381 Y3.162 Z9.195
X-393.35 Y3.042 Z9.126
X-393.318 Y2.914 Z9.071
X-393.284 Y2.781 Z9.032
X-393.249 Y2.645 Z9.008
X-393.214 Y2.508 Z9
G3 X-392.838 Y1.818 I1.534 J0.39
G1 X-389.792 Y-1.228
X-389.381 Y-1.599
X-389.077 Y-1.846
X-388.693 Y-2.124
X-388.269 Y-2.398
X-387.738 Y-2.7
X-387.135 Y-3.002
X-386.398 Y-3.323
X-385.504 Y-3.655
X-384.41 Y-3.995
X-383.157 Y-4.311
X-381.891 Y-4.566
X-380.615 Y-4.771
X-379.334 Y-4.937
X-378.049 Y-5.072
X-376.761 Y-5.181
X-375.472 Y-5.27
X-374.182 Y-5.342
X-372.891 Y-5.401
X-371.6 Y-5.448
X-370.309 Y-5.487
X-369.017 Y-5.518
X-367.725 Y-5.544
X-366.433 Y-5.564
X-365.142 Y-5.581
X-363.85 Y-5.594
X-362.557 Y-5.605
X-361.265 Y-5.614
X-359.973 Y-5.621
X-358.681 Y-5.627
X-356.097 Y-5.635
X-353.513 Y-5.64
X-349.637 Y-5.645
X-343.177 Y-5.648
X-340.593 Y-5.649
X-310.875 Y-5.65
X-290.203
X-239.812
X-189.422
X-139.032
X-88.642
X-38.252
X-18.871
X-17.579 Y-5.646
X-16.287 Y-5.632
X-15.794 Y-5.607
X-15.313 Y-5.548
X-14.846 Y-5.418
X-14.402 Y-5.221
X-13.993 Y-4.962
X-13.625 Y-4.645
X-10.636 Y-1.656
G3 X-10.306 Y-0.957 I-0.929 J0.866
G1 X-10.288 Y-0.816 Z9.008
X-10.269 Y-0.677 Z9.032
X-10.251 Y-0.541 Z9.071
X-10.234 Y-0.411 Z9.126
X-10.217 Y-0.287 Z9.195
X-10.202 Y-0.172 Z9.277
X-10.188 Y-0.067 Z9.372
X-10.176 Y0.027 Z9.478
X-10.165 Y0.109 Z9.594
X-10.156 Y0.177 Z9.719
X-10.148 Y0.231 Z9.851
X-10.143 Y0.27 Z9.987
X-10.14 Y0.294 Z10.128
X-10.139 Y0.302 Z10.27
G0 Z23
X-390.481 Y0.693
Z11.54
G1 Z10.27 F849.6
X-390.479 Y0.685 Z10.128
X-390.474 Y0.662 Z9.987
X-390.464 Y0.624 Z9.851
X-390.45 Y0.571 Z9.719
X-390.433 Y0.504 Z9.594
X-390.413 Y0.424 Z9.478
X-390.39 Y0.332 Z9.372
X-390.364 Y0.229 Z9.277
X-390.335 Y0.117 Z9.195
X-390.304 Y-0.004 Z9.126
X-390.272 Y-0.132 Z9.071
X-390.238 Y-0.264 Z9.032
X-390.204 Y-0.4 Z9.008
X-390.168 Y-0.538 Z9
G3 X-389.792 Y-1.228 I1.534 J0.39
G1 X-386.916 Y-4.104
X-386.421 Y-4.552
X-386.116 Y-4.799
X-385.732 Y-5.077
X-385.306 Y-5.352
X-384.774 Y-5.655
X-384.167 Y-5.959
X-383.425 Y-6.282
X-382.524 Y-6.617
X-381.418 Y-6.96
X-380.165 Y-7.277
X-378.899 Y-7.532
X-377.623 Y-7.739
X-376.342 Y-7.907
X-375.058 Y-8.044
X-373.77 Y-8.155
X-372.482 Y-8.246
X-371.192 Y-8.321
X-369.901 Y-8.381
X-368.61 Y-8.431
X-367.318 Y-8.472
X-366.027 Y-8.505
X-364.735 Y-8.532
X-363.443 Y-8.554
X-362.151 Y-8.572
X-360.859 Y-8.587
X-359.567 Y-8.599
X-358.275 Y-8.608
X-356.983 Y-8.616
X-355.691 Y-8.623
X-353.107 Y-8.632
X-350.523 Y-8.638
X-346.647 Y-8.644
X-341.479 Y-8.647
X-337.602 Y-8.649
X-316.93 Y-8.65
X-287.212
X-236.822
X-186.432
X-136.042
X-85.652
X-35.262
X-22.341 Y-8.649
X-21.049 Y-8.647
X-19.757 Y-8.638
X-18.849 Y-8.608
X-18.355 Y-8.554
X-17.876 Y-8.427
X-17.42 Y-8.23
X-17 Y-7.967
X-16.623 Y-7.643
X-13.625 Y-4.645
G3 X-13.295 Y-3.946 I-0.929 J0.866
G1 X-13.276 Y-3.805 Z9.008
X-13.258 Y-3.666 Z9.032
X-13.24 Y-3.53 Z9.071
X-13.223 Y-3.4 Z9.126
X-13.206 Y-3.276 Z9.195
X-13.191 Y-3.161 Z9.277
X-13.177 Y-3.056 Z9.372
X-13.164 Y-2.962 Z9.478
X-13.154 Y-2.88 Z9.594
X-13.144 Y-2.812 Z9.719
X-13.137 Y-2.758 Z9.851
X-13.132 Y-2.719 Z9.987
X-13.129 Y-2.695 Z10.128
X-13.128 Y-2.687 Z10.27
G0 Z23
X-387.605 Y-2.184
Z11.54
G1 Z10.27 F849.6
X-387.603 Y-2.192 Z10.128
X-387.597 Y-2.215 Z9.987
X-387.587 Y-2.253 Z9.851
X-387.574 Y-2.306 Z9.719
X-387.557 Y-2.373 Z9.594
X-387.537 Y-2.453 Z9.478
X-387.513 Y-2.545 Z9.372
X-387.487 Y-2.647 Z9.277
X-387.458 Y-2.76 Z9.195
X-387.428 Y-2.881 Z9.126
X-387.395 Y-3.008 Z9.071
X-387.362 Y-3.141 Z9.032
X-387.327 Y-3.277 Z9.008
X-387.292 Y-3.415 Z9
G3 X-386.916 Y-4.104 I1.534 J0.39
G1 X-383.871 Y-7.149
X-383.474 Y-7.508
X-383.168 Y-7.756
X-382.782 Y-8.035
X-382.353 Y-8.312
X-381.817 Y-8.618
X-381.205 Y-8.924
X-380.458 Y-9.249
X-379.548 Y-9.587
X-378.432 Y-9.934
X-377.18 Y-10.251
X-375.913 Y-10.507
X-374.638 Y-10.714
X-373.357 Y-10.884
X-372.072 Y-11.022
X-370.785 Y-11.135
X-369.496 Y-11.228
X-368.207 Y-11.304
X-366.916 Y-11.367
X-365.625 Y-11.418
X-364.334 Y-11.46
X-363.042 Y-11.495
X-361.75 Y-11.523
X-360.459 Y-11.546
X-359.167 Y-11.565
X-357.875 Y-11.581
X-356.583 Y-11.593
X-355.291 Y-11.604
X-353.999 Y-11.612
X-352.707 Y-11.619
X-351.415 Y-11.625
X-348.83 Y-11.634
X-346.246 Y-11.639
X-342.37 Y-11.644
X-335.91 Y-11.648
X-334.618
X-317.821 Y-11.65
X-284.228
X-233.838
X-183.447
X-133.057
X-82.667
X-32.277
X-25.817
X-24.525 Y-11.648
X-23.233 Y-11.641
X-21.941 Y-11.614
X-21.729 Y-11.6
X-21.26 Y-11.534
X-20.807 Y-11.401
X-20.376 Y-11.206
X-19.978 Y-10.95
X-19.621 Y-10.641
X-16.623 Y-7.643
G3 X-16.293 Y-6.944 I-0.929 J0.866
G1 X-16.274 Y-6.803 Z9.008
X-16.256 Y-6.664 Z9.032
X-16.238 Y-6.528 Z9.071
X-16.221 Y-6.398 Z9.126
X-16.204 Y-6.274 Z9.195
X-16.189 Y-6.159 Z9.277
X-16.175 Y-6.054 Z9.372
X-16.162 Y-5.96 Z9.478
X-16.152 Y-5.878 Z9.594
X-16.142 Y-5.81 Z9.719
X-16.135 Y-5.756 Z9.851
X-16.13 Y-5.717 Z9.987
X-16.127 Y-5.693 Z10.128
X-16.126 Y-5.685 Z10.27
G0 Z23
X-384.56 Y-5.229
Z11.54
G1 Z10.27 F849.6
X-384.558 Y-5.237 Z10.128
X-384.552 Y-5.26 Z9.987
X-384.542 Y-5.298 Z9.851
X-384.529 Y-5.351 Z9.719
X-384.512 Y-5.418 Z9.594
X-384.492 Y-5.497 Z9.478
X-384.468 Y-5.589 Z9.372
X-384.442 Y-5.692 Z9.277
X-384.414 Y-5.805 Z9.195
X-384.383 Y-5.926 Z9.126
X-384.35 Y-6.053 Z9.071
X-384.317 Y-6.186 Z9.032
X-384.282 Y-6.322 Z9.008
X-384.247 Y-6.46 Z9
G3 X-383.871 Y-7.149 I1.534 J0.39
G1 X-380.826 Y-10.194
X-380.513 Y-10.477
X-380.206 Y-10.725
X-379.82 Y-11.006
X-379.388 Y-11.284
X-378.849 Y-11.591
X-378.235 Y-11.899
X-377.483 Y-12.226
X-376.568 Y-12.566
X-375.445 Y-12.915
X-374.192 Y-13.231
X-372.926 Y-13.488
X-371.651 Y-13.696
X-370.37 Y-13.867
X-369.085 Y-14.006
X-367.798 Y-14.121
X-366.51 Y-14.215
X-365.22 Y-14.292
X-363.929 Y-14.356
X-362.638 Y-14.408
X-361.347 Y-14.451
X-360.056 Y-14.487
X-358.764 Y-14.516
X-357.472 Y-14.54
X-356.18 Y-14.56
X-354.888 Y-14.576
X-353.596 Y-14.589
X-352.304 Y-14.6
X-351.012 Y-14.609
X-349.72 Y-14.617
X-348.428 Y-14.623
X-345.844 Y-14.632
X-343.26 Y-14.638
X-339.384 Y-14.643
X-334.215 Y-14.647
X-331.631 Y-14.648
X-317.419 Y-14.65
X-281.241
X-230.851
X-180.461
X-130.071
X-79.681
X-29.291
X-27.999 Y-14.648
X-26.706 Y-14.644
X-25.415 Y-14.629
X-24.802 Y-14.601
X-24.317 Y-14.543
X-23.847 Y-14.414
X-23.401 Y-14.217
X-22.988 Y-13.957
X-22.619 Y-13.638
X-19.621 Y-10.641
G3 X-19.291 Y-9.942 I-0.929 J0.866
G1 X-19.272 Y-9.801 Z9.008
X-19.254 Y-9.662 Z9.032
X-19.236 Y-9.526 Z9.071
X-19.218 Y-9.396 Z9.126
X-19.202 Y-9.272 Z9.195
X-19.187 Y-9.157 Z9.277
X-19.173 Y-9.052 Z9.372
X-19.16 Y-8.958 Z9.478
X-19.149 Y-8.876 Z9.594
X-19.14 Y-8.808 Z9.719
X-19.133 Y-8.754 Z9.851
X-19.128 Y-8.715 Z9.987
X-19.125 Y-8.691 Z10.128
X-19.124 Y-8.683 Z10.27
G0 Z23
X-381.515 Y-8.274
Z11.54
G1 Z10.27 F849.6
X-381.513 Y-8.281 Z10.128
X-381.507 Y-8.305 Z9.987
X-381.498 Y-8.343 Z9.851
X-381.484 Y-8.396 Z9.719
X-381.467 Y-8.462 Z9.594
X-381.447 Y-8.542 Z9.478
X-381.424 Y-8.634 Z9.372
X-381.397 Y-8.737 Z9.277
X-381.369 Y-8.85 Z9.195
X-381.338 Y-8.97 Z9.126
X-381.306 Y-9.098 Z9.071
X-381.272 Y-9.231 Z9.032
X-381.237 Y-9.367 Z9.008
X-381.202 Y-9.505 Z9
G3 X-380.826 Y-10.194 I1.534 J0.39
G1 X-377.99 Y-13.03
X-377.515 Y-13.46
X-377.208 Y-13.709
X-376.82 Y-13.989
X-376.388 Y-14.268
X-375.85 Y-14.575
X-375.234 Y-14.883
X-374.48 Y-15.211
X-373.563 Y-15.552
X-372.436 Y-15.902
X-371.184 Y-16.219
X-369.917 Y-16.475
X-368.642 Y-16.684
X-367.362 Y-16.855
X-366.077 Y-16.995
X-364.79 Y-17.111
X-363.502 Y-17.205
X-362.212 Y-17.283
X-360.922 Y-17.348
X-359.631 Y-17.401
X-358.339 Y-17.445
X-357.048 Y-17.481
X-355.756 Y-17.511
X-354.464 Y-17.535
X-353.172 Y-17.555
X-351.88 Y-17.572
X-350.588 Y-17.586
X-349.296 Y-17.597
X-348.004 Y-17.607
X-346.712 Y-17.615
X-345.42 Y-17.621
X-342.836 Y-17.63
X-340.252 Y-17.637
X-336.376 Y-17.643
X-331.208 Y-17.647
X-328.624 Y-17.648
X-314.411 Y-17.65
X-278.233
X-227.843
X-177.453
X-127.063
X-76.673
X-32.743
X-31.451 Y-17.649
X-30.159 Y-17.646
X-28.867 Y-17.636
X-27.856 Y-17.606
X-27.36 Y-17.553
X-26.878 Y-17.427
X-26.421 Y-17.23
X-25.999 Y-16.965
X-25.621 Y-16.641
X-22.619 Y-13.638
G3 X-22.288 Y-12.939 I-0.929 J0.866
G1 X-22.27 Y-12.799 Z9.008
X-22.251 Y-12.659 Z9.032
X-22.233 Y-12.524 Z9.071
X-22.216 Y-12.393 Z9.126
X-22.2 Y-12.27 Z9.195
X-22.184 Y-12.155 Z9.277
X-22.17 Y-12.049 Z9.372
X-22.158 Y-11.955 Z9.478
X-22.147 Y-11.873 Z9.594
X-22.138 Y-11.805 Z9.719
X-22.131 Y-11.751 Z9.851
X-22.125 Y-11.712 Z9.987
X-22.122 Y-11.688 Z10.128
X-22.121 Y-11.681 Z10.27
G0 Z23
X-378.679 Y-11.11
Z11.54
G1 Z10.27 F849.6
X-378.677 Y-11.118 Z10.128
X-378.671 Y-11.141 Z9.987
X-378.661 Y-11.179 Z9.851
X-378.648 Y-11.232 Z9.719
X-378.631 Y-11.299 Z9.594
X-378.611 Y-11.378 Z9.478
X-378.587 Y-11.47 Z9.372
X-378.561 Y-11.573 Z9.277
X-378.532 Y-11.686 Z9.195
X-378.502 Y-11.807 Z9.126
X-378.469 Y-11.934 Z9.071
X-378.436 Y-12.067 Z9.032
X-378.401 Y-12.203 Z9.008
X-378.366 Y-12.341 Z9
G3 X-377.99 Y-13.03 I1.534 J0.39
G1 X-374.944 Y-16.076
X-374.542 Y-16.44
X-374.234 Y-16.689
X-373.846 Y-16.97
X-373.412 Y-17.25
X-372.871 Y-17.559
X-372.253 Y-17.868
X-371.496 Y-18.197
X-370.576 Y-18.539
X-369.444 Y-18.891
X-368.191 Y-19.207
X-366.925 Y-19.464
X-365.65 Y-19.674
X-364.37 Y-19.845
X-363.085 Y-19.986
X-361.798 Y-20.102
X-360.51 Y-20.197
X-359.22 Y-20.276
X-357.93 Y-20.341
X-356.639 Y-20.395
X-355.348 Y-20.439
X-354.056 Y-20.476
X-352.764 Y-20.506
X-351.472 Y-20.531
X-350.181 Y-20.552
X-348.889 Y-20.569
X-347.597 Y-20.583
X-346.305 Y-20.595
X-345.013 Y-20.605
X-343.721 Y-20.613
X-342.429 Y-20.619
X-339.844 Y-20.629
X-337.26 Y-20.636
X-333.384 Y-20.642
X-328.216 Y-20.646
X-325.632 Y-20.648
X-312.711 Y-20.65
X-275.242
X-224.852
X-174.462
X-124.071
X-73.681
X-36.212
X-34.92 Y-20.649
X-33.628 Y-20.647
X-32.336 Y-20.641
X-31.044 Y-20.616
X-30.741 Y-20.597
X-30.269 Y-20.533
X-29.812 Y-20.401
X-29.378 Y-20.205
X-28.977 Y-19.948
X-28.617 Y-19.637
X-25.621 Y-16.641
G3 X-25.291 Y-15.942 I-0.929 J0.866
G1 X-25.272 Y-15.801 Z9.008
X-25.254 Y-15.662 Z9.032
X-25.236 Y-15.526 Z9.071
X-25.218 Y-15.396 Z9.126
X-25.202 Y-15.272 Z9.195
X-25.187 Y-15.157 Z9.277
X-25.173 Y-15.052 Z9.372
X-25.16 Y-14.958 Z9.478
X-25.149 Y-14.876 Z9.594
X-25.14 Y-14.808 Z9.719
X-25.133 Y-14.754 Z9.851
X-25.128 Y-14.715 Z9.987
X-25.125 Y-14.691 Z10.128
X-25.124 Y-14.683 Z10.27
G0 Z23
X-375.633 Y-14.156
Z11.54
G1 Z10.27 F849.6
X-375.631 Y-14.163 Z10.128
X-375.625 Y-14.187 Z9.987
X-375.616 Y-14.225 Z9.851
X-375.602 Y-14.278 Z9.719
X-375.585 Y-14.344 Z9.594
X-375.565 Y-14.424 Z9.478
X-375.541 Y-14.516 Z9.372
X-375.515 Y-14.619 Z9.277
X-375.487 Y-14.732 Z9.195
X-375.456 Y-14.853 Z9.126
X-375.424 Y-14.98 Z9.071
X-375.39 Y-15.113 Z9.032
X-375.355 Y-15.249 Z9.008
X-375.32 Y-15.387 Z9
G3 X-374.944 Y-16.076 I1.534 J0.39
G1 X-371.898 Y-19.122
X-371.562 Y-19.426
X-371.254 Y-19.675
X-370.866 Y-19.957
X-370.43 Y-20.238
X-369.888 Y-20.547
X-369.269 Y-20.857
X-368.51 Y-21.187
X-367.587 Y-21.53
X-366.453 Y-21.882
X-365.2 Y-22.199
X-363.934 Y-22.456
X-362.659 Y-22.666
X-361.378 Y-22.838
X-360.094 Y-22.979
X-358.807 Y-23.095
X-357.519 Y-23.191
X-356.229 Y-23.27
X-354.939 Y-23.336
X-353.648 Y-23.39
X-352.356 Y-23.435
X-351.065 Y-23.472
X-349.773 Y-23.503
X-348.481 Y-23.528
X-347.19 Y-23.549
X-345.898 Y-23.567
X-344.606 Y-23.581
X-343.314 Y-23.593
X-342.022 Y-23.603
X-340.73 Y-23.611
X-339.438 Y-23.618
X-336.853 Y-23.628
X-334.269 Y-23.635
X-330.393 Y-23.642
X-325.225 Y-23.646
X-322.641 Y-23.647
X-311.012 Y-23.65
X-272.251
X-221.861
X-171.471
X-121.08
X-70.69
X-38.389 Y-23.649
X-37.097 Y-23.648
X-35.805 Y-23.644
X-34.513 Y-23.63
X-33.812 Y-23.601
X-33.325 Y-23.544
X-32.852 Y-23.415
X-32.403 Y-23.218
X-31.989 Y-22.957
X-31.617 Y-22.637
X-28.617 Y-19.637
G3 X-28.287 Y-18.938 I-0.929 J0.866
G1 X-28.268 Y-18.797 Z9.008
X-28.25 Y-18.658 Z9.032
X-28.232 Y-18.522 Z9.071
X-28.215 Y-18.392 Z9.126
X-28.198 Y-18.268 Z9.195
X-28.183 Y-18.153 Z9.277
X-28.169 Y-18.048 Z9.372
X-28.156 Y-17.954 Z9.478
X-28.146 Y-17.872 Z9.594
X-28.137 Y-17.804 Z9.719
X-28.129 Y-17.75 Z9.851
X-28.124 Y-17.711 Z9.987
X-28.121 Y-17.687 Z10.128
X-28.12 Y-17.679 Z10.27
G0 Z23
X-372.587 Y-17.202
Z11.54
G1 Z10.27 F849.6
X-372.585 Y-17.209 Z10.128
X-372.579 Y-17.232 Z9.987
X-372.57 Y-17.271 Z9.851
X-372.556 Y-17.323 Z9.719
X-372.539 Y-17.39 Z9.594
X-372.519 Y-17.47 Z9.478
X-372.496 Y-17.562 Z9.372
X-372.469 Y-17.665 Z9.277
X-372.441 Y-17.778 Z9.195
X-372.41 Y-17.898 Z9.126
X-372.378 Y-18.026 Z9.071
X-372.344 Y-18.159 Z9.032
X-372.309 Y-18.295 Z9.008
X-372.274 Y-18.432 Z9
G3 X-371.898 Y-19.122 I1.534 J0.39
G1 X-369.027 Y-21.993
X-368.554 Y-22.421
X-368.246 Y-22.67
X-367.858 Y-22.952
X-367.423 Y-23.232
X-366.881 Y-23.541
X-366.262 Y-23.851
X-365.504 Y-24.181
X-364.58 Y-24.524
X-363.444 Y-24.877
X-362.192 Y-25.193
X-360.926 Y-25.451
X-359.651 Y-25.661
X-358.37 Y-25.833
X-357.086 Y-25.974
X-355.799 Y-26.091
X-354.511 Y-26.187
X-353.221 Y-26.267
X-351.931 Y-26.332
X-350.64 Y-26.387
X-349.348 Y-26.432
X-348.057 Y-26.469
X-346.765 Y-26.5
X-345.473 Y-26.526
X-344.182 Y-26.547
X-342.89 Y-26.565
X-341.598 Y-26.58
X-340.306 Y-26.592
X-339.014 Y-26.602
X-337.722 Y-26.61
X-336.43 Y-26.617
X-333.846 Y-26.627
X-331.261 Y-26.635
X-327.385 Y-26.641
X-322.217 Y-26.646
X-319.633 Y-26.647
X-308.004 Y-26.65
X-269.243
X-218.853
X-168.463
X-118.072
X-67.682
X-41.841
X-40.549 Y-26.649
X-39.257 Y-26.646
X-37.965 Y-26.637
X-36.864 Y-26.607
X-36.367 Y-26.555
X-35.884 Y-26.429
X-35.425 Y-26.231
X-35.001 Y-25.967
X-34.621 Y-25.641
X-31.617 Y-22.637
G3 X-31.287 Y-21.938 I-0.929 J0.866
G1 X-31.268 Y-21.797 Z9.008
X-31.25 Y-21.658 Z9.032
X-31.232 Y-21.522 Z9.071
X-31.215 Y-21.392 Z9.126
X-31.198 Y-21.268 Z9.195
X-31.183 Y-21.153 Z9.277
X-31.169 Y-21.048 Z9.372
X-31.156 Y-20.954 Z9.478
X-31.146 Y-20.872 Z9.594
X-31.136 Y-20.804 Z9.719
X-31.129 Y-20.75 Z9.851
X-31.124 Y-20.711 Z9.987
X-31.121 Y-20.687 Z10.128
X-31.12 Y-20.679 Z10.27
G0 Z23
X-369.716 Y-20.072
Z11.54
G1 Z10.27 F849.6
X-369.714 Y-20.08 Z10.128
X-369.709 Y-20.103 Z9.987
X-369.699 Y-20.141 Z9.851
X-369.685 Y-20.194 Z9.719
X-369.668 Y-20.261 Z9.594
X-369.648 Y-20.341 Z9.478
X-369.625 Y-20.433 Z9.372
X-369.599 Y-20.536 Z9.277
X-369.57 Y-20.648 Z9.195
X-369.539 Y-20.769 Z9.126
X-369.507 Y-20.897 Z9.071
X-369.473 Y-21.029 Z9.032
X-369.439 Y-21.165 Z9.008
X-369.404 Y-21.303 Z9
G3 X-369.027 Y-21.993 I1.534 J0.39
G1 X-365.982 Y-25.037
X-365.57 Y-25.41
X-365.262 Y-25.66
X-364.873 Y-25.942
X-364.437 Y-26.223
X-363.894 Y-26.533
X-363.274 Y-26.843
X-362.513 Y-27.174
X-361.588 Y-27.518
X-360.45 Y-27.872
X-359.197 Y-28.188
X-357.931 Y-28.445
X-356.656 Y-28.655
X-355.376 Y-28.828
X-354.092 Y-28.97
X-352.805 Y-29.087
X-351.516 Y-29.183
X-350.227 Y-29.263
X-348.936 Y-29.329
X-347.646 Y-29.384
X-346.354 Y-29.429
X-345.063 Y-29.467
X-343.771 Y-29.498
X-342.479 Y-29.524
X-341.187 Y-29.545
X-339.896 Y-29.563
X-338.604 Y-29.578
X-337.312 Y-29.59
X-336.02 Y-29.601
X-334.728 Y-29.609
X-333.435 Y-29.616
X-330.851 Y-29.627
X-328.267 Y-29.634
X-324.391 Y-29.641
X-319.223 Y-29.646
X-316.639 Y-29.647
X-305.01 Y-29.65
X-266.249
X-215.859
X-165.468
X-115.078
X-64.688
X-45.307
X-44.015 Y-29.649
X-42.723 Y-29.647
X-41.431 Y-29.641
X-40.139 Y-29.619
X-39.755 Y-29.596
X-39.28 Y-29.534
X-38.819 Y-29.403
X-38.382 Y-29.206
X-37.978 Y-28.949
X-37.616 Y-28.636
X-34.621 Y-25.641
G3 X-34.291 Y-24.942 I-0.929 J0.866
G1 X-34.273 Y-24.801 Z9.008
X-34.254 Y-24.662 Z9.032
X-34.236 Y-24.527 Z9.071
X-34.219 Y-24.396 Z9.126
X-34.202 Y-24.273 Z9.195
X-34.187 Y-24.157 Z9.277
X-34.173 Y-24.052 Z9.372
X-34.161 Y-23.958 Z9.478
X-34.15 Y-23.876 Z9.594
X-34.141 Y-23.808 Z9.719
X-34.134 Y-23.754 Z9.851
X-34.128 Y-23.715 Z9.987
X-34.125 Y-23.691 Z10.128
X-34.124 Y-23.683 Z10.27
G0 Z23
X-366.672 Y-23.117
Z11.54
G1 Z10.27 F849.6
X-366.67 Y-23.125 Z10.128
X-366.664 Y-23.148 Z9.987
X-366.654 Y-23.186 Z9.851
X-366.641 Y-23.239 Z9.719
X-366.624 Y-23.306 Z9.594
X-366.603 Y-23.386 Z9.478
X-366.58 Y-23.478 Z9.372
X-366.554 Y-23.581 Z9.277
X-366.525 Y-23.693 Z9.195
X-366.494 Y-23.814 Z9.126
X-366.462 Y-23.942 Z9.071
X-366.428 Y-24.074 Z9.032
X-366.394 Y-24.21 Z9.008
X-366.359 Y-24.348 Z9
G3 X-365.982 Y-25.037 I1.534 J0.39
G1 X-362.938 Y-28.082
X-362.582 Y-28.403
X-362.274 Y-28.653
X-361.885 Y-28.935
X-361.448 Y-29.217
X-360.905 Y-29.527
X-360.284 Y-29.838
X-359.522 Y-30.169
X-358.596 Y-30.513
X-357.457 Y-30.867
X-356.204 Y-31.184
X-354.938 Y-31.441
X-353.663 Y-31.651
X-352.383 Y-31.824
X-351.098 Y-31.966
X-349.812 Y-32.083
X-348.523 Y-32.18
X-347.234 Y-32.26
X-345.943 Y-32.326
X-344.652 Y-32.381
X-343.361 Y-32.427
X-342.07 Y-32.465
X-340.778 Y-32.496
X-339.486 Y-32.522
X-338.194 Y-32.544
X-336.902 Y-32.562
X-335.61 Y-32.577
X-334.318 Y-32.589
X-333.026 Y-32.6
X-331.734 Y-32.608
X-330.442 Y-32.615
X-329.15 Y-32.621
X-326.566 Y-32.63
X-323.982 Y-32.636
X-320.106 Y-32.642
X-314.938 Y-32.646
X-313.646 Y-32.647
X-303.309 Y-32.649
X-263.255 Y-32.65
X-212.865
X-162.475
X-112.085
X-61.695
X-47.482 Y-32.649
X-46.19 Y-32.648
X-44.898 Y-32.644
X-43.606 Y-32.631
X-42.823 Y-32.601
X-42.334 Y-32.545
X-41.858 Y-32.418
X-41.407 Y-32.22
X-40.99 Y-31.958
X-40.617 Y-31.637
X-37.616 Y-28.636
G3 X-37.286 Y-27.937 I-0.929 J0.866
G1 X-37.267 Y-27.796 Z9.008
X-37.249 Y-27.657 Z9.032
X-37.231 Y-27.521 Z9.071
X-37.213 Y-27.391 Z9.126
X-37.197 Y-27.267 Z9.195
X-37.182 Y-27.152 Z9.277
X-37.168 Y-27.047 Z9.372
X-37.155 Y-26.952 Z9.478
X-37.144 Y-26.871 Z9.594
X-37.135 Y-26.802 Z9.719
X-37.128 Y-26.748 Z9.851
X-37.123 Y-26.709 Z9.987
X-37.12 Y-26.686 Z10.128
X-37.119 Y-26.678 Z10.27
G0 Z23
X-363.627 Y-26.162
Z11.54
G1 Z10.27 F849.6
X-363.625 Y-26.17 Z10.128
X-363.619 Y-26.193 Z9.987
X-363.609 Y-26.231 Z9.851
X-363.596 Y-26.284 Z9.719
X-363.579 Y-26.351 Z9.594
X-363.559 Y-26.431 Z9.478
X-363.535 Y-26.523 Z9.372
X-363.509 Y-26.625 Z9.277
X-363.48 Y-26.738 Z9.195
X-363.45 Y-26.859 Z9.126
X-363.417 Y-26.986 Z9.071
X-363.383 Y-27.119 Z9.032
X-363.349 Y-27.255 Z9.008
X-363.314 Y-27.393 Z9
G3 X-362.938 Y-28.082 I1.534 J0.39
G1 X-359.893 Y-31.127
X-359.593 Y-31.398
X-359.284 Y-31.648
X-358.895 Y-31.93
X-358.458 Y-32.212
X-357.914 Y-32.523
X-357.293 Y-32.834
X-356.531 Y-33.165
X-355.604 Y-33.509
X-354.463 Y-33.864
X-353.21 Y-34.181
X-351.944 Y-34.438
X-350.669 Y-34.648
X-349.389 Y-34.821
X-348.105 Y-34.963
X-346.818 Y-35.081
X-345.53 Y-35.178
X-344.24 Y-35.258
X-342.95 Y-35.324
X-341.659 Y-35.379
X-340.368 Y-35.425
X-339.076 Y-35.463
X-337.784 Y-35.495
X-336.493 Y-35.521
X-335.201 Y-35.543
X-333.909 Y-35.561
X-332.617 Y-35.576
X-331.325 Y-35.589
X-330.033 Y-35.599
X-328.741 Y-35.608
X-327.449 Y-35.615
X-326.157 Y-35.621
X-323.573 Y-35.63
X-320.989 Y-35.636
X-317.112 Y-35.642
X-311.944 Y-35.646
X-310.652 Y-35.647
X-300.316 Y-35.649
X-260.262 Y-35.65
X-209.872
X-159.482
X-109.092
X-58.702
X-50.949
X-49.657 Y-35.649
X-48.365 Y-35.646
X-47.073 Y-35.638
X-45.781 Y-35.606
X-45.704 Y-35.6
X-45.241 Y-35.531
X-44.793 Y-35.398
X-44.369 Y-35.202
X-43.976 Y-34.949
X-43.623 Y-34.643
X-40.617 Y-31.637
G3 X-40.287 Y-30.938 I-0.929 J0.866
G1 X-40.268 Y-30.797 Z9.008
X-40.25 Y-30.658 Z9.032
X-40.232 Y-30.522 Z9.071
X-40.215 Y-30.392 Z9.126
X-40.198 Y-30.268 Z9.195
X-40.183 Y-30.153 Z9.277
X-40.169 Y-30.048 Z9.372
X-40.156 Y-29.954 Z9.478
X-40.146 Y-29.872 Z9.594
X-40.136 Y-29.804 Z9.719
X-40.129 Y-29.75 Z9.851
X-40.124 Y-29.711 Z9.987
X-40.121 Y-29.687 Z10.128
X-40.12 Y-29.679 Z10.27
G0 Z23
X-360.582 Y-29.207
Z11.54
G1 Z10.27 F849.6
X-360.58 Y-29.215 Z10.128
X-360.574 Y-29.238 Z9.987
X-360.564 Y-29.276 Z9.851
X-360.551 Y-29.329 Z9.719
X-360.534 Y-29.396 Z9.594
X-360.514 Y-29.475 Z9.478
X-360.49 Y-29.567 Z9.372
X-360.464 Y-29.67 Z9.277
X-360.436 Y-29.783 Z9.195
X-360.405 Y-29.904 Z9.126
X-360.372 Y-30.031 Z9.071
X-360.339 Y-30.164 Z9.032
X-360.304 Y-30.3 Z9.008
X-360.269 Y-30.438 Z9
G3 X-359.893 Y-31.127 I1.534 J0.39
G1 X-357.05 Y-33.97
X-356.574 Y-34.4
X-356.266 Y-34.65
X-355.877 Y-34.932
X-355.441 Y-35.213
X-354.898 Y-35.523
X-354.277 Y-35.834
X-353.517 Y-36.164
X-352.59 Y-36.508
X-351.451 Y-36.863
X-350.198 Y-37.179
X-348.932 Y-37.437
X-347.657 Y-37.647
X-346.376 Y-37.82
X-345.092 Y-37.962
X-343.805 Y-38.079
X-342.517 Y-38.176
X-341.228 Y-38.257
X-339.937 Y-38.323
X-338.646 Y-38.378
X-337.355 Y-38.424
X-336.064 Y-38.462
X-334.772 Y-38.494
X-333.48 Y-38.52
X-332.188 Y-38.542
X-330.896 Y-38.56
X-329.604 Y-38.575
X-328.312 Y-38.588
X-327.02 Y-38.598
X-325.728 Y-38.607
X-324.436 Y-38.614
X-323.144 Y-38.62
X-320.56 Y-38.63
X-317.976 Y-38.636
X-314.1 Y-38.642
X-308.932 Y-38.646
X-307.64 Y-38.647
X-297.303 Y-38.649
X-257.249 Y-38.65
X-206.859
X-156.469
X-106.079
X-55.689
X-53.105 Y-38.649
X-51.813 Y-38.648
X-50.521 Y-38.642
X-49.229 Y-38.624
X-48.776 Y-38.6
X-48.297 Y-38.539
X-47.832 Y-38.409
X-47.391 Y-38.213
X-46.984 Y-37.954
X-46.619 Y-37.638
X-43.623 Y-34.643
G3 X-43.293 Y-33.944 I-0.929 J0.866
G1 X-43.274 Y-33.803 Z9.008
X-43.256 Y-33.664 Z9.032
X-43.238 Y-33.528 Z9.071
X-43.22 Y-33.398 Z9.126
X-43.204 Y-33.274 Z9.195
X-43.189 Y-33.159 Z9.277
X-43.175 Y-33.054 Z9.372
X-43.162 Y-32.96 Z9.478
X-43.151 Y-32.878 Z9.594
X-43.142 Y-32.81 Z9.719
X-43.135 Y-32.756 Z9.851
X-43.13 Y-32.717 Z9.987
X-43.127 Y-32.693 Z10.128
X-43.126 Y-32.685 Z10.27
G0 Z23
X-357.739 Y-32.05
Z11.54
G1 Z10.27 F849.6
X-357.737 Y-32.058 Z10.128
X-357.731 Y-32.081 Z9.987
X-357.721 Y-32.119 Z9.851
X-357.708 Y-32.172 Z9.719
X-357.691 Y-32.239 Z9.594
X-357.671 Y-32.318 Z9.478
X-357.647 Y-32.41 Z9.372
X-357.621 Y-32.513 Z9.277
X-357.593 Y-32.626 Z9.195
X-357.562 Y-32.747 Z9.126
X-357.529 Y-32.874 Z9.071
X-357.496 Y-33.007 Z9.032
X-357.461 Y-33.143 Z9.008
X-357.426 Y-33.281 Z9
G3 X-357.05 Y-33.97 I1.534 J0.39
G1 X-354.004 Y-37.016
X-353.586 Y-37.394
X-353.277 Y-37.644
X-352.888 Y-37.926
X-352.451 Y-38.208
X-351.907 Y-38.518
X-351.285 Y-38.83
X-350.523 Y-39.161
X-349.596 Y-39.506
X-348.454 Y-39.861
X-347.202 Y-40.177
X-345.936 Y-40.434
X-344.661 Y-40.645
X-343.38 Y-40.818
X-342.096 Y-40.96
X-340.809 Y-41.078
X-339.521 Y-41.175
X-338.232 Y-41.255
X-336.941 Y-41.322
X-335.65 Y-41.377
X-334.359 Y-41.423
X-333.068 Y-41.461
X-331.776 Y-41.493
X-330.484 Y-41.519
X-329.192 Y-41.541
X-327.9 Y-41.56
X-326.608 Y-41.575
X-325.316 Y-41.587
X-324.024 Y-41.598
X-322.732 Y-41.607
X-321.44 Y-41.614
X-320.148 Y-41.62
X-317.564 Y-41.629
X-314.98 Y-41.636
X-311.104 Y-41.642
X-305.936 Y-41.646
X-304.644 Y-41.647
X-294.307 Y-41.649
X-254.254 Y-41.65
X-203.863
X-153.473
X-103.083
X-56.569 Y-41.649
X-55.277 Y-41.648
X-53.985 Y-41.645
X-52.693 Y-41.634
X-51.538 Y-41.593
X-51.135 Y-41.528
X-50.745 Y-41.408
X-50.375 Y-41.235
X-50.033 Y-41.013
X-49.725 Y-40.745
X-46.619 Y-37.638
G3 X-46.288 Y-36.939 I-0.929 J0.866
G1 X-46.27 Y-36.798 Z9.008
X-46.251 Y-36.659 Z9.032
X-46.233 Y-36.524 Z9.071
X-46.216 Y-36.393 Z9.126
X-46.199 Y-36.27 Z9.195
X-46.184 Y-36.154 Z9.277
X-46.17 Y-36.049 Z9.372
X-46.158 Y-35.955 Z9.478
X-46.147 Y-35.873 Z9.594
X-46.138 Y-35.805 Z9.719
X-46.131 Y-35.751 Z9.851
X-46.125 Y-35.712 Z9.987
X-46.122 Y-35.688 Z10.128
X-46.121 Y-35.68 Z10.27
G0 Z23
X-354.693 Y-35.096
Z11.54
G1 Z10.27 F849.6
X-354.691 Y-35.103 Z10.128
X-354.685 Y-35.127 Z9.987
X-354.676 Y-35.165 Z9.851
X-354.662 Y-35.218 Z9.719
X-354.645 Y-35.284 Z9.594
X-354.625 Y-35.364 Z9.478
X-354.601 Y-35.456 Z9.372
X-354.575 Y-35.559 Z9.277
X-354.547 Y-35.672 Z9.195
X-354.516 Y-35.792 Z9.126
X-354.484 Y-35.92 Z9.071
X-354.45 Y-36.053 Z9.032
X-354.415 Y-36.189 Z9.008
X-354.38 Y-36.327 Z9
G3 X-354.004 Y-37.016 I1.534 J0.39
G1 X-350.958 Y-40.062
X-350.594 Y-40.391
X-350.286 Y-40.641
X-349.896 Y-40.923
X-349.459 Y-41.205
X-348.915 Y-41.516
X-348.292 Y-41.827
X-347.53 Y-42.159
X-346.602 Y-42.503
X-345.46 Y-42.859
X-344.207 Y-43.175
X-342.941 Y-43.432
X-341.666 Y-43.643
X-340.386 Y-43.816
X-339.102 Y-43.958
X-337.815 Y-44.076
X-336.527 Y-44.173
X-335.237 Y-44.254
X-333.947 Y-44.321
X-332.656 Y-44.376
X-331.365 Y-44.422
X-330.073 Y-44.46
X-328.781 Y-44.492
X-327.49 Y-44.519
X-326.198 Y-44.541
X-324.906 Y-44.559
X-323.614 Y-44.574
X-322.322 Y-44.587
X-321.03 Y-44.597
X-319.738 Y-44.606
X-318.446 Y-44.614
X-317.154 Y-44.62
X-314.57 Y-44.629
X-311.986 Y-44.636
X-308.109 Y-44.642
X-302.941 Y-44.646
X-301.649 Y-44.647
X-291.313 Y-44.649
X-251.259 Y-44.65
X-200.869
X-150.479
X-100.089
X-60.035
X-58.743 Y-44.649
X-57.451 Y-44.647
X-56.159 Y-44.639
X-54.867 Y-44.615
X-54.739 Y-44.606
X-54.27 Y-44.541
X-53.815 Y-44.408
X-53.384 Y-44.213
X-52.985 Y-43.957
X-52.627 Y-43.647
X-49.725 Y-40.745
G3 X-49.395 Y-40.046 I-0.929 J0.866
G1 X-49.376 Y-39.905 Z9.008
X-49.358 Y-39.766 Z9.032
X-49.34 Y-39.63 Z9.071
X-49.323 Y-39.5 Z9.126
X-49.306 Y-39.376 Z9.195
X-49.291 Y-39.261 Z9.277
X-49.277 Y-39.156 Z9.372
X-49.264 Y-39.062 Z9.478
X-49.254 Y-38.98 Z9.594
X-49.244 Y-38.912 Z9.719
X-49.237 Y-38.858 Z9.851
X-49.232 Y-38.819 Z9.987
X-49.229 Y-38.795 Z10.128
X-49.228 Y-38.787 Z10.27
G0 Z23
X-351.647 Y-38.142
Z11.54
G1 Z10.27 F849.6
X-351.645 Y-38.149 Z10.128
X-351.639 Y-38.172 Z9.987
X-351.63 Y-38.211 Z9.851
X-351.616 Y-38.263 Z9.719
X-351.599 Y-38.33 Z9.594
X-351.579 Y-38.41 Z9.478
X-351.556 Y-38.502 Z9.372
X-351.53 Y-38.605 Z9.277
X-351.501 Y-38.718 Z9.195
X-351.47 Y-38.838 Z9.126
X-351.438 Y-38.966 Z9.071
X-351.404 Y-39.098 Z9.032
X-351.369 Y-39.235 Z9.008
X-351.334 Y-39.372 Z9
G3 X-350.958 Y-40.062 I1.534 J0.39
G1 X-348.094 Y-42.926
X-347.577 Y-43.394
X-347.269 Y-43.643
X-346.879 Y-43.925
X-346.443 Y-44.207
X-345.9 Y-44.517
X-345.278 Y-44.828
X-344.517 Y-45.159
X-343.59 Y-45.503
X-342.449 Y-45.858
X-341.196 Y-46.175
X-339.93 Y-46.432
X-338.655 Y-46.643
X-337.374 Y-46.816
X-336.09 Y-46.958
X-334.804 Y-47.076
X-333.515 Y-47.173
X-332.226 Y-47.253
X-330.935 Y-47.32
X-329.644 Y-47.376
X-328.353 Y-47.422
X-327.062 Y-47.46
X-325.77 Y-47.492
X-324.478 Y-47.518
X-323.186 Y-47.54
X-321.894 Y-47.559
X-320.603 Y-47.574
X-319.311 Y-47.587
X-318.018 Y-47.597
X-316.726 Y-47.606
X-315.434 Y-47.613
X-314.142 Y-47.62
X-311.558 Y-47.629
X-308.974 Y-47.635
X-305.098 Y-47.642
X-299.93 Y-47.646
X-298.638 Y-47.647
X-288.301 Y-47.649
X-248.248 Y-47.65
X-197.858
X-147.467
X-97.077
X-63.484
X-62.192 Y-47.649
X-60.9 Y-47.648
X-59.608 Y-47.643
X-58.316 Y-47.628
X-57.791 Y-47.602
X-57.31 Y-47.543
X-56.842 Y-47.413
X-56.398 Y-47.217
X-55.988 Y-46.957
X-55.62 Y-46.64
X-52.627 Y-43.647
G3 X-52.297 Y-42.948 I-0.929 J0.866
G1 X-52.279 Y-42.807 Z9.008
X-52.26 Y-42.668 Z9.032
X-52.242 Y-42.532 Z9.071
X-52.225 Y-42.402 Z9.126
X-52.208 Y-42.278 Z9.195
X-52.193 Y-42.163 Z9.277
X-52.179 Y-42.058 Z9.372
X-52.166 Y-41.964 Z9.478
X-52.156 Y-41.882 Z9.594
X-52.147 Y-41.814 Z9.719
X-52.139 Y-41.76 Z9.851
X-52.134 Y-41.721 Z9.987
X-52.131 Y-41.697 Z10.128
X-52.13 Y-41.689 Z10.27
G0 Z23
X-348.783 Y-41.006
Z11.54
G1 Z10.27 F849.6
X-348.781 Y-41.013 Z10.128
X-348.775 Y-41.036 Z9.987
X-348.766 Y-41.075 Z9.851
X-348.752 Y-41.127 Z9.719
X-348.735 Y-41.194 Z9.594
X-348.715 Y-41.274 Z9.478
X-348.692 Y-41.366 Z9.372
X-348.665 Y-41.469 Z9.277
X-348.637 Y-41.582 Z9.195
X-348.606 Y-41.702 Z9.126
X-348.574 Y-41.83 Z9.071
X-348.54 Y-41.963 Z9.032
X-348.505 Y-42.099 Z9.008
X-348.47 Y-42.236 Z9
G3 X-348.094 Y-42.926 I1.534 J0.39
G1 X-345.049 Y-45.971
X-344.587 Y-46.389
X-344.278 Y-46.639
X-343.889 Y-46.921
X-343.451 Y-47.203
X-342.907 Y-47.514
X-342.285 Y-47.825
X-341.522 Y-48.157
X-340.594 Y-48.502
X-339.452 Y-48.857
X-338.199 Y-49.173
X-336.933 Y-49.431
X-335.658 Y-49.641
X-334.378 Y-49.814
X-333.094 Y-49.957
X-331.807 Y-50.074
X-330.519 Y-50.172
X-329.229 Y-50.252
X-327.939 Y-50.319
X-326.648 Y-50.375
X-325.357 Y-50.421
X-324.065 Y-50.459
X-322.774 Y-50.491
X-321.482 Y-50.518
X-320.19 Y-50.54
X-318.898 Y-50.558
X-317.606 Y-50.574
X-316.314 Y-50.586
X-315.022 Y-50.597
X-313.73 Y-50.606
X-312.438 Y-50.613
X-311.146 Y-50.619
X-308.562 Y-50.629
X-305.978 Y-50.635
X-302.102 Y-50.642
X-296.933 Y-50.646
X-295.641 Y-50.647
X-285.305 Y-50.649
X-245.251 Y-50.65
X-194.861
X-144.471
X-94.081
X-65.656
X-64.364 Y-50.649
X-63.072 Y-50.646
X-61.78 Y-50.635
X-60.847 Y-50.605
X-60.353 Y-50.552
X-59.873 Y-50.425
X-59.418 Y-50.228
X-58.997 Y-49.964
X-58.621 Y-49.64
X-55.62 Y-46.64
G3 X-55.29 Y-45.941 I-0.929 J0.866
G1 X-55.271 Y-45.8 Z9.008
X-55.253 Y-45.661 Z9.032
X-55.235 Y-45.525 Z9.071
X-55.217 Y-45.395 Z9.126
X-55.201 Y-45.271 Z9.195
X-55.186 Y-45.156 Z9.277
X-55.172 Y-45.051 Z9.372
X-55.159 Y-44.957 Z9.478
X-55.148 Y-44.875 Z9.594
X-55.139 Y-44.807 Z9.719
X-55.132 Y-44.753 Z9.851
X-55.127 Y-44.714 Z9.987
X-55.124 Y-44.69 Z10.128
X-55.123 Y-44.682 Z10.27
G0 Z23
X-345.738 Y-44.05
Z11.54
G1 Z10.27 F849.6
X-345.736 Y-44.058 Z10.128
X-345.731 Y-44.081 Z9.987
X-345.721 Y-44.12 Z9.851
X-345.707 Y-44.172 Z9.719
X-345.69 Y-44.239 Z9.594
X-345.67 Y-44.319 Z9.478
X-345.647 Y-44.411 Z9.372
X-345.621 Y-44.514 Z9.277
X-345.592 Y-44.626 Z9.195
X-345.561 Y-44.747 Z9.126
X-345.529 Y-44.875 Z9.071
X-345.495 Y-45.007 Z9.032
X-345.461 Y-45.143 Z9.008
X-345.425 Y-45.281 Z9
G3 X-345.049 Y-45.971 I1.534 J0.39
G1 X-342.004 Y-49.015
X-341.594 Y-49.387
X-341.285 Y-49.637
X-340.896 Y-49.919
X-340.458 Y-50.201
X-339.914 Y-50.512
X-339.291 Y-50.824
X-338.528 Y-51.155
X-337.6 Y-51.5
X-336.457 Y-51.856
X-335.204 Y-52.172
X-333.938 Y-52.43
X-332.663 Y-52.64
X-331.383 Y-52.813
X-330.099 Y-52.956
X-328.812 Y-53.074
X-327.524 Y-53.171
X-326.234 Y-53.252
X-324.944 Y-53.319
X-323.653 Y-53.374
X-322.362 Y-53.42
X-321.07 Y-53.459
X-319.779 Y-53.491
X-318.487 Y-53.517
X-317.195 Y-53.539
X-315.903 Y-53.558
X-314.611 Y-53.573
X-313.319 Y-53.586
X-312.027 Y-53.597
X-310.735 Y-53.606
X-309.443 Y-53.613
X-308.151 Y-53.619
X-305.567 Y-53.629
X-302.983 Y-53.635
X-299.107 Y-53.641
X-293.938 Y-53.646
X-292.646 Y-53.647
X-282.31 Y-53.649
X-242.256 Y-53.65
X-191.866
X-141.476
X-91.086
X-69.121
X-67.829 Y-53.649
X-66.537 Y-53.647
X-65.245 Y-53.64
X-63.953 Y-53.613
X-63.728 Y-53.598
X-63.26 Y-53.532
X-62.806 Y-53.4
X-62.375 Y-53.204
X-61.977 Y-52.949
X-61.619 Y-52.639
X-58.621 Y-49.64
G3 X-58.291 Y-48.941 I-0.929 J0.866
G1 X-58.272 Y-48.801 Z9.008
X-58.253 Y-48.661 Z9.032
X-58.235 Y-48.526 Z9.071
X-58.218 Y-48.395 Z9.126
X-58.202 Y-48.272 Z9.195
X-58.186 Y-48.157 Z9.277
X-58.172 Y-48.051 Z9.372
X-58.16 Y-47.957 Z9.478
X-58.149 Y-47.875 Z9.594
X-58.14 Y-47.807 Z9.719
X-58.133 Y-47.753 Z9.851
X-58.127 Y-47.714 Z9.987
X-58.124 Y-47.69 Z10.128
X-58.123 Y-47.683 Z10.27
G0 Z23
X-342.694 Y-47.095
Z11.54
G1 Z10.27 F849.6
X-342.692 Y-47.103 Z10.128
X-342.686 Y-47.126 Z9.987
X-342.676 Y-47.164 Z9.851
X-342.663 Y-47.217 Z9.719
X-342.646 Y-47.284 Z9.594
X-342.625 Y-47.364 Z9.478
X-342.602 Y-47.456 Z9.372
X-342.576 Y-47.559 Z9.277
X-342.547 Y-47.671 Z9.195
X-342.516 Y-47.792 Z9.126
X-342.484 Y-47.92 Z9.071
X-342.45 Y-48.052 Z9.032
X-342.416 Y-48.188 Z9.008
X-342.381 Y-48.326 Z9
G3 X-342.004 Y-49.015 I1.534 J0.39
G1 X-338.959 Y-52.06
X-338.6 Y-52.385
X-338.292 Y-52.635
X-337.902 Y-52.917
X-337.464 Y-53.2
X-336.92 Y-53.511
X-336.297 Y-53.822
X-335.534 Y-54.154
X-334.605 Y-54.499
X-333.462 Y-54.855
X-332.209 Y-55.171
X-330.943 Y-55.429
X-329.668 Y-55.639
X-328.388 Y-55.812
X-327.104 Y-55.955
X-325.817 Y-56.073
X-324.529 Y-56.17
X-323.239 Y-56.251
X-321.949 Y-56.318
X-320.658 Y-56.374
X-319.367 Y-56.42
X-318.075 Y-56.458
X-316.784 Y-56.49
X-315.492 Y-56.517
X-314.2 Y-56.539
X-312.908 Y-56.558
X-311.616 Y-56.573
X-310.324 Y-56.586
X-309.032 Y-56.596
X-307.74 Y-56.605
X-306.448 Y-56.613
X-305.156 Y-56.619
X-302.572 Y-56.628
X-299.988 Y-56.635
X-296.112 Y-56.641
X-290.944 Y-56.646
X-289.651 Y-56.647
X-279.315 Y-56.649
X-239.261 Y-56.65
X-188.871
X-138.481
X-88.091
X-71.294 Y-56.649
X-70.002 Y-56.648
X-68.71 Y-56.643
X-67.418 Y-56.629
X-66.801 Y-56.6
X-66.316 Y-56.542
X-65.846 Y-56.413
X-65.399 Y-56.216
X-64.987 Y-55.956
X-64.618 Y-55.637
X-61.619 Y-52.639
G3 X-61.289 Y-51.94 I-0.929 J0.866
G1 X-61.27 Y-51.799 Z9.008
X-61.252 Y-51.66 Z9.032
X-61.234 Y-51.524 Z9.071
X-61.216 Y-51.394 Z9.126
X-61.2 Y-51.27 Z9.195
X-61.185 Y-51.155 Z9.277
X-61.171 Y-51.05 Z9.372
X-61.158 Y-50.956 Z9.478
X-61.147 Y-50.874 Z9.594
X-61.138 Y-50.806 Z9.719
X-61.131 Y-50.752 Z9.851
X-61.126 Y-50.713 Z9.987
X-61.123 Y-50.689 Z10.128
X-61.122 Y-50.681 Z10.27
G0 Z23
X-339.649 Y-50.14
Z11.54
G1 Z10.27 F849.6
X-339.647 Y-50.148 Z10.128
X-339.641 Y-50.171 Z9.987
X-339.631 Y-50.209 Z9.851
X-339.618 Y-50.262 Z9.719
X-339.601 Y-50.329 Z9.594
X-339.58 Y-50.409 Z9.478
X-339.557 Y-50.501 Z9.372
X-339.531 Y-50.604 Z9.277
X-339.502 Y-50.716 Z9.195
X-339.472 Y-50.837 Z9.126
X-339.439 Y-50.964 Z9.071
X-339.405 Y-51.097 Z9.032
X-339.371 Y-51.233 Z9.008
X-339.336 Y-51.371 Z9
G3 X-338.959 Y-52.06 I1.534 J0.39
G1 X-335.915 Y-55.105
X-335.606 Y-55.384
X-335.298 Y-55.634
X-334.908 Y-55.916
X-334.47 Y-56.199
X-333.925 Y-56.51
X-333.303 Y-56.821
X-332.54 Y-57.153
X-331.61 Y-57.498
X-330.467 Y-57.854
X-329.214 Y-58.17
X-327.948 Y-58.428
X-326.674 Y-58.639
X-325.393 Y-58.812
X-324.109 Y-58.954
X-322.822 Y-59.072
X-321.534 Y-59.17
X-320.244 Y-59.25
X-318.954 Y-59.317
X-317.663 Y-59.373
X-316.372 Y-59.419
X-315.081 Y-59.458
X-313.789 Y-59.49
X-312.497 Y-59.517
X-311.205 Y-59.539
X-309.913 Y-59.557
X-308.621 Y-59.573
X-307.329 Y-59.586
X-306.037 Y-59.596
X-304.745 Y-59.605
X-303.453 Y-59.613
X-302.161 Y-59.619
X-299.577 Y-59.628
X-296.993 Y-59.635
X-293.117 Y-59.641
X-287.949 Y-59.646
X-286.657 Y-59.647
X-276.32 Y-59.649
X-236.266 Y-59.65
X-185.876
X-135.486
X-85.096
X-74.76
X-73.468 Y-59.649
X-72.176 Y-59.646
X-70.884 Y-59.636
X-69.856 Y-59.606
X-69.361 Y-59.553
X-68.879 Y-59.427
X-68.421 Y-59.229
X-67.999 Y-58.965
X-67.621 Y-58.64
X-64.618 Y-55.637
G3 X-64.287 Y-54.938 I-0.929 J0.866
G1 X-64.269 Y-54.797 Z9.008
X-64.25 Y-54.658 Z9.032
X-64.232 Y-54.523 Z9.071
X-64.215 Y-54.392 Z9.126
X-64.198 Y-54.269 Z9.195
X-64.183 Y-54.153 Z9.277
X-64.169 Y-54.048 Z9.372
X-64.157 Y-53.954 Z9.478
X-64.146 Y-53.872 Z9.594
X-64.137 Y-53.804 Z9.719
X-64.13 Y-53.75 Z9.851
X-64.124 Y-53.711 Z9.987
X-64.121 Y-53.687 Z10.128
X-64.12 Y-53.679 Z10.27
G0 Z23
X-336.604 Y-53.185
Z11.54
G1 Z10.27 F849.6
X-336.602 Y-53.193 Z10.128
X-336.596 Y-53.216 Z9.987
X-336.586 Y-53.254 Z9.851
X-336.573 Y-53.307 Z9.719
X-336.556 Y-53.374 Z9.594
X-336.536 Y-53.453 Z9.478
X-336.512 Y-53.545 Z9.372
X-336.486 Y-53.648 Z9.277
X-336.457 Y-53.761 Z9.195
X-336.427 Y-53.882 Z9.126
X-336.394 Y-54.009 Z9.071
X-336.361 Y-54.142 Z9.032
X-336.326 Y-54.278 Z9.008
X-336.291 Y-54.416 Z9
G3 X-335.915 Y-55.105 I1.534 J0.39
G1 X-333.064 Y-57.956
X-332.585 Y-58.389
X-332.277 Y-58.639
X-331.888 Y-58.921
X-331.451 Y-59.202
X-330.908 Y-59.512
X-330.286 Y-59.824
X-329.524 Y-60.155
X-328.596 Y-60.5
X-327.454 Y-60.855
X-326.201 Y-61.171
X-324.935 Y-61.429
X-323.66 Y-61.639
X-322.38 Y-61.812
X-321.096 Y-61.955
X-319.809 Y-62.073
X-318.521 Y-62.17
X-317.231 Y-62.251
X-315.941 Y-62.318
X-314.65 Y-62.373
X-313.359 Y-62.419
X-312.067 Y-62.458
X-310.776 Y-62.49
X-309.484 Y-62.517
X-308.192 Y-62.539
X-306.9 Y-62.557
X-305.608 Y-62.573
X-304.316 Y-62.586
X-303.024 Y-62.596
X-301.732 Y-62.605
X-300.44 Y-62.613
X-299.148 Y-62.619
X-296.564 Y-62.628
X-293.98 Y-62.635
X-290.104 Y-62.641
X-284.936 Y-62.646
X-283.644
X-273.307 Y-62.649
X-233.253 Y-62.65
X-182.863
X-132.473
X-82.083
X-76.915 Y-62.649
X-75.623 Y-62.647
X-74.331 Y-62.64
X-73.039 Y-62.616
X-72.74 Y-62.597
X-72.269 Y-62.532
X-71.811 Y-62.4
X-71.378 Y-62.204
X-70.977 Y-61.948
X-70.617 Y-61.637
X-67.621 Y-58.64
G3 X-67.291 Y-57.942 I-0.929 J0.866
G1 X-67.272 Y-57.801 Z9.008
X-67.253 Y-57.661 Z9.032
X-67.235 Y-57.526 Z9.071
X-67.218 Y-57.395 Z9.126
X-67.202 Y-57.272 Z9.195
X-67.186 Y-57.157 Z9.277
X-67.172 Y-57.051 Z9.372
X-67.16 Y-56.957 Z9.478
X-67.149 Y-56.876 Z9.594
X-67.14 Y-56.807 Z9.719
X-67.133 Y-56.753 Z9.851
X-67.127 Y-56.714 Z9.987
X-67.124 Y-56.69 Z10.128
X-67.123 Y-56.683 Z10.27
G0 Z23
X-333.753 Y-56.036
Z11.54
G1 Z10.27 F849.6
X-333.751 Y-56.043 Z10.128
X-333.745 Y-56.067 Z9.987
X-333.736 Y-56.105 Z9.851
X-333.722 Y-56.158 Z9.719
X-333.705 Y-56.224 Z9.594
X-333.685 Y-56.304 Z9.478
X-333.662 Y-56.396 Z9.372
X-333.635 Y-56.499 Z9.277
X-333.607 Y-56.612 Z9.195
X-333.576 Y-56.732 Z9.126
X-333.544 Y-56.86 Z9.071
X-333.51 Y-56.993 Z9.032
X-333.475 Y-57.129 Z9.008
X-333.44 Y-57.266 Z9
G3 X-333.064 Y-57.956 I1.534 J0.39
G1 X-330.018 Y-61.002
X-329.594 Y-61.385
X-329.286 Y-61.635
X-328.897 Y-61.917
X-328.458 Y-62.2
X-327.914 Y-62.51
X-327.292 Y-62.822
X-326.529 Y-63.153
X-325.6 Y-63.499
X-324.457 Y-63.854
X-323.204 Y-64.17
X-321.938 Y-64.428
X-320.664 Y-64.639
X-319.383 Y-64.812
X-318.099 Y-64.954
X-316.812 Y-65.072
X-315.524 Y-65.169
X-314.234 Y-65.25
X-312.944 Y-65.317
X-311.653 Y-65.373
X-310.362 Y-65.419
X-309.071 Y-65.458
X-307.779 Y-65.49
X-306.487 Y-65.516
X-305.195 Y-65.539
X-303.903 Y-65.557
X-302.611 Y-65.573
X-301.319 Y-65.585
X-300.027 Y-65.596
X-298.735 Y-65.605
X-297.443 Y-65.613
X-296.151 Y-65.619
X-293.567 Y-65.628
X-290.983 Y-65.635
X-287.107 Y-65.641
X-281.939 Y-65.646
X-280.647
X-270.31 Y-65.649
X-230.257 Y-65.65
X-179.866
X-129.476
X-81.67
X-79.086 Y-65.648
X-77.794 Y-65.644
X-76.502 Y-65.63
X-75.811 Y-65.6
X-75.324 Y-65.543
X-74.851 Y-65.415
X-74.403 Y-65.218
X-73.988 Y-64.957
X-73.617 Y-64.637
X-70.617 Y-61.637
G3 X-70.287 Y-60.938 I-0.929 J0.866
G1 X-70.268 Y-60.797 Z9.008
X-70.25 Y-60.658 Z9.032
X-70.232 Y-60.522 Z9.071
X-70.214 Y-60.392 Z9.126
X-70.198 Y-60.268 Z9.195
X-70.183 Y-60.153 Z9.277
X-70.169 Y-60.048 Z9.372
X-70.156 Y-59.954 Z9.478
X-70.145 Y-59.872 Z9.594
X-70.136 Y-59.804 Z9.719
X-70.129 Y-59.75 Z9.851
X-70.124 Y-59.711 Z9.987
X-70.121 Y-59.687 Z10.128
X-70.12 Y-59.679 Z10.27
G0 Z23
X-330.707 Y-59.081
Z11.54
G1 Z10.27 F849.6
X-330.705 Y-59.089 Z10.128
X-330.7 Y-59.112 Z9.987
X-330.69 Y-59.151 Z9.851
X-330.676 Y-59.203 Z9.719
X-330.659 Y-59.27 Z9.594
X-330.639 Y-59.35 Z9.478
X-330.616 Y-59.442 Z9.372
X-330.59 Y-59.545 Z9.277
X-330.561 Y-59.657 Z9.195
X-330.53 Y-59.778 Z9.126
X-330.498 Y-59.906 Z9.071
X-330.464 Y-60.038 Z9.032
X-330.429 Y-60.174 Z9.008
X-330.394 Y-60.312 Z9
G3 X-330.018 Y-61.002 I1.534 J0.39
G1 X-326.972 Y-64.047
X-326.601 Y-64.383
X-326.292 Y-64.633
X-325.903 Y-64.916
X-325.465 Y-65.198
X-324.92 Y-65.509
X-324.298 Y-65.821
X-323.534 Y-66.152
X-322.605 Y-66.498
X-321.462 Y-66.853
X-320.209 Y-67.17
X-318.943 Y-67.427
X-317.668 Y-67.638
X-316.388 Y-67.811
X-315.104 Y-67.954
X-313.817 Y-68.072
X-312.529 Y-68.169
X-311.239 Y-68.25
X-309.949 Y-68.317
X-308.658 Y-68.373
X-307.367 Y-68.419
X-306.075 Y-68.457
X-304.784 Y-68.489
X-303.492 Y-68.516
X-302.2 Y-68.538
X-300.908 Y-68.557
X-299.616 Y-68.572
X-298.324 Y-68.585
X-297.032 Y-68.596
X-295.74 Y-68.605
X-294.448 Y-68.612
X-293.156 Y-68.619
X-290.572 Y-68.628
X-287.988 Y-68.635
X-284.112 Y-68.641
X-278.943 Y-68.646
X-277.651
X-267.315 Y-68.649
X-227.261 Y-68.65
X-176.871
X-126.481
X-83.843
X-82.551 Y-68.649
X-81.259 Y-68.646
X-79.967 Y-68.637
X-78.864 Y-68.606
X-78.367 Y-68.555
X-77.884 Y-68.429
X-77.424 Y-68.231
X-77.001 Y-67.967
X-76.621 Y-67.641
X-73.617 Y-64.637
G3 X-73.287 Y-63.938 I-0.929 J0.866
G1 X-73.268 Y-63.797 Z9.008
X-73.25 Y-63.658 Z9.032
X-73.232 Y-63.522 Z9.071
X-73.214 Y-63.392 Z9.126
X-73.198 Y-63.268 Z9.195
X-73.183 Y-63.153 Z9.277
X-73.169 Y-63.048 Z9.372
X-73.156 Y-62.954 Z9.478
X-73.145 Y-62.872 Z9.594
X-73.136 Y-62.804 Z9.719
X-73.129 Y-62.75 Z9.851
X-73.124 Y-62.711 Z9.987
X-73.121 Y-62.687 Z10.128
X-73.12 Y-62.679 Z10.27
G0 Z23
X-327.662 Y-62.127
Z11.54
G1 Z10.27 F849.6
X-327.66 Y-62.135 Z10.128
X-327.654 Y-62.158 Z9.987
X-327.644 Y-62.196 Z9.851
X-327.631 Y-62.249 Z9.719
X-327.614 Y-62.316 Z9.594
X-327.593 Y-62.396 Z9.478
X-327.57 Y-62.488 Z9.372
X-327.544 Y-62.591 Z9.277
X-327.515 Y-62.703 Z9.195
X-327.484 Y-62.824 Z9.126
X-327.452 Y-62.952 Z9.071
X-327.418 Y-63.084 Z9.032
X-327.384 Y-63.22 Z9.008
X-327.349 Y-63.358 Z9
G3 X-326.972 Y-64.047 I1.534 J0.39
G1 X-323.926 Y-67.093
X-323.607 Y-67.382
X-323.298 Y-67.633
X-322.909 Y-67.915
X-322.47 Y-68.197
X-321.926 Y-68.508
X-321.303 Y-68.82
X-320.54 Y-69.152
X-319.61 Y-69.497
X-318.467 Y-69.853
X-317.214 Y-70.169
X-315.948 Y-70.427
X-314.673 Y-70.638
X-313.393 Y-70.811
X-312.109 Y-70.953
X-310.822 Y-71.071
X-309.534 Y-71.169
X-308.244 Y-71.25
X-306.954 Y-71.317
X-305.663 Y-71.372
X-304.372 Y-71.419
X-303.08 Y-71.457
X-301.789 Y-71.489
X-300.497 Y-71.516
X-299.205 Y-71.538
X-297.913 Y-71.557
X-296.621 Y-71.572
X-295.329 Y-71.585
X-294.037 Y-71.596
X-292.745 Y-71.605
X-291.453 Y-71.612
X-290.161 Y-71.619
X-287.577 Y-71.628
X-284.993 Y-71.635
X-281.117 Y-71.641
X-275.948 Y-71.646
X-274.656
X-264.32 Y-71.649
X-224.266 Y-71.65
X-173.876
X-123.486
X-87.308
X-86.016 Y-71.649
X-84.724 Y-71.647
X-83.432 Y-71.641
X-82.14 Y-71.619
X-81.755 Y-71.596
X-81.28 Y-71.534
X-80.819 Y-71.403
X-80.382 Y-71.206
X-79.978 Y-70.949
X-79.616 Y-70.636
X-76.621 Y-67.641
G3 X-76.291 Y-66.942 I-0.929 J0.866
G1 X-76.273 Y-66.801 Z9.008
X-76.254 Y-66.662 Z9.032
X-76.236 Y-66.526 Z9.071
X-76.219 Y-66.396 Z9.126
X-76.202 Y-66.272 Z9.195
X-76.187 Y-66.157 Z9.277
X-76.173 Y-66.052 Z9.372
X-76.16 Y-65.958 Z9.478
X-76.15 Y-65.876 Z9.594
X-76.141 Y-65.808 Z9.719
X-76.133 Y-65.754 Z9.851
X-76.128 Y-65.715 Z9.987
X-76.125 Y-65.691 Z10.128
X-76.124 Y-65.683 Z10.27
G0 Z23
X-324.616 Y-65.173
Z11.54
G1 Z10.27 F849.6
X-324.614 Y-65.181 Z10.128
X-324.608 Y-65.204 Z9.987
X-324.598 Y-65.242 Z9.851
X-324.585 Y-65.295 Z9.719
X-324.568 Y-65.362 Z9.594
X-324.548 Y-65.442 Z9.478
X-324.524 Y-65.534 Z9.372
X-324.498 Y-65.637 Z9.277
X-324.469 Y-65.749 Z9.195
X-324.439 Y-65.87 Z9.126
X-324.406 Y-65.997 Z9.071
X-324.372 Y-66.13 Z9.032
X-324.338 Y-66.266 Z9.008
X-324.303 Y-66.404 Z9
G3 X-323.926 Y-67.093 I1.534 J0.39
G1 X-321.071 Y-69.949
X-320.586 Y-70.387
X-320.278 Y-70.637
X-319.889 Y-70.919
X-319.452 Y-71.201
X-318.908 Y-71.511
X-318.286 Y-71.822
X-317.524 Y-72.154
X-316.596 Y-72.498
X-315.454 Y-72.854
X-314.201 Y-73.17
X-312.935 Y-73.428
X-311.66 Y-73.638
X-310.38 Y-73.811
X-309.096 Y-73.954
X-307.809 Y-74.072
X-306.521 Y-74.169
X-305.231 Y-74.25
X-303.941 Y-74.317
X-302.65 Y-74.373
X-301.359 Y-74.419
X-300.067 Y-74.457
X-298.776 Y-74.489
X-297.484 Y-74.516
X-296.192 Y-74.538
X-294.9 Y-74.557
X-293.608 Y-74.572
X-292.316 Y-74.585
X-291.024 Y-74.596
X-289.732 Y-74.605
X-288.44 Y-74.612
X-287.148 Y-74.619
X-284.564 Y-74.628
X-281.98 Y-74.635
X-278.104 Y-74.641
X-272.936 Y-74.646
X-271.643
X-261.307 Y-74.649
X-221.253 Y-74.65
X-170.863
X-120.473
X-89.464 Y-74.649
X-88.172 Y-74.648
X-86.88 Y-74.644
X-85.588 Y-74.631
X-84.821 Y-74.601
X-84.332 Y-74.545
X-83.857 Y-74.417
X-83.406 Y-74.22
X-82.99 Y-73.958
X-82.617 Y-73.637
X-79.616 Y-70.636
G3 X-79.286 Y-69.937 I-0.929 J0.866
G1 X-79.267 Y-69.796 Z9.008
X-79.248 Y-69.657 Z9.032
X-79.23 Y-69.521 Z9.071
X-79.213 Y-69.39 Z9.126
X-79.197 Y-69.267 Z9.195
X-79.181 Y-69.152 Z9.277
X-79.167 Y-69.046 Z9.372
X-79.155 Y-68.952 Z9.478
X-79.144 Y-68.871 Z9.594
X-79.135 Y-68.802 Z9.719
X-79.128 Y-68.748 Z9.851
X-79.123 Y-68.709 Z9.987
X-79.12 Y-68.686 Z10.128
X-79.118 Y-68.678 Z10.27
G0 Z23
X-321.76 Y-68.028
Z11.54
G1 Z10.27 F849.6
X-321.758 Y-68.036 Z10.128
X-321.753 Y-68.059 Z9.987
X-321.743 Y-68.098 Z9.851
X-321.729 Y-68.15 Z9.719
X-321.712 Y-68.217 Z9.594
X-321.692 Y-68.297 Z9.478
X-321.669 Y-68.389 Z9.372
X-321.643 Y-68.492 Z9.277
X-321.614 Y-68.604 Z9.195
X-321.583 Y-68.725 Z9.126
X-321.551 Y-68.853 Z9.071
X-321.517 Y-68.985 Z9.032
X-321.482 Y-69.121 Z9.008
X-321.447 Y-69.259 Z9
G3 X-321.071 Y-69.949 I1.534 J0.39
G1 X-318.026 Y-72.993
X-317.595 Y-73.384
X-317.286 Y-73.634
X-316.897 Y-73.916
X-316.459 Y-74.198
X-315.914 Y-74.509
X-315.292 Y-74.821
X-314.529 Y-75.152
X-313.6 Y-75.498
X-312.457 Y-75.853
X-311.204 Y-76.169
X-309.938 Y-76.427
X-308.663 Y-76.638
X-307.383 Y-76.811
X-306.099 Y-76.954
X-304.812 Y-77.071
X-303.524 Y-77.169
X-302.234 Y-77.25
X-300.944 Y-77.317
X-299.653 Y-77.372
X-298.362 Y-77.419
X-297.07 Y-77.457
X-295.779 Y-77.489
X-294.487 Y-77.516
X-293.195 Y-77.538
X-291.903 Y-77.557
X-290.611 Y-77.572
X-289.319 Y-77.585
X-288.027 Y-77.596
X-286.735 Y-77.605
X-285.443 Y-77.612
X-284.151 Y-77.619
X-281.567 Y-77.628
X-278.983 Y-77.635
X-275.107 Y-77.641
X-269.938 Y-77.646
X-268.646
X-258.31 Y-77.649
X-218.256 Y-77.65
X-167.866
X-117.476
X-92.927
X-91.635 Y-77.649
X-90.343 Y-77.646
X-89.051 Y-77.637
X-87.759 Y-77.605
X-87.701 Y-77.6
X-87.239 Y-77.531
X-86.792 Y-77.398
X-86.368 Y-77.202
X-85.976 Y-76.949
X-85.624 Y-76.644
X-82.617 Y-73.637
G3 X-82.287 Y-72.938 I-0.929 J0.866
G1 X-82.268 Y-72.797 Z9.008
X-82.25 Y-72.658 Z9.032
X-82.232 Y-72.522 Z9.071
X-82.214 Y-72.392 Z9.126
X-82.198 Y-72.268 Z9.195
X-82.183 Y-72.153 Z9.277
X-82.169 Y-72.048 Z9.372
X-82.156 Y-71.954 Z9.478
X-82.145 Y-71.872 Z9.594
X-82.136 Y-71.804 Z9.719
X-82.129 Y-71.75 Z9.851
X-82.124 Y-71.711 Z9.987
X-82.121 Y-71.687 Z10.128
X-82.12 Y-71.679 Z10.27
G0 Z23
X-318.716 Y-71.073
Z11.54
G1 Z10.27 F849.6
X-318.714 Y-71.081 Z10.128
X-318.708 Y-71.104 Z9.987
X-318.698 Y-71.142 Z9.851
X-318.685 Y-71.195 Z9.719
X-318.668 Y-71.262 Z9.594
X-318.647 Y-71.342 Z9.478
X-318.624 Y-71.434 Z9.372
X-318.598 Y-71.537 Z9.277
X-318.569 Y-71.649 Z9.195
X-318.538 Y-71.77 Z9.126
X-318.506 Y-71.898 Z9.071
X-318.472 Y-72.03 Z9.032
X-318.438 Y-72.166 Z9.008
X-318.403 Y-72.304 Z9
G3 X-318.026 Y-72.993 I1.534 J0.39
G1 X-314.981 Y-76.038
X-314.601 Y-76.382
X-314.292 Y-76.633
X-313.903 Y-76.915
X-313.465 Y-77.197
X-312.92 Y-77.508
X-312.297 Y-77.82
X-311.534 Y-78.152
X-310.605 Y-78.497
X-309.461 Y-78.853
X-308.209 Y-79.169
X-306.943 Y-79.427
X-305.668 Y-79.637
X-304.387 Y-79.81
X-303.103 Y-79.953
X-301.817 Y-80.071
X-300.528 Y-80.168
X-299.239 Y-80.249
X-297.948 Y-80.316
X-296.658 Y-80.372
X-295.366 Y-80.418
X-294.075 Y-80.457
X-292.783 Y-80.489
X-291.491 Y-80.516
X-290.2 Y-80.538
X-288.908 Y-80.557
X-287.616 Y-80.572
X-286.324 Y-80.585
X-285.032 Y-80.596
X-283.74 Y-80.605
X-282.448 Y-80.612
X-281.156 Y-80.618
X-278.571 Y-80.628
X-275.987 Y-80.635
X-272.111 Y-80.641
X-266.943 Y-80.646
X-265.651
X-255.314 Y-80.649
X-215.261 Y-80.65
X-164.871
X-114.481
X-96.392
X-95.1 Y-80.649
X-93.808 Y-80.647
X-92.516 Y-80.642
X-91.224 Y-80.624
X-90.776 Y-80.6
X-90.297 Y-80.539
X-89.832 Y-80.409
X-89.391 Y-80.213
X-88.984 Y-79.954
X-88.619 Y-79.639
X-85.624 Y-76.644
G3 X-85.294 Y-75.945 I-0.929 J0.866
G1 X-85.275 Y-75.804 Z9.008
X-85.256 Y-75.665 Z9.032
X-85.238 Y-75.529 Z9.071
X-85.221 Y-75.398 Z9.126
X-85.205 Y-75.275 Z9.195
X-85.189 Y-75.16 Z9.277
X-85.175 Y-75.054 Z9.372
X-85.163 Y-74.96 Z9.478
X-85.152 Y-74.879 Z9.594
X-85.143 Y-74.81 Z9.719
X-85.136 Y-74.756 Z9.851
X-85.131 Y-74.717 Z9.987
X-85.128 Y-74.694 Z10.128
X-85.126 Y-74.686 Z10.27
G0 Z23
X-315.671 Y-74.118
Z11.54
G1 Z10.27 F849.6
X-315.669 Y-74.126 Z10.128
X-315.663 Y-74.149 Z9.987
X-315.653 Y-74.187 Z9.851
X-315.64 Y-74.24 Z9.719
X-315.623 Y-74.307 Z9.594
X-315.602 Y-74.387 Z9.478
X-315.579 Y-74.479 Z9.372
X-315.553 Y-74.582 Z9.277
X-315.524 Y-74.694 Z9.195
X-315.494 Y-74.815 Z9.126
X-315.461 Y-74.942 Z9.071
X-315.427 Y-75.075 Z9.032
X-315.393 Y-75.211 Z9.008
X-315.358 Y-75.349 Z9
G3 X-314.981 Y-76.038 I1.534 J0.39
G1 X-311.937 Y-79.083
X-311.607 Y-79.382
X-311.298 Y-79.632
X-310.908 Y-79.914
X-310.47 Y-80.197
X-309.925 Y-80.507
X-309.303 Y-80.819
X-308.539 Y-81.151
X-307.61 Y-81.497
X-306.466 Y-81.852
X-305.213 Y-82.169
X-303.947 Y-82.426
X-302.673 Y-82.637
X-301.392 Y-82.81
X-300.108 Y-82.953
X-298.821 Y-83.071
X-297.533 Y-83.168
X-296.243 Y-83.249
X-294.953 Y-83.316
X-293.662 Y-83.372
X-292.371 Y-83.418
X-291.08 Y-83.457
X-289.788 Y-83.489
X-288.496 Y-83.516
X-287.204 Y-83.538
X-285.912 Y-83.557
X-284.62 Y-83.572
X-283.328 Y-83.585
X-282.036 Y-83.596
X-280.744 Y-83.605
X-279.452 Y-83.612
X-278.16 Y-83.618
X-275.576 Y-83.628
X-272.992 Y-83.635
X-269.116 Y-83.641
X-263.948 Y-83.646
X-262.656
X-252.319 Y-83.649
X-212.266 Y-83.65
X-161.875
X-111.485
X-98.565 Y-83.649
X-97.273 Y-83.648
X-95.981 Y-83.645
X-94.689 Y-83.634
X-93.836 Y-83.603
X-93.344 Y-83.549
X-92.866 Y-83.421
X-92.413 Y-83.224
X-91.994 Y-82.961
X-91.619 Y-82.639
X-88.619 Y-79.639
G3 X-88.289 Y-78.94 I-0.929 J0.866
G1 X-88.27 Y-78.799 Z9.008
X-88.251 Y-78.66 Z9.032
X-88.233 Y-78.524 Z9.071
X-88.216 Y-78.393 Z9.126
X-88.2 Y-78.27 Z9.195
X-88.184 Y-78.155 Z9.277
X-88.17 Y-78.049 Z9.372
X-88.158 Y-77.955 Z9.478
X-88.147 Y-77.874 Z9.594
X-88.138 Y-77.805 Z9.719
X-88.131 Y-77.751 Z9.851
X-88.126 Y-77.712 Z9.987
X-88.123 Y-77.689 Z10.128
X-88.121 Y-77.681 Z10.27
G0 Z23
X-312.626 Y-77.163
Z11.54
G1 Z10.27 F849.6
X-312.624 Y-77.171 Z10.128
X-312.618 Y-77.194 Z9.987
X-312.608 Y-77.232 Z9.851
X-312.595 Y-77.285 Z9.719
X-312.578 Y-77.352 Z9.594
X-312.558 Y-77.431 Z9.478
X-312.534 Y-77.523 Z9.372
X-312.508 Y-77.626 Z9.277
X-312.479 Y-77.739 Z9.195
X-312.449 Y-77.86 Z9.126
X-312.416 Y-77.987 Z9.071
X-312.383 Y-78.12 Z9.032
X-312.348 Y-78.256 Z9.008
X-312.313 Y-78.394 Z9
G3 X-311.937 Y-79.083 I1.534 J0.39
G1 X-309.078 Y-81.942
X-308.586 Y-82.387
X-308.278 Y-82.636
X-307.889 Y-82.919
X-307.452 Y-83.2
X-306.908 Y-83.51
X-306.286 Y-83.822
X-305.524 Y-84.153
X-304.596 Y-84.498
X-303.454 Y-84.853
X-302.201 Y-85.17
X-300.935 Y-85.427
X-299.66 Y-85.638
X-298.38 Y-85.811
X-297.095 Y-85.954
X-295.809 Y-86.071
X-294.52 Y-86.169
X-293.231 Y-86.25
X-291.941 Y-86.317
X-290.65 Y-86.372
X-289.358 Y-86.419
X-288.067 Y-86.457
X-286.775 Y-86.489
X-285.484 Y-86.516
X-284.192 Y-86.538
X-282.9 Y-86.557
X-281.608 Y-86.572
X-280.316 Y-86.585
X-279.024 Y-86.596
X-277.732 Y-86.605
X-276.44 Y-86.612
X-275.148 Y-86.618
X-272.564 Y-86.628
X-269.979 Y-86.635
X-266.103 Y-86.641
X-260.935 Y-86.646
X-259.643
X-249.307 Y-86.649
X-209.253 Y-86.65
X-158.863
X-108.473
X-102.012
X-100.72 Y-86.649
X-99.428 Y-86.647
X-98.136 Y-86.639
X-96.845 Y-86.609
X-96.713 Y-86.599
X-96.248 Y-86.531
X-95.798 Y-86.398
X-95.371 Y-86.203
X-94.976 Y-85.949
X-94.622 Y-85.641
X-91.619 Y-82.639
G3 X-91.289 Y-81.94 I-0.929 J0.866
G1 X-91.27 Y-81.799 Z9.008
X-91.252 Y-81.66 Z9.032
X-91.234 Y-81.524 Z9.071
X-91.216 Y-81.394 Z9.126
X-91.2 Y-81.27 Z9.195
X-91.185 Y-81.155 Z9.277
X-91.171 Y-81.05 Z9.372
X-91.158 Y-80.956 Z9.478
X-91.147 Y-80.874 Z9.594
X-91.138 Y-80.806 Z9.719
X-91.131 Y-80.752 Z9.851
X-91.126 Y-80.713 Z9.987
X-91.123 Y-80.689 Z10.128
X-91.122 Y-80.681 Z10.27
G0 Z23
X-309.767 Y-80.021
Z11.54
G1 Z10.27 F849.6
X-309.765 Y-80.029 Z10.128
X-309.76 Y-80.052 Z9.987
X-309.75 Y-80.09 Z9.851
X-309.736 Y-80.143 Z9.719
X-309.719 Y-80.21 Z9.594
X-309.699 Y-80.29 Z9.478
X-309.676 Y-80.382 Z9.372
X-309.65 Y-80.485 Z9.277
X-309.621 Y-80.597 Z9.195
X-309.59 Y-80.718 Z9.126
X-309.558 Y-80.846 Z9.071
X-309.524 Y-80.978 Z9.032
X-309.49 Y-81.114 Z9.008
X-309.454 Y-81.252 Z9
G3 X-309.078 Y-81.942 I1.534 J0.39
G1 X-306.032 Y-84.987
X-305.595 Y-85.383
X-305.286 Y-85.633
X-304.897 Y-85.915
X-304.459 Y-86.198
X-303.914 Y-86.508
X-303.292 Y-86.82
X-302.529 Y-87.152
X-301.6 Y-87.497
X-300.457 Y-87.853
X-299.204 Y-88.169
X-297.938 Y-88.427
X-296.663 Y-88.637
X-295.383 Y-88.811
X-294.098 Y-88.953
X-292.812 Y-89.071
X-291.523 Y-89.168
X-290.234 Y-89.249
X-288.944 Y-89.316
X-287.653 Y-89.372
X-286.361 Y-89.418
X-285.07 Y-89.457
X-283.778 Y-89.489
X-282.487 Y-89.516
X-281.195 Y-89.538
X-279.903 Y-89.557
X-278.611 Y-89.572
X-277.319 Y-89.585
X-276.027 Y-89.596
X-274.735 Y-89.605
X-273.443 Y-89.612
X-272.151 Y-89.618
X-269.567 Y-89.628
X-266.982 Y-89.635
X-263.106 Y-89.641
X-257.938 Y-89.646
X-256.646
X-246.31 Y-89.649
X-206.256 Y-89.65
X-155.866
X-105.476
X-104.184 Y-89.649
X-102.892 Y-89.648
X-101.6 Y-89.642
X-100.308 Y-89.626
X-99.787 Y-89.6
X-99.305 Y-89.541
X-98.838 Y-89.411
X-98.395 Y-89.214
X-97.985 Y-88.955
X-97.618 Y-88.638
X-94.622 Y-85.641
G3 X-94.292 Y-84.942 I-0.929 J0.866
G1 X-94.273 Y-84.802 Z9.008
X-94.254 Y-84.662 Z9.032
X-94.236 Y-84.527 Z9.071
X-94.219 Y-84.396 Z9.126
X-94.203 Y-84.273 Z9.195
X-94.187 Y-84.158 Z9.277
X-94.173 Y-84.052 Z9.372
X-94.161 Y-83.958 Z9.478
X-94.15 Y-83.876 Z9.594
X-94.141 Y-83.808 Z9.719
X-94.134 Y-83.754 Z9.851
X-94.128 Y-83.715 Z9.987
X-94.125 Y-83.691 Z10.128
X-94.124 Y-83.684 Z10.27
G0 Z23
X-306.722 Y-83.067
Z11.54
G1 Z10.27 F849.6
X-306.72 Y-83.075 Z10.128
X-306.714 Y-83.098 Z9.987
X-306.704 Y-83.136 Z9.851
X-306.691 Y-83.189 Z9.719
X-306.674 Y-83.256 Z9.594
X-306.653 Y-83.336 Z9.478
X-306.63 Y-83.428 Z9.372
X-306.604 Y-83.531 Z9.277
X-306.575 Y-83.643 Z9.195
X-306.544 Y-83.764 Z9.126
X-306.512 Y-83.892 Z9.071
X-306.478 Y-84.024 Z9.032
X-306.444 Y-84.16 Z9.008
X-306.409 Y-84.298 Z9
G3 X-306.032 Y-84.987 I1.534 J0.39
G1 X-302.987 Y-88.033
X-302.601 Y-88.382
X-302.292 Y-88.632
X-301.903 Y-88.914
X-301.465 Y-89.197
X-300.92 Y-89.508
X-300.297 Y-89.819
X-299.534 Y-90.151
X-298.605 Y-90.497
X-297.461 Y-90.852
X-296.208 Y-91.169
X-294.942 Y-91.426
X-293.667 Y-91.637
X-292.387 Y-91.81
X-291.103 Y-91.953
X-289.816 Y-92.071
X-288.528 Y-92.168
X-287.238 Y-92.249
X-285.948 Y-92.316
X-284.657 Y-92.372
X-283.366 Y-92.418
X-282.074 Y-92.457
X-280.783 Y-92.489
X-279.491 Y-92.516
X-278.199 Y-92.538
X-276.907 Y-92.556
X-275.615 Y-92.572
X-274.323 Y-92.585
X-273.031 Y-92.596
X-271.739 Y-92.605
X-270.447 Y-92.612
X-269.155 Y-92.618
X-266.571 Y-92.628
X-263.987 Y-92.635
X-260.111 Y-92.641
X-254.943 Y-92.646
X-253.651
X-243.314 Y-92.649
X-203.26 Y-92.65
X-152.87
X-107.648
X-106.356 Y-92.648
X-105.064 Y-92.645
X-103.772 Y-92.635
X-102.584 Y-92.596
X-101.775 Y-92.525
X-101.577 Y-92.475
X-101.395 Y-92.384
X-101.236 Y-92.256
X-97.618 Y-88.638
G3 X-97.288 Y-87.939 I-0.929 J0.866
G1 X-97.269 Y-87.798 Z9.008
X-97.251 Y-87.659 Z9.032
X-97.233 Y-87.523 Z9.071
X-97.215 Y-87.393 Z9.126
X-97.199 Y-87.269 Z9.195
X-97.184 Y-87.154 Z9.277
X-97.17 Y-87.049 Z9.372
X-97.157 Y-86.955 Z9.478
X-97.146 Y-86.873 Z9.594
X-97.137 Y-86.805 Z9.719
X-97.13 Y-86.751 Z9.851
X-97.125 Y-86.712 Z9.987
X-97.122 Y-86.688 Z10.128
X-97.121 Y-86.68 Z10.27
G0 Z23
X-303.676 Y-86.113
Z11.54
G1 Z10.27 F849.6
X-303.674 Y-86.121 Z10.128
X-303.668 Y-86.144 Z9.987
X-303.658 Y-86.182 Z9.851
X-303.645 Y-86.235 Z9.719
X-303.628 Y-86.302 Z9.594
X-303.608 Y-86.382 Z9.478
X-303.584 Y-86.474 Z9.372
X-303.558 Y-86.576 Z9.277
X-303.529 Y-86.689 Z9.195
X-303.499 Y-86.81 Z9.126
X-303.466 Y-86.937 Z9.071
X-303.433 Y-87.07 Z9.032
X-303.398 Y-87.206 Z9.008
X-303.363 Y-87.344 Z9
G3 X-302.987 Y-88.033 I1.534 J0.39
G1 X-299.941 Y-91.079
X-299.607 Y-91.381
X-299.298 Y-91.631
X-298.908 Y-91.914
X-298.47 Y-92.196
X-297.925 Y-92.507
X-297.303 Y-92.819
X-296.539 Y-93.151
X-295.61 Y-93.496
X-294.466 Y-93.852
X-293.213 Y-94.168
X-291.947 Y-94.426
X-290.672 Y-94.637
X-289.392 Y-94.81
X-288.108 Y-94.953
X-286.821 Y-95.07
X-285.533 Y-95.168
X-284.243 Y-95.249
X-282.953 Y-95.316
X-281.662 Y-95.372
X-280.371 Y-95.418
X-279.079 Y-95.457
X-277.788 Y-95.489
X-276.496 Y-95.516
X-275.204 Y-95.538
X-273.912 Y-95.556
X-272.62 Y-95.572
X-271.328 Y-95.585
X-270.036 Y-95.596
X-268.744 Y-95.605
X-267.452 Y-95.612
X-266.16 Y-95.618
X-263.576 Y-95.628
X-260.992 Y-95.635
X-257.116 Y-95.641
X-251.948 Y-95.646
X-250.655
X-240.319 Y-95.649
X-200.265 Y-95.65
X-149.875
X-111.114
X-109.822 Y-95.649
X-108.529 Y-95.647
X-107.237 Y-95.64
X-105.946 Y-95.618
X-105.817 Y-95.613
X-105.332 Y-95.555
X-104.86 Y-95.426
X-104.413 Y-95.229
X-104 Y-94.968
X-103.63 Y-94.649
X-101.236 Y-92.256
G3 X-100.906 Y-91.557 I-0.929 J0.866
G1 X-100.887 Y-91.416 Z9.008
X-100.869 Y-91.277 Z9.032
X-100.851 Y-91.141 Z9.071
X-100.833 Y-91.011 Z9.126
X-100.817 Y-90.887 Z9.195
X-100.802 Y-90.772 Z9.277
X-100.788 Y-90.667 Z9.372
X-100.775 Y-90.573 Z9.478
X-100.764 Y-90.491 Z9.594
X-100.755 Y-90.423 Z9.719
X-100.748 Y-90.369 Z9.851
X-100.743 Y-90.33 Z9.987
X-100.74 Y-90.306 Z10.128
X-100.739 Y-90.298 Z10.27
G0 Z23
X-300.63 Y-89.159
Z11.54
G1 Z10.27 F849.6
X-300.628 Y-89.167 Z10.128
X-300.622 Y-89.19 Z9.987
X-300.612 Y-89.228 Z9.851
X-300.599 Y-89.281 Z9.719
X-300.582 Y-89.347 Z9.594
X-300.562 Y-89.427 Z9.478
X-300.538 Y-89.519 Z9.372
X-300.512 Y-89.622 Z9.277
X-300.484 Y-89.735 Z9.195
X-300.453 Y-89.856 Z9.126
X-300.42 Y-89.983 Z9.071
X-300.387 Y-90.116 Z9.032
X-300.352 Y-90.252 Z9.008
X-300.317 Y-90.39 Z9
G3 X-299.941 Y-91.079 I1.534 J0.39
G1 X-297.093 Y-93.927
X-296.585 Y-94.387
X-296.276 Y-94.636
X-295.887 Y-94.918
X-295.45 Y-95.2
X-294.907 Y-95.51
X-294.285 Y-95.822
X-293.523 Y-96.153
X-292.595 Y-96.498
X-291.452 Y-96.853
X-290.2 Y-97.169
X-288.933 Y-97.427
X-287.659 Y-97.638
X-286.378 Y-97.811
X-285.094 Y-97.953
X-283.807 Y-98.071
X-282.519 Y-98.169
X-281.23 Y-98.249
X-279.939 Y-98.316
X-278.648 Y-98.372
X-277.357 Y-98.418
X-276.066 Y-98.457
X-274.774 Y-98.489
X-273.482 Y-98.516
X-272.19 Y-98.538
X-270.898 Y-98.557
X-269.607 Y-98.572
X-268.315 Y-98.585
X-267.023 Y-98.596
X-265.73 Y-98.605
X-264.438 Y-98.612
X-263.146 Y-98.618
X-260.562 Y-98.628
X-257.978 Y-98.635
X-254.102 Y-98.641
X-248.934 Y-98.646
X-247.642
X-237.305 Y-98.649
X-197.252 Y-98.65
X-146.862
X-114.56
X-113.268 Y-98.649
X-111.976 Y-98.648
X-110.684 Y-98.644
X-109.392 Y-98.63
X-108.803 Y-98.603
X-108.318 Y-98.545
X-107.848 Y-98.416
X-107.402 Y-98.219
X-106.99 Y-97.959
X-106.62 Y-97.64
X-103.63 Y-94.649
G3 X-103.299 Y-93.95 I-0.929 J0.866
G1 X-103.281 Y-93.809 Z9.008
X-103.262 Y-93.67 Z9.032
X-103.244 Y-93.535 Z9.071
X-103.227 Y-93.404 Z9.126
X-103.211 Y-93.281 Z9.195
X-103.195 Y-93.166 Z9.277
X-103.181 Y-93.06 Z9.372
X-103.169 Y-92.966 Z9.478
X-103.158 Y-92.884 Z9.594
X-103.149 Y-92.816 Z9.719
X-103.142 Y-92.762 Z9.851
X-103.136 Y-92.723 Z9.987
X-103.133 Y-92.699 Z10.128
X-103.132 Y-92.692 Z10.27
G0 Z23
X-297.782 Y-92.007
Z11.54
G1 Z10.27 F849.6
X-297.78 Y-92.014 Z10.128
X-297.775 Y-92.037 Z9.987
X-297.765 Y-92.076 Z9.851
X-297.751 Y-92.128 Z9.719
X-297.734 Y-92.195 Z9.594
X-297.714 Y-92.275 Z9.478
X-297.691 Y-92.367 Z9.372
X-297.665 Y-92.47 Z9.277
X-297.636 Y-92.582 Z9.195
X-297.605 Y-92.703 Z9.126
X-297.573 Y-92.831 Z9.071
X-297.539 Y-92.963 Z9.032
X-297.504 Y-93.1 Z9.008
X-297.469 Y-93.237 Z9
G3 X-297.093 Y-93.927 I1.534 J0.39
G1 X-294.048 Y-96.972
X-293.593 Y-97.383
X-293.285 Y-97.633
X-292.895 Y-97.915
X-292.457 Y-98.198
X-291.913 Y-98.508
X-291.29 Y-98.82
X-290.527 Y-99.152
X-289.598 Y-99.497
X-288.455 Y-99.853
X-287.202 Y-100.169
X-285.936 Y-100.426
X-284.661 Y-100.637
X-283.381 Y-100.81
X-282.097 Y-100.953
X-280.81 Y-101.071
X-279.522 Y-101.168
X-278.232 Y-101.249
X-276.942 Y-101.316
X-275.651 Y-101.372
X-274.36 Y-101.418
X-273.068 Y-101.457
X-271.777 Y-101.489
X-270.485 Y-101.516
X-269.193 Y-101.538
X-267.901 Y-101.557
X-266.609 Y-101.572
X-265.317 Y-101.585
X-264.025 Y-101.596
X-262.733 Y-101.605
X-261.441 Y-101.612
X-260.149 Y-101.618
X-257.565 Y-101.628
X-254.981 Y-101.635
X-251.105 Y-101.641
X-245.937 Y-101.646
X-244.645
X-234.308 Y-101.649
X-194.254 Y-101.65
X-143.864
X-116.731
X-115.439 Y-101.649
X-114.147 Y-101.646
X-112.855 Y-101.636
X-111.856 Y-101.606
X-111.36 Y-101.554
X-110.879 Y-101.427
X-110.422 Y-101.23
X-109.999 Y-100.966
X-109.622 Y-100.641
X-106.62 Y-97.64
G3 X-106.29 Y-96.941 I-0.929 J0.866
G1 X-106.272 Y-96.8 Z9.008
X-106.253 Y-96.661 Z9.032
X-106.235 Y-96.525 Z9.071
X-106.218 Y-96.395 Z9.126
X-106.201 Y-96.271 Z9.195
X-106.186 Y-96.156 Z9.277
X-106.172 Y-96.051 Z9.372
X-106.159 Y-95.957 Z9.478
X-106.149 Y-95.875 Z9.594
X-106.14 Y-95.807 Z9.719
X-106.132 Y-95.753 Z9.851
X-106.127 Y-95.714 Z9.987
X-106.124 Y-95.69 Z10.128
X-106.123 Y-95.682 Z10.27
G0 Z23
X-294.738 Y-95.051
Z11.54
G1 Z10.27 F849.6
X-294.736 Y-95.059 Z10.128
X-294.73 Y-95.082 Z9.987
X-294.72 Y-95.12 Z9.851
X-294.707 Y-95.173 Z9.719
X-294.69 Y-95.24 Z9.594
X-294.669 Y-95.32 Z9.478
X-294.646 Y-95.412 Z9.372
X-294.62 Y-95.515 Z9.277
X-294.591 Y-95.627 Z9.195
X-294.56 Y-95.748 Z9.126
X-294.528 Y-95.876 Z9.071
X-294.494 Y-96.008 Z9.032
X-294.46 Y-96.144 Z9.008
X-294.425 Y-96.282 Z9
G3 X-294.048 Y-96.972 I1.534 J0.39
G1 X-291.003 Y-100.016
X-290.599 Y-100.382
X-290.291 Y-100.632
X-289.901 Y-100.914
X-289.463 Y-101.197
X-288.918 Y-101.507
X-288.296 Y-101.819
X-287.532 Y-102.151
X-286.603 Y-102.496
X-285.459 Y-102.852
X-284.207 Y-103.168
X-282.941 Y-103.426
X-281.666 Y-103.637
X-280.385 Y-103.81
X-279.101 Y-103.953
X-277.815 Y-104.071
X-276.526 Y-104.168
X-275.237 Y-104.249
X-273.946 Y-104.316
X-272.656 Y-104.372
X-271.364 Y-104.418
X-270.073 Y-104.457
X-268.781 Y-104.489
X-267.489 Y-104.516
X-266.198 Y-104.538
X-264.906 Y-104.556
X-263.614 Y-104.572
X-262.322 Y-104.585
X-261.03 Y-104.596
X-259.738 Y-104.605
X-258.446 Y-104.612
X-257.154 Y-104.618
X-254.57 Y-104.628
X-251.985 Y-104.635
X-248.109 Y-104.641
X-242.941 Y-104.646
X-241.649
X-231.313 Y-104.649
X-191.259 Y-104.65
X-140.869
X-120.196
X-118.904 Y-104.649
X-117.612 Y-104.647
X-116.32 Y-104.641
X-115.028 Y-104.616
X-114.739 Y-104.597
X-114.268 Y-104.533
X-113.811 Y-104.401
X-113.378 Y-104.205
X-112.977 Y-103.949
X-112.618 Y-103.638
X-109.622 Y-100.641
G3 X-109.291 Y-99.942 I-0.929 J0.866
G1 X-109.273 Y-99.801 Z9.008
X-109.254 Y-99.662 Z9.032
X-109.236 Y-99.527 Z9.071
X-109.219 Y-99.396 Z9.126
X-109.202 Y-99.273 Z9.195
X-109.187 Y-99.157 Z9.277
X-109.173 Y-99.052 Z9.372
X-109.161 Y-98.958 Z9.478
X-109.15 Y-98.876 Z9.594
X-109.141 Y-98.808 Z9.719
X-109.134 Y-98.754 Z9.851
X-109.128 Y-98.715 Z9.987
X-109.125 Y-98.691 Z10.128
X-109.124 Y-98.683 Z10.27
G0 Z23
X-291.693 Y-98.096
Z11.54
G1 Z10.27 F849.6
X-291.691 Y-98.104 Z10.128
X-291.685 Y-98.127 Z9.987
X-291.675 Y-98.165 Z9.851
X-291.662 Y-98.218 Z9.719
X-291.645 Y-98.285 Z9.594
X-291.624 Y-98.365 Z9.478
X-291.601 Y-98.457 Z9.372
X-291.575 Y-98.56 Z9.277
X-291.546 Y-98.672 Z9.195
X-291.516 Y-98.793 Z9.126
X-291.483 Y-98.92 Z9.071
X-291.449 Y-99.053 Z9.032
X-291.415 Y-99.189 Z9.008
X-291.38 Y-99.327 Z9
G3 X-291.003 Y-100.016 I1.534 J0.39
G1 X-287.959 Y-103.061
X-287.605 Y-103.381
X-287.296 Y-103.631
X-286.907 Y-103.914
X-286.468 Y-104.196
X-285.924 Y-104.507
X-285.301 Y-104.819
X-284.537 Y-105.151
X-283.608 Y-105.496
X-282.464 Y-105.852
X-281.211 Y-106.168
X-279.945 Y-106.426
X-278.671 Y-106.637
X-277.39 Y-106.81
X-276.106 Y-106.952
X-274.819 Y-107.07
X-273.531 Y-107.168
X-272.241 Y-107.249
X-270.951 Y-107.316
X-269.66 Y-107.372
X-268.369 Y-107.418
X-267.078 Y-107.457
X-265.786 Y-107.489
X-264.494 Y-107.515
X-263.202 Y-107.538
X-261.91 Y-107.556
X-260.618 Y-107.572
X-259.326 Y-107.585
X-258.034 Y-107.596
X-256.742 Y-107.605
X-255.45 Y-107.612
X-254.158 Y-107.618
X-251.574 Y-107.628
X-248.99 Y-107.635
X-245.114 Y-107.641
X-239.946 Y-107.646
X-238.654
X-228.317 Y-107.649
X-188.264 Y-107.65
X-137.873
X-122.369 Y-107.649
X-121.077 Y-107.648
X-119.785 Y-107.644
X-118.493 Y-107.63
X-117.81 Y-107.601
X-117.324 Y-107.543
X-116.851 Y-107.415
X-116.403 Y-107.218
X-115.988 Y-106.957
X-115.617 Y-106.637
X-112.618 Y-103.638
G3 X-112.288 Y-102.939 I-0.929 J0.866
G1 X-112.269 Y-102.798 Z9.008
X-112.25 Y-102.659 Z9.032
X-112.232 Y-102.523 Z9.071
X-112.215 Y-102.392 Z9.126
X-112.199 Y-102.269 Z9.195
X-112.183 Y-102.154 Z9.277
X-112.169 Y-102.048 Z9.372
X-112.157 Y-101.954 Z9.478
X-112.146 Y-101.873 Z9.594
X-112.137 Y-101.804 Z9.719
X-112.13 Y-101.75 Z9.851
X-112.125 Y-101.711 Z9.987
X-112.122 Y-101.688 Z10.128
X-112.12 Y-101.68 Z10.27
G0 Z23
X-288.648 Y-101.141
Z11.54
G1 Z10.27 F849.6
X-288.646 Y-101.149 Z10.128
X-288.64 Y-101.172 Z9.987
X-288.63 Y-101.21 Z9.851
X-288.617 Y-101.263 Z9.719
X-288.6 Y-101.33 Z9.594
X-288.58 Y-101.41 Z9.478
X-288.556 Y-101.501 Z9.372
X-288.53 Y-101.604 Z9.277
X-288.501 Y-101.717 Z9.195
X-288.471 Y-101.838 Z9.126
X-288.438 Y-101.965 Z9.071
X-288.405 Y-102.098 Z9.032
X-288.37 Y-102.234 Z9.008
X-288.335 Y-102.372 Z9
G3 X-287.959 Y-103.061 I1.534 J0.39
G1 X-285.092 Y-105.927
X-284.585 Y-106.386
X-284.277 Y-106.636
X-283.888 Y-106.918
X-283.451 Y-107.2
X-282.907 Y-107.51
X-282.285 Y-107.821
X-281.523 Y-108.153
X-280.595 Y-108.498
X-279.452 Y-108.853
X-278.2 Y-109.169
X-276.933 Y-109.427
X-275.659 Y-109.638
X-274.378 Y-109.811
X-273.094 Y-109.953
X-271.807 Y-110.071
X-270.519 Y-110.168
X-269.229 Y-110.249
X-267.939 Y-110.316
X-266.648 Y-110.372
X-265.357 Y-110.418
X-264.066 Y-110.457
X-262.774 Y-110.489
X-261.482 Y-110.516
X-260.19 Y-110.538
X-258.898 Y-110.557
X-257.606 Y-110.572
X-256.314 Y-110.585
X-255.022 Y-110.596
X-253.73 Y-110.605
X-252.438 Y-110.612
X-251.146 Y-110.618
X-248.562 Y-110.628
X-245.978 Y-110.635
X-242.102 Y-110.641
X-236.934 Y-110.646
X-235.642
X-225.305 Y-110.649
X-185.252 Y-110.65
X-134.861
X-125.817
X-124.525 Y-110.649
X-123.233 Y-110.646
X-121.941 Y-110.637
X-120.862 Y-110.606
X-120.365 Y-110.554
X-119.882 Y-110.428
X-119.424 Y-110.231
X-119 Y-109.966
X-118.621 Y-109.641
X-115.617 Y-106.637
G3 X-115.287 Y-105.938 I-0.929 J0.866
G1 X-115.269 Y-105.797 Z9.008
X-115.25 Y-105.658 Z9.032
X-115.232 Y-105.522 Z9.071
X-115.215 Y-105.392 Z9.126
X-115.198 Y-105.268 Z9.195
X-115.183 Y-105.153 Z9.277
X-115.169 Y-105.048 Z9.372
X-115.156 Y-104.954 Z9.478
X-115.146 Y-104.872 Z9.594
X-115.137 Y-104.804 Z9.719
X-115.129 Y-104.75 Z9.851
X-115.124 Y-104.711 Z9.987
X-115.121 Y-104.687 Z10.128
X-115.12 Y-104.679 Z10.27
G0 Z23
X-285.782 Y-104.007
Z11.54
G1 Z10.27 F849.6
X-285.78 Y-104.015 Z10.128
X-285.774 Y-104.038 Z9.987
X-285.764 Y-104.076 Z9.851
X-285.751 Y-104.129 Z9.719
X-285.734 Y-104.196 Z9.594
X-285.713 Y-104.276 Z9.478
X-285.69 Y-104.368 Z9.372
X-285.664 Y-104.471 Z9.277
X-285.635 Y-104.583 Z9.195
X-285.605 Y-104.704 Z9.126
X-285.572 Y-104.831 Z9.071
X-285.538 Y-104.964 Z9.032
X-285.504 Y-105.1 Z9.008
X-285.469 Y-105.238 Z9
G3 X-285.092 Y-105.927 I1.534 J0.39
G1 X-282.047 Y-108.973
X-281.594 Y-109.383
X-281.285 Y-109.633
X-280.896 Y-109.915
X-280.458 Y-110.198
X-279.913 Y-110.508
X-279.291 Y-110.82
X-278.528 Y-111.152
X-277.598 Y-111.497
X-276.455 Y-111.852
X-275.202 Y-112.169
X-273.936 Y-112.426
X-272.662 Y-112.637
X-271.381 Y-112.81
X-270.097 Y-112.953
X-268.81 Y-113.071
X-267.522 Y-113.168
X-266.233 Y-113.249
X-264.942 Y-113.316
X-263.651 Y-113.372
X-262.36 Y-113.418
X-261.069 Y-113.457
X-259.777 Y-113.489
X-258.485 Y-113.516
X-257.193 Y-113.538
X-255.901 Y-113.556
X-254.609 Y-113.572
X-253.317 Y-113.585
X-252.025 Y-113.596
X-250.733 Y-113.605
X-249.441 Y-113.612
X-248.149 Y-113.618
X-245.565 Y-113.628
X-242.981 Y-113.635
X-239.105 Y-113.641
X-233.937 Y-113.646
X-232.645
X-222.308 Y-113.649
X-182.255 Y-113.65
X-131.865
X-127.988 Y-113.649
X-126.696 Y-113.647
X-125.404 Y-113.641
X-124.112 Y-113.618
X-123.751 Y-113.596
X-123.277 Y-113.533
X-122.817 Y-113.402
X-122.381 Y-113.206
X-121.978 Y-112.949
X-121.616 Y-112.636
X-118.621 Y-109.641
G3 X-118.291 Y-108.942 I-0.929 J0.866
G1 X-118.272 Y-108.801 Z9.008
X-118.254 Y-108.662 Z9.032
X-118.236 Y-108.526 Z9.071
X-118.219 Y-108.396 Z9.126
X-118.202 Y-108.272 Z9.195
X-118.187 Y-108.157 Z9.277
X-118.173 Y-108.052 Z9.372
X-118.16 Y-107.958 Z9.478
X-118.15 Y-107.876 Z9.594
X-118.14 Y-107.808 Z9.719
X-118.133 Y-107.754 Z9.851
X-118.128 Y-107.715 Z9.987
X-118.125 Y-107.691 Z10.128
X-118.124 Y-107.683 Z10.27
G0 Z23
X-282.736 Y-107.053
Z11.54
G1 Z10.27 F849.6
X-282.734 Y-107.061 Z10.128
X-282.728 Y-107.084 Z9.987
X-282.718 Y-107.122 Z9.851
X-282.705 Y-107.175 Z9.719
X-282.688 Y-107.242 Z9.594
X-282.668 Y-107.322 Z9.478
X-282.644 Y-107.413 Z9.372
X-282.618 Y-107.516 Z9.277
X-282.589 Y-107.629 Z9.195
X-282.559 Y-107.75 Z9.126
X-282.526 Y-107.877 Z9.071
X-282.493 Y-108.01 Z9.032
X-282.458 Y-108.146 Z9.008
X-282.423 Y-108.284 Z9
G3 X-282.047 Y-108.973 I1.534 J0.39
G1 X-279.001 Y-112.019
X-278.6 Y-112.382
X-278.291 Y-112.632
X-277.902 Y-112.914
X-277.463 Y-113.197
X-276.919 Y-113.507
X-276.296 Y-113.819
X-275.533 Y-114.151
X-274.603 Y-114.496
X-273.46 Y-114.852
X-272.207 Y-115.168
X-270.941 Y-115.426
X-269.666 Y-115.637
X-268.386 Y-115.81
X-267.102 Y-115.953
X-265.815 Y-116.07
X-264.527 Y-116.168
X-263.237 Y-116.249
X-261.947 Y-116.316
X-260.656 Y-116.372
X-259.365 Y-116.418
X-258.073 Y-116.457
X-256.782 Y-116.489
X-255.49 Y-116.516
X-254.198 Y-116.538
X-252.906 Y-116.556
X-251.614 Y-116.572
X-250.322 Y-116.585
X-249.03 Y-116.596
X-247.738 Y-116.605
X-246.446 Y-116.612
X-245.154 Y-116.618
X-242.57 Y-116.628
X-239.986 Y-116.635
X-236.11 Y-116.641
X-230.941 Y-116.646
X-229.649
X-219.313 Y-116.649
X-179.259 Y-116.65
X-131.453 Y-116.649
X-130.161 Y-116.648
X-128.869 Y-116.644
X-127.577 Y-116.631
X-126.82 Y-116.601
X-126.331 Y-116.545
X-125.856 Y-116.417
X-125.406 Y-116.22
X-124.99 Y-115.958
X-124.617 Y-115.637
X-121.616 Y-112.636
G3 X-121.286 Y-111.937 I-0.929 J0.866
G1 X-121.267 Y-111.796 Z9.008
X-121.249 Y-111.657 Z9.032
X-121.231 Y-111.521 Z9.071
X-121.213 Y-111.391 Z9.126
X-121.197 Y-111.267 Z9.195
X-121.182 Y-111.152 Z9.277
X-121.168 Y-111.047 Z9.372
X-121.155 Y-110.953 Z9.478
X-121.144 Y-110.871 Z9.594
X-121.135 Y-110.803 Z9.719
X-121.128 Y-110.749 Z9.851
X-121.123 Y-110.71 Z9.987
X-121.12 Y-110.686 Z10.128
X-121.119 Y-110.678 Z10.27
G0 Z23
X-279.69 Y-110.099
Z11.54
G1 Z10.27 F849.6
X-279.688 Y-110.107 Z10.128
X-279.682 Y-110.13 Z9.987
X-279.673 Y-110.168 Z9.851
X-279.659 Y-110.221 Z9.719
X-279.642 Y-110.287 Z9.594
X-279.622 Y-110.367 Z9.478
X-279.598 Y-110.459 Z9.372
X-279.572 Y-110.562 Z9.277
X-279.544 Y-110.675 Z9.195
X-279.513 Y-110.796 Z9.126
X-279.48 Y-110.923 Z9.071
X-279.447 Y-111.056 Z9.032
X-279.412 Y-111.192 Z9.008
X-279.377 Y-111.33 Z9
G3 X-279.001 Y-112.019 I1.534 J0.39
G1 X-275.955 Y-115.065
X-275.605 Y-115.381
X-275.297 Y-115.631
X-274.907 Y-115.913
X-274.469 Y-116.196
X-273.924 Y-116.507
X-273.301 Y-116.819
X-272.538 Y-117.151
X-271.608 Y-117.496
X-270.465 Y-117.852
X-269.212 Y-118.168
X-267.946 Y-118.426
X-266.671 Y-118.636
X-265.391 Y-118.81
X-264.106 Y-118.952
X-262.82 Y-119.07
X-261.531 Y-119.168
X-260.242 Y-119.249
X-258.952 Y-119.316
X-257.661 Y-119.372
X-256.369 Y-119.418
X-255.078 Y-119.457
X-253.786 Y-119.489
X-252.495 Y-119.515
X-251.203 Y-119.538
X-249.911 Y-119.556
X-248.619 Y-119.572
X-247.327 Y-119.585
X-246.035 Y-119.596
X-244.743 Y-119.605
X-243.451 Y-119.612
X-242.159 Y-119.618
X-239.575 Y-119.628
X-236.991 Y-119.635
X-233.114 Y-119.641
X-227.946 Y-119.646
X-226.654
X-216.318 Y-119.649
X-176.264 Y-119.65
X-134.918
X-133.626 Y-119.649
X-132.334 Y-119.646
X-131.042 Y-119.637
X-129.75 Y-119.604
X-129.699 Y-119.6
X-129.238 Y-119.531
X-128.792 Y-119.398
X-128.368 Y-119.202
X-127.976 Y-118.95
X-127.624 Y-118.644
X-124.617 Y-115.637
G3 X-124.287 Y-114.938 I-0.929 J0.866
G1 X-124.268 Y-114.797 Z9.008
X-124.25 Y-114.658 Z9.032
X-124.232 Y-114.522 Z9.071
X-124.214 Y-114.392 Z9.126
X-124.198 Y-114.268 Z9.195
X-124.183 Y-114.153 Z9.277
X-124.169 Y-114.048 Z9.372
X-124.156 Y-113.954 Z9.478
X-124.145 Y-113.872 Z9.594
X-124.136 Y-113.804 Z9.719
X-124.129 Y-113.75 Z9.851
X-124.124 Y-113.711 Z9.987
X-124.121 Y-113.687 Z10.128
X-124.12 Y-113.679 Z10.27
G0 Z23
X-276.644 Y-113.145
Z11.54
G1 Z10.27 F849.6
X-276.642 Y-113.152 Z10.128
X-276.636 Y-113.175 Z9.987
X-276.627 Y-113.214 Z9.851
X-276.613 Y-113.266 Z9.719
X-276.596 Y-113.333 Z9.594
X-276.576 Y-113.413 Z9.478
X-276.553 Y-113.505 Z9.372
X-276.526 Y-113.608 Z9.277
X-276.498 Y-113.721 Z9.195
X-276.467 Y-113.841 Z9.126
X-276.435 Y-113.969 Z9.071
X-276.401 Y-114.102 Z9.032
X-276.366 Y-114.238 Z9.008
X-276.331 Y-114.375 Z9
G3 X-275.955 Y-115.065 I1.534 J0.39
G1 X-272.909 Y-118.111
X-272.611 Y-118.381
X-272.302 Y-118.631
X-271.912 Y-118.913
X-271.474 Y-119.196
X-270.929 Y-119.506
X-270.306 Y-119.818
X-269.543 Y-120.15
X-268.613 Y-120.496
X-267.469 Y-120.852
X-266.217 Y-121.168
X-264.951 Y-121.425
X-263.676 Y-121.636
X-262.395 Y-121.809
X-261.111 Y-121.952
X-259.825 Y-122.07
X-258.536 Y-122.168
X-257.247 Y-122.249
X-255.956 Y-122.316
X-254.666 Y-122.371
X-253.374 Y-122.418
X-252.083 Y-122.456
X-250.791 Y-122.489
X-249.499 Y-122.515
X-248.208 Y-122.538
X-246.916 Y-122.556
X-245.624 Y-122.572
X-244.332 Y-122.585
X-243.04 Y-122.596
X-241.748 Y-122.605
X-240.456 Y-122.612
X-239.164 Y-122.618
X-236.579 Y-122.628
X-233.995 Y-122.635
X-230.119 Y-122.641
X-224.951 Y-122.646
X-223.659
X-213.323 Y-122.649
X-173.269 Y-122.65
X-138.383
X-137.091 Y-122.649
X-135.799 Y-122.647
X-134.507 Y-122.642
X-133.215 Y-122.624
X-132.775 Y-122.6
X-132.296 Y-122.539
X-131.832 Y-122.409
X-131.391 Y-122.213
X-130.984 Y-121.954
X-130.619 Y-121.639
X-127.624 Y-118.644
G3 X-127.294 Y-117.945 I-0.929 J0.866
G1 X-127.275 Y-117.804 Z9.008
X-127.257 Y-117.665 Z9.032
X-127.239 Y-117.529 Z9.071
X-127.222 Y-117.399 Z9.126
X-127.205 Y-117.275 Z9.195
X-127.19 Y-117.16 Z9.277
X-127.176 Y-117.055 Z9.372
X-127.163 Y-116.961 Z9.478
X-127.152 Y-116.879 Z9.594
X-127.143 Y-116.811 Z9.719
X-127.136 Y-116.757 Z9.851
X-127.131 Y-116.718 Z9.987
X-127.128 Y-116.694 Z10.128
X-127.127 Y-116.686 Z10.27
G0 Z23
X-273.598 Y-116.19
Z11.54
G1 Z10.27 F849.6
X-273.596 Y-116.198 Z10.128
X-273.591 Y-116.221 Z9.987
X-273.581 Y-116.259 Z9.851
X-273.567 Y-116.312 Z9.719
X-273.55 Y-116.379 Z9.594
X-273.53 Y-116.459 Z9.478
X-273.507 Y-116.551 Z9.372
X-273.481 Y-116.654 Z9.277
X-273.452 Y-116.766 Z9.195
X-273.421 Y-116.887 Z9.126
X-273.389 Y-117.015 Z9.071
X-273.355 Y-117.147 Z9.032
X-273.321 Y-117.283 Z9.008
X-273.285 Y-117.421 Z9
G3 X-272.909 Y-118.111 I1.534 J0.39
G1 X-270.07 Y-120.95
X-269.587 Y-121.386
X-269.279 Y-121.636
X-268.89 Y-121.918
X-268.453 Y-122.2
X-267.91 Y-122.51
X-267.287 Y-122.821
X-266.526 Y-123.153
X-265.597 Y-123.497
X-264.455 Y-123.853
X-263.202 Y-124.169
X-261.936 Y-124.427
X-260.661 Y-124.637
X-259.381 Y-124.811
X-258.097 Y-124.953
X-256.81 Y-125.071
X-255.522 Y-125.168
X-254.232 Y-125.249
X-252.942 Y-125.316
X-251.651 Y-125.372
X-250.36 Y-125.418
X-249.068 Y-125.457
X-247.777 Y-125.489
X-246.485 Y-125.516
X-245.193 Y-125.538
X-243.901 Y-125.556
X-242.609 Y-125.572
X-241.317 Y-125.585
X-240.025 Y-125.596
X-238.733 Y-125.605
X-237.441 Y-125.612
X-236.149 Y-125.618
X-233.565 Y-125.628
X-230.981 Y-125.635
X-227.105 Y-125.641
X-221.937 Y-125.646
X-220.644
X-210.308 Y-125.649
X-170.254 Y-125.65
X-140.537 Y-125.649
X-139.245 Y-125.648
X-137.953 Y-125.645
X-136.661 Y-125.633
X-135.832 Y-125.603
X-135.341 Y-125.548
X-134.864 Y-125.421
X-134.412 Y-125.223
X-133.993 Y-124.961
X-133.619 Y-124.639
X-130.619 Y-121.639
G3 X-130.289 Y-120.94 I-0.929 J0.866
G1 X-130.27 Y-120.799 Z9.008
X-130.252 Y-120.66 Z9.032
X-130.234 Y-120.524 Z9.071
X-130.216 Y-120.394 Z9.126
X-130.2 Y-120.27 Z9.195
X-130.185 Y-120.155 Z9.277
X-130.171 Y-120.05 Z9.372
X-130.158 Y-119.956 Z9.478
X-130.147 Y-119.874 Z9.594
X-130.138 Y-119.806 Z9.719
X-130.131 Y-119.752 Z9.851
X-130.126 Y-119.712 Z9.987
X-130.123 Y-119.689 Z10.128
X-130.122 Y-119.681 Z10.27
G0 Z23
X-270.759 Y-119.029
Z11.54
G1 Z10.27 F849.6
X-270.758 Y-119.037 Z10.128
X-270.752 Y-119.06 Z9.987
X-270.742 Y-119.098 Z9.851
X-270.728 Y-119.151 Z9.719
X-270.712 Y-119.218 Z9.594
X-270.691 Y-119.298 Z9.478
X-270.668 Y-119.39 Z9.372
X-270.642 Y-119.493 Z9.277
X-270.613 Y-119.605 Z9.195
X-270.582 Y-119.726 Z9.126
X-270.55 Y-119.854 Z9.071
X-270.516 Y-119.986 Z9.032
X-270.482 Y-120.122 Z9.008
X-270.447 Y-120.26 Z9
G3 X-270.07 Y-120.95 I1.534 J0.39
G1 X-267.025 Y-123.994
X-266.596 Y-124.383
X-266.287 Y-124.633
X-265.898 Y-124.915
X-265.46 Y-125.198
X-264.916 Y-125.508
X-264.293 Y-125.82
X-263.53 Y-126.152
X-262.601 Y-126.497
X-261.458 Y-126.852
X-260.205 Y-127.169
X-258.939 Y-127.426
X-257.664 Y-127.637
X-256.384 Y-127.81
X-255.099 Y-127.953
X-253.813 Y-128.071
X-252.524 Y-128.168
X-251.235 Y-128.249
X-249.945 Y-128.316
X-248.654 Y-128.372
X-247.362 Y-128.418
X-246.071 Y-128.457
X-244.779 Y-128.489
X-243.488 Y-128.516
X-242.196 Y-128.538
X-240.904 Y-128.556
X-239.612 Y-128.572
X-238.32 Y-128.585
X-237.028 Y-128.596
X-235.736 Y-128.605
X-234.444 Y-128.612
X-233.152 Y-128.618
X-230.568 Y-128.628
X-227.984 Y-128.635
X-224.107 Y-128.641
X-218.939 Y-128.646
X-217.647
X-207.311 Y-128.649
X-167.257 Y-128.65
X-144
X-142.708 Y-128.649
X-141.416 Y-128.647
X-140.124 Y-128.639
X-138.832 Y-128.608
X-138.711 Y-128.599
X-138.247 Y-128.531
X-137.797 Y-128.398
X-137.371 Y-128.203
X-136.976 Y-127.949
X-136.622 Y-127.642
X-133.619 Y-124.639
G3 X-133.289 Y-123.94 I-0.929 J0.866
G1 X-133.27 Y-123.799 Z9.008
X-133.252 Y-123.66 Z9.032
X-133.234 Y-123.524 Z9.071
X-133.216 Y-123.394 Z9.126
X-133.2 Y-123.27 Z9.195
X-133.185 Y-123.155 Z9.277
X-133.171 Y-123.05 Z9.372
X-133.158 Y-122.955 Z9.478
X-133.147 Y-122.874 Z9.594
X-133.138 Y-122.805 Z9.719
X-133.131 Y-122.751 Z9.851
X-133.126 Y-122.712 Z9.987
X-133.123 Y-122.689 Z10.128
X-133.122 Y-122.681 Z10.27
G0 Z23
X-267.715 Y-122.074
Z11.54
G1 Z10.27 F849.6
X-267.713 Y-122.082 Z10.128
X-267.707 Y-122.105 Z9.987
X-267.697 Y-122.143 Z9.851
X-267.684 Y-122.196 Z9.719
X-267.667 Y-122.263 Z9.594
X-267.646 Y-122.343 Z9.478
X-267.623 Y-122.435 Z9.372
X-267.597 Y-122.538 Z9.277
X-267.568 Y-122.65 Z9.195
X-267.537 Y-122.771 Z9.126
X-267.505 Y-122.899 Z9.071
X-267.471 Y-123.031 Z9.032
X-267.437 Y-123.167 Z9.008
X-267.402 Y-123.305 Z9
G3 X-267.025 Y-123.994 I1.534 J0.39
G1 X-263.981 Y-127.039
X-263.602 Y-127.382
X-263.293 Y-127.632
X-262.904 Y-127.914
X-262.465 Y-128.197
X-261.921 Y-128.507
X-261.298 Y-128.819
X-260.535 Y-129.151
X-259.605 Y-129.496
X-258.462 Y-129.852
X-257.209 Y-130.168
X-255.943 Y-130.426
X-254.668 Y-130.637
X-253.388 Y-130.81
X-252.104 Y-130.953
X-250.817 Y-131.07
X-249.529 Y-131.168
X-248.239 Y-131.249
X-246.949 Y-131.316
X-245.658 Y-131.372
X-244.367 Y-131.418
X-243.075 Y-131.457
X-241.784 Y-131.489
X-240.492 Y-131.515
X-239.2 Y-131.538
X-237.908 Y-131.556
X-236.616 Y-131.572
X-235.324 Y-131.585
X-234.032 Y-131.596
X-232.74 Y-131.605
X-231.448 Y-131.612
X-230.156 Y-131.618
X-227.572 Y-131.628
X-224.988 Y-131.635
X-221.112 Y-131.641
X-215.944 Y-131.646
X-214.652
X-204.315 Y-131.649
X-164.261 Y-131.65
X-147.465
X-146.173 Y-131.649
X-144.881 Y-131.648
X-143.589 Y-131.642
X-142.297 Y-131.626
X-141.785 Y-131.6
X-141.304 Y-131.54
X-140.837 Y-131.411
X-140.395 Y-131.214
X-139.985 Y-130.955
X-139.618 Y-130.638
X-136.622 Y-127.642
G3 X-136.292 Y-126.943 I-0.929 J0.866
G1 X-136.273 Y-126.802 Z9.008
X-136.255 Y-126.663 Z9.032
X-136.237 Y-126.527 Z9.071
X-136.219 Y-126.397 Z9.126
X-136.203 Y-126.273 Z9.195
X-136.188 Y-126.158 Z9.277
X-136.174 Y-126.053 Z9.372
X-136.161 Y-125.959 Z9.478
X-136.15 Y-125.877 Z9.594
X-136.141 Y-125.809 Z9.719
X-136.134 Y-125.755 Z9.851
X-136.129 Y-125.715 Z9.987
X-136.126 Y-125.692 Z10.128
X-136.125 Y-125.684 Z10.27
G0 Z23
X-264.67 Y-125.119
Z11.54
G1 Z10.27 F849.6
X-264.668 Y-125.127 Z10.128
X-264.662 Y-125.15 Z9.987
X-264.652 Y-125.188 Z9.851
X-264.639 Y-125.241 Z9.719
X-264.622 Y-125.308 Z9.594
X-264.602 Y-125.388 Z9.478
X-264.578 Y-125.48 Z9.372
X-264.552 Y-125.582 Z9.277
X-264.523 Y-125.695 Z9.195
X-264.493 Y-125.816 Z9.126
X-264.46 Y-125.943 Z9.071
X-264.427 Y-126.076 Z9.032
X-264.392 Y-126.212 Z9.008
X-264.357 Y-126.35 Z9
G3 X-263.981 Y-127.039 I1.534 J0.39
G1 X-260.936 Y-130.084
X-260.607 Y-130.381
X-260.299 Y-130.631
X-259.909 Y-130.913
X-259.471 Y-131.196
X-258.926 Y-131.507
X-258.303 Y-131.819
X-257.54 Y-132.151
X-256.61 Y-132.496
X-255.467 Y-132.852
X-254.214 Y-133.168
X-252.948 Y-133.426
X-251.673 Y-133.636
X-250.393 Y-133.81
X-249.108 Y-133.952
X-247.822 Y-134.07
X-246.533 Y-134.168
X-245.244 Y-134.249
X-243.954 Y-134.316
X-242.663 Y-134.372
X-241.372 Y-134.418
X-240.08 Y-134.457
X-238.788 Y-134.489
X-237.497 Y-134.515
X-236.205 Y-134.538
X-234.913 Y-134.556
X-233.621 Y-134.572
X-232.329 Y-134.585
X-231.037 Y-134.596
X-229.745 Y-134.605
X-228.453 Y-134.612
X-227.161 Y-134.618
X-224.577 Y-134.628
X-221.993 Y-134.635
X-218.116 Y-134.641
X-212.948 Y-134.646
X-211.656
X-201.32 Y-134.649
X-161.266 Y-134.65
X-149.638
X-148.346 Y-134.648
X-147.053 Y-134.645
X-145.761 Y-134.635
X-144.844 Y-134.604
X-144.351 Y-134.55
X-143.871 Y-134.423
X-143.416 Y-134.226
X-142.996 Y-133.963
X-142.62 Y-133.639
X-139.618 Y-130.638
G3 X-139.288 Y-129.939 I-0.929 J0.866
G1 X-139.269 Y-129.798 Z9.008
X-139.251 Y-129.659 Z9.032
X-139.233 Y-129.523 Z9.071
X-139.216 Y-129.393 Z9.126
X-139.199 Y-129.269 Z9.195
X-139.184 Y-129.154 Z9.277
X-139.17 Y-129.049 Z9.372
X-139.157 Y-128.955 Z9.478
X-139.147 Y-128.873 Z9.594
X-139.137 Y-128.805 Z9.719
X-139.13 Y-128.751 Z9.851
X-139.125 Y-128.712 Z9.987
X-139.122 Y-128.688 Z10.128
X-139.121 Y-128.68 Z10.27
G0 Z23
X-261.625 Y-128.164
Z11.54
G1 Z10.27 F849.6
X-261.623 Y-128.172 Z10.128
X-261.617 Y-128.195 Z9.987
X-261.607 Y-128.233 Z9.851
X-261.594 Y-128.286 Z9.719
X-261.577 Y-128.353 Z9.594
X-261.557 Y-128.432 Z9.478
X-261.533 Y-128.524 Z9.372
X-261.507 Y-128.627 Z9.277
X-261.479 Y-128.74 Z9.195
X-261.448 Y-128.861 Z9.126
X-261.415 Y-128.988 Z9.071
X-261.382 Y-129.121 Z9.032
X-261.347 Y-129.257 Z9.008
X-261.312 Y-129.395 Z9
G3 X-260.936 Y-130.084 I1.534 J0.39
G1 X-258.061 Y-132.959
X-257.589 Y-133.386
X-257.281 Y-133.635
X-256.892 Y-133.918
X-256.455 Y-134.199
X-255.911 Y-134.509
X-255.289 Y-134.821
X-254.527 Y-135.152
X-253.598 Y-135.497
X-252.456 Y-135.853
X-251.203 Y-136.169
X-249.937 Y-136.427
X-248.662 Y-136.637
X-247.382 Y-136.81
X-246.097 Y-136.953
X-244.811 Y-137.071
X-243.522 Y-137.168
X-242.233 Y-137.249
X-240.942 Y-137.316
X-239.652 Y-137.372
X-238.36 Y-137.418
X-237.069 Y-137.457
X-235.777 Y-137.489
X-234.486 Y-137.516
X-233.194 Y-137.538
X-231.902 Y-137.556
X-230.61 Y-137.572
X-229.318 Y-137.585
X-228.026 Y-137.596
X-226.734 Y-137.605
X-225.442 Y-137.612
X-224.15 Y-137.618
X-221.566 Y-137.628
X-218.981 Y-137.635
X-215.105 Y-137.641
X-209.937 Y-137.646
X-208.645
X-198.309 Y-137.649
X-158.255 Y-137.65
X-153.087
X-151.795 Y-137.649
X-150.503 Y-137.647
X-149.211 Y-137.639
X-147.919 Y-137.611
X-147.723 Y-137.598
X-147.256 Y-137.531
X-146.803 Y-137.399
X-146.373 Y-137.203
X-145.976 Y-136.948
X-145.62 Y-136.639
X-142.62 Y-133.639
G3 X-142.289 Y-132.94 I-0.929 J0.866
G1 X-142.271 Y-132.8 Z9.008
X-142.252 Y-132.66 Z9.032
X-142.234 Y-132.525 Z9.071
X-142.217 Y-132.394 Z9.126
X-142.201 Y-132.271 Z9.195
X-142.185 Y-132.156 Z9.277
X-142.171 Y-132.05 Z9.372
X-142.159 Y-131.956 Z9.478
X-142.148 Y-131.874 Z9.594
X-142.139 Y-131.806 Z9.719
X-142.132 Y-131.752 Z9.851
X-142.126 Y-131.713 Z9.987
X-142.123 Y-131.689 Z10.128
X-142.122 Y-131.682 Z10.27
G0 Z23
X-258.75 Y-131.039
Z11.54
G1 Z10.27 F849.6
X-258.748 Y-131.046 Z10.128
X-258.742 Y-131.07 Z9.987
X-258.733 Y-131.108 Z9.851
X-258.719 Y-131.161 Z9.719
X-258.702 Y-131.227 Z9.594
X-258.682 Y-131.307 Z9.478
X-258.658 Y-131.399 Z9.372
X-258.632 Y-131.502 Z9.277
X-258.604 Y-131.615 Z9.195
X-258.573 Y-131.736 Z9.126
X-258.541 Y-131.863 Z9.071
X-258.507 Y-131.996 Z9.032
X-258.472 Y-132.132 Z9.008
X-258.437 Y-132.27 Z9
G3 X-258.061 Y-132.959 I1.534 J0.39
G1 X-255.015 Y-136.005
X-254.597 Y-136.382
X-254.289 Y-136.633
X-253.899 Y-136.915
X-253.461 Y-137.197
X-252.917 Y-137.508
X-252.294 Y-137.82
X-251.531 Y-138.151
X-250.602 Y-138.497
X-249.459 Y-138.852
X-248.206 Y-139.169
X-246.94 Y-139.426
X-245.665 Y-139.637
X-244.385 Y-139.81
X-243.1 Y-139.953
X-241.814 Y-140.071
X-240.525 Y-140.168
X-239.236 Y-140.249
X-237.946 Y-140.316
X-236.655 Y-140.372
X-235.363 Y-140.418
X-234.072 Y-140.457
X-232.78 Y-140.489
X-231.489 Y-140.516
X-230.197 Y-140.538
X-228.905 Y-140.556
X-227.613 Y-140.572
X-226.321 Y-140.585
X-225.029 Y-140.596
X-223.737 Y-140.605
X-222.445 Y-140.612
X-221.153 Y-140.618
X-218.569 Y-140.628
X-215.985 Y-140.635
X-212.108 Y-140.641
X-206.94 Y-140.646
X-205.648
X-195.312 Y-140.649
X-157.842 Y-140.65
X-155.258 Y-140.649
X-153.966 Y-140.648
X-152.674 Y-140.643
X-151.382 Y-140.628
X-150.796 Y-140.6
X-150.313 Y-140.541
X-149.843 Y-140.412
X-149.398 Y-140.215
X-148.986 Y-139.955
X-148.618 Y-139.637
X-145.62 Y-136.639
G3 X-145.289 Y-135.94 I-0.929 J0.866
G1 X-145.271 Y-135.799 Z9.008
X-145.252 Y-135.66 Z9.032
X-145.234 Y-135.525 Z9.071
X-145.217 Y-135.394 Z9.126
X-145.2 Y-135.271 Z9.195
X-145.185 Y-135.155 Z9.277
X-145.171 Y-135.05 Z9.372
X-145.159 Y-134.956 Z9.478
X-145.148 Y-134.874 Z9.594
X-145.139 Y-134.806 Z9.719
X-145.132 Y-134.752 Z9.851
X-145.126 Y-134.713 Z9.987
X-145.123 Y-134.689 Z10.128
X-145.122 Y-134.681 Z10.27
G0 Z23
X-255.704 Y-134.085
Z11.54
G1 Z10.27 F849.6
X-255.702 Y-134.092 Z10.128
X-255.696 Y-134.115 Z9.987
X-255.687 Y-134.154 Z9.851
X-255.673 Y-134.206 Z9.719
X-255.656 Y-134.273 Z9.594
X-255.636 Y-134.353 Z9.478
X-255.613 Y-134.445 Z9.372
X-255.586 Y-134.548 Z9.277
X-255.558 Y-134.661 Z9.195
X-255.527 Y-134.781 Z9.126
X-255.495 Y-134.909 Z9.071
X-255.461 Y-135.041 Z9.032
X-255.426 Y-135.178 Z9.008
X-255.391 Y-135.315 Z9
G3 X-255.015 Y-136.005 I1.534 J0.39
G1 X-251.969 Y-139.051
X-251.603 Y-139.381
X-251.295 Y-139.632
X-250.905 Y-139.914
X-250.467 Y-140.196
X-249.922 Y-140.507
X-249.3 Y-140.819
X-248.536 Y-141.151
X-247.607 Y-141.496
X-246.463 Y-141.852
X-245.21 Y-142.168
X-243.944 Y-142.426
X-242.67 Y-142.637
X-241.389 Y-142.81
X-240.105 Y-142.952
X-238.818 Y-143.07
X-237.53 Y-143.168
X-236.24 Y-143.249
X-234.95 Y-143.316
X-233.659 Y-143.372
X-232.368 Y-143.418
X-231.077 Y-143.457
X-229.785 Y-143.489
X-228.493 Y-143.515
X-227.201 Y-143.538
X-225.909 Y-143.556
X-224.617 Y-143.572
X-223.325 Y-143.585
X-222.033 Y-143.596
X-220.741 Y-143.605
X-219.449 Y-143.612
X-218.157 Y-143.618
X-215.573 Y-143.628
X-212.989 Y-143.635
X-209.113 Y-143.641
X-203.945 Y-143.646
X-202.653
X-192.316 Y-143.649
X-160.015 Y-143.65
X-157.431 Y-143.649
X-156.139 Y-143.645
X-154.847 Y-143.635
X-153.852 Y-143.605
X-153.358 Y-143.552
X-152.876 Y-143.426
X-152.42 Y-143.228
X-151.998 Y-142.964
X-151.62 Y-142.64
X-148.618 Y-139.637
G3 X-148.287 Y-138.938 I-0.929 J0.866
G1 X-148.269 Y-138.797 Z9.008
X-148.25 Y-138.658 Z9.032
X-148.232 Y-138.523 Z9.071
X-148.215 Y-138.392 Z9.126
X-148.198 Y-138.269 Z9.195
X-148.183 Y-138.153 Z9.277
X-148.169 Y-138.048 Z9.372
X-148.157 Y-137.954 Z9.478
X-148.146 Y-137.872 Z9.594
X-148.137 Y-137.804 Z9.719
X-148.13 Y-137.75 Z9.851
X-148.124 Y-137.711 Z9.987
X-148.121 Y-137.687 Z10.128
X-148.12 Y-137.679 Z10.27
G0 Z23
X-252.658 Y-137.13
Z11.54
G1 Z10.27 F849.6
X-252.657 Y-137.138 Z10.128
X-252.651 Y-137.161 Z9.987
X-252.641 Y-137.199 Z9.851
X-252.628 Y-137.252 Z9.719
X-252.611 Y-137.319 Z9.594
X-252.59 Y-137.399 Z9.478
X-252.567 Y-137.491 Z9.372
X-252.541 Y-137.594 Z9.277
X-252.512 Y-137.706 Z9.195
X-252.481 Y-137.827 Z9.126
X-252.449 Y-137.955 Z9.071
X-252.415 Y-138.087 Z9.032
X-252.381 Y-138.223 Z9.008
X-252.346 Y-138.361 Z9
G3 X-251.969 Y-139.051 I1.534 J0.39
G1 X-248.923 Y-142.096
X-248.609 Y-142.381
X-248.3 Y-142.631
X-247.911 Y-142.913
X-247.472 Y-143.196
X-246.928 Y-143.507
X-246.305 Y-143.819
X-245.541 Y-144.15
X-244.612 Y-144.496
X-243.468 Y-144.852
X-242.215 Y-145.168
X-240.949 Y-145.426
X-239.674 Y-145.636
X-238.394 Y-145.81
X-237.11 Y-145.952
X-235.823 Y-146.07
X-234.535 Y-146.168
X-233.245 Y-146.249
X-231.955 Y-146.316
X-230.664 Y-146.372
X-229.373 Y-146.418
X-228.081 Y-146.456
X-226.79 Y-146.489
X-225.498 Y-146.515
X-224.206 Y-146.538
X-222.914 Y-146.556
X-221.622 Y-146.572
X-220.33 Y-146.585
X-219.038 Y-146.596
X-217.746 Y-146.605
X-216.454 Y-146.612
X-215.162 Y-146.618
X-212.578 Y-146.628
X-209.994 Y-146.635
X-206.118 Y-146.641
X-200.95 Y-146.646
X-199.657
X-189.321 Y-146.649
X-162.188 Y-146.65
X-160.896 Y-146.649
X-159.604 Y-146.647
X-158.312 Y-146.64
X-157.02 Y-146.615
X-156.737 Y-146.597
X-156.266 Y-146.532
X-155.81 Y-146.4
X-155.377 Y-146.204
X-154.977 Y-145.948
X-154.617 Y-145.637
X-151.62 Y-142.64
G3 X-151.29 Y-141.941 I-0.929 J0.866
G1 X-151.271 Y-141.8 Z9.008
X-151.253 Y-141.661 Z9.032
X-151.235 Y-141.525 Z9.071
X-151.218 Y-141.395 Z9.126
X-151.201 Y-141.271 Z9.195
X-151.186 Y-141.156 Z9.277
X-151.172 Y-141.051 Z9.372
X-151.159 Y-140.957 Z9.478
X-151.148 Y-140.875 Z9.594
X-151.139 Y-140.807 Z9.719
X-151.132 Y-140.753 Z9.851
X-151.127 Y-140.714 Z9.987
X-151.124 Y-140.69 Z10.128
X-151.123 Y-140.682 Z10.27
G0 Z23
X-249.613 Y-140.176
Z11.54
G1 Z10.27 F849.6
X-249.611 Y-140.184 Z10.128
X-249.605 Y-140.207 Z9.987
X-249.595 Y-140.245 Z9.851
X-249.582 Y-140.298 Z9.719
X-249.565 Y-140.365 Z9.594
X-249.544 Y-140.445 Z9.478
X-249.521 Y-140.537 Z9.372
X-249.495 Y-140.64 Z9.277
X-249.466 Y-140.752 Z9.195
X-249.436 Y-140.873 Z9.126
X-249.403 Y-141 Z9.071
X-249.369 Y-141.133 Z9.032
X-249.335 Y-141.269 Z9.008
X-249.3 Y-141.407 Z9
G3 X-248.923 Y-142.096 I1.534 J0.39
G1 X-246.092 Y-144.928
X-245.585 Y-145.387
X-245.276 Y-145.637
X-244.887 Y-145.919
X-244.45 Y-146.2
X-243.907 Y-146.51
X-243.285 Y-146.822
X-242.523 Y-147.153
X-241.595 Y-147.498
X-240.453 Y-147.853
X-239.2 Y-148.169
X-237.934 Y-148.427
X-236.659 Y-148.638
X-235.379 Y-148.811
X-234.095 Y-148.953
X-232.808 Y-149.071
X-231.52 Y-149.169
X-230.23 Y-149.249
X-228.94 Y-149.316
X-227.649 Y-149.372
X-226.358 Y-149.418
X-225.066 Y-149.457
X-223.775 Y-149.489
X-222.483 Y-149.516
X-221.191 Y-149.538
X-219.899 Y-149.556
X-218.607 Y-149.572
X-217.315 Y-149.585
X-216.023 Y-149.596
X-214.731 Y-149.605
X-213.439 Y-149.612
X-212.147 Y-149.618
X-209.563 Y-149.628
X-206.979 Y-149.635
X-203.103 Y-149.641
X-197.934 Y-149.646
X-196.642
X-186.306 Y-149.649
X-165.633 Y-149.65
X-163.049 Y-149.648
X-161.757 Y-149.643
X-160.465 Y-149.629
X-159.806 Y-149.6
X-159.32 Y-149.542
X-158.848 Y-149.414
X-158.401 Y-149.217
X-157.987 Y-148.956
X-157.617 Y-148.637
X-154.617 Y-145.637
G3 X-154.287 Y-144.938 I-0.929 J0.866
G1 X-154.268 Y-144.797 Z9.008
X-154.25 Y-144.658 Z9.032
X-154.232 Y-144.522 Z9.071
X-154.215 Y-144.392 Z9.126
X-154.198 Y-144.268 Z9.195
X-154.183 Y-144.153 Z9.277
X-154.169 Y-144.048 Z9.372
X-154.156 Y-143.954 Z9.478
X-154.146 Y-143.872 Z9.594
X-154.136 Y-143.804 Z9.719
X-154.129 Y-143.75 Z9.851
X-154.124 Y-143.711 Z9.987
X-154.121 Y-143.687 Z10.128
X-154.12 Y-143.679 Z10.27
G0 Z23
X-246.781 Y-143.007
Z11.54
G1 Z10.27 F849.6
X-246.779 Y-143.015 Z10.128
X-246.774 Y-143.038 Z9.987
X-246.764 Y-143.076 Z9.851
X-246.75 Y-143.129 Z9.719
X-246.733 Y-143.196 Z9.594
X-246.713 Y-143.276 Z9.478
X-246.69 Y-143.368 Z9.372
X-246.664 Y-143.471 Z9.277
X-246.635 Y-143.583 Z9.195
X-246.604 Y-143.704 Z9.126
X-246.572 Y-143.832 Z9.071
X-246.538 Y-143.964 Z9.032
X-246.504 Y-144.1 Z9.008
X-246.469 Y-144.238 Z9
G3 X-246.092 Y-144.928 I1.534 J0.39
G1 X-243.047 Y-147.972
X-242.593 Y-148.383
X-242.285 Y-148.633
X-241.895 Y-148.915
X-241.457 Y-149.198
X-240.913 Y-149.508
X-240.291 Y-149.82
X-239.527 Y-150.152
X-238.598 Y-150.497
X-237.455 Y-150.852
X-236.203 Y-151.169
X-234.936 Y-151.426
X-233.662 Y-151.637
X-232.381 Y-151.81
X-231.097 Y-151.953
X-229.81 Y-152.071
X-228.522 Y-152.168
X-227.233 Y-152.249
X-225.942 Y-152.316
X-224.651 Y-152.372
X-223.36 Y-152.418
X-222.069 Y-152.457
X-220.777 Y-152.489
X-219.485 Y-152.516
X-218.193 Y-152.538
X-216.901 Y-152.556
X-215.61 Y-152.572
X-214.318 Y-152.585
X-213.026 Y-152.596
X-211.734 Y-152.605
X-210.441 Y-152.612
X-209.149 Y-152.618
X-206.565 Y-152.628
X-203.981 Y-152.635
X-200.105 Y-152.641
X-194.937 Y-152.646
X-193.645
X-183.308 Y-152.649
X-167.804 Y-152.65
X-166.512 Y-152.649
X-165.22 Y-152.646
X-163.928 Y-152.636
X-162.86 Y-152.606
X-162.364 Y-152.554
X-161.881 Y-152.428
X-161.423 Y-152.23
X-160.999 Y-151.966
X-160.621 Y-151.641
X-157.617 Y-148.637
G3 X-157.287 Y-147.938 I-0.929 J0.866
G1 X-157.268 Y-147.797 Z9.008
X-157.25 Y-147.658 Z9.032
X-157.232 Y-147.522 Z9.071
X-157.214 Y-147.392 Z9.126
X-157.198 Y-147.268 Z9.195
X-157.183 Y-147.153 Z9.277
X-157.169 Y-147.048 Z9.372
X-157.156 Y-146.954 Z9.478
X-157.145 Y-146.872 Z9.594
X-157.136 Y-146.804 Z9.719
X-157.129 Y-146.749 Z9.851
X-157.124 Y-146.71 Z9.987
X-157.121 Y-146.687 Z10.128
X-157.12 Y-146.679 Z10.27
G0 Z23
X-243.737 Y-146.052
Z11.54
G1 Z10.27 F849.6
X-243.735 Y-146.06 Z10.128
X-243.729 Y-146.083 Z9.987
X-243.719 Y-146.121 Z9.851
X-243.706 Y-146.174 Z9.719
X-243.689 Y-146.241 Z9.594
X-243.668 Y-146.321 Z9.478
X-243.645 Y-146.413 Z9.372
X-243.619 Y-146.516 Z9.277
X-243.59 Y-146.628 Z9.195
X-243.559 Y-146.749 Z9.126
X-243.527 Y-146.877 Z9.071
X-243.493 Y-147.009 Z9.032
X-243.459 Y-147.145 Z9.008
X-243.424 Y-147.283 Z9
G3 X-243.047 Y-147.972 I1.534 J0.39
G1 X-240.002 Y-151.017
X-239.6 Y-151.382
X-239.291 Y-151.632
X-238.901 Y-151.914
X-238.463 Y-152.197
X-237.919 Y-152.507
X-237.296 Y-152.819
X-236.532 Y-153.151
X-235.603 Y-153.496
X-234.46 Y-153.852
X-233.207 Y-154.168
X-231.941 Y-154.426
X-230.666 Y-154.637
X-229.386 Y-154.81
X-228.102 Y-154.953
X-226.815 Y-155.07
X-225.526 Y-155.168
X-224.237 Y-155.249
X-222.947 Y-155.316
X-221.656 Y-155.372
X-220.365 Y-155.418
X-219.073 Y-155.457
X-217.781 Y-155.489
X-216.49 Y-155.516
X-215.198 Y-155.538
X-213.906 Y-155.556
X-212.614 Y-155.572
X-211.322 Y-155.585
X-210.03 Y-155.596
X-208.738 Y-155.605
X-207.446 Y-155.612
X-206.154 Y-155.618
X-203.57 Y-155.628
X-200.986 Y-155.635
X-197.109 Y-155.641
X-191.941 Y-155.646
X-190.649
X-180.313 Y-155.649
X-171.268
X-169.976
X-168.684 Y-155.647
X-167.392 Y-155.641
X-166.1 Y-155.618
X-165.749 Y-155.596
X-165.275 Y-155.533
X-164.816 Y-155.401
X-164.38 Y-155.205
X-163.977 Y-154.948
X-163.616 Y-154.636
X-160.621 Y-151.641
G3 X-160.291 Y-150.942 I-0.929 J0.866
G1 X-160.272 Y-150.801 Z9.008
X-160.253 Y-150.662 Z9.032
X-160.235 Y-150.526 Z9.071
X-160.218 Y-150.395 Z9.126
X-160.202 Y-150.272 Z9.195
X-160.186 Y-150.157 Z9.277
X-160.172 Y-150.051 Z9.372
X-160.16 Y-149.957 Z9.478
X-160.149 Y-149.876 Z9.594
X-160.14 Y-149.807 Z9.719
X-160.133 Y-149.753 Z9.851
X-160.128 Y-149.714 Z9.987
X-160.125 Y-149.691 Z10.128
X-160.123 Y-149.683 Z10.27
G0 Z23
X-240.692 Y-149.097
Z11.54
G1 Z10.27 F849.6
X-240.69 Y-149.105 Z10.128
X-240.684 Y-149.128 Z9.987
X-240.674 Y-149.166 Z9.851
X-240.661 Y-149.219 Z9.719
X-240.644 Y-149.286 Z9.594
X-240.624 Y-149.366 Z9.478
X-240.6 Y-149.458 Z9.372
X-240.574 Y-149.56 Z9.277
X-240.545 Y-149.673 Z9.195
X-240.515 Y-149.794 Z9.126
X-240.482 Y-149.921 Z9.071
X-240.448 Y-150.054 Z9.032
X-240.414 Y-150.19 Z9.008
X-240.379 Y-150.328 Z9
G3 X-240.002 Y-151.017 I1.534 J0.39
G1 X-236.958 Y-154.062
X-236.605 Y-154.381
X-236.296 Y-154.631
X-235.907 Y-154.913
X-235.468 Y-155.196
X-234.924 Y-155.507
X-234.301 Y-155.819
X-233.537 Y-156.151
X-232.608 Y-156.496
X-231.464 Y-156.852
X-230.212 Y-157.168
X-228.945 Y-157.426
X-227.671 Y-157.636
X-226.39 Y-157.81
X-225.106 Y-157.952
X-223.82 Y-158.07
X-222.531 Y-158.168
X-221.242 Y-158.249
X-219.951 Y-158.316
X-218.66 Y-158.372
X-217.369 Y-158.418
X-216.078 Y-158.457
X-214.786 Y-158.489
X-213.494 Y-158.515
X-212.202 Y-158.538
X-210.911 Y-158.556
X-209.619 Y-158.572
X-208.327 Y-158.585
X-207.035 Y-158.596
X-205.743 Y-158.605
X-204.451 Y-158.612
X-203.158 Y-158.618
X-200.574 Y-158.628
X-197.99 Y-158.635
X-194.114 Y-158.641
X-188.946 Y-158.646
X-187.654
X-177.317 Y-158.649
X-173.441
X-172.149 Y-158.648
X-170.857 Y-158.644
X-169.565 Y-158.63
X-168.818 Y-158.6
X-168.33 Y-158.544
X-167.855 Y-158.416
X-167.405 Y-158.219
X-166.989 Y-157.957
X-166.617 Y-157.637
X-163.616 Y-154.636
G3 X-163.286 Y-153.937 I-0.929 J0.866
G1 X-163.267 Y-153.796 Z9.008
X-163.249 Y-153.657 Z9.032
X-163.231 Y-153.521 Z9.071
X-163.213 Y-153.391 Z9.126
X-163.197 Y-153.267 Z9.195
X-163.182 Y-153.152 Z9.277
X-163.168 Y-153.047 Z9.372
X-163.155 Y-152.953 Z9.478
X-163.144 Y-152.871 Z9.594
X-163.135 Y-152.803 Z9.719
X-163.128 Y-152.749 Z9.851
X-163.123 Y-152.709 Z9.987
X-163.12 Y-152.686 Z10.128
X-163.119 Y-152.678 Z10.27
G0 Z23
X-237.647 Y-152.142
Z11.54
G1 Z10.27 F849.6
X-237.645 Y-152.15 Z10.128
X-237.639 Y-152.173 Z9.987
X-237.629 Y-152.211 Z9.851
X-237.616 Y-152.264 Z9.719
X-237.599 Y-152.331 Z9.594
X-237.579 Y-152.41 Z9.478
X-237.555 Y-152.502 Z9.372
X-237.529 Y-152.605 Z9.277
X-237.501 Y-152.718 Z9.195
X-237.47 Y-152.839 Z9.126
X-237.437 Y-152.966 Z9.071
X-237.404 Y-153.099 Z9.032
X-237.369 Y-153.235 Z9.008
X-237.334 Y-153.373 Z9
G3 X-236.958 Y-154.062 I1.534 J0.39
G1 X-234.075 Y-156.945
X-233.588 Y-157.385
X-233.28 Y-157.635
X-232.89 Y-157.917
X-232.453 Y-158.199
X-231.909 Y-158.509
X-231.287 Y-158.821
X-230.525 Y-159.152
X-229.597 Y-159.497
X-228.454 Y-159.853
X-227.201 Y-160.169
X-225.935 Y-160.427
X-224.66 Y-160.637
X-223.38 Y-160.81
X-222.096 Y-160.953
X-220.809 Y-161.071
X-219.521 Y-161.168
X-218.231 Y-161.249
X-216.941 Y-161.316
X-215.65 Y-161.372
X-214.359 Y-161.418
X-213.067 Y-161.457
X-211.776 Y-161.489
X-210.484 Y-161.516
X-209.192 Y-161.538
X-207.9 Y-161.556
X-206.608 Y-161.572
X-205.316 Y-161.585
X-204.024 Y-161.596
X-202.732 Y-161.605
X-201.44 Y-161.612
X-200.148 Y-161.618
X-197.564 Y-161.628
X-194.98 Y-161.635
X-191.104 Y-161.641
X-185.936 Y-161.646
X-184.643
X-176.891 Y-161.648
X-175.599
X-174.307 Y-161.645
X-173.015 Y-161.636
X-171.723 Y-161.603
X-171.695 Y-161.6
X-171.235 Y-161.531
X-170.789 Y-161.397
X-170.367 Y-161.202
X-169.976 Y-160.949
X-169.625 Y-160.644
X-166.617 Y-157.637
G3 X-166.287 Y-156.938 I-0.929 J0.866
G1 X-166.268 Y-156.797 Z9.008
X-166.249 Y-156.657 Z9.032
X-166.231 Y-156.522 Z9.071
X-166.214 Y-156.391 Z9.126
X-166.198 Y-156.268 Z9.195
X-166.182 Y-156.153 Z9.277
X-166.168 Y-156.047 Z9.372
X-166.156 Y-155.953 Z9.478
X-166.145 Y-155.872 Z9.594
X-166.136 Y-155.803 Z9.719
X-166.129 Y-155.749 Z9.851
X-166.124 Y-155.71 Z9.987
X-166.12 Y-155.687 Z10.128
X-166.119 Y-155.679 Z10.27
G0 Z23
X-234.764 Y-155.024
Z11.54
G1 Z10.27 F849.6
X-234.762 Y-155.032 Z10.128
X-234.757 Y-155.055 Z9.987
X-234.747 Y-155.094 Z9.851
X-234.733 Y-155.146 Z9.719
X-234.716 Y-155.213 Z9.594
X-234.696 Y-155.293 Z9.478
X-234.673 Y-155.385 Z9.372
X-234.647 Y-155.488 Z9.277
X-234.618 Y-155.6 Z9.195
X-234.587 Y-155.721 Z9.126
X-234.555 Y-155.849 Z9.071
X-234.521 Y-155.981 Z9.032
X-234.486 Y-156.118 Z9.008
X-234.451 Y-156.255 Z9
G3 X-234.075 Y-156.945 I1.534 J0.39
G1 X-231.029 Y-159.99
X-230.596 Y-160.382
X-230.287 Y-160.633
X-229.898 Y-160.915
X-229.46 Y-161.197
X-228.915 Y-161.508
X-228.293 Y-161.82
X-227.53 Y-162.151
X-226.6 Y-162.497
X-225.457 Y-162.852
X-224.204 Y-163.169
X-222.938 Y-163.426
X-221.663 Y-163.637
X-220.383 Y-163.81
