%
(1001)
(z0 top machine -5-5)
(T1  D=1.587 CR=0 - ZMIN=-3 - flat end mill)
G90 G94
G17
G21

(2D Adaptive9)
M9
T1 M6
S20000 M3
G54
M9
G0 X-18.162 Y-94.489
Z15
Z5
Z2.709
G1 Z2.55 F849.6
G3 X-16.713 Y-94.906 Z2.467 I0.725 J-0.209 F283.2
X-18.162 Y-94.489 Z2.385 I-0.725 J0.209
X-16.713 Y-94.906 Z2.302 I0.725 J-0.209
X-18.162 Y-94.489 Z2.219 I-0.725 J0.209
X-16.713 Y-94.906 Z2.136 I0.725 J-0.209
X-18.162 Y-94.489 Z2.054 I-0.725 J0.209
X-16.713 Y-94.906 Z1.971 I0.725 J-0.209
X-18.162 Y-94.489 Z1.888 I-0.725 J0.209
X-16.713 Y-94.906 Z1.805 I0.725 J-0.209
X-18.162 Y-94.489 Z1.723 I-0.725 J0.209
X-16.713 Y-94.906 Z1.64 I0.725 J-0.209
X-18.162 Y-94.489 Z1.557 I-0.725 J0.209
X-16.713 Y-94.906 Z1.475 I0.725 J-0.209
X-18.162 Y-94.489 Z1.392 I-0.725 J0.209
X-16.713 Y-94.906 Z1.309 I0.725 J-0.209
X-18.162 Y-94.489 Z1.226 I-0.725 J0.209
X-16.713 Y-94.906 Z1.144 I0.725 J-0.209
X-18.162 Y-94.489 Z1.061 I-0.725 J0.209
X-16.713 Y-94.906 Z0.978 I0.725 J-0.209
X-18.162 Y-94.489 Z0.895 I-0.725 J0.209
X-16.713 Y-94.906 Z0.813 I0.725 J-0.209
X-18.162 Y-94.489 Z0.73 I-0.725 J0.209
X-16.713 Y-94.906 Z0.647 I0.725 J-0.209
X-18.162 Y-94.489 Z0.565 I-0.725 J0.209
X-16.713 Y-94.906 Z0.482 I0.725 J-0.209
X-18.162 Y-94.489 Z0.399 I-0.725 J0.209
X-16.713 Y-94.906 Z0.316 I0.725 J-0.209
X-18.162 Y-94.489 Z0.234 I-0.725 J0.209
X-16.713 Y-94.906 Z0.151 I0.725 J-0.209
X-18.162 Y-94.489 Z0.068 I-0.725 J0.209
X-16.713 Y-94.906 Z-0.014 I0.725 J-0.209
X-18.162 Y-94.489 Z-0.097 I-0.725 J0.209
X-16.713 Y-94.906 Z-0.18 I0.725 J-0.209
X-18.162 Y-94.489 Z-0.263 I-0.725 J0.209
X-16.713 Y-94.906 Z-0.345 I0.725 J-0.209
X-18.162 Y-94.489 Z-0.428 I-0.725 J0.209
X-16.713 Y-94.906 Z-0.511 I0.725 J-0.209
X-18.162 Y-94.489 Z-0.594 I-0.725 J0.209
X-16.713 Y-94.906 Z-0.676 I0.725 J-0.209
X-18.162 Y-94.489 Z-0.759 I-0.725 J0.209
X-16.713 Y-94.906 Z-0.842 I0.725 J-0.209
X-18.162 Y-94.489 Z-0.924 I-0.725 J0.209
X-16.713 Y-94.906 Z-1.007 I0.725 J-0.209
X-18.162 Y-94.489 Z-1.09 I-0.725 J0.209
X-16.713 Y-94.906 Z-1.173 I0.725 J-0.209
X-18.162 Y-94.489 Z-1.255 I-0.725 J0.209
X-16.713 Y-94.906 Z-1.338 I0.725 J-0.209
X-18.162 Y-94.489 Z-1.421 I-0.725 J0.209
X-16.713 Y-94.906 Z-1.504 I0.725 J-0.209
X-18.162 Y-94.489 Z-1.586 I-0.725 J0.209
X-16.713 Y-94.906 Z-1.669 I0.725 J-0.209
X-18.162 Y-94.489 Z-1.752 I-0.725 J0.209
X-16.713 Y-94.906 Z-1.834 I0.725 J-0.209
X-18.162 Y-94.489 Z-1.917 I-0.725 J0.209
X-16.713 Y-94.906 Z-2 I0.725 J-0.209
X-18.162 Y-94.489 Z-2.083 I-0.725 J0.209
X-16.713 Y-94.906 Z-2.165 I0.725 J-0.209
X-18.162 Y-94.489 Z-2.248 I-0.725 J0.209
X-16.713 Y-94.906 Z-2.331 I0.725 J-0.209
X-18.162 Y-94.489 Z-2.414 I-0.725 J0.209
X-16.713 Y-94.906 Z-2.496 I0.725 J-0.209
X-18.162 Y-94.489 Z-2.579 I-0.725 J0.209
X-16.713 Y-94.906 Z-2.662 I0.725 J-0.209
X-18.162 Y-94.489 Z-2.744 I-0.725 J0.209
X-16.713 Y-94.906 Z-2.827 I0.725 J-0.209
X-18.162 Y-94.489 Z-2.91 I-0.725 J0.209
X-17.543 Y-95.444 Z-2.955 I0.725 J-0.209
X-16.683 Y-94.697 Z-3 I0.105 J0.747
X-18.192 I-0.754
X-16.683 I0.754
G1 X-16.652 Y-94.268 F849.6
Y-94.118
X-16.701 Y-93.976
X-16.783 Y-93.85
X-16.889 Y-93.744
X-17.013 Y-93.66
X-17.149 Y-93.597
X-17.293 Y-93.556
X-17.442 Y-93.538
X-17.592 Y-93.541
X-17.74 Y-93.564
X-17.884 Y-93.608
X-18.02 Y-93.671
X-18.147 Y-93.751
X-18.262 Y-93.847
X-18.364 Y-93.957
X-18.451 Y-94.079
X-18.522 Y-94.211
X-18.575 Y-94.351
X-18.61 Y-94.497
X-18.627 Y-94.646
X-18.624 Y-94.796
X-18.602 Y-94.945
X-18.562 Y-95.089
X-18.504 Y-95.228
X-18.429 Y-95.357
X-18.338 Y-95.477
X-18.233 Y-95.584
X-18.116 Y-95.677
X-17.987 Y-95.754
X-17.85 Y-95.815
X-17.706 Y-95.858
X-17.558 Y-95.883
X-17.409 Y-95.889
X-17.259 Y-95.876
X-17.113 Y-95.844
X-16.971 Y-95.794
X-16.837 Y-95.727
X-16.712 Y-95.643
X-16.599 Y-95.545
X-16.5 Y-95.433
X-16.415 Y-95.309
X-16.346 Y-95.176
X-16.281 Y-95.017
X-16.225 Y-94.843
X-16.187 Y-94.684
X-16.164 Y-94.536
X-16.156 Y-94.386
X-16.162 Y-94.237
X-16.187 Y-94.089
X-16.229 Y-93.945
X-16.287 Y-93.807
X-16.363 Y-93.677
X-16.453 Y-93.557
X-16.556 Y-93.448
X-16.671 Y-93.352
X-16.797 Y-93.27
X-16.93 Y-93.201
X-17.07 Y-93.148
X-17.215 Y-93.11
X-17.363 Y-93.086
X-17.513 Y-93.078
X-17.663 Y-93.085
X-17.811 Y-93.107
X-17.957 Y-93.143
X-18.099 Y-93.193
X-18.234 Y-93.257
X-18.364 Y-93.332
X-18.486 Y-93.42
X-18.599 Y-93.519
X-18.702 Y-93.627
X-18.795 Y-93.745
X-18.876 Y-93.871
X-18.946 Y-94.004
X-19.004 Y-94.142
X-19.048 Y-94.286
X-19.079 Y-94.432
X-19.097 Y-94.581
X-19.101 Y-94.731
X-19.092 Y-94.881
X-19.069 Y-95.029
X-19.033 Y-95.175
X-18.984 Y-95.317
X-18.922 Y-95.453
X-18.848 Y-95.584
X-18.763 Y-95.707
X-18.666 Y-95.822
X-18.56 Y-95.928
X-18.445 Y-96.024
X-18.322 Y-96.11
X-18.191 Y-96.183
X-18.054 Y-96.245
X-17.913 Y-96.295
X-17.767 Y-96.331
X-17.619 Y-96.354
X-17.469 Y-96.364
X-17.319 Y-96.36
X-17.17 Y-96.342
X-17.024 Y-96.311
X-16.88 Y-96.268
X-16.741 Y-96.211
X-16.608 Y-96.142
X-16.481 Y-96.062
X-16.362 Y-95.971
X-16.252 Y-95.869
X-16.151 Y-95.758
X-16.058 Y-95.637
X-15.969 Y-95.502
X-15.887 Y-95.352
X-15.816 Y-95.197
X-15.758 Y-95.039
X-15.713 Y-94.881
X-15.684 Y-94.734
X-15.666 Y-94.584
X-15.659 Y-94.431
X-15.664 Y-94.281
X-15.681 Y-94.132
X-15.71 Y-93.985
X-15.751 Y-93.841
X-15.804 Y-93.7
X-15.868 Y-93.565
X-15.944 Y-93.435
X-16.03 Y-93.313
X-16.126 Y-93.197
X-16.232 Y-93.091
X-16.346 Y-92.993
X-16.467 Y-92.905
X-16.595 Y-92.827
X-16.729 Y-92.76
X-16.868 Y-92.703
X-17.011 Y-92.658
X-17.157 Y-92.624
X-17.306 Y-92.601
X-17.46 Y-92.59
X-17.614
X-17.763 Y-92.602
X-17.915 Y-92.625
X-18.068 Y-92.662
X-18.22 Y-92.71
X-18.365 Y-92.769
X-18.504 Y-92.838
X-18.64 Y-92.92
X-18.771 Y-93.012
X-18.896 Y-93.116
X-19.013 Y-93.229
X-19.12 Y-93.349
X-19.216 Y-93.476
X-19.304 Y-93.612
X-19.382 Y-93.756
X-19.449 Y-93.907
X-19.505 Y-94.064
X-19.548 Y-94.221
X-19.578 Y-94.378
X-19.597 Y-94.541
X-19.603 Y-94.707
X-19.596 Y-94.874
X-19.577 Y-95.039
X-19.545 Y-95.201
X-19.502 Y-95.359
X-19.446 Y-95.512
X-19.378 Y-95.663
X-19.298 Y-95.809
X-19.207 Y-95.95
X-19.105 Y-96.083
X-18.996 Y-96.205
X-18.879 Y-96.318
X-18.751 Y-96.423
X-18.614 Y-96.519
X-18.47 Y-96.604
X-18.32 Y-96.678
X-18.165 Y-96.741
X-18.009 Y-96.79
X-17.85 Y-96.827
X-17.686 Y-96.852
X-17.519 Y-96.865
X-17.351
X-17.184 Y-96.852
X-17.021 Y-96.826
X-16.861 Y-96.789
X-16.704 Y-96.739
X-16.55 Y-96.677
X-16.4 Y-96.603
X-16.255 Y-96.516
X-16.114 Y-96.417
X-15.977 Y-96.303
X-15.846 Y-96.178
X-15.722 Y-96.038
X-15.605 Y-95.885
X-15.498 Y-95.72
X-15.404 Y-95.545
X-15.323 Y-95.366
X-15.258 Y-95.183
X-15.206 Y-94.996
X-15.17 Y-94.808
X-15.148 Y-94.622
X-15.141 Y-94.436
X-15.148 Y-94.252
X-15.169 Y-94.071
X-15.204 Y-93.894
X-15.251 Y-93.72
X-15.312 Y-93.551
X-15.385 Y-93.387
X-15.471 Y-93.23
X-15.568 Y-93.08
X-15.677 Y-92.937
X-15.796 Y-92.803
X-15.925 Y-92.679
X-16.063 Y-92.565
X-16.212 Y-92.46
X-16.368 Y-92.367
X-16.532 Y-92.286
X-16.703 Y-92.217
X-16.881 Y-92.161
X-17.065 Y-92.117
X-17.251 Y-92.089
X-17.44 Y-92.074
X-17.631
X-17.824 Y-92.088
X-18.016 Y-92.118
X-18.206 Y-92.162
X-18.392 Y-92.221
X-18.574 Y-92.294
X-18.752 Y-92.382
X-18.923 Y-92.483
X-19.086 Y-92.598
X-19.24 Y-92.725
X-19.385 Y-92.863
X-19.519 Y-93.013
X-19.641 Y-93.174
X-19.752 Y-93.344
X-19.849 Y-93.522
X-19.932 Y-93.707
X-20.001 Y-93.898
X-20.055 Y-94.094
X-20.094 Y-94.294
X-20.118 Y-94.498
X-20.126 Y-94.703
X-20.119 Y-94.907
X-20.096 Y-95.11
X-20.057 Y-95.311
X-20.003 Y-95.509
X-19.934 Y-95.703
X-19.85 Y-95.892
X-19.752 Y-96.072
X-19.641 Y-96.245
X-19.517 Y-96.408
X-19.38 Y-96.562
X-19.232 Y-96.705
X-19.073 Y-96.837
X-18.904 Y-96.956
X-18.727 Y-97.062
X-18.543 Y-97.153
X-18.353 Y-97.23
X-18.157 Y-97.293
X-17.956 Y-97.34
X-17.752 Y-97.372
X-17.546 Y-97.389
X-17.34
X-17.135 Y-97.374
X-16.931 Y-97.343
X-16.731 Y-97.297
X-16.533 Y-97.235
X-16.34 Y-97.157
X-16.15 Y-97.064
X-15.967 Y-96.956
X-15.789 Y-96.831
X-15.618 Y-96.691
X-15.455 Y-96.535
X-15.302 Y-96.365
X-15.162 Y-96.182
X-15.035 Y-95.988
X-14.924 Y-95.783
X-14.828 Y-95.571
X-14.749 Y-95.353
X-14.687 Y-95.131
X-14.643 Y-94.906
X-14.616 Y-94.68
X-14.606 Y-94.454
X-14.614 Y-94.229
X-14.639 Y-94.007
X-14.681 Y-93.788
X-14.739 Y-93.574
X-14.813 Y-93.366
X-14.903 Y-93.163
X-15.008 Y-92.969
X-15.127 Y-92.784
X-15.26 Y-92.608
X-15.406 Y-92.442
X-15.565 Y-92.288
X-15.736 Y-92.147
X-15.917 Y-92.018
X-16.11 Y-91.903
X-16.311 Y-91.802
X-16.521 Y-91.716
X-16.737 Y-91.647
X-16.959 Y-91.594
X-17.187 Y-91.558
X-17.417 Y-91.539
X-17.649 Y-91.538
X-17.882 Y-91.555
X-18.114 Y-91.59
X-18.343 Y-91.643
X-18.569 Y-91.713
X-18.79 Y-91.801
X-19.004 Y-91.906
X-19.21 Y-92.027
X-19.407 Y-92.165
X-19.593 Y-92.317
X-19.768 Y-92.484
X-19.93 Y-92.664
X-20.078 Y-92.856
X-20.212 Y-93.06
X-20.329 Y-93.273
X-20.43 Y-93.496
X-20.513 Y-93.725
X-20.58 Y-93.962
X-20.627 Y-94.202
X-20.657 Y-94.446
X-20.667 Y-94.692
X-20.659 Y-94.937
X-20.632 Y-95.182
X-20.586 Y-95.424
X-20.522 Y-95.663
X-20.44 Y-95.896
X-20.34 Y-96.121
X-20.223 Y-96.339
X-20.09 Y-96.547
X-19.941 Y-96.744
X-19.778 Y-96.929
X-19.6 Y-97.102
X-19.41 Y-97.26
X-19.209 Y-97.404
X-18.997 Y-97.531
X-18.776 Y-97.642
X-18.547 Y-97.736
X-18.311 Y-97.812
X-18.07 Y-97.87
X-17.826 Y-97.909
X-17.579 Y-97.929
X-17.332 Y-97.931
X-17.085 Y-97.913
X-16.84 Y-97.877
X-16.597 Y-97.822
X-16.359 Y-97.748
X-16.125 Y-97.655
X-15.897 Y-97.544
X-15.675 Y-97.414
X-15.462 Y-97.266
X-15.257 Y-97.099
X-15.064 Y-96.916
X-14.884 Y-96.716
X-14.719 Y-96.502
X-14.569 Y-96.274
X-14.438 Y-96.035
X-14.325 Y-95.787
X-14.231 Y-95.532
X-14.157 Y-95.271
X-14.104 Y-95.006
X-14.072 Y-94.739
X-14.06 Y-94.471
X-14.068 Y-94.204
X-14.097 Y-93.94
X-14.146 Y-93.68
X-14.214 Y-93.424
X-14.301 Y-93.176
X-14.407 Y-92.935
X-14.531 Y-92.703
X-14.673 Y-92.481
X-14.831 Y-92.271
X-15.004 Y-92.074
X-15.193 Y-91.89
X-15.396 Y-91.72
X-15.612 Y-91.566
X-15.839 Y-91.428
X-16.078 Y-91.308
X-16.326 Y-91.206
X-16.582 Y-91.123
X-16.845 Y-91.059
X-17.114 Y-91.016
X-17.386 Y-90.993
X-17.66 Y-90.991
X-17.934 Y-91.01
X-18.207 Y-91.05
X-18.478 Y-91.111
X-18.744 Y-91.193
X-19.004 Y-91.296
X-19.256 Y-91.418
X-19.499 Y-91.56
X-19.731 Y-91.72
X-19.95 Y-91.899
X-20.156 Y-92.094
X-20.347 Y-92.304
X-20.521 Y-92.529
X-20.678 Y-92.767
X-20.816 Y-93.017
X-20.935 Y-93.278
X-21.034 Y-93.547
X-21.113 Y-93.823
X-21.17 Y-94.104
X-21.205 Y-94.39
X-21.218 Y-94.677
X-21.21 Y-94.965
X-21.179 Y-95.252
X-21.126 Y-95.536
X-21.052 Y-95.815
X-20.957 Y-96.088
X-20.841 Y-96.352
X-20.705 Y-96.607
X-20.55 Y-96.852
X-20.376 Y-97.083
X-20.185 Y-97.301
X-19.979 Y-97.504
X-19.757 Y-97.69
X-19.522 Y-97.858
X-19.274 Y-98.008
X-19.015 Y-98.139
X-18.748 Y-98.25
X-18.472 Y-98.34
X-18.19 Y-98.408
X-17.905 Y-98.455
X-17.616 Y-98.48
X-17.326 Y-98.482
X-17.037 Y-98.463
X-16.749 Y-98.421
X-16.464 Y-98.357
X-16.184 Y-98.271
X-15.909 Y-98.164
X-15.641 Y-98.034
X-15.382 Y-97.883
X-15.132 Y-97.711
X-14.894 Y-97.519
X-14.67 Y-97.307
X-14.462 Y-97.077
X-14.27 Y-96.831
X-14.097 Y-96.569
X-13.945 Y-96.295
X-13.814 Y-96.01
X-13.705 Y-95.716
X-13.619 Y-95.415
X-13.557 Y-95.11
X-13.518 Y-94.801
X-13.503 Y-94.491
X-13.512 Y-94.182
X-13.544 Y-93.875
X-13.6 Y-93.572
X-13.678 Y-93.275
X-13.779 Y-92.986
X-13.901 Y-92.705
X-14.045 Y-92.435
X-14.208 Y-92.176
X-14.391 Y-91.931
X-14.593 Y-91.701
X-14.812 Y-91.486
X-15.047 Y-91.288
X-15.297 Y-91.108
X-15.561 Y-90.947
X-15.837 Y-90.807
X-16.125 Y-90.687
X-16.421 Y-90.59
X-16.726 Y-90.515
X-17.036 Y-90.464
X-17.35 Y-90.437
X-17.667 Y-90.433
X-17.984 Y-90.454
X-18.3 Y-90.499
X-18.612 Y-90.569
X-18.919 Y-90.663
X-19.219 Y-90.78
X-19.51 Y-90.92
X-19.79 Y-91.082
X-20.057 Y-91.266
X-20.311 Y-91.47
X-20.548 Y-91.694
X-20.768 Y-91.935
X-20.97 Y-92.193
X-21.151 Y-92.467
X-21.311 Y-92.753
X-21.449 Y-93.052
X-21.564 Y-93.361
X-21.655 Y-93.678
X-21.721 Y-94.001
X-21.763 Y-94.329
X-21.779 Y-94.659
X-21.771 Y-94.99
X-21.736 Y-95.32
X-21.677 Y-95.646
X-21.593 Y-95.967
X-21.484 Y-96.28
X-21.352 Y-96.585
X-21.197 Y-96.878
X-21.02 Y-97.159
X-20.821 Y-97.426
X-20.603 Y-97.677
X-20.366 Y-97.91
X-20.112 Y-98.125
X-19.843 Y-98.319
X-19.559 Y-98.493
X-19.263 Y-98.644
X-18.955 Y-98.772
X-18.639 Y-98.876
X-18.316 Y-98.956
X-17.988 Y-99.011
X-17.657 Y-99.04
X-17.323 Y-99.044
X-16.99 Y-99.023
X-16.659 Y-98.976
X-16.331 Y-98.904
X-16.008 Y-98.806
X-15.692 Y-98.683
X-15.384 Y-98.535
X-15.086 Y-98.363
X-14.8 Y-98.167
X-14.528 Y-97.949
X-14.272 Y-97.709
X-14.034 Y-97.448
X-13.816 Y-97.169
X-13.619 Y-96.874
X-13.445 Y-96.563
X-13.295 Y-96.24
X-13.171 Y-95.907
X-13.072 Y-95.566
X-13 Y-95.218
X-12.955 Y-94.867
X-12.936 Y-94.514
X-12.945 Y-94.161
X-12.981 Y-93.811
X-13.043 Y-93.465
X-13.132 Y-93.126
X-13.246 Y-92.795
X-13.385 Y-92.474
X-13.548 Y-92.164
X-13.734 Y-91.868
X-13.942 Y-91.587
X-14.171 Y-91.323
X-14.42 Y-91.076
X-14.688 Y-90.849
X-14.973 Y-90.643
X-15.274 Y-90.459
X-15.589 Y-90.297
X-15.916 Y-90.16
X-16.253 Y-90.048
X-16.599 Y-89.962
X-16.952 Y-89.903
X-17.31 Y-89.87
X-17.67 Y-89.865
X-18.03 Y-89.888
X-18.389 Y-89.938
X-18.744 Y-90.016
X-19.093 Y-90.121
X-19.433 Y-90.253
X-19.764 Y-90.411
X-20.082 Y-90.594
X-20.386 Y-90.801
X-20.674 Y-91.032
X-20.944 Y-91.284
X-21.194 Y-91.557
X-21.423 Y-91.848
X-21.629 Y-92.157
X-21.812 Y-92.481
X-21.969 Y-92.819
X-22.1 Y-93.168
X-22.205 Y-93.527
X-22.281 Y-93.892
X-22.329 Y-94.263
X-22.349 Y-94.637
X-22.34 Y-95.012
X-22.303 Y-95.385
X-22.237 Y-95.754
X-22.143 Y-96.117
X-22.021 Y-96.472
X-21.873 Y-96.817
X-21.699 Y-97.15
X-21.499 Y-97.469
X-21.276 Y-97.771
X-21.03 Y-98.055
X-20.763 Y-98.32
X-20.476 Y-98.564
X-20.172 Y-98.785
X-19.851 Y-98.982
X-19.517 Y-99.155
X-19.17 Y-99.301
X-18.813 Y-99.42
X-18.448 Y-99.511
X-18.077 Y-99.574
X-17.701 Y-99.609
X-17.324 Y-99.615
X-16.948 Y-99.592
X-16.573 Y-99.54
X-16.202 Y-99.459
X-15.836 Y-99.35
X-15.479 Y-99.212
X-15.13 Y-99.047
X-14.794 Y-98.854
X-14.471 Y-98.635
X-14.164 Y-98.39
X-13.876 Y-98.121
X-13.608 Y-97.829
X-13.362 Y-97.517
X-13.14 Y-97.186
X-12.943 Y-96.839
X-12.774 Y-96.477
X-12.633 Y-96.103
X-12.521 Y-95.72
X-12.439 Y-95.33
X-12.386 Y-94.936
X-12.365 Y-94.539
X-12.373 Y-94.143
X-12.412 Y-93.749
X-12.481 Y-93.36
X-12.579 Y-92.978
X-12.706 Y-92.604
X-12.861 Y-92.243
X-13.044 Y-91.894
X-13.252 Y-91.56
X-13.485 Y-91.243
X-13.743 Y-90.944
X-14.022 Y-90.666
X-14.323 Y-90.41
X-14.642 Y-90.176
X-14.98 Y-89.968
X-15.333 Y-89.786
X-15.7 Y-89.63
X-16.078 Y-89.503
X-16.467 Y-89.405
X-16.863 Y-89.337
X-17.264 Y-89.3
X-17.667 Y-89.293
X-18.072 Y-89.317
X-18.474 Y-89.372
X-18.872 Y-89.458
X-19.263 Y-89.574
X-19.645 Y-89.72
X-20.015 Y-89.896
X-20.372 Y-90.099
X-20.713 Y-90.33
X-21.036 Y-90.587
X-21.339 Y-90.868
X-21.62 Y-91.173
X-21.877 Y-91.498
X-22.109 Y-91.842
X-22.314 Y-92.204
X-22.491 Y-92.581
X-22.639 Y-92.971
X-22.757 Y-93.371
X-22.844 Y-93.779
X-22.899 Y-94.193
X-22.923 Y-94.611
X-22.914 Y-95.029
X-22.874 Y-95.446
X-22.801 Y-95.859
X-22.698 Y-96.265
X-22.563 Y-96.662
X-22.399 Y-97.048
X-22.205 Y-97.42
X-21.983 Y-97.777
X-21.735 Y-98.115
X-21.462 Y-98.434
X-21.164 Y-98.731
X-20.845 Y-99.004
X-20.506 Y-99.252
X-20.149 Y-99.473
X-19.776 Y-99.667
X-19.389 Y-99.831
X-18.991 Y-99.966
X-18.583 Y-100.069
X-18.169 Y-100.141
X-17.75 Y-100.181
X-17.329 Y-100.189
X-16.908 Y-100.165
X-16.489 Y-100.108
X-16.075 Y-100.02
X-15.667 Y-99.899
X-15.267 Y-99.747
X-14.878 Y-99.563
X-14.503 Y-99.35
X-14.143 Y-99.107
X-13.801 Y-98.836
X-13.48 Y-98.538
X-13.181 Y-98.216
X-12.907 Y-97.87
X-12.659 Y-97.504
X-12.44 Y-97.119
X-12.251 Y-96.718
X-12.093 Y-96.304
X-11.967 Y-95.879
X-11.874 Y-95.447
X-11.815 Y-95.009
X-11.79 Y-94.568
X-11.798 Y-94.128
X-11.84 Y-93.69
X-11.915 Y-93.257
X-12.022 Y-92.832
X-12.162 Y-92.416
X-12.333 Y-92.013
X-12.535 Y-91.625
X-12.765 Y-91.252
X-13.024 Y-90.899
X-13.309 Y-90.566
X-13.619 Y-90.256
X-13.952 Y-89.969
X-14.306 Y-89.709
X-14.68 Y-89.476
X-15.072 Y-89.272
X-15.479 Y-89.098
X-15.899 Y-88.956
X-16.33 Y-88.846
X-16.769 Y-88.769
X-17.213 Y-88.726
X-17.661 Y-88.716
X-18.11 Y-88.741
X-18.556 Y-88.801
X-18.996 Y-88.895
X-19.428 Y-89.021
X-19.85 Y-89.181
X-20.258 Y-89.372
X-20.65 Y-89.593
X-21.024 Y-89.844
X-21.379 Y-90.122
X-21.711 Y-90.426
X-22.02 Y-90.754
X-22.303 Y-91.104
X-22.559 Y-91.475
X-22.786 Y-91.864
X-22.984 Y-92.269
X-23.151 Y-92.687
X-23.286 Y-93.117
X-23.389 Y-93.555
X-23.458 Y-94
X-23.495 Y-94.449
X-23.498 Y-94.9
X-23.467 Y-95.349
X-23.403 Y-95.795
X-23.306 Y-96.235
X-23.176 Y-96.666
X-23.015 Y-97.087
X-22.823 Y-97.494
X-22.602 Y-97.887
X-22.352 Y-98.261
X-22.074 Y-98.616
X-21.772 Y-98.95
X-21.445 Y-99.259
X-21.095 Y-99.544
X-20.726 Y-99.802
X-20.338 Y-100.031
X-19.935 Y-100.231
X-19.518 Y-100.401
X-19.089 Y-100.539
X-18.651 Y-100.645
X-18.207 Y-100.719
X-17.758 Y-100.759
X-17.308 Y-100.766
X-16.858 Y-100.74
X-16.411 Y-100.68
X-15.971 Y-100.588
X-15.538 Y-100.464
X-15.115 Y-100.308
X-14.705 Y-100.122
X-14.309 Y-99.907
X-13.93 Y-99.664
X-13.569 Y-99.394
X-13.228 Y-99.1
X-12.909 Y-98.781
X-12.614 Y-98.441
X-12.344 Y-98.081
X-12.101 Y-97.702
X-11.885 Y-97.306
X-11.698 Y-96.896
X-11.54 Y-96.474
X-11.413 Y-96.042
X-11.316 Y-95.603
X-11.25 Y-95.157
X-11.216 Y-94.708
X-11.214 Y-94.257
X-11.243 Y-93.808
X-11.305 Y-93.362
X-11.397 Y-92.921
X-11.521 Y-92.488
X-11.677 Y-92.065
X-11.862 Y-91.655
X-12.077 Y-91.259
X-12.32 Y-90.879
X-12.588 Y-90.518
X-12.882 Y-90.176
X-13.2 Y-89.857
X-13.539 Y-89.56
X-13.899 Y-89.289
X-14.276 Y-89.044
X-14.565 Y-88.884
X-14.591 Y-88.871
X-14.617 Y-88.859
X-14.645 Y-88.849
X-14.76 Y-88.812
X-15.041 Y-88.71
X-15.258 Y-88.621
X-15.29 Y-88.607
X-15.361 Y-88.577
X-15.463 Y-88.533
X-15.792 Y-88.411
X-16.169 Y-88.304
X-16.593 Y-88.217
X-16.766 Y-88.196
X-16.774 Y-88.195
G3 X-16.819 Y-88.508 I-0.005 J-0.159
G1 X-15.57 Y-88.831
G3 X-15.463 Y-88.533 I0.04 J0.154
G1 X-15.668 Y-88.446
X-15.778 Y-88.403
X-16.061 Y-88.3
X-16.179 Y-88.27
X-16.384 Y-88.228
X-16.486 Y-88.215
X-16.793 Y-88.194
X-17.1 Y-88.201
X-17.203 Y-88.206
X-17.51 Y-88.229
X-17.919 Y-88.265
X-18.278 Y-88.3
X-18.635 Y-88.338
X-18.84 Y-88.36
X-19.284 Y-88.434
X-19.572 Y-88.501
X-19.924 Y-88.611
X-20.309 Y-88.764
X-20.696 Y-88.954
X-21.084 Y-89.183
X-21.454 Y-89.441
X-21.804 Y-89.724
X-22.134 Y-90.03
X-22.442 Y-90.359
X-22.727 Y-90.708
X-22.988 Y-91.075
X-23.223 Y-91.459
X-23.432 Y-91.858
X-23.614 Y-92.271
X-23.767 Y-92.694
X-23.89 Y-93.128
X-23.982 Y-93.568
X-24.044 Y-94.015
X-24.075 Y-94.464
X-24.076 Y-94.914
X-24.047 Y-95.364
X-23.987 Y-95.81
X-23.898 Y-96.252
X-23.779 Y-96.686
X-23.631 Y-97.112
X-23.455 Y-97.526
X-23.251 Y-97.928
X-23.019 Y-98.314
X-22.761 Y-98.684
X-22.479 Y-99.035
X-22.174 Y-99.366
X-21.847 Y-99.676
X-21.5 Y-99.963
X-21.134 Y-100.226
X-20.751 Y-100.463
X-20.353 Y-100.675
X-19.942 Y-100.859
X-19.52 Y-101.015
X-19.127 Y-101.13
X-19.09 Y-101.139
X-19.053 Y-101.144
X-19.016 Y-101.146
X-16.384
X-16.109 Y-101.133
X-15.855 Y-101.1
X-15.524 Y-101.032
X-15.149 Y-100.924
X-14.764 Y-100.781
X-14.355 Y-100.592
X-13.961 Y-100.373
X-13.583 Y-100.128
X-13.222 Y-99.858
X-12.88 Y-99.566
X-12.557 Y-99.251
X-12.255 Y-98.917
X-11.976 Y-98.563
X-11.721 Y-98.192
X-11.49 Y-97.805
X-11.286 Y-97.404
X-11.108 Y-96.99
X-10.958 Y-96.565
X-10.836 Y-96.131
X-10.743 Y-95.691
X-10.677 Y-95.245
X-10.64 Y-94.796
X-10.633 Y-94.346
X-10.654 Y-93.896
X-10.704 Y-93.448
X-10.782 Y-93.005
X-10.89 Y-92.567
X-11.026 Y-92.138
X-11.191 Y-91.719
X-11.385 Y-91.312
X-11.604 Y-90.919
X-11.849 Y-90.541
X-12.118 Y-90.179
X-12.409 Y-89.836
X-12.722 Y-89.512
X-13.056 Y-89.209
X-13.097 Y-89.176
X-13.163 Y-89.134
X-13.237 Y-89.105
X-13.314 Y-89.093
X-13.417 Y-89.085
X-13.621 Y-89.063
X-13.724 Y-89.052
X-14.031 Y-89.003
X-14.235 Y-88.96
X-14.338 Y-88.936
X-14.44 Y-88.908
X-14.645 Y-88.849
X-14.706 Y-88.842
X-18.778 Y-88.365
X-18.809 Y-88.361
G3 X-18.84 Y-88.36 I-0.018 J-0.158
G1 X-19.249 Y-88.408
X-19.556 Y-88.446
X-20.002 Y-88.505
X-20.374 Y-88.556
X-20.784 Y-88.615
X-20.941 Y-88.647
X-21.094 Y-88.69
X-21.258 Y-88.75
X-21.456 Y-88.84
X-21.686 Y-88.967
X-21.966 Y-89.151
X-22.25 Y-89.37
X-22.573 Y-89.661
X-22.883 Y-89.987
X-23.17 Y-90.335
X-23.434 Y-90.7
X-23.674 Y-91.081
X-23.89 Y-91.476
X-24.082 Y-91.884
X-24.247 Y-92.303
X-24.386 Y-92.731
X-24.497 Y-93.168
X-24.579 Y-93.611
X-24.633 Y-94.058
X-24.658 Y-94.508
X-24.656 Y-94.958
X-24.625 Y-95.408
X-24.568 Y-95.854
X-24.482 Y-96.297
X-24.37 Y-96.733
X-24.232 Y-97.162
X-24.067 Y-97.581
X-23.877 Y-97.989
X-23.661 Y-98.384
X-23.42 Y-98.765
X-23.154 Y-99.129
X-22.867 Y-99.476
X-22.558 Y-99.804
X-22.23 Y-100.112
X-21.883 Y-100.399
X-21.519 Y-100.665
X-21.14 Y-100.908
X-20.8 Y-101.097
X-20.74 Y-101.124
X-20.675 Y-101.141
X-20.609 Y-101.146
X-19.016
G3 X-18.956 Y-101.132 I-0.006 J0.159
G1 X-18.911 Y-101.112 Z-2.992
X-18.871 Y-101.093 Z-2.97
X-18.839 Y-101.079 Z-2.935
X-18.818 Y-101.069 Z-2.89
X-18.811 Y-101.066 Z-2.841
G0 Z5
X-20.908 Y-88.746
Z-2.682
G1 Z-2.841 F849.6
X-20.901 Y-88.743 Z-2.89
X-20.881 Y-88.733 Z-2.935
X-20.849 Y-88.717 Z-2.97
X-20.81 Y-88.697 Z-2.992
X-20.766 Y-88.675 Z-3
G3 X-20.784 Y-88.615 I-0.014 J0.028
G1 X-21.193 Y-88.678
X-21.602 Y-88.744
X-22.005 Y-88.812
X-22.152 Y-88.845
X-22.293 Y-88.896
X-22.431 Y-88.96
X-22.587 Y-89.047
X-22.782 Y-89.176
X-22.984 Y-89.334
X-23.227 Y-89.556
X-23.503 Y-89.849
X-23.786 Y-90.2
X-24.042 Y-90.57
X-24.274 Y-90.956
X-24.482 Y-91.356
X-24.666 Y-91.767
X-24.825 Y-92.189
X-24.959 Y-92.619
X-25.067 Y-93.056
X-25.15 Y-93.499
X-25.206 Y-93.946
X-25.236 Y-94.395
X-25.24 Y-94.845
X-25.219 Y-95.295
X-25.173 Y-95.743
X-25.101 Y-96.188
X-25.004 Y-96.628
X-24.882 Y-97.062
X-24.734 Y-97.487
X-24.563 Y-97.904
X-24.367 Y-98.309
X-24.148 Y-98.703
X-23.906 Y-99.083
X-23.642 Y-99.448
X-23.357 Y-99.797
X-23.053 Y-100.129
X-22.731 Y-100.444
X-22.391 Y-100.739
X-22.034 Y-101.015
X-21.944 Y-101.077
X-21.875 Y-101.115
X-21.799 Y-101.138
X-21.721 Y-101.146
X-20.609
G3 X-20.549 Y-101.132 I-0.006 J0.159
G1 X-20.504 Y-101.112 Z-2.992
X-20.464 Y-101.093 Z-2.97
X-20.432 Y-101.079 Z-2.935
X-20.411 Y-101.069 Z-2.89
X-20.404 Y-101.066 Z-2.841
G0 Z5
X-22.126 Y-88.946
Z-2.682
G1 Z-2.841 F849.6
X-22.119 Y-88.942 Z-2.89
X-22.099 Y-88.932 Z-2.935
X-22.068 Y-88.915 Z-2.97
X-22.029 Y-88.894 Z-2.992
X-21.986 Y-88.871 Z-3
G3 X-22.005 Y-88.812 I-0.015 J0.028
G1 X-22.319 Y-88.867
X-22.626 Y-88.923
X-22.989 Y-88.994
X-23.134 Y-89.031
X-23.274 Y-89.086
X-23.407 Y-89.155
X-23.543 Y-89.24
X-23.715 Y-89.368
X-23.882 Y-89.513
X-24.095 Y-89.728
X-24.322 Y-89.997
X-24.569 Y-90.337
X-24.804 Y-90.722
X-25.013 Y-91.121
X-25.198 Y-91.531
X-25.359 Y-91.952
X-25.497 Y-92.381
X-25.61 Y-92.817
X-25.7 Y-93.258
X-25.766 Y-93.704
X-25.808 Y-94.152
X-25.826 Y-94.602
X-25.82 Y-95.053
X-25.789 Y-95.502
X-25.735 Y-95.949
X-25.656 Y-96.393
X-25.555 Y-96.832
X-25.429 Y-97.264
X-25.281 Y-97.69
X-25.11 Y-98.106
X-24.917 Y-98.513
X-24.702 Y-98.909
X-24.466 Y-99.293
X-24.209 Y-99.663
X-23.933 Y-100.019
X-23.639 Y-100.36
X-23.326 Y-100.684
X-22.997 Y-100.992
X-22.922 Y-101.055
X-22.846 Y-101.105
X-22.76 Y-101.136
X-22.669 Y-101.146
X-21.721
G3 X-21.661 Y-101.132 I-0.006 J0.159
G1 X-21.616 Y-101.112 Z-2.992
X-21.576 Y-101.093 Z-2.97
X-21.544 Y-101.079 Z-2.935
X-21.523 Y-101.069 Z-2.89
X-21.516 Y-101.066 Z-2.841
G0 Z5
X-23.106 Y-89.131
Z-2.682
G1 Z-2.841 F849.6
X-23.099 Y-89.127 Z-2.89
X-23.08 Y-89.116 Z-2.935
X-23.049 Y-89.099 Z-2.97
X-23.011 Y-89.077 Z-2.992
X-22.968 Y-89.052 Z-3
G3 X-22.989 Y-88.994 I-0.016 J0.028
G1 X-23.342 Y-89.066
X-23.649 Y-89.133
X-23.91 Y-89.193
X-24.054 Y-89.235
X-24.191 Y-89.296
X-24.32 Y-89.372
X-24.454 Y-89.467
X-24.599 Y-89.589
X-24.758 Y-89.744
X-24.941 Y-89.953
X-25.151 Y-90.231
X-25.364 Y-90.566
X-25.576 Y-90.963
X-25.761 Y-91.374
X-25.921 Y-91.795
X-26.058 Y-92.224
X-26.173 Y-92.659
X-26.265 Y-93.1
X-26.334 Y-93.545
X-26.382 Y-93.993
X-26.406 Y-94.443
X-26.409 Y-94.894
X-26.389 Y-95.344
X-26.346 Y-95.792
X-26.282 Y-96.238
X-26.195 Y-96.68
X-26.085 Y-97.117
X-25.953 Y-97.547
X-25.8 Y-97.971
X-25.626 Y-98.386
X-25.431 Y-98.792
X-25.215 Y-99.188
X-24.98 Y-99.572
X-24.726 Y-99.944
X-24.454 Y-100.303
X-24.165 Y-100.648
X-23.858 Y-100.978
X-23.8 Y-101.034
X-23.72 Y-101.095
X-23.626 Y-101.133
X-23.526 Y-101.146
X-22.669
G3 X-22.609 Y-101.132 I-0.006 J0.159
G1 X-22.564 Y-101.112 Z-2.992
X-22.524 Y-101.093 Z-2.97
X-22.492 Y-101.079 Z-2.935
X-22.472 Y-101.069 Z-2.89
X-22.465 Y-101.066 Z-2.841
G0 Z5
X-24.022 Y-89.334
Z-2.682
G1 Z-2.841 F849.6
X-24.016 Y-89.33 Z-2.89
X-23.997 Y-89.319 Z-2.935
X-23.967 Y-89.3 Z-2.97
X-23.929 Y-89.277 Z-2.992
X-23.887 Y-89.252 Z-3
G3 X-23.91 Y-89.193 I-0.017 J0.027
G1 X-24.058 Y-89.229
X-24.263 Y-89.282
X-24.365 Y-89.309
X-24.672 Y-89.398
X-24.774 Y-89.433
X-24.877 Y-89.47
X-25.015 Y-89.526
X-25.145 Y-89.602
X-25.266 Y-89.69
X-25.396 Y-89.803
X-25.528 Y-89.936
X-25.692 Y-90.129
X-25.852 Y-90.349
X-26.039 Y-90.654
X-26.242 Y-91.049
X-26.417 Y-91.464
X-26.565 Y-91.89
X-26.691 Y-92.322
X-26.795 Y-92.76
X-26.877 Y-93.203
X-26.938 Y-93.65
X-26.978 Y-94.098
X-26.996 Y-94.548
X-26.993 Y-94.999
X-26.969 Y-95.449
X-26.924 Y-95.897
X-26.857 Y-96.342
X-26.77 Y-96.784
X-26.662 Y-97.222
X-26.534 Y-97.653
X-26.385 Y-98.078
X-26.216 Y-98.496
X-26.028 Y-98.905
X-25.821 Y-99.305
X-25.595 Y-99.695
X-25.351 Y-100.074
X-25.09 Y-100.441
X-24.812 Y-100.795
X-24.664 Y-100.965
X-24.614 Y-101.019
X-24.531 Y-101.088
X-24.432 Y-101.131
X-24.324 Y-101.146
X-23.526
G3 X-23.465 Y-101.132 I-0.006 J0.159
G1 X-23.421 Y-101.112 Z-2.992
X-23.38 Y-101.093 Z-2.97
X-23.348 Y-101.079 Z-2.935
X-23.328 Y-101.069 Z-2.89
X-23.321 Y-101.066 Z-2.841
G0 Z5
X-24.973 Y-89.622
Z-2.682
G1 Z-2.841 F849.6
X-24.967 Y-89.617 Z-2.89
X-24.949 Y-89.603 Z-2.935
X-24.921 Y-89.582 Z-2.97
X-24.886 Y-89.555 Z-2.992
X-24.848 Y-89.525 Z-3
G3 X-24.877 Y-89.47 I-0.019 J0.025
G1 X-25.041 Y-89.528
X-25.081 Y-89.546
X-25.184 Y-89.598
X-25.227 Y-89.63
X-25.286 Y-89.678
X-25.388 Y-89.754
X-25.491 Y-89.817
X-25.696 Y-89.937
X-25.797 Y-89.988
X-25.9 Y-90.028
X-26.037 Y-90.09
X-26.161 Y-90.174
X-26.274 Y-90.272
X-26.378 Y-90.38
X-26.496 Y-90.521
X-26.628 Y-90.708
X-26.77 Y-90.946
X-26.924 Y-91.255
X-27.093 Y-91.671
X-27.23 Y-92.1
X-27.342 Y-92.536
X-27.431 Y-92.978
X-27.5 Y-93.423
X-27.548 Y-93.871
X-27.576 Y-94.32
X-27.584 Y-94.771
X-27.572 Y-95.221
X-27.54 Y-95.67
X-27.487 Y-96.118
X-27.415 Y-96.562
X-27.323 Y-97.003
X-27.211 Y-97.44
X-27.08 Y-97.87
X-26.929 Y-98.295
X-26.761 Y-98.713
X-26.574 Y-99.123
X-26.369 Y-99.524
X-26.146 Y-99.915
X-25.907 Y-100.297
X-25.651 Y-100.667
X-25.4 Y-100.998
X-25.385 Y-101.014
X-25.301 Y-101.085
X-25.2 Y-101.131
X-25.091 Y-101.146
X-24.324
G3 X-24.264 Y-101.132 I-0.006 J0.159
G1 X-24.22 Y-101.112 Z-2.992
X-24.179 Y-101.093 Z-2.97
X-24.147 Y-101.079 Z-2.935
X-24.127 Y-101.069 Z-2.89
X-24.12 Y-101.066 Z-2.841
G0 Z5
X-25.991 Y-90.184
Z-2.682
G1 Z-2.841 F849.6
X-25.985 Y-90.179 Z-2.89
X-25.968 Y-90.164 Z-2.935
X-25.941 Y-90.142 Z-2.97
X-25.907 Y-90.114 Z-2.992
X-25.869 Y-90.082 Z-3
G3 X-25.9 Y-90.028 I-0.02 J0.024
G1 X-26.002 Y-90.068
X-26.104 Y-90.102
X-26.309 Y-90.156
X-26.411 Y-90.179
X-26.442 Y-90.184
X-26.589 Y-90.214
X-26.723 Y-90.282
X-26.846 Y-90.368
X-26.958 Y-90.467
X-27.062 Y-90.576
X-27.176 Y-90.717
X-27.306 Y-90.903
X-27.434 Y-91.122
X-27.575 Y-91.412
X-27.726 Y-91.794
X-27.859 Y-92.225
X-27.964 Y-92.663
X-28.046 Y-93.106
X-28.107 Y-93.552
X-28.148 Y-94.001
X-28.169 Y-94.451
X-28.171 Y-94.901
X-28.154 Y-95.351
X-28.117 Y-95.8
X-28.062 Y-96.247
X-27.988 Y-96.691
X-27.895 Y-97.132
X-27.784 Y-97.569
X-27.654 Y-98
X-27.507 Y-98.426
X-27.342 Y-98.845
X-27.159 Y-99.257
X-26.96 Y-99.661
X-26.744 Y-100.056
X-26.512 Y-100.442
X-26.264 Y-100.818
X-26.142 Y-100.984
X-26.055 Y-101.071
X-25.946 Y-101.127
X-25.824 Y-101.146
X-25.091
G3 X-25.031 Y-101.132 I-0.006 J0.159
G1 X-24.986 Y-101.112 Z-2.992
X-24.946 Y-101.093 Z-2.97
X-24.914 Y-101.079 Z-2.935
X-24.893 Y-101.069 Z-2.89
X-24.886 Y-101.066 Z-2.841
G0 Z5
X-26.566 Y-90.315
Z-2.682
G1 Z-2.841 F849.6
X-26.559 Y-90.312 Z-2.89
X-26.539 Y-90.302 Z-2.935
X-26.508 Y-90.286 Z-2.97
X-26.468 Y-90.266 Z-2.992
X-26.424 Y-90.244 Z-3
G3 X-26.442 Y-90.184 I-0.014 J0.028
G1 X-26.616 Y-90.21
X-26.718 Y-90.223
X-26.923 Y-90.23
X-27.073 Y-90.242
X-27.214 Y-90.292
X-27.346 Y-90.363
X-27.467 Y-90.451
X-27.579 Y-90.551
X-27.691 Y-90.67
X-27.803 Y-90.81
X-27.935 Y-91.002
X-28.059 Y-91.216
X-28.198 Y-91.507
X-28.343 Y-91.876
X-28.474 Y-92.307
X-28.574 Y-92.746
X-28.651 Y-93.19
X-28.707 Y-93.637
X-28.742 Y-94.086
X-28.759 Y-94.536
X-28.757 Y-94.987
X-28.737 Y-95.437
X-28.699 Y-95.886
X-28.643 Y-96.332
X-28.569 Y-96.777
X-28.478 Y-97.218
X-28.369 Y-97.655
X-28.242 Y-98.087
X-28.099 Y-98.514
X-27.939 Y-98.935
X-27.763 Y-99.35
X-27.57 Y-99.757
X-27.362 Y-100.156
X-27.138 Y-100.547
X-26.916 Y-100.901
X-26.853 Y-100.987
X-26.766 Y-101.072
X-26.657 Y-101.127
X-26.536 Y-101.146
X-25.824
G3 X-25.764 Y-101.132 I-0.006 J0.159
G1 X-25.719 Y-101.112 Z-2.992
X-25.679 Y-101.093 Z-2.97
X-25.647 Y-101.079 Z-2.935
X-25.626 Y-101.069 Z-2.89
X-25.619 Y-101.066 Z-2.841
G0 Z5
X-27.061 Y-90.346
Z-2.682
G1 Z-2.841 F849.6
X-27.054 Y-90.343 Z-2.89
X-27.033 Y-90.335 Z-2.935
X-27 Y-90.323 Z-2.97
X-26.958 Y-90.308 Z-2.992
X-26.912 Y-90.291 Z-3
G3 X-26.923 Y-90.23 I-0.011 J0.03
G1 X-27.025 Y-90.233
X-27.332 Y-90.212
X-27.363 Y-90.206
X-27.512 Y-90.188
X-27.658 Y-90.221
X-27.797 Y-90.279
X-27.926 Y-90.356
X-28.045 Y-90.446
X-28.157 Y-90.547
X-28.277 Y-90.676
X-28.394 Y-90.821
X-28.532 Y-91.023
X-28.658 Y-91.241
X-28.803 Y-91.544
X-28.945 Y-91.912
X-29.075 Y-92.343
X-29.174 Y-92.783
X-29.247 Y-93.227
X-29.3 Y-93.674
X-29.333 Y-94.124
X-29.347 Y-94.574
X-29.344 Y-95.024
X-29.324 Y-95.474
X-29.286 Y-95.923
X-29.231 Y-96.37
X-29.16 Y-96.815
X-29.071 Y-97.257
X-28.966 Y-97.695
X-28.845 Y-98.128
X-28.707 Y-98.557
X-28.554 Y-98.981
X-28.384 Y-99.398
X-28.199 Y-99.809
X-27.999 Y-100.213
X-27.784 Y-100.608
X-27.62 Y-100.885
X-27.553 Y-100.979
X-27.466 Y-101.069
X-27.355 Y-101.126
X-27.231 Y-101.146
X-26.536
G3 X-26.476 Y-101.132 I-0.006 J0.159
G1 X-26.431 Y-101.112 Z-2.992
X-26.391 Y-101.093 Z-2.97
X-26.359 Y-101.079 Z-2.935
X-26.338 Y-101.069 Z-2.89
X-26.331 Y-101.066 Z-2.841
G0 Z5
X-27.522 Y-90.292
Z-2.682
G1 Z-2.841 F849.6
X-27.514 Y-90.291 Z-2.89
X-27.492 Y-90.288 Z-2.935
X-27.457 Y-90.283 Z-2.97
X-27.414 Y-90.276 Z-2.992
X-27.365 Y-90.269 Z-3
G3 X-27.363 Y-90.206 I-0.005 J0.031
G1 X-27.435 Y-90.194
X-27.639 Y-90.155
X-27.694 Y-90.142
X-27.742 Y-90.126
X-27.886 Y-90.088
X-28.036 Y-90.096
X-28.181 Y-90.134
X-28.319 Y-90.194
X-28.448 Y-90.27
X-28.569 Y-90.359
X-28.689 Y-90.465
X-28.804 Y-90.582
X-28.939 Y-90.744
X-29.067 Y-90.924
X-29.21 Y-91.162
X-29.358 Y-91.455
X-29.493 Y-91.786
X-29.632 Y-92.214
X-29.737 Y-92.652
X-29.817 Y-93.096
X-29.874 Y-93.542
X-29.912 Y-93.991
X-29.932 Y-94.441
X-29.935 Y-94.892
X-29.92 Y-95.342
X-29.89 Y-95.791
X-29.843 Y-96.239
X-29.779 Y-96.685
X-29.7 Y-97.129
X-29.605 Y-97.569
X-29.494 Y-98.005
X-29.367 Y-98.438
X-29.225 Y-98.865
X-29.067 Y-99.287
X-28.895 Y-99.703
X-28.707 Y-100.113
X-28.506 Y-100.516
X-28.334 Y-100.829
X-28.244 Y-100.967
X-28.156 Y-101.063
X-28.042 Y-101.125
X-27.914 Y-101.146
X-27.231
G3 X-27.171 Y-101.132 I-0.006 J0.159
G1 X-27.126 Y-101.112 Z-2.992
X-27.086 Y-101.093 Z-2.97
X-27.054 Y-101.079 Z-2.935
X-27.034 Y-101.069 Z-2.89
X-27.027 Y-101.066 Z-2.841
G0 Z5
X-27.911 Y-90.189
Z-2.682
G1 Z-2.841 F849.6
X-27.903 Z-2.89
X-27.881 Z-2.935
X-27.845 Z-2.97
X-27.801 Y-90.188 Z-2.992
X-27.752 Z-3
G3 X-27.742 Y-90.126 J0.032
G1 X-27.946 Y-90.06
X-28.007 Y-90.039
X-28.049 Y-90.022
X-28.105 Y-89.996
X-28.244 Y-89.941
X-28.394 Y-89.929
X-28.542 Y-89.95
X-28.686 Y-89.994
X-28.822 Y-90.056
X-28.951 Y-90.132
X-29.073 Y-90.221
X-29.2 Y-90.329
X-29.326 Y-90.456
X-29.472 Y-90.626
X-29.607 Y-90.811
X-29.754 Y-91.048
X-29.912 Y-91.351
X-30.049 Y-91.674
X-30.192 Y-92.096
X-30.303 Y-92.533
X-30.387 Y-92.975
X-30.449 Y-93.421
X-30.492 Y-93.87
X-30.516 Y-94.32
X-30.524 Y-94.77
X-30.515 Y-95.22
X-30.49 Y-95.67
X-30.45 Y-96.119
X-30.394 Y-96.566
X-30.322 Y-97.01
X-30.236 Y-97.452
X-30.134 Y-97.891
X-30.017 Y-98.326
X-29.885 Y-98.757
X-29.738 Y-99.183
X-29.577 Y-99.603
X-29.401 Y-100.018
X-29.211 Y-100.426
X-29.032 Y-100.779
X-28.921 Y-100.962
X-28.907 Y-100.982
X-28.819 Y-101.07
X-28.709 Y-101.127
X-28.587 Y-101.146
X-27.914
G3 X-27.854 Y-101.132 I-0.006 J0.159
G1 X-27.809 Y-101.112 Z-2.992
X-27.769 Y-101.093 Z-2.97
X-27.737 Y-101.079 Z-2.935
X-27.716 Y-101.069 Z-2.89
X-27.709 Y-101.066 Z-2.841
G0 Z5
X-28.28 Y-90.039
Z-2.682
G1 Z-2.841 F849.6
X-28.272 Y-90.04 Z-2.89
X-28.25 Y-90.042 Z-2.935
X-28.215 Y-90.046 Z-2.97
X-28.171 Y-90.051 Z-2.992
X-28.122 Y-90.056 Z-3
G3 X-28.105 Y-89.996 I0.003 J0.031
G1 X-28.151 Y-89.975
X-28.253 Y-89.921
X-28.355 Y-89.861
X-28.43 Y-89.813
X-28.56 Y-89.738
X-28.658 Y-89.72
X-28.816 Y-89.721
X-28.961 Y-89.784
X-29.072 Y-89.897
G3 X-28.922 Y-90.137 I0.136 J-0.081
G1 X-28.507 Y-90.101
G3 X-28.43 Y-89.813 I-0.014 J0.158
G1 X-28.458 Y-89.795
X-28.56 Y-89.714
X-28.657 Y-89.63
X-28.662 Y-89.625
X-28.691 Y-89.6
X-28.73 Y-89.569
X-28.739 Y-89.563
G3 X-28.8 Y-89.553 I-0.058 J-0.156
X-28.93 Y-89.619 I0.003 J-0.166
X-28.674 Y-89.812 I0.128 J-0.097
X-28.691 Y-89.6 I-0.128 J0.097
G1 X-28.714 Y-89.579
X-28.739 Y-89.563
X-28.765 Y-89.553
X-28.79 Y-89.547
X-28.816 Y-89.546
X-28.842 Y-89.548
X-28.867 Y-89.555
X-28.888 Y-89.565
X-28.91 Y-89.579
X-28.923 Y-89.59
X-28.936 Y-89.605
X-28.945 Y-89.617
X-28.952 Y-89.63
X-28.996 Y-89.733
X-29.042 Y-89.835
X-29.072 Y-89.897
X-29.174 Y-90.055
X-29.236 Y-90.142
X-29.276 Y-90.189
X-29.329 Y-90.244
X-29.433 Y-90.346
X-29.481 Y-90.388
X-29.561 Y-90.449
X-29.686 Y-90.534
X-29.788 Y-90.595
X-29.916 Y-90.673
X-30.031 Y-90.769
X-30.136 Y-90.877
X-30.234 Y-90.997
X-30.343 Y-91.153
X-30.462 Y-91.355
X-30.581 Y-91.596
X-30.705 Y-91.905
X-30.832 Y-92.31
X-30.933 Y-92.748
X-31.008 Y-93.193
X-31.06 Y-93.64
X-31.094 Y-94.089
X-31.111 Y-94.539
Y-94.99
X-31.096 Y-95.44
X-31.065 Y-95.889
X-31.019 Y-96.338
X-30.959 Y-96.784
X-30.883 Y-97.228
X-30.793 Y-97.669
X-30.688 Y-98.107
X-30.569 Y-98.542
X-30.435 Y-98.972
X-30.287 Y-99.397
X-30.126 Y-99.818
X-29.95 Y-100.233
X-29.761 Y-100.642
X-29.65 Y-100.852
X-29.581 Y-100.962
X-29.494 Y-101.06
X-29.378 Y-101.124
X-29.248 Y-101.146
X-28.587
G3 X-28.526 Y-101.132 I-0.006 J0.159
G1 X-28.482 Y-101.112 Z-2.992
X-28.441 Y-101.093 Z-2.97
X-28.409 Y-101.079 Z-2.935
X-28.389 Y-101.069 Z-2.89
X-28.382 Y-101.066 Z-2.841
G0 Z5
X-29.86 Y-90.761
Z-2.682
G1 Z-2.841 F849.6
X-29.854 Y-90.755 Z-2.89
X-29.839 Y-90.739 Z-2.935
X-29.815 Y-90.713 Z-2.97
X-29.784 Y-90.681 Z-2.992
X-29.751 Y-90.645 Z-3
G3 X-29.788 Y-90.595 I-0.023 J0.022
G1 X-29.896 Y-90.653
X-29.993 Y-90.698
X-30.128 Y-90.756
X-30.197 Y-90.78
X-30.356 Y-90.832
X-30.496 Y-90.885
X-30.621 Y-90.968
X-30.734 Y-91.067
X-30.836 Y-91.177
X-30.928 Y-91.295
X-31.035 Y-91.458
X-31.139 Y-91.645
X-31.255 Y-91.897
X-31.364 Y-92.193
X-31.478 Y-92.596
X-31.568 Y-93.037
X-31.63 Y-93.483
X-31.672 Y-93.932
X-31.695 Y-94.382
X-31.701 Y-94.832
X-31.692 Y-95.283
X-31.669 Y-95.732
X-31.63 Y-96.181
X-31.577 Y-96.628
X-31.51 Y-97.074
X-31.429 Y-97.517
X-31.334 Y-97.957
X-31.224 Y-98.394
X-31.101 Y-98.827
X-30.963 Y-99.256
X-30.813 Y-99.681
X-30.648 Y-100.1
X-30.471 Y-100.514
X-30.341 Y-100.785
X-30.243 Y-100.954
X-30.228 Y-100.976
X-30.141 Y-101.067
X-30.028 Y-101.126
X-29.904 Y-101.146
X-29.248
G3 X-29.188 Y-101.132 I-0.006 J0.159
G1 X-29.143 Y-101.112 Z-2.992
X-29.103 Y-101.093 Z-2.97
X-29.071 Y-101.079 Z-2.935
X-29.05 Y-101.069 Z-2.89
X-29.043 Y-101.066 Z-2.841
G0 Z5
X-30.456 Y-90.982
Z-2.682
G1 Z-2.841 F849.6
X-30.45 Y-90.977 Z-2.89
X-30.432 Y-90.964 Z-2.935
X-30.404 Y-90.943 Z-2.97
X-30.368 Y-90.917 Z-2.992
X-30.328 Y-90.888 Z-3
G3 X-30.356 Y-90.832 I-0.019 J0.026
G1 X-30.436 Y-90.858
X-30.504 Y-90.878
X-30.811 Y-90.95
X-30.843 Y-90.956
X-30.989 Y-90.989
X-31.125 Y-91.053
X-31.248 Y-91.138
X-31.36 Y-91.239
X-31.461 Y-91.35
X-31.558 Y-91.478
X-31.657 Y-91.63
X-31.769 Y-91.836
X-31.872 Y-92.065
X-31.982 Y-92.373
X-32.091 Y-92.769
X-32.177 Y-93.211
X-32.234 Y-93.658
X-32.27 Y-94.107
X-32.288 Y-94.557
X-32.29 Y-95.007
X-32.277 Y-95.457
X-32.249 Y-95.907
X-32.206 Y-96.355
X-32.15 Y-96.802
X-32.08 Y-97.247
X-31.997 Y-97.69
X-31.9 Y-98.13
X-31.789 Y-98.566
X-31.665 Y-99
X-31.528 Y-99.429
X-31.378 Y-99.853
X-31.215 Y-100.273
X-31.038 Y-100.687
X-30.944 Y-100.87
X-30.888 Y-100.96
X-30.8 Y-101.059
X-30.684 Y-101.124
X-30.553 Y-101.146
X-29.904
G3 X-29.843 Y-101.132 I-0.006 J0.159
G1 X-29.799 Y-101.112 Z-2.992
X-29.758 Y-101.093 Z-2.97
X-29.726 Y-101.079 Z-2.935
X-29.706 Y-101.069 Z-2.89
X-29.699 Y-101.066 Z-2.841
G0 Z5
X-30.964 Y-91.09
Z-2.682
G1 Z-2.841 F849.6
X-30.957 Y-91.086 Z-2.89
X-30.937 Y-91.076 Z-2.935
X-30.906 Y-91.059 Z-2.97
X-30.867 Y-91.038 Z-2.992
X-30.824 Y-91.015 Z-3
G3 X-30.843 Y-90.956 I-0.015 J0.028
G1 X-31.118 Y-91.003
X-31.379 Y-91.035
X-31.527 Y-91.06
X-31.665 Y-91.119
X-31.792 Y-91.199
X-31.907 Y-91.295
X-32.012 Y-91.403
X-32.11 Y-91.524
X-32.212 Y-91.67
X-32.318 Y-91.851
X-32.427 Y-92.076
X-32.539 Y-92.36
X-32.642 Y-92.692
X-32.742 Y-93.131
X-32.808 Y-93.577
X-32.851 Y-94.025
X-32.873 Y-94.475
X-32.879 Y-94.926
X-32.87 Y-95.376
X-32.846 Y-95.826
X-32.808 Y-96.275
X-32.757 Y-96.722
X-32.692 Y-97.168
X-32.614 Y-97.612
X-32.523 Y-98.053
X-32.42 Y-98.491
X-32.303 Y-98.926
X-32.173 Y-99.358
X-32.031 Y-99.785
X-31.877 Y-100.208
X-31.709 Y-100.626
X-31.61 Y-100.83
X-31.524 Y-100.977
X-31.436 Y-101.068
X-31.324 Y-101.126
X-31.2 Y-101.146
X-30.553
G3 X-30.493 Y-101.132 I-0.006 J0.159
G1 X-30.448 Y-101.112 Z-2.992
X-30.408 Y-101.093 Z-2.97
X-30.376 Y-101.079 Z-2.935
X-30.356 Y-101.069 Z-2.89
X-30.349 Y-101.066 Z-2.841
G0 Z5
X-31.506 Y-91.163
Z-2.682
G1 Z-2.841 F849.6
X-31.499 Y-91.159 Z-2.89
X-31.479 Y-91.15 Z-2.935
X-31.447 Y-91.135 Z-2.97
X-31.407 Y-91.116 Z-2.992
X-31.363 Y-91.095 Z-3
G3 X-31.379 Y-91.035 I-0.014 J0.029
G1 X-31.425 Y-91.04
X-31.527 Y-91.051
X-31.834 Y-91.076
X-31.891 Y-91.079
X-32.04 Y-91.095
X-32.181 Y-91.145
X-32.312 Y-91.219
X-32.432 Y-91.309
X-32.541 Y-91.412
X-32.641 Y-91.526
X-32.744 Y-91.661
X-32.853 Y-91.831
X-32.958 Y-92.028
X-33.076 Y-92.294
X-33.178 Y-92.582
X-33.283 Y-92.969
X-33.366 Y-93.412
X-33.421 Y-93.859
X-33.453 Y-94.308
X-33.467 Y-94.759
X-33.464 Y-95.209
X-33.447 Y-95.659
X-33.417 Y-96.109
X-33.372 Y-96.557
X-33.315 Y-97.004
X-33.245 Y-97.449
X-33.163 Y-97.891
X-33.068 Y-98.332
X-32.96 Y-98.769
X-32.839 Y-99.203
X-32.707 Y-99.634
X-32.562 Y-100.06
X-32.405 Y-100.482
X-32.286 Y-100.756
X-32.201 Y-100.916
X-32.171 Y-100.963
X-32.083 Y-101.061
X-31.968 Y-101.124
X-31.838 Y-101.146
X-31.2
G3 X-31.14 Y-101.132 I-0.006 J0.159
G1 X-31.095 Y-101.112 Z-2.992
X-31.055 Y-101.093 Z-2.97
X-31.023 Y-101.079 Z-2.935
X-31.002 Y-101.069 Z-2.89
X-30.995 Y-101.066 Z-2.841
G0 Z5
X-32.026 Y-91.198
Z-2.682
G1 Z-2.841 F849.6
X-32.019 Y-91.195 Z-2.89
X-31.998 Y-91.187 Z-2.935
X-31.965 Y-91.174 Z-2.97
X-31.924 Y-91.158 Z-2.992
X-31.879 Y-91.14 Z-3
G3 X-31.891 Y-91.079 I-0.012 J0.029
G1 X-32.141 Y-91.093
X-32.402 Y-91.099
X-32.552 Y-91.111
X-32.696 Y-91.153
X-32.83 Y-91.22
X-32.953 Y-91.305
X-33.067 Y-91.403
X-33.173 Y-91.514
X-33.272 Y-91.636
X-33.385 Y-91.8
X-33.489 Y-91.977
X-33.607 Y-92.217
X-33.716 Y-92.493
X-33.822 Y-92.837
X-33.922 Y-93.276
X-33.989 Y-93.722
X-34.03 Y-94.17
X-34.051 Y-94.62
X-34.055 Y-95.071
X-34.044 Y-95.521
X-34.02 Y-95.971
X-33.981 Y-96.42
X-33.931 Y-96.867
X-33.867 Y-97.313
X-33.791 Y-97.757
X-33.704 Y-98.199
X-33.603 Y-98.638
X-33.491 Y-99.075
X-33.367 Y-99.508
X-33.231 Y-99.937
X-33.083 Y-100.362
X-32.95 Y-100.692
X-32.864 Y-100.867
X-32.813 Y-100.953
X-32.725 Y-101.056
X-32.607 Y-101.123
X-32.474 Y-101.146
X-31.838
G3 X-31.778 Y-101.132 I-0.006 J0.159
G1 X-31.733 Y-101.112 Z-2.992
X-31.693 Y-101.093 Z-2.97
X-31.661 Y-101.079 Z-2.935
X-31.641 Y-101.069 Z-2.89
X-31.633 Y-101.066 Z-2.841
G0 Z5
X-32.541 Y-91.215
Z-2.682
G1 Z-2.841 F849.6
X-32.534 Y-91.212 Z-2.89
X-32.513 Y-91.204 Z-2.935
X-32.48 Y-91.192 Z-2.97
X-32.438 Y-91.177 Z-2.992
X-32.392 Y-91.161 Z-3
G3 X-32.402 Y-91.099 I-0.011 J0.03
G1 X-32.551 Y-91.102
X-32.858 Y-91.104
X-32.96
X-33.11 Y-91.11
X-33.253 Y-91.155
X-33.387 Y-91.223
X-33.51 Y-91.308
X-33.624 Y-91.406
X-33.728 Y-91.514
X-33.837 Y-91.646
X-33.945 Y-91.8
X-34.065 Y-92
X-34.173 Y-92.218
X-34.295 Y-92.518
X-34.402 Y-92.857
X-34.503 Y-93.283
X-34.572 Y-93.728
X-34.615 Y-94.176
X-34.638 Y-94.626
X-34.644 Y-95.076
X-34.634 Y-95.527
X-34.611 Y-95.977
X-34.574 Y-96.426
X-34.525 Y-96.873
X-34.464 Y-97.32
X-34.391 Y-97.764
X-34.306 Y-98.207
X-34.209 Y-98.646
X-34.101 Y-99.084
X-33.981 Y-99.518
X-33.849 Y-99.949
X-33.705 Y-100.375
X-33.582 Y-100.687
X-33.495 Y-100.866
X-33.446 Y-100.951
X-33.358 Y-101.055
X-33.24 Y-101.123
X-33.106 Y-101.146
X-32.474
G3 X-32.414 Y-101.132 I-0.006 J0.159
G1 X-32.369 Y-101.112 Z-2.992
X-32.329 Y-101.093 Z-2.97
X-32.297 Y-101.079 Z-2.935
X-32.276 Y-101.069 Z-2.89
X-32.269 Y-101.066 Z-2.841
G0 Z5
X-33.102 Y-91.215
Z-2.682
G1 Z-2.841 F849.6
X-33.095 Y-91.212 Z-2.89
X-33.074 Y-91.205 Z-2.935
X-33.04 Y-91.194 Z-2.97
X-32.998 Y-91.181 Z-2.992
X-32.951 Y-91.165 Z-3
G3 X-32.96 Y-91.104 I-0.01 J0.03
G1 X-33.165 Y-91.103
X-33.472 Y-91.096
X-33.622 Y-91.099
X-33.767 Y-91.135
X-33.904 Y-91.197
X-34.03 Y-91.277
X-34.148 Y-91.371
X-34.255 Y-91.475
X-34.359 Y-91.592
X-34.477 Y-91.748
X-34.589 Y-91.924
X-34.708 Y-92.144
X-34.831 Y-92.422
X-34.939 Y-92.727
X-35.047 Y-93.125
X-35.113 Y-93.475
X-35.119 Y-93.526
Y-93.577
X-35.112 Y-93.627
G3 X-35.086 Y-93.683 I0.154 J0.037
X-34.824 Y-93.675 I0.128 J0.093
G1 X-33.348 Y-91.339
G3 X-33.472 Y-91.096 I-0.134 J0.085
G1 X-33.881 Y-91.082
X-34.014 Y-91.077
X-34.164 Y-91.078
X-34.31 Y-91.114
X-34.447 Y-91.174
X-34.575 Y-91.253
X-34.693 Y-91.345
X-34.803 Y-91.447
X-34.915 Y-91.572
X-35.029 Y-91.719
X-35.154 Y-91.908
X-35.266 Y-92.11
X-35.391 Y-92.384
X-35.439 Y-92.514
X-35.463 Y-92.629
X-35.451 Y-92.746
X-35.407 Y-92.854
G3 X-35.363 Y-92.898 I0.133 J0.087
X-35.15 Y-92.867 I0.09 J0.131
G1 X-33.903 Y-91.335
G3 X-34.014 Y-91.077 I-0.123 J0.1
G1 X-34.29 Y-91.065
X-34.551 Y-91.053
X-34.701
X-34.848 Y-91.085
X-34.986 Y-91.143
X-35.115 Y-91.219
X-35.236 Y-91.309
X-35.347 Y-91.41
X-35.459 Y-91.53
X-35.574 Y-91.673
X-35.67 Y-91.813
X-35.746 Y-91.944
X-35.81 Y-92.08
X-35.812 Y-92.085
X-35.834 Y-92.242
X-35.792 Y-92.395
X-35.693 Y-92.519
G3 X-35.476 Y-92.498 I0.097 J0.126
G1 X-34.444 Y-91.315
G3 X-34.551 Y-91.053 I-0.12 J0.104
G1 X-35.006 Y-91.033
X-35.109 Y-91.029
X-35.259 Y-91.03
X-35.405 Y-91.062
X-35.544 Y-91.118
X-35.674 Y-91.194
X-35.794 Y-91.284
X-35.904 Y-91.385
X-36.005 Y-91.497
X-36.09 Y-91.62
X-36.162 Y-91.752
X-36.214 Y-91.892
X-36.217 Y-91.908
X-36.221 Y-92.044
X-36.178 Y-92.174
X-36.093 Y-92.28
X-35.978 Y-92.352
G3 X-35.799 Y-92.301 I0.054 J0.149
G1 X-34.996 Y-91.285
G3 X-35.109 Y-91.029 I-0.125 J0.098
G1 X-35.211 Y-91.025
X-35.518 Y-91.015
X-35.723 Y-91.013
X-35.872 Y-91.018
X-36.016 Y-91.062
X-36.149 Y-91.131
X-36.271 Y-91.219
X-36.378 Y-91.323
X-36.434 Y-91.394
X-36.479 Y-91.468
X-36.508 Y-91.55
X-36.517 Y-91.637
G3 X-36.265 Y-91.759 I0.159 J0.006
G1 X-35.636 Y-91.299
G3 X-35.662 Y-91.027 I-0.094 J0.128
X-35.723 Y-91.013 I-0.067 J-0.144
G1 X-35.825 Y-91.011
X-35.927 Y-91.012
X-36.234 Y-91.022
X-36.29 Y-91.027
X-36.337 Y-91.03
X-36.359 Y-91.033
X-36.381 Y-91.039
X-36.404 Y-91.049
X-36.426 Y-91.063
X-36.439 Y-91.073
X-36.459 Y-91.096
X-36.477 Y-91.119
X-36.489 Y-91.142
X-36.497 Y-91.165
X-36.502 Y-91.19
X-36.507 Y-91.267
X-36.512 Y-91.369
X-36.516 Y-91.472
X-36.517 Y-91.676
Y-91.779
X-36.514 Y-91.881
X-36.502 Y-91.983
X-36.495 Y-92.034
X-36.49 Y-92.06
X-36.479 Y-92.086
X-36.471 Y-92.099
X-36.462 Y-92.113
X-36.439 Y-92.14
X-36.419 Y-92.157
X-36.399 Y-92.17
X-36.234 Y-92.244
X-36.03 Y-92.331
X-35.927 Y-92.372
X-35.812 Y-92.43
X-35.799 Y-92.437
X-35.722 Y-92.495
X-35.62 Y-92.579
X-35.602 Y-92.597
X-35.515 Y-92.699
X-35.438 Y-92.802
X-35.376 Y-92.904
X-35.326 Y-93.006
X-35.238 Y-93.211
X-35.211 Y-93.282
X-35.141 Y-93.518
X-35.114 Y-93.62
X-35.072 Y-93.825
X-35.052 Y-93.927
X-35.038 Y-94.029
X-35.025 Y-94.132
X-35.016 Y-94.234
X-35.012 Y-94.541
X-35.02 Y-94.643
X-35.034 Y-94.746
X-35.055 Y-94.848
X-35.066 Y-94.879
X-35.106 Y-95.023
X-35.148 Y-95.287
X-35.176 Y-95.64
X-35.177 Y-96.09
X-35.15 Y-96.54
X-35.104 Y-96.988
X-35.044 Y-97.434
X-34.971 Y-97.879
X-34.886 Y-98.321
X-34.79 Y-98.761
X-34.682 Y-99.199
X-34.563 Y-99.633
X-34.433 Y-100.064
X-34.288 Y-100.491
X-34.19 Y-100.73
X-34.104 Y-100.9
X-34.071 Y-100.956
X-33.983 Y-101.057
X-33.866 Y-101.123
X-33.733 Y-101.146
X-33.106
G3 X-32.959 Y-100.942 I-0.006 J0.159
G1 X-34.765 Y-94.889
G3 X-35.066 Y-94.879 I-0.152 J-0.045
G1 X-35.089 Y-94.95
X-35.109 Y-95.004
X-35.133 Y-95.052
X-35.189 Y-95.155
X-35.211 Y-95.185
X-35.313 Y-95.317
X-35.349 Y-95.359
X-35.444 Y-95.475
X-35.513 Y-95.608
X-35.565 Y-95.749
X-35.607 Y-95.906
X-35.642 Y-96.093
X-35.67 Y-96.353
X-35.681 Y-96.696
X-35.661 Y-97.146
X-35.61 Y-97.594
X-35.54 Y-98.039
X-35.456 Y-98.482
X-35.36 Y-98.922
X-35.252 Y-99.359
X-35.133 Y-99.793
X-35.002 Y-100.224
X-34.87 Y-100.601
X-34.788 Y-100.79
X-34.709 Y-100.938
X-34.693 Y-100.964
X-34.605 Y-101.061
X-34.49 Y-101.124
X-34.36 Y-101.146
X-33.733
G3 X-33.586 Y-100.946 I-0.006 J0.159
G1 X-35.082 Y-95.429
G3 X-35.349 Y-95.359 I-0.153 J-0.042
G1 X-35.442 Y-95.462
X-35.518 Y-95.534
X-35.62 Y-95.627
X-35.668 Y-95.666
X-35.698 Y-95.687
X-35.817 Y-95.779
X-35.913 Y-95.894
X-35.988 Y-96.024
X-36.048 Y-96.161
X-36.094 Y-96.304
X-36.139 Y-96.49
X-36.171 Y-96.69
X-36.193 Y-96.971
X-36.195 Y-97.328
X-36.163 Y-97.777
X-36.1 Y-98.223
X-36.019 Y-98.666
X-35.923 Y-99.106
X-35.815 Y-99.544
X-35.695 Y-99.978
X-35.562 Y-100.408
X-35.454 Y-100.692
X-35.377 Y-100.856
X-35.326 Y-100.946
X-35.238 Y-101.053
X-35.119 Y-101.122
X-34.983 Y-101.146
X-34.36
G3 X-34.211 Y-100.95 I-0.006 J0.159
G1 X-35.458 Y-95.783
G3 X-35.698 Y-95.687 I-0.154 J-0.037
G1 X-35.825 Y-95.775
X-35.927 Y-95.833
X-36.007 Y-95.871
X-36.06 Y-95.894
X-36.196 Y-95.959
X-36.311 Y-96.055
X-36.406 Y-96.171
X-36.483 Y-96.299
X-36.547 Y-96.435
X-36.6 Y-96.583
X-36.646 Y-96.752
X-36.685 Y-96.958
X-36.714 Y-97.219
X-36.726 Y-97.545
X-36.709 Y-97.961
X-36.656 Y-98.408
X-36.579 Y-98.852
X-36.485 Y-99.292
X-36.377 Y-99.73
X-36.256 Y-100.164
X-36.13 Y-100.552
X-36.046 Y-100.756
X-35.968 Y-100.912
X-35.941 Y-100.956
X-35.853 Y-101.057
X-35.736 Y-101.123
X-35.604 Y-101.146
X-34.983
G3 X-34.833 Y-100.956 I-0.006 J0.159
G1 X-35.849 Y-96.01
G3 X-36.06 Y-95.894 I-0.156 J-0.032
G1 X-36.132 Y-95.924
X-36.234 Y-95.955
X-36.311 Y-95.973
X-36.439 Y-95.995
X-36.587 Y-96.021
X-36.712 Y-96.104
X-36.82 Y-96.208
X-36.911 Y-96.327
X-36.989 Y-96.455
X-37.054 Y-96.59
X-37.111 Y-96.741
X-37.165 Y-96.924
X-37.211 Y-97.136
X-37.247 Y-97.398
X-37.266 Y-97.718
X-37.259 Y-98.1
X-37.216 Y-98.548
X-37.146 Y-98.993
X-37.055 Y-99.435
X-36.949 Y-99.872
X-36.827 Y-100.306
X-36.72 Y-100.622
X-36.646 Y-100.796
X-36.572 Y-100.937
X-36.557 Y-100.961
X-36.469 Y-101.06
X-36.353 Y-101.124
X-36.223 Y-101.146
X-35.604
G3 X-35.453 Y-100.961 I-0.006 J0.159
G1 X-36.272 Y-96.127
G3 X-36.439 Y-95.995 I-0.157 J-0.027
G1 X-36.541 Y-96.005
X-36.643 Y-96.007
X-36.746 Y-96.003
X-36.896 Y-95.998
X-37.037 Y-96.048
X-37.164 Y-96.128
X-37.275 Y-96.228
X-37.373 Y-96.342
X-37.457 Y-96.466
X-37.53 Y-96.598
X-37.598 Y-96.748
X-37.662 Y-96.924
X-37.718 Y-97.127
X-37.769 Y-97.385
X-37.801 Y-97.653
X-37.816 Y-98.01
X-37.8 Y-98.444
X-37.75 Y-98.892
X-37.674 Y-99.336
X-37.579 Y-99.776
X-37.468 Y-100.212
X-37.354 Y-100.571
X-37.278 Y-100.758
X-37.203 Y-100.911
X-37.177 Y-100.954
X-37.089 Y-101.056
X-36.972 Y-101.123
X-36.839 Y-101.146
X-36.223
G3 X-36.071 Y-100.97 I-0.006 J0.159
G1 X-36.611 Y-96.143
G3 X-36.687 Y-96.024 I-0.158 J-0.018
X-36.746 Y-96.003 I-0.081 J-0.136
G1 X-36.848 Y-95.992
X-36.95 Y-95.972
X-37.053 Y-95.945
X-37.2 Y-95.914
X-37.348 Y-95.938
X-37.487 Y-95.995
X-37.613 Y-96.075
X-37.727 Y-96.172
X-37.829 Y-96.283
X-37.919 Y-96.403
X-37.999 Y-96.53
X-38.079 Y-96.685
X-38.154 Y-96.859
X-38.221 Y-97.055
X-38.285 Y-97.306
X-38.331 Y-97.569
X-38.364 Y-97.903
X-38.372 Y-98.301
X-38.347 Y-98.751
X-38.291 Y-99.198
X-38.21 Y-99.641
X-38.111 Y-100.08
X-38.002 Y-100.466
X-37.916 Y-100.699
X-37.841 Y-100.863
X-37.796 Y-100.943
X-37.709 Y-101.051
X-37.589 Y-101.122
X-37.452 Y-101.146
X-36.839
G3 X-36.686 Y-100.979 I-0.006 J0.159
G1 X-36.94 Y-96.089
G3 X-37.053 Y-95.945 I-0.159 J-0.008
G1 X-37.155 Y-95.918
X-37.257 Y-95.883
X-37.36 Y-95.839
X-37.5 Y-95.787
X-37.65
X-37.796 Y-95.822
X-37.933 Y-95.884
X-38.059 Y-95.964
X-38.175 Y-96.06
X-38.28 Y-96.167
X-38.375 Y-96.283
X-38.462 Y-96.408
X-38.556 Y-96.567
X-38.641 Y-96.741
X-38.72 Y-96.942
X-38.798 Y-97.19
X-38.859 Y-97.459
X-38.906 Y-97.778
X-38.934 Y-98.166
X-38.932 Y-98.609
X-38.895 Y-99.058
X-38.831 Y-99.504
X-38.745 Y-99.946
X-38.643 Y-100.356
X-38.549 Y-100.637
X-38.477 Y-100.811
X-38.408 Y-100.944
X-38.398 Y-100.96
X-38.31 Y-101.06
X-38.194 Y-101.124
X-38.063 Y-101.146
X-37.452
G3 X-37.299 Y-100.989 I-0.006 J0.159
G1 X-37.269 Y-95.983
G3 X-37.36 Y-95.839 I-0.159 J0.001
G1 X-37.462 Y-95.795
X-37.515 Y-95.769
X-37.667 Y-95.684
X-37.698 Y-95.666
X-37.737 Y-95.643
X-37.749 Y-95.636
X-37.834 Y-95.611
X-37.922 Y-95.621
X-37.998 Y-95.666
G3 X-37.813 Y-96.056 I0.138 J-0.173
X-37.737 Y-95.643 I-0.048 J0.223
G1 X-37.769 Y-95.623
X-37.795 Y-95.61
X-37.82 Y-95.602
X-37.846 Y-95.599
X-37.871
X-37.897 Y-95.604
X-37.922 Y-95.612
X-37.935 Y-95.618
X-37.948 Y-95.625
X-37.961 Y-95.634
X-37.998 Y-95.666
X-38.076 Y-95.724
X-38.178 Y-95.792
X-38.229 Y-95.82
X-38.281 Y-95.845
X-38.347 Y-95.871
X-38.487 Y-95.926
X-38.614 Y-96.005
X-38.73 Y-96.101
X-38.834 Y-96.208
X-38.929 Y-96.324
X-39.024 Y-96.463
X-39.114 Y-96.619
X-39.201 Y-96.802
X-39.289 Y-97.03
X-39.362 Y-97.27
X-39.428 Y-97.57
X-39.479 Y-97.935
X-39.504 Y-98.329
X-39.498 Y-98.779
X-39.459 Y-99.228
X-39.394 Y-99.674
X-39.306 Y-100.115
X-39.214 Y-100.461
X-39.132 Y-100.694
X-39.065 Y-100.848
X-39.017 Y-100.938
X-38.929 Y-101.048
X-38.808 Y-101.121
X-38.67 Y-101.146
X-38.063
G3 X-37.91 Y-100.98 I-0.006 J0.159
G1 X-38.145 Y-96.016
G3 X-38.347 Y-95.871 I-0.159 J-0.007
G1 X-38.485 Y-95.915
X-38.588 Y-95.931
X-38.69 Y-95.94
X-38.746 Y-95.941
X-38.896 Y-95.951
X-39.037 Y-96.001
X-39.167 Y-96.077
X-39.284 Y-96.17
X-39.39 Y-96.276
X-39.486 Y-96.392
X-39.58 Y-96.527
X-39.667 Y-96.675
X-39.758 Y-96.863
X-39.844 Y-97.081
X-39.923 Y-97.335
X-39.994 Y-97.649
X-40.046 Y-98.002
X-40.073 Y-98.394
X-40.07 Y-98.845
X-40.035 Y-99.294
X-39.974 Y-99.74
X-39.887 Y-100.182
X-39.802 Y-100.501
X-39.731 Y-100.702
X-39.659 Y-100.863
X-39.619 Y-100.939
X-39.531 Y-101.049
X-39.41 Y-101.121
X-39.272 Y-101.146
X-38.67
G3 X-38.516 Y-100.985 I-0.006 J0.159
G1 X-38.59 Y-96.097
G3 X-38.746 Y-95.941 I-0.159 J-0.002
G1 X-38.792 Y-95.942
X-38.895 Y-95.93
X-38.997 Y-95.909
X-39.053 Y-95.893
X-39.199 Y-95.86
X-39.348 Y-95.876
X-39.49 Y-95.924
X-39.623 Y-95.995
X-39.744 Y-96.083
X-39.855 Y-96.184
X-39.956 Y-96.295
X-40.05 Y-96.416
X-40.152 Y-96.572
X-40.245 Y-96.74
X-40.342 Y-96.951
X-40.436 Y-97.206
X-40.512 Y-97.476
X-40.579 Y-97.807
X-40.628 Y-98.201
X-40.648 Y-98.645
X-40.635 Y-99.095
X-40.592 Y-99.544
X-40.524 Y-99.989
X-40.441 Y-100.357
X-40.36 Y-100.62
X-40.294 Y-100.789
X-40.229 Y-100.924
X-40.212 Y-100.952
X-40.124 Y-101.056
X-40.006 Y-101.123
X-39.873 Y-101.146
X-39.272
G3 X-39.119 Y-100.993 I-0.006 J0.159
G1 X-38.943 Y-96.05
G3 X-38.999 Y-95.923 I-0.159 J0.006
X-39.053 Y-95.893 I-0.102 J-0.121
G1 X-39.099 Y-95.88
X-39.201 Y-95.84
X-39.253 Y-95.818
X-39.304 Y-95.792
X-39.341 Y-95.769
X-39.377 Y-95.746
X-39.406 Y-95.727
X-39.471 Y-95.689
X-39.621 Y-95.681
X-39.769 Y-95.706
X-39.91 Y-95.756
X-39.933 Y-95.768
X-39.964 Y-95.786
X-39.993 Y-95.806
X-40.02 Y-95.829
G3 X-39.877 Y-96.099 I0.11 J-0.114
G1 X-39.464 Y-96.013
G3 X-39.406 Y-95.727 I-0.032 J0.155
G1 X-39.508 Y-95.661
X-39.611 Y-95.594
X-39.636 Y-95.585
X-39.662 Y-95.58
X-39.688 Y-95.578
X-39.713 Y-95.579
X-39.739 Y-95.584
X-39.764 Y-95.595
X-39.777 Y-95.602
X-39.79 Y-95.611
X-39.815 Y-95.635
X-39.918 Y-95.734
X-40.02 Y-95.829
X-40.067 Y-95.871
X-40.122 Y-95.917
X-40.193 Y-95.973
X-40.336 Y-96.098
X-40.441 Y-96.205
X-40.539 Y-96.322
X-40.646 Y-96.471
X-40.751 Y-96.645
X-40.849 Y-96.838
X-40.95 Y-97.081
X-41.04 Y-97.36
X-41.116 Y-97.673
X-41.179 Y-98.056
X-41.216 Y-98.49
X-41.22 Y-98.94
X-41.194 Y-99.39
X-41.14 Y-99.837
X-41.064 Y-100.24
X-40.982 Y-100.545
X-40.919 Y-100.721
X-40.852 Y-100.873
X-40.817 Y-100.939
X-40.729 Y-101.049
X-40.608 Y-101.121
X-40.47 Y-101.146
X-39.873
G3 X-39.72 Y-100.98 I-0.006 J0.159
G1 X-39.941 Y-96.094
G3 X-40.193 Y-95.973 I-0.159 J-0.007
G1 X-40.327 Y-96.079
X-40.429 Y-96.157
X-40.532 Y-96.221
X-40.638 Y-96.28
X-40.736 Y-96.329
X-40.767 Y-96.341
X-40.905 Y-96.402
X-41.027 Y-96.488
X-41.136 Y-96.591
X-41.232 Y-96.707
X-41.316 Y-96.83
X-41.402 Y-96.979
X-41.484 Y-97.153
X-41.569 Y-97.373
X-41.647 Y-97.634
X-41.714 Y-97.94
X-41.767 Y-98.321
X-41.794 Y-98.763
X-41.787 Y-99.213
X-41.751 Y-99.662
X-41.688 Y-100.086
X-41.61 Y-100.425
X-41.542 Y-100.646
X-41.477 Y-100.809
X-41.411 Y-100.944
X-41.404 Y-100.956
X-41.316 Y-101.058
X-41.199 Y-101.123
X-41.067 Y-101.146
X-40.47
G3 X-40.317 Y-100.979 I-0.006 J0.159
G1 X-40.557 Y-96.483
G3 X-40.706 Y-96.333 I-0.159 J-0.008
X-40.767 Y-96.341 I-0.01 J-0.158
G1 X-40.875 Y-96.382
X-40.941 Y-96.4
X-41.043 Y-96.425
X-41.146 Y-96.437
X-41.177 Y-96.438
X-41.326 Y-96.45
X-41.461 Y-96.515
X-41.583 Y-96.603
X-41.692 Y-96.706
X-41.788 Y-96.821
X-41.874 Y-96.944
X-41.959 Y-97.088
X-42.045 Y-97.263
X-42.13 Y-97.475
X-42.207 Y-97.72
X-42.281 Y-98.042
X-42.332 Y-98.381
X-42.363 Y-98.8
X-42.362 Y-99.25
X-42.328 Y-99.7
X-42.267 Y-100.124
X-42.198 Y-100.43
X-42.128 Y-100.66
X-42.07 Y-100.807
X-42.005 Y-100.942
X-41.998 Y-100.954
X-41.91 Y-101.056
X-41.793 Y-101.123
X-41.66 Y-101.146
X-41.067
G3 X-40.914 Y-100.984 I-0.006 J0.159
G1 X-41.018 Y-96.593
G3 X-41.177 Y-96.438 I-0.159 J-0.004
G1 X-41.248 Y-96.44
X-41.35 Y-96.436
X-41.453 Y-96.419
X-41.483 Y-96.412
X-41.631 Y-96.386
X-41.778 Y-96.415
X-41.916 Y-96.475
X-42.042 Y-96.557
X-42.156 Y-96.654
X-42.26 Y-96.763
X-42.353 Y-96.88
X-42.445 Y-97.018
X-42.538 Y-97.183
X-42.629 Y-97.378
X-42.721 Y-97.622
X-42.796 Y-97.879
X-42.864 Y-98.204
X-42.915 Y-98.594
X-42.939 Y-99.033
X-42.928 Y-99.483
X-42.888 Y-99.907
X-42.824 Y-100.27
X-42.752 Y-100.552
X-42.696 Y-100.718
X-42.634 Y-100.864
X-42.598 Y-100.934
X-42.511 Y-101.046
X-42.389 Y-101.12
X-42.249 Y-101.146
X-41.66
G3 X-41.506 Y-100.993 I-0.006 J0.159
G1 X-41.366 Y-96.571
G3 X-41.483 Y-96.412 I-0.159 J0.005
G1 X-41.555 Y-96.396
X-41.593 Y-96.382
X-41.657 Y-96.355
X-41.739 Y-96.315
X-41.876 Y-96.256
X-42.026 Y-96.247
X-42.174 Y-96.275
X-42.314 Y-96.329
X-42.444 Y-96.402
X-42.565 Y-96.491
X-42.676 Y-96.592
X-42.778 Y-96.702
X-42.885 Y-96.839
X-42.984 Y-96.987
X-43.086 Y-97.168
X-43.189 Y-97.388
X-43.278 Y-97.625
X-43.365 Y-97.926
X-43.441 Y-98.287
X-43.49 Y-98.661
X-43.513 Y-99.098
X-43.502 Y-99.548
X-43.46 Y-99.978
X-43.402 Y-100.305
X-43.334 Y-100.567
X-43.279 Y-100.729
X-43.217 Y-100.873
X-43.185 Y-100.935
X-43.097 Y-101.047
X-42.976 Y-101.121
X-42.836 Y-101.146
X-42.249
G3 X-42.096 Y-101.003 I-0.006 J0.159
G1 X-41.656 Y-96.47
G3 X-41.691 Y-96.355 I-0.158 J0.015
X-41.739 Y-96.315 I-0.123 J-0.1
G1 X-41.76 Y-96.305
X-41.8 Y-96.28
X-41.862 Y-96.236
X-41.939 Y-96.178
X-41.964 Y-96.153
X-42.018 Y-96.101
X-42.154 Y-96.038
X-42.303 Y-96.019
X-42.452 Y-96.032
X-42.597 Y-96.07
X-42.736 Y-96.128
X-42.866 Y-96.201
X-42.988 Y-96.288
X-43.103 Y-96.386
X-43.211 Y-96.494
X-43.33 Y-96.631
X-43.447 Y-96.791
X-43.557 Y-96.967
X-43.673 Y-97.188
X-43.784 Y-97.449
X-43.881 Y-97.732
X-43.967 Y-98.066
X-44.036 Y-98.458
X-44.079 Y-98.892
X-44.088 Y-99.342
X-44.066 Y-99.764
X-44.016 Y-100.142
X-43.953 Y-100.442
X-43.894 Y-100.643
X-43.834 Y-100.802
X-43.771 Y-100.938
X-43.763 Y-100.952
X-43.675 Y-101.055
X-43.557 Y-101.123
X-43.423 Y-101.146
X-42.836
G3 X-42.684 Y-101.013 I-0.006 J0.159
G1 X-41.929 Y-96.28
G3 X-41.964 Y-96.153 I-0.157 J0.025
G1 X-42.066 Y-96.039
X-42.116 Y-95.973
X-42.132 Y-95.948
X-42.219 Y-95.826
X-42.353 Y-95.759
X-42.5 Y-95.727
X-42.65 Y-95.723
X-42.798 Y-95.743
X-42.943 Y-95.783
X-43.082 Y-95.839
X-43.215 Y-95.908
X-43.342 Y-95.989
X-43.466 Y-96.083
X-43.597 Y-96.2
X-43.728 Y-96.336
X-43.857 Y-96.491
X-43.992 Y-96.683
X-44.127 Y-96.908
X-44.246 Y-97.148
X-44.362 Y-97.433
X-44.47 Y-97.773
X-44.562 Y-98.163
X-44.628 Y-98.587
X-44.663 Y-99.028
X-44.664 Y-99.478
X-44.634 Y-99.89
X-44.582 Y-100.234
X-44.516 Y-100.52
X-44.462 Y-100.692
X-44.404 Y-100.838
X-44.36 Y-100.926
X-44.273 Y-101.043
X-44.15 Y-101.119
X-44.007 Y-101.146
X-43.423
G3 X-43.274 Y-101.024 I-0.006 J0.159
G1 X-42.114 Y-96.065
G3 X-42.132 Y-95.948 I-0.155 J0.036
G1 X-42.182 Y-95.871
X-42.234 Y-95.769
X-42.254 Y-95.719
X-42.271 Y-95.679
X-42.276 Y-95.666
X-42.303 Y-95.602
X-42.311 Y-95.595
X-42.408 Y-95.528
X-42.521 Y-95.493
X-42.64
G3 X-42.699 Y-95.511 I0.054 J-0.287
X-42.752 Y-96.019 I0.114 J-0.269
X-42.263 Y-95.727 I0.178 J0.257
X-42.276 Y-95.666 I-0.311 J-0.035
G1 X-42.313 Y-95.564
X-42.337 Y-95.528
X-42.345 Y-95.518
X-42.355 Y-95.507
X-42.373 Y-95.492
X-42.386 Y-95.484
X-42.399 Y-95.478
X-42.425 Y-95.469
X-42.45 Y-95.464
X-42.476
X-42.578 Y-95.483
X-42.68 Y-95.499
X-42.783 Y-95.511
X-42.885 Y-95.519
X-42.987 Y-95.518
X-43.018 Y-95.516
X-43.168 Y-95.513
X-43.316 Y-95.541
X-43.459 Y-95.587
X-43.596 Y-95.648
X-43.726 Y-95.721
X-43.851 Y-95.805
X-43.988 Y-95.914
X-44.128 Y-96.043
X-44.268 Y-96.194
X-44.413 Y-96.377
X-44.561 Y-96.595
X-44.694 Y-96.829
X-44.827 Y-97.112
X-44.956 Y-97.45
X-45.07 Y-97.835
X-45.161 Y-98.255
X-45.22 Y-98.69
X-45.246 Y-99.14
X-45.239 Y-99.59
X-45.204 Y-99.985
X-45.149 Y-100.311
X-45.086 Y-100.563
X-45.033 Y-100.726
X-44.974 Y-100.867
X-44.94 Y-100.932
X-44.853 Y-101.045
X-44.731 Y-101.12
X-44.59 Y-101.146
X-44.007
G3 X-43.856 Y-101.016 I-0.006 J0.159
G1 X-42.879 Y-95.703
G3 X-43.018 Y-95.516 I-0.156 J0.029
G1 X-43.09 Y-95.511
X-43.192 Y-95.498
X-43.325 Y-95.462
X-43.361 Y-95.45
X-43.397 Y-95.434
X-43.535 Y-95.375
X-43.684 Y-95.368
X-43.833 Y-95.39
X-43.977 Y-95.432
X-44.115 Y-95.492
X-44.246 Y-95.564
X-44.374 Y-95.649
X-44.51 Y-95.757
X-44.647 Y-95.883
X-44.795 Y-96.041
X-44.944 Y-96.228
X-45.087 Y-96.439
X-45.238 Y-96.703
X-45.389 Y-97.02
X-45.521 Y-97.361
X-45.636 Y-97.748
X-45.73 Y-98.18
X-45.792 Y-98.626
X-45.822 Y-99.076
X-45.82 Y-99.526
X-45.788 Y-99.945
X-45.737 Y-100.275
X-45.675 Y-100.537
X-45.624 Y-100.7
X-45.563 Y-100.849
X-45.525 Y-100.927
X-45.437 Y-101.043
X-45.314 Y-101.12
X-45.172 Y-101.146
X-44.59
G3 X-44.44 Y-101.02 I-0.006 J0.159
G1 X-43.316 Y-95.606
G3 X-43.397 Y-95.434 I-0.155 J0.032
G1 X-43.499 Y-95.384
X-43.54 Y-95.359
X-43.601 Y-95.316
X-43.639 Y-95.283
X-43.758 Y-95.192
X-43.9 Y-95.144
X-44.05 Y-95.13
X-44.199 Y-95.143
X-44.345 Y-95.176
X-44.487 Y-95.227
X-44.622 Y-95.291
X-44.752 Y-95.367
X-44.893 Y-95.465
X-45.038 Y-95.582
X-45.183 Y-95.72
X-45.344 Y-95.898
X-45.503 Y-96.104
X-45.661 Y-96.344
X-45.821 Y-96.633
X-45.975 Y-96.971
X-46.117 Y-97.357
X-46.231 Y-97.761
X-46.32 Y-98.203
X-46.376 Y-98.65
X-46.402 Y-99.099
X-46.399 Y-99.55
X-46.366 Y-99.967
X-46.316 Y-100.283
X-46.254 Y-100.544
X-46.203 Y-100.706
X-46.143 Y-100.853
X-46.106 Y-100.928
X-46.019 Y-101.043
X-45.896 Y-101.12
X-45.753 Y-101.146
X-45.172
G3 X-45.024 Y-101.027 I-0.006 J0.159
G1 X-43.592 Y-95.44
G3 X-43.639 Y-95.283 I-0.154 J0.039
G1 X-43.67 Y-95.257
X-43.704 Y-95.227
X-43.769 Y-95.155
X-43.823 Y-95.073
X-43.912 Y-94.953
X-44.041 Y-94.876
X-44.184 Y-94.832
X-44.333 Y-94.817
X-44.483 Y-94.823
X-44.631 Y-94.849
X-44.775 Y-94.89
X-44.915 Y-94.944
X-45.053 Y-95.011
X-45.204 Y-95.101
X-45.352 Y-95.204
X-45.515 Y-95.337
X-45.688 Y-95.502
X-45.852 Y-95.684
X-46.024 Y-95.908
X-46.204 Y-96.182
X-46.382 Y-96.506
X-46.539 Y-96.852
X-46.68 Y-97.24
X-46.802 Y-97.674
X-46.891 Y-98.116
X-46.95 Y-98.562
X-46.98 Y-99.012
X-46.982 Y-99.462
X-46.954 Y-99.888
X-46.906 Y-100.234
X-46.846 Y-100.504
X-46.794 Y-100.675
X-46.734 Y-100.831
X-46.69 Y-100.923
X-46.603 Y-101.041
X-46.479 Y-101.119
X-46.335 Y-101.146
X-45.753
G3 X-45.607 Y-101.034 I-0.006 J0.159
G1 X-43.807 Y-95.203
G3 X-43.801 Y-95.131 I-0.152 J0.047
X-43.823 Y-95.073 I-0.157 J-0.025
G1 X-43.837 Y-95.052
X-43.891 Y-94.95
X-43.908 Y-94.912
X-43.934 Y-94.848
X-43.942 Y-94.817
X-43.966 Y-94.745
X-44.059 Y-94.628
X-44.184 Y-94.544
X-44.323 Y-94.489
X-44.47 Y-94.458
X-44.619 Y-94.448
X-44.769 Y-94.456
X-44.917 Y-94.48
X-45.062 Y-94.518
X-45.204 Y-94.567
X-45.356 Y-94.633
X-45.524 Y-94.723
X-45.692 Y-94.829
X-45.864 Y-94.958
X-46.049 Y-95.119
X-46.245 Y-95.319
X-46.43 Y-95.538
X-46.622 Y-95.805
X-46.813 Y-96.118
X-46.995 Y-96.476
X-47.163 Y-96.881
X-47.303 Y-97.309
X-47.412 Y-97.746
X-47.491 Y-98.189
X-47.542 Y-98.637
X-47.565 Y-99.087
X-47.561 Y-99.537
X-47.529 Y-99.953
X-47.479 Y-100.277
X-47.417 Y-100.54
X-47.365 Y-100.704
X-47.306 Y-100.851
X-47.268 Y-100.927
X-47.181 Y-101.043
X-47.058 Y-101.12
X-46.916 Y-101.146
X-46.335
G3 X-46.191 Y-101.042 I-0.006 J0.159
G1 X-43.948 Y-94.907
G3 X-43.942 Y-94.817 I-0.149 J0.055
G1 X-43.962 Y-94.746
X-43.98 Y-94.643
X-43.986 Y-94.587
X-44.01 Y-94.439
X-44.092 Y-94.313
X-44.204 Y-94.214
X-44.334 Y-94.139
X-44.475 Y-94.086
X-44.621 Y-94.054
X-44.77 Y-94.039
X-44.853
X-44.945 Y-94.05
X-45.032 Y-94.083
X-45.109 Y-94.136
G3 X-45.061 Y-94.399 I0.108 J-0.116
G1 X-44.204 Y-94.745
G3 X-43.994 Y-94.648 I0.06 J0.147
X-43.986 Y-94.587 I-0.151 J0.05
G1 X-43.991 Y-94.541
X-43.987 Y-94.305
X-43.992 Y-94.155
X-44.051 Y-94.018
X-44.144 Y-93.9
X-44.259 Y-93.804
X-44.388 Y-93.727
X-44.392 Y-93.726
X-44.556 Y-93.698
X-44.716 Y-93.74
X-44.845 Y-93.844
G3 X-44.802 Y-94.074 I0.127 J-0.095
G1 X-44.23 Y-94.431
G3 X-44.003 Y-94.365 I0.084 J0.135
X-43.987 Y-94.305 I-0.143 J0.069
G1 X-43.986 Y-94.234
X-43.956 Y-93.998
X-43.945 Y-93.849
X-43.986 Y-93.704
X-44.065 Y-93.577
X-44.097 Y-93.547
X-44.213 Y-93.471
X-44.349 Y-93.439
X-44.487 Y-93.457
X-44.61 Y-93.522
X-44.703 Y-93.626
G3 X-44.646 Y-93.841 I0.138 J-0.079
G1 X-44.194 Y-94.11
G3 X-43.956 Y-93.998 I0.081 J0.136
G1 X-43.948 Y-93.927
X-43.903 Y-93.62
X-43.896 Y-93.545
X-43.929 Y-93.399
X-44.042 Y-93.292
X-44.189 Y-93.238
X-44.345 Y-93.246
X-44.485 Y-93.314
X-44.587 Y-93.433
G3 X-44.481 Y-93.66 I0.141 J-0.073
G1 X-44.093 Y-93.746
G3 X-43.903 Y-93.62 I0.034 J0.155
G1 X-43.87 Y-93.385
X-43.863 Y-93.31
X-43.898 Y-93.164
X-44.008 Y-93.074
X-44.144 Y-93.035
X-44.285 Y-93.052
X-44.407 Y-93.123
X-44.492 Y-93.237
G3 X-44.375 Y-93.456 I0.146 J-0.063
G1 X-44.054 Y-93.514
G3 X-43.87 Y-93.385 I0.028 J0.156
G1 X-43.846 Y-93.211
X-43.84 Y-93.155
X-43.835 Y-93.08
X-43.879 Y-92.936
X-43.982 Y-92.866
X-44.105 Y-92.841
X-44.228 Y-92.864
X-44.333 Y-92.933
X-44.403 Y-93.037
G3 X-44.416 Y-93.098 I0.185 J-0.07
X-43.84 Y-93.155 I0.29 J-0.014
G1 X-43.817 Y-92.95
X-43.812 Y-92.875
X-43.834 Y-92.803
X-43.917 Y-92.718
X-44.029 Y-92.676
X-44.148 Y-92.686
X-44.252 Y-92.745
X-44.321 Y-92.842
G3 X-44.333 Y-92.897 I0.172 J-0.065
G1 Y-92.903
G3 X-43.817 Y-92.95 I0.26 J-0.009
G1 X-43.806 Y-92.849
X-43.796 Y-92.732
X-43.793 Y-92.657
X-43.867 Y-92.57
X-43.972 Y-92.524
X-44.085 Y-92.529
X-44.186 Y-92.583
X-44.252 Y-92.676
G3 X-44.259 Y-92.731 I0.109 J-0.041
G1 X-44.258 Y-92.737
G3 X-43.811 Y-92.792 I0.231 J0.034
X-43.796 Y-92.732 I-0.216 J0.088
G1 X-43.784 Y-92.597
X-43.782 Y-92.522
X-43.809 Y-92.452
X-43.899 Y-92.389
X-44.009 Y-92.376
X-44.11 Y-92.419
X-44.179 Y-92.505
G3 X-44.191 Y-92.557 I0.163 J-0.065
G1 Y-92.566
G3 X-43.784 Y-92.597 I0.204 J-0.007
G1 X-43.772 Y-92.439
X-43.769 Y-92.393
X-43.77 Y-92.367
X-43.782 Y-92.327
G3 X-43.955 Y-92.417 I-0.086 J-0.045
X-43.79 Y-92.43 I0.086 J0.045
G1 X-43.787 Y-92.426
G3 X-43.77 Y-92.367 I-0.084 J0.056
G1 X-43.776 Y-92.341
X-43.781 Y-92.329
X-43.787 Y-92.316
X-43.795 Y-92.303
X-43.806 Y-92.288
X-43.819 Y-92.275
X-43.831 Y-92.264
X-43.857 Y-92.246
X-43.87 Y-92.238
X-43.883 Y-92.232
X-43.908 Y-92.225
X-43.934 Y-92.221
X-43.959 Y-92.222
X-43.985 Y-92.227
X-44.011 Y-92.237
X-44.026 Y-92.245
X-44.042 Y-92.256
X-44.06 Y-92.273
X-44.073 Y-92.29
X-44.113 Y-92.364
X-44.127 Y-92.393
X-44.174 Y-92.495
X-44.219 Y-92.597
X-44.42 Y-93.076
X-44.433 Y-93.109
X-44.48 Y-93.211
X-44.556 Y-93.37
X-44.578 Y-93.416
X-44.624 Y-93.499
X-44.763 Y-93.722
X-44.83 Y-93.825
X-44.913 Y-93.927
X-45.034 Y-94.059
X-45.105 Y-94.132
X-45.136 Y-94.159
X-45.227 Y-94.234
X-45.341 Y-94.316
X-45.372 Y-94.336
X-45.443 Y-94.377
X-45.545 Y-94.432
X-45.648 Y-94.476
X-45.75 Y-94.513
X-45.841 Y-94.541
X-45.985 Y-94.584
X-46.122 Y-94.645
X-46.253 Y-94.718
X-46.39 Y-94.809
X-46.541 Y-94.927
X-46.698 Y-95.071
X-46.88 Y-95.265
X-47.05 Y-95.478
X-47.237 Y-95.75
X-47.43 Y-96.085
X-47.614 Y-96.47
X-47.777 Y-96.89
X-47.908 Y-97.321
X-48.009 Y-97.76
X-48.081 Y-98.205
X-48.127 Y-98.653
X-48.148 Y-99.103
X-48.142 Y-99.553
X-48.108 Y-99.973
X-48.057 Y-100.291
X-47.996 Y-100.549
X-47.944 Y-100.711
X-47.885 Y-100.856
X-47.849 Y-100.928
X-47.762 Y-101.044
X-47.639 Y-101.12
X-47.497 Y-101.146
X-46.916
G3 X-46.765 Y-101.015 I-0.006 J0.159
G1 X-45.661 Y-94.725
G3 X-45.841 Y-94.541 I-0.156 J0.027
G1 X-46.057 Y-94.582
X-46.159 Y-94.6
X-46.262 Y-94.606
X-46.364 Y-94.607
X-46.395 Y-94.606
X-46.545 Y-94.61
X-46.691 Y-94.643
X-46.831 Y-94.698
X-46.963 Y-94.769
X-47.087 Y-94.853
X-47.225 Y-94.962
X-47.358 Y-95.086
X-47.52 Y-95.263
X-47.677 Y-95.462
X-47.852 Y-95.723
X-48.038 Y-96.052
X-48.207 Y-96.415
X-48.366 Y-96.834
X-48.492 Y-97.267
X-48.59 Y-97.707
X-48.661 Y-98.151
X-48.707 Y-98.599
X-48.729 Y-99.049
X-48.725 Y-99.5
X-48.694 Y-99.932
X-48.644 Y-100.263
X-48.583 Y-100.529
X-48.532 Y-100.694
X-48.471 Y-100.844
X-48.432 Y-100.926
X-48.344 Y-101.042
X-48.221 Y-101.119
X-48.078 Y-101.146
X-47.497
G3 X-47.346 Y-101.015 I-0.006 J0.159
G1 X-46.249 Y-94.792
G3 X-46.395 Y-94.606 I-0.156 J0.028
G1 X-46.466 Y-94.604
X-46.773 Y-94.566
X-46.827 Y-94.552
X-46.974 Y-94.522
X-47.124 Y-94.53
X-47.27 Y-94.566
X-47.409 Y-94.622
X-47.541 Y-94.693
X-47.666 Y-94.776
X-47.801 Y-94.882
X-47.937 Y-95.008
X-48.097 Y-95.18
X-48.25 Y-95.372
X-48.424 Y-95.628
X-48.603 Y-95.94
X-48.763 Y-96.278
X-48.925 Y-96.699
X-49.053 Y-97.13
X-49.154 Y-97.569
X-49.23 Y-98.013
X-49.281 Y-98.461
X-49.308 Y-98.91
X-49.312 Y-99.361
X-49.289 Y-99.808
X-49.24 Y-100.185
X-49.182 Y-100.462
X-49.127 Y-100.65
X-49.067 Y-100.811
X-49.004 Y-100.947
X-49 Y-100.954
X-48.912 Y-101.056
X-48.795 Y-101.123
X-48.662 Y-101.146
X-48.078
G3 X-47.928 Y-101.018 I-0.006 J0.159
G1 X-46.716 Y-94.735
G3 X-46.827 Y-94.552 I-0.156 J0.03
G1 X-47.08 Y-94.486
X-47.216 Y-94.439
X-47.254 Y-94.424
X-47.397 Y-94.378
X-47.547 Y-94.372
X-47.695 Y-94.394
X-47.838 Y-94.439
X-47.975 Y-94.5
X-48.105 Y-94.574
X-48.232 Y-94.661
X-48.374 Y-94.775
X-48.517 Y-94.91
X-48.685 Y-95.094
X-48.842 Y-95.296
X-49.011 Y-95.551
X-49.193 Y-95.876
X-49.361 Y-96.241
X-49.519 Y-96.663
X-49.643 Y-97.096
X-49.741 Y-97.536
X-49.814 Y-97.98
X-49.864 Y-98.428
X-49.892 Y-98.877
X-49.895 Y-99.328
X-49.873 Y-99.778
X-49.827 Y-100.152
X-49.769 Y-100.441
X-49.709 Y-100.653
X-49.657 Y-100.794
X-49.595 Y-100.931
X-49.585 Y-100.947
X-49.497 Y-101.053
X-49.378 Y-101.122
X-49.243 Y-101.146
X-48.662
G3 X-48.512 Y-101.02 I-0.006 J0.159
G1 X-47.16 Y-94.603
G3 X-47.254 Y-94.424 I-0.155 J0.033
G1 X-47.285 Y-94.413
X-47.387 Y-94.369
X-47.455 Y-94.336
X-47.624 Y-94.248
X-47.76 Y-94.185
X-47.908 Y-94.163
X-48.058 Y-94.171
X-48.205 Y-94.202
X-48.347 Y-94.251
X-48.483 Y-94.315
X-48.613 Y-94.39
X-48.757 Y-94.488
X-48.896 Y-94.601
X-49.057 Y-94.752
X-49.22 Y-94.93
X-49.391 Y-95.15
X-49.576 Y-95.428
X-49.757 Y-95.752
X-49.924 Y-96.114
X-50.082 Y-96.536
X-50.208 Y-96.968
X-50.308 Y-97.407
X-50.385 Y-97.851
X-50.439 Y-98.298
X-50.471 Y-98.747
X-50.48 Y-99.198
X-50.465 Y-99.648
X-50.423 Y-100.06
X-50.367 Y-100.37
X-50.305 Y-100.608
X-50.255 Y-100.753
X-50.196 Y-100.891
X-50.171 Y-100.937
X-50.084 Y-101.048
X-49.963 Y-101.121
X-49.823 Y-101.146
X-49.243
G3 X-49.094 Y-101.024 I-0.006 J0.159
G1 X-47.548 Y-94.422
G3 X-47.624 Y-94.248 I-0.155 J0.036
G1 X-47.694 Y-94.211
X-47.796 Y-94.153
X-47.899 Y-94.088
X-47.983 Y-94.029
X-48.11 Y-93.95
X-48.257 Y-93.918
X-48.407 Y-93.915
X-48.555 Y-93.935
X-48.7 Y-93.974
X-48.84 Y-94.027
X-48.975 Y-94.093
X-49.119 Y-94.178
X-49.268 Y-94.283
X-49.425 Y-94.412
X-49.604 Y-94.583
X-49.773 Y-94.773
X-49.958 Y-95.014
X-50.15 Y-95.309
X-50.34 Y-95.658
X-50.513 Y-96.041
X-50.666 Y-96.464
X-50.79 Y-96.897
X-50.889 Y-97.337
X-50.965 Y-97.781
X-51.02 Y-98.228
X-51.053 Y-98.677
X-51.065 Y-99.127
X-51.052 Y-99.578
X-51.013 Y-100.007
X-50.959 Y-100.327
X-50.897 Y-100.575
X-50.846 Y-100.729
X-50.787 Y-100.87
X-50.755 Y-100.932
X-50.668 Y-101.046
X-50.546 Y-101.12
X-50.405 Y-101.146
X-49.823
G3 X-49.675 Y-101.027 I-0.006 J0.159
G1 X-47.924 Y-94.196
G3 X-47.983 Y-94.029 I-0.154 J0.039
G1 X-48.001 Y-94.017
X-48.103 Y-93.94
X-48.237 Y-93.825
X-48.258 Y-93.805
X-48.374 Y-93.709
X-48.513 Y-93.654
X-48.661 Y-93.63
X-48.811 Y-93.631
X-48.96 Y-93.652
X-49.105 Y-93.689
X-49.246 Y-93.74
X-49.392 Y-93.808
X-49.537 Y-93.889
X-49.7 Y-93.998
X-49.871 Y-94.131
X-50.044 Y-94.29
X-50.238 Y-94.496
X-50.438 Y-94.744
X-50.628 Y-95.021
X-50.823 Y-95.36
X-51.015 Y-95.76
X-51.179 Y-96.18
X-51.314 Y-96.61
X-51.424 Y-97.046
X-51.511 Y-97.488
X-51.577 Y-97.934
X-51.622 Y-98.382
X-51.647 Y-98.832
X-51.65 Y-99.282
X-51.628 Y-99.732
X-51.582 Y-100.115
X-51.522 Y-100.422
X-51.465 Y-100.627
X-51.407 Y-100.786
X-51.345 Y-100.922
X-51.331 Y-100.947
X-51.244 Y-101.053
X-51.125 Y-101.122
X-50.989 Y-101.146
X-50.405
G3 X-50.258 Y-101.032 I-0.006 J0.159
G1 X-48.217 Y-93.962
G3 X-48.258 Y-93.805 I-0.153 J0.044
G1 X-48.308 Y-93.759
X-48.34 Y-93.722
X-48.41 Y-93.633
X-48.456 Y-93.564
X-48.545 Y-93.443
X-48.672 Y-93.364
X-48.814 Y-93.315
X-48.962 Y-93.292
X-49.112 Y-93.29
X-49.262 Y-93.307
X-49.408 Y-93.338
X-49.551 Y-93.383
X-49.698 Y-93.442
X-49.863 Y-93.523
X-50.028 Y-93.62
X-50.207 Y-93.746
X-50.406 Y-93.909
X-50.602 Y-94.097
X-50.801 Y-94.318
X-51.013 Y-94.594
X-51.231 Y-94.929
X-51.439 Y-95.31
X-51.625 Y-95.721
X-51.78 Y-96.143
X-51.909 Y-96.575
X-52.015 Y-97.013
X-52.099 Y-97.455
X-52.163 Y-97.901
X-52.208 Y-98.349
X-52.232 Y-98.799
X-52.235 Y-99.25
X-52.213 Y-99.7
X-52.167 Y-100.105
X-52.109 Y-100.403
X-52.047 Y-100.628
X-51.995 Y-100.775
X-51.934 Y-100.911
X-51.916 Y-100.943
X-51.829 Y-101.051
X-51.709 Y-101.122
X-51.572 Y-101.146
X-50.989
G3 X-50.929 Y-101.132 I-0.006 J0.159
G1 X-50.884 Y-101.112 Z-2.992
X-50.844 Y-101.093 Z-2.97
X-50.812 Y-101.079 Z-2.935
X-50.791 Y-101.069 Z-2.89
X-50.784 Y-101.066 Z-2.841
G0 Z5
X-48.628 Y-93.508
Z-2.682
G1 Z-2.841 F849.6
X-48.622 Y-93.513 Z-2.89
X-48.604 Y-93.526 Z-2.935
X-48.576 Y-93.548 Z-2.97
X-48.541 Y-93.575 Z-2.992
X-48.503 Y-93.605 Z-3
G3 X-48.456 Y-93.564 I0.019 J0.025
G1 X-48.513 Y-93.479
X-48.544 Y-93.416
X-48.604 Y-93.284
X-48.673 Y-93.151
X-48.786 Y-93.052
X-48.918 Y-92.982
X-49.061 Y-92.937
X-49.21 Y-92.914
X-49.29 Y-92.918
X-49.363 Y-92.937
X-49.43 Y-92.97
G3 X-49.404 Y-93.25 I0.087 J-0.133
G1 X-48.811 Y-93.492
G3 X-48.604 Y-93.284 I0.06 J0.147
G1 X-48.638 Y-93.211
X-48.68 Y-93.109
X-48.717 Y-93
X-48.726 Y-92.971
X-48.738 Y-92.934
X-48.748 Y-92.904
X-48.759 Y-92.876
X-48.775 Y-92.843
X-48.795 Y-92.812
X-48.82 Y-92.785
X-48.837 Y-92.774
G3 X-48.863 Y-92.791 I-0.009 J-0.014
X-48.804 Y-92.931 I0.331 J0.057
X-48.748 Y-92.904 I0.026 J0.019
G1 X-48.765 Y-92.853
X-48.772 Y-92.84
X-48.78 Y-92.827
X-48.802 Y-92.802
X-48.82 Y-92.785
X-48.832 Y-92.775
X-48.845 Y-92.767
X-48.858 Y-92.761
X-48.871 Y-92.756
X-48.896 Y-92.75
X-48.922 Y-92.748
X-48.948 Y-92.75
X-48.973 Y-92.756
X-49.024 Y-92.771
X-49.111 Y-92.802
X-49.229 Y-92.855
X-49.321 Y-92.904
X-49.536 Y-93.033
X-49.638 Y-93.098
X-50.096 Y-93.416
X-50.252 Y-93.52
X-50.354 Y-93.584
X-50.589 Y-93.722
X-50.661 Y-93.761
X-50.764 Y-93.809
X-50.902 Y-93.882
X-51.029 Y-93.962
X-51.154 Y-94.06
X-51.29 Y-94.183
X-51.437 Y-94.338
X-51.602 Y-94.541
X-51.78 Y-94.799
X-51.955 Y-95.098
X-52.142 Y-95.484
X-52.307 Y-95.903
X-52.445 Y-96.332
X-52.558 Y-96.768
X-52.65 Y-97.209
X-52.722 Y-97.654
X-52.775 Y-98.101
X-52.809 Y-98.55
X-52.823 Y-99
X-52.815 Y-99.451
X-52.782 Y-99.888
X-52.726 Y-100.256
X-52.663 Y-100.526
X-52.61 Y-100.694
X-52.549 Y-100.844
X-52.508 Y-100.927
X-52.421 Y-101.043
X-52.298 Y-101.12
X-52.155 Y-101.146
X-51.572
G3 X-51.42 Y-101.007 I-0.006 J0.159
G1 X-50.544 Y-93.975
G3 X-50.764 Y-93.809 I-0.158 J0.02
G1 X-50.866 Y-93.857
X-50.968 Y-93.903
X-51.275 Y-94.003
X-51.378 Y-94.022
X-51.524 Y-94.056
X-51.663 Y-94.113
X-51.792 Y-94.189
X-51.912 Y-94.279
X-52.024 Y-94.38
X-52.144 Y-94.507
X-52.287 Y-94.682
X-52.424 Y-94.879
X-52.583 Y-95.15
X-52.752 Y-95.497
X-52.918 Y-95.916
X-53.052 Y-96.346
X-53.161 Y-96.783
X-53.249 Y-97.225
X-53.317 Y-97.67
X-53.367 Y-98.118
X-53.398 Y-98.567
X-53.409 Y-99.017
X-53.399 Y-99.468
X-53.362 Y-99.917
X-53.309 Y-100.257
X-53.245 Y-100.529
X-53.192 Y-100.697
X-53.131 Y-100.848
X-53.091 Y-100.928
X-53.004 Y-101.043
X-52.881 Y-101.12
X-52.739 Y-101.146
X-52.155
G3 X-52.003 Y-101.006 I-0.006 J0.159
G1 X-51.197 Y-94.198
G3 X-51.378 Y-94.022 I-0.158 J0.019
G1 X-51.582 Y-94.059
X-51.685 Y-94.069
X-51.889 Y-94.071
X-52.039 Y-94.074
X-52.184 Y-94.114
X-52.32 Y-94.178
X-52.446 Y-94.258
X-52.564 Y-94.351
X-52.676 Y-94.455
X-52.802 Y-94.593
X-52.936 Y-94.763
X-53.082 Y-94.981
X-53.231 Y-95.244
X-53.392 Y-95.589
X-53.55 Y-96.011
X-53.677 Y-96.443
X-53.779 Y-96.882
X-53.861 Y-97.325
X-53.923 Y-97.771
X-53.966 Y-98.219
X-53.991 Y-98.669
X-53.996 Y-99.12
X-53.979 Y-99.57
X-53.937 Y-99.998
X-53.88 Y-100.326
X-53.816 Y-100.575
X-53.761 Y-100.738
X-53.702 Y-100.876
X-53.672 Y-100.934
X-53.584 Y-101.047
X-53.463 Y-101.121
X-53.323 Y-101.146
X-52.739
G3 X-52.587 Y-101.007 I-0.006 J0.159
G1 X-51.745 Y-94.249
G3 X-51.889 Y-94.071 I-0.158 J0.02
G1 X-51.992 Y-94.066
X-52.196 Y-94.037
X-52.241 Y-94.029
X-52.273 Y-94.021
X-52.42 Y-93.992
X-52.569 Y-94.004
X-52.713 Y-94.045
X-52.85 Y-94.107
X-52.978 Y-94.185
X-53.098 Y-94.275
X-53.218 Y-94.382
X-53.345 Y-94.513
X-53.483 Y-94.68
X-53.623 Y-94.88
X-53.786 Y-95.152
X-53.931 Y-95.445
X-54.091 Y-95.839
X-54.227 Y-96.269
X-54.337 Y-96.706
X-54.424 Y-97.148
X-54.491 Y-97.593
X-54.54 Y-98.041
X-54.571 Y-98.49
X-54.583 Y-98.94
X-54.575 Y-99.391
X-54.542 Y-99.84
X-54.486 Y-100.223
X-54.423 Y-100.498
X-54.368 Y-100.677
X-54.307 Y-100.833
X-54.262 Y-100.925
X-54.175 Y-101.042
X-54.051 Y-101.119
X-53.908 Y-101.146
X-53.323
G3 X-53.171 Y-101.011 I-0.006 J0.159
G1 X-52.16 Y-94.197
G3 X-52.273 Y-94.021 I-0.157 J0.023
G1 X-52.401 Y-93.988
X-52.503 Y-93.953
X-52.568 Y-93.927
X-52.605 Y-93.908
X-52.743 Y-93.848
X-52.892 Y-93.833
X-53.041 Y-93.85
X-53.185 Y-93.892
X-53.323 Y-93.952
X-53.453 Y-94.026
X-53.577 Y-94.113
X-53.696 Y-94.212
X-53.839 Y-94.349
X-53.975 Y-94.503
X-54.123 Y-94.698
X-54.285 Y-94.947
X-54.435 Y-95.224
X-54.598 Y-95.588
X-54.75 Y-96.012
X-54.872 Y-96.446
X-54.97 Y-96.886
X-55.046 Y-97.33
X-55.105 Y-97.776
X-55.145 Y-98.225
X-55.167 Y-98.675
X-55.171 Y-99.125
X-55.153 Y-99.575
X-55.11 Y-99.998
X-55.049 Y-100.337
X-54.985 Y-100.58
X-54.928 Y-100.746
X-54.869 Y-100.884
X-54.841 Y-100.937
X-54.753 Y-101.048
X-54.632 Y-101.121
X-54.493 Y-101.146
X-53.908
G3 X-53.757 Y-101.015 I-0.006 J0.159
G1 X-52.525 Y-94.076
G3 X-52.605 Y-93.908 I-0.156 J0.028
G1 X-52.81 Y-93.807
X-52.912 Y-93.749
X-52.949 Y-93.722
X-53.074 Y-93.64
X-53.222 Y-93.613
X-53.372 Y-93.616
X-53.519 Y-93.644
X-53.661 Y-93.691
X-53.798 Y-93.753
X-53.928 Y-93.828
X-54.064 Y-93.922
X-54.196 Y-94.029
X-54.346 Y-94.171
X-54.502 Y-94.344
X-54.653 Y-94.538
X-54.823 Y-94.797
X-54.994 Y-95.105
X-55.156 Y-95.459
X-55.311 Y-95.882
X-55.437 Y-96.314
X-55.538 Y-96.753
X-55.618 Y-97.196
X-55.68 Y-97.643
X-55.724 Y-98.091
X-55.75 Y-98.541
X-55.758 Y-98.991
X-55.746 Y-99.441
X-55.709 Y-99.89
X-55.65 Y-100.26
X-55.586 Y-100.53
X-55.532 Y-100.698
X-55.47 Y-100.849
X-55.43 Y-100.929
X-55.343 Y-101.044
X-55.22 Y-101.12
X-55.078 Y-101.146
X-54.493
G3 X-54.343 Y-101.019 I-0.006 J0.159
G1 X-52.891 Y-93.879
G3 X-52.908 Y-93.769 I-0.156 J0.032
X-52.949 Y-93.722 I-0.138 J-0.078
G1 X-53.015 Y-93.674
X-53.08 Y-93.62
X-53.117 Y-93.587
X-53.19 Y-93.518
X-53.3 Y-93.415
X-53.439 Y-93.359
X-53.587 Y-93.337
X-53.737 Y-93.341
X-53.885 Y-93.366
X-54.029 Y-93.408
X-54.167 Y-93.465
X-54.301 Y-93.534
X-54.44 Y-93.62
X-54.594 Y-93.732
X-54.741 Y-93.859
X-54.907 Y-94.024
X-55.085 Y-94.231
X-55.251 Y-94.457
X-55.428 Y-94.742
X-55.612 Y-95.095
X-55.788 Y-95.506
X-55.933 Y-95.933
X-56.051 Y-96.368
X-56.146 Y-96.808
X-56.222 Y-97.252
X-56.279 Y-97.699
X-56.319 Y-98.147
X-56.341 Y-98.597
X-56.345 Y-99.048
X-56.329 Y-99.498
X-56.287 Y-99.946
X-56.232 Y-100.28
X-56.165 Y-100.549
X-56.111 Y-100.714
X-56.05 Y-100.861
X-56.014 Y-100.931
X-55.927 Y-101.045
X-55.804 Y-101.12
X-55.663 Y-101.146
X-55.078
G3 X-54.929 Y-101.025 I-0.006 J0.159
G1 X-53.157 Y-93.658
G3 X-53.19 Y-93.518 I-0.154 J0.037
G1 X-53.219 Y-93.486
X-53.278 Y-93.416
X-53.353 Y-93.313
X-53.371 Y-93.282
X-53.454 Y-93.157
X-53.58 Y-93.076
X-53.722 Y-93.028
X-53.871 Y-93.007
X-54.021
X-54.17 Y-93.027
X-54.315 Y-93.062
X-54.457 Y-93.11
X-54.596 Y-93.171
X-54.751 Y-93.253
X-54.905 Y-93.351
X-55.074 Y-93.477
X-55.254 Y-93.634
X-55.432 Y-93.816
X-55.614 Y-94.032
X-55.811 Y-94.307
X-56.015 Y-94.641
X-56.197 Y-95
X-56.369 Y-95.416
X-56.512 Y-95.844
X-56.629 Y-96.278
X-56.725 Y-96.719
X-56.801 Y-97.162
X-56.86 Y-97.609
X-56.901 Y-98.058
X-56.926 Y-98.507
X-56.933 Y-98.958
X-56.92 Y-99.408
X-56.884 Y-99.857
X-56.826 Y-100.234
X-56.761 Y-100.511
X-56.707 Y-100.685
X-56.644 Y-100.841
X-56.602 Y-100.927
X-56.515 Y-101.043
X-56.391 Y-101.119
X-56.249 Y-101.146
X-55.663
G3 X-55.603 Y-101.132 I-0.006 J0.159
G1 X-55.558 Y-101.112 Z-2.992
X-55.518 Y-101.093 Z-2.97
X-55.486 Y-101.079 Z-2.935
X-55.465 Y-101.069 Z-2.89
X-55.458 Y-101.066 Z-2.841
G0 Z5
X-53.54 Y-93.217
Z-2.682
G1 Z-2.841 F849.6
X-53.534 Y-93.222 Z-2.89
X-53.517 Y-93.237 Z-2.935
X-53.49 Y-93.26 Z-2.97
X-53.457 Y-93.289 Z-2.992
X-53.42 Y-93.321 Z-3
G3 X-53.371 Y-93.282 I0.021 J0.024
G1 X-53.413 Y-93.211
X-53.467 Y-93.109
X-53.507 Y-93.006
X-53.567 Y-92.869
X-53.679 Y-92.769
X-53.812 Y-92.699
X-53.955 Y-92.655
X-54.104 Y-92.633
X-54.253 Y-92.63
X-54.403 Y-92.644
X-54.55 Y-92.671
X-54.695 Y-92.711
X-54.85 Y-92.768
X-55.018 Y-92.844
X-55.185 Y-92.936
X-55.367 Y-93.055
X-55.562 Y-93.205
X-55.754 Y-93.378
X-55.953 Y-93.587
X-56.169 Y-93.851
X-56.385 Y-94.161
X-56.594 Y-94.517
X-56.788 Y-94.912
X-56.954 Y-95.331
X-57.094 Y-95.759
X-57.21 Y-96.194
X-57.305 Y-96.634
X-57.382 Y-97.078
X-57.442 Y-97.525
X-57.485 Y-97.973
X-57.511 Y-98.423
X-57.52 Y-98.873
X-57.51 Y-99.323
X-57.478 Y-99.773
X-57.423 Y-100.174
X-57.36 Y-100.461
X-57.302 Y-100.655
X-57.24 Y-100.817
X-57.173 Y-100.956
X-57.085 Y-101.058
X-56.968 Y-101.123
X-56.836 Y-101.146
X-56.249
G3 X-56.188 Y-101.132 I-0.006 J0.159
G1 X-56.144 Y-101.112 Z-2.992
X-56.103 Y-101.093 Z-2.97
X-56.071 Y-101.079 Z-2.935
X-56.051 Y-101.069 Z-2.89
X-56.044 Y-101.066 Z-2.841
G0 Z5
X-53.661 Y-92.913
Z-2.682
G1 Z-2.841 F849.6
X-53.657 Y-92.919 Z-2.89
X-53.642 Y-92.936 Z-2.935
X-53.62 Y-92.964 Z-2.97
X-53.593 Y-92.998 Z-2.992
X-53.562 Y-93.036 Z-3
G3 X-53.507 Y-93.006 I0.025 J0.02
G1 X-53.584 Y-92.802
X-53.64 Y-92.661
X-53.702 Y-92.525
X-53.807 Y-92.418
X-53.934 Y-92.337
X-54.073 Y-92.281
X-54.218 Y-92.245
X-54.367 Y-92.228
X-54.517 Y-92.227
X-54.667 Y-92.24
X-54.82 Y-92.266
X-54.975 Y-92.306
X-55.143 Y-92.362
X-55.33 Y-92.442
X-55.522 Y-92.541
X-55.716 Y-92.661
X-55.925 Y-92.814
X-56.15 Y-93.007
X-56.376 Y-93.232
X-56.598 Y-93.491
X-56.829 Y-93.806
X-57.056 Y-94.172
X-57.264 Y-94.571
X-57.443 Y-94.985
X-57.595 Y-95.409
X-57.723 Y-95.841
X-57.831 Y-96.278
X-57.919 Y-96.72
X-57.99 Y-97.164
X-58.045 Y-97.612
X-58.083 Y-98.06
X-58.104 Y-98.51
X-58.108 Y-98.961
X-58.093 Y-99.411
X-58.055 Y-99.86
X-58.001 Y-100.215
X-57.933 Y-100.511
X-57.876 Y-100.693
X-57.818 Y-100.836
X-57.774 Y-100.926
X-57.687 Y-101.043
X-57.564 Y-101.119
X-57.421 Y-101.146
X-56.836
G3 X-56.776 Y-101.132 I-0.006 J0.159
G1 X-56.731 Y-101.112 Z-2.992
X-56.691 Y-101.093 Z-2.97
X-56.659 Y-101.079 Z-2.935
X-56.639 Y-101.069 Z-2.89
X-56.632 Y-101.066 Z-2.841
G0 Z5
X-53.796 Y-92.571
Z-2.682
G1 Z-2.841 F849.6
X-53.791 Y-92.577 Z-2.89
X-53.776 Y-92.594 Z-2.935
X-53.754 Y-92.621 Z-2.97
X-53.725 Y-92.655 Z-2.992
X-53.694 Y-92.692 Z-3
G3 X-53.64 Y-92.661 I0.024 J0.02
G1 X-53.706 Y-92.495
X-53.731 Y-92.41
X-53.75 Y-92.336
X-53.795 Y-92.193
X-53.884 Y-92.073
X-54 Y-91.978
X-54.131 Y-91.905
X-54.272 Y-91.853
X-54.418 Y-91.818
X-54.567 Y-91.8
X-54.717 Y-91.797
X-54.871 Y-91.806
X-55.027 Y-91.828
X-55.203 Y-91.866
X-55.394 Y-91.923
X-55.587 Y-91.997
X-55.791 Y-92.095
X-56.016 Y-92.223
X-56.255 Y-92.386
X-56.49 Y-92.573
X-56.726 Y-92.793
X-56.975 Y-93.064
X-57.23 Y-93.387
X-57.479 Y-93.759
X-57.7 Y-94.151
X-57.894 Y-94.557
X-58.062 Y-94.975
X-58.206 Y-95.402
X-58.329 Y-95.836
X-58.431 Y-96.274
X-58.516 Y-96.717
X-58.585 Y-97.162
X-58.637 Y-97.609
X-58.673 Y-98.058
X-58.693 Y-98.508
X-58.696 Y-98.959
X-58.68 Y-99.409
X-58.642 Y-99.858
X-58.584 Y-100.233
X-58.518 Y-100.515
X-58.463 Y-100.688
X-58.401 Y-100.843
X-58.359 Y-100.927
X-58.272 Y-101.043
X-58.149 Y-101.12
X-58.006 Y-101.146
X-57.421
G3 X-57.361 Y-101.132 I-0.006 J0.159
G1 X-57.316 Y-101.112 Z-2.992
X-57.276 Y-101.093 Z-2.97
X-57.244 Y-101.079 Z-2.935
X-57.223 Y-101.069 Z-2.89
X-57.216 Y-101.066 Z-2.841
G0 Z5
X-53.893 Y-92.227
Z-2.682
G1 Z-2.841 F849.6
X-53.889 Y-92.233 Z-2.89
X-53.877 Y-92.252 Z-2.935
X-53.858 Y-92.282 Z-2.97
X-53.834 Y-92.319 Z-2.992
X-53.808 Y-92.36 Z-3
G3 X-53.75 Y-92.336 I0.027 J0.017
G1 X-53.788 Y-92.188
X-53.806 Y-92.086
X-53.81 Y-92.029
X-53.827 Y-91.88
X-53.895 Y-91.747
X-53.994 Y-91.634
X-54.113 Y-91.542
X-54.245 Y-91.47
X-54.385 Y-91.416
X-54.53 Y-91.378
X-54.678 Y-91.355
X-54.827 Y-91.344
X-54.985 Y-91.345
X-55.16 Y-91.36
X-55.349 Y-91.39
X-55.541 Y-91.437
X-55.754 Y-91.506
X-55.989 Y-91.602
X-56.23 Y-91.724
X-56.47 Y-91.869
X-56.724 Y-92.05
X-56.991 Y-92.274
X-57.269 Y-92.545
X-57.55 Y-92.865
X-57.816 Y-93.218
X-58.058 Y-93.598
X-58.272 Y-93.994
X-58.461 Y-94.403
X-58.627 Y-94.822
X-58.77 Y-95.249
X-58.894 Y-95.682
X-58.998 Y-96.12
X-59.086 Y-96.562
X-59.157 Y-97.007
X-59.213 Y-97.454
X-59.253 Y-97.903
X-59.277 Y-98.352
X-59.285 Y-98.803
X-59.276 Y-99.253
X-59.246 Y-99.702
X-59.191 Y-100.123
X-59.127 Y-100.428
X-59.067 Y-100.636
X-59.005 Y-100.8
X-58.942 Y-100.936
X-58.933 Y-100.952
X-58.845 Y-101.055
X-58.727 Y-101.123
X-58.594 Y-101.146
X-58.006
G3 X-57.946 Y-101.132 I-0.006 J0.159
G1 X-57.901 Y-101.112 Z-2.992
X-57.861 Y-101.093 Z-2.97
X-57.829 Y-101.079 Z-2.935
X-57.809 Y-101.069 Z-2.89
X-57.801 Y-101.066 Z-2.841
G0 Z5
X-53.931 Y-91.895
Z-2.682
G1 Z-2.841 F849.6
X-53.928 Y-91.902 Z-2.89
X-53.919 Y-91.923 Z-2.935
X-53.906 Y-91.956 Z-2.97
X-53.889 Y-91.997 Z-2.992
X-53.871 Y-92.042 Z-3
G3 X-53.81 Y-92.029 I0.029 J0.012
G1 X-53.813 Y-91.983
X-53.816 Y-91.881
X-53.813 Y-91.779
X-53.807 Y-91.748
X-53.788 Y-91.599
X-53.828 Y-91.454
X-53.905 Y-91.325
X-54.005 Y-91.214
X-54.122 Y-91.12
X-54.251 Y-91.043
X-54.388 Y-90.982
X-54.53 Y-90.934
X-54.676 Y-90.9
X-54.83 Y-90.877
X-55 Y-90.865
X-55.176 Y-90.867
X-55.369 Y-90.883
X-55.585 Y-90.918
X-55.818 Y-90.974
X-56.051 Y-91.049
X-56.299 Y-91.152
X-56.565 Y-91.285
X-56.846 Y-91.455
X-57.141 Y-91.666
X-57.427 Y-91.905
X-57.722 Y-92.192
X-58.019 Y-92.53
X-58.289 Y-92.89
X-58.534 Y-93.268
X-58.753 Y-93.661
X-58.949 Y-94.067
X-59.122 Y-94.483
X-59.275 Y-94.907
X-59.407 Y-95.337
X-59.522 Y-95.773
X-59.619 Y-96.213
X-59.7 Y-96.656
X-59.766 Y-97.101
X-59.816 Y-97.549
X-59.851 Y-97.998
X-59.871 Y-98.448
X-59.874 Y-98.898
X-59.86 Y-99.349
X-59.823 Y-99.798
X-59.769 Y-100.176
X-59.701 Y-100.48
X-59.641 Y-100.675
X-59.584 Y-100.821
X-59.534 Y-100.924
X-59.448 Y-101.041
X-59.324 Y-101.119
X-59.18 Y-101.146
X-58.594
G3 X-58.533 Y-101.132 I-0.006 J0.159
G1 X-58.489 Y-101.112 Z-2.992
X-58.448 Y-101.093 Z-2.97
X-58.416 Y-101.079 Z-2.935
X-58.396 Y-101.069 Z-2.89
X-58.389 Y-101.066 Z-2.841
G0 Z5
X-53.892 Y-91.589
Z-2.682
G1 Z-2.841 F849.6
X-53.891 Y-91.596 Z-2.89
X-53.888 Y-91.619 Z-2.935
X-53.883 Y-91.653 Z-2.97
X-53.877 Y-91.697 Z-2.992
X-53.869 Y-91.746 Z-3
G3 X-53.807 Y-91.748 I0.031 J0.005
G1 X-53.795 Y-91.676
X-53.775 Y-91.574
X-53.746 Y-91.472
X-53.731 Y-91.428
X-53.685 Y-91.285
X-53.713 Y-91.137
X-53.775 Y-91.001
X-53.861 Y-90.878
X-53.965 Y-90.77
X-54.082 Y-90.676
X-54.209 Y-90.597
X-54.344 Y-90.531
X-54.484 Y-90.476
X-54.628 Y-90.434
X-54.791 Y-90.399
X-54.973 Y-90.375
X-55.16 Y-90.364
X-55.371 Y-90.368
X-55.601 Y-90.39
X-55.848 Y-90.434
X-56.098 Y-90.497
X-56.364 Y-90.587
X-56.652 Y-90.71
X-56.958 Y-90.869
X-57.273 Y-91.064
X-57.595 Y-91.301
X-57.906 Y-91.567
X-58.222 Y-91.883
X-58.515 Y-92.225
X-58.784 Y-92.587
X-59.029 Y-92.965
X-59.25 Y-93.357
X-59.45 Y-93.761
X-59.628 Y-94.174
X-59.787 Y-94.596
X-59.927 Y-95.024
X-60.048 Y-95.458
X-60.154 Y-95.896
X-60.243 Y-96.337
X-60.317 Y-96.782
X-60.376 Y-97.228
X-60.42 Y-97.677
X-60.45 Y-98.126
X-60.464 Y-98.576
X-60.462 Y-99.027
X-60.441 Y-99.477
X-60.397 Y-99.925
X-60.336 Y-100.28
X-60.268 Y-100.551
X-60.212 Y-100.72
X-60.151 Y-100.864
X-60.116 Y-100.933
X-60.029 Y-101.046
X-59.907 Y-101.12
X-59.766 Y-101.146
X-59.18
G3 X-59.12 Y-101.132 I-0.006 J0.159
G1 X-59.075 Y-101.112 Z-2.992
X-59.035 Y-101.093 Z-2.97
X-59.003 Y-101.079 Z-2.935
X-58.982 Y-101.069 Z-2.89
X-58.975 Y-101.066 Z-2.841
G0 Z5
X-53.785 Y-91.255
Z-2.682
G1 Z-2.841 F849.6
X-53.786 Y-91.263 Z-2.89
Y-91.286 Z-2.935
X-53.788 Y-91.321 Z-2.97
X-53.79 Y-91.365 Z-2.992
X-53.792 Y-91.414 Z-3
G3 X-53.731 Y-91.428 I0.032 J-0.001
G1 X-53.709 Y-91.369
X-53.66 Y-91.267
X-53.629 Y-91.21
X-53.612 Y-91.185
X-53.535 Y-91.057
X-53.532 Y-90.907
X-53.565 Y-90.76
X-53.626 Y-90.623
X-53.708 Y-90.498
X-53.806 Y-90.384
X-53.916 Y-90.283
X-54.037 Y-90.193
X-54.165 Y-90.116
X-54.302 Y-90.048
X-54.454 Y-89.987
X-54.614 Y-89.937
X-54.796 Y-89.894
X-55.001 Y-89.863
X-55.222 Y-89.846
X-55.451
X-55.701 Y-89.866
X-55.971 Y-89.907
X-56.261 Y-89.976
X-56.571 Y-90.074
X-56.879 Y-90.198
X-57.204 Y-90.36
X-57.547 Y-90.564
X-57.893 Y-90.808
X-58.24 Y-91.094
X-58.565 Y-91.407
X-58.867 Y-91.741
X-59.146 Y-92.095
X-59.402 Y-92.465
X-59.637 Y-92.849
X-59.851 Y-93.246
X-60.044 Y-93.653
X-60.218 Y-94.068
X-60.372 Y-94.491
X-60.509 Y-94.921
X-60.629 Y-95.355
X-60.734 Y-95.793
X-60.823 Y-96.234
X-60.897 Y-96.679
X-60.957 Y-97.125
X-61.003 Y-97.573
X-61.035 Y-98.023
X-61.051 Y-98.473
X-61.052 Y-98.923
X-61.035 Y-99.373
X-60.996 Y-99.822
X-60.935 Y-100.22
X-60.87 Y-100.5
X-60.813 Y-100.681
X-60.75 Y-100.838
X-60.706 Y-100.927
X-60.619 Y-101.043
X-60.496 Y-101.119
X-60.353 Y-101.146
X-59.766
G3 X-59.706 Y-101.132 I-0.006 J0.159
G1 X-59.661 Y-101.112 Z-2.992
X-59.621 Y-101.093 Z-2.97
X-59.589 Y-101.079 Z-2.935
X-59.568 Y-101.069 Z-2.89
X-59.561 Y-101.066 Z-2.841
G0 Z5
X-53.626 Y-91.005
Z-2.682
G1 Z-2.841 F849.6
X-53.628 Y-91.013 Z-2.89
X-53.634 Y-91.035 Z-2.935
X-53.643 Y-91.068 Z-2.97
X-53.655 Y-91.111 Z-2.992
X-53.668 Y-91.158 Z-3
G3 X-53.612 Y-91.185 I0.031 J-0.008
G1 X-53.526 Y-91.057
X-53.451 Y-90.96
X-53.36 Y-90.841
X-53.326 Y-90.695
X-53.331 Y-90.545
X-53.366 Y-90.399
X-53.424 Y-90.261
X-53.5 Y-90.132
X-53.591 Y-90.013
X-53.695 Y-89.904
X-53.808 Y-89.806
X-53.93 Y-89.718
X-54.068 Y-89.633
X-54.217 Y-89.557
X-54.385 Y-89.488
X-54.575 Y-89.425
X-54.786 Y-89.373
X-55.011 Y-89.335
X-55.248 Y-89.314
X-55.51 Y-89.311
X-55.796 Y-89.329
X-56.105 Y-89.373
X-56.429 Y-89.445
X-56.757 Y-89.544
X-57.094 Y-89.675
X-57.454 Y-89.848
X-57.827 Y-90.063
X-58.199 Y-90.318
X-58.55 Y-90.599
X-58.882 Y-90.905
X-59.192 Y-91.231
X-59.481 Y-91.576
X-59.75 Y-91.938
X-59.999 Y-92.313
X-60.227 Y-92.702
X-60.434 Y-93.102
X-60.623 Y-93.511
X-60.793 Y-93.928
X-60.945 Y-94.352
X-61.081 Y-94.781
X-61.201 Y-95.215
X-61.306 Y-95.653
X-61.396 Y-96.095
X-61.472 Y-96.539
X-61.535 Y-96.985
X-61.583 Y-97.433
X-61.618 Y-97.882
X-61.638 Y-98.332
X-61.642 Y-98.782
X-61.631 Y-99.232
X-61.599 Y-99.682
X-61.544 Y-100.107
X-61.479 Y-100.419
X-61.417 Y-100.632
X-61.355 Y-100.798
X-61.292 Y-100.934
X-61.281 Y-100.951
X-61.193 Y-101.055
X-61.075 Y-101.123
X-60.941 Y-101.146
X-60.353
G3 X-60.293 Y-101.132 I-0.006 J0.159
G1 X-60.248 Y-101.112 Z-2.992
X-60.208 Y-101.093 Z-2.97
X-60.176 Y-101.079 Z-2.935
X-60.155 Y-101.069 Z-2.89
X-60.148 Y-101.066 Z-2.841
G0 Z5
X-53.444 Y-90.78
Z-2.682
G1 Z-2.841 F849.6
X-53.447 Y-90.787 Z-2.89
X-53.455 Y-90.808 Z-2.935
X-53.469 Y-90.841 Z-2.97
X-53.485 Y-90.882 Z-2.992
X-53.504 Y-90.927 Z-3
G3 X-53.451 Y-90.96 I0.029 J-0.012
G1 X-53.424 Y-90.929
X-53.24 Y-90.756
X-53.136 Y-90.648
X-53.08 Y-90.508
X-53.062 Y-90.36
X-53.073 Y-90.21
X-53.107 Y-90.064
X-53.162 Y-89.924
X-53.233 Y-89.792
X-53.317 Y-89.668
X-53.413 Y-89.553
X-53.519 Y-89.446
X-53.64 Y-89.342
X-53.777 Y-89.241
X-53.928 Y-89.148
X-54.102 Y-89.057
X-54.299 Y-88.973
X-54.516 Y-88.899
X-54.743 Y-88.841
X-54.992 Y-88.798
X-55.268 Y-88.771
X-55.57 Y-88.765
X-55.895 Y-88.783
X-55.996 Y-88.796
X-56.071 Y-88.814
X-56.141 Y-88.846
X-56.203 Y-88.891
X-56.348 Y-89.016
X-56.469 Y-89.119
X-56.726 Y-89.323
X-56.801 Y-89.378
X-57.108 Y-89.592
X-57.21 Y-89.658
X-57.415 Y-89.774
X-57.517 Y-89.825
X-57.765 Y-89.937
X-57.824 Y-89.961
X-57.926 Y-89.997
X-58.069 Y-90.039
X-58.131 Y-90.054
X-58.335 Y-90.091
X-58.482 Y-90.121
X-58.624 Y-90.17
X-58.761 Y-90.231
X-58.915 Y-90.316
X-59.101 Y-90.438
X-59.306 Y-90.596
X-59.55 Y-90.817
X-59.837 Y-91.118
X-60.121 Y-91.467
X-60.382 Y-91.834
X-60.621 Y-92.215
X-60.841 Y-92.609
X-61.042 Y-93.012
X-61.225 Y-93.424
X-61.39 Y-93.843
X-61.538 Y-94.268
X-61.671 Y-94.698
X-61.789 Y-95.133
X-61.892 Y-95.572
X-61.982 Y-96.013
X-62.057 Y-96.457
X-62.119 Y-96.903
X-62.168 Y-97.351
X-62.204 Y-97.8
X-62.225 Y-98.25
X-62.232 Y-98.7
X-62.222 Y-99.151
X-62.194 Y-99.6
X-62.141 Y-100.048
X-62.077 Y-100.374
X-62.009 Y-100.62
X-61.956 Y-100.766
X-61.894 Y-100.903
X-61.873 Y-100.942
X-61.785 Y-101.05
X-61.665 Y-101.122
X-61.528 Y-101.146
X-60.941
G3 X-60.881 Y-101.132 I-0.006 J0.159
G1 X-60.837 Y-101.112 Z-2.992
X-60.796 Y-101.093 Z-2.97
X-60.764 Y-101.079 Z-2.935
X-60.744 Y-101.069 Z-2.89
X-60.737 Y-101.066 Z-2.841
G0 Z5
X-58.458 Y-90.223
Z-2.682
G1 Z-2.841 F849.6
X-58.451 Y-90.22 Z-2.89
X-58.431 Y-90.209 Z-2.935
X-58.4 Y-90.193 Z-2.97
X-58.361 Y-90.173 Z-2.992
X-58.317 Y-90.15 Z-3
G3 X-58.335 Y-90.091 I-0.015 J0.028
G1 X-58.438 Y-90.107
X-58.745 Y-90.122
X-58.949 Y-90.114
X-58.98 Y-90.113
X-59.02 Y-90.111
X-59.17 Y-90.113
X-59.205 Y-90.122
X-59.235 Y-90.132
X-59.265 Y-90.143
X-59.294 Y-90.157
G3 X-59.192 Y-90.452 I0.081 J-0.137
G1 X-59.01 Y-90.427
G3 X-59.02 Y-90.111 I-0.021 J0.157
G1 X-59.052 Y-90.11
X-59.154 Y-90.111
X-59.18 Y-90.114
X-59.205 Y-90.119
X-59.265 Y-90.142
X-59.312 Y-90.167
X-59.359 Y-90.198
X-59.39 Y-90.219
X-59.421 Y-90.244
X-59.461 Y-90.29
X-59.504 Y-90.346
X-59.563 Y-90.421
X-59.675 Y-90.551
X-59.787 Y-90.653
X-59.87 Y-90.724
X-60.177 Y-90.94
X-60.208 Y-90.96
X-60.332 Y-91.045
X-60.467 Y-91.16
X-60.639 Y-91.33
X-60.824 Y-91.545
X-61.053 Y-91.854
X-61.292 Y-92.235
X-61.505 Y-92.632
X-61.697 Y-93.04
X-61.87 Y-93.456
X-62.027 Y-93.878
X-62.169 Y-94.305
X-62.295 Y-94.738
X-62.407 Y-95.174
X-62.506 Y-95.614
X-62.591 Y-96.056
X-62.662 Y-96.501
X-62.721 Y-96.947
X-62.766 Y-97.395
X-62.799 Y-97.845
X-62.817 Y-98.295
X-62.822 Y-98.745
X-62.809 Y-99.195
X-62.778 Y-99.645
X-62.722 Y-100.088
X-62.659 Y-100.4
X-62.594 Y-100.629
X-62.537 Y-100.783
X-62.474 Y-100.919
X-62.458 Y-100.947
X-62.371 Y-101.053
X-62.251 Y-101.122
X-62.116 Y-101.146
X-61.528
G3 X-61.468 Y-101.132 I-0.006 J0.159
G1 X-61.423 Y-101.112 Z-2.992
X-61.383 Y-101.093 Z-2.97
X-61.351 Y-101.079 Z-2.935
X-61.33 Y-101.069 Z-2.89
X-61.323 Y-101.066 Z-2.841
G0 Z5
X-60.271 Y-91.13
Z-2.682
G1 Z-2.841 F849.6
X-60.266 Y-91.124 Z-2.89
X-60.251 Y-91.106 Z-2.935
X-60.228 Y-91.08 Z-2.97
X-60.2 Y-91.046 Z-2.992
X-60.168 Y-91.008 Z-3
G3 X-60.208 Y-90.96 I-0.024 J0.02
G1 X-60.28 Y-91.004
X-60.382 Y-91.063
X-60.484 Y-91.121
X-60.587 Y-91.175
X-60.791 Y-91.279
X-60.893 Y-91.33
X-61.052 Y-91.405
X-61.185 Y-91.475
X-61.308 Y-91.56
X-61.422 Y-91.658
X-61.553 Y-91.79
X-61.691 Y-91.951
X-61.863 Y-92.187
X-62.053 Y-92.496
X-62.26 Y-92.896
X-62.439 Y-93.31
X-62.597 Y-93.731
X-62.739 Y-94.159
X-62.866 Y-94.591
X-62.979 Y-95.027
X-63.078 Y-95.467
X-63.164 Y-95.909
X-63.238 Y-96.353
X-63.298 Y-96.799
X-63.346 Y-97.247
X-63.382 Y-97.696
X-63.404 Y-98.146
X-63.412 Y-98.597
X-63.404 Y-99.047
X-63.379 Y-99.497
X-63.333 Y-99.945
X-63.267 Y-100.312
X-63.2 Y-100.573
X-63.146 Y-100.73
X-63.084 Y-100.875
X-63.052 Y-100.935
X-62.964 Y-101.047
X-62.843 Y-101.121
X-62.703 Y-101.146
X-62.116
G3 X-62.056 Y-101.132 I-0.006 J0.159
G1 X-62.011 Y-101.112 Z-2.992
X-61.971 Y-101.093 Z-2.97
X-61.939 Y-101.079 Z-2.935
X-61.918 Y-101.069 Z-2.89
X-61.911 Y-101.066 Z-2.841
G0 Z5
X-61.133 Y-91.566
Z-2.682
G1 Z-2.841 F849.6
X-61.128 Y-91.561 Z-2.89
X-61.111 Y-91.545 Z-2.935
X-61.086 Y-91.521 Z-2.97
X-61.054 Y-91.491 Z-2.992
X-61.018 Y-91.457 Z-3
G3 X-61.052 Y-91.405 I-0.022 J0.023
G1 X-61.2 Y-91.474
X-61.507 Y-91.603
X-61.61 Y-91.642
X-61.712 Y-91.68
X-61.768 Y-91.7
X-61.907 Y-91.756
X-62.036 Y-91.833
X-62.156 Y-91.924
X-62.268 Y-92.03
X-62.39 Y-92.163
X-62.522 Y-92.331
X-62.676 Y-92.562
X-62.856 Y-92.883
X-63.046 Y-93.291
X-63.207 Y-93.712
X-63.348 Y-94.14
X-63.472 Y-94.573
X-63.582 Y-95.009
X-63.678 Y-95.449
X-63.762 Y-95.892
X-63.833 Y-96.337
X-63.892 Y-96.783
X-63.939 Y-97.231
X-63.973 Y-97.681
X-63.994 Y-98.131
X-64.002 Y-98.581
X-63.994 Y-99.031
X-63.969 Y-99.481
X-63.922 Y-99.929
X-63.86 Y-100.289
X-63.792 Y-100.558
X-63.737 Y-100.721
X-63.674 Y-100.868
X-63.64 Y-100.934
X-63.552 Y-101.046
X-63.431 Y-101.12
X-63.29 Y-101.146
X-62.703
G3 X-62.643 Y-101.132 I-0.006 J0.159
G1 X-62.598 Y-101.112 Z-2.992
X-62.558 Y-101.093 Z-2.97
X-62.526 Y-101.079 Z-2.935
X-62.505 Y-101.069 Z-2.89
X-62.498 Y-101.066 Z-2.841
G0 Z5
X-61.865 Y-91.852
Z-2.682
G1 Z-2.841 F849.6
X-61.859 Y-91.847 Z-2.89
X-61.841 Y-91.834 Z-2.935
X-61.813 Y-91.812 Z-2.97
X-61.778 Y-91.785 Z-2.992
X-61.74 Y-91.755 Z-3
G3 X-61.768 Y-91.7 I-0.019 J0.025
G1 X-61.814 Y-91.716
X-61.917 Y-91.75
X-62.224 Y-91.845
X-62.428 Y-91.903
X-62.57 Y-91.951
X-62.704 Y-92.02
X-62.826 Y-92.107
X-62.939 Y-92.206
X-63.05 Y-92.321
X-63.184 Y-92.483
X-63.312 Y-92.666
X-63.469 Y-92.929
X-63.645 Y-93.285
X-63.814 Y-93.703
X-63.956 Y-94.13
X-64.079 Y-94.564
X-64.186 Y-95.001
X-64.28 Y-95.442
X-64.361 Y-95.885
X-64.43 Y-96.33
X-64.487 Y-96.777
X-64.532 Y-97.225
X-64.565 Y-97.674
X-64.585 Y-98.124
X-64.592 Y-98.575
X-64.584 Y-99.025
X-64.558 Y-99.475
X-64.511 Y-99.923
X-64.449 Y-100.283
X-64.38 Y-100.554
X-64.325 Y-100.719
X-64.262 Y-100.866
X-64.227 Y-100.933
X-64.14 Y-101.046
X-64.018 Y-101.12
X-63.878 Y-101.146
X-63.29
G3 X-63.23 Y-101.132 I-0.006 J0.159
G1 X-63.185 Y-101.112 Z-2.992
X-63.145 Y-101.093 Z-2.97
X-63.113 Y-101.079 Z-2.935
X-63.093 Y-101.069 Z-2.89
X-63.086 Y-101.066 Z-2.841
G0 Z5
X-62.534 Y-92.049
Z-2.682
G1 Z-2.841 F849.6
X-62.528 Y-92.045 Z-2.89
X-62.509 Y-92.032 Z-2.935
X-62.48 Y-92.013 Z-2.97
X-62.443 Y-91.988 Z-2.992
X-62.403 Y-91.96 Z-3
G3 X-62.428 Y-91.903 I-0.018 J0.026
G1 X-62.531 Y-91.932
X-62.838 Y-92.009
X-62.94 Y-92.032
X-63.042 Y-92.052
X-63.188 Y-92.088
X-63.325 Y-92.149
X-63.451 Y-92.23
X-63.568 Y-92.324
X-63.681 Y-92.435
X-63.798 Y-92.568
X-63.925 Y-92.738
X-64.067 Y-92.963
X-64.226 Y-93.262
X-64.397 Y-93.654
X-64.546 Y-94.079
X-64.671 Y-94.512
X-64.778 Y-94.949
X-64.872 Y-95.39
X-64.952 Y-95.833
X-65.021 Y-96.278
X-65.077 Y-96.725
X-65.122 Y-97.173
X-65.155 Y-97.623
X-65.175 Y-98.073
X-65.182 Y-98.523
X-65.175 Y-98.973
X-65.151 Y-99.423
X-65.106 Y-99.871
X-65.043 Y-100.254
X-64.974 Y-100.532
X-64.919 Y-100.702
X-64.855 Y-100.855
X-64.817 Y-100.931
X-64.729 Y-101.045
X-64.607 Y-101.12
X-64.466 Y-101.146
X-63.878
G3 X-63.817 Y-101.132 I-0.006 J0.159
G1 X-63.773 Y-101.112 Z-2.992
X-63.733 Y-101.093 Z-2.97
X-63.701 Y-101.079 Z-2.935
X-63.68 Y-101.069 Z-2.89
X-63.673 Y-101.066 Z-2.841
G0 Z5
X-63.16 Y-92.189
Z-2.682
G1 Z-2.841 F849.6
X-63.153 Y-92.185 Z-2.89
X-63.133 Y-92.174 Z-2.935
X-63.103 Y-92.157 Z-2.97
X-63.064 Y-92.135 Z-2.992
X-63.022 Y-92.111 Z-3
G3 X-63.042 Y-92.052 I-0.016 J0.028
G1 X-63.216 Y-92.086
X-63.451 Y-92.117
X-63.554 Y-92.127
X-63.585
X-63.735 Y-92.135
X-63.876 Y-92.186
X-64.007 Y-92.259
X-64.129 Y-92.346
X-64.241 Y-92.446
X-64.352 Y-92.561
X-64.477 Y-92.712
X-64.613 Y-92.905
X-64.755 Y-93.145
X-64.909 Y-93.454
X-65.077 Y-93.871
X-65.215 Y-94.3
X-65.33 Y-94.736
X-65.429 Y-95.175
X-65.514 Y-95.617
X-65.587 Y-96.062
X-65.647 Y-96.508
X-65.696 Y-96.956
X-65.733 Y-97.405
X-65.759 Y-97.855
X-65.772 Y-98.305
X-65.771 Y-98.755
X-65.755 Y-99.206
X-65.722 Y-99.655
X-65.665 Y-100.084
X-65.596 Y-100.414
X-65.533 Y-100.63
X-65.471 Y-100.795
X-65.407 Y-100.931
X-65.396 Y-100.951
X-65.308 Y-101.055
X-65.19 Y-101.123
X-65.055 Y-101.146
X-64.466
G3 X-64.405 Y-101.132 I-0.006 J0.159
G1 X-64.361 Y-101.112 Z-2.992
X-64.32 Y-101.093 Z-2.97
X-64.288 Y-101.079 Z-2.935
X-64.268 Y-101.069 Z-2.89
X-64.261 Y-101.066 Z-2.841
G0 Z5
X-63.726 Y-92.239
Z-2.682
G1 Z-2.841 F849.6
X-63.719 Y-92.237 Z-2.89
X-63.698 Y-92.23 Z-2.935
X-63.664 Y-92.219 Z-2.97
X-63.622 Y-92.205 Z-2.992
X-63.576 Y-92.189 Z-3
G3 X-63.585 Y-92.127 I-0.01 J0.03
G1 X-63.963 Y-92.128
X-64.065 Y-92.131
X-64.168 Y-92.143
X-64.315 Y-92.17
X-64.458 Y-92.217
X-64.59 Y-92.287
X-64.714 Y-92.372
X-64.828 Y-92.469
X-64.945 Y-92.586
X-65.067 Y-92.728
X-65.199 Y-92.909
X-65.342 Y-93.141
X-65.497 Y-93.442
X-65.657 Y-93.818
X-65.8 Y-94.245
X-65.918 Y-94.68
X-66.018 Y-95.119
X-66.104 Y-95.562
X-66.176 Y-96.006
X-66.236 Y-96.453
X-66.285 Y-96.9
X-66.323 Y-97.349
X-66.348 Y-97.799
X-66.362 Y-98.249
Y-98.7
X-66.347 Y-99.15
X-66.315 Y-99.599
X-66.26 Y-100.046
X-66.194 Y-100.375
X-66.125 Y-100.622
X-66.071 Y-100.77
X-66.008 Y-100.906
X-65.988 Y-100.943
X-65.9 Y-101.051
X-65.78 Y-101.122
X-65.643 Y-101.146
X-65.055
G3 X-64.995 Y-101.132 I-0.006 J0.159
G1 X-64.951 Y-101.112 Z-2.992
X-64.91 Y-101.093 Z-2.97
X-64.878 Y-101.079 Z-2.935
X-64.858 Y-101.069 Z-2.89
X-64.851 Y-101.066 Z-2.841
G0 Z5
X-64.296 Y-92.27
Z-2.682
G1 Z-2.841 F849.6
X-64.289 Y-92.267 Z-2.89
X-64.268 Y-92.257 Z-2.935
X-64.236 Y-92.242 Z-2.97
X-64.196 Y-92.224 Z-2.992
X-64.152 Y-92.203 Z-3
G3 X-64.168 Y-92.143 I-0.013 J0.029
G1 X-64.27 Y-92.156
X-64.577 Y-92.204
X-64.884 Y-92.272
X-64.958 Y-92.29
X-65.101 Y-92.337
X-65.236 Y-92.403
X-65.361 Y-92.486
X-65.476 Y-92.582
X-65.589 Y-92.696
X-65.702 Y-92.828
X-65.838 Y-93.013
X-65.964 Y-93.216
X-66.112 Y-93.501
X-66.27 Y-93.871
X-66.414 Y-94.298
X-66.532 Y-94.733
X-66.63 Y-95.173
X-66.713 Y-95.615
X-66.782 Y-96.06
X-66.84 Y-96.507
X-66.886 Y-96.955
X-66.92 Y-97.404
X-66.943 Y-97.854
X-66.954 Y-98.305
X-66.952 Y-98.755
X-66.935 Y-99.205
X-66.899 Y-99.654
X-66.84 Y-100.101
X-66.774 Y-100.415
X-66.708 Y-100.639
X-66.65 Y-100.793
X-66.586 Y-100.929
X-66.574 Y-100.95
X-66.486 Y-101.054
X-66.368 Y-101.123
X-66.233 Y-101.146
X-65.643
G3 X-65.583 Y-101.132 I-0.006 J0.159
G1 X-65.539 Y-101.112 Z-2.992
X-65.498 Y-101.093 Z-2.97
X-65.466 Y-101.079 Z-2.935
X-65.446 Y-101.069 Z-2.89
X-65.439 Y-101.066 Z-2.841
G0 Z5
X-65.069 Y-92.433
Z-2.682
G1 Z-2.841 F849.6
X-65.063 Y-92.429 Z-2.89
X-65.044 Y-92.416 Z-2.935
X-65.014 Y-92.398 Z-2.97
X-64.976 Y-92.374 Z-2.992
X-64.935 Y-92.348 Z-3
G3 X-64.958 Y-92.29 I-0.017 J0.027
G1 X-65.089 Y-92.327
X-65.14 Y-92.343
X-65.165 Y-92.352
X-65.191 Y-92.364
X-65.293 Y-92.43
X-65.408 Y-92.495
X-65.498 Y-92.54
X-65.6 Y-92.583
X-65.642 Y-92.597
X-65.703 Y-92.614
X-65.759 Y-92.627
X-65.903 Y-92.668
X-66.035 Y-92.738
X-66.156 Y-92.828
X-66.266 Y-92.93
X-66.375 Y-93.053
X-66.481 Y-93.192
X-66.601 Y-93.379
X-66.729 Y-93.614
X-66.871 Y-93.932
X-67.023 Y-94.356
X-67.143 Y-94.79
X-67.24 Y-95.23
X-67.321 Y-95.673
X-67.388 Y-96.119
X-67.443 Y-96.566
X-67.486 Y-97.014
X-67.518 Y-97.464
X-67.538 Y-97.914
X-67.547 Y-98.364
X-67.541 Y-98.814
X-67.521 Y-99.264
X-67.482 Y-99.713
X-67.422 Y-100.139
X-67.354 Y-100.447
X-67.29 Y-100.66
X-67.232 Y-100.81
X-67.167 Y-100.945
X-67.162 Y-100.954
X-67.074 Y-101.056
X-66.956 Y-101.123
X-66.823 Y-101.146
X-66.233
G3 X-66.173 Y-101.132 I-0.006 J0.159
G1 X-66.128 Y-101.112 Z-2.992
X-66.088 Y-101.093 Z-2.97
X-66.056 Y-101.079 Z-2.935
X-66.036 Y-101.069 Z-2.89
X-66.028 Y-101.066 Z-2.841
G0 Z5
X-65.872 Y-92.767
Z-2.682
G1 Z-2.841 F849.6
X-65.865 Y-92.763 Z-2.89
X-65.846 Y-92.752 Z-2.935
X-65.816 Y-92.734 Z-2.97
X-65.778 Y-92.711 Z-2.992
X-65.736 Y-92.685 Z-3
G3 X-65.759 Y-92.627 I-0.016 J0.027
G1 X-65.805 Y-92.637
X-65.907 Y-92.652
X-66.009 Y-92.655
X-66.112 Y-92.652
X-66.143 Y-92.649
X-66.293 Y-92.643
X-66.436 Y-92.685
X-66.57 Y-92.753
X-66.694 Y-92.838
X-66.808 Y-92.936
X-66.913 Y-93.044
X-67.028 Y-93.184
X-67.144 Y-93.348
X-67.28 Y-93.574
X-67.409 Y-93.832
X-67.551 Y-94.181
X-67.688 Y-94.61
X-67.796 Y-95.047
X-67.885 Y-95.489
X-67.957 Y-95.933
X-68.016 Y-96.38
X-68.063 Y-96.828
X-68.099 Y-97.277
X-68.124 Y-97.727
X-68.136 Y-98.177
Y-98.627
X-68.122 Y-99.078
X-68.092 Y-99.527
X-68.04 Y-99.974
X-67.971 Y-100.34
X-67.901 Y-100.599
X-67.847 Y-100.75
X-67.785 Y-100.89
X-67.758 Y-100.939
X-67.67 Y-101.049
X-67.55 Y-101.121
X-67.411 Y-101.146
X-66.823
G3 X-66.763 Y-101.132 I-0.006 J0.159
G1 X-66.718 Y-101.112 Z-2.992
X-66.678 Y-101.093 Z-2.97
X-66.646 Y-101.079 Z-2.935
X-66.626 Y-101.069 Z-2.89
X-66.619 Y-101.066 Z-2.841
G0 Z5
X-66.295 Y-92.747
Z-2.682
G1 Z-2.841 F849.6
X-66.287 Y-92.745 Z-2.89
X-66.265 Y-92.74 Z-2.935
X-66.231 Y-92.732 Z-2.97
X-66.188 Y-92.722 Z-2.992
X-66.14 Y-92.711 Z-3
G3 X-66.143 Y-92.649 I-0.007 J0.031
G1 X-66.214 Y-92.642
X-66.316 Y-92.622
X-66.419 Y-92.597
X-66.475 Y-92.579
X-66.62 Y-92.541
