%
(1001)
(crosssupportsfacing_ z0 stock top)
(T0  D=20 CR=0 - ZMIN=-5 - flat end mill)
G90 G94
G17
G21

(Face3)
M9
T0 M6
S6000 M3
G54
M9
G0 X512.908 Y-1.405
Z15
Z5
G1 Z1.5 F300
G18 G3 X510.908 Z-0.5 I-2
G1 X500
X-10 F750
G17 G2 Y17 J9.202
G1 X500
G3 Y35.404 J9.202
G1 X-10
G2 Y53.809 J9.202
G1 X500
G3 Y72.214 J9.202
G1 X-10
G2 Y90.619 J9.202
G1 X500
G3 Y109.024 J9.202
G1 X-10
G2 Y127.428 J9.202
G1 X500
G3 Y145.833 J9.202
G1 X-10
G2 Y164.238 J9.202
G1 X500
G3 Y182.643 J9.202
G1 X-10
G2 Y201.048 J9.202
G1 X500
G3 Y219.452 J9.202
G1 X-10
G2 Y237.857 J9.202
G1 X500
G3 Y256.262 J9.202
G1 X-10
G2 Y274.667 J9.202
G1 X500
G3 Y293.072 J9.202
G1 X-10
G2 Y311.476 J9.202
G1 X500
G3 Y329.881 J9.202
G1 X-10
G2 Y348.286 J9.202
G1 X500
G3 Y366.691 J9.202
G1 X-10
G2 Y385.096 J9.202
G1 X500
G3 Y403.5 J9.202
G1 X-10
G2 Y421.905 J9.202
G1 X500
G3 Y440.31 J9.202
G1 X-10
G18 G3 X-12 Z1.5 K2 F300
G0 Z5
X-22.914 Y441.405
G1 Z0 F300
G2 X-20.914 Z-2 I2
G1 X-10
X500 F750
G17 G2 Y423 J-9.202
G1 X-10
G3 Y404.596 J-9.202
G1 X500
G2 Y386.191 J-9.202
G1 X-10
G3 Y367.786 J-9.202
G1 X500
G2 Y349.381 J-9.202
G1 X-10
G3 Y330.976 J-9.202
G1 X500
G2 Y312.572 J-9.202
G1 X-10
G3 Y294.167 J-9.202
G1 X500
G2 Y275.762 J-9.202
G1 X-10
G3 Y257.357 J-9.202
G1 X500
G2 Y238.952 J-9.202
G1 X-10
G3 Y220.548 J-9.202
G1 X500
G2 Y202.143 J-9.202
G1 X-10
G3 Y183.738 J-9.202
G1 X500
G2 Y165.333 J-9.202
G1 X-10
G3 Y146.928 J-9.202
G1 X500
G2 Y128.524 J-9.202
G1 X-10
G3 Y110.119 J-9.202
G1 X500
G2 Y91.714 J-9.202
G1 X-10
G3 Y73.309 J-9.202
G1 X500
G2 Y54.904 J-9.202
G1 X-10
G3 Y36.5 J-9.202
G1 X500
G2 Y18.095 J-9.202
G1 X-10
G3 Y-0.31 J-9.202
G1 X500
G18 G2 X502 Z0 K2 F300
G0 Z5
X512.908 Y-1.405
G1 Z-1.5 F300
G3 X510.908 Z-3.5 I-2
G1 X500
X-10 F750
G17 G2 Y17 J9.202
G1 X500
G3 Y35.404 J9.202
G1 X-10
G2 Y53.809 J9.202
G1 X500
G3 Y72.214 J9.202
G1 X-10
G2 Y90.619 J9.202
G1 X500
G3 Y109.024 J9.202
G1 X-10
G2 Y127.428 J9.202
G1 X500
G3 Y145.833 J9.202
G1 X-10
G2 Y164.238 J9.202
G1 X500
G3 Y182.643 J9.202
G1 X-10
G2 Y201.048 J9.202
G1 X500
G3 Y219.452 J9.202
G1 X-10
G2 Y237.857 J9.202
G1 X500
G3 Y256.262 J9.202
G1 X-10
G2 Y274.667 J9.202
G1 X500
G3 Y293.072 J9.202
G1 X-10
G2 Y311.476 J9.202
G1 X500
G3 Y329.881 J9.202
G1 X-10
G2 Y348.286 J9.202
G1 X500
G3 Y366.691 J9.202
G1 X-10
G2 Y385.096 J9.202
G1 X500
G3 Y403.5 J9.202
G1 X-10
G2 Y421.905 J9.202
G1 X500
G3 Y440.31 J9.202
G1 X-10
G18 G3 X-12 Z-1.5 K2 F300
G0 Z5
X-22.914 Y441.405
G1 Z-3 F300
G2 X-20.914 Z-5 I2
G1 X-10
X500 F750
G17 G2 Y423 J-9.202
G1 X-10
G3 Y404.596 J-9.202
G1 X500
G2 Y386.191 J-9.202
G1 X-10
G3 Y367.786 J-9.202
G1 X500
G2 Y349.381 J-9.202
G1 X-10
G3 Y330.976 J-9.202
G1 X500
G2 Y312.572 J-9.202
G1 X-10
G3 Y294.167 J-9.202
G1 X500
G2 Y275.762 J-9.202
G1 X-10
G3 Y257.357 J-9.202
G1 X500
G2 Y238.952 J-9.202
G1 X-10
G3 Y220.548 J-9.202
G1 X500
G2 Y202.143 J-9.202
G1 X-10
G3 Y183.738 J-9.202
G1 X500
G2 Y165.333 J-9.202
G1 X-10
G3 Y146.928 J-9.202
G1 X500
G2 Y128.524 J-9.202
G1 X-10
G3 Y110.119 J-9.202
G1 X500
G2 Y91.714 J-9.202
G1 X-10
G3 Y73.309 J-9.202
G1 X500
G2 Y54.904 J-9.202
G1 X-10
G3 Y36.5 J-9.202
G1 X500
G2 Y18.095 J-9.202
G1 X-10
G3 Y-0.31 J-9.202
G1 X500
G18 G2 X502 Z-3 K2 F300
G0 Z15
G17
M9
M30
%
