%
(1001)
(crosssupportstenoncheeks_ z0 stock bottom_far)
(T2  D=6 CR=0 - ZMIN=18.75 - flat end mill)
G90 G94
G17
G21

(2D Adaptive1_far 2)
M9
T2 M6
S6500 M3
G54
M9
G0 X507.829 Y361.381
Z40
Z30
Z19.95
G1 Z19.35 F850
X507.821 Y361.383 Z19.256
X507.8 Y361.389 Z19.165
X507.765 Y361.398 Z19.078
X507.718 Y361.41 Z18.997
X507.658 Y361.425 Z18.926
X507.589 Y361.443 Z18.865
X507.511 Y361.463 Z18.815
X507.427 Y361.484 Z18.779
X507.338 Y361.507 Z18.757
X507.247 Y361.53 Z18.75
G3 X503.981 Y362 I-3.801 J-14.839
G1 X503.87
X503.85 Y361.999
X503.798 Y361.945
X503.738 Y361.874
X503.668 Y361.782
X503.59 Y361.667
X503.504 Y361.522
X503.409 Y361.342
X503.307 Y361.116
X503.197 Y360.833
X503.081 Y360.473
X502.957 Y360.003
X502.832 Y359.387
X502.741 Y358.766
X502.673 Y358.142
X502.623 Y357.516
X502.585 Y356.889
X502.557 Y356.262
X502.536 Y355.634
X502.52 Y355.007
X502.508 Y354.379
X502.499 Y353.751
X502.492 Y353.123
X502.486 Y352.495
X502.482 Y351.867
X502.479 Y351.239
X502.477 Y350.612
X502.475 Y349.813
X502.509 Y349.46
X502.612 Y349.12
X502.779 Y348.806
X503.004 Y348.531
X503.278 Y348.306
X503.591 Y348.138
X503.931 Y348.035
X504.284 Y348
G3 X504.512 Y348.054 I-0.021 J0.6
X504.863 Y348.619 I-0.249 J0.546
G1 X504.449 Y361.42
G3 X504.098 Y361.946 I-0.6 J-0.019
X503.87 Y362 I-0.249 J-0.546
G1 X503.465
X503.391 Y361.996
X503.304 Y361.943
X503.208 Y361.875
X503.107 Y361.795
X503 Y361.7
X502.881 Y361.582
X502.765 Y361.453
X502.635 Y361.291
X502.503 Y361.106
X502.367 Y360.89
X502.225 Y360.635
X502.079 Y360.333
X501.931 Y359.978
X501.778 Y359.542
X501.621 Y359.002
X501.481 Y358.39
X501.371 Y357.771
X501.285 Y357.149
X501.217 Y356.525
X501.164 Y355.899
X501.122 Y355.273
X501.09 Y354.646
X501.064 Y354.019
X501.043 Y353.391
X501.027 Y352.763
X501.015 Y352.135
X501.008 Y351.508
X501.019 Y350.999
X501.052 Y350.58
X501.096 Y350.256
X501.156 Y349.947
X501.218 Y349.703
X501.299 Y349.443
X501.355 Y349.295
X501.505 Y348.983
X501.705 Y348.702
X501.951 Y348.46
X502.235 Y348.263
X502.549 Y348.118
X502.883 Y348.03
X503.227 Y348
G3 X503.455 Y348.054 I-0.021 J0.6
X503.806 Y348.588 I-0.249 J0.546
G1 X504.044 Y361.389
G3 X503.465 Y362 I-0.6 J0.011
G1 X502.881
X502.806 Y361.996
X502.711 Y361.962
X502.61 Y361.919
X502.502 Y361.866
X502.385 Y361.8
X502.263 Y361.722
X502.132 Y361.627
X501.997 Y361.517
X501.852 Y361.385
X501.704 Y361.234
X501.547 Y361.055
X501.386 Y360.848
X501.22 Y360.609
X501.05 Y360.332
X500.874 Y360.004
X500.702 Y359.635
X500.523 Y359.19
X500.343 Y358.653
X500.177 Y358.047
X500.042 Y357.434
X499.932 Y356.816
X499.843 Y356.194
X499.771 Y355.57
X499.713 Y354.945
X499.665 Y354.319
X499.627 Y353.692
X499.6 Y353.065
X499.588 Y352.437
X499.598 Y351.81
X499.636 Y351.227
X499.693 Y350.764
X499.768 Y350.348
X499.842 Y350.037
X499.936 Y349.724
X500.025 Y349.479
X500.132 Y349.226
X500.189 Y349.112
X500.383 Y348.797
X500.632 Y348.524
X500.926 Y348.301
X501.257 Y348.136
X501.613 Y348.034
X501.981 Y348
G3 X502.559 Y348.558 I-0.021 J0.6
G1 X503.458 Y361.358
G3 X503.109 Y361.946 I-0.599 J0.042
X502.881 Y362 I-0.249 J-0.546
G1 X502.161
X502.086 Y361.996
X501.996 Y361.979
X501.892 Y361.954
X501.787 Y361.921
X501.667 Y361.877
X501.545 Y361.824
X501.41 Y361.756
X501.271 Y361.675
X501.121 Y361.577
X500.966 Y361.462
X500.804 Y361.328
X500.632 Y361.168
X500.459 Y360.988
X500.272 Y360.77
X500.089 Y360.531
X499.891 Y360.239
X499.702 Y359.923
X499.502 Y359.544
X499.3 Y359.1
X499.098 Y358.582
X498.904 Y357.985
X498.742 Y357.379
X498.608 Y356.765
X498.496 Y356.147
X498.403 Y355.526
X498.327 Y354.903
X498.268 Y354.278
X498.226 Y353.652
X498.204 Y353.024
X498.206 Y352.396
X498.236 Y351.769
X498.295 Y351.198
X498.374 Y350.712
X498.461 Y350.315
X498.566 Y349.939
X498.661 Y349.659
X498.777 Y349.373
X498.887 Y349.14
X498.938 Y349.046
X499.136 Y348.748
X499.384 Y348.491
X499.673 Y348.281
X499.995 Y348.127
X500.34 Y348.032
X500.696 Y348
X500.964
G3 X501.191 Y348.054 I-0.021 J0.6
X501.54 Y348.544 I-0.249 J0.546
G1 X502.737 Y361.344
G3 X502.389 Y361.946 I-0.597 J0.056
X502.161 Y362 I-0.249 J-0.546
G1 X501.306
X501.175 Y361.993
X501.08 Y361.983
X500.98 Y361.967
X500.865 Y361.941
X500.748 Y361.908
X500.616 Y361.863
X500.482 Y361.808
X500.331 Y361.736
X500.179 Y361.653
X500.014 Y361.55
X499.843 Y361.43
X499.664 Y361.288
X499.474 Y361.119
X499.284 Y360.93
X499.075 Y360.699
X498.876 Y360.45
X498.658 Y360.144
X498.447 Y359.809
X498.231 Y359.42
X498.01 Y358.964
X497.788 Y358.432
X497.58 Y357.839
X497.404 Y357.237
X497.255 Y356.627
X497.13 Y356.011
X497.027 Y355.392
X496.946 Y354.769
X496.887 Y354.144
X496.85 Y353.517
X496.839 Y352.889
X496.856 Y352.262
X496.903 Y351.648
X496.977 Y351.094
X497.071 Y350.601
X497.169 Y350.209
X497.284 Y349.839
X497.388 Y349.561
X497.512 Y349.279
X497.627 Y349.052
X497.66 Y348.995
X497.861 Y348.71
X498.107 Y348.465
X498.392 Y348.266
X498.707 Y348.12
X499.043 Y348.03
X499.389 Y348
X500.696
G3 X500.924 Y348.054 I-0.021 J0.6
X501.274 Y348.571 I-0.249 J0.546
G1 X501.884 Y361.372
G3 X501.533 Y361.946 I-0.599 J0.029
X501.306 Y362 I-0.249 J-0.546
G1 X500.226
X500.062 Y361.992
X499.957 Y361.981
X499.848 Y361.963
X499.724 Y361.935
X499.596 Y361.899
X499.452 Y361.849
X499.307 Y361.79
X499.143 Y361.712
X498.978 Y361.622
X498.798 Y361.509
X498.612 Y361.379
X498.418 Y361.225
X498.211 Y361.041
X498.005 Y360.837
X497.779 Y360.585
X497.563 Y360.316
X497.331 Y359.99
X497.096 Y359.618
X496.866 Y359.204
X496.631 Y358.718
X496.397 Y358.155
X496.189 Y357.563
X496.011 Y356.96
X495.861 Y356.351
X495.738 Y355.735
X495.639 Y355.115
X495.565 Y354.491
X495.516 Y353.865
X495.492 Y353.238
X495.497 Y352.61
X495.533 Y351.983
X495.599 Y351.388
X495.689 Y350.856
X495.795 Y350.39
X495.9 Y350.024
X496.021 Y349.679
X496.131 Y349.413
X496.261 Y349.144
X496.323 Y349.032
X496.522 Y348.738
X496.769 Y348.484
X497.057 Y348.277
X497.378 Y348.125
X497.72 Y348.031
X498.073 Y348
X499.389
G3 X499.617 Y348.054 I-0.021 J0.6
X499.967 Y348.561 I-0.249 J0.546
G1 X500.803 Y361.361
G3 X500.454 Y361.946 I-0.599 J0.039
X500.226 Y362 I-0.249 J-0.546
G1 X499.01
X498.88 Y361.993
X498.775 Y361.982
X498.654 Y361.962
X498.529 Y361.935
X498.388 Y361.895
X498.241 Y361.844
X498.082 Y361.779
X497.913 Y361.699
X497.735 Y361.602
X497.543 Y361.482
X497.349 Y361.345
X497.135 Y361.176
X496.927 Y360.991
X496.698 Y360.764
X496.469 Y360.509
X496.233 Y360.214
X495.984 Y359.866
X495.746 Y359.489
X495.503 Y359.05
X495.259 Y358.546
X495.022 Y357.976
X494.814 Y357.384
X494.637 Y356.782
X494.488 Y356.172
X494.367 Y355.555
X494.273 Y354.935
X494.204 Y354.311
X494.163 Y353.684
X494.15 Y353.056
X494.167 Y352.429
X494.215 Y351.802
X494.291 Y351.234
X494.389 Y350.716
X494.498 Y350.281
X494.616 Y349.899
X494.728 Y349.599
X494.853 Y349.314
X494.976 Y349.072
X495.021 Y348.995
X495.221 Y348.711
X495.467 Y348.466
X495.753 Y348.267
X496.068 Y348.12
X496.404 Y348.03
X496.75 Y348
X498.073
G3 X498.301 Y348.054 I-0.021 J0.6
X498.65 Y348.556 I-0.249 J0.546
G1 X499.588 Y361.357
G3 X499.238 Y361.946 I-0.598 J0.044
X499.01 Y362 I-0.249 J-0.546
G1 X497.805
X497.648 Y361.992
X497.539 Y361.981
X497.414 Y361.96
X497.284 Y361.931
X497.137 Y361.889
X496.987 Y361.838
X496.817 Y361.769
X496.647 Y361.687
X496.456 Y361.583
X496.263 Y361.463
X496.056 Y361.317
X495.838 Y361.145
X495.618 Y360.949
X495.377 Y360.71
X495.145 Y360.452
X494.895 Y360.14
X494.643 Y359.787
X494.398 Y359.398
X494.148 Y358.947
X493.901 Y358.437
X493.663 Y357.866
X493.455 Y357.274
X493.278 Y356.671
X493.131 Y356.061
X493.012 Y355.444
X492.921 Y354.823
X492.858 Y354.199
X492.823 Y353.572
X492.816 Y352.944
X492.84 Y352.316
X492.896 Y351.691
X492.977 Y351.138
X493.08 Y350.629
X493.192 Y350.204
X493.312 Y349.833
X493.426 Y349.541
X493.553 Y349.261
X493.677 Y349.025
X493.707 Y348.973
X493.908 Y348.695
X494.154 Y348.455
X494.437 Y348.26
X494.749 Y348.117
X495.082 Y348.03
X495.424 Y348
X496.75
G3 X496.978 Y348.054 I-0.021 J0.6
X497.327 Y348.55 I-0.249 J0.546
G1 X498.382 Y361.351
G3 X498.033 Y361.946 I-0.598 J0.049
X497.805 Y362 I-0.249 J-0.546
G1 X496.545
X496.386 Y361.992
X496.272 Y361.98
X496.146 Y361.959
X496.01 Y361.929
X495.861 Y361.887
X495.705 Y361.833
X495.532 Y361.762
X495.356 Y361.679
X495.159 Y361.571
X494.963 Y361.449
X494.746 Y361.296
X494.529 Y361.124
X494.298 Y360.919
X494.055 Y360.678
X493.815 Y360.411
X493.557 Y360.089
X493.306 Y359.736
X493.054 Y359.338
X492.8 Y358.881
X492.551 Y358.367
X492.314 Y357.797
X492.106 Y357.204
X491.93 Y356.602
X491.784 Y355.991
X491.667 Y355.374
X491.579 Y354.753
X491.519 Y354.127
X491.488 Y353.5
X491.485 Y352.872
X491.514 Y352.245
X491.574 Y351.62
X491.659 Y351.073
X491.765 Y350.572
X491.879 Y350.153
X492 Y349.79
X492.114 Y349.503
X492.242 Y349.226
X492.366 Y348.994
X492.387 Y348.96
X492.589 Y348.685
X492.834 Y348.448
X493.116 Y348.256
X493.426 Y348.115
X493.756 Y348.029
X494.095 Y348
X495.424
G3 X495.652 Y348.054 I-0.021 J0.6
X496.001 Y348.547 I-0.249 J0.546
G1 X497.122 Y361.348
G3 X496.773 Y361.946 I-0.598 J0.052
X496.545 Y362 I-0.249 J-0.546
G1 X495.285
X495.098 Y361.991
X494.98 Y361.978
X494.854 Y361.957
X494.714 Y361.926
X494.565 Y361.884
X494.404 Y361.829
X494.231 Y361.758
X494.049 Y361.671
X493.85 Y361.562
X493.65 Y361.438
X493.428 Y361.282
X493.21 Y361.109
X492.972 Y360.898
X492.729 Y360.656
X492.484 Y360.383
X492.221 Y360.055
X491.969 Y359.702
X491.714 Y359.299
X491.459 Y358.838
X491.21 Y358.323
X490.974 Y357.757
X490.766 Y357.164
X490.59 Y356.562
X490.445 Y355.951
X490.329 Y355.334
X490.243 Y354.712
X490.185 Y354.086
X490.156 Y353.459
Y352.831
X490.187 Y352.204
X490.25 Y351.58
X490.336 Y351.036
X490.444 Y350.539
X490.559 Y350.124
X490.68 Y349.766
X490.795 Y349.481
X490.923 Y349.207
X491.048 Y348.977
X491.063 Y348.952
X491.265 Y348.679
X491.51 Y348.444
X491.791 Y348.254
X492.1 Y348.114
X492.428 Y348.029
X492.766 Y348
X494.095
G3 X494.672 Y348.544 I-0.021 J0.6
G1 X495.861 Y361.345
G3 X495.513 Y361.946 I-0.597 J0.056
X495.285 Y362 I-0.249 J-0.546
G1 X493.926
X493.8 Y361.994
X493.679 Y361.981
X493.552 Y361.96
X493.409 Y361.928
X493.26 Y361.886
X493.096 Y361.829
X492.922 Y361.759
X492.736 Y361.67
X492.537 Y361.561
X492.333 Y361.434
X492.108 Y361.276
X491.888 Y361.101
X491.646 Y360.886
X491.403 Y360.645
X491.153 Y360.367
X490.888 Y360.037
X490.636 Y359.683
X490.379 Y359.276
X490.123 Y358.814
X489.874 Y358.3
X489.639 Y357.736
X489.431 Y357.144
X489.255 Y356.541
X489.111 Y355.93
X488.996 Y355.313
X488.91 Y354.691
X488.854 Y354.065
X488.826 Y353.438
X488.827 Y352.81
X488.859 Y352.183
X488.923 Y351.56
X489.011 Y351.017
X489.119 Y350.523
X489.234 Y350.109
X489.356 Y349.753
X489.47 Y349.47
X489.599 Y349.197
X489.724 Y348.968
X489.736 Y348.948
X489.938 Y348.676
X490.182 Y348.442
X490.463 Y348.253
X490.772 Y348.114
X491.099 Y348.029
X491.437 Y348
X492.766
G3 X492.994 Y348.054 I-0.021 J0.6
X493.343 Y348.546 I-0.249 J0.546
G1 X494.503 Y361.346
G3 X494.154 Y361.946 I-0.598 J0.054
X493.926 Y362 I-0.249 J-0.546
G1 X492.585
X492.488 Y361.995
X492.365 Y361.982
X492.239 Y361.961
X492.094 Y361.929
X491.944 Y361.887
X491.778 Y361.829
X491.605 Y361.759
X491.415 Y361.669
X491.216 Y361.56
X491.01 Y361.431
X490.784 Y361.272
X490.562 Y361.097
X490.318 Y360.88
X490.075 Y360.638
X489.823 Y360.358
X489.557 Y360.026
X489.305 Y359.672
X489.047 Y359.264
X488.79 Y358.802
X488.542 Y358.288
X488.308 Y357.725
X488.1 Y357.133
X487.924 Y356.53
X487.78 Y355.919
X487.665 Y355.302
X487.58 Y354.68
X487.524 Y354.054
X487.496 Y353.427
X487.498 Y352.799
X487.53 Y352.172
X487.595 Y351.55
X487.683 Y351.007
X487.792 Y350.514
X487.908 Y350.101
X488.029 Y349.747
X488.143 Y349.464
X488.272 Y349.192
X488.397 Y348.963
X488.407 Y348.946
X488.609 Y348.675
X488.854 Y348.441
X489.135 Y348.253
X489.443 Y348.114
X489.77 Y348.029
X490.107 Y348
X491.437
G3 X491.665 Y348.054 I-0.021 J0.6
X492.013 Y348.546 I-0.249 J0.546
G1 X493.162 Y361.347
G3 X492.813 Y361.946 I-0.598 J0.054
X492.585 Y362 I-0.249 J-0.546
G1 X491.325
X491.164 Y361.992
X491.041 Y361.979
X490.914 Y361.958
X490.769 Y361.926
X490.62 Y361.883
X490.452 Y361.826
X490.279 Y361.755
X490.089 Y361.665
X489.89 Y361.556
X489.683 Y361.426
X489.457 Y361.267
X489.234 Y361.091
X488.989 Y360.873
X488.746 Y360.632
X488.493 Y360.351
X488.227 Y360.019
X487.974 Y359.664
X487.716 Y359.256
X487.46 Y358.794
X487.211 Y358.28
X486.978 Y357.718
X486.769 Y357.126
X486.594 Y356.523
X486.45 Y355.912
X486.335 Y355.295
X486.25 Y354.672
X486.194 Y354.047
X486.167 Y353.42
X486.169 Y352.792
X486.202 Y352.165
X486.267 Y351.543
X486.355 Y351.001
X486.464 Y350.509
X486.58 Y350.096
X486.701 Y349.743
X486.815 Y349.461
X486.944 Y349.189
X487.069 Y348.961
X487.079 Y348.945
X487.28 Y348.674
X487.525 Y348.441
X487.806 Y348.252
X488.114 Y348.113
X488.441 Y348.029
X488.778 Y348
X490.107
G3 X490.335 Y348.054 I-0.021 J0.6
X490.684 Y348.543 I-0.249 J0.546
G1 X491.902 Y361.344
G3 X491.553 Y361.946 I-0.597 J0.057
X491.325 Y362 I-0.249 J-0.546
G1 X489.966
X489.844 Y361.994
X489.72 Y361.981
X489.593 Y361.96
X489.447 Y361.927
X489.298 Y361.885
X489.129 Y361.827
X488.956 Y361.756
X488.765 Y361.665
X488.566 Y361.556
X488.357 Y361.426
X488.131 Y361.267
X487.907 Y361.09
X487.661 Y360.872
X487.418 Y360.63
X487.165 Y360.349
X486.898 Y360.016
X486.645 Y359.661
X486.387 Y359.252
X486.13 Y358.789
X485.882 Y358.275
X485.648 Y357.714
X485.44 Y357.122
X485.265 Y356.519
X485.12 Y355.908
X485.006 Y355.291
X484.921 Y354.668
X484.865 Y354.043
X484.838 Y353.416
X484.84 Y352.788
X484.873 Y352.161
X484.938 Y351.54
X485.027 Y350.997
X485.135 Y350.506
X485.251 Y350.094
X485.372 Y349.741
X485.487 Y349.46
X485.616 Y349.188
X485.74 Y348.96
X485.75 Y348.945
X485.951 Y348.674
X486.196 Y348.441
X486.477 Y348.252
X486.785 Y348.113
X487.112 Y348.029
X487.449 Y348
X488.778
G3 X489.006 Y348.054 I-0.021 J0.6
X489.354 Y348.544 I-0.249 J0.546
G1 X490.543 Y361.345
G3 X490.194 Y361.946 I-0.597 J0.055
X489.966 Y362 I-0.249 J-0.546
G1 X488.625
X488.519 Y361.995
X488.396 Y361.981
X488.268 Y361.961
X488.122 Y361.928
X487.972 Y361.886
X487.803 Y361.828
X487.63 Y361.757
X487.438 Y361.665
X487.239 Y361.557
X487.03 Y361.426
X486.804 Y361.267
X486.58 Y361.09
X486.333 Y360.871
X486.09 Y360.629
X485.837 Y360.347
X485.57 Y360.014
X485.317 Y359.659
X485.058 Y359.25
X484.801 Y358.787
X484.553 Y358.273
X484.319 Y357.712
X484.111 Y357.12
X483.936 Y356.517
X483.791 Y355.906
X483.677 Y355.288
X483.592 Y354.666
X483.536 Y354.041
X483.509 Y353.413
X483.511 Y352.785
X483.544 Y352.158
X483.61 Y351.538
X483.698 Y350.995
X483.807 Y350.504
X483.923 Y350.093
X484.044 Y349.74
X484.158 Y349.459
X484.287 Y349.187
X484.412 Y348.959
X484.42 Y348.945
X484.622 Y348.674
X484.867 Y348.441
X485.147 Y348.252
X485.456 Y348.113
X485.783 Y348.029
X486.119 Y348
X487.449
G3 X487.676 Y348.054 I-0.021 J0.6
X488.025 Y348.545 I-0.249 J0.546
G1 X489.202 Y361.345
G3 X488.853 Y361.946 I-0.597 J0.055
X488.625 Y362 I-0.249 J-0.546
G1 X487.365
X487.189 Y361.991
X487.065 Y361.978
X486.938 Y361.957
X486.792 Y361.925
X486.642 Y361.882
X486.473 Y361.824
X486.3 Y361.753
X486.109 Y361.662
X485.91 Y361.553
X485.701 Y361.423
X485.475 Y361.264
X485.251 Y361.087
X485.004 Y360.868
X484.761 Y360.627
X484.508 Y360.345
X484.241 Y360.011
X483.988 Y359.657
X483.729 Y359.248
X483.472 Y358.784
X483.224 Y358.27
X482.99 Y357.709
X482.782 Y357.117
X482.607 Y356.514
X482.462 Y355.903
X482.348 Y355.286
X482.263 Y354.663
X482.207 Y354.038
X482.18 Y353.411
X482.182 Y352.783
X482.215 Y352.156
X482.281 Y351.535
X482.369 Y350.994
X482.478 Y350.503
X482.594 Y350.091
X482.715 Y349.739
X482.829 Y349.458
X482.958 Y349.186
X483.083 Y348.958
X483.091 Y348.944
X483.293 Y348.674
X483.538 Y348.441
X483.818 Y348.252
X484.126 Y348.113
X484.454 Y348.029
X484.79 Y348
X486.119
G3 X486.696 Y348.542 I-0.021 J0.6
G1 X487.942 Y361.342
G3 X487.593 Y361.946 I-0.597 J0.058
X487.365 Y362 I-0.249 J-0.546
G1 X486.007
X485.865 Y361.993
X485.74 Y361.98
X485.613 Y361.959
X485.467 Y361.926
X485.317 Y361.884
X485.148 Y361.826
X484.974 Y361.755
X484.782 Y361.663
X484.583 Y361.554
X484.374 Y361.424
X484.148 Y361.265
X483.923 Y361.087
X483.676 Y360.868
X483.433 Y360.627
X483.18 Y360.344
X482.912 Y360.011
X482.659 Y359.656
X482.401 Y359.247
X482.143 Y358.783
X481.895 Y358.269
X481.661 Y357.708
X481.453 Y357.116
X481.278 Y356.513
X481.134 Y355.902
X481.019 Y355.284
X480.935 Y354.662
X480.878 Y354.037
X480.851 Y353.409
X480.853 Y352.781
X480.887 Y352.154
X480.952 Y351.534
X481.041 Y350.993
X481.149 Y350.502
X481.265 Y350.091
X481.386 Y349.738
X481.501 Y349.457
X481.629 Y349.186
X481.754 Y348.958
X481.762 Y348.944
X481.964 Y348.673
X482.209 Y348.44
X482.489 Y348.252
X482.797 Y348.113
X483.125 Y348.029
X483.461 Y348
X484.79
G3 X485.018 Y348.054 I-0.021 J0.6
X485.367 Y348.543 I-0.249 J0.546
G1 X486.583 Y361.344
G3 X486.234 Y361.946 I-0.597 J0.057
X486.007 Y362 I-0.249 J-0.546
G1 X484.666
X484.538 Y361.994
X484.413 Y361.98
X484.286 Y361.959
X484.139 Y361.927
X483.99 Y361.884
X483.82 Y361.826
X483.647 Y361.755
X483.455 Y361.664
X483.256 Y361.555
X483.046 Y361.424
X482.82 Y361.265
X482.596 Y361.088
X482.348 Y360.868
X482.105 Y360.627
X481.851 Y360.344
X481.584 Y360.011
X481.331 Y359.656
X481.072 Y359.246
X480.815 Y358.782
X480.566 Y358.268
X480.333 Y357.707
X480.125 Y357.115
X479.949 Y356.512
X479.805 Y355.901
X479.691 Y355.283
X479.606 Y354.661
X479.55 Y354.036
X479.522 Y353.408
X479.525 Y352.78
X479.558 Y352.153
X479.623 Y351.533
X479.712 Y350.992
X479.821 Y350.501
X479.936 Y350.09
X480.057 Y349.738
X480.172 Y349.457
X480.301 Y349.186
X480.425 Y348.958
X480.433 Y348.944
X480.635 Y348.673
X480.88 Y348.44
X481.16 Y348.252
X481.468 Y348.113
X481.796 Y348.029
X482.132 Y348
X483.461
G3 X483.689 Y348.054 I-0.021 J0.6
X484.038 Y348.543 I-0.249 J0.546
G1 X485.242 Y361.344
G3 X484.666 Y362 I-0.597 J0.056
G1 X483.406
X483.205 Y361.99
X483.082 Y361.977
X482.954 Y361.956
X482.808 Y361.923
X482.658 Y361.881
X482.49 Y361.823
X482.316 Y361.752
X482.124 Y361.661
X481.925 Y361.552
X481.716 Y361.422
X481.49 Y361.262
X481.266 Y361.085
X481.019 Y360.866
X480.776 Y360.624
X480.522 Y360.342
X480.255 Y360.009
X480.002 Y359.654
X479.743 Y359.244
X479.486 Y358.781
X479.237 Y358.267
X479.004 Y357.705
X478.796 Y357.113
X478.62 Y356.51
X478.476 Y355.899
X478.362 Y355.282
X478.277 Y354.66
X478.221 Y354.034
X478.194 Y353.407
X478.196 Y352.779
X478.229 Y352.152
X478.295 Y351.532
X478.383 Y350.991
X478.492 Y350.5
X478.607 Y350.09
X478.728 Y349.738
X478.843 Y349.457
X478.972 Y349.185
X479.096 Y348.958
X479.105 Y348.944
X479.306 Y348.673
X479.551 Y348.44
X479.831 Y348.252
X480.14 Y348.113
X480.467 Y348.029
X480.803 Y348
X482.132
G3 X482.36 Y348.054 I-0.021 J0.6
X482.708 Y348.54 I-0.249 J0.546
G1 X483.982 Y361.341
G3 X483.634 Y361.946 I-0.597 J0.059
X483.406 Y362 I-0.249 J-0.546
G1 X482.047
X481.88 Y361.992
X481.756 Y361.978
X481.629 Y361.957
X481.482 Y361.925
X481.333 Y361.883
X481.163 Y361.824
X480.99 Y361.753
X480.798 Y361.662
X480.598 Y361.553
X480.389 Y361.422
X480.163 Y361.263
X479.938 Y361.086
X479.691 Y360.866
X479.448 Y360.625
X479.194 Y360.342
X478.927 Y360.009
X478.673 Y359.653
X478.415 Y359.244
X478.157 Y358.78
X477.909 Y358.266
X477.675 Y357.705
X477.467 Y357.112
X477.292 Y356.509
X477.147 Y355.898
X477.033 Y355.281
X476.948 Y354.659
X476.892 Y354.033
X476.865 Y353.406
X476.867 Y352.778
X476.9 Y352.151
X476.966 Y351.531
X477.054 Y350.99
X477.163 Y350.5
X477.279 Y350.089
X477.4 Y349.737
X477.514 Y349.457
X477.643 Y349.185
X477.767 Y348.957
X477.776 Y348.944
X477.978 Y348.673
X478.222 Y348.44
X478.503 Y348.252
X478.811 Y348.113
X479.138 Y348.029
X479.474 Y348
X480.803
G3 X481.031 Y348.054 I-0.021 J0.6
X481.379 Y348.542 I-0.249 J0.546
G1 X482.623 Y361.342
G3 X482.275 Y361.946 I-0.597 J0.058
X482.047 Y362 I-0.249 J-0.546
G1 X480.706
X480.553 Y361.992
X480.429 Y361.979
X480.301 Y361.958
X480.155 Y361.926
X480.005 Y361.883
X479.835 Y361.825
X479.662 Y361.754
X479.47 Y361.662
X479.271 Y361.554
X479.061 Y361.423
X478.835 Y361.264
X478.61 Y361.086
X478.363 Y360.866
X478.12 Y360.625
X477.866 Y360.342
X477.598 Y360.009
X477.345 Y359.653
X477.086 Y359.244
X476.829 Y358.78
X476.58 Y358.265
X476.347 Y357.704
X476.138 Y357.112
X475.963 Y356.509
X475.819 Y355.898
X475.705 Y355.28
X475.62 Y354.658
X475.563 Y354.033
X475.536 Y353.406
X475.538 Y352.778
X475.572 Y352.151
X475.637 Y351.531
X475.726 Y350.99
X475.834 Y350.5
X475.95 Y350.089
X476.071 Y349.737
X476.185 Y349.457
X476.314 Y349.185
X476.439 Y348.957
X476.447 Y348.944
X476.649 Y348.673
X476.893 Y348.44
X477.174 Y348.252
X477.482 Y348.113
X477.809 Y348.029
X478.145 Y348
X479.474
G3 X480.051 Y348.542 I-0.021 J0.6
G1 X481.282 Y361.343
G3 X480.934 Y361.946 I-0.597 J0.057
X480.706 Y362 I-0.249 J-0.546
G1 X479.347
X479.226 Y361.994
X479.102 Y361.981
X478.974 Y361.96
X478.828 Y361.927
X478.678 Y361.885
X478.508 Y361.826
X478.335 Y361.755
X478.142 Y361.664
X477.943 Y361.555
X477.733 Y361.424
X477.507 Y361.265
X477.282 Y361.087
X477.035 Y360.867
X476.792 Y360.626
X476.538 Y360.343
X476.27 Y360.009
X476.017 Y359.654
X475.758 Y359.244
X475.5 Y358.78
X475.251 Y358.265
X475.018 Y357.704
X474.81 Y357.112
X474.634 Y356.509
X474.49 Y355.898
X474.376 Y355.28
X474.291 Y354.658
X474.235 Y354.033
X474.208 Y353.406
X474.21 Y352.778
X474.243 Y352.151
X474.309 Y351.531
X474.397 Y350.99
X474.506 Y350.5
X474.621 Y350.089
X474.742 Y349.737
X474.856 Y349.457
X474.985 Y349.185
X475.11 Y348.958
X475.118 Y348.944
X475.32 Y348.673
X475.564 Y348.44
X475.845 Y348.252
X476.153 Y348.113
X476.48 Y348.029
X476.817 Y348
X478.145
G3 X478.373 Y348.054 I-0.021 J0.6
X478.722 Y348.544 I-0.249 J0.546
G1 X479.923 Y361.344
G3 X479.575 Y361.946 I-0.597 J0.056
X479.347 Y362 I-0.249 J-0.546
G1 X478.006
X477.898 Y361.995
X477.774 Y361.981
X477.646 Y361.96
X477.499 Y361.928
X477.35 Y361.885
X477.18 Y361.827
X477.007 Y361.756
X476.814 Y361.664
X476.615 Y361.556
X476.405 Y361.425
X476.179 Y361.266
X475.954 Y361.088
X475.707 Y360.868
X475.464 Y360.626
X475.209 Y360.343
X474.942 Y360.01
X474.688 Y359.654
X474.429 Y359.244
X474.172 Y358.78
X473.923 Y358.266
X473.689 Y357.704
X473.481 Y357.112
X473.306 Y356.509
X473.161 Y355.898
X473.047 Y355.28
X472.962 Y354.658
X472.906 Y354.033
X472.879 Y353.406
X472.881 Y352.778
X472.914 Y352.151
X472.98 Y351.531
X473.068 Y350.99
X473.177 Y350.5
X473.292 Y350.089
X473.413 Y349.737
X473.528 Y349.457
X473.656 Y349.185
X473.781 Y348.958
X473.789 Y348.944
X473.991 Y348.673
X474.236 Y348.44
X474.516 Y348.252
X474.824 Y348.113
X475.151 Y348.029
X475.488 Y348
X476.817
G3 X477.044 Y348.054 I-0.021 J0.6
X477.393 Y348.544 I-0.249 J0.546
G1 X478.583 Y361.345
G3 X478.234 Y361.946 I-0.597 J0.056
X478.006 Y362 I-0.249 J-0.546
G1 X476.746
X476.565 Y361.991
X476.441 Y361.978
X476.314 Y361.957
X476.167 Y361.924
X476.018 Y361.882
X475.849 Y361.824
X475.675 Y361.753
X475.483 Y361.661
X475.284 Y361.553
X475.075 Y361.422
X474.848 Y361.263
X474.624 Y361.085
X474.377 Y360.866
X474.134 Y360.624
X473.88 Y360.342
X473.612 Y360.008
X473.359 Y359.653
X473.1 Y359.243
X472.843 Y358.779
X472.594 Y358.265
X472.36 Y357.703
X472.152 Y357.111
X471.977 Y356.508
X471.833 Y355.897
X471.718 Y355.28
X471.633 Y354.658
X471.577 Y354.032
X471.55 Y353.405
X471.552 Y352.777
X471.585 Y352.15
X471.651 Y351.53
X471.739 Y350.99
X471.848 Y350.499
X471.964 Y350.089
X472.084 Y349.737
X472.199 Y349.456
X472.328 Y349.185
X472.452 Y348.957
X472.46 Y348.944
X472.662 Y348.673
X472.907 Y348.44
X473.187 Y348.252
X473.495 Y348.113
X473.822 Y348.029
X474.159 Y348
X475.488
G3 X476.064 Y348.541 I-0.021 J0.6
G1 X477.322 Y361.342
G3 X476.974 Y361.946 I-0.597 J0.059
X476.746 Y362 I-0.249 J-0.546
G1 X475.387
X475.239 Y361.993
X475.115 Y361.979
X474.988 Y361.958
X474.841 Y361.926
X474.691 Y361.883
X474.522 Y361.825
X474.348 Y361.754
X474.156 Y361.663
X473.957 Y361.554
X473.747 Y361.423
X473.521 Y361.264
X473.296 Y361.086
X473.049 Y360.866
X472.806 Y360.625
X472.551 Y360.342
X472.284 Y360.008
X472.031 Y359.653
X471.772 Y359.243
X471.514 Y358.779
X471.265 Y358.265
X471.032 Y357.703
X470.824 Y357.111
X470.648 Y356.508
X470.504 Y355.897
X470.39 Y355.279
X470.305 Y354.657
X470.249 Y354.032
X470.221 Y353.405
X470.224 Y352.777
X470.257 Y352.15
X470.322 Y351.53
X470.411 Y350.99
X470.519 Y350.499
X470.635 Y350.089
X470.756 Y349.737
X470.87 Y349.456
X470.999 Y349.185
X471.123 Y348.957
X471.132 Y348.944
X471.333 Y348.673
X471.578 Y348.44
X471.858 Y348.252
X472.167 Y348.113
X472.493 Y348.029
X472.83 Y348
X474.159
G3 X474.387 Y348.054 I-0.021 J0.6
X474.735 Y348.542 I-0.249 J0.546
G1 X475.964 Y361.343
G3 X475.615 Y361.946 I-0.597 J0.057
X475.387 Y362 I-0.249 J-0.546
G1 X474.046
X473.911 Y361.993
X473.787 Y361.98
X473.66 Y361.959
X473.513 Y361.926
X473.363 Y361.884
X473.194 Y361.826
X473.02 Y361.755
X472.828 Y361.663
X472.629 Y361.554
X472.419 Y361.424
X472.192 Y361.264
X471.968 Y361.086
X471.72 Y360.867
X471.477 Y360.625
X471.223 Y360.342
X470.955 Y360.009
X470.702 Y359.653
X470.443 Y359.243
X470.186 Y358.779
X469.937 Y358.265
X469.703 Y357.703
X469.495 Y357.111
X469.319 Y356.508
X469.175 Y355.897
X469.061 Y355.279
X468.976 Y354.657
X468.92 Y354.032
X468.893 Y353.405
X468.895 Y352.777
X468.928 Y352.15
X468.994 Y351.53
X469.082 Y350.99
X469.191 Y350.499
X469.306 Y350.089
X469.427 Y349.737
X469.541 Y349.456
X469.67 Y349.185
X469.795 Y348.957
X469.803 Y348.944
X470.005 Y348.673
X470.249 Y348.44
X470.53 Y348.252
X470.838 Y348.113
X471.165 Y348.029
X471.501 Y348
X472.83
G3 X473.406 Y348.543 I-0.021 J0.6
G1 X474.623 Y361.344
G3 X474.274 Y361.946 I-0.597 J0.057
X474.046 Y362 I-0.249 J-0.546
G1 X472.687
X472.584 Y361.995
X472.46 Y361.982
X472.332 Y361.961
X472.186 Y361.928
X472.036 Y361.886
X471.866 Y361.827
X471.693 Y361.756
X471.5 Y361.665
X471.301 Y361.556
X471.091 Y361.425
X470.865 Y361.266
X470.64 Y361.088
X470.392 Y360.868
X470.149 Y360.626
X469.895 Y360.343
X469.627 Y360.009
X469.374 Y359.654
X469.115 Y359.244
X468.857 Y358.78
X468.608 Y358.265
X468.374 Y357.703
X468.166 Y357.111
X467.991 Y356.508
X467.847 Y355.897
X467.732 Y355.28
X467.647 Y354.658
X467.591 Y354.032
X467.564 Y353.405
X467.566 Y352.777
X467.599 Y352.15
X467.665 Y351.531
X467.753 Y350.99
X467.862 Y350.499
X467.977 Y350.089
X468.098 Y349.737
X468.212 Y349.457
X468.341 Y349.185
X468.466 Y348.958
X468.474 Y348.944
X468.676 Y348.673
X468.92 Y348.44
X469.201 Y348.252
X469.509 Y348.113
X469.836 Y348.029
X470.173 Y348
X471.501
G3 X471.729 Y348.054 I-0.021 J0.6
X472.078 Y348.544 I-0.249 J0.546
G1 X473.264 Y361.345
G3 X472.915 Y361.946 I-0.597 J0.055
X472.687 Y362 I-0.249 J-0.546
G1 X471.428
X471.251 Y361.991
X471.127 Y361.978
X471 Y361.957
X470.853 Y361.924
X470.704 Y361.882
X470.534 Y361.824
X470.361 Y361.753
X470.169 Y361.662
X469.97 Y361.553
X469.76 Y361.422
X469.534 Y361.263
X469.31 Y361.085
X469.063 Y360.866
X468.819 Y360.624
X468.565 Y360.341
X468.298 Y360.008
X468.044 Y359.653
X467.786 Y359.243
X467.528 Y358.779
X467.279 Y358.264
X467.046 Y357.703
X466.837 Y357.11
X466.662 Y356.508
X466.518 Y355.896
X466.404 Y355.279
X466.319 Y354.657
X466.262 Y354.032
X466.235 Y353.404
X466.237 Y352.776
X466.271 Y352.149
X466.336 Y351.53
X466.424 Y350.989
X466.533 Y350.499
X466.649 Y350.089
X466.769 Y349.737
X466.884 Y349.456
X467.013 Y349.185
X467.137 Y348.957
X467.145 Y348.944
X467.347 Y348.673
X467.592 Y348.44
X467.872 Y348.252
X468.18 Y348.113
X468.507 Y348.029
X468.844 Y348
X470.173
G3 X470.4 Y348.054 I-0.021 J0.6
X470.749 Y348.541 I-0.249 J0.546
G1 X472.004 Y361.342
G3 X471.655 Y361.946 I-0.597 J0.059
X471.428 Y362 I-0.249 J-0.546
G1 X470.087
X469.924 Y361.992
X469.8 Y361.979
X469.672 Y361.958
X469.526 Y361.925
X469.376 Y361.883
X469.207 Y361.824
X469.033 Y361.753
X468.841 Y361.662
X468.642 Y361.553
X468.432 Y361.422
X468.206 Y361.263
X467.981 Y361.085
X467.734 Y360.866
X467.491 Y360.624
X467.237 Y360.341
X466.969 Y360.008
X466.716 Y359.652
X466.457 Y359.243
X466.199 Y358.779
X465.95 Y358.264
X465.717 Y357.703
X465.509 Y357.11
X465.333 Y356.507
X465.189 Y355.896
X465.075 Y355.279
X464.99 Y354.657
X464.934 Y354.031
X464.906 Y353.404
X464.909 Y352.776
X464.942 Y352.149
X465.007 Y351.53
X465.096 Y350.989
X465.204 Y350.499
X465.32 Y350.089
X465.441 Y349.737
X465.555 Y349.456
X465.684 Y349.185
X465.808 Y348.957
X465.816 Y348.944
X466.018 Y348.673
X466.263 Y348.44
X466.543 Y348.252
X466.851 Y348.113
X467.178 Y348.029
X467.515 Y348
X468.844
G3 X469.072 Y348.054 I-0.021 J0.6
X469.42 Y348.542 I-0.249 J0.546
G1 X470.663 Y361.342
G3 X470.314 Y361.946 I-0.597 J0.058
X470.087 Y362 I-0.249 J-0.546
G1 X468.728
X468.597 Y361.993
X468.473 Y361.98
X468.346 Y361.959
X468.199 Y361.927
X468.049 Y361.884
X467.879 Y361.826
X467.706 Y361.755
X467.513 Y361.663
X467.314 Y361.554
X467.104 Y361.424
X466.878 Y361.264
X466.653 Y361.086
X466.406 Y360.867
X466.163 Y360.625
X465.908 Y360.342
X465.641 Y360.008
X465.387 Y359.653
X465.128 Y359.243
X464.871 Y358.779
X464.622 Y358.264
X464.388 Y357.703
X464.18 Y357.11
X464.005 Y356.507
X463.86 Y355.896
X463.746 Y355.279
X463.661 Y354.657
X463.605 Y354.031
X463.578 Y353.404
X463.58 Y352.776
X463.613 Y352.149
X463.679 Y351.53
X463.767 Y350.989
X463.876 Y350.499
X463.991 Y350.089
X464.112 Y349.737
X464.226 Y349.456
X464.355 Y349.185
X464.48 Y348.957
X464.488 Y348.944
X464.69 Y348.673
X464.934 Y348.44
X465.215 Y348.252
X465.523 Y348.113
X465.85 Y348.029
X466.186 Y348
X467.515
G3 X467.743 Y348.054 I-0.021 J0.6
X468.091 Y348.543 I-0.249 J0.546
G1 X469.304 Y361.344
G3 X468.956 Y361.946 I-0.597 J0.057
X468.728 Y362 I-0.249 J-0.546
G1 X467.387
X467.269 Y361.994
X467.145 Y361.981
X467.017 Y361.96
X466.87 Y361.927
X466.721 Y361.885
X466.551 Y361.826
X466.377 Y361.756
X466.185 Y361.664
X465.986 Y361.555
X465.776 Y361.424
X465.55 Y361.265
X465.325 Y361.087
X465.077 Y360.867
X464.834 Y360.626
X464.58 Y360.343
X464.312 Y360.009
X464.059 Y359.653
X463.8 Y359.243
X463.542 Y358.779
X463.293 Y358.264
X463.06 Y357.703
X462.851 Y357.111
X462.676 Y356.508
X462.532 Y355.897
X462.417 Y355.279
X462.332 Y354.657
X462.276 Y354.032
X462.249 Y353.404
X462.251 Y352.776
X462.284 Y352.149
X462.35 Y351.53
X462.438 Y350.989
X462.547 Y350.499
X462.662 Y350.089
X462.783 Y349.737
X462.898 Y349.456
X463.026 Y349.185
X463.151 Y348.957
X463.159 Y348.944
X463.361 Y348.673
X463.605 Y348.44
X463.886 Y348.252
X464.194 Y348.113
X464.521 Y348.029
X464.858 Y348
X466.186
G3 X466.414 Y348.054 I-0.021 J0.6
X466.763 Y348.544 I-0.249 J0.546
G1 X467.963 Y361.344
G3 X467.615 Y361.946 I-0.597 J0.056
X467.387 Y362 I-0.249 J-0.546
G1 X466.127
X465.936 Y361.99
X465.812 Y361.977
X465.684 Y361.956
X465.538 Y361.924
X465.388 Y361.881
X465.219 Y361.823
X465.046 Y361.752
X464.854 Y361.661
X464.655 Y361.552
X464.445 Y361.422
X464.219 Y361.262
X463.995 Y361.085
X463.748 Y360.865
X463.504 Y360.624
X463.25 Y360.341
X462.983 Y360.007
X462.729 Y359.652
X462.471 Y359.242
X462.213 Y358.778
X461.964 Y358.264
X461.731 Y357.702
X461.523 Y357.11
X461.347 Y356.507
X461.203 Y355.896
X461.089 Y355.278
X461.004 Y354.656
X460.947 Y354.031
X460.92 Y353.404
X460.922 Y352.776
X460.956 Y352.149
X461.021 Y351.529
X461.11 Y350.989
X461.218 Y350.499
X461.334 Y350.089
X461.455 Y349.737
X461.569 Y349.456
X461.698 Y349.185
X461.822 Y348.957
X461.83 Y348.944
X462.032 Y348.673
X462.277 Y348.44
X462.557 Y348.252
X462.865 Y348.113
X463.192 Y348.029
X463.529 Y348
X464.858
G3 X465.085 Y348.054 I-0.021 J0.6
X465.434 Y348.54 I-0.249 J0.546
G1 X466.703 Y361.341
G3 X466.355 Y361.946 I-0.597 J0.059
X466.127 Y362 I-0.249 J-0.546
G1 X464.768
X464.61 Y361.992
X464.486 Y361.979
X464.358 Y361.958
X464.212 Y361.925
X464.062 Y361.883
X463.892 Y361.825
X463.719 Y361.754
X463.526 Y361.662
X463.327 Y361.553
X463.118 Y361.422
X462.891 Y361.263
X462.667 Y361.085
X462.419 Y360.866
X462.176 Y360.624
X461.922 Y360.341
X461.654 Y360.008
X461.401 Y359.652
X461.142 Y359.242
X460.884 Y358.778
X460.636 Y358.264
X460.402 Y357.702
X460.194 Y357.11
X460.018 Y356.507
X459.874 Y355.896
X459.76 Y355.278
X459.675 Y354.656
X459.619 Y354.031
X459.592 Y353.403
X459.594 Y352.776
X459.627 Y352.149
X459.693 Y351.529
X459.781 Y350.989
X459.889 Y350.499
X460.005 Y350.089
X460.126 Y349.737
X460.24 Y349.456
X460.369 Y349.185
X460.493 Y348.957
X460.502 Y348.944
X460.703 Y348.673
X460.948 Y348.44
X461.228 Y348.252
X461.536 Y348.113
X461.863 Y348.029
X462.2 Y348
X463.529
G3 X463.757 Y348.054 I-0.021 J0.6
X464.105 Y348.542 I-0.249 J0.546
G1 X465.344 Y361.343
G3 X464.996 Y361.946 I-0.597 J0.058
X464.768 Y362 I-0.249 J-0.546
G1 X463.427
X463.282 Y361.993
X463.158 Y361.979
X463.03 Y361.959
X462.884 Y361.926
X462.734 Y361.884
X462.564 Y361.825
X462.391 Y361.754
X462.198 Y361.663
X461.999 Y361.554
X461.789 Y361.423
X461.563 Y361.264
X461.338 Y361.086
X461.091 Y360.866
X460.848 Y360.625
X460.593 Y360.342
X460.326 Y360.008
X460.072 Y359.652
X459.814 Y359.243
X459.556 Y358.778
X459.307 Y358.264
X459.073 Y357.702
X458.865 Y357.11
X458.69 Y356.507
X458.545 Y355.896
X458.431 Y355.278
X458.346 Y354.656
X458.29 Y354.031
X458.263 Y353.404
X458.265 Y352.776
X458.298 Y352.149
X458.364 Y351.529
X458.452 Y350.989
X458.561 Y350.499
X458.676 Y350.089
X458.797 Y349.737
X458.911 Y349.456
X459.04 Y349.185
X459.165 Y348.957
X459.173 Y348.944
X459.375 Y348.673
X459.619 Y348.44
X459.9 Y348.252
X460.208 Y348.113
X460.535 Y348.029
X460.871 Y348
X462.2
G3 X462.428 Y348.054 I-0.021 J0.6
X462.776 Y348.542 I-0.249 J0.546
G1 X464.003 Y361.343
G3 X463.655 Y361.946 I-0.597 J0.057
X463.427 Y362 I-0.249 J-0.546
G1 X462.068
X461.955 Y361.994
X461.831 Y361.981
X461.703 Y361.96
X461.556 Y361.927
X461.406 Y361.885
X461.237 Y361.827
X461.063 Y361.756
X460.87 Y361.664
X460.671 Y361.555
X460.461 Y361.424
X460.235 Y361.265
X460.01 Y361.087
X459.763 Y360.867
X459.52 Y360.626
X459.265 Y360.342
X458.997 Y360.009
X458.744 Y359.653
X458.485 Y359.243
X458.227 Y358.779
X457.978 Y358.264
X457.745 Y357.703
X457.537 Y357.11
X457.361 Y356.507
X457.217 Y355.896
X457.103 Y355.279
X457.018 Y354.657
X456.961 Y354.031
X456.934 Y353.404
X456.936 Y352.776
X456.97 Y352.149
X457.035 Y351.53
X457.123 Y350.989
X457.232 Y350.499
X457.347 Y350.089
X457.468 Y349.737
X457.583 Y349.456
X457.712 Y349.185
X457.836 Y348.957
X457.844 Y348.944
X458.046 Y348.673
X458.291 Y348.44
X458.571 Y348.252
X458.879 Y348.113
X459.206 Y348.029
X459.543 Y348
X460.871
G3 X461.099 Y348.054 I-0.021 J0.6
X461.448 Y348.544 I-0.249 J0.546
G1 X462.645 Y361.345
G3 X462.296 Y361.946 I-0.597 J0.056
X462.068 Y362 I-0.249 J-0.546
G1 X460.727
X460.626 Y361.995
X460.502 Y361.982
X460.374 Y361.961
X460.228 Y361.928
X460.078 Y361.886
X459.908 Y361.827
X459.735 Y361.756
X459.542 Y361.665
X459.343 Y361.556
X459.133 Y361.425
X458.907 Y361.266
X458.682 Y361.088
X458.434 Y360.868
X458.191 Y360.626
X457.937 Y360.343
X457.669 Y360.009
X457.415 Y359.654
X457.156 Y359.244
X456.899 Y358.779
X456.65 Y358.265
X456.416 Y357.703
X456.208 Y357.111
X456.032 Y356.508
X455.888 Y355.897
X455.774 Y355.279
X455.689 Y354.657
X455.633 Y354.032
X455.605 Y353.404
X455.608 Y352.777
X455.641 Y352.15
X455.706 Y351.53
X455.795 Y350.99
X455.903 Y350.499
X456.019 Y350.089
X456.14 Y349.737
X456.254 Y349.456
X456.383 Y349.185
X456.507 Y348.958
X456.515 Y348.944
X456.717 Y348.673
X456.962 Y348.44
X457.242 Y348.252
X457.55 Y348.113
X457.877 Y348.029
X458.214 Y348
X459.543
G3 X459.771 Y348.054 I-0.021 J0.6
X460.119 Y348.544 I-0.249 J0.546
G1 X461.304 Y361.345
G3 X460.955 Y361.946 I-0.597 J0.055
X460.727 Y362 I-0.249 J-0.546
G1 X459.467
X459.293 Y361.991
X459.169 Y361.978
X459.041 Y361.957
X458.895 Y361.925
X458.745 Y361.882
X458.576 Y361.824
X458.403 Y361.753
X458.211 Y361.662
X458.012 Y361.553
X457.802 Y361.422
X457.576 Y361.263
X457.352 Y361.085
X457.104 Y360.866
X456.861 Y360.624
X456.607 Y360.341
X456.34 Y360.008
X456.086 Y359.653
X455.827 Y359.243
X455.57 Y358.779
X455.321 Y358.264
X455.087 Y357.702
X454.879 Y357.11
X454.704 Y356.507
X454.559 Y355.896
X454.445 Y355.279
X454.36 Y354.657
X454.304 Y354.031
X454.277 Y353.404
X454.279 Y352.776
X454.312 Y352.149
X454.378 Y351.53
X454.466 Y350.989
X454.575 Y350.499
X454.69 Y350.089
X454.811 Y349.737
X454.925 Y349.456
X455.054 Y349.185
X455.178 Y348.957
X455.187 Y348.944
X455.389 Y348.673
X455.633 Y348.44
X455.914 Y348.252
X456.222 Y348.113
X456.549 Y348.029
X456.885 Y348
X458.214
G3 X458.442 Y348.054 I-0.021 J0.6
X458.79 Y348.541 I-0.249 J0.546
G1 X460.044 Y361.342
G3 X459.695 Y361.946 I-0.597 J0.058
X459.467 Y362 I-0.249 J-0.546
G1 X458.108
X457.967 Y361.993
X457.843 Y361.98
X457.715 Y361.959
X457.569 Y361.926
X457.419 Y361.884
X457.249 Y361.825
X457.076 Y361.754
X456.883 Y361.663
X456.684 Y361.554
X456.474 Y361.423
X456.248 Y361.264
X456.023 Y361.086
X455.776 Y360.866
X455.533 Y360.625
X455.279 Y360.342
X455.011 Y360.008
X454.758 Y359.653
X454.499 Y359.243
X454.241 Y358.779
X453.992 Y358.264
X453.758 Y357.702
X453.55 Y357.11
X453.375 Y356.507
X453.231 Y355.896
X453.116 Y355.279
X453.031 Y354.656
X452.975 Y354.031
X452.948 Y353.404
X452.95 Y352.776
X452.983 Y352.149
X453.049 Y351.53
X453.137 Y350.989
X453.246 Y350.499
X453.361 Y350.089
X453.482 Y349.737
X453.597 Y349.456
X453.725 Y349.185
X453.85 Y348.957
X453.858 Y348.944
X454.06 Y348.673
X454.304 Y348.44
X454.585 Y348.252
X454.893 Y348.113
X455.22 Y348.029
X455.556 Y348
X456.885
G3 X457.113 Y348.054 I-0.021 J0.6
X457.462 Y348.543 I-0.249 J0.546
G1 X458.685 Y361.343
G3 X458.336 Y361.946 I-0.597 J0.057
X458.108 Y362 I-0.249 J-0.546
G1 X456.767
X456.639 Y361.994
X456.515 Y361.98
X456.387 Y361.959
X456.24 Y361.927
X456.091 Y361.884
X455.921 Y361.826
X455.747 Y361.755
X455.555 Y361.663
X455.356 Y361.555
X455.146 Y361.424
X454.92 Y361.264
X454.695 Y361.087
X454.448 Y360.867
X454.204 Y360.625
X453.95 Y360.342
X453.682 Y360.009
X453.429 Y359.653
X453.17 Y359.243
X452.912 Y358.779
X452.663 Y358.264
X452.43 Y357.703
X452.222 Y357.11
X452.046 Y356.507
X451.902 Y355.896
X451.788 Y355.279
X451.703 Y354.657
X451.646 Y354.031
X451.619 Y353.404
X451.621 Y352.776
X451.655 Y352.149
X451.72 Y351.53
X451.808 Y350.989
X451.917 Y350.499
X452.033 Y350.089
X452.153 Y349.737
X452.268 Y349.456
X452.397 Y349.185
X452.521 Y348.957
X452.529 Y348.944
X452.731 Y348.673
X452.976 Y348.44
X453.256 Y348.252
X453.564 Y348.113
X453.891 Y348.029
X454.228 Y348
X455.556
G3 X455.784 Y348.054 I-0.021 J0.6
X456.133 Y348.543 I-0.249 J0.546
G1 X457.344 Y361.344
G3 X456.995 Y361.946 I-0.597 J0.057
X456.767 Y362 I-0.249 J-0.546
G1 X455.508
X455.306 Y361.99
X455.182 Y361.977
X455.055 Y361.956
X454.908 Y361.923
X454.759 Y361.881
X454.589 Y361.823
X454.416 Y361.752
X454.224 Y361.66
X454.025 Y361.551
X453.815 Y361.421
X453.589 Y361.262
X453.365 Y361.084
X453.118 Y360.865
X452.875 Y360.623
X452.62 Y360.34
X452.353 Y360.007
X452.1 Y359.652
X451.841 Y359.242
X451.583 Y358.778
X451.334 Y358.263
X451.101 Y357.702
X450.893 Y357.109
X450.717 Y356.507
X450.573 Y355.895
X450.459 Y355.278
X450.374 Y354.656
X450.318 Y354.031
X450.29 Y353.403
X450.293 Y352.775
X450.326 Y352.148
X450.392 Y351.529
X450.48 Y350.989
X450.588 Y350.498
X450.704 Y350.088
X450.825 Y349.736
X450.939 Y349.456
X451.068 Y349.185
X451.192 Y348.957
X451.2 Y348.944
X451.402 Y348.673
X451.647 Y348.44
X451.927 Y348.252
X452.235 Y348.113
X452.562 Y348.029
X452.899 Y348
X454.228
G3 X454.456 Y348.054 I-0.021 J0.6
X454.804 Y348.54 I-0.249 J0.546
G1 X456.084 Y361.341
G3 X455.735 Y361.946 I-0.597 J0.06
X455.508 Y362 I-0.249 J-0.546
G1 X454.149
X453.98 Y361.992
X453.856 Y361.978
X453.728 Y361.957
X453.582 Y361.925
X453.432 Y361.882
X453.262 Y361.824
X453.089 Y361.753
X452.897 Y361.662
X452.698 Y361.553
X452.488 Y361.422
X452.261 Y361.263
X452.037 Y361.085
X451.79 Y360.865
X451.546 Y360.624
X451.292 Y360.341
X451.025 Y360.007
X450.771 Y359.652
X450.512 Y359.242
X450.255 Y358.778
X450.006 Y358.263
X449.772 Y357.702
X449.564 Y357.109
X449.389 Y356.506
X449.244 Y355.895
X449.13 Y355.278
X449.045 Y354.656
X448.989 Y354.03
X448.962 Y353.403
X448.964 Y352.775
X448.997 Y352.148
X449.063 Y351.529
X449.151 Y350.989
X449.26 Y350.498
X449.375 Y350.088
X449.496 Y349.736
X449.611 Y349.456
X449.739 Y349.185
X449.864 Y348.957
X449.872 Y348.944
X450.074 Y348.673
X450.318 Y348.44
X450.599 Y348.252
X450.907 Y348.113
X451.234 Y348.029
X451.57 Y348
X452.899
G3 X453.127 Y348.054 I-0.021 J0.6
X453.475 Y348.541 I-0.249 J0.546
G1 X454.725 Y361.342
G3 X454.377 Y361.946 I-0.597 J0.058
X454.149 Y362 I-0.249 J-0.546
G1 X452.808
X452.652 Y361.992
X452.528 Y361.979
X452.4 Y361.958
X452.254 Y361.925
X452.104 Y361.883
X451.934 Y361.825
X451.761 Y361.754
X451.568 Y361.662
X451.369 Y361.553
X451.159 Y361.423
X450.933 Y361.263
X450.708 Y361.085
X450.461 Y360.866
X450.218 Y360.624
X449.964 Y360.341
X449.696 Y360.007
X449.443 Y359.652
X449.184 Y359.242
X448.926 Y358.778
X448.677 Y358.263
X448.444 Y357.702
X448.235 Y357.109
X448.06 Y356.506
X447.916 Y355.895
X447.801 Y355.278
X447.716 Y354.656
X447.66 Y354.03
X447.633 Y353.403
X447.635 Y352.775
X447.669 Y352.148
X447.734 Y351.529
X447.822 Y350.989
X447.931 Y350.498
X448.047 Y350.088
X448.167 Y349.736
X448.282 Y349.456
X448.411 Y349.185
X448.535 Y348.957
X448.543 Y348.944
X448.745 Y348.673
X448.99 Y348.44
X449.27 Y348.252
X449.578 Y348.113
X449.905 Y348.029
X450.242 Y348
X451.57
G3 X451.798 Y348.054 I-0.021 J0.6
X452.147 Y348.542 I-0.249 J0.546
G1 X453.384 Y361.343
G3 X452.808 Y362 I-0.597 J0.058
G1 X451.449
X451.325 Y361.994
X451.201 Y361.981
X451.073 Y361.96
X450.926 Y361.927
X450.776 Y361.885
X450.607 Y361.826
X450.433 Y361.755
X450.241 Y361.664
X450.042 Y361.555
X449.832 Y361.424
X449.605 Y361.264
X449.38 Y361.087
X449.133 Y360.867
X448.89 Y360.625
X448.635 Y360.342
X448.368 Y360.008
X448.114 Y359.653
X447.855 Y359.243
X447.598 Y358.779
X447.348 Y358.264
X447.115 Y357.702
X446.907 Y357.11
X446.731 Y356.507
X446.587 Y355.896
X446.473 Y355.278
X446.388 Y354.656
X446.332 Y354.031
X446.304 Y353.404
X446.307 Y352.776
X446.34 Y352.149
X446.405 Y351.529
X446.494 Y350.989
X446.602 Y350.499
X446.718 Y350.089
X446.839 Y349.737
X446.953 Y349.456
X447.082 Y349.185
X447.206 Y348.957
X447.214 Y348.944
X447.416 Y348.673
X447.661 Y348.44
X447.941 Y348.252
X448.249 Y348.113
X448.576 Y348.029
X448.913 Y348
X450.242
G3 X450.469 Y348.054 I-0.021 J0.6
X450.818 Y348.543 I-0.249 J0.546
G1 X452.025 Y361.344
G3 X451.677 Y361.946 I-0.597 J0.056
X451.449 Y362 I-0.249 J-0.546
G1 X450.108
X449.996 Y361.994
X449.872 Y361.981
X449.744 Y361.96
X449.598 Y361.928
X449.448 Y361.885
X449.278 Y361.827
X449.105 Y361.756
X448.912 Y361.664
X448.713 Y361.555
X448.503 Y361.424
X448.277 Y361.265
X448.052 Y361.087
X447.804 Y360.867
X447.561 Y360.626
X447.307 Y360.343
X447.039 Y360.009
X446.786 Y359.653
X446.527 Y359.243
X446.269 Y358.779
X446.02 Y358.264
X445.786 Y357.703
X445.578 Y357.11
X445.403 Y356.507
X445.258 Y355.896
X445.144 Y355.279
X445.059 Y354.657
X445.003 Y354.031
X444.976 Y353.404
X444.978 Y352.776
X445.011 Y352.149
X445.077 Y351.53
X445.165 Y350.989
X445.273 Y350.499
X445.389 Y350.089
X445.51 Y349.737
X445.624 Y349.456
X445.753 Y349.185
X445.877 Y348.957
X445.886 Y348.944
X446.087 Y348.673
X446.332 Y348.44
X446.612 Y348.252
X446.921 Y348.113
X447.248 Y348.029
X447.584 Y348
X448.913
G3 X449.489 Y348.544 I-0.021 J0.6
G1 X450.684 Y361.345
G3 X450.336 Y361.946 I-0.597 J0.056
X450.108 Y362 I-0.249 J-0.546
G1 X448.848
X448.663 Y361.991
X448.539 Y361.978
X448.412 Y361.957
X448.265 Y361.924
X448.116 Y361.882
X447.946 Y361.823
X447.773 Y361.753
X447.581 Y361.661
X447.382 Y361.552
X447.172 Y361.422
X446.946 Y361.263
X446.722 Y361.085
X446.475 Y360.865
X446.231 Y360.624
X445.977 Y360.341
X445.71 Y360.007
X445.456 Y359.652
X445.198 Y359.242
X444.94 Y358.778
X444.691 Y358.263
X444.457 Y357.702
X444.249 Y357.11
X444.074 Y356.507
X443.93 Y355.896
X443.815 Y355.278
X443.73 Y354.656
X443.674 Y354.031
X443.647 Y353.403
X443.649 Y352.776
X443.682 Y352.148
X443.748 Y351.529
X443.836 Y350.989
X443.945 Y350.499
X444.06 Y350.089
X444.181 Y349.737
X444.296 Y349.456
X444.424 Y349.185
X444.549 Y348.957
X444.557 Y348.944
X444.759 Y348.673
X445.003 Y348.44
X445.284 Y348.252
X445.592 Y348.113
X445.919 Y348.029
X446.255 Y348
X447.584
G3 X448.16 Y348.541 I-0.021 J0.6
G1 X449.424 Y361.341
G3 X449.076 Y361.946 I-0.597 J0.059
X448.848 Y362 I-0.249 J-0.546
G1 X447.489
X447.337 Y361.992
X447.213 Y361.979
X447.085 Y361.958
X446.939 Y361.926
X446.789 Y361.883
X446.619 Y361.825
X446.446 Y361.754
X446.254 Y361.662
X446.054 Y361.553
X445.845 Y361.423
X445.618 Y361.263
X445.394 Y361.086
X445.146 Y360.866
X444.903 Y360.624
X444.649 Y360.341
X444.381 Y360.008
X444.128 Y359.652
X443.869 Y359.242
X443.611 Y358.778
X443.362 Y358.263
X443.129 Y357.702
X442.921 Y357.11
X442.745 Y356.507
X442.601 Y355.896
X442.487 Y355.278
X442.402 Y354.656
X442.345 Y354.031
X442.318 Y353.403
X442.32 Y352.775
X442.354 Y352.148
X442.419 Y351.529
X442.507 Y350.989
X442.616 Y350.499
X442.732 Y350.089
X442.853 Y349.737
X442.967 Y349.456
X443.096 Y349.185
X443.22 Y348.957
X443.228 Y348.944
X443.43 Y348.673
X443.675 Y348.44
X443.955 Y348.252
X444.263 Y348.113
X444.59 Y348.029
X444.927 Y348
X446.255
G3 X446.483 Y348.054 I-0.021 J0.6
X446.832 Y348.542 I-0.249 J0.546
G1 X448.065 Y361.343
G3 X447.717 Y361.946 I-0.597 J0.058
X447.489 Y362 I-0.249 J-0.546
G1 X446.148
X446.009 Y361.993
X445.885 Y361.98
X445.757 Y361.959
X445.611 Y361.926
X445.461 Y361.884
X445.291 Y361.825
X445.118 Y361.755
X444.925 Y361.663
X444.726 Y361.554
X444.516 Y361.423
X444.29 Y361.264
X444.065 Y361.086
X443.818 Y360.866
X443.575 Y360.625
X443.32 Y360.342
X443.053 Y360.008
X442.799 Y359.653
X442.54 Y359.243
X442.283 Y358.778
X442.034 Y358.264
X441.8 Y357.702
X441.592 Y357.11
X441.416 Y356.507
X441.272 Y355.896
X441.158 Y355.278
X441.073 Y354.656
X441.017 Y354.031
X440.99 Y353.404
X440.992 Y352.776
X441.025 Y352.149
X441.09 Y351.529
X441.179 Y350.989
X441.287 Y350.499
X441.403 Y350.089
X441.524 Y349.737
X441.638 Y349.456
X441.767 Y349.185
X441.891 Y348.957
X441.899 Y348.944
X442.101 Y348.673
X442.346 Y348.44
X442.626 Y348.252
X442.934 Y348.113
X443.261 Y348.029
X443.598 Y348
X444.927
G3 X445.155 Y348.054 I-0.021 J0.6
X445.503 Y348.543 I-0.249 J0.546
G1 X446.725 Y361.343
G3 X446.376 Y361.946 I-0.597 J0.057
X446.148 Y362 I-0.249 J-0.546
G1 X444.789
X444.682 Y361.995
X444.558 Y361.981
X444.43 Y361.96
X444.283 Y361.928
X444.133 Y361.885
X443.964 Y361.827
X443.79 Y361.756
X443.597 Y361.664
X443.398 Y361.555
X443.188 Y361.425
X442.962 Y361.265
X442.737 Y361.087
X442.49 Y360.868
X442.246 Y360.626
X441.992 Y360.343
X441.724 Y360.009
X441.471 Y359.653
X441.212 Y359.243
X440.954 Y358.779
X440.705 Y358.264
X440.471 Y357.703
X440.263 Y357.11
X440.088 Y356.507
X439.944 Y355.896
X439.829 Y355.279
X439.744 Y354.657
X439.688 Y354.031
X439.661 Y353.404
X439.663 Y352.776
X439.696 Y352.149
X439.762 Y351.53
X439.85 Y350.989
X439.959 Y350.499
X440.074 Y350.089
X440.195 Y349.737
X440.309 Y349.456
X440.438 Y349.185
X440.563 Y348.957
X440.571 Y348.944
X440.773 Y348.673
X441.017 Y348.44
X441.298 Y348.252
X441.606 Y348.113
X441.933 Y348.029
X442.269 Y348
X443.598
G3 X443.826 Y348.054 I-0.021 J0.6
X444.174 Y348.544 I-0.249 J0.546
G1 X445.366 Y361.345
G3 X445.017 Y361.946 I-0.597 J0.056
X444.789 Y362 I-0.249 J-0.546
G1 X443.448
X443.353 Y361.995
X443.229 Y361.982
X443.101 Y361.961
X442.954 Y361.928
X442.805 Y361.886
X442.635 Y361.828
X442.461 Y361.757
X442.269 Y361.665
X442.07 Y361.556
X441.86 Y361.425
X441.633 Y361.266
X441.409 Y361.088
X441.161 Y360.868
X440.918 Y360.627
X440.663 Y360.343
X440.396 Y360.01
X440.142 Y359.654
X439.883 Y359.244
X439.625 Y358.78
X439.376 Y358.265
X439.143 Y357.703
X438.935 Y357.111
X438.759 Y356.508
X438.615 Y355.897
X438.501 Y355.279
X438.416 Y354.657
X438.359 Y354.032
X438.332 Y353.404
X438.334 Y352.777
X438.367 Y352.15
X438.433 Y351.53
X438.521 Y350.99
X438.63 Y350.499
X438.745 Y350.089
X438.866 Y349.737
X438.981 Y349.457
X439.109 Y349.185
X439.234 Y348.958
X439.242 Y348.944
X439.444 Y348.673
X439.688 Y348.44
X439.969 Y348.252
X440.277 Y348.113
X440.604 Y348.029
X440.941 Y348
X442.269
G3 X442.497 Y348.054 I-0.021 J0.6
X442.846 Y348.545 I-0.249 J0.546
G1 X444.025 Y361.345
G3 X443.676 Y361.946 I-0.597 J0.055
X443.448 Y362 I-0.249 J-0.546
G1 X442.188
X442.02 Y361.992
X441.896 Y361.978
X441.768 Y361.957
X441.622 Y361.925
X441.472 Y361.883
X441.303 Y361.824
X441.13 Y361.753
X440.938 Y361.662
X440.739 Y361.553
X440.529 Y361.423
X440.303 Y361.263
X440.078 Y361.086
X439.831 Y360.866
X439.588 Y360.625
X439.334 Y360.342
X439.066 Y360.008
X438.813 Y359.653
X438.554 Y359.243
X438.296 Y358.779
X438.047 Y358.264
X437.814 Y357.703
X437.606 Y357.11
X437.43 Y356.507
X437.286 Y355.896
X437.172 Y355.279
X437.087 Y354.657
X437.031 Y354.031
X437.003 Y353.404
X437.006 Y352.776
X437.039 Y352.149
X437.104 Y351.53
X437.193 Y350.989
X437.301 Y350.499
X437.417 Y350.089
X437.538 Y349.737
X437.652 Y349.456
X437.781 Y349.185
X437.905 Y348.957
X437.913 Y348.944
X438.115 Y348.673
X438.36 Y348.44
X438.64 Y348.252
X438.948 Y348.113
X439.275 Y348.029
X439.612 Y348
X440.941
G3 X441.168 Y348.054 I-0.021 J0.6
X441.517 Y348.541 I-0.249 J0.546
G1 X442.765 Y361.342
G3 X442.416 Y361.946 I-0.597 J0.058
X442.188 Y362 I-0.249 J-0.546
G1 X440.83
X440.694 Y361.993
X440.57 Y361.98
X440.442 Y361.959
X440.295 Y361.926
X440.146 Y361.884
X439.976 Y361.826
X439.803 Y361.755
X439.61 Y361.663
X439.411 Y361.554
X439.201 Y361.423
X438.975 Y361.264
X438.75 Y361.086
X438.503 Y360.867
X438.26 Y360.625
X438.005 Y360.342
X437.738 Y360.008
X437.484 Y359.653
X437.225 Y359.243
X436.968 Y358.779
X436.719 Y358.264
X436.485 Y357.703
X436.277 Y357.11
X436.102 Y356.507
X435.957 Y355.896
X435.843 Y355.279
X435.758 Y354.657
X435.702 Y354.031
X435.675 Y353.404
X435.677 Y352.776
X435.71 Y352.149
X435.776 Y351.53
X435.864 Y350.989
X435.972 Y350.499
X436.088 Y350.089
X436.209 Y349.737
X436.323 Y349.456
X436.452 Y349.185
X436.576 Y348.957
X436.585 Y348.944
X436.786 Y348.673
X437.031 Y348.44
X437.311 Y348.252
X437.62 Y348.113
X437.947 Y348.029
X438.283 Y348
X439.612
G3 X439.84 Y348.054 I-0.021 J0.6
X440.188 Y348.543 I-0.249 J0.546
G1 X441.406 Y361.344
G3 X441.057 Y361.946 I-0.597 J0.057
X440.83 Y362 I-0.249 J-0.546
G1 X439.489
X439.366 Y361.994
X439.241 Y361.981
X439.114 Y361.96
X438.967 Y361.927
X438.817 Y361.885
X438.648 Y361.826
X438.474 Y361.755
X438.282 Y361.664
X438.083 Y361.555
X437.873 Y361.424
X437.647 Y361.265
X437.422 Y361.087
X437.174 Y360.867
X436.931 Y360.626
X436.677 Y360.342
X436.409 Y360.009
X436.156 Y359.653
X435.897 Y359.243
X435.639 Y358.779
X435.39 Y358.264
X435.156 Y357.703
X434.948 Y357.11
X434.773 Y356.507
X434.629 Y355.896
X434.514 Y355.279
X434.429 Y354.657
X434.373 Y354.031
X434.346 Y353.404
X434.348 Y352.776
X434.381 Y352.149
X434.447 Y351.53
X434.535 Y350.989
X434.644 Y350.499
X434.759 Y350.089
X434.88 Y349.737
X434.994 Y349.456
X435.123 Y349.185
X435.248 Y348.957
X435.256 Y348.944
X435.458 Y348.673
X435.702 Y348.44
X435.983 Y348.252
X436.291 Y348.113
X436.618 Y348.029
X436.954 Y348
X438.283
G3 X438.511 Y348.054 I-0.021 J0.6
X438.86 Y348.543 I-0.249 J0.546
G1 X440.065 Y361.344
G3 X439.716 Y361.946 I-0.597 J0.056
X439.489 Y362 I-0.249 J-0.546
G1 X438.229
X438.033 Y361.99
X437.909 Y361.977
X437.781 Y361.956
X437.635 Y361.923
X437.485 Y361.881
X437.316 Y361.823
X437.143 Y361.752
X436.951 Y361.661
X436.752 Y361.552
X436.542 Y361.421
X436.316 Y361.262
X436.092 Y361.084
X435.844 Y360.865
X435.601 Y360.623
X435.347 Y360.341
X435.08 Y360.007
X434.826 Y359.652
X434.568 Y359.242
X434.31 Y358.778
X434.061 Y358.263
X433.828 Y357.702
X433.62 Y357.11
X433.444 Y356.507
X433.3 Y355.896
X433.186 Y355.278
X433.101 Y354.656
X433.044 Y354.031
X433.017 Y353.403
X433.019 Y352.775
X433.053 Y352.148
X433.118 Y351.529
X433.206 Y350.989
X433.315 Y350.499
X433.431 Y350.089
X433.551 Y349.737
X433.666 Y349.456
X433.795 Y349.185
X433.919 Y348.957
X433.927 Y348.944
X434.129 Y348.673
X434.374 Y348.44
X434.654 Y348.252
X434.962 Y348.113
X435.289 Y348.029
X435.626 Y348
X436.954
G3 X437.182 Y348.054 I-0.021 J0.6
X437.531 Y348.54 I-0.249 J0.546
G1 X438.805 Y361.341
G3 X438.457 Y361.946 I-0.597 J0.059
X438.229 Y362 I-0.249 J-0.546
G1 X436.87
X436.707 Y361.992
X436.583 Y361.979
X436.455 Y361.958
X436.309 Y361.925
X436.159 Y361.883
X435.989 Y361.824
X435.816 Y361.753
X435.623 Y361.662
X435.424 Y361.553
X435.215 Y361.422
X434.988 Y361.263
X434.764 Y361.085
X434.516 Y360.866
X434.273 Y360.624
X434.019 Y360.341
X433.751 Y360.007
X433.498 Y359.652
X433.239 Y359.242
X432.981 Y358.778
X432.732 Y358.263
X432.499 Y357.702
X432.291 Y357.109
X432.115 Y356.507
X431.971 Y355.895
X431.857 Y355.278
X431.772 Y354.656
X431.716 Y354.031
X431.688 Y353.403
X431.691 Y352.775
X431.724 Y352.148
X431.789 Y351.529
X431.878 Y350.989
X431.986 Y350.498
X432.102 Y350.088
X432.223 Y349.737
X432.337 Y349.456
X432.466 Y349.185
X432.59 Y348.957
X432.598 Y348.944
X432.8 Y348.673
X433.045 Y348.44
X433.325 Y348.252
X433.633 Y348.113
X433.96 Y348.029
X434.297 Y348
X435.626
G3 X435.854 Y348.054 I-0.021 J0.6
X436.202 Y348.542 I-0.249 J0.546
G1 X437.446 Y361.342
G3 X436.87 Y362 I-0.597 J0.058
G1 X435.529
X435.379 Y361.992
X435.255 Y361.979
X435.127 Y361.958
X434.98 Y361.926
X434.831 Y361.883
X434.661 Y361.825
X434.488 Y361.754
X434.295 Y361.662
X434.096 Y361.553
X433.886 Y361.423
X433.66 Y361.263
X433.435 Y361.086
X433.188 Y360.866
X432.945 Y360.624
X432.69 Y360.341
X432.423 Y360.008
X432.169 Y359.652
X431.91 Y359.242
X431.653 Y358.778
X431.404 Y358.263
X431.17 Y357.702
X430.962 Y357.11
X430.787 Y356.507
X430.642 Y355.896
X430.528 Y355.278
X430.443 Y354.656
X430.387 Y354.031
X430.36 Y353.403
X430.362 Y352.775
X430.395 Y352.148
X430.461 Y351.529
X430.549 Y350.989
X430.658 Y350.499
X430.773 Y350.088
X430.894 Y349.737
X431.008 Y349.456
X431.137 Y349.185
X431.262 Y348.957
X431.27 Y348.944
X431.472 Y348.673
X431.716 Y348.44
X431.997 Y348.252
X432.305 Y348.113
X432.632 Y348.029
X432.968 Y348
X434.297
G3 X434.873 Y348.542 I-0.021 J0.6
G1 X436.105 Y361.343
G3 X435.529 Y362 I-0.597 J0.057
G1 X434.17
X434.052 Y361.994
X433.927 Y361.981
X433.8 Y361.96
X433.653 Y361.927
X433.503 Y361.885
X433.333 Y361.826
X433.16 Y361.755
X432.967 Y361.664
X432.768 Y361.555
X432.558 Y361.424
X432.332 Y361.265
X432.107 Y361.087
X431.86 Y360.867
X431.617 Y360.625
X431.362 Y360.342
X431.094 Y360.008
X430.841 Y359.653
X430.582 Y359.243
X430.324 Y358.779
X430.075 Y358.264
X429.842 Y357.702
X429.633 Y357.11
X429.458 Y356.507
X429.314 Y355.896
X429.199 Y355.279
X429.114 Y354.656
X429.058 Y354.031
X429.031 Y353.404
X429.033 Y352.776
X429.066 Y352.149
X429.132 Y351.53
X429.22 Y350.989
X429.329 Y350.499
X429.444 Y350.089
X429.565 Y349.737
X429.68 Y349.456
X429.808 Y349.185
X429.933 Y348.957
X429.941 Y348.944
X430.143 Y348.673
X430.387 Y348.44
X430.668 Y348.252
X430.976 Y348.113
X431.303 Y348.029
X431.64 Y348
X432.968
G3 X433.196 Y348.054 I-0.021 J0.6
X433.545 Y348.544 I-0.249 J0.546
G1 X434.746 Y361.344
G3 X434.398 Y361.946 I-0.597 J0.056
X434.17 Y362 I-0.249 J-0.546
G1 X432.829
X432.723 Y361.995
X432.599 Y361.981
X432.471 Y361.96
X432.324 Y361.928
X432.175 Y361.885
X432.005 Y361.827
X431.831 Y361.756
X431.639 Y361.664
X431.44 Y361.556
X431.23 Y361.425
X431.003 Y361.265
X430.779 Y361.087
X430.531 Y360.868
X430.288 Y360.626
X430.033 Y360.343
X429.766 Y360.009
X429.512 Y359.654
X429.253 Y359.243
X428.996 Y358.779
X428.747 Y358.264
X428.513 Y357.703
X428.305 Y357.11
X428.129 Y356.508
X427.985 Y355.896
X427.871 Y355.279
X427.786 Y354.657
X427.73 Y354.031
X427.702 Y353.404
X427.704 Y352.776
X427.738 Y352.149
X427.803 Y351.53
X427.891 Y350.989
X428 Y350.499
X428.116 Y350.089
X428.236 Y349.737
X428.351 Y349.456
X428.48 Y349.185
X428.604 Y348.957
X428.612 Y348.944
X428.814 Y348.673
X429.059 Y348.44
X429.339 Y348.252
X429.647 Y348.113
X429.974 Y348.029
X430.311 Y348
X431.64
G3 X431.867 Y348.054 I-0.021 J0.6
X432.216 Y348.544 I-0.249 J0.546
G1 X433.406 Y361.345
G3 X433.057 Y361.946 I-0.597 J0.056
X432.829 Y362 I-0.249 J-0.546
G1 X431.569
X431.39 Y361.991
X431.266 Y361.978
X431.138 Y361.957
X430.992 Y361.924
X430.842 Y361.882
X430.673 Y361.824
X430.5 Y361.753
X430.308 Y361.661
X430.109 Y361.553
X429.899 Y361.422
X429.673 Y361.263
X429.448 Y361.085
X429.201 Y360.866
X428.958 Y360.624
X428.704 Y360.341
X428.436 Y360.008
X428.183 Y359.652
X427.924 Y359.242
X427.667 Y358.778
X427.418 Y358.264
X427.184 Y357.702
X426.976 Y357.11
X426.8 Y356.507
X426.656 Y355.896
X426.542 Y355.278
X426.457 Y354.656
X426.401 Y354.031
X426.374 Y353.404
X426.376 Y352.776
X426.409 Y352.149
X426.475 Y351.529
X426.563 Y350.989
X426.671 Y350.499
X426.787 Y350.089
X426.908 Y349.737
X427.022 Y349.456
X427.151 Y349.185
X427.275 Y348.957
X427.284 Y348.944
X427.485 Y348.673
X427.73 Y348.44
X428.01 Y348.252
X428.318 Y348.113
X428.646 Y348.029
X428.982 Y348
X430.311
G3 X430.887 Y348.541 I-0.021 J0.6
G1 X432.145 Y361.342
G3 X431.797 Y361.946 I-0.597 J0.059
X431.569 Y362 I-0.249 J-0.546
G1 X430.21
X430.064 Y361.993
X429.94 Y361.979
X429.812 Y361.958
X429.666 Y361.926
X429.516 Y361.884
X429.346 Y361.825
X429.173 Y361.754
X428.98 Y361.663
X428.781 Y361.554
X428.571 Y361.423
X428.345 Y361.264
X428.12 Y361.086
X427.873 Y360.866
X427.63 Y360.625
X427.375 Y360.342
X427.108 Y360.008
X426.854 Y359.653
X426.596 Y359.243
X426.338 Y358.778
X426.089 Y358.264
X425.855 Y357.702
X425.647 Y357.11
X425.472 Y356.507
X425.328 Y355.896
X425.213 Y355.278
X425.128 Y354.656
X425.072 Y354.031
X425.045 Y353.404
X425.047 Y352.776
X425.08 Y352.149
X425.146 Y351.529
X425.234 Y350.989
X425.343 Y350.499
X425.458 Y350.089
X425.579 Y349.737
X425.693 Y349.456
X425.822 Y349.185
X425.947 Y348.957
X425.955 Y348.944
X426.157 Y348.673
X426.401 Y348.44
X426.682 Y348.252
X426.99 Y348.113
X427.317 Y348.029
X427.653 Y348
X428.982
G3 X429.21 Y348.054 I-0.021 J0.6
X429.558 Y348.542 I-0.249 J0.546
G1 X430.787 Y361.343
G3 X430.438 Y361.946 I-0.597 J0.057
X430.21 Y362 I-0.249 J-0.546
G1 X428.869
X428.736 Y361.993
X428.612 Y361.98
X428.484 Y361.959
X428.337 Y361.926
X428.187 Y361.884
X428.018 Y361.826
X427.844 Y361.755
X427.652 Y361.663
X427.453 Y361.554
X427.243 Y361.424
X427.017 Y361.264
X426.792 Y361.086
X426.544 Y360.867
X426.301 Y360.625
X426.047 Y360.342
X425.779 Y360.008
X425.526 Y359.653
X425.267 Y359.243
X425.009 Y358.779
X424.76 Y358.264
X424.527 Y357.702
X424.319 Y357.11
X424.143 Y356.507
X423.999 Y355.896
X423.885 Y355.279
X423.8 Y354.656
X423.743 Y354.031
X423.716 Y353.404
X423.718 Y352.776
X423.752 Y352.149
X423.817 Y351.53
X423.905 Y350.989
X424.014 Y350.499
X424.129 Y350.089
X424.25 Y349.737
X424.365 Y349.456
X424.494 Y349.185
X424.618 Y348.957
X424.626 Y348.944
X424.828 Y348.673
X425.073 Y348.44
X425.353 Y348.252
X425.661 Y348.113
X425.988 Y348.029
X426.325 Y348
X427.653
G3 X427.881 Y348.054 I-0.021 J0.6
X428.23 Y348.543 I-0.249 J0.546
G1 X429.446 Y361.344
G3 X429.097 Y361.946 I-0.597 J0.057
X428.869 Y362 I-0.249 J-0.546
G1 X427.51
X427.409 Y361.995
X427.284 Y361.982
X427.157 Y361.961
X427.01 Y361.928
X426.86 Y361.886
X426.69 Y361.827
X426.517 Y361.756
X426.324 Y361.665
X426.125 Y361.556
X425.915 Y361.425
X425.689 Y361.266
X425.464 Y361.088
X425.216 Y360.868
X424.973 Y360.626
X424.719 Y360.343
X424.451 Y360.009
X424.197 Y359.654
X423.938 Y359.244
X423.681 Y358.779
X423.432 Y358.264
X423.198 Y357.703
X422.99 Y357.11
X422.814 Y356.508
X422.67 Y355.896
X422.556 Y355.279
X422.471 Y354.657
X422.415 Y354.032
X422.387 Y353.404
X422.39 Y352.776
X422.423 Y352.149
X422.488 Y351.53
X422.577 Y350.989
X422.685 Y350.499
X422.801 Y350.089
X422.922 Y349.737
X423.036 Y349.456
X423.165 Y349.185
X423.289 Y348.957
X423.297 Y348.944
X423.499 Y348.673
X423.744 Y348.44
X424.024 Y348.252
X424.332 Y348.113
X424.659 Y348.029
X424.996 Y348
X426.325
G3 X426.553 Y348.054 I-0.021 J0.6
X426.901 Y348.544 I-0.249 J0.546
G1 X428.087 Y361.345
G3 X427.738 Y361.946 I-0.597 J0.055
X427.51 Y362 I-0.249 J-0.546
G1 X426.25
X426.075 Y361.991
X425.951 Y361.978
X425.824 Y361.957
X425.677 Y361.924
X425.528 Y361.882
X425.358 Y361.824
X425.185 Y361.753
X424.993 Y361.662
X424.794 Y361.553
X424.584 Y361.422
X424.358 Y361.263
X424.134 Y361.085
X423.886 Y360.866
X423.643 Y360.624
X423.389 Y360.341
X423.122 Y360.008
X422.868 Y359.652
X422.609 Y359.243
X422.352 Y358.779
X422.103 Y358.264
X421.869 Y357.702
X421.661 Y357.11
X421.486 Y356.507
X421.341 Y355.896
X421.227 Y355.279
X421.142 Y354.656
X421.086 Y354.031
X421.059 Y353.404
X421.061 Y352.776
X421.094 Y352.149
X421.16 Y351.53
X421.248 Y350.989
X421.357 Y350.499
X421.472 Y350.089
X421.593 Y349.737
X421.707 Y349.456
X421.836 Y349.185
X421.96 Y348.957
X421.969 Y348.944
X422.171 Y348.673
X422.415 Y348.44
X422.696 Y348.252
X423.004 Y348.113
X423.331 Y348.029
X423.667 Y348
X424.996
G3 X425.224 Y348.054 I-0.021 J0.6
X425.572 Y348.541 I-0.249 J0.546
G1 X426.827 Y361.342
G3 X426.478 Y361.946 I-0.597 J0.059
X426.25 Y362 I-0.249 J-0.546
G1 X424.91
X424.748 Y361.992
X424.624 Y361.979
X424.496 Y361.958
X424.35 Y361.925
X424.2 Y361.883
X424.031 Y361.824
X423.857 Y361.754
X423.665 Y361.662
X423.466 Y361.553
X423.256 Y361.422
X423.03 Y361.263
X422.805 Y361.085
X422.558 Y360.866
X422.315 Y360.624
X422.06 Y360.341
X421.793 Y360.008
X421.539 Y359.652
X421.281 Y359.242
X421.023 Y358.778
X420.774 Y358.264
X420.54 Y357.702
X420.332 Y357.11
X420.157 Y356.507
X420.013 Y355.896
X419.898 Y355.278
X419.813 Y354.656
X419.757 Y354.031
X419.73 Y353.403
X419.732 Y352.776
X419.765 Y352.149
X419.831 Y351.529
X419.919 Y350.989
X420.028 Y350.499
X420.143 Y350.089
X420.264 Y349.737
X420.379 Y349.456
X420.507 Y349.185
X420.632 Y348.957
X420.64 Y348.944
X420.842 Y348.673
X421.086 Y348.44
X421.367 Y348.252
X421.675 Y348.113
X422.002 Y348.029
X422.339 Y348
X423.667
G3 X423.895 Y348.054 I-0.021 J0.6
X424.243 Y348.542 I-0.249 J0.546
G1 X425.486 Y361.342
G3 X425.137 Y361.946 I-0.597 J0.058
X424.91 Y362 I-0.249 J-0.546
G1 X423.551
X423.421 Y361.994
X423.297 Y361.98
X423.169 Y361.959
X423.023 Y361.927
X422.873 Y361.884
X422.703 Y361.826
X422.53 Y361.755
X422.337 Y361.663
X422.138 Y361.554
X421.928 Y361.424
X421.702 Y361.264
X421.477 Y361.086
X421.23 Y360.867
X420.987 Y360.625
X420.732 Y360.342
X420.464 Y360.008
X420.211 Y359.653
X419.952 Y359.243
X419.694 Y358.779
X419.445 Y358.264
X419.212 Y357.702
X419.004 Y357.11
X418.828 Y356.507
X418.684 Y355.896
X418.57 Y355.279
X418.485 Y354.656
X418.428 Y354.031
X418.401 Y353.404
X418.403 Y352.776
X418.437 Y352.149
X418.502 Y351.53
X418.59 Y350.989
X418.699 Y350.499
X418.815 Y350.089
X418.935 Y349.737
X419.05 Y349.456
X419.179 Y349.185
X419.303 Y348.957
X419.311 Y348.944
X419.513 Y348.673
X419.758 Y348.44
X420.038 Y348.252
X420.346 Y348.113
X420.673 Y348.029
X421.01 Y348
X422.339
G3 X422.566 Y348.054 I-0.021 J0.6
X422.915 Y348.543 I-0.249 J0.546
G1 X424.127 Y361.344
G3 X423.779 Y361.946 I-0.597 J0.057
X423.551 Y362 I-0.249 J-0.546
G1 X422.21
X422.093 Y361.994
X421.969 Y361.981
X421.841 Y361.96
X421.694 Y361.927
X421.544 Y361.885
X421.375 Y361.827
X421.201 Y361.756
X421.009 Y361.664
X420.81 Y361.555
X420.6 Y361.424
X420.373 Y361.265
X420.149 Y361.087
X419.901 Y360.867
X419.658 Y360.626
X419.404 Y360.343
X419.136 Y360.009
X418.882 Y359.653
X418.624 Y359.243
X418.366 Y358.779
X418.117 Y358.264
X417.883 Y357.703
X417.675 Y357.11
X417.5 Y356.507
X417.355 Y355.896
X417.241 Y355.279
X417.156 Y354.657
X417.1 Y354.031
X417.073 Y353.404
X417.075 Y352.776
X417.108 Y352.149
X417.173 Y351.53
X417.262 Y350.989
X417.37 Y350.499
X417.486 Y350.089
X417.607 Y349.737
X417.721 Y349.456
X417.85 Y349.185
X417.974 Y348.957
X417.982 Y348.944
X418.184 Y348.673
X418.429 Y348.44
X418.709 Y348.252
X419.017 Y348.113
X419.344 Y348.029
X419.681 Y348
X421.01
G3 X421.238 Y348.054 I-0.021 J0.6
X421.586 Y348.544 I-0.249 J0.546
G1 X422.786 Y361.344
G3 X422.438 Y361.946 I-0.597 J0.056
X422.21 Y362 I-0.249 J-0.546
G1 X420.95
X420.76 Y361.99
X420.636 Y361.977
X420.508 Y361.956
X420.362 Y361.924
X420.212 Y361.882
X420.043 Y361.823
X419.87 Y361.752
X419.678 Y361.661
X419.479 Y361.552
X419.269 Y361.422
X419.043 Y361.262
X418.818 Y361.085
X418.571 Y360.865
X418.328 Y360.624
X418.074 Y360.341
X417.807 Y360.007
X417.553 Y359.652
X417.294 Y359.242
X417.037 Y358.778
X416.788 Y358.263
X416.554 Y357.702
X416.346 Y357.11
X416.171 Y356.507
X416.026 Y355.896
X415.912 Y355.278
X415.827 Y354.656
X415.771 Y354.031
X415.744 Y353.403
X415.746 Y352.776
X415.779 Y352.148
X415.845 Y351.529
X415.933 Y350.989
X416.042 Y350.499
X416.157 Y350.089
X416.278 Y349.737
X416.392 Y349.456
X416.521 Y349.185
X416.646 Y348.957
X416.654 Y348.944
X416.856 Y348.673
X417.1 Y348.44
X417.381 Y348.252
X417.689 Y348.113
X418.016 Y348.029
X418.352 Y348
X419.681
G3 X419.909 Y348.054 I-0.021 J0.6
X420.257 Y348.54 I-0.249 J0.546
G1 X421.526 Y361.341
G3 X421.178 Y361.946 I-0.597 J0.059
X420.95 Y362 I-0.249 J-0.546
G1 X419.591
X419.434 Y361.992
X419.31 Y361.979
X419.182 Y361.958
X419.035 Y361.925
X418.886 Y361.883
X418.716 Y361.825
X418.543 Y361.754
X418.35 Y361.662
X418.151 Y361.553
X417.941 Y361.422
X417.715 Y361.263
X417.49 Y361.085
X417.243 Y360.866
X417 Y360.624
X416.746 Y360.341
X416.478 Y360.007
X416.225 Y359.652
X415.966 Y359.242
X415.708 Y358.778
X415.459 Y358.263
X415.226 Y357.702
X415.017 Y357.11
X414.842 Y356.507
X414.698 Y355.896
X414.583 Y355.278
X414.498 Y354.656
X414.442 Y354.031
X414.415 Y353.403
X414.417 Y352.775
X414.451 Y352.148
X414.516 Y351.529
X414.604 Y350.989
X414.713 Y350.499
X414.829 Y350.089
X414.949 Y349.737
X415.064 Y349.456
X415.193 Y349.185
X415.317 Y348.957
X415.325 Y348.944
X415.527 Y348.673
X415.772 Y348.44
X416.052 Y348.252
X416.36 Y348.113
X416.687 Y348.029
X417.024 Y348
X418.352
G3 X418.58 Y348.054 I-0.021 J0.6
X418.929 Y348.542 I-0.249 J0.546
G1 X420.167 Y361.343
G3 X419.591 Y362 I-0.597 J0.058
G1 X418.25
X418.106 Y361.993
X417.982 Y361.98
X417.854 Y361.959
X417.707 Y361.926
X417.557 Y361.884
X417.388 Y361.825
X417.214 Y361.754
X417.022 Y361.663
X416.823 Y361.554
X416.613 Y361.423
X416.387 Y361.264
X416.162 Y361.086
X415.915 Y360.866
X415.671 Y360.625
X415.417 Y360.342
X415.149 Y360.008
X414.896 Y359.652
X414.637 Y359.242
X414.379 Y358.778
X414.13 Y358.263
X413.897 Y357.702
X413.689 Y357.11
X413.513 Y356.507
X413.369 Y355.896
X413.255 Y355.278
X413.17 Y354.656
X413.114 Y354.031
X413.086 Y353.403
X413.089 Y352.776
X413.122 Y352.148
X413.187 Y351.529
X413.276 Y350.989
X413.384 Y350.499
X413.5 Y350.089
X413.621 Y349.737
X413.735 Y349.456
X413.864 Y349.185
X413.988 Y348.957
X413.996 Y348.944
X414.198 Y348.673
X414.443 Y348.44
X414.723 Y348.252
X415.031 Y348.113
X415.358 Y348.029
X415.695 Y348
X417.024
G3 X417.251 Y348.054 I-0.021 J0.6
X417.6 Y348.542 I-0.249 J0.546
G1 X418.826 Y361.343
G3 X418.478 Y361.946 I-0.597 J0.057
X418.25 Y362 I-0.249 J-0.546
G1 X416.891
X416.779 Y361.994
X416.654 Y361.981
X416.527 Y361.96
X416.38 Y361.927
X416.23 Y361.885
X416.06 Y361.827
X415.887 Y361.756
X415.694 Y361.664
X415.495 Y361.555
X415.285 Y361.424
X415.059 Y361.265
X414.834 Y361.087
X414.586 Y360.867
X414.343 Y360.626
X414.089 Y360.342
X413.821 Y360.009
X413.568 Y359.653
X413.309 Y359.243
X413.051 Y358.779
X412.802 Y358.264
X412.568 Y357.702
X412.36 Y357.11
X412.185 Y356.507
X412.04 Y355.896
X411.926 Y355.279
X411.841 Y354.657
X411.785 Y354.031
X411.758 Y353.404
X411.76 Y352.776
X411.793 Y352.149
X411.859 Y351.53
X411.947 Y350.989
X412.056 Y350.499
X412.171 Y350.089
X412.292 Y349.737
X412.406 Y349.456
X412.535 Y349.185
X412.659 Y348.957
X412.668 Y348.944
X412.87 Y348.673
X413.114 Y348.44
X413.394 Y348.252
X413.703 Y348.113
X414.03 Y348.029
X414.366 Y348
X415.695
G3 X415.923 Y348.054 I-0.021 J0.6
X416.271 Y348.544 I-0.249 J0.546
G1 X417.468 Y361.345
G3 X417.119 Y361.946 I-0.597 J0.056
X416.891 Y362 I-0.249 J-0.546
G1 X415.55
X415.45 Y361.995
X415.326 Y361.982
X415.198 Y361.961
X415.051 Y361.928
X414.901 Y361.886
X414.732 Y361.827
X414.558 Y361.756
X414.366 Y361.665
X414.167 Y361.556
X413.957 Y361.425
X413.73 Y361.266
X413.505 Y361.088
X413.258 Y360.868
X413.015 Y360.626
X412.76 Y360.343
X412.492 Y360.009
X412.239 Y359.654
X411.98 Y359.244
X411.722 Y358.779
X411.473 Y358.264
X411.24 Y357.703
X411.031 Y357.111
X410.856 Y356.508
X410.712 Y355.897
X410.597 Y355.279
X410.512 Y354.657
X410.456 Y354.032
X410.429 Y353.404
X410.431 Y352.776
X410.464 Y352.149
X410.53 Y351.53
X410.618 Y350.989
X410.727 Y350.499
X410.842 Y350.089
X410.963 Y349.737
X411.077 Y349.456
X411.206 Y349.185
X411.331 Y348.957
X411.339 Y348.944
X411.541 Y348.673
X411.785 Y348.44
X412.066 Y348.252
X412.374 Y348.113
X412.701 Y348.029
X413.037 Y348
X414.366
G3 X414.594 Y348.054 I-0.021 J0.6
X414.943 Y348.544 I-0.249 J0.546
G1 X416.127 Y361.345
G3 X415.778 Y361.946 I-0.597 J0.055
X415.55 Y362 I-0.249 J-0.546
G1 X414.29
X414.116 Y361.991
X413.993 Y361.978
X413.865 Y361.957
X413.719 Y361.925
X413.569 Y361.882
X413.4 Y361.824
X413.227 Y361.753
X413.034 Y361.662
X412.835 Y361.553
X412.626 Y361.422
X412.4 Y361.263
X412.175 Y361.085
X411.928 Y360.866
X411.685 Y360.624
X411.431 Y360.341
X411.163 Y360.008
X410.91 Y359.653
X410.651 Y359.243
X410.393 Y358.779
X410.144 Y358.264
X409.911 Y357.702
X409.703 Y357.11
X409.527 Y356.507
X409.383 Y355.896
X409.269 Y355.279
X409.184 Y354.656
X409.127 Y354.031
X409.1 Y353.404
X409.102 Y352.776
X409.136 Y352.149
X409.201 Y351.53
X409.289 Y350.989
X409.398 Y350.499
X409.514 Y350.089
X409.634 Y349.737
X409.749 Y349.456
X409.878 Y349.185
X410.002 Y348.957
X410.01 Y348.944
X410.212 Y348.673
X410.457 Y348.44
X410.737 Y348.252
X411.045 Y348.113
X411.372 Y348.029
X411.709 Y348
X413.037
G3 X413.265 Y348.054 I-0.021 J0.6
X413.614 Y348.541 I-0.249 J0.546
G1 X414.866 Y361.342
G3 X414.518 Y361.946 I-0.597 J0.058
X414.29 Y362 I-0.249 J-0.546
G1 X412.931
X412.791 Y361.993
X412.667 Y361.98
X412.539 Y361.959
X412.392 Y361.926
X412.242 Y361.884
X412.073 Y361.825
X411.899 Y361.754
X411.707 Y361.663
X411.508 Y361.554
X411.298 Y361.423
X411.072 Y361.264
X410.847 Y361.086
X410.6 Y360.866
X410.357 Y360.625
X410.102 Y360.342
X409.835 Y360.008
X409.581 Y359.653
X409.322 Y359.243
X409.065 Y358.779
X408.816 Y358.264
X408.582 Y357.702
X408.374 Y357.11
X408.198 Y356.507
X408.054 Y355.896
X407.94 Y355.279
X407.855 Y354.656
X407.799 Y354.031
X407.772 Y353.404
X407.774 Y352.776
X407.807 Y352.149
X407.872 Y351.53
X407.961 Y350.989
X408.069 Y350.499
X408.185 Y350.089
X408.306 Y349.737
X408.42 Y349.456
X408.549 Y349.185
X408.673 Y348.957
X408.681 Y348.944
X408.883 Y348.673
X409.128 Y348.44
X409.408 Y348.252
X409.716 Y348.113
X410.043 Y348.029
X410.38 Y348
X411.709
G3 X411.937 Y348.054 I-0.021 J0.6
X412.285 Y348.543 I-0.249 J0.546
G1 X413.508 Y361.343
G3 X413.159 Y361.946 I-0.597 J0.057
X412.931 Y362 I-0.249 J-0.546
G1 X411.59
X411.463 Y361.994
X411.338 Y361.98
X411.211 Y361.959
X411.064 Y361.927
X410.914 Y361.884
X410.745 Y361.826
X410.571 Y361.755
X410.379 Y361.663
X410.18 Y361.555
X409.97 Y361.424
X409.743 Y361.265
X409.519 Y361.087
X409.271 Y360.867
X409.028 Y360.625
X408.774 Y360.342
X408.506 Y360.009
X408.253 Y359.653
X407.994 Y359.243
X407.736 Y358.779
X407.487 Y358.264
X407.253 Y357.703
X407.045 Y357.11
X406.87 Y356.507
X406.725 Y355.896
X406.611 Y355.279
X406.526 Y354.657
X406.47 Y354.031
X406.443 Y353.404
X406.445 Y352.776
X406.478 Y352.149
X406.544 Y351.53
X406.632 Y350.989
X406.741 Y350.499
X406.856 Y350.089
X406.977 Y349.737
X407.091 Y349.456
X407.22 Y349.185
X407.345 Y348.957
X407.353 Y348.944
X407.555 Y348.673
X407.799 Y348.44
X408.08 Y348.252
X408.388 Y348.113
X408.715 Y348.029
X409.051 Y348
X410.38
G3 X410.956 Y348.543 I-0.021 J0.6
G1 X412.167 Y361.344
G3 X411.818 Y361.946 I-0.597 J0.056
X411.59 Y362 I-0.249 J-0.546
G1 X410.331
X410.129 Y361.99
X410.005 Y361.977
X409.878 Y361.956
X409.732 Y361.923
X409.582 Y361.881
X409.413 Y361.823
X409.24 Y361.752
X409.048 Y361.66
X408.849 Y361.552
X408.639 Y361.421
X408.413 Y361.262
X408.188 Y361.084
X407.941 Y360.865
X407.698 Y360.623
X407.444 Y360.34
X407.177 Y360.007
X406.923 Y359.652
X406.665 Y359.242
X406.407 Y358.778
X406.158 Y358.263
X405.924 Y357.702
X405.716 Y357.109
X405.541 Y356.507
X405.397 Y355.895
X405.282 Y355.278
X405.197 Y354.656
X405.141 Y354.031
X405.114 Y353.403
X405.116 Y352.775
X405.15 Y352.148
X405.215 Y351.529
X405.303 Y350.989
X405.412 Y350.498
X405.527 Y350.088
X405.648 Y349.736
X405.763 Y349.456
X405.892 Y349.185
X406.016 Y348.957
X406.024 Y348.944
X406.226 Y348.673
X406.471 Y348.44
X406.751 Y348.252
X407.059 Y348.113
X407.386 Y348.029
X407.723 Y348
X409.051
G3 X409.279 Y348.054 I-0.021 J0.6
X409.627 Y348.54 I-0.249 J0.546
G1 X410.907 Y361.341
G3 X410.558 Y361.946 I-0.597 J0.06
X410.331 Y362 I-0.249 J-0.546
G1 X408.972
X408.804 Y361.992
X408.68 Y361.978
X408.552 Y361.957
X408.405 Y361.925
X408.256 Y361.882
X408.086 Y361.824
X407.913 Y361.753
X407.72 Y361.662
X407.521 Y361.553
X407.311 Y361.422
X407.085 Y361.263
X406.86 Y361.085
X406.613 Y360.865
X406.37 Y360.624
X406.116 Y360.341
X405.848 Y360.007
X405.595 Y359.652
X405.336 Y359.242
X405.078 Y358.778
X404.829 Y358.263
X404.596 Y357.702
X404.388 Y357.109
X404.212 Y356.506
X404.068 Y355.895
X403.954 Y355.278
X403.869 Y354.656
X403.813 Y354.03
X403.785 Y353.403
X403.788 Y352.775
X403.821 Y352.148
X403.886 Y351.529
X403.975 Y350.989
X404.083 Y350.498
X404.199 Y350.088
X404.32 Y349.736
X404.434 Y349.456
X404.563 Y349.185
X404.687 Y348.957
X404.695 Y348.944
X404.897 Y348.673
X405.142 Y348.44
X405.422 Y348.252
X405.73 Y348.113
X406.057 Y348.029
X406.394 Y348
X407.723
G3 X407.95 Y348.054 I-0.021 J0.6
X408.299 Y348.541 I-0.249 J0.546
G1 X409.548 Y361.342
G3 X409.199 Y361.946 I-0.597 J0.058
X408.972 Y362 I-0.249 J-0.546
G1 X407.631
X407.476 Y361.992
X407.352 Y361.979
X407.224 Y361.958
X407.077 Y361.925
X406.927 Y361.883
X406.758 Y361.825
X406.584 Y361.754
X406.392 Y361.662
X406.193 Y361.553
X405.983 Y361.423
X405.757 Y361.263
X405.532 Y361.085
X405.285 Y360.866
X405.042 Y360.624
X404.787 Y360.341
X404.52 Y360.007
X404.266 Y359.652
X404.007 Y359.242
X403.75 Y358.778
X403.501 Y358.263
X403.267 Y357.702
X403.059 Y357.109
X402.884 Y356.506
X402.739 Y355.895
X402.625 Y355.278
X402.54 Y354.656
X402.484 Y354.03
X402.457 Y353.403
X402.459 Y352.775
X402.492 Y352.148
X402.558 Y351.529
X402.646 Y350.989
X402.755 Y350.498
X402.87 Y350.088
X402.991 Y349.736
X403.105 Y349.456
X403.234 Y349.185
X403.359 Y348.957
X403.367 Y348.944
X403.569 Y348.673
X403.813 Y348.44
X404.094 Y348.252
X404.402 Y348.113
X404.729 Y348.029
X405.065 Y348
X406.394
G3 X406.622 Y348.054 I-0.021 J0.6
X406.97 Y348.542 I-0.249 J0.546
G1 X408.207 Y361.343
G3 X407.631 Y362 I-0.597 J0.058
G1 X406.272
X406.149 Y361.994
X406.024 Y361.981
X405.897 Y361.96
X405.75 Y361.927
X405.6 Y361.885
X405.43 Y361.826
X405.257 Y361.755
X405.064 Y361.664
X404.865 Y361.555
X404.655 Y361.424
X404.429 Y361.265
X404.204 Y361.087
X403.957 Y360.867
X403.713 Y360.625
X403.459 Y360.342
X403.191 Y360.008
X402.938 Y359.653
X402.679 Y359.243
X402.421 Y358.779
X402.172 Y358.264
X401.938 Y357.702
X401.73 Y357.11
X401.555 Y356.507
X401.411 Y355.896
X401.296 Y355.278
X401.211 Y354.656
X401.155 Y354.031
X401.128 Y353.404
X401.13 Y352.776
X401.163 Y352.149
X401.229 Y351.529
X401.317 Y350.989
X401.426 Y350.499
X401.541 Y350.089
X401.662 Y349.737
X401.777 Y349.456
X401.905 Y349.185
X402.03 Y348.957
X402.038 Y348.944
X402.24 Y348.673
X402.484 Y348.44
X402.765 Y348.252
X403.073 Y348.113
X403.4 Y348.029
X403.736 Y348
X405.065
G3 X405.293 Y348.054 I-0.021 J0.6
X405.642 Y348.543 I-0.249 J0.546
G1 X406.848 Y361.344
G3 X406.5 Y361.946 I-0.597 J0.056
X406.272 Y362 I-0.249 J-0.546
G1 X404.931
X404.82 Y361.994
X404.696 Y361.981
X404.568 Y361.96
X404.421 Y361.928
X404.271 Y361.885
X404.102 Y361.827
X403.928 Y361.756
X403.736 Y361.664
X403.537 Y361.555
X403.327 Y361.424
X403.1 Y361.265
X402.876 Y361.087
X402.628 Y360.867
X402.385 Y360.626
X402.13 Y360.343
X401.863 Y360.009
X401.609 Y359.653
X401.35 Y359.243
X401.092 Y358.779
X400.843 Y358.264
X400.61 Y357.703
X400.402 Y357.11
X400.226 Y356.507
X400.082 Y355.896
X399.968 Y355.279
X399.883 Y354.657
X399.827 Y354.031
X399.799 Y353.404
X399.801 Y352.776
X399.835 Y352.149
X399.9 Y351.53
X399.988 Y350.989
X400.097 Y350.499
X400.213 Y350.089
X400.333 Y349.737
X400.448 Y349.456
X400.577 Y349.185
X400.701 Y348.957
X400.709 Y348.944
X400.911 Y348.673
X401.156 Y348.44
X401.436 Y348.252
X401.744 Y348.113
X402.071 Y348.029
X402.408 Y348
X403.736
G3 X403.964 Y348.054 I-0.021 J0.6
X404.313 Y348.544 I-0.249 J0.546
G1 X405.507 Y361.345
G3 X405.159 Y361.946 I-0.597 J0.056
X404.931 Y362 I-0.249 J-0.546
G1 X403.671
X403.487 Y361.991
X403.363 Y361.978
X403.235 Y361.957
X403.089 Y361.924
X402.939 Y361.882
X402.77 Y361.824
X402.597 Y361.753
X402.405 Y361.661
X402.206 Y361.552
X401.996 Y361.422
X401.77 Y361.263
X401.545 Y361.085
X401.298 Y360.865
X401.055 Y360.624
X400.801 Y360.341
X400.533 Y360.007
X400.28 Y359.652
X400.021 Y359.242
X399.764 Y358.778
X399.515 Y358.264
X399.281 Y357.702
X399.073 Y357.11
X398.897 Y356.507
X398.753 Y355.896
X398.639 Y355.278
X398.554 Y354.656
X398.498 Y354.031
X398.471 Y353.403
X398.473 Y352.776
X398.506 Y352.149
X398.572 Y351.529
X398.66 Y350.989
X398.768 Y350.499
X398.884 Y350.089
X399.005 Y349.737
X399.119 Y349.456
X399.248 Y349.185
X399.372 Y348.957
X399.38 Y348.944
X399.582 Y348.673
X399.827 Y348.44
X400.107 Y348.252
X400.415 Y348.113
X400.742 Y348.029
X401.079 Y348
X402.408
G3 X402.636 Y348.054 I-0.021 J0.6
X402.984 Y348.541 I-0.249 J0.546
G1 X404.247 Y361.341
G3 X403.899 Y361.946 I-0.597 J0.059
X403.671 Y362 I-0.249 J-0.546
G1 X402.312
X402.161 Y361.992
X402.037 Y361.979
X401.909 Y361.958
X401.762 Y361.926
X401.613 Y361.883
X401.443 Y361.825
X401.27 Y361.754
X401.077 Y361.662
X400.878 Y361.553
X400.668 Y361.423
X400.442 Y361.263
X400.217 Y361.086
X399.97 Y360.866
X399.727 Y360.624
X399.472 Y360.341
X399.205 Y360.008
X398.951 Y359.652
X398.693 Y359.242
X398.435 Y358.778
X398.186 Y358.263
X397.952 Y357.702
X397.744 Y357.11
X397.569 Y356.507
X397.424 Y355.896
X397.31 Y355.278
X397.225 Y354.656
X397.169 Y354.031
X397.142 Y353.403
X397.144 Y352.775
X397.177 Y352.148
X397.243 Y351.529
X397.331 Y350.989
X397.44 Y350.499
X397.555 Y350.089
X397.676 Y349.737
X397.79 Y349.456
X397.919 Y349.185
X398.044 Y348.957
X398.052 Y348.944
X398.254 Y348.673
X398.498 Y348.44
X398.779 Y348.252
X399.087 Y348.113
X399.414 Y348.029
X399.75 Y348
X401.079
G3 X401.307 Y348.054 I-0.021 J0.6
X401.655 Y348.542 I-0.249 J0.546
G1 X402.888 Y361.343
G3 X402.54 Y361.946 I-0.597 J0.058
X402.312 Y362 I-0.249 J-0.546
G1 X400.971
X400.833 Y361.993
X400.708 Y361.98
X400.581 Y361.959
X400.434 Y361.926
X400.284 Y361.884
X400.115 Y361.825
X399.941 Y361.755
X399.749 Y361.663
X399.55 Y361.554
X399.34 Y361.423
X399.114 Y361.264
X398.889 Y361.086
X398.641 Y360.866
X398.398 Y360.625
X398.144 Y360.342
X397.876 Y360.008
X397.623 Y359.653
X397.364 Y359.243
X397.106 Y358.778
X396.857 Y358.264
X396.624 Y357.702
X396.415 Y357.11
X396.24 Y356.507
X396.096 Y355.896
X395.982 Y355.278
X395.896 Y354.656
X395.84 Y354.031
X395.813 Y353.404
X395.815 Y352.776
X395.849 Y352.149
X395.914 Y351.529
X396.002 Y350.989
X396.111 Y350.499
X396.226 Y350.089
X396.347 Y349.737
X396.462 Y349.456
X396.591 Y349.185
X396.715 Y348.957
X396.723 Y348.944
X396.925 Y348.673
X397.17 Y348.44
X397.45 Y348.252
X397.758 Y348.113
X398.085 Y348.029
X398.422 Y348
X399.75
G3 X399.978 Y348.054 I-0.021 J0.6
X400.327 Y348.543 I-0.249 J0.546
G1 X401.547 Y361.343
G3 X401.199 Y361.946 I-0.597 J0.057
X400.971 Y362 I-0.249 J-0.546
G1 X399.612
X399.505 Y361.995
X399.381 Y361.981
X399.254 Y361.96
X399.107 Y361.928
X398.957 Y361.885
X398.787 Y361.827
X398.614 Y361.756
X398.421 Y361.664
X398.222 Y361.555
X398.012 Y361.425
X397.786 Y361.265
X397.561 Y361.087
X397.313 Y360.868
X397.07 Y360.626
X396.815 Y360.343
X396.548 Y360.009
X396.294 Y359.653
X396.035 Y359.243
X395.778 Y358.779
X395.529 Y358.264
X395.295 Y357.703
X395.087 Y357.11
X394.911 Y356.507
X394.767 Y355.896
X394.653 Y355.279
X394.568 Y354.657
X394.512 Y354.031
X394.484 Y353.404
X394.487 Y352.776
X394.52 Y352.149
X394.585 Y351.53
X394.674 Y350.989
X394.782 Y350.499
X394.898 Y350.089
X395.019 Y349.737
X395.133 Y349.456
X395.262 Y349.185
X395.386 Y348.957
X395.394 Y348.944
X395.596 Y348.673
X395.841 Y348.44
X396.121 Y348.252
X396.429 Y348.113
X396.756 Y348.029
X397.093 Y348
X398.422
G3 X398.649 Y348.054 I-0.021 J0.6
X398.998 Y348.544 I-0.249 J0.546
G1 X400.189 Y361.345
G3 X399.84 Y361.946 I-0.597 J0.056
X399.612 Y362 I-0.249 J-0.546
G1 X398.271
X398.177 Y361.995
X398.052 Y361.982
X397.925 Y361.961
X397.778 Y361.928
X397.628 Y361.886
X397.458 Y361.828
X397.285 Y361.757
X397.092 Y361.665
X396.893 Y361.556
X396.683 Y361.425
X396.457 Y361.266
X396.232 Y361.088
X395.985 Y360.868
X395.741 Y360.627
X395.487 Y360.343
X395.219 Y360.01
X394.966 Y359.654
X394.707 Y359.244
X394.449 Y358.78
X394.2 Y358.265
X393.966 Y357.703
X393.758 Y357.111
X393.583 Y356.508
X393.438 Y355.897
X393.324 Y355.279
X393.239 Y354.657
X393.183 Y354.032
X393.156 Y353.405
X393.158 Y352.777
X393.191 Y352.15
X393.257 Y351.53
X393.345 Y350.99
X393.453 Y350.499
X393.569 Y350.089
X393.69 Y349.737
X393.804 Y349.457
X393.933 Y349.185
X394.057 Y348.958
X394.065 Y348.944
X394.267 Y348.673
X394.512 Y348.44
X394.792 Y348.252
X395.1 Y348.113
X395.428 Y348.029
X395.764 Y348
X397.093
G3 X397.321 Y348.054 I-0.021 J0.6
X397.669 Y348.545 I-0.249 J0.546
G1 X398.848 Y361.345
G3 X398.499 Y361.946 I-0.597 J0.055
X398.271 Y362 I-0.249 J-0.546
G1 X397.011
X396.843 Y361.992
X396.719 Y361.978
X396.592 Y361.957
X396.446 Y361.925
X396.296 Y361.883
X396.127 Y361.824
X395.953 Y361.753
X395.761 Y361.662
X395.562 Y361.553
X395.353 Y361.423
X395.126 Y361.263
X394.902 Y361.086
X394.655 Y360.866
X394.412 Y360.625
X394.157 Y360.342
X393.89 Y360.008
X393.636 Y359.653
X393.378 Y359.243
X393.12 Y358.779
X392.871 Y358.264
X392.637 Y357.703
X392.429 Y357.11
X392.254 Y356.507
X392.11 Y355.896
X391.995 Y355.279
X391.91 Y354.657
X391.854 Y354.031
X391.827 Y353.404
X391.829 Y352.776
X391.862 Y352.149
X391.928 Y351.53
X392.016 Y350.989
X392.125 Y350.499
X392.24 Y350.089
X392.361 Y349.737
X392.475 Y349.456
X392.604 Y349.185
X392.729 Y348.957
X392.737 Y348.944
X392.939 Y348.673
X393.183 Y348.44
X393.464 Y348.252
X393.772 Y348.113
X394.099 Y348.029
X394.435 Y348
X395.764
G3 X395.992 Y348.054 I-0.021 J0.6
X396.34 Y348.541 I-0.249 J0.546
G1 X397.588 Y361.342
G3 X397.239 Y361.946 I-0.597 J0.058
X397.011 Y362 I-0.249 J-0.546
G1 X395.652
X395.518 Y361.993
X395.393 Y361.98
X395.266 Y361.959
X395.119 Y361.926
X394.969 Y361.884
X394.8 Y361.826
X394.626 Y361.755
X394.434 Y361.663
X394.235 Y361.554
X394.025 Y361.424
X393.798 Y361.264
X393.574 Y361.086
X393.326 Y360.867
X393.083 Y360.625
X392.829 Y360.342
X392.561 Y360.008
X392.308 Y359.653
X392.049 Y359.243
X391.791 Y358.779
X391.542 Y358.264
X391.309 Y357.703
X391.101 Y357.11
X390.925 Y356.507
X390.781 Y355.896
X390.667 Y355.279
X390.582 Y354.657
X390.525 Y354.031
X390.498 Y353.404
X390.5 Y352.776
X390.534 Y352.149
X390.599 Y351.53
X390.687 Y350.989
X390.796 Y350.499
X390.911 Y350.089
X391.032 Y349.737
X391.147 Y349.456
X391.276 Y349.185
X391.4 Y348.957
X391.408 Y348.944
X391.61 Y348.673
X391.855 Y348.44
X392.135 Y348.252
X392.443 Y348.113
X392.77 Y348.029
X393.107 Y348
X394.435
G3 X394.663 Y348.054 I-0.021 J0.6
X395.012 Y348.543 I-0.249 J0.546
G1 X396.229 Y361.344
G3 X395.88 Y361.946 I-0.597 J0.057
X395.652 Y362 I-0.249 J-0.546
G1 X394.312
X394.189 Y361.994
X394.065 Y361.981
X393.937 Y361.96
X393.791 Y361.927
X393.641 Y361.885
X393.471 Y361.826
X393.298 Y361.755
X393.105 Y361.664
X392.906 Y361.555
X392.696 Y361.424
X392.47 Y361.265
X392.245 Y361.087
X391.998 Y360.867
X391.755 Y360.626
X391.5 Y360.342
X391.233 Y360.009
X390.979 Y359.653
X390.72 Y359.243
X390.463 Y358.779
X390.214 Y358.264
X389.98 Y357.703
X389.772 Y357.11
X389.596 Y356.507
X389.452 Y355.896
X389.338 Y355.279
X389.253 Y354.657
X389.197 Y354.031
X389.169 Y353.404
X389.172 Y352.776
X389.205 Y352.149
X389.27 Y351.53
X389.359 Y350.989
X389.467 Y350.499
X389.583 Y350.089
X389.704 Y349.737
X389.818 Y349.456
X389.947 Y349.185
X390.071 Y348.957
X390.079 Y348.944
X390.281 Y348.673
X390.526 Y348.44
X390.806 Y348.252
X391.114 Y348.113
X391.441 Y348.029
X391.778 Y348
X393.107
G3 X393.335 Y348.054 I-0.021 J0.6
X393.683 Y348.543 I-0.249 J0.546
G1 X394.888 Y361.344
G3 X394.539 Y361.946 I-0.597 J0.056
X394.312 Y362 I-0.249 J-0.546
G1 X393.052
X392.856 Y361.99
X392.732 Y361.977
X392.605 Y361.956
X392.459 Y361.924
X392.309 Y361.881
X392.14 Y361.823
X391.966 Y361.752
X391.774 Y361.661
X391.575 Y361.552
X391.366 Y361.421
X391.14 Y361.262
X390.915 Y361.084
X390.668 Y360.865
X390.425 Y360.623
X390.171 Y360.341
X389.903 Y360.007
X389.65 Y359.652
X389.391 Y359.242
X389.134 Y358.778
X388.885 Y358.263
X388.651 Y357.702
X388.443 Y357.11
X388.268 Y356.507
X388.123 Y355.896
X388.009 Y355.278
X387.924 Y354.656
X387.868 Y354.031
X387.841 Y353.403
X387.843 Y352.776
X387.876 Y352.148
X387.942 Y351.529
X388.03 Y350.989
X388.139 Y350.499
X388.254 Y350.089
X388.375 Y349.737
X388.489 Y349.456
X388.618 Y349.185
X388.743 Y348.957
X388.751 Y348.944
X388.953 Y348.673
X389.197 Y348.44
X389.478 Y348.252
X389.786 Y348.113
X390.113 Y348.029
X390.449 Y348
X391.778
G3 X392.006 Y348.054 I-0.021 J0.6
X392.354 Y348.54 I-0.249 J0.546
G1 X393.628 Y361.341
G3 X393.28 Y361.946 I-0.597 J0.059
X393.052 Y362 I-0.249 J-0.546
G1 X391.693
X391.531 Y361.992
X391.406 Y361.979
X391.279 Y361.958
X391.132 Y361.925
X390.982 Y361.883
X390.813 Y361.824
X390.639 Y361.753
X390.447 Y361.662
X390.248 Y361.553
X390.038 Y361.422
X389.812 Y361.263
X389.587 Y361.085
X389.34 Y360.866
X389.097 Y360.624
X388.842 Y360.341
X388.575 Y360.007
X388.321 Y359.652
X388.063 Y359.242
X387.805 Y358.778
X387.556 Y358.263
X387.322 Y357.702
X387.114 Y357.109
X386.939 Y356.507
X386.795 Y355.895
X386.68 Y355.278
X386.595 Y354.656
X386.539 Y354.031
X386.512 Y353.403
X386.514 Y352.775
X386.547 Y352.148
X386.613 Y351.529
X386.701 Y350.989
X386.81 Y350.498
X386.925 Y350.088
X387.046 Y349.737
X387.161 Y349.456
X387.29 Y349.185
X387.414 Y348.957
X387.422 Y348.944
X387.624 Y348.673
X387.869 Y348.44
X388.149 Y348.252
X388.457 Y348.113
X388.784 Y348.029
X389.121 Y348
X390.449
G3 X390.677 Y348.054 I-0.021 J0.6
X391.026 Y348.542 I-0.249 J0.546
G1 X392.269 Y361.342
G3 X391.921 Y361.946 I-0.597 J0.058
X391.693 Y362 I-0.249 J-0.546
G1 X390.352
X390.203 Y361.993
X390.078 Y361.979
X389.951 Y361.958
X389.804 Y361.926
X389.654 Y361.883
X389.485 Y361.825
X389.311 Y361.754
X389.119 Y361.662
X388.92 Y361.554
X388.71 Y361.423
X388.483 Y361.264
X388.259 Y361.086
X388.011 Y360.866
X387.768 Y360.624
X387.514 Y360.341
X387.246 Y360.008
X386.993 Y359.652
X386.734 Y359.242
X386.476 Y358.778
X386.227 Y358.263
X385.994 Y357.702
X385.786 Y357.11
X385.61 Y356.507
X385.466 Y355.896
X385.352 Y355.278
X385.267 Y354.656
X385.211 Y354.031
X385.183 Y353.403
X385.186 Y352.775
X385.219 Y352.148
X385.284 Y351.529
X385.373 Y350.989
X385.481 Y350.499
X385.597 Y350.089
X385.718 Y349.737
X385.832 Y349.456
X385.961 Y349.185
X386.085 Y348.957
X386.093 Y348.944
X386.295 Y348.673
X386.54 Y348.44
X386.82 Y348.252
X387.128 Y348.113
X387.455 Y348.029
X387.792 Y348
X389.121
G3 X389.348 Y348.054 I-0.021 J0.6
X389.697 Y348.542 I-0.249 J0.546
G1 X390.928 Y361.343
G3 X390.58 Y361.946 I-0.597 J0.057
X390.352 Y362 I-0.249 J-0.546
G1 X388.993
X388.875 Y361.994
X388.751 Y361.981
X388.623 Y361.96
X388.477 Y361.927
X388.327 Y361.885
X388.157 Y361.826
X387.984 Y361.756
X387.791 Y361.664
X387.592 Y361.555
X387.382 Y361.424
X387.156 Y361.265
X386.931 Y361.087
X386.683 Y360.867
X386.44 Y360.625
X386.186 Y360.342
X385.918 Y360.009
X385.664 Y359.653
X385.406 Y359.243
X385.148 Y358.779
X384.899 Y358.264
X384.665 Y357.702
X384.457 Y357.11
X384.282 Y356.507
X384.137 Y355.896
X384.023 Y355.279
X383.938 Y354.656
X383.882 Y354.031
X383.855 Y353.404
X383.857 Y352.776
X383.89 Y352.149
X383.956 Y351.53
X384.044 Y350.989
X384.152 Y350.499
X384.268 Y350.089
X384.389 Y349.737
X384.503 Y349.456
X384.632 Y349.185
X384.756 Y348.957
X384.764 Y348.944
X384.966 Y348.673
X385.211 Y348.44
X385.491 Y348.252
X385.799 Y348.113
X386.126 Y348.029
X386.463 Y348
X387.792
G3 X388.02 Y348.054 I-0.021 J0.6
X388.368 Y348.544 I-0.249 J0.546
G1 X389.569 Y361.344
G3 X389.221 Y361.946 I-0.597 J0.056
X388.993 Y362 I-0.249 J-0.546
G1 X387.652
X387.547 Y361.995
X387.422 Y361.981
X387.295 Y361.961
X387.148 Y361.928
X386.998 Y361.886
X386.828 Y361.827
X386.655 Y361.756
X386.462 Y361.664
X386.263 Y361.556
X386.053 Y361.425
X385.827 Y361.265
X385.602 Y361.087
X385.355 Y360.868
X385.112 Y360.626
X384.857 Y360.343
X384.589 Y360.009
X384.336 Y359.654
X384.077 Y359.244
X383.819 Y358.779
X383.57 Y358.264
X383.336 Y357.703
X383.128 Y357.11
X382.953 Y356.508
X382.809 Y355.896
X382.694 Y355.279
X382.609 Y354.657
X382.553 Y354.032
X382.526 Y353.404
X382.528 Y352.776
X382.561 Y352.149
X382.627 Y351.53
X382.715 Y350.989
X382.824 Y350.499
X382.939 Y350.089
X383.06 Y349.737
X383.174 Y349.456
X383.303 Y349.185
X383.428 Y348.957
X383.436 Y348.944
X383.638 Y348.673
X383.882 Y348.44
X384.163 Y348.252
X384.471 Y348.113
X384.798 Y348.029
X385.134 Y348
X386.463
G3 X387.04 Y348.544 I-0.021 J0.6
G1 X388.229 Y361.345
G3 X387.652 Y362 I-0.597 J0.055
G1 X386.392
X386.213 Y361.991
X386.089 Y361.978
X385.962 Y361.957
X385.816 Y361.924
X385.666 Y361.882
X385.497 Y361.824
X385.323 Y361.753
X385.131 Y361.661
X384.932 Y361.553
X384.723 Y361.422
X384.496 Y361.263
X384.272 Y361.085
X384.025 Y360.866
X383.782 Y360.624
X383.527 Y360.341
X383.26 Y360.008
X383.007 Y359.652
X382.748 Y359.242
X382.49 Y358.778
X382.241 Y358.264
X382.008 Y357.702
X381.8 Y357.11
X381.624 Y356.507
X381.48 Y355.896
X381.366 Y355.278
X381.281 Y354.656
X381.224 Y354.031
X381.197 Y353.404
X381.199 Y352.776
X381.233 Y352.149
X381.298 Y351.529
X381.386 Y350.989
X381.495 Y350.499
X381.611 Y350.089
X381.731 Y349.737
X381.846 Y349.456
X381.975 Y349.185
X382.099 Y348.957
X382.107 Y348.944
X382.309 Y348.673
X382.554 Y348.44
X382.834 Y348.252
X383.142 Y348.113
X383.469 Y348.029
X383.806 Y348
X385.134
G3 X385.362 Y348.054 I-0.021 J0.6
X385.711 Y348.541 I-0.249 J0.546
G1 X386.968 Y361.342
G3 X386.392 Y362 I-0.597 J0.059
G1 X385.033
X384.888 Y361.993
X384.763 Y361.979
X384.636 Y361.958
X384.489 Y361.926
X384.339 Y361.884
X384.17 Y361.825
X383.996 Y361.754
X383.804 Y361.663
X383.605 Y361.554
X383.395 Y361.423
X383.169 Y361.264
X382.944 Y361.086
X382.697 Y360.866
X382.453 Y360.625
X382.199 Y360.342
X381.931 Y360.008
X381.678 Y359.653
X381.419 Y359.243
X381.161 Y358.778
X380.913 Y358.264
X380.679 Y357.702
X380.471 Y357.11
X380.295 Y356.507
X380.151 Y355.896
X380.037 Y355.278
X379.952 Y354.656
X379.896 Y354.031
X379.868 Y353.404
X379.871 Y352.776
X379.904 Y352.149
X379.969 Y351.529
X380.058 Y350.989
X380.166 Y350.499
X380.282 Y350.089
X380.403 Y349.737
X380.517 Y349.456
X380.646 Y349.185
X380.77 Y348.957
X380.778 Y348.944
X380.98 Y348.673
X381.225 Y348.44
X381.505 Y348.252
X381.813 Y348.113
X382.14 Y348.029
X382.477 Y348
X383.806
G3 X384.034 Y348.054 I-0.021 J0.6
X384.382 Y348.542 I-0.249 J0.546
G1 X385.609 Y361.343
G3 X385.261 Y361.946 I-0.597 J0.057
X385.033 Y362 I-0.249 J-0.546
G1 X383.692
X383.559 Y361.993
X383.435 Y361.98
X383.308 Y361.959
X383.161 Y361.926
X383.011 Y361.884
X382.841 Y361.826
X382.668 Y361.755
X382.475 Y361.663
X382.276 Y361.554
X382.066 Y361.424
X381.84 Y361.264
X381.615 Y361.086
X381.368 Y360.867
X381.125 Y360.625
X380.87 Y360.342
X380.603 Y360.008
X380.349 Y359.653
X380.091 Y359.243
X379.833 Y358.779
X379.584 Y358.264
X379.35 Y357.702
X379.142 Y357.11
X378.967 Y356.507
X378.822 Y355.896
X378.708 Y355.279
X378.623 Y354.656
X378.567 Y354.031
X378.54 Y353.404
X378.542 Y352.776
X378.575 Y352.149
X378.641 Y351.53
X378.729 Y350.989
X378.838 Y350.499
X378.953 Y350.089
X379.074 Y349.737
X379.188 Y349.456
X379.317 Y349.185
X379.441 Y348.957
X379.45 Y348.944
X379.652 Y348.673
X379.896 Y348.44
X380.177 Y348.252
X380.485 Y348.113
X380.812 Y348.029
X381.148 Y348
X382.477
G3 X382.705 Y348.054 I-0.021 J0.6
X383.053 Y348.543 I-0.249 J0.546
G1 X384.269 Y361.344
G3 X383.92 Y361.946 I-0.597 J0.057
X383.692 Y362 I-0.249 J-0.546
G1 X382.333
X382.232 Y361.995
X382.108 Y361.982
X381.98 Y361.961
X381.833 Y361.928
X381.684 Y361.886
X381.514 Y361.827
X381.34 Y361.756
X381.148 Y361.665
X380.949 Y361.556
X380.739 Y361.425
X380.512 Y361.266
X380.287 Y361.088
X380.04 Y360.868
X379.797 Y360.626
X379.542 Y360.343
X379.274 Y360.009
X379.021 Y359.654
X378.762 Y359.244
X378.504 Y358.779
X378.255 Y358.264
X378.022 Y357.703
X377.813 Y357.11
X377.638 Y356.508
X377.494 Y355.896
X377.379 Y355.279
X377.294 Y354.657
X377.238 Y354.032
X377.211 Y353.404
X377.213 Y352.776
X377.246 Y352.149
X377.312 Y351.53
X377.4 Y350.989
X377.509 Y350.499
X377.624 Y350.089
X377.745 Y349.737
X377.859 Y349.456
X377.988 Y349.185
X378.113 Y348.957
X378.121 Y348.944
X378.323 Y348.673
X378.567 Y348.44
X378.848 Y348.252
X379.156 Y348.113
X379.483 Y348.029
X379.82 Y348
X381.148
G3 X381.376 Y348.054 I-0.021 J0.6
X381.725 Y348.544 I-0.249 J0.546
G1 X382.91 Y361.345
G3 X382.561 Y361.946 I-0.597 J0.055
X382.333 Y362 I-0.249 J-0.546
G1 X381.073
X380.899 Y361.991
X380.775 Y361.978
X380.647 Y361.957
X380.501 Y361.925
X380.351 Y361.882
X380.182 Y361.824
X380.009 Y361.753
X379.816 Y361.662
X379.617 Y361.553
X379.408 Y361.422
X379.182 Y361.263
X378.957 Y361.085
X378.71 Y360.866
X378.467 Y360.624
X378.213 Y360.341
X377.945 Y360.008
X377.692 Y359.652
X377.433 Y359.243
X377.175 Y358.779
X376.926 Y358.264
X376.693 Y357.702
X376.485 Y357.11
X376.309 Y356.507
X376.165 Y355.896
X376.051 Y355.279
X375.966 Y354.656
X375.91 Y354.031
X375.882 Y353.404
X375.884 Y352.776
X375.918 Y352.149
X375.983 Y351.53
X376.071 Y350.989
X376.18 Y350.499
X376.296 Y350.089
X376.417 Y349.737
X376.531 Y349.456
X376.66 Y349.185
X376.784 Y348.957
X376.792 Y348.944
X376.994 Y348.673
X377.239 Y348.44
X377.519 Y348.252
X377.827 Y348.113
X378.154 Y348.029
X378.491 Y348
X379.82
G3 X380.047 Y348.054 I-0.021 J0.6
X380.396 Y348.541 I-0.249 J0.546
G1 X381.65 Y361.342
G3 X381.301 Y361.946 I-0.597 J0.059
X381.073 Y362 I-0.249 J-0.546
G1 X379.733
X379.572 Y361.992
X379.448 Y361.979
X379.32 Y361.958
X379.173 Y361.925
X379.024 Y361.883
X378.854 Y361.824
X378.681 Y361.754
X378.488 Y361.662
X378.289 Y361.553
X378.08 Y361.422
X377.853 Y361.263
X377.629 Y361.085
X377.381 Y360.866
X377.138 Y360.624
X376.884 Y360.341
X376.616 Y360.008
X376.363 Y359.652
X376.104 Y359.242
X375.847 Y358.778
X375.598 Y358.264
X375.364 Y357.702
X375.156 Y357.11
X374.98 Y356.507
X374.836 Y355.896
X374.722 Y355.278
X374.637 Y354.656
X374.581 Y354.031
X374.554 Y353.404
X374.556 Y352.776
X374.589 Y352.149
X374.655 Y351.529
X374.743 Y350.989
X374.851 Y350.499
X374.967 Y350.089
X375.088 Y349.737
X375.202 Y349.456
X375.331 Y349.185
X375.455 Y348.957
X375.463 Y348.944
X375.665 Y348.673
X375.91 Y348.44
X376.19 Y348.252
X376.498 Y348.113
X376.825 Y348.029
X377.162 Y348
X378.491
G3 X378.719 Y348.054 I-0.021 J0.6
X379.067 Y348.542 I-0.249 J0.546
G1 X380.309 Y361.342
G3 X379.96 Y361.946 I-0.597 J0.058
X379.733 Y362 I-0.249 J-0.546
G1 X378.374
X378.245 Y361.994
X378.121 Y361.98
X377.993 Y361.959
X377.846 Y361.927
X377.696 Y361.884
X377.527 Y361.826
X377.353 Y361.755
X377.161 Y361.663
X376.962 Y361.554
X376.752 Y361.424
X376.525 Y361.264
X376.301 Y361.086
X376.053 Y360.867
X375.81 Y360.625
X375.556 Y360.342
X375.288 Y360.008
X375.035 Y359.653
X374.776 Y359.243
X374.518 Y358.779
X374.269 Y358.264
X374.035 Y357.702
X373.827 Y357.11
X373.652 Y356.507
X373.507 Y355.896
X373.393 Y355.279
X373.308 Y354.656
X373.252 Y354.031
X373.225 Y353.404
X373.227 Y352.776
X373.26 Y352.149
X373.326 Y351.53
X373.414 Y350.989
X373.523 Y350.499
X373.638 Y350.089
X373.759 Y349.737
X373.873 Y349.456
X374.002 Y349.185
X374.127 Y348.957
X374.135 Y348.944
X374.337 Y348.673
X374.581 Y348.44
X374.862 Y348.252
X375.17 Y348.113
X375.497 Y348.029
X375.833 Y348
X377.162
G3 X377.39 Y348.054 I-0.021 J0.6
X377.738 Y348.543 I-0.249 J0.546
G1 X378.95 Y361.344
G3 X378.602 Y361.946 I-0.597 J0.057
X378.374 Y362 I-0.249 J-0.546
G1 X377.033
X376.916 Y361.994
X376.792 Y361.981
X376.665 Y361.96
X376.518 Y361.927
X376.368 Y361.885
X376.198 Y361.827
X376.025 Y361.756
X375.832 Y361.664
X375.633 Y361.555
X375.423 Y361.424
X375.197 Y361.265
X374.972 Y361.087
X374.725 Y360.867
X374.482 Y360.626
X374.227 Y360.343
X373.959 Y360.009
X373.706 Y359.653
X373.447 Y359.243
X373.189 Y358.779
X372.94 Y358.264
X372.707 Y357.703
X372.499 Y357.11
X372.323 Y356.507
X372.179 Y355.896
X372.065 Y355.279
X371.98 Y354.657
X371.923 Y354.031
X371.896 Y353.404
X371.898 Y352.776
X371.931 Y352.149
X371.997 Y351.53
X372.085 Y350.989
X372.194 Y350.499
X372.309 Y350.089
X372.43 Y349.737
X372.545 Y349.456
X372.673 Y349.185
X372.798 Y348.957
X372.806 Y348.944
X373.008 Y348.673
X373.253 Y348.44
X373.533 Y348.252
X373.841 Y348.113
X374.168 Y348.029
X374.505 Y348
X375.833
G3 X376.061 Y348.054 I-0.021 J0.6
X376.41 Y348.544 I-0.249 J0.546
G1 X377.609 Y361.344
G3 X377.261 Y361.946 I-0.597 J0.056
X377.033 Y362 I-0.249 J-0.546
G1 X375.773
X375.583 Y361.991
X375.459 Y361.977
X375.332 Y361.956
X375.186 Y361.924
X375.036 Y361.882
X374.867 Y361.823
X374.693 Y361.752
X374.501 Y361.661
X374.302 Y361.552
X374.093 Y361.422
X373.866 Y361.262
X373.642 Y361.085
X373.395 Y360.865
X373.152 Y360.624
X372.898 Y360.341
X372.63 Y360.007
X372.377 Y359.652
X372.118 Y359.242
X371.86 Y358.778
X371.611 Y358.263
X371.378 Y357.702
X371.17 Y357.11
X370.994 Y356.507
X370.85 Y355.896
X370.736 Y355.278
X370.651 Y354.656
X370.595 Y354.031
X370.567 Y353.403
X370.57 Y352.776
X370.603 Y352.148
X370.668 Y351.529
X370.757 Y350.989
X370.865 Y350.499
X370.981 Y350.089
X371.102 Y349.737
X371.216 Y349.456
X371.345 Y349.185
X371.469 Y348.957
X371.477 Y348.944
X371.679 Y348.673
X371.924 Y348.44
X372.204 Y348.252
X372.512 Y348.113
X372.839 Y348.029
X373.176 Y348
X374.505
G3 X374.733 Y348.054 I-0.021 J0.6
X375.081 Y348.54 I-0.249 J0.546
G1 X376.349 Y361.341
G3 X376.001 Y361.946 I-0.597 J0.059
X375.773 Y362 I-0.249 J-0.546
G1 X374.414
X374.258 Y361.992
X374.133 Y361.979
X374.006 Y361.958
X373.859 Y361.925
X373.709 Y361.883
X373.54 Y361.825
X373.366 Y361.754
X373.174 Y361.662
X372.975 Y361.553
X372.765 Y361.423
X372.539 Y361.263
X372.314 Y361.085
X372.067 Y360.866
X371.823 Y360.624
X371.569 Y360.341
X371.302 Y360.008
X371.048 Y359.652
X370.789 Y359.242
X370.532 Y358.778
X370.283 Y358.263
X370.049 Y357.702
X369.841 Y357.11
X369.666 Y356.507
X369.521 Y355.896
X369.407 Y355.278
X369.322 Y354.656
X369.266 Y354.031
X369.239 Y353.403
X369.241 Y352.775
X369.274 Y352.148
X369.34 Y351.529
X369.428 Y350.989
X369.537 Y350.499
X369.652 Y350.089
X369.773 Y349.737
X369.887 Y349.456
X370.016 Y349.185
X370.141 Y348.957
X370.149 Y348.944
X370.351 Y348.673
X370.595 Y348.44
X370.876 Y348.252
X371.184 Y348.113
X371.511 Y348.029
X371.847 Y348
X373.176
G3 X373.752 Y348.542 I-0.021 J0.6
G1 X374.99 Y361.343
G3 X374.642 Y361.946 I-0.597 J0.058
X374.414 Y362 I-0.249 J-0.546
G1 X373.073
X372.929 Y361.993
X372.805 Y361.98
X372.678 Y361.959
X372.531 Y361.926
X372.381 Y361.884
X372.211 Y361.825
X372.038 Y361.754
X371.846 Y361.663
X371.646 Y361.554
X371.437 Y361.423
X371.21 Y361.264
X370.986 Y361.086
X370.738 Y360.866
X370.495 Y360.625
X370.241 Y360.342
X369.973 Y360.008
X369.72 Y359.652
X369.461 Y359.242
X369.203 Y358.778
X368.954 Y358.264
X368.72 Y357.702
X368.512 Y357.11
X368.337 Y356.507
X368.193 Y355.896
X368.078 Y355.278
X367.993 Y354.656
X367.937 Y354.031
X367.91 Y353.403
X367.912 Y352.776
X367.945 Y352.149
X368.011 Y351.529
X368.099 Y350.989
X368.208 Y350.499
X368.323 Y350.089
X368.444 Y349.737
X368.559 Y349.456
X368.687 Y349.185
X368.812 Y348.957
X368.82 Y348.944
X369.022 Y348.673
X369.266 Y348.44
X369.547 Y348.252
X369.855 Y348.113
X370.182 Y348.029
X370.518 Y348
X371.847
G3 X372.075 Y348.054 I-0.021 J0.6
X372.424 Y348.542 I-0.249 J0.546
G1 X373.649 Y361.343
G3 X373.301 Y361.946 I-0.597 J0.057
X373.073 Y362 I-0.249 J-0.546
G1 X371.714
X371.602 Y361.994
X371.478 Y361.981
X371.35 Y361.96
X371.203 Y361.928
X371.054 Y361.885
X370.884 Y361.827
X370.71 Y361.756
X370.518 Y361.664
X370.319 Y361.555
X370.109 Y361.424
X369.882 Y361.265
X369.657 Y361.087
X369.41 Y360.867
X369.167 Y360.626
X368.912 Y360.342
X368.645 Y360.009
X368.391 Y359.653
X368.132 Y359.243
X367.874 Y358.779
X367.625 Y358.264
X367.392 Y357.703
X367.184 Y357.11
X367.008 Y356.507
X366.864 Y355.896
X366.75 Y355.279
X366.665 Y354.657
X366.609 Y354.031
X366.581 Y353.404
X366.583 Y352.776
X366.617 Y352.149
X366.682 Y351.53
X366.77 Y350.989
X366.879 Y350.499
X366.995 Y350.089
X367.115 Y349.737
X367.23 Y349.456
X367.359 Y349.185
X367.483 Y348.957
X367.491 Y348.944
X367.693 Y348.673
X367.938 Y348.44
X368.218 Y348.252
X368.526 Y348.113
X368.853 Y348.029
X369.19 Y348
X370.518
G3 X371.095 Y348.544 I-0.021 J0.6
G1 X372.291 Y361.345
G3 X371.714 Y362 I-0.597 J0.056
G1 X370.373
X370.273 Y361.995
X370.149 Y361.982
X370.022 Y361.961
X369.875 Y361.928
X369.725 Y361.886
X369.555 Y361.827
X369.382 Y361.756
X369.189 Y361.665
X368.99 Y361.556
X368.78 Y361.425
X368.554 Y361.266
X368.329 Y361.088
X368.081 Y360.868
X367.838 Y360.626
X367.584 Y360.343
X367.316 Y360.009
X367.063 Y359.654
X366.804 Y359.244
X366.546 Y358.779
X366.297 Y358.265
X366.063 Y357.703
X365.855 Y357.111
X365.68 Y356.508
X365.535 Y355.897
X365.421 Y355.279
X365.336 Y354.657
X365.28 Y354.032
X365.253 Y353.404
X365.255 Y352.776
X365.288 Y352.149
