%
(1001)
(crosssupportstenoncheeks_ z0 stock bottom_near)
(T2  D=6 CR=0 - ZMIN=18.75 - flat end mill)
G90 G94
G17
G21

(2D Adaptive1_near)
M9
T2 M6
S6500 M3
G54
M9
G0 X507.829 Y16.381
Z40
Z30
Z19.95
G1 Z19.35 F850
X507.821 Y16.383 Z19.256
X507.8 Y16.389 Z19.165
X507.765 Y16.398 Z19.078
X507.718 Y16.41 Z18.997
X507.658 Y16.425 Z18.926
X507.589 Y16.443 Z18.865
X507.511 Y16.463 Z18.815
X507.427 Y16.484 Z18.779
X507.338 Y16.507 Z18.757
X507.247 Y16.53 Z18.75
G3 X503.981 Y17 I-3.801 J-14.839
G1 X503.87
X503.85 Y16.999
X503.798 Y16.945
X503.738 Y16.874
X503.668 Y16.782
X503.59 Y16.667
X503.504 Y16.522
X503.409 Y16.342
X503.307 Y16.116
X503.197 Y15.833
X503.081 Y15.473
X502.957 Y15.003
X502.832 Y14.387
X502.741 Y13.766
X502.673 Y13.142
X502.623 Y12.516
X502.585 Y11.889
X502.557 Y11.262
X502.536 Y10.634
X502.52 Y10.007
X502.508 Y9.379
X502.499 Y8.751
X502.492 Y8.123
X502.486 Y7.495
X502.482 Y6.867
X502.479 Y6.239
X502.477 Y5.612
X502.475 Y4.813
X502.509 Y4.46
X502.612 Y4.12
X502.779 Y3.806
X503.004 Y3.531
X503.278 Y3.306
X503.591 Y3.138
X503.931 Y3.035
X504.284 Y3
G3 X504.512 Y3.054 I-0.021 J0.6
X504.863 Y3.619 I-0.249 J0.546
G1 X504.449 Y16.42
G3 X503.87 Y17 I-0.6 J-0.019
G1 X503.465
X503.391 Y16.996
X503.304 Y16.943
X503.208 Y16.875
X503.107 Y16.795
X503 Y16.7
X502.881 Y16.582
X502.765 Y16.453
X502.635 Y16.291
X502.503 Y16.106
X502.367 Y15.89
X502.225 Y15.635
X502.079 Y15.333
X501.931 Y14.978
X501.778 Y14.542
X501.621 Y14.002
X501.481 Y13.39
X501.371 Y12.771
X501.285 Y12.149
X501.217 Y11.525
X501.164 Y10.899
X501.122 Y10.273
X501.09 Y9.646
X501.064 Y9.019
X501.043 Y8.391
X501.027 Y7.763
X501.015 Y7.135
X501.008 Y6.508
X501.019 Y5.999
X501.052 Y5.58
X501.096 Y5.256
X501.156 Y4.947
X501.218 Y4.703
X501.299 Y4.443
X501.355 Y4.295
X501.505 Y3.983
X501.705 Y3.702
X501.951 Y3.46
X502.235 Y3.263
X502.549 Y3.118
X502.883 Y3.03
X503.227 Y3
G3 X503.806 Y3.588 I-0.021 J0.6
G1 X504.044 Y16.389
G3 X503.693 Y16.946 I-0.6 J0.011
X503.465 Y17 I-0.249 J-0.546
G1 X502.881
X502.806 Y16.996
X502.711 Y16.962
X502.61 Y16.919
X502.502 Y16.866
X502.385 Y16.8
X502.263 Y16.722
X502.132 Y16.627
X501.997 Y16.517
X501.852 Y16.385
X501.704 Y16.234
X501.547 Y16.055
X501.386 Y15.848
X501.22 Y15.609
X501.05 Y15.332
X500.874 Y15.004
X500.702 Y14.635
X500.523 Y14.19
X500.343 Y13.653
X500.177 Y13.047
X500.042 Y12.434
X499.932 Y11.816
X499.843 Y11.194
X499.771 Y10.57
X499.713 Y9.945
X499.665 Y9.319
X499.627 Y8.692
X499.6 Y8.065
X499.588 Y7.437
X499.598 Y6.81
X499.636 Y6.227
X499.693 Y5.764
X499.768 Y5.348
X499.842 Y5.037
X499.936 Y4.724
X500.025 Y4.479
X500.132 Y4.226
X500.189 Y4.112
X500.383 Y3.797
X500.632 Y3.524
X500.926 Y3.301
X501.257 Y3.136
X501.613 Y3.034
X501.981 Y3
G3 X502.209 Y3.054 I-0.021 J0.6
X502.559 Y3.558 I-0.249 J0.546
G1 X503.458 Y16.358
G3 X502.881 Y17 I-0.599 J0.042
G1 X502.161
X502.086 Y16.996
X501.996 Y16.979
X501.892 Y16.954
X501.787 Y16.921
X501.667 Y16.877
X501.545 Y16.824
X501.41 Y16.756
X501.271 Y16.675
X501.121 Y16.577
X500.966 Y16.462
X500.804 Y16.328
X500.632 Y16.168
X500.459 Y15.988
X500.272 Y15.77
X500.089 Y15.531
X499.891 Y15.239
X499.702 Y14.923
X499.502 Y14.544
X499.3 Y14.1
X499.098 Y13.582
X498.904 Y12.985
X498.742 Y12.379
X498.608 Y11.765
X498.496 Y11.147
X498.403 Y10.526
X498.327 Y9.903
X498.268 Y9.278
X498.226 Y8.652
X498.204 Y8.024
X498.206 Y7.396
X498.236 Y6.769
X498.295 Y6.198
X498.374 Y5.712
X498.461 Y5.315
X498.566 Y4.939
X498.661 Y4.659
X498.777 Y4.373
X498.887 Y4.14
X498.938 Y4.046
X499.136 Y3.748
X499.384 Y3.49
X499.673 Y3.281
X499.995 Y3.127
X500.34 Y3.032
X500.696 Y3
G3 X501.271 Y3.531 I-0.021 J0.6
G1 X502.736 Y16.332
G3 X502.389 Y16.946 I-0.596 J0.068
X502.161 Y17 I-0.249 J-0.546
G1 X501.306
X501.175 Y16.993
X501.08 Y16.983
X500.98 Y16.967
X500.865 Y16.941
X500.748 Y16.908
X500.616 Y16.863
X500.482 Y16.808
X500.331 Y16.736
X500.179 Y16.653
X500.014 Y16.55
X499.843 Y16.43
X499.664 Y16.288
X499.474 Y16.119
X499.284 Y15.93
X499.075 Y15.699
X498.876 Y15.45
X498.658 Y15.144
X498.447 Y14.809
X498.231 Y14.42
X498.01 Y13.964
X497.788 Y13.432
X497.58 Y12.839
X497.404 Y12.237
X497.255 Y11.627
X497.13 Y11.011
X497.027 Y10.392
X496.946 Y9.769
X496.887 Y9.144
X496.85 Y8.517
X496.839 Y7.889
X496.856 Y7.262
X496.903 Y6.648
X496.977 Y6.094
X497.071 Y5.601
X497.169 Y5.209
X497.284 Y4.839
X497.388 Y4.561
X497.512 Y4.279
X497.627 Y4.052
X497.66 Y3.995
X497.861 Y3.71
X498.107 Y3.465
X498.392 Y3.266
X498.707 Y3.12
X499.043 Y3.03
X499.389 Y3
X499.785
G3 X500.36 Y3.529 I-0.021 J0.6
G1 X501.88 Y16.33
G3 X501.306 Y17 I-0.596 J0.071
G1 X500.226
X500.062 Y16.992
X499.957 Y16.981
X499.848 Y16.963
X499.724 Y16.935
X499.596 Y16.899
X499.452 Y16.849
X499.307 Y16.79
X499.143 Y16.712
X498.978 Y16.622
X498.798 Y16.509
X498.612 Y16.379
X498.418 Y16.225
X498.211 Y16.041
X498.005 Y15.837
X497.779 Y15.585
X497.563 Y15.316
X497.331 Y14.99
X497.096 Y14.618
X496.866 Y14.204
X496.631 Y13.718
X496.397 Y13.155
X496.189 Y12.563
X496.011 Y11.96
X495.861 Y11.351
X495.738 Y10.735
X495.639 Y10.115
X495.565 Y9.491
X495.516 Y8.865
X495.492 Y8.238
X495.497 Y7.61
X495.533 Y6.983
X495.599 Y6.388
X495.689 Y5.856
X495.795 Y5.39
X495.9 Y5.024
X496.021 Y4.679
X496.131 Y4.413
X496.261 Y4.144
X496.323 Y4.032
X496.522 Y3.738
X496.769 Y3.484
X497.057 Y3.277
X497.378 Y3.125
X497.72 Y3.031
X498.073 Y3
X498.488
G3 X499.062 Y3.519 I-0.021 J0.6
G1 X500.799 Y16.32
G3 X500.226 Y17 I-0.595 J0.081
G1 X499.01
X498.88 Y16.993
X498.775 Y16.982
X498.654 Y16.962
X498.529 Y16.935
X498.388 Y16.895
X498.241 Y16.844
X498.082 Y16.779
X497.913 Y16.699
X497.735 Y16.602
X497.543 Y16.482
X497.349 Y16.345
X497.135 Y16.176
X496.927 Y15.991
X496.698 Y15.764
X496.469 Y15.509
X496.233 Y15.214
X495.984 Y14.866
X495.746 Y14.489
X495.503 Y14.05
X495.259 Y13.546
X495.022 Y12.976
X494.814 Y12.384
X494.637 Y11.782
X494.488 Y11.172
X494.367 Y10.555
X494.273 Y9.935
X494.204 Y9.311
X494.163 Y8.684
X494.15 Y8.056
X494.167 Y7.429
X494.215 Y6.802
X494.291 Y6.234
X494.389 Y5.716
X494.498 Y5.281
X494.616 Y4.899
X494.728 Y4.599
X494.853 Y4.314
X494.976 Y4.072
X495.021 Y3.995
X495.221 Y3.711
X495.467 Y3.466
X495.753 Y3.267
X496.068 Y3.12
X496.404 Y3.03
X496.75 Y3
X497.177
G3 X497.75 Y3.515 I-0.021 J0.6
G1 X499.583 Y16.315
G3 X499.238 Y16.946 I-0.594 J0.085
X499.01 Y17 I-0.249 J-0.546
G1 X497.805
X497.648 Y16.992
X497.539 Y16.981
X497.414 Y16.96
X497.284 Y16.931
X497.137 Y16.889
X496.987 Y16.838
X496.817 Y16.769
X496.647 Y16.687
X496.456 Y16.583
X496.263 Y16.463
X496.056 Y16.317
X495.838 Y16.145
X495.618 Y15.949
X495.377 Y15.71
X495.145 Y15.452
X494.895 Y15.14
X494.643 Y14.787
X494.398 Y14.398
X494.148 Y13.947
X493.901 Y13.437
X493.663 Y12.866
X493.455 Y12.274
X493.278 Y11.671
X493.131 Y11.061
X493.012 Y10.444
X492.921 Y9.823
X492.858 Y9.199
X492.823 Y8.572
X492.816 Y7.944
X492.84 Y7.316
X492.896 Y6.691
X492.977 Y6.138
X493.08 Y5.629
X493.192 Y5.204
X493.312 Y4.833
X493.426 Y4.541
X493.553 Y4.261
X493.677 Y4.025
X493.707 Y3.973
X493.908 Y3.695
X494.154 Y3.455
X494.437 Y3.26
X494.749 Y3.117
X495.082 Y3.03
X495.424 Y3
X495.825
G3 X496.053 Y3.054 I-0.021 J0.6
X496.397 Y3.508 I-0.249 J0.546
G1 X498.377 Y16.309
G3 X498.033 Y16.946 I-0.593 J0.092
X497.805 Y17 I-0.249 J-0.546
G1 X496.545
X496.386 Y16.992
X496.272 Y16.98
X496.146 Y16.959
X496.01 Y16.929
X495.861 Y16.887
X495.705 Y16.833
X495.532 Y16.762
X495.356 Y16.679
X495.159 Y16.571
X494.963 Y16.449
X494.746 Y16.296
X494.529 Y16.124
X494.298 Y15.919
X494.055 Y15.678
X493.815 Y15.411
X493.557 Y15.089
X493.306 Y14.736
X493.054 Y14.338
X492.8 Y13.881
X492.551 Y13.367
X492.314 Y12.797
X492.106 Y12.204
X491.93 Y11.602
X491.784 Y10.991
X491.667 Y10.374
X491.579 Y9.753
X491.519 Y9.127
X491.488 Y8.5
X491.485 Y7.872
X491.514 Y7.245
X491.574 Y6.62
X491.659 Y6.073
X491.765 Y5.572
X491.879 Y5.153
X492 Y4.79
X492.114 Y4.503
X492.242 Y4.226
X492.366 Y3.994
X492.387 Y3.96
X492.589 Y3.685
X492.834 Y3.448
X493.116 Y3.256
X493.426 Y3.115
X493.756 Y3.029
X494.095 Y3
X494.509
G3 X494.736 Y3.054 I-0.021 J0.6
X495.08 Y3.505 I-0.249 J0.546
G1 X497.116 Y16.306
G3 X496.545 Y17 I-0.593 J0.094
G1 X495.285
X495.098 Y16.991
X494.98 Y16.978
X494.854 Y16.957
X494.714 Y16.926
X494.565 Y16.884
X494.404 Y16.829
X494.231 Y16.758
X494.049 Y16.671
X493.85 Y16.562
X493.65 Y16.438
X493.428 Y16.282
X493.21 Y16.109
X492.972 Y15.898
X492.729 Y15.656
X492.484 Y15.383
X492.221 Y15.055
X491.969 Y14.702
X491.714 Y14.299
X491.459 Y13.838
X491.21 Y13.324
X490.974 Y12.757
X490.766 Y12.164
X490.59 Y11.562
X490.445 Y10.951
X490.329 Y10.334
X490.243 Y9.712
X490.185 Y9.086
X490.156 Y8.459
Y7.831
X490.187 Y7.204
X490.25 Y6.58
X490.336 Y6.036
X490.444 Y5.539
X490.559 Y5.124
X490.68 Y4.766
X490.795 Y4.481
X490.923 Y4.207
X491.048 Y3.977
X491.063 Y3.952
X491.265 Y3.679
X491.51 Y3.444
X491.791 Y3.254
X492.1 Y3.114
X492.428 Y3.029
X492.766 Y3
X493.18
G3 X493.751 Y3.502 I-0.021 J0.6
G1 X495.856 Y16.303
G3 X495.285 Y17 I-0.592 J0.097
G1 X493.926
X493.8 Y16.994
X493.679 Y16.981
X493.552 Y16.96
X493.409 Y16.928
X493.26 Y16.886
X493.096 Y16.829
X492.922 Y16.759
X492.736 Y16.67
X492.537 Y16.561
X492.333 Y16.434
X492.108 Y16.276
X491.888 Y16.101
X491.646 Y15.886
X491.403 Y15.645
X491.153 Y15.367
X490.888 Y15.037
X490.636 Y14.683
X490.379 Y14.276
X490.123 Y13.814
X489.874 Y13.3
X489.639 Y12.736
X489.431 Y12.144
X489.255 Y11.541
X489.111 Y10.93
X488.996 Y10.313
X488.91 Y9.691
X488.854 Y9.065
X488.826 Y8.438
X488.827 Y7.81
X488.859 Y7.183
X488.923 Y6.56
X489.011 Y6.017
X489.119 Y5.523
X489.234 Y5.109
X489.356 Y4.753
X489.47 Y4.47
X489.599 Y4.197
X489.724 Y3.968
X489.736 Y3.948
X489.938 Y3.676
X490.182 Y3.442
X490.463 Y3.253
X490.772 Y3.114
X491.099 Y3.029
X491.437 Y3
X491.849
G3 X492.077 Y3.054 I-0.021 J0.6
X492.42 Y3.504 I-0.249 J0.546
G1 X494.497 Y16.304
G3 X493.926 Y17 I-0.592 J0.096
G1 X492.585
X492.488 Y16.995
X492.365 Y16.982
X492.239 Y16.961
X492.094 Y16.929
X491.944 Y16.887
X491.778 Y16.829
X491.605 Y16.759
X491.415 Y16.669
X491.216 Y16.56
X491.01 Y16.431
X490.784 Y16.272
X490.562 Y16.097
X490.318 Y15.88
X490.075 Y15.638
X489.823 Y15.358
X489.557 Y15.026
X489.305 Y14.672
X489.047 Y14.264
X488.79 Y13.802
X488.542 Y13.288
X488.308 Y12.725
X488.1 Y12.133
X487.924 Y11.53
X487.78 Y10.919
X487.665 Y10.302
X487.58 Y9.68
X487.524 Y9.054
X487.496 Y8.427
X487.498 Y7.799
X487.53 Y7.172
X487.595 Y6.55
X487.683 Y6.007
X487.792 Y5.514
X487.908 Y5.101
X488.029 Y4.747
X488.143 Y4.464
X488.272 Y4.192
X488.397 Y3.963
X488.407 Y3.946
X488.609 Y3.675
X488.854 Y3.441
X489.135 Y3.253
X489.443 Y3.114
X489.77 Y3.029
X490.107 Y3
X490.524
G3 X490.752 Y3.054 I-0.021 J0.6
X491.096 Y3.504 I-0.249 J0.546
G1 X493.157 Y16.305
G3 X492.813 Y16.946 I-0.592 J0.095
X492.585 Y17 I-0.249 J-0.546
G1 X491.325
X491.164 Y16.992
X491.041 Y16.979
X490.914 Y16.958
X490.769 Y16.926
X490.62 Y16.883
X490.452 Y16.826
X490.279 Y16.755
X490.089 Y16.665
X489.89 Y16.556
X489.683 Y16.426
X489.457 Y16.267
X489.234 Y16.091
X488.989 Y15.873
X488.746 Y15.632
X488.493 Y15.351
X488.227 Y15.019
X487.974 Y14.664
X487.716 Y14.256
X487.46 Y13.794
X487.211 Y13.28
X486.978 Y12.718
X486.769 Y12.126
X486.594 Y11.523
X486.45 Y10.912
X486.335 Y10.295
X486.25 Y9.672
X486.194 Y9.047
X486.167 Y8.42
X486.169 Y7.792
X486.202 Y7.165
X486.267 Y6.543
X486.355 Y6.001
X486.464 Y5.509
X486.58 Y5.096
X486.701 Y4.743
X486.815 Y4.461
X486.944 Y4.189
X487.069 Y3.961
X487.079 Y3.945
X487.28 Y3.674
X487.525 Y3.441
X487.806 Y3.252
X488.114 Y3.113
X488.441 Y3.029
X488.778 Y3
X489.195
G3 X489.766 Y3.501 I-0.021 J0.6
G1 X491.896 Y16.302
G3 X491.325 Y17 I-0.592 J0.098
G1 X489.966
X489.844 Y16.994
X489.72 Y16.981
X489.593 Y16.96
X489.447 Y16.927
X489.298 Y16.885
X489.129 Y16.827
X488.956 Y16.756
X488.765 Y16.665
X488.566 Y16.556
X488.357 Y16.426
X488.131 Y16.267
X487.907 Y16.09
X487.661 Y15.872
X487.418 Y15.63
X487.165 Y15.349
X486.898 Y15.016
X486.645 Y14.661
X486.387 Y14.252
X486.13 Y13.789
X485.882 Y13.275
X485.648 Y12.714
X485.44 Y12.122
X485.265 Y11.519
X485.12 Y10.908
X485.006 Y10.291
X484.921 Y9.668
X484.865 Y9.043
X484.838 Y8.416
X484.84 Y7.788
X484.873 Y7.161
X484.938 Y6.54
X485.027 Y5.997
X485.135 Y5.506
X485.251 Y5.094
X485.372 Y4.741
X485.487 Y4.46
X485.616 Y4.188
X485.74 Y3.96
X485.75 Y3.945
X485.951 Y3.674
X486.196 Y3.441
X486.477 Y3.252
X486.785 Y3.113
X487.112 Y3.029
X487.449 Y3
X487.869
G3 X488.097 Y3.054 I-0.021 J0.6
X488.44 Y3.503 I-0.249 J0.546
G1 X490.537 Y16.303
G3 X489.966 Y17 I-0.592 J0.097
G1 X488.625
X488.519 Y16.995
X488.396 Y16.981
X488.268 Y16.961
X488.122 Y16.928
X487.972 Y16.886
X487.803 Y16.828
X487.63 Y16.757
X487.438 Y16.665
X487.239 Y16.557
X487.03 Y16.426
X486.804 Y16.267
X486.58 Y16.09
X486.333 Y15.871
X486.09 Y15.629
X485.837 Y15.347
X485.57 Y15.014
X485.317 Y14.659
X485.058 Y14.25
X484.801 Y13.787
X484.553 Y13.273
X484.319 Y12.712
X484.111 Y12.12
X483.936 Y11.517
X483.791 Y10.906
X483.677 Y10.288
X483.592 Y9.666
X483.536 Y9.041
X483.509 Y8.413
X483.511 Y7.785
X483.544 Y7.158
X483.61 Y6.538
X483.698 Y5.995
X483.807 Y5.504
X483.923 Y5.093
X484.044 Y4.74
X484.158 Y4.459
X484.287 Y4.187
X484.412 Y3.959
X484.42 Y3.945
X484.622 Y3.674
X484.867 Y3.441
X485.147 Y3.252
X485.456 Y3.113
X485.783 Y3.029
X486.119 Y3
X486.52
G3 X487.091 Y3.502 I-0.021 J0.6
G1 X489.197 Y16.303
G3 X488.625 Y17 I-0.592 J0.097
G1 X487.365
X487.189 Y16.991
X487.065 Y16.978
X486.938 Y16.957
X486.792 Y16.925
X486.642 Y16.882
X486.473 Y16.824
X486.3 Y16.753
X486.109 Y16.662
X485.91 Y16.553
X485.701 Y16.423
X485.475 Y16.264
X485.251 Y16.087
X485.004 Y15.868
X484.761 Y15.627
X484.508 Y15.345
X484.241 Y15.011
X483.988 Y14.657
X483.729 Y14.248
X483.472 Y13.784
X483.224 Y13.27
X482.99 Y12.709
X482.782 Y12.117
X482.607 Y11.514
X482.462 Y10.903
X482.348 Y10.286
X482.263 Y9.663
X482.207 Y9.038
X482.18 Y8.411
X482.182 Y7.783
X482.215 Y7.156
X482.281 Y6.535
X482.369 Y5.994
X482.478 Y5.503
X482.594 Y5.091
X482.715 Y4.739
X482.829 Y4.458
X482.958 Y4.186
X483.083 Y3.958
X483.091 Y3.944
X483.293 Y3.674
X483.538 Y3.441
X483.818 Y3.252
X484.126 Y3.113
X484.454 Y3.029
X484.79 Y3
X485.206
G3 X485.434 Y3.054 I-0.021 J0.6
X485.776 Y3.5 I-0.249 J0.546
G1 X487.936 Y16.301
G3 X487.593 Y16.946 I-0.592 J0.1
X487.365 Y17 I-0.249 J-0.546
G1 X486.007
X485.865 Y16.993
X485.74 Y16.98
X485.613 Y16.959
X485.467 Y16.926
X485.317 Y16.884
X485.148 Y16.826
X484.974 Y16.755
X484.782 Y16.663
X484.583 Y16.554
X484.374 Y16.424
X484.148 Y16.265
X483.923 Y16.087
X483.676 Y15.868
X483.433 Y15.627
X483.18 Y15.344
X482.912 Y15.011
X482.659 Y14.656
X482.401 Y14.247
X482.143 Y13.783
X481.895 Y13.269
X481.661 Y12.708
X481.453 Y12.116
X481.278 Y11.513
X481.134 Y10.902
X481.019 Y10.284
X480.935 Y9.662
X480.878 Y9.037
X480.851 Y8.409
X480.853 Y7.781
X480.887 Y7.154
X480.952 Y6.534
X481.041 Y5.993
X481.149 Y5.502
X481.265 Y5.091
X481.386 Y4.738
X481.501 Y4.457
X481.629 Y4.186
X481.754 Y3.958
X481.762 Y3.944
X481.964 Y3.673
X482.209 Y3.44
X482.489 Y3.252
X482.797 Y3.113
X483.125 Y3.029
X483.461 Y3
X483.865
G3 X484.436 Y3.501 I-0.021 J0.6
G1 X486.577 Y16.301
G3 X486.234 Y16.946 I-0.592 J0.099
X486.007 Y17 I-0.249 J-0.546
G1 X484.666
X484.538 Y16.994
X484.413 Y16.98
X484.286 Y16.959
X484.139 Y16.927
X483.99 Y16.884
X483.82 Y16.826
X483.647 Y16.755
X483.455 Y16.664
X483.256 Y16.555
X483.046 Y16.424
X482.82 Y16.265
X482.596 Y16.088
X482.348 Y15.868
X482.105 Y15.627
X481.851 Y15.344
X481.584 Y15.011
X481.331 Y14.656
X481.072 Y14.246
X480.815 Y13.782
X480.566 Y13.268
X480.333 Y12.707
X480.125 Y12.115
X479.949 Y11.512
X479.805 Y10.901
X479.691 Y10.283
X479.606 Y9.661
X479.55 Y9.036
X479.522 Y8.408
X479.525 Y7.78
X479.558 Y7.153
X479.623 Y6.533
X479.712 Y5.992
X479.821 Y5.501
X479.936 Y5.09
X480.057 Y4.738
X480.172 Y4.457
X480.301 Y4.186
X480.425 Y3.958
X480.433 Y3.944
X480.635 Y3.673
X480.88 Y3.44
X481.16 Y3.252
X481.468 Y3.113
X481.796 Y3.029
X482.132 Y3
X482.536
G3 X482.764 Y3.054 I-0.021 J0.6
X483.107 Y3.501 I-0.249 J0.546
G1 X485.237 Y16.302
G3 X484.666 Y17 I-0.592 J0.098
G1 X483.406
X483.205 Y16.99
X483.082 Y16.977
X482.954 Y16.956
X482.808 Y16.923
X482.658 Y16.881
X482.49 Y16.823
X482.316 Y16.752
X482.124 Y16.661
X481.925 Y16.552
X481.716 Y16.422
X481.49 Y16.262
X481.266 Y16.085
X481.019 Y15.866
X480.776 Y15.624
X480.522 Y15.342
X480.255 Y15.009
X480.002 Y14.654
X479.743 Y14.244
X479.486 Y13.781
X479.237 Y13.267
X479.004 Y12.705
X478.796 Y12.113
X478.62 Y11.51
X478.476 Y10.899
X478.362 Y10.282
X478.277 Y9.66
X478.221 Y9.034
X478.194 Y8.407
X478.196 Y7.779
X478.229 Y7.152
X478.295 Y6.532
X478.383 Y5.991
X478.492 Y5.5
X478.607 Y5.09
X478.728 Y4.738
X478.843 Y4.457
X478.972 Y4.186
X479.096 Y3.958
X479.105 Y3.944
X479.306 Y3.673
X479.551 Y3.44
X479.831 Y3.252
X480.14 Y3.113
X480.467 Y3.029
X480.803 Y3
X481.209
G3 X481.437 Y3.054 I-0.021 J0.6
X481.78 Y3.498 I-0.249 J0.546
G1 X483.976 Y16.299
G3 X483.634 Y16.946 I-0.591 J0.101
X483.406 Y17 I-0.249 J-0.546
G1 X482.047
X481.88 Y16.992
X481.756 Y16.978
X481.629 Y16.957
X481.482 Y16.925
X481.333 Y16.883
X481.163 Y16.824
X480.99 Y16.753
X480.798 Y16.662
X480.598 Y16.553
X480.389 Y16.422
X480.163 Y16.263
X479.938 Y16.086
X479.691 Y15.866
X479.448 Y15.625
X479.194 Y15.342
X478.927 Y15.009
X478.673 Y14.653
X478.415 Y14.244
X478.157 Y13.78
X477.909 Y13.266
X477.675 Y12.705
X477.467 Y12.112
X477.292 Y11.509
X477.147 Y10.898
X477.033 Y10.281
X476.948 Y9.659
X476.892 Y9.033
X476.865 Y8.406
X476.867 Y7.778
X476.9 Y7.151
X476.966 Y6.531
X477.054 Y5.99
X477.163 Y5.5
X477.279 Y5.089
X477.4 Y4.737
X477.514 Y4.457
X477.643 Y4.185
X477.767 Y3.957
X477.776 Y3.944
X477.978 Y3.673
X478.222 Y3.44
X478.503 Y3.252
X478.811 Y3.113
X479.138 Y3.029
X479.474 Y3
X479.898
G3 X480.469 Y3.5 I-0.021 J0.6
G1 X482.618 Y16.301
G3 X482.047 Y17 I-0.592 J0.099
G1 X480.706
X480.553 Y16.992
X480.429 Y16.979
X480.301 Y16.958
X480.155 Y16.926
X480.005 Y16.883
X479.835 Y16.825
X479.662 Y16.754
X479.47 Y16.662
X479.271 Y16.554
X479.061 Y16.423
X478.835 Y16.264
X478.61 Y16.086
X478.363 Y15.866
X478.12 Y15.625
X477.866 Y15.342
X477.598 Y15.009
X477.345 Y14.653
X477.086 Y14.244
X476.829 Y13.78
X476.58 Y13.265
X476.347 Y12.704
X476.138 Y12.112
X475.963 Y11.509
X475.819 Y10.898
X475.705 Y10.28
X475.62 Y9.658
X475.563 Y9.033
X475.536 Y8.406
X475.538 Y7.778
X475.572 Y7.151
X475.637 Y6.531
X475.726 Y5.99
X475.834 Y5.5
X475.95 Y5.089
X476.071 Y4.737
X476.185 Y4.457
X476.314 Y4.185
X476.439 Y3.957
X476.447 Y3.944
X476.649 Y3.673
X476.893 Y3.44
X477.174 Y3.252
X477.482 Y3.113
X477.809 Y3.029
X478.145 Y3
X478.546
G3 X478.774 Y3.054 I-0.021 J0.6
X479.117 Y3.5 I-0.249 J0.546
G1 X481.277 Y16.301
G3 X480.934 Y16.946 I-0.592 J0.1
X480.706 Y17 I-0.249 J-0.546
G1 X479.347
X479.226 Y16.994
X479.102 Y16.981
X478.974 Y16.96
X478.828 Y16.927
X478.678 Y16.885
X478.508 Y16.826
X478.335 Y16.755
X478.142 Y16.664
X477.943 Y16.555
X477.733 Y16.424
X477.507 Y16.265
X477.282 Y16.087
X477.035 Y15.867
X476.792 Y15.626
X476.538 Y15.343
X476.27 Y15.009
X476.017 Y14.654
X475.758 Y14.244
X475.5 Y13.78
X475.251 Y13.265
X475.018 Y12.704
X474.81 Y12.112
X474.634 Y11.509
X474.49 Y10.898
X474.376 Y10.28
X474.291 Y9.658
X474.235 Y9.033
X474.208 Y8.406
X474.21 Y7.778
X474.243 Y7.151
X474.309 Y6.531
X474.397 Y5.99
X474.506 Y5.5
X474.621 Y5.089
X474.742 Y4.737
X474.856 Y4.457
X474.985 Y4.185
X475.11 Y3.958
X475.118 Y3.944
X475.32 Y3.673
X475.564 Y3.44
X475.845 Y3.252
X476.153 Y3.113
X476.48 Y3.029
X476.817 Y3
X477.23
G3 X477.801 Y3.502 I-0.021 J0.6
G1 X479.918 Y16.302
G3 X479.347 Y17 I-0.592 J0.098
G1 X478.006
X477.898 Y16.995
X477.774 Y16.981
X477.646 Y16.96
X477.499 Y16.928
X477.35 Y16.885
X477.18 Y16.827
X477.007 Y16.756
X476.814 Y16.664
X476.615 Y16.556
X476.405 Y16.425
X476.179 Y16.266
X475.954 Y16.088
X475.707 Y15.868
X475.464 Y15.626
X475.209 Y15.343
X474.942 Y15.01
X474.688 Y14.654
X474.429 Y14.244
X474.172 Y13.78
X473.923 Y13.266
X473.689 Y12.704
X473.481 Y12.112
X473.306 Y11.509
X473.161 Y10.898
X473.047 Y10.28
X472.962 Y9.658
X472.906 Y9.033
X472.879 Y8.406
X472.881 Y7.778
X472.914 Y7.151
X472.98 Y6.531
X473.068 Y5.99
X473.177 Y5.5
X473.292 Y5.089
X473.413 Y4.737
X473.528 Y4.457
X473.656 Y4.185
X473.781 Y3.958
X473.789 Y3.944
X473.991 Y3.673
X474.236 Y3.44
X474.516 Y3.252
X474.824 Y3.113
X475.151 Y3.029
X475.488 Y3
X475.901
G3 X476.472 Y3.502 I-0.021 J0.6
G1 X478.577 Y16.303
G3 X478.006 Y17 I-0.592 J0.097
G1 X476.746
X476.565 Y16.991
X476.441 Y16.978
X476.314 Y16.957
X476.167 Y16.924
X476.018 Y16.882
X475.849 Y16.824
X475.675 Y16.753
X475.483 Y16.661
X475.284 Y16.553
X475.075 Y16.422
X474.848 Y16.263
X474.624 Y16.085
X474.377 Y15.866
X474.134 Y15.624
X473.88 Y15.342
X473.612 Y15.008
X473.359 Y14.653
X473.1 Y14.243
X472.843 Y13.779
X472.594 Y13.265
X472.36 Y12.703
X472.152 Y12.111
X471.977 Y11.508
X471.833 Y10.897
X471.718 Y10.28
X471.633 Y9.658
X471.577 Y9.032
X471.55 Y8.405
X471.552 Y7.777
X471.585 Y7.15
X471.651 Y6.53
X471.739 Y5.99
X471.848 Y5.499
X471.964 Y5.089
X472.084 Y4.737
X472.199 Y4.456
X472.328 Y4.185
X472.452 Y3.957
X472.46 Y3.944
X472.662 Y3.673
X472.907 Y3.44
X473.187 Y3.252
X473.495 Y3.113
X473.822 Y3.029
X474.159 Y3
X474.57
G3 X474.798 Y3.054 I-0.021 J0.6
X475.141 Y3.499 I-0.249 J0.546
G1 X477.317 Y16.3
G3 X476.746 Y17 I-0.591 J0.101
G1 X475.387
X475.239 Y16.993
X475.115 Y16.979
X474.988 Y16.958
X474.841 Y16.926
X474.691 Y16.883
X474.522 Y16.825
X474.348 Y16.754
X474.156 Y16.663
X473.957 Y16.554
X473.747 Y16.423
X473.521 Y16.264
X473.296 Y16.086
X473.049 Y15.866
X472.806 Y15.625
X472.551 Y15.342
X472.284 Y15.008
X472.031 Y14.653
X471.772 Y14.243
X471.514 Y13.779
X471.265 Y13.265
X471.032 Y12.703
X470.824 Y12.111
X470.648 Y11.508
X470.504 Y10.897
X470.39 Y10.279
X470.305 Y9.657
X470.249 Y9.032
X470.221 Y8.405
X470.224 Y7.777
X470.257 Y7.15
X470.322 Y6.53
X470.411 Y5.99
X470.519 Y5.499
X470.635 Y5.089
X470.756 Y4.737
X470.87 Y4.456
X470.999 Y4.185
X471.123 Y3.957
X471.132 Y3.944
X471.333 Y3.673
X471.578 Y3.44
X471.858 Y3.252
X472.167 Y3.113
X472.493 Y3.029
X472.83 Y3
X473.245
G3 X473.816 Y3.501 I-0.021 J0.6
G1 X475.958 Y16.301
G3 X475.387 Y17 I-0.592 J0.099
G1 X474.046
X473.911 Y16.993
X473.787 Y16.98
X473.66 Y16.959
X473.513 Y16.926
X473.363 Y16.884
X473.194 Y16.826
X473.02 Y16.755
X472.828 Y16.663
X472.629 Y16.554
X472.419 Y16.424
X472.192 Y16.264
X471.968 Y16.086
X471.72 Y15.867
X471.477 Y15.625
X471.223 Y15.342
X470.955 Y15.009
X470.702 Y14.653
X470.443 Y14.243
X470.186 Y13.779
X469.937 Y13.265
X469.703 Y12.703
X469.495 Y12.111
X469.319 Y11.508
X469.175 Y10.897
X469.061 Y10.279
X468.976 Y9.657
X468.92 Y9.032
X468.893 Y8.405
X468.895 Y7.777
X468.928 Y7.15
X468.994 Y6.53
X469.082 Y5.99
X469.191 Y5.499
X469.306 Y5.089
X469.427 Y4.737
X469.541 Y4.456
X469.67 Y4.185
X469.795 Y3.957
X469.803 Y3.944
X470.005 Y3.673
X470.249 Y3.44
X470.53 Y3.252
X470.838 Y3.113
X471.165 Y3.029
X471.501 Y3
X471.916
G3 X472.487 Y3.501 I-0.021 J0.6
G1 X474.617 Y16.302
G3 X474.046 Y17 I-0.592 J0.098
G1 X472.687
X472.584 Y16.995
X472.46 Y16.982
X472.332 Y16.961
X472.186 Y16.928
X472.036 Y16.886
X471.866 Y16.827
X471.693 Y16.756
X471.5 Y16.665
X471.301 Y16.556
X471.091 Y16.425
X470.865 Y16.266
X470.64 Y16.088
X470.392 Y15.868
X470.149 Y15.626
X469.895 Y15.343
X469.627 Y15.009
X469.374 Y14.654
X469.115 Y14.244
X468.857 Y13.78
X468.608 Y13.265
X468.374 Y12.703
X468.166 Y12.111
X467.991 Y11.508
X467.847 Y10.897
X467.732 Y10.28
X467.647 Y9.658
X467.591 Y9.032
X467.564 Y8.405
X467.566 Y7.777
X467.599 Y7.15
X467.665 Y6.531
X467.753 Y5.99
X467.862 Y5.499
X467.977 Y5.089
X468.098 Y4.737
X468.212 Y4.457
X468.341 Y4.185
X468.466 Y3.958
X468.474 Y3.944
X468.676 Y3.673
X468.92 Y3.44
X469.201 Y3.252
X469.509 Y3.113
X469.836 Y3.029
X470.173 Y3
X470.59
G3 X470.818 Y3.054 I-0.021 J0.6
X471.161 Y3.503 I-0.249 J0.546
G1 X473.259 Y16.303
G3 X472.687 Y17 I-0.592 J0.097
G1 X471.428
X471.251 Y16.991
X471.127 Y16.978
X471 Y16.957
X470.853 Y16.924
X470.704 Y16.882
X470.534 Y16.824
X470.361 Y16.753
X470.169 Y16.662
X469.97 Y16.553
X469.76 Y16.422
X469.534 Y16.263
X469.31 Y16.085
X469.063 Y15.866
X468.819 Y15.624
X468.565 Y15.341
X468.298 Y15.008
X468.044 Y14.653
X467.786 Y14.243
X467.528 Y13.779
X467.279 Y13.264
X467.046 Y12.703
X466.837 Y12.11
X466.662 Y11.508
X466.518 Y10.896
X466.404 Y10.279
X466.319 Y9.657
X466.262 Y9.032
X466.235 Y8.404
X466.237 Y7.776
X466.271 Y7.149
X466.336 Y6.53
X466.424 Y5.989
X466.533 Y5.499
X466.649 Y5.089
X466.769 Y4.737
X466.884 Y4.456
X467.013 Y4.185
X467.137 Y3.957
X467.145 Y3.944
X467.347 Y3.673
X467.592 Y3.44
X467.872 Y3.252
X468.18 Y3.113
X468.507 Y3.029
X468.844 Y3
X469.241
G3 X469.812 Y3.499 I-0.021 J0.6
G1 X471.998 Y16.299
G3 X471.428 Y17 I-0.591 J0.101
G1 X470.087
X469.924 Y16.992
X469.8 Y16.979
X469.672 Y16.958
X469.526 Y16.925
X469.376 Y16.883
X469.207 Y16.824
X469.033 Y16.753
X468.841 Y16.662
X468.642 Y16.553
X468.432 Y16.422
X468.206 Y16.263
X467.981 Y16.085
X467.734 Y15.866
X467.491 Y15.624
X467.237 Y15.341
X466.969 Y15.008
X466.716 Y14.652
X466.457 Y14.243
X466.199 Y13.779
X465.95 Y13.264
X465.717 Y12.703
X465.509 Y12.11
X465.333 Y11.507
X465.189 Y10.896
X465.075 Y10.279
X464.99 Y9.657
X464.934 Y9.031
X464.906 Y8.404
X464.909 Y7.776
X464.942 Y7.149
X465.007 Y6.53
X465.096 Y5.989
X465.204 Y5.499
X465.32 Y5.089
X465.441 Y4.737
X465.555 Y4.456
X465.684 Y4.185
X465.808 Y3.957
X465.816 Y3.944
X466.018 Y3.673
X466.263 Y3.44
X466.543 Y3.252
X466.851 Y3.113
X467.178 Y3.029
X467.515 Y3
X467.927
G3 X468.155 Y3.054 I-0.021 J0.6
X468.497 Y3.5 I-0.249 J0.546
G1 X470.657 Y16.301
G3 X470.314 Y16.946 I-0.592 J0.1
X470.087 Y17 I-0.249 J-0.546
G1 X468.728
X468.597 Y16.993
X468.473 Y16.98
X468.346 Y16.959
X468.199 Y16.927
X468.049 Y16.884
X467.879 Y16.826
X467.706 Y16.755
X467.513 Y16.663
X467.314 Y16.554
X467.104 Y16.424
X466.878 Y16.264
X466.653 Y16.086
X466.406 Y15.867
X466.163 Y15.625
X465.908 Y15.342
X465.641 Y15.008
X465.387 Y14.653
X465.128 Y14.243
X464.871 Y13.779
X464.622 Y13.264
X464.388 Y12.703
X464.18 Y12.11
X464.005 Y11.507
X463.86 Y10.896
X463.746 Y10.279
X463.661 Y9.657
X463.605 Y9.031
X463.578 Y8.404
X463.58 Y7.776
X463.613 Y7.149
X463.679 Y6.53
X463.767 Y5.989
X463.876 Y5.499
X463.991 Y5.089
X464.112 Y4.737
X464.226 Y4.456
X464.355 Y4.185
X464.48 Y3.957
X464.488 Y3.944
X464.69 Y3.673
X464.934 Y3.44
X465.215 Y3.252
X465.523 Y3.113
X465.85 Y3.029
X466.186 Y3
X466.586
G3 X467.157 Y3.501 I-0.021 J0.6
G1 X469.299 Y16.301
G3 X468.956 Y16.946 I-0.592 J0.099
X468.728 Y17 I-0.249 J-0.546
G1 X467.387
X467.269 Y16.994
X467.145 Y16.981
X467.017 Y16.96
X466.87 Y16.927
X466.721 Y16.885
X466.551 Y16.826
X466.377 Y16.756
X466.185 Y16.664
X465.986 Y16.555
X465.776 Y16.424
X465.55 Y16.265
X465.325 Y16.087
X465.077 Y15.867
X464.834 Y15.626
X464.58 Y15.343
X464.312 Y15.009
X464.059 Y14.653
X463.8 Y14.243
X463.542 Y13.779
X463.293 Y13.264
X463.06 Y12.703
X462.851 Y12.111
X462.676 Y11.508
X462.532 Y10.897
X462.417 Y10.279
X462.332 Y9.657
X462.276 Y9.032
X462.249 Y8.404
X462.251 Y7.776
X462.284 Y7.149
X462.35 Y6.53
X462.438 Y5.989
X462.547 Y5.499
X462.662 Y5.089
X462.783 Y4.737
X462.898 Y4.456
X463.026 Y4.185
X463.151 Y3.957
X463.159 Y3.944
X463.361 Y3.673
X463.605 Y3.44
X463.886 Y3.252
X464.194 Y3.113
X464.521 Y3.029
X464.858 Y3
X465.281
G3 X465.852 Y3.502 I-0.021 J0.6
G1 X467.958 Y16.303
G3 X467.615 Y16.946 I-0.592 J0.097
X467.387 Y17 I-0.249 J-0.546
G1 X466.127
X465.936 Y16.99
X465.812 Y16.977
X465.684 Y16.956
X465.538 Y16.924
X465.388 Y16.881
X465.219 Y16.823
X465.046 Y16.752
X464.854 Y16.661
X464.655 Y16.552
X464.445 Y16.422
X464.219 Y16.262
X463.995 Y16.085
X463.748 Y15.865
X463.504 Y15.624
X463.25 Y15.341
X462.983 Y15.007
X462.729 Y14.652
X462.471 Y14.242
X462.213 Y13.778
X461.964 Y13.264
X461.731 Y12.702
X461.523 Y12.11
X461.347 Y11.507
X461.203 Y10.896
X461.089 Y10.278
X461.004 Y9.656
X460.947 Y9.031
X460.92 Y8.404
X460.922 Y7.776
X460.956 Y7.149
X461.021 Y6.529
X461.11 Y5.989
X461.218 Y5.499
X461.334 Y5.089
X461.455 Y4.737
X461.569 Y4.456
X461.698 Y4.185
X461.822 Y3.957
X461.83 Y3.944
X462.032 Y3.673
X462.277 Y3.44
X462.557 Y3.252
X462.865 Y3.113
X463.192 Y3.029
X463.529 Y3
X463.931
G3 X464.158 Y3.054 I-0.021 J0.6
X464.501 Y3.498 I-0.249 J0.546
G1 X466.697 Y16.299
G3 X466.355 Y16.946 I-0.591 J0.101
X466.127 Y17 I-0.249 J-0.546
G1 X464.768
X464.61 Y16.992
X464.486 Y16.979
X464.358 Y16.958
X464.212 Y16.925
X464.062 Y16.883
X463.892 Y16.825
X463.719 Y16.754
X463.526 Y16.662
X463.327 Y16.553
X463.118 Y16.422
X462.891 Y16.263
X462.667 Y16.085
X462.419 Y15.866
X462.176 Y15.624
X461.922 Y15.341
X461.654 Y15.008
X461.401 Y14.652
X461.142 Y14.242
X460.884 Y13.778
X460.636 Y13.264
X460.402 Y12.702
X460.194 Y12.11
X460.018 Y11.507
X459.874 Y10.896
X459.76 Y10.278
X459.675 Y9.656
X459.619 Y9.031
X459.592 Y8.403
X459.594 Y7.776
X459.627 Y7.149
X459.693 Y6.529
X459.781 Y5.989
X459.889 Y5.499
X460.005 Y5.089
X460.126 Y4.737
X460.24 Y4.456
X460.369 Y4.185
X460.493 Y3.957
X460.502 Y3.944
X460.703 Y3.673
X460.948 Y3.44
X461.228 Y3.252
X461.536 Y3.113
X461.863 Y3.029
X462.2 Y3
X462.62
G3 X463.19 Y3.5 I-0.021 J0.6
G1 X465.339 Y16.301
G3 X464.768 Y17 I-0.592 J0.099
G1 X463.427
X463.282 Y16.993
X463.158 Y16.979
X463.03 Y16.959
X462.884 Y16.926
X462.734 Y16.884
X462.564 Y16.825
X462.391 Y16.754
X462.198 Y16.663
X461.999 Y16.554
X461.789 Y16.423
X461.563 Y16.264
X461.338 Y16.086
X461.091 Y15.866
X460.848 Y15.625
X460.593 Y15.342
X460.326 Y15.008
X460.072 Y14.652
X459.814 Y14.243
X459.556 Y13.778
X459.307 Y13.264
X459.073 Y12.702
X458.865 Y12.11
X458.69 Y11.507
X458.545 Y10.896
X458.431 Y10.278
X458.346 Y9.656
X458.29 Y9.031
X458.263 Y8.404
X458.265 Y7.776
X458.298 Y7.149
X458.364 Y6.529
X458.452 Y5.989
X458.561 Y5.499
X458.676 Y5.089
X458.797 Y4.737
X458.911 Y4.456
X459.04 Y4.185
X459.165 Y3.957
X459.173 Y3.944
X459.375 Y3.673
X459.619 Y3.44
X459.9 Y3.252
X460.208 Y3.113
X460.535 Y3.029
X460.871 Y3
X461.267
G3 X461.495 Y3.054 I-0.021 J0.6
X461.838 Y3.5 I-0.249 J0.546
G1 X463.998 Y16.301
G3 X463.655 Y16.946 I-0.592 J0.1
X463.427 Y17 I-0.249 J-0.546
G1 X462.068
X461.955 Y16.994
X461.831 Y16.981
X461.703 Y16.96
X461.556 Y16.927
X461.406 Y16.885
X461.237 Y16.827
X461.063 Y16.756
X460.87 Y16.664
X460.671 Y16.555
X460.461 Y16.424
X460.235 Y16.265
X460.01 Y16.087
X459.763 Y15.867
X459.52 Y15.626
X459.265 Y15.343
X458.997 Y15.009
X458.744 Y14.653
X458.485 Y14.243
X458.227 Y13.779
X457.978 Y13.264
X457.745 Y12.703
X457.537 Y12.11
X457.361 Y11.507
X457.217 Y10.896
X457.103 Y10.279
X457.018 Y9.657
X456.961 Y9.031
X456.934 Y8.404
X456.936 Y7.776
X456.97 Y7.149
X457.035 Y6.53
X457.123 Y5.989
X457.232 Y5.499
X457.347 Y5.089
X457.468 Y4.737
X457.583 Y4.456
X457.712 Y4.185
X457.836 Y3.957
X457.844 Y3.944
X458.046 Y3.673
X458.291 Y3.44
X458.571 Y3.252
X458.879 Y3.113
X459.206 Y3.029
X459.543 Y3
X459.951
G3 X460.522 Y3.502 I-0.021 J0.6
G1 X462.639 Y16.302
G3 X462.068 Y17 I-0.592 J0.098
G1 X460.727
X460.626 Y16.995
X460.502 Y16.982
X460.374 Y16.961
X460.228 Y16.928
X460.078 Y16.886
X459.908 Y16.827
X459.735 Y16.756
X459.542 Y16.665
X459.343 Y16.556
X459.133 Y16.425
X458.907 Y16.266
X458.682 Y16.088
X458.434 Y15.868
X458.191 Y15.626
X457.937 Y15.343
X457.669 Y15.009
X457.415 Y14.654
X457.156 Y14.244
X456.899 Y13.779
X456.65 Y13.265
X456.416 Y12.703
X456.208 Y12.111
X456.032 Y11.508
X455.888 Y10.897
X455.774 Y10.279
X455.689 Y9.657
X455.633 Y9.032
X455.605 Y8.404
X455.608 Y7.777
X455.641 Y7.15
X455.706 Y6.53
X455.795 Y5.99
X455.903 Y5.499
X456.019 Y5.089
X456.14 Y4.737
X456.254 Y4.456
X456.383 Y4.185
X456.507 Y3.958
X456.515 Y3.944
X456.717 Y3.673
X456.962 Y3.44
X457.242 Y3.252
X457.55 Y3.113
X457.877 Y3.029
X458.214 Y3
X458.622
G3 X459.193 Y3.502 I-0.021 J0.6
G1 X461.298 Y16.303
G3 X460.727 Y17 I-0.592 J0.097
G1 X459.467
X459.293 Y16.991
X459.169 Y16.978
X459.041 Y16.957
X458.895 Y16.925
X458.745 Y16.882
X458.576 Y16.824
X458.403 Y16.753
X458.211 Y16.662
X458.012 Y16.553
X457.802 Y16.422
X457.576 Y16.263
X457.352 Y16.085
X457.104 Y15.866
X456.861 Y15.624
X456.607 Y15.341
X456.34 Y15.008
X456.086 Y14.653
X455.827 Y14.243
X455.57 Y13.779
X455.321 Y13.264
X455.087 Y12.702
X454.879 Y12.11
X454.704 Y11.507
X454.559 Y10.896
X454.445 Y10.279
X454.36 Y9.657
X454.304 Y9.031
X454.277 Y8.404
X454.279 Y7.776
X454.312 Y7.149
X454.378 Y6.53
X454.466 Y5.989
X454.575 Y5.499
X454.69 Y5.089
X454.811 Y4.737
X454.925 Y4.456
X455.054 Y4.185
X455.178 Y3.957
X455.187 Y3.944
X455.389 Y3.673
X455.633 Y3.44
X455.914 Y3.252
X456.222 Y3.113
X456.549 Y3.029
X456.885 Y3
X457.307
G3 X457.535 Y3.054 I-0.021 J0.6
X457.878 Y3.5 I-0.249 J0.546
G1 X460.038 Y16.301
G3 X459.695 Y16.946 I-0.592 J0.1
X459.467 Y17 I-0.249 J-0.546
G1 X458.108
X457.967 Y16.993
X457.843 Y16.98
X457.715 Y16.959
X457.569 Y16.926
X457.419 Y16.884
X457.249 Y16.825
X457.076 Y16.754
X456.883 Y16.663
X456.684 Y16.554
X456.474 Y16.423
X456.248 Y16.264
X456.023 Y16.086
X455.776 Y15.866
X455.533 Y15.625
X455.279 Y15.342
X455.011 Y15.008
X454.758 Y14.653
X454.499 Y14.243
X454.241 Y13.779
X453.992 Y13.264
X453.758 Y12.702
X453.55 Y12.11
X453.375 Y11.507
X453.231 Y10.896
X453.116 Y10.279
X453.031 Y9.657
X452.975 Y9.031
X452.948 Y8.404
X452.95 Y7.776
X452.983 Y7.149
X453.049 Y6.53
X453.137 Y5.989
X453.246 Y5.499
X453.361 Y5.089
X453.482 Y4.737
X453.597 Y4.456
X453.725 Y4.185
X453.85 Y3.957
X453.858 Y3.944
X454.06 Y3.673
X454.304 Y3.44
X454.585 Y3.252
X454.893 Y3.113
X455.22 Y3.029
X455.556 Y3
X455.967
G3 X456.537 Y3.501 I-0.021 J0.6
G1 X458.679 Y16.301
G3 X458.108 Y17 I-0.592 J0.099
G1 X456.767
X456.639 Y16.994
X456.515 Y16.98
X456.387 Y16.959
X456.24 Y16.927
X456.091 Y16.884
X455.921 Y16.826
X455.747 Y16.755
X455.555 Y16.663
X455.356 Y16.555
X455.146 Y16.424
X454.92 Y16.265
X454.695 Y16.087
X454.448 Y15.867
X454.204 Y15.625
X453.95 Y15.342
X453.682 Y15.009
X453.429 Y14.653
X453.17 Y14.243
X452.912 Y13.779
X452.663 Y13.264
X452.43 Y12.703
X452.222 Y12.11
X452.046 Y11.507
X451.902 Y10.896
X451.788 Y10.279
X451.703 Y9.657
X451.646 Y9.031
X451.619 Y8.404
X451.621 Y7.776
X451.655 Y7.149
X451.72 Y6.53
X451.808 Y5.989
X451.917 Y5.499
X452.033 Y5.089
X452.153 Y4.737
X452.268 Y4.456
X452.397 Y4.185
X452.521 Y3.957
X452.529 Y3.944
X452.731 Y3.673
X452.976 Y3.44
X453.256 Y3.252
X453.564 Y3.113
X453.891 Y3.029
X454.228 Y3
X454.638
G3 X455.208 Y3.501 I-0.021 J0.6
G1 X457.338 Y16.302
G3 X456.767 Y17 I-0.592 J0.098
G1 X455.508
X455.306 Y16.99
X455.182 Y16.977
X455.055 Y16.956
X454.908 Y16.923
X454.759 Y16.881
X454.589 Y16.823
X454.416 Y16.752
X454.224 Y16.66
X454.025 Y16.551
X453.815 Y16.421
X453.589 Y16.262
X453.365 Y16.084
X453.118 Y15.865
X452.875 Y15.623
X452.62 Y15.34
X452.353 Y15.007
X452.1 Y14.652
X451.841 Y14.242
X451.583 Y13.778
X451.334 Y13.263
X451.101 Y12.702
X450.893 Y12.109
X450.717 Y11.507
X450.573 Y10.895
X450.459 Y10.278
X450.374 Y9.656
X450.318 Y9.031
X450.29 Y8.403
X450.293 Y7.775
X450.326 Y7.148
X450.392 Y6.529
X450.48 Y5.989
X450.588 Y5.498
X450.704 Y5.088
X450.825 Y4.736
X450.939 Y4.456
X451.068 Y4.185
X451.192 Y3.957
X451.2 Y3.944
X451.402 Y3.673
X451.647 Y3.44
X451.927 Y3.252
X452.235 Y3.113
X452.562 Y3.029
X452.899 Y3
X453.311
G3 X453.539 Y3.054 I-0.021 J0.6
X453.882 Y3.498 I-0.249 J0.546
G1 X456.078 Y16.299
G3 X455.735 Y16.946 I-0.591 J0.101
X455.508 Y17 I-0.249 J-0.546
G1 X454.149
X453.98 Y16.992
X453.856 Y16.978
X453.728 Y16.957
X453.582 Y16.925
X453.432 Y16.882
X453.262 Y16.824
X453.089 Y16.753
X452.897 Y16.662
X452.698 Y16.553
X452.488 Y16.422
X452.261 Y16.263
X452.037 Y16.085
X451.79 Y15.865
X451.546 Y15.624
X451.292 Y15.341
X451.025 Y15.007
X450.771 Y14.652
X450.512 Y14.242
X450.255 Y13.778
X450.006 Y13.263
X449.772 Y12.702
X449.564 Y12.109
X449.389 Y11.506
X449.244 Y10.895
X449.13 Y10.278
X449.045 Y9.656
X448.989 Y9.03
X448.962 Y8.403
X448.964 Y7.775
X448.997 Y7.148
X449.063 Y6.529
X449.151 Y5.989
X449.26 Y5.498
X449.375 Y5.088
X449.496 Y4.736
X449.611 Y4.456
X449.739 Y4.185
X449.864 Y3.957
X449.872 Y3.944
X450.074 Y3.673
X450.318 Y3.44
X450.599 Y3.252
X450.907 Y3.113
X451.234 Y3.029
X451.57 Y3
X451.962
G3 X452.533 Y3.499 I-0.021 J0.6
G1 X454.719 Y16.299
G3 X454.149 Y17 I-0.591 J0.101
G1 X452.808
X452.652 Y16.992
X452.528 Y16.979
X452.4 Y16.958
X452.254 Y16.925
X452.104 Y16.883
X451.934 Y16.825
X451.761 Y16.754
X451.568 Y16.662
X451.369 Y16.553
X451.159 Y16.423
X450.933 Y16.263
X450.708 Y16.085
X450.461 Y15.866
X450.218 Y15.624
X449.964 Y15.341
X449.696 Y15.007
X449.443 Y14.652
X449.184 Y14.242
X448.926 Y13.778
X448.677 Y13.263
X448.444 Y12.702
X448.235 Y12.109
X448.06 Y11.506
X447.916 Y10.895
X447.801 Y10.278
X447.716 Y9.656
X447.66 Y9.03
X447.633 Y8.403
X447.635 Y7.775
X447.669 Y7.148
X447.734 Y6.529
X447.822 Y5.989
X447.931 Y5.498
X448.047 Y5.088
X448.167 Y4.736
X448.282 Y4.456
X448.411 Y4.185
X448.535 Y3.957
X448.543 Y3.944
X448.745 Y3.673
X448.99 Y3.44
X449.27 Y3.252
X449.578 Y3.113
X449.905 Y3.029
X450.242 Y3
X450.648
G3 X450.876 Y3.054 I-0.021 J0.6
X451.219 Y3.5 I-0.249 J0.546
G1 X453.378 Y16.301
G3 X453.036 Y16.946 I-0.592 J0.1
X452.808 Y17 I-0.249 J-0.546
G1 X451.449
X451.325 Y16.994
X451.201 Y16.981
X451.073 Y16.96
X450.926 Y16.927
X450.776 Y16.885
X450.607 Y16.826
X450.433 Y16.755
X450.241 Y16.664
X450.042 Y16.555
X449.832 Y16.424
X449.605 Y16.265
X449.38 Y16.087
X449.133 Y15.867
X448.89 Y15.625
X448.635 Y15.342
X448.368 Y15.008
X448.114 Y14.653
X447.855 Y14.243
X447.598 Y13.779
X447.348 Y13.264
X447.115 Y12.702
X446.907 Y12.11
X446.731 Y11.507
X446.587 Y10.896
X446.473 Y10.278
X446.388 Y9.656
X446.332 Y9.031
X446.304 Y8.404
X446.307 Y7.776
X446.34 Y7.149
X446.405 Y6.529
X446.494 Y5.989
X446.602 Y5.499
X446.718 Y5.089
X446.839 Y4.737
X446.953 Y4.456
X447.082 Y4.185
X447.206 Y3.957
X447.214 Y3.944
X447.416 Y3.673
X447.661 Y3.44
X447.941 Y3.252
X448.249 Y3.113
X448.576 Y3.029
X448.913 Y3
X449.307
G3 X449.878 Y3.501 I-0.021 J0.6
G1 X452.02 Y16.301
G3 X451.677 Y16.946 I-0.592 J0.099
X451.449 Y17 I-0.249 J-0.546
G1 X450.108
X449.996 Y16.994
X449.872 Y16.981
X449.744 Y16.96
X449.598 Y16.928
X449.448 Y16.885
X449.278 Y16.827
X449.105 Y16.756
X448.912 Y16.664
X448.713 Y16.555
X448.503 Y16.424
X448.277 Y16.265
X448.052 Y16.087
X447.804 Y15.867
X447.561 Y15.626
X447.307 Y15.343
X447.039 Y15.009
X446.786 Y14.653
X446.527 Y14.243
X446.269 Y13.779
X446.02 Y13.264
X445.786 Y12.703
X445.578 Y12.11
X445.403 Y11.507
X445.258 Y10.896
X445.144 Y10.279
X445.059 Y9.657
X445.003 Y9.031
X444.976 Y8.404
X444.978 Y7.776
X445.011 Y7.149
X445.077 Y6.53
X445.165 Y5.989
X445.273 Y5.499
X445.389 Y5.089
X445.51 Y4.737
X445.624 Y4.456
X445.753 Y4.185
X445.877 Y3.957
X445.886 Y3.944
X446.087 Y3.673
X446.332 Y3.44
X446.612 Y3.252
X446.921 Y3.113
X447.248 Y3.029
X447.584 Y3
X448.003
G3 X448.574 Y3.502 I-0.021 J0.6
G1 X450.679 Y16.303
G3 X450.336 Y16.946 I-0.592 J0.097
X450.108 Y17 I-0.249 J-0.546
G1 X448.848
X448.663 Y16.991
X448.539 Y16.978
X448.412 Y16.957
X448.265 Y16.924
X448.116 Y16.882
X447.946 Y16.823
X447.773 Y16.753
X447.581 Y16.661
X447.382 Y16.552
X447.172 Y16.422
X446.946 Y16.263
X446.722 Y16.085
X446.475 Y15.865
X446.231 Y15.624
X445.977 Y15.341
X445.71 Y15.007
X445.456 Y14.652
X445.198 Y14.242
X444.94 Y13.778
X444.691 Y13.264
X444.457 Y12.702
X444.249 Y12.11
X444.074 Y11.507
X443.93 Y10.896
X443.815 Y10.278
X443.73 Y9.656
X443.674 Y9.031
X443.647 Y8.403
X443.649 Y7.776
X443.682 Y7.149
X443.748 Y6.529
X443.836 Y5.989
X443.945 Y5.499
X444.06 Y5.089
X444.181 Y4.737
X444.296 Y4.456
X444.424 Y4.185
X444.549 Y3.957
X444.557 Y3.944
X444.759 Y3.673
X445.003 Y3.44
X445.284 Y3.252
X445.592 Y3.113
X445.919 Y3.029
X446.255 Y3
X446.652
G3 X446.88 Y3.054 I-0.021 J0.6
X447.222 Y3.498 I-0.249 J0.546
G1 X449.418 Y16.299
G3 X449.076 Y16.946 I-0.591 J0.101
X448.848 Y17 I-0.249 J-0.546
G1 X447.489
X447.337 Y16.992
X447.213 Y16.979
X447.085 Y16.958
X446.939 Y16.926
X446.789 Y16.883
X446.619 Y16.825
X446.446 Y16.754
X446.254 Y16.662
X446.054 Y16.553
X445.845 Y16.423
X445.618 Y16.263
X445.394 Y16.086
X445.146 Y15.866
X444.903 Y15.624
X444.649 Y15.341
X444.381 Y15.008
X444.128 Y14.652
X443.869 Y14.242
X443.611 Y13.778
X443.362 Y13.263
X443.129 Y12.702
X442.921 Y12.11
X442.745 Y11.507
X442.601 Y10.896
X442.487 Y10.278
X442.402 Y9.656
X442.345 Y9.031
X442.318 Y8.403
X442.32 Y7.775
X442.354 Y7.148
X442.419 Y6.529
X442.507 Y5.989
X442.616 Y5.499
X442.732 Y5.089
X442.853 Y4.737
X442.967 Y4.456
X443.096 Y4.185
X443.22 Y3.957
X443.228 Y3.944
X443.43 Y3.673
X443.675 Y3.44
X443.955 Y3.252
X444.263 Y3.113
X444.59 Y3.029
X444.927 Y3
X445.347
G3 X445.918 Y3.501 I-0.021 J0.6
G1 X448.06 Y16.301
G3 X447.489 Y17 I-0.592 J0.099
G1 X446.148
X446.009 Y16.993
X445.885 Y16.98
X445.757 Y16.959
X445.611 Y16.926
X445.461 Y16.884
X445.291 Y16.825
X445.118 Y16.755
X444.925 Y16.663
X444.726 Y16.554
X444.516 Y16.423
X444.29 Y16.264
X444.065 Y16.086
X443.818 Y15.866
X443.575 Y15.625
X443.32 Y15.342
X443.053 Y15.008
X442.799 Y14.653
X442.54 Y14.243
X442.283 Y13.778
X442.034 Y13.264
X441.8 Y12.702
X441.592 Y12.11
X441.416 Y11.507
X441.272 Y10.896
X441.158 Y10.278
X441.073 Y9.656
X441.017 Y9.031
X440.99 Y8.404
X440.992 Y7.776
X441.025 Y7.149
X441.09 Y6.529
X441.179 Y5.989
X441.287 Y5.499
X441.403 Y5.089
X441.524 Y4.737
X441.638 Y4.456
X441.767 Y4.185
X441.891 Y3.957
X441.899 Y3.944
X442.101 Y3.673
X442.346 Y3.44
X442.626 Y3.252
X442.934 Y3.113
X443.261 Y3.029
X443.598 Y3
X444.018
G3 X444.589 Y3.501 I-0.021 J0.6
G1 X446.719 Y16.302
G3 X446.148 Y17 I-0.592 J0.098
G1 X444.789
X444.682 Y16.995
X444.558 Y16.981
X444.43 Y16.96
X444.283 Y16.928
X444.133 Y16.885
X443.964 Y16.827
X443.79 Y16.756
X443.597 Y16.664
X443.398 Y16.555
X443.188 Y16.425
X442.962 Y16.265
X442.737 Y16.087
X442.49 Y15.868
X442.246 Y15.626
X441.992 Y15.343
X441.724 Y15.009
X441.471 Y14.653
X441.212 Y14.243
X440.954 Y13.779
X440.705 Y13.264
X440.471 Y12.703
X440.263 Y12.11
X440.088 Y11.507
X439.944 Y10.896
X439.829 Y10.279
X439.744 Y9.657
X439.688 Y9.031
X439.661 Y8.404
X439.663 Y7.776
X439.696 Y7.149
X439.762 Y6.53
X439.85 Y5.989
X439.959 Y5.499
X440.074 Y5.089
X440.195 Y4.737
X440.309 Y4.456
X440.438 Y4.185
X440.563 Y3.957
X440.571 Y3.944
X440.773 Y3.673
X441.017 Y3.44
X441.298 Y3.252
X441.606 Y3.113
X441.933 Y3.029
X442.269 Y3
X442.692
G3 X443.263 Y3.503 I-0.021 J0.6
G1 X445.36 Y16.303
G3 X444.789 Y17 I-0.592 J0.097
G1 X443.448
X443.353 Y16.995
X443.229 Y16.982
X443.101 Y16.961
X442.954 Y16.928
X442.805 Y16.886
X442.635 Y16.828
X442.461 Y16.757
X442.269 Y16.665
X442.07 Y16.556
X441.86 Y16.425
X441.633 Y16.266
X441.409 Y16.088
X441.161 Y15.868
X440.918 Y15.627
X440.663 Y15.343
X440.396 Y15.01
X440.142 Y14.654
X439.883 Y14.244
X439.625 Y13.78
X439.376 Y13.265
X439.143 Y12.703
X438.935 Y12.111
X438.759 Y11.508
X438.615 Y10.897
X438.501 Y10.279
X438.416 Y9.657
X438.359 Y9.032
X438.332 Y8.404
X438.334 Y7.777
X438.367 Y7.15
X438.433 Y6.53
X438.521 Y5.99
X438.63 Y5.499
X438.745 Y5.089
X438.866 Y4.737
X438.981 Y4.457
X439.109 Y4.185
X439.234 Y3.958
X439.242 Y3.944
X439.444 Y3.673
X439.688 Y3.44
X439.969 Y3.252
X440.277 Y3.113
X440.604 Y3.029
X440.941 Y3
X441.343
G3 X441.914 Y3.502 I-0.021 J0.6
G1 X444.019 Y16.303
G3 X443.448 Y17 I-0.592 J0.097
G1 X442.188
X442.02 Y16.992
X441.896 Y16.978
X441.768 Y16.957
X441.622 Y16.925
X441.472 Y16.883
X441.303 Y16.824
X441.13 Y16.753
X440.938 Y16.662
X440.739 Y16.553
X440.529 Y16.423
X440.303 Y16.263
X440.078 Y16.086
X439.831 Y15.866
X439.588 Y15.625
X439.334 Y15.342
X439.066 Y15.008
X438.813 Y14.653
X438.554 Y14.243
X438.296 Y13.779
X438.047 Y13.264
X437.814 Y12.703
X437.606 Y12.11
X437.43 Y11.507
X437.286 Y10.896
X437.172 Y10.279
X437.087 Y9.657
X437.031 Y9.031
X437.003 Y8.404
X437.006 Y7.776
X437.039 Y7.149
X437.104 Y6.53
X437.193 Y5.989
X437.301 Y5.499
X437.417 Y5.089
X437.538 Y4.737
X437.652 Y4.456
X437.781 Y4.185
X437.905 Y3.957
X437.913 Y3.944
X438.115 Y3.673
X438.36 Y3.44
X438.64 Y3.252
X438.948 Y3.113
X439.275 Y3.029
X439.612 Y3
X440.029
G3 X440.256 Y3.054 I-0.021 J0.6
X440.599 Y3.5 I-0.249 J0.546
G1 X442.759 Y16.301
G3 X442.416 Y16.946 I-0.592 J0.1
X442.188 Y17 I-0.249 J-0.546
G1 X440.83
X440.694 Y16.993
X440.57 Y16.98
X440.442 Y16.959
X440.295 Y16.926
X440.146 Y16.884
X439.976 Y16.826
X439.803 Y16.755
X439.61 Y16.663
X439.411 Y16.554
X439.201 Y16.423
X438.975 Y16.264
X438.75 Y16.086
X438.503 Y15.867
X438.26 Y15.625
X438.005 Y15.342
X437.738 Y15.008
X437.484 Y14.653
X437.225 Y14.243
X436.968 Y13.779
X436.719 Y13.264
X436.485 Y12.703
X436.277 Y12.11
X436.102 Y11.507
X435.957 Y10.896
X435.843 Y10.279
X435.758 Y9.657
X435.702 Y9.031
X435.675 Y8.404
X435.677 Y7.776
X435.71 Y7.149
X435.776 Y6.53
X435.864 Y5.989
X435.972 Y5.499
X436.088 Y5.089
X436.209 Y4.737
X436.323 Y4.456
X436.452 Y4.185
X436.576 Y3.957
X436.585 Y3.944
X436.786 Y3.673
X437.031 Y3.44
X437.311 Y3.252
X437.62 Y3.113
X437.947 Y3.029
X438.283 Y3
X438.688
G3 X439.259 Y3.501 I-0.021 J0.6
G1 X441.4 Y16.301
G3 X440.83 Y17 I-0.592 J0.099
G1 X439.489
X439.366 Y16.994
X439.241 Y16.981
X439.114 Y16.96
X438.967 Y16.927
X438.817 Y16.885
X438.648 Y16.826
X438.474 Y16.755
X438.282 Y16.664
X438.083 Y16.555
X437.873 Y16.424
X437.647 Y16.265
X437.422 Y16.087
X437.174 Y15.867
X436.931 Y15.626
X436.677 Y15.342
X436.409 Y15.009
X436.156 Y14.653
X435.897 Y14.243
X435.639 Y13.779
X435.39 Y13.264
X435.156 Y12.703
X434.948 Y12.11
X434.773 Y11.507
X434.629 Y10.896
X434.514 Y10.279
X434.429 Y9.657
X434.373 Y9.031
X434.346 Y8.404
X434.348 Y7.776
X434.381 Y7.149
X434.447 Y6.53
X434.535 Y5.989
X434.644 Y5.499
X434.759 Y5.089
X434.88 Y4.737
X434.994 Y4.456
X435.123 Y4.185
X435.248 Y3.957
X435.256 Y3.944
X435.458 Y3.673
X435.702 Y3.44
X435.983 Y3.252
X436.291 Y3.113
X436.618 Y3.029
X436.954 Y3
X437.359
G3 X437.93 Y3.501 I-0.021 J0.6
G1 X440.06 Y16.302
G3 X439.489 Y17 I-0.592 J0.098
G1 X438.229
X438.033 Y16.99
X437.909 Y16.977
X437.781 Y16.956
X437.635 Y16.923
X437.485 Y16.881
X437.316 Y16.823
X437.143 Y16.752
X436.951 Y16.661
X436.752 Y16.552
X436.542 Y16.421
X436.316 Y16.262
X436.092 Y16.084
X435.844 Y15.865
X435.601 Y15.623
X435.347 Y15.341
X435.08 Y15.007
X434.826 Y14.652
X434.568 Y14.242
X434.31 Y13.778
X434.061 Y13.263
X433.828 Y12.702
X433.62 Y12.11
X433.444 Y11.507
X433.3 Y10.896
X433.186 Y10.278
X433.101 Y9.656
X433.044 Y9.031
X433.017 Y8.403
X433.019 Y7.775
X433.053 Y7.148
X433.118 Y6.529
X433.206 Y5.989
X433.315 Y5.499
X433.431 Y5.089
X433.551 Y4.737
X433.666 Y4.456
X433.795 Y4.185
X433.919 Y3.957
X433.927 Y3.944
X434.129 Y3.673
X434.374 Y3.44
X434.654 Y3.252
X434.962 Y3.113
X435.289 Y3.029
X435.626 Y3
X436.032
G3 X436.26 Y3.054 I-0.021 J0.6
X436.603 Y3.498 I-0.249 J0.546
G1 X438.799 Y16.299
G3 X438.457 Y16.946 I-0.591 J0.101
X438.229 Y17 I-0.249 J-0.546
G1 X436.87
X436.707 Y16.992
X436.583 Y16.979
X436.455 Y16.958
X436.309 Y16.925
X436.159 Y16.883
X435.989 Y16.824
X435.816 Y16.753
X435.623 Y16.662
X435.424 Y16.553
X435.215 Y16.422
X434.988 Y16.263
X434.764 Y16.085
X434.516 Y15.866
X434.273 Y15.624
X434.019 Y15.341
X433.751 Y15.007
X433.498 Y14.652
X433.239 Y14.242
X432.981 Y13.778
X432.732 Y13.263
X432.499 Y12.702
X432.291 Y12.109
X432.115 Y11.507
X431.971 Y10.895
X431.857 Y10.278
X431.772 Y9.656
X431.716 Y9.031
X431.688 Y8.403
X431.691 Y7.775
X431.724 Y7.148
X431.789 Y6.529
X431.878 Y5.989
X431.986 Y5.498
X432.102 Y5.088
X432.223 Y4.736
X432.337 Y4.456
X432.466 Y4.185
X432.59 Y3.957
X432.598 Y3.944
X432.8 Y3.673
X433.045 Y3.44
X433.325 Y3.252
X433.633 Y3.113
X433.96 Y3.029
X434.297 Y3
X434.721
G3 X434.949 Y3.054 I-0.021 J0.6
X435.292 Y3.5 I-0.249 J0.546
G1 X437.441 Y16.301
G3 X437.098 Y16.946 I-0.592 J0.099
X436.87 Y17 I-0.249 J-0.546
G1 X435.529
X435.379 Y16.992
X435.255 Y16.979
X435.127 Y16.958
X434.98 Y16.926
X434.831 Y16.883
X434.661 Y16.825
X434.488 Y16.754
X434.295 Y16.662
X434.096 Y16.553
X433.886 Y16.423
X433.66 Y16.263
X433.435 Y16.086
X433.188 Y15.866
X432.945 Y15.624
X432.69 Y15.341
X432.423 Y15.008
X432.169 Y14.652
X431.91 Y14.242
X431.653 Y13.778
X431.404 Y13.263
X431.17 Y12.702
X430.962 Y12.11
X430.787 Y11.507
X430.642 Y10.896
X430.528 Y10.278
X430.443 Y9.656
X430.387 Y9.031
X430.36 Y8.403
X430.362 Y7.775
X430.395 Y7.148
X430.461 Y6.529
X430.549 Y5.989
X430.658 Y5.499
X430.773 Y5.088
X430.894 Y4.737
X431.008 Y4.456
X431.137 Y4.185
X431.262 Y3.957
X431.27 Y3.944
X431.472 Y3.673
X431.716 Y3.44
X431.997 Y3.252
X432.305 Y3.113
X432.632 Y3.029
X432.968 Y3
X433.369
G3 X433.597 Y3.054 I-0.021 J0.6
X433.94 Y3.5 I-0.249 J0.546
G1 X436.1 Y16.301
G3 X435.757 Y16.946 I-0.592 J0.1
X435.529 Y17 I-0.249 J-0.546
G1 X434.17
X434.052 Y16.994
X433.927 Y16.981
X433.8 Y16.96
X433.653 Y16.927
X433.503 Y16.885
X433.333 Y16.826
X433.16 Y16.755
X432.967 Y16.664
X432.768 Y16.555
X432.558 Y16.424
X432.332 Y16.265
X432.107 Y16.087
X431.86 Y15.867
X431.617 Y15.625
X431.362 Y15.342
X431.094 Y15.008
X430.841 Y14.653
X430.582 Y14.243
X430.324 Y13.779
X430.075 Y13.264
X429.842 Y12.702
X429.633 Y12.11
X429.458 Y11.507
X429.314 Y10.896
X429.199 Y10.279
X429.114 Y9.656
X429.058 Y9.031
X429.031 Y8.404
X429.033 Y7.776
X429.066 Y7.149
X429.132 Y6.53
X429.22 Y5.989
X429.329 Y5.499
X429.444 Y5.089
X429.565 Y4.737
X429.68 Y4.456
X429.808 Y4.185
X429.933 Y3.957
X429.941 Y3.944
X430.143 Y3.673
X430.387 Y3.44
X430.668 Y3.252
X430.976 Y3.113
X431.303 Y3.029
X431.64 Y3
X432.053
G3 X432.624 Y3.502 I-0.021 J0.6
G1 X434.741 Y16.302
G3 X434.398 Y16.946 I-0.592 J0.098
X434.17 Y17 I-0.249 J-0.546
G1 X432.829
X432.723 Y16.995
X432.599 Y16.981
X432.471 Y16.96
X432.324 Y16.928
X432.175 Y16.885
X432.005 Y16.827
X431.831 Y16.756
X431.639 Y16.664
X431.44 Y16.556
X431.23 Y16.425
X431.003 Y16.265
X430.779 Y16.087
X430.531 Y15.868
X430.288 Y15.626
X430.033 Y15.343
X429.766 Y15.009
X429.512 Y14.654
X429.253 Y14.244
X428.996 Y13.779
X428.747 Y13.264
X428.513 Y12.703
X428.305 Y12.11
X428.129 Y11.508
X427.985 Y10.896
X427.871 Y10.279
X427.786 Y9.657
X427.73 Y9.031
X427.702 Y8.404
X427.704 Y7.776
X427.738 Y7.149
X427.803 Y6.53
X427.891 Y5.989
X428 Y5.499
X428.116 Y5.089
X428.236 Y4.737
X428.351 Y4.456
X428.48 Y4.185
X428.604 Y3.957
X428.612 Y3.944
X428.814 Y3.673
X429.059 Y3.44
X429.339 Y3.252
X429.647 Y3.113
X429.974 Y3.029
X430.311 Y3
X430.724
G3 X431.295 Y3.502 I-0.021 J0.6
G1 X433.4 Y16.303
G3 X433.057 Y16.946 I-0.592 J0.097
X432.829 Y17 I-0.249 J-0.546
G1 X431.569
X431.39 Y16.991
X431.266 Y16.978
X431.138 Y16.957
X430.992 Y16.924
X430.842 Y16.882
X430.673 Y16.824
X430.5 Y16.753
X430.308 Y16.661
X430.109 Y16.553
X429.899 Y16.422
X429.673 Y16.263
X429.448 Y16.085
X429.201 Y15.866
X428.958 Y15.624
X428.704 Y15.341
X428.436 Y15.008
X428.183 Y14.652
X427.924 Y14.242
X427.667 Y13.778
X427.418 Y13.264
X427.184 Y12.702
X426.976 Y12.11
X426.8 Y11.507
X426.656 Y10.896
X426.542 Y10.278
X426.457 Y9.656
X426.401 Y9.031
X426.374 Y8.404
X426.376 Y7.776
X426.409 Y7.149
X426.475 Y6.529
X426.563 Y5.989
X426.671 Y5.499
X426.787 Y5.089
X426.908 Y4.737
X427.022 Y4.456
X427.151 Y4.185
X427.275 Y3.957
X427.284 Y3.944
X427.485 Y3.673
X427.73 Y3.44
X428.01 Y3.252
X428.318 Y3.113
X428.646 Y3.029
X428.982 Y3
X429.393
G3 X429.621 Y3.054 I-0.021 J0.6
X429.963 Y3.499 I-0.249 J0.546
G1 X432.14 Y16.3
G3 X431.797 Y16.946 I-0.592 J0.101
X431.569 Y17 I-0.249 J-0.546
G1 X430.21
X430.064 Y16.993
X429.94 Y16.979
X429.812 Y16.958
X429.666 Y16.926
X429.516 Y16.884
X429.346 Y16.825
X429.173 Y16.754
X428.98 Y16.663
X428.781 Y16.554
X428.571 Y16.423
X428.345 Y16.264
X428.12 Y16.086
X427.873 Y15.866
X427.63 Y15.625
X427.375 Y15.342
X427.108 Y15.008
X426.854 Y14.653
X426.596 Y14.243
X426.338 Y13.778
X426.089 Y13.264
X425.855 Y12.702
X425.647 Y12.11
X425.472 Y11.507
X425.328 Y10.896
X425.213 Y10.278
X425.128 Y9.656
X425.072 Y9.031
X425.045 Y8.404
X425.047 Y7.776
X425.08 Y7.149
X425.146 Y6.529
X425.234 Y5.989
X425.343 Y5.499
X425.458 Y5.089
X425.579 Y4.737
X425.693 Y4.456
X425.822 Y4.185
X425.947 Y3.957
X425.955 Y3.944
X426.157 Y3.673
X426.401 Y3.44
X426.682 Y3.252
X426.99 Y3.113
X427.317 Y3.029
X427.653 Y3
X428.068
G3 X428.639 Y3.501 I-0.021 J0.6
G1 X430.781 Y16.301
G3 X430.21 Y17 I-0.592 J0.099
G1 X428.869
X428.736 Y16.993
X428.612 Y16.98
X428.484 Y16.959
X428.337 Y16.926
X428.187 Y16.884
X428.018 Y16.826
X427.844 Y16.755
X427.652 Y16.663
X427.453 Y16.554
X427.243 Y16.424
X427.017 Y16.264
X426.792 Y16.086
X426.544 Y15.867
X426.301 Y15.625
X426.047 Y15.342
X425.779 Y15.008
X425.526 Y14.653
X425.267 Y14.243
X425.009 Y13.779
X424.76 Y13.264
X424.527 Y12.702
X424.319 Y12.11
X424.143 Y11.507
X423.999 Y10.896
X423.885 Y10.279
X423.8 Y9.656
X423.743 Y9.031
X423.716 Y8.404
X423.718 Y7.776
X423.752 Y7.149
X423.817 Y6.53
X423.905 Y5.989
X424.014 Y5.499
X424.129 Y5.089
X424.25 Y4.737
X424.365 Y4.456
X424.494 Y4.185
X424.618 Y3.957
X424.626 Y3.944
X424.828 Y3.673
X425.073 Y3.44
X425.353 Y3.252
X425.661 Y3.113
X425.988 Y3.029
X426.325 Y3
X426.739
G3 X427.31 Y3.501 I-0.021 J0.6
G1 X429.44 Y16.302
G3 X428.869 Y17 I-0.592 J0.098
G1 X427.51
X427.409 Y16.995
X427.284 Y16.982
X427.157 Y16.961
X427.01 Y16.928
X426.86 Y16.886
X426.69 Y16.827
X426.517 Y16.756
X426.324 Y16.665
X426.125 Y16.556
X425.915 Y16.425
X425.689 Y16.266
X425.464 Y16.088
X425.216 Y15.868
X424.973 Y15.626
X424.719 Y15.343
X424.451 Y15.009
X424.197 Y14.654
X423.938 Y14.244
X423.681 Y13.779
X423.432 Y13.264
X423.198 Y12.703
X422.99 Y12.11
X422.814 Y11.508
X422.67 Y10.896
X422.556 Y10.279
X422.471 Y9.657
X422.415 Y9.032
X422.387 Y8.404
X422.39 Y7.776
X422.423 Y7.149
X422.488 Y6.53
X422.577 Y5.989
X422.685 Y5.499
X422.801 Y5.089
X422.922 Y4.737
X423.036 Y4.456
X423.165 Y4.185
X423.289 Y3.957
X423.297 Y3.944
X423.499 Y3.673
X423.744 Y3.44
X424.024 Y3.252
X424.332 Y3.113
X424.659 Y3.029
X424.996 Y3
X425.413
G3 X425.984 Y3.503 I-0.021 J0.6
G1 X428.082 Y16.303
G3 X427.51 Y17 I-0.592 J0.097
G1 X426.25
X426.075 Y16.991
X425.951 Y16.978
X425.824 Y16.957
X425.677 Y16.925
X425.528 Y16.882
X425.358 Y16.824
X425.185 Y16.753
X424.993 Y16.662
X424.794 Y16.553
X424.584 Y16.422
X424.358 Y16.263
X424.134 Y16.085
X423.886 Y15.866
X423.643 Y15.624
X423.389 Y15.341
X423.122 Y15.008
X422.868 Y14.652
X422.609 Y14.243
X422.352 Y13.779
X422.103 Y13.264
X421.869 Y12.702
X421.661 Y12.11
X421.486 Y11.507
X421.341 Y10.896
X421.227 Y10.279
X421.142 Y9.656
X421.086 Y9.031
X421.059 Y8.404
X421.061 Y7.776
X421.094 Y7.149
X421.16 Y6.53
X421.248 Y5.989
X421.357 Y5.499
X421.472 Y5.089
X421.593 Y4.737
X421.707 Y4.456
X421.836 Y4.185
X421.96 Y3.957
X421.969 Y3.944
X422.171 Y3.673
X422.415 Y3.44
X422.696 Y3.252
X423.004 Y3.113
X423.331 Y3.029
X423.667 Y3
X424.064
G3 X424.635 Y3.499 I-0.021 J0.6
G1 X426.821 Y16.299
G3 X426.25 Y17 I-0.591 J0.101
G1 X424.91
X424.748 Y16.992
X424.624 Y16.979
X424.496 Y16.958
X424.35 Y16.925
X424.2 Y16.883
X424.031 Y16.824
X423.857 Y16.754
X423.665 Y16.662
X423.466 Y16.553
X423.256 Y16.422
X423.03 Y16.263
X422.805 Y16.085
X422.558 Y15.866
X422.315 Y15.624
X422.06 Y15.341
X421.793 Y15.008
X421.539 Y14.652
X421.281 Y14.242
X421.023 Y13.778
X420.774 Y13.264
X420.54 Y12.702
X420.332 Y12.11
X420.157 Y11.507
X420.013 Y10.896
X419.898 Y10.278
X419.813 Y9.656
X419.757 Y9.031
X419.73 Y8.403
X419.732 Y7.776
X419.765 Y7.149
X419.831 Y6.529
X419.919 Y5.989
X420.028 Y5.499
X420.143 Y5.089
X420.264 Y4.737
X420.379 Y4.456
X420.507 Y4.185
X420.632 Y3.957
X420.64 Y3.944
X420.842 Y3.673
X421.086 Y3.44
X421.367 Y3.252
X421.675 Y3.113
X422.002 Y3.029
X422.339 Y3
X422.75
G3 X422.978 Y3.054 I-0.021 J0.6
X423.32 Y3.5 I-0.249 J0.546
G1 X425.48 Y16.301
G3 X425.137 Y16.946 I-0.592 J0.1
X424.91 Y17 I-0.249 J-0.546
G1 X423.551
X423.421 Y16.994
X423.297 Y16.98
X423.169 Y16.959
X423.023 Y16.927
X422.873 Y16.884
X422.703 Y16.826
X422.53 Y16.755
X422.337 Y16.663
X422.138 Y16.554
X421.928 Y16.424
X421.702 Y16.264
X421.477 Y16.086
X421.23 Y15.867
X420.987 Y15.625
X420.732 Y15.342
X420.464 Y15.008
X420.211 Y14.653
X419.952 Y14.243
X419.694 Y13.779
X419.445 Y13.264
X419.212 Y12.702
X419.004 Y12.11
X418.828 Y11.507
X418.684 Y10.896
X418.57 Y10.279
X418.485 Y9.656
X418.428 Y9.031
X418.401 Y8.404
X418.403 Y7.776
X418.437 Y7.149
X418.502 Y6.53
X418.59 Y5.989
X418.699 Y5.499
X418.815 Y5.089
X418.935 Y4.737
X419.05 Y4.456
X419.179 Y4.185
X419.303 Y3.957
X419.311 Y3.944
X419.513 Y3.673
X419.758 Y3.44
X420.038 Y3.252
X420.346 Y3.113
X420.673 Y3.029
X421.01 Y3
X421.409
G3 X421.98 Y3.501 I-0.021 J0.6
G1 X424.121 Y16.301
G3 X423.551 Y17 I-0.592 J0.099
G1 X422.21
X422.093 Y16.994
X421.969 Y16.981
X421.841 Y16.96
X421.694 Y16.927
X421.544 Y16.885
X421.375 Y16.827
X421.201 Y16.756
X421.009 Y16.664
X420.81 Y16.555
X420.6 Y16.424
X420.373 Y16.265
X420.149 Y16.087
X419.901 Y15.867
X419.658 Y15.626
X419.404 Y15.343
X419.136 Y15.009
X418.882 Y14.653
X418.624 Y14.243
X418.366 Y13.779
X418.117 Y13.264
X417.883 Y12.703
X417.675 Y12.11
X417.5 Y11.507
X417.355 Y10.896
X417.241 Y10.279
X417.156 Y9.657
X417.1 Y9.031
X417.073 Y8.404
X417.075 Y7.776
X417.108 Y7.149
X417.173 Y6.53
X417.262 Y5.989
X417.37 Y5.499
X417.486 Y5.089
X417.607 Y4.737
X417.721 Y4.456
X417.85 Y4.185
X417.974 Y3.957
X417.982 Y3.944
X418.184 Y3.673
X418.429 Y3.44
X418.709 Y3.252
X419.017 Y3.113
X419.344 Y3.029
X419.681 Y3
X420.104
G3 X420.675 Y3.502 I-0.021 J0.6
G1 X422.781 Y16.303
G3 X422.21 Y17 I-0.592 J0.097
G1 X420.95
X420.76 Y16.99
X420.636 Y16.977
X420.508 Y16.956
X420.362 Y16.924
X420.212 Y16.881
X420.043 Y16.823
X419.87 Y16.752
X419.678 Y16.661
X419.479 Y16.552
X419.269 Y16.422
X419.043 Y16.262
X418.818 Y16.085
X418.571 Y15.865
X418.328 Y15.624
X418.074 Y15.341
X417.807 Y15.007
X417.553 Y14.652
X417.294 Y14.242
X417.037 Y13.778
X416.788 Y13.263
X416.554 Y12.702
X416.346 Y12.11
X416.171 Y11.507
X416.026 Y10.896
X415.912 Y10.278
X415.827 Y9.656
X415.771 Y9.031
X415.744 Y8.403
X415.746 Y7.776
X415.779 Y7.148
X415.845 Y6.529
X415.933 Y5.989
X416.042 Y5.499
X416.157 Y5.089
X416.278 Y4.737
X416.392 Y4.456
X416.521 Y4.185
X416.646 Y3.957
X416.654 Y3.944
X416.856 Y3.673
X417.1 Y3.44
X417.381 Y3.252
X417.689 Y3.113
X418.016 Y3.029
X418.352 Y3
X418.754
G3 X418.981 Y3.054 I-0.021 J0.6
X419.324 Y3.498 I-0.249 J0.546
G1 X421.52 Y16.299
G3 X421.178 Y16.946 I-0.591 J0.101
X420.95 Y17 I-0.249 J-0.546
G1 X419.591
X419.434 Y16.992
X419.31 Y16.979
X419.182 Y16.958
X419.035 Y16.925
X418.886 Y16.883
X418.716 Y16.825
X418.543 Y16.754
X418.35 Y16.662
X418.151 Y16.553
X417.941 Y16.422
X417.715 Y16.263
X417.49 Y16.085
X417.243 Y15.866
X417 Y15.624
X416.746 Y15.341
X416.478 Y15.007
X416.225 Y14.652
X415.966 Y14.242
X415.708 Y13.778
X415.459 Y13.263
X415.226 Y12.702
X415.017 Y12.11
X414.842 Y11.507
X414.698 Y10.896
X414.583 Y10.278
X414.498 Y9.656
X414.442 Y9.031
X414.415 Y8.403
X414.417 Y7.775
X414.451 Y7.148
X414.516 Y6.529
X414.604 Y5.989
X414.713 Y5.498
X414.829 Y5.088
X414.949 Y4.737
X415.064 Y4.456
X415.193 Y4.185
X415.317 Y3.957
X415.325 Y3.944
X415.527 Y3.673
X415.772 Y3.44
X416.052 Y3.252
X416.36 Y3.113
X416.687 Y3.029
X417.024 Y3
X417.443
G3 X418.013 Y3.5 I-0.021 J0.6
G1 X420.162 Y16.301
G3 X419.819 Y16.946 I-0.592 J0.099
X419.591 Y17 I-0.249 J-0.546
G1 X418.25
X418.106 Y16.993
X417.982 Y16.98
X417.854 Y16.959
X417.707 Y16.926
X417.557 Y16.884
X417.388 Y16.825
X417.214 Y16.754
X417.022 Y16.663
X416.823 Y16.554
X416.613 Y16.423
X416.387 Y16.264
X416.162 Y16.086
X415.915 Y15.866
X415.671 Y15.625
X415.417 Y15.342
X415.149 Y15.008
X414.896 Y14.652
X414.637 Y14.242
X414.379 Y13.778
X414.13 Y13.263
X413.897 Y12.702
X413.689 Y12.11
X413.513 Y11.507
X413.369 Y10.896
X413.255 Y10.278
X413.17 Y9.656
X413.114 Y9.031
X413.086 Y8.403
X413.089 Y7.776
X413.122 Y7.149
X413.187 Y6.529
X413.276 Y5.989
X413.384 Y5.499
X413.5 Y5.089
X413.621 Y4.737
X413.735 Y4.456
X413.864 Y4.185
X413.988 Y3.957
X413.996 Y3.944
X414.198 Y3.673
X414.443 Y3.44
X414.723 Y3.252
X415.031 Y3.113
X415.358 Y3.029
X415.695 Y3
X416.09
G3 X416.318 Y3.054 I-0.021 J0.6
X416.661 Y3.5 I-0.249 J0.546
G1 X418.821 Y16.301
G3 X418.478 Y16.946 I-0.592 J0.1
X418.25 Y17 I-0.249 J-0.546
G1 X416.891
X416.779 Y16.994
X416.654 Y16.981
X416.527 Y16.96
X416.38 Y16.927
X416.23 Y16.885
X416.06 Y16.827
X415.887 Y16.756
X415.694 Y16.664
X415.495 Y16.555
X415.285 Y16.424
X415.059 Y16.265
X414.834 Y16.087
X414.586 Y15.867
X414.343 Y15.626
X414.089 Y15.342
X413.821 Y15.009
X413.568 Y14.653
X413.309 Y14.243
X413.051 Y13.779
X412.802 Y13.264
X412.568 Y12.702
X412.36 Y12.11
X412.185 Y11.507
X412.04 Y10.896
X411.926 Y10.279
X411.841 Y9.657
X411.785 Y9.031
X411.758 Y8.404
X411.76 Y7.776
X411.793 Y7.149
X411.859 Y6.53
X411.947 Y5.989
X412.056 Y5.499
X412.171 Y5.089
X412.292 Y4.737
X412.406 Y4.456
X412.535 Y4.185
X412.659 Y3.957
X412.668 Y3.944
X412.87 Y3.673
X413.114 Y3.44
X413.394 Y3.252
X413.703 Y3.113
X414.03 Y3.029
X414.366 Y3
X414.774
G3 X415.345 Y3.502 I-0.021 J0.6
G1 X417.462 Y16.302
G3 X417.119 Y16.946 I-0.592 J0.098
X416.891 Y17 I-0.249 J-0.546
G1 X415.55
X415.45 Y16.995
X415.326 Y16.982
X415.198 Y16.961
X415.051 Y16.928
X414.901 Y16.886
X414.732 Y16.827
X414.558 Y16.756
X414.366 Y16.665
X414.167 Y16.556
X413.957 Y16.425
X413.73 Y16.266
X413.505 Y16.088
X413.258 Y15.868
X413.015 Y15.626
X412.76 Y15.343
X412.492 Y15.009
X412.239 Y14.654
X411.98 Y14.244
X411.722 Y13.779
X411.473 Y13.265
X411.24 Y12.703
X411.031 Y12.111
X410.856 Y11.508
X410.712 Y10.897
X410.597 Y10.279
X410.512 Y9.657
X410.456 Y9.032
X410.429 Y8.404
X410.431 Y7.776
X410.464 Y7.149
X410.53 Y6.53
X410.618 Y5.989
X410.727 Y5.499
X410.842 Y5.089
X410.963 Y4.737
X411.077 Y4.456
X411.206 Y4.185
X411.331 Y3.957
X411.339 Y3.944
X411.541 Y3.673
X411.785 Y3.44
X412.066 Y3.252
X412.374 Y3.113
X412.701 Y3.029
X413.037 Y3
X413.445
G3 X413.673 Y3.054 I-0.021 J0.6
X414.016 Y3.502 I-0.249 J0.546
G1 X416.121 Y16.303
G3 X415.778 Y16.946 I-0.592 J0.097
X415.55 Y17 I-0.249 J-0.546
G1 X414.29
X414.116 Y16.991
X413.993 Y16.978
X413.865 Y16.957
X413.719 Y16.925
X413.569 Y16.882
X413.4 Y16.824
X413.227 Y16.753
X413.034 Y16.662
X412.835 Y16.553
X412.626 Y16.422
X412.4 Y16.263
X412.175 Y16.085
X411.928 Y15.866
X411.685 Y15.624
X411.431 Y15.341
X411.163 Y15.008
X410.91 Y14.653
X410.651 Y14.243
X410.393 Y13.779
X410.144 Y13.264
X409.911 Y12.702
X409.703 Y12.11
X409.527 Y11.507
X409.383 Y10.896
X409.269 Y10.279
X409.184 Y9.656
X409.127 Y9.031
X409.1 Y8.404
X409.102 Y7.776
X409.136 Y7.149
X409.201 Y6.53
X409.289 Y5.989
X409.398 Y5.499
X409.514 Y5.089
X409.634 Y4.737
X409.749 Y4.456
X409.878 Y4.185
X410.002 Y3.957
X410.01 Y3.944
X410.212 Y3.673
X410.457 Y3.44
X410.737 Y3.252
X411.045 Y3.113
X411.372 Y3.029
X411.709 Y3
X412.13
G3 X412.358 Y3.054 I-0.021 J0.6
X412.701 Y3.5 I-0.249 J0.546
G1 X414.861 Y16.301
G3 X414.518 Y16.946 I-0.592 J0.1
X414.29 Y17 I-0.249 J-0.546
G1 X412.931
X412.791 Y16.993
X412.667 Y16.98
X412.539 Y16.959
X412.392 Y16.926
X412.242 Y16.884
X412.073 Y16.825
X411.899 Y16.754
X411.707 Y16.663
X411.508 Y16.554
X411.298 Y16.423
X411.072 Y16.264
X410.847 Y16.086
X410.6 Y15.866
X410.357 Y15.625
X410.102 Y15.342
X409.835 Y15.008
X409.581 Y14.653
X409.322 Y14.243
X409.065 Y13.779
X408.816 Y13.264
X408.582 Y12.702
X408.374 Y12.11
X408.198 Y11.507
X408.054 Y10.896
X407.94 Y10.279
X407.855 Y9.656
X407.799 Y9.031
X407.772 Y8.404
X407.774 Y7.776
X407.807 Y7.149
X407.872 Y6.53
X407.961 Y5.989
X408.069 Y5.499
X408.185 Y5.089
X408.306 Y4.737
X408.42 Y4.456
X408.549 Y4.185
X408.673 Y3.957
X408.681 Y3.944
X408.883 Y3.673
X409.128 Y3.44
X409.408 Y3.252
X409.716 Y3.113
X410.043 Y3.029
X410.38 Y3
X410.789
G3 X411.36 Y3.501 I-0.021 J0.6
G1 X413.502 Y16.301
G3 X412.931 Y17 I-0.592 J0.099
G1 X411.59
X411.463 Y16.994
X411.338 Y16.98
X411.211 Y16.959
X411.064 Y16.927
X410.914 Y16.884
X410.745 Y16.826
X410.571 Y16.755
X410.379 Y16.663
X410.18 Y16.555
X409.97 Y16.424
X409.743 Y16.265
X409.519 Y16.087
X409.271 Y15.867
X409.028 Y15.625
X408.774 Y15.342
X408.506 Y15.009
X408.253 Y14.653
X407.994 Y14.243
X407.736 Y13.779
X407.487 Y13.264
X407.253 Y12.703
X407.045 Y12.11
X406.87 Y11.507
X406.725 Y10.896
X406.611 Y10.279
X406.526 Y9.657
X406.47 Y9.031
X406.443 Y8.404
X406.445 Y7.776
X406.478 Y7.149
X406.544 Y6.53
X406.632 Y5.989
X406.741 Y5.499
X406.856 Y5.089
X406.977 Y4.737
X407.091 Y4.456
X407.22 Y4.185
X407.345 Y3.957
X407.353 Y3.944
X407.555 Y3.673
X407.799 Y3.44
X408.08 Y3.252
X408.388 Y3.113
X408.715 Y3.029
X409.051 Y3
X409.461
G3 X410.031 Y3.501 I-0.021 J0.6
G1 X412.161 Y16.302
G3 X411.59 Y17 I-0.592 J0.098
G1 X410.331
X410.129 Y16.99
X410.005 Y16.977
X409.878 Y16.956
X409.732 Y16.923
X409.582 Y16.881
X409.413 Y16.823
X409.24 Y16.752
X409.048 Y16.66
X408.849 Y16.552
X408.639 Y16.421
X408.413 Y16.262
X408.188 Y16.084
X407.941 Y15.865
X407.698 Y15.623
X407.444 Y15.34
X407.177 Y15.007
X406.923 Y14.652
X406.665 Y14.242
X406.407 Y13.778
X406.158 Y13.263
X405.924 Y12.702
X405.716 Y12.109
X405.541 Y11.507
X405.397 Y10.895
X405.282 Y10.278
X405.197 Y9.656
X405.141 Y9.031
X405.114 Y8.403
X405.116 Y7.775
X405.15 Y7.148
X405.215 Y6.529
X405.303 Y5.989
X405.412 Y5.498
X405.527 Y5.088
X405.648 Y4.736
X405.763 Y4.456
X405.892 Y4.185
X406.016 Y3.957
X406.024 Y3.944
X406.226 Y3.673
X406.471 Y3.44
X406.751 Y3.252
X407.059 Y3.113
X407.386 Y3.029
X407.723 Y3
X408.134
G3 X408.362 Y3.054 I-0.021 J0.6
X408.705 Y3.498 I-0.249 J0.546
G1 X410.901 Y16.299
G3 X410.331 Y17 I-0.591 J0.101
G1 X408.972
X408.804 Y16.992
X408.68 Y16.978
X408.552 Y16.957
X408.405 Y16.925
X408.256 Y16.882
X408.086 Y16.824
X407.913 Y16.753
X407.72 Y16.662
X407.521 Y16.553
X407.311 Y16.422
X407.085 Y16.263
X406.86 Y16.085
X406.613 Y15.865
X406.37 Y15.624
X406.116 Y15.341
X405.848 Y15.007
X405.595 Y14.652
X405.336 Y14.242
X405.078 Y13.778
X404.829 Y13.263
X404.596 Y12.702
X404.388 Y12.109
X404.212 Y11.506
X404.068 Y10.895
X403.954 Y10.278
X403.869 Y9.656
X403.813 Y9.03
X403.785 Y8.403
X403.788 Y7.775
X403.821 Y7.148
X403.886 Y6.529
X403.975 Y5.989
X404.083 Y5.498
X404.199 Y5.088
X404.32 Y4.736
X404.434 Y4.456
X404.563 Y4.185
X404.687 Y3.957
X404.695 Y3.944
X404.897 Y3.673
X405.142 Y3.44
X405.422 Y3.252
X405.73 Y3.113
X406.057 Y3.029
X406.394 Y3
X406.785
G3 X407.356 Y3.499 I-0.021 J0.6
G1 X409.542 Y16.299
G3 X408.972 Y17 I-0.591 J0.101
G1 X407.631
X407.476 Y16.992
X407.352 Y16.979
X407.224 Y16.958
X407.077 Y16.925
X406.927 Y16.883
X406.758 Y16.825
X406.584 Y16.754
X406.392 Y16.662
X406.193 Y16.553
X405.983 Y16.423
X405.757 Y16.263
X405.532 Y16.085
X405.285 Y15.866
X405.042 Y15.624
X404.787 Y15.341
X404.52 Y15.007
X404.266 Y14.652
X404.007 Y14.242
X403.75 Y13.778
X403.501 Y13.263
X403.267 Y12.702
X403.059 Y12.109
X402.884 Y11.506
X402.739 Y10.895
X402.625 Y10.278
X402.54 Y9.656
X402.484 Y9.03
X402.457 Y8.403
X402.459 Y7.775
X402.492 Y7.148
X402.558 Y6.529
X402.646 Y5.989
X402.755 Y5.498
X402.87 Y5.088
X402.991 Y4.736
X403.105 Y4.456
X403.234 Y4.185
X403.359 Y3.957
X403.367 Y3.944
X403.569 Y3.673
X403.813 Y3.44
X404.094 Y3.252
X404.402 Y3.113
X404.729 Y3.029
X405.065 Y3
X405.471
G3 X405.699 Y3.054 I-0.021 J0.6
X406.042 Y3.5 I-0.249 J0.546
G1 X408.201 Y16.301
G3 X407.859 Y16.946 I-0.592 J0.1
X407.631 Y17 I-0.249 J-0.546
G1 X406.272
X406.149 Y16.994
X406.024 Y16.981
X405.897 Y16.96
X405.75 Y16.927
X405.6 Y16.885
X405.43 Y16.826
X405.257 Y16.755
X405.064 Y16.664
X404.865 Y16.555
X404.655 Y16.424
X404.429 Y16.265
X404.204 Y16.087
X403.957 Y15.867
X403.713 Y15.625
X403.459 Y15.342
X403.191 Y15.008
X402.938 Y14.653
X402.679 Y14.243
X402.421 Y13.779
X402.172 Y13.264
X401.938 Y12.702
X401.73 Y12.11
X401.555 Y11.507
X401.411 Y10.896
X401.296 Y10.278
X401.211 Y9.656
X401.155 Y9.031
X401.128 Y8.404
X401.13 Y7.776
X401.163 Y7.149
X401.229 Y6.529
X401.317 Y5.989
X401.426 Y5.499
X401.541 Y5.089
X401.662 Y4.737
X401.777 Y4.456
X401.905 Y4.185
X402.03 Y3.957
X402.038 Y3.944
X402.24 Y3.673
X402.484 Y3.44
X402.765 Y3.252
X403.073 Y3.113
X403.4 Y3.029
X403.736 Y3
X404.13
G3 X404.701 Y3.501 I-0.021 J0.6
G1 X406.843 Y16.301
G3 X406.272 Y17 I-0.592 J0.099
G1 X404.931
X404.82 Y16.994
X404.696 Y16.981
X404.568 Y16.96
X404.421 Y16.928
X404.271 Y16.885
X404.102 Y16.827
X403.928 Y16.756
X403.736 Y16.664
X403.537 Y16.555
X403.327 Y16.425
X403.1 Y16.265
X402.876 Y16.087
X402.628 Y15.867
X402.385 Y15.626
X402.13 Y15.343
X401.863 Y15.009
X401.609 Y14.653
X401.35 Y14.243
X401.092 Y13.779
X400.843 Y13.264
X400.61 Y12.703
X400.402 Y12.11
X400.226 Y11.507
X400.082 Y10.896
X399.968 Y10.279
X399.883 Y9.657
X399.827 Y9.031
X399.799 Y8.404
X399.801 Y7.776
X399.835 Y7.149
X399.9 Y6.53
X399.988 Y5.989
X400.097 Y5.499
X400.213 Y5.089
X400.333 Y4.737
X400.448 Y4.456
X400.577 Y4.185
X400.701 Y3.957
X400.709 Y3.944
X400.911 Y3.673
X401.156 Y3.44
X401.436 Y3.252
X401.744 Y3.113
X402.071 Y3.029
X402.408 Y3
X402.825
G3 X403.397 Y3.502 I-0.021 J0.6
G1 X405.502 Y16.303
G3 X404.931 Y17 I-0.592 J0.097
G1 X403.671
X403.487 Y16.991
X403.363 Y16.978
X403.235 Y16.957
X403.089 Y16.924
X402.939 Y16.882
X402.77 Y16.824
X402.597 Y16.753
X402.405 Y16.661
X402.206 Y16.552
X401.996 Y16.422
X401.77 Y16.263
X401.545 Y16.085
X401.298 Y15.865
X401.055 Y15.624
X400.801 Y15.341
X400.533 Y15.007
X400.28 Y14.652
X400.021 Y14.242
X399.764 Y13.778
X399.515 Y13.264
X399.281 Y12.702
X399.073 Y12.11
X398.897 Y11.507
X398.753 Y10.896
X398.639 Y10.278
X398.554 Y9.656
X398.498 Y9.031
X398.471 Y8.403
X398.473 Y7.776
X398.506 Y7.149
X398.572 Y6.529
X398.66 Y5.989
X398.768 Y5.499
X398.884 Y5.089
X399.005 Y4.737
X399.119 Y4.456
X399.248 Y4.185
X399.372 Y3.957
X399.38 Y3.944
X399.582 Y3.673
X399.827 Y3.44
X400.107 Y3.252
X400.415 Y3.113
X400.742 Y3.029
X401.079 Y3
X401.475
G3 X401.703 Y3.054 I-0.021 J0.6
X402.045 Y3.498 I-0.249 J0.546
G1 X404.241 Y16.299
G3 X403.899 Y16.946 I-0.591 J0.101
X403.671 Y17 I-0.249 J-0.546
G1 X402.312
X402.161 Y16.992
X402.037 Y16.979
X401.909 Y16.958
X401.762 Y16.926
X401.613 Y16.883
X401.443 Y16.825
X401.27 Y16.754
X401.077 Y16.662
X400.878 Y16.553
X400.668 Y16.423
X400.442 Y16.263
X400.217 Y16.086
X399.97 Y15.866
X399.727 Y15.624
X399.472 Y15.341
X399.205 Y15.008
X398.951 Y14.652
X398.693 Y14.242
X398.435 Y13.778
X398.186 Y13.263
X397.952 Y12.702
X397.744 Y12.11
X397.569 Y11.507
X397.424 Y10.896
X397.31 Y10.278
X397.225 Y9.656
X397.169 Y9.031
X397.142 Y8.403
X397.144 Y7.775
X397.177 Y7.148
X397.243 Y6.529
X397.331 Y5.989
X397.44 Y5.499
X397.555 Y5.089
X397.676 Y4.737
X397.79 Y4.456
X397.919 Y4.185
X398.044 Y3.957
X398.052 Y3.944
X398.254 Y3.673
X398.498 Y3.44
X398.779 Y3.252
X399.087 Y3.113
X399.414 Y3.029
X399.75 Y3
X400.17
G3 X400.741 Y3.501 I-0.021 J0.6
G1 X402.883 Y16.301
G3 X402.54 Y16.946 I-0.592 J0.099
X402.312 Y17 I-0.249 J-0.546
G1 X400.971
X400.833 Y16.993
X400.708 Y16.98
X400.581 Y16.959
X400.434 Y16.926
X400.284 Y16.884
X400.115 Y16.825
X399.941 Y16.755
X399.749 Y16.663
X399.55 Y16.554
X399.34 Y16.423
X399.114 Y16.264
X398.889 Y16.086
X398.641 Y15.866
X398.398 Y15.625
X398.144 Y15.342
X397.876 Y15.008
X397.623 Y14.653
X397.364 Y14.243
X397.106 Y13.778
X396.857 Y13.264
X396.624 Y12.702
X396.415 Y12.11
X396.24 Y11.507
X396.096 Y10.896
X395.982 Y10.278
X395.896 Y9.656
X395.84 Y9.031
X395.813 Y8.404
X395.815 Y7.776
X395.849 Y7.149
X395.914 Y6.529
X396.002 Y5.989
X396.111 Y5.499
X396.226 Y5.089
X396.347 Y4.737
X396.462 Y4.456
X396.591 Y4.185
X396.715 Y3.957
X396.723 Y3.944
X396.925 Y3.673
X397.17 Y3.44
X397.45 Y3.252
X397.758 Y3.113
X398.085 Y3.029
X398.422 Y3
X398.841
G3 X399.069 Y3.054 I-0.021 J0.6
X399.412 Y3.501 I-0.249 J0.546
G1 X401.542 Y16.302
G3 X401.199 Y16.946 I-0.592 J0.098
X400.971 Y17 I-0.249 J-0.546
G1 X399.612
X399.505 Y16.995
X399.381 Y16.981
X399.254 Y16.96
X399.107 Y16.928
X398.957 Y16.885
X398.787 Y16.827
X398.614 Y16.756
X398.421 Y16.664
X398.222 Y16.555
X398.012 Y16.425
X397.786 Y16.265
X397.561 Y16.087
X397.313 Y15.868
X397.07 Y15.626
X396.815 Y15.343
X396.548 Y15.009
X396.294 Y14.653
X396.035 Y14.243
X395.778 Y13.779
X395.529 Y13.264
X395.295 Y12.703
X395.087 Y12.11
X394.911 Y11.507
X394.767 Y10.896
X394.653 Y10.279
X394.568 Y9.657
X394.512 Y9.031
X394.484 Y8.404
X394.487 Y7.776
X394.52 Y7.149
X394.585 Y6.53
X394.674 Y5.989
X394.782 Y5.499
X394.898 Y5.089
X395.019 Y4.737
X395.133 Y4.456
X395.262 Y4.185
X395.386 Y3.957
X395.394 Y3.944
X395.596 Y3.673
X395.841 Y3.44
X396.121 Y3.252
X396.429 Y3.113
X396.756 Y3.029
X397.093 Y3
X397.515
G3 X398.086 Y3.503 I-0.021 J0.6
G1 X400.183 Y16.303
G3 X399.612 Y17 I-0.592 J0.097
G1 X398.271
X398.177 Y16.995
X398.052 Y16.982
X397.925 Y16.961
X397.778 Y16.928
X397.628 Y16.886
X397.458 Y16.828
X397.285 Y16.757
X397.092 Y16.665
X396.893 Y16.556
X396.683 Y16.425
X396.457 Y16.266
X396.232 Y16.088
X395.985 Y15.868
X395.741 Y15.627
X395.487 Y15.343
X395.219 Y15.01
X394.966 Y14.654
X394.707 Y14.244
X394.449 Y13.78
X394.2 Y13.265
X393.966 Y12.703
X393.758 Y12.111
X393.583 Y11.508
X393.438 Y10.897
X393.324 Y10.279
X393.239 Y9.657
X393.183 Y9.032
X393.156 Y8.404
X393.158 Y7.777
X393.191 Y7.15
X393.257 Y6.53
X393.345 Y5.99
X393.453 Y5.499
X393.569 Y5.089
X393.69 Y4.737
X393.804 Y4.457
X393.933 Y4.185
X394.057 Y3.958
X394.065 Y3.944
X394.267 Y3.673
X394.512 Y3.44
X394.792 Y3.252
X395.1 Y3.113
X395.428 Y3.029
X395.764 Y3
X396.166
G3 X396.737 Y3.502 I-0.021 J0.6
G1 X398.842 Y16.303
G3 X398.271 Y17 I-0.592 J0.097
G1 X397.011
X396.843 Y16.992
X396.719 Y16.978
X396.592 Y16.957
X396.446 Y16.925
X396.296 Y16.883
X396.127 Y16.824
X395.953 Y16.753
X395.761 Y16.662
X395.562 Y16.553
X395.353 Y16.423
X395.126 Y16.263
X394.902 Y16.086
X394.655 Y15.866
X394.412 Y15.625
X394.157 Y15.342
X393.89 Y15.008
X393.636 Y14.653
X393.378 Y14.243
X393.12 Y13.779
X392.871 Y13.264
X392.637 Y12.703
X392.429 Y12.11
X392.254 Y11.507
X392.11 Y10.896
X391.995 Y10.279
X391.91 Y9.657
X391.854 Y9.031
X391.827 Y8.404
X391.829 Y7.776
X391.862 Y7.149
X391.928 Y6.53
X392.016 Y5.989
X392.125 Y5.499
X392.24 Y5.089
X392.361 Y4.737
X392.475 Y4.456
X392.604 Y4.185
X392.729 Y3.957
X392.737 Y3.944
X392.939 Y3.673
X393.183 Y3.44
X393.464 Y3.252
X393.772 Y3.113
X394.099 Y3.029
X394.435 Y3
X394.852
G3 X395.079 Y3.054 I-0.021 J0.6
X395.422 Y3.5 I-0.249 J0.546
G1 X397.582 Y16.301
G3 X397.239 Y16.946 I-0.592 J0.1
X397.011 Y17 I-0.249 J-0.546
G1 X395.652
X395.518 Y16.993
X395.393 Y16.98
X395.266 Y16.959
X395.119 Y16.926
X394.969 Y16.884
X394.8 Y16.826
X394.626 Y16.755
X394.434 Y16.663
X394.235 Y16.554
X394.025 Y16.424
X393.798 Y16.264
X393.574 Y16.086
X393.326 Y15.867
X393.083 Y15.625
X392.829 Y15.342
X392.561 Y15.008
X392.308 Y14.653
X392.049 Y14.243
X391.791 Y13.779
X391.542 Y13.264
X391.309 Y12.703
X391.101 Y12.11
X390.925 Y11.507
X390.781 Y10.896
X390.667 Y10.279
X390.582 Y9.657
X390.525 Y9.031
X390.498 Y8.404
X390.5 Y7.776
X390.534 Y7.149
X390.599 Y6.53
X390.687 Y5.989
X390.796 Y5.499
X390.911 Y5.089
X391.032 Y4.737
X391.147 Y4.456
X391.276 Y4.185
X391.4 Y3.957
X391.408 Y3.944
X391.61 Y3.673
X391.855 Y3.44
X392.135 Y3.252
X392.443 Y3.113
X392.77 Y3.029
X393.107 Y3
X393.511
G3 X393.738 Y3.054 I-0.021 J0.6
X394.081 Y3.501 I-0.249 J0.546
G1 X396.223 Y16.301
G3 X395.652 Y17 I-0.592 J0.099
G1 X394.312
X394.189 Y16.994
X394.065 Y16.981
X393.937 Y16.96
X393.791 Y16.927
X393.641 Y16.885
X393.471 Y16.826
X393.298 Y16.755
X393.105 Y16.664
X392.906 Y16.555
X392.696 Y16.424
X392.47 Y16.265
X392.245 Y16.087
X391.998 Y15.867
X391.755 Y15.626
X391.5 Y15.342
X391.233 Y15.009
X390.979 Y14.653
X390.72 Y14.243
X390.463 Y13.779
X390.214 Y13.264
X389.98 Y12.703
X389.772 Y12.11
X389.596 Y11.507
X389.452 Y10.896
X389.338 Y10.279
X389.253 Y9.657
X389.197 Y9.031
X389.169 Y8.404
X389.172 Y7.776
X389.205 Y7.149
X389.27 Y6.53
X389.359 Y5.989
X389.467 Y5.499
X389.583 Y5.089
X389.704 Y4.737
X389.818 Y4.456
X389.947 Y4.185
X390.071 Y3.957
X390.079 Y3.944
X390.281 Y3.673
X390.526 Y3.44
X390.806 Y3.252
X391.114 Y3.113
X391.441 Y3.029
X391.778 Y3
X392.182
G3 X392.753 Y3.501 I-0.021 J0.6
G1 X394.883 Y16.302
G3 X394.312 Y17 I-0.592 J0.098
G1 X393.052
X392.856 Y16.99
X392.732 Y16.977
X392.605 Y16.956
X392.459 Y16.924
X392.309 Y16.881
X392.14 Y16.823
X391.966 Y16.752
X391.774 Y16.661
X391.575 Y16.552
X391.366 Y16.421
X391.14 Y16.262
X390.915 Y16.084
X390.668 Y15.865
X390.425 Y15.623
X390.171 Y15.341
X389.903 Y15.007
X389.65 Y14.652
X389.391 Y14.242
X389.134 Y13.778
X388.885 Y13.263
X388.651 Y12.702
X388.443 Y12.11
X388.268 Y11.507
X388.123 Y10.896
X388.009 Y10.278
X387.924 Y9.656
X387.868 Y9.031
X387.841 Y8.403
X387.843 Y7.776
X387.876 Y7.148
X387.942 Y6.529
X388.03 Y5.989
X388.139 Y5.499
X388.254 Y5.089
X388.375 Y4.737
X388.489 Y4.456
X388.618 Y4.185
X388.743 Y3.957
X388.751 Y3.944
X388.953 Y3.673
X389.197 Y3.44
X389.478 Y3.252
X389.786 Y3.113
X390.113 Y3.029
X390.449 Y3
X390.855
G3 X391.083 Y3.054 I-0.021 J0.6
X391.426 Y3.498 I-0.249 J0.546
G1 X393.622 Y16.299
G3 X393.052 Y17 I-0.591 J0.101
G1 X391.693
X391.531 Y16.992
X391.406 Y16.979
X391.279 Y16.958
X391.132 Y16.925
X390.982 Y16.883
X390.813 Y16.824
X390.639 Y16.753
X390.447 Y16.662
X390.248 Y16.553
X390.038 Y16.422
X389.812 Y16.263
X389.587 Y16.085
X389.34 Y15.866
X389.097 Y15.624
X388.842 Y15.341
X388.575 Y15.007
X388.321 Y14.652
X388.063 Y14.242
X387.805 Y13.778
X387.556 Y13.263
X387.322 Y12.702
X387.114 Y12.109
X386.939 Y11.507
X386.795 Y10.895
X386.68 Y10.278
X386.595 Y9.656
X386.539 Y9.031
X386.512 Y8.403
X386.514 Y7.775
X386.547 Y7.148
X386.613 Y6.529
X386.701 Y5.989
X386.81 Y5.498
X386.925 Y5.088
X387.046 Y4.737
X387.161 Y4.456
X387.29 Y4.185
X387.414 Y3.957
X387.422 Y3.944
X387.624 Y3.673
X387.869 Y3.44
X388.149 Y3.252
X388.457 Y3.113
X388.784 Y3.029
X389.121 Y3
X389.544
G3 X389.772 Y3.054 I-0.021 J0.6
X390.115 Y3.5 I-0.249 J0.546
G1 X392.264 Y16.301
G3 X391.921 Y16.946 I-0.592 J0.099
X391.693 Y17 I-0.249 J-0.546
G1 X390.352
X390.203 Y16.993
X390.078 Y16.979
X389.951 Y16.958
X389.804 Y16.926
X389.654 Y16.883
X389.485 Y16.825
X389.311 Y16.754
X389.119 Y16.662
X388.92 Y16.554
X388.71 Y16.423
X388.483 Y16.264
X388.259 Y16.086
X388.011 Y15.866
X387.768 Y15.624
X387.514 Y15.341
X387.246 Y15.008
X386.993 Y14.652
X386.734 Y14.242
X386.476 Y13.778
X386.227 Y13.263
X385.994 Y12.702
X385.786 Y12.11
X385.61 Y11.507
X385.466 Y10.896
X385.352 Y10.278
X385.267 Y9.656
X385.211 Y9.031
X385.183 Y8.403
X385.186 Y7.775
X385.219 Y7.148
X385.284 Y6.529
X385.373 Y5.989
X385.481 Y5.499
X385.597 Y5.088
X385.718 Y4.737
X385.832 Y4.456
X385.961 Y4.185
X386.085 Y3.957
X386.093 Y3.944
X386.295 Y3.673
X386.54 Y3.44
X386.82 Y3.252
X387.128 Y3.113
X387.455 Y3.029
X387.792 Y3
X388.192
G3 X388.42 Y3.054 I-0.021 J0.6
X388.763 Y3.5 I-0.249 J0.546
G1 X390.923 Y16.301
G3 X390.58 Y16.946 I-0.592 J0.1
X390.352 Y17 I-0.249 J-0.546
G1 X388.993
X388.875 Y16.994
X388.751 Y16.981
X388.623 Y16.96
X388.477 Y16.927
X388.327 Y16.885
X388.157 Y16.826
X387.984 Y16.756
X387.791 Y16.664
X387.592 Y16.555
X387.382 Y16.424
X387.156 Y16.265
X386.931 Y16.087
X386.683 Y15.867
X386.44 Y15.625
X386.186 Y15.342
X385.918 Y15.009
X385.664 Y14.653
X385.406 Y14.243
X385.148 Y13.779
X384.899 Y13.264
X384.665 Y12.702
X384.457 Y12.11
X384.282 Y11.507
X384.137 Y10.896
X384.023 Y10.279
X383.938 Y9.656
X383.882 Y9.031
X383.855 Y8.404
X383.857 Y7.776
X383.89 Y7.149
X383.956 Y6.53
X384.044 Y5.989
X384.152 Y5.499
X384.268 Y5.089
X384.389 Y4.737
X384.503 Y4.456
X384.632 Y4.185
X384.756 Y3.957
X384.764 Y3.944
X384.966 Y3.673
X385.211 Y3.44
X385.491 Y3.252
X385.799 Y3.113
X386.126 Y3.029
X386.463 Y3
X386.876
G3 X387.447 Y3.502 I-0.021 J0.6
G1 X389.564 Y16.302
G3 X388.993 Y17 I-0.592 J0.098
G1 X387.652
X387.547 Y16.995
X387.422 Y16.981
X387.295 Y16.961
X387.148 Y16.928
X386.998 Y16.886
X386.828 Y16.827
X386.655 Y16.756
X386.462 Y16.664
X386.263 Y16.556
X386.053 Y16.425
X385.827 Y16.265
X385.602 Y16.088
X385.355 Y15.868
X385.112 Y15.626
X384.857 Y15.343
X384.589 Y15.009
X384.336 Y14.654
X384.077 Y14.244
X383.819 Y13.779
X383.57 Y13.264
X383.336 Y12.703
X383.128 Y12.11
X382.953 Y11.508
X382.809 Y10.896
X382.694 Y10.279
X382.609 Y9.657
X382.553 Y9.032
X382.526 Y8.404
X382.528 Y7.776
X382.561 Y7.149
X382.627 Y6.53
X382.715 Y5.989
X382.824 Y5.499
X382.939 Y5.089
X383.06 Y4.737
X383.174 Y4.456
X383.303 Y4.185
X383.428 Y3.957
X383.436 Y3.944
X383.638 Y3.673
X383.882 Y3.44
X384.163 Y3.252
X384.471 Y3.113
X384.798 Y3.029
X385.134 Y3
X385.547
G3 X386.118 Y3.502 I-0.021 J0.6
G1 X388.223 Y16.303
G3 X387.652 Y17 I-0.592 J0.097
G1 X386.392
X386.213 Y16.991
X386.089 Y16.978
X385.962 Y16.957
X385.816 Y16.924
X385.666 Y16.882
X385.497 Y16.824
X385.323 Y16.753
X385.131 Y16.661
X384.932 Y16.553
X384.723 Y16.422
X384.496 Y16.263
X384.272 Y16.085
X384.025 Y15.866
X383.782 Y15.624
X383.527 Y15.341
X383.26 Y15.008
X383.007 Y14.652
X382.748 Y14.242
X382.49 Y13.778
X382.241 Y13.264
X382.008 Y12.702
X381.8 Y12.11
X381.624 Y11.507
X381.48 Y10.896
X381.366 Y10.278
X381.281 Y9.656
X381.224 Y9.031
X381.197 Y8.404
X381.199 Y7.776
X381.233 Y7.149
X381.298 Y6.529
X381.386 Y5.989
X381.495 Y5.499
X381.611 Y5.089
X381.731 Y4.737
X381.846 Y4.456
X381.975 Y4.185
X382.099 Y3.957
X382.107 Y3.944
X382.309 Y3.673
X382.554 Y3.44
X382.834 Y3.252
X383.142 Y3.113
X383.469 Y3.029
X383.806 Y3
X384.216
G3 X384.444 Y3.054 I-0.021 J0.6
X384.786 Y3.499 I-0.249 J0.546
G1 X386.963 Y16.3
G3 X386.62 Y16.946 I-0.592 J0.101
X386.392 Y17 I-0.249 J-0.546
G1 X385.033
X384.888 Y16.993
X384.763 Y16.979
X384.636 Y16.959
X384.489 Y16.926
X384.339 Y16.884
X384.17 Y16.825
X383.996 Y16.754
X383.804 Y16.663
X383.605 Y16.554
X383.395 Y16.423
X383.169 Y16.264
X382.944 Y16.086
X382.697 Y15.866
X382.453 Y15.625
X382.199 Y15.342
X381.931 Y15.008
X381.678 Y14.653
X381.419 Y14.243
X381.161 Y13.778
X380.913 Y13.264
X380.679 Y12.702
X380.471 Y12.11
X380.295 Y11.507
X380.151 Y10.896
X380.037 Y10.278
X379.952 Y9.656
X379.896 Y9.031
X379.868 Y8.404
X379.871 Y7.776
X379.904 Y7.149
X379.969 Y6.529
X380.058 Y5.989
X380.166 Y5.499
X380.282 Y5.089
X380.403 Y4.737
X380.517 Y4.456
X380.646 Y4.185
X380.77 Y3.957
X380.778 Y3.944
X380.98 Y3.673
X381.225 Y3.44
X381.505 Y3.252
X381.813 Y3.113
X382.14 Y3.029
X382.477 Y3
X382.891
G3 X383.462 Y3.501 I-0.021 J0.6
G1 X385.604 Y16.301
G3 X385.261 Y16.946 I-0.592 J0.099
X385.033 Y17 I-0.249 J-0.546
G1 X383.692
X383.559 Y16.993
X383.435 Y16.98
X383.308 Y16.959
X383.161 Y16.926
X383.011 Y16.884
X382.841 Y16.826
X382.668 Y16.755
X382.475 Y16.663
X382.276 Y16.554
X382.066 Y16.424
X381.84 Y16.264
X381.615 Y16.086
X381.368 Y15.867
X381.125 Y15.625
X380.87 Y15.342
X380.603 Y15.008
X380.349 Y14.653
X380.091 Y14.243
X379.833 Y13.779
X379.584 Y13.264
X379.35 Y12.702
X379.142 Y12.11
X378.967 Y11.507
X378.822 Y10.896
X378.708 Y10.279
X378.623 Y9.656
X378.567 Y9.031
X378.54 Y8.404
X378.542 Y7.776
X378.575 Y7.149
X378.641 Y6.53
X378.729 Y5.989
X378.838 Y5.499
X378.953 Y5.089
X379.074 Y4.737
X379.188 Y4.456
X379.317 Y4.185
X379.441 Y3.957
X379.45 Y3.944
X379.652 Y3.673
X379.896 Y3.44
X380.177 Y3.252
X380.485 Y3.113
X380.812 Y3.029
X381.148 Y3
X381.562
G3 X382.133 Y3.501 I-0.021 J0.6
G1 X384.263 Y16.302
G3 X383.92 Y16.946 I-0.592 J0.098
X383.692 Y17 I-0.249 J-0.546
G1 X382.333
X382.232 Y16.995
X382.108 Y16.982
X381.98 Y16.961
X381.833 Y16.928
X381.684 Y16.886
X381.514 Y16.827
X381.34 Y16.756
X381.148 Y16.665
X380.949 Y16.556
X380.739 Y16.425
X380.512 Y16.266
X380.287 Y16.088
X380.04 Y15.868
X379.797 Y15.626
X379.542 Y15.343
X379.274 Y15.009
X379.021 Y14.654
X378.762 Y14.244
X378.504 Y13.779
X378.255 Y13.264
X378.022 Y12.703
X377.813 Y12.11
X377.638 Y11.508
X377.494 Y10.896
X377.379 Y10.279
X377.294 Y9.657
X377.238 Y9.032
X377.211 Y8.404
X377.213 Y7.776
X377.246 Y7.149
X377.312 Y6.53
X377.4 Y5.989
X377.509 Y5.499
X377.624 Y5.089
X377.745 Y4.737
X377.859 Y4.456
X377.988 Y4.185
X378.113 Y3.957
X378.121 Y3.944
X378.323 Y3.673
X378.567 Y3.44
X378.848 Y3.252
X379.156 Y3.113
X379.483 Y3.029
X379.82 Y3
X380.236
G3 X380.807 Y3.503 I-0.021 J0.6
G1 X382.905 Y16.303
G3 X382.333 Y17 I-0.592 J0.097
G1 X381.073
X380.899 Y16.991
X380.775 Y16.978
X380.647 Y16.957
X380.501 Y16.925
X380.351 Y16.882
X380.182 Y16.824
X380.009 Y16.753
X379.816 Y16.662
X379.617 Y16.553
X379.408 Y16.422
X379.182 Y16.263
X378.957 Y16.085
X378.71 Y15.866
X378.467 Y15.624
X378.213 Y15.341
X377.945 Y15.008
X377.692 Y14.652
X377.433 Y14.243
X377.175 Y13.779
X376.926 Y13.264
X376.693 Y12.702
X376.485 Y12.11
X376.309 Y11.507
X376.165 Y10.896
X376.051 Y10.279
X375.966 Y9.656
X375.91 Y9.031
X375.882 Y8.404
X375.884 Y7.776
X375.918 Y7.149
X375.983 Y6.53
X376.071 Y5.989
X376.18 Y5.499
X376.296 Y5.089
X376.417 Y4.737
X376.531 Y4.456
X376.66 Y4.185
X376.784 Y3.957
X376.792 Y3.944
X376.994 Y3.673
X377.239 Y3.44
X377.519 Y3.252
X377.827 Y3.113
X378.154 Y3.029
X378.491 Y3
X378.887
G3 X379.458 Y3.499 I-0.021 J0.6
G1 X381.644 Y16.299
G3 X381.073 Y17 I-0.591 J0.101
G1 X379.733
X379.572 Y16.992
X379.448 Y16.979
X379.32 Y16.958
X379.173 Y16.925
X379.024 Y16.883
X378.854 Y16.824
X378.681 Y16.754
X378.488 Y16.662
X378.289 Y16.553
X378.08 Y16.422
X377.853 Y16.263
X377.629 Y16.085
X377.381 Y15.866
X377.138 Y15.624
X376.884 Y15.341
X376.616 Y15.008
X376.363 Y14.652
X376.104 Y14.242
X375.847 Y13.778
X375.598 Y13.264
X375.364 Y12.702
X375.156 Y12.11
X374.98 Y11.507
X374.836 Y10.896
X374.722 Y10.278
X374.637 Y9.656
X374.581 Y9.031
X374.554 Y8.403
X374.556 Y7.776
X374.589 Y7.149
X374.655 Y6.529
X374.743 Y5.989
X374.851 Y5.499
X374.967 Y5.089
X375.088 Y4.737
X375.202 Y4.456
X375.331 Y4.185
X375.455 Y3.957
X375.463 Y3.944
X375.665 Y3.673
X375.91 Y3.44
X376.19 Y3.252
X376.498 Y3.113
X376.825 Y3.029
X377.162 Y3
X377.573
G3 X377.801 Y3.054 I-0.021 J0.6
X378.143 Y3.5 I-0.249 J0.546
G1 X380.303 Y16.301
G3 X379.96 Y16.946 I-0.592 J0.1
X379.733 Y17 I-0.249 J-0.546
G1 X378.374
X378.245 Y16.994
X378.121 Y16.98
X377.993 Y16.959
X377.846 Y16.927
X377.696 Y16.884
X377.527 Y16.826
X377.353 Y16.755
X377.161 Y16.663
X376.962 Y16.554
X376.752 Y16.424
X376.525 Y16.264
X376.301 Y16.086
X376.053 Y15.867
X375.81 Y15.625
X375.556 Y15.342
X375.288 Y15.008
X375.035 Y14.653
X374.776 Y14.243
X374.518 Y13.779
X374.269 Y13.264
X374.035 Y12.702
X373.827 Y12.11
X373.652 Y11.507
X373.507 Y10.896
X373.393 Y10.279
X373.308 Y9.656
X373.252 Y9.031
X373.225 Y8.404
X373.227 Y7.776
X373.26 Y7.149
X373.326 Y6.53
X373.414 Y5.989
X373.523 Y5.499
X373.638 Y5.089
X373.759 Y4.737
X373.873 Y4.456
X374.002 Y4.185
X374.127 Y3.957
X374.135 Y3.944
X374.337 Y3.673
X374.581 Y3.44
X374.862 Y3.252
X375.17 Y3.113
X375.497 Y3.029
X375.833 Y3
X376.232
G3 X376.46 Y3.054 I-0.021 J0.6
X376.803 Y3.501 I-0.249 J0.546
G1 X378.944 Y16.301
G3 X378.374 Y17 I-0.592 J0.099
G1 X377.033
X376.916 Y16.994
X376.792 Y16.981
X376.665 Y16.96
X376.518 Y16.927
X376.368 Y16.885
X376.198 Y16.827
X376.025 Y16.756
X375.832 Y16.664
X375.633 Y16.555
X375.423 Y16.424
X375.197 Y16.265
X374.972 Y16.087
X374.725 Y15.867
X374.482 Y15.626
X374.227 Y15.343
X373.959 Y15.009
X373.706 Y14.653
X373.447 Y14.243
X373.189 Y13.779
X372.94 Y13.264
X372.707 Y12.703
X372.499 Y12.11
X372.323 Y11.507
X372.179 Y10.896
X372.065 Y10.279
X371.98 Y9.657
X371.923 Y9.031
X371.896 Y8.404
X371.898 Y7.776
X371.931 Y7.149
X371.997 Y6.53
X372.085 Y5.989
X372.194 Y5.499
X372.309 Y5.089
X372.43 Y4.737
X372.545 Y4.456
X372.673 Y4.185
X372.798 Y3.957
X372.806 Y3.944
X373.008 Y3.673
X373.253 Y3.44
X373.533 Y3.252
X373.841 Y3.113
X374.168 Y3.029
X374.505 Y3
X374.927
G3 X375.498 Y3.502 I-0.021 J0.6
G1 X377.604 Y16.303
G3 X377.033 Y17 I-0.592 J0.097
G1 X375.773
X375.583 Y16.991
X375.459 Y16.977
X375.332 Y16.956
X375.186 Y16.924
X375.036 Y16.882
X374.867 Y16.823
X374.693 Y16.752
X374.501 Y16.661
X374.302 Y16.552
X374.093 Y16.422
X373.866 Y16.262
X373.642 Y16.085
X373.395 Y15.865
X373.152 Y15.624
X372.898 Y15.341
X372.63 Y15.007
X372.377 Y14.652
X372.118 Y14.242
X371.86 Y13.778
X371.611 Y13.263
X371.378 Y12.702
X371.17 Y12.11
X370.994 Y11.507
X370.85 Y10.896
X370.736 Y10.278
X370.651 Y9.656
X370.595 Y9.031
X370.567 Y8.403
X370.57 Y7.776
X370.603 Y7.149
X370.668 Y6.529
X370.757 Y5.989
X370.865 Y5.499
X370.981 Y5.089
X371.102 Y4.737
X371.216 Y4.456
X371.345 Y4.185
X371.469 Y3.957
X371.477 Y3.944
X371.679 Y3.673
X371.924 Y3.44
X372.204 Y3.252
X372.512 Y3.113
X372.839 Y3.029
X373.176 Y3
X373.576
G3 X373.804 Y3.054 I-0.021 J0.6
X374.147 Y3.498 I-0.249 J0.546
G1 X376.343 Y16.299
G3 X375.773 Y17 I-0.591 J0.101
G1 X374.414
X374.258 Y16.992
X374.133 Y16.979
X374.006 Y16.958
X373.859 Y16.925
X373.709 Y16.883
X373.54 Y16.825
X373.366 Y16.754
X373.174 Y16.662
X372.975 Y16.553
X372.765 Y16.423
X372.539 Y16.263
X372.314 Y16.085
X372.067 Y15.866
X371.823 Y15.624
X371.569 Y15.341
X371.302 Y15.008
X371.048 Y14.652
X370.789 Y14.242
X370.532 Y13.778
X370.283 Y13.263
X370.049 Y12.702
X369.841 Y12.11
X369.666 Y11.507
X369.521 Y10.896
X369.407 Y10.278
X369.322 Y9.656
X369.266 Y9.031
X369.239 Y8.403
X369.241 Y7.775
X369.274 Y7.148
X369.34 Y6.529
X369.428 Y5.989
X369.537 Y5.499
X369.652 Y5.089
X369.773 Y4.737
X369.887 Y4.456
X370.016 Y4.185
X370.141 Y3.957
X370.149 Y3.944
X370.351 Y3.673
X370.595 Y3.44
X370.876 Y3.252
X371.184 Y3.113
X371.511 Y3.029
X371.847 Y3
X372.265
G3 X372.493 Y3.054 I-0.021 J0.6
X372.836 Y3.5 I-0.249 J0.546
G1 X374.985 Y16.301
G3 X374.642 Y16.946 I-0.592 J0.099
X374.414 Y17 I-0.249 J-0.546
G1 X373.073
X372.929 Y16.993
X372.805 Y16.98
X372.678 Y16.959
X372.531 Y16.926
X372.381 Y16.884
X372.211 Y16.825
X372.038 Y16.754
X371.846 Y16.663
X371.646 Y16.554
X371.437 Y16.423
X371.21 Y16.264
X370.986 Y16.086
X370.738 Y15.866
X370.495 Y15.625
X370.241 Y15.342
X369.973 Y15.008
X369.72 Y14.652
X369.461 Y14.242
X369.203 Y13.778
X368.954 Y13.264
X368.72 Y12.702
X368.512 Y12.11
X368.337 Y11.507
X368.193 Y10.896
X368.078 Y10.278
X367.993 Y9.656
X367.937 Y9.031
X367.91 Y8.403
X367.912 Y7.776
X367.945 Y7.149
X368.011 Y6.529
X368.099 Y5.989
X368.208 Y5.499
X368.323 Y5.089
X368.444 Y4.737
X368.559 Y4.456
X368.687 Y4.185
X368.812 Y3.957
X368.82 Y3.944
X369.022 Y3.673
X369.266 Y3.44
X369.547 Y3.252
X369.855 Y3.113
X370.182 Y3.029
X370.518 Y3
X370.913
G3 X371.141 Y3.054 I-0.021 J0.6
X371.484 Y3.5 I-0.249 J0.546
G1 X373.644 Y16.301
G3 X373.301 Y16.946 I-0.592 J0.1
X373.073 Y17 I-0.249 J-0.546
G1 X371.714
X371.602 Y16.994
X371.478 Y16.981
X371.35 Y16.96
X371.203 Y16.928
X371.054 Y16.885
X370.884 Y16.827
X370.71 Y16.756
X370.518 Y16.664
X370.319 Y16.555
X370.109 Y16.424
X369.882 Y16.265
X369.657 Y16.087
X369.41 Y15.867
X369.167 Y15.626
X368.912 Y15.343
X368.645 Y15.009
X368.391 Y14.653
X368.132 Y14.243
X367.874 Y13.779
X367.625 Y13.264
X367.392 Y12.703
X367.184 Y12.11
X367.008 Y11.507
X366.864 Y10.896
X366.75 Y10.279
X366.665 Y9.657
X366.609 Y9.031
X366.581 Y8.404
X366.583 Y7.776
X366.617 Y7.149
X366.682 Y6.53
X366.77 Y5.989
X366.879 Y5.499
X366.995 Y5.089
X367.115 Y4.737
X367.23 Y4.456
X367.359 Y4.185
X367.483 Y3.957
X367.491 Y3.944
X367.693 Y3.673
X367.938 Y3.44
X368.218 Y3.252
X368.526 Y3.113
X368.853 Y3.029
X369.19 Y3
X369.597
G3 X370.168 Y3.502 I-0.021 J0.6
G1 X372.285 Y16.302
G3 X371.714 Y17 I-0.592 J0.098
G1 X370.373
X370.273 Y16.995
X370.149 Y16.982
X370.022 Y16.961
X369.875 Y16.928
X369.725 Y16.886
X369.555 Y16.827
X369.382 Y16.756
X369.189 Y16.665
X368.99 Y16.556
X368.78 Y16.425
X368.554 Y16.266
X368.329 Y16.088
X368.081 Y15.868
X367.838 Y15.626
X367.584 Y15.343
X367.316 Y15.009
X367.063 Y14.654
X366.804 Y14.244
X366.546 Y13.779
X366.297 Y13.265
X366.063 Y12.703
X365.855 Y12.111
X365.68 Y11.508
X365.535 Y10.897
X365.421 Y10.279
X365.336 Y9.657
X365.28 Y9.032
X365.253 Y8.404
X365.255 Y7.776
X365.288 Y7.149
X365.353 Y6.53
X365.442 Y5.989
X365.55 Y5.499
X365.666 Y5.089
X365.787 Y4.737
X365.901 Y4.456
X366.03 Y4.185
X366.154 Y3.958
X366.162 Y3.944
X366.364 Y3.673
X366.609 Y3.44
X366.889 Y3.252
X367.197 Y3.113
X367.524 Y3.029
X367.861 Y3
X368.268
G3 X368.839 Y3.502 I-0.021 J0.6
G1 X370.944 Y16.303
G3 X370.373 Y17 I-0.592 J0.097
G1 X369.113
X368.94 Y16.991
X368.816 Y16.978
X368.689 Y16.957
X368.542 Y16.925
X368.393 Y16.882
X368.224 Y16.824
X368.05 Y16.753
X367.858 Y16.662
X367.659 Y16.553
X367.449 Y16.422
X367.223 Y16.263
X366.999 Y16.085
X366.751 Y15.866
X366.508 Y15.624
X366.254 Y15.341
X365.987 Y15.008
X365.733 Y14.653
X365.475 Y14.243
X365.217 Y13.779
X364.968 Y13.264
X364.734 Y12.702
X364.526 Y12.11
X364.351 Y11.507
X364.206 Y10.896
X364.092 Y10.279
X364.007 Y9.657
X363.951 Y9.031
X363.924 Y8.404
X363.926 Y7.776
X363.959 Y7.149
X364.025 Y6.53
X364.113 Y5.989
X364.222 Y5.499
X364.337 Y5.089
X364.458 Y4.737
X364.572 Y4.456
X364.701 Y4.185
X364.826 Y3.957
X364.834 Y3.944
X365.036 Y3.673
X365.28 Y3.44
X365.561 Y3.252
X365.869 Y3.113
X366.196 Y3.029
X366.532 Y3
X366.953
G3 X367.181 Y3.054 I-0.021 J0.6
X367.524 Y3.5 I-0.249 J0.546
G1 X369.684 Y16.301
G3 X369.341 Y16.946 I-0.592 J0.1
X369.113 Y17 I-0.249 J-0.546
G1 X367.754
X367.614 Y16.993
X367.49 Y16.98
X367.363 Y16.959
X367.216 Y16.926
X367.066 Y16.884
X366.896 Y16.825
X366.723 Y16.755
X366.531 Y16.663
X366.331 Y16.554
X366.122 Y16.423
X365.895 Y16.264
X365.671 Y16.086
X365.423 Y15.867
X365.18 Y15.625
X364.926 Y15.342
X364.658 Y15.008
X364.405 Y14.653
X364.146 Y14.243
X363.888 Y13.779
X363.639 Y13.264
X363.406 Y12.702
X363.197 Y12.11
X363.022 Y11.507
X362.878 Y10.896
X362.763 Y10.279
X362.678 Y9.656
X362.622 Y9.031
X362.595 Y8.404
X362.597 Y7.776
X362.63 Y7.149
X362.696 Y6.53
X362.784 Y5.989
X362.893 Y5.499
X363.008 Y5.089
X363.129 Y4.737
X363.244 Y4.456
X363.372 Y4.185
X363.497 Y3.957
X363.505 Y3.944
X363.707 Y3.673
X363.952 Y3.44
X364.232 Y3.252
X364.54 Y3.113
X364.867 Y3.029
X365.204 Y3
X365.612
G3 X366.183 Y3.501 I-0.021 J0.6
G1 X368.325 Y16.301
G3 X367.982 Y16.946 I-0.592 J0.099
X367.754 Y17 I-0.249 J-0.546
G1 X366.413
X366.286 Y16.994
X366.162 Y16.98
X366.034 Y16.959
X365.888 Y16.927
X365.738 Y16.884
X365.568 Y16.826
X365.395 Y16.755
X365.202 Y16.664
X365.003 Y16.555
X364.793 Y16.424
X364.567 Y16.265
X364.342 Y16.087
X364.095 Y15.867
X363.852 Y15.625
X363.597 Y15.342
X363.33 Y15.009
X363.076 Y14.653
X362.817 Y14.243
X362.56 Y13.779
X362.31 Y13.264
X362.077 Y12.703
X361.869 Y12.11
X361.693 Y11.507
X361.549 Y10.896
X361.435 Y10.279
X361.35 Y9.657
X361.294 Y9.031
X361.266 Y8.404
X361.269 Y7.776
X361.302 Y7.149
X361.367 Y6.53
X361.456 Y5.989
X361.564 Y5.499
X361.68 Y5.089
X361.801 Y4.737
X361.915 Y4.456
X362.044 Y4.185
X362.168 Y3.957
X362.176 Y3.944
X362.378 Y3.673
X362.623 Y3.44
X362.903 Y3.252
X363.211 Y3.113
X363.538 Y3.029
X363.875 Y3
X364.284
G3 X364.854 Y3.501 I-0.021 J0.6
G1 X366.984 Y16.302
G3 X366.641 Y16.946 I-0.592 J0.098
X366.413 Y17 I-0.249 J-0.546
G1 X365.154
X364.953 Y16.99
X364.829 Y16.977
X364.702 Y16.956
X364.555 Y16.923
X364.406 Y16.881
X364.237 Y16.823
X364.063 Y16.752
X363.871 Y16.66
X363.672 Y16.552
X363.463 Y16.421
X363.236 Y16.262
X363.012 Y16.084
X362.765 Y15.865
X362.522 Y15.623
X362.268 Y15.34
X362 Y15.007
X361.747 Y14.652
X361.488 Y14.242
X361.231 Y13.778
X360.982 Y13.263
X360.748 Y12.702
X360.54 Y12.109
X360.364 Y11.507
X360.22 Y10.895
X360.106 Y10.278
X360.021 Y9.656
X359.965 Y9.031
X359.938 Y8.403
X359.94 Y7.775
X359.973 Y7.148
X360.039 Y6.529
X360.127 Y5.989
X360.236 Y5.498
X360.351 Y5.088
X360.472 Y4.736
X360.586 Y4.456
X360.715 Y4.185
X360.839 Y3.957
X360.848 Y3.944
X361.049 Y3.673
X361.294 Y3.44
X361.574 Y3.252
X361.883 Y3.113
X362.21 Y3.029
X362.546 Y3
X362.957
G3 X363.185 Y3.054 I-0.021 J0.6
X363.528 Y3.498 I-0.249 J0.546
G1 X365.724 Y16.299
G3 X365.381 Y16.946 I-0.591 J0.101
X365.154 Y17 I-0.249 J-0.546
G1 X363.795
X363.627 Y16.992
X363.503 Y16.978
X363.376 Y16.957
X363.229 Y16.925
X363.079 Y16.882
X362.91 Y16.824
X362.736 Y16.753
X362.544 Y16.662
X362.345 Y16.553
X362.135 Y16.422
X361.909 Y16.263
X361.684 Y16.085
X361.437 Y15.865
X361.194 Y15.624
X360.939 Y15.341
X360.672 Y15.007
X360.418 Y14.652
X360.159 Y14.242
X359.902 Y13.778
X359.653 Y13.263
X359.419 Y12.702
X359.211 Y12.109
X359.036 Y11.506
X358.891 Y10.895
X358.777 Y10.278
X358.692 Y9.656
X358.636 Y9.03
X358.609 Y8.403
X358.611 Y7.775
X358.644 Y7.148
X358.71 Y6.529
X358.798 Y5.989
X358.907 Y5.498
X359.022 Y5.088
X359.143 Y4.736
X359.258 Y4.456
X359.386 Y4.185
X359.511 Y3.957
X359.519 Y3.944
X359.721 Y3.673
X359.965 Y3.44
X360.246 Y3.252
X360.554 Y3.113
X360.881 Y3.029
X361.217 Y3
X361.629
G3 X362.2 Y3.5 I-0.021 J0.6
G1 X364.365 Y16.3
G3 X363.795 Y17 I-0.592 J0.1
G1 X362.454
X362.299 Y16.992
X362.175 Y16.979
X362.048 Y16.958
X361.901 Y16.925
X361.751 Y16.883
X361.581 Y16.825
X361.408 Y16.754
X361.216 Y16.662
X361.017 Y16.553
X360.807 Y16.423
X360.58 Y16.263
X360.356 Y16.085
X360.108 Y15.866
X359.865 Y15.624
X359.611 Y15.341
X359.343 Y15.007
X359.09 Y14.652
X358.831 Y14.242
X358.573 Y13.778
X358.324 Y13.263
X358.091 Y12.702
X357.883 Y12.109
X357.707 Y11.506
X357.563 Y10.895
X357.449 Y10.278
X357.364 Y9.656
X357.307 Y9.03
X357.28 Y8.403
X357.282 Y7.775
X357.316 Y7.148
X357.381 Y6.529
X357.469 Y5.989
X357.578 Y5.498
X357.694 Y5.088
X357.815 Y4.736
X357.929 Y4.456
X358.058 Y4.185
X358.182 Y3.957
X358.19 Y3.944
X358.392 Y3.673
X358.637 Y3.44
X358.917 Y3.252
X359.225 Y3.113
X359.552 Y3.029
X359.889 Y3
X360.294
G3 X360.522 Y3.054 I-0.021 J0.6
X360.865 Y3.5 I-0.249 J0.546
G1 X363.024 Y16.301
G3 X362.682 Y16.946 I-0.592 J0.1
X362.454 Y17 I-0.249 J-0.546
G1 X361.095
X360.972 Y16.994
X360.848 Y16.981
X360.72 Y16.96
X360.573 Y16.927
X360.424 Y16.885
X360.254 Y16.826
X360.08 Y16.755
X359.888 Y16.664
X359.689 Y16.555
X359.479 Y16.424
X359.252 Y16.265
X359.028 Y16.087
X358.78 Y15.867
X358.537 Y15.625
X358.282 Y15.342
X358.015 Y15.008
X357.761 Y14.653
X357.502 Y14.243
X357.245 Y13.779
X356.996 Y13.264
X356.762 Y12.702
X356.554 Y12.11
X356.378 Y11.507
X356.234 Y10.896
X356.12 Y10.278
X356.035 Y9.656
X355.979 Y9.031
X355.952 Y8.404
X355.954 Y7.776
X355.987 Y7.149
X356.052 Y6.529
X356.141 Y5.989
X356.249 Y5.499
X356.365 Y5.089
X356.486 Y4.737
X356.6 Y4.456
X356.729 Y4.185
X356.853 Y3.957
X356.861 Y3.944
X357.063 Y3.673
X357.308 Y3.44
X357.588 Y3.252
X357.896 Y3.113
X358.223 Y3.029
X358.56 Y3
X358.953
G3 X359.524 Y3.501 I-0.021 J0.6
G1 X361.666 Y16.301
G3 X361.095 Y17 I-0.592 J0.099
G1 X359.754
X359.643 Y16.994
X359.519 Y16.981
X359.392 Y16.96
X359.245 Y16.928
X359.095 Y16.885
X358.925 Y16.827
X358.752 Y16.756
X358.559 Y16.664
X358.36 Y16.555
X358.15 Y16.425
X357.924 Y16.265
X357.699 Y16.087
X357.452 Y15.868
X357.208 Y15.626
X356.954 Y15.343
X356.686 Y15.009
X356.433 Y14.653
X356.174 Y14.243
X355.916 Y13.779
X355.667 Y13.264
X355.433 Y12.703
X355.225 Y12.11
X355.05 Y11.507
X354.906 Y10.896
X354.791 Y10.279
X354.706 Y9.657
X354.65 Y9.031
X354.623 Y8.404
X354.625 Y7.776
X354.658 Y7.149
X354.724 Y6.53
X354.812 Y5.989
X354.921 Y5.499
X355.036 Y5.089
X355.157 Y4.737
X355.271 Y4.456
X355.4 Y4.185
X355.524 Y3.957
X355.533 Y3.944
X355.735 Y3.673
X355.979 Y3.44
X356.26 Y3.252
X356.568 Y3.113
X356.895 Y3.029
X357.231 Y3
X357.648
G3 X358.22 Y3.502 I-0.021 J0.6
G1 X360.325 Y16.303
G3 X359.754 Y17 I-0.592 J0.097
G1 X358.494
X358.31 Y16.991
X358.186 Y16.978
X358.059 Y16.957
X357.913 Y16.924
X357.763 Y16.882
X357.594 Y16.824
X357.42 Y16.753
X357.228 Y16.661
X357.029 Y16.552
X356.82 Y16.422
X356.593 Y16.263
X356.369 Y16.085
X356.122 Y15.865
X355.879 Y15.624
X355.624 Y15.341
X355.357 Y15.007
X355.103 Y14.652
X354.845 Y14.242
X354.587 Y13.778
X354.338 Y13.264
X354.105 Y12.702
X353.896 Y12.11
X353.721 Y11.507
X353.577 Y10.896
X353.462 Y10.278
X353.377 Y9.656
X353.321 Y9.031
X353.294 Y8.403
X353.296 Y7.776
X353.329 Y7.149
X353.395 Y6.529
X353.483 Y5.989
X353.592 Y5.499
X353.707 Y5.089
X353.828 Y4.737
X353.943 Y4.456
X354.072 Y4.185
X354.196 Y3.957
X354.204 Y3.944
X354.406 Y3.673
X354.651 Y3.44
X354.931 Y3.252
X355.239 Y3.113
X355.566 Y3.029
X355.903 Y3
X356.298
G3 X356.525 Y3.054 I-0.021 J0.6
X356.868 Y3.498 I-0.249 J0.546
G1 X359.064 Y16.299
G3 X358.494 Y17 I-0.591 J0.101
G1 X357.135
X356.984 Y16.992
X356.86 Y16.979
X356.733 Y16.958
X356.586 Y16.926
X356.436 Y16.883
X356.267 Y16.825
X356.093 Y16.754
X355.901 Y16.662
X355.702 Y16.553
X355.492 Y16.423
X355.265 Y16.263
X355.041 Y16.086
X354.793 Y15.866
X354.55 Y15.624
X354.296 Y15.341
X354.028 Y15.008
X353.775 Y14.652
X353.516 Y14.242
X353.258 Y13.778
X353.009 Y13.263
X352.776 Y12.702
X352.568 Y12.11
X352.392 Y11.507
X352.248 Y10.896
X352.134 Y10.278
X352.049 Y9.656
X351.993 Y9.031
X351.965 Y8.403
X351.968 Y7.776
X352.001 Y7.148
X352.066 Y6.529
X352.155 Y5.989
X352.263 Y5.499
X352.379 Y5.089
X352.5 Y4.737
X352.614 Y4.456
X352.743 Y4.185
X352.867 Y3.957
X352.875 Y3.944
X353.077 Y3.673
X353.322 Y3.44
X353.602 Y3.252
X353.91 Y3.113
X354.237 Y3.029
X354.574 Y3
X354.993
G3 X355.564 Y3.501 I-0.021 J0.6
G1 X357.706 Y16.301
G3 X357.135 Y17 I-0.592 J0.099
G1 X355.794
X355.656 Y16.993
X355.532 Y16.98
X355.404 Y16.959
X355.258 Y16.926
X355.108 Y16.884
X354.938 Y16.826
X354.765 Y16.755
X354.572 Y16.663
X354.373 Y16.554
X354.163 Y16.423
X353.937 Y16.264
X353.712 Y16.086
X353.465 Y15.866
X353.222 Y15.625
X352.967 Y15.342
X352.7 Y15.008
X352.446 Y14.653
X352.187 Y14.243
X351.93 Y13.778
X351.681 Y13.264
X351.447 Y12.702
X351.239 Y12.11
X351.064 Y11.507
X350.919 Y10.896
X350.805 Y10.278
X350.72 Y9.656
X350.664 Y9.031
X350.637 Y8.404
X350.639 Y7.776
X350.672 Y7.149
X350.738 Y6.529
X350.826 Y5.989
X350.935 Y5.499
X351.05 Y5.089
X351.171 Y4.737
X351.285 Y4.456
X351.414 Y4.185
X351.538 Y3.957
X351.547 Y3.944
X351.748 Y3.673
X351.993 Y3.44
X352.273 Y3.252
X352.582 Y3.113
X352.909 Y3.029
X353.245 Y3
X353.664
G3 X354.235 Y3.501 I-0.021 J0.6
G1 X356.365 Y16.302
G3 X355.794 Y17 I-0.592 J0.098
G1 X354.435
X354.329 Y16.995
X354.205 Y16.981
X354.077 Y16.96
X353.93 Y16.928
X353.78 Y16.885
X353.611 Y16.827
X353.437 Y16.756
X353.245 Y16.664
X353.046 Y16.555
X352.835 Y16.425
X352.609 Y16.265
X352.384 Y16.087
X352.137 Y15.868
X351.894 Y15.626
X351.639 Y15.343
X351.371 Y15.009
X351.118 Y14.654
X350.859 Y14.243
X350.601 Y13.779
X350.352 Y13.264
X350.119 Y12.703
X349.91 Y12.11
X349.735 Y11.507
X349.591 Y10.896
X349.476 Y10.279
X349.391 Y9.657
X349.335 Y9.031
X349.308 Y8.404
X349.31 Y7.776
X349.343 Y7.149
X349.409 Y6.53
X349.497 Y5.989
X349.606 Y5.499
X349.721 Y5.089
