%
(1001)
(crosssupportstenonshould_ z0 stock bottom_far)
(T2  D=6 CR=0 - ZMIN=41.5 - flat end mill)
G90 G94
G17
G21

(2D Adaptive3_far 2)
M9
T2 M6
S6500 M3
G54
M9
G0 X256.818 Y341.381
Z64
Z54
Z42.7
G1 Z42.1 F850
X256.811 Y341.383 Z42.006
X256.79 Y341.389 Z41.915
X256.755 Y341.398 Z41.828
X256.707 Y341.41 Z41.747
X256.648 Y341.425 Z41.676
X256.578 Y341.443 Z41.615
X256.501 Y341.463 Z41.565
X256.416 Y341.484 Z41.529
X256.328 Y341.507 Z41.507
X256.237 Y341.53 Z41.5
G3 X252.97 Y342 I-3.801 J-14.839
G1 X252.872
X252.832 Y341.998
X252.731 Y341.888
X252.641 Y341.768
X252.559 Y341.642
X252.47 Y341.485
X252.372 Y341.289
X252.268 Y341.044
X252.155 Y340.736
X252.036 Y340.34
X251.91 Y339.817
X251.778 Y339.091
X251.669 Y338.212
X251.6 Y337.329
X251.555 Y336.444
X251.526 Y335.558
X251.507 Y334.672
X251.494 Y333.786
X251.486 Y332.9
X251.48 Y332.014
X251.477 Y331.128
X251.474 Y329.805
X251.508 Y329.453
X251.61 Y329.114
X251.776 Y328.802
X252 Y328.529
X252.273 Y328.304
X252.585 Y328.137
X252.923 Y328.035
X253.275 Y328
G3 X253.503 Y328.054 I-0.021 J0.6
X253.854 Y328.618 I-0.249 J0.546
G1 X253.451 Y341.419
G3 X253.1 Y341.946 I-0.6 J-0.019
X252.872 Y342 I-0.249 J-0.546
G1 X252.47
X252.395 Y341.996
X252.267 Y341.918
X252.145 Y341.83
X252.031 Y341.733
X251.922 Y341.63
X251.799 Y341.498
X251.68 Y341.355
X251.548 Y341.179
X251.407 Y340.965
X251.272 Y340.733
X251.122 Y340.439
X250.975 Y340.104
X250.822 Y339.695
X250.669 Y339.204
X250.511 Y338.575
X250.352 Y337.747
X250.235 Y336.869
X250.153 Y335.987
X250.097 Y335.102
X250.058 Y334.217
X250.031 Y333.331
X250.012 Y332.445
X249.999 Y331.559
X250.01 Y331.029
X250.044 Y330.596
X250.087 Y330.271
X250.148 Y329.956
X250.209 Y329.711
X250.291 Y329.45
X250.348 Y329.297
X250.497 Y328.985
X250.698 Y328.704
X250.944 Y328.461
X251.228 Y328.264
X251.542 Y328.119
X251.876 Y328.03
X252.221 Y328
G3 X252.448 Y328.054 I-0.021 J0.6
X252.8 Y328.588 I-0.249 J0.546
G1 X253.049 Y341.389
G3 X252.698 Y341.946 I-0.6 J0.012
X252.47 Y342 I-0.249 J-0.546
G1 X251.866
X251.716 Y341.992
X251.578 Y341.933
X251.445 Y341.864
X251.317 Y341.786
X251.184 Y341.693
X251.052 Y341.59
X250.904 Y341.461
X250.76 Y341.319
X250.599 Y341.143
X250.444 Y340.952
X250.273 Y340.715
X250.106 Y340.455
X249.929 Y340.139
X249.749 Y339.775
X249.569 Y339.35
X249.39 Y338.851
X249.208 Y338.234
X249.027 Y337.469
X248.873 Y336.597
X248.761 Y335.718
X248.679 Y334.836
X248.621 Y333.951
X248.579 Y333.066
X248.567 Y332.18
X248.594 Y331.517
X248.648 Y330.976
X248.715 Y330.544
X248.793 Y330.178
X248.879 Y329.865
X248.972 Y329.587
X249.069 Y329.344
X249.181 Y329.103
X249.207 Y329.055
X249.404 Y328.755
X249.652 Y328.495
X249.942 Y328.284
X250.266 Y328.128
X250.612 Y328.032
X250.969 Y328
G3 X251.197 Y328.054 I-0.021 J0.6
X251.547 Y328.558 I-0.249 J0.546
G1 X252.443 Y341.358
G3 X252.093 Y341.946 I-0.599 J0.042
X251.866 Y342 I-0.249 J-0.546
G1 X251.151
X251.001 Y341.992
X250.855 Y341.958
X250.712 Y341.912
X250.573 Y341.855
X250.438 Y341.79
X250.296 Y341.71
X250.153 Y341.62
X249.994 Y341.505
X249.837 Y341.379
X249.662 Y341.221
X249.493 Y341.049
X249.305 Y340.837
X249.124 Y340.606
X248.925 Y340.322
X248.733 Y340.012
X248.527 Y339.632
X248.328 Y339.212
X248.124 Y338.707
X247.918 Y338.103
X247.72 Y337.395
X247.53 Y336.53
X247.387 Y335.655
X247.281 Y334.775
X247.206 Y333.892
X247.169 Y333.007
X247.179 Y332.233
X247.223 Y331.6
X247.293 Y331.046
X247.381 Y330.565
X247.472 Y330.19
X247.581 Y329.831
X247.68 Y329.561
X247.8 Y329.283
X247.912 Y329.06
X247.942 Y329.007
X248.142 Y328.719
X248.388 Y328.471
X248.674 Y328.27
X248.991 Y328.121
X249.329 Y328.031
X249.678 Y328
X249.963
G3 X250.19 Y328.054 I-0.021 J0.6
X250.539 Y328.544 I-0.249 J0.546
G1 X251.727 Y341.345
G3 X251.379 Y341.946 I-0.597 J0.055
X251.151 Y342 I-0.249 J-0.546
G1 X250.255
X250.105 Y341.992
X249.956 Y341.972
X249.81 Y341.939
X249.666 Y341.895
X249.526 Y341.842
X249.38 Y341.777
X249.23 Y341.699
X249.069 Y341.604
X248.9 Y341.491
X248.723 Y341.357
X248.535 Y341.198
X248.347 Y341.02
X248.141 Y340.801
X247.943 Y340.565
X247.723 Y340.271
X247.514 Y339.956
X247.289 Y339.573
X247.069 Y339.142
X246.845 Y338.639
X246.618 Y338.037
X246.402 Y337.35
X246.195 Y336.534
X246.026 Y335.664
X245.903 Y334.786
X245.824 Y333.904
X245.795 Y333.094
X245.81 Y332.362
X245.861 Y331.703
X245.936 Y331.142
X246.034 Y330.637
X246.139 Y330.219
X246.252 Y329.855
X246.361 Y329.565
X246.483 Y329.288
X246.604 Y329.051
X246.637 Y328.993
X246.838 Y328.709
X247.084 Y328.464
X247.369 Y328.266
X247.684 Y328.12
X248.019 Y328.03
X248.365 Y328
X249.678
G3 X249.906 Y328.054 I-0.021 J0.6
X250.256 Y328.573 I-0.249 J0.546
G1 X250.833 Y341.373
G3 X250.482 Y341.946 I-0.599 J0.027
X250.255 Y342 I-0.249 J-0.546
G1 X249.137
X248.987 Y341.992
X248.839 Y341.972
X248.692 Y341.94
X248.548 Y341.898
X248.407 Y341.847
X248.249 Y341.78
X248.091 Y341.703
X247.917 Y341.604
X247.738 Y341.49
X247.548 Y341.352
X247.348 Y341.189
X247.144 Y341.003
X246.923 Y340.778
X246.71 Y340.534
X246.474 Y340.231
X246.247 Y339.904
X246.008 Y339.514
X245.764 Y339.061
X245.531 Y338.562
X245.291 Y337.962
X245.063 Y337.284
X244.863 Y336.556
X244.689 Y335.746
X244.557 Y334.907
X244.474 Y334.074
X244.44 Y333.278
X244.45 Y332.558
X244.496 Y331.898
X244.573 Y331.293
X244.669 Y330.773
X244.781 Y330.311
X244.892 Y329.947
X245.012 Y329.62
X245.129 Y329.35
X245.258 Y329.091
X245.307 Y329.005
X245.507 Y328.718
X245.754 Y328.471
X246.04 Y328.27
X246.357 Y328.121
X246.694 Y328.031
X247.043 Y328
X248.365
G3 X248.593 Y328.054 I-0.021 J0.6
X248.943 Y328.564 I-0.249 J0.546
G1 X249.715 Y341.364
G3 X249.365 Y341.946 I-0.599 J0.036
X249.137 Y342 I-0.249 J-0.546
G1 X247.979
X247.829 Y341.992
X247.68 Y341.975
X247.533 Y341.945
X247.388 Y341.906
X247.244 Y341.858
X247.083 Y341.794
X246.919 Y341.717
X246.736 Y341.619
X246.554 Y341.508
X246.35 Y341.368
X246.148 Y341.211
X245.929 Y341.02
X245.704 Y340.8
X245.475 Y340.55
X245.227 Y340.247
X244.992 Y339.922
X244.737 Y339.527
X244.486 Y339.085
X244.245 Y338.598
X244 Y338.023
X243.767 Y337.379
X243.567 Y336.709
X243.391 Y335.971
X243.251 Y335.191
X243.154 Y334.403
X243.104 Y333.628
X243.097 Y332.878
X243.13 Y332.192
X243.194 Y331.578
X243.285 Y331.013
X243.394 Y330.516
X243.505 Y330.12
X243.631 Y329.751
X243.743 Y329.475
X243.876 Y329.194
X243.996 Y328.973
X244.012 Y328.947
X244.214 Y328.676
X244.458 Y328.442
X244.739 Y328.253
X245.048 Y328.114
X245.375 Y328.029
X245.712 Y328
X247.043
G3 X247.27 Y328.054 I-0.021 J0.6
X247.62 Y328.556 I-0.249 J0.546
G1 X248.556 Y341.357
G3 X248.206 Y341.946 I-0.598 J0.044
X247.979 Y342 I-0.249 J-0.546
G1 X246.72
X246.571 Y341.992
X246.422 Y341.972
X246.275 Y341.942
X246.128 Y341.901
X245.978 Y341.85
X245.809 Y341.782
X245.637 Y341.701
X245.448 Y341.6
X245.253 Y341.479
X245.046 Y341.335
X244.825 Y341.162
X244.603 Y340.968
X244.361 Y340.73
X244.127 Y340.472
X243.875 Y340.162
X243.618 Y339.805
X243.368 Y339.415
X243.111 Y338.957
X242.857 Y338.438
X242.626 Y337.893
X242.404 Y337.272
X242.202 Y336.587
X242.031 Y335.859
X241.898 Y335.102
X241.807 Y334.341
X241.761 Y333.594
X241.757 Y332.872
X241.792 Y332.186
X241.86 Y331.556
X241.951 Y331.006
X242.062 Y330.508
X242.179 Y330.095
X242.302 Y329.739
X242.418 Y329.457
X242.548 Y329.184
X242.673 Y328.956
X242.683 Y328.941
X242.885 Y328.671
X243.129 Y328.439
X243.409 Y328.251
X243.717 Y328.113
X244.043 Y328.028
X244.379 Y328
X245.712
G3 X245.94 Y328.054 I-0.021 J0.6
X246.29 Y328.553 I-0.249 J0.546
G1 X247.298 Y341.353
G3 X246.948 Y341.946 I-0.598 J0.047
X246.72 Y342 I-0.249 J-0.546
G1 X245.512
X245.35 Y341.992
X245.201 Y341.976
X245.053 Y341.949
X244.908 Y341.913
X244.752 Y341.864
X244.59 Y341.804
X244.413 Y341.726
X244.227 Y341.631
X244.03 Y341.516
X243.818 Y341.376
X243.605 Y341.217
X243.369 Y341.02
X243.14 Y340.805
X242.89 Y340.543
X242.637 Y340.246
X242.388 Y339.918
X242.126 Y339.528
X241.868 Y339.095
X241.622 Y338.621
X241.376 Y338.075
X241.141 Y337.464
X240.932 Y336.816
X240.756 Y336.137
X240.611 Y335.414
X240.504 Y334.667
X240.439 Y333.913
X240.418 Y333.171
X240.437 Y332.469
X240.49 Y331.832
X240.573 Y331.244
X240.678 Y330.715
X240.797 Y330.253
X240.91 Y329.898
X241.036 Y329.568
X241.154 Y329.305
X241.288 Y329.046
X241.326 Y328.982
X241.527 Y328.701
X241.773 Y328.459
X242.057 Y328.263
X242.37 Y328.118
X242.704 Y328.03
X243.047 Y328
X244.379
G3 X244.607 Y328.054 I-0.021 J0.6
X244.956 Y328.547 I-0.249 J0.546
G1 X246.089 Y341.347
G3 X245.74 Y341.946 I-0.598 J0.053
X245.512 Y342 I-0.249 J-0.546
G1 X244.213
X244.059 Y341.992
X243.91 Y341.976
X243.763 Y341.95
X243.614 Y341.913
X243.463 Y341.867
X243.291 Y341.803
X243.118 Y341.728
X242.924 Y341.629
X242.729 Y341.517
X242.514 Y341.376
X242.295 Y341.214
X242.065 Y341.023
X241.818 Y340.794
X241.58 Y340.546
X241.322 Y340.245
X241.063 Y339.906
X240.807 Y339.529
X240.543 Y339.088
X240.284 Y338.596
X240.048 Y338.078
X239.821 Y337.493
X239.611 Y336.849
X239.429 Y336.158
X239.28 Y335.432
X239.171 Y334.691
X239.105 Y333.953
X239.081 Y333.23
X239.098 Y332.534
X239.15 Y331.876
X239.232 Y331.277
X239.333 Y330.757
X239.452 Y330.29
X239.568 Y329.921
X239.691 Y329.595
X239.813 Y329.322
X239.944 Y329.065
X239.989 Y328.988
X240.19 Y328.706
X240.436 Y328.462
X240.72 Y328.265
X241.035 Y328.119
X241.369 Y328.03
X241.714 Y328
X243.047
G3 X243.275 Y328.054 I-0.021 J0.6
X243.624 Y328.545 I-0.249 J0.546
G1 X244.79 Y341.346
G3 X244.441 Y341.946 I-0.598 J0.054
X244.213 Y342 I-0.249 J-0.546
G1 X242.894
X242.745 Y341.992
X242.595 Y341.976
X242.448 Y341.949
X242.298 Y341.912
X242.146 Y341.865
X241.972 Y341.8
X241.797 Y341.724
X241.6 Y341.624
X241.402 Y341.509
X241.187 Y341.367
X240.963 Y341.202
X240.732 Y341.009
X240.481 Y340.775
X240.239 Y340.522
X239.981 Y340.221
X239.717 Y339.874
X239.465 Y339.502
X239.203 Y339.064
X238.942 Y338.565
X238.704 Y338.041
X238.478 Y337.457
X238.27 Y336.814
X238.089 Y336.126
X237.943 Y335.407
X237.836 Y334.672
X237.771 Y333.934
X237.748 Y333.209
X237.765 Y332.514
X237.818 Y331.857
X237.9 Y331.264
X238.002 Y330.747
X238.12 Y330.283
X238.238 Y329.911
X238.36 Y329.59
X238.483 Y329.314
X238.613 Y329.061
X238.657 Y328.986
X238.858 Y328.704
X239.104 Y328.461
X239.388 Y328.264
X239.702 Y328.119
X240.036 Y328.03
X240.381 Y328
X241.714
G3 X241.942 Y328.054 I-0.021 J0.6
X242.291 Y328.545 I-0.249 J0.546
G1 X243.471 Y341.345
G3 X243.122 Y341.946 I-0.597 J0.055
X242.894 Y342 I-0.249 J-0.546
G1 X241.595
X241.433 Y341.992
X241.284 Y341.976
X241.136 Y341.95
X240.988 Y341.913
X240.834 Y341.866
X240.661 Y341.803
X240.485 Y341.727
X240.287 Y341.627
X240.09 Y341.514
X239.871 Y341.371
X239.651 Y341.21
X239.417 Y341.016
X239.169 Y340.787
X238.925 Y340.534
X238.663 Y340.23
X238.404 Y339.892
X238.148 Y339.518
X237.884 Y339.079
X237.624 Y338.588
X237.387 Y338.07
X237.158 Y337.487
X236.948 Y336.847
X236.765 Y336.162
X236.617 Y335.446
X236.507 Y334.713
X236.44 Y333.977
X236.414 Y333.255
X236.428 Y332.562
X236.479 Y331.905
X236.56 Y331.303
X236.66 Y330.781
X236.778 Y330.311
X236.894 Y329.94
X237.019 Y329.609
X237.139 Y329.335
X237.271 Y329.076
X237.32 Y328.993
X237.52 Y328.709
X237.766 Y328.464
X238.051 Y328.266
X238.366 Y328.12
X238.702 Y328.03
X239.048 Y328
X240.381
G3 X240.609 Y328.054 I-0.021 J0.6
X240.957 Y328.543 I-0.249 J0.546
G1 X242.172 Y341.344
G3 X241.823 Y341.946 I-0.597 J0.057
X241.595 Y342 I-0.249 J-0.546
G1 X240.276
X240.111 Y341.992
X239.961 Y341.976
X239.814 Y341.949
X239.664 Y341.913
X239.51 Y341.866
X239.336 Y341.802
X239.16 Y341.726
X238.961 Y341.626
X238.764 Y341.513
X238.546 Y341.371
X238.323 Y341.208
X238.089 Y341.015
X237.839 Y340.783
X237.595 Y340.531
X237.335 Y340.229
X237.071 Y339.887
X236.817 Y339.514
X236.554 Y339.078
X236.291 Y338.582
X236.053 Y338.063
X235.825 Y337.483
X235.616 Y336.845
X235.433 Y336.162
X235.285 Y335.448
X235.175 Y334.717
X235.107 Y333.982
X235.081 Y333.259
X235.095 Y332.564
X235.146 Y331.906
X235.226 Y331.306
X235.326 Y330.786
X235.444 Y330.315
X235.56 Y329.941
X235.684 Y329.612
X235.805 Y329.337
X235.936 Y329.078
X235.986 Y328.994
X236.186 Y328.71
X236.432 Y328.465
X236.717 Y328.266
X237.032 Y328.12
X237.368 Y328.03
X237.714 Y328
X239.048
G3 X239.275 Y328.054 I-0.021 J0.6
X239.624 Y328.542 I-0.249 J0.546
G1 X240.853 Y341.343
G3 X240.504 Y341.946 I-0.597 J0.057
X240.276 Y342 I-0.249 J-0.546
G1 X238.978
X238.783 Y341.99
X238.634 Y341.974
X238.486 Y341.948
X238.336 Y341.911
X238.182 Y341.865
X238.008 Y341.801
X237.832 Y341.725
X237.633 Y341.625
X237.435 Y341.511
X237.216 Y341.369
X236.993 Y341.206
X236.76 Y341.013
X236.509 Y340.781
X236.264 Y340.528
X236.004 Y340.226
X235.74 Y339.883
X235.485 Y339.511
X235.221 Y339.074
X234.959 Y338.579
X234.721 Y338.06
X234.493 Y337.481
X234.284 Y336.844
X234.101 Y336.162
X233.953 Y335.448
X233.843 Y334.717
X233.775 Y333.982
X233.748 Y333.259
X233.762 Y332.566
X233.813 Y331.908
X233.893 Y331.308
X233.992 Y330.787
X234.11 Y330.317
X234.227 Y329.943
X234.35 Y329.613
X234.471 Y329.338
X234.603 Y329.079
X234.652 Y328.994
X234.852 Y328.71
X235.099 Y328.465
X235.384 Y328.266
X235.699 Y328.12
X236.035 Y328.03
X236.381 Y328
X237.714
G3 X237.942 Y328.054 I-0.021 J0.6
X238.29 Y328.541 I-0.249 J0.546
G1 X239.554 Y341.341
G3 X239.205 Y341.946 I-0.597 J0.059
X238.978 Y342 I-0.249 J-0.546
G1 X237.568
X237.418 Y341.992
X237.269 Y341.973
X237.122 Y341.944
X236.967 Y341.904
X236.81 Y341.853
X236.632 Y341.785
X236.451 Y341.703
X236.25 Y341.598
X236.044 Y341.476
X235.827 Y341.329
X235.593 Y341.152
X235.362 Y340.954
X235.107 Y340.711
X234.857 Y340.444
X234.6 Y340.137
X234.331 Y339.774
X234.074 Y339.385
X233.817 Y338.944
X233.56 Y338.438
X233.313 Y337.877
X233.094 Y337.291
X232.895 Y336.652
X232.724 Y335.965
X232.586 Y335.246
X232.488 Y334.51
X232.431 Y333.772
X232.417 Y333.048
X232.442 Y332.357
X232.502 Y331.718
X232.586 Y331.155
X232.693 Y330.64
X232.81 Y330.207
X232.933 Y329.831
X233.049 Y329.536
X233.179 Y329.254
X233.304 Y329.017
X233.335 Y328.966
X233.536 Y328.689
X233.782 Y328.451
X234.064 Y328.258
X234.375 Y328.116
X234.706 Y328.029
X235.047 Y328
X236.381
G3 X236.609 Y328.054 I-0.021 J0.6
X236.957 Y328.544 I-0.249 J0.546
G1 X238.144 Y341.345
G3 X237.796 Y341.946 I-0.597 J0.055
X237.568 Y342 I-0.249 J-0.546
G1 X236.249
X236.099 Y341.992
X235.95 Y341.975
X235.803 Y341.946
X235.656 Y341.909
X235.494 Y341.858
X235.322 Y341.793
X235.139 Y341.711
X234.941 Y341.61
X234.737 Y341.49
X234.513 Y341.341
X234.293 Y341.176
X234.051 Y340.973
X233.808 Y340.743
X233.557 Y340.478
X233.288 Y340.161
X233.033 Y339.822
X232.771 Y339.43
X232.505 Y338.979
X232.252 Y338.49
X232.016 Y337.961
X231.789 Y337.367
X231.583 Y336.719
X231.406 Y336.029
X231.264 Y335.31
X231.161 Y334.576
X231.101 Y333.842
X231.082 Y333.129
X231.103 Y332.443
X231.159 Y331.8
X231.244 Y331.208
X231.347 Y330.696
X231.466 Y330.24
X231.583 Y329.877
X231.706 Y329.56
X231.828 Y329.288
X231.959 Y329.038
X231.995 Y328.977
X232.196 Y328.697
X232.442 Y328.456
X232.725 Y328.261
X233.038 Y328.118
X233.371 Y328.03
X233.714 Y328
X235.047
G3 X235.275 Y328.054 I-0.021 J0.6
X235.624 Y328.544 I-0.249 J0.546
G1 X236.825 Y341.344
G3 X236.477 Y341.946 I-0.597 J0.056
X236.249 Y342 I-0.249 J-0.546
G1 X234.95
X234.793 Y341.992
X234.644 Y341.976
X234.496 Y341.95
X234.351 Y341.914
X234.192 Y341.866
X234.022 Y341.804
X233.84 Y341.725
X233.644 Y341.627
X233.443 Y341.512
X233.221 Y341.367
X233.003 Y341.207
X232.761 Y341.008
X232.519 Y340.784
X232.269 Y340.525
X232.003 Y340.218
X231.75 Y339.888
X231.488 Y339.506
X231.22 Y339.062
X230.967 Y338.585
X230.726 Y338.06
X230.495 Y337.471
X230.283 Y336.828
X230.1 Y336.143
X229.951 Y335.432
X229.842 Y334.706
X229.775 Y333.975
X229.748 Y333.254
X229.762 Y332.566
X229.812 Y331.914
X229.892 Y331.313
X229.993 Y330.784
X230.111 Y330.315
X230.225 Y329.946
X230.351 Y329.61
X230.47 Y329.34
X230.603 Y329.078
X230.652 Y328.994
X230.852 Y328.71
X231.098 Y328.465
X231.384 Y328.266
X231.699 Y328.12
X232.034 Y328.03
X232.381 Y328
X233.714
G3 X233.942 Y328.054 I-0.021 J0.6
X234.29 Y328.542 I-0.249 J0.546
G1 X235.526 Y341.343
G3 X235.178 Y341.946 I-0.597 J0.058
X234.95 Y342 I-0.249 J-0.546
G1 X233.631
X233.464 Y341.992
X233.314 Y341.976
X233.167 Y341.949
X233.016 Y341.913
X232.862 Y341.866
X232.686 Y341.802
X232.509 Y341.725
X232.31 Y341.625
X232.112 Y341.512
X231.892 Y341.369
X231.669 Y341.205
X231.433 Y341.01
X231.182 Y340.779
X230.938 Y340.526
X230.677 Y340.224
X230.413 Y339.88
X230.157 Y339.506
X229.892 Y339.067
X229.628 Y338.57
X229.389 Y338.049
X229.161 Y337.468
X228.951 Y336.831
X228.769 Y336.15
X228.62 Y335.438
X228.511 Y334.709
X228.443 Y333.977
X228.416 Y333.256
X228.43 Y332.562
X228.481 Y331.904
X228.56 Y331.307
X228.66 Y330.787
X228.777 Y330.316
X228.894 Y329.942
X229.017 Y329.613
X229.138 Y329.338
X229.269 Y329.08
X229.319 Y328.994
X229.519 Y328.71
X229.765 Y328.465
X230.051 Y328.266
X230.366 Y328.12
X230.701 Y328.03
X231.048 Y328
X232.381
G3 X232.609 Y328.054 I-0.021 J0.6
X232.957 Y328.541 I-0.249 J0.546
G1 X234.207 Y341.342
G3 X233.859 Y341.946 I-0.597 J0.058
X233.631 Y342 I-0.249 J-0.546
G1 X232.332
X232.131 Y341.99
X231.982 Y341.974
X231.834 Y341.948
X231.684 Y341.911
X231.53 Y341.864
X231.355 Y341.8
X231.178 Y341.724
X230.979 Y341.624
X230.78 Y341.51
X230.561 Y341.368
X230.338 Y341.204
X230.103 Y341.01
X229.851 Y340.778
X229.606 Y340.525
X229.344 Y340.221
X229.08 Y339.878
X228.823 Y339.504
X228.559 Y339.066
X228.296 Y338.571
X228.057 Y338.051
X227.83 Y337.471
X227.62 Y336.835
X227.437 Y336.154
X227.289 Y335.442
X227.179 Y334.712
X227.111 Y333.978
X227.084 Y333.256
X227.098 Y332.563
X227.148 Y331.906
X227.227 Y331.308
X227.327 Y330.788
X227.444 Y330.318
X227.561 Y329.943
X227.684 Y329.614
X227.805 Y329.339
X227.936 Y329.08
X227.986 Y328.995
X228.186 Y328.711
X228.432 Y328.465
X228.717 Y328.266
X229.033 Y328.12
X229.369 Y328.03
X229.715 Y328
X231.048
G3 X231.276 Y328.054 I-0.021 J0.6
X231.624 Y328.54 I-0.249 J0.546
G1 X232.908 Y341.34
G3 X232.56 Y341.946 I-0.597 J0.06
X232.332 Y342 I-0.249 J-0.546
G1 X230.923
X230.773 Y341.992
X230.624 Y341.974
X230.477 Y341.946
X230.322 Y341.906
X230.166 Y341.856
X229.987 Y341.788
X229.807 Y341.708
X229.606 Y341.604
X229.402 Y341.484
X229.184 Y341.338
X228.952 Y341.163
X228.719 Y340.966
X228.463 Y340.724
X228.215 Y340.461
X227.956 Y340.154
X227.686 Y339.793
X227.431 Y339.41
X227.172 Y338.969
X226.912 Y338.464
X226.666 Y337.91
X226.446 Y337.329
X226.245 Y336.69
X226.07 Y336.005
X225.93 Y335.287
X225.829 Y334.553
X225.77 Y333.816
X225.753 Y333.093
X225.775 Y332.402
X225.832 Y331.755
X225.915 Y331.189
X226.02 Y330.674
X226.137 Y330.23
X226.259 Y329.855
X226.376 Y329.554
X226.504 Y329.273
X226.63 Y329.032
X226.666 Y328.973
X226.867 Y328.694
X227.112 Y328.454
X227.395 Y328.26
X227.707 Y328.117
X228.04 Y328.029
X228.382 Y328
X229.715
G3 X229.943 Y328.054 I-0.021 J0.6
X230.291 Y328.543 I-0.249 J0.546
G1 X231.499 Y341.344
G3 X231.151 Y341.946 I-0.597 J0.056
X230.923 Y342 I-0.249 J-0.546
G1 X229.604
X229.454 Y341.992
X229.305 Y341.975
X229.157 Y341.948
X229.01 Y341.911
X228.85 Y341.861
X228.678 Y341.798
X228.496 Y341.718
X228.299 Y341.617
X228.095 Y341.499
X227.872 Y341.352
X227.652 Y341.189
X227.411 Y340.988
X227.167 Y340.76
X226.916 Y340.498
X226.648 Y340.184
X226.392 Y339.848
X226.131 Y339.46
X225.864 Y339.013
X225.61 Y338.527
X225.372 Y338.001
X225.143 Y337.411
X224.935 Y336.767
X224.755 Y336.08
X224.61 Y335.362
X224.504 Y334.631
X224.44 Y333.896
X224.418 Y333.181
X224.435 Y332.495
X224.488 Y331.848
X224.571 Y331.252
X224.673 Y330.735
X224.792 Y330.273
X224.907 Y329.907
X225.031 Y329.583
X225.152 Y329.311
X225.284 Y329.056
X225.326 Y328.985
X225.526 Y328.703
X225.772 Y328.46
X226.056 Y328.264
X226.37 Y328.119
X226.704 Y328.03
X227.049 Y328
X228.382
G3 X228.61 Y328.054 I-0.021 J0.6
X228.958 Y328.543 I-0.249 J0.546
G1 X230.18 Y341.343
G3 X229.832 Y341.946 I-0.597 J0.057
X229.604 Y342 I-0.249 J-0.546
G1 X228.305
X228.135 Y341.991
X227.986 Y341.976
X227.838 Y341.949
X227.69 Y341.913
X227.533 Y341.865
X227.361 Y341.802
X227.181 Y341.724
X226.982 Y341.625
X226.783 Y341.511
X226.561 Y341.366
X226.341 Y341.205
X226.101 Y341.007
X225.855 Y340.78
X225.607 Y340.523
X225.343 Y340.217
X225.085 Y339.882
X224.826 Y339.503
X224.559 Y339.061
X224.3 Y338.573
X224.061 Y338.052
X223.831 Y337.466
X223.62 Y336.825
X223.437 Y336.141
X223.289 Y335.428
X223.179 Y334.7
X223.111 Y333.97
X223.085 Y333.251
X223.099 Y332.56
X223.149 Y331.906
X223.229 Y331.305
X223.329 Y330.783
X223.447 Y330.314
X223.562 Y329.943
X223.686 Y329.611
X223.806 Y329.338
X223.938 Y329.078
X223.987 Y328.994
X224.188 Y328.71
X224.434 Y328.465
X224.719 Y328.266
X225.034 Y328.12
X225.37 Y328.03
X225.716 Y328
X227.049
G3 X227.277 Y328.054 I-0.021 J0.6
X227.625 Y328.541 I-0.249 J0.546
G1 X228.881 Y341.342
G3 X228.533 Y341.946 I-0.597 J0.059
X228.305 Y342 I-0.249 J-0.546
G1 X226.986
X226.804 Y341.991
X226.655 Y341.975
X226.507 Y341.949
X226.357 Y341.912
X226.202 Y341.865
X226.027 Y341.801
X225.85 Y341.724
X225.65 Y341.625
X225.452 Y341.511
X225.232 Y341.368
X225.009 Y341.204
X224.773 Y341.01
X224.522 Y340.778
X224.277 Y340.525
X224.015 Y340.222
X223.751 Y339.879
X223.494 Y339.504
X223.229 Y339.066
X222.966 Y338.569
X222.727 Y338.049
X222.499 Y337.467
X222.289 Y336.83
X222.106 Y336.149
X221.958 Y335.437
X221.848 Y334.707
X221.78 Y333.975
X221.753 Y333.254
X221.767 Y332.561
X221.817 Y331.904
X221.897 Y331.306
X221.996 Y330.786
X222.113 Y330.317
X222.23 Y329.942
X222.353 Y329.613
X222.473 Y329.338
X222.605 Y329.08
X222.654 Y328.995
X222.855 Y328.71
X223.101 Y328.465
X223.386 Y328.266
X223.701 Y328.12
X224.037 Y328.03
X224.383 Y328
X225.716
G3 X225.944 Y328.054 I-0.021 J0.6
X226.292 Y328.54 I-0.249 J0.546
G1 X227.562 Y341.341
G3 X227.214 Y341.946 I-0.597 J0.059
X226.986 Y342 I-0.249 J-0.546
G1 X225.576
X225.426 Y341.992
X225.278 Y341.973
X225.131 Y341.943
X224.975 Y341.902
X224.816 Y341.85
X224.637 Y341.781
X224.455 Y341.698
X224.254 Y341.592
X224.045 Y341.467
X223.828 Y341.319
X223.592 Y341.139
X223.359 Y340.94
X223.104 Y340.694
X222.851 Y340.423
X222.595 Y340.113
X222.325 Y339.748
X222.065 Y339.351
X221.809 Y338.908
X221.553 Y338.4
X221.305 Y337.833
X221.085 Y337.239
X220.889 Y336.6
X220.719 Y335.914
X220.584 Y335.194
X220.488 Y334.459
X220.434 Y333.721
X220.422 Y332.999
X220.45 Y332.309
X220.51 Y331.683
X220.596 Y331.122
X220.705 Y330.608
X220.819 Y330.185
X220.944 Y329.81
X221.059 Y329.52
X221.19 Y329.237
X221.314 Y329.005
X221.341 Y328.961
X221.543 Y328.685
X221.788 Y328.448
X222.07 Y328.257
X222.38 Y328.115
X222.71 Y328.029
X223.05 Y328
X224.383
G3 X224.611 Y328.054 I-0.021 J0.6
X224.96 Y328.544 I-0.249 J0.546
G1 X226.153 Y341.345
G3 X225.804 Y341.946 I-0.597 J0.056
X225.576 Y342 I-0.249 J-0.546
G1 X224.277
X224.128 Y341.992
X223.978 Y341.976
X223.831 Y341.948
X223.685 Y341.912
X223.521 Y341.862
X223.354 Y341.8
X223.169 Y341.719
X222.976 Y341.621
X222.769 Y341.501
X222.55 Y341.358
X222.327 Y341.193
X222.083 Y340.99
X221.846 Y340.768
X221.59 Y340.502
X221.327 Y340.194
X221.07 Y339.858
X220.803 Y339.463
X220.535 Y339.016
X220.288 Y338.545
X220.046 Y338.012
X219.816 Y337.417
X219.606 Y336.771
X219.426 Y336.087
X219.282 Y335.381
X219.175 Y334.652
X219.11 Y333.912
X219.086 Y333.19
X219.103 Y332.505
X219.155 Y331.865
X219.237 Y331.27
X219.34 Y330.743
X219.458 Y330.28
X219.572 Y329.919
X219.697 Y329.587
X219.816 Y329.32
X219.95 Y329.06
X219.993 Y328.987
X220.193 Y328.705
X220.439 Y328.461
X220.724 Y328.264
X221.038 Y328.119
X221.372 Y328.03
X221.717 Y328
X223.05
G3 X223.278 Y328.054 I-0.021 J0.6
X223.626 Y328.542 I-0.249 J0.546
G1 X224.854 Y341.343
G3 X224.505 Y341.946 I-0.597 J0.057
X224.277 Y342 I-0.249 J-0.546
G1 X222.958
X222.806 Y341.992
X222.657 Y341.976
X222.51 Y341.95
X222.361 Y341.914
X222.204 Y341.866
X222.031 Y341.803
X221.852 Y341.725
X221.653 Y341.625
X221.454 Y341.512
X221.232 Y341.367
X221.011 Y341.205
X220.771 Y341.007
X220.523 Y340.778
X220.277 Y340.524
X220.013 Y340.218
X219.754 Y339.88
X219.495 Y339.501
X219.227 Y339.058
X218.967 Y338.567
X218.728 Y338.047
X218.499 Y337.463
X218.289 Y336.825
X218.106 Y336.141
X217.957 Y335.426
X217.848 Y334.697
X217.78 Y333.968
X217.754 Y333.25
X217.768 Y332.558
X217.818 Y331.903
X217.898 Y331.304
X217.998 Y330.783
X218.115 Y330.313
X218.231 Y329.942
X218.355 Y329.61
X218.475 Y329.337
X218.607 Y329.078
X218.656 Y328.994
X218.856 Y328.71
X219.102 Y328.465
X219.387 Y328.266
X219.703 Y328.12
X220.038 Y328.03
X220.384 Y328
X221.717
G3 X221.945 Y328.054 I-0.021 J0.6
X222.293 Y328.542 I-0.249 J0.546
G1 X223.535 Y341.342
G3 X223.186 Y341.946 I-0.597 J0.058
X222.958 Y342 I-0.249 J-0.546
G1 X221.659
X221.474 Y341.991
X221.324 Y341.975
X221.177 Y341.948
X221.026 Y341.912
X220.872 Y341.865
X220.697 Y341.801
X220.52 Y341.724
X220.32 Y341.625
X220.122 Y341.511
X219.902 Y341.368
X219.679 Y341.204
X219.443 Y341.01
X219.191 Y340.778
X218.946 Y340.524
X218.683 Y340.22
X218.419 Y339.878
X218.163 Y339.503
X217.898 Y339.065
X217.635 Y338.568
X217.396 Y338.048
X217.168 Y337.467
X216.958 Y336.829
X216.775 Y336.148
X216.626 Y335.436
X216.517 Y334.707
X216.448 Y333.974
X216.422 Y333.253
X216.435 Y332.561
X216.486 Y331.904
X216.565 Y331.306
X216.664 Y330.787
X216.782 Y330.317
X216.898 Y329.943
X217.021 Y329.613
X217.142 Y329.338
X217.273 Y329.08
X217.323 Y328.995
X217.523 Y328.711
X217.769 Y328.465
X218.054 Y328.266
X218.37 Y328.12
X218.705 Y328.03
X219.052 Y328
X220.384
G3 X220.612 Y328.054 I-0.021 J0.6
X220.961 Y328.54 I-0.249 J0.546
G1 X222.236 Y341.341
G3 X221.887 Y341.946 I-0.597 J0.059
X221.659 Y342 I-0.249 J-0.546
G1 X220.25
X220.1 Y341.992
X219.951 Y341.973
X219.804 Y341.944
X219.648 Y341.903
X219.491 Y341.852
X219.311 Y341.782
X219.129 Y341.7
X218.928 Y341.595
X218.721 Y341.47
X218.503 Y341.323
X218.267 Y341.144
X218.035 Y340.945
X217.779 Y340.7
X217.528 Y340.43
X217.271 Y340.122
X217 Y339.757
X216.742 Y339.363
X216.485 Y338.92
X216.228 Y338.413
X215.98 Y337.848
X215.761 Y337.257
X215.563 Y336.618
X215.392 Y335.932
X215.256 Y335.213
X215.159 Y334.478
X215.104 Y333.741
X215.091 Y333.018
X215.117 Y332.329
X215.177 Y331.697
X215.262 Y331.136
X215.37 Y330.621
X215.485 Y330.195
X215.609 Y329.819
X215.724 Y329.528
X215.855 Y329.245
X215.979 Y329.011
X216.008 Y328.963
X216.21 Y328.687
X216.455 Y328.45
X216.737 Y328.257
X217.048 Y328.116
X217.378 Y328.029
X217.718 Y328
X219.052
G3 X219.28 Y328.054 I-0.021 J0.6
X219.628 Y328.544 I-0.249 J0.546
G1 X220.826 Y341.344
G3 X220.478 Y341.946 I-0.597 J0.056
X220.25 Y342 I-0.249 J-0.546
G1 X218.931
X218.781 Y341.992
X218.632 Y341.974
X218.485 Y341.946
X218.338 Y341.909
X218.175 Y341.857
X218.004 Y341.792
X217.819 Y341.71
X217.623 Y341.609
X217.417 Y341.488
X217.193 Y341.339
X216.971 Y341.173
X216.728 Y340.968
X216.486 Y340.74
X216.233 Y340.472
X215.964 Y340.155
X215.709 Y339.816
X215.445 Y339.421
X215.177 Y338.967
X214.926 Y338.481
X214.688 Y337.948
X214.462 Y337.353
X214.256 Y336.704
X214.078 Y336.014
X213.937 Y335.294
X213.834 Y334.561
X213.774 Y333.829
X213.756 Y333.117
X213.776 Y332.433
X213.832 Y331.792
X213.917 Y331.202
X214.021 Y330.691
X214.14 Y330.235
X214.256 Y329.874
X214.379 Y329.557
X214.501 Y329.286
X214.632 Y329.036
X214.667 Y328.976
X214.868 Y328.697
X215.114 Y328.456
X215.397 Y328.261
X215.71 Y328.117
X216.043 Y328.03
X216.385 Y328
X217.718
G3 X217.946 Y328.054 I-0.021 J0.6
X218.295 Y328.543 I-0.249 J0.546
G1 X219.507 Y341.344
G3 X219.159 Y341.946 I-0.597 J0.057
X218.931 Y342 I-0.249 J-0.546
G1 X217.632
X217.475 Y341.992
X217.326 Y341.976
X217.178 Y341.95
X217.032 Y341.914
X216.873 Y341.866
X216.703 Y341.804
X216.52 Y341.725
X216.324 Y341.627
X216.123 Y341.511
X215.901 Y341.367
X215.682 Y341.206
X215.439 Y341.006
X215.197 Y340.783
X214.946 Y340.523
X214.68 Y340.215
X214.427 Y339.886
X214.164 Y339.502
X213.895 Y339.056
X213.643 Y338.581
X213.401 Y338.054
X213.169 Y337.464
X212.957 Y336.82
X212.773 Y336.136
X212.625 Y335.425
X212.516 Y334.7
X212.448 Y333.969
X212.422 Y333.25
X212.436 Y332.562
X212.485 Y331.911
X212.565 Y331.311
X212.666 Y330.783
X212.783 Y330.314
X212.898 Y329.946
X213.023 Y329.61
X213.142 Y329.34
X213.275 Y329.078
X213.324 Y328.995
X213.524 Y328.71
X213.771 Y328.465
X214.056 Y328.266
X214.371 Y328.12
X214.707 Y328.03
X215.053 Y328
X216.385
G3 X216.613 Y328.054 I-0.021 J0.6
X216.962 Y328.541 I-0.249 J0.546
G1 X218.208 Y341.342
G3 X217.86 Y341.946 I-0.597 J0.058
X217.632 Y342 I-0.249 J-0.546
G1 X216.313
X216.143 Y341.992
X215.994 Y341.976
X215.847 Y341.949
X215.696 Y341.913
X215.541 Y341.866
X215.366 Y341.801
X215.188 Y341.725
X214.989 Y341.625
X214.791 Y341.511
X214.571 Y341.368
X214.347 Y341.204
X214.111 Y341.009
X213.86 Y340.777
X213.615 Y340.525
X213.353 Y340.222
X213.089 Y339.878
X212.832 Y339.503
X212.567 Y339.063
X212.303 Y338.566
X212.064 Y338.044
X211.835 Y337.463
X211.625 Y336.826
X211.443 Y336.145
X211.294 Y335.432
X211.185 Y334.704
X211.117 Y333.973
X211.09 Y333.253
X211.104 Y332.559
X211.154 Y331.902
X211.234 Y331.305
X211.333 Y330.786
X211.45 Y330.316
X211.567 Y329.942
X211.69 Y329.613
X211.811 Y329.338
X211.942 Y329.08
X211.991 Y328.995
X212.192 Y328.71
X212.438 Y328.465
X212.723 Y328.266
X213.038 Y328.12
X213.374 Y328.03
X213.72 Y328
X215.053
G3 X215.281 Y328.054 I-0.021 J0.6
X215.629 Y328.541 I-0.249 J0.546
G1 X216.889 Y341.342
G3 X216.541 Y341.946 I-0.597 J0.059
X216.313 Y342 I-0.249 J-0.546
G1 X214.953
X214.803 Y341.992
X214.654 Y341.976
X214.507 Y341.949
X214.355 Y341.911
X214.2 Y341.864
X214.024 Y341.798
X213.846 Y341.721
X213.645 Y341.62
X213.445 Y341.504
X213.226 Y341.36
X213 Y341.193
X212.765 Y340.998
X212.512 Y340.762
X212.266 Y340.506
X212.004 Y340.201
X211.737 Y339.851
X211.481 Y339.475
X211.218 Y339.036
X210.955 Y338.535
X210.715 Y338.007
X210.489 Y337.427
X210.281 Y336.789
X210.101 Y336.107
X209.955 Y335.393
X209.848 Y334.662
X209.782 Y333.927
X209.758 Y333.205
X209.774 Y332.513
X209.827 Y331.858
X209.907 Y331.269
X210.008 Y330.753
X210.126 Y330.29
X210.243 Y329.916
X210.364 Y329.596
X210.487 Y329.318
X210.617 Y329.066
X210.662 Y328.988
X210.863 Y328.706
X211.109 Y328.462
X211.393 Y328.265
X211.708 Y328.119
X212.042 Y328.03
X212.388 Y328
X213.72
G3 X213.948 Y328.054 I-0.021 J0.6
X214.297 Y328.542 I-0.249 J0.546
G1 X215.529 Y341.343
G3 X215.181 Y341.946 I-0.597 J0.058
X214.953 Y342 I-0.249 J-0.546
G1 X213.604
X213.455 Y341.992
X213.306 Y341.975
X213.158 Y341.947
X213.005 Y341.908
X212.849 Y341.858
X212.671 Y341.791
X212.492 Y341.712
X212.289 Y341.608
X212.088 Y341.489
X211.867 Y341.342
X211.64 Y341.172
X211.404 Y340.974
X211.149 Y340.733
X210.902 Y340.473
X210.64 Y340.163
X210.372 Y339.807
X210.117 Y339.427
X209.855 Y338.983
X209.594 Y338.477
X209.354 Y337.94
X209.131 Y337.356
X208.927 Y336.715
X208.751 Y336.028
X208.609 Y335.31
X208.506 Y334.576
X208.445 Y333.84
X208.426 Y333.119
X208.447 Y332.43
X208.503 Y331.779
X208.586 Y331.206
X208.689 Y330.693
X208.807 Y330.242
X208.927 Y329.87
X209.045 Y329.563
X209.171 Y329.284
X209.299 Y329.039
X209.336 Y328.977
X209.537 Y328.697
X209.783 Y328.456
X210.066 Y328.261
X210.379 Y328.118
X210.712 Y328.03
X211.055 Y328
X212.388
G3 X212.615 Y328.054 I-0.021 J0.6
X212.964 Y328.543 I-0.249 J0.546
G1 X214.181 Y341.344
G3 X213.832 Y341.946 I-0.597 J0.057
X213.604 Y342 I-0.249 J-0.546
G1 X212.285
X212.136 Y341.992
X211.987 Y341.976
X211.839 Y341.949
X211.692 Y341.912
X211.532 Y341.863
X211.361 Y341.8
X211.179 Y341.72
X210.981 Y341.621
X210.779 Y341.504
X210.556 Y341.357
X210.336 Y341.195
X210.096 Y340.995
X209.851 Y340.768
X209.6 Y340.507
X209.333 Y340.195
X209.077 Y339.86
X208.816 Y339.476
X208.549 Y339.03
X208.294 Y338.544
X208.055 Y338.02
X207.826 Y337.431
X207.617 Y336.788
X207.435 Y336.102
X207.289 Y335.386
X207.182 Y334.655
X207.116 Y333.921
X207.092 Y333.205
X207.108 Y332.517
X207.16 Y331.868
X207.242 Y331.27
X207.343 Y330.752
X207.461 Y330.287
X207.576 Y329.92
X207.7 Y329.593
X207.821 Y329.321
X207.952 Y329.064
X207.997 Y328.988
X208.197 Y328.706
X208.443 Y328.462
X208.728 Y328.265
X209.042 Y328.119
X209.377 Y328.03
X209.722 Y328
X211.055
G3 X211.283 Y328.054 I-0.021 J0.6
X211.631 Y328.542 I-0.249 J0.546
G1 X212.862 Y341.343
G3 X212.513 Y341.946 I-0.597 J0.057
X212.285 Y342 I-0.249 J-0.546
G1 X210.987
X210.811 Y341.991
X210.662 Y341.975
X210.514 Y341.949
X210.366 Y341.913
X210.209 Y341.865
X210.035 Y341.801
X209.857 Y341.724
X209.657 Y341.624
X209.459 Y341.511
X209.237 Y341.366
X209.016 Y341.204
X208.778 Y341.008
X208.53 Y340.778
X208.283 Y340.523
X208.02 Y340.218
X207.759 Y339.88
X207.501 Y339.502
X207.235 Y339.061
X206.974 Y338.569
X206.735 Y338.049
X206.506 Y337.465
X206.295 Y336.825
X206.112 Y336.141
X205.963 Y335.428
X205.854 Y334.7
X205.786 Y333.968
X205.76 Y333.249
X205.774 Y332.557
X205.824 Y331.902
X205.904 Y331.303
X206.003 Y330.783
X206.121 Y330.313
X206.236 Y329.941
X206.36 Y329.611
X206.48 Y329.337
X206.612 Y329.078
X206.661 Y328.994
X206.861 Y328.71
X207.107 Y328.465
X207.393 Y328.266
X207.708 Y328.12
X208.043 Y328.03
X208.39 Y328
X209.722
G3 X209.95 Y328.054 I-0.021 J0.6
X210.298 Y328.541 I-0.249 J0.546
G1 X211.563 Y341.341
G3 X211.215 Y341.946 I-0.597 J0.059
X210.987 Y342 I-0.249 J-0.546
G1 X209.668
X209.479 Y341.991
X209.33 Y341.975
X209.183 Y341.948
X209.032 Y341.912
X208.878 Y341.865
X208.703 Y341.801
X208.526 Y341.724
X208.326 Y341.624
X208.127 Y341.511
X207.908 Y341.368
X207.685 Y341.204
X207.449 Y341.01
X207.197 Y340.778
X206.952 Y340.524
X206.69 Y340.221
X206.426 Y339.878
X206.169 Y339.503
X205.904 Y339.065
X205.641 Y338.568
X205.402 Y338.048
X205.174 Y337.467
X204.964 Y336.83
X204.781 Y336.149
X204.632 Y335.436
X204.522 Y334.706
X204.454 Y333.973
X204.428 Y333.252
X204.441 Y332.56
X204.491 Y331.903
X204.571 Y331.305
X204.67 Y330.786
X204.787 Y330.316
X204.904 Y329.942
X205.026 Y329.613
X205.147 Y329.338
X205.278 Y329.08
X205.328 Y328.995
X205.528 Y328.711
X205.775 Y328.465
X206.06 Y328.266
X206.375 Y328.12
X206.711 Y328.03
X207.057 Y328
X208.39
G3 X208.618 Y328.054 I-0.021 J0.6
X208.966 Y328.54 I-0.249 J0.546
G1 X210.244 Y341.341
G3 X209.896 Y341.946 I-0.597 J0.06
X209.668 Y342 I-0.249 J-0.546
G1 X208.258
X208.108 Y341.992
X207.959 Y341.973
X207.812 Y341.944
X207.657 Y341.903
X207.499 Y341.853
X207.32 Y341.783
X207.138 Y341.701
X206.937 Y341.596
X206.73 Y341.473
X206.512 Y341.326
X206.278 Y341.147
X206.045 Y340.949
X205.789 Y340.704
X205.538 Y340.436
X205.281 Y340.127
X205.01 Y339.763
X204.752 Y339.371
X204.495 Y338.928
X204.238 Y338.421
X203.99 Y337.857
X203.771 Y337.269
X203.572 Y336.63
X203.401 Y335.943
X203.264 Y335.224
X203.166 Y334.489
X203.11 Y333.752
X203.096 Y333.029
X203.122 Y332.34
X203.181 Y331.706
X203.266 Y331.144
X203.374 Y330.63
X203.489 Y330.2
X203.613 Y329.825
X203.728 Y329.532
X203.858 Y329.249
X203.983 Y329.014
X204.013 Y328.965
X204.214 Y328.689
X204.459 Y328.451
X204.742 Y328.258
X205.053 Y328.116
X205.383 Y328.029
X205.724 Y328
X207.057
G3 X207.285 Y328.054 I-0.021 J0.6
X207.634 Y328.544 I-0.249 J0.546
G1 X208.834 Y341.344
G3 X208.486 Y341.946 I-0.597 J0.056
X208.258 Y342 I-0.249 J-0.546
G1 X206.959
X206.809 Y341.992
X206.66 Y341.976
X206.513 Y341.949
X206.367 Y341.914
X206.204 Y341.864
X206.037 Y341.802
X205.852 Y341.722
X205.66 Y341.625
X205.454 Y341.507
X205.234 Y341.363
X205.012 Y341.2
X204.769 Y340.999
X204.531 Y340.778
X204.277 Y340.514
X204.012 Y340.206
X203.756 Y339.873
X203.49 Y339.482
X203.221 Y339.036
X202.974 Y338.567
X202.731 Y338.036
X202.5 Y337.444
X202.289 Y336.799
X202.107 Y336.116
X201.962 Y335.41
X201.854 Y334.683
X201.786 Y333.943
X201.761 Y333.219
X201.776 Y332.533
X201.826 Y331.891
X201.907 Y331.294
X202.009 Y330.764
X202.127 Y330.298
X202.241 Y329.934
X202.367 Y329.599
X202.485 Y329.331
X202.618 Y329.07
X202.664 Y328.991
X202.865 Y328.708
X203.111 Y328.464
X203.396 Y328.265
X203.711 Y328.119
X204.046 Y328.03
X204.391 Y328
X205.724
G3 X205.952 Y328.054 I-0.021 J0.6
X206.3 Y328.542 I-0.249 J0.546
G1 X207.535 Y341.343
G3 X207.187 Y341.946 I-0.597 J0.058
X206.959 Y342 I-0.249 J-0.546
G1 X205.64
X205.482 Y341.992
X205.333 Y341.976
X205.185 Y341.95
X205.035 Y341.913
X204.88 Y341.866
X204.705 Y341.802
X204.527 Y341.725
X204.328 Y341.625
X204.129 Y341.511
X203.907 Y341.367
X203.685 Y341.204
X203.447 Y341.007
X203.197 Y340.776
X202.952 Y340.523
X202.69 Y340.219
X202.427 Y339.878
X202.17 Y339.501
X201.903 Y339.06
X201.641 Y338.565
X201.402 Y338.044
X201.174 Y337.463
X200.964 Y336.826
X200.781 Y336.143
X200.632 Y335.428
X200.523 Y334.698
X200.455 Y333.968
X200.429 Y333.249
X200.443 Y332.556
X200.493 Y331.9
X200.573 Y331.302
X200.672 Y330.783
X200.79 Y330.313
X200.906 Y329.94
X201.029 Y329.611
X201.15 Y329.337
X201.281 Y329.078
X201.33 Y328.994
X201.53 Y328.71
X201.777 Y328.465
X202.062 Y328.266
X202.377 Y328.12
X202.713 Y328.03
X203.059 Y328
X204.391
G3 X204.619 Y328.054 I-0.021 J0.6
X204.968 Y328.541 I-0.249 J0.546
G1 X206.216 Y341.342
G3 X205.868 Y341.946 I-0.597 J0.058
X205.64 Y342 I-0.249 J-0.546
G1 X204.341
X204.149 Y341.99
X203.999 Y341.974
X203.852 Y341.948
X203.702 Y341.912
X203.547 Y341.865
X203.372 Y341.801
X203.195 Y341.724
X202.995 Y341.624
X202.797 Y341.511
X202.577 Y341.368
X202.354 Y341.204
X202.118 Y341.01
X201.867 Y340.778
X201.621 Y340.524
X201.358 Y340.22
X201.094 Y339.877
X200.838 Y339.503
X200.573 Y339.065
X200.31 Y338.569
X200.072 Y338.049
X199.843 Y337.468
X199.633 Y336.831
X199.45 Y336.149
X199.302 Y335.437
X199.192 Y334.708
X199.123 Y333.974
X199.097 Y333.253
X199.11 Y332.561
X199.16 Y331.904
X199.24 Y331.306
X199.339 Y330.787
X199.456 Y330.317
X199.572 Y329.943
X199.695 Y329.614
X199.816 Y329.339
X199.947 Y329.08
X199.997 Y328.995
X200.197 Y328.711
X200.444 Y328.465
X200.729 Y328.266
X201.044 Y328.12
X201.38 Y328.03
X201.726 Y328
X203.059
G3 X203.287 Y328.054 I-0.021 J0.6
X203.635 Y328.54 I-0.249 J0.546
G1 X204.917 Y341.341
G3 X204.569 Y341.946 I-0.597 J0.06
X204.341 Y342 I-0.249 J-0.546
G1 X202.932
X202.782 Y341.992
X202.633 Y341.973
X202.486 Y341.945
X202.331 Y341.904
X202.173 Y341.854
X201.994 Y341.785
X201.813 Y341.704
X201.612 Y341.599
X201.406 Y341.477
X201.188 Y341.33
X200.954 Y341.153
X200.721 Y340.955
X200.466 Y340.711
X200.216 Y340.445
X199.958 Y340.137
X199.687 Y339.774
X199.43 Y339.385
X199.172 Y338.943
X198.914 Y338.436
X198.666 Y337.875
X198.447 Y337.291
X198.247 Y336.652
X198.075 Y335.965
X197.937 Y335.247
X197.838 Y334.512
X197.781 Y333.775
X197.765 Y333.052
X197.79 Y332.362
X197.848 Y331.723
X197.932 Y331.161
X198.039 Y330.646
X198.155 Y330.211
X198.278 Y329.836
X198.394 Y329.54
X198.523 Y329.258
X198.648 Y329.021
X198.68 Y328.968
X198.881 Y328.691
X199.127 Y328.452
X199.409 Y328.259
X199.721 Y328.116
X200.052 Y328.029
X200.393 Y328
X201.726
G3 X201.954 Y328.054 I-0.021 J0.6
X202.303 Y328.543 I-0.249 J0.546
G1 X203.508 Y341.344
G3 X203.16 Y341.946 I-0.597 J0.056
X202.932 Y342 I-0.249 J-0.546
G1 X201.613
X201.463 Y341.992
X201.314 Y341.975
X201.167 Y341.947
X201.02 Y341.91
X200.858 Y341.859
X200.687 Y341.795
X200.503 Y341.714
X200.306 Y341.613
X200.101 Y341.494
X199.878 Y341.346
X199.657 Y341.181
X199.415 Y340.978
X199.172 Y340.75
X198.919 Y340.485
X198.651 Y340.169
X198.395 Y339.832
X198.132 Y339.441
X197.865 Y338.99
X197.613 Y338.504
X197.374 Y337.975
X197.147 Y337.382
X196.94 Y336.735
X196.761 Y336.046
X196.617 Y335.328
X196.513 Y334.596
X196.451 Y333.862
X196.43 Y333.149
X196.449 Y332.464
X196.504 Y331.82
X196.588 Y331.227
X196.69 Y330.713
X196.809 Y330.254
X196.925 Y329.891
X197.048 Y329.57
X197.17 Y329.299
X197.301 Y329.046
X197.34 Y328.981
X197.54 Y328.7
X197.786 Y328.458
X198.07 Y328.262
X198.383 Y328.118
X198.717 Y328.03
X199.06 Y328
X200.393
G3 X200.621 Y328.054 I-0.021 J0.6
X200.97 Y328.543 I-0.249 J0.546
G1 X202.189 Y341.343
G3 X201.841 Y341.946 I-0.597 J0.057
X201.613 Y342 I-0.249 J-0.546
G1 X200.314
X200.15 Y341.992
X200.001 Y341.976
X199.853 Y341.949
X199.706 Y341.914
X199.548 Y341.866
X199.377 Y341.803
X199.195 Y341.724
X198.998 Y341.626
X198.798 Y341.511
X198.575 Y341.366
X198.356 Y341.206
X198.115 Y341.006
X197.871 Y340.781
X197.621 Y340.523
X197.356 Y340.216
X197.1 Y339.884
X196.839 Y339.502
X196.571 Y339.058
X196.316 Y338.576
X196.075 Y338.052
X195.844 Y337.464
X195.632 Y336.822
X195.449 Y336.137
X195.301 Y335.425
X195.191 Y334.698
X195.123 Y333.968
X195.097 Y333.25
X195.111 Y332.561
X195.161 Y331.908
X195.241 Y331.308
X195.341 Y330.783
X195.459 Y330.314
X195.573 Y329.944
X195.698 Y329.61
X195.818 Y329.339
X195.95 Y329.078
X195.999 Y328.994
X196.199 Y328.71
X196.446 Y328.465
X196.731 Y328.266
X197.046 Y328.12
X197.382 Y328.03
X197.728 Y328
X199.06
G3 X199.288 Y328.054 I-0.021 J0.6
X199.637 Y328.541 I-0.249 J0.546
G1 X200.89 Y341.342
G3 X200.542 Y341.946 I-0.597 J0.058
X200.314 Y342 I-0.249 J-0.546
G1 X198.995
X198.818 Y341.991
X198.669 Y341.975
X198.522 Y341.949
X198.371 Y341.912
X198.216 Y341.865
X198.041 Y341.801
X197.864 Y341.725
X197.664 Y341.625
X197.466 Y341.511
X197.246 Y341.368
X197.023 Y341.204
X196.786 Y341.009
X196.535 Y340.777
X196.29 Y340.524
X196.028 Y340.221
X195.764 Y339.878
X195.508 Y339.503
X195.242 Y339.064
X194.979 Y338.567
X194.739 Y338.046
X194.511 Y337.464
X194.301 Y336.827
X194.118 Y336.145
X193.97 Y335.433
X193.86 Y334.705
X193.792 Y333.973
X193.765 Y333.252
X193.779 Y332.559
X193.829 Y331.902
X193.909 Y331.305
X194.008 Y330.786
X194.125 Y330.316
X194.242 Y329.942
X194.365 Y329.613
X194.486 Y329.338
X194.617 Y329.08
X194.666 Y328.995
X194.866 Y328.71
X195.113 Y328.465
X195.398 Y328.266
X195.713 Y328.12
X196.049 Y328.03
X196.395 Y328
X197.728
G3 X197.956 Y328.054 I-0.021 J0.6
X198.304 Y328.541 I-0.249 J0.546
G1 X199.571 Y341.341
G3 X199.223 Y341.946 I-0.597 J0.059
X198.995 Y342 I-0.249 J-0.546
G1 X197.635
X197.485 Y341.992
X197.336 Y341.976
X197.188 Y341.95
X197.038 Y341.913
X196.883 Y341.866
X196.707 Y341.801
X196.53 Y341.725
X196.33 Y341.624
X196.131 Y341.51
X195.911 Y341.367
X195.687 Y341.202
X195.452 Y341.008
X195.199 Y340.775
X194.953 Y340.52
X194.691 Y340.216
X194.426 Y339.871
X194.17 Y339.495
X193.905 Y339.057
X193.642 Y338.559
X193.403 Y338.037
X193.175 Y337.457
X192.966 Y336.82
X192.784 Y336.138
X192.636 Y335.425
X192.527 Y334.695
X192.459 Y333.961
X192.433 Y333.239
X192.447 Y332.547
X192.498 Y331.891
X192.578 Y331.296
X192.677 Y330.777
X192.795 Y330.309
X192.912 Y329.935
X193.034 Y329.609
X193.155 Y329.333
X193.286 Y329.076
X193.335 Y328.993
X193.535 Y328.709
X193.781 Y328.465
X194.066 Y328.266
X194.381 Y328.12
X194.717 Y328.03
X195.063 Y328
X196.395
G3 X196.623 Y328.054 I-0.021 J0.6
X196.971 Y328.542 I-0.249 J0.546
G1 X198.211 Y341.343
G3 X197.863 Y341.946 I-0.597 J0.058
X197.635 Y342 I-0.249 J-0.546
G1 X196.286
X196.137 Y341.992
X195.988 Y341.975
X195.84 Y341.948
X195.687 Y341.909
X195.531 Y341.86
X195.354 Y341.794
X195.176 Y341.715
X194.974 Y341.612
X194.772 Y341.495
X194.553 Y341.35
X194.325 Y341.18
X194.09 Y340.983
X193.835 Y340.744
X193.589 Y340.486
X193.328 Y340.179
X193.059 Y339.824
X192.805 Y339.446
X192.543 Y339.005
X192.281 Y338.501
X192.039 Y337.964
X191.816 Y337.383
X191.611 Y336.744
X191.433 Y336.059
X191.289 Y335.343
X191.185 Y334.61
X191.122 Y333.874
X191.101 Y333.152
X191.12 Y332.461
X191.175 Y331.808
X191.256 Y331.231
X191.359 Y330.716
X191.477 Y330.261
X191.596 Y329.887
X191.715 Y329.576
X191.84 Y329.297
X191.968 Y329.05
X192.009 Y328.981
X192.21 Y328.701
X192.455 Y328.459
X192.739 Y328.263
X193.053 Y328.118
X193.386 Y328.03
X193.73 Y328
X195.063
G3 X195.291 Y328.054 I-0.021 J0.6
X195.639 Y328.543 I-0.249 J0.546
G1 X196.863 Y341.343
G3 X196.514 Y341.946 I-0.597 J0.057
X196.286 Y342 I-0.249 J-0.546
G1 X194.967
X194.818 Y341.992
X194.668 Y341.976
X194.521 Y341.95
X194.374 Y341.914
X194.215 Y341.865
X194.043 Y341.802
X193.863 Y341.724
X193.665 Y341.625
X193.464 Y341.509
X193.241 Y341.364
X193.022 Y341.203
X192.782 Y341.005
X192.537 Y340.778
X192.287 Y340.519
X192.02 Y340.209
X191.764 Y339.875
X191.503 Y339.494
X191.236 Y339.051
X190.98 Y338.565
X190.741 Y338.044
X190.511 Y337.458
X190.3 Y336.817
X190.118 Y336.132
X189.97 Y335.418
X189.861 Y334.687
X189.793 Y333.953
X189.767 Y333.236
X189.782 Y332.547
X189.832 Y331.896
X189.913 Y331.295
X190.013 Y330.774
X190.13 Y330.306
X190.246 Y329.937
X190.37 Y329.606
X190.49 Y329.334
X190.622 Y329.075
X190.67 Y328.993
X190.87 Y328.709
X191.116 Y328.464
X191.401 Y328.266
X191.716 Y328.12
X192.052 Y328.03
X192.397 Y328
X193.73
G3 X193.958 Y328.054 I-0.021 J0.6
X194.306 Y328.542 I-0.249 J0.546
G1 X195.544 Y341.343
G3 X195.195 Y341.946 I-0.597 J0.058
X194.967 Y342 I-0.249 J-0.546
G1 X193.668
X193.487 Y341.991
X193.338 Y341.975
X193.19 Y341.949
X193.04 Y341.912
X192.885 Y341.865
X192.71 Y341.801
X192.532 Y341.724
X192.333 Y341.624
X192.134 Y341.51
X191.914 Y341.367
X191.691 Y341.204
X191.454 Y341.008
X191.204 Y340.777
X190.958 Y340.523
X190.696 Y340.22
X190.433 Y339.878
X190.176 Y339.502
X189.911 Y339.064
X189.649 Y338.568
X189.41 Y338.048
X189.181 Y337.466
X188.971 Y336.827
X188.788 Y336.145
X188.639 Y335.431
X188.53 Y334.702
X188.462 Y333.97
X188.435 Y333.249
X188.449 Y332.557
X188.499 Y331.901
X188.579 Y331.303
X188.678 Y330.784
X188.796 Y330.314
X188.912 Y329.941
X189.035 Y329.612
X189.156 Y329.337
X189.287 Y329.079
X189.336 Y328.994
X189.536 Y328.71
X189.783 Y328.465
X190.068 Y328.266
X190.383 Y328.12
X190.719 Y328.03
X191.065 Y328
X192.397
G3 X192.625 Y328.054 I-0.021 J0.6
X192.974 Y328.54 I-0.249 J0.546
G1 X194.245 Y341.341
G3 X193.896 Y341.946 I-0.597 J0.059
X193.668 Y342 I-0.249 J-0.546
G1 X192.259
X192.109 Y341.992
X191.96 Y341.973
X191.813 Y341.943
X191.657 Y341.902
X191.499 Y341.85
X191.319 Y341.78
X191.137 Y341.697
X190.936 Y341.592
X190.727 Y341.467
X190.51 Y341.319
X190.274 Y341.138
X190.041 Y340.939
X189.786 Y340.693
X189.533 Y340.422
X189.277 Y340.112
X189.007 Y339.747
X188.747 Y339.35
X188.491 Y338.906
X188.234 Y338.398
X187.987 Y337.83
X187.767 Y337.235
X187.57 Y336.596
X187.401 Y335.909
X187.266 Y335.19
X187.17 Y334.454
X187.116 Y333.717
X187.104 Y332.994
X187.132 Y332.306
X187.192 Y331.68
X187.278 Y331.119
X187.387 Y330.605
X187.502 Y330.183
X187.626 Y329.808
X187.741 Y329.519
X187.872 Y329.236
X187.996 Y329.004
X188.023 Y328.96
X188.224 Y328.685
X188.47 Y328.448
X188.752 Y328.257
X189.062 Y328.115
X189.392 Y328.029
X189.732 Y328
X191.065
G3 X191.293 Y328.054 I-0.021 J0.6
X191.641 Y328.544 I-0.249 J0.546
G1 X192.835 Y341.345
G3 X192.487 Y341.946 I-0.597 J0.056
X192.259 Y342 I-0.249 J-0.546
G1 X190.94
X190.79 Y341.992
X190.641 Y341.974
X190.494 Y341.945
X190.347 Y341.908
X190.183 Y341.856
X190.012 Y341.791
X189.827 Y341.708
X189.63 Y341.606
X189.424 Y341.485
X189.2 Y341.335
X188.978 Y341.168
X188.734 Y340.961
X188.492 Y340.733
X188.238 Y340.464
X187.97 Y340.145
X187.715 Y339.805
X187.45 Y339.407
X187.182 Y338.952
X186.932 Y338.465
X186.695 Y337.93
X186.468 Y337.333
X186.263 Y336.683
X186.087 Y335.991
X185.946 Y335.271
X185.845 Y334.537
X185.786 Y333.805
X185.769 Y333.095
X185.791 Y332.412
X185.848 Y331.773
X185.934 Y331.185
X186.037 Y330.675
X186.157 Y330.223
X186.274 Y329.862
X186.396 Y329.548
X186.518 Y329.278
X186.649 Y329.029
X186.682 Y328.973
X186.883 Y328.695
X187.129 Y328.455
X187.412 Y328.26
X187.724 Y328.117
X188.056 Y328.029
X188.398 Y328
X189.732
G3 X189.959 Y328.054 I-0.021 J0.6
X190.308 Y328.543 I-0.249 J0.546
G1 X191.516 Y341.344
G3 X191.168 Y341.946 I-0.597 J0.056
X190.94 Y342 I-0.249 J-0.546
G1 X189.641
X189.488 Y341.992
X189.339 Y341.976
X189.192 Y341.95
X189.046 Y341.915
X188.885 Y341.866
X188.717 Y341.804
X188.533 Y341.725
X188.338 Y341.627
X188.136 Y341.511
X187.915 Y341.367
X187.695 Y341.206
X187.451 Y341.005
X187.211 Y340.783
X186.959 Y340.522
X186.693 Y340.215
X186.44 Y339.886
X186.177 Y339.5
X185.907 Y339.054
X185.657 Y338.582
X185.414 Y338.053
X185.181 Y337.461
X184.969 Y336.817
X184.786 Y336.132
X184.638 Y335.424
X184.529 Y334.699
X184.461 Y333.968
X184.435 Y333.247
X184.449 Y332.56
X184.499 Y331.91
X184.578 Y331.311
X184.68 Y330.781
X184.797 Y330.312
X184.911 Y329.945
X185.037 Y329.609
X185.155 Y329.34
X185.289 Y329.078
X185.337 Y328.994
X185.537 Y328.71
X185.784 Y328.465
X186.069 Y328.266
X186.384 Y328.12
X186.72 Y328.03
X187.066 Y328
X188.398
G3 X188.626 Y328.054 I-0.021 J0.6
X188.975 Y328.542 I-0.249 J0.546
G1 X190.217 Y341.342
G3 X189.869 Y341.946 I-0.597 J0.058
X189.641 Y342 I-0.249 J-0.546
G1 X188.322
X188.157 Y341.992
X188.008 Y341.976
X187.86 Y341.95
X187.71 Y341.913
X187.555 Y341.866
X187.38 Y341.802
X187.202 Y341.725
X187.003 Y341.625
X186.804 Y341.511
X186.584 Y341.368
X186.361 Y341.204
X186.124 Y341.009
X185.873 Y340.777
X185.629 Y340.525
X185.367 Y340.222
X185.103 Y339.878
X184.846 Y339.503
X184.58 Y339.062
X184.316 Y338.565
X184.076 Y338.043
X183.848 Y337.462
X183.638 Y336.825
X183.456 Y336.144
X183.307 Y335.431
X183.198 Y334.703
X183.13 Y333.972
X183.103 Y333.252
X183.117 Y332.558
X183.167 Y331.901
X183.247 Y331.304
X183.346 Y330.785
X183.464 Y330.315
X183.58 Y329.941
X183.703 Y329.613
X183.824 Y329.337
X183.955 Y329.079
X184.005 Y328.994
X184.205 Y328.71
X184.451 Y328.465
X184.736 Y328.266
X185.051 Y328.12
X185.387 Y328.03
X185.733 Y328
X187.066
G3 X187.294 Y328.054 I-0.021 J0.6
X187.642 Y328.541 I-0.249 J0.546
G1 X188.898 Y341.342
G3 X188.55 Y341.946 I-0.597 J0.059
X188.322 Y342 I-0.249 J-0.546
G1 X187.023
X186.823 Y341.99
X186.674 Y341.974
X186.526 Y341.948
X186.376 Y341.911
X186.222 Y341.864
X186.047 Y341.8
X185.87 Y341.724
X185.67 Y341.624
X185.472 Y341.51
X185.252 Y341.367
X185.029 Y341.204
X184.793 Y341.01
X184.542 Y340.778
X184.296 Y340.523
X184.033 Y340.219
X183.769 Y339.876
X183.512 Y339.501
X183.247 Y339.063
X182.984 Y338.567
X182.745 Y338.047
X182.517 Y337.467
X182.307 Y336.831
X182.125 Y336.15
X181.976 Y335.437
X181.866 Y334.708
X181.798 Y333.974
X181.771 Y333.252
X181.785 Y332.561
X181.835 Y331.904
X181.914 Y331.306
X182.013 Y330.787
X182.131 Y330.317
X182.247 Y329.943
X182.37 Y329.614
X182.491 Y329.339
X182.622 Y329.08
X182.672 Y328.995
X182.872 Y328.711
X183.118 Y328.465
X183.403 Y328.266
X183.719 Y328.12
X184.054 Y328.03
X184.401 Y328
X185.733
G3 X185.961 Y328.054 I-0.021 J0.6
X186.309 Y328.539 I-0.249 J0.546
G1 X187.599 Y341.34
G3 X187.251 Y341.946 I-0.597 J0.06
X187.023 Y342 I-0.249 J-0.546
G1 X185.614
X185.464 Y341.992
X185.315 Y341.974
X185.168 Y341.946
X185.013 Y341.906
X184.856 Y341.856
X184.677 Y341.788
X184.498 Y341.708
X184.296 Y341.604
X184.092 Y341.483
X183.873 Y341.337
X183.641 Y341.162
X183.408 Y340.965
X183.152 Y340.722
X182.903 Y340.459
X182.644 Y340.151
X182.374 Y339.79
X182.118 Y339.406
X181.859 Y338.965
X181.6 Y338.46
X181.353 Y337.905
X181.133 Y337.324
X180.932 Y336.685
X180.757 Y335.999
X180.617 Y335.281
X180.516 Y334.547
X180.457 Y333.811
X180.44 Y333.088
X180.462 Y332.398
X180.52 Y331.752
X180.602 Y331.186
X180.707 Y330.671
X180.824 Y330.229
X180.946 Y329.854
X181.063 Y329.553
X181.191 Y329.272
X181.317 Y329.031
X181.352 Y328.973
X181.553 Y328.694
X181.799 Y328.454
X182.082 Y328.26
X182.394 Y328.117
X182.726 Y328.029
X183.068 Y328
X184.401
G3 X184.629 Y328.054 I-0.021 J0.6
X184.977 Y328.543 I-0.249 J0.546
G1 X186.19 Y341.344
G3 X185.841 Y341.946 I-0.597 J0.057
X185.614 Y342 I-0.249 J-0.546
G1 X184.295
X184.145 Y341.992
X183.996 Y341.975
X183.848 Y341.948
X183.701 Y341.911
X183.541 Y341.862
X183.369 Y341.798
X183.187 Y341.718
X182.99 Y341.618
X182.786 Y341.5
X182.562 Y341.353
X182.343 Y341.189
X182.101 Y340.988
X181.858 Y340.761
X181.606 Y340.498
X181.338 Y340.184
X181.082 Y339.848
X180.82 Y339.46
X180.552 Y339.012
X180.299 Y338.528
X180.06 Y338.001
X179.832 Y337.41
X179.623 Y336.766
X179.443 Y336.079
X179.298 Y335.362
X179.192 Y334.631
X179.127 Y333.896
X179.105 Y333.182
X179.122 Y332.496
X179.175 Y331.849
X179.258 Y331.253
X179.36 Y330.736
X179.478 Y330.274
X179.593 Y329.909
X179.717 Y329.583
X179.838 Y329.313
X179.97 Y329.057
X180.012 Y328.985
X180.212 Y328.704
X180.458 Y328.461
X180.743 Y328.264
X181.056 Y328.119
X181.391 Y328.03
X181.735 Y328
X183.068
G3 X183.296 Y328.054 I-0.021 J0.6
X183.644 Y328.542 I-0.249 J0.546
G1 X184.871 Y341.343
G3 X184.522 Y341.946 I-0.597 J0.057
X184.295 Y342 I-0.249 J-0.546
G1 X182.996
X182.825 Y341.991
X182.676 Y341.976
X182.528 Y341.949
X182.38 Y341.913
X182.223 Y341.865
X182.05 Y341.802
X181.87 Y341.724
X181.671 Y341.625
X181.472 Y341.511
X181.25 Y341.366
X181.03 Y341.205
X180.79 Y341.007
X180.544 Y340.779
X180.296 Y340.523
X180.031 Y340.216
X179.773 Y339.881
X179.514 Y339.501
X179.247 Y339.059
X178.988 Y338.571
X178.749 Y338.05
X178.518 Y337.464
X178.308 Y336.823
X178.124 Y336.139
X177.976 Y335.426
X177.866 Y334.698
X177.799 Y333.968
X177.772 Y333.249
X177.786 Y332.558
X177.836 Y331.904
X177.916 Y331.304
X178.016 Y330.782
X178.134 Y330.313
X178.249 Y329.942
X178.373 Y329.611
X178.493 Y329.338
X178.625 Y329.078
X178.674 Y328.994
X178.874 Y328.71
X179.12 Y328.465
X179.406 Y328.266
X179.721 Y328.12
X180.056 Y328.03
X180.403 Y328
X181.735
G3 X181.963 Y328.054 I-0.021 J0.6
X182.311 Y328.541 I-0.249 J0.546
G1 X183.572 Y341.342
G3 X183.224 Y341.946 I-0.597 J0.059
X182.996 Y342 I-0.249 J-0.546
G1 X181.677
X181.493 Y341.991
X181.344 Y341.975
X181.196 Y341.949
X181.046 Y341.912
X180.891 Y341.865
X180.716 Y341.801
X180.539 Y341.724
X180.339 Y341.624
X180.141 Y341.511
X179.921 Y341.368
X179.698 Y341.204
X179.462 Y341.01
X179.21 Y340.778
X178.965 Y340.524
X178.703 Y340.221
X178.439 Y339.878
X178.182 Y339.503
X177.917 Y339.064
X177.654 Y338.568
X177.415 Y338.047
X177.186 Y337.466
X176.976 Y336.828
X176.793 Y336.147
X176.645 Y335.435
X176.535 Y334.706
X176.467 Y333.973
X176.44 Y333.252
X176.454 Y332.559
X176.504 Y331.903
X176.584 Y331.305
X176.683 Y330.786
X176.8 Y330.316
X176.916 Y329.942
X177.039 Y329.613
X177.16 Y329.338
X177.291 Y329.08
X177.341 Y328.995
X177.541 Y328.711
X177.788 Y328.465
X178.073 Y328.266
X178.388 Y328.12
X178.724 Y328.03
X179.07 Y328
X180.403
G3 X180.63 Y328.054 I-0.021 J0.6
X180.979 Y328.54 I-0.249 J0.546
G1 X182.253 Y341.341
G3 X181.905 Y341.946 I-0.597 J0.059
X181.677 Y342 I-0.249 J-0.546
G1 X180.267
X180.117 Y341.992
X179.969 Y341.973
X179.821 Y341.944
X179.666 Y341.902
X179.507 Y341.851
X179.328 Y341.781
X179.146 Y341.699
X178.945 Y341.593
X178.737 Y341.469
X178.519 Y341.321
X178.283 Y341.141
X178.051 Y340.942
X177.795 Y340.697
X177.543 Y340.426
X177.286 Y340.117
X177.016 Y339.752
X176.757 Y339.357
X176.5 Y338.914
X176.243 Y338.406
X175.996 Y337.84
X175.776 Y337.247
X175.579 Y336.608
X175.409 Y335.922
X175.273 Y335.203
X175.177 Y334.467
X175.122 Y333.73
X175.109 Y333.007
X175.136 Y332.318
X175.196 Y331.69
X175.282 Y331.128
X175.39 Y330.614
X175.505 Y330.19
X175.629 Y329.815
X175.744 Y329.524
X175.875 Y329.241
X175.999 Y329.008
X176.027 Y328.962
X176.229 Y328.686
X176.474 Y328.449
X176.756 Y328.257
X177.067 Y328.116
X177.397 Y328.029
X177.737 Y328
X179.07
G3 X179.298 Y328.054 I-0.021 J0.6
X179.646 Y328.544 I-0.249 J0.546
G1 X180.844 Y341.345
G3 X180.495 Y341.946 I-0.597 J0.056
X180.267 Y342 I-0.249 J-0.546
G1 X178.968
X178.818 Y341.992
X178.669 Y341.976
X178.522 Y341.949
X178.376 Y341.913
X178.212 Y341.862
X178.045 Y341.801
X177.86 Y341.72
X177.668 Y341.623
X177.461 Y341.503
X177.242 Y341.36
X177.019 Y341.195
X176.775 Y340.993
X176.538 Y340.772
X176.282 Y340.506
X176.018 Y340.198
X175.762 Y339.863
X175.495 Y339.469
X175.227 Y339.022
X174.98 Y338.552
X174.737 Y338.019
X174.506 Y337.426
X174.296 Y336.78
X174.115 Y336.096
X173.971 Y335.39
X173.864 Y334.662
X173.798 Y333.922
X173.774 Y333.199
X173.79 Y332.514
X173.841 Y331.874
X173.922 Y331.278
X174.025 Y330.75
X174.143 Y330.287
X174.257 Y329.924
X174.383 Y329.591
X174.501 Y329.324
X174.635 Y329.064
X174.679 Y328.988
X174.879 Y328.706
X175.125 Y328.462
X175.41 Y328.265
X175.724 Y328.119
X176.059 Y328.03
X176.404 Y328
X177.737
G3 X177.965 Y328.054 I-0.021 J0.6
X178.313 Y328.542 I-0.249 J0.546
G1 X179.544 Y341.343
G3 X179.196 Y341.946 I-0.597 J0.057
X178.968 Y342 I-0.249 J-0.546
G1 X177.649
X177.495 Y341.992
X177.346 Y341.976
X177.198 Y341.95
X177.049 Y341.914
X176.893 Y341.866
X176.719 Y341.802
X176.54 Y341.725
X176.341 Y341.625
X176.142 Y341.512
X175.92 Y341.367
X175.699 Y341.204
X175.459 Y341.007
X175.211 Y340.777
X174.965 Y340.523
X174.702 Y340.218
X174.441 Y339.879
X174.182 Y339.501
X173.915 Y339.058
X173.654 Y338.565
X173.415 Y338.045
X173.186 Y337.462
X172.976 Y336.824
X172.793 Y336.141
X172.645 Y335.426
X172.535 Y334.697
X172.467 Y333.967
X172.441 Y333.249
X172.455 Y332.557
X172.506 Y331.901
X172.585 Y331.303
X172.685 Y330.783
X172.803 Y330.313
X172.918 Y329.941
X173.042 Y329.611
X173.162 Y329.337
X173.294 Y329.078
X173.343 Y328.994
X173.543 Y328.71
X173.789 Y328.465
X174.075 Y328.266
X174.39 Y328.12
X174.725 Y328.03
X175.072 Y328
X176.404
G3 X176.632 Y328.054 I-0.021 J0.6
X176.98 Y328.542 I-0.249 J0.546
G1 X178.225 Y341.342
G3 X177.877 Y341.946 I-0.597 J0.058
X177.649 Y342 I-0.249 J-0.546
G1 X176.35
X176.162 Y341.991
X176.013 Y341.975
X175.865 Y341.948
X175.715 Y341.912
X175.56 Y341.865
X175.385 Y341.801
X175.208 Y341.724
X175.008 Y341.624
X174.81 Y341.511
X174.59 Y341.368
X174.367 Y341.204
X174.131 Y341.01
X173.88 Y340.778
X173.634 Y340.524
X173.371 Y340.22
X173.107 Y339.877
X172.851 Y339.502
X172.586 Y339.064
X172.323 Y338.568
X172.084 Y338.048
X171.855 Y337.467
X171.645 Y336.829
X171.463 Y336.148
X171.314 Y335.436
X171.204 Y334.707
X171.136 Y333.974
X171.109 Y333.252
X171.123 Y332.56
X171.173 Y331.904
X171.252 Y331.306
X171.352 Y330.786
X171.469 Y330.317
X171.585 Y329.943
X171.708 Y329.614
X171.829 Y329.338
X171.96 Y329.08
X172.01 Y328.995
X172.21 Y328.711
X172.456 Y328.465
X172.742 Y328.266
X173.057 Y328.12
X173.393 Y328.03
X173.739 Y328
X175.072
G3 X175.299 Y328.054 I-0.021 J0.6
X175.648 Y328.54 I-0.249 J0.546
G1 X176.926 Y341.341
G3 X176.578 Y341.946 I-0.597 J0.06
X176.35 Y342 I-0.249 J-0.546
G1 X174.941
X174.791 Y341.992
X174.642 Y341.973
X174.495 Y341.944
X174.339 Y341.904
X174.182 Y341.853
X174.002 Y341.783
X173.821 Y341.701
X173.62 Y341.596
X173.413 Y341.473
X173.195 Y341.326
X172.96 Y341.147
X172.728 Y340.949
X172.472 Y340.705
X172.221 Y340.436
X171.963 Y340.128
X171.693 Y339.764
X171.435 Y339.372
X171.178 Y338.93
X170.92 Y338.422
X170.672 Y337.859
X170.453 Y337.271
X170.254 Y336.632
X170.083 Y335.945
X169.946 Y335.227
X169.848 Y334.492
X169.792 Y333.755
X169.778 Y333.032
X169.804 Y332.342
X169.863 Y331.708
X169.947 Y331.146
X170.055 Y330.632
X170.17 Y330.201
X170.294 Y329.826
X170.409 Y329.533
X170.539 Y329.25
X170.664 Y329.015
X170.694 Y328.965
X170.896 Y328.689
X171.141 Y328.451
X171.423 Y328.258
X171.734 Y328.116
X172.065 Y328.029
X172.406 Y328
X173.739
G3 X173.967 Y328.054 I-0.021 J0.6
X174.315 Y328.544 I-0.249 J0.546
G1 X175.517 Y341.344
G3 X175.169 Y341.946 I-0.597 J0.056
X174.941 Y342 I-0.249 J-0.546
G1 X173.622
X173.472 Y341.992
X173.323 Y341.975
X173.176 Y341.946
X173.029 Y341.909
X172.866 Y341.858
X172.695 Y341.794
X172.511 Y341.712
X172.314 Y341.611
X172.109 Y341.491
X171.885 Y341.342
X171.664 Y341.177
X171.421 Y340.972
X171.178 Y340.744
X170.926 Y340.478
X170.657 Y340.161
X170.401 Y339.823
X170.138 Y339.429
X169.87 Y338.977
X169.619 Y338.491
X169.381 Y337.96
X169.154 Y337.365
X168.947 Y336.717
X168.769 Y336.027
X168.627 Y335.309
X168.524 Y334.576
X168.462 Y333.843
X168.443 Y333.131
X168.463 Y332.446
X168.518 Y331.805
X168.603 Y331.213
X168.706 Y330.7
X168.825 Y330.244
X168.941 Y329.881
X169.064 Y329.563
X169.186 Y329.292
X169.317 Y329.04
X169.354 Y328.978
X169.554 Y328.698
X169.8 Y328.457
X170.084 Y328.262
X170.397 Y328.118
X170.73 Y328.03
X171.073 Y328
X172.406
G3 X172.634 Y328.054 I-0.021 J0.6
X172.982 Y328.543 I-0.249 J0.546
G1 X174.198 Y341.344
G3 X173.85 Y341.946 I-0.597 J0.057
X173.622 Y342 I-0.249 J-0.546
G1 X172.323
X172.163 Y341.992
X172.013 Y341.976
X171.866 Y341.95
X171.72 Y341.914
X171.561 Y341.866
X171.391 Y341.803
X171.208 Y341.725
X171.012 Y341.626
X170.811 Y341.511
X170.589 Y341.367
X170.37 Y341.206
X170.127 Y341.006
X169.885 Y340.782
X169.634 Y340.523
X169.368 Y340.216
X169.114 Y339.885
X168.852 Y339.502
X168.583 Y339.058
X168.33 Y338.58
X168.088 Y338.054
X167.857 Y337.465
X167.645 Y336.822
X167.461 Y336.137
X167.313 Y335.426
X167.204 Y334.7
X167.136 Y333.97
X167.11 Y333.251
X167.123 Y332.563
X167.173 Y331.911
X167.253 Y331.311
X167.354 Y330.783
X167.471 Y330.314
X167.585 Y329.946
X167.711 Y329.611
X167.829 Y329.34
X167.962 Y329.079
X168.011 Y328.995
X168.212 Y328.71
X168.458 Y328.465
X168.743 Y328.266
X169.058 Y328.12
X169.394 Y328.03
X169.74 Y328
X171.073
G3 X171.301 Y328.054 I-0.021 J0.6
X171.649 Y328.541 I-0.249 J0.546
G1 X172.899 Y341.342
G3 X172.551 Y341.946 I-0.597 J0.058
X172.323 Y342 I-0.249 J-0.546
G1 X171.004
X170.831 Y341.991
X170.682 Y341.975
X170.534 Y341.949
X170.384 Y341.913
X170.229 Y341.866
X170.054 Y341.801
X169.876 Y341.725
X169.677 Y341.625
X169.478 Y341.511
X169.259 Y341.368
X169.035 Y341.204
X168.799 Y341.009
X168.547 Y340.777
X168.303 Y340.525
X168.041 Y340.222
X167.777 Y339.878
X167.52 Y339.503
X167.255 Y339.063
X166.991 Y338.566
X166.751 Y338.045
X166.523 Y337.463
X166.313 Y336.826
X166.13 Y336.145
X165.982 Y335.432
X165.872 Y334.704
X165.804 Y333.973
X165.778 Y333.252
X165.792 Y332.559
X165.842 Y331.902
X165.921 Y331.305
X166.02 Y330.786
X166.138 Y330.316
X166.254 Y329.942
X166.377 Y329.613
X166.498 Y329.338
X166.629 Y329.08
X166.679 Y328.995
X166.879 Y328.71
X167.125 Y328.465
X167.41 Y328.266
X167.726 Y328.12
X168.061 Y328.03
X168.408 Y328
X169.74
G3 X170.316 Y328.541 I-0.021 J0.6
G1 X171.58 Y341.341
G3 X171.232 Y341.946 I-0.597 J0.059
X171.004 Y342 I-0.249 J-0.546
G1 X169.644
X169.494 Y341.992
X169.345 Y341.976
X169.198 Y341.949
X169.046 Y341.912
X168.891 Y341.865
X168.715 Y341.8
X168.538 Y341.723
X168.338 Y341.622
X168.138 Y341.507
X167.918 Y341.363
X167.694 Y341.197
X167.458 Y341.003
X167.205 Y340.768
X166.959 Y340.512
X166.697 Y340.208
X166.431 Y339.86
X166.175 Y339.484
X165.911 Y339.045
X165.648 Y338.546
X165.408 Y338.021
X165.182 Y337.44
X164.973 Y336.803
X164.792 Y336.121
X164.645 Y335.408
X164.537 Y334.677
X164.47 Y333.942
X164.446 Y333.221
X164.461 Y332.529
X164.513 Y331.873
X164.593 Y331.281
X164.693 Y330.764
X164.81 Y330.299
X164.928 Y329.924
X165.049 Y329.602
X165.172 Y329.325
X165.302 Y329.071
X165.349 Y328.991
X165.549 Y328.707
X165.795 Y328.463
X166.08 Y328.265
X166.394 Y328.119
X166.73 Y328.03
X167.075 Y328
X168.408
G3 X168.636 Y328.054 I-0.021 J0.6
X168.984 Y328.542 I-0.249 J0.546
G1 X170.22 Y341.343
G3 X169.872 Y341.946 I-0.597 J0.058
X169.644 Y342 I-0.249 J-0.546
G1 X168.295
X168.146 Y341.992
X167.997 Y341.975
X167.849 Y341.947
X167.696 Y341.908
X167.54 Y341.859
X167.362 Y341.792
X167.184 Y341.713
X166.981 Y341.61
X166.78 Y341.492
X166.559 Y341.346
X166.332 Y341.176
X166.097 Y340.978
X165.842 Y340.738
X165.596 Y340.479
X165.334 Y340.17
X165.065 Y339.815
X164.811 Y339.435
X164.549 Y338.993
X164.287 Y338.488
X164.046 Y337.951
X163.823 Y337.369
X163.619 Y336.728
X163.442 Y336.042
X163.299 Y335.325
X163.195 Y334.592
X163.134 Y333.856
X163.114 Y333.135
X163.134 Y332.445
X163.189 Y331.792
X163.271 Y331.218
X163.374 Y330.704
X163.492 Y330.251
X163.612 Y329.878
X163.73 Y329.569
X163.856 Y329.29
X163.984 Y329.044
X164.023 Y328.979
X164.223 Y328.699
X164.469 Y328.457
X164.753 Y328.262
X165.066 Y328.118
X165.399 Y328.03
X165.742 Y328
X167.075
G3 X167.303 Y328.054 I-0.021 J0.6
X167.651 Y328.543 I-0.249 J0.546
G1 X168.872 Y341.343
G3 X168.523 Y341.946 I-0.597 J0.057
X168.295 Y342 I-0.249 J-0.546
G1 X166.976
X166.827 Y341.992
X166.677 Y341.976
X166.53 Y341.949
X166.383 Y341.913
X166.224 Y341.864
X166.052 Y341.801
X165.871 Y341.722
X165.673 Y341.622
X165.471 Y341.506
X165.248 Y341.361
X165.029 Y341.199
X164.789 Y341
X164.544 Y340.773
X164.293 Y340.512
X164.026 Y340.202
X163.77 Y339.867
X163.509 Y339.484
X163.242 Y339.04
X162.986 Y338.554
X162.748 Y338.031
X162.518 Y337.444
X162.308 Y336.801
X162.126 Y336.116
X161.979 Y335.401
X161.871 Y334.67
X161.804 Y333.936
X161.78 Y333.219
X161.795 Y332.531
X161.846 Y331.881
X161.927 Y331.282
X162.028 Y330.762
X162.146 Y330.296
X162.261 Y329.928
X162.385 Y329.599
X162.505 Y329.327
X162.637 Y329.069
X162.683 Y328.99
X162.884 Y328.707
X163.13 Y328.463
X163.415 Y328.265
X163.729 Y328.119
X164.064 Y328.03
X164.41 Y328
X165.742
G3 X165.97 Y328.054 I-0.021 J0.6
X166.319 Y328.542 I-0.249 J0.546
G1 X167.553 Y341.343
G3 X167.204 Y341.946 I-0.597 J0.058
X166.976 Y342 I-0.249 J-0.546
G1 X165.678
X165.499 Y341.991
X165.35 Y341.975
X165.202 Y341.949
X165.053 Y341.912
X164.897 Y341.865
X164.723 Y341.801
X164.545 Y341.724
X164.345 Y341.624
X164.147 Y341.51
X163.925 Y341.367
X163.704 Y341.204
X163.466 Y341.008
X163.217 Y340.778
X162.971 Y340.523
X162.708 Y340.219
X162.446 Y339.879
X162.189 Y339.502
X161.923 Y339.062
X161.661 Y338.568
X161.423 Y338.049
X161.193 Y337.465
X160.983 Y336.826
X160.8 Y336.143
X160.651 Y335.43
X160.542 Y334.701
X160.474 Y333.969
X160.448 Y333.249
X160.461 Y332.557
X160.512 Y331.901
X160.591 Y331.303
X160.691 Y330.783
X160.808 Y330.314
X160.924 Y329.941
X161.047 Y329.611
X161.168 Y329.337
X161.299 Y329.079
X161.349 Y328.994
X161.549 Y328.71
X161.795 Y328.465
X162.08 Y328.266
X162.395 Y328.12
X162.731 Y328.03
X163.077 Y328
X164.41
G3 X164.638 Y328.054 I-0.021 J0.6
X164.986 Y328.54 I-0.249 J0.546
G1 X166.254 Y341.341
G3 X165.905 Y341.946 I-0.597 J0.059
X165.678 Y342 I-0.249 J-0.546
G1 X164.359
X164.167 Y341.99
X164.018 Y341.974
X163.87 Y341.948
X163.72 Y341.912
X163.566 Y341.865
X163.39 Y341.801
X163.213 Y341.724
X163.014 Y341.624
X162.815 Y341.511
X162.595 Y341.368
X162.372 Y341.204
X162.137 Y341.01
X161.885 Y340.778
X161.64 Y340.524
X161.377 Y340.221
X161.113 Y339.878
X160.857 Y339.503
X160.592 Y339.065
X160.329 Y338.569
X160.09 Y338.049
X159.862 Y337.468
X159.652 Y336.831
X159.469 Y336.149
X159.32 Y335.437
X159.21 Y334.707
X159.142 Y333.974
X159.115 Y333.252
X159.129 Y332.56
X159.179 Y331.903
X159.258 Y331.306
X159.358 Y330.786
X159.475 Y330.316
X159.591 Y329.943
X159.714 Y329.614
X159.835 Y329.338
X159.966 Y329.08
X160.016 Y328.995
X160.216 Y328.711
X160.462 Y328.465
X160.747 Y328.266
X161.063 Y328.12
X161.398 Y328.03
X161.745 Y328
X163.077
G3 X163.305 Y328.054 I-0.021 J0.6
X163.653 Y328.54 I-0.249 J0.546
G1 X164.935 Y341.341
G3 X164.586 Y341.946 I-0.597 J0.06
X164.359 Y342 I-0.249 J-0.546
G1 X162.949
X162.799 Y341.992
X162.65 Y341.973
X162.503 Y341.945
X162.348 Y341.904
X162.191 Y341.854
X162.011 Y341.785
X161.83 Y341.703
X161.629 Y341.598
X161.423 Y341.476
X161.205 Y341.329
X160.971 Y341.151
X160.738 Y340.953
X160.482 Y340.709
X160.232 Y340.442
X159.974 Y340.134
X159.704 Y339.771
X159.446 Y339.381
X159.189 Y338.939
X158.931 Y338.432
X158.683 Y337.87
X158.464 Y337.285
X158.264 Y336.645
X158.092 Y335.959
X157.954 Y335.24
X157.856 Y334.505
X157.799 Y333.768
X157.784 Y333.046
X157.809 Y332.356
X157.868 Y331.718
X157.952 Y331.156
X158.059 Y330.641
X158.174 Y330.208
X158.298 Y329.833
X158.413 Y329.538
X158.543 Y329.255
X158.668 Y329.019
X158.699 Y328.967
X158.9 Y328.69
X159.146 Y328.452
X159.428 Y328.258
X159.74 Y328.116
X160.071 Y328.029
X160.412 Y328
X161.745
G3 X161.973 Y328.054 I-0.021 J0.6
X162.321 Y328.543 I-0.249 J0.546
G1 X163.525 Y341.344
G3 X163.177 Y341.946 I-0.597 J0.056
X162.949 Y342 I-0.249 J-0.546
G1 X161.65
X161.5 Y341.992
X161.351 Y341.976
X161.203 Y341.95
X161.058 Y341.914
X160.895 Y341.865
X160.728 Y341.803
X160.544 Y341.724
X160.352 Y341.627
X160.146 Y341.509
X159.926 Y341.366
X159.705 Y341.204
X159.462 Y341.003
X159.224 Y340.783
X158.97 Y340.52
X158.705 Y340.213
X158.449 Y339.88
X158.183 Y339.491
X157.915 Y339.046
X157.667 Y338.577
X157.424 Y338.048
X157.192 Y337.457
X156.981 Y336.813
X156.798 Y336.13
X156.652 Y335.425
X156.543 Y334.698
X156.475 Y333.959
X156.449 Y333.234
X156.463 Y332.547
X156.513 Y331.904
X156.593 Y331.306
X156.695 Y330.774
X156.812 Y330.307
X156.926 Y329.942
X157.052 Y329.605
X157.17 Y329.337
X157.303 Y329.075
X157.351 Y328.993
X157.551 Y328.709
X157.798 Y328.465
X158.083 Y328.266
X158.398 Y328.12
X158.733 Y328.03
X159.079 Y328
X160.412
G3 X160.64 Y328.054 I-0.021 J0.6
X160.988 Y328.542 I-0.249 J0.546
G1 X162.226 Y341.343
G3 X161.878 Y341.946 I-0.597 J0.058
X161.65 Y342 I-0.249 J-0.546
G1 X160.331
X160.17 Y341.992
X160.021 Y341.976
X159.873 Y341.95
X159.723 Y341.913
X159.568 Y341.866
X159.393 Y341.802
X159.215 Y341.725
X159.015 Y341.625
X158.817 Y341.511
X158.596 Y341.367
X158.373 Y341.204
X158.135 Y341.008
X157.885 Y340.776
X157.64 Y340.524
X157.378 Y340.22
X157.115 Y339.877
X156.858 Y339.501
X156.592 Y339.061
X156.329 Y338.564
X156.09 Y338.044
X155.862 Y337.463
X155.652 Y336.827
X155.469 Y336.144
X155.32 Y335.429
X155.211 Y334.699
X155.143 Y333.969
X155.117 Y333.25
X155.131 Y332.556
X155.181 Y331.899
X155.261 Y331.302
X155.36 Y330.783
X155.477 Y330.314
X155.594 Y329.94
X155.717 Y329.612
X155.838 Y329.337
X155.969 Y329.079
X156.018 Y328.994
X156.218 Y328.71
X156.465 Y328.465
X156.75 Y328.266
X157.065 Y328.12
X157.4 Y328.03
X157.747 Y328
X159.079
G3 X159.307 Y328.054 I-0.021 J0.6
X159.655 Y328.541 I-0.249 J0.546
G1 X160.907 Y341.342
G3 X160.559 Y341.946 I-0.597 J0.058
X160.331 Y342 I-0.249 J-0.546
G1 X159.032
X158.836 Y341.99
X158.687 Y341.974
X158.539 Y341.948
X158.389 Y341.911
X158.235 Y341.865
X158.06 Y341.8
X157.883 Y341.724
X157.683 Y341.624
X157.485 Y341.51
X157.265 Y341.368
X157.042 Y341.204
X156.806 Y341.01
X156.555 Y340.778
X156.309 Y340.524
X156.046 Y340.22
X155.782 Y339.877
X155.526 Y339.503
X155.261 Y339.065
X154.998 Y338.569
X154.76 Y338.05
X154.531 Y337.469
X154.321 Y336.832
X154.138 Y336.15
X153.99 Y335.438
X153.88 Y334.708
X153.811 Y333.974
X153.785 Y333.253
X153.798 Y332.561
X153.848 Y331.904
X153.928 Y331.306
X154.027 Y330.787
X154.144 Y330.317
X154.26 Y329.943
X154.383 Y329.614
X154.504 Y329.339
X154.635 Y329.081
X154.685 Y328.995
X154.885 Y328.711
X155.132 Y328.465
X155.417 Y328.266
X155.732 Y328.12
X156.068 Y328.03
X156.414 Y328
X157.747
G3 X157.975 Y328.054 I-0.021 J0.6
X158.323 Y328.54 I-0.249 J0.546
G1 X159.608 Y341.34
G3 X159.26 Y341.946 I-0.597 J0.06
X159.032 Y342 I-0.249 J-0.546
G1 X157.623
X157.473 Y341.992
X157.324 Y341.974
X157.177 Y341.945
X157.022 Y341.905
X156.865 Y341.855
X156.686 Y341.786
X156.505 Y341.706
X156.304 Y341.601
X156.099 Y341.48
X155.88 Y341.333
X155.647 Y341.157
X155.415 Y340.96
X155.159 Y340.716
X154.91 Y340.451
X154.651 Y340.144
X154.381 Y339.782
X154.124 Y339.395
X153.866 Y338.953
X153.607 Y338.447
X153.36 Y337.889
X153.14 Y337.306
X152.94 Y336.667
X152.766 Y335.981
X152.627 Y335.262
X152.527 Y334.528
X152.469 Y333.791
X152.453 Y333.069
X152.477 Y332.378
X152.535 Y331.736
X152.618 Y331.172
X152.724 Y330.657
X152.84 Y330.219
X152.963 Y329.844
X153.079 Y329.546
X153.208 Y329.264
X153.333 Y329.025
X153.367 Y328.97
X153.568 Y328.692
X153.813 Y328.453
X154.096 Y328.259
X154.408 Y328.117
X154.74 Y328.029
X155.081 Y328
X156.414
G3 X156.642 Y328.054 I-0.021 J0.6
X156.991 Y328.543 I-0.249 J0.546
G1 X158.199 Y341.344
G3 X157.85 Y341.946 I-0.597 J0.056
X157.623 Y342 I-0.249 J-0.546
G1 X156.304
X156.154 Y341.992
X156.005 Y341.975
X155.857 Y341.947
X155.711 Y341.911
X155.549 Y341.86
X155.378 Y341.796
X155.195 Y341.716
X154.998 Y341.615
X154.794 Y341.497
X154.57 Y341.349
X154.35 Y341.185
X154.108 Y340.983
X153.865 Y340.755
X153.613 Y340.491
X153.344 Y340.176
X153.089 Y339.839
X152.826 Y339.45
X152.559 Y339
X152.306 Y338.515
X152.067 Y337.987
X151.839 Y337.395
X151.632 Y336.749
X151.452 Y336.061
X151.308 Y335.343
X151.203 Y334.611
X151.14 Y333.877
X151.118 Y333.163
X151.137 Y332.478
X151.19 Y331.833
X151.274 Y331.238
X151.376 Y330.723
X151.494 Y330.263
X151.61 Y329.899
X151.733 Y329.576
X151.855 Y329.305
X151.986 Y329.051
X152.026 Y328.983
X152.227 Y328.702
X152.473 Y328.459
X152.757 Y328.263
X153.071 Y328.118
X153.404 Y328.03
X153.748 Y328
X155.081
G3 X155.309 Y328.054 I-0.021 J0.6
X155.657 Y328.543 I-0.249 J0.546
G1 X156.88 Y341.343
G3 X156.531 Y341.946 I-0.597 J0.057
X156.304 Y342 I-0.249 J-0.546
G1 X155.005
X154.838 Y341.992
X154.688 Y341.976
X154.541 Y341.949
X154.394 Y341.913
X154.236 Y341.865
X154.064 Y341.802
X153.883 Y341.724
X153.685 Y341.625
X153.486 Y341.511
X153.263 Y341.366
X153.044 Y341.205
X152.803 Y341.007
X152.558 Y340.78
X152.309 Y340.523
X152.044 Y340.216
X151.787 Y339.882
X151.527 Y339.502
X151.259 Y339.059
X151.003 Y338.574
X150.762 Y338.051
X150.532 Y337.464
X150.321 Y336.822
X150.137 Y336.138
X149.989 Y335.425
X149.879 Y334.697
X149.812 Y333.967
X149.785 Y333.249
X149.799 Y332.559
X149.849 Y331.906
X149.929 Y331.306
X150.029 Y330.782
X150.147 Y330.313
X150.262 Y329.943
X150.386 Y329.61
X150.506 Y329.339
X150.638 Y329.078
X150.687 Y328.994
X150.887 Y328.71
X151.134 Y328.465
X151.419 Y328.266
X151.734 Y328.12
X152.07 Y328.03
X152.416 Y328
X153.748
G3 X153.976 Y328.054 I-0.021 J0.6
X154.325 Y328.541 I-0.249 J0.546
G1 X155.581 Y341.342
G3 X155.233 Y341.946 I-0.597 J0.059
X155.005 Y342 I-0.249 J-0.546
G1 X153.686
X153.506 Y341.991
X153.357 Y341.975
X153.209 Y341.949
X153.059 Y341.912
X152.904 Y341.865
X152.729 Y341.801
X152.552 Y341.724
X152.352 Y341.625
X152.154 Y341.511
X151.934 Y341.368
X151.711 Y341.204
X151.474 Y341.01
X151.223 Y340.778
X150.978 Y340.524
X150.716 Y340.221
X150.452 Y339.878
X150.196 Y339.503
X149.93 Y339.064
X149.667 Y338.567
X149.428 Y338.046
X149.199 Y337.465
X148.989 Y336.827
X148.806 Y336.146
X148.658 Y335.434
X148.548 Y334.705
X148.48 Y333.973
X148.454 Y333.252
X148.467 Y332.559
X148.517 Y331.902
X148.597 Y331.305
X148.696 Y330.786
X148.813 Y330.316
X148.93 Y329.942
X149.053 Y329.613
X149.174 Y329.338
X149.305 Y329.08
X149.354 Y328.995
X149.554 Y328.71
X149.801 Y328.465
X150.086 Y328.266
X150.401 Y328.12
X150.737 Y328.03
X151.083 Y328
X152.416
G3 X152.644 Y328.054 I-0.021 J0.6
X152.992 Y328.54 I-0.249 J0.546
G1 X154.262 Y341.341
G3 X153.914 Y341.946 I-0.597 J0.059
X153.686 Y342 I-0.249 J-0.546
G1 X152.326
X152.176 Y341.992
X152.027 Y341.977
X151.879 Y341.95
X151.729 Y341.914
X151.574 Y341.867
X151.399 Y341.803
X151.222 Y341.726
X151.022 Y341.626
X150.823 Y341.513
X150.603 Y341.37
X150.38 Y341.206
X150.144 Y341.012
X149.893 Y340.78
X149.647 Y340.526
X149.384 Y340.222
X149.12 Y339.879
X148.863 Y339.504
X148.599 Y339.066
X148.336 Y338.57
X148.096 Y338.05
X147.868 Y337.47
X147.658 Y336.834
X147.475 Y336.152
X147.326 Y335.44
X147.216 Y334.71
X147.148 Y333.976
X147.121 Y333.254
X147.135 Y332.562
X147.184 Y331.906
X147.264 Y331.308
X147.363 Y330.788
X147.48 Y330.318
X147.596 Y329.944
X147.719 Y329.615
X147.84 Y329.339
X147.971 Y329.081
X148.021 Y328.995
X148.222 Y328.711
X148.468 Y328.466
X148.753 Y328.267
X149.068 Y328.12
X149.404 Y328.03
X149.751 Y328
X151.083
G3 X151.311 Y328.054 I-0.021 J0.6
X151.659 Y328.542 I-0.249 J0.546
G1 X152.902 Y341.342
G3 X152.554 Y341.946 I-0.597 J0.058
X152.326 Y342 I-0.249 J-0.546
G1 X150.977
X150.827 Y341.992
X150.678 Y341.975
X150.531 Y341.948
X150.378 Y341.91
X150.223 Y341.861
X150.045 Y341.795
X149.867 Y341.717
X149.666 Y341.614
X149.465 Y341.497
X149.246 Y341.353
X149.018 Y341.183
X148.783 Y340.988
X148.528 Y340.749
X148.282 Y340.491
X148.022 Y340.186
X147.753 Y339.831
X147.498 Y339.454
X147.236 Y339.015
X146.975 Y338.512
X146.732 Y337.975
X146.508 Y337.396
X146.303 Y336.757
X146.124 Y336.073
X145.98 Y335.357
X145.875 Y334.625
X145.811 Y333.889
X145.789 Y333.167
X145.807 Y332.475
X145.862 Y331.821
X145.942 Y331.242
X146.044 Y330.727
X146.162 Y330.269
X146.281 Y329.895
X146.401 Y329.582
X146.525 Y329.303
X146.654 Y329.054
X146.696 Y328.983
X146.896 Y328.702
X147.142 Y328.46
X147.426 Y328.263
X147.74 Y328.118
X148.074 Y328.03
X148.418 Y328
X149.751
G3 X149.979 Y328.054 I-0.021 J0.6
X150.327 Y328.542 I-0.249 J0.546
G1 X151.554 Y341.343
G3 X151.205 Y341.946 I-0.597 J0.057
X150.977 Y342 I-0.249 J-0.546
G1 X149.658
X149.508 Y341.992
X149.359 Y341.977
X149.212 Y341.95
X149.064 Y341.914
X148.906 Y341.866
X148.734 Y341.803
X148.555 Y341.726
X148.356 Y341.626
X148.156 Y341.512
X147.934 Y341.367
X147.714 Y341.206
X147.475 Y341.009
X147.23 Y340.783
X146.98 Y340.525
X146.714 Y340.216
X146.457 Y339.882
X146.196 Y339.502
X145.929 Y339.06
X145.672 Y338.575
X145.433 Y338.055
X145.203 Y337.47
X144.992 Y336.83
X144.809 Y336.146
X144.66 Y335.432
X144.55 Y334.702
X144.482 Y333.968
X144.455 Y333.25
X144.469 Y332.561
X144.519 Y331.908
X144.599 Y331.307
X144.699 Y330.784
X144.816 Y330.315
X144.931 Y329.945
X145.056 Y329.611
X145.175 Y329.34
X145.307 Y329.079
X145.357 Y328.995
X145.557 Y328.711
X145.803 Y328.465
X146.088 Y328.266
X146.403 Y328.12
X146.739 Y328.03
X147.085 Y328
X148.418
G3 X148.646 Y328.054 I-0.021 J0.6
X148.994 Y328.542 I-0.249 J0.546
G1 X150.234 Y341.342
G3 X149.886 Y341.946 I-0.597 J0.058
X149.658 Y342 I-0.249 J-0.546
G1 X148.359
X148.175 Y341.991
X148.026 Y341.975
X147.879 Y341.949
X147.728 Y341.912
X147.574 Y341.865
X147.398 Y341.801
X147.221 Y341.724
X147.021 Y341.624
X146.822 Y341.51
X146.603 Y341.367
X146.379 Y341.203
X146.143 Y341.009
X145.892 Y340.777
X145.647 Y340.523
X145.385 Y340.221
X145.12 Y339.877
X144.865 Y339.503
X144.6 Y339.065
X144.337 Y338.568
X144.098 Y338.047
X143.869 Y337.466
X143.659 Y336.829
X143.476 Y336.146
X143.328 Y335.433
X143.218 Y334.704
X143.15 Y333.972
X143.123 Y333.25
X143.137 Y332.557
X143.187 Y331.9
X143.267 Y331.304
X143.366 Y330.785
X143.483 Y330.315
X143.6 Y329.941
X143.723 Y329.613
X143.844 Y329.337
X143.975 Y329.08
X144.024 Y328.995
X144.224 Y328.71
X144.471 Y328.465
X144.756 Y328.266
X145.071 Y328.12
X145.407 Y328.03
X145.753 Y328
X147.085
G3 X147.313 Y328.054 I-0.021 J0.6
X147.662 Y328.54 I-0.249 J0.546
G1 X148.935 Y341.341
G3 X148.587 Y341.946 I-0.597 J0.059
X148.359 Y342 I-0.249 J-0.546
G1 X146.95
X146.8 Y341.992
X146.651 Y341.973
X146.504 Y341.944
X146.348 Y341.903
X146.19 Y341.851
X146.011 Y341.782
X145.829 Y341.699
X145.628 Y341.594
X145.42 Y341.469
X145.202 Y341.322
X144.967 Y341.142
X144.734 Y340.943
X144.479 Y340.698
X144.227 Y340.428
X143.97 Y340.118
X143.7 Y339.754
X143.441 Y339.359
X143.184 Y338.916
X142.927 Y338.408
X142.68 Y337.842
X142.46 Y337.25
X142.263 Y336.611
X142.092 Y335.924
X141.956 Y335.205
X141.86 Y334.469
X141.805 Y333.732
X141.792 Y333.009
X141.819 Y332.32
X141.879 Y331.691
X141.964 Y331.129
X142.073 Y330.615
X142.188 Y330.191
X142.312 Y329.815
X142.427 Y329.525
X142.558 Y329.242
X142.682 Y329.008
X142.71 Y328.962
X142.911 Y328.687
X143.157 Y328.449
X143.439 Y328.257
X143.749 Y328.116
X144.08 Y328.029
X144.42 Y328
X145.753
G3 X145.981 Y328.054 I-0.021 J0.6
X146.329 Y328.544 I-0.249 J0.546
G1 X147.526 Y341.345
G3 X147.178 Y341.946 I-0.597 J0.056
X146.95 Y342 I-0.249 J-0.546
G1 X145.631
X145.481 Y341.992
X145.332 Y341.974
X145.185 Y341.946
X145.038 Y341.908
X144.874 Y341.857
X144.704 Y341.792
X144.519 Y341.709
X144.322 Y341.608
X144.116 Y341.487
X143.892 Y341.338
X143.671 Y341.171
X143.427 Y340.966
X143.185 Y340.737
X142.931 Y340.469
X142.663 Y340.151
X142.408 Y339.812
X142.143 Y339.416
X141.876 Y338.961
X141.625 Y338.475
X141.387 Y337.942
X141.161 Y337.346
X140.955 Y336.696
X140.778 Y336.005
X140.637 Y335.285
X140.535 Y334.552
X140.475 Y333.82
X140.457 Y333.108
X140.478 Y332.425
X140.534 Y331.785
X140.62 Y331.195
X140.723 Y330.685
X140.842 Y330.23
X140.959 Y329.869
X141.081 Y329.553
X141.204 Y329.283
X141.335 Y329.033
X141.369 Y328.975
X141.57 Y328.696
X141.816 Y328.456
X142.099 Y328.261
X142.412 Y328.117
X142.744 Y328.03
X143.087 Y328
X144.42
G3 X144.648 Y328.054 I-0.021 J0.6
X144.996 Y328.543 I-0.249 J0.546
G1 X146.207 Y341.344
G3 X145.859 Y341.946 I-0.597 J0.057
X145.631 Y342 I-0.249 J-0.546
G1 X144.332
X144.176 Y341.992
X144.027 Y341.976
X143.88 Y341.95
X143.734 Y341.914
X143.574 Y341.866
X143.405 Y341.804
X143.221 Y341.725
X143.026 Y341.627
X142.825 Y341.511
X142.603 Y341.367
X142.383 Y341.206
X142.14 Y341.005
X141.899 Y340.783
X141.647 Y340.523
X141.382 Y340.215
X141.128 Y339.886
X140.865 Y339.501
X140.596 Y339.055
X140.345 Y338.581
X140.102 Y338.053
X139.87 Y337.463
X139.658 Y336.819
X139.474 Y336.134
X139.327 Y335.424
X139.218 Y334.699
X139.15 Y333.968
X139.123 Y333.248
X139.137 Y332.561
X139.187 Y331.91
X139.267 Y331.311
X139.368 Y330.782
X139.485 Y330.313
X139.599 Y329.945
X139.725 Y329.61
X139.843 Y329.34
X139.977 Y329.078
X140.025 Y328.994
X140.226 Y328.71
X140.472 Y328.465
X140.757 Y328.266
X141.072 Y328.12
X141.408 Y328.03
X141.754 Y328
X143.087
G3 X143.315 Y328.054 I-0.021 J0.6
X143.663 Y328.542 I-0.249 J0.546
G1 X144.908 Y341.342
G3 X144.56 Y341.946 I-0.597 J0.058
X144.332 Y342 I-0.249 J-0.546
G1 X143.013
X142.845 Y341.992
X142.696 Y341.976
X142.548 Y341.949
X142.398 Y341.913
X142.243 Y341.866
X142.068 Y341.801
X141.89 Y341.725
X141.691 Y341.625
X141.492 Y341.511
X141.272 Y341.368
X141.049 Y341.204
X140.812 Y341.009
X140.561 Y340.777
X140.317 Y340.525
X140.055 Y340.222
X139.791 Y339.878
X139.534 Y339.503
X139.268 Y339.063
X139.005 Y338.565
X138.765 Y338.044
X138.536 Y337.462
X138.327 Y336.825
X138.144 Y336.144
X137.995 Y335.432
X137.886 Y334.703
X137.818 Y333.972
X137.792 Y333.252
X137.805 Y332.559
X137.856 Y331.901
X137.935 Y331.304
X138.034 Y330.785
X138.152 Y330.315
X138.268 Y329.941
X138.391 Y329.613
X138.512 Y329.337
X138.643 Y329.08
X138.693 Y328.994
X138.893 Y328.71
X139.139 Y328.465
X139.424 Y328.266
X139.739 Y328.12
X140.075 Y328.03
X140.422 Y328
X141.754
G3 X141.982 Y328.054 I-0.021 J0.6
X142.33 Y328.541 I-0.249 J0.546
G1 X143.589 Y341.342
G3 X143.241 Y341.946 I-0.597 J0.059
X143.013 Y342 I-0.249 J-0.546
G1 X141.714
X141.511 Y341.99
X141.362 Y341.974
X141.215 Y341.948
X141.064 Y341.911
X140.91 Y341.864
X140.735 Y341.8
X140.558 Y341.724
X140.358 Y341.624
X140.16 Y341.51
X139.94 Y341.367
X139.717 Y341.204
X139.481 Y341.01
X139.23 Y340.778
X138.984 Y340.523
X138.721 Y340.219
X138.457 Y339.876
X138.2 Y339.501
X137.936 Y339.063
X137.673 Y338.567
X137.434 Y338.047
X137.205 Y337.467
X136.996 Y336.831
X136.813 Y336.15
X136.664 Y335.437
X136.554 Y334.708
X136.486 Y333.974
X136.459 Y333.252
X136.473 Y332.56
X136.523 Y331.904
X136.602 Y331.306
X136.702 Y330.786
X136.819 Y330.317
X136.935 Y329.943
X137.058 Y329.614
X137.179 Y329.339
X137.31 Y329.08
X137.36 Y328.995
X137.56 Y328.711
X137.806 Y328.465
X138.092 Y328.266
X138.407 Y328.12
X138.743 Y328.03
X139.089 Y328
X140.422
G3 X140.649 Y328.054 I-0.021 J0.6
X140.998 Y328.539 I-0.249 J0.546
G1 X142.29 Y341.34
G3 X141.942 Y341.946 I-0.597 J0.06
X141.714 Y342 I-0.249 J-0.546
G1 X140.304
X140.155 Y341.992
X140.006 Y341.974
X139.858 Y341.946
X139.704 Y341.907
X139.548 Y341.857
X139.369 Y341.789
X139.19 Y341.709
X138.988 Y341.606
X138.784 Y341.486
X138.565 Y341.34
X138.334 Y341.166
X138.101 Y340.969
X137.845 Y340.727
X137.597 Y340.465
X137.338 Y340.158
X137.067 Y339.798
X136.812 Y339.415
X136.552 Y338.974
X136.292 Y338.469
X136.046 Y337.917
X135.826 Y337.337
X135.624 Y336.698
X135.448 Y336.013
X135.307 Y335.295
X135.206 Y334.561
X135.146 Y333.825
X135.128 Y333.103
X135.149 Y332.412
X135.206 Y331.763
X135.289 Y331.196
X135.393 Y330.681
X135.51 Y330.236
X135.631 Y329.861
X135.749 Y329.558
X135.876 Y329.277
X136.003 Y329.035
X136.039 Y328.975
X136.24 Y328.696
X136.486 Y328.455
X136.769 Y328.261
X137.081 Y328.117
X137.414 Y328.03
X137.756 Y328
X139.089
G3 X139.317 Y328.054 I-0.021 J0.6
X139.665 Y328.543 I-0.249 J0.546
G1 X140.881 Y341.344
G3 X140.532 Y341.946 I-0.597 J0.057
X140.304 Y342 I-0.249 J-0.546
G1 X138.985
X138.836 Y341.992
X138.687 Y341.976
X138.539 Y341.948
X138.392 Y341.912
X138.232 Y341.862
X138.06 Y341.799
X137.878 Y341.719
X137.681 Y341.619
X137.478 Y341.502
X137.255 Y341.355
X137.035 Y341.193
X136.794 Y340.992
X136.55 Y340.765
X136.299 Y340.503
X136.031 Y340.19
X135.775 Y339.854
X135.513 Y339.468
X135.246 Y339.021
X134.992 Y338.537
X134.753 Y338.011
X134.524 Y337.422
X134.315 Y336.778
X134.134 Y336.091
X133.988 Y335.375
X133.882 Y334.644
X133.816 Y333.91
X133.793 Y333.194
X133.81 Y332.508
X133.862 Y331.86
X133.944 Y331.263
X134.046 Y330.745
X134.164 Y330.281
X134.279 Y329.915
X134.403 Y329.589
X134.524 Y329.318
X134.656 Y329.061
X134.699 Y328.987
X134.899 Y328.705
X135.146 Y328.461
X135.43 Y328.264
X135.744 Y328.119
X136.079 Y328.03
X136.423 Y328
X137.756
G3 X137.984 Y328.054 I-0.021 J0.6
X138.332 Y328.542 I-0.249 J0.546
G1 X139.562 Y341.343
G3 X139.213 Y341.946 I-0.597 J0.057
X138.985 Y342 I-0.249 J-0.546
G1 X137.687
X137.513 Y341.991
X137.364 Y341.975
X137.216 Y341.949
X137.068 Y341.913
X136.911 Y341.865
X136.738 Y341.802
X136.558 Y341.724
X136.359 Y341.624
X136.161 Y341.51
X135.938 Y341.366
X135.718 Y341.204
X135.479 Y341.007
X135.231 Y340.778
X134.984 Y340.523
X134.72 Y340.217
X134.461 Y339.88
X134.202 Y339.501
X133.935 Y339.06
X133.675 Y338.569
X133.437 Y338.049
X133.207 Y337.464
X132.996 Y336.824
X132.813 Y336.14
X132.664 Y335.427
X132.555 Y334.698
X132.487 Y333.968
X132.461 Y333.248
X132.475 Y332.558
X132.525 Y331.903
X132.605 Y331.303
X132.704 Y330.783
X132.822 Y330.313
X132.937 Y329.942
X133.061 Y329.611
X133.181 Y329.338
X133.313 Y329.078
X133.362 Y328.994
X133.562 Y328.71
X133.809 Y328.465
X134.094 Y328.266
X134.409 Y328.12
X134.745 Y328.03
X135.091 Y328
X136.423
G3 X136.651 Y328.054 I-0.021 J0.6
X137 Y328.541 I-0.249 J0.546
G1 X138.263 Y341.341
G3 X137.914 Y341.946 I-0.597 J0.059
X137.687 Y342 I-0.249 J-0.546
G1 X136.368
X136.181 Y341.991
X136.032 Y341.975
X135.884 Y341.948
X135.734 Y341.912
X135.579 Y341.865
X135.404 Y341.801
X135.227 Y341.724
X135.027 Y341.624
X134.829 Y341.511
X134.609 Y341.368
X134.386 Y341.204
X134.15 Y341.01
X133.899 Y340.778
X133.653 Y340.524
X133.391 Y340.221
X133.127 Y339.878
X132.871 Y339.503
X132.606 Y339.064
X132.342 Y338.568
X132.103 Y338.048
X131.875 Y337.467
X131.665 Y336.829
X131.482 Y336.148
X131.333 Y335.435
X131.224 Y334.706
X131.155 Y333.973
X131.129 Y333.252
X131.142 Y332.56
X131.192 Y331.903
X131.272 Y331.305
X131.371 Y330.786
X131.488 Y330.316
X131.605 Y329.942
X131.728 Y329.613
X131.849 Y329.338
X131.98 Y329.08
X132.029 Y328.995
X132.23 Y328.711
X132.476 Y328.465
X132.761 Y328.266
X133.076 Y328.12
X133.412 Y328.03
X133.758 Y328
X135.091
G3 X135.319 Y328.054 I-0.021 J0.6
X135.667 Y328.54 I-0.249 J0.546
G1 X136.944 Y341.341
G3 X136.595 Y341.946 I-0.597 J0.06
X136.368 Y342 I-0.249 J-0.546
G1 X134.958
X134.808 Y341.992
X134.659 Y341.973
X134.512 Y341.944
X134.357 Y341.903
X134.199 Y341.852
X134.019 Y341.783
X133.838 Y341.7
X133.637 Y341.595
X133.429 Y341.471
X133.211 Y341.324
X132.976 Y341.145
X132.744 Y340.946
X132.488 Y340.701
X132.237 Y340.432
X131.979 Y340.123
X131.709 Y339.759
X131.45 Y339.366
X131.193 Y338.923
X130.936 Y338.415
X130.689 Y337.85
X130.469 Y337.261
X130.271 Y336.621
X130.1 Y335.935
X129.964 Y335.216
X129.867 Y334.481
X129.811 Y333.743
X129.798 Y333.021
X129.824 Y332.331
X129.883 Y331.699
X129.968 Y331.138
X130.076 Y330.624
X130.191 Y330.196
X130.315 Y329.821
X130.431 Y329.529
X130.561 Y329.246
X130.685 Y329.012
X130.715 Y328.964
X130.916 Y328.688
X131.161 Y328.45
X131.443 Y328.258
X131.754 Y328.116
X132.085 Y328.029
X132.425 Y328
X133.758
G3 X133.986 Y328.054 I-0.021 J0.6
X134.335 Y328.544 I-0.249 J0.546
G1 X135.534 Y341.344
G3 X135.186 Y341.946 I-0.597 J0.056
X134.958 Y342 I-0.249 J-0.546
G1 X133.659
X133.509 Y341.992
X133.36 Y341.976
X133.213 Y341.949
X133.067 Y341.913
X132.904 Y341.863
X132.737 Y341.802
X132.552 Y341.721
X132.359 Y341.624
X132.153 Y341.505
X131.934 Y341.362
X131.711 Y341.198
X131.468 Y340.996
X131.23 Y340.776
X130.975 Y340.511
X130.711 Y340.203
X130.455 Y339.869
X130.188 Y339.477
X129.92 Y339.031
X129.673 Y338.561
X129.43 Y338.029
X129.199 Y337.437
X128.988 Y336.792
X128.807 Y336.108
X128.661 Y335.403
X128.554 Y334.675
X128.487 Y333.935
X128.462 Y333.212
X128.478 Y332.526
X128.528 Y331.884
X128.609 Y331.288
X128.712 Y330.758
X128.829 Y330.294
X128.943 Y329.93
X129.069 Y329.596
X129.187 Y329.329
X129.321 Y329.068
X129.366 Y328.99
X129.567 Y328.707
X129.813 Y328.463
X130.097 Y328.265
X130.412 Y328.119
X130.747 Y328.03
X131.093 Y328
X132.425
G3 X132.653 Y328.054 I-0.021 J0.6
X133.001 Y328.542 I-0.249 J0.546
G1 X134.235 Y341.343
G3 X133.887 Y341.946 I-0.597 J0.058
X133.659 Y342 I-0.249 J-0.546
G1 X132.34
X132.183 Y341.992
X132.034 Y341.976
X131.887 Y341.95
X131.737 Y341.913
X131.581 Y341.866
X131.407 Y341.802
X131.228 Y341.725
X131.029 Y341.625
X130.831 Y341.511
X130.609 Y341.367
X130.387 Y341.204
X130.148 Y341.007
X129.899 Y340.777
X129.654 Y340.523
X129.391 Y340.219
X129.129 Y339.879
X128.871 Y339.501
X128.604 Y339.059
X128.342 Y338.565
X128.103 Y338.045
X127.875 Y337.463
X127.665 Y336.825
X127.482 Y336.142
X127.333 Y335.427
X127.224 Y334.697
X127.156 Y333.968
X127.13 Y333.249
X127.144 Y332.556
X127.194 Y331.9
X127.274 Y331.302
X127.373 Y330.783
X127.491 Y330.313
X127.607 Y329.941
X127.73 Y329.611
X127.851 Y329.337
X127.982 Y329.078
X128.031 Y328.994
X128.232 Y328.71
X128.478 Y328.465
X128.763 Y328.266
X129.078 Y328.12
X129.414 Y328.03
X129.76 Y328
X131.093
G3 X131.32 Y328.054 I-0.021 J0.6
X131.669 Y328.541 I-0.249 J0.546
G1 X132.916 Y341.342
G3 X132.568 Y341.946 I-0.597 J0.058
X132.34 Y342 I-0.249 J-0.546
G1 X131.041
X130.85 Y341.99
X130.701 Y341.975
X130.553 Y341.948
X130.403 Y341.912
X130.248 Y341.865
X130.073 Y341.801
X129.896 Y341.724
X129.697 Y341.624
X129.498 Y341.511
X129.278 Y341.368
X129.055 Y341.204
X128.819 Y341.01
X128.568 Y340.778
X128.322 Y340.524
X128.06 Y340.22
X127.796 Y339.877
X127.539 Y339.503
X127.274 Y339.065
X127.012 Y338.569
X126.773 Y338.049
X126.544 Y337.468
X126.334 Y336.83
X126.151 Y336.149
X126.003 Y335.437
X125.893 Y334.707
X125.824 Y333.974
X125.798 Y333.253
X125.811 Y332.561
X125.861 Y331.904
X125.941 Y331.306
X126.04 Y330.786
X126.157 Y330.317
X126.274 Y329.943
X126.397 Y329.614
X126.517 Y329.339
X126.649 Y329.08
X126.698 Y328.995
X126.899 Y328.711
X127.145 Y328.465
X127.43 Y328.266
X127.745 Y328.12
X128.081 Y328.03
X128.427 Y328
X129.76
G3 X129.988 Y328.054 I-0.021 J0.6
X130.336 Y328.54 I-0.249 J0.546
G1 X131.617 Y341.341
G3 X131.269 Y341.946 I-0.597 J0.06
X131.041 Y342 I-0.249 J-0.546
G1 X129.632
X129.482 Y341.992
X129.333 Y341.973
X129.186 Y341.945
X129.03 Y341.904
X128.873 Y341.854
X128.694 Y341.785
X128.513 Y341.703
X128.312 Y341.598
X128.105 Y341.475
X127.887 Y341.329
X127.653 Y341.151
X127.42 Y340.953
X127.164 Y340.709
X126.914 Y340.442
X126.656 Y340.133
X126.386 Y339.77
X126.129 Y339.381
X125.871 Y338.938
X125.613 Y338.431
X125.365 Y337.869
X125.146 Y337.284
X124.947 Y336.645
X124.774 Y335.958
X124.637 Y335.24
X124.538 Y334.505
X124.481 Y333.768
X124.467 Y333.045
X124.491 Y332.355
X124.55 Y331.718
X124.634 Y331.155
X124.741 Y330.641
X124.857 Y330.208
X124.98 Y329.833
X125.096 Y329.538
X125.226 Y329.255
X125.351 Y329.019
X125.382 Y328.967
X125.583 Y328.69
X125.828 Y328.452
X126.111 Y328.258
X126.422 Y328.116
X126.753 Y328.029
X127.094 Y328
X128.427
G3 X128.655 Y328.054 I-0.021 J0.6
X129.004 Y328.543 I-0.249 J0.546
G1 X130.208 Y341.344
G3 X129.859 Y341.946 I-0.597 J0.056
X129.632 Y342 I-0.249 J-0.546
G1 X128.313
X128.163 Y341.992
X128.014 Y341.975
X127.866 Y341.947
X127.72 Y341.91
X127.557 Y341.859
X127.386 Y341.795
X127.203 Y341.713
X127.006 Y341.613
X126.801 Y341.493
X126.577 Y341.345
X126.356 Y341.18
X126.113 Y340.976
X125.871 Y340.748
X125.618 Y340.483
X125.35 Y340.166
X125.094 Y339.829
X124.831 Y339.437
X124.564 Y338.985
X124.312 Y338.5
X124.073 Y337.969
X123.846 Y337.376
X123.639 Y336.729
X123.461 Y336.039
X123.317 Y335.321
X123.213 Y334.589
X123.151 Y333.855
X123.132 Y333.143
X123.151 Y332.458
X123.206 Y331.815
X123.29 Y331.222
X123.392 Y330.708
X123.511 Y330.251
X123.627 Y329.888
X123.75 Y329.567
X123.872 Y329.297
X124.003 Y329.044
X124.041 Y328.98
X124.242 Y328.7
X124.488 Y328.458
X124.772 Y328.262
X125.085 Y328.118
X125.418 Y328.03
X125.761 Y328
X127.094
G3 X127.322 Y328.054 I-0.021 J0.6
X127.671 Y328.543 I-0.249 J0.546
G1 X128.889 Y341.344
G3 X128.54 Y341.946 I-0.597 J0.057
X128.313 Y342 I-0.249 J-0.546
G1 X127.014
X126.851 Y341.992
X126.702 Y341.976
X126.554 Y341.949
X126.408 Y341.914
X126.249 Y341.866
X126.078 Y341.803
X125.897 Y341.724
X125.7 Y341.626
X125.499 Y341.511
X125.277 Y341.366
X125.058 Y341.206
X124.816 Y341.006
X124.573 Y340.782
X124.323 Y340.523
X124.057 Y340.216
X123.802 Y339.884
X123.54 Y339.502
X123.272 Y339.058
X123.018 Y338.577
X122.776 Y338.053
X122.545 Y337.464
X122.334 Y336.822
X122.15 Y336.137
X122.002 Y335.425
X121.893 Y334.698
X121.825 Y333.968
X121.798 Y333.25
X121.812 Y332.561
X121.862 Y331.909
X121.942 Y331.309
X122.042 Y330.783
X122.16 Y330.314
X122.274 Y329.945
X122.399 Y329.611
X122.518 Y329.34
X122.651 Y329.078
X122.7 Y328.994
X122.9 Y328.71
X123.147 Y328.465
X123.432 Y328.266
X123.747 Y328.12
X124.083 Y328.03
X124.429 Y328
X125.761
G3 X125.989 Y328.054 I-0.021 J0.6
X126.338 Y328.541 I-0.249 J0.546
G1 X127.59 Y341.342
G3 X127.242 Y341.946 I-0.597 J0.058
X127.014 Y342 I-0.249 J-0.546
G1 X125.695
X125.52 Y341.991
X125.37 Y341.975
X125.223 Y341.949
X125.072 Y341.912
X124.918 Y341.865
X124.742 Y341.801
X124.565 Y341.725
X124.365 Y341.625
X124.167 Y341.511
X123.947 Y341.368
X123.724 Y341.204
X123.487 Y341.009
X123.236 Y340.777
X122.991 Y340.524
X122.73 Y340.221
X122.465 Y339.878
X122.209 Y339.503
X121.943 Y339.064
X121.68 Y338.566
X121.44 Y338.045
X121.212 Y337.464
X121.002 Y336.826
X120.819 Y336.145
X120.671 Y335.433
X120.561 Y334.704
X120.493 Y333.973
X120.467 Y333.252
X120.48 Y332.559
X120.53 Y331.902
X120.61 Y331.305
X120.709 Y330.786
X120.827 Y330.316
X120.943 Y329.942
X121.066 Y329.613
X121.187 Y329.338
X121.318 Y329.08
X121.367 Y328.995
X121.568 Y328.71
X121.814 Y328.465
X122.099 Y328.266
X122.414 Y328.12
X122.75 Y328.03
X123.096 Y328
X124.429
G3 X124.657 Y328.054 I-0.021 J0.6
X125.005 Y328.541 I-0.249 J0.546
G1 X126.271 Y341.341
G3 X125.923 Y341.946 I-0.597 J0.059
X125.695 Y342 I-0.249 J-0.546
G1 X124.335
X124.185 Y341.992
X124.036 Y341.976
X123.888 Y341.95
X123.737 Y341.913
X123.583 Y341.866
X123.407 Y341.801
X123.23 Y341.724
X123.029 Y341.623
X122.83 Y341.509
X122.61 Y341.366
X122.386 Y341.201
X122.151 Y341.006
X121.898 Y340.772
X121.652 Y340.517
X121.39 Y340.213
X121.124 Y339.867
X120.868 Y339.492
X120.604 Y339.053
X120.341 Y338.554
X120.101 Y338.032
X119.874 Y337.451
X119.665 Y336.814
X119.484 Y336.132
X119.336 Y335.419
X119.227 Y334.689
X119.16 Y333.955
X119.134 Y333.233
X119.149 Y332.541
X119.2 Y331.885
X119.28 Y331.291
X119.379 Y330.773
X119.497 Y330.306
X119.614 Y329.931
X119.736 Y329.606
X119.858 Y329.33
X119.988 Y329.074
X120.036 Y328.992
X120.236 Y328.709
X120.483 Y328.464
X120.768 Y328.266
X121.082 Y328.12
X121.418 Y328.03
X121.764 Y328
X123.096
G3 X123.324 Y328.054 I-0.021 J0.6
X123.673 Y328.542 I-0.249 J0.546
G1 X124.911 Y341.343
G3 X124.563 Y341.946 I-0.597 J0.058
X124.335 Y342 I-0.249 J-0.546
G1 X122.986
X122.836 Y341.992
X122.687 Y341.975
X122.54 Y341.947
X122.387 Y341.909
X122.231 Y341.86
X122.053 Y341.793
X121.875 Y341.714
X121.673 Y341.611
X121.472 Y341.494
X121.252 Y341.348
X121.024 Y341.178
X120.789 Y340.981
X120.534 Y340.742
X120.288 Y340.483
X120.027 Y340.176
X119.758 Y339.821
X119.504 Y339.442
X119.242 Y339.001
X118.98 Y338.497
X118.738 Y337.96
X118.515 Y337.378
X118.31 Y336.739
X118.133 Y336.053
X117.989 Y335.336
X117.885 Y334.604
X117.823 Y333.868
X117.802 Y333.146
X117.822 Y332.456
X117.877 Y331.802
X117.958 Y331.226
X118.061 Y330.712
X118.179 Y330.257
X118.298 Y329.884
X118.417 Y329.574
X118.542 Y329.295
X118.67 Y329.048
X118.71 Y328.98
X118.911 Y328.7
X119.157 Y328.458
X119.441 Y328.262
X119.754 Y328.118
X120.087 Y328.03
X120.431 Y328
X121.764
G3 X121.992 Y328.054 I-0.021 J0.6
X122.34 Y328.543 I-0.249 J0.546
G1 X123.563 Y341.343
G3 X123.214 Y341.946 I-0.597 J0.057
X122.986 Y342 I-0.249 J-0.546
G1 X121.667
X121.517 Y341.992
X121.368 Y341.976
X121.221 Y341.949
X121.073 Y341.913
X120.915 Y341.865
X120.743 Y341.802
X120.563 Y341.723
X120.364 Y341.624
X120.163 Y341.508
X119.94 Y341.363
X119.721 Y341.201
X119.481 Y341.003
X119.236 Y340.776
X118.986 Y340.517
X118.719 Y340.207
X118.463 Y339.873
X118.202 Y339.49
X117.935 Y339.047
X117.679 Y338.562
X117.44 Y338.04
X117.21 Y337.453
X117 Y336.811
X116.818 Y336.127
X116.67 Y335.412
X116.561 Y334.682
X116.494 Y333.947
X116.468 Y333.23
X116.483 Y332.542
X116.534 Y331.891
X116.615 Y331.291
X116.715 Y330.77
X116.833 Y330.303
X116.948 Y329.934
X117.072 Y329.603
X117.192 Y329.332
X117.324 Y329.073
X117.371 Y328.992
X117.571 Y328.708
X117.818 Y328.464
X118.103 Y328.266
X118.417 Y328.12
X118.753 Y328.03
X119.098 Y328
X120.431
G3 X120.659 Y328.054 I-0.021 J0.6
X121.007 Y328.542 I-0.249 J0.546
G1 X122.244 Y341.343
G3 X121.895 Y341.946 I-0.597 J0.058
X121.667 Y342 I-0.249 J-0.546
G1 X120.368
X120.188 Y341.991
X120.039 Y341.975
X119.891 Y341.949
X119.741 Y341.912
X119.586 Y341.865
X119.411 Y341.801
X119.233 Y341.724
X119.034 Y341.624
X118.835 Y341.51
X118.615 Y341.367
X118.392 Y341.204
X118.155 Y341.008
X117.905 Y340.777
X117.659 Y340.523
X117.397 Y340.219
X117.134 Y339.878
X116.877 Y339.502
X116.612 Y339.063
X116.35 Y338.568
X116.111 Y338.048
X115.882 Y337.466
X115.672 Y336.827
X115.489 Y336.144
X115.34 Y335.431
X115.231 Y334.702
X115.163 Y333.97
X115.136 Y333.249
X115.15 Y332.557
X115.2 Y331.901
X115.28 Y331.303
X115.379 Y330.784
X115.497 Y330.314
X115.613 Y329.941
X115.736 Y329.612
X115.857 Y329.337
X115.988 Y329.079
X116.037 Y328.994
X116.237 Y328.71
X116.484 Y328.465
X116.769 Y328.266
X117.084 Y328.12
X117.42 Y328.03
X117.766 Y328
X119.098
G3 X119.326 Y328.054 I-0.021 J0.6
X119.675 Y328.54 I-0.249 J0.546
G1 X120.945 Y341.341
G3 X120.596 Y341.946 I-0.597 J0.059
X120.368 Y342 I-0.249 J-0.546
G1 X118.959
X118.809 Y341.992
X118.66 Y341.973
X118.513 Y341.943
X118.357 Y341.902
X118.199 Y341.85
X118.019 Y341.78
X117.836 Y341.697
X117.636 Y341.591
X117.427 Y341.465
X117.209 Y341.318
X116.973 Y341.137
X116.74 Y340.937
X116.485 Y340.691
X116.232 Y340.419
X115.976 Y340.11
X115.706 Y339.744
X115.446 Y339.346
X115.19 Y338.902
X114.933 Y338.393
X114.686 Y337.825
X114.466 Y337.229
X114.27 Y336.59
X114.101 Y335.903
X113.966 Y335.184
X113.871 Y334.448
X113.817 Y333.711
X113.806 Y332.988
X113.833 Y332.3
X113.894 Y331.676
X113.98 Y331.114
X114.089 Y330.601
X114.203 Y330.181
X114.329 Y329.806
X114.443 Y329.517
X114.575 Y329.234
X114.698 Y329.003
X114.725 Y328.959
X114.926 Y328.685
X115.171 Y328.448
X115.453 Y328.256
X115.763 Y328.115
X116.093 Y328.029
X116.433 Y328
X117.766
G3 X117.994 Y328.054 I-0.021 J0.6
X118.342 Y328.544 I-0.249 J0.546
G1 X119.535 Y341.345
G3 X119.187 Y341.946 I-0.597 J0.056
X118.959 Y342 I-0.249 J-0.546
G1 X117.64
X117.49 Y341.992
X117.341 Y341.974
X117.194 Y341.945
X117.047 Y341.908
X116.883 Y341.855
X116.712 Y341.79
X116.526 Y341.707
X116.33 Y341.606
X116.123 Y341.484
X115.9 Y341.334
X115.677 Y341.166
X115.433 Y340.96
X115.191 Y340.731
X114.938 Y340.462
X114.669 Y340.143
X114.414 Y339.802
X114.149 Y339.404
X113.881 Y338.947
X113.632 Y338.461
X113.394 Y337.926
X113.168 Y337.328
X112.963 Y336.677
X112.787 Y335.985
X112.646 Y335.265
X112.545 Y334.531
X112.487 Y333.8
X112.47 Y333.089
X112.492 Y332.406
X112.549 Y331.768
X112.635 Y331.18
X112.739 Y330.671
X112.859 Y330.219
X112.976 Y329.859
X113.098 Y329.546
X113.221 Y329.275
X113.351 Y329.027
X113.384 Y328.972
X113.585 Y328.694
X113.83 Y328.454
X114.113 Y328.26
X114.425 Y328.117
X114.757 Y328.029
X115.099 Y328
X116.433
G3 X116.66 Y328.054 I-0.021 J0.6
X117.009 Y328.543 I-0.249 J0.546
G1 X118.216 Y341.344
G3 X117.868 Y341.946 I-0.597 J0.056
X117.64 Y342 I-0.249 J-0.546
G1 X116.341
X116.189 Y341.992
X116.04 Y341.977
X115.893 Y341.95
X115.747 Y341.915
X115.586 Y341.866
X115.418 Y341.804
X115.234 Y341.725
X115.04 Y341.627
X114.837 Y341.511
X114.616 Y341.367
X114.396 Y341.206
X114.152 Y341.005
X113.912 Y340.783
X113.66 Y340.522
X113.394 Y340.214
X113.141 Y339.886
X112.877 Y339.5
X112.608 Y339.054
X112.358 Y338.582
X112.115 Y338.052
X111.882 Y337.46
X111.67 Y336.816
X111.487 Y336.131
X111.339 Y335.423
X111.23 Y334.699
X111.162 Y333.967
X111.136 Y333.246
X111.15 Y332.559
X111.2 Y331.91
X111.279 Y331.311
X111.381 Y330.78
X111.498 Y330.312
X111.612 Y329.945
X111.738 Y329.609
X111.856 Y329.34
X111.99 Y329.077
X112.038 Y328.994
X112.238 Y328.71
X112.485 Y328.465
X112.77 Y328.266
X113.085 Y328.12
X113.421 Y328.03
X113.767 Y328
X115.099
G3 X115.327 Y328.054 I-0.021 J0.6
X115.676 Y328.542 I-0.249 J0.546
G1 X116.917 Y341.342
G3 X116.569 Y341.946 I-0.597 J0.058
X116.341 Y342 I-0.249 J-0.546
G1 X115.022
X114.858 Y341.992
X114.709 Y341.976
X114.561 Y341.95
X114.411 Y341.913
X114.256 Y341.866
X114.081 Y341.802
X113.903 Y341.725
X113.704 Y341.625
X113.505 Y341.511
X113.285 Y341.368
X113.062 Y341.204
X112.825 Y341.009
X112.574 Y340.777
X112.33 Y340.525
X112.068 Y340.222
X111.804 Y339.878
X111.547 Y339.503
X111.281 Y339.062
X111.017 Y338.565
X110.777 Y338.043
X110.549 Y337.462
X110.339 Y336.825
X110.157 Y336.144
X110.008 Y335.431
X109.899 Y334.703
X109.831 Y333.972
X109.804 Y333.252
X109.818 Y332.558
X109.868 Y331.901
X109.948 Y331.304
X110.047 Y330.785
X110.165 Y330.315
X110.281 Y329.941
X110.404 Y329.613
X110.525 Y329.337
X110.656 Y329.079
X110.706 Y328.994
X110.906 Y328.71
X111.152 Y328.465
X111.437 Y328.266
X111.752 Y328.12
X112.088 Y328.03
X112.434 Y328
X113.767
G3 X113.995 Y328.054 I-0.021 J0.6
X114.343 Y328.541 I-0.249 J0.546
G1 X115.598 Y341.342
G3 X115.25 Y341.946 I-0.597 J0.059
X115.022 Y342 I-0.249 J-0.546
G1 X113.723
X113.524 Y341.99
X113.375 Y341.974
X113.228 Y341.948
X113.077 Y341.911
X112.923 Y341.864
X112.748 Y341.8
X112.571 Y341.724
X112.371 Y341.624
X112.173 Y341.51
