%
(1001)
(crosssupportstenoncheeks_ z0 stock top)
(T1  D=22 CR=0 - ZMIN=-6.25 - flat end mill)
G90 G94
G17
G21

(2D Adaptive1)
M9
T1 M6
(22mm Facing Bit)
S6000 M3
G54
M9
G0 X518.062 Y-2.158
Z15
Z5
Z-1.85
G1 Z-4.05 F850
X518.055 Y-2.156 Z-4.232
X518.033 Y-2.151 Z-4.412
X517.997 Y-2.142 Z-4.59
X517.947 Y-2.129 Z-4.764
X517.883 Y-2.112 Z-4.934
X517.806 Y-2.093 Z-5.097
X517.715 Y-2.069 Z-5.253
X517.613 Y-2.043 Z-5.401
X517.499 Y-2.014 Z-5.54
X517.375 Y-1.982 Z-5.669
X517.24 Y-1.948 Z-5.786
X517.097 Y-1.911 Z-5.892
X516.946 Y-1.872 Z-5.985
X516.787 Y-1.832 Z-6.065
X516.623 Y-1.79 Z-6.131
X516.454 Y-1.746 Z-6.183
X516.282 Y-1.702 Z-6.22
X516.107 Y-1.657 Z-6.242
X515.931 Y-1.612 Z-6.25
G3 X503.954 Y0.11 I-13.937 J-54.409
G1 X503.879
X502.919 Y-0.617
X501.913 Y-1.279
X500.869 Y-1.879
X499.793 Y-2.42
X498.692 Y-2.907
X497.569 Y-3.342
X496.43 Y-3.731
X495.276 Y-4.077
X494.112 Y-4.384
X492.939 Y-4.655
X491.759 Y-4.894
X490.573 Y-5.105
X489.383 Y-5.29
X488.19 Y-5.452
X486.994 Y-5.593
X485.796 Y-5.717
X484.597 Y-5.825
X483.396 Y-5.919
X482.195 Y-6.001
X480.993 Y-6.072
X479.79 Y-6.134
X478.587 Y-6.187
X477.384 Y-6.234
X476.181 Y-6.274
X474.977 Y-6.309
X473.773 Y-6.339
X472.569 Y-6.365
X471.365 Y-6.387
X470.161 Y-6.407
X468.957 Y-6.424
X467.753 Y-6.438
X466.549 Y-6.451
X465.345 Y-6.462
X464.141 Y-6.471
X462.937 Y-6.479
X461.733 Y-6.486
X460.529 Y-6.492
X459.324 Y-6.497
X458.12 Y-6.502
X456.916 Y-6.506
X454.508 Y-6.512
X453.304 Y-6.514
X452.101 Y-6.567
X450.897 Y-6.612
X449.694 Y-6.651
X448.49 Y-6.684
X447.286 Y-6.713
X446.082 Y-6.738
X444.878 Y-6.76
X443.674 Y-6.778
X442.47 Y-6.794
X441.266 Y-6.807
X440.062 Y-6.819
X438.858 Y-6.829
X437.654 Y-6.838
X436.45 Y-6.845
X435.246 Y-6.851
X434.041 Y-6.857
X432.837 Y-6.862
X431.633 Y-6.866
X429.225 Y-6.872
X426.816 Y-6.877
X424.408 Y-6.88
X420.796 Y-6.884
X415.979 Y-6.887
X408.754 Y-6.889
X403.937
X378.65 Y-6.89
X353.363
X302.788
X252.213
X201.638
X151.063
X100.488
X49.914
X7.768
X6.571 Y-6.757
X5.405 Y-6.455
X4.287 Y-6.01
X3.225 Y-5.441
X2.227 Y-4.768
X1.296 Y-4.003
X0.434 Y-3.163
X-0.359 Y-2.257
X-1.085 Y-1.296
X-1.746 Y-0.289
X-2.344 Y0.755
X-2.884 Y1.832
X-3.369 Y2.934
X-3.802 Y4.058
X-4.188 Y5.198
X-4.53 Y6.353
X-4.576 Y6.53
X-4.731 Y6.987
X-4.951 Y7.416
X-5.232 Y7.809
X-5.566 Y8.156
X-5.948 Y8.451
X-6.368 Y8.687
X-6.818 Y8.86
X-7.289 Y8.965
X-7.77 Y9
G3 X-8.606 Y8.803 I0.077 J-2.199
G1 X-8.771 Y8.728 Z-6.242
X-8.935 Y8.653 Z-6.22
X-9.097 Y8.579 Z-6.183
X-9.256 Y8.507 Z-6.131
X-9.41 Y8.437 Z-6.065
X-9.558 Y8.369 Z-5.985
X-9.701 Y8.304 Z-5.892
X-9.835 Y8.243 Z-5.786
X-9.962 Y8.185 Z-5.669
X-10.079 Y8.132 Z-5.54
X-10.185 Y8.083 Z-5.401
X-10.282 Y8.039 Z-5.253
X-10.366 Y8.001 Z-5.097
X-10.439 Y7.968 Z-4.934
X-10.499 Y7.94 Z-4.764
X-10.546 Y7.919 Z-4.59
X-10.58 Y7.903 Z-4.412
X-10.601 Y7.894 Z-4.232
X-10.608 Y7.891 Z-4.05
G0 Z5
X518.015 Y6.732
Z-1.85
G1 Z-4.05 F850
X518.007 Y6.734 Z-4.232
X517.985 Y6.739 Z-4.412
X517.949 Y6.748 Z-4.59
X517.899 Y6.761 Z-4.764
X517.835 Y6.778 Z-4.934
X517.758 Y6.797 Z-5.097
X517.667 Y6.821 Z-5.253
X517.565 Y6.847 Z-5.401
X517.451 Y6.876 Z-5.54
X517.327 Y6.908 Z-5.669
X517.192 Y6.942 Z-5.786
X517.049 Y6.979 Z-5.892
X516.898 Y7.018 Z-5.985
X516.739 Y7.058 Z-6.065
X516.575 Y7.1 Z-6.131
X516.406 Y7.144 Z-6.183
X516.234 Y7.188 Z-6.22
X516.059 Y7.233 Z-6.242
X515.883 Y7.278 Z-6.25
G3 X503.907 Y9 I-13.937 J-54.409
G1 X503.682
X503.663 Y8.999
X502.908 Y8.061
X502.102 Y7.166
X501.243 Y6.323
X500.335 Y5.532
X499.385 Y4.792
X498.396 Y4.105
X497.374 Y3.468
X496.324 Y2.879
X495.248 Y2.338
X494.151 Y1.842
X493.035 Y1.389
X491.904 Y0.977
X490.759 Y0.602
X489.604 Y0.262
X488.439 Y-0.044
X487.267 Y-0.32
X486.089 Y-0.569
X484.906 Y-0.791
X483.718 Y-0.991
X482.527 Y-1.169
X481.334 Y-1.327
X480.138 Y-1.469
X478.94 Y-1.594
X477.741 Y-1.706
X476.541 Y-1.805
X475.34 Y-1.892
X474.138 Y-1.969
X472.936 Y-2.038
X471.734 Y-2.098
X470.531 Y-2.151
X469.327 Y-2.198
X468.124 Y-2.239
X466.92 Y-2.275
X465.716 Y-2.307
X464.513 Y-2.335
X463.309 Y-2.359
X462.105 Y-2.381
X460.901 Y-2.399
X459.697 Y-2.42
X458.493 Y-2.445
X457.289 Y-2.473
X456.085 Y-2.501
X453.678 Y-2.559
X452.474 Y-2.586
X451.27 Y-2.613
X450.066 Y-2.638
X448.862 Y-2.661
X447.658 Y-2.683
X446.454 Y-2.703
X445.25 Y-2.722
X444.046 Y-2.739
X442.842 Y-2.755
X441.638 Y-2.769
X440.434 Y-2.782
X439.23 Y-2.794
X438.026 Y-2.804
X436.821 Y-2.814
X435.617 Y-2.822
X434.413 Y-2.83
X433.209 Y-2.837
X432.005 Y-2.843
X430.801 Y-2.848
X429.597 Y-2.853
X427.188 Y-2.861
X424.78 Y-2.868
X422.372 Y-2.873
X418.759 Y-2.878
X415.147 Y-2.882
X410.33 Y-2.885
X405.513 Y-2.887
X395.88 Y-2.889
X374.205 Y-2.89
X354.938
X304.364
X253.789
X203.214
X152.639
X102.064
X51.49
X16.569
X15.366 Y-2.84
X14.171 Y-2.688
X12.994 Y-2.434
X11.844 Y-2.077
X10.729 Y-1.624
X9.654 Y-1.079
X8.627 Y-0.451
X7.648 Y0.249
X6.715 Y1.01
X5.821 Y1.818
X4.962 Y2.661
X4.127 Y3.529
X3.308 Y4.412
X2.494 Y5.3
X1.675 Y6.182
X0.836 Y7.046
X0.01 Y7.922
X-0.32 Y8.238
X-0.691 Y8.505
X-1.096 Y8.719
X-1.526 Y8.874
X-1.973 Y8.968
X-2.429 Y9
G3 X-3.265 Y8.803 I0.077 J-2.199
G1 X-3.43 Y8.728 Z-6.242
X-3.594 Y8.653 Z-6.22
X-3.756 Y8.579 Z-6.183
X-3.915 Y8.507 Z-6.131
X-4.069 Y8.437 Z-6.065
X-4.217 Y8.369 Z-5.985
X-4.36 Y8.304 Z-5.892
X-4.494 Y8.243 Z-5.786
X-4.62 Y8.185 Z-5.669
X-4.737 Y8.132 Z-5.54
X-4.844 Y8.083 Z-5.401
X-4.941 Y8.039 Z-5.253
X-5.025 Y8.001 Z-5.097
X-5.098 Y7.968 Z-4.934
X-5.158 Y7.94 Z-4.764
X-5.205 Y7.919 Z-4.59
X-5.239 Y7.903 Z-4.412
X-5.26 Y7.894 Z-4.232
X-5.267 Y7.891 Z-4.05
G0 Z5
X506.402 Y7.632
Z-1.85
G1 Z-4.05 F850
X506.396 Y7.636 Z-4.232
X506.376 Y7.648 Z-4.412
X506.344 Y7.667 Z-4.59
X506.3 Y7.693 Z-4.764
X506.243 Y7.727 Z-4.934
X506.174 Y7.768 Z-5.097
X506.094 Y7.815 Z-5.253
X506.003 Y7.869 Z-5.401
X505.902 Y7.929 Z-5.54
X505.792 Y7.995 Z-5.669
X505.672 Y8.066 Z-5.786
X505.545 Y8.142 Z-5.892
X505.411 Y8.221 Z-5.985
X505.271 Y8.305 Z-6.065
X505.125 Y8.391 Z-6.131
X504.975 Y8.481 Z-6.183
X504.822 Y8.571 Z-6.22
X504.667 Y8.664 Z-6.242
X504.511 Y8.757 Z-6.25
G3 X503.682 Y9 I-0.89 J-1.496
G1 X500.918
X500.843 Y8.996
X499.732 Y8.532
X498.622 Y8.066
X497.508 Y7.607
X496.389 Y7.162
X495.264 Y6.733
X494.132 Y6.323
X492.993 Y5.933
X491.846 Y5.565
X490.693 Y5.219
X489.533 Y4.895
X488.368 Y4.593
X487.197 Y4.311
X486.021 Y4.051
X484.841 Y3.81
X483.658 Y3.588
X482.471 Y3.385
X481.281 Y3.198
X480.089 Y3.027
X478.895 Y2.871
X477.7 Y2.729
X476.502 Y2.6
X475.304 Y2.484
X474.104 Y2.378
X472.904 Y2.282
X471.703 Y2.196
X470.501 Y2.118
X469.299 Y2.048
X468.097 Y1.985
X466.894 Y1.928
X465.691 Y1.875
X464.488 Y1.826
X463.284 Y1.779
X462.081 Y1.735
X460.878 Y1.694
X459.674 Y1.654
X458.47 Y1.616
X457.267 Y1.58
X456.063 Y1.546
X454.859 Y1.513
X453.656 Y1.482
X452.452 Y1.453
X451.248 Y1.426
X450.044 Y1.4
X448.84 Y1.376
X447.636 Y1.354
X446.432 Y1.333
X445.228 Y1.313
X444.024 Y1.295
X442.82 Y1.279
X441.616 Y1.263
X440.412 Y1.249
X439.208 Y1.236
X438.004 Y1.224
X436.8 Y1.213
X435.596 Y1.203
X434.392 Y1.194
X433.187 Y1.185
X431.983 Y1.178
X430.779 Y1.171
X429.575 Y1.165
X428.371 Y1.159
X425.962 Y1.149
X423.554 Y1.142
X421.146 Y1.135
X418.738 Y1.13
X415.125 Y1.124
X411.513 Y1.12
X406.696 Y1.116
X400.675 Y1.113
X392.246 Y1.111
X375.388 Y1.11
X350.1
X299.525
X248.951
X198.376
X147.801
X97.226
X46.651
X24.977
X23.772 Y1.112
X22.569 Y1.142
X21.368 Y1.234
X20.175 Y1.399
X18.995 Y1.638
X17.831 Y1.948
X16.688 Y2.325
X15.566 Y2.764
X14.468 Y3.258
X13.393 Y3.8
X12.341 Y4.385
X11.309 Y5.006
X10.298 Y5.661
X9.304 Y6.34
X8.319 Y7.033
X7.336 Y7.728
X6.344 Y8.41
X6.259 Y8.465
X5.843 Y8.696
X5.398 Y8.864
X4.933 Y8.966
X4.459 Y9
X0.301
G3 X-0.535 Y8.803 I0.077 J-2.199
G1 X-0.7 Y8.728 Z-6.242
X-0.864 Y8.653 Z-6.22
X-1.026 Y8.579 Z-6.183
X-1.185 Y8.507 Z-6.131
X-1.339 Y8.437 Z-6.065
X-1.488 Y8.369 Z-5.985
X-1.63 Y8.304 Z-5.892
X-1.765 Y8.243 Z-5.786
X-1.891 Y8.185 Z-5.669
X-2.008 Y8.132 Z-5.54
X-2.115 Y8.083 Z-5.401
X-2.211 Y8.039 Z-5.253
X-2.296 Y8.001 Z-5.097
X-2.368 Y7.968 Z-4.934
X-2.428 Y7.94 Z-4.764
X-2.476 Y7.919 Z-4.59
X-2.51 Y7.903 Z-4.412
X-2.53 Y7.894 Z-4.232
X-2.537 Y7.891 Z-4.05
G0 Z5
X503.638 Y7.632
Z-1.85
G1 Z-4.05 F850
X503.631 Y7.636 Z-4.232
X503.612 Y7.648 Z-4.412
X503.58 Y7.667 Z-4.59
X503.535 Y7.693 Z-4.764
X503.479 Y7.727 Z-4.934
X503.41 Y7.768 Z-5.097
X503.33 Y7.815 Z-5.253
X503.239 Y7.869 Z-5.401
X503.138 Y7.929 Z-5.54
X503.028 Y7.995 Z-5.669
X502.908 Y8.066 Z-5.786
X502.781 Y8.142 Z-5.892
X502.647 Y8.221 Z-5.985
X502.507 Y8.305 Z-6.065
X502.361 Y8.391 Z-6.131
X502.211 Y8.481 Z-6.183
X502.058 Y8.571 Z-6.22
X501.903 Y8.664 Z-6.242
X501.747 Y8.757 Z-6.25
G3 X500.918 Y9 I-0.89 J-1.496
G1 X495.638
X494.398 Y8.935
X493.199 Y8.831
X492.001 Y8.701
X490.806 Y8.553
X489.613 Y8.394
X488.42 Y8.23
X487.227 Y8.063
X486.035 Y7.898
X484.841 Y7.735
X483.648 Y7.576
X482.453 Y7.423
X481.258 Y7.277
X480.062 Y7.137
X478.865 Y7.005
X477.667 Y6.881
X476.469 Y6.764
X475.27 Y6.654
X474.07 Y6.552
X472.87 Y6.457
X471.669 Y6.368
X470.467 Y6.285
X469.266 Y6.207
X468.064 Y6.135
X466.862 Y6.067
X465.659 Y6.003
X464.456 Y5.943
X463.254 Y5.887
X462.051 Y5.834
X460.847 Y5.784
X459.644 Y5.737
X458.441 Y5.693
X457.237 Y5.651
X456.034 Y5.612
X454.83 Y5.576
X453.627 Y5.541
X452.423 Y5.509
X451.219 Y5.478
X450.015 Y5.45
X448.811 Y5.423
X447.607 Y5.399
X446.404 Y5.375
X445.2 Y5.354
X443.996 Y5.334
X442.792 Y5.315
X441.588 Y5.298
X440.383 Y5.282
X439.179 Y5.267
X437.975 Y5.253
X436.771 Y5.241
X435.567 Y5.229
X434.363 Y5.219
X433.159 Y5.209
X431.955 Y5.2
X430.751 Y5.191
X429.546 Y5.184
X428.342 Y5.177
X427.138 Y5.171
X425.934 Y5.165
X423.526 Y5.155
X421.117 Y5.146
X418.709 Y5.14
X416.301 Y5.134
X412.688 Y5.127
X409.076 Y5.123
X404.259 Y5.118
X398.238 Y5.115
X394.626 Y5.113
X384.993 Y5.111
X365.726 Y5.11
X344.051
X293.476
X242.901
X192.327
X141.752
X91.177
X40.602
X32.173
X30.969 Y5.111
X29.765 Y5.12
X28.561 Y5.155
X27.359 Y5.226
X26.161 Y5.343
X24.968 Y5.508
X23.783 Y5.721
X22.608 Y5.984
X21.444 Y6.295
X20.294 Y6.652
X19.158 Y7.05
X18.035 Y7.486
X16.925 Y7.953
X15.827 Y8.446
X15.296 Y8.693
X14.849 Y8.862
X14.382 Y8.965
X13.906 Y9
X4.459
G3 X3.623 Y8.803 I0.077 J-2.199
G1 X3.458 Y8.728 Z-6.242
X3.294 Y8.653 Z-6.22
X3.132 Y8.579 Z-6.183
X2.973 Y8.507 Z-6.131
X2.819 Y8.437 Z-6.065
X2.67 Y8.369 Z-5.985
X2.528 Y8.304 Z-5.892
X2.393 Y8.243 Z-5.786
X2.267 Y8.185 Z-5.669
X2.15 Y8.132 Z-5.54
X2.043 Y8.083 Z-5.401
X1.947 Y8.039 Z-5.253
X1.862 Y8.001 Z-5.097
X1.79 Y7.968 Z-4.934
X1.73 Y7.94 Z-4.764
X1.682 Y7.919 Z-4.59
X1.648 Y7.903 Z-4.412
X1.628 Y7.894 Z-4.232
X1.621 Y7.891 Z-4.05
G0 Z5
X498.358 Y7.632
Z-1.85
G1 Z-4.05 F850
X498.352 Y7.636 Z-4.232
X498.332 Y7.648 Z-4.412
X498.3 Y7.667 Z-4.59
X498.256 Y7.693 Z-4.764
X498.199 Y7.727 Z-4.934
X498.13 Y7.768 Z-5.097
X498.05 Y7.815 Z-5.253
X497.959 Y7.869 Z-5.401
X497.858 Y7.929 Z-5.54
X497.748 Y7.995 Z-5.669
X497.629 Y8.066 Z-5.786
X497.501 Y8.142 Z-5.892
X497.367 Y8.221 Z-5.985
X497.227 Y8.305 Z-6.065
X497.081 Y8.391 Z-6.131
X496.931 Y8.481 Z-6.183
X496.778 Y8.571 Z-6.22
X496.623 Y8.664 Z-6.242
X496.467 Y8.757 Z-6.25
G3 X495.638 Y9 I-0.89 J-1.496
G1 X14.523
X14.415 Y8.986 Z-6.243
X14.309 Y8.972 Z-6.222
X14.206 Y8.958 Z-6.188
X14.108 Y8.946 Z-6.142
X14.027 Y8.919 Z-6.087
X13.953 Y8.894 Z-6.024
X13.886 Y8.872 Z-5.951
X13.828 Y8.853 Z-5.871
X13.779 Y8.836 Z-5.784
X13.739 Y8.823 Z-5.692
X13.711 Y8.814 Z-5.596
X13.693 Y8.806 Z-5.492
X13.687 Y8.803 Z-5.386
G0 Z5
X-25.062 Y402.158
Z-1.85
G1 Z-4.05 F850
X-25.055 Y402.156 Z-4.232
X-25.033 Y402.151 Z-4.412
X-24.997 Y402.142 Z-4.59
X-24.947 Y402.129 Z-4.764
X-24.883 Y402.112 Z-4.934
X-24.806 Y402.093 Z-5.097
X-24.715 Y402.069 Z-5.253
X-24.613 Y402.043 Z-5.401
X-24.499 Y402.014 Z-5.54
X-24.375 Y401.982 Z-5.669
X-24.24 Y401.948 Z-5.786
X-24.097 Y401.911 Z-5.892
X-23.946 Y401.872 Z-5.985
X-23.787 Y401.832 Z-6.065
X-23.623 Y401.79 Z-6.131
X-23.454 Y401.746 Z-6.183
X-23.282 Y401.702 Z-6.22
X-23.107 Y401.657 Z-6.242
X-22.931 Y401.612 Z-6.25
G3 X-10.954 Y399.89 I13.937 J54.409
G1 X-10.879
X-9.919 Y400.617
X-8.913 Y401.279
X-7.869 Y401.879
X-6.793 Y402.42
X-5.692 Y402.907
X-4.569 Y403.342
X-3.43 Y403.731
X-2.276 Y404.077
X-1.112 Y404.384
X0.061 Y404.655
X1.241 Y404.894
X2.427 Y405.105
X3.617 Y405.29
X4.81 Y405.452
X6.006 Y405.593
X7.204 Y405.717
X8.403 Y405.825
X9.604 Y405.919
X10.805 Y406.001
X12.007 Y406.072
X13.21 Y406.134
X14.413 Y406.187
X15.616 Y406.234
X16.819 Y406.274
X18.023 Y406.309
X19.227 Y406.339
X20.431 Y406.365
X21.635 Y406.387
X22.839 Y406.407
X24.043 Y406.424
X25.247 Y406.438
X26.451 Y406.451
X27.655 Y406.462
X28.859 Y406.471
X30.063 Y406.479
X31.267 Y406.486
X32.471 Y406.492
X33.676 Y406.497
X34.88 Y406.502
X36.084 Y406.506
X38.492 Y406.512
X39.696 Y406.514
X40.899 Y406.567
X42.103 Y406.612
X43.306 Y406.651
X44.51 Y406.684
X45.714 Y406.713
X46.918 Y406.738
X48.122 Y406.76
X49.326 Y406.778
X50.53 Y406.794
X51.734 Y406.807
X52.938 Y406.819
X54.142 Y406.829
X55.346 Y406.838
X56.55 Y406.845
X57.754 Y406.851
X58.959 Y406.857
X60.163 Y406.862
X61.367 Y406.866
X63.775 Y406.872
X66.184 Y406.877
X68.592 Y406.88
X72.204 Y406.884
X77.021 Y406.887
X84.246 Y406.889
X89.063
X114.35 Y406.89
X139.637
X190.212
X240.787
X291.362
X341.937
X392.512
X443.086
X485.232
X486.429 Y406.757
X487.595 Y406.455
X488.713 Y406.01
X489.775 Y405.441
X490.773 Y404.768
X491.704 Y404.004
X492.566 Y403.163
X493.359 Y402.257
X494.085 Y401.296
X494.746 Y400.289
X495.344 Y399.245
X495.884 Y398.168
X496.369 Y397.066
X496.802 Y395.942
X497.188 Y394.802
X497.53 Y393.647
X497.833 Y392.482
X498.1 Y391.308
X498.335 Y390.127
X498.541 Y388.94
X498.721 Y387.75
X498.879 Y386.556
X499.016 Y385.359
X499.135 Y384.161
X499.238 Y382.961
X499.328 Y381.761
X499.406 Y380.559
X499.473 Y379.357
X499.531 Y378.154
X499.581 Y376.951
X499.624 Y375.747
X499.662 Y374.544
X499.694 Y373.34
X499.721 Y372.136
X499.745 Y370.932
X499.765 Y369.728
X499.783 Y368.524
X499.798 Y367.32
X499.811 Y366.116
X499.822 Y364.912
X499.832 Y363.708
X499.84 Y362.504
X499.847 Y361.3
X499.853 Y360.095
X499.86 Y358.369
X499.898 Y357.957
X500.006 Y357.558
X500.182 Y357.184
X500.42 Y356.846
X500.713 Y356.554
X501.052 Y356.317
X501.427 Y356.143
X501.826 Y356.036
X502.238 Y356
G3 X503.074 Y356.197 I-0.077 J2.199
G1 X503.239 Y356.272 Z-6.242
X503.403 Y356.347 Z-6.22
X503.565 Y356.421 Z-6.183
X503.724 Y356.493 Z-6.131
X503.878 Y356.563 Z-6.065
X504.026 Y356.631 Z-5.985
X504.168 Y356.696 Z-5.892
X504.303 Y356.757 Z-5.786
X504.429 Y356.815 Z-5.669
X504.546 Y356.868 Z-5.54
X504.653 Y356.917 Z-5.401
X504.749 Y356.961 Z-5.253
X504.834 Y356.999 Z-5.097
X504.907 Y357.032 Z-4.934
X504.967 Y357.06 Z-4.764
X505.014 Y357.081 Z-4.59
X505.048 Y357.097 Z-4.412
X505.069 Y357.106 Z-4.232
X505.075 Y357.109 Z-4.05
G0 Z5
X-25.012 Y358.268
Z-1.85
G1 Z-4.05 F850
X-25.005 Y358.266 Z-4.232
X-24.983 Y358.261 Z-4.412
X-24.947 Y358.252 Z-4.59
X-24.897 Y358.239 Z-4.764
X-24.833 Y358.222 Z-4.934
X-24.756 Y358.203 Z-5.097
X-24.665 Y358.179 Z-5.253
X-24.563 Y358.153 Z-5.401
X-24.449 Y358.124 Z-5.54
X-24.325 Y358.092 Z-5.669
X-24.19 Y358.058 Z-5.786
X-24.047 Y358.021 Z-5.892
X-23.896 Y357.982 Z-5.985
X-23.737 Y357.942 Z-6.065
X-23.573 Y357.9 Z-6.131
X-23.404 Y357.856 Z-6.183
X-23.232 Y357.812 Z-6.22
X-23.057 Y357.767 Z-6.242
X-22.881 Y357.722 Z-6.25
G3 X-10.905 Y356 I13.937 J54.409
G1 X-10.705
X-10.667 Y356.002
X-10.555 Y356.141
X-10.42 Y356.324
X-10.263 Y356.56
X-10.085 Y356.857
X-9.885 Y357.227
X-9.663 Y357.684
X-9.422 Y358.249
X-9.16 Y358.948
X-8.879 Y359.818
X-8.578 Y360.917
X-8.315 Y362.092
X-8.096 Y363.276
X-7.913 Y364.466
X-7.76 Y365.661
X-7.631 Y366.858
X-7.522 Y368.057
X-7.429 Y369.258
X-7.35 Y370.459
X-7.284 Y371.662
X-7.227 Y372.865
X-7.178 Y374.068
X-7.137 Y375.271
X-7.101 Y376.475
X-7.071 Y377.679
X-7.045 Y378.882
X-7.023 Y380.086
X-7.004 Y381.29
X-6.988 Y382.495
X-6.974 Y383.699
X-6.962 Y384.903
X-6.949 Y386.107
X-6.79 Y387.3
X-6.497 Y388.468
X-6.083 Y389.599
X-5.559 Y390.683
X-4.938 Y391.715
X-4.231 Y392.69
X-3.448 Y393.605
X-2.599 Y394.459
X-1.693 Y395.252
X-0.738 Y395.985
X0.26 Y396.659
X1.294 Y397.276
X2.358 Y397.839
X3.448 Y398.351
X4.56 Y398.814
X5.689 Y399.233
X6.833 Y399.61
X7.988 Y399.947
X9.154 Y400.25
X10.327 Y400.52
X11.507 Y400.76
X12.692 Y400.973
X13.882 Y401.163
X15.074 Y401.33
X16.269 Y401.478
X17.466 Y401.609
X18.665 Y401.724
X19.865 Y401.825
X21.066 Y401.914
X22.267 Y401.992
X23.47 Y402.06
X24.672 Y402.12
X25.875 Y402.173
X27.078 Y402.218
X28.282 Y402.259
X29.486 Y402.294
X30.689 Y402.324
X33.097 Y402.377
X34.301 Y402.407
X35.505 Y402.439
X37.912 Y402.504
X39.116 Y402.536
X40.32 Y402.566
X41.523 Y402.595
X42.727 Y402.622
X43.931 Y402.647
X45.135 Y402.671
X46.339 Y402.693
X47.543 Y402.713
X48.747 Y402.731
X49.951 Y402.748
X51.155 Y402.763
X52.359 Y402.776
X53.563 Y402.789
X54.768 Y402.8
X55.972 Y402.81
X57.176 Y402.819
X58.38 Y402.827
X59.584 Y402.834
X60.788 Y402.841
X61.992 Y402.846
X63.197 Y402.852
X64.401 Y402.856
X66.809 Y402.864
X69.217 Y402.87
X71.626 Y402.874
X75.238 Y402.879
X78.851 Y402.883
X83.667 Y402.886
X90.892 Y402.888
X102.934 Y402.89
X107.75
X158.325
X208.9
X259.475
X310.05
X360.625
X411.199
X461.774
X476.224
X477.428 Y402.856
X478.625 Y402.723
X479.805 Y402.486
X480.96 Y402.146
X482.082 Y401.709
X483.164 Y401.18
X484.2 Y400.565
X485.185 Y399.873
X486.118 Y399.111
X486.995 Y398.286
X487.816 Y397.406
X488.581 Y396.476
X489.29 Y395.503
X489.945 Y394.492
X490.548 Y393.45
X491.1 Y392.38
X491.605 Y391.286
X492.064 Y390.173
X492.481 Y389.043
X492.857 Y387.9
X493.197 Y386.744
X493.503 Y385.58
X493.777 Y384.407
X494.022 Y383.228
X494.241 Y382.044
X494.436 Y380.856
X494.61 Y379.664
X494.764 Y378.47
X494.901 Y377.274
X495.021 Y376.076
X495.128 Y374.876
X495.222 Y373.676
X495.305 Y372.474
X495.378 Y371.272
X495.442 Y370.07
X495.499 Y368.867
X495.548 Y367.664
X495.591 Y366.461
X495.632 Y365.257
X495.683 Y364.054
X495.764 Y362.853
X495.829 Y362.254
X495.945 Y361.405
X496.068 Y360.733
X496.209 Y360.123
X496.356 Y359.6
X496.734 Y358.457
X496.815 Y358.222
X496.992 Y357.804
X497.225 Y357.415
X497.509 Y357.062
X497.839 Y356.75
X498.208 Y356.487
X498.61 Y356.277
X499.037 Y356.124
X499.481 Y356.031
X499.934 Y356
G3 X500.769 Y356.197 I-0.077 J2.199
G1 X500.935 Y356.272 Z-6.242
X501.099 Y356.347 Z-6.22
X501.261 Y356.421 Z-6.183
X501.419 Y356.493 Z-6.131
X501.573 Y356.563 Z-6.065
X501.722 Y356.631 Z-5.985
X501.864 Y356.696 Z-5.892
X501.999 Y356.757 Z-5.786
X502.125 Y356.815 Z-5.669
X502.242 Y356.868 Z-5.54
X502.349 Y356.917 Z-5.401
X502.445 Y356.961 Z-5.253
X502.53 Y356.999 Z-5.097
X502.603 Y357.032 Z-4.934
X502.663 Y357.06 Z-4.764
X502.71 Y357.081 Z-4.59
X502.744 Y357.097 Z-4.412
X502.764 Y357.106 Z-4.232
X502.771 Y357.109 Z-4.05
G0 Z5
X-13.425 Y357.368
Z-1.85
G1 Z-4.05 F850
X-13.418 Y357.364 Z-4.232
X-13.399 Y357.352 Z-4.412
X-13.367 Y357.333 Z-4.59
X-13.322 Y357.307 Z-4.764
X-13.266 Y357.273 Z-4.934
X-13.197 Y357.232 Z-5.097
X-13.117 Y357.185 Z-5.253
X-13.026 Y357.131 Z-5.401
X-12.925 Y357.071 Z-5.54
X-12.815 Y357.005 Z-5.669
X-12.695 Y356.934 Z-5.786
X-12.568 Y356.858 Z-5.892
X-12.434 Y356.779 Z-5.985
X-12.293 Y356.695 Z-6.065
X-12.148 Y356.609 Z-6.131
X-11.998 Y356.519 Z-6.183
X-11.845 Y356.429 Z-6.22
X-11.69 Y356.336 Z-6.242
X-11.534 Y356.243 Z-6.25
G3 X-10.705 Y356 I0.89 J1.496
G1 X-9.786
X-9.737 Y356.002
X-9.675 Y356.044
X-9.614 Y356.087
X-9.553 Y356.131
X-9.492 Y356.175
X-9.432 Y356.221
X-9.373 Y356.267
X-9.315 Y356.313
X-9.257 Y356.361
X-9.199 Y356.409
X-9.142 Y356.458
X-9.086 Y356.508
X-9.03 Y356.558
X-8.975 Y356.608
X-8.92 Y356.66
X-8.866 Y356.712
X-8.812 Y356.764
X-8.759 Y356.817
X-8.707 Y356.87
X-8.654 Y356.924
X-8.603 Y356.978
X-8.552 Y357.033
X-8.501 Y357.089
X-8.451 Y357.144
X-8.401 Y357.201
X-8.352 Y357.257
X-8.303 Y357.314
X-8.255 Y357.371
X-8.207 Y357.429
X-8.159 Y357.487
X-8.112 Y357.545
X-8.065 Y357.604
X-8.019 Y357.663
X-7.974 Y357.723
X-7.928 Y357.783
X-7.883 Y357.843
X-7.795 Y357.964
X-7.708 Y358.086
X-7.622 Y358.209
X-7.539 Y358.334
X-7.456 Y358.459
X-7.375 Y358.585
X-7.296 Y358.713
X-7.218 Y358.841
X-7.141 Y358.97
X-7.066 Y359.099
X-6.992 Y359.23
X-6.92 Y359.361
X-6.848 Y359.493
X-6.778 Y359.626
X-6.709 Y359.759
X-6.641 Y359.893
X-6.575 Y360.027
X-6.51 Y360.162
X-6.443 Y360.302
X-6.376 Y360.447
X-6.31 Y360.592
X-6.246 Y360.738
X-6.18 Y360.89
X-6.112 Y361.049
X-6.044 Y361.214
X-5.974 Y361.386
X-5.907 Y361.557
X-5.839 Y361.733
X-5.77 Y361.916
X-5.7 Y362.107
X-5.629 Y362.307
X-5.559 Y362.508
X-5.489 Y362.714
X-5.418 Y362.929
X-5.346 Y363.155
X-5.309 Y363.272
X-5.273 Y363.389
X-5.238 Y363.505
X-5.202 Y363.624
X-5.166 Y363.746
X-5.13 Y363.871
X-5.093 Y363.999
X-5.056 Y364.13
X-5.019 Y364.264
X-4.982 Y364.399
X-4.946 Y364.534
X-4.909 Y364.672
X-4.873 Y364.813
X-4.836 Y364.959
X-4.798 Y365.108
X-4.761 Y365.261
X-4.723 Y365.417
X-4.686 Y365.572
X-4.649 Y365.73
X-4.612 Y365.894
X-4.574 Y366.062
X-4.536 Y366.234
X-4.498 Y366.412
X-4.46 Y366.589
X-4.423 Y366.77
X-4.385 Y366.957
X-4.347 Y367.149
X-4.308 Y367.347
X-4.27 Y367.551
X-4.232 Y367.754
X-4.194 Y367.964
X-4.155 Y368.181
X-4.117 Y368.406
X-4.078 Y368.637
X-4.039 Y368.869
X-4.001 Y369.11
X-3.962 Y369.359
X-3.923 Y369.618
X-3.884 Y369.881
X-3.846 Y370.151
X-3.807 Y370.433
X-3.767 Y370.725
X-3.728 Y371.024
X-3.689 Y371.333
X-3.65 Y371.655
X-3.61 Y371.991
X-3.571 Y372.335
X-3.532 Y372.695
X-3.492 Y373.073
X-3.453 Y373.461
X-3.414 Y373.869
X-3.374 Y374.298
X-3.335 Y374.743
X-3.295 Y375.215
X-3.255 Y375.709
X-3.216 Y376.232
X-3.175 Y376.796
X-3.094 Y377.997
X-2.958 Y379.194
X-2.742 Y380.378
X-2.438 Y381.543
X-2.047 Y382.682
X-1.571 Y383.788
X-1.014 Y384.856
X-0.38 Y385.88
X0.324 Y386.857
X1.092 Y387.784
X1.919 Y388.66
X2.797 Y389.483
X3.723 Y390.253
X4.689 Y390.972
X5.691 Y391.639
X6.725 Y392.257
X7.786 Y392.827
X8.87 Y393.351
X9.974 Y393.831
X11.096 Y394.27
X12.231 Y394.67
X13.379 Y395.034
X14.537 Y395.364
X15.704 Y395.663
X16.865 Y395.981
X18.035 Y396.267
X19.211 Y396.524
X20.393 Y396.754
X21.58 Y396.959
X22.77 Y397.142
X23.963 Y397.305
X25.158 Y397.45
X26.356 Y397.579
X27.554 Y397.696
X28.754 Y397.801
X29.954 Y397.897
X31.155 Y397.984
X32.357 Y398.063
X33.559 Y398.135
X34.761 Y398.201
X35.964 Y398.262
X37.166 Y398.318
X38.37 Y398.369
X39.573 Y398.416
X40.776 Y398.459
X41.98 Y398.498
X43.183 Y398.534
X44.387 Y398.567
X45.591 Y398.598
X46.795 Y398.625
X47.999 Y398.651
X49.203 Y398.674
X50.406 Y398.695
X51.61 Y398.714
X52.815 Y398.731
X54.019 Y398.747
X55.223 Y398.761
X56.427 Y398.774
X57.631 Y398.786
X58.835 Y398.797
X60.039 Y398.807
X61.243 Y398.815
X62.447 Y398.823
X63.652 Y398.83
X64.856 Y398.837
X66.06 Y398.842
X67.264 Y398.847
X69.672 Y398.856
X72.081 Y398.863
X74.489 Y398.869
X78.101 Y398.875
X81.714 Y398.88
X86.531 Y398.884
X92.551 Y398.887
X100.98 Y398.889
X115.43 Y398.89
X166.005
X216.58
X267.155
X317.73
X368.304
X418.879
X468.25
X469.454 Y398.887
X470.658 Y398.846
X471.857 Y398.741
X473.047 Y398.558
X474.222 Y398.293
X475.374 Y397.943
X476.498 Y397.511
X477.588 Y396.999
X478.639 Y396.412
X479.647 Y395.753
X480.609 Y395.028
X481.522 Y394.244
X482.386 Y393.404
X483.198 Y392.515
X483.96 Y391.583
X484.671 Y390.611
X485.332 Y389.605
X485.946 Y388.568
X486.512 Y387.506
X487.034 Y386.421
X487.513 Y385.316
X487.952 Y384.194
X488.352 Y383.059
X488.717 Y381.911
X489.049 Y380.754
X489.349 Y379.588
X489.621 Y378.415
X489.866 Y377.236
X490.087 Y376.052
X490.285 Y374.864
X490.464 Y373.673
X490.625 Y372.48
X490.772 Y371.285
X490.91 Y370.089
X491.047 Y368.892
X491.187 Y367.696
X491.34 Y366.502
X491.513 Y365.31
X491.715 Y364.123
X491.948 Y362.942
X492.195 Y361.88
X492.437 Y361.019
X492.672 Y360.311
X492.904 Y359.707
X493.143 Y359.159
X493.379 Y358.682
X493.622 Y358.24
X493.866 Y357.842
X494.133 Y357.449
X494.416 Y357.087
X494.747 Y356.769
X495.119 Y356.499
X495.525 Y356.284
X495.957 Y356.127
X496.406 Y356.032
X496.864 Y356
G3 X497.7 Y356.197 I-0.077 J2.199
G1 X497.865 Y356.272 Z-6.242
X498.029 Y356.347 Z-6.22
X498.191 Y356.421 Z-6.183
X498.35 Y356.493 Z-6.131
X498.504 Y356.563 Z-6.065
X498.653 Y356.631 Z-5.985
X498.795 Y356.696 Z-5.892
X498.93 Y356.757 Z-5.786
X499.056 Y356.815 Z-5.669
X499.173 Y356.868 Z-5.54
X499.28 Y356.917 Z-5.401
X499.376 Y356.961 Z-5.253
X499.461 Y356.999 Z-5.097
X499.533 Y357.032 Z-4.934
X499.593 Y357.06 Z-4.764
X499.641 Y357.081 Z-4.59
X499.675 Y357.097 Z-4.412
X499.695 Y357.106 Z-4.232
X499.702 Y357.109 Z-4.05
G0 Z5
X-12.506 Y357.368
Z-1.85
G1 Z-4.05 F850
X-12.5 Y357.364 Z-4.232
X-12.48 Y357.352 Z-4.412
X-12.448 Y357.333 Z-4.59
X-12.404 Y357.307 Z-4.764
X-12.347 Y357.273 Z-4.934
X-12.278 Y357.232 Z-5.097
X-12.198 Y357.185 Z-5.253
X-12.107 Y357.131 Z-5.401
X-12.006 Y357.071 Z-5.54
X-11.896 Y357.005 Z-5.669
X-11.777 Y356.934 Z-5.786
X-11.649 Y356.858 Z-5.892
X-11.515 Y356.779 Z-5.985
X-11.375 Y356.695 Z-6.065
X-11.229 Y356.609 Z-6.131
X-11.079 Y356.519 Z-6.183
X-10.926 Y356.429 Z-6.22
X-10.771 Y356.336 Z-6.242
X-10.615 Y356.243 Z-6.25
G3 X-9.786 Y356 I0.89 J1.496
G1 X-8.376
X-8.301 Y356.004
X-8.059 Y356.125
X-7.8 Y356.268
X-7.526 Y356.438
X-7.237 Y356.636
X-6.931 Y356.866
X-6.61 Y357.132
X-6.273 Y357.438
X-5.921 Y357.788
X-5.554 Y358.189
X-5.172 Y358.646
X-4.775 Y359.168
X-4.365 Y359.762
X-3.941 Y360.44
X-3.505 Y361.216
X-3.056 Y362.107
X-2.595 Y363.136
X-2.154 Y364.256
X-1.762 Y365.395
X-1.412 Y366.547
X-1.1 Y367.71
X-0.822 Y368.882
X-0.574 Y370.06
X-0.351 Y371.243
X-0.13 Y372.427
X0.12 Y373.605
X0.419 Y374.772
X0.776 Y375.921
X1.198 Y377.049
X1.685 Y378.151
X2.237 Y379.22
X2.854 Y380.255
X3.532 Y381.25
X4.267 Y382.204
X5.056 Y383.113
X5.895 Y383.977
X6.78 Y384.794
X7.706 Y385.564
X8.667 Y386.288
X9.659 Y386.971
X10.679 Y387.612
X11.723 Y388.212
X12.789 Y388.771
X13.876 Y389.291
X14.979 Y389.772
X16.098 Y390.217
X17.23 Y390.628
X18.374 Y391.005
X19.527 Y391.351
X20.689 Y391.667
X21.858 Y391.957
X23.033 Y392.222
X24.212 Y392.463
X25.396 Y392.683
X26.584 Y392.884
X27.774 Y393.066
X28.966 Y393.233
X30.161 Y393.384
X31.357 Y393.522
X32.555 Y393.647
X33.754 Y393.761
X34.953 Y393.865
X36.154 Y393.959
X37.355 Y394.045
X38.557 Y394.123
X39.759 Y394.194
X40.961 Y394.259
X42.164 Y394.318
X43.367 Y394.371
X44.57 Y394.42
X45.773 Y394.464
X46.977 Y394.505
X48.18 Y394.541
X49.384 Y394.574
X50.588 Y394.605
X51.792 Y394.632
X52.996 Y394.657
X54.2 Y394.68
X55.403 Y394.7
X56.608 Y394.719
X57.812 Y394.735
X59.016 Y394.751
X60.22 Y394.765
X61.424 Y394.777
X62.628 Y394.788
X63.832 Y394.799
X65.036 Y394.808
X66.24 Y394.816
X67.444 Y394.824
X68.649 Y394.83
X69.853 Y394.837
X71.057 Y394.842
X72.261 Y394.847
X74.669 Y394.855
X77.078 Y394.862
X79.486 Y394.868
X83.098 Y394.874
X86.711 Y394.879
X91.528 Y394.883
X97.548 Y394.886
X105.978 Y394.888
X120.427 Y394.89
X122.836
X173.411
X223.985
X274.56
X325.135
X375.71
X426.285
X461.205
X462.41 Y394.888
X463.614 Y394.871
X464.817 Y394.822
X466.017 Y394.721
X467.21 Y394.558
X468.391 Y394.324
X469.555 Y394.017
X470.697 Y393.634
X471.811 Y393.177
X472.893 Y392.649
X473.938 Y392.051
X474.943 Y391.387
X475.905 Y390.663
X476.822 Y389.882
X477.692 Y389.05
X478.514 Y388.17
X479.289 Y387.248
X480.016 Y386.288
X480.695 Y385.294
X481.329 Y384.27
X481.917 Y383.22
X482.463 Y382.146
X482.967 Y381.052
X483.431 Y379.941
X483.859 Y378.816
X484.253 Y377.678
X484.616 Y376.53
X484.952 Y375.373
X485.265 Y374.211
X485.559 Y373.043
X485.838 Y371.872
X486.108 Y370.698
X486.637 Y368.348
X486.906 Y367.175
X487.188 Y366.004
X487.489 Y364.838
X487.816 Y363.679
X488.177 Y362.53
X488.581 Y361.396
X488.966 Y360.45
X489.303 Y359.719
X489.641 Y359.068
X489.948 Y358.536
X490.265 Y358.041
X490.559 Y357.626
X490.87 Y357.227
X490.931 Y357.155
X491.265 Y356.818
X491.643 Y356.532
X492.059 Y356.303
X492.503 Y356.136
X492.966 Y356.034
X493.439 Y356
G3 X494.275 Y356.197 I-0.077 J2.199
G1 X494.44 Y356.272 Z-6.242
X494.604 Y356.347 Z-6.22
X494.766 Y356.421 Z-6.183
X494.925 Y356.493 Z-6.131
X495.079 Y356.563 Z-6.065
X495.228 Y356.631 Z-5.985
X495.37 Y356.696 Z-5.892
X495.504 Y356.757 Z-5.786
X495.631 Y356.815 Z-5.669
X495.748 Y356.868 Z-5.54
X495.855 Y356.917 Z-5.401
X495.951 Y356.961 Z-5.253
X496.035 Y356.999 Z-5.097
X496.108 Y357.032 Z-4.934
X496.168 Y357.06 Z-4.764
X496.216 Y357.081 Z-4.59
X496.249 Y357.097 Z-4.412
X496.27 Y357.106 Z-4.232
X496.277 Y357.109 Z-4.05
G0 Z5
X-11.096 Y357.368
Z-1.85
G1 Z-4.05 F850
X-11.09 Y357.364 Z-4.232
X-11.07 Y357.352 Z-4.412
X-11.038 Y357.333 Z-4.59
X-10.994 Y357.307 Z-4.764
X-10.937 Y357.273 Z-4.934
X-10.868 Y357.232 Z-5.097
X-10.788 Y357.185 Z-5.253
X-10.698 Y357.131 Z-5.401
X-10.597 Y357.071 Z-5.54
X-10.486 Y357.005 Z-5.669
X-10.367 Y356.934 Z-5.786
X-10.24 Y356.858 Z-5.892
X-10.105 Y356.779 Z-5.985
X-9.965 Y356.695 Z-6.065
X-9.819 Y356.609 Z-6.131
X-9.669 Y356.519 Z-6.183
X-9.517 Y356.429 Z-6.22
X-9.361 Y356.336 Z-6.242
X-9.205 Y356.243 Z-6.25
G3 X-8.376 Y356 I0.89 J1.496
G1 X-6.803
X-6.728 Y356.004
X-6.495 Y356.075
X-6.235 Y356.168
X-5.961 Y356.28
X-5.673 Y356.414
X-5.355 Y356.58
X-5.036 Y356.766
X-4.683 Y356.993
X-4.325 Y357.248
X-3.943 Y357.546
X-3.541 Y357.892
X-3.134 Y358.276
X-2.693 Y358.732
X-2.259 Y359.223
X-1.801 Y359.793
X-1.324 Y360.445
X-0.843 Y361.17
X-0.352 Y361.991
X0.154 Y362.93
X0.672 Y364.009
X1.144 Y365.117
X1.574 Y366.242
X1.981 Y367.375
X2.388 Y368.509
X2.811 Y369.636
X3.265 Y370.751
X3.758 Y371.85
X4.296 Y372.927
X4.881 Y373.979
X5.516 Y375.003
X6.199 Y375.995
X6.928 Y376.953
X7.703 Y377.875
X8.52 Y378.759
X9.378 Y379.604
X10.274 Y380.408
X11.205 Y381.172
X12.168 Y381.895
X13.161 Y382.577
X14.18 Y383.218
X15.223 Y383.82
X16.287 Y384.383
X17.371 Y384.909
X18.471 Y385.398
X19.586 Y385.853
X20.714 Y386.275
X21.853 Y386.665
X23.002 Y387.026
X24.159 Y387.358
X25.324 Y387.665
X26.494 Y387.947
X27.67 Y388.206
X28.851 Y388.443
X30.035 Y388.661
X31.223 Y388.861
X32.413 Y389.043
X33.605 Y389.21
X34.8 Y389.362
X35.996 Y389.501
X37.193 Y389.628
X38.392 Y389.744
X39.592 Y389.85
X40.792 Y389.946
X41.993 Y390.033
X43.194 Y390.113
X44.396 Y390.185
X45.599 Y390.251
X46.801 Y390.311
X48.004 Y390.365
X49.208 Y390.415
X50.411 Y390.46
X51.614 Y390.501
X52.818 Y390.538
X54.022 Y390.571
X55.225 Y390.602
X56.429 Y390.629
X57.633 Y390.654
X58.837 Y390.677
X60.041 Y390.698
X61.245 Y390.716
X62.449 Y390.733
X63.653 Y390.749
X64.857 Y390.763
X66.061 Y390.775
X67.265 Y390.786
X68.47 Y390.797
X69.674 Y390.806
X70.878 Y390.814
X72.082 Y390.822
X73.286 Y390.829
X74.49 Y390.835
X75.694 Y390.84
X78.103 Y390.85
X79.307 Y390.854
X81.715 Y390.861
X84.124 Y390.867
X87.736 Y390.873
X91.349 Y390.878
X96.165 Y390.882
X102.186 Y390.886
X110.615 Y390.888
X125.065 Y390.89
X129.882
X180.457
X231.031
X281.606
X332.181
X382.756
X433.331
X453.801
X455.005
X456.21 Y390.887
X457.414 Y390.874
X458.617 Y390.841
X459.82 Y390.773
X461.018 Y390.658
X462.21 Y390.486
X463.391 Y390.25
X464.556 Y389.947
X465.701 Y389.574
X466.821 Y389.131
X467.912 Y388.62
X468.968 Y388.043
X469.988 Y387.403
X470.968 Y386.703
X471.906 Y385.948
X472.8 Y385.141
X473.649 Y384.287
X474.453 Y383.391
X475.212 Y382.455
X475.926 Y381.486
X476.597 Y380.486
X477.228 Y379.46
X477.819 Y378.411
X478.374 Y377.343
X478.896 Y376.257
X479.387 Y375.158
X479.852 Y374.047
X480.294 Y372.927
X480.718 Y371.8
X481.127 Y370.668
X481.526 Y369.531
X482.314 Y367.256
X482.713 Y366.12
X483.123 Y364.987
X483.549 Y363.861
X483.999 Y362.744
X484.479 Y361.64
X484.996 Y360.552
X485.468 Y359.659
X485.879 Y358.96
X486.278 Y358.349
X486.635 Y357.853
X487 Y357.391
X487.222 Y357.136
X487.555 Y356.804
X487.931 Y356.522
X488.344 Y356.297
X488.785 Y356.133
X489.244 Y356.033
X489.713 Y356
X493.439
G3 X494.275 Y356.197 I-0.077 J2.199
G1 X494.44 Y356.272 Z-6.242
X494.604 Y356.347 Z-6.22
X494.766 Y356.421 Z-6.183
X494.925 Y356.493 Z-6.131
X495.079 Y356.563 Z-6.065
X495.228 Y356.631 Z-5.985
X495.37 Y356.696 Z-5.892
X495.504 Y356.757 Z-5.786
X495.631 Y356.815 Z-5.669
X495.748 Y356.868 Z-5.54
X495.855 Y356.917 Z-5.401
X495.951 Y356.961 Z-5.253
X496.035 Y356.999 Z-5.097
X496.108 Y357.032 Z-4.934
X496.168 Y357.06 Z-4.764
X496.216 Y357.081 Z-4.59
X496.249 Y357.097 Z-4.412
X496.27 Y357.106 Z-4.232
X496.277 Y357.109 Z-4.05
G0 Z5
X-9.523 Y357.368
Z-1.85
G1 Z-4.05 F850
X-9.517 Y357.364 Z-4.232
X-9.497 Y357.352 Z-4.412
X-9.465 Y357.333 Z-4.59
X-9.421 Y357.307 Z-4.764
X-9.364 Y357.273 Z-4.934
X-9.295 Y357.232 Z-5.097
X-9.215 Y357.185 Z-5.253
X-9.124 Y357.131 Z-5.401
X-9.023 Y357.071 Z-5.54
X-8.913 Y357.005 Z-5.669
X-8.794 Y356.934 Z-5.786
X-8.666 Y356.858 Z-5.892
X-8.532 Y356.779 Z-5.985
X-8.392 Y356.695 Z-6.065
X-8.246 Y356.609 Z-6.131
X-8.096 Y356.519 Z-6.183
X-7.943 Y356.429 Z-6.22
X-7.788 Y356.336 Z-6.242
X-7.632 Y356.243 Z-6.25
G3 X-6.803 Y356 I0.89 J1.496
G1 X-4.913
X-4.838 Y356.004
X-4.606 Y356.045
X-4.356 Y356.101
X-4.078 Y356.177
X-3.795 Y356.269
X-3.481 Y356.387
X-3.152 Y356.528
X-2.807 Y356.695
X-2.43 Y356.9
X-2.052 Y357.127
X-1.64 Y357.402
X-1.218 Y357.713
X-0.779 Y358.068
X-0.307 Y358.487
X0.157 Y358.939
X0.655 Y359.47
X1.174 Y360.078
X1.727 Y360.788
X2.383 Y361.716
X3.032 Y362.731
X3.648 Y363.765
X4.249 Y364.809
X4.848 Y365.854
X5.457 Y366.892
X6.085 Y367.92
X6.739 Y368.931
X7.422 Y369.923
X8.137 Y370.891
X8.887 Y371.833
X9.672 Y372.747
X10.491 Y373.63
X11.344 Y374.479
X12.23 Y375.295
X13.147 Y376.075
X14.094 Y376.819
X15.068 Y377.526
X16.068 Y378.197
X17.092 Y378.832
X18.136 Y379.431
X19.201 Y379.994
X20.282 Y380.523
X21.38 Y381.019
X22.491 Y381.482
X23.615 Y381.914
X24.75 Y382.316
X25.895 Y382.69
X27.048 Y383.037
X28.209 Y383.358
X29.376 Y383.655
X30.548 Y383.93
X31.725 Y384.183
X32.907 Y384.416
X34.091 Y384.631
X35.279 Y384.828
X36.47 Y385.01
X37.662 Y385.176
X38.857 Y385.328
X40.053 Y385.468
X41.25 Y385.595
X42.449 Y385.712
X43.648 Y385.819
X44.849 Y385.916
X46.049 Y386.005
X47.251 Y386.086
X48.453 Y386.16
X49.655 Y386.227
X50.858 Y386.289
X52.06 Y386.344
X53.264 Y386.395
X54.467 Y386.441
X55.67 Y386.483
X56.874 Y386.522
X58.077 Y386.556
X59.281 Y386.588
X60.485 Y386.617
X61.689 Y386.643
X62.893 Y386.666
X64.097 Y386.688
X65.301 Y386.707
X66.505 Y386.725
X67.709 Y386.74
X68.913 Y386.755
X70.117 Y386.768
X71.321 Y386.78
X72.525 Y386.791
X73.729 Y386.8
X74.934 Y386.809
X76.138 Y386.817
X77.342 Y386.824
X78.546 Y386.831
X79.75 Y386.837
X80.954 Y386.842
X83.363 Y386.851
X84.567 Y386.855
X86.975 Y386.862
X89.383 Y386.867
X92.996 Y386.873
X96.608 Y386.878
X101.425 Y386.882
X107.446 Y386.885
X115.875 Y386.888
X129.121 Y386.889
X135.142 Y386.89
X185.716
X236.291
X286.866
X337.441
X388.016
X438.59
X448.224
X449.428 Y386.888
X450.632 Y386.884
X451.836 Y386.872
X453.04 Y386.843
X454.243 Y386.787
X455.443 Y386.693
X456.639 Y386.551
X457.827 Y386.354
X459.003 Y386.096
X460.163 Y385.774
X461.303 Y385.385
X462.418 Y384.931
X463.505 Y384.412
X464.56 Y383.831
X465.579 Y383.191
X466.562 Y382.494
X467.506 Y381.746
X468.409 Y380.951
X469.273 Y380.111
X470.096 Y379.233
X470.88 Y378.319
X471.626 Y377.373
X472.335 Y376.4
X473.011 Y375.403
X473.654 Y374.386
X474.269 Y373.35
X474.859 Y372.3
X475.426 Y371.238
X475.974 Y370.166
X476.509 Y369.087
X477.032 Y368.002
X477.549 Y366.915
X478.065 Y365.827
X478.585 Y364.741
X479.112 Y363.658
X479.654 Y362.583
X480.217 Y361.518
X480.807 Y360.469
X481.432 Y359.439
X481.767 Y358.939
X482.254 Y358.258
X482.676 Y357.722
X483.099 Y357.232
X483.289 Y357.031
X483.617 Y356.728
X483.983 Y356.473
X484.381 Y356.269
X484.802 Y356.12
X485.239 Y356.03
X485.685 Y356
X489.713
G3 X490.549 Y356.197 I-0.077 J2.199
G1 X490.714 Y356.272 Z-6.242
X490.878 Y356.347 Z-6.22
X491.04 Y356.421 Z-6.183
X491.199 Y356.493 Z-6.131
X491.353 Y356.563 Z-6.065
X491.501 Y356.631 Z-5.985
X491.644 Y356.696 Z-5.892
X491.778 Y356.757 Z-5.786
X491.904 Y356.815 Z-5.669
X492.021 Y356.868 Z-5.54
X492.128 Y356.917 Z-5.401
X492.225 Y356.961 Z-5.253
X492.309 Y356.999 Z-5.097
X492.382 Y357.032 Z-4.934
X492.442 Y357.06 Z-4.764
X492.489 Y357.081 Z-4.59
X492.523 Y357.097 Z-4.412
X492.544 Y357.106 Z-4.232
X492.551 Y357.109 Z-4.05
G0 Z5
X-7.633 Y357.368
Z-1.85
G1 Z-4.05 F850
X-7.627 Y357.364 Z-4.232
X-7.607 Y357.352 Z-4.412
X-7.575 Y357.333 Z-4.59
X-7.531 Y357.307 Z-4.764
X-7.474 Y357.273 Z-4.934
X-7.405 Y357.232 Z-5.097
X-7.325 Y357.185 Z-5.253
X-7.234 Y357.131 Z-5.401
X-7.133 Y357.071 Z-5.54
X-7.023 Y357.005 Z-5.669
X-6.904 Y356.934 Z-5.786
X-6.776 Y356.858 Z-5.892
X-6.642 Y356.779 Z-5.985
X-6.502 Y356.695 Z-6.065
X-6.356 Y356.609 Z-6.131
X-6.206 Y356.519 Z-6.183
X-6.053 Y356.429 Z-6.22
X-5.898 Y356.336 Z-6.242
X-5.742 Y356.243 Z-6.25
G3 X-4.913 Y356 I0.89 J1.496
G1 X-2.636
X-2.561 Y356.004
X-2.326 Y356.028
X-2.08 Y356.064
X-1.802 Y356.119
X-1.515 Y356.189
X-1.201 Y356.281
X-0.861 Y356.398
X-0.513 Y356.536
X-0.124 Y356.71
X0.268 Y356.909
X0.709 Y357.158
X1.157 Y357.439
X1.648 Y357.78
X2.182 Y358.188
X2.773 Y358.683
X3.469 Y359.324
X4.316 Y360.179
X5.127 Y361.07
X5.912 Y361.982
X6.684 Y362.906
X7.453 Y363.833
X8.227 Y364.756
X9.011 Y365.67
X9.811 Y366.57
X10.63 Y367.452
X11.471 Y368.315
X12.335 Y369.153
X13.222 Y369.967
X14.135 Y370.753
X15.071 Y371.51
X16.031 Y372.237
X17.013 Y372.933
X18.018 Y373.598
X19.042 Y374.231
X20.085 Y374.832
X21.146 Y375.402
X22.223 Y375.941
X23.314 Y376.449
X24.419 Y376.927
X25.537 Y377.377
X26.665 Y377.798
X27.803 Y378.192
X28.949 Y378.56
X30.104 Y378.903
X31.265 Y379.222
X32.432 Y379.519
X33.604 Y379.794
X34.781 Y380.049
X35.962 Y380.285
X37.146 Y380.503
X38.333 Y380.705
X39.523 Y380.891
X40.715 Y381.062
X41.908 Y381.219
X43.104 Y381.364
X44.301 Y381.497
X45.499 Y381.619
X46.698 Y381.731
X47.897 Y381.834
X49.098 Y381.928
X50.299 Y382.014
X51.501 Y382.092
X52.703 Y382.164
X53.905 Y382.23
X55.108 Y382.29
X56.311 Y382.344
X57.514 Y382.394
X58.717 Y382.44
X59.92 Y382.481
X61.124 Y382.519
X62.328 Y382.553
X63.531 Y382.585
X64.735 Y382.613
X65.939 Y382.639
X67.143 Y382.662
X68.347 Y382.684
X69.551 Y382.703
X70.755 Y382.721
X71.959 Y382.737
X73.163 Y382.751
X74.367 Y382.765
X75.571 Y382.777
X76.776 Y382.787
X77.98 Y382.797
X79.184 Y382.806
X80.388 Y382.814
X81.592 Y382.822
X82.796 Y382.828
X84 Y382.834
X85.204 Y382.84
X87.613 Y382.849
X90.021 Y382.857
X92.429 Y382.863
X94.838 Y382.868
X98.45 Y382.874
X102.063 Y382.878
X106.879 Y382.882
X112.9 Y382.886
X121.329 Y382.888
X135.779 Y382.889
X140.596 Y382.89
X191.171
X241.746
X292.32
X342.895
X393.47
X441.636
X442.841 Y382.889
X444.045 Y382.887
X445.249 Y382.882
X446.453 Y382.87
X447.657 Y382.845
X448.86 Y382.799
X450.062 Y382.721
X451.26 Y382.604
X452.453 Y382.438
X453.637 Y382.218
X454.808 Y381.939
X455.964 Y381.6
X457.099 Y381.199
X458.211 Y380.738
X459.297 Y380.217
X460.354 Y379.639
X461.379 Y379.007
X462.37 Y378.324
X463.328 Y377.594
X464.251 Y376.821
X465.139 Y376.008
X465.994 Y375.159
X466.815 Y374.279
X467.605 Y373.37
X468.365 Y372.436
X469.097 Y371.48
X469.805 Y370.506
X470.49 Y369.516
X471.157 Y368.513
X471.808 Y367.499
X472.447 Y366.479
X473.078 Y365.453
X474.332 Y363.398
X474.967 Y362.374
X475.612 Y361.357
X476.276 Y360.353
X476.964 Y359.364
X477.604 Y358.511
X478.167 Y357.829
X478.661 Y357.283
X478.966 Y356.976
X479.291 Y356.689
X479.651 Y356.446
X480.039 Y356.254
X480.45 Y356.114
X480.875 Y356.029
X481.308 Y356
X485.079
G3 X485.914 Y356.197 I-0.077 J2.199
G1 X486.08 Y356.272 Z-6.242
X486.244 Y356.347 Z-6.22
X486.406 Y356.421 Z-6.183
X486.564 Y356.493 Z-6.131
X486.719 Y356.563 Z-6.065
X486.867 Y356.631 Z-5.985
X487.009 Y356.696 Z-5.892
X487.144 Y356.757 Z-5.786
X487.27 Y356.815 Z-5.669
X487.387 Y356.868 Z-5.54
X487.494 Y356.917 Z-5.401
X487.59 Y356.961 Z-5.253
X487.675 Y356.999 Z-5.097
X487.748 Y357.032 Z-4.934
X487.808 Y357.06 Z-4.764
X487.855 Y357.081 Z-4.59
X487.889 Y357.097 Z-4.412
X487.909 Y357.106 Z-4.232
X487.916 Y357.109 Z-4.05
G0 Z5
X-5.356 Y357.368
Z-1.85
G1 Z-4.05 F850
X-5.35 Y357.364 Z-4.232
X-5.33 Y357.352 Z-4.412
X-5.298 Y357.333 Z-4.59
X-5.254 Y357.307 Z-4.764
X-5.197 Y357.273 Z-4.934
X-5.128 Y357.232 Z-5.097
X-5.048 Y357.185 Z-5.253
X-4.957 Y357.131 Z-5.401
X-4.856 Y357.071 Z-5.54
X-4.746 Y357.005 Z-5.669
X-4.627 Y356.934 Z-5.786
X-4.499 Y356.858 Z-5.892
X-4.365 Y356.779 Z-5.985
X-4.225 Y356.695 Z-6.065
X-4.079 Y356.609 Z-6.131
X-3.929 Y356.519 Z-6.183
X-3.776 Y356.429 Z-6.22
X-3.621 Y356.336 Z-6.242
X-3.465 Y356.243 Z-6.25
G3 X-2.636 Y356 I0.89 J1.496
G1 X-0.13
X0.259 Y356.019
X0.522 Y356.045
X0.798 Y356.084
X1.117 Y356.145
X1.447 Y356.223
X1.828 Y356.332
X2.23 Y356.468
X2.682 Y356.644
X3.167 Y356.859
X3.721 Y357.135
X4.35 Y357.486
X5.093 Y357.946
X6.026 Y358.585
X6.987 Y359.31
X7.923 Y360.068
X8.843 Y360.845
X9.753 Y361.634
X10.661 Y362.425
X11.571 Y363.213
X12.488 Y363.994
X13.414 Y364.763
X14.353 Y365.517
X15.306 Y366.254
X16.274 Y366.97
X17.257 Y367.665
X18.257 Y368.336
X19.273 Y368.982
X20.305 Y369.603
X21.352 Y370.197
X22.414 Y370.766
X23.489 Y371.307
X24.578 Y371.822
X25.679 Y372.31
X26.791 Y372.772
X27.913 Y373.208
X29.045 Y373.62
X30.185 Y374.006
X31.333 Y374.37
X32.488 Y374.71
X33.649 Y375.029
X34.816 Y375.327
X35.988 Y375.604
X37.164 Y375.863
X38.344 Y376.104
X39.527 Y376.327
X40.713 Y376.535
X41.902 Y376.727
X43.093 Y376.905
X44.286 Y377.069
X45.48 Y377.221
X46.676 Y377.361
X47.874 Y377.491
X49.072 Y377.61
X50.271 Y377.719
X51.471 Y377.82
X52.671 Y377.913
X53.873 Y377.998
X55.074 Y378.076
X56.276 Y378.147
X57.479 Y378.213
X58.681 Y378.273
X59.884 Y378.327
X61.087 Y378.378
X62.291 Y378.424
X63.494 Y378.465
X64.698 Y378.504
X65.901 Y378.539
X67.105 Y378.571
X68.309 Y378.6
X69.513 Y378.626
X70.717 Y378.65
X71.921 Y378.673
X73.125 Y378.693
X74.329 Y378.711
X75.533 Y378.727
X76.737 Y378.743
X77.941 Y378.756
X79.145 Y378.769
X80.349 Y378.78
X81.553 Y378.791
X82.757 Y378.8
X83.961 Y378.808
X85.166 Y378.816
X86.37 Y378.823
X87.574 Y378.829
X88.778 Y378.835
X91.186 Y378.845
X93.595 Y378.853
X94.799 Y378.857
X97.207 Y378.863
X100.82 Y378.87
X104.432 Y378.875
X108.045 Y378.879
X112.861 Y378.883
X118.882 Y378.886
X128.515 Y378.888
X144.169 Y378.89
X145.374
X195.948
X246.523
X297.098
X347.673
X398.248
X435.577
X436.781 Y378.889
X437.985 Y378.888
X439.189 Y378.886
X440.393 Y378.879
X441.597 Y378.865
X442.801 Y378.838
X444.005 Y378.792
X445.206 Y378.718
X446.406 Y378.609
X447.6 Y378.456
X448.787 Y378.255
X449.964 Y378.002
X451.129 Y377.693
X452.276 Y377.329
X453.405 Y376.909
X454.511 Y376.434
X455.594 Y375.906
X456.65 Y375.328
X457.678 Y374.701
X458.678 Y374.03
X459.648 Y373.317
X460.589 Y372.565
X461.501 Y371.779
X462.385 Y370.961
X463.242 Y370.115
X464.074 Y369.244
X464.882 Y368.352
X465.67 Y367.441
X466.439 Y366.515
X467.193 Y365.576
X467.934 Y364.627
X468.668 Y363.672
X469.396 Y362.713
X470.124 Y361.754
X470.857 Y360.799
X471.601 Y359.852
X472.363 Y358.919
X473.14 Y358.026
X473.76 Y357.375
X474.328 Y356.831
X474.347 Y356.814
X474.725 Y356.529
X475.14 Y356.301
X475.583 Y356.135
X476.046 Y356.034
X476.518 Y356
X481.308
G3 X482.144 Y356.197 I-0.077 J2.199
G1 X482.309 Y356.272 Z-6.242
X482.473 Y356.347 Z-6.22
X482.635 Y356.421 Z-6.183
X482.794 Y356.493 Z-6.131
X482.948 Y356.563 Z-6.065
X483.097 Y356.631 Z-5.985
X483.239 Y356.696 Z-5.892
X483.373 Y356.757 Z-5.786
X483.5 Y356.815 Z-5.669
X483.617 Y356.868 Z-5.54
X483.724 Y356.917 Z-5.401
X483.82 Y356.961 Z-5.253
X483.904 Y356.999 Z-5.097
X483.977 Y357.032 Z-4.934
X484.037 Y357.06 Z-4.764
X484.084 Y357.081 Z-4.59
X484.118 Y357.097 Z-4.412
X484.139 Y357.106 Z-4.232
X484.146 Y357.109 Z-4.05
G0 Z5
X-2.85 Y357.368
Z-1.85
G1 Z-4.05 F850
X-2.844 Y357.364 Z-4.232
X-2.824 Y357.352 Z-4.412
X-2.792 Y357.333 Z-4.59
X-2.748 Y357.307 Z-4.764
X-2.691 Y357.273 Z-4.934
X-2.622 Y357.232 Z-5.097
X-2.542 Y357.185 Z-5.253
X-2.451 Y357.131 Z-5.401
X-2.35 Y357.071 Z-5.54
X-2.24 Y357.005 Z-5.669
X-2.12 Y356.934 Z-5.786
X-1.993 Y356.858 Z-5.892
X-1.859 Y356.779 Z-5.985
X-1.719 Y356.695 Z-6.065
X-1.573 Y356.609 Z-6.131
X-1.423 Y356.519 Z-6.183
X-1.27 Y356.429 Z-6.22
X-1.115 Y356.336 Z-6.242
X-0.959 Y356.243 Z-6.25
G3 X-0.13 Y356 I0.89 J1.496
G1 X3.17
X3.618 Y356.022
X3.951 Y356.054
X4.333 Y356.109
X4.752 Y356.188
X5.229 Y356.302
X5.774 Y356.458
X6.396 Y356.668
X7.132 Y356.955
X8.03 Y357.352
X9.108 Y357.89
X10.161 Y358.472
X11.198 Y359.086
X12.222 Y359.719
X13.239 Y360.364
X14.253 Y361.013
X15.267 Y361.663
X16.284 Y362.307
X17.307 Y362.943
X18.336 Y363.568
X19.374 Y364.178
X20.421 Y364.773
X21.478 Y365.35
X22.545 Y365.908
X23.623 Y366.445
X24.71 Y366.963
X25.807 Y367.459
X26.914 Y367.933
X28.03 Y368.385
X29.154 Y368.816
X30.287 Y369.225
X31.427 Y369.613
X32.574 Y369.98
X33.727 Y370.326
X34.886 Y370.652
X36.051 Y370.959
X37.22 Y371.248
X38.393 Y371.518
X39.571 Y371.771
X40.751 Y372.008
X41.935 Y372.229
X43.121 Y372.435
X44.31 Y372.626
X45.501 Y372.805
X46.694 Y372.97
X47.888 Y373.124
X49.084 Y373.267
X50.281 Y373.399
X51.479 Y373.521
X52.677 Y373.634
X53.877 Y373.738
X55.077 Y373.834
X56.278 Y373.923
X57.48 Y374.004
X58.682 Y374.08
X59.884 Y374.149
X61.086 Y374.212
X62.289 Y374.271
X63.492 Y374.324
X64.695 Y374.373
X65.898 Y374.419
X67.102 Y374.46
X68.305 Y374.498
X69.509 Y374.532
X70.713 Y374.564
X71.917 Y374.593
X73.121 Y374.62
X74.324 Y374.644
X75.528 Y374.666
X76.732 Y374.686
X77.936 Y374.705
X79.14 Y374.721
X80.345 Y374.737
X81.549 Y374.751
X82.753 Y374.763
X83.957 Y374.775
X85.161 Y374.786
X86.365 Y374.795
X87.569 Y374.804
X88.773 Y374.812
X89.977 Y374.819
X91.182 Y374.826
X92.386 Y374.832
X94.794 Y374.842
X97.202 Y374.851
X99.611 Y374.858
X100.815 Y374.861
X103.223 Y374.866
X106.836 Y374.872
X110.448 Y374.877
X115.265 Y374.881
X121.286 Y374.885
X129.715 Y374.888
X142.96 Y374.889
X151.39 Y374.89
X201.964
X252.539
X303.114
X353.689
X404.264
X429.551
X431.959 Y374.889
X433.164 Y374.887
X434.368 Y374.884
X435.572 Y374.876
X436.776 Y374.861
X437.98 Y374.836
X439.183 Y374.792
X440.385 Y374.725
X441.586 Y374.627
X442.782 Y374.493
X443.973 Y374.316
X445.157 Y374.094
X446.33 Y373.823
X447.491 Y373.502
X448.636 Y373.13
X449.764 Y372.709
X450.873 Y372.239
X451.96 Y371.721
X453.024 Y371.158
X454.065 Y370.552
X455.081 Y369.906
X456.073 Y369.224
X457.041 Y368.507
X457.985 Y367.759
X458.906 Y366.984
X459.806 Y366.183
X460.686 Y365.362
X461.549 Y364.522
X462.396 Y363.666
X463.232 Y362.799
X464.058 Y361.923
X464.879 Y361.042
X465.699 Y360.16
X466.524 Y359.283
X467.359 Y358.415
X468.216 Y357.57
X468.961 Y356.894
X469.128 Y356.756
X469.498 Y356.491
X469.901 Y356.279
X470.33 Y356.125
X470.775 Y356.031
X471.23 Y356
X476.518
G3 X477.353 Y356.197 I-0.077 J2.199
G1 X477.519 Y356.272 Z-6.242
X477.683 Y356.347 Z-6.22
X477.845 Y356.421 Z-6.183
X478.003 Y356.493 Z-6.131
X478.157 Y356.563 Z-6.065
X478.306 Y356.631 Z-5.985
X478.448 Y356.696 Z-5.892
X478.583 Y356.757 Z-5.786
X478.709 Y356.815 Z-5.669
X478.826 Y356.868 Z-5.54
X478.933 Y356.917 Z-5.401
X479.029 Y356.961 Z-5.253
X479.114 Y356.999 Z-5.097
X479.187 Y357.032 Z-4.934
X479.247 Y357.06 Z-4.764
X479.294 Y357.081 Z-4.59
X479.328 Y357.097 Z-4.412
X479.348 Y357.106 Z-4.232
X479.355 Y357.109 Z-4.05
G0 Z5
X0.45 Y357.368
Z-1.85
G1 Z-4.05 F850
X0.456 Y357.364 Z-4.232
X0.476 Y357.352 Z-4.412
X0.508 Y357.333 Z-4.59
X0.552 Y357.307 Z-4.764
X0.609 Y357.273 Z-4.934
X0.678 Y357.232 Z-5.097
X0.758 Y357.185 Z-5.253
X0.849 Y357.131 Z-5.401
X0.95 Y357.071 Z-5.54
X1.06 Y357.005 Z-5.669
X1.179 Y356.934 Z-5.786
X1.307 Y356.858 Z-5.892
X1.441 Y356.779 Z-5.985
X1.581 Y356.695 Z-6.065
X1.727 Y356.609 Z-6.131
X1.877 Y356.519 Z-6.183
X2.03 Y356.429 Z-6.22
X2.185 Y356.336 Z-6.242
X2.341 Y356.243 Z-6.25
G3 X3.17 Y356 I0.89 J1.496
G1 X7.626
X8.089 Y356.023
X8.579 Y356.07
X9.145 Y356.151
X9.812 Y356.278
X10.612 Y356.468
X11.602 Y356.752
X12.743 Y357.137
X13.867 Y357.567
X14.979 Y358.03
X16.081 Y358.516
X17.176 Y359.016
X18.268 Y359.523
X19.358 Y360.034
X20.449 Y360.544
X21.542 Y361.05
X22.638 Y361.548
X23.739 Y362.037
X24.844 Y362.514
X25.955 Y362.978
X27.072 Y363.428
X28.195 Y363.863
X29.324 Y364.282
X30.459 Y364.684
X31.6 Y365.07
X32.746 Y365.439
X33.898 Y365.79
X35.055 Y366.124
X36.216 Y366.442
X37.382 Y366.743
X38.552 Y367.027
X39.726 Y367.296
X40.903 Y367.549
X42.084 Y367.788
X43.267 Y368.012
X44.453 Y368.222
X45.641 Y368.419
X46.831 Y368.603
X48.022 Y368.776
X49.216 Y368.936
X50.41 Y369.086
X51.607 Y369.226
X52.804 Y369.356
X54.002 Y369.476
X55.201 Y369.588
X56.4 Y369.692
X57.601 Y369.788
X58.802 Y369.878
X60.003 Y369.96
X61.205 Y370.036
X62.407 Y370.106
X63.609 Y370.171
X64.812 Y370.231
X66.015 Y370.286
X67.218 Y370.337
X68.421 Y370.384
X69.624 Y370.427
X70.828 Y370.466
X72.032 Y370.503
X73.235 Y370.536
X74.439 Y370.567
X75.643 Y370.595
X76.847 Y370.62
X78.051 Y370.644
X79.255 Y370.665
X80.459 Y370.685
X81.663 Y370.703
X82.867 Y370.72
X84.071 Y370.735
X85.275 Y370.749
X86.479 Y370.761
X87.683 Y370.773
X88.887 Y370.784
X90.091 Y370.793
X91.295 Y370.802
X92.5 Y370.81
X93.704 Y370.817
X94.908 Y370.824
X96.112 Y370.83
X98.52 Y370.84
X100.929 Y370.849
X103.337 Y370.856
X105.745 Y370.862
X106.949 Y370.865
X110.562 Y370.871
X114.174 Y370.876
X118.991 Y370.881
X125.012 Y370.884
X133.441 Y370.887
X145.483 Y370.889
X157.524 Y370.89
X208.099
X258.674
X309.249
X359.824
X410.398
X424.848
X426.052 Y370.889
X427.257 Y370.888
X428.461 Y370.886
X429.665 Y370.882
X430.869 Y370.874
X432.073 Y370.859
X433.277 Y370.834
X434.481 Y370.795
X435.683 Y370.735
X436.884 Y370.649
X438.083 Y370.532
X439.277 Y370.38
X440.466 Y370.189
X441.647 Y369.955
X442.819 Y369.677
X443.979 Y369.354
X445.126 Y368.986
X446.257 Y368.573
X447.371 Y368.116
X448.467 Y367.618
X449.544 Y367.079
X450.601 Y366.502
X451.638 Y365.89
X452.655 Y365.245
X453.652 Y364.57
X454.63 Y363.868
X455.591 Y363.142
X456.536 Y362.395
X457.466 Y361.631
X458.385 Y360.852
X459.296 Y360.064
X460.201 Y359.271
X461.106 Y358.476
X462.018 Y357.691
X462.948 Y356.925
X463.278 Y356.674
X463.636 Y356.437
X464.021 Y356.248
X464.428 Y356.111
X464.849 Y356.028
X465.277 Y356
X471.23
G3 X472.065 Y356.197 I-0.077 J2.199
G1 X472.231 Y356.272 Z-6.242
X472.395 Y356.347 Z-6.22
X472.557 Y356.421 Z-6.183
X472.715 Y356.493 Z-6.131
X472.869 Y356.563 Z-6.065
X473.018 Y356.631 Z-5.985
X473.16 Y356.696 Z-5.892
X473.295 Y356.757 Z-5.786
X473.421 Y356.815 Z-5.669
X473.538 Y356.868 Z-5.54
X473.645 Y356.917 Z-5.401
X473.741 Y356.961 Z-5.253
X473.826 Y356.999 Z-5.097
X473.899 Y357.032 Z-4.934
X473.959 Y357.06 Z-4.764
X474.006 Y357.081 Z-4.59
X474.04 Y357.097 Z-4.412
X474.06 Y357.106 Z-4.232
X474.067 Y357.109 Z-4.05
G0 Z5
X4.906 Y357.368
Z-1.85
G1 Z-4.05 F850
X4.913 Y357.364 Z-4.232
X4.932 Y357.352 Z-4.412
X4.964 Y357.333 Z-4.59
X5.009 Y357.307 Z-4.764
X5.066 Y357.273 Z-4.934
X5.134 Y357.232 Z-5.097
X5.214 Y357.185 Z-5.253
X5.305 Y357.131 Z-5.401
X5.406 Y357.071 Z-5.54
X5.517 Y357.005 Z-5.669
X5.636 Y356.934 Z-5.786
X5.763 Y356.858 Z-5.892
X5.897 Y356.779 Z-5.985
X6.038 Y356.695 Z-6.065
X6.183 Y356.609 Z-6.131
X6.333 Y356.519 Z-6.183
X6.486 Y356.429 Z-6.22
X6.641 Y356.336 Z-6.242
X6.797 Y356.243 Z-6.25
G3 X7.626 Y356 I0.89 J1.496
G1 X13.566
X14.523 Y356.048
X15.321 Y356.125
X16.314 Y356.266
X17.497 Y356.491
X18.67 Y356.765
X19.833 Y357.075
X20.99 Y357.411
X22.141 Y357.765
X23.288 Y358.13
X24.433 Y358.503
X26.721 Y359.254
X27.866 Y359.627
X29.013 Y359.994
X30.162 Y360.354
X31.314 Y360.706
X32.468 Y361.048
X33.626 Y361.379
X34.787 Y361.699
X35.951 Y362.007
X37.118 Y362.303
X38.289 Y362.586
X39.462 Y362.857
X40.638 Y363.115
X41.817 Y363.361
X42.998 Y363.594
X44.182 Y363.815
X45.368 Y364.024
X46.556 Y364.221
X47.745 Y364.408
X48.937 Y364.583
X50.13 Y364.747
X51.324 Y364.902
X52.519 Y365.047
X53.716 Y365.183
X54.913 Y365.31
X56.112 Y365.428
X57.311 Y365.539
X58.51 Y365.642
X59.711 Y365.738
X60.912 Y365.827
X62.113 Y365.91
X63.315 Y365.987
X64.517 Y366.059
X65.719 Y366.125
X66.922 Y366.186
X68.124 Y366.243
X69.327 Y366.295
X70.531 Y366.344
X71.734 Y366.388
X72.937 Y366.43
X74.141 Y366.468
X75.345 Y366.503
X76.548 Y366.535
X77.752 Y366.565
X78.956 Y366.592
X80.16 Y366.618
X81.364 Y366.641
X82.568 Y366.662
X83.772 Y366.682
X84.976 Y366.7
X86.18 Y366.716
X87.384 Y366.731
X88.588 Y366.745
X89.792 Y366.758
X90.996 Y366.769
X92.2 Y366.78
X93.404 Y366.789
X94.609 Y366.798
X95.813 Y366.806
X97.017 Y366.814
X98.221 Y366.821
X99.425 Y366.827
X101.833 Y366.838
X104.242 Y366.847
X106.65 Y366.854
X109.058 Y366.86
X112.671 Y366.868
X113.875 Y366.87
X117.487 Y366.875
X122.304 Y366.88
X128.325 Y366.884
X135.55 Y366.887
X146.387 Y366.889
X164.45 Y366.89
X215.025
X265.599
X316.174
X366.749
X417.324
X420.936 Y366.889
X422.141 Y366.888
X423.345 Y366.886
X424.549 Y366.883
X425.753 Y366.876
X426.957 Y366.865
X428.161 Y366.846
X429.365 Y366.816
X430.568 Y366.772
X431.771 Y366.708
X432.972 Y366.62
X434.17 Y366.504
X435.365 Y366.356
X436.555 Y366.173
X437.739 Y365.953
X438.915 Y365.693
X440.082 Y365.394
X441.237 Y365.054
X442.379 Y364.674
X443.508 Y364.255
X444.622 Y363.798
X445.721 Y363.305
X446.803 Y362.778
X447.87 Y362.218
X448.92 Y361.629
X449.955 Y361.014
X450.976 Y360.375
X451.983 Y359.715
X452.98 Y359.039
X453.968 Y358.351
X454.951 Y357.656
X455.938 Y356.966
X456.54 Y356.561
X456.964 Y356.32
X457.419 Y356.143
X457.895 Y356.036
X458.381 Y356
X465.277
G3 X466.113 Y356.197 I-0.077 J2.199
G1 X466.278 Y356.272 Z-6.242
X466.442 Y356.347 Z-6.22
X466.604 Y356.421 Z-6.183
X466.763 Y356.493 Z-6.131
X466.917 Y356.563 Z-6.065
X467.065 Y356.631 Z-5.985
X467.208 Y356.696 Z-5.892
X467.342 Y356.757 Z-5.786
X467.468 Y356.815 Z-5.669
X467.585 Y356.868 Z-5.54
X467.692 Y356.917 Z-5.401
X467.789 Y356.961 Z-5.253
X467.873 Y356.999 Z-5.097
X467.946 Y357.032 Z-4.934
X468.006 Y357.06 Z-4.764
X468.053 Y357.081 Z-4.59
X468.087 Y357.097 Z-4.412
X468.108 Y357.106 Z-4.232
X468.115 Y357.109 Z-4.05
G0 Z5
X10.846 Y357.368
Z-1.85
G1 Z-4.05 F850
X10.852 Y357.364 Z-4.232
X10.872 Y357.352 Z-4.412
X10.904 Y357.333 Z-4.59
X10.948 Y357.307 Z-4.764
X11.005 Y357.273 Z-4.934
X11.074 Y357.232 Z-5.097
X11.154 Y357.185 Z-5.253
X11.245 Y357.131 Z-5.401
X11.346 Y357.071 Z-5.54
X11.456 Y357.005 Z-5.669
X11.575 Y356.934 Z-5.786
X11.703 Y356.858 Z-5.892
X11.837 Y356.779 Z-5.985
X11.977 Y356.695 Z-6.065
X12.123 Y356.609 Z-6.131
X12.273 Y356.519 Z-6.183
X12.426 Y356.429 Z-6.22
X12.581 Y356.336 Z-6.242
X12.737 Y356.243 Z-6.25
G3 X13.566 Y356 I0.89 J1.496
G1 X22.442
X23.645 Y356.06
X24.847 Y356.13
X26.045 Y356.252
X27.239 Y356.412
X28.428 Y356.599
X29.614 Y356.807
X30.798 Y357.029
X31.979 Y357.262
X33.16 Y357.5
X34.339 Y357.742
X35.519 Y357.984
X36.699 Y358.224
X37.879 Y358.462
X39.061 Y358.695
X40.243 Y358.923
X41.427 Y359.144
X42.612 Y359.359
X43.798 Y359.565
X44.985 Y359.764
X46.174 Y359.955
X47.365 Y360.138
X48.556 Y360.312
X49.749 Y360.478
X50.943 Y360.636
X52.137 Y360.786
X53.333 Y360.927
X54.53 Y361.061
X55.727 Y361.187
X56.926 Y361.306
X58.125 Y361.418
X59.324 Y361.523
X60.524 Y361.622
X61.725 Y361.714
X62.926 Y361.801
X64.127 Y361.881
X65.329 Y361.957
X66.531 Y362.027
X67.734 Y362.093
X68.936 Y362.154
X70.139 Y362.211
X71.342 Y362.263
X72.545 Y362.312
X73.749 Y362.358
X74.952 Y362.4
X76.156 Y362.439
X77.359 Y362.475
X78.563 Y362.508
X79.767 Y362.539
X80.971 Y362.568
X82.174 Y362.594
X83.378 Y362.618
X84.582 Y362.641
X85.786 Y362.661
X86.99 Y362.68
X88.194 Y362.698
X89.398 Y362.714
X90.602 Y362.729
X91.807 Y362.743
X93.011 Y362.755
X94.215 Y362.767
X95.419 Y362.777
X96.623 Y362.787
X97.827 Y362.796
X99.031 Y362.804
X100.235 Y362.811
X101.44 Y362.818
X102.644 Y362.824
X105.052 Y362.835
X107.46 Y362.845
X109.869 Y362.852
X112.277 Y362.859
X115.889 Y362.866
X119.502 Y362.872
X123.114 Y362.877
X127.931 Y362.881
X133.952 Y362.884
X142.381 Y362.887
X155.627 Y362.889
X173.689 Y362.89
X224.264
X274.839
X325.414
X375.988
X413.317
X415.726 Y362.889
X416.93
X418.134 Y362.887
X419.338 Y362.884
X420.542 Y362.88
X421.747 Y362.871
X422.951 Y362.858
X424.155 Y362.837
X425.358 Y362.806
X426.562 Y362.761
X427.764 Y362.699
X428.966 Y362.615
X430.165 Y362.507
X431.361 Y362.372
X432.554 Y362.206
X433.742 Y362.007
X434.923 Y361.774
X436.097 Y361.506
X437.262 Y361.202
X438.418 Y360.863
X439.562 Y360.488
X440.695 Y360.08
X441.816 Y359.64
X442.924 Y359.168
X444.02 Y358.669
X445.103 Y358.144
X446.176 Y357.598
X447.24 Y357.034
X448.3 Y356.461
X448.429 Y356.392
X448.797 Y356.223
X449.184 Y356.1
X449.584 Y356.025
X449.989 Y356
X458.381
G3 X459.217 Y356.197 I-0.077 J2.199
G1 X459.382 Y356.272 Z-6.242
X459.546 Y356.347 Z-6.22
X459.708 Y356.421 Z-6.183
X459.867 Y356.493 Z-6.131
X460.021 Y356.563 Z-6.065
X460.17 Y356.631 Z-5.985
X460.312 Y356.696 Z-5.892
X460.446 Y356.757 Z-5.786
X460.573 Y356.815 Z-5.669
X460.69 Y356.868 Z-5.54
X460.797 Y356.917 Z-5.401
X460.893 Y356.961 Z-5.253
X460.977 Y356.999 Z-5.097
X461.05 Y357.032 Z-4.934
X461.11 Y357.06 Z-4.764
X461.157 Y357.081 Z-4.59
X461.191 Y357.097 Z-4.412
X461.212 Y357.106 Z-4.232
X461.219 Y357.109 Z-4.05
G0 Z5
X19.723 Y357.368
Z-1.85
G1 Z-4.05 F850
X19.729 Y357.364 Z-4.232
X19.748 Y357.352 Z-4.412
X19.78 Y357.333 Z-4.59
X19.825 Y357.307 Z-4.764
X19.882 Y357.273 Z-4.934
X19.95 Y357.232 Z-5.097
X20.03 Y357.185 Z-5.253
X20.121 Y357.131 Z-5.401
X20.222 Y357.071 Z-5.54
X20.333 Y357.005 Z-5.669
X20.452 Y356.934 Z-5.786
X20.579 Y356.858 Z-5.892
X20.713 Y356.779 Z-5.985
X20.854 Y356.695 Z-6.065
X20.999 Y356.609 Z-6.131
X21.149 Y356.519 Z-6.183
X21.302 Y356.429 Z-6.22
X21.457 Y356.336 Z-6.242
X21.613 Y356.243 Z-6.25
G3 X22.442 Y356 I0.89 J1.496
G1 X38.942
X40.144 Y356.06
X41.348 Y356.083
X42.551 Y356.13
X43.754 Y356.196
X44.955 Y356.275
X46.156 Y356.364
X47.357 Y356.46
X48.556 Y356.561
X49.756 Y356.665
X52.155 Y356.876
X53.355 Y356.981
X54.554 Y357.084
X55.754 Y357.185
X56.955 Y357.284
X58.155 Y357.379
X59.356 Y357.47
X60.557 Y357.558
X61.758 Y357.642
X62.959 Y357.723
X64.161 Y357.799
X65.363 Y357.872
X66.565 Y357.941
X67.768 Y358.006
X68.97 Y358.067
X70.173 Y358.125
X71.376 Y358.179
X72.579 Y358.23
X73.782 Y358.278
X74.986 Y358.323
X76.189 Y358.365
X77.392 Y358.404
X78.596 Y358.441
X79.8 Y358.475
X81.003 Y358.506
X82.207 Y358.536
X83.411 Y358.563
X84.615 Y358.589
X85.819 Y358.612
X87.023 Y358.634
X88.227 Y358.655
X89.431 Y358.673
X90.635 Y358.691
X91.839 Y358.707
X93.043 Y358.722
X94.247 Y358.736
X95.451 Y358.748
X96.655 Y358.76
X97.859 Y358.771
X99.064 Y358.781
X100.268 Y358.79
X101.472 Y358.798
X102.676 Y358.806
X103.88 Y358.813
X105.084 Y358.819
X107.493 Y358.831
X109.901 Y358.841
X112.309 Y358.849
X114.718 Y358.856
X118.33 Y358.864
X121.942 Y358.87
X125.555 Y358.875
X130.372 Y358.88
X136.392 Y358.884
X140.005 Y358.885
X149.638 Y358.888
X165.292 Y358.889
X190.58 Y358.89
X241.155
X291.729
X342.304
X392.879
X408.533
X410.941 Y358.889
X412.146 Y358.888
X413.35 Y358.887
X414.554 Y358.885
X415.758 Y358.88
X416.962 Y358.874
X418.166 Y358.863
X419.37 Y358.846
X420.574 Y358.822
X421.778 Y358.787
X422.981 Y358.74
X424.184 Y358.676
X425.385 Y358.592
X426.584 Y358.487
X427.782 Y358.358
X428.976 Y358.201
X430.165 Y358.016
X431.35 Y357.8
X432.529 Y357.554
X433.701 Y357.277
X434.865 Y356.969
X436.02 Y356.631
X437.167 Y356.264
X437.407 Y356.181
X437.758 Y356.081
X438.119 Y356.02
X438.485 Y356
X449.989
G3 X450.824 Y356.197 I-0.077 J2.199
G1 X450.99 Y356.272 Z-6.242
X451.154 Y356.347 Z-6.22
X451.316 Y356.421 Z-6.183
X451.474 Y356.493 Z-6.131
X451.629 Y356.563 Z-6.065
X451.777 Y356.631 Z-5.985
X451.919 Y356.696 Z-5.892
X452.054 Y356.757 Z-5.786
X452.18 Y356.815 Z-5.669
X452.297 Y356.868 Z-5.54
X452.404 Y356.917 Z-5.401
X452.5 Y356.961 Z-5.253
X452.585 Y356.999 Z-5.097
X452.658 Y357.032 Z-4.934
X452.718 Y357.06 Z-4.764
X452.765 Y357.081 Z-4.59
X452.799 Y357.097 Z-4.412
X452.82 Y357.106 Z-4.232
X452.826 Y357.109 Z-4.05
G0 Z5
X36.222 Y357.368
Z-1.85
G1 Z-4.05 F850
X36.228 Y357.364 Z-4.232
X36.247 Y357.352 Z-4.412
X36.28 Y357.333 Z-4.59
X36.324 Y357.307 Z-4.764
X36.381 Y357.273 Z-4.934
X36.45 Y357.232 Z-5.097
X36.53 Y357.185 Z-5.253
X36.62 Y357.131 Z-5.401
X36.721 Y357.071 Z-5.54
X36.832 Y357.005 Z-5.669
X36.951 Y356.934 Z-5.786
X37.078 Y356.858 Z-5.892
X37.213 Y356.779 Z-5.985
X37.353 Y356.695 Z-6.065
X37.499 Y356.609 Z-6.131
X37.648 Y356.519 Z-6.183
X37.801 Y356.429 Z-6.22
X37.956 Y356.336 Z-6.242
X38.113 Y356.243 Z-6.25
G3 X38.942 Y356 I0.89 J1.496
G1 X438.485
G3 X439.32 Y356.197 I-0.077 J2.199
G1 X439.485 Y356.272 Z-6.242
X439.65 Y356.347 Z-6.22
X439.812 Y356.421 Z-6.183
X439.97 Y356.493 Z-6.131
X440.124 Y356.563 Z-6.065
X440.273 Y356.631 Z-5.985
X440.415 Y356.696 Z-5.892
X440.55 Y356.757 Z-5.786
X440.676 Y356.815 Z-5.669
X440.793 Y356.868 Z-5.54
X440.9 Y356.917 Z-5.401
X440.996 Y356.961 Z-5.253
X441.081 Y356.999 Z-5.097
X441.153 Y357.032 Z-4.934
X441.214 Y357.06 Z-4.764
X441.261 Y357.081 Z-4.59
X441.295 Y357.097 Z-4.412
X441.315 Y357.106 Z-4.232
X441.322 Y357.109 Z-4.05
G0 Z15
M9
M30
%
