%
(1001)
(crosssupportstenonshould_ z0 stock bottom_near)
(T2  D=6 CR=0 - ZMIN=41.5 - flat end mill)
G90 G94
G17
G21

(2D Adaptive3_near 2)
M9
T2 M6
S6500 M3
G54
M9
G0 X256.818 Y-3.619
Z64
Z54
Z42.7
G1 Z42.1 F850
X256.811 Y-3.617 Z42.006
X256.79 Y-3.611 Z41.915
X256.755 Y-3.602 Z41.828
X256.707 Y-3.59 Z41.747
X256.648 Y-3.575 Z41.676
X256.578 Y-3.557 Z41.615
X256.501 Y-3.537 Z41.565
X256.416 Y-3.516 Z41.529
X256.328 Y-3.493 Z41.507
X256.237 Y-3.47 Z41.5
G3 X252.97 Y-3 I-3.801 J-14.839
G1 X252.872
X252.832 Y-3.002
X252.731 Y-3.112
X252.641 Y-3.232
X252.559 Y-3.358
X252.47 Y-3.515
X252.372 Y-3.711
X252.268 Y-3.956
X252.155 Y-4.264
X252.036 Y-4.66
X251.91 Y-5.183
X251.778 Y-5.909
X251.669 Y-6.788
X251.6 Y-7.671
X251.555 Y-8.556
X251.526 Y-9.442
X251.507 Y-10.328
X251.494 Y-11.214
X251.486 Y-12.1
X251.48 Y-12.986
X251.477 Y-13.872
X251.474 Y-15.195
X251.508 Y-15.547
X251.61 Y-15.886
X251.776 Y-16.198
X252 Y-16.471
X252.273 Y-16.696
X252.585 Y-16.863
X252.923 Y-16.965
X253.275 Y-17
G3 X253.854 Y-16.381 I-0.021 J0.6
G1 X253.451 Y-3.581
G3 X252.872 Y-3 I-0.6 J-0.019
G1 X252.47
X252.395 Y-3.004
X252.267 Y-3.082
X252.145 Y-3.17
X252.031 Y-3.267
X251.922 Y-3.37
X251.799 Y-3.502
X251.68 Y-3.645
X251.548 Y-3.821
X251.407 Y-4.035
X251.272 Y-4.267
X251.122 Y-4.561
X250.975 Y-4.896
X250.822 Y-5.305
X250.669 Y-5.796
X250.511 Y-6.425
X250.352 Y-7.253
X250.235 Y-8.131
X250.153 Y-9.013
X250.097 Y-9.898
X250.058 Y-10.783
X250.031 Y-11.669
X250.012 Y-12.555
X249.999 Y-13.441
X250.01 Y-13.971
X250.044 Y-14.404
X250.087 Y-14.729
X250.148 Y-15.044
X250.209 Y-15.289
X250.291 Y-15.55
X250.348 Y-15.703
X250.497 Y-16.015
X250.698 Y-16.296
X250.944 Y-16.539
X251.228 Y-16.736
X251.542 Y-16.881
X251.876 Y-16.97
X252.221 Y-17
G3 X252.8 Y-16.412 I-0.021 J0.6
G1 X253.049 Y-3.611
G3 X252.47 Y-3 I-0.6 J0.012
G1 X251.866
X251.716 Y-3.007
X251.578 Y-3.067
X251.445 Y-3.136
X251.317 Y-3.214
X251.184 Y-3.307
X251.052 Y-3.41
X250.904 Y-3.539
X250.76 Y-3.681
X250.599 Y-3.857
X250.444 Y-4.048
X250.273 Y-4.285
X250.106 Y-4.545
X249.929 Y-4.861
X249.749 Y-5.225
X249.569 Y-5.65
X249.39 Y-6.149
X249.208 Y-6.766
X249.027 Y-7.531
X248.873 Y-8.403
X248.761 Y-9.282
X248.679 Y-10.164
X248.621 Y-11.049
X248.579 Y-11.934
X248.567 Y-12.82
X248.594 Y-13.483
X248.648 Y-14.024
X248.715 Y-14.456
X248.793 Y-14.822
X248.879 Y-15.135
X248.972 Y-15.413
X249.069 Y-15.656
X249.181 Y-15.897
X249.207 Y-15.945
X249.404 Y-16.245
X249.652 Y-16.505
X249.942 Y-16.716
X250.266 Y-16.872
X250.612 Y-16.968
X250.969 Y-17
G3 X251.197 Y-16.946 I-0.021 J0.6
X251.547 Y-16.442 I-0.249 J0.546
G1 X252.443 Y-3.642
G3 X251.866 Y-3 I-0.599 J0.042
G1 X251.151
X251.001 Y-3.007
X250.855 Y-3.042
X250.712 Y-3.088
X250.573 Y-3.145
X250.438 Y-3.21
X250.296 Y-3.29
X250.153 Y-3.38
X249.994 Y-3.495
X249.837 Y-3.621
X249.662 Y-3.779
X249.493 Y-3.951
X249.305 Y-4.163
X249.124 Y-4.394
X248.925 Y-4.678
X248.733 Y-4.988
X248.527 Y-5.368
X248.328 Y-5.788
X248.124 Y-6.293
X247.918 Y-6.897
X247.72 Y-7.605
X247.53 Y-8.47
X247.387 Y-9.345
X247.281 Y-10.225
X247.206 Y-11.108
X247.169 Y-11.993
X247.179 Y-12.767
X247.223 Y-13.4
X247.293 Y-13.954
X247.381 Y-14.435
X247.472 Y-14.81
X247.581 Y-15.169
X247.68 Y-15.439
X247.8 Y-15.717
X247.912 Y-15.94
X247.942 Y-15.993
X248.142 Y-16.281
X248.388 Y-16.529
X248.674 Y-16.73
X248.991 Y-16.879
X249.329 Y-16.969
X249.678 Y-17
G3 X249.906 Y-16.946 I-0.021 J0.6
X250.253 Y-16.469 I-0.249 J0.546
G1 X251.726 Y-3.668
G3 X251.151 Y-3 I-0.596 J0.069
G1 X250.255
X250.105 Y-3.007
X249.956 Y-3.028
X249.81 Y-3.061
X249.666 Y-3.105
X249.526 Y-3.158
X249.38 Y-3.223
X249.23 Y-3.301
X249.069 Y-3.396
X248.9 Y-3.509
X248.723 Y-3.643
X248.535 Y-3.802
X248.347 Y-3.98
X248.141 Y-4.199
X247.943 Y-4.435
X247.723 Y-4.729
X247.514 Y-5.044
X247.289 Y-5.427
X247.069 Y-5.858
X246.845 Y-6.361
X246.618 Y-6.963
X246.402 Y-7.65
X246.195 Y-8.466
X246.026 Y-9.336
X245.903 Y-10.214
X245.824 Y-11.096
X245.795 Y-11.906
X245.81 Y-12.638
X245.861 Y-13.297
X245.936 Y-13.858
X246.034 Y-14.363
X246.139 Y-14.781
X246.252 Y-15.145
X246.361 Y-15.435
X246.483 Y-15.712
X246.604 Y-15.949
X246.637 Y-16.007
X246.838 Y-16.291
X247.084 Y-16.536
X247.369 Y-16.734
X247.684 Y-16.88
X248.019 Y-16.97
X248.365 Y-17
X248.754
G3 X249.329 Y-16.47 I-0.021 J0.6
G1 X250.83 Y-3.669
G3 X250.255 Y-3 I-0.596 J0.07
G1 X249.137
X248.987 Y-3.007
X248.839 Y-3.028
X248.692 Y-3.06
X248.548 Y-3.102
X248.407 Y-3.153
X248.249 Y-3.22
X248.091 Y-3.297
X247.917 Y-3.396
X247.738 Y-3.51
X247.548 Y-3.648
X247.348 Y-3.811
X247.144 Y-3.997
X246.923 Y-4.222
X246.71 Y-4.466
X246.474 Y-4.769
X246.247 Y-5.096
X246.008 Y-5.486
X245.764 Y-5.939
X245.531 Y-6.438
X245.291 Y-7.038
X245.063 Y-7.716
X244.863 Y-8.444
X244.689 Y-9.254
X244.557 Y-10.093
X244.474 Y-10.926
X244.44 Y-11.722
X244.45 Y-12.442
X244.496 Y-13.102
X244.573 Y-13.707
X244.669 Y-14.227
X244.781 Y-14.689
X244.892 Y-15.053
X245.012 Y-15.38
X245.129 Y-15.65
X245.258 Y-15.909
X245.307 Y-15.995
X245.507 Y-16.282
X245.754 Y-16.529
X246.04 Y-16.73
X246.357 Y-16.879
X246.694 Y-16.969
X247.043 Y-17
X247.435
G3 X248.009 Y-16.479 I-0.021 J0.6
G1 X249.711 Y-3.679
G3 X249.137 Y-3 I-0.595 J0.079
G1 X247.979
X247.829 Y-3.007
X247.68 Y-3.025
X247.533 Y-3.055
X247.388 Y-3.094
X247.244 Y-3.142
X247.083 Y-3.206
X246.919 Y-3.283
X246.736 Y-3.381
X246.554 Y-3.492
X246.35 Y-3.632
X246.148 Y-3.789
X245.929 Y-3.98
X245.704 Y-4.2
X245.475 Y-4.45
X245.227 Y-4.753
X244.992 Y-5.078
X244.737 Y-5.473
X244.486 Y-5.915
X244.245 Y-6.402
X244 Y-6.977
X243.767 Y-7.621
X243.567 Y-8.291
X243.391 Y-9.029
X243.251 Y-9.809
X243.154 Y-10.597
X243.104 Y-11.372
X243.097 Y-12.122
X243.13 Y-12.808
X243.194 Y-13.422
X243.285 Y-13.987
X243.394 Y-14.484
X243.505 Y-14.88
X243.631 Y-15.249
X243.743 Y-15.525
X243.876 Y-15.806
X243.996 Y-16.027
X244.012 Y-16.053
X244.214 Y-16.324
X244.458 Y-16.558
X244.739 Y-16.747
X245.048 Y-16.886
X245.375 Y-16.971
X245.712 Y-17
X246.136
G3 X246.709 Y-16.486 I-0.021 J0.6
G1 X248.551 Y-3.685
G3 X247.979 Y-3 I-0.594 J0.085
G1 X246.72
X246.571 Y-3.007
X246.422 Y-3.028
X246.275 Y-3.058
X246.128 Y-3.099
X245.978 Y-3.15
X245.809 Y-3.218
X245.637 Y-3.299
X245.448 Y-3.4
X245.253 Y-3.521
X245.046 Y-3.665
X244.825 Y-3.838
X244.603 Y-4.032
X244.361 Y-4.27
X244.127 Y-4.528
X243.875 Y-4.838
X243.618 Y-5.195
X243.368 Y-5.585
X243.111 Y-6.043
X242.857 Y-6.562
X242.626 Y-7.107
X242.404 Y-7.728
X242.202 Y-8.413
X242.031 Y-9.141
X241.898 Y-9.898
X241.807 Y-10.659
X241.761 Y-11.406
X241.757 Y-12.128
X241.792 Y-12.814
X241.86 Y-13.444
X241.951 Y-13.994
X242.062 Y-14.492
X242.179 Y-14.905
X242.302 Y-15.261
X242.418 Y-15.543
X242.548 Y-15.816
X242.673 Y-16.044
X242.683 Y-16.059
X242.885 Y-16.329
X243.129 Y-16.561
X243.409 Y-16.749
X243.717 Y-16.887
X244.043 Y-16.972
X244.379 Y-17
X244.777
G3 X245.349 Y-16.49 I-0.021 J0.6
G1 X247.293 Y-3.69
G3 X246.948 Y-3.054 I-0.593 J0.09
X246.72 Y-3 I-0.249 J-0.546
G1 X245.512
X245.35 Y-3.008
X245.201 Y-3.024
X245.053 Y-3.051
X244.908 Y-3.087
X244.752 Y-3.136
X244.59 Y-3.196
X244.413 Y-3.274
X244.227 Y-3.369
X244.03 Y-3.484
X243.818 Y-3.624
X243.605 Y-3.783
X243.369 Y-3.98
X243.14 Y-4.195
X242.89 Y-4.457
X242.637 Y-4.754
X242.388 Y-5.082
X242.126 Y-5.472
X241.868 Y-5.905
X241.622 Y-6.379
X241.376 Y-6.925
X241.141 Y-7.536
X240.932 Y-8.184
X240.756 Y-8.863
X240.611 Y-9.586
X240.504 Y-10.333
X240.439 Y-11.087
X240.418 Y-11.829
X240.437 Y-12.531
X240.49 Y-13.168
X240.573 Y-13.756
X240.678 Y-14.285
X240.797 Y-14.747
X240.91 Y-15.102
X241.036 Y-15.432
X241.154 Y-15.695
X241.288 Y-15.954
X241.326 Y-16.018
X241.527 Y-16.299
X241.773 Y-16.541
X242.057 Y-16.737
X242.37 Y-16.882
X242.704 Y-16.97
X243.047 Y-17
X243.469
G3 X244.04 Y-16.495 I-0.021 J0.6
G1 X246.084 Y-3.694
G3 X245.512 Y-3 I-0.592 J0.095
G1 X244.213
X244.059 Y-3.008
X243.91 Y-3.024
X243.763 Y-3.05
X243.614 Y-3.087
X243.463 Y-3.133
X243.291 Y-3.197
X243.118 Y-3.272
X242.924 Y-3.371
X242.729 Y-3.483
X242.514 Y-3.624
X242.295 Y-3.786
X242.065 Y-3.977
X241.818 Y-4.206
X241.58 Y-4.455
X241.322 Y-4.755
X241.063 Y-5.094
X240.807 Y-5.471
X240.543 Y-5.912
X240.284 Y-6.404
X240.048 Y-6.922
X239.821 Y-7.507
X239.611 Y-8.151
X239.429 Y-8.842
X239.28 Y-9.568
X239.171 Y-10.309
X239.105 Y-11.047
X239.081 Y-11.77
X239.098 Y-12.466
X239.15 Y-13.124
X239.232 Y-13.723
X239.333 Y-14.243
X239.452 Y-14.71
X239.568 Y-15.079
X239.691 Y-15.405
X239.813 Y-15.678
X239.944 Y-15.935
X239.989 Y-16.012
X240.19 Y-16.294
X240.436 Y-16.538
X240.72 Y-16.735
X241.035 Y-16.881
X241.369 Y-16.97
X241.714 Y-17
X242.159
G3 X242.387 Y-16.946 I-0.021 J0.6
X242.73 Y-16.495 I-0.249 J0.546
G1 X244.785 Y-3.695
G3 X244.441 Y-3.054 I-0.592 J0.095
X244.213 Y-3 I-0.249 J-0.546
G1 X242.894
X242.745 Y-3.007
X242.595 Y-3.024
X242.448 Y-3.051
X242.298 Y-3.088
X242.146 Y-3.135
X241.972 Y-3.2
X241.797 Y-3.276
X241.6 Y-3.376
X241.402 Y-3.491
X241.187 Y-3.633
X240.963 Y-3.798
X240.732 Y-3.991
X240.481 Y-4.225
X240.239 Y-4.478
X239.981 Y-4.779
X239.717 Y-5.126
X239.465 Y-5.498
X239.203 Y-5.936
X238.942 Y-6.435
X238.704 Y-6.959
X238.478 Y-7.543
X238.27 Y-8.186
X238.089 Y-8.874
X237.943 Y-9.593
X237.836 Y-10.328
X237.771 Y-11.066
X237.748 Y-11.791
X237.765 Y-12.486
X237.818 Y-13.143
X237.9 Y-13.736
X238.002 Y-14.253
X238.12 Y-14.717
X238.238 Y-15.089
X238.36 Y-15.41
X238.483 Y-15.686
X238.613 Y-15.939
X238.657 Y-16.014
X238.858 Y-16.296
X239.104 Y-16.539
X239.388 Y-16.736
X239.702 Y-16.881
X240.036 Y-16.97
X240.381 Y-17
X240.79
G3 X241.018 Y-16.946 I-0.021 J0.6
X241.361 Y-16.498 I-0.249 J0.546
G1 X243.465 Y-3.697
G3 X243.122 Y-3.054 I-0.592 J0.097
X242.894 Y-3 I-0.249 J-0.546
G1 X241.595
X241.433 Y-3.008
X241.284 Y-3.024
X241.136 Y-3.05
X240.988 Y-3.087
X240.834 Y-3.134
X240.661 Y-3.197
X240.485 Y-3.273
X240.287 Y-3.373
X240.09 Y-3.486
X239.871 Y-3.629
X239.651 Y-3.79
X239.417 Y-3.984
X239.169 Y-4.213
X238.925 Y-4.466
X238.663 Y-4.77
X238.404 Y-5.108
X238.148 Y-5.482
X237.884 Y-5.921
X237.624 Y-6.412
X237.387 Y-6.93
X237.158 Y-7.513
X236.948 Y-8.153
X236.765 Y-8.838
X236.617 Y-9.554
X236.507 Y-10.287
X236.44 Y-11.023
X236.414 Y-11.745
X236.428 Y-12.438
X236.479 Y-13.095
X236.56 Y-13.697
X236.66 Y-14.219
X236.778 Y-14.689
X236.894 Y-15.06
X237.019 Y-15.391
X237.139 Y-15.665
X237.271 Y-15.924
X237.32 Y-16.007
X237.52 Y-16.291
X237.766 Y-16.536
X238.051 Y-16.734
X238.366 Y-16.88
X238.702 Y-16.97
X239.048 Y-17
X240.381
G3 X240.609 Y-16.946 I-0.021 J0.6
X240.957 Y-16.457 I-0.249 J0.546
G1 X242.172 Y-3.656
G3 X241.823 Y-3.054 I-0.597 J0.057
X241.595 Y-3 I-0.249 J-0.546
G1 X240.276
X240.111 Y-3.008
X239.961 Y-3.024
X239.814 Y-3.051
X239.664 Y-3.087
X239.51 Y-3.134
X239.336 Y-3.198
X239.16 Y-3.274
X238.961 Y-3.373
X238.764 Y-3.487
X238.546 Y-3.629
X238.323 Y-3.792
X238.089 Y-3.985
X237.839 Y-4.217
X237.595 Y-4.469
X237.335 Y-4.771
X237.071 Y-5.113
X236.817 Y-5.486
X236.554 Y-5.922
X236.291 Y-6.418
X236.053 Y-6.937
X235.825 Y-7.517
X235.616 Y-8.155
X235.433 Y-8.838
X235.285 Y-9.552
X235.175 Y-10.283
X235.107 Y-11.018
X235.081 Y-11.741
X235.095 Y-12.436
X235.146 Y-13.094
X235.226 Y-13.694
X235.326 Y-14.214
X235.444 Y-14.685
X235.56 Y-15.059
X235.684 Y-15.388
X235.805 Y-15.663
X235.936 Y-15.922
X235.986 Y-16.006
X236.186 Y-16.29
X236.432 Y-16.535
X236.717 Y-16.734
X237.032 Y-16.88
X237.368 Y-16.97
X237.714 Y-17
X238.131
G3 X238.359 Y-16.946 I-0.021 J0.6
X238.702 Y-16.5 I-0.249 J0.546
G1 X240.847 Y-3.699
G3 X240.504 Y-3.054 I-0.592 J0.099
X240.276 Y-3 I-0.249 J-0.546
G1 X238.978
X238.783 Y-3.01
X238.634 Y-3.026
X238.486 Y-3.052
X238.336 Y-3.089
X238.182 Y-3.135
X238.008 Y-3.199
X237.832 Y-3.275
X237.633 Y-3.375
X237.435 Y-3.489
X237.216 Y-3.631
X236.993 Y-3.794
X236.76 Y-3.987
X236.509 Y-4.219
X236.264 Y-4.472
X236.004 Y-4.774
X235.74 Y-5.117
X235.485 Y-5.489
X235.221 Y-5.926
X234.959 Y-6.421
X234.721 Y-6.94
X234.493 Y-7.519
X234.284 Y-8.156
X234.101 Y-8.838
X233.953 Y-9.552
X233.843 Y-10.283
X233.775 Y-11.018
X233.748 Y-11.741
X233.762 Y-12.434
X233.813 Y-13.092
X233.893 Y-13.692
X233.992 Y-14.213
X234.11 Y-14.683
X234.227 Y-15.057
X234.35 Y-15.387
X234.471 Y-15.662
X234.603 Y-15.921
X234.652 Y-16.006
X234.852 Y-16.29
X235.099 Y-16.535
X235.384 Y-16.734
X235.699 Y-16.88
X236.035 Y-16.97
X236.381 Y-17
X237.714
G3 X238.29 Y-16.459 I-0.021 J0.6
G1 X239.554 Y-3.659
G3 X238.978 Y-3 I-0.597 J0.059
G1 X237.568
X237.418 Y-3.007
X237.269 Y-3.027
X237.122 Y-3.056
X236.967 Y-3.096
X236.81 Y-3.147
X236.632 Y-3.215
X236.451 Y-3.297
X236.25 Y-3.402
X236.044 Y-3.524
X235.827 Y-3.671
X235.593 Y-3.848
X235.362 Y-4.046
X235.107 Y-4.289
X234.857 Y-4.556
X234.6 Y-4.863
X234.331 Y-5.226
X234.074 Y-5.615
X233.817 Y-6.056
X233.56 Y-6.562
X233.313 Y-7.123
X233.094 Y-7.709
X232.895 Y-8.348
X232.724 Y-9.035
X232.586 Y-9.754
X232.488 Y-10.49
X232.431 Y-11.228
X232.417 Y-11.952
X232.442 Y-12.643
X232.502 Y-13.282
X232.586 Y-13.845
X232.693 Y-14.36
X232.81 Y-14.793
X232.933 Y-15.169
X233.049 Y-15.464
X233.179 Y-15.746
X233.304 Y-15.983
X233.335 Y-16.034
X233.536 Y-16.311
X233.782 Y-16.549
X234.064 Y-16.742
X234.375 Y-16.884
X234.706 Y-16.971
X235.047 Y-17
X235.464
G3 X235.691 Y-16.946 I-0.021 J0.6
X236.035 Y-16.498 I-0.249 J0.546
G1 X238.139 Y-3.697
G3 X237.796 Y-3.054 I-0.592 J0.097
X237.568 Y-3 I-0.249 J-0.546
G1 X236.249
X236.099 Y-3.007
X235.95 Y-3.025
X235.803 Y-3.054
X235.656 Y-3.091
X235.494 Y-3.142
X235.322 Y-3.207
X235.139 Y-3.289
X234.941 Y-3.39
X234.737 Y-3.51
X234.513 Y-3.659
X234.293 Y-3.824
X234.051 Y-4.027
X233.808 Y-4.257
X233.557 Y-4.522
X233.288 Y-4.839
X233.033 Y-5.178
X232.771 Y-5.57
X232.505 Y-6.021
X232.252 Y-6.51
X232.016 Y-7.039
X231.789 Y-7.633
X231.583 Y-8.281
X231.406 Y-8.971
X231.264 Y-9.69
X231.161 Y-10.424
X231.101 Y-11.158
X231.082 Y-11.871
X231.103 Y-12.557
X231.159 Y-13.2
X231.244 Y-13.792
X231.347 Y-14.304
X231.466 Y-14.76
X231.583 Y-15.123
X231.706 Y-15.44
X231.828 Y-15.712
X231.959 Y-15.962
X231.995 Y-16.023
X232.196 Y-16.303
X232.442 Y-16.544
X232.725 Y-16.739
X233.038 Y-16.882
X233.371 Y-16.97
X233.714 Y-17
X234.145
G3 X234.372 Y-16.946 I-0.021 J0.6
X234.716 Y-16.498 I-0.249 J0.546
G1 X236.82 Y-3.697
G3 X236.477 Y-3.054 I-0.592 J0.097
X236.249 Y-3 I-0.249 J-0.546
G1 X234.95
X234.793 Y-3.008
X234.644 Y-3.024
X234.496 Y-3.05
X234.351 Y-3.086
X234.192 Y-3.134
X234.022 Y-3.196
X233.84 Y-3.275
X233.644 Y-3.373
X233.443 Y-3.488
X233.221 Y-3.633
X233.003 Y-3.793
X232.761 Y-3.992
X232.519 Y-4.216
X232.269 Y-4.475
X232.003 Y-4.782
X231.75 Y-5.112
X231.488 Y-5.494
X231.22 Y-5.938
X230.967 Y-6.415
X230.726 Y-6.94
X230.495 Y-7.529
X230.283 Y-8.172
X230.1 Y-8.857
X229.951 Y-9.568
X229.842 Y-10.294
X229.775 Y-11.025
X229.748 Y-11.746
X229.762 Y-12.434
X229.812 Y-13.086
X229.892 Y-13.687
X229.993 Y-14.216
X230.111 Y-14.685
X230.225 Y-15.054
X230.351 Y-15.39
X230.47 Y-15.66
X230.603 Y-15.922
X230.652 Y-16.006
X230.852 Y-16.29
X231.098 Y-16.535
X231.384 Y-16.734
X231.699 Y-16.88
X232.034 Y-16.97
X232.381 Y-17
X232.796
G3 X233.367 Y-16.5 I-0.021 J0.6
G1 X235.521 Y-3.699
G3 X234.95 Y-3 I-0.592 J0.1
G1 X233.631
X233.464 Y-3.008
X233.314 Y-3.024
X233.167 Y-3.051
X233.016 Y-3.087
X232.862 Y-3.134
X232.686 Y-3.198
X232.509 Y-3.275
X232.31 Y-3.375
X232.112 Y-3.488
X231.892 Y-3.631
X231.669 Y-3.795
X231.433 Y-3.99
X231.182 Y-4.221
X230.938 Y-4.474
X230.677 Y-4.776
X230.413 Y-5.12
X230.157 Y-5.494
X229.892 Y-5.933
X229.628 Y-6.43
X229.389 Y-6.951
X229.161 Y-7.532
X228.951 Y-8.169
X228.769 Y-8.85
X228.62 Y-9.562
X228.511 Y-10.291
X228.443 Y-11.023
X228.416 Y-11.744
X228.43 Y-12.438
X228.481 Y-13.096
X228.56 Y-13.693
X228.66 Y-14.213
X228.777 Y-14.684
X228.894 Y-15.058
X229.017 Y-15.387
X229.138 Y-15.662
X229.269 Y-15.92
X229.319 Y-16.006
X229.519 Y-16.29
X229.765 Y-16.535
X230.051 Y-16.734
X230.366 Y-16.88
X230.701 Y-16.97
X231.048 Y-17
X231.486
G3 X231.714 Y-16.946 I-0.021 J0.6
X232.057 Y-16.5 I-0.249 J0.546
G1 X234.202 Y-3.699
G3 X233.859 Y-3.054 I-0.592 J0.099
X233.631 Y-3 I-0.249 J-0.546
G1 X232.332
X232.131 Y-3.01
X231.982 Y-3.026
X231.834 Y-3.052
X231.684 Y-3.089
X231.53 Y-3.136
X231.355 Y-3.2
X231.178 Y-3.276
X230.979 Y-3.376
X230.78 Y-3.49
X230.561 Y-3.632
X230.338 Y-3.796
X230.103 Y-3.99
X229.851 Y-4.222
X229.606 Y-4.475
X229.344 Y-4.779
X229.08 Y-5.122
X228.823 Y-5.496
X228.559 Y-5.934
X228.296 Y-6.429
X228.057 Y-6.949
X227.83 Y-7.529
X227.62 Y-8.165
X227.437 Y-8.846
X227.289 Y-9.558
X227.179 Y-10.288
X227.111 Y-11.022
X227.084 Y-11.744
X227.098 Y-12.437
X227.148 Y-13.094
X227.227 Y-13.692
X227.327 Y-14.212
X227.444 Y-14.682
X227.561 Y-15.057
X227.684 Y-15.386
X227.805 Y-15.661
X227.936 Y-15.92
X227.986 Y-16.005
X228.186 Y-16.289
X228.432 Y-16.535
X228.717 Y-16.734
X229.033 Y-16.88
X229.369 Y-16.97
X229.715 Y-17
X230.117
G3 X230.687 Y-16.503 I-0.021 J0.6
G1 X232.903 Y-3.702
G3 X232.56 Y-3.054 I-0.591 J0.102
X232.332 Y-3 I-0.249 J-0.546
G1 X230.923
X230.773 Y-3.007
X230.624 Y-3.026
X230.477 Y-3.054
X230.322 Y-3.094
X230.166 Y-3.144
X229.987 Y-3.212
X229.807 Y-3.292
X229.606 Y-3.396
X229.402 Y-3.516
X229.184 Y-3.662
X228.952 Y-3.837
X228.719 Y-4.034
X228.463 Y-4.276
X228.215 Y-4.539
X227.956 Y-4.846
X227.686 Y-5.207
X227.431 Y-5.59
X227.172 Y-6.031
X226.912 Y-6.536
X226.666 Y-7.09
X226.446 Y-7.671
X226.245 Y-8.31
X226.07 Y-8.995
X225.93 Y-9.713
X225.829 Y-10.447
X225.77 Y-11.184
X225.753 Y-11.907
X225.775 Y-12.598
X225.832 Y-13.245
X225.915 Y-13.811
X226.02 Y-14.326
X226.137 Y-14.77
X226.259 Y-15.145
X226.376 Y-15.446
X226.504 Y-15.727
X226.63 Y-15.968
X226.666 Y-16.027
X226.867 Y-16.306
X227.112 Y-16.546
X227.395 Y-16.74
X227.707 Y-16.883
X228.04 Y-16.971
X228.382 Y-17
X228.811
G3 X229.382 Y-16.498 I-0.021 J0.6
G1 X231.494 Y-3.697
G3 X231.151 Y-3.054 I-0.592 J0.098
X230.923 Y-3 I-0.249 J-0.546
G1 X229.604
X229.454 Y-3.007
X229.305 Y-3.025
X229.157 Y-3.052
X229.01 Y-3.089
X228.85 Y-3.139
X228.678 Y-3.202
X228.496 Y-3.282
X228.299 Y-3.383
X228.095 Y-3.501
X227.872 Y-3.648
X227.652 Y-3.811
X227.411 Y-4.012
X227.167 Y-4.24
X226.916 Y-4.502
X226.648 Y-4.816
X226.392 Y-5.152
X226.131 Y-5.54
X225.864 Y-5.987
X225.61 Y-6.473
X225.372 Y-6.999
X225.143 Y-7.589
X224.935 Y-8.233
X224.755 Y-8.92
X224.61 Y-9.638
X224.504 Y-10.369
X224.44 Y-11.104
X224.418 Y-11.819
X224.435 Y-12.505
X224.488 Y-13.152
X224.571 Y-13.748
X224.673 Y-14.265
X224.792 Y-14.727
X224.907 Y-15.093
X225.031 Y-15.417
X225.152 Y-15.689
X225.284 Y-15.944
X225.326 Y-16.015
X225.526 Y-16.297
X225.772 Y-16.54
X226.056 Y-16.736
X226.37 Y-16.881
X226.704 Y-16.97
X227.049 Y-17
X227.459
G3 X227.686 Y-16.946 I-0.021 J0.6
X228.029 Y-16.5 I-0.249 J0.546
G1 X230.174 Y-3.699
G3 X229.604 Y-3 I-0.592 J0.099
G1 X228.305
X228.135 Y-3.009
X227.986 Y-3.024
X227.838 Y-3.051
X227.69 Y-3.087
X227.533 Y-3.135
X227.361 Y-3.198
X227.181 Y-3.276
X226.982 Y-3.375
X226.783 Y-3.489
X226.561 Y-3.634
X226.341 Y-3.795
X226.101 Y-3.993
X225.855 Y-4.22
X225.607 Y-4.477
X225.343 Y-4.783
X225.085 Y-5.118
X224.826 Y-5.497
X224.559 Y-5.939
X224.3 Y-6.427
X224.061 Y-6.948
X223.831 Y-7.534
X223.62 Y-8.175
X223.437 Y-8.859
X223.289 Y-9.572
X223.179 Y-10.3
X223.111 Y-11.03
X223.085 Y-11.749
X223.099 Y-12.44
X223.149 Y-13.094
X223.229 Y-13.695
X223.329 Y-14.217
X223.447 Y-14.686
X223.562 Y-15.057
X223.686 Y-15.389
X223.806 Y-15.662
X223.938 Y-15.922
X223.987 Y-16.006
X224.188 Y-16.29
X224.434 Y-16.535
X224.719 Y-16.734
X225.034 Y-16.88
X225.37 Y-16.97
X225.716 Y-17
X227.049
G3 X227.277 Y-16.946 I-0.021 J0.6
X227.625 Y-16.459 I-0.249 J0.546
G1 X228.881 Y-3.658
G3 X228.305 Y-3 I-0.597 J0.059
G1 X226.986
X226.804 Y-3.009
X226.655 Y-3.025
X226.507 Y-3.051
X226.357 Y-3.088
X226.202 Y-3.135
X226.027 Y-3.199
X225.85 Y-3.276
X225.65 Y-3.375
X225.452 Y-3.489
X225.232 Y-3.632
X225.009 Y-3.796
X224.773 Y-3.99
X224.522 Y-4.222
X224.277 Y-4.475
X224.015 Y-4.778
X223.751 Y-5.121
X223.494 Y-5.496
X223.229 Y-5.934
X222.966 Y-6.431
X222.727 Y-6.951
X222.499 Y-7.532
X222.289 Y-8.17
X222.106 Y-8.851
X221.958 Y-9.563
X221.848 Y-10.292
X221.78 Y-11.025
X221.753 Y-11.746
X221.767 Y-12.439
X221.817 Y-13.096
X221.897 Y-13.694
X221.996 Y-14.214
X222.113 Y-14.683
X222.23 Y-15.058
X222.353 Y-15.387
X222.473 Y-15.662
X222.605 Y-15.92
X222.654 Y-16.005
X222.855 Y-16.29
X223.101 Y-16.535
X223.386 Y-16.734
X223.701 Y-16.88
X224.037 Y-16.97
X224.383 Y-17
X224.791
G3 X225.019 Y-16.946 I-0.021 J0.6
X225.361 Y-16.502 I-0.249 J0.546
G1 X227.556 Y-3.701
G3 X227.214 Y-3.054 I-0.591 J0.101
X226.986 Y-3 I-0.249 J-0.546
G1 X225.576
X225.426 Y-3.007
X225.278 Y-3.027
X225.131 Y-3.057
X224.975 Y-3.098
X224.816 Y-3.15
X224.637 Y-3.219
X224.455 Y-3.302
X224.254 Y-3.408
X224.045 Y-3.533
X223.828 Y-3.681
X223.592 Y-3.861
X223.359 Y-4.06
X223.104 Y-4.306
X222.851 Y-4.577
X222.595 Y-4.887
X222.325 Y-5.252
X222.065 Y-5.649
X221.809 Y-6.092
X221.553 Y-6.6
X221.305 Y-7.167
X221.085 Y-7.761
X220.889 Y-8.4
X220.719 Y-9.086
X220.584 Y-9.806
X220.488 Y-10.541
X220.434 Y-11.279
X220.422 Y-12.001
X220.45 Y-12.691
X220.51 Y-13.317
X220.596 Y-13.878
X220.705 Y-14.392
X220.819 Y-14.815
X220.944 Y-15.19
X221.059 Y-15.48
X221.19 Y-15.763
X221.314 Y-15.995
X221.341 Y-16.039
X221.543 Y-16.315
X221.788 Y-16.552
X222.07 Y-16.743
X222.38 Y-16.885
X222.71 Y-16.971
X223.05 Y-17
X223.472
G3 X224.043 Y-16.498 I-0.021 J0.6
G1 X226.147 Y-3.697
G3 X225.576 Y-3 I-0.592 J0.097
G1 X224.277
X224.128 Y-3.007
X223.978 Y-3.024
X223.831 Y-3.052
X223.685 Y-3.088
X223.521 Y-3.138
X223.354 Y-3.2
X223.169 Y-3.281
X222.976 Y-3.379
X222.769 Y-3.499
X222.55 Y-3.642
X222.327 Y-3.807
X222.083 Y-4.01
X221.846 Y-4.232
X221.59 Y-4.498
X221.327 Y-4.806
X221.07 Y-5.142
X220.803 Y-5.537
X220.535 Y-5.984
X220.288 Y-6.455
X220.046 Y-6.988
X219.816 Y-7.583
X219.606 Y-8.229
X219.426 Y-8.913
X219.282 Y-9.619
X219.175 Y-10.348
X219.11 Y-11.088
X219.086 Y-11.81
X219.103 Y-12.495
X219.155 Y-13.135
X219.237 Y-13.73
X219.34 Y-14.257
X219.458 Y-14.72
X219.572 Y-15.081
X219.697 Y-15.413
X219.816 Y-15.68
X219.95 Y-15.94
X219.993 Y-16.013
X220.193 Y-16.295
X220.439 Y-16.539
X220.724 Y-16.736
X221.038 Y-16.881
X221.372 Y-16.97
X221.717 Y-17
X222.123
G3 X222.694 Y-16.5 I-0.021 J0.6
G1 X224.848 Y-3.699
G3 X224.277 Y-3 I-0.592 J0.1
G1 X222.958
X222.806 Y-3.008
X222.657 Y-3.024
X222.51 Y-3.05
X222.361 Y-3.086
X222.204 Y-3.134
X222.031 Y-3.197
X221.852 Y-3.275
X221.653 Y-3.375
X221.454 Y-3.488
X221.232 Y-3.633
X221.011 Y-3.795
X220.771 Y-3.993
X220.523 Y-4.222
X220.277 Y-4.476
X220.013 Y-4.782
X219.754 Y-5.119
X219.495 Y-5.499
X219.227 Y-5.942
X218.967 Y-6.433
X218.728 Y-6.953
X218.499 Y-7.537
X218.289 Y-8.175
X218.106 Y-8.859
X217.957 Y-9.574
X217.848 Y-10.303
X217.78 Y-11.032
X217.754 Y-11.75
X217.768 Y-12.442
X217.818 Y-13.097
X217.898 Y-13.696
X217.998 Y-14.217
X218.115 Y-14.687
X218.231 Y-15.058
X218.355 Y-15.39
X218.475 Y-15.663
X218.607 Y-15.922
X218.656 Y-16.006
X218.856 Y-16.29
X219.102 Y-16.535
X219.387 Y-16.734
X219.703 Y-16.88
X220.038 Y-16.97
X220.384 Y-17
X220.813
G3 X221.041 Y-16.946 I-0.021 J0.6
X221.384 Y-16.5 I-0.249 J0.546
G1 X223.529 Y-3.699
G3 X222.958 Y-3 I-0.592 J0.099
G1 X221.659
X221.474 Y-3.009
X221.324 Y-3.025
X221.177 Y-3.052
X221.026 Y-3.088
X220.872 Y-3.135
X220.697 Y-3.199
X220.52 Y-3.276
X220.32 Y-3.375
X220.122 Y-3.489
X219.902 Y-3.632
X219.679 Y-3.796
X219.443 Y-3.99
X219.191 Y-4.222
X218.946 Y-4.476
X218.683 Y-4.78
X218.419 Y-5.122
X218.163 Y-5.497
X217.898 Y-5.935
X217.635 Y-6.432
X217.396 Y-6.952
X217.168 Y-7.533
X216.958 Y-8.171
X216.775 Y-8.852
X216.626 Y-9.564
X216.517 Y-10.293
X216.448 Y-11.026
X216.422 Y-11.747
X216.435 Y-12.439
X216.486 Y-13.096
X216.565 Y-13.694
X216.664 Y-14.213
X216.782 Y-14.683
X216.898 Y-15.057
X217.021 Y-15.387
X217.142 Y-15.662
X217.273 Y-15.92
X217.323 Y-16.005
X217.523 Y-16.289
X217.769 Y-16.535
X218.054 Y-16.734
X218.37 Y-16.88
X218.705 Y-16.97
X219.052 Y-17
X220.384
G3 X220.612 Y-16.946 I-0.021 J0.6
X220.961 Y-16.46 I-0.249 J0.546
G1 X222.236 Y-3.659
G3 X221.887 Y-3.054 I-0.597 J0.059
X221.659 Y-3 I-0.249 J-0.546
G1 X220.25
X220.1 Y-3.007
X219.951 Y-3.027
X219.804 Y-3.056
X219.648 Y-3.097
X219.491 Y-3.148
X219.311 Y-3.218
X219.129 Y-3.3
X218.928 Y-3.405
X218.721 Y-3.53
X218.503 Y-3.677
X218.267 Y-3.856
X218.035 Y-4.055
X217.779 Y-4.3
X217.528 Y-4.57
X217.271 Y-4.878
X217 Y-5.243
X216.742 Y-5.637
X216.485 Y-6.08
X216.228 Y-6.587
X215.98 Y-7.152
X215.761 Y-7.743
X215.563 Y-8.382
X215.392 Y-9.068
X215.256 Y-9.787
X215.159 Y-10.522
X215.104 Y-11.259
X215.091 Y-11.982
X215.117 Y-12.671
X215.177 Y-13.303
X215.262 Y-13.864
X215.37 Y-14.379
X215.485 Y-14.805
X215.609 Y-15.181
X215.724 Y-15.472
X215.855 Y-15.755
X215.979 Y-15.989
X216.008 Y-16.037
X216.21 Y-16.313
X216.455 Y-16.55
X216.737 Y-16.743
X217.048 Y-16.884
X217.378 Y-16.971
X217.718 Y-17
X218.145
G3 X218.717 Y-16.498 I-0.021 J0.6
G1 X220.821 Y-3.697
G3 X220.25 Y-3 I-0.592 J0.097
G1 X218.931
X218.781 Y-3.007
X218.632 Y-3.026
X218.485 Y-3.054
X218.338 Y-3.091
X218.175 Y-3.143
X218.004 Y-3.208
X217.819 Y-3.29
X217.623 Y-3.391
X217.417 Y-3.512
X217.193 Y-3.661
X216.971 Y-3.827
X216.728 Y-4.032
X216.486 Y-4.26
X216.233 Y-4.528
X215.964 Y-4.845
X215.709 Y-5.184
X215.445 Y-5.579
X215.177 Y-6.033
X214.926 Y-6.519
X214.688 Y-7.052
X214.462 Y-7.647
X214.256 Y-8.296
X214.078 Y-8.986
X213.937 Y-9.706
X213.834 Y-10.439
X213.774 Y-11.171
X213.756 Y-11.883
X213.776 Y-12.567
X213.832 Y-13.208
X213.917 Y-13.798
X214.021 Y-14.309
X214.14 Y-14.765
X214.256 Y-15.126
X214.379 Y-15.443
X214.501 Y-15.714
X214.632 Y-15.964
X214.667 Y-16.024
X214.868 Y-16.303
X215.114 Y-16.544
X215.397 Y-16.739
X215.71 Y-16.883
X216.043 Y-16.97
X216.385 Y-17
X216.786
G3 X217.014 Y-16.946 I-0.021 J0.6
X217.357 Y-16.5 I-0.249 J0.546
G1 X219.502 Y-3.699
G3 X219.159 Y-3.054 I-0.592 J0.099
X218.931 Y-3 I-0.249 J-0.546
G1 X217.632
X217.475 Y-3.008
X217.326 Y-3.024
X217.178 Y-3.05
X217.032 Y-3.086
X216.873 Y-3.134
X216.703 Y-3.196
X216.52 Y-3.275
X216.324 Y-3.373
X216.123 Y-3.489
X215.901 Y-3.633
X215.682 Y-3.794
X215.439 Y-3.994
X215.197 Y-4.217
X214.946 Y-4.477
X214.68 Y-4.785
X214.427 Y-5.114
X214.164 Y-5.498
X213.895 Y-5.944
X213.643 Y-6.419
X213.401 Y-6.946
X213.169 Y-7.536
X212.957 Y-8.18
X212.773 Y-8.864
X212.625 Y-9.575
X212.516 Y-10.3
X212.448 Y-11.031
X212.422 Y-11.75
X212.436 Y-12.438
X212.485 Y-13.089
X212.565 Y-13.689
X212.666 Y-14.217
X212.783 Y-14.686
X212.898 Y-15.054
X213.023 Y-15.39
X213.142 Y-15.66
X213.275 Y-15.922
X213.324 Y-16.005
X213.524 Y-16.29
X213.771 Y-16.535
X214.056 Y-16.734
X214.371 Y-16.88
X214.707 Y-16.97
X215.053 Y-17
X215.478
G3 X215.706 Y-16.946 I-0.021 J0.6
X216.049 Y-16.5 I-0.249 J0.546
G1 X218.203 Y-3.699
G3 X217.632 Y-3 I-0.592 J0.1
G1 X216.313
X216.143 Y-3.008
X215.994 Y-3.024
X215.847 Y-3.051
X215.696 Y-3.087
X215.541 Y-3.134
X215.366 Y-3.199
X215.188 Y-3.275
X214.989 Y-3.375
X214.791 Y-3.489
X214.571 Y-3.632
X214.347 Y-3.796
X214.111 Y-3.991
X213.86 Y-4.223
X213.615 Y-4.475
X213.353 Y-4.778
X213.089 Y-5.122
X212.832 Y-5.497
X212.567 Y-5.937
X212.303 Y-6.434
X212.064 Y-6.956
X211.835 Y-7.537
X211.625 Y-8.174
X211.443 Y-8.855
X211.294 Y-9.568
X211.185 Y-10.296
X211.117 Y-11.027
X211.09 Y-11.747
X211.104 Y-12.441
X211.154 Y-13.098
X211.234 Y-13.695
X211.333 Y-14.214
X211.45 Y-14.684
X211.567 Y-15.058
X211.69 Y-15.387
X211.811 Y-15.662
X211.942 Y-15.92
X211.991 Y-16.005
X212.192 Y-16.29
X212.438 Y-16.535
X212.723 Y-16.734
X213.038 Y-16.88
X213.374 Y-16.97
X213.72 Y-17
X214.168
G3 X214.396 Y-16.946 I-0.021 J0.6
X214.739 Y-16.5 I-0.249 J0.546
G1 X216.884 Y-3.699
G3 X216.541 Y-3.054 I-0.592 J0.099
X216.313 Y-3 I-0.249 J-0.546
G1 X214.953
X214.803 Y-3.007
X214.654 Y-3.024
X214.507 Y-3.051
X214.355 Y-3.089
X214.2 Y-3.136
X214.024 Y-3.202
X213.846 Y-3.279
X213.645 Y-3.38
X213.445 Y-3.496
X213.226 Y-3.64
X213 Y-3.807
X212.765 Y-4.002
X212.512 Y-4.238
X212.266 Y-4.494
X212.004 Y-4.799
X211.737 Y-5.149
X211.481 Y-5.525
X211.218 Y-5.964
X210.955 Y-6.465
X210.715 Y-6.993
X210.489 Y-7.573
X210.281 Y-8.211
X210.101 Y-8.893
X209.955 Y-9.607
X209.848 Y-10.338
X209.782 Y-11.073
X209.758 Y-11.795
X209.774 Y-12.487
X209.827 Y-13.142
X209.907 Y-13.731
X210.008 Y-14.247
X210.126 Y-14.71
X210.243 Y-15.084
X210.364 Y-15.404
X210.487 Y-15.682
X210.617 Y-15.934
X210.662 Y-16.012
X210.863 Y-16.294
X211.109 Y-16.538
X211.393 Y-16.735
X211.708 Y-16.881
X212.042 Y-16.97
X212.388 Y-17
X212.799
G3 X213.37 Y-16.5 I-0.021 J0.6
G1 X215.524 Y-3.699
G3 X214.953 Y-3 I-0.592 J0.1
G1 X213.604
X213.455 Y-3.007
X213.306 Y-3.025
X213.158 Y-3.053
X213.005 Y-3.092
X212.849 Y-3.142
X212.671 Y-3.209
X212.492 Y-3.288
X212.289 Y-3.392
X212.088 Y-3.511
X211.867 Y-3.658
X211.64 Y-3.828
X211.404 Y-4.027
X211.149 Y-4.267
X210.902 Y-4.527
X210.64 Y-4.837
X210.372 Y-5.193
X210.117 Y-5.573
X209.855 Y-6.017
X209.594 Y-6.523
X209.354 Y-7.06
X209.131 Y-7.644
X208.927 Y-8.285
X208.751 Y-8.972
X208.609 Y-9.69
X208.506 Y-10.424
X208.445 Y-11.16
X208.426 Y-11.881
X208.447 Y-12.57
X208.503 Y-13.221
X208.586 Y-13.794
X208.689 Y-14.307
X208.807 Y-14.758
X208.927 Y-15.13
X209.045 Y-15.437
X209.171 Y-15.716
X209.299 Y-15.961
X209.336 Y-16.023
X209.537 Y-16.303
X209.783 Y-16.544
X210.066 Y-16.739
X210.379 Y-16.882
X210.712 Y-16.97
X211.055 Y-17
X212.388
G3 X212.964 Y-16.457 I-0.021 J0.6
G1 X214.181 Y-3.656
G3 X213.604 Y-3 I-0.597 J0.057
G1 X212.285
X212.136 Y-3.007
X211.987 Y-3.024
X211.839 Y-3.051
X211.692 Y-3.088
X211.532 Y-3.137
X211.361 Y-3.2
X211.179 Y-3.28
X210.981 Y-3.379
X210.779 Y-3.496
X210.556 Y-3.643
X210.336 Y-3.805
X210.096 Y-4.005
X209.851 Y-4.232
X209.6 Y-4.493
X209.333 Y-4.805
X209.077 Y-5.14
X208.816 Y-5.524
X208.549 Y-5.97
X208.294 Y-6.456
X208.055 Y-6.98
X207.826 Y-7.569
X207.617 Y-8.212
X207.435 Y-8.898
X207.289 Y-9.614
X207.182 Y-10.345
X207.116 Y-11.079
X207.092 Y-11.795
X207.108 Y-12.483
X207.16 Y-13.132
X207.242 Y-13.73
X207.343 Y-14.248
X207.461 Y-14.713
X207.576 Y-15.08
X207.7 Y-15.407
X207.821 Y-15.679
X207.952 Y-15.936
X207.997 Y-16.012
X208.197 Y-16.294
X208.443 Y-16.538
X208.728 Y-16.735
X209.042 Y-16.881
X209.377 Y-16.97
X209.722 Y-17
X210.14
G3 X210.368 Y-16.946 I-0.021 J0.6
X210.711 Y-16.5 I-0.249 J0.546
G1 X212.856 Y-3.699
G3 X212.513 Y-3.054 I-0.592 J0.099
X212.285 Y-3 I-0.249 J-0.546
G1 X210.987
X210.811 Y-3.009
X210.662 Y-3.025
X210.514 Y-3.051
X210.366 Y-3.087
X210.209 Y-3.135
X210.035 Y-3.199
X209.857 Y-3.276
X209.657 Y-3.376
X209.459 Y-3.489
X209.237 Y-3.634
X209.016 Y-3.796
X208.778 Y-3.992
X208.53 Y-4.222
X208.283 Y-4.477
X208.02 Y-4.782
X207.759 Y-5.12
X207.501 Y-5.498
X207.235 Y-5.939
X206.974 Y-6.431
X206.735 Y-6.951
X206.506 Y-7.535
X206.295 Y-8.175
X206.112 Y-8.859
X205.963 Y-9.572
X205.854 Y-10.3
X205.786 Y-11.032
X205.76 Y-11.752
X205.774 Y-12.443
X205.824 Y-13.098
X205.904 Y-13.697
X206.003 Y-14.217
X206.121 Y-14.687
X206.236 Y-15.059
X206.36 Y-15.389
X206.48 Y-15.663
X206.612 Y-15.922
X206.661 Y-16.006
X206.861 Y-16.29
X207.107 Y-16.535
X207.393 Y-16.734
X207.708 Y-16.88
X208.043 Y-16.97
X208.39 Y-17
X209.722
G3 X209.95 Y-16.946 I-0.021 J0.6
X210.298 Y-16.459 I-0.249 J0.546
G1 X211.563 Y-3.659
G3 X210.987 Y-3 I-0.597 J0.059
G1 X209.668
X209.479 Y-3.009
X209.33 Y-3.025
X209.183 Y-3.052
X209.032 Y-3.088
X208.878 Y-3.135
X208.703 Y-3.199
X208.526 Y-3.276
X208.326 Y-3.376
X208.127 Y-3.489
X207.908 Y-3.632
X207.685 Y-3.796
X207.449 Y-3.99
X207.197 Y-4.222
X206.952 Y-4.476
X206.69 Y-4.779
X206.426 Y-5.122
X206.169 Y-5.497
X205.904 Y-5.935
X205.641 Y-6.432
X205.402 Y-6.952
X205.174 Y-7.533
X204.964 Y-8.17
X204.781 Y-8.851
X204.632 Y-9.564
X204.522 Y-10.294
X204.454 Y-11.027
X204.428 Y-11.748
X204.441 Y-12.44
X204.491 Y-13.097
X204.571 Y-13.695
X204.67 Y-14.214
X204.787 Y-14.684
X204.904 Y-15.058
X205.026 Y-15.387
X205.147 Y-15.662
X205.278 Y-15.92
X205.328 Y-16.005
X205.528 Y-16.289
X205.775 Y-16.535
X206.06 Y-16.734
X206.375 Y-16.88
X206.711 Y-16.97
X207.057 Y-17
X207.473
G3 X208.043 Y-16.502 I-0.021 J0.6
G1 X210.238 Y-3.701
G3 X209.668 Y-3 I-0.591 J0.101
G1 X208.258
X208.108 Y-3.007
X207.959 Y-3.027
X207.812 Y-3.056
X207.657 Y-3.097
X207.499 Y-3.147
X207.32 Y-3.217
X207.138 Y-3.299
X206.937 Y-3.404
X206.73 Y-3.527
X206.512 Y-3.674
X206.278 Y-3.853
X206.045 Y-4.051
X205.789 Y-4.296
X205.538 Y-4.564
X205.281 Y-4.873
X205.01 Y-5.237
X204.752 Y-5.629
X204.495 Y-6.072
X204.238 Y-6.579
X203.99 Y-7.143
X203.771 Y-7.731
X203.572 Y-8.37
X203.401 Y-9.057
X203.264 Y-9.776
X203.166 Y-10.511
X203.11 Y-11.248
X203.096 Y-11.971
X203.122 Y-12.66
X203.181 Y-13.294
X203.266 Y-13.856
X203.374 Y-14.37
X203.489 Y-14.8
X203.613 Y-15.175
X203.728 Y-15.468
X203.858 Y-15.751
X203.983 Y-15.986
X204.013 Y-16.035
X204.214 Y-16.311
X204.459 Y-16.549
X204.742 Y-16.742
X205.053 Y-16.884
X205.383 Y-16.971
X205.724 Y-17
X206.154
G3 X206.382 Y-16.946 I-0.021 J0.6
X206.725 Y-16.498 I-0.249 J0.546
G1 X208.829 Y-3.697
G3 X208.258 Y-3 I-0.592 J0.097
G1 X206.959
X206.809 Y-3.007
X206.66 Y-3.024
X206.513 Y-3.051
X206.367 Y-3.086
X206.204 Y-3.136
X206.037 Y-3.198
X205.852 Y-3.278
X205.66 Y-3.375
X205.454 Y-3.493
X205.234 Y-3.637
X205.012 Y-3.8
X204.769 Y-4.001
X204.531 Y-4.222
X204.277 Y-4.486
X204.012 Y-4.794
X203.756 Y-5.127
X203.49 Y-5.518
X203.221 Y-5.964
X202.974 Y-6.433
X202.731 Y-6.964
X202.5 Y-7.556
X202.289 Y-8.201
X202.107 Y-8.884
X201.962 Y-9.59
X201.854 Y-10.317
X201.786 Y-11.057
X201.761 Y-11.781
X201.776 Y-12.467
X201.826 Y-13.109
X201.907 Y-13.706
X202.009 Y-14.236
X202.127 Y-14.702
X202.241 Y-15.066
X202.367 Y-15.401
X202.485 Y-15.669
X202.618 Y-15.93
X202.664 Y-16.009
X202.865 Y-16.292
X203.111 Y-16.536
X203.396 Y-16.735
X203.711 Y-16.881
X204.046 Y-16.97
X204.391 Y-17
X204.805
G3 X205.376 Y-16.5 I-0.021 J0.6
G1 X207.53 Y-3.699
G3 X206.959 Y-3 I-0.592 J0.1
G1 X205.64
X205.482 Y-3.008
X205.333 Y-3.024
X205.185 Y-3.05
X205.035 Y-3.087
X204.88 Y-3.134
X204.705 Y-3.198
X204.527 Y-3.275
X204.328 Y-3.375
X204.129 Y-3.489
X203.907 Y-3.633
X203.685 Y-3.796
X203.447 Y-3.993
X203.197 Y-4.224
X202.952 Y-4.477
X202.69 Y-4.781
X202.427 Y-5.122
X202.17 Y-5.499
X201.903 Y-5.94
X201.641 Y-6.435
X201.402 Y-6.956
X201.174 Y-7.537
X200.964 Y-8.174
X200.781 Y-8.857
X200.632 Y-9.572
X200.523 Y-10.302
X200.455 Y-11.032
X200.429 Y-11.751
X200.443 Y-12.444
X200.493 Y-13.1
X200.573 Y-13.698
X200.672 Y-14.217
X200.79 Y-14.687
X200.906 Y-15.06
X201.029 Y-15.389
X201.15 Y-15.663
X201.281 Y-15.922
X201.33 Y-16.006
X201.53 Y-16.29
X201.777 Y-16.535
X202.062 Y-16.734
X202.377 Y-16.88
X202.713 Y-16.97
X203.059 Y-17
X203.495
G3 X204.066 Y-16.5 I-0.021 J0.6
G1 X206.211 Y-3.699
G3 X205.868 Y-3.054 I-0.592 J0.099
X205.64 Y-3 I-0.249 J-0.546
G1 X204.341
X204.149 Y-3.01
X203.999 Y-3.026
X203.852 Y-3.052
X203.702 Y-3.088
X203.547 Y-3.135
X203.372 Y-3.199
X203.195 Y-3.276
X202.995 Y-3.376
X202.797 Y-3.489
X202.577 Y-3.632
X202.354 Y-3.796
X202.118 Y-3.99
X201.867 Y-4.222
X201.621 Y-4.476
X201.358 Y-4.78
X201.094 Y-5.123
X200.838 Y-5.497
X200.573 Y-5.935
X200.31 Y-6.431
X200.072 Y-6.951
X199.843 Y-7.532
X199.633 Y-8.169
X199.45 Y-8.851
X199.302 Y-9.563
X199.192 Y-10.292
X199.123 Y-11.026
X199.097 Y-11.747
X199.11 Y-12.439
X199.16 Y-13.096
X199.24 Y-13.694
X199.339 Y-14.213
X199.456 Y-14.683
X199.572 Y-15.057
X199.695 Y-15.386
X199.816 Y-15.661
X199.947 Y-15.92
X199.997 Y-16.005
X200.197 Y-16.289
X200.444 Y-16.535
X200.729 Y-16.734
X201.044 Y-16.88
X201.38 Y-16.97
X201.726 Y-17
X203.059
G3 X203.635 Y-16.46 I-0.021 J0.6
G1 X204.917 Y-3.659
G3 X204.569 Y-3.054 I-0.597 J0.06
X204.341 Y-3 I-0.249 J-0.546
G1 X202.932
X202.782 Y-3.007
X202.633 Y-3.027
X202.486 Y-3.055
X202.331 Y-3.096
X202.173 Y-3.146
X201.994 Y-3.215
X201.813 Y-3.296
X201.612 Y-3.401
X201.406 Y-3.523
X201.188 Y-3.67
X200.954 Y-3.847
X200.721 Y-4.045
X200.466 Y-4.289
X200.216 Y-4.555
X199.958 Y-4.863
X199.687 Y-5.226
X199.43 Y-5.615
X199.172 Y-6.057
X198.914 Y-6.564
X198.666 Y-7.125
X198.447 Y-7.709
X198.247 Y-8.348
X198.075 Y-9.035
X197.937 Y-9.753
X197.838 Y-10.488
X197.781 Y-11.225
X197.765 Y-11.948
X197.79 Y-12.638
X197.848 Y-13.277
X197.932 Y-13.839
X198.039 Y-14.354
X198.155 Y-14.789
X198.278 Y-15.164
X198.394 Y-15.46
X198.523 Y-15.742
X198.648 Y-15.979
X198.68 Y-16.032
X198.881 Y-16.309
X199.127 Y-16.548
X199.409 Y-16.741
X199.721 Y-16.884
X200.052 Y-16.971
X200.393 Y-17
X200.827
G3 X201.055 Y-16.946 I-0.021 J0.6
X201.398 Y-16.498 I-0.249 J0.546
G1 X203.503 Y-3.697
G3 X202.932 Y-3 I-0.592 J0.097
G1 X201.613
X201.463 Y-3.007
X201.314 Y-3.025
X201.167 Y-3.053
X201.02 Y-3.09
X200.858 Y-3.141
X200.687 Y-3.205
X200.503 Y-3.286
X200.306 Y-3.387
X200.101 Y-3.506
X199.878 Y-3.654
X199.657 Y-3.819
X199.415 Y-4.022
X199.172 Y-4.25
X198.919 Y-4.515
X198.651 Y-4.831
X198.395 Y-5.168
X198.132 Y-5.559
X197.865 Y-6.01
X197.613 Y-6.496
X197.374 Y-7.025
X197.147 Y-7.618
X196.94 Y-8.265
X196.761 Y-8.954
X196.617 Y-9.672
X196.513 Y-10.404
X196.451 Y-11.138
X196.43 Y-11.851
X196.449 Y-12.536
X196.504 Y-13.18
X196.588 Y-13.773
X196.69 Y-14.287
X196.809 Y-14.746
X196.925 Y-15.109
X197.048 Y-15.43
X197.17 Y-15.701
X197.301 Y-15.954
X197.34 Y-16.019
X197.54 Y-16.3
X197.786 Y-16.542
X198.07 Y-16.738
X198.383 Y-16.882
X198.717 Y-16.97
X199.06 Y-17
X199.468
G3 X199.695 Y-16.946 I-0.021 J0.6
X200.038 Y-16.5 I-0.249 J0.546
G1 X202.183 Y-3.699
G3 X201.613 Y-3 I-0.592 J0.099
G1 X200.314
X200.15 Y-3.008
X200.001 Y-3.024
X199.853 Y-3.051
X199.706 Y-3.086
X199.548 Y-3.134
X199.377 Y-3.197
X199.195 Y-3.276
X198.998 Y-3.374
X198.798 Y-3.489
X198.575 Y-3.634
X198.356 Y-3.794
X198.115 Y-3.994
X197.871 Y-4.219
X197.621 Y-4.477
X197.356 Y-4.784
X197.1 Y-5.116
X196.839 Y-5.498
X196.571 Y-5.942
X196.316 Y-6.424
X196.075 Y-6.948
X195.844 Y-7.536
X195.632 Y-8.178
X195.449 Y-8.863
X195.301 Y-9.575
X195.191 Y-10.302
X195.123 Y-11.032
X195.097 Y-11.75
X195.111 Y-12.439
X195.161 Y-13.092
X195.241 Y-13.692
X195.341 Y-14.217
X195.459 Y-14.686
X195.573 Y-15.056
X195.698 Y-15.39
X195.818 Y-15.661
X195.95 Y-15.922
X195.999 Y-16.006
X196.199 Y-16.29
X196.446 Y-16.535
X196.731 Y-16.734
X197.046 Y-16.88
X197.382 Y-16.97
X197.728 Y-17
X199.06
G3 X199.637 Y-16.459 I-0.021 J0.6
G1 X200.89 Y-3.658
G3 X200.314 Y-3 I-0.597 J0.058
G1 X198.995
X198.818 Y-3.009
X198.669 Y-3.025
X198.522 Y-3.051
X198.371 Y-3.088
X198.216 Y-3.135
X198.041 Y-3.199
X197.864 Y-3.275
X197.664 Y-3.375
X197.466 Y-3.489
X197.246 Y-3.632
X197.023 Y-3.796
X196.786 Y-3.991
X196.535 Y-4.223
X196.29 Y-4.476
X196.028 Y-4.779
X195.764 Y-5.122
X195.508 Y-5.497
X195.242 Y-5.936
X194.979 Y-6.433
X194.739 Y-6.954
X194.511 Y-7.536
X194.301 Y-8.173
X194.118 Y-8.855
X193.97 Y-9.567
X193.86 Y-10.295
X193.792 Y-11.027
X193.765 Y-11.748
X193.779 Y-12.441
X193.829 Y-13.098
X193.909 Y-13.695
X194.008 Y-14.214
X194.125 Y-14.684
X194.242 Y-15.058
X194.365 Y-15.387
X194.486 Y-15.662
X194.617 Y-15.92
X194.666 Y-16.005
X194.866 Y-16.29
X195.113 Y-16.535
X195.398 Y-16.734
X195.713 Y-16.88
X196.049 Y-16.97
X196.395 Y-17
X196.8
G3 X197.028 Y-16.946 I-0.021 J0.6
X197.37 Y-16.502 I-0.249 J0.546
G1 X199.565 Y-3.701
G3 X199.223 Y-3.054 I-0.591 J0.101
X198.995 Y-3 I-0.249 J-0.546
G1 X197.635
X197.485 Y-3.007
X197.336 Y-3.024
X197.188 Y-3.05
X197.038 Y-3.087
X196.883 Y-3.134
X196.707 Y-3.199
X196.53 Y-3.275
X196.33 Y-3.376
X196.131 Y-3.49
X195.911 Y-3.633
X195.687 Y-3.798
X195.452 Y-3.992
X195.199 Y-4.226
X194.953 Y-4.48
X194.691 Y-4.784
X194.426 Y-5.129
X194.17 Y-5.505
X193.905 Y-5.943
X193.642 Y-6.441
X193.403 Y-6.963
X193.175 Y-7.543
X192.966 Y-8.18
X192.784 Y-8.862
X192.636 Y-9.575
X192.527 Y-10.305
X192.459 Y-11.039
X192.433 Y-11.761
X192.447 Y-12.453
X192.498 Y-13.109
X192.578 Y-13.704
X192.677 Y-14.223
X192.795 Y-14.691
X192.912 Y-15.065
X193.034 Y-15.391
X193.155 Y-15.667
X193.286 Y-15.924
X193.335 Y-16.007
X193.535 Y-16.291
X193.781 Y-16.535
X194.066 Y-16.734
X194.381 Y-16.88
X194.717 Y-16.97
X195.063 Y-17
X195.481
G3 X196.052 Y-16.5 I-0.021 J0.6
G1 X198.206 Y-3.699
G3 X197.635 Y-3 I-0.592 J0.1
G1 X196.286
X196.137 Y-3.007
X195.988 Y-3.025
X195.84 Y-3.052
X195.687 Y-3.091
X195.531 Y-3.14
X195.354 Y-3.206
X195.176 Y-3.285
X194.974 Y-3.388
X194.772 Y-3.505
X194.553 Y-3.65
X194.325 Y-3.82
X194.09 Y-4.017
X193.835 Y-4.256
X193.589 Y-4.514
X193.328 Y-4.821
X193.059 Y-5.176
X192.805 Y-5.554
X192.543 Y-5.995
X192.281 Y-6.499
X192.039 Y-7.036
X191.816 Y-7.617
X191.611 Y-8.256
X191.433 Y-8.941
X191.289 Y-9.657
X191.185 Y-10.39
X191.122 Y-11.126
X191.101 Y-11.848
X191.12 Y-12.539
X191.175 Y-13.192
X191.256 Y-13.769
X191.359 Y-14.284
X191.477 Y-14.739
X191.596 Y-15.113
X191.715 Y-15.424
X191.84 Y-15.703
X191.968 Y-15.95
X192.009 Y-16.019
X192.21 Y-16.299
X192.455 Y-16.541
X192.739 Y-16.737
X193.053 Y-16.882
X193.386 Y-16.97
X193.73 Y-17
X194.132
G3 X194.703 Y-16.5 I-0.021 J0.6
G1 X196.857 Y-3.699
G3 X196.286 Y-3 I-0.592 J0.1
G1 X194.967
X194.818 Y-3.007
X194.668 Y-3.024
X194.521 Y-3.05
X194.374 Y-3.086
X194.215 Y-3.135
X194.043 Y-3.198
X193.863 Y-3.276
X193.665 Y-3.375
X193.464 Y-3.491
X193.241 Y-3.636
X193.022 Y-3.797
X192.782 Y-3.995
X192.537 Y-4.222
X192.287 Y-4.481
X192.02 Y-4.791
X191.764 Y-5.125
X191.503 Y-5.506
X191.236 Y-5.949
X190.98 Y-6.435
X190.741 Y-6.956
X190.511 Y-7.542
X190.3 Y-8.183
X190.118 Y-8.868
X189.97 Y-9.582
X189.861 Y-10.313
X189.793 Y-11.047
X189.767 Y-11.764
X189.782 Y-12.453
X189.832 Y-13.104
X189.913 Y-13.705
X190.013 Y-14.226
X190.13 Y-14.694
X190.246 Y-15.063
X190.37 Y-15.394
X190.49 Y-15.666
X190.622 Y-15.925
X190.67 Y-16.007
X190.87 Y-16.291
X191.116 Y-16.536
X191.401 Y-16.734
X191.716 Y-16.88
X192.052 Y-16.97
X192.397 Y-17
X192.822
G3 X193.05 Y-16.946 I-0.021 J0.6
X193.393 Y-16.5 I-0.249 J0.546
G1 X195.538 Y-3.699
G3 X194.967 Y-3 I-0.592 J0.099
G1 X193.668
X193.487 Y-3.009
X193.338 Y-3.025
X193.19 Y-3.051
X193.04 Y-3.088
X192.885 Y-3.135
X192.71 Y-3.199
X192.532 Y-3.276
X192.333 Y-3.376
X192.134 Y-3.49
X191.914 Y-3.633
X191.691 Y-3.796
X191.454 Y-3.992
X191.204 Y-4.223
X190.958 Y-4.477
X190.696 Y-4.78
X190.433 Y-5.122
X190.176 Y-5.498
X189.911 Y-5.936
X189.649 Y-6.432
X189.41 Y-6.952
X189.181 Y-7.534
X188.971 Y-8.173
X188.788 Y-8.855
X188.639 Y-9.569
X188.53 Y-10.298
X188.462 Y-11.03
X188.435 Y-11.751
X188.449 Y-12.443
X188.499 Y-13.099
X188.579 Y-13.697
X188.678 Y-14.216
X188.796 Y-14.686
X188.912 Y-15.059
X189.035 Y-15.388
X189.156 Y-15.663
X189.287 Y-15.921
X189.336 Y-16.006
X189.536 Y-16.29
X189.783 Y-16.535
X190.068 Y-16.734
X190.383 Y-16.88
X190.719 Y-16.97
X191.065 Y-17
X192.397
G3 X192.974 Y-16.46 I-0.021 J0.6
G1 X194.245 Y-3.659
G3 X193.668 Y-3 I-0.597 J0.059
G1 X192.259
X192.109 Y-3.007
X191.96 Y-3.027
X191.813 Y-3.057
X191.657 Y-3.098
X191.499 Y-3.15
X191.319 Y-3.22
X191.137 Y-3.303
X190.936 Y-3.408
X190.727 Y-3.533
X190.51 Y-3.681
X190.274 Y-3.862
X190.041 Y-4.061
X189.786 Y-4.307
X189.533 Y-4.579
X189.277 Y-4.888
X189.007 Y-5.253
X188.747 Y-5.65
X188.491 Y-6.094
X188.234 Y-6.602
X187.987 Y-7.17
X187.767 Y-7.765
X187.57 Y-8.404
X187.401 Y-9.091
X187.266 Y-9.81
X187.17 Y-10.546
X187.116 Y-11.283
X187.104 Y-12.006
X187.132 Y-12.694
X187.192 Y-13.32
X187.278 Y-13.881
X187.387 Y-14.395
X187.502 Y-14.817
X187.626 Y-15.192
X187.741 Y-15.481
X187.872 Y-15.764
X187.996 Y-15.996
X188.023 Y-16.04
X188.224 Y-16.315
X188.47 Y-16.552
X188.752 Y-16.743
X189.062 Y-16.885
X189.392 Y-16.971
X189.732 Y-17
X190.155
G3 X190.726 Y-16.498 I-0.021 J0.6
G1 X192.83 Y-3.697
G3 X192.487 Y-3.054 I-0.592 J0.097
X192.259 Y-3 I-0.249 J-0.546
G1 X190.94
X190.79 Y-3.007
X190.641 Y-3.026
X190.494 Y-3.055
X190.347 Y-3.092
X190.183 Y-3.144
X190.012 Y-3.209
X189.827 Y-3.292
X189.63 Y-3.394
X189.424 Y-3.515
X189.2 Y-3.665
X188.978 Y-3.832
X188.734 Y-4.039
X188.492 Y-4.267
X188.238 Y-4.536
X187.97 Y-4.855
X187.715 Y-5.195
X187.45 Y-5.593
X187.182 Y-6.049
X186.932 Y-6.535
X186.695 Y-7.07
X186.468 Y-7.667
X186.263 Y-8.317
X186.087 Y-9.009
X185.946 Y-9.729
X185.845 Y-10.463
X185.786 Y-11.195
X185.769 Y-11.905
X185.791 Y-12.588
X185.848 Y-13.227
X185.934 Y-13.815
X186.037 Y-14.325
X186.157 Y-14.777
X186.274 Y-15.138
X186.396 Y-15.452
X186.518 Y-15.722
X186.649 Y-15.971
X186.682 Y-16.027
X186.883 Y-16.305
X187.129 Y-16.545
X187.412 Y-16.74
X187.724 Y-16.883
X188.056 Y-16.971
X188.398 Y-17
X188.836
G3 X189.063 Y-16.946 I-0.021 J0.6
X189.407 Y-16.498 I-0.249 J0.546
G1 X191.511 Y-3.697
G3 X191.168 Y-3.054 I-0.592 J0.097
X190.94 Y-3 I-0.249 J-0.546
G1 X189.641
X189.488 Y-3.008
X189.339 Y-3.024
X189.192 Y-3.05
X189.046 Y-3.085
X188.885 Y-3.134
X188.717 Y-3.196
X188.533 Y-3.275
X188.338 Y-3.373
X188.136 Y-3.489
X187.915 Y-3.633
X187.695 Y-3.794
X187.451 Y-3.995
X187.211 Y-4.217
X186.959 Y-4.478
X186.693 Y-4.785
X186.44 Y-5.114
X186.177 Y-5.5
X185.907 Y-5.946
X185.657 Y-6.418
X185.414 Y-6.947
X185.181 Y-7.539
X184.969 Y-8.183
X184.786 Y-8.868
X184.638 Y-9.576
X184.529 Y-10.301
X184.461 Y-11.032
X184.435 Y-11.753
X184.449 Y-12.44
X184.499 Y-13.09
X184.578 Y-13.689
X184.68 Y-14.219
X184.797 Y-14.688
X184.911 Y-15.055
X185.037 Y-15.391
X185.155 Y-15.66
X185.289 Y-15.922
X185.337 Y-16.006
X185.537 Y-16.29
X185.784 Y-16.535
X186.069 Y-16.734
X186.384 Y-16.88
X186.72 Y-16.97
X187.066 Y-17
X187.487
G3 X188.058 Y-16.5 I-0.021 J0.6
G1 X190.212 Y-3.699
G3 X189.641 Y-3 I-0.592 J0.1
G1 X188.322
X188.157 Y-3.008
X188.008 Y-3.024
X187.86 Y-3.05
X187.71 Y-3.087
X187.555 Y-3.134
X187.38 Y-3.198
X187.202 Y-3.275
X187.003 Y-3.375
X186.804 Y-3.489
X186.584 Y-3.632
X186.361 Y-3.796
X186.124 Y-3.991
X185.873 Y-4.223
X185.629 Y-4.475
X185.367 Y-4.778
X185.103 Y-5.122
X184.846 Y-5.497
X184.58 Y-5.938
X184.316 Y-6.435
X184.076 Y-6.957
X183.848 Y-7.538
X183.638 Y-8.175
X183.456 Y-8.856
X183.307 Y-9.569
X183.198 Y-10.297
X183.13 Y-11.028
X183.103 Y-11.748
X183.117 Y-12.442
X183.167 Y-13.099
X183.247 Y-13.696
X183.346 Y-14.215
X183.464 Y-14.685
X183.58 Y-15.059
X183.703 Y-15.387
X183.824 Y-15.663
X183.955 Y-15.921
X184.005 Y-16.006
X184.205 Y-16.29
X184.451 Y-16.535
X184.736 Y-16.734
X185.051 Y-16.88
X185.387 Y-16.97
X185.733 Y-17
X186.177
G3 X186.405 Y-16.946 I-0.021 J0.6
X186.748 Y-16.5 I-0.249 J0.546
G1 X188.893 Y-3.699
G3 X188.55 Y-3.054 I-0.592 J0.099
X188.322 Y-3 I-0.249 J-0.546
G1 X187.023
X186.823 Y-3.01
X186.674 Y-3.026
X186.526 Y-3.052
X186.376 Y-3.089
X186.222 Y-3.136
X186.047 Y-3.2
X185.87 Y-3.276
X185.67 Y-3.376
X185.472 Y-3.49
X185.252 Y-3.632
X185.029 Y-3.796
X184.793 Y-3.99
X184.542 Y-4.222
X184.296 Y-4.477
X184.033 Y-4.781
X183.769 Y-5.124
X183.512 Y-5.499
X183.247 Y-5.937
X182.984 Y-6.433
X182.745 Y-6.953
X182.517 Y-7.533
X182.307 Y-8.169
X182.125 Y-8.85
X181.976 Y-9.563
X181.866 Y-10.292
X181.798 Y-11.026
X181.771 Y-11.748
X181.785 Y-12.439
X181.835 Y-13.096
X181.914 Y-13.694
X182.013 Y-14.213
X182.131 Y-14.683
X182.247 Y-15.057
X182.37 Y-15.386
X182.491 Y-15.661
X182.622 Y-15.92
X182.672 Y-16.005
X182.872 Y-16.289
X183.118 Y-16.535
X183.403 Y-16.734
X183.719 Y-16.88
X184.054 Y-16.97
X184.401 Y-17
X184.808
G3 X185.036 Y-16.946 I-0.021 J0.6
X185.378 Y-16.503 I-0.249 J0.546
G1 X187.593 Y-3.702
G3 X187.023 Y-3 I-0.591 J0.102
G1 X185.614
X185.464 Y-3.007
X185.315 Y-3.026
X185.168 Y-3.054
X185.013 Y-3.094
X184.856 Y-3.144
X184.677 Y-3.212
X184.498 Y-3.292
X184.296 Y-3.396
X184.092 Y-3.517
X183.873 Y-3.663
X183.641 Y-3.838
X183.408 Y-4.035
X183.152 Y-4.278
X182.903 Y-4.541
X182.644 Y-4.849
X182.374 Y-5.21
X182.118 Y-5.594
X181.859 Y-6.035
X181.6 Y-6.54
X181.353 Y-7.095
X181.133 Y-7.676
X180.932 Y-8.315
X180.757 Y-9.001
X180.617 Y-9.719
X180.516 Y-10.453
X180.457 Y-11.189
X180.44 Y-11.912
X180.462 Y-12.602
X180.52 Y-13.248
X180.602 Y-13.814
X180.707 Y-14.329
X180.824 Y-14.771
X180.946 Y-15.146
X181.063 Y-15.447
X181.191 Y-15.728
X181.317 Y-15.969
X181.352 Y-16.027
X181.553 Y-16.306
X181.799 Y-16.546
X182.082 Y-16.74
X182.394 Y-16.883
X182.726 Y-16.971
X183.068 Y-17
X184.401
G3 X184.977 Y-16.457 I-0.021 J0.6
G1 X186.19 Y-3.656
G3 X185.614 Y-3 I-0.597 J0.057
G1 X184.295
X184.145 Y-3.007
X183.996 Y-3.025
X183.848 Y-3.052
X183.701 Y-3.089
X183.541 Y-3.138
X183.369 Y-3.202
X183.187 Y-3.282
X182.99 Y-3.382
X182.786 Y-3.5
X182.562 Y-3.647
X182.343 Y-3.811
X182.101 Y-4.012
X181.858 Y-4.239
X181.606 Y-4.502
X181.338 Y-4.816
X181.082 Y-5.152
X180.82 Y-5.54
X180.552 Y-5.988
X180.299 Y-6.472
X180.06 Y-6.999
X179.832 Y-7.59
X179.623 Y-8.234
X179.443 Y-8.921
X179.298 Y-9.638
X179.192 Y-10.369
X179.127 Y-11.104
X179.105 Y-11.818
X179.122 Y-12.504
X179.175 Y-13.151
X179.258 Y-13.747
X179.36 Y-14.264
X179.478 Y-14.726
X179.593 Y-15.091
X179.717 Y-15.417
X179.838 Y-15.687
X179.97 Y-15.943
X180.012 Y-16.015
X180.212 Y-16.296
X180.458 Y-16.539
X180.743 Y-16.736
X181.056 Y-16.881
X181.391 Y-16.97
X181.735 Y-17
X182.149
G3 X182.377 Y-16.946 I-0.021 J0.6
X182.72 Y-16.5 I-0.249 J0.546
G1 X184.865 Y-3.699
G3 X184.522 Y-3.054 I-0.592 J0.099
X184.295 Y-3 I-0.249 J-0.546
G1 X182.996
X182.825 Y-3.009
X182.676 Y-3.024
X182.528 Y-3.051
X182.38 Y-3.087
X182.223 Y-3.135
X182.05 Y-3.198
X181.87 Y-3.276
X181.671 Y-3.375
X181.472 Y-3.489
X181.25 Y-3.634
X181.03 Y-3.795
X180.79 Y-3.993
X180.544 Y-4.221
X180.296 Y-4.477
X180.031 Y-4.784
X179.773 Y-5.119
X179.514 Y-5.499
X179.247 Y-5.941
X178.988 Y-6.429
X178.749 Y-6.95
X178.518 Y-7.536
X178.308 Y-8.177
X178.124 Y-8.861
X177.976 Y-9.574
X177.866 Y-10.302
X177.799 Y-11.032
X177.772 Y-11.751
X177.786 Y-12.442
X177.836 Y-13.096
X177.916 Y-13.696
X178.016 Y-14.218
X178.134 Y-14.687
X178.249 Y-15.058
X178.373 Y-15.389
X178.493 Y-15.662
X178.625 Y-15.922
X178.674 Y-16.006
X178.874 Y-16.29
X179.12 Y-16.535
X179.406 Y-16.734
X179.721 Y-16.88
X180.056 Y-16.97
X180.403 Y-17
X181.735
G3 X182.311 Y-16.459 I-0.021 J0.6
G1 X183.572 Y-3.658
G3 X182.996 Y-3 I-0.597 J0.059
G1 X181.677
X181.493 Y-3.009
X181.344 Y-3.025
X181.196 Y-3.051
X181.046 Y-3.088
X180.891 Y-3.135
X180.716 Y-3.199
X180.539 Y-3.276
X180.339 Y-3.376
X180.141 Y-3.489
X179.921 Y-3.632
X179.698 Y-3.796
X179.462 Y-3.99
X179.21 Y-4.222
X178.965 Y-4.476
X178.703 Y-4.779
X178.439 Y-5.122
X178.182 Y-5.497
X177.917 Y-5.936
X177.654 Y-6.432
X177.415 Y-6.953
X177.186 Y-7.534
X176.976 Y-8.172
X176.793 Y-8.853
X176.645 Y-9.565
X176.535 Y-10.294
X176.467 Y-11.027
X176.44 Y-11.748
X176.454 Y-12.441
X176.504 Y-13.097
X176.584 Y-13.695
X176.683 Y-14.214
X176.8 Y-14.684
X176.916 Y-15.058
X177.039 Y-15.387
X177.16 Y-15.662
X177.291 Y-15.92
X177.341 Y-16.005
X177.541 Y-16.289
X177.788 Y-16.535
X178.073 Y-16.734
X178.388 Y-16.88
X178.724 Y-16.97
X179.07 Y-17
X179.482
G3 X180.052 Y-16.502 I-0.021 J0.6
G1 X182.247 Y-3.701
G3 X181.677 Y-3 I-0.591 J0.101
G1 X180.267
X180.117 Y-3.007
X179.969 Y-3.027
X179.821 Y-3.056
X179.666 Y-3.098
X179.507 Y-3.149
X179.328 Y-3.219
X179.146 Y-3.301
X178.945 Y-3.407
X178.737 Y-3.531
X178.519 Y-3.679
X178.283 Y-3.859
X178.051 Y-4.058
X177.795 Y-4.303
X177.543 Y-4.574
X177.286 Y-4.883
X177.016 Y-5.248
X176.757 Y-5.643
X176.5 Y-6.086
X176.243 Y-6.594
X175.996 Y-7.16
X175.776 Y-7.753
X175.579 Y-8.392
X175.409 Y-9.078
X175.273 Y-9.797
X175.177 Y-10.533
X175.122 Y-11.27
X175.109 Y-11.993
X175.136 Y-12.682
X175.196 Y-13.31
X175.282 Y-13.872
X175.39 Y-14.386
X175.505 Y-14.81
X175.629 Y-15.185
X175.744 Y-15.476
X175.875 Y-15.759
X175.999 Y-15.992
X176.027 Y-16.038
X176.229 Y-16.314
X176.474 Y-16.551
X176.756 Y-16.743
X177.067 Y-16.884
X177.397 Y-16.971
X177.737 Y-17
X178.163
G3 X178.391 Y-16.946 I-0.021 J0.6
X178.734 Y-16.498 I-0.249 J0.546
G1 X180.838 Y-3.697
G3 X180.267 Y-3 I-0.592 J0.097
G1 X178.968
X178.818 Y-3.007
X178.669 Y-3.024
X178.522 Y-3.051
X178.376 Y-3.087
X178.212 Y-3.138
X178.045 Y-3.199
X177.86 Y-3.28
X177.668 Y-3.377
X177.461 Y-3.497
X177.242 Y-3.64
X177.019 Y-3.805
X176.775 Y-4.007
X176.538 Y-4.228
X176.282 Y-4.494
X176.018 Y-4.802
X175.762 Y-5.137
X175.495 Y-5.531
X175.227 Y-5.978
X174.98 Y-6.448
X174.737 Y-6.981
X174.506 Y-7.574
X174.296 Y-8.22
X174.115 Y-8.904
X173.971 Y-9.61
X173.864 Y-10.338
X173.798 Y-11.078
X173.774 Y-11.801
X173.79 Y-12.486
X173.841 Y-13.126
X173.922 Y-13.722
X174.025 Y-14.25
X174.143 Y-14.713
X174.257 Y-15.076
X174.383 Y-15.409
X174.501 Y-15.676
X174.635 Y-15.936
X174.679 Y-16.012
X174.879 Y-16.294
X175.125 Y-16.538
X175.41 Y-16.735
X175.724 Y-16.881
X176.059 Y-16.97
X176.404 Y-17
X176.814
G3 X177.385 Y-16.5 I-0.021 J0.6
G1 X179.539 Y-3.699
G3 X179.196 Y-3.054 I-0.592 J0.1
X178.968 Y-3 I-0.249 J-0.546
G1 X177.649
X177.495 Y-3.008
X177.346 Y-3.024
X177.198 Y-3.05
X177.049 Y-3.086
X176.893 Y-3.134
X176.719 Y-3.198
X176.54 Y-3.275
X176.341 Y-3.375
X176.142 Y-3.488
X175.92 Y-3.633
X175.699 Y-3.796
X175.459 Y-3.993
X175.211 Y-4.223
X174.965 Y-4.477
X174.702 Y-4.782
X174.441 Y-5.121
X174.182 Y-5.499
X173.915 Y-5.942
X173.654 Y-6.435
X173.415 Y-6.955
X173.186 Y-7.538
X172.976 Y-8.176
X172.793 Y-8.859
X172.645 Y-9.574
X172.535 Y-10.303
X172.467 Y-11.033
X172.441 Y-11.751
X172.455 Y-12.443
X172.506 Y-13.099
X172.585 Y-13.697
X172.685 Y-14.217
X172.803 Y-14.687
X172.918 Y-15.059
X173.042 Y-15.389
X173.162 Y-15.663
X173.294 Y-15.922
X173.343 Y-16.006
X173.543 Y-16.29
X173.789 Y-16.535
X174.075 Y-16.734
X174.39 Y-16.88
X174.725 Y-16.97
X175.072 Y-17
X175.504
G3 X175.732 Y-16.946 I-0.021 J0.6
X176.075 Y-16.5 I-0.249 J0.546
G1 X178.22 Y-3.699
G3 X177.649 Y-3 I-0.592 J0.099
G1 X176.35
X176.162 Y-3.009
X176.013 Y-3.025
X175.865 Y-3.052
X175.715 Y-3.088
X175.56 Y-3.135
X175.385 Y-3.199
X175.208 Y-3.276
X175.008 Y-3.376
X174.81 Y-3.489
X174.59 Y-3.632
X174.367 Y-3.796
X174.131 Y-3.99
X173.88 Y-4.222
X173.634 Y-4.476
X173.371 Y-4.78
X173.107 Y-5.123
X172.851 Y-5.498
X172.586 Y-5.936
X172.323 Y-6.432
X172.084 Y-6.952
X171.855 Y-7.533
X171.645 Y-8.171
X171.463 Y-8.852
X171.314 Y-9.564
X171.204 Y-10.293
X171.136 Y-11.026
X171.109 Y-11.748
X171.123 Y-12.44
X171.173 Y-13.096
X171.252 Y-13.694
X171.352 Y-14.214
X171.469 Y-14.683
X171.585 Y-15.057
X171.708 Y-15.386
X171.829 Y-15.662
X171.96 Y-15.92
X172.01 Y-16.005
X172.21 Y-16.289
X172.456 Y-16.535
X172.742 Y-16.734
X173.057 Y-16.88
X173.393 Y-16.97
X173.739 Y-17
X175.072
G3 X175.299 Y-16.946 I-0.021 J0.6
X175.648 Y-16.46 I-0.249 J0.546
G1 X176.926 Y-3.659
G3 X176.578 Y-3.054 I-0.597 J0.06
X176.35 Y-3 I-0.249 J-0.546
G1 X174.941
X174.791 Y-3.007
X174.642 Y-3.027
X174.495 Y-3.056
X174.339 Y-3.096
X174.182 Y-3.147
X174.002 Y-3.217
X173.821 Y-3.299
X173.62 Y-3.404
X173.413 Y-3.527
X173.195 Y-3.674
X172.96 Y-3.853
X172.728 Y-4.051
X172.472 Y-4.295
X172.221 Y-4.564
X171.963 Y-4.872
X171.693 Y-5.236
X171.435 Y-5.628
X171.178 Y-6.071
X170.92 Y-6.578
X170.672 Y-7.141
X170.453 Y-7.729
X170.254 Y-8.368
X170.083 Y-9.055
X169.946 Y-9.773
X169.848 Y-10.508
X169.792 Y-11.245
X169.778 Y-11.968
X169.804 Y-12.658
X169.863 Y-13.292
X169.947 Y-13.854
X170.055 Y-14.368
X170.17 Y-14.799
X170.294 Y-15.174
X170.409 Y-15.467
X170.539 Y-15.75
X170.664 Y-15.985
X170.694 Y-16.035
X170.896 Y-16.311
X171.141 Y-16.549
X171.423 Y-16.742
X171.734 Y-16.884
X172.065 Y-16.971
X172.406 Y-17
X172.836
G3 X173.407 Y-16.498 I-0.021 J0.6
G1 X175.512 Y-3.697
G3 X174.941 Y-3 I-0.592 J0.097
G1 X173.622
X173.472 Y-3.007
X173.323 Y-3.025
X173.176 Y-3.054
X173.029 Y-3.091
X172.866 Y-3.142
X172.695 Y-3.206
X172.511 Y-3.288
X172.314 Y-3.389
X172.109 Y-3.509
X171.885 Y-3.658
X171.664 Y-3.823
X171.421 Y-4.028
X171.178 Y-4.256
X170.926 Y-4.522
X170.657 Y-4.839
X170.401 Y-5.177
X170.138 Y-5.571
X169.87 Y-6.023
X169.619 Y-6.509
X169.381 Y-7.04
X169.154 Y-7.635
X168.947 Y-8.283
X168.769 Y-8.973
X168.627 Y-9.691
X168.524 Y-10.424
X168.462 Y-11.157
X168.443 Y-11.869
X168.463 Y-12.554
X168.518 Y-13.196
X168.603 Y-13.787
X168.706 Y-14.3
X168.825 Y-14.756
X168.941 Y-15.119
X169.064 Y-15.437
X169.186 Y-15.708
X169.317 Y-15.96
X169.354 Y-16.022
X169.554 Y-16.302
X169.8 Y-16.543
X170.084 Y-16.738
X170.397 Y-16.882
X170.73 Y-16.97
X171.073 Y-17
X171.477
G3 X171.704 Y-16.946 I-0.021 J0.6
X172.047 Y-16.5 I-0.249 J0.546
G1 X174.193 Y-3.699
G3 X173.622 Y-3 I-0.592 J0.099
G1 X172.323
X172.163 Y-3.008
X172.013 Y-3.024
X171.866 Y-3.05
X171.72 Y-3.086
X171.561 Y-3.134
X171.391 Y-3.197
X171.208 Y-3.275
X171.012 Y-3.374
X170.811 Y-3.489
X170.589 Y-3.633
X170.37 Y-3.794
X170.127 Y-3.994
X169.885 Y-4.218
X169.634 Y-4.477
X169.368 Y-4.784
X169.114 Y-5.115
X168.852 Y-5.498
X168.583 Y-5.942
X168.33 Y-6.42
X168.088 Y-6.946
X167.857 Y-7.535
X167.645 Y-8.178
X167.461 Y-8.863
X167.313 Y-9.575
X167.204 Y-10.3
X167.136 Y-11.03
X167.11 Y-11.749
X167.123 Y-12.437
X167.173 Y-13.089
X167.253 Y-13.689
X167.354 Y-14.217
X167.471 Y-14.686
X167.585 Y-15.054
X167.711 Y-15.389
X167.829 Y-15.66
X167.962 Y-15.921
X168.011 Y-16.005
X168.212 Y-16.29
X168.458 Y-16.535
X168.743 Y-16.734
X169.058 Y-16.88
X169.394 Y-16.97
X169.74 Y-17
X171.073
G3 X171.649 Y-16.459 I-0.021 J0.6
G1 X172.899 Y-3.658
G3 X172.323 Y-3 I-0.597 J0.058
G1 X171.004
X170.831 Y-3.009
X170.682 Y-3.025
X170.534 Y-3.051
X170.384 Y-3.087
X170.229 Y-3.134
X170.054 Y-3.199
X169.876 Y-3.275
X169.677 Y-3.375
X169.478 Y-3.489
X169.259 Y-3.632
X169.035 Y-3.796
X168.799 Y-3.991
X168.547 Y-4.223
X168.303 Y-4.475
X168.041 Y-4.778
X167.777 Y-5.122
X167.52 Y-5.497
X167.255 Y-5.937
X166.991 Y-6.434
X166.751 Y-6.955
X166.523 Y-7.537
X166.313 Y-8.174
X166.13 Y-8.855
X165.982 Y-9.568
X165.872 Y-10.296
X165.804 Y-11.027
X165.778 Y-11.748
X165.792 Y-12.441
X165.842 Y-13.098
X165.921 Y-13.695
X166.02 Y-14.214
X166.138 Y-14.684
X166.254 Y-15.058
X166.377 Y-15.387
X166.498 Y-15.662
X166.629 Y-15.92
X166.679 Y-16.005
X166.879 Y-16.29
X167.125 Y-16.535
X167.41 Y-16.734
X167.726 Y-16.88
X168.061 Y-16.97
X168.408 Y-17
X168.859
G3 X169.087 Y-16.946 I-0.021 J0.6
X169.43 Y-16.5 I-0.249 J0.546
G1 X171.575 Y-3.699
G3 X171.004 Y-3 I-0.592 J0.099
G1 X169.644
X169.494 Y-3.007
X169.345 Y-3.024
X169.198 Y-3.051
X169.046 Y-3.088
X168.891 Y-3.135
X168.715 Y-3.2
X168.538 Y-3.277
X168.338 Y-3.378
X168.138 Y-3.493
X167.918 Y-3.637
X167.694 Y-3.803
X167.458 Y-3.997
X167.205 Y-4.232
X166.959 Y-4.488
X166.697 Y-4.792
X166.431 Y-5.14
X166.175 Y-5.516
X165.911 Y-5.955
X165.648 Y-6.454
X165.408 Y-6.979
X165.182 Y-7.56
X164.973 Y-8.197
X164.792 Y-8.879
X164.645 Y-9.592
X164.537 Y-10.323
X164.47 Y-11.058
X164.446 Y-11.779
X164.461 Y-12.471
X164.513 Y-13.127
X164.593 Y-13.719
X164.693 Y-14.236
X164.81 Y-14.701
X164.928 Y-15.075
X165.049 Y-15.398
X165.172 Y-15.675
X165.302 Y-15.929
X165.349 Y-16.009
X165.549 Y-16.293
X165.795 Y-16.537
X166.08 Y-16.735
X166.394 Y-16.881
X166.73 Y-16.97
X167.075 Y-17
X167.49
G3 X168.061 Y-16.5 I-0.021 J0.6
G1 X170.215 Y-3.699
G3 X169.644 Y-3 I-0.592 J0.1
G1 X168.295
X168.146 Y-3.007
X167.997 Y-3.025
X167.849 Y-3.053
X167.696 Y-3.092
X167.54 Y-3.141
X167.362 Y-3.208
X167.184 Y-3.287
X166.981 Y-3.39
X166.78 Y-3.508
X166.559 Y-3.654
X166.332 Y-3.824
X166.097 Y-4.022
X165.842 Y-4.262
X165.596 Y-4.521
X165.334 Y-4.83
X165.065 Y-5.185
X164.811 Y-5.565
X164.549 Y-6.007
X164.287 Y-6.512
X164.046 Y-7.049
X163.823 Y-7.631
X163.619 Y-8.272
X163.442 Y-8.958
X163.299 Y-9.675
X163.195 Y-10.408
X163.134 Y-11.144
X163.114 Y-11.865
X163.134 Y-12.555
X163.189 Y-13.208
X163.271 Y-13.782
X163.374 Y-14.296
X163.492 Y-14.749
X163.612 Y-15.122
X163.73 Y-15.431
X163.856 Y-15.71
X163.984 Y-15.956
X164.023 Y-16.021
X164.223 Y-16.301
X164.469 Y-16.543
X164.753 Y-16.738
X165.066 Y-16.882
X165.399 Y-16.97
X165.742 Y-17
X167.075
G3 X167.651 Y-16.457 I-0.021 J0.6
G1 X168.872 Y-3.657
G3 X168.295 Y-3 I-0.597 J0.057
G1 X166.976
X166.827 Y-3.007
X166.677 Y-3.024
X166.53 Y-3.051
X166.383 Y-3.087
X166.224 Y-3.136
X166.052 Y-3.199
X165.871 Y-3.278
X165.673 Y-3.378
X165.471 Y-3.494
X165.248 Y-3.639
X165.029 Y-3.801
X164.789 Y-4
X164.544 Y-4.227
X164.293 Y-4.488
X164.026 Y-4.798
X163.77 Y-5.133
X163.509 Y-5.516
X163.242 Y-5.96
X162.986 Y-6.446
X162.748 Y-6.969
X162.518 Y-7.556
X162.308 Y-8.199
X162.126 Y-8.884
X161.979 Y-9.599
X161.871 Y-10.33
X161.804 Y-11.064
X161.78 Y-11.781
X161.795 Y-12.469
X161.846 Y-13.119
X161.927 Y-13.718
X162.028 Y-14.238
X162.146 Y-14.704
X162.261 Y-15.072
X162.385 Y-15.401
X162.505 Y-15.673
X162.637 Y-15.931
X162.683 Y-16.01
X162.884 Y-16.293
X163.13 Y-16.537
X163.415 Y-16.735
X163.729 Y-16.881
X164.064 Y-16.97
X164.41 Y-17
X164.831
G3 X165.059 Y-16.946 I-0.021 J0.6
X165.402 Y-16.5 I-0.249 J0.546
G1 X167.547 Y-3.699
G3 X167.204 Y-3.054 I-0.592 J0.099
X166.976 Y-3 I-0.249 J-0.546
G1 X165.678
X165.499 Y-3.009
X165.35 Y-3.025
X165.202 Y-3.051
X165.053 Y-3.088
X164.897 Y-3.135
X164.723 Y-3.199
X164.545 Y-3.276
X164.345 Y-3.376
X164.147 Y-3.49
X163.925 Y-3.633
X163.704 Y-3.796
X163.466 Y-3.992
X163.217 Y-4.222
X162.971 Y-4.477
X162.708 Y-4.781
X162.446 Y-5.121
X162.189 Y-5.498
X161.923 Y-5.938
X161.661 Y-6.432
X161.423 Y-6.951
X161.193 Y-7.535
X160.983 Y-8.174
X160.8 Y-8.857
X160.651 Y-9.57
X160.542 Y-10.299
X160.474 Y-11.031
X160.448 Y-11.751
X160.461 Y-12.443
X160.512 Y-13.099
X160.591 Y-13.697
X160.691 Y-14.217
X160.808 Y-14.686
X160.924 Y-15.059
X161.047 Y-15.389
X161.168 Y-15.663
X161.299 Y-15.921
X161.349 Y-16.006
X161.549 Y-16.29
X161.795 Y-16.535
X162.08 Y-16.734
X162.395 Y-16.88
X162.731 Y-16.97
X163.077 Y-17
X164.41
G3 X164.986 Y-16.459 I-0.021 J0.6
G1 X166.254 Y-3.659
G3 X165.678 Y-3 I-0.597 J0.059
G1 X164.359
X164.167 Y-3.01
X164.018 Y-3.025
X163.87 Y-3.052
X163.72 Y-3.088
X163.566 Y-3.135
X163.39 Y-3.199
X163.213 Y-3.276
X163.014 Y-3.376
X162.815 Y-3.489
X162.595 Y-3.632
X162.372 Y-3.796
X162.137 Y-3.99
X161.885 Y-4.222
X161.64 Y-4.476
X161.377 Y-4.779
X161.113 Y-5.122
X160.857 Y-5.497
X160.592 Y-5.935
X160.329 Y-6.431
X160.09 Y-6.951
X159.862 Y-7.532
X159.652 Y-8.169
X159.469 Y-8.851
X159.32 Y-9.563
X159.21 Y-10.293
X159.142 Y-11.026
X159.115 Y-11.748
X159.129 Y-12.44
X159.179 Y-13.097
X159.258 Y-13.694
X159.358 Y-14.214
X159.475 Y-14.684
X159.591 Y-15.057
X159.714 Y-15.386
X159.835 Y-15.662
X159.966 Y-15.92
X160.016 Y-16.005
X160.216 Y-16.289
X160.462 Y-16.535
X160.747 Y-16.734
X161.063 Y-16.88
X161.398 Y-16.97
X161.745 Y-17
X162.164
G3 X162.734 Y-16.502 I-0.021 J0.6
G1 X164.929 Y-3.701
G3 X164.359 Y-3 I-0.591 J0.101
G1 X162.949
X162.799 Y-3.007
X162.65 Y-3.027
X162.503 Y-3.055
X162.348 Y-3.096
X162.191 Y-3.146
X162.011 Y-3.215
X161.83 Y-3.297
X161.629 Y-3.402
X161.423 Y-3.524
X161.205 Y-3.671
X160.971 Y-3.849
X160.738 Y-4.047
X160.482 Y-4.291
X160.232 Y-4.558
X159.974 Y-4.866
X159.704 Y-5.229
X159.446 Y-5.619
X159.189 Y-6.061
X158.931 Y-6.568
X158.683 Y-7.13
X158.464 Y-7.715
X158.264 Y-8.355
X158.092 Y-9.041
X157.954 Y-9.76
X157.856 Y-10.495
X157.799 Y-11.232
X157.784 Y-11.954
X157.809 Y-12.644
X157.868 Y-13.282
X157.952 Y-13.844
X158.059 Y-14.359
X158.174 Y-14.792
X158.298 Y-15.167
X158.413 Y-15.462
X158.543 Y-15.745
X158.668 Y-15.981
X158.699 Y-16.033
X158.9 Y-16.31
X159.146 Y-16.548
X159.428 Y-16.742
X159.74 Y-16.884
X160.071 Y-16.971
X160.412 Y-17
X160.845
G3 X161.072 Y-16.946 I-0.021 J0.6
X161.416 Y-16.498 I-0.249 J0.546
G1 X163.52 Y-3.697
G3 X163.177 Y-3.054 I-0.592 J0.097
X162.949 Y-3 I-0.249 J-0.546
G1 X161.65
X161.5 Y-3.007
X161.351 Y-3.024
X161.203 Y-3.05
X161.058 Y-3.086
X160.895 Y-3.135
X160.728 Y-3.197
X160.544 Y-3.276
X160.352 Y-3.373
X160.146 Y-3.491
X159.926 Y-3.634
X159.705 Y-3.796
X159.462 Y-3.997
X159.224 Y-4.217
X158.97 Y-4.48
X158.705 Y-4.787
X158.449 Y-5.12
X158.183 Y-5.509
X157.915 Y-5.954
X157.667 Y-6.423
X157.424 Y-6.952
X157.192 Y-7.543
X156.981 Y-8.187
X156.798 Y-8.87
X156.652 Y-9.575
X156.543 Y-10.302
X156.475 Y-11.041
X156.449 Y-11.766
X156.463 Y-12.453
X156.513 Y-13.096
X156.593 Y-13.694
X156.695 Y-14.226
X156.812 Y-14.693
X156.926 Y-15.058
X157.052 Y-15.395
X157.17 Y-15.663
X157.303 Y-15.925
X157.351 Y-16.007
X157.551 Y-16.291
X157.798 Y-16.535
X158.083 Y-16.734
X158.398 Y-16.88
X158.733 Y-16.97
X159.079 Y-17
X159.496
G3 X160.067 Y-16.5 I-0.021 J0.6
G1 X162.221 Y-3.699
G3 X161.65 Y-3 I-0.592 J0.1
G1 X160.331
X160.17 Y-3.008
X160.021 Y-3.024
X159.873 Y-3.05
X159.723 Y-3.087
X159.568 Y-3.134
X159.393 Y-3.198
X159.215 Y-3.275
X159.015 Y-3.375
X158.817 Y-3.489
X158.596 Y-3.633
X158.373 Y-3.796
X158.135 Y-3.992
X157.885 Y-4.224
X157.64 Y-4.476
X157.378 Y-4.78
X157.115 Y-5.123
X156.858 Y-5.499
X156.592 Y-5.939
X156.329 Y-6.436
X156.09 Y-6.956
X155.862 Y-7.537
X155.652 Y-8.173
X155.469 Y-8.856
X155.32 Y-9.571
X155.211 Y-10.301
X155.143 Y-11.031
X155.117 Y-11.75
X155.131 Y-12.444
X155.181 Y-13.101
X155.261 Y-13.698
X155.36 Y-14.217
X155.477 Y-14.686
X155.594 Y-15.06
X155.717 Y-15.388
X155.838 Y-15.663
X155.969 Y-15.921
X156.018 Y-16.006
X156.218 Y-16.29
X156.465 Y-16.535
X156.75 Y-16.734
X157.065 Y-16.88
X157.4 Y-16.97
X157.747 Y-17
X158.186
G3 X158.414 Y-16.946 I-0.021 J0.6
X158.757 Y-16.5 I-0.249 J0.546
G1 X160.902 Y-3.699
G3 X160.559 Y-3.054 I-0.592 J0.099
X160.331 Y-3 I-0.249 J-0.546
G1 X159.032
X158.836 Y-3.01
X158.687 Y-3.026
X158.539 Y-3.052
X158.389 Y-3.089
X158.235 Y-3.135
X158.06 Y-3.2
X157.883 Y-3.276
X157.683 Y-3.376
X157.485 Y-3.489
X157.265 Y-3.632
X157.042 Y-3.796
X156.806 Y-3.99
X156.555 Y-4.222
X156.309 Y-4.476
X156.046 Y-4.78
X155.782 Y-5.123
X155.526 Y-5.497
X155.261 Y-5.935
X154.998 Y-6.431
X154.76 Y-6.95
X154.531 Y-7.531
X154.321 Y-8.168
X154.138 Y-8.85
X153.99 Y-9.562
X153.88 Y-10.292
X153.811 Y-11.026
X153.785 Y-11.747
X153.798 Y-12.439
X153.848 Y-13.096
X153.928 Y-13.694
X154.027 Y-14.213
X154.144 Y-14.683
X154.26 Y-15.057
X154.383 Y-15.386
X154.504 Y-15.661
X154.635 Y-15.919
X154.685 Y-16.005
X154.885 Y-16.289
X155.132 Y-16.535
X155.417 Y-16.734
X155.732 Y-16.88
X156.068 Y-16.97
X156.414 Y-17
X156.817
G3 X157.045 Y-16.946 I-0.021 J0.6
X157.387 Y-16.503 I-0.249 J0.546
G1 X159.602 Y-3.702
G3 X159.032 Y-3 I-0.591 J0.102
G1 X157.623
X157.473 Y-3.007
X157.324 Y-3.026
X157.177 Y-3.055
X157.022 Y-3.095
X156.865 Y-3.145
X156.686 Y-3.214
X156.505 Y-3.294
X156.304 Y-3.399
X156.099 Y-3.52
X155.88 Y-3.667
X155.647 Y-3.843
X155.415 Y-4.04
X155.159 Y-4.284
X154.91 Y-4.549
X154.651 Y-4.856
X154.381 Y-5.218
X154.124 Y-5.605
X153.866 Y-6.047
X153.607 Y-6.553
X153.36 Y-7.111
X153.14 Y-7.694
X152.94 Y-8.333
X152.766 Y-9.019
X152.627 Y-9.738
X152.527 Y-10.472
X152.469 Y-11.209
X152.453 Y-11.931
X152.477 Y-12.622
X152.535 Y-13.264
X152.618 Y-13.828
X152.724 Y-14.343
X152.84 Y-14.781
X152.963 Y-15.156
X153.079 Y-15.454
X153.208 Y-15.736
X153.333 Y-15.975
X153.367 Y-16.03
X153.568 Y-16.308
X153.813 Y-16.547
X154.096 Y-16.741
X154.408 Y-16.883
X154.74 Y-16.971
X155.081 Y-17
X156.414
G3 X156.991 Y-16.457 I-0.021 J0.6
G1 X158.199 Y-3.656
G3 X157.85 Y-3.054 I-0.597 J0.056
X157.623 Y-3 I-0.249 J-0.546
G1 X156.304
X156.154 Y-3.007
X156.005 Y-3.025
X155.857 Y-3.053
X155.711 Y-3.089
X155.549 Y-3.14
X155.378 Y-3.204
X155.195 Y-3.284
X154.998 Y-3.385
X154.794 Y-3.503
X154.57 Y-3.651
X154.35 Y-3.815
X154.108 Y-4.017
X153.865 Y-4.245
X153.613 Y-4.509
X153.344 Y-4.824
X153.089 Y-5.161
X152.826 Y-5.55
X152.559 Y-6
X152.306 Y-6.485
X152.067 Y-7.013
X151.839 Y-7.605
X151.632 Y-8.251
X151.452 Y-8.939
X151.308 Y-9.657
X151.203 Y-10.389
X151.14 Y-11.123
X151.118 Y-11.837
X151.137 Y-12.522
X151.19 Y-13.167
X151.274 Y-13.762
X151.376 Y-14.277
X151.494 Y-14.737
X151.61 Y-15.101
X151.733 Y-15.424
X151.855 Y-15.695
X151.986 Y-15.949
X152.026 Y-16.017
X152.227 Y-16.298
X152.473 Y-16.541
X152.757 Y-16.737
X153.071 Y-16.882
X153.404 Y-16.97
X153.748 Y-17
X154.158
G3 X154.729 Y-16.5 I-0.021 J0.6
G1 X156.874 Y-3.699
G3 X156.531 Y-3.054 I-0.592 J0.099
X156.304 Y-3 I-0.249 J-0.546
G1 X155.005
X154.838 Y-3.008
X154.688 Y-3.024
X154.541 Y-3.051
X154.394 Y-3.087
X154.236 Y-3.135
X154.064 Y-3.198
X153.883 Y-3.276
X153.685 Y-3.375
X153.486 Y-3.489
X153.263 Y-3.634
X153.044 Y-3.795
X152.803 Y-3.993
X152.558 Y-4.22
X152.309 Y-4.477
X152.044 Y-4.784
X151.787 Y-5.118
X151.527 Y-5.498
X151.259 Y-5.941
X151.003 Y-6.426
X150.762 Y-6.949
X150.532 Y-7.536
X150.321 Y-8.178
X150.137 Y-8.862
X149.989 Y-9.575
X149.879 Y-10.303
X149.812 Y-11.033
X149.785 Y-11.751
X149.799 Y-12.441
X149.849 Y-13.094
X149.929 Y-13.694
X150.029 Y-14.218
X150.147 Y-14.687
X150.262 Y-15.057
X150.386 Y-15.39
X150.506 Y-15.661
X150.638 Y-15.922
X150.687 Y-16.006
X150.887 Y-16.29
X151.134 Y-16.535
X151.419 Y-16.734
X151.734 Y-16.88
X152.07 Y-16.97
X152.416 Y-17
X153.748
G3 X154.325 Y-16.459 I-0.021 J0.6
G1 X155.581 Y-3.658
G3 X155.233 Y-3.054 I-0.597 J0.059
X155.005 Y-3 I-0.249 J-0.546
G1 X153.686
X153.506 Y-3.009
X153.357 Y-3.025
X153.209 Y-3.051
X153.059 Y-3.088
X152.904 Y-3.135
X152.729 Y-3.199
X152.552 Y-3.276
X152.352 Y-3.375
X152.154 Y-3.489
X151.934 Y-3.632
X151.711 Y-3.796
X151.474 Y-3.99
X151.223 Y-4.222
X150.978 Y-4.476
X150.716 Y-4.779
X150.452 Y-5.122
X150.196 Y-5.497
X149.93 Y-5.936
X149.667 Y-6.433
X149.428 Y-6.954
X149.199 Y-7.535
X148.989 Y-8.173
X148.806 Y-8.854
X148.658 Y-9.566
X148.548 Y-10.295
X148.48 Y-11.027
X148.454 Y-11.748
X148.467 Y-12.441
X148.517 Y-13.098
X148.597 Y-13.695
X148.696 Y-14.214
X148.813 Y-14.684
X148.93 Y-15.058
X149.053 Y-15.387
X149.174 Y-15.662
X149.305 Y-15.92
X149.354 Y-16.005
X149.554 Y-16.29
X149.801 Y-16.535
X150.086 Y-16.734
X150.401 Y-16.88
X150.737 Y-16.97
X151.083 Y-17
X151.491
G3 X151.719 Y-16.946 I-0.021 J0.6
X152.061 Y-16.502 I-0.249 J0.546
G1 X154.256 Y-3.701
G3 X153.686 Y-3 I-0.591 J0.101
G1 X152.326
X152.176 Y-3.008
X152.027 Y-3.023
X151.879 Y-3.05
X151.729 Y-3.086
X151.574 Y-3.133
X151.399 Y-3.197
X151.222 Y-3.274
X151.022 Y-3.374
X150.823 Y-3.487
X150.603 Y-3.63
X150.38 Y-3.794
X150.144 Y-3.988
X149.893 Y-4.22
X149.647 Y-4.474
X149.384 Y-4.778
X149.12 Y-5.121
X148.863 Y-5.496
X148.599 Y-5.934
X148.336 Y-6.43
X148.096 Y-6.95
X147.868 Y-7.53
X147.658 Y-8.166
X147.475 Y-8.848
X147.326 Y-9.56
X147.216 Y-10.29
X147.148 Y-11.024
X147.121 Y-11.746
X147.135 Y-12.438
X147.184 Y-13.094
X147.264 Y-13.692
X147.363 Y-14.212
X147.48 Y-14.682
X147.596 Y-15.056
X147.719 Y-15.385
X147.84 Y-15.661
X147.971 Y-15.919
X148.021 Y-16.005
X148.222 Y-16.289
X148.468 Y-16.534
X148.753 Y-16.733
X149.068 Y-16.88
X149.404 Y-16.97
X149.751 Y-17
X150.172
G3 X150.742 Y-16.5 I-0.021 J0.6
G1 X152.897 Y-3.699
G3 X152.326 Y-3 I-0.592 J0.1
G1 X150.977
X150.827 Y-3.007
X150.678 Y-3.025
X150.531 Y-3.052
X150.378 Y-3.09
X150.223 Y-3.139
X150.045 Y-3.205
X149.867 Y-3.283
X149.666 Y-3.386
X149.465 Y-3.503
X149.246 Y-3.647
X149.018 Y-3.817
X148.783 Y-4.012
X148.528 Y-4.251
X148.282 Y-4.509
X148.022 Y-4.814
X147.753 Y-5.169
X147.498 Y-5.546
X147.236 Y-5.985
X146.975 Y-6.488
X146.732 Y-7.025
X146.508 Y-7.604
X146.303 Y-8.243
X146.124 Y-8.927
X145.98 Y-9.643
X145.875 Y-10.375
X145.811 Y-11.111
X145.789 Y-11.833
X145.807 Y-12.525
X145.862 Y-13.179
X145.942 Y-13.758
X146.044 Y-14.273
X146.162 Y-14.731
X146.281 Y-15.105
X146.401 Y-15.418
X146.525 Y-15.697
X146.654 Y-15.946
X146.696 Y-16.017
X146.896 Y-16.298
X147.142 Y-16.54
X147.426 Y-16.737
X147.74 Y-16.882
X148.074 Y-16.97
X148.418 Y-17
X148.823
G3 X149.394 Y-16.5 I-0.021 J0.6
G1 X151.548 Y-3.699
G3 X150.977 Y-3 I-0.592 J0.1
G1 X149.658
X149.508 Y-3.007
X149.359 Y-3.023
X149.212 Y-3.05
X149.064 Y-3.086
X148.906 Y-3.134
X148.734 Y-3.197
X148.555 Y-3.274
X148.356 Y-3.374
X148.156 Y-3.488
X147.934 Y-3.633
X147.714 Y-3.794
X147.475 Y-3.991
X147.23 Y-4.217
X146.98 Y-4.475
X146.714 Y-4.784
X146.457 Y-5.118
X146.196 Y-5.498
X145.929 Y-5.94
X145.672 Y-6.425
X145.433 Y-6.945
X145.203 Y-7.53
X144.992 Y-8.17
X144.809 Y-8.854
X144.66 Y-9.568
X144.55 Y-10.298
X144.482 Y-11.032
X144.455 Y-11.75
X144.469 Y-12.439
X144.519 Y-13.092
X144.599 Y-13.693
X144.699 Y-14.216
X144.816 Y-14.685
X144.931 Y-15.055
X145.056 Y-15.389
X145.175 Y-15.66
X145.307 Y-15.921
X145.357 Y-16.005
X145.557 Y-16.289
X145.803 Y-16.535
X146.088 Y-16.734
X146.403 Y-16.88
X146.739 Y-16.97
X147.085 Y-17
X147.513
G3 X147.741 Y-16.946 I-0.021 J0.6
X148.084 Y-16.5 I-0.249 J0.546
G1 X150.229 Y-3.699
G3 X149.658 Y-3 I-0.592 J0.099
G1 X148.359
X148.175 Y-3.009
X148.026 Y-3.025
X147.879 Y-3.051
X147.728 Y-3.088
X147.574 Y-3.135
X147.398 Y-3.199
X147.221 Y-3.276
X147.021 Y-3.376
X146.822 Y-3.49
X146.603 Y-3.633
X146.379 Y-3.797
X146.143 Y-3.991
X145.892 Y-4.223
X145.647 Y-4.477
X145.385 Y-4.779
X145.12 Y-5.123
X144.865 Y-5.497
X144.6 Y-5.935
X144.337 Y-6.432
X144.098 Y-6.953
X143.869 Y-7.534
X143.659 Y-8.171
X143.476 Y-8.854
X143.328 Y-9.567
X143.218 Y-10.296
X143.15 Y-11.028
X143.123 Y-11.75
X143.137 Y-12.443
X143.187 Y-13.1
X143.267 Y-13.696
X143.366 Y-14.215
X143.483 Y-14.685
X143.6 Y-15.059
X143.723 Y-15.387
X143.844 Y-15.663
X143.975 Y-15.92
X144.024 Y-16.005
X144.224 Y-16.29
X144.471 Y-16.535
X144.756 Y-16.734
X145.071 Y-16.88
X145.407 Y-16.97
X145.753 Y-17
X147.085
G3 X147.662 Y-16.46 I-0.021 J0.6
G1 X148.935 Y-3.659
G3 X148.587 Y-3.054 I-0.597 J0.059
X148.359 Y-3 I-0.249 J-0.546
G1 X146.95
X146.8 Y-3.007
X146.651 Y-3.027
X146.504 Y-3.056
X146.348 Y-3.097
X146.19 Y-3.149
X146.011 Y-3.218
X145.829 Y-3.301
X145.628 Y-3.406
X145.42 Y-3.531
X145.202 Y-3.678
X144.967 Y-3.858
X144.734 Y-4.057
X144.479 Y-4.302
X144.227 Y-4.572
X143.97 Y-4.882
X143.7 Y-5.246
X143.441 Y-5.641
X143.184 Y-6.084
X142.927 Y-6.592
X142.68 Y-7.158
X142.46 Y-7.75
X142.263 Y-8.389
X142.092 Y-9.076
X141.956 Y-9.795
X141.86 Y-10.531
X141.805 Y-11.268
X141.792 Y-11.991
X141.819 Y-12.68
X141.879 Y-13.309
X141.964 Y-13.871
X142.073 Y-14.385
X142.188 Y-14.809
X142.312 Y-15.185
X142.427 Y-15.475
X142.558 Y-15.758
X142.682 Y-15.992
X142.71 Y-16.038
X142.911 Y-16.313
X143.157 Y-16.551
X143.439 Y-16.743
X143.749 Y-16.884
X144.08 Y-16.971
X144.42 Y-17
X144.845
G3 X145.417 Y-16.498 I-0.021 J0.6
G1 X147.521 Y-3.697
G3 X146.95 Y-3 I-0.592 J0.097
G1 X145.631
X145.481 Y-3.007
X145.332 Y-3.026
X145.185 Y-3.054
X145.038 Y-3.092
X144.874 Y-3.143
X144.704 Y-3.208
X144.519 Y-3.291
X144.322 Y-3.392
X144.116 Y-3.513
X143.892 Y-3.662
X143.671 Y-3.829
X143.427 Y-4.034
X143.185 Y-4.263
X142.931 Y-4.531
X142.663 Y-4.849
X142.408 Y-5.188
X142.143 Y-5.584
X141.876 Y-6.039
X141.625 Y-6.525
X141.387 Y-7.058
X141.161 Y-7.654
X140.955 Y-8.304
X140.778 Y-8.995
X140.637 Y-9.715
X140.535 Y-10.448
X140.475 Y-11.18
X140.457 Y-11.892
X140.478 Y-12.575
X140.534 Y-13.215
X140.62 Y-13.805
X140.723 Y-14.315
X140.842 Y-14.769
X140.959 Y-15.131
X141.081 Y-15.446
X141.204 Y-15.717
X141.335 Y-15.967
X141.369 Y-16.025
X141.57 Y-16.304
X141.816 Y-16.544
X142.099 Y-16.739
X142.412 Y-16.883
X142.744 Y-16.97
X143.087 Y-17
X143.486
G3 X143.713 Y-16.946 I-0.021 J0.6
X144.056 Y-16.5 I-0.249 J0.546
G1 X146.202 Y-3.699
G3 X145.631 Y-3 I-0.592 J0.099
G1 X144.332
X144.176 Y-3.008
X144.027 Y-3.024
X143.88 Y-3.05
X143.734 Y-3.086
X143.574 Y-3.134
X143.405 Y-3.196
X143.221 Y-3.275
X143.026 Y-3.373
X142.825 Y-3.489
X142.603 Y-3.633
X142.383 Y-3.794
X142.14 Y-3.995
X141.899 Y-4.217
X141.647 Y-4.477
X141.382 Y-4.785
X141.128 Y-5.114
X140.865 Y-5.499
X140.596 Y-5.945
X140.345 Y-6.419
X140.102 Y-6.947
X139.87 Y-7.537
X139.658 Y-8.181
X139.474 Y-8.866
X139.327 Y-9.576
X139.218 Y-10.301
X139.15 Y-11.032
X139.123 Y-11.752
X139.137 Y-12.439
X139.187 Y-13.09
X139.267 Y-13.689
X139.368 Y-14.218
X139.485 Y-14.687
X139.599 Y-15.055
X139.725 Y-15.39
X139.843 Y-15.66
X139.977 Y-15.922
X140.025 Y-16.006
X140.226 Y-16.29
X140.472 Y-16.535
X140.757 Y-16.734
X141.072 Y-16.88
X141.408 Y-16.97
X141.754 Y-17
X142.178
G3 X142.748 Y-16.5 I-0.021 J0.6
G1 X144.903 Y-3.699
G3 X144.332 Y-3 I-0.592 J0.1
G1 X143.013
X142.845 Y-3.008
X142.696 Y-3.024
X142.548 Y-3.051
X142.398 Y-3.087
X142.243 Y-3.134
X142.068 Y-3.199
X141.89 Y-3.275
X141.691 Y-3.375
X141.492 Y-3.489
X141.272 Y-3.632
X141.049 Y-3.796
X140.812 Y-3.991
X140.561 Y-4.223
X140.317 Y-4.475
X140.055 Y-4.778
X139.791 Y-5.122
X139.534 Y-5.497
X139.268 Y-5.937
X139.005 Y-6.435
X138.765 Y-6.956
X138.536 Y-7.538
X138.327 Y-8.175
X138.144 Y-8.856
X137.995 Y-9.568
X137.886 Y-10.297
X137.818 Y-11.028
X137.792 Y-11.748
X137.805 Y-12.441
X137.856 Y-13.099
X137.935 Y-13.696
X138.034 Y-14.215
X138.152 Y-14.685
X138.268 Y-15.059
X138.391 Y-15.387
X138.512 Y-15.663
X138.643 Y-15.92
X138.693 Y-16.006
X138.893 Y-16.29
X139.139 Y-16.535
X139.424 Y-16.734
X139.739 Y-16.88
X140.075 Y-16.97
X140.422 Y-17
X140.868
G3 X141.096 Y-16.946 I-0.021 J0.6
X141.439 Y-16.5 I-0.249 J0.546
G1 X143.584 Y-3.699
G3 X143.013 Y-3 I-0.592 J0.099
G1 X141.714
X141.511 Y-3.01
X141.362 Y-3.026
X141.215 Y-3.052
X141.064 Y-3.089
X140.91 Y-3.136
X140.735 Y-3.2
X140.558 Y-3.276
X140.358 Y-3.376
X140.16 Y-3.49
X139.94 Y-3.633
X139.717 Y-3.796
X139.481 Y-3.99
X139.23 Y-4.222
X138.984 Y-4.477
X138.721 Y-4.781
X138.457 Y-5.124
X138.2 Y-5.499
X137.936 Y-5.937
X137.673 Y-6.433
X137.434 Y-6.953
X137.205 Y-7.533
X136.996 Y-8.169
X136.813 Y-8.85
X136.664 Y-9.563
X136.554 Y-10.292
X136.486 Y-11.026
X136.459 Y-11.748
X136.473 Y-12.44
X136.523 Y-13.096
X136.602 Y-13.694
X136.702 Y-14.214
X136.819 Y-14.683
X136.935 Y-15.057
X137.058 Y-15.386
X137.179 Y-15.661
X137.31 Y-15.92
X137.36 Y-16.005
X137.56 Y-16.289
X137.806 Y-16.535
X138.092 Y-16.734
X138.407 Y-16.88
X138.743 Y-16.97
X139.089 Y-17
X139.499
G3 X139.727 Y-16.946 I-0.021 J0.6
X140.069 Y-16.503 I-0.249 J0.546
G1 X142.284 Y-3.702
G3 X141.714 Y-3 I-0.591 J0.102
G1 X140.304
X140.155 Y-3.007
X140.006 Y-3.026
X139.858 Y-3.054
X139.704 Y-3.093
X139.548 Y-3.143
X139.369 Y-3.211
X139.19 Y-3.291
X138.988 Y-3.394
X138.784 Y-3.514
X138.565 Y-3.66
X138.334 Y-3.834
X138.101 Y-4.031
X137.845 Y-4.273
X137.597 Y-4.535
X137.338 Y-4.842
X137.067 Y-5.202
X136.812 Y-5.585
X136.552 Y-6.026
X136.292 Y-6.531
X136.046 Y-7.083
X135.826 Y-7.663
X135.624 Y-8.302
X135.448 Y-8.987
X135.307 Y-9.705
X135.206 Y-10.439
X135.146 Y-11.175
X135.128 Y-11.898
X135.149 Y-12.588
X135.206 Y-13.237
X135.289 Y-13.804
X135.393 Y-14.319
X135.51 Y-14.764
X135.631 Y-15.139
X135.749 Y-15.442
X135.876 Y-15.723
X136.003 Y-15.965
X136.039 Y-16.025
X136.24 Y-16.304
X136.486 Y-16.545
X136.769 Y-16.739
X137.081 Y-16.883
X137.414 Y-16.97
X137.756 Y-17
X139.089
G3 X139.665 Y-16.457 I-0.021 J0.6
G1 X140.881 Y-3.656
G3 X140.304 Y-3 I-0.597 J0.057
G1 X138.985
X138.836 Y-3.007
X138.687 Y-3.024
X138.539 Y-3.052
X138.392 Y-3.088
X138.232 Y-3.138
X138.06 Y-3.201
X137.878 Y-3.281
X137.681 Y-3.381
X137.478 Y-3.498
X137.255 Y-3.645
X137.035 Y-3.807
X136.794 Y-4.008
X136.55 Y-4.235
X136.299 Y-4.497
X136.031 Y-4.81
X135.775 Y-5.146
X135.513 Y-5.532
X135.246 Y-5.979
X134.992 Y-6.463
X134.753 Y-6.989
X134.524 Y-7.578
X134.315 Y-8.222
X134.134 Y-8.909
X133.988 Y-9.625
X133.882 Y-10.356
X133.816 Y-11.09
X133.793 Y-11.806
X133.81 Y-12.492
X133.862 Y-13.14
X133.944 Y-13.737
X134.046 Y-14.255
X134.164 Y-14.719
X134.279 Y-15.085
X134.403 Y-15.411
X134.524 Y-15.682
X134.656 Y-15.939
X134.699 Y-16.013
X134.899 Y-16.295
X135.146 Y-16.538
X135.43 Y-16.736
X135.744 Y-16.881
X136.079 Y-16.97
X136.423 Y-17
X136.84
G3 X137.068 Y-16.946 I-0.021 J0.6
X137.411 Y-16.5 I-0.249 J0.546
G1 X139.556 Y-3.699
G3 X139.213 Y-3.054 I-0.592 J0.099
X138.985 Y-3 I-0.249 J-0.546
G1 X137.687
X137.513 Y-3.009
X137.364 Y-3.025
X137.216 Y-3.051
X137.068 Y-3.087
X136.911 Y-3.135
X136.738 Y-3.198
X136.558 Y-3.276
X136.359 Y-3.376
X136.161 Y-3.489
X135.938 Y-3.634
X135.718 Y-3.796
X135.479 Y-3.993
X135.231 Y-4.222
X134.984 Y-4.477
X134.72 Y-4.783
X134.461 Y-5.12
X134.202 Y-5.499
X133.935 Y-5.94
X133.675 Y-6.431
X133.437 Y-6.951
X133.207 Y-7.536
X132.996 Y-8.176
X132.813 Y-8.86
X132.664 Y-9.573
X132.555 Y-10.302
X132.487 Y-11.032
X132.461 Y-11.752
X132.475 Y-12.442
X132.525 Y-13.097
X132.605 Y-13.697
X132.704 Y-14.217
X132.822 Y-14.687
X132.937 Y-15.058
X133.061 Y-15.389
X133.181 Y-15.662
X133.313 Y-15.922
X133.362 Y-16.006
X133.562 Y-16.29
X133.809 Y-16.535
X134.094 Y-16.734
X134.409 Y-16.88
X134.745 Y-16.97
X135.091 Y-17
X136.423
G3 X137 Y-16.459 I-0.021 J0.6
G1 X138.263 Y-3.659
G3 X137.687 Y-3 I-0.597 J0.059
G1 X136.368
X136.181 Y-3.009
X136.032 Y-3.025
X135.884 Y-3.052
X135.734 Y-3.088
X135.579 Y-3.135
X135.404 Y-3.199
X135.227 Y-3.276
X135.027 Y-3.376
X134.829 Y-3.489
X134.609 Y-3.632
X134.386 Y-3.796
X134.15 Y-3.99
X133.899 Y-4.222
X133.653 Y-4.476
X133.391 Y-4.779
X133.127 Y-5.122
X132.871 Y-5.497
X132.606 Y-5.936
X132.342 Y-6.432
X132.103 Y-6.952
X131.875 Y-7.533
X131.665 Y-8.171
X131.482 Y-8.852
X131.333 Y-9.565
X131.224 Y-10.294
X131.155 Y-11.027
X131.129 Y-11.748
X131.142 Y-12.44
X131.192 Y-13.097
X131.272 Y-13.695
X131.371 Y-14.214
X131.488 Y-14.684
X131.605 Y-15.058
X131.728 Y-15.387
X131.849 Y-15.662
X131.98 Y-15.92
X132.029 Y-16.005
X132.23 Y-16.289
X132.476 Y-16.535
X132.761 Y-16.734
X133.076 Y-16.88
X133.412 Y-16.97
X133.758 Y-17
X134.173
G3 X134.743 Y-16.502 I-0.021 J0.6
G1 X136.938 Y-3.701
G3 X136.368 Y-3 I-0.591 J0.101
G1 X134.958
X134.808 Y-3.007
X134.659 Y-3.027
X134.512 Y-3.056
X134.357 Y-3.097
X134.199 Y-3.148
X134.019 Y-3.217
X133.838 Y-3.3
X133.637 Y-3.405
X133.429 Y-3.529
X133.211 Y-3.676
X132.976 Y-3.855
X132.744 Y-4.054
X132.488 Y-4.299
X132.237 Y-4.568
X131.979 Y-4.877
X131.709 Y-5.241
X131.45 Y-5.634
X131.193 Y-6.077
X130.936 Y-6.585
X130.689 Y-7.15
X130.469 Y-7.739
X130.271 Y-8.379
X130.1 Y-9.065
X129.964 Y-9.784
X129.867 Y-10.519
X129.811 Y-11.257
X129.798 Y-11.979
X129.824 Y-12.669
X129.883 Y-13.301
X129.968 Y-13.862
X130.076 Y-14.376
X130.191 Y-14.804
X130.315 Y-15.179
X130.431 Y-15.471
X130.561 Y-15.754
X130.685 Y-15.988
X130.715 Y-16.036
X130.916 Y-16.312
X131.161 Y-16.55
X131.443 Y-16.742
X131.754 Y-16.884
X132.085 Y-16.971
X132.425 Y-17
X132.854
G3 X133.081 Y-16.946 I-0.021 J0.6
X133.425 Y-16.498 I-0.249 J0.546
G1 X135.529 Y-3.697
G3 X135.186 Y-3.054 I-0.592 J0.097
X134.958 Y-3 I-0.249 J-0.546
G1 X133.659
X133.509 Y-3.007
X133.36 Y-3.024
X133.213 Y-3.051
X133.067 Y-3.087
X132.904 Y-3.137
X132.737 Y-3.198
X132.552 Y-3.279
X132.359 Y-3.376
X132.153 Y-3.495
X131.934 Y-3.638
X131.711 Y-3.802
X131.468 Y-4.004
X131.23 Y-4.224
X130.975 Y-4.489
X130.711 Y-4.797
X130.455 Y-5.131
X130.188 Y-5.523
X129.92 Y-5.969
X129.673 Y-6.439
X129.43 Y-6.971
X129.199 Y-7.563
X128.988 Y-8.208
X128.807 Y-8.892
X128.661 Y-9.597
X128.554 Y-10.325
X128.487 Y-11.065
X128.462 Y-11.788
X128.478 Y-12.474
X128.528 Y-13.116
X128.609 Y-13.712
X128.712 Y-14.242
X128.829 Y-14.706
X128.943 Y-15.07
X129.069 Y-15.404
X129.187 Y-15.671
X129.321 Y-15.932
X129.366 Y-16.01
X129.567 Y-16.293
X129.813 Y-16.537
X130.097 Y-16.735
X130.412 Y-16.881
X130.747 Y-16.97
X131.093 Y-17
X131.505
G3 X132.076 Y-16.5 I-0.021 J0.6
G1 X134.23 Y-3.699
G3 X133.659 Y-3 I-0.592 J0.1
G1 X132.34
X132.183 Y-3.008
X132.034 Y-3.024
X131.887 Y-3.05
X131.737 Y-3.087
X131.581 Y-3.134
X131.407 Y-3.198
X131.228 Y-3.275
X131.029 Y-3.375
X130.831 Y-3.489
X130.609 Y-3.633
X130.387 Y-3.796
X130.148 Y-3.993
X129.899 Y-4.223
X129.654 Y-4.477
X129.391 Y-4.781
X129.129 Y-5.121
X128.871 Y-5.499
X128.604 Y-5.941
X128.342 Y-6.435
X128.103 Y-6.955
X127.875 Y-7.537
X127.665 Y-8.175
X127.482 Y-8.858
X127.333 Y-9.573
X127.224 Y-10.303
X127.156 Y-11.032
X127.13 Y-11.751
X127.144 Y-12.444
X127.194 Y-13.1
X127.274 Y-13.698
X127.373 Y-14.217
X127.491 Y-14.687
X127.607 Y-15.059
X127.73 Y-15.389
X127.851 Y-15.663
X127.982 Y-15.922
X128.031 Y-16.006
X128.232 Y-16.29
X128.478 Y-16.535
X128.763 Y-16.734
X129.078 Y-16.88
X129.414 Y-16.97
X129.76 Y-17
X130.195
G3 X130.423 Y-16.946 I-0.021 J0.6
X130.766 Y-16.5 I-0.249 J0.546
G1 X132.911 Y-3.699
G3 X132.568 Y-3.054 I-0.592 J0.099
X132.34 Y-3 I-0.249 J-0.546
G1 X131.041
X130.85 Y-3.01
X130.701 Y-3.025
X130.553 Y-3.052
X130.403 Y-3.088
X130.248 Y-3.135
X130.073 Y-3.199
X129.896 Y-3.276
X129.697 Y-3.376
X129.498 Y-3.489
X129.278 Y-3.632
X129.055 Y-3.796
X128.819 Y-3.99
X128.568 Y-4.222
X128.322 Y-4.476
X128.06 Y-4.78
X127.796 Y-5.123
X127.539 Y-5.497
X127.274 Y-5.935
X127.012 Y-6.431
X126.773 Y-6.951
X126.544 Y-7.532
X126.334 Y-8.17
X126.151 Y-8.851
X126.003 Y-9.563
X125.893 Y-10.293
X125.824 Y-11.026
X125.798 Y-11.747
X125.811 Y-12.439
X125.861 Y-13.096
X125.941 Y-13.694
X126.04 Y-14.214
X126.157 Y-14.683
X126.274 Y-15.057
X126.397 Y-15.386
X126.517 Y-15.661
X126.649 Y-15.92
X126.698 Y-16.005
X126.899 Y-16.289
X127.145 Y-16.535
X127.43 Y-16.734
X127.745 Y-16.88
X128.081 Y-16.97
X128.427 Y-17
X129.76
G3 X130.336 Y-16.46 I-0.021 J0.6
G1 X131.617 Y-3.659
G3 X131.041 Y-3 I-0.597 J0.06
G1 X129.632
X129.482 Y-3.007
X129.333 Y-3.027
X129.186 Y-3.055
X129.03 Y-3.096
X128.873 Y-3.146
X128.694 Y-3.215
X128.513 Y-3.297
X128.312 Y-3.402
X128.105 Y-3.525
X127.887 Y-3.671
X127.653 Y-3.849
X127.42 Y-4.047
X127.164 Y-4.291
X126.914 Y-4.558
X126.656 Y-4.867
X126.386 Y-5.23
X126.129 Y-5.619
X125.871 Y-6.062
X125.613 Y-6.569
X125.365 Y-7.131
X125.146 Y-7.716
X124.947 Y-8.355
X124.774 Y-9.042
X124.637 Y-9.76
X124.538 Y-10.495
X124.481 Y-11.232
X124.467 Y-11.955
X124.491 Y-12.645
X124.55 Y-13.282
X124.634 Y-13.845
X124.741 Y-14.359
X124.857 Y-14.792
X124.98 Y-15.167
X125.096 Y-15.462
X125.226 Y-15.745
X125.351 Y-15.981
X125.382 Y-16.033
X125.583 Y-16.31
X125.828 Y-16.548
X126.111 Y-16.742
X126.422 Y-16.884
X126.753 Y-16.971
X127.094 Y-17
X127.527
G3 X128.098 Y-16.498 I-0.021 J0.6
G1 X130.203 Y-3.697
G3 X129.859 Y-3.054 I-0.592 J0.097
X129.632 Y-3 I-0.249 J-0.546
G1 X128.313
X128.163 Y-3.007
X128.014 Y-3.025
X127.866 Y-3.053
X127.72 Y-3.09
X127.557 Y-3.141
X127.386 Y-3.205
X127.203 Y-3.287
X127.006 Y-3.387
X126.801 Y-3.507
X126.577 Y-3.655
X126.356 Y-3.82
X126.113 Y-4.024
X125.871 Y-4.252
X125.618 Y-4.517
X125.35 Y-4.834
X125.094 Y-5.171
X124.831 Y-5.563
X124.564 Y-6.015
X124.312 Y-6.5
X124.073 Y-7.031
X123.846 Y-7.624
X123.639 Y-8.271
X123.461 Y-8.961
X123.317 Y-9.679
X123.213 Y-10.411
X123.151 Y-11.145
X123.132 Y-11.857
X123.151 Y-12.542
X123.206 Y-13.185
X123.29 Y-13.778
X123.392 Y-14.292
X123.511 Y-14.749
X123.627 Y-15.112
X123.75 Y-15.433
X123.872 Y-15.703
X124.003 Y-15.956
X124.041 Y-16.02
X124.242 Y-16.3
X124.488 Y-16.542
X124.772 Y-16.738
X125.085 Y-16.882
X125.418 Y-16.97
X125.761 Y-17
X126.167
G3 X126.738 Y-16.5 I-0.021 J0.6
G1 X128.883 Y-3.699
G3 X128.313 Y-3 I-0.592 J0.099
G1 X127.014
X126.851 Y-3.008
X126.702 Y-3.024
X126.554 Y-3.051
X126.408 Y-3.086
X126.249 Y-3.134
X126.078 Y-3.197
X125.897 Y-3.276
X125.7 Y-3.374
X125.499 Y-3.489
X125.277 Y-3.634
X125.058 Y-3.794
X124.816 Y-3.994
X124.573 Y-4.218
X124.323 Y-4.477
X124.057 Y-4.784
X123.802 Y-5.116
X123.54 Y-5.498
X123.272 Y-5.942
X123.018 Y-6.423
X122.776 Y-6.947
X122.545 Y-7.536
X122.334 Y-8.178
X122.15 Y-8.863
X122.002 Y-9.575
X121.893 Y-10.302
X121.825 Y-11.032
X121.798 Y-11.75
X121.812 Y-12.439
X121.862 Y-13.091
X121.942 Y-13.691
X122.042 Y-14.217
X122.16 Y-14.686
X122.274 Y-15.055
X122.399 Y-15.389
X122.518 Y-15.66
X122.651 Y-15.922
X122.7 Y-16.006
X122.9 Y-16.29
X123.147 Y-16.535
X123.432 Y-16.734
X123.747 Y-16.88
X124.083 Y-16.97
X124.429 Y-17
X125.761
G3 X126.338 Y-16.459 I-0.021 J0.6
G1 X127.59 Y-3.658
G3 X127.014 Y-3 I-0.597 J0.058
G1 X125.695
X125.52 Y-3.009
X125.37 Y-3.025
X125.223 Y-3.051
X125.072 Y-3.088
X124.918 Y-3.135
X124.742 Y-3.199
X124.565 Y-3.275
X124.365 Y-3.375
X124.167 Y-3.489
X123.947 Y-3.632
X123.724 Y-3.796
X123.487 Y-3.991
X123.236 Y-4.223
X122.991 Y-4.476
X122.73 Y-4.779
X122.465 Y-5.122
X122.209 Y-5.497
X121.943 Y-5.936
X121.68 Y-6.434
X121.44 Y-6.955
X121.212 Y-7.536
X121.002 Y-8.174
X120.819 Y-8.855
X120.671 Y-9.567
X120.561 Y-10.296
X120.493 Y-11.027
X120.467 Y-11.748
X120.48 Y-12.441
X120.53 Y-13.098
X120.61 Y-13.695
X120.709 Y-14.214
X120.827 Y-14.684
X120.943 Y-15.058
X121.066 Y-15.387
X121.187 Y-15.662
X121.318 Y-15.92
X121.367 Y-16.005
X121.568 Y-16.29
X121.814 Y-16.535
X122.099 Y-16.734
X122.414 Y-16.88
X122.75 Y-16.97
X123.096 Y-17
X123.5
G3 X124.07 Y-16.502 I-0.021 J0.6
G1 X126.265 Y-3.701
G3 X125.695 Y-3 I-0.591 J0.101
G1 X124.335
X124.185 Y-3.007
X124.036 Y-3.024
X123.888 Y-3.05
X123.737 Y-3.087
X123.583 Y-3.134
X123.407 Y-3.199
X123.23 Y-3.276
X123.029 Y-3.377
X122.83 Y-3.491
X122.61 Y-3.634
X122.386 Y-3.799
X122.151 Y-3.994
X121.898 Y-4.228
X121.652 Y-4.483
X121.39 Y-4.787
X121.124 Y-5.133
X120.868 Y-5.508
X120.604 Y-5.947
X120.341 Y-6.446
X120.101 Y-6.968
X119.874 Y-7.549
X119.665 Y-8.186
X119.484 Y-8.868
X119.336 Y-9.581
X119.227 Y-10.311
X119.16 Y-11.045
X119.134 Y-11.767
X119.149 Y-12.459
X119.2 Y-13.115
X119.28 Y-13.709
X119.379 Y-14.227
X119.497 Y-14.694
X119.614 Y-15.069
X119.736 Y-15.394
X119.858 Y-15.67
X119.988 Y-15.926
X120.036 Y-16.008
X120.236 Y-16.291
X120.483 Y-16.536
X120.768 Y-16.734
X121.082 Y-16.88
X121.418 Y-16.97
X121.764 Y-17
X122.181
G3 X122.752 Y-16.5 I-0.021 J0.6
G1 X124.906 Y-3.699
G3 X124.335 Y-3 I-0.592 J0.1
G1 X122.986
X122.836 Y-3.007
X122.687 Y-3.025
X122.54 Y-3.053
X122.387 Y-3.091
X122.231 Y-3.14
X122.053 Y-3.207
X121.875 Y-3.286
X121.673 Y-3.389
X121.472 Y-3.506
X121.252 Y-3.652
X121.024 Y-3.822
X120.789 Y-4.019
X120.534 Y-4.258
X120.288 Y-4.517
X120.027 Y-4.824
X119.758 Y-5.179
X119.504 Y-5.558
X119.242 Y-5.999
X118.98 Y-6.503
X118.738 Y-7.04
X118.515 Y-7.622
X118.31 Y-8.261
X118.133 Y-8.947
X117.989 Y-9.664
X117.885 Y-10.396
X117.823 Y-11.132
X117.802 Y-11.854
X117.822 Y-12.544
X117.877 Y-13.198
X117.958 Y-13.774
X118.061 Y-14.288
X118.179 Y-14.743
X118.298 Y-15.116
X118.417 Y-15.426
X118.542 Y-15.705
X118.67 Y-15.952
X118.71 Y-16.02
X118.911 Y-16.3
X119.157 Y-16.542
X119.441 Y-16.738
X119.754 Y-16.882
X120.087 Y-16.97
X120.431 Y-17
X121.764
G3 X122.34 Y-16.457 I-0.021 J0.6
G1 X123.563 Y-3.657
G3 X122.986 Y-3 I-0.597 J0.057
G1 X121.667
X121.517 Y-3.007
X121.368 Y-3.024
X121.221 Y-3.051
X121.073 Y-3.087
X120.915 Y-3.135
X120.743 Y-3.198
X120.563 Y-3.277
X120.364 Y-3.376
X120.163 Y-3.492
X119.94 Y-3.637
X119.721 Y-3.799
X119.481 Y-3.997
X119.236 Y-4.224
X118.986 Y-4.483
X118.719 Y-4.793
X118.463 Y-5.127
X118.202 Y-5.51
X117.935 Y-5.953
X117.679 Y-6.438
X117.44 Y-6.96
X117.21 Y-7.547
X117 Y-8.189
X116.818 Y-8.873
X116.67 Y-9.588
X116.561 Y-10.318
X116.494 Y-11.053
X116.468 Y-11.77
X116.483 Y-12.458
X116.534 Y-13.109
X116.615 Y-13.709
X116.715 Y-14.23
X116.833 Y-14.697
X116.948 Y-15.066
X117.072 Y-15.397
X117.192 Y-15.668
X117.324 Y-15.927
X117.371 Y-16.008
X117.571 Y-16.291
X117.818 Y-16.536
X118.103 Y-16.734
X118.417 Y-16.88
X118.753 Y-16.97
X119.098 Y-17
X119.522
G3 X120.093 Y-16.5 I-0.021 J0.6
G1 X122.238 Y-3.699
G3 X121.667 Y-3 I-0.592 J0.099
G1 X120.368
X120.188 Y-3.009
X120.039 Y-3.025
X119.891 Y-3.051
X119.741 Y-3.088
X119.586 Y-3.135
X119.411 Y-3.199
X119.233 Y-3.276
X119.034 Y-3.376
X118.835 Y-3.49
X118.615 Y-3.633
X118.392 Y-3.796
X118.155 Y-3.992
X117.905 Y-4.223
X117.659 Y-4.477
X117.397 Y-4.781
X117.134 Y-5.122
X116.877 Y-5.498
X116.612 Y-5.937
X116.35 Y-6.432
X116.111 Y-6.952
X115.882 Y-7.534
X115.672 Y-8.173
X115.489 Y-8.856
X115.34 Y-9.569
X115.231 Y-10.298
X115.163 Y-11.03
X115.136 Y-11.751
X115.15 Y-12.443
X115.2 Y-13.099
X115.28 Y-13.697
X115.379 Y-14.216
X115.497 Y-14.686
X115.613 Y-15.059
X115.736 Y-15.388
X115.857 Y-15.663
X115.988 Y-15.921
X116.037 Y-16.006
X116.237 Y-16.29
X116.484 Y-16.535
X116.769 Y-16.734
X117.084 Y-16.88
X117.42 Y-16.97
X117.766 Y-17
X119.098
G3 X119.675 Y-16.46 I-0.021 J0.6
G1 X120.945 Y-3.659
G3 X120.368 Y-3 I-0.597 J0.059
G1 X118.959
X118.809 Y-3.007
X118.66 Y-3.027
X118.513 Y-3.057
X118.357 Y-3.098
X118.199 Y-3.15
X118.019 Y-3.22
X117.836 Y-3.304
X117.636 Y-3.409
X117.427 Y-3.535
X117.209 Y-3.682
X116.973 Y-3.863
X116.74 Y-4.063
X116.485 Y-4.309
X116.232 Y-4.581
X115.976 Y-4.89
X115.706 Y-5.256
X115.446 Y-5.654
X115.19 Y-6.098
X114.933 Y-6.607
X114.686 Y-7.175
X114.466 Y-7.771
X114.27 Y-8.41
X114.101 Y-9.097
X113.966 Y-9.816
X113.871 Y-10.552
X113.817 Y-11.289
X113.806 Y-12.012
X113.833 Y-12.7
X113.894 Y-13.324
X113.98 Y-13.886
X114.089 Y-14.399
X114.203 Y-14.819
X114.329 Y-15.194
X114.443 Y-15.483
X114.575 Y-15.766
X114.698 Y-15.997
X114.725 Y-16.041
X114.926 Y-16.315
X115.171 Y-16.552
X115.453 Y-16.744
X115.763 Y-16.885
X116.093 Y-16.971
X116.433 Y-17
X116.854
G3 X117.426 Y-16.498 I-0.021 J0.6
G1 X119.53 Y-3.697
G3 X118.959 Y-3 I-0.592 J0.097
G1 X117.64
X117.49 Y-3.007
X117.341 Y-3.026
X117.194 Y-3.055
X117.047 Y-3.092
X116.883 Y-3.145
X116.712 Y-3.21
X116.526 Y-3.293
X116.33 Y-3.394
X116.123 Y-3.516
X115.9 Y-3.666
X115.677 Y-3.834
X115.433 Y-4.04
X115.191 Y-4.269
X114.938 Y-4.538
X114.669 Y-4.857
X114.414 Y-5.198
X114.149 Y-5.596
X113.881 Y-6.053
X113.632 Y-6.539
X113.394 Y-7.074
X113.168 Y-7.672
X112.963 Y-8.323
X112.787 Y-9.015
X112.646 Y-9.735
X112.545 Y-10.469
X112.487 Y-11.2
X112.47 Y-11.911
X112.492 Y-12.594
X112.549 Y-13.232
X112.635 Y-13.82
X112.739 Y-14.329
X112.859 Y-14.781
X112.976 Y-15.141
X113.098 Y-15.454
X113.221 Y-15.725
X113.351 Y-15.973
X113.384 Y-16.028
X113.585 Y-16.306
X113.83 Y-16.546
X114.113 Y-16.74
X114.425 Y-16.883
X114.757 Y-16.971
X115.099 Y-17
X115.535
G3 X116.107 Y-16.498 I-0.021 J0.6
G1 X118.211 Y-3.697
G3 X117.64 Y-3 I-0.592 J0.097
G1 X116.341
X116.189 Y-3.008
X116.04 Y-3.024
X115.893 Y-3.05
X115.747 Y-3.085
X115.586 Y-3.134
X115.418 Y-3.196
X115.234 Y-3.275
X115.04 Y-3.373
X114.837 Y-3.489
X114.616 Y-3.633
X114.396 Y-3.794
X114.152 Y-3.995
X113.912 Y-4.217
X113.66 Y-4.478
X113.394 Y-4.786
X113.141 Y-5.114
X112.877 Y-5.5
X112.608 Y-5.946
X112.358 Y-6.418
X112.115 Y-6.948
X111.882 Y-7.54
X111.67 Y-8.184
X111.487 Y-8.869
X111.339 Y-9.577
X111.23 Y-10.301
X111.162 Y-11.033
X111.136 Y-11.754
X111.15 Y-12.441
X111.2 Y-13.09
X111.279 Y-13.689
X111.381 Y-14.22
X111.498 Y-14.688
X111.612 Y-15.055
X111.738 Y-15.391
X111.856 Y-15.66
X111.99 Y-15.923
X112.038 Y-16.006
X112.238 Y-16.29
X112.485 Y-16.535
X112.77 Y-16.734
X113.085 Y-16.88
X113.421 Y-16.97
X113.767 Y-17
X114.187
G3 X114.757 Y-16.5 I-0.021 J0.6
G1 X116.912 Y-3.699
G3 X116.341 Y-3 I-0.592 J0.1
G1 X115.022
X114.858 Y-3.008
X114.709 Y-3.024
X114.561 Y-3.05
X114.411 Y-3.087
X114.256 Y-3.134
X114.081 Y-3.198
X113.903 Y-3.275
X113.704 Y-3.375
X113.505 Y-3.489
X113.285 Y-3.632
X113.062 Y-3.796
X112.825 Y-3.991
X112.574 Y-4.223
X112.33 Y-4.475
X112.068 Y-4.778
X111.804 Y-5.122
X111.547 Y-5.497
X111.281 Y-5.938
X111.017 Y-6.435
X110.777 Y-6.957
X110.549 Y-7.538
X110.339 Y-8.175
X110.157 Y-8.856
X110.008 Y-9.569
X109.899 Y-10.297
X109.831 Y-11.028
X109.804 Y-11.748
X109.818 Y-12.442
X109.868 Y-13.099
X109.948 Y-13.696
X110.047 Y-14.215
X110.165 Y-14.685
X110.281 Y-15.059
X110.404 Y-15.387
X110.525 Y-15.663
X110.656 Y-15.921
X110.706 Y-16.006
X110.906 Y-16.29
X111.152 Y-16.535
X111.437 Y-16.734
X111.752 Y-16.88
X112.088 Y-16.97
X112.434 Y-17
X112.877
G3 X113.448 Y-16.5 I-0.021 J0.6
G1 X115.593 Y-3.699
G3 X115.022 Y-3 I-0.592 J0.099
G1 X113.723
X113.524 Y-3.01
X113.375 Y-3.026
X113.228 Y-3.052
X113.077 Y-3.089
X112.923 Y-3.136
X112.748 Y-3.2
X112.571 Y-3.276
X112.371 Y-3.376
X112.173 Y-3.49
X111.953 Y-3.632
X111.73 Y-3.796
X111.494 Y-3.99
X111.243 Y-4.222
X110.997 Y-4.477
X110.734 Y-4.781
X110.47 Y-5.124
X110.213 Y-5.499
X109.948 Y-5.937
X109.685 Y-6.433
X109.446 Y-6.953
X109.218 Y-7.533
X109.008 Y-8.169
X108.826 Y-8.85
X108.677 Y-9.563
X108.567 Y-10.292
X108.499 Y-11.026
X108.472 Y-11.747
X108.486 Y-12.439
X108.536 Y-13.096
X108.615 Y-13.694
X108.714 Y-14.213
X108.832 Y-14.683
X108.948 Y-15.057
X109.071 Y-15.386
X109.192 Y-15.661
X109.323 Y-15.92
X109.373 Y-16.005
X109.573 Y-16.289
X109.819 Y-16.535
X110.104 Y-16.734
X110.42 Y-16.88
X110.755 Y-16.97
X111.102 Y-17
X111.508
G3 X112.078 Y-16.503 I-0.021 J0.6
G1 X114.293 Y-3.702
G3 X113.723 Y-3 I-0.591 J0.102
G1 X112.313
X112.164 Y-3.007
X112.015 Y-3.026
X111.867 Y-3.054
X111.713 Y-3.094
X111.556 Y-3.144
X111.377 Y-3.212
X111.197 Y-3.293
X110.996 Y-3.397
X110.791 Y-3.518
X110.572 Y-3.664
X110.34 Y-3.839
X110.107 Y-4.037
X109.851 Y-4.28
X109.602 Y-4.543
X109.343 Y-4.851
X109.073 Y-5.213
X108.817 Y-5.597
X108.558 Y-6.039
X108.299 Y-6.544
X108.052 Y-7.1
X107.832 Y-7.682
X107.631 Y-8.321
X107.457 Y-9.007
X107.317 Y-9.725
X107.216 Y-10.459
X107.158 Y-11.195
X107.141 Y-11.918
X107.163 Y-12.608
X107.221 Y-13.253
X107.304 Y-13.818
X107.409 Y-14.333
X107.526 Y-14.774
X107.648 Y-15.149
X107.765 Y-15.449
X107.893 Y-15.731
X108.019 Y-15.971
X108.053 Y-16.028
X108.254 Y-16.306
X108.5 Y-16.546
X108.783 Y-16.74
X109.095 Y-16.883
X109.427 Y-16.971
X109.769 Y-17
X111.102
G3 X111.678 Y-16.457 I-0.021 J0.6
G1 X112.89 Y-3.656
G3 X112.313 Y-3 I-0.597 J0.057
G1 X110.994
X110.845 Y-3.007
X110.696 Y-3.025
X110.548 Y-3.052
X110.401 Y-3.089
X110.24 Y-3.139
X110.069 Y-3.203
X109.886 Y-3.283
X109.689 Y-3.383
X109.485 Y-3.501
X109.262 Y-3.649
X109.042 Y-3.812
X108.8 Y-4.013
X108.557 Y-4.241
X108.305 Y-4.504
X108.037 Y-4.818
X107.781 Y-5.154
X107.519 Y-5.543
X107.251 Y-5.991
X106.998 Y-6.476
X106.76 Y-7.003
X106.531 Y-7.594
X106.323 Y-8.239
X106.143 Y-8.926
X105.998 Y-9.643
X105.892 Y-10.375
X105.828 Y-11.109
X105.806 Y-11.823
X105.824 Y-12.509
X105.877 Y-13.155
X105.96 Y-13.751
X106.061 Y-14.268
X106.18 Y-14.729
X106.295 Y-15.094
X106.419 Y-15.419
X106.54 Y-15.69
X106.671 Y-15.945
X106.713 Y-16.015
X106.914 Y-16.297
X107.16 Y-16.54
X107.444 Y-16.737
X107.758 Y-16.881
X108.092 Y-16.97
X108.436 Y-17
X108.849
G3 X109.42 Y-16.5 I-0.021 J0.6
G1 X111.565 Y-3.699
G3 X110.994 Y-3 I-0.592 J0.099
G1 X109.696
X109.526 Y-3.009
X109.377 Y-3.024
X109.229 Y-3.051
X109.081 Y-3.087
X108.924 Y-3.135
X108.751 Y-3.198
X108.571 Y-3.276
X108.372 Y-3.375
X108.173 Y-3.489
X107.951 Y-3.634
X107.731 Y-3.795
X107.491 Y-3.993
X107.245 Y-4.221
X106.997 Y-4.477
X106.732 Y-4.784
X106.474 Y-5.119
X106.215 Y-5.499
X105.948 Y-5.941
X105.689 Y-6.429
X105.45 Y-6.95
X105.219 Y-7.536
X105.008 Y-8.177
X104.825 Y-8.861
X104.677 Y-9.574
X104.567 Y-10.302
X104.5 Y-11.032
X104.473 Y-11.751
X104.487 Y-12.441
X104.537 Y-13.095
X104.617 Y-13.695
X104.717 Y-14.218
X104.835 Y-14.687
X104.95 Y-15.057
X105.074 Y-15.39
X105.194 Y-15.662
X105.326 Y-15.922
X105.375 Y-16.006
X105.575 Y-16.29
X105.821 Y-16.535
X106.106 Y-16.734
X106.422 Y-16.88
X106.757 Y-16.97
X107.104 Y-17
X108.436
G3 X109.012 Y-16.459 I-0.021 J0.6
G1 X110.272 Y-3.658
G3 X109.696 Y-3 I-0.597 J0.059
G1 X108.377
X108.194 Y-3.009
X108.045 Y-3.025
X107.897 Y-3.051
X107.747 Y-3.088
X107.592 Y-3.135
X107.417 Y-3.199
X107.24 Y-3.276
X107.04 Y-3.375
X106.842 Y-3.489
X106.622 Y-3.632
X106.399 Y-3.796
X106.162 Y-3.99
X105.911 Y-4.222
X105.666 Y-4.476
X105.404 Y-4.779
X105.14 Y-5.122
X104.883 Y-5.497
X104.618 Y-5.936
X104.355 Y-6.433
X104.116 Y-6.953
X103.887 Y-7.534
X103.677 Y-8.172
X103.494 Y-8.853
X103.346 Y-9.566
X103.236 Y-10.295
X103.168 Y-11.027
X103.141 Y-11.748
X103.155 Y-12.441
X103.205 Y-13.097
X103.285 Y-13.695
X103.384 Y-14.214
X103.501 Y-14.684
X103.617 Y-15.058
X103.74 Y-15.387
X103.861 Y-15.662
X103.992 Y-15.92
X104.042 Y-16.005
X104.242 Y-16.289
X104.489 Y-16.535
X104.774 Y-16.734
X105.089 Y-16.88
X105.425 Y-16.97
X105.771 Y-17
X106.182
G3 X106.752 Y-16.502 I-0.021 J0.6
G1 X108.947 Y-3.701
G3 X108.377 Y-3 I-0.591 J0.101
G1 X106.967
X106.817 Y-3.007
X106.668 Y-3.027
X106.521 Y-3.057
X106.366 Y-3.098
X106.207 Y-3.149
X106.028 Y-3.219
X105.845 Y-3.302
X105.645 Y-3.407
X105.436 Y-3.532
X105.219 Y-3.68
X104.983 Y-3.86
X104.75 Y-4.059
X104.495 Y-4.305
X104.242 Y-4.576
X103.985 Y-4.885
X103.715 Y-5.25
X103.455 Y-5.647
X103.199 Y-6.09
X102.942 Y-6.598
X102.695 Y-7.165
X102.475 Y-7.758
X102.278 Y-8.397
X102.109 Y-9.084
X101.973 Y-9.803
X101.877 Y-10.538
X101.823 Y-11.276
X101.81 Y-11.998
X101.837 Y-12.687
X101.897 Y-13.314
X101.983 Y-13.876
X102.092 Y-14.39
X102.207 Y-14.813
X102.331 Y-15.188
X102.446 Y-15.478
X102.577 Y-15.761
X102.701 Y-15.994
X102.729 Y-16.039
X102.93 Y-16.314
X103.175 Y-16.551
X103.457 Y-16.743
X103.768 Y-16.884
X104.098 Y-16.971
X104.438 Y-17
X104.863
G3 X105.434 Y-16.498 I-0.021 J0.6
G1 X107.538 Y-3.697
G3 X106.967 Y-3 I-0.592 J0.097
G1 X105.668
X105.518 Y-3.007
X105.369 Y-3.024
X105.222 Y-3.051
X105.076 Y-3.087
X104.912 Y-3.138
X104.745 Y-3.2
X104.559 Y-3.281
X104.367 Y-3.378
X104.16 Y-3.498
X103.941 Y-3.641
X103.718 Y-3.806
X103.474 Y-4.009
X103.237 Y-4.23
X102.981 Y-4.496
X102.718 Y-4.804
X102.461 Y-5.14
X102.194 Y-5.534
X101.926 Y-5.981
X101.679 Y-6.452
X101.436 Y-6.985
X101.206 Y-7.579
X100.996 Y-8.225
X100.815 Y-8.909
X100.671 Y-9.615
X100.564 Y-10.343
X100.498 Y-11.084
X100.475 Y-11.806
X100.491 Y-12.491
X100.542 Y-13.131
X100.624 Y-13.726
X100.727 Y-14.253
X100.845 Y-14.716
X100.959 Y-15.079
X101.084 Y-15.411
X101.203 Y-15.678
X101.337 Y-15.938
X101.38 Y-16.012
X101.581 Y-16.295
X101.827 Y-16.538
X102.111 Y-16.736
X102.425 Y-16.881
X102.76 Y-16.97
X103.105 Y-17
X103.514
G3 X104.085 Y-16.5 I-0.021 J0.6
G1 X106.239 Y-3.699
G3 X105.668 Y-3 I-0.592 J0.1
G1 X104.349
X104.196 Y-3.008
X104.047 Y-3.024
X103.899 Y-3.05
X103.75 Y-3.086
X103.594 Y-3.134
X103.42 Y-3.198
X103.241 Y-3.275
X103.042 Y-3.375
X102.843 Y-3.488
X102.621 Y-3.633
X102.4 Y-3.795
X102.16 Y-3.993
X101.912 Y-4.222
X101.666 Y-4.477
X101.402 Y-4.782
X101.142 Y-5.12
X100.883 Y-5.499
X100.616 Y-5.942
X100.355 Y-6.434
X100.116 Y-6.955
X99.887 Y-7.538
X99.677 Y-8.176
X99.494 Y-8.86
X99.345 Y-9.574
X99.236 Y-10.304
X99.168 Y-11.033
X99.142 Y-11.751
X99.156 Y-12.443
X99.206 Y-13.098
X99.286 Y-13.697
X99.386 Y-14.218
X99.503 Y-14.687
X99.619 Y-15.059
X99.743 Y-15.39
X99.863 Y-15.663
X99.995 Y-15.922
X100.044 Y-16.006
X100.244 Y-16.29
X100.49 Y-16.535
X100.775 Y-16.734
X101.091 Y-16.88
X101.426 Y-16.97
X101.772 Y-17
X102.204
G3 X102.775 Y-16.5 I-0.021 J0.6
G1 X104.92 Y-3.699
G3 X104.349 Y-3 I-0.592 J0.099
G1 X103.05
X102.863 Y-3.009
X102.714 Y-3.025
X102.566 Y-3.052
X102.416 Y-3.088
X102.261 Y-3.135
X102.086 Y-3.199
X101.909 Y-3.276
X101.709 Y-3.376
X101.511 Y-3.489
X101.291 Y-3.632
X101.068 Y-3.796
X100.832 Y-3.99
X100.58 Y-4.222
X100.335 Y-4.476
X100.072 Y-4.78
X99.808 Y-5.123
X99.552 Y-5.498
X99.287 Y-5.936
X99.024 Y-6.432
X98.785 Y-6.952
X98.556 Y-7.533
X98.346 Y-8.171
X98.163 Y-8.852
X98.015 Y-9.564
X97.905 Y-10.293
X97.837 Y-11.026
X97.81 Y-11.748
X97.824 Y-12.44
X97.874 Y-13.097
X97.953 Y-13.694
X98.052 Y-14.214
X98.17 Y-14.683
X98.286 Y-15.057
X98.409 Y-15.387
X98.53 Y-15.662
X98.661 Y-15.92
X98.711 Y-16.005
X98.911 Y-16.289
X99.157 Y-16.535
X99.442 Y-16.734
X99.758 Y-16.88
X100.094 Y-16.97
X100.44 Y-17
X101.772
G3 X102.349 Y-16.46 I-0.021 J0.6
G1 X103.626 Y-3.659
G3 X103.05 Y-3 I-0.597 J0.06
G1 X101.641
