%
(1001)
(crosssupportstenons1_ z0 stock top)
(T1  D=22 CR=0 - ZMIN=-6.25 - flat end mill)
G90 G94
G17
G21

(2D Adaptive1)
M9
T1 M6
(22mm Facing Bit)
S5000 M3
G54
M9
G0 X515.058 Y-2.158
Z15
Z5
Z-1.85
G1 Z-4.05 F850
X515.051 Y-2.156 Z-4.232
X515.029 Y-2.151 Z-4.412
X514.993 Y-2.142 Z-4.59
X514.943 Y-2.129 Z-4.764
X514.879 Y-2.112 Z-4.934
X514.802 Y-2.093 Z-5.097
X514.711 Y-2.069 Z-5.253
X514.609 Y-2.043 Z-5.401
X514.495 Y-2.014 Z-5.54
X514.371 Y-1.982 Z-5.669
X514.236 Y-1.948 Z-5.786
X514.093 Y-1.911 Z-5.892
X513.942 Y-1.872 Z-5.985
X513.783 Y-1.832 Z-6.065
X513.619 Y-1.79 Z-6.131
X513.45 Y-1.746 Z-6.183
X513.278 Y-1.702 Z-6.22
X513.103 Y-1.657 Z-6.242
X512.927 Y-1.612 Z-6.25
G3 X500.951 Y0.11 I-13.937 J-54.409
G1 X500.88
X499.686 Y-0.044
X498.489 Y-0.182
X497.292 Y-0.304
X496.092 Y-0.413
X494.892 Y-0.51
X493.691 Y-0.597
X492.489 Y-0.674
X491.287 Y-0.742
X490.085 Y-0.804
X488.882 Y-0.858
X487.678 Y-0.906
X486.475 Y-0.95
X485.271 Y-0.988
X484.068 Y-1.022
X482.864 Y-1.053
X481.66 Y-1.08
X480.456 Y-1.104
X479.252 Y-1.125
X478.048 Y-1.144
X476.844 Y-1.161
X475.64 Y-1.176
X474.436 Y-1.19
X473.232 Y-1.202
X472.028 Y-1.212
X470.824 Y-1.222
X469.62 Y-1.23
X468.415 Y-1.238
X467.211 Y-1.244
X466.007 Y-1.25
X464.803 Y-1.255
X463.599 Y-1.26
X461.191 Y-1.268
X458.782 Y-1.274
X456.374 Y-1.279
X452.761 Y-1.285
X450.353 Y-1.288
X449.149 Y-1.289
X447.948 Y-1.378
X446.747 Y-1.457
X445.544 Y-1.527
X444.342 Y-1.59
X443.139 Y-1.645
X441.936 Y-1.695
X440.732 Y-1.739
X439.529 Y-1.778
X438.325 Y-1.813
X437.122 Y-1.843
X435.918 Y-1.871
X434.714 Y-1.895
X433.51 Y-1.917
X432.306 Y-1.936
X431.102 Y-1.954
X429.898 Y-1.969
X428.694 Y-1.982
X427.49 Y-1.994
X426.285 Y-2.005
X425.081 Y-2.014
X423.877 Y-2.023
X422.673 Y-2.03
X421.469 Y-2.037
X420.265 Y-2.043
X419.061 Y-2.048
X417.856 Y-2.053
X415.448 Y-2.061
X413.04 Y-2.067
X410.631 Y-2.072
X407.019 Y-2.077
X403.406 Y-2.081
X399.794 Y-2.084
X393.773 Y-2.087
X384.14 Y-2.089
X366.077 Y-2.09
X349.219
X298.644
X248.07
X197.495
X146.92
X96.345
X45.77
X10.85
X10.549 Y-2.085
X9.35 Y-1.974
X8.228 Y-1.536
X7.165 Y-0.894
X6.224 Y-0.143
X5.368 Y0.704
X4.592 Y1.625
X3.891 Y2.604
X3.26 Y3.629
X2.691 Y4.691
X2.18 Y5.781
X1.722 Y6.894
X1.52 Y7.339
X1.254 Y7.748
X0.928 Y8.111
X0.551 Y8.421
X0.131 Y8.67
X-0.321 Y8.852
X-0.797 Y8.963
X-1.283 Y9
G3 X-2.119 Y8.803 I0.077 J-2.199
G1 X-2.284 Y8.728 Z-6.242
X-2.448 Y8.653 Z-6.22
X-2.61 Y8.579 Z-6.183
X-2.769 Y8.507 Z-6.131
X-2.923 Y8.437 Z-6.065
X-3.072 Y8.369 Z-5.985
X-3.214 Y8.304 Z-5.892
X-3.348 Y8.243 Z-5.786
X-3.475 Y8.185 Z-5.669
X-3.592 Y8.132 Z-5.54
X-3.699 Y8.083 Z-5.401
X-3.795 Y8.039 Z-5.253
X-3.879 Y8.001 Z-5.097
X-3.952 Y7.968 Z-4.934
X-4.012 Y7.94 Z-4.764
X-4.059 Y7.919 Z-4.59
X-4.093 Y7.903 Z-4.412
X-4.114 Y7.894 Z-4.232
X-4.121 Y7.891 Z-4.05
G0 Z5
X503.825 Y8.331
Z-1.85
G1 Z-4.05 F850
X503.817 Y8.333 Z-4.232
X503.796 Y8.339 Z-4.412
X503.76 Y8.348 Z-4.59
X503.709 Y8.361 Z-4.764
X503.645 Y8.377 Z-4.934
X503.568 Y8.397 Z-5.097
X503.478 Y8.42 Z-5.253
X503.375 Y8.446 Z-5.401
X503.262 Y8.475 Z-5.54
X503.137 Y8.507 Z-5.669
X503.003 Y8.542 Z-5.786
X502.859 Y8.578 Z-5.892
X502.708 Y8.617 Z-5.985
X502.55 Y8.658 Z-6.065
X502.386 Y8.7 Z-6.131
X502.217 Y8.743 Z-6.183
X502.044 Y8.787 Z-6.22
X501.87 Y8.832 Z-6.242
X501.694 Y8.877 Z-6.25
G3 X500.838 Y9 I-0.995 J-3.885
G1 X494.48
X494.443 Y8.998
X493.246 Y8.862
X492.048 Y8.738
X490.85 Y8.624
X489.65 Y8.521
X488.45 Y8.426
X487.248 Y8.34
X486.047 Y8.262
X484.845 Y8.19
X483.642 Y8.125
X482.44 Y8.066
X481.237 Y8.013
X480.034 Y7.964
X478.83 Y7.92
X477.627 Y7.88
X476.423 Y7.844
X475.219 Y7.811
X474.016 Y7.781
X472.812 Y7.754
X471.608 Y7.729
X470.404 Y7.707
X469.2 Y7.687
X467.996 Y7.669
X466.792 Y7.653
X465.588 Y7.638
X464.384 Y7.625
X463.18 Y7.612
X461.975 Y7.602
X460.771 Y7.592
X458.363 Y7.574
X457.159 Y7.557
X455.955 Y7.533
X454.751 Y7.504
X453.548 Y7.47
X452.344 Y7.434
X451.14 Y7.396
X448.733 Y7.32
X447.53 Y7.282
X446.326 Y7.245
X445.122 Y7.209
X443.919 Y7.175
X442.715 Y7.141
X441.511 Y7.11
X440.308 Y7.08
X439.104 Y7.052
X437.9 Y7.025
X436.696 Y7.001
X435.492 Y6.977
X434.288 Y6.956
X433.084 Y6.935
X431.88 Y6.917
X430.676 Y6.899
X429.472 Y6.883
X428.268 Y6.868
X427.064 Y6.855
X425.86 Y6.842
X424.656 Y6.831
X423.451 Y6.82
X422.247 Y6.81
X421.043 Y6.801
X419.839 Y6.793
X418.635 Y6.785
X417.431 Y6.779
X416.227 Y6.772
X415.022 Y6.767
X412.614 Y6.757
X410.206 Y6.748
X407.798 Y6.741
X405.389 Y6.736
X401.777 Y6.729
X398.164 Y6.724
X393.348 Y6.719
X387.327 Y6.716
X380.102 Y6.713
X368.06 Y6.711
X342.773 Y6.71
X292.198
X241.623
X191.048
X140.474
X89.899
X39.324
X23.67
X22.466 Y6.715
X21.275 Y6.894
X20.116 Y7.223
X18.993 Y7.656
X17.902 Y8.166
X17.045 Y8.618
X16.68 Y8.783
X16.298 Y8.903
X15.904 Y8.976
X15.504 Y9
X0.145
G3 X-0.691 Y8.803 I0.077 J-2.199
G1 X-0.856 Y8.728 Z-6.242
X-1.02 Y8.653 Z-6.22
X-1.182 Y8.579 Z-6.183
X-1.341 Y8.507 Z-6.131
X-1.495 Y8.437 Z-6.065
X-1.644 Y8.369 Z-5.985
X-1.786 Y8.304 Z-5.892
X-1.92 Y8.243 Z-5.786
X-2.047 Y8.185 Z-5.669
X-2.164 Y8.132 Z-5.54
X-2.271 Y8.083 Z-5.401
X-2.367 Y8.039 Z-5.253
X-2.451 Y8.001 Z-5.097
X-2.524 Y7.968 Z-4.934
X-2.584 Y7.94 Z-4.764
X-2.631 Y7.919 Z-4.59
X-2.665 Y7.903 Z-4.412
X-2.686 Y7.894 Z-4.232
X-2.693 Y7.891 Z-4.05
G0 Z5
X495.597 Y7.632
Z-1.85
G1 Z-4.05 F850
X495.591 Y7.636 Z-4.232
X495.572 Y7.648 Z-4.412
X495.54 Y7.667 Z-4.59
X495.495 Y7.693 Z-4.764
X495.438 Y7.727 Z-4.934
X495.369 Y7.768 Z-5.097
X495.289 Y7.815 Z-5.253
X495.199 Y7.869 Z-5.401
X495.098 Y7.929 Z-5.54
X494.987 Y7.995 Z-5.669
X494.868 Y8.066 Z-5.786
X494.741 Y8.142 Z-5.892
X494.606 Y8.221 Z-5.985
X494.466 Y8.305 Z-6.065
X494.32 Y8.391 Z-6.131
X494.171 Y8.481 Z-6.183
X494.018 Y8.571 Z-6.22
X493.863 Y8.664 Z-6.242
X493.706 Y8.757 Z-6.25
G3 X492.877 Y9 I-0.89 J-1.496
G1 X15.504
X15.396 Y8.986 Z-6.243
X15.29 Y8.972 Z-6.222
X15.187 Y8.958 Z-6.188
X15.089 Y8.946 Z-6.142
X15.008 Y8.919 Z-6.087
X14.934 Y8.894 Z-6.024
X14.867 Y8.872 Z-5.951
X14.809 Y8.853 Z-5.871
X14.76 Y8.836 Z-5.784
X14.721 Y8.823 Z-5.692
X14.692 Y8.814 Z-5.596
X14.674 Y8.806 Z-5.492
X14.668 Y8.803 Z-5.386
G0 Z5
X-25.059 Y367.158
Z-1.85
G1 Z-4.05 F850
X-25.051 Y367.156 Z-4.232
X-25.029 Y367.151 Z-4.412
X-24.993 Y367.142 Z-4.59
X-24.943 Y367.129 Z-4.764
X-24.879 Y367.112 Z-4.934
X-24.802 Y367.093 Z-5.097
X-24.711 Y367.069 Z-5.253
X-24.609 Y367.043 Z-5.401
X-24.495 Y367.014 Z-5.54
X-24.371 Y366.982 Z-5.669
X-24.236 Y366.948 Z-5.786
X-24.093 Y366.911 Z-5.892
X-23.942 Y366.872 Z-5.985
X-23.783 Y366.832 Z-6.065
X-23.619 Y366.79 Z-6.131
X-23.45 Y366.746 Z-6.183
X-23.278 Y366.702 Z-6.22
X-23.103 Y366.657 Z-6.242
X-22.927 Y366.612 Z-6.25
G3 X-10.951 Y364.89 I13.937 J54.409
G1 X-10.88
X-9.686 Y365.044
X-8.489 Y365.182
X-7.292 Y365.304
X-6.092 Y365.413
X-4.892 Y365.51
X-3.691 Y365.597
X-2.489 Y365.674
X-1.287 Y365.742
X-0.085 Y365.804
X1.118 Y365.858
X2.322 Y365.906
X3.525 Y365.95
X4.729 Y365.988
X5.932 Y366.022
X7.136 Y366.053
X8.34 Y366.08
X9.544 Y366.104
X10.748 Y366.125
X11.952 Y366.144
X13.156 Y366.161
X14.36 Y366.176
X15.564 Y366.19
X16.768 Y366.202
X17.972 Y366.212
X19.176 Y366.222
X20.38 Y366.23
X21.585 Y366.238
X22.789 Y366.244
X23.993 Y366.25
X25.197 Y366.255
X26.401 Y366.26
X28.809 Y366.268
X31.218 Y366.274
X33.626 Y366.279
X37.239 Y366.285
X39.647 Y366.288
X40.851 Y366.289
X42.052 Y366.378
X43.253 Y366.457
X44.456 Y366.527
X45.658 Y366.59
X46.861 Y366.645
X48.064 Y366.695
X49.268 Y366.739
X50.471 Y366.778
X51.675 Y366.813
X52.878 Y366.844
X54.082 Y366.871
X55.286 Y366.895
X56.49 Y366.917
X57.694 Y366.936
X58.898 Y366.954
X60.102 Y366.969
X61.306 Y366.982
X62.51 Y366.994
X63.715 Y367.005
X64.919 Y367.014
X66.123 Y367.023
X67.327 Y367.03
X68.531 Y367.037
X69.735 Y367.043
X70.939 Y367.048
X72.144 Y367.053
X74.552 Y367.061
X76.96 Y367.067
X79.369 Y367.072
X82.981 Y367.077
X86.594 Y367.081
X90.206 Y367.084
X96.227 Y367.087
X105.86 Y367.089
X123.923 Y367.09
X140.781
X191.356
X241.93
X292.505
X343.08
X393.655
X444.23
X479.15
X479.451 Y367.085
X480.65 Y366.974
X481.772 Y366.536
X482.835 Y365.894
X483.776 Y365.143
X484.632 Y364.297
X485.408 Y363.375
X486.109 Y362.396
X486.74 Y361.371
X487.309 Y360.309
X487.82 Y359.219
X488.278 Y358.106
X488.48 Y357.661
X488.746 Y357.252
X489.072 Y356.889
X489.449 Y356.579
X489.869 Y356.33
X490.321 Y356.148
X490.797 Y356.037
X491.283 Y356
G3 X492.119 Y356.197 I-0.077 J2.199
G1 X492.284 Y356.272 Z-6.242
X492.448 Y356.347 Z-6.22
X492.61 Y356.421 Z-6.183
X492.769 Y356.493 Z-6.131
X492.923 Y356.563 Z-6.065
X493.072 Y356.631 Z-5.985
X493.214 Y356.696 Z-5.892
X493.348 Y356.757 Z-5.786
X493.475 Y356.815 Z-5.669
X493.592 Y356.868 Z-5.54
X493.699 Y356.917 Z-5.401
X493.795 Y356.961 Z-5.253
X493.879 Y356.999 Z-5.097
X493.952 Y357.032 Z-4.934
X494.012 Y357.06 Z-4.764
X494.059 Y357.081 Z-4.59
X494.093 Y357.097 Z-4.412
X494.114 Y357.106 Z-4.232
X494.121 Y357.109 Z-4.05
G0 Z5
X-13.82 Y356.669
Z-1.85
G1 Z-4.05 F850
X-13.812 Y356.667 Z-4.232
X-13.791 Y356.661 Z-4.412
X-13.755 Y356.652 Z-4.59
X-13.704 Y356.639 Z-4.764
X-13.64 Y356.623 Z-4.934
X-13.563 Y356.603 Z-5.097
X-13.473 Y356.58 Z-5.253
X-13.37 Y356.554 Z-5.401
X-13.257 Y356.525 Z-5.54
X-13.132 Y356.493 Z-5.669
X-12.998 Y356.458 Z-5.786
X-12.854 Y356.422 Z-5.892
X-12.703 Y356.383 Z-5.985
X-12.545 Y356.342 Z-6.065
X-12.381 Y356.3 Z-6.131
X-12.212 Y356.257 Z-6.183
X-12.039 Y356.213 Z-6.22
X-11.865 Y356.168 Z-6.242
X-11.689 Y356.123 Z-6.25
G3 X-10.833 Y356 I0.995 J3.885
G1 X-4.475
X-4.438 Y356.002
X-3.241 Y356.138
X-2.043 Y356.262
X-0.845 Y356.376
X0.355 Y356.479
X1.555 Y356.574
X2.757 Y356.66
X3.958 Y356.738
X5.16 Y356.81
X6.363 Y356.875
X7.565 Y356.934
X8.768 Y356.987
X9.971 Y357.036
X11.175 Y357.08
X12.378 Y357.12
X13.582 Y357.156
X14.786 Y357.189
X15.989 Y357.219
X17.193 Y357.246
X18.397 Y357.271
X19.601 Y357.293
X20.805 Y357.313
X22.009 Y357.331
X23.213 Y357.347
X24.417 Y357.362
X25.621 Y357.375
X26.825 Y357.388
X28.03 Y357.398
X29.234 Y357.408
X31.642 Y357.426
X32.846 Y357.443
X34.05 Y357.467
X35.254 Y357.497
X36.457 Y357.53
X37.661 Y357.566
X38.865 Y357.604
X41.272 Y357.68
X42.475 Y357.718
X43.679 Y357.755
X44.883 Y357.791
X46.086 Y357.826
X47.29 Y357.859
X48.494 Y357.89
X49.697 Y357.92
X50.901 Y357.948
X52.105 Y357.975
X53.309 Y358
X54.513 Y358.023
X55.717 Y358.044
X56.921 Y358.065
X58.125 Y358.083
X59.329 Y358.101
X60.533 Y358.117
X61.737 Y358.132
X62.941 Y358.145
X64.145 Y358.158
X65.349 Y358.169
X66.554 Y358.18
X67.758 Y358.19
X68.962 Y358.199
X70.166 Y358.207
X71.37 Y358.215
X72.574 Y358.221
X73.778 Y358.228
X74.983 Y358.233
X77.391 Y358.243
X79.799 Y358.252
X82.207 Y358.259
X84.616 Y358.264
X88.228 Y358.271
X91.841 Y358.276
X96.657 Y358.281
X102.678 Y358.284
X109.903 Y358.287
X121.945 Y358.289
X147.232 Y358.29
X197.807
X248.382
X298.957
X349.531
X400.106
X450.681
X466.335
X467.539 Y358.285
X468.73 Y358.105
X469.888 Y357.776
X471.011 Y357.341
X472.102 Y356.832
X472.954 Y356.382
X473.319 Y356.217
X473.702 Y356.097
X474.096 Y356.024
X474.496 Y356
X489.86
G3 X490.696 Y356.197 I-0.077 J2.199
G1 X490.861 Y356.272 Z-6.242
X491.025 Y356.347 Z-6.22
X491.187 Y356.421 Z-6.183
X491.346 Y356.493 Z-6.131
X491.5 Y356.563 Z-6.065
X491.649 Y356.631 Z-5.985
X491.791 Y356.696 Z-5.892
X491.925 Y356.757 Z-5.786
X492.052 Y356.815 Z-5.669
X492.169 Y356.868 Z-5.54
X492.276 Y356.917 Z-5.401
X492.372 Y356.961 Z-5.253
X492.456 Y356.999 Z-5.097
X492.529 Y357.032 Z-4.934
X492.589 Y357.06 Z-4.764
X492.636 Y357.081 Z-4.59
X492.67 Y357.097 Z-4.412
X492.691 Y357.106 Z-4.232
X492.698 Y357.109 Z-4.05
G0 Z5
X-5.592 Y357.368
Z-1.85
G1 Z-4.05 F850
X-5.586 Y357.364 Z-4.232
X-5.567 Y357.352 Z-4.412
X-5.535 Y357.333 Z-4.59
X-5.49 Y357.307 Z-4.764
X-5.433 Y357.273 Z-4.934
X-5.364 Y357.232 Z-5.097
X-5.284 Y357.185 Z-5.253
X-5.194 Y357.131 Z-5.401
X-5.093 Y357.071 Z-5.54
X-4.982 Y357.005 Z-5.669
X-4.863 Y356.934 Z-5.786
X-4.736 Y356.858 Z-5.892
X-4.601 Y356.779 Z-5.985
X-4.461 Y356.695 Z-6.065
X-4.315 Y356.609 Z-6.131
X-4.166 Y356.519 Z-6.183
X-4.013 Y356.429 Z-6.22
X-3.858 Y356.336 Z-6.242
X-3.701 Y356.243 Z-6.25
G3 X-2.872 Y356 I0.89 J1.496
G1 X474.496
G3 X475.331 Y356.197 I-0.077 J2.199
G1 X475.496 Y356.272 Z-6.242
X475.661 Y356.347 Z-6.22
X475.822 Y356.421 Z-6.183
X475.981 Y356.493 Z-6.131
X476.135 Y356.563 Z-6.065
X476.284 Y356.631 Z-5.985
X476.426 Y356.696 Z-5.892
X476.561 Y356.757 Z-5.786
X476.687 Y356.815 Z-5.669
X476.804 Y356.868 Z-5.54
X476.911 Y356.917 Z-5.401
X477.007 Y356.961 Z-5.253
X477.092 Y356.999 Z-5.097
X477.164 Y357.032 Z-4.934
X477.225 Y357.06 Z-4.764
X477.272 Y357.081 Z-4.59
X477.306 Y357.097 Z-4.412
X477.326 Y357.106 Z-4.232
X477.333 Y357.109 Z-4.05
G0 Z15
M9
M30
%
