%
(1001)
(crosssupportstenoncheeks_ z0 stock top)
(T1  D=22 CR=0 - ZMIN=-6.25 - flat end mill)
G90 G94
G17
G21

(2D Adaptive1)
M9
T1 M6
(22mm Facing Bit)
S6500 M3
G54
M9
G0 X518.062 Y-2.158
Z15
Z5
Z-1.85
G1 Z-4.05 F850
X518.055 Y-2.156 Z-4.232
X518.033 Y-2.151 Z-4.412
X517.997 Y-2.142 Z-4.59
X517.947 Y-2.129 Z-4.764
X517.883 Y-2.112 Z-4.934
X517.806 Y-2.093 Z-5.097
X517.715 Y-2.069 Z-5.253
X517.613 Y-2.043 Z-5.401
X517.499 Y-2.014 Z-5.54
X517.375 Y-1.982 Z-5.669
X517.24 Y-1.948 Z-5.786
X517.097 Y-1.911 Z-5.892
X516.946 Y-1.872 Z-5.985
X516.787 Y-1.832 Z-6.065
X516.623 Y-1.79 Z-6.131
X516.454 Y-1.746 Z-6.183
X516.282 Y-1.702 Z-6.22
X516.107 Y-1.657 Z-6.242
X515.931 Y-1.612 Z-6.25
G3 X503.954 Y0.11 I-13.937 J-54.409
G1 X503.879
X503.187 Y-0.875
X502.409 Y-1.794
X501.557 Y-2.645
X500.639 Y-3.425
X499.667 Y-4.136
X498.648 Y-4.777
X497.59 Y-5.352
X496.5 Y-5.864
X495.384 Y-6.315
X494.246 Y-6.71
X493.092 Y-7.054
X491.925 Y-7.351
X490.748 Y-7.605
X489.564 Y-7.822
X488.374 Y-8.005
X487.179 Y-8.16
X485.982 Y-8.289
X484.783 Y-8.396
X483.582 Y-8.486
X482.38 Y-8.559
X481.177 Y-8.62
X479.974 Y-8.67
X478.771 Y-8.711
X477.567 Y-8.744
X476.363 Y-8.772
X475.159 Y-8.794
X473.955 Y-8.812
X472.751 Y-8.827
X471.547 Y-8.839
X470.343 Y-8.848
X469.139 Y-8.856
X467.935 Y-8.863
X466.73 Y-8.868
X465.526 Y-8.872
X464.322 Y-8.875
X463.118 Y-8.878
X460.71 Y-8.882
X458.301 Y-8.885
X455.893 Y-8.887
X451.076 Y-8.889
X441.443 Y-8.89
X405.318
X354.743
X304.169
X253.594
X203.019
X152.444
X101.869
X51.295
X5.536
X4.338 Y-8.774
X3.162 Y-8.513
X2.024 Y-8.121
X0.933 Y-7.611
X-0.101 Y-6.994
X-1.073 Y-6.283
X-1.978 Y-5.489
X-2.814 Y-4.622
X-3.58 Y-3.693
X-4.276 Y-2.71
X-4.903 Y-1.682
X-5.465 Y-0.617
X-5.963 Y0.479
X-6.402 Y1.6
X-6.786 Y2.741
X-7.12 Y3.899
X-7.407 Y5.068
X-7.653 Y6.247
X-7.719 Y6.62
X-7.831 Y7.053
X-8.008 Y7.462
X-8.246 Y7.84
X-8.539 Y8.176
X-8.881 Y8.463
X-9.263 Y8.694
X-9.677 Y8.862
X-10.111 Y8.965
X-10.556 Y9
G3 X-11.391 Y8.803 I0.077 J-2.199
G1 X-11.557 Y8.728 Z-6.242
X-11.721 Y8.653 Z-6.22
X-11.883 Y8.579 Z-6.183
X-12.041 Y8.507 Z-6.131
X-12.196 Y8.437 Z-6.065
X-12.344 Y8.369 Z-5.985
X-12.486 Y8.304 Z-5.892
X-12.621 Y8.243 Z-5.786
X-12.747 Y8.185 Z-5.669
X-12.864 Y8.132 Z-5.54
X-12.971 Y8.083 Z-5.401
X-13.067 Y8.039 Z-5.253
X-13.152 Y8.001 Z-5.097
X-13.225 Y7.968 Z-4.934
X-13.285 Y7.94 Z-4.764
X-13.332 Y7.919 Z-4.59
X-13.366 Y7.903 Z-4.412
X-13.387 Y7.894 Z-4.232
X-13.393 Y7.891 Z-4.05
G0 Z5
X518.015 Y6.732
Z-1.85
G1 Z-4.05 F850
X518.007 Y6.734 Z-4.232
X517.985 Y6.739 Z-4.412
X517.949 Y6.748 Z-4.59
X517.899 Y6.761 Z-4.764
X517.835 Y6.778 Z-4.934
X517.758 Y6.797 Z-5.097
X517.667 Y6.821 Z-5.253
X517.565 Y6.847 Z-5.401
X517.451 Y6.876 Z-5.54
X517.327 Y6.908 Z-5.669
X517.192 Y6.942 Z-5.786
X517.049 Y6.979 Z-5.892
X516.898 Y7.018 Z-5.985
X516.739 Y7.058 Z-6.065
X516.575 Y7.1 Z-6.131
X516.406 Y7.144 Z-6.183
X516.234 Y7.188 Z-6.22
X516.059 Y7.233 Z-6.242
X515.883 Y7.278 Z-6.25
G3 X503.907 Y9 I-13.937 J-54.409
G1 X503.844
X503.825 Y8.999
X503.787 Y8.934
X503.751 Y8.869
X503.716 Y8.802
X503.682 Y8.735
X503.65 Y8.667
X503.619 Y8.599
X503.588 Y8.531
X503.559 Y8.462
X503.53 Y8.393
X503.502 Y8.323
X503.474 Y8.253
X503.448 Y8.183
X503.421 Y8.113
X503.396 Y8.042
X503.371 Y7.972
X502.978 Y6.833
X502.5 Y5.728
X501.938 Y4.663
X501.297 Y3.644
X500.582 Y2.675
X499.799 Y1.76
X498.956 Y0.901
X498.057 Y0.099
X497.11 Y-0.644
X496.119 Y-1.329
X495.092 Y-1.957
X494.032 Y-2.529
X492.945 Y-3.047
X491.835 Y-3.514
X490.706 Y-3.932
X489.561 Y-4.305
X488.403 Y-4.635
X487.234 Y-4.926
X486.058 Y-5.181
X484.874 Y-5.404
X483.686 Y-5.597
X482.493 Y-5.765
X481.298 Y-5.909
X480.1 Y-6.033
X478.9 Y-6.139
X477.7 Y-6.229
X476.498 Y-6.306
X475.296 Y-6.371
X474.093 Y-6.426
X472.889 Y-6.472
X471.686 Y-6.511
X470.482 Y-6.544
X469.278 Y-6.572
X468.074 Y-6.595
X466.87 Y-6.614
X465.666 Y-6.63
X464.462 Y-6.644
X463.258 Y-6.655
X462.054 Y-6.664
X460.85 Y-6.672
X459.646 Y-6.679
X458.442 Y-6.684
X457.238 Y-6.722
X456.034 Y-6.753
X454.83 Y-6.779
X453.626 Y-6.799
X452.422 Y-6.816
X451.218 Y-6.83
X450.014 Y-6.841
X448.81 Y-6.851
X447.606 Y-6.858
X446.402 Y-6.864
X445.198 Y-6.869
X443.993 Y-6.873
X442.789 Y-6.876
X440.381 Y-6.881
X437.973 Y-6.884
X434.36 Y-6.887
X429.543 Y-6.889
X419.91 Y-6.89
X409.073
X358.498
X307.923
X257.348
X206.773
X156.199
X105.624
X55.049
X11.699
X10.496 Y-6.84
X9.3 Y-6.697
X8.12 Y-6.458
X6.964 Y-6.121
X5.839 Y-5.691
X4.753 Y-5.171
X3.711 Y-4.568
X2.719 Y-3.885
X1.78 Y-3.131
X0.897 Y-2.312
X0.073 Y-1.435
X-0.694 Y-0.507
X-1.41 Y0.462
X-2.081 Y1.462
X-2.72 Y2.482
X-3.339 Y3.515
X-3.955 Y4.55
X-4.587 Y5.575
X-5.182 Y6.621
X-5.444 Y7.154
X-5.674 Y7.551
X-5.958 Y7.913
X-6.289 Y8.231
X-6.661 Y8.501
X-7.067 Y8.716
X-7.498 Y8.873
X-7.948 Y8.968
X-8.406 Y9
G3 X-9.242 Y8.803 I0.077 J-2.199
G1 X-9.407 Y8.728 Z-6.242
X-9.571 Y8.653 Z-6.22
X-9.733 Y8.579 Z-6.183
X-9.892 Y8.507 Z-6.131
X-10.046 Y8.437 Z-6.065
X-10.194 Y8.369 Z-5.985
X-10.337 Y8.304 Z-5.892
X-10.471 Y8.243 Z-5.786
X-10.597 Y8.185 Z-5.669
X-10.714 Y8.132 Z-5.54
X-10.821 Y8.083 Z-5.401
X-10.918 Y8.039 Z-5.253
X-11.002 Y8.001 Z-5.097
X-11.075 Y7.968 Z-4.934
X-11.135 Y7.94 Z-4.764
X-11.182 Y7.919 Z-4.59
X-11.216 Y7.903 Z-4.412
X-11.237 Y7.894 Z-4.232
X-11.244 Y7.891 Z-4.05
G0 Z5
X506.563 Y7.632
Z-1.85
G1 Z-4.05 F850
X506.557 Y7.636 Z-4.232
X506.538 Y7.648 Z-4.412
X506.506 Y7.667 Z-4.59
X506.461 Y7.693 Z-4.764
X506.404 Y7.727 Z-4.934
X506.336 Y7.768 Z-5.097
X506.256 Y7.815 Z-5.253
X506.165 Y7.869 Z-5.401
X506.064 Y7.929 Z-5.54
X505.953 Y7.995 Z-5.669
X505.834 Y8.066 Z-5.786
X505.707 Y8.142 Z-5.892
X505.572 Y8.221 Z-5.985
X505.432 Y8.305 Z-6.065
X505.286 Y8.391 Z-6.131
X505.137 Y8.481 Z-6.183
X504.984 Y8.571 Z-6.22
X504.829 Y8.664 Z-6.242
X504.672 Y8.757 Z-6.25
G3 X503.844 Y9 I-0.89 J-1.496
G1 X503.358
X503.339 Y8.999
X502.547 Y8.092
X501.767 Y7.175
X500.968 Y6.274
X500.14 Y5.4
X499.277 Y4.56
X498.38 Y3.757
X497.448 Y2.994
X496.483 Y2.274
X495.486 Y1.599
X494.46 Y0.968
X493.409 Y0.381
X492.333 Y-0.161
X491.237 Y-0.66
X490.123 Y-1.116
X488.993 Y-1.532
X487.849 Y-1.909
X486.694 Y-2.25
X485.53 Y-2.555
X484.357 Y-2.829
X483.178 Y-3.072
X481.993 Y-3.288
X480.804 Y-3.479
X479.612 Y-3.647
X478.417 Y-3.794
X477.219 Y-3.923
X476.02 Y-4.035
X474.82 Y-4.132
X473.619 Y-4.216
X472.417 Y-4.289
X471.214 Y-4.352
X470.011 Y-4.405
X468.808 Y-4.451
X467.605 Y-4.491
X466.401 Y-4.524
X465.197 Y-4.553
X462.789 Y-4.602
X460.382 Y-4.655
X459.178 Y-4.681
X457.974 Y-4.706
X456.77 Y-4.728
X455.566 Y-4.749
X454.362 Y-4.768
X453.158 Y-4.784
X451.954 Y-4.799
X450.75 Y-4.812
X449.546 Y-4.823
X448.341 Y-4.833
X447.137 Y-4.842
X445.933 Y-4.849
X444.729 Y-4.855
X443.525 Y-4.861
X442.321 Y-4.865
X441.117 Y-4.869
X439.912 Y-4.872
X437.504 Y-4.878
X435.096 Y-4.881
X431.483 Y-4.885
X426.667 Y-4.888
X419.442 Y-4.889
X406.196 Y-4.89
X355.621
X305.046
X254.471
X203.897
X153.322
X102.747
X52.172
X17.251
X16.047 Y-4.877
X14.845 Y-4.817
X13.647 Y-4.69
X12.46 Y-4.488
X11.29 Y-4.206
X10.141 Y-3.843
X9.021 Y-3.402
X7.932 Y-2.887
X6.88 Y-2.302
X5.864 Y-1.655
X4.887 Y-0.951
X3.948 Y-0.198
X3.045 Y0.598
X2.176 Y1.432
X1.344 Y2.303
X0.545 Y3.204
X-0.231 Y4.125
X-0.999 Y5.052
X-1.773 Y5.975
X-2.573 Y6.875
X-3.359 Y7.787
X-3.694 Y8.14
X-4.078 Y8.441
X-4.501 Y8.681
X-4.955 Y8.857
X-5.43 Y8.964
X-5.916 Y9
G3 X-6.751 Y8.803 I0.077 J-2.199
G1 X-6.917 Y8.728 Z-6.242
X-7.081 Y8.653 Z-6.22
X-7.243 Y8.579 Z-6.183
X-7.401 Y8.507 Z-6.131
X-7.555 Y8.437 Z-6.065
X-7.704 Y8.369 Z-5.985
X-7.846 Y8.304 Z-5.892
X-7.981 Y8.243 Z-5.786
X-8.107 Y8.185 Z-5.669
X-8.224 Y8.132 Z-5.54
X-8.331 Y8.083 Z-5.401
X-8.427 Y8.039 Z-5.253
X-8.512 Y8.001 Z-5.097
X-8.585 Y7.968 Z-4.934
X-8.645 Y7.94 Z-4.764
X-8.692 Y7.919 Z-4.59
X-8.726 Y7.903 Z-4.412
X-8.746 Y7.894 Z-4.232
X-8.753 Y7.891 Z-4.05
G0 Z5
X506.078 Y7.632
Z-1.85
G1 Z-4.05 F850
X506.072 Y7.636 Z-4.232
X506.052 Y7.648 Z-4.412
X506.02 Y7.667 Z-4.59
X505.976 Y7.693 Z-4.764
X505.919 Y7.727 Z-4.934
X505.85 Y7.768 Z-5.097
X505.77 Y7.815 Z-5.253
X505.679 Y7.869 Z-5.401
X505.578 Y7.929 Z-5.54
X505.468 Y7.995 Z-5.669
X505.349 Y8.066 Z-5.786
X505.221 Y8.142 Z-5.892
X505.087 Y8.221 Z-5.985
X504.947 Y8.305 Z-6.065
X504.801 Y8.391 Z-6.131
X504.651 Y8.481 Z-6.183
X504.498 Y8.571 Z-6.22
X504.343 Y8.664 Z-6.242
X504.187 Y8.757 Z-6.25
G3 X503.358 Y9 I-0.89 J-1.496
G1 X502.238
X502.2 Y8.998
X501.22 Y8.3
X500.253 Y7.581
X499.286 Y6.863
X498.31 Y6.158
X497.319 Y5.474
X496.312 Y4.815
X495.286 Y4.184
X494.242 Y3.584
X493.179 Y3.018
X492.099 Y2.485
X491.003 Y1.987
X489.892 Y1.523
X488.767 Y1.093
X487.63 Y0.696
X486.483 Y0.331
X485.326 Y-0.002
X484.16 Y-0.306
X482.988 Y-0.582
X481.81 Y-0.831
X480.627 Y-1.056
X479.44 Y-1.257
X478.249 Y-1.437
X477.056 Y-1.598
X475.86 Y-1.74
X474.663 Y-1.866
X473.464 Y-1.977
X472.263 Y-2.074
X471.062 Y-2.16
X469.86 Y-2.235
X468.658 Y-2.301
X467.455 Y-2.359
X466.252 Y-2.412
X465.049 Y-2.46
X463.846 Y-2.503
X462.642 Y-2.543
X461.439 Y-2.58
X460.235 Y-2.613
X459.031 Y-2.644
X457.827 Y-2.671
X456.623 Y-2.696
X455.419 Y-2.719
X454.215 Y-2.74
X453.011 Y-2.758
X451.807 Y-2.774
X450.603 Y-2.789
X449.399 Y-2.802
X448.195 Y-2.813
X446.991 Y-2.823
X445.787 Y-2.832
X444.583 Y-2.84
X443.379 Y-2.847
X442.174 Y-2.853
X440.97 Y-2.858
X439.766 Y-2.863
X438.562 Y-2.867
X436.154 Y-2.873
X433.745 Y-2.877
X431.337 Y-2.881
X427.724 Y-2.884
X422.908 Y-2.887
X415.683 Y-2.889
X403.641 Y-2.89
X353.066
X302.492
X251.917
X201.342
X150.767
X100.192
X49.618
X23.126
X21.922 Y-2.889
X20.718 Y-2.88
X19.514 Y-2.845
X18.312 Y-2.768
X17.116 Y-2.635
X15.927 Y-2.44
X14.751 Y-2.181
X13.591 Y-1.858
X12.451 Y-1.471
X11.333 Y-1.023
X10.242 Y-0.515
X9.178 Y0.049
X8.143 Y0.665
X7.137 Y1.327
X6.16 Y2.03
X5.208 Y2.768
X4.278 Y3.533
X3.369 Y4.322
X2.477 Y5.132
X1.595 Y5.951
X0.707 Y6.765
X0.118 Y7.278
X-0.813 Y8.041
X-1.041 Y8.231
X-1.413 Y8.501
X-1.818 Y8.716
X-2.25 Y8.873
X-2.7 Y8.968
X-3.158 Y9
G3 X-3.993 Y8.803 I0.077 J-2.199
G1 X-4.159 Y8.728 Z-6.242
X-4.323 Y8.653 Z-6.22
X-4.485 Y8.579 Z-6.183
X-4.643 Y8.507 Z-6.131
X-4.798 Y8.437 Z-6.065
X-4.946 Y8.369 Z-5.985
X-5.088 Y8.304 Z-5.892
X-5.223 Y8.243 Z-5.786
X-5.349 Y8.185 Z-5.669
X-5.466 Y8.132 Z-5.54
X-5.573 Y8.083 Z-5.401
X-5.669 Y8.039 Z-5.253
X-5.754 Y8.001 Z-5.097
X-5.827 Y7.968 Z-4.934
X-5.887 Y7.94 Z-4.764
X-5.934 Y7.919 Z-4.59
X-5.968 Y7.903 Z-4.412
X-5.989 Y7.894 Z-4.232
X-5.995 Y7.891 Z-4.05
G0 Z5
X504.958 Y7.632
Z-1.85
G1 Z-4.05 F850
X504.951 Y7.636 Z-4.232
X504.932 Y7.648 Z-4.412
X504.9 Y7.667 Z-4.59
X504.855 Y7.693 Z-4.764
X504.799 Y7.727 Z-4.934
X504.73 Y7.768 Z-5.097
X504.65 Y7.815 Z-5.253
X504.559 Y7.869 Z-5.401
X504.458 Y7.929 Z-5.54
X504.348 Y7.995 Z-5.669
X504.228 Y8.066 Z-5.786
X504.101 Y8.142 Z-5.892
X503.967 Y8.221 Z-5.985
X503.826 Y8.305 Z-6.065
X503.681 Y8.391 Z-6.131
X503.531 Y8.481 Z-6.183
X503.378 Y8.571 Z-6.22
X503.223 Y8.664 Z-6.242
X503.067 Y8.757 Z-6.25
G3 X502.238 Y9 I-0.89 J-1.496
G1 X500.718
X500.668 Y8.998
X499.737 Y8.581
X498.654 Y8.056
X497.579 Y7.512
X496.506 Y6.965
X495.431 Y6.424
X494.349 Y5.895
X493.258 Y5.384
X492.159 Y4.893
X491.049 Y4.425
X489.93 Y3.981
X488.801 Y3.563
X487.663 Y3.169
X486.516 Y2.802
X485.361 Y2.461
X484.199 Y2.144
X483.031 Y1.852
X481.857 Y1.584
X480.678 Y1.339
X479.495 Y1.116
X478.308 Y0.912
X477.118 Y0.728
X475.925 Y0.563
X474.73 Y0.413
X473.534 Y0.279
X472.336 Y0.159
X471.136 Y0.051
X469.936 Y-0.046
X468.735 Y-0.133
X467.533 Y-0.211
X466.331 Y-0.281
X465.129 Y-0.345
X463.926 Y-0.402
X462.723 Y-0.454
X461.52 Y-0.5
X460.316 Y-0.542
X459.113 Y-0.58
X457.909 Y-0.614
X456.705 Y-0.645
X455.501 Y-0.673
X454.298 Y-0.698
X453.094 Y-0.72
X451.89 Y-0.74
X450.686 Y-0.758
X449.482 Y-0.774
X448.277 Y-0.788
X447.073 Y-0.8
X445.869 Y-0.811
X444.665 Y-0.821
X443.461 Y-0.83
X442.257 Y-0.838
X441.053 Y-0.844
X439.849 Y-0.85
X438.644 Y-0.856
X437.44 Y-0.86
X436.236 Y-0.864
X433.828 Y-0.871
X431.419 Y-0.876
X429.011 Y-0.879
X425.399 Y-0.883
X420.582 Y-0.886
X414.561 Y-0.888
X403.724 Y-0.89
X401.315
X350.741
X300.166
X249.591
X199.016
X148.441
X97.867
X47.292
X28.025
X26.821 Y-0.889
X25.617 Y-0.886
X24.413 Y-0.872
X23.209 Y-0.837
X22.007 Y-0.77
X20.808 Y-0.661
X19.613 Y-0.506
X18.427 Y-0.299
X17.252 Y-0.038
X16.09 Y0.278
X14.943 Y0.647
X13.815 Y1.068
X12.707 Y1.539
X11.62 Y2.056
X10.554 Y2.617
X9.51 Y3.217
X8.486 Y3.851
X7.482 Y4.515
X6.492 Y5.201
X5.513 Y5.902
X4.541 Y6.613
X3.57 Y7.324
X2.785 Y7.873
X2.264 Y8.214
X1.787 Y8.505
X1.679 Y8.567
X1.295 Y8.754
X0.89 Y8.89
X0.471 Y8.972
X0.044 Y9
G3 X-0.791 Y8.803 I0.077 J-2.199
G1 X-0.956 Y8.728 Z-6.242
X-1.121 Y8.653 Z-6.22
X-1.282 Y8.579 Z-6.183
X-1.441 Y8.507 Z-6.131
X-1.595 Y8.437 Z-6.065
X-1.744 Y8.369 Z-5.985
X-1.886 Y8.304 Z-5.892
X-2.021 Y8.243 Z-5.786
X-2.147 Y8.185 Z-5.669
X-2.264 Y8.132 Z-5.54
X-2.371 Y8.083 Z-5.401
X-2.467 Y8.039 Z-5.253
X-2.552 Y8.001 Z-5.097
X-2.624 Y7.968 Z-4.934
X-2.684 Y7.94 Z-4.764
X-2.732 Y7.919 Z-4.59
X-2.766 Y7.903 Z-4.412
X-2.786 Y7.894 Z-4.232
X-2.793 Y7.891 Z-4.05
G0 Z5
X503.438 Y7.632
Z-1.85
G1 Z-4.05 F850
X503.432 Y7.636 Z-4.232
X503.413 Y7.648 Z-4.412
X503.38 Y7.667 Z-4.59
X503.336 Y7.693 Z-4.764
X503.279 Y7.727 Z-4.934
X503.21 Y7.768 Z-5.097
X503.13 Y7.815 Z-5.253
X503.04 Y7.869 Z-5.401
X502.939 Y7.929 Z-5.54
X502.828 Y7.995 Z-5.669
X502.709 Y8.066 Z-5.786
X502.582 Y8.142 Z-5.892
X502.447 Y8.221 Z-5.985
X502.307 Y8.305 Z-6.065
X502.161 Y8.391 Z-6.131
X502.012 Y8.481 Z-6.183
X501.859 Y8.571 Z-6.22
X501.703 Y8.664 Z-6.242
X501.547 Y8.757 Z-6.25
G3 X500.718 Y9 I-0.89 J-1.496
G1 X498.738
X498.664 Y8.996
X498.001 Y8.829
X497.035 Y8.553
X495.888 Y8.187
X494.749 Y7.797
X493.613 Y7.396
X492.478 Y6.993
X491.342 Y6.596
X490.202 Y6.207
X489.059 Y5.83
X487.91 Y5.469
X486.756 Y5.124
X485.597 Y4.797
X484.433 Y4.489
X483.264 Y4.2
X482.091 Y3.93
X480.913 Y3.678
X479.732 Y3.445
X478.547 Y3.23
X477.359 Y3.032
X476.169 Y2.851
X474.976 Y2.684
X473.782 Y2.532
X472.585 Y2.394
X471.388 Y2.268
X470.189 Y2.153
X468.989 Y2.049
X467.789 Y1.955
X466.588 Y1.869
X465.386 Y1.792
X464.184 Y1.722
X462.982 Y1.658
X461.779 Y1.601
X460.576 Y1.549
X459.372 Y1.502
X458.169 Y1.46
X456.966 Y1.422
X455.762 Y1.388
X454.558 Y1.357
X453.354 Y1.33
X452.15 Y1.305
X450.946 Y1.283
X449.742 Y1.263
X448.538 Y1.245
X447.334 Y1.23
X446.13 Y1.216
X444.926 Y1.203
X443.722 Y1.192
X442.518 Y1.182
X441.314 Y1.173
X440.11 Y1.165
X438.905 Y1.158
X437.701 Y1.152
X436.497 Y1.147
X435.293 Y1.142
X434.089 Y1.138
X431.681 Y1.131
X429.272 Y1.126
X426.864 Y1.122
X423.251 Y1.118
X418.435 Y1.114
X412.414 Y1.112
X402.781 Y1.111
X397.964 Y1.11
X347.389
X296.814
X246.24
X195.665
X145.09
X94.515
X43.94
X31.899
X30.694 Y1.111
X29.49 Y1.115
X28.286 Y1.127
X27.082 Y1.153
X25.879 Y1.201
X24.677 Y1.278
X23.479 Y1.39
X22.284 Y1.543
X21.096 Y1.738
X19.916 Y1.979
X18.747 Y2.266
X17.589 Y2.598
X16.446 Y2.975
X15.317 Y3.396
X14.205 Y3.857
X13.108 Y4.354
X12.028 Y4.886
X10.962 Y5.446
X9.909 Y6.031
X8.867 Y6.634
X6.794 Y7.86
X5.938 Y8.347
X5.43 Y8.616
X5.064 Y8.782
X4.681 Y8.903
X4.286 Y8.976
X3.885 Y9
X0.044
G3 X-0.791 Y8.803 I0.077 J-2.199
G1 X-0.956 Y8.728 Z-6.242
X-1.121 Y8.653 Z-6.22
X-1.282 Y8.579 Z-6.183
X-1.441 Y8.507 Z-6.131
X-1.595 Y8.437 Z-6.065
X-1.744 Y8.369 Z-5.985
X-1.886 Y8.304 Z-5.892
X-2.021 Y8.243 Z-5.786
X-2.147 Y8.185 Z-5.669
X-2.264 Y8.132 Z-5.54
X-2.371 Y8.083 Z-5.401
X-2.467 Y8.039 Z-5.253
X-2.552 Y8.001 Z-5.097
X-2.624 Y7.968 Z-4.934
X-2.684 Y7.94 Z-4.764
X-2.732 Y7.919 Z-4.59
X-2.766 Y7.903 Z-4.412
X-2.786 Y7.894 Z-4.232
X-2.793 Y7.891 Z-4.05
G0 Z5
X501.458 Y7.632
Z-1.85
G1 Z-4.05 F850
X501.452 Y7.636 Z-4.232
X501.433 Y7.648 Z-4.412
X501.401 Y7.667 Z-4.59
X501.356 Y7.693 Z-4.764
X501.299 Y7.727 Z-4.934
X501.23 Y7.768 Z-5.097
X501.15 Y7.815 Z-5.253
X501.06 Y7.869 Z-5.401
X500.959 Y7.929 Z-5.54
X500.848 Y7.995 Z-5.669
X500.729 Y8.066 Z-5.786
X500.602 Y8.142 Z-5.892
X500.467 Y8.221 Z-5.985
X500.327 Y8.305 Z-6.065
X500.181 Y8.391 Z-6.131
X500.032 Y8.481 Z-6.183
X499.879 Y8.571 Z-6.22
X499.724 Y8.664 Z-6.242
X499.567 Y8.757 Z-6.25
G3 X498.738 Y9 I-0.89 J-1.496
G1 X496.099
X496.024 Y8.996
X495.522 Y8.952
X494.889 Y8.877
X494.051 Y8.751
X492.866 Y8.536
X491.688 Y8.286
X490.515 Y8.015
X489.344 Y7.735
X488.174 Y7.451
X487.003 Y7.169
X485.831 Y6.891
X484.658 Y6.622
X483.482 Y6.362
X482.303 Y6.114
X481.123 Y5.879
X479.939 Y5.656
X478.753 Y5.446
X477.565 Y5.249
X476.375 Y5.066
X475.183 Y4.895
X473.99 Y4.736
X472.794 Y4.59
X471.598 Y4.454
X470.4 Y4.33
X469.202 Y4.215
X468.002 Y4.11
X466.802 Y4.014
X465.601 Y3.926
X464.399 Y3.846
X463.197 Y3.773
X461.995 Y3.707
X460.792 Y3.646
X459.589 Y3.591
X458.386 Y3.542
X457.183 Y3.497
X455.979 Y3.456
X454.776 Y3.419
X453.572 Y3.386
X452.368 Y3.356
X451.164 Y3.33
X449.961 Y3.305
X448.757 Y3.284
X447.553 Y3.264
X446.349 Y3.247
X445.145 Y3.231
X443.94 Y3.217
X442.736 Y3.205
X441.532 Y3.194
X440.328 Y3.184
X439.124 Y3.175
X437.92 Y3.168
X436.716 Y3.161
X435.512 Y3.155
X434.307 Y3.149
X433.103 Y3.144
X430.695 Y3.136
X428.287 Y3.13
X425.878 Y3.125
X422.266 Y3.12
X418.653 Y3.117
X413.837 Y3.114
X406.612 Y3.112
X395.774 Y3.11
X345.199
X294.625
X244.05
X193.475
X142.9
X92.325
X41.751
X35.73
X34.526 Y3.112
X33.321 Y3.115
X32.117 Y3.124
X30.913 Y3.143
X29.71 Y3.176
X28.507 Y3.228
X27.305 Y3.307
X26.106 Y3.415
X24.91 Y3.557
X23.719 Y3.735
X22.535 Y3.952
X21.358 Y4.208
X20.191 Y4.504
X19.034 Y4.838
X17.888 Y5.209
X16.754 Y5.614
X15.633 Y6.052
X14.522 Y6.519
X13.423 Y7.009
X12.332 Y7.519
X11.246 Y8.039
X10.159 Y8.558
X9.824 Y8.709
X9.388 Y8.869
X8.933 Y8.967
X8.469 Y9
X3.885
G3 X3.05 Y8.803 I0.077 J-2.199
G1 X2.884 Y8.728 Z-6.242
X2.72 Y8.653 Z-6.22
X2.558 Y8.579 Z-6.183
X2.4 Y8.507 Z-6.131
X2.246 Y8.437 Z-6.065
X2.097 Y8.369 Z-5.985
X1.955 Y8.304 Z-5.892
X1.82 Y8.243 Z-5.786
X1.694 Y8.185 Z-5.669
X1.577 Y8.132 Z-5.54
X1.47 Y8.083 Z-5.401
X1.374 Y8.039 Z-5.253
X1.289 Y8.001 Z-5.097
X1.216 Y7.968 Z-4.934
X1.156 Y7.94 Z-4.764
X1.109 Y7.919 Z-4.59
X1.075 Y7.903 Z-4.412
X1.055 Y7.894 Z-4.232
X1.048 Y7.891 Z-4.05
G0 Z5
X498.819 Y7.632
Z-1.85
G1 Z-4.05 F850
X498.812 Y7.636 Z-4.232
X498.793 Y7.648 Z-4.412
X498.761 Y7.667 Z-4.59
X498.716 Y7.693 Z-4.764
X498.659 Y7.727 Z-4.934
X498.591 Y7.768 Z-5.097
X498.511 Y7.815 Z-5.253
X498.42 Y7.869 Z-5.401
X498.319 Y7.929 Z-5.54
X498.208 Y7.995 Z-5.669
X498.089 Y8.066 Z-5.786
X497.962 Y8.142 Z-5.892
X497.828 Y8.221 Z-5.985
X497.687 Y8.305 Z-6.065
X497.542 Y8.391 Z-6.131
X497.392 Y8.481 Z-6.183
X497.239 Y8.571 Z-6.22
X497.084 Y8.664 Z-6.242
X496.928 Y8.757 Z-6.25
G3 X496.099 Y9 I-0.89 J-1.496
G1 X491.019
X489.816 Y8.94
X489.215 Y8.901
X488.015 Y8.799
X486.819 Y8.662
X485.625 Y8.502
X484.434 Y8.328
X483.243 Y8.148
X482.053 Y7.964
X480.863 Y7.782
X479.672 Y7.602
X478.481 Y7.427
X477.289 Y7.258
X476.095 Y7.097
X474.901 Y6.943
X473.706 Y6.797
X472.509 Y6.66
X471.312 Y6.531
X470.114 Y6.41
X468.915 Y6.298
X467.716 Y6.193
X466.515 Y6.096
X465.314 Y6.006
X464.113 Y5.924
X462.911 Y5.848
X461.709 Y5.778
X460.507 Y5.714
X459.304 Y5.655
X458.101 Y5.602
X456.898 Y5.553
X455.695 Y5.508
X454.491 Y5.468
X453.287 Y5.431
X452.084 Y5.398
X450.88 Y5.368
X449.676 Y5.341
X448.472 Y5.316
X447.268 Y5.294
X446.064 Y5.274
X444.86 Y5.256
X443.656 Y5.24
X442.452 Y5.226
X441.248 Y5.213
X440.044 Y5.201
X438.84 Y5.191
X437.636 Y5.182
X436.432 Y5.173
X435.227 Y5.166
X434.023 Y5.16
X432.819 Y5.154
X431.615 Y5.149
X430.411 Y5.144
X428.002 Y5.136
X425.594 Y5.13
X423.186 Y5.126
X419.573 Y5.12
X415.961 Y5.117
X411.144 Y5.114
X403.919 Y5.112
X391.878 Y5.11
X389.469
X338.895
X288.32
X237.745
X187.17
X136.595
X86.02
X40.262
X39.058 Y5.111
X37.854 Y5.113
X36.65 Y5.117
X35.446 Y5.125
X34.242 Y5.141
X33.038 Y5.167
X31.834 Y5.209
X30.632 Y5.271
X29.43 Y5.355
X28.231 Y5.466
X27.035 Y5.606
X25.844 Y5.779
X24.657 Y5.984
X23.477 Y6.223
X22.304 Y6.495
X21.139 Y6.801
X19.983 Y7.137
X18.835 Y7.502
X17.696 Y7.893
X16.565 Y8.305
X15.438 Y8.73
X15.271 Y8.792
X14.896 Y8.907
X14.509 Y8.977
X14.118 Y9
X8.469
G3 X7.633 Y8.803 I0.077 J-2.199
G1 X7.468 Y8.728 Z-6.242
X7.303 Y8.653 Z-6.22
X7.142 Y8.579 Z-6.183
X6.983 Y8.507 Z-6.131
X6.829 Y8.437 Z-6.065
X6.68 Y8.369 Z-5.985
X6.538 Y8.304 Z-5.892
X6.403 Y8.243 Z-5.786
X6.277 Y8.185 Z-5.669
X6.16 Y8.132 Z-5.54
X6.053 Y8.083 Z-5.401
X5.957 Y8.039 Z-5.253
X5.872 Y8.001 Z-5.097
X5.8 Y7.968 Z-4.934
X5.74 Y7.94 Z-4.764
X5.692 Y7.919 Z-4.59
X5.658 Y7.903 Z-4.412
X5.638 Y7.894 Z-4.232
X5.631 Y7.891 Z-4.05
G0 Z5
X493.738 Y7.632
Z-1.85
G1 Z-4.05 F850
X493.732 Y7.636 Z-4.232
X493.713 Y7.648 Z-4.412
X493.681 Y7.667 Z-4.59
X493.636 Y7.693 Z-4.764
X493.579 Y7.727 Z-4.934
X493.511 Y7.768 Z-5.097
X493.431 Y7.815 Z-5.253
X493.34 Y7.869 Z-5.401
X493.239 Y7.929 Z-5.54
X493.128 Y7.995 Z-5.669
X493.009 Y8.066 Z-5.786
X492.882 Y8.142 Z-5.892
X492.747 Y8.221 Z-5.985
X492.607 Y8.305 Z-6.065
X492.461 Y8.391 Z-6.131
X492.312 Y8.481 Z-6.183
X492.159 Y8.571 Z-6.22
X492.004 Y8.664 Z-6.242
X491.847 Y8.757 Z-6.25
G3 X491.019 Y9 I-0.89 J-1.496
G1 X480.459
X479.256 Y8.94
X478.053 Y8.905
X476.85 Y8.848
X475.648 Y8.776
X474.447 Y8.695
X473.246 Y8.608
X472.045 Y8.518
X470.844 Y8.428
X469.643 Y8.338
X468.442 Y8.251
X467.241 Y8.166
X466.039 Y8.085
X464.838 Y8.008
X463.636 Y7.935
X462.434 Y7.866
X461.231 Y7.801
X460.029 Y7.741
X458.826 Y7.685
X457.623 Y7.633
X456.419 Y7.585
X455.216 Y7.54
X454.013 Y7.5
X452.809 Y7.462
X451.605 Y7.428
X450.402 Y7.397
X449.198 Y7.368
X447.994 Y7.342
X446.79 Y7.318
X445.586 Y7.297
X444.382 Y7.278
X443.178 Y7.26
X441.974 Y7.244
X440.77 Y7.23
X439.566 Y7.217
X438.362 Y7.205
X437.158 Y7.195
X435.953 Y7.185
X434.749 Y7.177
X433.545 Y7.17
X432.341 Y7.163
X431.137 Y7.157
X429.933 Y7.151
X428.729 Y7.147
X426.32 Y7.139
X423.912 Y7.132
X421.504 Y7.127
X417.891 Y7.122
X414.279 Y7.118
X409.462 Y7.115
X403.441 Y7.112
X393.808 Y7.111
X379.358 Y7.11
X328.783
X278.208
X227.634
X177.059
X126.484
X75.909
X44.601
X43.397
X42.193 Y7.111
X40.988 Y7.113
X39.784 Y7.118
X38.58 Y7.126
X37.376 Y7.14
X36.172 Y7.162
X34.968 Y7.197
X33.765 Y7.246
X32.563 Y7.314
X31.362 Y7.403
X30.163 Y7.515
X28.967 Y7.654
X27.774 Y7.82
X26.586 Y8.015
X25.403 Y8.238
X24.225 Y8.489
X23.054 Y8.768
X22.568 Y8.894
X22.295 Y8.953
X22.018 Y8.988
X21.738 Y9
X14.118
G3 X13.282 Y8.803 I0.077 J-2.199
G1 X13.117 Y8.728 Z-6.242
X12.953 Y8.653 Z-6.22
X12.791 Y8.579 Z-6.183
X12.632 Y8.507 Z-6.131
X12.478 Y8.437 Z-6.065
X12.329 Y8.369 Z-5.985
X12.187 Y8.304 Z-5.892
X12.053 Y8.243 Z-5.786
X11.926 Y8.185 Z-5.669
X11.809 Y8.132 Z-5.54
X11.702 Y8.083 Z-5.401
X11.606 Y8.039 Z-5.253
X11.521 Y8.001 Z-5.097
X11.449 Y7.968 Z-4.934
X11.389 Y7.94 Z-4.764
X11.341 Y7.919 Z-4.59
X11.307 Y7.903 Z-4.412
X11.287 Y7.894 Z-4.232
X11.28 Y7.891 Z-4.05
G0 Z5
X483.179 Y7.632
Z-1.85
G1 Z-4.05 F850
X483.173 Y7.636 Z-4.232
X483.153 Y7.648 Z-4.412
X483.121 Y7.667 Z-4.59
X483.077 Y7.693 Z-4.764
X483.02 Y7.727 Z-4.934
X482.951 Y7.768 Z-5.097
X482.871 Y7.815 Z-5.253
X482.78 Y7.869 Z-5.401
X482.679 Y7.929 Z-5.54
X482.569 Y7.995 Z-5.669
X482.449 Y8.066 Z-5.786
X482.322 Y8.142 Z-5.892
X482.188 Y8.221 Z-5.985
X482.048 Y8.305 Z-6.065
X481.902 Y8.391 Z-6.131
X481.752 Y8.481 Z-6.183
X481.599 Y8.571 Z-6.22
X481.444 Y8.664 Z-6.242
X481.288 Y8.757 Z-6.25
G3 X480.459 Y9 I-0.89 J-1.496
G1 X21.738
X21.63 Y8.986 Z-6.243
X21.524 Y8.972 Z-6.222
X21.421 Y8.958 Z-6.188
X21.323 Y8.946 Z-6.142
X21.243 Y8.919 Z-6.087
X21.168 Y8.894 Z-6.024
X21.101 Y8.872 Z-5.951
X21.043 Y8.853 Z-5.871
X20.994 Y8.836 Z-5.784
X20.955 Y8.823 Z-5.692
X20.926 Y8.814 Z-5.596
X20.909 Y8.806 Z-5.492
X20.903 Y8.803 Z-5.386
G0 Z5
X-25.062 Y402.158
Z-1.85
G1 Z-4.05 F850
X-25.055 Y402.156 Z-4.232
X-25.033 Y402.151 Z-4.412
X-24.997 Y402.142 Z-4.59
X-24.947 Y402.129 Z-4.764
X-24.883 Y402.112 Z-4.934
X-24.806 Y402.093 Z-5.097
X-24.715 Y402.069 Z-5.253
X-24.613 Y402.043 Z-5.401
X-24.499 Y402.014 Z-5.54
X-24.375 Y401.982 Z-5.669
X-24.24 Y401.948 Z-5.786
X-24.097 Y401.911 Z-5.892
X-23.946 Y401.872 Z-5.985
X-23.787 Y401.832 Z-6.065
X-23.623 Y401.79 Z-6.131
X-23.454 Y401.746 Z-6.183
X-23.282 Y401.702 Z-6.22
X-23.107 Y401.657 Z-6.242
X-22.931 Y401.612 Z-6.25
G3 X-10.954 Y399.89 I13.937 J54.409
G1 X-10.879
X-10.187 Y400.875
X-9.409 Y401.794
X-8.557 Y402.645
X-7.64 Y403.425
X-6.667 Y404.136
X-5.648 Y404.777
X-4.59 Y405.352
X-3.5 Y405.864
X-2.384 Y406.315
X-1.246 Y406.71
X-0.092 Y407.054
X1.075 Y407.351
X2.252 Y407.605
X3.436 Y407.822
X4.626 Y408.005
X5.821 Y408.16
X7.018 Y408.289
X8.217 Y408.396
X9.418 Y408.486
X10.62 Y408.559
X11.823 Y408.62
X13.026 Y408.67
X14.229 Y408.711
X15.433 Y408.744
X16.637 Y408.772
X17.841 Y408.794
X19.045 Y408.812
X20.249 Y408.827
X21.453 Y408.839
X22.657 Y408.848
X23.861 Y408.856
X25.065 Y408.863
X26.269 Y408.868
X27.474 Y408.872
X28.678 Y408.875
X29.882 Y408.878
X32.29 Y408.882
X34.699 Y408.885
X37.107 Y408.887
X41.924 Y408.889
X51.557 Y408.89
X87.682
X138.257
X188.831
X239.406
X289.981
X340.556
X391.131
X441.705
X487.464
X488.662 Y408.774
X489.838 Y408.513
X490.976 Y408.121
X492.067 Y407.611
X493.101 Y406.994
X494.073 Y406.283
X494.978 Y405.489
X495.814 Y404.622
X496.58 Y403.693
X497.276 Y402.71
X497.903 Y401.682
X498.465 Y400.617
X498.963 Y399.521
X499.402 Y398.4
X499.786 Y397.259
X500.12 Y396.101
X500.407 Y394.932
X500.653 Y393.753
X500.863 Y392.568
X501.04 Y391.376
X501.189 Y390.182
X501.313 Y388.984
X501.416 Y387.784
X501.502 Y386.583
X501.573 Y385.381
X501.631 Y384.178
X501.679 Y382.975
X501.719 Y381.771
X501.751 Y380.568
X501.777 Y379.364
X501.798 Y378.16
X501.815 Y376.956
X501.829 Y375.752
X501.841 Y374.548
X501.85 Y373.344
X501.858 Y372.139
X501.864 Y370.935
X501.869 Y369.731
X501.873 Y368.527
X501.876 Y367.323
X501.879 Y366.119
X501.883 Y363.71
X501.885 Y361.302
X501.886 Y360.098
X501.887 Y358.33
X501.923 Y357.925
X502.028 Y357.533
X502.2 Y357.165
X502.433 Y356.832
X502.72 Y356.545
X503.053 Y356.312
X503.421 Y356.14
X503.813 Y356.035
X504.218 Y356
G3 X505.053 Y356.197 I-0.077 J2.199
G1 X505.219 Y356.272 Z-6.242
X505.383 Y356.347 Z-6.22
X505.545 Y356.421 Z-6.183
X505.703 Y356.493 Z-6.131
X505.858 Y356.563 Z-6.065
X506.006 Y356.631 Z-5.985
X506.148 Y356.696 Z-5.892
X506.283 Y356.757 Z-5.786
X506.409 Y356.815 Z-5.669
X506.526 Y356.868 Z-5.54
X506.633 Y356.917 Z-5.401
X506.729 Y356.961 Z-5.253
X506.814 Y356.999 Z-5.097
X506.887 Y357.032 Z-4.934
X506.947 Y357.06 Z-4.764
X506.994 Y357.081 Z-4.59
X507.028 Y357.097 Z-4.412
X507.048 Y357.106 Z-4.232
X507.055 Y357.109 Z-4.05
G0 Z5
X-25.012 Y358.268
Z-1.85
G1 Z-4.05 F850
X-25.005 Y358.266 Z-4.232
X-24.983 Y358.261 Z-4.412
X-24.947 Y358.252 Z-4.59
X-24.897 Y358.239 Z-4.764
X-24.833 Y358.222 Z-4.934
X-24.756 Y358.203 Z-5.097
X-24.665 Y358.179 Z-5.253
X-24.563 Y358.153 Z-5.401
X-24.449 Y358.124 Z-5.54
X-24.325 Y358.092 Z-5.669
X-24.19 Y358.058 Z-5.786
X-24.047 Y358.021 Z-5.892
X-23.896 Y357.982 Z-5.985
X-23.737 Y357.942 Z-6.065
X-23.573 Y357.9 Z-6.131
X-23.404 Y357.856 Z-6.183
X-23.232 Y357.812 Z-6.22
X-23.057 Y357.767 Z-6.242
X-22.881 Y357.722 Z-6.25
G3 X-10.905 Y356 I13.937 J54.409
G1 X-10.842
X-10.823 Y356.001
X-10.785 Y356.066
X-10.749 Y356.131
X-10.714 Y356.198
X-10.681 Y356.265
X-10.648 Y356.333
X-10.617 Y356.401
X-10.587 Y356.469
X-10.557 Y356.538
X-10.528 Y356.608
X-10.5 Y356.677
X-10.473 Y356.747
X-10.446 Y356.817
X-10.42 Y356.887
X-10.395 Y356.958
X-10.37 Y357.029
X-10.345 Y357.1
X-10.321 Y357.171
X-10.275 Y357.313
X-10.23 Y357.457
X-10.188 Y357.6
X-10.146 Y357.745
X-10.107 Y357.889
X-10.068 Y358.034
X-10.031 Y358.18
X-9.996 Y358.325
X-9.961 Y358.471
X-9.928 Y358.617
X-9.895 Y358.764
X-9.864 Y358.911
X-9.819 Y359.131
X-9.776 Y359.352
X-9.735 Y359.573
X-9.694 Y359.805
X-9.652 Y360.052
X-9.61 Y360.317
X-9.581 Y360.504
X-9.552 Y360.701
X-9.523 Y360.907
X-9.493 Y361.124
X-9.464 Y361.352
X-9.433 Y361.594
X-9.403 Y361.848
X-9.372 Y362.119
X-9.341 Y362.405
X-9.31 Y362.711
X-9.279 Y363.036
X-9.247 Y363.385
X-9.231 Y363.569
X-9.215 Y363.76
X-9.199 Y363.959
X-9.182 Y364.165
X-9.166 Y364.38
X-9.15 Y364.603
X-9.133 Y364.837
X-9.117 Y365.081
X-9.1 Y365.337
X-9.083 Y365.606
X-9.067 Y365.888
X-9.05 Y366.185
X-9.033 Y366.499
X-9.016 Y366.832
X-8.999 Y367.185
X-8.982 Y367.561
X-8.965 Y367.963
X-8.948 Y368.394
X-8.93 Y368.86
X-8.913 Y369.365
X-8.896 Y369.917
X-8.878 Y370.524
X-8.861 Y371.199
X-8.843 Y371.956
X-8.825 Y372.819
X-8.807 Y373.819
X-8.79 Y375.009
X-8.775 Y376.214
X-8.763 Y377.418
X-8.753 Y378.622
X-8.745 Y379.826
X-8.739 Y381.03
X-8.733 Y382.234
X-8.729 Y383.438
X-8.726 Y384.643
X-8.723 Y385.847
X-8.719 Y388.255
X-8.717 Y389.459
X-8.654 Y390.662
X-8.473 Y391.852
X-8.18 Y393.02
X-7.781 Y394.156
X-7.282 Y395.252
X-6.691 Y396.301
X-6.015 Y397.298
X-5.263 Y398.238
X-4.442 Y399.119
X-3.561 Y399.94
X-2.626 Y400.698
X-1.644 Y401.396
X-0.622 Y402.033
X0.434 Y402.611
X1.52 Y403.133
X2.616 Y403.632
X3.734 Y404.077
X4.872 Y404.471
X6.025 Y404.819
X7.19 Y405.123
X8.365 Y405.389
X9.547 Y405.618
X10.734 Y405.817
X11.927 Y405.986
X13.122 Y406.132
X14.32 Y406.255
X15.519 Y406.359
X16.72 Y406.448
X17.922 Y406.522
X19.125 Y406.584
X20.328 Y406.636
X21.531 Y406.68
X22.735 Y406.716
X23.939 Y406.746
X25.142 Y406.771
X26.346 Y406.792
X27.55 Y406.809
X28.755 Y406.823
X29.959 Y406.835
X31.163 Y406.845
X32.367 Y406.853
X33.571 Y406.859
X34.775 Y406.865
X35.979 Y406.869
X37.183 Y406.873
X38.388 Y406.876
X40.796 Y406.88
X43.204 Y406.884
X46.817 Y406.886
X50.429 Y406.888
X58.858 Y406.89
X92.575
X101.004
X151.579
X202.154
X252.729
X303.303
X353.878
X404.453
X455.028
X481.519
X482.722 Y406.824
X483.915 Y406.663
X485.091 Y406.406
X486.242 Y406.052
X487.361 Y405.605
X488.439 Y405.07
X489.473 Y404.452
X490.455 Y403.756
X491.384 Y402.99
X492.256 Y402.159
X493.07 Y401.272
X493.825 Y400.333
X494.52 Y399.35
X495.156 Y398.328
X495.736 Y397.272
X496.26 Y396.188
X496.731 Y395.08
X497.153 Y393.952
X497.528 Y392.808
X497.859 Y391.65
X498.15 Y390.482
X498.405 Y389.305
X498.627 Y388.121
X498.819 Y386.933
X498.984 Y385.74
X499.126 Y384.544
X499.247 Y383.346
X499.351 Y382.146
X499.438 Y380.945
X499.512 Y379.743
X499.575 Y378.541
X499.627 Y377.338
X499.671 Y376.134
X499.708 Y374.931
X499.739 Y373.727
X499.765 Y372.523
X499.786 Y371.319
X499.804 Y370.115
X499.819 Y368.911
X499.831 Y367.707
X499.841 Y366.503
X499.85 Y365.299
X499.857 Y364.095
X499.866 Y362.891
X499.889 Y362.021
X499.927 Y361.375
X499.971 Y360.869
X500.019 Y360.471
X500.076 Y360.091
X500.138 Y359.754
X500.392 Y358.568
X500.529 Y358.098
X500.735 Y357.654
X501.006 Y357.246
X501.335 Y356.884
X501.716 Y356.576
X502.138 Y356.328
X502.593 Y356.147
X503.07 Y356.037
X503.558 Y356
G3 X504.393 Y356.197 I-0.077 J2.199
G1 X504.559 Y356.272 Z-6.242
X504.723 Y356.347 Z-6.22
X504.885 Y356.421 Z-6.183
X505.043 Y356.493 Z-6.131
X505.198 Y356.563 Z-6.065
X505.346 Y356.631 Z-5.985
X505.488 Y356.696 Z-5.892
X505.623 Y356.757 Z-5.786
X505.749 Y356.815 Z-5.669
X505.866 Y356.868 Z-5.54
X505.973 Y356.917 Z-5.401
X506.069 Y356.961 Z-5.253
X506.154 Y356.999 Z-5.097
X506.227 Y357.032 Z-4.934
X506.287 Y357.06 Z-4.764
X506.334 Y357.081 Z-4.59
X506.368 Y357.097 Z-4.412
X506.389 Y357.106 Z-4.232
X506.395 Y357.109 Z-4.05
G0 Z5
X-13.561 Y357.368
Z-1.85
G1 Z-4.05 F850
X-13.555 Y357.364 Z-4.232
X-13.536 Y357.352 Z-4.412
X-13.504 Y357.333 Z-4.59
X-13.459 Y357.307 Z-4.764
X-13.402 Y357.273 Z-4.934
X-13.334 Y357.232 Z-5.097
X-13.254 Y357.185 Z-5.253
X-13.163 Y357.131 Z-5.401
X-13.062 Y357.071 Z-5.54
X-12.951 Y357.005 Z-5.669
X-12.832 Y356.934 Z-5.786
X-12.705 Y356.858 Z-5.892
X-12.57 Y356.779 Z-5.985
X-12.43 Y356.695 Z-6.065
X-12.284 Y356.609 Z-6.131
X-12.135 Y356.519 Z-6.183
X-11.982 Y356.429 Z-6.22
X-11.827 Y356.336 Z-6.242
X-11.67 Y356.243 Z-6.25
G3 X-10.842 Y356 I0.89 J1.496
G1 X-10.446
X-10.427 Y356.001
X-10.378 Y356.057
X-10.329 Y356.114
X-10.282 Y356.172
X-10.235 Y356.231
X-10.189 Y356.29
X-10.144 Y356.35
X-10.099 Y356.411
X-10.056 Y356.472
X-10.013 Y356.533
X-9.971 Y356.595
X-9.929 Y356.658
X-9.889 Y356.721
X-9.848 Y356.784
X-9.809 Y356.848
X-9.77 Y356.912
X-9.732 Y356.977
X-9.694 Y357.041
X-9.657 Y357.107
X-9.621 Y357.172
X-9.585 Y357.238
X-9.549 Y357.304
X-9.514 Y357.37
X-9.48 Y357.437
X-9.446 Y357.504
X-9.412 Y357.571
X-9.379 Y357.638
X-9.347 Y357.706
X-9.283 Y357.842
X-9.221 Y357.978
X-9.161 Y358.116
X-9.102 Y358.254
X-9.045 Y358.392
X-8.989 Y358.532
X-8.935 Y358.671
X-8.882 Y358.812
X-8.831 Y358.953
X-8.781 Y359.094
X-8.732 Y359.236
X-8.684 Y359.378
X-8.637 Y359.521
X-8.592 Y359.664
X-8.547 Y359.807
X-8.504 Y359.951
X-8.462 Y360.094
X-8.421 Y360.239
X-8.36 Y360.455
X-8.302 Y360.673
X-8.246 Y360.891
X-8.192 Y361.109
X-8.139 Y361.331
X-8.086 Y361.564
X-8.032 Y361.808
X-7.978 Y362.064
X-7.941 Y362.241
X-7.904 Y362.425
X-7.867 Y362.615
X-7.83 Y362.812
X-7.793 Y363.017
X-7.756 Y363.228
X-7.718 Y363.45
X-7.68 Y363.678
X-7.642 Y363.917
X-7.604 Y364.164
X-7.566 Y364.423
X-7.527 Y364.693
X-7.488 Y364.977
X-7.449 Y365.272
X-7.41 Y365.584
X-7.371 Y365.909
X-7.331 Y366.255
X-7.312 Y366.432
X-7.292 Y366.616
X-7.272 Y366.807
X-7.252 Y367.004
X-7.232 Y367.202
X-7.212 Y367.408
X-7.192 Y367.623
X-7.172 Y367.847
X-7.152 Y368.072
X-7.132 Y368.306
X-7.112 Y368.551
X-7.092 Y368.807
X-7.071 Y369.071
X-7.051 Y369.34
X-7.031 Y369.623
X-7.011 Y369.921
X-6.99 Y370.23
X-6.97 Y370.548
X-6.95 Y370.884
X-6.929 Y371.242
X-6.909 Y371.608
X-6.889 Y371.998
X-6.869 Y372.415
X-6.849 Y372.848
X-6.828 Y373.314
X-6.808 Y373.81
X-6.788 Y374.342
X-6.767 Y374.917
X-6.747 Y375.538
X-6.727 Y376.218
X-6.706 Y376.969
X-6.686 Y377.799
X-6.666 Y378.738
X-6.646 Y379.814
X-6.627 Y381.018
X-6.611 Y382.222
X-6.597 Y383.426
X-6.572 Y384.63
X-6.485 Y385.831
X-6.32 Y387.024
X-6.072 Y388.202
X-5.738 Y389.359
X-5.32 Y390.488
X-4.82 Y391.584
X-4.242 Y392.64
X-3.592 Y393.654
X-2.877 Y394.623
X-2.1 Y395.542
X-1.265 Y396.411
X-0.379 Y397.226
X0.554 Y397.987
X1.529 Y398.694
X2.541 Y399.347
X3.585 Y399.947
X4.657 Y400.496
X5.752 Y400.995
X6.869 Y401.446
X7.991 Y401.884
X9.129 Y402.276
X10.282 Y402.625
X11.446 Y402.933
X12.619 Y403.206
X13.799 Y403.444
X14.985 Y403.653
X16.175 Y403.834
X17.369 Y403.991
X18.566 Y404.126
X19.764 Y404.242
X20.964 Y404.342
X22.166 Y404.427
X23.367 Y404.5
X24.57 Y404.562
X25.773 Y404.614
X26.976 Y404.658
X28.18 Y404.696
X29.384 Y404.727
X30.588 Y404.754
X31.792 Y404.776
X32.996 Y404.795
X34.2 Y404.811
X35.404 Y404.824
X36.608 Y404.835
X37.812 Y404.844
X39.016 Y404.852
X40.22 Y404.858
X41.424 Y404.863
X42.629 Y404.868
X43.833 Y404.872
X45.037 Y404.875
X47.445 Y404.879
X49.854 Y404.883
X53.466 Y404.886
X55.874 Y404.887
X61.895 Y404.889
X75.141 Y404.89
X106.449
X157.024
X207.599
X258.174
X308.748
X359.323
X409.898
X460.473
X474.923
X476.127
X477.331 Y404.865
X478.532 Y404.786
X479.727 Y404.636
X480.91 Y404.409
X482.074 Y404.101
X483.214 Y403.713
X484.323 Y403.244
X485.397 Y402.699
X486.43 Y402.08
X487.418 Y401.392
X488.358 Y400.64
X489.247 Y399.828
X490.084 Y398.962
X490.867 Y398.047
X491.595 Y397.088
X492.27 Y396.09
X492.891 Y395.059
X493.46 Y393.998
X493.979 Y392.911
X494.449 Y391.803
X494.874 Y390.676
X495.255 Y389.533
X495.595 Y388.378
X495.898 Y387.213
X496.166 Y386.039
X496.403 Y384.858
X496.611 Y383.672
X496.792 Y382.482
X496.95 Y381.288
X497.087 Y380.092
X497.206 Y378.893
X497.308 Y377.694
X497.396 Y376.493
X497.471 Y375.291
X497.536 Y374.088
X497.591 Y372.885
X497.637 Y371.682
X497.677 Y370.479
X497.711 Y369.275
X497.74 Y368.071
X497.77 Y366.867
X497.81 Y365.664
X497.869 Y364.461
X497.958 Y363.291
X498.056 Y362.38
X498.151 Y361.7
X498.235 Y361.204
X498.332 Y360.724
X498.422 Y360.338
X498.509 Y360.013
X498.61 Y359.675
X498.707 Y359.383
X498.799 Y359.133
X499.249 Y358.017
X499.439 Y357.591
X499.691 Y357.2
X500 Y356.852
X500.358 Y356.555
X500.758 Y356.316
X501.19 Y356.142
X501.643 Y356.036
X502.107 Y356
G3 X502.943 Y356.197 I-0.077 J2.199
G1 X503.108 Y356.272 Z-6.242
X503.272 Y356.347 Z-6.22
X503.434 Y356.421 Z-6.183
X503.593 Y356.493 Z-6.131
X503.747 Y356.563 Z-6.065
X503.896 Y356.631 Z-5.985
X504.038 Y356.696 Z-5.892
X504.172 Y356.757 Z-5.786
X504.299 Y356.815 Z-5.669
X504.416 Y356.868 Z-5.54
X504.523 Y356.917 Z-5.401
X504.619 Y356.961 Z-5.253
X504.703 Y356.999 Z-5.097
X504.776 Y357.032 Z-4.934
X504.836 Y357.06 Z-4.764
X504.883 Y357.081 Z-4.59
X504.917 Y357.097 Z-4.412
X504.938 Y357.106 Z-4.232
X504.945 Y357.109 Z-4.05
G0 Z5
X-13.166 Y357.368
Z-1.85
G1 Z-4.05 F850
X-13.16 Y357.364 Z-4.232
X-13.14 Y357.352 Z-4.412
X-13.108 Y357.333 Z-4.59
X-13.064 Y357.307 Z-4.764
X-13.007 Y357.273 Z-4.934
X-12.938 Y357.232 Z-5.097
X-12.858 Y357.185 Z-5.253
X-12.767 Y357.131 Z-5.401
X-12.666 Y357.071 Z-5.54
X-12.556 Y357.005 Z-5.669
X-12.436 Y356.934 Z-5.786
X-12.309 Y356.858 Z-5.892
X-12.175 Y356.779 Z-5.985
X-12.035 Y356.695 Z-6.065
X-11.889 Y356.609 Z-6.131
X-11.739 Y356.519 Z-6.183
X-11.586 Y356.429 Z-6.22
X-11.431 Y356.336 Z-6.242
X-11.275 Y356.243 Z-6.25
G3 X-10.446 Y356 I0.89 J1.496
G1 X-9.896
X-9.877 Y356.001
X-9.82 Y356.05
X-9.764 Y356.099
X-9.708 Y356.149
X-9.653 Y356.2
X-9.599 Y356.252
X-9.545 Y356.305
X-9.493 Y356.358
X-9.44 Y356.412
X-9.389 Y356.466
X-9.338 Y356.522
X-9.288 Y356.577
X-9.238 Y356.633
X-9.189 Y356.69
X-9.141 Y356.748
X-9.093 Y356.805
X-9.046 Y356.864
X-8.999 Y356.922
X-8.953 Y356.981
X-8.907 Y357.041
X-8.862 Y357.101
X-8.818 Y357.161
X-8.774 Y357.222
X-8.73 Y357.283
X-8.687 Y357.344
X-8.645 Y357.406
X-8.603 Y357.468
X-8.561 Y357.531
X-8.52 Y357.594
X-8.479 Y357.657
X-8.439 Y357.72
X-8.399 Y357.784
X-8.36 Y357.847
X-8.283 Y357.976
X-8.207 Y358.106
X-8.133 Y358.236
X-8.061 Y358.367
X-7.99 Y358.5
X-7.921 Y358.633
X-7.853 Y358.767
X-7.787 Y358.901
X-7.722 Y359.036
X-7.658 Y359.172
X-7.596 Y359.308
X-7.535 Y359.445
X-7.475 Y359.583
X-7.416 Y359.721
X-7.359 Y359.86
X-7.303 Y359.999
X-7.247 Y360.138
X-7.193 Y360.278
X-7.141 Y360.419
X-7.089 Y360.559
X-7.038 Y360.7
X-6.988 Y360.842
X-6.939 Y360.984
X-6.868 Y361.197
X-6.798 Y361.411
X-6.731 Y361.626
X-6.665 Y361.841
X-6.602 Y362.057
X-6.539 Y362.275
X-6.476 Y362.502
X-6.413 Y362.738
X-6.35 Y362.983
X-6.286 Y363.238
X-6.243 Y363.414
X-6.2 Y363.595
X-6.157 Y363.782
X-6.114 Y363.974
X-6.071 Y364.171
X-6.027 Y364.375
X-5.984 Y364.585
X-5.94 Y364.802
X-5.896 Y365.026
X-5.852 Y365.257
X-5.808 Y365.496
X-5.763 Y365.744
X-5.719 Y366.001
X-5.674 Y366.266
X-5.63 Y366.541
X-5.585 Y366.828
X-5.54 Y367.127
X-5.495 Y367.436
X-5.45 Y367.76
X-5.404 Y368.098
X-5.359 Y368.453
X-5.336 Y368.634
X-5.314 Y368.822
X-5.291 Y369.016
X-5.268 Y369.211
X-5.245 Y369.413
X-5.222 Y369.622
X-5.2 Y369.832
X-5.177 Y370.052
X-5.154 Y370.278
X-5.131 Y370.507
X-5.108 Y370.746
X-5.085 Y370.994
X-5.062 Y371.244
X-5.039 Y371.506
X-5.016 Y371.779
X-4.994 Y372.054
X-4.971 Y372.344
X-4.947 Y372.648
X-4.925 Y372.954
X-4.902 Y373.278
X-4.878 Y373.621
X-4.856 Y373.965
X-4.833 Y374.33
X-4.81 Y374.72
X-4.787 Y375.116
X-4.764 Y375.535
X-4.741 Y375.984
X-4.719 Y376.443
X-4.696 Y376.94
X-4.664 Y377.667
X-4.616 Y378.87
X-4.558 Y380.073
X-4.467 Y381.273
X-4.324 Y382.469
X-4.118 Y383.655
X-3.844 Y384.828
X-3.499 Y385.982
X-3.081 Y387.111
X-2.593 Y388.212
X-2.035 Y389.279
X-1.41 Y390.308
X-0.721 Y391.296
X0.028 Y392.239
X0.832 Y393.135
X1.685 Y393.985
X2.582 Y394.788
X3.521 Y395.542
X4.498 Y396.246
X5.508 Y396.901
X6.549 Y397.508
X7.615 Y398.066
X8.705 Y398.579
X9.815 Y399.046
X10.942 Y399.471
X12.071 Y399.887
X13.216 Y400.262
X14.373 Y400.596
X15.54 Y400.894
X16.714 Y401.158
X17.896 Y401.391
X19.082 Y401.596
X20.273 Y401.775
X21.467 Y401.932
X22.663 Y402.069
X23.862 Y402.187
X25.062 Y402.29
X26.262 Y402.378
X27.464 Y402.454
X28.667 Y402.52
X29.869 Y402.576
X31.073 Y402.623
X32.276 Y402.664
X33.48 Y402.699
X34.684 Y402.728
X35.887 Y402.754
X37.091 Y402.775
X38.295 Y402.793
X39.5 Y402.808
X40.704 Y402.821
X41.908 Y402.832
X43.112 Y402.841
X44.316 Y402.849
X45.52 Y402.856
X46.724 Y402.861
X47.928 Y402.866
X49.133 Y402.87
X50.337 Y402.873
X52.745 Y402.878
X55.153 Y402.882
X58.766 Y402.885
X59.97 Y402.886
X64.787 Y402.888
X73.216 Y402.889
X102.116 Y402.89
X110.545
X161.12
X211.695
X262.269
X312.844
X363.419
X413.994
X464.569
X470.589
X471.794 Y402.886
X472.998 Y402.864
X474.2 Y402.806
X475.399 Y402.696
X476.591 Y402.524
X477.771 Y402.284
X478.934 Y401.973
X480.076 Y401.589
X481.19 Y401.131
X482.272 Y400.603
X483.318 Y400.007
X484.324 Y399.345
X485.286 Y398.62
X486.202 Y397.839
X487.069 Y397.003
X487.886 Y396.119
X488.653 Y395.19
X489.368 Y394.222
X490.033 Y393.218
X490.647 Y392.182
X491.213 Y391.119
X491.731 Y390.032
X492.203 Y388.924
X492.632 Y387.799
X493.02 Y386.659
X493.369 Y385.507
X493.682 Y384.344
X493.962 Y383.173
X494.21 Y381.994
X494.43 Y380.811
X494.625 Y379.622
X494.795 Y378.43
X494.945 Y377.235
X495.076 Y376.038
X495.191 Y374.84
X495.29 Y373.64
X495.377 Y372.439
X495.456 Y371.237
X495.604 Y368.833
X495.683 Y367.632
X495.775 Y366.431
X495.887 Y365.232
X496.013 Y364.175
X496.141 Y363.326
X496.273 Y362.598
X496.444 Y361.8
X496.62 Y361.083
X496.765 Y360.565
X496.9 Y360.131
X497.04 Y359.727
X497.165 Y359.399
X497.285 Y359.11
X497.42 Y358.814
X497.543 Y358.561
X497.969 Y357.757
X498.204 Y357.377
X498.489 Y357.032
X498.817 Y356.729
X499.183 Y356.473
X499.581 Y356.269
X500.002 Y356.12
X500.44 Y356.03
X500.886 Y356
G3 X501.721 Y356.197 I-0.077 J2.199
G1 X501.887 Y356.272 Z-6.242
X502.051 Y356.347 Z-6.22
X502.213 Y356.421 Z-6.183
X502.371 Y356.493 Z-6.131
X502.526 Y356.563 Z-6.065
X502.674 Y356.631 Z-5.985
X502.816 Y356.696 Z-5.892
X502.951 Y356.757 Z-5.786
X503.077 Y356.815 Z-5.669
X503.194 Y356.868 Z-5.54
X503.301 Y356.917 Z-5.401
X503.397 Y356.961 Z-5.253
X503.482 Y356.999 Z-5.097
X503.555 Y357.032 Z-4.934
X503.615 Y357.06 Z-4.764
X503.662 Y357.081 Z-4.59
X503.696 Y357.097 Z-4.412
X503.716 Y357.106 Z-4.232
X503.723 Y357.109 Z-4.05
G0 Z5
X-12.616 Y357.368
Z-1.85
G1 Z-4.05 F850
X-12.609 Y357.364 Z-4.232
X-12.59 Y357.352 Z-4.412
X-12.558 Y357.333 Z-4.59
X-12.513 Y357.307 Z-4.764
X-12.457 Y357.273 Z-4.934
X-12.388 Y357.232 Z-5.097
X-12.308 Y357.185 Z-5.253
X-12.217 Y357.131 Z-5.401
X-12.116 Y357.071 Z-5.54
X-12.006 Y357.005 Z-5.669
X-11.886 Y356.934 Z-5.786
X-11.759 Y356.858 Z-5.892
X-11.625 Y356.779 Z-5.985
X-11.484 Y356.695 Z-6.065
X-11.339 Y356.609 Z-6.131
X-11.189 Y356.519 Z-6.183
X-11.036 Y356.429 Z-6.22
X-10.881 Y356.336 Z-6.242
X-10.725 Y356.243 Z-6.25
G3 X-9.896 Y356 I0.89 J1.496
G1 X-9.236
X-9.198 Y356.002
X-9.136 Y356.044
X-9.075 Y356.087
X-9.014 Y356.131
X-8.954 Y356.175
X-8.894 Y356.221
X-8.835 Y356.267
X-8.777 Y356.314
X-8.719 Y356.362
X-8.661 Y356.41
X-8.605 Y356.459
X-8.548 Y356.509
X-8.493 Y356.559
X-8.438 Y356.61
X-8.383 Y356.662
X-8.329 Y356.714
X-8.276 Y356.766
X-8.223 Y356.819
X-8.17 Y356.873
X-8.118 Y356.927
X-8.067 Y356.982
X-8.016 Y357.037
X-7.966 Y357.092
X-7.916 Y357.148
X-7.866 Y357.204
X-7.817 Y357.261
X-7.768 Y357.318
X-7.72 Y357.376
X-7.673 Y357.434
X-7.626 Y357.492
X-7.579 Y357.551
X-7.532 Y357.61
X-7.487 Y357.669
X-7.441 Y357.729
X-7.396 Y357.789
X-7.352 Y357.849
X-7.307 Y357.91
X-7.22 Y358.032
X-7.135 Y358.155
X-7.051 Y358.279
X-6.968 Y358.404
X-6.887 Y358.531
X-6.808 Y358.658
X-6.73 Y358.786
X-6.653 Y358.915
X-6.578 Y359.045
X-6.504 Y359.175
X-6.431 Y359.306
X-6.36 Y359.438
X-6.29 Y359.571
X-6.221 Y359.704
X-6.153 Y359.838
X-6.087 Y359.973
X-6.021 Y360.108
X-5.957 Y360.243
X-5.894 Y360.379
X-5.832 Y360.516
X-5.771 Y360.653
X-5.712 Y360.791
X-5.653 Y360.929
X-5.595 Y361.067
X-5.538 Y361.206
X-5.482 Y361.345
X-5.427 Y361.485
X-5.347 Y361.695
X-5.268 Y361.906
X-5.192 Y362.117
X-5.117 Y362.329
X-5.044 Y362.542
X-4.973 Y362.756
X-4.903 Y362.974
X-4.832 Y363.2
X-4.761 Y363.433
X-4.69 Y363.675
X-4.618 Y363.926
X-4.57 Y364.098
X-4.522 Y364.274
X-4.473 Y364.454
X-4.425 Y364.64
X-4.376 Y364.83
X-4.328 Y365.025
X-4.279 Y365.225
X-4.23 Y365.431
X-4.181 Y365.642
X-4.132 Y365.86
X-4.082 Y366.083
X-4.033 Y366.314
X-3.983 Y366.551
X-3.934 Y366.795
X-3.884 Y367.047
X-3.834 Y367.307
X-3.784 Y367.575
X-3.734 Y367.853
X-3.684 Y368.139
X-3.634 Y368.437
X-3.584 Y368.744
X-3.534 Y369.064
X-3.483 Y369.396
X-3.433 Y369.742
X-3.408 Y369.919
X-3.382 Y370.102
X-3.357 Y370.286
X-3.332 Y370.476
X-3.307 Y370.669
X-3.281 Y370.867
X-3.256 Y371.07
X-3.231 Y371.276
X-3.205 Y371.49
X-3.179 Y371.713
X-3.154 Y371.936
X-3.128 Y372.17
X-3.101 Y372.414
X-3.074 Y372.67
X-3.044 Y372.966
X-3.012 Y373.29
X-2.978 Y373.633
X-2.865 Y374.832
X-2.754 Y376.031
X-2.627 Y377.229
X-2.47 Y378.422
X-2.269 Y379.61
X-2.016 Y380.787
X-1.704 Y381.95
X-1.33 Y383.095
X-0.892 Y384.216
X-0.392 Y385.312
X0.172 Y386.376
X0.795 Y387.406
X1.477 Y388.398
X2.215 Y389.35
X3.004 Y390.26
X3.843 Y391.124
X4.726 Y391.942
X5.65 Y392.715
X6.608 Y393.444
X7.6 Y394.127
X8.621 Y394.765
X9.669 Y395.358
X10.741 Y395.907
X11.834 Y396.413
X12.945 Y396.876
X14.072 Y397.3
X15.213 Y397.686
X16.355 Y398.067
X17.509 Y398.411
X18.673 Y398.718
X19.846 Y398.992
X21.025 Y399.236
X22.21 Y399.451
X23.399 Y399.642
X24.591 Y399.809
X25.786 Y399.956
X26.984 Y400.084
X28.183 Y400.196
X29.383 Y400.294
X30.584 Y400.378
X31.786 Y400.451
X32.989 Y400.514
X34.192 Y400.569
X35.395 Y400.616
X36.598 Y400.656
X37.802 Y400.691
X39.006 Y400.72
X40.21 Y400.746
X41.414 Y400.767
X42.618 Y400.786
X43.822 Y400.802
X45.026 Y400.815
X46.23 Y400.826
X47.434 Y400.836
X48.638 Y400.844
X49.842 Y400.851
X51.046 Y400.857
X52.251 Y400.862
X53.455 Y400.867
X54.659 Y400.87
X57.067 Y400.876
X59.476 Y400.88
X63.088 Y400.884
X64.292 Y400.885
X69.109 Y400.888
X76.334 Y400.889
X94.396 Y400.89
X114.867
X165.442
X216.017
X266.591
X317.166
X367.741
X418.316
X465.278
X466.482 Y400.889
X467.686 Y400.884
X468.891 Y400.866
X470.094 Y400.823
X471.295 Y400.742
X472.493 Y400.613
X473.682 Y400.428
X474.861 Y400.18
X476.023 Y399.867
X477.166 Y399.486
X478.283 Y399.038
X479.372 Y398.522
X480.426 Y397.941
X481.444 Y397.297
X482.421 Y396.593
X483.355 Y395.834
X484.244 Y395.021
X485.086 Y394.16
X485.879 Y393.254
X486.624 Y392.308
X487.32 Y391.326
X487.968 Y390.311
X488.568 Y389.267
X489.122 Y388.197
X489.63 Y387.106
X490.096 Y385.995
X490.52 Y384.868
X490.905 Y383.727
X491.253 Y382.574
X491.566 Y381.412
X491.847 Y380.241
X492.099 Y379.063
X492.324 Y377.88
X492.524 Y376.693
X492.703 Y375.502
X492.865 Y374.309
X493.012 Y373.114
X493.149 Y371.917
X493.281 Y370.72
X493.411 Y369.523
X493.547 Y368.327
X493.695 Y367.132
X493.863 Y365.939
X494.055 Y364.751
X494.25 Y363.731
X494.437 Y362.891
X494.62 Y362.174
X494.81 Y361.516
X495.015 Y360.877
X495.213 Y360.322
X495.381 Y359.891
X495.541 Y359.518
X495.703 Y359.166
X495.848 Y358.877
X495.995 Y358.606
X496.147 Y358.344
X496.286 Y358.12
X496.42 Y357.919
X496.798 Y357.388
X497.082 Y357.041
X497.411 Y356.735
X497.778 Y356.477
X498.177 Y356.271
X498.6 Y356.122
X499.039 Y356.031
X499.487 Y356
G3 X500.323 Y356.197 I-0.077 J2.199
G1 X500.488 Y356.272 Z-6.242
X500.652 Y356.347 Z-6.22
X500.814 Y356.421 Z-6.183
X500.973 Y356.493 Z-6.131
X501.127 Y356.563 Z-6.065
X501.276 Y356.631 Z-5.985
X501.418 Y356.696 Z-5.892
X501.552 Y356.757 Z-5.786
X501.679 Y356.815 Z-5.669
X501.796 Y356.868 Z-5.54
X501.903 Y356.917 Z-5.401
X501.999 Y356.961 Z-5.253
X502.083 Y356.999 Z-5.097
X502.156 Y357.032 Z-4.934
X502.216 Y357.06 Z-4.764
X502.263 Y357.081 Z-4.59
X502.297 Y357.097 Z-4.412
X502.318 Y357.106 Z-4.232
X502.325 Y357.109 Z-4.05
G0 Z5
X-11.956 Y357.368
Z-1.85
G1 Z-4.05 F850
X-11.949 Y357.364 Z-4.232
X-11.93 Y357.352 Z-4.412
X-11.898 Y357.333 Z-4.59
X-11.853 Y357.307 Z-4.764
X-11.797 Y357.273 Z-4.934
X-11.728 Y357.232 Z-5.097
X-11.648 Y357.185 Z-5.253
X-11.557 Y357.131 Z-5.401
X-11.456 Y357.071 Z-5.54
X-11.346 Y357.005 Z-5.669
X-11.226 Y356.934 Z-5.786
X-11.099 Y356.858 Z-5.892
X-10.965 Y356.779 Z-5.985
X-10.824 Y356.695 Z-6.065
X-10.679 Y356.609 Z-6.131
X-10.529 Y356.519 Z-6.183
X-10.376 Y356.429 Z-6.22
X-10.221 Y356.336 Z-6.242
X-10.065 Y356.243 Z-6.25
G3 X-9.236 Y356 I0.89 J1.496
G1 X-8.466
X-8.429 Y356.002
X-8.363 Y356.038
X-8.297 Y356.075
X-8.233 Y356.113
X-8.169 Y356.151
X-8.105 Y356.191
X-8.042 Y356.231
X-7.979 Y356.273
X-7.917 Y356.315
X-7.855 Y356.357
X-7.794 Y356.401
X-7.733 Y356.445
X-7.673 Y356.49
X-7.614 Y356.535
X-7.555 Y356.581
X-7.496 Y356.628
X-7.438 Y356.675
X-7.38 Y356.723
X-7.323 Y356.772
X-7.266 Y356.821
X-7.21 Y356.87
X-7.154 Y356.921
X-7.099 Y356.971
X-7.044 Y357.022
X-6.989 Y357.074
X-6.935 Y357.126
X-6.882 Y357.178
X-6.829 Y357.231
X-6.776 Y357.285
X-6.724 Y357.338
X-6.672 Y357.393
X-6.62 Y357.447
X-6.569 Y357.502
X-6.519 Y357.558
X-6.468 Y357.613
X-6.419 Y357.669
X-6.369 Y357.726
X-6.32 Y357.783
X-6.272 Y357.84
X-6.224 Y357.897
X-6.128 Y358.013
X-6.035 Y358.13
X-5.942 Y358.248
X-5.852 Y358.368
X-5.762 Y358.488
X-5.674 Y358.61
X-5.588 Y358.732
X-5.503 Y358.856
X-5.419 Y358.98
X-5.336 Y359.106
X-5.255 Y359.232
X-5.175 Y359.359
X-5.097 Y359.486
X-5.019 Y359.615
X-4.943 Y359.744
X-4.868 Y359.874
X-4.794 Y360.004
X-4.721 Y360.136
X-4.65 Y360.267
X-4.579 Y360.4
X-4.51 Y360.533
X-4.441 Y360.666
X-4.374 Y360.8
X-4.308 Y360.935
X-4.243 Y361.07
X-4.178 Y361.206
X-4.115 Y361.342
X-4.053 Y361.478
X-3.991 Y361.615
X-3.931 Y361.752
X-3.842 Y361.959
X-3.755 Y362.166
X-3.67 Y362.375
X-3.587 Y362.584
X-3.506 Y362.794
X-3.427 Y363.004
X-3.349 Y363.216
X-3.271 Y363.433
X-3.193 Y363.657
X-3.115 Y363.888
X-3.036 Y364.126
X-2.957 Y364.373
X-2.878 Y364.627
X-2.825 Y364.801
X-2.772 Y364.98
X-2.719 Y365.162
X-2.665 Y365.348
X-2.612 Y365.539
X-2.558 Y365.734
X-2.505 Y365.935
X-2.451 Y366.14
X-2.397 Y366.35
X-2.343 Y366.566
X-2.289 Y366.787
X-2.234 Y367.015
X-2.18 Y367.249
X-2.125 Y367.49
X-2.07 Y367.74
X-2.014 Y367.998
X-1.958 Y368.265
X-1.9 Y368.549
X-1.84 Y368.851
X-1.779 Y369.172
X-1.715 Y369.513
X-1.682 Y369.692
X-1.649 Y369.879
X-1.612 Y370.089
X-1.569 Y370.332
X-1.526 Y370.588
X-1.481 Y370.855
X-1.398 Y371.354
X-1.012 Y373.731
X-0.804 Y374.917
X-0.569 Y376.098
X-0.296 Y377.271
X0.022 Y378.433
X0.39 Y379.579
X0.812 Y380.707
X1.291 Y381.812
X1.826 Y382.891
X2.417 Y383.94
X3.063 Y384.956
X3.762 Y385.937
X4.511 Y386.88
X5.307 Y387.782
X6.149 Y388.643
X7.033 Y389.461
X7.956 Y390.235
X8.914 Y390.964
X9.903 Y391.651
X10.92 Y392.296
X11.961 Y392.9
X13.026 Y393.463
X14.111 Y393.985
X15.214 Y394.467
X16.334 Y394.911
X17.467 Y395.318
X18.613 Y395.689
X19.769 Y396.026
X20.924 Y396.365
X22.09 Y396.669
X23.263 Y396.941
X24.442 Y397.183
X25.627 Y397.399
X26.816 Y397.59
X28.008 Y397.758
X29.203 Y397.907
X30.4 Y398.037
X31.599 Y398.152
X32.799 Y398.252
X34 Y398.339
X35.202 Y398.415
X36.404 Y398.481
X37.607 Y398.538
X38.81 Y398.588
X40.013 Y398.631
X41.217 Y398.668
X42.421 Y398.7
X43.624 Y398.727
X44.828 Y398.751
X46.032 Y398.771
X47.236 Y398.788
X48.44 Y398.803
X49.645 Y398.816
X50.849 Y398.827
X52.053 Y398.836
X53.257 Y398.844
X54.461 Y398.851
X55.665 Y398.857
X56.869 Y398.862
X58.074 Y398.866
X59.278 Y398.87
X61.686 Y398.875
X64.094 Y398.879
X67.707 Y398.884
X68.911 Y398.885
X73.728 Y398.887
X80.953 Y398.889
X96.607 Y398.89
X119.486
X170.061
X220.635
X271.21
X321.785
X372.36
X422.935
X461.468
X462.672 Y398.888
X463.876 Y398.882
X465.08 Y398.866
X466.284 Y398.832
X467.486 Y398.769
X468.686 Y398.668
X469.881 Y398.52
X471.069 Y398.318
X472.244 Y398.058
X473.405 Y397.736
X474.545 Y397.35
X475.662 Y396.901
X476.751 Y396.387
X477.809 Y395.81
X478.831 Y395.174
X479.814 Y394.479
X480.757 Y393.73
X481.657 Y392.93
X482.512 Y392.082
X483.32 Y391.189
X484.082 Y390.257
X484.797 Y389.288
X485.465 Y388.286
X486.086 Y387.254
X486.662 Y386.197
X487.194 Y385.116
X487.683 Y384.016
X488.131 Y382.899
X488.541 Y381.766
X488.915 Y380.622
X489.254 Y379.466
X489.563 Y378.302
X489.844 Y377.132
X490.101 Y375.955
X490.337 Y374.774
X490.556 Y373.59
X490.763 Y372.404
X490.962 Y371.216
X491.158 Y370.028
X491.356 Y368.84
X491.563 Y367.654
X491.784 Y366.47
X492.026 Y365.291
X492.298 Y364.118
X492.546 Y363.178
X492.78 Y362.387
X493.007 Y361.702
X493.222 Y361.111
X493.437 Y360.573
X493.666 Y360.048
X493.884 Y359.588
X494.083 Y359.199
X494.257 Y358.883
X494.445 Y358.565
X494.616 Y358.295
X494.771 Y358.066
X494.942 Y357.83
X495.104 Y357.619
X495.253 Y357.437
X495.522 Y357.129
X495.855 Y356.799
X496.231 Y356.519
X496.643 Y356.296
X497.082 Y356.132
X497.54 Y356.033
X498.008 Y356
G3 X498.843 Y356.197 I-0.077 J2.199
G1 X499.009 Y356.272 Z-6.242
X499.173 Y356.347 Z-6.22
X499.335 Y356.421 Z-6.183
X499.493 Y356.493 Z-6.131
X499.647 Y356.563 Z-6.065
X499.796 Y356.631 Z-5.985
X499.938 Y356.696 Z-5.892
X500.073 Y356.757 Z-5.786
X500.199 Y356.815 Z-5.669
X500.316 Y356.868 Z-5.54
X500.423 Y356.917 Z-5.401
X500.519 Y356.961 Z-5.253
X500.604 Y356.999 Z-5.097
X500.677 Y357.032 Z-4.934
X500.737 Y357.06 Z-4.764
X500.784 Y357.081 Z-4.59
X500.818 Y357.097 Z-4.412
X500.838 Y357.106 Z-4.232
X500.845 Y357.109 Z-4.05
G0 Z5
X-11.186 Y357.368
Z-1.85
G1 Z-4.05 F850
X-11.18 Y357.364 Z-4.232
X-11.16 Y357.352 Z-4.412
X-11.128 Y357.333 Z-4.59
X-11.084 Y357.307 Z-4.764
X-11.027 Y357.273 Z-4.934
X-10.958 Y357.232 Z-5.097
X-10.878 Y357.185 Z-5.253
X-10.787 Y357.131 Z-5.401
X-10.686 Y357.071 Z-5.54
X-10.576 Y357.005 Z-5.669
X-10.457 Y356.934 Z-5.786
X-10.329 Y356.858 Z-5.892
X-10.195 Y356.779 Z-5.985
X-10.055 Y356.695 Z-6.065
X-9.909 Y356.609 Z-6.131
X-9.759 Y356.519 Z-6.183
X-9.606 Y356.429 Z-6.22
X-9.451 Y356.336 Z-6.242
X-9.295 Y356.243 Z-6.25
G3 X-8.466 Y356 I0.89 J1.496
G1 X-7.64
X-7.595 Y356.002
X-7.526 Y356.032
X-7.458 Y356.063
X-7.39 Y356.095
X-7.322 Y356.128
X-7.255 Y356.161
X-7.189 Y356.196
X-7.123 Y356.232
X-7.057 Y356.268
X-6.992 Y356.305
X-6.927 Y356.343
X-6.863 Y356.382
X-6.799 Y356.422
X-6.736 Y356.462
X-6.673 Y356.503
X-6.611 Y356.544
X-6.549 Y356.587
X-6.487 Y356.63
X-6.426 Y356.673
X-6.366 Y356.717
X-6.306 Y356.762
X-6.246 Y356.807
X-6.186 Y356.853
X-6.128 Y356.899
X-6.069 Y356.946
X-6.011 Y356.994
X-5.953 Y357.042
X-5.896 Y357.09
X-5.839 Y357.139
X-5.783 Y357.189
X-5.727 Y357.238
X-5.671 Y357.289
X-5.616 Y357.34
X-5.561 Y357.391
X-5.507 Y357.442
X-5.453 Y357.494
X-5.399 Y357.547
X-5.346 Y357.6
X-5.293 Y357.653
X-5.24 Y357.706
X-5.188 Y357.76
X-5.136 Y357.814
X-5.085 Y357.869
X-4.983 Y357.979
X-4.883 Y358.091
X-4.784 Y358.204
X-4.687 Y358.318
X-4.591 Y358.433
X-4.496 Y358.549
X-4.403 Y358.667
X-4.311 Y358.785
X-4.22 Y358.905
X-4.131 Y359.025
X-4.042 Y359.147
X-3.956 Y359.269
X-3.87 Y359.392
X-3.785 Y359.516
X-3.702 Y359.641
X-3.62 Y359.766
X-3.539 Y359.892
X-3.459 Y360.019
X-3.38 Y360.147
X-3.303 Y360.275
X-3.226 Y360.404
X-3.151 Y360.534
X-3.076 Y360.664
X-3.003 Y360.795
X-2.93 Y360.926
X-2.859 Y361.058
X-2.789 Y361.191
X-2.719 Y361.324
X-2.651 Y361.457
X-2.583 Y361.591
X-2.517 Y361.726
X-2.451 Y361.86
X-2.354 Y362.064
X-2.26 Y362.268
X-2.167 Y362.473
X-2.076 Y362.678
X-1.987 Y362.885
X-1.9 Y363.092
X-1.814 Y363.301
X-1.73 Y363.511
X-1.645 Y363.727
X-1.56 Y363.951
X-1.474 Y364.182
X-1.388 Y364.42
X-1.3 Y364.667
X-1.212 Y364.924
X-1.153 Y365.101
X-1.093 Y365.283
X-1.032 Y365.471
X-0.97 Y365.664
X-0.907 Y365.867
X-0.843 Y366.076
X-0.777 Y366.296
X-0.709 Y366.528
X-0.638 Y366.774
X-0.565 Y367.034
X-0.489 Y367.31
X-0.41 Y367.604
X-0.32 Y367.942
X-0.27 Y368.137
X-0.218 Y368.339
X-0.164 Y368.55
X-0.093 Y368.834
X-0.004 Y369.193
X0.164 Y369.882
X0.447 Y371.052
X0.734 Y372.222
X1.038 Y373.387
X1.369 Y374.545
X1.735 Y375.692
X2.141 Y376.825
X2.593 Y377.941
X3.092 Y379.037
X3.642 Y380.109
X4.241 Y381.153
X4.89 Y382.168
X5.588 Y383.149
X6.332 Y384.095
X7.121 Y385.005
X7.953 Y385.876
X8.824 Y386.707
X9.733 Y387.497
X10.677 Y388.245
X11.652 Y388.951
X12.657 Y389.615
X13.687 Y390.238
X14.74 Y390.823
X15.812 Y391.37
X16.903 Y391.881
X18.01 Y392.355
X19.132 Y392.793
X20.266 Y393.196
X21.412 Y393.566
X22.568 Y393.904
X23.723 Y394.244
X24.887 Y394.551
X26.06 Y394.827
X27.238 Y395.074
X28.422 Y395.295
X29.61 Y395.492
X30.801 Y395.667
X31.995 Y395.821
X33.192 Y395.958
X34.39 Y396.079
X35.589 Y396.185
X36.79 Y396.278
X37.991 Y396.359
X39.193 Y396.43
X40.396 Y396.492
X41.599 Y396.547
X42.802 Y396.594
X44.006 Y396.634
X45.209 Y396.67
X46.413 Y396.7
X47.617 Y396.727
X48.821 Y396.75
X50.025 Y396.77
X51.229 Y396.787
X52.433 Y396.801
X53.637 Y396.814
X54.841 Y396.825
X56.045 Y396.834
X57.249 Y396.842
X58.454 Y396.849
X59.658 Y396.855
X60.862 Y396.86
X62.066 Y396.865
X63.27 Y396.868
X65.678 Y396.874
X68.087 Y396.879
X71.699 Y396.883
X75.312 Y396.886
X81.333 Y396.888
X90.966 Y396.889
X122.274 Y396.89
X172.849
X223.424
X273.999
X324.573
X375.148
X425.723
X457.031
X458.235 Y396.889
X459.439 Y396.886
X460.644 Y396.878
X461.848 Y396.86
X463.051 Y396.825
X464.254 Y396.766
X465.455 Y396.673
X466.651 Y396.539
X467.841 Y396.356
X469.022 Y396.12
X470.19 Y395.827
X471.342 Y395.474
X472.472 Y395.06
X473.578 Y394.584
X474.656 Y394.047
X475.702 Y393.451
X476.714 Y392.797
X477.687 Y392.089
X478.621 Y391.328
X479.512 Y390.518
X480.359 Y389.662
X481.161 Y388.764
X481.918 Y387.828
X482.63 Y386.856
X483.296 Y385.853
X483.917 Y384.821
X484.494 Y383.765
X485.03 Y382.686
X485.526 Y381.589
X485.983 Y380.475
X486.406 Y379.347
X486.795 Y378.208
X487.155 Y377.059
X487.49 Y375.902
X487.801 Y374.739
X488.095 Y373.571
X488.374 Y372.4
X488.643 Y371.226
X488.907 Y370.051
X489.172 Y368.877
X489.443 Y367.703
X489.726 Y366.533
X490.027 Y365.367
X490.355 Y364.208
X490.668 Y363.208
X490.964 Y362.359
X491.242 Y361.63
X491.503 Y361.006
X491.758 Y360.445
X492 Y359.953
X492.247 Y359.488
X492.474 Y359.091
X492.701 Y358.719
X492.896 Y358.421
X493.085 Y358.152
X493.282 Y357.888
X493.458 Y357.667
X493.621 Y357.474
X493.804 Y357.272
X493.974 Y357.093
X494.131 Y356.94
X494.201 Y356.875
X494.586 Y356.57
X495.012 Y356.325
X495.47 Y356.146
X495.949 Y356.037
X496.439 Y356
G3 X497.275 Y356.197 I-0.077 J2.199
G1 X497.44 Y356.272 Z-6.242
X497.604 Y356.347 Z-6.22
X497.766 Y356.421 Z-6.183
X497.925 Y356.493 Z-6.131
X498.079 Y356.563 Z-6.065
X498.227 Y356.631 Z-5.985
X498.37 Y356.696 Z-5.892
X498.504 Y356.757 Z-5.786
X498.63 Y356.815 Z-5.669
X498.747 Y356.868 Z-5.54
X498.854 Y356.917 Z-5.401
X498.951 Y356.961 Z-5.253
X499.035 Y356.999 Z-5.097
X499.108 Y357.032 Z-4.934
X499.168 Y357.06 Z-4.764
X499.215 Y357.081 Z-4.59
X499.249 Y357.097 Z-4.412
X499.27 Y357.106 Z-4.232
X499.276 Y357.109 Z-4.05
G0 Z5
X-10.36 Y357.368
Z-1.85
G1 Z-4.05 F850
X-10.353 Y357.364 Z-4.232
X-10.334 Y357.352 Z-4.412
X-10.302 Y357.333 Z-4.59
X-10.257 Y357.307 Z-4.764
X-10.2 Y357.273 Z-4.934
X-10.132 Y357.232 Z-5.097
X-10.052 Y357.185 Z-5.253
X-9.961 Y357.131 Z-5.401
X-9.86 Y357.071 Z-5.54
X-9.749 Y357.005 Z-5.669
X-9.63 Y356.934 Z-5.786
X-9.503 Y356.858 Z-5.892
X-9.369 Y356.779 Z-5.985
X-9.228 Y356.695 Z-6.065
X-9.083 Y356.609 Z-6.131
X-8.933 Y356.519 Z-6.183
X-8.78 Y356.429 Z-6.22
X-8.625 Y356.336 Z-6.242
X-8.469 Y356.243 Z-6.25
G3 X-7.64 Y356 I0.89 J1.496
G1 X-6.764
X-6.689 Y356.004
X-6.618 Y356.028
X-6.547 Y356.053
X-6.477 Y356.079
X-6.407 Y356.106
X-6.338 Y356.135
X-6.269 Y356.164
X-6.2 Y356.194
X-6.132 Y356.225
X-6.064 Y356.257
X-5.997 Y356.29
X-5.93 Y356.324
X-5.863 Y356.359
X-5.797 Y356.394
X-5.731 Y356.43
X-5.666 Y356.467
X-5.601 Y356.504
X-5.536 Y356.542
X-5.472 Y356.581
X-5.408 Y356.621
X-5.345 Y356.661
X-5.282 Y356.702
X-5.22 Y356.743
X-5.158 Y356.785
X-5.096 Y356.828
X-5.034 Y356.871
X-4.974 Y356.915
X-4.913 Y356.959
X-4.853 Y357.004
X-4.793 Y357.049
X-4.734 Y357.095
X-4.675 Y357.141
X-4.616 Y357.188
X-4.558 Y357.235
X-4.5 Y357.283
X-4.442 Y357.331
X-4.385 Y357.379
X-4.328 Y357.428
X-4.272 Y357.478
X-4.216 Y357.528
X-4.16 Y357.578
X-4.105 Y357.629
X-4.05 Y357.68
X-3.995 Y357.731
X-3.941 Y357.783
X-3.833 Y357.887
X-3.727 Y357.993
X-3.623 Y358.101
X-3.519 Y358.209
X-3.417 Y358.319
X-3.316 Y358.43
X-3.217 Y358.543
X-3.119 Y358.656
X-3.022 Y358.771
X-2.926 Y358.886
X-2.832 Y359.003
X-2.739 Y359.12
X-2.647 Y359.239
X-2.556 Y359.358
X-2.466 Y359.478
X-2.377 Y359.599
X-2.29 Y359.721
X-2.204 Y359.844
X-2.119 Y359.967
X-2.035 Y360.092
X-1.952 Y360.217
X-1.87 Y360.342
X-1.789 Y360.469
X-1.709 Y360.596
X-1.63 Y360.723
X-1.552 Y360.851
X-1.475 Y360.98
X-1.399 Y361.11
X-1.324 Y361.239
X-1.25 Y361.37
X-1.177 Y361.501
X-1.105 Y361.632
X-1.034 Y361.764
X-0.929 Y361.963
X-0.826 Y362.163
X-0.724 Y362.364
X-0.625 Y362.566
X-0.527 Y362.769
X-0.431 Y362.972
X-0.336 Y363.179
X-0.238 Y363.395
X-0.139 Y363.62
X-0.037 Y363.856
X0.032 Y364.021
X0.103 Y364.191
X0.177 Y364.37
X0.252 Y364.556
X0.329 Y364.75
X0.408 Y364.953
X0.491 Y365.168
X0.577 Y365.396
X0.67 Y365.645
X0.766 Y365.909
X0.867 Y366.19
X0.925 Y366.353
X0.99 Y366.537
X1.056 Y366.728
X1.125 Y366.927
X1.202 Y367.152
X1.314 Y367.482
X1.432 Y367.833
X1.812 Y368.975
X2.191 Y370.118
X2.58 Y371.258
X2.988 Y372.391
X3.422 Y373.514
X3.89 Y374.623
X4.396 Y375.716
X4.942 Y376.789
X5.531 Y377.839
X6.164 Y378.864
X6.841 Y379.86
X7.561 Y380.825
X8.324 Y381.757
X9.128 Y382.653
X9.971 Y383.513
X10.851 Y384.335
X11.765 Y385.119
X12.711 Y385.864
X13.687 Y386.569
X14.69 Y387.235
X15.719 Y387.862
X16.769 Y388.45
X17.838 Y389.004
X18.925 Y389.523
X20.027 Y390.008
X21.143 Y390.459
X22.273 Y390.877
X23.414 Y391.263
X24.564 Y391.617
X25.724 Y391.941
X26.891 Y392.238
X28.057 Y392.54
X29.23 Y392.812
X30.409 Y393.056
X31.593 Y393.274
X32.782 Y393.469
X33.973 Y393.643
X35.167 Y393.797
X36.364 Y393.933
X37.562 Y394.054
X38.761 Y394.161
X39.962 Y394.254
X41.163 Y394.337
X42.365 Y394.409
X43.568 Y394.472
X44.771 Y394.528
X45.974 Y394.576
X47.177 Y394.618
X48.381 Y394.655
X49.585 Y394.687
X50.788 Y394.714
X51.992 Y394.738
X53.196 Y394.759
X54.4 Y394.777
X55.604 Y394.793
X56.808 Y394.806
X58.013 Y394.818
X59.217 Y394.828
X60.421 Y394.837
X61.625 Y394.844
X62.829 Y394.851
X64.033 Y394.856
X65.237 Y394.861
X66.442 Y394.865
X68.85 Y394.872
X71.258 Y394.877
X73.667 Y394.88
X76.075 Y394.883
X79.687 Y394.886
X85.708 Y394.888
X95.341 Y394.889
X126.65 Y394.89
X177.224
X227.799
X278.374
X328.949
X379.524
X430.099
X452.978
X454.182 Y394.889
X455.386 Y394.887
X456.59 Y394.882
X457.794 Y394.871
X458.998 Y394.848
X460.202 Y394.81
X461.404 Y394.748
X462.605 Y394.654
X463.802 Y394.523
X464.993 Y394.346
X466.176 Y394.12
X467.347 Y393.839
X468.502 Y393.501
X469.64 Y393.105
X470.754 Y392.65
X471.843 Y392.135
X472.902 Y391.562
X473.928 Y390.932
X474.919 Y390.248
X475.872 Y389.512
X476.785 Y388.727
X477.656 Y387.895
X478.484 Y387.021
X479.269 Y386.107
X480.01 Y385.158
X480.708 Y384.177
X481.362 Y383.166
X481.976 Y382.13
X482.549 Y381.071
X483.084 Y379.992
X483.583 Y378.897
X484.05 Y377.786
X484.486 Y376.664
X484.895 Y375.532
X485.281 Y374.391
X485.648 Y373.244
X485.999 Y372.092
X486.339 Y370.937
X486.673 Y369.78
X487.005 Y368.623
X487.343 Y367.467
X487.69 Y366.314
X488.054 Y365.166
X488.441 Y364.026
X488.822 Y362.995
X489.177 Y362.117
X489.505 Y361.374
X489.811 Y360.735
X490.103 Y360.168
X490.38 Y359.672
X490.649 Y359.22
X490.901 Y358.826
X491.123 Y358.501
X491.36 Y358.176
X491.569 Y357.907
X491.754 Y357.683
X491.956 Y357.454
X492.15 Y357.247
X492.325 Y357.072
X492.49 Y356.916
X492.584 Y356.832
X492.964 Y356.541
X493.383 Y356.308
X493.83 Y356.138
X494.298 Y356.035
X494.775 Y356
G3 X495.611 Y356.197 I-0.077 J2.199
G1 X495.776 Y356.272 Z-6.242
X495.94 Y356.347 Z-6.22
X496.102 Y356.421 Z-6.183
X496.261 Y356.493 Z-6.131
X496.415 Y356.563 Z-6.065
X496.563 Y356.631 Z-5.985
X496.706 Y356.696 Z-5.892
X496.84 Y356.757 Z-5.786
X496.966 Y356.815 Z-5.669
X497.083 Y356.868 Z-5.54
X497.19 Y356.917 Z-5.401
X497.287 Y356.961 Z-5.253
X497.371 Y356.999 Z-5.097
X497.444 Y357.032 Z-4.934
X497.504 Y357.06 Z-4.764
X497.551 Y357.081 Z-4.59
X497.585 Y357.097 Z-4.412
X497.606 Y357.106 Z-4.232
X497.613 Y357.109 Z-4.05
G0 Z5
X-9.484 Y357.368
Z-1.85
G1 Z-4.05 F850
X-9.477 Y357.364 Z-4.232
X-9.458 Y357.352 Z-4.412
X-9.426 Y357.333 Z-4.59
X-9.381 Y357.307 Z-4.764
X-9.325 Y357.273 Z-4.934
X-9.256 Y357.232 Z-5.097
X-9.176 Y357.185 Z-5.253
X-9.085 Y357.131 Z-5.401
X-8.984 Y357.071 Z-5.54
X-8.874 Y357.005 Z-5.669
X-8.754 Y356.934 Z-5.786
X-8.627 Y356.858 Z-5.892
X-8.493 Y356.779 Z-5.985
X-8.353 Y356.695 Z-6.065
X-8.207 Y356.609 Z-6.131
X-8.057 Y356.519 Z-6.183
X-7.904 Y356.429 Z-6.22
X-7.749 Y356.336 Z-6.242
X-7.593 Y356.243 Z-6.25
G3 X-6.764 Y356 I0.89 J1.496
G1 X-5.826
X-5.751 Y356.004
X-5.679 Y356.021
X-5.606 Y356.04
X-5.534 Y356.06
X-5.462 Y356.082
X-5.39 Y356.104
X-5.319 Y356.128
X-5.248 Y356.152
X-5.178 Y356.178
X-5.107 Y356.204
X-5.038 Y356.232
X-4.968 Y356.26
X-4.899 Y356.29
X-4.831 Y356.32
X-4.762 Y356.351
X-4.694 Y356.383
X-4.627 Y356.415
X-4.56 Y356.449
X-4.493 Y356.483
X-4.426 Y356.517
X-4.36 Y356.553
X-4.295 Y356.589
X-4.229 Y356.626
X-4.165 Y356.664
X-4.1 Y356.702
X-4.036 Y356.741
X-3.972 Y356.78
X-3.908 Y356.82
X-3.845 Y356.86
X-3.783 Y356.902
X-3.72 Y356.943
X-3.658 Y356.985
X-3.597 Y357.028
X-3.535 Y357.071
X-3.474 Y357.115
X-3.414 Y357.159
X-3.354 Y357.204
X-3.294 Y357.249
X-3.234 Y357.295
X-3.175 Y357.341
X-3.116 Y357.387
X-3.058 Y357.434
X-3 Y357.482
X-2.942 Y357.53
X-2.884 Y357.578
X-2.827 Y357.626
X-2.77 Y357.675
X-2.714 Y357.725
X-2.602 Y357.825
X-2.492 Y357.926
X-2.382 Y358.029
X-2.274 Y358.133
X-2.168 Y358.238
X-2.062 Y358.345
X-1.958 Y358.453
X-1.855 Y358.562
X-1.753 Y358.672
X-1.653 Y358.784
X-1.553 Y358.896
X-1.455 Y359.009
X-1.358 Y359.124
X-1.262 Y359.239
X-1.167 Y359.355
X-1.074 Y359.472
X-0.981 Y359.59
X-0.89 Y359.709
X-0.799 Y359.829
X-0.71 Y359.949
X-0.621 Y360.07
X-0.534 Y360.192
X-0.448 Y360.315
X-0.362 Y360.438
X-0.278 Y360.562
X-0.194 Y360.687
X-0.112 Y360.812
X-0.03 Y360.938
X0.051 Y361.064
X0.131 Y361.191
X0.21 Y361.319
X0.327 Y361.511
X0.442 Y361.705
X0.555 Y361.899
X0.666 Y362.094
X0.776 Y362.291
X0.889 Y362.497
X1.006 Y362.714
X1.126 Y362.942
X1.21 Y363.103
X1.296 Y363.272
X1.386 Y363.451
X1.479 Y363.637
X1.575 Y363.832
X1.675 Y364.039
X1.779 Y364.257
X1.891 Y364.496
X2.015 Y364.764
X2.145 Y365.05
X2.213 Y365.2
X2.298 Y365.389
X2.389 Y365.593
X2.483 Y365.806
X2.581 Y366.03
X2.746 Y366.409
X2.925 Y366.822
X3.399 Y367.929
X3.874 Y369.035
X4.359 Y370.137
X4.862 Y371.232
X5.389 Y372.314
X5.945 Y373.382
X6.535 Y374.432
X7.161 Y375.461
X7.823 Y376.466
X8.525 Y377.445
X9.264 Y378.395
X10.042 Y379.315
X10.857 Y380.202
X11.707 Y381.054
X12.591 Y381.872
X13.507 Y382.654
X14.453 Y383.399
X15.426 Y384.108
X16.425 Y384.779
X17.449 Y385.414
X18.494 Y386.012
X19.559 Y386.573
X20.643 Y387.099
X21.741 Y387.592
X22.853 Y388.055
X23.977 Y388.487
X25.112 Y388.89
X26.257 Y389.262
X27.411 Y389.606
X28.573 Y389.922
X29.741 Y390.212
X30.908 Y390.509
X32.082 Y390.778
X33.262 Y391.02
X34.446 Y391.237
X35.635 Y391.431
X36.826 Y391.605
X38.02 Y391.759
X39.217 Y391.897
X40.415 Y392.019
X41.614 Y392.127
X42.814 Y392.223
X44.016 Y392.307
X45.217 Y392.381
X46.42 Y392.446
X47.623 Y392.504
X48.826 Y392.554
X50.029 Y392.598
X51.233 Y392.636
X52.436 Y392.669
X53.64 Y392.699
X54.844 Y392.724
X56.048 Y392.746
X57.252 Y392.766
X58.456 Y392.783
X59.66 Y392.797
X60.864 Y392.81
X62.068 Y392.821
X63.272 Y392.83
X64.477 Y392.838
X65.681 Y392.845
X66.885 Y392.852
X68.089 Y392.857
X69.293 Y392.862
X70.497 Y392.866
X72.906 Y392.872
X75.314 Y392.877
X77.722 Y392.88
X78.926 Y392.882
X82.539 Y392.885
X87.356 Y392.887
X94.581 Y392.889
X110.235 Y392.89
X129.501
X180.076
X230.651
X281.226
X331.801
X382.375
X432.95
X448.604
X449.808 Y392.889
X451.013 Y392.888
X452.217 Y392.886
X453.421 Y392.88
X454.625 Y392.869
X455.829 Y392.848
X457.033 Y392.813
X458.236 Y392.758
X459.437 Y392.675
X460.635 Y392.559
X461.829 Y392.403
X463.016 Y392.2
X464.194 Y391.948
X465.359 Y391.643
X466.507 Y391.282
X467.637 Y390.863
X468.743 Y390.388
X469.822 Y389.854
X470.872 Y389.265
X471.89 Y388.621
X472.873 Y387.925
X473.818 Y387.179
X474.725 Y386.387
X475.591 Y385.55
X476.416 Y384.674
X477.2 Y383.76
X477.943 Y382.812
X478.646 Y381.834
X479.308 Y380.828
X479.933 Y379.799
X480.522 Y378.749
X481.076 Y377.68
X481.599 Y376.595
X482.093 Y375.497
X482.562 Y374.388
X483.009 Y373.27
X483.438 Y372.144
X483.853 Y371.014
X484.258 Y369.88
X485.061 Y367.609
X485.468 Y366.476
X485.886 Y365.347
X486.323 Y364.225
X486.783 Y363.112
X487.216 Y362.147
X487.608 Y361.339
X487.966 Y360.657
X488.302 Y360.061
X488.617 Y359.54
X488.919 Y359.075
X489.192 Y358.679
X489.443 Y358.34
X489.695 Y358.019
X489.911 Y357.761
X490.115 Y357.533
X490.334 Y357.302
X490.53 Y357.108
X490.707 Y356.942
X490.899 Y356.774
X490.924 Y356.753
X491.294 Y356.489
X491.696 Y356.278
X492.124 Y356.125
X492.569 Y356.031
X493.023 Y356
G3 X493.858 Y356.197 I-0.077 J2.199
G1 X494.023 Y356.272 Z-6.242
X494.188 Y356.347 Z-6.22
X494.35 Y356.421 Z-6.183
X494.508 Y356.493 Z-6.131
X494.662 Y356.563 Z-6.065
X494.811 Y356.631 Z-5.985
X494.953 Y356.696 Z-5.892
X495.088 Y356.757 Z-5.786
X495.214 Y356.815 Z-5.669
X495.331 Y356.868 Z-5.54
X495.438 Y356.917 Z-5.401
X495.534 Y356.961 Z-5.253
X495.619 Y356.999 Z-5.097
X495.691 Y357.032 Z-4.934
X495.752 Y357.06 Z-4.764
X495.799 Y357.081 Z-4.59
X495.833 Y357.097 Z-4.412
X495.853 Y357.106 Z-4.232
X495.86 Y357.109 Z-4.05
G0 Z5
X-8.546 Y357.368
Z-1.85
G1 Z-4.05 F850
X-8.54 Y357.364 Z-4.232
X-8.52 Y357.352 Z-4.412
X-8.488 Y357.333 Z-4.59
X-8.444 Y357.307 Z-4.764
X-8.387 Y357.273 Z-4.934
X-8.318 Y357.232 Z-5.097
X-8.238 Y357.185 Z-5.253
X-8.148 Y357.131 Z-5.401
X-8.047 Y357.071 Z-5.54
X-7.936 Y357.005 Z-5.669
X-7.817 Y356.934 Z-5.786
X-7.69 Y356.858 Z-5.892
X-7.555 Y356.779 Z-5.985
X-7.415 Y356.695 Z-6.065
X-7.269 Y356.609 Z-6.131
X-7.119 Y356.519 Z-6.183
X-6.967 Y356.429 Z-6.22
X-6.811 Y356.336 Z-6.242
X-6.655 Y356.243 Z-6.25
G3 X-5.826 Y356 I0.89 J1.496
G1 X-4.75
X-4.675 Y356.004
X-4.545 Y356.031
X-4.407 Y356.064
X-4.261 Y356.104
X-4.106 Y356.152
X-3.942 Y356.208
X-3.769 Y356.272
X-3.588 Y356.347
X-3.398 Y356.432
X-3.199 Y356.529
X-2.99 Y356.637
X-2.773 Y356.76
X-2.546 Y356.897
X-2.31 Y357.049
X-2.065 Y357.218
X-1.811 Y357.406
X-1.546 Y357.614
X-1.272 Y357.843
X-0.987 Y358.096
X-0.692 Y358.376
X-0.385 Y358.685
X-0.065 Y359.028
X0.271 Y359.41
X0.624 Y359.837
X0.998 Y360.32
X1.4 Y360.873
X1.844 Y361.524
X2.351 Y362.32
X2.967 Y363.355
X3.552 Y364.408
X4.115 Y365.472
X4.668 Y366.542
X5.22 Y367.612
X5.779 Y368.679
X6.352 Y369.738
X6.946 Y370.785
X7.564 Y371.819
X8.211 Y372.834
X8.888 Y373.83
X9.598 Y374.803
X10.341 Y375.75
X11.118 Y376.67
X11.928 Y377.561
X12.771 Y378.421
X13.646 Y379.249
X14.551 Y380.043
X15.485 Y380.803
X16.446 Y381.528
X17.433 Y382.218
X18.443 Y382.874
X19.475 Y383.494
X20.527 Y384.08
X21.597 Y384.632
X22.684 Y385.151
X23.786 Y385.636
X24.9 Y386.092
X26.025 Y386.521
X27.161 Y386.923
X28.305 Y387.297
X29.458 Y387.644
X30.619 Y387.964
X31.787 Y388.259
X32.96 Y388.53
X34.138 Y388.778
X35.321 Y389.003
X36.508 Y389.208
X37.698 Y389.393
X38.89 Y389.561
X40.085 Y389.711
X41.281 Y389.847
X42.479 Y389.968
X43.679 Y390.077
X44.879 Y390.173
X46.08 Y390.259
X47.282 Y390.336
X48.484 Y390.404
X49.687 Y390.464
X50.89 Y390.517
X52.093 Y390.563
X53.296 Y390.605
X54.5 Y390.641
X55.704 Y390.673
X56.908 Y390.7
X58.112 Y390.725
X59.316 Y390.746
X60.52 Y390.765
X61.724 Y390.781
X62.928 Y390.796
X64.132 Y390.808
X65.336 Y390.819
X66.54 Y390.829
X67.744 Y390.837
X68.948 Y390.844
X70.152 Y390.85
X71.357 Y390.855
X72.561 Y390.86
X73.765 Y390.864
X76.173 Y390.871
X78.582 Y390.876
X80.99 Y390.879
X82.194 Y390.881
X85.806 Y390.884
X90.623 Y390.887
X97.848 Y390.889
X112.298 Y390.89
X132.769
X183.344
X233.918
X284.493
X335.068
X385.643
X436.218
X444.647
X447.055 Y390.889
X448.259 Y390.887
X449.463 Y390.884
X450.668 Y390.876
X451.872 Y390.863
X453.076 Y390.841
X454.279 Y390.804
X455.482 Y390.749
X456.684 Y390.668
X457.882 Y390.555
X459.077 Y390.405
X460.266 Y390.212
X461.446 Y389.972
X462.614 Y389.68
X463.768 Y389.335
X464.904 Y388.936
X466.018 Y388.48
X467.109 Y387.969
X468.172 Y387.403
X469.204 Y386.784
X470.204 Y386.113
X471.17 Y385.394
X472.099 Y384.628
X472.991 Y383.819
X473.844 Y382.969
X474.659 Y382.082
X475.435 Y381.162
X476.173 Y380.21
X476.874 Y379.231
X477.54 Y378.228
X478.172 Y377.203
X478.772 Y376.159
X479.343 Y375.099
X479.888 Y374.025
X480.41 Y372.94
X480.913 Y371.846
X481.4 Y370.744
X481.875 Y369.638
X482.343 Y368.528
X482.809 Y367.418
X483.278 Y366.309
X483.755 Y365.203
X484.245 Y364.103
X484.756 Y363.013
X485.279 Y361.966
X485.735 Y361.119
X486.143 Y360.415
X486.521 Y359.806
X486.87 Y359.28
X487.2 Y358.814
X487.487 Y358.435
X487.759 Y358.097
X488.015 Y357.799
X488.235 Y357.557
X488.461 Y357.324
X488.681 Y357.111
X488.876 Y356.933
X489.067 Y356.77
X489.116 Y356.73
X489.482 Y356.474
X489.88 Y356.269
X490.302 Y356.121
X490.74 Y356.03
X491.186 Y356
X493.023
G3 X493.858 Y356.197 I-0.077 J2.199
G1 X494.023 Y356.272 Z-6.242
X494.188 Y356.347 Z-6.22
X494.35 Y356.421 Z-6.183
X494.508 Y356.493 Z-6.131
X494.662 Y356.563 Z-6.065
X494.811 Y356.631 Z-5.985
X494.953 Y356.696 Z-5.892
X495.088 Y356.757 Z-5.786
X495.214 Y356.815 Z-5.669
X495.331 Y356.868 Z-5.54
X495.438 Y356.917 Z-5.401
X495.534 Y356.961 Z-5.253
X495.619 Y356.999 Z-5.097
X495.691 Y357.032 Z-4.934
X495.752 Y357.06 Z-4.764
X495.799 Y357.081 Z-4.59
X495.833 Y357.097 Z-4.412
X495.853 Y357.106 Z-4.232
X495.86 Y357.109 Z-4.05
G0 Z5
X-7.47 Y357.368
Z-1.85
G1 Z-4.05 F850
X-7.463 Y357.364 Z-4.232
X-7.444 Y357.352 Z-4.412
X-7.412 Y357.333 Z-4.59
X-7.367 Y357.307 Z-4.764
X-7.31 Y357.273 Z-4.934
X-7.242 Y357.232 Z-5.097
X-7.162 Y357.185 Z-5.253
X-7.071 Y357.131 Z-5.401
X-6.97 Y357.071 Z-5.54
X-6.86 Y357.005 Z-5.669
X-6.74 Y356.934 Z-5.786
X-6.613 Y356.858 Z-5.892
X-6.479 Y356.779 Z-5.985
X-6.338 Y356.695 Z-6.065
X-6.193 Y356.609 Z-6.131
X-6.043 Y356.519 Z-6.183
X-5.89 Y356.429 Z-6.22
X-5.735 Y356.336 Z-6.242
X-5.579 Y356.243 Z-6.25
G3 X-4.75 Y356 I0.89 J1.496
G1 X-3.68
X-3.605 Y356.004
X-3.483 Y356.021
X-3.356 Y356.043
X-3.218 Y356.072
X-3.068 Y356.108
X-2.914 Y356.15
X-2.749 Y356.2
X-2.571 Y356.26
X-2.387 Y356.329
X-2.195 Y356.407
X-1.987 Y356.5
X-1.773 Y356.603
X-1.551 Y356.718
X-1.312 Y356.852
X-1.065 Y357
X-0.812 Y357.164
X-0.538 Y357.352
X-0.257 Y357.558
X0.034 Y357.786
X0.352 Y358.051
X0.669 Y358.332
X1.017 Y358.659
X1.378 Y359.022
X1.768 Y359.437
X2.184 Y359.909
X2.627 Y360.443
X3.13 Y361.089
X3.72 Y361.897
X4.401 Y362.891
X5.053 Y363.903
X5.69 Y364.925
X6.319 Y365.952
X6.95 Y366.978
X7.589 Y367.998
X8.242 Y369.01
X8.914 Y370.009
X9.607 Y370.994
X10.327 Y371.959
X11.074 Y372.904
X11.849 Y373.825
X12.653 Y374.721
X13.487 Y375.591
X14.349 Y376.431
X15.24 Y377.241
X16.158 Y378.02
X17.103 Y378.766
X18.073 Y379.48
X19.066 Y380.161
X20.082 Y380.808
X21.117 Y381.423
X22.171 Y382.006
X23.242 Y382.556
X24.328 Y383.076
X25.429 Y383.564
X26.543 Y384.021
X27.668 Y384.449
X28.805 Y384.848
X29.95 Y385.219
X31.104 Y385.562
X32.266 Y385.88
X33.434 Y386.173
X34.608 Y386.442
X35.786 Y386.689
X36.969 Y386.914
X38.156 Y387.12
X39.345 Y387.307
X40.537 Y387.476
X41.732 Y387.63
X42.928 Y387.769
X44.125 Y387.893
X45.324 Y388.006
X46.524 Y388.106
X47.725 Y388.197
X48.926 Y388.277
X50.129 Y388.349
X51.331 Y388.413
X52.534 Y388.47
X53.737 Y388.52
X54.94 Y388.565
X56.144 Y388.605
X57.347 Y388.64
X58.551 Y388.671
X59.755 Y388.698
X60.959 Y388.722
X62.163 Y388.743
X63.367 Y388.762
X64.571 Y388.778
X65.775 Y388.792
X66.979 Y388.805
X68.183 Y388.816
X69.387 Y388.825
X70.592 Y388.834
X71.796 Y388.841
X73 Y388.848
X74.204 Y388.853
X75.408 Y388.858
X76.612 Y388.862
X79.021 Y388.869
X81.429 Y388.874
X83.837 Y388.878
X85.041 Y388.88
X88.654 Y388.883
X93.47 Y388.886
X100.695 Y388.889
X113.941 Y388.89
X135.616
X186.191
X236.766
X287.341
X337.915
X388.49
X439.065
X442.678 Y388.889
X443.882
X445.086 Y388.887
X446.29 Y388.883
X447.494 Y388.876
X448.698 Y388.865
X449.902 Y388.846
X451.106 Y388.814
X452.309 Y388.767
X453.511 Y388.698
X454.712 Y388.601
X455.909 Y388.471
X457.101 Y388.304
X458.287 Y388.092
X459.463 Y387.834
X460.627 Y387.525
X461.776 Y387.165
X462.906 Y386.751
X464.016 Y386.283
X465.102 Y385.762
X466.161 Y385.188
X467.19 Y384.564
X468.189 Y383.891
X469.154 Y383.171
X470.085 Y382.407
X470.98 Y381.602
X471.84 Y380.759
X472.663 Y379.88
X473.451 Y378.97
X474.204 Y378.03
X474.924 Y377.065
X475.611 Y376.076
X476.269 Y375.067
X476.899 Y374.041
X477.504 Y372.999
X478.086 Y371.946
X478.65 Y370.882
X479.199 Y369.81
X479.737 Y368.733
X480.268 Y367.652
X480.796 Y366.57
X481.326 Y365.489
X481.865 Y364.411
X482.417 Y363.341
X482.989 Y362.282
X483.555 Y361.293
X484.045 Y360.494
X484.486 Y359.824
X484.884 Y359.257
X485.253 Y358.764
X485.567 Y358.37
X485.869 Y358.015
X486.138 Y357.716
X486.372 Y357.473
X486.62 Y357.23
X486.845 Y357.024
X487.045 Y356.85
X487.181 Y356.74
X487.549 Y356.48
X487.948 Y356.273
X488.373 Y356.122
X488.814 Y356.031
X489.263 Y356
X491.186
G3 X492.021 Y356.197 I-0.077 J2.199
G1 X492.187 Y356.272 Z-6.242
X492.351 Y356.347 Z-6.22
X492.513 Y356.421 Z-6.183
X492.671 Y356.493 Z-6.131
X492.826 Y356.563 Z-6.065
X492.974 Y356.631 Z-5.985
X493.116 Y356.696 Z-5.892
X493.251 Y356.757 Z-5.786
X493.377 Y356.815 Z-5.669
X493.494 Y356.868 Z-5.54
X493.601 Y356.917 Z-5.401
X493.697 Y356.961 Z-5.253
X493.782 Y356.999 Z-5.097
X493.855 Y357.032 Z-4.934
X493.915 Y357.06 Z-4.764
X493.962 Y357.081 Z-4.59
X493.996 Y357.097 Z-4.412
X494.017 Y357.106 Z-4.232
X494.023 Y357.109 Z-4.05
G0 Z5
X-6.4 Y357.368
Z-1.85
G1 Z-4.05 F850
X-6.393 Y357.364 Z-4.232
X-6.374 Y357.352 Z-4.412
X-6.342 Y357.333 Z-4.59
X-6.297 Y357.307 Z-4.764
X-6.241 Y357.273 Z-4.934
X-6.172 Y357.232 Z-5.097
X-6.092 Y357.185 Z-5.253
X-6.001 Y357.131 Z-5.401
X-5.9 Y357.071 Z-5.54
X-5.79 Y357.005 Z-5.669
X-5.67 Y356.934 Z-5.786
X-5.543 Y356.858 Z-5.892
X-5.409 Y356.779 Z-5.985
X-5.269 Y356.695 Z-6.065
X-5.123 Y356.609 Z-6.131
X-4.973 Y356.519 Z-6.183
X-4.82 Y356.429 Z-6.22
X-4.665 Y356.336 Z-6.242
X-4.509 Y356.243 Z-6.25
G3 X-3.68 Y356 I0.89 J1.496
G1 X-2.526
X-2.452 Y356.004
X-2.339 Y356.014
X-2.214 Y356.029
X-2.082 Y356.049
X-1.942 Y356.074
X-1.789 Y356.107
X-1.626 Y356.147
X-1.458 Y356.194
X-1.273 Y356.252
X-1.078 Y356.32
X-0.878 Y356.396
X-0.66 Y356.487
X-0.431 Y356.591
X-0.196 Y356.706
X0.061 Y356.842
X0.326 Y356.994
X0.603 Y357.163
X0.905 Y357.36
X1.209 Y357.573
X1.539 Y357.819
X1.889 Y358.097
X2.256 Y358.408
X2.661 Y358.772
X3.08 Y359.173
X3.55 Y359.651
X4.067 Y360.21
X4.669 Y360.903
X5.431 Y361.836
X6.164 Y362.791
X6.878 Y363.761
X7.582 Y364.737
X8.284 Y365.716
X8.991 Y366.69
X9.708 Y367.658
X10.44 Y368.615
X11.189 Y369.557
X11.96 Y370.482
X12.753 Y371.388
X13.57 Y372.273
X14.413 Y373.133
X15.28 Y373.968
X16.174 Y374.776
X17.092 Y375.555
X18.034 Y376.305
X18.999 Y377.025
X19.987 Y377.714
X20.995 Y378.372
X22.023 Y378.998
X23.07 Y379.594
X24.134 Y380.157
X25.214 Y380.69
X26.309 Y381.192
X27.416 Y381.664
X28.537 Y382.106
X29.668 Y382.519
X30.808 Y382.904
X31.958 Y383.262
X33.116 Y383.595
X34.28 Y383.902
X35.45 Y384.185
X36.626 Y384.446
X37.806 Y384.686
X38.99 Y384.905
X40.177 Y385.106
X41.367 Y385.289
X42.56 Y385.455
X43.755 Y385.606
X44.951 Y385.743
X46.149 Y385.867
X47.348 Y385.978
X48.548 Y386.079
X49.748 Y386.169
X50.95 Y386.25
X52.152 Y386.323
X53.354 Y386.388
X54.557 Y386.446
X55.76 Y386.497
X56.963 Y386.544
X58.167 Y386.584
X59.37 Y386.621
X60.574 Y386.653
X61.778 Y386.682
X62.982 Y386.707
X64.186 Y386.729
X65.39 Y386.749
X66.594 Y386.766
X67.798 Y386.782
X69.002 Y386.795
X70.206 Y386.807
X71.41 Y386.818
X72.614 Y386.827
X73.819 Y386.835
X75.023 Y386.842
X76.227 Y386.848
X77.431 Y386.853
X78.635 Y386.858
X79.839 Y386.862
X82.248 Y386.869
X84.656 Y386.874
X87.064 Y386.878
X88.268 Y386.88
X91.881 Y386.883
X96.698 Y386.886
X103.923 Y386.888
X117.168 Y386.89
X138.843
X189.418
X239.993
X290.568
X341.142
X391.717
X437.475
X439.884 Y386.889
X441.088 Y386.888
X442.292 Y386.886
X443.496 Y386.882
X444.7 Y386.875
X445.905 Y386.863
X447.109 Y386.843
X448.312 Y386.813
X449.516 Y386.768
X450.718 Y386.703
X451.919 Y386.613
X453.117 Y386.493
X454.311 Y386.337
X455.499 Y386.14
X456.679 Y385.9
X457.848 Y385.612
X459.004 Y385.275
X460.144 Y384.887
X461.265 Y384.447
X462.365 Y383.957
X463.44 Y383.415
X464.489 Y382.824
X465.51 Y382.184
X466.5 Y381.499
X467.458 Y380.77
X468.384 Y380
X469.277 Y379.192
X470.137 Y378.349
X470.963 Y377.473
X471.758 Y376.568
X472.521 Y375.637
X473.254 Y374.682
X473.959 Y373.706
X474.639 Y372.712
X475.295 Y371.702
X475.931 Y370.679
X476.55 Y369.646
X477.154 Y368.605
X477.749 Y367.558
X478.338 Y366.508
X478.926 Y365.457
X479.517 Y364.407
X480.116 Y363.363
X480.731 Y362.328
X481.366 Y361.305
X481.951 Y360.418
X482.453 Y359.705
X482.898 Y359.113
X483.297 Y358.615
X483.638 Y358.215
X483.962 Y357.858
X484.229 Y357.581
X484.495 Y357.32
X484.746 Y357.09
X484.966 Y356.9
X485.19 Y356.72
X485.25 Y356.673
X485.608 Y356.437
X485.993 Y356.248
X486.399 Y356.111
X486.82 Y356.028
X487.248 Y356
X489.263
G3 X490.098 Y356.197 I-0.077 J2.199
G1 X490.264 Y356.272 Z-6.242
X490.428 Y356.347 Z-6.22
X490.59 Y356.421 Z-6.183
X490.748 Y356.493 Z-6.131
X490.903 Y356.563 Z-6.065
X491.051 Y356.631 Z-5.985
X491.193 Y356.696 Z-5.892
X491.328 Y356.757 Z-5.786
X491.454 Y356.815 Z-5.669
X491.571 Y356.868 Z-5.54
X491.678 Y356.917 Z-5.401
X491.774 Y356.961 Z-5.253
X491.859 Y356.999 Z-5.097
X491.932 Y357.032 Z-4.934
X491.992 Y357.06 Z-4.764
X492.039 Y357.081 Z-4.59
X492.073 Y357.097 Z-4.412
X492.093 Y357.106 Z-4.232
X492.1 Y357.109 Z-4.05
G0 Z5
X-5.246 Y357.368
Z-1.85
G1 Z-4.05 F850
X-5.24 Y357.364 Z-4.232
X-5.221 Y357.352 Z-4.412
X-5.189 Y357.333 Z-4.59
X-5.144 Y357.307 Z-4.764
X-5.087 Y357.273 Z-4.934
X-5.019 Y357.232 Z-5.097
X-4.938 Y357.185 Z-5.253
X-4.848 Y357.131 Z-5.401
X-4.747 Y357.071 Z-5.54
X-4.636 Y357.005 Z-5.669
X-4.517 Y356.934 Z-5.786
X-4.39 Y356.858 Z-5.892
X-4.255 Y356.779 Z-5.985
X-4.115 Y356.695 Z-6.065
X-3.969 Y356.609 Z-6.131
X-3.82 Y356.519 Z-6.183
X-3.667 Y356.429 Z-6.22
X-3.512 Y356.336 Z-6.242
X-3.355 Y356.243 Z-6.25
G3 X-2.526 Y356 I0.89 J1.496
G1 X-1.256
X-1.065 Y356.01
X-0.945 Y356.019
X-0.815 Y356.034
X-0.671 Y356.054
X-0.52 Y356.081
X-0.359 Y356.114
X-0.182 Y356.156
X0.001 Y356.206
X0.198 Y356.266
X0.412 Y356.338
X0.631 Y356.42
X0.87 Y356.517
X1.123 Y356.63
X1.383 Y356.755
X1.672 Y356.905
X1.965 Y357.069
X2.283 Y357.26
X2.625 Y357.48
X2.98 Y357.724
X3.378 Y358.015
X3.79 Y358.338
X4.252 Y358.723
X4.743 Y359.157
X5.309 Y359.69
X5.978 Y360.361
X6.803 Y361.239
X7.601 Y362.14
X8.382 Y363.057
X9.154 Y363.981
X9.924 Y364.906
X10.697 Y365.83
X11.478 Y366.746
X12.272 Y367.651
X13.081 Y368.543
X13.908 Y369.419
X14.754 Y370.275
X15.621 Y371.111
X16.51 Y371.924
X17.42 Y372.712
X18.352 Y373.475
X19.305 Y374.21
X20.28 Y374.918
X21.275 Y375.596
X22.289 Y376.246
X23.321 Y376.865
X24.371 Y377.455
X25.437 Y378.014
X26.519 Y378.544
X27.614 Y379.043
X28.723 Y379.514
X29.843 Y379.956
X30.974 Y380.37
X32.114 Y380.757
X33.263 Y381.117
X34.42 Y381.452
X35.583 Y381.762
X36.753 Y382.05
X37.927 Y382.315
X39.106 Y382.559
X40.289 Y382.784
X41.476 Y382.99
X42.665 Y383.178
X43.857 Y383.35
X45.051 Y383.506
X46.247 Y383.649
X47.444 Y383.778
X48.642 Y383.895
X49.842 Y384.001
X51.042 Y384.097
X52.243 Y384.183
X53.445 Y384.26
X54.647 Y384.33
X55.85 Y384.392
X57.052 Y384.448
X58.256 Y384.499
X59.459 Y384.543
X60.662 Y384.583
X61.866 Y384.619
X63.07 Y384.65
X64.274 Y384.678
X65.478 Y384.703
X66.681 Y384.726
X67.885 Y384.745
X69.09 Y384.763
X70.294 Y384.778
X71.498 Y384.792
X72.702 Y384.804
X73.906 Y384.814
X75.11 Y384.824
X76.314 Y384.832
X77.518 Y384.839
X78.722 Y384.845
X79.927 Y384.851
X81.131 Y384.856
X82.335 Y384.86
X84.743 Y384.867
X87.152 Y384.873
X89.56 Y384.877
X90.764 Y384.879
X94.377 Y384.882
X99.193 Y384.886
X105.214 Y384.888
X116.051 Y384.889
X141.339 Y384.89
X191.914
X242.488
X293.063
X343.638
X394.213
X433.95
X436.359 Y384.889
X437.563 Y384.888
X438.767 Y384.887
X439.971 Y384.884
X441.175 Y384.878
X442.379 Y384.869
X443.583 Y384.855
X444.787 Y384.833
X445.991 Y384.8
X447.194 Y384.751
X448.396 Y384.682
X449.597 Y384.589
X450.795 Y384.466
X451.989 Y384.309
X453.177 Y384.112
X454.357 Y383.874
X455.527 Y383.591
X456.685 Y383.26
X457.828 Y382.88
X458.953 Y382.451
X460.058 Y381.973
X461.141 Y381.446
X462.199 Y380.871
X463.231 Y380.25
X464.234 Y379.585
X465.209 Y378.877
X466.153 Y378.13
X467.067 Y377.346
X467.951 Y376.528
X468.804 Y375.678
X469.628 Y374.8
X470.423 Y373.896
X471.191 Y372.968
X471.933 Y372.02
X472.653 Y371.055
X473.352 Y370.074
X474.033 Y369.081
X474.699 Y368.078
X475.353 Y367.067
X476 Y366.051
X476.644 Y365.034
X477.289 Y364.017
X477.94 Y363.004
X478.602 Y361.998
X479.282 Y361.004
X479.938 Y360.096
X480.491 Y359.378
X480.973 Y358.789
X481.379 Y358.323
X481.74 Y357.934
X482.057 Y357.613
X482.329 Y357.353
X482.611 Y357.1
X482.856 Y356.894
X483.082 Y356.715
X483.168 Y356.651
X483.522 Y356.422
X483.902 Y356.24
X484.302 Y356.107
X484.716 Y356.027
X485.136 Y356
X487.248
G3 X488.084 Y356.197 I-0.077 J2.199
G1 X488.249 Y356.272 Z-6.242
X488.413 Y356.347 Z-6.22
X488.575 Y356.421 Z-6.183
X488.734 Y356.493 Z-6.131
X488.888 Y356.563 Z-6.065
X489.036 Y356.631 Z-5.985
X489.179 Y356.696 Z-5.892
X489.313 Y356.757 Z-5.786
X489.439 Y356.815 Z-5.669
X489.556 Y356.868 Z-5.54
X489.663 Y356.917 Z-5.401
X489.76 Y356.961 Z-5.253
X489.844 Y356.999 Z-5.097
X489.917 Y357.032 Z-4.934
X489.977 Y357.06 Z-4.764
X490.024 Y357.081 Z-4.59
X490.058 Y357.097 Z-4.412
X490.079 Y357.106 Z-4.232
X490.086 Y357.109 Z-4.05
G0 Z5
X-3.976 Y357.368
Z-1.85
G1 Z-4.05 F850
X-3.969 Y357.364 Z-4.232
X-3.95 Y357.352 Z-4.412
X-3.918 Y357.333 Z-4.59
X-3.873 Y357.307 Z-4.764
X-3.817 Y357.273 Z-4.934
X-3.748 Y357.232 Z-5.097
X-3.668 Y357.185 Z-5.253
X-3.577 Y357.131 Z-5.401
X-3.476 Y357.071 Z-5.54
X-3.366 Y357.005 Z-5.669
X-3.246 Y356.934 Z-5.786
X-3.119 Y356.858 Z-5.892
X-2.985 Y356.779 Z-5.985
X-2.845 Y356.695 Z-6.065
X-2.699 Y356.609 Z-6.131
X-2.549 Y356.519 Z-6.183
X-2.396 Y356.429 Z-6.22
X-2.241 Y356.336 Z-6.242
X-2.085 Y356.243 Z-6.25
G3 X-1.256 Y356 I0.89 J1.496
G1 X0.203
X0.451 Y356.012
X0.58 Y356.023
X0.724 Y356.039
X0.881 Y356.061
X1.045 Y356.09
X1.227 Y356.128
X1.419 Y356.173
X1.623 Y356.229
X1.848 Y356.297
X2.079 Y356.375
X2.333 Y356.47
X2.603 Y356.58
X2.884 Y356.705
X3.198 Y356.856
X3.516 Y357.021
X3.879 Y357.225
X4.246 Y357.445
X4.673 Y357.72
X5.105 Y358.017
X5.599 Y358.379
X6.148 Y358.808
X6.775 Y359.329
X7.539 Y360.007
X8.416 Y360.832
X9.27 Y361.681
X10.111 Y362.543
X10.944 Y363.413
X11.775 Y364.284
X12.61 Y365.152
X13.452 Y366.013
X14.304 Y366.863
X15.17 Y367.7
X16.051 Y368.521
X16.949 Y369.323
X17.864 Y370.105
X18.799 Y370.865
X19.751 Y371.601
X20.723 Y372.313
X21.713 Y372.998
X22.721 Y373.657
X23.747 Y374.288
X24.789 Y374.89
X25.848 Y375.465
X26.921 Y376.011
X28.008 Y376.528
X29.109 Y377.018
X30.221 Y377.479
X31.344 Y377.913
X32.477 Y378.32
X33.62 Y378.701
X34.77 Y379.057
X35.928 Y379.388
X37.092 Y379.696
X38.261 Y379.982
X39.436 Y380.247
X40.615 Y380.491
X41.798 Y380.715
X42.985 Y380.922
X44.174 Y381.111
X45.366 Y381.285
X46.559 Y381.443
X47.755 Y381.588
X48.952 Y381.72
X50.15 Y381.839
X51.349 Y381.948
X52.549 Y382.046
X53.75 Y382.135
X54.952 Y382.215
X56.154 Y382.288
X57.356 Y382.353
X58.559 Y382.412
X59.762 Y382.464
X60.965 Y382.512
X62.168 Y382.554
X63.372 Y382.592
X64.576 Y382.625
X65.779 Y382.656
X66.983 Y382.683
X68.187 Y382.706
X69.391 Y382.728
X70.595 Y382.747
X71.799 Y382.764
X73.003 Y382.778
X74.207 Y382.792
X75.411 Y382.803
X76.616 Y382.814
X77.82 Y382.823
X79.024 Y382.831
X80.228 Y382.838
X81.432 Y382.845
X82.636 Y382.85
X83.84 Y382.855
X85.045 Y382.859
X87.453 Y382.866
X89.861 Y382.872
X92.27 Y382.876
X93.474 Y382.878
X97.086 Y382.882
X101.903 Y382.885
X107.924 Y382.888
X117.557 Y382.889
X144.049 Y382.89
X194.623
X245.198
X295.773
X346.348
X396.923
X430.639
X433.047 Y382.889
X434.252 Y382.888
X435.456 Y382.887
X436.66 Y382.884
X437.864 Y382.88
X439.068 Y382.873
X440.272 Y382.862
X441.476 Y382.844
X442.68 Y382.818
X443.884 Y382.78
X445.087 Y382.726
X446.289 Y382.651
X447.489 Y382.551
X448.686 Y382.422
X449.879 Y382.259
X451.066 Y382.059
X452.246 Y381.818
X453.416 Y381.533
X454.574 Y381.203
X455.718 Y380.826
X456.845 Y380.402
X457.953 Y379.932
X459.041 Y379.414
X460.105 Y378.851
X461.145 Y378.244
X462.159 Y377.594
X463.146 Y376.904
X464.105 Y376.177
X465.036 Y375.413
X465.94 Y374.617
X466.816 Y373.791
X467.665 Y372.937
X468.488 Y372.058
X469.286 Y371.157
X470.062 Y370.236
X470.818 Y369.299
X471.556 Y368.347
X472.279 Y367.384
X472.989 Y366.412
X473.691 Y365.433
X474.389 Y364.452
X475.086 Y363.47
X475.787 Y362.491
X476.498 Y361.519
X477.224 Y360.558
X477.934 Y359.663
X478.523 Y358.966
X479.021 Y358.412
X479.426 Y357.988
X479.79 Y357.63
X480.089 Y357.354
X480.395 Y357.088
X480.659 Y356.872
X480.901 Y356.686
X480.991 Y356.621
X481.339 Y356.402
X481.712 Y356.228
X482.104 Y356.102
X482.508 Y356.026
X482.919 Y356
X485.136
G3 X485.972 Y356.197 I-0.077 J2.199
G1 X486.137 Y356.272 Z-6.242
X486.301 Y356.347 Z-6.22
X486.463 Y356.421 Z-6.183
X486.622 Y356.493 Z-6.131
X486.776 Y356.563 Z-6.065
X486.925 Y356.631 Z-5.985
X487.067 Y356.696 Z-5.892
X487.201 Y356.757 Z-5.786
X487.328 Y356.815 Z-5.669
X487.445 Y356.868 Z-5.54
X487.552 Y356.917 Z-5.401
X487.648 Y356.961 Z-5.253
X487.732 Y356.999 Z-5.097
X487.805 Y357.032 Z-4.934
X487.865 Y357.06 Z-4.764
X487.912 Y357.081 Z-4.59
X487.946 Y357.097 Z-4.412
X487.967 Y357.106 Z-4.232
X487.974 Y357.109 Z-4.05
G0 Z5
X-2.517 Y357.368
Z-1.85
G1 Z-4.05 F850
X-2.51 Y357.364 Z-4.232
X-2.491 Y357.352 Z-4.412
X-2.459 Y357.333 Z-4.59
X-2.414 Y357.307 Z-4.764
X-2.357 Y357.273 Z-4.934
X-2.289 Y357.232 Z-5.097
X-2.209 Y357.185 Z-5.253
X-2.118 Y357.131 Z-5.401
X-2.017 Y357.071 Z-5.54
X-1.906 Y357.005 Z-5.669
X-1.787 Y356.934 Z-5.786
X-1.66 Y356.858 Z-5.892
X-1.526 Y356.779 Z-5.985
X-1.385 Y356.695 Z-6.065
X-1.24 Y356.609 Z-6.131
X-1.09 Y356.519 Z-6.183
X-0.937 Y356.429 Z-6.22
X-0.782 Y356.336 Z-6.242
X-0.626 Y356.243 Z-6.25
G3 X0.203 Y356 I0.89 J1.496
G1 X1.85
X2.088 Y356.012
X2.237 Y356.024
X2.396 Y356.042
X2.564 Y356.066
X2.755 Y356.099
X2.952 Y356.14
X3.17 Y356.192
X3.403 Y356.255
X3.65 Y356.33
X3.926 Y356.423
X4.207 Y356.528
X4.528 Y356.659
X4.853 Y356.803
X5.23 Y356.985
X5.611 Y357.183
X6.056 Y357.432
X6.514 Y357.707
X7.041 Y358.046
X7.636 Y358.455
X8.325 Y358.96
X9.178 Y359.627
X10.104 Y360.398
X11.011 Y361.19
X11.905 Y361.996
X12.793 Y362.809
X13.68 Y363.624
X14.57 Y364.435
X15.466 Y365.24
X16.371 Y366.034
X17.287 Y366.816
X18.216 Y367.582
X19.159 Y368.33
X20.118 Y369.058
X21.093 Y369.765
X22.084 Y370.45
X23.091 Y371.11
X24.114 Y371.746
X25.152 Y372.356
X26.205 Y372.94
X27.272 Y373.497
X28.353 Y374.027
X29.447 Y374.531
X30.553 Y375.009
X31.669 Y375.459
X32.796 Y375.884
X33.932 Y376.284
X35.076 Y376.658
X36.228 Y377.009
X37.387 Y377.336
X38.552 Y377.641
X39.723 Y377.924
X40.898 Y378.186
X42.077 Y378.429
X43.26 Y378.654
X44.447 Y378.86
X45.636 Y379.05
X46.827 Y379.225
X48.021 Y379.385
X49.216 Y379.531
X50.413 Y379.665
X51.611 Y379.787
X52.81 Y379.898
X54.009 Y379.998
X55.21 Y380.09
X56.411 Y380.173
X57.613 Y380.248
X58.816 Y380.315
X60.018 Y380.376
X61.221 Y380.431
X62.424 Y380.481
X63.628 Y380.525
X64.831 Y380.565
X66.035 Y380.601
X67.238 Y380.633
X68.442 Y380.662
X69.646 Y380.687
X70.85 Y380.71
X72.054 Y380.731
X73.258 Y380.749
X74.462 Y380.765
X75.666 Y380.78
X76.87 Y380.792
X78.074 Y380.804
X79.279 Y380.814
X80.483 Y380.823
X81.687 Y380.831
X82.891 Y380.838
X84.095 Y380.844
X85.299 Y380.85
X86.503 Y380.854
X87.708 Y380.859
X90.116 Y380.866
X92.524 Y380.871
X94.933 Y380.876
X96.137 Y380.878
X99.749 Y380.882
X104.566 Y380.885
X110.587 Y380.888
X120.22 Y380.889
X144.303 Y380.89
X146.712
X197.286
X247.861
X298.436
X349.011
X399.586
X427.281
X429.69 Y380.889
X430.894
X432.098 Y380.887
X433.302 Y380.885
X434.506 Y380.882
X435.71 Y380.876
X436.915 Y380.868
X438.119 Y380.854
X439.323 Y380.834
X440.526 Y380.805
X441.73 Y380.763
X442.933 Y380.705
X444.134 Y380.626
X445.334 Y380.523
X446.531 Y380.392
X447.724 Y380.227
X448.911 Y380.026
X450.091 Y379.787
X451.262 Y379.506
X452.422 Y379.182
X453.568 Y378.813
X454.699 Y378.399
X455.812 Y377.941
X456.907 Y377.438
X457.98 Y376.891
X459.03 Y376.303
X460.057 Y375.674
X461.059 Y375.006
X462.036 Y374.302
X462.987 Y373.563
X463.912 Y372.793
X464.812 Y371.993
X465.688 Y371.167
X466.541 Y370.316
X467.372 Y369.445
X468.182 Y368.554
X468.975 Y367.648
X469.752 Y366.728
X470.517 Y365.798
X471.272 Y364.86
X472.021 Y363.917
X472.767 Y362.972
X473.516 Y362.029
X474.272 Y361.092
X475.042 Y360.165
X475.817 Y359.272
X476.447 Y358.59
X476.931 Y358.097
X477.363 Y357.683
X477.703 Y357.377
X478.034 Y357.097
X478.325 Y356.865
X478.585 Y356.672
X478.693 Y356.596
X479.036 Y356.386
X479.403 Y356.219
X479.787 Y356.098
X480.183 Y356.025
X480.585 Y356
X482.919
G3 X483.754 Y356.197 I-0.077 J2.199
G1 X483.919 Y356.272 Z-6.242
X484.084 Y356.347 Z-6.22
X484.246 Y356.421 Z-6.183
X484.404 Y356.493 Z-6.131
X484.558 Y356.563 Z-6.065
X484.707 Y356.631 Z-5.985
X484.849 Y356.696 Z-5.892
X484.984 Y356.757 Z-5.786
X485.11 Y356.815 Z-5.669
X485.227 Y356.868 Z-5.54
X485.334 Y356.917 Z-5.401
X485.43 Y356.961 Z-5.253
X485.515 Y356.999 Z-5.097
X485.587 Y357.032 Z-4.934
X485.648 Y357.06 Z-4.764
X485.695 Y357.081 Z-4.59
X485.729 Y357.097 Z-4.412
X485.749 Y357.106 Z-4.232
X485.756 Y357.109 Z-4.05
G0 Z5
X-0.87 Y357.368
Z-1.85
G1 Z-4.05 F850
X-0.864 Y357.364 Z-4.232
X-0.844 Y357.352 Z-4.412
X-0.812 Y357.333 Z-4.59
X-0.768 Y357.307 Z-4.764
X-0.711 Y357.273 Z-4.934
X-0.642 Y357.232 Z-5.097
X-0.562 Y357.185 Z-5.253
X-0.471 Y357.131 Z-5.401
X-0.37 Y357.071 Z-5.54
X-0.26 Y357.005 Z-5.669
X-0.141 Y356.934 Z-5.786
X-0.013 Y356.858 Z-5.892
X0.121 Y356.779 Z-5.985
X0.261 Y356.695 Z-6.065
X0.407 Y356.609 Z-6.131
X0.557 Y356.519 Z-6.183
X0.71 Y356.429 Z-6.22
X0.865 Y356.336 Z-6.242
X1.021 Y356.243 Z-6.25
G3 X1.85 Y356 I0.89 J1.496
G1 X3.642
X3.895 Y356.013
X4.055 Y356.026
X4.234 Y356.046
X4.429 Y356.073
X4.634 Y356.109
X4.867 Y356.157
X5.107 Y356.214
X5.381 Y356.289
X5.662 Y356.374
X5.985 Y356.484
X6.316 Y356.607
X6.703 Y356.765
X7.094 Y356.939
X7.552 Y357.159
X8.033 Y357.409
X8.586 Y357.718
X9.218 Y358.098
X9.96 Y358.575
X10.892 Y359.216
X11.863 Y359.928
X12.817 Y360.662
X13.761 Y361.41
X14.699 Y362.165
X15.635 Y362.922
X16.574 Y363.676
X17.518 Y364.424
X18.47 Y365.162
X19.43 Y365.888
X20.402 Y366.598
X21.387 Y367.292
X22.384 Y367.967
X23.395 Y368.622
X24.419 Y369.255
X25.457 Y369.865
X26.508 Y370.452
X27.573 Y371.015
X28.65 Y371.553
X29.739 Y372.067
X30.84 Y372.555
X31.951 Y373.019
X33.073 Y373.457
X34.203 Y373.872
X35.342 Y374.262
X36.489 Y374.629
X37.643 Y374.973
X38.804 Y375.295
X39.97 Y375.595
X41.141 Y375.875
X42.317 Y376.135
X43.497 Y376.376
X44.68 Y376.599
X45.866 Y376.806
X47.055 Y376.996
X48.247 Y377.171
X49.44 Y377.332
X50.635 Y377.479
X51.832 Y377.614
X53.029 Y377.738
X54.228 Y377.851
X55.428 Y377.953
X56.629 Y378.047
X57.83 Y378.132
X59.031 Y378.209
X60.234 Y378.279
X61.436 Y378.342
X62.639 Y378.399
X63.842 Y378.451
X65.045 Y378.497
X66.249 Y378.539
X67.452 Y378.577
X68.656 Y378.611
X69.86 Y378.641
X71.063 Y378.668
X72.267 Y378.693
X73.471 Y378.715
X74.675 Y378.734
X75.879 Y378.752
X77.083 Y378.767
X78.288 Y378.781
X79.492 Y378.794
X80.696 Y378.805
X81.9 Y378.814
X83.104 Y378.823
X84.308 Y378.831
X85.512 Y378.838
X86.716 Y378.844
X87.921 Y378.849
X89.125 Y378.854
X91.533 Y378.862
X93.941 Y378.868
X96.35 Y378.873
X98.758 Y378.877
X102.37 Y378.881
X107.187 Y378.885
X113.208 Y378.887
X122.841 Y378.889
X145.72 Y378.89
X149.333
X199.908
X250.482
X301.057
X351.632
X402.207
X425.086
X427.494 Y378.889
X428.698 Y378.888
X429.903 Y378.886
X431.107 Y378.884
X432.311 Y378.88
X433.515 Y378.873
X434.719 Y378.863
X435.923 Y378.848
X437.127 Y378.826
X438.331 Y378.794
X439.534 Y378.75
X440.737 Y378.689
X441.938 Y378.609
X443.138 Y378.505
X444.335 Y378.374
X445.528 Y378.211
X446.716 Y378.014
X447.897 Y377.78
X449.07 Y377.507
X450.233 Y377.193
X451.383 Y376.836
X452.519 Y376.437
X453.639 Y375.995
X454.741 Y375.51
X455.824 Y374.984
X456.887 Y374.418
X457.928 Y373.813
X458.946 Y373.17
X459.942 Y372.492
X460.914 Y371.781
X461.862 Y371.04
X462.788 Y370.27
X463.692 Y369.474
X464.575 Y368.656
X465.439 Y367.816
X466.284 Y366.959
X467.114 Y366.086
X467.93 Y365.201
X468.736 Y364.306
X469.534 Y363.405
X471.123 Y361.595
X471.922 Y360.694
X472.733 Y359.804
X473.561 Y358.929
X474.22 Y358.274
X474.727 Y357.799
X475.141 Y357.434
X475.5 Y357.138
X475.831 Y356.88
X476.113 Y356.675
X476.26 Y356.575
X476.687 Y356.328
X477.147 Y356.147
X477.628 Y356.037
X478.12 Y356
X480.585
G3 X481.42 Y356.197 I-0.077 J2.199
G1 X481.586 Y356.272 Z-6.242
X481.75 Y356.347 Z-6.22
X481.912 Y356.421 Z-6.183
X482.07 Y356.493 Z-6.131
X482.224 Y356.563 Z-6.065
X482.373 Y356.631 Z-5.985
X482.515 Y356.696 Z-5.892
X482.65 Y356.757 Z-5.786
X482.776 Y356.815 Z-5.669
X482.893 Y356.868 Z-5.54
X483 Y356.917 Z-5.401
X483.096 Y356.961 Z-5.253
X483.181 Y356.999 Z-5.097
X483.254 Y357.032 Z-4.934
X483.314 Y357.06 Z-4.764
X483.361 Y357.081 Z-4.59
X483.395 Y357.097 Z-4.412
X483.415 Y357.106 Z-4.232
X483.422 Y357.109 Z-4.05
G0 Z5
X0.922 Y357.368
Z-1.85
G1 Z-4.05 F850
X0.929 Y357.364 Z-4.232
X0.948 Y357.352 Z-4.412
X0.98 Y357.333 Z-4.59
X1.025 Y357.307 Z-4.764
X1.082 Y357.273 Z-4.934
X1.15 Y357.232 Z-5.097
X1.23 Y357.185 Z-5.253
X1.321 Y357.131 Z-5.401
X1.422 Y357.071 Z-5.54
X1.533 Y357.005 Z-5.669
X1.652 Y356.934 Z-5.786
X1.779 Y356.858 Z-5.892
X1.913 Y356.779 Z-5.985
X2.054 Y356.695 Z-6.065
X2.199 Y356.609 Z-6.131
X2.349 Y356.519 Z-6.183
X2.502 Y356.429 Z-6.22
X2.657 Y356.336 Z-6.242
X2.813 Y356.243 Z-6.25
G3 X3.642 Y356 I0.89 J1.496
G1 X5.622
X5.892 Y356.013
X6.078 Y356.029
X6.275 Y356.051
X6.496 Y356.082
X6.734 Y356.124
X6.997 Y356.178
X7.281 Y356.246
X7.596 Y356.331
X7.933 Y356.434
X8.32 Y356.565
X8.72 Y356.714
X9.184 Y356.903
X9.682 Y357.124
X10.253 Y357.399
X10.912 Y357.742
X11.693 Y358.179
X12.682 Y358.772
X13.694 Y359.424
X14.692 Y360.097
X15.681 Y360.786
X16.663 Y361.482
X17.644 Y362.18
X18.627 Y362.876
X19.614 Y363.566
X20.607 Y364.247
X21.607 Y364.917
X22.617 Y365.573
X23.637 Y366.213
X24.668 Y366.835
X25.711 Y367.438
X26.765 Y368.02
X27.83 Y368.582
X28.906 Y369.122
X29.994 Y369.639
X31.092 Y370.133
X32.2 Y370.604
X33.317 Y371.053
X34.444 Y371.478
X35.579 Y371.88
X36.722 Y372.26
X37.872 Y372.617
X39.028 Y372.954
X40.19 Y373.269
X41.358 Y373.564
X42.53 Y373.839
X43.706 Y374.095
X44.887 Y374.334
X46.07 Y374.555
X47.257 Y374.76
X48.446 Y374.949
X49.637 Y375.124
X50.831 Y375.285
X52.026 Y375.433
X53.222 Y375.569
X54.42 Y375.694
X55.619 Y375.808
X56.818 Y375.912
X58.019 Y376.008
X59.22 Y376.094
X60.421 Y376.173
X61.623 Y376.245
X62.826 Y376.31
X64.029 Y376.369
X65.231 Y376.422
X66.435 Y376.471
X67.638 Y376.514
X68.842 Y376.554
X70.045 Y376.589
X71.249 Y376.621
X72.453 Y376.65
X73.657 Y376.676
X74.861 Y376.699
X76.065 Y376.72
X77.269 Y376.738
X78.473 Y376.755
X79.677 Y376.77
X80.881 Y376.783
X82.085 Y376.795
X83.289 Y376.806
X84.493 Y376.815
X85.697 Y376.824
X86.901 Y376.831
X88.106 Y376.838
X89.31 Y376.844
X90.514 Y376.849
X91.718 Y376.854
X94.126 Y376.862
X96.535 Y376.868
X98.943 Y376.873
X102.555 Y376.878
X106.168 Y376.882
X110.985 Y376.885
X118.21 Y376.888
X129.047 Y376.889
X153.13 Y376.89
X203.705
X254.28
X304.855
X355.43
X406.004
X421.658
X424.067 Y376.889
X426.475 Y376.887
X427.679 Y376.885
X428.883 Y376.882
X430.088 Y376.877
X431.292 Y376.87
X432.496 Y376.858
X433.7 Y376.842
X434.904 Y376.819
X436.107 Y376.785
X437.311 Y376.74
X438.513 Y376.679
X439.715 Y376.599
X440.915 Y376.496
X442.112 Y376.367
X443.306 Y376.209
X444.495 Y376.019
X445.677 Y375.793
X446.853 Y375.53
X448.018 Y375.229
X449.173 Y374.888
X450.315 Y374.506
X451.443 Y374.083
X452.554 Y373.62
X453.648 Y373.117
X454.724 Y372.575
X455.78 Y371.996
X456.815 Y371.381
X457.83 Y370.733
X458.823 Y370.052
X459.795 Y369.342
X460.747 Y368.604
X461.679 Y367.841
X462.592 Y367.056
X463.488 Y366.251
X464.367 Y365.429
X465.233 Y364.592
X466.087 Y363.744
X466.933 Y362.886
X467.774 Y362.024
X468.612 Y361.16
X469.453 Y360.298
X470.304 Y359.446
X471.169 Y358.608
X471.835 Y357.998
X472.374 Y357.534
X472.79 Y357.197
X473.144 Y356.928
X473.498 Y356.676
X473.68 Y356.555
X474.102 Y356.316
X474.555 Y356.142
X475.028 Y356.036
X475.511 Y356
X478.12
G3 X478.956 Y356.197 I-0.077 J2.199
G1 X479.121 Y356.272 Z-6.242
X479.285 Y356.347 Z-6.22
X479.447 Y356.421 Z-6.183
X479.606 Y356.493 Z-6.131
X479.76 Y356.563 Z-6.065
X479.909 Y356.631 Z-5.985
X480.051 Y356.696 Z-5.892
X480.186 Y356.757 Z-5.786
X480.312 Y356.815 Z-5.669
X480.429 Y356.868 Z-5.54
X480.536 Y356.917 Z-5.401
X480.632 Y356.961 Z-5.253
X480.717 Y356.999 Z-5.097
X480.789 Y357.032 Z-4.934
X480.849 Y357.06 Z-4.764
X480.897 Y357.081 Z-4.59
X480.931 Y357.097 Z-4.412
X480.951 Y357.106 Z-4.232
X480.958 Y357.109 Z-4.05
G0 Z5
X2.902 Y357.368
Z-1.85
G1 Z-4.05 F850
X2.909 Y357.364 Z-4.232
X2.928 Y357.352 Z-4.412
X2.96 Y357.333 Z-4.59
X3.005 Y357.307 Z-4.764
X3.062 Y357.273 Z-4.934
X3.13 Y357.232 Z-5.097
X3.21 Y357.185 Z-5.253
X3.301 Y357.131 Z-5.401
X3.402 Y357.071 Z-5.54
X3.513 Y357.005 Z-5.669
X3.632 Y356.934 Z-5.786
X3.759 Y356.858 Z-5.892
X3.893 Y356.779 Z-5.985
X4.034 Y356.695 Z-6.065
X4.179 Y356.609 Z-6.131
X4.329 Y356.519 Z-6.183
X4.482 Y356.429 Z-6.22
X4.637 Y356.336 Z-6.242
X4.793 Y356.243 Z-6.25
G3 X5.622 Y356 I0.89 J1.496
G1 X7.79
X8.135 Y356.017
X8.335 Y356.034
X8.572 Y356.06
X8.816 Y356.095
X9.103 Y356.145
X9.399 Y356.206
X9.742 Y356.288
X10.116 Y356.389
X10.524 Y356.513
X10.983 Y356.668
X11.496 Y356.86
X12.072 Y357.095
X12.747 Y357.395
X13.554 Y357.783
X14.577 Y358.315
X15.628 Y358.903
X16.665 Y359.514
X17.693 Y360.141
X18.716 Y360.776
X19.737 Y361.415
X20.759 Y362.052
X21.784 Y362.684
X22.814 Y363.308
X23.849 Y363.922
X24.893 Y364.523
X25.945 Y365.109
X27.006 Y365.679
X28.076 Y366.231
X29.156 Y366.764
X30.245 Y367.277
X31.343 Y367.771
X32.451 Y368.243
X33.567 Y368.695
X34.692 Y369.125
X35.824 Y369.534
X36.964 Y369.922
X38.111 Y370.289
X39.264 Y370.636
X40.424 Y370.962
X41.588 Y371.269
X42.757 Y371.556
X43.931 Y371.825
X45.109 Y372.076
X46.29 Y372.31
X47.474 Y372.528
X48.661 Y372.73
X49.851 Y372.918
X51.042 Y373.091
X52.236 Y373.251
X53.431 Y373.399
X54.628 Y373.535
X55.825 Y373.66
X57.024 Y373.774
X58.223 Y373.879
X59.424 Y373.975
X60.625 Y374.063
X61.826 Y374.143
X63.028 Y374.216
X64.231 Y374.282
X65.433 Y374.343
X66.636 Y374.397
X67.839 Y374.447
X69.043 Y374.492
X70.246 Y374.533
