%
(1001)
(crosssupportstenoncheeks_ z0 stock top_Near)
(T2  D=6 CR=0 - ZMIN=-6.25 - flat end mill)
G90 G94
G17
G21

(2D Adaptive1_near)
M9
T2 M6
S6500 M3
G54
M9
G0 X499.82 Y16.381
Z15
Z5
Z-5.05
G1 Z-5.65 F850
X499.813 Y16.383 Z-5.744
X499.792 Y16.389 Z-5.835
X499.757 Y16.398 Z-5.922
X499.709 Y16.41 Z-6.003
X499.65 Y16.425 Z-6.074
X499.581 Y16.443 Z-6.135
X499.503 Y16.463 Z-6.185
X499.419 Y16.484 Z-6.221
X499.33 Y16.507 Z-6.243
X499.239 Y16.53 Z-6.25
G3 X495.973 Y17 I-3.801 J-14.839
G1 X495.866
X495.847 Y16.999
X495.795 Y16.944
X495.733 Y16.872
X495.663 Y16.779
X495.585 Y16.662
X495.498 Y16.515
X495.403 Y16.332
X495.3 Y16.103
X495.19 Y15.815
X495.073 Y15.449
X494.949 Y14.97
X494.826 Y14.355
X494.736 Y13.733
X494.67 Y13.109
X494.621 Y12.483
X494.583 Y11.856
X494.556 Y11.229
X494.535 Y10.601
X494.519 Y9.973
X494.507 Y9.346
X494.498 Y8.718
X494.491 Y8.09
X494.486 Y7.462
X494.482 Y6.834
X494.479 Y6.206
X494.477 Y5.578
X494.475 Y4.861
X494.51 Y4.498
X494.615 Y4.149
X494.787 Y3.828
X495.018 Y3.545
X495.3 Y3.314
X495.621 Y3.142
X495.97 Y3.036
X496.333 Y3
G3 X496.561 Y3.054 I-0.021 J0.6
X496.911 Y3.621 I-0.249 J0.546
G1 X496.445 Y16.422
G3 X496.094 Y16.946 I-0.6 J-0.022
X495.866 Y17 I-0.249 J-0.546
G1 X495.469
X495.394 Y16.996
X495.307 Y16.942
X495.213 Y16.877
X495.11 Y16.796
X495.006 Y16.704
X494.887 Y16.587
X494.771 Y16.459
X494.644 Y16.301
X494.51 Y16.115
X494.376 Y15.904
X494.233 Y15.65
X494.089 Y15.354
X493.94 Y15.001
X493.787 Y14.57
X493.631 Y14.038
X493.488 Y13.427
X493.377 Y12.809
X493.29 Y12.187
X493.221 Y11.563
X493.167 Y10.937
X493.125 Y10.311
X493.091 Y9.684
X493.065 Y9.056
X493.044 Y8.429
X493.028 Y7.801
X493.016 Y7.173
X493.009 Y6.545
X493.02 Y6.037
X493.054 Y5.614
X493.098 Y5.29
X493.159 Y4.976
X493.221 Y4.731
X493.303 Y4.468
X493.368 Y4.295
X493.518 Y3.983
X493.718 Y3.702
X493.964 Y3.46
X494.248 Y3.263
X494.562 Y3.118
X494.896 Y3.03
X495.24 Y3
G3 X495.468 Y3.054 I-0.021 J0.6
X495.819 Y3.589 I-0.249 J0.546
G1 X496.048 Y16.39
G3 X495.697 Y16.946 I-0.6 J0.011
X495.469 Y17 I-0.249 J-0.546
G1 X494.893
X494.818 Y16.996
X494.724 Y16.964
X494.624 Y16.922
X494.517 Y16.871
X494.402 Y16.807
X494.281 Y16.731
X494.151 Y16.639
X494.017 Y16.532
X493.874 Y16.403
X493.727 Y16.255
X493.571 Y16.081
X493.411 Y15.879
X493.246 Y15.646
X493.076 Y15.374
X492.902 Y15.056
X492.73 Y14.696
X492.551 Y14.262
X492.371 Y13.741
X492.199 Y13.137
X492.06 Y12.525
X491.947 Y11.907
X491.855 Y11.286
X491.781 Y10.663
X491.72 Y10.038
X491.672 Y9.412
X491.632 Y8.785
X491.604 Y8.158
X491.589 Y7.53
X491.597 Y6.902
X491.633 Y6.313
X491.69 Y5.826
X491.763 Y5.402
X491.839 Y5.079
X491.932 Y4.762
X492.022 Y4.509
X492.128 Y4.257
X492.236 Y4.035
X492.243 Y4.023
X492.442 Y3.731
X492.689 Y3.479
X492.977 Y3.274
X493.296 Y3.124
X493.636 Y3.031
X493.988 Y3
G3 X494.216 Y3.054 I-0.021 J0.6
X494.565 Y3.557 I-0.249 J0.546
G1 X495.47 Y16.358
G3 X495.121 Y16.946 I-0.599 J0.042
X494.893 Y17 I-0.249 J-0.546
G1 X494.173
X494.098 Y16.996
X494.009 Y16.98
X493.906 Y16.956
X493.801 Y16.924
X493.683 Y16.882
X493.561 Y16.829
X493.429 Y16.764
X493.289 Y16.684
X493.142 Y16.59
X492.985 Y16.475
X492.826 Y16.345
X492.652 Y16.186
X492.482 Y16.012
X492.294 Y15.796
X492.114 Y15.564
X491.915 Y15.275
X491.726 Y14.965
X491.528 Y14.595
X491.326 Y14.16
X491.124 Y13.652
X490.925 Y13.056
X490.76 Y12.451
X490.622 Y11.838
X490.508 Y11.221
X490.413 Y10.6
X490.336 Y9.977
X490.275 Y9.352
X490.231 Y8.725
X490.207 Y8.098
Y7.47
X490.235 Y6.843
X490.292 Y6.262
X490.369 Y5.766
X490.462 Y5.331
X490.557 Y4.986
X490.662 Y4.671
X490.766 Y4.412
X490.886 Y4.153
X490.939 Y4.055
X491.136 Y3.755
X491.384 Y3.495
X491.675 Y3.284
X491.998 Y3.128
X492.344 Y3.032
X492.702 Y3
G3 X493.277 Y3.531 I-0.021 J0.6
G1 X494.748 Y16.332
G3 X494.173 Y17 I-0.596 J0.069
G1 X493.273
X493.179 Y16.995
X493.082 Y16.985
X492.983 Y16.969
X492.868 Y16.943
X492.75 Y16.91
X492.619 Y16.865
X492.483 Y16.809
X492.335 Y16.738
X492.179 Y16.653
X492.017 Y16.552
X491.841 Y16.429
X491.666 Y16.29
X491.473 Y16.118
X491.285 Y15.931
X491.077 Y15.701
X490.876 Y15.449
X490.661 Y15.148
X490.444 Y14.805
X490.231 Y14.42
X490.011 Y13.965
X489.789 Y13.433
X489.581 Y12.841
X489.405 Y12.238
X489.256 Y11.628
X489.131 Y11.013
X489.029 Y10.393
X488.948 Y9.771
X488.889 Y9.146
X488.853 Y8.519
X488.842 Y7.891
X488.859 Y7.263
X488.907 Y6.647
X488.982 Y6.086
X489.076 Y5.6
X489.174 Y5.206
X489.29 Y4.835
X489.394 Y4.558
X489.519 Y4.275
X489.633 Y4.05
X489.667 Y3.993
X489.867 Y3.709
X490.113 Y3.464
X490.398 Y3.266
X490.713 Y3.12
X491.049 Y3.03
X491.395 Y3
X491.796
G3 X492.372 Y3.531 I-0.021 J0.6
G1 X493.848 Y16.332
G3 X493.501 Y16.946 I-0.596 J0.069
X493.273 Y17 I-0.249 J-0.546
G1 X492.193
X492.063 Y16.994
X491.959 Y16.982
X491.85 Y16.964
X491.726 Y16.937
X491.598 Y16.901
X491.454 Y16.851
X491.308 Y16.792
X491.144 Y16.714
X490.98 Y16.623
X490.799 Y16.511
X490.613 Y16.38
X490.419 Y16.226
X490.212 Y16.042
X490.006 Y15.838
X489.78 Y15.587
X489.564 Y15.317
X489.331 Y14.991
X489.096 Y14.619
X488.867 Y14.205
X488.632 Y13.719
X488.398 Y13.158
X488.19 Y12.565
X488.012 Y11.963
X487.863 Y11.353
X487.74 Y10.737
X487.641 Y10.117
X487.567 Y9.494
X487.518 Y8.868
X487.495 Y8.24
X487.5 Y7.612
X487.536 Y6.985
X487.603 Y6.39
X487.693 Y5.857
X487.799 Y5.391
X487.905 Y5.024
X488.026 Y4.679
X488.136 Y4.413
X488.266 Y4.143
X488.328 Y4.031
X488.527 Y3.737
X488.774 Y3.483
X489.062 Y3.277
X489.382 Y3.125
X489.724 Y3.031
X490.078 Y3
X490.492
G3 X491.066 Y3.521 I-0.021 J0.6
G1 X492.767 Y16.321
G3 X492.421 Y16.946 I-0.595 J0.079
X492.193 Y17 I-0.249 J-0.546
G1 X491.014
X490.879 Y16.993
X490.774 Y16.982
X490.653 Y16.962
X490.528 Y16.934
X490.387 Y16.895
X490.241 Y16.844
X490.082 Y16.779
X489.913 Y16.699
X489.736 Y16.602
X489.543 Y16.482
X489.349 Y16.345
X489.136 Y16.176
X488.927 Y15.991
X488.699 Y15.764
X488.47 Y15.51
X488.234 Y15.215
X487.985 Y14.867
X487.747 Y14.49
X487.504 Y14.052
X487.261 Y13.549
X487.024 Y12.98
X486.816 Y12.387
X486.639 Y11.785
X486.49 Y11.175
X486.369 Y10.559
X486.275 Y9.938
X486.207 Y9.314
X486.166 Y8.687
X486.153 Y8.059
X486.17 Y7.432
X486.218 Y6.806
X486.294 Y6.236
X486.393 Y5.718
X486.502 Y5.282
X486.62 Y4.9
X486.732 Y4.6
X486.857 Y4.315
X486.98 Y4.072
X487.025 Y3.995
X487.225 Y3.711
X487.472 Y3.466
X487.757 Y3.267
X488.072 Y3.12
X488.408 Y3.03
X488.755 Y3
X489.163
G3 X489.736 Y3.514 I-0.021 J0.6
G1 X491.587 Y16.314
G3 X491.014 Y17 I-0.594 J0.086
G1 X489.754
X489.651 Y16.995
X489.542 Y16.983
X489.416 Y16.963
X489.287 Y16.934
X489.139 Y16.892
X488.989 Y16.84
X488.819 Y16.771
X488.649 Y16.69
X488.457 Y16.585
X488.265 Y16.465
X488.057 Y16.319
X487.84 Y16.147
X487.619 Y15.951
X487.378 Y15.712
X487.147 Y15.454
X486.897 Y15.142
X486.645 Y14.789
X486.4 Y14.401
X486.15 Y13.95
X485.903 Y13.44
X485.666 Y12.87
X485.457 Y12.277
X485.281 Y11.675
X485.133 Y11.064
X485.014 Y10.448
X484.923 Y9.827
X484.86 Y9.202
X484.825 Y8.575
X484.819 Y7.947
X484.843 Y7.32
X484.899 Y6.694
X484.98 Y6.14
X485.084 Y5.631
X485.196 Y5.205
X485.316 Y4.835
X485.429 Y4.542
X485.557 Y4.262
X485.681 Y4.025
X485.711 Y3.974
X485.912 Y3.695
X486.158 Y3.455
X486.441 Y3.26
X486.753 Y3.117
X487.086 Y3.03
X487.428 Y3
X487.837
G3 X488.064 Y3.054 I-0.021 J0.6
X488.409 Y3.511 I-0.249 J0.546
G1 X490.326 Y16.311
G3 X489.982 Y16.946 I-0.593 J0.089
X489.754 Y17 I-0.249 J-0.546
G1 X488.494
X488.388 Y16.995
X488.274 Y16.983
X488.148 Y16.962
X488.012 Y16.932
X487.862 Y16.889
X487.707 Y16.836
X487.534 Y16.765
X487.358 Y16.681
X487.161 Y16.573
X486.965 Y16.451
X486.748 Y16.299
X486.531 Y16.127
X486.3 Y15.922
X486.057 Y15.68
X485.817 Y15.414
X485.559 Y15.092
X485.308 Y14.739
X485.056 Y14.341
X484.802 Y13.884
X484.554 Y13.37
X484.317 Y12.8
X484.109 Y12.208
X483.932 Y11.605
X483.786 Y10.995
X483.669 Y10.378
X483.581 Y9.756
X483.522 Y9.131
X483.491 Y8.504
X483.488 Y7.876
X483.517 Y7.249
X483.577 Y6.624
X483.661 Y6.076
X483.768 Y5.574
X483.882 Y5.155
X484.003 Y4.792
X484.117 Y4.504
X484.245 Y4.227
X484.37 Y3.995
X484.391 Y3.96
X484.592 Y3.685
X484.838 Y3.448
X485.12 Y3.256
X485.43 Y3.115
X485.76 Y3.029
X486.099 Y3
X486.526
G3 X486.753 Y3.054 I-0.021 J0.6
X487.098 Y3.508 I-0.249 J0.546
G1 X489.066 Y16.309
G3 X488.722 Y16.946 I-0.593 J0.091
X488.494 Y17 I-0.249 J-0.546
G1 X487.234
X487.1 Y16.993
X486.982 Y16.981
X486.856 Y16.96
X486.716 Y16.929
X486.567 Y16.887
X486.406 Y16.831
X486.233 Y16.761
X486.051 Y16.674
X485.852 Y16.565
X485.652 Y16.441
X485.43 Y16.284
X485.212 Y16.112
X484.974 Y15.901
X484.731 Y15.659
X484.486 Y15.386
X484.223 Y15.058
X483.971 Y14.705
X483.717 Y14.302
X483.461 Y13.841
X483.212 Y13.327
X482.977 Y12.761
X482.768 Y12.168
X482.592 Y11.565
X482.447 Y10.955
X482.332 Y10.337
X482.245 Y9.715
X482.188 Y9.09
X482.159 Y8.463
Y7.835
X482.189 Y7.208
X482.253 Y6.583
X482.339 Y6.039
X482.447 Y5.541
X482.562 Y5.125
X482.683 Y4.767
X482.798 Y4.482
X482.926 Y4.208
X483.051 Y3.977
X483.066 Y3.952
X483.268 Y3.679
X483.513 Y3.444
X483.794 Y3.254
X484.103 Y3.114
X484.432 Y3.029
X484.77 Y3
X485.173
G3 X485.401 Y3.054 I-0.021 J0.6
X485.745 Y3.504 I-0.249 J0.546
G1 X487.806 Y16.305
G3 X487.462 Y16.946 I-0.592 J0.095
X487.234 Y17 I-0.249 J-0.546
G1 X485.974
X485.796 Y16.991
X485.675 Y16.978
X485.549 Y16.957
X485.407 Y16.926
X485.257 Y16.884
X485.094 Y16.827
X484.92 Y16.756
X484.734 Y16.668
X484.535 Y16.559
X484.332 Y16.432
X484.108 Y16.274
X483.888 Y16.1
X483.646 Y15.886
X483.403 Y15.644
X483.154 Y15.368
X482.889 Y15.037
X482.637 Y14.683
X482.381 Y14.278
X482.125 Y13.816
X481.876 Y13.302
X481.642 Y12.739
X481.434 Y12.146
X481.258 Y11.543
X481.113 Y10.932
X480.999 Y10.315
X480.913 Y9.693
X480.856 Y9.068
X480.828 Y8.44
X480.829 Y7.813
X480.861 Y7.185
X480.926 Y6.562
X481.013 Y6.018
X481.122 Y5.524
X481.237 Y5.109
X481.359 Y4.754
X481.473 Y4.471
X481.602 Y4.198
X481.727 Y3.968
X481.739 Y3.948
X481.941 Y3.676
X482.186 Y3.442
X482.466 Y3.253
X482.775 Y3.114
X483.103 Y3.029
X483.44 Y3
X483.857
G3 X484.428 Y3.502 I-0.021 J0.6
G1 X486.545 Y16.302
G3 X485.974 Y17 I-0.592 J0.098
G1 X484.633
X484.486 Y16.993
X484.364 Y16.98
X484.237 Y16.959
X484.093 Y16.927
X483.943 Y16.884
X483.777 Y16.827
X483.604 Y16.756
X483.415 Y16.666
X483.216 Y16.558
X483.01 Y16.429
X482.784 Y16.27
X482.563 Y16.095
X482.319 Y15.878
X482.076 Y15.637
X481.825 Y15.358
X481.559 Y15.026
X481.306 Y14.672
X481.049 Y14.265
X480.792 Y13.802
X480.544 Y13.289
X480.31 Y12.727
X480.102 Y12.134
X479.927 Y11.531
X479.782 Y10.92
X479.668 Y10.303
X479.583 Y9.681
X479.526 Y9.056
X479.499 Y8.428
X479.5 Y7.8
X479.533 Y7.173
X479.598 Y6.551
X479.686 Y6.008
X479.795 Y5.515
X479.911 Y5.101
X480.032 Y4.747
X480.146 Y4.465
X480.275 Y4.192
X480.4 Y3.963
X480.411 Y3.946
X480.613 Y3.675
X480.857 Y3.441
X481.138 Y3.253
X481.446 Y3.114
X481.774 Y3.029
X482.111 Y3
X482.528
G3 X483.099 Y3.502 I-0.021 J0.6
G1 X485.204 Y16.303
G3 X484.633 Y17 I-0.592 J0.097
G1 X483.274
X483.169 Y16.995
X483.046 Y16.982
X482.919 Y16.961
X482.774 Y16.928
X482.624 Y16.886
X482.456 Y16.828
X482.283 Y16.757
X482.092 Y16.667
X481.893 Y16.558
X481.686 Y16.428
X481.46 Y16.269
X481.237 Y16.093
X480.991 Y15.875
X480.748 Y15.634
X480.496 Y15.353
X480.229 Y15.02
X479.977 Y14.666
X479.719 Y14.258
X479.462 Y13.795
X479.214 Y13.281
X478.98 Y12.72
X478.772 Y12.128
X478.597 Y11.525
X478.452 Y10.914
X478.338 Y10.296
X478.253 Y9.674
X478.197 Y9.049
X478.169 Y8.422
X478.171 Y7.794
X478.204 Y7.167
X478.27 Y6.545
X478.358 Y6.002
X478.467 Y5.51
X478.583 Y5.097
X478.704 Y4.744
X478.818 Y4.462
X478.947 Y4.19
X479.072 Y3.961
X479.082 Y3.945
X479.284 Y3.674
X479.528 Y3.441
X479.809 Y3.252
X480.117 Y3.113
X480.444 Y3.029
X480.781 Y3
X481.177
G3 X481.748 Y3.503 I-0.021 J0.6
G1 X483.845 Y16.303
G3 X483.274 Y17 I-0.592 J0.097
G1 X482.014
X481.842 Y16.991
X481.719 Y16.978
X481.592 Y16.957
X481.446 Y16.925
X481.297 Y16.883
X481.129 Y16.825
X480.955 Y16.754
X480.765 Y16.663
X480.566 Y16.554
X480.357 Y16.425
X480.131 Y16.266
X479.908 Y16.089
X479.663 Y15.871
X479.419 Y15.629
X479.167 Y15.348
X478.9 Y15.015
X478.647 Y14.661
X478.389 Y14.253
X478.132 Y13.79
X477.884 Y13.276
X477.651 Y12.715
X477.443 Y12.123
X477.267 Y11.52
X477.123 Y10.909
X477.009 Y10.291
X476.924 Y9.669
X476.868 Y9.044
X476.84 Y8.417
X476.843 Y7.789
X476.876 Y7.162
X476.941 Y6.54
X477.03 Y5.998
X477.138 Y5.506
X477.254 Y5.094
X477.375 Y4.741
X477.49 Y4.46
X477.619 Y4.188
X477.743 Y3.96
X477.753 Y3.945
X477.955 Y3.674
X478.199 Y3.441
X478.48 Y3.252
X478.788 Y3.113
X479.115 Y3.029
X479.452 Y3
X479.872
G3 X480.443 Y3.501 I-0.021 J0.6
G1 X482.585 Y16.301
G3 X482.014 Y17 I-0.592 J0.099
G1 X480.673
X480.519 Y16.992
X480.395 Y16.979
X480.268 Y16.958
X480.122 Y16.926
X479.972 Y16.883
X479.804 Y16.825
X479.63 Y16.754
X479.439 Y16.663
X479.24 Y16.554
X479.031 Y16.424
X478.805 Y16.265
X478.581 Y16.088
X478.335 Y15.869
X478.092 Y15.628
X477.839 Y15.346
X477.572 Y15.013
X477.319 Y14.658
X477.061 Y14.25
X476.803 Y13.787
X476.555 Y13.273
X476.322 Y12.712
X476.114 Y12.12
X475.938 Y11.517
X475.794 Y10.906
X475.68 Y10.288
X475.595 Y9.666
X475.539 Y9.041
X475.512 Y8.414
X475.514 Y7.786
X475.547 Y7.159
X475.613 Y6.538
X475.701 Y5.996
X475.81 Y5.504
X475.926 Y5.093
X476.047 Y4.74
X476.161 Y4.459
X476.29 Y4.187
X476.415 Y3.959
X476.423 Y3.945
X476.625 Y3.674
X476.87 Y3.441
X477.15 Y3.252
X477.459 Y3.113
X477.786 Y3.029
X478.122 Y3
X478.543
G3 X479.114 Y3.501 I-0.021 J0.6
G1 X481.244 Y16.302
G3 X480.673 Y17 I-0.592 J0.098
G1 X479.314
X479.195 Y16.994
X479.071 Y16.981
X478.943 Y16.96
X478.797 Y16.927
X478.647 Y16.885
X478.478 Y16.827
X478.305 Y16.756
X478.113 Y16.664
X477.914 Y16.556
X477.704 Y16.425
X477.478 Y16.266
X477.254 Y16.089
X477.007 Y15.87
X476.764 Y15.628
X476.511 Y15.346
X476.243 Y15.013
X475.99 Y14.658
X475.732 Y14.249
X475.475 Y13.785
X475.226 Y13.271
X474.993 Y12.71
X474.785 Y12.118
X474.609 Y11.515
X474.465 Y10.904
X474.351 Y10.287
X474.266 Y9.664
X474.21 Y9.039
X474.183 Y8.412
X474.185 Y7.784
X474.218 Y7.157
X474.284 Y6.536
X474.372 Y5.994
X474.481 Y5.503
X474.597 Y5.092
X474.718 Y4.739
X474.832 Y4.458
X474.961 Y4.187
X475.086 Y3.959
X475.094 Y3.944
X475.296 Y3.674
X475.541 Y3.441
X475.821 Y3.252
X476.129 Y3.113
X476.456 Y3.029
X476.793 Y3
X477.217
G3 X477.788 Y3.503 I-0.021 J0.6
G1 X479.885 Y16.303
G3 X479.314 Y17 I-0.592 J0.097
G1 X477.973
X477.868 Y16.995
X477.744 Y16.981
X477.616 Y16.961
X477.47 Y16.928
X477.32 Y16.886
X477.151 Y16.827
X476.977 Y16.756
X476.785 Y16.665
X476.586 Y16.556
X476.377 Y16.426
X476.151 Y16.266
X475.926 Y16.089
X475.679 Y15.87
X475.436 Y15.628
X475.183 Y15.346
X474.915 Y15.012
X474.662 Y14.657
X474.404 Y14.248
X474.146 Y13.784
X473.898 Y13.27
X473.664 Y12.709
X473.456 Y12.117
X473.281 Y11.514
X473.136 Y10.903
X473.022 Y10.285
X472.937 Y9.663
X472.881 Y9.038
X472.854 Y8.411
X472.856 Y7.783
X472.889 Y7.156
X472.955 Y6.535
X473.043 Y5.993
X473.152 Y5.503
X473.268 Y5.091
X473.389 Y4.739
X473.503 Y4.458
X473.632 Y4.186
X473.757 Y3.958
X473.765 Y3.944
X473.967 Y3.674
X474.212 Y3.441
X474.492 Y3.252
X474.8 Y3.113
X475.127 Y3.029
X475.464 Y3
X475.868
G3 X476.439 Y3.502 I-0.021 J0.6
G1 X478.544 Y16.303
G3 X477.973 Y17 I-0.592 J0.097
G1 X476.713
X476.536 Y16.991
X476.412 Y16.978
X476.285 Y16.957
X476.139 Y16.924
X475.989 Y16.882
X475.82 Y16.824
X475.647 Y16.753
X475.455 Y16.662
X475.256 Y16.553
X475.047 Y16.423
X474.821 Y16.264
X474.597 Y16.086
X474.35 Y15.867
X474.107 Y15.626
X473.853 Y15.343
X473.586 Y15.01
X473.333 Y14.655
X473.075 Y14.246
X472.817 Y13.783
X472.569 Y13.268
X472.335 Y12.707
X472.127 Y12.115
X471.952 Y11.512
X471.808 Y10.901
X471.693 Y10.284
X471.608 Y9.661
X471.552 Y9.036
X471.525 Y8.409
X471.527 Y7.781
X471.561 Y7.154
X471.626 Y6.534
X471.715 Y5.992
X471.823 Y5.502
X471.939 Y5.091
X472.06 Y4.738
X472.174 Y4.457
X472.303 Y4.186
X472.428 Y3.958
X472.436 Y3.944
X472.638 Y3.673
X472.883 Y3.44
X473.163 Y3.252
X473.471 Y3.113
X473.798 Y3.029
X474.135 Y3
X474.553
G3 X474.781 Y3.054 I-0.021 J0.6
X475.124 Y3.5 I-0.249 J0.546
G1 X477.284 Y16.301
G3 X476.941 Y16.946 I-0.592 J0.1
X476.713 Y17 I-0.249 J-0.546
G1 X475.354
X475.211 Y16.993
X475.087 Y16.98
X474.96 Y16.959
X474.813 Y16.926
X474.663 Y16.884
X474.494 Y16.825
X474.321 Y16.755
X474.129 Y16.663
X473.929 Y16.554
X473.72 Y16.424
X473.494 Y16.264
X473.269 Y16.087
X473.022 Y15.868
X472.779 Y15.626
X472.525 Y15.343
X472.258 Y15.01
X472.005 Y14.655
X471.746 Y14.245
X471.489 Y13.782
X471.24 Y13.267
X471.007 Y12.706
X470.798 Y12.114
X470.623 Y11.511
X470.479 Y10.9
X470.365 Y10.283
X470.28 Y9.66
X470.224 Y9.035
X470.196 Y8.408
X470.199 Y7.78
X470.232 Y7.153
X470.297 Y6.533
X470.386 Y5.992
X470.495 Y5.501
X470.61 Y5.09
X470.731 Y4.738
X470.846 Y4.457
X470.974 Y4.186
X471.099 Y3.958
X471.107 Y3.944
X471.309 Y3.673
X471.554 Y3.44
X471.834 Y3.252
X472.142 Y3.113
X472.469 Y3.029
X472.806 Y3
X473.213
G3 X473.783 Y3.501 I-0.021 J0.6
G1 X475.925 Y16.301
G3 X475.354 Y17 I-0.592 J0.099
G1 X474.014
X473.884 Y16.994
X473.76 Y16.98
X473.632 Y16.959
X473.486 Y16.927
X473.336 Y16.884
X473.166 Y16.826
X472.993 Y16.755
X472.801 Y16.664
X472.602 Y16.555
X472.392 Y16.424
X472.166 Y16.265
X471.941 Y16.087
X471.694 Y15.868
X471.451 Y15.626
X471.197 Y15.343
X470.93 Y15.01
X470.676 Y14.655
X470.418 Y14.245
X470.16 Y13.781
X469.911 Y13.267
X469.678 Y12.706
X469.47 Y12.113
X469.294 Y11.511
X469.15 Y10.899
X469.036 Y10.282
X468.951 Y9.66
X468.895 Y9.035
X468.868 Y8.407
X468.87 Y7.779
X468.903 Y7.152
X468.969 Y6.532
X469.057 Y5.991
X469.166 Y5.501
X469.281 Y5.09
X469.402 Y4.738
X469.517 Y4.457
X469.646 Y4.186
X469.77 Y3.958
X469.778 Y3.944
X469.98 Y3.673
X470.225 Y3.44
X470.505 Y3.252
X470.813 Y3.113
X471.14 Y3.029
X471.477 Y3
X471.884
G3 X472.454 Y3.501 I-0.021 J0.6
G1 X474.584 Y16.302
G3 X474.014 Y17 I-0.592 J0.098
G1 X472.754
X472.551 Y16.99
X472.428 Y16.977
X472.3 Y16.956
X472.154 Y16.923
X472.004 Y16.881
X471.835 Y16.823
X471.662 Y16.752
X471.47 Y16.661
X471.271 Y16.552
X471.062 Y16.421
X470.836 Y16.262
X470.612 Y16.085
X470.365 Y15.865
X470.122 Y15.624
X469.868 Y15.341
X469.6 Y15.008
X469.347 Y14.653
X469.089 Y14.244
X468.831 Y13.78
X468.583 Y13.266
X468.349 Y12.705
X468.141 Y12.112
X467.966 Y11.509
X467.821 Y10.898
X467.707 Y10.281
X467.622 Y9.659
X467.566 Y9.033
X467.539 Y8.406
X467.541 Y7.778
X467.574 Y7.151
X467.64 Y6.531
X467.728 Y5.99
X467.837 Y5.5
X467.953 Y5.089
X468.074 Y4.737
X468.188 Y4.457
X468.317 Y4.185
X468.441 Y3.957
X468.45 Y3.944
X468.651 Y3.673
X468.896 Y3.44
X469.176 Y3.252
X469.485 Y3.113
X469.812 Y3.029
X470.148 Y3
X470.557
G3 X470.785 Y3.054 I-0.021 J0.6
X471.128 Y3.498 I-0.249 J0.546
G1 X473.324 Y16.299
G3 X472.981 Y16.946 I-0.591 J0.101
X472.754 Y17 I-0.249 J-0.546
G1 X471.395
X471.226 Y16.992
X471.102 Y16.978
X470.975 Y16.957
X470.828 Y16.925
X470.678 Y16.882
X470.509 Y16.824
X470.335 Y16.753
X470.143 Y16.662
X469.944 Y16.553
X469.735 Y16.422
X469.508 Y16.263
X469.284 Y16.085
X469.037 Y15.866
X468.794 Y15.624
X468.54 Y15.342
X468.272 Y15.008
X468.019 Y14.653
X467.76 Y14.243
X467.503 Y13.78
X467.254 Y13.265
X467.02 Y12.704
X466.812 Y12.111
X466.637 Y11.509
X466.493 Y10.897
X466.378 Y10.28
X466.293 Y9.658
X466.237 Y9.033
X466.21 Y8.405
X466.212 Y7.777
X466.246 Y7.15
X466.311 Y6.531
X466.4 Y5.99
X466.508 Y5.5
X466.624 Y5.089
X466.745 Y4.737
X466.859 Y4.456
X466.988 Y4.185
X467.112 Y3.957
X467.121 Y3.944
X467.323 Y3.673
X467.567 Y3.44
X467.848 Y3.252
X468.156 Y3.113
X468.483 Y3.029
X468.819 Y3
X469.229
G3 X469.8 Y3.5 I-0.021 J0.6
G1 X471.965 Y16.3
G3 X471.395 Y17 I-0.592 J0.1
G1 X470.054
X469.899 Y16.992
X469.775 Y16.979
X469.647 Y16.958
X469.5 Y16.925
X469.351 Y16.883
X469.181 Y16.825
X469.008 Y16.754
X468.815 Y16.662
X468.616 Y16.553
X468.407 Y16.423
X468.18 Y16.263
X467.956 Y16.086
X467.708 Y15.866
X467.465 Y15.625
X467.211 Y15.342
X466.944 Y15.008
X466.69 Y14.653
X466.432 Y14.243
X466.174 Y13.779
X465.925 Y13.265
X465.692 Y12.704
X465.484 Y12.111
X465.308 Y11.508
X465.164 Y10.897
X465.05 Y10.28
X464.965 Y9.658
X464.909 Y9.032
X464.881 Y8.405
X464.884 Y7.777
X464.917 Y7.15
X464.983 Y6.531
X465.071 Y5.99
X465.18 Y5.499
X465.295 Y5.089
X465.416 Y4.737
X465.53 Y4.456
X465.659 Y4.185
X465.784 Y3.957
X465.792 Y3.944
X465.994 Y3.673
X466.238 Y3.44
X466.519 Y3.252
X466.827 Y3.113
X467.154 Y3.029
X467.49 Y3
X467.894
G3 X468.122 Y3.054 I-0.021 J0.6
X468.464 Y3.5 I-0.249 J0.546
G1 X470.624 Y16.301
G3 X470.054 Y17 I-0.592 J0.1
G1 X468.695
X468.572 Y16.994
X468.448 Y16.981
X468.32 Y16.96
X468.173 Y16.927
X468.023 Y16.885
X467.854 Y16.826
X467.68 Y16.755
X467.488 Y16.664
X467.289 Y16.555
X467.079 Y16.424
X466.853 Y16.265
X466.628 Y16.087
X466.38 Y15.867
X466.137 Y15.626
X465.883 Y15.343
X465.615 Y15.009
X465.362 Y14.654
X465.103 Y14.244
X464.846 Y13.78
X464.597 Y13.265
X464.363 Y12.704
X464.155 Y12.111
X463.98 Y11.508
X463.835 Y10.897
X463.721 Y10.28
X463.636 Y9.658
X463.58 Y9.032
X463.553 Y8.405
X463.555 Y7.777
X463.588 Y7.15
X463.654 Y6.531
X463.742 Y5.99
X463.851 Y5.499
X463.966 Y5.089
X464.087 Y4.737
X464.202 Y4.456
X464.33 Y4.185
X464.455 Y3.957
X464.463 Y3.944
X464.665 Y3.673
X464.91 Y3.44
X465.19 Y3.252
X465.498 Y3.113
X465.825 Y3.029
X466.162 Y3
X466.553
G3 X467.124 Y3.501 I-0.021 J0.6
G1 X469.266 Y16.301
G3 X468.923 Y16.946 I-0.592 J0.099
X468.695 Y17 I-0.249 J-0.546
G1 X467.354
X467.243 Y16.994
X467.119 Y16.981
X466.992 Y16.96
X466.845 Y16.928
X466.695 Y16.885
X466.526 Y16.827
X466.352 Y16.756
X466.16 Y16.664
X465.961 Y16.555
X465.751 Y16.425
X465.524 Y16.265
X465.3 Y16.087
X465.052 Y15.868
X464.809 Y15.626
X464.555 Y15.343
X464.287 Y15.009
X464.034 Y14.654
X463.775 Y14.244
X463.517 Y13.78
X463.268 Y13.265
X463.035 Y12.704
X462.826 Y12.111
X462.651 Y11.509
X462.507 Y10.897
X462.392 Y10.28
X462.307 Y9.658
X462.251 Y9.033
X462.224 Y8.405
X462.226 Y7.777
X462.259 Y7.15
X462.325 Y6.531
X462.413 Y5.99
X462.522 Y5.5
X462.637 Y5.089
X462.758 Y4.737
X462.873 Y4.457
X463.002 Y4.185
X463.126 Y3.958
X463.134 Y3.944
X463.336 Y3.673
X463.581 Y3.44
X463.861 Y3.252
X464.169 Y3.113
X464.496 Y3.029
X464.833 Y3
X465.248
G3 X465.819 Y3.502 I-0.021 J0.6
G1 X467.925 Y16.303
G3 X467.354 Y17 I-0.592 J0.097
G1 X466.094
X465.91 Y16.991
X465.786 Y16.978
X465.659 Y16.957
X465.513 Y16.924
X465.363 Y16.882
X465.194 Y16.824
X465.021 Y16.753
X464.829 Y16.661
X464.63 Y16.552
X464.42 Y16.422
X464.194 Y16.263
X463.969 Y16.085
X463.722 Y15.866
X463.479 Y15.624
X463.225 Y15.341
X462.958 Y15.008
X462.704 Y14.653
X462.446 Y14.243
X462.188 Y13.779
X461.939 Y13.264
X461.706 Y12.703
X461.498 Y12.111
X461.322 Y11.508
X461.178 Y10.897
X461.064 Y10.279
X460.979 Y9.657
X460.922 Y9.032
X460.895 Y8.404
X460.897 Y7.777
X460.931 Y7.15
X460.996 Y6.53
X461.085 Y5.989
X461.193 Y5.499
X461.309 Y5.089
X461.43 Y4.737
X461.544 Y4.456
X461.673 Y4.185
X461.797 Y3.957
X461.805 Y3.944
X462.007 Y3.673
X462.252 Y3.44
X462.532 Y3.252
X462.84 Y3.113
X463.167 Y3.029
X463.504 Y3
X463.897
G3 X464.125 Y3.054 I-0.021 J0.6
X464.468 Y3.498 I-0.249 J0.546
G1 X466.664 Y16.299
G3 X466.094 Y17 I-0.591 J0.101
G1 X464.735
X464.585 Y16.992
X464.461 Y16.979
X464.333 Y16.958
X464.186 Y16.926
X464.037 Y16.883
X463.867 Y16.825
X463.694 Y16.754
X463.501 Y16.662
X463.302 Y16.554
X463.092 Y16.423
X462.866 Y16.264
X462.641 Y16.086
X462.394 Y15.866
X462.151 Y15.625
X461.897 Y15.342
X461.629 Y15.008
X461.376 Y14.653
X461.117 Y14.243
X460.859 Y13.779
X460.611 Y13.264
X460.377 Y12.703
X460.169 Y12.11
X459.993 Y11.508
X459.849 Y10.896
X459.735 Y10.279
X459.65 Y9.657
X459.594 Y9.032
X459.567 Y8.404
X459.569 Y7.776
X459.602 Y7.149
X459.668 Y6.53
X459.756 Y5.989
X459.865 Y5.499
X459.98 Y5.089
X460.101 Y4.737
X460.215 Y4.456
X460.344 Y4.185
X460.469 Y3.957
X460.477 Y3.944
X460.679 Y3.673
X460.923 Y3.44
X461.204 Y3.252
X461.512 Y3.113
X461.839 Y3.029
X462.175 Y3
X462.593
G3 X463.164 Y3.501 I-0.021 J0.6
G1 X465.306 Y16.301
G3 X464.963 Y16.946 I-0.592 J0.099
X464.735 Y17 I-0.249 J-0.546
G1 X463.394
X463.257 Y16.993
X463.133 Y16.98
X463.005 Y16.959
X462.858 Y16.926
X462.708 Y16.884
X462.539 Y16.826
X462.365 Y16.755
X462.173 Y16.663
X461.974 Y16.554
X461.764 Y16.423
X461.538 Y16.264
X461.313 Y16.086
X461.066 Y15.867
X460.823 Y15.625
X460.568 Y15.342
X460.301 Y15.008
X460.047 Y14.653
X459.788 Y14.243
X459.531 Y13.779
X459.282 Y13.264
X459.048 Y12.703
X458.84 Y12.11
X458.665 Y11.508
X458.52 Y10.896
X458.406 Y10.279
X458.321 Y9.657
X458.265 Y9.032
X458.238 Y8.404
X458.24 Y7.776
X458.273 Y7.149
X458.339 Y6.53
X458.427 Y5.989
X458.536 Y5.499
X458.651 Y5.089
X458.772 Y4.737
X458.887 Y4.456
X459.015 Y4.185
X459.14 Y3.957
X459.148 Y3.944
X459.35 Y3.673
X459.594 Y3.44
X459.875 Y3.252
X460.183 Y3.113
X460.51 Y3.029
X460.847 Y3
X461.264
G3 X461.835 Y3.501 I-0.021 J0.6
G1 X463.965 Y16.302
G3 X463.394 Y17 I-0.592 J0.098
G1 X462.035
X461.93 Y16.995
X461.805 Y16.981
X461.678 Y16.961
X461.531 Y16.928
X461.381 Y16.886
X461.211 Y16.827
X461.038 Y16.756
X460.845 Y16.664
X460.646 Y16.556
X460.436 Y16.425
X460.21 Y16.265
X459.985 Y16.087
X459.738 Y15.868
X459.495 Y15.626
X459.24 Y15.343
X458.972 Y15.009
X458.719 Y14.654
X458.46 Y14.244
X458.202 Y13.78
X457.953 Y13.265
X457.72 Y12.703
X457.512 Y12.111
X457.336 Y11.508
X457.192 Y10.897
X457.078 Y10.279
X456.993 Y9.657
X456.936 Y9.032
X456.909 Y8.405
X456.911 Y7.777
X456.944 Y7.15
X457.01 Y6.53
X457.098 Y5.99
X457.207 Y5.499
X457.322 Y5.089
X457.443 Y4.737
X457.558 Y4.456
X457.687 Y4.185
X457.811 Y3.957
X457.819 Y3.944
X458.021 Y3.673
X458.266 Y3.44
X458.546 Y3.252
X458.854 Y3.113
X459.181 Y3.029
X459.518 Y3
X459.938
G3 X460.509 Y3.503 I-0.021 J0.6
G1 X462.606 Y16.303
G3 X462.035 Y17 I-0.592 J0.097
G1 X460.775
X460.596 Y16.991
X460.472 Y16.978
X460.345 Y16.957
X460.199 Y16.924
X460.049 Y16.882
X459.88 Y16.824
X459.706 Y16.753
X459.514 Y16.661
X459.315 Y16.553
X459.106 Y16.422
X458.879 Y16.263
X458.655 Y16.085
X458.408 Y15.866
X458.165 Y15.624
X457.91 Y15.341
X457.643 Y15.008
X457.39 Y14.652
X457.131 Y14.243
X456.873 Y13.779
X456.624 Y13.264
X456.391 Y12.703
X456.183 Y12.11
X456.007 Y11.507
X455.863 Y10.896
X455.749 Y10.279
X455.664 Y9.657
X455.608 Y9.031
X455.58 Y8.404
X455.583 Y7.776
X455.616 Y7.149
X455.681 Y6.53
X455.77 Y5.989
X455.878 Y5.499
X455.994 Y5.089
X456.115 Y4.737
X456.229 Y4.456
X456.358 Y4.185
X456.482 Y3.957
X456.49 Y3.944
X456.692 Y3.673
X456.937 Y3.44
X457.217 Y3.252
X457.525 Y3.113
X457.852 Y3.029
X458.189 Y3
X458.588
G3 X459.159 Y3.499 I-0.021 J0.6
G1 X461.345 Y16.299
G3 X460.775 Y17 I-0.591 J0.101
G1 X459.434
X459.269 Y16.992
X459.145 Y16.979
X459.018 Y16.958
X458.871 Y16.925
X458.721 Y16.883
X458.552 Y16.824
X458.378 Y16.753
X458.186 Y16.662
X457.987 Y16.553
X457.777 Y16.422
X457.551 Y16.263
X457.327 Y16.085
X457.079 Y15.866
X456.836 Y15.624
X456.582 Y15.341
X456.314 Y15.008
X456.061 Y14.652
X455.802 Y14.242
X455.545 Y13.778
X455.296 Y13.264
X455.062 Y12.702
X454.854 Y12.11
X454.678 Y11.507
X454.534 Y10.896
X454.42 Y10.279
X454.335 Y9.656
X454.279 Y9.031
X454.252 Y8.404
X454.254 Y7.776
X454.287 Y7.149
X454.353 Y6.53
X454.441 Y5.989
X454.55 Y5.499
X454.665 Y5.089
X454.786 Y4.737
X454.9 Y4.456
X455.029 Y4.185
X455.154 Y3.957
X455.162 Y3.944
X455.364 Y3.673
X455.608 Y3.44
X455.889 Y3.252
X456.197 Y3.113
X456.524 Y3.029
X456.86 Y3
X457.274
G3 X457.502 Y3.054 I-0.021 J0.6
X457.845 Y3.5 I-0.249 J0.546
G1 X460.005 Y16.301
G3 X459.662 Y16.946 I-0.592 J0.1
X459.434 Y17 I-0.249 J-0.546
G1 X458.075
X457.943 Y16.993
X457.818 Y16.98
X457.691 Y16.959
X457.544 Y16.927
X457.394 Y16.884
X457.225 Y16.826
X457.051 Y16.755
X456.859 Y16.663
X456.66 Y16.554
X456.45 Y16.424
X456.223 Y16.264
X455.999 Y16.086
X455.751 Y15.867
X455.508 Y15.625
X455.254 Y15.342
X454.986 Y15.008
X454.733 Y14.653
X454.474 Y14.243
X454.216 Y13.779
X453.967 Y13.264
X453.733 Y12.702
X453.525 Y12.11
X453.35 Y11.507
X453.206 Y10.896
X453.091 Y10.279
X453.006 Y9.657
X452.95 Y9.031
X452.923 Y8.404
X452.925 Y7.776
X452.958 Y7.149
X453.024 Y6.53
X453.112 Y5.989
X453.221 Y5.499
X453.336 Y5.089
X453.457 Y4.737
X453.572 Y4.456
X453.7 Y4.185
X453.825 Y3.957
X453.833 Y3.944
X454.035 Y3.673
X454.279 Y3.44
X454.56 Y3.252
X454.868 Y3.113
X455.195 Y3.029
X455.532 Y3
X455.933
G3 X456.504 Y3.501 I-0.021 J0.6
G1 X458.646 Y16.301
G3 X458.075 Y17 I-0.592 J0.099
G1 X456.734
X456.614 Y16.994
X456.49 Y16.981
X456.362 Y16.96
X456.216 Y16.927
X456.066 Y16.885
X455.896 Y16.826
X455.723 Y16.755
X455.53 Y16.664
X455.331 Y16.555
X455.121 Y16.424
X454.895 Y16.265
X454.67 Y16.087
X454.423 Y15.867
X454.18 Y15.626
X453.925 Y15.342
X453.657 Y15.009
X453.404 Y14.653
X453.145 Y14.243
X452.887 Y13.779
X452.638 Y13.264
X452.405 Y12.703
X452.197 Y12.11
X452.021 Y11.507
X451.877 Y10.896
X451.763 Y10.279
X451.678 Y9.657
X451.621 Y9.031
X451.594 Y8.404
X451.596 Y7.776
X451.63 Y7.149
X451.695 Y6.53
X451.783 Y5.989
X451.892 Y5.499
X452.008 Y5.089
X452.128 Y4.737
X452.243 Y4.456
X452.372 Y4.185
X452.496 Y3.957
X452.504 Y3.944
X452.706 Y3.673
X452.951 Y3.44
X453.231 Y3.252
X453.539 Y3.113
X453.866 Y3.029
X454.203 Y3
X454.604
G3 X455.175 Y3.501 I-0.021 J0.6
G1 X457.305 Y16.302
G3 X456.734 Y17 I-0.592 J0.098
G1 X455.474
X455.281 Y16.99
X455.157 Y16.977
X455.03 Y16.956
X454.883 Y16.924
X454.734 Y16.881
X454.565 Y16.823
X454.391 Y16.752
X454.199 Y16.661
X454 Y16.552
X453.791 Y16.421
X453.564 Y16.262
X453.34 Y16.085
X453.093 Y15.865
X452.85 Y15.624
X452.596 Y15.341
X452.328 Y15.007
X452.075 Y14.652
X451.816 Y14.242
X451.558 Y13.778
X451.309 Y13.264
X451.076 Y12.702
X450.868 Y12.11
X450.692 Y11.507
X450.548 Y10.896
X450.434 Y10.278
X450.349 Y9.656
X450.293 Y9.031
X450.266 Y8.403
X450.268 Y7.776
X450.301 Y7.149
X450.367 Y6.529
X450.455 Y5.989
X450.563 Y5.499
X450.679 Y5.089
X450.8 Y4.737
X450.914 Y4.456
X451.043 Y4.185
X451.167 Y3.957
X451.175 Y3.944
X451.377 Y3.673
X451.622 Y3.44
X451.902 Y3.252
X452.21 Y3.113
X452.537 Y3.029
X452.874 Y3
X453.278
G3 X453.506 Y3.054 I-0.021 J0.6
X453.848 Y3.498 I-0.249 J0.546
G1 X456.045 Y16.299
G3 X455.474 Y17 I-0.591 J0.101
G1 X454.115
X453.955 Y16.992
X453.831 Y16.979
X453.704 Y16.958
X453.557 Y16.925
X453.407 Y16.883
X453.238 Y16.824
X453.064 Y16.754
X452.872 Y16.662
X452.673 Y16.553
X452.463 Y16.422
X452.237 Y16.263
X452.012 Y16.085
X451.765 Y15.866
X451.522 Y15.624
X451.267 Y15.341
X451 Y15.007
X450.746 Y14.652
X450.487 Y14.242
X450.23 Y13.778
X449.981 Y13.263
X449.747 Y12.702
X449.539 Y12.11
X449.364 Y11.507
X449.219 Y10.896
X449.105 Y10.278
X449.02 Y9.656
X448.964 Y9.031
X448.937 Y8.403
X448.939 Y7.775
X448.972 Y7.148
X449.038 Y6.529
X449.126 Y5.989
X449.235 Y5.499
X449.35 Y5.088
X449.471 Y4.737
X449.585 Y4.456
X449.714 Y4.185
X449.839 Y3.957
X449.847 Y3.944
X450.049 Y3.673
X450.293 Y3.44
X450.574 Y3.252
X450.882 Y3.113
X451.209 Y3.029
X451.545 Y3
X451.967
G3 X452.537 Y3.5 I-0.021 J0.6
G1 X454.686 Y16.301
G3 X454.115 Y17 I-0.592 J0.099
G1 X452.774
X452.627 Y16.993
X452.503 Y16.979
X452.376 Y16.958
X452.229 Y16.926
X452.079 Y16.883
X451.909 Y16.825
X451.736 Y16.754
X451.544 Y16.663
X451.344 Y16.554
X451.135 Y16.423
X450.908 Y16.264
X450.684 Y16.086
X450.436 Y15.866
X450.193 Y15.625
X449.939 Y15.341
X449.671 Y15.008
X449.418 Y14.652
X449.159 Y14.242
X448.901 Y13.778
X448.652 Y13.263
X448.419 Y12.702
X448.21 Y12.11
X448.035 Y11.507
X447.891 Y10.896
X447.776 Y10.278
X447.691 Y9.656
X447.635 Y9.031
X447.608 Y8.403
X447.61 Y7.776
X447.644 Y7.149
X447.709 Y6.529
X447.797 Y5.989
X447.906 Y5.499
X448.022 Y5.089
X448.142 Y4.737
X448.257 Y4.456
X448.386 Y4.185
X448.51 Y3.957
X448.518 Y3.944
X448.72 Y3.673
X448.965 Y3.44
X449.245 Y3.252
X449.553 Y3.113
X449.88 Y3.029
X450.217 Y3
X450.614
G3 X450.842 Y3.054 I-0.021 J0.6
X451.185 Y3.5 I-0.249 J0.546
G1 X453.345 Y16.301
G3 X453.002 Y16.946 I-0.592 J0.1
X452.774 Y17 I-0.249 J-0.546
G1 X451.415
X451.3 Y16.994
X451.176 Y16.981
X451.048 Y16.96
X450.901 Y16.927
X450.752 Y16.885
X450.582 Y16.827
X450.408 Y16.756
X450.216 Y16.664
X450.017 Y16.555
X449.807 Y16.424
X449.58 Y16.265
X449.356 Y16.087
X449.108 Y15.867
X448.865 Y15.626
X448.61 Y15.342
X448.343 Y15.009
X448.089 Y14.653
X447.83 Y14.243
X447.573 Y13.779
X447.323 Y13.264
X447.09 Y12.702
X446.882 Y12.11
X446.706 Y11.507
X446.562 Y10.896
X446.448 Y10.279
X446.363 Y9.657
X446.307 Y9.031
X446.279 Y8.404
X446.282 Y7.776
X446.315 Y7.149
X446.38 Y6.53
X446.469 Y5.989
X446.577 Y5.499
X446.693 Y5.089
X446.814 Y4.737
X446.928 Y4.456
X447.057 Y4.185
X447.181 Y3.957
X447.189 Y3.944
X447.391 Y3.673
X447.636 Y3.44
X447.916 Y3.252
X448.224 Y3.113
X448.551 Y3.029
X448.888 Y3
X449.298
G3 X449.869 Y3.502 I-0.021 J0.6
G1 X451.986 Y16.302
G3 X451.415 Y17 I-0.592 J0.098
G1 X450.074
X449.971 Y16.995
X449.847 Y16.982
X449.72 Y16.961
X449.573 Y16.928
X449.423 Y16.886
X449.253 Y16.827
X449.08 Y16.756
X448.887 Y16.665
X448.688 Y16.556
X448.478 Y16.425
X448.252 Y16.266
X448.027 Y16.088
X447.779 Y15.868
X447.536 Y15.626
X447.282 Y15.343
X447.014 Y15.009
X446.761 Y14.654
X446.502 Y14.244
X446.244 Y13.779
X445.995 Y13.264
X445.761 Y12.703
X445.553 Y12.111
X445.378 Y11.508
X445.233 Y10.897
X445.119 Y10.279
X445.034 Y9.657
X444.978 Y9.032
X444.951 Y8.404
X444.953 Y7.776
X444.986 Y7.149
X445.052 Y6.53
X445.14 Y5.989
X445.248 Y5.499
X445.364 Y5.089
X445.485 Y4.737
X445.599 Y4.456
X445.728 Y4.185
X445.852 Y3.957
X445.861 Y3.944
X446.062 Y3.673
X446.307 Y3.44
X446.587 Y3.252
X446.896 Y3.113
X447.223 Y3.029
X447.559 Y3
X447.969
G3 X448.54 Y3.502 I-0.021 J0.6
G1 X450.645 Y16.303
G3 X450.302 Y16.946 I-0.592 J0.097
X450.074 Y17 I-0.249 J-0.546
G1 X448.814
X448.638 Y16.991
X448.514 Y16.978
X448.387 Y16.957
X448.24 Y16.924
X448.091 Y16.882
X447.922 Y16.824
X447.748 Y16.753
X447.556 Y16.662
X447.357 Y16.553
X447.147 Y16.422
X446.921 Y16.263
X446.697 Y16.085
X446.45 Y15.866
X446.206 Y15.624
X445.952 Y15.341
X445.685 Y15.008
X445.431 Y14.652
X445.173 Y14.243
X444.915 Y13.779
X444.666 Y13.264
X444.432 Y12.702
X444.224 Y12.11
X444.049 Y11.507
X443.905 Y10.896
X443.79 Y10.279
X443.705 Y9.656
X443.649 Y9.031
X443.622 Y8.404
X443.624 Y7.776
X443.657 Y7.149
X443.723 Y6.53
X443.811 Y5.989
X443.92 Y5.499
X444.035 Y5.089
X444.156 Y4.737
X444.271 Y4.456
X444.399 Y4.185
X444.524 Y3.957
X444.532 Y3.944
X444.734 Y3.673
X444.978 Y3.44
X445.259 Y3.252
X445.567 Y3.113
X445.894 Y3.029
X446.23 Y3
X446.654
G3 X446.882 Y3.054 I-0.021 J0.6
X447.225 Y3.5 I-0.249 J0.546
G1 X449.385 Y16.301
G3 X449.042 Y16.946 I-0.592 J0.1
X448.814 Y17 I-0.249 J-0.546
G1 X447.455
X447.312 Y16.993
X447.188 Y16.98
X447.061 Y16.959
X446.914 Y16.926
X446.764 Y16.884
X446.594 Y16.825
X446.421 Y16.754
X446.229 Y16.663
X446.03 Y16.554
X445.82 Y16.423
X445.593 Y16.264
X445.369 Y16.086
X445.121 Y15.866
X444.878 Y15.625
X444.624 Y15.342
X444.356 Y15.008
X444.103 Y14.653
X443.844 Y14.243
X443.586 Y13.779
X443.337 Y13.264
X443.104 Y12.702
X442.896 Y12.11
X442.72 Y11.507
X442.576 Y10.896
X442.462 Y10.279
X442.377 Y9.656
X442.32 Y9.031
X442.293 Y8.404
X442.295 Y7.776
X442.329 Y7.149
X442.394 Y6.53
X442.482 Y5.989
X442.591 Y5.499
X442.707 Y5.089
X442.827 Y4.737
X442.942 Y4.456
X443.071 Y4.185
X443.195 Y3.957
X443.203 Y3.944
X443.405 Y3.673
X443.65 Y3.44
X443.93 Y3.252
X444.238 Y3.113
X444.565 Y3.029
X444.902 Y3
X445.313
G3 X445.884 Y3.501 I-0.021 J0.6
G1 X448.026 Y16.301
G3 X447.455 Y17 I-0.592 J0.099
G1 X446.114
X445.984 Y16.993
X445.86 Y16.98
X445.732 Y16.959
X445.586 Y16.927
X445.436 Y16.884
X445.266 Y16.826
X445.093 Y16.755
X444.9 Y16.663
X444.701 Y16.554
X444.491 Y16.424
X444.265 Y16.264
X444.04 Y16.087
X443.793 Y15.867
X443.55 Y15.625
X443.295 Y15.342
X443.028 Y15.008
X442.774 Y14.653
X442.515 Y14.243
X442.258 Y13.779
X442.009 Y13.264
X441.775 Y12.702
X441.567 Y12.11
X441.391 Y11.507
X441.247 Y10.896
X441.133 Y10.279
X441.048 Y9.657
X440.992 Y9.031
X440.965 Y8.404
X440.967 Y7.776
X441 Y7.149
X441.065 Y6.53
X441.154 Y5.989
X441.262 Y5.499
X441.378 Y5.089
X441.499 Y4.737
X441.613 Y4.456
X441.742 Y4.185
X441.866 Y3.957
X441.874 Y3.944
X442.076 Y3.673
X442.321 Y3.44
X442.601 Y3.252
X442.909 Y3.113
X443.236 Y3.029
X443.573 Y3
X443.984
G3 X444.555 Y3.501 I-0.021 J0.6
G1 X446.685 Y16.302
G3 X446.342 Y16.946 I-0.592 J0.098
X446.114 Y17 I-0.249 J-0.546
G1 X444.755
X444.657 Y16.995
X444.533 Y16.982
X444.405 Y16.961
X444.258 Y16.928
X444.108 Y16.886
X443.939 Y16.827
X443.765 Y16.756
X443.572 Y16.665
X443.373 Y16.556
X443.163 Y16.425
X442.937 Y16.266
X442.712 Y16.088
X442.465 Y15.868
X442.221 Y15.626
X441.967 Y15.343
X441.699 Y15.009
X441.446 Y14.654
X441.187 Y14.244
X440.929 Y13.779
X440.68 Y13.265
X440.446 Y12.703
X440.238 Y12.111
X440.063 Y11.508
X439.918 Y10.897
X439.804 Y10.279
X439.719 Y9.657
X439.663 Y9.032
X439.636 Y8.404
X439.638 Y7.776
X439.671 Y7.149
X439.737 Y6.53
X439.825 Y5.989
X439.934 Y5.499
X440.049 Y5.089
X440.17 Y4.737
X440.284 Y4.456
X440.413 Y4.185
X440.537 Y3.957
X440.546 Y3.944
X440.748 Y3.673
X440.992 Y3.44
X441.273 Y3.252
X441.581 Y3.113
X441.908 Y3.029
X442.244 Y3
X442.658
G3 X443.229 Y3.503 I-0.021 J0.6
G1 X445.327 Y16.303
G3 X444.755 Y17 I-0.592 J0.097
G1 X443.496
X443.323 Y16.991
X443.199 Y16.978
X443.072 Y16.957
X442.926 Y16.925
X442.776 Y16.882
X442.607 Y16.824
X442.433 Y16.753
X442.241 Y16.662
X442.042 Y16.553
X441.833 Y16.422
X441.606 Y16.263
X441.382 Y16.085
X441.135 Y15.866
X440.892 Y15.624
X440.637 Y15.341
X440.37 Y15.008
X440.116 Y14.653
X439.858 Y14.243
X439.6 Y13.779
X439.351 Y13.264
X439.118 Y12.702
X438.909 Y12.11
X438.734 Y11.507
X438.59 Y10.896
X438.475 Y10.279
X438.39 Y9.657
X438.334 Y9.031
X438.307 Y8.404
X438.309 Y7.776
X438.342 Y7.149
X438.408 Y6.53
X438.496 Y5.989
X438.605 Y5.499
X438.72 Y5.089
X438.841 Y4.737
X438.956 Y4.456
X439.084 Y4.185
X439.209 Y3.957
X439.217 Y3.944
X439.419 Y3.673
X439.664 Y3.44
X439.944 Y3.252
X440.252 Y3.113
X440.579 Y3.029
X440.916 Y3
X441.309
G3 X441.537 Y3.054 I-0.021 J0.6
X441.88 Y3.499 I-0.249 J0.546
G1 X444.066 Y16.299
G3 X443.496 Y17 I-0.591 J0.101
G1 X442.155
X441.997 Y16.992
X441.872 Y16.979
X441.745 Y16.958
X441.598 Y16.925
X441.448 Y16.883
X441.279 Y16.825
X441.105 Y16.754
X440.913 Y16.662
X440.714 Y16.553
X440.504 Y16.423
X440.278 Y16.263
X440.053 Y16.086
X439.806 Y15.866
X439.563 Y15.624
X439.309 Y15.341
X439.041 Y15.008
X438.788 Y14.652
X438.529 Y14.243
X438.271 Y13.778
X438.022 Y13.264
X437.789 Y12.702
X437.581 Y12.11
X437.405 Y11.507
X437.261 Y10.896
X437.147 Y10.278
X437.062 Y9.656
X437.006 Y9.031
X436.978 Y8.404
X436.98 Y7.776
X437.014 Y7.149
X437.079 Y6.529
X437.168 Y5.989
X437.276 Y5.499
X437.392 Y5.089
X437.513 Y4.737
X437.627 Y4.456
X437.756 Y4.185
X437.88 Y3.957
X437.888 Y3.944
X438.09 Y3.673
X438.335 Y3.44
X438.615 Y3.252
X438.923 Y3.113
X439.25 Y3.029
X439.587 Y3
X439.995
G3 X440.223 Y3.054 I-0.021 J0.6
X440.565 Y3.5 I-0.249 J0.546
G1 X442.725 Y16.301
G3 X442.382 Y16.946 I-0.592 J0.1
X442.155 Y17 I-0.249 J-0.546
G1 X440.796
X440.67 Y16.994
X440.545 Y16.98
X440.418 Y16.959
X440.271 Y16.927
X440.121 Y16.884
X439.952 Y16.826
X439.778 Y16.755
X439.586 Y16.663
X439.387 Y16.555
X439.177 Y16.424
X438.95 Y16.265
X438.725 Y16.087
X438.478 Y15.867
X438.235 Y15.625
X437.98 Y15.342
X437.713 Y15.008
X437.459 Y14.653
X437.2 Y14.243
X436.943 Y13.779
X436.694 Y13.264
X436.46 Y12.702
X436.252 Y12.11
X436.077 Y11.507
X435.932 Y10.896
X435.818 Y10.279
X435.733 Y9.657
X435.677 Y9.031
X435.65 Y8.404
X435.652 Y7.776
X435.685 Y7.149
X435.751 Y6.53
X435.839 Y5.989
X435.947 Y5.499
X436.063 Y5.089
X436.184 Y4.737
X436.298 Y4.456
X436.427 Y4.185
X436.551 Y3.957
X436.56 Y3.944
X436.761 Y3.673
X437.006 Y3.44
X437.286 Y3.252
X437.594 Y3.113
X437.922 Y3.029
X438.258 Y3
X438.654
G3 X439.225 Y3.501 I-0.021 J0.6
G1 X441.366 Y16.301
G3 X440.796 Y17 I-0.592 J0.099
G1 X439.455
X439.341 Y16.994
X439.217 Y16.981
X439.089 Y16.96
X438.943 Y16.927
X438.793 Y16.885
X438.623 Y16.827
X438.45 Y16.756
X438.257 Y16.664
X438.058 Y16.555
X437.848 Y16.424
X437.622 Y16.265
X437.397 Y16.087
X437.149 Y15.867
X436.906 Y15.626
X436.652 Y15.343
X436.384 Y15.009
X436.131 Y14.654
X435.872 Y14.243
X435.614 Y13.779
X435.365 Y13.264
X435.131 Y12.703
X434.923 Y12.11
X434.748 Y11.507
X434.604 Y10.896
X434.489 Y10.279
X434.404 Y9.657
X434.348 Y9.031
X434.321 Y8.404
X434.323 Y7.776
X434.356 Y7.149
X434.422 Y6.53
X434.51 Y5.989
X434.619 Y5.499
X434.734 Y5.089
X434.855 Y4.737
X434.969 Y4.456
X435.098 Y4.185
X435.223 Y3.957
X435.231 Y3.944
X435.433 Y3.673
X435.677 Y3.44
X435.958 Y3.252
X436.266 Y3.113
X436.593 Y3.029
X436.929 Y3
X437.349
G3 X437.577 Y3.054 I-0.021 J0.6
X437.92 Y3.502 I-0.249 J0.546
G1 X440.026 Y16.303
G3 X439.455 Y17 I-0.592 J0.097
G1 X438.195
X438.008 Y16.991
X437.884 Y16.977
X437.757 Y16.957
X437.61 Y16.924
X437.461 Y16.882
X437.292 Y16.823
X437.118 Y16.753
X436.926 Y16.661
X436.727 Y16.552
X436.517 Y16.422
X436.291 Y16.262
X436.067 Y16.085
X435.82 Y15.865
X435.577 Y15.624
X435.322 Y15.341
X435.055 Y15.007
X434.801 Y14.652
X434.543 Y14.242
X434.285 Y13.778
X434.036 Y13.264
X433.803 Y12.702
X433.595 Y12.11
X433.419 Y11.507
X433.275 Y10.896
X433.161 Y10.278
X433.076 Y9.656
X433.019 Y9.031
X432.992 Y8.404
X432.994 Y7.776
X433.028 Y7.149
X433.093 Y6.529
X433.181 Y5.989
X433.29 Y5.499
X433.406 Y5.089
X433.526 Y4.737
X433.641 Y4.456
X433.77 Y4.185
X433.894 Y3.957
X433.902 Y3.944
X434.104 Y3.673
X434.349 Y3.44
X434.629 Y3.252
X434.937 Y3.113
X435.264 Y3.029
X435.601 Y3
X435.998
G3 X436.226 Y3.054 I-0.021 J0.6
X436.569 Y3.498 I-0.249 J0.546
G1 X438.765 Y16.299
G3 X438.423 Y16.946 I-0.591 J0.101
X438.195 Y17 I-0.249 J-0.546
G1 X436.836
X436.682 Y16.992
X436.558 Y16.979
X436.431 Y16.958
X436.284 Y16.925
X436.134 Y16.883
X435.964 Y16.825
X435.791 Y16.754
X435.599 Y16.662
X435.4 Y16.553
X435.19 Y16.423
X434.963 Y16.263
X434.739 Y16.086
X434.491 Y15.866
X434.248 Y15.624
X433.994 Y15.341
X433.726 Y15.008
X433.473 Y14.652
X433.214 Y14.242
X432.956 Y13.778
X432.707 Y13.264
X432.474 Y12.702
X432.266 Y12.11
X432.09 Y11.507
X431.946 Y10.896
X431.832 Y10.278
X431.747 Y9.656
X431.691 Y9.031
X431.663 Y8.403
X431.666 Y7.776
X431.699 Y7.149
X431.764 Y6.529
X431.853 Y5.989
X431.961 Y5.499
X432.077 Y5.089
X432.198 Y4.737
X432.312 Y4.456
X432.441 Y4.185
X432.565 Y3.957
X432.573 Y3.944
X432.775 Y3.673
X433.02 Y3.44
X433.3 Y3.252
X433.608 Y3.113
X433.935 Y3.029
X434.272 Y3
X434.694
G3 X435.265 Y3.501 I-0.021 J0.6
G1 X437.407 Y16.301
G3 X436.836 Y17 I-0.592 J0.099
G1 X435.495
X435.354 Y16.993
X435.23 Y16.98
X435.102 Y16.959
X434.956 Y16.926
X434.806 Y16.884
X434.636 Y16.825
X434.463 Y16.754
X434.27 Y16.663
X434.071 Y16.554
X433.861 Y16.423
X433.635 Y16.264
X433.41 Y16.086
X433.163 Y15.866
X432.92 Y15.625
X432.665 Y15.342
X432.398 Y15.008
X432.144 Y14.653
X431.885 Y14.243
X431.628 Y13.778
X431.379 Y13.264
X431.145 Y12.702
X430.937 Y12.11
X430.762 Y11.507
X430.617 Y10.896
X430.503 Y10.278
X430.418 Y9.656
X430.362 Y9.031
X430.335 Y8.404
X430.337 Y7.776
X430.37 Y7.149
X430.436 Y6.529
X430.524 Y5.989
X430.633 Y5.499
X430.748 Y5.089
X430.869 Y4.737
X430.983 Y4.456
X431.112 Y4.185
X431.237 Y3.957
X431.245 Y3.944
X431.447 Y3.673
X431.691 Y3.44
X431.972 Y3.252
X432.28 Y3.113
X432.607 Y3.029
X432.943 Y3
X433.335
G3 X433.563 Y3.054 I-0.021 J0.6
X433.906 Y3.5 I-0.249 J0.546
G1 X436.065 Y16.301
G3 X435.495 Y17 I-0.592 J0.1
G1 X434.136
X434.027 Y16.995
X433.903 Y16.981
X433.775 Y16.96
X433.628 Y16.928
X433.478 Y16.885
X433.309 Y16.827
X433.135 Y16.756
X432.943 Y16.664
X432.743 Y16.555
X432.533 Y16.425
X432.307 Y16.265
X432.082 Y16.087
X431.835 Y15.867
X431.592 Y15.626
X431.337 Y15.343
X431.069 Y15.009
X430.816 Y14.653
X430.557 Y14.243
X430.299 Y13.779
X430.05 Y13.264
X429.817 Y12.703
X429.608 Y12.11
X429.433 Y11.507
X429.289 Y10.896
X429.174 Y10.279
X429.089 Y9.657
X429.033 Y9.031
X429.006 Y8.404
X429.008 Y7.776
X429.041 Y7.149
X429.107 Y6.53
X429.195 Y5.989
X429.304 Y5.499
X429.419 Y5.089
X429.54 Y4.737
X429.655 Y4.456
X429.783 Y4.185
X429.908 Y3.957
X429.916 Y3.944
X430.118 Y3.673
X430.362 Y3.44
X430.643 Y3.252
X430.951 Y3.113
X431.278 Y3.029
X431.615 Y3
X432.038
G3 X432.61 Y3.503 I-0.021 J0.6
G1 X434.707 Y16.303
G3 X434.136 Y17 I-0.592 J0.097
G1 X432.795
X432.698 Y16.995
X432.574 Y16.982
X432.446 Y16.961
X432.3 Y16.928
X432.15 Y16.886
X431.98 Y16.828
X431.807 Y16.757
X431.614 Y16.665
X431.415 Y16.556
X431.205 Y16.425
X430.979 Y16.266
X430.754 Y16.088
X430.506 Y15.868
X430.263 Y15.627
X430.008 Y15.343
X429.741 Y15.009
X429.487 Y14.654
X429.228 Y14.244
X428.971 Y13.78
X428.721 Y13.265
X428.488 Y12.703
X428.28 Y12.111
X428.104 Y11.508
X427.96 Y10.897
X427.846 Y10.279
X427.761 Y9.657
X427.705 Y9.032
X427.677 Y8.404
X427.679 Y7.777
X427.713 Y7.15
X427.778 Y6.53
X427.866 Y5.99
X427.975 Y5.499
X428.091 Y5.089
X428.211 Y4.737
X428.326 Y4.457
X428.455 Y4.185
X428.579 Y3.958
X428.587 Y3.944
X428.789 Y3.673
X429.034 Y3.44
X429.314 Y3.252
X429.622 Y3.113
X429.949 Y3.029
X430.286 Y3
X430.689
G3 X431.26 Y3.502 I-0.021 J0.6
G1 X433.366 Y16.303
G3 X432.795 Y17 I-0.592 J0.097
G1 X431.535
X431.365 Y16.991
X431.241 Y16.978
X431.113 Y16.957
X430.967 Y16.925
X430.817 Y16.882
X430.648 Y16.824
X430.475 Y16.753
X430.283 Y16.662
X430.084 Y16.553
X429.874 Y16.422
X429.648 Y16.263
X429.423 Y16.086
X429.176 Y15.866
X428.933 Y15.625
X428.679 Y15.342
X428.411 Y15.008
X428.158 Y14.653
X427.899 Y14.243
X427.642 Y13.779
X427.393 Y13.264
X427.159 Y12.703
X426.951 Y12.11
X426.775 Y11.507
X426.631 Y10.896
X426.517 Y10.279
X426.432 Y9.657
X426.376 Y9.031
X426.349 Y8.404
X426.351 Y7.776
X426.384 Y7.149
X426.449 Y6.53
X426.538 Y5.989
X426.646 Y5.499
X426.762 Y5.089
X426.883 Y4.737
X426.997 Y4.456
X427.126 Y4.185
X427.25 Y3.957
X427.258 Y3.944
X427.46 Y3.673
X427.705 Y3.44
X427.985 Y3.252
X428.293 Y3.113
X428.62 Y3.029
X428.957 Y3
X429.375
G3 X429.603 Y3.054 I-0.021 J0.6
X429.946 Y3.5 I-0.249 J0.546
G1 X432.106 Y16.301
G3 X431.535 Y17 I-0.592 J0.1
G1 X430.176
X430.039 Y16.993
X429.915 Y16.98
X429.787 Y16.959
X429.641 Y16.926
X429.491 Y16.884
X429.321 Y16.826
X429.148 Y16.755
X428.955 Y16.663
X428.756 Y16.554
X428.546 Y16.423
X428.32 Y16.264
X428.095 Y16.086
X427.848 Y15.867
X427.605 Y15.625
X427.35 Y15.342
X427.083 Y15.008
X426.829 Y14.653
X426.571 Y14.243
X426.313 Y13.779
X426.064 Y13.264
X425.83 Y12.703
X425.622 Y12.11
X425.447 Y11.507
X425.302 Y10.896
X425.188 Y10.279
X425.103 Y9.657
X425.047 Y9.031
X425.02 Y8.404
X425.022 Y7.776
X425.055 Y7.149
X425.121 Y6.53
X425.209 Y5.989
X425.318 Y5.499
X425.433 Y5.089
X425.554 Y4.737
X425.668 Y4.456
X425.797 Y4.185
X425.922 Y3.957
X425.93 Y3.944
X426.132 Y3.673
X426.376 Y3.44
X426.657 Y3.252
X426.965 Y3.113
X427.292 Y3.029
X427.628 Y3
X428.034
G3 X428.605 Y3.501 I-0.021 J0.6
G1 X430.747 Y16.301
G3 X430.404 Y16.946 I-0.592 J0.099
X430.176 Y17 I-0.249 J-0.546
G1 X428.835
X428.711 Y16.994
X428.587 Y16.981
X428.459 Y16.96
X428.312 Y16.927
X428.163 Y16.885
X427.993 Y16.826
X427.819 Y16.755
X427.627 Y16.664
X427.428 Y16.555
X427.218 Y16.424
X426.992 Y16.265
X426.767 Y16.087
X426.52 Y15.867
X426.276 Y15.626
X426.022 Y15.342
X425.754 Y15.009
X425.501 Y14.653
X425.242 Y14.243
X424.984 Y13.779
X424.735 Y13.264
X424.502 Y12.703
X424.294 Y12.11
X424.118 Y11.507
X423.974 Y10.896
X423.86 Y10.279
X423.775 Y9.657
X423.718 Y9.031
X423.691 Y8.404
X423.693 Y7.776
X423.726 Y7.149
X423.792 Y6.53
X423.88 Y5.989
X423.989 Y5.499
X424.104 Y5.089
X424.225 Y4.737
X424.34 Y4.456
X424.468 Y4.185
X424.593 Y3.957
X424.601 Y3.944
X424.803 Y3.673
X425.048 Y3.44
X425.328 Y3.252
X425.636 Y3.113
X425.963 Y3.029
X426.3 Y3
X426.705
G3 X427.276 Y3.501 I-0.021 J0.6
G1 X429.406 Y16.302
G3 X428.835 Y17 I-0.592 J0.098
G1 X427.575
X427.378 Y16.99
X427.254 Y16.977
X427.126 Y16.956
X426.98 Y16.923
X426.831 Y16.881
X426.661 Y16.823
X426.488 Y16.752
X426.296 Y16.661
X426.097 Y16.552
X425.887 Y16.421
X425.661 Y16.262
X425.437 Y16.084
X425.19 Y15.865
X424.947 Y15.623
X424.692 Y15.341
X424.425 Y15.007
X424.172 Y14.652
X423.913 Y14.242
X423.655 Y13.778
X423.406 Y13.263
X423.173 Y12.702
X422.965 Y12.11
X422.789 Y11.507
X422.645 Y10.896
X422.531 Y10.278
X422.446 Y9.656
X422.39 Y9.031
X422.362 Y8.403
X422.365 Y7.775
X422.398 Y7.148
X422.463 Y6.529
X422.552 Y5.989
X422.66 Y5.499
X422.776 Y5.089
X422.897 Y4.737
X423.011 Y4.456
X423.14 Y4.185
X423.264 Y3.957
X423.272 Y3.944
X423.474 Y3.673
X423.719 Y3.44
X423.999 Y3.252
X424.307 Y3.113
X424.634 Y3.029
X424.971 Y3
X425.379
G3 X425.607 Y3.054 I-0.021 J0.6
X425.949 Y3.498 I-0.249 J0.546
G1 X428.145 Y16.299
G3 X427.575 Y17 I-0.591 J0.101
G1 X426.216
X426.052 Y16.992
X425.928 Y16.979
X425.8 Y16.958
X425.654 Y16.925
X425.504 Y16.883
X425.334 Y16.824
X425.161 Y16.753
X424.969 Y16.662
X424.77 Y16.553
X424.56 Y16.422
X424.333 Y16.263
X424.109 Y16.085
X423.861 Y15.865
X423.618 Y15.624
X423.364 Y15.341
X423.096 Y15.007
X422.843 Y14.652
X422.584 Y14.242
X422.327 Y13.778
X422.078 Y13.263
X421.844 Y12.702
X421.636 Y12.109
X421.46 Y11.507
X421.316 Y10.895
X421.202 Y10.278
X421.117 Y9.656
X421.061 Y9.031
X421.034 Y8.403
X421.036 Y7.775
X421.069 Y7.148
X421.135 Y6.529
X421.223 Y5.989
X421.332 Y5.498
X421.447 Y5.088
X421.568 Y4.736
X421.682 Y4.456
X421.811 Y4.185
X421.936 Y3.957
X421.944 Y3.944
X422.146 Y3.673
X422.39 Y3.44
X422.671 Y3.252
X422.979 Y3.113
X423.306 Y3.029
X423.642 Y3
X424.051
G3 X424.278 Y3.054 I-0.021 J0.6
X424.621 Y3.5 I-0.249 J0.546
G1 X426.787 Y16.3
G3 X426.444 Y16.946 I-0.592 J0.1
X426.216 Y17 I-0.249 J-0.546
G1 X424.875
X424.724 Y16.992
X424.6 Y16.979
X424.472 Y16.958
X424.326 Y16.926
X424.176 Y16.883
X424.006 Y16.825
X423.833 Y16.754
X423.64 Y16.662
X423.441 Y16.553
X423.231 Y16.423
X423.005 Y16.263
X422.78 Y16.086
X422.533 Y15.866
X422.29 Y15.624
X422.035 Y15.341
X421.768 Y15.008
X421.514 Y14.652
X421.256 Y14.242
X420.998 Y13.778
X420.749 Y13.263
X420.515 Y12.702
X420.307 Y12.109
X420.132 Y11.507
X419.988 Y10.896
X419.873 Y10.278
X419.788 Y9.656
X419.732 Y9.031
X419.705 Y8.403
X419.707 Y7.775
X419.74 Y7.148
X419.806 Y6.529
X419.894 Y5.989
X420.003 Y5.498
X420.118 Y5.088
X420.239 Y4.737
X420.354 Y4.456
X420.482 Y4.185
X420.607 Y3.957
X420.615 Y3.944
X420.817 Y3.673
X421.061 Y3.44
X421.342 Y3.252
X421.65 Y3.113
X421.977 Y3.029
X422.313 Y3
X422.715
G3 X422.943 Y3.054 I-0.021 J0.6
X423.286 Y3.5 I-0.249 J0.546
G1 X425.446 Y16.301
G3 X425.103 Y16.946 I-0.592 J0.1
X424.875 Y17 I-0.249 J-0.546
G1 X423.516
X423.397 Y16.994
X423.273 Y16.981
X423.145 Y16.96
X422.998 Y16.927
X422.848 Y16.885
X422.679 Y16.826
X422.505 Y16.755
X422.313 Y16.664
X422.114 Y16.555
X421.903 Y16.424
X421.677 Y16.265
X421.452 Y16.087
X421.205 Y15.867
X420.962 Y15.625
X420.707 Y15.342
X420.44 Y15.008
X420.186 Y14.653
X419.927 Y14.243
X419.669 Y13.779
X419.42 Y13.264
X419.187 Y12.702
X418.979 Y12.11
X418.803 Y11.507
X418.659 Y10.896
X418.545 Y10.279
X418.46 Y9.656
X418.403 Y9.031
X418.376 Y8.404
X418.378 Y7.776
X418.412 Y7.149
X418.477 Y6.53
X418.565 Y5.989
X418.674 Y5.499
X418.79 Y5.089
X418.91 Y4.737
X419.025 Y4.456
X419.154 Y4.185
X419.278 Y3.957
X419.286 Y3.944
X419.488 Y3.673
X419.733 Y3.44
X420.013 Y3.252
X420.321 Y3.113
X420.648 Y3.029
X420.985 Y3
X421.399
G3 X421.97 Y3.502 I-0.021 J0.6
G1 X424.087 Y16.302
G3 X423.516 Y17 I-0.592 J0.098
G1 X422.175
X422.068 Y16.995
X421.944 Y16.981
X421.816 Y16.96
X421.67 Y16.928
X421.52 Y16.885
X421.35 Y16.827
X421.177 Y16.756
X420.984 Y16.664
X420.785 Y16.556
X420.575 Y16.425
X420.349 Y16.265
X420.124 Y16.087
X419.876 Y15.868
X419.633 Y15.626
X419.379 Y15.343
X419.111 Y15.009
X418.857 Y14.654
X418.599 Y14.243
X418.341 Y13.779
X418.092 Y13.264
X417.858 Y12.703
X417.65 Y12.11
X417.475 Y11.507
X417.33 Y10.896
X417.216 Y10.279
X417.131 Y9.657
X417.075 Y9.031
X417.048 Y8.404
X417.05 Y7.776
X417.083 Y7.149
X417.148 Y6.53
X417.237 Y5.989
X417.345 Y5.499
X417.461 Y5.089
X417.582 Y4.737
X417.696 Y4.456
X417.825 Y4.185
X417.949 Y3.957
X417.957 Y3.944
X418.159 Y3.673
X418.404 Y3.44
X418.684 Y3.252
X418.992 Y3.113
X419.319 Y3.029
X419.656 Y3
X420.07
G3 X420.641 Y3.502 I-0.021 J0.6
G1 X422.746 Y16.303
G3 X422.403 Y16.946 I-0.592 J0.097
X422.175 Y17 I-0.249 J-0.546
G1 X420.915
X420.735 Y16.991
X420.611 Y16.978
X420.484 Y16.957
X420.337 Y16.924
X420.188 Y16.882
X420.018 Y16.824
X419.845 Y16.753
X419.653 Y16.661
X419.454 Y16.552
X419.244 Y16.422
X419.018 Y16.263
X418.794 Y16.085
X418.546 Y15.866
X418.303 Y15.624
X418.049 Y15.341
X417.782 Y15.008
X417.528 Y14.652
X417.269 Y14.242
X417.012 Y13.778
X416.763 Y13.264
X416.529 Y12.702
X416.321 Y12.11
X416.146 Y11.507
X416.001 Y10.896
X415.887 Y10.278
X415.802 Y9.656
X415.746 Y9.031
X415.719 Y8.404
X415.721 Y7.776
X415.754 Y7.149
X415.82 Y6.529
X415.908 Y5.989
X416.017 Y5.499
X416.132 Y5.089
X416.253 Y4.737
X416.367 Y4.456
X416.496 Y4.185
X416.621 Y3.957
X416.629 Y3.944
X416.831 Y3.673
X417.075 Y3.44
X417.356 Y3.252
X417.664 Y3.113
X417.991 Y3.029
X418.327 Y3
X418.719
G3 X418.947 Y3.054 I-0.021 J0.6
X419.289 Y3.498 I-0.249 J0.546
G1 X421.486 Y16.299
G3 X421.143 Y16.946 I-0.591 J0.101
X420.915 Y17 I-0.249 J-0.546
G1 X419.556
X419.409 Y16.993
X419.285 Y16.979
X419.157 Y16.958
X419.011 Y16.926
X418.861 Y16.883
X418.691 Y16.825
X418.518 Y16.754
X418.325 Y16.663
X418.126 Y16.554
X417.916 Y16.423
X417.69 Y16.264
X417.466 Y16.086
X417.218 Y15.866
X416.975 Y15.625
X416.721 Y15.342
X416.453 Y15.008
X416.2 Y14.653
X415.941 Y14.243
X415.683 Y13.778
X415.434 Y13.264
X415.201 Y12.702
X414.992 Y12.11
X414.817 Y11.507
X414.673 Y10.896
X414.558 Y10.278
X414.473 Y9.656
X414.417 Y9.031
X414.39 Y8.404
X414.392 Y7.776
X414.425 Y7.149
X414.491 Y6.529
X414.579 Y5.989
X414.688 Y5.499
X414.803 Y5.089
X414.924 Y4.737
X415.039 Y4.456
X415.168 Y4.185
X415.292 Y3.957
X415.3 Y3.944
X415.502 Y3.673
X415.747 Y3.44
X416.027 Y3.252
X416.335 Y3.113
X416.662 Y3.029
X416.999 Y3
X417.414
G3 X417.985 Y3.501 I-0.021 J0.6
G1 X420.127 Y16.301
G3 X419.556 Y17 I-0.592 J0.099
G1 X418.215
X418.081 Y16.993
X417.957 Y16.98
X417.829 Y16.959
X417.682 Y16.926
X417.533 Y16.884
X417.363 Y16.826
X417.19 Y16.755
X416.997 Y16.663
X416.798 Y16.554
X416.588 Y16.424
X416.362 Y16.264
X416.137 Y16.086
X415.89 Y15.867
X415.647 Y15.625
X415.392 Y15.342
X415.125 Y15.008
X414.871 Y14.653
X414.612 Y14.243
X414.354 Y13.779
X414.105 Y13.264
X413.872 Y12.702
X413.664 Y12.11
X413.488 Y11.507
X413.344 Y10.896
X413.23 Y10.279
X413.145 Y9.656
X413.089 Y9.031
X413.061 Y8.404
X413.064 Y7.776
X413.097 Y7.149
X413.162 Y6.53
X413.251 Y5.989
X413.359 Y5.499
X413.475 Y5.089
X413.596 Y4.737
X413.71 Y4.456
X413.839 Y4.185
X413.963 Y3.957
X413.971 Y3.944
X414.173 Y3.673
X414.418 Y3.44
X414.698 Y3.252
X415.006 Y3.113
X415.333 Y3.029
X415.67 Y3
X416.085
G3 X416.656 Y3.501 I-0.021 J0.6
G1 X418.786 Y16.302
G3 X418.443 Y16.946 I-0.592 J0.098
X418.215 Y17 I-0.249 J-0.546
G1 X416.856
X416.754 Y16.995
X416.629 Y16.982
X416.502 Y16.961
X416.355 Y16.928
X416.205 Y16.886
X416.035 Y16.827
X415.862 Y16.756
X415.669 Y16.665
X415.47 Y16.556
X415.26 Y16.425
X415.034 Y16.266
X414.809 Y16.088
X414.561 Y15.868
X414.318 Y15.626
X414.064 Y15.343
X413.796 Y15.009
X413.543 Y14.654
X413.284 Y14.244
X413.026 Y13.779
X412.777 Y13.264
X412.543 Y12.703
X412.335 Y12.11
X412.16 Y11.508
X412.015 Y10.896
X411.901 Y10.279
X411.816 Y9.657
X411.76 Y9.031
X411.733 Y8.404
X411.735 Y7.776
X411.768 Y7.149
X411.834 Y6.53
X411.922 Y5.989
X412.03 Y5.499
X412.146 Y5.089
X412.267 Y4.737
X412.381 Y4.456
X412.51 Y4.185
X412.634 Y3.957
X412.642 Y3.944
X412.844 Y3.673
X413.089 Y3.44
X413.369 Y3.252
X413.678 Y3.113
X414.005 Y3.029
X414.341 Y3
X414.759
G3 X415.33 Y3.503 I-0.021 J0.6
G1 X417.428 Y16.303
G3 X416.856 Y17 I-0.592 J0.097
G1 X415.596
X415.42 Y16.991
X415.296 Y16.978
X415.169 Y16.957
X415.023 Y16.924
X414.873 Y16.882
X414.704 Y16.824
X414.53 Y16.753
X414.338 Y16.662
X414.139 Y16.553
X413.93 Y16.422
X413.703 Y16.263
X413.479 Y16.085
X413.232 Y15.866
X412.988 Y15.624
X412.734 Y15.341
X412.467 Y15.008
X412.213 Y14.652
X411.955 Y14.243
X411.697 Y13.778
X411.448 Y13.264
X411.214 Y12.702
X411.006 Y12.11
X410.831 Y11.507
X410.687 Y10.896
X410.572 Y10.278
X410.487 Y9.656
X410.431 Y9.031
X410.404 Y8.404
X410.406 Y7.776
X410.439 Y7.149
X410.505 Y6.529
X410.593 Y5.989
X410.702 Y5.499
X410.817 Y5.089
X410.938 Y4.737
X411.052 Y4.456
X411.181 Y4.185
X411.306 Y3.957
X411.314 Y3.944
X411.516 Y3.673
X411.76 Y3.44
X412.041 Y3.252
X412.349 Y3.113
X412.676 Y3.029
X413.012 Y3
X413.41
G3 X413.98 Y3.499 I-0.021 J0.6
G1 X416.167 Y16.299
G3 X415.596 Y17 I-0.591 J0.101
G1 X414.255
X414.093 Y16.992
X413.969 Y16.979
X413.842 Y16.958
X413.695 Y16.925
X413.545 Y16.883
X413.376 Y16.824
X413.202 Y16.753
X413.01 Y16.662
X412.811 Y16.553
X412.601 Y16.422
X412.375 Y16.263
X412.15 Y16.085
X411.903 Y15.866
X411.66 Y15.624
X411.406 Y15.341
X411.138 Y15.008
X410.885 Y14.652
X410.626 Y14.242
X410.368 Y13.778
X410.119 Y13.264
X409.886 Y12.702
X409.678 Y12.11
X409.502 Y11.507
X409.358 Y10.896
X409.244 Y10.278
X409.159 Y9.656
X409.102 Y9.031
X409.075 Y8.403
X409.077 Y7.776
X409.111 Y7.149
X409.176 Y6.529
X409.264 Y5.989
X409.373 Y5.499
X409.489 Y5.089
X409.609 Y4.737
X409.724 Y4.456
X409.853 Y4.185
X409.977 Y3.957
X409.985 Y3.944
X410.187 Y3.673
X410.432 Y3.44
X410.712 Y3.252
X411.02 Y3.113
X411.347 Y3.029
X411.684 Y3
X412.096
G3 X412.323 Y3.054 I-0.021 J0.6
X412.666 Y3.5 I-0.249 J0.546
G1 X414.826 Y16.301
G3 X414.483 Y16.946 I-0.592 J0.1
X414.255 Y17 I-0.249 J-0.546
G1 X412.897
X412.767 Y16.993
X412.642 Y16.98
X412.515 Y16.959
X412.368 Y16.927
X412.218 Y16.884
X412.048 Y16.826
X411.875 Y16.755
X411.682 Y16.663
X411.483 Y16.554
X411.273 Y16.424
X411.047 Y16.264
X410.822 Y16.086
X410.575 Y15.867
X410.332 Y15.625
X410.077 Y15.342
X409.81 Y15.008
X409.556 Y14.653
X409.297 Y14.243
X409.04 Y13.779
X408.791 Y13.264
X408.557 Y12.702
X408.349 Y12.11
X408.173 Y11.507
X408.029 Y10.896
X407.915 Y10.278
X407.83 Y9.656
X407.774 Y9.031
X407.746 Y8.404
X407.749 Y7.776
X407.782 Y7.149
X407.847 Y6.53
X407.936 Y5.989
X408.044 Y5.499
X408.16 Y5.089
X408.281 Y4.737
X408.395 Y4.456
X408.524 Y4.185
X408.648 Y3.957
X408.656 Y3.944
X408.858 Y3.673
X409.103 Y3.44
X409.383 Y3.252
X409.691 Y3.113
X410.018 Y3.029
X410.355 Y3
X410.755
G3 X410.982 Y3.054 I-0.021 J0.6
X411.325 Y3.501 I-0.249 J0.546
G1 X413.467 Y16.301
G3 X412.897 Y17 I-0.592 J0.099
G1 X411.556
X411.438 Y16.994
X411.314 Y16.981
X411.186 Y16.96
X411.039 Y16.927
X410.89 Y16.885
X410.72 Y16.826
X410.547 Y16.756
X410.354 Y16.664
X410.155 Y16.555
X409.945 Y16.424
X409.719 Y16.265
X409.494 Y16.087
X409.246 Y15.867
X409.003 Y15.626
X408.749 Y15.343
X408.481 Y15.009
X408.228 Y14.653
X407.969 Y14.243
X407.711 Y13.779
X407.462 Y13.264
X407.228 Y12.703
X407.02 Y12.11
X406.845 Y11.507
X406.7 Y10.896
X406.586 Y10.279
X406.501 Y9.657
X406.445 Y9.031
X406.418 Y8.404
X406.42 Y7.776
X406.453 Y7.149
X406.519 Y6.53
X406.607 Y5.989
X406.716 Y5.499
X406.831 Y5.089
X406.952 Y4.737
X407.066 Y4.456
X407.195 Y4.185
X407.319 Y3.957
X407.328 Y3.944
X407.53 Y3.673
X407.774 Y3.44
X408.055 Y3.252
X408.363 Y3.113
X408.69 Y3.029
X409.026 Y3
X409.45
G3 X410.021 Y3.502 I-0.021 J0.6
G1 X412.127 Y16.303
G3 X411.556 Y17 I-0.592 J0.097
G1 X410.296
X410.105 Y16.99
X409.981 Y16.977
X409.853 Y16.956
X409.707 Y16.924
X409.557 Y16.881
X409.388 Y16.823
X409.215 Y16.752
X409.023 Y16.661
X408.824 Y16.552
X408.614 Y16.422
X408.388 Y16.262
X408.164 Y16.085
X407.916 Y15.865
X407.673 Y15.624
X407.419 Y15.341
X407.152 Y15.007
X406.898 Y14.652
X406.64 Y14.242
X406.382 Y13.778
X406.133 Y13.263
X405.9 Y12.702
X405.691 Y12.11
X405.516 Y11.507
X405.372 Y10.896
X405.257 Y10.278
X405.172 Y9.656
X405.116 Y9.031
X405.089 Y8.403
X405.091 Y7.775
X405.124 Y7.148
X405.19 Y6.529
X405.278 Y5.989
X405.387 Y5.499
X405.502 Y5.089
X405.623 Y4.737
X405.738 Y4.456
X405.867 Y4.185
X405.991 Y3.957
X405.999 Y3.944
X406.201 Y3.673
X406.446 Y3.44
X406.726 Y3.252
X407.034 Y3.113
X407.361 Y3.029
X407.698 Y3
X408.099
G3 X408.327 Y3.054 I-0.021 J0.6
X408.67 Y3.498 I-0.249 J0.546
G1 X410.866 Y16.299
G3 X410.523 Y16.946 I-0.591 J0.101
X410.296 Y17 I-0.249 J-0.546
G1 X408.937
X408.779 Y16.992
X408.655 Y16.979
X408.527 Y16.958
X408.381 Y16.925
X408.231 Y16.883
X408.061 Y16.825
X407.888 Y16.754
X407.695 Y16.662
X407.496 Y16.553
X407.287 Y16.422
X407.06 Y16.263
X406.836 Y16.085
X406.588 Y15.866
X406.345 Y15.624
X406.091 Y15.341
X405.823 Y15.007
X405.57 Y14.652
X405.311 Y14.242
X405.053 Y13.778
X404.804 Y13.263
X404.571 Y12.702
X404.363 Y12.109
X404.187 Y11.507
X404.043 Y10.896
X403.929 Y10.278
X403.844 Y9.656
X403.788 Y9.031
X403.76 Y8.403
X403.763 Y7.775
X403.796 Y7.148
X403.861 Y6.529
X403.95 Y5.989
X404.058 Y5.498
X404.174 Y5.088
X404.295 Y4.737
X404.409 Y4.456
X404.538 Y4.185
X404.662 Y3.957
X404.67 Y3.944
X404.872 Y3.673
X405.117 Y3.44
X405.397 Y3.252
X405.705 Y3.113
X406.032 Y3.029
X406.369 Y3
X406.788
G3 X407.016 Y3.054 I-0.021 J0.6
X407.359 Y3.5 I-0.249 J0.546
G1 X409.507 Y16.301
G3 X409.165 Y16.946 I-0.592 J0.099
X408.937 Y17 I-0.249 J-0.546
G1 X407.596
X407.451 Y16.993
X407.327 Y16.979
X407.199 Y16.959
X407.053 Y16.926
X406.903 Y16.884
X406.733 Y16.825
X406.56 Y16.754
X406.367 Y16.663
X406.168 Y16.554
X405.958 Y16.423
X405.732 Y16.264
X405.507 Y16.086
X405.26 Y15.866
X405.017 Y15.625
X404.762 Y15.342
X404.495 Y15.008
X404.241 Y14.652
X403.982 Y14.242
X403.725 Y13.778
X403.476 Y13.263
X403.242 Y12.702
X403.034 Y12.11
X402.858 Y11.507
X402.714 Y10.896
X402.6 Y10.278
X402.515 Y9.656
X402.459 Y9.031
X402.432 Y8.403
X402.434 Y7.776
X402.467 Y7.148
X402.533 Y6.529
X402.621 Y5.989
X402.73 Y5.499
X402.845 Y5.089
X402.966 Y4.737
X403.08 Y4.456
X403.209 Y4.185
X403.333 Y3.957
X403.342 Y3.944
X403.543 Y3.673
X403.788 Y3.44
X404.068 Y3.252
X404.376 Y3.113
X404.704 Y3.029
X405.04 Y3
X405.436
G3 X405.664 Y3.054 I-0.021 J0.6
X406.006 Y3.5 I-0.249 J0.546
G1 X408.166 Y16.301
G3 X407.596 Y17 I-0.592 J0.1
G1 X406.237
X406.124 Y16.994
X406 Y16.981
X405.872 Y16.96
X405.725 Y16.927
X405.575 Y16.885
X405.405 Y16.827
X405.232 Y16.756
X405.039 Y16.664
X404.84 Y16.555
X404.63 Y16.424
X404.404 Y16.265
X404.179 Y16.087
X403.932 Y15.867
X403.688 Y15.626
X403.434 Y15.342
X403.166 Y15.009
X402.913 Y14.653
X402.654 Y14.243
X402.396 Y13.779
X402.147 Y13.264
X401.913 Y12.702
X401.705 Y12.11
X401.53 Y11.507
X401.386 Y10.896
X401.271 Y10.279
X401.186 Y9.657
X401.13 Y9.031
X401.103 Y8.404
X401.105 Y7.776
X401.138 Y7.149
X401.204 Y6.53
X401.292 Y5.989
X401.401 Y5.499
X401.516 Y5.089
X401.637 Y4.737
X401.751 Y4.456
X401.88 Y4.185
X402.005 Y3.957
X402.013 Y3.944
X402.215 Y3.673
X402.459 Y3.44
X402.74 Y3.252
X403.048 Y3.113
X403.375 Y3.029
X403.711 Y3
X404.119
G3 X404.69 Y3.502 I-0.021 J0.6
G1 X406.808 Y16.302
G3 X406.465 Y16.946 I-0.592 J0.098
X406.237 Y17 I-0.249 J-0.546
G1 X404.896
X404.795 Y16.995
X404.671 Y16.982
X404.543 Y16.961
X404.396 Y16.928
X404.247 Y16.886
X404.077 Y16.827
X403.903 Y16.756
X403.711 Y16.665
X403.512 Y16.556
X403.302 Y16.425
X403.075 Y16.266
X402.851 Y16.088
X402.603 Y15.868
X402.36 Y15.626
X402.105 Y15.343
X401.838 Y15.009
X401.584 Y14.654
X401.325 Y14.244
X401.067 Y13.779
X400.818 Y13.264
X400.585 Y12.703
X400.377 Y12.111
X400.201 Y11.508
X400.057 Y10.897
X399.943 Y10.279
X399.858 Y9.657
X399.801 Y9.032
X399.774 Y8.404
X399.776 Y7.776
X399.81 Y7.149
X399.875 Y6.53
X399.963 Y5.989
X400.072 Y5.499
X400.187 Y5.089
X400.308 Y4.737
X400.423 Y4.456
X400.551 Y4.185
X400.676 Y3.957
X400.684 Y3.944
X400.886 Y3.673
X401.131 Y3.44
X401.411 Y3.252
X401.719 Y3.113
X402.046 Y3.029
X402.383 Y3
X402.79
G3 X403.361 Y3.502 I-0.021 J0.6
G1 X405.467 Y16.303
G3 X404.896 Y17 I-0.592 J0.097
G1 X403.636
X403.462 Y16.991
X403.338 Y16.978
X403.21 Y16.957
X403.064 Y16.925
X402.914 Y16.882
X402.745 Y16.824
X402.572 Y16.753
X402.38 Y16.662
X402.181 Y16.553
X401.971 Y16.422
X401.745 Y16.263
X401.52 Y16.085
X401.273 Y15.866
X401.03 Y15.624
X400.776 Y15.341
X400.508 Y15.008
X400.255 Y14.653
X399.996 Y14.243
X399.739 Y13.779
X399.49 Y13.264
X399.256 Y12.702
X399.048 Y12.11
X398.872 Y11.507
X398.728 Y10.896
X398.614 Y10.279
X398.529 Y9.656
X398.473 Y9.031
X398.445 Y8.404
X398.448 Y7.776
X398.481 Y7.149
X398.546 Y6.53
X398.635 Y5.989
X398.743 Y5.499
X398.859 Y5.089
X398.98 Y4.737
X399.094 Y4.456
X399.223 Y4.185
X399.347 Y3.957
X399.355 Y3.944
X399.557 Y3.673
X399.802 Y3.44
X400.082 Y3.252
X400.39 Y3.113
X400.717 Y3.029
X401.054 Y3
X401.476
G3 X401.704 Y3.054 I-0.021 J0.6
X402.047 Y3.5 I-0.249 J0.546
G1 X404.207 Y16.301
G3 X403.636 Y17 I-0.592 J0.1
G1 X402.277
X402.136 Y16.993
X402.012 Y16.98
X401.884 Y16.959
X401.737 Y16.926
X401.588 Y16.884
X401.418 Y16.825
X401.245 Y16.754
X401.052 Y16.663
X400.853 Y16.554
X400.643 Y16.423
X400.417 Y16.264
X400.192 Y16.086
X399.945 Y15.866
X399.702 Y15.625
X399.447 Y15.342
X399.18 Y15.008
X398.926 Y14.653
X398.668 Y14.243
X398.41 Y13.779
X398.161 Y13.264
X397.927 Y12.702
X397.719 Y12.11
X397.544 Y11.507
X397.399 Y10.896
X397.285 Y10.279
X397.2 Y9.656
X397.144 Y9.031
X397.117 Y8.404
X397.119 Y7.776
X397.152 Y7.149
X397.218 Y6.53
X397.306 Y5.989
X397.415 Y5.499
X397.53 Y5.089
X397.651 Y4.737
X397.765 Y4.456
X397.894 Y4.185
X398.018 Y3.957
X398.027 Y3.944
X398.229 Y3.673
X398.473 Y3.44
X398.754 Y3.252
X399.062 Y3.113
X399.389 Y3.029
X399.725 Y3
X400.135
G3 X400.706 Y3.501 I-0.021 J0.6
G1 X402.848 Y16.301
G3 X402.505 Y16.946 I-0.592 J0.099
X402.277 Y17 I-0.249 J-0.546
G1 X400.936
X400.808 Y16.994
X400.684 Y16.98
X400.556 Y16.959
X400.409 Y16.927
X400.259 Y16.884
X400.09 Y16.826
X399.916 Y16.755
X399.724 Y16.663
X399.525 Y16.555
X399.315 Y16.424
X399.089 Y16.265
X398.864 Y16.087
X398.616 Y15.867
X398.373 Y15.625
X398.119 Y15.342
X397.851 Y15.008
X397.598 Y14.653
X397.339 Y14.243
X397.081 Y13.779
X396.832 Y13.264
X396.599 Y12.703
X396.39 Y12.11
X396.215 Y11.507
X396.071 Y10.896
X395.956 Y10.279
X395.871 Y9.657
X395.815 Y9.031
X395.788 Y8.404
X395.79 Y7.776
X395.823 Y7.149
X395.889 Y6.53
X395.977 Y5.989
X396.086 Y5.499
X396.201 Y5.089
X396.322 Y4.737
X396.437 Y4.456
X396.565 Y4.185
X396.69 Y3.957
X396.698 Y3.944
X396.9 Y3.673
X397.144 Y3.44
X397.425 Y3.252
X397.733 Y3.113
X398.06 Y3.029
X398.397 Y3
X398.806
G3 X399.377 Y3.501 I-0.021 J0.6
G1 X401.507 Y16.302
G3 X400.936 Y17 I-0.592 J0.098
G1 X399.676
X399.475 Y16.99
X399.351 Y16.977
X399.223 Y16.956
X399.077 Y16.923
X398.927 Y16.881
X398.758 Y16.823
X398.585 Y16.752
X398.393 Y16.66
X398.194 Y16.552
X397.984 Y16.421
X397.758 Y16.262
X397.534 Y16.084
X397.287 Y15.865
X397.043 Y15.623
X396.789 Y15.34
X396.522 Y15.007
X396.268 Y14.652
X396.01 Y14.242
X395.752 Y13.778
X395.503 Y13.263
X395.27 Y12.702
X395.062 Y12.109
X394.886 Y11.507
X394.742 Y10.895
X394.628 Y10.278
X394.543 Y9.656
X394.487 Y9.031
X394.459 Y8.403
X394.461 Y7.775
X394.495 Y7.148
X394.56 Y6.529
X394.649 Y5.989
X394.757 Y5.498
X394.873 Y5.088
X394.994 Y4.736
X395.108 Y4.456
X395.237 Y4.185
X395.361 Y3.957
X395.369 Y3.944
X395.571 Y3.673
X395.816 Y3.44
X396.096 Y3.252
X396.404 Y3.113
X396.731 Y3.029
X397.068 Y3
X397.48
G3 X397.707 Y3.054 I-0.021 J0.6
X398.05 Y3.498 I-0.249 J0.546
G1 X400.246 Y16.299
G3 X399.676 Y17 I-0.591 J0.101
G1 X398.317
X398.149 Y16.992
X398.025 Y16.978
X397.897 Y16.957
X397.751 Y16.925
X397.601 Y16.882
X397.431 Y16.824
X397.258 Y16.753
X397.065 Y16.662
X396.866 Y16.553
X396.657 Y16.422
X396.43 Y16.263
X396.206 Y16.085
X395.958 Y15.865
X395.715 Y15.624
X395.461 Y15.341
X395.193 Y15.007
X394.94 Y14.652
X394.681 Y14.242
X394.423 Y13.778
X394.175 Y13.263
X393.941 Y12.702
X393.733 Y12.109
X393.557 Y11.506
X393.413 Y10.895
X393.299 Y10.278
X393.214 Y9.656
X393.158 Y9.03
X393.131 Y8.403
X393.133 Y7.775
X393.166 Y7.148
X393.232 Y6.529
X393.32 Y5.989
X393.429 Y5.498
X393.544 Y5.088
X393.665 Y4.736
X393.779 Y4.456
X393.908 Y4.185
X394.032 Y3.957
X394.041 Y3.944
X394.242 Y3.673
X394.487 Y3.44
X394.767 Y3.252
X395.076 Y3.113
X395.402 Y3.029
X395.739 Y3
X396.131
G3 X396.701 Y3.499 I-0.021 J0.6
G1 X398.887 Y16.299
G3 X398.545 Y16.946 I-0.591 J0.101
X398.317 Y17 I-0.249 J-0.546
G1 X396.976
X396.821 Y16.992
X396.697 Y16.979
X396.569 Y16.958
X396.423 Y16.925
X396.273 Y16.883
X396.103 Y16.825
X395.93 Y16.754
X395.737 Y16.662
X395.538 Y16.553
X395.328 Y16.423
X395.102 Y16.263
X394.877 Y16.085
X394.63 Y15.866
X394.387 Y15.624
X394.132 Y15.341
X393.865 Y15.007
X393.611 Y14.652
X393.353 Y14.242
X393.095 Y13.778
X392.846 Y13.263
X392.612 Y12.702
X392.404 Y12.109
X392.229 Y11.506
X392.084 Y10.895
X391.97 Y10.278
X391.885 Y9.656
X391.829 Y9.03
X391.802 Y8.403
X391.804 Y7.775
X391.837 Y7.148
X391.903 Y6.529
X391.991 Y5.989
X392.1 Y5.498
X392.215 Y5.088
X392.336 Y4.736
X392.451 Y4.456
X392.579 Y4.185
X392.704 Y3.957
X392.712 Y3.944
X392.914 Y3.673
X393.158 Y3.44
X393.439 Y3.252
X393.747 Y3.113
X394.074 Y3.029
X394.41 Y3
X394.816
G3 X395.044 Y3.054 I-0.021 J0.6
X395.387 Y3.5 I-0.249 J0.546
G1 X397.547 Y16.301
G3 X397.204 Y16.946 I-0.592 J0.1
X396.976 Y17 I-0.249 J-0.546
G1 X395.617
X395.494 Y16.994
X395.37 Y16.981
X395.242 Y16.96
X395.095 Y16.927
X394.945 Y16.885
X394.776 Y16.826
X394.602 Y16.755
X394.409 Y16.664
X394.21 Y16.555
X394 Y16.424
X393.774 Y16.265
X393.549 Y16.087
X393.302 Y15.867
X393.059 Y15.625
X392.804 Y15.342
X392.536 Y15.008
X392.283 Y14.653
X392.024 Y14.243
X391.766 Y13.779
X391.517 Y13.264
X391.284 Y12.702
X391.076 Y12.11
X390.9 Y11.507
X390.756 Y10.896
X390.642 Y10.278
X390.557 Y9.656
X390.5 Y9.031
X390.473 Y8.404
X390.475 Y7.776
X390.509 Y7.149
X390.574 Y6.529
X390.662 Y5.989
X390.771 Y5.499
X390.887 Y5.089
X391.007 Y4.737
X391.122 Y4.456
X391.251 Y4.185
X391.375 Y3.957
X391.383 Y3.944
X391.585 Y3.673
X391.83 Y3.44
X392.11 Y3.252
X392.418 Y3.113
X392.745 Y3.029
X393.082 Y3
X393.475
G3 X394.046 Y3.501 I-0.021 J0.6
G1 X396.188 Y16.301
G3 X395.617 Y17 I-0.592 J0.099
G1 X394.276
X394.165 Y16.994
X394.041 Y16.981
X393.913 Y16.96
X393.767 Y16.928
X393.617 Y16.885
X393.447 Y16.827
X393.273 Y16.756
X393.081 Y16.664
X392.882 Y16.555
X392.672 Y16.425
X392.446 Y16.265
X392.221 Y16.087
X391.973 Y15.867
X391.73 Y15.626
X391.476 Y15.343
X391.208 Y15.009
X390.954 Y14.653
X390.695 Y14.243
X390.438 Y13.779
X390.189 Y13.264
X389.955 Y12.703
X389.747 Y12.11
X389.571 Y11.507
X389.427 Y10.896
X389.313 Y10.279
X389.228 Y9.657
X389.172 Y9.031
X389.144 Y8.404
X389.147 Y7.776
X389.18 Y7.149
X389.245 Y6.53
X389.334 Y5.989
X389.442 Y5.499
X389.558 Y5.089
X389.679 Y4.737
X389.793 Y4.456
X389.922 Y4.185
X390.046 Y3.957
X390.054 Y3.944
X390.256 Y3.673
X390.501 Y3.44
X390.781 Y3.252
X391.089 Y3.113
X391.416 Y3.029
X391.753 Y3
X392.171
G3 X392.742 Y3.502 I-0.021 J0.6
G1 X394.847 Y16.303
G3 X394.276 Y17 I-0.592 J0.097
G1 X393.016
X392.832 Y16.991
X392.708 Y16.978
X392.58 Y16.957
X392.434 Y16.924
X392.284 Y16.882
X392.115 Y16.824
X391.942 Y16.753
X391.75 Y16.661
X391.551 Y16.552
X391.341 Y16.422
X391.115 Y16.263
X390.891 Y16.085
X390.643 Y15.865
X390.4 Y15.624
X390.146 Y15.341
X389.879 Y15.007
X389.625 Y14.652
X389.366 Y14.242
X389.109 Y13.778
X388.86 Y13.264
X388.626 Y12.702
X388.418 Y12.11
X388.243 Y11.507
X388.098 Y10.896
X387.984 Y10.278
X387.899 Y9.656
X387.843 Y9.031
X387.816 Y8.403
X387.818 Y7.776
X387.851 Y7.149
X387.917 Y6.529
X388.005 Y5.989
X388.114 Y5.499
X388.229 Y5.089
X388.35 Y4.737
X388.464 Y4.456
X388.593 Y4.185
X388.717 Y3.957
X388.726 Y3.944
X388.928 Y3.673
X389.172 Y3.44
X389.453 Y3.252
X389.761 Y3.113
X390.088 Y3.029
X390.424 Y3
X390.82
G3 X391.048 Y3.054 I-0.021 J0.6
X391.39 Y3.498 I-0.249 J0.546
G1 X393.587 Y16.299
G3 X393.244 Y16.946 I-0.591 J0.101
X393.016 Y17 I-0.249 J-0.546
G1 X391.657
X391.506 Y16.992
X391.382 Y16.979
X391.254 Y16.958
X391.108 Y16.926
X390.958 Y16.883
X390.788 Y16.825
X390.615 Y16.754
X390.422 Y16.662
X390.223 Y16.553
X390.013 Y16.423
X389.787 Y16.263
X389.562 Y16.086
X389.315 Y15.866
X389.072 Y15.624
X388.818 Y15.341
X388.55 Y15.008
X388.297 Y14.652
X388.038 Y14.242
X387.78 Y13.778
X387.531 Y13.263
X387.298 Y12.702
X387.089 Y12.11
X386.914 Y11.507
X386.77 Y10.896
X386.655 Y10.278
X386.57 Y9.656
X386.514 Y9.031
X386.487 Y8.403
X386.489 Y7.775
X386.522 Y7.148
X386.588 Y6.529
X386.676 Y5.989
X386.785 Y5.499
X386.9 Y5.089
X387.021 Y4.737
X387.136 Y4.456
X387.264 Y4.185
X387.389 Y3.957
X387.397 Y3.944
X387.599 Y3.673
X387.843 Y3.44
X388.124 Y3.252
X388.432 Y3.113
X388.759 Y3.029
X389.096 Y3
X389.515
G3 X390.086 Y3.501 I-0.021 J0.6
G1 X392.228 Y16.301
G3 X391.657 Y17 I-0.592 J0.099
G1 X390.316
X390.178 Y16.993
X390.054 Y16.98
X389.926 Y16.959
X389.779 Y16.926
X389.63 Y16.884
X389.46 Y16.825
X389.286 Y16.755
X389.094 Y16.663
X388.895 Y16.554
X388.685 Y16.423
X388.459 Y16.264
X388.234 Y16.086
X387.987 Y15.866
X387.743 Y15.625
X387.489 Y15.342
X387.221 Y15.008
X386.968 Y14.653
X386.709 Y14.243
X386.451 Y13.778
X386.202 Y13.264
X385.969 Y12.702
X385.761 Y12.11
X385.585 Y11.507
X385.441 Y10.896
X385.327 Y10.278
X385.242 Y9.656
X385.186 Y9.031
X385.158 Y8.404
X385.16 Y7.776
X385.194 Y7.149
X385.259 Y6.529
X385.348 Y5.989
X385.456 Y5.499
X385.572 Y5.089
X385.693 Y4.737
X385.807 Y4.456
X385.936 Y4.185
X386.06 Y3.957
X386.068 Y3.944
X386.27 Y3.673
X386.515 Y3.44
X386.795 Y3.252
X387.103 Y3.113
X387.43 Y3.029
X387.767 Y3
X388.186
G3 X388.757 Y3.501 I-0.021 J0.6
G1 X390.887 Y16.302
G3 X390.316 Y17 I-0.592 J0.098
G1 X388.957
X388.851 Y16.995
X388.726 Y16.981
X388.599 Y16.96
X388.452 Y16.928
X388.302 Y16.885
X388.132 Y16.827
X387.959 Y16.756
X387.766 Y16.664
X387.567 Y16.555
X387.357 Y16.425
X387.131 Y16.265
X386.906 Y16.087
X386.658 Y15.868
X386.415 Y15.626
X386.161 Y15.343
X385.893 Y15.009
X385.64 Y14.653
X385.381 Y14.243
X385.123 Y13.779
X384.874 Y13.264
X384.64 Y12.703
X384.432 Y12.11
X384.257 Y11.507
X384.112 Y10.896
X383.998 Y10.279
X383.913 Y9.657
X383.857 Y9.031
X383.83 Y8.404
X383.832 Y7.776
X383.865 Y7.149
X383.931 Y6.53
X384.019 Y5.989
X384.127 Y5.499
X384.243 Y5.089
X384.364 Y4.737
X384.478 Y4.456
X384.607 Y4.185
X384.731 Y3.957
X384.739 Y3.944
X384.941 Y3.673
X385.186 Y3.44
X385.466 Y3.252
X385.774 Y3.113
X386.101 Y3.029
X386.438 Y3
X386.86
G3 X387.431 Y3.503 I-0.021 J0.6
G1 X389.528 Y16.303
G3 X388.957 Y17 I-0.592 J0.097
G1 X387.616
X387.522 Y16.995
X387.398 Y16.982
X387.27 Y16.961
X387.123 Y16.928
X386.973 Y16.886
X386.804 Y16.828
X386.63 Y16.757
X386.438 Y16.665
X386.239 Y16.556
X386.029 Y16.425
X385.802 Y16.266
X385.577 Y16.088
X385.33 Y15.868
X385.087 Y15.627
X384.832 Y15.343
X384.564 Y15.01
X384.311 Y14.654
X384.052 Y14.244
X383.794 Y13.78
X383.545 Y13.265
X383.312 Y12.703
X383.103 Y12.111
X382.928 Y11.508
X382.784 Y10.897
X382.669 Y10.279
X382.584 Y9.657
X382.528 Y9.032
X382.501 Y8.405
X382.503 Y7.777
X382.536 Y7.15
X382.602 Y6.53
X382.69 Y5.99
X382.799 Y5.499
X382.914 Y5.089
X383.035 Y4.737
X383.149 Y4.457
X383.278 Y4.185
X383.402 Y3.958
X383.411 Y3.944
X383.613 Y3.673
X383.857 Y3.44
X384.138 Y3.252
X384.446 Y3.113
X384.773 Y3.029
X385.109 Y3
X385.511
G3 X386.082 Y3.502 I-0.021 J0.6
G1 X388.187 Y16.303
G3 X387.616 Y17 I-0.592 J0.097
G1 X386.356
X386.188 Y16.992
X386.065 Y16.978
X385.937 Y16.957
X385.791 Y16.925
X385.641 Y16.883
X385.472 Y16.824
X385.299 Y16.753
X385.106 Y16.662
X384.907 Y16.553
X384.698 Y16.423
X384.472 Y16.263
X384.247 Y16.086
X384 Y15.866
X383.757 Y15.625
X383.503 Y15.342
X383.235 Y15.008
X382.982 Y14.653
X382.723 Y14.243
X382.465 Y13.779
X382.216 Y13.264
X381.983 Y12.703
X381.775 Y12.11
X381.599 Y11.507
X381.455 Y10.896
X381.341 Y10.279
X381.256 Y9.657
X381.199 Y9.031
X381.172 Y8.404
X381.174 Y7.776
X381.207 Y7.149
X381.273 Y6.53
X381.361 Y5.989
X381.47 Y5.499
X381.585 Y5.089
X381.706 Y4.737
X381.821 Y4.456
X381.949 Y4.185
X382.074 Y3.957
X382.082 Y3.944
X382.284 Y3.673
X382.529 Y3.44
X382.809 Y3.252
X383.117 Y3.113
X383.444 Y3.029
X383.781 Y3
X384.196
G3 X384.424 Y3.054 I-0.021 J0.6
X384.767 Y3.5 I-0.249 J0.546
G1 X386.927 Y16.301
G3 X386.584 Y16.946 I-0.592 J0.1
X386.356 Y17 I-0.249 J-0.546
G1 X384.997
X384.863 Y16.993
X384.738 Y16.98
X384.611 Y16.959
X384.464 Y16.926
X384.314 Y16.884
X384.145 Y16.826
X383.971 Y16.755
X383.779 Y16.663
X383.58 Y16.554
X383.37 Y16.424
X383.144 Y16.264
X382.919 Y16.086
X382.672 Y15.867
X382.428 Y15.625
X382.174 Y15.342
X381.907 Y15.008
X381.653 Y14.653
X381.394 Y14.243
X381.137 Y13.779
X380.888 Y13.264
X380.654 Y12.703
X380.446 Y12.11
X380.27 Y11.507
X380.126 Y10.896
X380.012 Y10.279
X379.927 Y9.657
X379.871 Y9.031
X379.843 Y8.404
X379.846 Y7.776
X379.879 Y7.149
X379.944 Y6.53
X380.033 Y5.989
X380.141 Y5.499
X380.257 Y5.089
X380.378 Y4.737
X380.492 Y4.456
X380.621 Y4.185
X380.745 Y3.957
X380.753 Y3.944
X380.955 Y3.673
X381.2 Y3.44
X381.48 Y3.252
X381.788 Y3.113
X382.115 Y3.029
X382.452 Y3
X382.855
G3 X383.426 Y3.501 I-0.021 J0.6
G1 X385.568 Y16.301
G3 X384.997 Y17 I-0.592 J0.099
G1 X383.656
X383.535 Y16.994
X383.41 Y16.981
X383.283 Y16.96
X383.136 Y16.927
X382.986 Y16.885
X382.817 Y16.826
X382.643 Y16.755
X382.451 Y16.664
X382.252 Y16.555
X382.042 Y16.424
X381.815 Y16.265
X381.591 Y16.087
X381.343 Y15.867
X381.1 Y15.626
X380.846 Y15.343
X380.578 Y15.009
X380.324 Y14.653
X380.066 Y14.243
X379.808 Y13.779
X379.559 Y13.264
X379.325 Y12.703
X379.117 Y12.11
X378.942 Y11.507
X378.797 Y10.896
X378.683 Y10.279
X378.598 Y9.657
X378.542 Y9.031
X378.515 Y8.404
X378.517 Y7.776
X378.55 Y7.149
X378.616 Y6.53
X378.704 Y5.989
X378.813 Y5.499
X378.928 Y5.089
X379.049 Y4.737
X379.163 Y4.456
X379.292 Y4.185
X379.416 Y3.957
X379.425 Y3.944
X379.626 Y3.673
X379.871 Y3.44
X380.151 Y3.252
X380.46 Y3.113
X380.787 Y3.029
X381.123 Y3
X381.526
G3 X382.097 Y3.501 I-0.021 J0.6
G1 X384.227 Y16.302
G3 X383.656 Y17 I-0.592 J0.098
G1 X382.397
X382.201 Y16.99
X382.077 Y16.977
X381.95 Y16.956
X381.804 Y16.924
X381.654 Y16.881
X381.485 Y16.823
X381.312 Y16.752
X381.12 Y16.661
X380.921 Y16.552
X380.711 Y16.421
X380.485 Y16.262
X380.26 Y16.084
X380.013 Y15.865
X379.77 Y15.623
X379.516 Y15.341
X379.249 Y15.007
X378.995 Y14.652
X378.736 Y14.242
X378.479 Y13.778
X378.23 Y13.263
X377.996 Y12.702
X377.788 Y12.11
X377.613 Y11.507
X377.469 Y10.896
X377.354 Y10.278
X377.269 Y9.656
X377.213 Y9.031
X377.186 Y8.403
X377.188 Y7.776
X377.221 Y7.149
X377.287 Y6.529
X377.375 Y5.989
X377.484 Y5.499
X377.599 Y5.089
X377.72 Y4.737
X377.835 Y4.456
X377.963 Y4.185
X378.088 Y3.957
X378.096 Y3.944
X378.298 Y3.673
X378.542 Y3.44
X378.823 Y3.252
X379.131 Y3.113
X379.458 Y3.029
X379.794 Y3
X380.2
G3 X380.428 Y3.054 I-0.021 J0.6
X380.771 Y3.498 I-0.249 J0.546
G1 X382.967 Y16.299
G3 X382.624 Y16.946 I-0.591 J0.101
X382.397 Y17 I-0.249 J-0.546
G1 X381.038
X380.876 Y16.992
X380.752 Y16.979
X380.624 Y16.958
X380.477 Y16.925
X380.328 Y16.883
X380.158 Y16.824
X379.985 Y16.753
X379.792 Y16.662
X379.593 Y16.553
X379.383 Y16.422
X379.157 Y16.263
X378.932 Y16.085
X378.685 Y15.866
X378.442 Y15.624
X378.188 Y15.341
X377.92 Y15.007
X377.667 Y14.652
X377.408 Y14.242
X377.15 Y13.778
X376.901 Y13.263
X376.668 Y12.702
X376.46 Y12.109
X376.284 Y11.507
X376.14 Y10.896
X376.026 Y10.278
X375.941 Y9.656
X375.884 Y9.031
X375.857 Y8.403
X375.859 Y7.775
X375.893 Y7.148
X375.958 Y6.529
X376.047 Y5.989
X376.155 Y5.498
X376.271 Y5.088
X376.392 Y4.737
X376.506 Y4.456
X376.635 Y4.185
X376.759 Y3.957
X376.767 Y3.944
X376.969 Y3.673
X377.214 Y3.44
X377.494 Y3.252
X377.802 Y3.113
X378.129 Y3.029
X378.466 Y3
X378.889
G3 X379.117 Y3.054 I-0.021 J0.6
X379.46 Y3.5 I-0.249 J0.546
G1 X381.608 Y16.301
G3 X381.265 Y16.946 I-0.592 J0.099
X381.038 Y17 I-0.249 J-0.546
G1 X379.697
X379.548 Y16.993
X379.423 Y16.979
X379.296 Y16.958
X379.149 Y16.926
X378.999 Y16.883
X378.83 Y16.825
X378.656 Y16.754
X378.464 Y16.662
X378.265 Y16.554
X378.055 Y16.423
X377.829 Y16.264
X377.604 Y16.086
X377.357 Y15.866
X377.113 Y15.624
X376.859 Y15.341
X376.592 Y15.008
X376.338 Y14.652
X376.079 Y14.242
X375.822 Y13.778
X375.573 Y13.263
X375.339 Y12.702
X375.131 Y12.11
X374.955 Y11.507
X374.811 Y10.896
X374.697 Y10.278
X374.612 Y9.656
X374.556 Y9.031
X374.529 Y8.403
X374.531 Y7.775
X374.564 Y7.148
X374.63 Y6.529
X374.718 Y5.989
X374.826 Y5.499
X374.942 Y5.088
X375.063 Y4.737
X375.177 Y4.456
X375.306 Y4.185
X375.43 Y3.957
X375.438 Y3.944
X375.64 Y3.673
X375.885 Y3.44
X376.165 Y3.252
X376.473 Y3.113
X376.8 Y3.029
X377.137 Y3
X377.537
G3 X377.765 Y3.054 I-0.021 J0.6
X378.107 Y3.5 I-0.249 J0.546
G1 X380.267 Y16.301
G3 X379.697 Y17 I-0.592 J0.1
G1 X378.338
X378.221 Y16.994
X378.096 Y16.981
X377.969 Y16.96
X377.822 Y16.927
X377.672 Y16.885
X377.502 Y16.826
X377.329 Y16.756
X377.136 Y16.664
X376.937 Y16.555
X376.727 Y16.424
X376.501 Y16.265
X376.276 Y16.087
X376.028 Y15.867
X375.785 Y15.626
X375.531 Y15.342
X375.263 Y15.009
X375.01 Y14.653
X374.751 Y14.243
X374.493 Y13.779
X374.244 Y13.264
X374.01 Y12.702
X373.802 Y12.11
X373.627 Y11.507
X373.482 Y10.896
X373.368 Y10.279
X373.283 Y9.656
X373.227 Y9.031
X373.2 Y8.404
X373.202 Y7.776
X373.235 Y7.149
X373.301 Y6.53
X373.389 Y5.989
X373.498 Y5.499
X373.613 Y5.089
X373.734 Y4.737
X373.848 Y4.456
X373.977 Y4.185
X374.102 Y3.957
X374.11 Y3.944
X374.312 Y3.673
X374.556 Y3.44
X374.837 Y3.252
X375.145 Y3.113
X375.472 Y3.029
X375.808 Y3
X376.22
G3 X376.791 Y3.502 I-0.021 J0.6
G1 X378.909 Y16.302
G3 X378.566 Y16.946 I-0.592 J0.098
X378.338 Y17 I-0.249 J-0.546
G1 X376.997
X376.892 Y16.995
X376.768 Y16.981
X376.64 Y16.961
X376.493 Y16.928
X376.343 Y16.886
X376.174 Y16.827
X376 Y16.756
X375.808 Y16.665
X375.609 Y16.556
X375.399 Y16.425
X375.172 Y16.266
X374.947 Y16.088
X374.7 Y15.868
X374.457 Y15.626
X374.202 Y15.343
X373.935 Y15.009
X373.681 Y14.654
X373.422 Y14.244
X373.164 Y13.779
X372.915 Y13.264
X372.682 Y12.703
X372.474 Y12.11
X372.298 Y11.508
X372.154 Y10.896
X372.04 Y10.279
X371.955 Y9.657
X371.898 Y9.032
X371.871 Y8.404
X371.873 Y7.776
X371.906 Y7.149
X371.972 Y6.53
X372.06 Y5.989
X372.169 Y5.499
X372.284 Y5.089
X372.405 Y4.737
X372.52 Y4.456
X372.648 Y4.185
X372.773 Y3.957
X372.781 Y3.944
X372.983 Y3.673
X373.228 Y3.44
X373.508 Y3.252
X373.816 Y3.113
X374.143 Y3.029
X374.48 Y3
X374.891
G3 X375.462 Y3.502 I-0.021 J0.6
G1 X377.568 Y16.303
G3 X376.997 Y17 I-0.592 J0.097
G1 X375.737
X375.558 Y16.991
X375.435 Y16.978
X375.307 Y16.957
X375.161 Y16.924
X375.011 Y16.882
X374.842 Y16.824
X374.669 Y16.753
X374.477 Y16.662
X374.277 Y16.553
X374.068 Y16.422
X373.842 Y16.263
X373.617 Y16.085
X373.37 Y15.866
X373.127 Y15.624
X372.873 Y15.341
X372.605 Y15.008
X372.352 Y14.652
X372.093 Y14.243
X371.835 Y13.778
X371.586 Y13.264
X371.353 Y12.702
X371.145 Y12.11
X370.969 Y11.507
X370.825 Y10.896
X370.711 Y10.278
X370.626 Y9.656
X370.57 Y9.031
X370.542 Y8.404
X370.545 Y7.776
X370.578 Y7.149
X370.643 Y6.529
X370.732 Y5.989
X370.84 Y5.499
X370.956 Y5.089
X371.077 Y4.737
X371.191 Y4.456
X371.32 Y4.185
X371.444 Y3.957
X371.452 Y3.944
X371.654 Y3.673
X371.899 Y3.44
X372.179 Y3.252
X372.487 Y3.113
X372.814 Y3.029
X373.151 Y3
X373.56
G3 X373.788 Y3.054 I-0.021 J0.6
X374.131 Y3.499 I-0.249 J0.546
G1 X376.307 Y16.3
G3 X375.737 Y17 I-0.591 J0.101
G1 X374.378
X374.233 Y16.993
X374.109 Y16.979
X373.981 Y16.959
X373.834 Y16.926
X373.684 Y16.884
X373.515 Y16.825
X373.341 Y16.754
X373.149 Y16.663
X372.95 Y16.554
X372.74 Y16.423
X372.514 Y16.264
X372.289 Y16.086
X372.042 Y15.866
X371.799 Y15.625
X371.544 Y15.342
X371.277 Y15.008
X371.023 Y14.653
X370.764 Y14.243
X370.507 Y13.779
X370.258 Y13.264
X370.024 Y12.702
X369.816 Y12.11
X369.641 Y11.507
X369.496 Y10.896
X369.382 Y10.278
X369.297 Y9.656
X369.241 Y9.031
X369.214 Y8.404
X369.216 Y7.776
X369.249 Y7.149
X369.315 Y6.529
X369.403 Y5.989
X369.512 Y5.499
X369.627 Y5.089
X369.748 Y4.737
X369.862 Y4.456
X369.991 Y4.185
X370.115 Y3.957
X370.124 Y3.944
X370.326 Y3.673
X370.57 Y3.44
X370.85 Y3.252
X371.159 Y3.113
X371.486 Y3.029
X371.822 Y3
X372.236
G3 X372.807 Y3.501 I-0.021 J0.6
G1 X374.949 Y16.301
G3 X374.378 Y17 I-0.592 J0.099
G1 X373.037
X372.905 Y16.993
X372.78 Y16.98
X372.653 Y16.959
X372.506 Y16.927
X372.356 Y16.884
X372.187 Y16.826
X372.013 Y16.755
X371.821 Y16.663
X371.622 Y16.554
X371.412 Y16.424
X371.185 Y16.264
X370.961 Y16.086
X370.713 Y15.867
X370.47 Y15.625
X370.216 Y15.342
X369.948 Y15.008
X369.695 Y14.653
X369.436 Y14.243
X369.178 Y13.779
X368.929 Y13.264
X368.695 Y12.702
X368.487 Y12.11
X368.312 Y11.507
X368.168 Y10.896
X368.053 Y10.279
X367.968 Y9.656
X367.912 Y9.031
X367.885 Y8.404
X367.887 Y7.776
X367.92 Y7.149
X367.986 Y6.53
X368.074 Y5.989
X368.183 Y5.499
X368.298 Y5.089
X368.419 Y4.737
X368.534 Y4.456
X368.662 Y4.185
X368.787 Y3.957
X368.795 Y3.944
X368.997 Y3.673
X369.241 Y3.44
X369.522 Y3.252
X369.83 Y3.113
X370.157 Y3.029
X370.493 Y3
X370.907
G3 X371.478 Y3.501 I-0.021 J0.6
G1 X373.608 Y16.302
G3 X373.037 Y17 I-0.592 J0.098
G1 X371.678
X371.577 Y16.995
X371.453 Y16.982
X371.325 Y16.961
X371.179 Y16.928
X371.029 Y16.886
X370.859 Y16.827
X370.685 Y16.756
X370.493 Y16.665
X370.294 Y16.556
X370.084 Y16.425
X369.857 Y16.266
X369.633 Y16.088
X369.385 Y15.868
X369.142 Y15.626
X368.887 Y15.343
X368.62 Y15.009
X368.366 Y14.654
X368.107 Y14.244
X367.849 Y13.779
X367.6 Y13.264
X367.367 Y12.703
X367.159 Y12.11
X366.983 Y11.508
X366.839 Y10.896
X366.725 Y10.279
X366.64 Y9.657
X366.583 Y9.032
X366.556 Y8.404
X366.558 Y7.776
X366.592 Y7.149
X366.657 Y6.53
X366.745 Y5.989
X366.854 Y5.499
X366.969 Y5.089
X367.09 Y4.737
X367.205 Y4.456
X367.334 Y4.185
X367.458 Y3.957
X367.466 Y3.944
X367.668 Y3.673
X367.913 Y3.44
X368.193 Y3.252
X368.501 Y3.113
X368.828 Y3.029
X369.165 Y3
X369.581
G3 X370.152 Y3.503 I-0.021 J0.6
G1 X372.249 Y16.303
G3 X371.678 Y17 I-0.592 J0.097
G1 X370.418
X370.244 Y16.991
X370.12 Y16.978
X369.992 Y16.957
X369.846 Y16.925
X369.696 Y16.882
X369.527 Y16.824
X369.354 Y16.753
X369.162 Y16.662
X368.963 Y16.553
X368.753 Y16.422
X368.527 Y16.263
X368.302 Y16.085
X368.055 Y15.866
X367.812 Y15.624
X367.558 Y15.341
X367.29 Y15.008
X367.037 Y14.652
X366.778 Y14.243
X366.521 Y13.779
X366.272 Y13.264
X366.038 Y12.702
X365.83 Y12.11
X365.654 Y11.507
X365.51 Y10.896
X365.396 Y10.279
X365.311 Y9.656
X365.255 Y9.031
X365.227 Y8.404
X365.23 Y7.776
X365.263 Y7.149
X365.328 Y6.53
X365.417 Y5.989
X365.525 Y5.499
X365.641 Y5.089
X365.762 Y4.737
X365.876 Y4.456
X366.005 Y4.185
X366.129 Y3.957
X366.137 Y3.944
X366.339 Y3.673
X366.584 Y3.44
X366.864 Y3.252
X367.172 Y3.113
X367.499 Y3.029
X367.836 Y3
X368.231
G3 X368.802 Y3.499 I-0.021 J0.6
G1 X370.988 Y16.299
G3 X370.418 Y17 I-0.591 J0.101
G1 X369.077
X368.917 Y16.992
X368.793 Y16.979
X368.665 Y16.958
X368.519 Y16.925
X368.369 Y16.883
X368.199 Y16.824
X368.026 Y16.754
X367.834 Y16.662
X367.635 Y16.553
X367.425 Y16.422
X367.198 Y16.263
X366.974 Y16.085
X366.727 Y15.866
X366.483 Y15.624
X366.229 Y15.341
X365.962 Y15.008
X365.708 Y14.652
X365.449 Y14.242
X365.192 Y13.778
X364.943 Y13.264
X364.709 Y12.702
X364.501 Y12.11
X364.326 Y11.507
X364.181 Y10.896
X364.067 Y10.278
X363.982 Y9.656
X363.926 Y9.031
X363.899 Y8.404
X363.901 Y7.776
X363.934 Y7.149
X364 Y6.529
X364.088 Y5.989
X364.197 Y5.499
X364.312 Y5.089
X364.433 Y4.737
X364.547 Y4.456
X364.676 Y4.185
X364.801 Y3.957
X364.809 Y3.944
X365.011 Y3.673
X365.255 Y3.44
X365.536 Y3.252
X365.844 Y3.113
X366.171 Y3.029
X366.507 Y3
X366.917
G3 X367.145 Y3.054 I-0.021 J0.6
X367.488 Y3.5 I-0.249 J0.546
G1 X369.648 Y16.301
G3 X369.305 Y16.946 I-0.592 J0.1
X369.077 Y17 I-0.249 J-0.546
G1 X367.718
X367.59 Y16.994
X367.466 Y16.98
X367.338 Y16.959
X367.192 Y16.927
X367.042 Y16.884
X366.872 Y16.826
X366.699 Y16.755
X366.506 Y16.663
X366.307 Y16.554
X366.097 Y16.424
X365.871 Y16.264
X365.646 Y16.086
X365.398 Y15.867
X365.155 Y15.625
X364.901 Y15.342
X364.633 Y15.008
X364.38 Y14.653
X364.121 Y14.243
X363.863 Y13.779
X363.614 Y13.264
X363.381 Y12.702
X363.172 Y12.11
X362.997 Y11.507
X362.853 Y10.896
X362.738 Y10.279
X362.653 Y9.656
X362.597 Y9.031
X362.57 Y8.404
X362.572 Y7.776
X362.605 Y7.149
X362.671 Y6.53
X362.759 Y5.989
X362.868 Y5.499
X362.983 Y5.089
X363.104 Y4.737
X363.219 Y4.456
X363.347 Y4.185
X363.472 Y3.957
X363.48 Y3.944
X363.682 Y3.673
X363.927 Y3.44
X364.207 Y3.252
X364.515 Y3.113
X364.842 Y3.029
X365.179 Y3
X365.576
G3 X366.147 Y3.501 I-0.021 J0.6
G1 X368.289 Y16.301
G3 X367.718 Y17 I-0.592 J0.099
G1 X366.377
X366.262 Y16.994
X366.137 Y16.981
X366.01 Y16.96
X365.863 Y16.927
X365.713 Y16.885
X365.544 Y16.827
X365.37 Y16.756
X365.178 Y16.664
X364.979 Y16.555
X364.769 Y16.424
X364.542 Y16.265
X364.317 Y16.087
X364.07 Y15.867
X363.827 Y15.626
X363.572 Y15.343
X363.305 Y15.009
X363.051 Y14.653
X362.792 Y14.243
X362.535 Y13.779
X362.285 Y13.264
X362.052 Y12.703
X361.844 Y12.11
X361.668 Y11.507
X361.524 Y10.896
X361.41 Y10.279
X361.325 Y9.657
X361.269 Y9.031
X361.241 Y8.404
X361.243 Y7.776
X361.277 Y7.149
X361.342 Y6.53
X361.43 Y5.989
X361.539 Y5.499
X361.655 Y5.089
X361.775 Y4.737
X361.89 Y4.456
X362.019 Y4.185
X362.143 Y3.957
X362.151 Y3.944
X362.353 Y3.673
X362.598 Y3.44
X362.878 Y3.252
X363.186 Y3.113
X363.513 Y3.029
X363.85 Y3
X364.272
G3 X364.843 Y3.502 I-0.021 J0.6
G1 X366.948 Y16.303
G3 X366.377 Y17 I-0.592 J0.097
G1 X365.117
X364.928 Y16.991
X364.804 Y16.977
X364.677 Y16.956
X364.531 Y16.924
X364.381 Y16.882
X364.212 Y16.823
X364.038 Y16.752
X363.846 Y16.661
X363.647 Y16.552
X363.438 Y16.422
X363.212 Y16.262
X362.987 Y16.085
X362.74 Y15.865
X362.497 Y15.624
X362.243 Y15.341
X361.975 Y15.007
X361.722 Y14.652
X361.463 Y14.242
X361.206 Y13.778
X360.957 Y13.264
X360.723 Y12.702
X360.515 Y12.11
X360.339 Y11.507
X360.195 Y10.896
X360.081 Y10.278
X359.996 Y9.656
X359.94 Y9.031
X359.913 Y8.403
X359.915 Y7.776
X359.948 Y7.149
X360.014 Y6.529
X360.102 Y5.989
X360.211 Y5.499
X360.326 Y5.089
X360.447 Y4.737
X360.561 Y4.456
X360.69 Y4.185
X360.814 Y3.957
X360.823 Y3.944
X361.024 Y3.673
X361.269 Y3.44
X361.549 Y3.252
X361.858 Y3.113
X362.185 Y3.029
X362.521 Y3
X362.921
G3 X363.149 Y3.054 I-0.021 J0.6
X363.491 Y3.498 I-0.249 J0.546
G1 X365.688 Y16.299
G3 X365.117 Y17 I-0.591 J0.101
G1 X363.758
X363.603 Y16.992
X363.479 Y16.979
X363.351 Y16.958
X363.204 Y16.925
X363.054 Y16.883
X362.885 Y16.825
X362.711 Y16.754
X362.519 Y16.662
X362.32 Y16.553
X362.11 Y16.423
X361.884 Y16.263
X361.659 Y16.085
X361.412 Y15.866
X361.169 Y15.624
X360.914 Y15.341
X360.647 Y15.008
X360.393 Y14.652
X360.135 Y14.242
X359.877 Y13.778
X359.628 Y13.263
X359.394 Y12.702
X359.186 Y12.11
X359.011 Y11.507
X358.866 Y10.896
X358.752 Y10.278
X358.667 Y9.656
X358.611 Y9.031
X358.584 Y8.403
X358.586 Y7.775
X358.619 Y7.148
X358.685 Y6.529
X358.773 Y5.989
X358.882 Y5.499
X358.997 Y5.089
X359.118 Y4.737
X359.233 Y4.456
X359.361 Y4.185
X359.486 Y3.957
X359.494 Y3.944
X359.696 Y3.673
X359.94 Y3.44
X360.221 Y3.252
X360.529 Y3.113
X360.856 Y3.029
X361.192 Y3
X361.616
G3 X362.187 Y3.501 I-0.021 J0.6
G1 X364.329 Y16.301
G3 X363.758 Y17 I-0.592 J0.099
G1 X362.417
X362.275 Y16.993
X362.15 Y16.98
X362.023 Y16.959
X361.876 Y16.926
X361.726 Y16.884
X361.557 Y16.825
X361.383 Y16.754
X361.191 Y16.663
X360.992 Y16.554
X360.782 Y16.423
X360.555 Y16.264
X360.331 Y16.086
X360.083 Y15.866
X359.84 Y15.625
X359.586 Y15.342
X359.318 Y15.008
X359.065 Y14.653
X358.806 Y14.243
X358.548 Y13.778
X358.299 Y13.264
X358.066 Y12.702
X357.858 Y12.11
X357.682 Y11.507
X357.538 Y10.896
X357.424 Y10.278
X357.339 Y9.656
X357.282 Y9.031
X357.255 Y8.403
X357.257 Y7.776
X357.291 Y7.149
X357.356 Y6.529
X357.444 Y5.989
X357.553 Y5.499
X357.669 Y5.089
X357.789 Y4.737
X357.904 Y4.456
X358.033 Y4.185
X358.157 Y3.957
X358.165 Y3.944
X358.367 Y3.673
X358.612 Y3.44
X358.892 Y3.252
X359.2 Y3.113
X359.527 Y3.029
X359.864 Y3
X360.257
G3 X360.485 Y3.054 I-0.021 J0.6
X360.828 Y3.5 I-0.249 J0.546
G1 X362.988 Y16.301
G3 X362.645 Y16.946 I-0.592 J0.1
X362.417 Y17 I-0.249 J-0.546
G1 X361.058
X360.947 Y16.994
X360.823 Y16.981
X360.695 Y16.96
X360.549 Y16.928
X360.399 Y16.885
X360.229 Y16.827
X360.056 Y16.756
X359.863 Y16.664
X359.664 Y16.555
X359.454 Y16.424
X359.228 Y16.265
X359.003 Y16.087
X358.755 Y15.867
X358.512 Y15.626
X358.257 Y15.343
X357.99 Y15.009
X357.736 Y14.653
X357.477 Y14.243
X357.22 Y13.779
X356.971 Y13.264
X356.737 Y12.703
X356.529 Y12.11
X356.353 Y11.507
X356.209 Y10.896
X356.095 Y10.279
X356.01 Y9.657
X355.954 Y9.031
X355.926 Y8.404
X355.929 Y7.776
X355.962 Y7.149
X356.027 Y6.53
X356.116 Y5.989
X356.224 Y5.499
X356.34 Y5.089
X356.461 Y4.737
X356.575 Y4.456
X356.704 Y4.185
X356.828 Y3.957
X356.836 Y3.944
X357.038 Y3.673
X357.283 Y3.44
X357.563 Y3.252
X357.871 Y3.113
X358.198 Y3.029
X358.535 Y3
X358.941
G3 X359.512 Y3.502 I-0.021 J0.6
G1 X361.629 Y16.302
G3 X361.058 Y17 I-0.592 J0.098
G1 X359.717
X359.619 Y16.995
X359.494 Y16.982
X359.367 Y16.961
X359.22 Y16.928
X359.07 Y16.886
X358.9 Y16.827
X358.727 Y16.757
X358.534 Y16.665
X358.335 Y16.556
X358.125 Y16.425
X357.899 Y16.266
X357.674 Y16.088
X357.427 Y15.868
X357.184 Y15.626
X356.929 Y15.343
X356.661 Y15.009
X356.408 Y14.654
X356.149 Y14.244
X355.891 Y13.78
X355.642 Y13.265
X355.408 Y12.703
X355.2 Y12.111
X355.025 Y11.508
X354.88 Y10.897
X354.766 Y10.279
X354.681 Y9.657
X354.625 Y9.032
X354.598 Y8.404
X354.6 Y7.777
X354.633 Y7.149
X354.699 Y6.53
X354.787 Y5.99
X354.895 Y5.499
X355.011 Y5.089
X355.132 Y4.737
X355.246 Y4.456
X355.375 Y4.185
X355.499 Y3.958
X355.508 Y3.944
X355.71 Y3.673
X355.954 Y3.44
X356.234 Y3.252
X356.543 Y3.113
X356.87 Y3.029
X357.206 Y3
X357.612
G3 X358.183 Y3.502 I-0.021 J0.6
G1 X360.288 Y16.303
G3 X359.945 Y16.946 I-0.592 J0.097
X359.717 Y17 I-0.249 J-0.546
G1 X358.457
X358.285 Y16.991
X358.161 Y16.978
X358.034 Y16.957
X357.888 Y16.925
X357.738 Y16.882
X357.569 Y16.824
X357.395 Y16.753
X357.203 Y16.662
X357.004 Y16.553
X356.795 Y16.422
X356.568 Y16.263
X356.344 Y16.085
X356.097 Y15.866
X355.854 Y15.624
X355.599 Y15.342
X355.332 Y15.008
X355.078 Y14.653
X354.82 Y14.243
X354.562 Y13.779
X354.313 Y13.264
X354.08 Y12.702
X353.871 Y12.11
X353.696 Y11.507
X353.552 Y10.896
X353.437 Y10.279
X353.352 Y9.657
X353.296 Y9.031
X353.269 Y8.404
X353.271 Y7.776
X353.304 Y7.149
X353.37 Y6.53
X353.458 Y5.989
X353.567 Y5.499
X353.682 Y5.089
X353.803 Y4.737
X353.918 Y4.456
X354.046 Y4.185
X354.171 Y3.957
X354.179 Y3.944
X354.381 Y3.673
X354.625 Y3.44
X354.906 Y3.252
X355.214 Y3.113
X355.541 Y3.029
X355.878 Y3
X356.297
G3 X356.525 Y3.054 I-0.021 J0.6
X356.868 Y3.5 I-0.249 J0.546
G1 X359.028 Y16.301
G3 X358.685 Y16.946 I-0.592 J0.1
X358.457 Y17 I-0.249 J-0.546
G1 X357.098
X356.96 Y16.993
X356.835 Y16.98
X356.708 Y16.959
X356.561 Y16.926
X356.411 Y16.884
X356.242 Y16.825
X356.068 Y16.755
X355.876 Y16.663
X355.677 Y16.554
X355.467 Y16.423
X355.24 Y16.264
X355.016 Y16.086
X354.768 Y15.867
X354.525 Y15.625
X354.271 Y15.342
X354.003 Y15.008
X353.75 Y14.653
X353.491 Y14.243
X353.233 Y13.779
X352.984 Y13.264
X352.751 Y12.702
X352.543 Y12.11
X352.367 Y11.507
X352.223 Y10.896
X352.109 Y10.279
X352.024 Y9.657
X351.968 Y9.031
X351.94 Y8.404
X351.942 Y7.776
X351.976 Y7.149
X352.041 Y6.53
X352.129 Y5.989
X352.238 Y5.499
X352.354 Y5.089
X352.474 Y4.737
X352.589 Y4.456
X352.718 Y4.185
X352.842 Y3.957
X352.85 Y3.944
X353.052 Y3.673
X353.297 Y3.44
X353.577 Y3.252
X353.885 Y3.113
X354.212 Y3.029
X354.549 Y3
X354.956
G3 X355.527 Y3.501 I-0.021 J0.6
G1 X357.669 Y16.301
G3 X357.098 Y17 I-0.592 J0.099
G1 X355.757
X355.631 Y16.994
X355.507 Y16.98
X355.379 Y16.959
X355.233 Y16.927
X355.083 Y16.885
X354.913 Y16.826
X354.74 Y16.755
X354.547 Y16.664
X354.348 Y16.555
X354.138 Y16.424
X353.912 Y16.265
X353.687 Y16.087
X353.44 Y15.867
X353.197 Y15.625
X352.942 Y15.342
X352.675 Y15.009
X352.421 Y14.653
X352.162 Y14.243
X351.905 Y13.779
X351.656 Y13.264
X351.422 Y12.703
X351.214 Y12.11
X351.038 Y11.507
X350.894 Y10.896
X350.78 Y10.279
X350.695 Y9.657
X350.639 Y9.031
X350.612 Y8.404
X350.614 Y7.776
X350.647 Y7.149
X350.712 Y6.53
X350.801 Y5.989
X350.909 Y5.499
X351.025 Y5.089
X351.146 Y4.737
X351.26 Y4.456
X351.389 Y4.185
X351.513 Y3.957
X351.521 Y3.944
X351.723 Y3.673
X351.968 Y3.44
X352.248 Y3.252
X352.556 Y3.113
X352.883 Y3.029
X353.22 Y3
X353.627
G3 X354.198 Y3.501 I-0.021 J0.6
G1 X356.328 Y16.302
G3 X355.985 Y16.946 I-0.592 J0.098
X355.757 Y17 I-0.249 J-0.546
G1 X354.497
X354.298 Y16.99
X354.174 Y16.977
X354.047 Y16.956
X353.901 Y16.923
X353.751 Y16.881
X353.582 Y16.823
X353.408 Y16.752
X353.216 Y16.661
X353.017 Y16.552
X352.808 Y16.421
X352.582 Y16.262
X352.357 Y16.084
X352.11 Y15.865
X351.867 Y15.623
X351.613 Y15.341
X351.345 Y15.007
X351.092 Y14.652
X350.833 Y14.242
X350.576 Y13.778
X350.327 Y13.263
X350.093 Y12.702
X349.885 Y12.109
X349.71 Y11.507
X349.565 Y10.896
X349.451 Y10.278
X349.366 Y9.656
X349.31 Y9.031
X349.283 Y8.403
X349.285 Y7.775
X349.318 Y7.148
X349.384 Y6.529
X349.472 Y5.989
X349.581 Y5.498
X349.696 Y5.089
X349.817 Y4.737
X349.931 Y4.456
X350.06 Y4.185
X350.185 Y3.957
X350.193 Y3.944
X350.395 Y3.673
X350.639 Y3.44
X350.92 Y3.252
X351.228 Y3.113
X351.555 Y3.029
X351.891 Y3
X352.301
G3 X352.529 Y3.054 I-0.021 J0.6
X352.871 Y3.498 I-0.249 J0.546
G1 X355.068 Y16.299
G3 X354.725 Y16.946 I-0.591 J0.101
X354.497 Y17 I-0.249 J-0.546
G1 X353.138
X352.973 Y16.992
X352.848 Y16.978
X352.721 Y16.958
X352.574 Y16.925
X352.424 Y16.883
X352.255 Y16.824
X352.081 Y16.753
X351.889 Y16.662
X351.69 Y16.553
X351.48 Y16.422
X351.254 Y16.263
X351.029 Y16.085
X350.782 Y15.865
X350.539 Y15.624
X350.284 Y15.341
X350.017 Y15.007
X349.764 Y14.652
X349.505 Y14.242
X349.247 Y13.778
X348.998 Y13.263
X348.765 Y12.702
X348.556 Y12.109
X348.381 Y11.506
X348.237 Y10.895
X348.122 Y10.278
X348.037 Y9.656
X347.981 Y9.03
X347.954 Y8.403
X347.956 Y7.775
X347.99 Y7.148
X348.055 Y6.529
X348.143 Y5.989
X348.252 Y5.498
X348.368 Y5.088
X348.488 Y4.736
X348.603 Y4.456
X348.732 Y4.185
X348.856 Y3.957
X348.864 Y3.944
X349.066 Y3.673
X349.311 Y3.44
X349.591 Y3.252
X349.899 Y3.113
X350.226 Y3.029
X350.563 Y3
X350.973
G3 X351.544 Y3.5 I-0.021 J0.6
G1 X353.709 Y16.3
G3 X353.138 Y17 I-0.592 J0.1
G1 X351.798
X351.645 Y16.992
X351.52 Y16.979
X351.393 Y16.958
X351.246 Y16.925
X351.096 Y16.883
X350.927 Y16.825
X350.753 Y16.754
X350.561 Y16.662
X350.362 Y16.553
X350.152 Y16.423
X349.926 Y16.263
X349.701 Y16.085
X349.453 Y15.866
X349.21 Y15.624
X348.956 Y15.341
X348.688 Y15.007
X348.435 Y14.652
X348.176 Y14.242
X347.918 Y13.778
X347.669 Y13.263
X347.436 Y12.702
X347.228 Y12.109
X347.052 Y11.507
X346.908 Y10.895
X346.794 Y10.278
X346.709 Y9.656
X346.653 Y9.031
X346.625 Y8.403
X346.628 Y7.775
X346.661 Y7.148
X346.726 Y6.529
X346.815 Y5.989
X346.923 Y5.498
X347.039 Y5.088
X347.16 Y4.736
X347.274 Y4.456
X347.403 Y4.185
X347.527 Y3.957
X347.535 Y3.944
X347.737 Y3.673
X347.982 Y3.44
X348.262 Y3.252
X348.57 Y3.113
X348.897 Y3.029
X349.234 Y3
X349.638
G3 X349.865 Y3.054 I-0.021 J0.6
X350.208 Y3.5 I-0.249 J0.546
G1 X352.368 Y16.301
G3 X352.025 Y16.946 I-0.592 J0.1
X351.798 Y17 I-0.249 J-0.546
G1 X350.439
X350.317 Y16.994
X350.193 Y16.981
X350.065 Y16.96
X349.919 Y16.927
X349.769 Y16.885
X349.599 Y16.826
X349.426 Y16.755
X349.233 Y16.664
X349.034 Y16.555
X348.824 Y16.424
X348.598 Y16.265
X348.373 Y16.087
X348.125 Y15.867
X347.882 Y15.625
X347.628 Y15.342
X347.36 Y15.008
X347.107 Y14.653
X346.848 Y14.243
X346.59 Y13.779
X346.341 Y13.264
X346.107 Y12.702
X345.899 Y12.11
X345.724 Y11.507
X345.579 Y10.896
X345.465 Y10.278
X345.38 Y9.656
X345.324 Y9.031
X345.297 Y8.404
X345.299 Y7.776
X345.332 Y7.149
X345.398 Y6.529
X345.486 Y5.989
X345.595 Y5.499
X345.71 Y5.089
X345.831 Y4.737
X345.945 Y4.456
X346.074 Y4.185
X346.198 Y3.957
X346.207 Y3.944
X346.409 Y3.673
X346.653 Y3.44
X346.934 Y3.252
X347.242 Y3.113
X347.569 Y3.029
X347.905 Y3
X348.297
G3 X348.867 Y3.501 I-0.021 J0.6
G1 X351.009 Y16.301
G3 X350.439 Y17 I-0.592 J0.099
G1 X349.098
X348.989 Y16.995
X348.864 Y16.981
X348.737 Y16.96
X348.59 Y16.928
X348.44 Y16.885
X348.271 Y16.827
X348.097 Y16.756
X347.905 Y16.664
X347.705 Y16.555
X347.495 Y16.425
X347.269 Y16.265
X347.044 Y16.087
X346.797 Y15.868
X346.554 Y15.626
X346.299 Y15.343
X346.031 Y15.009
X345.778 Y14.654
X345.519 Y14.243
X345.261 Y13.779
X345.012 Y13.264
X344.779 Y12.703
X344.57 Y12.11
X344.395 Y11.507
X344.251 Y10.896
X344.136 Y10.279
X344.051 Y9.657
X343.995 Y9.031
X343.968 Y8.404
X343.97 Y7.776
X344.003 Y7.149
X344.069 Y6.53
X344.157 Y5.989
X344.266 Y5.499
X344.381 Y5.089
X344.502 Y4.737
X344.616 Y4.456
X344.745 Y4.185
X344.87 Y3.957
X344.878 Y3.944
X345.08 Y3.673
X345.324 Y3.44
X345.605 Y3.252
X345.913 Y3.113
X346.24 Y3.029
X346.577 Y3
X346.992
G3 X347.22 Y3.054 I-0.021 J0.6
X347.563 Y3.502 I-0.249 J0.546
G1 X349.669 Y16.303
G3 X349.098 Y17 I-0.592 J0.097
G1 X347.838
X347.655 Y16.991
X347.531 Y16.978
X347.404 Y16.957
X347.258 Y16.924
X347.108 Y16.882
X346.939 Y16.824
X346.765 Y16.753
X346.573 Y16.661
X346.374 Y16.552
X346.165 Y16.422
X345.939 Y16.263
X345.714 Y16.085
X345.467 Y15.866
X345.224 Y15.624
X344.97 Y15.341
X344.702 Y15.007
X344.449 Y14.652
X344.19 Y14.242
X343.932 Y13.778
X343.683 Y13.264
X343.45 Y12.702
X343.242 Y12.11
X343.066 Y11.507
X342.922 Y10.896
X342.808 Y10.278
X342.723 Y9.656
X342.667 Y9.031
X342.639 Y8.404
X342.641 Y7.776
X342.675 Y7.149
X342.74 Y6.529
X342.828 Y5.989
X342.937 Y5.499
X343.053 Y5.089
X343.174 Y4.737
X343.288 Y4.456
X343.417 Y4.185
X343.541 Y3.957
X343.549 Y3.944
X343.751 Y3.673
X343.996 Y3.44
X344.276 Y3.252
X344.584 Y3.113
X344.911 Y3.029
X345.248 Y3
X345.641
G3 X345.869 Y3.054 I-0.021 J0.6
X346.212 Y3.498 I-0.249 J0.546
G1 X348.408 Y16.299
G3 X348.066 Y16.946 I-0.591 J0.101
X347.838 Y17 I-0.249 J-0.546
G1 X346.479
X346.33 Y16.993
X346.205 Y16.979
X346.078 Y16.958
X345.931 Y16.926
X345.781 Y16.883
X345.612 Y16.825
X345.438 Y16.754
X345.246 Y16.662
X345.047 Y16.554
X344.837 Y16.423
X344.611 Y16.264
X344.386 Y16.086
X344.139 Y15.866
X343.895 Y15.624
X343.641 Y15.341
X343.374 Y15.008
X343.12 Y14.652
X342.861 Y14.242
X342.604 Y13.778
X342.355 Y13.264
X342.121 Y12.702
X341.913 Y12.11
X341.737 Y11.507
X341.593 Y10.896
X341.479 Y10.278
X341.394 Y9.656
X341.338 Y9.031
X341.311 Y8.403
X341.313 Y7.776
X341.346 Y7.149
X341.412 Y6.529
X341.5 Y5.989
X341.608 Y5.499
X341.724 Y5.089
X341.845 Y4.737
X341.959 Y4.456
X342.088 Y4.185
X342.212 Y3.957
X342.22 Y3.944
X342.422 Y3.673
X342.667 Y3.44
X342.947 Y3.252
X343.255 Y3.113
X343.582 Y3.029
X343.919 Y3
X344.337
G3 X344.908 Y3.501 I-0.021 J0.6
G1 X347.05 Y16.301
G3 X346.479 Y17 I-0.592 J0.099
