%
(1001)
(crosssupportstenoncheeks_ z0 stock top)
(T1  D=22 CR=0 - ZMIN=-6.25 - flat end mill)
G90 G94
G17
G21

(2D Adaptive1)
M9
T1 M6
(22mm Facing Bit)
S6000 M3
G54
M9
G0 X515.058 Y-2.158
Z15
Z5
Z-1.85
G1 Z-4.05 F850
X515.051 Y-2.156 Z-4.232
X515.029 Y-2.151 Z-4.412
X514.993 Y-2.142 Z-4.59
X514.943 Y-2.129 Z-4.764
X514.879 Y-2.112 Z-4.934
X514.802 Y-2.093 Z-5.097
X514.711 Y-2.069 Z-5.253
X514.609 Y-2.043 Z-5.401
X514.495 Y-2.014 Z-5.54
X514.371 Y-1.982 Z-5.669
X514.236 Y-1.948 Z-5.786
X514.093 Y-1.911 Z-5.892
X513.942 Y-1.872 Z-5.985
X513.783 Y-1.832 Z-6.065
X513.619 Y-1.79 Z-6.131
X513.45 Y-1.746 Z-6.183
X513.278 Y-1.702 Z-6.22
X513.103 Y-1.657 Z-6.242
X512.927 Y-1.612 Z-6.25
G3 X500.951 Y0.11 I-13.937 J-54.409
G1 X500.875
X499.915 Y-0.617
X498.909 Y-1.279
X497.865 Y-1.879
X496.79 Y-2.42
X495.688 Y-2.907
X494.566 Y-3.342
X493.426 Y-3.731
X492.272 Y-4.077
X491.108 Y-4.384
X489.935 Y-4.655
X488.755 Y-4.894
X487.569 Y-5.105
X486.379 Y-5.29
X485.186 Y-5.452
X483.99 Y-5.593
X482.792 Y-5.717
X481.593 Y-5.825
X480.393 Y-5.919
X479.191 Y-6.001
X477.989 Y-6.072
X476.787 Y-6.134
X475.584 Y-6.187
X474.38 Y-6.234
X473.177 Y-6.274
X471.973 Y-6.309
X470.769 Y-6.339
X469.565 Y-6.365
X468.362 Y-6.387
X467.158 Y-6.407
X465.953 Y-6.424
X464.749 Y-6.438
X463.545 Y-6.451
X462.341 Y-6.462
X461.137 Y-6.471
X459.933 Y-6.479
X458.729 Y-6.486
X457.525 Y-6.492
X456.32 Y-6.497
X455.116 Y-6.502
X453.912 Y-6.506
X451.504 Y-6.512
X450.3 Y-6.514
X449.097 Y-6.567
X447.893 Y-6.612
X446.69 Y-6.651
X445.486 Y-6.684
X444.282 Y-6.713
X443.078 Y-6.738
X441.874 Y-6.76
X440.67 Y-6.778
X439.466 Y-6.794
X438.262 Y-6.807
X437.058 Y-6.819
X435.854 Y-6.829
X434.65 Y-6.838
X433.446 Y-6.845
X432.242 Y-6.851
X431.037 Y-6.857
X429.833 Y-6.862
X428.629 Y-6.866
X426.221 Y-6.872
X423.813 Y-6.877
X421.404 Y-6.88
X417.792 Y-6.884
X412.975 Y-6.887
X405.75 Y-6.889
X400.933
X375.646 Y-6.89
X350.359
X299.784
X249.209
X198.634
X148.059
X97.485
X46.91
X8.377
X7.173 Y-6.853
X5.989 Y-6.633
X4.845 Y-6.257
X3.753 Y-5.749
X2.723 Y-5.126
X1.758 Y-4.406
X0.861 Y-3.602
X0.033 Y-2.728
X-0.727 Y-1.794
X-1.42 Y-0.809
X-2.05 Y0.217
X-2.619 Y1.278
X-3.131 Y2.368
X-3.589 Y3.482
X-3.999 Y4.614
X-4.362 Y5.762
X-4.685 Y6.922
X-4.828 Y7.352
X-5.04 Y7.751
X-5.316 Y8.11
X-5.648 Y8.418
X-6.025 Y8.667
X-6.439 Y8.85
X-6.878 Y8.962
X-7.329 Y9
G3 X-8.164 Y8.803 I0.077 J-2.199
G1 X-8.33 Y8.728 Z-6.242
X-8.494 Y8.653 Z-6.22
X-8.656 Y8.579 Z-6.183
X-8.814 Y8.507 Z-6.131
X-8.969 Y8.437 Z-6.065
X-9.117 Y8.369 Z-5.985
X-9.259 Y8.304 Z-5.892
X-9.394 Y8.243 Z-5.786
X-9.52 Y8.185 Z-5.669
X-9.637 Y8.132 Z-5.54
X-9.744 Y8.083 Z-5.401
X-9.84 Y8.039 Z-5.253
X-9.925 Y8.001 Z-5.097
X-9.998 Y7.968 Z-4.934
X-10.058 Y7.94 Z-4.764
X-10.105 Y7.919 Z-4.59
X-10.139 Y7.903 Z-4.412
X-10.16 Y7.894 Z-4.232
X-10.166 Y7.891 Z-4.05
G0 Z5
X515.003 Y6.732
Z-1.85
G1 Z-4.05 F850
X514.996 Y6.734 Z-4.232
X514.974 Y6.739 Z-4.412
X514.938 Y6.748 Z-4.59
X514.887 Y6.761 Z-4.764
X514.823 Y6.778 Z-4.934
X514.746 Y6.797 Z-5.097
X514.656 Y6.821 Z-5.253
X514.553 Y6.847 Z-5.401
X514.44 Y6.876 Z-5.54
X514.315 Y6.908 Z-5.669
X514.181 Y6.942 Z-5.786
X514.037 Y6.979 Z-5.892
X513.886 Y7.018 Z-5.985
X513.728 Y7.058 Z-6.065
X513.564 Y7.1 Z-6.131
X513.395 Y7.144 Z-6.183
X513.222 Y7.188 Z-6.22
X513.048 Y7.233 Z-6.242
X512.872 Y7.278 Z-6.25
G3 X500.895 Y9 I-13.937 J-54.409
G1 X500.682
X500.664 Y8.999
X499.908 Y8.061
X499.102 Y7.166
X498.243 Y6.323
X497.335 Y5.532
X496.385 Y4.793
X495.396 Y4.105
X494.374 Y3.468
X493.323 Y2.88
X492.248 Y2.339
X491.15 Y1.843
X490.035 Y1.39
X488.904 Y0.977
X487.759 Y0.602
X486.604 Y0.263
X485.439 Y-0.044
X484.267 Y-0.32
X483.089 Y-0.568
X481.906 Y-0.791
X480.718 Y-0.99
X479.527 Y-1.168
X478.333 Y-1.327
X477.138 Y-1.469
X475.94 Y-1.594
X474.741 Y-1.706
X473.541 Y-1.805
X472.34 Y-1.892
X471.138 Y-1.969
X469.936 Y-2.038
X468.733 Y-2.098
X467.53 Y-2.151
X466.327 Y-2.198
X465.124 Y-2.239
X463.92 Y-2.275
X462.716 Y-2.307
X461.513 Y-2.335
X460.309 Y-2.359
X459.105 Y-2.38
X457.901 Y-2.399
X456.697 Y-2.42
X455.493 Y-2.445
X454.289 Y-2.473
X453.085 Y-2.501
X450.677 Y-2.558
X449.474 Y-2.586
X448.27 Y-2.613
X447.066 Y-2.638
X445.862 Y-2.661
X444.658 Y-2.683
X443.454 Y-2.703
X442.25 Y-2.722
X441.046 Y-2.739
X439.842 Y-2.755
X438.638 Y-2.769
X437.434 Y-2.782
X436.23 Y-2.794
X435.025 Y-2.804
X433.821 Y-2.814
X432.617 Y-2.822
X431.413 Y-2.83
X430.209 Y-2.837
X429.005 Y-2.843
X427.801 Y-2.848
X426.596 Y-2.853
X424.188 Y-2.861
X421.78 Y-2.868
X419.371 Y-2.873
X415.759 Y-2.878
X412.147 Y-2.882
X407.33 Y-2.885
X402.513 Y-2.887
X392.88 Y-2.889
X371.205 Y-2.89
X351.938
X301.364
X250.789
X200.214
X149.639
X99.064
X48.49
X17.181
X15.977 Y-2.887
X14.777 Y-2.788
X13.59 Y-2.585
X12.425 Y-2.28
X11.291 Y-1.875
X10.195 Y-1.376
X9.144 Y-0.789
X8.141 Y-0.123
X7.186 Y0.611
X6.278 Y1.401
X5.407 Y2.234
X4.568 Y3.097
X3.752 Y3.982
X2.946 Y4.878
X2.141 Y5.773
X1.325 Y6.658
X0.482 Y7.518
X0.157 Y7.885
X-0.175 Y8.211
X-0.549 Y8.487
X-0.959 Y8.708
X-1.396 Y8.869
X-1.851 Y8.967
X-2.316 Y9
G3 X-3.151 Y8.803 I0.077 J-2.199
G1 X-3.317 Y8.728 Z-6.242
X-3.481 Y8.653 Z-6.22
X-3.643 Y8.579 Z-6.183
X-3.801 Y8.507 Z-6.131
X-3.955 Y8.437 Z-6.065
X-4.104 Y8.369 Z-5.985
X-4.246 Y8.304 Z-5.892
X-4.381 Y8.243 Z-5.786
X-4.507 Y8.185 Z-5.669
X-4.624 Y8.132 Z-5.54
X-4.731 Y8.083 Z-5.401
X-4.827 Y8.039 Z-5.253
X-4.912 Y8.001 Z-5.097
X-4.985 Y7.968 Z-4.934
X-5.045 Y7.94 Z-4.764
X-5.092 Y7.919 Z-4.59
X-5.126 Y7.903 Z-4.412
X-5.146 Y7.894 Z-4.232
X-5.153 Y7.891 Z-4.05
G0 Z5
X503.402 Y7.632
Z-1.85
G1 Z-4.05 F850
X503.396 Y7.636 Z-4.232
X503.376 Y7.648 Z-4.412
X503.344 Y7.667 Z-4.59
X503.3 Y7.693 Z-4.764
X503.243 Y7.727 Z-4.934
X503.174 Y7.768 Z-5.097
X503.094 Y7.815 Z-5.253
X503.003 Y7.869 Z-5.401
X502.902 Y7.929 Z-5.54
X502.792 Y7.995 Z-5.669
X502.673 Y8.066 Z-5.786
X502.546 Y8.142 Z-5.892
X502.411 Y8.221 Z-5.985
X502.271 Y8.305 Z-6.065
X502.125 Y8.391 Z-6.131
X501.975 Y8.481 Z-6.183
X501.822 Y8.571 Z-6.22
X501.667 Y8.664 Z-6.242
X501.511 Y8.757 Z-6.25
G3 X500.682 Y9 I-0.89 J-1.496
G1 X498.077
X498.002 Y8.996
X496.888 Y8.54
X495.775 Y8.081
X494.659 Y7.627
X493.539 Y7.185
X492.413 Y6.758
X491.281 Y6.349
X490.141 Y5.96
X488.995 Y5.591
X487.842 Y5.245
X486.682 Y4.92
X485.517 Y4.617
X484.346 Y4.335
X483.171 Y4.073
X481.991 Y3.831
X480.808 Y3.608
X479.621 Y3.403
X478.432 Y3.215
X477.24 Y3.043
X476.046 Y2.886
X474.85 Y2.743
X473.653 Y2.613
X472.455 Y2.495
X471.256 Y2.388
X470.055 Y2.292
X468.854 Y2.204
X467.653 Y2.126
X466.451 Y2.055
X465.248 Y1.992
X464.045 Y1.934
X462.842 Y1.881
X461.639 Y1.831
X460.436 Y1.784
X459.233 Y1.74
X458.029 Y1.698
X456.826 Y1.659
X455.622 Y1.62
X454.418 Y1.584
X453.215 Y1.55
X452.011 Y1.517
X450.807 Y1.486
X449.604 Y1.457
X448.4 Y1.429
X447.196 Y1.403
X445.992 Y1.379
X444.788 Y1.356
X443.584 Y1.335
X442.38 Y1.316
X441.176 Y1.297
X439.972 Y1.281
X438.768 Y1.265
X437.564 Y1.251
X436.36 Y1.237
X435.156 Y1.225
X433.951 Y1.214
X432.747 Y1.204
X431.543 Y1.195
X430.339 Y1.186
X429.135 Y1.179
X427.931 Y1.172
X426.727 Y1.166
X425.522 Y1.16
X423.114 Y1.15
X420.706 Y1.142
X418.298 Y1.136
X415.889 Y1.13
X412.277 Y1.124
X408.664 Y1.12
X403.848 Y1.116
X397.827 Y1.113
X389.398 Y1.111
X372.539 Y1.11
X347.252
X296.677
X246.102
X195.528
X144.953
X94.378
X43.803
X24.537
X23.332 Y1.115
X22.129 Y1.165
X20.931 Y1.283
X19.742 Y1.476
X18.568 Y1.743
X17.412 Y2.081
X16.278 Y2.484
X15.167 Y2.948
X14.079 Y3.466
X13.015 Y4.03
X11.974 Y4.635
X10.953 Y5.273
X9.952 Y5.942
X8.965 Y6.632
X7.983 Y7.329
X6.999 Y8.023
X6.395 Y8.432
X5.969 Y8.676
X5.512 Y8.855
X5.033 Y8.964
X4.544 Y9
X0.145
G3 X-0.691 Y8.803 I0.077 J-2.199
G1 X-0.856 Y8.728 Z-6.242
X-1.02 Y8.653 Z-6.22
X-1.182 Y8.579 Z-6.183
X-1.341 Y8.507 Z-6.131
X-1.495 Y8.437 Z-6.065
X-1.644 Y8.369 Z-5.985
X-1.786 Y8.304 Z-5.892
X-1.92 Y8.243 Z-5.786
X-2.047 Y8.185 Z-5.669
X-2.164 Y8.132 Z-5.54
X-2.271 Y8.083 Z-5.401
X-2.367 Y8.039 Z-5.253
X-2.451 Y8.001 Z-5.097
X-2.524 Y7.968 Z-4.934
X-2.584 Y7.94 Z-4.764
X-2.631 Y7.919 Z-4.59
X-2.665 Y7.903 Z-4.412
X-2.686 Y7.894 Z-4.232
X-2.693 Y7.891 Z-4.05
G0 Z5
X499.511 Y7.632
Z-1.85
G1 Z-4.05 F850
X499.505 Y7.636 Z-4.232
X499.485 Y7.648 Z-4.412
X499.453 Y7.667 Z-4.59
X499.409 Y7.693 Z-4.764
X499.352 Y7.727 Z-4.934
X499.283 Y7.768 Z-5.097
X499.203 Y7.815 Z-5.253
X499.112 Y7.869 Z-5.401
X499.011 Y7.929 Z-5.54
X498.901 Y7.995 Z-5.669
X498.782 Y8.066 Z-5.786
X498.655 Y8.142 Z-5.892
X498.52 Y8.221 Z-5.985
X498.38 Y8.305 Z-6.065
X498.234 Y8.391 Z-6.131
X498.084 Y8.481 Z-6.183
X497.931 Y8.571 Z-6.22
X497.776 Y8.664 Z-6.242
X497.62 Y8.757 Z-6.25
G3 X496.791 Y9 I-0.89 J-1.496
G1 X492.5
X492.463 Y8.998
X491.261 Y8.926
X490.061 Y8.817
X488.865 Y8.682
X487.67 Y8.532
X486.477 Y8.372
X485.284 Y8.207
X484.091 Y8.04
X482.899 Y7.875
X481.705 Y7.712
X480.512 Y7.554
X479.317 Y7.402
X478.122 Y7.257
X476.926 Y7.119
X475.729 Y6.988
X474.531 Y6.864
X473.332 Y6.748
X472.133 Y6.64
X470.933 Y6.539
X469.732 Y6.445
X468.532 Y6.356
X467.33 Y6.274
X466.128 Y6.197
X464.926 Y6.126
X463.724 Y6.058
X462.522 Y5.995
X461.319 Y5.936
X460.116 Y5.88
X458.913 Y5.827
X457.71 Y5.778
X456.507 Y5.731
X455.303 Y5.688
X454.1 Y5.646
X452.896 Y5.608
X451.693 Y5.571
X450.489 Y5.537
X449.285 Y5.505
X448.082 Y5.475
X446.878 Y5.447
X445.674 Y5.42
X444.47 Y5.396
X443.266 Y5.373
X442.062 Y5.351
X440.858 Y5.332
X439.654 Y5.313
X438.45 Y5.296
X437.246 Y5.28
X436.042 Y5.266
X434.838 Y5.252
X433.634 Y5.24
X432.43 Y5.228
X431.225 Y5.217
X430.021 Y5.208
X428.817 Y5.199
X427.613 Y5.191
X426.409 Y5.183
X425.205 Y5.176
X424.001 Y5.17
X422.796 Y5.164
X420.388 Y5.154
X417.98 Y5.146
X415.571 Y5.139
X413.163 Y5.134
X409.551 Y5.127
X405.938 Y5.122
X401.122 Y5.118
X395.101 Y5.114
X391.488 Y5.113
X381.855 Y5.111
X362.588 Y5.11
X340.913
X290.339
X239.764
X189.189
X138.614
X88.039
X37.465
X31.444
X30.24 Y5.114
X29.036 Y5.137
X27.833 Y5.193
X26.633 Y5.292
X25.438 Y5.439
X24.25 Y5.636
X23.071 Y5.883
X21.904 Y6.179
X20.749 Y6.522
X19.609 Y6.907
X18.482 Y7.332
X17.368 Y7.791
X16.267 Y8.277
X15.359 Y8.697
X14.914 Y8.864
X14.45 Y8.966
X13.976 Y9
X4.544
G3 X3.708 Y8.803 I0.077 J-2.199
G1 X3.543 Y8.728 Z-6.242
X3.379 Y8.653 Z-6.22
X3.217 Y8.579 Z-6.183
X3.058 Y8.507 Z-6.131
X2.904 Y8.437 Z-6.065
X2.756 Y8.369 Z-5.985
X2.613 Y8.304 Z-5.892
X2.479 Y8.243 Z-5.786
X2.352 Y8.185 Z-5.669
X2.235 Y8.132 Z-5.54
X2.129 Y8.083 Z-5.401
X2.032 Y8.039 Z-5.253
X1.948 Y8.001 Z-5.097
X1.875 Y7.968 Z-4.934
X1.815 Y7.94 Z-4.764
X1.768 Y7.919 Z-4.59
X1.734 Y7.903 Z-4.412
X1.713 Y7.894 Z-4.232
X1.706 Y7.891 Z-4.05
G0 Z5
X495.22 Y7.632
Z-1.85
G1 Z-4.05 F850
X495.214 Y7.636 Z-4.232
X495.194 Y7.648 Z-4.412
X495.162 Y7.667 Z-4.59
X495.118 Y7.693 Z-4.764
X495.061 Y7.727 Z-4.934
X494.992 Y7.768 Z-5.097
X494.912 Y7.815 Z-5.253
X494.821 Y7.869 Z-5.401
X494.72 Y7.929 Z-5.54
X494.61 Y7.995 Z-5.669
X494.491 Y8.066 Z-5.786
X494.363 Y8.142 Z-5.892
X494.229 Y8.221 Z-5.985
X494.089 Y8.305 Z-6.065
X493.943 Y8.391 Z-6.131
X493.793 Y8.481 Z-6.183
X493.64 Y8.571 Z-6.22
X493.485 Y8.664 Z-6.242
X493.329 Y8.757 Z-6.25
G3 X492.5 Y9 I-0.89 J-1.496
G1 X13.976
X13.868 Y8.986 Z-6.243
X13.762 Y8.972 Z-6.222
X13.659 Y8.958 Z-6.188
X13.562 Y8.946 Z-6.142
X13.481 Y8.919 Z-6.087
X13.406 Y8.894 Z-6.024
X13.34 Y8.872 Z-5.951
X13.281 Y8.853 Z-5.871
X13.232 Y8.836 Z-5.784
X13.193 Y8.823 Z-5.692
X13.164 Y8.814 Z-5.596
X13.147 Y8.806 Z-5.492
X13.141 Y8.803 Z-5.386
G0 Z5
X-25.059 Y367.158
Z-1.85
G1 Z-4.05 F850
X-25.051 Y367.156 Z-4.232
X-25.029 Y367.151 Z-4.412
X-24.993 Y367.142 Z-4.59
X-24.943 Y367.129 Z-4.764
X-24.879 Y367.112 Z-4.934
X-24.802 Y367.093 Z-5.097
X-24.711 Y367.069 Z-5.253
X-24.609 Y367.043 Z-5.401
X-24.495 Y367.014 Z-5.54
X-24.371 Y366.982 Z-5.669
X-24.236 Y366.948 Z-5.786
X-24.093 Y366.911 Z-5.892
X-23.942 Y366.872 Z-5.985
X-23.783 Y366.832 Z-6.065
X-23.619 Y366.79 Z-6.131
X-23.45 Y366.746 Z-6.183
X-23.278 Y366.702 Z-6.22
X-23.103 Y366.657 Z-6.242
X-22.927 Y366.612 Z-6.25
G3 X-10.951 Y364.89 I13.937 J54.409
G1 X-10.875
X-9.915 Y365.617
X-8.909 Y366.279
X-7.865 Y366.879
X-6.79 Y367.42
X-5.688 Y367.907
X-4.566 Y368.342
X-3.426 Y368.731
X-2.272 Y369.077
X-1.108 Y369.384
X0.065 Y369.655
X1.245 Y369.894
X2.431 Y370.105
X3.621 Y370.29
X4.814 Y370.452
X6.01 Y370.593
X7.208 Y370.717
X8.407 Y370.825
X9.607 Y370.919
X10.809 Y371.001
X12.011 Y371.072
X13.213 Y371.134
X14.416 Y371.187
X15.62 Y371.234
X16.823 Y371.274
X18.027 Y371.309
X19.231 Y371.339
X20.435 Y371.365
X21.638 Y371.387
X22.842 Y371.407
X24.047 Y371.424
X25.251 Y371.438
X26.455 Y371.451
X27.659 Y371.462
X28.863 Y371.471
X30.067 Y371.479
X31.271 Y371.486
X32.475 Y371.492
X33.68 Y371.497
X34.884 Y371.502
X36.088 Y371.506
X38.496 Y371.512
X39.7 Y371.514
X40.903 Y371.567
X42.107 Y371.612
X43.31 Y371.651
X44.514 Y371.684
X45.718 Y371.713
X46.922 Y371.738
X48.126 Y371.76
X49.33 Y371.778
X50.534 Y371.794
X51.738 Y371.807
X52.942 Y371.819
X54.146 Y371.829
X55.35 Y371.838
X56.554 Y371.845
X57.758 Y371.851
X58.963 Y371.857
X60.167 Y371.862
X61.371 Y371.866
X63.779 Y371.872
X66.187 Y371.877
X68.596 Y371.88
X72.208 Y371.884
X77.025 Y371.887
X84.25 Y371.889
X89.067
X114.354 Y371.89
X139.641
X190.216
X240.791
X291.366
X341.941
X392.515
X443.09
X481.623
X482.827 Y371.853
X484.011 Y371.633
X485.155 Y371.257
X486.247 Y370.749
X487.277 Y370.126
X488.242 Y369.406
X489.139 Y368.602
X489.967 Y367.728
X490.727 Y366.794
X491.42 Y365.809
X492.05 Y364.783
X492.619 Y363.722
X493.131 Y362.632
X493.589 Y361.518
X493.999 Y360.386
X494.362 Y359.238
X494.685 Y358.078
X494.828 Y357.648
X495.04 Y357.249
X495.316 Y356.89
X495.648 Y356.582
X496.025 Y356.332
X496.439 Y356.15
X496.878 Y356.038
X497.329 Y356
G3 X498.164 Y356.197 I-0.077 J2.199
G1 X498.33 Y356.272 Z-6.242
X498.494 Y356.347 Z-6.22
X498.656 Y356.421 Z-6.183
X498.814 Y356.493 Z-6.131
X498.969 Y356.563 Z-6.065
X499.117 Y356.631 Z-5.985
X499.259 Y356.696 Z-5.892
X499.394 Y356.757 Z-5.786
X499.52 Y356.815 Z-5.669
X499.637 Y356.868 Z-5.54
X499.744 Y356.917 Z-5.401
X499.84 Y356.961 Z-5.253
X499.925 Y356.999 Z-5.097
X499.998 Y357.032 Z-4.934
X500.058 Y357.06 Z-4.764
X500.105 Y357.081 Z-4.59
X500.139 Y357.097 Z-4.412
X500.16 Y357.106 Z-4.232
X500.166 Y357.109 Z-4.05
G0 Z5
X-25.009 Y358.268
Z-1.85
G1 Z-4.05 F850
X-25.002 Y358.266 Z-4.232
X-24.98 Y358.261 Z-4.412
X-24.944 Y358.252 Z-4.59
X-24.894 Y358.239 Z-4.764
X-24.83 Y358.222 Z-4.934
X-24.752 Y358.203 Z-5.097
X-24.662 Y358.179 Z-5.253
X-24.56 Y358.153 Z-5.401
X-24.446 Y358.124 Z-5.54
X-24.321 Y358.092 Z-5.669
X-24.187 Y358.058 Z-5.786
X-24.044 Y358.021 Z-5.892
X-23.892 Y357.982 Z-5.985
X-23.734 Y357.942 Z-6.065
X-23.57 Y357.9 Z-6.131
X-23.401 Y357.856 Z-6.183
X-23.229 Y357.812 Z-6.22
X-23.054 Y357.767 Z-6.242
X-22.878 Y357.722 Z-6.25
G3 X-10.901 Y356 I13.937 J54.409
G1 X-10.684
X-10.665 Y356.001
X-9.909 Y356.939
X-9.103 Y357.833
X-8.244 Y358.676
X-7.336 Y359.468
X-6.385 Y360.207
X-5.397 Y360.895
X-4.375 Y361.532
X-3.324 Y362.12
X-2.249 Y362.661
X-1.151 Y363.157
X-0.036 Y363.61
X1.096 Y364.023
X2.24 Y364.398
X3.395 Y364.737
X4.56 Y365.044
X5.732 Y365.32
X6.91 Y365.568
X8.094 Y365.791
X9.281 Y365.99
X10.472 Y366.168
X11.666 Y366.327
X12.861 Y366.468
X14.059 Y366.594
X15.258 Y366.706
X16.458 Y366.805
X17.659 Y366.892
X18.861 Y366.969
X20.063 Y367.038
X21.266 Y367.098
X22.469 Y367.151
X23.672 Y367.198
X24.875 Y367.239
X26.079 Y367.275
X27.283 Y367.307
X28.487 Y367.335
X29.69 Y367.359
X30.894 Y367.38
X32.098 Y367.399
X33.302 Y367.42
X34.506 Y367.445
X35.71 Y367.473
X36.914 Y367.501
X39.322 Y367.558
X40.526 Y367.586
X41.729 Y367.612
X42.933 Y367.638
X44.137 Y367.661
X45.341 Y367.683
X46.545 Y367.703
X47.749 Y367.722
X48.953 Y367.739
X50.157 Y367.755
X51.361 Y367.769
X52.565 Y367.782
X53.77 Y367.794
X54.974 Y367.804
X56.178 Y367.814
X57.382 Y367.822
X58.586 Y367.83
X59.79 Y367.837
X60.994 Y367.843
X62.199 Y367.848
X63.403 Y367.853
X65.811 Y367.861
X68.219 Y367.868
X70.628 Y367.873
X74.24 Y367.878
X77.853 Y367.882
X82.669 Y367.885
X87.486 Y367.887
X97.119 Y367.889
X118.794 Y367.89
X138.061
X188.635
X239.21
X289.785
X340.36
X390.935
X441.51
X472.818
X474.022 Y367.887
X475.222 Y367.788
X476.409 Y367.585
X477.574 Y367.28
X478.708 Y366.875
X479.804 Y366.376
X480.856 Y365.79
X481.859 Y365.124
X482.813 Y364.389
X483.722 Y363.599
X484.592 Y362.767
X485.431 Y361.903
X486.248 Y361.018
X487.053 Y360.123
X487.858 Y359.227
X488.675 Y358.343
X489.518 Y357.483
X489.843 Y357.115
X490.175 Y356.789
X490.549 Y356.512
X490.959 Y356.292
X491.396 Y356.131
X491.851 Y356.033
X492.316 Y356
G3 X493.151 Y356.197 I-0.077 J2.199
G1 X493.317 Y356.272 Z-6.242
X493.481 Y356.347 Z-6.22
X493.643 Y356.421 Z-6.183
X493.801 Y356.493 Z-6.131
X493.955 Y356.563 Z-6.065
X494.104 Y356.631 Z-5.985
X494.246 Y356.696 Z-5.892
X494.381 Y356.757 Z-5.786
X494.507 Y356.815 Z-5.669
X494.624 Y356.868 Z-5.54
X494.731 Y356.917 Z-5.401
X494.827 Y356.961 Z-5.253
X494.912 Y356.999 Z-5.097
X494.985 Y357.032 Z-4.934
X495.045 Y357.06 Z-4.764
X495.092 Y357.081 Z-4.59
X495.126 Y357.097 Z-4.412
X495.146 Y357.106 Z-4.232
X495.153 Y357.109 Z-4.05
G0 Z5
X-13.403 Y357.368
Z-1.85
G1 Z-4.05 F850
X-13.397 Y357.364 Z-4.232
X-13.378 Y357.352 Z-4.412
X-13.346 Y357.333 Z-4.59
X-13.301 Y357.307 Z-4.764
X-13.244 Y357.273 Z-4.934
X-13.176 Y357.232 Z-5.097
X-13.096 Y357.185 Z-5.253
X-13.005 Y357.131 Z-5.401
X-12.904 Y357.071 Z-5.54
X-12.793 Y357.005 Z-5.669
X-12.674 Y356.934 Z-5.786
X-12.547 Y356.858 Z-5.892
X-12.412 Y356.779 Z-5.985
X-12.272 Y356.695 Z-6.065
X-12.126 Y356.609 Z-6.131
X-11.977 Y356.519 Z-6.183
X-11.824 Y356.429 Z-6.22
X-11.669 Y356.336 Z-6.242
X-11.512 Y356.243 Z-6.25
G3 X-10.684 Y356 I0.89 J1.496
G1 X-8.072
X-7.997 Y356.004
X-6.883 Y356.46
X-5.77 Y356.919
X-4.655 Y357.374
X-3.535 Y357.816
X-2.409 Y358.243
X-1.276 Y358.652
X-0.137 Y359.041
X1.01 Y359.409
X2.163 Y359.756
X3.323 Y360.081
X4.488 Y360.384
X5.659 Y360.666
X6.834 Y360.928
X8.014 Y361.17
X9.197 Y361.393
X10.383 Y361.598
X11.573 Y361.786
X12.765 Y361.958
X13.959 Y362.115
X15.154 Y362.258
X16.351 Y362.388
X17.55 Y362.505
X18.749 Y362.612
X19.949 Y362.709
X21.15 Y362.796
X22.352 Y362.874
X23.554 Y362.945
X24.757 Y363.009
X25.959 Y363.066
X27.162 Y363.12
X28.366 Y363.169
X29.569 Y363.216
X30.772 Y363.26
X31.976 Y363.302
X33.179 Y363.342
X34.383 Y363.38
X35.586 Y363.416
X36.79 Y363.45
X37.994 Y363.483
X39.197 Y363.514
X40.401 Y363.543
X41.605 Y363.571
X42.809 Y363.597
X44.013 Y363.621
X45.217 Y363.644
X46.421 Y363.665
X47.625 Y363.684
X48.829 Y363.703
X50.033 Y363.72
X51.237 Y363.735
X52.441 Y363.749
X53.645 Y363.763
X54.849 Y363.775
X56.053 Y363.786
X57.257 Y363.796
X58.462 Y363.805
X59.666 Y363.814
X60.87 Y363.821
X62.074 Y363.828
X63.278 Y363.834
X64.482 Y363.84
X66.891 Y363.85
X69.299 Y363.858
X71.707 Y363.864
X74.116 Y363.87
X77.728 Y363.876
X81.34 Y363.88
X86.157 Y363.884
X92.178 Y363.887
X100.607 Y363.889
X117.465 Y363.89
X142.753
X193.328
X243.902
X294.477
X345.052
X395.627
X446.202
X465.468
X466.672 Y363.884
X467.875 Y363.834
X469.074 Y363.716
X470.262 Y363.523
X471.437 Y363.256
X472.592 Y362.918
X473.727 Y362.514
X474.838 Y362.05
X475.925 Y361.532
X476.989 Y360.968
X478.03 Y360.363
X479.051 Y359.724
X480.052 Y359.055
X481.039 Y358.365
X482.021 Y357.668
X483.005 Y356.974
X483.606 Y356.568
X484.031 Y356.323
X484.488 Y356.145
X484.967 Y356.036
X485.456 Y356
X489.86
G3 X490.696 Y356.197 I-0.077 J2.199
G1 X490.861 Y356.272 Z-6.242
X491.025 Y356.347 Z-6.22
X491.187 Y356.421 Z-6.183
X491.346 Y356.493 Z-6.131
X491.5 Y356.563 Z-6.065
X491.649 Y356.631 Z-5.985
X491.791 Y356.696 Z-5.892
X491.925 Y356.757 Z-5.786
X492.052 Y356.815 Z-5.669
X492.169 Y356.868 Z-5.54
X492.276 Y356.917 Z-5.401
X492.372 Y356.961 Z-5.253
X492.456 Y356.999 Z-5.097
X492.529 Y357.032 Z-4.934
X492.589 Y357.06 Z-4.764
X492.636 Y357.081 Z-4.59
X492.67 Y357.097 Z-4.412
X492.691 Y357.106 Z-4.232
X492.698 Y357.109 Z-4.05
G0 Z5
X-9.506 Y357.368
Z-1.85
G1 Z-4.05 F850
X-9.5 Y357.364 Z-4.232
X-9.48 Y357.352 Z-4.412
X-9.448 Y357.333 Z-4.59
X-9.404 Y357.307 Z-4.764
X-9.347 Y357.273 Z-4.934
X-9.278 Y357.232 Z-5.097
X-9.198 Y357.185 Z-5.253
X-9.108 Y357.131 Z-5.401
X-9.006 Y357.071 Z-5.54
X-8.896 Y357.005 Z-5.669
X-8.777 Y356.934 Z-5.786
X-8.65 Y356.858 Z-5.892
X-8.515 Y356.779 Z-5.985
X-8.375 Y356.695 Z-6.065
X-8.229 Y356.609 Z-6.131
X-8.079 Y356.519 Z-6.183
X-7.926 Y356.429 Z-6.22
X-7.771 Y356.336 Z-6.242
X-7.615 Y356.243 Z-6.25
G3 X-6.786 Y356 I0.89 J1.496
G1 X-2.495
X-2.458 Y356.002
X-1.256 Y356.074
X-0.057 Y356.184
X1.14 Y356.318
X2.335 Y356.468
X3.528 Y356.628
X4.721 Y356.794
X5.914 Y356.96
X7.106 Y357.126
X8.3 Y357.288
X9.493 Y357.446
X10.688 Y357.598
X11.883 Y357.743
X13.079 Y357.882
X14.276 Y358.013
X15.474 Y358.136
X16.673 Y358.252
X17.872 Y358.36
X19.072 Y358.461
X20.273 Y358.556
X21.473 Y358.644
X22.675 Y358.726
X23.877 Y358.803
X25.079 Y358.875
X26.281 Y358.942
X27.483 Y359.005
X28.686 Y359.065
X29.889 Y359.12
X31.092 Y359.173
X32.295 Y359.222
X33.498 Y359.269
X34.702 Y359.313
X35.905 Y359.354
X37.109 Y359.392
X38.312 Y359.429
X39.516 Y359.463
X40.72 Y359.495
X41.923 Y359.525
X43.127 Y359.553
X44.331 Y359.58
X45.535 Y359.604
X46.739 Y359.627
X47.943 Y359.649
X49.147 Y359.668
X50.351 Y359.687
X51.555 Y359.704
X52.759 Y359.72
X53.963 Y359.735
X55.167 Y359.748
X56.371 Y359.761
X57.575 Y359.772
X58.78 Y359.783
X59.984 Y359.792
X61.188 Y359.801
X62.392 Y359.809
X63.596 Y359.817
X64.8 Y359.824
X66.004 Y359.83
X67.209 Y359.836
X69.617 Y359.846
X72.025 Y359.854
X74.434 Y359.861
X76.842 Y359.866
X80.454 Y359.873
X84.067 Y359.878
X88.883 Y359.882
X94.904 Y359.885
X98.517 Y359.887
X108.15 Y359.889
X127.417 Y359.89
X149.092
X199.666
X250.241
X300.816
X351.391
X401.966
X452.54
X458.561
X459.765 Y359.886
X460.969 Y359.863
X462.172 Y359.807
X463.372 Y359.707
X464.567 Y359.56
X465.755 Y359.363
X466.934 Y359.116
X468.101 Y358.82
X469.255 Y358.477
X470.396 Y358.091
X471.523 Y357.666
X472.636 Y357.207
X473.737 Y356.72
X474.641 Y356.304
X475.086 Y356.136
X475.55 Y356.034
X476.023 Y356
X485.456
G3 X486.292 Y356.197 I-0.077 J2.199
G1 X486.457 Y356.272 Z-6.242
X486.621 Y356.347 Z-6.22
X486.783 Y356.421 Z-6.183
X486.942 Y356.493 Z-6.131
X487.096 Y356.563 Z-6.065
X487.244 Y356.631 Z-5.985
X487.387 Y356.696 Z-5.892
X487.521 Y356.757 Z-5.786
X487.648 Y356.815 Z-5.669
X487.765 Y356.868 Z-5.54
X487.871 Y356.917 Z-5.401
X487.968 Y356.961 Z-5.253
X488.052 Y356.999 Z-5.097
X488.125 Y357.032 Z-4.934
X488.185 Y357.06 Z-4.764
X488.232 Y357.081 Z-4.59
X488.266 Y357.097 Z-4.412
X488.287 Y357.106 Z-4.232
X488.294 Y357.109 Z-4.05
G0 Z5
X-5.215 Y357.368
Z-1.85
G1 Z-4.05 F850
X-5.209 Y357.364 Z-4.232
X-5.189 Y357.352 Z-4.412
X-5.157 Y357.333 Z-4.59
X-5.113 Y357.307 Z-4.764
X-5.056 Y357.273 Z-4.934
X-4.987 Y357.232 Z-5.097
X-4.907 Y357.185 Z-5.253
X-4.816 Y357.131 Z-5.401
X-4.715 Y357.071 Z-5.54
X-4.605 Y357.005 Z-5.669
X-4.486 Y356.934 Z-5.786
X-4.358 Y356.858 Z-5.892
X-4.224 Y356.779 Z-5.985
X-4.084 Y356.695 Z-6.065
X-3.938 Y356.609 Z-6.131
X-3.788 Y356.519 Z-6.183
X-3.635 Y356.429 Z-6.22
X-3.48 Y356.336 Z-6.242
X-3.324 Y356.243 Z-6.25
G3 X-2.495 Y356 I0.89 J1.496
G1 X476.023
G3 X476.859 Y356.197 I-0.077 J2.199
G1 X477.024 Y356.272 Z-6.242
X477.189 Y356.347 Z-6.22
X477.35 Y356.421 Z-6.183
X477.509 Y356.493 Z-6.131
X477.663 Y356.563 Z-6.065
X477.812 Y356.631 Z-5.985
X477.954 Y356.696 Z-5.892
X478.089 Y356.757 Z-5.786
X478.215 Y356.815 Z-5.669
X478.332 Y356.868 Z-5.54
X478.439 Y356.917 Z-5.401
X478.535 Y356.961 Z-5.253
X478.62 Y356.999 Z-5.097
X478.692 Y357.032 Z-4.934
X478.752 Y357.06 Z-4.764
X478.8 Y357.081 Z-4.59
X478.834 Y357.097 Z-4.412
X478.854 Y357.106 Z-4.232
X478.861 Y357.109 Z-4.05
G0 Z15
M9
M30
%
