%
(1001)
(Z0 stock X0Y0Z0)
(T1  D=12.7 CR=0 - ZMIN=10 - flat end mill)
G90 G94
G17
G21

(2D Adaptive15 7)
M9
T1 M6
S6000 M3
G54
M9
G0 X127.709 Y74.973
Z65
Z55
Z53.77
G1 Z52.5 F849.6
G3 X121.784 Y74.027 Z52.171 I-2.963 J-0.473 F400.3
X127.709 Y74.973 Z51.842 I2.963 J0.473
X121.784 Y74.027 Z51.513 I-2.963 J-0.473
X127.709 Y74.973 Z51.184 I2.963 J0.473
X121.784 Y74.027 Z50.854 I-2.963 J-0.473
X127.709 Y74.973 Z50.525 I2.963 J0.473
X121.784 Y74.027 Z50.196 I-2.963 J-0.473
X127.709 Y74.973 Z49.867 I2.963 J0.473
X121.784 Y74.027 Z49.538 I-2.963 J-0.473
X127.709 Y74.973 Z49.209 I2.963 J0.473
X121.784 Y74.027 Z48.88 I-2.963 J-0.473
X127.709 Y74.973 Z48.551 I2.963 J0.473
X121.784 Y74.027 Z48.221 I-2.963 J-0.473
X127.709 Y74.973 Z47.892 I2.963 J0.473
X121.784 Y74.027 Z47.563 I-2.963 J-0.473
X127.709 Y74.973 Z47.234 I2.963 J0.473
X121.784 Y74.027 Z46.905 I-2.963 J-0.473
X127.709 Y74.973 Z46.576 I2.963 J0.473
X121.784 Y74.027 Z46.247 I-2.963 J-0.473
X127.709 Y74.973 Z45.918 I2.963 J0.473
X121.784 Y74.027 Z45.588 I-2.963 J-0.473
X127.709 Y74.973 Z45.259 I2.963 J0.473
X121.784 Y74.027 Z44.93 I-2.963 J-0.473
X127.709 Y74.973 Z44.601 I2.963 J0.473
X121.784 Y74.027 Z44.272 I-2.963 J-0.473
X127.709 Y74.973 Z43.943 I2.963 J0.473
X121.784 Y74.027 Z43.614 I-2.963 J-0.473
X127.709 Y74.973 Z43.285 I2.963 J0.473
X121.784 Y74.027 Z42.956 I-2.963 J-0.473
X127.709 Y74.973 Z42.626 I2.963 J0.473
X121.784 Y74.027 Z42.297 I-2.963 J-0.473
X127.709 Y74.973 Z41.968 I2.963 J0.473
X121.784 Y74.027 Z41.639 I-2.963 J-0.473
X127.709 Y74.973 Z41.31 I2.963 J0.473
X121.784 Y74.027 Z40.981 I-2.963 J-0.473
X127.709 Y74.973 Z40.652 I2.963 J0.473
X121.784 Y74.027 Z40.323 I-2.963 J-0.473
X127.746 Y74.5 Z40.01 I2.963 J0.473
X121.746 I-3
X127.642 Y73.717 I3
X127.746 Y74.5 I-2.896 J0.783
G1 X127.768 Y75.792 F849.6
X127.775 Y75.872
X127.782 Y76.022
X127.774 Y76.172
X127.754 Y76.321
X127.723 Y76.467
X127.682 Y76.612
X127.631 Y76.753
X127.572 Y76.89
X127.504 Y77.024
X127.429 Y77.154
X127.346 Y77.281
X127.253 Y77.407
X127.151 Y77.531
X127.039 Y77.652
X126.919 Y77.77
X126.789 Y77.884
X126.65 Y77.993
X126.503 Y78.096
X126.347 Y78.193
X126.183 Y78.283
X126.013 Y78.365
X125.835 Y78.439
X125.651 Y78.504
X125.461 Y78.56
X125.266 Y78.605
X125.066 Y78.641
X124.863 Y78.666
X124.657 Y78.68
X124.448 Y78.683
X124.237 Y78.675
X124.026 Y78.655
X123.814 Y78.624
X123.603 Y78.58
X123.393 Y78.525
X123.185 Y78.458
X122.98 Y78.38
X122.778 Y78.29
X122.58 Y78.189
X122.388 Y78.076
X122.201 Y77.953
X122.02 Y77.82
X121.846 Y77.676
X121.679 Y77.522
X121.521 Y77.359
X121.371 Y77.188
X121.23 Y77.008
X121.099 Y76.82
X120.978 Y76.625
X120.868 Y76.423
X120.768 Y76.215
X120.68 Y76.001
X120.603 Y75.783
X120.538 Y75.56
X120.485 Y75.334
X120.445 Y75.105
X120.416 Y74.874
X120.401 Y74.641
X120.398 Y74.407
X120.408 Y74.174
X120.43 Y73.941
X120.465 Y73.709
X120.513 Y73.48
X120.573 Y73.253
X120.645 Y73.03
X120.729 Y72.811
X120.825 Y72.596
X120.933 Y72.387
X121.052 Y72.184
X121.181 Y71.987
X121.322 Y71.798
X121.472 Y71.617
X121.632 Y71.444
X121.802 Y71.28
X121.98 Y71.125
X122.166 Y70.98
X122.36 Y70.845
X122.561 Y70.721
X122.768 Y70.608
X122.981 Y70.506
X123.2 Y70.416
X123.423 Y70.338
X123.65 Y70.273
X123.88 Y70.219
X124.113 Y70.178
X124.348 Y70.15
X124.584 Y70.135
X124.821 Y70.132
X125.057 Y70.142
X125.293 Y70.166
X125.526 Y70.201
X125.758 Y70.25
X125.987 Y70.311
X126.212 Y70.384
X126.433 Y70.469
X126.649 Y70.566
X126.859 Y70.675
X127.063 Y70.795
X127.261 Y70.926
X127.451 Y71.067
X127.633 Y71.219
X127.806 Y71.38
X127.971 Y71.55
X128.126 Y71.729
X128.271 Y71.917
X128.426 Y72.14
X128.601 Y72.425
X128.79 Y72.773
X128.946 Y73.102
X129.074 Y73.416
X129.18 Y73.719
X129.265 Y74.013
X129.331 Y74.301
X129.38 Y74.583
X129.412 Y74.859
X129.43 Y75.132
X129.432 Y75.4
X129.42 Y75.665
X129.394 Y75.926
X129.354 Y76.183
X129.301 Y76.437
X129.234 Y76.686
X129.154 Y76.931
X129.06 Y77.171
X128.954 Y77.407
X128.835 Y77.636
X128.703 Y77.86
X128.559 Y78.077
X128.402 Y78.286
X128.233 Y78.488
X128.053 Y78.681
X127.862 Y78.866
X127.659 Y79.04
X127.447 Y79.205
X127.224 Y79.359
X126.992 Y79.501
X126.75 Y79.631
X126.501 Y79.749
X126.244 Y79.854
X125.979 Y79.945
X125.709 Y80.022
X125.433 Y80.085
X125.152 Y80.134
X124.868 Y80.167
X124.58 Y80.185
X124.29 Y80.187
X123.998 Y80.173
X123.706 Y80.143
X123.415 Y80.098
X123.125 Y80.036
X122.837 Y79.958
X122.553 Y79.865
X122.273 Y79.755
X121.998 Y79.63
X121.729 Y79.49
X121.467 Y79.335
X121.212 Y79.165
X120.967 Y78.981
X120.731 Y78.783
X120.505 Y78.572
X120.291 Y78.349
X120.088 Y78.113
X119.898 Y77.866
X119.721 Y77.609
X119.558 Y77.342
X119.409 Y77.065
X119.276 Y76.781
X119.157 Y76.489
X119.055 Y76.19
X118.968 Y75.885
X118.898 Y75.576
X118.845 Y75.263
X118.809 Y74.947
X118.79 Y74.629
X118.788 Y74.31
X118.803 Y73.991
X118.836 Y73.673
X118.886 Y73.357
X118.954 Y73.044
X119.038 Y72.734
X119.139 Y72.429
X119.256 Y72.13
X119.39 Y71.837
X119.539 Y71.552
X119.704 Y71.275
X119.884 Y71.007
X120.078 Y70.749
X120.286 Y70.502
X120.507 Y70.266
X120.74 Y70.043
X120.986 Y69.832
X121.243 Y69.635
X121.51 Y69.453
X121.787 Y69.284
X122.072 Y69.131
X122.366 Y68.994
X122.666 Y68.873
X122.973 Y68.768
X123.286 Y68.68
X123.602 Y68.609
X123.923 Y68.555
X124.245 Y68.518
X124.57 Y68.499
X124.894 Y68.498
X125.219 Y68.515
X125.542 Y68.549
X125.863 Y68.6
X126.181 Y68.669
X126.495 Y68.755
X126.803 Y68.857
X127.106 Y68.977
X127.403 Y69.113
X127.697 Y69.268
X127.988 Y69.442
X128.282 Y69.64
X128.574 Y69.86
X128.858 Y70.1
X129.133 Y70.358
X129.395 Y70.633
X129.642 Y70.923
X129.873 Y71.225
X130.088 Y71.539
X130.284 Y71.864
X130.462 Y72.197
X130.62 Y72.538
X130.76 Y72.884
X130.879 Y73.236
X130.979 Y73.593
X131.059 Y73.952
X131.119 Y74.313
X131.159 Y74.676
X131.18 Y75.039
Y75.401
X131.162 Y75.762
X131.123 Y76.121
X131.066 Y76.476
X130.989 Y76.827
X130.894 Y77.174
X130.779 Y77.514
X130.647 Y77.849
X130.496 Y78.175
X130.328 Y78.494
X130.143 Y78.803
X129.94 Y79.103
X129.721 Y79.392
X129.486 Y79.669
X129.236 Y79.934
X128.971 Y80.185
X128.692 Y80.423
X128.399 Y80.646
X128.094 Y80.854
X127.776 Y81.045
X127.447 Y81.22
X127.108 Y81.377
X126.759 Y81.516
X126.402 Y81.637
X126.038 Y81.739
X125.666 Y81.82
X125.29 Y81.882
X124.909 Y81.924
X124.525 Y81.945
X124.139
X123.751 Y81.924
X123.364 Y81.882
X122.979 Y81.819
X122.595 Y81.735
X122.216 Y81.629
X121.842 Y81.503
X121.473 Y81.356
X121.112 Y81.189
X120.76 Y81.002
X120.417 Y80.796
X120.084 Y80.57
X119.764 Y80.326
X119.456 Y80.065
X119.162 Y79.786
X118.883 Y79.491
X118.62 Y79.18
X118.373 Y78.855
X118.143 Y78.517
X117.932 Y78.165
X117.74 Y77.802
X117.568 Y77.428
X117.415 Y77.044
X117.284 Y76.653
X117.173 Y76.253
X117.085 Y75.848
X117.018 Y75.438
X116.973 Y75.024
X116.951 Y74.608
X116.952 Y74.191
X116.975 Y73.774
X117.021 Y73.358
X117.09 Y72.945
X117.18 Y72.535
X117.293 Y72.131
X117.428 Y71.733
X117.585 Y71.342
X117.762 Y70.961
X117.96 Y70.589
X118.179 Y70.228
X118.416 Y69.879
X118.672 Y69.544
X118.947 Y69.222
X119.238 Y68.916
X119.546 Y68.626
X119.869 Y68.352
X120.207 Y68.097
X120.558 Y67.86
X120.922 Y67.642
X121.297 Y67.445
X121.683 Y67.267
X122.078 Y67.111
X122.48 Y66.977
X122.89 Y66.865
X123.305 Y66.774
X123.725 Y66.707
X124.148 Y66.662
X124.572 Y66.641
X124.998 Y66.642
X125.424 Y66.666
X125.849 Y66.714
X126.274 Y66.785
X126.699 Y66.88
X127.123 Y67
X127.543 Y67.143
X127.96 Y67.311
X128.37 Y67.502
X128.773 Y67.718
X129.166 Y67.956
X129.548 Y68.218
X129.917 Y68.5
X130.272 Y68.804
X130.61 Y69.127
X130.931 Y69.469
X131.234 Y69.828
X131.517 Y70.204
X131.78 Y70.595
X132.02 Y70.999
X132.239 Y71.415
X132.434 Y71.843
X132.606 Y72.28
X132.754 Y72.726
X132.877 Y73.178
X132.976 Y73.636
X133.049 Y74.098
X133.098 Y74.563
X133.121 Y75.029
X133.118 Y75.496
X133.091 Y75.962
X133.038 Y76.425
X132.96 Y76.885
X132.858 Y77.34
X132.73 Y77.79
X132.579 Y78.231
X132.404 Y78.665
X132.205 Y79.088
X131.983 Y79.501
X131.739 Y79.902
X131.473 Y80.289
X131.186 Y80.662
X130.879 Y81.02
X130.551 Y81.361
X130.205 Y81.685
X129.842 Y81.991
X129.461 Y82.277
X129.064 Y82.542
X128.652 Y82.786
X128.227 Y83.009
X127.788 Y83.208
X127.338 Y83.384
X126.878 Y83.536
X126.409 Y83.663
X125.933 Y83.765
X125.45 Y83.841
X124.962 Y83.89
X124.471 Y83.914
X123.977 Y83.91
X123.484 Y83.88
X122.99 Y83.823
X122.5 Y83.739
X122.013 Y83.629
X121.531 Y83.491
X121.057 Y83.328
X120.59 Y83.138
X120.133 Y82.923
X119.688 Y82.682
X119.255 Y82.417
X118.835 Y82.128
X118.432 Y81.817
X118.044 Y81.483
X117.675 Y81.127
X117.324 Y80.751
X116.994 Y80.356
X116.685 Y79.943
X116.398 Y79.513
X116.134 Y79.067
X115.895 Y78.606
X115.68 Y78.133
X115.491 Y77.647
X115.329 Y77.152
X115.193 Y76.647
X115.085 Y76.135
X115.004 Y75.617
X114.952 Y75.095
X114.928 Y74.57
X114.932 Y74.044
X114.965 Y73.518
X115.027 Y72.994
X115.117 Y72.474
X115.235 Y71.959
X115.381 Y71.45
X115.554 Y70.95
X115.755 Y70.46
X115.982 Y69.98
X116.235 Y69.513
X116.513 Y69.061
X116.815 Y68.623
X117.141 Y68.203
X117.489 Y67.8
X117.859 Y67.417
X118.249 Y67.054
X118.659 Y66.713
X119.087 Y66.394
X119.531 Y66.099
X119.992 Y65.828
X120.466 Y65.582
X120.953 Y65.363
X121.452 Y65.17
X121.96 Y65.004
X122.478 Y64.866
X123.002 Y64.756
X123.534 Y64.674
X124.071 Y64.621
X124.612 Y64.597
X125.155 Y64.603
X125.701 Y64.638
X126.246 Y64.703
X126.791 Y64.798
X127.332 Y64.923
X127.868 Y65.078
X128.397 Y65.263
X128.918 Y65.477
X129.429 Y65.72
X129.928 Y65.991
X130.413 Y66.291
X130.883 Y66.617
X131.336 Y66.969
X131.77 Y67.345
X132.183 Y67.746
X132.575 Y68.169
X132.945 Y68.614
X133.289 Y69.078
X133.609 Y69.561
X133.902 Y70.061
X134.168 Y70.577
X134.405 Y71.106
X134.614 Y71.647
X134.793 Y72.199
X134.941 Y72.76
X135.059 Y73.328
X135.147 Y73.902
X135.202 Y74.48
X135.227 Y75.06
X135.22 Y75.64
X135.182 Y76.22
X135.112 Y76.797
X135.011 Y77.369
X134.879 Y77.936
X134.716 Y78.495
X134.523 Y79.044
X134.301 Y79.583
X134.049 Y80.11
X133.769 Y80.623
X133.461 Y81.121
X133.126 Y81.602
X132.765 Y82.064
X132.378 Y82.508
X131.968 Y82.93
X131.534 Y83.33
X131.079 Y83.707
X130.602 Y84.06
X130.107 Y84.386
X129.593 Y84.686
X129.063 Y84.959
X128.517 Y85.202
X127.957 Y85.417
X127.386 Y85.601
X126.804 Y85.754
X126.213 Y85.876
X125.615 Y85.965
X125.011 Y86.023
X124.404 Y86.047
X123.795 Y86.039
X123.185 Y85.997
X122.578 Y85.923
X121.973 Y85.815
X121.374 Y85.674
X120.782 Y85.501
X120.199 Y85.295
X119.627 Y85.058
X119.067 Y84.789
X118.521 Y84.49
X117.991 Y84.16
X117.478 Y83.802
X116.985 Y83.415
X116.513 Y83.002
X116.062 Y82.563
X115.635 Y82.099
X115.234 Y81.612
X114.858 Y81.102
X114.511 Y80.573
X114.191 Y80.024
X113.902 Y79.458
X113.643 Y78.876
X113.416 Y78.28
X113.222 Y77.672
X113.06 Y77.053
X112.932 Y76.426
X112.838 Y75.791
X112.778 Y75.152
X112.753 Y74.51
X112.763 Y73.866
X112.808 Y73.224
X112.888 Y72.584
X113.002 Y71.949
X113.151 Y71.32
X113.334 Y70.7
X113.55 Y70.09
X113.799 Y69.492
X114.081 Y68.909
X114.394 Y68.341
X114.737 Y67.79
X115.111 Y67.258
X115.512 Y66.747
X115.941 Y66.259
X116.396 Y65.794
X116.876 Y65.354
X117.379 Y64.941
X117.904 Y64.555
X118.45 Y64.198
X119.015 Y63.871
X119.597 Y63.575
X120.194 Y63.31
X120.806 Y63.078
X121.431 Y62.88
X122.068 Y62.714
X122.713 Y62.584
X123.367 Y62.488
X124.027 Y62.428
X124.692 Y62.403
X125.359 Y62.415
X126.027 Y62.462
X126.693 Y62.547
X127.357 Y62.667
X128.015 Y62.824
X128.665 Y63.017
X129.307 Y63.246
X129.937 Y63.51
X130.553 Y63.809
X131.155 Y64.141
X131.738 Y64.507
X132.302 Y64.904
X132.845 Y65.333
X133.365 Y65.791
X133.861 Y66.277
X134.329 Y66.791
X134.77 Y67.329
X135.182 Y67.892
X135.563 Y68.476
X135.911 Y69.081
X136.227 Y69.704
X136.509 Y70.344
X136.756 Y70.998
X136.967 Y71.666
X137.141 Y72.344
X137.279 Y73.031
X137.38 Y73.724
X137.442 Y74.423
X137.467 Y75.124
X137.454 Y75.826
X137.402 Y76.526
X137.313 Y77.223
X137.186 Y77.915
X137.021 Y78.599
X136.82 Y79.274
X136.582 Y79.938
X136.308 Y80.588
X135.999 Y81.223
X135.655 Y81.841
X135.278 Y82.441
X134.869 Y83.02
X134.428 Y83.576
X133.958 Y84.109
X133.458 Y84.616
X132.93 Y85.096
X132.377 Y85.547
X131.799 Y85.969
X131.197 Y86.359
X130.575 Y86.717
X129.933 Y87.041
X129.272 Y87.33
X128.596 Y87.584
X127.906 Y87.801
X127.204 Y87.98
X126.491 Y88.122
X125.771 Y88.225
X125.044 Y88.288
X124.314 Y88.313
X123.581 Y88.298
X122.849 Y88.243
X122.12 Y88.148
X121.395 Y88.013
X120.678 Y87.84
X119.969 Y87.627
X119.272 Y87.375
X118.587 Y87.086
X117.919 Y86.759
X117.267 Y86.395
X116.635 Y85.997
X116.025 Y85.563
X115.438 Y85.097
X114.876 Y84.598
X114.341 Y84.069
X113.835 Y83.511
X113.358 Y82.925
X112.914 Y82.313
X112.503 Y81.677
X112.126 Y81.019
X111.785 Y80.34
X111.481 Y79.643
X111.215 Y78.929
X110.988 Y78.202
X110.8 Y77.462
X110.652 Y76.712
X110.545 Y75.954
X110.48 Y75.191
X110.455 Y74.424
X110.473 Y73.657
X110.532 Y72.891
X110.632 Y72.128
X110.774 Y71.372
X110.957 Y70.624
X111.18 Y69.886
X111.443 Y69.16
X111.745 Y68.45
X112.085 Y67.756
X112.463 Y67.082
X112.877 Y66.428
X113.326 Y65.798
X113.809 Y65.193
X114.325 Y64.614
X114.871 Y64.064
X115.446 Y63.543
X116.05 Y63.055
X116.679 Y62.599
X117.333 Y62.178
X118.009 Y61.793
X118.706 Y61.444
X119.422 Y61.134
X120.155 Y60.862
X120.903 Y60.629
X121.664 Y60.438
X122.436 Y60.287
X123.217 Y60.178
X124.005 Y60.112
X124.797 Y60.088
X125.591 Y60.107
X126.386 Y60.17
X127.177 Y60.276
X127.964 Y60.425
X128.744 Y60.616
X129.514 Y60.851
X130.273 Y61.127
X131.016 Y61.445
X131.744 Y61.804
X132.452 Y62.202
X133.139 Y62.639
X133.802 Y63.113
X134.44 Y63.624
X135.05 Y64.169
X135.63 Y64.747
X136.179 Y65.357
X136.695 Y65.996
X137.176 Y66.663
X137.62 Y67.356
X138.027 Y68.072
X138.395 Y68.81
X138.722 Y69.568
X139.008 Y70.342
X139.251 Y71.132
X139.452 Y71.934
X139.609 Y72.746
X139.721 Y73.566
X139.789 Y74.391
X139.813 Y75.219
X139.791 Y76.048
X139.725 Y76.875
X139.613 Y77.698
X139.457 Y78.514
X139.257 Y79.321
X139.014 Y80.117
X138.727 Y80.899
X138.398 Y81.665
X138.028 Y82.413
X137.617 Y83.14
X137.167 Y83.845
X136.679 Y84.525
X136.154 Y85.178
X135.593 Y85.803
X134.999 Y86.398
X134.373 Y86.96
X133.716 Y87.488
X133.031 Y87.98
X132.318 Y88.435
X131.581 Y88.852
X130.822 Y89.228
X130.041 Y89.564
X129.243 Y89.857
X128.428 Y90.107
X127.599 Y90.312
X126.759 Y90.473
X125.911 Y90.588
X125.055 Y90.658
X124.196 Y90.68
X123.335 Y90.656
X122.475 Y90.586
X121.619 Y90.468
X120.769 Y90.304
X119.927 Y90.094
X119.097 Y89.838
X118.28 Y89.537
X117.48 Y89.192
X116.698 Y88.803
X115.937 Y88.371
X115.199 Y87.898
X114.487 Y87.386
X113.803 Y86.834
X113.149 Y86.245
X112.527 Y85.621
X111.938 Y84.963
X111.385 Y84.273
X110.87 Y83.553
X110.394 Y82.805
X109.959 Y82.031
X109.565 Y81.234
X109.215 Y80.416
X108.91 Y79.58
X108.65 Y78.726
X108.436 Y77.86
X108.27 Y76.981
X108.151 Y76.095
X108.081 Y75.202
X108.059 Y74.306
X108.085 Y73.409
X108.16 Y72.514
X108.284 Y71.624
X108.456 Y70.742
X108.675 Y69.869
X108.942 Y69.009
X109.255 Y68.163
X109.614 Y67.336
X110.018 Y66.529
X110.464 Y65.744
X110.953 Y64.984
X111.483 Y64.252
X112.052 Y63.548
X112.659 Y62.877
X113.301 Y62.238
X113.978 Y61.635
X114.687 Y61.069
X115.427 Y60.542
X116.194 Y60.055
X116.988 Y59.61
X117.806 Y59.208
X118.646 Y58.851
X119.505 Y58.539
X120.381 Y58.274
X121.272 Y58.056
X122.175 Y57.886
X123.088 Y57.766
X124.008 Y57.695
X124.932 Y57.673
X125.858 Y57.702
X126.783 Y57.782
X127.705 Y57.911
X128.62 Y58.091
X129.525 Y58.321
X130.419 Y58.6
X131.298 Y58.927
X132.16 Y59.303
X133.002 Y59.725
X133.82 Y60.193
X134.614 Y60.706
X135.38 Y61.262
X136.116 Y61.859
X136.819 Y62.497
X137.487 Y63.172
X138.119 Y63.883
X138.712 Y64.629
X139.264 Y65.406
X139.774 Y66.213
X140.239 Y67.047
X140.659 Y67.905
X141.032 Y68.786
X141.357 Y69.686
X141.633 Y70.603
X141.859 Y71.535
X142.034 Y72.478
X142.158 Y73.429
X142.231 Y74.387
X142.251 Y75.347
X142.219 Y76.308
X142.135 Y77.266
X142 Y78.219
X141.812 Y79.164
X141.574 Y80.099
X141.285 Y81.019
X140.946 Y81.923
X140.558 Y82.809
X140.123 Y83.672
X139.641 Y84.512
X139.113 Y85.325
X138.542 Y86.109
X137.929 Y86.862
X137.274 Y87.582
X136.581 Y88.265
X135.851 Y88.911
X135.086 Y89.517
X134.289 Y90.082
X133.461 Y90.603
X132.604 Y91.079
X131.722 Y91.509
X130.817 Y91.89
X129.89 Y92.223
X128.946 Y92.505
X128.725 Y92.558
X128.47 Y92.609
X128.212 Y92.64
X127.953 Y92.65
X122.841
X121.551 Y92.585
X120.805 Y92.514
X120.035 Y92.399
X119.235 Y92.234
X118.413 Y92.017
X117.578 Y91.748
X116.738 Y91.426
X115.899 Y91.051
X115.069 Y90.625
X114.253 Y90.148
X113.455 Y89.622
X112.679 Y89.048
X111.928 Y88.426
X111.205 Y87.759
X110.515 Y87.049
X109.86 Y86.297
X109.244 Y85.507
X108.668 Y84.681
X108.137 Y83.821
X107.651 Y82.932
X107.213 Y82.014
X106.824 Y81.073
X106.486 Y80.109
X106.481 Y80.092
X106.409 Y79.79
X106.365 Y79.482
X106.35 Y79.171
Y72.108
X106.412 Y70.861
X106.485 Y70.163
X106.604 Y69.422
X106.767 Y68.668
X106.977 Y67.898
X107.242 Y67.102
X107.563 Y66.288
X107.939 Y65.467
X108.37 Y64.647
X108.855 Y63.834
X109.392 Y63.035
X109.979 Y62.258
X110.614 Y61.505
X111.295 Y60.781
X112.021 Y60.089
X112.79 Y59.432
X113.598 Y58.814
X114.443 Y58.237
X115.323 Y57.703
X116.235 Y57.217
X117.175 Y56.778
X117.649 Y56.588
X118.048 Y56.456
X118.46 Y56.377
X118.879 Y56.35
X128.556
X129.27 Y56.386
X129.881 Y56.45
X130.533 Y56.554
X131.238 Y56.706
X131.974 Y56.907
X132.714 Y57.153
X133.485 Y57.457
X134.279 Y57.821
X135.085 Y58.245
X135.893 Y58.727
X136.691 Y59.264
X137.473 Y59.854
X138.233 Y60.495
X138.969 Y61.187
X139.677 Y61.931
X140.354 Y62.721
X140.992 Y63.556
X141.59 Y64.432
X142.143 Y65.345
X142.648 Y66.291
X143.103 Y67.267
X143.506 Y68.27
X143.855 Y69.297
X144.149 Y70.343
X144.386 Y71.406
X144.565 Y72.481
X144.686 Y73.567
X144.748 Y74.659
X144.751 Y75.753
X144.694 Y76.848
X144.578 Y77.939
X144.403 Y79.023
X144.169 Y80.096
X143.877 Y81.157
X143.528 Y82.201
X143.122 Y83.225
X142.661 Y84.227
X142.146 Y85.203
X141.578 Y86.151
X140.959 Y87.067
X140.29 Y87.95
X139.574 Y88.795
X138.813 Y89.602
X138.008 Y90.367
X137.162 Y91.088
X136.276 Y91.763
X135.811 Y92.079
X135.385 Y92.325
X134.927 Y92.504
X134.447 Y92.613
X133.956 Y92.65
X127.953
X127.454
X123.34
X122.841
X116.746
X116.401 Y92.633
X116.004 Y92.591
X115.563 Y92.521
X115.09 Y92.419
X114.585 Y92.28
X114.026 Y92.095
X113.466 Y91.874
X112.854 Y91.594
X112.208 Y91.254
X111.567 Y90.872
X110.899 Y90.422
X110.211 Y89.903
X109.517 Y89.317
X108.836 Y88.677
X108.177 Y87.985
X107.532 Y87.231
X107.029 Y86.574
X106.79 Y86.216
X106.6 Y85.829
X106.462 Y85.421
X106.378 Y84.999
X106.35 Y84.569
Y79.171
G3 X106.464 Y78.689 I1.269 J0.044
X108.637 Y78.456 I1.156 J0.527
G1 X117.719 Y90.621
G3 X117.228 Y92.536 I-1.018 J0.76
X116.746 Y92.65 I-0.527 J-1.156
G1 X113.108
X112.665 Y92.628
X112.347 Y92.595
X112 Y92.539
X111.622 Y92.457
X111.214 Y92.346
X110.77 Y92.198
X110.307 Y92.016
X109.794 Y91.781
X109.282 Y91.512
X108.726 Y91.18
X108.153 Y90.794
X107.627 Y90.397
X107.522 Y90.309
X107.18 Y89.975
X106.89 Y89.595
X106.657 Y89.177
X106.488 Y88.73
X106.385 Y88.263
X106.35 Y87.787
G3 X106.464 Y87.304 I1.269 J0.044
X108.313 Y86.767 I1.156 J0.527
G1 X113.757 Y90.317
G3 X113.59 Y92.536 I-0.694 J1.064
X113.108 Y92.65 I-0.527 J-1.156
G1 X109.889
X109.426 Y92.627
X109.16 Y92.599
X108.904 Y92.558
X108.623 Y92.497
X108.367 Y92.427
X108.116 Y92.344
X107.741 Y92.163
X107.397 Y91.928
X107.093 Y91.645
X106.833 Y91.319
X106.625 Y90.958
X106.474 Y90.571
X106.381 Y90.165
X106.35 Y89.75
G3 X106.464 Y89.268 I1.269 J0.044
X108.357 Y88.76 I1.156 J0.527
G1 X110.582 Y90.347
G3 X110.371 Y92.536 I-0.737 J1.034
X109.889 Y92.65 I-0.527 J-1.156
G1 X107.774
X107.746
X107.702
X107.553 Y92.642
X107.405 Y92.616
X107.123 Y92.512
X106.866 Y92.355
X106.646 Y92.15
X106.47 Y91.905
G3 X106.673 Y91.714 I0.128 J-0.068
G1 X106.777 Y91.777
X107.663 Y92.315
X107.773 Y92.381
G3 X107.702 Y92.65 I-0.075 J0.124
G1 X107.603
X107.412 Y92.63
X107.222 Y92.58
X107.031 Y92.496
X106.936 Y92.439
X106.841 Y92.37
X106.742 Y92.284
X106.653 Y92.189
X106.579 Y92.094
X106.469 Y91.903
X106.46 Y91.883
X106.395 Y91.703
X106.36 Y91.523
X106.35 Y91.142
Y84.569
X106.364 Y84.484 Z40.018
X106.377 Y84.402 Z40.04
X106.389 Y84.325 Z40.076
X106.401 Y84.255 Z40.125
X106.422 Y84.197 Z40.186
X106.44 Y84.15 Z40.258
X106.453 Y84.115 Z40.337
X106.461 Y84.094 Z40.421
X106.464 Y84.086 Z40.509
G0 Z55
Y72.59
Z41.28
G1 Z40.01 F849.6
G3 X106.35 Y72.108 I1.156 J-0.527
G1 Y66.398
X106.371 Y65.983
X106.411 Y65.598
X106.481 Y65.162
X106.579 Y64.705
X106.717 Y64.203
X106.897 Y63.661
X107.116 Y63.105
X107.396 Y62.494
X107.725 Y61.867
X108.106 Y61.229
X108.558 Y60.558
X109.08 Y59.867
X109.657 Y59.183
X110.287 Y58.513
X110.987 Y57.845
X111.752 Y57.191
X111.963 Y57.029
X112.322 Y56.79
X112.708 Y56.6
X113.116 Y56.462
X113.539 Y56.378
X113.969 Y56.35
X118.879
G3 X119.362 Y56.464 I-0.044 J1.269
X119.615 Y58.621 I-0.527 J1.156
G1 X108.4 Y67.356
G3 X106.464 Y66.88 I-0.78 J-1.002
X106.35 Y66.398 I1.156 J-0.527
G1 Y62.591
X106.364 Y62.308
X106.397 Y61.99
X106.453 Y61.644
X106.534 Y61.267
X106.645 Y60.861
X106.793 Y60.417
X106.973 Y59.959
X107.208 Y59.448
X107.476 Y58.938
X107.807 Y58.382
X108.141 Y57.886
X108.31 Y57.662
X108.595 Y57.333
X108.92 Y57.043
X109.281 Y56.8
X109.671 Y56.606
X110.083 Y56.464
X110.51 Y56.379
X110.944 Y56.35
G3 X111.426 Y56.464 I-0.044 J1.269
X111.957 Y58.323 I-0.527 J1.156
G1 X108.676 Y63.251
G3 X106.35 Y62.591 I-1.057 J-0.704
G1 Y59.546
X106.372 Y59.113
X106.397 Y58.868
X106.434 Y58.637
X106.484 Y58.408
X106.498 Y58.357
X106.649 Y57.94
X106.866 Y57.553
X107.143 Y57.206
X107.473 Y56.909
X107.846 Y56.669
X108.254 Y56.494
X108.684 Y56.386
X109.127 Y56.35
G3 X109.609 Y56.464 I-0.044 J1.269
X110.085 Y58.399 I-0.527 J1.156
G1 X108.622 Y60.281
G3 X106.464 Y60.028 I-1.003 J-0.779
X106.35 Y59.546 I1.156 J-0.527
G1 Y57.719
Y57.677
Y57.642
X106.37 Y57.479
X106.397 Y57.33
X106.43 Y57.217
X106.472 Y57.108
X106.521 Y57.001
G3 X107.68 Y56.584 I0.88 J0.625
X107.133 Y58.627 I-0.273 J1.021
X106.35 Y57.642 I0.273 J-1.021
G1 X106.364 Y57.452
X106.407 Y57.262
X106.46 Y57.122
X106.521 Y57.001
X106.601 Y56.881
X106.706 Y56.756
X106.841 Y56.63
X106.939 Y56.559
X107.038 Y56.5
X107.222 Y56.42
X107.412 Y56.37
X107.603 Y56.35
X113.969
X114.053 Y56.364 Z40.018
X114.135 Y56.377 Z40.04
X114.212 Y56.389 Z40.076
X114.282 Y56.401 Z40.125
X114.34 Y56.422 Z40.186
X114.388 Y56.44 Z40.258
X114.423 Y56.453 Z40.337
X114.444 Y56.461 Z40.421
X114.451 Y56.464 Z40.509
G0 Z55
X128.074
Z41.28
G1 Z40.01 F849.6
G3 X128.556 Y56.35 I0.527 J1.156
G1 X133.509
X133.936 Y56.371
X134.32 Y56.412
X134.73 Y56.477
X135.187 Y56.576
X135.664 Y56.706
X136.201 Y56.885
X136.74 Y57.097
X137.333 Y57.369
X137.959 Y57.698
X138.585 Y58.072
X139.25 Y58.519
X139.941 Y59.041
X140.626 Y59.618
X141.3 Y60.252
X141.976 Y60.962
X142.643 Y61.741
X143.289 Y62.586
X143.906 Y63.49
X144.486 Y64.448
X145.024 Y65.453
X145.512 Y66.5
X145.947 Y67.584
X146.327 Y68.701
X146.649 Y69.847
X146.909 Y71.018
X147.108 Y72.208
X147.242 Y73.414
X147.311 Y74.631
X147.314 Y75.855
X147.251 Y77.08
X147.12 Y78.303
X146.924 Y79.52
X146.661 Y80.727
X146.333 Y81.919
X145.94 Y83.094
X145.483 Y84.247
X144.964 Y85.374
X144.384 Y86.473
X143.745 Y87.54
X143.048 Y88.572
X142.295 Y89.566
X141.489 Y90.518
X140.667 Y91.388
X140.295 Y91.742
X139.906 Y92.059
X139.474 Y92.313
X139.009 Y92.499
X138.521 Y92.612
X138.022 Y92.65
X133.956
G3 X132.73 Y91.398 I0.044 J-1.269
G1 X132.283 Y57.636
G3 X133.509 Y56.35 I1.27 J-0.017
G1 X137.147
X137.56 Y56.371
X137.878 Y56.404
X138.216 Y56.458
X138.594 Y56.54
X138.991 Y56.648
X139.435 Y56.796
X139.887 Y56.974
X140.396 Y57.207
X140.904 Y57.474
X141.458 Y57.805
X142.045 Y58.2
X142.626 Y58.638
X143.244 Y59.16
X143.886 Y59.763
X144.507 Y60.414
X145.13 Y61.144
X145.753 Y61.958
X146.363 Y62.851
X146.948 Y63.817
X147.495 Y64.842
X147.996 Y65.915
X148.447 Y67.038
X148.847 Y68.215
X149.191 Y69.439
X149.472 Y70.701
X149.684 Y71.975
X149.828 Y73.259
X149.905 Y74.549
X149.914 Y75.841
X149.855 Y77.132
X149.731 Y78.418
X149.541 Y79.696
X149.285 Y80.962
X148.966 Y82.214
X148.584 Y83.448
X148.139 Y84.661
X147.633 Y85.85
X147.067 Y87.012
X146.443 Y88.143
X145.761 Y89.241
X145.025 Y90.302
X144.423 Y91.078
X143.94 Y91.635
X143.931 Y91.644
X143.604 Y91.94
X143.241 Y92.189
X142.847 Y92.388
X142.431 Y92.533
X141.999 Y92.621
X141.559 Y92.65
X138.022
G3 X137.539 Y92.536 I0.044 J-1.269
X136.796 Y91.414 I0.527 J-1.156
G1 X135.922 Y57.652
G3 X136.665 Y56.464 I1.27 J-0.033
X137.147 Y56.35 I0.527 J1.156
G1 X140.366
X140.778 Y56.371
X141.052 Y56.399
X141.368 Y56.45
X141.697 Y56.521
X142.07 Y56.623
X142.454 Y56.751
X142.887 Y56.921
X143.321 Y57.12
X143.808 Y57.376
X144.299 Y57.669
X144.824 Y58.022
X145.387 Y58.447
X145.938 Y58.912
X146.526 Y59.465
X147.136 Y60.105
X147.722 Y60.791
X148.314 Y61.564
X148.905 Y62.43
X149.483 Y63.384
X150.032 Y64.412
X150.533 Y65.487
X150.995 Y66.637
X151.411 Y67.858
X151.76 Y69.102
X152.043 Y70.363
X152.262 Y71.636
X152.417 Y72.919
X152.51 Y74.208
X152.541 Y75.5
X152.51 Y76.791
X152.418 Y78.08
X152.265 Y79.363
X152.052 Y80.637
X151.778 Y81.9
X151.447 Y83.149
X151.057 Y84.381
X150.611 Y85.594
X150.11 Y86.784
X149.555 Y87.951
X148.946 Y89.091
X148.349 Y90.087
X147.872 Y90.793
X147.455 Y91.343
X147.336 Y91.483
X147.003 Y91.824
X146.623 Y92.113
X146.206 Y92.344
X145.76 Y92.513
X145.294 Y92.616
X144.818 Y92.65
X141.559
G3 X141.077 Y92.536 I0.044 J-1.269
X140.334 Y91.426 I0.527 J-1.156
G1 X139.141 Y57.664
G3 X140.366 Y56.35 I1.269 J-0.045
G1 X143.414
X143.772 Y56.368
X144.035 Y56.395
X144.33 Y56.443
X144.643 Y56.51
X144.989 Y56.605
X145.356 Y56.727
X145.754 Y56.884
X146.18 Y57.079
X146.62 Y57.31
X147.106 Y57.6
X147.586 Y57.923
X148.112 Y58.32
X148.653 Y58.777
X149.199 Y59.29
X149.779 Y59.898
X150.361 Y60.579
X150.923 Y61.314
X151.496 Y62.153
X152.065 Y63.092
X152.611 Y64.115
X153.115 Y65.196
X153.582 Y66.358
X153.998 Y67.582
X154.349 Y68.825
X154.636 Y70.085
X154.861 Y71.357
X155.027 Y72.639
X155.133 Y73.926
X155.181 Y75.217
X155.171 Y76.509
X155.104 Y77.8
X154.982 Y79.086
X154.803 Y80.366
X154.568 Y81.636
X154.278 Y82.895
X153.935 Y84.141
X153.538 Y85.371
X153.09 Y86.582
X152.591 Y87.774
X152.038 Y88.942
X151.552 Y89.848
X151.132 Y90.537
X150.747 Y91.098
X150.545 Y91.361
X150.209 Y91.736
X149.82 Y92.054
X149.387 Y92.31
X148.92 Y92.498
X148.43 Y92.612
X147.929 Y92.65
X144.818
G3 X144.336 Y92.536 I0.044 J-1.269
X143.594 Y91.434 I0.527 J-1.156
G1 X142.189 Y57.672
G3 X143.414 Y56.35 I1.269 J-0.053
G1 X146.29
X146.648 Y56.368
X146.911 Y56.395
X147.186 Y56.439
X147.498 Y56.507
X147.819 Y56.595
X148.185 Y56.716
X148.555 Y56.862
X148.974 Y57.054
X149.393 Y57.274
X149.855 Y57.55
X150.329 Y57.869
X150.824 Y58.242
X151.359 Y58.694
X151.88 Y59.184
X152.434 Y59.765
X153.009 Y60.438
X153.558 Y61.155
X154.116 Y61.972
X154.675 Y62.895
X155.217 Y63.911
X155.726 Y65.003
X156.198 Y66.175
X156.614 Y67.399
X156.965 Y68.642
X157.255 Y69.901
X157.485 Y71.172
X157.658 Y72.453
X157.773 Y73.74
X157.833 Y75.031
X157.839 Y76.323
X157.792 Y77.614
X157.691 Y78.902
X157.539 Y80.185
X157.334 Y81.461
X157.079 Y82.727
X156.772 Y83.982
X156.416 Y85.224
X156.01 Y86.451
X155.553 Y87.66
X155.057 Y88.811
X154.611 Y89.707
X154.236 Y90.369
X153.872 Y90.937
X153.553 Y91.381
X153.521 Y91.421
X153.186 Y91.779
X152.801 Y92.083
X152.375 Y92.327
X151.919 Y92.505
X151.44 Y92.614
X150.951 Y92.65
X147.929
G3 X147.446 Y92.536 I0.044 J-1.269
X146.704 Y91.442 I0.527 J-1.156
G1 X145.066 Y57.681
G3 X146.29 Y56.35 I1.268 J-0.062
G1 X149.128
X149.45 Y56.366
X149.71 Y56.393
X149.976 Y56.436
X150.283 Y56.502
X150.595 Y56.587
X150.951 Y56.706
X151.312 Y56.848
X151.718 Y57.034
X152.132 Y57.252
X152.575 Y57.516
X153.049 Y57.835
X153.523 Y58.193
X154.044 Y58.632
X154.559 Y59.117
X155.096 Y59.68
X155.661 Y60.341
X156.206 Y61.053
X156.754 Y61.856
X157.306 Y62.767
X157.845 Y63.777
X158.357 Y64.875
X158.834 Y66.061
X159.25 Y67.284
X159.602 Y68.527
X159.894 Y69.786
X160.128 Y71.057
X160.306 Y72.337
X160.429 Y73.623
X160.499 Y74.913
X160.517 Y76.205
X160.484 Y77.497
X160.402 Y78.786
X160.27 Y80.071
X160.09 Y81.351
X159.861 Y82.622
X159.585 Y83.885
X159.262 Y85.135
X158.889 Y86.373
X158.465 Y87.593
X158.007 Y88.725
X157.602 Y89.589
X157.233 Y90.275
X156.903 Y90.817
X156.589 Y91.274
X156.522 Y91.361
X156.186 Y91.736
X155.797 Y92.054
X155.364 Y92.31
X154.898 Y92.498
X154.408 Y92.612
X153.906 Y92.65
X150.951
G3 X149.727 Y91.449 I0.044 J-1.269
G1 X147.904 Y57.688
G3 X149.128 Y56.35 I1.268 J-0.068
G1 X151.795
X152.214 Y56.371
X152.468 Y56.398
X152.73 Y56.439
X153.03 Y56.504
X153.339 Y56.589
X153.685 Y56.704
X154.045 Y56.846
X154.437 Y57.025
X154.852 Y57.243
X155.282 Y57.5
X155.752 Y57.816
X156.216 Y58.166
X156.723 Y58.594
X157.239 Y59.079
X157.762 Y59.628
X158.319 Y60.28
X158.863 Y60.991
X159.405 Y61.784
X159.953 Y62.689
X160.49 Y63.695
X161.004 Y64.797
X161.485 Y65.994
X161.901 Y67.217
X162.254 Y68.46
X162.548 Y69.718
X162.785 Y70.988
X162.967 Y72.267
X163.097 Y73.553
X163.175 Y74.843
X163.204 Y76.134
X163.184 Y77.426
X163.116 Y78.717
X163.002 Y80.004
X162.842 Y81.286
X162.635 Y82.561
X162.384 Y83.828
X162.086 Y85.086
X161.739 Y86.33
X161.337 Y87.558
X160.905 Y88.678
X160.533 Y89.507
X160.182 Y90.189
X159.863 Y90.732
X159.56 Y91.191
X159.465 Y91.318
X159.18 Y91.652
X158.854 Y91.945
X158.491 Y92.193
X158.099 Y92.39
X157.684 Y92.534
X157.254 Y92.621
X156.816 Y92.65
X153.906
G3 X152.683 Y91.46 I0.044 J-1.269
G1 X150.572 Y57.698
G3 X151.795 Y56.35 I1.268 J-0.079
G1 X154.671
X154.928 Y56.363
X155.179 Y56.389
X155.441 Y56.431
X155.737 Y56.495
X156.045 Y56.579
X156.386 Y56.692
X156.745 Y56.834
X157.131 Y57.011
X157.545 Y57.229
X157.969 Y57.481
X158.436 Y57.796
X158.896 Y58.143
X159.396 Y58.565
X159.911 Y59.05
X160.428 Y59.591
X160.98 Y60.237
X161.524 Y60.948
X162.063 Y61.737
X162.609 Y62.639
X163.146 Y63.645
X163.662 Y64.752
X164.144 Y65.951
X164.561 Y67.174
X164.915 Y68.416
X165.212 Y69.674
X165.452 Y70.944
X165.639 Y72.222
X165.775 Y73.507
X165.861 Y74.796
X165.9 Y76.088
X165.891 Y77.38
X165.837 Y78.671
X165.738 Y79.959
X165.594 Y81.243
X165.407 Y82.521
X165.174 Y83.792
X164.896 Y85.054
X164.568 Y86.304
X164.183 Y87.537
X163.778 Y88.631
X163.418 Y89.461
X163.092 Y90.112
X162.773 Y90.672
X162.478 Y91.131
X162.367 Y91.284
X162.083 Y91.626
X161.755 Y91.927
X161.389 Y92.181
X160.993 Y92.383
X160.573 Y92.531
X160.137 Y92.62
X159.693 Y92.65
X156.816
G3 X155.593 Y91.461 I0.044 J-1.269
G1 X153.448 Y57.7
G3 X154.189 Y56.464 I1.267 J-0.081
X154.671 Y56.35 I0.527 J1.156
G1 X157.338
X157.639 Y56.365
X157.886 Y56.391
X158.147 Y56.433
X158.439 Y56.496
X158.747 Y56.58
X159.082 Y56.692
X159.442 Y56.833
X159.822 Y57.007
X160.236 Y57.225
X160.654 Y57.474
X161.118 Y57.786
X161.576 Y58.132
X162.071 Y58.55
X162.586 Y59.035
X163.098 Y59.572
X163.647 Y60.213
X164.191 Y60.925
X164.728 Y61.711
X165.274 Y62.612
X165.812 Y63.62
X166.331 Y64.732
X166.812 Y65.931
X167.23 Y67.154
X167.586 Y68.396
X167.885 Y69.653
X168.129 Y70.922
X168.321 Y72.2
X168.463 Y73.484
X168.556 Y74.772
X168.603 Y76.064
X168.605 Y77.356
X168.562 Y78.647
X168.476 Y79.936
X168.347 Y81.222
X168.174 Y82.502
X167.958 Y83.776
X167.695 Y85.041
X167.381 Y86.294
X167.008 Y87.532
X166.625 Y88.597
X166.276 Y89.423
X165.962 Y90.066
X165.65 Y90.626
X165.36 Y91.085
X165.237 Y91.259
X164.953 Y91.607
X164.624 Y91.913
X164.256 Y92.172
X163.857 Y92.378
X163.433 Y92.528
X162.993 Y92.619
X162.545 Y92.65
X159.693
G3 X159.211 Y92.536 I0.044 J-1.269
X158.471 Y91.469 I0.527 J-1.156
G1 X156.116 Y57.708
G3 X156.856 Y56.464 I1.267 J-0.088
X157.338 Y56.35 I0.527 J1.156
G1 X160.005
X160.333 Y56.366
X160.578 Y56.392
X160.839 Y56.434
X161.128 Y56.496
X161.437 Y56.581
X161.769 Y56.691
X162.129 Y56.833
X162.505 Y57.005
X162.919 Y57.223
X163.335 Y57.471
X163.796 Y57.781
X164.253 Y58.126
X164.746 Y58.542
X165.261 Y59.027
X165.771 Y59.561
X166.318 Y60.202
X166.863 Y60.913
X167.399 Y61.699
X167.946 Y62.602
X168.486 Y63.613
X169.008 Y64.732
X169.489 Y65.931
X169.907 Y67.153
X170.266 Y68.395
X170.567 Y69.651
X170.815 Y70.919
X171.011 Y72.196
X171.158 Y73.48
X171.259 Y74.768
X171.314 Y76.059
X171.324 Y77.351
X171.292 Y78.643
X171.217 Y79.933
X171.099 Y81.219
X170.939 Y82.501
X170.734 Y83.777
X170.482 Y85.044
X170.179 Y86.3
X169.816 Y87.54
X169.451 Y88.578
X169.11 Y89.399
X168.805 Y90.035
X168.499 Y90.593
X168.214 Y91.052
X168.083 Y91.24
X167.799 Y91.593
X167.469 Y91.903
X167.1 Y92.165
X166.699 Y92.374
X166.272 Y92.526
X165.829 Y92.619
X165.378 Y92.65
X162.545
G3 X162.063 Y92.536 I0.044 J-1.269
X161.323 Y91.476 I0.527 J-1.156
G1 X158.783 Y57.715
G3 X159.523 Y56.464 I1.266 J-0.095
X160.005 Y56.35 I0.527 J1.156
G1 X162.672
X163.018 Y56.367
X163.262 Y56.393
X163.523 Y56.435
X163.811 Y56.497
X164.12 Y56.581
X164.451 Y56.691
X164.81 Y56.833
X165.185 Y57.005
X165.599 Y57.222
X166.013 Y57.469
X166.473 Y57.779
X166.93 Y58.124
X167.422 Y58.538
X167.937 Y59.023
X168.446 Y59.557
X168.994 Y60.198
X169.539 Y60.91
X170.077 Y61.698
X170.625 Y62.603
X171.168 Y63.619
X171.693 Y64.746
X172.175 Y65.945
X172.594 Y67.167
X172.953 Y68.408
X173.257 Y69.664
X173.508 Y70.932
X173.709 Y72.208
X173.862 Y73.491
X173.968 Y74.779
X174.03 Y76.069
X174.049 Y77.361
X174.025 Y78.653
X173.959 Y79.943
X173.851 Y81.231
X173.7 Y82.514
X173.504 Y83.791
X173.262 Y85.06
X172.966 Y86.318
X172.614 Y87.544
X172.262 Y88.564
X171.929 Y89.379
X171.63 Y90.01
X171.329 Y90.568
X171.048 Y91.026
X170.91 Y91.225
X170.626 Y91.581
X170.296 Y91.894
X169.926 Y92.159
X169.523 Y92.371
X169.094 Y92.525
X168.649 Y92.619
X168.195 Y92.65
X165.378
G3 X164.895 Y92.536 I0.044 J-1.269
X164.156 Y91.482 I0.527 J-1.156
G1 X161.45 Y57.721
G3 X162.189 Y56.464 I1.266 J-0.101
X162.672 Y56.35 I0.527 J1.156
G1 X165.338
X165.699 Y56.368
X165.942 Y56.393
X166.203 Y56.435
X166.491 Y56.497
X166.8 Y56.582
X167.13 Y56.692
X167.489 Y56.833
X167.864 Y57.005
X168.277 Y57.222
X168.691 Y57.469
X169.151 Y57.779
X169.608 Y58.124
X170.1 Y58.538
X170.615 Y59.023
X171.125 Y59.558
X171.675 Y60.201
X172.219 Y60.913
X172.76 Y61.704
X173.311 Y62.613
X173.856 Y63.636
X174.386 Y64.771
X174.868 Y65.97
X175.287 Y67.192
X175.648 Y68.433
X175.955 Y69.688
X176.209 Y70.955
X176.414 Y72.23
X176.572 Y73.513
X176.684 Y74.8
X176.752 Y76.09
X176.778 Y77.382
X176.761 Y78.674
X176.703 Y79.965
X176.602 Y81.253
X176.458 Y82.537
X176.27 Y83.815
X176.034 Y85.085
X175.744 Y86.345
X175.402 Y87.555
X175.058 Y88.561
X174.732 Y89.37
X174.439 Y89.996
X174.141 Y90.551
X173.863 Y91.009
X173.723 Y91.214
X173.439 Y91.573
X173.108 Y91.888
X172.737 Y92.156
X172.333 Y92.369
X171.903 Y92.524
X171.456 Y92.618
X171 Y92.65
X168.195
G3 X166.974 Y91.488 I0.044 J-1.269
G1 X164.117 Y57.726
G3 X165.338 Y56.35 I1.265 J-0.107
G1 X168.005
X168.378 Y56.369
X168.621 Y56.394
X168.882 Y56.436
X169.17 Y56.498
X169.478 Y56.582
X169.809 Y56.692
X170.168 Y56.834
X170.543 Y57.006
X170.957 Y57.223
X171.37 Y57.47
X171.831 Y57.78
X172.288 Y58.125
X172.781 Y58.541
X173.297 Y59.026
X173.809 Y59.563
X174.361 Y60.208
X174.905 Y60.92
X175.448 Y61.716
X176.002 Y62.63
X176.552 Y63.659
X177.086 Y64.804
X177.567 Y66.003
X177.988 Y67.225
X178.35 Y68.465
X178.659 Y69.72
X178.917 Y70.986
X179.125 Y72.261
X179.287 Y73.543
X179.404 Y74.829
X179.478 Y76.119
X179.509 Y77.411
X179.499 Y78.703
X179.446 Y79.994
X179.352 Y81.283
X179.214 Y82.567
X179.031 Y83.846
X178.8 Y85.118
X178.514 Y86.378
X178.181 Y87.571
X177.844 Y88.567
X177.523 Y89.369
X177.235 Y89.989
X176.94 Y90.542
X176.664 Y91
X176.523 Y91.207
X176.239 Y91.567
X175.909 Y91.884
X175.537 Y92.153
X175.132 Y92.367
X174.701 Y92.523
X174.252 Y92.618
X173.795 Y92.65
X171
G3 X170.517 Y92.536 I0.044 J-1.269
X169.779 Y91.493 I0.527 J-1.156
G1 X166.785 Y57.731
G3 X167.523 Y56.464 I1.265 J-0.112
X168.005 Y56.35 I0.527 J1.156
G1 X170.843
X171.046 Y56.36
X171.291 Y56.386
X171.552 Y56.427
X171.841 Y56.49
X172.15 Y56.574
X172.482 Y56.685
X172.841 Y56.826
X173.218 Y56.999
X173.632 Y57.217
X174.048 Y57.465
X174.51 Y57.776
X174.968 Y58.121
X175.463 Y58.539
X175.979 Y59.024
X176.494 Y59.564
X177.05 Y60.215
X177.594 Y60.926
X178.141 Y61.728
X178.699 Y62.649
X179.253 Y63.685
X179.791 Y64.84
X180.273 Y66.039
X180.694 Y67.26
X181.058 Y68.5
X181.369 Y69.754
X181.629 Y71.02
X181.841 Y72.294
X182.007 Y73.576
X182.129 Y74.862
X182.207 Y76.152
X182.243 Y77.443
X182.238 Y78.735
X182.191 Y80.026
X182.101 Y81.315
X181.968 Y82.601
X181.79 Y83.88
X181.562 Y85.152
X181.279 Y86.413
X180.953 Y87.589
X180.621 Y88.578
X180.305 Y89.372
X180.021 Y89.987
X179.729 Y90.538
X179.454 Y90.994
X179.314 Y91.201
X179.03 Y91.563
X178.699 Y91.881
X178.327 Y92.151
X177.921 Y92.366
X177.49 Y92.523
X177.04 Y92.618
X176.582 Y92.65
X173.795
G3 X173.313 Y92.536 I0.044 J-1.269
X172.574 Y91.491 I0.527 J-1.156
G1 X169.623 Y57.73
G3 X170.843 Y56.35 I1.265 J-0.111
G1 X173.51
X173.731 Y56.361
X173.976 Y56.387
X174.236 Y56.428
X174.526 Y56.491
X174.834 Y56.575
X175.166 Y56.686
X175.526 Y56.827
X175.903 Y57
X176.317 Y57.218
X176.733 Y57.466
X177.197 Y57.778
X177.655 Y58.124
X178.152 Y58.543
X178.668 Y59.028
X179.186 Y59.572
X179.745 Y60.226
X180.29 Y60.937
X180.841 Y61.745
X181.402 Y62.671
X181.959 Y63.715
X182.502 Y64.879
X182.984 Y66.078
X183.406 Y67.299
X183.771 Y68.539
X184.084 Y69.792
X184.347 Y71.057
X184.562 Y72.331
X184.731 Y73.612
X184.856 Y74.898
X184.939 Y76.188
X184.979 Y77.479
X184.978 Y78.771
X184.935 Y80.062
X184.849 Y81.352
X184.72 Y82.637
X184.545 Y83.917
X184.32 Y85.19
X184.04 Y86.451
X183.72 Y87.611
X183.391 Y88.592
X183.079 Y89.379
X182.798 Y89.989
X182.508 Y90.537
X182.235 Y90.993
X182.096 Y91.198
X181.813 Y91.56
X181.482 Y91.879
X181.11 Y92.15
X180.703 Y92.365
X180.271 Y92.522
X179.821 Y92.618
X179.362 Y92.65
X176.582
G3 X175.362 Y91.496 I0.044 J-1.269
G1 X172.29 Y57.734
G3 X173.028 Y56.464 I1.265 J-0.115
X173.51 Y56.35 I0.527 J1.156
G1 X176.177
X176.417 Y56.362
X176.661 Y56.388
X176.922 Y56.429
X177.212 Y56.492
X177.52 Y56.576
X177.853 Y56.687
X178.213 Y56.829
X178.592 Y57.002
X179.006 Y57.22
X179.423 Y57.469
X179.888 Y57.782
X180.347 Y58.128
X180.847 Y58.55
X181.362 Y59.034
X181.883 Y59.581
X182.446 Y60.239
X182.991 Y60.951
X183.545 Y61.764
X184.11 Y62.696
X184.671 Y63.747
X185.217 Y64.918
X185.699 Y66.117
X186.121 Y67.338
X186.488 Y68.576
X186.803 Y69.83
X187.068 Y71.094
X187.286 Y72.368
X187.458 Y73.648
X187.587 Y74.934
X187.672 Y76.223
X187.716 Y77.514
X187.718 Y78.806
X187.679 Y80.098
X187.597 Y81.387
X187.471 Y82.673
X187.298 Y83.954
X187.075 Y85.226
X186.796 Y86.488
X186.482 Y87.633
X186.156 Y88.608
X185.847 Y89.388
X185.569 Y89.994
X185.282 Y90.539
X185.009 Y90.994
X184.873 Y91.196
X184.589 Y91.558
X184.258 Y91.878
X183.886 Y92.149
X183.479 Y92.365
X183.047 Y92.522
X182.597 Y92.618
X182.137 Y92.65
X179.362
G3 X178.142 Y91.5 I0.044 J-1.269
G1 X174.957 Y57.739
G3 X175.695 Y56.464 I1.264 J-0.119
X176.177 Y56.35 I0.527 J1.156
G1 X178.844
X179.105 Y56.363
X179.35 Y56.389
X179.611 Y56.43
X179.901 Y56.493
X180.21 Y56.577
X180.544 Y56.689
X180.903 Y56.83
X181.284 Y57.005
X181.698 Y57.222
X182.117 Y57.472
X182.583 Y57.786
X183.042 Y58.133
X183.545 Y58.557
X184.061 Y59.041
X184.585 Y59.592
X185.151 Y60.254
X185.696 Y60.966
X186.255 Y61.784
X186.823 Y62.722
X187.387 Y63.779
X187.933 Y64.95
X188.416 Y66.149
X188.839 Y67.369
X189.207 Y68.608
X189.524 Y69.86
X189.791 Y71.125
X190.012 Y72.398
X190.187 Y73.678
X190.318 Y74.963
X190.407 Y76.252
X190.454 Y77.543
X190.46 Y78.835
X190.423 Y80.127
X190.344 Y81.417
X190.22 Y82.703
X190.05 Y83.984
X189.829 Y85.257
X189.552 Y86.518
X189.241 Y87.65
X188.918 Y88.62
X188.612 Y89.395
X188.336 Y89.997
X188.05 Y90.54
X187.779 Y90.994
X187.644 Y91.194
X187.361 Y91.557
X187.03 Y91.877
X186.657 Y92.148
X186.25 Y92.364
X185.818 Y92.522
X185.367 Y92.618
X184.908 Y92.65
X182.137
G3 X180.918 Y91.504 I0.044 J-1.269
G1 X177.624 Y57.743
G3 X178.361 Y56.464 I1.264 J-0.123
X178.844 Y56.35 I0.527 J1.156
G1 X181.511
X181.797 Y56.364
X182.043 Y56.39
X182.303 Y56.432
X182.595 Y56.495
X182.903 Y56.579
X183.238 Y56.691
X183.598 Y56.832
X183.98 Y57.007
X184.395 Y57.225
X184.815 Y57.476
X185.282 Y57.791
X185.743 Y58.138
X186.248 Y58.564
X186.763 Y59.049
X187.291 Y59.603
X187.859 Y60.267
X188.406 Y60.982
X188.968 Y61.804
X189.539 Y62.748
X190.107 Y63.811
X190.653 Y64.982
X191.136 Y66.18
X191.56 Y67.401
X191.93 Y68.639
X192.248 Y69.891
X192.517 Y71.155
X192.74 Y72.427
X192.918 Y73.707
X193.052 Y74.992
X193.143 Y76.281
X193.193 Y77.572
X193.201 Y78.864
X193.167 Y80.156
X193.09 Y81.446
X192.969 Y82.732
X192.801 Y84.013
X192.581 Y85.286
X192.304 Y86.548
X191.998 Y87.669
X191.677 Y88.633
X191.373 Y89.403
X191.099 Y90.002
X190.815 Y90.542
X190.544 Y90.996
X190.411 Y91.193
X190.128 Y91.556
X189.797 Y91.876
X189.424 Y92.148
X189.017 Y92.364
X188.584 Y92.522
X188.134 Y92.618
X187.674 Y92.65
X184.908
G3 X184.425 Y92.536 I0.044 J-1.269
X183.688 Y91.508 I0.527 J-1.156
G1 X180.291 Y57.746
G3 X181.511 Y56.35 I1.264 J-0.127
G1 X184.177
X184.492 Y56.366
X184.739 Y56.392
X185 Y56.433
X185.292 Y56.496
X185.6 Y56.581
X185.937 Y56.693
X186.296 Y56.834
X186.68 Y57.01
X187.095 Y57.228
X187.517 Y57.48
X187.986 Y57.795
X188.447 Y58.143
X188.955 Y58.572
X189.47 Y59.057
X190.001 Y59.614
X190.571 Y60.28
X191.119 Y60.997
X191.684 Y61.824
X192.259 Y62.772
X192.829 Y63.841
X193.375 Y65.012
X193.859 Y66.211
X194.284 Y67.431
X194.655 Y68.668
X194.974 Y69.92
X195.245 Y71.184
X195.47 Y72.456
X195.65 Y73.735
X195.786 Y75.02
X195.88 Y76.309
X195.932 Y77.6
X195.942 Y78.892
X195.911 Y80.184
X195.836 Y81.474
X195.716 Y82.76
X195.55 Y84.041
X195.331 Y85.315
X195.055 Y86.577
X194.752 Y87.687
X194.433 Y88.646
X194.131 Y89.411
X193.858 Y90.008
X193.575 Y90.546
X193.305 Y90.999
X193.175 Y91.192
X192.891 Y91.556
X192.56 Y91.876
X192.187 Y92.147
X191.781 Y92.364
X191.347 Y92.522
X190.897 Y92.618
X190.437 Y92.65
X187.674
G3 X187.192 Y92.536 I0.044 J-1.269
X186.455 Y91.512 I0.527 J-1.156
G1 X182.958 Y57.75
G3 X184.177 Y56.35 I1.263 J-0.131
G1 X186.844
X187.192 Y56.367
X187.439 Y56.393
X187.7 Y56.435
X187.993 Y56.498
X188.301 Y56.583
X188.639 Y56.695
X188.999 Y56.837
X189.384 Y57.013
X189.799 Y57.231
X190.222 Y57.484
X190.692 Y57.8
X191.154 Y58.149
X191.665 Y58.579
X192.18 Y59.064
X192.714 Y59.625
X193.286 Y60.293
X193.836 Y61.012
X194.404 Y61.843
X194.981 Y62.796
X195.554 Y63.87
X196.1 Y65.041
X196.584 Y66.239
X197.01 Y67.459
X197.382 Y68.697
X197.703 Y69.948
X197.976 Y71.211
X198.202 Y72.483
X198.384 Y73.762
X198.522 Y75.047
X198.618 Y76.336
X198.672 Y77.627
X198.684 Y78.919
X198.654 Y80.21
X198.581 Y81.5
X198.463 Y82.787
X198.297 Y84.068
X198.08 Y85.342
X197.804 Y86.604
X197.503 Y87.705
X197.186 Y88.659
X196.886 Y89.42
X196.614 Y90.014
X196.332 Y90.55
X196.063 Y91.002
X195.935 Y91.192
X195.652 Y91.556
X195.32 Y91.876
X194.948 Y92.147
X194.541 Y92.364
X194.108 Y92.522
X193.657 Y92.618
X193.197 Y92.65
X190.437
G3 X189.218 Y91.515 I0.044 J-1.269
G1 X185.626 Y57.754
G3 X186.844 Y56.35 I1.263 J-0.134
G1 X189.511
X189.895 Y56.369
X190.143 Y56.395
X190.404 Y56.437
X190.698 Y56.5
X191.006 Y56.585
X191.346 Y56.697
X191.705 Y56.839
X192.092 Y57.016
X192.506 Y57.234
X192.932 Y57.488
X193.402 Y57.805
X193.866 Y58.154
X194.379 Y58.587
X194.894 Y59.072
X195.431 Y59.635
X196.004 Y60.306
X196.556 Y61.026
X197.126 Y61.862
X197.706 Y62.818
X198.282 Y63.897
X198.828 Y65.069
X199.312 Y66.266
X199.738 Y67.486
X200.111 Y68.723
X200.433 Y69.974
X200.707 Y71.237
X200.935 Y72.509
X201.118 Y73.788
X201.258 Y75.072
X201.356 Y76.361
X201.411 Y77.652
X201.425 Y78.944
X201.397 Y80.235
X201.325 Y81.525
X201.208 Y82.812
X201.044 Y84.094
X200.827 Y85.367
X200.551 Y86.63
X200.253 Y87.723
X199.937 Y88.672
X199.638 Y89.43
X199.367 Y90.021
X199.087 Y90.554
X198.818 Y91.006
X198.692 Y91.192
X198.409 Y91.556
X198.078 Y91.876
X197.705 Y92.147
X197.298 Y92.364
X196.865 Y92.522
X196.414 Y92.618
X195.954 Y92.65
X193.197
G3 X192.714 Y92.536 I0.044 J-1.269
X191.979 Y91.519 I0.527 J-1.156
G1 X188.293 Y57.757
G3 X189.029 Y56.464 I1.262 J-0.138
X189.511 Y56.35 I0.527 J1.156
G1 X192.387
X192.589 Y56.36
X192.839 Y56.386
X193.101 Y56.428
X193.396 Y56.492
X193.705 Y56.576
X194.047 Y56.69
X194.406 Y56.832
X194.796 Y57.01
X195.21 Y57.228
X195.638 Y57.483
X196.11 Y57.801
X196.576 Y58.152
X197.092 Y58.587
X197.607 Y59.072
X198.148 Y59.639
X198.723 Y60.312
X199.276 Y61.035
X199.849 Y61.875
X200.431 Y62.836
X201.01 Y63.92
X201.556 Y65.091
X202.04 Y66.289
X202.468 Y67.508
X202.841 Y68.745
X203.165 Y69.996
X203.44 Y71.258
X203.669 Y72.53
X203.854 Y73.808
X203.995 Y75.093
X204.094 Y76.381
X204.151 Y77.672
X204.167 Y78.964
X204.14 Y80.256
X204.069 Y81.546
X203.953 Y82.833
X203.79 Y84.114
X203.573 Y85.388
X203.298 Y86.65
X203.001 Y87.738
X202.687 Y88.683
X202.39 Y89.437
X202.12 Y90.026
X201.84 Y90.558
X201.571 Y91.009
X201.448 Y91.192
X201.164 Y91.556
X200.833 Y91.876
X200.46 Y92.147
X200.054 Y92.364
X199.62 Y92.522
X199.17 Y92.618
X198.71 Y92.65
X195.954
G3 X195.472 Y92.536 I0.044 J-1.269
X194.736 Y91.514 I0.527 J-1.156
G1 X191.169 Y57.753
G3 X191.905 Y56.464 I1.263 J-0.133
X192.387 Y56.35 I0.527 J1.156
G1 X195.054
X195.304 Y56.363
X195.555 Y56.389
X195.816 Y56.43
X196.111 Y56.494
X196.42 Y56.579
X196.762 Y56.692
X197.121 Y56.834
X197.511 Y57.013
X197.926 Y57.231
X198.355 Y57.487
X198.827 Y57.804
X199.293 Y58.156
X199.811 Y58.593
X200.326 Y59.078
X200.869 Y59.647
X201.445 Y60.321
X202 Y61.045
X202.575 Y61.889
X203.16 Y62.853
X203.741 Y63.941
X204.286 Y65.112
X204.771 Y66.31
X205.199 Y67.529
X205.573 Y68.766
X205.897 Y70.016
X206.174 Y71.279
X206.404 Y72.55
X206.59 Y73.828
X206.733 Y75.113
X206.833 Y76.401
X206.892 Y77.692
X206.908 Y78.983
X206.882 Y80.275
X206.813 Y81.565
X206.698 Y82.852
X206.535 Y84.134
X206.319 Y85.408
X206.044 Y86.671
X205.748 Y87.752
X205.435 Y88.693
X205.139 Y89.444
X204.87 Y90.032
X204.591 Y90.562
X204.322 Y91.012
X204.201 Y91.192
X203.918 Y91.556
X203.586 Y91.876
X203.214 Y92.148
X202.807 Y92.364
X202.374 Y92.522
X201.923 Y92.618
X201.463 Y92.65
X198.71
G3 X198.227 Y92.536 I0.044 J-1.269
X197.491 Y91.517 I0.527 J-1.156
G1 X193.836 Y57.756
G3 X194.572 Y56.464 I1.263 J-0.137
X195.054 Y56.35 I0.527 J1.156
G1 X197.721
X198.02 Y56.365
X198.271 Y56.391
X198.532 Y56.433
X198.828 Y56.497
X199.136 Y56.581
X199.479 Y56.695
X199.839 Y56.837
X200.229 Y57.016
X200.644 Y57.234
X201.074 Y57.49
X201.547 Y57.809
X202.014 Y58.161
X202.533 Y58.599
X203.049 Y59.084
X203.594 Y59.656
X204.171 Y60.33
X204.726 Y61.056
X205.303 Y61.902
X205.89 Y62.87
X206.472 Y63.961
X207.018 Y65.132
X207.503 Y66.33
X207.931 Y67.549
X208.306 Y68.785
X208.631 Y70.036
X208.909 Y71.298
X209.14 Y72.569
X209.327 Y73.847
X209.471 Y75.132
X209.572 Y76.42
X209.632 Y77.71
X209.649 Y79.002
X209.624 Y80.294
X209.556 Y81.584
X209.442 Y82.871
X209.279 Y84.153
X209.064 Y85.427
X208.789 Y86.689
X208.494 Y87.766
X208.182 Y88.704
X207.887 Y89.452
X207.618 Y90.038
X207.341 Y90.566
X207.072 Y91.016
X206.953 Y91.193
X206.669 Y91.556
X206.338 Y91.877
X205.965 Y92.148
X205.559 Y92.364
X205.126 Y92.522
X204.675 Y92.618
X204.215 Y92.65
X201.463
G3 X200.981 Y92.536 I0.044 J-1.269
X200.245 Y91.521 I0.527 J-1.156
G1 X196.503 Y57.759
G3 X197.238 Y56.464 I1.262 J-0.14
X197.721 Y56.35 I0.527 J1.156
G1 X200.388
X200.738 Y56.368
X200.989 Y56.394
X201.25 Y56.436
X201.547 Y56.5
X201.855 Y56.584
X202.199 Y56.698
X202.558 Y56.84
X202.95 Y57.019
X203.365 Y57.237
X203.796 Y57.494
X204.269 Y57.813
X204.737 Y58.166
X205.258 Y58.606
X205.773 Y59.091
X206.32 Y59.664
X206.898 Y60.34
X207.454 Y61.067
X208.033 Y61.915
X208.621 Y62.886
X209.206 Y63.98
X209.752 Y65.151
X210.237 Y66.349
X210.665 Y67.567
X211.041 Y68.804
X211.366 Y70.054
X211.644 Y71.316
X211.877 Y72.587
X212.065 Y73.865
X212.209 Y75.149
X212.312 Y76.437
X212.372 Y77.728
X212.391 Y79.02
X212.366 Y80.312
X212.299 Y81.602
X212.185 Y82.889
X212.023 Y84.171
X211.808 Y85.445
X211.533 Y86.707
X211.239 Y87.779
X210.928 Y88.713
X210.634 Y89.459
X210.366 Y90.043
X210.089 Y90.57
X209.82 Y91.019
X209.703 Y91.194
X209.419 Y91.557
X209.088 Y91.877
X208.716 Y92.148
X208.309 Y92.364
X207.876 Y92.522
X207.425 Y92.618
X206.966 Y92.65
X204.215
G3 X203.733 Y92.536 I0.044 J-1.269
X202.998 Y91.524 I0.527 J-1.156
G1 X199.17 Y57.762
G3 X199.905 Y56.464 I1.262 J-0.143
X200.388 Y56.35 I0.527 J1.156
G1 X203.226
X203.447 Y56.361
X203.7 Y56.388
X203.962 Y56.429
X204.26 Y56.494
X204.568 Y56.578
X204.914 Y56.693
X205.273 Y56.835
X205.667 Y57.015
X206.081 Y57.233
X206.515 Y57.491
X206.988 Y57.81
X207.458 Y58.165
X207.981 Y58.606
X208.497 Y59.091
X209.046 Y59.667
X209.624 Y60.344
X210.183 Y61.073
X210.764 Y61.924
X211.353 Y62.897
X211.939 Y63.995
X212.485 Y65.166
X212.97 Y66.363
X213.399 Y67.582
X213.775 Y68.818
X214.102 Y70.068
X214.381 Y71.33
X214.614 Y72.601
X214.802 Y73.879
X214.948 Y75.163
X215.051 Y76.451
X215.112 Y77.741
X215.132 Y79.033
X215.108 Y80.325
X215.041 Y81.615
X214.928 Y82.903
X214.767 Y84.185
X214.552 Y85.459
X214.277 Y86.721
X213.984 Y87.79
X213.674 Y88.721
X213.38 Y89.465
X213.113 Y90.047
X212.836 Y90.573
X212.568 Y91.022
X212.452 Y91.194
X212.168 Y91.557
X211.837 Y91.877
X211.465 Y92.148
X211.058 Y92.364
X210.625 Y92.522
X210.175 Y92.618
X209.715 Y92.65
X206.966
G3 X206.483 Y92.536 I0.044 J-1.269
X205.748 Y91.521 I0.527 J-1.156
G1 X202.008 Y57.759
G3 X202.743 Y56.464 I1.262 J-0.14
X203.226 Y56.35 I0.527 J1.156
G1 X205.893
X206.174 Y56.364
X206.426 Y56.39
X206.688 Y56.432
X206.985 Y56.497
X207.294 Y56.581
X207.639 Y56.696
X207.999 Y56.838
X208.393 Y57.018
X208.807 Y57.236
X209.241 Y57.495
X209.715 Y57.813
X210.185 Y58.169
X210.709 Y58.61
X211.225 Y59.096
X211.775 Y59.673
X212.354 Y60.35
X212.914 Y61.081
X213.496 Y61.934
X214.087 Y62.909
X214.674 Y64.009
X215.22 Y65.18
X215.705 Y66.378
X216.135 Y67.596
X216.511 Y68.832
X216.838 Y70.082
X217.117 Y71.344
X217.351 Y72.615
X217.541 Y73.893
X217.687 Y75.176
X217.791 Y76.464
X217.853 Y77.755
X217.873 Y79.047
X217.85 Y80.339
X217.783 Y81.629
X217.671 Y82.916
X217.51 Y84.198
X217.295 Y85.472
X217.02 Y86.735
X216.728 Y87.8
X216.418 Y88.729
X216.125 Y89.47
X215.858 Y90.052
X215.582 Y90.576
X215.314 Y91.025
X215.2 Y91.194
X214.916 Y91.557
X214.585 Y91.877
X214.212 Y92.148
X213.806 Y92.364
X213.373 Y92.522
X212.923 Y92.618
X212.463 Y92.65
X209.715
G3 X208.497 Y91.524 I0.044 J-1.269
G1 X204.675 Y57.762
G3 X205.41 Y56.464 I1.262 J-0.143
X205.893 Y56.35 I0.527 J1.156
G1 X208.559
X208.9 Y56.367
X209.152 Y56.393
X209.414 Y56.435
X209.712 Y56.5
X210.021 Y56.584
X210.366 Y56.699
X210.726 Y56.841
X211.12 Y57.021
X211.535 Y57.239
X211.969 Y57.498
X212.443 Y57.817
X212.914 Y58.173
X213.439 Y58.616
X213.955 Y59.101
X214.506 Y59.679
X215.086 Y60.357
X215.646 Y61.089
X216.229 Y61.944
X216.821 Y62.921
X217.41 Y64.023
X217.956 Y65.194
X218.441 Y66.391
X218.871 Y67.61
X219.248 Y68.846
X219.575 Y70.096
X219.855 Y71.357
X220.089 Y72.628
X220.279 Y73.906
X220.426 Y75.189
X220.531 Y76.477
X220.593 Y77.768
X220.614 Y79.059
X220.592 Y80.351
X220.525 Y81.642
X220.413 Y82.929
X220.252 Y84.211
X220.038 Y85.485
X219.763 Y86.747
X219.471 Y87.81
X219.162 Y88.736
X218.87 Y89.476
X218.603 Y90.056
X218.328 Y90.579
X218.059 Y91.028
X217.947 Y91.195
X217.663 Y91.558
X217.332 Y91.878
X216.959 Y92.148
X216.553 Y92.365
X216.12 Y92.522
X215.67 Y92.618
X215.21 Y92.65
X212.463
G3 X211.246 Y91.527 I0.044 J-1.269
G1 X207.342 Y57.765
G3 X208.077 Y56.464 I1.262 J-0.146
X208.559 Y56.35 I0.527 J1.156
G1 X211.226
X211.627 Y56.37
X211.88 Y56.397
X212.142 Y56.438
X212.44 Y56.503
X212.748 Y56.587
X213.095 Y56.702
X213.454 Y56.844
X213.849 Y57.025
X214.264 Y57.243
X214.699 Y57.502
X215.173 Y57.821
X215.645 Y58.177
X216.17 Y58.621
X216.686 Y59.106
X217.239 Y59.686
X217.819 Y60.364
X218.379 Y61.097
X218.964 Y61.953
X219.557 Y62.932
X220.146 Y64.036
X220.692 Y65.207
X221.178 Y66.404
X221.607 Y67.622
X221.985 Y68.858
X222.312 Y70.108
X222.593 Y71.369
X222.828 Y72.64
X223.018 Y73.918
X223.166 Y75.201
X223.271 Y76.489
X223.334 Y77.78
X223.355 Y79.071
X223.333 Y80.363
X223.267 Y81.654
X223.155 Y82.941
X222.995 Y84.223
X222.78 Y85.497
X222.505 Y86.759
X222.214 Y87.82
X221.905 Y88.743
X221.613 Y89.481
X221.347 Y90.061
X221.072 Y90.582
X220.804 Y91.031
X220.693 Y91.196
X220.409 Y91.558
X220.078 Y91.878
X219.705 Y92.149
X219.299 Y92.365
X218.866 Y92.522
X218.416 Y92.618
X217.957 Y92.65
X215.21
G3 X214.728 Y92.536 I0.044 J-1.269
X213.993 Y91.53 I0.527 J-1.156
G1 X210.009 Y57.768
G3 X210.744 Y56.464 I1.261 J-0.149
X211.226 Y56.35 I0.527 J1.156
G1 X214.102
X214.343 Y56.362
X214.597 Y56.389
X214.859 Y56.431
X215.159 Y56.495
X215.468 Y56.58
X215.816 Y56.696
X216.175 Y56.837
X216.572 Y57.019
X216.987 Y57.237
X217.423 Y57.498
X217.898 Y57.817
X218.371 Y58.174
X218.898 Y58.619
X219.415 Y59.105
X219.969 Y59.686
X220.55 Y60.365
X221.112 Y61.1
X221.698 Y61.958
X222.292 Y62.938
X222.882 Y64.044
X223.428 Y65.215
X223.914 Y66.413
X224.344 Y67.631
X224.722 Y68.867
X225.05 Y70.116
X225.33 Y71.378
X225.566 Y72.648
X225.757 Y73.926
X225.905 Y75.209
X226.011 Y76.497
X226.074 Y77.788
X226.095 Y79.08
X226.074 Y80.371
X226.009 Y81.662
X225.897 Y82.949
X225.737 Y84.231
X225.522 Y85.505
X225.247 Y86.768
X224.956 Y87.826
X224.649 Y88.747
X224.357 Y89.485
X224.091 Y90.063
X223.816 Y90.584
X223.548 Y91.032
X223.438 Y91.196
X223.155 Y91.558
X222.823 Y91.878
X222.451 Y92.149
X222.045 Y92.365
X221.612 Y92.522
X221.162 Y92.618
X220.702 Y92.65
X217.957
G3 X216.739 Y91.525 I0.044 J-1.269
G1 X212.885 Y57.763
G3 X213.62 Y56.464 I1.262 J-0.144
X214.102 Y56.35 I0.527 J1.156
G1 X216.769
X217.077 Y56.365
X217.331 Y56.392
X217.593 Y56.434
X217.892 Y56.498
X218.201 Y56.583
X218.549 Y56.699
X218.908 Y56.84
X219.305 Y57.022
X219.719 Y57.24
X220.156 Y57.5
X220.63 Y57.819
X221.104 Y58.177
X221.632 Y58.622
X222.148 Y59.108
X222.703 Y59.69
X223.284 Y60.369
X223.847 Y61.105
X224.433 Y61.964
X225.028 Y62.946
X225.619 Y64.053
X226.165 Y65.224
X226.651 Y66.422
X227.081 Y67.64
X227.459 Y68.876
X227.788 Y70.125
X228.069 Y71.386
X228.305 Y72.657
X228.496 Y73.934
X228.645 Y75.218
X228.751 Y76.506
X228.814 Y77.796
X228.836 Y79.088
X228.815 Y80.38
X228.75 Y81.67
X228.639 Y82.958
X228.479 Y84.24
X228.264 Y85.514
X227.989 Y86.776
X227.699 Y87.833
X227.391 Y88.752
X227.1 Y89.488
X226.835 Y90.066
X226.56 Y90.586
X226.292 Y91.034
X226.183 Y91.196
X225.899 Y91.559
X225.568 Y91.878
X225.196 Y92.149
X224.789 Y92.365
X224.357 Y92.522
X223.907 Y92.618
X223.448 Y92.65
X220.702
G3 X219.485 Y91.528 I0.044 J-1.269
G1 X215.552 Y57.766
G3 X216.769 Y56.35 I1.261 J-0.147
G1 X219.436
X219.811 Y56.369
X220.064 Y56.395
X220.326 Y56.437
X220.625 Y56.502
X220.934 Y56.586
X221.282 Y56.702
X221.642 Y56.844
X222.038 Y57.025
X222.453 Y57.243
X222.89 Y57.504
X223.364 Y57.823
X223.838 Y58.181
X224.366 Y58.626
X224.883 Y59.112
X225.439 Y59.695
X226.019 Y60.375
X226.583 Y61.111
X227.17 Y61.971
X227.765 Y62.954
X228.357 Y64.062
X228.903 Y65.233
X229.389 Y66.43
X229.819 Y67.649
X230.197 Y68.884
X230.526 Y70.134
X230.808 Y71.395
X231.044 Y72.665
X231.235 Y73.943
X231.384 Y75.226
X231.491 Y76.514
X231.555 Y77.805
X231.577 Y79.096
X231.556 Y80.388
X231.491 Y81.679
X231.38 Y82.966
X231.22 Y84.248
X231.006 Y85.522
X230.731 Y86.785
X230.441 Y87.84
X230.134 Y88.757
X229.843 Y89.492
X229.577 Y90.069
X229.303 Y90.589
X229.035 Y91.036
X228.927 Y91.197
X228.644 Y91.559
X228.312 Y91.879
X227.94 Y92.149
X227.534 Y92.365
X227.101 Y92.522
X226.651 Y92.618
X226.192 Y92.65
X223.448
G3 X222.231 Y91.531 I0.044 J-1.269
G1 X218.219 Y57.769
G3 X219.436 Y56.35 I1.261 J-0.15
G1 X222.274
X222.533 Y56.363
X222.788 Y56.39
X223.05 Y56.432
X223.351 Y56.496
X223.66 Y56.581
X224.009 Y56.697
X224.368 Y56.839
X224.766 Y57.021
X225.181 Y57.239
X225.619 Y57.501
X226.094 Y57.82
X226.569 Y58.179
X227.098 Y58.625
X227.615 Y59.111
X228.172 Y59.696
X228.753 Y60.375
X229.318 Y61.112
X229.906 Y61.974
X230.502 Y62.958
X231.095 Y64.068
X231.641 Y65.239
X232.127 Y66.437
X232.557 Y67.655
X232.936 Y68.89
X233.264 Y70.14
X233.546 Y71.401
X233.783 Y72.671
X233.975 Y73.949
X234.124 Y75.232
X234.231 Y76.52
X234.295 Y77.81
X234.318 Y79.102
X234.297 Y80.394
X234.233 Y81.684
X234.122 Y82.972
X233.962 Y84.254
X233.748 Y85.528
X233.473 Y86.79
X233.183 Y87.844
X232.876 Y88.76
X232.586 Y89.494
X232.32 Y90.071
X232.046 Y90.59
X231.778 Y91.037
X231.671 Y91.197
X231.387 Y91.559
X231.056 Y91.879
X230.684 Y92.149
X230.278 Y92.365
X229.845 Y92.522
X229.395 Y92.618
X228.936 Y92.65
X226.192
G3 X224.975 Y91.527 I0.044 J-1.269
G1 X221.057 Y57.766
G3 X221.792 Y56.464 I1.262 J-0.146
X222.274 Y56.35 I0.527 J1.156
G1 X224.941
X225.271 Y56.367
X225.525 Y56.393
X225.787 Y56.435
X226.087 Y56.5
X226.396 Y56.584
X226.745 Y56.7
X227.105 Y56.842
X227.502 Y57.024
X227.917 Y57.242
X228.355 Y57.504
X228.829 Y57.823
X229.305 Y58.182
X229.834 Y58.628
X230.351 Y59.114
X230.909 Y59.699
X231.49 Y60.379
X232.054 Y61.117
X232.643 Y61.979
X233.24 Y62.964
X233.833 Y64.075
X234.379 Y65.246
X234.865 Y66.443
X235.296 Y67.661
X235.674 Y68.897
X236.003 Y70.146
X236.285 Y71.407
X236.522 Y72.677
X236.714 Y73.955
X236.864 Y75.238
X236.971 Y76.526
X237.036 Y77.816
X237.058 Y79.108
X237.038 Y80.4
X236.974 Y81.69
X236.863 Y82.978
X236.703 Y84.26
X236.489 Y85.534
X236.214 Y86.797
X235.924 Y87.849
X235.618 Y88.764
X235.328 Y89.497
X235.062 Y90.073
X234.789 Y90.592
X234.521 Y91.039
X234.414 Y91.197
X234.131 Y91.559
X233.8 Y91.879
X233.427 Y92.149
X233.021 Y92.365
X232.589 Y92.522
X232.138 Y92.618
X231.679 Y92.65
X228.936
G3 X228.454 Y92.536 I0.044 J-1.269
X227.719 Y91.53 I0.527 J-1.156
G1 X223.724 Y57.768
G3 X224.941 Y56.35 I1.261 J-0.149
G1 X227.608
X228.008 Y56.37
X228.262 Y56.397
X228.524 Y56.438
X228.824 Y56.503
X229.132 Y56.588
X229.481 Y56.704
X229.841 Y56.845
X230.239 Y57.028
X230.653 Y57.245
X231.092 Y57.507
X231.566 Y57.826
X232.042 Y58.185
X232.571 Y58.632
X233.088 Y59.118
X233.646 Y59.704
X234.227 Y60.383
X234.792 Y61.121
X235.381 Y61.984
X235.978 Y62.97
X236.572 Y64.082
X237.118 Y65.253
X237.604 Y66.45
X238.035 Y67.668
X238.413 Y68.903
X238.742 Y70.153
X239.025 Y71.413
X239.261 Y72.684
X239.454 Y73.961
X239.604 Y75.245
X239.711 Y76.532
X239.776 Y77.823
X239.799 Y79.114
X239.779 Y80.406
X239.715 Y81.697
X239.604 Y82.984
X239.445 Y84.266
X239.23 Y85.54
X238.955 Y86.803
X238.666 Y87.854
X238.36 Y88.768
X238.069 Y89.5
X237.804 Y90.076
X237.531 Y90.593
X237.263 Y91.04
X237.157 Y91.197
X236.874 Y91.56
X236.542 Y91.879
X236.17 Y92.149
X235.764 Y92.365
X235.332 Y92.522
X234.882 Y92.618
X234.423 Y92.65
X231.679
G3 X231.197 Y92.536 I0.044 J-1.269
X230.463 Y91.533 I0.527 J-1.156
G1 X226.391 Y57.771
G3 X227.608 Y56.35 I1.261 J-0.152
G1 X230.484
X230.731 Y56.362
X230.986 Y56.389
X231.249 Y56.431
X231.55 Y56.496
X231.859 Y56.581
X232.209 Y56.697
X232.569 Y56.839
X232.968 Y57.022
X233.383 Y57.24
X233.822 Y57.502
X234.297 Y57.821
X234.774 Y58.181
X235.304 Y58.629
X235.822 Y59.116
X236.381 Y59.702
X236.962 Y60.382
X237.528 Y61.121
X238.118 Y61.985
X238.716 Y62.972
X239.31 Y64.085
X239.856 Y65.256
X240.342 Y66.453
X240.773 Y67.671
X241.152 Y68.907
X241.481 Y70.156
X241.764 Y71.417
X242.001 Y72.687
X242.194 Y73.964
X242.344 Y75.248
X242.451 Y76.535
X242.516 Y77.826
X242.54 Y79.118
X242.52 Y80.41
X242.456 Y81.7
X242.345 Y82.987
X242.186 Y84.27
X241.972 Y85.544
X241.697 Y86.805
X241.407 Y87.856
X241.102 Y88.769
X240.812 Y89.501
X240.547 Y90.076
X240.274 Y90.594
X240.006 Y91.041
X239.9 Y91.197
X239.616 Y91.56
X239.285 Y91.879
X238.913 Y92.149
X238.507 Y92.365
X238.074 Y92.522
X237.624 Y92.618
X237.165 Y92.65
X234.423
G3 X233.206 Y91.528 I0.044 J-1.269
G1 X229.267 Y57.766
G3 X230.002 Y56.464 I1.261 J-0.147
X230.484 Y56.35 I0.527 J1.156
G1 X233.151
X233.472 Y56.366
X233.727 Y56.393
X233.989 Y56.435
X234.289 Y56.5
X234.598 Y56.584
X234.948 Y56.7
X235.308 Y56.842
X235.706 Y57.025
X236.121 Y57.242
X236.56 Y57.505
X237.035 Y57.824
X237.512 Y58.184
X238.042 Y58.631
X238.559 Y59.118
X239.119 Y59.705
X239.7 Y60.385
X240.266 Y61.124
X240.856 Y61.989
X241.454 Y62.976
X242.049 Y64.09
X242.595 Y65.261
X243.081 Y66.458
X243.512 Y67.676
X243.891 Y68.911
X244.22 Y70.16
X244.503 Y71.421
X244.74 Y72.691
X244.933 Y73.969
X245.084 Y75.252
X245.191 Y76.54
X245.257 Y77.83
X245.28 Y79.122
X245.261 Y80.414
X245.197 Y81.704
X245.086 Y82.992
X244.927 Y84.274
X244.713 Y85.548
X244.438 Y86.808
X244.149 Y87.858
X243.843 Y88.77
X243.554 Y89.502
X243.289 Y90.077
X243.016 Y90.594
X242.748 Y91.041
X242.642 Y91.197
X242.359 Y91.56
X242.028 Y91.879
X241.655 Y92.149
X241.249 Y92.365
X240.817 Y92.522
X240.367 Y92.618
X239.908 Y92.65
X237.165
G3 X235.949 Y91.531 I0.044 J-1.269
G1 X231.934 Y57.769
G3 X233.151 Y56.35 I1.261 J-0.15
G1 X235.989
X236.2 Y56.361
X236.456 Y56.387
X236.718 Y56.429
X237.02 Y56.494
X237.329 Y56.579
X237.68 Y56.696
X238.039 Y56.837
X238.439 Y57.02
X238.853 Y57.238
X239.294 Y57.501
X239.768 Y57.82
X240.246 Y58.181
X240.777 Y58.629
X241.295 Y59.116
X241.855 Y59.703
X242.436 Y60.384
X243.003 Y61.124
X243.594 Y61.989
X244.192 Y62.977
X244.788 Y64.092
X245.333 Y65.263
X245.82 Y66.46
X246.251 Y67.678
X246.63 Y68.913
X246.96 Y70.163
X247.242 Y71.423
X247.48 Y72.693
X247.673 Y73.971
X247.823 Y75.254
X247.931 Y76.542
X247.997 Y77.832
X248.021 Y79.124
X248.001 Y80.416
X247.937 Y81.706
X247.827 Y82.994
X247.668 Y84.276
X247.454 Y85.55
X247.179 Y86.81
X246.89 Y87.859
X246.585 Y88.771
X246.295 Y89.502
X246.031 Y90.077
X245.758 Y90.594
X245.49 Y91.041
X245.385 Y91.197
X245.101 Y91.56
X244.77 Y91.879
X244.398 Y92.149
X243.991 Y92.365
X243.559 Y92.522
X243.109 Y92.618
X242.65 Y92.65
X239.908
G3 X239.426 Y92.536 I0.044 J-1.269
X238.691 Y91.527 I0.527 J-1.156
G1 X234.772 Y57.766
G3 X235.989 Y56.35 I1.262 J-0.146
G1 X238.656
X238.943 Y56.364
X239.198 Y56.391
X239.46 Y56.433
X239.761 Y56.498
X240.07 Y56.582
X240.42 Y56.699
X240.779 Y56.841
X241.178 Y57.023
X241.593 Y57.241
X242.033 Y57.504
X242.507 Y57.823
X242.985 Y58.184
X243.516 Y58.631
X244.033 Y59.118
X244.594 Y59.706
X245.175 Y60.386
X245.742 Y61.127
X246.333 Y61.992
X246.931 Y62.98
X247.527 Y64.095
X248.073 Y65.266
X248.559 Y66.463
X248.99 Y67.682
X249.369 Y68.917
X249.699 Y70.166
X249.982 Y71.427
X250.22 Y72.697
X250.413 Y73.974
X250.564 Y75.257
X250.672 Y76.545
X250.738 Y77.835
X250.761 Y79.127
X250.742 Y80.419
X250.678 Y81.71
X250.568 Y82.997
X250.409 Y84.279
X250.195 Y85.553
X249.92 Y86.812
X249.632 Y87.861
X249.326 Y88.772
X249.037 Y89.503
X248.772 Y90.078
X248.499 Y90.595
X248.232 Y91.042
X248.127 Y91.197
X247.843 Y91.56
X247.512 Y91.879
X247.14 Y92.149
X246.733 Y92.365
X246.301 Y92.522
X245.851 Y92.618
X245.392 Y92.65
X242.65
G3 X242.168 Y92.536 I0.044 J-1.269
X241.433 Y91.53 I0.527 J-1.156
G1 X237.439 Y57.768
G3 X238.173 Y56.464 I1.261 J-0.149
X238.656 Y56.35 I0.527 J1.156
G1 X241.323
X241.683 Y56.368
X241.938 Y56.395
X242.2 Y56.437
X242.5 Y56.502
X242.809 Y56.586
X243.159 Y56.702
X243.519 Y56.844
X243.918 Y57.027
X244.332 Y57.245
X244.772 Y57.507
X245.246 Y57.826
X245.724 Y58.187
X246.255 Y58.635
X246.773 Y59.122
X247.333 Y59.709
X247.914 Y60.389
X248.481 Y61.13
X249.072 Y61.996
X249.671 Y62.984
X250.266 Y64.099
X250.812 Y65.27
X251.299 Y66.467
X251.73 Y67.685
X252.109 Y68.921
X252.439 Y70.17
X252.722 Y71.431
X252.96 Y72.701
X253.153 Y73.978
X253.304 Y75.261
X253.412 Y76.549
X253.478 Y77.839
X253.502 Y79.131
X253.482 Y80.423
X253.419 Y81.713
X253.309 Y83.001
X253.15 Y84.283
X252.935 Y85.557
X252.661 Y86.815
X252.372 Y87.863
X252.067 Y88.774
X251.778 Y89.505
X251.513 Y90.079
X251.241 Y90.596
X250.973 Y91.042
X250.868 Y91.197
X250.585 Y91.56
X250.254 Y91.879
X249.881 Y92.149
X249.475 Y92.365
X249.043 Y92.522
X248.593 Y92.618
X248.134 Y92.65
X245.392
G3 X244.176 Y91.533 I0.044 J-1.269
G1 X240.106 Y57.771
G3 X241.323 Y56.35 I1.261 J-0.152
G1 X244.199
X244.409 Y56.361
X244.665 Y56.387
X244.928 Y56.429
X245.23 Y56.494
X245.539 Y56.579
X245.89 Y56.696
X246.25 Y56.838
X246.65 Y57.021
X247.065 Y57.239
X247.506 Y57.502
X247.98 Y57.821
X248.459 Y58.183
X248.99 Y58.631
X249.508 Y59.118
X250.07 Y59.707
X250.651 Y60.387
X251.219 Y61.129
X251.81 Y61.995
X252.41 Y62.985
X253.006 Y64.101
X253.551 Y65.272
X254.038 Y66.469
X254.469 Y67.687
X254.848 Y68.922
X255.178 Y70.171
X255.461 Y71.432
X255.699 Y72.702
X255.893 Y73.979
X256.044 Y75.262
X256.152 Y76.55
X256.218 Y77.84
X256.242 Y79.132
X256.223 Y80.424
X256.16 Y81.714
X256.05 Y83.002
X255.89 Y84.284
X255.676 Y85.558
X255.402 Y86.816
X255.114 Y87.864
X254.809 Y88.774
X254.519 Y89.505
X254.255 Y90.079
X253.982 Y90.596
X253.715 Y91.042
X253.61 Y91.197
X253.326 Y91.56
X252.995 Y91.879
X252.623 Y92.149
X252.217 Y92.365
X251.784 Y92.522
X251.334 Y92.618
X250.875 Y92.65
X248.134
G3 X247.651 Y92.536 I0.044 J-1.269
X246.917 Y91.528 I0.527 J-1.156
G1 X242.982 Y57.766
G3 X243.717 Y56.464 I1.261 J-0.147
X244.199 Y56.35 I0.527 J1.156
G1 X246.866
X247.154 Y56.364
X247.409 Y56.391
X247.671 Y56.433
X247.972 Y56.498
X248.281 Y56.583
X248.632 Y56.699
X248.991 Y56.841
X249.391 Y57.024
X249.805 Y57.242
X250.246 Y57.505
X250.72 Y57.824
X251.199 Y58.185
X251.73 Y58.633
X252.248 Y59.12
X252.809 Y59.709
X253.391 Y60.389
X253.958 Y61.131
X254.55 Y61.997
X255.149 Y62.987
X255.745 Y64.103
X256.291 Y65.274
X256.778 Y66.471
X257.209 Y67.689
X257.588 Y68.924
X257.918 Y70.173
X258.201 Y71.434
X258.439 Y72.704
X258.633 Y73.981
X258.784 Y75.265
X258.892 Y76.552
X258.959 Y77.843
X258.983 Y79.134
X258.964 Y80.426
X258.9 Y81.717
X258.79 Y83.004
X258.631 Y84.286
X258.417 Y85.561
X258.143 Y86.818
X257.854 Y87.865
X257.55 Y88.775
X257.26 Y89.505
X256.996 Y90.08
X256.724 Y90.596
X256.456 Y91.043
X256.351 Y91.197
X256.068 Y91.56
X255.737 Y91.879
X255.364 Y92.149
X254.958 Y92.365
X254.526 Y92.522
X254.076 Y92.618
X253.617 Y92.65
X250.875
G3 X250.393 Y92.536 I0.044 J-1.269
X249.659 Y91.531 I0.527 J-1.156
G1 X245.649 Y57.769
G3 X246.383 Y56.464 I1.261 J-0.15
X246.866 Y56.35 I0.527 J1.156
G1 X249.532
X249.895 Y56.368
X250.15 Y56.395
X250.412 Y56.437
X250.713 Y56.502
X251.022 Y56.586
X251.372 Y56.703
X251.732 Y56.844
X252.131 Y57.027
X252.546 Y57.245
X252.986 Y57.508
X253.46 Y57.827
X253.939 Y58.188
X254.47 Y58.636
X254.988 Y59.123
X255.549 Y59.712
X256.131 Y60.392
X256.698 Y61.134
X257.289 Y62
X257.889 Y62.99
X258.485 Y64.106
X259.031 Y65.277
X259.518 Y66.474
X259.949 Y67.692
X260.328 Y68.927
X260.658 Y70.176
X260.941 Y71.437
X261.179 Y72.707
X261.373 Y73.984
X261.524 Y75.268
X261.633 Y76.555
X261.699 Y77.846
X261.723 Y79.137
X261.704 Y80.429
X261.641 Y81.72
X261.531 Y83.007
X261.372 Y84.289
X261.157 Y85.564
X260.884 Y86.82
X260.595 Y87.867
X260.29 Y88.777
X260.001 Y89.507
X259.737 Y90.081
X259.464 Y90.597
X259.197 Y91.043
X259.092 Y91.198
X258.809 Y91.56
X258.478 Y91.879
X258.105 Y92.149
X257.699 Y92.365
X257.267 Y92.522
X256.817 Y92.618
X256.358 Y92.65
X253.617
G3 X253.134 Y92.536 I0.044 J-1.269
X252.4 Y91.533 I0.527 J-1.156
G1 X248.316 Y57.772
G3 X249.05 Y56.464 I1.261 J-0.153
X249.532 Y56.35 I0.527 J1.156
G1 X252.371
X252.625 Y56.363
X252.881 Y56.389
X253.143 Y56.431
X253.445 Y56.497
X253.754 Y56.581
X254.106 Y56.698
X254.465 Y56.84
X254.866 Y57.023
X255.28 Y57.241
X255.722 Y57.504
X256.196 Y57.824
X256.675 Y58.185
X257.207 Y58.634
X257.725 Y59.121
X258.287 Y59.71
X258.868 Y60.391
X259.436 Y61.133
X260.028 Y62
X260.628 Y62.99
X261.225 Y64.107
X261.771 Y65.278
X262.257 Y66.475
X262.688 Y67.693
X263.068 Y68.928
X263.398 Y70.177
X263.681 Y71.438
X263.919 Y72.708
X264.113 Y73.985
X264.264 Y75.269
X264.373 Y76.556
X264.439 Y77.846
X264.463 Y79.138
X264.444 Y80.43
X264.381 Y81.721
X264.271 Y83.008
X264.112 Y84.29
X263.898 Y85.564
X263.624 Y86.821
X263.336 Y87.868
X263.031 Y88.777
X262.742 Y89.507
X262.478 Y90.081
X262.206 Y90.597
X261.938 Y91.043
X261.834 Y91.198
X261.55 Y91.56
X261.219 Y91.879
X260.847 Y92.149
X260.44 Y92.365
X260.008 Y92.522
X259.558 Y92.618
X259.099 Y92.65
X256.358
G3 X255.141 Y91.53 I0.044 J-1.269
G1 X251.154 Y57.768
G3 X251.888 Y56.464 I1.261 J-0.149
X252.371 Y56.35 I0.527 J1.156
G1 X255.037
X255.369 Y56.367
X255.624 Y56.393
X255.887 Y56.435
X256.188 Y56.5
X256.497 Y56.585
X256.848 Y56.701
X257.207 Y56.843
X257.607 Y57.026
X258.022 Y57.244
X258.462 Y57.507
X258.937 Y57.826
X259.416 Y58.188
X259.947 Y58.636
X260.465 Y59.124
X261.027 Y59.712
X261.608 Y60.393
X262.176 Y61.135
X262.768 Y62.002
X263.368 Y62.992
X263.965 Y64.109
X264.511 Y65.28
X264.997 Y66.477
X265.428 Y67.695
X265.808 Y68.93
X266.138 Y70.18
X266.421 Y71.44
X266.66 Y72.71
X266.854 Y73.987
X267.005 Y75.271
X267.113 Y76.558
X267.18 Y77.848
X267.204 Y79.14
X267.185 Y80.432
X267.122 Y81.723
X267.012 Y83.01
X266.853 Y84.292
X266.639 Y85.566
X266.365 Y86.822
X266.076 Y87.869
X265.772 Y88.778
X265.483 Y89.507
X265.219 Y90.081
X264.946 Y90.597
X264.679 Y91.044
X264.575 Y91.198
X264.291 Y91.56
X263.96 Y91.879
X263.588 Y92.149
X263.181 Y92.365
X262.749 Y92.522
X262.299 Y92.618
X261.84 Y92.65
X259.099
G3 X258.617 Y92.536 I0.044 J-1.269
X257.883 Y91.532 I0.527 J-1.156
G1 X253.821 Y57.771
G3 X254.555 Y56.464 I1.261 J-0.152
X255.037 Y56.35 I0.527 J1.156
G1 X257.704
X258.111 Y56.37
X258.366 Y56.397
X258.629 Y56.439
X258.929 Y56.504
X259.239 Y56.588
X259.589 Y56.705
X259.949 Y56.847
X260.348 Y57.03
X260.763 Y57.248
X261.203 Y57.511
X261.678 Y57.83
X262.156 Y58.191
X262.688 Y58.639
X263.206 Y59.127
X263.767 Y59.715
X264.349 Y60.396
X264.917 Y61.138
X265.508 Y62.005
X266.108 Y62.995
X266.705 Y64.112
X267.251 Y65.283
X267.737 Y66.48
X268.169 Y67.698
X268.548 Y68.933
X268.878 Y70.182
X269.162 Y71.443
X269.4 Y72.713
X269.594 Y73.99
X269.745 Y75.273
X269.854 Y76.561
X269.92 Y77.851
X269.944 Y79.143
X269.925 Y80.435
X269.862 Y81.725
X269.752 Y83.013
X269.593 Y84.295
X269.379 Y85.569
X269.105 Y86.824
X268.817 Y87.871
X268.512 Y88.779
X268.223 Y89.508
X267.959 Y90.082
X267.687 Y90.598
X267.419 Y91.044
X267.315 Y91.198
X267.032 Y91.56
X266.701 Y91.879
X266.329 Y92.149
X265.922 Y92.365
X265.49 Y92.522
X265.04 Y92.618
X264.581 Y92.65
X261.84
G3 X261.358 Y92.536 I0.044 J-1.269
X260.624 Y91.535 I0.527 J-1.156
G1 X256.488 Y57.774
G3 X257.704 Y56.35 I1.261 J-0.154
G1 X260.581
X260.839 Y56.363
X261.095 Y56.39
X261.358 Y56.432
X261.66 Y56.497
X261.969 Y56.582
X262.321 Y56.699
X262.681 Y56.84
X263.082 Y57.024
X263.496 Y57.242
X263.938 Y57.505
X264.412 Y57.825
X264.892 Y58.187
X265.424 Y58.635
X265.943 Y59.123
X266.505 Y59.713
X267.087 Y60.393
X267.655 Y61.136
X268.247 Y62.004
X268.847 Y62.995
X269.444 Y64.112
X269.99 Y65.283
X270.477 Y66.48
X270.908 Y67.698
X271.288 Y68.933
X271.618 Y70.182
X271.901 Y71.443
X272.14 Y72.713
X272.334 Y73.99
X272.485 Y75.273
X272.594 Y76.561
X272.66 Y77.851
X272.684 Y79.143
X272.666 Y80.435
X272.602 Y81.725
X272.493 Y83.013
X272.334 Y84.295
X272.12 Y85.569
X271.846 Y86.824
X271.558 Y87.87
X271.253 Y88.779
X270.964 Y89.508
X270.7 Y90.082
X270.428 Y90.598
X270.16 Y91.044
X270.056 Y91.198
X269.773 Y91.56
X269.442 Y91.879
X269.069 Y92.149
X268.663 Y92.365
X268.231 Y92.522
X267.781 Y92.618
X267.322 Y92.65
X264.581
G3 X264.099 Y92.536 I0.044 J-1.269
X263.364 Y91.53 I0.527 J-1.156
G1 X259.364 Y57.769
G3 X260.098 Y56.464 I1.261 J-0.149
X260.581 Y56.35 I0.527 J1.156
G1 X263.247
X263.585 Y56.367
X263.84 Y56.394
X264.103 Y56.436
X264.404 Y56.501
X264.713 Y56.585
X265.064 Y56.702
X265.424 Y56.844
X265.824 Y57.027
X266.238 Y57.245
X266.679 Y57.508
X267.154 Y57.827
X267.633 Y58.189
X268.165 Y58.637
X268.683 Y59.125
X269.245 Y59.714
X269.827 Y60.395
X270.395 Y61.137
X270.987 Y62.005
X271.587 Y62.996
X272.184 Y64.114
X272.73 Y65.285
X273.217 Y66.482
X273.648 Y67.7
X274.028 Y68.935
X274.358 Y70.184
X274.642 Y71.444
X274.88 Y72.714
X275.074 Y73.992
X275.225 Y75.275
X275.334 Y76.562
X275.401 Y77.853
X275.425 Y79.144
X275.406 Y80.436
X275.343 Y81.727
X275.233 Y83.014
X275.074 Y84.296
X274.86 Y85.571
X274.586 Y86.825
X274.298 Y87.871
X273.994 Y88.78
X273.705 Y89.509
X273.441 Y90.082
X273.168 Y90.598
X272.901 Y91.044
X272.797 Y91.198
X272.514 Y91.56
X272.183 Y91.879
X271.81 Y92.149
X271.404 Y92.365
X270.972 Y92.522
X270.522 Y92.618
X270.063 Y92.65
X267.322
G3 X266.106 Y91.533 I0.044 J-1.269
G1 X262.031 Y57.771
G3 X262.765 Y56.464 I1.261 J-0.152
X263.247 Y56.35 I0.527 J1.156
G1 X266.086
X266.317 Y56.362
X266.573 Y56.388
X266.836 Y56.43
X267.138 Y56.496
X267.447 Y56.58
X267.799 Y56.697
X268.159 Y56.839
X268.56 Y57.023
X268.974 Y57.24
X269.416 Y57.504
X269.89 Y57.823
X270.37 Y58.186
X270.902 Y58.635
X271.421 Y59.122
X271.983 Y59.712
X272.565 Y60.393
X273.134 Y61.136
X273.727 Y62.004
X274.327 Y62.995
X274.924 Y64.113
X275.47 Y65.284
X275.957 Y66.481
X276.388 Y67.699
X276.768 Y68.934
X277.098 Y70.183
X277.382 Y71.444
X277.62 Y72.714
X277.814 Y73.991
X277.965 Y75.274
X278.074 Y76.562
X278.141 Y77.852
X278.165 Y79.144
X278.146 Y80.436
X278.083 Y81.726
X277.974 Y83.014
X277.815 Y84.296
X277.601 Y85.57
X277.327 Y86.825
X277.039 Y87.871
X276.735 Y88.779
X276.446 Y89.508
X276.181 Y90.082
X275.909 Y90.598
X275.642 Y91.044
X275.538 Y91.198
X275.254 Y91.56
X274.923 Y91.879
X274.551 Y92.149
X274.145 Y92.365
X273.712 Y92.522
X273.263 Y92.618
X272.804 Y92.65
X270.063
G3 X269.581 Y92.536 I0.044 J-1.269
X268.846 Y91.529 I0.527 J-1.156
G1 X264.869 Y57.768
G3 X266.086 Y56.35 I1.261 J-0.149
G1 X268.752
X269.063 Y56.366
X269.318 Y56.392
X269.581 Y56.434
X269.882 Y56.499
X270.191 Y56.584
X270.542 Y56.701
X270.902 Y56.842
X271.302 Y57.026
X271.716 Y57.243
X272.158 Y57.507
X272.632 Y57.826
X273.111 Y58.188
X273.643 Y58.637
X274.162 Y59.124
X274.724 Y59.714
X275.306 Y60.394
X275.874 Y61.137
X276.467 Y62.005
X277.067 Y62.996
X277.664 Y64.114
X278.21 Y65.286
X278.697 Y66.482
X279.128 Y67.7
X279.508 Y68.935
X279.838 Y70.184
X280.122 Y71.445
X280.36 Y72.715
X280.554 Y73.992
X280.706 Y75.275
X280.814 Y76.563
X280.881 Y77.853
X280.906 Y79.145
X280.887 Y80.437
X280.824 Y81.727
X280.714 Y83.015
X280.555 Y84.297
X280.341 Y85.571
X280.067 Y86.826
X279.779 Y87.872
X279.475 Y88.78
X279.186 Y89.509
X278.922 Y90.082
X278.65 Y90.598
X278.382 Y91.044
X278.279 Y91.198
X277.995 Y91.56
X277.664 Y91.879
X277.292 Y92.149
X276.885 Y92.365
X276.453 Y92.522
X276.003 Y92.618
X275.544 Y92.65
X272.804
G3 X272.321 Y92.536 I0.044 J-1.269
X271.587 Y91.532 I0.527 J-1.156
G1 X267.536 Y57.771
G3 X268.752 Y56.35 I1.261 J-0.151
G1 X271.419
X271.806 Y56.369
X272.061 Y56.396
X272.323 Y56.438
X272.624 Y56.503
X272.934 Y56.588
X273.284 Y56.704
X273.644 Y56.846
X274.044 Y57.029
X274.458 Y57.247
X274.899 Y57.51
X275.374 Y57.829
X275.853 Y58.191
X276.385 Y58.64
X276.903 Y59.127
X277.465 Y59.717
X278.047 Y60.397
X278.615 Y61.14
X279.207 Y62.008
X279.808 Y62.998
X280.405 Y64.116
X280.951 Y65.287
X281.437 Y66.484
X281.869 Y67.702
X282.248 Y68.937
X282.579 Y70.186
X282.862 Y71.447
X283.1 Y72.717
X283.295 Y73.994
X283.446 Y75.277
X283.555 Y76.565
X283.622 Y77.855
X283.646 Y79.147
X283.627 Y80.439
X283.564 Y81.729
X283.454 Y83.017
X283.295 Y84.299
X283.081 Y85.573
X282.808 Y86.827
X282.519 Y87.873
X282.215 Y88.781
X281.926 Y89.51
X281.662 Y90.083
X281.39 Y90.598
X281.123 Y91.045
X281.019 Y91.198
X280.736 Y91.56
X280.405 Y91.879
X280.032 Y92.149
X279.626 Y92.365
X279.194 Y92.522
X278.744 Y92.618
X278.285 Y92.65
X275.544
G3 X274.328 Y91.535 I0.044 J-1.269
G1 X270.203 Y57.773
G3 X270.937 Y56.464 I1.261 J-0.154
X271.419 Y56.35 I0.527 J1.156
G1 X274.295
X274.535 Y56.362
X274.791 Y56.389
X275.054 Y56.431
X275.356 Y56.496
X275.665 Y56.581
X276.017 Y56.698
X276.377 Y56.84
X276.778 Y57.023
X277.193 Y57.241
X277.635 Y57.505
X278.109 Y57.824
X278.589 Y58.187
X279.122 Y58.636
X279.64 Y59.123
X280.203 Y59.714
X280.785 Y60.394
X281.354 Y61.138
X281.946 Y62.006
X282.547 Y62.997
X283.144 Y64.116
X283.69 Y65.287
X284.177 Y66.484
X284.608 Y67.702
X284.988 Y68.937
X285.318 Y70.186
X285.602 Y71.446
X285.84 Y72.716
X286.035 Y73.994
X286.186 Y75.277
X286.295 Y76.564
X286.362 Y77.854
X286.386 Y79.146
X286.368 Y80.438
X286.304 Y81.729
X286.195 Y83.016
X286.036 Y84.298
X285.822 Y85.573
X285.548 Y86.827
X285.26 Y87.872
X284.956 Y88.78
X284.667 Y89.509
X284.403 Y90.083
X284.131 Y90.598
X283.863 Y91.044
X283.76 Y91.198
X283.476 Y91.56
X283.145 Y91.879
X282.773 Y92.149
X282.367 Y92.365
X281.934 Y92.522
X281.484 Y92.618
X281.026 Y92.65
X278.285
G3 X277.068 Y91.53 I0.044 J-1.269
G1 X273.078 Y57.768
G3 X274.295 Y56.35 I1.261 J-0.149
G1 X276.962
X277.281 Y56.366
X277.537 Y56.393
X277.799 Y56.435
X278.1 Y56.5
X278.41 Y56.584
X278.761 Y56.701
X279.121 Y56.843
X279.521 Y57.026
X279.935 Y57.244
X280.377 Y57.507
X280.851 Y57.827
X281.331 Y58.189
X281.863 Y58.637
X282.381 Y59.125
X282.944 Y59.715
X283.525 Y60.396
X284.094 Y61.139
X284.687 Y62.007
X285.287 Y62.998
X285.885 Y64.117
X286.43 Y65.288
X286.917 Y66.485
X287.349 Y67.702
X287.728 Y68.938
X288.059 Y70.187
X288.342 Y71.447
X288.581 Y72.717
X288.775 Y73.994
X288.926 Y75.278
X289.035 Y76.565
X289.102 Y77.855
X289.126 Y79.147
X289.108 Y80.439
X289.045 Y81.73
X288.935 Y83.017
X288.776 Y84.299
X288.562 Y85.573
X288.289 Y86.827
X288 Y87.873
X287.696 Y88.781
X287.408 Y89.509
X287.143 Y90.083
X286.871 Y90.598
X286.604 Y91.045
X286.5 Y91.198
X286.217 Y91.56
X285.886 Y91.879
X285.513 Y92.149
X285.107 Y92.365
X284.675 Y92.522
X284.225 Y92.618
X283.766 Y92.65
X281.026
G3 X280.543 Y92.536 I0.044 J-1.269
X279.809 Y91.533 I0.527 J-1.156
G1 X275.746 Y57.771
G3 X276.962 Y56.35 I1.261 J-0.152
G1 X279.8
X280.014 Y56.361
X280.27 Y56.387
X280.533 Y56.429
X280.835 Y56.495
X281.144 Y56.579
X281.496 Y56.696
X281.856 Y56.838
X282.257 Y57.022
X282.672 Y57.24
X283.114 Y57.504
X283.588 Y57.823
X284.068 Y58.185
X284.601 Y58.634
X285.119 Y59.122
X285.682 Y59.713
X286.264 Y60.393
X286.833 Y61.137
X287.426 Y62.006
X288.027 Y62.997
X288.624 Y64.116
X289.17 Y65.287
X289.657 Y66.484
X290.088 Y67.702
X290.468 Y68.937
X290.799 Y70.186
X291.082 Y71.446
X291.321 Y72.716
X291.515 Y73.994
X291.667 Y75.277
X291.776 Y76.564
X291.842 Y77.855
X291.867 Y79.146
X291.848 Y80.438
X291.785 Y81.729
X291.676 Y83.016
X291.517 Y84.298
X291.303 Y85.573
X291.029 Y86.827
X290.741 Y87.872
X290.437 Y88.78
X290.148 Y89.509
X289.884 Y90.083
X289.612 Y90.598
X289.344 Y91.044
X289.241 Y91.198
X288.957 Y91.56
X288.626 Y91.879
X288.254 Y92.149
X287.848 Y92.365
X287.415 Y92.522
X286.965 Y92.618
X286.507 Y92.65
X283.766
G3 X283.284 Y92.536 I0.044 J-1.269
X282.549 Y91.529 I0.527 J-1.156
G1 X278.583 Y57.767
G3 X279.318 Y56.464 I1.261 J-0.148
X279.8 Y56.35 I0.527 J1.156
G1 X282.467
X282.76 Y56.365
X283.016 Y56.391
X283.278 Y56.433
X283.579 Y56.498
X283.889 Y56.583
X284.24 Y56.7
X284.6 Y56.842
X285 Y57.025
X285.414 Y57.243
X285.856 Y57.506
X286.33 Y57.825
X286.81 Y58.188
X287.342 Y58.636
X287.861 Y59.124
X288.423 Y59.714
X289.005 Y60.395
X289.574 Y61.138
X290.167 Y62.007
X290.767 Y62.998
X291.365 Y64.117
X291.911 Y65.288
X292.397 Y66.485
X292.829 Y67.702
X293.208 Y68.937
X293.539 Y70.187
X293.823 Y71.447
X294.061 Y72.717
X294.256 Y73.994
X294.407 Y75.277
X294.516 Y76.565
X294.583 Y77.855
X294.607 Y79.147
X294.589 Y80.439
X294.526 Y81.729
X294.416 Y83.017
X294.257 Y84.299
X294.043 Y85.573
X293.77 Y86.827
X293.481 Y87.873
X293.177 Y88.781
X292.889 Y89.509
X292.624 Y90.083
X292.352 Y90.598
X292.085 Y91.044
X291.981 Y91.198
X291.698 Y91.56
X291.367 Y91.879
X290.994 Y92.149
X290.588 Y92.365
X290.156 Y92.522
X289.706 Y92.618
X289.247 Y92.65
X286.507
G3 X285.29 Y91.532 I0.044 J-1.269
G1 X281.25 Y57.77
G3 X281.985 Y56.464 I1.261 J-0.151
X282.467 Y56.35 I0.527 J1.156
G1 X285.134
X285.504 Y56.369
X285.759 Y56.395
X286.021 Y56.437
X286.323 Y56.502
X286.632 Y56.587
X286.983 Y56.703
X287.342 Y56.845
X287.742 Y57.028
X288.157 Y57.246
X288.598 Y57.51
X289.072 Y57.829
X289.552 Y58.191
X290.084 Y58.639
X290.602 Y59.127
X291.164 Y59.717
X291.746 Y60.397
X292.315 Y61.14
X292.907 Y62.008
X293.508 Y63
X294.105 Y64.118
X294.651 Y65.289
X295.138 Y66.486
X295.569 Y67.704
X295.949 Y68.939
X296.279 Y70.188
X296.563 Y71.449
X296.801 Y72.718
X296.996 Y73.996
X297.147 Y75.279
X297.256 Y76.566
X297.323 Y77.857
X297.347 Y79.149
X297.329 Y80.44
X297.266 Y81.731
X297.156 Y83.018
X296.997 Y84.301
X296.783 Y85.575
X296.51 Y86.828
X296.222 Y87.874
X295.918 Y88.781
X295.629 Y89.51
X295.365 Y90.083
X295.093 Y90.599
X294.825 Y91.045
X294.722 Y91.198
X294.438 Y91.56
X294.107 Y91.879
X293.735 Y92.149
X293.329 Y92.365
X292.896 Y92.522
X292.446 Y92.618
X291.988 Y92.65
X289.247
G3 X288.031 Y91.534 I0.044 J-1.269
G1 X283.918 Y57.773
G3 X284.652 Y56.464 I1.261 J-0.154
X285.134 Y56.35 I0.527 J1.156
G1 X288.01
X288.233 Y56.361
X288.489 Y56.388
X288.752 Y56.43
X289.055 Y56.495
X289.364 Y56.58
X289.716 Y56.697
X290.076 Y56.839
X290.477 Y57.023
X290.891 Y57.24
X291.334 Y57.504
X291.808 Y57.824
X292.289 Y58.186
X292.821 Y58.635
X293.34 Y59.123
X293.903 Y59.714
X294.485 Y60.394
X295.054 Y61.138
X295.647 Y62.007
X296.247 Y62.998
X296.845 Y64.117
X297.391 Y65.288
X297.878 Y66.485
X298.309 Y67.703
X298.689 Y68.938
X299.019 Y70.187
X299.303 Y71.448
X299.542 Y72.718
X299.736 Y73.995
X299.887 Y75.278
X299.996 Y76.565
X300.063 Y77.856
X300.088 Y79.148
X300.069 Y80.44
X300.006 Y81.73
X299.897 Y83.017
X299.738 Y84.3
X299.524 Y85.574
X299.25 Y86.828
X298.962 Y87.873
X298.658 Y88.781
X298.369 Y89.509
X298.105 Y90.083
X297.833 Y90.598
X297.566 Y91.045
X297.462 Y91.198
X297.179 Y91.56
X296.848 Y91.879
X296.475 Y92.149
X296.069 Y92.365
X295.637 Y92.522
X295.187 Y92.618
X294.728 Y92.65
X291.988
G3 X291.505 Y92.536 I0.044 J-1.269
X290.771 Y91.529 I0.527 J-1.156
G1 X286.793 Y57.768
G3 X287.528 Y56.464 I1.261 J-0.149
X288.01 Y56.35 I0.527 J1.156
G1 X290.677
X290.98 Y56.365
X291.235 Y56.392
X291.498 Y56.434
X291.799 Y56.499
X292.109 Y56.583
X292.46 Y56.7
X292.82 Y56.842
X293.22 Y57.026
X293.634 Y57.243
X294.076 Y57.507
X294.55 Y57.826
X295.03 Y58.188
X295.562 Y58.637
X296.081 Y59.125
X296.644 Y59.715
X297.225 Y60.396
X297.794 Y61.139
X298.387 Y62.008
X298.988 Y62.999
X299.585 Y64.118
X300.131 Y65.289
X300.618 Y66.486
X301.049 Y67.704
X301.429 Y68.939
X301.76 Y70.188
X302.043 Y71.448
X302.282 Y72.718
X302.476 Y73.995
X302.628 Y75.279
X302.737 Y76.566
X302.804 Y77.856
X302.828 Y79.148
X302.81 Y80.44
X302.746 Y81.731
X302.637 Y83.018
X302.478 Y84.3
X302.264 Y85.574
X301.991 Y86.828
X301.702 Y87.873
X301.399 Y88.781
X301.11 Y89.51
X300.846 Y90.083
X300.574 Y90.598
X300.306 Y91.045
X300.203 Y91.198
X299.919 Y91.56
X299.588 Y91.879
X299.216 Y92.149
X298.81 Y92.365
X298.377 Y92.522
X297.927 Y92.618
X297.468 Y92.65
X294.728
G3 X293.511 Y91.532 I0.044 J-1.269
G1 X289.46 Y57.771
G3 X290.195 Y56.464 I1.261 J-0.151
X290.677 Y56.35 I0.527 J1.156
G1 X293.344
X293.724 Y56.369
X293.979 Y56.396
X294.241 Y56.438
X294.543 Y56.503
X294.852 Y56.587
X295.203 Y56.704
X295.562 Y56.846
X295.962 Y57.029
X296.377 Y57.247
X296.818 Y57.51
X297.293 Y57.829
X297.772 Y58.191
X298.304 Y58.64
X298.822 Y59.128
X299.385 Y59.717
X299.967 Y60.398
X300.535 Y61.141
X301.128 Y62.009
X301.729 Y63.001
X302.326 Y64.119
X302.872 Y65.29
X303.358 Y66.487
X303.79 Y67.705
X304.17 Y68.94
X304.5 Y70.189
X304.784 Y71.45
X305.022 Y72.72
X305.217 Y73.997
X305.368 Y75.28
X305.477 Y76.568
X305.544 Y77.858
X305.568 Y79.15
X305.55 Y80.442
X305.487 Y81.732
X305.377 Y83.02
X305.218 Y84.302
X305.004 Y85.576
X304.731 Y86.829
X304.443 Y87.874
X304.139 Y88.782
X303.85 Y89.51
X303.586 Y90.084
X303.314 Y90.599
X303.046 Y91.045
X302.943 Y91.198
X302.659 Y91.56
X302.328 Y91.879
X301.956 Y92.149
X301.55 Y92.365
X301.118 Y92.522
X300.668 Y92.618
X300.209 Y92.65
X297.468
G3 X296.986 Y92.536 I0.044 J-1.269
X296.252 Y91.535 I0.527 J-1.156
G1 X292.128 Y57.773
G3 X292.861 Y56.464 I1.261 J-0.154
X293.344 Y56.35 I0.527 J1.156
G1 X296.182
X296.456 Y56.364
X296.712 Y56.39
X296.975 Y56.432
X297.277 Y56.498
X297.586 Y56.582
X297.938 Y56.699
X298.298 Y56.841
X298.699 Y57.025
X299.113 Y57.243
X299.555 Y57.507
X300.03 Y57.826
X300.51 Y58.188
X301.042 Y58.637
X301.561 Y59.125
X302.124 Y59.716
X302.706 Y60.396
X303.275 Y61.14
X303.868 Y62.008
X304.468 Y63
X305.066 Y64.119
X305.612 Y65.29
X306.098 Y66.487
X306.53 Y67.705
X306.91 Y68.94
X307.24 Y70.189
X307.524 Y71.449
X307.762 Y72.719
X307.957 Y73.997
X308.108 Y75.28
X308.217 Y76.567
X308.284 Y77.857
X308.309 Y79.149
X308.29 Y80.441
X308.227 Y81.732
X308.117 Y83.019
X307.959 Y84.301
X307.744 Y85.576
X307.471 Y86.829
X307.183 Y87.874
X306.879 Y88.782
X306.59 Y89.51
X306.326 Y90.084
X306.054 Y90.599
X305.787 Y91.045
X305.683 Y91.198
X305.4 Y91.56
X305.069 Y91.879
X304.697 Y92.149
X304.29 Y92.365
X303.858 Y92.522
X303.408 Y92.618
X302.949 Y92.65
X300.209
G3 X299.726 Y92.536 I0.044 J-1.269
X298.992 Y91.531 I0.527 J-1.156
G1 X294.965 Y57.77
G3 X296.182 Y56.35 I1.261 J-0.15
G1 X298.849
X299.202 Y56.368
X299.457 Y56.394
X299.72 Y56.436
X300.021 Y56.501
X300.33 Y56.586
X300.681 Y56.703
X301.041 Y56.845
X301.441 Y57.028
X301.856 Y57.246
X302.297 Y57.509
X302.772 Y57.828
X303.252 Y58.19
X303.784 Y58.639
X304.302 Y59.127
X304.865 Y59.717
X305.447 Y60.398
X306.015 Y61.141
X306.608 Y62.01
X307.209 Y63.001
X307.806 Y64.12
X308.352 Y65.291
X308.839 Y66.488
X309.27 Y67.706
X309.65 Y68.941
X309.981 Y70.19
X310.264 Y71.45
X310.503 Y72.72
X310.697 Y73.997
X310.849 Y75.281
X310.958 Y76.568
X311.024 Y77.858
X311.049 Y79.15
X311.03 Y80.442
X310.967 Y81.733
X310.858 Y83.02
X310.699 Y84.302
X310.485 Y85.576
X310.211 Y86.83
X309.923 Y87.875
X309.619 Y88.782
X309.331 Y89.51
X309.066 Y90.084
X308.794 Y90.599
X308.527 Y91.045
X308.424 Y91.198
X308.14 Y91.56
X307.809 Y91.879
X307.437 Y92.149
X307.031 Y92.365
X306.598 Y92.522
X306.148 Y92.618
X305.69 Y92.65
X302.949
G3 X301.733 Y91.534 I0.044 J-1.269
G1 X297.632 Y57.772
G3 X298.849 Y56.35 I1.261 J-0.153
G1 X301.725
X301.932 Y56.36
X302.188 Y56.387
X302.451 Y56.429
X302.754 Y56.494
X303.063 Y56.579
X303.415 Y56.696
X303.775 Y56.838
X304.177 Y57.022
X304.591 Y57.24
X305.034 Y57.504
X305.508 Y57.823
X305.989 Y58.186
X306.521 Y58.635
X307.04 Y59.123
X307.603 Y59.714
X308.185 Y60.394
X308.754 Y61.138
X309.347 Y62.007
X309.948 Y62.999
X310.546 Y64.118
X311.092 Y65.289
X311.579 Y66.486
X312.01 Y67.704
X312.39 Y68.939
X312.72 Y70.188
X313.004 Y71.449
X313.243 Y72.719
X313.437 Y73.996
X313.589 Y75.279
X313.698 Y76.567
X313.765 Y77.857
X313.789 Y79.149
X313.771 Y80.441
X313.708 Y81.731
X313.598 Y83.019
X313.439 Y84.301
X313.225 Y85.575
X312.952 Y86.829
X312.664 Y87.874
X312.36 Y88.781
X312.071 Y89.51
X311.807 Y90.083
X311.535 Y90.598
X311.268 Y91.045
X311.164 Y91.198
X310.881 Y91.56
X310.55 Y91.879
X310.177 Y92.149
X309.771 Y92.365
X309.339 Y92.522
X308.889 Y92.618
X308.43 Y92.65
X305.69
G3 X305.207 Y92.536 I0.044 J-1.269
X304.473 Y91.529 I0.527 J-1.156
G1 X300.508 Y57.767
G3 X301.243 Y56.464 I1.261 J-0.148
X301.725 Y56.35 I0.527 J1.156
G1 X304.392
X304.68 Y56.364
X304.935 Y56.391
X305.197 Y56.433
X305.499 Y56.498
X305.808 Y56.583
X306.16 Y56.7
X306.519 Y56.841
X306.92 Y57.025
X307.334 Y57.243
X307.776 Y57.506
X308.25 Y57.825
X308.73 Y58.188
X309.263 Y58.637
X309.781 Y59.125
X310.344 Y59.715
X310.926 Y60.396
X311.495 Y61.139
X312.088 Y62.008
X312.689 Y63
X313.286 Y64.119
X313.832 Y65.29
X314.319 Y66.487
X314.75 Y67.704
X315.13 Y68.939
X315.461 Y70.189
X315.745 Y71.449
X315.983 Y72.719
X316.178 Y73.996
X316.329 Y75.279
X316.438 Y76.567
X316.505 Y77.857
X316.53 Y79.149
X316.511 Y80.441
X316.448 Y81.731
X316.339 Y83.019
X316.18 Y84.301
X315.966 Y85.575
X315.692 Y86.829
X315.404 Y87.874
X315.1 Y88.781
X314.812 Y89.51
X314.547 Y90.083
X314.275 Y90.598
X314.008 Y91.045
X313.905 Y91.198
X313.621 Y91.56
X313.29 Y91.879
X312.918 Y92.149
X312.511 Y92.365
X312.079 Y92.522
X311.629 Y92.618
X311.17 Y92.65
X308.43
G3 X307.213 Y91.532 I0.044 J-1.269
G1 X303.175 Y57.77
G3 X303.91 Y56.464 I1.261 J-0.151
X304.392 Y56.35 I0.527 J1.156
G1 X307.059
X307.424 Y56.368
X307.679 Y56.395
X307.941 Y56.437
X308.242 Y56.502
X308.552 Y56.587
X308.903 Y56.703
X309.262 Y56.845
X309.663 Y57.028
X310.077 Y57.246
X310.518 Y57.51
X310.993 Y57.829
X311.472 Y58.191
X312.004 Y58.64
X312.523 Y59.127
X313.085 Y59.717
X313.667 Y60.398
X314.236 Y61.141
X314.829 Y62.01
X315.429 Y63.001
X316.027 Y64.12
X316.573 Y65.291
X317.06 Y66.488
X317.491 Y67.706
X317.871 Y68.941
X318.201 Y70.19
X318.485 Y71.45
X318.724 Y72.72
X318.918 Y73.997
X319.069 Y75.281
X319.178 Y76.568
X319.245 Y77.858
X319.27 Y79.15
X319.251 Y80.442
X319.188 Y81.733
X319.079 Y83.02
X318.92 Y84.302
X318.706 Y85.576
X318.432 Y86.83
X318.144 Y87.875
X317.84 Y88.782
X317.552 Y89.51
X317.288 Y90.084
X317.016 Y90.599
X316.748 Y91.045
X316.645 Y91.198
X316.361 Y91.56
X316.03 Y91.879
X315.658 Y92.149
X315.252 Y92.365
X314.819 Y92.522
X314.369 Y92.618
X313.911 Y92.65
X311.17
G3 X310.688 Y92.536 I0.044 J-1.269
X309.954 Y91.534 I0.527 J-1.156
G1 X305.842 Y57.773
G3 X306.576 Y56.464 I1.261 J-0.154
X307.059 Y56.35 I0.527 J1.156
G1 X309.897
X310.156 Y56.363
X310.412 Y56.39
X310.675 Y56.432
X310.977 Y56.497
X311.286 Y56.582
X311.638 Y56.699
X311.998 Y56.84
X312.399 Y57.024
X312.813 Y57.242
X313.256 Y57.506
X313.73 Y57.825
X314.21 Y58.188
X314.743 Y58.637
X315.261 Y59.125
X315.824 Y59.715
X316.406 Y60.396
X316.975 Y61.14
X317.568 Y62.008
X318.169 Y63
X318.767 Y64.119
X319.313 Y65.29
X319.8 Y66.487
X320.231 Y67.705
X320.611 Y68.94
X320.941 Y70.189
X321.225 Y71.45
X321.464 Y72.719
X321.658 Y73.997
X321.81 Y75.28
X321.919 Y76.567
X321.986 Y77.858
X322.01 Y79.15
X321.992 Y80.441
X321.929 Y81.732
X321.819 Y83.019
X321.66 Y84.302
X321.446 Y85.576
X321.173 Y86.829
X320.885 Y87.874
X320.581 Y88.782
X320.292 Y89.51
X320.028 Y90.084
X319.756 Y90.599
X319.488 Y91.045
X319.385 Y91.198
X319.102 Y91.56
X318.771 Y91.879
X318.398 Y92.149
X317.992 Y92.365
X317.56 Y92.522
X317.11 Y92.618
X316.651 Y92.65
X313.911
G3 X313.428 Y92.536 I0.044 J-1.269
X312.694 Y91.531 I0.527 J-1.156
G1 X308.68 Y57.769
G3 X309.415 Y56.464 I1.261 J-0.15
X309.897 Y56.35 I0.527 J1.156
G1 X312.564
X312.902 Y56.367
X313.157 Y56.394
X313.42 Y56.436
X313.721 Y56.501
X314.031 Y56.585
X314.382 Y56.702
X314.741 Y56.844
X315.142 Y57.027
X315.556 Y57.245
X315.998 Y57.509
X316.472 Y57.828
X316.952 Y58.19
X317.484 Y58.639
X318.003 Y59.127
X318.565 Y59.717
X319.147 Y60.397
X319.716 Y61.141
X320.309 Y62.009
X320.91 Y63.001
X321.507 Y64.12
X322.053 Y65.291
X322.54 Y66.488
X322.971 Y67.706
X323.351 Y68.941
X323.682 Y70.19
X323.965 Y71.45
X324.204 Y72.72
X324.399 Y73.998
X324.55 Y75.281
X324.659 Y76.568
X324.726 Y77.858
X324.75 Y79.15
X324.732 Y80.442
X324.669 Y81.733
X324.559 Y83.02
X324.4 Y84.302
X324.186 Y85.577
X323.913 Y86.83
X323.625 Y87.875
X323.321 Y88.782
X323.032 Y89.51
X322.768 Y90.084
X322.496 Y90.599
X322.229 Y91.045
X322.125 Y91.198
X321.842 Y91.56
X321.511 Y91.879
X321.139 Y92.149
X320.732 Y92.365
X320.3 Y92.522
X319.85 Y92.618
X319.391 Y92.65
X316.651
G3 X315.434 Y91.533 I0.044 J-1.269
G1 X311.347 Y57.772
G3 X312.564 Y56.35 I1.261 J-0.153
G1 X315.23
X315.646 Y56.371
X315.901 Y56.397
X316.163 Y56.439
X316.464 Y56.504
X316.774 Y56.589
X317.125 Y56.706
X317.484 Y56.847
X317.884 Y57.031
X318.299 Y57.249
X318.74 Y57.512
X319.214 Y57.831
X319.694 Y58.193
X320.226 Y58.642
X320.744 Y59.129
X321.307 Y59.719
X321.889 Y60.4
X322.457 Y61.143
X323.05 Y62.011
X323.651 Y63.003
X324.248 Y64.121
X324.794 Y65.293
X325.281 Y66.489
X325.712 Y67.707
X326.092 Y68.942
X326.422 Y70.191
X326.706 Y71.452
X326.944 Y72.722
X327.139 Y73.999
X327.29 Y75.282
X327.399 Y76.57
X327.466 Y77.86
X327.491 Y79.152
X327.472 Y80.444
X327.409 Y81.734
X327.299 Y83.022
X327.14 Y84.304
X326.926 Y85.578
X326.653 Y86.831
X326.365 Y87.876
X326.061 Y88.783
X325.772 Y89.511
X325.508 Y90.084
X325.236 Y90.599
X324.969 Y91.046
X324.866 Y91.198
X324.582 Y91.56
X324.251 Y91.879
X323.879 Y92.15
X323.473 Y92.365
X323.04 Y92.522
X322.59 Y92.618
X322.132 Y92.65
X319.391
G3 X318.909 Y92.536 I0.044 J-1.269
X318.175 Y91.536 I0.527 J-1.156
G1 X314.014 Y57.775
G3 X315.23 Y56.35 I1.26 J-0.155
G1 X318.107
X318.375 Y56.363
X318.631 Y56.39
X318.894 Y56.432
X319.197 Y56.498
X319.506 Y56.582
X319.858 Y56.699
X320.218 Y56.841
X320.619 Y57.025
X321.034 Y57.243
X321.476 Y57.507
X321.95 Y57.826
X322.431 Y58.189
X322.963 Y58.638
X323.482 Y59.126
X324.045 Y59.716
X324.627 Y60.397
X325.196 Y61.141
X325.789 Y62.01
X326.39 Y63.002
X326.988 Y64.121
X327.534 Y65.292
X328.021 Y66.488
X328.452 Y67.706
X328.832 Y68.941
X329.162 Y70.19
X329.446 Y71.451
X329.685 Y72.721
X329.879 Y73.998
X330.031 Y75.281
X330.14 Y76.569
X330.206 Y77.859
X330.231 Y79.151
X330.212 Y80.443
X330.149 Y81.733
X330.04 Y83.021
X329.881 Y84.303
X329.667 Y85.577
X329.393 Y86.83
X329.105 Y87.875
X328.802 Y88.782
X328.513 Y89.511
X328.249 Y90.084
X327.977 Y90.599
X327.709 Y91.045
X327.606 Y91.198
X327.323 Y91.56
X326.991 Y91.879
X326.619 Y92.149
X326.213 Y92.365
X325.781 Y92.522
X325.331 Y92.618
X324.872 Y92.65
X322.132
G3 X321.649 Y92.536 I0.044 J-1.269
X320.915 Y91.531 I0.527 J-1.156
G1 X316.89 Y57.77
G3 X318.107 Y56.35 I1.261 J-0.15
G1 X320.773
X321.122 Y56.367
X321.378 Y56.394
X321.64 Y56.436
X321.942 Y56.501
X322.251 Y56.586
X322.602 Y56.703
X322.962 Y56.844
X323.362 Y57.028
X323.777 Y57.246
X324.218 Y57.509
X324.693 Y57.828
X325.173 Y58.191
X325.705 Y58.64
X326.223 Y59.127
X326.786 Y59.718
X327.368 Y60.398
X327.937 Y61.142
X328.53 Y62.01
X329.131 Y63.002
X329.728 Y64.121
X330.274 Y65.292
X330.761 Y66.489
X331.192 Y67.707
X331.572 Y68.942
X331.903 Y70.191
X332.186 Y71.451
X332.425 Y72.721
X332.619 Y73.999
X332.771 Y75.282
X332.88 Y76.569
X332.947 Y77.859
X332.971 Y79.151
X332.953 Y80.443
X332.89 Y81.734
X332.78 Y83.021
X332.621 Y84.303
X332.407 Y85.578
X332.134 Y86.831
X331.846 Y87.875
X331.542 Y88.783
X331.253 Y89.511
X330.989 Y90.084
X330.717 Y90.599
X330.449 Y91.045
X330.346 Y91.198
X330.063 Y91.56
X329.732 Y91.879
X329.359 Y92.149
X328.953 Y92.365
X328.521 Y92.522
X328.071 Y92.618
X327.612 Y92.65
X324.872
G3 X324.39 Y92.536 I0.044 J-1.269
X323.656 Y91.534 I0.527 J-1.156
G1 X319.557 Y57.772
G3 X320.773 Y56.35 I1.261 J-0.153
G1 X323.612
X323.855 Y56.362
X324.111 Y56.389
X324.374 Y56.431
X324.676 Y56.496
X324.986 Y56.581
X325.338 Y56.698
X325.698 Y56.84
X326.099 Y57.024
X326.513 Y57.241
X326.956 Y57.505
X327.43 Y57.825
X327.911 Y58.187
X328.443 Y58.637
X328.962 Y59.125
X329.525 Y59.715
X330.107 Y60.396
X330.676 Y61.14
X331.27 Y62.009
X331.871 Y63.001
X332.468 Y64.12
X333.014 Y65.291
X333.501 Y66.488
X333.932 Y67.706
X334.312 Y68.941
X334.643 Y70.19
X334.926 Y71.45
X335.165 Y72.72
X335.36 Y73.997
X335.511 Y75.281
X335.62 Y76.568
X335.687 Y77.858
X335.712 Y79.15
X335.693 Y80.442
X335.63 Y81.733
X335.52 Y83.02
X335.362 Y84.302
X335.147 Y85.576
X334.874 Y86.83
X334.586 Y87.875
X334.282 Y88.782
X333.994 Y89.51
X333.729 Y90.084
X333.458 Y90.599
X333.19 Y91.045
X333.087 Y91.198
X332.803 Y91.56
X332.472 Y91.879
X332.1 Y92.149
X331.694 Y92.365
X331.261 Y92.522
X330.811 Y92.618
X330.353 Y92.65
X327.612
G3 X327.13 Y92.536 I0.044 J-1.269
X326.395 Y91.53 I0.527 J-1.156
G1 X322.395 Y57.769
G3 X323.129 Y56.464 I1.261 J-0.149
X323.612 Y56.35 I0.527 J1.156
G1 X326.279
X326.602 Y56.366
X326.857 Y56.393
X327.12 Y56.435
X327.421 Y56.5
X327.731 Y56.585
X328.082 Y56.701
X328.442 Y56.843
X328.842 Y57.027
X329.257 Y57.244
X329.698 Y57.508
X330.173 Y57.827
X330.653 Y58.189
X331.185 Y58.638
X331.703 Y59.126
X332.266 Y59.717
X332.848 Y60.397
X333.417 Y61.141
X334.01 Y62.01
X334.611 Y63.001
X335.209 Y64.12
X335.755 Y65.291
X336.241 Y66.488
X336.673 Y67.706
X337.052 Y68.941
X337.383 Y70.19
X337.667 Y71.451
X337.905 Y72.721
X338.1 Y73.998
X338.251 Y75.281
X338.36 Y76.568
X338.427 Y77.859
X338.452 Y79.151
X338.433 Y80.443
X338.37 Y81.733
X338.261 Y83.02
X338.102 Y84.303
X337.888 Y85.577
X337.614 Y86.83
X337.326 Y87.875
X337.023 Y88.782
X336.734 Y89.511
X336.47 Y90.084
X336.198 Y90.599
X335.93 Y91.045
X335.827 Y91.198
X335.544 Y91.56
X335.212 Y91.879
X334.84 Y92.149
X334.434 Y92.365
X334.002 Y92.522
X333.552 Y92.618
X333.093 Y92.65
X330.353
G3 X329.136 Y91.533 I0.044 J-1.269
G1 X325.062 Y57.771
G3 X325.796 Y56.464 I1.261 J-0.152
X326.279 Y56.35 I0.527 J1.156
G1 X328.945
X329.346 Y56.37
X329.601 Y56.397
X329.864 Y56.439
X330.165 Y56.504
X330.474 Y56.588
X330.825 Y56.705
X331.185 Y56.847
X331.585 Y57.03
X331.999 Y57.248
X332.441 Y57.511
X332.915 Y57.83
X333.395 Y58.192
X333.927 Y58.641
X334.445 Y59.129
X335.008 Y59.719
X335.589 Y60.399
X336.158 Y61.143
X336.751 Y62.011
X337.352 Y63.003
X337.949 Y64.122
X338.495 Y65.293
X338.982 Y66.49
X339.413 Y67.707
X339.793 Y68.942
X340.123 Y70.191
X340.407 Y71.452
X340.646 Y72.722
X340.84 Y73.999
X340.992 Y75.282
X341.101 Y76.57
X341.168 Y77.86
X341.192 Y79.152
X341.174 Y80.444
X341.111 Y81.734
X341.001 Y83.022
X340.842 Y84.304
X340.628 Y85.578
X340.354 Y86.831
X340.066 Y87.876
X339.763 Y88.783
X339.474 Y89.511
X339.21 Y90.084
X338.938 Y90.599
X338.67 Y91.046
X338.567 Y91.198
X338.284 Y91.56
X337.953 Y91.879
X337.58 Y92.15
X337.174 Y92.365
X336.742 Y92.522
X336.292 Y92.618
X335.833 Y92.65
X333.093
G3 X332.611 Y92.536 I0.044 J-1.269
X331.877 Y91.536 I0.527 J-1.156
G1 X327.729 Y57.774
G3 X328.463 Y56.464 I1.261 J-0.155
X328.945 Y56.35 I0.527 J1.156
G1 X331.822
X332.076 Y56.363
X332.332 Y56.39
X332.595 Y56.432
X332.897 Y56.497
X333.207 Y56.581
X333.559 Y56.699
X333.918 Y56.84
X334.32 Y57.024
X334.734 Y57.242
X335.177 Y57.506
X335.651 Y57.825
X336.132 Y58.188
X336.664 Y58.637
X337.183 Y59.125
X337.746 Y59.716
X338.328 Y60.397
X338.897 Y61.14
X339.49 Y62.009
X340.091 Y63.001
X340.689 Y64.121
X341.235 Y65.292
X341.722 Y66.488
X342.153 Y67.706
X342.533 Y68.941
X342.863 Y70.19
X343.147 Y71.451
X343.386 Y72.721
X343.58 Y73.998
X343.732 Y75.281
X343.841 Y76.569
X343.908 Y77.859
X343.932 Y79.151
X343.914 Y80.443
X343.851 Y81.733
X343.741 Y83.021
X343.582 Y84.303
X343.368 Y85.577
X343.095 Y86.83
X342.807 Y87.875
X342.503 Y88.782
X342.214 Y89.511
X341.95 Y90.084
X341.678 Y90.599
X341.411 Y91.045
X341.308 Y91.198
X341.024 Y91.56
X340.693 Y91.879
X340.321 Y92.149
X339.915 Y92.365
X339.482 Y92.522
X339.032 Y92.618
X338.573 Y92.65
X335.833
G3 X334.616 Y91.531 I0.044 J-1.269
G1 X330.605 Y57.769
G3 X331.339 Y56.464 I1.261 J-0.15
X331.822 Y56.35 I0.527 J1.156
G1 X334.488
X334.823 Y56.367
X335.078 Y56.393
X335.341 Y56.435
X335.642 Y56.501
X335.951 Y56.585
X336.303 Y56.702
X336.663 Y56.844
X337.063 Y57.027
X337.477 Y57.245
X337.919 Y57.509
X338.393 Y57.828
X338.874 Y58.19
X339.406 Y58.639
X339.924 Y59.127
X340.487 Y59.717
X341.069 Y60.398
X341.638 Y61.141
X342.231 Y62.01
X342.832 Y63.002
X343.429 Y64.121
X343.975 Y65.292
X344.462 Y66.489
X344.894 Y67.707
X345.273 Y68.942
X345.604 Y70.191
X345.888 Y71.451
X346.126 Y72.721
X346.321 Y73.998
X346.472 Y75.282
X346.581 Y76.569
X346.648 Y77.859
X346.673 Y79.151
X346.654 Y80.443
X346.591 Y81.734
X346.482 Y83.021
X346.323 Y84.303
X346.108 Y85.577
X345.835 Y86.83
X345.547 Y87.875
X345.243 Y88.783
X344.955 Y89.511
X344.69 Y90.084
X344.419 Y90.599
X344.151 Y91.045
X344.048 Y91.198
X343.764 Y91.56
X343.433 Y91.879
X343.061 Y92.149
X342.655 Y92.365
X342.223 Y92.522
X341.773 Y92.618
X341.314 Y92.65
X338.573
G3 X337.357 Y91.533 I0.044 J-1.269
G1 X333.272 Y57.772
G3 X334.006 Y56.464 I1.261 J-0.153
X334.488 Y56.35 I0.527 J1.156
G1 X337.327
X337.556 Y56.361
X337.812 Y56.388
X338.075 Y56.43
X338.377 Y56.496
X338.687 Y56.58
X339.039 Y56.697
X339.398 Y56.839
X339.8 Y57.023
X340.214 Y57.241
X340.657 Y57.505
X341.131 Y57.824
X341.612 Y58.187
X342.144 Y58.636
X342.663 Y59.124
X343.226 Y59.715
X343.808 Y60.395
X344.377 Y61.139
X344.971 Y62.008
X345.572 Y63
X346.169 Y64.12
X346.715 Y65.291
X347.202 Y66.488
X347.634 Y67.706
X348.013 Y68.941
X348.344 Y70.19
X348.628 Y71.45
X348.866 Y72.72
X349.061 Y73.997
X349.212 Y75.28
X349.321 Y76.568
X349.388 Y77.858
X349.413 Y79.15
X349.394 Y80.442
X349.331 Y81.732
X349.222 Y83.02
X349.063 Y84.302
X348.849 Y85.576
X348.576 Y86.829
X348.288 Y87.874
X347.984 Y88.782
X347.695 Y89.51
X347.431 Y90.084
X347.159 Y90.599
X346.892 Y91.045
X346.788 Y91.198
X346.505 Y91.56
X346.174 Y91.879
X345.801 Y92.149
X345.395 Y92.365
X344.963 Y92.522
X344.513 Y92.618
X344.054 Y92.65
X341.314
G3 X340.831 Y92.536 I0.044 J-1.269
X340.097 Y91.53 I0.527 J-1.156
G1 X336.11 Y57.768
G3 X337.327 Y56.35 I1.261 J-0.149
G1 X339.993
X340.303 Y56.365
X340.558 Y56.392
X340.821 Y56.434
X341.122 Y56.499
X341.431 Y56.584
X341.783 Y56.701
X342.143 Y56.842
X342.543 Y57.026
X342.957 Y57.244
X343.399 Y57.507
X343.874 Y57.826
X344.354 Y58.189
X344.886 Y58.638
X345.404 Y59.126
X345.967 Y59.716
X346.549 Y60.397
X347.118 Y61.14
X347.711 Y62.009
X348.312 Y63.001
X348.91 Y64.12
X349.456 Y65.291
X349.942 Y66.488
X350.374 Y67.706
X350.754 Y68.941
X351.084 Y70.19
X351.368 Y71.45
X351.607 Y72.72
X351.801 Y73.998
X351.953 Y75.281
X352.062 Y76.568
X352.129 Y77.858
X352.153 Y79.15
X352.135 Y80.442
X352.072 Y81.733
X351.962 Y83.02
X351.803 Y84.302
X351.589 Y85.577
X351.316 Y86.83
X351.028 Y87.875
X350.724 Y88.782
X350.435 Y89.51
X350.171 Y90.084
X349.899 Y90.599
X349.632 Y91.045
X349.529 Y91.198
X349.245 Y91.56
X348.914 Y91.879
X348.542 Y92.149
X348.135 Y92.365
X347.703 Y92.522
X347.253 Y92.618
X346.794 Y92.65
X344.054
G3 X343.572 Y92.536 I0.044 J-1.269
X342.837 Y91.532 I0.527 J-1.156
G1 X338.777 Y57.771
G3 X339.993 Y56.35 I1.261 J-0.152
G1 X342.66
X343.047 Y56.369
X343.302 Y56.396
X343.565 Y56.438
X343.866 Y56.503
X344.175 Y56.588
X344.526 Y56.704
X344.886 Y56.846
X345.286 Y57.029
X345.7 Y57.247
X346.142 Y57.511
X346.616 Y57.83
X347.096 Y58.192
X347.628 Y58.641
X348.146 Y59.128
X348.709 Y59.718
X349.291 Y60.399
X349.859 Y61.142
X350.452 Y62.011
X351.053 Y63.002
X351.65 Y64.121
X352.196 Y65.292
X352.683 Y66.489
X353.115 Y67.707
X353.494 Y68.942
X353.825 Y70.191
X354.109 Y71.452
X354.347 Y72.722
X354.542 Y73.999
X354.693 Y75.282
X354.802 Y76.569
X354.869 Y77.86
X354.893 Y79.152
X354.875 Y80.443
X354.812 Y81.734
X354.702 Y83.021
X354.543 Y84.304
X354.329 Y85.578
X354.056 Y86.831
X353.768 Y87.876
X353.464 Y88.783
X353.175 Y89.511
X352.911 Y90.084
X352.639 Y90.599
X352.372 Y91.045
X352.269 Y91.198
X351.985 Y91.56
X351.654 Y91.879
X351.282 Y92.149
X350.876 Y92.365
X350.443 Y92.522
X349.993 Y92.618
X349.535 Y92.65
X346.794
G3 X346.312 Y92.536 I0.044 J-1.269
X345.578 Y91.535 I0.527 J-1.156
