%
(1001)
(Z0 stock top centre y)
(T1  D=12.7 CR=0 - ZMIN=-50 - flat end mill)
G90 G94
G17
G21

(outlineContour36m)
M9
T1 M6
S6000 M3
G54
M9
G0 X397.451 Y-128.66
Z15
Z5
G1 Z3.77 F849.6
G19 G3 Y-127.39 Z2.5 J1.27
G1 Y-126.12
G17 G3 X396.181 Y-124.85 I-1.27
G1 X253 Z-2.5 F400.3
X98 F849.6
X58
G2 X53.51 Y-122.99 J6.35
G1 X13.51 Y-82.99
G2 X11.65 Y-78.5 I4.49 J4.49
G1 Y-8.5
Y78.5
G2 X13.51 Y82.99 I6.35
G1 X38.51 Y107.99
X53.51 Y122.99
G2 X58 Y124.85 I4.49 J-4.49
G1 X423
X448
G2 X452.49 Y122.99 J-6.35
G1 X482.49 Y92.99
X492.49 Y82.99
G2 X494.35 Y78.5 I-4.49 J-4.49
G1 Y8.5
Y-78.5
G2 X492.49 Y-82.99 I-6.35
G1 X452.49 Y-122.99
G2 X448 Y-124.85 I-4.49 J4.49
G1 X253
X181.409 Z-5 F400.3
X98 F849.6
X58
G2 X53.51 Y-122.99 J6.35
G1 X13.51 Y-82.99
G2 X11.65 Y-78.5 I4.49 J4.49
G1 Y-8.5
Y78.5
G2 X13.51 Y82.99 I6.35
G1 X38.51 Y107.99
X53.51 Y122.99
G2 X58 Y124.85 I4.49 J-4.49
G1 X423
X448
G2 X452.49 Y122.99 J-6.35
G1 X482.49 Y92.99
X492.49 Y82.99
G2 X494.35 Y78.5 I-4.49 J-4.49
G1 Y8.5
Y-78.5
G2 X492.49 Y-82.99 I-6.35
G1 X452.49 Y-122.99
G2 X448 Y-124.85 I-4.49 J4.49
G1 X181.409
X109.819 Z-7.5 F400.3
X58 F849.6
G2 X53.51 Y-122.99 J6.35
G1 X13.51 Y-82.99
G2 X11.65 Y-78.5 I4.49 J4.49
G1 Y-8.5
Y78.5
G2 X13.51 Y82.99 I6.35
G1 X38.51 Y107.99
X53.51 Y122.99
G2 X58 Y124.85 I4.49 J-4.49
G1 X423
X448
G2 X452.49 Y122.99 J-6.35
G1 X482.49 Y92.99
X492.49 Y82.99
G2 X494.35 Y78.5 I-4.49 J-4.49
G1 Y8.5
Y-78.5
G2 X492.49 Y-82.99 I-6.35
G1 X452.49 Y-122.99
G2 X448 Y-124.85 I-4.49 J4.49
G1 X109.819
X58 Z-9.31 F400.3
G2 X53.51 Y-122.99 Z-9.484 J6.35
G1 X43.056 Y-112.536 Z-10
X13.51 Y-82.99 F849.6
G2 X11.65 Y-78.5 I4.49 J4.49
G1 Y-8.5
Y78.5
G2 X13.51 Y82.99 I6.35
G1 X38.51 Y107.99
X53.51 Y122.99
G2 X58 Y124.85 I4.49 J-4.49
G1 X423
X448
G2 X452.49 Y122.99 J-6.35
G1 X482.49 Y92.99
X492.49 Y82.99
G2 X494.35 Y78.5 I-4.49 J-4.49
G1 Y8.5
Y-78.5
G2 X492.49 Y-82.99 I-6.35
G1 X452.49 Y-122.99
G2 X448 Y-124.85 I-4.49 J4.49
G1 X109.819
X58
G2 X53.51 Y-122.99 J6.35
G1 X43.056 Y-112.536
X13.51 Y-82.99 Z-11.459 F400.3
G2 X11.65 Y-78.5 Z-11.633 I4.49 J4.49
G1 Y-53.681 Z-12.5
Y-8.5 F849.6
Y78.5
G2 X13.51 Y82.99 I6.35
G1 X38.51 Y107.99
X53.51 Y122.99
G2 X58 Y124.85 I4.49 J-4.49
G1 X423
X448
G2 X452.49 Y122.99 J-6.35
G1 X482.49 Y92.99
X492.49 Y82.99
G2 X494.35 Y78.5 I-4.49 J-4.49
G1 Y8.5
Y-78.5
G2 X492.49 Y-82.99 I-6.35
G1 X452.49 Y-122.99
G2 X448 Y-124.85 I-4.49 J4.49
G1 X58
G2 X53.51 Y-122.99 J6.35
G1 X43.056 Y-112.536
X13.51 Y-82.99
G2 X11.65 Y-78.5 I4.49 J4.49
G1 Y-53.681
Y17.91 Z-15 F400.3
Y78.5 F849.6
G2 X13.51 Y82.99 I6.35
G1 X38.51 Y107.99
X53.51 Y122.99
G2 X58 Y124.85 I4.49 J-4.49
G1 X423
X448
G2 X452.49 Y122.99 J-6.35
G1 X482.49 Y92.99
X492.49 Y82.99
G2 X494.35 Y78.5 I-4.49 J-4.49
G1 Y8.5
Y-78.5
G2 X492.49 Y-82.99 I-6.35
G1 X452.49 Y-122.99
G2 X448 Y-124.85 I-4.49 J4.49
G1 X58
G2 X53.51 Y-122.99 J6.35
G1 X13.51 Y-82.99
G2 X11.65 Y-78.5 I4.49 J4.49
G1 Y-8.5
Y8.5
Y17.91
Y78.5 Z-17.116 F400.3
G2 X13.51 Y82.99 Z-17.29 I6.35
G1 X17.762 Y87.242 Z-17.5
X38.51 Y107.99 F849.6
X53.51 Y122.99
G2 X58 Y124.85 I4.49 J-4.49
G1 X423
X448
G2 X452.49 Y122.99 J-6.35
G1 X482.49 Y92.99
X492.49 Y82.99
G2 X494.35 Y78.5 I-4.49 J-4.49
G1 Y8.5
Y-78.5
G2 X492.49 Y-82.99 I-6.35
G1 X452.49 Y-122.99
G2 X448 Y-124.85 I-4.49 J4.49
G1 X58
G2 X53.51 Y-122.99 J6.35
G1 X13.51 Y-82.99
G2 X11.65 Y-78.5 I4.49 J4.49
G1 Y-8.5
Y8.5
Y78.5
G2 X13.51 Y82.99 I6.35
G1 X17.762 Y87.242
X53.51 Y122.99 Z-19.265 F400.3
G2 X58 Y124.85 Z-19.44 I4.49 J-4.49
G1 X74.048 Z-20
X448 F849.6
G2 X452.49 Y122.99 J-6.35
G1 X482.49 Y92.99
X492.49 Y82.99
G2 X494.35 Y78.5 I-4.49 J-4.49
G1 Y8.5
Y-78.5
G2 X492.49 Y-82.99 I-6.35
G1 X452.49 Y-122.99
G2 X448 Y-124.85 I-4.49 J4.49
G1 X58
G2 X53.51 Y-122.99 J6.35
G1 X13.51 Y-82.99
G2 X11.65 Y-78.5 I4.49 J4.49
G1 Y-8.5
Y78.5
G2 X13.51 Y82.99 I6.35
G1 X53.51 Y122.99
G2 X58 Y124.85 I4.49 J-4.49
G1 X74.048
X145.639 Z-22.5 F400.3
X423 F849.6
X448
G2 X452.49 Y122.99 J-6.35
G1 X482.49 Y92.99
X492.49 Y82.99
G2 X494.35 Y78.5 I-4.49 J-4.49
G1 Y8.5
Y-78.5
G2 X492.49 Y-82.99 I-6.35
G1 X452.49 Y-122.99
G2 X448 Y-124.85 I-4.49 J4.49
G1 X58
G2 X53.51 Y-122.99 J6.35
G1 X13.51 Y-82.99
G2 X11.65 Y-78.5 I4.49 J4.49
G1 Y-8.5
Y78.5
G2 X13.51 Y82.99 I6.35
G1 X38.51 Y107.99
X53.51 Y122.99
G2 X58 Y124.85 I4.49 J-4.49
G1 X145.639
X217.23 Z-25 F400.3
X423 F849.6
X448
G2 X452.49 Y122.99 J-6.35
G1 X482.49 Y92.99
X492.49 Y82.99
G2 X494.35 Y78.5 I-4.49 J-4.49
G1 Y8.5
Y-78.5
G2 X492.49 Y-82.99 I-6.35
G1 X452.49 Y-122.99
G2 X448 Y-124.85 I-4.49 J4.49
G1 X58
G2 X53.51 Y-122.99 J6.35
G1 X13.51 Y-82.99
G2 X11.65 Y-78.5 I4.49 J4.49
G1 Y-8.5
Y78.5
G2 X13.51 Y82.99 I6.35
G1 X38.51 Y107.99
X53.51 Y122.99
G2 X58 Y124.85 I4.49 J-4.49
G1 X217.23
X288.82 Z-27.5 F400.3
X423 F849.6
X448
G2 X452.49 Y122.99 J-6.35
G1 X482.49 Y92.99
X492.49 Y82.99
G2 X494.35 Y78.5 I-4.49 J-4.49
G1 Y8.5
Y-78.5
G2 X492.49 Y-82.99 I-6.35
G1 X452.49 Y-122.99
G2 X448 Y-124.85 I-4.49 J4.49
G1 X58
G2 X53.51 Y-122.99 J6.35
G1 X13.51 Y-82.99
G2 X11.65 Y-78.5 I4.49 J4.49
G1 Y-8.5
Y78.5
G2 X13.51 Y82.99 I6.35
G1 X38.51 Y107.99
X53.51 Y122.99
G2 X58 Y124.85 I4.49 J-4.49
G1 X288.82
X360.411 Z-30 F400.3
X423 F849.6
X448
G2 X452.49 Y122.99 J-6.35
G1 X482.49 Y92.99
X492.49 Y82.99
G2 X494.35 Y78.5 I-4.49 J-4.49
G1 Y8.5
Y-78.5
G2 X492.49 Y-82.99 I-6.35
G1 X452.49 Y-122.99
G2 X448 Y-124.85 I-4.49 J4.49
G1 X58
G2 X53.51 Y-122.99 J6.35
G1 X13.51 Y-82.99
G2 X11.65 Y-78.5 I4.49 J4.49
G1 Y-8.5
Y78.5
G2 X13.51 Y82.99 I6.35
G1 X38.51 Y107.99
X53.51 Y122.99
G2 X58 Y124.85 I4.49 J-4.49
G1 X360.411
X432.001 Z-32.5 F400.3
X448 F849.6
G2 X452.49 Y122.99 J-6.35
G1 X482.49 Y92.99
X492.49 Y82.99
G2 X494.35 Y78.5 I-4.49 J-4.49
G1 Y8.5
Y-78.5
G2 X492.49 Y-82.99 I-6.35
G1 X452.49 Y-122.99
G2 X448 Y-124.85 I-4.49 J4.49
G1 X58
G2 X53.51 Y-122.99 J6.35
G1 X13.51 Y-82.99
G2 X11.65 Y-78.5 I4.49 J4.49
G1 Y-8.5
Y78.5
G2 X13.51 Y82.99 I6.35
G1 X38.51 Y107.99
X53.51 Y122.99
G2 X58 Y124.85 I4.49 J-4.49
G1 X423
X432.001
X448 Z-33.059 F400.3
G2 X452.49 Y122.99 Z-33.233 J-6.35
G1 X488.273 Y87.207 Z-35
X492.49 Y82.99 F849.6
G2 X494.35 Y78.5 I-4.49 J-4.49
G1 Y8.5
Y-78.5
G2 X492.49 Y-82.99 I-6.35
G1 X452.49 Y-122.99
G2 X448 Y-124.85 I-4.49 J4.49
G1 X58
G2 X53.51 Y-122.99 J6.35
G1 X13.51 Y-82.99
G2 X11.65 Y-78.5 I4.49 J4.49
G1 Y-8.5
Y78.5
G2 X13.51 Y82.99 I6.35
G1 X38.51 Y107.99
X53.51 Y122.99
G2 X58 Y124.85 I4.49 J-4.49
G1 X423
X448
G2 X452.49 Y122.99 J-6.35
G1 X482.49 Y92.99
X488.273 Y87.207
X492.49 Y82.99 Z-35.208 F400.3
G2 X494.35 Y78.5 Z-35.382 I-4.49 J-4.49
G1 Y17.86 Z-37.5
Y-78.5 F849.6
G2 X492.49 Y-82.99 I-6.35
G1 X452.49 Y-122.99
G2 X448 Y-124.85 I-4.49 J4.49
G1 X58
G2 X53.51 Y-122.99 J6.35
G1 X13.51 Y-82.99
G2 X11.65 Y-78.5 I4.49 J4.49
G1 Y-8.5
Y78.5
G2 X13.51 Y82.99 I6.35
G1 X38.51 Y107.99
X53.51 Y122.99
G2 X58 Y124.85 I4.49 J-4.49
G1 X423
X448
G2 X452.49 Y122.99 J-6.35
G1 X482.49 Y92.99
X488.273 Y87.207
X492.49 Y82.99
G2 X494.35 Y78.5 I-4.49 J-4.49
G1 Y17.86
Y-53.73 Z-40 F400.3
Y-78.5 F849.6
G2 X492.49 Y-82.99 I-6.35
G1 X452.49 Y-122.99
G2 X448 Y-124.85 I-4.49 J4.49
G1 X58
G2 X53.51 Y-122.99 J6.35
G1 X13.51 Y-82.99
G2 X11.65 Y-78.5 I4.49 J4.49
G1 Y-8.5
Y78.5
G2 X13.51 Y82.99 I6.35
G1 X38.51 Y107.99
X53.51 Y122.99
G2 X58 Y124.85 I4.49 J-4.49
G1 X423
X448
G2 X452.49 Y122.99 J-6.35
G1 X482.49 Y92.99
X492.49 Y82.99
G2 X494.35 Y78.5 I-4.49 J-4.49
G1 Y17.86
Y-53.73
Y-78.5 Z-40.865 F400.3
G2 X492.49 Y-82.99 Z-41.039 I-6.35
G1 X462.909 Y-112.571 Z-42.5
X452.49 Y-122.99 F849.6
G2 X448 Y-124.85 I-4.49 J4.49
G1 X58
G2 X53.51 Y-122.99 J6.35
G1 X13.51 Y-82.99
G2 X11.65 Y-78.5 I4.49 J4.49
G1 Y-8.5
Y78.5
G2 X13.51 Y82.99 I6.35
G1 X38.51 Y107.99
X53.51 Y122.99
G2 X58 Y124.85 I4.49 J-4.49
G1 X423
X448
G2 X452.49 Y122.99 J-6.35
G1 X482.49 Y92.99
X492.49 Y82.99
G2 X494.35 Y78.5 I-4.49 J-4.49
G1 Y8.5
Y-78.5
G2 X492.49 Y-82.99 I-6.35
G1 X462.909 Y-112.571
X452.49 Y-122.99 Z-43.015 F400.3
G2 X448 Y-124.85 Z-43.189 I-4.49 J4.49
G1 X396.132 Z-45
X98 F849.6
X58
G2 X53.51 Y-122.99 J6.35
G1 X13.51 Y-82.99
G2 X11.65 Y-78.5 I4.49 J4.49
G1 Y-8.5
Y78.5
G2 X13.51 Y82.99 I6.35
G1 X38.51 Y107.99
X53.51 Y122.99
G2 X58 Y124.85 I4.49 J-4.49
G1 X423
X448
G2 X452.49 Y122.99 J-6.35
G1 X482.49 Y92.99
X492.49 Y82.99
G2 X494.35 Y78.5 I-4.49 J-4.49
G1 Y8.5
Y-78.5
G2 X492.49 Y-82.99 I-6.35
G1 X452.49 Y-122.99
G2 X448 Y-124.85 I-4.49 J4.49
G1 X396.132
X324.541 Z-47.5 F400.3
X98 F849.6
X58
G2 X53.51 Y-122.99 J6.35
G1 X13.51 Y-82.99
G2 X11.65 Y-78.5 I4.49 J4.49
G1 Y-8.5
Y78.5
G2 X13.51 Y82.99 I6.35
G1 X38.51 Y107.99
X53.51 Y122.99
G2 X58 Y124.85 I4.49 J-4.49
G1 X423
X448
G2 X452.49 Y122.99 J-6.35
G1 X482.49 Y92.99
X492.49 Y82.99
G2 X494.35 Y78.5 I-4.49 J-4.49
G1 Y8.5
Y-78.5
G2 X492.49 Y-82.99 I-6.35
G1 X452.49 Y-122.99
G2 X448 Y-124.85 I-4.49 J4.49
G1 X324.541
X252.95 Z-50 F400.3
X98 F849.6
X58
G2 X53.51 Y-122.99 J6.35
G1 X13.51 Y-82.99
G2 X11.65 Y-78.5 I4.49 J4.49
G1 Y-8.5
Y78.5
G2 X13.51 Y82.99 I6.35
G1 X38.51 Y107.99
X53.51 Y122.99
G2 X58 Y124.85 I4.49 J-4.49
G1 X423
X448
G2 X452.49 Y122.99 J-6.35
G1 X482.49 Y92.99
X492.49 Y82.99
G2 X494.35 Y78.5 I-4.49 J-4.49
G1 Y8.5
Y-78.5
G2 X492.49 Y-82.99 I-6.35
G1 X452.49 Y-122.99
G2 X448 Y-124.85 I-4.49 J4.49
G1 X252.95
G3 X251.68 Y-126.12 J-1.27
G1 Y-127.39
G19 G2 Y-128.66 Z-48.73 K1.27
G0 Z15
G17
M9
M30
%
