%
(1001)
(Z0 stock top)
(T0  D=20 CR=0 - ZMIN=-2 - flat end mill)
G90 G94
G17
G21

(Face3)
M9
T0 M6
S6000 M3
G54
M9
G0 X617.926 Y-1.135
Z15
Z5
G1 Z1.5 F300
G18 G3 X615.926 Z-0.5 I-2
G1 X605
X-10 F750
G17 G2 Y17.539 J9.337
G1 X605
G3 Y36.214 J9.337
G1 X-10
G2 Y54.889 J9.337
G1 X605
G3 Y73.563 J9.337
G1 X-10
G2 Y92.238 J9.337
G1 X605
G3 Y110.913 J9.337
G1 X-10
G2 Y129.587 J9.337
G1 X605
G3 Y148.262 J9.337
G1 X-10
G2 Y166.937 J9.337
G1 X605
G3 Y185.611 J9.337
G1 X-10
G2 Y204.286 J9.337
G1 X605
G3 Y222.961 J9.337
G1 X-10
G2 Y241.635 J9.337
G1 X605
G3 Y260.31 J9.337
G1 X-10
G18 G3 X-12 Z1.5 K2 F300
G0 Z5
X-22.926 Y261.135
G1 Z0 F300
G2 X-20.926 Z-2 I2
G1 X-10
X605 F750
G17 G2 Y242.461 J-9.337
G1 X-10
G3 Y223.786 J-9.337
G1 X605
G2 Y205.111 J-9.337
G1 X-10
G3 Y186.437 J-9.337
G1 X605
G2 Y167.762 J-9.337
G1 X-10
G3 Y149.087 J-9.337
G1 X605
G2 Y130.413 J-9.337
G1 X-10
G3 Y111.738 J-9.337
G1 X605
G2 Y93.063 J-9.337
G1 X-10
G3 Y74.389 J-9.337
G1 X605
G2 Y55.714 J-9.337
G1 X-10
G3 Y37.039 J-9.337
G1 X605
G2 Y18.365 J-9.337
G1 X-10
G3 Y-0.31 J-9.337
G1 X605
G18 G2 X607 Z0 K2 F300
G0 Z15
G17
M9
M30
%
