%
(1001)
(Z0 stock top centre y)
(T1  D=12.7 CR=0 - ZMIN=-12.5 - flat end mill)
G90 G94
G17
G21

(rail1Adaptive26m)
M9
T1 M6
S6000 M3
G54
M9
G0 X119.311 Y73.973
Z15
Z5
Z3.77
G1 Z2.5 F849.6
G3 X113.386 Y73.027 Z2.171 I-2.963 J-0.473 F400.3
X119.311 Y73.973 Z1.842 I2.963 J0.473
X113.386 Y73.027 Z1.513 I-2.963 J-0.473
X119.311 Y73.973 Z1.184 I2.963 J0.473
X113.386 Y73.027 Z0.854 I-2.963 J-0.473
X119.311 Y73.973 Z0.525 I2.963 J0.473
X113.386 Y73.027 Z0.196 I-2.963 J-0.473
X119.311 Y73.973 Z-0.133 I2.963 J0.473
X113.386 Y73.027 Z-0.462 I-2.963 J-0.473
X119.311 Y73.973 Z-0.791 I2.963 J0.473
X113.386 Y73.027 Z-1.12 I-2.963 J-0.473
X119.311 Y73.973 Z-1.449 I2.963 J0.473
X113.386 Y73.027 Z-1.779 I-2.963 J-0.473
X119.311 Y73.973 Z-2.108 I2.963 J0.473
X113.386 Y73.027 Z-2.437 I-2.963 J-0.473
X119.311 Y73.973 Z-2.766 I2.963 J0.473
X113.386 Y73.027 Z-3.095 I-2.963 J-0.473
X119.311 Y73.973 Z-3.424 I2.963 J0.473
X113.386 Y73.027 Z-3.753 I-2.963 J-0.473
X119.311 Y73.973 Z-4.082 I2.963 J0.473
X113.386 Y73.027 Z-4.412 I-2.963 J-0.473
X119.311 Y73.973 Z-4.741 I2.963 J0.473
X113.386 Y73.027 Z-5.07 I-2.963 J-0.473
X119.311 Y73.973 Z-5.399 I2.963 J0.473
X113.386 Y73.027 Z-5.728 I-2.963 J-0.473
X119.311 Y73.973 Z-6.057 I2.963 J0.473
X113.386 Y73.027 Z-6.386 I-2.963 J-0.473
X119.311 Y73.973 Z-6.715 I2.963 J0.473
X113.386 Y73.027 Z-7.044 I-2.963 J-0.473
X119.311 Y73.973 Z-7.374 I2.963 J0.473
X113.386 Y73.027 Z-7.703 I-2.963 J-0.473
X119.311 Y73.973 Z-8.032 I2.963 J0.473
X113.386 Y73.027 Z-8.361 I-2.963 J-0.473
X119.311 Y73.973 Z-8.69 I2.963 J0.473
X113.386 Y73.027 Z-9.019 I-2.963 J-0.473
X119.311 Y73.973 Z-9.348 I2.963 J0.473
X113.386 Y73.027 Z-9.677 I-2.963 J-0.473
X119.349 Y73.5 Z-9.99 I2.963 J0.473
X113.349 I-3
X119.245 Y72.717 I3
X119.349 Y73.5 I-2.896 J0.783
G1 X119.37 Y74.792 F849.6
X119.378 Y74.872
X119.384 Y75.022
X119.376 Y75.172
X119.356 Y75.321
X119.325 Y75.467
X119.284 Y75.612
X119.233 Y75.753
X119.174 Y75.89
X119.106 Y76.024
X119.031 Y76.154
X118.948 Y76.281
X118.855 Y76.407
X118.753 Y76.531
X118.642 Y76.652
X118.521 Y76.77
X118.391 Y76.884
X118.252 Y76.993
X118.105 Y77.096
X117.949 Y77.193
X117.786 Y77.283
X117.615 Y77.365
X117.437 Y77.439
X117.253 Y77.504
X117.063 Y77.56
X116.868 Y77.605
X116.669 Y77.641
X116.465 Y77.666
X116.259 Y77.68
X116.05 Y77.683
X115.839 Y77.675
X115.628 Y77.655
X115.416 Y77.624
X115.205 Y77.58
X114.995 Y77.525
X114.787 Y77.458
X114.582 Y77.38
X114.38 Y77.29
X114.183 Y77.189
X113.99 Y77.076
X113.803 Y76.953
X113.622 Y76.82
X113.448 Y76.676
X113.282 Y76.522
X113.123 Y76.359
X112.973 Y76.188
X112.833 Y76.008
X112.701 Y75.82
X112.58 Y75.625
X112.47 Y75.423
X112.37 Y75.215
X112.282 Y75.001
X112.205 Y74.783
X112.14 Y74.56
X112.087 Y74.334
X112.047 Y74.105
X112.019 Y73.874
X112.003 Y73.641
X112 Y73.407
X112.01 Y73.174
X112.032 Y72.941
X112.067 Y72.709
X112.115 Y72.48
X112.175 Y72.253
X112.247 Y72.03
X112.331 Y71.811
X112.427 Y71.596
X112.535 Y71.387
X112.654 Y71.184
X112.784 Y70.987
X112.924 Y70.798
X113.074 Y70.617
X113.235 Y70.444
X113.404 Y70.28
X113.582 Y70.125
X113.768 Y69.98
X113.962 Y69.845
X114.163 Y69.721
X114.37 Y69.608
X114.583 Y69.506
X114.802 Y69.416
X115.025 Y69.338
X115.252 Y69.273
X115.482 Y69.219
X115.715 Y69.178
X115.95 Y69.15
X116.186 Y69.135
X116.423 Y69.132
X116.659 Y69.142
X116.895 Y69.166
X117.129 Y69.201
X117.36 Y69.25
X117.589 Y69.311
X117.814 Y69.384
X118.035 Y69.469
X118.251 Y69.566
X118.461 Y69.675
X118.665 Y69.795
X118.863 Y69.926
X119.053 Y70.067
X119.235 Y70.219
X119.408 Y70.38
X119.573 Y70.55
X119.728 Y70.729
X119.873 Y70.917
X120.028 Y71.14
X120.203 Y71.425
X120.392 Y71.773
X120.548 Y72.102
X120.677 Y72.416
X120.782 Y72.719
X120.867 Y73.013
X120.933 Y73.301
X120.982 Y73.583
X121.015 Y73.859
X121.032 Y74.132
X121.034 Y74.4
X121.022 Y74.665
X120.996 Y74.926
X120.956 Y75.183
X120.903 Y75.437
X120.836 Y75.686
X120.756 Y75.931
X120.663 Y76.171
X120.556 Y76.407
X120.437 Y76.636
X120.305 Y76.86
X120.161 Y77.077
X120.004 Y77.286
X119.836 Y77.488
X119.656 Y77.681
X119.464 Y77.866
X119.262 Y78.04
X119.049 Y78.205
X118.826 Y78.359
X118.594 Y78.501
X118.353 Y78.631
X118.103 Y78.749
X117.846 Y78.854
X117.582 Y78.945
X117.311 Y79.022
X117.035 Y79.085
X116.754 Y79.134
X116.47 Y79.167
X116.182 Y79.185
X115.892 Y79.187
X115.601 Y79.173
X115.309 Y79.143
X115.017 Y79.098
X114.727 Y79.036
X114.44 Y78.958
X114.155 Y78.865
X113.875 Y78.755
X113.6 Y78.63
X113.331 Y78.49
X113.069 Y78.335
X112.815 Y78.165
X112.569 Y77.981
X112.333 Y77.783
X112.108 Y77.572
X111.893 Y77.349
X111.691 Y77.113
X111.5 Y76.866
X111.324 Y76.609
X111.16 Y76.342
X111.012 Y76.065
X110.878 Y75.781
X110.759 Y75.489
X110.657 Y75.19
X110.57 Y74.885
X110.5 Y74.576
X110.447 Y74.263
X110.411 Y73.947
X110.392 Y73.629
X110.39 Y73.31
X110.406 Y72.991
X110.439 Y72.673
X110.489 Y72.357
X110.556 Y72.044
X110.64 Y71.734
X110.741 Y71.429
X110.858 Y71.13
X110.992 Y70.837
X111.141 Y70.552
X111.306 Y70.275
X111.486 Y70.007
X111.68 Y69.749
X111.888 Y69.502
X112.109 Y69.266
X112.343 Y69.043
X112.588 Y68.832
X112.845 Y68.635
X113.112 Y68.453
X113.389 Y68.284
X113.674 Y68.131
X113.968 Y67.994
X114.269 Y67.873
X114.576 Y67.768
X114.888 Y67.68
X115.205 Y67.609
X115.525 Y67.555
X115.848 Y67.518
X116.172 Y67.499
X116.497 Y67.498
X116.821 Y67.515
X117.144 Y67.549
X117.465 Y67.6
X117.783 Y67.669
X118.097 Y67.755
X118.405 Y67.857
X118.708 Y67.977
X119.005 Y68.113
X119.299 Y68.268
X119.591 Y68.442
X119.885 Y68.64
X120.176 Y68.86
X120.461 Y69.1
X120.735 Y69.358
X120.997 Y69.633
X121.244 Y69.923
X121.476 Y70.225
X121.69 Y70.539
X121.886 Y70.864
X122.064 Y71.197
X122.223 Y71.538
X122.362 Y71.884
X122.481 Y72.236
X122.581 Y72.593
X122.661 Y72.952
X122.721 Y73.313
X122.762 Y73.676
X122.782 Y74.039
X122.783 Y74.401
X122.764 Y74.762
X122.726 Y75.121
X122.668 Y75.476
X122.591 Y75.827
X122.496 Y76.174
X122.382 Y76.514
X122.249 Y76.849
X122.099 Y77.175
X121.93 Y77.494
X121.745 Y77.803
X121.542 Y78.103
X121.324 Y78.392
X121.089 Y78.669
X120.838 Y78.934
X120.573 Y79.185
X120.294 Y79.423
X120.001 Y79.646
X119.696 Y79.854
X119.378 Y80.045
X119.049 Y80.22
X118.71 Y80.377
X118.362 Y80.516
X118.004 Y80.637
X117.64 Y80.739
X117.269 Y80.82
X116.892 Y80.882
X116.511 Y80.924
X116.127 Y80.945
X115.741
X115.354 Y80.924
X114.967 Y80.882
X114.581 Y80.819
X114.198 Y80.735
X113.818 Y80.629
X113.444 Y80.503
X113.076 Y80.356
X112.715 Y80.189
X112.362 Y80.002
X112.019 Y79.796
X111.687 Y79.57
X111.366 Y79.326
X111.058 Y79.065
X110.764 Y78.786
X110.485 Y78.491
X110.222 Y78.18
X109.975 Y77.855
X109.746 Y77.517
X109.535 Y77.165
X109.342 Y76.802
X109.17 Y76.428
X109.018 Y76.044
X108.886 Y75.653
X108.776 Y75.253
X108.687 Y74.848
X108.62 Y74.438
X108.576 Y74.024
X108.554 Y73.608
Y73.191
X108.578 Y72.774
X108.623 Y72.358
X108.692 Y71.945
X108.783 Y71.535
X108.896 Y71.131
X109.031 Y70.733
X109.187 Y70.342
X109.365 Y69.961
X109.563 Y69.589
X109.781 Y69.228
X110.018 Y68.879
X110.275 Y68.544
X110.549 Y68.222
X110.84 Y67.916
X111.148 Y67.626
X111.472 Y67.352
X111.809 Y67.097
X112.161 Y66.86
X112.524 Y66.642
X112.9 Y66.445
X113.285 Y66.267
X113.68 Y66.111
X114.083 Y65.977
X114.492 Y65.865
X114.908 Y65.774
X115.327 Y65.707
X115.75 Y65.662
X116.175 Y65.641
X116.6 Y65.642
X117.026 Y65.666
X117.451 Y65.714
X117.877 Y65.785
X118.301 Y65.88
X118.725 Y66
X119.146 Y66.143
X119.562 Y66.311
X119.973 Y66.502
X120.375 Y66.718
X120.769 Y66.956
X121.151 Y67.218
X121.519 Y67.5
X121.874 Y67.804
X122.212 Y68.127
X122.534 Y68.469
X122.836 Y68.828
X123.119 Y69.204
X123.382 Y69.595
X123.623 Y69.999
X123.841 Y70.415
X124.037 Y70.843
X124.209 Y71.28
X124.356 Y71.726
X124.48 Y72.178
X124.578 Y72.636
X124.652 Y73.098
X124.7 Y73.563
X124.723 Y74.029
X124.721 Y74.496
X124.693 Y74.962
X124.64 Y75.425
X124.563 Y75.885
X124.46 Y76.34
X124.333 Y76.79
X124.181 Y77.231
X124.006 Y77.665
X123.807 Y78.088
X123.585 Y78.501
X123.341 Y78.902
X123.075 Y79.289
X122.788 Y79.662
X122.481 Y80.02
X122.154 Y80.361
X121.808 Y80.685
X121.444 Y80.991
X121.063 Y81.277
X120.666 Y81.542
X120.254 Y81.786
X119.829 Y82.009
X119.391 Y82.208
X118.941 Y82.384
X118.481 Y82.536
X118.012 Y82.663
X117.535 Y82.765
X117.052 Y82.841
X116.564 Y82.89
X116.073 Y82.914
X115.58 Y82.91
X115.086 Y82.88
X114.593 Y82.823
X114.102 Y82.739
X113.615 Y82.629
X113.134 Y82.491
X112.659 Y82.328
X112.192 Y82.138
X111.736 Y81.923
X111.29 Y81.682
X110.857 Y81.417
X110.438 Y81.128
X110.034 Y80.817
X109.646 Y80.483
X109.277 Y80.127
X108.926 Y79.751
X108.596 Y79.356
X108.287 Y78.943
X108 Y78.513
X107.736 Y78.067
X107.497 Y77.606
X107.282 Y77.133
X107.094 Y76.647
X106.931 Y76.152
X106.795 Y75.647
X106.687 Y75.135
X106.606 Y74.617
X106.554 Y74.095
X106.53 Y73.57
X106.535 Y73.044
X106.568 Y72.518
X106.629 Y71.994
X106.719 Y71.474
X106.837 Y70.959
X106.983 Y70.45
X107.157 Y69.95
X107.357 Y69.46
X107.584 Y68.98
X107.837 Y68.513
X108.115 Y68.061
X108.417 Y67.623
X108.743 Y67.203
X109.091 Y66.8
X109.461 Y66.417
X109.852 Y66.054
X110.261 Y65.713
X110.689 Y65.394
X111.134 Y65.099
X111.594 Y64.828
X112.068 Y64.582
X112.555 Y64.363
X113.054 Y64.17
X113.563 Y64.004
X114.08 Y63.866
X114.605 Y63.756
X115.136 Y63.674
X115.673 Y63.621
X116.214 Y63.597
X116.758 Y63.603
X117.303 Y63.638
X117.849 Y63.703
X118.393 Y63.798
X118.934 Y63.923
X119.47 Y64.078
X120 Y64.263
X120.521 Y64.477
X121.032 Y64.72
X121.53 Y64.991
X122.016 Y65.291
X122.485 Y65.617
X122.938 Y65.969
X123.372 Y66.345
X123.786 Y66.746
X124.178 Y67.169
X124.547 Y67.614
X124.892 Y68.078
X125.211 Y68.561
X125.504 Y69.061
X125.77 Y69.577
X126.008 Y70.106
X126.216 Y70.647
X126.395 Y71.199
X126.544 Y71.76
X126.662 Y72.328
X126.749 Y72.902
X126.805 Y73.48
X126.829 Y74.06
X126.822 Y74.64
X126.784 Y75.22
X126.714 Y75.797
X126.613 Y76.369
X126.481 Y76.936
X126.318 Y77.495
X126.126 Y78.044
X125.903 Y78.583
X125.651 Y79.11
X125.371 Y79.623
X125.063 Y80.121
X124.728 Y80.602
X124.367 Y81.064
X123.981 Y81.508
X123.57 Y81.93
X123.137 Y82.33
X122.681 Y82.707
X122.205 Y83.06
X121.709 Y83.386
X121.195 Y83.686
X120.665 Y83.959
X120.119 Y84.202
X119.56 Y84.417
X118.988 Y84.601
X118.406 Y84.754
X117.815 Y84.876
X117.217 Y84.965
X116.614 Y85.023
X116.006 Y85.047
X115.397 Y85.039
X114.788 Y84.997
X114.18 Y84.923
X113.576 Y84.815
X112.977 Y84.674
X112.385 Y84.501
X111.802 Y84.295
X111.229 Y84.058
X110.669 Y83.789
X110.123 Y83.49
X109.593 Y83.16
X109.081 Y82.802
X108.587 Y82.415
X108.115 Y82.002
X107.664 Y81.563
X107.238 Y81.099
X106.836 Y80.612
X106.461 Y80.102
X106.113 Y79.573
X105.794 Y79.024
X105.504 Y78.458
X105.246 Y77.876
X105.019 Y77.28
X104.824 Y76.672
X104.662 Y76.053
X104.534 Y75.426
X104.44 Y74.791
X104.38 Y74.152
X104.356 Y73.51
X104.366 Y72.866
X104.41 Y72.224
X104.49 Y71.584
X104.605 Y70.949
X104.753 Y70.32
X104.936 Y69.7
X105.152 Y69.09
X105.402 Y68.492
X105.683 Y67.909
X105.996 Y67.341
X106.34 Y66.79
X106.713 Y66.258
X107.114 Y65.747
X107.543 Y65.259
X107.998 Y64.794
X108.478 Y64.354
X108.982 Y63.941
X109.507 Y63.555
X110.052 Y63.198
X110.617 Y62.871
X111.199 Y62.575
X111.797 Y62.31
X112.409 Y62.078
X113.034 Y61.88
X113.67 Y61.714
X114.316 Y61.584
X114.969 Y61.488
X115.629 Y61.428
X116.294 Y61.403
X116.961 Y61.415
X117.629 Y61.462
X118.296 Y61.547
X118.959 Y61.667
X119.617 Y61.824
X120.268 Y62.017
X120.909 Y62.246
X121.539 Y62.51
X122.156 Y62.809
X122.757 Y63.141
X123.34 Y63.507
X123.905 Y63.904
X124.448 Y64.333
X124.968 Y64.791
X125.463 Y65.277
X125.932 Y65.791
X126.373 Y66.329
X126.784 Y66.892
X127.165 Y67.476
X127.514 Y68.081
X127.829 Y68.704
X128.111 Y69.344
X128.358 Y69.998
X128.569 Y70.666
X128.744 Y71.344
X128.881 Y72.031
X128.982 Y72.724
X129.044 Y73.423
X129.069 Y74.124
X129.056 Y74.826
X129.004 Y75.526
X128.915 Y76.223
X128.788 Y76.915
X128.623 Y77.599
X128.422 Y78.274
X128.184 Y78.938
X127.91 Y79.588
X127.601 Y80.223
X127.258 Y80.841
X126.881 Y81.441
X126.471 Y82.02
X126.031 Y82.576
X125.56 Y83.109
X125.06 Y83.616
X124.533 Y84.096
X123.979 Y84.547
X123.401 Y84.969
X122.8 Y85.359
X122.177 Y85.717
X121.535 Y86.041
X120.875 Y86.33
X120.199 Y86.584
X119.508 Y86.801
X118.806 Y86.98
X118.094 Y87.122
X117.373 Y87.225
X116.646 Y87.288
X115.916 Y87.313
X115.184 Y87.298
X114.452 Y87.243
X113.722 Y87.148
X112.998 Y87.013
X112.28 Y86.84
X111.571 Y86.627
X110.874 Y86.375
X110.19 Y86.086
X109.521 Y85.759
X108.87 Y85.395
X108.238 Y84.997
X107.627 Y84.563
X107.04 Y84.097
X106.478 Y83.598
X105.943 Y83.069
X105.437 Y82.511
X104.961 Y81.925
X104.516 Y81.313
X104.105 Y80.677
X103.729 Y80.019
X103.388 Y79.34
X103.084 Y78.643
X102.817 Y77.929
X102.59 Y77.202
X102.402 Y76.462
X102.255 Y75.712
X102.148 Y74.954
X102.082 Y74.191
X102.058 Y73.424
X102.075 Y72.657
X102.134 Y71.891
X102.234 Y71.128
X102.376 Y70.372
X102.559 Y69.624
X102.782 Y68.886
X103.045 Y68.16
X103.347 Y67.45
X103.688 Y66.756
X104.065 Y66.082
X104.479 Y65.428
X104.929 Y64.798
X105.411 Y64.193
X105.927 Y63.614
X106.473 Y63.064
X107.049 Y62.543
X107.652 Y62.055
X108.281 Y61.599
X108.935 Y61.178
X109.611 Y60.793
X110.308 Y60.444
X111.024 Y60.134
X111.757 Y59.862
X112.505 Y59.629
X113.266 Y59.438
X114.039 Y59.287
X114.819 Y59.178
X115.607 Y59.112
X116.399 Y59.088
X117.194 Y59.107
X117.988 Y59.17
X118.78 Y59.276
X119.567 Y59.425
X120.346 Y59.616
X121.117 Y59.851
X121.875 Y60.127
X122.619 Y60.445
X123.346 Y60.804
X124.054 Y61.202
X124.741 Y61.639
X125.404 Y62.113
X126.042 Y62.624
X126.652 Y63.169
X127.233 Y63.747
X127.782 Y64.357
X128.297 Y64.996
X128.778 Y65.663
X129.223 Y66.356
X129.629 Y67.072
X129.997 Y67.81
X130.324 Y68.568
X130.61 Y69.342
X130.853 Y70.132
X131.054 Y70.934
X131.211 Y71.746
X131.324 Y72.566
X131.392 Y73.391
X131.415 Y74.219
X131.393 Y75.048
X131.327 Y75.875
X131.216 Y76.698
X131.06 Y77.514
X130.86 Y78.321
X130.616 Y79.117
X130.329 Y79.899
X130 Y80.665
X129.63 Y81.413
X129.219 Y82.14
X128.769 Y82.845
X128.281 Y83.525
X127.756 Y84.178
X127.196 Y84.803
X126.602 Y85.398
X125.975 Y85.96
X125.318 Y86.488
X124.633 Y86.98
X123.921 Y87.435
X123.184 Y87.852
X122.424 Y88.228
X121.644 Y88.564
X120.845 Y88.857
X120.03 Y89.107
X119.202 Y89.312
X118.362 Y89.473
X117.513 Y89.588
X116.657 Y89.658
X115.798 Y89.68
X114.937 Y89.656
X114.077 Y89.586
X113.221 Y89.468
X112.371 Y89.304
X111.529 Y89.094
X110.699 Y88.838
X109.883 Y88.537
X109.082 Y88.192
X108.3 Y87.803
X107.539 Y87.371
X106.802 Y86.898
X106.09 Y86.386
X105.405 Y85.834
X104.751 Y85.245
X104.129 Y84.621
X103.54 Y83.963
X102.988 Y83.273
X102.472 Y82.553
X101.996 Y81.805
X101.561 Y81.031
X101.168 Y80.234
X100.818 Y79.416
X100.512 Y78.58
X100.252 Y77.726
X100.039 Y76.86
X99.872 Y75.981
X99.754 Y75.095
X99.683 Y74.202
X99.661 Y73.306
X99.687 Y72.409
X99.763 Y71.514
X99.886 Y70.624
X100.058 Y69.742
X100.278 Y68.869
X100.544 Y68.009
X100.858 Y67.163
X101.216 Y66.336
X101.62 Y65.529
X102.067 Y64.744
X102.556 Y63.984
X103.085 Y63.252
X103.654 Y62.548
X104.261 Y61.877
X104.904 Y61.238
X105.581 Y60.635
X106.29 Y60.069
X107.029 Y59.542
X107.797 Y59.055
X108.591 Y58.61
X109.408 Y58.208
X110.248 Y57.851
X111.107 Y57.539
X111.984 Y57.274
X112.874 Y57.056
X113.778 Y56.886
X114.69 Y56.766
X115.61 Y56.695
X116.535 Y56.673
X117.461 Y56.702
X118.386 Y56.782
X119.307 Y56.911
X120.222 Y57.091
X121.128 Y57.321
X122.021 Y57.6
X122.901 Y57.927
X123.762 Y58.303
X124.604 Y58.725
X125.423 Y59.193
X126.216 Y59.706
X126.982 Y60.262
X127.718 Y60.859
X128.421 Y61.497
X129.09 Y62.172
X129.721 Y62.883
X130.314 Y63.629
X130.866 Y64.406
X131.376 Y65.213
X131.841 Y66.047
X132.261 Y66.905
X132.634 Y67.786
X132.959 Y68.686
X133.235 Y69.603
X133.461 Y70.535
X133.637 Y71.478
X133.761 Y72.429
X133.833 Y73.387
X133.853 Y74.347
X133.822 Y75.308
X133.738 Y76.266
X133.602 Y77.219
X133.414 Y78.164
X133.176 Y79.099
X132.887 Y80.019
X132.548 Y80.923
X132.161 Y81.809
X131.725 Y82.672
X131.243 Y83.512
X130.716 Y84.325
X130.144 Y85.109
X129.531 Y85.862
X128.877 Y86.582
X128.184 Y87.265
X127.454 Y87.911
X126.689 Y88.517
X125.891 Y89.082
X125.063 Y89.603
X124.206 Y90.079
X123.324 Y90.509
X122.419 Y90.89
X121.493 Y91.223
X120.549 Y91.505
X119.589 Y91.736
X118.617 Y91.915
X117.635 Y92.041
X116.646 Y92.114
X115.653 Y92.133
X114.659 Y92.099
X113.667 Y92.01
X112.68 Y91.868
X111.7 Y91.672
X110.731 Y91.422
X109.775 Y91.12
X108.835 Y90.767
X107.915 Y90.362
X107.017 Y89.907
X106.144 Y89.404
X105.298 Y88.853
X104.481 Y88.256
X103.698 Y87.615
X102.949 Y86.932
X102.237 Y86.208
X101.565 Y85.445
X100.935 Y84.646
X100.347 Y83.814
X99.806 Y82.949
X99.311 Y82.056
X98.865 Y81.136
X98.469 Y80.192
X98.124 Y79.227
X97.832 Y78.244
X97.594 Y77.245
X97.41 Y76.235
X97.376 Y75.971
X97.362 Y75.833
X97.353 Y75.695
X97.35 Y75.556
Y73.129
X97.415 Y71.839
X97.477 Y70.947
X97.591 Y70.034
X97.758 Y69.107
X97.979 Y68.174
X98.255 Y67.239
X98.585 Y66.31
X98.968 Y65.391
X99.404 Y64.487
X99.892 Y63.602
X100.43 Y62.74
X101.017 Y61.904
X101.65 Y61.099
X102.329 Y60.326
X103.05 Y59.589
X103.812 Y58.891
X104.613 Y58.234
X105.45 Y57.619
X106.32 Y57.05
X107.222 Y56.528
X108.153 Y56.055
X109.109 Y55.632
X110.089 Y55.261
X110.892 Y55.005
X111.22 Y54.919
X111.554 Y54.867
X111.893 Y54.85
X118.634
X119.797 Y54.908
X120.554 Y54.987
X121.322 Y55.11
X122.13 Y55.285
X122.969 Y55.514
X123.829 Y55.8
X124.701 Y56.144
X125.574 Y56.544
X126.438 Y56.998
X127.29 Y57.506
X128.125 Y58.068
X128.942 Y58.684
X129.734 Y59.353
X130.497 Y60.071
X131.227 Y60.836
X131.918 Y61.645
X132.568 Y62.494
X133.174 Y63.382
X133.733 Y64.304
X134.243 Y65.259
X134.701 Y66.242
X135.106 Y67.25
X135.456 Y68.28
X135.751 Y69.33
X135.989 Y70.395
X136.168 Y71.473
X136.289 Y72.561
X136.351 Y73.654
X136.354 Y74.75
X136.297 Y75.845
X136.181 Y76.936
X136.006 Y78.021
X135.772 Y79.095
X135.48 Y80.156
X135.13 Y81.2
X134.724 Y82.225
X134.263 Y83.227
X133.748 Y84.203
X133.18 Y85.151
X132.561 Y86.067
X131.893 Y86.95
X131.177 Y87.795
X130.415 Y88.602
X129.61 Y89.367
X128.764 Y90.088
X127.879 Y90.763
X126.957 Y91.389
X126.002 Y91.966
X125.767 Y92.067
X125.518 Y92.129
X125.263 Y92.15
X109.111
X108.675 Y92.128
X108.251 Y92.084
X107.763 Y92.006
X107.265 Y91.898
X106.696 Y91.743
X106.12 Y91.551
X105.496 Y91.305
X104.825 Y90.998
X104.155 Y90.646
X103.46 Y90.231
X102.74 Y89.746
X102.007 Y89.193
X101.279 Y88.58
X100.573 Y87.914
X99.883 Y87.191
X99.212 Y86.406
X98.568 Y85.565
X97.959 Y84.673
X97.828 Y84.456
X97.622 Y84.057
X97.472 Y83.633
X97.381 Y83.194
X97.35 Y82.746
Y75.556
Y75.058
Y73.628
Y73.129
Y66.273
X97.374 Y65.796
X97.419 Y65.363
X97.494 Y64.892
X97.606 Y64.374
X97.754 Y63.834
X97.956 Y63.228
X98.196 Y62.618
X98.495 Y61.964
X98.862 Y61.266
X99.282 Y60.563
X99.759 Y59.854
X100.308 Y59.126
X100.928 Y58.392
X101.613 Y57.663
X102.36 Y56.951
X103.16 Y56.267
X104.01 Y55.617
X104.292 Y55.424
X104.719 Y55.177
X105.179 Y54.997
X105.66 Y54.887
X106.152 Y54.85
X111.893
G3 X112.375 Y54.964 I-0.044 J1.269
X112.619 Y57.128 I-0.527 J1.156
G1 X99.39 Y67.238
G3 X97.464 Y66.756 I-0.771 J-1.009
X97.35 Y66.273 I1.156 J-0.527
G1 Y62.255
X97.369 Y61.867
X97.403 Y61.545
X97.464 Y61.167
X97.546 Y60.783
X97.668 Y60.337
X97.818 Y59.888
X98.019 Y59.378
X98.257 Y58.858
X98.551 Y58.298
X98.911 Y57.695
X99.312 Y57.099
X99.79 Y56.466
X100.244 Y55.928
X100.281 Y55.889
X100.609 Y55.584
X100.976 Y55.326
X101.375 Y55.121
X101.798 Y54.971
X102.237 Y54.88
X102.684 Y54.85
G3 X103.7 Y56.819 I-0.044 J1.269
G1 X99.679 Y62.91
G3 X97.35 Y62.255 I-1.06 J-0.7
G1 Y58.827
X97.365 Y58.522
X97.397 Y58.223
X97.447 Y57.907
X97.521 Y57.565
X97.606 Y57.254
X97.715 Y56.926
X97.829 Y56.638
X98.038 Y56.255
X98.3 Y55.905
X98.609 Y55.597
X98.959 Y55.335
X99.343 Y55.126
X99.752 Y54.974
X100.178 Y54.881
X100.614 Y54.85
G3 X101.594 Y56.87 I-0.044 J1.269
G1 X99.644 Y59.533
G3 X97.35 Y58.827 I-1.025 J-0.75
G1 Y56.542
X97.357 Y56.392
X97.433 Y56.04
X97.58 Y55.711
X97.792 Y55.42
X98.061 Y55.179
X98.373 Y54.999
X98.715 Y54.888
X99.074 Y54.85
G3 X100.595 Y56.931 I-0.057 J1.638
X97.35 Y56.542 I-1.592 J-0.447
G1 Y56.37
X97.358 Y55.989
X97.394 Y55.799
X97.462 Y55.609
X97.554 Y55.441
X97.684 Y55.273
X97.727 Y55.228
X97.896 Y55.085
X98.064 Y54.984
X98.255 Y54.907
X98.445 Y54.864
X98.826 Y54.85
X106.152
X106.164 Y54.851
X106.248 Y54.867 Z-9.98
X106.329 Y54.882 Z-9.957
X106.404 Y54.897 Z-9.919
X106.472 Y54.91 Z-9.869
X106.531 Y54.921 Z-9.808
X106.579 Y54.93 Z-9.737
X106.614 Y54.936 Z-9.659
X106.635 Y54.94 Z-9.577
X106.642 Y54.942 Z-9.491
G0 Z5
X118.152 Y54.964
Z-8.72
G1 Z-9.99 F849.6
G3 X118.634 Y54.85 I0.527 J1.156
G1 X124.348
X124.92 Y54.879
X125.314 Y54.92
X125.775 Y54.993
X126.243 Y55.095
X126.782 Y55.242
X127.327 Y55.423
X127.927 Y55.66
X128.569 Y55.954
X129.212 Y56.292
X129.9 Y56.702
X130.619 Y57.186
X131.334 Y57.726
X132.044 Y58.325
X132.761 Y59
X133.472 Y59.745
X134.167 Y60.557
X134.834 Y61.43
X135.468 Y62.358
X136.061 Y63.336
X136.606 Y64.358
X137.101 Y65.419
X137.541 Y66.516
X137.925 Y67.645
X138.25 Y68.801
X138.513 Y69.981
X138.712 Y71.179
X138.847 Y72.391
X138.917 Y73.613
X138.92 Y74.841
X138.856 Y76.07
X138.726 Y77.295
X138.529 Y78.514
X138.266 Y79.722
X137.937 Y80.916
X137.544 Y82.091
X137.087 Y83.245
X136.568 Y84.373
X135.987 Y85.472
X135.348 Y86.539
X134.651 Y87.571
X133.898 Y88.565
X133.092 Y89.517
X132.234 Y90.426
X131.328 Y91.287
X131.24 Y91.362
X130.865 Y91.638
X130.456 Y91.859
X130.019 Y92.019
X129.564 Y92.117
X129.1 Y92.15
X125.263
X125.178 Y92.136 Z-9.982
X125.096 Y92.123 Z-9.96
X125.019 Y92.111 Z-9.924
X124.949 Y92.099 Z-9.875
X124.891 Y92.078 Z-9.814
X124.844 Y92.06 Z-9.742
X124.809 Y92.047 Z-9.663
X124.787 Y92.039 Z-9.579
X124.78 Y92.036 Z-9.491
G0 Z5
X123.858 Y54.942
Z-8.72
G1 Z-9.99 F849.6
G2 X124.336 Y54.851 I-8.608 J-46.832
G1 X124.348 Y54.85
X128.157
X128.717 Y54.878
X129.035 Y54.911
X129.403 Y54.97
X129.781 Y55.052
X130.213 Y55.17
X130.657 Y55.318
X131.148 Y55.511
X131.667 Y55.749
X132.208 Y56.033
X132.803 Y56.388
X133.392 Y56.785
X134.016 Y57.256
X134.674 Y57.811
X135.327 Y58.425
X135.974 Y59.103
X136.629 Y59.87
X137.279 Y60.719
X137.91 Y61.643
X138.509 Y62.633
X139.065 Y63.673
X139.574 Y64.764
X140.036 Y65.914
X140.444 Y67.114
X140.793 Y68.358
X141.074 Y69.619
X141.287 Y70.893
X141.433 Y72.177
X141.512 Y73.466
X141.523 Y74.758
X141.468 Y76.049
X141.347 Y77.336
X141.161 Y78.614
X140.909 Y79.882
X140.594 Y81.134
X140.215 Y82.37
X139.774 Y83.584
X139.272 Y84.775
X138.709 Y85.938
X138.087 Y87.07
X137.409 Y88.17
X136.676 Y89.234
X135.9 Y90.248
X135.306 Y90.942
X135.128 Y91.128
X134.8 Y91.428
X134.435 Y91.682
X134.039 Y91.884
X133.62 Y92.031
X133.184 Y92.12
X132.741 Y92.15
X129.1
G3 X128.617 Y92.036 I0.044 J-1.269
X127.875 Y90.915 I0.527 J-1.156
G1 X126.932 Y56.154
G3 X128.157 Y54.85 I1.27 J-0.034
G1 X131.585
X132.014 Y54.871
X132.307 Y54.902
X132.622 Y54.953
X132.975 Y55.029
X133.348 Y55.131
X133.757 Y55.267
X134.192 Y55.438
X134.651 Y55.649
X135.156 Y55.914
X135.66 Y56.215
X136.218 Y56.59
X136.783 Y57.017
X137.367 Y57.509
X137.986 Y58.092
X138.605 Y58.74
X139.212 Y59.451
X139.83 Y60.258
X140.443 Y61.157
X141.039 Y62.14
X141.594 Y63.179
X142.108 Y64.281
X142.583 Y65.463
X142.999 Y66.686
X143.349 Y67.93
X143.635 Y69.19
X143.858 Y70.463
X144.019 Y71.745
X144.117 Y73.033
X144.154 Y74.324
X144.13 Y75.616
X144.044 Y76.906
X143.898 Y78.189
X143.691 Y79.465
X143.425 Y80.729
X143.101 Y81.98
X142.719 Y83.214
X142.28 Y84.429
X141.786 Y85.623
X141.238 Y86.793
X140.637 Y87.937
X139.984 Y89.052
X139.395 Y89.95
X138.932 Y90.58
X138.63 Y90.947
X138.295 Y91.297
X137.913 Y91.595
X137.491 Y91.834
X137.038 Y92.008
X136.565 Y92.114
X136.082 Y92.15
X132.741
G3 X131.516 Y90.923 I0.044 J-1.269
G1 X130.36 Y56.161
G3 X131.585 Y54.85 I1.269 J-0.042
G1 X134.633
X135.091 Y54.873
X135.355 Y54.901
X135.662 Y54.95
X135.976 Y55.017
X136.339 Y55.117
X136.707 Y55.239
X137.124 Y55.403
X137.549 Y55.598
X138.011 Y55.841
X138.501 Y56.134
X139.002 Y56.47
X139.552 Y56.886
X140.094 Y57.343
X140.667 Y57.882
X141.269 Y58.514
X141.852 Y59.195
X142.439 Y59.962
X143.033 Y60.833
X143.619 Y61.799
X144.174 Y62.839
X144.69 Y63.945
X145.17 Y65.141
X145.586 Y66.364
X145.939 Y67.607
X146.229 Y68.866
X146.459 Y70.138
X146.629 Y71.419
X146.741 Y72.706
X146.796 Y73.997
X146.793 Y75.289
X146.734 Y76.579
X146.619 Y77.866
X146.448 Y79.147
X146.221 Y80.419
X145.939 Y81.68
X145.604 Y82.928
X145.216 Y84.16
X144.776 Y85.375
X144.286 Y86.57
X143.745 Y87.744
X143.152 Y88.892
X142.656 Y89.736
X142.248 Y90.352
X141.874 Y90.854
X141.787 Y90.96
X141.452 Y91.307
X141.071 Y91.602
X140.651 Y91.838
X140.2 Y92.01
X139.73 Y92.115
X139.249 Y92.15
X136.082
G3 X134.857 Y90.934 I0.044 J-1.269
G1 X133.408 Y56.172
G3 X134.633 Y54.85 I1.269 J-0.053
G1 X137.68
X138.009 Y54.866
X138.271 Y54.894
X138.556 Y54.939
X138.869 Y55.007
X139.204 Y55.098
X139.57 Y55.22
X139.956 Y55.372
X140.381 Y55.567
X140.809 Y55.792
X141.288 Y56.078
X141.763 Y56.398
X142.279 Y56.787
X142.82 Y57.244
X143.358 Y57.75
X143.934 Y58.353
X144.516 Y59.034
X145.079 Y59.77
X145.657 Y60.617
X146.231 Y61.565
X146.785 Y62.603
X147.304 Y63.715
X147.786 Y64.914
X148.202 Y66.138
X148.556 Y67.38
X148.849 Y68.639
X149.084 Y69.909
X149.262 Y71.189
X149.384 Y72.475
X149.451 Y73.765
X149.465 Y75.057
X149.425 Y76.349
X149.333 Y77.638
X149.189 Y78.922
X148.993 Y80.199
X148.746 Y81.467
X148.449 Y82.724
X148.102 Y83.969
X147.706 Y85.199
X147.261 Y86.412
X146.767 Y87.606
X146.246 Y88.715
X145.809 Y89.527
X145.44 Y90.133
X145.072 Y90.668
X144.923 Y90.863
X144.587 Y91.237
X144.198 Y91.555
X143.765 Y91.811
X143.298 Y91.998
X142.809 Y92.112
X142.308 Y92.15
X139.249
G3 X138.025 Y90.938 I0.044 J-1.269
G1 X136.456 Y56.177
G3 X137.198 Y54.964 I1.269 J-0.057
X137.68 Y54.85 I0.527 J1.156
G1 X140.556
X140.851 Y54.865
X141.113 Y54.892
X141.384 Y54.936
X141.695 Y55.003
X142.012 Y55.089
X142.376 Y55.21
X142.742 Y55.355
X143.158 Y55.545
X143.575 Y55.764
X144.032 Y56.037
X144.506 Y56.356
X144.997 Y56.727
X145.532 Y57.178
X146.052 Y57.667
X146.607 Y58.249
X147.185 Y58.925
X147.735 Y59.645
X148.302 Y60.474
X148.868 Y61.409
X149.419 Y62.441
X149.94 Y63.56
X150.422 Y64.759
X150.839 Y65.981
X151.194 Y67.224
X151.49 Y68.482
X151.728 Y69.751
X151.912 Y71.03
X152.042 Y72.316
X152.119 Y73.606
X152.145 Y74.897
X152.121 Y76.189
X152.047 Y77.479
X151.924 Y78.765
X151.753 Y80.046
X151.534 Y81.319
X151.268 Y82.584
X150.955 Y83.837
X150.595 Y85.078
X150.187 Y86.304
X149.728 Y87.512
X149.254 Y88.591
X148.846 Y89.398
X148.501 Y89.997
X148.151 Y90.535
X147.961 Y90.796
X147.677 Y91.135
X147.349 Y91.433
X146.985 Y91.685
X146.59 Y91.886
X146.172 Y92.032
X145.738 Y92.12
X145.296 Y92.15
X142.308
G3 X141.825 Y92.036 I0.044 J-1.269
X141.084 Y90.945 I0.527 J-1.156
G1 X139.332 Y56.183
G3 X140.074 Y54.964 I1.268 J-0.064
X140.556 Y54.85 I0.527 J1.156
G1 X143.394
X143.637 Y54.862
X143.896 Y54.889
X144.161 Y54.932
X144.467 Y54.998
X144.778 Y55.083
X145.134 Y55.201
X145.494 Y55.343
X145.899 Y55.528
X146.313 Y55.746
X146.755 Y56.01
X147.23 Y56.329
X147.705 Y56.688
X148.228 Y57.129
X148.743 Y57.614
X149.284 Y58.181
X149.855 Y58.849
X150.401 Y59.563
X150.959 Y60.38
X151.52 Y61.306
X152.068 Y62.333
X152.592 Y63.456
X153.074 Y64.655
X153.491 Y65.878
X153.848 Y67.12
X154.145 Y68.377
X154.388 Y69.646
X154.576 Y70.925
X154.712 Y72.209
X154.798 Y73.499
X154.835 Y74.79
X154.824 Y76.082
X154.765 Y77.373
X154.66 Y78.661
X154.509 Y79.944
X154.313 Y81.221
X154.073 Y82.49
X153.787 Y83.751
X153.456 Y84.999
X153.075 Y86.234
X152.642 Y87.451
X152.202 Y88.505
X151.815 Y89.307
X151.474 Y89.924
X151.16 Y90.427
X150.835 Y90.89
X150.499 Y91.257
X150.112 Y91.568
X149.683 Y91.818
X149.221 Y92.001
X148.736 Y92.113
X148.241 Y92.15
X145.296
G3 X144.814 Y92.036 I0.044 J-1.269
X144.072 Y90.95 I0.527 J-1.156
G1 X142.17 Y56.189
G3 X143.394 Y54.85 I1.268 J-0.069
G1 X146.06
X146.396 Y54.867
X146.651 Y54.893
X146.913 Y54.935
X147.213 Y55
X147.522 Y55.085
X147.869 Y55.2
X148.228 Y55.342
X148.623 Y55.522
X149.037 Y55.74
X149.469 Y55.998
X149.941 Y56.315
X150.406 Y56.667
X150.919 Y57.099
X151.434 Y57.584
X151.965 Y58.14
X152.529 Y58.801
X153.074 Y59.513
X153.626 Y60.321
X154.183 Y61.241
X154.731 Y62.266
X155.256 Y63.393
X155.738 Y64.592
X156.156 Y65.815
X156.514 Y67.056
X156.814 Y68.313
X157.059 Y69.581
X157.252 Y70.859
X157.394 Y72.143
X157.488 Y73.432
X157.534 Y74.723
X157.533 Y76.015
X157.488 Y77.306
X157.398 Y78.595
X157.264 Y79.88
X157.087 Y81.16
X156.867 Y82.434
X156.604 Y83.698
X156.294 Y84.953
X155.935 Y86.194
X155.52 Y87.417
X155.097 Y88.471
X154.743 Y89.232
X154.415 Y89.847
X154.095 Y90.376
X153.803 Y90.805
X153.765 Y90.854
X153.429 Y91.23
X153.039 Y91.551
X152.606 Y91.808
X152.137 Y91.997
X151.646 Y92.111
X151.143 Y92.15
X148.241
G3 X147.759 Y92.036 I0.044 J-1.269
X147.018 Y90.96 I0.527 J-1.156
G1 X144.837 Y56.199
G3 X146.06 Y54.85 I1.268 J-0.08
G1 X148.727
X149.127 Y54.87
X149.377 Y54.896
X149.639 Y54.938
X149.935 Y55.002
X150.243 Y55.086
X150.584 Y55.2
X150.944 Y55.341
X151.331 Y55.519
X151.746 Y55.737
X152.171 Y55.99
X152.64 Y56.306
X153.102 Y56.654
X153.607 Y57.081
X154.123 Y57.566
X154.647 Y58.115
X155.207 Y58.771
X155.752 Y59.482
X156.3 Y60.286
X156.856 Y61.203
X157.403 Y62.228
X157.93 Y63.359
X158.412 Y64.558
X158.831 Y65.781
X159.19 Y67.022
X159.492 Y68.278
X159.741 Y69.546
X159.938 Y70.823
X160.086 Y72.106
X160.186 Y73.394
X160.241 Y74.685
X160.25 Y75.977
X160.216 Y77.269
X160.139 Y78.559
X160.02 Y79.845
X159.859 Y81.127
X159.655 Y82.403
X159.409 Y83.671
X159.116 Y84.93
X158.773 Y86.176
X158.374 Y87.395
X157.976 Y88.419
X157.634 Y89.177
X157.317 Y89.788
X157.004 Y90.318
X156.717 Y90.748
X156.66 Y90.825
X156.376 Y91.157
X156.049 Y91.449
X155.687 Y91.696
X155.296 Y91.892
X154.882 Y92.034
X154.453 Y92.121
X154.016 Y92.15
X151.143
G3 X150.661 Y92.036 I0.044 J-1.269
X149.92 Y90.969 I0.527 J-1.156
G1 X147.504 Y56.207
G3 X148.244 Y54.964 I1.267 J-0.088
X148.727 Y54.85 I0.527 J1.156
G1 X151.603
X151.826 Y54.861
X152.076 Y54.887
X152.337 Y54.929
X152.632 Y54.993
X152.94 Y55.077
X153.279 Y55.19
X153.638 Y55.331
X154.023 Y55.508
X154.438 Y55.726
X154.86 Y55.978
X155.328 Y56.292
X155.788 Y56.64
X156.291 Y57.064
X156.806 Y57.549
X157.327 Y58.095
X157.886 Y58.749
X158.43 Y59.46
X158.978 Y60.263
X159.534 Y61.181
X160.083 Y62.208
X160.613 Y63.345
X161.095 Y64.544
X161.514 Y65.766
X161.875 Y67.007
X162.179 Y68.263
X162.431 Y69.53
X162.633 Y70.806
X162.786 Y72.089
X162.893 Y73.377
X162.955 Y74.667
X162.973 Y75.959
X162.949 Y77.251
X162.884 Y78.541
X162.777 Y79.829
X162.629 Y81.112
X162.439 Y82.39
X162.205 Y83.661
X161.926 Y84.923
X161.594 Y86.172
X161.21 Y87.38
X160.831 Y88.38
X160.493 Y89.145
X160.19 Y89.742
X159.884 Y90.27
X159.59 Y90.72
X159.53 Y90.802
X159.245 Y91.14
X158.918 Y91.437
X158.554 Y91.687
X158.16 Y91.887
X157.743 Y92.032
X157.31 Y92.12
X156.869 Y92.15
X154.016
G3 X153.534 Y92.036 I0.044 J-1.269
X152.794 Y90.969 I0.527 J-1.156
G1 X150.38 Y56.207
G3 X151.12 Y54.964 I1.267 J-0.088
X151.603 Y54.85 I0.527 J1.156
G1 X154.269
X154.532 Y54.863
X154.779 Y54.889
X155.04 Y54.931
X155.333 Y54.994
X155.641 Y55.078
X155.977 Y55.19
X156.336 Y55.332
X156.718 Y55.506
X157.133 Y55.724
X157.552 Y55.975
X158.018 Y56.288
X158.477 Y56.635
X158.978 Y57.057
X159.493 Y57.542
X160.012 Y58.086
X160.571 Y58.739
X161.115 Y59.451
X161.663 Y60.254
X162.22 Y61.173
X162.771 Y62.204
X163.304 Y63.348
X163.786 Y64.547
X164.206 Y65.769
X164.568 Y67.009
X164.875 Y68.264
X165.13 Y69.531
X165.336 Y70.806
X165.494 Y72.089
X165.607 Y73.376
X165.676 Y74.666
X165.702 Y75.958
X165.687 Y77.25
X165.631 Y78.541
X165.534 Y79.829
X165.397 Y81.114
X165.217 Y82.393
X164.994 Y83.666
X164.724 Y84.93
X164.402 Y86.181
X164.031 Y87.373
X163.665 Y88.358
X163.335 Y89.118
X163.038 Y89.712
X162.737 Y90.239
X162.447 Y90.689
X162.378 Y90.785
X162.093 Y91.127
X161.765 Y91.428
X161.4 Y91.681
X161.004 Y91.884
X160.584 Y92.031
X160.148 Y92.12
X159.705 Y92.15
X156.869
G3 X156.387 Y92.036 I0.044 J-1.269
X155.647 Y90.976 I0.527 J-1.156
G1 X153.047 Y56.214
G3 X154.269 Y54.85 I1.266 J-0.095
G1 X156.936
X157.229 Y54.865
X157.475 Y54.89
X157.736 Y54.932
X158.027 Y54.995
X158.336 Y55.079
X158.67 Y55.191
X159.03 Y55.332
X159.41 Y55.507
X159.824 Y55.724
X160.243 Y55.974
X160.708 Y56.287
X161.167 Y56.633
X161.666 Y57.055
X162.182 Y57.539
X162.701 Y58.084
X163.26 Y58.738
X163.804 Y59.449
X164.353 Y60.254
X164.912 Y61.176
X165.465 Y62.212
X166.002 Y63.364
X166.484 Y64.563
X166.905 Y65.785
X167.268 Y67.024
X167.577 Y68.279
X167.836 Y69.545
X168.045 Y70.82
X168.208 Y72.102
X168.327 Y73.388
X168.402 Y74.678
X168.435 Y75.97
X168.428 Y77.262
X168.38 Y78.553
X168.292 Y79.842
X168.163 Y81.127
X167.992 Y82.408
X167.777 Y83.682
X167.514 Y84.947
X167.198 Y86.2
X166.839 Y87.374
X166.483 Y88.347
X166.159 Y89.102
X165.867 Y89.693
X165.57 Y90.219
X165.283 Y90.668
X165.208 Y90.773
X164.924 Y91.118
X164.595 Y91.421
X164.229 Y91.677
X163.831 Y91.881
X163.41 Y92.03
X162.972 Y92.12
X162.526 Y92.15
X159.705
G3 X159.222 Y92.036 I0.044 J-1.269
X158.483 Y90.982 I0.527 J-1.156
G1 X155.714 Y56.22
G3 X156.453 Y54.964 I1.266 J-0.101
X156.936 Y54.85 I0.527 J1.156
G1 X159.602
X159.922 Y54.866
X160.168 Y54.892
X160.428 Y54.933
X160.719 Y54.996
X161.028 Y55.081
X161.362 Y55.192
X161.721 Y55.333
X162.101 Y55.507
X162.515 Y55.725
X162.933 Y55.975
X163.399 Y56.288
X163.857 Y56.634
X164.357 Y57.055
X164.872 Y57.54
X165.393 Y58.086
X165.953 Y58.741
X166.498 Y59.453
X167.049 Y60.261
X167.61 Y61.187
X168.167 Y62.229
X168.708 Y63.389
X169.189 Y64.588
X169.61 Y65.81
X169.975 Y67.049
X170.287 Y68.303
X170.548 Y69.568
X170.761 Y70.843
X170.929 Y72.124
X171.052 Y73.41
X171.133 Y74.7
X171.173 Y75.991
X171.172 Y77.283
X171.13 Y78.574
X171.049 Y79.864
X170.927 Y81.15
X170.763 Y82.432
X170.554 Y83.707
X170.297 Y84.973
X169.985 Y86.227
X169.636 Y87.382
X169.288 Y88.345
X168.969 Y89.095
X168.68 Y89.682
X168.387 Y90.206
X168.103 Y90.655
X168.025 Y90.764
X167.741 Y91.111
X167.412 Y91.416
X167.045 Y91.674
X166.646 Y91.879
X166.224 Y92.029
X165.785 Y92.12
X165.337 Y92.15
X162.526
G3 X161.305 Y90.987 I0.044 J-1.269
G1 X158.381 Y56.226
G3 X159.12 Y54.964 I1.266 J-0.106
X159.602 Y54.85 I0.527 J1.156
G1 X162.268
X162.613 Y54.867
X162.859 Y54.893
X163.12 Y54.935
X163.41 Y54.997
X163.719 Y55.082
X164.053 Y55.193
X164.412 Y55.335
X164.793 Y55.509
X165.207 Y55.727
X165.625 Y55.976
X166.091 Y56.29
X166.55 Y56.636
X167.051 Y57.059
X167.566 Y57.543
X168.088 Y58.091
X168.651 Y58.749
X169.196 Y59.461
X169.75 Y60.273
X170.314 Y61.204
X170.874 Y62.252
X171.419 Y63.421
X171.901 Y64.62
X172.323 Y65.841
X172.689 Y67.08
X173.002 Y68.334
X173.266 Y69.599
X173.483 Y70.872
X173.654 Y72.153
X173.782 Y73.439
X173.868 Y74.728
X173.913 Y76.019
X173.917 Y77.311
X173.882 Y78.603
X173.806 Y79.893
X173.69 Y81.179
X173.531 Y82.462
X173.327 Y83.738
X173.074 Y85.005
X172.766 Y86.259
X172.425 Y87.395
X172.082 Y88.349
X171.767 Y89.095
X171.482 Y89.679
X171.192 Y90.199
X170.909 Y90.648
X170.831 Y90.758
X170.547 Y91.106
X170.218 Y91.413
X169.851 Y91.671
X169.451 Y91.878
X169.028 Y92.028
X168.588 Y92.119
X168.139 Y92.15
X165.337
G3 X164.855 Y92.036 I0.044 J-1.269
X164.116 Y90.992 I0.527 J-1.156
G1 X161.048 Y56.231
G3 X162.268 Y54.85 I1.265 J-0.112
G1 X164.935
X165.305 Y54.869
X165.551 Y54.894
X165.812 Y54.936
X166.103 Y54.999
X166.411 Y55.083
X166.746 Y55.194
X167.105 Y55.336
X167.486 Y55.511
X167.901 Y55.728
X168.32 Y55.979
X168.786 Y56.292
X169.246 Y56.639
X169.748 Y57.063
X170.264 Y57.548
X170.788 Y58.098
X171.354 Y58.76
X171.899 Y59.472
X172.456 Y60.289
X173.024 Y61.225
X173.587 Y62.279
X174.133 Y63.451
X174.615 Y64.649
X175.038 Y65.87
X175.406 Y67.109
X175.721 Y68.362
X175.988 Y69.626
X176.208 Y70.899
X176.383 Y72.179
X176.515 Y73.464
X176.606 Y74.753
X176.655 Y76.044
X176.665 Y77.336
X176.634 Y78.628
X176.563 Y79.918
X176.451 Y81.205
X176.297 Y82.488
X176.097 Y83.765
X175.848 Y85.032
X175.542 Y86.288
X175.209 Y87.408
X174.87 Y88.355
X174.558 Y89.096
X174.276 Y89.677
X173.989 Y90.195
X173.708 Y90.643
X173.629 Y90.754
X173.345 Y91.103
X173.016 Y91.41
X172.648 Y91.67
X172.248 Y91.877
X171.824 Y92.028
X171.383 Y92.119
X170.934 Y92.15
X168.139
G3 X166.919 Y90.997 I0.044 J-1.269
G1 X163.715 Y56.236
G3 X164.935 Y54.85 I1.265 J-0.117
G1 X167.773
X167.988 Y54.861
X168.235 Y54.887
X168.496 Y54.928
X168.789 Y54.992
X169.097 Y55.076
X169.434 Y55.188
X169.793 Y55.33
X170.177 Y55.505
X170.591 Y55.723
X171.012 Y55.974
X171.48 Y56.289
X171.941 Y56.637
X172.447 Y57.064
X172.962 Y57.549
X173.49 Y58.102
X174.058 Y58.767
X174.605 Y59.481
X175.166 Y60.303
X175.737 Y61.245
X176.304 Y62.307
X176.85 Y63.478
X177.332 Y64.677
X177.757 Y65.897
X178.126 Y67.135
X178.444 Y68.387
X178.714 Y69.651
X178.937 Y70.924
X179.115 Y72.203
X179.251 Y73.488
X179.346 Y74.777
X179.399 Y76.068
X179.413 Y77.36
X179.387 Y78.652
X179.32 Y79.942
X179.212 Y81.229
X179.062 Y82.513
X178.865 Y83.79
X178.619 Y85.058
X178.315 Y86.314
X177.987 Y87.421
X177.653 Y88.36
X177.344 Y89.097
X177.064 Y89.676
X176.779 Y90.192
X176.498 Y90.639
X176.421 Y90.75
X176.136 Y91.1
X175.807 Y91.408
X175.439 Y91.668
X175.039 Y91.876
X174.614 Y92.027
X174.172 Y92.119
X173.722 Y92.15
X170.934
G3 X170.451 Y92.036 I0.044 J-1.269
X169.713 Y90.996 I0.527 J-1.156
G1 X166.552 Y56.234
G3 X167.29 Y54.964 I1.265 J-0.115
X167.773 Y54.85 I0.527 J1.156
G1 X170.439
X170.688 Y54.862
X170.935 Y54.888
X171.196 Y54.93
X171.488 Y54.993
X171.797 Y55.077
X172.134 Y55.19
X172.493 Y55.331
X172.877 Y55.507
X173.292 Y55.725
X173.714 Y55.977
X174.183 Y56.293
X174.644 Y56.641
X175.152 Y57.069
X175.668 Y57.554
X176.199 Y58.111
X176.769 Y58.778
X177.316 Y59.494
X177.881 Y60.321
X178.455 Y61.268
X179.026 Y62.337
X179.572 Y63.508
X180.055 Y64.706
X180.48 Y65.926
X180.851 Y67.164
X181.171 Y68.416
X181.443 Y69.679
X181.669 Y70.951
X181.851 Y72.23
X181.99 Y73.515
X182.087 Y74.803
X182.145 Y76.094
X182.162 Y77.386
X182.139 Y78.677
X182.076 Y79.968
X181.972 Y81.256
X181.824 Y82.539
X181.63 Y83.817
X181.386 Y85.086
X181.084 Y86.342
X180.761 Y87.436
X180.43 Y88.369
X180.123 Y89.102
X179.845 Y89.678
X179.562 Y90.191
X179.283 Y90.638
X179.206 Y90.747
X178.922 Y91.098
X178.592 Y91.407
X178.224 Y91.668
X177.823 Y91.876
X177.398 Y92.027
X176.956 Y92.119
X176.506 Y92.15
X173.722
G3 X173.24 Y92.036 I0.044 J-1.269
X172.502 Y91 I0.527 J-1.156
G1 X169.219 Y56.239
G3 X169.957 Y54.964 I1.264 J-0.119
X170.439 Y54.85 I0.527 J1.156
G1 X173.106
X173.388 Y54.864
X173.636 Y54.89
X173.897 Y54.932
X174.19 Y54.995
X174.498 Y55.079
X174.836 Y55.192
X175.196 Y55.333
X175.581 Y55.51
X175.996 Y55.728
X176.419 Y55.981
X176.889 Y56.297
X177.351 Y56.646
X177.862 Y57.076
X178.377 Y57.561
X178.911 Y58.121
X179.483 Y58.79
X180.033 Y59.508
X180.6 Y60.34
X181.177 Y61.292
X181.751 Y62.367
X182.297 Y63.538
X182.781 Y64.736
X183.207 Y65.956
X183.58 Y67.193
X183.901 Y68.445
X184.175 Y69.707
X184.404 Y70.979
X184.588 Y72.258
X184.73 Y73.542
X184.831 Y74.83
X184.891 Y76.121
X184.912 Y77.413
X184.892 Y78.705
X184.832 Y79.995
X184.73 Y81.283
X184.585 Y82.567
X184.393 Y83.845
X184.15 Y85.114
X183.85 Y86.371
X183.531 Y87.453
X183.202 Y88.379
X182.898 Y89.109
X182.621 Y89.683
X182.34 Y90.193
X182.061 Y90.64
X181.986 Y90.746
X181.702 Y91.097
X181.373 Y91.406
X181.004 Y91.667
X180.604 Y91.875
X180.178 Y92.027
X179.736 Y92.119
X179.285 Y92.15
X176.506
G3 X176.024 Y92.036 I0.044 J-1.269
X175.286 Y91.004 I0.527 J-1.156
G1 X171.886 Y56.243
G3 X173.106 Y54.85 I1.264 J-0.124
G1 X175.772
X176.092 Y54.866
X176.34 Y54.892
X176.601 Y54.934
X176.895 Y54.997
X177.203 Y55.081
X177.542 Y55.194
X177.902 Y55.336
X178.289 Y55.513
X178.703 Y55.731
X179.128 Y55.985
X179.599 Y56.301
X180.063 Y56.651
X180.575 Y57.084
X181.091 Y57.569
X181.628 Y58.132
X182.201 Y58.802
X182.753 Y59.523
X183.323 Y60.359
X183.903 Y61.317
X184.481 Y62.398
X185.026 Y63.569
X185.511 Y64.766
X185.938 Y65.986
X186.311 Y67.223
X186.635 Y68.474
X186.911 Y69.736
X187.141 Y71.007
X187.328 Y72.286
X187.473 Y73.57
X187.576 Y74.858
X187.639 Y76.148
X187.662 Y77.44
X187.645 Y78.732
X187.587 Y80.023
X187.487 Y81.311
X187.344 Y82.595
X187.154 Y83.873
X186.913 Y85.142
X186.613 Y86.399
X186.297 Y87.472
X185.971 Y88.392
X185.668 Y89.117
X185.392 Y89.689
X185.113 Y90.197
X184.835 Y90.642
X184.762 Y90.746
X184.478 Y91.097
X184.149 Y91.406
X183.78 Y91.667
X183.38 Y91.875
X182.954 Y92.027
X182.512 Y92.119
X182.061 Y92.15
X179.285
G3 X178.066 Y91.008 I0.044 J-1.269
G1 X174.553 Y56.247
G3 X175.29 Y54.964 I1.264 J-0.128
X175.772 Y54.85 I0.527 J1.156
G1 X178.439
X178.799 Y54.868
X179.048 Y54.894
X179.309 Y54.936
X179.604 Y54.999
X179.912 Y55.084
X180.252 Y55.197
X180.612 Y55.339
X181 Y55.516
X181.414 Y55.734
X181.841 Y55.989
X182.313 Y56.306
X182.777 Y56.657
X183.292 Y57.091
X183.808 Y57.576
X184.348 Y58.143
X184.923 Y58.815
X185.476 Y59.538
X186.049 Y60.378
X186.632 Y61.341
X187.213 Y62.427
X187.759 Y63.598
X188.243 Y64.796
X188.671 Y66.015
X189.046 Y67.252
X189.371 Y68.502
X189.648 Y69.764
X189.881 Y71.035
X190.07 Y72.313
X190.216 Y73.597
X190.322 Y74.885
X190.387 Y76.175
X190.412 Y77.467
X190.397 Y78.759
X190.341 Y80.05
X190.244 Y81.338
X190.102 Y82.622
X189.913 Y83.9
X189.673 Y85.17
X189.373 Y86.427
X189.06 Y87.492
X188.736 Y88.404
X188.435 Y89.126
X188.16 Y89.697
X187.883 Y90.201
X187.605 Y90.646
X187.535 Y90.746
X187.251 Y91.097
X186.921 Y91.406
X186.553 Y91.667
X186.152 Y91.875
X185.727 Y92.027
X185.284 Y92.119
X184.834 Y92.15
X182.061
G3 X180.842 Y91.012 I0.044 J-1.269
G1 X177.22 Y56.251
G3 X177.956 Y54.964 I1.263 J-0.132
X178.439 Y54.85 I0.527 J1.156
G1 X181.105
X181.51 Y54.87
X181.759 Y54.896
X182.021 Y54.938
X182.316 Y55.002
X182.624 Y55.086
X182.965 Y55.2
X183.325 Y55.341
X183.714 Y55.52
X184.129 Y55.738
X184.557 Y55.993
X185.03 Y56.311
X185.495 Y56.663
X186.013 Y57.099
X186.528 Y57.584
X187.071 Y58.154
X187.648 Y58.828
X188.202 Y59.553
X188.779 Y60.397
X189.364 Y61.364
X189.947 Y62.455
X190.493 Y63.626
X190.978 Y64.824
X191.407 Y66.043
X191.782 Y67.279
X192.109 Y68.529
X192.388 Y69.791
X192.622 Y71.062
X192.812 Y72.339
X192.961 Y73.623
X193.068 Y74.91
X193.136 Y76.201
X193.163 Y77.493
X193.149 Y78.785
X193.095 Y80.075
X192.999 Y81.364
X192.859 Y82.648
X192.671 Y83.927
X192.431 Y85.196
X192.132 Y86.453
X191.821 Y87.511
X191.499 Y88.418
X191.2 Y89.136
X190.925 Y89.704
X190.649 Y90.206
X190.372 Y90.65
X190.305 Y90.746
X190.021 Y91.097
X189.691 Y91.406
X189.323 Y91.667
X188.922 Y91.875
X188.496 Y92.027
X188.054 Y92.119
X187.604 Y92.15
X184.834
G3 X184.351 Y92.036 I0.044 J-1.269
X183.615 Y91.016 I0.527 J-1.156
G1 X179.887 Y56.255
G3 X181.105 Y54.85 I1.263 J-0.135
G1 X183.981
X184.21 Y54.861
X184.462 Y54.888
X184.724 Y54.93
X185.021 Y54.994
X185.329 Y55.078
X185.673 Y55.193
X186.033 Y55.334
X186.425 Y55.514
X186.84 Y55.732
X187.271 Y55.989
X187.744 Y56.308
X188.212 Y56.661
X188.733 Y57.1
X189.248 Y57.585
X189.795 Y58.158
X190.373 Y58.834
X190.93 Y59.562
X191.509 Y60.411
X192.097 Y61.382
X192.683 Y62.479
X193.229 Y63.65
X193.715 Y64.847
X194.144 Y66.066
X194.52 Y67.302
X194.848 Y68.552
X195.128 Y69.813
X195.364 Y71.084
X195.556 Y72.361
X195.706 Y73.645
X195.815 Y74.932
X195.884 Y76.222
X195.913 Y77.514
X195.902 Y78.806
X195.849 Y80.097
X195.754 Y81.385
X195.615 Y82.67
X195.429 Y83.949
X195.189 Y85.218
X194.891 Y86.475
X194.58 Y87.528
X194.261 Y88.429
X193.963 Y89.144
X193.689 Y89.711
X193.414 Y90.21
X193.137 Y90.654
X193.072 Y90.746
X192.788 Y91.097
X192.459 Y91.406
X192.09 Y91.667
X191.689 Y91.875
X191.264 Y92.027
X190.822 Y92.119
X190.371 Y92.15
X187.604
G3 X186.385 Y91.012 I0.044 J-1.269
G1 X182.762 Y56.251
G3 X183.981 Y54.85 I1.263 J-0.132
G1 X186.647
X186.933 Y54.864
X187.184 Y54.891
X187.446 Y54.932
X187.743 Y54.997
X188.051 Y55.081
X188.395 Y55.195
X188.755 Y55.337
X189.148 Y55.517
X189.562 Y55.735
X189.994 Y55.993
X190.468 Y56.311
X190.937 Y56.665
X191.46 Y57.106
X191.975 Y57.591
X192.524 Y58.167
X193.102 Y58.844
X193.661 Y59.574
X194.243 Y60.426
X194.833 Y61.401
X195.421 Y62.502
X195.967 Y63.673
X196.453 Y64.87
X196.883 Y66.089
X197.26 Y67.324
X197.589 Y68.574
X197.87 Y69.835
X198.107 Y71.105
X198.301 Y72.383
X198.452 Y73.666
X198.563 Y74.953
X198.634 Y76.243
X198.664 Y77.535
X198.654 Y78.827
X198.602 Y80.118
X198.509 Y81.407
X198.371 Y82.691
X198.185 Y83.97
X197.946 Y85.24
X197.648 Y86.497
X197.338 Y87.544
X197.021 Y88.44
X196.723 Y89.152
X196.45 Y89.717
X196.176 Y90.214
X195.9 Y90.658
X195.837 Y90.747
X195.553 Y91.097
X195.224 Y91.406
X194.855 Y91.667
X194.455 Y91.875
X194.029 Y92.027
X193.587 Y92.119
X193.137 Y92.15
X190.371
G3 X189.889 Y92.036 I0.044 J-1.269
X189.153 Y91.016 I0.527 J-1.156
G1 X185.429 Y56.255
G3 X186.165 Y54.964 I1.263 J-0.135
X186.647 Y54.85 I0.527 J1.156
G1 X189.314
X189.655 Y54.867
X189.907 Y54.893
X190.169 Y54.935
X190.466 Y54.999
X190.775 Y55.084
X191.12 Y55.199
X191.479 Y55.34
X191.873 Y55.521
X192.287 Y55.738
X192.721 Y55.997
X193.194 Y56.316
X193.665 Y56.671
X194.189 Y57.113
X194.705 Y57.598
X195.256 Y58.176
X195.835 Y58.854
X196.395 Y59.586
X196.979 Y60.441
X197.571 Y61.419
X198.161 Y62.524
X198.707 Y63.695
X199.193 Y64.892
X199.624 Y66.11
X200.002 Y67.346
X200.331 Y68.595
X200.613 Y69.856
X200.851 Y71.126
X201.046 Y72.403
X201.199 Y73.686
X201.311 Y74.974
X201.383 Y76.264
X201.414 Y77.555
X201.405 Y78.847
X201.355 Y80.138
X201.263 Y81.427
X201.125 Y82.712
X200.94 Y83.991
X200.702 Y85.26
X200.403 Y86.517
X200.095 Y87.56
X199.779 Y88.451
X199.482 Y89.16
X199.21 Y89.724
X198.937 Y90.219
X198.66 Y90.662
X198.601 Y90.747
X198.316 Y91.098
X197.987 Y91.407
X197.619 Y91.668
X197.218 Y91.876
X196.793 Y92.027
X196.351 Y92.119
X195.9 Y92.15
X193.137
G3 X191.919 Y91.02 I0.044 J-1.269
G1 X188.096 Y56.258
G3 X188.831 Y54.964 I1.262 J-0.139
X189.314 Y54.85 I0.527 J1.156
G1 X192.152
X192.37 Y54.861
X192.623 Y54.887
X192.885 Y54.929
X193.184 Y54.994
X193.493 Y55.078
X193.84 Y55.194
X194.199 Y55.335
X194.595 Y55.517
X195.009 Y55.734
X195.445 Y55.994
X195.919 Y56.313
X196.391 Y56.67
X196.918 Y57.114
X197.434 Y57.599
X197.987 Y58.18
X198.567 Y58.859
X199.129 Y59.593
X199.715 Y60.451
X200.31 Y61.433
X200.902 Y62.542
X201.448 Y63.713
X201.934 Y64.91
X202.365 Y66.128
X202.744 Y67.364
X203.074 Y68.613
X203.357 Y69.873
X203.596 Y71.143
X203.792 Y72.42
X203.946 Y73.703
X204.06 Y74.99
X204.132 Y76.28
X204.165 Y77.572
X204.157 Y78.864
X204.108 Y80.155
X204.016 Y81.444
X203.879 Y82.729
X203.695 Y84.007
X203.457 Y85.277
X203.159 Y86.533
X202.852 Y87.572
X202.537 Y88.458
X202.241 Y89.166
X201.969 Y89.729
X201.697 Y90.222
X201.421 Y90.665
X201.362 Y90.748
X201.078 Y91.098
X200.749 Y91.407
X200.38 Y91.668
X199.98 Y91.876
X199.555 Y92.027
X199.113 Y92.119
X198.663 Y92.15
X195.9
G3 X195.418 Y92.036 I0.044 J-1.269
X194.682 Y91.017 I0.527 J-1.156
G1 X190.933 Y56.255
G3 X192.152 Y54.85 I1.263 J-0.136
G1 X194.818
X195.101 Y54.864
X195.354 Y54.891
X195.616 Y54.932
X195.915 Y54.997
X196.223 Y55.081
X196.57 Y55.197
X196.93 Y55.339
X197.326 Y55.52
X197.74 Y55.738
X198.176 Y55.998
X198.651 Y56.317
X199.124 Y56.674
X199.651 Y57.119
X200.168 Y57.605
X200.723 Y58.188
X201.304 Y58.867
X201.867 Y59.603
X202.454 Y60.463
X203.051 Y61.448
X203.645 Y62.56
X204.191 Y63.731
X204.677 Y64.928
X205.108 Y66.146
X205.487 Y67.381
X205.818 Y68.63
X206.102 Y69.89
X206.342 Y71.16
X206.539 Y72.437
X206.694 Y73.72
X206.808 Y75.007
X206.882 Y76.297
X206.916 Y77.588
X206.909 Y78.88
X206.86 Y80.171
X206.769 Y81.46
X206.633 Y82.745
X206.449 Y84.024
X206.211 Y85.294
X205.914 Y86.545
X205.608 Y87.581
X205.294 Y88.464
X204.999 Y89.17
X204.728 Y89.732
X204.456 Y90.224
X204.18 Y90.666
X204.123 Y90.748
X203.839 Y91.098
X203.51 Y91.407
X203.141 Y91.668
X202.741 Y91.876
X202.315 Y92.027
X201.874 Y92.119
X201.423 Y92.15
X198.663
G3 X198.18 Y92.036 I0.044 J-1.269
X197.445 Y91.02 I0.527 J-1.156
G1 X193.6 Y56.259
G3 X194.818 Y54.85 I1.262 J-0.14
G1 X197.485
X197.832 Y54.867
X198.086 Y54.894
X198.347 Y54.936
X198.646 Y55
X198.955 Y55.085
X199.303 Y55.2
X199.662 Y55.342
X200.059 Y55.524
X200.473 Y55.742
X200.91 Y56.002
X201.385 Y56.321
X201.859 Y56.68
X202.387 Y57.125
X202.904 Y57.611
X203.461 Y58.195
X204.042 Y58.875
X204.606 Y59.612
X205.195 Y60.475
X205.793 Y61.462
X206.388 Y62.577
X206.934 Y63.748
X207.421 Y64.945
X207.852 Y66.162
X208.232 Y67.397
X208.563 Y68.646
X208.848 Y69.907
X209.089 Y71.176
X209.286 Y72.453
X209.442 Y73.735
X209.557 Y75.022
X209.632 Y76.312
X209.666 Y77.604
X209.66 Y78.896
X209.612 Y80.187
X209.522 Y81.476
X209.386 Y82.761
X209.203 Y84.04
X208.965 Y85.31
X208.669 Y86.557
X208.363 Y87.59
X208.05 Y88.47
X207.756 Y89.175
X207.485 Y89.736
X207.214 Y90.227
X206.938 Y90.668
X206.882 Y90.748
X206.598 Y91.098
X206.269 Y91.407
X205.9 Y91.668
X205.5 Y91.876
X205.075 Y92.027
X204.633 Y92.119
X204.183 Y92.15
X201.423
G3 X200.206 Y91.024 I0.044 J-1.269
G1 X196.267 Y56.262
G3 X197.485 Y54.85 I1.262 J-0.143
G1 X200.151
X200.565 Y54.871
X200.819 Y54.897
X201.081 Y54.939
X201.38 Y55.004
X201.689 Y55.088
X202.037 Y55.204
X202.397 Y55.346
X202.794 Y55.528
X203.208 Y55.745
X203.646 Y56.007
X204.12 Y56.326
X204.596 Y56.685
X205.125 Y57.131
X205.642 Y57.618
X206.2 Y58.203
X206.781 Y58.883
X207.347 Y59.622
X207.937 Y60.487
X208.536 Y61.475
X209.133 Y62.592
X209.679 Y63.763
X210.165 Y64.96
X210.597 Y66.178
X210.977 Y67.413
X211.309 Y68.662
X211.594 Y69.922
X211.836 Y71.191
X212.034 Y72.468
X212.191 Y73.75
X212.307 Y75.037
X212.382 Y76.327
X212.417 Y77.619
X212.411 Y78.911
X212.364 Y80.202
X212.274 Y81.491
X212.139 Y82.776
X211.955 Y84.055
X211.718 Y85.325
X211.422 Y86.568
X211.117 Y87.599
X210.806 Y88.476
X210.512 Y89.179
X210.241 Y89.739
X209.971 Y90.229
X209.695 Y90.67
X209.64 Y90.748
X209.356 Y91.099
X209.027 Y91.407
X208.658 Y91.668
X208.258 Y91.876
X207.833 Y92.027
X207.391 Y92.119
X206.941 Y92.15
X204.183
G3 X202.965 Y91.027 I0.044 J-1.269
G1 X198.934 Y56.266
G3 X199.669 Y54.964 I1.262 J-0.146
X200.151 Y54.85 I0.527 J1.156
G1 X203.027
X203.286 Y54.863
X203.541 Y54.89
X203.804 Y54.932
X204.105 Y54.997
X204.414 Y55.081
X204.764 Y55.198
X205.124 Y55.339
X205.523 Y55.522
X205.937 Y55.74
X206.377 Y56.003
X206.852 Y56.322
X207.329 Y56.682
X207.86 Y57.13
X208.378 Y57.617
X208.938 Y58.205
X209.52 Y58.885
X210.087 Y59.626
X210.679 Y60.493
X211.279 Y61.484
X211.877 Y62.604
X212.423 Y63.775
X212.91 Y64.972
X213.342 Y66.19
X213.723 Y67.424
X214.055 Y68.673
X214.341 Y69.933
X214.583 Y71.202
X214.782 Y72.479
X214.939 Y73.761
X215.056 Y75.048
X215.132 Y76.338
X215.167 Y77.629
X215.162 Y78.921
X215.116 Y80.213
X215.026 Y81.502
X214.891 Y82.787
X214.708 Y84.066
X214.471 Y85.336
X214.176 Y86.576
X213.872 Y87.605
X213.561 Y88.48
X213.267 Y89.182
X212.997 Y89.741
X212.727 Y90.231
X212.451 Y90.672
X212.398 Y90.748
X212.113 Y91.099
X211.784 Y91.407
X211.416 Y91.668
X211.015 Y91.876
X210.59 Y92.027
X210.148 Y92.119
X209.698 Y92.15
X206.941
G3 X206.458 Y92.036 I0.044 J-1.269
X205.723 Y91.023 I0.527 J-1.156
G1 X201.809 Y56.261
G3 X202.545 Y54.964 I1.262 J-0.142
X203.027 Y54.85 I0.527 J1.156
G1 X205.693
X206.027 Y54.867
X206.282 Y54.893
X206.544 Y54.935
X206.845 Y55
X207.154 Y55.085
X207.504 Y55.201
X207.863 Y55.343
X208.262 Y55.526
X208.677 Y55.743
X209.117 Y56.006
X209.591 Y56.325
X210.069 Y56.686
X210.6 Y57.134
X211.118 Y57.621
X211.68 Y58.21
X212.261 Y58.89
X212.83 Y59.633
X213.422 Y60.502
X214.024 Y61.494
X214.623 Y62.616
X215.169 Y63.787
X215.656 Y64.984
X216.088 Y66.201
X216.469 Y67.436
X216.801 Y68.684
X217.088 Y69.944
X217.331 Y71.213
X217.53 Y72.49
X217.688 Y73.772
X217.805 Y75.059
X217.882 Y76.349
X217.918 Y77.64
X217.913 Y78.932
X217.867 Y80.224
X217.778 Y81.513
X217.644 Y82.798
X217.461 Y84.077
X217.223 Y85.347
X216.929 Y86.584
X216.625 Y87.612
X216.315 Y88.484
X216.022 Y89.185
X215.752 Y89.744
X215.482 Y90.232
X215.207 Y90.673
X215.154 Y90.748
X214.87 Y91.099
X214.54 Y91.407
X214.172 Y91.668
X213.771 Y91.876
X213.346 Y92.027
X212.905 Y92.119
X212.454 Y92.15
X209.698
G3 X209.216 Y92.036 I0.044 J-1.269
X208.481 Y91.026 I0.527 J-1.156
G1 X204.476 Y56.265
G3 X205.693 Y54.85 I1.262 J-0.145
G1 X208.531
X208.756 Y54.861
X209.012 Y54.888
X209.274 Y54.93
X209.576 Y54.995
X209.885 Y55.08
X210.237 Y55.197
X210.596 Y55.338
X210.997 Y55.522
X211.411 Y55.739
X211.853 Y56.003
X212.327 Y56.322
X212.807 Y56.684
X213.339 Y57.133
X213.857 Y57.621
X214.42 Y58.211
X215.002 Y58.892
X215.572 Y59.636
X216.166 Y60.507
X216.768 Y61.501
X217.368 Y62.625
X217.914 Y63.796
X218.402 Y64.993
X218.834 Y66.21
X219.215 Y67.445
X219.548 Y68.693
X219.835 Y69.953
X220.078 Y71.222
X220.279 Y72.498
X220.437 Y73.781
X220.555 Y75.067
X220.632 Y76.357
X220.668 Y77.649
X220.664 Y78.941
X220.619 Y80.232
X220.53 Y81.521
X220.396 Y82.806
X220.213 Y84.085
X219.975 Y85.355
X219.682 Y86.59
X219.378 Y87.616
X219.069 Y88.487
X218.776 Y89.187
X218.506 Y89.746
X218.237 Y90.233
X217.962 Y90.674
X217.909 Y90.748
X217.625 Y91.099
X217.296 Y91.407
X216.928 Y91.668
X216.527 Y91.876
X216.102 Y92.027
X215.66 Y92.119
X215.21 Y92.15
X212.454
G3 X211.237 Y91.023 I0.044 J-1.269
G1 X207.314 Y56.262
G3 X208.049 Y54.964 I1.262 J-0.142
X208.531 Y54.85 I0.527 J1.156
G1 X211.198
X211.501 Y54.865
X211.755 Y54.892
X212.018 Y54.934
X212.319 Y54.999
X212.628 Y55.083
X212.979 Y55.2
X213.339 Y55.342
X213.739 Y55.525
X214.153 Y55.743
X214.595 Y56.006
X215.069 Y56.326
X215.549 Y56.688
X216.082 Y57.137
X216.6 Y57.625
X217.164 Y58.216
X217.746 Y58.897
X218.316 Y59.642
X218.911 Y60.513
X219.514 Y61.509
X220.115 Y62.634
X220.661 Y63.805
X221.148 Y65.002
X221.581 Y66.22
X221.962 Y67.454
X222.296 Y68.702
X222.583 Y69.962
X222.827 Y71.231
X223.027 Y72.507
X223.186 Y73.789
X223.304 Y75.076
X223.382 Y76.366
X223.419 Y77.657
X223.415 Y78.949
X223.37 Y80.241
X223.281 Y81.53
X223.147 Y82.815
X222.965 Y84.094
X222.727 Y85.364
X222.434 Y86.596
X222.131 Y87.622
X221.822 Y88.49
X221.53 Y89.189
X221.26 Y89.748
X220.991 Y90.235
X220.716 Y90.675
X220.664 Y90.748
X220.38 Y91.099
X220.051 Y91.407
X219.682 Y91.668
X219.282 Y91.876
X218.857 Y92.027
X218.415 Y92.119
X217.965 Y92.15
X215.21
G3 X214.728 Y92.036 I0.044 J-1.269
X213.993 Y91.026 I0.527 J-1.156
G1 X209.98 Y56.265
G3 X210.715 Y54.964 I1.262 J-0.146
X211.198 Y54.85 I0.527 J1.156
G1 X213.864
X214.243 Y54.869
X214.498 Y54.896
X214.761 Y54.938
X215.062 Y55.003
X215.371 Y55.087
X215.722 Y55.204
X216.082 Y55.346
X216.482 Y55.529
X216.897 Y55.747
X217.338 Y56.01
X217.813 Y56.33
X218.293 Y56.692
X218.826 Y57.142
X219.344 Y57.63
X219.909 Y58.221
X220.491 Y58.902
X221.062 Y59.648
X221.657 Y60.52
X222.261 Y61.517
X222.862 Y62.644
X223.408 Y63.815
X223.896 Y65.011
X224.328 Y66.229
X224.71 Y67.463
X225.044 Y68.711
X225.332 Y69.971
X225.575 Y71.24
X225.776 Y72.516
X225.935 Y73.798
X226.054 Y75.085
X226.132 Y76.375
X226.169 Y77.666
X226.166 Y78.958
X226.121 Y80.25
X226.033 Y81.539
X225.899 Y82.824
X225.716 Y84.103
X225.479 Y85.373
X225.186 Y86.603
X224.883 Y87.627
X224.575 Y88.494
X224.283 Y89.192
X224.013 Y89.75
X223.744 Y90.236
X223.469 Y90.677
X223.418 Y90.749
X223.134 Y91.099
X222.805 Y91.407
X222.437 Y91.668
X222.036 Y91.876
X221.611 Y92.027
X221.169 Y92.119
X220.719 Y92.15
X217.965
G3 X217.483 Y92.036 I0.044 J-1.269
X216.748 Y91.03 I0.527 J-1.156
G1 X212.647 Y56.268
G3 X213.864 Y54.85 I1.261 J-0.149
G1 X216.74
X216.973 Y54.862
X217.229 Y54.888
X217.492 Y54.931
X217.795 Y54.996
X218.104 Y55.08
X218.457 Y55.198
X218.817 Y55.34
X219.219 Y55.524
X219.633 Y55.741
X220.076 Y56.006
X220.551 Y56.325
X221.033 Y56.689
X221.566 Y57.139
X222.086 Y57.628
X222.652 Y58.221
X223.234 Y58.902
X223.806 Y59.65
X224.402 Y60.523
X225.007 Y61.522
X225.609 Y62.65
X226.155 Y63.821
X226.643 Y65.017
X227.076 Y66.235
X227.458 Y67.469
X227.792 Y68.717
X228.08 Y69.977
X228.324 Y71.246
X228.525 Y72.522
X228.685 Y73.804
X228.803 Y75.091
X228.882 Y76.38
X228.919 Y77.672
X228.916 Y78.964
X228.872 Y80.255
X228.784 Y81.544
X228.65 Y82.829
X228.468 Y84.108
X228.23 Y85.378
X227.938 Y86.607
X227.635 Y87.63
X227.327 Y88.496
X227.036 Y89.194
X226.766 Y89.751
X226.498 Y90.237
X226.223 Y90.677
X226.172 Y90.749
X225.888 Y91.099
X225.559 Y91.407
X225.19 Y91.668
X224.79 Y91.876
X224.365 Y92.027
X223.923 Y92.119
X223.473 Y92.15
X220.719
G3 X219.502 Y91.025 I0.044 J-1.269
G1 X215.523 Y56.264
G3 X216.74 Y54.85 I1.262 J-0.144
G1 X219.406
X219.722 Y54.866
X219.977 Y54.893
X220.24 Y54.935
X220.542 Y55
X220.851 Y55.084
X221.203 Y55.201
X221.563 Y55.343
X221.964 Y55.527
X222.379 Y55.745
X222.822 Y56.009
X223.296 Y56.328
X223.778 Y56.692
X224.312 Y57.142
X224.831 Y57.631
X225.397 Y58.225
X225.98 Y58.906
X226.552 Y59.654
X227.149 Y60.528
X227.754 Y61.527
X228.357 Y62.657
X228.903 Y63.828
X229.391 Y65.024
X229.824 Y66.241
X230.206 Y67.476
X230.54 Y68.724
X230.828 Y69.983
X231.073 Y71.252
X231.274 Y72.528
X231.434 Y73.81
X231.553 Y75.097
X231.632 Y76.387
X231.67 Y77.678
X231.667 Y78.97
X231.623 Y80.261
X231.535 Y81.551
X231.401 Y82.836
X231.219 Y84.115
X230.981 Y85.385
X230.69 Y86.612
X230.387 Y87.634
X230.079 Y88.499
X229.788 Y89.196
X229.519 Y89.753
X229.25 Y90.238
X228.975 Y90.678
X228.926 Y90.749
X228.641 Y91.099
X228.312 Y91.407
X227.944 Y91.668
X227.543 Y91.876
X227.118 Y92.027
X226.677 Y92.119
X226.227 Y92.15
X223.473
G3 X222.991 Y92.036 I0.044 J-1.269
X222.256 Y91.028 I0.527 J-1.156
G1 X218.189 Y56.267
G3 X218.924 Y54.964 I1.261 J-0.148
X219.406 Y54.85 I0.527 J1.156
G1 X222.244
X222.457 Y54.861
X222.713 Y54.887
X222.977 Y54.93
X223.279 Y54.995
X223.589 Y55.08
X223.942 Y55.197
X224.302 Y55.339
X224.704 Y55.523
X225.119 Y55.741
X225.563 Y56.006
X226.037 Y56.325
X226.52 Y56.69
X227.055 Y57.141
X227.575 Y57.63
X228.142 Y58.225
X228.724 Y58.906
X229.298 Y59.655
X229.895 Y60.531
X230.501 Y61.531
X231.105 Y62.661
X231.651 Y63.832
X232.138 Y65.029
X232.572 Y66.246
X232.954 Y67.48
X233.288 Y68.728
X233.577 Y69.988
X233.821 Y71.256
X234.023 Y72.533
X234.184 Y73.815
X234.303 Y75.101
X234.382 Y76.391
X234.42 Y77.682
X234.418 Y78.974
X234.373 Y80.266
X234.286 Y81.555
X234.152 Y82.84
X233.97 Y84.119
X233.733 Y85.389
X233.441 Y86.615
X233.139 Y87.636
X232.832 Y88.5
X232.54 Y89.197
X232.271 Y89.753
X232.003 Y90.239
X231.728 Y90.678
X231.679 Y90.749
X231.394 Y91.099
X231.065 Y91.407
X230.697 Y91.668
X230.296 Y91.876
X229.871 Y92.027
X229.43 Y92.119
X228.98 Y92.15
X226.227
G3 X225.744 Y92.036 I0.044 J-1.269
X225.009 Y91.025 I0.527 J-1.156
G1 X221.027 Y56.264
G3 X221.762 Y54.964 I1.262 J-0.145
X222.244 Y54.85 I0.527 J1.156
G1 X224.911
X225.207 Y54.865
X225.463 Y54.892
X225.726 Y54.934
X226.028 Y54.999
X226.337 Y55.083
X226.69 Y55.201
X227.05 Y55.343
X227.452 Y55.527
X227.866 Y55.744
X228.31 Y56.009
X228.784 Y56.329
X229.267 Y56.693
X229.802 Y57.144
X230.322 Y57.633
X230.889 Y58.228
X231.471 Y58.909
X232.045 Y59.659
X232.643 Y60.535
X233.249 Y61.535
X233.853 Y62.667
X234.399 Y63.838
X234.887 Y65.034
X235.32 Y66.251
X235.703 Y67.486
X236.037 Y68.734
X236.326 Y69.993
X236.571 Y71.262
X236.773 Y72.538
X236.933 Y73.82
X237.053 Y75.106
X237.132 Y76.396
X237.17 Y77.687
X237.168 Y78.979
X237.124 Y80.271
X237.036 Y81.56
X236.903 Y82.845
X236.721 Y84.124
X236.484 Y85.394
X236.192 Y86.619
X235.89 Y87.639
X235.583 Y88.502
X235.292 Y89.198
X235.023 Y89.755
X234.755 Y90.239
X234.48 Y90.679
X234.431 Y90.749
X234.147 Y91.099
X233.818 Y91.408
X233.449 Y91.668
X233.049 Y91.876
X232.624 Y92.027
X232.182 Y92.119
X231.732 Y92.15
X228.98
G3 X227.762 Y91.028 I0.044 J-1.269
G1 X223.694 Y56.267
G3 X224.911 Y54.85 I1.261 J-0.148
G1 X227.577
X227.955 Y54.869
X228.211 Y54.896
X228.474 Y54.938
X228.776 Y55.003
X229.085 Y55.088
X229.438 Y55.205
X229.798 Y55.347
X230.199 Y55.531
X230.614 Y55.748
X231.058 Y56.013
X231.532 Y56.332
X232.015 Y56.697
X232.549 Y57.148
X233.069 Y57.637
X233.637 Y58.232
X234.219 Y58.913
X234.793 Y59.663
X235.391 Y60.54
X235.998 Y61.541
X236.602 Y62.672
X237.148 Y63.843
X237.636 Y65.04
X238.069 Y66.257
X238.452 Y67.491
X238.786 Y68.739
X239.075 Y69.999
X239.32 Y71.267
X239.522 Y72.543
X239.683 Y73.825
X239.803 Y75.112
X239.882 Y76.401
X239.92 Y77.693
X239.918 Y78.985
X239.874 Y80.276
X239.787 Y81.565
X239.654 Y82.851
X239.471 Y84.13
X239.234 Y85.4
X238.943 Y86.623
X238.641 Y87.643
X238.334 Y88.504
X238.043 Y89.2
X237.774 Y89.756
X237.507 Y90.241
X237.232 Y90.68
X237.183 Y90.749
X236.899 Y91.099
X236.57 Y91.408
X236.201 Y91.668
X235.801 Y91.876
X235.376 Y92.027
X234.935 Y92.119
X234.484 Y92.15
X231.732
G3 X231.25 Y92.036 I0.044 J-1.269
X230.515 Y91.032 I0.527 J-1.156
G1 X226.36 Y56.27
G3 X227.577 Y54.85 I1.261 J-0.151
G1 X230.453
X230.69 Y54.862
X230.946 Y54.889
X231.21 Y54.931
X231.513 Y54.996
X231.823 Y55.081
X232.176 Y55.199
X232.537 Y55.341
X232.94 Y55.525
X233.354 Y55.743
X233.799 Y56.009
X234.274 Y56.328
X234.758 Y56.693
X235.293 Y57.145
X235.814 Y57.635
X236.382 Y58.231
X236.965 Y58.912
X237.54 Y59.663
X238.138 Y60.541
X238.745 Y61.543
X239.35 Y62.675
X239.896 Y63.846
X240.384 Y65.043
X240.817 Y66.26
X241.2 Y67.494
X241.535 Y68.742
X241.824 Y70.001
X242.069 Y71.27
X242.272 Y72.546
X242.432 Y73.828
X242.552 Y75.115
X242.632 Y76.404
X242.671 Y77.696
X242.669 Y78.988
X242.625 Y80.279
X242.538 Y81.568
X242.405 Y82.853
X242.222 Y84.132
X241.985 Y85.402
X241.694 Y86.625
X241.392 Y87.644
X241.086 Y88.505
X240.795 Y89.201
X240.526 Y89.757
X240.259 Y90.241
X239.984 Y90.681
X239.935 Y90.749
X239.651 Y91.099
X239.322 Y91.408
X238.954 Y91.668
X238.553 Y91.876
X238.128 Y92.027
X237.687 Y92.119
X237.237 Y92.15
X234.484
G3 X233.267 Y91.027 I0.044 J-1.269
G1 X229.236 Y56.266
G3 X230.453 Y54.85 I1.262 J-0.146
G1 X233.12
X233.442 Y54.866
X233.698 Y54.893
X233.961 Y54.935
X234.264 Y55
X234.573 Y55.085
X234.926 Y55.202
X235.286 Y55.344
X235.689 Y55.529
X236.103 Y55.746
X236.548 Y56.012
X237.022 Y56.331
X237.506 Y56.696
X238.041 Y57.148
X238.562 Y57.637
X239.131 Y58.234
X239.713 Y58.915
X240.288 Y59.666
X240.887 Y60.544
X241.494 Y61.546
X242.099 Y62.679
X242.645 Y63.85
X243.133 Y65.047
X243.566 Y66.264
X243.949 Y67.498
X244.284 Y68.746
X244.573 Y70.005
X244.819 Y71.274
X245.021 Y72.55
X245.182 Y73.832
X245.302 Y75.118
X245.382 Y76.408
X245.421 Y77.699
X245.419 Y78.991
X245.375 Y80.283
X245.288 Y81.572
X245.155 Y82.857
X244.973 Y84.136
X244.736 Y85.406
X244.445 Y86.628
X244.143 Y87.647
X243.837 Y88.507
X243.546 Y89.202
X243.277 Y89.758
X243.01 Y90.242
X242.735 Y90.681
X242.687 Y90.749
X242.403 Y91.099
X242.074 Y91.408
X241.705 Y91.668
X241.305 Y91.876
X240.88 Y92.027
X240.438 Y92.119
X239.988 Y92.15
X237.237
G3 X236.02 Y91.03 I0.044 J-1.269
G1 X231.903 Y56.269
G3 X232.637 Y54.964 I1.261 J-0.149
X233.12 Y54.85 I0.527 J1.156
G1 X235.957
X236.181 Y54.861
X236.438 Y54.888
X236.701 Y54.93
X237.005 Y54.996
X237.314 Y55.08
X237.668 Y55.198
X238.029 Y55.34
X238.432 Y55.525
X238.846 Y55.743
X239.292 Y56.009
X239.766 Y56.328
X240.251 Y56.694
X240.787 Y57.145
X241.308 Y57.636
X241.877 Y58.233
X242.459 Y58.914
X243.035 Y59.666
X243.635 Y60.545
X244.242 Y61.548
X244.848 Y62.682
X245.394 Y63.853
X245.882 Y65.049
X246.315 Y66.266
X246.698 Y67.5
X247.033 Y68.748
X247.322 Y70.007
X247.568 Y71.276
X247.771 Y72.552
X247.932 Y73.834
X248.052 Y75.12
X248.132 Y76.41
X248.171 Y77.701
X248.169 Y78.993
X248.126 Y80.285
X248.039 Y81.574
X247.906 Y82.859
X247.724 Y84.138
X247.486 Y85.408
X247.196 Y86.629
X246.894 Y87.648
X246.588 Y88.508
X246.297 Y89.202
X246.029 Y89.758
X245.761 Y90.242
X245.486 Y90.681
X245.439 Y90.749
X245.154 Y91.099
X244.825 Y91.408
X244.457 Y91.668
X244.057 Y91.876
X243.632 Y92.027
X243.19 Y92.119
X242.74 Y92.15
X239.988
G3 X239.506 Y92.036 I0.044 J-1.269
X238.771 Y91.027 I0.527 J-1.156
G1 X234.74 Y56.266
G3 X235.957 Y54.85 I1.262 J-0.146
G1 X238.624
X238.934 Y54.866
X239.19 Y54.892
X239.453 Y54.934
X239.756 Y55
X240.066 Y55.084
X240.419 Y55.202
X240.779 Y55.344
X241.182 Y55.528
X241.596 Y55.746
X242.042 Y56.012
X242.516 Y56.331
X243 Y56.697
X243.536 Y57.148
X244.057 Y57.638
X244.626 Y58.236
X245.208 Y58.916
X245.784 Y59.669
X246.384 Y60.547
X246.991 Y61.551
X247.597 Y62.685
X248.143 Y63.856
X248.631 Y65.052
X249.064 Y66.269
X249.447 Y67.503
X249.783 Y68.751
X250.072 Y70.01
X250.317 Y71.279
X250.52 Y72.555
X250.682 Y73.837
X250.802 Y75.123
X250.882 Y76.413
X250.921 Y77.704
X250.919 Y78.996
X250.876 Y80.288
X250.789 Y81.577
X250.656 Y82.862
X250.474 Y84.141
X250.237 Y85.411
X249.946 Y86.631
X249.645 Y87.649
X249.339 Y88.509
X249.048 Y89.203
X248.779 Y89.759
X248.512 Y90.242
X248.237 Y90.682
X248.19 Y90.749
X247.906 Y91.099
X247.577 Y91.408
X247.208 Y91.668
X246.808 Y91.876
X246.383 Y92.027
X245.941 Y92.119
X245.491 Y92.15
X242.74
G3 X241.523 Y91.03 I0.044 J-1.269
G1 X237.407 Y56.269
G3 X238.142 Y54.964 I1.261 J-0.149
X238.624 Y54.85 I0.527 J1.156
G1 X241.29
X241.685 Y54.87
X241.941 Y54.897
X242.204 Y54.939
X242.506 Y55.004
X242.816 Y55.089
X243.169 Y55.206
X243.529 Y55.348
X243.932 Y55.532
X244.346 Y55.75
X244.791 Y56.016
X245.266 Y56.335
X245.75 Y56.7
X246.285 Y57.152
X246.806 Y57.642
X247.375 Y58.239
X247.958 Y58.92
X248.533 Y59.672
X249.133 Y60.551
X249.741 Y61.554
X250.347 Y62.689
X250.893 Y63.86
X251.38 Y65.056
X251.814 Y66.273
X252.197 Y67.507
X252.532 Y68.755
X252.822 Y70.014
X253.067 Y71.283
X253.27 Y72.559
X253.432 Y73.841
X253.552 Y75.127
X253.632 Y76.417
X253.671 Y77.708
X253.67 Y79
X253.626 Y80.292
X253.539 Y81.581
X253.406 Y82.866
X253.224 Y84.145
X252.987 Y85.415
X252.697 Y86.634
X252.395 Y87.652
X252.089 Y88.511
X251.799 Y89.205
X251.53 Y89.76
X251.263 Y90.243
X250.988 Y90.683
X250.941 Y90.749
X250.657 Y91.1
X250.328 Y91.408
X249.959 Y91.668
X249.559 Y91.876
X249.134 Y92.027
X248.693 Y92.119
X248.243 Y92.15
X245.491
G3 X244.275 Y91.033 I0.044 J-1.269
G1 X240.074 Y56.272
G3 X240.808 Y54.964 I1.261 J-0.152
X241.29 Y54.85 I0.527 J1.156
G1 X244.166
X244.422 Y54.863
X244.679 Y54.89
X244.942 Y54.932
X245.246 Y54.997
X245.556 Y55.082
X245.91 Y55.2
X246.271 Y55.342
X246.675 Y55.527
X247.089 Y55.745
X247.535 Y56.011
X248.009 Y56.33
X248.495 Y56.697
X249.031 Y57.149
X249.552 Y57.639
X250.122 Y58.237
X250.705 Y58.918
X251.281 Y59.672
X251.881 Y60.551
X252.489 Y61.555
X253.096 Y62.69
X253.642 Y63.861
X254.129 Y65.057
X254.563 Y66.274
X254.946 Y67.508
X255.281 Y68.756
X255.571 Y70.015
X255.817 Y71.284
X256.02 Y72.56
X256.181 Y73.842
X256.302 Y75.128
X256.382 Y76.418
X256.421 Y77.709
X256.42 Y79.001
X256.377 Y80.293
X256.29 Y81.582
X256.157 Y82.867
X255.975 Y84.146
X255.737 Y85.416
X255.447 Y86.635
X255.146 Y87.652
X254.84 Y88.511
X254.55 Y89.205
X254.281 Y89.76
X254.014 Y90.243
X253.739 Y90.683
X253.692 Y90.749
X253.408 Y91.1
X253.079 Y91.408
X252.71 Y91.668
X252.31 Y91.876
X251.885 Y92.027
X251.444 Y92.119
X250.994 Y92.15
X248.243
G3 X247.026 Y91.029 I0.044 J-1.269
G1 X242.949 Y56.267
G3 X243.684 Y54.964 I1.261 J-0.148
X244.166 Y54.85 I0.527 J1.156
G1 X246.833
X247.176 Y54.867
X247.433 Y54.894
X247.696 Y54.936
X247.999 Y55.001
X248.308 Y55.086
X248.662 Y55.204
X249.022 Y55.346
X249.425 Y55.53
X249.84 Y55.748
X250.286 Y56.014
X250.76 Y56.333
X251.245 Y56.699
X251.781 Y57.151
X252.302 Y57.642
X252.872 Y58.24
X253.454 Y58.92
X254.03 Y59.674
X254.631 Y60.553
X255.239 Y61.557
X255.845 Y62.692
X256.391 Y63.863
X256.879 Y65.06
X257.313 Y66.277
X257.696 Y67.511
X258.031 Y68.759
X258.321 Y70.018
X258.566 Y71.286
X258.77 Y72.562
X258.931 Y73.844
X259.052 Y75.131
X259.132 Y76.42
X259.171 Y77.712
X259.17 Y79.004
X259.127 Y80.295
X259.04 Y81.584
X258.907 Y82.869
X258.725 Y84.148
X258.488 Y85.419
X258.198 Y86.637
X257.896 Y87.654
X257.591 Y88.512
X257.3 Y89.206
X257.032 Y89.761
X256.765 Y90.244
X256.49 Y90.683
X256.443 Y90.749
X256.159 Y91.1
X255.83 Y91.408
X255.461 Y91.668
X255.061 Y91.876
X254.636 Y92.027
X254.195 Y92.119
X253.745 Y92.15
X250.994
G3 X250.511 Y92.036 I0.044 J-1.269
X249.777 Y91.032 I0.527 J-1.156
G1 X245.616 Y56.27
G3 X246.833 Y54.85 I1.261 J-0.151
G1 X249.671
X249.917 Y54.862
X250.174 Y54.889
X250.438 Y54.931
X250.741 Y54.997
X251.051 Y55.082
X251.406 Y55.2
X251.766 Y55.342
X252.17 Y55.527
X252.585 Y55.744
X253.031 Y56.011
X253.505 Y56.33
X253.991 Y56.697
X254.527 Y57.149
X255.049 Y57.639
X255.619 Y58.238
X256.202 Y58.919
X256.779 Y59.673
X257.379 Y60.553
X257.988 Y61.557
X258.594 Y62.693
X259.14 Y63.864
X259.628 Y65.061
X260.062 Y66.278
X260.445 Y67.512
X260.78 Y68.759
X261.07 Y70.019
X261.316 Y71.287
X261.519 Y72.563
X261.681 Y73.845
X261.802 Y75.131
X261.882 Y76.421
X261.921 Y77.712
X261.92 Y79.004
X261.877 Y80.296
X261.79 Y81.585
X261.658 Y82.87
X261.476 Y84.149
X261.238 Y85.419
X260.948 Y86.637
X260.647 Y87.654
X260.341 Y88.512
X260.051 Y89.206
X259.782 Y89.761
X259.516 Y90.244
X259.241 Y90.683
X259.194 Y90.749
X258.91 Y91.1
X258.581 Y91.408
X258.212 Y91.668
X257.812 Y91.876
X257.387 Y92.027
X256.945 Y92.119
X256.495 Y92.15
X253.745
G3 X252.528 Y91.029 I0.044 J-1.269
G1 X248.453 Y56.267
G3 X249.188 Y54.964 I1.261 J-0.148
X249.671 Y54.85 I0.527 J1.156
G1 X252.337
X252.672 Y54.867
X252.928 Y54.894
X253.192 Y54.936
X253.495 Y55.001
X253.804 Y55.086
X254.158 Y55.204
X254.518 Y55.345
X254.922 Y55.53
X255.336 Y55.748
X255.782 Y56.014
X256.256 Y56.333
X256.742 Y56.7
X257.278 Y57.152
X257.799 Y57.642
X258.369 Y58.24
X258.951 Y58.921
X259.528 Y59.675
X260.129 Y60.555
X260.737 Y61.559
X261.344 Y62.695
X261.89 Y63.866
X262.378 Y65.063
X262.812 Y66.28
X263.195 Y67.514
X263.53 Y68.761
X263.82 Y70.021
X264.066 Y71.289
X264.269 Y72.565
X264.431 Y73.847
X264.552 Y75.133
X264.632 Y76.423
X264.672 Y77.714
X264.67 Y79.006
X264.627 Y80.298
X264.54 Y81.587
X264.408 Y82.872
X264.226 Y84.151
X263.988 Y85.421
X263.698 Y86.639
X263.397 Y87.655
X263.092 Y88.513
X262.801 Y89.206
X262.533 Y89.761
X262.266 Y90.244
X261.991 Y90.683
X261.945 Y90.749
X261.661 Y91.1
X261.331 Y91.408
X260.963 Y91.668
X260.563 Y91.876
X260.138 Y92.027
X259.696 Y92.119
X259.246 Y92.15
X256.495
G3 X256.013 Y92.036 I0.044 J-1.269
X255.279 Y91.032 I0.527 J-1.156
G1 X251.12 Y56.27
G3 X251.855 Y54.964 I1.261 J-0.151
X252.337 Y54.85 I0.527 J1.156
G1 X255.003
X255.424 Y54.871
X255.68 Y54.898
X255.944 Y54.94
X256.246 Y55.005
X256.556 Y55.09
X256.91 Y55.208
X257.27 Y55.35
X257.673 Y55.534
X258.087 Y55.752
X258.533 Y56.018
X259.007 Y56.337
X259.492 Y56.703
X260.028 Y57.155
X260.549 Y57.645
X261.12 Y58.244
X261.702 Y58.924
X262.278 Y59.678
X262.879 Y60.558
X263.487 Y61.562
X264.094 Y62.698
X264.64 Y63.869
X265.128 Y65.066
X265.562 Y66.283
X265.945 Y67.516
X266.28 Y68.764
X266.57 Y70.023
X266.816 Y71.292
X267.019 Y72.568
X267.181 Y73.85
X267.302 Y75.136
X267.382 Y76.426
X267.422 Y77.717
X267.42 Y79.009
X267.377 Y80.3
X267.29 Y81.59
X267.158 Y82.875
X266.976 Y84.154
X266.738 Y85.424
X266.448 Y86.641
X266.147 Y87.657
X265.842 Y88.514
X265.552 Y89.207
X265.283 Y89.762
X265.016 Y90.245
X264.741 Y90.684
X264.695 Y90.75
X264.411 Y91.1
X264.082 Y91.408
X263.714 Y91.668
X263.313 Y91.876
X262.888 Y92.027
X262.447 Y92.119
X261.997 Y92.15
X259.246
G3 X258.03 Y91.035 I0.044 J-1.269
G1 X253.787 Y56.273
G3 X255.003 Y54.85 I1.261 J-0.154
G1 X257.879
X258.162 Y54.864
X258.42 Y54.891
X258.683 Y54.933
X258.987 Y54.999
X259.297 Y55.084
X259.652 Y55.202
X260.012 Y55.344
X260.417 Y55.529
X260.831 Y55.747
X261.278 Y56.013
X261.752 Y56.332
X262.238 Y56.699
X262.774 Y57.152
X263.296 Y57.642
X263.867 Y58.241
X264.449 Y58.922
X265.027 Y59.677
X265.627 Y60.557
X266.236 Y61.562
X266.843 Y62.698
X267.389 Y63.869
X267.877 Y65.066
X268.311 Y66.283
X268.694 Y67.517
X269.03 Y68.765
X269.319 Y70.024
X269.566 Y71.292
X269.769 Y72.568
X269.931 Y73.85
X270.052 Y75.136
X270.132 Y76.426
X270.172 Y77.717
X270.17 Y79.009
X270.127 Y80.301
X270.041 Y81.59
X269.908 Y82.875
X269.726 Y84.154
X269.489 Y85.424
X269.199 Y86.641
X268.898 Y87.657
X268.592 Y88.514
X268.302 Y89.207
X268.034 Y89.762
X267.767 Y90.245
X267.492 Y90.684
X267.446 Y90.75
X267.162 Y91.1
X266.832 Y91.408
X266.464 Y91.668
X266.064 Y91.876
X265.639 Y92.027
X265.197 Y92.119
X264.747 Y92.15
X261.997
G3 X261.515 Y92.036 I0.044 J-1.269
X260.78 Y91.03 I0.527 J-1.156
G1 X256.663 Y56.269
G3 X257.397 Y54.964 I1.261 J-0.149
X257.879 Y54.85 I0.527 J1.156
G1 X260.546
X260.918 Y54.869
X261.175 Y54.895
X261.438 Y54.938
X261.741 Y55.003
X262.051 Y55.088
X262.405 Y55.205
X262.765 Y55.347
X263.168 Y55.532
X263.583 Y55.75
X264.029 Y56.016
X264.503 Y56.335
X264.989 Y56.702
X265.525 Y57.154
X266.046 Y57.645
X266.617 Y58.243
X267.199 Y58.924
X267.776 Y59.678
X268.377 Y60.559
X268.986 Y61.564
X269.593 Y62.7
X270.139 Y63.871
X270.627 Y65.067
X271.061 Y66.285
X271.444 Y67.518
X271.779 Y68.766
X272.069 Y70.025
X272.315 Y71.294
X272.519 Y72.57
X272.681 Y73.851
X272.802 Y75.138
X272.882 Y76.427
X272.922 Y77.719
X272.921 Y79.011
X272.877 Y80.302
X272.791 Y81.591
X272.658 Y82.877
X272.476 Y84.156
X272.239 Y85.426
X271.949 Y86.642
X271.648 Y87.658
X271.342 Y88.515
X271.052 Y89.208
X270.784 Y89.763
X270.517 Y90.245
X270.242 Y90.684
X270.196 Y90.75
X269.912 Y91.1
X269.583 Y91.408
X269.215 Y91.668
X268.814 Y91.876
X268.389 Y92.027
X267.948 Y92.119
X267.498 Y92.15
X264.747
G3 X263.531 Y91.033 I0.044 J-1.269
G1 X259.329 Y56.272
G3 X260.063 Y54.964 I1.261 J-0.152
X260.546 Y54.85 I0.527 J1.156
G1 X263.384
X263.66 Y54.864
X263.917 Y54.891
X264.181 Y54.933
X264.485 Y54.998
X264.795 Y55.083
X265.149 Y55.201
X265.51 Y55.343
X265.914 Y55.529
X266.328 Y55.746
X266.775 Y56.013
X267.25 Y56.332
X267.736 Y56.699
X268.272 Y57.152
X268.794 Y57.642
X269.365 Y58.242
X269.948 Y58.923
X270.525 Y59.677
X271.126 Y60.558
X271.735 Y61.563
X272.342 Y62.7
X272.888 Y63.871
X273.376 Y65.068
X273.81 Y66.285
X274.194 Y67.518
X274.529 Y68.766
X274.819 Y70.025
X275.065 Y71.294
X275.269 Y72.57
X275.43 Y73.852
X275.551 Y75.138
X275.632 Y76.427
X275.672 Y77.719
X275.671 Y79.011
X275.628 Y80.302
X275.541 Y81.591
X275.408 Y82.877
X275.226 Y84.156
X274.989 Y85.426
X274.699 Y86.642
X274.398 Y87.658
X274.093 Y88.515
X273.803 Y89.208
X273.534 Y89.763
X273.268 Y90.245
X272.993 Y90.684
X272.947 Y90.75
X272.663 Y91.1
X272.333 Y91.408
X271.965 Y91.668
X271.565 Y91.876
X271.14 Y92.027
X270.698 Y92.119
X270.248 Y92.15
X267.498
G3 X266.281 Y91.03 I0.044 J-1.269
G1 X262.167 Y56.269
G3 X263.384 Y54.85 I1.261 J-0.149
G1 X266.05
X266.416 Y54.868
X266.672 Y54.895
X266.935 Y54.937
X267.239 Y55.003
X267.548 Y55.087
X267.902 Y55.205
X268.263 Y55.347
X268.666 Y55.532
X269.081 Y55.75
X269.527 Y56.016
X270.001 Y56.335
X270.487 Y56.702
X271.023 Y57.154
X271.545 Y57.645
X272.116 Y58.244
X272.698 Y58.925
X273.275 Y59.679
X273.876 Y60.56
X274.485 Y61.565
X275.092 Y62.702
X275.638 Y63.873
X276.126 Y65.069
X276.56 Y66.286
X276.943 Y67.52
X277.279 Y68.768
X277.569 Y70.027
X277.815 Y71.295
X278.019 Y72.571
X278.18 Y73.853
X278.301 Y75.139
X278.382 Y76.429
X278.422 Y77.72
X278.421 Y79.012
X278.378 Y80.304
X278.291 Y81.593
X278.158 Y82.878
X277.976 Y84.157
X277.739 Y85.427
X277.449 Y86.643
X277.148 Y87.659
X276.843 Y88.516
X276.553 Y89.208
X276.284 Y89.763
X276.018 Y90.245
X275.743 Y90.685
X275.697 Y90.75
X275.413 Y91.1
X275.084 Y91.408
X274.715 Y91.668
X274.315 Y91.876
X273.89 Y92.027
X273.449 Y92.119
X272.999 Y92.15
X270.248
G3 X269.766 Y92.036 I0.044 J-1.269
X269.032 Y91.033 I0.527 J-1.156
G1 X264.834 Y56.272
G3 X266.05 Y54.85 I1.261 J-0.152
G1 X268.926
X269.156 Y54.861
X269.413 Y54.888
X269.677 Y54.931
X269.981 Y54.996
X270.291 Y55.081
X270.646 Y55.199
X271.006 Y55.341
X271.411 Y55.527
X271.825 Y55.744
X272.273 Y56.011
X272.747 Y56.33
X273.234 Y56.698
X273.77 Y57.15
X274.292 Y57.641
X274.864 Y58.241
X275.446 Y58.922
X276.024 Y59.677
X276.625 Y60.558
X277.234 Y61.564
X277.842 Y62.701
X278.388 Y63.872
X278.876 Y65.068
X279.31 Y66.285
X279.693 Y67.519
X280.029 Y68.767
X280.319 Y70.026
X280.565 Y71.294
X280.768 Y72.57
X280.93 Y73.852
X281.051 Y75.139
X281.132 Y76.428
X281.172 Y77.72
X281.171 Y79.012
X281.128 Y80.303
X281.041 Y81.592
X280.909 Y82.877
X280.727 Y84.156
X280.489 Y85.427
X280.2 Y86.643
X279.899 Y87.659
X279.594 Y88.515
X279.304 Y89.208
X279.035 Y89.763
X278.768 Y90.245
X278.494 Y90.684
X278.448 Y90.75
X278.163 Y91.1
X277.834 Y91.408
X277.466 Y91.668
X277.066 Y91.876
X276.641 Y92.027
X276.199 Y92.119
X275.749 Y92.15
X272.999
G3 X271.782 Y91.029 I0.044 J-1.269
G1 X267.709 Y56.267
G3 X268.926 Y54.85 I1.261 J-0.148
G1 X271.592
X271.912 Y54.866
X272.169 Y54.893
X272.432 Y54.935
X272.735 Y55
X273.045 Y55.085
X273.4 Y55.203
X273.76 Y55.345
X274.164 Y55.53
X274.578 Y55.748
X275.024 Y56.014
X275.499 Y56.333
X275.985 Y56.7
X276.521 Y57.153
X277.043 Y57.643
X277.614 Y58.243
X278.196 Y58.924
X278.774 Y59.678
X279.375 Y60.559
X279.984 Y61.565
X280.592 Y62.702
X281.137 Y63.873
X281.625 Y65.069
X282.059 Y66.286
X282.443 Y67.52
X282.778 Y68.768
X283.068 Y70.027
X283.315 Y71.295
X283.518 Y72.571
X283.68 Y73.853
X283.801 Y75.139
X283.882 Y76.429
X283.922 Y77.72
X283.921 Y79.012
X283.878 Y80.304
X283.791 Y81.593
X283.659 Y82.878
X283.477 Y84.157
X283.239 Y85.427
X282.95 Y86.643
X282.649 Y87.659
X282.344 Y88.515
X282.054 Y89.208
X281.785 Y89.763
X281.519 Y90.245
X281.244 Y90.684
X281.198 Y90.75
X280.914 Y91.1
X280.584 Y91.408
X280.216 Y91.668
X279.816 Y91.876
X279.391 Y92.027
X278.949 Y92.119
X278.499 Y92.15
X275.749
G3 X275.267 Y92.036 I0.044 J-1.269
X274.532 Y91.032 I0.527 J-1.156
G1 X270.376 Y56.27
G3 X271.592 Y54.85 I1.261 J-0.151
G1 X274.43
X274.655 Y54.861
X274.912 Y54.888
X275.176 Y54.93
X275.48 Y54.996
X275.79 Y55.081
X276.145 Y55.199
X276.505 Y55.341
X276.91 Y55.526
X277.324 Y55.744
X277.771 Y56.011
X278.246 Y56.33
X278.732 Y56.697
X279.269 Y57.15
X279.791 Y57.641
X280.363 Y58.241
X280.945 Y58.922
X281.523 Y59.677
X282.124 Y60.558
X282.734 Y61.564
X283.341 Y62.701
X283.887 Y63.872
X284.375 Y65.069
X284.809 Y66.286
X285.192 Y67.52
X285.528 Y68.767
X285.818 Y70.026
X286.064 Y71.295
X286.268 Y72.571
X286.43 Y73.852
X286.551 Y75.139
X286.632 Y76.428
X286.672 Y77.72
X286.671 Y79.012
X286.628 Y80.303
X286.541 Y81.592
X286.409 Y82.878
X286.227 Y84.157
X285.99 Y85.427
X285.7 Y86.643
X285.399 Y87.659
X285.094 Y88.515
X284.804 Y89.208
X284.536 Y89.763
X284.269 Y90.245
X283.994 Y90.684
X283.948 Y90.75
X283.664 Y91.1
X283.335 Y91.408
X282.966 Y91.668
X282.566 Y91.876
X282.141 Y92.027
X281.7 Y92.119
X281.25 Y92.15
X278.499
G3 X278.017 Y92.036 I0.044 J-1.269
X277.282 Y91.028 I0.527 J-1.156
G1 X273.213 Y56.267
G3 X273.948 Y54.964 I1.261 J-0.148
X274.43 Y54.85 I0.527 J1.156
G1 X277.097
X277.411 Y54.866
X277.668 Y54.893
X277.931 Y54.935
X278.234 Y55
X278.544 Y55.085
X278.899 Y55.203
X279.259 Y55.345
X279.663 Y55.53
X280.077 Y55.747
X280.523 Y56.014
X280.998 Y56.333
X281.484 Y56.7
X282.02 Y57.152
X282.542 Y57.643
X283.113 Y58.242
X283.695 Y58.923
X284.273 Y59.678
X284.874 Y60.559
X285.484 Y61.565
X286.091 Y62.702
X286.637 Y63.873
X287.125 Y65.07
X287.559 Y66.287
X287.942 Y67.521
X288.278 Y68.768
X288.568 Y70.027
X288.814 Y71.296
X289.018 Y72.572
X289.18 Y73.853
X289.301 Y75.14
X289.382 Y76.429
X289.422 Y77.721
X289.421 Y79.013
X289.378 Y80.304
X289.291 Y81.593
X289.159 Y82.879
X288.977 Y84.158
X288.74 Y85.428
X288.45 Y86.643
X288.149 Y87.659
X287.844 Y88.515
X287.554 Y89.208
X287.286 Y89.763
X287.019 Y90.245
X286.744 Y90.684
X286.698 Y90.75
X286.414 Y91.1
X286.085 Y91.408
X285.717 Y91.668
X285.316 Y91.876
X284.891 Y92.027
X284.45 Y92.119
X284 Y92.15
X281.25
G3 X280.033 Y91.031 I0.044 J-1.269
G1 X275.88 Y56.27
G3 X276.614 Y54.964 I1.261 J-0.151
X277.097 Y54.85 I0.527 J1.156
G1 X279.763
X280.165 Y54.87
X280.421 Y54.897
X280.684 Y54.939
X280.987 Y55.004
X281.297 Y55.089
X281.651 Y55.207
X282.011 Y55.349
X282.415 Y55.534
X282.829 Y55.751
X283.275 Y56.018
X283.75 Y56.337
X284.235 Y56.703
X284.772 Y57.156
X285.293 Y57.646
X285.864 Y58.245
X286.446 Y58.926
X287.024 Y59.681
X287.625 Y60.561
X288.234 Y61.567
X288.841 Y62.704
X289.387 Y63.875
X289.875 Y65.072
X290.309 Y66.289
X290.693 Y67.522
X291.028 Y68.77
X291.318 Y70.029
X291.565 Y71.298
X291.768 Y72.573
X291.93 Y73.855
X292.051 Y75.142
X292.132 Y76.431
X292.172 Y77.723
X292.171 Y79.015
X292.128 Y80.306
X292.041 Y81.595
X291.909 Y82.88
X291.727 Y84.16
X291.489 Y85.43
X291.2 Y86.645
X290.899 Y87.661
X290.594 Y88.516
X290.304 Y89.209
X290.035 Y89.764
X289.769 Y90.246
X289.494 Y90.685
X289.448 Y90.75
X289.164 Y91.1
X288.835 Y91.408
X288.467 Y91.668
X288.066 Y91.876
X287.642 Y92.027
X287.2 Y92.119
X286.75 Y92.15
X284
G3 X283.518 Y92.036 I0.044 J-1.269
X282.784 Y91.034 I0.527 J-1.156
G1 X278.547 Y56.273
G3 X279.763 Y54.85 I1.261 J-0.154
G1 X282.639
X282.904 Y54.863
X283.161 Y54.89
X283.425 Y54.932
X283.729 Y54.998
X284.039 Y55.083
X284.394 Y55.201
X284.755 Y55.343
X285.159 Y55.528
X285.574 Y55.746
X286.021 Y56.013
X286.495 Y56.332
X286.982 Y56.7
X287.519 Y57.152
X288.041 Y57.643
X288.612 Y58.243
X289.195 Y58.924
X289.773 Y59.679
X290.374 Y60.56
X290.984 Y61.566
X291.591 Y62.704
X292.137 Y63.875
X292.625 Y65.071
X293.059 Y66.288
X293.442 Y67.522
X293.778 Y68.77
X294.068 Y70.029
X294.314 Y71.297
X294.518 Y72.573
X294.68 Y73.855
X294.801 Y75.141
X294.882 Y76.431
X294.922 Y77.722
X294.921 Y79.014
X294.878 Y80.306
X294.791 Y81.595
X294.659 Y82.88
X294.477 Y84.159
X294.24 Y85.429
X293.95 Y86.645
X293.649 Y87.66
X293.344 Y88.516
X293.054 Y89.209
X292.786 Y89.763
X292.519 Y90.246
X292.245 Y90.685
X292.199 Y90.75
X291.915 Y91.1
X291.585 Y91.408
X291.217 Y91.668
X290.817 Y91.876
X290.392 Y92.027
X289.95 Y92.119
X289.5 Y92.15
X286.75
G3 X286.268 Y92.036 I0.044 J-1.269
X285.533 Y91.03 I0.527 J-1.156
G1 X281.422 Y56.268
G3 X282.157 Y54.964 I1.261 J-0.149
X282.639 Y54.85 I0.527 J1.156
G1 X285.306
X285.661 Y54.868
X285.917 Y54.895
X286.181 Y54.937
X286.484 Y55.002
X286.794 Y55.087
X287.148 Y55.205
X287.508 Y55.347
X287.912 Y55.532
X288.327 Y55.75
X288.773 Y56.016
X289.247 Y56.335
X289.734 Y56.702
X290.27 Y57.154
X290.792 Y57.645
X291.363 Y58.245
X291.945 Y58.926
X292.523 Y59.681
X293.124 Y60.561
X293.734 Y61.567
X294.341 Y62.705
X294.887 Y63.876
X295.375 Y65.072
X295.809 Y66.289
X296.192 Y67.523
X296.528 Y68.771
X296.818 Y70.03
X297.064 Y71.298
X297.268 Y72.574
X297.43 Y73.856
X297.551 Y75.142
X297.632 Y76.432
X297.672 Y77.723
X297.671 Y79.015
X297.628 Y80.306
X297.541 Y81.596
X297.409 Y82.881
X297.227 Y84.16
X296.99 Y85.43
X296.7 Y86.645
X296.399 Y87.661
X296.094 Y88.517
X295.804 Y89.209
X295.536 Y89.764
X295.269 Y90.246
X294.995 Y90.685
X294.949 Y90.75
X294.665 Y91.1
X294.335 Y91.408
X293.967 Y91.668
X293.567 Y91.876
X293.142 Y92.027
X292.7 Y92.119
X292.251 Y92.15
X289.5
G3 X288.284 Y91.033 I0.044 J-1.269
G1 X284.089 Y56.271
G3 X285.306 Y54.85 I1.261 J-0.152
G1 X288.143
X288.404 Y54.863
X288.661 Y54.89
X288.925 Y54.932
X289.228 Y54.998
X289.538 Y55.082
X289.894 Y55.201
X290.254 Y55.343
X290.659 Y55.528
X291.073 Y55.746
X291.52 Y56.013
X291.995 Y56.332
X292.481 Y56.699
X293.018 Y57.152
X293.54 Y57.643
X294.112 Y58.243
X294.694 Y58.924
X295.272 Y59.679
X295.874 Y60.56
X296.483 Y61.567
X297.091 Y62.704
X297.637 Y63.875
X298.125 Y65.072
X298.559 Y66.288
X298.942 Y67.522
X299.278 Y68.77
X299.568 Y70.029
X299.814 Y71.297
X300.018 Y72.573
X300.18 Y73.855
X300.301 Y75.142
X300.382 Y76.431
X300.422 Y77.723
X300.421 Y79.015
X300.378 Y80.306
X300.292 Y81.595
X300.159 Y82.88
X299.977 Y84.16
X299.74 Y85.43
X299.45 Y86.645
X299.149 Y87.66
X298.844 Y88.516
X298.555 Y89.209
X298.286 Y89.764
X298.02 Y90.246
X297.745 Y90.685
X297.699 Y90.75
X297.415 Y91.1
X297.086 Y91.408
X296.717 Y91.668
X296.317 Y91.876
X295.892 Y92.027
X295.451 Y92.119
X295.001 Y92.15
X292.251
G3 X291.768 Y92.036 I0.044 J-1.269
X291.034 Y91.03 I0.527 J-1.156
G1 X286.927 Y56.268
G3 X288.143 Y54.85 I1.261 J-0.149
G1 X290.81
X291.16 Y54.868
X291.417 Y54.894
X291.68 Y54.936
X291.983 Y55.002
X292.293 Y55.087
X292.647 Y55.205
X293.008 Y55.346
X293.411 Y55.531
X293.826 Y55.749
X294.272 Y56.016
X294.747 Y56.335
X295.233 Y56.702
X295.769 Y57.154
X296.291 Y57.645
X296.862 Y58.245
X297.445 Y58.926
X298.022 Y59.681
X298.624 Y60.562
X299.233 Y61.568
X299.841 Y62.705
X300.387 Y63.876
X300.875 Y65.072
X301.309 Y66.289
X301.692 Y67.523
X302.028 Y68.771
X302.318 Y70.03
X302.564 Y71.298
X302.768 Y72.574
X302.93 Y73.856
X303.051 Y75.142
X303.132 Y76.432
X303.172 Y77.723
X303.171 Y79.015
X303.128 Y80.307
X303.041 Y81.596
X302.909 Y82.881
X302.727 Y84.16
X302.49 Y85.43
X302.2 Y86.645
X301.899 Y87.661
X301.594 Y88.517
X301.304 Y89.209
X301.036 Y89.764
X300.77 Y90.246
X300.495 Y90.685
X300.449 Y90.75
X300.165 Y91.1
X299.836 Y91.408
X299.467 Y91.668
X299.067 Y91.876
X298.642 Y92.027
X298.201 Y92.119
X297.751 Y92.15
X295.001
G3 X294.518 Y92.036 I0.044 J-1.269
X293.784 Y91.033 I0.527 J-1.156
G1 X289.593 Y56.271
G3 X290.328 Y54.964 I1.261 J-0.152
X290.81 Y54.85 I0.527 J1.156
G1 X293.686
X293.901 Y54.861
X294.158 Y54.888
X294.422 Y54.93
X294.726 Y54.996
X295.036 Y55.08
X295.391 Y55.199
X295.752 Y55.341
X296.157 Y55.526
X296.571 Y55.744
X297.019 Y56.011
X297.493 Y56.33
X297.98 Y56.698
X298.517 Y57.15
X299.039 Y57.642
X299.611 Y58.242
X300.193 Y58.923
X300.771 Y59.678
X301.373 Y60.56
X301.983 Y61.566
X302.59 Y62.704
X303.136 Y63.875
X303.624 Y65.071
X304.058 Y66.288
X304.442 Y67.522
X304.777 Y68.77
X305.068 Y70.029
X305.314 Y71.297
X305.518 Y72.573
X305.68 Y73.855
X305.801 Y75.141
X305.882 Y76.431
X305.922 Y77.722
X305.921 Y79.014
X305.878 Y80.306
X305.792 Y81.595
X305.659 Y82.88
X305.477 Y84.159
X305.24 Y85.429
X304.951 Y86.645
X304.65 Y87.66
X304.345 Y88.516
X304.055 Y89.209
X303.786 Y89.763
X303.52 Y90.245
X303.245 Y90.685
X303.199 Y90.75
X302.915 Y91.1
X302.586 Y91.408
X302.218 Y91.668
X301.817 Y91.876
X301.392 Y92.027
X300.951 Y92.119
X300.501 Y92.15
X297.751
G3 X296.534 Y91.028 I0.044 J-1.269
G1 X292.469 Y56.267
G3 X293.686 Y54.85 I1.261 J-0.148
G1 X296.352
X296.658 Y54.865
X296.915 Y54.892
X297.178 Y54.934
X297.481 Y55
X297.791 Y55.084
X298.146 Y55.202
X298.506 Y55.344
X298.91 Y55.529
X299.324 Y55.747
X299.771 Y56.014
X300.245 Y56.333
X300.732 Y56.7
X301.268 Y57.153
X301.79 Y57.643
X302.362 Y58.243
X302.944 Y58.924
X303.522 Y59.679
X304.123 Y60.561
X304.733 Y61.567
X305.34 Y62.704
X305.886 Y63.875
X306.374 Y65.072
X306.808 Y66.289
X307.192 Y67.523
X307.527 Y68.77
X307.818 Y70.029
X308.064 Y71.298
X308.268 Y72.574
X308.43 Y73.855
X308.551 Y75.142
X308.632 Y76.431
X308.672 Y77.723
X308.671 Y79.015
X308.628 Y80.306
X308.542 Y81.595
X308.409 Y82.881
X308.227 Y84.16
X307.99 Y85.43
X307.701 Y86.645
X307.4 Y87.66
X307.095 Y88.516
X306.805 Y89.209
X306.536 Y89.763
X306.27 Y90.246
X305.995 Y90.685
X305.949 Y90.75
X305.665 Y91.1
X305.336 Y91.408
X304.968 Y91.668
X304.567 Y91.876
X304.142 Y92.027
X303.701 Y92.119
X303.251 Y92.15
X300.501
G3 X300.019 Y92.036 I0.044 J-1.269
X299.284 Y91.031 I0.527 J-1.156
G1 X295.136 Y56.27
G3 X295.87 Y54.964 I1.261 J-0.151
X296.352 Y54.85 I0.527 J1.156
G1 X299.19
X299.401 Y54.861
X299.658 Y54.887
X299.922 Y54.93
X300.226 Y54.995
X300.536 Y55.08
X300.891 Y55.198
X301.252 Y55.34
X301.656 Y55.526
X302.071 Y55.743
X302.518 Y56.01
X302.993 Y56.33
X303.48 Y56.697
X304.016 Y57.15
X304.538 Y57.641
X305.11 Y58.241
X305.693 Y58.922
X306.271 Y59.678
X306.873 Y60.559
X307.482 Y61.566
X308.09 Y62.704
X308.636 Y63.875
X309.124 Y65.071
X309.558 Y66.288
X309.941 Y67.522
X310.277 Y68.769
X310.567 Y70.028
X310.814 Y71.297
X311.018 Y72.573
X311.18 Y73.854
X311.301 Y75.141
X311.382 Y76.43
X311.422 Y77.722
X311.421 Y79.014
X311.378 Y80.305
X311.292 Y81.594
X311.159 Y82.88
X310.978 Y84.159
X310.74 Y85.429
X310.451 Y86.644
X310.15 Y87.66
X309.845 Y88.516
X309.555 Y89.208
X309.287 Y89.763
X309.02 Y90.245
X308.745 Y90.684
X308.7 Y90.75
X308.415 Y91.1
X308.086 Y91.408
X307.718 Y91.668
X307.317 Y91.876
X306.893 Y92.027
X306.451 Y92.119
X306.001 Y92.15
X303.251
G3 X302.769 Y92.036 I0.044 J-1.269
X302.034 Y91.028 I0.527 J-1.156
G1 X297.973 Y56.267
G3 X298.708 Y54.964 I1.261 J-0.147
X299.19 Y54.85 I0.527 J1.156
G1 X301.857
X302.158 Y54.865
X302.415 Y54.892
X302.678 Y54.934
X302.981 Y55
X303.291 Y55.084
X303.645 Y55.202
X304.006 Y55.344
X304.41 Y55.529
X304.824 Y55.747
X305.271 Y56.014
X305.745 Y56.333
X306.231 Y56.7
X306.768 Y57.152
X307.29 Y57.643
X307.861 Y58.243
X308.443 Y58.924
X309.021 Y59.679
X309.623 Y60.56
X310.233 Y61.566
X310.84 Y62.704
X311.386 Y63.875
X311.874 Y65.072
X312.308 Y66.288
X312.692 Y67.522
X313.027 Y68.77
X313.317 Y70.029
X313.564 Y71.297
X313.768 Y72.573
X313.93 Y73.855
X314.051 Y75.141
X314.132 Y76.431
X314.172 Y77.722
X314.171 Y79.015
X314.128 Y80.306
X314.042 Y81.595
X313.909 Y82.88
X313.727 Y84.159
X313.49 Y85.43
X313.201 Y86.645
X312.9 Y87.66
X312.595 Y88.516
X312.305 Y89.209
X312.037 Y89.763
X311.77 Y90.245
X311.495 Y90.684
X311.45 Y90.75
X311.165 Y91.1
X310.836 Y91.408
X310.468 Y91.668
X310.068 Y91.876
X309.643 Y92.027
X309.201 Y92.119
X308.751 Y92.15
X306.001
G3 X305.519 Y92.036 I0.044 J-1.269
X304.784 Y91.031 I0.527 J-1.156
G1 X300.64 Y56.27
G3 X301.857 Y54.85 I1.261 J-0.15
G1 X304.523
X304.912 Y54.869
X305.168 Y54.896
X305.431 Y54.938
X305.735 Y55.004
X306.044 Y55.089
X306.398 Y55.206
X306.759 Y55.348
X307.162 Y55.533
X307.577 Y55.751
X308.023 Y56.017
X308.497 Y56.336
X308.983 Y56.703
X309.519 Y57.156
X310.041 Y57.646
X310.612 Y58.246
X311.195 Y58.927
X311.772 Y59.681
X312.374 Y60.562
X312.983 Y61.568
X313.59 Y62.706
X314.136 Y63.877
X314.624 Y65.073
X315.058 Y66.29
X315.442 Y67.524
X315.778 Y68.772
X316.068 Y70.031
X316.314 Y71.299
X316.518 Y72.575
X316.68 Y73.857
X316.801 Y75.143
X316.882 Y76.433
X316.922 Y77.724
X316.921 Y79.016
X316.878 Y80.308
X316.792 Y81.597
X316.659 Y82.882
X316.477 Y84.161
X316.24 Y85.431
X315.95 Y86.646
X315.65 Y87.661
X315.345 Y88.517
X315.055 Y89.209
X314.786 Y89.764
X314.52 Y90.246
X314.245 Y90.685
X314.199 Y90.75
X313.915 Y91.1
X313.586 Y91.408
X313.218 Y91.668
X312.817 Y91.876
X312.393 Y92.027
X311.951 Y92.119
X311.501 Y92.15
X308.751
G3 X307.535 Y91.034 I0.044 J-1.269
G1 X303.307 Y56.273
G3 X304.523 Y54.85 I1.261 J-0.153
G1 X307.399
X307.652 Y54.863
X307.909 Y54.89
X308.173 Y54.932
X308.477 Y54.997
X308.787 Y55.082
X309.142 Y55.2
X309.502 Y55.342
X309.907 Y55.528
X310.322 Y55.746
X310.769 Y56.013
X311.243 Y56.332
X311.73 Y56.699
X312.267 Y57.152
X312.789 Y57.643
X313.361 Y58.243
X313.943 Y58.924
X314.521 Y59.68
X315.123 Y60.561
X315.733 Y61.567
X316.34 Y62.705
X316.886 Y63.876
X317.374 Y65.072
X317.808 Y66.289
X318.192 Y67.523
X318.527 Y68.771
X318.818 Y70.03
X319.064 Y71.298
X319.268 Y72.574
X319.43 Y73.856
X319.551 Y75.142
X319.632 Y76.432
X319.672 Y77.723
X319.671 Y79.015
X319.628 Y80.307
X319.542 Y81.596
X319.409 Y82.881
X319.227 Y84.16
X318.99 Y85.43
X318.701 Y86.645
X318.4 Y87.661
X318.095 Y88.517
X317.805 Y89.209
X317.537 Y89.764
X317.27 Y90.246
X316.995 Y90.685
X316.95 Y90.75
X316.665 Y91.1
X316.336 Y91.408
X315.968 Y91.668
X315.568 Y91.876
X315.143 Y92.027
X314.701 Y92.119
X314.251 Y92.15
X311.501
G3 X310.284 Y91.03 I0.044 J-1.269
G1 X306.182 Y56.268
G3 X307.399 Y54.85 I1.261 J-0.149
G1 X310.065
X310.409 Y54.867
X310.665 Y54.894
X310.928 Y54.936
X311.232 Y55.002
X311.542 Y55.086
X311.896 Y55.204
X312.256 Y55.346
X312.66 Y55.531
X313.075 Y55.749
X313.521 Y56.016
X313.995 Y56.335
X314.482 Y56.702
X315.018 Y57.154
X315.54 Y57.645
X316.112 Y58.245
X316.694 Y58.926
X317.272 Y59.681
X317.873 Y60.562
X318.483 Y61.568
X319.09 Y62.706
X319.636 Y63.877
X320.124 Y65.073
X320.558 Y66.29
X320.942 Y67.524
X321.277 Y68.772
X321.568 Y70.031
X321.814 Y71.299
X322.018 Y72.575
X322.18 Y73.857
X322.301 Y75.143
X322.382 Y76.433
X322.422 Y77.724
X322.421 Y79.016
X322.378 Y80.307
X322.292 Y81.597
X322.159 Y82.882
X321.977 Y84.161
X321.74 Y85.431
X321.451 Y86.646
X321.15 Y87.661
X320.845 Y88.517
X320.555 Y89.209
X320.286 Y89.764
X320.02 Y90.246
X319.745 Y90.685
X319.7 Y90.75
X319.415 Y91.1
X319.086 Y91.408
X318.718 Y91.668
X318.318 Y91.876
X317.893 Y92.027
X317.451 Y92.119
X317.001 Y92.15
X314.251
G3 X313.035 Y91.033 I0.044 J-1.269
G1 X308.849 Y56.271
G3 X310.065 Y54.85 I1.261 J-0.152
G1 X312.903
X313.152 Y54.862
X313.409 Y54.889
X313.672 Y54.931
X313.976 Y54.997
X314.286 Y55.082
X314.642 Y55.2
X315.002 Y55.342
X315.407 Y55.527
X315.821 Y55.745
X316.269 Y56.012
X316.743 Y56.331
X317.23 Y56.699
X317.766 Y57.152
X318.288 Y57.643
X318.861 Y58.243
X319.443 Y58.924
X320.021 Y59.679
X320.623 Y60.561
X321.232 Y61.567
X321.84 Y62.705
X322.386 Y63.876
X322.874 Y65.072
X323.308 Y66.289
X323.691 Y67.523
X324.027 Y68.771
X324.317 Y70.03
X324.564 Y71.298
X324.768 Y72.574
X324.93 Y73.856
X325.051 Y75.142
X325.132 Y76.432
X325.172 Y77.723
X325.171 Y79.015
X325.128 Y80.307
X325.042 Y81.596
X324.909 Y82.881
X324.727 Y84.16
X324.49 Y85.43
X324.201 Y86.645
X323.9 Y87.661
X323.595 Y88.517
X323.305 Y89.209
X323.037 Y89.764
X322.77 Y90.246
X322.495 Y90.685
X322.45 Y90.75
X322.165 Y91.1
X321.836 Y91.408
X321.468 Y91.668
X321.068 Y91.876
X320.643 Y92.027
X320.201 Y92.119
X319.751 Y92.15
X317.001
G3 X316.519 Y92.036 I0.044 J-1.269
X315.784 Y91.029 I0.527 J-1.156
G1 X311.686 Y56.268
G3 X312.421 Y54.964 I1.261 J-0.149
X312.903 Y54.85 I0.527 J1.156
G1 X315.57
X315.908 Y54.867
X316.165 Y54.894
X316.428 Y54.936
X316.731 Y55.001
X317.041 Y55.086
X317.396 Y55.204
X317.756 Y55.346
X318.16 Y55.531
X318.574 Y55.749
X319.021 Y56.015
X319.495 Y56.334
X319.982 Y56.702
X320.518 Y57.154
X321.04 Y57.645
X321.611 Y58.245
X322.194 Y58.925
X322.772 Y59.681
X323.373 Y60.562
X323.983 Y61.568
X324.59 Y62.706
X325.136 Y63.877
X325.624 Y65.073
X326.058 Y66.29
X326.442 Y67.524
X326.777 Y68.772
X327.068 Y70.031
X327.314 Y71.299
X327.518 Y72.575
X327.68 Y73.857
X327.801 Y75.143
X327.882 Y76.433
X327.922 Y77.724
X327.921 Y79.016
X327.878 Y80.308
X327.792 Y81.597
X327.659 Y82.882
X327.477 Y84.161
X327.24 Y85.431
X326.951 Y86.646
X326.65 Y87.661
X326.345 Y88.517
X326.055 Y89.209
X325.787 Y89.764
X325.52 Y90.246
X325.245 Y90.685
X325.2 Y90.75
X324.915 Y91.1
X324.586 Y91.408
X324.218 Y91.668
X323.818 Y91.876
X323.393 Y92.027
X322.951 Y92.119
X322.501 Y92.15
X319.751
G3 X319.269 Y92.036 I0.044 J-1.269
X318.535 Y91.032 I0.527 J-1.156
G1 X314.353 Y56.271
G3 X315.087 Y54.964 I1.261 J-0.152
X315.57 Y54.85 I0.527 J1.156
G1 X318.446
X318.649 Y54.86
X318.906 Y54.887
X319.17 Y54.929
X319.474 Y54.995
X319.784 Y55.08
X320.14 Y55.198
X320.5 Y55.34
X320.905 Y55.526
X321.32 Y55.743
X321.767 Y56.01
X322.241 Y56.33
X322.729 Y56.697
X323.265 Y57.15
X323.788 Y57.641
X324.36 Y58.242
X324.942 Y58.922
X325.52 Y59.678
X326.122 Y60.56
X326.732 Y61.567
X327.34 Y62.705
X327.886 Y63.876
X328.374 Y65.072
X328.808 Y66.289
X329.191 Y67.523
X329.527 Y68.77
X329.817 Y70.029
X330.064 Y71.298
X330.267 Y72.574
X330.43 Y73.855
X330.551 Y75.142
X330.632 Y76.431
X330.672 Y77.723
X330.671 Y79.015
X330.628 Y80.306
X330.542 Y81.595
X330.409 Y82.881
X330.228 Y84.16
X329.99 Y85.43
X329.701 Y86.645
X329.4 Y87.66
X329.095 Y88.516
X328.805 Y89.209
X328.537 Y89.763
X328.27 Y90.245
X327.996 Y90.685
X327.95 Y90.75
X327.666 Y91.1
X327.336 Y91.408
X326.968 Y91.668
X326.568 Y91.876
X326.143 Y92.027
X325.701 Y92.119
X325.251 Y92.15
X322.501
G3 X321.284 Y91.028 I0.044 J-1.269
G1 X317.228 Y56.266
G3 X317.963 Y54.964 I1.261 J-0.147
X318.446 Y54.85 I0.527 J1.156
G1 X321.112
X321.406 Y54.865
X321.663 Y54.892
X321.926 Y54.934
X322.23 Y54.999
X322.54 Y55.084
X322.894 Y55.202
X323.254 Y55.344
X323.658 Y55.529
X324.073 Y55.747
X324.52 Y56.013
X324.994 Y56.332
X325.48 Y56.7
X326.017 Y57.152
X326.539 Y57.643
X327.111 Y58.243
X327.693 Y58.924
X328.271 Y59.679
X328.873 Y60.561
X329.482 Y61.567
X330.09 Y62.705
X330.636 Y63.876
X331.124 Y65.072
X331.558 Y66.289
X331.941 Y67.523
X332.277 Y68.771
X332.567 Y70.03
X332.814 Y71.298
X333.018 Y72.574
X333.18 Y73.856
X333.301 Y75.142
X333.382 Y76.432
X333.422 Y77.723
X333.421 Y79.015
X333.378 Y80.307
X333.292 Y81.596
X333.159 Y82.881
X332.978 Y84.16
X332.74 Y85.43
X332.451 Y86.645
X332.15 Y87.661
X331.845 Y88.516
X331.555 Y89.209
X331.287 Y89.763
X331.02 Y90.246
X330.746 Y90.685
X330.7 Y90.75
X330.416 Y91.1
X330.086 Y91.408
X329.718 Y91.668
X329.318 Y91.876
X328.893 Y92.027
X328.451 Y92.119
X328.001 Y92.15
X325.251
G3 X324.769 Y92.036 I0.044 J-1.269
X324.035 Y91.031 I0.527 J-1.156
G1 X319.895 Y56.269
G3 X320.63 Y54.964 I1.261 J-0.15
X321.112 Y54.85 I0.527 J1.156
G1 X323.95
X324.15 Y54.86
X324.407 Y54.887
X324.671 Y54.929
X324.975 Y54.995
X325.285 Y55.08
X325.64 Y55.198
X326 Y55.34
X326.405 Y55.525
X326.82 Y55.743
X327.267 Y56.01
X327.742 Y56.329
X328.229 Y56.697
X328.765 Y57.149
X329.287 Y57.641
X329.86 Y58.241
X330.442 Y58.922
X331.02 Y59.678
X331.622 Y60.559
X332.232 Y61.566
X332.84 Y62.704
X333.386 Y63.875
X333.874 Y65.071
X334.308 Y66.288
X334.691 Y67.522
X335.027 Y68.77
X335.317 Y70.029
X335.564 Y71.297
X335.767 Y72.573
X335.93 Y73.855
X336.051 Y75.141
X336.132 Y76.431
X336.172 Y77.722
X336.171 Y79.014
X336.128 Y80.306
X336.042 Y81.595
X335.909 Y82.88
X335.728 Y84.159
X335.49 Y85.429
X335.201 Y86.644
X334.9 Y87.66
X334.595 Y88.516
X334.305 Y89.208
X334.037 Y89.763
X333.771 Y90.245
X333.496 Y90.684
X333.45 Y90.75
X333.166 Y91.1
X332.836 Y91.408
X332.468 Y91.668
X332.068 Y91.876
X331.643 Y92.027
X331.201 Y92.119
X330.751 Y92.15
X328.001
G3 X326.784 Y91.028 I0.044 J-1.269
G1 X322.733 Y56.266
G3 X323.95 Y54.85 I1.261 J-0.147
G1 X326.616
X326.907 Y54.865
X327.163 Y54.891
X327.427 Y54.933
X327.73 Y54.999
X328.04 Y55.084
X328.394 Y55.202
X328.755 Y55.344
X329.159 Y55.529
X329.573 Y55.746
X330.02 Y56.013
X330.494 Y56.332
X330.98 Y56.699
X331.517 Y57.152
X332.039 Y57.643
X332.611 Y58.243
X333.193 Y58.923
X333.771 Y59.679
X334.372 Y60.56
X334.982 Y61.567
X335.59 Y62.704
X336.136 Y63.875
X336.624 Y65.072
X337.058 Y66.289
X337.441 Y67.523
X337.777 Y68.77
X338.067 Y70.029
X338.314 Y71.298
X338.517 Y72.574
X338.68 Y73.855
X338.801 Y75.142
X338.882 Y76.431
X338.922 Y77.723
X338.921 Y79.015
X338.878 Y80.306
X338.792 Y81.595
X338.659 Y82.88
X338.478 Y84.16
X338.24 Y85.43
X337.951 Y86.645
X337.65 Y87.66
X337.345 Y88.516
X337.055 Y89.209
X336.787 Y89.763
X336.521 Y90.245
X336.246 Y90.684
X336.2 Y90.75
X335.916 Y91.1
X335.586 Y91.408
X335.218 Y91.668
X334.818 Y91.876
X334.393 Y92.027
X333.951 Y92.119
X333.501 Y92.15
X330.751
G3 X330.269 Y92.036 I0.044 J-1.269
X329.535 Y91.031 I0.527 J-1.156
G1 X325.4 Y56.269
G3 X326.616 Y54.85 I1.261 J-0.15
G1 X329.283
X329.661 Y54.869
X329.917 Y54.896
X330.18 Y54.938
X330.484 Y55.003
X330.793 Y55.088
X331.147 Y55.206
X331.508 Y55.348
X331.911 Y55.533
X332.326 Y55.75
X332.772 Y56.017
X333.246 Y56.336
X333.732 Y56.703
X334.269 Y57.155
X334.79 Y57.646
X335.362 Y58.245
X335.944 Y58.926
X336.522 Y59.681
X337.123 Y60.562
X337.733 Y61.568
X338.34 Y62.706
X338.886 Y63.877
X339.374 Y65.073
X339.808 Y66.29
X340.192 Y67.524
X340.527 Y68.772
X340.818 Y70.031
X341.064 Y71.299
X341.268 Y72.575
X341.43 Y73.857
X341.551 Y75.143
X341.632 Y76.433
X341.672 Y77.724
X341.671 Y79.016
X341.628 Y80.308
X341.542 Y81.597
X341.409 Y82.882
X341.227 Y84.161
X340.99 Y85.431
X340.701 Y86.646
X340.4 Y87.661
X340.095 Y88.517
X339.805 Y89.209
X339.537 Y89.764
X339.27 Y90.246
X338.995 Y90.685
X338.95 Y90.75
X338.666 Y91.1
X338.336 Y91.408
X337.968 Y91.668
X337.568 Y91.876
X337.143 Y92.027
X336.701 Y92.119
X336.251 Y92.15
X333.501
G3 X333.019 Y92.036 I0.044 J-1.269
X332.285 Y91.034 I0.527 J-1.156
G1 X328.066 Y56.272
G3 X328.8 Y54.964 I1.261 J-0.153
X329.283 Y54.85 I0.527 J1.156
G1 X332.159
X332.401 Y54.862
X332.658 Y54.889
X332.922 Y54.931
X333.226 Y54.997
X333.536 Y55.082
X333.891 Y55.2
X334.251 Y55.342
X334.656 Y55.527
X335.071 Y55.745
X335.518 Y56.012
X335.992 Y56.331
X336.48 Y56.699
X337.016 Y57.151
X337.538 Y57.643
X338.11 Y58.243
X338.693 Y58.924
X339.271 Y59.679
X339.872 Y60.561
X340.482 Y61.567
X341.09 Y62.705
X341.636 Y63.876
X342.124 Y65.073
X342.558 Y66.29
X342.941 Y67.523
X343.277 Y68.771
X343.567 Y70.03
X343.814 Y71.298
X344.018 Y72.574
X344.18 Y73.856
X344.301 Y75.142
X344.382 Y76.432
X344.422 Y77.723
X344.421 Y79.015
X344.378 Y80.307
X344.292 Y81.596
X344.159 Y82.881
X343.978 Y84.16
X343.74 Y85.43
X343.451 Y86.645
X343.15 Y87.661
X342.845 Y88.517
X342.555 Y89.209
X342.287 Y89.764
X342.02 Y90.246
X341.746 Y90.685
X341.7 Y90.75
X341.416 Y91.1
X341.086 Y91.408
X340.718 Y91.668
X340.318 Y91.876
X339.893 Y92.027
X339.451 Y92.119
X339.001 Y92.15
X336.251
G3 X335.035 Y91.029 I0.044 J-1.269
G1 X330.942 Y56.268
G3 X332.159 Y54.85 I1.261 J-0.149
G1 X334.825
X335.158 Y54.867
X335.414 Y54.893
X335.678 Y54.936
X335.981 Y55.001
X336.291 Y55.086
X336.645 Y55.204
X337.005 Y55.346
X337.409 Y55.531
X337.824 Y55.749
X338.271 Y56.015
X338.745 Y56.334
X339.231 Y56.701
X339.768 Y57.154
X340.289 Y57.645
X340.861 Y58.244
X341.443 Y58.925
X342.021 Y59.681
X342.623 Y60.562
X343.232 Y61.568
X343.84 Y62.706
X344.386 Y63.877
X344.874 Y65.073
X345.308 Y66.29
X345.692 Y67.524
X346.027 Y68.772
X346.317 Y70.031
X346.564 Y71.299
X346.768 Y72.575
X346.93 Y73.857
X347.051 Y75.143
X347.132 Y76.433
X347.172 Y77.724
X347.171 Y79.016
X347.128 Y80.308
X347.042 Y81.597
X346.909 Y82.882
X346.727 Y84.161
X346.49 Y85.431
X346.201 Y86.646
X345.9 Y87.661
X345.595 Y88.517
X345.305 Y89.209
X345.037 Y89.764
X344.77 Y90.246
X344.496 Y90.685
X344.45 Y90.75
X344.166 Y91.1
X343.836 Y91.408
X343.468 Y91.668
X343.068 Y91.876
X342.643 Y92.027
X342.201 Y92.119
X341.751 Y92.15
X339.001
G3 X338.519 Y92.036 I0.044 J-1.269
X337.785 Y91.032 I0.527 J-1.156
G1 X333.609 Y56.271
G3 X334.343 Y54.964 I1.261 J-0.151
X334.825 Y54.85 I0.527 J1.156
G1 X337.663
X337.901 Y54.862
X338.158 Y54.889
X338.422 Y54.931
X338.726 Y54.997
X339.036 Y55.081
X339.391 Y55.2
X339.751 Y55.342
X340.156 Y55.527
X340.571 Y55.745
X341.018 Y56.012
X341.492 Y56.331
X341.979 Y56.698
X342.516 Y57.151
X343.038 Y57.642
X343.61 Y58.242
X344.192 Y58.923
X344.771 Y59.679
X345.372 Y60.561
X345.982 Y61.567
X346.59 Y62.705
X347.136 Y63.876
X347.624 Y65.072
X348.058 Y66.289
X348.441 Y67.523
X348.777 Y68.771
X349.067 Y70.03
X349.314 Y71.298
X349.518 Y72.574
X349.68 Y73.856
X349.801 Y75.142
X349.882 Y76.432
X349.922 Y77.723
X349.921 Y79.015
X349.878 Y80.307
X349.792 Y81.596
X349.659 Y82.881
X349.478 Y84.16
X349.24 Y85.43
X348.951 Y86.645
X348.65 Y87.661
X348.345 Y88.517
X348.055 Y89.209
X347.787 Y89.764
X347.52 Y90.246
X347.246 Y90.685
X347.2 Y90.75
X346.916 Y91.1
