%
(1001)
(Z0 stock top centre y)
(T1  D=12.7 CR=0 - ZMIN=-50 - flat end mill)
G90 G94
G17
G21

(centreAdaptive15 1248m)
M9
T1 M6
S6000 M3
G54
M9
G0 X477.421 Y-0.47
Z15
Z5
Z3.77
G1 Z2.5 F849.6
G3 X481.309 Y0.47 Z2.281 I1.944 J0.47 F400.3
X477.421 Y-0.47 Z2.061 I-1.944 J-0.47
X481.309 Y0.47 Z1.842 I1.944 J0.47
X477.421 Y-0.47 Z1.622 I-1.944 J-0.47
X481.309 Y0.47 Z1.403 I1.944 J0.47
X480.777 Y1.416 Z1.365 I-1.944 J-0.47
X477.468 Y0.634 Z1.223 I-1.412 J-1.416
X479.642 Y-1.981 Z1.081 I1.897 J-0.634
X479.088 Y1.981 Z0.861 I-0.277 J1.981
X477.619 Y0.975 Z0.797 I0.277 J-1.981
X479.27 Y-1.998 Z0.655 I1.746 J-0.975
X481.196 Y0.804 Z0.513 I0.095 J1.998
X477.83 Y1.282 Z0.371 I-1.831 J-0.804
X478.901 Y-1.945 Z0.229 I1.535 J-1.282
X481.314 Y0.451 Z0.087 I0.464 J1.945
X478.094 Y1.544 Z-0.055 I-1.949 J-0.451
X480.636 Y-1.544 Z-0.274 I1.271 J-1.544
X478.094 Y1.544 Z-0.494 I-1.271 J1.544
X480.636 Y-1.544 Z-0.713 I1.271 J-1.544
X478.094 Y1.544 Z-0.932 I-1.271 J1.544
X480.636 Y-1.544 Z-1.152 I1.271 J-1.544
X478.094 Y1.544 Z-1.371 I-1.271 J1.544
X480.636 Y-1.544 Z-1.591 I1.271 J-1.544
X478.094 Y1.544 Z-1.81 I-1.271 J1.544
X480.636 Y-1.544 Z-2.029 I1.271 J-1.544
X478.094 Y1.544 Z-2.249 I-1.271 J1.544
X480.636 Y-1.544 Z-2.468 I1.271 J-1.544
X478.094 Y1.544 Z-2.688 I-1.271 J1.544
X480.636 Y-1.544 Z-2.907 I1.271 J-1.544
X478.094 Y1.544 Z-3.127 I-1.271 J1.544
X480.636 Y-1.544 Z-3.346 I1.271 J-1.544
X478.094 Y1.544 Z-3.565 I-1.271 J1.544
X480.636 Y-1.544 Z-3.785 I1.271 J-1.544
X478.094 Y1.544 Z-4.004 I-1.271 J1.544
X480.636 Y-1.544 Z-4.224 I1.271 J-1.544
X478.094 Y1.544 Z-4.443 I-1.271 J1.544
X480.636 Y-1.544 Z-4.662 I1.271 J-1.544
X478.094 Y1.544 Z-4.882 I-1.271 J1.544
X480.636 Y-1.544 Z-5.101 I1.271 J-1.544
X478.094 Y1.544 Z-5.321 I-1.271 J1.544
X480.636 Y-1.544 Z-5.54 I1.271 J-1.544
X478.094 Y1.544 Z-5.76 I-1.271 J1.544
X480.636 Y-1.544 Z-5.979 I1.271 J-1.544
X478.094 Y1.544 Z-6.198 I-1.271 J1.544
X480.636 Y-1.544 Z-6.418 I1.271 J-1.544
X478.094 Y1.544 Z-6.637 I-1.271 J1.544
X480.636 Y-1.544 Z-6.857 I1.271 J-1.544
X478.094 Y1.544 Z-7.076 I-1.271 J1.544
X480.636 Y-1.544 Z-7.295 I1.271 J-1.544
X478.094 Y1.544 Z-7.515 I-1.271 J1.544
X480.636 Y-1.544 Z-7.734 I1.271 J-1.544
X478.094 Y1.544 Z-7.954 I-1.271 J1.544
X480.636 Y-1.544 Z-8.173 I1.271 J-1.544
X478.094 Y1.544 Z-8.392 I-1.271 J1.544
X480.636 Y-1.544 Z-8.612 I1.271 J-1.544
X478.094 Y1.544 Z-8.831 I-1.271 J1.544
X480.636 Y-1.544 Z-9.051 I1.271 J-1.544
X478.094 Y1.544 Z-9.27 I-1.271 J1.544
X480.636 Y-1.544 Z-9.49 I1.271 J-1.544
X478.094 Y1.544 Z-9.709 I-1.271 J1.544
X480.636 Y-1.544 Z-9.928 I1.271 J-1.544
X481.365 Y0 Z-9.99 I-1.271 J1.544
X479.165 Y1.99 I-2
X477.405 Y-0.398 I0.2 J-1.99
X481.331 Y-0.368 I1.96 J0.398
X481.365 Y0 I-1.966 J0.368
G1 X481.389 Y1.034 F849.6
X481.344 Y1.32
X481.228 Y1.586
X481.049 Y1.815
X480.819 Y1.991
X480.552 Y2.104
X480.265 Y2.147
X480.127 Y2.15
X478.408
X478.258 Y2.142
X478.11 Y2.12
X477.964 Y2.083
X477.823 Y2.033
X477.686 Y1.972
X477.554 Y1.9
X477.428 Y1.818
X477.309 Y1.727
X477.196 Y1.629
X477.09 Y1.522
X476.992 Y1.409
X476.901 Y1.29
X476.818 Y1.165
X476.743 Y1.035
X476.676 Y0.901
X476.617 Y0.763
X476.567 Y0.621
X476.525 Y0.477
X476.491 Y0.331
X476.466 Y0.183
X476.459 Y-0.208
X476.525 Y-0.595
X476.661 Y-0.962
X476.864 Y-1.298
X477.125 Y-1.59
X477.436 Y-1.828
X477.786 Y-2.005
X478.162 Y-2.113
X478.552 Y-2.15
X480.127
X480.337 Y-2.146
X480.365 Y-2.145
X480.408 Y-2.144
X480.55 Y-2.134
G3 X480.943 Y-1.849 I-0.138 J0.604
X481.03 Y-1.485 I-0.531 J0.32
X479.803 Y-1.573 I-0.613 J-0.044
X479.965 Y-1.947 I0.613 J0.044
X480.408 Y-2.144 I0.452 J0.417
G1 X480.508 Y-2.142
X480.566 Y-2.131
X480.698 Y-2.105
X480.889 Y-2.037
X481.002 Y-1.979
X481.116 Y-1.904
X481.27 Y-1.774
X481.382 Y-1.649
X481.468 Y-1.524
X481.562 Y-1.333
X481.62 Y-1.143
X481.647 Y-0.952
X481.65 Y-0.762
Y0.762
X481.647 Y0.952
X481.62 Y1.143
X481.562 Y1.333
X481.468 Y1.524
X481.382 Y1.649
X481.27 Y1.774
X481.116 Y1.904
X481.002 Y1.979
X480.889 Y2.037
X480.698 Y2.105
X480.508 Y2.142
X480.265 Y2.147
X479.766 Y2.148
X478.906 Y2.149
X478.408 Y2.15
X477.495
X477.346 Y2.142
X477.197 Y2.12
X477.052 Y2.083
X476.911 Y2.032
X476.774 Y1.969
X476.644 Y1.896
X476.518 Y1.814
X476.399 Y1.723
X476.286 Y1.624
X476.181 Y1.517
X476.083 Y1.404
X475.991 Y1.285
X475.908 Y1.16
X475.832 Y1.031
X475.764 Y0.897
X475.704 Y0.76
X475.651 Y0.616
X475.607 Y0.473
X475.571 Y0.327
X475.543 Y0.172
X475.524 Y0.02
X475.53 Y-0.349
X475.604 Y-0.711
X475.742 Y-1.053
X475.94 Y-1.364
X476.191 Y-1.634
X476.487 Y-1.854
X476.819 Y-2.017
X477.174 Y-2.116
X477.541 Y-2.15
X478.552
G3 X479.029 Y-2.019 I-0.037 J1.066
X479.378 Y-1.711 I-0.514 J0.935
X477.988 Y2.082 I-1.967 J1.431
X477.495 Y2.15 I-0.578 J-2.363
G1 X476.584
X476.434 Y2.142
X476.285 Y2.12
X476.14 Y2.082
X475.999 Y2.031
X475.863 Y1.969
X475.732 Y1.896
X475.606 Y1.814
X475.486 Y1.723
X475.373 Y1.625
X475.266 Y1.52
X475.166 Y1.408
X475.073 Y1.291
X474.987 Y1.167
X474.91 Y1.039
X474.839 Y0.907
X474.777 Y0.77
X474.722 Y0.631
X474.675 Y0.485
X474.636 Y0.34
X474.606 Y0.193
X474.586 Y-0.196
X474.641 Y-0.582
X474.768 Y-0.95
X474.962 Y-1.288
X475.217 Y-1.583
X475.524 Y-1.824
X475.87 Y-2.003
X476.244 Y-2.113
X476.632 Y-2.15
X477.541
G3 X478.017 Y-2.019 I-0.037 J1.067
X478.317 Y-1.774 I-0.514 J0.936
X477.077 Y2.081 I-1.817 J1.542
X476.584 Y2.15 I-0.576 J-2.313
G1 X475.676
X475.526 Y2.142
X475.377 Y2.122
X475.232 Y2.086
X475.09 Y2.037
X474.952 Y1.977
X474.82 Y1.906
X474.693 Y1.826
X474.572 Y1.737
X474.457 Y1.641
X474.35 Y1.536
X474.249 Y1.426
X474.154 Y1.309
X474.068 Y1.186
X473.989 Y1.059
X473.918 Y0.927
X473.854 Y0.791
X473.798 Y0.649
X473.751 Y0.507
X473.711 Y0.362
X473.68 Y0.209
X473.657 Y0.058
X473.655 Y-0.315
X473.722 Y-0.681
X473.856 Y-1.029
X474.051 Y-1.346
X474.302 Y-1.622
X474.599 Y-1.847
X474.932 Y-2.013
X475.29 Y-2.116
X475.661 Y-2.15
X476.632
G3 X477.108 Y-2.019 I-0.037 J1.067
X477.408 Y-1.775 I-0.514 J0.936
X475.676 Y2.15 I-1.815 J1.543
G1 X474.731
X474.581 Y2.142
X474.433 Y2.12
X474.287 Y2.083
X474.146 Y2.033
X474.009 Y1.972
X473.877 Y1.9
X473.751 Y1.819
X473.631 Y1.729
X473.516 Y1.632
X473.409 Y1.528
X473.308 Y1.417
X473.214 Y1.3
X473.127 Y1.178
X473.048 Y1.05
X472.977 Y0.918
X472.913 Y0.782
X472.858 Y0.643
X472.81 Y0.5
X472.77 Y0.355
X472.739 Y0.209
X472.716 Y-0.182
X472.769 Y-0.57
X472.894 Y-0.941
X473.087 Y-1.281
X473.342 Y-1.578
X473.649 Y-1.821
X473.996 Y-2.002
X474.371 Y-2.113
X474.761 Y-2.15
X475.661
G3 X476.137 Y-2.019 I-0.037 J1.067
X476.423 Y-1.791 I-0.514 J0.936
X475.224 Y2.08 I-1.775 J1.572
X474.731 Y2.15 I-0.576 J-2.3
G1 X473.823
X473.673 Y2.142
X473.524 Y2.123
X473.378 Y2.089
X473.236 Y2.041
X473.098 Y1.982
X472.965 Y1.912
X472.838 Y1.833
X472.716 Y1.746
X472.601 Y1.65
X472.492 Y1.547
X472.39 Y1.437
X472.295 Y1.321
X472.208 Y1.198
X472.128 Y1.071
X472.056 Y0.94
X471.992 Y0.804
X471.935 Y0.663
X471.886 Y0.521
X471.846 Y0.377
X471.813 Y0.224
X471.789 Y0.073
X471.786 Y-0.301
X471.851 Y-0.67
X471.984 Y-1.02
X472.179 Y-1.34
X472.43 Y-1.618
X472.728 Y-1.844
X473.063 Y-2.012
X473.422 Y-2.115
X473.795 Y-2.15
X474.761
G3 X475.527 Y-1.786 I-0.037 J1.067
X473.823 Y2.15 I-1.787 J1.563
G1 X472.89
X472.74 Y2.142
X472.591 Y2.123
X472.445 Y2.089
X472.303 Y2.041
X472.165 Y1.982
X472.032 Y1.912
X471.905 Y1.833
X471.783 Y1.745
X471.668 Y1.649
X471.559 Y1.546
X471.457 Y1.436
X471.362 Y1.32
X471.274 Y1.199
X471.194 Y1.072
X471.121 Y0.94
X471.056 Y0.805
X470.999 Y0.667
X470.95 Y0.523
X470.909 Y0.379
X470.876 Y0.233
X470.874 Y0.222
X470.848 Y-0.17
X470.898 Y-0.56
X471.021 Y-0.932
X471.213 Y-1.275
X471.468 Y-1.574
X471.774 Y-1.819
X472.122 Y-2
X472.499 Y-2.112
X472.89 Y-2.15
X473.795
G3 X474.272 Y-2.019 I-0.037 J1.067
X474.544 Y-1.806 I-0.514 J0.936
X473.382 Y2.08 I-1.737 J1.598
X472.89 Y2.15 I-0.575 J-2.288
G1 X471.918
X471.768 Y2.142
X471.62 Y2.119
X471.475 Y2.081
X471.334 Y2.03
X471.197 Y1.969
X471.066 Y1.896
X470.94 Y1.815
X470.819 Y1.725
X470.706 Y1.628
X470.599 Y1.522
X470.498 Y1.411
X470.405 Y1.293
X470.32 Y1.17
X470.242 Y1.042
X470.171 Y0.91
X470.109 Y0.773
X470.055 Y0.633
X470.008 Y0.491
X469.97 Y0.346
X469.938 Y0.19
X469.919 Y-0.199
X469.974 Y-0.584
X470.1 Y-0.952
X470.294 Y-1.289
X470.549 Y-1.584
X470.854 Y-1.825
X471.2 Y-2.003
X471.574 Y-2.113
X471.961 Y-2.15
X472.89
G3 X473.673 Y-1.765 I-0.037 J1.067
X471.918 Y2.15 I-1.838 J1.527
G1 X470.985
X470.835 Y2.142
X470.687 Y2.119
X470.542 Y2.081
X470.401 Y2.031
X470.264 Y1.969
X470.133 Y1.896
X470.007 Y1.815
X469.887 Y1.725
X469.773 Y1.627
X469.666 Y1.522
X469.566 Y1.41
X469.473 Y1.292
X469.388 Y1.169
X469.31 Y1.041
X469.24 Y0.908
X469.177 Y0.772
X469.123 Y0.63
X469.076 Y0.488
X469.038 Y0.343
X469.007 Y0.188
X468.985 Y0.037
X468.987 Y-0.332
X469.056 Y-0.696
X469.19 Y-1.041
X469.385 Y-1.355
X469.635 Y-1.628
X469.93 Y-1.85
X470.262 Y-2.015
X470.618 Y-2.116
X470.986 Y-2.15
X471.961
G3 X472.438 Y-2.019 I-0.037 J1.066
X472.747 Y-1.762 I-0.514 J0.935
X471.478 Y2.081 I-1.846 J1.522
X470.985 Y2.15 I-0.577 J-2.322
G1 X470.064
X469.914 Y2.142
X469.766 Y2.12
X469.62 Y2.083
X469.479 Y2.034
X469.342 Y1.972
X469.21 Y1.901
X469.084 Y1.82
X468.963 Y1.73
X468.849 Y1.633
X468.741 Y1.529
X468.64 Y1.418
X468.546 Y1.301
X468.459 Y1.179
X468.38 Y1.051
X468.308 Y0.92
X468.244 Y0.784
X468.189 Y0.645
X468.14 Y0.501
X468.1 Y0.356
X468.069 Y0.209
X468.046 Y-0.181
X468.098 Y-0.569
X468.223 Y-0.94
X468.416 Y-1.28
X468.671 Y-1.578
X468.977 Y-1.821
X469.325 Y-2.002
X469.7 Y-2.113
X470.09 Y-2.15
X470.986
G3 X471.463 Y-2.019 I-0.037 J1.067
X471.744 Y-1.796 I-0.514 J0.936
X470.064 Y2.15 I-1.763 J1.58
G1 X469.158
X469.008 Y2.142
X468.859 Y2.124
X468.713 Y2.09
X468.57 Y2.043
X468.432 Y1.984
X468.299 Y1.914
X468.172 Y1.836
X468.05 Y1.748
X467.934 Y1.653
X467.825 Y1.549
X467.723 Y1.44
X467.628 Y1.324
X467.54 Y1.202
X467.46 Y1.075
X467.388 Y0.944
X467.323 Y0.808
X467.266 Y0.667
X467.217 Y0.525
X467.177 Y0.381
X467.144 Y0.229
X467.12 Y0.078
X467.115 Y-0.297
X467.181 Y-0.667
X467.313 Y-1.017
X467.508 Y-1.338
X467.759 Y-1.616
X468.057 Y-1.844
X468.392 Y-2.012
X468.752 Y-2.115
X469.126 Y-2.15
X470.09
G3 X470.853 Y-1.79 I-0.037 J1.067
X469.65 Y2.081 I-1.778 J1.57
X469.158 Y2.15 I-0.576 J-2.301
G1 X468.203
X468.053 Y2.142
X467.905 Y2.121
X467.759 Y2.085
X467.618 Y2.036
X467.48 Y1.976
X467.348 Y1.905
X467.222 Y1.824
X467.101 Y1.736
X466.986 Y1.639
X466.878 Y1.535
X466.776 Y1.425
X466.682 Y1.308
X466.595 Y1.186
X466.516 Y1.059
X466.443 Y0.927
X466.379 Y0.792
X466.323 Y0.652
X466.275 Y0.51
X466.235 Y0.366
X466.203 Y0.219
X466.179 Y-0.173
X466.23 Y-0.562
X466.355 Y-0.935
X466.548 Y-1.276
X466.803 Y-1.575
X467.111 Y-1.82
X467.459 Y-2.001
X467.836 Y-2.112
X468.227 Y-2.15
X469.126
G3 X469.884 Y-1.796 I-0.037 J1.067
X468.203 Y2.15 I-1.763 J1.58
G1 X467.253
X467.103 Y2.142
X466.955 Y2.12
X466.81 Y2.082
X466.668 Y2.032
X466.531 Y1.97
X466.4 Y1.899
X466.273 Y1.818
X466.153 Y1.728
X466.039 Y1.631
X465.932 Y1.526
X465.831 Y1.414
X465.738 Y1.297
X465.653 Y1.174
X465.574 Y1.046
X465.504 Y0.913
X465.442 Y0.777
X465.387 Y0.637
X465.34 Y0.495
X465.302 Y0.35
X465.27 Y0.194
X465.248 Y0.045
X465.249 Y-0.326
X465.317 Y-0.69
X465.452 Y-1.036
X465.647 Y-1.352
X465.897 Y-1.626
X466.193 Y-1.849
X466.525 Y-2.014
X466.882 Y-2.116
X467.252 Y-2.15
X468.227
G3 X468.703 Y-2.019 I-0.037 J1.066
X469.012 Y-1.764 I-0.514 J0.935
X467.253 Y2.15 I-1.842 J1.524
G1 X466.351
X466.201 Y2.142
X466.052 Y2.123
X465.906 Y2.089
X465.764 Y2.041
X465.626 Y1.982
X465.493 Y1.912
X465.366 Y1.832
X465.245 Y1.744
X465.129 Y1.648
X465.02 Y1.545
X464.918 Y1.435
X464.823 Y1.319
X464.735 Y1.198
X464.655 Y1.071
X464.582 Y0.94
X464.517 Y0.805
X464.46 Y0.666
X464.41 Y0.521
X464.369 Y0.377
X464.336 Y0.231
X464.31 Y-0.162
X464.36 Y-0.553
X464.484 Y-0.928
X464.677 Y-1.271
X464.932 Y-1.571
X465.24 Y-1.817
X465.59 Y-2
X465.967 Y-2.112
X466.36 Y-2.15
X467.252
G3 X467.997 Y-1.809 I-0.037 J1.067
X466.351 Y2.15 I-1.729 J1.603
G1 X465.391
X465.241 Y2.142
X465.093 Y2.12
X464.947 Y2.083
X464.806 Y2.034
X464.669 Y1.973
X464.537 Y1.901
X464.41 Y1.821
X464.289 Y1.732
X464.175 Y1.635
X464.068 Y1.53
X463.967 Y1.419
X463.873 Y1.302
X463.788 Y1.178
X463.709 Y1.051
X463.638 Y0.918
X463.576 Y0.782
X463.521 Y0.642
X463.474 Y0.5
X463.435 Y0.355
X463.403 Y0.2
X463.381 Y0.051
Y-0.321
X463.449 Y-0.686
X463.583 Y-1.033
X463.778 Y-1.349
X464.029 Y-1.624
X464.325 Y-1.848
X464.658 Y-2.014
X465.015 Y-2.116
X465.385 Y-2.15
X466.36
G3 X466.836 Y-2.019 I-0.037 J1.067
X467.142 Y-1.767 I-0.514 J0.935
X465.884 Y2.081 I-1.835 J1.529
X465.391 Y2.15 I-0.576 J-2.318
G1 X464.446
X464.296 Y2.142
X464.148 Y2.119
X464.003 Y2.081
X463.862 Y2.03
X463.725 Y1.968
X463.594 Y1.896
X463.468 Y1.814
X463.348 Y1.724
X463.234 Y1.627
X463.127 Y1.522
X463.027 Y1.41
X462.933 Y1.293
X462.847 Y1.17
X462.769 Y1.042
X462.698 Y0.91
X462.634 Y0.774
X462.579 Y0.634
X462.532 Y0.491
X462.493 Y0.347
X462.462 Y0.2
X462.441 Y-0.19
X462.494 Y-0.576
X462.62 Y-0.946
X462.813 Y-1.285
X463.068 Y-1.581
X463.374 Y-1.823
X463.72 Y-2.002
X464.095 Y-2.113
X464.483 Y-2.15
X465.385
G3 X465.862 Y-2.019 I-0.037 J1.067
X466.153 Y-1.785 I-0.514 J0.936
X464.446 Y2.15 I-1.789 J1.562
G1 X463.538
X463.388 Y2.142
X463.24 Y2.122
X463.094 Y2.087
X462.952 Y2.039
X462.814 Y1.979
X462.682 Y1.908
X462.555 Y1.829
X462.433 Y1.741
X462.318 Y1.644
X462.21 Y1.54
X462.108 Y1.43
X462.014 Y1.314
X461.927 Y1.191
X461.848 Y1.064
X461.776 Y0.932
X461.712 Y0.797
X461.656 Y0.655
X461.608 Y0.513
X461.568 Y0.368
X461.536 Y0.216
X461.512 Y0.064
X461.51 Y-0.309
X461.576 Y-0.676
X461.709 Y-1.025
X461.904 Y-1.343
X462.154 Y-1.62
X462.452 Y-1.846
X462.785 Y-2.013
X463.144 Y-2.115
X463.516 Y-2.15
X464.483
G3 X464.96 Y-2.019 I-0.037 J1.067
X465.253 Y-1.782 I-0.514 J0.936
X463.538 Y2.15 I-1.798 J1.555
G1 X462.605
X462.455 Y2.142
X462.306 Y2.122
X462.161 Y2.087
X462.019 Y2.039
X461.881 Y1.978
X461.749 Y1.908
X461.622 Y1.828
X461.5 Y1.74
X461.385 Y1.644
X461.277 Y1.54
X461.175 Y1.43
X461.08 Y1.314
X460.993 Y1.192
X460.913 Y1.065
X460.841 Y0.933
X460.776 Y0.798
X460.719 Y0.659
X460.67 Y0.516
X460.63 Y0.372
X460.597 Y0.225
X460.595 Y0.209
X460.57 Y-0.181
X460.62 Y-0.568
X460.744 Y-0.939
X460.935 Y-1.28
X461.189 Y-1.577
X461.495 Y-1.821
X461.841 Y-2.001
X462.216 Y-2.112
X462.605 Y-2.15
X463.516
G3 X463.992 Y-2.019 I-0.037 J1.067
X464.268 Y-1.802 I-0.514 J0.936
X463.098 Y2.08 I-1.745 J1.592
X462.605 Y2.15 I-0.575 J-2.291
G1 X461.633
X461.484 Y2.142
X461.336 Y2.118
X461.191 Y2.079
X461.05 Y2.028
X460.913 Y1.966
X460.782 Y1.893
X460.656 Y1.811
X460.536 Y1.721
X460.423 Y1.623
X460.316 Y1.517
X460.216 Y1.406
X460.123 Y1.288
X460.038 Y1.164
X459.96 Y1.036
X459.89 Y0.904
X459.828 Y0.767
X459.774 Y0.627
X459.727 Y0.485
X459.689 Y0.34
X459.658 Y0.184
X459.639 Y-0.204
X459.694 Y-0.588
X459.821 Y-0.955
X460.015 Y-1.292
X460.269 Y-1.585
X460.574 Y-1.826
X460.919 Y-2.004
X461.292 Y-2.113
X461.678 Y-2.15
X462.605
G3 X463.388 Y-1.765 I-0.037 J1.067
X462.126 Y2.081 I-1.838 J1.527
X461.633 Y2.15 I-0.576 J-2.319
G1 X460.7
X460.55 Y2.142
X460.402 Y2.119
X460.257 Y2.08
X460.116 Y2.029
X459.98 Y1.966
X459.849 Y1.894
X459.723 Y1.812
X459.603 Y1.722
X459.49 Y1.623
X459.383 Y1.518
X459.283 Y1.406
X459.19 Y1.288
X459.105 Y1.164
X459.028 Y1.036
X458.958 Y0.904
X458.896 Y0.767
X458.841 Y0.626
X458.795 Y0.483
X458.757 Y0.338
X458.726 Y0.183
X458.705 Y0.033
X458.706 Y-0.337
X458.775 Y-0.699
X458.91 Y-1.043
X459.105 Y-1.357
X459.355 Y-1.629
X459.65 Y-1.851
X459.98 Y-2.015
X460.336 Y-2.116
X460.703 Y-2.15
X461.678
G3 X462.155 Y-2.019 I-0.037 J1.066
X462.465 Y-1.761 I-0.514 J0.935
X460.7 Y2.15 I-1.849 J1.52
G1 X459.823
X459.673 Y2.142
X459.524 Y2.125
X459.378 Y2.092
X459.235 Y2.045
X459.097 Y1.987
X458.964 Y1.918
X458.836 Y1.839
X458.714 Y1.752
X458.598 Y1.657
X458.488 Y1.555
X458.386 Y1.445
X458.29 Y1.33
X458.201 Y1.209
X458.12 Y1.083
X458.046 Y0.952
X457.98 Y0.818
X457.922 Y0.679
X457.871 Y0.534
X457.829 Y0.39
X457.795 Y0.244
X457.767 Y-0.151
X457.815 Y-0.544
X457.938 Y-0.92
X458.131 Y-1.265
X458.386 Y-1.568
X458.695 Y-1.815
X459.045 Y-1.999
X459.424 Y-2.112
X459.818 Y-2.15
X460.703
G3 X461.438 Y-1.821 I-0.037 J1.067
X460.316 Y2.08 I-1.696 J1.624
X459.823 Y2.15 I-0.575 J-2.277
G1 X458.873
X458.723 Y2.142
X458.574 Y2.123
X458.428 Y2.088
X458.286 Y2.041
X458.148 Y1.982
X458.015 Y1.912
X457.888 Y1.833
X457.766 Y1.745
X457.651 Y1.649
X457.542 Y1.546
X457.44 Y1.436
X457.345 Y1.319
X457.259 Y1.197
X457.179 Y1.07
X457.107 Y0.939
X457.043 Y0.803
X456.987 Y0.664
X456.938 Y0.522
X456.898 Y0.377
X456.865 Y0.223
X456.842 Y0.073
X456.839 Y-0.301
X456.905 Y-0.67
X457.037 Y-1.02
X457.233 Y-1.34
X457.484 Y-1.618
X457.782 Y-1.844
X458.117 Y-2.012
X458.477 Y-2.115
X458.85 Y-2.15
X459.818
G3 X460.294 Y-2.019 I-0.037 J1.067
X460.588 Y-1.782 I-0.514 J0.936
X458.873 Y2.15 I-1.798 J1.555
G1 X457.918
X457.769 Y2.142
X457.62 Y2.121
X457.475 Y2.084
X457.333 Y2.034
X457.196 Y1.973
X457.064 Y1.902
X456.938 Y1.821
X456.817 Y1.732
X456.703 Y1.635
X456.595 Y1.531
X456.494 Y1.42
X456.4 Y1.303
X456.313 Y1.181
X456.234 Y1.053
X456.163 Y0.921
X456.099 Y0.786
X456.043 Y0.646
X455.996 Y0.504
X455.956 Y0.359
X455.924 Y0.213
X455.901 Y-0.179
X455.953 Y-0.567
X456.079 Y-0.939
X456.272 Y-1.279
X456.527 Y-1.577
X456.834 Y-1.821
X457.182 Y-2.001
X457.558 Y-2.112
X457.948 Y-2.15
X458.85
G3 X459.326 Y-2.019 I-0.037 J1.067
X459.612 Y-1.79 I-0.514 J0.936
X457.918 Y2.15 I-1.776 J1.571
G1 X456.968
X456.818 Y2.142
X456.67 Y2.119
X456.525 Y2.081
X456.384 Y2.03
X456.247 Y1.968
X456.116 Y1.896
X455.99 Y1.814
X455.87 Y1.724
X455.756 Y1.627
X455.649 Y1.521
X455.549 Y1.41
X455.456 Y1.292
X455.371 Y1.168
X455.293 Y1.04
X455.223 Y0.908
X455.161 Y0.771
X455.107 Y0.631
X455.06 Y0.488
X455.022 Y0.343
X454.991 Y0.188
X454.97 Y0.039
X454.971 Y-0.332
X455.04 Y-0.695
X455.174 Y-1.04
X455.37 Y-1.354
X455.62 Y-1.627
X455.915 Y-1.85
X456.247 Y-2.015
X456.603 Y-2.116
X456.971 Y-2.15
X457.948
G3 X458.424 Y-2.019 I-0.037 J1.066
X458.736 Y-1.76 I-0.514 J0.935
X456.968 Y2.15 I-1.851 J1.518
G1 X456.066
X455.916 Y2.142
X455.767 Y2.122
X455.621 Y2.087
X455.479 Y2.039
X455.342 Y1.979
X455.21 Y1.909
X455.083 Y1.829
X454.961 Y1.74
X454.846 Y1.644
X454.737 Y1.541
X454.636 Y1.431
X454.541 Y1.315
X454.453 Y1.193
X454.373 Y1.066
X454.301 Y0.935
X454.236 Y0.799
X454.179 Y0.66
X454.13 Y0.516
X454.089 Y0.371
X454.056 Y0.225
X454.031 Y-0.168
X454.082 Y-0.558
X454.206 Y-0.931
X454.399 Y-1.274
X454.654 Y-1.573
X454.961 Y-1.818
X455.31 Y-2
X455.687 Y-2.112
X456.079 Y-2.15
X456.971
G3 X457.72 Y-1.806 I-0.037 J1.067
X456.559 Y2.08 I-1.737 J1.598
X456.066 Y2.15 I-0.575 J-2.288
G1 X455.106
X454.956 Y2.142
X454.808 Y2.12
X454.663 Y2.082
X454.521 Y2.032
X454.384 Y1.97
X454.253 Y1.899
X454.126 Y1.818
X454.006 Y1.728
X453.892 Y1.631
X453.785 Y1.526
X453.684 Y1.415
X453.591 Y1.297
X453.505 Y1.174
X453.427 Y1.046
X453.356 Y0.914
X453.294 Y0.777
X453.24 Y0.637
X453.193 Y0.495
X453.154 Y0.35
X453.123 Y0.195
X453.101 Y0.046
Y-0.325
X453.17 Y-0.69
X453.304 Y-1.036
X453.499 Y-1.351
X453.749 Y-1.625
X454.046 Y-1.849
X454.378 Y-2.014
X454.735 Y-2.116
X455.104 Y-2.15
X456.079
G3 X456.555 Y-2.019 I-0.037 J1.067
X456.863 Y-1.764 I-0.514 J0.935
X455.106 Y2.15 I-1.841 J1.525
G1 X454.161
X454.011 Y2.142
X453.863 Y2.119
X453.718 Y2.08
X453.577 Y2.029
X453.441 Y1.966
X453.31 Y1.893
X453.184 Y1.811
X453.064 Y1.721
X452.951 Y1.623
X452.844 Y1.518
X452.744 Y1.406
X452.65 Y1.289
X452.564 Y1.166
X452.486 Y1.038
X452.416 Y0.906
X452.352 Y0.77
X452.298 Y0.63
X452.251 Y0.487
X452.212 Y0.342
X452.181 Y0.195
X452.16 Y-0.194
X452.214 Y-0.58
X452.34 Y-0.949
X452.533 Y-1.287
X452.788 Y-1.582
X453.093 Y-1.824
X453.44 Y-2.003
X453.813 Y-2.113
X454.201 Y-2.15
X455.104
G3 X455.58 Y-2.019 I-0.037 J1.067
X455.873 Y-1.783 I-0.514 J0.936
X454.161 Y2.15 I-1.795 J1.558
G1 X453.253
X453.103 Y2.142
X452.955 Y2.122
X452.809 Y2.086
X452.667 Y2.037
X452.53 Y1.977
X452.398 Y1.906
X452.271 Y1.826
X452.149 Y1.738
X452.035 Y1.642
X451.927 Y1.537
X451.825 Y1.427
X451.731 Y1.31
X451.644 Y1.188
X451.565 Y1.06
X451.493 Y0.929
X451.43 Y0.793
X451.374 Y0.651
X451.326 Y0.509
X451.286 Y0.364
X451.254 Y0.211
X451.231 Y0.06
X451.229 Y-0.313
X451.295 Y-0.679
X451.429 Y-1.027
X451.624 Y-1.345
X451.874 Y-1.621
X452.171 Y-1.846
X452.504 Y-2.013
X452.863 Y-2.115
X453.234 Y-2.15
X454.201
G3 X454.678 Y-2.019 I-0.037 J1.067
X454.973 Y-1.78 I-0.514 J0.936
X453.746 Y2.081 I-1.803 J1.552
X453.253 Y2.15 I-0.576 J-2.308
G1 X452.32
X452.17 Y2.142
X452.022 Y2.122
X451.876 Y2.086
X451.734 Y2.037
X451.597 Y1.977
X451.464 Y1.906
X451.338 Y1.826
X451.217 Y1.737
X451.102 Y1.641
X450.993 Y1.538
X450.892 Y1.427
X450.797 Y1.311
X450.71 Y1.189
X450.63 Y1.062
X450.558 Y0.93
X450.493 Y0.795
X450.437 Y0.656
X450.388 Y0.512
X450.348 Y0.368
X450.315 Y0.221
X450.312 Y0.203
X450.288 Y-0.186
X450.339 Y-0.573
X450.462 Y-0.942
X450.654 Y-1.282
X450.907 Y-1.579
X451.212 Y-1.822
X451.558 Y-2.002
X451.932 Y-2.113
X452.32 Y-2.15
X453.234
G3 X453.71 Y-2.019 I-0.037 J1.067
X453.987 Y-1.801 I-0.514 J0.936
X452.32 Y2.15 I-1.749 J1.589
G1 X451.349
X451.199 Y2.142
X451.051 Y2.118
X450.906 Y2.079
X450.765 Y2.027
X450.629 Y1.964
X450.498 Y1.891
X450.372 Y1.809
X450.252 Y1.719
X450.139 Y1.621
X450.033 Y1.515
X449.933 Y1.403
X449.84 Y1.285
X449.755 Y1.162
X449.677 Y1.034
X449.607 Y0.901
X449.545 Y0.764
X449.491 Y0.624
X449.445 Y0.482
X449.407 Y0.337
X449.375 Y0.181
X449.357 Y-0.206
X449.412 Y-0.59
X449.539 Y-0.957
X449.732 Y-1.293
X449.986 Y-1.586
X450.291 Y-1.826
X450.636 Y-2.004
X451.008 Y-2.113
X451.394 Y-2.15
X452.32
G3 X453.104 Y-1.765 I-0.037 J1.067
X451.349 Y2.15 I-1.838 J1.527
G1 X450.415
X450.265 Y2.142
X450.117 Y2.118
X449.973 Y2.079
X449.832 Y2.028
X449.695 Y1.965
X449.564 Y1.892
X449.439 Y1.81
X449.319 Y1.72
X449.206 Y1.622
X449.099 Y1.516
X448.999 Y1.404
X448.907 Y1.286
X448.822 Y1.162
X448.744 Y1.034
X448.674 Y0.901
X448.612 Y0.765
X448.558 Y0.623
X448.512 Y0.481
X448.474 Y0.335
X448.443 Y0.18
X448.422 Y0.03
X448.424 Y-0.339
X448.493 Y-0.701
X448.627 Y-1.045
X448.823 Y-1.358
X449.072 Y-1.63
X449.367 Y-1.851
X449.697 Y-2.015
X450.052 Y-2.116
X450.42 Y-2.15
X451.394
G3 X451.871 Y-2.019 I-0.037 J1.066
X452.182 Y-1.761 I-0.514 J0.935
X450.908 Y2.081 I-1.85 J1.519
X450.415 Y2.15 I-0.577 J-2.323
G1 X449.538
X449.388 Y2.142
X449.24 Y2.124
X449.093 Y2.091
X448.951 Y2.045
X448.813 Y1.986
X448.68 Y1.917
X448.552 Y1.838
X448.43 Y1.751
X448.314 Y1.656
X448.204 Y1.553
X448.102 Y1.444
X448.006 Y1.328
X447.917 Y1.207
X447.836 Y1.081
X447.763 Y0.95
X447.697 Y0.816
X447.639 Y0.677
X447.588 Y0.532
X447.546 Y0.388
X447.512 Y0.242
X447.484 Y-0.153
X447.533 Y-0.545
X447.655 Y-0.921
X447.848 Y-1.266
X448.103 Y-1.568
X448.412 Y-1.815
X448.762 Y-1.999
X449.141 Y-2.112
X449.534 Y-2.15
X450.42
G3 X451.154 Y-1.821 I-0.037 J1.067
X449.538 Y2.15 I-1.698 J1.623
G1 X448.588
X448.438 Y2.142
X448.289 Y2.123
X448.143 Y2.088
X448.001 Y2.04
X447.863 Y1.981
X447.731 Y1.911
X447.603 Y1.832
X447.482 Y1.744
X447.366 Y1.648
X447.258 Y1.544
X447.156 Y1.434
X447.061 Y1.318
X446.975 Y1.196
X446.895 Y1.069
X446.823 Y0.937
X446.759 Y0.801
X446.703 Y0.662
X446.655 Y0.52
X446.615 Y0.375
X446.582 Y0.221
X446.559 Y0.071
X446.555 Y-0.303
X446.621 Y-0.671
X446.754 Y-1.021
X446.95 Y-1.34
X447.201 Y-1.618
X447.499 Y-1.845
X447.833 Y-2.012
X448.193 Y-2.115
X448.566 Y-2.15
X449.534
G3 X450.305 Y-1.781 I-0.037 J1.067
X449.081 Y2.081 I-1.8 J1.554
X448.588 Y2.15 I-0.576 J-2.307
G1 X447.634
X447.484 Y2.142
X447.335 Y2.121
X447.19 Y2.084
X447.049 Y2.034
X446.912 Y1.973
X446.78 Y1.901
X446.653 Y1.82
X446.533 Y1.731
X446.418 Y1.634
X446.311 Y1.53
X446.21 Y1.419
X446.116 Y1.302
X446.029 Y1.179
X445.95 Y1.052
X445.879 Y0.92
X445.815 Y0.784
X445.76 Y0.645
X445.712 Y0.502
X445.672 Y0.358
X445.641 Y0.211
X445.618 Y-0.18
X445.67 Y-0.568
X445.795 Y-0.939
X445.989 Y-1.28
X446.244 Y-1.577
X446.551 Y-1.821
X446.898 Y-2.001
X447.274 Y-2.113
X447.664 Y-2.15
X448.566
G3 X449.042 Y-2.019 I-0.037 J1.067
X449.329 Y-1.79 I-0.514 J0.936
X448.127 Y2.081 I-1.778 J1.57
X447.634 Y2.15 I-0.576 J-2.301
G1 X446.683
X446.533 Y2.142
X446.385 Y2.119
X446.24 Y2.08
X446.099 Y2.029
X445.963 Y1.967
X445.831 Y1.895
X445.705 Y1.813
X445.585 Y1.724
X445.472 Y1.626
X445.365 Y1.52
X445.265 Y1.409
X445.172 Y1.291
X445.087 Y1.167
X445.009 Y1.039
X444.939 Y0.906
X444.877 Y0.77
X444.823 Y0.63
X444.776 Y0.487
X444.738 Y0.342
X444.707 Y0.187
X444.686 Y0.037
X444.687 Y-0.333
X444.756 Y-0.696
X444.891 Y-1.041
X445.086 Y-1.355
X445.336 Y-1.628
X445.632 Y-1.85
X445.963 Y-2.015
X446.319 Y-2.116
X446.687 Y-2.15
X447.664
G3 X448.452 Y-1.759 I-0.037 J1.066
X447.176 Y2.081 I-1.853 J1.517
X446.683 Y2.15 I-0.577 J-2.324
G1 X445.781
X445.631 Y2.142
X445.482 Y2.122
X445.337 Y2.087
X445.195 Y2.039
X445.057 Y1.979
X444.925 Y1.908
X444.798 Y1.828
X444.677 Y1.74
X444.562 Y1.644
X444.453 Y1.54
X444.351 Y1.43
X444.257 Y1.314
X444.169 Y1.192
X444.089 Y1.065
X444.017 Y0.934
X443.952 Y0.798
X443.895 Y0.659
X443.846 Y0.515
X443.805 Y0.37
X443.772 Y0.224
X443.747 Y-0.169
X443.798 Y-0.559
X443.922 Y-0.932
X444.115 Y-1.274
X444.37 Y-1.574
X444.678 Y-1.819
X445.026 Y-2
X445.403 Y-2.112
X445.795 Y-2.15
X446.687
G3 X447.164 Y-2.019 I-0.037 J1.067
X447.436 Y-1.805 I-0.514 J0.936
X445.781 Y2.15 I-1.738 J1.597
G1 X444.821
X444.671 Y2.142
X444.523 Y2.119
X444.378 Y2.082
X444.237 Y2.032
X444.1 Y1.97
X443.968 Y1.898
X443.842 Y1.817
X443.721 Y1.728
X443.607 Y1.63
X443.5 Y1.525
X443.4 Y1.414
X443.306 Y1.296
X443.221 Y1.173
X443.143 Y1.045
X443.072 Y0.913
X443.01 Y0.776
X442.956 Y0.636
X442.909 Y0.494
X442.87 Y0.349
X442.839 Y0.194
X442.817 Y0.045
Y-0.326
X442.886 Y-0.691
X443.02 Y-1.037
X443.216 Y-1.352
X443.466 Y-1.626
X443.762 Y-1.849
X444.094 Y-2.014
X444.45 Y-2.116
X444.82 Y-2.15
X445.795
G3 X446.271 Y-2.019 I-0.037 J1.066
X446.58 Y-1.764 I-0.514 J0.935
X445.314 Y2.081 I-1.842 J1.524
X444.821 Y2.15 I-0.576 J-2.32
G1 X443.876
X443.726 Y2.142
X443.578 Y2.118
X443.434 Y2.08
X443.293 Y2.028
X443.156 Y1.966
X443.025 Y1.893
X442.9 Y1.811
X442.78 Y1.72
X442.666 Y1.623
X442.559 Y1.518
X442.459 Y1.406
X442.366 Y1.288
X442.28 Y1.165
X442.202 Y1.037
X442.131 Y0.905
X442.068 Y0.769
X442.014 Y0.629
X441.967 Y0.486
X441.927 Y0.341
X441.897 Y0.194
X441.876 Y-0.195
X441.93 Y-0.581
X442.056 Y-0.949
X442.25 Y-1.287
X442.504 Y-1.582
X442.809 Y-1.824
X443.155 Y-2.003
X443.529 Y-2.113
X443.917 Y-2.15
X444.82
G3 X445.589 Y-1.783 I-0.037 J1.067
X443.876 Y2.15 I-1.796 J1.557
G1 X442.968
X442.819 Y2.142
X442.67 Y2.122
X442.524 Y2.086
X442.383 Y2.037
X442.245 Y1.976
X442.113 Y1.906
X441.986 Y1.826
X441.865 Y1.737
X441.75 Y1.641
X441.642 Y1.537
X441.541 Y1.426
X441.446 Y1.31
X441.36 Y1.187
X441.281 Y1.06
X441.209 Y0.928
X441.145 Y0.792
X441.089 Y0.65
X441.041 Y0.508
X441.002 Y0.363
X440.97 Y0.211
X440.947 Y0.059
X440.945 Y-0.313
X441.011 Y-0.68
X441.145 Y-1.028
X441.34 Y-1.345
X441.59 Y-1.621
X441.887 Y-1.847
X442.22 Y-2.013
X442.578 Y-2.116
X442.949 Y-2.15
X443.917
G3 X444.393 Y-2.019 I-0.037 J1.067
X444.689 Y-1.779 I-0.514 J0.936
X442.968 Y2.15 I-1.803 J1.552
G1 X442.035
X441.885 Y2.142
X441.737 Y2.122
X441.591 Y2.086
X441.449 Y2.037
X441.312 Y1.977
X441.18 Y1.906
X441.053 Y1.826
X440.932 Y1.737
X440.817 Y1.641
X440.708 Y1.537
X440.607 Y1.426
X440.512 Y1.31
X440.425 Y1.188
X440.346 Y1.061
X440.273 Y0.929
X440.209 Y0.794
X440.153 Y0.655
X440.104 Y0.512
X440.063 Y0.367
X440.031 Y0.221
X440.028 Y0.202
X440.004 Y-0.187
X440.055 Y-0.573
X440.178 Y-0.943
X440.37 Y-1.282
X440.623 Y-1.579
X440.928 Y-1.822
X441.273 Y-2.002
X441.647 Y-2.113
X442.035 Y-2.15
X442.949
G3 X443.426 Y-2.019 I-0.037 J1.067
X443.703 Y-1.801 I-0.514 J0.936
X442.528 Y2.08 I-1.75 J1.589
X442.035 Y2.15 I-0.575 J-2.292
G1 X441.064
X440.914 Y2.142
X440.766 Y2.118
X440.621 Y2.078
X440.48 Y2.027
X440.344 Y1.964
X440.213 Y1.891
X440.088 Y1.809
X439.968 Y1.719
X439.854 Y1.62
X439.748 Y1.515
X439.648 Y1.403
X439.555 Y1.285
X439.47 Y1.161
X439.393 Y1.033
X439.322 Y0.9
X439.261 Y0.764
X439.207 Y0.624
X439.16 Y0.481
X439.122 Y0.336
X439.091 Y0.18
X439.072 Y-0.207
X439.128 Y-0.591
X439.254 Y-0.957
X439.448 Y-1.293
X439.702 Y-1.586
X440.007 Y-1.826
X440.351 Y-2.004
X440.724 Y-2.113
X441.11 Y-2.15
X442.035
G3 X442.819 Y-1.765 I-0.037 J1.067
X441.557 Y2.081 I-1.838 J1.527
X441.064 Y2.15 I-0.576 J-2.319
G1 X440.13
X439.981 Y2.142
X439.833 Y2.118
X439.688 Y2.079
X439.547 Y2.028
X439.411 Y1.965
X439.28 Y1.892
X439.154 Y1.81
X439.034 Y1.72
X438.921 Y1.621
X438.815 Y1.516
X438.715 Y1.404
X438.622 Y1.286
X438.537 Y1.162
X438.46 Y1.034
X438.389 Y0.901
X438.328 Y0.764
X438.273 Y0.623
X438.227 Y0.48
X438.189 Y0.335
X438.159 Y0.18
X438.137 Y0.03
X438.139 Y-0.339
X438.208 Y-0.701
X438.343 Y-1.045
X438.538 Y-1.358
X438.787 Y-1.63
X439.082 Y-1.852
X439.413 Y-2.015
X439.768 Y-2.116
X440.135 Y-2.15
X441.11
G3 X441.897 Y-1.76 I-0.037 J1.066
X440.623 Y2.081 I-1.85 J1.518
X440.13 Y2.15 I-0.577 J-2.323
G1 X439.253
X439.104 Y2.142
X438.955 Y2.124
X438.808 Y2.091
X438.666 Y2.044
X438.528 Y1.986
X438.395 Y1.916
X438.267 Y1.838
X438.145 Y1.75
X438.029 Y1.655
X437.919 Y1.553
X437.817 Y1.443
X437.721 Y1.328
X437.632 Y1.207
X437.551 Y1.081
X437.478 Y0.95
X437.412 Y0.815
X437.354 Y0.677
X437.303 Y0.531
X437.261 Y0.387
X437.228 Y0.241
X437.2 Y-0.153
X437.248 Y-0.545
X437.371 Y-0.921
X437.563 Y-1.266
X437.819 Y-1.568
X438.127 Y-1.816
X438.477 Y-1.999
X438.856 Y-2.112
X439.249 Y-2.15
X440.135
G3 X440.611 Y-2.019 I-0.037 J1.067
X440.87 Y-1.82 I-0.514 J0.936
X439.253 Y2.15 I-1.698 J1.623
G1 X438.303
X438.153 Y2.142
X438.004 Y2.123
X437.859 Y2.088
X437.716 Y2.04
X437.579 Y1.981
X437.446 Y1.911
X437.319 Y1.832
X437.197 Y1.744
X437.082 Y1.648
X436.973 Y1.544
X436.871 Y1.434
X436.777 Y1.318
X436.69 Y1.195
X436.61 Y1.068
X436.538 Y0.937
X436.474 Y0.801
X436.418 Y0.662
X436.37 Y0.52
X436.33 Y0.375
X436.297 Y0.221
X436.274 Y0.071
X436.271 Y-0.303
X436.337 Y-0.671
X436.47 Y-1.021
X436.665 Y-1.341
X436.916 Y-1.618
X437.214 Y-1.845
X437.549 Y-2.012
X437.908 Y-2.115
X438.281 Y-2.15
X439.249
G3 X439.726 Y-2.019 I-0.037 J1.067
X440.02 Y-1.781 I-0.514 J0.936
X438.303 Y2.15 I-1.8 J1.554
G1 X437.349
X437.199 Y2.142
X437.051 Y2.12
X436.905 Y2.084
X436.764 Y2.034
X436.627 Y1.972
X436.495 Y1.901
X436.369 Y1.82
X436.248 Y1.731
X436.134 Y1.634
X436.026 Y1.53
X435.925 Y1.418
X435.831 Y1.302
X435.744 Y1.179
X435.666 Y1.051
X435.594 Y0.92
X435.53 Y0.784
X435.475 Y0.644
X435.427 Y0.502
X435.387 Y0.358
X435.356 Y0.211
X435.333 Y-0.18
X435.386 Y-0.568
X435.511 Y-0.94
X435.704 Y-1.28
X435.959 Y-1.577
X436.266 Y-1.821
X436.614 Y-2.001
X436.989 Y-2.113
X437.379 Y-2.15
X438.281
G3 X438.758 Y-2.019 I-0.037 J1.067
X439.044 Y-1.79 I-0.514 J0.936
X437.349 Y2.15 I-1.778 J1.569
G1 X436.398
X436.249 Y2.142
X436.1 Y2.119
X435.955 Y2.08
X435.814 Y2.029
X435.678 Y1.967
X435.547 Y1.895
X435.421 Y1.813
X435.3 Y1.723
X435.187 Y1.625
X435.08 Y1.52
X434.98 Y1.408
X434.887 Y1.291
X434.802 Y1.167
X434.724 Y1.039
X434.654 Y0.906
X434.592 Y0.77
X434.538 Y0.63
X434.492 Y0.487
X434.454 Y0.342
X434.423 Y0.186
X434.401 Y0.037
X434.403 Y-0.333
X434.472 Y-0.696
X434.606 Y-1.041
X434.802 Y-1.355
X435.051 Y-1.628
X435.347 Y-1.85
X435.678 Y-2.015
X436.034 Y-2.116
X436.403 Y-2.15
X437.379
G3 X437.856 Y-2.019 I-0.037 J1.066
X438.168 Y-1.759 I-0.514 J0.935
X436.891 Y2.081 I-1.853 J1.516
X436.398 Y2.15 I-0.577 J-2.324
G1 X435.496
X435.346 Y2.142
X435.198 Y2.122
X435.052 Y2.087
X434.91 Y2.039
X434.772 Y1.978
X434.64 Y1.908
X434.513 Y1.828
X434.392 Y1.74
X434.277 Y1.643
X434.168 Y1.54
X434.067 Y1.43
X433.972 Y1.313
X433.884 Y1.192
X433.804 Y1.065
X433.732 Y0.933
X433.667 Y0.798
X433.61 Y0.659
X433.561 Y0.514
X433.52 Y0.37
X433.488 Y0.224
X433.463 Y-0.169
X433.513 Y-0.559
X433.637 Y-0.932
X433.831 Y-1.274
X434.086 Y-1.574
X434.393 Y-1.819
X434.742 Y-2
X435.119 Y-2.112
X435.51 Y-2.15
X436.403
G3 X436.879 Y-2.019 I-0.037 J1.067
X437.152 Y-1.805 I-0.514 J0.936
X435.496 Y2.15 I-1.738 J1.597
G1 X434.536
X434.386 Y2.142
X434.238 Y2.119
X434.093 Y2.082
X433.952 Y2.031
X433.815 Y1.97
X433.683 Y1.898
X433.557 Y1.817
X433.437 Y1.728
X433.323 Y1.63
X433.216 Y1.525
X433.115 Y1.414
X433.022 Y1.296
X432.936 Y1.173
X432.858 Y1.045
X432.787 Y0.913
X432.725 Y0.776
X432.671 Y0.636
X432.624 Y0.494
X432.586 Y0.349
X432.554 Y0.193
X432.532 Y0.044
X432.533 Y-0.326
X432.601 Y-0.691
X432.735 Y-1.037
X432.931 Y-1.352
X433.181 Y-1.626
X433.477 Y-1.849
X433.809 Y-2.014
X434.166 Y-2.116
X434.535 Y-2.15
X435.51
G3 X435.986 Y-2.019 I-0.037 J1.066
X436.295 Y-1.764 I-0.514 J0.935
X434.536 Y2.15 I-1.842 J1.524
G1 X433.591
X433.442 Y2.142
X433.294 Y2.118
X433.149 Y2.08
X433.008 Y2.028
X432.871 Y1.966
X432.74 Y1.893
X432.615 Y1.811
X432.495 Y1.72
X432.381 Y1.623
X432.274 Y1.517
X432.174 Y1.406
X432.081 Y1.288
X431.995 Y1.165
X431.917 Y1.037
X431.846 Y0.905
X431.783 Y0.769
X431.729 Y0.629
X431.682 Y0.486
X431.643 Y0.341
X431.612 Y0.194
X431.592 Y-0.195
X431.645 Y-0.581
X431.771 Y-0.949
X431.965 Y-1.287
X432.219 Y-1.582
X432.525 Y-1.824
X432.871 Y-2.003
X433.244 Y-2.113
X433.632 Y-2.15
X434.535
G3 X435.304 Y-1.783 I-0.037 J1.067
X433.591 Y2.15 I-1.796 J1.557
G1 X432.683
X432.534 Y2.142
X432.385 Y2.122
X432.24 Y2.086
X432.098 Y2.037
X431.96 Y1.976
X431.828 Y1.906
X431.701 Y1.826
X431.58 Y1.737
X431.465 Y1.641
X431.357 Y1.537
X431.256 Y1.426
X431.162 Y1.309
X431.075 Y1.187
X430.996 Y1.059
X430.924 Y0.928
X430.861 Y0.792
X430.804 Y0.65
X430.757 Y0.508
X430.717 Y0.363
X430.685 Y0.21
X430.662 Y0.059
X430.66 Y-0.313
X430.727 Y-0.68
X430.86 Y-1.028
X431.055 Y-1.345
X431.305 Y-1.621
X431.602 Y-1.847
X431.935 Y-2.013
X432.294 Y-2.116
X432.665 Y-2.15
X433.632
G3 X434.109 Y-2.019 I-0.037 J1.067
X434.404 Y-1.779 I-0.514 J0.936
X433.176 Y2.081 I-1.804 J1.552
X432.683 Y2.15 I-0.576 J-2.308
G1 X431.75
X431.6 Y2.142
X431.452 Y2.122
X431.306 Y2.086
X431.164 Y2.037
X431.027 Y1.976
X430.895 Y1.906
X430.768 Y1.826
X430.647 Y1.737
X430.532 Y1.641
X430.424 Y1.537
X430.322 Y1.426
X430.228 Y1.31
X430.14 Y1.188
X430.061 Y1.061
X429.989 Y0.929
X429.924 Y0.794
X429.868 Y0.655
X429.819 Y0.512
X429.779 Y0.367
X429.746 Y0.221
X429.743 Y0.202
X429.719 Y-0.187
X429.77 Y-0.573
X429.893 Y-0.943
X430.085 Y-1.283
X430.338 Y-1.579
X430.643 Y-1.822
X430.989 Y-2.002
X431.362 Y-2.113
X431.75 Y-2.15
X432.665
G3 X433.418 Y-1.801 I-0.037 J1.067
X431.75 Y2.15 I-1.75 J1.589
G1 X430.779
X430.629 Y2.142
X430.481 Y2.118
X430.336 Y2.078
X430.196 Y2.027
X430.059 Y1.964
X429.928 Y1.891
X429.803 Y1.809
X429.683 Y1.719
X429.57 Y1.62
X429.463 Y1.515
X429.363 Y1.403
X429.271 Y1.285
X429.186 Y1.161
X429.108 Y1.033
X429.038 Y0.9
X428.976 Y0.764
X428.922 Y0.624
X428.875 Y0.481
X428.837 Y0.336
X428.806 Y0.18
X428.788 Y-0.207
X428.843 Y-0.591
X428.969 Y-0.957
X429.163 Y-1.293
X429.417 Y-1.586
X429.722 Y-1.826
X430.067 Y-2.004
X430.439 Y-2.113
X430.825 Y-2.15
X431.75
G3 X432.534 Y-1.765 I-0.037 J1.067
X430.779 Y2.15 I-1.838 J1.527
G1 X429.846
X429.696 Y2.142
X429.548 Y2.118
X429.403 Y2.079
X429.262 Y2.028
X429.126 Y1.965
X428.995 Y1.892
X428.869 Y1.81
X428.749 Y1.72
X428.636 Y1.621
X428.53 Y1.516
X428.43 Y1.404
X428.337 Y1.286
X428.252 Y1.162
X428.175 Y1.034
X428.105 Y0.901
X428.043 Y0.764
X427.989 Y0.623
X427.942 Y0.48
X427.905 Y0.335
X427.874 Y0.18
X427.853 Y0.03
X427.854 Y-0.339
X427.924 Y-0.701
X428.058 Y-1.045
X428.254 Y-1.358
X428.503 Y-1.63
X428.798 Y-1.852
X429.128 Y-2.015
X429.483 Y-2.116
X429.85 Y-2.15
X430.825
G3 X431.301 Y-2.019 I-0.037 J1.066
X431.612 Y-1.76 I-0.514 J0.935
X430.339 Y2.081 I-1.85 J1.518
X429.846 Y2.15 I-0.577 J-2.323
G1 X428.969
X428.819 Y2.142
X428.67 Y2.124
X428.524 Y2.091
X428.381 Y2.044
X428.243 Y1.986
X428.11 Y1.916
X427.982 Y1.838
X427.86 Y1.75
X427.744 Y1.655
X427.635 Y1.553
X427.532 Y1.443
X427.436 Y1.328
X427.348 Y1.207
X427.267 Y1.081
X427.193 Y0.95
X427.127 Y0.815
X427.069 Y0.677
X427.018 Y0.531
X426.976 Y0.387
X426.943 Y0.241
X426.915 Y-0.153
X426.963 Y-0.545
X427.086 Y-0.921
X427.279 Y-1.266
X427.534 Y-1.568
X427.842 Y-1.816
X428.192 Y-1.999
X428.571 Y-2.112
X428.965 Y-2.15
X429.85
G3 X430.327 Y-2.019 I-0.037 J1.067
X430.585 Y-1.82 I-0.514 J0.936
X428.969 Y2.15 I-1.698 J1.623
G1 X428.018
X427.868 Y2.142
X427.72 Y2.123
X427.574 Y2.088
X427.432 Y2.04
X427.294 Y1.981
X427.161 Y1.911
X427.034 Y1.832
X426.912 Y1.744
X426.797 Y1.648
X426.688 Y1.544
X426.587 Y1.434
X426.492 Y1.318
X426.405 Y1.195
X426.325 Y1.068
X426.253 Y0.937
X426.19 Y0.801
X426.134 Y0.662
X426.085 Y0.52
X426.045 Y0.375
X426.013 Y0.221
X425.989 Y0.071
X425.986 Y-0.303
X426.052 Y-0.671
X426.185 Y-1.021
X426.38 Y-1.341
X426.631 Y-1.618
X426.929 Y-1.845
X427.264 Y-2.012
X427.624 Y-2.115
X427.996 Y-2.15
X428.965
G3 X429.441 Y-2.019 I-0.037 J1.067
X429.735 Y-1.781 I-0.514 J0.936
X428.018 Y2.15 I-1.8 J1.554
G1 X427.064
X426.914 Y2.142
X426.766 Y2.12
X426.62 Y2.084
X426.479 Y2.034
X426.342 Y1.972
X426.21 Y1.901
X426.084 Y1.82
X425.963 Y1.731
X425.849 Y1.634
X425.741 Y1.529
X425.64 Y1.418
X425.546 Y1.302
X425.46 Y1.179
X425.381 Y1.051
X425.309 Y0.92
X425.245 Y0.784
X425.19 Y0.644
X425.142 Y0.502
X425.103 Y0.358
X425.071 Y0.211
X425.049 Y-0.18
X425.101 Y-0.568
X425.226 Y-0.94
X425.42 Y-1.28
X425.674 Y-1.578
X425.981 Y-1.821
X426.329 Y-2.001
X426.705 Y-2.113
X427.094 Y-2.15
X427.996
G3 X428.473 Y-2.019 I-0.037 J1.067
X428.759 Y-1.79 I-0.514 J0.936
X427.557 Y2.081 I-1.778 J1.569
X427.064 Y2.15 I-0.576 J-2.301
G1 X426.114
X425.964 Y2.142
X425.816 Y2.119
X425.671 Y2.08
X425.53 Y2.029
X425.393 Y1.967
X425.262 Y1.895
X425.136 Y1.813
X425.016 Y1.723
X424.902 Y1.625
X424.795 Y1.52
X424.695 Y1.408
X424.602 Y1.291
X424.517 Y1.167
X424.439 Y1.039
X424.369 Y0.906
X424.307 Y0.77
X424.253 Y0.63
X424.207 Y0.487
X424.169 Y0.342
X424.138 Y0.186
X424.116 Y0.037
X424.118 Y-0.333
X424.187 Y-0.696
X424.321 Y-1.041
X424.517 Y-1.355
X424.767 Y-1.628
X425.062 Y-1.85
X425.394 Y-2.015
X425.749 Y-2.116
X426.118 Y-2.15
X427.094
G3 X427.883 Y-1.759 I-0.037 J1.066
X426.607 Y2.081 I-1.853 J1.516
X426.114 Y2.15 I-0.577 J-2.324
G1 X425.211
X425.061 Y2.142
X424.913 Y2.122
X424.767 Y2.087
X424.625 Y2.039
X424.488 Y1.978
X424.355 Y1.908
X424.228 Y1.828
X424.107 Y1.74
X423.992 Y1.643
X423.883 Y1.54
X423.782 Y1.43
X423.687 Y1.313
X423.599 Y1.192
X423.519 Y1.065
X423.447 Y0.933
X423.382 Y0.798
X423.326 Y0.659
X423.276 Y0.514
X423.235 Y0.37
X423.203 Y0.224
X423.178 Y-0.169
X423.228 Y-0.559
X423.353 Y-0.932
X423.546 Y-1.274
X423.801 Y-1.574
X424.108 Y-1.819
X424.457 Y-2
X424.834 Y-2.112
X425.225 Y-2.15
X426.118
G3 X426.594 Y-2.019 I-0.037 J1.067
X426.867 Y-1.805 I-0.514 J0.936
X425.211 Y2.15 I-1.738 J1.597
G1 X424.251
X424.102 Y2.142
X423.953 Y2.119
X423.808 Y2.082
X423.667 Y2.031
X423.53 Y1.97
X423.398 Y1.898
X423.272 Y1.817
X423.152 Y1.728
X423.038 Y1.63
X422.931 Y1.525
X422.83 Y1.414
X422.737 Y1.296
X422.652 Y1.173
X422.573 Y1.045
X422.503 Y0.913
X422.44 Y0.776
X422.386 Y0.636
X422.339 Y0.494
X422.301 Y0.349
X422.269 Y0.193
X422.248 Y0.044
Y-0.326
X422.316 Y-0.691
X422.451 Y-1.037
X422.646 Y-1.352
X422.896 Y-1.626
X423.192 Y-1.849
X423.524 Y-2.014
X423.881 Y-2.116
X424.25 Y-2.15
X425.225
G3 X425.702 Y-2.019 I-0.037 J1.066
X426.01 Y-1.764 I-0.514 J0.935
X424.744 Y2.081 I-1.842 J1.524
X424.251 Y2.15 I-0.576 J-2.32
G1 X423.307
X423.157 Y2.142
X423.009 Y2.118
X422.864 Y2.08
X422.723 Y2.028
X422.587 Y1.966
X422.456 Y1.893
X422.33 Y1.811
X422.21 Y1.72
X422.096 Y1.623
X421.989 Y1.517
X421.89 Y1.406
X421.796 Y1.288
X421.71 Y1.165
X421.632 Y1.037
X421.562 Y0.905
X421.499 Y0.769
X421.444 Y0.629
X421.397 Y0.486
X421.358 Y0.341
X421.327 Y0.194
X421.307 Y-0.195
X421.36 Y-0.581
X421.486 Y-0.949
X421.68 Y-1.287
X421.934 Y-1.582
X422.24 Y-1.824
X422.586 Y-2.003
X422.96 Y-2.113
X423.347 Y-2.15
X424.25
G3 X424.727 Y-2.019 I-0.037 J1.067
X425.019 Y-1.783 I-0.514 J0.936
X423.8 Y2.081 I-1.796 J1.557
X423.307 Y2.15 I-0.576 J-2.306
G1 X422.399
X422.249 Y2.142
X422.1 Y2.122
X421.955 Y2.086
X421.813 Y2.037
X421.676 Y1.976
X421.543 Y1.906
X421.416 Y1.826
X421.295 Y1.737
X421.18 Y1.641
X421.072 Y1.537
X420.971 Y1.426
X420.877 Y1.309
X420.79 Y1.187
X420.711 Y1.059
X420.639 Y0.928
X420.576 Y0.792
X420.52 Y0.65
X420.472 Y0.508
X420.432 Y0.363
X420.4 Y0.21
X420.377 Y0.059
X420.375 Y-0.313
X420.442 Y-0.68
X420.575 Y-1.028
X420.77 Y-1.345
X421.02 Y-1.621
X421.317 Y-1.847
X421.65 Y-2.013
X422.009 Y-2.116
X422.38 Y-2.15
X423.347
G3 X423.824 Y-2.019 I-0.037 J1.067
X424.119 Y-1.779 I-0.514 J0.936
X422.399 Y2.15 I-1.804 J1.552
G1 X421.465
X421.316 Y2.142
X421.167 Y2.122
X421.021 Y2.086
X420.88 Y2.037
X420.742 Y1.976
X420.61 Y1.906
X420.483 Y1.826
X420.362 Y1.737
X420.247 Y1.641
X420.139 Y1.537
X420.038 Y1.426
X419.943 Y1.31
X419.855 Y1.188
X419.776 Y1.061
X419.704 Y0.929
X419.639 Y0.794
X419.583 Y0.655
X419.534 Y0.512
X419.494 Y0.367
X419.462 Y0.221
X419.459 Y0.202
X419.434 Y-0.187
X419.485 Y-0.574
X419.608 Y-0.943
X419.8 Y-1.283
X420.053 Y-1.579
X420.358 Y-1.822
X420.704 Y-2.002
X421.077 Y-2.113
X421.465 Y-2.15
X422.38
G3 X422.856 Y-2.019 I-0.037 J1.067
X423.133 Y-1.801 I-0.514 J0.936
X421.958 Y2.08 I-1.75 J1.588
X421.465 Y2.15 I-0.575 J-2.292
G1 X420.494
X420.344 Y2.142
X420.196 Y2.118
X420.052 Y2.078
X419.911 Y2.027
X419.775 Y1.964
X419.643 Y1.891
X419.518 Y1.809
X419.398 Y1.719
X419.285 Y1.62
X419.178 Y1.515
X419.078 Y1.403
X418.986 Y1.285
X418.901 Y1.161
X418.823 Y1.033
X418.753 Y0.9
X418.691 Y0.764
X418.637 Y0.624
X418.591 Y0.481
X418.553 Y0.336
X418.521 Y0.18
X418.503 Y-0.207
X418.558 Y-0.591
X418.685 Y-0.957
X418.878 Y-1.293
X419.132 Y-1.586
X419.437 Y-1.826
X419.782 Y-2.004
X420.154 Y-2.113
X420.54 Y-2.15
X421.465
G3 X422.249 Y-1.765 I-0.037 J1.067
X420.987 Y2.081 I-1.838 J1.527
X420.494 Y2.15 I-0.576 J-2.319
G1 X419.561
X419.411 Y2.142
X419.263 Y2.118
X419.118 Y2.079
X418.977 Y2.028
X418.841 Y1.965
X418.71 Y1.892
X418.584 Y1.81
X418.465 Y1.72
X418.351 Y1.621
X418.245 Y1.516
X418.145 Y1.404
X418.052 Y1.286
X417.968 Y1.162
X417.89 Y1.034
X417.82 Y0.901
X417.758 Y0.764
X417.704 Y0.623
X417.658 Y0.48
X417.62 Y0.335
X417.589 Y0.18
X417.568 Y0.03
X417.57 Y-0.339
X417.639 Y-0.701
X417.773 Y-1.045
X417.969 Y-1.358
X418.218 Y-1.63
X418.513 Y-1.852
X418.843 Y-2.015
X419.198 Y-2.116
X419.565 Y-2.15
X420.54
G3 X421.016 Y-2.019 I-0.037 J1.066
X421.328 Y-1.76 I-0.514 J0.935
X420.054 Y2.081 I-1.85 J1.518
X419.561 Y2.15 I-0.577 J-2.323
G1 X418.684
X418.534 Y2.142
X418.385 Y2.124
X418.239 Y2.091
X418.096 Y2.044
X417.958 Y1.986
X417.825 Y1.916
X417.697 Y1.838
X417.576 Y1.75
X417.46 Y1.655
X417.35 Y1.553
X417.247 Y1.443
X417.152 Y1.328
X417.063 Y1.207
X416.982 Y1.081
X416.908 Y0.95
X416.842 Y0.815
X416.784 Y0.677
X416.733 Y0.531
X416.692 Y0.387
X416.658 Y0.241
X416.63 Y-0.153
X416.678 Y-0.545
X416.801 Y-0.921
X416.994 Y-1.266
X417.249 Y-1.568
X417.557 Y-1.816
X417.908 Y-1.999
X418.286 Y-2.112
X418.68 Y-2.15
X419.565
G3 X420.042 Y-2.019 I-0.037 J1.067
X420.3 Y-1.82 I-0.514 J0.936
X418.684 Y2.15 I-1.698 J1.623
G1 X417.733
X417.584 Y2.142
X417.435 Y2.123
X417.289 Y2.088
X417.147 Y2.04
X417.009 Y1.981
X416.876 Y1.911
X416.749 Y1.832
X416.627 Y1.744
X416.512 Y1.648
X416.404 Y1.544
X416.302 Y1.434
X416.207 Y1.318
X416.12 Y1.195
X416.041 Y1.068
X415.968 Y0.937
X415.905 Y0.801
X415.849 Y0.662
X415.801 Y0.52
X415.761 Y0.375
X415.728 Y0.221
X415.704 Y0.071
X415.701 Y-0.303
X415.767 Y-0.672
X415.9 Y-1.021
X416.096 Y-1.341
X416.347 Y-1.618
X416.644 Y-1.845
X416.979 Y-2.012
X417.339 Y-2.115
X417.711 Y-2.15
X418.68
G3 X419.156 Y-2.019 I-0.037 J1.067
X419.451 Y-1.781 I-0.514 J0.936
X417.733 Y2.15 I-1.8 J1.554
G1 X416.779
X416.629 Y2.142
X416.481 Y2.12
X416.336 Y2.084
X416.194 Y2.034
X416.057 Y1.972
X415.925 Y1.901
X415.799 Y1.82
X415.678 Y1.731
X415.564 Y1.634
X415.456 Y1.529
X415.355 Y1.418
X415.261 Y1.302
X415.175 Y1.179
X415.096 Y1.051
X415.024 Y0.92
X414.961 Y0.784
X414.905 Y0.644
X414.858 Y0.502
X414.818 Y0.358
X414.786 Y0.211
X414.764 Y-0.18
X414.816 Y-0.568
X414.941 Y-0.94
X415.135 Y-1.28
X415.39 Y-1.578
X415.697 Y-1.821
X416.044 Y-2.001
X416.42 Y-2.113
X416.81 Y-2.15
X417.711
G3 X418.188 Y-2.019 I-0.037 J1.067
X418.475 Y-1.79 I-0.514 J0.936
X416.779 Y2.15 I-1.778 J1.569
G1 X415.829
X415.679 Y2.142
X415.531 Y2.119
X415.386 Y2.08
X415.245 Y2.029
X415.108 Y1.967
X414.977 Y1.895
X414.851 Y1.813
X414.731 Y1.723
X414.617 Y1.625
X414.511 Y1.52
X414.41 Y1.408
X414.318 Y1.291
X414.233 Y1.167
X414.155 Y1.039
X414.084 Y0.906
X414.023 Y0.77
X413.969 Y0.63
X413.922 Y0.487
X413.884 Y0.342
X413.853 Y0.186
X413.832 Y0.037
X413.833 Y-0.333
X413.902 Y-0.696
X414.037 Y-1.041
X414.232 Y-1.355
X414.482 Y-1.628
X414.777 Y-1.85
X415.109 Y-2.015
X415.465 Y-2.116
X415.833 Y-2.15
X416.81
G3 X417.286 Y-2.019 I-0.037 J1.066
X417.598 Y-1.759 I-0.514 J0.935
X416.322 Y2.081 I-1.853 J1.516
X415.829 Y2.15 I-0.577 J-2.324
G1 X414.926
X414.777 Y2.142
X414.628 Y2.122
X414.482 Y2.087
X414.34 Y2.039
X414.203 Y1.978
X414.07 Y1.908
X413.943 Y1.828
X413.822 Y1.74
X413.707 Y1.643
X413.598 Y1.54
X413.497 Y1.43
X413.402 Y1.313
X413.314 Y1.192
X413.235 Y1.065
X413.162 Y0.933
X413.097 Y0.798
X413.041 Y0.659
X412.991 Y0.514
X412.95 Y0.37
X412.918 Y0.224
X412.893 Y-0.169
X412.944 Y-0.559
X413.068 Y-0.932
X413.261 Y-1.274
X413.516 Y-1.574
X413.823 Y-1.819
X414.172 Y-2
X414.549 Y-2.112
X414.94 Y-2.15
X415.833
G3 X416.309 Y-2.019 I-0.037 J1.067
X416.582 Y-1.805 I-0.514 J0.936
X414.926 Y2.15 I-1.738 J1.597
G1 X413.967
X413.817 Y2.142
X413.669 Y2.119
X413.523 Y2.082
X413.382 Y2.031
X413.245 Y1.97
X413.114 Y1.898
X412.987 Y1.817
X412.867 Y1.728
X412.753 Y1.63
X412.646 Y1.525
X412.545 Y1.414
X412.452 Y1.296
X412.367 Y1.173
X412.288 Y1.045
X412.218 Y0.913
X412.156 Y0.776
X412.101 Y0.636
X412.054 Y0.494
X412.016 Y0.349
X411.985 Y0.193
X411.963 Y0.044
Y-0.327
X412.032 Y-0.691
X412.166 Y-1.037
X412.361 Y-1.352
X412.611 Y-1.626
X412.907 Y-1.849
X413.239 Y-2.014
X413.596 Y-2.116
X413.965 Y-2.15
X414.94
G3 X415.417 Y-2.019 I-0.037 J1.066
X415.725 Y-1.764 I-0.514 J0.935
X413.967 Y2.15 I-1.842 J1.524
G1 X413.022
X412.872 Y2.142
X412.724 Y2.118
X412.579 Y2.08
X412.438 Y2.028
X412.302 Y1.966
X412.171 Y1.893
X412.045 Y1.811
X411.925 Y1.72
X411.812 Y1.623
X411.705 Y1.517
X411.605 Y1.406
X411.511 Y1.288
X411.425 Y1.165
X411.348 Y1.037
X411.277 Y0.905
X411.214 Y0.769
X411.159 Y0.629
X411.112 Y0.486
X411.073 Y0.341
X411.042 Y0.194
X411.022 Y-0.195
X411.076 Y-0.581
X411.202 Y-0.949
X411.395 Y-1.287
X411.649 Y-1.582
X411.955 Y-1.824
X412.301 Y-2.003
X412.675 Y-2.113
X413.062 Y-2.15
X413.965
G3 X414.442 Y-2.019 I-0.037 J1.067
X414.735 Y-1.783 I-0.514 J0.936
X413.515 Y2.081 I-1.796 J1.557
X413.022 Y2.15 I-0.576 J-2.306
G1 X412.114
X411.964 Y2.142
X411.815 Y2.122
X411.67 Y2.086
X411.528 Y2.037
X411.391 Y1.976
X411.258 Y1.906
X411.132 Y1.826
X411.01 Y1.737
X410.895 Y1.641
X410.788 Y1.537
X410.686 Y1.426
X410.592 Y1.309
X410.505 Y1.187
X410.426 Y1.059
X410.355 Y0.928
X410.291 Y0.792
X410.235 Y0.65
X410.187 Y0.508
X410.148 Y0.363
X410.116 Y0.21
X410.092 Y0.059
X410.09 Y-0.313
X410.157 Y-0.68
X410.29 Y-1.028
X410.485 Y-1.345
X410.736 Y-1.621
X411.032 Y-1.847
X411.366 Y-2.013
X411.724 Y-2.116
X412.095 Y-2.15
X413.062
G3 X413.539 Y-2.019 I-0.037 J1.067
X413.834 Y-1.779 I-0.514 J0.936
X412.607 Y2.081 I-1.804 J1.552
X412.114 Y2.15 I-0.576 J-2.308
G1 X411.181
X411.031 Y2.142
X410.882 Y2.122
X410.737 Y2.086
X410.595 Y2.037
X410.457 Y1.976
X410.325 Y1.906
X410.198 Y1.826
X410.077 Y1.737
X409.962 Y1.641
X409.854 Y1.537
X409.753 Y1.426
X409.658 Y1.31
X409.571 Y1.188
X409.491 Y1.061
X409.419 Y0.929
X409.354 Y0.794
X409.298 Y0.655
X409.249 Y0.512
X409.209 Y0.367
X409.177 Y0.221
X409.174 Y0.202
X409.15 Y-0.187
X409.2 Y-0.574
X409.324 Y-0.943
X409.515 Y-1.283
X409.768 Y-1.579
X410.073 Y-1.822
X410.419 Y-2.002
X410.793 Y-2.113
X411.181 Y-2.15
X412.095
G3 X412.571 Y-2.019 I-0.037 J1.067
X412.848 Y-1.801 I-0.514 J0.936
X411.181 Y2.15 I-1.75 J1.588
G1 X410.209
X410.059 Y2.142
X409.911 Y2.118
X409.767 Y2.078
X409.626 Y2.027
X409.49 Y1.964
X409.359 Y1.891
X409.233 Y1.809
X409.113 Y1.719
X409 Y1.62
X408.894 Y1.515
X408.794 Y1.403
X408.701 Y1.285
X408.616 Y1.161
X408.538 Y1.033
X408.468 Y0.9
X408.406 Y0.764
X408.352 Y0.624
X408.306 Y0.481
X408.268 Y0.336
X408.237 Y0.18
X408.218 Y-0.207
X408.273 Y-0.591
X408.4 Y-0.957
X408.594 Y-1.293
X408.848 Y-1.586
X409.152 Y-1.826
X409.497 Y-2.004
X409.869 Y-2.113
X410.255 Y-2.15
X411.181
G3 X411.964 Y-1.765 I-0.037 J1.067
X410.209 Y2.15 I-1.838 J1.527
G1 X409.276
X409.126 Y2.142
X408.978 Y2.118
X408.833 Y2.079
X408.692 Y2.028
X408.556 Y1.965
X408.425 Y1.892
X408.299 Y1.81
X408.18 Y1.72
X408.066 Y1.621
X407.96 Y1.516
X407.86 Y1.404
X407.767 Y1.286
X407.683 Y1.162
X407.605 Y1.034
X407.535 Y0.901
X407.473 Y0.764
X407.419 Y0.623
X407.373 Y0.48
X407.335 Y0.335
X407.304 Y0.18
X407.283 Y0.03
X407.285 Y-0.339
X407.354 Y-0.701
X407.489 Y-1.045
X407.684 Y-1.358
X407.933 Y-1.63
X408.228 Y-1.852
X408.558 Y-2.015
X408.913 Y-2.116
X409.28 Y-2.15
X410.255
G3 X410.732 Y-2.019 I-0.037 J1.066
X411.043 Y-1.76 I-0.514 J0.935
X409.769 Y2.081 I-1.85 J1.518
X409.276 Y2.15 I-0.577 J-2.323
G1 X408.399
X408.249 Y2.142
X408.1 Y2.124
X407.954 Y2.091
X407.811 Y2.044
X407.673 Y1.986
X407.54 Y1.916
X407.413 Y1.838
X407.291 Y1.75
X407.175 Y1.655
X407.065 Y1.553
X406.963 Y1.443
X406.867 Y1.328
X406.778 Y1.207
X406.697 Y1.081
X406.624 Y0.95
X406.557 Y0.815
X406.5 Y0.677
X406.449 Y0.531
X406.407 Y0.387
X406.373 Y0.241
X406.345 Y-0.153
X406.394 Y-0.545
X406.516 Y-0.921
X406.709 Y-1.266
X406.964 Y-1.568
X407.273 Y-1.816
X407.623 Y-1.999
X408.002 Y-2.112
X408.395 Y-2.15
X409.28
G3 X409.757 Y-2.019 I-0.037 J1.067
X410.015 Y-1.82 I-0.514 J0.936
X408.399 Y2.15 I-1.698 J1.623
G1 X407.448
X407.299 Y2.142
X407.15 Y2.123
X407.004 Y2.088
X406.862 Y2.04
X406.724 Y1.981
X406.591 Y1.911
X406.464 Y1.832
X406.342 Y1.744
X406.227 Y1.648
X406.119 Y1.544
X406.017 Y1.434
X405.922 Y1.318
X405.835 Y1.195
X405.756 Y1.068
X405.684 Y0.937
X405.62 Y0.801
X405.564 Y0.662
X405.516 Y0.52
X405.476 Y0.375
X405.443 Y0.221
X405.42 Y0.071
X405.416 Y-0.303
X405.483 Y-0.672
X405.616 Y-1.021
X405.811 Y-1.341
X406.062 Y-1.618
X406.36 Y-1.845
X406.694 Y-2.012
X407.054 Y-2.115
X407.427 Y-2.15
X408.395
G3 X408.871 Y-2.019 I-0.037 J1.067
X409.166 Y-1.781 I-0.514 J0.936
X407.448 Y2.15 I-1.8 J1.554
G1 X406.494
X406.344 Y2.142
X406.196 Y2.12
X406.051 Y2.084
X405.909 Y2.034
X405.772 Y1.972
X405.641 Y1.901
X405.514 Y1.82
X405.394 Y1.731
X405.279 Y1.634
X405.171 Y1.529
X405.071 Y1.418
X404.977 Y1.302
X404.89 Y1.179
X404.811 Y1.051
X404.74 Y0.92
X404.676 Y0.784
X404.62 Y0.644
X404.573 Y0.502
X404.533 Y0.358
X404.502 Y0.211
X404.479 Y-0.18
X404.531 Y-0.568
X404.656 Y-0.94
X404.85 Y-1.28
X405.105 Y-1.578
X405.412 Y-1.821
X405.759 Y-2.001
X406.135 Y-2.113
X406.525 Y-2.15
X407.427
G3 X407.903 Y-2.019 I-0.037 J1.067
X408.19 Y-1.79 I-0.514 J0.936
X406.987 Y2.081 I-1.778 J1.569
X406.494 Y2.15 I-0.576 J-2.301
G1 X405.544
X405.394 Y2.142
X405.246 Y2.119
X405.101 Y2.08
X404.96 Y2.029
X404.823 Y1.967
X404.692 Y1.895
X404.566 Y1.813
X404.446 Y1.723
X404.332 Y1.625
X404.226 Y1.52
X404.126 Y1.408
X404.033 Y1.291
X403.948 Y1.167
X403.87 Y1.039
X403.8 Y0.906
X403.738 Y0.77
X403.684 Y0.63
X403.637 Y0.487
X403.599 Y0.342
X403.568 Y0.186
X403.547 Y0.037
X403.548 Y-0.333
X403.617 Y-0.696
X403.752 Y-1.041
X403.947 Y-1.355
X404.197 Y-1.628
X404.493 Y-1.85
X404.824 Y-2.015
X405.18 Y-2.116
X405.548 Y-2.15
X406.525
G3 X407.001 Y-2.019 I-0.037 J1.066
X407.313 Y-1.759 I-0.514 J0.935
X406.037 Y2.081 I-1.853 J1.516
X405.544 Y2.15 I-0.577 J-2.324
G1 X404.642
X404.492 Y2.142
X404.343 Y2.122
X404.197 Y2.087
X404.055 Y2.039
X403.918 Y1.978
X403.786 Y1.908
X403.659 Y1.828
X403.537 Y1.74
X403.422 Y1.643
X403.314 Y1.54
X403.212 Y1.43
X403.117 Y1.313
X403.03 Y1.192
X402.95 Y1.065
X402.877 Y0.933
X402.812 Y0.798
X402.756 Y0.659
X402.706 Y0.514
X402.666 Y0.37
X402.633 Y0.224
X402.608 Y-0.169
X402.659 Y-0.559
X402.783 Y-0.932
X402.976 Y-1.274
X403.231 Y-1.574
X403.539 Y-1.819
X403.887 Y-2
X404.264 Y-2.112
X404.656 Y-2.15
X405.548
G3 X406.025 Y-2.019 I-0.037 J1.067
X406.297 Y-1.805 I-0.514 J0.936
X404.642 Y2.15 I-1.738 J1.597
G1 X403.682
X403.532 Y2.142
X403.384 Y2.119
X403.238 Y2.082
X403.097 Y2.031
X402.96 Y1.97
X402.829 Y1.898
X402.703 Y1.817
X402.582 Y1.728
X402.468 Y1.63
X402.361 Y1.525
X402.26 Y1.414
X402.167 Y1.296
X402.082 Y1.173
X402.004 Y1.045
X401.933 Y0.913
X401.871 Y0.776
X401.816 Y0.636
X401.77 Y0.494
X401.731 Y0.349
X401.7 Y0.193
X401.678 Y0.044
Y-0.327
X401.747 Y-0.691
X401.881 Y-1.037
X402.076 Y-1.352
X402.326 Y-1.626
X402.622 Y-1.849
X402.955 Y-2.014
X403.311 Y-2.116
X403.681 Y-2.15
X404.656
G3 X405.132 Y-2.019 I-0.037 J1.066
X405.44 Y-1.764 I-0.514 J0.935
X404.175 Y2.081 I-1.842 J1.524
X403.682 Y2.15 I-0.576 J-2.32
G1 X402.737
X402.587 Y2.142
X402.439 Y2.118
X402.294 Y2.08
X402.153 Y2.028
X402.017 Y1.966
X401.886 Y1.893
X401.76 Y1.811
X401.641 Y1.72
X401.527 Y1.623
X401.42 Y1.517
X401.32 Y1.406
X401.227 Y1.288
X401.141 Y1.165
X401.063 Y1.037
X400.992 Y0.905
X400.929 Y0.769
X400.874 Y0.629
X400.827 Y0.486
X400.788 Y0.341
X400.758 Y0.194
X400.737 Y-0.195
X400.791 Y-0.581
X400.917 Y-0.949
X401.11 Y-1.287
X401.365 Y-1.582
X401.67 Y-1.824
X402.016 Y-2.003
X402.39 Y-2.113
X402.778 Y-2.15
X403.681
G3 X404.157 Y-2.019 I-0.037 J1.067
X404.45 Y-1.783 I-0.514 J0.936
X402.737 Y2.15 I-1.796 J1.557
G1 X401.829
X401.679 Y2.142
X401.531 Y2.122
X401.385 Y2.086
X401.243 Y2.037
X401.106 Y1.976
X400.974 Y1.906
X400.847 Y1.826
X400.725 Y1.737
X400.611 Y1.641
X400.503 Y1.537
X400.401 Y1.426
X400.307 Y1.309
X400.221 Y1.187
X400.141 Y1.059
X400.07 Y0.928
X400.006 Y0.792
X399.95 Y0.65
X399.902 Y0.508
X399.863 Y0.363
X399.831 Y0.21
X399.807 Y0.059
X399.806 Y-0.313
X399.872 Y-0.68
X400.005 Y-1.028
X400.201 Y-1.345
X400.451 Y-1.621
X400.748 Y-1.847
X401.081 Y-2.013
X401.439 Y-2.116
X401.81 Y-2.15
X402.778
G3 X403.254 Y-2.019 I-0.037 J1.067
X403.55 Y-1.779 I-0.514 J0.936
X401.829 Y2.15 I-1.804 J1.552
G1 X400.896
X400.746 Y2.142
X400.597 Y2.122
X400.452 Y2.086
X400.31 Y2.037
X400.173 Y1.976
X400.04 Y1.906
X399.914 Y1.826
X399.793 Y1.737
X399.678 Y1.641
X399.569 Y1.537
X399.468 Y1.426
X399.373 Y1.31
X399.286 Y1.188
X399.206 Y1.061
X399.134 Y0.929
X399.07 Y0.794
X399.013 Y0.655
X398.965 Y0.512
X398.924 Y0.367
X398.892 Y0.221
X398.889 Y0.202
X398.865 Y-0.187
X398.915 Y-0.574
X399.039 Y-0.943
X399.23 Y-1.283
X399.483 Y-1.579
X399.788 Y-1.822
X400.134 Y-2.002
X400.508 Y-2.113
X400.896 Y-2.15
X401.81
G3 X402.287 Y-2.019 I-0.037 J1.067
X402.563 Y-1.801 I-0.514 J0.936
X401.389 Y2.08 I-1.75 J1.588
X400.896 Y2.15 I-0.575 J-2.292
G1 X399.924
X399.775 Y2.142
X399.627 Y2.118
X399.482 Y2.078
X399.341 Y2.027
X399.205 Y1.964
X399.074 Y1.891
X398.948 Y1.809
X398.828 Y1.719
X398.715 Y1.62
X398.609 Y1.515
X398.509 Y1.403
X398.416 Y1.285
X398.331 Y1.161
X398.253 Y1.033
X398.183 Y0.9
X398.121 Y0.764
X398.067 Y0.624
X398.021 Y0.481
X397.983 Y0.336
X397.952 Y0.18
X397.933 Y-0.207
X397.988 Y-0.591
X398.115 Y-0.957
X398.309 Y-1.293
X398.563 Y-1.586
X398.867 Y-1.826
X399.212 Y-2.004
X399.584 Y-2.113
X399.97 Y-2.15
X400.896
G3 X401.679 Y-1.765 I-0.037 J1.067
X400.417 Y2.081 I-1.838 J1.527
X399.924 Y2.15 I-0.576 J-2.319
G1 X398.991
X398.841 Y2.142
X398.693 Y2.118
X398.548 Y2.079
X398.408 Y2.028
X398.271 Y1.965
X398.14 Y1.892
X398.015 Y1.81
X397.895 Y1.72
X397.782 Y1.621
X397.675 Y1.516
X397.575 Y1.404
X397.483 Y1.286
X397.398 Y1.162
X397.32 Y1.034
X397.25 Y0.901
X397.188 Y0.764
X397.134 Y0.623
X397.088 Y0.48
X397.05 Y0.335
X397.019 Y0.18
X396.998 Y0.03
X397 Y-0.339
X397.069 Y-0.702
X397.204 Y-1.045
X397.399 Y-1.358
X397.648 Y-1.63
X397.943 Y-1.852
X398.273 Y-2.015
X398.628 Y-2.116
X398.996 Y-2.15
X399.97
G3 X400.447 Y-2.019 I-0.037 J1.066
X400.758 Y-1.76 I-0.514 J0.935
X399.484 Y2.081 I-1.85 J1.518
X398.991 Y2.15 I-0.577 J-2.323
G1 X398.114
X397.964 Y2.142
X397.815 Y2.124
X397.669 Y2.091
X397.527 Y2.044
X397.388 Y1.986
X397.255 Y1.916
X397.128 Y1.838
X397.006 Y1.75
X396.89 Y1.655
X396.78 Y1.553
X396.678 Y1.443
X396.582 Y1.328
X396.493 Y1.207
X396.412 Y1.081
X396.339 Y0.95
X396.273 Y0.815
X396.215 Y0.677
X396.164 Y0.531
X396.122 Y0.387
X396.088 Y0.241
X396.06 Y-0.153
X396.109 Y-0.545
X396.232 Y-0.921
X396.424 Y-1.266
X396.679 Y-1.568
X396.988 Y-1.816
X397.338 Y-1.999
X397.717 Y-2.112
X398.11 Y-2.15
X398.996
G3 X399.472 Y-2.019 I-0.037 J1.067
X399.731 Y-1.82 I-0.514 J0.936
X398.114 Y2.15 I-1.698 J1.623
G1 X397.164
X397.014 Y2.142
X396.865 Y2.123
X396.719 Y2.088
X396.577 Y2.04
X396.439 Y1.981
X396.307 Y1.911
X396.179 Y1.832
X396.058 Y1.744
X395.942 Y1.648
X395.834 Y1.544
X395.732 Y1.434
X395.637 Y1.318
X395.551 Y1.195
X395.471 Y1.068
X395.399 Y0.937
X395.335 Y0.801
X395.279 Y0.662
X395.231 Y0.52
X395.191 Y0.375
X395.158 Y0.221
X395.135 Y0.071
X395.132 Y-0.303
X395.198 Y-0.672
X395.331 Y-1.021
X395.526 Y-1.341
X395.777 Y-1.618
X396.075 Y-1.845
X396.409 Y-2.012
X396.769 Y-2.115
X397.142 Y-2.15
X398.11
G3 X398.587 Y-2.019 I-0.037 J1.067
X398.881 Y-1.781 I-0.514 J0.936
X397.164 Y2.15 I-1.8 J1.554
G1 X396.209
X396.06 Y2.142
X395.911 Y2.12
X395.766 Y2.084
X395.624 Y2.034
X395.487 Y1.972
X395.356 Y1.901
X395.229 Y1.82
X395.109 Y1.731
X394.994 Y1.634
X394.887 Y1.529
X394.786 Y1.418
X394.692 Y1.302
X394.605 Y1.179
X394.526 Y1.051
X394.455 Y0.92
X394.391 Y0.784
X394.336 Y0.644
X394.288 Y0.502
X394.248 Y0.358
X394.217 Y0.211
X394.194 Y-0.18
X394.246 Y-0.568
X394.371 Y-0.94
X394.565 Y-1.28
X394.82 Y-1.578
X395.127 Y-1.821
X395.474 Y-2.001
X395.85 Y-2.113
X396.24 Y-2.15
X397.142
G3 X397.618 Y-2.019 I-0.037 J1.067
X397.905 Y-1.79 I-0.514 J0.936
X396.209 Y2.15 I-1.778 J1.569
G1 X395.259
X395.109 Y2.142
X394.961 Y2.119
X394.816 Y2.08
X394.675 Y2.029
X394.539 Y1.967
X394.407 Y1.895
X394.281 Y1.813
X394.161 Y1.723
X394.048 Y1.625
X393.941 Y1.52
X393.841 Y1.408
X393.748 Y1.291
X393.663 Y1.167
X393.585 Y1.039
X393.515 Y0.906
X393.453 Y0.77
X393.399 Y0.63
X393.353 Y0.487
X393.314 Y0.342
X393.283 Y0.186
X393.262 Y0.037
X393.263 Y-0.333
X393.332 Y-0.696
X393.467 Y-1.041
X393.662 Y-1.355
X393.912 Y-1.628
X394.208 Y-1.85
X394.539 Y-2.015
X394.895 Y-2.116
X395.263 Y-2.15
X396.24
G3 X396.716 Y-2.019 I-0.037 J1.066
X397.029 Y-1.759 I-0.514 J0.935
X395.752 Y2.081 I-1.853 J1.516
X395.259 Y2.15 I-0.577 J-2.324
G1 X394.357
X394.207 Y2.142
X394.058 Y2.122
X393.912 Y2.087
X393.771 Y2.039
X393.633 Y1.978
X393.501 Y1.908
X393.374 Y1.828
X393.253 Y1.74
X393.137 Y1.643
X393.029 Y1.54
X392.927 Y1.43
X392.832 Y1.313
X392.745 Y1.192
X392.665 Y1.065
X392.593 Y0.933
X392.528 Y0.798
X392.471 Y0.659
X392.422 Y0.514
X392.381 Y0.37
X392.348 Y0.224
X392.323 Y-0.169
X392.374 Y-0.559
X392.498 Y-0.932
X392.691 Y-1.274
X392.946 Y-1.574
X393.254 Y-1.819
X393.602 Y-2
X393.979 Y-2.112
X394.371 Y-2.15
X395.263
G3 X395.74 Y-2.019 I-0.037 J1.067
X396.012 Y-1.805 I-0.514 J0.936
X394.357 Y2.15 I-1.738 J1.597
G1 X393.397
X393.247 Y2.142
X393.099 Y2.119
X392.954 Y2.082
X392.812 Y2.031
X392.676 Y1.97
X392.544 Y1.898
X392.418 Y1.817
X392.297 Y1.728
X392.183 Y1.63
X392.076 Y1.525
X391.976 Y1.414
X391.882 Y1.296
X391.797 Y1.173
X391.719 Y1.045
X391.648 Y0.913
X391.586 Y0.776
X391.532 Y0.636
X391.485 Y0.494
X391.446 Y0.349
X391.415 Y0.193
X391.393 Y0.044
Y-0.327
X391.462 Y-0.691
X391.596 Y-1.037
X391.792 Y-1.352
X392.042 Y-1.626
X392.338 Y-1.849
X392.67 Y-2.014
X393.026 Y-2.116
X393.396 Y-2.15
X394.371
G3 X394.847 Y-2.019 I-0.037 J1.066
X395.156 Y-1.764 I-0.514 J0.935
X393.397 Y2.15 I-1.842 J1.524
G1 X392.452
X392.302 Y2.142
X392.154 Y2.118
X392.009 Y2.08
X391.868 Y2.028
X391.732 Y1.966
X391.601 Y1.893
X391.475 Y1.811
X391.356 Y1.72
X391.242 Y1.623
X391.135 Y1.517
X391.035 Y1.406
X390.942 Y1.288
X390.856 Y1.165
X390.778 Y1.037
X390.707 Y0.905
X390.644 Y0.769
X390.59 Y0.629
X390.542 Y0.486
X390.503 Y0.341
X390.473 Y0.194
X390.452 Y-0.195
X390.506 Y-0.581
X390.632 Y-0.949
X390.826 Y-1.287
X391.08 Y-1.582
X391.385 Y-1.824
X391.731 Y-2.003
X392.105 Y-2.113
X392.493 Y-2.15
X393.396
G3 X393.872 Y-2.019 I-0.037 J1.067
X394.165 Y-1.783 I-0.514 J0.936
X392.945 Y2.081 I-1.796 J1.557
X392.452 Y2.15 I-0.576 J-2.306
G1 X391.544
X391.394 Y2.142
X391.246 Y2.122
X391.1 Y2.086
X390.958 Y2.037
X390.821 Y1.976
X390.689 Y1.906
X390.562 Y1.826
X390.441 Y1.737
X390.326 Y1.641
X390.218 Y1.537
X390.117 Y1.426
X390.022 Y1.309
X389.936 Y1.187
X389.857 Y1.059
X389.785 Y0.928
X389.721 Y0.792
X389.665 Y0.65
X389.617 Y0.508
X389.578 Y0.363
X389.546 Y0.21
X389.523 Y0.059
X389.521 Y-0.313
X389.587 Y-0.68
X389.721 Y-1.028
X389.916 Y-1.345
X390.166 Y-1.621
X390.463 Y-1.847
X390.796 Y-2.013
X391.154 Y-2.116
X391.525 Y-2.15
X392.493
G3 X392.969 Y-2.019 I-0.037 J1.067
X393.265 Y-1.779 I-0.514 J0.936
X392.037 Y2.081 I-1.804 J1.552
X391.544 Y2.15 I-0.576 J-2.308
G1 X390.611
X390.461 Y2.142
X390.313 Y2.122
X390.167 Y2.086
X390.025 Y2.037
X389.888 Y1.976
X389.756 Y1.906
X389.629 Y1.826
X389.508 Y1.737
X389.393 Y1.641
X389.284 Y1.537
X389.183 Y1.426
X389.088 Y1.31
X389.001 Y1.188
X388.922 Y1.061
X388.849 Y0.929
X388.785 Y0.794
X388.729 Y0.655
X388.68 Y0.512
X388.639 Y0.367
X388.607 Y0.221
X388.604 Y0.202
X388.58 Y-0.187
X388.63 Y-0.574
X388.754 Y-0.943
X388.946 Y-1.283
X389.199 Y-1.579
X389.504 Y-1.822
X389.849 Y-2.002
X390.223 Y-2.113
X390.611 Y-2.15
X391.525
G3 X392.002 Y-2.019 I-0.037 J1.067
X392.279 Y-1.801 I-0.514 J0.936
X390.611 Y2.15 I-1.75 J1.588
G1 X389.64
X389.49 Y2.142
X389.342 Y2.118
X389.197 Y2.078
X389.056 Y2.027
X388.92 Y1.964
X388.789 Y1.891
X388.663 Y1.809
X388.544 Y1.719
X388.43 Y1.62
X388.324 Y1.515
X388.224 Y1.403
X388.131 Y1.285
X388.046 Y1.161
X387.968 Y1.033
X387.898 Y0.9
X387.837 Y0.764
X387.783 Y0.624
X387.736 Y0.481
X387.698 Y0.336
X387.667 Y0.18
X387.648 Y-0.207
X387.703 Y-0.591
X387.83 Y-0.957
X388.024 Y-1.293
X388.278 Y-1.586
X388.583 Y-1.826
X388.927 Y-2.004
X389.299 Y-2.113
X389.685 Y-2.15
X390.611
G3 X391.395 Y-1.765 I-0.037 J1.067
X389.64 Y2.15 I-1.838 J1.527
G1 X388.706
X388.556 Y2.142
X388.408 Y2.118
X388.264 Y2.079
X388.123 Y2.028
X387.987 Y1.965
X387.855 Y1.892
X387.73 Y1.81
X387.61 Y1.72
X387.497 Y1.621
X387.39 Y1.516
X387.29 Y1.404
X387.198 Y1.286
X387.113 Y1.162
X387.035 Y1.034
X386.965 Y0.901
X386.904 Y0.764
X386.849 Y0.623
X386.803 Y0.48
X386.765 Y0.335
X386.735 Y0.18
X386.713 Y0.03
X386.715 Y-0.339
X386.784 Y-0.702
X386.919 Y-1.045
X387.114 Y-1.358
X387.363 Y-1.63
X387.658 Y-1.852
X387.989 Y-2.015
X388.344 Y-2.116
X388.711 Y-2.15
X389.685
G3 X390.162 Y-2.019 I-0.037 J1.066
X390.473 Y-1.76 I-0.514 J0.935
X389.199 Y2.081 I-1.85 J1.518
X388.706 Y2.15 I-0.577 J-2.323
G1 X387.829
X387.679 Y2.142
X387.53 Y2.124
X387.384 Y2.091
X387.242 Y2.044
X387.104 Y1.986
X386.971 Y1.916
X386.843 Y1.838
X386.721 Y1.75
X386.605 Y1.655
X386.495 Y1.553
X386.393 Y1.443
X386.297 Y1.328
X386.208 Y1.207
X386.127 Y1.081
X386.054 Y0.95
X385.988 Y0.815
X385.93 Y0.677
X385.879 Y0.531
X385.837 Y0.387
X385.803 Y0.241
X385.776 Y-0.153
X385.824 Y-0.545
X385.947 Y-0.921
X386.139 Y-1.266
X386.395 Y-1.568
X386.703 Y-1.816
X387.053 Y-1.999
X387.432 Y-2.112
X387.825 Y-2.15
X388.711
G3 X389.187 Y-2.019 I-0.037 J1.067
X389.446 Y-1.82 I-0.514 J0.936
X387.829 Y2.15 I-1.698 J1.623
G1 X386.879
X386.729 Y2.142
X386.58 Y2.123
X386.434 Y2.088
X386.292 Y2.04
X386.155 Y1.981
X386.022 Y1.911
X385.894 Y1.832
X385.773 Y1.744
X385.657 Y1.648
X385.549 Y1.544
X385.447 Y1.434
X385.353 Y1.318
X385.266 Y1.195
X385.186 Y1.068
X385.114 Y0.937
X385.05 Y0.801
X384.994 Y0.662
X384.946 Y0.52
X384.906 Y0.375
X384.873 Y0.221
X384.85 Y0.071
X384.847 Y-0.303
X384.913 Y-0.672
X385.046 Y-1.021
X385.241 Y-1.341
X385.492 Y-1.618
X385.79 Y-1.845
X386.125 Y-2.012
X386.484 Y-2.115
X386.857 Y-2.15
X387.825
G3 X388.302 Y-2.019 I-0.037 J1.067
X388.596 Y-1.781 I-0.514 J0.936
X387.372 Y2.081 I-1.8 J1.554
X386.879 Y2.15 I-0.576 J-2.307
G1 X385.925
X385.775 Y2.142
X385.626 Y2.12
X385.481 Y2.084
X385.34 Y2.034
X385.203 Y1.972
X385.071 Y1.901
X384.944 Y1.82
X384.824 Y1.731
X384.709 Y1.634
X384.602 Y1.529
X384.501 Y1.418
X384.407 Y1.302
X384.32 Y1.179
X384.242 Y1.051
X384.17 Y0.92
X384.106 Y0.784
X384.051 Y0.644
X384.003 Y0.502
X383.963 Y0.358
X383.932 Y0.211
X383.909 Y-0.18
X383.961 Y-0.568
X384.087 Y-0.94
X384.28 Y-1.28
X384.535 Y-1.578
X384.842 Y-1.821
X385.19 Y-2.001
X385.565 Y-2.113
X385.955 Y-2.15
X386.857
G3 X387.333 Y-2.019 I-0.037 J1.067
X387.62 Y-1.79 I-0.514 J0.936
X386.418 Y2.081 I-1.778 J1.569
X385.925 Y2.15 I-0.576 J-2.301
G1 X384.974
X384.824 Y2.142
X384.676 Y2.119
X384.531 Y2.08
X384.39 Y2.029
X384.254 Y1.967
X384.122 Y1.895
X383.996 Y1.813
X383.876 Y1.723
X383.763 Y1.625
X383.656 Y1.52
X383.556 Y1.408
X383.463 Y1.291
X383.378 Y1.167
X383.3 Y1.039
X383.23 Y0.906
X383.168 Y0.77
X383.114 Y0.63
X383.068 Y0.487
X383.03 Y0.342
X382.999 Y0.186
X382.977 Y0.037
X382.978 Y-0.333
X383.048 Y-0.696
X383.182 Y-1.041
X383.378 Y-1.355
X383.627 Y-1.628
X383.923 Y-1.85
X384.254 Y-2.015
X384.61 Y-2.116
X384.978 Y-2.15
X385.955
G3 X386.432 Y-2.019 I-0.037 J1.066
X386.744 Y-1.759 I-0.514 J0.935
X385.467 Y2.081 I-1.853 J1.516
X384.974 Y2.15 I-0.577 J-2.324
G1 X384.072
X383.922 Y2.142
X383.773 Y2.122
X383.628 Y2.087
X383.486 Y2.039
X383.348 Y1.978
X383.216 Y1.908
X383.089 Y1.828
X382.968 Y1.74
X382.853 Y1.643
X382.744 Y1.54
X382.642 Y1.43
X382.548 Y1.313
X382.46 Y1.192
X382.38 Y1.065
X382.308 Y0.933
X382.243 Y0.798
X382.186 Y0.659
X382.137 Y0.514
X382.096 Y0.37
X382.063 Y0.224
X382.039 Y-0.169
X382.089 Y-0.559
X382.213 Y-0.932
X382.406 Y-1.274
X382.661 Y-1.574
X382.969 Y-1.819
X383.318 Y-2
X383.694 Y-2.112
X384.086 Y-2.15
X384.978
G3 X385.455 Y-2.019 I-0.037 J1.067
X385.728 Y-1.805 I-0.514 J0.936
X384.072 Y2.15 I-1.738 J1.597
G1 X383.112
X382.962 Y2.142
X382.814 Y2.119
X382.669 Y2.082
X382.528 Y2.031
X382.391 Y1.97
X382.259 Y1.898
X382.133 Y1.817
X382.012 Y1.728
X381.898 Y1.63
X381.791 Y1.525
X381.691 Y1.414
X381.598 Y1.296
X381.512 Y1.173
X381.434 Y1.045
X381.363 Y0.913
X381.301 Y0.776
X381.247 Y0.636
X381.2 Y0.494
X381.161 Y0.349
X381.13 Y0.193
X381.108 Y0.044
X381.109 Y-0.327
X381.177 Y-0.691
X381.311 Y-1.037
X381.507 Y-1.352
X381.757 Y-1.626
X382.053 Y-1.849
X382.385 Y-2.014
X382.742 Y-2.116
X383.111 Y-2.15
X384.086
G3 X384.562 Y-2.019 I-0.037 J1.066
X384.871 Y-1.764 I-0.514 J0.935
X383.605 Y2.081 I-1.842 J1.524
X383.112 Y2.15 I-0.576 J-2.32
G1 X382.167
X382.017 Y2.142
X381.869 Y2.118
X381.724 Y2.08
X381.584 Y2.028
X381.447 Y1.966
X381.316 Y1.893
X381.191 Y1.811
X381.071 Y1.72
X380.957 Y1.623
X380.85 Y1.517
X380.75 Y1.406
X380.657 Y1.288
X380.571 Y1.165
X380.493 Y1.037
X380.422 Y0.905
X380.359 Y0.769
X380.305 Y0.629
X380.258 Y0.486
X380.219 Y0.341
X380.188 Y0.194
X380.167 Y-0.195
X380.221 Y-0.581
X380.347 Y-0.949
X380.541 Y-1.287
X380.795 Y-1.582
X381.101 Y-1.824
X381.447 Y-2.003
X381.82 Y-2.113
X382.208 Y-2.15
X383.111
G3 X383.587 Y-2.019 I-0.037 J1.067
X383.88 Y-1.783 I-0.514 J0.936
X382.167 Y2.15 I-1.796 J1.557
G1 X381.259
X381.109 Y2.142
X380.961 Y2.122
X380.815 Y2.086
X380.674 Y2.037
X380.536 Y1.976
X380.404 Y1.906
X380.277 Y1.826
X380.156 Y1.737
X380.041 Y1.641
X379.933 Y1.537
X379.832 Y1.426
X379.737 Y1.309
X379.651 Y1.187
X379.572 Y1.059
X379.5 Y0.928
X379.437 Y0.792
X379.38 Y0.65
X379.333 Y0.508
X379.293 Y0.363
X379.261 Y0.21
X379.238 Y0.059
X379.236 Y-0.313
X379.303 Y-0.68
X379.436 Y-1.028
X379.631 Y-1.345
X379.881 Y-1.621
X380.178 Y-1.847
X380.511 Y-2.013
X380.869 Y-2.116
X381.24 Y-2.15
X382.208
G3 X382.684 Y-2.019 I-0.037 J1.067
X382.98 Y-1.779 I-0.514 J0.936
X381.259 Y2.15 I-1.804 J1.552
G1 X380.326
X380.176 Y2.142
X380.028 Y2.122
X379.882 Y2.086
X379.74 Y2.037
X379.603 Y1.976
X379.471 Y1.906
X379.344 Y1.826
X379.223 Y1.737
X379.108 Y1.641
X378.999 Y1.537
X378.898 Y1.426
X378.803 Y1.31
X378.716 Y1.188
X378.637 Y1.061
X378.564 Y0.929
X378.5 Y0.794
X378.444 Y0.655
X378.395 Y0.512
X378.354 Y0.367
X378.322 Y0.221
X378.319 Y0.202
X378.295 Y-0.187
X378.346 Y-0.574
X378.469 Y-0.943
X378.661 Y-1.283
X378.914 Y-1.579
X379.219 Y-1.822
X379.564 Y-2.002
X379.938 Y-2.113
X380.326 Y-2.15
X381.24
G3 X381.717 Y-2.019 I-0.037 J1.067
X381.994 Y-1.801 I-0.514 J0.936
X380.819 Y2.08 I-1.75 J1.588
X380.326 Y2.15 I-0.575 J-2.292
G1 X379.355
X379.205 Y2.142
X379.057 Y2.118
X378.912 Y2.078
X378.771 Y2.027
X378.635 Y1.964
X378.504 Y1.891
X378.379 Y1.809
X378.259 Y1.719
X378.146 Y1.62
X378.039 Y1.515
X377.939 Y1.403
X377.846 Y1.285
X377.762 Y1.161
X377.684 Y1.033
X377.613 Y0.9
X377.552 Y0.764
X377.498 Y0.624
X377.451 Y0.481
X377.413 Y0.336
X377.382 Y0.18
X377.364 Y-0.207
X377.419 Y-0.591
X377.545 Y-0.957
X377.739 Y-1.293
X377.993 Y-1.586
X378.298 Y-1.826
X378.642 Y-2.004
X379.015 Y-2.113
X379.401 Y-2.15
X380.326
G3 X381.11 Y-1.765 I-0.037 J1.067
X379.848 Y2.081 I-1.838 J1.527
X379.355 Y2.15 I-0.576 J-2.319
G1 X378.421
X378.272 Y2.142
X378.124 Y2.118
X377.979 Y2.079
X377.838 Y2.028
X377.702 Y1.965
X377.571 Y1.892
X377.445 Y1.81
X377.325 Y1.72
X377.212 Y1.621
X377.106 Y1.516
X377.006 Y1.404
X376.913 Y1.286
X376.828 Y1.162
X376.751 Y1.034
X376.681 Y0.901
X376.619 Y0.764
X376.564 Y0.623
X376.518 Y0.48
X376.48 Y0.335
X376.45 Y0.18
X376.428 Y0.03
X376.43 Y-0.339
X376.5 Y-0.702
X376.634 Y-1.045
X376.829 Y-1.358
X377.079 Y-1.63
X377.373 Y-1.852
X377.704 Y-2.015
X378.059 Y-2.116
X378.426 Y-2.15
X379.401
G3 X379.877 Y-2.019 I-0.037 J1.066
X380.188 Y-1.76 I-0.514 J0.935
X378.914 Y2.081 I-1.85 J1.518
X378.421 Y2.15 I-0.577 J-2.323
G1 X377.544
X377.395 Y2.142
X377.246 Y2.124
X377.099 Y2.091
X376.957 Y2.044
X376.819 Y1.986
X376.686 Y1.916
X376.558 Y1.838
X376.436 Y1.75
X376.32 Y1.655
X376.211 Y1.553
X376.108 Y1.443
X376.012 Y1.328
X375.923 Y1.207
X375.842 Y1.081
X375.769 Y0.95
X375.703 Y0.815
X375.645 Y0.677
X375.594 Y0.531
X375.552 Y0.387
X375.519 Y0.241
X375.491 Y-0.153
X375.539 Y-0.545
X375.662 Y-0.921
X375.854 Y-1.266
X376.11 Y-1.568
X376.418 Y-1.816
X376.768 Y-1.999
X377.147 Y-2.112
X377.54 Y-2.15
X378.426
G3 X378.902 Y-2.019 I-0.037 J1.067
X379.161 Y-1.82 I-0.514 J0.936
X377.544 Y2.15 I-1.698 J1.623
G1 X376.594
X376.444 Y2.142
X376.295 Y2.123
X376.15 Y2.088
X376.007 Y2.04
X375.87 Y1.981
X375.737 Y1.911
X375.61 Y1.832
X375.488 Y1.744
X375.373 Y1.648
X375.264 Y1.544
X375.162 Y1.434
X375.068 Y1.318
X374.981 Y1.195
X374.901 Y1.068
X374.829 Y0.937
X374.765 Y0.801
X374.709 Y0.662
X374.661 Y0.52
X374.621 Y0.375
X374.588 Y0.221
X374.565 Y0.071
X374.562 Y-0.303
X374.628 Y-0.672
X374.761 Y-1.021
X374.956 Y-1.341
X375.207 Y-1.618
X375.505 Y-1.845
X375.84 Y-2.012
X376.199 Y-2.115
X376.572 Y-2.15
X377.54
G3 X378.017 Y-2.019 I-0.037 J1.067
X378.311 Y-1.781 I-0.514 J0.936
X376.594 Y2.15 I-1.8 J1.554
G1 X375.64
X375.49 Y2.142
X375.342 Y2.12
X375.196 Y2.084
X375.055 Y2.034
X374.918 Y1.972
X374.786 Y1.901
X374.66 Y1.82
X374.539 Y1.731
X374.425 Y1.634
X374.317 Y1.529
X374.216 Y1.418
X374.122 Y1.302
X374.035 Y1.179
X373.957 Y1.051
X373.885 Y0.92
X373.821 Y0.784
X373.766 Y0.644
X373.718 Y0.502
X373.678 Y0.358
X373.647 Y0.211
X373.624 Y-0.18
X373.677 Y-0.568
X373.802 Y-0.94
X373.995 Y-1.28
X374.25 Y-1.578
X374.557 Y-1.821
X374.905 Y-2.001
X375.28 Y-2.113
X375.67 Y-2.15
X376.572
G3 X377.049 Y-2.019 I-0.037 J1.067
X377.335 Y-1.79 I-0.514 J0.936
X375.64 Y2.15 I-1.778 J1.569
G1 X374.689
X374.54 Y2.142
X374.391 Y2.119
X374.246 Y2.08
X374.105 Y2.029
X373.969 Y1.967
X373.838 Y1.895
X373.712 Y1.813
X373.591 Y1.723
X373.478 Y1.625
X373.371 Y1.52
X373.271 Y1.408
X373.178 Y1.291
X373.093 Y1.167
X373.015 Y1.039
X372.945 Y0.906
X372.883 Y0.77
X372.829 Y0.63
X372.783 Y0.487
X372.745 Y0.342
X372.714 Y0.186
X372.692 Y0.037
X372.694 Y-0.333
X372.763 Y-0.696
X372.897 Y-1.041
X373.093 Y-1.355
X373.342 Y-1.628
X373.638 Y-1.85
X373.969 Y-2.015
X374.325 Y-2.116
X374.694 Y-2.15
X375.67
G3 X376.147 Y-2.019 I-0.037 J1.066
X376.459 Y-1.759 I-0.514 J0.935
X375.182 Y2.081 I-1.853 J1.516
X374.689 Y2.15 I-0.577 J-2.324
G1 X373.787
X373.637 Y2.142
X373.489 Y2.122
X373.343 Y2.087
X373.201 Y2.039
X373.063 Y1.978
X372.931 Y1.908
X372.804 Y1.828
X372.683 Y1.74
X372.568 Y1.643
X372.459 Y1.54
X372.358 Y1.43
X372.263 Y1.313
X372.175 Y1.192
X372.095 Y1.065
X372.023 Y0.933
X371.958 Y0.798
X371.901 Y0.659
X371.852 Y0.514
X371.811 Y0.37
X371.779 Y0.224
X371.754 Y-0.169
X371.804 Y-0.559
X371.928 Y-0.932
X372.122 Y-1.274
X372.377 Y-1.574
X372.684 Y-1.819
X373.033 Y-2
X373.41 Y-2.112
X373.801 Y-2.15
X374.694
G3 X375.17 Y-2.019 I-0.037 J1.067
X375.443 Y-1.805 I-0.514 J0.936
X373.787 Y2.15 I-1.738 J1.597
G1 X372.827
X372.677 Y2.142
X372.529 Y2.119
X372.384 Y2.082
X372.243 Y2.031
X372.106 Y1.97
X371.974 Y1.898
X371.848 Y1.817
X371.728 Y1.728
X371.614 Y1.63
X371.507 Y1.525
X371.406 Y1.414
X371.313 Y1.296
X371.227 Y1.173
X371.149 Y1.045
X371.078 Y0.913
X371.016 Y0.776
X370.962 Y0.636
X370.915 Y0.494
X370.877 Y0.349
X370.845 Y0.193
X370.823 Y0.044
X370.824 Y-0.327
X370.892 Y-0.691
X371.026 Y-1.037
X371.222 Y-1.352
X371.472 Y-1.626
X371.768 Y-1.849
X372.1 Y-2.014
X372.457 Y-2.116
X372.826 Y-2.15
X373.801
G3 X374.277 Y-2.019 I-0.037 J1.066
X374.586 Y-1.764 I-0.514 J0.935
X372.827 Y2.15 I-1.842 J1.524
G1 X371.882
X371.733 Y2.142
X371.585 Y2.118
X371.44 Y2.08
X371.299 Y2.028
X371.162 Y1.966
X371.031 Y1.893
X370.906 Y1.811
X370.786 Y1.72
X370.672 Y1.623
X370.565 Y1.517
X370.465 Y1.406
X370.372 Y1.288
X370.286 Y1.165
X370.208 Y1.037
X370.137 Y0.905
X370.074 Y0.769
X370.02 Y0.629
X369.973 Y0.486
X369.934 Y0.341
X369.903 Y0.194
X369.883 Y-0.195
X369.936 Y-0.581
X370.062 Y-0.949
X370.256 Y-1.287
X370.51 Y-1.582
X370.816 Y-1.824
X371.162 Y-2.003
X371.535 Y-2.113
X371.923 Y-2.15
X372.826
G3 X373.303 Y-2.019 I-0.037 J1.067
X373.595 Y-1.783 I-0.514 J0.936
X372.375 Y2.081 I-1.796 J1.557
X371.882 Y2.15 I-0.576 J-2.306
G1 X370.974
X370.825 Y2.142
X370.676 Y2.122
X370.53 Y2.086
X370.389 Y2.037
X370.251 Y1.976
X370.119 Y1.906
X369.992 Y1.826
X369.871 Y1.737
X369.756 Y1.641
X369.648 Y1.537
X369.547 Y1.426
X369.453 Y1.309
X369.366 Y1.187
X369.287 Y1.059
X369.215 Y0.928
X369.152 Y0.792
X369.095 Y0.65
X369.048 Y0.508
X369.008 Y0.363
X368.976 Y0.21
X368.953 Y0.059
X368.951 Y-0.313
X369.018 Y-0.68
X369.151 Y-1.028
X369.346 Y-1.345
X369.596 Y-1.621
X369.893 Y-1.847
X370.226 Y-2.013
X370.585 Y-2.116
X370.956 Y-2.15
X371.923
G3 X372.4 Y-2.019 I-0.037 J1.067
X372.695 Y-1.779 I-0.514 J0.936
X371.467 Y2.081 I-1.804 J1.552
X370.974 Y2.15 I-0.576 J-2.308
G1 X370.041
X369.891 Y2.142
X369.743 Y2.122
X369.597 Y2.086
X369.455 Y2.037
X369.318 Y1.976
X369.186 Y1.906
X369.059 Y1.826
X368.938 Y1.737
X368.823 Y1.641
X368.715 Y1.537
X368.613 Y1.426
X368.519 Y1.31
X368.431 Y1.188
X368.352 Y1.061
X368.28 Y0.929
X368.215 Y0.794
X368.159 Y0.655
X368.11 Y0.512
X368.07 Y0.367
X368.037 Y0.221
X368.034 Y0.202
X368.01 Y-0.187
X368.061 Y-0.574
X368.184 Y-0.943
X368.376 Y-1.283
X368.629 Y-1.579
X368.934 Y-1.822
X369.28 Y-2.002
X369.653 Y-2.113
X370.041 Y-2.15
X370.956
G3 X371.432 Y-2.019 I-0.037 J1.067
X371.709 Y-1.801 I-0.514 J0.936
X370.041 Y2.15 I-1.75 J1.588
G1 X369.07
X368.92 Y2.142
X368.772 Y2.118
X368.627 Y2.078
X368.487 Y2.027
X368.35 Y1.964
X368.219 Y1.891
X368.094 Y1.809
X367.974 Y1.719
X367.861 Y1.62
X367.754 Y1.515
X367.654 Y1.403
X367.561 Y1.285
X367.477 Y1.161
X367.399 Y1.033
X367.329 Y0.9
X367.267 Y0.764
X367.213 Y0.624
X367.166 Y0.481
X367.128 Y0.336
X367.097 Y0.18
X367.079 Y-0.207
X367.134 Y-0.591
X367.26 Y-0.957
X367.454 Y-1.293
X367.708 Y-1.586
X368.013 Y-1.826
X368.358 Y-2.004
X368.73 Y-2.113
X369.116 Y-2.15
X370.041
G3 X370.825 Y-1.765 I-0.037 J1.067
X369.07 Y2.15 I-1.838 J1.527
G1 X368.137
X367.987 Y2.142
X367.839 Y2.118
X367.694 Y2.079
X367.553 Y2.028
X367.417 Y1.965
X367.286 Y1.892
X367.16 Y1.81
X367.04 Y1.72
X366.927 Y1.621
X366.821 Y1.516
X366.721 Y1.404
X366.628 Y1.286
X366.543 Y1.162
X366.466 Y1.034
X366.396 Y0.901
X366.334 Y0.764
X366.28 Y0.623
X366.233 Y0.48
X366.196 Y0.335
X366.165 Y0.18
X366.144 Y0.03
X366.145 Y-0.339
X366.215 Y-0.702
X366.349 Y-1.045
X366.544 Y-1.358
X366.794 Y-1.63
X367.089 Y-1.852
X367.419 Y-2.015
X367.774 Y-2.116
X368.141 Y-2.15
X369.116
G3 X369.592 Y-2.019 I-0.037 J1.066
X369.903 Y-1.76 I-0.514 J0.935
X368.63 Y2.081 I-1.85 J1.518
X368.137 Y2.15 I-0.577 J-2.323
G1 X367.26
X367.11 Y2.142
X366.961 Y2.124
X366.815 Y2.091
X366.672 Y2.044
X366.534 Y1.986
X366.401 Y1.916
X366.273 Y1.838
X366.151 Y1.75
X366.035 Y1.655
X365.926 Y1.553
X365.823 Y1.443
X365.727 Y1.328
X365.639 Y1.207
X365.558 Y1.081
X365.484 Y0.95
X365.418 Y0.815
X365.36 Y0.677
X365.309 Y0.531
X365.267 Y0.387
X365.234 Y0.241
X365.206 Y-0.153
X365.254 Y-0.545
X365.377 Y-0.921
X365.57 Y-1.266
X365.825 Y-1.568
X366.133 Y-1.816
X366.483 Y-1.999
X366.862 Y-2.112
X367.256 Y-2.15
X368.141
G3 X368.618 Y-2.019 I-0.037 J1.067
X368.876 Y-1.82 I-0.514 J0.936
X367.26 Y2.15 I-1.698 J1.623
G1 X366.309
X366.159 Y2.142
X366.011 Y2.123
X365.865 Y2.088
X365.723 Y2.04
X365.585 Y1.981
X365.452 Y1.911
X365.325 Y1.832
X365.203 Y1.744
X365.088 Y1.648
X364.979 Y1.544
X364.878 Y1.434
X364.783 Y1.318
X364.696 Y1.195
X364.616 Y1.068
X364.544 Y0.937
X364.481 Y0.801
X364.425 Y0.662
X364.376 Y0.52
X364.336 Y0.375
X364.304 Y0.221
X364.28 Y0.071
X364.277 Y-0.303
X364.343 Y-0.672
X364.476 Y-1.021
X364.671 Y-1.341
X364.922 Y-1.618
X365.22 Y-1.845
X365.555 Y-2.012
X365.915 Y-2.115
X366.287 Y-2.15
X367.256
G3 X367.732 Y-2.019 I-0.037 J1.067
X368.026 Y-1.781 I-0.514 J0.936
X366.802 Y2.081 I-1.8 J1.554
X366.309 Y2.15 I-0.576 J-2.307
G1 X365.355
X365.205 Y2.142
X365.057 Y2.12
X364.911 Y2.084
X364.77 Y2.034
X364.633 Y1.972
X364.501 Y1.901
X364.375 Y1.82
X364.254 Y1.731
X364.14 Y1.634
X364.032 Y1.529
X363.931 Y1.418
X363.837 Y1.302
X363.751 Y1.179
X363.672 Y1.051
X363.6 Y0.92
X363.536 Y0.784
X363.481 Y0.644
X363.433 Y0.502
X363.394 Y0.358
X363.362 Y0.211
X363.34 Y-0.18
X363.392 Y-0.568
X363.517 Y-0.94
X363.711 Y-1.28
X363.965 Y-1.578
X364.272 Y-1.821
X364.62 Y-2.001
X364.996 Y-2.113
X365.385 Y-2.15
X366.287
G3 X366.764 Y-2.019 I-0.037 J1.067
X367.05 Y-1.79 I-0.514 J0.936
X365.848 Y2.081 I-1.778 J1.569
X365.355 Y2.15 I-0.576 J-2.301
G1 X364.405
X364.255 Y2.142
X364.107 Y2.119
X363.962 Y2.08
X363.821 Y2.029
X363.684 Y1.967
X363.553 Y1.895
X363.427 Y1.813
X363.307 Y1.723
X363.193 Y1.625
X363.086 Y1.52
X362.986 Y1.408
X362.893 Y1.291
X362.808 Y1.167
X362.73 Y1.039
X362.66 Y0.906
X362.598 Y0.77
X362.544 Y0.63
X362.498 Y0.487
X362.46 Y0.342
X362.429 Y0.186
X362.407 Y0.037
X362.409 Y-0.333
X362.478 Y-0.696
X362.612 Y-1.041
X362.808 Y-1.355
X363.058 Y-1.628
X363.353 Y-1.85
X363.685 Y-2.015
X364.04 Y-2.116
X364.409 Y-2.15
X365.385
G3 X365.862 Y-2.019 I-0.037 J1.066
X366.174 Y-1.759 I-0.514 J0.935
X364.898 Y2.081 I-1.853 J1.516
X364.405 Y2.15 I-0.577 J-2.324
G1 X363.502
X363.352 Y2.142
X363.204 Y2.122
X363.058 Y2.087
X362.916 Y2.039
X362.779 Y1.978
X362.646 Y1.908
X362.519 Y1.828
X362.398 Y1.74
X362.283 Y1.643
X362.174 Y1.54
X362.073 Y1.43
X361.978 Y1.313
X361.89 Y1.192
X361.81 Y1.065
X361.738 Y0.933
X361.673 Y0.798
X361.617 Y0.659
X361.567 Y0.514
X361.526 Y0.37
X361.494 Y0.224
X361.469 Y-0.169
X361.519 Y-0.559
X361.644 Y-0.932
X361.837 Y-1.274
X362.092 Y-1.574
X362.399 Y-1.819
X362.748 Y-2
X363.125 Y-2.112
X363.516 Y-2.15
X364.409
G3 X364.885 Y-2.019 I-0.037 J1.067
X365.158 Y-1.805 I-0.514 J0.936
X363.502 Y2.15 I-1.738 J1.597
G1 X362.542
X362.393 Y2.142
X362.244 Y2.119
X362.099 Y2.082
X361.958 Y2.031
X361.821 Y1.97
X361.689 Y1.898
X361.563 Y1.817
X361.443 Y1.728
X361.329 Y1.63
X361.222 Y1.525
X361.121 Y1.414
X361.028 Y1.296
X360.943 Y1.173
X360.864 Y1.045
X360.794 Y0.913
X360.731 Y0.776
X360.677 Y0.636
X360.63 Y0.494
X360.592 Y0.349
X360.56 Y0.193
X360.539 Y0.044
Y-0.327
X360.607 Y-0.691
X360.742 Y-1.037
X360.937 Y-1.352
X361.187 Y-1.626
X361.483 Y-1.849
X361.815 Y-2.014
X362.172 Y-2.116
X362.541 Y-2.15
X363.516
G3 X363.993 Y-2.019 I-0.037 J1.066
X364.301 Y-1.764 I-0.514 J0.935
X363.035 Y2.081 I-1.842 J1.524
X362.542 Y2.15 I-0.576 J-2.32
G1 X361.598
X361.448 Y2.142
X361.3 Y2.118
X361.155 Y2.08
X361.014 Y2.028
X360.878 Y1.966
X360.747 Y1.893
X360.621 Y1.811
X360.501 Y1.72
X360.387 Y1.623
X360.28 Y1.517
X360.181 Y1.406
X360.087 Y1.288
X360.001 Y1.165
X359.923 Y1.037
X359.853 Y0.905
X359.79 Y0.769
X359.735 Y0.629
X359.688 Y0.486
X359.649 Y0.341
X359.618 Y0.194
X359.598 Y-0.195
X359.651 Y-0.581
X359.777 Y-0.949
X359.971 Y-1.287
X360.225 Y-1.582
X360.531 Y-1.824
X360.877 Y-2.003
X361.251 Y-2.113
X361.638 Y-2.15
X362.541
G3 X363.018 Y-2.019 I-0.037 J1.067
X363.31 Y-1.783 I-0.514 J0.936
X361.598 Y2.15 I-1.796 J1.557
G1 X360.69
X360.54 Y2.142
X360.391 Y2.122
X360.246 Y2.086
X360.104 Y2.037
X359.967 Y1.976
X359.834 Y1.906
X359.707 Y1.826
X359.586 Y1.737
X359.471 Y1.641
X359.363 Y1.537
X359.262 Y1.426
X359.168 Y1.309
X359.081 Y1.187
X359.002 Y1.059
X358.93 Y0.928
X358.867 Y0.792
X358.811 Y0.65
X358.763 Y0.508
X358.723 Y0.363
X358.691 Y0.21
X358.668 Y0.059
X358.666 Y-0.313
X358.733 Y-0.68
X358.866 Y-1.028
X359.061 Y-1.345
X359.311 Y-1.621
X359.608 Y-1.847
X359.941 Y-2.013
X360.3 Y-2.116
X360.671 Y-2.15
X361.638
G3 X362.115 Y-2.019 I-0.037 J1.067
X362.41 Y-1.779 I-0.514 J0.936
X360.69 Y2.15 I-1.804 J1.552
G1 X359.756
X359.607 Y2.142
X359.458 Y2.122
X359.312 Y2.086
X359.171 Y2.037
X359.033 Y1.976
X358.901 Y1.906
X358.774 Y1.826
X358.653 Y1.737
X358.538 Y1.641
X358.43 Y1.537
X358.329 Y1.426
X358.234 Y1.31
X358.146 Y1.188
X358.067 Y1.061
X357.995 Y0.929
X357.93 Y0.794
X357.874 Y0.655
X357.825 Y0.512
X357.785 Y0.367
X357.753 Y0.221
X357.75 Y0.202
X357.725 Y-0.187
X357.776 Y-0.574
X357.899 Y-0.943
X358.091 Y-1.283
X358.344 Y-1.579
X358.649 Y-1.822
X358.995 Y-2.002
X359.368 Y-2.113
X359.756 Y-2.15
X360.671
G3 X361.147 Y-2.019 I-0.037 J1.067
X361.424 Y-1.801 I-0.514 J0.936
X360.249 Y2.08 I-1.75 J1.588
X359.756 Y2.15 I-0.575 J-2.292
G1 X358.785
X358.635 Y2.142
X358.487 Y2.118
X358.342 Y2.078
X358.202 Y2.027
X358.065 Y1.964
X357.934 Y1.891
X357.809 Y1.809
X357.689 Y1.719
X357.576 Y1.62
X357.469 Y1.515
X357.369 Y1.403
X357.277 Y1.285
X357.192 Y1.161
X357.114 Y1.033
X357.044 Y0.9
X356.982 Y0.764
X356.928 Y0.624
X356.882 Y0.481
X356.844 Y0.336
X356.812 Y0.18
X356.794 Y-0.207
X356.849 Y-0.591
X356.976 Y-0.957
X357.169 Y-1.293
X357.423 Y-1.586
X357.728 Y-1.826
X358.073 Y-2.004
X358.445 Y-2.113
X358.831 Y-2.15
X359.756
G3 X360.54 Y-1.765 I-0.037 J1.067
X359.278 Y2.081 I-1.838 J1.527
X358.785 Y2.15 I-0.576 J-2.319
G1 X357.852
X357.702 Y2.142
X357.554 Y2.118
X357.409 Y2.079
X357.268 Y2.028
X357.132 Y1.965
X357.001 Y1.892
X356.875 Y1.81
X356.756 Y1.72
X356.642 Y1.621
X356.536 Y1.516
X356.436 Y1.404
X356.343 Y1.286
X356.259 Y1.162
X356.181 Y1.034
X356.111 Y0.901
X356.049 Y0.764
X355.995 Y0.623
X355.949 Y0.48
X355.911 Y0.335
X355.88 Y0.18
X355.859 Y0.03
X355.861 Y-0.339
X355.93 Y-0.702
X356.064 Y-1.045
X356.26 Y-1.358
X356.509 Y-1.63
X356.804 Y-1.852
X357.134 Y-2.015
X357.489 Y-2.116
X357.856 Y-2.15
X358.831
G3 X359.307 Y-2.019 I-0.037 J1.066
X359.619 Y-1.76 I-0.514 J0.935
X358.345 Y2.081 I-1.85 J1.518
X357.852 Y2.15 I-0.577 J-2.323
G1 X356.975
X356.825 Y2.142
X356.676 Y2.124
X356.53 Y2.091
X356.387 Y2.044
X356.249 Y1.986
X356.116 Y1.916
X355.988 Y1.838
X355.866 Y1.75
X355.751 Y1.655
X355.641 Y1.553
X355.538 Y1.443
X355.443 Y1.328
X355.354 Y1.207
X355.273 Y1.081
X355.199 Y0.95
X355.133 Y0.815
X355.075 Y0.677
X355.024 Y0.531
X354.983 Y0.387
X354.949 Y0.241
X354.921 Y-0.153
X354.969 Y-0.545
X355.092 Y-0.921
X355.285 Y-1.266
X355.54 Y-1.568
X355.848 Y-1.816
X356.199 Y-1.999
X356.577 Y-2.112
X356.971 Y-2.15
X357.856
G3 X358.333 Y-2.019 I-0.037 J1.067
X358.591 Y-1.82 I-0.514 J0.936
X356.975 Y2.15 I-1.698 J1.623
G1 X356.024
X355.875 Y2.142
X355.726 Y2.123
X355.58 Y2.088
X355.438 Y2.04
X355.3 Y1.981
X355.167 Y1.911
X355.04 Y1.832
X354.918 Y1.744
X354.803 Y1.648
X354.695 Y1.544
X354.593 Y1.434
X354.498 Y1.318
X354.411 Y1.195
X354.332 Y1.068
X354.259 Y0.937
X354.196 Y0.801
X354.14 Y0.662
X354.092 Y0.52
X354.052 Y0.375
X354.019 Y0.221
X353.995 Y0.071
X353.992 Y-0.303
X354.058 Y-0.672
X354.191 Y-1.021
X354.387 Y-1.341
X354.638 Y-1.618
X354.935 Y-1.845
X355.27 Y-2.012
X355.63 Y-2.115
X356.002 Y-2.15
X356.971
G3 X357.447 Y-2.019 I-0.037 J1.067
X357.741 Y-1.781 I-0.514 J0.936
X356.024 Y2.15 I-1.8 J1.554
G1 X355.07
X354.92 Y2.142
X354.772 Y2.12
X354.627 Y2.084
X354.485 Y2.034
X354.348 Y1.972
X354.216 Y1.901
X354.09 Y1.82
X353.969 Y1.731
X353.855 Y1.634
X353.747 Y1.529
X353.646 Y1.418
X353.552 Y1.302
X353.466 Y1.179
X353.387 Y1.051
X353.315 Y0.92
X353.252 Y0.784
X353.196 Y0.644
X353.149 Y0.502
X353.109 Y0.358
X353.077 Y0.211
X353.055 Y-0.18
X353.107 Y-0.568
X353.232 Y-0.94
X353.426 Y-1.28
X353.681 Y-1.578
X353.987 Y-1.821
X354.335 Y-2.001
X354.711 Y-2.113
X355.101 Y-2.15
X356.002
G3 X356.479 Y-2.019 I-0.037 J1.067
X356.766 Y-1.79 I-0.514 J0.936
X355.07 Y2.15 I-1.778 J1.569
G1 X354.12
X353.97 Y2.142
X353.822 Y2.119
X353.677 Y2.08
X353.536 Y2.029
X353.399 Y1.967
X353.268 Y1.895
X353.142 Y1.813
X353.022 Y1.723
X352.908 Y1.625
X352.802 Y1.52
X352.701 Y1.408
X352.608 Y1.291
X352.524 Y1.167
X352.446 Y1.039
X352.375 Y0.906
X352.314 Y0.77
X352.26 Y0.63
X352.213 Y0.487
X352.175 Y0.342
X352.144 Y0.186
X352.123 Y0.037
X352.124 Y-0.333
X352.193 Y-0.696
X352.328 Y-1.041
X352.523 Y-1.355
X352.773 Y-1.628
X353.068 Y-1.85
X353.4 Y-2.015
X353.756 Y-2.116
X354.124 Y-2.15
X355.101
G3 X355.577 Y-2.019 I-0.037 J1.066
X355.889 Y-1.759 I-0.514 J0.935
X354.613 Y2.081 I-1.853 J1.516
X354.12 Y2.15 I-0.577 J-2.324
G1 X353.217
X353.068 Y2.142
X352.919 Y2.122
X352.773 Y2.087
X352.631 Y2.039
X352.494 Y1.978
X352.361 Y1.908
X352.234 Y1.828
X352.113 Y1.74
X351.998 Y1.643
X351.889 Y1.54
X351.788 Y1.43
X351.693 Y1.313
X351.605 Y1.192
X351.526 Y1.065
X351.453 Y0.933
X351.388 Y0.798
X351.332 Y0.659
X351.282 Y0.514
X351.241 Y0.37
X351.209 Y0.224
X351.184 Y-0.169
X351.235 Y-0.559
X351.359 Y-0.932
X351.552 Y-1.274
X351.807 Y-1.574
X352.114 Y-1.819
X352.463 Y-2
X352.84 Y-2.112
X353.231 Y-2.15
X354.124
G3 X354.6 Y-2.019 I-0.037 J1.067
X354.873 Y-1.805 I-0.514 J0.936
X353.71 Y2.08 I-1.738 J1.597
X353.217 Y2.15 I-0.575 J-2.289
G1 X352.258
X352.108 Y2.142
X351.96 Y2.119
X351.814 Y2.082
X351.673 Y2.031
X351.536 Y1.97
X351.405 Y1.898
X351.278 Y1.817
X351.158 Y1.728
X351.044 Y1.63
X350.937 Y1.525
X350.836 Y1.414
X350.743 Y1.296
X350.658 Y1.173
X350.579 Y1.045
X350.509 Y0.913
X350.447 Y0.776
X350.392 Y0.636
X350.345 Y0.494
X350.307 Y0.349
X350.276 Y0.193
X350.254 Y0.044
Y-0.327
X350.323 Y-0.691
X350.457 Y-1.037
X350.652 Y-1.352
X350.902 Y-1.626
X351.198 Y-1.849
X351.53 Y-2.014
X351.887 Y-2.116
X352.256 Y-2.15
X353.231
G3 X353.708 Y-2.019 I-0.037 J1.066
X354.016 Y-1.764 I-0.514 J0.935
X352.258 Y2.15 I-1.842 J1.524
G1 X351.313
X351.163 Y2.142
X351.015 Y2.118
X350.87 Y2.08
X350.729 Y2.028
X350.593 Y1.966
X350.462 Y1.893
X350.336 Y1.811
X350.216 Y1.72
X350.103 Y1.623
X349.996 Y1.517
X349.896 Y1.406
X349.802 Y1.288
X349.716 Y1.165
X349.639 Y1.037
X349.568 Y0.905
X349.505 Y0.769
X349.45 Y0.629
X349.403 Y0.486
X349.364 Y0.341
X349.333 Y0.194
X349.313 Y-0.195
X349.367 Y-0.581
X349.493 Y-0.949
X349.686 Y-1.287
X349.94 Y-1.582
X350.246 Y-1.824
X350.592 Y-2.003
X350.966 Y-2.113
X351.353 Y-2.15
X352.256
G3 X352.733 Y-2.019 I-0.037 J1.067
X353.026 Y-1.783 I-0.514 J0.936
X351.806 Y2.081 I-1.796 J1.557
X351.313 Y2.15 I-0.576 J-2.306
G1 X350.405
X350.255 Y2.142
X350.106 Y2.122
X349.961 Y2.086
X349.819 Y2.037
X349.682 Y1.976
X349.549 Y1.906
X349.422 Y1.826
X349.301 Y1.737
X349.186 Y1.641
X349.079 Y1.537
X348.977 Y1.426
X348.883 Y1.309
X348.796 Y1.187
X348.717 Y1.059
X348.646 Y0.928
X348.582 Y0.792
X348.526 Y0.65
X348.478 Y0.508
X348.439 Y0.363
X348.407 Y0.21
X348.383 Y0.059
X348.381 Y-0.313
X348.448 Y-0.68
X348.581 Y-1.028
X348.776 Y-1.345
X349.027 Y-1.621
X349.323 Y-1.847
X349.657 Y-2.013
X350.015 Y-2.116
X350.386 Y-2.15
X351.353
G3 X351.83 Y-2.019 I-0.037 J1.067
X352.125 Y-1.779 I-0.514 J0.936
X350.898 Y2.081 I-1.804 J1.552
X350.405 Y2.15 I-0.576 J-2.308
G1 X349.472
X349.322 Y2.142
X349.173 Y2.122
X349.028 Y2.086
X348.886 Y2.037
X348.748 Y1.976
X348.616 Y1.906
X348.489 Y1.826
X348.368 Y1.737
X348.253 Y1.641
X348.145 Y1.537
X348.044 Y1.426
X347.949 Y1.31
X347.862 Y1.188
X347.782 Y1.061
X347.71 Y0.929
X347.645 Y0.794
X347.589 Y0.655
X347.54 Y0.512
X347.5 Y0.367
X347.468 Y0.221
X347.465 Y0.202
X347.441 Y-0.187
X347.491 Y-0.574
X347.615 Y-0.943
X347.806 Y-1.283
X348.059 Y-1.579
X348.364 Y-1.822
X348.71 Y-2.002
X349.084 Y-2.113
X349.472 Y-2.15
X350.386
G3 X350.862 Y-2.019 I-0.037 J1.067
X351.139 Y-1.801 I-0.514 J0.936
X349.472 Y2.15 I-1.75 J1.588
G1 X348.5
X348.35 Y2.142
X348.202 Y2.118
X348.058 Y2.078
X347.917 Y2.027
X347.781 Y1.964
X347.65 Y1.891
X347.524 Y1.809
X347.404 Y1.719
X347.291 Y1.62
X347.185 Y1.515
X347.085 Y1.403
X346.992 Y1.285
X346.907 Y1.161
X346.829 Y1.033
X346.759 Y0.9
X346.697 Y0.764
X346.643 Y0.624
X346.597 Y0.481
X346.559 Y0.336
X346.528 Y0.18
X346.509 Y-0.207
X346.564 Y-0.591
X346.691 Y-0.957
X346.885 Y-1.293
X347.139 Y-1.586
X347.443 Y-1.826
X347.788 Y-2.004
X348.16 Y-2.113
X348.546 Y-2.15
X349.472
G3 X350.255 Y-1.765 I-0.037 J1.067
X348.5 Y2.15 I-1.838 J1.527
G1 X347.567
X347.417 Y2.142
X347.269 Y2.118
X347.124 Y2.079
X346.983 Y2.028
X346.847 Y1.965
X346.716 Y1.892
X346.59 Y1.81
X346.471 Y1.72
X346.357 Y1.621
X346.251 Y1.516
X346.151 Y1.404
X346.058 Y1.286
X345.974 Y1.162
X345.896 Y1.034
X345.826 Y0.901
X345.764 Y0.764
X345.71 Y0.623
X345.664 Y0.48
X345.626 Y0.335
X345.595 Y0.18
X345.574 Y0.03
X345.576 Y-0.339
X345.645 Y-0.702
X345.78 Y-1.045
X345.975 Y-1.358
X346.224 Y-1.63
X346.519 Y-1.852
X346.849 Y-2.015
X347.204 Y-2.116
X347.571 Y-2.15
X348.546
G3 X349.023 Y-2.019 I-0.037 J1.066
X349.334 Y-1.76 I-0.514 J0.935
X348.06 Y2.081 I-1.85 J1.518
X347.567 Y2.15 I-0.577 J-2.323
G1 X346.69
X346.54 Y2.142
X346.391 Y2.124
X346.245 Y2.091
X346.102 Y2.044
X345.964 Y1.986
X345.831 Y1.916
X345.704 Y1.838
X345.582 Y1.75
X345.466 Y1.655
X345.356 Y1.553
X345.254 Y1.443
X345.158 Y1.328
X345.069 Y1.207
X344.988 Y1.081
X344.914 Y0.95
X344.848 Y0.815
X344.791 Y0.677
X344.74 Y0.531
X344.698 Y0.387
X344.664 Y0.241
X344.636 Y-0.153
X344.685 Y-0.545
X344.807 Y-0.921
X345 Y-1.266
X345.255 Y-1.568
X345.564 Y-1.816
X345.914 Y-1.999
X346.293 Y-2.112
X346.686 Y-2.15
X347.571
G3 X348.048 Y-2.019 I-0.037 J1.067
X348.306 Y-1.82 I-0.514 J0.936
X346.69 Y2.15 I-1.698 J1.623
G1 X345.739
X345.59 Y2.142
X345.441 Y2.123
X345.295 Y2.088
X345.153 Y2.04
X345.015 Y1.981
X344.882 Y1.911
X344.755 Y1.832
X344.633 Y1.744
X344.518 Y1.648
X344.41 Y1.544
X344.308 Y1.434
X344.213 Y1.318
X344.126 Y1.195
X344.047 Y1.068
X343.975 Y0.937
X343.911 Y0.801
X343.855 Y0.662
X343.807 Y0.52
X343.767 Y0.375
X343.734 Y0.221
X343.711 Y0.071
X343.707 Y-0.303
X343.774 Y-0.672
X343.906 Y-1.021
X344.102 Y-1.341
X344.353 Y-1.618
X344.651 Y-1.845
X344.985 Y-2.012
X345.345 Y-2.115
X345.718 Y-2.15
X346.686
G3 X347.162 Y-2.019 I-0.037 J1.067
X347.457 Y-1.781 I-0.514 J0.936
X346.232 Y2.081 I-1.8 J1.554
X345.739 Y2.15 I-0.576 J-2.307
G1 X344.785
X344.635 Y2.142
X344.487 Y2.12
X344.342 Y2.084
X344.2 Y2.034
X344.063 Y1.972
X343.931 Y1.901
X343.805 Y1.82
X343.685 Y1.731
X343.57 Y1.634
X343.462 Y1.529
X343.362 Y1.418
X343.268 Y1.302
X343.181 Y1.179
X343.102 Y1.051
X343.031 Y0.92
X342.967 Y0.784
X342.911 Y0.644
X342.864 Y0.502
X342.824 Y0.358
X342.793 Y0.211
X342.77 Y-0.18
X342.822 Y-0.568
X342.947 Y-0.94
X343.141 Y-1.28
X343.396 Y-1.578
X343.703 Y-1.821
X344.05 Y-2.001
X344.426 Y-2.113
X344.816 Y-2.15
X345.718
G3 X346.194 Y-2.019 I-0.037 J1.067
X346.481 Y-1.79 I-0.514 J0.936
X345.278 Y2.081 I-1.778 J1.569
X344.785 Y2.15 I-0.576 J-2.301
G1 X343.835
X343.685 Y2.142
X343.537 Y2.119
X343.392 Y2.08
X343.251 Y2.029
X343.114 Y1.967
X342.983 Y1.895
X342.857 Y1.813
X342.737 Y1.723
X342.623 Y1.625
X342.517 Y1.52
X342.417 Y1.408
X342.324 Y1.291
X342.239 Y1.167
X342.161 Y1.039
X342.091 Y0.906
X342.029 Y0.77
X341.975 Y0.63
X341.928 Y0.487
X341.89 Y0.342
X341.859 Y0.186
X341.838 Y0.037
X341.839 Y-0.333
X341.908 Y-0.696
X342.043 Y-1.041
X342.238 Y-1.355
X342.488 Y-1.628
X342.784 Y-1.85
X343.115 Y-2.015
X343.471 Y-2.116
X343.839 Y-2.15
X344.816
G3 X345.292 Y-2.019 I-0.037 J1.066
X345.604 Y-1.759 I-0.514 J0.935
X344.328 Y2.081 I-1.853 J1.516
X343.835 Y2.15 I-0.577 J-2.324
G1 X342.933
X342.783 Y2.142
X342.634 Y2.122
X342.488 Y2.087
X342.346 Y2.039
X342.209 Y1.978
X342.077 Y1.908
X341.95 Y1.828
X341.828 Y1.74
X341.713 Y1.643
X341.605 Y1.54
X341.503 Y1.43
X341.408 Y1.313
X341.321 Y1.192
X341.241 Y1.065
X341.168 Y0.933
X341.103 Y0.798
X341.047 Y0.659
X340.997 Y0.514
X340.957 Y0.37
X340.924 Y0.224
X340.899 Y-0.169
X340.95 Y-0.559
X341.074 Y-0.932
X341.267 Y-1.274
X341.522 Y-1.574
X341.83 Y-1.819
X342.178 Y-2
X342.555 Y-2.112
X342.947 Y-2.15
X343.839
G3 X344.316 Y-2.019 I-0.037 J1.067
X344.588 Y-1.805 I-0.514 J0.936
X342.933 Y2.15 I-1.738 J1.597
G1 X341.973
X341.823 Y2.142
X341.675 Y2.119
X341.529 Y2.082
X341.388 Y2.031
X341.251 Y1.97
X341.12 Y1.898
X340.994 Y1.817
X340.873 Y1.728
X340.759 Y1.63
X340.652 Y1.525
X340.551 Y1.414
X340.458 Y1.296
X340.373 Y1.173
X340.295 Y1.045
X340.224 Y0.913
X340.162 Y0.776
X340.107 Y0.636
X340.061 Y0.494
X340.022 Y0.349
X339.991 Y0.193
X339.969 Y0.044
Y-0.327
X340.038 Y-0.691
X340.172 Y-1.037
X340.367 Y-1.352
X340.617 Y-1.626
X340.913 Y-1.849
X341.246 Y-2.014
X341.602 Y-2.116
X341.972 Y-2.15
X342.947
G3 X343.423 Y-2.019 I-0.037 J1.066
X343.731 Y-1.764 I-0.514 J0.935
X342.466 Y2.081 I-1.842 J1.524
X341.973 Y2.15 I-0.576 J-2.32
G1 X341.028
X340.878 Y2.142
X340.73 Y2.118
X340.585 Y2.08
X340.444 Y2.028
X340.308 Y1.966
X340.177 Y1.893
X340.051 Y1.811
X339.931 Y1.72
X339.818 Y1.623
X339.711 Y1.517
X339.611 Y1.406
X339.518 Y1.288
X339.432 Y1.165
X339.354 Y1.037
X339.283 Y0.905
X339.22 Y0.769
X339.165 Y0.629
X339.118 Y0.486
X339.079 Y0.341
X339.049 Y0.194
X339.028 Y-0.195
X339.082 Y-0.581
X339.208 Y-0.949
X339.401 Y-1.287
X339.656 Y-1.582
X339.961 Y-1.824
X340.307 Y-2.003
X340.681 Y-2.113
X341.069 Y-2.15
X341.972
G3 X342.448 Y-2.019 I-0.037 J1.067
X342.741 Y-1.783 I-0.514 J0.936
X341.028 Y2.15 I-1.796 J1.557
G1 X340.12
X339.97 Y2.142
X339.822 Y2.122
X339.676 Y2.086
X339.534 Y2.037
X339.397 Y1.976
X339.265 Y1.906
X339.138 Y1.826
X339.016 Y1.737
X338.902 Y1.641
X338.794 Y1.537
X338.692 Y1.426
X338.598 Y1.309
X338.512 Y1.187
X338.432 Y1.059
X338.361 Y0.928
X338.297 Y0.792
X338.241 Y0.65
X338.193 Y0.508
X338.154 Y0.363
X338.122 Y0.21
X338.098 Y0.059
X338.096 Y-0.313
X338.163 Y-0.68
X338.296 Y-1.028
X338.491 Y-1.345
X338.742 Y-1.621
X339.039 Y-1.847
X339.372 Y-2.013
X339.73 Y-2.116
X340.101 Y-2.15
X341.069
G3 X341.545 Y-2.019 I-0.037 J1.067
X341.841 Y-1.779 I-0.514 J0.936
X340.12 Y2.15 I-1.804 J1.552
G1 X339.187
X339.037 Y2.142
X338.888 Y2.122
X338.743 Y2.086
X338.601 Y2.037
X338.464 Y1.976
X338.331 Y1.906
X338.205 Y1.826
X338.084 Y1.737
X337.969 Y1.641
X337.86 Y1.537
X337.759 Y1.426
X337.664 Y1.31
X337.577 Y1.188
X337.497 Y1.061
X337.425 Y0.929
X337.361 Y0.794
X337.304 Y0.655
X337.256 Y0.512
X337.215 Y0.367
X337.183 Y0.221
X337.18 Y0.202
X337.156 Y-0.187
X337.206 Y-0.574
X337.33 Y-0.943
X337.521 Y-1.283
X337.774 Y-1.579
X338.079 Y-1.822
X338.425 Y-2.002
X338.799 Y-2.113
X339.187 Y-2.15
X340.101
G3 X340.578 Y-2.019 I-0.037 J1.067
X340.854 Y-1.801 I-0.514 J0.936
X339.68 Y2.08 I-1.75 J1.588
X339.187 Y2.15 I-0.575 J-2.292
G1 X338.215
X338.066 Y2.142
X337.918 Y2.118
X337.773 Y2.078
X337.632 Y2.027
X337.496 Y1.964
X337.365 Y1.891
X337.239 Y1.809
X337.119 Y1.719
X337.006 Y1.62
X336.9 Y1.515
X336.8 Y1.403
X336.707 Y1.285
X336.622 Y1.161
X336.544 Y1.033
X336.474 Y0.9
X336.412 Y0.764
X336.358 Y0.624
X336.312 Y0.481
X336.274 Y0.336
X336.243 Y0.18
X336.224 Y-0.207
X336.279 Y-0.591
X336.406 Y-0.957
X336.6 Y-1.293
X336.854 Y-1.586
X337.158 Y-1.826
X337.503 Y-2.004
X337.875 Y-2.113
X338.261 Y-2.15
X339.187
G3 X339.97 Y-1.765 I-0.037 J1.067
X338.708 Y2.081 I-1.838 J1.527
X338.215 Y2.15 I-0.576 J-2.319
G1 X337.282
X337.132 Y2.142
X336.984 Y2.118
X336.839 Y2.079
X336.699 Y2.028
X336.562 Y1.965
X336.431 Y1.892
X336.306 Y1.81
X336.186 Y1.72
X336.073 Y1.621
X335.966 Y1.516
X335.866 Y1.404
X335.774 Y1.286
X335.689 Y1.162
X335.611 Y1.034
X335.541 Y0.901
X335.479 Y0.764
X335.425 Y0.623
X335.379 Y0.48
X335.341 Y0.335
X335.31 Y0.18
X335.289 Y0.03
X335.291 Y-0.339
X335.36 Y-0.702
X335.495 Y-1.045
X335.69 Y-1.358
X335.939 Y-1.63
X336.234 Y-1.852
X336.564 Y-2.015
X336.919 Y-2.116
X337.287 Y-2.15
X338.261
G3 X338.738 Y-2.019 I-0.037 J1.066
X339.049 Y-1.76 I-0.514 J0.935
X337.775 Y2.081 I-1.85 J1.518
X337.282 Y2.15 I-0.577 J-2.323
G1 X336.405
X336.255 Y2.142
X336.106 Y2.124
X335.96 Y2.091
X335.818 Y2.044
X335.679 Y1.986
X335.546 Y1.916
X335.419 Y1.838
X335.297 Y1.75
X335.181 Y1.655
X335.071 Y1.553
X334.969 Y1.443
X334.873 Y1.328
X334.784 Y1.207
X334.703 Y1.081
X334.63 Y0.95
X334.564 Y0.815
X334.506 Y0.677
X334.455 Y0.531
X334.413 Y0.387
X334.379 Y0.241
X334.351 Y-0.153
X334.4 Y-0.545
X334.523 Y-0.921
X334.715 Y-1.266
X334.97 Y-1.568
X335.279 Y-1.816
X335.629 Y-1.999
X336.008 Y-2.112
X336.401 Y-2.15
X337.287
G3 X337.763 Y-2.019 I-0.037 J1.067
X338.022 Y-1.82 I-0.514 J0.936
X336.405 Y2.15 I-1.698 J1.623
G1 X335.455
X335.305 Y2.142
X335.156 Y2.123
X335.01 Y2.088
X334.868 Y2.04
X334.73 Y1.981
X334.598 Y1.911
X334.47 Y1.832
X334.349 Y1.744
X334.233 Y1.648
X334.125 Y1.544
X334.023 Y1.434
X333.928 Y1.318
X333.842 Y1.195
X333.762 Y1.068
X333.69 Y0.937
X333.626 Y0.801
X333.57 Y0.662
X333.522 Y0.52
X333.482 Y0.375
X333.449 Y0.221
X333.426 Y0.071
X333.423 Y-0.303
X333.489 Y-0.672
X333.622 Y-1.021
X333.817 Y-1.341
X334.068 Y-1.618
X334.366 Y-1.845
X334.7 Y-2.012
X335.06 Y-2.115
X335.433 Y-2.15
X336.401
G3 X336.878 Y-2.019 I-0.037 J1.067
X337.172 Y-1.781 I-0.514 J0.936
X335.455 Y2.15 I-1.8 J1.554
G1 X334.5
X334.351 Y2.142
X334.202 Y2.12
X334.057 Y2.084
X333.915 Y2.034
X333.778 Y1.972
X333.647 Y1.901
X333.52 Y1.82
X333.4 Y1.731
X333.285 Y1.634
X333.178 Y1.529
X333.077 Y1.418
X332.983 Y1.302
X332.896 Y1.179
X332.817 Y1.051
X332.746 Y0.92
X332.682 Y0.784
X332.627 Y0.644
X332.579 Y0.502
X332.539 Y0.358
X332.508 Y0.211
X332.485 Y-0.18
X332.537 Y-0.568
X332.662 Y-0.94
X332.856 Y-1.28
X333.111 Y-1.578
X333.418 Y-1.821
X333.765 Y-2.001
X334.141 Y-2.113
X334.531 Y-2.15
X335.433
G3 X335.909 Y-2.019 I-0.037 J1.067
X336.196 Y-1.79 I-0.514 J0.936
X334.5 Y2.15 I-1.778 J1.569
G1 X333.55
X333.4 Y2.142
X333.252 Y2.119
X333.107 Y2.08
X332.966 Y2.029
X332.83 Y1.967
X332.698 Y1.895
X332.572 Y1.813
X332.452 Y1.723
X332.339 Y1.625
X332.232 Y1.52
X332.132 Y1.408
X332.039 Y1.291
X331.954 Y1.167
X331.876 Y1.039
X331.806 Y0.906
X331.744 Y0.77
X331.69 Y0.63
X331.643 Y0.487
X331.605 Y0.342
X331.574 Y0.186
X331.553 Y0.037
X331.554 Y-0.333
X331.623 Y-0.696
X331.758 Y-1.041
X331.953 Y-1.355
X332.203 Y-1.628
X332.499 Y-1.85
X332.83 Y-2.015
X333.186 Y-2.116
X333.554 Y-2.15
X334.531
G3 X335.007 Y-2.019 I-0.037 J1.066
X335.32 Y-1.759 I-0.514 J0.935
X334.043 Y2.081 I-1.853 J1.516
X333.55 Y2.15 I-0.577 J-2.324
G1 X332.648
X332.498 Y2.142
X332.349 Y2.122
X332.203 Y2.087
X332.061 Y2.039
X331.924 Y1.978
X331.792 Y1.908
X331.665 Y1.828
X331.544 Y1.74
X331.428 Y1.643
X331.32 Y1.54
X331.218 Y1.43
X331.123 Y1.313
X331.036 Y1.192
X330.956 Y1.065
X330.884 Y0.933
X330.819 Y0.798
X330.762 Y0.659
X330.712 Y0.514
X330.672 Y0.37
X330.639 Y0.224
X330.614 Y-0.169
X330.665 Y-0.559
X330.789 Y-0.932
X330.982 Y-1.274
X331.237 Y-1.574
X331.545 Y-1.819
X331.893 Y-2
X332.27 Y-2.112
X332.662 Y-2.15
X333.554
G3 X334.031 Y-2.019 I-0.037 J1.067
X334.303 Y-1.805 I-0.514 J0.936
X333.141 Y2.08 I-1.738 J1.597
X332.648 Y2.15 I-0.575 J-2.289
G1 X331.688
X331.538 Y2.142
X331.39 Y2.119
X331.245 Y2.082
X331.103 Y2.031
X330.967 Y1.97
X330.835 Y1.898
X330.709 Y1.817
X330.588 Y1.728
X330.474 Y1.63
X330.367 Y1.525
X330.267 Y1.414
X330.173 Y1.296
X330.088 Y1.173
X330.01 Y1.045
X329.939 Y0.913
X329.877 Y0.776
X329.823 Y0.636
X329.776 Y0.494
X329.737 Y0.349
X329.706 Y0.193
X329.684 Y0.044
Y-0.327
X329.753 Y-0.691
X329.887 Y-1.037
X330.083 Y-1.352
X330.333 Y-1.626
X330.629 Y-1.849
X330.961 Y-2.014
X331.317 Y-2.116
X331.687 Y-2.15
X332.662
G3 X333.138 Y-2.019 I-0.037 J1.066
X333.447 Y-1.764 I-0.514 J0.935
X331.688 Y2.15 I-1.842 J1.524
G1 X330.743
X330.593 Y2.142
X330.445 Y2.118
X330.3 Y2.08
X330.159 Y2.028
X330.023 Y1.966
X329.892 Y1.893
X329.766 Y1.811
X329.647 Y1.72
X329.533 Y1.623
X329.426 Y1.517
X329.326 Y1.406
X329.233 Y1.288
X329.147 Y1.165
X329.069 Y1.037
X328.998 Y0.905
X328.935 Y0.769
X328.88 Y0.629
X328.833 Y0.486
X328.794 Y0.341
X328.764 Y0.194
X328.743 Y-0.195
X328.797 Y-0.581
X328.923 Y-0.949
X329.117 Y-1.287
X329.371 Y-1.582
X329.676 Y-1.824
X330.022 Y-2.003
X330.396 Y-2.113
X330.784 Y-2.15
X331.687
G3 X332.163 Y-2.019 I-0.037 J1.067
X332.456 Y-1.783 I-0.514 J0.936
X331.236 Y2.081 I-1.796 J1.557
X330.743 Y2.15 I-0.576 J-2.306
G1 X329.835
X329.685 Y2.142
X329.537 Y2.122
X329.391 Y2.086
X329.249 Y2.037
X329.112 Y1.976
X328.98 Y1.906
X328.853 Y1.826
X328.732 Y1.737
X328.617 Y1.641
X328.509 Y1.537
X328.408 Y1.426
X328.313 Y1.309
X328.227 Y1.187
X328.148 Y1.059
X328.076 Y0.928
X328.012 Y0.792
X327.956 Y0.65
X327.908 Y0.508
X327.869 Y0.363
X327.837 Y0.21
X327.814 Y0.059
X327.812 Y-0.313
X327.878 Y-0.68
X328.012 Y-1.028
X328.207 Y-1.345
X328.457 Y-1.621
X328.754 Y-1.847
X329.087 Y-2.013
X329.445 Y-2.116
X329.816 Y-2.15
X330.784
G3 X331.26 Y-2.019 I-0.037 J1.067
X331.556 Y-1.779 I-0.514 J0.936
X330.328 Y2.081 I-1.804 J1.552
X329.835 Y2.15 I-0.576 J-2.308
G1 X328.902
X328.752 Y2.142
X328.604 Y2.122
X328.458 Y2.086
X328.316 Y2.037
X328.179 Y1.976
X328.047 Y1.906
X327.92 Y1.826
X327.799 Y1.737
X327.684 Y1.641
X327.575 Y1.537
X327.474 Y1.426
X327.379 Y1.31
X327.292 Y1.188
X327.213 Y1.061
X327.14 Y0.929
X327.076 Y0.794
X327.02 Y0.655
X326.971 Y0.512
X326.93 Y0.367
X326.898 Y0.221
X326.895 Y0.202
X326.871 Y-0.187
X326.921 Y-0.574
X327.045 Y-0.943
X327.237 Y-1.283
X327.49 Y-1.579
X327.795 Y-1.822
X328.14 Y-2.002
X328.514 Y-2.113
X328.902 Y-2.15
X329.816
G3 X330.293 Y-2.019 I-0.037 J1.067
X330.569 Y-1.801 I-0.514 J0.936
X329.395 Y2.08 I-1.75 J1.588
