%
(1001)
(Z0 stock top centre y)
(T1  D=12.7 CR=0 - ZMIN=-22.5 - flat end mill)
G90 G94
G17
G21

(legsAdaptive49m)
M9
T1 M6
S6000 M3
G54
M9
G0 X36.964 Y-48.027
Z15
Z5
Z3.77
G1 Z2.5 F849.6
G3 X31.039 Y-48.972 Z2.171 I-2.963 J-0.473 F400.3
X36.964 Y-48.027 Z1.842 I2.963 J0.473
X31.039 Y-48.972 Z1.513 I-2.963 J-0.473
X36.964 Y-48.027 Z1.184 I2.963 J0.473
X31.039 Y-48.972 Z0.854 I-2.963 J-0.473
X36.964 Y-48.027 Z0.525 I2.963 J0.473
X31.039 Y-48.972 Z0.196 I-2.963 J-0.473
X36.964 Y-48.027 Z-0.133 I2.963 J0.473
X31.039 Y-48.972 Z-0.462 I-2.963 J-0.473
X36.964 Y-48.027 Z-0.791 I2.963 J0.473
X31.039 Y-48.972 Z-1.12 I-2.963 J-0.473
X36.964 Y-48.027 Z-1.449 I2.963 J0.473
X31.039 Y-48.972 Z-1.779 I-2.963 J-0.473
X36.964 Y-48.027 Z-2.108 I2.963 J0.473
X31.039 Y-48.972 Z-2.437 I-2.963 J-0.473
X36.964 Y-48.027 Z-2.766 I2.963 J0.473
X31.039 Y-48.972 Z-3.095 I-2.963 J-0.473
X36.964 Y-48.027 Z-3.424 I2.963 J0.473
X31.039 Y-48.972 Z-3.753 I-2.963 J-0.473
X36.964 Y-48.027 Z-4.082 I2.963 J0.473
X31.039 Y-48.972 Z-4.412 I-2.963 J-0.473
X36.964 Y-48.027 Z-4.741 I2.963 J0.473
X31.039 Y-48.972 Z-5.07 I-2.963 J-0.473
X36.964 Y-48.027 Z-5.399 I2.963 J0.473
X31.039 Y-48.972 Z-5.728 I-2.963 J-0.473
X36.964 Y-48.027 Z-6.057 I2.963 J0.473
X31.039 Y-48.972 Z-6.386 I-2.963 J-0.473
X36.964 Y-48.027 Z-6.715 I2.963 J0.473
X31.039 Y-48.972 Z-7.044 I-2.963 J-0.473
X36.964 Y-48.027 Z-7.374 I2.963 J0.473
X31.039 Y-48.972 Z-7.703 I-2.963 J-0.473
X36.964 Y-48.027 Z-8.032 I2.963 J0.473
X31.039 Y-48.972 Z-8.361 I-2.963 J-0.473
X36.964 Y-48.027 Z-8.69 I2.963 J0.473
X31.039 Y-48.972 Z-9.019 I-2.963 J-0.473
X36.964 Y-48.027 Z-9.348 I2.963 J0.473
X31.039 Y-48.972 Z-9.677 I-2.963 J-0.473
X37.001 Y-48.5 Z-9.99 I2.963 J0.473
X31.001 I-3
X37.001 I3
G1 X37.022 Y-47.208 F849.6
Y-46.908
X36.963 Y-46.615
X36.848 Y-46.338
X36.681 Y-46.09
X36.517 Y-45.91
X36.355 Y-45.774
X36.273 Y-45.706
X35.975 Y-45.475
X35.7 Y-45.325
X35.594 Y-45.268
X35.403 Y-45.171
X35.213 Y-45.104
X34.832 Y-44.988
X34.63 Y-44.944
X34.451 Y-44.925
X34.07 Y-44.889
X33.689 Y-44.911
X33.368 Y-44.944
X33.308 Y-44.954
X32.927 Y-45.062
X32.546 Y-45.194
X32.165 Y-45.397
X31.975 Y-45.508
X31.784 Y-45.659
X31.727 Y-45.706
X31.403 Y-45.989
X31.321 Y-46.087
X31.023 Y-46.455
X31.014 Y-46.467
X30.799 Y-46.848
X30.642 Y-47.171
X30.622 Y-47.229
X30.506 Y-47.61
X30.455 Y-47.801
X30.431 Y-47.991
X30.393 Y-48.372
X30.388 Y-48.562
X30.406 Y-48.753
X30.445 Y-49.134
X30.544 Y-49.515
X30.642 Y-49.828
X30.668 Y-49.895
X30.865 Y-50.276
X31.023 Y-50.545
X31.111 Y-50.657
X31.403 Y-51.01
X31.429 Y-51.038
X31.784 Y-51.341
X31.879 Y-51.419
X32.022 Y-51.523
X32.165 Y-51.603
X32.546 Y-51.806
X32.927 Y-51.938
X33.308 Y-52.046
X33.689 Y-52.089
X34.451 Y-52.164
X34.615 Y-52.181
X34.765 Y-52.196
X34.916 Y-52.195
X35.072 Y-52.186
X35.232 Y-52.168
X35.395 Y-52.141
X35.56 Y-52.104
X35.726 Y-52.057
X35.893 Y-52
X36.06 Y-51.932
X36.226 Y-51.854
X36.39 Y-51.766
X36.519 Y-51.688
X36.863 Y-51.436
X37.158 Y-51.131
X37.397 Y-50.779
X37.574 Y-50.392
X37.681 Y-49.981
X37.718 Y-49.557
X37.682 Y-49.134
X37.569 Y-47.991
X37.546 Y-47.807
X37.498 Y-47.624
X37.378 Y-47.229
X37.302 Y-47.039
X37.117 Y-46.691
X36.986 Y-46.467
X36.706 Y-46.12
X36.681 Y-46.09
G3 X34.487 Y-46.663 I-0.953 J-0.839
G1 X33.628 Y-50.67
G3 X34.615 Y-52.181 I1.242 J-0.266
G1 X35.213 Y-52.281
X35.594 Y-52.36
X35.657 Y-52.378
X35.803 Y-52.412
X35.951 Y-52.435
X36.101 Y-52.447
X36.251 Y-52.446
X36.4 Y-52.434
X36.415 Y-52.432
X36.742 Y-52.351
X37.049 Y-52.21
X37.324 Y-52.015
X37.557 Y-51.771
X37.741 Y-51.488
X37.868 Y-51.176
X37.935 Y-50.845
X37.939 Y-50.507
X37.879 Y-50.175
G3 X36.559 Y-48.936 I-1.66 J-0.446
X35.657 Y-52.378 I-0.352 J-1.747
G1 X35.975 Y-52.469
X36.247 Y-52.562
X36.355 Y-52.603
X36.413 Y-52.626
X36.555 Y-52.675
X36.701 Y-52.709
X36.85 Y-52.724
X37 Y-52.722
X37.149 Y-52.705
X37.172 Y-52.7
X37.465 Y-52.605
X37.73 Y-52.449
X37.957 Y-52.241
X38.135 Y-51.99
G3 X38.115 Y-51.028 I-1.398 J0.453
X35.737 Y-51.906 I-1.189 J-0.439
X36.413 Y-52.626 I1.189 J0.439
G1 X36.546 Y-52.68
X36.736 Y-52.73
X36.927 Y-52.751
X37.117 Y-52.743
X37.308 Y-52.705
X37.498 Y-52.636
X37.637 Y-52.562
X37.758 Y-52.476
X37.879 Y-52.367
X37.961 Y-52.274
X38.028 Y-52.181
X38.135 Y-51.99
X38.204 Y-51.8
X38.241 Y-51.609
X38.249 Y-51.419
X38.228 Y-51.228
X38.176 Y-51.038
X38.097 Y-50.829
X38.054 Y-50.754 Z-9.982
X38.013 Y-50.682 Z-9.96
X37.974 Y-50.615 Z-9.924
X37.939 Y-50.554 Z-9.875
X37.898 Y-50.507 Z-9.814
X37.865 Y-50.469 Z-9.742
X37.84 Y-50.441 Z-9.663
X37.825 Y-50.423 Z-9.579
X37.82 Y-50.418 Z-9.491
G0 Z5
X69.213 Y-80.655
Z3.77
G1 Z2.5 F849.6
G3 X63.287 Y-81.6 Z2.171 I-2.963 J-0.473 F400.3
X69.213 Y-80.655 Z1.842 I2.963 J0.473
X63.287 Y-81.6 Z1.513 I-2.963 J-0.473
X69.213 Y-80.655 Z1.184 I2.963 J0.473
X63.287 Y-81.6 Z0.854 I-2.963 J-0.473
X69.213 Y-80.655 Z0.525 I2.963 J0.473
X63.287 Y-81.6 Z0.196 I-2.963 J-0.473
X69.213 Y-80.655 Z-0.133 I2.963 J0.473
X63.287 Y-81.6 Z-0.462 I-2.963 J-0.473
X69.213 Y-80.655 Z-0.791 I2.963 J0.473
X63.287 Y-81.6 Z-1.12 I-2.963 J-0.473
X69.213 Y-80.655 Z-1.449 I2.963 J0.473
X63.287 Y-81.6 Z-1.779 I-2.963 J-0.473
X69.213 Y-80.655 Z-2.108 I2.963 J0.473
X63.287 Y-81.6 Z-2.437 I-2.963 J-0.473
X69.213 Y-80.655 Z-2.766 I2.963 J0.473
X63.287 Y-81.6 Z-3.095 I-2.963 J-0.473
X69.213 Y-80.655 Z-3.424 I2.963 J0.473
X63.287 Y-81.6 Z-3.753 I-2.963 J-0.473
X69.213 Y-80.655 Z-4.082 I2.963 J0.473
X63.287 Y-81.6 Z-4.412 I-2.963 J-0.473
X69.213 Y-80.655 Z-4.741 I2.963 J0.473
X63.287 Y-81.6 Z-5.07 I-2.963 J-0.473
X69.213 Y-80.655 Z-5.399 I2.963 J0.473
X63.287 Y-81.6 Z-5.728 I-2.963 J-0.473
X69.213 Y-80.655 Z-6.057 I2.963 J0.473
X63.287 Y-81.6 Z-6.386 I-2.963 J-0.473
X69.213 Y-80.655 Z-6.715 I2.963 J0.473
X63.287 Y-81.6 Z-7.044 I-2.963 J-0.473
X69.213 Y-80.655 Z-7.374 I2.963 J0.473
X63.287 Y-81.6 Z-7.703 I-2.963 J-0.473
X69.213 Y-80.655 Z-8.032 I2.963 J0.473
X63.287 Y-81.6 Z-8.361 I-2.963 J-0.473
X69.213 Y-80.655 Z-8.69 I2.963 J0.473
X63.287 Y-81.6 Z-9.019 I-2.963 J-0.473
X69.213 Y-80.655 Z-9.348 I2.963 J0.473
X63.287 Y-81.6 Z-9.677 I-2.963 J-0.473
X69.25 Y-81.128 Z-9.99 I2.963 J0.473
X63.25 I-3
X69.146 Y-81.911 I3
X69.25 Y-81.128 I-2.896 J0.783
G1 X69.271 Y-79.836 F849.6
X69.279 Y-79.755
X69.285 Y-79.605
X69.278 Y-79.456
X69.258 Y-79.307
X69.227 Y-79.16
X69.185 Y-79.016
X69.135 Y-78.875
X69.075 Y-78.737
X69.008 Y-78.603
X68.932 Y-78.473
X68.849 Y-78.347
X68.757 Y-78.221
X68.655 Y-78.097
X68.543 Y-77.975
X68.422 Y-77.858
X68.292 Y-77.744
X68.154 Y-77.635
X68.006 Y-77.532
X67.851 Y-77.435
X67.687 Y-77.345
X67.516 Y-77.263
X67.338 Y-77.189
X67.154 Y-77.124
X66.965 Y-77.068
X66.77 Y-77.022
X66.57 Y-76.986
X66.367 Y-76.961
X66.16 Y-76.947
X65.951 Y-76.944
X65.741 Y-76.953
X65.529 Y-76.972
X65.318 Y-77.004
X65.106 Y-77.047
X64.896 Y-77.103
X64.688 Y-77.169
X64.483 Y-77.248
X64.282 Y-77.338
X64.084 Y-77.439
X63.891 Y-77.551
X63.704 Y-77.674
X63.523 Y-77.808
X63.349 Y-77.952
X63.183 Y-78.105
X63.025 Y-78.268
X62.875 Y-78.44
X62.734 Y-78.62
X62.603 Y-78.808
X62.482 Y-79.003
X62.371 Y-79.205
X62.272 Y-79.413
X62.183 Y-79.627
X62.107 Y-79.845
X62.042 Y-80.068
X61.989 Y-80.294
X61.948 Y-80.523
X61.92 Y-80.754
X61.905 Y-80.987
X61.902 Y-81.22
X61.911 Y-81.454
X61.934 Y-81.687
X61.969 Y-81.918
X62.016 Y-82.148
X62.076 Y-82.374
X62.148 Y-82.598
X62.233 Y-82.817
X62.329 Y-83.032
X62.436 Y-83.241
X62.555 Y-83.444
X62.685 Y-83.64
X62.825 Y-83.829
X62.976 Y-84.011
X63.136 Y-84.184
X63.305 Y-84.348
X63.483 Y-84.503
X63.669 Y-84.648
X63.863 Y-84.783
X64.064 Y-84.907
X64.272 Y-85.02
X64.485 Y-85.121
X64.703 Y-85.211
X64.927 Y-85.289
X65.154 Y-85.355
X65.384 Y-85.408
X65.617 Y-85.449
X65.852 Y-85.477
X66.088 Y-85.493
X66.324 Y-85.495
X66.561 Y-85.485
X66.796 Y-85.462
X67.03 Y-85.426
X67.262 Y-85.378
X67.491 Y-85.317
X67.716 Y-85.244
X67.937 Y-85.158
X68.152 Y-85.061
X68.363 Y-84.953
X68.567 Y-84.833
X68.764 Y-84.702
X68.954 Y-84.56
X69.136 Y-84.409
X69.31 Y-84.248
X69.474 Y-84.077
X69.63 Y-83.898
X69.775 Y-83.711
X69.929 Y-83.488
X70.104 Y-83.203
X70.294 Y-82.854
X70.45 Y-82.526
X70.578 Y-82.212
X70.683 Y-81.909
X70.768 Y-81.614
X70.834 Y-81.327
X70.883 Y-81.045
X70.916 Y-80.768
X70.933 Y-80.496
X70.936 Y-80.227
X70.924 Y-79.963
X70.898 Y-79.702
X70.858 Y-79.445
X70.804 Y-79.191
X70.738 Y-78.942
X70.657 Y-78.697
X70.564 Y-78.456
X70.458 Y-78.221
X70.338 Y-77.991
X70.207 Y-77.768
X70.062 Y-77.551
X69.906 Y-77.342
X69.737 Y-77.14
X69.557 Y-76.946
X69.366 Y-76.762
X69.163 Y-76.587
X68.95 Y-76.423
X68.728 Y-76.269
X68.495 Y-76.127
X68.254 Y-75.996
X68.004 Y-75.879
X67.747 Y-75.774
X67.483 Y-75.682
X67.213 Y-75.605
X66.937 Y-75.542
X66.656 Y-75.494
X66.371 Y-75.461
X66.083 Y-75.443
X65.793 Y-75.441
X65.502 Y-75.455
X65.21 Y-75.484
X64.919 Y-75.53
X64.629 Y-75.592
X64.341 Y-75.669
X64.057 Y-75.763
X63.776 Y-75.872
X63.501 Y-75.997
X63.232 Y-76.137
X62.97 Y-76.293
X62.716 Y-76.463
X62.471 Y-76.647
X62.235 Y-76.844
X62.009 Y-77.055
X61.795 Y-77.279
X61.592 Y-77.514
X61.402 Y-77.761
X61.225 Y-78.019
X61.062 Y-78.286
X60.913 Y-78.562
X60.779 Y-78.847
X60.661 Y-79.139
X60.558 Y-79.438
X60.472 Y-79.742
X60.402 Y-80.051
X60.349 Y-80.364
X60.312 Y-80.68
X60.293 Y-80.998
X60.292 Y-81.317
X60.307 Y-81.636
X60.34 Y-81.954
X60.39 Y-82.271
X60.457 Y-82.584
X60.542 Y-82.894
X60.642 Y-83.199
X60.76 Y-83.498
X60.894 Y-83.791
X61.043 Y-84.076
X61.208 Y-84.353
X61.387 Y-84.621
X61.581 Y-84.878
X61.789 Y-85.126
X62.01 Y-85.361
X62.244 Y-85.585
X62.49 Y-85.795
X62.746 Y-85.992
X63.013 Y-86.175
X63.29 Y-86.343
X63.576 Y-86.496
X63.869 Y-86.634
X64.17 Y-86.755
X64.477 Y-86.86
X64.789 Y-86.948
X65.106 Y-87.019
X65.426 Y-87.073
X65.749 Y-87.109
X66.073 Y-87.128
X66.398 Y-87.129
X66.723 Y-87.113
X67.046 Y-87.079
X67.367 Y-87.028
X67.685 Y-86.959
X67.998 Y-86.873
X68.307 Y-86.77
X68.609 Y-86.651
X68.907 Y-86.515
X69.201 Y-86.36
X69.492 Y-86.186
X69.786 Y-85.988
X70.077 Y-85.768
X70.362 Y-85.528
X70.636 Y-85.269
X70.898 Y-84.995
X71.146 Y-84.705
X71.377 Y-84.402
X71.591 Y-84.088
X71.788 Y-83.764
X71.965 Y-83.431
X72.124 Y-83.09
X72.263 Y-82.743
X72.383 Y-82.391
X72.483 Y-82.035
X72.563 Y-81.676
X72.623 Y-81.314
X72.663 Y-80.952
X72.683 Y-80.589
X72.684 Y-80.226
X72.665 Y-79.866
X72.627 Y-79.507
X72.569 Y-79.152
X72.493 Y-78.8
X72.397 Y-78.454
X72.283 Y-78.113
X72.151 Y-77.779
X72 Y-77.452
X71.832 Y-77.134
X71.646 Y-76.824
X71.444 Y-76.525
X71.225 Y-76.236
X70.99 Y-75.959
X70.74 Y-75.694
X70.475 Y-75.442
X70.196 Y-75.205
X69.903 Y-74.981
X69.597 Y-74.774
X69.28 Y-74.582
X68.951 Y-74.408
X68.612 Y-74.25
X68.263 Y-74.111
X67.906 Y-73.991
X67.541 Y-73.889
X67.17 Y-73.807
X66.794 Y-73.745
X66.413 Y-73.704
X66.028 Y-73.683
X65.642
X65.255 Y-73.703
X64.868 Y-73.745
X64.482 Y-73.809
X64.099 Y-73.893
X63.72 Y-73.998
X63.345 Y-74.124
X62.977 Y-74.271
X62.616 Y-74.438
X62.263 Y-74.625
X61.92 Y-74.832
X61.588 Y-75.057
X61.267 Y-75.301
X60.96 Y-75.563
X60.666 Y-75.842
X60.387 Y-76.137
X60.123 Y-76.447
X59.876 Y-76.772
X59.647 Y-77.111
X59.436 Y-77.463
X59.244 Y-77.826
X59.071 Y-78.2
X58.919 Y-78.583
X58.787 Y-78.975
X58.677 Y-79.374
X58.588 Y-79.779
X58.522 Y-80.19
X58.477 Y-80.603
X58.455 Y-81.019
X58.456 Y-81.437
X58.479 Y-81.854
X58.525 Y-82.27
X58.593 Y-82.683
X58.684 Y-83.092
X58.797 Y-83.497
X58.932 Y-83.895
X59.088 Y-84.285
X59.266 Y-84.667
X59.464 Y-85.039
X59.682 Y-85.4
X59.92 Y-85.748
X60.176 Y-86.084
X60.45 Y-86.406
X60.742 Y-86.712
X61.05 Y-87.002
X61.373 Y-87.275
X61.711 Y-87.531
X62.062 Y-87.768
X62.426 Y-87.985
X62.801 Y-88.183
X63.187 Y-88.36
X63.581 Y-88.516
X63.984 Y-88.651
X64.394 Y-88.763
X64.809 Y-88.853
X65.229 Y-88.921
X65.651 Y-88.965
X66.076 Y-88.987
X66.502 Y-88.986
X66.927 Y-88.961
X67.353 Y-88.914
X67.778 Y-88.842
X68.203 Y-88.747
X68.626 Y-88.628
X69.047 Y-88.485
X69.464 Y-88.317
X69.874 Y-88.125
X70.277 Y-87.91
X70.67 Y-87.671
X71.052 Y-87.41
X71.421 Y-87.127
X71.775 Y-86.824
X72.114 Y-86.501
X72.435 Y-86.159
X72.738 Y-85.799
X73.021 Y-85.424
X73.283 Y-85.033
X73.524 Y-84.629
X73.743 Y-84.212
X73.938 Y-83.785
X74.11 Y-83.347
X74.258 Y-82.902
X74.381 Y-82.45
X74.48 Y-81.992
X74.553 Y-81.53
X74.601 Y-81.065
X74.624 Y-80.598
X74.622 Y-80.132
X74.595 Y-79.666
X74.542 Y-79.202
X74.464 Y-78.742
X74.361 Y-78.287
X74.234 Y-77.838
X74.083 Y-77.396
X73.907 Y-76.963
X73.708 Y-76.539
X73.487 Y-76.127
X73.243 Y-75.726
X72.977 Y-75.339
X72.69 Y-74.965
X72.382 Y-74.608
X72.055 Y-74.266
X71.709 Y-73.942
X71.345 Y-73.637
X70.964 Y-73.351
X70.568 Y-73.085
X70.156 Y-72.841
X69.73 Y-72.619
X69.292 Y-72.419
X68.842 Y-72.243
X68.382 Y-72.092
X67.913 Y-71.965
X67.437 Y-71.863
X66.954 Y-71.787
X66.466 Y-71.737
X65.974 Y-71.714
X65.481 Y-71.717
X64.987 Y-71.747
X64.494 Y-71.804
X64.003 Y-71.888
X63.517 Y-71.999
X63.035 Y-72.136
X62.56 Y-72.3
X62.094 Y-72.49
X61.637 Y-72.705
X61.191 Y-72.946
X60.758 Y-73.21
X60.339 Y-73.499
X59.935 Y-73.811
X59.548 Y-74.145
X59.178 Y-74.5
X58.828 Y-74.876
X58.497 Y-75.271
X58.188 Y-75.684
X57.901 Y-76.115
X57.638 Y-76.561
X57.398 Y-77.021
X57.184 Y-77.495
X56.995 Y-77.98
X56.832 Y-78.476
X56.697 Y-78.981
X56.588 Y-79.493
X56.508 Y-80.011
X56.455 Y-80.533
X56.431 Y-81.058
X56.436 Y-81.584
X56.469 Y-82.11
X56.53 Y-82.633
X56.62 Y-83.154
X56.738 Y-83.669
X56.884 Y-84.177
X57.058 Y-84.678
X57.258 Y-85.168
X57.485 Y-85.647
X57.738 Y-86.114
X58.016 Y-86.567
X58.319 Y-87.004
X58.645 Y-87.425
X58.993 Y-87.827
X59.363 Y-88.21
X59.753 Y-88.573
X60.163 Y-88.915
X60.59 Y-89.233
X61.035 Y-89.529
X61.495 Y-89.8
X61.97 Y-90.045
X62.457 Y-90.265
X62.955 Y-90.458
X63.464 Y-90.624
X63.981 Y-90.762
X64.506 Y-90.872
X65.038 Y-90.954
X65.574 Y-91.006
X66.115 Y-91.03
X66.659 Y-91.025
X67.204 Y-90.989
X67.75 Y-90.924
X68.294 Y-90.829
X68.835 Y-90.704
X69.371 Y-90.549
X69.901 Y-90.365
X70.422 Y-90.151
X70.933 Y-89.908
X71.432 Y-89.636
X71.917 Y-89.337
X72.387 Y-89.011
X72.839 Y-88.659
X73.273 Y-88.282
X73.687 Y-87.882
X74.079 Y-87.458
X74.448 Y-87.014
X74.793 Y-86.549
X75.113 Y-86.066
X75.406 Y-85.566
X75.671 Y-85.051
X75.909 Y-84.522
X76.117 Y-83.98
X76.296 Y-83.428
X76.445 Y-82.868
X76.563 Y-82.299
X76.65 Y-81.726
X76.706 Y-81.148
X76.731 Y-80.568
X76.724 Y-79.987
X76.685 Y-79.408
X76.615 Y-78.831
X76.514 Y-78.258
X76.382 Y-77.692
X76.22 Y-77.133
X76.027 Y-76.583
X75.804 Y-76.044
X75.553 Y-75.517
X75.273 Y-75.004
X74.965 Y-74.507
X74.63 Y-74.026
X74.268 Y-73.563
X73.882 Y-73.12
X73.472 Y-72.698
X73.038 Y-72.297
X72.582 Y-71.92
X72.106 Y-71.568
X71.61 Y-71.241
X71.097 Y-70.941
X70.566 Y-70.669
X70.021 Y-70.425
X69.461 Y-70.211
X68.89 Y-70.027
X68.308 Y-69.874
X67.717 Y-69.752
X67.118 Y-69.662
X66.515 Y-69.605
X65.908 Y-69.58
X65.298 Y-69.589
X64.689 Y-69.63
X64.081 Y-69.705
X63.477 Y-69.813
X62.878 Y-69.953
X62.286 Y-70.127
X61.703 Y-70.332
X61.13 Y-70.57
X60.57 Y-70.839
X60.025 Y-71.138
X59.495 Y-71.467
X58.982 Y-71.826
X58.489 Y-72.212
X58.016 Y-72.626
X57.566 Y-73.065
X57.139 Y-73.529
X56.737 Y-74.016
X56.362 Y-74.525
X56.014 Y-75.055
X55.695 Y-75.604
X55.406 Y-76.17
X55.147 Y-76.752
X54.92 Y-77.348
X54.725 Y-77.956
X54.564 Y-78.575
X54.435 Y-79.202
X54.341 Y-79.836
X54.282 Y-80.476
X54.257 Y-81.118
X54.267 Y-81.761
X54.312 Y-82.404
X54.392 Y-83.044
X54.506 Y-83.679
X54.655 Y-84.307
X54.838 Y-84.928
X55.054 Y-85.537
X55.303 Y-86.135
X55.585 Y-86.719
X55.898 Y-87.287
X56.241 Y-87.838
X56.614 Y-88.369
X57.016 Y-88.88
X57.445 Y-89.369
X57.9 Y-89.834
X58.38 Y-90.274
X58.883 Y-90.687
X59.408 Y-91.073
X59.954 Y-91.43
X60.518 Y-91.757
X61.1 Y-92.053
X61.698 Y-92.317
X62.31 Y-92.549
X62.935 Y-92.748
X63.571 Y-92.913
X64.217 Y-93.044
X64.871 Y-93.14
X65.531 Y-93.2
X66.195 Y-93.225
X66.862 Y-93.213
X67.53 Y-93.165
X68.197 Y-93.081
X68.86 Y-92.96
X69.518 Y-92.803
X70.169 Y-92.61
X70.811 Y-92.381
X71.441 Y-92.117
X72.057 Y-91.819
X72.658 Y-91.486
X73.242 Y-91.121
X73.806 Y-90.723
X74.349 Y-90.295
X74.869 Y-89.837
X75.364 Y-89.35
X75.833 Y-88.837
X76.274 Y-88.298
X76.685 Y-87.736
X77.066 Y-87.152
X77.415 Y-86.547
X77.731 Y-85.924
X78.013 Y-85.284
X78.259 Y-84.629
X78.47 Y-83.962
X78.645 Y-83.284
X78.783 Y-82.597
X78.883 Y-81.903
X78.946 Y-81.205
X78.971 Y-80.504
X78.957 Y-79.802
X78.906 Y-79.102
X78.816 Y-78.404
X78.689 Y-77.713
X78.525 Y-77.029
X78.323 Y-76.354
X78.085 Y-75.69
X77.811 Y-75.04
X77.502 Y-74.405
X77.159 Y-73.786
X76.782 Y-73.187
X76.373 Y-72.608
X75.932 Y-72.052
X75.461 Y-71.519
X74.961 Y-71.012
X74.434 Y-70.532
X73.88 Y-70.08
X73.302 Y-69.659
X72.701 Y-69.269
X72.079 Y-68.911
X71.436 Y-68.587
X70.776 Y-68.298
X70.1 Y-68.044
X69.41 Y-67.827
X68.707 Y-67.647
X67.995 Y-67.506
X67.274 Y-67.403
X66.548 Y-67.339
X65.817 Y-67.315
X65.085 Y-67.33
X64.353 Y-67.385
X63.624 Y-67.48
X62.899 Y-67.614
X62.181 Y-67.788
X61.473 Y-68.001
X60.775 Y-68.253
X60.091 Y-68.542
X59.422 Y-68.869
X58.771 Y-69.232
X58.139 Y-69.631
X57.529 Y-70.064
X56.942 Y-70.531
X56.38 Y-71.029
X55.845 Y-71.559
X55.338 Y-72.117
X54.862 Y-72.703
X54.418 Y-73.315
X54.007 Y-73.951
X53.63 Y-74.609
X53.289 Y-75.288
X52.985 Y-75.985
X52.719 Y-76.698
X52.492 Y-77.426
X52.304 Y-78.166
X52.156 Y-78.916
X52.049 Y-79.674
X51.983 Y-80.437
X51.959 Y-81.203
X51.976 Y-81.971
X52.035 Y-82.737
X52.136 Y-83.499
X52.278 Y-84.256
X52.46 Y-85.004
X52.683 Y-85.742
X52.946 Y-86.467
X53.249 Y-87.178
X53.589 Y-87.871
X53.967 Y-88.546
X54.381 Y-89.199
X54.83 Y-89.83
X55.313 Y-90.435
X55.828 Y-91.014
X56.374 Y-91.564
X56.95 Y-92.084
X57.553 Y-92.573
X58.183 Y-93.028
X58.836 Y-93.449
X59.513 Y-93.835
X60.21 Y-94.183
X60.926 Y-94.494
X61.659 Y-94.766
X62.407 Y-94.998
X63.168 Y-95.19
X63.94 Y-95.341
X64.721 Y-95.449
X65.509 Y-95.516
X66.301 Y-95.539
X67.095 Y-95.52
X67.889 Y-95.458
X68.681 Y-95.352
X69.468 Y-95.203
X70.248 Y-95.011
X71.018 Y-94.777
X71.776 Y-94.5
X72.52 Y-94.182
X73.247 Y-93.824
X73.955 Y-93.426
X74.642 Y-92.989
X75.306 Y-92.514
X75.943 Y-92.004
X76.553 Y-91.459
X77.134 Y-90.88
X77.683 Y-90.271
X78.199 Y-89.631
X78.68 Y-88.964
X79.124 Y-88.272
X79.531 Y-87.555
X79.898 Y-86.817
X80.225 Y-86.06
X80.511 Y-85.285
X80.755 Y-84.496
X80.955 Y-83.694
X81.112 Y-82.882
X81.225 Y-82.062
X81.293 Y-81.236
X81.316 Y-80.408
X81.295 Y-79.579
X81.228 Y-78.752
X81.117 Y-77.93
X80.961 Y-77.114
X80.761 Y-76.307
X80.517 Y-75.511
X80.231 Y-74.729
X79.902 Y-73.963
X79.531 Y-73.215
X79.121 Y-72.488
X78.671 Y-71.783
X78.182 Y-71.103
X77.657 Y-70.449
X77.097 Y-69.824
X76.503 Y-69.23
X75.877 Y-68.668
X75.22 Y-68.14
X74.534 Y-67.648
X73.822 Y-67.192
X73.085 Y-66.776
X72.325 Y-66.399
X71.545 Y-66.064
X70.746 Y-65.771
X69.932 Y-65.521
X69.103 Y-65.315
X68.263 Y-65.154
X67.414 Y-65.039
X66.559 Y-64.97
X65.699 Y-64.947
X64.839 Y-64.971
X63.979 Y-65.042
X63.122 Y-65.159
X62.272 Y-65.323
X61.431 Y-65.534
X60.601 Y-65.789
X59.784 Y-66.09
X58.983 Y-66.436
X58.202 Y-66.825
X57.441 Y-67.256
X56.703 Y-67.729
X55.991 Y-68.242
X55.307 Y-68.794
X54.653 Y-69.383
X54.03 Y-70.007
X53.442 Y-70.665
X52.889 Y-71.355
X52.374 Y-72.075
X51.898 Y-72.823
X51.462 Y-73.596
X51.069 Y-74.393
X50.719 Y-75.211
X50.414 Y-76.048
X50.154 Y-76.901
X49.94 Y-77.768
X49.774 Y-78.646
X49.655 Y-79.533
X49.584 Y-80.426
X49.562 Y-81.322
X49.589 Y-82.218
X49.664 Y-83.113
X49.788 Y-84.003
X49.959 Y-84.886
X50.179 Y-85.759
X50.446 Y-86.619
X50.759 Y-87.464
X51.118 Y-88.292
X51.521 Y-89.099
X51.968 Y-89.884
X52.457 Y-90.643
X52.987 Y-91.376
X53.556 Y-92.079
X54.162 Y-92.751
X54.805 Y-93.389
X55.482 Y-93.993
X56.191 Y-94.558
X56.93 Y-95.086
X57.698 Y-95.572
X58.492 Y-96.017
X59.31 Y-96.419
X60.15 Y-96.777
X61.009 Y-97.089
X61.885 Y-97.354
X62.776 Y-97.572
X63.679 Y-97.741
X64.592 Y-97.862
X65.512 Y-97.933
X66.436 Y-97.954
X67.362 Y-97.925
X68.287 Y-97.846
X69.208 Y-97.716
X70.123 Y-97.536
X71.029 Y-97.307
X71.923 Y-97.028
X72.802 Y-96.7
X73.664 Y-96.325
X74.505 Y-95.903
X75.324 Y-95.434
X76.118 Y-94.922
X76.884 Y-94.366
X77.619 Y-93.768
X78.323 Y-93.131
X78.991 Y-92.456
X79.623 Y-91.744
X80.216 Y-90.999
X80.768 Y-90.222
X81.277 Y-89.415
X81.743 Y-88.581
X82.163 Y-87.722
X82.536 Y-86.842
X82.861 Y-85.941
X83.137 Y-85.024
X83.363 Y-84.093
X83.538 Y-83.15
X83.662 Y-82.198
X83.734 Y-81.241
X83.755 Y-80.28
X83.723 Y-79.32
X83.639 Y-78.361
X83.503 Y-77.408
X83.316 Y-76.463
X83.077 Y-75.529
X82.788 Y-74.609
X82.45 Y-73.704
X82.062 Y-72.819
X81.627 Y-71.955
X81.144 Y-71.116
X80.617 Y-70.302
X80.046 Y-69.518
X79.432 Y-68.765
X78.778 Y-68.046
X78.085 Y-67.362
X77.355 Y-66.716
X76.59 Y-66.11
X75.792 Y-65.546
X74.964 Y-65.025
X74.108 Y-64.549
X73.226 Y-64.119
X72.32 Y-63.737
X71.394 Y-63.405
X70.45 Y-63.123
X69.49 Y-62.891
X68.518 Y-62.713
X67.536 Y-62.586
X66.547 Y-62.513
X65.555 Y-62.494
X64.561 Y-62.529
X63.568 Y-62.617
X62.581 Y-62.76
X61.601 Y-62.956
X60.632 Y-63.205
X59.676 Y-63.507
X58.737 Y-63.861
X57.817 Y-64.266
X56.919 Y-64.721
X56.045 Y-65.224
X55.199 Y-65.775
X54.383 Y-66.372
X53.599 Y-67.013
X52.85 Y-67.696
X52.139 Y-68.42
X51.467 Y-69.182
X50.836 Y-69.981
X50.249 Y-70.814
X49.707 Y-71.678
X49.212 Y-72.572
X48.766 Y-73.492
X48.37 Y-74.436
X48.026 Y-75.401
X47.734 Y-76.384
X47.495 Y-77.382
X47.311 Y-78.393
X47.182 Y-79.413
X47.108 Y-80.44
X47.09 Y-81.47
X47.127 Y-82.501
X47.221 Y-83.528
X47.37 Y-84.55
X47.575 Y-85.563
X47.834 Y-86.564
X48.148 Y-87.55
X48.514 Y-88.518
X48.933 Y-89.466
X49.403 Y-90.39
X49.922 Y-91.287
X50.49 Y-92.156
X51.105 Y-92.993
X51.764 Y-93.797
X52.466 Y-94.563
X53.21 Y-95.291
X53.992 Y-95.979
X54.811 Y-96.623
X55.665 Y-97.223
X56.551 Y-97.776
X57.467 Y-98.281
X58.409 Y-98.736
X59.377 Y-99.14
X60.366 Y-99.491
X61.374 Y-99.789
X62.399 Y-100.031
X63.437 Y-100.219
X64.485 Y-100.35
X65.541 Y-100.424
X66.601 Y-100.441
X67.662 Y-100.4
X68.722 Y-100.302
X69.776 Y-100.146
X70.822 Y-99.932
X71.857 Y-99.662
X72.878 Y-99.336
X73.881 Y-98.954
X74.864 Y-98.518
X75.823 Y-98.028
X76.755 Y-97.486
X77.658 Y-96.894
X78.529 Y-96.252
X79.364 Y-95.564
X80.162 Y-94.83
X80.92 Y-94.054
X81.636 Y-93.236
X82.307 Y-92.38
X82.931 Y-91.489
X83.506 Y-90.564
X84.031 Y-89.608
X84.503 Y-88.624
X84.922 Y-87.616
X85.286 Y-86.586
X85.594 Y-85.537
X85.844 Y-84.472
X86.037 Y-83.394
X86.171 Y-82.307
X86.245 Y-81.213
X86.261 Y-80.117
X86.217 Y-79.02
X86.113 Y-77.927
X85.951 Y-76.84
X85.729 Y-75.763
X85.45 Y-74.699
X85.112 Y-73.65
X84.718 Y-72.621
X84.269 Y-71.614
X83.765 Y-70.632
X83.208 Y-69.677
X82.6 Y-68.754
X81.942 Y-67.864
X81.236 Y-67.01
X80.484 Y-66.194
X79.688 Y-65.42
X78.85 Y-64.69
X77.973 Y-64.005
X77.059 Y-63.367
X76.111 Y-62.78
X75.131 Y-62.244
X74.122 Y-61.762
X73.088 Y-61.334
X72.03 Y-60.963
X70.952 Y-60.649
X69.858 Y-60.393
X68.749 Y-60.197
X67.63 Y-60.061
X66.504 Y-59.986
X65.374 Y-59.972
X64.243 Y-60.02
X63.115 Y-60.129
X61.993 Y-60.299
X60.88 Y-60.529
X59.78 Y-60.821
X58.696 Y-61.172
X57.631 Y-61.581
X56.589 Y-62.049
X55.572 Y-62.573
X54.583 Y-63.152
X53.627 Y-63.784
X52.704 Y-64.468
X51.82 Y-65.203
X50.975 Y-65.985
X50.173 Y-66.812
X49.416 Y-67.683
X48.706 Y-68.595
X48.047 Y-69.544
X47.439 Y-70.529
X46.885 Y-71.547
X46.386 Y-72.594
X45.945 Y-73.668
X45.561 Y-74.765
X45.238 Y-75.883
X44.976 Y-77.017
X44.775 Y-78.165
X44.636 Y-79.322
X44.561 Y-80.487
X44.548 Y-81.655
X44.599 Y-82.823
X44.714 Y-83.987
X44.891 Y-85.143
X45.131 Y-86.29
X45.433 Y-87.422
X45.796 Y-88.537
X46.219 Y-89.631
X46.701 Y-90.702
X47.241 Y-91.745
X47.837 Y-92.758
X48.487 Y-93.738
X49.19 Y-94.682
X49.943 Y-95.587
X50.745 Y-96.45
X51.594 Y-97.269
X52.486 Y-98.042
X53.419 Y-98.766
X54.392 Y-99.438
X55.4 Y-100.058
X56.441 Y-100.623
X57.513 Y-101.131
X58.612 Y-101.581
X59.736 Y-101.971
X60.88 Y-102.3
X62.042 Y-102.566
X63.219 Y-102.77
X64.406 Y-102.91
X65.601 Y-102.986
X66.801 Y-102.996
X68.001 Y-102.942
X69.198 Y-102.822
X70.389 Y-102.637
X71.57 Y-102.388
X72.737 Y-102.075
X73.887 Y-101.698
X75.017 Y-101.259
X76.123 Y-100.758
X77.202 Y-100.198
X78.25 Y-99.579
X79.264 Y-98.903
X80.241 Y-98.172
X81.179 Y-97.389
X82.073 Y-96.555
X82.922 Y-95.673
X83.722 Y-94.746
X84.472 Y-93.775
X85.169 Y-92.765
X85.81 Y-91.717
X86.394 Y-90.635
X86.919 Y-89.523
X87.383 Y-88.383
X87.785 Y-87.218
X88.124 Y-86.033
X88.398 Y-84.83
X88.606 Y-83.614
X88.749 Y-82.387
X88.824 Y-81.154
X88.833 Y-79.918
X88.775 Y-78.682
X88.649 Y-77.45
X88.457 Y-76.227
X88.199 Y-75.014
X87.875 Y-73.817
X87.487 Y-72.638
X87.035 Y-71.481
X86.52 Y-70.35
X85.945 Y-69.247
X85.31 Y-68.176
X84.617 Y-67.14
X83.869 Y-66.143
X83.067 Y-65.186
X82.213 Y-64.274
X81.311 Y-63.408
X80.362 Y-62.592
X79.369 Y-61.828
X78.335 Y-61.118
X77.262 Y-60.464
X76.155 Y-59.869
X75.016 Y-59.334
X73.848 Y-58.861
X72.655 Y-58.451
X71.44 Y-58.106
X70.207 Y-57.828
X68.959 Y-57.616
X67.7 Y-57.472
X66.433 Y-57.397
X65.162 Y-57.39
X63.891 Y-57.452
X62.624 Y-57.583
X61.365 Y-57.783
X60.116 Y-58.051
X58.883 Y-58.387
X57.668 Y-58.79
X56.475 Y-59.258
X55.308 Y-59.792
X54.17 Y-60.388
X53.065 Y-61.046
X51.996 Y-61.763
X50.967 Y-62.539
X49.979 Y-63.37
X49.038 Y-64.254
X48.145 Y-65.188
X47.304 Y-66.169
X46.518 Y-67.194
X45.788 Y-68.26
X45.117 Y-69.364
X44.506 Y-70.503
X43.957 Y-71.673
X43.473 Y-72.87
X43.053 Y-74.092
X42.7 Y-75.335
X42.414 Y-76.595
X42.195 Y-77.869
X42.046 Y-79.152
X41.966 Y-80.442
X41.954 Y-81.734
X42.012 Y-83.024
X42.139 Y-84.31
X42.334 Y-85.587
X42.597 Y-86.852
X42.927 Y-88.101
X43.324 Y-89.331
X43.785 Y-90.538
X44.311 Y-91.719
X44.898 Y-92.869
X45.545 Y-93.987
X46.251 Y-95.069
X47.014 Y-96.112
X47.831 Y-97.113
X48.7 Y-98.07
X49.619 Y-98.978
X50.584 Y-99.837
X51.593 Y-100.644
X52.644 Y-101.396
X53.733 Y-102.091
X54.857 Y-102.728
X56.013 Y-103.304
X57.198 Y-103.819
X58.409 Y-104.271
X59.641 Y-104.659
X60.893 Y-104.981
X62.159 Y-105.238
X63.437 Y-105.427
X64.723 Y-105.55
X66.014 Y-105.604
X67.306 Y-105.591
X68.596 Y-105.51
X69.879 Y-105.362
X71.153 Y-105.147
X72.414 Y-104.866
X73.659 Y-104.52
X74.884 Y-104.11
X76.087 Y-103.637
X77.263 Y-103.102
X78.41 Y-102.508
X79.525 Y-101.855
X80.605 Y-101.146
X81.647 Y-100.382
X82.649 Y-99.566
X83.608 Y-98.699
X84.521 Y-97.785
X85.386 Y-96.825
X86.201 Y-95.823
X86.963 Y-94.78
X87.671 Y-93.699
X88.323 Y-92.583
X88.916 Y-91.435
X89.449 Y-90.258
X89.921 Y-89.056
X90.331 Y-87.83
X90.679 Y-86.586
X90.962 Y-85.325
X91.181 Y-84.052
X91.335 Y-82.769
X91.424 Y-81.48
X91.448 Y-80.188
X91.406 Y-78.897
X91.299 Y-77.609
X91.128 Y-76.329
X90.891 Y-75.058
X90.591 Y-73.802
X90.226 Y-72.562
X89.799 Y-71.343
X89.31 Y-70.147
X88.761 Y-68.977
X88.153 Y-67.837
X87.489 Y-66.729
X86.769 Y-65.656
X85.997 Y-64.62
X85.174 Y-63.624
X84.302 Y-62.671
X83.383 Y-61.762
X82.42 Y-60.901
X81.415 Y-60.089
X80.371 Y-59.328
X79.289 Y-58.621
X78.173 Y-57.97
X77.026 Y-57.376
X75.85 Y-56.841
X74.649 Y-56.365
X73.425 Y-55.949
X72.183 Y-55.594
X70.924 Y-55.302
X69.653 Y-55.072
X68.372 Y-54.905
X67.82 Y-54.861
X67.732 Y-54.855
X67.644 Y-54.851
X67.555 Y-54.85
X65.686
X64.396 Y-54.915
X63.166 Y-54.974
X61.894 Y-55.105
X60.618 Y-55.307
X59.354 Y-55.576
X58.106 Y-55.911
X56.877 Y-56.309
X55.67 Y-56.769
X54.487 Y-57.288
X53.331 Y-57.865
X52.204 Y-58.499
X51.111 Y-59.188
X50.054 Y-59.931
X49.035 Y-60.725
X48.057 Y-61.569
X47.121 Y-62.459
X46.229 Y-63.394
X45.384 Y-64.372
X44.587 Y-65.389
X43.84 Y-66.443
X43.145 Y-67.532
X42.504 Y-68.654
X41.919 Y-69.806
X41.392 Y-70.985
X40.922 Y-72.189
X40.512 Y-73.414
X40.474 Y-73.548
X40.405 Y-73.842
X40.364 Y-74.142
X40.35 Y-74.444
Y-85.317
X40.411 Y-86.533
X40.502 Y-87.402
X40.651 Y-88.333
X40.858 Y-89.291
X41.141 Y-90.329
X41.505 Y-91.424
X41.951 Y-92.554
X42.476 Y-93.701
X42.57 Y-93.879
X42.739 Y-94.164
X42.935 Y-94.431
X43.158 Y-94.677
G3 X45.245 Y-93.399 I0.866 J0.929
G1 X42.84 Y-85.012
G3 X40.464 Y-84.835 I-1.221 J-0.35
X40.35 Y-85.317 I1.156 J-0.527
G1 Y-91.031
X40.352 Y-91.411
X40.377 Y-91.602
X40.432 Y-91.792
X40.482 Y-91.906
X40.546 Y-92.02
X40.658 Y-92.173
X40.926 Y-92.446
X50.937 Y-102.457
X51.895 Y-103.324
X52.395 Y-103.733
X53.08 Y-104.248
X53.882 Y-104.786
X54.789 Y-105.326
X55.759 Y-105.834
X56.806 Y-106.312
X57.945 Y-106.759
X59.161 Y-107.162
X60.408 Y-107.501
X61.671 Y-107.774
X62.946 Y-107.983
X64.23 Y-108.127
X65.519 Y-108.208
X66.811 Y-108.227
X68.102 Y-108.182
X69.39 Y-108.075
X70.671 Y-107.906
X71.942 Y-107.675
X73.201 Y-107.385
X74.445 Y-107.035
X75.671 Y-106.628
X76.877 Y-106.164
X78.06 Y-105.644
X79.218 Y-105.071
X80.348 Y-104.444
X81.447 Y-103.765
X82.513 Y-103.034
X83.543 Y-102.255
X84.536 Y-101.428
X85.489 Y-100.556
X86.401 Y-99.641
X87.271 Y-98.685
X88.095 Y-97.69
X88.872 Y-96.658
X89.601 Y-95.591
X90.28 Y-94.491
X90.906 Y-93.361
X91.478 Y-92.203
X91.874 Y-91.298
X92.026 Y-90.872
X92.119 Y-90.428
X92.15 Y-89.976
Y-73.891
X92.093 Y-72.748
X92.022 Y-72.072
X91.91 Y-71.374
X91.737 Y-70.569
X91.502 Y-69.712
X91.203 Y-68.811
X90.816 Y-67.831
X90.341 Y-66.794
X89.777 Y-65.72
X89.129 Y-64.633
X88.407 Y-63.562
X87.63 Y-62.529
X86.801 Y-61.539
X85.923 Y-60.59
X85.001 Y-59.685
X84.037 Y-58.825
X83.033 Y-58.011
X81.993 Y-57.245
X80.918 Y-56.528
X79.812 Y-55.861
X78.676 Y-55.245
X78.544 Y-55.181
X78.082 Y-54.998
X77.599 Y-54.887
X77.104 Y-54.85
X67.555
X67.543 Y-54.851
G2 X67.126 Y-54.914 I-0.922 J4.745
X67.062 Y-54.919 I-0.133 J1.263
X66.993 Y-54.921 I-0.068 J1.268
G1 X66.248
G2 X66.18 Y-54.919 J1.27
X66.116 Y-54.914 I0.068 J1.268
X65.698 Y-54.851 I0.505 J4.807
G1 X65.686 Y-54.85
X56.925
X56.36 Y-54.878
X56.21 Y-54.887
X56.061 Y-54.897
X55.911 Y-54.91
X55.762 Y-54.925
X55.613 Y-54.943
X55.464 Y-54.962
X55.316 Y-54.984
X55.168 Y-55.008
X55.02 Y-55.034
X54.873 Y-55.061
X54.726 Y-55.09
X54.579 Y-55.121
X54.432 Y-55.154
X54.287 Y-55.189
X54.141 Y-55.225
X53.996 Y-55.263
X53.851 Y-55.303
X53.707 Y-55.343
X53.563 Y-55.386
X53.42 Y-55.43
X53.277 Y-55.475
X53.134 Y-55.522
X52.992 Y-55.571
X52.851 Y-55.62
X52.71 Y-55.671
X52.569 Y-55.724
X52.429 Y-55.777
X52.289 Y-55.832
X52.15 Y-55.888
X52.011 Y-55.945
X51.873 Y-56.004
X51.736 Y-56.063
X51.598 Y-56.124
X51.462 Y-56.186
X51.326 Y-56.249
X51.19 Y-56.313
X51.055 Y-56.378
X50.92 Y-56.444
X50.786 Y-56.512
X50.653 Y-56.58
X50.52 Y-56.649
X50.387 Y-56.72
X50.255 Y-56.791
X50.124 Y-56.863
X49.993 Y-56.936
X49.863 Y-57.011
X49.733 Y-57.086
X49.603 Y-57.162
X49.475 Y-57.239
X49.219 Y-57.395
X48.965 Y-57.555
X48.839 Y-57.637
X48.713 Y-57.719
X48.588 Y-57.802
X48.464 Y-57.886
X48.217 Y-58.056
X47.972 Y-58.229
X47.729 Y-58.405
X47.609 Y-58.494
X47.369 Y-58.675
X47.132 Y-58.859
X46.898 Y-59.046
X46.665 Y-59.235
X46.435 Y-59.428
X46.207 Y-59.623
X45.981 Y-59.82
X45.758 Y-60.021
X45.537 Y-60.223
X45.318 Y-60.429
X45.102 Y-60.637
X44.888 Y-60.847
X44.676 Y-61.06
X44.467 Y-61.275
X44.26 Y-61.492
X44.056 Y-61.712
X43.854 Y-61.934
X43.654 Y-62.158
X43.457 Y-62.384
X43.263 Y-62.613
X43.071 Y-62.844
X42.88 Y-63.078
X42.693 Y-63.312
X42.509 Y-63.549
X42.327 Y-63.787
X42.148 Y-64.028
X41.968 Y-64.275
X41.793 Y-64.519
X41.622 Y-64.765
X41.453 Y-65.013
X41.287 Y-65.264
X41.12 Y-65.52
X40.959 Y-65.773
X40.84 Y-65.965
X40.629 Y-66.368
X40.475 Y-66.796
X40.381 Y-67.241
X40.35 Y-67.695
Y-74.444
G3 X40.464 Y-74.926 I1.269 J0.044
X42.594 Y-75.214 I1.156 J0.527
G1 X57.856 Y-56.933
G3 X56.925 Y-54.85 I-0.975 J0.814
G1 X51.973
X51.413 Y-54.878
X51.003 Y-54.921
X50.55 Y-54.993
X50.234 Y-55.061
X49.914 Y-55.104
X49.592 Y-55.12
X49.269 Y-55.111
X47.985 Y-54.969
X47.696 Y-54.903
X47.403 Y-54.863
X47.108 Y-54.85
G3 X47.197 Y-57.388 I0.044 J-1.269
X52.025 Y-55.216 I-0.244 J6.996
X52.095 Y-55.142 I-5.073 J4.823
X51.973 Y-54.85 I-0.128 J0.118
G1 X44.736
X44.3 Y-54.847
X43.974 Y-54.843
X43.962 Y-54.844
G2 X43.764 Y-54.871 I-0.41 J2.254
X43.498 Y-54.868 I-0.118 J1.265
G1 X43.478 Y-54.866
X43.099 Y-54.821
X43.076 Y-54.819
G2 X42.817 Y-54.76 I0.148 J1.261
X42.631 Y-54.688 I0.734 J2.17
G1 X42.622 Y-54.685
X42.069 Y-54.543
X41.826 Y-54.466
X41.688 Y-54.414
X41.307 Y-54.278
X41.117 Y-54.251
X40.926 Y-54.252
X40.736 Y-54.283
X40.546 Y-54.344
X40.432 Y-54.398
X40.319 Y-54.466
X40.165 Y-54.589
X40.045 Y-54.718
X39.953 Y-54.847
X39.852 Y-55.037
X39.788 Y-55.228
X39.784 Y-55.245
X39.755 Y-55.427
X39.752 Y-55.609
X39.784 Y-55.827
X39.834 Y-55.989
X39.982 Y-56.37
X40.091 Y-56.751
X40.186 Y-57.132
X40.262 Y-57.513
X40.306 Y-57.894
X40.342 Y-58.275
X40.349 Y-59.037
X40.35 Y-60.941
Y-67.695
G3 X40.403 Y-68.018 I1.269 J0.044
G1 X40.453 Y-68.181
X50.65 Y-101.958
G3 X50.676 Y-102.036 I1.216 J0.367
X50.937 Y-102.457 I1.19 J0.445
G1 X55.401 Y-106.921
X55.98 Y-107.444
X56.368 Y-107.759
X56.79 Y-108.065
X57.308 Y-108.399
X57.871 Y-108.72
X58.554 Y-109.062
X59.283 Y-109.379
X60.125 Y-109.692
X61.083 Y-109.99
X62.128 Y-110.254
X63.24 Y-110.471
X64.45 Y-110.64
X65.738 Y-110.749
X67.029 Y-110.789
X68.321 Y-110.763
X69.61 Y-110.674
X70.893 Y-110.524
X72.168 Y-110.315
X73.433 Y-110.049
X74.684 Y-109.728
X75.92 Y-109.352
X77.139 Y-108.922
X78.337 Y-108.44
X79.514 Y-107.906
X80.666 Y-107.321
X81.792 Y-106.687
X82.89 Y-106.006
X83.957 Y-105.278
X84.993 Y-104.506
X85.996 Y-103.691
X86.963 Y-102.834
X87.893 Y-101.937
X88.785 Y-101.002
X89.636 Y-100.03
X90.445 Y-99.023
X91.21 Y-97.982
X91.591 Y-97.414
X91.831 Y-96.991
X92.007 Y-96.537
X92.114 Y-96.062
X92.15 Y-95.576
Y-89.976
G3 X92.036 Y-89.494 I-1.269 J-0.044
X90.346 Y-88.868 I-1.156 J-0.527
G1 X55.796 Y-104.903
G3 X55.401 Y-106.921 I0.535 J-1.152
G1 X58.706 Y-110.226
X59.04 Y-110.528
X59.34 Y-110.771
X59.695 Y-111.028
X60.089 Y-111.282
X60.566 Y-111.555
X61.078 Y-111.811
X61.229 Y-111.876
X61.654 Y-112.027
X62.095 Y-112.119
X62.545 Y-112.15
G3 X63.096 Y-109.759 I-0.044 J1.269
G1 X60.23 Y-108.238
G3 X58.706 Y-110.226 I-0.595 J-1.122
G1 X60.078 Y-111.598
X60.353 Y-111.863
X60.524 Y-111.979
X60.734 Y-112.076
X60.925 Y-112.128
X61.115 Y-112.149
X61.877 Y-112.15
X72.162
X73.452 Y-112.085
X74.096 Y-112.03
X75.034 Y-111.91
X76.034 Y-111.726
X77.12 Y-111.465
X78.299 Y-111.113
X79.515 Y-110.677
X80.707 Y-110.177
X81.873 Y-109.621
X83.012 Y-109.011
X84.123 Y-108.352
X85.205 Y-107.645
X86.257 Y-106.895
X87.278 Y-106.102
X88.265 Y-105.27
X89.219 Y-104.398
X90.137 Y-103.489
X91.018 Y-102.544
X91.357 Y-102.147
X91.635 Y-101.772
X91.857 Y-101.361
X92.019 Y-100.923
X92.117 Y-100.467
X92.15 Y-100.001
Y-95.576
G3 X92.036 Y-95.094 I-1.269 J-0.044
X90.077 Y-94.637 I-1.156 J-0.527
G1 X71.403 Y-109.897
G3 X71.68 Y-112.036 I0.804 J-0.983
X72.162 Y-112.15 I0.527 J1.156
G1 X79.018
X79.786 Y-112.112
X80.33 Y-112.055
X80.901 Y-111.963
X81.571 Y-111.819
X82.295 Y-111.621
X83.097 Y-111.354
X83.997 Y-110.999
X84.979 Y-110.549
X86.024 Y-110
X87.133 Y-109.338
X88.205 Y-108.617
X89.24 Y-107.844
X90.239 Y-107.024
X91.007 Y-106.33
X91.193 Y-106.142
X91.475 Y-105.818
X91.712 Y-105.46
X91.901 Y-105.075
X92.039 Y-104.668
X92.122 Y-104.247
X92.15 Y-103.818
Y-100.001
G3 X92.036 Y-99.519 I-1.269 J-0.044
X90.023 Y-99.11 I-1.156 J-0.527
G1 X78.205 Y-109.945
G3 X78.536 Y-112.036 I0.858 J-0.936
X79.018 Y-112.15 I0.527 J1.156
G1 X83.97
X84.501 Y-112.123
X84.929 Y-112.079
X85.391 Y-112.005
X85.928 Y-111.889
X86.49 Y-111.735
X87.136 Y-111.52
X87.831 Y-111.246
X88.578 Y-110.904
X89.362 Y-110.492
X90.021 Y-110.099
X90.549 Y-109.743
X90.838 Y-109.526
X91.167 Y-109.241
X91.457 Y-108.915
X91.7 Y-108.555
X91.894 Y-108.165
X92.036 Y-107.753
X92.121 Y-107.326
X92.15 Y-106.892
Y-103.818
G3 X89.973 Y-102.975 I-1.269 J-0.044
G1 X83.107 Y-109.993
G3 X83.488 Y-112.036 I0.908 J-0.888
X83.97 Y-112.15 I0.527 J1.156
G1 X88.161
X88.539 Y-112.131
X88.86 Y-112.097
X89.182 Y-112.046
X89.519 Y-111.973
X89.82 Y-111.891
X90.133 Y-111.787
X90.416 Y-111.675
X90.788 Y-111.472
X91.126 Y-111.218
X91.426 Y-110.918
X91.679 Y-110.579
X91.882 Y-110.207
X92.03 Y-109.81
X92.12 Y-109.396
X92.15 Y-108.974
G3 X92.036 Y-108.491 I-1.269 J-0.044
X90.155 Y-107.976 I-1.156 J-0.527
G1 X87.479 Y-109.838
G3 X87.678 Y-112.036 I0.726 J-1.042
X88.161 Y-112.15 I0.527 J1.156
G1 X90.446
X90.65 Y-112.14
X90.992 Y-112.067
X91.312 Y-111.925
X91.596 Y-111.719
X91.83 Y-111.459
X92.005 Y-111.156
X92.113 Y-110.823
X92.15 Y-110.475
G3 X92.059 Y-109.986 I-1.668 J-0.058
X91.672 Y-109.363 I-1.577 J-0.547
X89.272 Y-111.594 I-1.169 J-1.149
X89.958 Y-112.058 I1.231 J1.082
X90.446 Y-112.15 I0.545 J1.546
G1 X90.827
X91.017 Y-112.141
X91.208 Y-112.104
X91.357 Y-112.053
X91.506 Y-111.979
X91.589 Y-111.926
X91.686 Y-111.853
X91.783 Y-111.762
X91.917 Y-111.598
X91.97 Y-111.514
X92.046 Y-111.366
X92.099 Y-111.217
X92.139 Y-111.027
X92.15 Y-110.836
Y-106.892
X92.149 Y-106.879
G2 X92.057 Y-106.402 I84.824 J16.488
X91.034 Y-99.424 I84.916 J16.01
X91.027 Y-99.291 I1.263 J0.133
G1 Y-81.492
G2 X91.034 Y-81.359 I1.27
X92.057 Y-74.381 I85.938 J-9.032
X92.149 Y-73.903 I84.916 J-16.01
G1 X92.15 Y-73.891
Y-68.178
X92.122 Y-67.614
X92.073 Y-67.15
X91.998 Y-66.677
X91.877 Y-66.118
X91.719 Y-65.539
X91.495 Y-64.868
X91.227 Y-64.188
X90.875 Y-63.418
X90.441 Y-62.594
X89.939 Y-61.753
X89.332 Y-60.849
X88.619 Y-59.905
X87.801 Y-58.936
X86.916 Y-57.995
X85.983 Y-57.101
X85.007 Y-56.254
X84.126 Y-55.559
X83.763 Y-55.31
X83.37 Y-55.111
X82.954 Y-54.967
X82.522 Y-54.879
X82.083 Y-54.85
X77.104
G3 X76.622 Y-54.964 I0.044 J-1.269
X76.312 Y-57.075 I0.527 J-1.156
G1 X90.045 Y-69.089
G3 X92.036 Y-68.66 I0.836 J0.956
X92.15 Y-68.178 I-1.156 J0.527
G1 Y-63.988
X92.123 Y-63.455
X92.083 Y-63.072
X92.021 Y-62.681
X91.922 Y-62.224
X91.79 Y-61.742
X91.61 Y-61.199
X91.383 Y-60.624
X91.088 Y-59.981
X90.743 Y-59.324
X90.303 Y-58.586
X89.785 Y-57.817
X89.184 Y-57.021
X88.526 Y-56.24
X88.195 Y-55.889
X87.866 Y-55.584
X87.499 Y-55.326
X87.101 Y-55.121
X86.678 Y-54.971
X86.239 Y-54.88
X85.792 Y-54.85
X82.083
G3 X81.6 Y-54.964 I0.044 J-1.269
X81.28 Y-57.066 I0.527 J-1.156
G1 X90.034 Y-64.891
G3 X92.036 Y-64.47 I0.846 J0.947
X92.15 Y-63.988 I-1.156 J0.527
G1 Y-60.179
X92.135 Y-59.816
X92.105 Y-59.502
X92.048 Y-59.131
X91.969 Y-58.748
X91.852 Y-58.308
X91.706 Y-57.855
X91.532 Y-57.404
X91.334 Y-56.961
X91.141 Y-56.587
X90.922 Y-56.214
X90.629 Y-55.836
X90.282 Y-55.507
X89.888 Y-55.234
X89.459 Y-55.024
X89.002 Y-54.881
X88.529 Y-54.81
X88.05 Y-54.811
X87.583 Y-54.847
X87.399 Y-54.849
X85.792 Y-54.85
G3 X85.046 Y-57.114 I0.044 J-1.269
G1 X90.092 Y-61.119
G3 X92.033 Y-60.661 I0.79 J0.995
X92.15 Y-60.179 I-1.151 J0.536
G1 X92.153 Y-59.798
X92.157 Y-59.417
X92.176 Y-59.037
X92.222 Y-58.656
X92.277 Y-58.275
X92.317 Y-58.115
X92.354 Y-57.935
X92.38 Y-57.756
X92.395 Y-57.588
X92.401 Y-57.406
X92.398 Y-57.21
X92.385 Y-57.029
X92.361 Y-56.841
X92.323 Y-56.636
X92.278 Y-56.45
X92.222 Y-56.26
X92.149 Y-56.055
X92.071 Y-55.87
X91.981 Y-55.685
X91.872 Y-55.488
X91.859 Y-55.467
X91.64 Y-55.176
X91.374 Y-54.925
X91.071 Y-54.723
X90.737 Y-54.574
X90.384 Y-54.484
X90.02 Y-54.455
X89.656 Y-54.487
X89.303 Y-54.579
X88.922 Y-54.673
X88.541 Y-54.753
X88.161 Y-54.802
X88.05 Y-54.811
G3 X87.555 Y-57.171 I0.143 J-1.262
G1 X90.46 Y-58.858
G3 X92.317 Y-58.115 I0.638 J1.098
G1 X92.472 Y-57.513
X92.616 Y-57.132
X92.732 Y-56.849
X92.787 Y-56.71
X92.825 Y-56.565
X92.851 Y-56.417
X92.867 Y-56.268
X92.873 Y-56.118
X92.869 Y-55.968
X92.856 Y-55.819
X92.834 Y-55.671
X92.828 Y-55.645
X92.723 Y-55.308
X92.558 Y-54.996
X92.34 Y-54.719
X92.075 Y-54.485
X91.773 Y-54.303
X91.443 Y-54.178
X91.095 Y-54.115
X90.742 Y-54.116
X90.395 Y-54.18
X90.065 Y-54.306
X89.623 Y-54.466
X89.303 Y-54.579
G3 X88.429 Y-55.932 I0.509 J-1.288
X92.732 Y-56.849 I2.272 J0.106
G1 X92.777 Y-56.751
X93.112 Y-56.175
X93.181 Y-56.042
X93.238 Y-55.903
X93.28 Y-55.759
X93.306 Y-55.611
X93.319 Y-55.461
X93.279 Y-55.1
X93.166 Y-54.755
X92.982 Y-54.441
X92.737 Y-54.173
X92.442 Y-53.962
X92.108 Y-53.816
X91.752 Y-53.744
X91.389 Y-53.748
X91.034 Y-53.827
X90.704 Y-53.979
G3 X90.34 Y-54.316 I0.761 J-1.186
X90.21 Y-54.523 I1.125 J-0.848
X93.112 Y-56.175 I1.488 J-0.76
G1 X93.22 Y-55.989
X93.483 Y-55.609
X93.569 Y-55.485
X93.633 Y-55.35
X93.678 Y-55.207
X93.707 Y-55.06
X93.72 Y-54.91
X93.718 Y-54.76
X93.648 Y-54.433
X93.511 Y-54.128
X93.314 Y-53.857
X93.064 Y-53.634
X92.774 Y-53.468
X92.455 Y-53.366
X92.122 Y-53.333
X91.789 Y-53.369
X91.472 Y-53.475
X91.183 Y-53.644
G3 X90.976 Y-53.898 I0.473 J-0.597
X90.908 Y-54.052 I1.367 J-0.689
X93.483 Y-55.609 I1.434 J-0.535
G1 X93.847 Y-55.189
X93.94 Y-55.071
X94.016 Y-54.942
X94.072 Y-54.803
X94.109 Y-54.658
X94.131 Y-54.509
X94.136 Y-54.359
X94.127 Y-54.21
X94.104 Y-54.061
X94.1 Y-54.048
X93.992 Y-53.757
X93.827 Y-53.494
X93.611 Y-53.27
X93.354 Y-53.096
X93.066 Y-52.978
X92.76 Y-52.923
X92.449 Y-52.931
X92.147 Y-53.003
X91.866 Y-53.136
X91.618 Y-53.323
X91.183 Y-53.644
G3 X90.916 Y-54.406 I0.469 J-0.592
X93.847 Y-55.189 I1.674 J0.388
G1 X93.874 Y-55.158
X94.188 Y-54.847
X94.225 Y-54.811
X94.328 Y-54.702
X94.416 Y-54.581
X94.483 Y-54.447
X94.532 Y-54.305
X94.564 Y-54.158
X94.56 Y-53.826
X94.483 Y-53.502
X94.336 Y-53.203
X94.127 Y-52.945
X93.866 Y-52.738
X93.566 Y-52.595
X93.242 Y-52.521
X92.909
X92.584 Y-52.594
X92.284 Y-52.737
X92.023 Y-52.942
G3 X91.876 Y-53.172 I0.52 J-0.492
X91.81 Y-53.387 I1.37 J-0.539
X94.225 Y-54.811 I1.436 J-0.325
G1 X94.255 Y-54.782
X94.636 Y-54.477
X94.75 Y-54.379
X94.84 Y-54.259
X94.913 Y-54.128
X94.968 Y-53.988
X95.006 Y-53.843
X95.027 Y-53.695
X95.034 Y-53.545
X95.026 Y-53.395
X95.004 Y-53.247
X94.969 Y-53.101
X94.966 Y-53.091
X94.831 Y-52.799
X94.638 Y-52.541
X94.395 Y-52.329
X94.113 Y-52.173
X93.804 Y-52.079
X93.483 Y-52.052
X93.163 Y-52.093
X92.859 Y-52.201
X92.584 Y-52.369
X92.351 Y-52.591
X92.023 Y-52.942
G3 X91.832 Y-53.392 I0.509 J-0.481
X91.882 Y-53.686 I0.7 J-0.032
X94.636 Y-54.477 I1.686 J0.68
G1 X95.017 Y-54.193
X95.048 Y-54.175
X95.173 Y-54.092
X95.275 Y-53.983
X95.361 Y-53.86
X95.429 Y-53.726
X95.481 Y-53.585
X95.518 Y-53.44
X95.539 Y-53.291
X95.546 Y-53.142
X95.538 Y-52.992
X95.518 Y-52.843
X95.484 Y-52.697
X95.355 Y-52.396
X95.168 Y-52.128
X94.931 Y-51.902
X94.654 Y-51.729
X94.348 Y-51.614
X94.025 Y-51.562
X93.698 Y-51.576
X93.381 Y-51.655
X93.086 Y-51.796
X92.825 Y-51.993
X92.608 Y-52.238
G3 X92.419 Y-52.696 I1.057 J-0.704
X93.479 Y-54.199 I1.246 J-0.246
G1 X94.258 Y-54.314
G3 X94.574 Y-54.321 I0.186 J1.256
X95.048 Y-54.175 I-0.131 J1.263
G1 X95.2 Y-54.085
X95.49 Y-53.931
X95.619 Y-53.854
X95.733 Y-53.756
X95.83 Y-53.642
X95.913 Y-53.517
X95.98 Y-53.383
X96.032 Y-53.242
X96.07 Y-53.097
X96.094 Y-52.949
X96.105 Y-52.799
X96.102 Y-52.65
X96.087 Y-52.5
X96.06 Y-52.353
X96.022 Y-52.208
X95.973 Y-52.066
X95.913 Y-51.929
X95.843 Y-51.796
X95.764 Y-51.668
X95.54 Y-51.416
X95.27 Y-51.213
X94.965 Y-51.066
X94.638 Y-50.983
X94.301 Y-50.964
X93.967 Y-51.013
X93.649 Y-51.126
X93.359 Y-51.299
X93.109 Y-51.526
X92.908 Y-51.797
G3 X92.758 Y-52.27 I1.112 J-0.613
X93.534 Y-53.584 I1.262 J-0.141
G1 X94.449 Y-53.963
G3 X95.49 Y-53.931 I0.486 J1.173
G1 X95.918 Y-53.704
X95.958 Y-53.688
X96.094 Y-53.625
X96.218 Y-53.539
X96.327 Y-53.436
X96.422 Y-53.321
X96.504 Y-53.195
X96.573 Y-53.062
X96.629 Y-52.922
X96.673 Y-52.779
X96.705 Y-52.633
X96.725 Y-52.484
X96.733 Y-52.334
X96.73 Y-52.184
X96.716 Y-52.035
X96.691 Y-51.887
X96.656 Y-51.741
X96.61 Y-51.598
X96.554 Y-51.459
X96.49 Y-51.323
X96.417 Y-51.193
X96.335 Y-51.067
X96.245 Y-50.947
X95.982 Y-50.693
X95.674 Y-50.496
X95.334 Y-50.364
X94.974 Y-50.3
X94.609 Y-50.309
X94.252 Y-50.39
X93.919 Y-50.538
X93.621 Y-50.75
X93.37 Y-51.016
X93.177 Y-51.326
G3 X93.728 Y-52.964 I1.157 J-0.523
G1 X94.918 Y-53.611
G3 X95.469 Y-53.763 I0.606 J1.116
X95.958 Y-53.688 I0.055 J1.269
G1 X96.16 Y-53.607
X96.541 Y-53.461
X96.681 Y-53.407
X96.806 Y-53.325
X96.92 Y-53.227
X97.023 Y-53.118
X97.114 Y-52.999
X97.193 Y-52.872
X97.262 Y-52.738
X97.32 Y-52.6
X97.367 Y-52.457
X97.403 Y-52.312
X97.429 Y-52.164
X97.446 Y-52.015
X97.452 Y-51.865
X97.449 Y-51.715
X97.435 Y-51.566
X97.413 Y-51.417
X97.381 Y-51.271
X97.34 Y-51.127
X97.291 Y-50.985
X97.233 Y-50.846
X97.167 Y-50.712
X97.093 Y-50.581
X97.011 Y-50.455
X96.923 Y-50.335
X96.826 Y-50.218
X96.724 Y-50.108
X96.616 Y-50.004
X96.5 Y-49.905
X96.38 Y-49.814
X96.256 Y-49.729
X95.914 Y-49.568
X95.547 Y-49.475
X95.169 Y-49.456
X94.794 Y-49.51
X94.437 Y-49.636
X94.111 Y-49.829
X93.829 Y-50.081
X93.601 Y-50.383
X93.435 Y-50.723
G3 X93.928 Y-52.174 I1.206 J-0.399
G1 X95.55 Y-53.273
G3 X96.541 Y-53.461 I0.712 J1.051
G1 X96.922 Y-53.361
X97.018 Y-53.34
X97.163 Y-53.301
X97.302 Y-53.245
X97.432 Y-53.17
X97.553 Y-53.081
X97.664 Y-52.98
X97.766 Y-52.87
X97.858 Y-52.752
X97.941 Y-52.627
X98.013 Y-52.495
X98.077 Y-52.36
X98.131 Y-52.22
X98.177 Y-52.077
X98.213 Y-51.931
X98.24 Y-51.784
X98.259 Y-51.635
X98.269 Y-51.485
X98.271 Y-51.335
X98.265 Y-51.181
X98.25 Y-51.024
X98.226 Y-50.866
X98.193 Y-50.706
X98.15 Y-50.545
X98.1 Y-50.39
X98.046 Y-50.248
X97.976 Y-50.092
X97.899 Y-49.942
X97.819 Y-49.805
X97.733 Y-49.675
X97.629 Y-49.535
X97.524 Y-49.408
X97.42 Y-49.295
X97.301 Y-49.18
X97.171 Y-49.067
X97.045 Y-48.969
X96.919 Y-48.881
X96.772 Y-48.79
X96.625 Y-48.71
X96.484 Y-48.643
X96.336 Y-48.582
X95.972 Y-48.491
X95.598 Y-48.467
X95.225 Y-48.511
X94.866 Y-48.622
X94.534 Y-48.796
X94.238 Y-49.027
X93.989 Y-49.308
X93.795 Y-49.63
X93.662 Y-49.981
G3 X94.019 Y-51.195 I1.235 J-0.296
G1 X95.916 Y-53.008
G3 X97.018 Y-53.34 I0.878 J0.918
G1 X97.303 Y-53.279
X97.684 Y-53.208
X97.718 Y-53.204
X97.867 Y-53.181
X98.007 Y-53.127
X98.14 Y-53.058
X98.265 Y-52.976
X98.383 Y-52.883
X98.493 Y-52.781
X98.595 Y-52.671
X98.689 Y-52.554
X98.775 Y-52.431
X98.853 Y-52.303
X98.923 Y-52.171
X98.986 Y-52.034
X99.041 Y-51.894
X99.089 Y-51.747
X99.131 Y-51.593
X99.165 Y-51.432
X99.192 Y-51.266
X99.209 Y-51.095
X99.218 Y-50.918
X99.217 Y-50.738
X99.206 Y-50.555
X99.185 Y-50.37
X99.153 Y-50.183
X99.11 Y-49.995
X99.057 Y-49.807
X98.993 Y-49.621
X98.917 Y-49.435
X98.831 Y-49.252
X98.734 Y-49.071
X98.627 Y-48.896
X98.519 Y-48.74
X98.396 Y-48.581
X98.264 Y-48.427
X98.134 Y-48.292
X97.996 Y-48.162
X97.841 Y-48.033
X97.692 Y-47.921
X97.542 Y-47.821
X97.37 Y-47.719
X97.204 Y-47.633
X97.045 Y-47.56
X96.864 Y-47.49
X96.686 Y-47.431
X96.517 Y-47.386
X96.336 Y-47.347
X96.149 Y-47.318
X95.974 Y-47.3
X95.933 Y-47.298
X95.548 Y-47.317
X95.173 Y-47.408
X94.822 Y-47.569
X94.508 Y-47.793
X94.242 Y-48.072
X94.034 Y-48.397
X93.891 Y-48.755
X93.818 Y-49.134
X93.741 Y-49.581
X93.686 Y-49.895
X93.662 Y-49.981
G3 X94.238 Y-51.363 I1.235 J-0.296
G1 X96.97 Y-53.022
G3 X97.718 Y-53.204 I0.659 J1.085
G1 X98.411 Y-53.131
X98.559 Y-53.108
X98.704 Y-53.069
X98.843 Y-53.014
X98.977 Y-52.947
X99.105 Y-52.868
X99.227 Y-52.78
X99.342 Y-52.684
X99.45 Y-52.58
X99.551 Y-52.47
X99.646 Y-52.353
X99.735 Y-52.232
X99.819 Y-52.101
X99.899 Y-51.961
X99.975 Y-51.811
X100.045 Y-51.65
X100.108 Y-51.481
X100.164 Y-51.304
X100.211 Y-51.119
X100.249 Y-50.926
X100.277 Y-50.727
X100.295 Y-50.52
X100.302 Y-50.308
X100.297 Y-50.091
X100.28 Y-49.871
X100.251 Y-49.649
X100.209 Y-49.426
X100.155 Y-49.202
X100.087 Y-48.979
X100.007 Y-48.757
X99.914 Y-48.539
X99.808 Y-48.323
X99.69 Y-48.112
X99.56 Y-47.907
X99.418 Y-47.708
X99.265 Y-47.515
X99.1 Y-47.33
X98.925 Y-47.154
X98.74 Y-46.986
X98.546 Y-46.829
X98.359 Y-46.694
X98.157 Y-46.563
X97.949 Y-46.445
X97.754 Y-46.347
X97.553 Y-46.26
X97.337 Y-46.18
X97.136 Y-46.117
X96.94 Y-46.068
X96.722 Y-46.025
X96.519 Y-45.997
X96.383 Y-45.985
X95.994
X95.61 Y-46.052
X95.244 Y-46.183
X94.905 Y-46.374
X94.603 Y-46.62
X94.348 Y-46.914
X94.147 Y-47.247
X94.005 Y-47.61
X93.926 Y-47.991
X93.818 Y-49.134
G3 X93.885 Y-49.625 I1.268 J-0.076
X94.28 Y-50.192 I1.2 J0.415
G1 X97.516 Y-52.846
G3 X98.411 Y-53.131 I0.805 J0.982
G1 X99.207 Y-53.055
X99.312 Y-53.04
X99.359 Y-53.033
X99.398 Y-53.028
X99.66 Y-52.941
X99.8 Y-52.887
X99.935 Y-52.821
X100.064 Y-52.746
X100.188 Y-52.662
X100.307 Y-52.57
X100.42 Y-52.471
X100.529 Y-52.365
X100.637 Y-52.246
X100.744 Y-52.117
X100.847 Y-51.977
X100.945 Y-51.826
X101.04 Y-51.663
X101.129 Y-51.488
X101.211 Y-51.302
X101.286 Y-51.106
X101.351 Y-50.9
X101.407 Y-50.685
X101.453 Y-50.461
X101.487 Y-50.227
X101.509 Y-49.985
X101.518 Y-49.736
X101.514 Y-49.482
X101.496 Y-49.223
X101.463 Y-48.96
X101.414 Y-48.695
X101.351 Y-48.428
X101.271 Y-48.16
X101.176 Y-47.892
X101.065 Y-47.626
X100.938 Y-47.365
X100.796 Y-47.107
X100.639 Y-46.857
X100.469 Y-46.616
X100.285 Y-46.382
X100.089 Y-46.159
X99.881 Y-45.948
X99.662 Y-45.747
X99.432 Y-45.559
X99.199 Y-45.389
X98.962 Y-45.234
X98.711 Y-45.089
X98.48 Y-44.972
X98.233 Y-44.863
X97.989 Y-44.771
X97.916 Y-44.748
X97.5 Y-44.65
X97.073 Y-44.617
X96.647 Y-44.648
X96.23 Y-44.744
X95.832 Y-44.902
X95.463 Y-45.119
X95.131 Y-45.389
X94.844 Y-45.706
X94.636 Y-45.976
X94.567 Y-46.087
X94.255 Y-46.696
X94.191 Y-46.848
X94.078 Y-47.229
X93.971 Y-47.61
X93.926 Y-47.991
G3 X94.34 Y-49.006 I1.268 J-0.076
G1 X98.407 Y-52.704
G3 X98.904 Y-52.984 I0.854 J0.94
X99.398 Y-53.028 I0.357 J1.219
G1 X99.588 Y-52.975
X99.969 Y-52.865
X100.16 Y-52.806
X100.35 Y-52.721
X100.731 Y-52.527
X100.921 Y-52.428
X101.112 Y-52.297
X101.493 Y-52.002
X101.732 Y-51.771
X101.841 Y-51.654
X101.948 Y-51.526
X102.052 Y-51.386
X102.154 Y-51.233
X102.253 Y-51.065
X102.347 Y-50.883
X102.434 Y-50.69
X102.513 Y-50.485
X102.585 Y-50.266
X102.647 Y-50.033
X102.699 Y-49.787
X102.738 Y-49.533
X102.764 Y-49.269
X102.776 Y-48.996
X102.773 Y-48.713
X102.754 Y-48.421
X102.719 Y-48.123
X102.666 Y-47.821
X102.596 Y-47.517
X102.508 Y-47.211
X102.401 Y-46.906
X102.276 Y-46.601
X102.132 Y-46.299
X101.971 Y-46.001
X101.791 Y-45.71
X101.595 Y-45.427
X101.383 Y-45.155
X101.291 Y-45.048
X100.942 Y-44.702
X100.545 Y-44.411
X100.109 Y-44.183
G3 X98.4 Y-45.611 I-0.463 J-1.182
G1 X99.504 Y-51.217
G3 X101.493 Y-52.002 I1.246 J0.245
G1 X101.724 Y-51.8
X102.061 Y-51.419
X102.255 Y-51.184
X102.344 Y-51.038
X102.57 Y-50.657
X102.635 Y-50.544
X102.751 Y-50.276
X102.888 Y-49.895
X102.954 Y-49.705
X102.997 Y-49.515
X103.058 Y-49.134
X103.108 Y-48.753
X103.099 Y-48.372
X103.086 Y-47.991
X103.016 Y-47.61
X102.931 Y-47.229
X102.878 Y-47.039
X102.799 Y-46.848
X102.634 Y-46.467
X102.545 Y-46.277
X102.423 Y-46.087
X102.164 Y-45.706
X102.038 Y-45.536
X101.874 Y-45.366
X101.493 Y-44.987
X101.443 Y-44.944
X101.112 Y-44.712
X100.893 Y-44.563
X100.731 Y-44.459
X100.35 Y-44.287
X100.107 Y-44.182
X99.969 Y-44.125
X99.588 Y-44.029
X99.207 Y-43.943
X99.017 Y-43.914
X98.826 Y-43.907
X98.445 Y-43.895
X98.255 Y-43.892
X98.064 Y-43.91
X97.684 Y-43.971
X97.303 Y-44.043
X96.91 Y-44.182
X96.541 Y-44.321
X96.16 Y-44.538
X96.118 Y-44.563
X95.779 Y-44.771
X95.576 Y-44.944
X95.398 Y-45.101
X95.15 Y-45.325
X95.017 Y-45.483
X94.844 Y-45.706
X94.804 Y-45.781 Z-9.982
X94.764 Y-45.854 Z-9.96
X94.727 Y-45.923 Z-9.924
X94.694 Y-45.985 Z-9.875
X94.675 Y-46.044 Z-9.814
X94.66 Y-46.093 Z-9.742
X94.649 Y-46.128 Z-9.663
X94.643 Y-46.15 Z-9.579
X94.64 Y-46.157 Z-9.491
G0 Z5
X69.213 Y-80.655
Z-6.22
G1 Z-7.49 F849.6
G3 X63.287 Y-81.6 Z-7.819 I-2.963 J-0.473 F400.3
X69.213 Y-80.655 Z-8.148 I2.963 J0.473
X63.287 Y-81.6 Z-8.477 I-2.963 J-0.473
X69.213 Y-80.655 Z-8.806 I2.963 J0.473
X63.287 Y-81.6 Z-9.136 I-2.963 J-0.473
X69.213 Y-80.655 Z-9.465 I2.963 J0.473
X63.287 Y-81.6 Z-9.794 I-2.963 J-0.473
X69.213 Y-80.655 Z-10.123 I2.963 J0.473
X63.287 Y-81.6 Z-10.452 I-2.963 J-0.473
X69.213 Y-80.655 Z-10.781 I2.963 J0.473
X63.287 Y-81.6 Z-11.11 I-2.963 J-0.473
X69.213 Y-80.655 Z-11.439 I2.963 J0.473
X63.287 Y-81.6 Z-11.769 I-2.963 J-0.473
X69.213 Y-80.655 Z-12.098 I2.963 J0.473
X63.287 Y-81.6 Z-12.427 I-2.963 J-0.473
X69.213 Y-80.655 Z-12.756 I2.963 J0.473
X63.287 Y-81.6 Z-13.085 I-2.963 J-0.473
X69.213 Y-80.655 Z-13.414 I2.963 J0.473
X63.287 Y-81.6 Z-13.743 I-2.963 J-0.473
X69.213 Y-80.655 Z-14.072 I2.963 J0.473
X63.287 Y-81.6 Z-14.402 I-2.963 J-0.473
X69.213 Y-80.655 Z-14.731 I2.963 J0.473
X63.287 Y-81.6 Z-15.06 I-2.963 J-0.473
X69.213 Y-80.655 Z-15.389 I2.963 J0.473
X63.287 Y-81.6 Z-15.718 I-2.963 J-0.473
X69.213 Y-80.655 Z-16.047 I2.963 J0.473
X63.287 Y-81.6 Z-16.376 I-2.963 J-0.473
X69.213 Y-80.655 Z-16.705 I2.963 J0.473
X63.287 Y-81.6 Z-17.034 I-2.963 J-0.473
X69.213 Y-80.655 Z-17.364 I2.963 J0.473
X63.287 Y-81.6 Z-17.693 I-2.963 J-0.473
X69.213 Y-80.655 Z-18.022 I2.963 J0.473
X63.287 Y-81.6 Z-18.351 I-2.963 J-0.473
X69.213 Y-80.655 Z-18.68 I2.963 J0.473
X63.287 Y-81.6 Z-19.009 I-2.963 J-0.473
X69.213 Y-80.655 Z-19.338 I2.963 J0.473
X63.287 Y-81.6 Z-19.667 I-2.963 J-0.473
X69.25 Y-81.128 Z-19.98 I2.963 J0.473
X63.25 I-3
X69.146 Y-81.911 I3
X69.25 Y-81.128 I-2.896 J0.783
G1 X69.271 Y-79.836 F849.6
X69.279 Y-79.755
X69.285 Y-79.605
X69.278 Y-79.456
X69.258 Y-79.307
X69.227 Y-79.16
X69.185 Y-79.016
X69.135 Y-78.875
X69.075 Y-78.737
X69.008 Y-78.603
X68.932 Y-78.473
X68.849 Y-78.347
X68.757 Y-78.221
X68.655 Y-78.097
X68.543 Y-77.975
X68.422 Y-77.858
X68.292 Y-77.744
X68.154 Y-77.635
X68.006 Y-77.532
X67.851 Y-77.435
X67.687 Y-77.345
X67.516 Y-77.263
X67.338 Y-77.189
X67.154 Y-77.124
X66.965 Y-77.068
X66.77 Y-77.022
X66.57 Y-76.986
X66.367 Y-76.961
X66.16 Y-76.947
X65.951 Y-76.944
X65.741 Y-76.953
X65.529 Y-76.972
X65.318 Y-77.004
X65.106 Y-77.047
X64.896 Y-77.103
X64.688 Y-77.169
X64.483 Y-77.248
X64.282 Y-77.338
X64.084 Y-77.439
X63.891 Y-77.551
X63.704 Y-77.674
X63.523 Y-77.808
X63.349 Y-77.952
X63.183 Y-78.105
X63.025 Y-78.268
X62.875 Y-78.44
X62.734 Y-78.62
X62.603 Y-78.808
X62.482 Y-79.003
X62.371 Y-79.205
X62.272 Y-79.413
X62.183 Y-79.627
X62.107 Y-79.845
X62.042 Y-80.068
X61.989 Y-80.294
X61.948 Y-80.523
X61.92 Y-80.754
X61.905 Y-80.987
X61.902 Y-81.22
X61.911 Y-81.454
X61.934 Y-81.687
X61.969 Y-81.918
X62.016 Y-82.148
X62.076 Y-82.374
X62.148 Y-82.598
X62.233 Y-82.817
X62.329 Y-83.032
X62.436 Y-83.241
X62.555 Y-83.444
X62.685 Y-83.64
X62.825 Y-83.829
X62.976 Y-84.011
X63.136 Y-84.184
X63.305 Y-84.348
X63.483 Y-84.503
X63.669 Y-84.648
X63.863 Y-84.783
X64.064 Y-84.907
X64.272 Y-85.02
X64.485 Y-85.121
X64.703 Y-85.211
X64.927 Y-85.289
X65.154 Y-85.355
X65.384 Y-85.408
X65.617 Y-85.449
X65.852 Y-85.477
X66.088 Y-85.493
X66.324 Y-85.495
X66.561 Y-85.485
X66.796 Y-85.462
X67.03 Y-85.426
X67.262 Y-85.378
X67.491 Y-85.317
X67.716 Y-85.244
X67.937 Y-85.158
X68.152 Y-85.061
X68.363 Y-84.953
X68.567 Y-84.833
X68.764 Y-84.702
X68.954 Y-84.56
X69.136 Y-84.409
X69.31 Y-84.248
X69.474 Y-84.077
X69.63 Y-83.898
X69.775 Y-83.711
X69.929 Y-83.488
X70.104 Y-83.203
X70.294 Y-82.854
X70.45 Y-82.526
X70.578 Y-82.212
X70.683 Y-81.909
X70.768 Y-81.614
X70.834 Y-81.327
X70.883 Y-81.045
X70.916 Y-80.768
X70.933 Y-80.496
X70.936 Y-80.227
X70.924 Y-79.963
X70.898 Y-79.702
X70.858 Y-79.445
X70.804 Y-79.191
X70.738 Y-78.942
X70.657 Y-78.697
X70.564 Y-78.456
X70.458 Y-78.221
X70.338 Y-77.991
X70.207 Y-77.768
X70.062 Y-77.551
X69.906 Y-77.342
X69.737 Y-77.14
X69.557 Y-76.946
X69.366 Y-76.762
X69.163 Y-76.587
X68.95 Y-76.423
X68.728 Y-76.269
X68.495 Y-76.127
X68.254 Y-75.996
X68.004 Y-75.879
X67.747 Y-75.774
X67.483 Y-75.682
X67.213 Y-75.605
X66.937 Y-75.542
X66.656 Y-75.494
X66.371 Y-75.461
X66.083 Y-75.443
X65.793 Y-75.441
X65.502 Y-75.455
X65.21 Y-75.484
X64.919 Y-75.53
X64.629 Y-75.592
X64.341 Y-75.669
X64.057 Y-75.763
X63.776 Y-75.872
X63.501 Y-75.997
X63.232 Y-76.137
X62.97 Y-76.293
X62.716 Y-76.463
X62.471 Y-76.647
X62.235 Y-76.844
X62.009 Y-77.055
X61.795 Y-77.279
X61.592 Y-77.514
X61.402 Y-77.761
X61.225 Y-78.019
X61.062 Y-78.286
X60.913 Y-78.562
X60.779 Y-78.847
X60.661 Y-79.139
X60.558 Y-79.438
X60.472 Y-79.742
X60.402 Y-80.051
X60.349 Y-80.364
X60.312 Y-80.68
X60.293 Y-80.998
X60.292 Y-81.317
X60.307 Y-81.636
X60.34 Y-81.954
X60.39 Y-82.271
X60.457 Y-82.584
X60.542 Y-82.894
X60.642 Y-83.199
X60.76 Y-83.498
X60.894 Y-83.791
X61.043 Y-84.076
X61.208 Y-84.353
X61.387 Y-84.621
X61.581 Y-84.878
X61.789 Y-85.126
X62.01 Y-85.361
X62.244 Y-85.585
X62.49 Y-85.795
X62.746 Y-85.992
X63.013 Y-86.175
X63.29 Y-86.343
X63.576 Y-86.496
X63.869 Y-86.634
X64.17 Y-86.755
X64.477 Y-86.86
X64.789 Y-86.948
X65.106 Y-87.019
X65.426 Y-87.073
X65.749 Y-87.109
X66.073 Y-87.128
X66.398 Y-87.129
X66.723 Y-87.113
X67.046 Y-87.079
X67.367 Y-87.028
X67.685 Y-86.959
X67.998 Y-86.873
X68.307 Y-86.77
X68.609 Y-86.651
X68.907 Y-86.515
X69.201 Y-86.36
X69.492 Y-86.186
X69.786 Y-85.988
X70.077 Y-85.768
X70.362 Y-85.528
X70.636 Y-85.269
X70.898 Y-84.995
X71.146 Y-84.705
X71.377 Y-84.402
X71.591 Y-84.088
X71.788 Y-83.764
X71.965 Y-83.431
X72.124 Y-83.09
X72.263 Y-82.743
X72.383 Y-82.391
X72.483 Y-82.035
X72.563 Y-81.676
X72.623 Y-81.314
X72.663 Y-80.952
X72.683 Y-80.589
X72.684 Y-80.226
X72.665 Y-79.866
X72.627 Y-79.507
X72.569 Y-79.152
X72.493 Y-78.8
X72.397 Y-78.454
X72.283 Y-78.113
X72.151 Y-77.779
X72 Y-77.452
X71.832 Y-77.134
X71.646 Y-76.824
X71.444 Y-76.525
X71.225 Y-76.236
X70.99 Y-75.959
X70.74 Y-75.694
X70.475 Y-75.442
X70.196 Y-75.205
X69.903 Y-74.981
X69.597 Y-74.774
X69.28 Y-74.582
X68.951 Y-74.408
X68.612 Y-74.25
X68.263 Y-74.111
X67.906 Y-73.991
X67.541 Y-73.889
X67.17 Y-73.807
X66.794 Y-73.745
X66.413 Y-73.704
X66.028 Y-73.683
X65.642
X65.255 Y-73.703
X64.868 Y-73.745
X64.482 Y-73.809
X64.099 Y-73.893
X63.72 Y-73.998
X63.345 Y-74.124
X62.977 Y-74.271
X62.616 Y-74.438
X62.263 Y-74.625
X61.92 Y-74.832
X61.588 Y-75.057
X61.267 Y-75.301
X60.96 Y-75.563
X60.666 Y-75.842
X60.387 Y-76.137
X60.123 Y-76.447
X59.876 Y-76.772
X59.647 Y-77.111
X59.436 Y-77.463
X59.244 Y-77.826
X59.071 Y-78.2
X58.919 Y-78.583
X58.787 Y-78.975
X58.677 Y-79.374
X58.588 Y-79.779
X58.522 Y-80.19
X58.477 Y-80.603
X58.455 Y-81.019
X58.456 Y-81.437
X58.479 Y-81.854
X58.525 Y-82.27
X58.593 Y-82.683
X58.684 Y-83.092
X58.797 Y-83.497
X58.932 Y-83.895
X59.088 Y-84.285
X59.266 Y-84.667
X59.464 Y-85.039
X59.682 Y-85.4
X59.92 Y-85.748
X60.176 Y-86.084
X60.45 Y-86.406
X60.742 Y-86.712
X61.05 Y-87.002
X61.373 Y-87.275
X61.711 Y-87.531
X62.062 Y-87.768
X62.426 Y-87.985
X62.801 Y-88.183
X63.187 Y-88.36
X63.581 Y-88.516
X63.984 Y-88.651
X64.394 Y-88.763
X64.809 Y-88.853
X65.229 Y-88.921
X65.651 Y-88.965
X66.076 Y-88.987
X66.502 Y-88.986
X66.927 Y-88.961
X67.353 Y-88.914
X67.778 Y-88.842
X68.203 Y-88.747
X68.626 Y-88.628
X69.047 Y-88.485
X69.464 Y-88.317
X69.874 Y-88.125
X70.277 Y-87.91
X70.67 Y-87.671
X71.052 Y-87.41
X71.421 Y-87.127
X71.775 Y-86.824
X72.114 Y-86.501
X72.435 Y-86.159
X72.738 Y-85.799
X73.021 Y-85.424
X73.283 Y-85.033
X73.524 Y-84.629
X73.743 Y-84.212
X73.938 Y-83.785
X74.11 Y-83.347
X74.258 Y-82.902
X74.381 Y-82.45
X74.48 Y-81.992
X74.553 Y-81.53
X74.601 Y-81.065
X74.624 Y-80.598
X74.622 Y-80.132
X74.595 Y-79.666
X74.542 Y-79.202
X74.464 Y-78.742
X74.361 Y-78.287
X74.234 Y-77.838
X74.083 Y-77.396
X73.907 Y-76.963
X73.708 Y-76.539
X73.487 Y-76.127
X73.243 Y-75.726
X72.977 Y-75.339
X72.69 Y-74.965
X72.382 Y-74.608
X72.055 Y-74.266
X71.709 Y-73.942
X71.345 Y-73.637
X70.964 Y-73.351
X70.568 Y-73.085
X70.156 Y-72.841
X69.73 Y-72.619
X69.292 Y-72.419
X68.842 Y-72.243
X68.382 Y-72.092
X67.913 Y-71.965
X67.437 Y-71.863
X66.954 Y-71.787
X66.466 Y-71.737
X65.974 Y-71.714
X65.481 Y-71.717
X64.987 Y-71.747
X64.494 Y-71.804
X64.003 Y-71.888
X63.517 Y-71.999
X63.035 Y-72.136
X62.56 Y-72.3
X62.094 Y-72.49
X61.637 Y-72.705
X61.191 Y-72.946
X60.758 Y-73.21
X60.339 Y-73.499
X59.935 Y-73.811
X59.548 Y-74.145
X59.178 Y-74.5
X58.828 Y-74.876
X58.497 Y-75.271
X58.188 Y-75.684
X57.901 Y-76.115
X57.638 Y-76.561
X57.398 Y-77.021
X57.184 Y-77.495
X56.995 Y-77.98
X56.832 Y-78.476
X56.697 Y-78.981
X56.588 Y-79.493
X56.508 Y-80.011
X56.455 Y-80.533
X56.431 Y-81.058
X56.436 Y-81.584
X56.469 Y-82.11
X56.53 Y-82.633
X56.62 Y-83.154
X56.738 Y-83.669
X56.884 Y-84.177
X57.058 Y-84.678
X57.258 Y-85.168
X57.485 Y-85.647
X57.738 Y-86.114
X58.016 Y-86.567
X58.319 Y-87.004
X58.645 Y-87.425
X58.993 Y-87.827
X59.363 Y-88.21
X59.753 Y-88.573
X60.163 Y-88.915
X60.59 Y-89.233
X61.035 Y-89.529
X61.495 Y-89.8
X61.97 Y-90.045
X62.457 Y-90.265
X62.955 Y-90.458
X63.464 Y-90.624
X63.981 Y-90.762
X64.506 Y-90.872
X65.038 Y-90.954
X65.574 Y-91.006
X66.115 Y-91.03
X66.659 Y-91.025
X67.204 Y-90.989
X67.75 Y-90.924
X68.294 Y-90.829
X68.835 Y-90.704
X69.371 Y-90.549
X69.901 Y-90.365
X70.422 Y-90.151
X70.933 Y-89.908
X71.432 Y-89.636
X71.917 Y-89.337
X72.387 Y-89.011
X72.839 Y-88.659
X73.273 Y-88.282
X73.687 Y-87.882
X74.079 Y-87.458
X74.448 Y-87.014
X74.793 Y-86.549
X75.113 Y-86.066
X75.406 Y-85.566
X75.671 Y-85.051
X75.909 Y-84.522
X76.117 Y-83.98
X76.296 Y-83.428
X76.445 Y-82.868
X76.563 Y-82.299
X76.65 Y-81.726
X76.706 Y-81.148
X76.731 Y-80.568
X76.724 Y-79.987
X76.685 Y-79.408
X76.615 Y-78.831
X76.514 Y-78.258
X76.382 Y-77.692
X76.22 Y-77.133
X76.027 Y-76.583
X75.804 Y-76.044
X75.553 Y-75.517
X75.273 Y-75.004
X74.965 Y-74.507
X74.63 Y-74.026
X74.268 Y-73.563
X73.882 Y-73.12
X73.472 Y-72.698
X73.038 Y-72.297
X72.582 Y-71.92
X72.106 Y-71.568
X71.61 Y-71.241
X71.097 Y-70.941
X70.566 Y-70.669
X70.021 Y-70.425
X69.461 Y-70.211
X68.89 Y-70.027
X68.308 Y-69.874
X67.717 Y-69.752
X67.118 Y-69.662
X66.515 Y-69.605
X65.908 Y-69.58
X65.298 Y-69.589
X64.689 Y-69.63
X64.081 Y-69.705
X63.477 Y-69.813
X62.878 Y-69.953
X62.286 Y-70.127
X61.703 Y-70.332
X61.13 Y-70.57
X60.57 Y-70.839
X60.025 Y-71.138
X59.495 Y-71.467
X58.982 Y-71.826
X58.489 Y-72.212
X58.016 Y-72.626
X57.566 Y-73.065
X57.139 Y-73.529
X56.737 Y-74.016
X56.362 Y-74.525
X56.014 Y-75.055
X55.695 Y-75.604
X55.406 Y-76.17
X55.147 Y-76.752
X54.92 Y-77.348
X54.725 Y-77.956
X54.564 Y-78.575
X54.435 Y-79.202
X54.341 Y-79.836
X54.282 Y-80.476
X54.257 Y-81.118
X54.267 Y-81.761
X54.312 Y-82.404
X54.392 Y-83.044
X54.506 Y-83.679
X54.655 Y-84.307
X54.838 Y-84.928
X55.054 Y-85.537
X55.303 Y-86.135
X55.585 Y-86.719
X55.898 Y-87.287
X56.241 Y-87.838
X56.614 Y-88.369
X57.016 Y-88.88
X57.445 Y-89.369
X57.9 Y-89.834
X58.38 Y-90.274
X58.883 Y-90.687
X59.408 Y-91.073
X59.954 Y-91.43
X60.518 Y-91.757
X61.1 Y-92.053
X61.698 Y-92.317
X62.31 Y-92.549
X62.935 Y-92.748
X63.571 Y-92.913
X64.217 Y-93.044
X64.871 Y-93.14
X65.531 Y-93.2
X66.195 Y-93.225
X66.862 Y-93.213
X67.53 Y-93.165
X68.197 Y-93.081
X68.86 Y-92.96
X69.518 Y-92.803
X70.169 Y-92.61
X70.811 Y-92.381
X71.441 Y-92.117
X72.057 Y-91.819
X72.658 Y-91.486
X73.242 Y-91.121
X73.806 Y-90.723
X74.349 Y-90.295
X74.869 Y-89.837
X75.364 Y-89.35
X75.833 Y-88.837
X76.274 Y-88.298
X76.685 Y-87.736
X77.066 Y-87.152
X77.415 Y-86.547
X77.731 Y-85.924
X78.013 Y-85.284
X78.259 Y-84.629
X78.47 Y-83.962
X78.645 Y-83.284
X78.783 Y-82.597
X78.883 Y-81.903
X78.946 Y-81.205
X78.971 Y-80.504
X78.957 Y-79.802
X78.906 Y-79.102
X78.816 Y-78.404
X78.689 Y-77.713
X78.525 Y-77.029
X78.323 Y-76.354
X78.085 Y-75.69
X77.811 Y-75.04
X77.502 Y-74.405
X77.159 Y-73.786
X76.782 Y-73.187
X76.373 Y-72.608
X75.932 Y-72.052
X75.461 Y-71.519
X74.961 Y-71.012
X74.434 Y-70.532
X73.88 Y-70.08
X73.302 Y-69.659
X72.701 Y-69.269
X72.079 Y-68.911
X71.436 Y-68.587
X70.776 Y-68.298
X70.1 Y-68.044
X69.41 Y-67.827
X68.707 Y-67.647
X67.995 Y-67.506
X67.274 Y-67.403
X66.548 Y-67.339
X65.817 Y-67.315
X65.085 Y-67.33
X64.353 Y-67.385
X63.624 Y-67.48
X62.899 Y-67.614
X62.181 Y-67.788
X61.473 Y-68.001
X60.775 Y-68.253
X60.091 Y-68.542
X59.422 Y-68.869
X58.771 Y-69.232
X58.139 Y-69.631
X57.529 Y-70.064
X56.942 Y-70.531
X56.38 Y-71.029
X55.845 Y-71.559
X55.338 Y-72.117
X54.862 Y-72.703
X54.418 Y-73.315
X54.007 Y-73.951
X53.63 Y-74.609
X53.289 Y-75.288
X52.985 Y-75.985
X52.719 Y-76.698
X52.492 Y-77.426
X52.304 Y-78.166
X52.156 Y-78.916
X52.049 Y-79.674
X51.983 Y-80.437
X51.959 Y-81.203
X51.976 Y-81.971
X52.035 Y-82.737
X52.136 Y-83.499
X52.278 Y-84.256
X52.46 Y-85.004
X52.683 Y-85.742
X52.946 Y-86.467
X53.249 Y-87.178
X53.589 Y-87.871
X53.967 Y-88.546
X54.381 Y-89.199
X54.83 Y-89.83
X55.313 Y-90.435
X55.828 Y-91.014
X56.374 Y-91.564
X56.95 Y-92.084
X57.553 Y-92.573
X58.183 Y-93.028
X58.836 Y-93.449
X59.513 Y-93.835
X60.21 Y-94.183
X60.926 Y-94.494
X61.659 Y-94.766
X62.407 Y-94.998
X63.168 Y-95.19
X63.94 Y-95.341
X64.721 Y-95.449
X65.509 Y-95.516
X66.301 Y-95.539
X67.095 Y-95.52
X67.889 Y-95.458
X68.681 Y-95.352
X69.468 Y-95.203
X70.248 Y-95.011
X71.018 Y-94.777
X71.776 Y-94.5
X72.52 Y-94.182
X73.247 Y-93.824
X73.955 Y-93.426
X74.642 Y-92.989
X75.306 Y-92.514
X75.943 Y-92.004
X76.553 Y-91.459
X77.134 Y-90.88
X77.683 Y-90.271
X78.199 Y-89.631
X78.68 Y-88.964
X79.124 Y-88.272
X79.531 Y-87.555
X79.898 Y-86.817
X80.225 Y-86.06
X80.511 Y-85.285
X80.755 Y-84.496
X80.955 Y-83.694
X81.112 Y-82.882
X81.225 Y-82.062
X81.293 Y-81.236
X81.316 Y-80.408
X81.295 Y-79.579
X81.228 Y-78.752
X81.117 Y-77.93
X80.961 Y-77.114
X80.761 Y-76.307
X80.517 Y-75.511
X80.231 Y-74.729
X79.902 Y-73.963
X79.531 Y-73.215
X79.121 Y-72.488
X78.671 Y-71.783
X78.182 Y-71.103
X77.657 Y-70.449
X77.097 Y-69.824
X76.503 Y-69.23
X75.877 Y-68.668
X75.22 Y-68.14
X74.534 Y-67.648
X73.822 Y-67.192
X73.085 Y-66.776
X72.325 Y-66.399
X71.545 Y-66.064
X70.746 Y-65.771
X69.932 Y-65.521
X69.103 Y-65.315
X68.263 Y-65.154
X67.414 Y-65.039
X66.559 Y-64.97
X65.699 Y-64.947
X64.839 Y-64.971
X63.979 Y-65.042
X63.122 Y-65.159
X62.272 Y-65.323
X61.431 Y-65.534
X60.601 Y-65.789
X59.784 Y-66.09
X58.983 Y-66.436
X58.202 Y-66.825
X57.441 Y-67.256
X56.703 Y-67.729
X55.991 Y-68.242
X55.307 Y-68.794
X54.653 Y-69.383
X54.03 Y-70.007
X53.442 Y-70.665
X52.889 Y-71.355
X52.374 Y-72.075
X51.898 Y-72.823
X51.462 Y-73.596
X51.069 Y-74.393
X50.719 Y-75.211
X50.414 Y-76.048
X50.154 Y-76.901
X49.94 Y-77.768
X49.774 Y-78.646
X49.655 Y-79.533
X49.584 Y-80.426
X49.562 Y-81.322
X49.589 Y-82.218
X49.664 Y-83.113
X49.788 Y-84.003
X49.959 Y-84.886
X50.179 Y-85.759
X50.446 Y-86.619
X50.759 Y-87.464
X51.118 Y-88.292
X51.521 Y-89.099
X51.968 Y-89.884
X52.457 Y-90.643
X52.987 Y-91.376
X53.556 Y-92.079
X54.162 Y-92.751
X54.805 Y-93.389
X55.482 Y-93.993
X56.191 Y-94.558
X56.93 Y-95.086
X57.698 Y-95.572
X58.492 Y-96.017
X59.31 Y-96.419
X60.15 Y-96.777
X61.009 Y-97.089
X61.885 Y-97.354
X62.776 Y-97.572
X63.679 Y-97.741
X64.592 Y-97.862
X65.512 Y-97.933
X66.436 Y-97.954
X67.362 Y-97.925
X68.287 Y-97.846
X69.208 Y-97.716
X70.123 Y-97.536
X71.029 Y-97.307
X71.923 Y-97.028
X72.802 Y-96.7
X73.664 Y-96.325
X74.505 Y-95.903
X75.324 Y-95.434
X76.118 Y-94.922
X76.884 Y-94.366
X77.619 Y-93.768
X78.323 Y-93.131
X78.991 Y-92.456
X79.623 Y-91.744
X80.216 Y-90.999
X80.768 Y-90.222
X81.277 Y-89.415
X81.743 Y-88.581
X82.163 Y-87.722
X82.536 Y-86.842
X82.861 Y-85.941
X83.137 Y-85.024
X83.363 Y-84.093
X83.538 Y-83.15
X83.662 Y-82.198
X83.734 Y-81.241
X83.755 Y-80.28
X83.723 Y-79.32
X83.639 Y-78.361
X83.503 Y-77.408
X83.316 Y-76.463
X83.077 Y-75.529
X82.788 Y-74.609
X82.45 Y-73.704
X82.062 Y-72.819
X81.627 Y-71.955
X81.144 Y-71.116
X80.617 Y-70.302
X80.046 Y-69.518
X79.432 Y-68.765
X78.778 Y-68.046
X78.085 Y-67.362
X77.355 Y-66.716
X76.59 Y-66.11
X75.792 Y-65.546
X74.964 Y-65.025
X74.108 Y-64.549
X73.226 Y-64.119
X72.32 Y-63.737
X71.394 Y-63.405
X70.45 Y-63.123
X69.49 Y-62.891
X68.518 Y-62.713
X67.536 Y-62.586
X66.547 Y-62.513
X65.555 Y-62.494
X64.561 Y-62.529
X63.568 Y-62.617
X62.581 Y-62.76
X61.601 Y-62.956
X60.632 Y-63.205
X59.676 Y-63.507
X58.737 Y-63.861
X57.817 Y-64.266
X56.919 Y-64.721
X56.045 Y-65.224
X55.199 Y-65.775
X54.383 Y-66.372
X53.599 Y-67.013
X52.85 Y-67.696
X52.139 Y-68.42
X51.467 Y-69.182
X50.836 Y-69.981
X50.249 Y-70.814
X49.707 Y-71.678
X49.212 Y-72.572
X48.766 Y-73.492
X48.37 Y-74.436
X48.026 Y-75.401
X47.734 Y-76.384
X47.495 Y-77.382
X47.311 Y-78.393
X47.182 Y-79.413
X47.108 Y-80.44
X47.09 Y-81.47
X47.127 Y-82.501
X47.221 Y-83.528
X47.37 Y-84.55
X47.575 Y-85.563
X47.834 Y-86.564
X48.148 Y-87.55
X48.514 Y-88.518
X48.933 Y-89.466
X49.403 Y-90.39
X49.922 Y-91.287
X50.49 Y-92.156
X51.105 Y-92.993
X51.764 Y-93.797
X52.466 Y-94.563
X53.21 Y-95.291
X53.992 Y-95.979
X54.811 Y-96.623
X55.665 Y-97.223
X56.551 Y-97.776
X57.467 Y-98.281
X58.409 Y-98.736
X59.377 Y-99.14
X60.366 Y-99.491
X61.374 Y-99.789
X62.399 Y-100.031
X63.437 Y-100.219
X64.485 Y-100.35
X65.541 Y-100.424
X66.601 Y-100.441
X67.662 Y-100.4
X68.722 Y-100.302
X69.776 Y-100.146
X70.822 Y-99.932
X71.857 Y-99.662
X72.878 Y-99.336
X73.881 Y-98.954
X74.864 Y-98.518
X75.823 Y-98.028
X76.755 Y-97.486
X77.658 Y-96.894
X78.529 Y-96.252
X79.364 Y-95.564
X80.162 Y-94.83
X80.92 Y-94.054
X81.636 Y-93.236
X82.307 Y-92.38
X82.931 Y-91.489
X83.506 Y-90.564
X84.031 Y-89.608
X84.503 Y-88.624
X84.922 Y-87.616
X85.286 Y-86.586
X85.594 Y-85.537
X85.844 Y-84.472
X86.037 Y-83.394
X86.171 Y-82.307
X86.245 Y-81.213
X86.261 Y-80.117
X86.217 Y-79.02
X86.113 Y-77.927
X85.951 Y-76.84
X85.729 Y-75.763
X85.45 Y-74.699
X85.112 Y-73.65
X84.718 Y-72.621
X84.269 Y-71.614
X83.765 Y-70.632
X83.208 Y-69.677
X82.6 Y-68.754
X81.942 Y-67.864
X81.236 Y-67.01
X80.484 Y-66.194
X79.688 Y-65.42
X78.85 Y-64.69
X77.973 Y-64.005
X77.059 Y-63.367
X76.111 Y-62.78
X75.131 Y-62.244
X74.122 Y-61.762
X73.088 Y-61.334
X72.03 Y-60.963
X70.952 Y-60.649
X69.858 Y-60.393
X68.749 Y-60.197
X67.63 Y-60.061
X66.504 Y-59.986
X65.374 Y-59.972
X64.243 Y-60.02
X63.115 Y-60.129
X61.993 Y-60.299
X60.88 Y-60.529
X59.78 Y-60.821
X58.696 Y-61.172
X57.631 Y-61.581
X56.589 Y-62.049
X55.572 Y-62.573
X54.583 Y-63.152
X53.627 Y-63.784
X52.704 Y-64.468
X51.82 Y-65.203
X50.975 Y-65.985
X50.173 Y-66.812
X49.416 Y-67.683
X48.706 Y-68.595
X48.047 Y-69.544
X47.439 Y-70.529
X46.885 Y-71.547
X46.386 Y-72.594
X45.945 Y-73.668
X45.561 Y-74.765
X45.238 Y-75.883
X44.976 Y-77.017
X44.775 Y-78.165
X44.636 Y-79.322
X44.561 Y-80.487
X44.548 Y-81.655
X44.599 Y-82.823
X44.714 Y-83.987
X44.891 Y-85.143
X45.131 Y-86.29
X45.433 Y-87.422
X45.796 Y-88.537
X46.219 Y-89.631
X46.701 Y-90.702
X47.241 Y-91.745
X47.837 Y-92.758
X48.487 Y-93.738
X49.19 Y-94.682
X49.943 Y-95.587
X50.745 Y-96.45
X51.594 Y-97.269
X52.486 Y-98.042
X53.419 Y-98.766
X54.392 Y-99.438
X55.4 Y-100.058
X56.441 Y-100.623
X57.513 Y-101.131
X58.612 Y-101.581
X59.736 Y-101.971
X60.88 Y-102.3
X62.042 Y-102.566
X63.219 Y-102.77
X64.406 Y-102.91
X65.601 Y-102.986
X66.801 Y-102.996
X68.001 Y-102.942
X69.198 Y-102.822
X70.389 Y-102.637
X71.57 Y-102.388
X72.737 Y-102.075
X73.887 Y-101.698
X75.017 Y-101.259
X76.123 Y-100.758
X77.202 Y-100.198
X78.25 Y-99.579
X79.264 Y-98.903
X80.241 Y-98.172
X81.179 Y-97.389
X82.073 Y-96.555
X82.922 Y-95.673
X83.722 Y-94.746
X84.472 Y-93.775
X85.169 Y-92.765
X85.81 Y-91.717
X86.394 Y-90.635
X86.919 Y-89.523
X87.383 Y-88.383
X87.785 Y-87.218
X88.124 Y-86.033
X88.398 Y-84.83
X88.606 Y-83.614
X88.749 Y-82.387
X88.824 Y-81.154
X88.833 Y-79.918
X88.775 Y-78.682
X88.649 Y-77.45
X88.457 Y-76.227
X88.199 Y-75.014
X87.875 Y-73.817
X87.487 Y-72.638
X87.035 Y-71.481
X86.52 Y-70.35
X85.945 Y-69.247
X85.31 Y-68.176
X84.617 Y-67.14
X83.869 Y-66.143
X83.067 Y-65.186
X82.213 Y-64.274
X81.311 Y-63.408
X80.362 Y-62.592
X79.369 Y-61.828
X78.335 Y-61.118
X77.262 Y-60.464
X76.155 Y-59.869
X75.016 Y-59.334
X73.848 Y-58.861
X72.655 Y-58.451
X71.44 Y-58.106
X70.207 Y-57.828
X68.959 Y-57.616
X67.7 Y-57.472
X66.433 Y-57.397
X65.162 Y-57.39
X63.891 Y-57.452
X62.624 Y-57.583
X61.365 Y-57.783
X60.116 Y-58.051
X58.883 Y-58.387
X57.668 Y-58.79
X56.475 Y-59.258
X55.308 Y-59.792
X54.17 Y-60.388
X53.065 Y-61.046
X51.996 Y-61.763
X50.967 Y-62.539
X49.979 Y-63.37
X49.038 Y-64.254
X48.145 Y-65.188
X47.304 Y-66.169
X46.518 Y-67.194
X45.788 Y-68.26
X45.117 Y-69.364
X44.506 Y-70.503
X43.957 Y-71.673
X43.473 Y-72.87
X43.053 Y-74.092
X42.7 Y-75.335
X42.414 Y-76.595
X42.195 Y-77.869
X42.046 Y-79.152
X41.966 Y-80.442
X41.954 Y-81.734
X42.012 Y-83.024
X42.139 Y-84.31
X42.334 Y-85.587
X42.597 Y-86.852
X42.927 Y-88.101
X43.324 Y-89.331
X43.785 Y-90.538
X44.311 Y-91.719
X44.898 Y-92.869
X45.545 Y-93.987
X46.251 Y-95.069
X47.014 Y-96.112
X47.831 Y-97.113
X48.7 Y-98.07
X49.619 Y-98.978
X50.584 Y-99.837
X51.593 Y-100.644
X52.644 Y-101.396
X53.733 Y-102.091
X54.857 Y-102.728
X56.013 Y-103.304
X57.198 Y-103.819
X58.409 Y-104.271
X59.641 Y-104.659
X60.893 Y-104.981
X62.159 Y-105.238
X63.437 Y-105.427
X64.723 Y-105.55
X66.014 Y-105.604
X67.306 Y-105.591
X68.596 Y-105.51
X69.879 Y-105.362
X71.153 Y-105.147
X72.414 Y-104.866
X73.659 Y-104.52
X74.884 Y-104.11
X76.087 Y-103.637
X77.263 Y-103.102
X78.41 Y-102.508
X79.525 Y-101.855
X80.605 Y-101.146
X81.647 Y-100.382
X82.649 Y-99.566
X83.608 Y-98.699
X84.521 Y-97.785
X85.386 Y-96.825
X86.201 Y-95.823
X86.963 Y-94.78
X87.671 Y-93.699
X88.323 Y-92.583
X88.916 Y-91.435
X89.449 Y-90.258
X89.921 Y-89.056
X90.331 Y-87.83
X90.679 Y-86.586
X90.962 Y-85.325
X91.181 Y-84.052
X91.335 Y-82.769
X91.424 Y-81.48
X91.448 Y-80.188
X91.406 Y-78.897
X91.299 Y-77.609
X91.128 Y-76.329
X90.891 Y-75.058
X90.591 Y-73.802
X90.226 Y-72.562
X89.799 Y-71.343
X89.31 Y-70.147
X88.761 Y-68.977
X88.153 Y-67.837
X87.489 Y-66.729
X86.769 Y-65.656
X85.997 Y-64.62
X85.174 Y-63.624
X84.302 Y-62.671
X83.383 Y-61.762
X82.42 Y-60.901
X81.415 Y-60.089
X80.371 Y-59.328
X79.289 Y-58.621
X78.173 Y-57.97
X77.026 Y-57.376
X75.85 Y-56.841
X74.649 Y-56.365
X73.425 Y-55.949
X72.183 Y-55.594
X70.924 Y-55.302
X69.653 Y-55.072
X68.372 Y-54.905
X67.82 Y-54.861
X67.732 Y-54.855
X67.644 Y-54.851
X67.555 Y-54.85
X65.686
X64.396 Y-54.915
X63.166 Y-54.974
X61.894 Y-55.105
X60.618 Y-55.307
X59.354 Y-55.576
X58.106 Y-55.911
X56.877 Y-56.309
X55.67 Y-56.769
X54.487 Y-57.288
X53.331 Y-57.865
X52.204 Y-58.499
X51.111 Y-59.188
X50.054 Y-59.931
X49.035 Y-60.725
X48.057 Y-61.569
X47.121 Y-62.459
X46.229 Y-63.394
X45.384 Y-64.372
X44.587 Y-65.389
X43.84 Y-66.443
X43.145 Y-67.532
X42.504 Y-68.654
X41.919 Y-69.806
X41.392 Y-70.985
X40.922 Y-72.189
X40.512 Y-73.414
X40.474 Y-73.548
X40.405 Y-73.842
X40.364 Y-74.142
X40.35 Y-74.444
Y-85.317
X40.411 Y-86.533
X40.502 Y-87.402
X40.651 Y-88.333
X40.858 Y-89.291
X41.141 Y-90.329
X41.505 Y-91.424
X41.951 Y-92.554
X42.476 Y-93.701
X42.57 Y-93.879
X42.739 Y-94.164
X42.935 Y-94.431
X43.158 Y-94.677
G3 X45.245 Y-93.399 I0.866 J0.929
G1 X42.84 Y-85.012
G3 X40.464 Y-84.835 I-1.221 J-0.35
X40.35 Y-85.317 I1.156 J-0.527
G1 Y-91.031
X40.352 Y-91.411
X40.377 Y-91.602
X40.432 Y-91.792
X40.482 Y-91.906
X40.546 Y-92.02
X40.658 Y-92.173
X40.926 Y-92.446
X50.937 Y-102.457
X51.895 Y-103.324
X52.395 Y-103.733
X53.08 Y-104.248
X53.882 Y-104.786
X54.789 Y-105.326
X55.759 Y-105.834
X56.806 Y-106.312
X57.945 Y-106.759
X59.161 Y-107.162
X60.408 Y-107.501
X61.671 Y-107.774
X62.946 Y-107.983
X64.23 Y-108.127
X65.519 Y-108.208
X66.811 Y-108.227
X68.102 Y-108.182
X69.39 Y-108.075
X70.671 Y-107.906
X71.942 Y-107.675
X73.201 Y-107.385
X74.445 Y-107.035
X75.671 Y-106.628
X76.877 Y-106.164
X78.06 Y-105.644
X79.218 Y-105.071
X80.348 Y-104.444
X81.447 Y-103.765
X82.513 Y-103.034
X83.543 Y-102.255
X84.536 Y-101.428
X85.489 Y-100.556
X86.401 Y-99.641
X87.271 Y-98.685
X88.095 Y-97.69
X88.872 Y-96.658
X89.601 Y-95.591
X90.28 Y-94.491
X90.906 Y-93.361
X91.478 Y-92.203
X91.874 Y-91.298
X92.026 Y-90.872
X92.119 Y-90.428
X92.15 Y-89.976
Y-73.891
X92.093 Y-72.748
X92.022 Y-72.072
X91.91 Y-71.374
X91.737 Y-70.569
X91.502 Y-69.712
X91.203 Y-68.811
X90.816 Y-67.831
X90.341 Y-66.794
X89.777 Y-65.72
X89.129 Y-64.633
X88.407 Y-63.562
X87.63 Y-62.529
X86.801 Y-61.539
X85.923 Y-60.59
X85.001 Y-59.685
X84.037 Y-58.825
X83.033 Y-58.011
X81.993 Y-57.245
X80.918 Y-56.528
X79.812 Y-55.861
X78.676 Y-55.245
X78.544 Y-55.181
X78.082 Y-54.998
X77.599 Y-54.887
X77.104 Y-54.85
X67.555
X67.543 Y-54.851
X67.459 Y-54.864 Z-19.97
X67.378 Y-54.876 Z-19.946
X67.302 Y-54.887 Z-19.909
X67.233 Y-54.898 Z-19.859
X67.174 Y-54.907 Z-19.797
X67.126 Y-54.914 Z-19.727
X67.091 Y-54.917 Z-19.649
X67.069 Y-54.918 Z-19.566
X67.062 Y-54.919 Z-19.481
G0 Z5
X92.057 Y-74.381
Z-18.71
G1 Z-19.98 F849.6
G2 X92.149 Y-73.903 I84.916 J-16.01
G1 X92.15 Y-73.891
Y-68.178
X92.122 Y-67.614
X92.073 Y-67.15
X91.998 Y-66.677
X91.877 Y-66.118
X91.719 Y-65.539
X91.495 Y-64.868
X91.227 Y-64.188
X90.875 Y-63.418
X90.441 Y-62.594
X89.939 Y-61.753
X89.332 Y-60.849
X88.619 Y-59.905
X87.801 Y-58.936
X86.916 Y-57.995
X85.983 Y-57.101
X85.007 Y-56.254
X84.126 Y-55.559
X83.763 Y-55.31
X83.37 Y-55.111
X82.954 Y-54.967
X82.522 Y-54.879
X82.083 Y-54.85
X77.104
G3 X76.622 Y-54.964 I0.044 J-1.269
X76.312 Y-57.075 I0.527 J-1.156
G1 X90.045 Y-69.089
G3 X92.036 Y-68.66 I0.836 J0.956
X92.15 Y-68.178 I-1.156 J0.527
G1 Y-63.988
X92.123 Y-63.455
X92.083 Y-63.072
X92.021 Y-62.681
X91.922 Y-62.224
X91.79 Y-61.742
X91.61 Y-61.199
X91.383 Y-60.624
X91.088 Y-59.981
X90.743 Y-59.324
X90.303 Y-58.586
X89.785 Y-57.817
X89.184 Y-57.021
X88.526 Y-56.24
X88.195 Y-55.889
X87.866 Y-55.584
X87.499 Y-55.326
X87.101 Y-55.121
X86.678 Y-54.971
X86.239 Y-54.88
X85.792 Y-54.85
X82.083
G3 X81.6 Y-54.964 I0.044 J-1.269
X81.28 Y-57.066 I0.527 J-1.156
G1 X90.034 Y-64.891
G3 X92.036 Y-64.47 I0.846 J0.947
X92.15 Y-63.988 I-1.156 J0.527
G1 Y-60.179
X92.135 Y-59.816
X92.105 Y-59.502
X92.048 Y-59.131
X91.969 Y-58.748
X91.852 Y-58.308
X91.706 Y-57.855
X91.532 Y-57.404
X91.334 Y-56.961
X91.141 Y-56.587
X90.922 Y-56.214
X90.629 Y-55.836
X90.282 Y-55.507
X89.888 Y-55.234
X89.459 Y-55.024
X89.002 Y-54.881
X88.529 Y-54.81
X88.05 Y-54.811
X87.583 Y-54.847
X87.399 Y-54.849
X85.792 Y-54.85
G3 X85.046 Y-57.114 I0.044 J-1.269
G1 X90.092 Y-61.119
G3 X92.033 Y-60.661 I0.79 J0.995
X92.15 Y-60.179 I-1.151 J0.536
G1 X92.153 Y-59.798
X92.157 Y-59.417
X92.176 Y-59.037
X92.222 Y-58.656
X92.277 Y-58.275
X92.317 Y-58.115
X92.354 Y-57.935
X92.38 Y-57.756
X92.395 Y-57.588
X92.401 Y-57.406
X92.398 Y-57.21
X92.385 Y-57.029
X92.361 Y-56.841
X92.323 Y-56.636
X92.278 Y-56.45
X92.222 Y-56.26
X92.149 Y-56.055
X92.071 Y-55.87
X91.981 Y-55.685
X91.872 Y-55.488
X91.859 Y-55.467
X91.64 Y-55.176
X91.374 Y-54.925
X91.071 Y-54.723
X90.737 Y-54.574
X90.384 Y-54.484
X90.02 Y-54.455
X89.656 Y-54.487
X89.303 Y-54.579
X88.922 Y-54.673
X88.541 Y-54.753
X88.161 Y-54.802
X88.05 Y-54.811
G3 X87.555 Y-57.171 I0.143 J-1.262
G1 X90.46 Y-58.858
G3 X92.317 Y-58.115 I0.638 J1.098
G1 X92.472 Y-57.513
X92.616 Y-57.132
X92.732 Y-56.849
X92.787 Y-56.71
X92.825 Y-56.565
X92.851 Y-56.417
X92.867 Y-56.268
X92.873 Y-56.118
X92.869 Y-55.968
X92.856 Y-55.819
X92.834 Y-55.671
X92.828 Y-55.645
X92.723 Y-55.308
X92.558 Y-54.996
X92.34 Y-54.719
X92.075 Y-54.485
X91.773 Y-54.303
X91.443 Y-54.178
X91.095 Y-54.115
X90.742 Y-54.116
X90.395 Y-54.18
X90.065 Y-54.306
X89.623 Y-54.466
X89.303 Y-54.579
G3 X88.429 Y-55.932 I0.509 J-1.288
X92.732 Y-56.849 I2.272 J0.106
G1 X92.777 Y-56.751
X93.112 Y-56.175
X93.181 Y-56.042
X93.238 Y-55.903
X93.28 Y-55.759
X93.306 Y-55.611
X93.319 Y-55.461
X93.279 Y-55.1
X93.166 Y-54.755
X92.982 Y-54.441
X92.737 Y-54.173
X92.442 Y-53.962
X92.108 Y-53.816
X91.752 Y-53.744
X91.389 Y-53.748
X91.034 Y-53.827
X90.704 Y-53.979
G3 X90.34 Y-54.316 I0.761 J-1.186
X90.21 Y-54.523 I1.125 J-0.848
X93.112 Y-56.175 I1.488 J-0.76
G1 X93.22 Y-55.989
X93.483 Y-55.609
X93.569 Y-55.485
X93.633 Y-55.35
X93.678 Y-55.207
X93.707 Y-55.06
X93.72 Y-54.91
X93.718 Y-54.76
X93.648 Y-54.433
X93.511 Y-54.128
X93.314 Y-53.857
X93.064 Y-53.634
X92.774 Y-53.468
X92.455 Y-53.366
X92.122 Y-53.333
X91.789 Y-53.369
X91.472 Y-53.475
X91.183 Y-53.644
G3 X90.976 Y-53.898 I0.473 J-0.597
X90.908 Y-54.052 I1.367 J-0.689
X93.483 Y-55.609 I1.434 J-0.535
G1 X93.847 Y-55.189
X93.94 Y-55.071
X94.016 Y-54.942
X94.072 Y-54.803
X94.109 Y-54.658
X94.131 Y-54.509
X94.136 Y-54.359
X94.127 Y-54.21
X94.104 Y-54.061
X94.1 Y-54.048
X93.992 Y-53.757
X93.827 Y-53.494
X93.611 Y-53.27
X93.354 Y-53.096
X93.066 Y-52.978
X92.76 Y-52.923
X92.449 Y-52.931
X92.147 Y-53.003
X91.866 Y-53.136
X91.618 Y-53.323
X91.183 Y-53.644
G3 X90.916 Y-54.406 I0.469 J-0.592
X93.847 Y-55.189 I1.674 J0.388
G1 X93.874 Y-55.158
X94.188 Y-54.847
X94.225 Y-54.811
X94.328 Y-54.702
X94.416 Y-54.581
X94.483 Y-54.447
X94.532 Y-54.305
X94.564 Y-54.158
X94.56 Y-53.826
X94.483 Y-53.502
X94.336 Y-53.203
X94.127 Y-52.945
X93.866 Y-52.738
X93.566 Y-52.595
X93.242 Y-52.521
X92.909
X92.584 Y-52.594
X92.284 Y-52.737
X92.023 Y-52.942
G3 X91.876 Y-53.172 I0.52 J-0.492
X91.81 Y-53.387 I1.37 J-0.539
X94.225 Y-54.811 I1.436 J-0.325
G1 X94.255 Y-54.782
X94.636 Y-54.477
X94.75 Y-54.379
X94.84 Y-54.259
X94.913 Y-54.128
X94.968 Y-53.988
X95.006 Y-53.843
X95.027 Y-53.695
X95.034 Y-53.545
X95.026 Y-53.395
X95.004 Y-53.247
X94.969 Y-53.101
X94.966 Y-53.091
X94.831 Y-52.799
X94.638 Y-52.541
X94.395 Y-52.329
X94.113 Y-52.173
X93.804 Y-52.079
X93.483 Y-52.052
X93.163 Y-52.093
X92.859 Y-52.201
X92.584 Y-52.369
X92.351 Y-52.591
X92.023 Y-52.942
G3 X91.832 Y-53.392 I0.509 J-0.481
X91.882 Y-53.686 I0.7 J-0.032
X94.636 Y-54.477 I1.686 J0.68
G1 X95.017 Y-54.193
X95.048 Y-54.175
X95.173 Y-54.092
X95.275 Y-53.983
X95.361 Y-53.86
X95.429 Y-53.726
X95.481 Y-53.585
X95.518 Y-53.44
X95.539 Y-53.291
X95.546 Y-53.142
X95.538 Y-52.992
X95.518 Y-52.843
X95.484 Y-52.697
X95.355 Y-52.396
X95.168 Y-52.128
X94.931 Y-51.902
X94.654 Y-51.729
X94.348 Y-51.614
X94.025 Y-51.562
X93.698 Y-51.576
X93.381 Y-51.655
X93.086 Y-51.796
X92.825 Y-51.993
X92.608 Y-52.238
G3 X92.419 Y-52.696 I1.057 J-0.704
X93.479 Y-54.199 I1.246 J-0.246
G1 X94.258 Y-54.314
G3 X94.574 Y-54.321 I0.186 J1.256
X95.048 Y-54.175 I-0.131 J1.263
G1 X95.2 Y-54.085
X95.49 Y-53.931
X95.619 Y-53.854
X95.733 Y-53.756
X95.83 Y-53.642
X95.913 Y-53.517
X95.98 Y-53.383
X96.032 Y-53.242
X96.07 Y-53.097
X96.094 Y-52.949
X96.105 Y-52.799
X96.102 Y-52.65
X96.087 Y-52.5
X96.06 Y-52.353
X96.022 Y-52.208
X95.973 Y-52.066
X95.913 Y-51.929
X95.843 Y-51.796
X95.764 Y-51.668
X95.54 Y-51.416
X95.27 Y-51.213
X94.965 Y-51.066
X94.638 Y-50.983
X94.301 Y-50.964
X93.967 Y-51.013
X93.649 Y-51.126
X93.359 Y-51.299
X93.109 Y-51.526
X92.908 Y-51.797
G3 X92.758 Y-52.27 I1.112 J-0.613
X93.534 Y-53.584 I1.262 J-0.141
G1 X94.449 Y-53.963
G3 X95.49 Y-53.931 I0.486 J1.173
G1 X95.918 Y-53.704
X95.958 Y-53.688
X96.094 Y-53.625
X96.218 Y-53.539
X96.327 Y-53.436
X96.422 Y-53.321
X96.504 Y-53.195
X96.573 Y-53.062
X96.629 Y-52.922
X96.673 Y-52.779
X96.705 Y-52.633
X96.725 Y-52.484
X96.733 Y-52.334
X96.73 Y-52.184
X96.716 Y-52.035
X96.691 Y-51.887
X96.656 Y-51.741
X96.61 Y-51.598
X96.554 Y-51.459
X96.49 Y-51.323
X96.417 Y-51.193
X96.335 Y-51.067
X96.245 Y-50.947
X95.982 Y-50.693
X95.674 Y-50.496
X95.334 Y-50.364
X94.974 Y-50.3
X94.609 Y-50.309
X94.252 Y-50.39
X93.919 Y-50.538
X93.621 Y-50.75
X93.37 Y-51.016
X93.177 Y-51.326
G3 X93.728 Y-52.964 I1.157 J-0.523
G1 X94.918 Y-53.611
G3 X95.469 Y-53.763 I0.606 J1.116
X95.958 Y-53.688 I0.055 J1.269
G1 X96.16 Y-53.607
X96.541 Y-53.461
X96.681 Y-53.407
X96.806 Y-53.325
X96.92 Y-53.227
X97.023 Y-53.118
X97.114 Y-52.999
X97.193 Y-52.872
X97.262 Y-52.738
X97.32 Y-52.6
X97.367 Y-52.457
X97.403 Y-52.312
X97.429 Y-52.164
X97.446 Y-52.015
X97.452 Y-51.865
X97.449 Y-51.715
X97.435 Y-51.566
X97.413 Y-51.417
X97.381 Y-51.271
X97.34 Y-51.127
X97.291 Y-50.985
X97.233 Y-50.846
X97.167 Y-50.712
X97.093 Y-50.581
X97.011 Y-50.455
X96.923 Y-50.335
X96.826 Y-50.218
X96.724 Y-50.108
X96.616 Y-50.004
X96.5 Y-49.905
X96.38 Y-49.814
X96.256 Y-49.729
X95.914 Y-49.568
X95.547 Y-49.475
X95.169 Y-49.456
X94.794 Y-49.51
X94.437 Y-49.636
X94.111 Y-49.829
X93.829 Y-50.081
X93.601 Y-50.383
X93.435 Y-50.723
G3 X93.928 Y-52.174 I1.206 J-0.399
G1 X95.55 Y-53.273
G3 X96.541 Y-53.461 I0.712 J1.051
G1 X96.922 Y-53.361
X97.018 Y-53.34
X97.163 Y-53.301
X97.302 Y-53.245
X97.432 Y-53.17
X97.553 Y-53.081
X97.664 Y-52.98
X97.766 Y-52.87
X97.858 Y-52.752
X97.941 Y-52.627
X98.013 Y-52.495
X98.077 Y-52.36
X98.131 Y-52.22
X98.177 Y-52.077
X98.213 Y-51.931
X98.24 Y-51.784
X98.259 Y-51.635
X98.269 Y-51.485
X98.271 Y-51.335
X98.265 Y-51.181
X98.25 Y-51.024
X98.226 Y-50.866
X98.193 Y-50.706
X98.15 Y-50.545
X98.1 Y-50.39
X98.046 Y-50.248
X97.976 Y-50.092
X97.899 Y-49.942
X97.819 Y-49.805
X97.733 Y-49.675
X97.629 Y-49.535
X97.524 Y-49.408
X97.42 Y-49.295
X97.301 Y-49.18
X97.171 Y-49.067
X97.045 Y-48.969
X96.919 Y-48.881
X96.772 Y-48.79
X96.625 Y-48.71
X96.484 Y-48.643
X96.336 Y-48.582
X95.972 Y-48.491
X95.598 Y-48.467
X95.225 Y-48.511
X94.866 Y-48.622
X94.534 Y-48.796
X94.238 Y-49.027
X93.989 Y-49.308
X93.795 Y-49.63
X93.662 Y-49.981
G3 X94.019 Y-51.195 I1.235 J-0.296
G1 X95.916 Y-53.008
G3 X97.018 Y-53.34 I0.878 J0.918
G1 X97.303 Y-53.279
X97.684 Y-53.208
X97.718 Y-53.204
X97.867 Y-53.181
X98.007 Y-53.127
X98.14 Y-53.058
X98.265 Y-52.976
X98.383 Y-52.883
X98.493 Y-52.781
X98.595 Y-52.671
X98.689 Y-52.554
X98.775 Y-52.431
X98.853 Y-52.303
X98.923 Y-52.171
X98.986 Y-52.034
X99.041 Y-51.894
X99.089 Y-51.747
X99.131 Y-51.593
X99.165 Y-51.432
X99.192 Y-51.266
X99.209 Y-51.095
X99.218 Y-50.918
X99.217 Y-50.738
X99.206 Y-50.555
X99.185 Y-50.37
X99.153 Y-50.183
X99.11 Y-49.995
X99.057 Y-49.807
X98.993 Y-49.621
X98.917 Y-49.435
X98.831 Y-49.252
X98.734 Y-49.071
X98.627 Y-48.896
X98.519 Y-48.74
X98.396 Y-48.581
X98.264 Y-48.427
X98.134 Y-48.292
X97.996 Y-48.162
X97.841 Y-48.033
X97.692 Y-47.921
X97.542 Y-47.821
X97.37 Y-47.719
X97.204 Y-47.633
X97.045 Y-47.56
X96.864 Y-47.49
X96.686 Y-47.431
X96.517 Y-47.386
X96.336 Y-47.347
X96.149 Y-47.318
X95.974 Y-47.3
X95.933 Y-47.298
X95.548 Y-47.317
X95.173 Y-47.408
X94.822 Y-47.569
X94.508 Y-47.793
X94.242 Y-48.072
X94.034 Y-48.397
X93.891 Y-48.755
X93.818 Y-49.134
X93.741 Y-49.581
X93.686 Y-49.895
X93.662 Y-49.981
G3 X94.238 Y-51.363 I1.235 J-0.296
G1 X96.97 Y-53.022
G3 X97.718 Y-53.204 I0.659 J1.085
G1 X98.411 Y-53.131
X98.559 Y-53.108
X98.704 Y-53.069
X98.843 Y-53.014
X98.977 Y-52.947
X99.105 Y-52.868
X99.227 Y-52.78
X99.342 Y-52.684
X99.45 Y-52.58
X99.551 Y-52.47
X99.646 Y-52.353
X99.735 Y-52.232
X99.819 Y-52.101
X99.899 Y-51.961
X99.975 Y-51.811
X100.045 Y-51.65
X100.108 Y-51.481
X100.164 Y-51.304
X100.211 Y-51.119
X100.249 Y-50.926
X100.277 Y-50.727
X100.295 Y-50.52
X100.302 Y-50.308
X100.297 Y-50.091
X100.28 Y-49.871
X100.251 Y-49.649
X100.209 Y-49.426
X100.155 Y-49.202
X100.087 Y-48.979
X100.007 Y-48.757
X99.914 Y-48.539
X99.808 Y-48.323
X99.69 Y-48.112
X99.56 Y-47.907
X99.418 Y-47.708
X99.265 Y-47.515
X99.1 Y-47.33
X98.925 Y-47.154
X98.74 Y-46.986
X98.546 Y-46.829
X98.359 Y-46.694
X98.157 Y-46.563
X97.949 Y-46.445
X97.754 Y-46.347
X97.553 Y-46.26
X97.337 Y-46.18
X97.136 Y-46.117
X96.94 Y-46.068
X96.722 Y-46.025
X96.519 Y-45.997
X96.383 Y-45.985
X95.994
X95.61 Y-46.052
X95.244 Y-46.183
X94.905 Y-46.374
X94.603 Y-46.62
X94.348 Y-46.914
X94.147 Y-47.247
X94.005 Y-47.61
X93.926 Y-47.991
X93.818 Y-49.134
G3 X93.885 Y-49.625 I1.268 J-0.076
X94.28 Y-50.192 I1.2 J0.415
G1 X97.516 Y-52.846
G3 X98.411 Y-53.131 I0.805 J0.982
G1 X99.207 Y-53.055
X99.312 Y-53.04
X99.359 Y-53.033
X99.398 Y-53.028
X99.66 Y-52.941
X99.8 Y-52.887
X99.935 Y-52.821
X100.064 Y-52.746
X100.188 Y-52.662
X100.307 Y-52.57
X100.42 Y-52.471
X100.529 Y-52.365
X100.637 Y-52.246
X100.744 Y-52.117
X100.847 Y-51.977
X100.945 Y-51.826
X101.04 Y-51.663
X101.129 Y-51.488
X101.211 Y-51.302
X101.286 Y-51.106
X101.351 Y-50.9
X101.407 Y-50.685
X101.453 Y-50.461
X101.487 Y-50.227
X101.509 Y-49.985
X101.518 Y-49.736
X101.514 Y-49.482
X101.496 Y-49.223
X101.463 Y-48.96
X101.414 Y-48.695
X101.351 Y-48.428
X101.271 Y-48.16
X101.176 Y-47.892
X101.065 Y-47.626
X100.938 Y-47.365
X100.796 Y-47.107
X100.639 Y-46.857
X100.469 Y-46.616
X100.285 Y-46.382
X100.089 Y-46.159
X99.881 Y-45.948
X99.662 Y-45.747
X99.432 Y-45.559
X99.199 Y-45.389
X98.962 Y-45.234
X98.711 Y-45.089
X98.48 Y-44.972
X98.233 Y-44.863
X97.989 Y-44.771
X97.916 Y-44.748
X97.5 Y-44.65
X97.073 Y-44.617
X96.647 Y-44.648
X96.23 Y-44.744
X95.832 Y-44.902
X95.463 Y-45.119
X95.131 Y-45.389
X94.844 Y-45.706
X94.636 Y-45.976
X94.567 Y-46.087
X94.255 Y-46.696
X94.191 Y-46.848
X94.078 Y-47.229
X93.971 Y-47.61
X93.926 Y-47.991
G3 X94.34 Y-49.006 I1.268 J-0.076
G1 X98.407 Y-52.704
G3 X98.904 Y-52.984 I0.854 J0.94
X99.398 Y-53.028 I0.357 J1.219
G1 X99.588 Y-52.975
X99.969 Y-52.865
X100.16 Y-52.806
X100.35 Y-52.721
X100.731 Y-52.527
X100.921 Y-52.428
X101.112 Y-52.297
X101.493 Y-52.002
X101.732 Y-51.771
X101.841 Y-51.654
X101.948 Y-51.526
X102.052 Y-51.386
X102.154 Y-51.233
X102.253 Y-51.065
X102.347 Y-50.883
X102.434 Y-50.69
X102.513 Y-50.485
X102.585 Y-50.266
X102.647 Y-50.033
X102.699 Y-49.787
X102.738 Y-49.533
X102.764 Y-49.269
X102.776 Y-48.996
X102.773 Y-48.713
X102.754 Y-48.421
X102.719 Y-48.123
X102.666 Y-47.821
X102.596 Y-47.517
X102.508 Y-47.211
X102.401 Y-46.906
X102.276 Y-46.601
X102.132 Y-46.299
X101.971 Y-46.001
X101.791 Y-45.71
X101.595 Y-45.427
X101.383 Y-45.155
X101.291 Y-45.048
X100.942 Y-44.702
X100.545 Y-44.411
X100.109 Y-44.183
G3 X98.4 Y-45.611 I-0.463 J-1.182
G1 X99.504 Y-51.217
G3 X101.493 Y-52.002 I1.246 J0.245
G1 X101.724 Y-51.8
X102.061 Y-51.419
X102.255 Y-51.184
X102.344 Y-51.038
X102.57 Y-50.657
X102.635 Y-50.544
X102.751 Y-50.276
X102.888 Y-49.895
X102.954 Y-49.705
X102.997 Y-49.515
X103.058 Y-49.134
X103.108 Y-48.753
X103.099 Y-48.372
X103.086 Y-47.991
X103.016 Y-47.61
X102.931 Y-47.229
X102.878 Y-47.039
X102.799 Y-46.848
X102.634 Y-46.467
X102.545 Y-46.277
X102.423 Y-46.087
X102.164 Y-45.706
X102.038 Y-45.536
X101.874 Y-45.366
X101.493 Y-44.987
X101.443 Y-44.944
X101.112 Y-44.712
X100.893 Y-44.563
X100.731 Y-44.459
X100.35 Y-44.287
X100.107 Y-44.182
X99.969 Y-44.125
X99.588 Y-44.029
X99.207 Y-43.943
X99.017 Y-43.914
X98.826 Y-43.907
X98.445 Y-43.895
X98.255 Y-43.892
X98.064 Y-43.91
X97.684 Y-43.971
X97.303 Y-44.043
X96.91 Y-44.182
X96.541 Y-44.321
X96.16 Y-44.538
X96.118 Y-44.563
X95.779 Y-44.771
X95.576 Y-44.944
X95.398 Y-45.101
X95.15 Y-45.325
X95.017 Y-45.483
X94.844 Y-45.706
X94.804 Y-45.781 Z-19.972
X94.764 Y-45.854 Z-19.95
X94.727 Y-45.923 Z-19.914
X94.694 Y-45.985 Z-19.865
X94.675 Y-46.044 Z-19.804
X94.66 Y-46.093 Z-19.732
X94.649 Y-46.128 Z-19.653
X94.643 Y-46.15 Z-19.569
X94.64 Y-46.157 Z-19.481
G0 Z5
X50.676 Y-102.036
Z-18.71
G1 Z-19.98 F849.6
G3 X50.937 Y-102.457 I1.19 J0.445
G1 X55.401 Y-106.921
X55.98 Y-107.444
X56.368 Y-107.759
X56.79 Y-108.065
X57.308 Y-108.399
X57.871 Y-108.72
X58.554 Y-109.062
X59.283 Y-109.379
X60.125 Y-109.692
X61.083 Y-109.99
X62.128 Y-110.254
X63.24 Y-110.471
X64.45 Y-110.64
X65.738 Y-110.749
X67.029 Y-110.789
X68.321 Y-110.763
X69.61 Y-110.674
X70.893 Y-110.524
X72.168 Y-110.315
X73.433 Y-110.049
X74.684 Y-109.728
X75.92 Y-109.352
X77.139 Y-108.922
X78.337 Y-108.44
X79.514 Y-107.906
X80.666 Y-107.321
X81.792 Y-106.687
X82.89 Y-106.006
X83.957 Y-105.278
X84.993 Y-104.506
X85.996 Y-103.691
X86.963 Y-102.834
X87.893 Y-101.937
X88.785 Y-101.002
X89.636 Y-100.03
X90.445 Y-99.023
X91.21 Y-97.982
X91.591 Y-97.414
X91.831 Y-96.991
X92.007 Y-96.537
X92.114 Y-96.062
X92.15 Y-95.576
Y-89.976
G3 X92.036 Y-89.494 I-1.269 J-0.044
X90.346 Y-88.868 I-1.156 J-0.527
G1 X55.796 Y-104.903
G3 X55.401 Y-106.921 I0.535 J-1.152
G1 X58.706 Y-110.226
X59.04 Y-110.528
X59.34 Y-110.771
X59.695 Y-111.028
X60.089 Y-111.282
X60.566 Y-111.555
X61.078 Y-111.811
X61.229 Y-111.876
X61.654 Y-112.027
X62.095 Y-112.119
X62.545 Y-112.15
G3 X63.096 Y-109.759 I-0.044 J1.269
G1 X60.23 Y-108.238
G3 X58.706 Y-110.226 I-0.595 J-1.122
G1 X60.078 Y-111.598
X60.353 Y-111.863
X60.524 Y-111.979
X60.734 Y-112.076
X60.925 Y-112.128
X61.115 Y-112.149
X61.877 Y-112.15
X72.162
X73.452 Y-112.085
X74.096 Y-112.03
X75.034 Y-111.91
X76.034 Y-111.726
X77.12 Y-111.465
X78.299 Y-111.113
X79.515 Y-110.677
X80.707 Y-110.177
X81.873 Y-109.621
X83.012 Y-109.011
X84.123 Y-108.352
X85.205 Y-107.645
X86.257 Y-106.895
X87.278 Y-106.102
X88.265 Y-105.27
X89.219 Y-104.398
X90.137 Y-103.489
X91.018 Y-102.544
X91.357 Y-102.147
X91.635 Y-101.772
X91.857 Y-101.361
X92.019 Y-100.923
X92.117 Y-100.467
X92.15 Y-100.001
Y-95.576
G3 X92.036 Y-95.094 I-1.269 J-0.044
X90.077 Y-94.637 I-1.156 J-0.527
G1 X71.403 Y-109.897
G3 X71.68 Y-112.036 I0.804 J-0.983
X72.162 Y-112.15 I0.527 J1.156
G1 X79.018
X79.786 Y-112.112
X80.33 Y-112.055
X80.901 Y-111.963
X81.571 Y-111.819
X82.295 Y-111.621
X83.097 Y-111.354
X83.997 Y-110.999
X84.979 Y-110.549
X86.024 Y-110
X87.133 Y-109.338
X88.205 Y-108.617
X89.24 Y-107.844
X90.239 Y-107.024
X91.007 Y-106.33
X91.193 Y-106.142
X91.475 Y-105.818
X91.712 Y-105.46
X91.901 Y-105.075
X92.039 Y-104.668
X92.122 Y-104.247
X92.15 Y-103.818
Y-100.001
G3 X92.036 Y-99.519 I-1.269 J-0.044
X90.023 Y-99.11 I-1.156 J-0.527
G1 X78.205 Y-109.945
G3 X78.536 Y-112.036 I0.858 J-0.936
X79.018 Y-112.15 I0.527 J1.156
G1 X83.97
X84.501 Y-112.123
X84.929 Y-112.079
X85.391 Y-112.005
X85.928 Y-111.889
X86.49 Y-111.735
X87.136 Y-111.52
X87.831 Y-111.246
X88.578 Y-110.904
X89.362 Y-110.492
X90.021 Y-110.099
X90.549 Y-109.743
X90.838 Y-109.526
X91.167 Y-109.241
X91.457 Y-108.915
X91.7 Y-108.555
X91.894 Y-108.165
X92.036 Y-107.753
X92.121 Y-107.326
X92.15 Y-106.892
Y-103.818
G3 X89.973 Y-102.975 I-1.269 J-0.044
G1 X83.107 Y-109.993
G3 X83.488 Y-112.036 I0.908 J-0.888
X83.97 Y-112.15 I0.527 J1.156
G1 X88.161
X88.539 Y-112.131
X88.86 Y-112.097
X89.182 Y-112.046
X89.519 Y-111.973
X89.82 Y-111.891
X90.133 Y-111.787
X90.416 Y-111.675
X90.788 Y-111.472
X91.126 Y-111.218
X91.426 Y-110.918
X91.679 Y-110.579
X91.882 Y-110.207
X92.03 Y-109.81
X92.12 Y-109.396
X92.15 Y-108.974
G3 X92.036 Y-108.491 I-1.269 J-0.044
X90.155 Y-107.976 I-1.156 J-0.527
G1 X87.479 Y-109.838
G3 X87.678 Y-112.036 I0.726 J-1.042
X88.161 Y-112.15 I0.527 J1.156
G1 X90.446
X90.65 Y-112.14
X90.992 Y-112.067
X91.312 Y-111.925
X91.596 Y-111.719
X91.83 Y-111.459
X92.005 Y-111.156
X92.113 Y-110.823
X92.15 Y-110.475
G3 X92.059 Y-109.986 I-1.668 J-0.058
X91.672 Y-109.363 I-1.577 J-0.547
X89.272 Y-111.594 I-1.169 J-1.149
X89.958 Y-112.058 I1.231 J1.082
X90.446 Y-112.15 I0.545 J1.546
G1 X90.827
X91.017 Y-112.141
X91.208 Y-112.104
X91.357 Y-112.053
X91.506 Y-111.979
X91.589 Y-111.926
X91.686 Y-111.853
X91.783 Y-111.762
X91.917 Y-111.598
X91.97 Y-111.514
X92.046 Y-111.366
X92.099 Y-111.217
X92.139 Y-111.027
X92.15 Y-110.836
Y-106.892
X92.149 Y-106.879
X92.133 Y-106.796 Z-19.97
X92.117 Y-106.715 Z-19.947
X92.103 Y-106.64 Z-19.909
X92.09 Y-106.571 Z-19.859
X92.078 Y-106.513 Z-19.798
X92.069 Y-106.465 Z-19.727
X92.063 Y-106.43 Z-19.649
X92.059 Y-106.409 Z-19.567
X92.057 Y-106.402 Z-19.481
G0 Z5
X36.964 Y-48.027
Z-6.22
G1 Z-7.49 F849.6
G3 X31.039 Y-48.972 Z-7.819 I-2.963 J-0.473 F400.3
X36.964 Y-48.027 Z-8.148 I2.963 J0.473
X31.039 Y-48.972 Z-8.477 I-2.963 J-0.473
X36.964 Y-48.027 Z-8.806 I2.963 J0.473
X31.039 Y-48.972 Z-9.136 I-2.963 J-0.473
X36.964 Y-48.027 Z-9.465 I2.963 J0.473
X31.039 Y-48.972 Z-9.794 I-2.963 J-0.473
X36.964 Y-48.027 Z-10.123 I2.963 J0.473
X31.039 Y-48.972 Z-10.452 I-2.963 J-0.473
X36.964 Y-48.027 Z-10.781 I2.963 J0.473
X31.039 Y-48.972 Z-11.11 I-2.963 J-0.473
X36.964 Y-48.027 Z-11.439 I2.963 J0.473
X31.039 Y-48.972 Z-11.769 I-2.963 J-0.473
X36.964 Y-48.027 Z-12.098 I2.963 J0.473
X31.039 Y-48.972 Z-12.427 I-2.963 J-0.473
X36.964 Y-48.027 Z-12.756 I2.963 J0.473
X31.039 Y-48.972 Z-13.085 I-2.963 J-0.473
X36.964 Y-48.027 Z-13.414 I2.963 J0.473
X31.039 Y-48.972 Z-13.743 I-2.963 J-0.473
X36.964 Y-48.027 Z-14.072 I2.963 J0.473
X31.039 Y-48.972 Z-14.402 I-2.963 J-0.473
X36.964 Y-48.027 Z-14.731 I2.963 J0.473
X31.039 Y-48.972 Z-15.06 I-2.963 J-0.473
X36.964 Y-48.027 Z-15.389 I2.963 J0.473
X31.039 Y-48.972 Z-15.718 I-2.963 J-0.473
X36.964 Y-48.027 Z-16.047 I2.963 J0.473
X31.039 Y-48.972 Z-16.376 I-2.963 J-0.473
X36.964 Y-48.027 Z-16.705 I2.963 J0.473
X31.039 Y-48.972 Z-17.034 I-2.963 J-0.473
X36.964 Y-48.027 Z-17.364 I2.963 J0.473
X31.039 Y-48.972 Z-17.693 I-2.963 J-0.473
X36.964 Y-48.027 Z-18.022 I2.963 J0.473
X31.039 Y-48.972 Z-18.351 I-2.963 J-0.473
X36.964 Y-48.027 Z-18.68 I2.963 J0.473
X31.039 Y-48.972 Z-19.009 I-2.963 J-0.473
X36.964 Y-48.027 Z-19.338 I2.963 J0.473
X31.039 Y-48.972 Z-19.667 I-2.963 J-0.473
X37.001 Y-48.5 Z-19.98 I2.963 J0.473
X31.001 I-3
X37.001 I3
G1 X37.022 Y-47.208 F849.6
Y-46.908
X36.963 Y-46.615
X36.848 Y-46.338
X36.681 Y-46.09
X36.517 Y-45.91
X36.355 Y-45.774
X36.273 Y-45.706
X35.975 Y-45.475
X35.7 Y-45.325
X35.594 Y-45.268
X35.403 Y-45.171
X35.213 Y-45.104
X34.832 Y-44.988
X34.63 Y-44.944
X34.451 Y-44.925
X34.07 Y-44.889
X33.689 Y-44.911
X33.368 Y-44.944
X33.308 Y-44.954
X32.927 Y-45.062
X32.546 Y-45.194
X32.165 Y-45.397
X31.975 Y-45.508
X31.784 Y-45.659
X31.727 Y-45.706
X31.403 Y-45.989
X31.321 Y-46.087
X31.023 Y-46.455
X31.014 Y-46.467
X30.799 Y-46.848
X30.642 Y-47.171
X30.622 Y-47.229
X30.506 Y-47.61
X30.455 Y-47.801
X30.431 Y-47.991
X30.393 Y-48.372
X30.388 Y-48.562
X30.406 Y-48.753
X30.445 Y-49.134
X30.544 Y-49.515
X30.642 Y-49.828
X30.668 Y-49.895
X30.865 Y-50.276
X31.023 Y-50.545
X31.111 Y-50.657
X31.403 Y-51.01
X31.429 Y-51.038
X31.784 Y-51.341
X31.879 Y-51.419
X32.022 Y-51.523
X32.165 Y-51.603
X32.546 Y-51.806
X32.927 Y-51.938
X33.308 Y-52.046
X33.689 Y-52.089
X34.451 Y-52.164
X34.615 Y-52.181
X34.765 Y-52.196
X34.916 Y-52.195
X35.072 Y-52.186
X35.232 Y-52.168
X35.395 Y-52.141
X35.56 Y-52.104
X35.726 Y-52.057
X35.893 Y-52
X36.06 Y-51.932
X36.226 Y-51.854
X36.39 Y-51.766
X36.519 Y-51.688
X36.863 Y-51.436
X37.158 Y-51.131
X37.397 Y-50.779
X37.574 Y-50.392
X37.681 Y-49.981
X37.718 Y-49.557
X37.682 Y-49.134
X37.569 Y-47.991
X37.546 Y-47.807
X37.498 Y-47.624
X37.378 Y-47.229
X37.302 Y-47.039
X37.117 Y-46.691
X36.986 Y-46.467
X36.706 Y-46.12
X36.681 Y-46.09
G3 X34.487 Y-46.663 I-0.953 J-0.839
G1 X33.628 Y-50.67
G3 X34.615 Y-52.181 I1.242 J-0.266
G1 X35.213 Y-52.281
X35.594 Y-52.36
X35.657 Y-52.378
X35.803 Y-52.412
X35.951 Y-52.435
X36.101 Y-52.447
X36.251 Y-52.446
X36.4 Y-52.434
X36.415 Y-52.432
X36.742 Y-52.351
X37.049 Y-52.21
X37.324 Y-52.015
X37.557 Y-51.771
X37.741 Y-51.488
X37.868 Y-51.176
X37.935 Y-50.845
X37.939 Y-50.507
X37.879 Y-50.175
G3 X36.559 Y-48.936 I-1.66 J-0.446
X35.657 Y-52.378 I-0.352 J-1.747
G1 X35.975 Y-52.469
X36.247 Y-52.562
X36.355 Y-52.603
X36.413 Y-52.626
X36.555 Y-52.675
X36.701 Y-52.709
X36.85 Y-52.724
X37 Y-52.722
X37.149 Y-52.705
X37.172 Y-52.7
X37.465 Y-52.605
X37.73 Y-52.449
X37.957 Y-52.241
X38.135 Y-51.99
G3 X38.115 Y-51.028 I-1.398 J0.453
X35.737 Y-51.906 I-1.189 J-0.439
X36.413 Y-52.626 I1.189 J0.439
G1 X36.546 Y-52.68
X36.736 Y-52.73
X36.927 Y-52.751
X37.117 Y-52.743
X37.308 Y-52.705
X37.498 Y-52.636
X37.637 Y-52.562
X37.758 Y-52.476
X37.879 Y-52.367
X37.961 Y-52.274
X38.028 Y-52.181
X38.135 Y-51.99
X38.204 Y-51.8
X38.241 Y-51.609
X38.249 Y-51.419
X38.228 Y-51.228
X38.176 Y-51.038
X38.097 Y-50.829
X38.054 Y-50.754 Z-19.972
X38.013 Y-50.682 Z-19.95
X37.974 Y-50.615 Z-19.914
X37.939 Y-50.554 Z-19.865
X37.898 Y-50.507 Z-19.804
X37.865 Y-50.469 Z-19.732
X37.84 Y-50.441 Z-19.653
X37.825 Y-50.423 Z-19.569
X37.82 Y-50.418 Z-19.481
G0 Z5
X66.18 Y-54.919
Z-18.71
G1 Z-19.98 F849.6
G2 X66.116 Y-54.914 I0.068 J1.268
X65.698 Y-54.851 I0.505 J4.807
G1 X65.686 Y-54.85
X56.925
X56.36 Y-54.878
X56.21 Y-54.887
X56.061 Y-54.897
X55.911 Y-54.91
X55.762 Y-54.925
X55.613 Y-54.943
X55.464 Y-54.962
X55.316 Y-54.984
X55.168 Y-55.008
X55.02 Y-55.034
X54.873 Y-55.061
X54.726 Y-55.09
X54.579 Y-55.121
X54.432 Y-55.154
X54.287 Y-55.189
X54.141 Y-55.225
X53.996 Y-55.263
X53.851 Y-55.303
X53.707 Y-55.343
X53.563 Y-55.386
X53.42 Y-55.43
X53.277 Y-55.475
X53.134 Y-55.522
X52.992 Y-55.571
X52.851 Y-55.62
X52.71 Y-55.671
X52.569 Y-55.724
X52.429 Y-55.777
X52.289 Y-55.832
X52.15 Y-55.888
X52.011 Y-55.945
X51.873 Y-56.004
X51.736 Y-56.063
X51.598 Y-56.124
X51.462 Y-56.186
X51.326 Y-56.249
X51.19 Y-56.313
X51.055 Y-56.378
X50.92 Y-56.444
X50.786 Y-56.512
X50.653 Y-56.58
X50.52 Y-56.649
X50.387 Y-56.72
X50.255 Y-56.791
X50.124 Y-56.863
X49.993 Y-56.936
X49.863 Y-57.011
X49.733 Y-57.086
X49.603 Y-57.162
X49.475 Y-57.239
X49.219 Y-57.395
X48.965 Y-57.555
X48.839 Y-57.637
X48.713 Y-57.719
X48.588 Y-57.802
X48.464 Y-57.886
X48.217 Y-58.056
X47.972 Y-58.229
X47.729 Y-58.405
X47.609 Y-58.494
X47.369 Y-58.675
X47.132 Y-58.859
X46.898 Y-59.046
X46.665 Y-59.235
X46.435 Y-59.428
X46.207 Y-59.623
X45.981 Y-59.82
X45.758 Y-60.021
X45.537 Y-60.223
X45.318 Y-60.429
X45.102 Y-60.637
X44.888 Y-60.847
X44.676 Y-61.06
X44.467 Y-61.275
X44.26 Y-61.492
X44.056 Y-61.712
X43.854 Y-61.934
X43.654 Y-62.158
X43.457 Y-62.384
X43.263 Y-62.613
X43.071 Y-62.844
X42.88 Y-63.078
X42.693 Y-63.312
X42.509 Y-63.549
X42.327 Y-63.787
X42.148 Y-64.028
X41.968 Y-64.275
X41.793 Y-64.519
X41.622 Y-64.765
X41.453 Y-65.013
X41.287 Y-65.264
X41.12 Y-65.52
X40.959 Y-65.773
X40.84 Y-65.965
X40.629 Y-66.368
X40.475 Y-66.796
X40.381 Y-67.241
X40.35 Y-67.695
Y-74.444
G3 X40.464 Y-74.926 I1.269 J0.044
X42.594 Y-75.214 I1.156 J0.527
G1 X57.856 Y-56.933
G3 X56.925 Y-54.85 I-0.975 J0.814
G1 X51.973
X51.413 Y-54.878
X51.003 Y-54.921
X50.55 Y-54.993
X50.234 Y-55.061
X49.914 Y-55.104
X49.592 Y-55.12
X49.269 Y-55.111
X47.985 Y-54.969
X47.696 Y-54.903
X47.403 Y-54.863
X47.108 Y-54.85
G3 X47.197 Y-57.388 I0.044 J-1.269
X52.025 Y-55.216 I-0.244 J6.996
X52.095 Y-55.142 I-5.073 J4.823
X51.973 Y-54.85 I-0.128 J0.118
G1 X44.736
X44.3 Y-54.847
X43.974 Y-54.843
X43.962 Y-54.844
G2 X43.764 Y-54.871 I-0.41 J2.254
X43.498 Y-54.868 I-0.118 J1.265
G1 X43.478 Y-54.866
X43.099 Y-54.821
X43.076 Y-54.819
G2 X42.817 Y-54.76 I0.148 J1.261
X42.631 Y-54.688 I0.734 J2.17
G1 X42.622 Y-54.685
X42.069 Y-54.543
X41.826 Y-54.466
X41.688 Y-54.414
X41.307 Y-54.278
X41.117 Y-54.251
X40.926 Y-54.252
X40.736 Y-54.283
X40.546 Y-54.344
X40.432 Y-54.398
X40.319 Y-54.466
X40.165 Y-54.589
X40.045 Y-54.718
X39.953 Y-54.847
X39.852 Y-55.037
X39.788 Y-55.228
X39.784 Y-55.245
X39.755 Y-55.427
X39.752 Y-55.609
X39.784 Y-55.827
X39.834 Y-55.989
X39.982 Y-56.37
X40.091 Y-56.751
X40.186 Y-57.132
X40.262 Y-57.513
X40.306 Y-57.894
X40.342 Y-58.275
X40.349 Y-59.037
X40.35 Y-60.941
Y-67.695
X40.364 Y-67.78 Z-19.972
X40.377 Y-67.862 Z-19.95
X40.389 Y-67.939 Z-19.914
X40.401 Y-68.008 Z-19.865
X40.403 Y-68.018 Z-19.857
X40.42 Y-68.074 Z-19.796
X40.434 Y-68.12 Z-19.726
X40.444 Y-68.154 Z-19.648
X40.451 Y-68.174 Z-19.566
X40.453 Y-68.181 Z-19.481
G0 Z5
X64.147 Y-78.988
Z-16.21
G1 Z-17.48 F849.6
G3 X68.353 Y-83.267 Z-17.809 I2.103 J-2.14 F400.3
X64.147 Y-78.988 Z-18.138 I-2.103 J2.14
X68.353 Y-83.267 Z-18.467 I2.103 J-2.14
X64.147 Y-78.988 Z-18.796 I-2.103 J2.14
X68.353 Y-83.267 Z-19.126 I2.103 J-2.14
X64.147 Y-78.988 Z-19.455 I-2.103 J2.14
X68.353 Y-83.267 Z-19.784 I2.103 J-2.14
X64.147 Y-78.988 Z-20.113 I-2.103 J2.14
X68.353 Y-83.267 Z-20.442 I2.103 J-2.14
X64.147 Y-78.988 Z-20.771 I-2.103 J2.14
X68.353 Y-83.267 Z-21.1 I2.103 J-2.14
X64.147 Y-78.988 Z-21.429 I-2.103 J2.14
