%
(1001)
(260x400x1mm_facing z0 stock top)
(T0  D=20 CR=0 - ZMIN=-1 - flat end mill)
G90 G94
G17
G21

(Face3)
M9
T0 M6
S6000 M3
G54
M9
G0 X282.899 Y-1.544
Z15
Z5
G1 Z1 F300
G18 G3 X280.899 Z-1 I-2
G1 X270
X-10 F750
G17 G2 Y16.722 J9.133
G1 X270
G3 Y34.988 J9.133
G1 X-10
G2 Y53.254 J9.133
G1 X270
G3 Y71.52 J9.133
G1 X-10
G2 Y89.787 J9.133
G1 X270
G3 Y108.053 J9.133
G1 X-10
G2 Y126.319 J9.133
G1 X270
G3 Y144.585 J9.133
G1 X-10
G2 Y162.851 J9.133
G1 X270
G3 Y181.117 J9.133
G1 X-10
G2 Y199.383 J9.133
G1 X270
G3 Y217.649 J9.133
G1 X-10
G2 Y235.915 J9.133
G1 X270
G3 Y254.181 J9.133
G1 X-10
G2 Y272.447 J9.133
G1 X270
G3 Y290.713 J9.133
G1 X-10
G2 Y308.98 J9.133
G1 X270
G3 Y327.246 J9.133
G1 X-10
G2 Y345.512 J9.133
G1 X270
G3 Y363.778 J9.133
G1 X-10
G2 Y382.044 J9.133
G1 X270
G3 Y400.31 J9.133
G1 X-10
G18 G3 X-12 Z1 K2 F300
G0 Z15
G17
M9
M30
%
