%
(1001)
(length along y axis. Origin far top left)
(T2  D=6 CR=0 - ZMIN=-22 - flat end mill)
G90 G94
G17
G21

(2D Adaptive11)
M9
T2 M6
S6500 M3
G54
M9
G0 X25.219 Y-263.214
Z15
Z5
Z3.1
G1 Z2.5 F250
G2 X22.647 Y-267.548 Z2.292 I-2.719 J-1.316 F200
X19.669 Y-263.489 Z2.084 I-0.147 J3.014
X24.563 Y-262.339 Z1.876 I2.827 J-1.043
X23.708 Y-267.287 Z1.668 I-2.064 J-2.191
X19.495 Y-264.566 Z1.459 I-1.207 J2.753
X23.642 Y-261.757 Z1.251 I3.003 J0.033
X24.603 Y-266.667 Z1.043 I-1.143 J-2.773
X19.714 Y-265.631 Z0.835 I-2.102 J2.134
X22.577 Y-261.543 Z0.627 I2.783 J1.097
X25.216 Y-265.772 Z0.419 I-0.079 J-2.987
X20.297 Y-266.544 Z0.211 I-2.715 J1.24
X21.51 Y-261.722 Z0.002 I2.201 J2.01
X25.468 Y-264.721 Z-0.206 I0.987 J-2.809
X21.164 Y-267.187 Z-0.414 I-2.968 J0.19
X20.58 Y-262.267 Z-0.622 I1.335 J2.653
X25.33 Y-263.654 Z-0.83 I1.917 J-2.264
X22.2 Y-267.478 Z-1.038 I-2.83 J-0.877
X19.908 Y-263.106 Z-1.246 I0.3 J2.944
X24.823 Y-262.709 Z-1.454 I2.588 J-1.427
X23.267 Y-267.38 Z-1.663 I-2.323 J-1.821
X19.581 Y-264.124 Z-1.871 I-0.766 J2.847
X24.014 Y-262.009 Z-2.079 I2.916 J-0.409
X24.225 Y-266.911 Z-2.287 I-1.515 J-2.521
X19.638 Y-265.189 Z-2.495 I-1.724 J2.378
X23.013 Y-261.646 Z-2.703 I2.86 J0.655
X24.951 Y-266.133 Z-2.911 I-0.515 J-2.884
X20.069 Y-266.16 Z-3.119 I-2.45 J1.601
X21.952 Y-261.663 Z-3.328 I2.429 J1.626
X25.35 Y-265.151 Z-3.536 I0.545 J-2.868
X20.815 Y-266.91 Z-3.744 I-2.849 J0.62
X20.971 Y-262.055 Z-3.952 I1.683 J2.376
X25.372 Y-264.096 Z-4.16 I1.526 J-2.476
X21.777 Y-267.344 Z-4.368 I-2.872 J-0.435
X20.197 Y-262.769 Z-4.576 I0.723 J2.81
X25.019 Y-263.105 Z-4.784 I2.3 J-1.763
X22.825 Y-267.406 Z-4.992 I-2.519 J-1.425
X19.73 Y-263.709 Z-5.201 I-0.325 J2.872
X24.338 Y-262.309 Z-5.409 I2.766 J-0.824
X23.823 Y-267.091 Z-5.617 I-1.838 J-2.221
X19.63 Y-264.749 Z-5.825 I-1.322 J2.558
X23.421 Y-261.81 Z-6.033 I2.868 J0.216
X24.64 Y-266.443 Z-6.241 I-0.922 J-2.72
X19.905 Y-265.753 Z-6.449 I-2.139 J1.911
X22.39 Y-261.671 Z-6.657 I2.592 J1.219
X25.171 Y-265.55 Z-6.866 I0.107 J-2.859
X20.519 Y-266.59 Z-7.074 I-2.67 J1.019
X21.382 Y-261.908 Z-7.282 I1.98 J2.056
X25.347 Y-264.531 Z-7.49 I1.115 J-2.623
X23.147 Y-267.306 I-2.85
X20.97 Y-262.124 I-0.65 J2.775
X24.268 Y-262.297 I1.527 J-2.407
X25.347 Y-264.531 I-1.771 J-2.233
G1 X25.36 Y-265.417 F850
X25.393 Y-265.523
X25.421 Y-265.67
X25.43 Y-265.82
X25.423 Y-265.97
X25.403 Y-266.118
X25.37 Y-266.264
X25.325 Y-266.408
X25.271 Y-266.547
X25.207 Y-266.683
X25.135 Y-266.815
X25.055 Y-266.941
X24.967 Y-267.063
X24.87 Y-267.183
X24.764 Y-267.301
X24.648 Y-267.415
X24.523 Y-267.525
X24.389 Y-267.63
X24.246 Y-267.73
X24.095 Y-267.824
X23.936 Y-267.91
X23.77 Y-267.988
X23.597 Y-268.058
X23.419 Y-268.119
X23.235 Y-268.17
X23.046 Y-268.211
X22.853 Y-268.242
X22.657 Y-268.263
X22.459 Y-268.272
X22.259 Y-268.27
X22.058 Y-268.256
X21.857 Y-268.232
X21.656 Y-268.195
X21.457 Y-268.148
X21.26 Y-268.089
X21.066 Y-268.018
X20.876 Y-267.937
X20.69 Y-267.844
X20.508 Y-267.741
X20.333 Y-267.628
X20.164 Y-267.505
X20.001 Y-267.372
X19.846 Y-267.23
X19.699 Y-267.079
X19.561 Y-266.92
X19.431 Y-266.753
X19.403 Y-266.712
X19.251 Y-266.452
X19.14 Y-266.171
X19.073 Y-265.878
X19.05 Y-265.577
Y-263.926
X19.06 Y-263.727
X19.076 Y-263.576
X19.102 Y-263.421
X19.137 Y-263.263
X19.182 Y-263.104
X19.237 Y-262.944
X19.302 Y-262.784
X19.378 Y-262.625
X19.464 Y-262.467
X19.561 Y-262.312
X19.667 Y-262.161
X19.784 Y-262.013
X19.91 Y-261.871
X20.046 Y-261.734
X20.191 Y-261.604
X20.344 Y-261.481
X20.505 Y-261.366
X20.674 Y-261.26
X20.689 Y-261.251
X20.997 Y-261.113
X21.324 Y-261.028
X21.66 Y-261
G2 X21.888 Y-261.054 I-0.021 J-0.6 F250
X22.093 Y-261.992 I-0.249 J-0.546 F850
G1 X20.104 Y-264.297
G2 X19.104 Y-264.154 I-0.454 J0.392
X19.05 Y-263.926 I0.546 J0.249 F250
G1 Y-262.607 F850
X19.058 Y-262.438
X19.129 Y-262.11
X19.266 Y-261.803
X19.464 Y-261.531
X19.714 Y-261.307
X20.005 Y-261.139
X20.324 Y-261.035
X20.658 Y-261
G2 X20.886 Y-261.054 I-0.021 J-0.6 F250
X21.061 Y-262.024 I-0.249 J-0.546 F850
G1 X20.074 Y-263.011
G2 X19.104 Y-262.835 I-0.424 J0.424
X19.05 Y-262.607 I0.546 J0.249 F250
G1 Y-261.802 F850
X19.058 Y-261.652
X19.123 Y-261.444
X19.243 Y-261.262
X19.41 Y-261.12
X19.609 Y-261.031
X19.825 Y-261
G2 X20.056 Y-261.043 I-0.028 J-0.795 F250
X20.351 Y-261.223 I-0.259 J-0.753 F850
X19.308 Y-262.35 I-0.534 J-0.552
X19.094 Y-262.033 I0.509 J0.575
X19.05 Y-261.802 I0.723 J0.257 F250
G1 Y-261.611 F850
X19.06 Y-261.51
X19.079 Y-261.433
X19.103 Y-261.371
X19.135 Y-261.309
X19.196 Y-261.225
X19.28 Y-261.141
X19.323 Y-261.107
X19.402 Y-261.061
X19.481 Y-261.029
X19.582 Y-261.006
X19.683 Y-261
X22.902
X23.194 Y-261.015
X23.357 Y-261.032
X23.523 Y-261.059
X23.691 Y-261.097
X23.859 Y-261.144
X24.028 Y-261.202
X24.196 Y-261.271
X24.363 Y-261.35
X24.527 Y-261.44
X24.688 Y-261.54
X24.844 Y-261.651
X24.996 Y-261.771
X25.143 Y-261.901
X25.283 Y-262.04
X25.416 Y-262.188
X25.541 Y-262.344
X25.578 Y-262.396
X25.738 Y-262.662
X25.855 Y-262.948
X25.926 Y-263.249
X25.95 Y-263.558
G2 X25.896 Y-263.786 I-0.6 J0.021 F250
X24.976 Y-264.006 I-0.546 J0.249 F850
G1 X22.549 Y-262.069
G2 X22.675 Y-261.054 I0.374 J0.469
X22.902 Y-261 I0.249 J-0.546 F250
G1 X24.422 F850
X24.572 Y-261.008
X24.888 Y-261.083
X25.183 Y-261.221
X25.443 Y-261.416
X25.658 Y-261.661
X25.818 Y-261.944
X25.917 Y-262.254
X25.95 Y-262.578
G2 X25.896 Y-262.806 I-0.6 J0.021 F250
X24.915 Y-262.97 I-0.546 J0.249 F850
G1 X24.007 Y-262.012
G2 X24.194 Y-261.054 I0.435 J0.413
X24.422 Y-261 I0.249 J-0.546 F250
G1 X25.177 F850
X25.327 Y-261.008
X25.527 Y-261.073
X25.701 Y-261.191
X25.835 Y-261.352
X25.921 Y-261.544
X25.95 Y-261.752
G2 X25.906 Y-261.983 I-0.763 J0.027 F250
X25.734 Y-262.258 I-0.719 J0.257 F850
X24.669 Y-261.226 I-0.531 J0.517
X24.947 Y-261.045 I0.534 J-0.514
X25.177 Y-261 I0.256 J-0.696 F250
G1 X25.317 F850
X25.418 Y-261.006
X25.519 Y-261.029
X25.598 Y-261.061
X25.677 Y-261.107
X25.72 Y-261.141
X25.804 Y-261.225
X25.865 Y-261.309
X25.897 Y-261.371
X25.921 Y-261.433
X25.94 Y-261.51
X25.95 Y-261.611
Y-266.252
X25.942 Y-266.401
X25.925 Y-266.55
X25.898 Y-266.698
X25.861 Y-266.843
X25.816 Y-266.987
X25.762 Y-267.13
X25.697 Y-267.275
X25.621 Y-267.422
X25.536 Y-267.567
X25.44 Y-267.711
X25.332 Y-267.854
X25.212 Y-267.996
X25.081 Y-268.135
X24.938 Y-268.27
X24.785 Y-268.398
X24.622 Y-268.521
X24.449 Y-268.636
X24.266 Y-268.744
X24.073 Y-268.843
X23.87 Y-268.934
X23.659 Y-269.014
X23.441 Y-269.083
X23.215 Y-269.14
X22.983 Y-269.186
X22.747 Y-269.218
X22.506 Y-269.238
X22.263 Y-269.244
X22.017 Y-269.236
X21.77 Y-269.214
X21.522 Y-269.178
X21.275 Y-269.128
X21.03 Y-269.063
X20.787 Y-268.985
X20.547 Y-268.892
X20.312 Y-268.785
X20.082 Y-268.664
X20.024 Y-268.63
X19.745 Y-268.429
X19.505 Y-268.183
X19.31 Y-267.9
X19.167 Y-267.588
X19.08 Y-267.255
X19.05 Y-266.913
Y-265.577
G2 X19.104 Y-265.349 I0.6 J-0.021 F250
X19.72 Y-265.002 I0.546 J-0.249 F850
G1 X25.421 Y-265.677
G2 X25.896 Y-266.024 I-0.07 J-0.596
X25.95 Y-266.252 I-0.546 J-0.249 F250
G1 Y-267.46 F850
X25.942 Y-267.61
X25.921 Y-267.758
X25.887 Y-267.904
X25.842 Y-268.047
X25.788 Y-268.187
X25.724 Y-268.323
X25.652 Y-268.455
X25.568 Y-268.59
X25.473 Y-268.727
X25.366 Y-268.861
X25.246 Y-268.998
X25.11 Y-269.134
X24.962 Y-269.268
X24.802 Y-269.397
X24.629 Y-269.521
X24.441 Y-269.64
X24.239 Y-269.753
X24.024 Y-269.857
X23.799 Y-269.951
X23.564 Y-270.034
X23.319 Y-270.106
X23.064 Y-270.165
X22.8 Y-270.21
X22.527 Y-270.242
X22.248 Y-270.258
X21.963
X21.674 Y-270.243
X21.383 Y-270.21
X21.12 Y-270.166
X20.858 Y-270.106
X20.618 Y-270.037
X20.408 Y-269.964
X20.182 Y-269.87
X19.862 Y-269.677
X19.584 Y-269.428
X19.357 Y-269.132
X19.188 Y-268.799
X19.085 Y-268.44
X19.05 Y-268.068
Y-266.913
G2 X19.104 Y-266.685 I0.6 J-0.021 F250
X19.707 Y-266.337 I0.546 J-0.249 F850
G1 X25.408 Y-266.883
G2 X25.896 Y-267.232 I-0.057 J-0.597
X25.95 Y-267.46 I-0.546 J-0.249 F250
G1 Y-268.466 F850
X25.942 Y-268.616
X25.923 Y-268.765
X25.89 Y-268.911
X25.845 Y-269.054
X25.79 Y-269.194
X25.726 Y-269.329
X25.653 Y-269.461
X25.569 Y-269.594
X25.474 Y-269.727
X25.364 Y-269.864
X25.239 Y-270.004
X25.102 Y-270.14
X24.951 Y-270.274
X24.782 Y-270.407
X24.597 Y-270.538
X24.399 Y-270.662
X24.188 Y-270.777
X23.96 Y-270.886
X23.715 Y-270.986
X23.455 Y-271.076
X23.183 Y-271.153
X22.902 Y-271.215
X22.614 Y-271.263
X22.319 Y-271.294
X22.02 Y-271.309
X21.723 Y-271.308
X21.447 Y-271.29
X21.198 Y-271.261
X20.938 Y-271.215
X20.727 Y-271.165
X20.503 Y-271.099
X20.294 Y-271.024
X20.271 Y-271.014
X19.928 Y-270.828
X19.629 Y-270.579
X19.383 Y-270.277
X19.2 Y-269.933
X19.088 Y-269.56
X19.05 Y-269.172
Y-268.068
G2 X19.104 Y-267.84 I0.6 J-0.021 F250
X19.691 Y-267.49 I0.546 J-0.249 F850
G1 X25.392 Y-267.889
G2 X25.896 Y-268.239 I-0.042 J-0.599
X25.95 Y-268.466 I-0.546 J-0.249 F250
G1 Y-269.473 F850
X25.942 Y-269.623
X25.922 Y-269.772
X25.888 Y-269.918
X25.842 Y-270.06
X25.786 Y-270.2
X25.721 Y-270.335
X25.647 Y-270.468
X25.563 Y-270.6
X25.465 Y-270.737
X25.351 Y-270.879
X25.223 Y-271.019
X25.082 Y-271.159
X24.921 Y-271.301
X24.743 Y-271.441
X24.553 Y-271.575
X24.345 Y-271.703
X24.118 Y-271.827
X23.873 Y-271.943
X23.615 Y-272.047
X23.345 Y-272.139
X23.065 Y-272.218
X22.779 Y-272.281
X22.484 Y-272.328
X22.191 Y-272.359
X21.897 Y-272.373
X21.62 Y-272.37
X21.374 Y-272.354
X21.108 Y-272.322
X20.89 Y-272.282
X20.675 Y-272.231
X20.452 Y-272.164
X20.265 Y-272.097
X19.924 Y-271.91
X19.626 Y-271.661
X19.381 Y-271.359
X19.2 Y-271.016
X19.088 Y-270.644
X19.05 Y-270.257
Y-269.172
G2 X19.104 Y-268.944 I0.6 J-0.021 F250
X19.681 Y-268.594 I0.546 J-0.249 F850
G1 X25.382 Y-268.895
G2 X25.896 Y-269.245 I-0.032 J-0.599
X25.95 Y-269.473 I-0.546 J-0.249 F250
G1 Y-270.48 F850
X25.942 Y-270.63
X25.921 Y-270.778
X25.887 Y-270.924
X25.841 Y-271.067
X25.786 Y-271.206
X25.721 Y-271.342
X25.647 Y-271.475
X25.561 Y-271.611
X25.459 Y-271.754
X25.344 Y-271.898
X25.215 Y-272.042
X25.067 Y-272.19
X24.901 Y-272.337
X24.723 Y-272.478
X24.527 Y-272.617
X24.31 Y-272.752
X24.077 Y-272.88
X23.83 Y-272.998
X23.571 Y-273.104
X23.299 Y-273.198
X23.02 Y-273.277
X22.732 Y-273.341
X22.442 Y-273.389
X22.152 Y-273.42
X21.861 Y-273.435
X21.591 Y-273.434
X21.352 Y-273.419
X21.092 Y-273.388
X20.879 Y-273.351
X20.668 Y-273.301
X20.448 Y-273.236
X20.377 Y-273.211
X20.059 Y-273.065
X19.771 Y-272.865
X19.522 Y-272.618
X19.32 Y-272.332
X19.172 Y-272.015
X19.081 Y-271.677
X19.05 Y-271.328
Y-270.257
G2 X19.104 Y-270.029 I0.6 J-0.021 F250
X19.673 Y-269.678 I0.546 J-0.249 F850
G1 X25.374 Y-269.901
G2 X25.896 Y-270.252 I-0.023 J-0.6
X25.95 Y-270.48 I-0.546 J-0.249 F250
G1 Y-271.487 F850
X25.942 Y-271.636
X25.923 Y-271.785
X25.889 Y-271.931
X25.845 Y-272.075
X25.79 Y-272.214
X25.727 Y-272.35
X25.655 Y-272.483
X25.569 Y-272.623
X25.467 Y-272.77
X25.354 Y-272.914
X25.224 Y-273.062
X25.074 Y-273.214
X24.912 Y-273.362
X24.734 Y-273.506
X24.535 Y-273.649
X24.318 Y-273.788
X24.087 Y-273.918
X23.843 Y-274.038
X23.584 Y-274.147
X23.313 Y-274.244
X23.035 Y-274.326
X22.748 Y-274.393
X22.461 Y-274.444
X22.174 Y-274.478
X21.887 Y-274.496
X21.634 Y-274.497
X21.363 Y-274.483
X21.136 Y-274.459
X20.907 Y-274.421
X20.685 Y-274.372
X20.495 Y-274.318
X20.397 Y-274.284
X20.075 Y-274.139
X19.783 Y-273.941
X19.53 Y-273.693
X19.325 Y-273.406
X19.174 Y-273.086
X19.081 Y-272.745
X19.05 Y-272.393
Y-271.328
G2 X19.104 Y-271.1 I0.6 J-0.021 F250
X19.666 Y-270.749 I0.546 J-0.249 F850
G1 X25.367 Y-270.908
G2 X25.896 Y-271.259 I-0.017 J-0.6
X25.95 Y-271.487 I-0.546 J-0.249 F250
G1 Y-272.493 F850
X25.942 Y-272.643
X25.925 Y-272.792
X25.894 Y-272.939
X25.852 Y-273.083
X25.8 Y-273.223
X25.738 Y-273.36
X25.669 Y-273.493
X25.584 Y-273.635
X25.485 Y-273.782
X25.375 Y-273.927
X25.247 Y-274.077
X25.1 Y-274.231
X24.942 Y-274.379
X24.765 Y-274.527
X24.569 Y-274.673
X24.355 Y-274.814
X24.127 Y-274.946
X23.886 Y-275.069
X23.63 Y-275.182
X23.363 Y-275.281
X23.085 Y-275.368
X22.802 Y-275.439
X22.517 Y-275.493
X22.229 Y-275.532
X21.944 Y-275.553
X21.691 Y-275.559
X21.417 Y-275.549
X21.186 Y-275.527
X20.96 Y-275.493
X20.733 Y-275.446
X20.542 Y-275.395
X20.334 Y-275.326
X20.319 Y-275.32
X20.013 Y-275.169
X19.737 Y-274.967
X19.499 Y-274.722
X19.307 Y-274.44
X19.166 Y-274.129
X19.079 Y-273.799
X19.05 Y-273.459
Y-272.393
G2 X19.104 Y-272.166 I0.6 J-0.021 F250
X19.66 Y-271.814 I0.546 J-0.249 F850
G1 X25.361 Y-271.914
G2 X25.896 Y-272.265 I-0.011 J-0.6
X25.95 Y-272.493 I-0.546 J-0.249 F250
G1 Y-273.591 F850
X25.942 Y-273.74
X25.919 Y-273.889
X25.884 Y-274.034
X25.838 Y-274.177
X25.782 Y-274.316
X25.718 Y-274.452
X25.64 Y-274.594
X25.552 Y-274.736
X25.449 Y-274.882
X25.328 Y-275.035
X25.194 Y-275.186
X25.045 Y-275.336
X24.875 Y-275.489
X24.688 Y-275.639
X24.488 Y-275.781
X24.272 Y-275.918
X24.037 Y-276.049
X23.786 Y-276.17
X23.525 Y-276.279
X23.252 Y-276.375
X22.973 Y-276.456
X22.69 Y-276.521
X22.404 Y-276.57
X22.12 Y-276.602
X21.835 Y-276.618
X21.588
X21.326 Y-276.603
X21.096 Y-276.577
X20.88 Y-276.541
X20.655 Y-276.489
X20.467 Y-276.435
X20.387 Y-276.407
X20.067 Y-276.261
X19.777 Y-276.062
X19.526 Y-275.815
X19.323 Y-275.528
X19.173 Y-275.21
X19.081 Y-274.87
X19.05 Y-274.52
Y-273.459
G2 X19.104 Y-273.231 I0.6 J-0.021 F250
X19.664 Y-272.88 I0.546 J-0.249 F850
G1 X25.364 Y-273.012
G2 X25.896 Y-273.363 I-0.014 J-0.6
X25.95 Y-273.591 I-0.546 J-0.249 F250
G1 Y-274.597 F850
X25.942 Y-274.747
X25.924 Y-274.896
X25.893 Y-275.043
X25.85 Y-275.186
X25.797 Y-275.327
X25.736 Y-275.464
X25.665 Y-275.599
X25.579 Y-275.744
X25.48 Y-275.89
X25.368 Y-276.038
X25.236 Y-276.192
X25.09 Y-276.345
X24.93 Y-276.495
X24.75 Y-276.645
X24.551 Y-276.793
X24.337 Y-276.934
X24.11 Y-277.066
X23.867 Y-277.19
X23.609 Y-277.303
X23.341 Y-277.403
X23.064 Y-277.49
X22.782 Y-277.56
X22.498 Y-277.614
X22.211 Y-277.653
X21.928 Y-277.674
X21.677 Y-277.679
X21.407 Y-277.669
X21.176 Y-277.648
X20.953 Y-277.614
X20.726 Y-277.567
X20.536 Y-277.516
X20.33 Y-277.448
X20.318 Y-277.444
X20.012 Y-277.292
X19.737 Y-277.091
X19.499 Y-276.845
X19.307 Y-276.563
X19.166 Y-276.253
X19.079 Y-275.922
X19.05 Y-275.582
Y-274.52
G2 X19.104 Y-274.292 I0.6 J-0.021 F250
X19.658 Y-273.941 I0.546 J-0.249 F850
G1 X25.359 Y-274.018
G2 X25.896 Y-274.369 I-0.008 J-0.6
X25.95 Y-274.597 I-0.546 J-0.249 F250
G1 Y-275.665 F850
X25.942 Y-275.815
X25.922 Y-275.963
X25.89 Y-276.11
X25.846 Y-276.253
X25.792 Y-276.393
X25.73 Y-276.53
X25.657 Y-276.669
X25.572 Y-276.81
X25.47 Y-276.96
X25.354 Y-277.11
X25.225 Y-277.26
X25.077 Y-277.414
X24.91 Y-277.569
X24.731 Y-277.717
X24.535 Y-277.862
X24.319 Y-278.002
X24.086 Y-278.137
X23.839 Y-278.261
X23.581 Y-278.373
X23.313 Y-278.472
X23.036 Y-278.556
X22.755 Y-278.625
X22.47 Y-278.678
X22.184 Y-278.715
X21.901 Y-278.736
X21.644 Y-278.739
X21.391 Y-278.729
X21.148 Y-278.705
X20.937 Y-278.673
X20.707 Y-278.624
X20.513 Y-278.571
X20.31 Y-278.502
X20.006 Y-278.35
X19.732 Y-278.148
X19.496 Y-277.903
X19.305 Y-277.622
X19.165 Y-277.312
X19.079 Y-276.983
X19.05 Y-276.644
Y-275.582
G2 X19.104 Y-275.354 I0.6 J-0.021 F250
X19.658 Y-275.003 I0.546 J-0.249 F850
G1 X25.359 Y-275.086
G2 X25.896 Y-275.437 I-0.009 J-0.6
X25.95 Y-275.665 I-0.546 J-0.249 F250
G1 Y-276.721 F850
X25.942 Y-276.871
X25.922 Y-277.02
X25.89 Y-277.166
X25.846 Y-277.31
X25.793 Y-277.45
X25.73 Y-277.586
X25.658 Y-277.724
X25.572 Y-277.866
X25.47 Y-278.017
X25.356 Y-278.166
X25.225 Y-278.318
X25.076 Y-278.473
X24.911 Y-278.626
X24.732 Y-278.774
X24.534 Y-278.92
X24.318 Y-279.062
X24.085 Y-279.196
X23.839 Y-279.32
X23.581 Y-279.432
X23.314 Y-279.531
X23.038 Y-279.616
X22.755 Y-279.685
X22.471 Y-279.738
X22.185 Y-279.775
X21.901 Y-279.796
X21.641 Y-279.8
X21.392 Y-279.79
X21.148 Y-279.766
X20.938 Y-279.734
X20.709 Y-279.685
X20.513 Y-279.632
X20.32 Y-279.567
X20.311 Y-279.564
X20.007 Y-279.412
X19.733 Y-279.21
X19.497 Y-278.965
X19.306 Y-278.683
X19.165 Y-278.374
X19.079 Y-278.044
X19.05 Y-277.705
Y-276.644
G2 X19.104 Y-276.416 I0.6 J-0.021 F250
X19.658 Y-276.065 I0.546 J-0.249 F850
G1 X25.358 Y-276.142
G2 X25.896 Y-276.494 I-0.008 J-0.6
X25.95 Y-276.721 I-0.546 J-0.249 F250
G1 Y-277.778 F850
X25.942 Y-277.928
X25.923 Y-278.076
X25.89 Y-278.223
X25.846 Y-278.366
X25.793 Y-278.507
X25.731 Y-278.643
X25.659 Y-278.78
X25.573 Y-278.923
X25.471 Y-279.074
X25.357 Y-279.223
X25.227 Y-279.375
X25.077 Y-279.53
X24.912 Y-279.684
X24.734 Y-279.832
X24.536 Y-279.978
X24.32 Y-280.12
X24.087 Y-280.254
X23.841 Y-280.378
X23.584 Y-280.491
X23.316 Y-280.59
X23.04 Y-280.675
X22.757 Y-280.745
X22.474 Y-280.798
X22.187 Y-280.835
X21.903 Y-280.856
X21.644 Y-280.86
X21.395 Y-280.85
X21.15 Y-280.827
X20.94 Y-280.795
X20.711 Y-280.746
X20.516 Y-280.693
X20.323 Y-280.629
X20.313 Y-280.625
X20.008 Y-280.473
X19.734 Y-280.272
X19.497 Y-280.026
X19.306 Y-279.745
X19.165 Y-279.435
X19.079 Y-279.105
X19.05 Y-278.766
Y-277.705
G2 X19.104 Y-277.477 I0.6 J-0.021 F250
X19.657 Y-277.126 I0.546 J-0.249 F850
G1 X25.358 Y-277.199
G2 X25.896 Y-277.55 I-0.008 J-0.6
X25.95 Y-277.778 I-0.546 J-0.249 F250
G1 Y-278.825 F850
X25.942 Y-278.975
X25.924 Y-279.124
X25.892 Y-279.271
X25.849 Y-279.415
X25.797 Y-279.555
X25.735 Y-279.692
X25.665 Y-279.828
X25.58 Y-279.971
X25.479 Y-280.122
X25.366 Y-280.27
X25.237 Y-280.422
X25.088 Y-280.578
X24.926 Y-280.731
X24.749 Y-280.88
X24.552 Y-281.026
X24.336 Y-281.169
X24.105 Y-281.304
X23.861 Y-281.429
X23.605 Y-281.542
X23.338 Y-281.642
X23.062 Y-281.728
X22.78 Y-281.799
X22.496 Y-281.854
X22.21 Y-281.893
X21.925 Y-281.915
X21.662 Y-281.921
X21.416 Y-281.912
X21.168 Y-281.889
X20.958 Y-281.858
X20.728 Y-281.811
X20.53 Y-281.758
X20.34 Y-281.696
X20.322 Y-281.688
X20.015 Y-281.537
X19.739 Y-281.336
X19.501 Y-281.091
X19.308 Y-280.808
X19.166 Y-280.497
X19.079 Y-280.166
X19.05 Y-279.826
Y-278.766
G2 X19.104 Y-278.538 I0.6 J-0.021 F250
X19.656 Y-278.187 I0.546 J-0.249 F850
G1 X25.357 Y-278.246
G2 X25.896 Y-278.598 I-0.006 J-0.6
X25.95 Y-278.825 I-0.546 J-0.249 F250
G1 Y-279.893 F850
X25.942 Y-280.043
X25.923 Y-280.192
X25.89 Y-280.338
X25.847 Y-280.482
X25.794 Y-280.622
X25.732 Y-280.759
X25.659 Y-280.898
X25.574 Y-281.039
X25.473 Y-281.19
X25.358 Y-281.341
X25.229 Y-281.491
X25.08 Y-281.646
X24.914 Y-281.801
X24.736 Y-281.95
X24.539 Y-282.095
X24.324 Y-282.236
X24.091 Y-282.371
X23.844 Y-282.496
X23.586 Y-282.609
X23.318 Y-282.709
X23.043 Y-282.794
X22.76 Y-282.864
X22.477 Y-282.918
X22.191 Y-282.955
X21.907 Y-282.976
X21.651 Y-282.981
X21.399 Y-282.971
X21.156 Y-282.948
X20.945 Y-282.916
X20.715 Y-282.868
X20.521 Y-282.815
X20.326 Y-282.751
X20.315 Y-282.747
X20.01 Y-282.595
X19.735 Y-282.393
X19.498 Y-282.148
X19.306 Y-281.866
X19.165 Y-281.556
X19.079 Y-281.226
X19.05 Y-280.886
Y-279.826
G2 X19.104 Y-279.598 I0.6 J-0.021 F250
X19.657 Y-279.247 I0.546 J-0.249 F850
G1 X25.357 Y-279.314
G2 X25.896 Y-279.665 I-0.007 J-0.6
X25.95 Y-279.893 I-0.546 J-0.249 F250
G1 Y-280.95 F850
X25.942 Y-281.099
X25.923 Y-281.248
X25.891 Y-281.395
X25.848 Y-281.538
X25.795 Y-281.679
X25.733 Y-281.815
X25.662 Y-281.953
X25.577 Y-282.095
X25.475 Y-282.246
X25.361 Y-282.395
X25.232 Y-282.547
X25.083 Y-282.703
X24.919 Y-282.857
X24.741 Y-283.005
X24.544 Y-283.152
X24.328 Y-283.294
X24.096 Y-283.429
X23.851 Y-283.554
X23.593 Y-283.666
X23.327 Y-283.766
X23.051 Y-283.852
X22.769 Y-283.922
X22.485 Y-283.976
X22.199 Y-284.014
X21.915 Y-284.036
X21.655 Y-284.041
X21.406 Y-284.032
X21.16 Y-284.009
X20.95 Y-283.977
X20.721 Y-283.93
X20.524 Y-283.877
X20.332 Y-283.813
X20.318 Y-283.808
X20.012 Y-283.656
X19.737 Y-283.455
X19.499 Y-283.21
X19.307 Y-282.927
X19.166 Y-282.617
X19.079 Y-282.287
X19.05 Y-281.947
Y-280.886
G2 X19.104 Y-280.659 I0.6 J-0.021 F250
X19.656 Y-280.307 I0.546 J-0.249 F850
G1 X25.357 Y-280.371
G2 X25.896 Y-280.722 I-0.007 J-0.6
X25.95 Y-280.95 I-0.546 J-0.249 F250
G1 Y-282.006 F850
X25.942 Y-282.156
X25.923 Y-282.305
X25.892 Y-282.451
X25.849 Y-282.595
X25.796 Y-282.736
X25.735 Y-282.872
X25.663 Y-283.01
X25.578 Y-283.152
X25.477 Y-283.303
X25.364 Y-283.452
X25.235 Y-283.604
X25.086 Y-283.76
X24.922 Y-283.914
X24.745 Y-284.062
X24.549 Y-284.208
X24.334 Y-284.351
X24.102 Y-284.486
X23.857 Y-284.611
X23.6 Y-284.724
X23.333 Y-284.824
X23.057 Y-284.91
X22.775 Y-284.981
X22.492 Y-285.035
X22.205 Y-285.074
X21.921 Y-285.096
X21.661 Y-285.101
X21.413 Y-285.093
X21.166 Y-285.07
X20.956 Y-285.038
X20.726 Y-284.991
X20.529 Y-284.938
X20.337 Y-284.875
X20.32 Y-284.869
X20.014 Y-284.717
X19.738 Y-284.516
X19.5 Y-284.271
X19.308 Y-283.988
X19.166 Y-283.678
X19.079 Y-283.347
X19.05 Y-283.007
Y-281.947
G2 X19.104 Y-281.719 I0.6 J-0.021 F250
X19.656 Y-281.368 I0.546 J-0.249 F850
G1 X25.357 Y-281.427
G2 X25.896 Y-281.778 I-0.006 J-0.6
X25.95 Y-282.006 I-0.546 J-0.249 F250
G1 Y-283.054 F850
X25.942 Y-283.203
X25.925 Y-283.352
X25.894 Y-283.499
X25.852 Y-283.643
X25.8 Y-283.784
X25.739 Y-283.921
X25.669 Y-284.057
X25.586 Y-284.2
X25.486 Y-284.35
X25.374 Y-284.499
X25.246 Y-284.651
X25.099 Y-284.807
X24.937 Y-284.96
X24.761 Y-285.109
X24.566 Y-285.256
X24.352 Y-285.399
X24.122 Y-285.535
X23.879 Y-285.66
X23.623 Y-285.774
X23.357 Y-285.876
X23.082 Y-285.963
X22.8 Y-286.035
X22.517 Y-286.091
X22.231 Y-286.131
X21.946 Y-286.155
X21.682 Y-286.161
X21.436 Y-286.154
X21.185 Y-286.132
X20.975 Y-286.102
X20.745 Y-286.055
X20.545 Y-286.003
X20.355 Y-285.942
X20.33 Y-285.932
X20.021 Y-285.781
X19.743 Y-285.58
X19.504 Y-285.335
X19.31 Y-285.052
X19.167 Y-284.74
X19.079 Y-284.408
X19.05 Y-284.066
Y-283.007
G2 X19.104 Y-282.779 I0.6 J-0.021 F250
X19.655 Y-282.428 I0.546 J-0.249 F850
G1 X25.355 Y-282.475
G2 X25.896 Y-282.826 I-0.005 J-0.6
X25.95 Y-283.054 I-0.546 J-0.249 F250
G1 Y-284.121 F850
X25.942 Y-284.271
X25.924 Y-284.42
X25.892 Y-284.567
X25.85 Y-284.71
X25.798 Y-284.851
X25.736 Y-284.988
X25.664 Y-285.127
X25.581 Y-285.268
X25.48 Y-285.418
X25.366 Y-285.57
X25.238 Y-285.72
X25.091 Y-285.875
X24.927 Y-286.03
X24.749 Y-286.179
X24.554 Y-286.324
X24.34 Y-286.466
X24.109 Y-286.602
X23.863 Y-286.728
X23.606 Y-286.841
X23.339 Y-286.942
X23.064 Y-287.028
X22.782 Y-287.1
X22.499 Y-287.155
X22.213 Y-287.193
X21.929 Y-287.216
X21.671 Y-287.222
X21.419 Y-287.213
X21.174 Y-287.191
X20.963 Y-287.16
X20.732 Y-287.112
X20.536 Y-287.06
X20.342 Y-286.997
X20.323 Y-286.99
X20.016 Y-286.838
X19.74 Y-286.637
X19.501 Y-286.392
X19.308 Y-286.109
X19.166 Y-285.798
X19.079 Y-285.467
X19.05 Y-285.126
Y-284.066
G2 X19.104 Y-283.838 I0.6 J-0.021 F250
X19.655 Y-283.487 I0.546 J-0.249 F850
G1 X25.356 Y-283.542
G2 X25.896 Y-283.893 I-0.006 J-0.6
X25.95 Y-284.121 I-0.546 J-0.249 F250
G1 Y-285.178 F850
X25.942 Y-285.328
X25.924 Y-285.477
X25.893 Y-285.623
X25.851 Y-285.767
X25.799 Y-285.908
X25.738 Y-286.045
X25.667 Y-286.182
X25.583 Y-286.324
X25.483 Y-286.475
X25.37 Y-286.624
X25.242 Y-286.776
X25.095 Y-286.931
X24.931 Y-287.085
X24.755 Y-287.234
X24.559 Y-287.381
X24.345 Y-287.523
X24.114 Y-287.659
X23.87 Y-287.784
X23.773 Y-287.827
X23.511 Y-287.923
X23.238 Y-287.981
X22.96 Y-288
G2 X22.733 Y-287.946 I0.021 J0.6 F250
X22.573 Y-286.961 I0.249 J0.546 F850
G1 X24.942 Y-284.759
G2 X25.896 Y-284.95 I0.408 J-0.44
X25.95 Y-285.178 I-0.546 J-0.249 F250
G1 Y-286.275 F850
X25.942 Y-286.425
X25.921 Y-286.573
X25.807 Y-286.908
X25.632 Y-287.215
X25.401 Y-287.484
X25.124 Y-287.703
X24.81 Y-287.866
X24.471 Y-287.966
X24.119 Y-288
G2 X23.891 Y-287.946 I0.021 J0.6 F250
X23.736 Y-286.957 I0.249 J0.546 F850
G1 X24.946 Y-285.853
G2 X25.896 Y-286.047 I0.404 J-0.443
X25.95 Y-286.275 I-0.546 J-0.249 F250
G1 Y-287.081 F850
X25.942 Y-287.23
X25.867 Y-287.476
X25.726 Y-287.691
X25.53 Y-287.858
X25.296 Y-287.964
X25.041 Y-288
G2 X24.809 Y-287.961 I0.031 J0.896 F250
X24.442 Y-287.741 I0.263 J0.857 F850
X25.687 Y-286.481 I0.623 J0.63
X25.911 Y-286.849 I-0.623 J-0.63
X25.95 Y-287.081 I-0.846 J-0.263 F250
G1 Y-287.282 F850
X25.942 Y-287.483
X25.921 Y-287.571
X25.9 Y-287.628
X25.871 Y-287.685
X25.844 Y-287.728
X25.81 Y-287.772
X25.765 Y-287.82
X25.72 Y-287.86
X25.686 Y-287.886
X25.602 Y-287.937
X25.519 Y-287.971
X25.418 Y-287.994
X25.317 Y-288
X21.091
X20.915 Y-287.991
X20.739 Y-287.972
X20.57 Y-287.945
X20.546 Y-287.939
X20.196 Y-287.825
X19.874 Y-287.645
X19.592 Y-287.408
X19.362 Y-287.12
X19.191 Y-286.794
X19.086 Y-286.441
X19.05 Y-286.074
G2 X19.104 Y-285.846 I0.6 J-0.021 F250
X20.056 Y-285.653 I0.546 J-0.249 F850
G1 X21.476 Y-286.959
G2 X21.319 Y-287.946 I-0.406 J-0.442
X21.091 Y-288 I-0.249 J0.546 F250
G1 X20.024 F850
X19.874 Y-287.992
X19.653 Y-287.929
X19.453 Y-287.816
X19.284 Y-287.66
X19.156 Y-287.468
X19.077 Y-287.252
X19.05 Y-287.024
G2 X19.087 Y-286.792 I0.942 J-0.033 F250
X20.229 Y-286.145 I0.904 J-0.265 F850
X20.256 Y-287.963 I-0.238 J-0.913
X20.024 Y-288 I-0.265 J0.905 F250
G1 X19.683 F850
X19.582 Y-287.994
X19.481 Y-287.971
X19.398 Y-287.937
X19.314 Y-287.886
X19.28 Y-287.86
X19.235 Y-287.82
X19.19 Y-287.772
X19.156 Y-287.728
X19.129 Y-287.685
X19.1 Y-287.628
X19.079 Y-287.571
X19.058 Y-287.483
X19.05 Y-287.282
Y-285.126
G2 X19.104 Y-284.898 I0.6 J-0.021 F250
G1 X19.143 Y-284.813 Z-7.483
X19.181 Y-284.73 Z-7.461
X19.217 Y-284.651 Z-7.425
X19.25 Y-284.577 Z-7.375
X19.28 Y-284.512 Z-7.314
X19.305 Y-284.457 Z-7.243
X19.325 Y-284.412 Z-7.162
X19.34 Y-284.379 Z-7.075
X19.349 Y-284.359 Z-6.984
X19.352 Y-284.352 Z-6.89
G0 Z5
X25.219 Y-13.147
Z3.1
G1 Z2.5 F250
G2 X22.647 Y-17.481 Z2.292 I-2.719 J-1.316 F200
X19.669 Y-13.422 Z2.084 I-0.147 J3.014
X24.563 Y-12.272 Z1.876 I2.827 J-1.043
X23.708 Y-17.22 Z1.668 I-2.064 J-2.191
X19.495 Y-14.499 Z1.459 I-1.207 J2.753
X23.642 Y-11.69 Z1.251 I3.003 J0.033
X24.603 Y-16.6 Z1.043 I-1.143 J-2.773
X19.714 Y-15.564 Z0.835 I-2.102 J2.134
X22.577 Y-11.476 Z0.627 I2.783 J1.097
X25.216 Y-15.705 Z0.419 I-0.079 J-2.987
X20.297 Y-16.477 Z0.211 I-2.715 J1.24
X21.51 Y-11.655 Z0.002 I2.201 J2.01
X25.468 Y-14.654 Z-0.206 I0.987 J-2.809
X21.164 Y-17.12 Z-0.414 I-2.968 J0.19
X20.58 Y-12.2 Z-0.622 I1.335 J2.653
X25.33 Y-13.587 Z-0.83 I1.917 J-2.264
X22.2 Y-17.411 Z-1.038 I-2.83 J-0.877
X19.908 Y-13.039 Z-1.246 I0.3 J2.944
X24.823 Y-12.642 Z-1.454 I2.588 J-1.427
X23.267 Y-17.314 Z-1.663 I-2.323 J-1.821
X19.581 Y-14.057 Z-1.871 I-0.766 J2.847
X24.014 Y-11.942 Z-2.079 I2.916 J-0.409
X24.225 Y-16.844 Z-2.287 I-1.515 J-2.521
X19.638 Y-15.122 Z-2.495 I-1.724 J2.378
X23.013 Y-11.579 Z-2.703 I2.86 J0.655
X24.951 Y-16.066 Z-2.911 I-0.515 J-2.884
X20.069 Y-16.093 Z-3.119 I-2.45 J1.601
X21.952 Y-11.596 Z-3.328 I2.429 J1.626
X25.35 Y-15.084 Z-3.536 I0.545 J-2.868
X20.815 Y-16.843 Z-3.744 I-2.849 J0.62
X20.971 Y-11.988 Z-3.952 I1.683 J2.376
X25.372 Y-14.029 Z-4.16 I1.526 J-2.476
X21.777 Y-17.277 Z-4.368 I-2.872 J-0.435
X20.197 Y-12.702 Z-4.576 I0.723 J2.81
X25.019 Y-13.038 Z-4.784 I2.3 J-1.763
X22.825 Y-17.339 Z-4.992 I-2.519 J-1.425
X19.73 Y-13.642 Z-5.201 I-0.325 J2.872
X24.338 Y-12.242 Z-5.409 I2.766 J-0.824
X23.823 Y-17.024 Z-5.617 I-1.838 J-2.221
X19.63 Y-14.682 Z-5.825 I-1.322 J2.558
X23.421 Y-11.743 Z-6.033 I2.868 J0.216
X24.64 Y-16.376 Z-6.241 I-0.922 J-2.72
X19.905 Y-15.686 Z-6.449 I-2.139 J1.911
X22.39 Y-11.604 Z-6.657 I2.592 J1.219
X25.171 Y-15.483 Z-6.866 I0.107 J-2.859
X20.519 Y-16.523 Z-7.074 I-2.67 J1.019
X21.382 Y-11.841 Z-7.282 I1.98 J2.056
X25.347 Y-14.464 Z-7.49 I1.115 J-2.623
X19.647 I-2.85
X25.347 I2.85
G1 X25.36 Y-15.35 F850
X25.393 Y-15.456
X25.421 Y-15.603
X25.43 Y-15.753
X25.423 Y-15.903
X25.403 Y-16.051
X25.37 Y-16.197
X25.325 Y-16.341
X25.271 Y-16.48
X25.207 Y-16.616
X25.135 Y-16.748
X25.055 Y-16.874
X24.967 Y-16.996
X24.87 Y-17.116
X24.764 Y-17.234
X24.648 Y-17.348
X24.523 Y-17.458
X24.389 Y-17.564
X24.246 Y-17.663
X24.095 Y-17.757
X23.936 Y-17.843
X23.77 Y-17.921
X23.597 Y-17.991
X23.419 Y-18.052
X23.235 Y-18.103
X23.046 Y-18.144
X22.853 Y-18.175
X22.657 Y-18.196
X22.459 Y-18.205
X22.259 Y-18.203
X22.058 Y-18.189
X21.857 Y-18.165
X21.656 Y-18.128
X21.457 Y-18.081
X21.26 Y-18.022
X21.066 Y-17.951
X20.876 Y-17.87
X20.69 Y-17.777
X20.508 Y-17.674
X20.333 Y-17.561
X20.164 Y-17.438
X20.001 Y-17.305
X19.846 Y-17.163
X19.699 Y-17.012
X19.561 Y-16.853
X19.52 Y-16.8
X19.34 Y-16.524
X19.208 Y-16.222
X19.127 Y-15.902
X19.1 Y-15.574
Y-13.859
X19.113 Y-13.591
X19.129 Y-13.442
X19.154 Y-13.294
X19.188 Y-13.143
X19.232 Y-12.99
X19.285 Y-12.835
X19.349 Y-12.68
X19.423 Y-12.525
X19.507 Y-12.372
X19.601 Y-12.221
X19.706 Y-12.073
X19.821 Y-11.929
X19.945 Y-11.789
X20.079 Y-11.655
X20.221 Y-11.528
X20.373 Y-11.407
X20.425 Y-11.369
X20.69 Y-11.211
X20.976 Y-11.095
X21.276 Y-11.024
X21.583 Y-11
G2 X21.811 Y-11.054 I-0.021 J-0.6 F250
X22.024 Y-11.983 I-0.249 J-0.546 F850
G1 X20.161 Y-14.222
G2 X19.154 Y-14.087 I-0.461 J0.384
X19.1 Y-13.859 I0.546 J0.249 F250
G1 Y-12.45 F850
X19.108 Y-12.3
X19.179 Y-12.001
X19.311 Y-11.723
X19.496 Y-11.478
X19.727 Y-11.276
X19.995 Y-11.125
X20.288 Y-11.032
X20.593 Y-11
G2 X20.821 Y-11.054 I-0.021 J-0.6 F250
X20.986 Y-12.035 I-0.249 J-0.546 F850
G1 X20.113 Y-12.864
G2 X19.154 Y-12.678 I-0.413 J0.435
X19.1 Y-12.45 I0.546 J0.249 F250
G1 Y-11.735 F850
Y-11.685
Y-11.644
X19.112 Y-11.518
X19.117 Y-11.48
X19.124 Y-11.443
G2 X19.251 Y-11.247 I0.51 J-0.193 F250
X19.697 Y-11.095 I0.382 J-0.388 F850
X19.572 Y-12.157 I-0.063 J-0.531
X19.159 Y-11.871 I0.063 J0.531
X19.1 Y-11.644 I0.476 J0.245 F250
G1 X19.104 Y-11.544 F850
X19.124 Y-11.443
X19.141 Y-11.393
X19.163 Y-11.342
X19.191 Y-11.292
X19.226 Y-11.242
X19.28 Y-11.181
X19.33 Y-11.137
X19.381 Y-11.101
X19.431 Y-11.071
X19.481 Y-11.047
X19.498 Y-11.04
X19.59 Y-11.013
X19.683 Y-11.001
X20.085 Y-11
X23.104
X23.277 Y-11.009
X23.431 Y-11.025
X23.588 Y-11.051
X23.748 Y-11.086
X23.909 Y-11.132
X24.071 Y-11.188
X24.233 Y-11.254
X24.394 Y-11.331
X24.553 Y-11.418
X24.709 Y-11.515
X24.862 Y-11.623
X25.011 Y-11.74
X25.154 Y-11.867
X25.291 Y-12.004
X25.422 Y-12.149
X25.46 Y-12.197
X25.649 Y-12.477
X25.787 Y-12.785
X25.872 Y-13.112
X25.9 Y-13.448
G2 X25.846 Y-13.676 I-0.6 J0.021 F250
X24.914 Y-13.887 I-0.546 J0.249 F850
G1 X22.739 Y-12.059
G2 X22.876 Y-11.054 I0.386 J0.459
X23.104 Y-11 I0.249 J-0.546 F250
G1 X24.422 F850
X24.579 Y-11.008
X24.881 Y-11.072
X25.163 Y-11.198
X25.412 Y-11.38
X25.618 Y-11.61
X25.773 Y-11.877
X25.868 Y-12.17
X25.9 Y-12.477
G2 X25.846 Y-12.705 I-0.6 J0.021 F250
X24.876 Y-12.881 I-0.546 J0.249 F850
G1 X24.019 Y-12.024
G2 X24.194 Y-11.054 I0.424 J0.424
X24.422 Y-11 I0.249 J-0.546 F250
G1 X25.177 F850
X25.22
X25.249 Y-11.001
X25.346 Y-11.006
X25.41 Y-11.013
G2 X25.607 Y-11.137 I-0.158 J-0.471 F250
X25.747 Y-11.522 I-0.356 J-0.347 F850
X24.781 Y-11.447 I-0.483 J0.037
X25.025 Y-11.064 I0.483 J-0.037
X25.249 Y-11.001 I0.239 J-0.421 F250
G1 X25.317 F850
X25.41 Y-11.013
X25.46 Y-11.028
X25.502 Y-11.04
X25.519 Y-11.047
X25.569 Y-11.071
X25.619 Y-11.101
X25.67 Y-11.137
X25.72 Y-11.181
X25.774 Y-11.242
X25.809 Y-11.292
X25.837 Y-11.342
X25.859 Y-11.393
X25.876 Y-11.443
X25.896 Y-11.544
X25.9 Y-11.644
Y-16.185
X25.891 Y-16.374
X25.875 Y-16.523
X25.848 Y-16.67
X25.812 Y-16.816
X25.768 Y-16.959
X25.714 Y-17.099
X25.651 Y-17.24
X25.577 Y-17.383
X25.493 Y-17.526
X25.398 Y-17.667
X25.293 Y-17.807
X25.175 Y-17.945
X25.046 Y-18.081
X24.905 Y-18.213
X24.754 Y-18.341
X24.592 Y-18.462
X24.42 Y-18.576
X24.239 Y-18.682
X24.048 Y-18.78
X23.847 Y-18.868
X23.638 Y-18.947
X23.421 Y-19.016
X23.196 Y-19.072
X22.966 Y-19.117
X22.73 Y-19.149
X22.491 Y-19.168
X22.248 Y-19.174
X22.003 Y-19.165
X21.756 Y-19.143
X21.509 Y-19.107
X21.263 Y-19.056
X21.018 Y-18.991
X20.776 Y-18.912
X20.537 Y-18.819
X20.302 Y-18.712
X20.071 Y-18.59
X19.793 Y-18.389
X19.553 Y-18.143
X19.359 Y-17.86
X19.217 Y-17.548
X19.129 Y-17.217
X19.1 Y-16.875
Y-15.574
G2 X19.154 Y-15.346 I0.6 J-0.021 F250
X19.765 Y-14.999 I0.546 J-0.249 F850
G1 X25.365 Y-15.609
G2 X25.846 Y-15.957 I-0.065 J-0.596
X25.9 Y-16.185 I-0.546 J-0.249 F250
G1 Y-17.393 F850
X25.892 Y-17.543
X25.874 Y-17.691
X25.842 Y-17.838
X25.799 Y-17.982
X25.746 Y-18.122
X25.683 Y-18.258
X25.612 Y-18.39
X25.531 Y-18.524
X25.438 Y-18.658
X25.334 Y-18.791
X25.216 Y-18.925
X25.084 Y-19.061
X24.939 Y-19.193
X24.782 Y-19.32
X24.612 Y-19.443
X24.427 Y-19.562
X24.228 Y-19.674
X24.017 Y-19.778
X23.796 Y-19.872
X23.564 Y-19.955
X23.322 Y-20.027
X23.069 Y-20.087
X22.806 Y-20.133
X22.536 Y-20.166
X22.258 Y-20.183
X21.975 Y-20.185
X21.689 Y-20.171
X21.4 Y-20.141
X21.146 Y-20.099
X20.89 Y-20.042
X20.657 Y-19.977
X20.451 Y-19.906
X20.344 Y-19.862
X20.044 Y-19.709
X19.773 Y-19.507
X19.54 Y-19.262
X19.352 Y-18.982
X19.213 Y-18.674
X19.129 Y-18.347
X19.1 Y-18.01
Y-16.875
G2 X19.154 Y-16.647 I0.6 J-0.021 F250
X19.755 Y-16.298 I0.546 J-0.249 F850
G1 X25.356 Y-16.816
G2 X25.846 Y-17.165 I-0.055 J-0.597
X25.9 Y-17.393 I-0.546 J-0.249 F250
G1 Y-18.399 F850
X25.892 Y-18.549
X25.875 Y-18.698
X25.843 Y-18.845
X25.799 Y-18.988
X25.744 Y-19.128
X25.681 Y-19.264
X25.608 Y-19.395
X25.525 Y-19.528
X25.431 Y-19.66
X25.324 Y-19.795
X25.201 Y-19.932
X25.064 Y-20.069
X24.916 Y-20.201
X24.75 Y-20.333
X24.568 Y-20.462
X24.37 Y-20.586
X24.161 Y-20.701
X23.936 Y-20.809
X23.695 Y-20.908
X23.438 Y-20.997
X23.167 Y-21.074
X22.889 Y-21.137
X22.603 Y-21.185
X22.313 Y-21.216
X22.02 Y-21.232
X21.74 Y-21.231
X21.477 Y-21.215
X21.211 Y-21.184
X20.99 Y-21.145
X20.75 Y-21.089
X20.547 Y-21.029
X20.346 Y-20.958
X20.324 Y-20.949
X19.981 Y-20.763
X19.681 Y-20.514
X19.434 Y-20.212
X19.251 Y-19.867
X19.138 Y-19.494
X19.1 Y-19.105
Y-18.01
G2 X19.154 Y-17.782 I0.6 J-0.021 F250
X19.741 Y-17.433 I0.546 J-0.249 F850
G1 X25.342 Y-17.822
G2 X25.846 Y-18.172 I-0.042 J-0.599
X25.9 Y-18.399 I-0.546 J-0.249 F250
G1 Y-19.406 F850
X25.892 Y-19.556
X25.873 Y-19.705
X25.839 Y-19.851
X25.794 Y-19.994
X25.738 Y-20.133
X25.674 Y-20.268
X25.6 Y-20.4
X25.516 Y-20.533
X25.42 Y-20.667
X25.307 Y-20.808
X25.18 Y-20.948
X25.04 Y-21.087
X24.882 Y-21.227
X24.704 Y-21.367
X24.515 Y-21.5
X24.31 Y-21.627
X24.085 Y-21.749
X23.843 Y-21.864
X23.588 Y-21.967
X23.323 Y-22.058
X23.048 Y-22.135
X22.766 Y-22.198
X22.48 Y-22.244
X22.191 Y-22.274
X21.903 Y-22.288
X21.64 Y-22.286
X21.396 Y-22.27
X21.136 Y-22.239
X20.925 Y-22.201
X20.71 Y-22.15
X20.491 Y-22.084
X20.421 Y-22.059
X20.104 Y-21.913
X19.818 Y-21.713
X19.57 Y-21.466
X19.369 Y-21.18
X19.221 Y-20.864
X19.131 Y-20.526
X19.1 Y-20.178
Y-19.105
G2 X19.154 Y-18.877 I0.6 J-0.021 F250
X19.732 Y-18.527 I0.546 J-0.249 F850
G1 X25.333 Y-18.828
G2 X25.846 Y-19.178 I-0.032 J-0.599
X25.9 Y-19.406 I-0.546 J-0.249 F250
G1 Y-20.413 F850
X25.892 Y-20.563
X25.872 Y-20.711
X25.837 Y-20.857
X25.792 Y-21
X25.736 Y-21.139
X25.671 Y-21.275
X25.596 Y-21.409
X25.512 Y-21.543
X25.411 Y-21.685
X25.295 Y-21.829
X25.167 Y-21.971
X25.02 Y-22.117
X24.855 Y-22.264
X24.678 Y-22.404
X24.484 Y-22.541
X24.271 Y-22.673
X24.04 Y-22.8
X23.795 Y-22.916
X23.538 Y-23.021
X23.272 Y-23.113
X22.999 Y-23.19
X22.716 Y-23.253
X22.433 Y-23.299
X22.148 Y-23.33
X21.871 Y-23.344
X21.62 Y-23.342
X21.354 Y-23.325
X21.136 Y-23.299
X20.902 Y-23.258
X20.69 Y-23.208
X20.5 Y-23.151
X20.425 Y-23.125
X20.107 Y-22.978
X19.82 Y-22.778
X19.571 Y-22.532
X19.37 Y-22.245
X19.222 Y-21.929
X19.131 Y-21.591
X19.1 Y-21.242
Y-20.178
G2 X19.154 Y-19.95 I0.6 J-0.021 F250
X19.725 Y-19.6 I0.546 J-0.249 F850
G1 X25.325 Y-19.834
G2 X25.846 Y-20.185 I-0.025 J-0.599
X25.9 Y-20.413 I-0.546 J-0.249 F250
G1 Y-21.42 F850
X25.892 Y-21.569
X25.872 Y-21.718
X25.839 Y-21.864
X25.794 Y-22.007
X25.739 Y-22.147
X25.675 Y-22.283
X25.603 Y-22.415
X25.517 Y-22.554
X25.415 Y-22.7
X25.302 Y-22.844
X25.173 Y-22.99
X25.024 Y-23.14
X24.862 Y-23.288
X24.685 Y-23.43
X24.489 Y-23.57
X24.275 Y-23.707
X24.045 Y-23.835
X23.802 Y-23.953
X23.548 Y-24.06
X23.284 Y-24.154
X23.009 Y-24.234
X22.731 Y-24.298
X22.448 Y-24.348
X22.164 Y-24.38
X21.89 Y-24.397
X21.642
X21.377 Y-24.383
X21.158 Y-24.359
X20.928 Y-24.32
X20.713 Y-24.272
X20.524 Y-24.218
X20.442 Y-24.189
X20.121 Y-24.044
X19.83 Y-23.845
X19.578 Y-23.598
X19.374 Y-23.311
X19.223 Y-22.992
X19.131 Y-22.652
X19.1 Y-22.3
Y-21.242
G2 X19.154 Y-21.014 I0.6 J-0.021 F250
X19.719 Y-20.663 I0.546 J-0.249 F850
G1 X25.319 Y-20.841
G2 X25.846 Y-21.192 I-0.019 J-0.6
X25.9 Y-21.42 I-0.546 J-0.249 F250
G1 Y-22.426 F850
X25.892 Y-22.576
X25.874 Y-22.725
X25.843 Y-22.872
X25.8 Y-23.015
X25.747 Y-23.156
X25.685 Y-23.292
X25.615 Y-23.425
X25.53 Y-23.565
X25.431 Y-23.712
X25.32 Y-23.856
X25.192 Y-24.004
X25.046 Y-24.156
X24.886 Y-24.304
X24.712 Y-24.449
X24.518 Y-24.592
X24.305 Y-24.73
X24.078 Y-24.861
X23.839 Y-24.982
X23.587 Y-25.091
X23.325 Y-25.188
X23.052 Y-25.271
X22.775 Y-25.339
X22.494 Y-25.392
X22.211 Y-25.428
X21.935 Y-25.448
X21.688 Y-25.452
X21.421 Y-25.441
X21.199 Y-25.419
X20.972 Y-25.384
X20.752 Y-25.337
X20.564 Y-25.286
X20.466 Y-25.253
X20.14 Y-25.11
X19.844 Y-24.912
X19.588 Y-24.664
X19.379 Y-24.375
X19.226 Y-24.054
X19.132 Y-23.711
X19.1 Y-23.356
Y-22.3
G2 X19.154 Y-22.073 I0.6 J-0.021 F250
X19.713 Y-21.722 I0.546 J-0.249 F850
G1 X25.314 Y-21.847
G2 X25.846 Y-22.198 I-0.013 J-0.6
X25.9 Y-22.426 I-0.546 J-0.249 F250
G1 Y-23.483 F850
X25.892 Y-23.633
X25.872 Y-23.781
X25.839 Y-23.928
X25.795 Y-24.071
X25.741 Y-24.211
X25.678 Y-24.347
X25.604 Y-24.486
X25.519 Y-24.625
X25.418 Y-24.771
X25.302 Y-24.921
X25.174 Y-25.068
X25.027 Y-25.219
X24.862 Y-25.37
X24.682 Y-25.517
X24.489 Y-25.658
X24.277 Y-25.795
X24.047 Y-25.925
X23.802 Y-26.047
X23.548 Y-26.155
X23.283 Y-26.251
X23.011 Y-26.333
X22.734 Y-26.399
X22.454 Y-26.45
X22.173 Y-26.484
X21.907 Y-26.502
X21.654 Y-26.504
X21.393 Y-26.492
X21.177 Y-26.47
X20.942 Y-26.432
X20.732 Y-26.386
X20.542 Y-26.333
X20.455 Y-26.303
X20.131 Y-26.16
X19.837 Y-25.961
X19.583 Y-25.714
X19.377 Y-25.425
X19.225 Y-25.105
X19.131 Y-24.763
X19.1 Y-24.41
Y-23.356
G2 X19.154 Y-23.128 I0.6 J-0.021 F250
X19.713 Y-22.777 I0.546 J-0.249 F850
G1 X25.314 Y-22.904
G2 X25.846 Y-23.255 I-0.014 J-0.6
X25.9 Y-23.483 I-0.546 J-0.249 F250
G1 Y-24.53 F850
X25.892 Y-24.68
X25.872 Y-24.829
X25.839 Y-24.975
X25.794 Y-25.118
X25.74 Y-25.258
X25.677 Y-25.394
X25.604 Y-25.531
X25.519 Y-25.671
X25.417 Y-25.82
X25.302 Y-25.968
X25.172 Y-26.117
X25.024 Y-26.269
X24.859 Y-26.421
X24.681 Y-26.566
X24.486 Y-26.709
X24.272 Y-26.847
X24.041 Y-26.978
X23.798 Y-27.099
X23.544 Y-27.208
X23.281 Y-27.303
X23.008 Y-27.385
X22.733 Y-27.451
X22.452 Y-27.502
X22.171 Y-27.537
X21.904 Y-27.554
X21.655 Y-27.557
X21.392 Y-27.545
X21.176 Y-27.523
X20.943 Y-27.485
X20.732 Y-27.439
X20.543 Y-27.387
X20.456 Y-27.357
X20.132 Y-27.213
X19.838 Y-27.015
X19.584 Y-26.768
X19.377 Y-26.479
X19.225 Y-26.159
X19.131 Y-25.817
X19.1 Y-25.463
Y-24.41
G2 X19.154 Y-24.182 I0.6 J-0.021 F250
X19.713 Y-23.831 I0.546 J-0.249 F850
G1 X25.313 Y-23.951
G2 X25.846 Y-24.302 I-0.013 J-0.6
X25.9 Y-24.53 I-0.546 J-0.249 F250
G1 Y-25.537 F850
X25.892 Y-25.687
X25.876 Y-25.836
X25.847 Y-25.983
X25.805 Y-26.127
X25.754 Y-26.268
X25.694 Y-26.405
X25.625 Y-26.539
X25.542 Y-26.681
X25.445 Y-26.828
X25.336 Y-26.974
X25.209 Y-27.125
X25.064 Y-27.278
X24.908 Y-27.427
X24.734 Y-27.574
X24.541 Y-27.719
X24.331 Y-27.861
X24.107 Y-27.993
X23.87 Y-28.115
X23.621 Y-28.227
X23.36 Y-28.327
X23.089 Y-28.413
X22.815 Y-28.484
X22.535 Y-28.54
X22.254 Y-28.579
X21.977 Y-28.603
X21.731 Y-28.609
X21.463 Y-28.602
X21.237 Y-28.582
X21.014 Y-28.55
X20.79 Y-28.505
X20.601 Y-28.456
X20.395 Y-28.39
X20.382 Y-28.385
X20.073 Y-28.235
X19.795 Y-28.034
X19.555 Y-27.788
X19.36 Y-27.505
X19.217 Y-27.193
X19.129 Y-26.861
X19.1 Y-26.518
Y-25.463
G2 X19.154 Y-25.236 I0.6 J-0.021 F250
X19.708 Y-24.884 I0.546 J-0.249 F850
G1 X25.308 Y-24.958
G2 X25.846 Y-25.309 I-0.008 J-0.6
X25.9 Y-25.537 I-0.546 J-0.249 F250
G1 Y-26.605 F850
X25.892 Y-26.754
X25.874 Y-26.903
X25.843 Y-27.05
X25.8 Y-27.194
X25.748 Y-27.334
X25.686 Y-27.471
X25.613 Y-27.611
X25.531 Y-27.75
X25.432 Y-27.896
X25.317 Y-28.047
X25.191 Y-28.196
X25.047 Y-28.346
X24.884 Y-28.499
X24.706 Y-28.647
X24.514 Y-28.79
X24.305 Y-28.928
X24.078 Y-29.06
X23.835 Y-29.183
X23.583 Y-29.294
X23.319 Y-29.393
X23.048 Y-29.477
X22.773 Y-29.546
X22.494 Y-29.599
X22.214 Y-29.636
X21.935 Y-29.657
X21.687 Y-29.662
X21.433 Y-29.653
X21.197 Y-29.631
X20.987 Y-29.6
X20.76 Y-29.552
X20.569 Y-29.501
X20.368 Y-29.435
X20.062 Y-29.283
X19.787 Y-29.082
X19.549 Y-28.836
X19.357 Y-28.554
X19.216 Y-28.244
X19.129 Y-27.913
X19.1 Y-27.573
Y-26.518
G2 X19.154 Y-26.291 I0.6 J-0.021 F250
X19.709 Y-25.939 I0.546 J-0.249 F850
G1 X25.31 Y-26.026
G2 X25.846 Y-26.377 I-0.009 J-0.6
X25.9 Y-26.605 I-0.546 J-0.249 F250
G1 Y-27.661 F850
X25.892 Y-27.811
X25.874 Y-27.96
X25.842 Y-28.106
X25.799 Y-28.25
X25.746 Y-28.39
X25.684 Y-28.527
X25.612 Y-28.665
X25.528 Y-28.805
X25.428 Y-28.953
X25.314 Y-29.103
X25.187 Y-29.251
X25.041 Y-29.403
X24.877 Y-29.556
X24.7 Y-29.703
X24.507 Y-29.846
X24.296 Y-29.985
X24.067 Y-30.117
X23.824 Y-30.24
X23.571 Y-30.351
X23.308 Y-30.449
X23.037 Y-30.532
X22.761 Y-30.601
X22.482 Y-30.654
X22.202 Y-30.69
X21.923 Y-30.711
X21.674 Y-30.716
X21.424 Y-30.706
X21.187 Y-30.683
X20.978 Y-30.652
X20.752 Y-30.604
X20.56 Y-30.552
X20.365 Y-30.487
X20.06 Y-30.336
X19.785 Y-30.134
X19.548 Y-29.889
X19.356 Y-29.607
X19.215 Y-29.297
X19.129 Y-28.967
X19.1 Y-28.627
Y-27.573
G2 X19.154 Y-27.345 I0.6 J-0.021 F250
X19.709 Y-26.994 I0.546 J-0.249 F850
G1 X25.31 Y-27.082
G2 X25.846 Y-27.433 I-0.009 J-0.6
X25.9 Y-27.661 I-0.546 J-0.249 F250
G1 Y-28.718 F850
X25.892 Y-28.868
X25.873 Y-29.016
X25.841 Y-29.163
X25.797 Y-29.306
X25.744 Y-29.447
X25.682 Y-29.583
X25.609 Y-29.721
X25.525 Y-29.861
X25.424 Y-30.01
X25.31 Y-30.16
X25.182 Y-30.308
X25.035 Y-30.461
X24.87 Y-30.614
X24.693 Y-30.761
X24.499 Y-30.904
X24.287 Y-31.042
X24.058 Y-31.174
X23.814 Y-31.297
X23.56 Y-31.408
X23.297 Y-31.505
X23.026 Y-31.588
X22.75 Y-31.656
X22.471 Y-31.708
X22.191 Y-31.745
X21.912 Y-31.765
X21.664 Y-31.769
X21.414 Y-31.759
X21.178 Y-31.736
X20.97 Y-31.704
X20.744 Y-31.656
X20.553 Y-31.604
X20.467 Y-31.575
X20.141 Y-31.433
X19.844 Y-31.235
X19.588 Y-30.987
X19.38 Y-30.698
X19.226 Y-30.377
X19.132 Y-30.033
X19.1 Y-29.678
Y-28.627
G2 X19.154 Y-28.4 I0.6 J-0.021 F250
X19.709 Y-28.048 I0.546 J-0.249 F850
G1 X25.31 Y-28.139
G2 X25.846 Y-28.49 I-0.01 J-0.6
X25.9 Y-28.718 I-0.546 J-0.249 F250
G1 Y-29.765 F850
X25.892 Y-29.915
X25.874 Y-30.064
X25.842 Y-30.21
X25.799 Y-30.354
X25.746 Y-30.494
X25.684 Y-30.631
X25.612 Y-30.768
X25.528 Y-30.909
X25.427 Y-31.058
X25.314 Y-31.206
X25.186 Y-31.355
X25.039 Y-31.509
X24.876 Y-31.661
X24.7 Y-31.808
X24.506 Y-31.951
X24.294 Y-32.091
X24.065 Y-32.223
X23.822 Y-32.346
X23.569 Y-32.457
X23.307 Y-32.555
X23.036 Y-32.639
X22.759 Y-32.707
X22.481 Y-32.76
X22.2 Y-32.797
X21.932 Y-32.817
X21.683 Y-32.821
X21.419 Y-32.811
X21.202 Y-32.791
X20.97 Y-32.756
X20.756 Y-32.711
X20.568 Y-32.66
X20.471 Y-32.628
X20.144 Y-32.486
X19.847 Y-32.288
X19.59 Y-32.04
X19.381 Y-31.751
X19.226 Y-31.429
X19.132 Y-31.085
X19.1 Y-30.729
Y-29.678
G2 X19.154 Y-29.45 I0.6 J-0.021 F250
X19.709 Y-29.099 I0.546 J-0.249 F850
G1 X25.31 Y-29.186
G2 X25.846 Y-29.537 I-0.009 J-0.6
X25.9 Y-29.765 I-0.546 J-0.249 F250
G1 Y-30.833 F850
X25.892 Y-30.983
X25.872 Y-31.131
X25.839 Y-31.278
X25.795 Y-31.421
X25.741 Y-31.561
X25.678 Y-31.697
X25.604 Y-31.837
X25.519 Y-31.977
X25.417 Y-32.126
X25.3 Y-32.277
X25.171 Y-32.425
X25.024 Y-32.577
X24.857 Y-32.731
X24.678 Y-32.878
X24.483 Y-33.02
X24.271 Y-33.158
X24.04 Y-33.29
X23.796 Y-33.412
X23.542 Y-33.521
X23.277 Y-33.617
X23.006 Y-33.699
X22.73 Y-33.766
X22.451 Y-33.817
X22.171 Y-33.852
X21.907 Y-33.87
X21.655 Y-33.873
X21.395 Y-33.862
X21.18 Y-33.84
X20.945 Y-33.803
X20.736 Y-33.758
X20.547 Y-33.705
X20.459 Y-33.676
X20.134 Y-33.532
X19.84 Y-33.334
X19.585 Y-33.087
X19.378 Y-32.798
X19.225 Y-32.477
X19.132 Y-32.135
X19.1 Y-31.781
Y-30.729
G2 X19.154 Y-30.501 I0.6 J-0.021 F250
X19.711 Y-30.15 I0.546 J-0.249 F850
G1 X25.311 Y-30.254
G2 X25.846 Y-30.605 I-0.011 J-0.6
X25.9 Y-30.833 I-0.546 J-0.249 F250
G1 Y-31.889 F850
X25.892 Y-32.039
X25.872 Y-32.188
X25.838 Y-32.334
X25.794 Y-32.477
X25.74 Y-32.617
X25.677 Y-32.753
X25.604 Y-32.891
X25.518 Y-33.032
X25.415 Y-33.182
X25.3 Y-33.331
X25.17 Y-33.48
X25.021 Y-33.633
X24.855 Y-33.786
X24.677 Y-33.932
X24.481 Y-34.075
X24.267 Y-34.213
X24.036 Y-34.345
X23.793 Y-34.466
X23.539 Y-34.575
X23.275 Y-34.671
X23.004 Y-34.753
X22.728 Y-34.819
X22.448 Y-34.87
X22.168 Y-34.905
X21.903 Y-34.923
X21.653 Y-34.926
X21.392 Y-34.914
X21.177 Y-34.892
X20.943 Y-34.855
X20.733 Y-34.809
X20.544 Y-34.756
X20.458 Y-34.727
X20.133 Y-34.584
X19.839 Y-34.385
X19.584 Y-34.138
X19.378 Y-33.849
X19.225 Y-33.529
X19.131 Y-33.187
X19.1 Y-32.833
Y-31.781
G2 X19.154 Y-31.553 I0.6 J-0.021 F250
X19.711 Y-31.202 I0.546 J-0.249 F850
G1 X25.312 Y-31.31
G2 X25.846 Y-31.662 I-0.012 J-0.6
X25.9 Y-31.889 I-0.546 J-0.249 F250
G1 Y-32.896 F850
X25.892 Y-33.046
X25.877 Y-33.195
X25.847 Y-33.342
X25.806 Y-33.486
X25.755 Y-33.627
X25.695 Y-33.765
X25.627 Y-33.898
X25.543 Y-34.041
X25.446 Y-34.188
X25.338 Y-34.334
X25.211 Y-34.486
X25.067 Y-34.639
X24.911 Y-34.788
X24.737 Y-34.936
X24.544 Y-35.083
X24.334 Y-35.224
X24.11 Y-35.357
X23.874 Y-35.48
X23.625 Y-35.592
X23.365 Y-35.692
X23.094 Y-35.779
X22.82 Y-35.85
X22.54 Y-35.906
X22.26 Y-35.947
X21.983 Y-35.97
X21.737 Y-35.978
X21.469 Y-35.97
X21.243 Y-35.951
X21.021 Y-35.92
X20.795 Y-35.875
X20.606 Y-35.827
X20.401 Y-35.761
X20.386 Y-35.755
X20.076 Y-35.605
X19.797 Y-35.404
X19.556 Y-35.159
X19.361 Y-34.875
X19.218 Y-34.563
X19.13 Y-34.23
X19.1 Y-33.887
Y-32.833
G2 X19.154 Y-32.605 I0.6 J-0.021 F250
X19.706 Y-32.254 I0.546 J-0.249 F850
G1 X25.307 Y-32.317
G2 X25.846 Y-32.668 I-0.007 J-0.6
X25.9 Y-32.896 I-0.546 J-0.249 F250
G1 Y-33.993 F850
X25.892 Y-34.143
X25.872 Y-34.292
X25.838 Y-34.438
X25.794 Y-34.581
X25.74 Y-34.721
X25.677 Y-34.857
X25.602 Y-34.999
X25.516 Y-35.14
X25.415 Y-35.286
X25.298 Y-35.438
X25.167 Y-35.588
X25.021 Y-35.738
X24.857 Y-35.889
X24.674 Y-36.039
X24.478 Y-36.182
X24.267 Y-36.318
X24.039 Y-36.448
X23.795 Y-36.569
X23.54 Y-36.678
X23.274 Y-36.775
X23.002 Y-36.857
X22.726 Y-36.923
X22.446 Y-36.974
X22.167 Y-37.008
X21.888 Y-37.027
X21.647 Y-37.03
X21.388 Y-37.018
X21.162 Y-36.995
X20.948 Y-36.96
X20.725 Y-36.912
X20.538 Y-36.86
X20.457 Y-36.832
X20.132 Y-36.689
X19.838 Y-36.49
X19.584 Y-36.243
X19.377 Y-35.954
X19.225 Y-35.634
X19.131 Y-35.292
X19.1 Y-34.938
Y-33.887
G2 X19.154 Y-33.659 I0.6 J-0.021 F250
X19.711 Y-33.308 I0.546 J-0.249 F850
G1 X25.312 Y-33.414
G2 X25.846 Y-33.766 I-0.011 J-0.6
X25.9 Y-33.993 I-0.546 J-0.249 F250
G1 Y-35 F850
X25.892 Y-35.15
X25.877 Y-35.3
X25.847 Y-35.447
X25.806 Y-35.591
X25.755 Y-35.732
X25.695 Y-35.869
X25.627 Y-36.003
X25.544 Y-36.146
X25.447 Y-36.292
X25.338 Y-36.438
X25.211 Y-36.589
X25.068 Y-36.743
X24.912 Y-36.892
X24.738 Y-37.04
X24.545 Y-37.186
X24.335 Y-37.327
X24.111 Y-37.46
X23.875 Y-37.583
X23.624 Y-37.696
X23.364 Y-37.796
X23.093 Y-37.883
X22.817 Y-37.955
X22.788 Y-37.961
X22.658 Y-37.983
X22.526 Y-37.996
X22.394 Y-38
G2 X22.166 Y-37.946 I0.021 J0.6 F250
X22.034 Y-36.937 I0.249 J0.546 F850
G1 X24.919 Y-34.558
G2 X25.846 Y-34.772 I0.382 J-0.463
X25.9 Y-35 I-0.546 J-0.249 F250
G1 Y-36.118 F850
X25.892 Y-36.267
X25.87 Y-36.416
X25.835 Y-36.561
X25.789 Y-36.704
X25.733 Y-36.844
X25.729 Y-36.852
X25.538 Y-37.176
X25.289 Y-37.458
X24.991 Y-37.689
X24.656 Y-37.86
X24.295 Y-37.965
X23.92 Y-38
G2 X23.692 Y-37.946 I0.021 J0.6 F250
X23.533 Y-36.961 I0.249 J0.546 F850
G1 X24.892 Y-35.699
G2 X25.846 Y-35.89 I0.408 J-0.44
X25.9 Y-36.118 I-0.546 J-0.249 F250
G1 Y-37.014 F850
X25.892 Y-37.163
X25.827 Y-37.388
X25.711 Y-37.592
X25.551 Y-37.763
X25.355 Y-37.892
X25.135 Y-37.973
X24.903 Y-38
G2 X24.67 Y-37.963 I0.033 J0.954 F250
X24.014 Y-36.796 I0.265 J0.917 F850
X25.863 Y-36.781 I0.926 J-0.251
X25.9 Y-37.014 I-0.922 J-0.266 F250
G1 X25.899 Y-37.416 F850
X25.886 Y-37.517
X25.873 Y-37.567
X25.855 Y-37.618
X25.832 Y-37.668
X25.802 Y-37.718
X25.766 Y-37.768
X25.719 Y-37.819
X25.669 Y-37.863
X25.619 Y-37.899
X25.569 Y-37.929
X25.519 Y-37.953
X25.468 Y-37.971
X25.418 Y-37.985
X25.317 Y-37.999
X24.915 Y-38
X21.494
X21.238 Y-37.987
X21.039 Y-37.966
X20.823 Y-37.93
X20.641 Y-37.89
X20.449 Y-37.835
X20.126 Y-37.691
X19.834 Y-37.492
X19.581 Y-37.245
X19.375 Y-36.957
X19.224 Y-36.638
X19.131 Y-36.297
X19.1 Y-35.944
G2 X19.154 Y-35.717 I0.6 J-0.021 F250
X20.077 Y-35.499 I0.546 J-0.249 F850
G1 X21.85 Y-36.934
G2 X21.722 Y-37.946 I-0.377 J-0.466
X21.494 Y-38 I-0.249 J0.546 F250
G1 X20.176 F850
X20.026 Y-37.993
X19.779 Y-37.929
X19.554 Y-37.809
X19.364 Y-37.638
X19.22 Y-37.428
X19.131 Y-37.189
X19.1 Y-36.936
G2 X19.154 Y-36.708 I0.6 J-0.021 F250
X20.119 Y-36.527 I0.546 J-0.249 F850
G1 X20.574 Y-36.971
G2 X20.404 Y-37.946 I-0.419 J-0.43
X20.176 Y-38 I-0.249 J0.546 F250
G1 X19.683 Y-37.999 F850
X19.582 Y-37.985
X19.532 Y-37.971
X19.481 Y-37.953
X19.431 Y-37.929
X19.381 Y-37.899
X19.331 Y-37.863
X19.28 Y-37.818
X19.234 Y-37.768
X19.198 Y-37.718
X19.168 Y-37.668
X19.145 Y-37.618
X19.127 Y-37.567
X19.114 Y-37.517
X19.101 Y-37.416
X19.1 Y-36.007
Y-34.938
X19.112 Y-34.885 Z-7.483 F250
X19.123 Y-34.834 Z-7.464
X19.133 Y-34.789 Z-7.433
X19.141 Y-34.753 Z-7.392
X19.147 Y-34.726 Z-7.343
X19.152 Y-34.714 Z-7.3
X19.154 Y-34.71 Z-7.254
G0 Z5
X25.219 Y-263.214
Z-4.39
G1 Z-4.99 F250
G2 X22.647 Y-267.548 Z-5.198 I-2.719 J-1.316 F200
X19.669 Y-263.489 Z-5.406 I-0.147 J3.014
X24.563 Y-262.339 Z-5.614 I2.827 J-1.043
X23.708 Y-267.287 Z-5.823 I-2.064 J-2.191
X19.495 Y-264.566 Z-6.031 I-1.207 J2.753
X23.642 Y-261.757 Z-6.239 I3.003 J0.033
X24.603 Y-266.667 Z-6.447 I-1.143 J-2.773
X19.714 Y-265.631 Z-6.655 I-2.102 J2.134
X22.577 Y-261.543 Z-6.863 I2.783 J1.097
X25.216 Y-265.772 Z-7.071 I-0.079 J-2.987
X20.297 Y-266.544 Z-7.279 I-2.715 J1.24
X21.51 Y-261.722 Z-7.488 I2.201 J2.01
X25.468 Y-264.721 Z-7.696 I0.987 J-2.809
X21.164 Y-267.187 Z-7.904 I-2.968 J0.19
X20.58 Y-262.267 Z-8.112 I1.335 J2.653
X25.33 Y-263.654 Z-8.32 I1.917 J-2.264
X22.2 Y-267.478 Z-8.528 I-2.83 J-0.877
X19.908 Y-263.106 Z-8.736 I0.3 J2.944
X24.823 Y-262.709 Z-8.944 I2.588 J-1.427
X23.267 Y-267.38 Z-9.153 I-2.323 J-1.821
X19.581 Y-264.124 Z-9.361 I-0.766 J2.847
X24.014 Y-262.009 Z-9.569 I2.916 J-0.409
X24.225 Y-266.911 Z-9.777 I-1.515 J-2.521
X19.638 Y-265.189 Z-9.985 I-1.724 J2.378
X23.013 Y-261.646 Z-10.193 I2.86 J0.655
X24.951 Y-266.133 Z-10.401 I-0.515 J-2.884
X20.069 Y-266.16 Z-10.609 I-2.45 J1.601
X21.952 Y-261.663 Z-10.818 I2.429 J1.626
X25.35 Y-265.151 Z-11.026 I0.545 J-2.868
X20.815 Y-266.91 Z-11.234 I-2.849 J0.62
X20.971 Y-262.055 Z-11.442 I1.683 J2.376
X25.372 Y-264.096 Z-11.65 I1.526 J-2.476
X21.777 Y-267.344 Z-11.858 I-2.872 J-0.435
X20.197 Y-262.769 Z-12.066 I0.723 J2.81
X25.019 Y-263.105 Z-12.274 I2.3 J-1.763
X22.825 Y-267.406 Z-12.483 I-2.519 J-1.425
X19.73 Y-263.709 Z-12.691 I-0.325 J2.872
X24.338 Y-262.309 Z-12.899 I2.766 J-0.824
X23.823 Y-267.091 Z-13.107 I-1.838 J-2.221
X19.63 Y-264.749 Z-13.315 I-1.322 J2.558
X23.421 Y-261.81 Z-13.523 I2.868 J0.216
X24.64 Y-266.443 Z-13.731 I-0.922 J-2.72
X19.905 Y-265.753 Z-13.939 I-2.139 J1.911
X22.39 Y-261.671 Z-14.148 I2.592 J1.219
X25.171 Y-265.55 Z-14.356 I0.107 J-2.859
X20.519 Y-266.59 Z-14.564 I-2.67 J1.019
X21.382 Y-261.908 Z-14.772 I1.98 J2.056
X25.347 Y-264.531 Z-14.98 I1.115 J-2.623
X23.147 Y-267.306 I-2.85
X20.97 Y-262.124 I-0.65 J2.775
X24.268 Y-262.297 I1.527 J-2.407
X25.347 Y-264.531 I-1.771 J-2.233
G1 X25.36 Y-265.417 F850
X25.393 Y-265.523
X25.421 Y-265.67
X25.43 Y-265.82
X25.423 Y-265.97
X25.403 Y-266.118
X25.37 Y-266.264
X25.325 Y-266.408
X25.271 Y-266.547
X25.207 Y-266.683
X25.135 Y-266.815
X25.055 Y-266.941
X24.967 Y-267.063
X24.87 Y-267.183
X24.764 Y-267.301
X24.648 Y-267.415
X24.523 Y-267.525
X24.389 Y-267.63
X24.246 Y-267.73
X24.095 Y-267.824
X23.936 Y-267.91
X23.77 Y-267.988
X23.597 Y-268.058
X23.419 Y-268.119
X23.235 Y-268.17
X23.046 Y-268.211
X22.853 Y-268.242
X22.657 Y-268.263
X22.459 Y-268.272
X22.259 Y-268.27
X22.058 Y-268.256
X21.857 Y-268.232
X21.656 Y-268.195
X21.457 Y-268.148
X21.26 Y-268.089
X21.066 Y-268.018
X20.876 Y-267.937
X20.69 Y-267.844
X20.508 Y-267.741
X20.333 Y-267.628
X20.164 Y-267.505
X20.001 Y-267.372
X19.846 Y-267.23
X19.699 Y-267.079
X19.561 Y-266.92
X19.431 Y-266.753
X19.403 Y-266.712
X19.251 Y-266.452
X19.14 Y-266.171
X19.073 Y-265.878
X19.05 Y-265.577
Y-263.926
X19.06 Y-263.727
X19.076 Y-263.576
X19.102 Y-263.421
X19.137 Y-263.263
X19.182 Y-263.104
X19.237 Y-262.944
X19.302 Y-262.784
X19.378 Y-262.625
X19.464 Y-262.467
X19.561 Y-262.312
X19.667 Y-262.161
X19.784 Y-262.013
X19.91 Y-261.871
X20.046 Y-261.734
X20.191 Y-261.604
X20.344 Y-261.481
X20.505 Y-261.366
X20.674 Y-261.26
X20.689 Y-261.251
X20.997 Y-261.113
X21.324 Y-261.028
X21.66 Y-261
G2 X21.888 Y-261.054 I-0.021 J-0.6 F250
X22.093 Y-261.992 I-0.249 J-0.546 F850
G1 X20.104 Y-264.297
G2 X19.104 Y-264.154 I-0.454 J0.392
X19.05 Y-263.926 I0.546 J0.249 F250
G1 Y-262.607 F850
X19.058 Y-262.438
X19.129 Y-262.11
X19.266 Y-261.803
X19.464 Y-261.531
X19.714 Y-261.307
X20.005 Y-261.139
X20.324 Y-261.035
X20.658 Y-261
G2 X20.886 Y-261.054 I-0.021 J-0.6 F250
X21.061 Y-262.024 I-0.249 J-0.546 F850
G1 X20.074 Y-263.011
G2 X19.104 Y-262.835 I-0.424 J0.424
X19.05 Y-262.607 I0.546 J0.249 F250
G1 Y-261.802 F850
X19.058 Y-261.652
X19.123 Y-261.444
X19.243 Y-261.262
X19.41 Y-261.12
X19.609 Y-261.031
X19.825 Y-261
G2 X20.056 Y-261.043 I-0.028 J-0.795 F250
X20.351 Y-261.223 I-0.259 J-0.753 F850
X19.308 Y-262.35 I-0.534 J-0.552
X19.094 Y-262.033 I0.509 J0.575
X19.05 Y-261.802 I0.723 J0.257 F250
G1 Y-261.611 F850
X19.06 Y-261.51
X19.079 Y-261.433
X19.103 Y-261.371
X19.135 Y-261.309
X19.196 Y-261.225
X19.28 Y-261.141
X19.323 Y-261.107
X19.402 Y-261.061
X19.481 Y-261.029
X19.582 Y-261.006
X19.683 Y-261
X22.902
X23.194 Y-261.015
X23.357 Y-261.032
X23.523 Y-261.059
X23.691 Y-261.097
X23.859 Y-261.144
X24.028 Y-261.202
X24.196 Y-261.271
X24.363 Y-261.35
X24.527 Y-261.44
X24.688 Y-261.54
X24.844 Y-261.651
X24.996 Y-261.771
X25.143 Y-261.901
X25.283 Y-262.04
X25.416 Y-262.188
X25.541 Y-262.344
X25.578 Y-262.396
X25.738 Y-262.662
X25.855 Y-262.948
X25.926 Y-263.249
X25.95 Y-263.558
G2 X25.896 Y-263.786 I-0.6 J0.021 F250
X24.976 Y-264.006 I-0.546 J0.249 F850
G1 X22.549 Y-262.069
G2 X22.675 Y-261.054 I0.374 J0.469
X22.902 Y-261 I0.249 J-0.546 F250
G1 X24.422 F850
X24.572 Y-261.008
X24.888 Y-261.083
X25.183 Y-261.221
X25.443 Y-261.416
X25.658 Y-261.661
X25.818 Y-261.944
X25.917 Y-262.254
X25.95 Y-262.578
G2 X25.896 Y-262.806 I-0.6 J0.021 F250
X24.915 Y-262.97 I-0.546 J0.249 F850
G1 X24.007 Y-262.012
G2 X24.194 Y-261.054 I0.435 J0.413
X24.422 Y-261 I0.249 J-0.546 F250
G1 X25.177 F850
X25.327 Y-261.008
X25.527 Y-261.073
X25.701 Y-261.191
X25.835 Y-261.352
X25.921 Y-261.544
X25.95 Y-261.752
G2 X25.906 Y-261.983 I-0.763 J0.027 F250
X25.734 Y-262.258 I-0.719 J0.257 F850
X24.669 Y-261.226 I-0.531 J0.517
X24.947 Y-261.045 I0.534 J-0.514
X25.177 Y-261 I0.256 J-0.696 F250
G1 X25.317 F850
X25.418 Y-261.006
X25.519 Y-261.029
X25.598 Y-261.061
X25.677 Y-261.107
X25.72 Y-261.141
X25.804 Y-261.225
X25.865 Y-261.309
X25.897 Y-261.371
X25.921 Y-261.433
X25.94 Y-261.51
X25.95 Y-261.611
Y-266.252
X25.942 Y-266.401
X25.925 Y-266.55
X25.898 Y-266.698
X25.861 Y-266.843
X25.816 Y-266.987
X25.762 Y-267.13
X25.697 Y-267.275
X25.621 Y-267.422
X25.536 Y-267.567
X25.44 Y-267.711
X25.332 Y-267.854
X25.212 Y-267.996
X25.081 Y-268.135
X24.938 Y-268.27
X24.785 Y-268.398
X24.622 Y-268.521
X24.449 Y-268.636
X24.266 Y-268.744
X24.073 Y-268.843
X23.87 Y-268.934
X23.659 Y-269.014
X23.441 Y-269.083
X23.215 Y-269.14
X22.983 Y-269.186
X22.747 Y-269.218
X22.506 Y-269.238
X22.263 Y-269.244
X22.017 Y-269.236
X21.77 Y-269.214
X21.522 Y-269.178
X21.275 Y-269.128
X21.03 Y-269.063
X20.787 Y-268.985
X20.547 Y-268.892
X20.312 Y-268.785
X20.082 Y-268.664
X20.024 Y-268.63
X19.745 Y-268.429
X19.505 Y-268.183
X19.31 Y-267.9
X19.167 Y-267.588
X19.08 Y-267.255
X19.05 Y-266.913
Y-265.577
G2 X19.104 Y-265.349 I0.6 J-0.021 F250
X19.72 Y-265.002 I0.546 J-0.249 F850
G1 X25.421 Y-265.677
G2 X25.896 Y-266.024 I-0.07 J-0.596
X25.95 Y-266.252 I-0.546 J-0.249 F250
G1 Y-267.46 F850
X25.942 Y-267.61
X25.921 Y-267.758
X25.887 Y-267.904
X25.842 Y-268.047
X25.788 Y-268.187
X25.724 Y-268.323
X25.652 Y-268.455
X25.568 Y-268.59
X25.473 Y-268.727
X25.366 Y-268.861
X25.246 Y-268.998
X25.11 Y-269.134
X24.962 Y-269.268
X24.802 Y-269.397
X24.629 Y-269.521
X24.441 Y-269.64
X24.239 Y-269.753
X24.024 Y-269.857
X23.799 Y-269.951
X23.564 Y-270.034
X23.319 Y-270.106
X23.064 Y-270.165
X22.8 Y-270.21
X22.527 Y-270.242
X22.248 Y-270.258
X21.963
X21.674 Y-270.243
X21.383 Y-270.21
X21.12 Y-270.166
X20.858 Y-270.106
X20.618 Y-270.037
X20.408 Y-269.964
X20.182 Y-269.87
X19.862 Y-269.677
X19.584 Y-269.428
X19.357 Y-269.132
X19.188 Y-268.799
X19.085 Y-268.44
X19.05 Y-268.068
Y-266.913
G2 X19.104 Y-266.685 I0.6 J-0.021 F250
X19.707 Y-266.337 I0.546 J-0.249 F850
G1 X25.408 Y-266.883
G2 X25.896 Y-267.232 I-0.057 J-0.597
X25.95 Y-267.46 I-0.546 J-0.249 F250
G1 Y-268.466 F850
X25.942 Y-268.616
X25.923 Y-268.765
X25.89 Y-268.911
X25.845 Y-269.054
X25.79 Y-269.194
X25.726 Y-269.329
X25.653 Y-269.461
X25.569 Y-269.594
X25.474 Y-269.727
X25.364 Y-269.864
X25.239 Y-270.004
X25.102 Y-270.14
X24.951 Y-270.274
X24.782 Y-270.407
X24.597 Y-270.538
X24.399 Y-270.662
X24.188 Y-270.777
X23.96 Y-270.886
X23.715 Y-270.986
X23.455 Y-271.076
X23.183 Y-271.153
X22.902 Y-271.215
X22.614 Y-271.263
X22.319 Y-271.294
X22.02 Y-271.309
X21.723 Y-271.308
X21.447 Y-271.29
X21.198 Y-271.261
X20.938 Y-271.215
X20.727 Y-271.165
X20.503 Y-271.099
X20.294 Y-271.024
X20.271 Y-271.014
X19.928 Y-270.828
X19.629 Y-270.579
X19.383 Y-270.277
X19.2 Y-269.933
X19.088 Y-269.56
X19.05 Y-269.172
Y-268.068
G2 X19.104 Y-267.84 I0.6 J-0.021 F250
X19.691 Y-267.49 I0.546 J-0.249 F850
G1 X25.392 Y-267.889
G2 X25.896 Y-268.239 I-0.042 J-0.599
X25.95 Y-268.466 I-0.546 J-0.249 F250
G1 Y-269.473 F850
X25.942 Y-269.623
X25.922 Y-269.772
X25.888 Y-269.918
X25.842 Y-270.06
X25.786 Y-270.2
X25.721 Y-270.335
X25.647 Y-270.468
X25.563 Y-270.6
X25.465 Y-270.737
X25.351 Y-270.879
X25.223 Y-271.019
X25.082 Y-271.159
X24.921 Y-271.301
X24.743 Y-271.441
X24.553 Y-271.575
X24.345 Y-271.703
X24.118 Y-271.827
X23.873 Y-271.943
X23.615 Y-272.047
X23.345 Y-272.139
X23.065 Y-272.218
X22.779 Y-272.281
X22.484 Y-272.328
X22.191 Y-272.359
X21.897 Y-272.373
X21.62 Y-272.37
X21.374 Y-272.354
X21.108 Y-272.322
X20.89 Y-272.282
X20.675 Y-272.231
X20.452 Y-272.164
X20.265 Y-272.097
X19.924 Y-271.91
X19.626 Y-271.661
X19.381 Y-271.359
X19.2 Y-271.016
X19.088 Y-270.644
X19.05 Y-270.257
Y-269.172
G2 X19.104 Y-268.944 I0.6 J-0.021 F250
X19.681 Y-268.594 I0.546 J-0.249 F850
G1 X25.382 Y-268.895
G2 X25.896 Y-269.245 I-0.032 J-0.599
X25.95 Y-269.473 I-0.546 J-0.249 F250
G1 Y-270.48 F850
X25.942 Y-270.63
X25.921 Y-270.778
X25.887 Y-270.924
X25.841 Y-271.067
X25.786 Y-271.206
X25.721 Y-271.342
X25.647 Y-271.475
X25.561 Y-271.611
X25.459 Y-271.754
X25.344 Y-271.898
X25.215 Y-272.042
X25.067 Y-272.19
X24.901 Y-272.337
X24.723 Y-272.478
X24.527 Y-272.617
X24.31 Y-272.752
X24.077 Y-272.88
X23.83 Y-272.998
X23.571 Y-273.104
X23.299 Y-273.198
X23.02 Y-273.277
X22.732 Y-273.341
X22.442 Y-273.389
X22.152 Y-273.42
X21.861 Y-273.435
X21.591 Y-273.434
X21.352 Y-273.419
X21.092 Y-273.388
X20.879 Y-273.351
X20.668 Y-273.301
X20.448 Y-273.236
X20.377 Y-273.211
X20.059 Y-273.065
X19.771 Y-272.865
X19.522 Y-272.618
X19.32 Y-272.332
X19.172 Y-272.015
X19.081 Y-271.677
X19.05 Y-271.328
Y-270.257
G2 X19.104 Y-270.029 I0.6 J-0.021 F250
X19.673 Y-269.678 I0.546 J-0.249 F850
G1 X25.374 Y-269.901
G2 X25.896 Y-270.252 I-0.023 J-0.6
X25.95 Y-270.48 I-0.546 J-0.249 F250
G1 Y-271.487 F850
X25.942 Y-271.636
X25.923 Y-271.785
X25.889 Y-271.931
X25.845 Y-272.075
X25.79 Y-272.214
X25.727 Y-272.35
X25.655 Y-272.483
X25.569 Y-272.623
X25.467 Y-272.77
X25.354 Y-272.914
X25.224 Y-273.062
X25.074 Y-273.214
X24.912 Y-273.362
X24.734 Y-273.506
X24.535 Y-273.649
X24.318 Y-273.788
X24.087 Y-273.918
X23.843 Y-274.038
X23.584 Y-274.147
X23.313 Y-274.244
X23.035 Y-274.326
X22.748 Y-274.393
X22.461 Y-274.444
X22.174 Y-274.478
X21.887 Y-274.496
X21.634 Y-274.497
X21.363 Y-274.483
X21.136 Y-274.459
X20.907 Y-274.421
X20.685 Y-274.372
X20.495 Y-274.318
X20.397 Y-274.284
X20.075 Y-274.139
X19.783 Y-273.941
X19.53 Y-273.693
X19.325 Y-273.406
X19.174 Y-273.086
X19.081 Y-272.745
X19.05 Y-272.393
Y-271.328
G2 X19.104 Y-271.1 I0.6 J-0.021 F250
X19.666 Y-270.749 I0.546 J-0.249 F850
G1 X25.367 Y-270.908
G2 X25.896 Y-271.259 I-0.017 J-0.6
X25.95 Y-271.487 I-0.546 J-0.249 F250
G1 Y-272.493 F850
X25.942 Y-272.643
X25.925 Y-272.792
X25.894 Y-272.939
X25.852 Y-273.083
X25.8 Y-273.223
X25.738 Y-273.36
X25.669 Y-273.493
X25.584 Y-273.635
X25.485 Y-273.782
X25.375 Y-273.927
X25.247 Y-274.077
X25.1 Y-274.231
X24.942 Y-274.379
X24.765 Y-274.527
X24.569 Y-274.673
X24.355 Y-274.814
X24.127 Y-274.946
X23.886 Y-275.069
X23.63 Y-275.182
X23.363 Y-275.281
X23.085 Y-275.368
X22.802 Y-275.439
X22.517 Y-275.493
X22.229 Y-275.532
X21.944 Y-275.553
X21.691 Y-275.559
X21.417 Y-275.549
X21.186 Y-275.527
X20.96 Y-275.493
X20.733 Y-275.446
X20.542 Y-275.395
X20.334 Y-275.326
X20.319 Y-275.32
X20.013 Y-275.169
X19.737 Y-274.967
X19.499 Y-274.722
X19.307 Y-274.44
X19.166 Y-274.129
X19.079 Y-273.799
X19.05 Y-273.459
Y-272.393
G2 X19.104 Y-272.166 I0.6 J-0.021 F250
X19.66 Y-271.814 I0.546 J-0.249 F850
G1 X25.361 Y-271.914
G2 X25.896 Y-272.265 I-0.011 J-0.6
X25.95 Y-272.493 I-0.546 J-0.249 F250
G1 Y-273.591 F850
X25.942 Y-273.74
X25.919 Y-273.889
X25.884 Y-274.034
X25.838 Y-274.177
X25.782 Y-274.316
X25.718 Y-274.452
X25.64 Y-274.594
X25.552 Y-274.736
X25.449 Y-274.882
X25.328 Y-275.035
X25.194 Y-275.186
X25.045 Y-275.336
X24.875 Y-275.489
X24.688 Y-275.639
X24.488 Y-275.781
X24.272 Y-275.918
X24.037 Y-276.049
X23.786 Y-276.17
X23.525 Y-276.279
X23.252 Y-276.375
X22.973 Y-276.456
X22.69 Y-276.521
X22.404 Y-276.57
X22.12 Y-276.602
X21.835 Y-276.618
X21.588
X21.326 Y-276.603
X21.096 Y-276.577
X20.88 Y-276.541
X20.655 Y-276.489
X20.467 Y-276.435
X20.387 Y-276.407
X20.067 Y-276.261
X19.777 Y-276.062
X19.526 Y-275.815
X19.323 Y-275.528
X19.173 Y-275.21
X19.081 Y-274.87
X19.05 Y-274.52
Y-273.459
G2 X19.104 Y-273.231 I0.6 J-0.021 F250
X19.664 Y-272.88 I0.546 J-0.249 F850
G1 X25.364 Y-273.012
G2 X25.896 Y-273.363 I-0.014 J-0.6
X25.95 Y-273.591 I-0.546 J-0.249 F250
G1 Y-274.597 F850
X25.942 Y-274.747
X25.924 Y-274.896
X25.893 Y-275.043
X25.85 Y-275.186
X25.797 Y-275.327
X25.736 Y-275.464
X25.665 Y-275.599
X25.579 Y-275.744
X25.48 Y-275.89
X25.368 Y-276.038
X25.236 Y-276.192
X25.09 Y-276.345
X24.93 Y-276.495
X24.75 Y-276.645
X24.551 Y-276.793
X24.337 Y-276.934
X24.11 Y-277.066
X23.867 Y-277.19
X23.609 Y-277.303
X23.341 Y-277.403
X23.064 Y-277.49
X22.782 Y-277.56
X22.498 Y-277.614
X22.211 Y-277.653
X21.928 Y-277.674
X21.677 Y-277.679
X21.407 Y-277.669
X21.176 Y-277.648
X20.953 Y-277.614
X20.726 Y-277.567
X20.536 Y-277.516
X20.33 Y-277.448
X20.318 Y-277.444
X20.012 Y-277.292
X19.737 Y-277.091
X19.499 Y-276.845
X19.307 Y-276.563
X19.166 Y-276.253
X19.079 Y-275.922
X19.05 Y-275.582
Y-274.52
G2 X19.104 Y-274.292 I0.6 J-0.021 F250
X19.658 Y-273.941 I0.546 J-0.249 F850
G1 X25.359 Y-274.018
G2 X25.896 Y-274.369 I-0.008 J-0.6
X25.95 Y-274.597 I-0.546 J-0.249 F250
G1 Y-275.665 F850
X25.942 Y-275.815
X25.922 Y-275.963
X25.89 Y-276.11
X25.846 Y-276.253
X25.792 Y-276.393
X25.73 Y-276.53
X25.657 Y-276.669
X25.572 Y-276.81
X25.47 Y-276.96
X25.354 Y-277.11
X25.225 Y-277.26
X25.077 Y-277.414
X24.91 Y-277.569
X24.731 Y-277.717
X24.535 Y-277.862
X24.319 Y-278.002
X24.086 Y-278.137
X23.839 Y-278.261
X23.581 Y-278.373
X23.313 Y-278.472
X23.036 Y-278.556
X22.755 Y-278.625
X22.47 Y-278.678
X22.184 Y-278.715
X21.901 Y-278.736
X21.644 Y-278.739
X21.391 Y-278.729
X21.148 Y-278.705
X20.937 Y-278.673
X20.707 Y-278.624
X20.513 Y-278.571
X20.31 Y-278.502
X20.006 Y-278.35
X19.732 Y-278.148
X19.496 Y-277.903
X19.305 Y-277.622
X19.165 Y-277.312
X19.079 Y-276.983
X19.05 Y-276.644
Y-275.582
G2 X19.104 Y-275.354 I0.6 J-0.021 F250
X19.658 Y-275.003 I0.546 J-0.249 F850
G1 X25.359 Y-275.086
G2 X25.896 Y-275.437 I-0.009 J-0.6
X25.95 Y-275.665 I-0.546 J-0.249 F250
G1 Y-276.721 F850
X25.942 Y-276.871
X25.922 Y-277.02
X25.89 Y-277.166
X25.846 Y-277.31
X25.793 Y-277.45
X25.73 Y-277.586
X25.658 Y-277.724
X25.572 Y-277.866
X25.47 Y-278.017
X25.356 Y-278.166
X25.225 Y-278.318
X25.076 Y-278.473
X24.911 Y-278.626
X24.732 Y-278.774
X24.534 Y-278.92
X24.318 Y-279.062
X24.085 Y-279.196
X23.839 Y-279.32
X23.581 Y-279.432
X23.314 Y-279.531
X23.038 Y-279.616
X22.755 Y-279.685
X22.471 Y-279.738
X22.185 Y-279.775
X21.901 Y-279.796
X21.641 Y-279.8
X21.392 Y-279.79
X21.148 Y-279.766
X20.938 Y-279.734
X20.709 Y-279.685
X20.513 Y-279.632
X20.32 Y-279.567
X20.311 Y-279.564
X20.007 Y-279.412
X19.733 Y-279.21
X19.497 Y-278.965
X19.306 Y-278.683
X19.165 Y-278.374
X19.079 Y-278.044
X19.05 Y-277.705
Y-276.644
G2 X19.104 Y-276.416 I0.6 J-0.021 F250
X19.658 Y-276.065 I0.546 J-0.249 F850
G1 X25.358 Y-276.142
G2 X25.896 Y-276.494 I-0.008 J-0.6
X25.95 Y-276.721 I-0.546 J-0.249 F250
G1 Y-277.778 F850
X25.942 Y-277.928
X25.923 Y-278.076
X25.89 Y-278.223
X25.846 Y-278.366
X25.793 Y-278.507
X25.731 Y-278.643
X25.659 Y-278.78
X25.573 Y-278.923
X25.471 Y-279.074
X25.357 Y-279.223
X25.227 Y-279.375
X25.077 Y-279.53
X24.912 Y-279.684
X24.734 Y-279.832
X24.536 Y-279.978
X24.32 Y-280.12
X24.087 Y-280.254
X23.841 Y-280.378
X23.584 Y-280.491
X23.316 Y-280.59
X23.04 Y-280.675
X22.757 Y-280.745
X22.474 Y-280.798
X22.187 Y-280.835
X21.903 Y-280.856
X21.644 Y-280.86
X21.395 Y-280.85
X21.15 Y-280.827
X20.94 Y-280.795
X20.711 Y-280.746
X20.516 Y-280.693
X20.323 Y-280.629
X20.313 Y-280.625
X20.008 Y-280.473
X19.734 Y-280.272
X19.497 Y-280.026
X19.306 Y-279.745
X19.165 Y-279.435
X19.079 Y-279.105
X19.05 Y-278.766
Y-277.705
G2 X19.104 Y-277.477 I0.6 J-0.021 F250
X19.657 Y-277.126 I0.546 J-0.249 F850
G1 X25.358 Y-277.199
G2 X25.896 Y-277.55 I-0.008 J-0.6
X25.95 Y-277.778 I-0.546 J-0.249 F250
G1 Y-278.825 F850
X25.942 Y-278.975
X25.924 Y-279.124
X25.892 Y-279.271
X25.849 Y-279.415
X25.797 Y-279.555
X25.735 Y-279.692
X25.665 Y-279.828
X25.58 Y-279.971
X25.479 Y-280.122
X25.366 Y-280.27
X25.237 Y-280.422
X25.088 Y-280.578
X24.926 Y-280.731
X24.749 Y-280.88
X24.552 Y-281.026
X24.336 Y-281.169
X24.105 Y-281.304
X23.861 Y-281.429
X23.605 Y-281.542
X23.338 Y-281.642
X23.062 Y-281.728
X22.78 Y-281.799
X22.496 Y-281.854
X22.21 Y-281.893
X21.925 Y-281.915
X21.662 Y-281.921
X21.416 Y-281.912
X21.168 Y-281.889
X20.958 Y-281.858
X20.728 Y-281.811
X20.53 Y-281.758
X20.34 Y-281.696
X20.322 Y-281.688
X20.015 Y-281.537
X19.739 Y-281.336
X19.501 Y-281.091
X19.308 Y-280.808
X19.166 Y-280.497
X19.079 Y-280.166
X19.05 Y-279.826
Y-278.766
G2 X19.104 Y-278.538 I0.6 J-0.021 F250
X19.656 Y-278.187 I0.546 J-0.249 F850
G1 X25.357 Y-278.246
G2 X25.896 Y-278.598 I-0.006 J-0.6
X25.95 Y-278.825 I-0.546 J-0.249 F250
G1 Y-279.893 F850
X25.942 Y-280.043
X25.923 Y-280.192
X25.89 Y-280.338
X25.847 Y-280.482
X25.794 Y-280.622
X25.732 Y-280.759
X25.659 Y-280.898
X25.574 Y-281.039
X25.473 Y-281.19
X25.358 Y-281.341
X25.229 Y-281.491
X25.08 Y-281.646
X24.914 Y-281.801
X24.736 Y-281.95
X24.539 Y-282.095
X24.324 Y-282.236
X24.091 Y-282.371
X23.844 Y-282.496
X23.586 Y-282.609
X23.318 Y-282.709
X23.043 Y-282.794
X22.76 Y-282.864
X22.477 Y-282.918
X22.191 Y-282.955
X21.907 Y-282.976
X21.651 Y-282.981
X21.399 Y-282.971
X21.156 Y-282.948
X20.945 Y-282.916
X20.715 Y-282.868
X20.521 Y-282.815
X20.326 Y-282.751
X20.315 Y-282.747
X20.01 Y-282.595
X19.735 Y-282.393
X19.498 Y-282.148
X19.306 Y-281.866
X19.165 Y-281.556
X19.079 Y-281.226
X19.05 Y-280.886
Y-279.826
G2 X19.104 Y-279.598 I0.6 J-0.021 F250
X19.657 Y-279.247 I0.546 J-0.249 F850
G1 X25.357 Y-279.314
G2 X25.896 Y-279.665 I-0.007 J-0.6
X25.95 Y-279.893 I-0.546 J-0.249 F250
G1 Y-280.95 F850
X25.942 Y-281.099
X25.923 Y-281.248
X25.891 Y-281.395
X25.848 Y-281.538
X25.795 Y-281.679
X25.733 Y-281.815
X25.662 Y-281.953
X25.577 Y-282.095
X25.475 Y-282.246
X25.361 Y-282.395
X25.232 Y-282.547
X25.083 Y-282.703
X24.919 Y-282.857
X24.741 Y-283.005
X24.544 Y-283.152
X24.328 Y-283.294
X24.096 Y-283.429
X23.851 Y-283.554
X23.593 Y-283.666
X23.327 Y-283.766
X23.051 Y-283.852
X22.769 Y-283.922
X22.485 Y-283.976
X22.199 Y-284.014
X21.915 Y-284.036
X21.655 Y-284.041
X21.406 Y-284.032
X21.16 Y-284.009
X20.95 Y-283.977
X20.721 Y-283.93
X20.524 Y-283.877
X20.332 Y-283.813
X20.318 Y-283.808
X20.012 Y-283.656
X19.737 Y-283.455
X19.499 Y-283.21
X19.307 Y-282.927
X19.166 Y-282.617
X19.079 Y-282.287
X19.05 Y-281.947
Y-280.886
G2 X19.104 Y-280.659 I0.6 J-0.021 F250
X19.656 Y-280.307 I0.546 J-0.249 F850
G1 X25.357 Y-280.371
G2 X25.896 Y-280.722 I-0.007 J-0.6
X25.95 Y-280.95 I-0.546 J-0.249 F250
G1 Y-282.006 F850
X25.942 Y-282.156
X25.923 Y-282.305
X25.892 Y-282.451
X25.849 Y-282.595
X25.796 Y-282.736
X25.735 Y-282.872
X25.663 Y-283.01
X25.578 Y-283.152
X25.477 Y-283.303
X25.364 Y-283.452
X25.235 Y-283.604
X25.086 Y-283.76
X24.922 Y-283.914
X24.745 Y-284.062
X24.549 Y-284.208
X24.334 Y-284.351
X24.102 Y-284.486
X23.857 Y-284.611
X23.6 Y-284.724
X23.333 Y-284.824
X23.057 Y-284.91
X22.775 Y-284.981
X22.492 Y-285.035
X22.205 Y-285.074
X21.921 Y-285.096
X21.661 Y-285.101
X21.413 Y-285.093
X21.166 Y-285.07
X20.956 Y-285.038
X20.726 Y-284.991
X20.529 Y-284.938
X20.337 Y-284.875
X20.32 Y-284.869
X20.014 Y-284.717
X19.738 Y-284.516
X19.5 Y-284.271
X19.308 Y-283.988
X19.166 Y-283.678
X19.079 Y-283.347
X19.05 Y-283.007
Y-281.947
G2 X19.104 Y-281.719 I0.6 J-0.021 F250
X19.656 Y-281.368 I0.546 J-0.249 F850
G1 X25.357 Y-281.427
G2 X25.896 Y-281.778 I-0.006 J-0.6
X25.95 Y-282.006 I-0.546 J-0.249 F250
G1 Y-283.054 F850
X25.942 Y-283.203
X25.925 Y-283.352
X25.894 Y-283.499
X25.852 Y-283.643
X25.8 Y-283.784
X25.739 Y-283.921
X25.669 Y-284.057
X25.586 Y-284.2
X25.486 Y-284.35
X25.374 Y-284.499
X25.246 Y-284.651
X25.099 Y-284.807
X24.937 Y-284.96
X24.761 Y-285.109
X24.566 Y-285.256
X24.352 Y-285.399
X24.122 Y-285.535
X23.879 Y-285.66
X23.623 Y-285.774
X23.357 Y-285.876
X23.082 Y-285.963
X22.8 Y-286.035
X22.517 Y-286.091
X22.231 Y-286.131
X21.946 Y-286.155
X21.682 Y-286.161
X21.436 Y-286.154
X21.185 Y-286.132
X20.975 Y-286.102
X20.745 Y-286.055
X20.545 Y-286.003
X20.355 Y-285.942
X20.33 Y-285.932
X20.021 Y-285.781
X19.743 Y-285.58
X19.504 Y-285.335
X19.31 Y-285.052
X19.167 Y-284.74
X19.079 Y-284.408
X19.05 Y-284.066
Y-283.007
G2 X19.104 Y-282.779 I0.6 J-0.021 F250
X19.655 Y-282.428 I0.546 J-0.249 F850
G1 X25.355 Y-282.475
G2 X25.896 Y-282.826 I-0.005 J-0.6
X25.95 Y-283.054 I-0.546 J-0.249 F250
G1 Y-284.121 F850
X25.942 Y-284.271
X25.924 Y-284.42
X25.892 Y-284.567
X25.85 Y-284.71
X25.798 Y-284.851
X25.736 Y-284.988
X25.664 Y-285.127
X25.581 Y-285.268
X25.48 Y-285.418
X25.366 Y-285.57
X25.238 Y-285.72
X25.091 Y-285.875
X24.927 Y-286.03
X24.749 Y-286.179
X24.554 Y-286.324
X24.34 Y-286.466
X24.109 Y-286.602
X23.863 Y-286.728
X23.606 Y-286.841
X23.339 Y-286.942
X23.064 Y-287.028
X22.782 Y-287.1
X22.499 Y-287.155
X22.213 Y-287.193
X21.929 Y-287.216
X21.671 Y-287.222
X21.419 Y-287.213
X21.174 Y-287.191
X20.963 Y-287.16
X20.732 Y-287.112
X20.536 Y-287.06
X20.342 Y-286.997
X20.323 Y-286.99
X20.016 Y-286.838
X19.74 Y-286.637
X19.501 Y-286.392
X19.308 Y-286.109
X19.166 Y-285.798
X19.079 Y-285.467
X19.05 Y-285.126
Y-284.066
G2 X19.104 Y-283.838 I0.6 J-0.021 F250
X19.655 Y-283.487 I0.546 J-0.249 F850
G1 X25.356 Y-283.542
G2 X25.896 Y-283.893 I-0.006 J-0.6
X25.95 Y-284.121 I-0.546 J-0.249 F250
G1 Y-285.178 F850
X25.942 Y-285.328
X25.924 Y-285.477
X25.893 Y-285.623
X25.851 Y-285.767
X25.799 Y-285.908
X25.738 Y-286.045
X25.667 Y-286.182
X25.583 Y-286.324
X25.483 Y-286.475
X25.37 Y-286.624
X25.242 Y-286.776
X25.095 Y-286.931
X24.931 Y-287.085
X24.755 Y-287.234
X24.559 Y-287.381
X24.345 Y-287.523
X24.114 Y-287.659
X23.87 Y-287.784
X23.773 Y-287.827
X23.511 Y-287.923
X23.238 Y-287.981
X22.96 Y-288
G2 X22.733 Y-287.946 I0.021 J0.6 F250
X22.573 Y-286.961 I0.249 J0.546 F850
G1 X24.942 Y-284.759
G2 X25.896 Y-284.95 I0.408 J-0.44
X25.95 Y-285.178 I-0.546 J-0.249 F250
G1 Y-286.275 F850
X25.942 Y-286.425
X25.921 Y-286.573
X25.807 Y-286.908
X25.632 Y-287.215
X25.401 Y-287.484
X25.124 Y-287.703
X24.81 Y-287.866
X24.471 Y-287.966
X24.119 Y-288
G2 X23.891 Y-287.946 I0.021 J0.6 F250
X23.736 Y-286.957 I0.249 J0.546 F850
G1 X24.946 Y-285.853
G2 X25.896 Y-286.047 I0.404 J-0.443
X25.95 Y-286.275 I-0.546 J-0.249 F250
G1 Y-287.081 F850
X25.942 Y-287.23
X25.867 Y-287.476
X25.726 Y-287.691
X25.53 Y-287.858
X25.296 Y-287.964
X25.041 Y-288
G2 X24.809 Y-287.961 I0.031 J0.896 F250
X24.442 Y-287.741 I0.263 J0.857 F850
X25.687 Y-286.481 I0.623 J0.63
X25.911 Y-286.849 I-0.623 J-0.63
X25.95 Y-287.081 I-0.846 J-0.263 F250
G1 Y-287.282 F850
X25.942 Y-287.483
X25.921 Y-287.571
X25.9 Y-287.628
X25.871 Y-287.685
X25.844 Y-287.728
X25.81 Y-287.772
X25.765 Y-287.82
X25.72 Y-287.86
X25.686 Y-287.886
X25.602 Y-287.937
X25.519 Y-287.971
X25.418 Y-287.994
X25.317 Y-288
X21.091
X20.915 Y-287.991
X20.739 Y-287.972
X20.57 Y-287.945
X20.546 Y-287.939
X20.196 Y-287.825
X19.874 Y-287.645
X19.592 Y-287.408
X19.362 Y-287.12
X19.191 Y-286.794
X19.086 Y-286.441
X19.05 Y-286.074
G2 X19.104 Y-285.846 I0.6 J-0.021 F250
X20.056 Y-285.653 I0.546 J-0.249 F850
G1 X21.476 Y-286.959
G2 X21.319 Y-287.946 I-0.406 J-0.442
X21.091 Y-288 I-0.249 J0.546 F250
G1 X20.024 F850
X19.874 Y-287.992
X19.653 Y-287.929
X19.453 Y-287.816
X19.284 Y-287.66
X19.156 Y-287.468
X19.077 Y-287.252
X19.05 Y-287.024
G2 X19.087 Y-286.792 I0.942 J-0.033 F250
X20.229 Y-286.145 I0.904 J-0.265 F850
X20.256 Y-287.963 I-0.238 J-0.913
X20.024 Y-288 I-0.265 J0.905 F250
G1 X19.683 F850
X19.582 Y-287.994
X19.481 Y-287.971
X19.398 Y-287.937
X19.314 Y-287.886
X19.28 Y-287.86
X19.235 Y-287.82
X19.19 Y-287.772
X19.156 Y-287.728
X19.129 Y-287.685
X19.1 Y-287.628
X19.079 Y-287.571
X19.058 Y-287.483
X19.05 Y-287.282
Y-285.126
G2 X19.104 Y-284.898 I0.6 J-0.021 F250
G1 X19.143 Y-284.813 Z-14.973
X19.181 Y-284.73 Z-14.951
X19.217 Y-284.651 Z-14.915
X19.25 Y-284.577 Z-14.865
X19.28 Y-284.512 Z-14.804
X19.305 Y-284.457 Z-14.733
X19.325 Y-284.412 Z-14.652
X19.34 Y-284.379 Z-14.565
X19.349 Y-284.359 Z-14.474
X19.352 Y-284.352 Z-14.38
G0 Z5
X25.219 Y-13.147
Z-4.39
G1 Z-4.99 F250
G2 X22.647 Y-17.481 Z-5.198 I-2.719 J-1.316 F200
X19.669 Y-13.422 Z-5.406 I-0.147 J3.014
X24.563 Y-12.272 Z-5.614 I2.827 J-1.043
X23.708 Y-17.22 Z-5.823 I-2.064 J-2.191
X19.495 Y-14.499 Z-6.031 I-1.207 J2.753
X23.642 Y-11.69 Z-6.239 I3.003 J0.033
X24.603 Y-16.6 Z-6.447 I-1.143 J-2.773
X19.714 Y-15.564 Z-6.655 I-2.102 J2.134
X22.577 Y-11.476 Z-6.863 I2.783 J1.097
X25.216 Y-15.705 Z-7.071 I-0.079 J-2.987
X20.297 Y-16.477 Z-7.279 I-2.715 J1.24
X21.51 Y-11.655 Z-7.488 I2.201 J2.01
X25.468 Y-14.654 Z-7.696 I0.987 J-2.809
X21.164 Y-17.12 Z-7.904 I-2.968 J0.19
X20.58 Y-12.2 Z-8.112 I1.335 J2.653
X25.33 Y-13.587 Z-8.32 I1.917 J-2.264
X22.2 Y-17.411 Z-8.528 I-2.83 J-0.877
X19.908 Y-13.039 Z-8.736 I0.3 J2.944
X24.823 Y-12.642 Z-8.944 I2.588 J-1.427
X23.267 Y-17.314 Z-9.153 I-2.323 J-1.821
X19.581 Y-14.057 Z-9.361 I-0.766 J2.847
X24.014 Y-11.942 Z-9.569 I2.916 J-0.409
X24.225 Y-16.844 Z-9.777 I-1.515 J-2.521
X19.638 Y-15.122 Z-9.985 I-1.724 J2.378
X23.013 Y-11.579 Z-10.193 I2.86 J0.655
X24.951 Y-16.066 Z-10.401 I-0.515 J-2.884
X20.069 Y-16.093 Z-10.609 I-2.45 J1.601
X21.952 Y-11.596 Z-10.818 I2.429 J1.626
X25.35 Y-15.084 Z-11.026 I0.545 J-2.868
X20.815 Y-16.843 Z-11.234 I-2.849 J0.62
X20.971 Y-11.988 Z-11.442 I1.683 J2.376
X25.372 Y-14.029 Z-11.65 I1.526 J-2.476
X21.777 Y-17.277 Z-11.858 I-2.872 J-0.435
X20.197 Y-12.702 Z-12.066 I0.723 J2.81
X25.019 Y-13.038 Z-12.274 I2.3 J-1.763
X22.825 Y-17.339 Z-12.483 I-2.519 J-1.425
X19.73 Y-13.642 Z-12.691 I-0.325 J2.872
X24.338 Y-12.242 Z-12.899 I2.766 J-0.824
X23.823 Y-17.024 Z-13.107 I-1.838 J-2.221
X19.63 Y-14.682 Z-13.315 I-1.322 J2.558
X23.421 Y-11.743 Z-13.523 I2.868 J0.216
X24.64 Y-16.376 Z-13.731 I-0.922 J-2.72
X19.905 Y-15.686 Z-13.939 I-2.139 J1.911
X22.39 Y-11.604 Z-14.148 I2.592 J1.219
X25.171 Y-15.483 Z-14.356 I0.107 J-2.859
X20.519 Y-16.523 Z-14.564 I-2.67 J1.019
X21.382 Y-11.841 Z-14.772 I1.98 J2.056
X25.347 Y-14.464 Z-14.98 I1.115 J-2.623
X19.647 I-2.85
X25.347 I2.85
G1 X25.36 Y-15.35 F850
X25.393 Y-15.456
X25.421 Y-15.603
X25.43 Y-15.753
X25.423 Y-15.903
X25.403 Y-16.051
X25.37 Y-16.197
X25.325 Y-16.341
X25.271 Y-16.48
X25.207 Y-16.616
X25.135 Y-16.748
X25.055 Y-16.874
X24.967 Y-16.996
X24.87 Y-17.116
X24.764 Y-17.234
X24.648 Y-17.348
X24.523 Y-17.458
X24.389 Y-17.564
X24.246 Y-17.663
X24.095 Y-17.757
X23.936 Y-17.843
X23.77 Y-17.921
X23.597 Y-17.991
X23.419 Y-18.052
X23.235 Y-18.103
X23.046 Y-18.144
X22.853 Y-18.175
X22.657 Y-18.196
X22.459 Y-18.205
X22.259 Y-18.203
X22.058 Y-18.189
X21.857 Y-18.165
X21.656 Y-18.128
X21.457 Y-18.081
X21.26 Y-18.022
X21.066 Y-17.951
X20.876 Y-17.87
X20.69 Y-17.777
X20.508 Y-17.674
X20.333 Y-17.561
X20.164 Y-17.438
X20.001 Y-17.305
X19.846 Y-17.163
X19.699 Y-17.012
X19.561 Y-16.853
X19.52 Y-16.8
X19.34 Y-16.524
X19.208 Y-16.222
X19.127 Y-15.902
X19.1 Y-15.574
Y-13.859
X19.113 Y-13.591
X19.129 Y-13.442
X19.154 Y-13.294
X19.188 Y-13.143
X19.232 Y-12.99
X19.285 Y-12.835
X19.349 Y-12.68
X19.423 Y-12.525
X19.507 Y-12.372
X19.601 Y-12.221
X19.706 Y-12.073
X19.821 Y-11.929
X19.945 Y-11.789
X20.079 Y-11.655
X20.221 Y-11.528
X20.373 Y-11.407
X20.425 Y-11.369
X20.69 Y-11.211
X20.976 Y-11.095
X21.276 Y-11.024
X21.583 Y-11
G2 X21.811 Y-11.054 I-0.021 J-0.6 F250
X22.024 Y-11.983 I-0.249 J-0.546 F850
G1 X20.161 Y-14.222
G2 X19.154 Y-14.087 I-0.461 J0.384
X19.1 Y-13.859 I0.546 J0.249 F250
G1 Y-12.45 F850
X19.108 Y-12.3
X19.179 Y-12.001
X19.311 Y-11.723
X19.496 Y-11.478
X19.727 Y-11.276
X19.995 Y-11.125
X20.288 Y-11.032
X20.593 Y-11
G2 X20.821 Y-11.054 I-0.021 J-0.6 F250
X20.986 Y-12.035 I-0.249 J-0.546 F850
G1 X20.113 Y-12.864
G2 X19.154 Y-12.678 I-0.413 J0.435
X19.1 Y-12.45 I0.546 J0.249 F250
G1 Y-11.735 F850
Y-11.685
Y-11.644
X19.112 Y-11.518
X19.117 Y-11.48
X19.124 Y-11.443
G2 X19.251 Y-11.247 I0.51 J-0.193 F250
X19.697 Y-11.095 I0.382 J-0.388 F850
X19.572 Y-12.157 I-0.063 J-0.531
X19.159 Y-11.871 I0.063 J0.531
X19.1 Y-11.644 I0.476 J0.245 F250
G1 X19.104 Y-11.544 F850
X19.124 Y-11.443
X19.141 Y-11.393
X19.163 Y-11.342
X19.191 Y-11.292
X19.226 Y-11.242
X19.28 Y-11.181
X19.33 Y-11.137
X19.381 Y-11.101
X19.431 Y-11.071
X19.481 Y-11.047
X19.498 Y-11.04
X19.59 Y-11.013
X19.683 Y-11.001
X20.085 Y-11
X23.104
X23.277 Y-11.009
X23.431 Y-11.025
X23.588 Y-11.051
X23.748 Y-11.086
X23.909 Y-11.132
X24.071 Y-11.188
X24.233 Y-11.254
X24.394 Y-11.331
X24.553 Y-11.418
X24.709 Y-11.515
X24.862 Y-11.623
X25.011 Y-11.74
X25.154 Y-11.867
X25.291 Y-12.004
X25.422 Y-12.149
X25.46 Y-12.197
X25.649 Y-12.477
X25.787 Y-12.785
X25.872 Y-13.112
X25.9 Y-13.448
G2 X25.846 Y-13.676 I-0.6 J0.021 F250
X24.914 Y-13.887 I-0.546 J0.249 F850
G1 X22.739 Y-12.059
G2 X22.876 Y-11.054 I0.386 J0.459
X23.104 Y-11 I0.249 J-0.546 F250
G1 X24.422 F850
X24.579 Y-11.008
X24.881 Y-11.072
X25.163 Y-11.198
X25.412 Y-11.38
X25.618 Y-11.61
X25.773 Y-11.877
X25.868 Y-12.17
X25.9 Y-12.477
G2 X25.846 Y-12.705 I-0.6 J0.021 F250
X24.876 Y-12.881 I-0.546 J0.249 F850
G1 X24.019 Y-12.024
G2 X24.194 Y-11.054 I0.424 J0.424
X24.422 Y-11 I0.249 J-0.546 F250
G1 X25.177 F850
X25.22
X25.249 Y-11.001
X25.346 Y-11.006
X25.41 Y-11.013
G2 X25.607 Y-11.137 I-0.158 J-0.471 F250
X25.747 Y-11.522 I-0.356 J-0.347 F850
X24.781 Y-11.447 I-0.483 J0.037
X25.025 Y-11.064 I0.483 J-0.037
X25.249 Y-11.001 I0.239 J-0.421 F250
G1 X25.317 F850
X25.41 Y-11.013
X25.46 Y-11.028
X25.502 Y-11.04
X25.519 Y-11.047
X25.569 Y-11.071
X25.619 Y-11.101
X25.67 Y-11.137
X25.72 Y-11.181
X25.774 Y-11.242
X25.809 Y-11.292
X25.837 Y-11.342
X25.859 Y-11.393
X25.876 Y-11.443
X25.896 Y-11.544
X25.9 Y-11.644
Y-16.185
X25.891 Y-16.374
X25.875 Y-16.523
X25.848 Y-16.67
X25.812 Y-16.816
X25.768 Y-16.959
X25.714 Y-17.099
X25.651 Y-17.24
X25.577 Y-17.383
X25.493 Y-17.526
X25.398 Y-17.667
X25.293 Y-17.807
X25.175 Y-17.945
X25.046 Y-18.081
X24.905 Y-18.213
X24.754 Y-18.341
X24.592 Y-18.462
X24.42 Y-18.576
X24.239 Y-18.682
X24.048 Y-18.78
X23.847 Y-18.868
X23.638 Y-18.947
X23.421 Y-19.016
X23.196 Y-19.072
X22.966 Y-19.117
X22.73 Y-19.149
X22.491 Y-19.168
X22.248 Y-19.174
X22.003 Y-19.165
X21.756 Y-19.143
X21.509 Y-19.107
X21.263 Y-19.056
X21.018 Y-18.991
X20.776 Y-18.912
X20.537 Y-18.819
X20.302 Y-18.712
X20.071 Y-18.59
X19.793 Y-18.389
X19.553 Y-18.143
X19.359 Y-17.86
X19.217 Y-17.548
X19.129 Y-17.217
X19.1 Y-16.875
Y-15.574
G2 X19.154 Y-15.346 I0.6 J-0.021 F250
X19.765 Y-14.999 I0.546 J-0.249 F850
G1 X25.365 Y-15.609
G2 X25.846 Y-15.957 I-0.065 J-0.596
X25.9 Y-16.185 I-0.546 J-0.249 F250
G1 Y-17.393 F850
X25.892 Y-17.543
X25.874 Y-17.691
X25.842 Y-17.838
X25.799 Y-17.982
X25.746 Y-18.122
X25.683 Y-18.258
X25.612 Y-18.39
X25.531 Y-18.524
X25.438 Y-18.658
X25.334 Y-18.791
X25.216 Y-18.925
X25.084 Y-19.061
X24.939 Y-19.193
X24.782 Y-19.32
X24.612 Y-19.443
X24.427 Y-19.562
X24.228 Y-19.674
X24.017 Y-19.778
X23.796 Y-19.872
X23.564 Y-19.955
X23.322 Y-20.027
X23.069 Y-20.087
X22.806 Y-20.133
X22.536 Y-20.166
X22.258 Y-20.183
X21.975 Y-20.185
X21.689 Y-20.171
X21.4 Y-20.141
X21.146 Y-20.099
X20.89 Y-20.042
X20.657 Y-19.977
X20.451 Y-19.906
X20.344 Y-19.862
X20.044 Y-19.709
X19.773 Y-19.507
X19.54 Y-19.262
X19.352 Y-18.982
X19.213 Y-18.674
X19.129 Y-18.347
X19.1 Y-18.01
Y-16.875
G2 X19.154 Y-16.647 I0.6 J-0.021 F250
X19.755 Y-16.298 I0.546 J-0.249 F850
G1 X25.356 Y-16.816
G2 X25.846 Y-17.165 I-0.055 J-0.597
X25.9 Y-17.393 I-0.546 J-0.249 F250
G1 Y-18.399 F850
X25.892 Y-18.549
X25.875 Y-18.698
X25.843 Y-18.845
X25.799 Y-18.988
X25.744 Y-19.128
X25.681 Y-19.264
X25.608 Y-19.395
X25.525 Y-19.528
X25.431 Y-19.66
X25.324 Y-19.795
X25.201 Y-19.932
X25.064 Y-20.069
X24.916 Y-20.201
X24.75 Y-20.333
X24.568 Y-20.462
X24.37 Y-20.586
X24.161 Y-20.701
X23.936 Y-20.809
X23.695 Y-20.908
X23.438 Y-20.997
X23.167 Y-21.074
X22.889 Y-21.137
X22.603 Y-21.185
X22.313 Y-21.216
X22.02 Y-21.232
X21.74 Y-21.231
X21.477 Y-21.215
X21.211 Y-21.184
X20.99 Y-21.145
X20.75 Y-21.089
X20.547 Y-21.029
X20.346 Y-20.958
X20.324 Y-20.949
X19.981 Y-20.763
X19.681 Y-20.514
X19.434 Y-20.212
X19.251 Y-19.867
X19.138 Y-19.494
X19.1 Y-19.105
Y-18.01
G2 X19.154 Y-17.782 I0.6 J-0.021 F250
X19.741 Y-17.433 I0.546 J-0.249 F850
G1 X25.342 Y-17.822
G2 X25.846 Y-18.172 I-0.042 J-0.599
X25.9 Y-18.399 I-0.546 J-0.249 F250
G1 Y-19.406 F850
X25.892 Y-19.556
X25.873 Y-19.705
X25.839 Y-19.851
X25.794 Y-19.994
X25.738 Y-20.133
X25.674 Y-20.268
X25.6 Y-20.4
X25.516 Y-20.533
X25.42 Y-20.667
X25.307 Y-20.808
X25.18 Y-20.948
X25.04 Y-21.087
X24.882 Y-21.227
X24.704 Y-21.367
X24.515 Y-21.5
X24.31 Y-21.627
X24.085 Y-21.749
X23.843 Y-21.864
X23.588 Y-21.967
X23.323 Y-22.058
X23.048 Y-22.135
X22.766 Y-22.198
X22.48 Y-22.244
X22.191 Y-22.274
X21.903 Y-22.288
X21.64 Y-22.286
X21.396 Y-22.27
X21.136 Y-22.239
X20.925 Y-22.201
X20.71 Y-22.15
X20.491 Y-22.084
X20.421 Y-22.059
X20.104 Y-21.913
X19.818 Y-21.713
X19.57 Y-21.466
X19.369 Y-21.18
X19.221 Y-20.864
X19.131 Y-20.526
X19.1 Y-20.178
Y-19.105
G2 X19.154 Y-18.877 I0.6 J-0.021 F250
X19.732 Y-18.527 I0.546 J-0.249 F850
G1 X25.333 Y-18.828
G2 X25.846 Y-19.178 I-0.032 J-0.599
X25.9 Y-19.406 I-0.546 J-0.249 F250
G1 Y-20.413 F850
X25.892 Y-20.563
X25.872 Y-20.711
X25.837 Y-20.857
X25.792 Y-21
X25.736 Y-21.139
X25.671 Y-21.275
X25.596 Y-21.409
X25.512 Y-21.543
X25.411 Y-21.685
X25.295 Y-21.829
X25.167 Y-21.971
X25.02 Y-22.117
X24.855 Y-22.264
X24.678 Y-22.404
X24.484 Y-22.541
X24.271 Y-22.673
X24.04 Y-22.8
X23.795 Y-22.916
X23.538 Y-23.021
X23.272 Y-23.113
X22.999 Y-23.19
X22.716 Y-23.253
X22.433 Y-23.299
X22.148 Y-23.33
X21.871 Y-23.344
X21.62 Y-23.342
X21.354 Y-23.325
X21.136 Y-23.299
X20.902 Y-23.258
X20.69 Y-23.208
X20.5 Y-23.151
X20.425 Y-23.125
X20.107 Y-22.978
X19.82 Y-22.778
X19.571 Y-22.532
X19.37 Y-22.245
X19.222 Y-21.929
X19.131 Y-21.591
X19.1 Y-21.242
Y-20.178
G2 X19.154 Y-19.95 I0.6 J-0.021 F250
X19.725 Y-19.6 I0.546 J-0.249 F850
G1 X25.325 Y-19.834
G2 X25.846 Y-20.185 I-0.025 J-0.599
X25.9 Y-20.413 I-0.546 J-0.249 F250
G1 Y-21.42 F850
X25.892 Y-21.569
X25.872 Y-21.718
X25.839 Y-21.864
X25.794 Y-22.007
X25.739 Y-22.147
X25.675 Y-22.283
X25.603 Y-22.415
X25.517 Y-22.554
X25.415 Y-22.7
X25.302 Y-22.844
X25.173 Y-22.99
X25.024 Y-23.14
X24.862 Y-23.288
X24.685 Y-23.43
X24.489 Y-23.57
X24.275 Y-23.707
X24.045 Y-23.835
X23.802 Y-23.953
X23.548 Y-24.06
X23.284 Y-24.154
X23.009 Y-24.234
X22.731 Y-24.298
X22.448 Y-24.348
X22.164 Y-24.38
X21.89 Y-24.397
X21.642
X21.377 Y-24.383
X21.158 Y-24.359
X20.928 Y-24.32
X20.713 Y-24.272
X20.524 Y-24.218
X20.442 Y-24.189
X20.121 Y-24.044
X19.83 Y-23.845
X19.578 Y-23.598
X19.374 Y-23.311
X19.223 Y-22.992
X19.131 Y-22.652
X19.1 Y-22.3
Y-21.242
G2 X19.154 Y-21.014 I0.6 J-0.021 F250
X19.719 Y-20.663 I0.546 J-0.249 F850
G1 X25.319 Y-20.841
G2 X25.846 Y-21.192 I-0.019 J-0.6
X25.9 Y-21.42 I-0.546 J-0.249 F250
G1 Y-22.426 F850
X25.892 Y-22.576
X25.874 Y-22.725
X25.843 Y-22.872
X25.8 Y-23.015
X25.747 Y-23.156
X25.685 Y-23.292
X25.615 Y-23.425
X25.53 Y-23.565
X25.431 Y-23.712
X25.32 Y-23.856
X25.192 Y-24.004
X25.046 Y-24.156
X24.886 Y-24.304
X24.712 Y-24.449
X24.518 Y-24.592
X24.305 Y-24.73
X24.078 Y-24.861
X23.839 Y-24.982
X23.587 Y-25.091
X23.325 Y-25.188
X23.052 Y-25.271
X22.775 Y-25.339
X22.494 Y-25.392
X22.211 Y-25.428
X21.935 Y-25.448
X21.688 Y-25.452
X21.421 Y-25.441
X21.199 Y-25.419
X20.972 Y-25.384
X20.752 Y-25.337
X20.564 Y-25.286
X20.466 Y-25.253
X20.14 Y-25.11
X19.844 Y-24.912
X19.588 Y-24.664
X19.379 Y-24.375
X19.226 Y-24.054
X19.132 Y-23.711
X19.1 Y-23.356
Y-22.3
G2 X19.154 Y-22.073 I0.6 J-0.021 F250
X19.713 Y-21.722 I0.546 J-0.249 F850
G1 X25.314 Y-21.847
G2 X25.846 Y-22.198 I-0.013 J-0.6
X25.9 Y-22.426 I-0.546 J-0.249 F250
G1 Y-23.483 F850
X25.892 Y-23.633
X25.872 Y-23.781
X25.839 Y-23.928
X25.795 Y-24.071
X25.741 Y-24.211
X25.678 Y-24.347
X25.604 Y-24.486
X25.519 Y-24.625
X25.418 Y-24.771
X25.302 Y-24.921
X25.174 Y-25.068
X25.027 Y-25.219
X24.862 Y-25.37
X24.682 Y-25.517
X24.489 Y-25.658
X24.277 Y-25.795
X24.047 Y-25.925
X23.802 Y-26.047
X23.548 Y-26.155
X23.283 Y-26.251
X23.011 Y-26.333
X22.734 Y-26.399
X22.454 Y-26.45
X22.173 Y-26.484
X21.907 Y-26.502
X21.654 Y-26.504
X21.393 Y-26.492
X21.177 Y-26.47
X20.942 Y-26.432
X20.732 Y-26.386
X20.542 Y-26.333
X20.455 Y-26.303
X20.131 Y-26.16
X19.837 Y-25.961
X19.583 Y-25.714
X19.377 Y-25.425
X19.225 Y-25.105
X19.131 Y-24.763
X19.1 Y-24.41
Y-23.356
G2 X19.154 Y-23.128 I0.6 J-0.021 F250
X19.713 Y-22.777 I0.546 J-0.249 F850
G1 X25.314 Y-22.904
G2 X25.846 Y-23.255 I-0.014 J-0.6
X25.9 Y-23.483 I-0.546 J-0.249 F250
G1 Y-24.53 F850
X25.892 Y-24.68
X25.872 Y-24.829
X25.839 Y-24.975
X25.794 Y-25.118
X25.74 Y-25.258
X25.677 Y-25.394
X25.604 Y-25.531
X25.519 Y-25.671
X25.417 Y-25.82
X25.302 Y-25.968
X25.172 Y-26.117
X25.024 Y-26.269
X24.859 Y-26.421
X24.681 Y-26.566
X24.486 Y-26.709
X24.272 Y-26.847
X24.041 Y-26.978
X23.798 Y-27.099
X23.544 Y-27.208
X23.281 Y-27.303
X23.008 Y-27.385
X22.733 Y-27.451
X22.452 Y-27.502
X22.171 Y-27.537
X21.904 Y-27.554
X21.655 Y-27.557
X21.392 Y-27.545
X21.176 Y-27.523
X20.943 Y-27.485
X20.732 Y-27.439
X20.543 Y-27.387
X20.456 Y-27.357
X20.132 Y-27.213
X19.838 Y-27.015
X19.584 Y-26.768
X19.377 Y-26.479
X19.225 Y-26.159
X19.131 Y-25.817
X19.1 Y-25.463
Y-24.41
G2 X19.154 Y-24.182 I0.6 J-0.021 F250
X19.713 Y-23.831 I0.546 J-0.249 F850
G1 X25.313 Y-23.951
G2 X25.846 Y-24.302 I-0.013 J-0.6
X25.9 Y-24.53 I-0.546 J-0.249 F250
G1 Y-25.537 F850
X25.892 Y-25.687
X25.876 Y-25.836
X25.847 Y-25.983
X25.805 Y-26.127
X25.754 Y-26.268
X25.694 Y-26.405
X25.625 Y-26.539
X25.542 Y-26.681
X25.445 Y-26.828
X25.336 Y-26.974
X25.209 Y-27.125
X25.064 Y-27.278
X24.908 Y-27.427
X24.734 Y-27.574
X24.541 Y-27.719
X24.331 Y-27.861
X24.107 Y-27.993
X23.87 Y-28.115
X23.621 Y-28.227
X23.36 Y-28.327
X23.089 Y-28.413
X22.815 Y-28.484
X22.535 Y-28.54
X22.254 Y-28.579
X21.977 Y-28.603
X21.731 Y-28.609
X21.463 Y-28.602
X21.237 Y-28.582
X21.014 Y-28.55
X20.79 Y-28.505
X20.601 Y-28.456
X20.395 Y-28.39
X20.382 Y-28.385
X20.073 Y-28.235
X19.795 Y-28.034
X19.555 Y-27.788
X19.36 Y-27.505
X19.217 Y-27.193
X19.129 Y-26.861
X19.1 Y-26.518
Y-25.463
G2 X19.154 Y-25.236 I0.6 J-0.021 F250
X19.708 Y-24.884 I0.546 J-0.249 F850
G1 X25.308 Y-24.958
G2 X25.846 Y-25.309 I-0.008 J-0.6
X25.9 Y-25.537 I-0.546 J-0.249 F250
G1 Y-26.605 F850
X25.892 Y-26.754
X25.874 Y-26.903
X25.843 Y-27.05
X25.8 Y-27.194
X25.748 Y-27.334
X25.686 Y-27.471
X25.613 Y-27.611
X25.531 Y-27.75
X25.432 Y-27.896
X25.317 Y-28.047
X25.191 Y-28.196
X25.047 Y-28.346
X24.884 Y-28.499
X24.706 Y-28.647
X24.514 Y-28.79
X24.305 Y-28.928
X24.078 Y-29.06
X23.835 Y-29.183
X23.583 Y-29.294
X23.319 Y-29.393
X23.048 Y-29.477
X22.773 Y-29.546
X22.494 Y-29.599
X22.214 Y-29.636
X21.935 Y-29.657
X21.687 Y-29.662
X21.433 Y-29.653
X21.197 Y-29.631
X20.987 Y-29.6
X20.76 Y-29.552
X20.569 Y-29.501
X20.368 Y-29.435
X20.062 Y-29.283
X19.787 Y-29.082
X19.549 Y-28.836
X19.357 Y-28.554
X19.216 Y-28.244
X19.129 Y-27.913
X19.1 Y-27.573
Y-26.518
G2 X19.154 Y-26.291 I0.6 J-0.021 F250
X19.709 Y-25.939 I0.546 J-0.249 F850
G1 X25.31 Y-26.026
G2 X25.846 Y-26.377 I-0.009 J-0.6
X25.9 Y-26.605 I-0.546 J-0.249 F250
G1 Y-27.661 F850
X25.892 Y-27.811
X25.874 Y-27.96
X25.842 Y-28.106
X25.799 Y-28.25
X25.746 Y-28.39
X25.684 Y-28.527
X25.612 Y-28.665
X25.528 Y-28.805
X25.428 Y-28.953
X25.314 Y-29.103
X25.187 Y-29.251
X25.041 Y-29.403
X24.877 Y-29.556
X24.7 Y-29.703
X24.507 Y-29.846
X24.296 Y-29.985
X24.067 Y-30.117
X23.824 Y-30.24
X23.571 Y-30.351
X23.308 Y-30.449
X23.037 Y-30.532
X22.761 Y-30.601
X22.482 Y-30.654
X22.202 Y-30.69
X21.923 Y-30.711
X21.674 Y-30.716
X21.424 Y-30.706
X21.187 Y-30.683
X20.978 Y-30.652
X20.752 Y-30.604
X20.56 Y-30.552
X20.365 Y-30.487
X20.06 Y-30.336
X19.785 Y-30.134
X19.548 Y-29.889
X19.356 Y-29.607
X19.215 Y-29.297
X19.129 Y-28.967
X19.1 Y-28.627
Y-27.573
G2 X19.154 Y-27.345 I0.6 J-0.021 F250
X19.709 Y-26.994 I0.546 J-0.249 F850
G1 X25.31 Y-27.082
G2 X25.846 Y-27.433 I-0.009 J-0.6
X25.9 Y-27.661 I-0.546 J-0.249 F250
G1 Y-28.718 F850
X25.892 Y-28.868
X25.873 Y-29.016
X25.841 Y-29.163
X25.797 Y-29.306
X25.744 Y-29.447
X25.682 Y-29.583
X25.609 Y-29.721
X25.525 Y-29.861
X25.424 Y-30.01
X25.31 Y-30.16
X25.182 Y-30.308
X25.035 Y-30.461
X24.87 Y-30.614
X24.693 Y-30.761
X24.499 Y-30.904
X24.287 Y-31.042
X24.058 Y-31.174
X23.814 Y-31.297
X23.56 Y-31.408
X23.297 Y-31.505
X23.026 Y-31.588
X22.75 Y-31.656
X22.471 Y-31.708
X22.191 Y-31.745
X21.912 Y-31.765
X21.664 Y-31.769
X21.414 Y-31.759
X21.178 Y-31.736
X20.97 Y-31.704
X20.744 Y-31.656
X20.553 Y-31.604
X20.467 Y-31.575
X20.141 Y-31.433
X19.844 Y-31.235
X19.588 Y-30.987
X19.38 Y-30.698
X19.226 Y-30.377
X19.132 Y-30.033
X19.1 Y-29.678
Y-28.627
G2 X19.154 Y-28.4 I0.6 J-0.021 F250
X19.709 Y-28.048 I0.546 J-0.249 F850
G1 X25.31 Y-28.139
G2 X25.846 Y-28.49 I-0.01 J-0.6
X25.9 Y-28.718 I-0.546 J-0.249 F250
G1 Y-29.765 F850
X25.892 Y-29.915
X25.874 Y-30.064
X25.842 Y-30.21
X25.799 Y-30.354
X25.746 Y-30.494
X25.684 Y-30.631
X25.612 Y-30.768
X25.528 Y-30.909
X25.427 Y-31.058
X25.314 Y-31.206
X25.186 Y-31.355
X25.039 Y-31.509
X24.876 Y-31.661
X24.7 Y-31.808
X24.506 Y-31.951
X24.294 Y-32.091
X24.065 Y-32.223
X23.822 Y-32.346
X23.569 Y-32.457
X23.307 Y-32.555
X23.036 Y-32.639
X22.759 Y-32.707
X22.481 Y-32.76
X22.2 Y-32.797
X21.932 Y-32.817
X21.683 Y-32.821
X21.419 Y-32.811
X21.202 Y-32.791
X20.97 Y-32.756
X20.756 Y-32.711
X20.568 Y-32.66
X20.471 Y-32.628
X20.144 Y-32.486
X19.847 Y-32.288
X19.59 Y-32.04
X19.381 Y-31.751
X19.226 Y-31.429
X19.132 Y-31.085
X19.1 Y-30.729
Y-29.678
G2 X19.154 Y-29.45 I0.6 J-0.021 F250
X19.709 Y-29.099 I0.546 J-0.249 F850
G1 X25.31 Y-29.186
G2 X25.846 Y-29.537 I-0.009 J-0.6
X25.9 Y-29.765 I-0.546 J-0.249 F250
G1 Y-30.833 F850
X25.892 Y-30.983
X25.872 Y-31.131
X25.839 Y-31.278
X25.795 Y-31.421
X25.741 Y-31.561
X25.678 Y-31.697
X25.604 Y-31.837
X25.519 Y-31.977
X25.417 Y-32.126
X25.3 Y-32.277
X25.171 Y-32.425
X25.024 Y-32.577
X24.857 Y-32.731
X24.678 Y-32.878
X24.483 Y-33.02
X24.271 Y-33.158
X24.04 Y-33.29
X23.796 Y-33.412
X23.542 Y-33.521
X23.277 Y-33.617
X23.006 Y-33.699
X22.73 Y-33.766
X22.451 Y-33.817
X22.171 Y-33.852
X21.907 Y-33.87
X21.655 Y-33.873
X21.395 Y-33.862
X21.18 Y-33.84
X20.945 Y-33.803
X20.736 Y-33.758
X20.547 Y-33.705
X20.459 Y-33.676
X20.134 Y-33.532
X19.84 Y-33.334
X19.585 Y-33.087
X19.378 Y-32.798
X19.225 Y-32.477
X19.132 Y-32.135
X19.1 Y-31.781
Y-30.729
G2 X19.154 Y-30.501 I0.6 J-0.021 F250
X19.711 Y-30.15 I0.546 J-0.249 F850
G1 X25.311 Y-30.254
G2 X25.846 Y-30.605 I-0.011 J-0.6
X25.9 Y-30.833 I-0.546 J-0.249 F250
G1 Y-31.889 F850
X25.892 Y-32.039
X25.872 Y-32.188
X25.838 Y-32.334
X25.794 Y-32.477
X25.74 Y-32.617
X25.677 Y-32.753
X25.604 Y-32.891
X25.518 Y-33.032
X25.415 Y-33.182
X25.3 Y-33.331
X25.17 Y-33.48
X25.021 Y-33.633
X24.855 Y-33.786
X24.677 Y-33.932
X24.481 Y-34.075
X24.267 Y-34.213
X24.036 Y-34.345
X23.793 Y-34.466
X23.539 Y-34.575
X23.275 Y-34.671
X23.004 Y-34.753
X22.728 Y-34.819
X22.448 Y-34.87
X22.168 Y-34.905
X21.903 Y-34.923
X21.653 Y-34.926
X21.392 Y-34.914
X21.177 Y-34.892
X20.943 Y-34.855
X20.733 Y-34.809
X20.544 Y-34.756
X20.458 Y-34.727
X20.133 Y-34.584
X19.839 Y-34.385
X19.584 Y-34.138
X19.378 Y-33.849
X19.225 Y-33.529
X19.131 Y-33.187
X19.1 Y-32.833
Y-31.781
G2 X19.154 Y-31.553 I0.6 J-0.021 F250
X19.711 Y-31.202 I0.546 J-0.249 F850
G1 X25.312 Y-31.31
G2 X25.846 Y-31.662 I-0.012 J-0.6
X25.9 Y-31.889 I-0.546 J-0.249 F250
G1 Y-32.896 F850
X25.892 Y-33.046
X25.877 Y-33.195
X25.847 Y-33.342
X25.806 Y-33.486
X25.755 Y-33.627
X25.695 Y-33.765
X25.627 Y-33.898
X25.543 Y-34.041
X25.446 Y-34.188
X25.338 Y-34.334
X25.211 Y-34.486
X25.067 Y-34.639
X24.911 Y-34.788
X24.737 Y-34.936
X24.544 Y-35.083
X24.334 Y-35.224
X24.11 Y-35.357
X23.874 Y-35.48
X23.625 Y-35.592
X23.365 Y-35.692
X23.094 Y-35.779
X22.82 Y-35.85
X22.54 Y-35.906
X22.26 Y-35.947
X21.983 Y-35.97
X21.737 Y-35.978
X21.469 Y-35.97
X21.243 Y-35.951
X21.021 Y-35.92
X20.795 Y-35.875
X20.606 Y-35.827
X20.401 Y-35.761
X20.386 Y-35.755
X20.076 Y-35.605
X19.797 Y-35.404
X19.556 Y-35.159
X19.361 Y-34.875
X19.218 Y-34.563
X19.13 Y-34.23
X19.1 Y-33.887
Y-32.833
G2 X19.154 Y-32.605 I0.6 J-0.021 F250
X19.706 Y-32.254 I0.546 J-0.249 F850
G1 X25.307 Y-32.317
G2 X25.846 Y-32.668 I-0.007 J-0.6
X25.9 Y-32.896 I-0.546 J-0.249 F250
G1 Y-33.993 F850
X25.892 Y-34.143
X25.872 Y-34.292
X25.838 Y-34.438
X25.794 Y-34.581
X25.74 Y-34.721
X25.677 Y-34.857
X25.602 Y-34.999
X25.516 Y-35.14
X25.415 Y-35.286
X25.298 Y-35.438
X25.167 Y-35.588
X25.021 Y-35.738
X24.857 Y-35.889
X24.674 Y-36.039
X24.478 Y-36.182
X24.267 Y-36.318
X24.039 Y-36.448
X23.795 Y-36.569
X23.54 Y-36.678
X23.274 Y-36.775
X23.002 Y-36.857
X22.726 Y-36.923
X22.446 Y-36.974
X22.167 Y-37.008
X21.888 Y-37.027
X21.647 Y-37.03
X21.388 Y-37.018
X21.162 Y-36.995
X20.948 Y-36.96
X20.725 Y-36.912
X20.538 Y-36.86
X20.457 Y-36.832
X20.132 Y-36.689
X19.838 Y-36.49
X19.584 Y-36.243
X19.377 Y-35.954
X19.225 Y-35.634
X19.131 Y-35.292
X19.1 Y-34.938
Y-33.887
G2 X19.154 Y-33.659 I0.6 J-0.021 F250
X19.711 Y-33.308 I0.546 J-0.249 F850
G1 X25.312 Y-33.414
G2 X25.846 Y-33.766 I-0.011 J-0.6
X25.9 Y-33.993 I-0.546 J-0.249 F250
G1 Y-35 F850
X25.892 Y-35.15
X25.877 Y-35.3
X25.847 Y-35.447
X25.806 Y-35.591
X25.755 Y-35.732
X25.695 Y-35.869
X25.627 Y-36.003
X25.544 Y-36.146
X25.447 Y-36.292
X25.338 Y-36.438
X25.211 Y-36.589
X25.068 Y-36.743
X24.912 Y-36.892
X24.738 Y-37.04
X24.545 Y-37.186
X24.335 Y-37.327
X24.111 Y-37.46
X23.875 Y-37.583
X23.624 Y-37.696
X23.364 Y-37.796
X23.093 Y-37.883
X22.817 Y-37.955
X22.788 Y-37.961
X22.658 Y-37.983
X22.526 Y-37.996
X22.394 Y-38
G2 X22.166 Y-37.946 I0.021 J0.6 F250
X22.034 Y-36.937 I0.249 J0.546 F850
G1 X24.919 Y-34.558
G2 X25.846 Y-34.772 I0.382 J-0.463
X25.9 Y-35 I-0.546 J-0.249 F250
G1 Y-36.118 F850
X25.892 Y-36.267
X25.87 Y-36.416
X25.835 Y-36.561
X25.789 Y-36.704
X25.733 Y-36.844
X25.729 Y-36.852
X25.538 Y-37.176
X25.289 Y-37.458
X24.991 Y-37.689
X24.656 Y-37.86
X24.295 Y-37.965
X23.92 Y-38
G2 X23.692 Y-37.946 I0.021 J0.6 F250
X23.533 Y-36.961 I0.249 J0.546 F850
G1 X24.892 Y-35.699
G2 X25.846 Y-35.89 I0.408 J-0.44
X25.9 Y-36.118 I-0.546 J-0.249 F250
G1 Y-37.014 F850
X25.892 Y-37.163
X25.827 Y-37.388
X25.711 Y-37.592
X25.551 Y-37.763
X25.355 Y-37.892
X25.135 Y-37.973
X24.903 Y-38
G2 X24.67 Y-37.963 I0.033 J0.954 F250
X24.014 Y-36.796 I0.265 J0.917 F850
X25.863 Y-36.781 I0.926 J-0.251
X25.9 Y-37.014 I-0.922 J-0.266 F250
G1 X25.899 Y-37.416 F850
X25.886 Y-37.517
X25.873 Y-37.567
X25.855 Y-37.618
X25.832 Y-37.668
X25.802 Y-37.718
X25.766 Y-37.768
X25.719 Y-37.819
X25.669 Y-37.863
X25.619 Y-37.899
X25.569 Y-37.929
X25.519 Y-37.953
X25.468 Y-37.971
X25.418 Y-37.985
X25.317 Y-37.999
X24.915 Y-38
X21.494
X21.238 Y-37.987
X21.039 Y-37.966
X20.823 Y-37.93
X20.641 Y-37.89
X20.449 Y-37.835
X20.126 Y-37.691
X19.834 Y-37.492
X19.581 Y-37.245
X19.375 Y-36.957
X19.224 Y-36.638
X19.131 Y-36.297
X19.1 Y-35.944
G2 X19.154 Y-35.717 I0.6 J-0.021 F250
X20.077 Y-35.499 I0.546 J-0.249 F850
G1 X21.85 Y-36.934
G2 X21.722 Y-37.946 I-0.377 J-0.466
X21.494 Y-38 I-0.249 J0.546 F250
G1 X20.176 F850
X20.026 Y-37.993
X19.779 Y-37.929
X19.554 Y-37.809
X19.364 Y-37.638
X19.22 Y-37.428
X19.131 Y-37.189
X19.1 Y-36.936
G2 X19.154 Y-36.708 I0.6 J-0.021 F250
X20.119 Y-36.527 I0.546 J-0.249 F850
G1 X20.574 Y-36.971
G2 X20.404 Y-37.946 I-0.419 J-0.43
X20.176 Y-38 I-0.249 J0.546 F250
G1 X19.683 Y-37.999 F850
X19.582 Y-37.985
X19.532 Y-37.971
X19.481 Y-37.953
X19.431 Y-37.929
X19.381 Y-37.899
X19.331 Y-37.863
X19.28 Y-37.818
X19.234 Y-37.768
X19.198 Y-37.718
X19.168 Y-37.668
X19.145 Y-37.618
X19.127 Y-37.567
X19.114 Y-37.517
X19.101 Y-37.416
X19.1 Y-36.007
Y-34.938
X19.112 Y-34.885 Z-14.973 F250
X19.123 Y-34.834 Z-14.954
X19.133 Y-34.789 Z-14.923
X19.141 Y-34.753 Z-14.882
X19.147 Y-34.726 Z-14.833
X19.152 Y-34.714 Z-14.79
X19.154 Y-34.71 Z-14.744
G0 Z5
X20.044 Y-262.785
Z-11.88
G1 Z-12.48 F250
G2 X25.058 Y-262.938 Z-12.687 I2.456 J-1.745 F200
X22.984 Y-267.499 Z-12.894 I-2.555 J-1.59
X19.581 Y-263.829 Z-13.101 I-0.48 J2.967
X24.274 Y-262.109 Z-13.308 I2.919 J-0.702
X24.05 Y-267.096 Z-13.515 I-1.772 J-2.419
X19.541 Y-264.966 Z-13.722 I-1.545 J2.565
X23.242 Y-261.634 Z-13.929 I2.959 J0.435
X24.885 Y-266.329 Z-14.136 I-0.74 J-2.894
X19.926 Y-266.033 Z-14.343 I-2.381 J1.798
X22.111 Y-261.578 Z-14.55 I2.575 J1.501
X25.373 Y-265.308 Z-14.757 I0.39 J-2.951
X20.678 Y-266.876 Z-14.963 I-2.869 J0.779
X21.045 Y-261.945 Z-15.17 I1.824 J2.343
X25.446 Y-264.184 Z-15.377 I1.456 J-2.584
X21.686 Y-267.376 Z-15.584 I-2.942 J-0.345
X20.195 Y-262.681 Z-15.791 I0.817 J2.844
X25.095 Y-263.117 Z-15.998 I2.305 J-1.849
X22.804 Y-267.464 Z-16.205 I-2.592 J-1.411
X19.683 Y-263.677 Z-16.412 I-0.3 J2.932
X24.375 Y-262.261 Z-16.619 I2.818 J-0.854
X23.87 Y-267.131 Z-16.826 I-1.873 J-2.267
X19.578 Y-264.788 Z-17.033 I-1.366 J2.6
X23.392 Y-261.737 Z-17.24 I2.922 J0.256
X24.733 Y-266.427 Z-17.447 I-0.89 J-2.791
X19.895 Y-265.854 Z-17.654 I-2.228 J1.897
X22.288 Y-261.617 Z-17.861 I2.606 J1.322
X25.268 Y-265.456 Z-18.068 I0.213 J-2.911
X20.583 Y-266.722 Z-18.275 I-2.764 J0.926
X21.223 Y-261.917 Z-18.482 I1.919 J2.189
X25.403 Y-264.36 Z-18.689 I1.277 J-2.613
X21.541 Y-267.269 Z-18.896 I-2.899 J-0.169
X20.35 Y-262.589 Z-19.103 I0.962 J2.737
X25.121 Y-263.296 Z-19.31 I2.15 J-1.941
X22.63 Y-267.419 Z-19.517 I-2.618 J-1.233
X19.791 Y-263.534 Z-19.723 I-0.126 J2.887
X24.465 Y-262.417 Z-19.93 I2.709 J-0.997
X23.692 Y-267.154 Z-20.137 I-1.963 J-2.111
X19.626 Y-264.615 Z-20.344 I-1.188 J2.622
X23.533 Y-261.848 Z-20.551 I2.874 J0.084
X24.576 Y-266.514 Z-20.758 I-1.031 J-2.68
X19.875 Y-265.676 Z-20.965 I-2.072 J1.983
X22.459 Y-261.668 Z-21.172 I2.626 J1.144
X25.156 Y-265.594 Z-21.379 I0.042 J-2.861
X20.499 Y-266.565 Z-21.586 I-2.652 J1.065
X21.4 Y-261.9 Z-21.793 I2.003 J2.033
X25.351 Y-264.529 Z-22 I1.1 J-2.629
X23.15 Y-267.304 I-2.85
X20.974 Y-262.122 I-0.65 J2.775
X24.271 Y-262.296 I1.527 J-2.407
X25.351 Y-264.529 I-1.771 J-2.233
G1 X25.363 Y-265.415 F850
X25.396 Y-265.521
X25.424 Y-265.668
X25.434 Y-265.818
X25.427 Y-265.968
X25.406 Y-266.116
X25.373 Y-266.263
X25.329 Y-266.406
X25.274 Y-266.546
X25.21 Y-266.681
X25.138 Y-266.813
X25.058 Y-266.94
X24.97 Y-267.061
X24.874 Y-267.181
X24.767 Y-267.299
X24.651 Y-267.413
X24.526 Y-267.523
X24.392 Y-267.629
X24.249 Y-267.728
X24.098 Y-267.822
X23.94 Y-267.908
X23.773 Y-267.986
X23.601 Y-268.056
X23.422 Y-268.117
X23.238 Y-268.168
X23.049 Y-268.21
X22.856 Y-268.241
X22.661 Y-268.261
X22.462 Y-268.27
X22.262 Y-268.268
X22.061 Y-268.255
X21.86 Y-268.23
X21.66 Y-268.194
X21.461 Y-268.146
X21.264 Y-268.087
X21.07 Y-268.016
X20.879 Y-267.935
X20.693 Y-267.843
X20.512 Y-267.74
X20.336 Y-267.626
X20.167 Y-267.503
X20.004 Y-267.37
X19.849 Y-267.228
X19.702 Y-267.077
X19.564 Y-266.918
X19.434 Y-266.751
X19.403 Y-266.705
X19.251 Y-266.445
X19.14 Y-266.165
X19.073 Y-265.871
X19.05 Y-265.571
Y-263.926
X19.06 Y-263.73
X19.076 Y-263.578
X19.102 Y-263.423
X19.137 Y-263.265
X19.182 Y-263.105
X19.237 Y-262.945
X19.303 Y-262.784
X19.379 Y-262.625
X19.465 Y-262.467
X19.562 Y-262.312
X19.669 Y-262.16
X19.785 Y-262.012
X19.912 Y-261.87
X20.048 Y-261.733
X20.193 Y-261.603
X20.346 Y-261.48
X20.507 Y-261.365
X20.676 Y-261.258
X20.688 Y-261.251
X20.996 Y-261.113
X21.323 Y-261.028
X21.659 Y-261
G2 X21.887 Y-261.054 I-0.021 J-0.6 F250
X22.092 Y-261.991 I-0.249 J-0.546 F850
G1 X20.104 Y-264.297
G2 X19.104 Y-264.154 I-0.454 J0.392
X19.05 Y-263.926 I0.546 J0.249 F250
G1 Y-262.607 F850
