%
(1001)
(length along y axis. Origin far top left)
(T2  D=6 CR=0 - ZMIN=-22 - flat end mill)
G90 G94
G17
G21

(2D Adaptive11)
M9
T2 M6
S6500 M3
G54
M9
G0 X25.219 Y-263.013
Z15
Z5
Z3.1
G1 Z2.5 F250
G2 X22.647 Y-267.346 Z2.292 I-2.719 J-1.316 F200
X19.669 Y-263.288 Z2.084 I-0.147 J3.014
X24.563 Y-262.138 Z1.876 I2.827 J-1.043
X23.708 Y-267.085 Z1.668 I-2.064 J-2.191
X19.495 Y-264.365 Z1.459 I-1.207 J2.754
X23.642 Y-261.556 Z1.251 I3.003 J0.033
X24.603 Y-266.466 Z1.043 I-1.143 J-2.773
X19.714 Y-265.43 Z0.835 I-2.102 J2.134
X22.577 Y-261.342 Z0.627 I2.783 J1.097
X25.216 Y-265.571 Z0.419 I-0.079 J-2.987
X20.297 Y-266.343 Z0.211 I-2.715 J1.24
X21.51 Y-261.521 Z0.002 I2.201 J2.01
X25.468 Y-264.52 Z-0.206 I0.987 J-2.809
X21.164 Y-266.986 Z-0.414 I-2.968 J0.19
X20.58 Y-262.066 Z-0.622 I1.335 J2.653
X25.33 Y-263.452 Z-0.83 I1.917 J-2.264
X22.2 Y-267.277 Z-1.038 I-2.83 J-0.877
X19.908 Y-262.904 Z-1.246 I0.3 J2.944
X24.823 Y-262.507 Z-1.454 I2.588 J-1.427
X23.267 Y-267.179 Z-1.663 I-2.323 J-1.821
X19.581 Y-263.923 Z-1.871 I-0.766 J2.847
X24.014 Y-261.808 Z-2.079 I2.916 J-0.409
X24.225 Y-266.709 Z-2.287 I-1.515 J-2.521
X19.638 Y-264.988 Z-2.495 I-1.724 J2.378
X23.013 Y-261.444 Z-2.703 I2.86 J0.655
X24.951 Y-265.932 Z-2.911 I-0.515 J-2.884
X20.069 Y-265.959 Z-3.119 I-2.45 J1.601
X21.952 Y-261.461 Z-3.328 I2.429 J1.626
X25.35 Y-264.95 Z-3.536 I0.545 J-2.868
X20.815 Y-266.709 Z-3.744 I-2.849 J0.62
X20.971 Y-261.854 Z-3.952 I1.683 J2.376
X25.372 Y-263.895 Z-4.16 I1.526 J-2.476
X21.777 Y-267.142 Z-4.368 I-2.872 J-0.435
X20.197 Y-262.568 Z-4.576 I0.723 J2.81
X25.019 Y-262.904 Z-4.784 I2.3 J-1.763
X22.825 Y-267.204 Z-4.992 I-2.519 J-1.425
X19.73 Y-263.508 Z-5.201 I-0.325 J2.872
X24.338 Y-262.108 Z-5.409 I2.766 J-0.824
X23.823 Y-266.889 Z-5.617 I-1.838 J-2.221
X19.63 Y-264.548 Z-5.825 I-1.322 J2.558
X23.421 Y-261.609 Z-6.033 I2.868 J0.216
X24.64 Y-266.242 Z-6.241 I-0.922 J-2.72
X19.905 Y-265.552 Z-6.449 I-2.139 J1.911
X22.39 Y-261.47 Z-6.657 I2.592 J1.219
X25.171 Y-265.349 Z-6.866 I0.107 J-2.859
X20.519 Y-266.388 Z-7.074 I-2.67 J1.019
X21.382 Y-261.707 Z-7.282 I1.98 J2.056
X25.347 Y-264.329 Z-7.49 I1.115 J-2.623
X23.147 Y-267.105 I-2.85
X20.97 Y-261.923 I-0.65 J2.775
X24.268 Y-262.096 I1.527 J-2.407
X25.347 Y-264.329 I-1.771 J-2.233
G1 X25.36 Y-265.216 F850
X25.393 Y-265.321
X25.421 Y-265.469
X25.43 Y-265.618
X25.423 Y-265.768
X25.403 Y-265.917
X25.37 Y-266.063
X25.325 Y-266.206
X25.271 Y-266.346
X25.207 Y-266.482
X25.135 Y-266.613
X25.055 Y-266.74
X24.967 Y-266.862
X24.87 Y-266.982
X24.764 Y-267.099
X24.648 Y-267.213
X24.523 Y-267.324
X24.389 Y-267.429
X24.246 Y-267.529
X24.095 Y-267.622
X23.936 Y-267.708
X23.77 Y-267.787
X23.597 Y-267.857
X23.419 Y-267.917
X23.235 Y-267.969
X23.046 Y-268.01
X22.853 Y-268.041
X22.657 Y-268.061
X22.459 Y-268.07
X22.259 Y-268.068
X22.058 Y-268.055
X21.857 Y-268.03
X21.656 Y-267.994
X21.457 Y-267.946
X21.26 Y-267.887
X21.066 Y-267.817
X20.876 Y-267.735
X20.69 Y-267.643
X20.508 Y-267.54
X20.333 Y-267.427
X20.164 Y-267.303
X20.091 Y-267.244
X19.841 Y-267
X19.637 Y-266.715
X19.485 Y-266.398
X19.391 Y-266.061
X19.358 Y-265.712
X19.34 Y-263.322
X19.346 Y-263.172
X19.363 Y-263.023
X19.39 Y-262.876
X19.427 Y-262.73
X19.473 Y-262.588
X19.528 Y-262.448
X19.59 Y-262.312
X19.663 Y-262.176
X19.745 Y-262.04
X19.837 Y-261.906
X19.859 Y-261.877
X20.108 Y-261.61
X20.4 Y-261.393
X20.728 Y-261.232
X21.079 Y-261.133
X21.442 Y-261.1
G2 X21.67 Y-261.154 I-0.021 J-0.6 F250
X21.861 Y-262.108 I-0.249 J-0.546 F850
G1 X20.379 Y-263.705
G2 X19.395 Y-263.55 I-0.44 J0.408
X19.34 Y-263.322 I0.544 J0.253 F250
G1 X19.331 Y-262.205 F850
X19.338 Y-262.055
X19.408 Y-261.799
X19.536 Y-261.567
X19.715 Y-261.372
X19.934 Y-261.224
X20.183 Y-261.131
X20.446 Y-261.1
G2 X20.679 Y-261.134 I-0.037 J-1.061 F250
X21.436 Y-262.433 I-0.27 J-1.027 F850
X19.367 Y-262.437 I-1.035 J0.273
X19.331 Y-262.205 I1.034 J0.278 F250
G1 X19.328 Y-261.711 F850
X19.336 Y-261.611
X19.362 Y-261.51
X19.383 Y-261.46
X19.409 Y-261.41
X19.441 Y-261.36
X19.482 Y-261.309
X19.532 Y-261.259
X19.582 Y-261.22
X19.633 Y-261.186
X19.683 Y-261.159
X19.766 Y-261.127
X19.849 Y-261.107
X19.884 Y-261.103
X20.085 Y-261.1
X23.416
X23.567 Y-261.108
X23.716 Y-261.123
X23.863 Y-261.149
X24.009 Y-261.185
X24.153 Y-261.229
X24.293 Y-261.281
X24.434 Y-261.343
X24.575 Y-261.415
X24.716 Y-261.497
X24.762 Y-261.528
X25.023 Y-261.732
X25.246 Y-261.977
X25.426 Y-262.256
X25.557 Y-262.56
X25.636 Y-262.882
X25.661 Y-263.212
G2 X25.606 Y-263.44 I-0.599 J0.026 F250
X24.656 Y-263.629 I-0.544 J0.253 F850
G1 X23.032 Y-262.142
G2 X23.188 Y-261.154 I0.405 J0.443
X23.416 Y-261.1 I0.249 J-0.546 F250
G1 X24.573 F850
X24.723 Y-261.108
X24.978 Y-261.178
X25.209 Y-261.307
X25.403 Y-261.487
X25.549 Y-261.707
X25.639 Y-261.955
X25.669 Y-262.218
G2 X25.633 Y-262.45 I-1.06 J0.045 F250
X24.335 Y-263.197 I-1.024 J0.277 F850
X24.341 Y-261.134 I0.276 J1.031
X24.573 Y-261.1 I0.27 J-1.032 F250
G1 X24.915 F850
X25.116 Y-261.103
X25.151 Y-261.107
X25.234 Y-261.127
X25.317 Y-261.159
X25.367 Y-261.186
X25.418 Y-261.22
X25.468 Y-261.259
X25.519 Y-261.31
X25.559 Y-261.36
X25.591 Y-261.41
X25.617 Y-261.46
X25.638 Y-261.51
X25.664 Y-261.611
X25.672 Y-261.711
X25.637 Y-266.403
X25.628 Y-266.553
X25.609 Y-266.702
X25.577 Y-266.848
X25.534 Y-266.992
X25.481 Y-267.132
X25.418 Y-267.269
X25.347 Y-267.401
X25.269 Y-267.528
X25.181 Y-267.654
X25.082 Y-267.78
X24.971 Y-267.906
X24.848 Y-268.031
X24.716 Y-268.151
X24.573 Y-268.266
X24.419 Y-268.377
X24.254 Y-268.482
X24.077 Y-268.581
X23.891 Y-268.673
X23.695 Y-268.755
X23.492 Y-268.827
X23.281 Y-268.889
X23.064 Y-268.94
X22.84 Y-268.979
X22.61 Y-269.006
X22.375 Y-269.02
X22.136 Y-269.021
X21.894 Y-269.009
X21.651 Y-268.982
X21.407 Y-268.941
X21.164 Y-268.887
X20.939 Y-268.823
X20.717 Y-268.745
X20.606 Y-268.7
X20.261 Y-268.517
X19.959 Y-268.271
X19.71 Y-267.97
X19.524 Y-267.627
X19.408 Y-267.254
X19.367 Y-266.866
X19.358 Y-265.712
G2 X19.41 Y-265.484 I0.6 J-0.016 F250
X20.039 Y-265.134 I0.548 J-0.245 F850
G1 X25.118 Y-265.825
G2 X25.585 Y-266.175 I-0.081 J-0.595
X25.637 Y-266.403 I-0.548 J-0.245 F250
G1 X25.629 Y-267.46 F850
X25.62 Y-267.609
X25.596 Y-267.758
X25.558 Y-267.903
X25.509 Y-268.044
X25.449 Y-268.182
X25.38 Y-268.315
X25.302 Y-268.443
X25.216 Y-268.568
X25.121 Y-268.691
X25.012 Y-268.816
X24.888 Y-268.943
X24.754 Y-269.066
X24.608 Y-269.186
X24.449 Y-269.302
X24.275 Y-269.414
X24.087 Y-269.521
X23.888 Y-269.62
X23.68 Y-269.709
X23.46 Y-269.789
X23.227 Y-269.859
X22.983 Y-269.917
X22.73 Y-269.963
X22.47 Y-269.995
X22.205 Y-270.013
X21.95 Y-270.015
X21.713 Y-270.004
X21.453 Y-269.978
X21.238 Y-269.943
X21.03 Y-269.898
X20.808 Y-269.836
X20.731 Y-269.81
X20.409 Y-269.667
X20.116 Y-269.47
X19.863 Y-269.225
X19.657 Y-268.939
X19.504 Y-268.622
X19.409 Y-268.282
X19.375 Y-267.931
X19.367 Y-266.866
G2 X19.419 Y-266.637 I0.6 J-0.016 F250
X20.037 Y-266.286 I0.548 J-0.245 F850
G1 X25.099 Y-266.88
G2 X25.577 Y-267.231 I-0.07 J-0.596
X25.629 Y-267.46 I-0.548 J-0.245 F250
G1 X25.621 Y-268.417 F850
X25.613 Y-268.566
X25.588 Y-268.714
X25.55 Y-268.859
X25.5 Y-269.001
X25.439 Y-269.138
X25.37 Y-269.271
X25.291 Y-269.399
X25.203 Y-269.526
X25.105 Y-269.652
X24.993 Y-269.78
X24.865 Y-269.91
X24.725 Y-270.038
X24.573 Y-270.162
X24.403 Y-270.284
X24.217 Y-270.404
X24.018 Y-270.516
X23.807 Y-270.62
X23.583 Y-270.715
X23.348 Y-270.799
X23.1 Y-270.873
X22.847 Y-270.933
X22.589 Y-270.978
X22.325 Y-271.01
X22.082 Y-271.025
X21.832 Y-271.027
X21.595 Y-271.015
X21.388 Y-270.993
X21.16 Y-270.956
X20.963 Y-270.912
X20.775 Y-270.859
X20.732 Y-270.845
X20.411 Y-270.702
X20.12 Y-270.504
X19.868 Y-270.259
X19.663 Y-269.974
X19.511 Y-269.657
X19.416 Y-269.318
X19.383 Y-268.969
X19.375 Y-267.931
G2 X19.427 Y-267.703 I0.6 J-0.016 F250
X20.032 Y-267.351 I0.548 J-0.245 F850
G1 X25.079 Y-267.836
G2 X25.569 Y-268.188 I-0.057 J-0.597
X25.621 Y-268.417 I-0.548 J-0.245 F250
G1 X25.614 Y-269.362 F850
X25.605 Y-269.512
X25.582 Y-269.66
X25.545 Y-269.806
X25.495 Y-269.947
X25.436 Y-270.085
X25.367 Y-270.218
X25.29 Y-270.347
X25.204 Y-270.473
X25.104 Y-270.605
X24.988 Y-270.74
X24.862 Y-270.872
X24.72 Y-271.004
X24.561 Y-271.136
X24.387 Y-271.265
X24.201 Y-271.387
X24.001 Y-271.503
X23.786 Y-271.611
X23.558 Y-271.711
X23.32 Y-271.799
X23.075 Y-271.875
X22.823 Y-271.937
X22.568 Y-271.985
X22.311 Y-272.019
X22.076 Y-272.036
X21.838 Y-272.041
X21.603 Y-272.032
X21.402 Y-272.012
X21.18 Y-271.978
X20.983 Y-271.937
X20.8 Y-271.888
X20.761 Y-271.874
X20.435 Y-271.733
X20.14 Y-271.537
X19.884 Y-271.292
X19.675 Y-271.005
X19.521 Y-270.686
X19.425 Y-270.344
X19.391 Y-269.991
X19.383 Y-268.969
G2 X19.435 Y-268.74 I0.6 J-0.016 F250
X20.03 Y-268.387 I0.548 J-0.245 F850
G1 X25.061 Y-268.781
G2 X25.562 Y-269.134 I-0.047 J-0.598
X25.614 Y-269.362 I-0.548 J-0.245 F250
G1 X25.607 Y-270.279 F850
X25.598 Y-270.428
X25.581 Y-270.577
X25.548 Y-270.724
X25.504 Y-270.867
X25.448 Y-271.006
X25.383 Y-271.142
X25.31 Y-271.273
X25.228 Y-271.402
X25.13 Y-271.538
X25.022 Y-271.672
X24.899 Y-271.807
X24.759 Y-271.945
X24.605 Y-272.08
X24.439 Y-272.21
X24.257 Y-272.337
X24.059 Y-272.459
X23.848 Y-272.573
X23.626 Y-272.677
X23.394 Y-272.771
X23.154 Y-272.852
X22.909 Y-272.92
X22.658 Y-272.975
X22.404 Y-273.015
X22.163 Y-273.04
X21.938 Y-273.05
X21.695 Y-273.047
X21.492 Y-273.033
X21.277 Y-273.007
X21.069 Y-272.969
X20.89 Y-272.926
X20.821 Y-272.905
X20.485 Y-272.769
X20.179 Y-272.575
X19.913 Y-272.329
X19.696 Y-272.039
X19.534 Y-271.714
X19.434 Y-271.366
X19.398 Y-271.005
X19.391 Y-269.991
G2 X19.443 Y-269.763 I0.6 J-0.016 F250
X20.025 Y-269.409 I0.548 J-0.245 F850
G1 X25.042 Y-269.696
G2 X25.555 Y-270.05 I-0.034 J-0.599
X25.607 Y-270.279 I-0.548 J-0.245 F250
G1 X25.599 Y-271.285 F850
X25.591 Y-271.435
X25.57 Y-271.584
X25.536 Y-271.73
X25.49 Y-271.872
X25.434 Y-272.011
X25.368 Y-272.146
X25.294 Y-272.277
X25.209 Y-272.409
X25.113 Y-272.543
X25 Y-272.682
X24.873 Y-272.821
X24.735 Y-272.956
X24.58 Y-273.091
X24.408 Y-273.225
X24.223 Y-273.354
X24.025 Y-273.475
X23.816 Y-273.587
X23.596 Y-273.69
X23.364 Y-273.783
X23.125 Y-273.863
X22.88 Y-273.93
X22.63 Y-273.984
X22.378 Y-274.024
X22.152 Y-274.046
X21.908 Y-274.057
X21.683 Y-274.053
X21.483 Y-274.039
X21.259 Y-274.011
X21.065 Y-273.975
X20.882 Y-273.931
X20.824 Y-273.913
X20.489 Y-273.777
X20.184 Y-273.582
X19.919 Y-273.336
X19.702 Y-273.047
X19.541 Y-272.722
X19.442 Y-272.375
X19.406 Y-272.015
X19.398 Y-271.005
G2 X19.45 Y-270.777 I0.6 J-0.016 F250
X20.032 Y-270.423 I0.548 J-0.245 F850
G1 X25.033 Y-270.703
G2 X25.547 Y-271.057 I-0.034 J-0.599
X25.599 Y-271.285 I-0.548 J-0.245 F250
G1 X25.592 Y-272.292 F850
X25.583 Y-272.442
X25.561 Y-272.59
X25.526 Y-272.736
X25.48 Y-272.879
X25.423 Y-273.017
X25.357 Y-273.152
X25.282 Y-273.284
X25.197 Y-273.416
X25.099 Y-273.551
X24.985 Y-273.691
X24.858 Y-273.83
X24.719 Y-273.965
X24.563 Y-274.101
X24.391 Y-274.236
X24.205 Y-274.364
X24.007 Y-274.484
X23.799 Y-274.596
X23.578 Y-274.699
X23.346 Y-274.791
X23.109 Y-274.871
X22.864 Y-274.938
X22.615 Y-274.991
X22.365 Y-275.029
X22.142 Y-275.051
X21.899 Y-275.061
X21.677 Y-275.058
X21.478 Y-275.044
X21.255 Y-275.015
X21.063 Y-274.979
X20.881 Y-274.935
X20.829 Y-274.919
X20.494 Y-274.782
X20.19 Y-274.588
X19.925 Y-274.342
X19.709 Y-274.052
X19.549 Y-273.728
X19.449 Y-273.381
X19.414 Y-273.021
X19.406 Y-272.015
G2 X19.458 Y-271.786 I0.6 J-0.016 F250
X20.039 Y-271.432 I0.548 J-0.245 F850
G1 X25.025 Y-271.709
G2 X25.54 Y-272.064 I-0.033 J-0.599
X25.592 Y-272.292 I-0.548 J-0.245 F250
G1 X25.584 Y-273.299 F850
X25.575 Y-273.448
X25.553 Y-273.597
X25.518 Y-273.742
X25.471 Y-273.885
X25.414 Y-274.024
X25.348 Y-274.158
X25.273 Y-274.291
X25.188 Y-274.423
X25.089 Y-274.558
X24.974 Y-274.698
X24.847 Y-274.837
X24.708 Y-274.973
X24.552 Y-275.109
X24.379 Y-275.243
X24.193 Y-275.371
X23.996 Y-275.491
X23.788 Y-275.603
X23.567 Y-275.705
X23.336 Y-275.797
X23.099 Y-275.876
X22.855 Y-275.942
X22.607 Y-275.995
X22.359 Y-276.033
X22.137 Y-276.055
X21.895 Y-276.064
X21.675 Y-276.061
X21.476 Y-276.047
X21.255 Y-276.018
X21.064 Y-275.982
X20.882 Y-275.937
X20.835 Y-275.923
X20.501 Y-275.786
X20.196 Y-275.592
X19.932 Y-275.346
X19.716 Y-275.056
X19.556 Y-274.733
X19.457 Y-274.385
X19.421 Y-274.026
X19.414 Y-273.021
G2 X19.466 Y-272.793 I0.6 J-0.016 F250
X20.047 Y-272.439 I0.548 J-0.245 F850
G1 X25.018 Y-272.716
G2 X25.532 Y-273.07 I-0.033 J-0.599
X25.584 Y-273.299 I-0.548 J-0.245 F250
G1 X25.576 Y-274.305 F850
X25.568 Y-274.455
X25.545 Y-274.603
X25.51 Y-274.749
X25.463 Y-274.892
X25.406 Y-275.03
X25.339 Y-275.165
X25.264 Y-275.297
X25.179 Y-275.429
X25.08 Y-275.565
X24.965 Y-275.705
X24.838 Y-275.843
X24.699 Y-275.979
X24.542 Y-276.115
X24.369 Y-276.249
X24.184 Y-276.377
X23.986 Y-276.497
X23.779 Y-276.607
X23.558 Y-276.71
X23.328 Y-276.801
X23.093 Y-276.879
X22.849 Y-276.945
X22.602 Y-276.998
X22.354 Y-277.036
X22.135 Y-277.057
X21.893 Y-277.066
X21.675 Y-277.063
X21.477 Y-277.048
X21.256 Y-277.019
X21.066 Y-276.984
X20.884 Y-276.939
X20.841 Y-276.925
X20.507 Y-276.789
X20.203 Y-276.594
X19.939 Y-276.348
X19.724 Y-276.059
X19.564 Y-275.735
X19.464 Y-275.388
X19.429 Y-275.029
X19.421 Y-274.026
G2 X19.473 Y-273.798 I0.6 J-0.016 F250
X20.055 Y-273.443 I0.548 J-0.245 F850
G1 X25.01 Y-273.723
G2 X25.524 Y-274.077 I-0.034 J-0.599
X25.576 Y-274.305 I-0.548 J-0.245 F250
G1 X25.569 Y-275.312 F850
X25.56 Y-275.462
X25.538 Y-275.61
X25.502 Y-275.756
X25.454 Y-275.898
X25.397 Y-276.037
X25.331 Y-276.171
X25.255 Y-276.304
X25.17 Y-276.436
X25.071 Y-276.571
X24.956 Y-276.711
X24.829 Y-276.849
X24.689 Y-276.985
X24.533 Y-277.12
X24.36 Y-277.254
X24.175 Y-277.381
X23.978 Y-277.501
X23.77 Y-277.611
X23.55 Y-277.713
X23.321 Y-277.804
X23.086 Y-277.882
X22.843 Y-277.947
X22.597 Y-277.999
X22.35 Y-278.037
X22.132 Y-278.057
X21.891 Y-278.067
X21.674 Y-278.063
X21.477 Y-278.048
X21.257 Y-278.019
X21.068 Y-277.984
X20.886 Y-277.938
X20.847 Y-277.926
X20.513 Y-277.789
X20.21 Y-277.595
X19.946 Y-277.349
X19.731 Y-277.059
X19.571 Y-276.736
X19.472 Y-276.389
X19.437 Y-276.031
X19.429 Y-275.029
G2 X19.481 Y-274.801 I0.6 J-0.016 F250
X20.063 Y-274.446 I0.548 J-0.245 F850
G1 X25.003 Y-274.729
G2 X25.517 Y-275.084 I-0.034 J-0.599
X25.569 Y-275.312 I-0.548 J-0.245 F250
G1 X25.561 Y-276.319 F850
X25.552 Y-276.469
X25.53 Y-276.617
X25.494 Y-276.762
X25.446 Y-276.905
X25.389 Y-277.043
X25.322 Y-277.178
X25.246 Y-277.31
X25.161 Y-277.442
X25.062 Y-277.577
X24.947 Y-277.717
X24.819 Y-277.855
X24.68 Y-277.99
X24.523 Y-278.125
X24.351 Y-278.258
X24.165 Y-278.386
X23.968 Y-278.505
X23.761 Y-278.615
X23.542 Y-278.716
X23.313 Y-278.806
X23.078 Y-278.883
X22.836 Y-278.948
X22.591 Y-279
X22.345 Y-279.037
X22.128 Y-279.057
X21.888 Y-279.066
X21.673 Y-279.062
X21.476 Y-279.047
X21.257 Y-279.018
X21.069 Y-278.982
X20.887 Y-278.936
X20.852 Y-278.926
X20.519 Y-278.788
X20.216 Y-278.594
X19.953 Y-278.348
X19.738 Y-278.059
X19.578 Y-277.736
X19.48 Y-277.389
X19.444 Y-277.031
X19.437 Y-276.031
G2 X19.489 Y-275.802 I0.6 J-0.016 F250
X20.072 Y-275.448 I0.548 J-0.245 F850
G1 X24.996 Y-275.736
G2 X25.509 Y-276.09 I-0.035 J-0.599
X25.561 Y-276.319 I-0.548 J-0.245 F250
G1 X25.553 Y-277.325 F850
X25.545 Y-277.475
X25.522 Y-277.623
X25.485 Y-277.769
X25.437 Y-277.911
X25.38 Y-278.05
X25.313 Y-278.184
X25.237 Y-278.316
X25.151 Y-278.448
X25.052 Y-278.583
X24.937 Y-278.723
X24.809 Y-278.861
X24.669 Y-278.995
X24.513 Y-279.13
X24.34 Y-279.262
X24.154 Y-279.389
X23.958 Y-279.508
X23.751 Y-279.617
X23.531 Y-279.718
X23.303 Y-279.807
X23.069 Y-279.884
X22.828 Y-279.948
X22.583 Y-279.999
X22.339 Y-280.035
X22.123 Y-280.055
X21.883 Y-280.064
X21.67 Y-280.059
X21.473 Y-280.044
X21.255 Y-280.015
X21.069 Y-279.979
X20.886 Y-279.933
X20.856 Y-279.924
X20.524 Y-279.786
X20.221 Y-279.591
X19.959 Y-279.345
X19.745 Y-279.056
X19.586 Y-278.734
X19.487 Y-278.388
X19.452 Y-278.03
X19.444 Y-277.031
G2 X19.496 Y-276.802 I0.6 J-0.016 F250
X20.08 Y-276.448 I0.548 J-0.245 F850
G1 X24.99 Y-276.743
G2 X25.501 Y-277.097 I-0.036 J-0.599
X25.553 Y-277.325 I-0.548 J-0.245 F250
G1 X25.546 Y-278.332 F850
X25.537 Y-278.482
X25.513 Y-278.63
X25.477 Y-278.775
X25.429 Y-278.918
X25.371 Y-279.056
X25.303 Y-279.19
X25.227 Y-279.322
X25.141 Y-279.454
X25.041 Y-279.589
X24.926 Y-279.728
X24.797 Y-279.866
X24.657 Y-280
X24.501 Y-280.135
X24.329 Y-280.266
X24.142 Y-280.393
X23.946 Y-280.511
X23.739 Y-280.62
X23.52 Y-280.719
X23.292 Y-280.808
X23.059 Y-280.884
X22.818 Y-280.948
X22.574 Y-280.998
X22.331 Y-281.033
X22.116 Y-281.053
X21.877 Y-281.06
X21.666 Y-281.056
X21.469 Y-281.04
X21.252 Y-281.01
X21.067 Y-280.974
X20.884 Y-280.928
X20.859 Y-280.92
X20.528 Y-280.782
X20.226 Y-280.587
X19.965 Y-280.341
X19.751 Y-280.052
X19.593 Y-279.73
X19.495 Y-279.385
X19.46 Y-279.027
X19.452 Y-278.03
G2 X19.504 Y-277.801 I0.6 J-0.016 F250
X20.089 Y-277.447 I0.548 J-0.245 F850
G1 X24.983 Y-277.75
G2 X25.494 Y-278.104 I-0.037 J-0.599
X25.546 Y-278.332 I-0.548 J-0.245 F250
G1 X25.538 Y-279.339 F850
X25.529 Y-279.489
X25.505 Y-279.637
X25.468 Y-279.782
X25.419 Y-279.924
X25.361 Y-280.062
X25.294 Y-280.196
X25.217 Y-280.328
X25.13 Y-280.46
X25.03 Y-280.595
X24.914 Y-280.734
X24.785 Y-280.871
X24.645 Y-281.005
X24.488 Y-281.139
X24.316 Y-281.27
X24.129 Y-281.396
X23.932 Y-281.513
X23.725 Y-281.621
X23.506 Y-281.72
X23.279 Y-281.808
X23.046 Y-281.883
X22.806 Y-281.946
X22.562 Y-281.995
X22.321 Y-282.03
X22.107 Y-282.049
X21.869 Y-282.056
X21.66 Y-282.051
X21.463 Y-282.034
X21.247 Y-282.004
X21.064 Y-281.968
X20.88 Y-281.921
X20.862 Y-281.915
X20.531 Y-281.776
X20.231 Y-281.581
X19.97 Y-281.335
X19.758 Y-281.047
X19.6 Y-280.725
X19.502 Y-280.381
X19.467 Y-280.024
X19.46 Y-279.027
G2 X19.512 Y-278.799 I0.6 J-0.016 F250
X20.098 Y-278.445 I0.548 J-0.245 F850
G1 X24.976 Y-278.756
G2 X25.486 Y-279.111 I-0.038 J-0.599
X25.538 Y-279.339 I-0.548 J-0.245 F250
G1 X25.53 Y-280.346 F850
X25.522 Y-280.495
X25.497 Y-280.643
X25.459 Y-280.788
X25.41 Y-280.93
X25.351 Y-281.068
X25.283 Y-281.202
X25.206 Y-281.334
X25.118 Y-281.466
X25.018 Y-281.6
X24.901 Y-281.739
X24.772 Y-281.876
X24.631 Y-282.01
X24.474 Y-282.143
X24.301 Y-282.274
X24.114 Y-282.399
X23.917 Y-282.516
X23.71 Y-282.623
X23.491 Y-282.721
X23.265 Y-282.808
X23.032 Y-282.882
X22.792 Y-282.944
X22.549 Y-282.992
X22.309 Y-283.026
X22.096 Y-283.044
X21.859 Y-283.05
X21.652 Y-283.044
X21.455 Y-283.027
X21.24 Y-282.997
X21.059 Y-282.96
X20.874 Y-282.912
X20.863 Y-282.909
X20.534 Y-282.77
X20.235 Y-282.574
X19.975 Y-282.328
X19.764 Y-282.04
X19.607 Y-281.719
X19.509 Y-281.375
X19.475 Y-281.02
X19.467 Y-280.024
G2 X19.519 Y-279.796 I0.6 J-0.016 F250
X20.107 Y-279.442 I0.548 J-0.245 F850
G1 X24.97 Y-279.763
G2 X25.478 Y-280.117 I-0.04 J-0.599
X25.53 Y-280.346 I-0.548 J-0.245 F250
G1 X25.523 Y-281.302 F850
X25.514 Y-281.452
X25.494 Y-281.601
X25.46 Y-281.747
X25.414 Y-281.89
X25.358 Y-282.029
X25.293 Y-282.164
X25.219 Y-282.295
X25.136 Y-282.425
X25.037 Y-282.561
X24.926 Y-282.698
X24.804 Y-282.832
X24.666 Y-282.967
X24.511 Y-283.103
X24.344 Y-283.234
X24.164 Y-283.358
X23.972 Y-283.476
X23.768 Y-283.586
X23.552 Y-283.687
X23.327 Y-283.777
X23.097 Y-283.855
X22.858 Y-283.921
X22.618 Y-283.973
X22.374 Y-284.011
X22.16 Y-284.033
X21.929 Y-284.043
X21.711 Y-284.04
X21.519 Y-284.027
X21.304 Y-283.999
X21.113 Y-283.964
X20.936 Y-283.921
X20.902 Y-283.911
X20.566 Y-283.775
X20.261 Y-283.581
X19.995 Y-283.335
X19.779 Y-283.045
X19.618 Y-282.721
X19.518 Y-282.373
X19.482 Y-282.012
X19.475 Y-281.02
G2 X19.527 Y-280.791 I0.6 J-0.016 F250
X20.109 Y-280.437 I0.548 J-0.245 F850
G1 X24.958 Y-280.72
G2 X25.471 Y-281.074 I-0.035 J-0.599
X25.523 Y-281.302 I-0.548 J-0.245 F250
G1 X25.515 Y-282.309 F850
X25.507 Y-282.459
X25.485 Y-282.607
X25.45 Y-282.753
X25.403 Y-282.896
X25.347 Y-283.035
X25.281 Y-283.169
X25.206 Y-283.3
X25.121 Y-283.432
X25.024 Y-283.564
X24.912 Y-283.701
X24.786 Y-283.839
X24.648 Y-283.973
X24.496 Y-284.105
X24.327 Y-284.235
X24.144 Y-284.362
X23.95 Y-284.48
X23.745 Y-284.589
X23.531 Y-284.688
X23.307 Y-284.777
X23.078 Y-284.853
X22.84 Y-284.917
X22.599 Y-284.968
X22.362 Y-285.004
X22.15 Y-285.025
X21.912 Y-285.034
X21.705 Y-285.031
X21.508 Y-285.016
X21.292 Y-284.988
X21.109 Y-284.953
X20.926 Y-284.908
X20.901 Y-284.901
X20.567 Y-284.764
X20.264 Y-284.569
X20 Y-284.323
X19.784 Y-284.034
X19.624 Y-283.71
X19.525 Y-283.363
X19.49 Y-283.004
X19.482 Y-282.012
G2 X19.534 Y-281.784 I0.6 J-0.016 F250
X20.119 Y-281.43 I0.548 J-0.245 F850
G1 X24.952 Y-281.727
G2 X25.463 Y-282.081 I-0.037 J-0.599
X25.515 Y-282.309 I-0.548 J-0.245 F250
G1 X25.508 Y-283.316 F850
X25.499 Y-283.466
X25.476 Y-283.614
X25.44 Y-283.76
X25.393 Y-283.902
X25.335 Y-284.04
X25.268 Y-284.175
X25.193 Y-284.305
X25.107 Y-284.437
X25.009 Y-284.57
X24.896 Y-284.707
X24.768 Y-284.844
X24.63 Y-284.978
X24.476 Y-285.109
X24.307 Y-285.239
X24.123 Y-285.364
X23.929 Y-285.481
X23.724 Y-285.589
X23.509 Y-285.687
X23.286 Y-285.774
X23.057 Y-285.849
X22.82 Y-285.912
X22.58 Y-285.962
X22.344 Y-285.997
X22.133 Y-286.016
X21.896 Y-286.024
X21.692 Y-286.02
X21.494 Y-286.004
X21.28 Y-285.975
X21.099 Y-285.94
X20.915 Y-285.894
X20.899 Y-285.889
X20.568 Y-285.751
X20.266 Y-285.556
X20.004 Y-285.31
X19.79 Y-285.021
X19.631 Y-284.699
X19.532 Y-284.353
X19.497 Y-283.996
X19.49 Y-283.004
G2 X19.542 Y-282.776 I0.6 J-0.016 F250
X20.128 Y-282.422 I0.548 J-0.245 F850
G1 X24.947 Y-282.734
G2 X25.456 Y-283.088 I-0.039 J-0.599
X25.508 Y-283.316 I-0.548 J-0.245 F250
G1 X25.501 Y-284.262 F850
X25.492 Y-284.411
X25.475 Y-284.56
X25.443 Y-284.707
X25.399 Y-284.851
X25.345 Y-284.99
X25.281 Y-285.126
X25.209 Y-285.258
X25.128 Y-285.386
X25.033 Y-285.521
X24.924 Y-285.657
X24.805 Y-285.79
X24.67 Y-285.925
X24.52 Y-286.059
X24.356 Y-286.19
X24.18 Y-286.315
X23.991 Y-286.433
X23.792 Y-286.543
X23.579 Y-286.645
X23.359 Y-286.736
X23.131 Y-286.815
X22.896 Y-286.882
X22.658 Y-286.936
X22.418 Y-286.976
X22.204 Y-286.999
X21.976 Y-287.011
X21.757
X21.566 Y-286.999
X21.352 Y-286.974
X21.16 Y-286.941
X20.984 Y-286.9
X20.943 Y-286.888
X20.604 Y-286.754
X20.294 Y-286.56
X20.025 Y-286.314
X19.806 Y-286.023
X19.642 Y-285.697
X19.541 Y-285.347
X19.505 Y-284.984
X19.497 Y-283.996
G2 X19.549 Y-283.767 I0.6 J-0.016 F250
X20.13 Y-283.413 I0.548 J-0.245 F850
G1 X24.934 Y-283.679
G2 X25.449 Y-284.033 I-0.033 J-0.599
X25.501 Y-284.262 I-0.548 J-0.245 F250
G1 X25.493 Y-285.268 F850
X25.484 Y-285.418
X25.465 Y-285.567
X25.432 Y-285.713
X25.387 Y-285.856
X25.332 Y-285.996
X25.267 Y-286.131
X25.194 Y-286.262
X25.11 Y-286.395
X25.016 Y-286.526
X24.907 Y-286.66
X24.783 Y-286.797
X24.647 Y-286.932
X24.498 Y-287.063
X24.334 Y-287.192
X24.154 Y-287.318
X23.963 Y-287.436
X23.761 Y-287.545
X23.549 Y-287.645
X23.329 Y-287.734
X23.103 Y-287.811
X23.048 Y-287.827
X22.872 Y-287.867
X22.692 Y-287.892
X22.511 Y-287.9
G2 X22.283 Y-287.846 I0.021 J0.6 F250
X22.142 Y-286.844 I0.249 J0.546 F850
G1 X24.503 Y-284.828
G2 X25.441 Y-285.04 I0.39 J-0.456
X25.493 Y-285.268 I-0.548 J-0.245 F250
G1 X25.485 Y-286.275 F850
X25.477 Y-286.425
X25.456 Y-286.573
X25.35 Y-286.885
X25.187 Y-287.171
X24.973 Y-287.42
X24.715 Y-287.624
X24.423 Y-287.775
X24.108 Y-287.869
X23.781 Y-287.9
G2 X23.553 Y-287.846 I0.021 J0.6 F250
X23.393 Y-286.861 I0.249 J0.546 F850
G1 X24.477 Y-285.852
G2 X25.433 Y-286.047 I0.409 J-0.439
X25.485 Y-286.275 I-0.548 J-0.245 F250
G1 X25.479 Y-287.081 F850
X25.47 Y-287.23
X25.398 Y-287.445
X25.27 Y-287.632
X25.096 Y-287.777
X24.888 Y-287.869
X24.664 Y-287.9
G2 X24.433 Y-287.858 I0.028 J0.805 F250
X24.123 Y-287.666 I0.259 J0.763 F850
X25.194 Y-286.492 I0.561 J0.564
X25.438 Y-286.849 I-0.51 J-0.61
X25.479 Y-287.081 I-0.754 J-0.253 F250
G1 X25.477 Y-287.282 F850
X25.469 Y-287.383
X25.443 Y-287.483
X25.422 Y-287.534
X25.396 Y-287.584
X25.363 Y-287.634
X25.317 Y-287.689
X25.267 Y-287.739
X25.217 Y-287.781
X25.166 Y-287.815
X25.116 Y-287.842
X25.052 Y-287.868
X24.988 Y-287.886
X24.915 Y-287.897
X24.714 Y-287.9
X21.695
X21.445 Y-287.887
X21.257 Y-287.867
X21.095 Y-287.841
X21.077 Y-287.837
X20.713 Y-287.718
X20.378 Y-287.532
X20.084 Y-287.285
X19.843 Y-286.987
X19.663 Y-286.648
X19.552 Y-286.281
X19.512 Y-285.9
G2 X19.564 Y-285.672 I0.6 J-0.016 F250
X20.51 Y-285.467 I0.548 J-0.245 F850
G1 X22.072 Y-286.851
G2 X21.923 Y-287.846 I-0.398 J-0.449
X21.695 Y-287.9 I-0.249 J0.546 F250
G1 X20.528 F850
X20.379 Y-287.892
X20.149 Y-287.826
X19.941 Y-287.709
X19.766 Y-287.546
X19.633 Y-287.348
X19.549 Y-287.124
X19.52 Y-286.887
G2 X19.554 Y-286.655 I0.976 J-0.027 F250
X20.757 Y-285.973 I0.941 J-0.259 F850
X20.761 Y-287.864 I-0.263 J-0.946
X20.528 Y-287.9 I-0.267 J0.945 F250
G1 X20.286 F850
X20.085 Y-287.897
X20.012 Y-287.886
X19.948 Y-287.868
X19.884 Y-287.842
X19.834 Y-287.815
X19.783 Y-287.781
X19.733 Y-287.739
X19.678 Y-287.685
X19.637 Y-287.634
X19.604 Y-287.584
X19.578 Y-287.534
X19.557 Y-287.483
X19.531 Y-287.383
X19.523 Y-287.282
X19.505 Y-284.984
X19.516 Y-284.93 Z-7.483 F250
X19.527 Y-284.879 Z-7.464
X19.537 Y-284.834 Z-7.433
X19.544 Y-284.798 Z-7.392
X19.55 Y-284.771 Z-7.343
X19.555 Y-284.759 Z-7.3
X19.557 Y-284.755 Z-7.254
G0 Z5
X25.219 Y-263.013
Z-4.39
G1 Z-4.99 F250
G2 X22.647 Y-267.346 Z-5.198 I-2.719 J-1.316 F200
X19.669 Y-263.288 Z-5.406 I-0.147 J3.014
X24.563 Y-262.138 Z-5.614 I2.827 J-1.043
X23.708 Y-267.085 Z-5.823 I-2.064 J-2.191
X19.495 Y-264.365 Z-6.031 I-1.207 J2.754
X23.642 Y-261.556 Z-6.239 I3.003 J0.033
X24.603 Y-266.466 Z-6.447 I-1.143 J-2.773
X19.714 Y-265.43 Z-6.655 I-2.102 J2.134
X22.577 Y-261.342 Z-6.863 I2.783 J1.097
X25.216 Y-265.571 Z-7.071 I-0.079 J-2.987
X20.297 Y-266.343 Z-7.279 I-2.715 J1.24
X21.51 Y-261.521 Z-7.488 I2.201 J2.01
X25.468 Y-264.52 Z-7.696 I0.987 J-2.809
X21.164 Y-266.986 Z-7.904 I-2.968 J0.19
X20.58 Y-262.066 Z-8.112 I1.335 J2.653
X25.33 Y-263.452 Z-8.32 I1.917 J-2.264
X22.2 Y-267.277 Z-8.528 I-2.83 J-0.877
X19.908 Y-262.904 Z-8.736 I0.3 J2.944
X24.823 Y-262.507 Z-8.944 I2.588 J-1.427
X23.267 Y-267.179 Z-9.153 I-2.323 J-1.821
X19.581 Y-263.923 Z-9.361 I-0.766 J2.847
X24.014 Y-261.808 Z-9.569 I2.916 J-0.409
X24.225 Y-266.709 Z-9.777 I-1.515 J-2.521
X19.638 Y-264.988 Z-9.985 I-1.724 J2.378
X23.013 Y-261.444 Z-10.193 I2.86 J0.655
X24.951 Y-265.932 Z-10.401 I-0.515 J-2.884
X20.069 Y-265.959 Z-10.609 I-2.45 J1.601
X21.952 Y-261.461 Z-10.818 I2.429 J1.626
X25.35 Y-264.95 Z-11.026 I0.545 J-2.868
X20.815 Y-266.709 Z-11.234 I-2.849 J0.62
X20.971 Y-261.854 Z-11.442 I1.683 J2.376
X25.372 Y-263.895 Z-11.65 I1.526 J-2.476
X21.777 Y-267.142 Z-11.858 I-2.872 J-0.435
X20.197 Y-262.568 Z-12.066 I0.723 J2.81
X25.019 Y-262.904 Z-12.274 I2.3 J-1.763
X22.825 Y-267.204 Z-12.483 I-2.519 J-1.425
X19.73 Y-263.508 Z-12.691 I-0.325 J2.872
X24.338 Y-262.108 Z-12.899 I2.766 J-0.824
X23.823 Y-266.889 Z-13.107 I-1.838 J-2.221
X19.63 Y-264.548 Z-13.315 I-1.322 J2.558
X23.421 Y-261.609 Z-13.523 I2.868 J0.216
X24.64 Y-266.242 Z-13.731 I-0.922 J-2.72
X19.905 Y-265.552 Z-13.939 I-2.139 J1.911
X22.39 Y-261.47 Z-14.148 I2.592 J1.219
X25.171 Y-265.349 Z-14.356 I0.107 J-2.859
X20.519 Y-266.388 Z-14.564 I-2.67 J1.019
X21.382 Y-261.707 Z-14.772 I1.98 J2.056
X25.347 Y-264.329 Z-14.98 I1.115 J-2.623
X23.147 Y-267.105 I-2.85
X20.97 Y-261.923 I-0.65 J2.775
X24.268 Y-262.096 I1.527 J-2.407
X25.347 Y-264.329 I-1.771 J-2.233
G1 X25.36 Y-265.216 F850
X25.393 Y-265.321
X25.421 Y-265.469
X25.43 Y-265.618
X25.423 Y-265.768
X25.403 Y-265.917
X25.37 Y-266.063
X25.325 Y-266.206
X25.271 Y-266.346
X25.207 Y-266.482
X25.135 Y-266.613
X25.055 Y-266.74
X24.967 Y-266.862
X24.87 Y-266.982
X24.764 Y-267.099
X24.648 Y-267.213
X24.523 Y-267.324
X24.389 Y-267.429
X24.246 Y-267.529
X24.095 Y-267.622
X23.936 Y-267.708
X23.77 Y-267.787
X23.597 Y-267.857
X23.419 Y-267.917
X23.235 Y-267.969
X23.046 Y-268.01
X22.853 Y-268.041
X22.657 Y-268.061
X22.459 Y-268.07
X22.259 Y-268.068
X22.058 Y-268.055
X21.857 Y-268.03
X21.656 Y-267.994
X21.457 Y-267.946
X21.26 Y-267.887
X21.066 Y-267.817
X20.876 Y-267.735
X20.69 Y-267.643
X20.508 Y-267.54
X20.333 Y-267.427
X20.164 Y-267.303
X20.091 Y-267.244
X19.841 Y-267
X19.637 Y-266.715
X19.485 Y-266.398
X19.391 Y-266.061
X19.358 Y-265.712
X19.34 Y-263.322
X19.346 Y-263.172
X19.363 Y-263.023
X19.39 Y-262.876
X19.427 Y-262.73
X19.473 Y-262.588
X19.528 Y-262.448
X19.59 Y-262.312
X19.663 Y-262.176
X19.745 Y-262.04
X19.837 Y-261.906
X19.859 Y-261.877
X20.108 Y-261.61
X20.4 Y-261.393
X20.728 Y-261.232
X21.079 Y-261.133
X21.442 Y-261.1
G2 X21.67 Y-261.154 I-0.021 J-0.6 F250
X21.861 Y-262.108 I-0.249 J-0.546 F850
G1 X20.379 Y-263.705
G2 X19.395 Y-263.55 I-0.44 J0.408
X19.34 Y-263.322 I0.544 J0.253 F250
G1 X19.331 Y-262.205 F850
X19.338 Y-262.055
X19.408 Y-261.799
X19.536 Y-261.567
X19.715 Y-261.372
X19.934 Y-261.224
X20.183 Y-261.131
X20.446 Y-261.1
G2 X20.679 Y-261.134 I-0.037 J-1.061 F250
X21.436 Y-262.433 I-0.27 J-1.027 F850
X19.367 Y-262.437 I-1.035 J0.273
X19.331 Y-262.205 I1.034 J0.278 F250
G1 X19.328 Y-261.711 F850
X19.336 Y-261.611
X19.362 Y-261.51
X19.383 Y-261.46
X19.409 Y-261.41
X19.441 Y-261.36
X19.482 Y-261.309
X19.532 Y-261.259
X19.582 Y-261.22
X19.633 Y-261.186
X19.683 Y-261.159
X19.766 Y-261.127
X19.849 Y-261.107
X19.884 Y-261.103
X20.085 Y-261.1
X23.416
X23.567 Y-261.108
X23.716 Y-261.123
X23.863 Y-261.149
X24.009 Y-261.185
X24.153 Y-261.229
X24.293 Y-261.281
X24.434 Y-261.343
X24.575 Y-261.415
X24.716 Y-261.497
X24.762 Y-261.528
X25.023 Y-261.732
X25.246 Y-261.977
X25.426 Y-262.256
X25.557 Y-262.56
X25.636 Y-262.882
X25.661 Y-263.212
G2 X25.606 Y-263.44 I-0.599 J0.026 F250
X24.656 Y-263.629 I-0.544 J0.253 F850
G1 X23.032 Y-262.142
G2 X23.188 Y-261.154 I0.405 J0.443
X23.416 Y-261.1 I0.249 J-0.546 F250
G1 X24.573 F850
X24.723 Y-261.108
X24.978 Y-261.178
X25.209 Y-261.307
X25.403 Y-261.487
X25.549 Y-261.707
X25.639 Y-261.955
X25.669 Y-262.218
G2 X25.633 Y-262.45 I-1.06 J0.045 F250
X24.335 Y-263.197 I-1.024 J0.277 F850
X24.341 Y-261.134 I0.276 J1.031
X24.573 Y-261.1 I0.27 J-1.032 F250
G1 X24.915 F850
X25.116 Y-261.103
X25.151 Y-261.107
X25.234 Y-261.127
X25.317 Y-261.159
X25.367 Y-261.186
X25.418 Y-261.22
X25.468 Y-261.259
X25.519 Y-261.31
X25.559 Y-261.36
X25.591 Y-261.41
X25.617 Y-261.46
X25.638 Y-261.51
X25.664 Y-261.611
X25.672 Y-261.711
X25.637 Y-266.403
X25.628 Y-266.553
X25.609 Y-266.702
X25.577 Y-266.848
X25.534 Y-266.992
X25.481 Y-267.132
X25.418 Y-267.269
X25.347 Y-267.401
X25.269 Y-267.528
X25.181 Y-267.654
X25.082 Y-267.78
X24.971 Y-267.906
X24.848 Y-268.031
X24.716 Y-268.151
X24.573 Y-268.266
X24.419 Y-268.377
X24.254 Y-268.482
X24.077 Y-268.581
X23.891 Y-268.673
X23.695 Y-268.755
X23.492 Y-268.827
X23.281 Y-268.889
X23.064 Y-268.94
X22.84 Y-268.979
X22.61 Y-269.006
X22.375 Y-269.02
X22.136 Y-269.021
X21.894 Y-269.009
X21.651 Y-268.982
X21.407 Y-268.941
X21.164 Y-268.887
X20.939 Y-268.823
X20.717 Y-268.745
X20.606 Y-268.7
X20.261 Y-268.517
X19.959 Y-268.271
X19.71 Y-267.97
X19.524 Y-267.627
X19.408 Y-267.254
X19.367 Y-266.866
X19.358 Y-265.712
G2 X19.41 Y-265.484 I0.6 J-0.016 F250
X20.039 Y-265.134 I0.548 J-0.245 F850
G1 X25.118 Y-265.825
G2 X25.585 Y-266.175 I-0.081 J-0.595
X25.637 Y-266.403 I-0.548 J-0.245 F250
G1 X25.629 Y-267.46 F850
X25.62 Y-267.609
X25.596 Y-267.758
X25.558 Y-267.903
X25.509 Y-268.044
X25.449 Y-268.182
X25.38 Y-268.315
X25.302 Y-268.443
X25.216 Y-268.568
X25.121 Y-268.691
X25.012 Y-268.816
X24.888 Y-268.943
X24.754 Y-269.066
X24.608 Y-269.186
X24.449 Y-269.302
X24.275 Y-269.414
X24.087 Y-269.521
X23.888 Y-269.62
X23.68 Y-269.709
X23.46 Y-269.789
X23.227 Y-269.859
X22.983 Y-269.917
X22.73 Y-269.963
X22.47 Y-269.995
X22.205 Y-270.013
X21.95 Y-270.015
X21.713 Y-270.004
X21.453 Y-269.978
X21.238 Y-269.943
X21.03 Y-269.898
X20.808 Y-269.836
X20.731 Y-269.81
X20.409 Y-269.667
X20.116 Y-269.47
X19.863 Y-269.225
X19.657 Y-268.939
X19.504 Y-268.622
X19.409 Y-268.282
X19.375 Y-267.931
X19.367 Y-266.866
G2 X19.419 Y-266.637 I0.6 J-0.016 F250
X20.037 Y-266.286 I0.548 J-0.245 F850
G1 X25.099 Y-266.88
G2 X25.577 Y-267.231 I-0.07 J-0.596
X25.629 Y-267.46 I-0.548 J-0.245 F250
G1 X25.621 Y-268.417 F850
X25.613 Y-268.566
X25.588 Y-268.714
X25.55 Y-268.859
X25.5 Y-269.001
X25.439 Y-269.138
X25.37 Y-269.271
X25.291 Y-269.399
X25.203 Y-269.526
X25.105 Y-269.652
X24.993 Y-269.78
X24.865 Y-269.91
X24.725 Y-270.038
X24.573 Y-270.162
X24.403 Y-270.284
X24.217 Y-270.404
X24.018 Y-270.516
X23.807 Y-270.62
X23.583 Y-270.715
X23.348 Y-270.799
X23.1 Y-270.873
X22.847 Y-270.933
X22.589 Y-270.978
X22.325 Y-271.01
X22.082 Y-271.025
X21.832 Y-271.027
X21.595 Y-271.015
X21.388 Y-270.993
X21.16 Y-270.956
X20.963 Y-270.912
X20.775 Y-270.859
X20.732 Y-270.845
X20.411 Y-270.702
X20.12 Y-270.504
X19.868 Y-270.259
X19.663 Y-269.974
X19.511 Y-269.657
X19.416 Y-269.318
X19.383 Y-268.969
X19.375 Y-267.931
G2 X19.427 Y-267.703 I0.6 J-0.016 F250
X20.032 Y-267.351 I0.548 J-0.245 F850
G1 X25.079 Y-267.836
G2 X25.569 Y-268.188 I-0.057 J-0.597
X25.621 Y-268.417 I-0.548 J-0.245 F250
G1 X25.614 Y-269.362 F850
X25.605 Y-269.512
X25.582 Y-269.66
X25.545 Y-269.806
X25.495 Y-269.947
X25.436 Y-270.085
X25.367 Y-270.218
X25.29 Y-270.347
X25.204 Y-270.473
X25.104 Y-270.605
X24.988 Y-270.74
X24.862 Y-270.872
X24.72 Y-271.004
X24.561 Y-271.136
X24.387 Y-271.265
X24.201 Y-271.387
X24.001 Y-271.503
X23.786 Y-271.611
X23.558 Y-271.711
X23.32 Y-271.799
X23.075 Y-271.875
X22.823 Y-271.937
X22.568 Y-271.985
X22.311 Y-272.019
X22.076 Y-272.036
X21.838 Y-272.041
X21.603 Y-272.032
X21.402 Y-272.012
X21.18 Y-271.978
X20.983 Y-271.937
X20.8 Y-271.888
X20.761 Y-271.874
X20.435 Y-271.733
X20.14 Y-271.537
X19.884 Y-271.292
X19.675 Y-271.005
X19.521 Y-270.686
X19.425 Y-270.344
X19.391 Y-269.991
X19.383 Y-268.969
G2 X19.435 Y-268.74 I0.6 J-0.016 F250
X20.03 Y-268.387 I0.548 J-0.245 F850
G1 X25.061 Y-268.781
G2 X25.562 Y-269.134 I-0.047 J-0.598
X25.614 Y-269.362 I-0.548 J-0.245 F250
G1 X25.607 Y-270.279 F850
X25.598 Y-270.428
X25.581 Y-270.577
X25.548 Y-270.724
X25.504 Y-270.867
X25.448 Y-271.006
X25.383 Y-271.142
X25.31 Y-271.273
X25.228 Y-271.402
X25.13 Y-271.538
X25.022 Y-271.672
X24.899 Y-271.807
X24.759 Y-271.945
X24.605 Y-272.08
X24.439 Y-272.21
X24.257 Y-272.337
X24.059 Y-272.459
X23.848 Y-272.573
X23.626 Y-272.677
X23.394 Y-272.771
X23.154 Y-272.852
X22.909 Y-272.92
X22.658 Y-272.975
X22.404 Y-273.015
X22.163 Y-273.04
X21.938 Y-273.05
X21.695 Y-273.047
X21.492 Y-273.033
X21.277 Y-273.007
X21.069 Y-272.969
X20.89 Y-272.926
X20.821 Y-272.905
X20.485 Y-272.769
X20.179 Y-272.575
X19.913 Y-272.329
X19.696 Y-272.039
X19.534 Y-271.714
X19.434 Y-271.366
X19.398 Y-271.005
X19.391 Y-269.991
G2 X19.443 Y-269.763 I0.6 J-0.016 F250
X20.025 Y-269.409 I0.548 J-0.245 F850
G1 X25.042 Y-269.696
G2 X25.555 Y-270.05 I-0.034 J-0.599
X25.607 Y-270.279 I-0.548 J-0.245 F250
G1 X25.599 Y-271.285 F850
X25.591 Y-271.435
X25.57 Y-271.584
X25.536 Y-271.73
X25.49 Y-271.872
X25.434 Y-272.011
X25.368 Y-272.146
X25.294 Y-272.277
X25.209 Y-272.409
X25.113 Y-272.543
X25 Y-272.682
X24.873 Y-272.821
X24.735 Y-272.956
X24.58 Y-273.091
X24.408 Y-273.225
X24.223 Y-273.354
X24.025 Y-273.475
X23.816 Y-273.587
X23.596 Y-273.69
X23.364 Y-273.783
X23.125 Y-273.863
X22.88 Y-273.93
X22.63 Y-273.984
X22.378 Y-274.024
X22.152 Y-274.046
X21.908 Y-274.057
X21.683 Y-274.053
X21.483 Y-274.039
X21.259 Y-274.011
X21.065 Y-273.975
X20.882 Y-273.931
X20.824 Y-273.913
X20.489 Y-273.777
X20.184 Y-273.582
X19.919 Y-273.336
X19.702 Y-273.047
X19.541 Y-272.722
X19.442 Y-272.375
X19.406 Y-272.015
X19.398 Y-271.005
G2 X19.45 Y-270.777 I0.6 J-0.016 F250
X20.032 Y-270.423 I0.548 J-0.245 F850
G1 X25.033 Y-270.703
G2 X25.547 Y-271.057 I-0.034 J-0.599
X25.599 Y-271.285 I-0.548 J-0.245 F250
G1 X25.592 Y-272.292 F850
X25.583 Y-272.442
X25.561 Y-272.59
X25.526 Y-272.736
X25.48 Y-272.879
X25.423 Y-273.017
X25.357 Y-273.152
X25.282 Y-273.284
X25.197 Y-273.416
X25.099 Y-273.551
X24.985 Y-273.691
X24.858 Y-273.83
X24.719 Y-273.965
X24.563 Y-274.101
X24.391 Y-274.236
X24.205 Y-274.364
X24.007 Y-274.484
X23.799 Y-274.596
X23.578 Y-274.699
X23.346 Y-274.791
X23.109 Y-274.871
X22.864 Y-274.938
X22.615 Y-274.991
X22.365 Y-275.029
X22.142 Y-275.051
X21.899 Y-275.061
X21.677 Y-275.058
X21.478 Y-275.044
X21.255 Y-275.015
X21.063 Y-274.979
X20.881 Y-274.935
X20.829 Y-274.919
X20.494 Y-274.782
X20.19 Y-274.588
X19.925 Y-274.342
X19.709 Y-274.052
X19.549 Y-273.728
X19.449 Y-273.381
X19.414 Y-273.021
X19.406 Y-272.015
G2 X19.458 Y-271.786 I0.6 J-0.016 F250
X20.039 Y-271.432 I0.548 J-0.245 F850
G1 X25.025 Y-271.709
G2 X25.54 Y-272.064 I-0.033 J-0.599
X25.592 Y-272.292 I-0.548 J-0.245 F250
G1 X25.584 Y-273.299 F850
X25.575 Y-273.448
X25.553 Y-273.597
X25.518 Y-273.742
X25.471 Y-273.885
X25.414 Y-274.024
X25.348 Y-274.158
X25.273 Y-274.291
X25.188 Y-274.423
X25.089 Y-274.558
X24.974 Y-274.698
X24.847 Y-274.837
X24.708 Y-274.973
X24.552 Y-275.109
X24.379 Y-275.243
X24.193 Y-275.371
X23.996 Y-275.491
X23.788 Y-275.603
X23.567 Y-275.705
X23.336 Y-275.797
X23.099 Y-275.876
X22.855 Y-275.942
X22.607 Y-275.995
X22.359 Y-276.033
X22.137 Y-276.055
X21.895 Y-276.064
X21.675 Y-276.061
X21.476 Y-276.047
X21.255 Y-276.018
X21.064 Y-275.982
X20.882 Y-275.937
X20.835 Y-275.923
X20.501 Y-275.786
X20.196 Y-275.592
X19.932 Y-275.346
X19.716 Y-275.056
X19.556 Y-274.733
X19.457 Y-274.385
X19.421 Y-274.026
X19.414 Y-273.021
G2 X19.466 Y-272.793 I0.6 J-0.016 F250
X20.047 Y-272.439 I0.548 J-0.245 F850
G1 X25.018 Y-272.716
G2 X25.532 Y-273.07 I-0.033 J-0.599
X25.584 Y-273.299 I-0.548 J-0.245 F250
G1 X25.576 Y-274.305 F850
X25.568 Y-274.455
X25.545 Y-274.603
X25.51 Y-274.749
X25.463 Y-274.892
X25.406 Y-275.03
X25.339 Y-275.165
X25.264 Y-275.297
X25.179 Y-275.429
X25.08 Y-275.565
X24.965 Y-275.705
X24.838 Y-275.843
X24.699 Y-275.979
X24.542 Y-276.115
X24.369 Y-276.249
X24.184 Y-276.377
X23.986 Y-276.497
X23.779 Y-276.607
X23.558 Y-276.71
X23.328 Y-276.801
X23.093 Y-276.879
X22.849 Y-276.945
X22.602 Y-276.998
X22.354 Y-277.036
X22.135 Y-277.057
X21.893 Y-277.066
X21.675 Y-277.063
X21.477 Y-277.048
X21.256 Y-277.019
X21.066 Y-276.984
X20.884 Y-276.939
X20.841 Y-276.925
X20.507 Y-276.789
X20.203 Y-276.594
X19.939 Y-276.348
X19.724 Y-276.059
X19.564 Y-275.735
X19.464 Y-275.388
X19.429 Y-275.029
X19.421 Y-274.026
G2 X19.473 Y-273.798 I0.6 J-0.016 F250
X20.055 Y-273.443 I0.548 J-0.245 F850
G1 X25.01 Y-273.723
G2 X25.524 Y-274.077 I-0.034 J-0.599
X25.576 Y-274.305 I-0.548 J-0.245 F250
G1 X25.569 Y-275.312 F850
X25.56 Y-275.462
X25.538 Y-275.61
X25.502 Y-275.756
X25.454 Y-275.898
X25.397 Y-276.037
X25.331 Y-276.171
X25.255 Y-276.304
X25.17 Y-276.436
X25.071 Y-276.571
X24.956 Y-276.711
X24.829 Y-276.849
X24.689 Y-276.985
X24.533 Y-277.12
X24.36 Y-277.254
X24.175 Y-277.381
X23.978 Y-277.501
X23.77 Y-277.611
X23.55 Y-277.713
X23.321 Y-277.804
X23.086 Y-277.882
X22.843 Y-277.947
X22.597 Y-277.999
X22.35 Y-278.037
X22.132 Y-278.057
X21.891 Y-278.067
X21.674 Y-278.063
X21.477 Y-278.048
X21.257 Y-278.019
X21.068 Y-277.984
X20.886 Y-277.938
X20.847 Y-277.926
X20.513 Y-277.789
X20.21 Y-277.595
X19.946 Y-277.349
X19.731 Y-277.059
X19.571 Y-276.736
X19.472 Y-276.389
X19.437 Y-276.031
X19.429 Y-275.029
G2 X19.481 Y-274.801 I0.6 J-0.016 F250
X20.063 Y-274.446 I0.548 J-0.245 F850
G1 X25.003 Y-274.729
G2 X25.517 Y-275.084 I-0.034 J-0.599
X25.569 Y-275.312 I-0.548 J-0.245 F250
G1 X25.561 Y-276.319 F850
X25.552 Y-276.469
X25.53 Y-276.617
X25.494 Y-276.762
X25.446 Y-276.905
X25.389 Y-277.043
X25.322 Y-277.178
X25.246 Y-277.31
X25.161 Y-277.442
X25.062 Y-277.577
X24.947 Y-277.717
X24.819 Y-277.855
X24.68 Y-277.99
X24.523 Y-278.125
X24.351 Y-278.258
X24.165 Y-278.386
X23.968 Y-278.505
X23.761 Y-278.615
X23.542 Y-278.716
X23.313 Y-278.806
X23.078 Y-278.883
X22.836 Y-278.948
X22.591 Y-279
X22.345 Y-279.037
X22.128 Y-279.057
X21.888 Y-279.066
X21.673 Y-279.062
X21.476 Y-279.047
X21.257 Y-279.018
X21.069 Y-278.982
X20.887 Y-278.936
X20.852 Y-278.926
X20.519 Y-278.788
X20.216 Y-278.594
X19.953 Y-278.348
X19.738 Y-278.059
X19.578 Y-277.736
X19.48 Y-277.389
X19.444 Y-277.031
X19.437 Y-276.031
G2 X19.489 Y-275.802 I0.6 J-0.016 F250
X20.072 Y-275.448 I0.548 J-0.245 F850
G1 X24.996 Y-275.736
G2 X25.509 Y-276.09 I-0.035 J-0.599
X25.561 Y-276.319 I-0.548 J-0.245 F250
G1 X25.553 Y-277.325 F850
X25.545 Y-277.475
X25.522 Y-277.623
X25.485 Y-277.769
X25.437 Y-277.911
X25.38 Y-278.05
X25.313 Y-278.184
X25.237 Y-278.316
X25.151 Y-278.448
X25.052 Y-278.583
X24.937 Y-278.723
X24.809 Y-278.861
X24.669 Y-278.995
X24.513 Y-279.13
X24.34 Y-279.262
X24.154 Y-279.389
X23.958 Y-279.508
X23.751 Y-279.617
X23.531 Y-279.718
X23.303 Y-279.807
X23.069 Y-279.884
X22.828 Y-279.948
X22.583 Y-279.999
X22.339 Y-280.035
X22.123 Y-280.055
X21.883 Y-280.064
X21.67 Y-280.059
X21.473 Y-280.044
X21.255 Y-280.015
X21.069 Y-279.979
X20.886 Y-279.933
X20.856 Y-279.924
X20.524 Y-279.786
X20.221 Y-279.591
X19.959 Y-279.345
X19.745 Y-279.056
X19.586 Y-278.734
X19.487 Y-278.388
X19.452 Y-278.03
X19.444 Y-277.031
G2 X19.496 Y-276.802 I0.6 J-0.016 F250
X20.08 Y-276.448 I0.548 J-0.245 F850
G1 X24.99 Y-276.743
G2 X25.501 Y-277.097 I-0.036 J-0.599
X25.553 Y-277.325 I-0.548 J-0.245 F250
G1 X25.546 Y-278.332 F850
X25.537 Y-278.482
X25.513 Y-278.63
X25.477 Y-278.775
X25.429 Y-278.918
X25.371 Y-279.056
X25.303 Y-279.19
X25.227 Y-279.322
X25.141 Y-279.454
X25.041 Y-279.589
X24.926 Y-279.728
X24.797 Y-279.866
X24.657 Y-280
X24.501 Y-280.135
X24.329 Y-280.266
X24.142 Y-280.393
X23.946 Y-280.511
X23.739 Y-280.62
X23.52 Y-280.719
X23.292 Y-280.808
X23.059 Y-280.884
X22.818 Y-280.948
X22.574 Y-280.998
X22.331 Y-281.033
X22.116 Y-281.053
X21.877 Y-281.06
X21.666 Y-281.056
X21.469 Y-281.04
X21.252 Y-281.01
X21.067 Y-280.974
X20.884 Y-280.928
X20.859 Y-280.92
X20.528 Y-280.782
X20.226 Y-280.587
X19.965 Y-280.341
X19.751 Y-280.052
X19.593 Y-279.73
X19.495 Y-279.385
X19.46 Y-279.027
X19.452 Y-278.03
G2 X19.504 Y-277.801 I0.6 J-0.016 F250
X20.089 Y-277.447 I0.548 J-0.245 F850
G1 X24.983 Y-277.75
G2 X25.494 Y-278.104 I-0.037 J-0.599
X25.546 Y-278.332 I-0.548 J-0.245 F250
G1 X25.538 Y-279.339 F850
X25.529 Y-279.489
X25.505 Y-279.637
X25.468 Y-279.782
X25.419 Y-279.924
X25.361 Y-280.062
X25.294 Y-280.196
X25.217 Y-280.328
X25.13 Y-280.46
X25.03 Y-280.595
X24.914 Y-280.734
X24.785 Y-280.871
X24.645 Y-281.005
X24.488 Y-281.139
X24.316 Y-281.27
X24.129 Y-281.396
X23.932 Y-281.513
X23.725 Y-281.621
X23.506 Y-281.72
X23.279 Y-281.808
X23.046 Y-281.883
X22.806 Y-281.946
X22.562 Y-281.995
X22.321 Y-282.03
X22.107 Y-282.049
X21.869 Y-282.056
X21.66 Y-282.051
X21.463 Y-282.034
X21.247 Y-282.004
X21.064 Y-281.968
X20.88 Y-281.921
X20.862 Y-281.915
X20.531 Y-281.776
X20.231 Y-281.581
X19.97 Y-281.335
X19.758 Y-281.047
X19.6 Y-280.725
X19.502 Y-280.381
X19.467 Y-280.024
X19.46 Y-279.027
G2 X19.512 Y-278.799 I0.6 J-0.016 F250
X20.098 Y-278.445 I0.548 J-0.245 F850
G1 X24.976 Y-278.756
G2 X25.486 Y-279.111 I-0.038 J-0.599
X25.538 Y-279.339 I-0.548 J-0.245 F250
G1 X25.53 Y-280.346 F850
X25.522 Y-280.495
X25.497 Y-280.643
X25.459 Y-280.788
X25.41 Y-280.93
X25.351 Y-281.068
X25.283 Y-281.202
X25.206 Y-281.334
X25.118 Y-281.466
X25.018 Y-281.6
X24.901 Y-281.739
X24.772 Y-281.876
X24.631 Y-282.01
X24.474 Y-282.143
X24.301 Y-282.274
X24.114 Y-282.399
X23.917 Y-282.516
X23.71 Y-282.623
X23.491 Y-282.721
X23.265 Y-282.808
X23.032 Y-282.882
X22.792 Y-282.944
X22.549 Y-282.992
X22.309 Y-283.026
X22.096 Y-283.044
X21.859 Y-283.05
X21.652 Y-283.044
X21.455 Y-283.027
X21.24 Y-282.997
X21.059 Y-282.96
X20.874 Y-282.912
X20.863 Y-282.909
X20.534 Y-282.77
X20.235 Y-282.574
X19.975 Y-282.328
X19.764 Y-282.04
X19.607 Y-281.719
X19.509 Y-281.375
X19.475 Y-281.02
X19.467 Y-280.024
G2 X19.519 Y-279.796 I0.6 J-0.016 F250
X20.107 Y-279.442 I0.548 J-0.245 F850
G1 X24.97 Y-279.763
G2 X25.478 Y-280.117 I-0.04 J-0.599
X25.53 Y-280.346 I-0.548 J-0.245 F250
G1 X25.523 Y-281.302 F850
X25.514 Y-281.452
X25.494 Y-281.601
X25.46 Y-281.747
X25.414 Y-281.89
X25.358 Y-282.029
X25.293 Y-282.164
X25.219 Y-282.295
X25.136 Y-282.425
X25.037 Y-282.561
X24.926 Y-282.698
X24.804 Y-282.832
X24.666 Y-282.967
X24.511 Y-283.103
X24.344 Y-283.234
X24.164 Y-283.358
X23.972 Y-283.476
X23.768 Y-283.586
X23.552 Y-283.687
X23.327 Y-283.777
X23.097 Y-283.855
X22.858 Y-283.921
X22.618 Y-283.973
X22.374 Y-284.011
X22.16 Y-284.033
X21.929 Y-284.043
X21.711 Y-284.04
X21.519 Y-284.027
X21.304 Y-283.999
X21.113 Y-283.964
X20.936 Y-283.921
X20.902 Y-283.911
X20.566 Y-283.775
X20.261 Y-283.581
X19.995 Y-283.335
X19.779 Y-283.045
X19.618 Y-282.721
X19.518 Y-282.373
X19.482 Y-282.012
X19.475 Y-281.02
G2 X19.527 Y-280.791 I0.6 J-0.016 F250
X20.109 Y-280.437 I0.548 J-0.245 F850
G1 X24.958 Y-280.72
G2 X25.471 Y-281.074 I-0.035 J-0.599
X25.523 Y-281.302 I-0.548 J-0.245 F250
G1 X25.515 Y-282.309 F850
X25.507 Y-282.459
X25.485 Y-282.607
X25.45 Y-282.753
X25.403 Y-282.896
X25.347 Y-283.035
X25.281 Y-283.169
X25.206 Y-283.3
X25.121 Y-283.432
X25.024 Y-283.564
X24.912 Y-283.701
X24.786 Y-283.839
X24.648 Y-283.973
X24.496 Y-284.105
X24.327 Y-284.235
X24.144 Y-284.362
X23.95 Y-284.48
X23.745 Y-284.589
X23.531 Y-284.688
X23.307 Y-284.777
X23.078 Y-284.853
X22.84 Y-284.917
X22.599 Y-284.968
X22.362 Y-285.004
X22.15 Y-285.025
X21.912 Y-285.034
X21.705 Y-285.031
X21.508 Y-285.016
X21.292 Y-284.988
X21.109 Y-284.953
X20.926 Y-284.908
X20.901 Y-284.901
X20.567 Y-284.764
X20.264 Y-284.569
X20 Y-284.323
X19.784 Y-284.034
X19.624 Y-283.71
X19.525 Y-283.363
X19.49 Y-283.004
X19.482 Y-282.012
G2 X19.534 Y-281.784 I0.6 J-0.016 F250
X20.119 Y-281.43 I0.548 J-0.245 F850
G1 X24.952 Y-281.727
G2 X25.463 Y-282.081 I-0.037 J-0.599
X25.515 Y-282.309 I-0.548 J-0.245 F250
G1 X25.508 Y-283.316 F850
X25.499 Y-283.466
X25.476 Y-283.614
X25.44 Y-283.76
X25.393 Y-283.902
X25.335 Y-284.04
X25.268 Y-284.175
X25.193 Y-284.305
X25.107 Y-284.437
X25.009 Y-284.57
X24.896 Y-284.707
X24.768 Y-284.844
X24.63 Y-284.978
X24.476 Y-285.109
X24.307 Y-285.239
X24.123 Y-285.364
X23.929 Y-285.481
X23.724 Y-285.589
X23.509 Y-285.687
X23.286 Y-285.774
X23.057 Y-285.849
X22.82 Y-285.912
X22.58 Y-285.962
X22.344 Y-285.997
X22.133 Y-286.016
X21.896 Y-286.024
X21.692 Y-286.02
X21.494 Y-286.004
X21.28 Y-285.975
X21.099 Y-285.94
X20.915 Y-285.894
X20.899 Y-285.889
X20.568 Y-285.751
X20.266 Y-285.556
X20.004 Y-285.31
X19.79 Y-285.021
X19.631 Y-284.699
X19.532 Y-284.353
X19.497 Y-283.996
X19.49 Y-283.004
G2 X19.542 Y-282.776 I0.6 J-0.016 F250
X20.128 Y-282.422 I0.548 J-0.245 F850
G1 X24.947 Y-282.734
G2 X25.456 Y-283.088 I-0.039 J-0.599
X25.508 Y-283.316 I-0.548 J-0.245 F250
G1 X25.501 Y-284.262 F850
X25.492 Y-284.411
X25.475 Y-284.56
X25.443 Y-284.707
X25.399 Y-284.851
X25.345 Y-284.99
X25.281 Y-285.126
X25.209 Y-285.258
X25.128 Y-285.386
X25.033 Y-285.521
X24.924 Y-285.657
X24.805 Y-285.79
X24.67 Y-285.925
X24.52 Y-286.059
X24.356 Y-286.19
X24.18 Y-286.315
X23.991 Y-286.433
X23.792 Y-286.543
X23.579 Y-286.645
X23.359 Y-286.736
X23.131 Y-286.815
X22.896 Y-286.882
X22.658 Y-286.936
X22.418 Y-286.976
X22.204 Y-286.999
X21.976 Y-287.011
X21.757
X21.566 Y-286.999
X21.352 Y-286.974
X21.16 Y-286.941
X20.984 Y-286.9
X20.943 Y-286.888
X20.604 Y-286.754
X20.294 Y-286.56
X20.025 Y-286.314
X19.806 Y-286.023
X19.642 Y-285.697
X19.541 Y-285.347
X19.505 Y-284.984
X19.497 Y-283.996
G2 X19.549 Y-283.767 I0.6 J-0.016 F250
X20.13 Y-283.413 I0.548 J-0.245 F850
G1 X24.934 Y-283.679
G2 X25.449 Y-284.033 I-0.033 J-0.599
X25.501 Y-284.262 I-0.548 J-0.245 F250
G1 X25.493 Y-285.268 F850
X25.484 Y-285.418
X25.465 Y-285.567
X25.432 Y-285.713
X25.387 Y-285.856
X25.332 Y-285.996
X25.267 Y-286.131
X25.194 Y-286.262
X25.11 Y-286.395
X25.016 Y-286.526
X24.907 Y-286.66
X24.783 Y-286.797
X24.647 Y-286.932
X24.498 Y-287.063
X24.334 Y-287.192
X24.154 Y-287.318
X23.963 Y-287.436
X23.761 Y-287.545
X23.549 Y-287.645
X23.329 Y-287.734
X23.103 Y-287.811
X23.048 Y-287.827
X22.872 Y-287.867
X22.692 Y-287.892
X22.511 Y-287.9
G2 X22.283 Y-287.846 I0.021 J0.6 F250
X22.142 Y-286.844 I0.249 J0.546 F850
G1 X24.503 Y-284.828
G2 X25.441 Y-285.04 I0.39 J-0.456
X25.493 Y-285.268 I-0.548 J-0.245 F250
G1 X25.485 Y-286.275 F850
X25.477 Y-286.425
X25.456 Y-286.573
X25.35 Y-286.885
X25.187 Y-287.171
X24.973 Y-287.42
X24.715 Y-287.624
X24.423 Y-287.775
X24.108 Y-287.869
X23.781 Y-287.9
G2 X23.553 Y-287.846 I0.021 J0.6 F250
X23.393 Y-286.861 I0.249 J0.546 F850
G1 X24.477 Y-285.852
G2 X25.433 Y-286.047 I0.409 J-0.439
X25.485 Y-286.275 I-0.548 J-0.245 F250
G1 X25.479 Y-287.081 F850
X25.47 Y-287.23
X25.398 Y-287.445
X25.27 Y-287.632
X25.096 Y-287.777
X24.888 Y-287.869
X24.664 Y-287.9
G2 X24.433 Y-287.858 I0.028 J0.805 F250
X24.123 Y-287.666 I0.259 J0.763 F850
X25.194 Y-286.492 I0.561 J0.564
X25.438 Y-286.849 I-0.51 J-0.61
X25.479 Y-287.081 I-0.754 J-0.253 F250
G1 X25.477 Y-287.282 F850
X25.469 Y-287.383
X25.443 Y-287.483
X25.422 Y-287.534
X25.396 Y-287.584
X25.363 Y-287.634
X25.317 Y-287.689
X25.267 Y-287.739
X25.217 Y-287.781
X25.166 Y-287.815
X25.116 Y-287.842
X25.052 Y-287.868
X24.988 Y-287.886
X24.915 Y-287.897
X24.714 Y-287.9
X21.695
X21.445 Y-287.887
X21.257 Y-287.867
X21.095 Y-287.841
X21.077 Y-287.837
X20.713 Y-287.718
X20.378 Y-287.532
X20.084 Y-287.285
X19.843 Y-286.987
X19.663 Y-286.648
X19.552 Y-286.281
X19.512 Y-285.9
G2 X19.564 Y-285.672 I0.6 J-0.016 F250
X20.51 Y-285.467 I0.548 J-0.245 F850
G1 X22.072 Y-286.851
G2 X21.923 Y-287.846 I-0.398 J-0.449
X21.695 Y-287.9 I-0.249 J0.546 F250
G1 X20.528 F850
X20.379 Y-287.892
X20.149 Y-287.826
X19.941 Y-287.709
X19.766 Y-287.546
X19.633 Y-287.348
X19.549 Y-287.124
X19.52 Y-286.887
G2 X19.554 Y-286.655 I0.976 J-0.027 F250
X20.757 Y-285.973 I0.941 J-0.259 F850
X20.761 Y-287.864 I-0.263 J-0.946
X20.528 Y-287.9 I-0.267 J0.945 F250
G1 X20.286 F850
X20.085 Y-287.897
X20.012 Y-287.886
X19.948 Y-287.868
X19.884 Y-287.842
X19.834 Y-287.815
X19.783 Y-287.781
X19.733 Y-287.739
X19.678 Y-287.685
X19.637 Y-287.634
X19.604 Y-287.584
X19.578 Y-287.534
X19.557 Y-287.483
X19.531 Y-287.383
X19.523 Y-287.282
X19.505 Y-284.984
X19.516 Y-284.93 Z-14.973 F250
X19.527 Y-284.879 Z-14.954
X19.537 Y-284.834 Z-14.923
X19.544 Y-284.798 Z-14.882
X19.55 Y-284.771 Z-14.833
X19.555 Y-284.759 Z-14.79
X19.557 Y-284.755 Z-14.744
G0 Z5
X20.044 Y-33.342
Z-11.88
G1 Z-12.48 F250
G2 X25.058 Y-33.494 Z-12.687 I2.456 J-1.745 F200
X22.984 Y-38.055 Z-12.894 I-2.555 J-1.59
X19.581 Y-34.386 Z-13.101 I-0.48 J2.967
X24.274 Y-32.665 Z-13.308 I2.919 J-0.702
X24.05 Y-37.652 Z-13.515 I-1.772 J-2.419
X19.541 Y-35.523 Z-13.722 I-1.545 J2.565
X23.242 Y-32.19 Z-13.929 I2.959 J0.435
X24.885 Y-36.885 Z-14.136 I-0.74 J-2.894
X19.926 Y-36.589 Z-14.343 I-2.381 J1.798
X22.111 Y-32.134 Z-14.55 I2.575 J1.501
X25.373 Y-35.865 Z-14.757 I0.39 J-2.951
X20.678 Y-37.432 Z-14.963 I-2.869 J0.779
X21.045 Y-32.501 Z-15.17 I1.824 J2.343
X25.446 Y-34.74 Z-15.377 I1.456 J-2.584
X21.686 Y-37.932 Z-15.584 I-2.942 J-0.345
X20.195 Y-33.237 Z-15.791 I0.817 J2.844
X25.095 Y-33.674 Z-15.998 I2.305 J-1.849
X22.804 Y-38.02 Z-16.205 I-2.592 J-1.411
X19.683 Y-34.233 Z-16.412 I-0.3 J2.932
X24.375 Y-32.817 Z-16.619 I2.818 J-0.854
X23.87 Y-37.687 Z-16.826 I-1.873 J-2.267
X19.578 Y-35.344 Z-17.033 I-1.366 J2.6
X23.392 Y-32.293 Z-17.24 I2.922 J0.256
X24.733 Y-36.983 Z-17.447 I-0.89 J-2.791
X19.895 Y-36.41 Z-17.654 I-2.228 J1.897
X22.288 Y-32.174 Z-17.861 I2.606 J1.322
X25.268 Y-36.012 Z-18.068 I0.213 J-2.911
X20.583 Y-37.278 Z-18.275 I-2.764 J0.926
X21.223 Y-32.473 Z-18.482 I1.919 J2.189
X25.403 Y-34.916 Z-18.689 I1.277 J-2.613
X21.541 Y-37.825 Z-18.896 I-2.899 J-0.169
X20.35 Y-33.145 Z-19.103 I0.962 J2.737
X25.121 Y-33.852 Z-19.31 I2.15 J-1.941
X22.63 Y-37.975 Z-19.517 I-2.618 J-1.233
X19.791 Y-34.09 Z-19.723 I-0.126 J2.887
X24.465 Y-32.973 Z-19.93 I2.709 J-0.997
X23.692 Y-37.71 Z-20.137 I-1.963 J-2.111
X19.626 Y-35.172 Z-20.344 I-1.188 J2.622
X23.533 Y-32.404 Z-20.551 I2.874 J0.084
X24.576 Y-37.07 Z-20.758 I-1.031 J-2.68
X19.875 Y-36.233 Z-20.965 I-2.072 J1.983
X22.459 Y-32.224 Z-21.172 I2.626 J1.144
X25.156 Y-36.15 Z-21.379 I0.042 J-2.861
X20.499 Y-37.121 Z-21.586 I-2.652 J1.065
X21.4 Y-32.456 Z-21.793 I2.003 J2.033
X25.351 Y-35.085 Z-22 I1.1 J-2.629
X19.65 I-2.85
X25.351 I2.85
G1 X25.363 Y-35.971 F850
X25.403 Y-36.098
X25.428 Y-36.246
X25.434 Y-36.396
X25.425 Y-36.545
X25.403 Y-36.694
X25.29 Y-37.024
X25.116 Y-37.327
X24.888 Y-37.591
X24.614 Y-37.808
X24.303 Y-37.968
X23.968 Y-38.067
X23.621 Y-38.1
X21.293
X21.143 Y-38.092
X20.994 Y-38.072
X20.848 Y-38.04
X20.521 Y-37.909
X20.224 Y-37.721
X19.967 Y-37.481
X19.758 Y-37.199
X19.604 Y-36.883
X19.51 Y-36.544
X19.48 Y-36.194
G2 X19.535 Y-35.967 I0.599 J-0.025 F250
X20.519 Y-35.81 I0.544 J-0.252 F850
G1 X21.711 Y-37.092
G2 X21.52 Y-38.046 I-0.439 J-0.409
X21.293 Y-38.1 I-0.249 J0.546 F250
G1 X20.427 F850
X20.277 Y-38.092
X20.019 Y-38.011
X19.794 Y-37.862
X19.62 Y-37.655
X19.51 Y-37.408
X19.474 Y-37.141
G2 X19.514 Y-36.909 I0.921 J-0.038 F250
X20.622 Y-36.285 I0.881 J-0.269 F850
X20.659 Y-38.062 I-0.228 J-0.893
X20.427 Y-38.1 I-0.264 J0.883 F250
G1 X20.085 F850
X19.984 Y-38.092
X19.884 Y-38.066
X19.834 Y-38.046
X19.784 Y-38.02
X19.733 Y-37.988
X19.683 Y-37.947
X19.621 Y-37.883
X19.572 Y-37.819
X19.542 Y-37.769
X19.518 Y-37.718
X19.5 Y-37.668
X19.486 Y-37.618
X19.481 Y-37.592
X19.472 Y-37.504
X19.494 Y-33.883
X19.502 Y-33.733
X19.521 Y-33.584
X19.553 Y-33.437
X19.594 Y-33.293
X19.646 Y-33.153
X19.707 Y-33.015
X19.776 Y-32.882
X19.853 Y-32.754
X19.939 Y-32.628
X20.034 Y-32.504
X20.139 Y-32.382
X20.253 Y-32.263
X20.377 Y-32.148
X20.51 Y-32.038
X20.651 Y-31.934
X20.802 Y-31.835
X20.96 Y-31.744
X21.125 Y-31.661
X21.297 Y-31.586
X21.475 Y-31.52
X21.659 Y-31.464
X21.848 Y-31.417
X22.041 Y-31.381
X22.237 Y-31.356
X22.436 Y-31.342
X22.636 Y-31.338
X22.838 Y-31.347
X23.041 Y-31.366
X23.243 Y-31.397
X23.443 Y-31.44
X23.642 Y-31.494
X23.838 Y-31.56
X24.031 Y-31.636
X24.22 Y-31.724
X24.404 Y-31.822
X24.583 Y-31.931
X24.64 Y-31.971
X24.934 Y-32.218
X25.175 Y-32.517
X25.354 Y-32.856
X25.465 Y-33.223
X25.505 Y-33.605
X25.526 Y-37.124
X25.519 Y-37.274
X25.455 Y-37.496
X25.341 Y-37.697
X25.183 Y-37.866
X24.991 Y-37.993
X24.774 Y-38.073
X24.545 Y-38.1
G2 X24.313 Y-38.062 I0.033 J0.938 F250
X23.669 Y-36.925 I0.265 J0.901 F850
X25.487 Y-36.892 I0.914 J-0.238
X25.526 Y-37.124 I-0.905 J-0.27 F250
G1 X25.528 Y-37.504 F850
X25.519 Y-37.592
X25.514 Y-37.618
X25.5 Y-37.668
X25.482 Y-37.718
X25.458 Y-37.769
X25.428 Y-37.819
X25.379 Y-37.883
X25.317 Y-37.947
X25.267 Y-37.988
X25.216 Y-38.02
X25.166 Y-38.046
X25.116 Y-38.066
X25.016 Y-38.092
X24.915 Y-38.1
X23.621
G2 X23.393 Y-38.046 I0.021 J0.6 F250
X23.212 Y-37.919 I0.249 J0.546 F850
G1 X19.664 Y-34.284
G2 X19.546 Y-34.111 I0.429 J0.419
X19.494 Y-33.883 I0.547 J0.246 F250
G1 X19.5 Y-32.826 F850
X19.509 Y-32.676
X19.531 Y-32.528
X19.567 Y-32.382
X19.615 Y-32.24
X19.674 Y-32.103
X19.743 Y-31.969
X19.82 Y-31.841
X19.906 Y-31.717
X20 Y-31.597
X20.104 Y-31.478
X20.219 Y-31.362
X20.344 Y-31.248
X20.482 Y-31.136
X20.632 Y-31.028
X20.792 Y-30.925
X20.962 Y-30.83
X21.141 Y-30.742
X21.33 Y-30.662
X21.529 Y-30.591
X21.736 Y-30.529
X21.952 Y-30.479
X22.174 Y-30.44
X22.402 Y-30.413
X22.635 Y-30.398
X22.871 Y-30.397
X23.109 Y-30.409
X23.35 Y-30.435
X23.584 Y-30.474
X23.794 Y-30.52
X24.026 Y-30.586
X24.227 Y-30.656
X24.256 Y-30.667
X24.602 Y-30.85
X24.906 Y-31.097
X25.155 Y-31.399
X25.342 Y-31.743
X25.457 Y-32.117
X25.498 Y-32.506
X25.505 Y-33.605
G2 X25.452 Y-33.833 I-0.6 J0.017 F250
X24.809 Y-34.18 I-0.547 J0.246 F850
G1 X20.004 Y-33.401
G2 X19.552 Y-33.054 I0.096 J0.592
X19.5 Y-32.826 I0.547 J0.246 F250
G1 X19.506 Y-31.869 F850
X19.514 Y-31.719
X19.539 Y-31.572
X19.578 Y-31.427
X19.63 Y-31.286
X19.692 Y-31.149
X19.763 Y-31.017
X19.843 Y-30.891
X19.931 Y-30.769
X20.03 Y-30.647
X20.14 Y-30.526
X20.261 Y-30.408
X20.395 Y-30.29
X20.544 Y-30.174
X20.705 Y-30.062
X20.877 Y-29.957
X21.061 Y-29.857
X21.259 Y-29.765
X21.47 Y-29.68
X21.693 Y-29.605
X21.924 Y-29.541
X22.163 Y-29.49
X22.407 Y-29.451
X22.659 Y-29.426
X22.907 Y-29.415
X23.124 Y-29.418
X23.369 Y-29.435
X23.583 Y-29.462
X23.775 Y-29.497
X23.991 Y-29.55
X24.072 Y-29.574
X24.408 Y-29.71
X24.714 Y-29.905
X24.979 Y-30.151
X25.196 Y-30.442
X25.357 Y-30.767
X25.457 Y-31.115
X25.492 Y-31.476
X25.498 Y-32.506
G2 X25.446 Y-32.734 I-0.6 J0.017 F250
X24.819 Y-33.083 I-0.547 J0.246 F850
G1 X20.027 Y-32.447
G2 X19.558 Y-32.097 I0.079 J0.595
X19.506 Y-31.869 I0.547 J0.246 F250
G1 X19.511 Y-30.973 F850
X19.52 Y-30.824
X19.542 Y-30.675
X19.579 Y-30.53
X19.628 Y-30.388
X19.688 Y-30.251
X19.758 Y-30.118
X19.836 Y-29.99
X19.922 Y-29.867
X20.019 Y-29.744
X20.13 Y-29.618
X20.254 Y-29.492
X20.39 Y-29.369
X20.541 Y-29.248
X20.708 Y-29.127
X20.888 Y-29.013
X21.079 Y-28.906
X21.284 Y-28.806
X21.499 Y-28.716
X21.727 Y-28.635
X21.962 Y-28.566
X22.202 Y-28.51
X22.449 Y-28.467
X22.681 Y-28.44
X22.912 Y-28.426
X23.15
X23.35 Y-28.436
X23.569 Y-28.46
X23.774 Y-28.495
X23.953 Y-28.535
X24.035 Y-28.558
X24.377 Y-28.691
X24.689 Y-28.884
X24.961 Y-29.131
X25.183 Y-29.424
X25.348 Y-29.752
X25.45 Y-30.104
X25.486 Y-30.469
X25.492 Y-31.476
G2 X25.439 Y-31.704 I-0.6 J0.017 F250
X24.829 Y-32.055 I-0.547 J0.246 F850
G1 X20.048 Y-31.553
G2 X19.564 Y-31.201 I0.063 J0.597
X19.511 Y-30.973 I0.547 J0.246 F250
G1 X19.517 Y-30.057 F850
X19.525 Y-29.907
X19.546 Y-29.759
X19.581 Y-29.613
X19.629 Y-29.471
X19.687 Y-29.333
X19.755 Y-29.199
X19.831 Y-29.07
X19.915 Y-28.945
X20.012 Y-28.818
X20.124 Y-28.686
X20.247 Y-28.558
X20.383 Y-28.43
X20.536 Y-28.303
X20.704 Y-28.177
X20.883 Y-28.059
X21.073 Y-27.948
X21.276 Y-27.845
X21.492 Y-27.75
X21.716 Y-27.667
X21.948 Y-27.594
X22.186 Y-27.535
X22.427 Y-27.489
X22.652 Y-27.458
X22.881 Y-27.441
X23.114 Y-27.436
X23.311 Y-27.443
X23.527 Y-27.463
X23.731 Y-27.494
X23.908 Y-27.531
X24.106 Y-27.584
X24.432 Y-27.725
X24.729 Y-27.921
X24.986 Y-28.167
X25.195 Y-28.454
X25.35 Y-28.774
X25.446 Y-29.116
X25.479 Y-29.47
X25.486 Y-30.469
G2 X25.433 Y-30.698 I-0.6 J0.017 F250
X24.834 Y-31.05 I-0.547 J0.246 F850
G1 X20.065 Y-30.638
G2 X19.569 Y-30.285 I0.052 J0.598
X19.517 Y-30.057 I0.547 J0.246 F250
G1 X19.523 Y-29.1 F850
X19.531 Y-28.951
X19.552 Y-28.802
X19.588 Y-28.656
X19.635 Y-28.514
X19.693 Y-28.376
X19.761 Y-28.242
X19.837 Y-28.112
X19.921 Y-27.985
X20.018 Y-27.856
X20.13 Y-27.723
X20.255 Y-27.59
X20.391 Y-27.461
X20.543 Y-27.332
X20.711 Y-27.206
X20.892 Y-27.085
X21.083 Y-26.972
X21.285 Y-26.867
X21.498 Y-26.772
X21.719 Y-26.688
X21.949 Y-26.615
X22.185 Y-26.554
X22.423 Y-26.507
X22.663 Y-26.473
X22.872 Y-26.456
X23.105 Y-26.45
X23.312 Y-26.456
X23.505 Y-26.472
X23.718 Y-26.503
X23.9 Y-26.54
X24.086 Y-26.589
X24.416 Y-26.728
X24.715 Y-26.924
X24.974 Y-27.17
X25.186 Y-27.459
X25.342 Y-27.78
X25.439 Y-28.124
X25.473 Y-28.48
X25.479 Y-29.47
G2 X25.427 Y-29.698 I-0.6 J0.017 F250
X24.833 Y-30.051 I-0.547 J0.246 F850
G1 X20.076 Y-29.681
G2 X19.575 Y-29.328 I0.046 J0.598
X19.523 Y-29.1 I0.547 J0.246 F250
G1 X19.529 Y-28.154 F850
X19.537 Y-28.005
X19.556 Y-27.856
X19.589 Y-27.71
X19.634 Y-27.567
X19.691 Y-27.428
X19.756 Y-27.293
X19.83 Y-27.162
X19.912 Y-27.036
X20.007 Y-26.905
X20.118 Y-26.77
X20.239 Y-26.638
X20.373 Y-26.507
X20.523 Y-26.377
X20.689 Y-26.248
X20.867 Y-26.126
X21.056 Y-26.011
X21.255 Y-25.905
X21.466 Y-25.807
X21.686 Y-25.72
X21.912 Y-25.645
X22.146 Y-25.581
X22.383 Y-25.531
X22.622 Y-25.494
X22.829 Y-25.474
X23.06 Y-25.465
X23.27 Y-25.469
X23.46 Y-25.483
X23.673 Y-25.51
X23.859 Y-25.545
X24.036 Y-25.589
X24.055 Y-25.595
X24.39 Y-25.732
X24.694 Y-25.927
X24.958 Y-26.173
X25.174 Y-26.463
X25.334 Y-26.787
X25.433 Y-27.135
X25.467 Y-27.494
X25.473 Y-28.48
G2 X25.421 Y-28.708 I-0.6 J0.017 F250
X24.833 Y-29.061 I-0.547 J0.246 F850
G1 X20.087 Y-28.736
G2 X19.581 Y-28.383 I0.041 J0.599
X19.529 Y-28.154 I0.547 J0.246 F250
G1 X19.535 Y-27.148 F850
X19.543 Y-26.998
X19.566 Y-26.85
X19.602 Y-26.704
X19.65 Y-26.562
X19.708 Y-26.424
X19.775 Y-26.289
X19.85 Y-26.16
X19.937 Y-26.028
X20.034 Y-25.898
X20.145 Y-25.765
X20.272 Y-25.63
X20.412 Y-25.497
X20.563 Y-25.368
X20.729 Y-25.242
X20.91 Y-25.12
X21.102 Y-25.006
X21.306 Y-24.9
X21.519 Y-24.804
X21.739 Y-24.719
X21.966 Y-24.647
X22.199 Y-24.586
X22.436 Y-24.539
X22.66 Y-24.507
X22.871 Y-24.489
X23.103 Y-24.482
X23.3 Y-24.487
X23.5 Y-24.504
X23.708 Y-24.533
X23.885 Y-24.568
X23.961 Y-24.588
X24.314 Y-24.715
X24.636 Y-24.906
X24.917 Y-25.153
X25.147 Y-25.448
X25.318 Y-25.781
X25.424 Y-26.14
X25.462 Y-26.513
X25.467 Y-27.494
G2 X25.415 Y-27.723 I-0.6 J0.017 F250
X24.824 Y-28.076 I-0.547 J0.246 F850
G1 X20.091 Y-27.729
G2 X19.587 Y-27.376 I0.044 J0.598
X19.535 Y-27.148 I0.547 J0.246 F250
G1 X19.541 Y-26.141 F850
X19.549 Y-25.991
X19.574 Y-25.843
X19.613 Y-25.698
X19.662 Y-25.557
X19.722 Y-25.419
X19.791 Y-25.286
X19.868 Y-25.157
X19.957 Y-25.025
X20.056 Y-24.894
X20.17 Y-24.76
X20.3 Y-24.624
X20.441 Y-24.492
X20.594 Y-24.364
X20.763 Y-24.238
X20.946 Y-24.118
X21.139 Y-24.005
X21.344 Y-23.901
X21.558 Y-23.807
X21.778 Y-23.725
X22.005 Y-23.654
X22.238 Y-23.596
X22.467 Y-23.552
X22.679 Y-23.523
X22.917 Y-23.505
X23.126 Y-23.501
X23.321 Y-23.508
X23.539 Y-23.528
X23.727 Y-23.557
X23.906 Y-23.594
X23.973 Y-23.612
X24.322 Y-23.741
X24.64 Y-23.932
X24.918 Y-24.179
X25.145 Y-24.474
X25.314 Y-24.805
X25.419 Y-25.162
X25.456 Y-25.532
X25.462 Y-26.513
G2 X25.409 Y-26.741 I-0.6 J0.017 F250
X24.815 Y-27.094 I-0.547 J0.246 F850
G1 X20.093 Y-26.722
G2 X19.593 Y-26.369 I0.047 J0.598
X19.541 Y-26.141 I0.547 J0.246 F250
G1 X19.546 Y-25.225 F850
X19.555 Y-25.075
X19.573 Y-24.926
X19.605 Y-24.78
X19.649 Y-24.636
X19.704 Y-24.497
X19.769 Y-24.362
X19.842 Y-24.231
X19.923 Y-24.102
X20.019 Y-23.969
X20.127 Y-23.836
X20.246 Y-23.704
X20.381 Y-23.571
X20.531 Y-23.439
X20.693 Y-23.312
X20.867 Y-23.19
X21.051 Y-23.076
X21.25 Y-22.969
X21.459 Y-22.87
X21.675 Y-22.783
X21.9 Y-22.706
X22.13 Y-22.642
X22.364 Y-22.591
X22.582 Y-22.556
X22.802 Y-22.533
X23.032 Y-22.523
X23.226 Y-22.525
X23.434 Y-22.538
X23.64 Y-22.564
X23.816 Y-22.596
X24.008 Y-22.642
X24.025 Y-22.647
X24.362 Y-22.782
X24.669 Y-22.977
X24.935 Y-23.223
X25.153 Y-23.514
X25.314 Y-23.839
X25.414 Y-24.189
X25.45 Y-24.55
X25.456 Y-25.532
G2 X25.403 Y-25.76 I-0.6 J0.017 F250
X24.817 Y-26.113 I-0.547 J0.246 F850
G1 X20.107 Y-25.806
G2 X19.599 Y-25.453 I0.039 J0.599
X19.546 Y-25.225 I0.547 J0.246 F250
G1 X19.552 Y-24.218 F850
X19.561 Y-24.068
X19.582 Y-23.92
X19.616 Y-23.774
X19.662 Y-23.631
X19.719 Y-23.492
X19.785 Y-23.358
X19.86 Y-23.228
X19.945 Y-23.096
X20.041 Y-22.966
X20.15 Y-22.834
X20.274 Y-22.699
X20.412 Y-22.566
X20.561 Y-22.437
X20.724 Y-22.311
X20.901 Y-22.191
X21.09 Y-22.077
X21.292 Y-21.97
X21.501 Y-21.874
X21.718 Y-21.789
X21.943 Y-21.715
X22.173 Y-21.653
X22.407 Y-21.604
X22.629 Y-21.571
X22.839 Y-21.552
X23.07 Y-21.543
X23.266 Y-21.547
X23.465 Y-21.563
X23.673 Y-21.59
X23.849 Y-21.624
X24.038 Y-21.672
X24.371 Y-21.809
X24.674 Y-22.005
X24.937 Y-22.251
X25.152 Y-22.54
X25.311 Y-22.864
X25.409 Y-23.21
X25.444 Y-23.569
X25.45 Y-24.55
G2 X25.397 Y-24.778 I-0.6 J0.017 F250
X24.808 Y-25.131 I-0.547 J0.246 F850
G1 X20.11 Y-24.799
G2 X19.605 Y-24.446 I0.042 J0.599
X19.552 Y-24.218 I0.547 J0.246 F250
G1 X19.558 Y-23.212 F850
X19.567 Y-23.062
X19.59 Y-22.914
X19.627 Y-22.768
X19.676 Y-22.626
X19.734 Y-22.488
X19.802 Y-22.354
X19.877 Y-22.225
X19.965 Y-22.093
X20.063 Y-21.963
X20.174 Y-21.83
X20.301 Y-21.695
X20.441 Y-21.563
X20.592 Y-21.435
X20.758 Y-21.31
X20.937 Y-21.19
X21.128 Y-21.078
X21.331 Y-20.973
X21.542 Y-20.879
X21.76 Y-20.796
X21.985 Y-20.724
X22.216 Y-20.665
X22.449 Y-20.619
X22.669 Y-20.588
X22.879 Y-20.571
X23.106 Y-20.565
X23.299 Y-20.571
X23.499 Y-20.588
X23.704 Y-20.618
X23.878 Y-20.653
X24.065 Y-20.702
X24.391 Y-20.84
X24.687 Y-21.034
X24.944 Y-21.277
X25.153 Y-21.563
X25.308 Y-21.881
X25.404 Y-22.222
X25.438 Y-22.574
X25.444 Y-23.569
G2 X25.391 Y-23.797 I-0.6 J0.017 F250
X24.798 Y-24.15 I-0.547 J0.246 F850
G1 X20.113 Y-23.792
G2 X19.611 Y-23.44 I0.046 J0.598
X19.558 Y-23.212 I0.547 J0.246 F250
G1 X19.564 Y-22.255 F850
X19.573 Y-22.105
X19.593 Y-21.956
X19.628 Y-21.81
X19.674 Y-21.668
X19.731 Y-21.529
X19.797 Y-21.394
X19.872 Y-21.264
X19.955 Y-21.137
X20.051 Y-21.006
X20.162 Y-20.871
X20.285 Y-20.738
X20.42 Y-20.608
X20.57 Y-20.479
X20.735 Y-20.352
X20.913 Y-20.23
X21.1 Y-20.117
X21.298 Y-20.013
X21.506 Y-19.917
X21.722 Y-19.832
X21.945 Y-19.759
X22.175 Y-19.697
X22.408 Y-19.649
X22.64 Y-19.614
X22.844 Y-19.596
X23.073 Y-19.587
X23.275 Y-19.591
X23.465 Y-19.606
X23.675 Y-19.634
X23.855 Y-19.669
X24.032 Y-19.713
X24.364 Y-19.85
X24.666 Y-20.045
X24.927 Y-20.29
X25.141 Y-20.579
X25.299 Y-20.901
X25.397 Y-21.246
X25.432 Y-21.603
X25.438 Y-22.574
G2 X25.385 Y-22.802 I-0.6 J0.017 F250
X24.797 Y-23.155 I-0.547 J0.246 F850
G1 X20.123 Y-22.836
G2 X19.617 Y-22.483 I0.041 J0.599
X19.564 Y-22.255 I0.547 J0.246 F250
G1 X19.57 Y-21.248 F850
X19.579 Y-21.098
X19.602 Y-20.95
X19.64 Y-20.805
X19.688 Y-20.663
X19.747 Y-20.525
X19.815 Y-20.391
X19.891 Y-20.262
X19.979 Y-20.13
X20.076 Y-20
X20.188 Y-19.868
X20.314 Y-19.734
X20.454 Y-19.602
X20.606 Y-19.475
X20.771 Y-19.351
X20.95 Y-19.231
X21.141 Y-19.119
X21.344 Y-19.014
X21.555 Y-18.921
X21.773 Y-18.838
X21.997 Y-18.767
X22.228 Y-18.708
X22.461 Y-18.662
X22.678 Y-18.633
X22.887 Y-18.616
X23.112 Y-18.61
X23.303 Y-18.616
X23.504 Y-18.634
X23.706 Y-18.663
X23.879 Y-18.698
X23.935 Y-18.713
X24.285 Y-18.841
X24.605 Y-19.032
X24.885 Y-19.279
X25.114 Y-19.574
X25.284 Y-19.906
X25.389 Y-20.264
X25.426 Y-20.635
X25.432 Y-21.603
G2 X25.38 Y-21.831 I-0.6 J0.017 F250
X24.786 Y-22.184 I-0.547 J0.246 F850
G1 X20.125 Y-21.829
G2 X19.623 Y-21.476 I0.046 J0.598
X19.57 Y-21.248 I0.547 J0.246 F250
G1 X19.576 Y-20.302 F850
X19.585 Y-20.152
X19.604 Y-20.004
X19.638 Y-19.858
X19.684 Y-19.715
X19.741 Y-19.576
X19.806 Y-19.441
X19.881 Y-19.311
X19.963 Y-19.184
X20.059 Y-19.053
X20.169 Y-18.919
X20.291 Y-18.786
X20.425 Y-18.656
X20.574 Y-18.527
X20.739 Y-18.4
X20.915 Y-18.279
X21.102 Y-18.166
X21.298 Y-18.062
X21.506 Y-17.966
X21.72 Y-17.881
X21.942 Y-17.808
X22.171 Y-17.746
X22.402 Y-17.697
X22.609 Y-17.666
X22.838 Y-17.644
X23.053 Y-17.636
X23.242 Y-17.64
X23.455 Y-17.656
X23.65 Y-17.681
X23.823 Y-17.714
X23.903 Y-17.734
X24.258 Y-17.859
X24.584 Y-18.048
X24.868 Y-18.296
X25.101 Y-18.592
X25.275 Y-18.927
X25.382 Y-19.288
X25.42 Y-19.663
X25.426 Y-20.635
G2 X25.374 Y-20.863 I-0.6 J0.017 F250
X24.783 Y-21.216 I-0.547 J0.246 F850
G1 X20.133 Y-20.883
G2 X19.628 Y-20.53 I0.043 J0.598
X19.576 Y-20.302 I0.547 J0.246 F250
G1 X19.582 Y-19.295 F850
X19.591 Y-19.146
X19.614 Y-18.997
X19.65 Y-18.852
X19.699 Y-18.71
X19.757 Y-18.572
X19.824 Y-18.438
X19.9 Y-18.308
X19.988 Y-18.177
X20.085 Y-18.047
X20.196 Y-17.916
X20.321 Y-17.783
X20.461 Y-17.65
X20.612 Y-17.523
X20.776 Y-17.4
X20.952 Y-17.282
X21.141 Y-17.17
X21.342 Y-17.066
X21.55 Y-16.973
X21.767 Y-16.891
X21.991 Y-16.82
X22.218 Y-16.761
X22.439 Y-16.717
X22.648 Y-16.688
X22.883 Y-16.669
X23.085 Y-16.664
X23.28 Y-16.67
X23.495 Y-16.688
X23.679 Y-16.715
X23.858 Y-16.751
X23.92 Y-16.767
X24.271 Y-16.895
X24.592 Y-17.086
X24.872 Y-17.333
X25.101 Y-17.628
X25.271 Y-17.96
X25.377 Y-18.318
X25.414 Y-18.69
X25.42 Y-19.663
G2 X25.368 Y-19.891 I-0.6 J0.017 F250
X24.773 Y-20.244 I-0.547 J0.246 F850
G1 X20.135 Y-19.876
G2 X19.634 Y-19.524 I0.047 J0.598
X19.582 Y-19.295 I0.547 J0.246 F250
G1 X19.588 Y-18.329 F850
X19.596 Y-18.18
X19.618 Y-18.031
X19.653 Y-17.885
X19.701 Y-17.743
X19.758 Y-17.605
X19.825 Y-17.47
X19.9 Y-17.341
X19.985 Y-17.213
X20.081 Y-17.083
X20.192 Y-16.95
X20.316 Y-16.817
X20.452 Y-16.688
X20.601 Y-16.56
X20.765 Y-16.436
X20.94 Y-16.317
X21.129 Y-16.205
X21.327 Y-16.101
X21.533 Y-16.008
X21.747 Y-15.926
X21.969 Y-15.854
X22.196 Y-15.794
X22.422 Y-15.749
X22.628 Y-15.719
X22.86 Y-15.699
X23.069 Y-15.692
X23.258 Y-15.697
X23.473 Y-15.715
X23.663 Y-15.741
X23.837 Y-15.776
X24.034 Y-15.826
X24.36 Y-15.963
X24.656 Y-16.156
X24.913 Y-16.398
X25.123 Y-16.683
X25.278 Y-17.001
X25.374 Y-17.341
X25.408 Y-17.693
X25.414 Y-18.69
G2 X25.362 Y-18.918 I-0.6 J0.017 F250
X24.768 Y-19.271 I-0.547 J0.246 F850
G1 X20.141 Y-18.91
G2 X19.64 Y-18.558 I0.047 J0.598
X19.588 Y-18.329 I0.547 J0.246 F250
G1 X19.594 Y-17.373 F850
X19.602 Y-17.223
X19.622 Y-17.074
X19.655 Y-16.928
X19.701 Y-16.785
X19.757 Y-16.646
X19.823 Y-16.511
X19.897 Y-16.381
X19.98 Y-16.253
X20.074 Y-16.125
X20.183 Y-15.993
X20.306 Y-15.86
X20.439 Y-15.731
X20.586 Y-15.603
X20.748 Y-15.478
X20.922 Y-15.359
X21.108 Y-15.246
X21.304 Y-15.142
X21.509 Y-15.048
X21.721 Y-14.964
X21.941 Y-14.891
X22.168 Y-14.83
X22.397 Y-14.782
X22.625 Y-14.748
X22.828 Y-14.729
X23.055 Y-14.72
X23.253 Y-14.724
X23.444 Y-14.738
X23.652 Y-14.766
X23.829 Y-14.8
X24.008 Y-14.844
X24.338 Y-14.98
X24.639 Y-15.173
X24.9 Y-15.417
X25.112 Y-15.704
X25.27 Y-16.025
X25.368 Y-16.368
X25.402 Y-16.724
X25.408 Y-17.693
G2 X25.356 Y-17.921 I-0.6 J0.017 F250
X24.767 Y-18.274 I-0.547 J0.246 F850
G1 X20.152 Y-17.954
G2 X19.646 Y-17.601 I0.042 J0.599
X19.594 Y-17.373 I0.547 J0.246 F250
G1 X19.6 Y-16.366 F850
X19.608 Y-16.216
X19.631 Y-16.068
X19.668 Y-15.922
X19.717 Y-15.781
X19.775 Y-15.642
X19.843 Y-15.509
X19.919 Y-15.379
X20.006 Y-15.249
X20.104 Y-15.119
X20.214 Y-14.989
X20.339 Y-14.857
X20.479 Y-14.726
X20.629 Y-14.599
X20.792 Y-14.477
X20.969 Y-14.359
X21.157 Y-14.249
X21.358 Y-14.146
X21.567 Y-14.053
X21.782 Y-13.972
X22.005 Y-13.902
X22.233 Y-13.844
X22.464 Y-13.799
X22.674 Y-13.77
X22.886 Y-13.753
X23.106 Y-13.748
X23.293 Y-13.754
X23.496 Y-13.772
X23.694 Y-13.801
X23.865 Y-13.836
X23.907 Y-13.847
X24.257 Y-13.976
X24.577 Y-14.167
X24.856 Y-14.414
X25.085 Y-14.709
X25.254 Y-15.04
X25.359 Y-15.398
X25.396 Y-15.769
X25.402 Y-16.724
G2 X25.35 Y-16.952 I-0.6 J0.017 F250
X24.756 Y-17.305 I-0.547 J0.246 F850
G1 X20.153 Y-16.947
G2 X19.652 Y-16.594 I0.047 J0.598
X19.6 Y-16.366 I0.547 J0.246 F250
G1 X19.606 Y-15.409 F850
X19.614 Y-15.259
X19.635 Y-15.111
X19.67 Y-14.965
X19.717 Y-14.822
X19.775 Y-14.684
X19.842 Y-14.55
X19.917 Y-14.42
X20.001 Y-14.293
X20.097 Y-14.164
X20.207 Y-14.031
X20.331 Y-13.899
X20.466 Y-13.77
X20.614 Y-13.643
X20.779 Y-13.518
X20.955 Y-13.399
X21.142 Y-13.288
X21.339 Y-13.185
X21.545 Y-13.092
X21.758 Y-13.01
X21.978 Y-12.939
X22.205 Y-12.88
X22.429 Y-12.834
X22.631 Y-12.805
X22.861 Y-12.785
X23.066 Y-12.779
X23.254 Y-12.784
X23.467 Y-12.801
X23.655 Y-12.828
X23.828 Y-12.862
X23.888 Y-12.877
X24.24 Y-13.004
X24.563 Y-13.194
X24.845 Y-13.441
X25.075 Y-13.737
X25.247 Y-14.07
X25.353 Y-14.429
X25.391 Y-14.802
X25.396 Y-15.769
G2 X25.344 Y-15.997 I-0.6 J0.017 F250
X24.75 Y-16.35 I-0.547 J0.246 F850
G1 X20.159 Y-15.99
G2 X19.658 Y-15.637 I0.047 J0.598
X19.606 Y-15.409 I0.547 J0.246 F250
G1 X19.611 Y-14.463 F850
X19.62 Y-14.313
X19.638 Y-14.165
X19.671 Y-14.018
X19.715 Y-13.875
X19.771 Y-13.736
X19.836 Y-13.601
X19.91 Y-13.47
X19.992 Y-13.344
X20.085 Y-13.215
X20.193 Y-13.083
X20.314 Y-12.951
X20.445 Y-12.822
X20.591 Y-12.695
X20.752 Y-12.57
X20.924 Y-12.451
X21.108 Y-12.339
X21.302 Y-12.235
X21.505 Y-12.141
X21.715 Y-12.057
X21.933 Y-11.984
X22.158 Y-11.923
X22.382 Y-11.875
X22.585 Y-11.844
X22.814 Y-11.821
X23.023 Y-11.813
X23.21 Y-11.815
X23.423 Y-11.831
X23.615 Y-11.855
X23.787 Y-11.887
X23.861 Y-11.906
X24.218 Y-12.03
X24.545 Y-12.219
X24.831 Y-12.466
X25.065 Y-12.763
X25.239 Y-13.098
X25.347 Y-13.46
X25.385 Y-13.836
X25.391 Y-14.802
G2 X25.338 Y-15.03 I-0.6 J0.017 F250
X24.747 Y-15.383 I-0.547 J0.246 F850
G1 X20.167 Y-15.044
G2 X19.664 Y-14.691 I0.044 J0.598
X19.611 Y-14.463 I0.547 J0.246 F250
G1 X19.618 Y-13.457 F850
X19.626 Y-13.307
X19.648 Y-13.158
X19.684 Y-13.013
X19.732 Y-12.871
X19.79 Y-12.732
X19.857 Y-12.598
X19.933 Y-12.469
X20.019 Y-12.339
X20.117 Y-12.209
X20.225 Y-12.08
X20.348 Y-11.949
X20.487 Y-11.818
X20.637 Y-11.692
X20.798 Y-11.57
X20.97 Y-11.455
X21.156 Y-11.345
X21.199 Y-11.323
X21.492 Y-11.2
X21.8 Y-11.125
X22.117 Y-11.1
G2 X22.345 Y-11.154 I-0.021 J-0.6 F250
X22.504 Y-12.14 I-0.249 J-0.546 F850
G1 X20.625 Y-13.879
G2 X19.67 Y-13.685 I-0.408 J0.44
X19.618 Y-13.457 I0.547 J0.246 F250
G1 X19.623 Y-12.491 F850
X19.632 Y-12.341
X19.703 Y-12.055
X19.831 Y-11.79
X20.01 Y-11.556
X20.233 Y-11.363
X20.49 Y-11.219
X20.771 Y-11.13
X21.064 Y-11.1
G2 X21.292 Y-11.154 I-0.021 J-0.6 F250
X21.455 Y-12.136 I-0.249 J-0.546 F850
G1 X20.635 Y-12.91
G2 X19.676 Y-12.719 I-0.412 J0.436
X19.623 Y-12.491 I0.547 J0.246 F250
G1 X19.627 Y-11.846 F850
X19.629 Y-11.785
X19.63 Y-11.742
X19.631 Y-11.713
X19.637 Y-11.637
X19.643 Y-11.596
X19.65 Y-11.556
G2 X19.792 Y-11.371 I0.405 J-0.164 F250
X20.108 Y-11.287 I0.263 J-0.349 F850
X20.004 Y-12.131 I-0.052 J-0.422
X19.696 Y-11.936 I0.052 J0.422
X19.631 Y-11.713 I0.36 J0.227 F250
G1 X19.633 Y-11.644 F850
X19.65 Y-11.556
X19.683 Y-11.467
X19.694 Y-11.443
X19.723 Y-11.393
X19.759 Y-11.342
X19.805 Y-11.292
X19.859 Y-11.242
X19.884 Y-11.222
X19.934 Y-11.188
X19.984 Y-11.16
X20.035 Y-11.139
X20.085 Y-11.122
X20.186 Y-11.103
X20.286 Y-11.1
X23.506
X23.698 Y-11.11
X23.847 Y-11.126
X24.201 Y-11.223
X24.528 Y-11.388
X24.816 Y-11.614
X25.053 Y-11.894
X25.23 Y-12.215
X25.341 Y-12.564
X25.379 Y-12.929
G2 X25.327 Y-13.157 I-0.6 J0.017 F250
X24.362 Y-13.342 I-0.547 J0.246 F850
G1 X23.11 Y-12.131
G2 X23.278 Y-11.154 I0.417 J0.431
X23.506 Y-11.1 I0.249 J-0.546 F250
G1 X24.472 F850
X24.621 Y-11.108
X24.861 Y-11.185
X25.071 Y-11.325
X25.233 Y-11.517
X25.337 Y-11.746
X25.374 Y-11.996
G2 X25.335 Y-12.227 I-0.872 J0.025 F250
X25.121 Y-12.585 I-0.834 J0.257 F850
X23.884 Y-11.357 I-0.618 J0.614
X24.24 Y-11.14 I0.618 J-0.614
X24.472 Y-11.1 I0.262 J-0.831 F250
G1 X24.714 F850
X24.814 Y-11.103
X24.915 Y-11.122
X24.965 Y-11.139
X25.016 Y-11.16
X25.066 Y-11.188
X25.116 Y-11.222
X25.141 Y-11.242
X25.195 Y-11.292
X25.241 Y-11.342
X25.277 Y-11.393
X25.306 Y-11.443
X25.317 Y-11.467
X25.35 Y-11.556
X25.367 Y-11.644
X25.373 Y-11.846
X25.385 Y-13.836
G2 X25.332 Y-14.064 I-0.6 J0.017 F250
G1 X25.294 Y-14.15 Z-21.993
X25.257 Y-14.233 Z-21.971
X25.221 Y-14.313 Z-21.935
X25.188 Y-14.386 Z-21.885
X25.159 Y-14.451 Z-21.824
X25.134 Y-14.507 Z-21.753
X25.114 Y-14.552 Z-21.672
X25.099 Y-14.585 Z-21.585
X25.09 Y-14.605 Z-21.494
X25.087 Y-14.612 Z-21.4
G0 Z5
X20.044 Y-262.584
Z-11.88
G1 Z-12.48 F250
G2 X25.058 Y-262.737 Z-12.687 I2.456 J-1.745 F200
X22.984 Y-267.297 Z-12.894 I-2.555 J-1.59
X19.581 Y-263.628 Z-13.101 I-0.48 J2.967
X24.274 Y-261.908 Z-13.308 I2.919 J-0.702
X24.05 Y-266.895 Z-13.515 I-1.772 J-2.419
X19.541 Y-264.765 Z-13.722 I-1.545 J2.565
X23.242 Y-261.433 Z-13.929 I2.959 J0.435
X24.885 Y-266.127 Z-14.136 I-0.74 J-2.894
X19.926 Y-265.831 Z-14.343 I-2.381 J1.798
X22.111 Y-261.376 Z-14.55 I2.575 J1.501
X25.373 Y-265.107 Z-14.757 I0.39 J-2.951
X20.678 Y-266.674 Z-14.963 I-2.869 J0.779
X21.045 Y-261.744 Z-15.17 I1.824 J2.343
X25.446 Y-263.983 Z-15.377 I1.456 J-2.584
X21.686 Y-267.175 Z-15.584 I-2.942 J-0.345
X20.195 Y-262.48 Z-15.791 I0.817 J2.844
X25.095 Y-262.916 Z-15.998 I2.305 J-1.849
X22.804 Y-267.263 Z-16.205 I-2.592 J-1.411
X19.683 Y-263.476 Z-16.412 I-0.3 J2.932
X24.375 Y-262.06 Z-16.619 I2.818 J-0.854
X23.87 Y-266.93 Z-16.826 I-1.873 J-2.267
X19.578 Y-264.587 Z-17.033 I-1.366 J2.6
X23.392 Y-261.536 Z-17.24 I2.922 J0.256
X24.733 Y-266.226 Z-17.447 I-0.89 J-2.791
X19.895 Y-265.652 Z-17.654 I-2.228 J1.897
X22.288 Y-261.416 Z-17.861 I2.606 J1.322
X25.268 Y-265.255 Z-18.068 I0.213 J-2.911
X20.583 Y-266.52 Z-18.275 I-2.764 J0.926
X21.223 Y-261.715 Z-18.482 I1.919 J2.189
X25.403 Y-264.158 Z-18.689 I1.277 J-2.613
X21.541 Y-267.068 Z-18.896 I-2.899 J-0.169
X20.35 Y-262.387 Z-19.103 I0.962 J2.737
X25.121 Y-263.094 Z-19.31 I2.15 J-1.941
X22.63 Y-267.218 Z-19.517 I-2.618 J-1.233
X19.791 Y-263.333 Z-19.723 I-0.126 J2.887
X24.465 Y-262.215 Z-19.93 I2.709 J-0.997
X23.692 Y-266.952 Z-20.137 I-1.963 J-2.111
X19.626 Y-264.414 Z-20.344 I-1.188 J2.622
X23.533 Y-261.646 Z-20.551 I2.874 J0.084
X24.576 Y-266.313 Z-20.758 I-1.031 J-2.68
X19.875 Y-265.475 Z-20.965 I-2.072 J1.983
X22.459 Y-261.466 Z-21.172 I2.626 J1.144
X25.156 Y-265.393 Z-21.379 I0.042 J-2.861
X20.499 Y-266.364 Z-21.586 I-2.652 J1.065
X21.4 Y-261.698 Z-21.793 I2.003 J2.033
X25.351 Y-264.328 Z-22 I1.1 J-2.629
X23.15 Y-267.103 I-2.85
X19.873 Y-265.432 I-0.65 J2.775
X24.271 Y-262.094 I2.628 J1.104
X25.351 Y-264.328 I-1.771 J-2.233
G1 X25.363 Y-265.214 F850
X25.396 Y-265.319
X25.424 Y-265.467
X25.434 Y-265.617
X25.427 Y-265.766
X25.406 Y-265.915
X25.373 Y-266.061
X25.329 Y-266.205
X25.274 Y-266.344
X25.21 Y-266.48
X25.138 Y-266.612
X25.058 Y-266.738
X24.97 Y-266.86
X24.874 Y-266.98
X24.767 Y-267.097
X24.651 Y-267.212
X24.526 Y-267.322
X24.392 Y-267.427
X24.249 Y-267.527
X24.098 Y-267.62
X23.94 Y-267.707
X23.773 Y-267.785
X23.601 Y-267.855
X23.422 Y-267.916
X23.238 Y-267.967
X23.049 Y-268.008
X22.856 Y-268.039
X22.661 Y-268.059
X22.462 Y-268.069
X22.262 Y-268.067
X22.061 Y-268.053
X21.86 Y-268.029
X21.66 Y-267.992
X21.461 Y-267.945
X21.264 Y-267.885
X21.07 Y-267.815
X20.879 Y-267.734
X20.693 Y-267.641
X20.512 Y-267.538
X20.336 Y-267.425
X20.167 Y-267.302
X20.091 Y-267.24
X19.841 Y-266.995
X19.636 Y-266.71
X19.485 Y-266.394
X19.391 Y-266.056
X19.358 Y-265.707
X19.34 Y-263.322
X19.346 Y-263.172
X19.363 Y-263.023
X19.39 Y-262.876
X19.427 Y-262.73
X19.473 Y-262.588
X19.528 Y-262.448
X19.591 Y-262.312
X19.663 Y-262.175
X19.746 Y-262.04
X19.838 Y-261.905
X19.86 Y-261.877
X20.108 Y-261.61
X20.401 Y-261.393
X20.728 Y-261.232
X21.079 Y-261.133
X21.442 Y-261.1
G2 X21.67 Y-261.154 I-0.021 J-0.6 F250
X21.861 Y-262.108 I-0.249 J-0.546 F850
G1 X20.379 Y-263.705
G2 X19.395 Y-263.55 I-0.44 J0.408
X19.34 Y-263.322 I0.544 J0.253 F250
G1 X19.331 Y-262.205 F850
X19.338 Y-262.055
X19.408 Y-261.799
X19.536 Y-261.567
X19.715 Y-261.372
X19.935 Y-261.224
X20.183 Y-261.131
X20.446 Y-261.1
G2 X20.679 Y-261.134 I-0.037 J-1.061 F250
X21.436 Y-262.433 I-0.27 J-1.027 F850
X19.367 Y-262.437 I-1.035 J0.274
X19.331 Y-262.205 I1.034 J0.278 F250
G1 X19.328 Y-261.711 F850
X19.336 Y-261.611
X19.362 Y-261.51
X19.383 Y-261.46
X19.409 Y-261.41
X19.441 Y-261.36
X19.482 Y-261.309
X19.532 Y-261.259
X19.582 Y-261.22
X19.633 Y-261.186
X19.683 Y-261.159
X19.766 Y-261.127
X19.849 Y-261.107
X19.884 Y-261.103
X20.085 Y-261.1
X23.416
X23.572 Y-261.108
X23.721 Y-261.124
X23.869 Y-261.15
X24.015 Y-261.185
X24.158 Y-261.229
X24.299 Y-261.282
X24.44 Y-261.344
X24.581 Y-261.416
X24.721 Y-261.498
X24.763 Y-261.525
X25.023 Y-261.73
X25.246 Y-261.975
X25.426 Y-262.253
X25.557 Y-262.557
X25.636 Y-262.879
X25.661 Y-263.209
G2 X25.606 Y-263.437 I-0.599 J0.025 F250
X24.657 Y-263.627 I-0.544 J0.253 F850
G1 X23.032 Y-262.143
G2 X23.188 Y-261.154 I0.405 J0.443
X23.416 Y-261.1 I0.249 J-0.546 F250
G1 X24.573 F850
X24.723 Y-261.108
X24.978 Y-261.178
X25.208 Y-261.306
X25.402 Y-261.485
X25.549 Y-261.705
X25.639 Y-261.953
X25.669 Y-262.216
G2 X25.633 Y-262.448 I-1.059 J0.045 F250
X24.337 Y-263.195 I-1.023 J0.277 F850
X24.341 Y-261.134 I0.273 J1.03
X24.573 Y-261.1 I0.27 J-1.031 F250
G1 X24.915 F850
X25.116 Y-261.103
X25.151 Y-261.107
X25.234 Y-261.127
X25.317 Y-261.159
X25.367 Y-261.186
X25.418 Y-261.22
X25.468 Y-261.259
X25.519 Y-261.31
X25.559 Y-261.36
X25.591 Y-261.41
X25.617 Y-261.46
X25.638 Y-261.51
X25.664 Y-261.611
X25.672 Y-261.711
X25.637 Y-266.403
X25.628 Y-266.553
X25.609 Y-266.702
X25.577 Y-266.848
X25.534 Y-266.992
X25.481 Y-267.132
X25.419 Y-267.269
X25.348 Y-267.401
X25.269 Y-267.528
X25.181 Y-267.654
X25.083 Y-267.78
X24.972 Y-267.906
X24.849 Y-268.03
X24.716 Y-268.15
X24.574 Y-268.265
X24.42 Y-268.376
X24.255 Y-268.481
X24.078 Y-268.58
X23.892 Y-268.671
X23.697 Y-268.753
X23.493 Y-268.826
X23.283 Y-268.887
X23.065 Y-268.938
X22.841 Y-268.977
X22.611 Y-269.004
X22.376 Y-269.018
X22.138 Y-269.019
X21.896 Y-269.006
X21.653 Y-268.98
X21.409 Y-268.939
X21.166 Y-268.884
X20.94 Y-268.82
X20.718 Y-268.743
X20.605 Y-268.697
X20.261 Y-268.514
X19.958 Y-268.267
X19.709 Y-267.966
X19.524 Y-267.623
X19.408 Y-267.251
X19.367 Y-266.862
X19.358 Y-265.707
G2 X19.41 Y-265.479 I0.6 J-0.016 F250
X20.039 Y-265.129 I0.548 J-0.245 F850
G1 X25.118 Y-265.825
G2 X25.585 Y-266.175 I-0.081 J-0.594
X25.637 Y-266.403 I-0.548 J-0.245 F250
G1 X25.629 Y-267.46 F850
X25.62 Y-267.609
X25.596 Y-267.758
X25.558 Y-267.903
X25.509 Y-268.044
X25.449 Y-268.182
X25.379 Y-268.315
X25.302 Y-268.443
X25.216 Y-268.567
X25.12 Y-268.691
X25.011 Y-268.816
X24.888 Y-268.942
X24.753 Y-269.066
X24.608 Y-269.185
X24.448 Y-269.301
X24.274 Y-269.413
X24.087 Y-269.52
X23.888 Y-269.618
X23.68 Y-269.707
X23.459 Y-269.787
X23.227 Y-269.857
X22.983 Y-269.915
X22.73 Y-269.961
X22.47 Y-269.993
X22.205 Y-270.01
X21.95 Y-270.013
X21.712 Y-270.002
X21.452 Y-269.975
X21.238 Y-269.94
X21.029 Y-269.895
X20.807 Y-269.833
X20.73 Y-269.807
X20.408 Y-269.664
X20.116 Y-269.467
X19.862 Y-269.222
X19.656 Y-268.936
X19.503 Y-268.619
X19.409 Y-268.279
X19.375 Y-267.929
X19.367 Y-266.862
G2 X19.419 Y-266.634 I0.6 J-0.016 F250
X20.037 Y-266.283 I0.548 J-0.245 F850
G1 X25.099 Y-266.88
G2 X25.577 Y-267.231 I-0.07 J-0.596
X25.629 Y-267.46 I-0.548 J-0.245 F250
G1 X25.621 Y-268.417 F850
X25.613 Y-268.566
X25.588 Y-268.714
X25.55 Y-268.859
X25.5 Y-269.001
X25.439 Y-269.138
X25.369 Y-269.271
X25.291 Y-269.399
X25.203 Y-269.526
X25.104 Y-269.651
X24.992 Y-269.779
X24.864 Y-269.91
X24.724 Y-270.037
X24.572 Y-270.161
X24.402 Y-270.284
X24.216 Y-270.403
X24.017 Y-270.515
X23.806 Y-270.618
X23.582 Y-270.713
X23.347 Y-270.798
X23.099 Y-270.871
X22.845 Y-270.931
X22.587 Y-270.977
X22.323 Y-271.008
X22.08 Y-271.023
X21.83 Y-271.025
X21.593 Y-271.013
X21.386 Y-270.991
X21.158 Y-270.953
X20.962 Y-270.909
X20.773 Y-270.856
X20.731 Y-270.842
X20.41 Y-270.699
X20.12 Y-270.501
X19.868 Y-270.256
X19.663 Y-269.971
X19.511 Y-269.654
X19.416 Y-269.316
X19.383 Y-268.966
X19.375 Y-267.929
G2 X19.427 Y-267.7 I0.6 J-0.016 F250
X20.033 Y-267.348 I0.548 J-0.245 F850
G1 X25.079 Y-267.836
G2 X25.569 Y-268.188 I-0.058 J-0.597
X25.621 Y-268.417 I-0.548 J-0.245 F250
G1 X25.614 Y-269.362 F850
X25.605 Y-269.512
X25.582 Y-269.66
X25.544 Y-269.806
X25.495 Y-269.947
X25.435 Y-270.085
X25.366 Y-270.218
X25.289 Y-270.347
X25.203 Y-270.473
X25.103 Y-270.605
X24.987 Y-270.74
X24.861 Y-270.871
X24.719 Y-271.003
X24.559 Y-271.136
X24.385 Y-271.264
X24.2 Y-271.386
X23.999 Y-271.502
X23.784 Y-271.61
X23.556 Y-271.71
X23.317 Y-271.798
X23.073 Y-271.873
X22.821 Y-271.936
X22.566 Y-271.984
X22.308 Y-272.017
X22.073 Y-272.034
X21.835 Y-272.038
X21.601 Y-272.029
X21.4 Y-272.01
X21.177 Y-271.976
X20.98 Y-271.934
X20.798 Y-271.884
X20.759 Y-271.872
X20.434 Y-271.73
X20.139 Y-271.534
X19.884 Y-271.289
X19.675 Y-271.002
X19.521 Y-270.683
X19.425 Y-270.342
X19.391 Y-269.989
X19.383 Y-268.966
G2 X19.435 Y-268.738 I0.6 J-0.016 F250
X20.03 Y-268.384 I0.548 J-0.245 F850
G1 X25.061 Y-268.781
G2 X25.562 Y-269.134 I-0.047 J-0.598
X25.614 Y-269.362 I-0.548 J-0.245 F250
G1 X25.607 Y-270.279 F850
X25.598 Y-270.428
X25.58 Y-270.577
X25.548 Y-270.724
X25.503 Y-270.867
X25.448 Y-271.006
X25.383 Y-271.141
X25.31 Y-271.272
X25.227 Y-271.402
X25.129 Y-271.538
X25.02 Y-271.671
X24.897 Y-271.807
X24.757 Y-271.944
X24.603 Y-272.08
X24.437 Y-272.209
X24.255 Y-272.336
X24.057 Y-272.458
X23.845 Y-272.572
X23.623 Y-272.677
X23.391 Y-272.77
X23.151 Y-272.851
X22.906 Y-272.919
X22.655 Y-272.973
X22.401 Y-273.013
X22.16 Y-273.038
X21.934 Y-273.048
X21.692 Y-273.045
X21.489 Y-273.031
X21.274 Y-273.004
X21.067 Y-272.966
X20.887 Y-272.923
X20.82 Y-272.902
X20.484 Y-272.767
X20.178 Y-272.572
X19.912 Y-272.326
X19.695 Y-272.036
X19.534 Y-271.712
X19.434 Y-271.364
X19.398 Y-271.003
X19.391 Y-269.989
G2 X19.443 Y-269.761 I0.6 J-0.016 F250
X20.025 Y-269.407 I0.548 J-0.245 F850
G1 X25.042 Y-269.696
G2 X25.555 Y-270.05 I-0.035 J-0.599
X25.607 Y-270.279 I-0.548 J-0.245 F250
G1 X25.599 Y-271.285 F850
X25.591 Y-271.435
X25.57 Y-271.584
X25.536 Y-271.73
X25.489 Y-271.872
X25.433 Y-272.011
X25.367 Y-272.146
X25.293 Y-272.277
X25.208 Y-272.409
X25.111 Y-272.543
X24.998 Y-272.682
X24.871 Y-272.821
X24.733 Y-272.956
X24.578 Y-273.091
X24.406 Y-273.225
X24.22 Y-273.354
X24.022 Y-273.474
X23.813 Y-273.587
X23.593 Y-273.689
X23.36 Y-273.782
X23.122 Y-273.862
X22.876 Y-273.929
X22.626 Y-273.983
X22.375 Y-274.022
X22.149 Y-274.044
X21.904 Y-274.054
X21.68 Y-274.051
X21.48 Y-274.037
X21.256 Y-274.008
X21.062 Y-273.972
X20.879 Y-273.928
X20.822 Y-273.91
X20.488 Y-273.774
X20.183 Y-273.58
X19.918 Y-273.333
X19.702 Y-273.044
X19.541 Y-272.72
X19.442 Y-272.372
X19.406 Y-272.013
X19.398 Y-271.003
G2 X19.45 Y-270.775 I0.6 J-0.016 F250
X20.032 Y-270.42 I0.548 J-0.245 F850
G1 X25.033 Y-270.703
G2 X25.547 Y-271.057 I-0.034 J-0.599
X25.599 Y-271.285 I-0.548 J-0.245 F250
G1 X25.592 Y-272.292 F850
X25.583 Y-272.442
X25.561 Y-272.59
X25.526 Y-272.736
X25.479 Y-272.878
X25.422 Y-273.017
X25.356 Y-273.152
X25.281 Y-273.284
X25.196 Y-273.416
X25.098 Y-273.551
X24.983 Y-273.691
X24.856 Y-273.829
X24.717 Y-273.965
X24.561 Y-274.101
X24.388 Y-274.235
X24.202 Y-274.364
X24.004 Y-274.484
X23.796 Y-274.595
X23.574 Y-274.698
X23.343 Y-274.79
X23.106 Y-274.87
X22.86 Y-274.936
X22.612 Y-274.989
X22.362 Y-275.028
X22.138 Y-275.049
X21.896 Y-275.059
X21.673 Y-275.056
X21.474 Y-275.041
X21.252 Y-275.012
X21.06 Y-274.977
X20.878 Y-274.932
X20.827 Y-274.916
X20.493 Y-274.78
X20.189 Y-274.585
X19.924 Y-274.339
X19.709 Y-274.049
X19.549 Y-273.726
X19.449 Y-273.379
X19.414 Y-273.019
X19.406 Y-272.013
G2 X19.458 Y-271.784 I0.6 J-0.016 F250
X20.039 Y-271.43 I0.548 J-0.245 F850
G1 X25.026 Y-271.709
G2 X25.54 Y-272.064 I-0.034 J-0.599
X25.592 Y-272.292 I-0.548 J-0.245 F250
G1 X25.584 Y-273.299 F850
X25.575 Y-273.448
X25.553 Y-273.597
X25.518 Y-273.742
X25.47 Y-273.885
X25.413 Y-274.024
X25.347 Y-274.158
X25.272 Y-274.291
X25.187 Y-274.422
X25.088 Y-274.558
X24.973 Y-274.698
X24.846 Y-274.837
X24.706 Y-274.973
X24.549 Y-275.109
X24.376 Y-275.243
X24.19 Y-275.371
X23.993 Y-275.491
X23.785 Y-275.602
X23.563 Y-275.705
X23.333 Y-275.796
X23.096 Y-275.875
X22.851 Y-275.941
X22.604 Y-275.993
X22.355 Y-276.032
X22.134 Y-276.053
X21.892 Y-276.062
X21.672 Y-276.059
X21.473 Y-276.044
X21.252 Y-276.015
X21.061 Y-275.979
X20.879 Y-275.934
X20.833 Y-275.92
X20.499 Y-275.784
X20.195 Y-275.589
X19.931 Y-275.343
X19.716 Y-275.053
X19.556 Y-274.73
X19.457 Y-274.383
X19.421 Y-274.024
X19.414 Y-273.019
G2 X19.466 Y-272.791 I0.6 J-0.016 F250
X20.047 Y-272.437 I0.548 J-0.245 F850
G1 X25.018 Y-272.716
G2 X25.532 Y-273.07 I-0.034 J-0.599
X25.584 Y-273.299 I-0.548 J-0.245 F250
G1 X25.576 Y-274.305 F850
X25.568 Y-274.455
X25.545 Y-274.603
X25.509 Y-274.749
X25.462 Y-274.891
X25.405 Y-275.03
X25.339 Y-275.165
X25.263 Y-275.297
X25.178 Y-275.429
X25.079 Y-275.565
X24.964 Y-275.705
X24.836 Y-275.843
X24.697 Y-275.979
X24.54 Y-276.115
X24.367 Y-276.249
X24.181 Y-276.376
X23.984 Y-276.496
X23.776 Y-276.607
X23.555 Y-276.709
X23.325 Y-276.8
X23.089 Y-276.878
X22.845 Y-276.944
X22.598 Y-276.996
X22.351 Y-277.034
X22.131 Y-277.055
X21.89 Y-277.064
X21.671 Y-277.06
X21.474 Y-277.046
X21.253 Y-277.017
X21.063 Y-276.981
X20.881 Y-276.936
X20.839 Y-276.923
X20.506 Y-276.786
X20.202 Y-276.591
X19.938 Y-276.345
X19.723 Y-276.056
X19.563 Y-275.733
X19.464 Y-275.386
X19.429 Y-275.027
X19.421 Y-274.024
G2 X19.473 Y-273.796 I0.6 J-0.016 F250
X20.055 Y-273.441 I0.548 J-0.245 F850
G1 X25.011 Y-273.723
G2 X25.524 Y-274.077 I-0.034 J-0.599
X25.576 Y-274.305 I-0.548 J-0.245 F250
G1 X25.569 Y-275.312 F850
X25.56 Y-275.462
X25.537 Y-275.61
X25.501 Y-275.756
X25.454 Y-275.898
X25.397 Y-276.037
X25.33 Y-276.171
X25.254 Y-276.304
X25.169 Y-276.435
X25.07 Y-276.571
X24.954 Y-276.711
X24.827 Y-276.849
X24.687 Y-276.985
X24.531 Y-277.12
X24.358 Y-277.254
X24.172 Y-277.381
X23.975 Y-277.501
X23.767 Y-277.611
X23.547 Y-277.712
X23.318 Y-277.803
X23.082 Y-277.881
X22.839 Y-277.946
X22.593 Y-277.998
X22.347 Y-278.035
X22.129 Y-278.056
X21.888 Y-278.065
X21.671 Y-278.061
X21.474 Y-278.046
X21.254 Y-278.017
X21.065 Y-277.981
X20.883 Y-277.936
X20.845 Y-277.924
X20.512 Y-277.787
X20.209 Y-277.592
X19.945 Y-277.346
X19.73 Y-277.057
X19.571 Y-276.734
X19.472 Y-276.387
X19.437 Y-276.029
X19.429 Y-275.027
G2 X19.481 Y-274.799 I0.6 J-0.016 F250
X20.063 Y-274.444 I0.548 J-0.245 F850
G1 X25.004 Y-274.729
G2 X25.517 Y-275.084 I-0.035 J-0.599
X25.569 Y-275.312 I-0.548 J-0.245 F250
G1 X25.561 Y-276.319 F850
X25.552 Y-276.469
X25.529 Y-276.617
X25.493 Y-276.762
X25.446 Y-276.905
X25.388 Y-277.043
X25.321 Y-277.177
X25.245 Y-277.31
X25.16 Y-277.442
X25.06 Y-277.577
X24.945 Y-277.717
X24.817 Y-277.855
X24.678 Y-277.99
X24.521 Y-278.125
X24.348 Y-278.258
X24.162 Y-278.385
X23.965 Y-278.504
X23.758 Y-278.614
X23.538 Y-278.715
X23.31 Y-278.805
X23.075 Y-278.882
X22.833 Y-278.947
X22.587 Y-278.998
X22.342 Y-279.035
X22.125 Y-279.055
X21.885 Y-279.064
X21.67 Y-279.06
X21.473 Y-279.045
X21.254 Y-279.015
X21.066 Y-278.979
X20.884 Y-278.934
X20.85 Y-278.923
X20.517 Y-278.786
X20.215 Y-278.591
X19.952 Y-278.345
X19.737 Y-278.056
X19.578 Y-277.733
X19.479 Y-277.387
X19.444 Y-277.029
X19.437 Y-276.029
G2 X19.489 Y-275.8 I0.6 J-0.016 F250
X20.072 Y-275.446 I0.548 J-0.245 F850
G1 X24.997 Y-275.736
G2 X25.509 Y-276.09 I-0.035 J-0.599
X25.561 Y-276.319 I-0.548 J-0.245 F250
G1 X25.553 Y-277.325 F850
X25.545 Y-277.475
X25.521 Y-277.623
X25.485 Y-277.769
X25.437 Y-277.911
X25.379 Y-278.049
X25.312 Y-278.184
X25.236 Y-278.316
X25.15 Y-278.448
X25.05 Y-278.583
X24.935 Y-278.722
X24.807 Y-278.86
X24.667 Y-278.995
X24.511 Y-279.13
X24.338 Y-279.262
X24.152 Y-279.389
X23.955 Y-279.508
X23.748 Y-279.617
X23.528 Y-279.717
X23.3 Y-279.806
X23.066 Y-279.883
X22.824 Y-279.947
X22.58 Y-279.998
X22.335 Y-280.034
X22.12 Y-280.054
X21.88 Y-280.062
X21.667 Y-280.057
X21.47 Y-280.042
X21.252 Y-280.012
X21.066 Y-279.976
X20.883 Y-279.93
X20.854 Y-279.921
X20.522 Y-279.784
X20.22 Y-279.589
X19.958 Y-279.343
X19.744 Y-279.054
X19.586 Y-278.731
X19.487 Y-278.386
X19.452 Y-278.028
X19.444 Y-277.029
G2 X19.496 Y-276.801 I0.6 J-0.016 F250
X20.08 Y-276.446 I0.548 J-0.245 F850
G1 X24.99 Y-276.743
G2 X25.501 Y-277.097 I-0.036 J-0.599
X25.553 Y-277.325 I-0.548 J-0.245 F250
G1 X25.546 Y-278.332 F850
X25.537 Y-278.482
X25.513 Y-278.63
X25.476 Y-278.775
X25.428 Y-278.917
X25.37 Y-279.056
X25.303 Y-279.19
X25.226 Y-279.322
X25.14 Y-279.454
X25.04 Y-279.589
X24.924 Y-279.728
X24.796 Y-279.866
X24.656 Y-280
X24.499 Y-280.134
X24.326 Y-280.266
X24.14 Y-280.393
X23.943 Y-280.511
X23.736 Y-280.619
X23.517 Y-280.719
X23.289 Y-280.807
X23.056 Y-280.883
X22.814 Y-280.947
X22.57 Y-280.996
X22.327 Y-281.032
X22.113 Y-281.051
X21.874 Y-281.059
X21.663 Y-281.054
X21.466 Y-281.038
X21.249 Y-281.008
X21.064 Y-280.972
X20.881 Y-280.925
X20.858 Y-280.918
X20.527 Y-280.78
X20.226 Y-280.584
X19.964 Y-280.339
X19.751 Y-280.05
X19.593 Y-279.728
X19.494 Y-279.383
X19.46 Y-279.026
X19.452 Y-278.028
G2 X19.504 Y-277.8 I0.6 J-0.016 F250
X20.089 Y-277.445 I0.548 J-0.245 F850
G1 X24.983 Y-277.75
G2 X25.494 Y-278.104 I-0.037 J-0.599
X25.546 Y-278.332 I-0.548 J-0.245 F250
G1 X25.538 Y-279.339 F850
X25.529 Y-279.489
X25.505 Y-279.637
X25.468 Y-279.782
X25.419 Y-279.924
X25.36 Y-280.062
X25.293 Y-280.196
X25.216 Y-280.328
X25.129 Y-280.46
X25.029 Y-280.595
X24.912 Y-280.733
X24.784 Y-280.871
X24.643 Y-281.005
X24.486 Y-281.139
X24.313 Y-281.27
X24.127 Y-281.396
X23.929 Y-281.513
X23.722 Y-281.621
X23.503 Y-281.72
X23.276 Y-281.807
X23.043 Y-281.882
X22.802 Y-281.945
X22.559 Y-281.994
X22.318 Y-282.029
X22.104 Y-282.047
X21.866 Y-282.054
X21.657 Y-282.049
X21.46 Y-282.032
X21.244 Y-282.002
X21.061 Y-281.966
X20.877 Y-281.918
X20.86 Y-281.913
X20.53 Y-281.774
X20.23 Y-281.579
X19.97 Y-281.333
X19.757 Y-281.045
X19.6 Y-280.723
X19.502 Y-280.379
X19.467 Y-280.022
X19.46 Y-279.026
G2 X19.512 Y-278.797 I0.6 J-0.016 F250
X20.098 Y-278.443 I0.548 J-0.245 F850
G1 X24.977 Y-278.757
G2 X25.486 Y-279.111 I-0.038 J-0.599
X25.538 Y-279.339 I-0.548 J-0.245 F250
G1 X25.53 Y-280.346 F850
X25.522 Y-280.495
X25.497 Y-280.643
X25.459 Y-280.788
X25.409 Y-280.93
X25.35 Y-281.068
X25.282 Y-281.202
X25.205 Y-281.334
X25.117 Y-281.466
X25.016 Y-281.6
X24.9 Y-281.739
X24.77 Y-281.876
X24.629 Y-282.01
X24.472 Y-282.143
X24.299 Y-282.274
X24.112 Y-282.399
X23.914 Y-282.515
X23.707 Y-282.623
X23.488 Y-282.72
X23.262 Y-282.807
X23.029 Y-282.881
X22.788 Y-282.943
X22.546 Y-282.991
X22.306 Y-283.025
X22.093 Y-283.042
X21.856 Y-283.048
X21.65 Y-283.042
X21.452 Y-283.025
X21.238 Y-282.994
X21.056 Y-282.958
X20.871 Y-282.91
X20.862 Y-282.907
X20.533 Y-282.767
X20.234 Y-282.572
X19.975 Y-282.326
X19.763 Y-282.038
X19.607 Y-281.717
X19.509 Y-281.374
X19.475 Y-281.018
X19.467 Y-280.022
G2 X19.519 Y-279.794 I0.6 J-0.016 F250
X20.107 Y-279.44 I0.548 J-0.245 F850
G1 X24.97 Y-279.763
G2 X25.478 Y-280.117 I-0.04 J-0.599
X25.53 Y-280.346 I-0.548 J-0.245 F250
G1 X25.523 Y-281.302 F850
X25.514 Y-281.452
X25.494 Y-281.601
X25.46 Y-281.747
X25.414 Y-281.89
X25.357 Y-282.029
X25.292 Y-282.164
X25.218 Y-282.294
X25.135 Y-282.424
X25.036 Y-282.561
X24.925 Y-282.697
X24.802 Y-282.832
X24.664 Y-282.967
X24.509 Y-283.103
X24.342 Y-283.234
X24.162 Y-283.358
X23.969 Y-283.476
X23.766 Y-283.586
X23.549 Y-283.687
X23.324 Y-283.777
X23.094 Y-283.854
X22.855 Y-283.92
X22.615 Y-283.972
X22.371 Y-284.01
X22.157 Y-284.031
X21.926 Y-284.041
X21.708 Y-284.038
X21.516 Y-284.025
X21.301 Y-283.997
X21.11 Y-283.962
X20.934 Y-283.919
X20.901 Y-283.909
X20.565 Y-283.773
X20.26 Y-283.579
X19.995 Y-283.332
X19.778 Y-283.043
X19.618 Y-282.719
X19.518 Y-282.371
X19.482 Y-282.011
X19.475 Y-281.018
G2 X19.527 Y-280.79 I0.6 J-0.016 F250
X20.11 Y-280.435 I0.548 J-0.245 F850
G1 X24.958 Y-280.72
G2 X25.471 Y-281.074 I-0.035 J-0.599
X25.523 Y-281.302 I-0.548 J-0.245 F250
G1 X25.515 Y-282.309 F850
X25.507 Y-282.459
X25.485 Y-282.607
X25.45 Y-282.753
X25.403 Y-282.896
X25.346 Y-283.034
X25.28 Y-283.169
X25.205 Y-283.3
X25.12 Y-283.432
X25.023 Y-283.564
X24.911 Y-283.701
X24.784 Y-283.839
X24.646 Y-283.973
X24.494 Y-284.105
X24.325 Y-284.235
X24.141 Y-284.362
X23.947 Y-284.479
X23.743 Y-284.588
X23.528 Y-284.687
X23.304 Y-284.776
X23.075 Y-284.852
X22.837 Y-284.916
X22.596 Y-284.967
X22.359 Y-285.003
X22.147 Y-285.023
X21.909 Y-285.032
X21.702 Y-285.029
X21.505 Y-285.014
X21.29 Y-284.986
X21.107 Y-284.951
X20.923 Y-284.906
X20.9 Y-284.898
X20.566 Y-284.762
X20.263 Y-284.567
X19.999 Y-284.321
X19.784 Y-284.032
X19.624 Y-283.708
X19.525 Y-283.362
X19.49 Y-283.003
X19.482 Y-282.011
G2 X19.534 Y-281.782 I0.6 J-0.016 F250
X20.119 Y-281.428 I0.548 J-0.245 F850
G1 X24.953 Y-281.727
G2 X25.463 Y-282.081 I-0.037 J-0.599
X25.515 Y-282.309 I-0.548 J-0.245 F250
G1 X25.508 Y-283.316 F850
X25.499 Y-283.466
X25.476 Y-283.614
X25.44 Y-283.759
X25.392 Y-283.902
X25.334 Y-284.04
X25.268 Y-284.174
X25.192 Y-284.305
X25.106 Y-284.437
X25.008 Y-284.57
X24.894 Y-284.707
X24.767 Y-284.844
X24.628 Y-284.978
X24.475 Y-285.109
X24.305 Y-285.239
X24.121 Y-285.364
X23.927 Y-285.481
X23.722 Y-285.589
X23.507 Y-285.687
X23.283 Y-285.774
X23.054 Y-285.849
X22.817 Y-285.911
X22.577 Y-285.961
X22.341 Y-285.995
X22.13 Y-286.015
X21.894 Y-286.022
X21.689 Y-286.018
X21.491 Y-286.002
X21.278 Y-285.973
X21.097 Y-285.938
X20.912 Y-285.891
X20.898 Y-285.887
X20.566 Y-285.749
X20.265 Y-285.554
X20.003 Y-285.308
X19.789 Y-285.019
X19.631 Y-284.697
X19.532 Y-284.351
X19.497 Y-283.994
X19.49 Y-283.003
G2 X19.542 Y-282.774 I0.6 J-0.016 F250
X20.129 Y-282.42 I0.548 J-0.245 F850
G1 X24.947 Y-282.734
G2 X25.456 Y-283.088 I-0.039 J-0.599
X25.508 Y-283.316 I-0.548 J-0.245 F250
G1 X25.501 Y-284.262 F850
X25.492 Y-284.411
X25.474 Y-284.56
X25.443 Y-284.707
X25.399 Y-284.85
X25.344 Y-284.99
X25.28 Y-285.126
X25.208 Y-285.257
X25.127 Y-285.386
X25.032 Y-285.52
X24.923 Y-285.657
X24.803 Y-285.79
X24.669 Y-285.925
X24.518 Y-286.059
X24.354 Y-286.19
X24.178 Y-286.315
X23.989 Y-286.433
X23.789 Y-286.542
X23.577 Y-286.644
X23.356 Y-286.735
X23.129 Y-286.814
X22.894 Y-286.881
X22.656 Y-286.935
X22.415 Y-286.975
X22.202 Y-286.998
X21.973 Y-287.01
X21.755 Y-287.009
X21.564 Y-286.997
X21.35 Y-286.972
X21.157 Y-286.939
X20.982 Y-286.898
X20.941 Y-286.886
X20.602 Y-286.752
X20.294 Y-286.558
X20.025 Y-286.312
X19.805 Y-286.021
X19.642 Y-285.695
X19.541 Y-285.345
X19.505 Y-284.982
X19.497 Y-283.994
G2 X19.549 Y-283.766 I0.6 J-0.016 F250
X20.131 Y-283.411 I0.548 J-0.245 F850
G1 X24.934 Y-283.679
G2 X25.449 Y-284.033 I-0.033 J-0.599
X25.501 Y-284.262 I-0.548 J-0.245 F250
G1 X25.493 Y-285.268 F850
X25.484 Y-285.418
X25.465 Y-285.567
X25.432 Y-285.713
X25.387 Y-285.856
X25.331 Y-285.996
X25.267 Y-286.131
X25.193 Y-286.262
X25.109 Y-286.394
X25.015 Y-286.525
X24.906 Y-286.66
X24.782 Y-286.797
X24.645 Y-286.932
X24.496 Y-287.063
X24.332 Y-287.192
X24.152 Y-287.317
X23.961 Y-287.435
X23.759 Y-287.545
X23.547 Y-287.645
X23.326 Y-287.734
X23.1 Y-287.811
X23.041 Y-287.827
X22.865 Y-287.867
X22.686 Y-287.892
X22.505 Y-287.9
G2 X22.278 Y-287.846 I0.021 J0.6 F250
X22.137 Y-286.844 I0.249 J0.546 F850
G1 X24.504 Y-284.828
G2 X25.441 Y-285.04 I0.389 J-0.457
X25.493 Y-285.268 I-0.548 J-0.245 F250
G1 X25.485 Y-286.275 F850
X25.477 Y-286.425
X25.456 Y-286.573
X25.35 Y-286.885
X25.187 Y-287.171
X24.972 Y-287.42
X24.714 Y-287.624
X24.422 Y-287.776
X24.106 Y-287.869
X23.779 Y-287.9
G2 X23.551 Y-287.846 I0.021 J0.6 F250
X23.391 Y-286.861 I0.249 J0.546 F850
G1 X24.477 Y-285.852
G2 X25.433 Y-286.047 I0.408 J-0.44
X25.485 Y-286.275 I-0.548 J-0.245 F250
G1 X25.479 Y-287.081 F850
X25.47 Y-287.23
X25.398 Y-287.445
X25.27 Y-287.632
X25.095 Y-287.777
X24.887 Y-287.869
X24.663 Y-287.9
G2 X24.432 Y-287.858 I0.028 J0.805 F250
X24.123 Y-287.666 I0.259 J0.763 F850
X25.194 Y-286.492 I0.561 J0.564
X25.438 Y-286.849 I-0.51 J-0.61
X25.479 Y-287.081 I-0.754 J-0.253 F250
G1 X25.477 Y-287.282 F850
X25.469 Y-287.383
X25.443 Y-287.483
X25.422 Y-287.534
X25.396 Y-287.584
X25.363 Y-287.634
X25.317 Y-287.689
X25.267 Y-287.739
X25.217 Y-287.781
X25.166 Y-287.815
X25.116 Y-287.842
X25.052 Y-287.868
X24.988 Y-287.886
X24.915 Y-287.897
X24.714 Y-287.9
X21.695
X21.448 Y-287.888
X21.259 Y-287.867
X21.096 Y-287.841
X21.077 Y-287.837
X20.713 Y-287.718
X20.378 Y-287.532
X20.084 Y-287.285
X19.843 Y-286.987
X19.663 Y-286.648
X19.552 Y-286.281
X19.512 Y-285.9
G2 X19.564 Y-285.671 I0.6 J-0.016 F250
X20.51 Y-285.467 I0.548 J-0.245 F850
G1 X22.072 Y-286.851
G2 X21.923 Y-287.846 I-0.398 J-0.449
X21.695 Y-287.9 I-0.249 J0.546 F250
G1 X20.528 F850
X20.379 Y-287.892
X20.149 Y-287.826
X19.941 Y-287.709
X19.766 Y-287.546
X19.633 Y-287.348
X19.549 Y-287.124
X19.519 Y-286.887
G2 X19.554 Y-286.654 I0.976 J-0.027 F250
X20.757 Y-285.973 I0.941 J-0.259 F850
X20.761 Y-287.864 I-0.263 J-0.946
X20.528 Y-287.9 I-0.267 J0.945 F250
G1 X20.286 F850
X20.085 Y-287.897
X20.012 Y-287.886
X19.948 Y-287.868
X19.884 Y-287.842
X19.834 Y-287.815
X19.783 Y-287.781
X19.733 Y-287.739
X19.678 Y-287.685
X19.637 Y-287.634
X19.604 Y-287.584
X19.578 Y-287.534
X19.557 Y-287.483
X19.531 Y-287.383
X19.523 Y-287.282
X19.505 Y-284.982
G2 X19.557 Y-284.754 I0.6 J-0.016 F250
G1 X19.595 Y-284.668 Z-21.993
X19.633 Y-284.585 Z-21.971
X19.668 Y-284.505 Z-21.935
X19.701 Y-284.432 Z-21.885
X19.73 Y-284.366 Z-21.824
X19.755 Y-284.311 Z-21.753
X19.775 Y-284.266 Z-21.672
X19.79 Y-284.233 Z-21.585
X19.799 Y-284.213 Z-21.494
X19.802 Y-284.206 Z-21.4
G0 Z15
M9
M30
%
