%
(1001)
(length along y axis. Origin far top left)
(T2  D=6 CR=0 - ZMIN=-22 - flat end mill)
G90 G94
G17
G21

(2D Adaptive11)
M9
T2 M6
S6500 M3
G54
M9
G0 X25.219 Y-33.282
Z15
Z5
Z3.1
G1 Z2.5 F250
G2 X22.647 Y-37.615 Z2.292 I-2.719 J-1.316 F200
X19.669 Y-33.556 Z2.084 I-0.147 J3.014
X24.563 Y-32.406 Z1.876 I2.827 J-1.043
X23.708 Y-37.354 Z1.668 I-2.064 J-2.191
X19.495 Y-34.634 Z1.459 I-1.207 J2.753
X23.642 Y-31.824 Z1.251 I3.003 J0.033
X24.603 Y-36.734 Z1.043 I-1.143 J-2.773
X19.714 Y-35.698 Z0.835 I-2.102 J2.134
X22.577 Y-31.61 Z0.627 I2.783 J1.097
X25.216 Y-35.839 Z0.419 I-0.079 J-2.987
X20.297 Y-36.612 Z0.211 I-2.715 J1.24
X21.51 Y-31.789 Z0.002 I2.201 J2.01
X25.468 Y-34.789 Z-0.206 I0.987 J-2.809
X21.164 Y-37.255 Z-0.414 I-2.968 J0.19
X20.58 Y-32.335 Z-0.622 I1.335 J2.653
X25.33 Y-33.721 Z-0.83 I1.917 J-2.264
X22.2 Y-37.545 Z-1.038 I-2.83 J-0.877
X19.908 Y-33.173 Z-1.246 I0.3 J2.944
X24.823 Y-32.776 Z-1.454 I2.588 J-1.427
X23.267 Y-37.448 Z-1.663 I-2.323 J-1.821
X19.581 Y-34.192 Z-1.871 I-0.766 J2.847
X24.014 Y-32.077 Z-2.079 I2.916 J-0.409
X24.225 Y-36.978 Z-2.287 I-1.515 J-2.521
X19.638 Y-35.256 Z-2.495 I-1.724 J2.378
X23.013 Y-31.713 Z-2.703 I2.86 J0.655
X24.951 Y-36.2 Z-2.911 I-0.515 J-2.884
X20.069 Y-36.227 Z-3.119 I-2.45 J1.601
X21.952 Y-31.73 Z-3.328 I2.429 J1.626
X25.35 Y-35.219 Z-3.536 I0.545 J-2.868
X20.815 Y-36.978 Z-3.744 I-2.849 J0.62
X20.971 Y-32.122 Z-3.952 I1.683 J2.376
X25.372 Y-34.163 Z-4.16 I1.526 J-2.476
X21.777 Y-37.411 Z-4.368 I-2.872 J-0.435
X20.197 Y-32.837 Z-4.576 I0.723 J2.81
X25.019 Y-33.173 Z-4.784 I2.3 J-1.763
X22.825 Y-37.473 Z-4.992 I-2.519 J-1.425
X19.73 Y-33.776 Z-5.201 I-0.325 J2.872
X24.338 Y-32.376 Z-5.409 I2.766 J-0.824
X23.823 Y-37.158 Z-5.617 I-1.838 J-2.221
X19.63 Y-34.816 Z-5.825 I-1.322 J2.558
X23.421 Y-31.877 Z-6.033 I2.868 J0.216
X24.64 Y-36.51 Z-6.241 I-0.922 J-2.72
X19.905 Y-35.82 Z-6.449 I-2.139 J1.911
X22.39 Y-31.738 Z-6.657 I2.592 J1.219
X25.171 Y-35.618 Z-6.866 I0.107 J-2.859
X20.519 Y-36.657 Z-7.074 I-2.67 J1.019
X21.382 Y-31.975 Z-7.282 I1.98 J2.056
X25.347 Y-34.598 Z-7.49 I1.115 J-2.623
X19.647 I-2.85
X25.347 I2.85
G1 X25.36 Y-35.484 F850
X25.393 Y-35.59
X25.421 Y-35.737
X25.43 Y-35.887
X25.423 Y-36.037
X25.403 Y-36.185
X25.37 Y-36.332
X25.325 Y-36.475
X25.271 Y-36.615
X25.207 Y-36.75
X25.135 Y-36.882
X25.055 Y-37.009
X24.967 Y-37.131
X24.946 Y-37.157
X24.698 Y-37.413
X24.41 Y-37.621
X24.088 Y-37.774
X23.745 Y-37.868
X23.39 Y-37.9
X21.695
X21.512 Y-37.891
X21.362 Y-37.875
X21.215 Y-37.85
X21.069 Y-37.815
X20.924 Y-37.773
X20.778 Y-37.72
X20.632 Y-37.658
X20.485 Y-37.586
X20.339 Y-37.503
X20.194 Y-37.411
X20.053 Y-37.308
X19.914 Y-37.196
X19.876 Y-37.161
X19.649 Y-36.916
X19.465 Y-36.636
X19.331 Y-36.331
X19.249 Y-36.007
X19.223 Y-35.674
G2 X19.278 Y-35.446 I0.6 J-0.024 F250
X20.215 Y-35.244 I0.545 J-0.251 F850
G1 X22.067 Y-36.847
G2 X21.923 Y-37.846 I-0.393 J-0.454
X21.695 Y-37.9 I-0.249 J0.546 F250
G1 X20.427 F850
X20.277 Y-37.893
X19.993 Y-37.815
X19.735 Y-37.673
X19.518 Y-37.474
X19.354 Y-37.23
X19.252 Y-36.954
X19.219 Y-36.661
G2 X19.251 Y-36.429 I1.17 J-0.046 F250
X20.704 Y-35.58 I1.137 J-0.279 F850
X20.66 Y-37.868 I-0.318 J-1.139
X20.427 Y-37.9 I-0.274 J1.15 F250
G1 X19.884 F850
X19.783 Y-37.898
X19.683 Y-37.882
X19.604 Y-37.857
X19.526 Y-37.819
X19.481 Y-37.791
X19.432 Y-37.752
X19.383 Y-37.704
X19.316 Y-37.618
X19.28 Y-37.556
X19.25 Y-37.486
X19.23 Y-37.416
X19.217 Y-37.316
X19.216 Y-37.215
X19.231 Y-33.792
X19.244 Y-33.556
X19.261 Y-33.407
X19.287 Y-33.259
X19.322 Y-33.114
X19.366 Y-32.97
X19.419 Y-32.828
X19.482 Y-32.684
X19.555 Y-32.54
X19.637 Y-32.397
X19.73 Y-32.256
X19.833 Y-32.117
X19.946 Y-31.981
X20.068 Y-31.85
X20.2 Y-31.724
X20.34 Y-31.603
X20.49 Y-31.489
X20.647 Y-31.382
X20.812 Y-31.284
X20.984 Y-31.193
X21.163 Y-31.112
X21.347 Y-31.04
X21.537 Y-30.979
X21.731 Y-30.928
X21.929 Y-30.887
X22.131 Y-30.858
X22.334 Y-30.84
X22.539 Y-30.833
X22.745 Y-30.838
X22.952 Y-30.854
X23.157 Y-30.883
X23.362 Y-30.923
X23.564 Y-30.974
X23.763 Y-31.037
X23.96 Y-31.111
X24.152 Y-31.197
X24.339 Y-31.293
X24.521 Y-31.4
X24.697 Y-31.517
X24.866 Y-31.643
X25.028 Y-31.78
X25.182 Y-31.925
X25.219 Y-31.964
X25.451 Y-32.26
X25.623 Y-32.595
X25.73 Y-32.956
X25.767 Y-33.331
X25.781 Y-36.52
X25.774 Y-36.67
X25.704 Y-36.953
X25.579 Y-37.216
X25.403 Y-37.448
X25.183 Y-37.639
X24.929 Y-37.782
X24.651 Y-37.87
X24.361 Y-37.9
G2 X24.133 Y-37.846 I0.021 J0.6 F250
X23.969 Y-36.865 I0.249 J0.546 F850
G1 X24.769 Y-36.108
G2 X25.726 Y-36.293 I0.412 J-0.436
X25.781 Y-36.52 I-0.545 J-0.251 F250
G1 X25.784 Y-37.215 F850
Y-37.245
X25.783 Y-37.284
X25.781 Y-37.335
G2 X25.648 Y-37.52 I-0.258 J0.044 F250
X25.509 Y-37.552 I-0.125 J0.229 F850
X25.537 Y-37.032 I0.014 J0.26
X25.678 Y-37.082 I-0.014 J-0.26
X25.783 Y-37.284 I-0.155 J-0.21 F250
G1 Y-37.316 F850
X25.779 Y-37.346
X25.774 Y-37.385
X25.77 Y-37.416
X25.75 Y-37.486
X25.72 Y-37.556
X25.684 Y-37.618
X25.617 Y-37.704
X25.568 Y-37.752
X25.519 Y-37.791
X25.474 Y-37.819
X25.396 Y-37.857
X25.317 Y-37.882
X25.217 Y-37.898
X25.116 Y-37.9
X23.39
G2 X23.162 Y-37.846 I0.021 J0.6 F250
X22.99 Y-37.728 I0.249 J0.546 F850
G1 X19.41 Y-34.201
G2 X19.284 Y-34.02 I0.421 J0.427
X19.231 Y-33.792 I0.547 J0.246 F250
G1 X19.237 Y-32.473 F850
X19.245 Y-32.323
X19.268 Y-32.175
X19.303 Y-32.029
X19.35 Y-31.887
X19.406 Y-31.748
X19.472 Y-31.613
X19.546 Y-31.482
X19.628 Y-31.355
X19.72 Y-31.228
X19.825 Y-31.099
X19.943 Y-30.971
X20.072 Y-30.845
X20.211 Y-30.724
X20.361 Y-30.607
X20.524 Y-30.495
X20.698 Y-30.388
X20.883 Y-30.289
X21.078 Y-30.199
X21.282 Y-30.118
X21.493 Y-30.047
X21.712 Y-29.987
X21.937 Y-29.939
X22.169 Y-29.903
X22.407 Y-29.88
X22.649 Y-29.87
X22.894 Y-29.874
X23.141 Y-29.892
X23.389 Y-29.924
X23.638 Y-29.97
X23.885 Y-30.031
X24.13 Y-30.106
X24.372 Y-30.195
X24.587 Y-30.289
X24.66 Y-30.325
X24.971 Y-30.519
X25.241 Y-30.767
X25.462 Y-31.059
X25.625 Y-31.387
X25.726 Y-31.739
X25.761 Y-32.103
X25.767 Y-33.331
G2 X25.714 Y-33.559 I-0.6 J0.018 F250
X25.072 Y-33.905 I-0.547 J0.246 F850
G1 X19.742 Y-33.047
G2 X19.29 Y-32.701 I0.095 J0.592
X19.237 Y-32.473 I0.547 J0.246 F250
G1 X19.242 Y-31.467 F850
X19.25 Y-31.317
X19.273 Y-31.169
X19.311 Y-31.023
X19.36 Y-30.882
X19.42 Y-30.744
X19.488 Y-30.611
X19.565 Y-30.482
X19.65 Y-30.357
X19.749 Y-30.228
X19.859 Y-30.1
X19.98 Y-29.975
X20.115 Y-29.849
X20.266 Y-29.725
X20.429 Y-29.605
X20.603 Y-29.491
X20.79 Y-29.384
X20.991 Y-29.282
X21.206 Y-29.189
X21.433 Y-29.105
X21.67 Y-29.033
X21.915 Y-28.973
X22.169 Y-28.925
X22.433 Y-28.891
X22.705 Y-28.872
X22.984 Y-28.868
X23.264 Y-28.879
X23.514 Y-28.904
X23.775 Y-28.944
X24.01 Y-28.994
X24.216 Y-29.051
X24.441 Y-29.126
X24.497 Y-29.148
X24.8 Y-29.3
X25.073 Y-29.5
X25.308 Y-29.744
X25.499 Y-30.024
X25.64 Y-30.332
X25.726 Y-30.66
X25.756 Y-30.997
X25.761 Y-32.103
G2 X25.709 Y-32.331 I-0.6 J0.018 F250
X25.09 Y-32.681 I-0.547 J0.246 F850
G1 X19.77 Y-32.044
G2 X19.294 Y-31.695 I0.071 J0.596
X19.242 Y-31.467 I0.547 J0.246 F250
G1 X19.246 Y-30.51 F850
X19.254 Y-30.36
X19.277 Y-30.212
X19.314 Y-30.066
X19.364 Y-29.925
X19.423 Y-29.787
X19.492 Y-29.654
X19.569 Y-29.525
X19.656 Y-29.397
X19.753 Y-29.27
X19.866 Y-29.139
X19.994 Y-29.006
X20.133 Y-28.877
X20.286 Y-28.75
X20.457 Y-28.624
X20.644 Y-28.502
X20.842 Y-28.388
X21.054 Y-28.281
X21.284 Y-28.181
X21.529 Y-28.091
X21.785 Y-28.012
X22.05 Y-27.947
X22.321 Y-27.896
X22.597 Y-27.861
X22.875 Y-27.841
X23.138 Y-27.837
X23.388 Y-27.847
X23.64 Y-27.871
X23.853 Y-27.904
X24.085 Y-27.953
X24.283 Y-28.008
X24.477 Y-28.072
X24.491 Y-28.078
X24.794 Y-28.229
X25.067 Y-28.43
X25.303 Y-28.674
X25.494 Y-28.954
X25.635 Y-29.262
X25.721 Y-29.59
X25.752 Y-29.927
X25.756 Y-30.997
G2 X25.704 Y-31.225 I-0.6 J0.018 F250
X25.102 Y-31.576 I-0.547 J0.246 F850
G1 X19.791 Y-31.089
G2 X19.298 Y-30.738 I0.055 J0.597
X19.246 Y-30.51 I0.547 J0.246 F250
G1 X19.25 Y-29.564 F850
X19.258 Y-29.414
X19.28 Y-29.266
X19.315 Y-29.12
X19.363 Y-28.978
X19.421 Y-28.839
X19.488 Y-28.705
X19.564 Y-28.576
X19.648 Y-28.448
X19.748 Y-28.314
X19.862 Y-28.178
X19.988 Y-28.044
X20.131 Y-27.908
X20.291 Y-27.771
X20.465 Y-27.64
X20.652 Y-27.514
X20.858 Y-27.392
X21.081 Y-27.276
X21.317 Y-27.169
X21.563 Y-27.075
X21.818 Y-26.993
X22.082 Y-26.924
X22.349 Y-26.871
X22.623 Y-26.832
X22.896 Y-26.809
X23.151 Y-26.801
X23.39 Y-26.808
X23.635 Y-26.828
X23.841 Y-26.857
X24.066 Y-26.902
X24.264 Y-26.953
X24.451 Y-27.013
X24.462 Y-27.017
X24.77 Y-27.167
X25.049 Y-27.367
X25.289 Y-27.611
X25.484 Y-27.893
X25.628 Y-28.204
X25.716 Y-28.535
X25.747 Y-28.876
X25.752 Y-29.927
G2 X25.699 Y-30.156 I-0.6 J0.018 F250
X25.111 Y-30.508 I-0.547 J0.246 F850
G1 X19.809 Y-30.144
G2 X19.303 Y-29.792 I0.041 J0.599
X19.25 Y-29.564 I0.547 J0.246 F250
G1 X19.254 Y-28.598 F850
X19.262 Y-28.448
X19.283 Y-28.3
X19.317 Y-28.154
X19.364 Y-28.011
X19.42 Y-27.872
X19.486 Y-27.737
X19.56 Y-27.607
X19.645 Y-27.475
X19.746 Y-27.336
X19.859 Y-27.197
X19.985 Y-27.059
X20.129 Y-26.918
X20.291 Y-26.778
X20.464 Y-26.643
X20.652 Y-26.513
X20.859 Y-26.386
X21.082 Y-26.267
X21.317 Y-26.157
X21.562 Y-26.06
X21.815 Y-25.975
X22.077 Y-25.903
X22.341 Y-25.847
X22.611 Y-25.805
X22.88 Y-25.778
X23.127 Y-25.768
X23.366 Y-25.772
X23.606 Y-25.789
X23.81 Y-25.815
X24.034 Y-25.856
X24.23 Y-25.905
X24.416 Y-25.961
X24.433 Y-25.968
X24.747 Y-26.115
X25.03 Y-26.314
X25.275 Y-26.559
X25.474 Y-26.843
X25.62 Y-27.157
X25.711 Y-27.491
X25.743 Y-27.836
X25.747 Y-28.876
G2 X25.694 Y-29.105 I-0.6 J0.018 F250
X25.116 Y-29.457 I-0.547 J0.246 F850
G1 X19.822 Y-29.179
G2 X19.307 Y-28.826 I0.032 J0.599
X19.254 Y-28.598 I0.547 J0.246 F250
G1 X19.259 Y-27.591 F850
X19.267 Y-27.441
X19.289 Y-27.293
X19.324 Y-27.147
X19.371 Y-27.005
X19.427 Y-26.866
X19.493 Y-26.731
X19.568 Y-26.598
X19.654 Y-26.464
X19.755 Y-26.323
X19.872 Y-26.18
X20 Y-26.04
X20.144 Y-25.898
X20.307 Y-25.755
X20.484 Y-25.617
X20.674 Y-25.485
X20.88 Y-25.358
X21.103 Y-25.238
X21.338 Y-25.128
X21.584 Y-25.03
X21.838 Y-24.944
X22.096 Y-24.873
X22.36 Y-24.816
X22.627 Y-24.774
X22.893 Y-24.747
X23.13 Y-24.737
X23.375 Y-24.74
X23.606 Y-24.756
X23.809 Y-24.782
X24.033 Y-24.823
X24.225 Y-24.869
X24.413 Y-24.926
X24.425 Y-24.931
X24.739 Y-25.078
X25.023 Y-25.277
X25.269 Y-25.522
X25.468 Y-25.806
X25.616 Y-26.12
X25.706 Y-26.455
X25.738 Y-26.8
X25.743 Y-27.836
G2 X25.69 Y-28.064 I-0.6 J0.018 F250
X25.115 Y-28.417 I-0.547 J0.246 F850
G1 X19.831 Y-28.172
G2 X19.311 Y-27.819 I0.028 J0.599
X19.259 Y-27.591 I0.547 J0.246 F250
G1 X19.263 Y-26.585 F850
X19.271 Y-26.435
X19.293 Y-26.286
X19.327 Y-26.14
X19.373 Y-25.998
X19.43 Y-25.858
X19.495 Y-25.723
X19.568 Y-25.59
X19.654 Y-25.455
X19.755 Y-25.313
X19.87 Y-25.17
X19.998 Y-25.028
X20.143 Y-24.884
X20.305 Y-24.74
X20.48 Y-24.602
X20.669 Y-24.469
X20.876 Y-24.34
X21.098 Y-24.219
X21.332 Y-24.108
X21.576 Y-24.008
X21.828 Y-23.921
X22.085 Y-23.849
X22.347 Y-23.791
X22.612 Y-23.747
X22.877 Y-23.719
X23.113 Y-23.707
X23.356 Y-23.709
X23.587 Y-23.724
X23.79 Y-23.748
X24.013 Y-23.788
X24.206 Y-23.833
X24.392 Y-23.889
X24.409 Y-23.895
X24.726 Y-24.041
X25.012 Y-24.239
X25.26 Y-24.485
X25.461 Y-24.769
X25.61 Y-25.085
X25.701 Y-25.421
X25.733 Y-25.768
X25.738 Y-26.8
G2 X25.685 Y-27.028 I-0.6 J0.018 F250
X25.114 Y-27.381 I-0.547 J0.246 F850
G1 X19.838 Y-27.166
G2 X19.316 Y-26.813 I0.025 J0.599
X19.263 Y-26.585 I0.547 J0.246 F250
G1 X19.267 Y-25.578 F850
X19.276 Y-25.428
X19.296 Y-25.279
X19.329 Y-25.133
X19.374 Y-24.99
X19.429 Y-24.851
X19.493 Y-24.715
X19.566 Y-24.582
X19.65 Y-24.447
X19.75 Y-24.304
X19.864 Y-24.16
X19.99 Y-24.018
X20.134 Y-23.873
X20.294 Y-23.729
X20.468 Y-23.59
X20.655 Y-23.456
X20.86 Y-23.326
X21.08 Y-23.204
X21.312 Y-23.091
X21.554 Y-22.99
X21.805 Y-22.902
X22.061 Y-22.828
X22.321 Y-22.768
X22.585 Y-22.723
X22.849 Y-22.693
X23.086 Y-22.68
X23.327
X23.56 Y-22.693
X23.762 Y-22.715
X23.986 Y-22.753
X24.18 Y-22.798
X24.365 Y-22.851
X24.391 Y-22.86
X24.711 Y-23.005
X25 Y-23.203
X25.25 Y-23.449
X25.453 Y-23.735
X25.604 Y-24.051
X25.697 Y-24.39
X25.729 Y-24.739
X25.733 Y-25.768
G2 X25.681 Y-25.996 I-0.6 J0.018 F250
X25.112 Y-26.35 I-0.547 J0.246 F850
G1 X19.845 Y-26.159
G2 X19.32 Y-25.806 I0.022 J0.6
X19.267 Y-25.578 I0.547 J0.246 F250
G1 X19.272 Y-24.53 F850
X19.28 Y-24.381
X19.303 Y-24.232
X19.339 Y-24.087
X19.385 Y-23.944
X19.442 Y-23.805
X19.507 Y-23.67
X19.583 Y-23.533
X19.67 Y-23.397
X19.771 Y-23.256
X19.889 Y-23.109
X20.019 Y-22.965
X20.163 Y-22.823
X20.325 Y-22.679
X20.504 Y-22.538
X20.696 Y-22.404
X20.901 Y-22.277
X21.122 Y-22.157
X21.354 Y-22.047
X21.597 Y-21.948
X21.848 Y-21.862
X22.104 Y-21.791
X22.366 Y-21.733
X22.629 Y-21.69
X22.892 Y-21.663
X23.121 Y-21.652
X23.37 Y-21.654
X23.591 Y-21.668
X23.797 Y-21.694
X24.018 Y-21.733
X24.205 Y-21.778
X24.404 Y-21.838
X24.72 Y-21.984
X25.005 Y-22.183
X25.252 Y-22.428
X25.453 Y-22.712
X25.601 Y-23.027
X25.693 Y-23.363
X25.724 Y-23.71
X25.729 Y-24.739
G2 X25.676 Y-24.967 I-0.6 J0.018 F250
X25.105 Y-25.32 I-0.547 J0.246 F850
G1 X19.848 Y-25.112
G2 X19.325 Y-24.758 I0.024 J0.6
X19.272 Y-24.53 I0.547 J0.246 F250
G1 X19.276 Y-23.524 F850
X19.285 Y-23.374
X19.305 Y-23.225
X19.339 Y-23.079
X19.384 Y-22.936
X19.439 Y-22.796
X19.503 Y-22.661
X19.575 Y-22.529
X19.66 Y-22.392
X19.761 Y-22.249
X19.873 Y-22.106
X20 Y-21.963
X20.144 Y-21.818
X20.304 Y-21.673
X20.477 Y-21.535
X20.665 Y-21.401
X20.869 Y-21.271
X21.089 Y-21.149
X21.32 Y-21.037
X21.562 Y-20.936
X21.811 Y-20.848
X22.065 Y-20.774
X22.325 Y-20.714
X22.587 Y-20.669
X22.85 Y-20.639
X23.085 Y-20.626
X23.325
X23.557 Y-20.639
X23.758 Y-20.661
X23.98 Y-20.699
X24.174 Y-20.743
X24.358 Y-20.796
X24.381 Y-20.804
X24.701 Y-20.949
X24.99 Y-21.147
X25.241 Y-21.393
X25.444 Y-21.678
X25.595 Y-21.995
X25.688 Y-22.334
X25.72 Y-22.683
X25.724 Y-23.71
G2 X25.672 Y-23.938 I-0.6 J0.018 F250
X25.103 Y-24.291 I-0.547 J0.246 F850
G1 X19.855 Y-24.105
G2 X19.329 Y-23.752 I0.021 J0.6
X19.276 Y-23.524 I0.547 J0.246 F250
G1 X19.281 Y-22.517 F850
X19.289 Y-22.367
X19.307 Y-22.218
X19.339 Y-22.072
X19.383 Y-21.928
X19.436 Y-21.788
X19.499 Y-21.652
X19.571 Y-21.519
X19.653 Y-21.384
X19.751 Y-21.241
X19.863 Y-21.097
X19.987 Y-20.955
X20.128 Y-20.811
X20.287 Y-20.666
X20.458 Y-20.526
X20.643 Y-20.391
X20.845 Y-20.261
X21.062 Y-20.138
X21.292 Y-20.025
X21.531 Y-19.923
X21.779 Y-19.833
X22.032 Y-19.757
X22.291 Y-19.696
X22.552 Y-19.649
X22.814 Y-19.617
X23.05 Y-19.601
X23.291 Y-19.599
X23.524 Y-19.61
X23.725 Y-19.631
X23.949 Y-19.667
X24.144 Y-19.71
X24.328 Y-19.762
X24.362 Y-19.774
X24.685 Y-19.917
X24.977 Y-20.114
X25.23 Y-20.36
X25.436 Y-20.647
X25.589 Y-20.966
X25.683 Y-21.306
X25.715 Y-21.657
X25.72 Y-22.683
G2 X25.667 Y-22.911 I-0.6 J0.018 F250
X25.101 Y-23.264 I-0.547 J0.246 F850
G1 X19.862 Y-23.098
G2 X19.334 Y-22.745 I0.019 J0.6
X19.281 Y-22.517 I0.547 J0.246 F250
G1 X19.286 Y-21.449 F850
X19.294 Y-21.3
X19.317 Y-21.151
X19.352 Y-21.006
X19.399 Y-20.863
X19.455 Y-20.724
X19.52 Y-20.589
X19.596 Y-20.452
X19.684 Y-20.314
X19.784 Y-20.174
X19.901 Y-20.029
X20.033 Y-19.883
X20.176 Y-19.741
X20.337 Y-19.599
X20.514 Y-19.459
X20.708 Y-19.323
X20.914 Y-19.196
X21.132 Y-19.077
X21.362 Y-18.968
X21.603 Y-18.87
X21.853 Y-18.784
X22.107 Y-18.713
X22.367 Y-18.656
X22.629 Y-18.613
X22.888 Y-18.586
X23.115 Y-18.575
X23.365 Y-18.577
X23.581 Y-18.591
X23.79 Y-18.616
X24.008 Y-18.656
X24.192 Y-18.699
X24.389 Y-18.758
X24.705 Y-18.905
X24.991 Y-19.103
X25.238 Y-19.349
X25.439 Y-19.633
X25.587 Y-19.948
X25.679 Y-20.284
X25.711 Y-20.631
X25.715 Y-21.657
G2 X25.663 Y-21.885 I-0.6 J0.018 F250
X25.092 Y-22.239 I-0.547 J0.246 F850
G1 X19.861 Y-22.031
G2 X19.338 Y-21.677 I0.024 J0.6
X19.286 Y-21.449 I0.547 J0.246 F250
G1 X19.29 Y-20.443 F850
X19.298 Y-20.293
X19.319 Y-20.144
X19.352 Y-19.998
X19.397 Y-19.855
X19.452 Y-19.715
X19.516 Y-19.58
X19.588 Y-19.447
X19.673 Y-19.311
X19.773 Y-19.168
X19.886 Y-19.025
X20.012 Y-18.883
X20.155 Y-18.739
X20.315 Y-18.594
X20.488 Y-18.456
X20.674 Y-18.322
X20.878 Y-18.193
X21.097 Y-18.072
X21.326 Y-17.96
X21.567 Y-17.86
X21.814 Y-17.773
X22.067 Y-17.699
X22.326 Y-17.64
X22.586 Y-17.595
X22.848 Y-17.565
X23.081 Y-17.551
X23.32
X23.549 Y-17.564
X23.75 Y-17.586
X23.971 Y-17.624
X24.164 Y-17.668
X24.348 Y-17.721
X24.367 Y-17.728
X24.687 Y-17.872
X24.976 Y-18.07
X25.227 Y-18.316
X25.431 Y-18.602
X25.581 Y-18.919
X25.674 Y-19.257
X25.706 Y-19.606
X25.711 Y-20.631
G2 X25.658 Y-20.859 I-0.6 J0.018 F250
X25.089 Y-21.212 I-0.547 J0.246 F850
G1 X19.868 Y-21.024
G2 X19.343 Y-20.671 I0.022 J0.6
X19.29 Y-20.443 I0.547 J0.246 F250
G1 X19.295 Y-19.386 F850
X19.303 Y-19.236
X19.326 Y-19.088
X19.363 Y-18.943
X19.41 Y-18.8
X19.467 Y-18.661
X19.533 Y-18.527
X19.61 Y-18.39
X19.698 Y-18.252
X19.799 Y-18.112
X19.917 Y-17.967
X20.049 Y-17.822
X20.193 Y-17.68
X20.355 Y-17.539
X20.534 Y-17.398
X20.727 Y-17.264
X20.932 Y-17.138
X21.151 Y-17.02
X21.382 Y-16.912
X21.623 Y-16.815
X21.873 Y-16.73
X22.126 Y-16.66
X22.386 Y-16.604
X22.647 Y-16.563
X22.905 Y-16.537
X23.131 Y-16.527
X23.378 Y-16.53
X23.593 Y-16.545
X23.8 Y-16.571
X24.017 Y-16.611
X24.2 Y-16.655
X24.281 Y-16.679
X24.618 Y-16.816
X24.924 Y-17.011
X25.19 Y-17.258
X25.407 Y-17.549
X25.568 Y-17.874
X25.667 Y-18.223
X25.702 Y-18.585
X25.706 Y-19.606
G2 X25.654 Y-19.834 I-0.6 J0.018 F250
X25.081 Y-20.188 I-0.547 J0.246 F850
G1 X19.869 Y-19.967
G2 X19.347 Y-19.614 I0.025 J0.599
X19.295 Y-19.386 I0.547 J0.246 F250
G1 X19.299 Y-18.379 F850
X19.307 Y-18.23
X19.329 Y-18.081
X19.363 Y-17.935
X19.409 Y-17.792
X19.465 Y-17.653
X19.529 Y-17.518
X19.602 Y-17.385
X19.688 Y-17.249
X19.789 Y-17.106
X19.903 Y-16.964
X20.029 Y-16.822
X20.174 Y-16.677
X20.335 Y-16.534
X20.508 Y-16.396
X20.695 Y-16.263
X20.9 Y-16.135
X21.119 Y-16.014
X21.348 Y-15.904
X21.589 Y-15.805
X21.837 Y-15.719
X22.089 Y-15.647
X22.347 Y-15.589
X22.607 Y-15.545
X22.852 Y-15.518
X23.09 Y-15.506
X23.338
X23.545 Y-15.519
X23.769 Y-15.545
X23.978 Y-15.581
X24.161 Y-15.624
X24.367 Y-15.684
X24.685 Y-15.83
X24.973 Y-16.028
X25.221 Y-16.274
X25.424 Y-16.559
X25.573 Y-16.875
X25.665 Y-17.212
X25.697 Y-17.56
X25.702 Y-18.585
G2 X25.649 Y-18.813 I-0.6 J0.018 F250
X25.078 Y-19.166 I-0.547 J0.246 F850
G1 X19.875 Y-18.961
G2 X19.352 Y-18.607 I0.024 J0.6
X19.299 Y-18.379 I0.547 J0.246 F250
G1 X19.304 Y-17.373 F850
X19.312 Y-17.223
X19.331 Y-17.074
X19.364 Y-16.928
X19.408 Y-16.784
X19.463 Y-16.645
X19.527 Y-16.509
X19.599 Y-16.376
X19.682 Y-16.241
X19.781 Y-16.099
X19.894 Y-15.956
X20.019 Y-15.814
X20.161 Y-15.671
X20.32 Y-15.527
X20.492 Y-15.387
X20.677 Y-15.254
X20.878 Y-15.126
X21.094 Y-15.006
X21.321 Y-14.895
X21.56 Y-14.794
X21.806 Y-14.707
X22.058 Y-14.633
X22.315 Y-14.574
X22.573 Y-14.529
X22.834 Y-14.498
X23.064 Y-14.484
X23.305
X23.532 Y-14.496
X23.732 Y-14.518
X23.954 Y-14.555
X24.145 Y-14.598
X24.33 Y-14.651
X24.35 Y-14.657
X24.67 Y-14.802
X24.961 Y-15
X25.212 Y-15.246
X25.416 Y-15.532
X25.567 Y-15.849
X25.66 Y-16.188
X25.693 Y-16.538
X25.697 Y-17.56
G2 X25.645 Y-17.788 I-0.6 J0.018 F250
X25.076 Y-18.142 I-0.547 J0.246 F850
G1 X19.882 Y-17.954
G2 X19.356 Y-17.601 I0.022 J0.6
X19.304 Y-17.373 I0.547 J0.246 F250
G1 X19.308 Y-16.366 F850
X19.316 Y-16.216
X19.334 Y-16.067
X19.365 Y-15.92
X19.408 Y-15.777
X19.462 Y-15.637
X19.524 Y-15.5
X19.595 Y-15.367
X19.677 Y-15.233
X19.774 Y-15.093
X19.885 Y-14.949
X20.008 Y-14.808
X20.147 Y-14.665
X20.304 Y-14.521
X20.474 Y-14.381
X20.657 Y-14.248
X20.856 Y-14.12
X21.071 Y-13.998
X21.297 Y-13.885
X21.534 Y-13.784
X21.78 Y-13.695
X22.03 Y-13.62
X22.286 Y-13.558
X22.544 Y-13.512
X22.804 Y-13.48
X23.035 Y-13.464
X23.275 Y-13.462
X23.504 Y-13.472
X23.704 Y-13.493
X23.927 Y-13.529
X24.12 Y-13.571
X24.303 Y-13.622
X24.333 Y-13.632
X24.656 Y-13.775
X24.949 Y-13.972
X25.202 Y-14.219
X25.409 Y-14.505
X25.561 Y-14.824
X25.656 Y-15.165
X25.688 Y-15.517
X25.693 Y-16.538
G2 X25.64 Y-16.766 I-0.6 J0.018 F250
X25.073 Y-17.119 I-0.547 J0.246 F850
G1 X19.888 Y-16.947
G2 X19.361 Y-16.594 I0.02 J0.6
X19.308 Y-16.366 I0.547 J0.246 F250
G1 X19.313 Y-15.309 F850
X19.321 Y-15.16
X19.342 Y-15.011
X19.377 Y-14.865
X19.422 Y-14.722
X19.478 Y-14.583
X19.542 Y-14.447
X19.617 Y-14.312
X19.703 Y-14.175
X19.801 Y-14.037
X19.916 Y-13.893
X20.046 Y-13.748
X20.187 Y-13.607
X20.345 Y-13.466
X20.52 Y-13.327
X20.711 Y-13.192
X20.914 Y-13.065
X21.129 Y-12.946
X21.356 Y-12.838
X21.594 Y-12.74
X21.84 Y-12.655
X22.091 Y-12.583
X22.348 Y-12.525
X22.608 Y-12.482
X22.864 Y-12.454
X23.089 Y-12.443
X23.337 Y-12.444
X23.551 Y-12.457
X23.757 Y-12.481
X23.975 Y-12.519
X24.159 Y-12.562
X24.355 Y-12.619
X24.672 Y-12.765
X24.96 Y-12.963
X25.208 Y-13.209
X25.41 Y-13.494
X25.56 Y-13.81
X25.652 Y-14.147
X25.684 Y-14.495
X25.688 Y-15.517
G2 X25.636 Y-15.745 I-0.6 J0.018 F250
X25.065 Y-16.098 I-0.547 J0.246 F850
G1 X19.888 Y-15.891
G2 X19.365 Y-15.537 I0.024 J0.6
X19.313 Y-15.309 I0.547 J0.246 F250
G1 X19.317 Y-14.262 F850
X19.325 Y-14.112
X19.349 Y-13.964
X19.386 Y-13.819
X19.433 Y-13.676
X19.49 Y-13.538
X19.556 Y-13.403
X19.633 Y-13.266
X19.721 Y-13.13
X19.822 Y-12.99
X19.94 Y-12.846
X20.071 Y-12.703
X20.214 Y-12.562
X20.375 Y-12.421
X20.554 Y-12.282
X20.746 Y-12.149
X20.949 Y-12.024
X21.167 Y-11.907
X21.395 Y-11.801
X21.636 Y-11.705
X21.883 Y-11.622
X22.134 Y-11.553
X22.392 Y-11.497
X22.65 Y-11.457
X22.907 Y-11.431
X23.13 Y-11.422
X23.375 Y-11.425
X23.587 Y-11.44
X23.792 Y-11.466
X24.007 Y-11.506
X24.189 Y-11.55
X24.383 Y-11.609
X24.693 Y-11.755
X24.974 Y-11.952
X25.216 Y-12.194
X25.413 Y-12.475
X25.558 Y-12.786
X25.648 Y-13.116
X25.679 Y-13.458
X25.684 Y-14.495
G2 X25.631 Y-14.723 I-0.6 J0.018 F250
X25.057 Y-15.076 I-0.547 J0.246 F850
G1 X19.89 Y-14.843
G2 X19.37 Y-14.49 I0.027 J0.599
X19.317 Y-14.262 I0.547 J0.246 F250
G1 X19.322 Y-13.255 F850
X19.33 Y-13.105
X19.352 Y-12.957
X19.387 Y-12.811
X19.433 Y-12.668
X19.489 Y-12.529
X19.554 Y-12.394
X19.628 Y-12.262
X19.713 Y-12.126
X19.815 Y-11.984
X19.929 Y-11.842
X20.056 Y-11.701
X20.2 Y-11.558
X20.361 Y-11.416
X20.534 Y-11.278
X20.721 Y-11.147
X20.924 Y-11.021
X21.142 Y-10.902
X21.37 Y-10.793
X21.61 Y-10.695
X21.855 Y-10.611
X22.106 Y-10.54
X22.363 Y-10.483
X22.62 Y-10.441
X22.879 Y-10.414
X23.106 Y-10.402
X23.346 Y-10.404
X23.568 Y-10.418
X23.767 Y-10.442
X23.986 Y-10.481
X24.173 Y-10.525
X24.249 Y-10.548
X24.586 Y-10.682
X24.894 Y-10.876
X25.161 Y-11.122
X25.379 Y-11.413
X25.54 Y-11.739
X25.64 Y-12.088
X25.675 Y-12.45
X25.679 Y-13.458
G2 X25.627 Y-13.686 I-0.6 J0.018 F250
X25.056 Y-14.039 I-0.547 J0.246 F850
G1 X19.898 Y-13.836
G2 X19.374 Y-13.483 I0.024 J0.6
X19.322 Y-13.255 I0.547 J0.246 F250
G1 X19.326 Y-12.248 F850
X19.334 Y-12.099
X19.355 Y-11.95
X19.388 Y-11.804
X19.433 Y-11.661
X19.489 Y-11.521
X19.553 Y-11.386
X19.626 Y-11.253
X19.71 Y-11.118
X19.809 Y-10.977
X19.923 Y-10.834
X20.048 Y-10.694
X20.19 Y-10.551
X20.349 Y-10.409
X20.522 Y-10.27
X20.708 Y-10.138
X20.757 Y-10.107
X21.091 Y-9.939
X21.45 Y-9.835
X21.822 Y-9.8
G2 X22.05 Y-9.854 I-0.021 J-0.6 F250
X22.221 Y-10.829 I-0.249 J-0.546 F850
G1 X20.345 Y-12.66
G2 X19.379 Y-12.477 I-0.419 J0.429
X19.326 Y-12.248 I0.547 J0.246 F250
G1 X19.33 Y-11.242 F850
X19.339 Y-11.092
X19.408 Y-10.795
X19.537 Y-10.519
X19.719 Y-10.276
X19.948 Y-10.074
X20.213 Y-9.924
X20.503 Y-9.831
X20.806 Y-9.8
G2 X21.034 Y-9.854 I-0.021 J-0.6 F250
X21.201 Y-10.832 I-0.249 J-0.546 F850
G1 X20.347 Y-11.655
G2 X19.383 Y-11.47 I-0.416 J0.432
X19.33 Y-11.242 I0.547 J0.246 F250
G1 X19.334 Y-10.527 F850
Y-10.477
Y-10.436
X19.343 Y-10.352
X19.348 Y-10.313
X19.354 Y-10.274
X19.362 Y-10.235
G2 X19.496 Y-10.044 I0.479 J-0.194 F250
X19.912 Y-9.917 I0.344 J-0.385 F850
X19.772 Y-10.924 I-0.07 J-0.503
X19.395 Y-10.662 I0.07 J0.503
X19.334 Y-10.436 I0.447 J0.241 F250
G1 X19.339 Y-10.336 F850
X19.362 Y-10.235
X19.38 Y-10.185
X19.404 Y-10.134
X19.434 Y-10.084
X19.471 Y-10.034
X19.481 Y-10.022
X19.532 Y-9.968
X19.582 Y-9.925
X19.632 Y-9.89
X19.683 Y-9.862
X19.754 Y-9.832
X19.819 Y-9.814
X19.884 Y-9.803
X20.085 Y-9.8
X23.909
X24.098 Y-9.809
X24.456 Y-9.886
X24.791 Y-10.035
X25.087 Y-10.25
X25.333 Y-10.522
X25.517 Y-10.839
X25.631 Y-11.187
X25.671 Y-11.551
G2 X25.618 Y-11.78 I-0.6 J0.018 F250
X24.648 Y-11.959 I-0.547 J0.246 F850
G1 X23.507 Y-10.825
G2 X23.681 Y-9.854 I0.423 J0.426
X23.909 Y-9.8 I0.249 J-0.546 F250
G1 X24.824 F850
X24.974 Y-9.807
X25.196 Y-9.883
X25.389 Y-10.017
X25.539 Y-10.197
X25.634 Y-10.412
X25.667 Y-10.644
G2 X25.626 Y-10.875 I-0.815 J0.025 F250
X24.641 Y-11.406 I-0.774 J0.256 F850
X24.593 Y-9.842 I0.212 J0.789
X24.824 Y-9.8 I0.26 J-0.775 F250
G1 X24.915 F850
X25.116 Y-9.803
X25.181 Y-9.814
X25.246 Y-9.832
X25.317 Y-9.862
X25.368 Y-9.89
X25.418 Y-9.925
X25.468 Y-9.968
X25.519 Y-10.022
X25.529 Y-10.034
X25.566 Y-10.084
X25.596 Y-10.134
X25.62 Y-10.185
X25.638 Y-10.235
X25.661 Y-10.336
X25.666 Y-10.436
X25.675 Y-12.45
G2 X25.622 Y-12.678 I-0.6 J0.018 F250
G1 X25.584 Y-12.763 Z-7.483
X25.546 Y-12.847 Z-7.461
X25.51 Y-12.926 Z-7.425
X25.477 Y-12.999 Z-7.375
X25.448 Y-13.065 Z-7.314
X25.423 Y-13.12 Z-7.243
X25.403 Y-13.165 Z-7.162
X25.388 Y-13.198 Z-7.075
X25.379 Y-13.218 Z-6.984
X25.376 Y-13.225 Z-6.89
G0 Z5
X25.219 Y-262.006
Z3.1
G1 Z2.5 F250
G2 X22.647 Y-266.339 Z2.292 I-2.719 J-1.316 F200
X19.669 Y-262.281 Z2.084 I-0.147 J3.014
X24.563 Y-261.131 Z1.876 I2.827 J-1.043
X23.708 Y-266.079 Z1.668 I-2.064 J-2.191
X19.495 Y-263.358 Z1.459 I-1.207 J2.753
X23.642 Y-260.549 Z1.251 I3.003 J0.033
X24.603 Y-265.459 Z1.043 I-1.143 J-2.773
X19.714 Y-264.423 Z0.835 I-2.102 J2.134
X22.577 Y-260.335 Z0.627 I2.783 J1.097
X25.216 Y-264.564 Z0.419 I-0.079 J-2.987
X20.297 Y-265.336 Z0.211 I-2.715 J1.24
X21.51 Y-260.514 Z0.002 I2.201 J2.01
X25.468 Y-263.513 Z-0.206 I0.987 J-2.809
X21.164 Y-265.979 Z-0.414 I-2.968 J0.19
X20.58 Y-261.059 Z-0.622 I1.335 J2.653
X25.33 Y-262.445 Z-0.83 I1.917 J-2.264
X22.2 Y-266.27 Z-1.038 I-2.83 J-0.877
X19.908 Y-261.898 Z-1.246 I0.3 J2.944
X24.823 Y-261.5 Z-1.454 I2.588 J-1.427
X23.267 Y-266.172 Z-1.663 I-2.323 J-1.821
X19.581 Y-262.916 Z-1.871 I-0.766 J2.847
X24.014 Y-260.801 Z-2.079 I2.916 J-0.409
X24.225 Y-265.703 Z-2.287 I-1.515 J-2.521
X19.638 Y-263.981 Z-2.495 I-1.724 J2.378
X23.013 Y-260.438 Z-2.703 I2.86 J0.655
X24.951 Y-264.925 Z-2.911 I-0.515 J-2.884
X20.069 Y-264.952 Z-3.119 I-2.45 J1.601
X21.952 Y-260.455 Z-3.328 I2.429 J1.626
X25.35 Y-263.943 Z-3.536 I0.545 J-2.868
X20.815 Y-265.702 Z-3.744 I-2.849 J0.62
X20.971 Y-260.847 Z-3.952 I1.683 J2.376
X25.372 Y-262.888 Z-4.16 I1.526 J-2.476
X21.777 Y-266.136 Z-4.368 I-2.872 J-0.435
X20.197 Y-261.561 Z-4.576 I0.723 J2.81
X25.019 Y-261.897 Z-4.784 I2.3 J-1.763
X22.825 Y-266.198 Z-4.992 I-2.519 J-1.425
X19.73 Y-262.501 Z-5.201 I-0.325 J2.872
X24.338 Y-261.101 Z-5.409 I2.766 J-0.824
X23.823 Y-265.883 Z-5.617 I-1.838 J-2.221
X19.63 Y-263.541 Z-5.825 I-1.322 J2.558
X23.421 Y-260.602 Z-6.033 I2.868 J0.216
X24.64 Y-265.235 Z-6.241 I-0.922 J-2.72
X19.905 Y-264.545 Z-6.449 I-2.139 J1.911
X22.39 Y-260.463 Z-6.657 I2.592 J1.219
X25.171 Y-264.342 Z-6.866 I0.107 J-2.859
X20.519 Y-265.382 Z-7.074 I-2.67 J1.019
X21.382 Y-260.7 Z-7.282 I1.98 J2.056
X25.347 Y-263.323 Z-7.49 I1.115 J-2.623
X23.147 Y-266.098 I-2.85
X21.847 Y-260.548 I-0.65 J2.775
X24.268 Y-261.089 I0.65 J-2.775
X25.347 Y-263.323 I-1.771 J-2.233
G1 X25.36 Y-264.209 F850
X25.393 Y-264.315
X25.421 Y-264.462
X25.43 Y-264.612
X25.423 Y-264.761
X25.403 Y-264.91
X25.37 Y-265.056
X25.325 Y-265.2
X25.271 Y-265.339
X25.207 Y-265.475
X25.135 Y-265.607
X25.055 Y-265.733
X24.967 Y-265.855
X24.87 Y-265.975
X24.764 Y-266.092
X24.648 Y-266.207
X24.523 Y-266.317
X24.389 Y-266.422
X24.246 Y-266.522
X24.095 Y-266.616
X23.936 Y-266.702
X23.77 Y-266.78
X23.597 Y-266.85
X23.419 Y-266.911
X23.235 Y-266.962
X23.046 Y-267.003
X22.853 Y-267.034
X22.657 Y-267.054
X22.459 Y-267.064
X22.259 Y-267.062
X22.058 Y-267.048
X21.857 Y-267.024
X21.656 Y-266.987
X21.457 Y-266.94
X21.26 Y-266.881
X21.066 Y-266.81
X20.876 Y-266.729
X20.69 Y-266.636
X20.508 Y-266.533
X20.333 Y-266.42
X20.164 Y-266.297
X20.001 Y-266.164
X19.846 Y-266.022
X19.699 Y-265.871
X19.561 Y-265.712
X19.532 Y-265.674
X19.352 Y-265.399
X19.22 Y-265.098
X19.139 Y-264.779
X19.112 Y-264.452
X19.109 Y-262.607
X19.117 Y-262.449
X19.132 Y-262.3
X19.157 Y-262.152
X19.19 Y-262.002
X19.234 Y-261.849
X19.287 Y-261.695
X19.35 Y-261.54
X19.424 Y-261.386
X19.508 Y-261.233
X19.602 Y-261.082
X19.706 Y-260.934
X19.82 Y-260.79
X19.944 Y-260.651
X20.078 Y-260.517
X20.22 Y-260.389
X20.371 Y-260.268
X20.53 Y-260.155
X20.604 Y-260.108
X20.938 Y-259.939
X21.298 Y-259.835
X21.67 Y-259.8
G2 X21.898 Y-259.854 I-0.021 J-0.6 F250
X22.098 Y-260.798 I-0.249 J-0.546 F850
G1 X20.157 Y-262.984
G2 X19.163 Y-262.835 I-0.449 J0.398
X19.109 Y-262.607 I0.546 J0.25 F250
G1 X19.107 Y-261.309 F850
X19.114 Y-261.159
X19.188 Y-260.847
X19.324 Y-260.556
X19.517 Y-260.3
X19.758 Y-260.088
X20.037 Y-259.93
X20.343 Y-259.833
X20.662 Y-259.8
G2 X20.89 Y-259.854 I-0.021 J-0.6 F250
X21.054 Y-260.835 I-0.249 J-0.546 F850
G1 X20.12 Y-261.722
G2 X19.161 Y-261.536 I-0.413 J0.435
X19.107 Y-261.309 I0.546 J0.25 F250
G1 X19.106 Y-260.544 F850
Y-260.503
Y-260.473
X19.112 Y-260.355
X19.117 Y-260.302
G2 X19.222 Y-260.093 I0.579 J-0.16 F250
X19.734 Y-259.863 I0.474 J-0.369 F850
X19.659 Y-261.042 I-0.038 J-0.589
X19.16 Y-260.701 I0.038 J0.589
X19.106 Y-260.473 I0.536 J0.248 F250
G1 Y-260.403 F850
X19.117 Y-260.302
X19.123 Y-260.274
X19.129 Y-260.252
X19.146 Y-260.201
X19.168 Y-260.151
X19.196 Y-260.101
X19.234 Y-260.046
X19.28 Y-259.992
X19.335 Y-259.94
X19.389 Y-259.899
X19.435 Y-259.872
X19.481 Y-259.849
X19.532 Y-259.83
X19.582 Y-259.816
X19.683 Y-259.801
X19.884 Y-259.8
X22.902
X23.206 Y-259.815
X23.368 Y-259.832
X23.532 Y-259.859
X23.699 Y-259.897
X23.866 Y-259.944
X24.034 Y-260.002
X24.201 Y-260.07
X24.367 Y-260.149
X24.53 Y-260.238
X24.691 Y-260.338
X24.847 Y-260.448
X24.998 Y-260.568
X25.144 Y-260.697
X25.284 Y-260.836
X25.417 Y-260.984
X25.452 Y-261.028
X25.64 Y-261.309
X25.779 Y-261.617
X25.863 Y-261.945
X25.891 Y-262.282
G2 X25.837 Y-262.51 I-0.6 J0.022 F250
X24.921 Y-262.732 I-0.546 J0.25 F850
G1 X22.553 Y-260.871
G2 X22.675 Y-259.854 I0.371 J0.472
X22.902 Y-259.8 I0.249 J-0.546 F250
G1 X24.422 F850
X24.572 Y-259.807
X24.875 Y-259.879
X25.158 Y-260.011
X25.407 Y-260.198
X25.613 Y-260.432
X25.767 Y-260.703
X25.861 Y-261.001
X25.893 Y-261.311
G2 X25.839 Y-261.539 I-0.6 J0.022 F250
X24.86 Y-261.704 I-0.546 J0.25 F850
G1 X24.009 Y-260.814
G2 X24.194 Y-259.854 I0.434 J0.415
X24.422 Y-259.8 I0.249 J-0.546 F250
G1 X25.177 F850
X25.22 Y-259.801
X25.249
X25.333 Y-259.806
X25.376 Y-259.81
X25.418 Y-259.816
G2 X25.619 Y-259.935 I-0.163 J-0.507 F250
X25.786 Y-260.371 I-0.364 J-0.389 F850
X24.741 Y-260.32 I-0.521 J0.047
X25.023 Y-259.859 I0.524 J-0.004
X25.249 Y-259.801 I0.241 J-0.465 F250
G1 X25.317 F850
X25.418 Y-259.816
X25.446 Y-259.824
X25.468 Y-259.83
X25.519 Y-259.849
X25.565 Y-259.872
X25.611 Y-259.899
X25.665 Y-259.94
X25.72 Y-259.992
X25.766 Y-260.046
X25.804 Y-260.101
X25.832 Y-260.151
X25.854 Y-260.201
X25.871 Y-260.252
X25.883 Y-260.302
X25.894 Y-260.403
X25.887 Y-265.134
X25.879 Y-265.284
X25.86 Y-265.433
X25.831 Y-265.58
X25.792 Y-265.725
X25.745 Y-265.867
X25.689 Y-266.006
X25.624 Y-266.145
X25.548 Y-266.286
X25.46 Y-266.429
X25.361 Y-266.571
X25.252 Y-266.711
X25.132 Y-266.847
X25.001 Y-266.981
X24.859 Y-267.11
X24.704 Y-267.236
X24.539 Y-267.355
X24.363 Y-267.468
X24.178 Y-267.572
X23.984 Y-267.667
X23.781 Y-267.753
X23.571 Y-267.828
X23.353 Y-267.892
X23.128 Y-267.945
X22.897 Y-267.986
X22.66 Y-268.014
X22.42 Y-268.029
X22.176 Y-268.031
X21.93 Y-268.018
X21.682 Y-267.992
X21.435 Y-267.951
X21.188 Y-267.896
X20.944 Y-267.827
X20.702 Y-267.743
X20.464 Y-267.646
X20.23 Y-267.535
X20.153 Y-267.492
X19.858 Y-267.294
X19.602 Y-267.047
X19.394 Y-266.759
X19.24 Y-266.438
X19.146 Y-266.095
X19.114 Y-265.741
X19.112 Y-264.452
G2 X19.165 Y-264.224 I0.6 J-0.02 F250
X19.785 Y-263.876 I0.546 J-0.248 F850
G1 X25.36 Y-264.559
G2 X25.834 Y-264.906 I-0.073 J-0.596
X25.887 Y-265.134 I-0.546 J-0.248 F250
G1 X25.885 Y-266.252 F850
X25.877 Y-266.401
X25.86 Y-266.55
X25.829 Y-266.697
X25.787 Y-266.841
X25.734 Y-266.982
X25.672 Y-267.118
X25.601 Y-267.25
X25.522 Y-267.381
X25.431 Y-267.512
X25.327 Y-267.647
X25.209 Y-267.783
X25.079 Y-267.916
X24.938 Y-268.045
X24.781 Y-268.173
X24.61 Y-268.298
X24.426 Y-268.417
X24.23 Y-268.528
X24.024 Y-268.63
X23.804 Y-268.724
X23.572 Y-268.808
X23.328 Y-268.881
X23.074 Y-268.942
X22.812 Y-268.989
X22.543 Y-269.022
X22.268 Y-269.041
X21.988 Y-269.043
X21.703 Y-269.03
X21.42 Y-269.001
X21.17 Y-268.96
X20.904 Y-268.902
X20.687 Y-268.841
X20.464 Y-268.766
X20.365 Y-268.726
X20.064 Y-268.573
X19.792 Y-268.371
X19.559 Y-268.127
X19.369 Y-267.847
X19.23 Y-267.539
X19.145 Y-267.212
X19.116 Y-266.875
X19.114 Y-265.741
G2 X19.167 Y-265.513 I0.6 J-0.02 F250
X19.768 Y-265.164 I0.546 J-0.248 F850
G1 X25.34 Y-265.674
G2 X25.832 Y-266.024 I-0.055 J-0.598
X25.885 Y-266.252 I-0.546 J-0.248 F250
G1 X25.884 Y-267.258 F850
X25.876 Y-267.408
X25.859 Y-267.557
X25.828 Y-267.704
X25.784 Y-267.847
X25.73 Y-267.987
X25.667 Y-268.123
X25.595 Y-268.255
X25.512 Y-268.387
X25.418 Y-268.519
X25.313 Y-268.652
X25.191 Y-268.789
X25.054 Y-268.925
X24.907 Y-269.057
X24.743 Y-269.188
X24.561 Y-269.317
X24.363 Y-269.441
X24.154 Y-269.557
X23.931 Y-269.664
X23.692 Y-269.763
X23.436 Y-269.852
X23.167 Y-269.929
X22.891 Y-269.992
X22.607 Y-270.039
X22.318 Y-270.071
X22.028 Y-270.087
X21.75 Y-270.086
X21.487 Y-270.071
X21.225 Y-270.04
X21.004 Y-270.002
X20.765 Y-269.947
X20.564 Y-269.888
X20.362 Y-269.816
X20.344 Y-269.809
X20.001 Y-269.624
X19.7 Y-269.376
X19.453 Y-269.073
X19.269 Y-268.729
X19.156 Y-268.356
X19.117 Y-267.968
X19.116 Y-266.875
G2 X19.169 Y-266.647 I0.6 J-0.02 F250
X19.757 Y-266.296 I0.546 J-0.248 F850
G1 X25.325 Y-266.68
G2 X25.83 Y-267.03 I-0.041 J-0.599
X25.884 Y-267.258 I-0.546 J-0.248 F250
G1 X25.882 Y-268.265 F850
X25.874 Y-268.415
X25.855 Y-268.564
X25.822 Y-268.71
X25.777 Y-268.853
X25.722 Y-268.992
X25.657 Y-269.128
X25.584 Y-269.259
X25.5 Y-269.392
X25.405 Y-269.526
X25.292 Y-269.665
X25.166 Y-269.806
X25.027 Y-269.944
X24.869 Y-270.083
X24.693 Y-270.222
X24.504 Y-270.355
X24.3 Y-270.482
X24.078 Y-270.603
X23.837 Y-270.717
X23.583 Y-270.821
X23.319 Y-270.911
X23.046 Y-270.988
X22.765 Y-271.051
X22.482 Y-271.097
X22.194 Y-271.127
X21.909 Y-271.141
X21.649 Y-271.139
X21.406 Y-271.124
X21.148 Y-271.093
X20.939 Y-271.055
X20.723 Y-271.004
X20.507 Y-270.94
X20.442 Y-270.917
X20.125 Y-270.77
X19.838 Y-270.571
X19.591 Y-270.325
X19.39 Y-270.039
X19.241 Y-269.723
X19.15 Y-269.386
X19.119 Y-269.038
X19.117 Y-267.968
G2 X19.171 Y-267.74 I0.6 J-0.02 F250
X19.749 Y-267.388 I0.546 J-0.248 F850
G1 X25.314 Y-267.686
G2 X25.829 Y-268.037 I-0.032 J-0.599
X25.882 Y-268.265 I-0.546 J-0.248 F250
G1 X25.881 Y-269.272 F850
X25.873 Y-269.422
X25.852 Y-269.57
X25.818 Y-269.716
X25.773 Y-269.859
X25.717 Y-269.999
X25.652 Y-270.134
X25.578 Y-270.268
X25.494 Y-270.401
X25.394 Y-270.542
X25.278 Y-270.687
X25.151 Y-270.828
X25.005 Y-270.973
X24.841 Y-271.119
X24.663 Y-271.259
X24.471 Y-271.395
X24.26 Y-271.527
X24.03 Y-271.652
X23.786 Y-271.769
X23.531 Y-271.873
X23.267 Y-271.964
X22.995 Y-272.041
X22.714 Y-272.104
X22.433 Y-272.15
X22.15 Y-272.18
X21.878 Y-272.194
X21.628 Y-272.193
X21.365 Y-272.176
X21.149 Y-272.15
X20.915 Y-272.109
X20.705 Y-272.06
X20.515 Y-272.004
X20.446 Y-271.979
X20.129 Y-271.833
X19.842 Y-271.633
X19.593 Y-271.387
X19.392 Y-271.101
X19.243 Y-270.785
X19.152 Y-270.447
X19.121 Y-270.099
X19.119 Y-269.038
G2 X19.172 Y-268.81 I0.6 J-0.02 F250
X19.744 Y-268.458 I0.546 J-0.248 F850
G1 X25.306 Y-268.692
G2 X25.827 Y-269.044 I-0.025 J-0.599
X25.881 Y-269.272 I-0.546 J-0.248 F250
G1 X25.879 Y-270.279 F850
X25.871 Y-270.428
X25.851 Y-270.577
X25.818 Y-270.723
X25.773 Y-270.866
X25.718 Y-271.006
X25.655 Y-271.142
X25.582 Y-271.274
X25.497 Y-271.412
X25.396 Y-271.557
X25.283 Y-271.701
X25.154 Y-271.846
X25.007 Y-271.996
X24.844 Y-272.143
X24.668 Y-272.284
X24.474 Y-272.424
X24.261 Y-272.559
X24.031 Y-272.687
X23.79 Y-272.805
X23.538 Y-272.911
X23.276 Y-273.003
X23.003 Y-273.083
X22.727 Y-273.147
X22.446 Y-273.196
X22.164 Y-273.228
X21.894 Y-273.244
X21.648 Y-273.245
X21.386 Y-273.231
X21.169 Y-273.207
X20.939 Y-273.168
X20.727 Y-273.12
X20.539 Y-273.066
X20.464 Y-273.04
X20.143 Y-272.896
X19.853 Y-272.697
X19.601 Y-272.45
X19.397 Y-272.163
X19.247 Y-271.845
X19.154 Y-271.505
X19.122 Y-271.155
X19.121 Y-270.099
G2 X19.174 Y-269.871 I0.6 J-0.02 F250
X19.74 Y-269.519 I0.546 J-0.248 F850
G1 X25.299 Y-269.699
G2 X25.826 Y-270.051 I-0.019 J-0.6
X25.879 Y-270.279 I-0.546 J-0.248 F250
G1 X25.877 Y-271.285 F850
X25.87 Y-271.435
X25.852 Y-271.584
X25.82 Y-271.731
X25.777 Y-271.874
X25.724 Y-272.015
X25.662 Y-272.151
X25.592 Y-272.284
X25.508 Y-272.423
X25.408 Y-272.569
X25.298 Y-272.713
X25.171 Y-272.86
X25.025 Y-273.011
X24.865 Y-273.159
X24.692 Y-273.303
X24.499 Y-273.444
X24.288 Y-273.582
X24.062 Y-273.712
X23.823 Y-273.832
X23.573 Y-273.94
X23.313 Y-274.036
X23.042 Y-274.118
X22.768 Y-274.185
X22.489 Y-274.237
X22.209 Y-274.273
X21.937 Y-274.292
X21.692 Y-274.296
X21.428 Y-274.285
X21.21 Y-274.263
X20.982 Y-274.228
X20.766 Y-274.182
X20.578 Y-274.13
X20.488 Y-274.1
X20.163 Y-273.958
X19.867 Y-273.76
X19.612 Y-273.513
X19.404 Y-273.225
X19.251 Y-272.904
X19.156 Y-272.561
X19.124 Y-272.207
X19.122 Y-271.155
G2 X19.176 Y-270.927 I0.6 J-0.02 F250
X19.736 Y-270.575 I0.546 J-0.248 F850
G1 X25.292 Y-270.705
G2 X25.824 Y-271.057 I-0.014 J-0.6
X25.877 Y-271.285 I-0.546 J-0.248 F250
G1 X25.876 Y-272.342 F850
X25.868 Y-272.492
X25.848 Y-272.64
X25.814 Y-272.786
X25.77 Y-272.93
X25.716 Y-273.07
X25.653 Y-273.206
X25.578 Y-273.344
X25.494 Y-273.483
X25.393 Y-273.628
X25.277 Y-273.778
X25.149 Y-273.925
X25.003 Y-274.074
X24.838 Y-274.224
X24.659 Y-274.37
X24.466 Y-274.51
X24.255 Y-274.646
X24.027 Y-274.775
X23.784 Y-274.895
X23.531 Y-275.002
X23.268 Y-275.097
X22.998 Y-275.178
X22.723 Y-275.243
X22.445 Y-275.293
X22.168 Y-275.326
X21.907 Y-275.343
X21.654 Y-275.345
X21.398 Y-275.333
X21.185 Y-275.31
X20.95 Y-275.272
X20.744 Y-275.227
X20.554 Y-275.173
X20.478 Y-275.147
X20.155 Y-275.003
X19.862 Y-274.805
X19.609 Y-274.558
X19.403 Y-274.271
X19.251 Y-273.951
X19.158 Y-273.61
X19.126 Y-273.258
X19.124 Y-272.207
G2 X19.177 Y-271.979 I0.6 J-0.02 F250
X19.738 Y-271.627 I0.546 J-0.248 F850
G1 X25.291 Y-271.762
G2 X25.822 Y-272.114 I-0.015 J-0.6
X25.876 Y-272.342 I-0.546 J-0.248 F250
G1 X25.874 Y-273.389 F850
X25.866 Y-273.539
X25.846 Y-273.688
X25.812 Y-273.834
X25.767 Y-273.977
X25.713 Y-274.117
X25.65 Y-274.253
X25.576 Y-274.39
X25.491 Y-274.529
X25.389 Y-274.677
X25.273 Y-274.825
X25.144 Y-274.972
X24.996 Y-275.123
X24.831 Y-275.274
X24.653 Y-275.419
X24.459 Y-275.56
X24.247 Y-275.696
X24.017 Y-275.826
X23.775 Y-275.945
X23.523 Y-276.053
X23.261 Y-276.147
X22.991 Y-276.227
X22.717 Y-276.292
X22.439 Y-276.342
X22.162 Y-276.375
X21.9 Y-276.392
X21.652 Y-276.394
X21.395 Y-276.382
X21.182 Y-276.359
X20.949 Y-276.321
X20.742 Y-276.275
X20.553 Y-276.222
X20.479 Y-276.197
X20.156 Y-276.053
X19.863 Y-275.855
X19.61 Y-275.608
X19.404 Y-275.32
X19.252 Y-275.001
X19.159 Y-274.66
X19.127 Y-274.308
X19.126 Y-273.258
G2 X19.179 Y-273.03 I0.6 J-0.02 F250
X19.74 Y-272.678 I0.546 J-0.248 F850
G1 X25.289 Y-272.809
G2 X25.821 Y-273.161 I-0.014 J-0.6
X25.874 Y-273.389 I-0.546 J-0.248 F250
G1 X25.873 Y-274.396 F850
X25.865 Y-274.546
X25.848 Y-274.695
X25.818 Y-274.842
X25.776 Y-274.986
X25.724 Y-275.127
X25.663 Y-275.264
X25.595 Y-275.397
X25.511 Y-275.538
X25.413 Y-275.685
X25.304 Y-275.83
X25.177 Y-275.979
X25.033 Y-276.132
X24.876 Y-276.28
X24.703 Y-276.426
X24.511 Y-276.57
X24.301 Y-276.709
X24.077 Y-276.841
X23.841 Y-276.962
X23.593 Y-277.072
X23.335 Y-277.169
X23.067 Y-277.254
X22.795 Y-277.323
X22.517 Y-277.377
X22.239 Y-277.415
X21.967 Y-277.437
X21.724 Y-277.443
X21.46 Y-277.434
X21.24 Y-277.415
X21.016 Y-277.382
X20.796 Y-277.337
X20.609 Y-277.288
X20.511 Y-277.256
X20.181 Y-277.115
X19.883 Y-276.918
X19.624 Y-276.67
X19.413 Y-276.381
X19.257 Y-276.058
X19.162 Y-275.713
X19.129 Y-275.357
X19.127 Y-274.308
G2 X19.181 Y-274.08 I0.6 J-0.02 F250
X19.737 Y-273.728 I0.546 J-0.248 F850
G1 X25.282 Y-273.816
G2 X25.819 Y-274.168 I-0.009 J-0.6
X25.873 Y-274.396 I-0.546 J-0.248 F250
G1 X25.871 Y-275.464 F850
X25.863 Y-275.613
X25.844 Y-275.762
X25.812 Y-275.909
X25.769 Y-276.052
X25.715 Y-276.193
X25.653 Y-276.329
X25.58 Y-276.468
X25.496 Y-276.607
X25.397 Y-276.753
X25.282 Y-276.903
X25.155 Y-277.051
X25.011 Y-277.2
X24.848 Y-277.351
X24.669 Y-277.499
X24.478 Y-277.64
X24.269 Y-277.776
X24.043 Y-277.906
X23.802 Y-278.027
X23.551 Y-278.136
X23.288 Y-278.233
X23.02 Y-278.315
X22.747 Y-278.381
X22.471 Y-278.433
X22.194 Y-278.468
X21.934 Y-278.487
X21.68 Y-278.491
X21.425 Y-278.48
X21.212 Y-278.459
X20.977 Y-278.423
X20.77 Y-278.379
X20.58 Y-278.327
X20.496 Y-278.299
X20.17 Y-278.156
X19.875 Y-277.958
X19.619 Y-277.711
X19.411 Y-277.423
X19.257 Y-277.102
X19.163 Y-276.759
X19.131 Y-276.405
X19.129 Y-275.357
G2 X19.182 Y-275.129 I0.6 J-0.02 F250
X19.74 Y-274.777 I0.546 J-0.248 F850
G1 X25.283 Y-274.884
G2 X25.818 Y-275.236 I-0.012 J-0.6
X25.871 Y-275.464 I-0.546 J-0.248 F250
G1 X25.869 Y-276.52 F850
X25.861 Y-276.67
X25.841 Y-276.819
X25.809 Y-276.965
X25.765 Y-277.108
X25.711 Y-277.248
X25.648 Y-277.385
X25.575 Y-277.523
X25.491 Y-277.662
X25.39 Y-277.809
X25.275 Y-277.958
X25.147 Y-278.106
X25.001 Y-278.256
X24.836 Y-278.408
X24.658 Y-278.554
X24.466 Y-278.695
X24.255 Y-278.832
X24.027 Y-278.962
X23.786 Y-279.082
X23.535 Y-279.19
X23.273 Y-279.285
X23.005 Y-279.367
X22.732 Y-279.433
X22.455 Y-279.483
X22.179 Y-279.518
X21.919 Y-279.536
X21.669 Y-279.539
X21.413 Y-279.527
X21.2 Y-279.506
X20.967 Y-279.469
X20.759 Y-279.424
X20.571 Y-279.372
X20.492 Y-279.345
X20.167 Y-279.202
X19.873 Y-279.004
X19.618 Y-278.757
X19.411 Y-278.469
X19.258 Y-278.149
X19.164 Y-277.807
X19.132 Y-277.453
X19.131 Y-276.405
G2 X19.184 Y-276.177 I0.6 J-0.02 F250
X19.743 Y-275.825 I0.546 J-0.248 F850
G1 X25.282 Y-275.94
G2 X25.816 Y-276.292 I-0.012 J-0.6
X25.869 Y-276.52 I-0.546 J-0.248 F250
G1 X25.868 Y-277.527 F850
X25.86 Y-277.683
X25.843 Y-277.832
X25.814 Y-277.979
X25.772 Y-278.123
X25.721 Y-278.264
X25.66 Y-278.401
X25.592 Y-278.535
X25.509 Y-278.676
X25.412 Y-278.822
X25.303 Y-278.967
X25.177 Y-279.117
X25.033 Y-279.269
X24.876 Y-279.418
X24.704 Y-279.564
X24.514 Y-279.708
X24.305 Y-279.847
X24.081 Y-279.979
X23.846 Y-280.101
X23.599 Y-280.211
X23.342 Y-280.309
X23.074 Y-280.394
X22.804 Y-280.464
X22.527 Y-280.519
X22.249 Y-280.557
X21.979 Y-280.58
X21.736 Y-280.586
X21.472 Y-280.578
X21.253 Y-280.559
X21.028 Y-280.527
X20.809 Y-280.483
X20.622 Y-280.434
X20.414 Y-280.367
X20.106 Y-280.217
X19.828 Y-280.016
X19.589 Y-279.771
X19.395 Y-279.488
X19.252 Y-279.177
X19.164 Y-278.846
X19.134 Y-278.504
X19.132 Y-277.453
G2 X19.186 Y-277.225 I0.6 J-0.02 F250
X19.74 Y-276.873 I0.546 J-0.248 F850
G1 X25.276 Y-276.947
G2 X25.814 Y-277.299 I-0.008 J-0.6
X25.868 Y-277.527 I-0.546 J-0.248 F250
G1 X25.866 Y-278.624 F850
X25.858 Y-278.774
X25.837 Y-278.922
X25.804 Y-279.069
X25.759 Y-279.212
X25.705 Y-279.352
X25.642 Y-279.488
X25.567 Y-279.628
X25.48 Y-279.769
X25.381 Y-279.913
X25.263 Y-280.064
X25.132 Y-280.214
X24.988 Y-280.362
X24.824 Y-280.511
X24.642 Y-280.66
X24.447 Y-280.802
X24.238 Y-280.936
X24.012 Y-281.064
X23.77 Y-281.183
X23.519 Y-281.29
X23.255 Y-281.385
X22.987 Y-281.465
X22.714 Y-281.53
X22.437 Y-281.58
X22.162 Y-281.613
X21.886 Y-281.631
X21.65 Y-281.633
X21.394 Y-281.621
X21.174 Y-281.598
X20.96 Y-281.563
X20.741 Y-281.515
X20.556 Y-281.463
X20.488 Y-281.44
X20.165 Y-281.296
X19.872 Y-281.098
X19.619 Y-280.851
X19.413 Y-280.563
X19.261 Y-280.244
X19.167 Y-279.903
X19.136 Y-279.551
X19.134 Y-278.504
G2 X19.187 Y-278.276 I0.6 J-0.02 F250
X19.747 Y-277.924 I0.546 J-0.248 F850
G1 X25.279 Y-278.044
G2 X25.813 Y-278.396 I-0.013 J-0.6
X25.866 Y-278.624 I-0.546 J-0.248 F250
G1 X25.864 Y-279.631 F850
X25.857 Y-279.781
X25.84 Y-279.93
X25.81 Y-280.077
X25.769 Y-280.221
X25.717 Y-280.362
X25.657 Y-280.499
X25.588 Y-280.632
X25.505 Y-280.774
X25.408 Y-280.92
X25.299 Y-281.064
X25.173 Y-281.214
X25.029 Y-281.366
X24.873 Y-281.514
X24.7 Y-281.66
X24.509 Y-281.804
X24.3 Y-281.944
X24.077 Y-282.075
X23.842 Y-282.196
X23.593 Y-282.307
X23.336 Y-282.405
X23.068 Y-282.49
X22.796 Y-282.56
X22.521 Y-282.614
X22.243 Y-282.653
X21.972 Y-282.675
X21.731 Y-282.681
X21.468 Y-282.673
X21.249 Y-282.654
X21.025 Y-282.621
X20.807 Y-282.577
X20.62 Y-282.528
X20.522 Y-282.497
X20.192 Y-282.356
X19.893 Y-282.159
X19.633 Y-281.912
X19.422 Y-281.622
X19.266 Y-281.299
X19.17 Y-280.954
X19.137 Y-280.597
X19.136 Y-279.551
G2 X19.189 Y-279.323 I0.6 J-0.02 F250
X19.744 Y-278.971 I0.546 J-0.248 F850
G1 X25.273 Y-279.051
G2 X25.811 Y-279.403 I-0.009 J-0.6
X25.864 Y-279.631 I-0.546 J-0.248 F250
G1 X25.863 Y-280.698 F850
X25.855 Y-280.848
X25.836 Y-280.997
X25.804 Y-281.144
X25.761 Y-281.287
X25.709 Y-281.428
X25.647 Y-281.564
X25.574 Y-281.704
X25.49 Y-281.842
X25.392 Y-281.988
X25.277 Y-282.138
X25.15 Y-282.286
X25.007 Y-282.435
X24.845 Y-282.585
X24.666 Y-282.733
X24.475 Y-282.875
X24.267 Y-283.011
X24.042 Y-283.141
X23.802 Y-283.262
X23.552 Y-283.371
X23.29 Y-283.468
X23.023 Y-283.55
X22.751 Y-283.617
X22.476 Y-283.669
X22.2 Y-283.704
X21.942 Y-283.723
X21.688 Y-283.727
X21.434 Y-283.717
X21.221 Y-283.697
X20.987 Y-283.661
X20.781 Y-283.617
X20.591 Y-283.566
X20.507 Y-283.538
X20.181 Y-283.396
X19.884 Y-283.198
X19.628 Y-282.951
X19.42 Y-282.662
X19.266 Y-282.341
X19.171 Y-281.998
X19.139 Y-281.643
X19.137 Y-280.597
G2 X19.19 Y-280.369 I0.6 J-0.02 F250
X19.748 Y-280.017 I0.546 J-0.248 F850
G1 X25.274 Y-280.119
G2 X25.809 Y-280.47 I-0.011 J-0.6
X25.863 Y-280.698 I-0.546 J-0.248 F250
G1 X25.861 Y-281.755 F850
X25.853 Y-281.905
X25.834 Y-282.054
X25.801 Y-282.2
X25.758 Y-282.344
X25.704 Y-282.484
X25.642 Y-282.62
X25.569 Y-282.758
X25.485 Y-282.897
X25.384 Y-283.044
X25.269 Y-283.193
X25.142 Y-283.34
X24.997 Y-283.491
X24.833 Y-283.642
X24.655 Y-283.788
X24.464 Y-283.929
X24.254 Y-284.065
X24.027 Y-284.195
X23.787 Y-284.315
X23.536 Y-284.424
X23.276 Y-284.519
X23.009 Y-284.601
X22.737 Y-284.667
X22.461 Y-284.718
X22.186 Y-284.752
X21.927 Y-284.771
X21.677 Y-284.774
X21.422 Y-284.763
X21.21 Y-284.742
X20.977 Y-284.705
X20.77 Y-284.661
X20.582 Y-284.609
X20.503 Y-284.582
X20.177 Y-284.44
X19.883 Y-284.242
X19.627 Y-283.995
X19.42 Y-283.707
X19.267 Y-283.386
X19.173 Y-283.044
X19.14 Y-282.69
X19.139 Y-281.643
G2 X19.192 Y-281.415 I0.6 J-0.02 F250
X19.751 Y-281.063 I0.546 J-0.248 F850
G1 X25.273 Y-281.175
G2 X25.808 Y-281.527 I-0.012 J-0.6
X25.861 Y-281.755 I-0.546 J-0.248 F250
G1 X25.859 Y-282.812 F850
X25.852 Y-282.961
X25.831 Y-283.11
X25.798 Y-283.256
X25.754 Y-283.4
X25.7 Y-283.539
X25.637 Y-283.676
X25.563 Y-283.814
X25.478 Y-283.953
X25.377 Y-284.1
X25.261 Y-284.249
X25.133 Y-284.397
X24.986 Y-284.547
X24.822 Y-284.698
X24.643 Y-284.844
X24.451 Y-284.984
X24.24 Y-285.12
X24.013 Y-285.25
X23.772 Y-285.369
X23.521 Y-285.477
X23.26 Y-285.571
X22.993 Y-285.652
X22.721 Y-285.717
X22.445 Y-285.767
X22.296 Y-285.785
X22.214 Y-285.793
X22.133 Y-285.798
X22.051 Y-285.8
G2 X21.823 Y-285.746 I0.021 J0.6 F250
X21.714 Y-284.719 I0.249 J0.546 F850
G1 X24.902 Y-282.35
G2 X25.806 Y-282.584 I0.358 J-0.482
X25.859 Y-282.812 I-0.546 J-0.248 F250
G1 X25.858 Y-283.859 F850
X25.85 Y-284.009
X25.83 Y-284.157
X25.796 Y-284.304
X25.752 Y-284.447
X25.698 Y-284.587
X25.635 Y-284.723
X25.625 Y-284.742
X25.428 Y-285.043
X25.18 Y-285.303
X24.89 Y-285.515
X24.566 Y-285.672
X24.219 Y-285.768
X23.861 Y-285.8
G2 X23.633 Y-285.746 I0.021 J0.6 F250
X23.466 Y-284.768 I0.249 J0.546 F850
G1 X24.843 Y-283.446
G2 X25.804 Y-283.631 I0.416 J-0.433
X25.858 Y-283.859 I-0.546 J-0.248 F250
G1 X25.856 Y-284.775 F850
X25.849 Y-284.925
X25.787 Y-285.159
X25.672 Y-285.371
X25.51 Y-285.551
X25.311 Y-285.686
X25.084 Y-285.771
X24.845 Y-285.8
G2 X24.617 Y-285.746 I0.021 J0.6 F250
X24.434 Y-284.784 I0.249 J0.546 F850
G1 X24.825 Y-284.378
G2 X25.803 Y-284.547 I0.432 J-0.417
X25.856 Y-284.775 I-0.546 J-0.248 F250
G1 Y-285.067 F850
X25.85 Y-285.268
X25.826 Y-285.369
X25.808 Y-285.419
X25.783 Y-285.47
X25.755 Y-285.517
X25.72 Y-285.564
X25.673 Y-285.618
X25.614 Y-285.671
X25.566 Y-285.705
X25.519 Y-285.733
X25.468 Y-285.756
X25.418 Y-285.774
X25.317 Y-285.795
X25.116 Y-285.8
X21.695
X21.354 Y-285.783
X21.148 Y-285.761
X20.92 Y-285.724
X20.725 Y-285.68
X20.536 Y-285.627
X20.491 Y-285.611
X20.168 Y-285.467
X19.876 Y-285.269
X19.624 Y-285.022
X19.418 Y-284.735
X19.267 Y-284.416
X19.174 Y-284.075
X19.142 Y-283.723
G2 X19.195 Y-283.495 I0.6 J-0.02 F250
X20.103 Y-283.264 I0.546 J-0.248 F850
G1 X22.035 Y-284.721
G2 X21.923 Y-285.746 I-0.361 J-0.479
X21.695 Y-285.8 I-0.249 J0.546 F250
G1 X20.225 F850
X20.076 Y-285.793
X19.827 Y-285.726
X19.6 Y-285.602
X19.41 Y-285.429
X19.265 Y-285.216
X19.175 Y-284.975
X19.144 Y-284.719
G2 X19.178 Y-284.486 I1.045 J-0.035 F250
X20.453 Y-283.741 I1.011 J-0.268 F850
X20.458 Y-285.765 I-0.264 J-1.013
X20.225 Y-285.8 I-0.269 J1.011 F250
G1 X19.884 F850
X19.683 Y-285.795
X19.582 Y-285.774
X19.532 Y-285.756
X19.481 Y-285.733
X19.434 Y-285.705
X19.386 Y-285.671
X19.327 Y-285.618
X19.28 Y-285.564
X19.245 Y-285.517
X19.217 Y-285.47
X19.192 Y-285.419
X19.174 Y-285.369
X19.15 Y-285.268
X19.144 Y-285.067
X19.14 Y-282.69
X19.152 Y-282.636 Z-7.483 F250
X19.163 Y-282.586 Z-7.464
X19.173 Y-282.541 Z-7.433
X19.181 Y-282.504 Z-7.392
X19.187 Y-282.478 Z-7.343
X19.192 Y-282.466 Z-7.3
X19.194 Y-282.462 Z-7.254
G0 Z5
X25.219 Y-33.282
Z-4.39
G1 Z-4.99 F250
G2 X22.647 Y-37.615 Z-5.198 I-2.719 J-1.316 F200
X19.669 Y-33.556 Z-5.406 I-0.147 J3.014
X24.563 Y-32.406 Z-5.614 I2.827 J-1.043
X23.708 Y-37.354 Z-5.823 I-2.064 J-2.191
X19.495 Y-34.634 Z-6.031 I-1.207 J2.753
X23.642 Y-31.824 Z-6.239 I3.003 J0.033
X24.603 Y-36.734 Z-6.447 I-1.143 J-2.773
X19.714 Y-35.698 Z-6.655 I-2.102 J2.134
X22.577 Y-31.61 Z-6.863 I2.783 J1.097
X25.216 Y-35.839 Z-7.071 I-0.079 J-2.987
X20.297 Y-36.612 Z-7.279 I-2.715 J1.24
X21.51 Y-31.789 Z-7.488 I2.201 J2.01
X25.468 Y-34.789 Z-7.696 I0.987 J-2.809
X21.164 Y-37.255 Z-7.904 I-2.968 J0.19
X20.58 Y-32.335 Z-8.112 I1.335 J2.653
X25.33 Y-33.721 Z-8.32 I1.917 J-2.264
X22.2 Y-37.545 Z-8.528 I-2.83 J-0.877
X19.908 Y-33.173 Z-8.736 I0.3 J2.944
X24.823 Y-32.776 Z-8.944 I2.588 J-1.427
X23.267 Y-37.448 Z-9.153 I-2.323 J-1.821
X19.581 Y-34.192 Z-9.361 I-0.766 J2.847
X24.014 Y-32.077 Z-9.569 I2.916 J-0.409
X24.225 Y-36.978 Z-9.777 I-1.515 J-2.521
X19.638 Y-35.256 Z-9.985 I-1.724 J2.378
X23.013 Y-31.713 Z-10.193 I2.86 J0.655
X24.951 Y-36.2 Z-10.401 I-0.515 J-2.884
X20.069 Y-36.227 Z-10.609 I-2.45 J1.601
X21.952 Y-31.73 Z-10.818 I2.429 J1.626
X25.35 Y-35.219 Z-11.026 I0.545 J-2.868
X20.815 Y-36.978 Z-11.234 I-2.849 J0.62
X20.971 Y-32.122 Z-11.442 I1.683 J2.376
X25.372 Y-34.163 Z-11.65 I1.526 J-2.476
X21.777 Y-37.411 Z-11.858 I-2.872 J-0.435
X20.197 Y-32.837 Z-12.066 I0.723 J2.81
X25.019 Y-33.173 Z-12.274 I2.3 J-1.763
X22.825 Y-37.473 Z-12.483 I-2.519 J-1.425
X19.73 Y-33.776 Z-12.691 I-0.325 J2.872
X24.338 Y-32.376 Z-12.899 I2.766 J-0.824
X23.823 Y-37.158 Z-13.107 I-1.838 J-2.221
X19.63 Y-34.816 Z-13.315 I-1.322 J2.558
X23.421 Y-31.877 Z-13.523 I2.868 J0.216
X24.64 Y-36.51 Z-13.731 I-0.922 J-2.72
X19.905 Y-35.82 Z-13.939 I-2.139 J1.911
X22.39 Y-31.738 Z-14.148 I2.592 J1.219
X25.171 Y-35.618 Z-14.356 I0.107 J-2.859
X20.519 Y-36.657 Z-14.564 I-2.67 J1.019
X21.382 Y-31.975 Z-14.772 I1.98 J2.056
X25.347 Y-34.598 Z-14.98 I1.115 J-2.623
X19.647 I-2.85
X25.347 I2.85
G1 X25.36 Y-35.484 F850
X25.393 Y-35.59
X25.421 Y-35.737
X25.43 Y-35.887
X25.423 Y-36.037
X25.403 Y-36.185
X25.37 Y-36.332
X25.325 Y-36.475
X25.271 Y-36.615
X25.207 Y-36.75
X25.135 Y-36.882
X25.055 Y-37.009
X24.967 Y-37.131
X24.946 Y-37.157
X24.698 Y-37.413
X24.41 Y-37.621
X24.088 Y-37.774
X23.745 Y-37.868
X23.39 Y-37.9
X21.695
X21.512 Y-37.891
X21.362 Y-37.875
X21.215 Y-37.85
X21.069 Y-37.815
X20.924 Y-37.773
X20.778 Y-37.72
X20.632 Y-37.658
X20.485 Y-37.586
X20.339 Y-37.503
X20.194 Y-37.411
X20.053 Y-37.308
X19.914 Y-37.196
X19.876 Y-37.161
X19.649 Y-36.916
X19.465 Y-36.636
X19.331 Y-36.331
X19.249 Y-36.007
X19.223 Y-35.674
G2 X19.278 Y-35.446 I0.6 J-0.024 F250
X20.215 Y-35.244 I0.545 J-0.251 F850
G1 X22.067 Y-36.847
G2 X21.923 Y-37.846 I-0.393 J-0.454
X21.695 Y-37.9 I-0.249 J0.546 F250
G1 X20.427 F850
X20.277 Y-37.893
X19.993 Y-37.815
X19.735 Y-37.673
X19.518 Y-37.474
X19.354 Y-37.23
X19.252 Y-36.954
X19.219 Y-36.661
G2 X19.251 Y-36.429 I1.17 J-0.046 F250
X20.704 Y-35.58 I1.137 J-0.279 F850
X20.66 Y-37.868 I-0.318 J-1.139
X20.427 Y-37.9 I-0.274 J1.15 F250
G1 X19.884 F850
X19.783 Y-37.898
X19.683 Y-37.882
X19.604 Y-37.857
X19.526 Y-37.819
X19.481 Y-37.791
X19.432 Y-37.752
X19.383 Y-37.704
X19.316 Y-37.618
X19.28 Y-37.556
X19.25 Y-37.486
X19.23 Y-37.416
X19.217 Y-37.316
X19.216 Y-37.215
X19.231 Y-33.792
X19.244 Y-33.556
X19.261 Y-33.407
X19.287 Y-33.259
X19.322 Y-33.114
X19.366 Y-32.97
X19.419 Y-32.828
X19.482 Y-32.684
X19.555 Y-32.54
X19.637 Y-32.397
X19.73 Y-32.256
X19.833 Y-32.117
X19.946 Y-31.981
X20.068 Y-31.85
X20.2 Y-31.724
X20.34 Y-31.603
X20.49 Y-31.489
X20.647 Y-31.382
X20.812 Y-31.284
X20.984 Y-31.193
X21.163 Y-31.112
X21.347 Y-31.04
X21.537 Y-30.979
X21.731 Y-30.928
X21.929 Y-30.887
X22.131 Y-30.858
X22.334 Y-30.84
X22.539 Y-30.833
X22.745 Y-30.838
X22.952 Y-30.854
X23.157 Y-30.883
X23.362 Y-30.923
X23.564 Y-30.974
X23.763 Y-31.037
X23.96 Y-31.111
X24.152 Y-31.197
X24.339 Y-31.293
X24.521 Y-31.4
X24.697 Y-31.517
X24.866 Y-31.643
X25.028 Y-31.78
X25.182 Y-31.925
X25.219 Y-31.964
X25.451 Y-32.26
X25.623 Y-32.595
X25.73 Y-32.956
X25.767 Y-33.331
X25.781 Y-36.52
X25.774 Y-36.67
X25.704 Y-36.953
X25.579 Y-37.216
X25.403 Y-37.448
X25.183 Y-37.639
X24.929 Y-37.782
X24.651 Y-37.87
X24.361 Y-37.9
G2 X24.133 Y-37.846 I0.021 J0.6 F250
X23.969 Y-36.865 I0.249 J0.546 F850
G1 X24.769 Y-36.108
G2 X25.726 Y-36.293 I0.412 J-0.436
X25.781 Y-36.52 I-0.545 J-0.251 F250
G1 X25.784 Y-37.215 F850
Y-37.245
X25.783 Y-37.284
X25.781 Y-37.335
G2 X25.648 Y-37.52 I-0.258 J0.044 F250
X25.509 Y-37.552 I-0.125 J0.229 F850
X25.537 Y-37.032 I0.014 J0.26
X25.678 Y-37.082 I-0.014 J-0.26
X25.783 Y-37.284 I-0.155 J-0.21 F250
G1 Y-37.316 F850
X25.779 Y-37.346
X25.774 Y-37.385
X25.77 Y-37.416
X25.75 Y-37.486
X25.72 Y-37.556
X25.684 Y-37.618
X25.617 Y-37.704
X25.568 Y-37.752
X25.519 Y-37.791
X25.474 Y-37.819
X25.396 Y-37.857
X25.317 Y-37.882
X25.217 Y-37.898
X25.116 Y-37.9
X23.39
G2 X23.162 Y-37.846 I0.021 J0.6 F250
X22.99 Y-37.728 I0.249 J0.546 F850
G1 X19.41 Y-34.201
G2 X19.284 Y-34.02 I0.421 J0.427
X19.231 Y-33.792 I0.547 J0.246 F250
G1 X19.237 Y-32.473 F850
X19.245 Y-32.323
X19.268 Y-32.175
X19.303 Y-32.029
X19.35 Y-31.887
X19.406 Y-31.748
X19.472 Y-31.613
X19.546 Y-31.482
X19.628 Y-31.355
X19.72 Y-31.228
X19.825 Y-31.099
X19.943 Y-30.971
X20.072 Y-30.845
X20.211 Y-30.724
X20.361 Y-30.607
X20.524 Y-30.495
X20.698 Y-30.388
X20.883 Y-30.289
X21.078 Y-30.199
X21.282 Y-30.118
X21.493 Y-30.047
X21.712 Y-29.987
X21.937 Y-29.939
X22.169 Y-29.903
X22.407 Y-29.88
X22.649 Y-29.87
X22.894 Y-29.874
X23.141 Y-29.892
X23.389 Y-29.924
X23.638 Y-29.97
X23.885 Y-30.031
X24.13 Y-30.106
X24.372 Y-30.195
X24.587 Y-30.289
X24.66 Y-30.325
X24.971 Y-30.519
X25.241 Y-30.767
X25.462 Y-31.059
X25.625 Y-31.387
X25.726 Y-31.739
X25.761 Y-32.103
X25.767 Y-33.331
G2 X25.714 Y-33.559 I-0.6 J0.018 F250
X25.072 Y-33.905 I-0.547 J0.246 F850
G1 X19.742 Y-33.047
G2 X19.29 Y-32.701 I0.095 J0.592
X19.237 Y-32.473 I0.547 J0.246 F250
G1 X19.242 Y-31.467 F850
X19.25 Y-31.317
X19.273 Y-31.169
X19.311 Y-31.023
X19.36 Y-30.882
X19.42 Y-30.744
X19.488 Y-30.611
X19.565 Y-30.482
X19.65 Y-30.357
X19.749 Y-30.228
X19.859 Y-30.1
X19.98 Y-29.975
X20.115 Y-29.849
X20.266 Y-29.725
X20.429 Y-29.605
X20.603 Y-29.491
X20.79 Y-29.384
X20.991 Y-29.282
X21.206 Y-29.189
X21.433 Y-29.105
X21.67 Y-29.033
X21.915 Y-28.973
X22.169 Y-28.925
X22.433 Y-28.891
X22.705 Y-28.872
X22.984 Y-28.868
X23.264 Y-28.879
X23.514 Y-28.904
X23.775 Y-28.944
X24.01 Y-28.994
X24.216 Y-29.051
X24.441 Y-29.126
X24.497 Y-29.148
X24.8 Y-29.3
X25.073 Y-29.5
X25.308 Y-29.744
X25.499 Y-30.024
X25.64 Y-30.332
X25.726 Y-30.66
X25.756 Y-30.997
X25.761 Y-32.103
G2 X25.709 Y-32.331 I-0.6 J0.018 F250
X25.09 Y-32.681 I-0.547 J0.246 F850
G1 X19.77 Y-32.044
G2 X19.294 Y-31.695 I0.071 J0.596
X19.242 Y-31.467 I0.547 J0.246 F250
G1 X19.246 Y-30.51 F850
X19.254 Y-30.36
X19.277 Y-30.212
X19.314 Y-30.066
X19.364 Y-29.925
X19.423 Y-29.787
X19.492 Y-29.654
X19.569 Y-29.525
X19.656 Y-29.397
X19.753 Y-29.27
X19.866 Y-29.139
X19.994 Y-29.006
X20.133 Y-28.877
X20.286 Y-28.75
X20.457 Y-28.624
X20.644 Y-28.502
X20.842 Y-28.388
X21.054 Y-28.281
X21.284 Y-28.181
X21.529 Y-28.091
X21.785 Y-28.012
X22.05 Y-27.947
X22.321 Y-27.896
X22.597 Y-27.861
X22.875 Y-27.841
X23.138 Y-27.837
X23.388 Y-27.847
X23.64 Y-27.871
X23.853 Y-27.904
X24.085 Y-27.953
X24.283 Y-28.008
X24.477 Y-28.072
X24.491 Y-28.078
X24.794 Y-28.229
X25.067 Y-28.43
X25.303 Y-28.674
X25.494 Y-28.954
X25.635 Y-29.262
X25.721 Y-29.59
X25.752 Y-29.927
X25.756 Y-30.997
G2 X25.704 Y-31.225 I-0.6 J0.018 F250
X25.102 Y-31.576 I-0.547 J0.246 F850
G1 X19.791 Y-31.089
G2 X19.298 Y-30.738 I0.055 J0.597
X19.246 Y-30.51 I0.547 J0.246 F250
G1 X19.25 Y-29.564 F850
X19.258 Y-29.414
X19.28 Y-29.266
X19.315 Y-29.12
X19.363 Y-28.978
X19.421 Y-28.839
X19.488 Y-28.705
X19.564 Y-28.576
X19.648 Y-28.448
X19.748 Y-28.314
X19.862 Y-28.178
X19.988 Y-28.044
X20.131 Y-27.908
X20.291 Y-27.771
X20.465 Y-27.64
X20.652 Y-27.514
X20.858 Y-27.392
X21.081 Y-27.276
X21.317 Y-27.169
X21.563 Y-27.075
X21.818 Y-26.993
X22.082 Y-26.924
X22.349 Y-26.871
X22.623 Y-26.832
X22.896 Y-26.809
X23.151 Y-26.801
X23.39 Y-26.808
X23.635 Y-26.828
X23.841 Y-26.857
X24.066 Y-26.902
X24.264 Y-26.953
X24.451 Y-27.013
X24.462 Y-27.017
X24.77 Y-27.167
X25.049 Y-27.367
X25.289 Y-27.611
X25.484 Y-27.893
X25.628 Y-28.204
X25.716 Y-28.535
X25.747 Y-28.876
X25.752 Y-29.927
G2 X25.699 Y-30.156 I-0.6 J0.018 F250
X25.111 Y-30.508 I-0.547 J0.246 F850
G1 X19.809 Y-30.144
G2 X19.303 Y-29.792 I0.041 J0.599
X19.25 Y-29.564 I0.547 J0.246 F250
G1 X19.254 Y-28.598 F850
X19.262 Y-28.448
X19.283 Y-28.3
X19.317 Y-28.154
X19.364 Y-28.011
X19.42 Y-27.872
X19.486 Y-27.737
X19.56 Y-27.607
X19.645 Y-27.475
X19.746 Y-27.336
X19.859 Y-27.197
X19.985 Y-27.059
X20.129 Y-26.918
X20.291 Y-26.778
X20.464 Y-26.643
X20.652 Y-26.513
X20.859 Y-26.386
X21.082 Y-26.267
X21.317 Y-26.157
X21.562 Y-26.06
X21.815 Y-25.975
X22.077 Y-25.903
X22.341 Y-25.847
X22.611 Y-25.805
X22.88 Y-25.778
X23.127 Y-25.768
X23.366 Y-25.772
X23.606 Y-25.789
X23.81 Y-25.815
X24.034 Y-25.856
X24.23 Y-25.905
X24.416 Y-25.961
X24.433 Y-25.968
X24.747 Y-26.115
X25.03 Y-26.314
X25.275 Y-26.559
X25.474 Y-26.843
X25.62 Y-27.157
X25.711 Y-27.491
X25.743 Y-27.836
X25.747 Y-28.876
G2 X25.694 Y-29.105 I-0.6 J0.018 F250
X25.116 Y-29.457 I-0.547 J0.246 F850
G1 X19.822 Y-29.179
G2 X19.307 Y-28.826 I0.032 J0.599
X19.254 Y-28.598 I0.547 J0.246 F250
G1 X19.259 Y-27.591 F850
X19.267 Y-27.441
X19.289 Y-27.293
X19.324 Y-27.147
X19.371 Y-27.005
X19.427 Y-26.866
X19.493 Y-26.731
X19.568 Y-26.598
X19.654 Y-26.464
X19.755 Y-26.323
X19.872 Y-26.18
X20 Y-26.04
X20.144 Y-25.898
X20.307 Y-25.755
X20.484 Y-25.617
X20.674 Y-25.485
X20.88 Y-25.358
X21.103 Y-25.238
X21.338 Y-25.128
X21.584 Y-25.03
X21.838 Y-24.944
X22.096 Y-24.873
X22.36 Y-24.816
X22.627 Y-24.774
X22.893 Y-24.747
X23.13 Y-24.737
X23.375 Y-24.74
X23.606 Y-24.756
X23.809 Y-24.782
X24.033 Y-24.823
X24.225 Y-24.869
X24.413 Y-24.926
X24.425 Y-24.931
X24.739 Y-25.078
X25.023 Y-25.277
X25.269 Y-25.522
X25.468 Y-25.806
X25.616 Y-26.12
X25.706 Y-26.455
X25.738 Y-26.8
X25.743 Y-27.836
G2 X25.69 Y-28.064 I-0.6 J0.018 F250
X25.115 Y-28.417 I-0.547 J0.246 F850
G1 X19.831 Y-28.172
G2 X19.311 Y-27.819 I0.028 J0.599
X19.259 Y-27.591 I0.547 J0.246 F250
G1 X19.263 Y-26.585 F850
X19.271 Y-26.435
X19.293 Y-26.286
X19.327 Y-26.14
X19.373 Y-25.998
X19.43 Y-25.858
X19.495 Y-25.723
X19.568 Y-25.59
X19.654 Y-25.455
X19.755 Y-25.313
X19.87 Y-25.17
X19.998 Y-25.028
X20.143 Y-24.884
X20.305 Y-24.74
X20.48 Y-24.602
X20.669 Y-24.469
X20.876 Y-24.34
X21.098 Y-24.219
X21.332 Y-24.108
X21.576 Y-24.008
X21.828 Y-23.921
X22.085 Y-23.849
X22.347 Y-23.791
X22.612 Y-23.747
X22.877 Y-23.719
X23.113 Y-23.707
X23.356 Y-23.709
X23.587 Y-23.724
X23.79 Y-23.748
X24.013 Y-23.788
X24.206 Y-23.833
X24.392 Y-23.889
X24.409 Y-23.895
X24.726 Y-24.041
X25.012 Y-24.239
X25.26 Y-24.485
X25.461 Y-24.769
X25.61 Y-25.085
X25.701 Y-25.421
X25.733 Y-25.768
X25.738 Y-26.8
G2 X25.685 Y-27.028 I-0.6 J0.018 F250
X25.114 Y-27.381 I-0.547 J0.246 F850
G1 X19.838 Y-27.166
G2 X19.316 Y-26.813 I0.025 J0.599
X19.263 Y-26.585 I0.547 J0.246 F250
G1 X19.267 Y-25.578 F850
X19.276 Y-25.428
X19.296 Y-25.279
X19.329 Y-25.133
X19.374 Y-24.99
X19.429 Y-24.851
X19.493 Y-24.715
X19.566 Y-24.582
X19.65 Y-24.447
X19.75 Y-24.304
X19.864 Y-24.16
X19.99 Y-24.018
X20.134 Y-23.873
X20.294 Y-23.729
X20.468 Y-23.59
X20.655 Y-23.456
X20.86 Y-23.326
X21.08 Y-23.204
X21.312 Y-23.091
X21.554 Y-22.99
X21.805 Y-22.902
X22.061 Y-22.828
X22.321 Y-22.768
X22.585 Y-22.723
X22.849 Y-22.693
X23.086 Y-22.68
X23.327
X23.56 Y-22.693
X23.762 Y-22.715
X23.986 Y-22.753
X24.18 Y-22.798
X24.365 Y-22.851
X24.391 Y-22.86
X24.711 Y-23.005
X25 Y-23.203
X25.25 Y-23.449
X25.453 Y-23.735
X25.604 Y-24.051
X25.697 Y-24.39
X25.729 Y-24.739
X25.733 Y-25.768
G2 X25.681 Y-25.996 I-0.6 J0.018 F250
X25.112 Y-26.35 I-0.547 J0.246 F850
G1 X19.845 Y-26.159
G2 X19.32 Y-25.806 I0.022 J0.6
X19.267 Y-25.578 I0.547 J0.246 F250
G1 X19.272 Y-24.53 F850
X19.28 Y-24.381
X19.303 Y-24.232
X19.339 Y-24.087
X19.385 Y-23.944
X19.442 Y-23.805
X19.507 Y-23.67
X19.583 Y-23.533
X19.67 Y-23.397
X19.771 Y-23.256
X19.889 Y-23.109
X20.019 Y-22.965
X20.163 Y-22.823
X20.325 Y-22.679
X20.504 Y-22.538
X20.696 Y-22.404
X20.901 Y-22.277
X21.122 Y-22.157
X21.354 Y-22.047
X21.597 Y-21.948
X21.848 Y-21.862
X22.104 Y-21.791
X22.366 Y-21.733
X22.629 Y-21.69
X22.892 Y-21.663
X23.121 Y-21.652
X23.37 Y-21.654
X23.591 Y-21.668
X23.797 Y-21.694
X24.018 Y-21.733
X24.205 Y-21.778
X24.404 Y-21.838
X24.72 Y-21.984
X25.005 Y-22.183
X25.252 Y-22.428
X25.453 Y-22.712
X25.601 Y-23.027
X25.693 Y-23.363
X25.724 Y-23.71
X25.729 Y-24.739
G2 X25.676 Y-24.967 I-0.6 J0.018 F250
X25.105 Y-25.32 I-0.547 J0.246 F850
G1 X19.848 Y-25.112
G2 X19.325 Y-24.758 I0.024 J0.6
X19.272 Y-24.53 I0.547 J0.246 F250
G1 X19.276 Y-23.524 F850
X19.285 Y-23.374
X19.305 Y-23.225
X19.339 Y-23.079
X19.384 Y-22.936
X19.439 Y-22.796
X19.503 Y-22.661
X19.575 Y-22.529
X19.66 Y-22.392
X19.761 Y-22.249
X19.873 Y-22.106
X20 Y-21.963
X20.144 Y-21.818
X20.304 Y-21.673
X20.477 Y-21.535
X20.665 Y-21.401
X20.869 Y-21.271
X21.089 Y-21.149
X21.32 Y-21.037
X21.562 Y-20.936
X21.811 Y-20.848
X22.065 Y-20.774
X22.325 Y-20.714
X22.587 Y-20.669
X22.85 Y-20.639
X23.085 Y-20.626
X23.325
X23.557 Y-20.639
X23.758 Y-20.661
X23.98 Y-20.699
X24.174 Y-20.743
X24.358 Y-20.796
X24.381 Y-20.804
X24.701 Y-20.949
X24.99 Y-21.147
X25.241 Y-21.393
X25.444 Y-21.678
X25.595 Y-21.995
X25.688 Y-22.334
X25.72 Y-22.683
X25.724 Y-23.71
G2 X25.672 Y-23.938 I-0.6 J0.018 F250
X25.103 Y-24.291 I-0.547 J0.246 F850
G1 X19.855 Y-24.105
G2 X19.329 Y-23.752 I0.021 J0.6
X19.276 Y-23.524 I0.547 J0.246 F250
G1 X19.281 Y-22.517 F850
X19.289 Y-22.367
X19.307 Y-22.218
X19.339 Y-22.072
X19.383 Y-21.928
X19.436 Y-21.788
X19.499 Y-21.652
X19.571 Y-21.519
X19.653 Y-21.384
X19.751 Y-21.241
X19.863 Y-21.097
X19.987 Y-20.955
X20.128 Y-20.811
X20.287 Y-20.666
X20.458 Y-20.526
X20.643 Y-20.391
X20.845 Y-20.261
X21.062 Y-20.138
X21.292 Y-20.025
X21.531 Y-19.923
X21.779 Y-19.833
X22.032 Y-19.757
X22.291 Y-19.696
X22.552 Y-19.649
X22.814 Y-19.617
X23.05 Y-19.601
X23.291 Y-19.599
X23.524 Y-19.61
X23.725 Y-19.631
X23.949 Y-19.667
X24.144 Y-19.71
X24.328 Y-19.762
X24.362 Y-19.774
X24.685 Y-19.917
X24.977 Y-20.114
X25.23 Y-20.36
X25.436 Y-20.647
X25.589 Y-20.966
X25.683 Y-21.306
X25.715 Y-21.657
X25.72 Y-22.683
G2 X25.667 Y-22.911 I-0.6 J0.018 F250
X25.101 Y-23.264 I-0.547 J0.246 F850
G1 X19.862 Y-23.098
G2 X19.334 Y-22.745 I0.019 J0.6
X19.281 Y-22.517 I0.547 J0.246 F250
G1 X19.286 Y-21.449 F850
X19.294 Y-21.3
X19.317 Y-21.151
X19.352 Y-21.006
X19.399 Y-20.863
X19.455 Y-20.724
X19.52 Y-20.589
X19.596 Y-20.452
X19.684 Y-20.314
X19.784 Y-20.174
X19.901 Y-20.029
X20.033 Y-19.883
X20.176 Y-19.741
X20.337 Y-19.599
X20.514 Y-19.459
X20.708 Y-19.323
X20.914 Y-19.196
X21.132 Y-19.077
X21.362 Y-18.968
X21.603 Y-18.87
X21.853 Y-18.784
X22.107 Y-18.713
X22.367 Y-18.656
X22.629 Y-18.613
X22.888 Y-18.586
X23.115 Y-18.575
X23.365 Y-18.577
X23.581 Y-18.591
X23.79 Y-18.616
X24.008 Y-18.656
X24.192 Y-18.699
X24.389 Y-18.758
X24.705 Y-18.905
X24.991 Y-19.103
X25.238 Y-19.349
X25.439 Y-19.633
X25.587 Y-19.948
X25.679 Y-20.284
X25.711 Y-20.631
X25.715 Y-21.657
G2 X25.663 Y-21.885 I-0.6 J0.018 F250
X25.092 Y-22.239 I-0.547 J0.246 F850
G1 X19.861 Y-22.031
G2 X19.338 Y-21.677 I0.024 J0.6
X19.286 Y-21.449 I0.547 J0.246 F250
G1 X19.29 Y-20.443 F850
X19.298 Y-20.293
X19.319 Y-20.144
X19.352 Y-19.998
X19.397 Y-19.855
X19.452 Y-19.715
X19.516 Y-19.58
X19.588 Y-19.447
X19.673 Y-19.311
X19.773 Y-19.168
X19.886 Y-19.025
X20.012 Y-18.883
X20.155 Y-18.739
X20.315 Y-18.594
X20.488 Y-18.456
X20.674 Y-18.322
X20.878 Y-18.193
X21.097 Y-18.072
X21.326 Y-17.96
X21.567 Y-17.86
X21.814 Y-17.773
X22.067 Y-17.699
X22.326 Y-17.64
X22.586 Y-17.595
X22.848 Y-17.565
X23.081 Y-17.551
X23.32
X23.549 Y-17.564
X23.75 Y-17.586
X23.971 Y-17.624
X24.164 Y-17.668
X24.348 Y-17.721
X24.367 Y-17.728
X24.687 Y-17.872
X24.976 Y-18.07
X25.227 Y-18.316
X25.431 Y-18.602
X25.581 Y-18.919
X25.674 Y-19.257
X25.706 Y-19.606
X25.711 Y-20.631
G2 X25.658 Y-20.859 I-0.6 J0.018 F250
X25.089 Y-21.212 I-0.547 J0.246 F850
G1 X19.868 Y-21.024
G2 X19.343 Y-20.671 I0.022 J0.6
X19.29 Y-20.443 I0.547 J0.246 F250
G1 X19.295 Y-19.386 F850
X19.303 Y-19.236
X19.326 Y-19.088
X19.363 Y-18.943
X19.41 Y-18.8
X19.467 Y-18.661
X19.533 Y-18.527
X19.61 Y-18.39
X19.698 Y-18.252
X19.799 Y-18.112
X19.917 Y-17.967
X20.049 Y-17.822
X20.193 Y-17.68
X20.355 Y-17.539
X20.534 Y-17.398
X20.727 Y-17.264
X20.932 Y-17.138
X21.151 Y-17.02
X21.382 Y-16.912
X21.623 Y-16.815
X21.873 Y-16.73
X22.126 Y-16.66
X22.386 Y-16.604
X22.647 Y-16.563
X22.905 Y-16.537
X23.131 Y-16.527
X23.378 Y-16.53
X23.593 Y-16.545
X23.8 Y-16.571
X24.017 Y-16.611
X24.2 Y-16.655
X24.281 Y-16.679
X24.618 Y-16.816
X24.924 Y-17.011
X25.19 Y-17.258
X25.407 Y-17.549
X25.568 Y-17.874
X25.667 Y-18.223
X25.702 Y-18.585
X25.706 Y-19.606
G2 X25.654 Y-19.834 I-0.6 J0.018 F250
X25.081 Y-20.188 I-0.547 J0.246 F850
G1 X19.869 Y-19.967
G2 X19.347 Y-19.614 I0.025 J0.599
X19.295 Y-19.386 I0.547 J0.246 F250
G1 X19.299 Y-18.379 F850
X19.307 Y-18.23
X19.329 Y-18.081
X19.363 Y-17.935
X19.409 Y-17.792
X19.465 Y-17.653
X19.529 Y-17.518
X19.602 Y-17.385
X19.688 Y-17.249
X19.789 Y-17.106
X19.903 Y-16.964
X20.029 Y-16.822
X20.174 Y-16.677
X20.335 Y-16.534
X20.508 Y-16.396
X20.695 Y-16.263
X20.9 Y-16.135
X21.119 Y-16.014
X21.348 Y-15.904
X21.589 Y-15.805
X21.837 Y-15.719
X22.089 Y-15.647
X22.347 Y-15.589
X22.607 Y-15.545
X22.852 Y-15.518
X23.09 Y-15.506
X23.338
X23.545 Y-15.519
X23.769 Y-15.545
X23.978 Y-15.581
X24.161 Y-15.624
X24.367 Y-15.684
X24.685 Y-15.83
X24.973 Y-16.028
X25.221 Y-16.274
X25.424 Y-16.559
X25.573 Y-16.875
X25.665 Y-17.212
X25.697 Y-17.56
X25.702 Y-18.585
G2 X25.649 Y-18.813 I-0.6 J0.018 F250
X25.078 Y-19.166 I-0.547 J0.246 F850
G1 X19.875 Y-18.961
G2 X19.352 Y-18.607 I0.024 J0.6
X19.299 Y-18.379 I0.547 J0.246 F250
G1 X19.304 Y-17.373 F850
X19.312 Y-17.223
X19.331 Y-17.074
X19.364 Y-16.928
X19.408 Y-16.784
X19.463 Y-16.645
X19.527 Y-16.509
X19.599 Y-16.376
X19.682 Y-16.241
X19.781 Y-16.099
X19.894 Y-15.956
X20.019 Y-15.814
X20.161 Y-15.671
X20.32 Y-15.527
X20.492 Y-15.387
X20.677 Y-15.254
X20.878 Y-15.126
X21.094 Y-15.006
X21.321 Y-14.895
X21.56 Y-14.794
X21.806 Y-14.707
X22.058 Y-14.633
X22.315 Y-14.574
X22.573 Y-14.529
X22.834 Y-14.498
X23.064 Y-14.484
X23.305
X23.532 Y-14.496
X23.732 Y-14.518
X23.954 Y-14.555
X24.145 Y-14.598
X24.33 Y-14.651
X24.35 Y-14.657
X24.67 Y-14.802
X24.961 Y-15
X25.212 Y-15.246
X25.416 Y-15.532
X25.567 Y-15.849
X25.66 Y-16.188
X25.693 Y-16.538
X25.697 Y-17.56
G2 X25.645 Y-17.788 I-0.6 J0.018 F250
X25.076 Y-18.142 I-0.547 J0.246 F850
G1 X19.882 Y-17.954
G2 X19.356 Y-17.601 I0.022 J0.6
X19.304 Y-17.373 I0.547 J0.246 F250
G1 X19.308 Y-16.366 F850
X19.316 Y-16.216
X19.334 Y-16.067
X19.365 Y-15.92
X19.408 Y-15.777
X19.462 Y-15.637
X19.524 Y-15.5
X19.595 Y-15.367
X19.677 Y-15.233
X19.774 Y-15.093
X19.885 Y-14.949
X20.008 Y-14.808
X20.147 Y-14.665
X20.304 Y-14.521
X20.474 Y-14.381
X20.657 Y-14.248
X20.856 Y-14.12
X21.071 Y-13.998
X21.297 Y-13.885
X21.534 Y-13.784
X21.78 Y-13.695
X22.03 Y-13.62
X22.286 Y-13.558
X22.544 Y-13.512
X22.804 Y-13.48
X23.035 Y-13.464
X23.275 Y-13.462
X23.504 Y-13.472
X23.704 Y-13.493
X23.927 Y-13.529
X24.12 Y-13.571
X24.303 Y-13.622
X24.333 Y-13.632
X24.656 Y-13.775
X24.949 Y-13.972
X25.202 Y-14.219
X25.409 Y-14.505
X25.561 Y-14.824
X25.656 Y-15.165
X25.688 Y-15.517
X25.693 Y-16.538
G2 X25.64 Y-16.766 I-0.6 J0.018 F250
X25.073 Y-17.119 I-0.547 J0.246 F850
G1 X19.888 Y-16.947
G2 X19.361 Y-16.594 I0.02 J0.6
X19.308 Y-16.366 I0.547 J0.246 F250
G1 X19.313 Y-15.309 F850
X19.321 Y-15.16
X19.342 Y-15.011
X19.377 Y-14.865
X19.422 Y-14.722
X19.478 Y-14.583
X19.542 Y-14.447
X19.617 Y-14.312
X19.703 Y-14.175
X19.801 Y-14.037
X19.916 Y-13.893
X20.046 Y-13.748
X20.187 Y-13.607
X20.345 Y-13.466
X20.52 Y-13.327
X20.711 Y-13.192
X20.914 Y-13.065
X21.129 Y-12.946
X21.356 Y-12.838
X21.594 Y-12.74
X21.84 Y-12.655
X22.091 Y-12.583
X22.348 Y-12.525
X22.608 Y-12.482
X22.864 Y-12.454
X23.089 Y-12.443
X23.337 Y-12.444
X23.551 Y-12.457
X23.757 Y-12.481
X23.975 Y-12.519
X24.159 Y-12.562
X24.355 Y-12.619
X24.672 Y-12.765
X24.96 Y-12.963
X25.208 Y-13.209
X25.41 Y-13.494
X25.56 Y-13.81
X25.652 Y-14.147
X25.684 Y-14.495
X25.688 Y-15.517
G2 X25.636 Y-15.745 I-0.6 J0.018 F250
X25.065 Y-16.098 I-0.547 J0.246 F850
G1 X19.888 Y-15.891
G2 X19.365 Y-15.537 I0.024 J0.6
X19.313 Y-15.309 I0.547 J0.246 F250
G1 X19.317 Y-14.262 F850
X19.325 Y-14.112
X19.349 Y-13.964
X19.386 Y-13.819
X19.433 Y-13.676
X19.49 Y-13.538
X19.556 Y-13.403
X19.633 Y-13.266
X19.721 Y-13.13
X19.822 Y-12.99
X19.94 Y-12.846
X20.071 Y-12.703
X20.214 Y-12.562
X20.375 Y-12.421
X20.554 Y-12.282
X20.746 Y-12.149
X20.949 Y-12.024
X21.167 Y-11.907
X21.395 Y-11.801
X21.636 Y-11.705
X21.883 Y-11.622
X22.134 Y-11.553
X22.392 Y-11.497
X22.65 Y-11.457
X22.907 Y-11.431
X23.13 Y-11.422
X23.375 Y-11.425
X23.587 Y-11.44
X23.792 Y-11.466
X24.007 Y-11.506
X24.189 Y-11.55
X24.383 Y-11.609
X24.693 Y-11.755
X24.974 Y-11.952
X25.216 Y-12.194
X25.413 Y-12.475
X25.558 Y-12.786
X25.648 Y-13.116
X25.679 Y-13.458
X25.684 Y-14.495
G2 X25.631 Y-14.723 I-0.6 J0.018 F250
X25.057 Y-15.076 I-0.547 J0.246 F850
G1 X19.89 Y-14.843
G2 X19.37 Y-14.49 I0.027 J0.599
X19.317 Y-14.262 I0.547 J0.246 F250
G1 X19.322 Y-13.255 F850
X19.33 Y-13.105
X19.352 Y-12.957
X19.387 Y-12.811
X19.433 Y-12.668
X19.489 Y-12.529
X19.554 Y-12.394
X19.628 Y-12.262
X19.713 Y-12.126
X19.815 Y-11.984
X19.929 Y-11.842
X20.056 Y-11.701
X20.2 Y-11.558
X20.361 Y-11.416
X20.534 Y-11.278
X20.721 Y-11.147
X20.924 Y-11.021
X21.142 Y-10.902
X21.37 Y-10.793
X21.61 Y-10.695
X21.855 Y-10.611
X22.106 Y-10.54
X22.363 Y-10.483
X22.62 Y-10.441
X22.879 Y-10.414
X23.106 Y-10.402
X23.346 Y-10.404
X23.568 Y-10.418
X23.767 Y-10.442
X23.986 Y-10.481
X24.173 Y-10.525
X24.249 Y-10.548
X24.586 Y-10.682
X24.894 Y-10.876
X25.161 Y-11.122
X25.379 Y-11.413
X25.54 Y-11.739
X25.64 Y-12.088
X25.675 Y-12.45
X25.679 Y-13.458
G2 X25.627 Y-13.686 I-0.6 J0.018 F250
X25.056 Y-14.039 I-0.547 J0.246 F850
G1 X19.898 Y-13.836
G2 X19.374 Y-13.483 I0.024 J0.6
X19.322 Y-13.255 I0.547 J0.246 F250
G1 X19.326 Y-12.248 F850
X19.334 Y-12.099
X19.355 Y-11.95
X19.388 Y-11.804
X19.433 Y-11.661
X19.489 Y-11.521
X19.553 Y-11.386
X19.626 Y-11.253
X19.71 Y-11.118
X19.809 Y-10.977
X19.923 Y-10.834
X20.048 Y-10.694
X20.19 Y-10.551
X20.349 Y-10.409
X20.522 Y-10.27
X20.708 Y-10.138
X20.757 Y-10.107
X21.091 Y-9.939
X21.45 Y-9.835
X21.822 Y-9.8
G2 X22.05 Y-9.854 I-0.021 J-0.6 F250
X22.221 Y-10.829 I-0.249 J-0.546 F850
G1 X20.345 Y-12.66
G2 X19.379 Y-12.477 I-0.419 J0.429
X19.326 Y-12.248 I0.547 J0.246 F250
G1 X19.33 Y-11.242 F850
X19.339 Y-11.092
X19.408 Y-10.795
X19.537 Y-10.519
X19.719 Y-10.276
X19.948 Y-10.074
X20.213 Y-9.924
X20.503 Y-9.831
X20.806 Y-9.8
G2 X21.034 Y-9.854 I-0.021 J-0.6 F250
X21.201 Y-10.832 I-0.249 J-0.546 F850
G1 X20.347 Y-11.655
G2 X19.383 Y-11.47 I-0.416 J0.432
X19.33 Y-11.242 I0.547 J0.246 F250
G1 X19.334 Y-10.527 F850
Y-10.477
Y-10.436
X19.343 Y-10.352
X19.348 Y-10.313
X19.354 Y-10.274
X19.362 Y-10.235
G2 X19.496 Y-10.044 I0.479 J-0.194 F250
X19.912 Y-9.917 I0.344 J-0.385 F850
X19.772 Y-10.924 I-0.07 J-0.503
X19.395 Y-10.662 I0.07 J0.503
X19.334 Y-10.436 I0.447 J0.241 F250
G1 X19.339 Y-10.336 F850
X19.362 Y-10.235
X19.38 Y-10.185
X19.404 Y-10.134
X19.434 Y-10.084
X19.471 Y-10.034
X19.481 Y-10.022
X19.532 Y-9.968
X19.582 Y-9.925
X19.632 Y-9.89
X19.683 Y-9.862
X19.754 Y-9.832
X19.819 Y-9.814
X19.884 Y-9.803
X20.085 Y-9.8
X23.909
X24.098 Y-9.809
X24.456 Y-9.886
X24.791 Y-10.035
X25.087 Y-10.25
X25.333 Y-10.522
X25.517 Y-10.839
X25.631 Y-11.187
X25.671 Y-11.551
G2 X25.618 Y-11.78 I-0.6 J0.018 F250
X24.648 Y-11.959 I-0.547 J0.246 F850
G1 X23.507 Y-10.825
G2 X23.681 Y-9.854 I0.423 J0.426
X23.909 Y-9.8 I0.249 J-0.546 F250
G1 X24.824 F850
X24.974 Y-9.807
X25.196 Y-9.883
X25.389 Y-10.017
X25.539 Y-10.197
X25.634 Y-10.412
X25.667 Y-10.644
G2 X25.626 Y-10.875 I-0.815 J0.025 F250
X24.641 Y-11.406 I-0.774 J0.256 F850
X24.593 Y-9.842 I0.212 J0.789
X24.824 Y-9.8 I0.26 J-0.775 F250
G1 X24.915 F850
X25.116 Y-9.803
X25.181 Y-9.814
X25.246 Y-9.832
X25.317 Y-9.862
X25.368 Y-9.89
X25.418 Y-9.925
X25.468 Y-9.968
X25.519 Y-10.022
X25.529 Y-10.034
X25.566 Y-10.084
X25.596 Y-10.134
X25.62 Y-10.185
X25.638 Y-10.235
X25.661 Y-10.336
X25.666 Y-10.436
X25.675 Y-12.45
G2 X25.622 Y-12.678 I-0.6 J0.018 F250
G1 X25.584 Y-12.763 Z-14.973
X25.546 Y-12.847 Z-14.951
X25.51 Y-12.926 Z-14.915
X25.477 Y-12.999 Z-14.865
X25.448 Y-13.065 Z-14.804
X25.423 Y-13.12 Z-14.733
X25.403 Y-13.165 Z-14.652
X25.388 Y-13.198 Z-14.565
X25.379 Y-13.218 Z-14.474
X25.376 Y-13.225 Z-14.38
G0 Z5
X25.219 Y-262.006
Z-4.39
G1 Z-4.99 F250
G2 X22.647 Y-266.339 Z-5.198 I-2.719 J-1.316 F200
X19.669 Y-262.281 Z-5.406 I-0.147 J3.014
X24.563 Y-261.131 Z-5.614 I2.827 J-1.043
X23.708 Y-266.079 Z-5.823 I-2.064 J-2.191
X19.495 Y-263.358 Z-6.031 I-1.207 J2.753
X23.642 Y-260.549 Z-6.239 I3.003 J0.033
X24.603 Y-265.459 Z-6.447 I-1.143 J-2.773
X19.714 Y-264.423 Z-6.655 I-2.102 J2.134
X22.577 Y-260.335 Z-6.863 I2.783 J1.097
X25.216 Y-264.564 Z-7.071 I-0.079 J-2.987
X20.297 Y-265.336 Z-7.279 I-2.715 J1.24
X21.51 Y-260.514 Z-7.488 I2.201 J2.01
X25.468 Y-263.513 Z-7.696 I0.987 J-2.809
X21.164 Y-265.979 Z-7.904 I-2.968 J0.19
X20.58 Y-261.059 Z-8.112 I1.335 J2.653
X25.33 Y-262.445 Z-8.32 I1.917 J-2.264
X22.2 Y-266.27 Z-8.528 I-2.83 J-0.877
X19.908 Y-261.898 Z-8.736 I0.3 J2.944
X24.823 Y-261.5 Z-8.944 I2.588 J-1.427
X23.267 Y-266.172 Z-9.153 I-2.323 J-1.821
X19.581 Y-262.916 Z-9.361 I-0.766 J2.847
X24.014 Y-260.801 Z-9.569 I2.916 J-0.409
X24.225 Y-265.703 Z-9.777 I-1.515 J-2.521
X19.638 Y-263.981 Z-9.985 I-1.724 J2.378
X23.013 Y-260.438 Z-10.193 I2.86 J0.655
X24.951 Y-264.925 Z-10.401 I-0.515 J-2.884
X20.069 Y-264.952 Z-10.609 I-2.45 J1.601
X21.952 Y-260.455 Z-10.818 I2.429 J1.626
X25.35 Y-263.943 Z-11.026 I0.545 J-2.868
X20.815 Y-265.702 Z-11.234 I-2.849 J0.62
X20.971 Y-260.847 Z-11.442 I1.683 J2.376
X25.372 Y-262.888 Z-11.65 I1.526 J-2.476
X21.777 Y-266.136 Z-11.858 I-2.872 J-0.435
X20.197 Y-261.561 Z-12.066 I0.723 J2.81
X25.019 Y-261.897 Z-12.274 I2.3 J-1.763
X22.825 Y-266.198 Z-12.483 I-2.519 J-1.425
X19.73 Y-262.501 Z-12.691 I-0.325 J2.872
X24.338 Y-261.101 Z-12.899 I2.766 J-0.824
X23.823 Y-265.883 Z-13.107 I-1.838 J-2.221
X19.63 Y-263.541 Z-13.315 I-1.322 J2.558
X23.421 Y-260.602 Z-13.523 I2.868 J0.216
X24.64 Y-265.235 Z-13.731 I-0.922 J-2.72
X19.905 Y-264.545 Z-13.939 I-2.139 J1.911
X22.39 Y-260.463 Z-14.148 I2.592 J1.219
X25.171 Y-264.342 Z-14.356 I0.107 J-2.859
X20.519 Y-265.382 Z-14.564 I-2.67 J1.019
X21.382 Y-260.7 Z-14.772 I1.98 J2.056
X25.347 Y-263.323 Z-14.98 I1.115 J-2.623
X23.147 Y-266.098 I-2.85
X21.847 Y-260.548 I-0.65 J2.775
X24.268 Y-261.089 I0.65 J-2.775
X25.347 Y-263.323 I-1.771 J-2.233
G1 X25.36 Y-264.209 F850
X25.393 Y-264.315
X25.421 Y-264.462
X25.43 Y-264.612
X25.423 Y-264.761
X25.403 Y-264.91
X25.37 Y-265.056
X25.325 Y-265.2
X25.271 Y-265.339
X25.207 Y-265.475
X25.135 Y-265.607
X25.055 Y-265.733
X24.967 Y-265.855
X24.87 Y-265.975
X24.764 Y-266.092
X24.648 Y-266.207
X24.523 Y-266.317
X24.389 Y-266.422
X24.246 Y-266.522
X24.095 Y-266.616
X23.936 Y-266.702
X23.77 Y-266.78
X23.597 Y-266.85
X23.419 Y-266.911
X23.235 Y-266.962
X23.046 Y-267.003
X22.853 Y-267.034
X22.657 Y-267.054
X22.459 Y-267.064
X22.259 Y-267.062
X22.058 Y-267.048
X21.857 Y-267.024
X21.656 Y-266.987
X21.457 Y-266.94
X21.26 Y-266.881
X21.066 Y-266.81
X20.876 Y-266.729
X20.69 Y-266.636
X20.508 Y-266.533
X20.333 Y-266.42
X20.164 Y-266.297
X20.001 Y-266.164
X19.846 Y-266.022
X19.699 Y-265.871
X19.561 Y-265.712
X19.532 Y-265.674
X19.352 Y-265.399
X19.22 Y-265.098
X19.139 Y-264.779
X19.112 Y-264.452
X19.109 Y-262.607
X19.117 Y-262.449
X19.132 Y-262.3
X19.157 Y-262.152
X19.19 Y-262.002
X19.234 Y-261.849
X19.287 Y-261.695
X19.35 Y-261.54
X19.424 Y-261.386
X19.508 Y-261.233
X19.602 Y-261.082
X19.706 Y-260.934
X19.82 Y-260.79
X19.944 Y-260.651
X20.078 Y-260.517
X20.22 Y-260.389
X20.371 Y-260.268
X20.53 Y-260.155
X20.604 Y-260.108
X20.938 Y-259.939
X21.298 Y-259.835
X21.67 Y-259.8
G2 X21.898 Y-259.854 I-0.021 J-0.6 F250
X22.098 Y-260.798 I-0.249 J-0.546 F850
G1 X20.157 Y-262.984
G2 X19.163 Y-262.835 I-0.449 J0.398
X19.109 Y-262.607 I0.546 J0.25 F250
G1 X19.107 Y-261.309 F850
X19.114 Y-261.159
X19.188 Y-260.847
X19.324 Y-260.556
X19.517 Y-260.3
X19.758 Y-260.088
X20.037 Y-259.93
X20.343 Y-259.833
X20.662 Y-259.8
G2 X20.89 Y-259.854 I-0.021 J-0.6 F250
X21.054 Y-260.835 I-0.249 J-0.546 F850
G1 X20.12 Y-261.722
G2 X19.161 Y-261.536 I-0.413 J0.435
X19.107 Y-261.309 I0.546 J0.25 F250
G1 X19.106 Y-260.544 F850
Y-260.503
Y-260.473
X19.112 Y-260.355
X19.117 Y-260.302
G2 X19.222 Y-260.093 I0.579 J-0.16 F250
X19.734 Y-259.863 I0.474 J-0.369 F850
X19.659 Y-261.042 I-0.038 J-0.589
X19.16 Y-260.701 I0.038 J0.589
X19.106 Y-260.473 I0.536 J0.248 F250
G1 Y-260.403 F850
X19.117 Y-260.302
X19.123 Y-260.274
X19.129 Y-260.252
X19.146 Y-260.201
X19.168 Y-260.151
X19.196 Y-260.101
X19.234 Y-260.046
X19.28 Y-259.992
X19.335 Y-259.94
X19.389 Y-259.899
X19.435 Y-259.872
X19.481 Y-259.849
X19.532 Y-259.83
X19.582 Y-259.816
X19.683 Y-259.801
X19.884 Y-259.8
X22.902
X23.206 Y-259.815
X23.368 Y-259.832
X23.532 Y-259.859
X23.699 Y-259.897
X23.866 Y-259.944
X24.034 Y-260.002
X24.201 Y-260.07
X24.367 Y-260.149
X24.53 Y-260.238
X24.691 Y-260.338
X24.847 Y-260.448
X24.998 Y-260.568
X25.144 Y-260.697
X25.284 Y-260.836
X25.417 Y-260.984
X25.452 Y-261.028
X25.64 Y-261.309
X25.779 Y-261.617
X25.863 Y-261.945
X25.891 Y-262.282
G2 X25.837 Y-262.51 I-0.6 J0.022 F250
X24.921 Y-262.732 I-0.546 J0.25 F850
G1 X22.553 Y-260.871
G2 X22.675 Y-259.854 I0.371 J0.472
X22.902 Y-259.8 I0.249 J-0.546 F250
G1 X24.422 F850
X24.572 Y-259.807
X24.875 Y-259.879
X25.158 Y-260.011
X25.407 Y-260.198
X25.613 Y-260.432
X25.767 Y-260.703
X25.861 Y-261.001
X25.893 Y-261.311
G2 X25.839 Y-261.539 I-0.6 J0.022 F250
X24.86 Y-261.704 I-0.546 J0.25 F850
G1 X24.009 Y-260.814
G2 X24.194 Y-259.854 I0.434 J0.415
X24.422 Y-259.8 I0.249 J-0.546 F250
G1 X25.177 F850
X25.22 Y-259.801
X25.249
X25.333 Y-259.806
X25.376 Y-259.81
X25.418 Y-259.816
G2 X25.619 Y-259.935 I-0.163 J-0.507 F250
X25.786 Y-260.371 I-0.364 J-0.389 F850
X24.741 Y-260.32 I-0.521 J0.047
X25.023 Y-259.859 I0.524 J-0.004
X25.249 Y-259.801 I0.241 J-0.465 F250
G1 X25.317 F850
X25.418 Y-259.816
X25.446 Y-259.824
X25.468 Y-259.83
X25.519 Y-259.849
X25.565 Y-259.872
X25.611 Y-259.899
X25.665 Y-259.94
X25.72 Y-259.992
X25.766 Y-260.046
X25.804 Y-260.101
X25.832 Y-260.151
X25.854 Y-260.201
X25.871 Y-260.252
X25.883 Y-260.302
X25.894 Y-260.403
X25.887 Y-265.134
X25.879 Y-265.284
X25.86 Y-265.433
X25.831 Y-265.58
X25.792 Y-265.725
X25.745 Y-265.867
X25.689 Y-266.006
X25.624 Y-266.145
X25.548 Y-266.286
X25.46 Y-266.429
X25.361 Y-266.571
X25.252 Y-266.711
X25.132 Y-266.847
X25.001 Y-266.981
X24.859 Y-267.11
X24.704 Y-267.236
X24.539 Y-267.355
X24.363 Y-267.468
X24.178 Y-267.572
X23.984 Y-267.667
X23.781 Y-267.753
X23.571 Y-267.828
X23.353 Y-267.892
X23.128 Y-267.945
X22.897 Y-267.986
X22.66 Y-268.014
X22.42 Y-268.029
X22.176 Y-268.031
X21.93 Y-268.018
X21.682 Y-267.992
X21.435 Y-267.951
X21.188 Y-267.896
X20.944 Y-267.827
X20.702 Y-267.743
X20.464 Y-267.646
X20.23 Y-267.535
X20.153 Y-267.492
X19.858 Y-267.294
X19.602 Y-267.047
X19.394 Y-266.759
X19.24 Y-266.438
X19.146 Y-266.095
X19.114 Y-265.741
X19.112 Y-264.452
G2 X19.165 Y-264.224 I0.6 J-0.02 F250
X19.785 Y-263.876 I0.546 J-0.248 F850
G1 X25.36 Y-264.559
G2 X25.834 Y-264.906 I-0.073 J-0.596
X25.887 Y-265.134 I-0.546 J-0.248 F250
G1 X25.885 Y-266.252 F850
X25.877 Y-266.401
X25.86 Y-266.55
X25.829 Y-266.697
X25.787 Y-266.841
X25.734 Y-266.982
X25.672 Y-267.118
X25.601 Y-267.25
X25.522 Y-267.381
X25.431 Y-267.512
X25.327 Y-267.647
X25.209 Y-267.783
X25.079 Y-267.916
X24.938 Y-268.045
X24.781 Y-268.173
X24.61 Y-268.298
X24.426 Y-268.417
X24.23 Y-268.528
X24.024 Y-268.63
X23.804 Y-268.724
X23.572 Y-268.808
X23.328 Y-268.881
X23.074 Y-268.942
X22.812 Y-268.989
X22.543 Y-269.022
X22.268 Y-269.041
X21.988 Y-269.043
X21.703 Y-269.03
X21.42 Y-269.001
X21.17 Y-268.96
X20.904 Y-268.902
X20.687 Y-268.841
X20.464 Y-268.766
X20.365 Y-268.726
X20.064 Y-268.573
X19.792 Y-268.371
X19.559 Y-268.127
X19.369 Y-267.847
X19.23 Y-267.539
X19.145 Y-267.212
X19.116 Y-266.875
X19.114 Y-265.741
G2 X19.167 Y-265.513 I0.6 J-0.02 F250
X19.768 Y-265.164 I0.546 J-0.248 F850
G1 X25.34 Y-265.674
G2 X25.832 Y-266.024 I-0.055 J-0.598
X25.885 Y-266.252 I-0.546 J-0.248 F250
G1 X25.884 Y-267.258 F850
X25.876 Y-267.408
X25.859 Y-267.557
X25.828 Y-267.704
X25.784 Y-267.847
X25.73 Y-267.987
X25.667 Y-268.123
X25.595 Y-268.255
X25.512 Y-268.387
X25.418 Y-268.519
X25.313 Y-268.652
X25.191 Y-268.789
X25.054 Y-268.925
X24.907 Y-269.057
X24.743 Y-269.188
X24.561 Y-269.317
X24.363 Y-269.441
X24.154 Y-269.557
X23.931 Y-269.664
X23.692 Y-269.763
X23.436 Y-269.852
X23.167 Y-269.929
X22.891 Y-269.992
X22.607 Y-270.039
X22.318 Y-270.071
X22.028 Y-270.087
X21.75 Y-270.086
X21.487 Y-270.071
X21.225 Y-270.04
X21.004 Y-270.002
X20.765 Y-269.947
X20.564 Y-269.888
X20.362 Y-269.816
X20.344 Y-269.809
X20.001 Y-269.624
X19.7 Y-269.376
X19.453 Y-269.073
X19.269 Y-268.729
X19.156 Y-268.356
X19.117 Y-267.968
X19.116 Y-266.875
G2 X19.169 Y-266.647 I0.6 J-0.02 F250
X19.757 Y-266.296 I0.546 J-0.248 F850
G1 X25.325 Y-266.68
G2 X25.83 Y-267.03 I-0.041 J-0.599
X25.884 Y-267.258 I-0.546 J-0.248 F250
G1 X25.882 Y-268.265 F850
X25.874 Y-268.415
X25.855 Y-268.564
X25.822 Y-268.71
X25.777 Y-268.853
X25.722 Y-268.992
X25.657 Y-269.128
X25.584 Y-269.259
X25.5 Y-269.392
X25.405 Y-269.526
X25.292 Y-269.665
X25.166 Y-269.806
X25.027 Y-269.944
X24.869 Y-270.083
X24.693 Y-270.222
X24.504 Y-270.355
X24.3 Y-270.482
X24.078 Y-270.603
X23.837 Y-270.717
X23.583 Y-270.821
X23.319 Y-270.911
X23.046 Y-270.988
X22.765 Y-271.051
X22.482 Y-271.097
X22.194 Y-271.127
X21.909 Y-271.141
X21.649 Y-271.139
X21.406 Y-271.124
X21.148 Y-271.093
X20.939 Y-271.055
X20.723 Y-271.004
X20.507 Y-270.94
X20.442 Y-270.917
X20.125 Y-270.77
X19.838 Y-270.571
X19.591 Y-270.325
X19.39 Y-270.039
X19.241 Y-269.723
X19.15 Y-269.386
X19.119 Y-269.038
X19.117 Y-267.968
G2 X19.171 Y-267.74 I0.6 J-0.02 F250
X19.749 Y-267.388 I0.546 J-0.248 F850
G1 X25.314 Y-267.686
G2 X25.829 Y-268.037 I-0.032 J-0.599
X25.882 Y-268.265 I-0.546 J-0.248 F250
G1 X25.881 Y-269.272 F850
X25.873 Y-269.422
X25.852 Y-269.57
X25.818 Y-269.716
X25.773 Y-269.859
X25.717 Y-269.999
X25.652 Y-270.134
X25.578 Y-270.268
X25.494 Y-270.401
X25.394 Y-270.542
X25.278 Y-270.687
X25.151 Y-270.828
X25.005 Y-270.973
X24.841 Y-271.119
X24.663 Y-271.259
X24.471 Y-271.395
X24.26 Y-271.527
X24.03 Y-271.652
X23.786 Y-271.769
X23.531 Y-271.873
X23.267 Y-271.964
X22.995 Y-272.041
X22.714 Y-272.104
X22.433 Y-272.15
X22.15 Y-272.18
X21.878 Y-272.194
X21.628 Y-272.193
X21.365 Y-272.176
X21.149 Y-272.15
X20.915 Y-272.109
X20.705 Y-272.06
X20.515 Y-272.004
X20.446 Y-271.979
X20.129 Y-271.833
X19.842 Y-271.633
X19.593 Y-271.387
X19.392 Y-271.101
X19.243 Y-270.785
X19.152 Y-270.447
X19.121 Y-270.099
X19.119 Y-269.038
G2 X19.172 Y-268.81 I0.6 J-0.02 F250
X19.744 Y-268.458 I0.546 J-0.248 F850
G1 X25.306 Y-268.692
G2 X25.827 Y-269.044 I-0.025 J-0.599
X25.881 Y-269.272 I-0.546 J-0.248 F250
G1 X25.879 Y-270.279 F850
X25.871 Y-270.428
X25.851 Y-270.577
X25.818 Y-270.723
X25.773 Y-270.866
X25.718 Y-271.006
X25.655 Y-271.142
X25.582 Y-271.274
X25.497 Y-271.412
X25.396 Y-271.557
X25.283 Y-271.701
X25.154 Y-271.846
X25.007 Y-271.996
X24.844 Y-272.143
X24.668 Y-272.284
X24.474 Y-272.424
X24.261 Y-272.559
X24.031 Y-272.687
X23.79 Y-272.805
X23.538 Y-272.911
X23.276 Y-273.003
X23.003 Y-273.083
X22.727 Y-273.147
X22.446 Y-273.196
X22.164 Y-273.228
X21.894 Y-273.244
X21.648 Y-273.245
X21.386 Y-273.231
X21.169 Y-273.207
X20.939 Y-273.168
X20.727 Y-273.12
X20.539 Y-273.066
X20.464 Y-273.04
X20.143 Y-272.896
X19.853 Y-272.697
X19.601 Y-272.45
X19.397 Y-272.163
X19.247 Y-271.845
X19.154 Y-271.505
X19.122 Y-271.155
X19.121 Y-270.099
G2 X19.174 Y-269.871 I0.6 J-0.02 F250
X19.74 Y-269.519 I0.546 J-0.248 F850
G1 X25.299 Y-269.699
G2 X25.826 Y-270.051 I-0.019 J-0.6
X25.879 Y-270.279 I-0.546 J-0.248 F250
G1 X25.877 Y-271.285 F850
X25.87 Y-271.435
X25.852 Y-271.584
X25.82 Y-271.731
X25.777 Y-271.874
X25.724 Y-272.015
X25.662 Y-272.151
X25.592 Y-272.284
X25.508 Y-272.423
X25.408 Y-272.569
X25.298 Y-272.713
X25.171 Y-272.86
X25.025 Y-273.011
X24.865 Y-273.159
X24.692 Y-273.303
X24.499 Y-273.444
X24.288 Y-273.582
X24.062 Y-273.712
X23.823 Y-273.832
X23.573 Y-273.94
X23.313 Y-274.036
X23.042 Y-274.118
X22.768 Y-274.185
X22.489 Y-274.237
X22.209 Y-274.273
X21.937 Y-274.292
X21.692 Y-274.296
X21.428 Y-274.285
X21.21 Y-274.263
X20.982 Y-274.228
X20.766 Y-274.182
X20.578 Y-274.13
X20.488 Y-274.1
X20.163 Y-273.958
X19.867 Y-273.76
X19.612 Y-273.513
X19.404 Y-273.225
X19.251 Y-272.904
X19.156 Y-272.561
X19.124 Y-272.207
X19.122 Y-271.155
G2 X19.176 Y-270.927 I0.6 J-0.02 F250
X19.736 Y-270.575 I0.546 J-0.248 F850
G1 X25.292 Y-270.705
G2 X25.824 Y-271.057 I-0.014 J-0.6
X25.877 Y-271.285 I-0.546 J-0.248 F250
G1 X25.876 Y-272.342 F850
X25.868 Y-272.492
X25.848 Y-272.64
X25.814 Y-272.786
X25.77 Y-272.93
X25.716 Y-273.07
X25.653 Y-273.206
X25.578 Y-273.344
X25.494 Y-273.483
X25.393 Y-273.628
X25.277 Y-273.778
X25.149 Y-273.925
X25.003 Y-274.074
X24.838 Y-274.224
X24.659 Y-274.37
X24.466 Y-274.51
X24.255 Y-274.646
X24.027 Y-274.775
X23.784 Y-274.895
X23.531 Y-275.002
X23.268 Y-275.097
X22.998 Y-275.178
X22.723 Y-275.243
X22.445 Y-275.293
X22.168 Y-275.326
X21.907 Y-275.343
X21.654 Y-275.345
X21.398 Y-275.333
X21.185 Y-275.31
X20.95 Y-275.272
X20.744 Y-275.227
X20.554 Y-275.173
X20.478 Y-275.147
X20.155 Y-275.003
X19.862 Y-274.805
X19.609 Y-274.558
X19.403 Y-274.271
X19.251 Y-273.951
X19.158 Y-273.61
X19.126 Y-273.258
X19.124 Y-272.207
G2 X19.177 Y-271.979 I0.6 J-0.02 F250
X19.738 Y-271.627 I0.546 J-0.248 F850
G1 X25.291 Y-271.762
G2 X25.822 Y-272.114 I-0.015 J-0.6
X25.876 Y-272.342 I-0.546 J-0.248 F250
G1 X25.874 Y-273.389 F850
X25.866 Y-273.539
X25.846 Y-273.688
X25.812 Y-273.834
X25.767 Y-273.977
X25.713 Y-274.117
X25.65 Y-274.253
X25.576 Y-274.39
X25.491 Y-274.529
X25.389 Y-274.677
X25.273 Y-274.825
X25.144 Y-274.972
X24.996 Y-275.123
X24.831 Y-275.274
X24.653 Y-275.419
X24.459 Y-275.56
X24.247 Y-275.696
X24.017 Y-275.826
X23.775 Y-275.945
X23.523 Y-276.053
X23.261 Y-276.147
X22.991 Y-276.227
X22.717 Y-276.292
X22.439 Y-276.342
X22.162 Y-276.375
X21.9 Y-276.392
X21.652 Y-276.394
X21.395 Y-276.382
X21.182 Y-276.359
X20.949 Y-276.321
X20.742 Y-276.275
X20.553 Y-276.222
X20.479 Y-276.197
X20.156 Y-276.053
X19.863 Y-275.855
X19.61 Y-275.608
X19.404 Y-275.32
X19.252 Y-275.001
X19.159 Y-274.66
X19.127 Y-274.308
X19.126 Y-273.258
G2 X19.179 Y-273.03 I0.6 J-0.02 F250
X19.74 Y-272.678 I0.546 J-0.248 F850
G1 X25.289 Y-272.809
G2 X25.821 Y-273.161 I-0.014 J-0.6
X25.874 Y-273.389 I-0.546 J-0.248 F250
G1 X25.873 Y-274.396 F850
X25.865 Y-274.546
X25.848 Y-274.695
X25.818 Y-274.842
X25.776 Y-274.986
X25.724 Y-275.127
X25.663 Y-275.264
X25.595 Y-275.397
X25.511 Y-275.538
X25.413 Y-275.685
X25.304 Y-275.83
X25.177 Y-275.979
X25.033 Y-276.132
X24.876 Y-276.28
X24.703 Y-276.426
X24.511 Y-276.57
X24.301 Y-276.709
X24.077 Y-276.841
X23.841 Y-276.962
X23.593 Y-277.072
X23.335 Y-277.169
X23.067 Y-277.254
X22.795 Y-277.323
X22.517 Y-277.377
X22.239 Y-277.415
X21.967 Y-277.437
X21.724 Y-277.443
X21.46 Y-277.434
X21.24 Y-277.415
X21.016 Y-277.382
X20.796 Y-277.337
X20.609 Y-277.288
X20.511 Y-277.256
X20.181 Y-277.115
X19.883 Y-276.918
X19.624 Y-276.67
X19.413 Y-276.381
X19.257 Y-276.058
X19.162 Y-275.713
X19.129 Y-275.357
X19.127 Y-274.308
G2 X19.181 Y-274.08 I0.6 J-0.02 F250
X19.737 Y-273.728 I0.546 J-0.248 F850
G1 X25.282 Y-273.816
G2 X25.819 Y-274.168 I-0.009 J-0.6
X25.873 Y-274.396 I-0.546 J-0.248 F250
G1 X25.871 Y-275.464 F850
X25.863 Y-275.613
X25.844 Y-275.762
X25.812 Y-275.909
X25.769 Y-276.052
X25.715 Y-276.193
X25.653 Y-276.329
X25.58 Y-276.468
X25.496 Y-276.607
X25.397 Y-276.753
X25.282 Y-276.903
X25.155 Y-277.051
X25.011 Y-277.2
X24.848 Y-277.351
X24.669 Y-277.499
X24.478 Y-277.64
X24.269 Y-277.776
X24.043 Y-277.906
X23.802 Y-278.027
X23.551 Y-278.136
X23.288 Y-278.233
X23.02 Y-278.315
X22.747 Y-278.381
X22.471 Y-278.433
X22.194 Y-278.468
X21.934 Y-278.487
X21.68 Y-278.491
X21.425 Y-278.48
X21.212 Y-278.459
X20.977 Y-278.423
X20.77 Y-278.379
X20.58 Y-278.327
X20.496 Y-278.299
X20.17 Y-278.156
X19.875 Y-277.958
X19.619 Y-277.711
X19.411 Y-277.423
X19.257 Y-277.102
X19.163 Y-276.759
X19.131 Y-276.405
X19.129 Y-275.357
G2 X19.182 Y-275.129 I0.6 J-0.02 F250
X19.74 Y-274.777 I0.546 J-0.248 F850
G1 X25.283 Y-274.884
G2 X25.818 Y-275.236 I-0.012 J-0.6
X25.871 Y-275.464 I-0.546 J-0.248 F250
G1 X25.869 Y-276.52 F850
X25.861 Y-276.67
X25.841 Y-276.819
X25.809 Y-276.965
X25.765 Y-277.108
X25.711 Y-277.248
X25.648 Y-277.385
X25.575 Y-277.523
X25.491 Y-277.662
X25.39 Y-277.809
X25.275 Y-277.958
X25.147 Y-278.106
X25.001 Y-278.256
X24.836 Y-278.408
X24.658 Y-278.554
X24.466 Y-278.695
X24.255 Y-278.832
X24.027 Y-278.962
X23.786 Y-279.082
X23.535 Y-279.19
X23.273 Y-279.285
X23.005 Y-279.367
X22.732 Y-279.433
X22.455 Y-279.483
X22.179 Y-279.518
X21.919 Y-279.536
X21.669 Y-279.539
X21.413 Y-279.527
X21.2 Y-279.506
X20.967 Y-279.469
X20.759 Y-279.424
X20.571 Y-279.372
X20.492 Y-279.345
X20.167 Y-279.202
X19.873 Y-279.004
X19.618 Y-278.757
X19.411 Y-278.469
X19.258 Y-278.149
X19.164 Y-277.807
X19.132 Y-277.453
X19.131 Y-276.405
G2 X19.184 Y-276.177 I0.6 J-0.02 F250
X19.743 Y-275.825 I0.546 J-0.248 F850
G1 X25.282 Y-275.94
G2 X25.816 Y-276.292 I-0.012 J-0.6
X25.869 Y-276.52 I-0.546 J-0.248 F250
G1 X25.868 Y-277.527 F850
X25.86 Y-277.683
X25.843 Y-277.832
X25.814 Y-277.979
X25.772 Y-278.123
X25.721 Y-278.264
X25.66 Y-278.401
X25.592 Y-278.535
X25.509 Y-278.676
X25.412 Y-278.822
X25.303 Y-278.967
X25.177 Y-279.117
X25.033 Y-279.269
X24.876 Y-279.418
X24.704 Y-279.564
X24.514 Y-279.708
X24.305 Y-279.847
X24.081 Y-279.979
X23.846 Y-280.101
X23.599 Y-280.211
X23.342 Y-280.309
X23.074 Y-280.394
X22.804 Y-280.464
X22.527 Y-280.519
X22.249 Y-280.557
X21.979 Y-280.58
X21.736 Y-280.586
X21.472 Y-280.578
X21.253 Y-280.559
X21.028 Y-280.527
X20.809 Y-280.483
X20.622 Y-280.434
X20.414 Y-280.367
X20.106 Y-280.217
X19.828 Y-280.016
X19.589 Y-279.771
X19.395 Y-279.488
X19.252 Y-279.177
X19.164 Y-278.846
X19.134 Y-278.504
X19.132 Y-277.453
G2 X19.186 Y-277.225 I0.6 J-0.02 F250
X19.74 Y-276.873 I0.546 J-0.248 F850
G1 X25.276 Y-276.947
G2 X25.814 Y-277.299 I-0.008 J-0.6
X25.868 Y-277.527 I-0.546 J-0.248 F250
G1 X25.866 Y-278.624 F850
X25.858 Y-278.774
X25.837 Y-278.922
X25.804 Y-279.069
X25.759 Y-279.212
X25.705 Y-279.352
X25.642 Y-279.488
X25.567 Y-279.628
X25.48 Y-279.769
X25.381 Y-279.913
X25.263 Y-280.064
X25.132 Y-280.214
X24.988 Y-280.362
X24.824 Y-280.511
X24.642 Y-280.66
X24.447 Y-280.802
X24.238 Y-280.936
X24.012 Y-281.064
X23.77 Y-281.183
X23.519 Y-281.29
X23.255 Y-281.385
X22.987 Y-281.465
X22.714 Y-281.53
X22.437 Y-281.58
X22.162 Y-281.613
X21.886 Y-281.631
X21.65 Y-281.633
X21.394 Y-281.621
X21.174 Y-281.598
X20.96 Y-281.563
X20.741 Y-281.515
X20.556 Y-281.463
X20.488 Y-281.44
X20.165 Y-281.296
X19.872 Y-281.098
X19.619 Y-280.851
X19.413 Y-280.563
X19.261 Y-280.244
X19.167 Y-279.903
X19.136 Y-279.551
X19.134 Y-278.504
G2 X19.187 Y-278.276 I0.6 J-0.02 F250
X19.747 Y-277.924 I0.546 J-0.248 F850
G1 X25.279 Y-278.044
G2 X25.813 Y-278.396 I-0.013 J-0.6
X25.866 Y-278.624 I-0.546 J-0.248 F250
G1 X25.864 Y-279.631 F850
X25.857 Y-279.781
X25.84 Y-279.93
X25.81 Y-280.077
X25.769 Y-280.221
X25.717 Y-280.362
X25.657 Y-280.499
X25.588 Y-280.632
X25.505 Y-280.774
X25.408 Y-280.92
X25.299 Y-281.064
X25.173 Y-281.214
X25.029 Y-281.366
X24.873 Y-281.514
X24.7 Y-281.66
X24.509 Y-281.804
X24.3 Y-281.944
X24.077 Y-282.075
X23.842 Y-282.196
X23.593 Y-282.307
X23.336 Y-282.405
X23.068 Y-282.49
X22.796 Y-282.56
X22.521 Y-282.614
X22.243 Y-282.653
X21.972 Y-282.675
X21.731 Y-282.681
X21.468 Y-282.673
X21.249 Y-282.654
X21.025 Y-282.621
X20.807 Y-282.577
X20.62 Y-282.528
X20.522 Y-282.497
X20.192 Y-282.356
X19.893 Y-282.159
X19.633 Y-281.912
X19.422 Y-281.622
X19.266 Y-281.299
X19.17 Y-280.954
X19.137 Y-280.597
X19.136 Y-279.551
G2 X19.189 Y-279.323 I0.6 J-0.02 F250
X19.744 Y-278.971 I0.546 J-0.248 F850
G1 X25.273 Y-279.051
G2 X25.811 Y-279.403 I-0.009 J-0.6
X25.864 Y-279.631 I-0.546 J-0.248 F250
G1 X25.863 Y-280.698 F850
X25.855 Y-280.848
X25.836 Y-280.997
X25.804 Y-281.144
X25.761 Y-281.287
X25.709 Y-281.428
X25.647 Y-281.564
X25.574 Y-281.704
X25.49 Y-281.842
X25.392 Y-281.988
X25.277 Y-282.138
X25.15 Y-282.286
X25.007 Y-282.435
X24.845 Y-282.585
X24.666 Y-282.733
X24.475 Y-282.875
X24.267 Y-283.011
X24.042 Y-283.141
X23.802 Y-283.262
X23.552 Y-283.371
X23.29 Y-283.468
X23.023 Y-283.55
X22.751 Y-283.617
X22.476 Y-283.669
X22.2 Y-283.704
X21.942 Y-283.723
X21.688 Y-283.727
X21.434 Y-283.717
X21.221 Y-283.697
X20.987 Y-283.661
X20.781 Y-283.617
X20.591 Y-283.566
X20.507 Y-283.538
X20.181 Y-283.396
X19.884 Y-283.198
X19.628 Y-282.951
X19.42 Y-282.662
X19.266 Y-282.341
X19.171 Y-281.998
X19.139 Y-281.643
X19.137 Y-280.597
G2 X19.19 Y-280.369 I0.6 J-0.02 F250
X19.748 Y-280.017 I0.546 J-0.248 F850
G1 X25.274 Y-280.119
G2 X25.809 Y-280.47 I-0.011 J-0.6
X25.863 Y-280.698 I-0.546 J-0.248 F250
G1 X25.861 Y-281.755 F850
X25.853 Y-281.905
X25.834 Y-282.054
X25.801 Y-282.2
X25.758 Y-282.344
X25.704 Y-282.484
X25.642 Y-282.62
X25.569 Y-282.758
X25.485 Y-282.897
X25.384 Y-283.044
X25.269 Y-283.193
X25.142 Y-283.34
X24.997 Y-283.491
X24.833 Y-283.642
X24.655 Y-283.788
X24.464 Y-283.929
X24.254 Y-284.065
X24.027 Y-284.195
X23.787 Y-284.315
X23.536 Y-284.424
X23.276 Y-284.519
X23.009 Y-284.601
X22.737 Y-284.667
X22.461 Y-284.718
X22.186 Y-284.752
X21.927 Y-284.771
X21.677 Y-284.774
X21.422 Y-284.763
X21.21 Y-284.742
X20.977 Y-284.705
X20.77 Y-284.661
X20.582 Y-284.609
X20.503 Y-284.582
X20.177 Y-284.44
X19.883 Y-284.242
X19.627 Y-283.995
X19.42 Y-283.707
X19.267 Y-283.386
X19.173 Y-283.044
X19.14 Y-282.69
X19.139 Y-281.643
G2 X19.192 Y-281.415 I0.6 J-0.02 F250
X19.751 Y-281.063 I0.546 J-0.248 F850
G1 X25.273 Y-281.175
G2 X25.808 Y-281.527 I-0.012 J-0.6
X25.861 Y-281.755 I-0.546 J-0.248 F250
G1 X25.859 Y-282.812 F850
X25.852 Y-282.961
X25.831 Y-283.11
X25.798 Y-283.256
X25.754 Y-283.4
X25.7 Y-283.539
X25.637 Y-283.676
X25.563 Y-283.814
X25.478 Y-283.953
X25.377 Y-284.1
X25.261 Y-284.249
X25.133 Y-284.397
X24.986 Y-284.547
X24.822 Y-284.698
X24.643 Y-284.844
X24.451 Y-284.984
X24.24 Y-285.12
X24.013 Y-285.25
X23.772 Y-285.369
X23.521 Y-285.477
X23.26 Y-285.571
X22.993 Y-285.652
X22.721 Y-285.717
X22.445 Y-285.767
X22.296 Y-285.785
X22.214 Y-285.793
X22.133 Y-285.798
X22.051 Y-285.8
G2 X21.823 Y-285.746 I0.021 J0.6 F250
X21.714 Y-284.719 I0.249 J0.546 F850
G1 X24.902 Y-282.35
G2 X25.806 Y-282.584 I0.358 J-0.482
X25.859 Y-282.812 I-0.546 J-0.248 F250
G1 X25.858 Y-283.859 F850
X25.85 Y-284.009
X25.83 Y-284.157
X25.796 Y-284.304
X25.752 Y-284.447
X25.698 Y-284.587
X25.635 Y-284.723
X25.625 Y-284.742
X25.428 Y-285.043
X25.18 Y-285.303
X24.89 Y-285.515
X24.566 Y-285.672
X24.219 Y-285.768
X23.861 Y-285.8
G2 X23.633 Y-285.746 I0.021 J0.6 F250
X23.466 Y-284.768 I0.249 J0.546 F850
G1 X24.843 Y-283.446
G2 X25.804 Y-283.631 I0.416 J-0.433
X25.858 Y-283.859 I-0.546 J-0.248 F250
G1 X25.856 Y-284.775 F850
X25.849 Y-284.925
X25.787 Y-285.159
X25.672 Y-285.371
X25.51 Y-285.551
X25.311 Y-285.686
X25.084 Y-285.771
X24.845 Y-285.8
G2 X24.617 Y-285.746 I0.021 J0.6 F250
X24.434 Y-284.784 I0.249 J0.546 F850
G1 X24.825 Y-284.378
G2 X25.803 Y-284.547 I0.432 J-0.417
X25.856 Y-284.775 I-0.546 J-0.248 F250
G1 Y-285.067 F850
X25.85 Y-285.268
X25.826 Y-285.369
X25.808 Y-285.419
X25.783 Y-285.47
X25.755 Y-285.517
X25.72 Y-285.564
X25.673 Y-285.618
X25.614 Y-285.671
X25.566 Y-285.705
X25.519 Y-285.733
X25.468 Y-285.756
X25.418 Y-285.774
X25.317 Y-285.795
X25.116 Y-285.8
X21.695
X21.354 Y-285.783
X21.148 Y-285.761
X20.92 Y-285.724
X20.725 Y-285.68
X20.536 Y-285.627
X20.491 Y-285.611
X20.168 Y-285.467
X19.876 Y-285.269
X19.624 Y-285.022
X19.418 Y-284.735
X19.267 Y-284.416
X19.174 Y-284.075
X19.142 Y-283.723
G2 X19.195 Y-283.495 I0.6 J-0.02 F250
X20.103 Y-283.264 I0.546 J-0.248 F850
G1 X22.035 Y-284.721
G2 X21.923 Y-285.746 I-0.361 J-0.479
X21.695 Y-285.8 I-0.249 J0.546 F250
G1 X20.225 F850
X20.076 Y-285.793
X19.827 Y-285.726
X19.6 Y-285.602
X19.41 Y-285.429
X19.265 Y-285.216
X19.175 Y-284.975
X19.144 Y-284.719
G2 X19.178 Y-284.486 I1.045 J-0.035 F250
X20.453 Y-283.741 I1.011 J-0.268 F850
X20.458 Y-285.765 I-0.264 J-1.013
X20.225 Y-285.8 I-0.269 J1.011 F250
G1 X19.884 F850
X19.683 Y-285.795
X19.582 Y-285.774
X19.532 Y-285.756
X19.481 Y-285.733
X19.434 Y-285.705
X19.386 Y-285.671
X19.327 Y-285.618
X19.28 Y-285.564
X19.245 Y-285.517
X19.217 Y-285.47
X19.192 Y-285.419
X19.174 Y-285.369
X19.15 Y-285.268
X19.144 Y-285.067
X19.14 Y-282.69
X19.152 Y-282.636 Z-14.973 F250
X19.163 Y-282.586 Z-14.954
X19.173 Y-282.541 Z-14.923
X19.181 Y-282.504 Z-14.882
X19.187 Y-282.478 Z-14.833
X19.192 Y-282.466 Z-14.79
X19.194 Y-282.462 Z-14.744
G0 Z5
X20.044 Y-32.853
Z-11.88
G1 Z-12.48 F250
G2 X25.058 Y-33.005 Z-12.687 I2.456 J-1.745 F200
X22.984 Y-37.566 Z-12.894 I-2.555 J-1.59
X19.581 Y-33.897 Z-13.101 I-0.48 J2.967
X24.274 Y-32.177 Z-13.308 I2.919 J-0.702
X24.05 Y-37.164 Z-13.515 I-1.772 J-2.419
X19.541 Y-35.034 Z-13.722 I-1.545 J2.565
X23.242 Y-31.701 Z-13.929 I2.959 J0.435
X24.885 Y-36.396 Z-14.136 I-0.74 J-2.894
X19.926 Y-36.1 Z-14.343 I-2.381 J1.798
X22.111 Y-31.645 Z-14.55 I2.575 J1.501
X25.373 Y-35.376 Z-14.757 I0.39 J-2.951
X20.678 Y-36.943 Z-14.963 I-2.869 J0.779
X21.045 Y-32.013 Z-15.17 I1.824 J2.343
X25.446 Y-34.251 Z-15.377 I1.456 J-2.584
X21.686 Y-37.443 Z-15.584 I-2.942 J-0.345
X20.195 Y-32.748 Z-15.791 I0.817 J2.844
X25.095 Y-33.185 Z-15.998 I2.305 J-1.849
X22.804 Y-37.532 Z-16.205 I-2.592 J-1.411
X19.683 Y-33.744 Z-16.412 I-0.3 J2.932
X24.375 Y-32.329 Z-16.619 I2.818 J-0.854
X23.87 Y-37.198 Z-16.826 I-1.873 J-2.267
X19.578 Y-34.855 Z-17.033 I-1.366 J2.6
X23.392 Y-31.804 Z-17.24 I2.922 J0.256
X24.733 Y-36.494 Z-17.447 I-0.89 J-2.791
X19.895 Y-35.921 Z-17.654 I-2.228 J1.897
X22.288 Y-31.685 Z-17.861 I2.606 J1.322
X25.268 Y-35.523 Z-18.068 I0.213 J-2.911
X20.583 Y-36.789 Z-18.275 I-2.764 J0.926
X21.223 Y-31.984 Z-18.482 I1.919 J2.189
X25.403 Y-34.427 Z-18.689 I1.277 J-2.613
X21.541 Y-37.336 Z-18.896 I-2.899 J-0.169
X20.35 Y-32.656 Z-19.103 I0.962 J2.737
X25.121 Y-33.363 Z-19.31 I2.15 J-1.941
X22.63 Y-37.486 Z-19.517 I-2.618 J-1.233
X19.791 Y-33.601 Z-19.723 I-0.126 J2.887
X24.465 Y-32.484 Z-19.93 I2.709 J-0.997
X23.692 Y-37.221 Z-20.137 I-1.963 J-2.111
X19.626 Y-34.683 Z-20.344 I-1.188 J2.622
X23.533 Y-31.915 Z-20.551 I2.874 J0.084
X24.576 Y-36.581 Z-20.758 I-1.031 J-2.68
X19.875 Y-35.744 Z-20.965 I-2.072 J1.983
X22.459 Y-31.735 Z-21.172 I2.626 J1.144
X25.156 Y-35.662 Z-21.379 I0.042 J-2.861
X20.499 Y-36.632 Z-21.586 I-2.652 J1.065
X21.4 Y-31.967 Z-21.793 I2.003 J2.033
X25.351 Y-34.596 Z-22 I1.1 J-2.629
X19.65 I-2.85
X25.351 I2.85
G1 X25.363 Y-35.482 F850
X25.396 Y-35.588
X25.424 Y-35.735
X25.434 Y-35.885
X25.427 Y-36.035
X25.406 Y-36.184
X25.373 Y-36.33
X25.329 Y-36.473
X25.274 Y-36.613
X25.21 Y-36.749
X25.138 Y-36.88
X25.058 Y-37.007
X24.97 Y-37.129
X24.948 Y-37.157
X24.7 Y-37.413
X24.411 Y-37.621
X24.09 Y-37.774
X23.747 Y-37.868
X23.392 Y-37.9
X21.695
X21.517 Y-37.891
