%
(1001)
(length along y axis. Origin far top left)
(T2  D=6 CR=0 - ZMIN=-22 - flat end mill)
G90 G94
G17
G21

(2D Adaptive11)
M9
T2 M6
S6500 M3
G54
M9
G0 X25.219 Y-11.939
Z15
Z5
Z3.1
G1 Z2.5 F250
G2 X22.647 Y-16.273 Z2.292 I-2.719 J-1.316 F200
X19.669 Y-12.214 Z2.084 I-0.147 J3.014
X24.563 Y-11.064 Z1.876 I2.827 J-1.043
X23.708 Y-16.012 Z1.668 I-2.064 J-2.191
X19.495 Y-13.291 Z1.459 I-1.207 J2.753
X23.642 Y-10.482 Z1.251 I3.003 J0.033
X24.603 Y-15.392 Z1.043 I-1.143 J-2.773
X19.714 Y-14.356 Z0.835 I-2.102 J2.134
X22.577 Y-10.268 Z0.627 I2.783 J1.097
X25.216 Y-14.497 Z0.419 I-0.079 J-2.987
X20.297 Y-15.269 Z0.211 I-2.715 J1.24
X21.51 Y-10.447 Z0.002 I2.201 J2.01
X25.468 Y-13.446 Z-0.206 I0.987 J-2.809
X21.164 Y-15.912 Z-0.414 I-2.968 J0.19
X20.58 Y-10.992 Z-0.622 I1.335 J2.653
X25.33 Y-12.379 Z-0.83 I1.917 J-2.264
X22.2 Y-16.203 Z-1.038 I-2.83 J-0.877
X19.908 Y-11.831 Z-1.246 I0.3 J2.944
X24.823 Y-11.434 Z-1.454 I2.588 J-1.427
X23.267 Y-16.105 Z-1.663 I-2.323 J-1.821
X19.581 Y-12.849 Z-1.871 I-0.766 J2.847
X24.014 Y-10.734 Z-2.079 I2.916 J-0.409
X24.225 Y-15.636 Z-2.287 I-1.515 J-2.521
X19.638 Y-13.914 Z-2.495 I-1.724 J2.378
X23.013 Y-10.371 Z-2.703 I2.86 J0.655
X24.951 Y-14.858 Z-2.911 I-0.515 J-2.884
X20.069 Y-14.885 Z-3.119 I-2.45 J1.601
X21.952 Y-10.388 Z-3.328 I2.429 J1.626
X25.35 Y-13.876 Z-3.536 I0.545 J-2.868
X20.815 Y-15.635 Z-3.744 I-2.849 J0.62
X20.971 Y-10.78 Z-3.952 I1.683 J2.376
X25.372 Y-12.821 Z-4.16 I1.526 J-2.476
X21.777 Y-16.069 Z-4.368 I-2.872 J-0.435
X20.197 Y-11.494 Z-4.576 I0.723 J2.81
X25.019 Y-11.83 Z-4.784 I2.3 J-1.763
X22.825 Y-16.131 Z-4.992 I-2.519 J-1.425
X19.73 Y-12.434 Z-5.201 I-0.325 J2.872
X24.338 Y-11.034 Z-5.409 I2.766 J-0.824
X23.823 Y-15.816 Z-5.617 I-1.838 J-2.221
X19.63 Y-13.474 Z-5.825 I-1.322 J2.558
X23.421 Y-10.535 Z-6.033 I2.868 J0.216
X24.64 Y-15.168 Z-6.241 I-0.922 J-2.72
X19.905 Y-14.478 Z-6.449 I-2.139 J1.911
X22.39 Y-10.396 Z-6.657 I2.592 J1.219
X25.171 Y-14.275 Z-6.866 I0.107 J-2.859
X20.519 Y-15.315 Z-7.074 I-2.67 J1.019
X21.382 Y-10.633 Z-7.282 I1.98 J2.056
X25.347 Y-13.256 Z-7.49 I1.115 J-2.623
X19.647 I-2.85
X25.347 I2.85
G1 X25.36 Y-14.142 F850
X25.393 Y-14.248
X25.421 Y-14.395
X25.43 Y-14.545
X25.423 Y-14.694
X25.403 Y-14.843
X25.37 Y-14.989
X25.325 Y-15.133
X25.271 Y-15.272
X25.207 Y-15.408
X25.135 Y-15.54
X25.055 Y-15.666
X24.967 Y-15.788
X24.87 Y-15.908
X24.764 Y-16.025
X24.648 Y-16.14
X24.523 Y-16.25
X24.389 Y-16.355
X24.246 Y-16.455
X24.095 Y-16.549
X23.936 Y-16.635
X23.77 Y-16.713
X23.597 Y-16.783
X23.419 Y-16.844
X23.235 Y-16.895
X23.046 Y-16.936
X22.853 Y-16.967
X22.657 Y-16.988
X22.459 Y-16.997
X22.259 Y-16.995
X22.058 Y-16.981
X21.857 Y-16.957
X21.656 Y-16.92
X21.457 Y-16.873
X21.26 Y-16.814
X21.066 Y-16.743
X20.876 Y-16.662
X20.69 Y-16.569
X20.508 Y-16.466
X20.333 Y-16.353
X20.164 Y-16.23
X20.001 Y-16.097
X19.846 Y-15.955
X19.699 Y-15.804
X19.561 Y-15.645
X19.542 Y-15.62
X19.363 Y-15.346
X19.231 Y-15.045
X19.15 Y-14.727
X19.122 Y-14.401
X19.117 Y-12.54
X19.125 Y-12.376
X19.14 Y-12.226
X19.164 Y-12.078
X19.198 Y-11.929
X19.241 Y-11.777
X19.294 Y-11.623
X19.357 Y-11.47
X19.43 Y-11.316
X19.513 Y-11.164
X19.607 Y-11.013
X19.711 Y-10.866
X19.824 Y-10.722
X19.948 Y-10.583
X20.081 Y-10.45
X20.223 Y-10.322
X20.373 Y-10.201
X20.416 Y-10.171
X20.68 Y-10.012
X20.967 Y-9.895
X21.268 Y-9.824
X21.576 Y-9.8
G2 X21.804 Y-9.854 I-0.021 J-0.6 F250
X22.008 Y-10.793 I-0.249 J-0.546 F850
G1 X20.169 Y-12.911
G2 X19.171 Y-12.768 I-0.453 J0.393
X19.117 Y-12.54 I0.545 J0.25 F250
G1 X19.113 Y-11.242 F850
X19.12 Y-11.092
X19.19 Y-10.795
X19.319 Y-10.519
X19.502 Y-10.275
X19.73 Y-10.074
X19.996 Y-9.924
X20.286 Y-9.831
X20.589 Y-9.8
G2 X20.817 Y-9.854 I-0.021 J-0.6 F250
X20.983 Y-10.833 I-0.249 J-0.546 F850
G1 X20.128 Y-11.652
G2 X19.167 Y-11.469 I-0.415 J0.433
X19.113 Y-11.242 I0.545 J0.25 F250
G1 X19.111 Y-10.527 F850
Y-10.477
Y-10.436
X19.119 Y-10.353
X19.124 Y-10.314
X19.131 Y-10.274
X19.138 Y-10.235
G2 X19.274 Y-10.045 I0.469 J-0.19 F250
X19.677 Y-9.924 I0.334 J-0.381 F850
X19.54 Y-10.911 I-0.068 J-0.494
X19.174 Y-10.661 I0.068 J0.494
X19.111 Y-10.436 I0.435 J0.244 F250
G1 X19.116 Y-10.336 F850
X19.138 Y-10.235
X19.157 Y-10.185
X19.181 Y-10.134
X19.211 Y-10.084
X19.248 Y-10.034
X19.28 Y-9.997
X19.33 Y-9.948
X19.381 Y-9.908
X19.431 Y-9.877
X19.481 Y-9.852
X19.53 Y-9.832
X19.607 Y-9.812
X19.683 Y-9.801
X19.884 Y-9.8
X23.104
X23.288 Y-9.809
X23.441 Y-9.826
X23.597 Y-9.851
X23.756 Y-9.886
X23.916 Y-9.932
X24.077 Y-9.987
X24.238 Y-10.053
X24.398 Y-10.129
X24.557 Y-10.216
X24.712 Y-10.313
X24.865 Y-10.42
X25.013 Y-10.537
X25.155 Y-10.664
X25.292 Y-10.8
X25.423 Y-10.945
X25.444 Y-10.972
X25.633 Y-11.254
X25.772 Y-11.563
X25.856 Y-11.891
X25.884 Y-12.229
G2 X25.83 Y-12.457 I-0.6 J0.023 F250
X24.9 Y-12.667 I-0.545 J0.25 F850
G1 X22.74 Y-10.86
G2 X22.876 Y-9.854 I0.385 J0.46
X23.104 Y-9.8 I0.249 J-0.546 F250
G1 X24.422 F850
X24.584 Y-9.808
X24.882 Y-9.872
X25.161 Y-9.997
X25.407 Y-10.176
X25.611 Y-10.403
X25.762 Y-10.668
X25.856 Y-10.958
X25.887 Y-11.262
G2 X25.833 Y-11.489 I-0.6 J0.023 F250
X24.864 Y-11.665 I-0.545 J0.25 F850
G1 X24.02 Y-10.825
G2 X24.194 Y-9.854 I0.423 J0.426
X24.422 Y-9.8 I0.249 J-0.546 F250
G1 X25.177 F850
X25.22 Y-9.801
X25.249
X25.291 Y-9.803
X25.351 Y-9.809
X25.411 Y-9.819
X25.47 Y-9.832
G2 X25.659 Y-9.969 I-0.217 J-0.502 F250
X25.794 Y-10.411 I-0.407 J-0.365 F850
X24.734 Y-10.261 I-0.53 J0.075
X25.023 Y-9.858 I0.53 J-0.075
X25.249 Y-9.801 I0.241 J-0.478 F250
G1 X25.317 F850
X25.393 Y-9.812
X25.47 Y-9.832
X25.519 Y-9.852
X25.569 Y-9.877
X25.619 Y-9.908
X25.67 Y-9.948
X25.72 Y-9.997
X25.752 Y-10.034
X25.789 Y-10.084
X25.819 Y-10.134
X25.843 Y-10.185
X25.862 Y-10.235
X25.884 Y-10.336
X25.889 Y-10.436
X25.876 Y-15.067
X25.868 Y-15.217
X25.85 Y-15.366
X25.821 Y-15.513
X25.783 Y-15.658
X25.736 Y-15.801
X25.681 Y-15.94
X25.617 Y-16.078
X25.541 Y-16.218
X25.455 Y-16.36
X25.357 Y-16.501
X25.249 Y-16.64
X25.13 Y-16.776
X25 Y-16.909
X24.859 Y-17.039
X24.705 Y-17.164
X24.541 Y-17.284
X24.366 Y-17.396
X24.182 Y-17.5
X23.989 Y-17.596
X23.788 Y-17.681
X23.578 Y-17.757
X23.36 Y-17.822
X23.136 Y-17.876
X22.905 Y-17.917
X22.669 Y-17.946
X22.429 Y-17.961
X22.185 Y-17.963
X21.939 Y-17.951
X21.692 Y-17.926
X21.445 Y-17.886
X21.199 Y-17.831
X20.954 Y-17.763
X20.712 Y-17.68
X20.474 Y-17.583
X20.241 Y-17.473
X20.17 Y-17.434
X19.873 Y-17.237
X19.617 Y-16.99
X19.408 Y-16.702
X19.254 Y-16.381
X19.159 Y-16.038
X19.126 Y-15.683
X19.122 Y-14.401
G2 X19.175 Y-14.173 I0.6 J-0.019 F250
X19.793 Y-13.824 I0.547 J-0.247 F850
G1 X25.348 Y-14.491
G2 X25.823 Y-14.839 I-0.071 J-0.596
X25.876 Y-15.067 I-0.547 J-0.247 F250
G1 X25.872 Y-16.185 F850
X25.865 Y-16.334
X25.848 Y-16.484
X25.818 Y-16.631
X25.776 Y-16.775
X25.723 Y-16.915
X25.662 Y-17.052
X25.591 Y-17.184
X25.512 Y-17.315
X25.422 Y-17.446
X25.319 Y-17.579
X25.201 Y-17.714
X25.072 Y-17.847
X24.931 Y-17.977
X24.776 Y-18.104
X24.606 Y-18.228
X24.422 Y-18.347
X24.227 Y-18.458
X24.021 Y-18.56
X23.802 Y-18.654
X23.571 Y-18.738
X23.329 Y-18.811
X23.075 Y-18.872
X22.813 Y-18.92
X22.544 Y-18.953
X22.27 Y-18.972
X21.99 Y-18.975
X21.706 Y-18.962
X21.426 Y-18.933
X21.177 Y-18.893
X20.913 Y-18.836
X20.697 Y-18.776
X20.474 Y-18.7
X20.381 Y-18.663
X20.079 Y-18.51
X19.808 Y-18.309
X19.574 Y-18.065
X19.384 Y-17.785
X19.245 Y-17.478
X19.159 Y-17.151
X19.129 Y-16.814
X19.126 Y-15.683
G2 X19.179 Y-15.455 I0.6 J-0.019 F250
X19.78 Y-15.105 I0.547 J-0.247 F850
G1 X25.327 Y-15.606
G2 X25.819 Y-15.957 I-0.054 J-0.598
X25.872 Y-16.185 I-0.547 J-0.247 F250
G1 X25.869 Y-17.241 F850
X25.861 Y-17.391
X25.84 Y-17.539
X25.804 Y-17.685
X25.757 Y-17.828
X25.7 Y-17.966
X25.634 Y-18.101
X25.559 Y-18.231
X25.474 Y-18.362
X25.375 Y-18.497
X25.264 Y-18.63
X25.14 Y-18.764
X25 Y-18.9
X24.844 Y-19.035
X24.676 Y-19.163
X24.493 Y-19.289
X24.292 Y-19.41
X24.074 Y-19.525
X23.844 Y-19.63
X23.603 Y-19.725
X23.347 Y-19.809
X23.077 Y-19.881
X22.799 Y-19.938
X22.512 Y-19.981
X22.224 Y-20.008
X21.934 Y-20.018
X21.67 Y-20.013
X21.396 Y-19.991
X21.157 Y-19.959
X20.932 Y-19.916
X20.703 Y-19.859
X20.511 Y-19.799
X20.43 Y-19.768
X20.119 Y-19.62
X19.838 Y-19.42
X19.595 Y-19.175
X19.398 Y-18.891
X19.253 Y-18.579
X19.163 Y-18.245
X19.133 Y-17.902
X19.129 Y-16.814
G2 X19.182 Y-16.586 I0.6 J-0.019 F250
X19.775 Y-16.235 I0.547 J-0.247 F850
G1 X25.316 Y-16.662
G2 X25.816 Y-17.013 I-0.046 J-0.598
X25.869 Y-17.241 I-0.547 J-0.247 F250
G1 X25.867 Y-18.198 F850
X25.859 Y-18.348
X25.84 Y-18.497
X25.808 Y-18.643
X25.763 Y-18.786
X25.708 Y-18.926
X25.643 Y-19.061
X25.571 Y-19.192
X25.488 Y-19.323
X25.39 Y-19.46
X25.279 Y-19.599
X25.156 Y-19.735
X25.015 Y-19.875
X24.857 Y-20.016
X24.686 Y-20.151
X24.499 Y-20.283
X24.292 Y-20.411
X24.068 Y-20.534
X23.831 Y-20.647
X23.581 Y-20.749
X23.32 Y-20.838
X23.047 Y-20.915
X22.768 Y-20.977
X22.485 Y-21.024
X22.198 Y-21.054
X21.917 Y-21.068
X21.667 Y-21.067
X21.398 Y-21.05
X21.174 Y-21.023
X20.944 Y-20.982
X20.726 Y-20.931
X20.537 Y-20.874
X20.46 Y-20.847
X20.143 Y-20.701
X19.856 Y-20.502
X19.608 Y-20.256
X19.407 Y-19.971
X19.259 Y-19.655
X19.167 Y-19.318
X19.136 Y-18.97
X19.133 Y-17.902
G2 X19.186 Y-17.674 I0.6 J-0.019 F250
X19.764 Y-17.322 I0.547 J-0.247 F850
G1 X25.299 Y-17.618
G2 X25.814 Y-17.97 I-0.032 J-0.599
X25.867 Y-18.198 I-0.547 J-0.247 F250
G1 X25.864 Y-19.205 F850
X25.856 Y-19.355
X25.836 Y-19.503
X25.802 Y-19.649
X25.757 Y-19.792
X25.701 Y-19.932
X25.636 Y-20.067
X25.562 Y-20.201
X25.478 Y-20.334
X25.379 Y-20.474
X25.263 Y-20.619
X25.136 Y-20.76
X24.992 Y-20.903
X24.829 Y-21.048
X24.652 Y-21.189
X24.461 Y-21.323
X24.251 Y-21.454
X24.023 Y-21.579
X23.78 Y-21.695
X23.527 Y-21.799
X23.264 Y-21.89
X22.991 Y-21.967
X22.715 Y-22.029
X22.434 Y-22.075
X22.152 Y-22.105
X21.885 Y-22.119
X21.635 Y-22.117
X21.375 Y-22.101
X21.16 Y-22.076
X20.927 Y-22.035
X20.719 Y-21.986
X20.529 Y-21.93
X20.465 Y-21.907
X20.148 Y-21.761
X19.861 Y-21.562
X19.612 Y-21.316
X19.411 Y-21.031
X19.262 Y-20.715
X19.17 Y-20.377
X19.139 Y-20.03
X19.136 Y-18.97
G2 X19.189 Y-18.742 I0.6 J-0.019 F250
X19.761 Y-18.39 I0.547 J-0.247 F850
G1 X25.289 Y-18.625
G2 X25.811 Y-18.977 I-0.025 J-0.599
X25.864 Y-19.205 I-0.547 J-0.247 F250
G1 X25.861 Y-20.212 F850
X25.853 Y-20.361
X25.833 Y-20.51
X25.8 Y-20.656
X25.755 Y-20.8
X25.7 Y-20.939
X25.637 Y-21.075
X25.564 Y-21.208
X25.48 Y-21.344
X25.379 Y-21.489
X25.266 Y-21.632
X25.138 Y-21.777
X24.991 Y-21.925
X24.829 Y-22.072
X24.654 Y-22.213
X24.46 Y-22.352
X24.249 Y-22.486
X24.02 Y-22.614
X23.78 Y-22.731
X23.529 Y-22.836
X23.268 Y-22.928
X22.998 Y-23.007
X22.724 Y-23.07
X22.445 Y-23.119
X22.165 Y-23.151
X21.898 Y-23.167
X21.653
X21.394 Y-23.153
X21.179 Y-23.13
X20.949 Y-23.091
X20.74 Y-23.043
X20.552 Y-22.99
X20.483 Y-22.965
X20.163 Y-22.821
X19.872 Y-22.623
X19.621 Y-22.376
X19.417 Y-22.09
X19.267 Y-21.772
X19.174 Y-21.433
X19.142 Y-21.083
X19.139 Y-20.03
G2 X19.192 Y-19.801 I0.6 J-0.019 F250
X19.758 Y-19.449 I0.547 J-0.247 F850
G1 X25.281 Y-19.631
G2 X25.808 Y-19.983 I-0.02 J-0.6
X25.861 Y-20.212 I-0.547 J-0.247 F250
G1 X25.858 Y-21.218 F850
X25.85 Y-21.368
X25.832 Y-21.517
X25.801 Y-21.664
X25.758 Y-21.807
X25.704 Y-21.948
X25.642 Y-22.084
X25.572 Y-22.217
X25.488 Y-22.355
X25.389 Y-22.5
X25.278 Y-22.644
X25.152 Y-22.791
X25.007 Y-22.941
X24.847 Y-23.088
X24.674 Y-23.231
X24.483 Y-23.372
X24.273 Y-23.508
X24.047 Y-23.638
X23.809 Y-23.757
X23.56 Y-23.864
X23.302 Y-23.959
X23.034 Y-24.041
X22.761 Y-24.107
X22.484 Y-24.158
X22.206 Y-24.194
X21.938 Y-24.212
X21.695 Y-24.216
X21.434 Y-24.204
X21.218 Y-24.183
X20.99 Y-24.147
X20.776 Y-24.101
X20.59 Y-24.05
X20.508 Y-24.023
X20.183 Y-23.88
X19.888 Y-23.682
X19.633 Y-23.436
X19.425 Y-23.148
X19.272 Y-22.828
X19.177 Y-22.486
X19.145 Y-22.133
X19.142 Y-21.083
G2 X19.195 Y-20.855 I0.6 J-0.019 F250
X19.756 Y-20.502 I0.547 J-0.247 F850
G1 X25.273 Y-20.638
G2 X25.805 Y-20.99 I-0.015 J-0.6
X25.858 Y-21.218 I-0.547 J-0.247 F250
G1 X25.855 Y-22.275 F850
X25.847 Y-22.425
X25.826 Y-22.573
X25.793 Y-22.719
X25.748 Y-22.863
X25.694 Y-23.002
X25.631 Y-23.138
X25.556 Y-23.277
X25.472 Y-23.415
X25.371 Y-23.56
X25.254 Y-23.709
X25.126 Y-23.855
X24.981 Y-24.003
X24.817 Y-24.152
X24.637 Y-24.298
X24.445 Y-24.437
X24.236 Y-24.571
X24.009 Y-24.699
X23.767 Y-24.818
X23.516 Y-24.924
X23.254 Y-25.018
X22.986 Y-25.098
X22.713 Y-25.162
X22.437 Y-25.211
X22.162 Y-25.244
X21.905 Y-25.26
X21.652 Y-25.261
X21.402 Y-25.249
X21.19 Y-25.226
X20.957 Y-25.188
X20.753 Y-25.143
X20.563 Y-25.089
X20.497 Y-25.066
X20.175 Y-24.922
X19.883 Y-24.724
X19.63 Y-24.478
X19.425 Y-24.191
X19.274 Y-23.872
X19.18 Y-23.532
X19.148 Y-23.181
X19.145 Y-22.133
G2 X19.198 Y-21.905 I0.6 J-0.019 F250
X19.76 Y-21.552 I0.547 J-0.247 F850
G1 X25.27 Y-21.694
G2 X25.802 Y-22.047 I-0.015 J-0.6
X25.855 Y-22.275 I-0.547 J-0.247 F250
G1 X25.852 Y-23.322 F850
X25.844 Y-23.472
X25.823 Y-23.621
X25.789 Y-23.767
X25.744 Y-23.91
X25.689 Y-24.049
X25.625 Y-24.185
X25.551 Y-24.322
X25.466 Y-24.461
X25.364 Y-24.608
X25.248 Y-24.756
X25.119 Y-24.902
X24.972 Y-25.052
X24.807 Y-25.202
X24.629 Y-25.346
X24.435 Y-25.486
X24.224 Y-25.621
X23.996 Y-25.749
X23.755 Y-25.867
X23.503 Y-25.973
X23.242 Y-26.067
X22.975 Y-26.145
X22.703 Y-26.209
X22.428 Y-26.258
X22.152 Y-26.29
X21.896 Y-26.306
X21.647 Y-26.307
X21.396 Y-26.294
X21.185 Y-26.272
X20.953 Y-26.233
X20.749 Y-26.188
X20.561 Y-26.134
X20.498 Y-26.112
X20.176 Y-25.968
X19.885 Y-25.77
X19.633 Y-25.524
X19.428 Y-25.237
X19.276 Y-24.919
X19.183 Y-24.579
X19.151 Y-24.228
X19.148 Y-23.181
G2 X19.201 Y-22.953 I0.6 J-0.019 F250
X19.763 Y-22.6 I0.547 J-0.247 F850
G1 X25.267 Y-22.742
G2 X25.799 Y-23.094 I-0.015 J-0.6
X25.852 Y-23.322 I-0.547 J-0.247 F250
G1 X25.849 Y-24.329 F850
X25.841 Y-24.479
X25.823 Y-24.628
X25.793 Y-24.775
X25.751 Y-24.919
X25.698 Y-25.059
X25.637 Y-25.196
X25.568 Y-25.329
X25.484 Y-25.47
X25.386 Y-25.616
X25.276 Y-25.76
X25.149 Y-25.909
X25.005 Y-26.06
X24.847 Y-26.208
X24.674 Y-26.352
X24.483 Y-26.495
X24.274 Y-26.633
X24.05 Y-26.763
X23.815 Y-26.883
X23.568 Y-26.991
X23.312 Y-27.088
X23.045 Y-27.171
X22.776 Y-27.238
X22.501 Y-27.291
X22.225 Y-27.328
X21.958 Y-27.348
X21.717 Y-27.353
X21.457 Y-27.344
X21.241 Y-27.324
X21.016 Y-27.29
X20.801 Y-27.245
X20.616 Y-27.196
X20.529 Y-27.167
X20.202 Y-27.026
X19.905 Y-26.829
X19.647 Y-26.582
X19.437 Y-26.294
X19.282 Y-25.972
X19.187 Y-25.629
X19.154 Y-25.273
X19.151 Y-24.228
G2 X19.204 Y-24 I0.6 J-0.019 F250
X19.762 Y-23.647 I0.547 J-0.247 F850
G1 X25.26 Y-23.748
G2 X25.796 Y-24.101 I-0.011 J-0.6
X25.849 Y-24.329 I-0.547 J-0.247 F250
G1 X25.845 Y-25.397 F850
X25.838 Y-25.546
X25.818 Y-25.695
X25.785 Y-25.841
X25.741 Y-25.985
X25.687 Y-26.125
X25.624 Y-26.261
X25.55 Y-26.4
X25.466 Y-26.539
X25.366 Y-26.684
X25.25 Y-26.834
X25.122 Y-26.981
X24.978 Y-27.129
X24.816 Y-27.278
X24.636 Y-27.425
X24.444 Y-27.565
X24.237 Y-27.699
X24.012 Y-27.827
X23.772 Y-27.947
X23.522 Y-28.054
X23.261 Y-28.148
X22.995 Y-28.228
X22.724 Y-28.294
X22.449 Y-28.343
X22.176 Y-28.377
X21.922 Y-28.394
X21.667 Y-28.397
X21.42 Y-28.386
X21.208 Y-28.364
X20.975 Y-28.327
X20.773 Y-28.282
X20.583 Y-28.23
X20.514 Y-28.206
X20.19 Y-28.063
X19.897 Y-27.865
X19.643 Y-27.619
X19.436 Y-27.331
X19.284 Y-27.012
X19.19 Y-26.671
X19.157 Y-26.318
X19.154 Y-25.273
G2 X19.207 Y-25.045 I0.6 J-0.019 F250
X19.767 Y-24.693 I0.547 J-0.247 F850
G1 X25.259 Y-24.816
G2 X25.792 Y-25.169 I-0.013 J-0.6
X25.845 Y-25.397 I-0.547 J-0.247 F250
G1 X25.842 Y-26.453 F850
X25.834 Y-26.603
X25.813 Y-26.751
X25.78 Y-26.898
X25.735 Y-27.041
X25.68 Y-27.181
X25.617 Y-27.316
X25.543 Y-27.454
X25.458 Y-27.593
X25.356 Y-27.739
X25.24 Y-27.888
X25.111 Y-28.035
X24.965 Y-28.184
X24.8 Y-28.335
X24.621 Y-28.48
X24.429 Y-28.619
X24.218 Y-28.754
X23.991 Y-28.882
X23.752 Y-28.999
X23.5 Y-29.106
X23.24 Y-29.199
X22.974 Y-29.278
X22.703 Y-29.342
X22.429 Y-29.391
X22.156 Y-29.423
X21.902 Y-29.439
X21.652 Y-29.441
X21.404 Y-29.428
X21.194 Y-29.406
X20.962 Y-29.368
X20.76 Y-29.323
X20.571 Y-29.27
X20.509 Y-29.248
X20.187 Y-29.105
X19.895 Y-28.906
X19.643 Y-28.66
X19.438 Y-28.373
X19.286 Y-28.055
X19.192 Y-27.714
X19.16 Y-27.363
X19.157 Y-26.318
G2 X19.21 Y-26.09 I0.6 J-0.019 F250
X19.772 Y-25.738 I0.547 J-0.247 F850
G1 X25.257 Y-25.873
G2 X25.789 Y-26.225 I-0.015 J-0.6
X25.842 Y-26.453 I-0.547 J-0.247 F250
G1 X25.839 Y-27.46 F850
X25.831 Y-27.61
X25.815 Y-27.759
X25.784 Y-27.906
X25.742 Y-28.05
X25.69 Y-28.19
X25.629 Y-28.327
X25.56 Y-28.46
X25.477 Y-28.601
X25.379 Y-28.747
X25.27 Y-28.891
X25.144 Y-29.04
X25 Y-29.191
X24.842 Y-29.339
X24.671 Y-29.483
X24.48 Y-29.625
X24.272 Y-29.763
X24.049 Y-29.894
X23.814 Y-30.013
X23.569 Y-30.122
X23.314 Y-30.218
X23.048 Y-30.301
X22.78 Y-30.369
X22.506 Y-30.422
X22.231 Y-30.459
X21.966 Y-30.48
X21.726 Y-30.485
X21.467 Y-30.476
X21.252 Y-30.457
X21.027 Y-30.423
X20.813 Y-30.379
X20.627 Y-30.33
X20.542 Y-30.302
X20.214 Y-30.161
X19.916 Y-29.964
X19.657 Y-29.717
X19.447 Y-29.428
X19.292 Y-29.106
X19.196 Y-28.762
X19.163 Y-28.407
X19.16 Y-27.363
G2 X19.213 Y-27.135 I0.6 J-0.019 F250
X19.771 Y-26.782 I0.547 J-0.247 F850
G1 X25.25 Y-26.879
G2 X25.786 Y-27.232 I-0.011 J-0.6
X25.839 Y-27.46 I-0.547 J-0.247 F250
G1 X25.836 Y-28.557 F850
X25.828 Y-28.707
X25.806 Y-28.855
X25.771 Y-29.001
X25.725 Y-29.144
X25.669 Y-29.283
X25.605 Y-29.419
X25.529 Y-29.559
X25.441 Y-29.7
X25.34 Y-29.844
X25.222 Y-29.993
X25.088 Y-30.143
X24.943 Y-30.29
X24.779 Y-30.437
X24.596 Y-30.584
X24.399 Y-30.724
X24.189 Y-30.857
X23.963 Y-30.982
X23.723 Y-31.099
X23.473 Y-31.203
X23.211 Y-31.295
X22.945 Y-31.372
X22.674 Y-31.434
X22.4 Y-31.481
X22.127 Y-31.512
X21.881 Y-31.526
X21.619
X21.384 Y-31.513
X21.171 Y-31.488
X20.94 Y-31.449
X20.746 Y-31.405
X20.55 Y-31.348
X20.504 Y-31.332
X20.184 Y-31.187
X19.894 Y-30.988
X19.644 Y-30.742
X19.441 Y-30.456
X19.291 Y-30.139
X19.198 Y-29.8
X19.166 Y-29.45
X19.163 Y-28.407
G2 X19.216 Y-28.179 I0.6 J-0.019 F250
X19.78 Y-27.826 I0.547 J-0.247 F850
G1 X25.253 Y-27.977
G2 X25.783 Y-28.329 I-0.016 J-0.6
X25.836 Y-28.557 I-0.547 J-0.247 F250
G1 X25.833 Y-29.564 F850
X25.825 Y-29.714
X25.807 Y-29.863
X25.776 Y-30.009
X25.733 Y-30.153
X25.679 Y-30.293
X25.618 Y-30.43
X25.548 Y-30.563
X25.463 Y-30.704
X25.364 Y-30.849
X25.254 Y-30.993
X25.126 Y-31.142
X24.981 Y-31.293
X24.823 Y-31.44
X24.65 Y-31.584
X24.458 Y-31.726
X24.248 Y-31.863
X24.024 Y-31.992
X23.789 Y-32.11
X23.544 Y-32.217
X23.287 Y-32.312
X23.022 Y-32.394
X22.754 Y-32.46
X22.479 Y-32.511
X22.206 Y-32.547
X21.942 Y-32.566
X21.703 Y-32.57
X21.447 Y-32.56
X21.234 Y-32.539
X21.009 Y-32.505
X20.798 Y-32.46
X20.613 Y-32.41
X20.537 Y-32.385
X20.211 Y-32.243
X19.916 Y-32.045
X19.659 Y-31.799
X19.451 Y-31.51
X19.297 Y-31.19
X19.202 Y-30.847
X19.169 Y-30.493
X19.166 Y-29.45
G2 X19.219 Y-29.222 I0.6 J-0.019 F250
X19.779 Y-28.87 I0.547 J-0.247 F850
G1 X25.246 Y-28.983
G2 X25.78 Y-29.336 I-0.012 J-0.6
X25.833 Y-29.564 I-0.547 J-0.247 F250
G1 X25.83 Y-30.631 F850
X25.822 Y-30.781
X25.801 Y-30.93
X25.768 Y-31.076
X25.723 Y-31.219
X25.668 Y-31.359
X25.605 Y-31.495
X25.53 Y-31.634
X25.444 Y-31.773
X25.344 Y-31.917
X25.227 Y-32.067
X25.098 Y-32.214
X24.953 Y-32.361
X24.79 Y-32.51
X24.609 Y-32.657
X24.417 Y-32.796
X24.208 Y-32.929
X23.983 Y-33.056
X23.744 Y-33.173
X23.495 Y-33.279
X23.234 Y-33.372
X22.969 Y-33.45
X22.699 Y-33.514
X22.426 Y-33.562
X22.155 Y-33.594
X21.905 Y-33.61
X21.65 Y-33.611
X21.408 Y-33.599
X21.198 Y-33.576
X20.966 Y-33.538
X20.768 Y-33.494
X20.577 Y-33.44
X20.52 Y-33.42
X20.198 Y-33.277
X19.907 Y-33.078
X19.655 Y-32.832
X19.449 Y-32.545
X19.298 Y-32.227
X19.205 Y-31.887
X19.173 Y-31.536
X19.169 Y-30.493
G2 X19.222 Y-30.265 I0.6 J-0.019 F250
X19.784 Y-29.912 I0.547 J-0.247 F850
G1 X25.246 Y-30.051
G2 X25.777 Y-30.403 I-0.015 J-0.6
X25.83 Y-30.631 I-0.547 J-0.247 F250
G1 X25.827 Y-31.688 F850
X25.819 Y-31.838
X25.797 Y-31.986
X25.762 Y-32.132
X25.716 Y-32.275
X25.661 Y-32.414
X25.597 Y-32.55
X25.522 Y-32.688
X25.436 Y-32.827
X25.333 Y-32.973
X25.215 Y-33.122
X25.086 Y-33.268
X24.938 Y-33.417
X24.772 Y-33.566
X24.593 Y-33.711
X24.4 Y-33.849
X24.189 Y-33.982
X23.962 Y-34.109
X23.722 Y-34.225
X23.471 Y-34.33
X23.211 Y-34.421
X22.947 Y-34.498
X22.677 Y-34.56
X22.404 Y-34.607
X22.132 Y-34.638
X21.884 Y-34.652
X21.633 Y-34.653
X21.39 Y-34.639
X21.182 Y-34.616
X20.952 Y-34.577
X20.753 Y-34.532
X20.564 Y-34.477
X20.515 Y-34.46
X20.195 Y-34.315
X19.905 Y-34.117
X19.654 Y-33.871
X19.451 Y-33.584
X19.3 Y-33.267
X19.207 Y-32.928
X19.176 Y-32.578
X19.173 Y-31.536
G2 X19.226 Y-31.308 I0.6 J-0.019 F250
X19.789 Y-30.955 I0.547 J-0.247 F850
G1 X25.244 Y-31.107
G2 X25.774 Y-31.46 I-0.017 J-0.6
X25.827 Y-31.688 I-0.547 J-0.247 F250
G1 X25.824 Y-32.695 F850
X25.816 Y-32.845
X25.798 Y-32.993
X25.766 Y-33.14
X25.724 Y-33.284
X25.67 Y-33.424
X25.608 Y-33.561
X25.539 Y-33.693
X25.454 Y-33.834
X25.355 Y-33.98
X25.245 Y-34.124
X25.118 Y-34.272
X24.972 Y-34.423
X24.814 Y-34.57
X24.641 Y-34.713
X24.45 Y-34.854
X24.241 Y-34.991
X24.017 Y-35.12
X23.782 Y-35.238
X23.537 Y-35.345
X23.282 Y-35.439
X23.018 Y-35.52
X22.751 Y-35.586
X22.478 Y-35.637
X22.205 Y-35.673
X21.944 Y-35.692
X21.705 Y-35.695
X21.45 Y-35.685
X21.239 Y-35.665
X21.014 Y-35.63
X20.803 Y-35.585
X20.619 Y-35.535
X20.546 Y-35.511
X20.22 Y-35.369
X19.924 Y-35.171
X19.668 Y-34.925
X19.46 Y-34.637
X19.306 Y-34.316
X19.211 Y-33.973
X19.179 Y-33.619
X19.176 Y-32.578
G2 X19.229 Y-32.35 I0.6 J-0.019 F250
X19.788 Y-31.998 I0.547 J-0.247 F850
G1 X25.237 Y-32.114
G2 X25.771 Y-32.467 I-0.013 J-0.6
X25.824 Y-32.695 I-0.547 J-0.247 F250
G1 X25.821 Y-33.751 F850
X25.813 Y-33.901
X25.793 Y-34.05
X25.76 Y-34.196
X25.716 Y-34.34
X25.662 Y-34.48
X25.6 Y-34.616
X25.526 Y-34.754
X25.442 Y-34.892
X25.342 Y-35.037
X25.226 Y-35.186
X25.099 Y-35.332
X24.955 Y-35.479
X24.793 Y-35.628
X24.615 Y-35.774
X24.424 Y-35.913
X24.217 Y-36.046
X23.993 Y-36.173
X23.755 Y-36.291
X23.507 Y-36.397
X23.249 Y-36.491
X22.985 Y-36.57
X22.717 Y-36.634
X22.445 Y-36.683
X22.174 Y-36.717
X21.924 Y-36.733
X21.672 Y-36.736
X21.428 Y-36.724
X21.219 Y-36.702
X20.987 Y-36.665
X20.787 Y-36.621
X20.598 Y-36.569
X20.537 Y-36.548
X20.213 Y-36.405
X19.92 Y-36.207
X19.667 Y-35.96
X19.46 Y-35.673
X19.308 Y-35.354
X19.214 Y-35.013
X19.182 Y-34.661
X19.179 Y-33.619
G2 X19.232 Y-33.391 I0.6 J-0.019 F250
X19.793 Y-33.039 I0.547 J-0.247 F850
G1 X25.236 Y-33.171
G2 X25.768 Y-33.523 I-0.015 J-0.6
X25.821 Y-33.751 I-0.547 J-0.247 F250
G1 X25.818 Y-34.799 F850
X25.81 Y-34.949
X25.79 Y-35.097
X25.756 Y-35.243
X25.712 Y-35.387
X25.658 Y-35.527
X25.595 Y-35.663
X25.521 Y-35.8
X25.437 Y-35.938
X25.336 Y-36.083
X25.221 Y-36.231
X25.093 Y-36.377
X24.948 Y-36.526
X24.784 Y-36.675
X24.607 Y-36.819
X24.417 Y-36.958
X24.208 Y-37.091
X23.983 Y-37.219
X23.746 Y-37.336
X23.497 Y-37.442
X23.24 Y-37.534
X22.977 Y-37.613
X22.709 Y-37.676
X22.437 Y-37.725
X22.166 Y-37.758
X21.916 Y-37.774
X21.668 Y-37.776
X21.422 Y-37.764
X21.214 Y-37.742
X20.984 Y-37.705
X20.782 Y-37.66
X20.595 Y-37.607
X20.536 Y-37.588
X20.214 Y-37.444
X19.921 Y-37.246
X19.668 Y-36.999
X19.463 Y-36.712
X19.311 Y-36.394
X19.217 Y-36.053
X19.185 Y-35.701
X19.182 Y-34.661
G2 X19.235 Y-34.432 I0.6 J-0.019 F250
X19.797 Y-34.08 I0.547 J-0.247 F850
G1 X25.233 Y-34.218
G2 X25.765 Y-34.571 I-0.015 J-0.6
X25.818 Y-34.799 I-0.547 J-0.247 F250
G1 X25.815 Y-35.805 F850
X25.807 Y-35.955
X25.79 Y-36.104
X25.76 Y-36.251
X25.719 Y-36.395
X25.667 Y-36.536
X25.606 Y-36.673
X25.537 Y-36.806
X25.454 Y-36.945
X25.356 Y-37.091
X25.345 Y-37.107
X25.096 Y-37.379
X24.802 Y-37.601
X24.471 Y-37.765
X24.117 Y-37.866
X23.75 Y-37.9
G2 X23.522 Y-37.846 I0.021 J0.6 F250
X23.342 Y-36.881 I0.249 J0.546 F850
G1 X24.786 Y-35.405
G2 X25.762 Y-35.577 I0.429 J-0.42
X25.815 Y-35.805 I-0.547 J-0.247 F250
G1 X25.812 Y-36.812 F850
X25.804 Y-36.962
X25.74 Y-37.212
X25.619 Y-37.44
X25.447 Y-37.632
X25.234 Y-37.778
X24.993 Y-37.869
X24.737 Y-37.9
G2 X24.509 Y-37.846 I0.021 J0.6 F250
X24.327 Y-36.883 I0.249 J0.546 F850
G1 X24.781 Y-36.414
G2 X25.759 Y-36.584 I0.431 J-0.418
X25.812 Y-36.812 I-0.547 J-0.247 F250
G1 X25.811 Y-37.215 F850
X25.81 Y-37.316
X25.796 Y-37.416
X25.767 Y-37.51
X25.746 Y-37.556
X25.72 Y-37.603
X25.711 Y-37.618
X25.667 Y-37.675
X25.615 Y-37.733
X25.567 Y-37.774
X25.519 Y-37.808
X25.5 Y-37.819
X25.409 Y-37.862
X25.317 Y-37.888
X25.217 Y-37.9
X20.377
X20.227 Y-37.893
X19.95 Y-37.819
X19.698 Y-37.682
X19.485 Y-37.489
X19.324 Y-37.252
X19.223 Y-36.984
X19.188 Y-36.699
G2 X19.219 Y-36.466 I1.151 J-0.037 F250
X20.645 Y-35.626 I1.119 J-0.27 F850
X20.61 Y-37.868 I-0.308 J-1.117
X20.377 Y-37.9 I-0.273 J1.126 F250
G1 X19.783 F850
X19.683 Y-37.888
X19.591 Y-37.862
X19.5 Y-37.819
X19.481 Y-37.808
X19.433 Y-37.774
X19.385 Y-37.733
X19.333 Y-37.675
X19.289 Y-37.618
X19.28 Y-37.603
X19.254 Y-37.556
X19.233 Y-37.51
X19.204 Y-37.416
X19.19 Y-37.316
X19.189 Y-37.014
X19.185 Y-35.701
G2 X19.238 Y-35.473 I0.6 J-0.019 F250
G1 X19.276 Y-35.388 Z-7.483
X19.314 Y-35.304 Z-7.461
X19.35 Y-35.225 Z-7.425
X19.383 Y-35.152 Z-7.375
X19.413 Y-35.087 Z-7.314
X19.438 Y-35.031 Z-7.243
X19.458 Y-34.986 Z-7.162
X19.473 Y-34.953 Z-7.075
X19.482 Y-34.933 Z-6.984
X19.485 Y-34.927 Z-6.89
G0 Z5
X25.219 Y-262.006
Z3.1
G1 Z2.5 F250
G2 X22.647 Y-266.339 Z2.292 I-2.719 J-1.316 F200
X19.669 Y-262.281 Z2.084 I-0.147 J3.014
X24.563 Y-261.131 Z1.876 I2.827 J-1.043
X23.708 Y-266.079 Z1.668 I-2.064 J-2.191
X19.495 Y-263.358 Z1.459 I-1.207 J2.753
X23.642 Y-260.549 Z1.251 I3.003 J0.033
X24.603 Y-265.459 Z1.043 I-1.143 J-2.773
X19.714 Y-264.423 Z0.835 I-2.102 J2.134
X22.577 Y-260.335 Z0.627 I2.783 J1.097
X25.216 Y-264.564 Z0.419 I-0.079 J-2.987
X20.297 Y-265.336 Z0.211 I-2.715 J1.24
X21.51 Y-260.514 Z0.002 I2.201 J2.01
X25.468 Y-263.513 Z-0.206 I0.987 J-2.809
X21.164 Y-265.979 Z-0.414 I-2.968 J0.19
X20.58 Y-261.059 Z-0.622 I1.335 J2.653
X25.33 Y-262.445 Z-0.83 I1.917 J-2.264
X22.2 Y-266.27 Z-1.038 I-2.83 J-0.877
X19.908 Y-261.898 Z-1.246 I0.3 J2.944
X24.823 Y-261.5 Z-1.454 I2.588 J-1.427
X23.267 Y-266.172 Z-1.663 I-2.323 J-1.821
X19.581 Y-262.916 Z-1.871 I-0.766 J2.847
X24.014 Y-260.801 Z-2.079 I2.916 J-0.409
X24.225 Y-265.703 Z-2.287 I-1.515 J-2.521
X19.638 Y-263.981 Z-2.495 I-1.724 J2.378
X23.013 Y-260.438 Z-2.703 I2.86 J0.655
X24.951 Y-264.925 Z-2.911 I-0.515 J-2.884
X20.069 Y-264.952 Z-3.119 I-2.45 J1.601
X21.952 Y-260.455 Z-3.328 I2.429 J1.626
X25.35 Y-263.943 Z-3.536 I0.545 J-2.868
X20.815 Y-265.702 Z-3.744 I-2.849 J0.62
X20.971 Y-260.847 Z-3.952 I1.683 J2.376
X25.372 Y-262.888 Z-4.16 I1.526 J-2.476
X21.777 Y-266.136 Z-4.368 I-2.872 J-0.435
X20.197 Y-261.561 Z-4.576 I0.723 J2.81
X25.019 Y-261.897 Z-4.784 I2.3 J-1.763
X22.825 Y-266.198 Z-4.992 I-2.519 J-1.425
X19.73 Y-262.501 Z-5.201 I-0.325 J2.872
X24.338 Y-261.101 Z-5.409 I2.766 J-0.824
X23.823 Y-265.883 Z-5.617 I-1.838 J-2.221
X19.63 Y-263.541 Z-5.825 I-1.322 J2.558
X23.421 Y-260.602 Z-6.033 I2.868 J0.216
X24.64 Y-265.235 Z-6.241 I-0.922 J-2.72
X19.905 Y-264.545 Z-6.449 I-2.139 J1.911
X22.39 Y-260.463 Z-6.657 I2.592 J1.219
X25.171 Y-264.342 Z-6.866 I0.107 J-2.859
X20.519 Y-265.382 Z-7.074 I-2.67 J1.019
X21.382 Y-260.7 Z-7.282 I1.98 J2.056
X25.347 Y-263.323 Z-7.49 I1.115 J-2.623
X23.147 Y-266.098 I-2.85
X21.847 Y-260.548 I-0.65 J2.775
X24.268 Y-261.089 I0.65 J-2.775
X25.347 Y-263.323 I-1.771 J-2.233
G1 X25.36 Y-264.209 F850
X25.393 Y-264.315
X25.421 Y-264.462
X25.43 Y-264.612
X25.423 Y-264.761
X25.403 Y-264.91
X25.37 Y-265.056
X25.325 Y-265.2
X25.271 Y-265.339
X25.207 Y-265.475
X25.135 Y-265.607
X25.055 Y-265.733
X24.967 Y-265.855
X24.87 Y-265.975
X24.764 Y-266.092
X24.648 Y-266.207
X24.523 Y-266.317
X24.389 Y-266.422
X24.246 Y-266.522
X24.095 Y-266.616
X23.936 Y-266.702
X23.77 Y-266.78
X23.597 Y-266.85
X23.419 Y-266.911
X23.235 Y-266.962
X23.046 Y-267.003
X22.853 Y-267.034
X22.657 Y-267.054
X22.459 Y-267.064
X22.259 Y-267.062
X22.058 Y-267.048
X21.857 Y-267.024
X21.656 Y-266.987
X21.457 Y-266.94
X21.26 Y-266.881
X21.066 Y-266.81
X20.876 Y-266.729
X20.69 Y-266.636
X20.508 Y-266.533
X20.333 Y-266.42
X20.164 Y-266.297
X20.001 Y-266.164
X19.846 Y-266.022
X19.699 Y-265.871
X19.641 Y-265.804
X19.431 Y-265.514
X19.277 Y-265.192
X19.182 Y-264.847
X19.15 Y-264.491
Y-262.517
X19.157 Y-262.367
X19.175 Y-262.218
X19.202 Y-262.07
X19.238 Y-261.923
X19.283 Y-261.774
X19.338 Y-261.623
X19.403 Y-261.472
X19.478 Y-261.321
X19.563 Y-261.172
X19.659 Y-261.024
X19.764 Y-260.88
X19.88 Y-260.739
X20.005 Y-260.603
X20.139 Y-260.472
X20.283 Y-260.348
X20.435 Y-260.231
X20.595 Y-260.121
X20.645 Y-260.09
X20.971 Y-259.931
X21.321 Y-259.833
X21.683 Y-259.8
G2 X21.91 Y-259.854 I-0.021 J-0.6 F250
X22.105 Y-260.804 I-0.249 J-0.546 F850
G1 X20.193 Y-262.9
G2 X19.204 Y-262.745 I-0.443 J0.404
X19.15 Y-262.517 I0.546 J0.249 F250
G1 Y-261.309 F850
X19.157 Y-261.159
X19.226 Y-260.848
X19.357 Y-260.558
X19.545 Y-260.301
X19.783 Y-260.089
X20.059 Y-259.931
X20.361 Y-259.833
X20.678 Y-259.8
G2 X20.906 Y-259.854 I-0.021 J-0.6 F250
X21.077 Y-260.828 I-0.249 J-0.546 F850
G1 X20.169 Y-261.717
G2 X19.204 Y-261.537 I-0.42 J0.429
X19.15 Y-261.309 I0.546 J0.249 F250
G1 Y-260.544 F850
Y-260.503
Y-260.473
X19.156 Y-260.353
X19.161 Y-260.302
G2 X19.266 Y-260.093 I0.581 J-0.161 F250
X19.781 Y-259.861 I0.476 J-0.37 F850
X19.705 Y-261.045 I-0.038 J-0.592
X19.204 Y-260.701 I0.038 J0.592
X19.15 Y-260.473 I0.539 J0.248 F250
G1 Y-260.403 F850
X19.161 Y-260.302
X19.168 Y-260.274
X19.173 Y-260.252
X19.19 Y-260.201
X19.212 Y-260.151
X19.24 Y-260.101
X19.28 Y-260.043
X19.356 Y-259.959
X19.432 Y-259.899
X19.481 Y-259.87
X19.532 Y-259.846
X19.582 Y-259.828
X19.683 Y-259.805
X19.884 Y-259.8
X22.902
X23.206 Y-259.815
X23.368 Y-259.832
X23.532 Y-259.859
X23.699 Y-259.897
X23.866 Y-259.944
X24.034 Y-260.002
X24.201 Y-260.07
X24.367 Y-260.149
X24.53 Y-260.238
X24.691 Y-260.338
X24.847 Y-260.448
X24.998 Y-260.568
X25.144 Y-260.697
X25.284 Y-260.836
X25.337 Y-260.896
X25.556 Y-261.189
X25.717 Y-261.517
X25.817 Y-261.869
X25.85 Y-262.233
G2 X25.796 Y-262.461 I-0.6 J0.021 F250
X24.882 Y-262.685 I-0.546 J0.249 F850
G1 X22.555 Y-260.873
G2 X22.675 Y-259.854 I0.369 J0.473
X22.902 Y-259.8 I0.249 J-0.546 F250
G1 X24.422 F850
X24.572 Y-259.807
X24.865 Y-259.876
X25.138 Y-260.004
X25.379 Y-260.184
X25.579 Y-260.411
X25.727 Y-260.673
X25.819 Y-260.96
X25.85 Y-261.26
G2 X25.796 Y-261.487 I-0.6 J0.021 F250
X24.818 Y-261.655 I-0.546 J0.249 F850
G1 X24.011 Y-260.816
G2 X24.194 Y-259.854 I0.432 J0.416
X24.422 Y-259.8 I0.249 J-0.546 F250
G1 X25.116 F850
X25.177 Y-259.802
X25.22 Y-259.803
X25.249 Y-259.804
X25.314 Y-259.81
X25.366 Y-259.818
X25.418 Y-259.828
G2 X25.605 Y-259.967 I-0.173 J-0.427 F250
X25.701 Y-260.321 I-0.36 J-0.288 F850
X24.805 Y-260.192 I-0.448 J0.065
X25.024 Y-259.865 I0.448 J-0.065
X25.249 Y-259.804 I0.228 J-0.391 F250
G1 X25.317 Y-259.805 F850
X25.418 Y-259.828
X25.468 Y-259.846
X25.519 Y-259.87
X25.568 Y-259.899
X25.644 Y-259.959
X25.72 Y-260.043
X25.76 Y-260.101
X25.788 Y-260.151
X25.81 Y-260.201
X25.827 Y-260.252
X25.839 Y-260.302
X25.85 Y-260.403
Y-265.134
X25.842 Y-265.286
X25.826 Y-265.435
X25.8 Y-265.583
X25.763 Y-265.728
X25.717 Y-265.871
X25.663 Y-266.011
X25.6 Y-266.147
X25.527 Y-266.285
X25.442 Y-266.425
X25.347 Y-266.565
X25.241 Y-266.702
X25.124 Y-266.837
X24.996 Y-266.969
X24.856 Y-267.098
X24.705 Y-267.223
X24.542 Y-267.342
X24.37 Y-267.455
X24.188 Y-267.559
X23.997 Y-267.654
X23.797 Y-267.741
X23.589 Y-267.817
X23.373 Y-267.883
X23.149 Y-267.937
X22.919 Y-267.979
X22.684 Y-268.009
X22.445 Y-268.026
X22.202 Y-268.029
X21.956 Y-268.018
X21.71 Y-267.994
X21.464 Y-267.955
X21.218 Y-267.902
X20.973 Y-267.835
X20.732 Y-267.754
X20.494 Y-267.658
X20.269 Y-267.553
X20.202 Y-267.517
X19.903 Y-267.32
X19.644 Y-267.072
X19.433 Y-266.782
X19.278 Y-266.459
X19.182 Y-266.113
X19.15 Y-265.756
Y-264.491
G2 X19.204 Y-264.263 I0.6 J-0.021 F250
X19.819 Y-263.916 I0.546 J-0.249 F850
G1 X25.32 Y-264.559
G2 X25.796 Y-264.906 I-0.07 J-0.596
X25.85 Y-265.134 I-0.546 J-0.249 F250
G1 Y-266.252 F850
X25.842 Y-266.406
X25.826 Y-266.555
X25.797 Y-266.702
X25.755 Y-266.846
X25.703 Y-266.987
X25.641 Y-267.124
X25.571 Y-267.256
X25.491 Y-267.387
X25.401 Y-267.518
X25.299 Y-267.649
X25.183 Y-267.783
X25.054 Y-267.917
X24.913 Y-268.046
X24.759 Y-268.172
X24.591 Y-268.294
X24.408 Y-268.413
X24.212 Y-268.524
X24.006 Y-268.627
X23.789 Y-268.72
X23.56 Y-268.803
X23.318 Y-268.876
X23.067 Y-268.936
X22.805 Y-268.984
X22.536 Y-269.017
X22.262 Y-269.035
X21.982 Y-269.038
X21.699 Y-269.025
X21.427 Y-268.998
X21.179 Y-268.958
X20.92 Y-268.902
X20.71 Y-268.843
X20.486 Y-268.767
X20.401 Y-268.733
X20.099 Y-268.58
X19.827 Y-268.378
X19.593 Y-268.133
X19.403 Y-267.853
X19.264 Y-267.544
X19.179 Y-267.216
X19.15 Y-266.878
Y-265.756
G2 X19.204 Y-265.528 I0.6 J-0.021 F250
X19.803 Y-265.179 I0.546 J-0.249 F850
G1 X25.304 Y-265.675
G2 X25.796 Y-266.024 I-0.054 J-0.598
X25.85 Y-266.252 I-0.546 J-0.249 F250
G1 Y-267.308 F850
X25.843 Y-267.458
X25.821 Y-267.606
X25.786 Y-267.752
X25.739 Y-267.895
X25.682 Y-268.033
X25.616 Y-268.168
X25.541 Y-268.298
X25.456 Y-268.428
X25.357 Y-268.563
X25.247 Y-268.697
X25.124 Y-268.83
X24.984 Y-268.965
X24.828 Y-269.1
X24.661 Y-269.228
X24.479 Y-269.353
X24.279 Y-269.473
X24.062 Y-269.588
X23.832 Y-269.693
X23.592 Y-269.788
X23.336 Y-269.872
X23.068 Y-269.943
X22.792 Y-270.001
X22.508 Y-270.043
X22.222 Y-270.069
X21.935 Y-270.08
X21.675 Y-270.074
X21.404 Y-270.054
X21.168 Y-270.022
X20.943 Y-269.979
X20.717 Y-269.922
X20.526 Y-269.863
X20.448 Y-269.833
X20.136 Y-269.685
X19.854 Y-269.484
X19.611 Y-269.238
X19.414 Y-268.954
X19.269 Y-268.64
X19.18 Y-268.305
X19.15 Y-267.961
Y-266.878
G2 X19.204 Y-266.651 I0.6 J-0.021 F250
X19.796 Y-266.301 I0.546 J-0.249 F850
G1 X25.297 Y-266.731
G2 X25.796 Y-267.08 I-0.047 J-0.598
X25.85 Y-267.308 I-0.546 J-0.249 F250
G1 Y-268.265 F850
X25.843 Y-268.415
X25.824 Y-268.564
X25.791 Y-268.71
X25.747 Y-268.853
X25.691 Y-268.993
X25.627 Y-269.128
X25.554 Y-269.259
X25.472 Y-269.389
X25.374 Y-269.526
X25.262 Y-269.665
X25.139 Y-269.801
X24.999 Y-269.941
X24.84 Y-270.081
X24.669 Y-270.217
X24.482 Y-270.348
X24.277 Y-270.475
X24.053 Y-270.597
X23.816 Y-270.71
X23.567 Y-270.811
X23.308 Y-270.9
X23.037 Y-270.977
X22.76 Y-271.038
X22.479 Y-271.084
X22.195 Y-271.114
X21.917 Y-271.127
X21.669 Y-271.126
X21.402 Y-271.109
X21.181 Y-271.082
X20.952 Y-271.041
X20.736 Y-270.99
X20.547 Y-270.934
X20.473 Y-270.907
X20.156 Y-270.76
X19.869 Y-270.561
X19.621 Y-270.314
X19.42 Y-270.028
X19.271 Y-269.711
X19.181 Y-269.374
X19.15 Y-269.025
Y-267.961
G2 X19.204 Y-267.733 I0.6 J-0.021 F250
X19.783 Y-267.382 I0.546 J-0.249 F850
G1 X25.284 Y-267.687
G2 X25.796 Y-268.037 I-0.033 J-0.599
X25.85 Y-268.265 I-0.546 J-0.249 F250
G1 Y-269.272 F850
X25.843 Y-269.422
X25.822 Y-269.57
X25.788 Y-269.716
X25.742 Y-269.859
X25.686 Y-269.998
X25.622 Y-270.134
X25.547 Y-270.268
X25.463 Y-270.401
X25.363 Y-270.541
X25.247 Y-270.685
X25.12 Y-270.826
X24.975 Y-270.969
X24.812 Y-271.114
X24.635 Y-271.254
X24.444 Y-271.388
X24.234 Y-271.519
X24.007 Y-271.643
X23.764 Y-271.758
X23.512 Y-271.861
X23.25 Y-271.951
X22.979 Y-272.027
X22.704 Y-272.088
X22.425 Y-272.133
X22.146 Y-272.163
X21.882 Y-272.176
X21.633 Y-272.174
X21.376 Y-272.158
X21.162 Y-272.132
X20.93 Y-272.09
X20.724 Y-272.042
X20.534 Y-271.985
X20.473 Y-271.963
X20.156 Y-271.817
X19.869 Y-271.617
X19.621 Y-271.37
X19.42 Y-271.084
X19.271 Y-270.767
X19.181 Y-270.43
X19.15 Y-270.081
Y-269.025
G2 X19.204 Y-268.797 I0.6 J-0.021 F250
X19.777 Y-268.447 I0.546 J-0.249 F850
G1 X25.277 Y-268.693
G2 X25.796 Y-269.044 I-0.027 J-0.599
X25.85 Y-269.272 I-0.546 J-0.249 F250
G1 Y-270.279 F850
X25.843 Y-270.428
X25.822 Y-270.577
X25.788 Y-270.723
X25.743 Y-270.866
X25.688 Y-271.006
X25.624 Y-271.141
X25.551 Y-271.274
X25.466 Y-271.411
X25.364 Y-271.555
X25.25 Y-271.699
X25.122 Y-271.843
X24.975 Y-271.991
X24.812 Y-272.138
X24.636 Y-272.278
X24.443 Y-272.416
X24.232 Y-272.55
X24.004 Y-272.676
X23.763 Y-272.793
X23.513 Y-272.897
X23.253 Y-272.988
X22.983 Y-273.066
X22.711 Y-273.128
X22.433 Y-273.176
X22.155 Y-273.207
X21.891 Y-273.222
X21.647
X21.39 Y-273.207
X21.177 Y-273.183
X20.947 Y-273.144
X20.739 Y-273.096
X20.552 Y-273.042
X20.486 Y-273.019
X20.166 Y-272.874
X19.876 Y-272.674
X19.626 Y-272.427
X19.423 Y-272.14
X19.273 Y-271.822
X19.181 Y-271.483
X19.15 Y-271.132
Y-270.081
G2 X19.204 Y-269.853 I0.6 J-0.021 F250
X19.771 Y-269.503 I0.546 J-0.249 F850
G1 X25.272 Y-269.7
G2 X25.796 Y-270.051 I-0.021 J-0.6
X25.85 Y-270.279 I-0.546 J-0.249 F250
G1 Y-271.285 F850
X25.843 Y-271.435
X25.824 Y-271.584
X25.791 Y-271.73
X25.748 Y-271.874
X25.694 Y-272.014
X25.631 Y-272.15
X25.56 Y-272.283
X25.476 Y-272.421
X25.376 Y-272.567
X25.264 Y-272.711
X25.137 Y-272.857
X24.991 Y-273.007
X24.83 Y-273.154
X24.657 Y-273.297
X24.465 Y-273.436
X24.255 Y-273.572
X24.028 Y-273.701
X23.791 Y-273.819
X23.542 Y-273.925
X23.284 Y-274.019
X23.016 Y-274.099
X22.745 Y-274.165
X22.468 Y-274.215
X22.191 Y-274.249
X21.926 Y-274.266
X21.683 Y-274.269
X21.424 Y-274.257
X21.21 Y-274.235
X20.982 Y-274.198
X20.77 Y-274.152
X20.584 Y-274.1
X20.506 Y-274.074
X20.182 Y-273.93
X19.888 Y-273.732
X19.634 Y-273.484
X19.427 Y-273.196
X19.275 Y-272.876
X19.181 Y-272.533
X19.15 Y-272.18
Y-271.132
G2 X19.204 Y-270.904 I0.6 J-0.021 F250
X19.766 Y-270.553 I0.546 J-0.249 F850
G1 X25.267 Y-270.706
G2 X25.796 Y-271.057 I-0.017 J-0.6
X25.85 Y-271.285 I-0.546 J-0.249 F250
G1 Y-272.292 F850
X25.843 Y-272.442
X25.826 Y-272.591
X25.796 Y-272.738
X25.755 Y-272.882
X25.703 Y-273.023
X25.642 Y-273.16
X25.573 Y-273.293
X25.491 Y-273.431
X25.393 Y-273.577
X25.284 Y-273.722
X25.159 Y-273.868
X25.016 Y-274.019
X24.858 Y-274.167
X24.687 Y-274.311
X24.498 Y-274.452
X24.291 Y-274.589
X24.067 Y-274.72
X23.832 Y-274.84
X23.586 Y-274.949
X23.33 Y-275.046
X23.064 Y-275.129
X22.794 Y-275.197
X22.519 Y-275.251
X22.242 Y-275.288
X21.975 Y-275.309
X21.732 Y-275.315
X21.47 Y-275.306
X21.253 Y-275.286
X21.027 Y-275.253
X20.81 Y-275.208
X20.624 Y-275.159
X20.529 Y-275.127
X20.2 Y-274.986
X19.901 Y-274.789
X19.643 Y-274.541
X19.432 Y-274.251
X19.277 Y-273.928
X19.182 Y-273.583
X19.15 Y-273.226
Y-272.18
G2 X19.204 Y-271.952 I0.6 J-0.021 F250
X19.762 Y-271.601 I0.546 J-0.249 F850
G1 X25.263 Y-271.713
G2 X25.796 Y-272.064 I-0.012 J-0.6
X25.85 Y-272.292 I-0.546 J-0.249 F250
G1 Y-273.389 F850
X25.843 Y-273.539
X25.82 Y-273.687
X25.785 Y-273.833
X25.738 Y-273.976
X25.683 Y-274.115
X25.619 Y-274.251
X25.542 Y-274.39
X25.453 Y-274.532
X25.352 Y-274.675
X25.234 Y-274.825
X25.1 Y-274.975
X24.954 Y-275.122
X24.79 Y-275.269
X24.607 Y-275.415
X24.409 Y-275.556
X24.198 Y-275.689
X23.972 Y-275.814
X23.73 Y-275.931
X23.479 Y-276.035
X23.216 Y-276.127
X22.948 Y-276.204
X22.676 Y-276.266
X22.4 Y-276.313
X22.126 Y-276.344
X21.876 Y-276.358
X21.612 Y-276.357
X21.375 Y-276.344
X21.162 Y-276.319
X20.929 Y-276.279
X20.734 Y-276.234
X20.537 Y-276.177
X20.485 Y-276.158
X20.165 Y-276.013
X19.875 Y-275.814
X19.625 Y-275.567
X19.422 Y-275.28
X19.273 Y-274.962
X19.181 Y-274.622
X19.15 Y-274.272
Y-273.226
G2 X19.204 Y-272.998 I0.6 J-0.021 F250
X19.767 Y-272.648 I0.546 J-0.249 F850
G1 X25.268 Y-272.81
G2 X25.796 Y-273.161 I-0.018 J-0.6
X25.85 Y-273.389 I-0.546 J-0.249 F250
G1 Y-274.396 F850
X25.843 Y-274.546
X25.824 Y-274.695
X25.792 Y-274.841
X25.748 Y-274.985
X25.695 Y-275.125
X25.633 Y-275.261
X25.562 Y-275.395
X25.477 Y-275.536
X25.377 Y-275.682
X25.266 Y-275.826
X25.138 Y-275.975
X24.992 Y-276.127
X24.833 Y-276.274
X24.658 Y-276.418
X24.465 Y-276.56
X24.254 Y-276.698
X24.03 Y-276.827
X23.793 Y-276.946
X23.546 Y-277.052
X23.287 Y-277.148
X23.021 Y-277.229
X22.75 Y-277.295
X22.474 Y-277.346
X22.199 Y-277.382
X21.932 Y-277.401
X21.692 Y-277.404
X21.433 Y-277.393
X21.219 Y-277.372
X20.994 Y-277.337
X20.78 Y-277.291
X20.595 Y-277.241
X20.514 Y-277.214
X20.188 Y-277.071
X19.893 Y-276.873
X19.637 Y-276.625
X19.429 Y-276.336
X19.276 Y-276.015
X19.182 Y-275.672
X19.15 Y-275.317
Y-274.272
G2 X19.204 Y-274.045 I0.6 J-0.021 F250
X19.763 Y-273.693 I0.546 J-0.249 F850
G1 X25.264 Y-273.817
G2 X25.796 Y-274.168 I-0.013 J-0.6
X25.85 Y-274.396 I-0.546 J-0.249 F250
G1 Y-275.464 F850
X25.843 Y-275.613
X25.821 Y-275.762
X25.786 Y-275.908
X25.741 Y-276.051
X25.686 Y-276.19
X25.623 Y-276.326
X25.547 Y-276.466
X25.461 Y-276.605
X25.359 Y-276.751
X25.241 Y-276.901
X25.112 Y-277.048
X24.966 Y-277.196
X24.8 Y-277.346
X24.619 Y-277.492
X24.426 Y-277.632
X24.215 Y-277.766
X23.988 Y-277.893
X23.747 Y-278.011
X23.495 Y-278.117
X23.233 Y-278.21
X22.966 Y-278.288
X22.694 Y-278.352
X22.419 Y-278.4
X22.145 Y-278.432
X21.893 Y-278.447
X21.637 Y-278.448
X21.392 Y-278.435
X21.181 Y-278.412
X20.948 Y-278.373
X20.747 Y-278.328
X20.557 Y-278.274
X20.494 Y-278.252
X20.172 Y-278.107
X19.881 Y-277.908
X19.629 Y-277.661
X19.424 Y-277.374
X19.274 Y-277.055
X19.181 Y-276.714
X19.15 Y-276.363
Y-275.317
G2 X19.204 Y-275.089 I0.6 J-0.021 F250
X19.766 Y-274.739 I0.546 J-0.249 F850
G1 X25.266 Y-274.885
G2 X25.796 Y-275.236 I-0.016 J-0.6
X25.85 Y-275.464 I-0.546 J-0.249 F250
G1 Y-276.52 F850
X25.843 Y-276.67
X25.82 Y-276.818
X25.784 Y-276.964
X25.738 Y-277.107
X25.682 Y-277.246
X25.618 Y-277.381
X25.542 Y-277.519
X25.455 Y-277.659
X25.351 Y-277.807
X25.233 Y-277.955
X25.103 Y-278.102
X24.954 Y-278.253
X24.786 Y-278.403
X24.606 Y-278.547
X24.411 Y-278.686
X24.198 Y-278.821
X23.969 Y-278.948
X23.727 Y-279.065
X23.474 Y-279.17
X23.212 Y-279.262
X22.945 Y-279.339
X22.673 Y-279.401
X22.398 Y-279.448
X22.124 Y-279.479
X21.871 Y-279.493
X21.62
X21.373 Y-279.479
X21.163 Y-279.455
X20.932 Y-279.416
X20.731 Y-279.369
X20.542 Y-279.315
X20.486 Y-279.295
X20.166 Y-279.149
X19.876 Y-278.95
X19.626 Y-278.703
X19.423 Y-278.416
X19.273 Y-278.098
X19.181 Y-277.759
X19.15 Y-277.408
Y-276.363
G2 X19.204 Y-276.135 I0.6 J-0.021 F250
X19.767 Y-275.784 I0.546 J-0.249 F850
G1 X25.268 Y-275.941
G2 X25.796 Y-276.292 I-0.017 J-0.6
X25.85 Y-276.52 I-0.546 J-0.249 F250
G1 Y-277.527 F850
X25.843 Y-277.677
X25.824 Y-277.825
X25.792 Y-277.972
X25.748 Y-278.116
X25.695 Y-278.256
X25.633 Y-278.392
X25.562 Y-278.526
X25.477 Y-278.668
X25.377 Y-278.814
X25.266 Y-278.959
X25.137 Y-279.108
X24.991 Y-279.26
X24.832 Y-279.407
X24.657 Y-279.552
X24.463 Y-279.694
X24.252 Y-279.832
X24.028 Y-279.961
X23.791 Y-280.08
X23.544 Y-280.187
X23.286 Y-280.282
X23.019 Y-280.364
X22.749 Y-280.43
X22.474 Y-280.481
X22.198 Y-280.517
X21.932 Y-280.536
X21.692 Y-280.539
X21.434 Y-280.529
X21.219 Y-280.507
X20.994 Y-280.473
X20.781 Y-280.427
X20.596 Y-280.376
X20.515 Y-280.349
X20.189 Y-280.207
X19.893 Y-280.009
X19.637 Y-279.761
X19.429 Y-279.472
X19.276 Y-279.151
X19.182 Y-278.807
X19.15 Y-278.453
Y-277.408
G2 X19.204 Y-277.18 I0.6 J-0.021 F250
X19.763 Y-276.829 I0.546 J-0.249 F850
G1 X25.263 Y-276.948
G2 X25.796 Y-277.299 I-0.013 J-0.6
X25.85 Y-277.527 I-0.546 J-0.249 F250
G1 Y-278.583 F850
X25.843 Y-278.733
X25.822 Y-278.882
X25.789 Y-279.028
X25.745 Y-279.171
X25.691 Y-279.311
X25.628 Y-279.447
X25.553 Y-279.586
X25.469 Y-279.725
X25.368 Y-279.871
X25.252 Y-280.021
X25.124 Y-280.167
X24.979 Y-280.317
X24.814 Y-280.467
X24.636 Y-280.613
X24.444 Y-280.753
X24.235 Y-280.888
X24.008 Y-281.016
X23.768 Y-281.135
X23.517 Y-281.242
X23.257 Y-281.337
X22.99 Y-281.417
X22.719 Y-281.481
X22.445 Y-281.531
X22.17 Y-281.565
X21.915 Y-281.581
X21.664 Y-281.584
X21.413 Y-281.572
X21.202 Y-281.55
X20.969 Y-281.513
X20.765 Y-281.468
X20.577 Y-281.415
X20.505 Y-281.391
X20.181 Y-281.247
X19.887 Y-281.048
X19.633 Y-280.801
X19.427 Y-280.513
X19.275 Y-280.193
X19.181 Y-279.851
X19.15 Y-279.498
Y-278.453
G2 X19.204 Y-278.225 I0.6 J-0.021 F250
X19.764 Y-277.874 I0.546 J-0.249 F850
G1 X25.265 Y-278.004
G2 X25.796 Y-278.355 I-0.014 J-0.6
X25.85 Y-278.583 I-0.546 J-0.249 F250
G1 Y-279.631 F850
X25.843 Y-279.781
X25.822 Y-279.929
X25.788 Y-280.075
X25.744 Y-280.219
X25.69 Y-280.359
X25.627 Y-280.495
X25.553 Y-280.632
X25.468 Y-280.771
X25.366 Y-280.918
X25.251 Y-281.066
X25.123 Y-281.213
X24.976 Y-281.364
X24.811 Y-281.514
X24.634 Y-281.659
X24.442 Y-281.799
X24.231 Y-281.935
X24.004 Y-282.064
X23.764 Y-282.182
X23.513 Y-282.289
X23.253 Y-282.383
X22.987 Y-282.463
X22.716 Y-282.527
X22.441 Y-282.576
X22.167 Y-282.61
X21.91 Y-282.627
X21.662 Y-282.629
X21.41 Y-282.617
X21.199 Y-282.595
X20.967 Y-282.557
X20.762 Y-282.512
X20.574 Y-282.46
X20.503 Y-282.435
X20.179 Y-282.291
X19.886 Y-282.093
X19.633 Y-281.846
X19.426 Y-281.557
X19.275 Y-281.237
X19.181 Y-280.896
X19.15 Y-280.543
Y-279.498
G2 X19.204 Y-279.27 I0.6 J-0.021 F250
X19.764 Y-278.919 I0.546 J-0.249 F850
G1 X25.265 Y-279.052
G2 X25.796 Y-279.403 I-0.015 J-0.6
X25.85 Y-279.631 I-0.546 J-0.249 F250
G1 Y-280.638 F850
X25.843 Y-280.787
X25.826 Y-280.936
X25.796 Y-281.083
X25.754 Y-281.228
X25.702 Y-281.368
X25.641 Y-281.505
X25.573 Y-281.639
X25.49 Y-281.779
X25.392 Y-281.926
X25.283 Y-282.07
X25.157 Y-282.219
X25.013 Y-282.371
X24.856 Y-282.519
X24.684 Y-282.664
X24.494 Y-282.807
X24.285 Y-282.945
X24.063 Y-283.076
X23.828 Y-283.197
X23.582 Y-283.306
X23.327 Y-283.403
X23.061 Y-283.487
X22.792 Y-283.555
X22.517 Y-283.609
X22.241 Y-283.647
X21.974 Y-283.668
X21.733 Y-283.674
X21.471 Y-283.666
X21.254 Y-283.646
X21.03 Y-283.613
X20.813 Y-283.569
X20.627 Y-283.52
X20.532 Y-283.489
X20.202 Y-283.348
X19.903 Y-283.151
X19.644 Y-282.903
X19.433 Y-282.613
X19.278 Y-282.29
X19.182 Y-281.944
X19.15 Y-281.587
Y-280.543
G2 X19.204 Y-280.315 I0.6 J-0.021 F250
X19.76 Y-279.964 I0.546 J-0.249 F850
G1 X25.261 Y-280.059
G2 X25.796 Y-280.41 I-0.01 J-0.6
X25.85 Y-280.638 I-0.546 J-0.249 F250
G1 Y-281.705 F850
X25.843 Y-281.855
X25.823 Y-282.004
X25.791 Y-282.15
X25.748 Y-282.294
X25.694 Y-282.434
X25.632 Y-282.571
X25.558 Y-282.71
X25.475 Y-282.849
X25.376 Y-282.993
X25.26 Y-283.144
X25.133 Y-283.291
X24.99 Y-283.439
X24.828 Y-283.589
X24.649 Y-283.737
X24.458 Y-283.877
X24.251 Y-284.012
X24.027 Y-284.14
X23.788 Y-284.26
X23.538 Y-284.368
X23.277 Y-284.464
X23.012 Y-284.545
X22.741 Y-284.611
X22.466 Y-284.662
X22.193 Y-284.697
X21.937 Y-284.715
X21.682 Y-284.718
X21.432 Y-284.708
X21.22 Y-284.687
X20.986 Y-284.65
X20.782 Y-284.606
X20.592 Y-284.554
X20.513 Y-284.528
X20.187 Y-284.385
X19.892 Y-284.187
X19.636 Y-283.939
X19.429 Y-283.65
X19.276 Y-283.329
X19.182 Y-282.986
X19.15 Y-282.632
Y-281.587
G2 X19.204 Y-281.359 I0.6 J-0.021 F250
X19.763 Y-281.008 I0.546 J-0.249 F850
G1 X25.263 Y-281.126
G2 X25.796 Y-281.477 I-0.013 J-0.6
X25.85 Y-281.705 I-0.546 J-0.249 F250
G1 Y-282.762 F850
X25.843 Y-282.912
X25.822 Y-283.06
X25.789 Y-283.206
X25.745 Y-283.35
X25.691 Y-283.49
X25.628 Y-283.626
X25.554 Y-283.764
X25.469 Y-283.903
X25.368 Y-284.049
X25.253 Y-284.198
X25.125 Y-284.345
X24.979 Y-284.495
X24.814 Y-284.646
X24.636 Y-284.791
X24.444 Y-284.931
X24.235 Y-285.066
X24.008 Y-285.195
X23.769 Y-285.314
X23.518 Y-285.421
X23.258 Y-285.515
X22.992 Y-285.595
X22.72 Y-285.66
X22.446 Y-285.71
X22.172 Y-285.743
X21.916 Y-285.76
X21.666 Y-285.763
X21.414 Y-285.751
X21.203 Y-285.729
X20.971 Y-285.692
X20.766 Y-285.647
X20.578 Y-285.595
X20.505 Y-285.57
X20.181 Y-285.426
X19.887 Y-285.228
X19.633 Y-284.98
X19.427 Y-284.692
X19.275 Y-284.372
X19.181 Y-284.03
X19.15 Y-283.677
Y-282.632
G2 X19.204 Y-282.404 I0.6 J-0.021 F250
X19.764 Y-282.053 I0.546 J-0.249 F850
G1 X25.265 Y-282.183
G2 X25.796 Y-282.534 I-0.014 J-0.6
X25.85 Y-282.762 I-0.546 J-0.249 F250
G1 Y-283.768 F850
X25.843 Y-283.918
X25.826 Y-284.067
X25.796 Y-284.214
X25.755 Y-284.359
X25.703 Y-284.499
X25.643 Y-284.637
X25.574 Y-284.77
X25.491 Y-284.91
X25.394 Y-285.057
X25.36 Y-285.102
X25.112 Y-285.375
X24.817 Y-285.599
X24.486 Y-285.764
X24.13 Y-285.866
X23.761 Y-285.9
G2 X23.533 Y-285.846 I0.021 J0.6 F250
X23.352 Y-284.882 I0.249 J0.546 F850
G1 X24.82 Y-283.371
G2 X25.796 Y-283.541 I0.43 J-0.418
X25.85 Y-283.768 I-0.546 J-0.249 F250
G1 Y-284.775 F850
X25.843 Y-284.925
X25.78 Y-285.184
X25.657 Y-285.421
X25.481 Y-285.621
X25.262 Y-285.773
X25.013 Y-285.868
X24.748 Y-285.9
G2 X24.521 Y-285.846 I0.021 J0.6 F250
X24.335 Y-284.886 I0.249 J0.546 F850
G1 X24.816 Y-284.382
G2 X25.796 Y-284.547 I0.434 J-0.414
X25.85 Y-284.775 I-0.546 J-0.249 F250
G1 Y-285.268 F850
X25.843 Y-285.369
X25.82 Y-285.47
X25.78 Y-285.563
X25.72 Y-285.656
X25.709 Y-285.671
X25.666 Y-285.719
X25.614 Y-285.767
X25.566 Y-285.802
X25.519 Y-285.83
X25.468 Y-285.854
X25.417 Y-285.872
X25.317 Y-285.895
X25.116 Y-285.9
X20.377
X20.227 Y-285.892
X19.94 Y-285.819
X19.678 Y-285.68
X19.458 Y-285.483
X19.29 Y-285.238
X19.186 Y-284.961
X19.15 Y-284.667
G2 X19.181 Y-284.434 I1.186 J-0.041 F250
X20.639 Y-283.561 I1.155 J-0.275 F850
X20.61 Y-285.869 I-0.304 J-1.15
X20.377 Y-285.9 I-0.275 J1.158 F250
G1 X19.884 F850
X19.723 Y-285.896
X19.683 Y-285.895
X19.583 Y-285.872
X19.532 Y-285.854
X19.481 Y-285.83
X19.434 Y-285.802
X19.386 Y-285.767
X19.334 Y-285.719
X19.291 Y-285.671
X19.28 Y-285.656
X19.22 Y-285.563
X19.18 Y-285.47
X19.157 Y-285.369
X19.15 Y-285.268
Y-283.677
X19.162 Y-283.623 Z-7.483 F250
X19.173 Y-283.572 Z-7.464
X19.183 Y-283.527 Z-7.433
X19.191 Y-283.491 Z-7.392
X19.197 Y-283.465 Z-7.343
X19.202 Y-283.453 Z-7.3
X19.204 Y-283.449 Z-7.254
G0 Z5
X25.219 Y-11.939
Z-4.39
G1 Z-4.99 F250
G2 X22.647 Y-16.273 Z-5.198 I-2.719 J-1.316 F200
X19.669 Y-12.214 Z-5.406 I-0.147 J3.014
X24.563 Y-11.064 Z-5.614 I2.827 J-1.043
X23.708 Y-16.012 Z-5.823 I-2.064 J-2.191
X19.495 Y-13.291 Z-6.031 I-1.207 J2.753
X23.642 Y-10.482 Z-6.239 I3.003 J0.033
X24.603 Y-15.392 Z-6.447 I-1.143 J-2.773
X19.714 Y-14.356 Z-6.655 I-2.102 J2.134
X22.577 Y-10.268 Z-6.863 I2.783 J1.097
X25.216 Y-14.497 Z-7.071 I-0.079 J-2.987
X20.297 Y-15.269 Z-7.279 I-2.715 J1.24
X21.51 Y-10.447 Z-7.488 I2.201 J2.01
X25.468 Y-13.446 Z-7.696 I0.987 J-2.809
X21.164 Y-15.912 Z-7.904 I-2.968 J0.19
X20.58 Y-10.992 Z-8.112 I1.335 J2.653
X25.33 Y-12.379 Z-8.32 I1.917 J-2.264
X22.2 Y-16.203 Z-8.528 I-2.83 J-0.877
X19.908 Y-11.831 Z-8.736 I0.3 J2.944
X24.823 Y-11.434 Z-8.944 I2.588 J-1.427
X23.267 Y-16.105 Z-9.153 I-2.323 J-1.821
X19.581 Y-12.849 Z-9.361 I-0.766 J2.847
X24.014 Y-10.734 Z-9.569 I2.916 J-0.409
X24.225 Y-15.636 Z-9.777 I-1.515 J-2.521
X19.638 Y-13.914 Z-9.985 I-1.724 J2.378
X23.013 Y-10.371 Z-10.193 I2.86 J0.655
X24.951 Y-14.858 Z-10.401 I-0.515 J-2.884
X20.069 Y-14.885 Z-10.609 I-2.45 J1.601
X21.952 Y-10.388 Z-10.818 I2.429 J1.626
X25.35 Y-13.876 Z-11.026 I0.545 J-2.868
X20.815 Y-15.635 Z-11.234 I-2.849 J0.62
X20.971 Y-10.78 Z-11.442 I1.683 J2.376
X25.372 Y-12.821 Z-11.65 I1.526 J-2.476
X21.777 Y-16.069 Z-11.858 I-2.872 J-0.435
X20.197 Y-11.494 Z-12.066 I0.723 J2.81
X25.019 Y-11.83 Z-12.274 I2.3 J-1.763
X22.825 Y-16.131 Z-12.483 I-2.519 J-1.425
X19.73 Y-12.434 Z-12.691 I-0.325 J2.872
X24.338 Y-11.034 Z-12.899 I2.766 J-0.824
X23.823 Y-15.816 Z-13.107 I-1.838 J-2.221
X19.63 Y-13.474 Z-13.315 I-1.322 J2.558
X23.421 Y-10.535 Z-13.523 I2.868 J0.216
X24.64 Y-15.168 Z-13.731 I-0.922 J-2.72
X19.905 Y-14.478 Z-13.939 I-2.139 J1.911
X22.39 Y-10.396 Z-14.148 I2.592 J1.219
X25.171 Y-14.275 Z-14.356 I0.107 J-2.859
X20.519 Y-15.315 Z-14.564 I-2.67 J1.019
X21.382 Y-10.633 Z-14.772 I1.98 J2.056
X25.347 Y-13.256 Z-14.98 I1.115 J-2.623
X19.647 I-2.85
X25.347 I2.85
G1 X25.36 Y-14.142 F850
X25.393 Y-14.248
X25.421 Y-14.395
X25.43 Y-14.545
X25.423 Y-14.694
X25.403 Y-14.843
X25.37 Y-14.989
X25.325 Y-15.133
X25.271 Y-15.272
X25.207 Y-15.408
X25.135 Y-15.54
X25.055 Y-15.666
X24.967 Y-15.788
X24.87 Y-15.908
X24.764 Y-16.025
X24.648 Y-16.14
X24.523 Y-16.25
X24.389 Y-16.355
X24.246 Y-16.455
X24.095 Y-16.549
X23.936 Y-16.635
X23.77 Y-16.713
X23.597 Y-16.783
X23.419 Y-16.844
X23.235 Y-16.895
X23.046 Y-16.936
X22.853 Y-16.967
X22.657 Y-16.988
X22.459 Y-16.997
X22.259 Y-16.995
X22.058 Y-16.981
X21.857 Y-16.957
X21.656 Y-16.92
X21.457 Y-16.873
X21.26 Y-16.814
X21.066 Y-16.743
X20.876 Y-16.662
X20.69 Y-16.569
X20.508 Y-16.466
X20.333 Y-16.353
X20.164 Y-16.23
X20.001 Y-16.097
X19.846 Y-15.955
X19.699 Y-15.804
X19.561 Y-15.645
X19.542 Y-15.62
X19.363 Y-15.346
X19.231 Y-15.045
X19.15 Y-14.727
X19.122 Y-14.401
X19.117 Y-12.54
X19.125 Y-12.376
X19.14 Y-12.226
X19.164 Y-12.078
X19.198 Y-11.929
X19.241 Y-11.777
X19.294 Y-11.623
X19.357 Y-11.47
X19.43 Y-11.316
X19.513 Y-11.164
X19.607 Y-11.013
X19.711 Y-10.866
X19.824 Y-10.722
X19.948 Y-10.583
X20.081 Y-10.45
X20.223 Y-10.322
X20.373 Y-10.201
X20.416 Y-10.171
X20.68 Y-10.012
X20.967 Y-9.895
X21.268 Y-9.824
X21.576 Y-9.8
G2 X21.804 Y-9.854 I-0.021 J-0.6 F250
X22.008 Y-10.793 I-0.249 J-0.546 F850
G1 X20.169 Y-12.911
G2 X19.171 Y-12.768 I-0.453 J0.393
X19.117 Y-12.54 I0.545 J0.25 F250
G1 X19.113 Y-11.242 F850
X19.12 Y-11.092
X19.19 Y-10.795
X19.319 Y-10.519
X19.502 Y-10.275
X19.73 Y-10.074
X19.996 Y-9.924
X20.286 Y-9.831
X20.589 Y-9.8
G2 X20.817 Y-9.854 I-0.021 J-0.6 F250
X20.983 Y-10.833 I-0.249 J-0.546 F850
G1 X20.128 Y-11.652
G2 X19.167 Y-11.469 I-0.415 J0.433
X19.113 Y-11.242 I0.545 J0.25 F250
G1 X19.111 Y-10.527 F850
Y-10.477
Y-10.436
X19.119 Y-10.353
X19.124 Y-10.314
X19.131 Y-10.274
X19.138 Y-10.235
G2 X19.274 Y-10.045 I0.469 J-0.19 F250
X19.677 Y-9.924 I0.334 J-0.381 F850
X19.54 Y-10.911 I-0.068 J-0.494
X19.174 Y-10.661 I0.068 J0.494
X19.111 Y-10.436 I0.435 J0.244 F250
G1 X19.116 Y-10.336 F850
X19.138 Y-10.235
X19.157 Y-10.185
X19.181 Y-10.134
X19.211 Y-10.084
X19.248 Y-10.034
X19.28 Y-9.997
X19.33 Y-9.948
X19.381 Y-9.908
X19.431 Y-9.877
X19.481 Y-9.852
X19.53 Y-9.832
X19.607 Y-9.812
X19.683 Y-9.801
X19.884 Y-9.8
X23.104
X23.288 Y-9.809
X23.441 Y-9.826
X23.597 Y-9.851
X23.756 Y-9.886
X23.916 Y-9.932
X24.077 Y-9.987
X24.238 Y-10.053
X24.398 Y-10.129
X24.557 Y-10.216
X24.712 Y-10.313
X24.865 Y-10.42
X25.013 Y-10.537
X25.155 Y-10.664
X25.292 Y-10.8
X25.423 Y-10.945
X25.444 Y-10.972
X25.633 Y-11.254
X25.772 Y-11.563
X25.856 Y-11.891
X25.884 Y-12.229
G2 X25.83 Y-12.457 I-0.6 J0.023 F250
X24.9 Y-12.667 I-0.545 J0.25 F850
G1 X22.74 Y-10.86
G2 X22.876 Y-9.854 I0.385 J0.46
X23.104 Y-9.8 I0.249 J-0.546 F250
G1 X24.422 F850
X24.584 Y-9.808
X24.882 Y-9.872
X25.161 Y-9.997
X25.407 Y-10.176
X25.611 Y-10.403
X25.762 Y-10.668
X25.856 Y-10.958
X25.887 Y-11.262
G2 X25.833 Y-11.489 I-0.6 J0.023 F250
X24.864 Y-11.665 I-0.545 J0.25 F850
G1 X24.02 Y-10.825
G2 X24.194 Y-9.854 I0.423 J0.426
X24.422 Y-9.8 I0.249 J-0.546 F250
G1 X25.177 F850
X25.22 Y-9.801
X25.249
X25.291 Y-9.803
X25.351 Y-9.809
X25.411 Y-9.819
X25.47 Y-9.832
G2 X25.659 Y-9.969 I-0.217 J-0.502 F250
X25.794 Y-10.411 I-0.407 J-0.365 F850
X24.734 Y-10.261 I-0.53 J0.075
X25.023 Y-9.858 I0.53 J-0.075
X25.249 Y-9.801 I0.241 J-0.478 F250
G1 X25.317 F850
X25.393 Y-9.812
X25.47 Y-9.832
X25.519 Y-9.852
X25.569 Y-9.877
X25.619 Y-9.908
X25.67 Y-9.948
X25.72 Y-9.997
X25.752 Y-10.034
X25.789 Y-10.084
X25.819 Y-10.134
X25.843 Y-10.185
X25.862 Y-10.235
X25.884 Y-10.336
X25.889 Y-10.436
X25.876 Y-15.067
X25.868 Y-15.217
X25.85 Y-15.366
X25.821 Y-15.513
X25.783 Y-15.658
X25.736 Y-15.801
X25.681 Y-15.94
X25.617 Y-16.078
X25.541 Y-16.218
X25.455 Y-16.36
X25.357 Y-16.501
X25.249 Y-16.64
X25.13 Y-16.776
X25 Y-16.909
X24.859 Y-17.039
X24.705 Y-17.164
X24.541 Y-17.284
X24.366 Y-17.396
X24.182 Y-17.5
X23.989 Y-17.596
X23.788 Y-17.681
X23.578 Y-17.757
X23.36 Y-17.822
X23.136 Y-17.876
X22.905 Y-17.917
X22.669 Y-17.946
X22.429 Y-17.961
X22.185 Y-17.963
X21.939 Y-17.951
X21.692 Y-17.926
X21.445 Y-17.886
X21.199 Y-17.831
X20.954 Y-17.763
X20.712 Y-17.68
X20.474 Y-17.583
X20.241 Y-17.473
X20.17 Y-17.434
X19.873 Y-17.237
X19.617 Y-16.99
X19.408 Y-16.702
X19.254 Y-16.381
X19.159 Y-16.038
X19.126 Y-15.683
X19.122 Y-14.401
G2 X19.175 Y-14.173 I0.6 J-0.019 F250
X19.793 Y-13.824 I0.547 J-0.247 F850
G1 X25.348 Y-14.491
G2 X25.823 Y-14.839 I-0.071 J-0.596
X25.876 Y-15.067 I-0.547 J-0.247 F250
G1 X25.872 Y-16.185 F850
X25.865 Y-16.334
X25.848 Y-16.484
X25.818 Y-16.631
X25.776 Y-16.775
X25.723 Y-16.915
X25.662 Y-17.052
X25.591 Y-17.184
X25.512 Y-17.315
X25.422 Y-17.446
X25.319 Y-17.579
X25.201 Y-17.714
X25.072 Y-17.847
X24.931 Y-17.977
X24.776 Y-18.104
X24.606 Y-18.228
X24.422 Y-18.347
X24.227 Y-18.458
X24.021 Y-18.56
X23.802 Y-18.654
X23.571 Y-18.738
X23.329 Y-18.811
X23.075 Y-18.872
X22.813 Y-18.92
X22.544 Y-18.953
X22.27 Y-18.972
X21.99 Y-18.975
X21.706 Y-18.962
X21.426 Y-18.933
X21.177 Y-18.893
X20.913 Y-18.836
X20.697 Y-18.776
X20.474 Y-18.7
X20.381 Y-18.663
X20.079 Y-18.51
X19.808 Y-18.309
X19.574 Y-18.065
X19.384 Y-17.785
X19.245 Y-17.478
X19.159 Y-17.151
X19.129 Y-16.814
X19.126 Y-15.683
G2 X19.179 Y-15.455 I0.6 J-0.019 F250
X19.78 Y-15.105 I0.547 J-0.247 F850
G1 X25.327 Y-15.606
G2 X25.819 Y-15.957 I-0.054 J-0.598
X25.872 Y-16.185 I-0.547 J-0.247 F250
G1 X25.869 Y-17.241 F850
X25.861 Y-17.391
X25.84 Y-17.539
X25.804 Y-17.685
X25.757 Y-17.828
X25.7 Y-17.966
X25.634 Y-18.101
X25.559 Y-18.231
X25.474 Y-18.362
X25.375 Y-18.497
X25.264 Y-18.63
X25.14 Y-18.764
X25 Y-18.9
X24.844 Y-19.035
X24.676 Y-19.163
X24.493 Y-19.289
X24.292 Y-19.41
X24.074 Y-19.525
X23.844 Y-19.63
X23.603 Y-19.725
X23.347 Y-19.809
X23.077 Y-19.881
X22.799 Y-19.938
X22.512 Y-19.981
X22.224 Y-20.008
X21.934 Y-20.018
X21.67 Y-20.013
X21.396 Y-19.991
X21.157 Y-19.959
X20.932 Y-19.916
X20.703 Y-19.859
X20.511 Y-19.799
X20.43 Y-19.768
X20.119 Y-19.62
X19.838 Y-19.42
X19.595 Y-19.175
X19.398 Y-18.891
X19.253 Y-18.579
X19.163 Y-18.245
X19.133 Y-17.902
X19.129 Y-16.814
G2 X19.182 Y-16.586 I0.6 J-0.019 F250
X19.775 Y-16.235 I0.547 J-0.247 F850
G1 X25.316 Y-16.662
G2 X25.816 Y-17.013 I-0.046 J-0.598
X25.869 Y-17.241 I-0.547 J-0.247 F250
G1 X25.867 Y-18.198 F850
X25.859 Y-18.348
X25.84 Y-18.497
X25.808 Y-18.643
X25.763 Y-18.786
X25.708 Y-18.926
X25.643 Y-19.061
X25.571 Y-19.192
X25.488 Y-19.323
X25.39 Y-19.46
X25.279 Y-19.599
X25.156 Y-19.735
X25.015 Y-19.875
X24.857 Y-20.016
X24.686 Y-20.151
X24.499 Y-20.283
X24.292 Y-20.411
X24.068 Y-20.534
X23.831 Y-20.647
X23.581 Y-20.749
X23.32 Y-20.838
X23.047 Y-20.915
X22.768 Y-20.977
X22.485 Y-21.024
X22.198 Y-21.054
X21.917 Y-21.068
X21.667 Y-21.067
X21.398 Y-21.05
X21.174 Y-21.023
X20.944 Y-20.982
X20.726 Y-20.931
X20.537 Y-20.874
X20.46 Y-20.847
X20.143 Y-20.701
X19.856 Y-20.502
X19.608 Y-20.256
X19.407 Y-19.971
X19.259 Y-19.655
X19.167 Y-19.318
X19.136 Y-18.97
X19.133 Y-17.902
G2 X19.186 Y-17.674 I0.6 J-0.019 F250
X19.764 Y-17.322 I0.547 J-0.247 F850
G1 X25.299 Y-17.618
G2 X25.814 Y-17.97 I-0.032 J-0.599
X25.867 Y-18.198 I-0.547 J-0.247 F250
G1 X25.864 Y-19.205 F850
X25.856 Y-19.355
X25.836 Y-19.503
X25.802 Y-19.649
X25.757 Y-19.792
X25.701 Y-19.932
X25.636 Y-20.067
X25.562 Y-20.201
X25.478 Y-20.334
X25.379 Y-20.474
X25.263 Y-20.619
X25.136 Y-20.76
X24.992 Y-20.903
X24.829 Y-21.048
X24.652 Y-21.189
X24.461 Y-21.323
X24.251 Y-21.454
X24.023 Y-21.579
X23.78 Y-21.695
X23.527 Y-21.799
X23.264 Y-21.89
X22.991 Y-21.967
X22.715 Y-22.029
X22.434 Y-22.075
X22.152 Y-22.105
X21.885 Y-22.119
X21.635 Y-22.117
X21.375 Y-22.101
X21.16 Y-22.076
X20.927 Y-22.035
X20.719 Y-21.986
X20.529 Y-21.93
X20.465 Y-21.907
X20.148 Y-21.761
X19.861 Y-21.562
X19.612 Y-21.316
X19.411 Y-21.031
X19.262 Y-20.715
X19.17 Y-20.377
X19.139 Y-20.03
X19.136 Y-18.97
G2 X19.189 Y-18.742 I0.6 J-0.019 F250
X19.761 Y-18.39 I0.547 J-0.247 F850
G1 X25.289 Y-18.625
G2 X25.811 Y-18.977 I-0.025 J-0.599
X25.864 Y-19.205 I-0.547 J-0.247 F250
G1 X25.861 Y-20.212 F850
X25.853 Y-20.361
X25.833 Y-20.51
X25.8 Y-20.656
X25.755 Y-20.8
X25.7 Y-20.939
X25.637 Y-21.075
X25.564 Y-21.208
X25.48 Y-21.344
X25.379 Y-21.489
X25.266 Y-21.632
X25.138 Y-21.777
X24.991 Y-21.925
X24.829 Y-22.072
X24.654 Y-22.213
X24.46 Y-22.352
X24.249 Y-22.486
X24.02 Y-22.614
X23.78 Y-22.731
X23.529 Y-22.836
X23.268 Y-22.928
X22.998 Y-23.007
X22.724 Y-23.07
X22.445 Y-23.119
X22.165 Y-23.151
X21.898 Y-23.167
X21.653
X21.394 Y-23.153
X21.179 Y-23.13
X20.949 Y-23.091
X20.74 Y-23.043
X20.552 Y-22.99
X20.483 Y-22.965
X20.163 Y-22.821
X19.872 Y-22.623
X19.621 Y-22.376
X19.417 Y-22.09
X19.267 Y-21.772
X19.174 Y-21.433
X19.142 Y-21.083
X19.139 Y-20.03
G2 X19.192 Y-19.801 I0.6 J-0.019 F250
X19.758 Y-19.449 I0.547 J-0.247 F850
G1 X25.281 Y-19.631
G2 X25.808 Y-19.983 I-0.02 J-0.6
X25.861 Y-20.212 I-0.547 J-0.247 F250
G1 X25.858 Y-21.218 F850
X25.85 Y-21.368
X25.832 Y-21.517
X25.801 Y-21.664
X25.758 Y-21.807
X25.704 Y-21.948
X25.642 Y-22.084
X25.572 Y-22.217
X25.488 Y-22.355
X25.389 Y-22.5
X25.278 Y-22.644
X25.152 Y-22.791
X25.007 Y-22.941
X24.847 Y-23.088
X24.674 Y-23.231
X24.483 Y-23.372
X24.273 Y-23.508
X24.047 Y-23.638
X23.809 Y-23.757
X23.56 Y-23.864
X23.302 Y-23.959
X23.034 Y-24.041
X22.761 Y-24.107
X22.484 Y-24.158
X22.206 Y-24.194
X21.938 Y-24.212
X21.695 Y-24.216
X21.434 Y-24.204
X21.218 Y-24.183
X20.99 Y-24.147
X20.776 Y-24.101
X20.59 Y-24.05
X20.508 Y-24.023
X20.183 Y-23.88
X19.888 Y-23.682
X19.633 Y-23.436
X19.425 Y-23.148
X19.272 Y-22.828
X19.177 Y-22.486
X19.145 Y-22.133
X19.142 Y-21.083
G2 X19.195 Y-20.855 I0.6 J-0.019 F250
X19.756 Y-20.502 I0.547 J-0.247 F850
G1 X25.273 Y-20.638
G2 X25.805 Y-20.99 I-0.015 J-0.6
X25.858 Y-21.218 I-0.547 J-0.247 F250
G1 X25.855 Y-22.275 F850
X25.847 Y-22.425
X25.826 Y-22.573
X25.793 Y-22.719
X25.748 Y-22.863
X25.694 Y-23.002
X25.631 Y-23.138
X25.556 Y-23.277
X25.472 Y-23.415
X25.371 Y-23.56
X25.254 Y-23.709
X25.126 Y-23.855
X24.981 Y-24.003
X24.817 Y-24.152
X24.637 Y-24.298
X24.445 Y-24.437
X24.236 Y-24.571
X24.009 Y-24.699
X23.767 Y-24.818
X23.516 Y-24.924
X23.254 Y-25.018
X22.986 Y-25.098
X22.713 Y-25.162
X22.437 Y-25.211
X22.162 Y-25.244
X21.905 Y-25.26
X21.652 Y-25.261
X21.402 Y-25.249
X21.19 Y-25.226
X20.957 Y-25.188
X20.753 Y-25.143
X20.563 Y-25.089
X20.497 Y-25.066
X20.175 Y-24.922
X19.883 Y-24.724
X19.63 Y-24.478
X19.425 Y-24.191
X19.274 Y-23.872
X19.18 Y-23.532
X19.148 Y-23.181
X19.145 Y-22.133
G2 X19.198 Y-21.905 I0.6 J-0.019 F250
X19.76 Y-21.552 I0.547 J-0.247 F850
G1 X25.27 Y-21.694
G2 X25.802 Y-22.047 I-0.015 J-0.6
X25.855 Y-22.275 I-0.547 J-0.247 F250
G1 X25.852 Y-23.322 F850
X25.844 Y-23.472
X25.823 Y-23.621
X25.789 Y-23.767
X25.744 Y-23.91
X25.689 Y-24.049
X25.625 Y-24.185
X25.551 Y-24.322
X25.466 Y-24.461
X25.364 Y-24.608
X25.248 Y-24.756
X25.119 Y-24.902
X24.972 Y-25.052
X24.807 Y-25.202
X24.629 Y-25.346
X24.435 Y-25.486
X24.224 Y-25.621
X23.996 Y-25.749
X23.755 Y-25.867
X23.503 Y-25.973
X23.242 Y-26.067
X22.975 Y-26.145
X22.703 Y-26.209
X22.428 Y-26.258
X22.152 Y-26.29
X21.896 Y-26.306
X21.647 Y-26.307
X21.396 Y-26.294
X21.185 Y-26.272
X20.953 Y-26.233
X20.749 Y-26.188
X20.561 Y-26.134
X20.498 Y-26.112
X20.176 Y-25.968
X19.885 Y-25.77
X19.633 Y-25.524
X19.428 Y-25.237
X19.276 Y-24.919
X19.183 Y-24.579
X19.151 Y-24.228
X19.148 Y-23.181
G2 X19.201 Y-22.953 I0.6 J-0.019 F250
X19.763 Y-22.6 I0.547 J-0.247 F850
G1 X25.267 Y-22.742
G2 X25.799 Y-23.094 I-0.015 J-0.6
X25.852 Y-23.322 I-0.547 J-0.247 F250
G1 X25.849 Y-24.329 F850
X25.841 Y-24.479
X25.823 Y-24.628
X25.793 Y-24.775
X25.751 Y-24.919
X25.698 Y-25.059
X25.637 Y-25.196
X25.568 Y-25.329
X25.484 Y-25.47
X25.386 Y-25.616
X25.276 Y-25.76
X25.149 Y-25.909
X25.005 Y-26.06
X24.847 Y-26.208
X24.674 Y-26.352
X24.483 Y-26.495
X24.274 Y-26.633
X24.05 Y-26.763
X23.815 Y-26.883
X23.568 Y-26.991
X23.312 Y-27.088
X23.045 Y-27.171
X22.776 Y-27.238
X22.501 Y-27.291
X22.225 Y-27.328
X21.958 Y-27.348
X21.717 Y-27.353
X21.457 Y-27.344
X21.241 Y-27.324
X21.016 Y-27.29
X20.801 Y-27.245
X20.616 Y-27.196
X20.529 Y-27.167
X20.202 Y-27.026
X19.905 Y-26.829
X19.647 Y-26.582
X19.437 Y-26.294
X19.282 Y-25.972
X19.187 Y-25.629
X19.154 Y-25.273
X19.151 Y-24.228
G2 X19.204 Y-24 I0.6 J-0.019 F250
X19.762 Y-23.647 I0.547 J-0.247 F850
G1 X25.26 Y-23.748
G2 X25.796 Y-24.101 I-0.011 J-0.6
X25.849 Y-24.329 I-0.547 J-0.247 F250
G1 X25.845 Y-25.397 F850
X25.838 Y-25.546
X25.818 Y-25.695
X25.785 Y-25.841
X25.741 Y-25.985
X25.687 Y-26.125
X25.624 Y-26.261
X25.55 Y-26.4
X25.466 Y-26.539
X25.366 Y-26.684
X25.25 Y-26.834
X25.122 Y-26.981
X24.978 Y-27.129
X24.816 Y-27.278
X24.636 Y-27.425
X24.444 Y-27.565
X24.237 Y-27.699
X24.012 Y-27.827
X23.772 Y-27.947
X23.522 Y-28.054
X23.261 Y-28.148
X22.995 Y-28.228
X22.724 Y-28.294
X22.449 Y-28.343
X22.176 Y-28.377
X21.922 Y-28.394
X21.667 Y-28.397
X21.42 Y-28.386
X21.208 Y-28.364
X20.975 Y-28.327
X20.773 Y-28.282
X20.583 Y-28.23
X20.514 Y-28.206
X20.19 Y-28.063
X19.897 Y-27.865
X19.643 Y-27.619
X19.436 Y-27.331
X19.284 Y-27.012
X19.19 Y-26.671
X19.157 Y-26.318
X19.154 Y-25.273
G2 X19.207 Y-25.045 I0.6 J-0.019 F250
X19.767 Y-24.693 I0.547 J-0.247 F850
G1 X25.259 Y-24.816
G2 X25.792 Y-25.169 I-0.013 J-0.6
X25.845 Y-25.397 I-0.547 J-0.247 F250
G1 X25.842 Y-26.453 F850
X25.834 Y-26.603
X25.813 Y-26.751
X25.78 Y-26.898
X25.735 Y-27.041
X25.68 Y-27.181
X25.617 Y-27.316
X25.543 Y-27.454
X25.458 Y-27.593
X25.356 Y-27.739
X25.24 Y-27.888
X25.111 Y-28.035
X24.965 Y-28.184
X24.8 Y-28.335
X24.621 Y-28.48
X24.429 Y-28.619
X24.218 Y-28.754
X23.991 Y-28.882
X23.752 Y-28.999
X23.5 Y-29.106
X23.24 Y-29.199
X22.974 Y-29.278
X22.703 Y-29.342
X22.429 Y-29.391
X22.156 Y-29.423
X21.902 Y-29.439
X21.652 Y-29.441
X21.404 Y-29.428
X21.194 Y-29.406
X20.962 Y-29.368
X20.76 Y-29.323
X20.571 Y-29.27
X20.509 Y-29.248
X20.187 Y-29.105
X19.895 Y-28.906
X19.643 Y-28.66
X19.438 Y-28.373
X19.286 Y-28.055
X19.192 Y-27.714
X19.16 Y-27.363
X19.157 Y-26.318
G2 X19.21 Y-26.09 I0.6 J-0.019 F250
X19.772 Y-25.738 I0.547 J-0.247 F850
G1 X25.257 Y-25.873
G2 X25.789 Y-26.225 I-0.015 J-0.6
X25.842 Y-26.453 I-0.547 J-0.247 F250
G1 X25.839 Y-27.46 F850
X25.831 Y-27.61
X25.815 Y-27.759
X25.784 Y-27.906
X25.742 Y-28.05
X25.69 Y-28.19
X25.629 Y-28.327
X25.56 Y-28.46
X25.477 Y-28.601
X25.379 Y-28.747
X25.27 Y-28.891
X25.144 Y-29.04
X25 Y-29.191
X24.842 Y-29.339
X24.671 Y-29.483
X24.48 Y-29.625
X24.272 Y-29.763
X24.049 Y-29.894
X23.814 Y-30.013
X23.569 Y-30.122
X23.314 Y-30.218
X23.048 Y-30.301
X22.78 Y-30.369
X22.506 Y-30.422
X22.231 Y-30.459
X21.966 Y-30.48
X21.726 Y-30.485
X21.467 Y-30.476
X21.252 Y-30.457
X21.027 Y-30.423
X20.813 Y-30.379
X20.627 Y-30.33
X20.542 Y-30.302
X20.214 Y-30.161
X19.916 Y-29.964
X19.657 Y-29.717
X19.447 Y-29.428
X19.292 Y-29.106
X19.196 Y-28.762
X19.163 Y-28.407
X19.16 Y-27.363
G2 X19.213 Y-27.135 I0.6 J-0.019 F250
X19.771 Y-26.782 I0.547 J-0.247 F850
G1 X25.25 Y-26.879
G2 X25.786 Y-27.232 I-0.011 J-0.6
X25.839 Y-27.46 I-0.547 J-0.247 F250
G1 X25.836 Y-28.557 F850
X25.828 Y-28.707
X25.806 Y-28.855
X25.771 Y-29.001
X25.725 Y-29.144
X25.669 Y-29.283
X25.605 Y-29.419
X25.529 Y-29.559
X25.441 Y-29.7
X25.34 Y-29.844
X25.222 Y-29.993
X25.088 Y-30.143
X24.943 Y-30.29
X24.779 Y-30.437
X24.596 Y-30.584
X24.399 Y-30.724
X24.189 Y-30.857
X23.963 Y-30.982
X23.723 Y-31.099
X23.473 Y-31.203
X23.211 Y-31.295
X22.945 Y-31.372
X22.674 Y-31.434
X22.4 Y-31.481
X22.127 Y-31.512
X21.881 Y-31.526
X21.619
X21.384 Y-31.513
X21.171 Y-31.488
X20.94 Y-31.449
X20.746 Y-31.405
X20.55 Y-31.348
X20.504 Y-31.332
X20.184 Y-31.187
X19.894 Y-30.988
X19.644 Y-30.742
X19.441 Y-30.456
X19.291 Y-30.139
X19.198 Y-29.8
X19.166 Y-29.45
X19.163 Y-28.407
G2 X19.216 Y-28.179 I0.6 J-0.019 F250
X19.78 Y-27.826 I0.547 J-0.247 F850
G1 X25.253 Y-27.977
G2 X25.783 Y-28.329 I-0.016 J-0.6
X25.836 Y-28.557 I-0.547 J-0.247 F250
G1 X25.833 Y-29.564 F850
X25.825 Y-29.714
X25.807 Y-29.863
X25.776 Y-30.009
X25.733 Y-30.153
X25.679 Y-30.293
X25.618 Y-30.43
X25.548 Y-30.563
X25.463 Y-30.704
X25.364 Y-30.849
X25.254 Y-30.993
X25.126 Y-31.142
X24.981 Y-31.293
X24.823 Y-31.44
X24.65 Y-31.584
X24.458 Y-31.726
X24.248 Y-31.863
X24.024 Y-31.992
X23.789 Y-32.11
X23.544 Y-32.217
X23.287 Y-32.312
X23.022 Y-32.394
X22.754 Y-32.46
X22.479 Y-32.511
X22.206 Y-32.547
X21.942 Y-32.566
X21.703 Y-32.57
X21.447 Y-32.56
X21.234 Y-32.539
X21.009 Y-32.505
X20.798 Y-32.46
X20.613 Y-32.41
X20.537 Y-32.385
X20.211 Y-32.243
X19.916 Y-32.045
X19.659 Y-31.799
X19.451 Y-31.51
X19.297 Y-31.19
X19.202 Y-30.847
X19.169 Y-30.493
X19.166 Y-29.45
G2 X19.219 Y-29.222 I0.6 J-0.019 F250
X19.779 Y-28.87 I0.547 J-0.247 F850
G1 X25.246 Y-28.983
G2 X25.78 Y-29.336 I-0.012 J-0.6
X25.833 Y-29.564 I-0.547 J-0.247 F250
G1 X25.83 Y-30.631 F850
X25.822 Y-30.781
X25.801 Y-30.93
X25.768 Y-31.076
X25.723 Y-31.219
X25.668 Y-31.359
X25.605 Y-31.495
X25.53 Y-31.634
X25.444 Y-31.773
X25.344 Y-31.917
X25.227 Y-32.067
X25.098 Y-32.214
X24.953 Y-32.361
X24.79 Y-32.51
X24.609 Y-32.657
X24.417 Y-32.796
X24.208 Y-32.929
X23.983 Y-33.056
X23.744 Y-33.173
X23.495 Y-33.279
X23.234 Y-33.372
X22.969 Y-33.45
X22.699 Y-33.514
X22.426 Y-33.562
X22.155 Y-33.594
X21.905 Y-33.61
X21.65 Y-33.611
X21.408 Y-33.599
X21.198 Y-33.576
X20.966 Y-33.538
X20.768 Y-33.494
X20.577 Y-33.44
X20.52 Y-33.42
X20.198 Y-33.277
X19.907 Y-33.078
X19.655 Y-32.832
X19.449 Y-32.545
X19.298 Y-32.227
X19.205 Y-31.887
X19.173 Y-31.536
X19.169 Y-30.493
G2 X19.222 Y-30.265 I0.6 J-0.019 F250
X19.784 Y-29.912 I0.547 J-0.247 F850
G1 X25.246 Y-30.051
G2 X25.777 Y-30.403 I-0.015 J-0.6
X25.83 Y-30.631 I-0.547 J-0.247 F250
G1 X25.827 Y-31.688 F850
X25.819 Y-31.838
X25.797 Y-31.986
X25.762 Y-32.132
X25.716 Y-32.275
X25.661 Y-32.414
X25.597 Y-32.55
X25.522 Y-32.688
X25.436 Y-32.827
X25.333 Y-32.973
X25.215 Y-33.122
X25.086 Y-33.268
X24.938 Y-33.417
X24.772 Y-33.566
X24.593 Y-33.711
X24.4 Y-33.849
X24.189 Y-33.982
X23.962 Y-34.109
X23.722 Y-34.225
X23.471 Y-34.33
X23.211 Y-34.421
X22.947 Y-34.498
X22.677 Y-34.56
X22.404 Y-34.607
X22.132 Y-34.638
X21.884 Y-34.652
X21.633 Y-34.653
X21.39 Y-34.639
X21.182 Y-34.616
X20.952 Y-34.577
X20.753 Y-34.532
X20.564 Y-34.477
X20.515 Y-34.46
X20.195 Y-34.315
X19.905 Y-34.117
X19.654 Y-33.871
X19.451 Y-33.584
X19.3 Y-33.267
X19.207 Y-32.928
X19.176 Y-32.578
X19.173 Y-31.536
G2 X19.226 Y-31.308 I0.6 J-0.019 F250
X19.789 Y-30.955 I0.547 J-0.247 F850
G1 X25.244 Y-31.107
G2 X25.774 Y-31.46 I-0.017 J-0.6
X25.827 Y-31.688 I-0.547 J-0.247 F250
G1 X25.824 Y-32.695 F850
X25.816 Y-32.845
X25.798 Y-32.993
X25.766 Y-33.14
X25.724 Y-33.284
X25.67 Y-33.424
X25.608 Y-33.561
X25.539 Y-33.693
X25.454 Y-33.834
X25.355 Y-33.98
X25.245 Y-34.124
X25.118 Y-34.272
X24.972 Y-34.423
X24.814 Y-34.57
X24.641 Y-34.713
X24.45 Y-34.854
X24.241 Y-34.991
X24.017 Y-35.12
X23.782 Y-35.238
X23.537 Y-35.345
X23.282 Y-35.439
X23.018 Y-35.52
X22.751 Y-35.586
X22.478 Y-35.637
X22.205 Y-35.673
X21.944 Y-35.692
X21.705 Y-35.695
X21.45 Y-35.685
X21.239 Y-35.665
X21.014 Y-35.63
X20.803 Y-35.585
X20.619 Y-35.535
X20.546 Y-35.511
X20.22 Y-35.369
X19.924 Y-35.171
X19.668 Y-34.925
X19.46 Y-34.637
X19.306 Y-34.316
X19.211 Y-33.973
X19.179 Y-33.619
X19.176 Y-32.578
G2 X19.229 Y-32.35 I0.6 J-0.019 F250
X19.788 Y-31.998 I0.547 J-0.247 F850
G1 X25.237 Y-32.114
G2 X25.771 Y-32.467 I-0.013 J-0.6
X25.824 Y-32.695 I-0.547 J-0.247 F250
G1 X25.821 Y-33.751 F850
X25.813 Y-33.901
X25.793 Y-34.05
X25.76 Y-34.196
X25.716 Y-34.34
X25.662 Y-34.48
X25.6 Y-34.616
X25.526 Y-34.754
X25.442 Y-34.892
X25.342 Y-35.037
X25.226 Y-35.186
X25.099 Y-35.332
X24.955 Y-35.479
X24.793 Y-35.628
X24.615 Y-35.774
X24.424 Y-35.913
X24.217 Y-36.046
X23.993 Y-36.173
X23.755 Y-36.291
X23.507 Y-36.397
X23.249 Y-36.491
X22.985 Y-36.57
X22.717 Y-36.634
X22.445 Y-36.683
X22.174 Y-36.717
X21.924 Y-36.733
X21.672 Y-36.736
X21.428 Y-36.724
X21.219 Y-36.702
X20.987 Y-36.665
X20.787 Y-36.621
X20.598 Y-36.569
X20.537 Y-36.548
X20.213 Y-36.405
X19.92 Y-36.207
X19.667 Y-35.96
X19.46 Y-35.673
X19.308 Y-35.354
X19.214 Y-35.013
X19.182 Y-34.661
X19.179 Y-33.619
G2 X19.232 Y-33.391 I0.6 J-0.019 F250
X19.793 Y-33.039 I0.547 J-0.247 F850
G1 X25.236 Y-33.171
G2 X25.768 Y-33.523 I-0.015 J-0.6
X25.821 Y-33.751 I-0.547 J-0.247 F250
G1 X25.818 Y-34.799 F850
X25.81 Y-34.949
X25.79 Y-35.097
X25.756 Y-35.243
X25.712 Y-35.387
X25.658 Y-35.527
X25.595 Y-35.663
X25.521 Y-35.8
X25.437 Y-35.938
X25.336 Y-36.083
X25.221 Y-36.231
X25.093 Y-36.377
X24.948 Y-36.526
X24.784 Y-36.675
X24.607 Y-36.819
X24.417 Y-36.958
X24.208 Y-37.091
X23.983 Y-37.219
X23.746 Y-37.336
X23.497 Y-37.442
X23.24 Y-37.534
X22.977 Y-37.613
X22.709 Y-37.676
X22.437 Y-37.725
X22.166 Y-37.758
X21.916 Y-37.774
X21.668 Y-37.776
X21.422 Y-37.764
X21.214 Y-37.742
X20.984 Y-37.705
X20.782 Y-37.66
X20.595 Y-37.607
X20.536 Y-37.588
X20.214 Y-37.444
X19.921 Y-37.246
X19.668 Y-36.999
X19.463 Y-36.712
X19.311 Y-36.394
X19.217 Y-36.053
X19.185 Y-35.701
X19.182 Y-34.661
G2 X19.235 Y-34.432 I0.6 J-0.019 F250
X19.797 Y-34.08 I0.547 J-0.247 F850
G1 X25.233 Y-34.218
G2 X25.765 Y-34.571 I-0.015 J-0.6
X25.818 Y-34.799 I-0.547 J-0.247 F250
G1 X25.815 Y-35.805 F850
X25.807 Y-35.955
X25.79 Y-36.104
X25.76 Y-36.251
X25.719 Y-36.395
X25.667 Y-36.536
X25.606 Y-36.673
X25.537 Y-36.806
X25.454 Y-36.945
X25.356 Y-37.091
X25.345 Y-37.107
X25.096 Y-37.379
X24.802 Y-37.601
X24.471 Y-37.765
X24.117 Y-37.866
X23.75 Y-37.9
G2 X23.522 Y-37.846 I0.021 J0.6 F250
X23.342 Y-36.881 I0.249 J0.546 F850
G1 X24.786 Y-35.405
G2 X25.762 Y-35.577 I0.429 J-0.42
X25.815 Y-35.805 I-0.547 J-0.247 F250
G1 X25.812 Y-36.812 F850
X25.804 Y-36.962
X25.74 Y-37.212
X25.619 Y-37.44
X25.447 Y-37.632
X25.234 Y-37.778
X24.993 Y-37.869
X24.737 Y-37.9
G2 X24.509 Y-37.846 I0.021 J0.6 F250
X24.327 Y-36.883 I0.249 J0.546 F850
G1 X24.781 Y-36.414
G2 X25.759 Y-36.584 I0.431 J-0.418
X25.812 Y-36.812 I-0.547 J-0.247 F250
G1 X25.811 Y-37.215 F850
X25.81 Y-37.316
X25.796 Y-37.416
X25.767 Y-37.51
X25.746 Y-37.556
X25.72 Y-37.603
X25.711 Y-37.618
X25.667 Y-37.675
X25.615 Y-37.733
X25.567 Y-37.774
X25.519 Y-37.808
X25.5 Y-37.819
X25.409 Y-37.862
X25.317 Y-37.888
X25.217 Y-37.9
X20.377
X20.227 Y-37.893
X19.95 Y-37.819
X19.698 Y-37.682
X19.485 Y-37.489
X19.324 Y-37.252
X19.223 Y-36.984
X19.188 Y-36.699
G2 X19.219 Y-36.466 I1.151 J-0.037 F250
X20.645 Y-35.626 I1.119 J-0.27 F850
X20.61 Y-37.868 I-0.308 J-1.117
X20.377 Y-37.9 I-0.273 J1.126 F250
G1 X19.783 F850
X19.683 Y-37.888
X19.591 Y-37.862
X19.5 Y-37.819
X19.481 Y-37.808
X19.433 Y-37.774
X19.385 Y-37.733
X19.333 Y-37.675
X19.289 Y-37.618
X19.28 Y-37.603
X19.254 Y-37.556
X19.233 Y-37.51
X19.204 Y-37.416
X19.19 Y-37.316
X19.189 Y-37.014
X19.185 Y-35.701
G2 X19.238 Y-35.473 I0.6 J-0.019 F250
G1 X19.276 Y-35.388 Z-14.973
X19.314 Y-35.304 Z-14.951
X19.35 Y-35.225 Z-14.915
X19.383 Y-35.152 Z-14.865
X19.413 Y-35.087 Z-14.804
X19.438 Y-35.031 Z-14.733
X19.458 Y-34.986 Z-14.652
X19.473 Y-34.953 Z-14.565
X19.482 Y-34.933 Z-14.474
X19.485 Y-34.927 Z-14.38
G0 Z5
X25.219 Y-262.006
Z-4.39
G1 Z-4.99 F250
G2 X22.647 Y-266.339 Z-5.198 I-2.719 J-1.316 F200
X19.669 Y-262.281 Z-5.406 I-0.147 J3.014
X24.563 Y-261.131 Z-5.614 I2.827 J-1.043
X23.708 Y-266.079 Z-5.823 I-2.064 J-2.191
X19.495 Y-263.358 Z-6.031 I-1.207 J2.753
X23.642 Y-260.549 Z-6.239 I3.003 J0.033
X24.603 Y-265.459 Z-6.447 I-1.143 J-2.773
X19.714 Y-264.423 Z-6.655 I-2.102 J2.134
X22.577 Y-260.335 Z-6.863 I2.783 J1.097
X25.216 Y-264.564 Z-7.071 I-0.079 J-2.987
X20.297 Y-265.336 Z-7.279 I-2.715 J1.24
X21.51 Y-260.514 Z-7.488 I2.201 J2.01
X25.468 Y-263.513 Z-7.696 I0.987 J-2.809
X21.164 Y-265.979 Z-7.904 I-2.968 J0.19
X20.58 Y-261.059 Z-8.112 I1.335 J2.653
X25.33 Y-262.445 Z-8.32 I1.917 J-2.264
X22.2 Y-266.27 Z-8.528 I-2.83 J-0.877
X19.908 Y-261.898 Z-8.736 I0.3 J2.944
X24.823 Y-261.5 Z-8.944 I2.588 J-1.427
X23.267 Y-266.172 Z-9.153 I-2.323 J-1.821
X19.581 Y-262.916 Z-9.361 I-0.766 J2.847
X24.014 Y-260.801 Z-9.569 I2.916 J-0.409
X24.225 Y-265.703 Z-9.777 I-1.515 J-2.521
X19.638 Y-263.981 Z-9.985 I-1.724 J2.378
X23.013 Y-260.438 Z-10.193 I2.86 J0.655
X24.951 Y-264.925 Z-10.401 I-0.515 J-2.884
X20.069 Y-264.952 Z-10.609 I-2.45 J1.601
X21.952 Y-260.455 Z-10.818 I2.429 J1.626
X25.35 Y-263.943 Z-11.026 I0.545 J-2.868
X20.815 Y-265.702 Z-11.234 I-2.849 J0.62
X20.971 Y-260.847 Z-11.442 I1.683 J2.376
X25.372 Y-262.888 Z-11.65 I1.526 J-2.476
X21.777 Y-266.136 Z-11.858 I-2.872 J-0.435
X20.197 Y-261.561 Z-12.066 I0.723 J2.81
X25.019 Y-261.897 Z-12.274 I2.3 J-1.763
X22.825 Y-266.198 Z-12.483 I-2.519 J-1.425
X19.73 Y-262.501 Z-12.691 I-0.325 J2.872
X24.338 Y-261.101 Z-12.899 I2.766 J-0.824
X23.823 Y-265.883 Z-13.107 I-1.838 J-2.221
X19.63 Y-263.541 Z-13.315 I-1.322 J2.558
X23.421 Y-260.602 Z-13.523 I2.868 J0.216
X24.64 Y-265.235 Z-13.731 I-0.922 J-2.72
X19.905 Y-264.545 Z-13.939 I-2.139 J1.911
X22.39 Y-260.463 Z-14.148 I2.592 J1.219
X25.171 Y-264.342 Z-14.356 I0.107 J-2.859
X20.519 Y-265.382 Z-14.564 I-2.67 J1.019
X21.382 Y-260.7 Z-14.772 I1.98 J2.056
X25.347 Y-263.323 Z-14.98 I1.115 J-2.623
X23.147 Y-266.098 I-2.85
X21.847 Y-260.548 I-0.65 J2.775
X24.268 Y-261.089 I0.65 J-2.775
X25.347 Y-263.323 I-1.771 J-2.233
G1 X25.36 Y-264.209 F850
X25.393 Y-264.315
X25.421 Y-264.462
X25.43 Y-264.612
X25.423 Y-264.761
X25.403 Y-264.91
X25.37 Y-265.056
X25.325 Y-265.2
X25.271 Y-265.339
X25.207 Y-265.475
X25.135 Y-265.607
X25.055 Y-265.733
X24.967 Y-265.855
X24.87 Y-265.975
X24.764 Y-266.092
X24.648 Y-266.207
X24.523 Y-266.317
X24.389 Y-266.422
X24.246 Y-266.522
X24.095 Y-266.616
X23.936 Y-266.702
X23.77 Y-266.78
X23.597 Y-266.85
X23.419 Y-266.911
X23.235 Y-266.962
X23.046 Y-267.003
X22.853 Y-267.034
X22.657 Y-267.054
X22.459 Y-267.064
X22.259 Y-267.062
X22.058 Y-267.048
X21.857 Y-267.024
X21.656 Y-266.987
X21.457 Y-266.94
X21.26 Y-266.881
X21.066 Y-266.81
X20.876 Y-266.729
X20.69 Y-266.636
X20.508 Y-266.533
X20.333 Y-266.42
X20.164 Y-266.297
X20.001 Y-266.164
X19.846 Y-266.022
X19.699 Y-265.871
X19.641 Y-265.804
X19.431 Y-265.514
X19.277 Y-265.192
X19.182 Y-264.847
X19.15 Y-264.491
Y-262.517
X19.157 Y-262.367
X19.175 Y-262.218
X19.202 Y-262.07
X19.238 Y-261.923
X19.283 Y-261.774
X19.338 Y-261.623
X19.403 Y-261.472
X19.478 Y-261.321
X19.563 Y-261.172
X19.659 Y-261.024
X19.764 Y-260.88
X19.88 Y-260.739
X20.005 Y-260.603
X20.139 Y-260.472
X20.283 Y-260.348
X20.435 Y-260.231
X20.595 Y-260.121
X20.645 Y-260.09
X20.971 Y-259.931
X21.321 Y-259.833
X21.683 Y-259.8
G2 X21.91 Y-259.854 I-0.021 J-0.6 F250
X22.105 Y-260.804 I-0.249 J-0.546 F850
G1 X20.193 Y-262.9
G2 X19.204 Y-262.745 I-0.443 J0.404
X19.15 Y-262.517 I0.546 J0.249 F250
G1 Y-261.309 F850
X19.157 Y-261.159
X19.226 Y-260.848
X19.357 Y-260.558
X19.545 Y-260.301
X19.783 Y-260.089
X20.059 Y-259.931
X20.361 Y-259.833
X20.678 Y-259.8
G2 X20.906 Y-259.854 I-0.021 J-0.6 F250
X21.077 Y-260.828 I-0.249 J-0.546 F850
G1 X20.169 Y-261.717
G2 X19.204 Y-261.537 I-0.42 J0.429
X19.15 Y-261.309 I0.546 J0.249 F250
G1 Y-260.544 F850
Y-260.503
Y-260.473
X19.156 Y-260.353
X19.161 Y-260.302
G2 X19.266 Y-260.093 I0.581 J-0.161 F250
X19.781 Y-259.861 I0.476 J-0.37 F850
X19.705 Y-261.045 I-0.038 J-0.592
X19.204 Y-260.701 I0.038 J0.592
X19.15 Y-260.473 I0.539 J0.248 F250
G1 Y-260.403 F850
X19.161 Y-260.302
X19.168 Y-260.274
X19.173 Y-260.252
X19.19 Y-260.201
X19.212 Y-260.151
X19.24 Y-260.101
X19.28 Y-260.043
X19.356 Y-259.959
X19.432 Y-259.899
X19.481 Y-259.87
X19.532 Y-259.846
X19.582 Y-259.828
X19.683 Y-259.805
X19.884 Y-259.8
X22.902
X23.206 Y-259.815
X23.368 Y-259.832
X23.532 Y-259.859
X23.699 Y-259.897
X23.866 Y-259.944
X24.034 Y-260.002
X24.201 Y-260.07
X24.367 Y-260.149
X24.53 Y-260.238
X24.691 Y-260.338
X24.847 Y-260.448
X24.998 Y-260.568
X25.144 Y-260.697
X25.284 Y-260.836
X25.337 Y-260.896
X25.556 Y-261.189
X25.717 Y-261.517
X25.817 Y-261.869
X25.85 Y-262.233
G2 X25.796 Y-262.461 I-0.6 J0.021 F250
X24.882 Y-262.685 I-0.546 J0.249 F850
G1 X22.555 Y-260.873
G2 X22.675 Y-259.854 I0.369 J0.473
X22.902 Y-259.8 I0.249 J-0.546 F250
G1 X24.422 F850
X24.572 Y-259.807
X24.865 Y-259.876
X25.138 Y-260.004
X25.379 Y-260.184
X25.579 Y-260.411
X25.727 Y-260.673
X25.819 Y-260.96
X25.85 Y-261.26
G2 X25.796 Y-261.487 I-0.6 J0.021 F250
X24.818 Y-261.655 I-0.546 J0.249 F850
G1 X24.011 Y-260.816
G2 X24.194 Y-259.854 I0.432 J0.416
X24.422 Y-259.8 I0.249 J-0.546 F250
G1 X25.116 F850
X25.177 Y-259.802
X25.22 Y-259.803
X25.249 Y-259.804
X25.314 Y-259.81
X25.366 Y-259.818
X25.418 Y-259.828
G2 X25.605 Y-259.967 I-0.173 J-0.427 F250
X25.701 Y-260.321 I-0.36 J-0.288 F850
X24.805 Y-260.192 I-0.448 J0.065
X25.024 Y-259.865 I0.448 J-0.065
X25.249 Y-259.804 I0.228 J-0.391 F250
G1 X25.317 Y-259.805 F850
X25.418 Y-259.828
X25.468 Y-259.846
X25.519 Y-259.87
X25.568 Y-259.899
X25.644 Y-259.959
X25.72 Y-260.043
X25.76 Y-260.101
X25.788 Y-260.151
X25.81 Y-260.201
X25.827 Y-260.252
X25.839 Y-260.302
X25.85 Y-260.403
Y-265.134
X25.842 Y-265.286
X25.826 Y-265.435
X25.8 Y-265.583
X25.763 Y-265.728
X25.717 Y-265.871
X25.663 Y-266.011
X25.6 Y-266.147
X25.527 Y-266.285
X25.442 Y-266.425
X25.347 Y-266.565
X25.241 Y-266.702
X25.124 Y-266.837
X24.996 Y-266.969
X24.856 Y-267.098
X24.705 Y-267.223
X24.542 Y-267.342
X24.37 Y-267.455
X24.188 Y-267.559
X23.997 Y-267.654
X23.797 Y-267.741
X23.589 Y-267.817
X23.373 Y-267.883
X23.149 Y-267.937
X22.919 Y-267.979
X22.684 Y-268.009
X22.445 Y-268.026
X22.202 Y-268.029
X21.956 Y-268.018
X21.71 Y-267.994
X21.464 Y-267.955
X21.218 Y-267.902
X20.973 Y-267.835
X20.732 Y-267.754
X20.494 Y-267.658
X20.269 Y-267.553
X20.202 Y-267.517
X19.903 Y-267.32
X19.644 Y-267.072
X19.433 Y-266.782
X19.278 Y-266.459
X19.182 Y-266.113
X19.15 Y-265.756
Y-264.491
G2 X19.204 Y-264.263 I0.6 J-0.021 F250
X19.819 Y-263.916 I0.546 J-0.249 F850
G1 X25.32 Y-264.559
G2 X25.796 Y-264.906 I-0.07 J-0.596
X25.85 Y-265.134 I-0.546 J-0.249 F250
G1 Y-266.252 F850
X25.842 Y-266.406
X25.826 Y-266.555
X25.797 Y-266.702
X25.755 Y-266.846
X25.703 Y-266.987
X25.641 Y-267.124
X25.571 Y-267.256
X25.491 Y-267.387
X25.401 Y-267.518
X25.299 Y-267.649
X25.183 Y-267.783
X25.054 Y-267.917
X24.913 Y-268.046
X24.759 Y-268.172
X24.591 Y-268.294
X24.408 Y-268.413
X24.212 Y-268.524
X24.006 Y-268.627
X23.789 Y-268.72
X23.56 Y-268.803
X23.318 Y-268.876
X23.067 Y-268.936
X22.805 Y-268.984
X22.536 Y-269.017
X22.262 Y-269.035
X21.982 Y-269.038
X21.699 Y-269.025
X21.427 Y-268.998
X21.179 Y-268.958
X20.92 Y-268.902
X20.71 Y-268.843
X20.486 Y-268.767
X20.401 Y-268.733
X20.099 Y-268.58
X19.827 Y-268.378
X19.593 Y-268.133
X19.403 Y-267.853
X19.264 Y-267.544
X19.179 Y-267.216
X19.15 Y-266.878
Y-265.756
G2 X19.204 Y-265.528 I0.6 J-0.021 F250
X19.803 Y-265.179 I0.546 J-0.249 F850
G1 X25.304 Y-265.675
G2 X25.796 Y-266.024 I-0.054 J-0.598
X25.85 Y-266.252 I-0.546 J-0.249 F250
G1 Y-267.308 F850
X25.843 Y-267.458
X25.821 Y-267.606
X25.786 Y-267.752
X25.739 Y-267.895
X25.682 Y-268.033
X25.616 Y-268.168
X25.541 Y-268.298
X25.456 Y-268.428
X25.357 Y-268.563
X25.247 Y-268.697
X25.124 Y-268.83
X24.984 Y-268.965
X24.828 Y-269.1
X24.661 Y-269.228
X24.479 Y-269.353
X24.279 Y-269.473
X24.062 Y-269.588
X23.832 Y-269.693
X23.592 Y-269.788
X23.336 Y-269.872
X23.068 Y-269.943
X22.792 Y-270.001
X22.508 Y-270.043
X22.222 Y-270.069
X21.935 Y-270.08
X21.675 Y-270.074
X21.404 Y-270.054
X21.168 Y-270.022
X20.943 Y-269.979
X20.717 Y-269.922
X20.526 Y-269.863
X20.448 Y-269.833
X20.136 Y-269.685
X19.854 Y-269.484
X19.611 Y-269.238
X19.414 Y-268.954
X19.269 Y-268.64
X19.18 Y-268.305
X19.15 Y-267.961
Y-266.878
G2 X19.204 Y-266.651 I0.6 J-0.021 F250
X19.796 Y-266.301 I0.546 J-0.249 F850
G1 X25.297 Y-266.731
G2 X25.796 Y-267.08 I-0.047 J-0.598
X25.85 Y-267.308 I-0.546 J-0.249 F250
G1 Y-268.265 F850
X25.843 Y-268.415
X25.824 Y-268.564
X25.791 Y-268.71
X25.747 Y-268.853
X25.691 Y-268.993
X25.627 Y-269.128
X25.554 Y-269.259
X25.472 Y-269.389
X25.374 Y-269.526
X25.262 Y-269.665
X25.139 Y-269.801
X24.999 Y-269.941
X24.84 Y-270.081
X24.669 Y-270.217
X24.482 Y-270.348
X24.277 Y-270.475
X24.053 Y-270.597
X23.816 Y-270.71
X23.567 Y-270.811
X23.308 Y-270.9
X23.037 Y-270.977
X22.76 Y-271.038
X22.479 Y-271.084
X22.195 Y-271.114
X21.917 Y-271.127
X21.669 Y-271.126
X21.402 Y-271.109
X21.181 Y-271.082
X20.952 Y-271.041
X20.736 Y-270.99
X20.547 Y-270.934
X20.473 Y-270.907
X20.156 Y-270.76
X19.869 Y-270.561
X19.621 Y-270.314
X19.42 Y-270.028
X19.271 Y-269.711
X19.181 Y-269.374
X19.15 Y-269.025
Y-267.961
G2 X19.204 Y-267.733 I0.6 J-0.021 F250
X19.783 Y-267.382 I0.546 J-0.249 F850
G1 X25.284 Y-267.687
G2 X25.796 Y-268.037 I-0.033 J-0.599
X25.85 Y-268.265 I-0.546 J-0.249 F250
G1 Y-269.272 F850
X25.843 Y-269.422
X25.822 Y-269.57
X25.788 Y-269.716
X25.742 Y-269.859
X25.686 Y-269.998
X25.622 Y-270.134
X25.547 Y-270.268
X25.463 Y-270.401
X25.363 Y-270.541
X25.247 Y-270.685
X25.12 Y-270.826
X24.975 Y-270.969
X24.812 Y-271.114
X24.635 Y-271.254
X24.444 Y-271.388
X24.234 Y-271.519
X24.007 Y-271.643
X23.764 Y-271.758
X23.512 Y-271.861
X23.25 Y-271.951
X22.979 Y-272.027
X22.704 Y-272.088
X22.425 Y-272.133
X22.146 Y-272.163
X21.882 Y-272.176
X21.633 Y-272.174
X21.376 Y-272.158
X21.162 Y-272.132
X20.93 Y-272.09
X20.724 Y-272.042
X20.534 Y-271.985
X20.473 Y-271.963
X20.156 Y-271.817
X19.869 Y-271.617
X19.621 Y-271.37
X19.42 Y-271.084
X19.271 Y-270.767
X19.181 Y-270.43
X19.15 Y-270.081
Y-269.025
G2 X19.204 Y-268.797 I0.6 J-0.021 F250
X19.777 Y-268.447 I0.546 J-0.249 F850
G1 X25.277 Y-268.693
G2 X25.796 Y-269.044 I-0.027 J-0.599
X25.85 Y-269.272 I-0.546 J-0.249 F250
G1 Y-270.279 F850
X25.843 Y-270.428
X25.822 Y-270.577
X25.788 Y-270.723
X25.743 Y-270.866
X25.688 Y-271.006
X25.624 Y-271.141
X25.551 Y-271.274
X25.466 Y-271.411
X25.364 Y-271.555
X25.25 Y-271.699
X25.122 Y-271.843
X24.975 Y-271.991
X24.812 Y-272.138
X24.636 Y-272.278
X24.443 Y-272.416
X24.232 Y-272.55
X24.004 Y-272.676
X23.763 Y-272.793
X23.513 Y-272.897
X23.253 Y-272.988
X22.983 Y-273.066
X22.711 Y-273.128
X22.433 Y-273.176
X22.155 Y-273.207
X21.891 Y-273.222
X21.647
X21.39 Y-273.207
X21.177 Y-273.183
X20.947 Y-273.144
X20.739 Y-273.096
X20.552 Y-273.042
X20.486 Y-273.019
X20.166 Y-272.874
X19.876 Y-272.674
X19.626 Y-272.427
X19.423 Y-272.14
X19.273 Y-271.822
X19.181 Y-271.483
X19.15 Y-271.132
Y-270.081
G2 X19.204 Y-269.853 I0.6 J-0.021 F250
X19.771 Y-269.503 I0.546 J-0.249 F850
G1 X25.272 Y-269.7
G2 X25.796 Y-270.051 I-0.021 J-0.6
X25.85 Y-270.279 I-0.546 J-0.249 F250
G1 Y-271.285 F850
X25.843 Y-271.435
X25.824 Y-271.584
X25.791 Y-271.73
X25.748 Y-271.874
X25.694 Y-272.014
X25.631 Y-272.15
X25.56 Y-272.283
X25.476 Y-272.421
X25.376 Y-272.567
X25.264 Y-272.711
X25.137 Y-272.857
X24.991 Y-273.007
X24.83 Y-273.154
X24.657 Y-273.297
X24.465 Y-273.436
X24.255 Y-273.572
X24.028 Y-273.701
X23.791 Y-273.819
X23.542 Y-273.925
X23.284 Y-274.019
X23.016 Y-274.099
X22.745 Y-274.165
X22.468 Y-274.215
X22.191 Y-274.249
X21.926 Y-274.266
X21.683 Y-274.269
X21.424 Y-274.257
X21.21 Y-274.235
X20.982 Y-274.198
X20.77 Y-274.152
X20.584 Y-274.1
X20.506 Y-274.074
X20.182 Y-273.93
X19.888 Y-273.732
X19.634 Y-273.484
X19.427 Y-273.196
X19.275 Y-272.876
X19.181 Y-272.533
X19.15 Y-272.18
Y-271.132
G2 X19.204 Y-270.904 I0.6 J-0.021 F250
X19.766 Y-270.553 I0.546 J-0.249 F850
G1 X25.267 Y-270.706
G2 X25.796 Y-271.057 I-0.017 J-0.6
X25.85 Y-271.285 I-0.546 J-0.249 F250
G1 Y-272.292 F850
X25.843 Y-272.442
X25.826 Y-272.591
X25.796 Y-272.738
X25.755 Y-272.882
X25.703 Y-273.023
X25.642 Y-273.16
X25.573 Y-273.293
X25.491 Y-273.431
X25.393 Y-273.577
X25.284 Y-273.722
X25.159 Y-273.868
X25.016 Y-274.019
X24.858 Y-274.167
X24.687 Y-274.311
X24.498 Y-274.452
X24.291 Y-274.589
X24.067 Y-274.72
X23.832 Y-274.84
X23.586 Y-274.949
X23.33 Y-275.046
X23.064 Y-275.129
X22.794 Y-275.197
X22.519 Y-275.251
X22.242 Y-275.288
X21.975 Y-275.309
X21.732 Y-275.315
X21.47 Y-275.306
X21.253 Y-275.286
X21.027 Y-275.253
X20.81 Y-275.208
X20.624 Y-275.159
X20.529 Y-275.127
X20.2 Y-274.986
X19.901 Y-274.789
X19.643 Y-274.541
X19.432 Y-274.251
X19.277 Y-273.928
X19.182 Y-273.583
X19.15 Y-273.226
Y-272.18
G2 X19.204 Y-271.952 I0.6 J-0.021 F250
X19.762 Y-271.601 I0.546 J-0.249 F850
G1 X25.263 Y-271.713
G2 X25.796 Y-272.064 I-0.012 J-0.6
X25.85 Y-272.292 I-0.546 J-0.249 F250
G1 Y-273.389 F850
X25.843 Y-273.539
X25.82 Y-273.687
X25.785 Y-273.833
X25.738 Y-273.976
X25.683 Y-274.115
X25.619 Y-274.251
X25.542 Y-274.39
X25.453 Y-274.532
X25.352 Y-274.675
X25.234 Y-274.825
X25.1 Y-274.975
X24.954 Y-275.122
X24.79 Y-275.269
X24.607 Y-275.415
X24.409 Y-275.556
X24.198 Y-275.689
X23.972 Y-275.814
X23.73 Y-275.931
X23.479 Y-276.035
X23.216 Y-276.127
X22.948 Y-276.204
X22.676 Y-276.266
X22.4 Y-276.313
X22.126 Y-276.344
X21.876 Y-276.358
X21.612 Y-276.357
X21.375 Y-276.344
X21.162 Y-276.319
X20.929 Y-276.279
X20.734 Y-276.234
X20.537 Y-276.177
X20.485 Y-276.158
X20.165 Y-276.013
X19.875 Y-275.814
X19.625 Y-275.567
X19.422 Y-275.28
X19.273 Y-274.962
X19.181 Y-274.622
X19.15 Y-274.272
Y-273.226
G2 X19.204 Y-272.998 I0.6 J-0.021 F250
X19.767 Y-272.648 I0.546 J-0.249 F850
G1 X25.268 Y-272.81
G2 X25.796 Y-273.161 I-0.018 J-0.6
X25.85 Y-273.389 I-0.546 J-0.249 F250
G1 Y-274.396 F850
X25.843 Y-274.546
X25.824 Y-274.695
X25.792 Y-274.841
X25.748 Y-274.985
X25.695 Y-275.125
X25.633 Y-275.261
X25.562 Y-275.395
X25.477 Y-275.536
X25.377 Y-275.682
X25.266 Y-275.826
X25.138 Y-275.975
X24.992 Y-276.127
X24.833 Y-276.274
X24.658 Y-276.418
X24.465 Y-276.56
X24.254 Y-276.698
X24.03 Y-276.827
X23.793 Y-276.946
X23.546 Y-277.052
X23.287 Y-277.148
X23.021 Y-277.229
X22.75 Y-277.295
X22.474 Y-277.346
X22.199 Y-277.382
X21.932 Y-277.401
X21.692 Y-277.404
X21.433 Y-277.393
X21.219 Y-277.372
X20.994 Y-277.337
X20.78 Y-277.291
X20.595 Y-277.241
X20.514 Y-277.214
X20.188 Y-277.071
X19.893 Y-276.873
X19.637 Y-276.625
X19.429 Y-276.336
X19.276 Y-276.015
X19.182 Y-275.672
X19.15 Y-275.317
Y-274.272
G2 X19.204 Y-274.045 I0.6 J-0.021 F250
X19.763 Y-273.693 I0.546 J-0.249 F850
G1 X25.264 Y-273.817
G2 X25.796 Y-274.168 I-0.013 J-0.6
X25.85 Y-274.396 I-0.546 J-0.249 F250
G1 Y-275.464 F850
X25.843 Y-275.613
X25.821 Y-275.762
X25.786 Y-275.908
X25.741 Y-276.051
X25.686 Y-276.19
X25.623 Y-276.326
X25.547 Y-276.466
X25.461 Y-276.605
X25.359 Y-276.751
X25.241 Y-276.901
X25.112 Y-277.048
X24.966 Y-277.196
X24.8 Y-277.346
X24.619 Y-277.492
X24.426 Y-277.632
X24.215 Y-277.766
X23.988 Y-277.893
X23.747 Y-278.011
X23.495 Y-278.117
X23.233 Y-278.21
X22.966 Y-278.288
X22.694 Y-278.352
X22.419 Y-278.4
X22.145 Y-278.432
X21.893 Y-278.447
X21.637 Y-278.448
X21.392 Y-278.435
X21.181 Y-278.412
X20.948 Y-278.373
X20.747 Y-278.328
X20.557 Y-278.274
X20.494 Y-278.252
X20.172 Y-278.107
X19.881 Y-277.908
X19.629 Y-277.661
X19.424 Y-277.374
X19.274 Y-277.055
X19.181 Y-276.714
X19.15 Y-276.363
Y-275.317
G2 X19.204 Y-275.089 I0.6 J-0.021 F250
X19.766 Y-274.739 I0.546 J-0.249 F850
G1 X25.266 Y-274.885
G2 X25.796 Y-275.236 I-0.016 J-0.6
X25.85 Y-275.464 I-0.546 J-0.249 F250
G1 Y-276.52 F850
X25.843 Y-276.67
X25.82 Y-276.818
X25.784 Y-276.964
X25.738 Y-277.107
X25.682 Y-277.246
X25.618 Y-277.381
X25.542 Y-277.519
X25.455 Y-277.659
X25.351 Y-277.807
X25.233 Y-277.955
X25.103 Y-278.102
X24.954 Y-278.253
X24.786 Y-278.403
X24.606 Y-278.547
X24.411 Y-278.686
X24.198 Y-278.821
X23.969 Y-278.948
X23.727 Y-279.065
X23.474 Y-279.17
X23.212 Y-279.262
X22.945 Y-279.339
X22.673 Y-279.401
X22.398 Y-279.448
X22.124 Y-279.479
X21.871 Y-279.493
X21.62
X21.373 Y-279.479
X21.163 Y-279.455
X20.932 Y-279.416
X20.731 Y-279.369
X20.542 Y-279.315
X20.486 Y-279.295
X20.166 Y-279.149
X19.876 Y-278.95
X19.626 Y-278.703
X19.423 Y-278.416
X19.273 Y-278.098
X19.181 Y-277.759
X19.15 Y-277.408
Y-276.363
G2 X19.204 Y-276.135 I0.6 J-0.021 F250
X19.767 Y-275.784 I0.546 J-0.249 F850
G1 X25.268 Y-275.941
G2 X25.796 Y-276.292 I-0.017 J-0.6
X25.85 Y-276.52 I-0.546 J-0.249 F250
G1 Y-277.527 F850
X25.843 Y-277.677
X25.824 Y-277.825
X25.792 Y-277.972
X25.748 Y-278.116
X25.695 Y-278.256
X25.633 Y-278.392
X25.562 Y-278.526
X25.477 Y-278.668
X25.377 Y-278.814
X25.266 Y-278.959
X25.137 Y-279.108
X24.991 Y-279.26
X24.832 Y-279.407
X24.657 Y-279.552
X24.463 Y-279.694
X24.252 Y-279.832
X24.028 Y-279.961
X23.791 Y-280.08
X23.544 Y-280.187
X23.286 Y-280.282
X23.019 Y-280.364
X22.749 Y-280.43
X22.474 Y-280.481
X22.198 Y-280.517
X21.932 Y-280.536
X21.692 Y-280.539
X21.434 Y-280.529
X21.219 Y-280.507
X20.994 Y-280.473
X20.781 Y-280.427
X20.596 Y-280.376
X20.515 Y-280.349
X20.189 Y-280.207
X19.893 Y-280.009
X19.637 Y-279.761
X19.429 Y-279.472
X19.276 Y-279.151
X19.182 Y-278.807
X19.15 Y-278.453
Y-277.408
G2 X19.204 Y-277.18 I0.6 J-0.021 F250
X19.763 Y-276.829 I0.546 J-0.249 F850
G1 X25.263 Y-276.948
G2 X25.796 Y-277.299 I-0.013 J-0.6
X25.85 Y-277.527 I-0.546 J-0.249 F250
G1 Y-278.583 F850
X25.843 Y-278.733
X25.822 Y-278.882
X25.789 Y-279.028
X25.745 Y-279.171
X25.691 Y-279.311
X25.628 Y-279.447
X25.553 Y-279.586
X25.469 Y-279.725
X25.368 Y-279.871
X25.252 Y-280.021
X25.124 Y-280.167
X24.979 Y-280.317
X24.814 Y-280.467
X24.636 Y-280.613
X24.444 Y-280.753
X24.235 Y-280.888
X24.008 Y-281.016
X23.768 Y-281.135
X23.517 Y-281.242
X23.257 Y-281.337
X22.99 Y-281.417
X22.719 Y-281.481
X22.445 Y-281.531
X22.17 Y-281.565
X21.915 Y-281.581
X21.664 Y-281.584
X21.413 Y-281.572
X21.202 Y-281.55
X20.969 Y-281.513
X20.765 Y-281.468
X20.577 Y-281.415
X20.505 Y-281.391
X20.181 Y-281.247
X19.887 Y-281.048
X19.633 Y-280.801
X19.427 Y-280.513
X19.275 Y-280.193
X19.181 Y-279.851
X19.15 Y-279.498
Y-278.453
G2 X19.204 Y-278.225 I0.6 J-0.021 F250
X19.764 Y-277.874 I0.546 J-0.249 F850
G1 X25.265 Y-278.004
G2 X25.796 Y-278.355 I-0.014 J-0.6
X25.85 Y-278.583 I-0.546 J-0.249 F250
G1 Y-279.631 F850
X25.843 Y-279.781
X25.822 Y-279.929
X25.788 Y-280.075
X25.744 Y-280.219
X25.69 Y-280.359
X25.627 Y-280.495
X25.553 Y-280.632
X25.468 Y-280.771
X25.366 Y-280.918
X25.251 Y-281.066
X25.123 Y-281.213
X24.976 Y-281.364
X24.811 Y-281.514
X24.634 Y-281.659
X24.442 Y-281.799
X24.231 Y-281.935
X24.004 Y-282.064
X23.764 Y-282.182
X23.513 Y-282.289
X23.253 Y-282.383
X22.987 Y-282.463
X22.716 Y-282.527
X22.441 Y-282.576
X22.167 Y-282.61
X21.91 Y-282.627
X21.662 Y-282.629
X21.41 Y-282.617
X21.199 Y-282.595
X20.967 Y-282.557
X20.762 Y-282.512
X20.574 Y-282.46
X20.503 Y-282.435
X20.179 Y-282.291
X19.886 Y-282.093
X19.633 Y-281.846
X19.426 Y-281.557
X19.275 Y-281.237
X19.181 Y-280.896
X19.15 Y-280.543
Y-279.498
G2 X19.204 Y-279.27 I0.6 J-0.021 F250
X19.764 Y-278.919 I0.546 J-0.249 F850
G1 X25.265 Y-279.052
G2 X25.796 Y-279.403 I-0.015 J-0.6
X25.85 Y-279.631 I-0.546 J-0.249 F250
G1 Y-280.638 F850
X25.843 Y-280.787
X25.826 Y-280.936
X25.796 Y-281.083
X25.754 Y-281.228
X25.702 Y-281.368
X25.641 Y-281.505
X25.573 Y-281.639
X25.49 Y-281.779
X25.392 Y-281.926
X25.283 Y-282.07
X25.157 Y-282.219
X25.013 Y-282.371
X24.856 Y-282.519
X24.684 Y-282.664
X24.494 Y-282.807
X24.285 Y-282.945
X24.063 Y-283.076
X23.828 Y-283.197
X23.582 Y-283.306
X23.327 Y-283.403
X23.061 Y-283.487
X22.792 Y-283.555
X22.517 Y-283.609
X22.241 Y-283.647
X21.974 Y-283.668
X21.733 Y-283.674
X21.471 Y-283.666
X21.254 Y-283.646
X21.03 Y-283.613
X20.813 Y-283.569
X20.627 Y-283.52
X20.532 Y-283.489
X20.202 Y-283.348
X19.903 Y-283.151
X19.644 Y-282.903
X19.433 Y-282.613
X19.278 Y-282.29
X19.182 Y-281.944
X19.15 Y-281.587
Y-280.543
G2 X19.204 Y-280.315 I0.6 J-0.021 F250
X19.76 Y-279.964 I0.546 J-0.249 F850
G1 X25.261 Y-280.059
G2 X25.796 Y-280.41 I-0.01 J-0.6
X25.85 Y-280.638 I-0.546 J-0.249 F250
G1 Y-281.705 F850
X25.843 Y-281.855
X25.823 Y-282.004
X25.791 Y-282.15
X25.748 Y-282.294
X25.694 Y-282.434
X25.632 Y-282.571
X25.558 Y-282.71
X25.475 Y-282.849
X25.376 Y-282.993
X25.26 Y-283.144
X25.133 Y-283.291
X24.99 Y-283.439
X24.828 Y-283.589
X24.649 Y-283.737
X24.458 Y-283.877
X24.251 Y-284.012
X24.027 Y-284.14
X23.788 Y-284.26
X23.538 Y-284.368
X23.277 Y-284.464
X23.012 Y-284.545
X22.741 Y-284.611
X22.466 Y-284.662
X22.193 Y-284.697
X21.937 Y-284.715
X21.682 Y-284.718
X21.432 Y-284.708
X21.22 Y-284.687
X20.986 Y-284.65
X20.782 Y-284.606
X20.592 Y-284.554
X20.513 Y-284.528
X20.187 Y-284.385
X19.892 Y-284.187
X19.636 Y-283.939
X19.429 Y-283.65
X19.276 Y-283.329
X19.182 Y-282.986
X19.15 Y-282.632
Y-281.587
G2 X19.204 Y-281.359 I0.6 J-0.021 F250
X19.763 Y-281.008 I0.546 J-0.249 F850
G1 X25.263 Y-281.126
G2 X25.796 Y-281.477 I-0.013 J-0.6
X25.85 Y-281.705 I-0.546 J-0.249 F250
G1 Y-282.762 F850
X25.843 Y-282.912
X25.822 Y-283.06
X25.789 Y-283.206
X25.745 Y-283.35
X25.691 Y-283.49
X25.628 Y-283.626
X25.554 Y-283.764
X25.469 Y-283.903
X25.368 Y-284.049
X25.253 Y-284.198
X25.125 Y-284.345
X24.979 Y-284.495
X24.814 Y-284.646
X24.636 Y-284.791
X24.444 Y-284.931
X24.235 Y-285.066
X24.008 Y-285.195
X23.769 Y-285.314
X23.518 Y-285.421
X23.258 Y-285.515
X22.992 Y-285.595
X22.72 Y-285.66
X22.446 Y-285.71
X22.172 Y-285.743
X21.916 Y-285.76
X21.666 Y-285.763
X21.414 Y-285.751
X21.203 Y-285.729
X20.971 Y-285.692
X20.766 Y-285.647
X20.578 Y-285.595
X20.505 Y-285.57
X20.181 Y-285.426
X19.887 Y-285.228
X19.633 Y-284.98
X19.427 Y-284.692
X19.275 Y-284.372
X19.181 Y-284.03
X19.15 Y-283.677
Y-282.632
G2 X19.204 Y-282.404 I0.6 J-0.021 F250
X19.764 Y-282.053 I0.546 J-0.249 F850
G1 X25.265 Y-282.183
G2 X25.796 Y-282.534 I-0.014 J-0.6
X25.85 Y-282.762 I-0.546 J-0.249 F250
G1 Y-283.768 F850
X25.843 Y-283.918
X25.826 Y-284.067
X25.796 Y-284.214
X25.755 Y-284.359
X25.703 Y-284.499
X25.643 Y-284.637
X25.574 Y-284.77
X25.491 Y-284.91
X25.394 Y-285.057
X25.36 Y-285.102
X25.112 Y-285.375
X24.817 Y-285.599
X24.486 Y-285.764
X24.13 Y-285.866
X23.761 Y-285.9
G2 X23.533 Y-285.846 I0.021 J0.6 F250
X23.352 Y-284.882 I0.249 J0.546 F850
G1 X24.82 Y-283.371
G2 X25.796 Y-283.541 I0.43 J-0.418
X25.85 Y-283.768 I-0.546 J-0.249 F250
G1 Y-284.775 F850
X25.843 Y-284.925
X25.78 Y-285.184
X25.657 Y-285.421
X25.481 Y-285.621
X25.262 Y-285.773
X25.013 Y-285.868
X24.748 Y-285.9
G2 X24.521 Y-285.846 I0.021 J0.6 F250
X24.335 Y-284.886 I0.249 J0.546 F850
G1 X24.816 Y-284.382
G2 X25.796 Y-284.547 I0.434 J-0.414
X25.85 Y-284.775 I-0.546 J-0.249 F250
G1 Y-285.268 F850
X25.843 Y-285.369
X25.82 Y-285.47
X25.78 Y-285.563
X25.72 Y-285.656
X25.709 Y-285.671
X25.666 Y-285.719
X25.614 Y-285.767
X25.566 Y-285.802
X25.519 Y-285.83
X25.468 Y-285.854
X25.417 Y-285.872
X25.317 Y-285.895
X25.116 Y-285.9
X20.377
X20.227 Y-285.892
X19.94 Y-285.819
X19.678 Y-285.68
X19.458 Y-285.483
X19.29 Y-285.238
X19.186 Y-284.961
X19.15 Y-284.667
G2 X19.181 Y-284.434 I1.186 J-0.041 F250
X20.639 Y-283.561 I1.155 J-0.275 F850
X20.61 Y-285.869 I-0.304 J-1.15
X20.377 Y-285.9 I-0.275 J1.158 F250
G1 X19.884 F850
X19.723 Y-285.896
X19.683 Y-285.895
X19.583 Y-285.872
X19.532 Y-285.854
X19.481 Y-285.83
X19.434 Y-285.802
X19.386 Y-285.767
X19.334 Y-285.719
X19.291 Y-285.671
X19.28 Y-285.656
X19.22 Y-285.563
X19.18 Y-285.47
X19.157 Y-285.369
X19.15 Y-285.268
Y-283.677
X19.162 Y-283.623 Z-14.973 F250
X19.173 Y-283.572 Z-14.954
X19.183 Y-283.527 Z-14.923
X19.191 Y-283.491 Z-14.882
X19.197 Y-283.465 Z-14.833
X19.202 Y-283.453 Z-14.79
X19.204 Y-283.449 Z-14.744
G0 Z5
X20.044 Y-11.51
Z-11.88
G1 Z-12.48 F250
G2 X25.058 Y-11.663 Z-12.687 I2.456 J-1.745 F200
X22.984 Y-16.224 Z-12.894 I-2.555 J-1.59
X19.581 Y-12.554 Z-13.101 I-0.48 J2.967
X24.274 Y-10.834 Z-13.308 I2.919 J-0.702
X24.05 Y-15.821 Z-13.515 I-1.772 J-2.419
X19.541 Y-13.691 Z-13.722 I-1.545 J2.565
X23.242 Y-10.359 Z-13.929 I2.959 J0.435
X24.885 Y-15.054 Z-14.136 I-0.74 J-2.894
X19.926 Y-14.758 Z-14.343 I-2.381 J1.798
X22.111 Y-10.303 Z-14.55 I2.575 J1.501
X25.373 Y-14.033 Z-14.757 I0.39 J-2.951
X20.678 Y-15.601 Z-14.963 I-2.869 J0.779
X21.045 Y-10.67 Z-15.17 I1.824 J2.343
X25.446 Y-12.909 Z-15.377 I1.456 J-2.584
X21.686 Y-16.101 Z-15.584 I-2.942 J-0.345
X20.195 Y-11.406 Z-15.791 I0.817 J2.844
X25.095 Y-11.842 Z-15.998 I2.305 J-1.849
X22.804 Y-16.189 Z-16.205 I-2.592 J-1.411
X19.683 Y-12.402 Z-16.412 I-0.3 J2.932
X24.375 Y-10.986 Z-16.619 I2.818 J-0.854
X23.87 Y-15.856 Z-16.826 I-1.873 J-2.267
X19.578 Y-13.513 Z-17.033 I-1.366 J2.6
X23.392 Y-10.462 Z-17.24 I2.922 J0.256
X24.733 Y-15.152 Z-17.447 I-0.89 J-2.791
X19.895 Y-14.579 Z-17.654 I-2.228 J1.897
X22.288 Y-10.342 Z-17.861 I2.606 J1.322
X25.268 Y-14.181 Z-18.068 I0.213 J-2.911
X20.583 Y-15.447 Z-18.275 I-2.764 J0.926
X21.223 Y-10.642 Z-18.482 I1.919 J2.189
X25.403 Y-13.085 Z-18.689 I1.277 J-2.613
X21.541 Y-15.994 Z-18.896 I-2.899 J-0.169
X20.35 Y-11.314 Z-19.103 I0.962 J2.737
X25.121 Y-12.021 Z-19.31 I2.15 J-1.941
X22.63 Y-16.144 Z-19.517 I-2.618 J-1.233
X19.791 Y-12.259 Z-19.723 I-0.126 J2.887
X24.465 Y-11.142 Z-19.93 I2.709 J-0.997
X23.692 Y-15.879 Z-20.137 I-1.963 J-2.111
X19.626 Y-13.34 Z-20.344 I-1.188 J2.622
X23.533 Y-10.573 Z-20.551 I2.874 J0.084
X24.576 Y-15.239 Z-20.758 I-1.031 J-2.68
X19.875 Y-14.401 Z-20.965 I-2.072 J1.983
X22.459 Y-10.393 Z-21.172 I2.626 J1.144
X25.156 Y-14.319 Z-21.379 I0.042 J-2.861
X20.499 Y-15.29 Z-21.586 I-2.652 J1.065
X21.4 Y-10.625 Z-21.793 I2.003 J2.033
X25.351 Y-13.254 Z-22 I1.1 J-2.629
X19.65 I-2.85
X25.351 I2.85
G1 X25.363 Y-14.14 F850
X25.396 Y-14.246
X25.424 Y-14.393
X25.434 Y-14.543
X25.427 Y-14.693
X25.406 Y-14.841
X25.373 Y-14.988
X25.329 Y-15.131
X25.274 Y-15.271
X25.21 Y-15.406
X25.138 Y-15.538
X25.058 Y-15.665
X24.97 Y-15.786
X24.874 Y-15.906
X24.767 Y-16.024
X24.651 Y-16.138
X24.526 Y-16.248
X24.392 Y-16.354
X24.249 Y-16.453
X24.098 Y-16.547
X23.94 Y-16.633
X23.773 Y-16.711
X23.601 Y-16.781
X23.422 Y-16.842
X23.238 Y-16.893
X23.049 Y-16.935
X22.856 Y-16.965
X22.661 Y-16.986
X22.462 Y-16.995
X22.262 Y-16.993
X22.061 Y-16.98
X21.86 Y-16.955
X21.66 Y-16.919
X21.461 Y-16.871
X21.264 Y-16.812
X21.07 Y-16.741
X20.879 Y-16.66
X20.693 Y-16.568
X20.512 Y-16.465
X20.336 Y-16.351
X20.167 Y-16.228
X20.004 Y-16.095
X19.849 Y-15.953
X19.702 Y-15.802
X19.564 Y-15.643
X19.542 Y-15.614
X19.363 Y-15.34
X19.231 Y-15.039
X19.15 Y-14.721
X19.122 Y-14.395
X19.117 Y-12.54
X19.124 Y-12.378
X19.14 Y-12.229
X19.164 Y-12.081
X19.198 Y-11.931
X19.241 Y-11.779
X19.294 Y-11.625
X19.357 Y-11.471
X19.43 Y-11.317
X19.513 Y-11.164
X19.607 Y-11.014
X19.711 Y-10.866
X19.825 Y-10.722
X19.948 Y-10.583
X20.081 Y-10.449
X20.224 Y-10.321
X20.374 Y-10.2
X20.415 Y-10.172
X20.68 Y-10.012
X20.966 Y-9.895
X21.267 Y-9.824
X21.576 Y-9.8
G2 X21.804 Y-9.854 I-0.021 J-0.6 F250
X22.008 Y-10.793 I-0.249 J-0.546 F850
G1 X20.17 Y-12.911
G2 X19.171 Y-12.768 I-0.453 J0.393
X19.117 Y-12.54 I0.545 J0.25 F250
