%
(1001)
(length along y axis. Origin far top left)
(T2  D=6 CR=0 - ZMIN=-22 - flat end mill)
G90 G94
G17
G21

(2D Adaptive11)
M9
T2 M6
S6000 M3
G54
M9
G0 X25.069 Y-12.12
Z15
Z5
Z3.1
G1 Z2.5 F350
G2 X22.141 Y-15.5 Z2.315 I-2.569 J-0.732
X20.221 Y-11.468 Z2.13 I0.358 J2.644
X24.679 Y-11.324 Z1.945 I2.276 J-1.386
X23.026 Y-15.461 Z1.76 I-2.18 J-1.528
X19.902 Y-12.292 Z1.575 I-0.525 J2.606
X24.052 Y-10.703 Z1.39 I2.595 J-0.562
X23.845 Y-15.137 Z1.205 I-1.553 J-2.149
X19.871 Y-13.172 Z1.02 I-1.345 J2.282
X23.259 Y-10.322 Z0.835 I2.626 J0.317
X24.511 Y-14.563 Z0.65 I-0.761 J-2.53
X20.129 Y-14.011 Z0.465 I-2.011 J1.709
X22.389 Y-10.222 Z0.28 I2.369 J1.156
X24.951 Y-13.807 Z0.095 I0.109 J-2.63
X20.645 Y-14.717 Z-0.09 I-2.451 J0.953
X21.536 Y-10.412 Z-0.275 I1.853 J1.861
X25.118 Y-12.951 Z-0.46 I0.961 J-2.441
X21.362 Y-15.212 Z-0.645 I-2.618 J0.098
X20.796 Y-10.869 Z-0.83 I1.137 J2.356
X24.996 Y-12.09 Z-1.015 I1.701 J-1.984
X22.198 Y-15.445 Z-1.2 I-2.496 J-0.762
X20.248 Y-11.541 Z-1.385 I0.302 J2.589
X24.601 Y-11.32 Z-1.57 I2.248 J-1.313
X23.061 Y-15.391 Z-1.755 I-2.101 J-1.532
X19.952 Y-12.353 Z-1.94 I-0.561 J2.536
X23.977 Y-10.724 Z-2.125 I2.545 J-0.502
X23.856 Y-15.059 Z-2.31 I-1.478 J-2.128
X19.938 Y-13.213 Z-2.495 I-1.355 J2.204
X23.195 Y-10.367 Z-2.68 I2.559 J0.358
X24.495 Y-14.487 Z-2.865 I-0.697 J-2.485
X20.205 Y-14.027 Z-3.05 I-1.995 J1.633
X22.343 Y-10.286 Z-3.235 I2.292 J1.172
X24.911 Y-13.74 Z-3.42 I0.154 J-2.567
X20.723 Y-14.707 Z-3.605 I-2.41 J0.886
X21.514 Y-10.487 Z-3.79 I1.776 J1.851
X25.058 Y-12.901 Z-3.975 I0.983 J-2.366
X21.431 Y-15.177 Z-4.16 I-2.558 J0.048
X20.8 Y-10.947 Z-4.345 I1.068 J2.321
X24.923 Y-12.063 Z-4.53 I1.697 J-1.906
X22.252 Y-15.389 Z-4.715 I-2.423 J-0.79
X20.278 Y-11.614 Z-4.9 I0.248 J2.533
X24.523 Y-11.318 Z-5.085 I2.219 J-1.241
X23.094 Y-15.321 Z-5.27 I-2.023 J-1.534
X20.004 Y-12.411 Z-5.455 I-0.593 J2.465
X23.903 Y-10.748 Z-5.64 I2.493 J-0.444
X23.863 Y-14.982 Z-5.825 I-1.404 J-2.104
X20.006 Y-13.251 Z-6.01 I-1.363 J2.127
X23.133 Y-10.414 Z-6.195 I2.492 J0.396
X24.477 Y-14.411 Z-6.38 I-0.635 J-2.438
X20.282 Y-14.041 Z-6.565 I-1.977 J1.557
X22.3 Y-10.35 Z-6.75 I2.216 J1.185
X24.869 Y-13.674 Z-6.935 I0.197 J-2.502
X20.799 Y-14.694 Z-7.12 I-2.368 J0.821
X21.495 Y-10.562 Z-7.305 I1.699 J1.839
X24.997 Y-12.853 Z-7.49 I1.002 J-2.291
X19.997 I-2.5
X24.997 I2.5
G1 X25.015 Y-13.739 F850
X25.039 Y-13.847
X25.055 Y-13.996
X25.052 Y-14.146
X25.032 Y-14.295
X24.999 Y-14.441
X24.953 Y-14.584
X24.896 Y-14.722
X24.828 Y-14.856
X24.751 Y-14.985
X24.665 Y-15.108
X24.572 Y-15.226
X24.472 Y-15.337
X24.364 Y-15.442
X24.251 Y-15.541
X24.132 Y-15.633
X24.005 Y-15.72
X23.871 Y-15.802
X23.731 Y-15.877
X23.583 Y-15.945
X23.43 Y-16.006
X23.272 Y-16.059
X23.109 Y-16.103
X22.942 Y-16.139
X22.771 Y-16.165
X22.597 Y-16.182
X22.421 Y-16.189
X22.244 Y-16.186
X22.066 Y-16.173
X21.888 Y-16.15
X21.71 Y-16.116
X21.534 Y-16.073
X21.359 Y-16.019
X21.187 Y-15.956
X21.018 Y-15.882
X20.853 Y-15.799
X20.692 Y-15.706
X20.536 Y-15.604
X20.386 Y-15.493
X20.242 Y-15.374
X20.105 Y-15.246
X19.975 Y-15.111
X19.852 Y-14.968
X19.737 Y-14.818
X19.631 Y-14.662
X19.534 Y-14.5
X19.446 Y-14.332
X19.43 Y-14.298
X19.331 Y-14.031
X19.27 Y-13.752
X19.25 Y-13.468
Y-12.651
X19.265 Y-12.361
X19.282 Y-12.198
X19.309 Y-12.035
X19.345 Y-11.872
X19.391 Y-11.708
X19.447 Y-11.546
X19.513 Y-11.386
X19.588 Y-11.228
X19.672 Y-11.073
X19.766 Y-10.922
X19.869 Y-10.776
X19.981 Y-10.635
X20.101 Y-10.499
X20.23 Y-10.37
X20.366 Y-10.248
X20.509 Y-10.133
X20.659 Y-10.026
X20.816 Y-9.927
X20.978 Y-9.837
X21.146 Y-9.756
X21.319 Y-9.684
X21.495 Y-9.622
X21.675 Y-9.57
X21.76 Y-9.55
X21.907 Y-9.522
X22.056 Y-9.506
X22.206 Y-9.5
G2 X22.434 Y-9.554 I-0.021 J-0.6 F350
X22.626 Y-10.507 I-0.249 J-0.546 F850
G1 X20.291 Y-13.037
G2 X19.304 Y-12.879 I-0.441 J0.407
X19.25 Y-12.651 I0.546 J0.249 F350
G1 Y-11.181 F850
X19.257 Y-11.031
X19.339 Y-10.68
X19.49 Y-10.353
X19.706 Y-10.064
X19.976 Y-9.825
X20.289 Y-9.647
X20.632 Y-9.537
X20.991 Y-9.5
G2 X21.219 Y-9.554 I-0.021 J-0.6 F350
X21.382 Y-10.535 I-0.249 J-0.546 F850
G1 X20.262 Y-11.596
G2 X19.304 Y-11.409 I-0.412 J0.436
X19.25 Y-11.181 I0.546 J0.249 F350
G1 Y-10.375 F850
X19.257 Y-10.226
X19.328 Y-9.994
X19.46 Y-9.792
X19.643 Y-9.634
X19.864 Y-9.534
X20.103 Y-9.5
G2 X20.335 Y-9.54 I-0.03 J-0.863 F350
X20.676 Y-9.745 I-0.262 J-0.823 F850
X19.503 Y-10.948 I-0.586 J-0.602
X19.291 Y-10.607 I0.586 J0.602
X19.25 Y-10.375 I0.799 J0.261 F350
G1 Y-10.235 F850
X19.256 Y-10.034
X19.265 Y-9.981
X19.28 Y-9.929
X19.298 Y-9.881
X19.322 Y-9.832
X19.35 Y-9.785
X19.385 Y-9.737
X19.433 Y-9.685
X19.495 Y-9.631
X19.542 Y-9.597
X19.589 Y-9.57
X19.683 Y-9.53
X19.783 Y-9.506
X19.884 Y-9.5
X22.5
X22.843 Y-9.517
X23.023 Y-9.536
X23.202 Y-9.566
X23.381 Y-9.606
X23.557 Y-9.656
X23.732 Y-9.716
X23.903 Y-9.786
X24.071 Y-9.865
X24.234 Y-9.955
X24.393 Y-10.053
X24.546 Y-10.161
X24.693 Y-10.278
X24.833 Y-10.402
X24.967 Y-10.535
X25.093 Y-10.675
X25.211 Y-10.823
X25.321 Y-10.977
X25.422 Y-11.137
X25.519 Y-11.312
X25.55 Y-11.376
X25.66 Y-11.656
X25.727 Y-11.948
X25.75 Y-12.247
G2 X25.696 Y-12.475 I-0.6 J0.021 F350
X24.773 Y-12.693 I-0.546 J0.249 F850
G1 X22.144 Y-10.566
G2 X22.272 Y-9.554 I0.377 J0.467
X22.5 Y-9.5 I0.249 J-0.546 F350
G1 X24.11 F850
X24.26 Y-9.507
X24.602 Y-9.589
X24.92 Y-9.738
X25.202 Y-9.949
X25.434 Y-10.213
X25.607 Y-10.52
X25.714 Y-10.855
X25.75 Y-11.205
G2 X25.696 Y-11.432 I-0.6 J0.021 F350
X24.713 Y-11.595 I-0.546 J0.249 F850
G1 X23.694 Y-10.511
G2 X23.882 Y-9.554 I0.437 J0.411
X24.11 Y-9.5 I0.249 J-0.546 F350
G1 X24.915 F850
X25.065 Y-9.507
X25.284 Y-9.579
X25.476 Y-9.708
X25.624 Y-9.885
X25.718 Y-10.096
X25.75 Y-10.325
G2 X25.708 Y-10.556 I-0.815 J0.028 F350
X25.515 Y-10.869 I-0.773 J0.259 F850
X24.371 Y-9.739 I-0.572 J0.565
X24.684 Y-9.542 I0.572 J-0.565
X24.915 Y-9.5 I0.259 J-0.762 F350
G1 X25.116 F850
X25.217 Y-9.506
X25.317 Y-9.53
X25.411 Y-9.57
X25.458 Y-9.597
X25.505 Y-9.631
X25.567 Y-9.685
X25.615 Y-9.737
X25.65 Y-9.785
X25.678 Y-9.832
X25.702 Y-9.881
X25.72 Y-9.929
X25.735 Y-9.981
X25.744 Y-10.034
X25.75 Y-10.235
Y-14.061
X25.738 Y-14.309
X25.722 Y-14.458
X25.697 Y-14.606
X25.663 Y-14.752
X25.621 Y-14.897
X25.57 Y-15.042
X25.509 Y-15.187
X25.439 Y-15.332
X25.358 Y-15.477
X25.267 Y-15.62
X25.166 Y-15.762
X25.055 Y-15.901
X24.934 Y-16.035
X24.803 Y-16.164
X24.663 Y-16.288
X24.514 Y-16.406
X24.355 Y-16.518
X24.187 Y-16.622
X24.011 Y-16.718
X23.826 Y-16.806
X23.634 Y-16.884
X23.436 Y-16.952
X23.231 Y-17.01
X23.021 Y-17.056
X22.807 Y-17.091
X22.589 Y-17.114
X22.368 Y-17.125
X22.145 Y-17.123
X21.921 Y-17.109
X21.696 Y-17.082
X21.471 Y-17.041
X21.248 Y-16.988
X21.026 Y-16.922
X20.807 Y-16.844
X20.592 Y-16.752
X20.381 Y-16.648
X20.169 Y-16.528
X19.905 Y-16.325
X19.678 Y-16.082
X19.495 Y-15.804
X19.36 Y-15.5
X19.278 Y-15.177
X19.25 Y-14.845
Y-13.468
G2 X19.304 Y-13.24 I0.6 J-0.021 F350
X19.916 Y-12.893 I0.546 J-0.249 F850
G1 X25.217 Y-13.485
G2 X25.696 Y-13.833 I-0.067 J-0.596
X25.75 Y-14.061 I-0.546 J-0.249 F350
G1 Y-15.379 F850
X25.743 Y-15.529
X25.725 Y-15.678
X25.694 Y-15.825
X25.651 Y-15.969
X25.599 Y-16.109
X25.537 Y-16.246
X25.466 Y-16.378
X25.389 Y-16.506
X25.298 Y-16.637
X25.195 Y-16.771
X25.081 Y-16.903
X24.956 Y-17.031
X24.818 Y-17.158
X24.666 Y-17.282
X24.501 Y-17.403
X24.325 Y-17.517
X24.138 Y-17.623
X23.942 Y-17.721
X23.734 Y-17.81
X23.515 Y-17.889
X23.286 Y-17.958
X23.048 Y-18.016
X22.802 Y-18.06
X22.55 Y-18.091
X22.294 Y-18.109
X22.033 Y-18.112
X21.768 Y-18.099
X21.502 Y-18.072
X21.249 Y-18.032
X21.017 Y-17.981
X20.782 Y-17.916
X20.585 Y-17.849
X20.502 Y-17.815
X20.199 Y-17.662
X19.927 Y-17.461
X19.693 Y-17.216
X19.503 Y-16.935
X19.364 Y-16.626
X19.279 Y-16.298
X19.25 Y-15.961
Y-14.845
G2 X19.304 Y-14.617 I0.6 J-0.021 F350
X19.91 Y-14.269 I0.546 J-0.249 F850
G1 X25.211 Y-14.803
G2 X25.696 Y-15.151 I-0.06 J-0.597
X25.75 Y-15.379 I-0.546 J-0.249 F350
G1 Y-16.386 F850
X25.743 Y-16.536
X25.725 Y-16.685
X25.693 Y-16.831
X25.65 Y-16.975
X25.595 Y-17.115
X25.531 Y-17.25
X25.458 Y-17.382
X25.377 Y-17.509
X25.283 Y-17.641
X25.178 Y-17.771
X25.061 Y-17.902
X24.927 Y-18.034
X24.779 Y-18.164
X24.62 Y-18.29
X24.447 Y-18.411
X24.257 Y-18.529
X24.052 Y-18.641
X23.835 Y-18.744
X23.607 Y-18.836
X23.366 Y-18.918
X23.112 Y-18.99
X22.848 Y-19.048
X22.578 Y-19.092
X22.302 Y-19.121
X22.026 Y-19.134
X21.774 Y-19.132
X21.512 Y-19.115
X21.279 Y-19.086
X21.062 Y-19.048
X20.836 Y-18.994
X20.647 Y-18.937
X20.571 Y-18.91
X20.254 Y-18.763
X19.967 Y-18.563
X19.72 Y-18.317
X19.519 Y-18.031
X19.371 Y-17.714
X19.281 Y-17.377
X19.25 Y-17.029
Y-15.961
G2 X19.304 Y-15.733 I0.6 J-0.021 F350
X19.898 Y-15.384 I0.546 J-0.249 F850
G1 X25.198 Y-15.809
G2 X25.696 Y-16.158 I-0.048 J-0.598
X25.75 Y-16.386 I-0.546 J-0.249 F350
G1 Y-17.393 F850
X25.743 Y-17.543
X25.722 Y-17.691
X25.687 Y-17.837
X25.64 Y-17.98
X25.583 Y-18.118
X25.517 Y-18.253
X25.442 Y-18.383
X25.356 Y-18.516
X25.259 Y-18.647
X25.149 Y-18.781
X25.021 Y-18.919
X24.881 Y-19.054
X24.727 Y-19.186
X24.556 Y-19.318
X24.367 Y-19.447
X24.164 Y-19.569
X23.949 Y-19.683
X23.718 Y-19.788
X23.475 Y-19.884
X23.219 Y-19.968
X22.956 Y-20.038
X22.689 Y-20.093
X22.416 Y-20.134
X22.145 Y-20.159
X21.896 Y-20.167
X21.639 Y-20.162
X21.402 Y-20.144
X21.191 Y-20.115
X20.961 Y-20.071
X20.768 Y-20.022
X20.573 Y-19.961
X20.547 Y-19.952
X20.235 Y-19.803
X19.954 Y-19.602
X19.711 Y-19.356
X19.514 Y-19.072
X19.369 Y-18.758
X19.28 Y-18.424
X19.25 Y-18.079
Y-17.029
G2 X19.304 Y-16.801 I0.6 J-0.021 F350
X19.891 Y-16.451 I0.546 J-0.249 F850
G1 X25.191 Y-16.815
G2 X25.696 Y-17.165 I-0.041 J-0.599
X25.75 Y-17.393 I-0.546 J-0.249 F350
G1 Y-18.399 F850
X25.743 Y-18.549
X25.719 Y-18.697
X25.681 Y-18.843
X25.633 Y-18.985
X25.575 Y-19.123
X25.507 Y-19.257
X25.43 Y-19.39
X25.343 Y-19.522
X25.241 Y-19.659
X25.123 Y-19.8
X24.993 Y-19.939
X24.849 Y-20.078
X24.686 Y-20.217
X24.506 Y-20.354
X24.313 Y-20.483
X24.107 Y-20.607
X23.883 Y-20.723
X23.647 Y-20.83
X23.399 Y-20.926
X23.142 Y-21.009
X22.881 Y-21.077
X22.613 Y-21.131
X22.345 Y-21.17
X22.076 Y-21.193
X21.837 Y-21.201
X21.587 Y-21.194
X21.357 Y-21.175
X21.151 Y-21.147
X20.926 Y-21.102
X20.737 Y-21.054
X20.539 Y-20.991
X20.228 Y-20.841
X19.948 Y-20.64
X19.707 Y-20.394
X19.512 Y-20.111
X19.368 Y-19.798
X19.28 Y-19.465
X19.25 Y-19.121
Y-18.079
G2 X19.304 Y-17.851 I0.6 J-0.021 F350
X19.886 Y-17.501 I0.546 J-0.249 F850
G1 X25.187 Y-17.821
G2 X25.696 Y-18.172 I-0.036 J-0.599
X25.75 Y-18.399 I-0.546 J-0.249 F350
G1 Y-19.356 F850
X25.743 Y-19.506
X25.723 Y-19.655
X25.689 Y-19.801
X25.644 Y-19.944
X25.588 Y-20.083
X25.524 Y-20.219
X25.452 Y-20.35
X25.366 Y-20.486
X25.266 Y-20.627
X25.155 Y-20.766
X25.028 Y-20.908
X24.883 Y-21.053
X24.725 Y-21.193
X24.553 Y-21.33
X24.363 Y-21.464
X24.156 Y-21.594
X23.934 Y-21.715
X23.702 Y-21.826
X23.46 Y-21.925
X23.208 Y-22.013
X22.949 Y-22.086
X22.686 Y-22.145
X22.418 Y-22.19
X22.15 Y-22.219
X21.898 Y-22.232
X21.665 Y-22.231
X21.421 Y-22.216
X21.217 Y-22.192
X20.995 Y-22.153
X20.794 Y-22.106
X20.612 Y-22.052
X20.578 Y-22.04
X20.26 Y-21.894
X19.971 Y-21.694
X19.723 Y-21.448
X19.521 Y-21.161
X19.372 Y-20.844
X19.281 Y-20.506
X19.25 Y-20.156
Y-19.121
G2 X19.304 Y-18.894 I0.6 J-0.021 F350
X19.876 Y-18.543 I0.546 J-0.249 F850
G1 X25.177 Y-18.778
G2 X25.696 Y-19.128 I-0.027 J-0.599
X25.75 Y-19.356 I-0.546 J-0.249 F350
G1 Y-20.363 F850
X25.743 Y-20.513
X25.723 Y-20.662
X25.689 Y-20.808
X25.645 Y-20.951
X25.59 Y-21.091
X25.526 Y-21.226
X25.453 Y-21.36
X25.369 Y-21.494
X25.269 Y-21.636
X25.155 Y-21.78
X25.03 Y-21.922
X24.887 Y-22.066
X24.726 Y-22.21
X24.552 Y-22.35
X24.365 Y-22.483
X24.16 Y-22.613
X23.94 Y-22.735
X23.706 Y-22.848
X23.463 Y-22.95
X23.21 Y-23.038
X22.953 Y-23.113
X22.69 Y-23.173
X22.424 Y-23.219
X22.158 Y-23.249
X21.917 Y-23.263
X21.674
X21.437 Y-23.249
X21.233 Y-23.226
X21.007 Y-23.188
X20.81 Y-23.143
X20.625 Y-23.089
X20.587 Y-23.076
X20.267 Y-22.931
X19.977 Y-22.732
X19.726 Y-22.485
X19.523 Y-22.197
X19.373 Y-21.879
X19.281 Y-21.54
X19.25 Y-21.189
Y-20.156
G2 X19.304 Y-19.929 I0.6 J-0.021 F350
X19.873 Y-19.578 I0.546 J-0.249 F850
G1 X25.174 Y-19.784
G2 X25.696 Y-20.135 I-0.023 J-0.6
X25.75 Y-20.363 I-0.546 J-0.249 F350
G1 Y-21.37 F850
X25.743 Y-21.52
X25.724 Y-21.668
X25.691 Y-21.815
X25.648 Y-21.958
X25.594 Y-22.098
X25.531 Y-22.234
X25.459 Y-22.368
X25.376 Y-22.503
X25.277 Y-22.646
X25.165 Y-22.79
X25.04 Y-22.932
X24.898 Y-23.077
X24.738 Y-23.223
X24.566 Y-23.363
X24.38 Y-23.498
X24.176 Y-23.629
X23.956 Y-23.753
X23.725 Y-23.867
X23.483 Y-23.97
X23.232 Y-24.06
X22.975 Y-24.136
X22.714 Y-24.198
X22.449 Y-24.245
X22.183 Y-24.277
X21.941 Y-24.292
X21.699 Y-24.294
X21.46 Y-24.282
X21.256 Y-24.261
X21.03 Y-24.224
X20.831 Y-24.18
X20.647 Y-24.128
X20.6 Y-24.112
X20.277 Y-23.968
X19.984 Y-23.769
X19.731 Y-23.521
X19.526 Y-23.234
X19.374 Y-22.914
X19.281 Y-22.573
X19.25 Y-22.22
Y-21.189
G2 X19.304 Y-20.961 I0.6 J-0.021 F350
X19.87 Y-20.61 I0.546 J-0.249 F850
G1 X25.171 Y-20.791
G2 X25.696 Y-21.142 I-0.02 J-0.6
X25.75 Y-21.37 I-0.546 J-0.249 F350
G1 Y-22.426 F850
X25.743 Y-22.576
X25.72 Y-22.724
X25.685 Y-22.87
X25.638 Y-23.013
X25.582 Y-23.152
X25.518 Y-23.287
X25.441 Y-23.425
X25.355 Y-23.562
X25.254 Y-23.703
X25.137 Y-23.85
X25.006 Y-23.996
X24.862 Y-24.139
X24.701 Y-24.282
X24.521 Y-24.424
X24.328 Y-24.56
X24.123 Y-24.689
X23.902 Y-24.809
X23.67 Y-24.92
X23.426 Y-25.02
X23.172 Y-25.108
X22.915 Y-25.181
X22.652 Y-25.239
X22.387 Y-25.283
X22.122 Y-25.311
X21.889 Y-25.323
X21.636 Y-25.322
X21.411 Y-25.308
X21.204 Y-25.283
X20.98 Y-25.244
X20.791 Y-25.199
X20.599 Y-25.142
X20.576 Y-25.134
X20.258 Y-24.988
X19.97 Y-24.788
X19.722 Y-24.542
X19.52 Y-24.255
X19.372 Y-23.938
X19.281 Y-23.6
X19.25 Y-23.251
Y-22.22
G2 X19.304 Y-21.992 I0.6 J-0.021 F350
X19.873 Y-21.641 I0.546 J-0.249 F850
G1 X25.174 Y-21.848
G2 X25.696 Y-22.198 I-0.023 J-0.6
X25.75 Y-22.426 I-0.546 J-0.249 F350
G1 Y-23.433 F850
X25.743 Y-23.583
X25.722 Y-23.731
X25.689 Y-23.878
X25.644 Y-24.021
X25.59 Y-24.161
X25.526 Y-24.296
X25.454 Y-24.429
X25.37 Y-24.566
X25.269 Y-24.711
X25.157 Y-24.854
X25.03 Y-24.997
X24.886 Y-25.144
X24.726 Y-25.289
X24.553 Y-25.429
X24.365 Y-25.564
X24.159 Y-25.695
X23.938 Y-25.819
X23.706 Y-25.933
X23.464 Y-26.035
X23.213 Y-26.124
X22.956 Y-26.2
X22.695 Y-26.261
X22.43 Y-26.307
X22.165 Y-26.338
X21.923 Y-26.353
X21.684 Y-26.354
X21.445 Y-26.341
X21.242 Y-26.319
X21.017 Y-26.282
X20.819 Y-26.237
X20.636 Y-26.185
X20.595 Y-26.171
X20.273 Y-26.026
X19.981 Y-25.827
X19.729 Y-25.58
X19.525 Y-25.293
X19.374 Y-24.974
X19.281 Y-24.633
X19.25 Y-24.281
Y-23.251
G2 X19.304 Y-23.023 I0.6 J-0.021 F350
X19.87 Y-22.673 I0.546 J-0.249 F850
G1 X25.171 Y-22.854
G2 X25.696 Y-23.205 I-0.021 J-0.6
X25.75 Y-23.433 I-0.546 J-0.249 F350
G1 Y-24.44 F850
X25.743 Y-24.59
X25.725 Y-24.738
X25.693 Y-24.885
X25.65 Y-25.029
X25.597 Y-25.169
X25.534 Y-25.305
X25.464 Y-25.439
X25.381 Y-25.575
X25.283 Y-25.718
X25.172 Y-25.863
X25.048 Y-26.006
X24.906 Y-26.152
X24.748 Y-26.298
X24.577 Y-26.439
X24.391 Y-26.575
X24.188 Y-26.706
X23.97 Y-26.832
X23.739 Y-26.947
X23.498 Y-27.051
X23.248 Y-27.142
X22.992 Y-27.22
X22.732 Y-27.283
X22.467 Y-27.331
X22.203 Y-27.365
X21.959 Y-27.381
X21.719 Y-27.385
X21.478 Y-27.374
X21.273 Y-27.353
X21.048 Y-27.318
X20.848 Y-27.275
X20.664 Y-27.224
X20.611 Y-27.206
X20.285 Y-27.063
X19.991 Y-26.864
X19.735 Y-26.617
X19.528 Y-26.328
X19.375 Y-26.008
X19.282 Y-25.665
X19.25 Y-25.311
Y-24.281
G2 X19.304 Y-24.054 I0.6 J-0.021 F350
X19.868 Y-23.703 I0.546 J-0.249 F850
G1 X25.168 Y-23.861
G2 X25.696 Y-24.212 I-0.018 J-0.6
X25.75 Y-24.44 I-0.546 J-0.249 F350
G1 Y-25.446 F850
X25.742 Y-25.598
X25.726 Y-25.747
X25.697 Y-25.894
X25.655 Y-26.038
X25.603 Y-26.179
X25.542 Y-26.316
X25.473 Y-26.45
X25.393 Y-26.585
X25.296 Y-26.727
X25.187 Y-26.872
X25.065 Y-27.015
X24.926 Y-27.161
X24.769 Y-27.308
X24.6 Y-27.449
X24.417 Y-27.586
X24.217 Y-27.718
X24 Y-27.844
X23.771 Y-27.961
X23.532 Y-28.067
X23.283 Y-28.16
X23.028 Y-28.239
X22.768 Y-28.304
X22.504 Y-28.355
X22.24 Y-28.391
X21.994 Y-28.41
X21.755 Y-28.414
X21.51 Y-28.406
X21.305 Y-28.387
X21.079 Y-28.353
X20.876 Y-28.311
X20.692 Y-28.262
X20.626 Y-28.24
X20.298 Y-28.099
X20 Y-27.901
X19.742 Y-27.653
X19.532 Y-27.363
X19.377 Y-27.041
X19.282 Y-26.696
X19.25 Y-26.34
Y-25.311
G2 X19.304 Y-25.083 I0.6 J-0.021 F350
X19.865 Y-24.732 I0.546 J-0.249 F850
G1 X25.166 Y-24.868
G2 X25.696 Y-25.219 I-0.015 J-0.6
X25.75 Y-25.446 I-0.546 J-0.249 F350
G1 Y-26.544 F850
X25.743 Y-26.694
X25.72 Y-26.842
X25.684 Y-26.987
X25.637 Y-27.13
X25.581 Y-27.269
X25.516 Y-27.404
X25.441 Y-27.54
X25.351 Y-27.682
X25.251 Y-27.823
X25.135 Y-27.967
X25.001 Y-28.116
X24.855 Y-28.261
X24.695 Y-28.403
X24.518 Y-28.544
X24.322 Y-28.681
X24.113 Y-28.811
X23.892 Y-28.932
X23.661 Y-29.042
X23.418 Y-29.141
X23.166 Y-29.228
X22.909 Y-29.301
X22.646 Y-29.36
X22.38 Y-29.403
X22.119 Y-29.431
X21.886 Y-29.443
X21.63 Y-29.441
X21.412 Y-29.427
X21.199 Y-29.402
X20.977 Y-29.363
X20.791 Y-29.319
X20.593 Y-29.26
X20.575 Y-29.254
X20.257 Y-29.107
X19.97 Y-28.907
X19.721 Y-28.661
X19.52 Y-28.375
X19.372 Y-28.058
X19.281 Y-27.72
X19.25 Y-27.371
Y-26.34
G2 X19.304 Y-26.112 I0.6 J-0.021 F350
X19.873 Y-25.761 I0.546 J-0.249 F850
G1 X25.173 Y-25.965
G2 X25.696 Y-26.316 I-0.023 J-0.6
X25.75 Y-26.544 I-0.546 J-0.249 F350
G1 Y-27.55 F850
X25.743 Y-27.7
X25.722 Y-27.849
X25.689 Y-27.995
X25.644 Y-28.138
X25.589 Y-28.278
X25.526 Y-28.414
X25.454 Y-28.546
X25.368 Y-28.685
X25.268 Y-28.829
X25.155 Y-28.972
X25.029 Y-29.116
X24.884 Y-29.263
X24.724 Y-29.408
X24.551 Y-29.548
X24.363 Y-29.684
X24.157 Y-29.815
X23.936 Y-29.939
X23.704 Y-30.052
X23.462 Y-30.154
X23.211 Y-30.243
X22.955 Y-30.319
X22.693 Y-30.38
X22.429 Y-30.426
X22.164 Y-30.457
X21.921 Y-30.472
X21.683 Y-30.473
X21.444 Y-30.46
X21.241 Y-30.438
X21.017 Y-30.401
X20.818 Y-30.357
X20.635 Y-30.304
X20.595 Y-30.29
X20.273 Y-30.146
X19.981 Y-29.947
X19.729 Y-29.7
X19.525 Y-29.412
X19.374 Y-29.093
X19.281 Y-28.752
X19.25 Y-28.401
Y-27.371
G2 X19.304 Y-27.143 I0.6 J-0.021 F350
X19.87 Y-26.792 I0.546 J-0.249 F850
G1 X25.171 Y-26.972
G2 X25.696 Y-27.323 I-0.02 J-0.6
X25.75 Y-27.55 I-0.546 J-0.249 F350
G1 Y-28.557 F850
X25.743 Y-28.707
X25.725 Y-28.856
X25.693 Y-29.003
X25.65 Y-29.146
X25.597 Y-29.287
X25.535 Y-29.423
X25.464 Y-29.556
X25.382 Y-29.692
X25.283 Y-29.836
X25.172 Y-29.98
X25.048 Y-30.123
X24.907 Y-30.27
X24.748 Y-30.416
X24.577 Y-30.557
X24.392 Y-30.693
X24.189 Y-30.825
X23.97 Y-30.95
X23.739 Y-31.065
X23.499 Y-31.169
X23.249 Y-31.261
X22.993 Y-31.338
X22.733 Y-31.401
X22.468 Y-31.45
X22.203 Y-31.484
X21.96 Y-31.5
X21.72 Y-31.504
X21.479 Y-31.493
X21.275 Y-31.473
X21.05 Y-31.437
X20.849 Y-31.394
X20.666 Y-31.344
X20.611 Y-31.325
X20.286 Y-31.182
X19.991 Y-30.984
X19.736 Y-30.737
X19.528 Y-30.448
X19.375 Y-30.127
X19.282 Y-29.784
X19.25 Y-29.43
Y-28.401
G2 X19.304 Y-28.173 I0.6 J-0.021 F350
X19.867 Y-27.822 I0.546 J-0.249 F850
G1 X25.168 Y-27.978
G2 X25.696 Y-28.329 I-0.018 J-0.6
X25.75 Y-28.557 I-0.546 J-0.249 F350
G1 Y-29.564 F850
X25.742 Y-29.716
X25.726 Y-29.865
X25.697 Y-30.012
X25.655 Y-30.156
X25.603 Y-30.297
X25.542 Y-30.434
X25.473 Y-30.568
X25.393 Y-30.703
X25.296 Y-30.846
X25.187 Y-30.991
X25.065 Y-31.134
X24.926 Y-31.279
X24.769 Y-31.426
X24.6 Y-31.568
X24.417 Y-31.705
X24.217 Y-31.837
X24 Y-31.963
X23.771 Y-32.08
X23.532 Y-32.185
X23.283 Y-32.279
X23.028 Y-32.358
X22.769 Y-32.423
X22.505 Y-32.474
X22.24 Y-32.51
X21.995 Y-32.529
X21.755 Y-32.534
X21.51 Y-32.525
X21.305 Y-32.506
X21.079 Y-32.472
X20.876 Y-32.43
X20.693 Y-32.381
X20.626 Y-32.359
X20.298 Y-32.218
X20 Y-32.02
X19.742 Y-31.772
X19.532 Y-31.483
X19.377 Y-31.16
X19.282 Y-30.815
X19.25 Y-30.459
Y-29.43
G2 X19.304 Y-29.202 I0.6 J-0.021 F350
X19.865 Y-28.851 I0.546 J-0.249 F850
G1 X25.166 Y-28.985
G2 X25.696 Y-29.336 I-0.015 J-0.6
X25.75 Y-29.564 I-0.546 J-0.249 F350
G1 Y-30.631 F850
X25.743 Y-30.781
X25.723 Y-30.93
X25.69 Y-31.076
X25.645 Y-31.22
X25.591 Y-31.359
X25.528 Y-31.496
X25.454 Y-31.632
X25.369 Y-31.771
X25.272 Y-31.911
X25.158 Y-32.057
X25.029 Y-32.204
X24.888 Y-32.347
X24.73 Y-32.491
X24.554 Y-32.634
X24.363 Y-32.772
X24.159 Y-32.902
X23.942 Y-33.024
X23.712 Y-33.137
X23.471 Y-33.239
X23.219 Y-33.329
X22.964 Y-33.405
X22.701 Y-33.467
X22.437 Y-33.514
X22.172 Y-33.545
X21.937 Y-33.56
X21.682 Y-33.561
X21.455 Y-33.55
X21.248 Y-33.528
X21.021 Y-33.49
X20.83 Y-33.448
X20.638 Y-33.393
X20.598 Y-33.38
X20.275 Y-33.235
X19.983 Y-33.036
X19.73 Y-32.789
X19.525 Y-32.501
X19.374 Y-32.182
X19.281 Y-31.841
X19.25 Y-31.489
Y-30.459
G2 X19.304 Y-30.231 I0.6 J-0.021 F350
X19.869 Y-29.88 I0.546 J-0.249 F850
G1 X25.17 Y-30.053
G2 X25.696 Y-30.404 I-0.02 J-0.6
X25.75 Y-30.631 I-0.546 J-0.249 F350
G1 Y-31.688 F850
X25.743 Y-31.838
X25.72 Y-31.986
X25.685 Y-32.132
X25.638 Y-32.275
X25.582 Y-32.414
X25.518 Y-32.549
X25.442 Y-32.687
X25.355 Y-32.824
X25.254 Y-32.966
X25.137 Y-33.113
X25.007 Y-33.258
X24.863 Y-33.402
X24.701 Y-33.546
X24.522 Y-33.689
X24.33 Y-33.825
X24.124 Y-33.953
X23.904 Y-34.074
X23.671 Y-34.185
X23.427 Y-34.286
X23.174 Y-34.374
X22.917 Y-34.447
X22.654 Y-34.506
X22.389 Y-34.55
X22.124 Y-34.579
X21.891 Y-34.591
X21.639 Y-34.59
X21.414 Y-34.576
X21.208 Y-34.552
X20.983 Y-34.512
X20.794 Y-34.468
X20.603 Y-34.412
X20.579 Y-34.403
X20.26 Y-34.257
X19.972 Y-34.057
X19.723 Y-33.811
X19.521 Y-33.524
X19.372 Y-33.207
X19.281 Y-32.868
X19.25 Y-32.519
Y-31.489
G2 X19.304 Y-31.261 I0.6 J-0.021 F350
X19.872 Y-30.91 I0.546 J-0.249 F850
G1 X25.173 Y-31.109
G2 X25.696 Y-31.46 I-0.023 J-0.6
X25.75 Y-31.688 I-0.546 J-0.249 F350
G1 Y-32.695 F850
X25.743 Y-32.845
X25.723 Y-32.993
X25.69 Y-33.14
X25.645 Y-33.283
X25.591 Y-33.423
X25.527 Y-33.558
X25.456 Y-33.691
X25.371 Y-33.829
X25.271 Y-33.973
X25.159 Y-34.116
X25.033 Y-34.26
X24.888 Y-34.407
X24.728 Y-34.552
X24.556 Y-34.692
X24.368 Y-34.828
X24.163 Y-34.959
X23.942 Y-35.083
X23.71 Y-35.197
X23.468 Y-35.3
X23.217 Y-35.389
X22.961 Y-35.465
X22.7 Y-35.527
X22.435 Y-35.573
X22.17 Y-35.605
X21.928 Y-35.62
X21.689 Y-35.621
X21.45 Y-35.609
X21.246 Y-35.587
X21.022 Y-35.551
X20.824 Y-35.506
X20.64 Y-35.454
X20.598 Y-35.44
X20.275 Y-35.295
X19.983 Y-35.096
X19.73 Y-34.849
X19.525 Y-34.561
X19.374 Y-34.242
X19.281 Y-33.901
X19.25 Y-33.549
Y-32.519
G2 X19.304 Y-32.291 I0.6 J-0.021 F350
X19.869 Y-31.941 I0.546 J-0.249 F850
G1 X25.17 Y-32.116
G2 X25.696 Y-32.467 I-0.02 J-0.6
X25.75 Y-32.695 I-0.546 J-0.249 F350
G1 Y-33.701 F850
X25.743 Y-33.851
X25.725 Y-34
X25.694 Y-34.147
X25.651 Y-34.291
X25.598 Y-34.431
X25.536 Y-34.568
X25.466 Y-34.701
X25.384 Y-34.837
X25.286 Y-34.981
X25.175 Y-35.125
X25.051 Y-35.268
X24.91 Y-35.414
X24.752 Y-35.561
X24.581 Y-35.702
X24.396 Y-35.838
X24.194 Y-35.97
X23.975 Y-36.095
X23.745 Y-36.211
X23.504 Y-36.315
X23.255 Y-36.407
X22.999 Y-36.485
X22.739 Y-36.548
X22.475 Y-36.597
X22.21 Y-36.631
X21.966 Y-36.648
X21.726 Y-36.652
X21.484 Y-36.642
X21.28 Y-36.622
X21.055 Y-36.586
X20.854 Y-36.543
X20.67 Y-36.493
X20.614 Y-36.474
X20.288 Y-36.332
X19.993 Y-36.133
X19.737 Y-35.886
X19.529 Y-35.597
X19.376 Y-35.276
X19.282 Y-34.933
X19.25 Y-34.578
Y-33.549
G2 X19.304 Y-33.321 I0.6 J-0.021 F350
X19.867 Y-32.97 I0.546 J-0.249 F850
G1 X25.168 Y-33.123
G2 X25.696 Y-33.474 I-0.017 J-0.6
X25.75 Y-33.701 I-0.546 J-0.249 F350
G1 Y-34.758 F850
X25.743 Y-34.908
X25.722 Y-35.056
X25.688 Y-35.203
X25.643 Y-35.346
X25.589 Y-35.485
X25.525 Y-35.621
X25.45 Y-35.758
X25.365 Y-35.896
X25.267 Y-36.037
X25.151 Y-36.184
X25.022 Y-36.33
X24.881 Y-36.473
X24.721 Y-36.618
X24.544 Y-36.761
X24.353 Y-36.898
X24.149 Y-37.027
X23.93 Y-37.149
X23.699 Y-37.262
X23.457 Y-37.363
X23.205 Y-37.453
X22.949 Y-37.528
X22.686 Y-37.589
X22.422 Y-37.635
X22.157 Y-37.665
X21.922 Y-37.679
X21.669 Y-37.68
X21.442 Y-37.668
X21.235 Y-37.645
X21.009 Y-37.607
X20.818 Y-37.564
X20.628 Y-37.509
X20.592 Y-37.497
X20.271 Y-37.352
X19.98 Y-37.153
X19.728 Y-36.906
X19.524 Y-36.618
X19.373 Y-36.299
X19.281 Y-35.959
X19.25 Y-35.608
Y-34.578
G2 X19.304 Y-34.35 I0.6 J-0.021 F350
X19.87 Y-33.999 I0.546 J-0.249 F850
G1 X25.171 Y-34.179
G2 X25.696 Y-34.53 I-0.02 J-0.6
X25.75 Y-34.758 I-0.546 J-0.249 F350
G1 Y-35.805 F850
X25.743 Y-35.955
X25.72 Y-36.104
X25.685 Y-36.249
X25.639 Y-36.392
X25.583 Y-36.531
X25.518 Y-36.667
X25.442 Y-36.804
X25.357 Y-36.941
X25.255 Y-37.084
X25.138 Y-37.231
X25.009 Y-37.375
X24.865 Y-37.519
X24.701 Y-37.665
X24.422 Y-37.851
X24.115 Y-37.988
X23.79 Y-38.072
X23.456 Y-38.1
G2 X23.228 Y-38.046 I0.021 J0.6 F350
X23.052 Y-37.076 I0.249 J0.546 F850
G1 X24.726 Y-35.402
G2 X25.696 Y-35.578 I0.424 J-0.424
X25.75 Y-35.805 I-0.546 J-0.249 F350
G1 Y-36.812 F850
X25.743 Y-36.962
X25.664 Y-37.266
X25.516 Y-37.542
X25.307 Y-37.775
X25.048 Y-37.952
X24.754 Y-38.063
X24.443 Y-38.1
G2 X24.21 Y-38.07 I0.044 J1.246 F350
X23.284 Y-36.522 I0.277 J1.216 F850
X25.72 Y-36.579 I1.211 J-0.334
X25.75 Y-36.812 I-1.225 J-0.277 F350
G1 Y-37.472 F850
X25.749 Y-37.517
X25.736 Y-37.618
X25.72 Y-37.674
X25.691 Y-37.747
X25.65 Y-37.819
X25.595 Y-37.889
X25.519 Y-37.96
X25.429 Y-38.02
X25.373 Y-38.049
X25.317 Y-38.07
X25.217 Y-38.094
X25.116 Y-38.1
X20.779
X20.63 Y-38.092
X20.314 Y-38.024
X20.02 Y-37.891
X19.759 Y-37.701
X19.544 Y-37.46
X19.383 Y-37.18
X19.284 Y-36.873
X19.25 Y-36.552
G2 X19.304 Y-36.324 I0.6 J-0.021 F350
X20.278 Y-36.153 I0.546 J-0.249 F850
G1 X21.187 Y-37.08
G2 X21.007 Y-38.046 I-0.429 J-0.42
X20.779 Y-38.1 I-0.249 J0.546 F350
G1 X20.024 F850
X19.982
X19.952
X19.802 Y-38.092
X19.744 Y-38.078
X19.652 Y-38.049
X19.564 Y-38.009
X19.481 Y-37.96
G2 X19.345 Y-37.769 I0.496 J0.498 F350
X19.303 Y-37.261 I0.632 J0.308 F850
X20.555 Y-37.633 I0.626 J-0.186
X20.181 Y-38.05 I-0.626 J0.186
X19.952 Y-38.1 I-0.252 J0.603 F350
G1 X19.884 F850
X19.783 Y-38.094
X19.683 Y-38.07
X19.627 Y-38.049
X19.571 Y-38.02
X19.481 Y-37.96
X19.405 Y-37.889
X19.35 Y-37.819
X19.309 Y-37.747
X19.28 Y-37.674
X19.264 Y-37.618
X19.251 Y-37.517
X19.25 Y-37.416
Y-35.608
G2 X19.304 Y-35.38 I0.6 J-0.021 F350
G1 X19.343 Y-35.295 Z-7.483
X19.381 Y-35.211 Z-7.461
X19.417 Y-35.132 Z-7.425
X19.45 Y-35.059 Z-7.375
X19.48 Y-34.994 Z-7.314
X19.505 Y-34.938 Z-7.243
X19.525 Y-34.894 Z-7.162
X19.54 Y-34.861 Z-7.075
X19.549 Y-34.841 Z-6.984
X19.552 Y-34.834 Z-6.89
G0 Z5
X25.069 Y-261.533
Z3.1
G1 Z2.5 F350
G2 X22.141 Y-264.913 Z2.315 I-2.569 J-0.732
X20.221 Y-260.881 Z2.13 I0.358 J2.644
X24.679 Y-260.738 Z1.945 I2.276 J-1.386
X23.026 Y-264.874 Z1.76 I-2.18 J-1.528
X19.902 Y-261.705 Z1.575 I-0.525 J2.606
X24.052 Y-260.116 Z1.39 I2.595 J-0.562
X23.845 Y-264.55 Z1.205 I-1.553 J-2.149
X19.871 Y-262.586 Z1.02 I-1.345 J2.282
X23.259 Y-259.735 Z0.835 I2.626 J0.317
X24.511 Y-263.977 Z0.65 I-0.761 J-2.53
X20.129 Y-263.424 Z0.465 I-2.011 J1.709
X22.389 Y-259.635 Z0.28 I2.369 J1.156
X24.951 Y-263.22 Z0.095 I0.109 J-2.63
X20.645 Y-264.13 Z-0.09 I-2.451 J0.953
X21.536 Y-259.826 Z-0.275 I1.853 J1.861
X25.118 Y-262.364 Z-0.46 I0.961 J-2.441
X21.362 Y-264.625 Z-0.645 I-2.618 J0.098
X20.796 Y-260.283 Z-0.83 I1.137 J2.356
X24.996 Y-261.503 Z-1.015 I1.701 J-1.984
X22.198 Y-264.858 Z-1.2 I-2.496 J-0.762
X20.248 Y-260.955 Z-1.385 I0.302 J2.589
X24.601 Y-260.733 Z-1.57 I2.248 J-1.313
X23.061 Y-264.804 Z-1.755 I-2.101 J-1.532
X19.952 Y-261.766 Z-1.94 I-0.561 J2.536
X23.977 Y-260.138 Z-2.125 I2.545 J-0.502
X23.856 Y-264.472 Z-2.31 I-1.478 J-2.128
X19.938 Y-262.626 Z-2.495 I-1.355 J2.204
X23.195 Y-259.78 Z-2.68 I2.559 J0.358
X24.495 Y-263.9 Z-2.865 I-0.697 J-2.485
X20.205 Y-263.44 Z-3.05 I-1.995 J1.633
X22.343 Y-259.699 Z-3.235 I2.292 J1.172
X24.911 Y-263.153 Z-3.42 I0.154 J-2.567
X20.723 Y-264.12 Z-3.605 I-2.41 J0.886
X21.514 Y-259.901 Z-3.79 I1.776 J1.851
X25.058 Y-262.314 Z-3.975 I0.983 J-2.366
X21.431 Y-264.59 Z-4.16 I-2.558 J0.048
X20.8 Y-260.361 Z-4.345 I1.068 J2.321
X24.923 Y-261.476 Z-4.53 I1.697 J-1.906
X22.252 Y-264.802 Z-4.715 I-2.423 J-0.79
X20.278 Y-261.027 Z-4.9 I0.248 J2.533
X24.523 Y-260.732 Z-5.085 I2.219 J-1.241
X23.094 Y-264.734 Z-5.27 I-2.023 J-1.534
X20.004 Y-261.824 Z-5.455 I-0.593 J2.465
X23.903 Y-260.161 Z-5.64 I2.493 J-0.444
X23.863 Y-264.395 Z-5.825 I-1.404 J-2.104
X20.006 Y-262.664 Z-6.01 I-1.363 J2.127
X23.133 Y-259.827 Z-6.195 I2.492 J0.396
X24.477 Y-263.825 Z-6.38 I-0.635 J-2.438
X20.282 Y-263.454 Z-6.565 I-1.977 J1.557
X22.3 Y-259.764 Z-6.75 I2.216 J1.185
X24.869 Y-263.088 Z-6.935 I0.197 J-2.502
X20.799 Y-264.108 Z-7.12 I-2.368 J0.821
X21.495 Y-259.975 Z-7.305 I1.699 J1.839
X24.997 Y-262.266 Z-7.49 I1.002 J-2.291
X22.497 Y-264.766 I-2.5
Y-259.766 J2.5
X24.997 Y-262.266 J-2.5
G1 X25.015 Y-263.152 F850
X25.039 Y-263.26
X25.055 Y-263.409
X25.052 Y-263.559
X25.032 Y-263.708
X24.999 Y-263.854
X24.953 Y-263.997
X24.896 Y-264.136
X24.828 Y-264.27
X24.751 Y-264.398
X24.665 Y-264.522
X24.572 Y-264.639
X24.472 Y-264.75
X24.364 Y-264.855
X24.251 Y-264.954
X24.132 Y-265.046
X24.005 Y-265.134
X23.871 Y-265.215
X23.731 Y-265.29
X23.583 Y-265.359
X23.43 Y-265.419
X23.272 Y-265.472
X23.109 Y-265.517
X22.942 Y-265.552
X22.771 Y-265.578
X22.597 Y-265.595
X22.421 Y-265.602
X22.244 Y-265.599
X22.066 Y-265.586
X21.888 Y-265.563
X21.71 Y-265.53
X21.534 Y-265.486
X21.359 Y-265.432
X21.187 Y-265.369
X21.018 Y-265.295
X20.853 Y-265.212
X20.692 Y-265.119
X20.665 Y-265.102
X20.405 Y-264.899
X20.182 Y-264.657
X20.002 Y-264.381
X19.87 Y-264.079
X19.788 Y-263.76
X19.761 Y-263.431
X19.757 Y-261.309
X19.765 Y-261.159
X19.783 Y-261.01
X19.891 Y-260.658
X20.066 Y-260.333
X20.301 Y-260.049
X20.587 Y-259.816
X20.912 Y-259.643
X21.265 Y-259.536
X21.632 Y-259.5
G2 X21.86 Y-259.554 I-0.021 J-0.6 F350
X22.024 Y-260.535 I-0.249 J-0.546 F850
G1 X20.77 Y-261.723
G2 X19.811 Y-261.536 I-0.412 J0.436
X19.757 Y-261.309 I0.546 J0.25 F350
G1 X19.756 Y-260.442 F850
X19.763 Y-260.293
X19.841 Y-260.039
X19.987 Y-259.818
X20.189 Y-259.646
X20.43 Y-259.537
X20.692 Y-259.5
G2 X20.924 Y-259.538 I-0.032 J-0.913 F350
X21.304 Y-259.765 I-0.264 J-0.875 F850
X20.059 Y-261.087 I-0.64 J-0.645
X19.795 Y-260.674 I0.605 J0.677
X19.756 Y-260.442 I0.869 J0.265 F350
G1 Y-260.101 F850
X19.766 Y-260
X19.778 Y-259.95
X19.795 Y-259.899
X19.832 Y-259.821
X19.884 Y-259.743
X19.923 Y-259.698
X20.004 Y-259.625
X20.085 Y-259.572
X20.135 Y-259.548
X20.186 Y-259.529
X20.286 Y-259.506
X20.488 Y-259.5
X23.416
X23.565 Y-259.508
X23.715 Y-259.524
X24.071 Y-259.631
X24.399 Y-259.806
X24.687 Y-260.041
X24.923 Y-260.328
X25.099 Y-260.656
X25.206 Y-261.012
X25.242 Y-261.382
G2 X25.188 Y-261.61 I-0.6 J0.022 F350
X24.209 Y-261.775 I-0.546 J0.25 F850
G1 X23.003 Y-260.514
G2 X23.188 Y-259.554 I0.434 J0.415
X23.416 Y-259.5 I0.249 J-0.546 F350
G1 X24.311 F850
X24.461 Y-259.508
X24.712 Y-259.587
X24.931 Y-259.734
X25.1 Y-259.935
X25.207 Y-260.175
X25.244 Y-260.436
G2 X25.205 Y-260.668 I-0.901 J0.033 F350
X24.116 Y-261.276 I-0.862 J0.265 F850
X24.079 Y-259.539 I0.227 J0.874
X24.311 Y-259.5 I0.263 J-0.864 F350
G1 X24.512 F850
X24.714 Y-259.506
X24.814 Y-259.529
X24.865 Y-259.548
X24.915 Y-259.572
X24.996 Y-259.625
X25.077 Y-259.698
X25.116 Y-259.743
X25.168 Y-259.821
X25.205 Y-259.899
X25.222 Y-259.95
X25.234 Y-260
X25.244 Y-260.101
X25.238 Y-264.128
X25.23 Y-264.277
X25.214 Y-264.426
X25.183 Y-264.573
X25.14 Y-264.717
X25.085 Y-264.856
X25.02 Y-264.992
X24.946 Y-265.122
X24.863 Y-265.247
X24.773 Y-265.367
X24.675 Y-265.481
X24.569 Y-265.591
X24.452 Y-265.7
X24.326 Y-265.805
X24.191 Y-265.905
X24.047 Y-266
X23.894 Y-266.088
X23.731 Y-266.171
X23.559 Y-266.246
X23.379 Y-266.313
X23.192 Y-266.371
X22.998 Y-266.419
X22.799 Y-266.456
X22.595 Y-266.483
X22.387 Y-266.498
X22.176 Y-266.502
X21.961 Y-266.494
X21.747 Y-266.473
X21.555 Y-266.444
X21.344 Y-266.4
X21.159 Y-266.35
X21.133 Y-266.341
X20.806 Y-266.199
X20.509 Y-266.001
X20.252 Y-265.754
X20.044 Y-265.465
X19.889 Y-265.144
X19.795 Y-264.801
X19.762 Y-264.446
X19.761 Y-263.431
G2 X19.814 Y-263.203 I0.6 J-0.02 F350
X20.457 Y-262.859 I0.546 J-0.248 F850
G1 X24.735 Y-263.555
G2 X25.185 Y-263.9 I-0.096 J-0.592
X25.238 Y-264.128 I-0.546 J-0.248 F350
G1 X25.237 Y-265.134 F850
X25.229 Y-265.284
X25.203 Y-265.432
X25.162 Y-265.576
X25.109 Y-265.716
X25.045 Y-265.852
X24.972 Y-265.983
X24.889 Y-266.108
X24.799 Y-266.228
X24.702 Y-266.343
X24.595 Y-266.456
X24.477 Y-266.567
X24.345 Y-266.677
X24.201 Y-266.785
X24.048 Y-266.887
X23.884 Y-266.982
X23.709 Y-267.072
X23.521 Y-267.155
X23.323 Y-267.23
X23.117 Y-267.294
X22.903 Y-267.349
X22.683 Y-267.391
X22.473 Y-267.42
X22.272 Y-267.435
X22.051 Y-267.44
X21.862 Y-267.434
X21.669 Y-267.416
X21.468 Y-267.387
X21.296 Y-267.351
X21.251 Y-267.339
X20.9 Y-267.21
X20.58 Y-267.018
X20.301 Y-266.77
X20.072 Y-266.474
X19.903 Y-266.14
X19.799 Y-265.781
X19.764 Y-265.409
X19.762 Y-264.446
G2 X19.816 Y-264.218 I0.6 J-0.02 F350
X20.457 Y-263.873 I0.546 J-0.248 F850
G1 X24.732 Y-264.562
G2 X25.183 Y-264.906 I-0.095 J-0.592
X25.237 Y-265.134 I-0.546 J-0.248 F350
G1 X25.235 Y-266 F850
X25.228 Y-266.15
X25.204 Y-266.298
X25.166 Y-266.443
X25.115 Y-266.584
X25.052 Y-266.721
X24.98 Y-266.852
X24.899 Y-266.979
X24.811 Y-267.1
X24.715 Y-267.216
X24.606 Y-267.335
X24.483 Y-267.454
X24.349 Y-267.57
X24.204 Y-267.682
X24.047 Y-267.79
X23.877 Y-267.892
X23.695 Y-267.989
X23.504 Y-268.077
X23.306 Y-268.155
X23.1 Y-268.223
X22.888 Y-268.281
X22.679 Y-268.324
X22.486 Y-268.353
X22.266 Y-268.374
X22.069 Y-268.382
X21.887 Y-268.378
X21.68 Y-268.363
X21.497 Y-268.338
X21.328 Y-268.306
X21.282 Y-268.295
X20.925 Y-268.169
X20.599 Y-267.979
X20.314 Y-267.73
X20.081 Y-267.432
X19.908 Y-267.096
X19.802 Y-266.733
X19.765 Y-266.357
X19.764 Y-265.409
G2 X19.817 Y-265.181 I0.6 J-0.02 F350
X20.446 Y-264.835 I0.546 J-0.248 F850
G1 X24.718 Y-265.426
G2 X25.182 Y-265.773 I-0.082 J-0.594
X25.235 Y-266 I-0.546 J-0.248 F350
G1 X25.234 Y-266.856 F850
X25.226 Y-267.005
X25.208 Y-267.154
X25.173 Y-267.3
X25.126 Y-267.443
X25.068 Y-267.581
X24.999 Y-267.714
X24.922 Y-267.843
X24.837 Y-267.967
X24.744 Y-268.087
X24.637 Y-268.21
X24.518 Y-268.331
X24.389 Y-268.45
X24.246 Y-268.566
X24.092 Y-268.678
X23.925 Y-268.785
X23.748 Y-268.886
X23.562 Y-268.977
X23.369 Y-269.06
X23.167 Y-269.132
X22.959 Y-269.195
X22.75 Y-269.244
X22.56 Y-269.278
X22.345 Y-269.305
X22.143 Y-269.318
X21.965 Y-269.319
X21.762 Y-269.309
X21.572 Y-269.29
X21.405 Y-269.263
X21.219 Y-269.221
X20.875 Y-269.09
X20.562 Y-268.897
X20.29 Y-268.651
X20.067 Y-268.358
X19.903 Y-268.029
X19.801 Y-267.676
X19.767 Y-267.31
X19.765 Y-266.357
G2 X19.819 Y-266.129 I0.6 J-0.02 F350
X20.435 Y-265.781 I0.546 J-0.248 F850
G1 X24.704 Y-266.28
G2 X25.181 Y-266.628 I-0.07 J-0.596
X25.234 Y-266.856 I-0.546 J-0.248 F350
G1 X25.232 Y-267.813 F850
X25.225 Y-267.962
X25.201 Y-268.111
X25.163 Y-268.256
X25.113 Y-268.397
X25.052 Y-268.534
X24.982 Y-268.667
X24.903 Y-268.794
X24.817 Y-268.917
X24.719 Y-269.041
X24.611 Y-269.162
X24.489 Y-269.284
X24.355 Y-269.405
X24.208 Y-269.522
X24.051 Y-269.634
X23.884 Y-269.74
X23.706 Y-269.838
X23.52 Y-269.928
X23.324 Y-270.009
X23.12 Y-270.081
X22.912 Y-270.141
X22.698 Y-270.19
X22.508 Y-270.222
X22.303 Y-270.245
X22.097 Y-270.257
X21.919
X21.724 Y-270.245
X21.531 Y-270.224
X21.365 Y-270.195
X21.185 Y-270.154
X20.849 Y-270.022
X20.543 Y-269.831
X20.278 Y-269.587
X20.061 Y-269.299
X19.901 Y-268.977
X19.802 Y-268.63
X19.768 Y-268.271
X19.767 Y-267.31
G2 X19.82 Y-267.082 I0.6 J-0.02 F350
X20.437 Y-266.734 I0.546 J-0.248 F850
G1 X24.703 Y-267.237
G2 X25.179 Y-267.585 I-0.07 J-0.596
X25.232 Y-267.813 I-0.546 J-0.248 F350
G1 X25.231 Y-268.718 F850
X25.223 Y-268.867
X25.202 Y-269.016
X25.167 Y-269.162
X25.119 Y-269.304
X25.06 Y-269.442
X24.991 Y-269.575
X24.914 Y-269.704
X24.829 Y-269.827
X24.735 Y-269.948
X24.628 Y-270.072
X24.507 Y-270.196
X24.375 Y-270.318
X24.232 Y-270.435
X24.078 Y-270.547
X23.912 Y-270.655
X23.734 Y-270.757
X23.548 Y-270.849
X23.353 Y-270.933
X23.151 Y-271.006
X22.943 Y-271.069
X22.731 Y-271.12
X22.531 Y-271.156
X22.339 Y-271.18
X22.125 Y-271.194
X21.941 Y-271.196
X21.757 Y-271.188
X21.558 Y-271.168
X21.386 Y-271.14
X21.215 Y-271.103
X20.874 Y-270.973
X20.562 Y-270.783
X20.291 Y-270.538
X20.069 Y-270.247
X19.905 Y-269.92
X19.804 Y-269.569
X19.77 Y-269.205
X19.768 Y-268.271
G2 X19.822 Y-268.043 I0.6 J-0.02 F350
X20.43 Y-267.694 I0.546 J-0.248 F850
G1 X24.694 Y-268.141
G2 X25.178 Y-268.49 I-0.063 J-0.597
X25.231 Y-268.718 I-0.546 J-0.248 F350
G1 X25.23 Y-269.674 F850
X25.222 Y-269.824
X25.198 Y-269.972
X25.16 Y-270.117
X25.11 Y-270.259
X25.049 Y-270.396
X24.979 Y-270.529
X24.901 Y-270.657
X24.814 Y-270.78
X24.716 Y-270.905
X24.608 Y-271.027
X24.486 Y-271.15
X24.35 Y-271.273
X24.203 Y-271.392
X24.046 Y-271.504
X23.879 Y-271.61
X23.7 Y-271.71
X23.513 Y-271.801
X23.318 Y-271.883
X23.114 Y-271.955
X22.905 Y-272.016
X22.691 Y-272.066
X22.503 Y-272.098
X22.298 Y-272.122
X22.094 Y-272.134
X21.917
X21.723 Y-272.124
X21.531 Y-272.103
X21.366 Y-272.075
X21.186 Y-272.034
X20.851 Y-271.904
X20.546 Y-271.714
X20.28 Y-271.472
X20.064 Y-271.185
X19.903 Y-270.863
X19.805 Y-270.517
X19.771 Y-270.16
X19.77 Y-269.205
G2 X19.823 Y-268.977 I0.6 J-0.02 F350
X20.435 Y-268.629 I0.546 J-0.248 F850
G1 X24.696 Y-269.098
G2 X25.176 Y-269.447 I-0.066 J-0.596
X25.23 Y-269.674 I-0.546 J-0.248 F350
G1 X25.228 Y-270.57 F850
X25.22 Y-270.72
X25.201 Y-270.869
X25.167 Y-271.015
X25.12 Y-271.158
X25.062 Y-271.296
X24.995 Y-271.43
X24.918 Y-271.559
X24.835 Y-271.684
X24.742 Y-271.805
X24.635 Y-271.93
X24.516 Y-272.055
X24.385 Y-272.177
X24.243 Y-272.295
X24.09 Y-272.409
X23.924 Y-272.518
X23.747 Y-272.621
X23.563 Y-272.715
X23.369 Y-272.799
X23.169 Y-272.874
X22.962 Y-272.938
X22.751 Y-272.991
X22.549 Y-273.029
X22.359 Y-273.054
X22.145 Y-273.07
X21.959 Y-273.074
X21.778 Y-273.067
X21.578 Y-273.048
X21.404 Y-273.022
X21.236 Y-272.987
X20.891 Y-272.858
X20.575 Y-272.668
X20.301 Y-272.422
X20.076 Y-272.13
X19.91 Y-271.801
X19.807 Y-271.447
X19.773 Y-271.08
X19.771 Y-270.16
G2 X19.824 Y-269.932 I0.6 J-0.02 F350
X20.428 Y-269.582 I0.546 J-0.248 F850
G1 X24.686 Y-269.993
G2 X25.175 Y-270.342 I-0.058 J-0.597
X25.228 Y-270.57 I-0.546 J-0.248 F350
G1 X25.227 Y-271.536 F850
X25.219 Y-271.686
X25.196 Y-271.834
X25.159 Y-271.98
X25.11 Y-272.121
X25.05 Y-272.259
X24.98 Y-272.392
X24.903 Y-272.52
X24.817 Y-272.644
X24.72 Y-272.769
X24.612 Y-272.892
X24.492 Y-273.015
X24.357 Y-273.138
X24.211 Y-273.257
X24.054 Y-273.371
X23.888 Y-273.478
X23.71 Y-273.578
X23.524 Y-273.67
X23.33 Y-273.753
X23.126 Y-273.826
X22.918 Y-273.888
X22.706 Y-273.938
X22.519 Y-273.971
X22.313 Y-273.996
X22.111 Y-274.009
X21.935 Y-274.011
X21.74 Y-274.001
X21.549 Y-273.981
X21.384 Y-273.954
X21.204 Y-273.914
X20.866 Y-273.785
X20.557 Y-273.595
X20.289 Y-273.351
X20.07 Y-273.063
X19.908 Y-272.739
X19.808 Y-272.391
X19.774 Y-272.03
X19.773 Y-271.08
G2 X19.826 Y-270.852 I0.6 J-0.02 F350
X20.436 Y-270.504 I0.546 J-0.248 F850
G1 X24.691 Y-270.96
G2 X25.173 Y-271.308 I-0.064 J-0.597
X25.227 Y-271.536 I-0.546 J-0.248 F350
G1 X25.225 Y-272.493 F850
X25.218 Y-272.643
X25.192 Y-272.791
X25.154 Y-272.936
X25.103 Y-273.077
X25.042 Y-273.214
X24.971 Y-273.346
X24.892 Y-273.474
X24.805 Y-273.599
X24.706 Y-273.723
X24.597 Y-273.846
X24.474 Y-273.97
X24.338 Y-274.093
X24.19 Y-274.211
X24.033 Y-274.323
X23.865 Y-274.429
X23.687 Y-274.528
X23.5 Y-274.618
X23.305 Y-274.7
X23.101 Y-274.771
X22.893 Y-274.832
X22.68 Y-274.881
X22.491 Y-274.913
X22.287 Y-274.936
X22.083 Y-274.947
X21.906
X21.712 Y-274.937
X21.522 Y-274.915
X21.357 Y-274.887
X21.177 Y-274.846
X20.845 Y-274.716
X20.542 Y-274.527
X20.28 Y-274.286
X20.065 Y-274.002
X19.906 Y-273.683
X19.809 Y-273.34
X19.776 Y-272.985
X19.774 Y-272.03
G2 X19.827 Y-271.802 I0.6 J-0.02 F350
X20.439 Y-271.453 I0.546 J-0.248 F850
G1 X24.691 Y-271.917
G2 X25.172 Y-272.265 I-0.065 J-0.596
X25.225 Y-272.493 I-0.546 J-0.248 F350
G1 X25.224 Y-273.389 F850
X25.216 Y-273.539
X25.196 Y-273.688
X25.161 Y-273.834
X25.114 Y-273.976
X25.056 Y-274.114
X24.988 Y-274.248
X24.911 Y-274.377
X24.827 Y-274.501
X24.734 Y-274.623
X24.627 Y-274.748
X24.507 Y-274.873
X24.376 Y-274.995
X24.234 Y-275.113
X24.08 Y-275.226
X23.914 Y-275.335
X23.737 Y-275.438
X23.552 Y-275.531
X23.358 Y-275.615
X23.158 Y-275.69
X22.951 Y-275.753
X22.74 Y-275.805
X22.538 Y-275.843
X22.347 Y-275.868
X22.134 Y-275.884
X21.949 Y-275.887
X21.768 Y-275.88
X21.568 Y-275.861
X21.396 Y-275.834
X21.227 Y-275.799
X20.885 Y-275.671
X20.572 Y-275.481
X20.3 Y-275.237
X20.078 Y-274.947
X19.913 Y-274.621
X19.812 Y-274.27
X19.777 Y-273.906
X19.776 Y-272.985
G2 X19.829 Y-272.757 I0.6 J-0.02 F350
X20.432 Y-272.408 I0.546 J-0.248 F850
G1 X24.681 Y-272.812
G2 X25.171 Y-273.161 I-0.057 J-0.597
X25.224 Y-273.389 I-0.546 J-0.248 F350
G1 X25.222 Y-274.305 F850
X25.215 Y-274.455
X25.197 Y-274.604
X25.164 Y-274.75
X25.119 Y-274.893
X25.062 Y-275.032
X24.995 Y-275.167
X24.92 Y-275.296
X24.837 Y-275.421
X24.745 Y-275.543
X24.641 Y-275.667
X24.523 Y-275.792
X24.392 Y-275.915
X24.252 Y-276.034
X24.1 Y-276.148
X23.937 Y-276.257
X23.761 Y-276.361
X23.576 Y-276.456
X23.384 Y-276.542
X23.183 Y-276.618
X22.977 Y-276.683
X22.766 Y-276.737
X22.571 Y-276.776
X22.378 Y-276.802
X22.167 Y-276.82
X21.985 Y-276.824
X21.801 Y-276.819
X21.602 Y-276.801
X21.431 Y-276.776
X21.261 Y-276.742
X20.912 Y-276.614
X20.592 Y-276.424
X20.314 Y-276.177
X20.086 Y-275.883
X19.918 Y-275.551
X19.814 Y-275.194
X19.778 Y-274.823
X19.777 Y-273.906
G2 X19.83 Y-273.678 I0.6 J-0.02 F350
X20.433 Y-273.328 I0.546 J-0.248 F850
G1 X24.679 Y-273.728
G2 X25.169 Y-274.077 I-0.056 J-0.597
X25.222 Y-274.305 I-0.546 J-0.248 F350
G1 X25.221 Y-275.262 F850
X25.213 Y-275.412
X25.193 Y-275.561
X25.158 Y-275.707
X25.111 Y-275.849
X25.053 Y-275.987
X24.985 Y-276.121
X24.909 Y-276.25
X24.825 Y-276.374
X24.729 Y-276.499
X24.624 Y-276.622
X24.505 Y-276.746
X24.373 Y-276.869
X24.229 Y-276.989
X24.075 Y-277.103
X23.911 Y-277.21
X23.735 Y-277.312
X23.551 Y-277.405
X23.359 Y-277.489
X23.158 Y-277.563
X22.951 Y-277.627
X22.741 Y-277.679
X22.555 Y-277.714
X22.352 Y-277.741
X22.148 Y-277.756
X21.972 Y-277.759
X21.78 Y-277.751
X21.586 Y-277.733
X21.42 Y-277.708
X21.243 Y-277.67
X20.898 Y-277.541
X20.582 Y-277.35
X20.308 Y-277.104
X20.083 Y-276.812
X19.917 Y-276.483
X19.815 Y-276.128
X19.78 Y-275.761
X19.778 Y-274.823
G2 X19.832 Y-274.595 I0.6 J-0.02 F350
X20.44 Y-274.246 I0.546 J-0.248 F850
G1 X24.683 Y-274.685
G2 X25.168 Y-275.034 I-0.062 J-0.597
X25.221 Y-275.262 I-0.546 J-0.248 F350
G1 X25.219 Y-276.208 F850
X25.212 Y-276.358
X25.191 Y-276.506
X25.155 Y-276.652
X25.107 Y-276.794
X25.049 Y-276.932
X24.981 Y-277.066
X24.904 Y-277.195
X24.819 Y-277.319
X24.724 Y-277.443
X24.618 Y-277.565
X24.499 Y-277.689
X24.366 Y-277.812
X24.222 Y-277.931
X24.068 Y-278.044
X23.904 Y-278.151
X23.729 Y-278.252
X23.545 Y-278.344
X23.352 Y-278.427
X23.151 Y-278.501
X22.945 Y-278.564
X22.734 Y-278.616
X22.546 Y-278.65
X22.346 Y-278.676
X22.14 Y-278.691
X21.963 Y-278.693
X21.772 Y-278.685
X21.578 Y-278.666
X21.411 Y-278.64
X21.235 Y-278.603
X20.892 Y-278.473
X20.578 Y-278.283
X20.305 Y-278.037
X20.083 Y-277.746
X19.918 Y-277.418
X19.816 Y-277.066
X19.781 Y-276.7
X19.78 Y-275.761
G2 X19.833 Y-275.533 I0.6 J-0.02 F350
X20.442 Y-275.184 I0.546 J-0.248 F850
G1 X24.683 Y-275.631
G2 X25.166 Y-275.98 I-0.063 J-0.597
X25.219 Y-276.208 I-0.546 J-0.248 F350
G1 X25.218 Y-277.124 F850
X25.21 Y-277.274
X25.192 Y-277.423
X25.158 Y-277.569
X25.112 Y-277.712
X25.055 Y-277.85
X24.988 Y-277.985
X24.912 Y-278.114
X24.829 Y-278.239
X24.737 Y-278.361
X24.632 Y-278.484
X24.514 Y-278.608
X24.383 Y-278.731
X24.242 Y-278.85
X24.091 Y-278.962
X23.928 Y-279.07
X23.753 Y-279.173
X23.57 Y-279.266
X23.378 Y-279.351
X23.178 Y-279.427
X22.973 Y-279.491
X22.763 Y-279.544
X22.569 Y-279.581
X22.376 Y-279.608
X22.165 Y-279.624
X21.984 Y-279.628
X21.8 Y-279.622
X21.602 Y-279.604
X21.431 Y-279.579
X21.261 Y-279.544
X20.912 Y-279.415
X20.594 Y-279.224
X20.316 Y-278.977
X20.089 Y-278.683
X19.921 Y-278.352
X19.818 Y-277.995
X19.783 Y-277.625
X19.781 Y-276.7
G2 X19.835 Y-276.472 I0.6 J-0.02 F350
X20.441 Y-276.123 I0.546 J-0.248 F850
G1 X24.678 Y-276.547
G2 X25.165 Y-276.896 I-0.06 J-0.597
X25.218 Y-277.124 I-0.546 J-0.248 F350
G1 X25.217 Y-278.081 F850
X25.209 Y-278.231
X25.188 Y-278.379
X25.152 Y-278.525
X25.104 Y-278.667
X25.046 Y-278.805
X24.977 Y-278.939
X24.901 Y-279.068
X24.816 Y-279.191
X24.72 Y-279.316
X24.614 Y-279.439
X24.495 Y-279.561
X24.363 Y-279.684
X24.218 Y-279.803
X24.064 Y-279.916
X23.899 Y-280.023
X23.724 Y-280.123
X23.54 Y-280.215
X23.348 Y-280.298
X23.147 Y-280.372
X22.941 Y-280.434
X22.731 Y-280.485
X22.546 Y-280.52
X22.341 Y-280.545
X22.139 Y-280.56
X21.963 Y-280.562
X21.77 Y-280.553
X21.578 Y-280.534
X21.413 Y-280.508
X21.234 Y-280.47
X20.892 Y-280.34
X20.579 Y-280.15
X20.307 Y-279.905
X20.085 Y-279.614
X19.92 Y-279.286
X19.819 Y-278.934
X19.784 Y-278.57
X19.783 Y-277.625
G2 X19.836 Y-277.397 I0.6 J-0.02 F350
X20.447 Y-277.049 I0.546 J-0.248 F850
G1 X24.681 Y-277.504
G2 X25.163 Y-277.853 I-0.064 J-0.597
X25.217 Y-278.081 I-0.546 J-0.248 F350
G1 X25.215 Y-279.027 F850
X25.207 Y-279.177
X25.185 Y-279.325
X25.149 Y-279.47
X25.1 Y-279.612
X25.041 Y-279.75
X24.972 Y-279.883
X24.894 Y-280.012
X24.809 Y-280.135
X24.713 Y-280.259
X24.607 Y-280.381
X24.487 Y-280.504
X24.353 Y-280.627
X24.208 Y-280.745
X24.054 Y-280.857
X23.889 Y-280.964
X23.713 Y-281.063
X23.529 Y-281.155
X23.336 Y-281.237
X23.135 Y-281.31
X22.929 Y-281.372
X22.718 Y-281.422
X22.53 Y-281.456
X22.329 Y-281.481
X22.124 Y-281.494
X21.947 Y-281.496
X21.756 Y-281.487
X21.563 Y-281.467
X21.397 Y-281.44
X21.22 Y-281.401
X20.881 Y-281.272
X20.571 Y-281.082
X20.302 Y-280.839
X20.083 Y-280.55
X19.92 Y-280.225
X19.82 Y-279.876
X19.786 Y-279.515
X19.784 Y-278.57
G2 X19.837 Y-278.342 I0.6 J-0.02 F350
X20.448 Y-277.993 I0.546 J-0.248 F850
G1 X24.68 Y-278.45
G2 X25.162 Y-278.799 I-0.064 J-0.597
X25.215 Y-279.027 I-0.546 J-0.248 F350
G1 X25.214 Y-279.943 F850
X25.206 Y-280.093
X25.186 Y-280.241
X25.152 Y-280.387
X25.104 Y-280.53
X25.046 Y-280.668
X24.979 Y-280.802
X24.902 Y-280.931
X24.818 Y-281.055
X24.725 Y-281.177
X24.62 Y-281.299
X24.5 Y-281.424
X24.368 Y-281.546
X24.226 Y-281.664
X24.075 Y-281.776
X23.911 Y-281.884
X23.735 Y-281.985
X23.551 Y-282.078
X23.359 Y-282.162
X23.158 Y-282.236
X22.953 Y-282.299
X22.742 Y-282.351
X22.549 Y-282.387
X22.355 Y-282.413
X22.145 Y-282.428
X21.964 Y-282.431
X21.779 Y-282.424
X21.582 Y-282.405
X21.413 Y-282.379
X21.241 Y-282.342
X20.898 Y-282.214
X20.584 Y-282.024
X20.311 Y-281.779
X20.089 Y-281.488
X19.923 Y-281.161
X19.822 Y-280.809
X19.787 Y-280.444
X19.786 Y-279.515
G2 X19.839 Y-279.287 I0.6 J-0.02 F350
X20.446 Y-278.938 I0.546 J-0.248 F850
G1 X24.674 Y-279.366
G2 X25.16 Y-279.715 I-0.06 J-0.597
X25.214 Y-279.943 I-0.546 J-0.248 F350
G1 X25.212 Y-280.9 F850
X25.204 Y-281.05
X25.182 Y-281.198
X25.145 Y-281.343
X25.096 Y-281.485
X25.036 Y-281.623
X24.967 Y-281.756
X24.89 Y-281.884
X24.804 Y-282.007
X24.707 Y-282.132
X24.6 Y-282.254
X24.48 Y-282.377
X24.347 Y-282.499
X24.201 Y-282.617
X24.046 Y-282.73
X23.88 Y-282.836
X23.704 Y-282.936
X23.519 Y-283.027
X23.326 Y-283.109
X23.125 Y-283.182
X22.918 Y-283.243
X22.707 Y-283.293
X22.521 Y-283.326
X22.317 Y-283.351
X22.115 Y-283.364
X21.94 Y-283.365
X21.746 Y-283.356
X21.556 Y-283.335
X21.391 Y-283.309
X21.212 Y-283.269
X20.875 Y-283.14
X20.568 Y-282.951
X20.301 Y-282.708
X20.083 Y-282.421
X19.922 Y-282.099
X19.822 Y-281.752
X19.789 Y-281.393
X19.787 Y-280.444
G2 X19.84 Y-280.216 I0.6 J-0.02 F350
X20.451 Y-279.868 I0.546 J-0.248 F850
G1 X24.677 Y-280.323
G2 X25.159 Y-280.672 I-0.064 J-0.597
X25.212 Y-280.9 I-0.546 J-0.248 F350
G1 X25.211 Y-281.846 F850
X25.203 Y-281.995
X25.179 Y-282.144
X25.142 Y-282.289
X25.092 Y-282.43
X25.031 Y-282.567
X24.961 Y-282.7
X24.883 Y-282.828
X24.796 Y-282.952
X24.699 Y-283.075
X24.592 Y-283.198
X24.47 Y-283.321
X24.335 Y-283.443
X24.189 Y-283.561
X24.034 Y-283.672
X23.868 Y-283.778
X23.691 Y-283.877
X23.506 Y-283.967
X23.312 Y-284.049
X23.109 Y-284.121
X22.903 Y-284.181
X22.691 Y-284.231
X22.503 Y-284.263
X22.301 Y-284.287
X22.097 Y-284.299
X21.92 Y-284.3
X21.728 Y-284.289
X21.537 Y-284.268
X21.372 Y-284.241
X21.194 Y-284.201
X20.862 Y-284.072
X20.559 Y-283.884
X20.295 Y-283.643
X20.08 Y-283.359
X19.921 Y-283.04
X19.823 Y-282.697
X19.79 Y-282.342
X19.789 Y-281.393
G2 X19.842 Y-281.165 I0.6 J-0.02 F350
X20.452 Y-280.816 I0.546 J-0.248 F850
G1 X24.675 Y-281.269
G2 X25.157 Y-281.618 I-0.064 J-0.597
X25.211 Y-281.846 I-0.546 J-0.248 F350
G1 X25.209 Y-282.762 F850
X25.202 Y-282.912
X25.18 Y-283.06
X25.144 Y-283.206
X25.096 Y-283.348
X25.037 Y-283.485
X24.968 Y-283.619
X24.891 Y-283.747
X24.806 Y-283.871
X24.712 Y-283.993
X24.605 Y-284.116
X24.484 Y-284.24
X24.351 Y-284.362
X24.208 Y-284.479
X24.055 Y-284.591
X23.89 Y-284.698
X23.713 Y-284.799
X23.528 Y-284.891
X23.334 Y-284.974
X23.133 Y-285.047
X22.927 Y-285.109
X22.715 Y-285.16
X22.521 Y-285.196
X22.327 Y-285.22
X22.117 Y-285.234
X21.937 Y-285.236
X21.752 Y-285.228
X21.556 Y-285.208
X21.388 Y-285.181
X21.337 Y-285.17
X20.975 Y-285.054
X20.643 Y-284.87
X20.353 Y-284.626
X20.115 Y-284.331
X19.938 Y-283.996
X19.829 Y-283.632
X19.791 Y-283.255
X19.79 Y-282.342
G2 X19.843 Y-282.114 I0.6 J-0.02 F350
X20.449 Y-281.765 I0.546 J-0.248 F850
G1 X24.669 Y-282.185
G2 X25.156 Y-282.534 I-0.059 J-0.597
X25.209 Y-282.762 I-0.546 J-0.248 F350
G1 X25.208 Y-283.719 F850
X25.2 Y-283.868
X25.176 Y-284.016
X25.138 Y-284.161
X25.088 Y-284.303
X25.027 Y-284.44
X24.957 Y-284.573
X24.878 Y-284.7
X24.792 Y-284.824
X24.694 Y-284.949
X24.585 Y-285.071
X24.464 Y-285.193
X24.329 Y-285.316
X24.276 Y-285.358
X23.995 Y-285.547
X23.687 Y-285.686
X23.359 Y-285.771
X23.022 Y-285.8
G2 X22.794 Y-285.746 I0.021 J0.6 F350
X22.633 Y-284.762 I0.249 J0.546 F850
G1 X24.199 Y-283.3
G2 X25.155 Y-283.491 I0.41 J-0.439
X25.208 Y-283.719 I-0.546 J-0.248 F350
G1 X25.206 Y-284.664 F850
X25.199 Y-284.814
X25.121 Y-285.079
X24.984 Y-285.319
X24.795 Y-285.521
X24.564 Y-285.673
X24.305 Y-285.768
X24.03 Y-285.8
G2 X23.798 Y-285.767 I0.039 J1.103 F350
X23.012 Y-284.378 I0.271 J1.07 F850
X25.174 Y-284.431 I1.074 J-0.323
X25.206 Y-284.664 I-1.088 J-0.27 F350
G1 Y-285.067 F850
X25.2 Y-285.268
X25.176 Y-285.369
X25.158 Y-285.419
X25.133 Y-285.47
X25.116 Y-285.499
X25.052 Y-285.585
X25.008 Y-285.633
X24.964 Y-285.671
X24.915 Y-285.706
X24.865 Y-285.734
X24.814 Y-285.757
X24.764 Y-285.775
X24.714 Y-285.788
X24.613 Y-285.8
X21.383
X21.233 Y-285.793
X20.903 Y-285.717
X20.596 Y-285.575
X20.324 Y-285.373
X20.1 Y-285.119
X19.932 Y-284.825
X19.828 Y-284.503
X19.793 Y-284.166
G2 X19.846 Y-283.938 I0.6 J-0.02 F350
X20.826 Y-283.772 I0.546 J-0.248 F850
G1 X21.796 Y-284.786
G2 X21.611 Y-285.746 I-0.434 J-0.415
X21.383 Y-285.8 I-0.249 J0.546 F350
G1 X20.578 F850
X20.428 Y-285.793
X20.225 Y-285.722
X20.048 Y-285.599
X19.911 Y-285.433
X19.824 Y-285.236
X19.794 Y-285.022
G2 X19.838 Y-284.792 I0.761 J-0.025 F350
X20.015 Y-284.511 I0.717 J-0.256 F850
X21.106 Y-285.559 I0.537 J-0.533
X20.809 Y-285.756 I-0.554 J0.515
X20.578 Y-285.8 I-0.257 J0.712 F350
G1 X20.387 F850
X20.286 Y-285.788
X20.236 Y-285.775
X20.186 Y-285.757
X20.135 Y-285.734
X20.085 Y-285.706
X20.036 Y-285.671
X19.992 Y-285.633
X19.948 Y-285.585
X19.884 Y-285.499
X19.867 Y-285.47
X19.842 Y-285.419
X19.824 Y-285.369
X19.8 Y-285.268
X19.794 Y-285.067
X19.791 Y-283.255
X19.803 Y-283.201 Z-7.483 F350
X19.814 Y-283.151 Z-7.464
X19.824 Y-283.106 Z-7.433
X19.832 Y-283.069 Z-7.392
X19.838 Y-283.043 Z-7.343
X19.843 Y-283.031 Z-7.3
X19.845 Y-283.027 Z-7.254
G0 Z5
X25.069 Y-12.12
Z-4.39
G1 Z-4.99 F350
G2 X22.141 Y-15.5 Z-5.175 I-2.569 J-0.732
X20.221 Y-11.468 Z-5.36 I0.358 J2.644
X24.679 Y-11.324 Z-5.545 I2.276 J-1.386
X23.026 Y-15.461 Z-5.73 I-2.18 J-1.528
X19.902 Y-12.292 Z-5.915 I-0.525 J2.606
X24.052 Y-10.703 Z-6.1 I2.595 J-0.562
X23.845 Y-15.137 Z-6.285 I-1.553 J-2.149
X19.871 Y-13.172 Z-6.47 I-1.345 J2.282
X23.259 Y-10.322 Z-6.655 I2.626 J0.317
X24.511 Y-14.563 Z-6.84 I-0.761 J-2.53
X20.129 Y-14.011 Z-7.025 I-2.011 J1.709
X22.389 Y-10.222 Z-7.21 I2.369 J1.156
X24.951 Y-13.807 Z-7.395 I0.109 J-2.63
X20.645 Y-14.717 Z-7.58 I-2.451 J0.953
X21.536 Y-10.412 Z-7.765 I1.853 J1.861
X25.118 Y-12.951 Z-7.95 I0.961 J-2.441
X21.362 Y-15.212 Z-8.135 I-2.618 J0.098
X20.796 Y-10.869 Z-8.32 I1.137 J2.356
X24.996 Y-12.09 Z-8.505 I1.701 J-1.984
X22.198 Y-15.445 Z-8.69 I-2.496 J-0.762
X20.248 Y-11.541 Z-8.875 I0.302 J2.589
X24.601 Y-11.32 Z-9.06 I2.248 J-1.313
X23.061 Y-15.391 Z-9.245 I-2.101 J-1.532
X19.952 Y-12.353 Z-9.43 I-0.561 J2.536
X23.977 Y-10.724 Z-9.615 I2.545 J-0.502
X23.856 Y-15.059 Z-9.8 I-1.478 J-2.128
X19.938 Y-13.213 Z-9.985 I-1.355 J2.204
X23.195 Y-10.367 Z-10.17 I2.559 J0.358
X24.495 Y-14.487 Z-10.355 I-0.697 J-2.485
X20.205 Y-14.027 Z-10.54 I-1.995 J1.633
X22.343 Y-10.286 Z-10.725 I2.292 J1.172
X24.911 Y-13.74 Z-10.91 I0.154 J-2.567
X20.723 Y-14.707 Z-11.095 I-2.41 J0.886
X21.514 Y-10.487 Z-11.28 I1.776 J1.851
X25.058 Y-12.901 Z-11.465 I0.983 J-2.366
X21.431 Y-15.177 Z-11.65 I-2.558 J0.048
X20.8 Y-10.947 Z-11.835 I1.068 J2.321
X24.923 Y-12.063 Z-12.02 I1.697 J-1.906
X22.252 Y-15.389 Z-12.205 I-2.423 J-0.79
X20.278 Y-11.614 Z-12.39 I0.248 J2.533
X24.523 Y-11.318 Z-12.575 I2.219 J-1.241
X23.094 Y-15.321 Z-12.76 I-2.023 J-1.534
X20.004 Y-12.411 Z-12.945 I-0.593 J2.465
X23.903 Y-10.748 Z-13.13 I2.493 J-0.444
X23.863 Y-14.982 Z-13.315 I-1.404 J-2.104
X20.006 Y-13.251 Z-13.5 I-1.363 J2.127
X23.133 Y-10.414 Z-13.685 I2.492 J0.396
X24.477 Y-14.411 Z-13.87 I-0.635 J-2.438
X20.282 Y-14.041 Z-14.055 I-1.977 J1.557
X22.3 Y-10.35 Z-14.24 I2.216 J1.185
X24.869 Y-13.674 Z-14.425 I0.197 J-2.502
X20.799 Y-14.694 Z-14.61 I-2.368 J0.821
X21.495 Y-10.562 Z-14.795 I1.699 J1.839
X24.997 Y-12.853 Z-14.98 I1.002 J-2.291
X19.997 I-2.5
X24.997 I2.5
G1 X25.015 Y-13.739 F850
X25.039 Y-13.847
X25.055 Y-13.996
X25.052 Y-14.146
X25.032 Y-14.295
X24.999 Y-14.441
X24.953 Y-14.584
X24.896 Y-14.722
X24.828 Y-14.856
X24.751 Y-14.985
X24.665 Y-15.108
X24.572 Y-15.226
X24.472 Y-15.337
X24.364 Y-15.442
X24.251 Y-15.541
X24.132 Y-15.633
X24.005 Y-15.72
X23.871 Y-15.802
X23.731 Y-15.877
X23.583 Y-15.945
X23.43 Y-16.006
X23.272 Y-16.059
X23.109 Y-16.103
X22.942 Y-16.139
X22.771 Y-16.165
X22.597 Y-16.182
X22.421 Y-16.189
X22.244 Y-16.186
X22.066 Y-16.173
X21.888 Y-16.15
X21.71 Y-16.116
X21.534 Y-16.073
X21.359 Y-16.019
X21.187 Y-15.956
X21.018 Y-15.882
X20.853 Y-15.799
X20.692 Y-15.706
X20.536 Y-15.604
X20.386 Y-15.493
X20.242 Y-15.374
X20.105 Y-15.246
X19.975 Y-15.111
X19.852 Y-14.968
X19.737 Y-14.818
X19.631 Y-14.662
X19.534 Y-14.5
X19.446 Y-14.332
X19.43 Y-14.298
X19.331 Y-14.031
X19.27 Y-13.752
X19.25 Y-13.468
Y-12.651
X19.265 Y-12.361
X19.282 Y-12.198
X19.309 Y-12.035
X19.345 Y-11.872
X19.391 Y-11.708
X19.447 Y-11.546
X19.513 Y-11.386
X19.588 Y-11.228
X19.672 Y-11.073
X19.766 Y-10.922
X19.869 Y-10.776
X19.981 Y-10.635
X20.101 Y-10.499
X20.23 Y-10.37
X20.366 Y-10.248
X20.509 Y-10.133
X20.659 Y-10.026
X20.816 Y-9.927
X20.978 Y-9.837
X21.146 Y-9.756
X21.319 Y-9.684
X21.495 Y-9.622
X21.675 Y-9.57
X21.76 Y-9.55
X21.907 Y-9.522
X22.056 Y-9.506
X22.206 Y-9.5
G2 X22.434 Y-9.554 I-0.021 J-0.6 F350
X22.626 Y-10.507 I-0.249 J-0.546 F850
G1 X20.291 Y-13.037
G2 X19.304 Y-12.879 I-0.441 J0.407
X19.25 Y-12.651 I0.546 J0.249 F350
G1 Y-11.181 F850
X19.257 Y-11.031
X19.339 Y-10.68
X19.49 Y-10.353
X19.706 Y-10.064
X19.976 Y-9.825
X20.289 Y-9.647
X20.632 Y-9.537
X20.991 Y-9.5
G2 X21.219 Y-9.554 I-0.021 J-0.6 F350
X21.382 Y-10.535 I-0.249 J-0.546 F850
G1 X20.262 Y-11.596
G2 X19.304 Y-11.409 I-0.412 J0.436
X19.25 Y-11.181 I0.546 J0.249 F350
G1 Y-10.375 F850
X19.257 Y-10.226
X19.328 Y-9.994
X19.46 Y-9.792
X19.643 Y-9.634
X19.864 Y-9.534
X20.103 Y-9.5
G2 X20.335 Y-9.54 I-0.03 J-0.863 F350
X20.676 Y-9.745 I-0.262 J-0.823 F850
X19.503 Y-10.948 I-0.586 J-0.602
X19.291 Y-10.607 I0.586 J0.602
X19.25 Y-10.375 I0.799 J0.261 F350
G1 Y-10.235 F850
X19.256 Y-10.034
X19.265 Y-9.981
X19.28 Y-9.929
X19.298 Y-9.881
X19.322 Y-9.832
X19.35 Y-9.785
X19.385 Y-9.737
X19.433 Y-9.685
X19.495 Y-9.631
X19.542 Y-9.597
X19.589 Y-9.57
X19.683 Y-9.53
X19.783 Y-9.506
X19.884 Y-9.5
X22.5
X22.843 Y-9.517
X23.023 Y-9.536
X23.202 Y-9.566
X23.381 Y-9.606
X23.557 Y-9.656
X23.732 Y-9.716
X23.903 Y-9.786
X24.071 Y-9.865
X24.234 Y-9.955
X24.393 Y-10.053
X24.546 Y-10.161
X24.693 Y-10.278
X24.833 Y-10.402
X24.967 Y-10.535
X25.093 Y-10.675
X25.211 Y-10.823
X25.321 Y-10.977
X25.422 Y-11.137
X25.519 Y-11.312
X25.55 Y-11.376
X25.66 Y-11.656
X25.727 Y-11.948
X25.75 Y-12.247
G2 X25.696 Y-12.475 I-0.6 J0.021 F350
X24.773 Y-12.693 I-0.546 J0.249 F850
G1 X22.144 Y-10.566
G2 X22.272 Y-9.554 I0.377 J0.467
X22.5 Y-9.5 I0.249 J-0.546 F350
G1 X24.11 F850
X24.26 Y-9.507
X24.602 Y-9.589
X24.92 Y-9.738
X25.202 Y-9.949
X25.434 Y-10.213
X25.607 Y-10.52
X25.714 Y-10.855
X25.75 Y-11.205
G2 X25.696 Y-11.432 I-0.6 J0.021 F350
X24.713 Y-11.595 I-0.546 J0.249 F850
G1 X23.694 Y-10.511
G2 X23.882 Y-9.554 I0.437 J0.411
X24.11 Y-9.5 I0.249 J-0.546 F350
G1 X24.915 F850
X25.065 Y-9.507
X25.284 Y-9.579
X25.476 Y-9.708
X25.624 Y-9.885
X25.718 Y-10.096
X25.75 Y-10.325
G2 X25.708 Y-10.556 I-0.815 J0.028 F350
X25.515 Y-10.869 I-0.773 J0.259 F850
X24.371 Y-9.739 I-0.572 J0.565
X24.684 Y-9.542 I0.572 J-0.565
X24.915 Y-9.5 I0.259 J-0.762 F350
G1 X25.116 F850
X25.217 Y-9.506
X25.317 Y-9.53
X25.411 Y-9.57
X25.458 Y-9.597
X25.505 Y-9.631
X25.567 Y-9.685
X25.615 Y-9.737
X25.65 Y-9.785
X25.678 Y-9.832
X25.702 Y-9.881
X25.72 Y-9.929
X25.735 Y-9.981
X25.744 Y-10.034
X25.75 Y-10.235
Y-14.061
X25.738 Y-14.309
X25.722 Y-14.458
X25.697 Y-14.606
X25.663 Y-14.752
X25.621 Y-14.897
X25.57 Y-15.042
X25.509 Y-15.187
X25.439 Y-15.332
X25.358 Y-15.477
X25.267 Y-15.62
X25.166 Y-15.762
X25.055 Y-15.901
X24.934 Y-16.035
X24.803 Y-16.164
X24.663 Y-16.288
X24.514 Y-16.406
X24.355 Y-16.518
X24.187 Y-16.622
X24.011 Y-16.718
X23.826 Y-16.806
X23.634 Y-16.884
X23.436 Y-16.952
X23.231 Y-17.01
X23.021 Y-17.056
X22.807 Y-17.091
X22.589 Y-17.114
X22.368 Y-17.125
X22.145 Y-17.123
X21.921 Y-17.109
X21.696 Y-17.082
X21.471 Y-17.041
X21.248 Y-16.988
X21.026 Y-16.922
X20.807 Y-16.844
X20.592 Y-16.752
X20.381 Y-16.648
X20.169 Y-16.528
X19.905 Y-16.325
X19.678 Y-16.082
X19.495 Y-15.804
X19.36 Y-15.5
X19.278 Y-15.177
X19.25 Y-14.845
Y-13.468
G2 X19.304 Y-13.24 I0.6 J-0.021 F350
X19.916 Y-12.893 I0.546 J-0.249 F850
G1 X25.217 Y-13.485
G2 X25.696 Y-13.833 I-0.067 J-0.596
X25.75 Y-14.061 I-0.546 J-0.249 F350
G1 Y-15.379 F850
X25.743 Y-15.529
X25.725 Y-15.678
X25.694 Y-15.825
X25.651 Y-15.969
X25.599 Y-16.109
X25.537 Y-16.246
X25.466 Y-16.378
X25.389 Y-16.506
X25.298 Y-16.637
X25.195 Y-16.771
X25.081 Y-16.903
X24.956 Y-17.031
X24.818 Y-17.158
X24.666 Y-17.282
X24.501 Y-17.403
X24.325 Y-17.517
X24.138 Y-17.623
X23.942 Y-17.721
X23.734 Y-17.81
X23.515 Y-17.889
X23.286 Y-17.958
X23.048 Y-18.016
X22.802 Y-18.06
X22.55 Y-18.091
X22.294 Y-18.109
X22.033 Y-18.112
X21.768 Y-18.099
X21.502 Y-18.072
X21.249 Y-18.032
X21.017 Y-17.981
X20.782 Y-17.916
X20.585 Y-17.849
X20.502 Y-17.815
X20.199 Y-17.662
X19.927 Y-17.461
X19.693 Y-17.216
X19.503 Y-16.935
X19.364 Y-16.626
X19.279 Y-16.298
X19.25 Y-15.961
Y-14.845
G2 X19.304 Y-14.617 I0.6 J-0.021 F350
X19.91 Y-14.269 I0.546 J-0.249 F850
G1 X25.211 Y-14.803
G2 X25.696 Y-15.151 I-0.06 J-0.597
X25.75 Y-15.379 I-0.546 J-0.249 F350
G1 Y-16.386 F850
X25.743 Y-16.536
X25.725 Y-16.685
X25.693 Y-16.831
X25.65 Y-16.975
X25.595 Y-17.115
X25.531 Y-17.25
X25.458 Y-17.382
X25.377 Y-17.509
X25.283 Y-17.641
X25.178 Y-17.771
X25.061 Y-17.902
X24.927 Y-18.034
X24.779 Y-18.164
X24.62 Y-18.29
X24.447 Y-18.411
X24.257 Y-18.529
X24.052 Y-18.641
X23.835 Y-18.744
X23.607 Y-18.836
X23.366 Y-18.918
X23.112 Y-18.99
X22.848 Y-19.048
X22.578 Y-19.092
X22.302 Y-19.121
X22.026 Y-19.134
X21.774 Y-19.132
X21.512 Y-19.115
X21.279 Y-19.086
X21.062 Y-19.048
X20.836 Y-18.994
X20.647 Y-18.937
X20.571 Y-18.91
X20.254 Y-18.763
X19.967 Y-18.563
X19.72 Y-18.317
X19.519 Y-18.031
X19.371 Y-17.714
X19.281 Y-17.377
X19.25 Y-17.029
Y-15.961
G2 X19.304 Y-15.733 I0.6 J-0.021 F350
X19.898 Y-15.384 I0.546 J-0.249 F850
G1 X25.198 Y-15.809
G2 X25.696 Y-16.158 I-0.048 J-0.598
X25.75 Y-16.386 I-0.546 J-0.249 F350
G1 Y-17.393 F850
X25.743 Y-17.543
X25.722 Y-17.691
X25.687 Y-17.837
X25.64 Y-17.98
X25.583 Y-18.118
X25.517 Y-18.253
X25.442 Y-18.383
X25.356 Y-18.516
X25.259 Y-18.647
X25.149 Y-18.781
X25.021 Y-18.919
X24.881 Y-19.054
X24.727 Y-19.186
X24.556 Y-19.318
X24.367 Y-19.447
X24.164 Y-19.569
X23.949 Y-19.683
X23.718 Y-19.788
X23.475 Y-19.884
X23.219 Y-19.968
X22.956 Y-20.038
X22.689 Y-20.093
X22.416 Y-20.134
X22.145 Y-20.159
X21.896 Y-20.167
X21.639 Y-20.162
X21.402 Y-20.144
X21.191 Y-20.115
X20.961 Y-20.071
X20.768 Y-20.022
X20.573 Y-19.961
X20.547 Y-19.952
X20.235 Y-19.803
X19.954 Y-19.602
X19.711 Y-19.356
X19.514 Y-19.072
X19.369 Y-18.758
X19.28 Y-18.424
X19.25 Y-18.079
Y-17.029
G2 X19.304 Y-16.801 I0.6 J-0.021 F350
X19.891 Y-16.451 I0.546 J-0.249 F850
G1 X25.191 Y-16.815
G2 X25.696 Y-17.165 I-0.041 J-0.599
X25.75 Y-17.393 I-0.546 J-0.249 F350
G1 Y-18.399 F850
X25.743 Y-18.549
X25.719 Y-18.697
X25.681 Y-18.843
X25.633 Y-18.985
X25.575 Y-19.123
X25.507 Y-19.257
X25.43 Y-19.39
X25.343 Y-19.522
X25.241 Y-19.659
X25.123 Y-19.8
X24.993 Y-19.939
X24.849 Y-20.078
X24.686 Y-20.217
X24.506 Y-20.354
X24.313 Y-20.483
X24.107 Y-20.607
X23.883 Y-20.723
X23.647 Y-20.83
X23.399 Y-20.926
X23.142 Y-21.009
X22.881 Y-21.077
X22.613 Y-21.131
X22.345 Y-21.17
X22.076 Y-21.193
X21.837 Y-21.201
X21.587 Y-21.194
X21.357 Y-21.175
X21.151 Y-21.147
X20.926 Y-21.102
X20.737 Y-21.054
X20.539 Y-20.991
X20.228 Y-20.841
X19.948 Y-20.64
X19.707 Y-20.394
X19.512 Y-20.111
X19.368 Y-19.798
X19.28 Y-19.465
X19.25 Y-19.121
Y-18.079
G2 X19.304 Y-17.851 I0.6 J-0.021 F350
X19.886 Y-17.501 I0.546 J-0.249 F850
G1 X25.187 Y-17.821
G2 X25.696 Y-18.172 I-0.036 J-0.599
X25.75 Y-18.399 I-0.546 J-0.249 F350
G1 Y-19.356 F850
X25.743 Y-19.506
X25.723 Y-19.655
X25.689 Y-19.801
X25.644 Y-19.944
X25.588 Y-20.083
X25.524 Y-20.219
X25.452 Y-20.35
X25.366 Y-20.486
X25.266 Y-20.627
X25.155 Y-20.766
X25.028 Y-20.908
X24.883 Y-21.053
X24.725 Y-21.193
X24.553 Y-21.33
X24.363 Y-21.464
X24.156 Y-21.594
X23.934 Y-21.715
X23.702 Y-21.826
X23.46 Y-21.925
X23.208 Y-22.013
X22.949 Y-22.086
X22.686 Y-22.145
X22.418 Y-22.19
X22.15 Y-22.219
X21.898 Y-22.232
X21.665 Y-22.231
X21.421 Y-22.216
X21.217 Y-22.192
X20.995 Y-22.153
X20.794 Y-22.106
X20.612 Y-22.052
X20.578 Y-22.04
X20.26 Y-21.894
X19.971 Y-21.694
X19.723 Y-21.448
X19.521 Y-21.161
X19.372 Y-20.844
X19.281 Y-20.506
X19.25 Y-20.156
Y-19.121
G2 X19.304 Y-18.894 I0.6 J-0.021 F350
X19.876 Y-18.543 I0.546 J-0.249 F850
G1 X25.177 Y-18.778
G2 X25.696 Y-19.128 I-0.027 J-0.599
X25.75 Y-19.356 I-0.546 J-0.249 F350
G1 Y-20.363 F850
X25.743 Y-20.513
X25.723 Y-20.662
X25.689 Y-20.808
X25.645 Y-20.951
X25.59 Y-21.091
X25.526 Y-21.226
X25.453 Y-21.36
X25.369 Y-21.494
X25.269 Y-21.636
X25.155 Y-21.78
X25.03 Y-21.922
X24.887 Y-22.066
X24.726 Y-22.21
X24.552 Y-22.35
X24.365 Y-22.483
X24.16 Y-22.613
X23.94 Y-22.735
X23.706 Y-22.848
X23.463 Y-22.95
X23.21 Y-23.038
X22.953 Y-23.113
X22.69 Y-23.173
X22.424 Y-23.219
X22.158 Y-23.249
X21.917 Y-23.263
X21.674
X21.437 Y-23.249
X21.233 Y-23.226
X21.007 Y-23.188
X20.81 Y-23.143
X20.625 Y-23.089
X20.587 Y-23.076
X20.267 Y-22.931
X19.977 Y-22.732
X19.726 Y-22.485
X19.523 Y-22.197
X19.373 Y-21.879
X19.281 Y-21.54
X19.25 Y-21.189
Y-20.156
G2 X19.304 Y-19.929 I0.6 J-0.021 F350
X19.873 Y-19.578 I0.546 J-0.249 F850
G1 X25.174 Y-19.784
G2 X25.696 Y-20.135 I-0.023 J-0.6
X25.75 Y-20.363 I-0.546 J-0.249 F350
G1 Y-21.37 F850
X25.743 Y-21.52
X25.724 Y-21.668
X25.691 Y-21.815
X25.648 Y-21.958
X25.594 Y-22.098
X25.531 Y-22.234
X25.459 Y-22.368
X25.376 Y-22.503
X25.277 Y-22.646
X25.165 Y-22.79
X25.04 Y-22.932
X24.898 Y-23.077
X24.738 Y-23.223
X24.566 Y-23.363
X24.38 Y-23.498
X24.176 Y-23.629
X23.956 Y-23.753
X23.725 Y-23.867
X23.483 Y-23.97
X23.232 Y-24.06
X22.975 Y-24.136
X22.714 Y-24.198
X22.449 Y-24.245
X22.183 Y-24.277
X21.941 Y-24.292
X21.699 Y-24.294
X21.46 Y-24.282
X21.256 Y-24.261
X21.03 Y-24.224
X20.831 Y-24.18
X20.647 Y-24.128
X20.6 Y-24.112
X20.277 Y-23.968
X19.984 Y-23.769
X19.731 Y-23.521
X19.526 Y-23.234
X19.374 Y-22.914
X19.281 Y-22.573
X19.25 Y-22.22
Y-21.189
G2 X19.304 Y-20.961 I0.6 J-0.021 F350
X19.87 Y-20.61 I0.546 J-0.249 F850
G1 X25.171 Y-20.791
G2 X25.696 Y-21.142 I-0.02 J-0.6
X25.75 Y-21.37 I-0.546 J-0.249 F350
G1 Y-22.426 F850
X25.743 Y-22.576
X25.72 Y-22.724
X25.685 Y-22.87
X25.638 Y-23.013
X25.582 Y-23.152
X25.518 Y-23.287
X25.441 Y-23.425
X25.355 Y-23.562
X25.254 Y-23.703
X25.137 Y-23.85
X25.006 Y-23.996
X24.862 Y-24.139
X24.701 Y-24.282
X24.521 Y-24.424
X24.328 Y-24.56
X24.123 Y-24.689
X23.902 Y-24.809
X23.67 Y-24.92
X23.426 Y-25.02
X23.172 Y-25.108
X22.915 Y-25.181
X22.652 Y-25.239
X22.387 Y-25.283
X22.122 Y-25.311
X21.889 Y-25.323
X21.636 Y-25.322
X21.411 Y-25.308
X21.204 Y-25.283
X20.98 Y-25.244
X20.791 Y-25.199
X20.599 Y-25.142
X20.576 Y-25.134
X20.258 Y-24.988
X19.97 Y-24.788
X19.722 Y-24.542
X19.52 Y-24.255
X19.372 Y-23.938
X19.281 Y-23.6
X19.25 Y-23.251
Y-22.22
G2 X19.304 Y-21.992 I0.6 J-0.021 F350
X19.873 Y-21.641 I0.546 J-0.249 F850
G1 X25.174 Y-21.848
G2 X25.696 Y-22.198 I-0.023 J-0.6
X25.75 Y-22.426 I-0.546 J-0.249 F350
G1 Y-23.433 F850
X25.743 Y-23.583
X25.722 Y-23.731
X25.689 Y-23.878
X25.644 Y-24.021
X25.59 Y-24.161
X25.526 Y-24.296
X25.454 Y-24.429
X25.37 Y-24.566
X25.269 Y-24.711
X25.157 Y-24.854
X25.03 Y-24.997
X24.886 Y-25.144
X24.726 Y-25.289
X24.553 Y-25.429
X24.365 Y-25.564
X24.159 Y-25.695
X23.938 Y-25.819
X23.706 Y-25.933
X23.464 Y-26.035
X23.213 Y-26.124
X22.956 Y-26.2
X22.695 Y-26.261
X22.43 Y-26.307
X22.165 Y-26.338
X21.923 Y-26.353
X21.684 Y-26.354
X21.445 Y-26.341
X21.242 Y-26.319
X21.017 Y-26.282
X20.819 Y-26.237
X20.636 Y-26.185
X20.595 Y-26.171
X20.273 Y-26.026
X19.981 Y-25.827
X19.729 Y-25.58
X19.525 Y-25.293
X19.374 Y-24.974
X19.281 Y-24.633
X19.25 Y-24.281
Y-23.251
G2 X19.304 Y-23.023 I0.6 J-0.021 F350
X19.87 Y-22.673 I0.546 J-0.249 F850
G1 X25.171 Y-22.854
G2 X25.696 Y-23.205 I-0.021 J-0.6
X25.75 Y-23.433 I-0.546 J-0.249 F350
G1 Y-24.44 F850
X25.743 Y-24.59
X25.725 Y-24.738
X25.693 Y-24.885
X25.65 Y-25.029
X25.597 Y-25.169
X25.534 Y-25.305
X25.464 Y-25.439
X25.381 Y-25.575
X25.283 Y-25.718
X25.172 Y-25.863
X25.048 Y-26.006
X24.906 Y-26.152
X24.748 Y-26.298
X24.577 Y-26.439
X24.391 Y-26.575
X24.188 Y-26.706
X23.97 Y-26.832
X23.739 Y-26.947
X23.498 Y-27.051
X23.248 Y-27.142
X22.992 Y-27.22
X22.732 Y-27.283
X22.467 Y-27.331
X22.203 Y-27.365
X21.959 Y-27.381
X21.719 Y-27.385
X21.478 Y-27.374
X21.273 Y-27.353
X21.048 Y-27.318
X20.848 Y-27.275
X20.664 Y-27.224
X20.611 Y-27.206
X20.285 Y-27.063
X19.991 Y-26.864
X19.735 Y-26.617
X19.528 Y-26.328
X19.375 Y-26.008
X19.282 Y-25.665
X19.25 Y-25.311
Y-24.281
G2 X19.304 Y-24.054 I0.6 J-0.021 F350
X19.868 Y-23.703 I0.546 J-0.249 F850
G1 X25.168 Y-23.861
G2 X25.696 Y-24.212 I-0.018 J-0.6
X25.75 Y-24.44 I-0.546 J-0.249 F350
G1 Y-25.446 F850
X25.742 Y-25.598
X25.726 Y-25.747
X25.697 Y-25.894
X25.655 Y-26.038
X25.603 Y-26.179
X25.542 Y-26.316
X25.473 Y-26.45
X25.393 Y-26.585
X25.296 Y-26.727
X25.187 Y-26.872
X25.065 Y-27.015
X24.926 Y-27.161
X24.769 Y-27.308
X24.6 Y-27.449
X24.417 Y-27.586
X24.217 Y-27.718
X24 Y-27.844
X23.771 Y-27.961
X23.532 Y-28.067
X23.283 Y-28.16
X23.028 Y-28.239
X22.768 Y-28.304
X22.504 Y-28.355
X22.24 Y-28.391
X21.994 Y-28.41
X21.755 Y-28.414
X21.51 Y-28.406
X21.305 Y-28.387
X21.079 Y-28.353
X20.876 Y-28.311
X20.692 Y-28.262
X20.626 Y-28.24
X20.298 Y-28.099
X20 Y-27.901
X19.742 Y-27.653
X19.532 Y-27.363
X19.377 Y-27.041
X19.282 Y-26.696
X19.25 Y-26.34
Y-25.311
G2 X19.304 Y-25.083 I0.6 J-0.021 F350
X19.865 Y-24.732 I0.546 J-0.249 F850
G1 X25.166 Y-24.868
G2 X25.696 Y-25.219 I-0.015 J-0.6
X25.75 Y-25.446 I-0.546 J-0.249 F350
G1 Y-26.544 F850
X25.743 Y-26.694
X25.72 Y-26.842
X25.684 Y-26.987
X25.637 Y-27.13
X25.581 Y-27.269
X25.516 Y-27.404
X25.441 Y-27.54
X25.351 Y-27.682
X25.251 Y-27.823
X25.135 Y-27.967
X25.001 Y-28.116
X24.855 Y-28.261
X24.695 Y-28.403
X24.518 Y-28.544
X24.322 Y-28.681
X24.113 Y-28.811
X23.892 Y-28.932
X23.661 Y-29.042
X23.418 Y-29.141
X23.166 Y-29.228
X22.909 Y-29.301
X22.646 Y-29.36
X22.38 Y-29.403
X22.119 Y-29.431
X21.886 Y-29.443
X21.63 Y-29.441
X21.412 Y-29.427
X21.199 Y-29.402
X20.977 Y-29.363
X20.791 Y-29.319
X20.593 Y-29.26
X20.575 Y-29.254
X20.257 Y-29.107
X19.97 Y-28.907
X19.721 Y-28.661
X19.52 Y-28.375
X19.372 Y-28.058
X19.281 Y-27.72
X19.25 Y-27.371
Y-26.34
G2 X19.304 Y-26.112 I0.6 J-0.021 F350
X19.873 Y-25.761 I0.546 J-0.249 F850
G1 X25.173 Y-25.965
G2 X25.696 Y-26.316 I-0.023 J-0.6
X25.75 Y-26.544 I-0.546 J-0.249 F350
G1 Y-27.55 F850
X25.743 Y-27.7
X25.722 Y-27.849
X25.689 Y-27.995
X25.644 Y-28.138
X25.589 Y-28.278
X25.526 Y-28.414
X25.454 Y-28.546
X25.368 Y-28.685
X25.268 Y-28.829
X25.155 Y-28.972
X25.029 Y-29.116
X24.884 Y-29.263
X24.724 Y-29.408
X24.551 Y-29.548
X24.363 Y-29.684
X24.157 Y-29.815
X23.936 Y-29.939
X23.704 Y-30.052
X23.462 Y-30.154
X23.211 Y-30.243
X22.955 Y-30.319
X22.693 Y-30.38
X22.429 Y-30.426
X22.164 Y-30.457
X21.921 Y-30.472
X21.683 Y-30.473
X21.444 Y-30.46
X21.241 Y-30.438
X21.017 Y-30.401
X20.818 Y-30.357
X20.635 Y-30.304
X20.595 Y-30.29
X20.273 Y-30.146
X19.981 Y-29.947
X19.729 Y-29.7
X19.525 Y-29.412
X19.374 Y-29.093
X19.281 Y-28.752
X19.25 Y-28.401
Y-27.371
G2 X19.304 Y-27.143 I0.6 J-0.021 F350
X19.87 Y-26.792 I0.546 J-0.249 F850
G1 X25.171 Y-26.972
G2 X25.696 Y-27.323 I-0.02 J-0.6
X25.75 Y-27.55 I-0.546 J-0.249 F350
G1 Y-28.557 F850
X25.743 Y-28.707
X25.725 Y-28.856
X25.693 Y-29.003
X25.65 Y-29.146
X25.597 Y-29.287
X25.535 Y-29.423
X25.464 Y-29.556
X25.382 Y-29.692
X25.283 Y-29.836
X25.172 Y-29.98
X25.048 Y-30.123
X24.907 Y-30.27
X24.748 Y-30.416
X24.577 Y-30.557
X24.392 Y-30.693
X24.189 Y-30.825
X23.97 Y-30.95
X23.739 Y-31.065
X23.499 Y-31.169
X23.249 Y-31.261
X22.993 Y-31.338
X22.733 Y-31.401
X22.468 Y-31.45
X22.203 Y-31.484
X21.96 Y-31.5
X21.72 Y-31.504
X21.479 Y-31.493
X21.275 Y-31.473
X21.05 Y-31.437
X20.849 Y-31.394
X20.666 Y-31.344
X20.611 Y-31.325
X20.286 Y-31.182
X19.991 Y-30.984
X19.736 Y-30.737
X19.528 Y-30.448
X19.375 Y-30.127
X19.282 Y-29.784
X19.25 Y-29.43
Y-28.401
G2 X19.304 Y-28.173 I0.6 J-0.021 F350
X19.867 Y-27.822 I0.546 J-0.249 F850
G1 X25.168 Y-27.978
G2 X25.696 Y-28.329 I-0.018 J-0.6
X25.75 Y-28.557 I-0.546 J-0.249 F350
G1 Y-29.564 F850
X25.742 Y-29.716
X25.726 Y-29.865
X25.697 Y-30.012
X25.655 Y-30.156
X25.603 Y-30.297
X25.542 Y-30.434
X25.473 Y-30.568
X25.393 Y-30.703
X25.296 Y-30.846
X25.187 Y-30.991
X25.065 Y-31.134
X24.926 Y-31.279
X24.769 Y-31.426
X24.6 Y-31.568
X24.417 Y-31.705
X24.217 Y-31.837
X24 Y-31.963
X23.771 Y-32.08
X23.532 Y-32.185
X23.283 Y-32.279
X23.028 Y-32.358
X22.769 Y-32.423
X22.505 Y-32.474
X22.24 Y-32.51
X21.995 Y-32.529
X21.755 Y-32.534
X21.51 Y-32.525
X21.305 Y-32.506
X21.079 Y-32.472
X20.876 Y-32.43
X20.693 Y-32.381
X20.626 Y-32.359
X20.298 Y-32.218
X20 Y-32.02
X19.742 Y-31.772
X19.532 Y-31.483
X19.377 Y-31.16
X19.282 Y-30.815
X19.25 Y-30.459
Y-29.43
G2 X19.304 Y-29.202 I0.6 J-0.021 F350
X19.865 Y-28.851 I0.546 J-0.249 F850
G1 X25.166 Y-28.985
G2 X25.696 Y-29.336 I-0.015 J-0.6
X25.75 Y-29.564 I-0.546 J-0.249 F350
G1 Y-30.631 F850
X25.743 Y-30.781
X25.723 Y-30.93
X25.69 Y-31.076
X25.645 Y-31.22
X25.591 Y-31.359
X25.528 Y-31.496
X25.454 Y-31.632
X25.369 Y-31.771
X25.272 Y-31.911
X25.158 Y-32.057
X25.029 Y-32.204
X24.888 Y-32.347
X24.73 Y-32.491
X24.554 Y-32.634
X24.363 Y-32.772
X24.159 Y-32.902
X23.942 Y-33.024
X23.712 Y-33.137
X23.471 Y-33.239
X23.219 Y-33.329
X22.964 Y-33.405
X22.701 Y-33.467
X22.437 Y-33.514
X22.172 Y-33.545
X21.937 Y-33.56
X21.682 Y-33.561
X21.455 Y-33.55
X21.248 Y-33.528
X21.021 Y-33.49
X20.83 Y-33.448
X20.638 Y-33.393
X20.598 Y-33.38
X20.275 Y-33.235
X19.983 Y-33.036
X19.73 Y-32.789
X19.525 Y-32.501
X19.374 Y-32.182
X19.281 Y-31.841
X19.25 Y-31.489
Y-30.459
G2 X19.304 Y-30.231 I0.6 J-0.021 F350
X19.869 Y-29.88 I0.546 J-0.249 F850
G1 X25.17 Y-30.053
G2 X25.696 Y-30.404 I-0.02 J-0.6
X25.75 Y-30.631 I-0.546 J-0.249 F350
G1 Y-31.688 F850
X25.743 Y-31.838
X25.72 Y-31.986
X25.685 Y-32.132
X25.638 Y-32.275
X25.582 Y-32.414
X25.518 Y-32.549
X25.442 Y-32.687
X25.355 Y-32.824
X25.254 Y-32.966
X25.137 Y-33.113
X25.007 Y-33.258
X24.863 Y-33.402
X24.701 Y-33.546
X24.522 Y-33.689
X24.33 Y-33.825
X24.124 Y-33.953
X23.904 Y-34.074
X23.671 Y-34.185
X23.427 Y-34.286
X23.174 Y-34.374
X22.917 Y-34.447
X22.654 Y-34.506
X22.389 Y-34.55
X22.124 Y-34.579
X21.891 Y-34.591
X21.639 Y-34.59
X21.414 Y-34.576
X21.208 Y-34.552
X20.983 Y-34.512
X20.794 Y-34.468
X20.603 Y-34.412
X20.579 Y-34.403
X20.26 Y-34.257
X19.972 Y-34.057
X19.723 Y-33.811
X19.521 Y-33.524
X19.372 Y-33.207
X19.281 Y-32.868
X19.25 Y-32.519
Y-31.489
G2 X19.304 Y-31.261 I0.6 J-0.021 F350
X19.872 Y-30.91 I0.546 J-0.249 F850
G1 X25.173 Y-31.109
G2 X25.696 Y-31.46 I-0.023 J-0.6
X25.75 Y-31.688 I-0.546 J-0.249 F350
G1 Y-32.695 F850
X25.743 Y-32.845
X25.723 Y-32.993
X25.69 Y-33.14
X25.645 Y-33.283
X25.591 Y-33.423
X25.527 Y-33.558
X25.456 Y-33.691
X25.371 Y-33.829
X25.271 Y-33.973
X25.159 Y-34.116
X25.033 Y-34.26
X24.888 Y-34.407
X24.728 Y-34.552
X24.556 Y-34.692
X24.368 Y-34.828
X24.163 Y-34.959
X23.942 Y-35.083
X23.71 Y-35.197
X23.468 Y-35.3
X23.217 Y-35.389
X22.961 Y-35.465
X22.7 Y-35.527
X22.435 Y-35.573
X22.17 Y-35.605
X21.928 Y-35.62
X21.689 Y-35.621
X21.45 Y-35.609
X21.246 Y-35.587
X21.022 Y-35.551
X20.824 Y-35.506
X20.64 Y-35.454
X20.598 Y-35.44
X20.275 Y-35.295
X19.983 Y-35.096
X19.73 Y-34.849
X19.525 Y-34.561
X19.374 Y-34.242
X19.281 Y-33.901
X19.25 Y-33.549
Y-32.519
G2 X19.304 Y-32.291 I0.6 J-0.021 F350
X19.869 Y-31.941 I0.546 J-0.249 F850
G1 X25.17 Y-32.116
G2 X25.696 Y-32.467 I-0.02 J-0.6
X25.75 Y-32.695 I-0.546 J-0.249 F350
G1 Y-33.701 F850
X25.743 Y-33.851
X25.725 Y-34
X25.694 Y-34.147
X25.651 Y-34.291
X25.598 Y-34.431
X25.536 Y-34.568
X25.466 Y-34.701
X25.384 Y-34.837
X25.286 Y-34.981
X25.175 Y-35.125
X25.051 Y-35.268
X24.91 Y-35.414
X24.752 Y-35.561
X24.581 Y-35.702
X24.396 Y-35.838
X24.194 Y-35.97
X23.975 Y-36.095
X23.745 Y-36.211
X23.504 Y-36.315
X23.255 Y-36.407
X22.999 Y-36.485
X22.739 Y-36.548
X22.475 Y-36.597
X22.21 Y-36.631
X21.966 Y-36.648
X21.726 Y-36.652
X21.484 Y-36.642
X21.28 Y-36.622
X21.055 Y-36.586
X20.854 Y-36.543
X20.67 Y-36.493
X20.614 Y-36.474
X20.288 Y-36.332
X19.993 Y-36.133
X19.737 Y-35.886
X19.529 Y-35.597
X19.376 Y-35.276
X19.282 Y-34.933
X19.25 Y-34.578
Y-33.549
G2 X19.304 Y-33.321 I0.6 J-0.021 F350
X19.867 Y-32.97 I0.546 J-0.249 F850
G1 X25.168 Y-33.123
G2 X25.696 Y-33.474 I-0.017 J-0.6
X25.75 Y-33.701 I-0.546 J-0.249 F350
G1 Y-34.758 F850
X25.743 Y-34.908
X25.722 Y-35.056
X25.688 Y-35.203
X25.643 Y-35.346
X25.589 Y-35.485
X25.525 Y-35.621
X25.45 Y-35.758
X25.365 Y-35.896
X25.267 Y-36.037
X25.151 Y-36.184
X25.022 Y-36.33
X24.881 Y-36.473
X24.721 Y-36.618
X24.544 Y-36.761
X24.353 Y-36.898
X24.149 Y-37.027
X23.93 Y-37.149
X23.699 Y-37.262
X23.457 Y-37.363
X23.205 Y-37.453
X22.949 Y-37.528
X22.686 Y-37.589
X22.422 Y-37.635
X22.157 Y-37.665
X21.922 Y-37.679
X21.669 Y-37.68
X21.442 Y-37.668
X21.235 Y-37.645
X21.009 Y-37.607
X20.818 Y-37.564
X20.628 Y-37.509
X20.592 Y-37.497
X20.271 Y-37.352
X19.98 Y-37.153
X19.728 Y-36.906
X19.524 Y-36.618
X19.373 Y-36.299
X19.281 Y-35.959
X19.25 Y-35.608
Y-34.578
G2 X19.304 Y-34.35 I0.6 J-0.021 F350
X19.87 Y-33.999 I0.546 J-0.249 F850
G1 X25.171 Y-34.179
G2 X25.696 Y-34.53 I-0.02 J-0.6
X25.75 Y-34.758 I-0.546 J-0.249 F350
G1 Y-35.805 F850
X25.743 Y-35.955
X25.72 Y-36.104
X25.685 Y-36.249
X25.639 Y-36.392
X25.583 Y-36.531
X25.518 Y-36.667
X25.442 Y-36.804
X25.357 Y-36.941
X25.255 Y-37.084
X25.138 Y-37.231
X25.009 Y-37.375
X24.865 Y-37.519
X24.701 Y-37.665
X24.422 Y-37.851
X24.115 Y-37.988
X23.79 Y-38.072
X23.456 Y-38.1
G2 X23.228 Y-38.046 I0.021 J0.6 F350
X23.052 Y-37.076 I0.249 J0.546 F850
G1 X24.726 Y-35.402
G2 X25.696 Y-35.578 I0.424 J-0.424
X25.75 Y-35.805 I-0.546 J-0.249 F350
G1 Y-36.812 F850
X25.743 Y-36.962
X25.664 Y-37.266
X25.516 Y-37.542
X25.307 Y-37.775
X25.048 Y-37.952
X24.754 Y-38.063
X24.443 Y-38.1
G2 X24.21 Y-38.07 I0.044 J1.246 F350
X23.284 Y-36.522 I0.277 J1.216 F850
X25.72 Y-36.579 I1.211 J-0.334
X25.75 Y-36.812 I-1.225 J-0.277 F350
G1 Y-37.472 F850
X25.749 Y-37.517
X25.736 Y-37.618
X25.72 Y-37.674
X25.691 Y-37.747
X25.65 Y-37.819
X25.595 Y-37.889
X25.519 Y-37.96
X25.429 Y-38.02
X25.373 Y-38.049
X25.317 Y-38.07
X25.217 Y-38.094
X25.116 Y-38.1
X20.779
X20.63 Y-38.092
X20.314 Y-38.024
X20.02 Y-37.891
X19.759 Y-37.701
X19.544 Y-37.46
X19.383 Y-37.18
X19.284 Y-36.873
X19.25 Y-36.552
G2 X19.304 Y-36.324 I0.6 J-0.021 F350
X20.278 Y-36.153 I0.546 J-0.249 F850
G1 X21.187 Y-37.08
G2 X21.007 Y-38.046 I-0.429 J-0.42
X20.779 Y-38.1 I-0.249 J0.546 F350
G1 X20.024 F850
X19.982
X19.952
X19.802 Y-38.092
X19.744 Y-38.078
X19.652 Y-38.049
X19.564 Y-38.009
X19.481 Y-37.96
G2 X19.345 Y-37.769 I0.496 J0.498 F350
X19.303 Y-37.261 I0.632 J0.308 F850
X20.555 Y-37.633 I0.626 J-0.186
X20.181 Y-38.05 I-0.626 J0.186
X19.952 Y-38.1 I-0.252 J0.603 F350
G1 X19.884 F850
X19.783 Y-38.094
X19.683 Y-38.07
X19.627 Y-38.049
X19.571 Y-38.02
X19.481 Y-37.96
X19.405 Y-37.889
X19.35 Y-37.819
X19.309 Y-37.747
X19.28 Y-37.674
X19.264 Y-37.618
X19.251 Y-37.517
X19.25 Y-37.416
Y-35.608
G2 X19.304 Y-35.38 I0.6 J-0.021 F350
G1 X19.343 Y-35.295 Z-14.973
X19.381 Y-35.211 Z-14.951
X19.417 Y-35.132 Z-14.915
X19.45 Y-35.059 Z-14.865
X19.48 Y-34.994 Z-14.804
X19.505 Y-34.938 Z-14.733
X19.525 Y-34.894 Z-14.652
X19.54 Y-34.861 Z-14.565
X19.549 Y-34.841 Z-14.474
X19.552 Y-34.834 Z-14.38
G0 Z5
X25.069 Y-261.533
Z-4.39
G1 Z-4.99 F350
G2 X22.141 Y-264.913 Z-5.175 I-2.569 J-0.732
X20.221 Y-260.881 Z-5.36 I0.358 J2.644
X24.679 Y-260.738 Z-5.545 I2.276 J-1.386
X23.026 Y-264.874 Z-5.73 I-2.18 J-1.528
X19.902 Y-261.705 Z-5.915 I-0.525 J2.606
X24.052 Y-260.116 Z-6.1 I2.595 J-0.562
X23.845 Y-264.55 Z-6.285 I-1.553 J-2.149
X19.871 Y-262.586 Z-6.47 I-1.345 J2.282
X23.259 Y-259.735 Z-6.655 I2.626 J0.317
X24.511 Y-263.977 Z-6.84 I-0.761 J-2.53
X20.129 Y-263.424 Z-7.025 I-2.011 J1.709
X22.389 Y-259.635 Z-7.21 I2.369 J1.156
X24.951 Y-263.22 Z-7.395 I0.109 J-2.63
X20.645 Y-264.13 Z-7.58 I-2.451 J0.953
X21.536 Y-259.826 Z-7.765 I1.853 J1.861
X25.118 Y-262.364 Z-7.95 I0.961 J-2.441
X21.362 Y-264.625 Z-8.135 I-2.618 J0.098
X20.796 Y-260.283 Z-8.32 I1.137 J2.356
X24.996 Y-261.503 Z-8.505 I1.701 J-1.984
X22.198 Y-264.858 Z-8.69 I-2.496 J-0.762
X20.248 Y-260.955 Z-8.875 I0.302 J2.589
X24.601 Y-260.733 Z-9.06 I2.248 J-1.313
X23.061 Y-264.804 Z-9.245 I-2.101 J-1.532
X19.952 Y-261.766 Z-9.43 I-0.561 J2.536
X23.977 Y-260.138 Z-9.615 I2.545 J-0.502
X23.856 Y-264.472 Z-9.8 I-1.478 J-2.128
X19.938 Y-262.626 Z-9.985 I-1.355 J2.204
X23.195 Y-259.78 Z-10.17 I2.559 J0.358
X24.495 Y-263.9 Z-10.355 I-0.697 J-2.485
X20.205 Y-263.44 Z-10.54 I-1.995 J1.633
X22.343 Y-259.699 Z-10.725 I2.292 J1.172
X24.911 Y-263.153 Z-10.91 I0.154 J-2.567
X20.723 Y-264.12 Z-11.095 I-2.41 J0.886
X21.514 Y-259.901 Z-11.28 I1.776 J1.851
X25.058 Y-262.314 Z-11.465 I0.983 J-2.366
X21.431 Y-264.59 Z-11.65 I-2.558 J0.048
X20.8 Y-260.361 Z-11.835 I1.068 J2.321
X24.923 Y-261.476 Z-12.02 I1.697 J-1.906
X22.252 Y-264.802 Z-12.205 I-2.423 J-0.79
X20.278 Y-261.027 Z-12.39 I0.248 J2.533
X24.523 Y-260.732 Z-12.575 I2.219 J-1.241
X23.094 Y-264.734 Z-12.76 I-2.023 J-1.534
X20.004 Y-261.824 Z-12.945 I-0.593 J2.465
X23.903 Y-260.161 Z-13.13 I2.493 J-0.444
X23.863 Y-264.395 Z-13.315 I-1.404 J-2.104
X20.006 Y-262.664 Z-13.5 I-1.363 J2.127
X23.133 Y-259.827 Z-13.685 I2.492 J0.396
X24.477 Y-263.825 Z-13.87 I-0.635 J-2.438
X20.282 Y-263.454 Z-14.055 I-1.977 J1.557
X22.3 Y-259.764 Z-14.24 I2.216 J1.185
X24.869 Y-263.088 Z-14.425 I0.197 J-2.502
X20.799 Y-264.108 Z-14.61 I-2.368 J0.821
X21.495 Y-259.975 Z-14.795 I1.699 J1.839
X24.997 Y-262.266 Z-14.98 I1.002 J-2.291
X22.497 Y-264.766 I-2.5
Y-259.766 J2.5
X24.997 Y-262.266 J-2.5
G1 X25.015 Y-263.152 F850
X25.039 Y-263.26
X25.055 Y-263.409
X25.052 Y-263.559
X25.032 Y-263.708
X24.999 Y-263.854
X24.953 Y-263.997
X24.896 Y-264.136
X24.828 Y-264.27
X24.751 Y-264.398
X24.665 Y-264.522
X24.572 Y-264.639
X24.472 Y-264.75
X24.364 Y-264.855
X24.251 Y-264.954
X24.132 Y-265.046
X24.005 Y-265.134
X23.871 Y-265.215
X23.731 Y-265.29
X23.583 Y-265.359
X23.43 Y-265.419
X23.272 Y-265.472
X23.109 Y-265.517
X22.942 Y-265.552
X22.771 Y-265.578
X22.597 Y-265.595
X22.421 Y-265.602
X22.244 Y-265.599
X22.066 Y-265.586
X21.888 Y-265.563
X21.71 Y-265.53
X21.534 Y-265.486
X21.359 Y-265.432
X21.187 Y-265.369
X21.018 Y-265.295
X20.853 Y-265.212
X20.692 Y-265.119
X20.665 Y-265.102
X20.405 Y-264.899
X20.182 Y-264.657
X20.002 Y-264.381
X19.87 Y-264.079
X19.788 Y-263.76
X19.761 Y-263.431
X19.757 Y-261.309
X19.765 Y-261.159
X19.783 Y-261.01
X19.891 Y-260.658
X20.066 Y-260.333
X20.301 Y-260.049
X20.587 Y-259.816
X20.912 Y-259.643
X21.265 Y-259.536
X21.632 Y-259.5
G2 X21.86 Y-259.554 I-0.021 J-0.6 F350
X22.024 Y-260.535 I-0.249 J-0.546 F850
G1 X20.77 Y-261.723
G2 X19.811 Y-261.536 I-0.412 J0.436
X19.757 Y-261.309 I0.546 J0.25 F350
G1 X19.756 Y-260.442 F850
X19.763 Y-260.293
X19.841 Y-260.039
X19.987 Y-259.818
X20.189 Y-259.646
X20.43 Y-259.537
X20.692 Y-259.5
G2 X20.924 Y-259.538 I-0.032 J-0.913 F350
X21.304 Y-259.765 I-0.264 J-0.875 F850
X20.059 Y-261.087 I-0.64 J-0.645
X19.795 Y-260.674 I0.605 J0.677
X19.756 Y-260.442 I0.869 J0.265 F350
G1 Y-260.101 F850
X19.766 Y-260
X19.778 Y-259.95
X19.795 Y-259.899
X19.832 Y-259.821
X19.884 Y-259.743
X19.923 Y-259.698
X20.004 Y-259.625
X20.085 Y-259.572
X20.135 Y-259.548
X20.186 Y-259.529
X20.286 Y-259.506
X20.488 Y-259.5
X23.416
X23.565 Y-259.508
X23.715 Y-259.524
X24.071 Y-259.631
X24.399 Y-259.806
X24.687 Y-260.041
X24.923 Y-260.328
X25.099 Y-260.656
X25.206 Y-261.012
X25.242 Y-261.382
G2 X25.188 Y-261.61 I-0.6 J0.022 F350
X24.209 Y-261.775 I-0.546 J0.25 F850
G1 X23.003 Y-260.514
G2 X23.188 Y-259.554 I0.434 J0.415
X23.416 Y-259.5 I0.249 J-0.546 F350
G1 X24.311 F850
X24.461 Y-259.508
X24.712 Y-259.587
X24.931 Y-259.734
X25.1 Y-259.935
X25.207 Y-260.175
X25.244 Y-260.436
G2 X25.205 Y-260.668 I-0.901 J0.033 F350
X24.116 Y-261.276 I-0.862 J0.265 F850
X24.079 Y-259.539 I0.227 J0.874
X24.311 Y-259.5 I0.263 J-0.864 F350
G1 X24.512 F850
X24.714 Y-259.506
X24.814 Y-259.529
X24.865 Y-259.548
X24.915 Y-259.572
X24.996 Y-259.625
X25.077 Y-259.698
X25.116 Y-259.743
X25.168 Y-259.821
X25.205 Y-259.899
X25.222 Y-259.95
X25.234 Y-260
X25.244 Y-260.101
X25.238 Y-264.128
X25.23 Y-264.277
X25.214 Y-264.426
X25.183 Y-264.573
X25.14 Y-264.717
X25.085 Y-264.856
X25.02 Y-264.992
X24.946 Y-265.122
X24.863 Y-265.247
X24.773 Y-265.367
X24.675 Y-265.481
X24.569 Y-265.591
X24.452 Y-265.7
X24.326 Y-265.805
X24.191 Y-265.905
X24.047 Y-266
X23.894 Y-266.088
X23.731 Y-266.171
X23.559 Y-266.246
X23.379 Y-266.313
X23.192 Y-266.371
X22.998 Y-266.419
X22.799 Y-266.456
X22.595 Y-266.483
X22.387 Y-266.498
X22.176 Y-266.502
X21.961 Y-266.494
X21.747 Y-266.473
X21.555 Y-266.444
X21.344 Y-266.4
X21.159 Y-266.35
X21.133 Y-266.341
X20.806 Y-266.199
X20.509 Y-266.001
X20.252 Y-265.754
X20.044 Y-265.465
X19.889 Y-265.144
X19.795 Y-264.801
X19.762 Y-264.446
X19.761 Y-263.431
G2 X19.814 Y-263.203 I0.6 J-0.02 F350
X20.457 Y-262.859 I0.546 J-0.248 F850
G1 X24.735 Y-263.555
G2 X25.185 Y-263.9 I-0.096 J-0.592
X25.238 Y-264.128 I-0.546 J-0.248 F350
G1 X25.237 Y-265.134 F850
X25.229 Y-265.284
X25.203 Y-265.432
X25.162 Y-265.576
X25.109 Y-265.716
X25.045 Y-265.852
X24.972 Y-265.983
X24.889 Y-266.108
X24.799 Y-266.228
X24.702 Y-266.343
X24.595 Y-266.456
X24.477 Y-266.567
X24.345 Y-266.677
X24.201 Y-266.785
X24.048 Y-266.887
X23.884 Y-266.982
X23.709 Y-267.072
X23.521 Y-267.155
X23.323 Y-267.23
X23.117 Y-267.294
X22.903 Y-267.349
X22.683 Y-267.391
X22.473 Y-267.42
X22.272 Y-267.435
X22.051 Y-267.44
X21.862 Y-267.434
X21.669 Y-267.416
X21.468 Y-267.387
X21.296 Y-267.351
X21.251 Y-267.339
X20.9 Y-267.21
X20.58 Y-267.018
X20.301 Y-266.77
X20.072 Y-266.474
X19.903 Y-266.14
X19.799 Y-265.781
X19.764 Y-265.409
X19.762 Y-264.446
G2 X19.816 Y-264.218 I0.6 J-0.02 F350
X20.457 Y-263.873 I0.546 J-0.248 F850
G1 X24.732 Y-264.562
G2 X25.183 Y-264.906 I-0.095 J-0.592
X25.237 Y-265.134 I-0.546 J-0.248 F350
G1 X25.235 Y-266 F850
X25.228 Y-266.15
X25.204 Y-266.298
X25.166 Y-266.443
X25.115 Y-266.584
X25.052 Y-266.721
X24.98 Y-266.852
X24.899 Y-266.979
X24.811 Y-267.1
X24.715 Y-267.216
X24.606 Y-267.335
X24.483 Y-267.454
X24.349 Y-267.57
X24.204 Y-267.682
X24.047 Y-267.79
X23.877 Y-267.892
X23.695 Y-267.989
X23.504 Y-268.077
X23.306 Y-268.155
X23.1 Y-268.223
X22.888 Y-268.281
X22.679 Y-268.324
X22.486 Y-268.353
X22.266 Y-268.374
X22.069 Y-268.382
X21.887 Y-268.378
X21.68 Y-268.363
X21.497 Y-268.338
X21.328 Y-268.306
X21.282 Y-268.295
X20.925 Y-268.169
X20.599 Y-267.979
X20.314 Y-267.73
X20.081 Y-267.432
X19.908 Y-267.096
X19.802 Y-266.733
X19.765 Y-266.357
X19.764 Y-265.409
G2 X19.817 Y-265.181 I0.6 J-0.02 F350
X20.446 Y-264.835 I0.546 J-0.248 F850
G1 X24.718 Y-265.426
G2 X25.182 Y-265.773 I-0.082 J-0.594
X25.235 Y-266 I-0.546 J-0.248 F350
G1 X25.234 Y-266.856 F850
X25.226 Y-267.005
X25.208 Y-267.154
X25.173 Y-267.3
X25.126 Y-267.443
X25.068 Y-267.581
X24.999 Y-267.714
X24.922 Y-267.843
X24.837 Y-267.967
X24.744 Y-268.087
X24.637 Y-268.21
X24.518 Y-268.331
X24.389 Y-268.45
X24.246 Y-268.566
X24.092 Y-268.678
X23.925 Y-268.785
X23.748 Y-268.886
X23.562 Y-268.977
X23.369 Y-269.06
X23.167 Y-269.132
X22.959 Y-269.195
X22.75 Y-269.244
X22.56 Y-269.278
X22.345 Y-269.305
X22.143 Y-269.318
X21.965 Y-269.319
X21.762 Y-269.309
X21.572 Y-269.29
X21.405 Y-269.263
X21.219 Y-269.221
X20.875 Y-269.09
X20.562 Y-268.897
X20.29 Y-268.651
X20.067 Y-268.358
X19.903 Y-268.029
X19.801 Y-267.676
X19.767 Y-267.31
X19.765 Y-266.357
G2 X19.819 Y-266.129 I0.6 J-0.02 F350
X20.435 Y-265.781 I0.546 J-0.248 F850
G1 X24.704 Y-266.28
G2 X25.181 Y-266.628 I-0.07 J-0.596
X25.234 Y-266.856 I-0.546 J-0.248 F350
G1 X25.232 Y-267.813 F850
X25.225 Y-267.962
X25.201 Y-268.111
X25.163 Y-268.256
X25.113 Y-268.397
X25.052 Y-268.534
X24.982 Y-268.667
X24.903 Y-268.794
X24.817 Y-268.917
X24.719 Y-269.041
X24.611 Y-269.162
X24.489 Y-269.284
X24.355 Y-269.405
X24.208 Y-269.522
X24.051 Y-269.634
X23.884 Y-269.74
X23.706 Y-269.838
X23.52 Y-269.928
X23.324 Y-270.009
X23.12 Y-270.081
X22.912 Y-270.141
X22.698 Y-270.19
X22.508 Y-270.222
X22.303 Y-270.245
X22.097 Y-270.257
X21.919
X21.724 Y-270.245
X21.531 Y-270.224
X21.365 Y-270.195
X21.185 Y-270.154
X20.849 Y-270.022
X20.543 Y-269.831
X20.278 Y-269.587
X20.061 Y-269.299
X19.901 Y-268.977
X19.802 Y-268.63
X19.768 Y-268.271
X19.767 Y-267.31
G2 X19.82 Y-267.082 I0.6 J-0.02 F350
X20.437 Y-266.734 I0.546 J-0.248 F850
G1 X24.703 Y-267.237
G2 X25.179 Y-267.585 I-0.07 J-0.596
X25.232 Y-267.813 I-0.546 J-0.248 F350
G1 X25.231 Y-268.718 F850
X25.223 Y-268.867
X25.202 Y-269.016
X25.167 Y-269.162
X25.119 Y-269.304
X25.06 Y-269.442
X24.991 Y-269.575
X24.914 Y-269.704
X24.829 Y-269.827
X24.735 Y-269.948
X24.628 Y-270.072
X24.507 Y-270.196
X24.375 Y-270.318
X24.232 Y-270.435
X24.078 Y-270.547
X23.912 Y-270.655
X23.734 Y-270.757
X23.548 Y-270.849
X23.353 Y-270.933
X23.151 Y-271.006
X22.943 Y-271.069
X22.731 Y-271.12
X22.531 Y-271.156
X22.339 Y-271.18
X22.125 Y-271.194
X21.941 Y-271.196
X21.757 Y-271.188
X21.558 Y-271.168
X21.386 Y-271.14
X21.215 Y-271.103
X20.874 Y-270.973
X20.562 Y-270.783
X20.291 Y-270.538
X20.069 Y-270.247
X19.905 Y-269.92
X19.804 Y-269.569
X19.77 Y-269.205
X19.768 Y-268.271
G2 X19.822 Y-268.043 I0.6 J-0.02 F350
X20.43 Y-267.694 I0.546 J-0.248 F850
G1 X24.694 Y-268.141
G2 X25.178 Y-268.49 I-0.063 J-0.597
X25.231 Y-268.718 I-0.546 J-0.248 F350
G1 X25.23 Y-269.674 F850
X25.222 Y-269.824
X25.198 Y-269.972
X25.16 Y-270.117
X25.11 Y-270.259
X25.049 Y-270.396
X24.979 Y-270.529
X24.901 Y-270.657
X24.814 Y-270.78
X24.716 Y-270.905
X24.608 Y-271.027
X24.486 Y-271.15
X24.35 Y-271.273
X24.203 Y-271.392
X24.046 Y-271.504
X23.879 Y-271.61
X23.7 Y-271.71
X23.513 Y-271.801
X23.318 Y-271.883
X23.114 Y-271.955
X22.905 Y-272.016
X22.691 Y-272.066
X22.503 Y-272.098
X22.298 Y-272.122
X22.094 Y-272.134
X21.917
X21.723 Y-272.124
X21.531 Y-272.103
X21.366 Y-272.075
X21.186 Y-272.034
X20.851 Y-271.904
X20.546 Y-271.714
X20.28 Y-271.472
X20.064 Y-271.185
X19.903 Y-270.863
X19.805 Y-270.517
X19.771 Y-270.16
X19.77 Y-269.205
G2 X19.823 Y-268.977 I0.6 J-0.02 F350
X20.435 Y-268.629 I0.546 J-0.248 F850
G1 X24.696 Y-269.098
G2 X25.176 Y-269.447 I-0.066 J-0.596
X25.23 Y-269.674 I-0.546 J-0.248 F350
G1 X25.228 Y-270.57 F850
X25.22 Y-270.72
X25.201 Y-270.869
X25.167 Y-271.015
X25.12 Y-271.158
X25.062 Y-271.296
X24.995 Y-271.43
X24.918 Y-271.559
X24.835 Y-271.684
X24.742 Y-271.805
X24.635 Y-271.93
X24.516 Y-272.055
X24.385 Y-272.177
X24.243 Y-272.295
X24.09 Y-272.409
X23.924 Y-272.518
X23.747 Y-272.621
X23.563 Y-272.715
X23.369 Y-272.799
X23.169 Y-272.874
X22.962 Y-272.938
X22.751 Y-272.991
X22.549 Y-273.029
X22.359 Y-273.054
X22.145 Y-273.07
X21.959 Y-273.074
X21.778 Y-273.067
X21.578 Y-273.048
X21.404 Y-273.022
X21.236 Y-272.987
X20.891 Y-272.858
X20.575 Y-272.668
X20.301 Y-272.422
X20.076 Y-272.13
X19.91 Y-271.801
X19.807 Y-271.447
X19.773 Y-271.08
X19.771 Y-270.16
G2 X19.824 Y-269.932 I0.6 J-0.02 F350
X20.428 Y-269.582 I0.546 J-0.248 F850
G1 X24.686 Y-269.993
G2 X25.175 Y-270.342 I-0.058 J-0.597
X25.228 Y-270.57 I-0.546 J-0.248 F350
G1 X25.227 Y-271.536 F850
X25.219 Y-271.686
X25.196 Y-271.834
X25.159 Y-271.98
X25.11 Y-272.121
X25.05 Y-272.259
X24.98 Y-272.392
X24.903 Y-272.52
X24.817 Y-272.644
X24.72 Y-272.769
X24.612 Y-272.892
X24.492 Y-273.015
X24.357 Y-273.138
X24.211 Y-273.257
X24.054 Y-273.371
X23.888 Y-273.478
X23.71 Y-273.578
X23.524 Y-273.67
X23.33 Y-273.753
X23.126 Y-273.826
X22.918 Y-273.888
X22.706 Y-273.938
X22.519 Y-273.971
X22.313 Y-273.996
X22.111 Y-274.009
X21.935 Y-274.011
X21.74 Y-274.001
X21.549 Y-273.981
X21.384 Y-273.954
X21.204 Y-273.914
X20.866 Y-273.785
X20.557 Y-273.595
X20.289 Y-273.351
X20.07 Y-273.063
X19.908 Y-272.739
X19.808 Y-272.391
X19.774 Y-272.03
X19.773 Y-271.08
G2 X19.826 Y-270.852 I0.6 J-0.02 F350
X20.436 Y-270.504 I0.546 J-0.248 F850
G1 X24.691 Y-270.96
G2 X25.173 Y-271.308 I-0.064 J-0.597
X25.227 Y-271.536 I-0.546 J-0.248 F350
G1 X25.225 Y-272.493 F850
X25.218 Y-272.643
X25.192 Y-272.791
X25.154 Y-272.936
X25.103 Y-273.077
X25.042 Y-273.214
X24.971 Y-273.346
X24.892 Y-273.474
X24.805 Y-273.599
X24.706 Y-273.723
X24.597 Y-273.846
X24.474 Y-273.97
X24.338 Y-274.093
X24.19 Y-274.211
X24.033 Y-274.323
X23.865 Y-274.429
X23.687 Y-274.528
X23.5 Y-274.618
X23.305 Y-274.7
X23.101 Y-274.771
X22.893 Y-274.832
X22.68 Y-274.881
X22.491 Y-274.913
X22.287 Y-274.936
X22.083 Y-274.947
X21.906
X21.712 Y-274.937
X21.522 Y-274.915
X21.357 Y-274.887
X21.177 Y-274.846
X20.845 Y-274.716
X20.542 Y-274.527
X20.28 Y-274.286
X20.065 Y-274.002
X19.906 Y-273.683
X19.809 Y-273.34
X19.776 Y-272.985
X19.774 Y-272.03
G2 X19.827 Y-271.802 I0.6 J-0.02 F350
X20.439 Y-271.453 I0.546 J-0.248 F850
G1 X24.691 Y-271.917
G2 X25.172 Y-272.265 I-0.065 J-0.596
X25.225 Y-272.493 I-0.546 J-0.248 F350
G1 X25.224 Y-273.389 F850
X25.216 Y-273.539
X25.196 Y-273.688
X25.161 Y-273.834
X25.114 Y-273.976
X25.056 Y-274.114
X24.988 Y-274.248
X24.911 Y-274.377
X24.827 Y-274.501
X24.734 Y-274.623
X24.627 Y-274.748
X24.507 Y-274.873
X24.376 Y-274.995
X24.234 Y-275.113
X24.08 Y-275.226
X23.914 Y-275.335
X23.737 Y-275.438
X23.552 Y-275.531
X23.358 Y-275.615
X23.158 Y-275.69
X22.951 Y-275.753
X22.74 Y-275.805
X22.538 Y-275.843
X22.347 Y-275.868
X22.134 Y-275.884
X21.949 Y-275.887
X21.768 Y-275.88
X21.568 Y-275.861
X21.396 Y-275.834
X21.227 Y-275.799
X20.885 Y-275.671
X20.572 Y-275.481
X20.3 Y-275.237
X20.078 Y-274.947
X19.913 Y-274.621
X19.812 Y-274.27
X19.777 Y-273.906
X19.776 Y-272.985
G2 X19.829 Y-272.757 I0.6 J-0.02 F350
X20.432 Y-272.408 I0.546 J-0.248 F850
G1 X24.681 Y-272.812
G2 X25.171 Y-273.161 I-0.057 J-0.597
X25.224 Y-273.389 I-0.546 J-0.248 F350
G1 X25.222 Y-274.305 F850
X25.215 Y-274.455
X25.197 Y-274.604
X25.164 Y-274.75
X25.119 Y-274.893
X25.062 Y-275.032
X24.995 Y-275.167
X24.92 Y-275.296
X24.837 Y-275.421
X24.745 Y-275.543
X24.641 Y-275.667
X24.523 Y-275.792
X24.392 Y-275.915
X24.252 Y-276.034
X24.1 Y-276.148
X23.937 Y-276.257
X23.761 Y-276.361
X23.576 Y-276.456
X23.384 Y-276.542
X23.183 Y-276.618
X22.977 Y-276.683
X22.766 Y-276.737
X22.571 Y-276.776
X22.378 Y-276.802
X22.167 Y-276.82
X21.985 Y-276.824
X21.801 Y-276.819
X21.602 Y-276.801
X21.431 Y-276.776
X21.261 Y-276.742
X20.912 Y-276.614
X20.592 Y-276.424
X20.314 Y-276.177
X20.086 Y-275.883
X19.918 Y-275.551
X19.814 Y-275.194
X19.778 Y-274.823
X19.777 Y-273.906
G2 X19.83 Y-273.678 I0.6 J-0.02 F350
X20.433 Y-273.328 I0.546 J-0.248 F850
G1 X24.679 Y-273.728
G2 X25.169 Y-274.077 I-0.056 J-0.597
X25.222 Y-274.305 I-0.546 J-0.248 F350
G1 X25.221 Y-275.262 F850
X25.213 Y-275.412
X25.193 Y-275.561
X25.158 Y-275.707
X25.111 Y-275.849
X25.053 Y-275.987
X24.985 Y-276.121
X24.909 Y-276.25
X24.825 Y-276.374
X24.729 Y-276.499
X24.624 Y-276.622
X24.505 Y-276.746
X24.373 Y-276.869
X24.229 Y-276.989
X24.075 Y-277.103
X23.911 Y-277.21
X23.735 Y-277.312
X23.551 Y-277.405
X23.359 Y-277.489
X23.158 Y-277.563
X22.951 Y-277.627
X22.741 Y-277.679
X22.555 Y-277.714
X22.352 Y-277.741
X22.148 Y-277.756
X21.972 Y-277.759
X21.78 Y-277.751
X21.586 Y-277.733
X21.42 Y-277.708
X21.243 Y-277.67
X20.898 Y-277.541
X20.582 Y-277.35
X20.308 Y-277.104
X20.083 Y-276.812
X19.917 Y-276.483
X19.815 Y-276.128
X19.78 Y-275.761
X19.778 Y-274.823
G2 X19.832 Y-274.595 I0.6 J-0.02 F350
X20.44 Y-274.246 I0.546 J-0.248 F850
G1 X24.683 Y-274.685
G2 X25.168 Y-275.034 I-0.062 J-0.597
X25.221 Y-275.262 I-0.546 J-0.248 F350
G1 X25.219 Y-276.208 F850
X25.212 Y-276.358
X25.191 Y-276.506
X25.155 Y-276.652
X25.107 Y-276.794
X25.049 Y-276.932
X24.981 Y-277.066
X24.904 Y-277.195
X24.819 Y-277.319
X24.724 Y-277.443
X24.618 Y-277.565
X24.499 Y-277.689
X24.366 Y-277.812
X24.222 Y-277.931
X24.068 Y-278.044
X23.904 Y-278.151
X23.729 Y-278.252
X23.545 Y-278.344
X23.352 Y-278.427
X23.151 Y-278.501
X22.945 Y-278.564
X22.734 Y-278.616
X22.546 Y-278.65
X22.346 Y-278.676
X22.14 Y-278.691
X21.963 Y-278.693
X21.772 Y-278.685
X21.578 Y-278.666
X21.411 Y-278.64
X21.235 Y-278.603
X20.892 Y-278.473
X20.578 Y-278.283
X20.305 Y-278.037
X20.083 Y-277.746
X19.918 Y-277.418
X19.816 Y-277.066
X19.781 Y-276.7
X19.78 Y-275.761
G2 X19.833 Y-275.533 I0.6 J-0.02 F350
X20.442 Y-275.184 I0.546 J-0.248 F850
G1 X24.683 Y-275.631
G2 X25.166 Y-275.98 I-0.063 J-0.597
X25.219 Y-276.208 I-0.546 J-0.248 F350
G1 X25.218 Y-277.124 F850
X25.21 Y-277.274
X25.192 Y-277.423
X25.158 Y-277.569
X25.112 Y-277.712
X25.055 Y-277.85
X24.988 Y-277.985
X24.912 Y-278.114
X24.829 Y-278.239
X24.737 Y-278.361
X24.632 Y-278.484
X24.514 Y-278.608
X24.383 Y-278.731
X24.242 Y-278.85
X24.091 Y-278.962
X23.928 Y-279.07
X23.753 Y-279.173
X23.57 Y-279.266
X23.378 Y-279.351
X23.178 Y-279.427
X22.973 Y-279.491
X22.763 Y-279.544
X22.569 Y-279.581
X22.376 Y-279.608
X22.165 Y-279.624
X21.984 Y-279.628
X21.8 Y-279.622
X21.602 Y-279.604
X21.431 Y-279.579
X21.261 Y-279.544
X20.912 Y-279.415
X20.594 Y-279.224
X20.316 Y-278.977
X20.089 Y-278.683
X19.921 Y-278.352
X19.818 Y-277.995
X19.783 Y-277.625
X19.781 Y-276.7
G2 X19.835 Y-276.472 I0.6 J-0.02 F350
X20.441 Y-276.123 I0.546 J-0.248 F850
G1 X24.678 Y-276.547
G2 X25.165 Y-276.896 I-0.06 J-0.597
X25.218 Y-277.124 I-0.546 J-0.248 F350
G1 X25.217 Y-278.081 F850
X25.209 Y-278.231
X25.188 Y-278.379
X25.152 Y-278.525
X25.104 Y-278.667
X25.046 Y-278.805
X24.977 Y-278.939
X24.901 Y-279.068
X24.816 Y-279.191
X24.72 Y-279.316
X24.614 Y-279.439
X24.495 Y-279.561
X24.363 Y-279.684
X24.218 Y-279.803
X24.064 Y-279.916
X23.899 Y-280.023
X23.724 Y-280.123
X23.54 Y-280.215
X23.348 Y-280.298
X23.147 Y-280.372
X22.941 Y-280.434
X22.731 Y-280.485
X22.546 Y-280.52
X22.341 Y-280.545
X22.139 Y-280.56
X21.963 Y-280.562
X21.77 Y-280.553
X21.578 Y-280.534
X21.413 Y-280.508
X21.234 Y-280.47
X20.892 Y-280.34
X20.579 Y-280.15
X20.307 Y-279.905
X20.085 Y-279.614
X19.92 Y-279.286
X19.819 Y-278.934
X19.784 Y-278.57
X19.783 Y-277.625
G2 X19.836 Y-277.397 I0.6 J-0.02 F350
X20.447 Y-277.049 I0.546 J-0.248 F850
G1 X24.681 Y-277.504
G2 X25.163 Y-277.853 I-0.064 J-0.597
X25.217 Y-278.081 I-0.546 J-0.248 F350
G1 X25.215 Y-279.027 F850
X25.207 Y-279.177
X25.185 Y-279.325
X25.149 Y-279.47
X25.1 Y-279.612
X25.041 Y-279.75
X24.972 Y-279.883
X24.894 Y-280.012
X24.809 Y-280.135
X24.713 Y-280.259
X24.607 Y-280.381
X24.487 Y-280.504
X24.353 Y-280.627
X24.208 Y-280.745
X24.054 Y-280.857
X23.889 Y-280.964
X23.713 Y-281.063
X23.529 Y-281.155
X23.336 Y-281.237
X23.135 Y-281.31
X22.929 Y-281.372
X22.718 Y-281.422
X22.53 Y-281.456
X22.329 Y-281.481
X22.124 Y-281.494
X21.947 Y-281.496
X21.756 Y-281.487
X21.563 Y-281.467
X21.397 Y-281.44
X21.22 Y-281.401
X20.881 Y-281.272
X20.571 Y-281.082
X20.302 Y-280.839
X20.083 Y-280.55
X19.92 Y-280.225
X19.82 Y-279.876
X19.786 Y-279.515
X19.784 Y-278.57
G2 X19.837 Y-278.342 I0.6 J-0.02 F350
X20.448 Y-277.993 I0.546 J-0.248 F850
G1 X24.68 Y-278.45
G2 X25.162 Y-278.799 I-0.064 J-0.597
X25.215 Y-279.027 I-0.546 J-0.248 F350
G1 X25.214 Y-279.943 F850
X25.206 Y-280.093
X25.186 Y-280.241
X25.152 Y-280.387
X25.104 Y-280.53
X25.046 Y-280.668
X24.979 Y-280.802
X24.902 Y-280.931
X24.818 Y-281.055
X24.725 Y-281.177
X24.62 Y-281.299
X24.5 Y-281.424
X24.368 Y-281.546
X24.226 Y-281.664
X24.075 Y-281.776
X23.911 Y-281.884
X23.735 Y-281.985
X23.551 Y-282.078
X23.359 Y-282.162
X23.158 Y-282.236
X22.953 Y-282.299
X22.742 Y-282.351
X22.549 Y-282.387
X22.355 Y-282.413
X22.145 Y-282.428
X21.964 Y-282.431
X21.779 Y-282.424
X21.582 Y-282.405
X21.413 Y-282.379
X21.241 Y-282.342
X20.898 Y-282.214
X20.584 Y-282.024
X20.311 Y-281.779
X20.089 Y-281.488
X19.923 Y-281.161
X19.822 Y-280.809
X19.787 Y-280.444
X19.786 Y-279.515
G2 X19.839 Y-279.287 I0.6 J-0.02 F350
X20.446 Y-278.938 I0.546 J-0.248 F850
G1 X24.674 Y-279.366
G2 X25.16 Y-279.715 I-0.06 J-0.597
X25.214 Y-279.943 I-0.546 J-0.248 F350
G1 X25.212 Y-280.9 F850
X25.204 Y-281.05
X25.182 Y-281.198
X25.145 Y-281.343
X25.096 Y-281.485
X25.036 Y-281.623
X24.967 Y-281.756
X24.89 Y-281.884
X24.804 Y-282.007
X24.707 Y-282.132
X24.6 Y-282.254
X24.48 Y-282.377
X24.347 Y-282.499
X24.201 Y-282.617
X24.046 Y-282.73
X23.88 Y-282.836
X23.704 Y-282.936
X23.519 Y-283.027
X23.326 Y-283.109
X23.125 Y-283.182
X22.918 Y-283.243
X22.707 Y-283.293
X22.521 Y-283.326
X22.317 Y-283.351
X22.115 Y-283.364
X21.94 Y-283.365
X21.746 Y-283.356
X21.556 Y-283.335
X21.391 Y-283.309
X21.212 Y-283.269
X20.875 Y-283.14
X20.568 Y-282.951
X20.301 Y-282.708
X20.083 Y-282.421
X19.922 Y-282.099
X19.822 Y-281.752
X19.789 Y-281.393
X19.787 Y-280.444
G2 X19.84 Y-280.216 I0.6 J-0.02 F350
X20.451 Y-279.868 I0.546 J-0.248 F850
G1 X24.677 Y-280.323
G2 X25.159 Y-280.672 I-0.064 J-0.597
X25.212 Y-280.9 I-0.546 J-0.248 F350
G1 X25.211 Y-281.846 F850
X25.203 Y-281.995
X25.179 Y-282.144
X25.142 Y-282.289
X25.092 Y-282.43
X25.031 Y-282.567
X24.961 Y-282.7
X24.883 Y-282.828
X24.796 Y-282.952
X24.699 Y-283.075
X24.592 Y-283.198
X24.47 Y-283.321
X24.335 Y-283.443
X24.189 Y-283.561
X24.034 Y-283.672
X23.868 Y-283.778
X23.691 Y-283.877
X23.506 Y-283.967
X23.312 Y-284.049
X23.109 Y-284.121
X22.903 Y-284.181
X22.691 Y-284.231
X22.503 Y-284.263
X22.301 Y-284.287
X22.097 Y-284.299
X21.92 Y-284.3
X21.728 Y-284.289
X21.537 Y-284.268
X21.372 Y-284.241
X21.194 Y-284.201
X20.862 Y-284.072
X20.559 Y-283.884
X20.295 Y-283.643
X20.08 Y-283.359
X19.921 Y-283.04
X19.823 Y-282.697
X19.79 Y-282.342
X19.789 Y-281.393
G2 X19.842 Y-281.165 I0.6 J-0.02 F350
X20.452 Y-280.816 I0.546 J-0.248 F850
G1 X24.675 Y-281.269
G2 X25.157 Y-281.618 I-0.064 J-0.597
X25.211 Y-281.846 I-0.546 J-0.248 F350
G1 X25.209 Y-282.762 F850
X25.202 Y-282.912
X25.18 Y-283.06
X25.144 Y-283.206
X25.096 Y-283.348
X25.037 Y-283.485
X24.968 Y-283.619
X24.891 Y-283.747
X24.806 Y-283.871
X24.712 Y-283.993
X24.605 Y-284.116
X24.484 Y-284.24
X24.351 Y-284.362
X24.208 Y-284.479
X24.055 Y-284.591
X23.89 Y-284.698
X23.713 Y-284.799
X23.528 Y-284.891
X23.334 Y-284.974
X23.133 Y-285.047
X22.927 Y-285.109
X22.715 Y-285.16
X22.521 Y-285.196
X22.327 Y-285.22
X22.117 Y-285.234
X21.937 Y-285.236
X21.752 Y-285.228
X21.556 Y-285.208
X21.388 Y-285.181
X21.337 Y-285.17
X20.975 Y-285.054
X20.643 Y-284.87
X20.353 Y-284.626
X20.115 Y-284.331
X19.938 Y-283.996
X19.829 Y-283.632
X19.791 Y-283.255
X19.79 Y-282.342
G2 X19.843 Y-282.114 I0.6 J-0.02 F350
X20.449 Y-281.765 I0.546 J-0.248 F850
G1 X24.669 Y-282.185
G2 X25.156 Y-282.534 I-0.059 J-0.597
X25.209 Y-282.762 I-0.546 J-0.248 F350
G1 X25.208 Y-283.719 F850
X25.2 Y-283.868
X25.176 Y-284.016
X25.138 Y-284.161
X25.088 Y-284.303
X25.027 Y-284.44
X24.957 Y-284.573
X24.878 Y-284.7
X24.792 Y-284.824
X24.694 Y-284.949
X24.585 Y-285.071
X24.464 Y-285.193
X24.329 Y-285.316
X24.276 Y-285.358
X23.995 Y-285.547
X23.687 Y-285.686
X23.359 Y-285.771
X23.022 Y-285.8
G2 X22.794 Y-285.746 I0.021 J0.6 F350
X22.633 Y-284.762 I0.249 J0.546 F850
G1 X24.199 Y-283.3
G2 X25.155 Y-283.491 I0.41 J-0.439
X25.208 Y-283.719 I-0.546 J-0.248 F350
G1 X25.206 Y-284.664 F850
X25.199 Y-284.814
X25.121 Y-285.079
X24.984 Y-285.319
X24.795 Y-285.521
X24.564 Y-285.673
X24.305 Y-285.768
X24.03 Y-285.8
G2 X23.798 Y-285.767 I0.039 J1.103 F350
X23.012 Y-284.378 I0.271 J1.07 F850
X25.174 Y-284.431 I1.074 J-0.323
