%
(1001)
(length along y axis. Origin far top left)
(T2  D=6 CR=0 - ZMIN=-22 - flat end mill)
G90 G94
G17
G21

(2D Adaptive11)
M9
T2 M6
S6000 M3
G54
M9
G0 X20.717 Y-15.346
Z15
Z5
Z3.1
G1 Z2.5 F350
G2 X21.934 Y-11.607 Z2.336 I1.783 J1.487
X24.771 Y-14.324 Z2.172 I0.565 J-2.249
X21.096 Y-15.698 Z2.009 I-2.268 J0.467
X21.454 Y-11.796 Z1.845 I1.404 J1.838
X24.809 Y-13.81 Z1.681 I1.045 J-2.06
X21.542 Y-15.955 Z1.517 I-2.307 J-0.047
X21.029 Y-12.086 Z1.354 I0.958 J2.096
X24.733 Y-13.302 Z1.19 I1.47 J-1.771
X22.032 Y-16.107 Z1.026 I-2.231 J-0.554
X20.68 Y-12.461 Z0.862 I0.469 J2.248
X24.547 Y-12.825 Z0.699 I1.819 J-1.397
X22.542 Y-16.146 Z0.535 I-2.045 J-1.031
X20.424 Y-12.902 Z0.371 I-0.04 J2.287
X24.261 Y-12.403 Z0.207 I2.075 J-0.955
X23.046 Y-16.072 Z0.043 I-1.76 J-1.453
X20.272 Y-13.388 Z-0.12 I-0.544 J2.213
X23.89 Y-12.056 Z-0.284 I2.227 J-0.47
X23.519 Y-15.888 Z-0.448 I-1.389 J-1.799
X20.232 Y-13.893 Z-0.612 I-1.017 J2.03
X23.453 Y-11.801 Z-0.775 I2.267 J0.034
X23.938 Y-15.606 Z-0.939 I-0.952 J-2.055
X20.304 Y-14.392 Z-1.103 I-1.436 J1.748
X22.972 Y-11.65 Z-1.267 I2.195 J0.534
X24.282 Y-15.239 Z-1.43 I-0.472 J-2.206
X20.485 Y-14.862 Z-1.594 I-1.78 J1.381
X22.471 Y-11.609 Z-1.758 I2.015 J1.003
X24.536 Y-14.806 Z-1.922 I0.028 J-2.247
X20.764 Y-15.278 Z-2.086 I-2.034 J0.949
X21.976 Y-11.68 Z-2.249 I1.736 J1.418
X24.687 Y-14.33 Z-2.413 I0.523 J-2.177
X21.127 Y-15.62 Z-2.577 I-2.185 J0.473
X21.51 Y-11.858 Z-2.741 I1.373 J1.761
X24.729 Y-13.834 Z-2.904 I0.989 J-1.999
X21.555 Y-15.873 Z-3.068 I-2.227 J-0.023
X21.097 Y-12.133 Z-3.232 I0.946 J2.014
X24.66 Y-13.343 Z-3.396 I1.401 J-1.724
X22.027 Y-16.024 Z-3.56 I-2.159 J-0.513
X20.757 Y-12.492 Z-3.723 I0.474 J2.165
X24.485 Y-12.881 Z-3.887 I1.742 J-1.365
X22.518 Y-16.066 Z-4.051 I-1.984 J-0.975
X20.506 Y-12.916 Z-4.215 I-0.017 J2.207
X24.213 Y-12.471 Z-4.378 I1.993 J-0.942
X23.005 Y-15.999 Z-4.542 I-1.712 J-1.384
X20.355 Y-13.383 Z-4.706 I-0.503 J2.14
X23.858 Y-12.133 Z-4.87 I2.144 J-0.476
X23.463 Y-15.827 Z-5.033 I-1.357 J-1.723
X20.312 Y-13.87 Z-5.197 I-0.961 J1.968
X23.439 Y-11.883 Z-5.361 I2.187 J0.011
X23.87 Y-15.558 Z-5.525 I-0.939 J-1.973
X20.377 Y-14.352 Z-5.689 I-1.368 J1.7
X22.976 Y-11.733 Z-5.852 I2.122 J0.493
X24.206 Y-15.207 Z-6.016 I-0.477 J-2.123
X20.547 Y-14.806 Z-6.18 I-1.703 J1.349
X22.494 Y-11.689 Z-6.344 I1.953 J0.947
X24.454 Y-14.792 Z-6.507 I0.005 J-2.167
X20.812 Y-15.21 Z-6.671 I-1.952 J0.935
X22.016 Y-11.752 Z-6.835 I1.688 J1.351
X24.605 Y-14.334 Z-6.999 I0.483 J-2.104
X21.159 Y-15.544 Z-7.162 I-2.102 J0.477
X21.565 Y-11.92 Z-7.326 I1.341 J1.684
X24.649 Y-13.857 Z-7.49 I0.934 J-1.937
X20.349 I-2.15
X24.636 Y-13.621 I2.15
X24.649 Y-13.857 I-2.137 J-0.236
G1 X24.674 Y-14.742 F850
X24.686 Y-14.853
Y-15.003
X24.667 Y-15.151
X24.633 Y-15.297
X24.583 Y-15.439
X24.521 Y-15.576
X24.448 Y-15.707
X24.365 Y-15.831
X24.272 Y-15.949
X24.171 Y-16.06
X24.063 Y-16.164
X23.948 Y-16.26
X23.826 Y-16.348
X23.7 Y-16.429
X23.568 Y-16.501
X23.433 Y-16.565
X23.293 Y-16.621
X23.151 Y-16.668
X23.006 Y-16.707
X22.86 Y-16.738
X22.711 Y-16.761
X22.559 Y-16.775
X22.406 Y-16.781
X22.252 Y-16.778
X22.096 Y-16.766
X21.941 Y-16.745
X21.786 Y-16.716
X21.631 Y-16.677
X21.479 Y-16.63
X21.329 Y-16.574
X21.181 Y-16.509
X21.037 Y-16.436
X20.896 Y-16.354
X20.76 Y-16.265
X20.629 Y-16.167
X20.503 Y-16.062
X20.383 Y-15.95
X20.269 Y-15.831
X20.162 Y-15.705
X20.062 Y-15.574
X19.969 Y-15.437
X19.884 Y-15.294
X19.807 Y-15.147
X19.739 Y-14.995
X19.679 Y-14.84
X19.627 Y-14.681
X19.585 Y-14.519
X19.552 Y-14.355
X19.528 Y-14.19
X19.513 Y-14.023
X19.508 Y-13.855
X19.512 Y-13.688
X19.526 Y-13.521
X19.549 Y-13.354
X19.582 Y-13.19
X19.623 Y-13.027
X19.674 Y-12.867
X19.734 Y-12.71
X19.803 Y-12.556
X19.88 Y-12.406
X19.965 Y-12.261
X20.059 Y-12.121
X20.16 Y-11.987
X20.269 Y-11.858
X20.384 Y-11.736
X20.507 Y-11.62
X20.636 Y-11.512
X20.77 Y-11.411
X20.911 Y-11.317
X21.056 Y-11.232
X21.206 Y-11.155
X21.36 Y-11.086
X21.518 Y-11.026
X21.678 Y-10.976
X21.842 Y-10.934
X22.007 Y-10.901
X22.174 Y-10.878
X22.343 Y-10.865
X22.511 Y-10.861
X22.68 Y-10.866
X22.848 Y-10.881
X23.015 Y-10.905
X23.18 Y-10.939
X23.343 Y-10.982
X23.504 Y-11.034
X23.661 Y-11.095
X23.815 Y-11.165
X23.964 Y-11.243
X24.109 Y-11.33
X24.249 Y-11.424
X24.383 Y-11.527
X24.511 Y-11.636
X24.633 Y-11.753
X24.748 Y-11.877
X24.856 Y-12.006
X24.956 Y-12.142
X25.049 Y-12.283
X25.145 Y-12.45
X25.251 Y-12.659
X25.375 Y-12.941
X25.476 Y-13.213
X25.55 Y-13.454
X25.605 Y-13.674
X25.645 Y-13.888
X25.672 Y-14.093
X25.687 Y-14.288
X25.69 Y-14.477
X25.683 Y-14.663
X25.665 Y-14.847
X25.638 Y-15.025
X25.602 Y-15.199
X25.556 Y-15.369
X25.5 Y-15.537
X25.435 Y-15.702
X25.36 Y-15.864
X25.277 Y-16.02
X25.185 Y-16.173
X25.083 Y-16.32
X24.974 Y-16.462
X24.855 Y-16.598
X24.728 Y-16.729
X24.593 Y-16.853
X24.45 Y-16.971
X24.299 Y-17.081
X24.14 Y-17.184
X23.975 Y-17.278
X23.803 Y-17.364
X23.625 Y-17.44
X23.442 Y-17.507
X23.254 Y-17.564
X23.062 Y-17.61
X22.866 Y-17.646
X22.666 Y-17.671
X22.465 Y-17.685
X22.262 Y-17.687
X22.058 Y-17.678
X21.853 Y-17.657
X21.649 Y-17.625
X21.447 Y-17.581
X21.246 Y-17.525
X21.047 Y-17.458
X20.852 Y-17.379
X20.661 Y-17.289
X20.474 Y-17.188
X20.293 Y-17.077
X20.117 Y-16.955
X20.051 Y-16.903
X19.789 Y-16.656
X19.575 Y-16.366
X19.417 Y-16.043
X19.319 Y-15.696
X19.285 Y-15.338
X19.273 Y-12.742
X19.281 Y-12.573
X19.296 Y-12.424
X19.323 Y-12.276
X19.359 Y-12.13
X19.405 Y-11.988
X19.46 Y-11.848
X19.523 Y-11.712
X19.596 Y-11.575
X19.679 Y-11.438
X19.771 Y-11.303
X19.792 Y-11.276
X20.04 Y-11.01
X20.333 Y-10.792
X20.66 Y-10.632
X21.011 Y-10.533
X21.374 Y-10.5
G2 X21.602 Y-10.554 I-0.021 J-0.6 F350
X21.796 Y-11.505 I-0.249 J-0.546 F850
G1 X20.316 Y-13.123
G2 X19.328 Y-12.969 I-0.443 J0.405
X19.273 Y-12.742 I0.545 J0.251 F350
G1 X19.268 Y-11.644 F850
X19.275 Y-11.495
X19.338 Y-11.23
X19.462 Y-10.989
X19.64 Y-10.785
X19.863 Y-10.63
X20.117 Y-10.533
X20.386 Y-10.5
G2 X20.614 Y-10.554 I-0.021 J-0.6 F350
X20.799 Y-11.514 I-0.249 J-0.546 F850
G1 X20.302 Y-12.035
G2 X19.323 Y-11.872 I-0.434 J0.414
X19.268 Y-11.644 I0.545 J0.251 F350
G1 X19.267 Y-11.242 F850
X19.271 Y-11.04
X19.28 Y-10.986
X19.301 Y-10.912
X19.333 Y-10.839
X19.36 Y-10.793
X19.392 Y-10.747
X19.432 Y-10.701
X19.481 Y-10.654
X19.502 Y-10.638
X19.592 Y-10.576
X19.683 Y-10.535
X19.783 Y-10.509
X19.884 Y-10.5
X23.506
X23.656 Y-10.507
X23.805 Y-10.524
X23.953 Y-10.551
X24.098 Y-10.587
X24.242 Y-10.631
X24.384 Y-10.684
X24.528 Y-10.748
X24.674 Y-10.822
X24.828 Y-10.912
X25.088 Y-11.116
X25.311 Y-11.36
X25.49 Y-11.637
X25.622 Y-11.94
X25.702 Y-12.261
X25.727 Y-12.59
G2 X25.673 Y-12.818 I-0.6 J0.024 F350
X24.722 Y-13.009 I-0.545 J0.251 F850
G1 X23.122 Y-11.542
G2 X23.278 Y-10.554 I0.405 J0.442
X23.506 Y-10.5 I0.249 J-0.546 F350
G1 X24.623 F850
X24.773 Y-10.507
X25.029 Y-10.573
X25.263 Y-10.698
X25.46 Y-10.875
X25.609 Y-11.093
X25.701 Y-11.341
X25.732 Y-11.604
G2 X25.677 Y-11.832 I-0.6 J0.024 F350
X24.711 Y-12.008 I-0.545 J0.251 F850
G1 X24.223 Y-11.527
G2 X24.395 Y-10.554 I0.421 J0.427
X24.623 Y-10.5 I0.249 J-0.546 F350
G1 X25.116 F850
X25.217 Y-10.509
X25.317 Y-10.535
X25.408 Y-10.576
X25.498 Y-10.638
X25.519 Y-10.654
X25.568 Y-10.701
X25.608 Y-10.747
X25.64 Y-10.793
X25.667 Y-10.839
X25.699 Y-10.912
X25.72 Y-10.986
X25.729 Y-11.04
X25.733 Y-11.242
X25.713 Y-15.873
X25.703 Y-16.044
X25.687 Y-16.193
X25.658 Y-16.34
X25.618 Y-16.484
X25.568 Y-16.626
X25.508 Y-16.764
X25.441 Y-16.898
X25.366 Y-17.028
X25.278 Y-17.161
X25.179 Y-17.296
X25.068 Y-17.429
X24.947 Y-17.558
X24.815 Y-17.685
X24.671 Y-17.809
X24.514 Y-17.928
X24.346 Y-18.042
X24.168 Y-18.148
X23.981 Y-18.247
X23.785 Y-18.336
X23.58 Y-18.415
X23.366 Y-18.484
X23.145 Y-18.543
X22.916 Y-18.589
X22.682 Y-18.624
X22.442 Y-18.645
X22.199 Y-18.653
X21.953 Y-18.647
X21.704 Y-18.627
X21.455 Y-18.592
X21.207 Y-18.544
X20.973 Y-18.484
X20.754 Y-18.415
X20.524 Y-18.328
X20.477 Y-18.307
X20.144 Y-18.119
X19.854 Y-17.871
X19.615 Y-17.573
X19.438 Y-17.235
X19.328 Y-16.869
X19.29 Y-16.488
X19.285 Y-15.338
G2 X19.337 Y-15.109 I0.6 J-0.018 F350
X19.946 Y-14.759 I0.547 J-0.246 F850
G1 X25.174 Y-15.294
G2 X25.66 Y-15.644 I-0.061 J-0.597
X25.713 Y-15.873 I-0.547 J-0.246 F350
G1 X25.708 Y-16.99 F850
X25.7 Y-17.14
X25.678 Y-17.288
X25.643 Y-17.434
X25.596 Y-17.577
X25.539 Y-17.715
X25.472 Y-17.85
X25.397 Y-17.98
X25.313 Y-18.108
X25.219 Y-18.236
X25.111 Y-18.366
X24.989 Y-18.497
X24.855 Y-18.626
X24.709 Y-18.751
X24.549 Y-18.873
X24.375 Y-18.992
X24.186 Y-19.105
X23.986 Y-19.21
X23.775 Y-19.306
X23.552 Y-19.393
X23.317 Y-19.47
X23.07 Y-19.535
X22.812 Y-19.588
X22.548 Y-19.626
X22.28 Y-19.651
X22.007 Y-19.66
X21.753 Y-19.654
X21.513 Y-19.635
X21.26 Y-19.6
X21.053 Y-19.56
X20.838 Y-19.505
X20.626 Y-19.438
X20.588 Y-19.424
X20.278 Y-19.275
X19.998 Y-19.076
X19.756 Y-18.831
X19.56 Y-18.549
X19.415 Y-18.237
X19.326 Y-17.904
X19.295 Y-17.562
X19.29 Y-16.488
G2 X19.343 Y-16.26 I0.6 J-0.018 F350
X19.947 Y-15.91 I0.547 J-0.246 F850
G1 X25.166 Y-16.411
G2 X25.655 Y-16.762 I-0.057 J-0.597
X25.708 Y-16.99 I-0.547 J-0.246 F350
G1 X25.703 Y-17.997 F850
X25.695 Y-18.147
X25.67 Y-18.294
X25.632 Y-18.44
X25.583 Y-18.581
X25.523 Y-18.719
X25.454 Y-18.852
X25.377 Y-18.981
X25.288 Y-19.112
X25.188 Y-19.243
X25.076 Y-19.373
X24.947 Y-19.507
X24.803 Y-19.641
X24.649 Y-19.769
X24.478 Y-19.895
X24.289 Y-20.019
X24.085 Y-20.137
X23.869 Y-20.246
X23.641 Y-20.345
X23.399 Y-20.434
X23.148 Y-20.512
X22.887 Y-20.576
X22.622 Y-20.626
X22.353 Y-20.661
X22.082 Y-20.681
X21.844 Y-20.685
X21.588 Y-20.674
X21.365 Y-20.653
X21.152 Y-20.62
X20.93 Y-20.573
X20.744 Y-20.523
X20.668 Y-20.497
X20.342 Y-20.355
X20.046 Y-20.158
X19.79 Y-19.912
X19.582 Y-19.624
X19.428 Y-19.304
X19.332 Y-18.962
X19.299 Y-18.608
X19.295 Y-17.562
G2 X19.347 Y-17.334 I0.6 J-0.018 F350
X19.944 Y-16.982 I0.547 J-0.246 F850
G1 X25.154 Y-17.417
G2 X25.651 Y-17.769 I-0.05 J-0.598
X25.703 Y-17.997 I-0.547 J-0.246 F350
G1 X25.699 Y-18.954 F850
X25.691 Y-19.103
X25.668 Y-19.252
X25.632 Y-19.397
X25.583 Y-19.539
X25.525 Y-19.677
X25.457 Y-19.811
X25.382 Y-19.941
X25.296 Y-20.07
X25.194 Y-20.206
X25.079 Y-20.344
X24.953 Y-20.478
X24.809 Y-20.615
X24.648 Y-20.753
X24.473 Y-20.884
X24.286 Y-21.01
X24.081 Y-21.132
X23.86 Y-21.247
X23.627 Y-21.352
X23.383 Y-21.445
X23.131 Y-21.526
X22.874 Y-21.592
X22.612 Y-21.645
X22.347 Y-21.683
X22.094 Y-21.704
X21.855 Y-21.711
X21.603 Y-21.704
X21.393 Y-21.686
X21.168 Y-21.654
X20.959 Y-21.612
X20.775 Y-21.565
X20.695 Y-21.539
X20.364 Y-21.4
X20.064 Y-21.203
X19.804 Y-20.957
X19.592 Y-20.668
X19.435 Y-20.345
X19.338 Y-20
X19.304 Y-19.643
X19.299 Y-18.608
G2 X19.352 Y-18.38 I0.6 J-0.018 F350
X19.939 Y-18.028 I0.547 J-0.246 F850
G1 X25.139 Y-18.373
G2 X25.646 Y-18.726 I-0.04 J-0.599
X25.699 Y-18.954 I-0.547 J-0.246 F350
G1 X25.695 Y-19.899 F850
X25.687 Y-20.049
X25.668 Y-20.198
X25.635 Y-20.344
X25.59 Y-20.488
X25.535 Y-20.627
X25.47 Y-20.762
X25.398 Y-20.894
X25.314 Y-21.026
X25.215 Y-21.165
X25.105 Y-21.302
X24.98 Y-21.441
X24.837 Y-21.583
X24.68 Y-21.722
X24.51 Y-21.856
X24.324 Y-21.987
X24.121 Y-22.113
X23.904 Y-22.232
X23.676 Y-22.34
X23.437 Y-22.438
X23.19 Y-22.523
X22.937 Y-22.594
X22.677 Y-22.651
X22.415 Y-22.694
X22.161 Y-22.721
X21.928 Y-22.733
X21.673 Y-22.731
X21.46 Y-22.718
X21.241 Y-22.691
X21.025 Y-22.653
X20.841 Y-22.609
X20.632 Y-22.547
X20.316 Y-22.401
X20.029 Y-22.202
X19.782 Y-21.957
X19.581 Y-21.672
X19.432 Y-21.357
X19.34 Y-21.021
X19.308 Y-20.674
X19.304 Y-19.643
G2 X19.357 Y-19.415 I0.6 J-0.018 F350
X19.933 Y-19.062 I0.547 J-0.246 F850
G1 X25.125 Y-19.318
G2 X25.642 Y-19.671 I-0.03 J-0.599
X25.695 Y-19.899 I-0.547 J-0.246 F350
G1 X25.69 Y-20.906 F850
X25.682 Y-21.056
X25.662 Y-21.205
X25.629 Y-21.351
X25.584 Y-21.494
X25.528 Y-21.633
X25.464 Y-21.769
X25.39 Y-21.902
X25.307 Y-22.035
X25.208 Y-22.173
X25.094 Y-22.316
X24.969 Y-22.455
X24.828 Y-22.596
X24.67 Y-22.736
X24.496 Y-22.875
X24.31 Y-23.006
X24.11 Y-23.131
X23.894 Y-23.25
X23.667 Y-23.358
X23.427 Y-23.457
X23.18 Y-23.542
X22.927 Y-23.614
X22.669 Y-23.672
X22.41 Y-23.715
X22.148 Y-23.743
X21.918 Y-23.755
X21.675 Y-23.754
X21.45 Y-23.74
X21.249 Y-23.716
X21.027 Y-23.677
X20.838 Y-23.633
X20.651 Y-23.578
X20.641 Y-23.574
X20.323 Y-23.428
X20.036 Y-23.23
X19.788 Y-22.984
X19.586 Y-22.7
X19.437 Y-22.384
X19.345 Y-22.047
X19.313 Y-21.699
X19.308 Y-20.674
G2 X19.361 Y-20.445 I0.6 J-0.018 F350
X19.935 Y-20.092 I0.547 J-0.246 F850
G1 X25.118 Y-20.325
G2 X25.638 Y-20.678 I-0.027 J-0.599
X25.69 Y-20.906 I-0.547 J-0.246 F350
G1 X25.686 Y-21.913 F850
X25.678 Y-22.063
X25.658 Y-22.211
X25.625 Y-22.358
X25.58 Y-22.501
X25.525 Y-22.64
X25.461 Y-22.776
X25.388 Y-22.909
X25.305 Y-23.042
X25.207 Y-23.182
X25.094 Y-23.325
X24.969 Y-23.465
X24.828 Y-23.606
X24.67 Y-23.748
X24.497 Y-23.886
X24.312 Y-24.018
X24.112 Y-24.144
X23.896 Y-24.264
X23.669 Y-24.374
X23.43 Y-24.472
X23.183 Y-24.559
X22.932 Y-24.631
X22.675 Y-24.69
X22.416 Y-24.734
X22.156 Y-24.763
X21.928 Y-24.776
X21.686 Y-24.775
X21.462 Y-24.762
X21.261 Y-24.739
X21.04 Y-24.701
X20.851 Y-24.658
X20.665 Y-24.604
X20.652 Y-24.599
X20.334 Y-24.455
X20.045 Y-24.256
X19.795 Y-24.011
X19.592 Y-23.725
X19.442 Y-23.409
X19.35 Y-23.071
X19.318 Y-22.722
X19.313 Y-21.699
G2 X19.366 Y-21.471 I0.6 J-0.018 F350
X19.938 Y-21.118 I0.547 J-0.246 F850
G1 X25.111 Y-21.332
G2 X25.633 Y-21.685 I-0.025 J-0.599
X25.686 Y-21.913 I-0.547 J-0.246 F350
G1 X25.682 Y-22.92 F850
X25.673 Y-23.069
X25.655 Y-23.218
X25.622 Y-23.365
X25.578 Y-23.508
X25.524 Y-23.648
X25.46 Y-23.784
X25.388 Y-23.917
X25.306 Y-24.05
X25.208 Y-24.19
X25.096 Y-24.333
X24.972 Y-24.474
X24.832 Y-24.615
X24.675 Y-24.758
X24.503 Y-24.897
X24.318 Y-25.029
X24.119 Y-25.156
X23.904 Y-25.276
X23.678 Y-25.386
X23.441 Y-25.486
X23.195 Y-25.573
X22.945 Y-25.647
X22.689 Y-25.706
X22.431 Y-25.751
X22.172 Y-25.781
X21.944 Y-25.795
X21.703 Y-25.796
X21.478 Y-25.784
X21.278 Y-25.762
X21.057 Y-25.725
X20.867 Y-25.682
X20.682 Y-25.629
X20.665 Y-25.623
X20.345 Y-25.479
X20.054 Y-25.281
X19.803 Y-25.035
X19.599 Y-24.749
X19.448 Y-24.432
X19.355 Y-24.093
X19.322 Y-23.743
X19.318 Y-22.722
G2 X19.37 Y-22.494 I0.6 J-0.018 F350
X19.94 Y-22.141 I0.547 J-0.246 F850
G1 X25.105 Y-22.338
G2 X25.629 Y-22.691 I-0.023 J-0.6
X25.682 Y-22.92 I-0.547 J-0.246 F350
G1 X25.677 Y-23.926 F850
X25.669 Y-24.076
X25.651 Y-24.225
X25.62 Y-24.372
X25.577 Y-24.515
X25.523 Y-24.656
X25.461 Y-24.792
X25.389 Y-24.925
X25.308 Y-25.058
X25.211 Y-25.198
X25.1 Y-25.341
X24.977 Y-25.481
X24.839 Y-25.623
X24.683 Y-25.766
X24.512 Y-25.905
X24.329 Y-26.038
X24.131 Y-26.165
X23.918 Y-26.286
X23.693 Y-26.397
X23.457 Y-26.498
X23.212 Y-26.586
X22.964 Y-26.66
X22.708 Y-26.721
X22.451 Y-26.767
X22.193 Y-26.798
X21.965 Y-26.813
X21.724 Y-26.815
X21.499 Y-26.804
X21.299 Y-26.783
X21.077 Y-26.747
X20.886 Y-26.705
X20.702 Y-26.654
X20.679 Y-26.646
X20.357 Y-26.502
X20.064 Y-26.305
X19.811 Y-26.059
X19.606 Y-25.772
X19.453 Y-25.454
X19.359 Y-25.114
X19.327 Y-24.762
X19.322 Y-23.743
G2 X19.375 Y-23.515 I0.6 J-0.018 F350
X19.943 Y-23.162 I0.547 J-0.246 F850
G1 X25.099 Y-23.345
G2 X25.624 Y-23.698 I-0.021 J-0.6
X25.677 Y-23.926 I-0.547 J-0.246 F350
G1 X25.672 Y-24.994 F850
X25.664 Y-25.144
X25.641 Y-25.292
X25.605 Y-25.438
X25.559 Y-25.58
X25.502 Y-25.719
X25.436 Y-25.854
X25.361 Y-25.988
X25.272 Y-26.127
X25.173 Y-26.264
X25.058 Y-26.407
X24.926 Y-26.552
X24.783 Y-26.693
X24.625 Y-26.832
X24.449 Y-26.969
X24.257 Y-27.103
X24.052 Y-27.229
X23.836 Y-27.346
X23.61 Y-27.453
X23.372 Y-27.548
X23.126 Y-27.631
X22.877 Y-27.701
X22.62 Y-27.756
X22.362 Y-27.797
X22.111 Y-27.823
X21.887 Y-27.833
X21.642 Y-27.83
X21.433 Y-27.816
X21.223 Y-27.79
X21.01 Y-27.751
X20.829 Y-27.708
X20.753 Y-27.685
X20.417 Y-27.549
X20.11 Y-27.354
X19.844 Y-27.107
X19.626 Y-26.816
X19.465 Y-26.49
X19.366 Y-26.14
X19.331 Y-25.779
X19.327 Y-24.762
G2 X19.379 Y-24.534 I0.6 J-0.018 F350
X19.953 Y-24.181 I0.547 J-0.246 F850
G1 X25.1 Y-24.413
G2 X25.62 Y-24.766 I-0.027 J-0.599
X25.672 Y-24.994 I-0.547 J-0.246 F350
G1 X25.668 Y-26.001 F850
X25.66 Y-26.15
X25.638 Y-26.299
X25.604 Y-26.445
X25.558 Y-26.588
X25.502 Y-26.727
X25.437 Y-26.862
X25.364 Y-26.995
X25.279 Y-27.13
X25.179 Y-27.271
X25.065 Y-27.413
X24.939 Y-27.554
X24.796 Y-27.696
X24.636 Y-27.838
X24.463 Y-27.975
X24.278 Y-28.106
X24.076 Y-28.232
X23.86 Y-28.351
X23.634 Y-28.459
X23.396 Y-28.556
X23.151 Y-28.641
X22.902 Y-28.712
X22.646 Y-28.769
X22.39 Y-28.811
X22.152 Y-28.837
X21.912 Y-28.849
X21.671 Y-28.848
X21.468 Y-28.835
X21.244 Y-28.809
X21.039 Y-28.773
X20.857 Y-28.73
X20.77 Y-28.704
X20.431 Y-28.57
X20.121 Y-28.375
X19.853 Y-28.128
X19.634 Y-27.836
X19.471 Y-27.509
X19.371 Y-27.158
X19.336 Y-26.795
X19.331 Y-25.779
G2 X19.384 Y-25.551 I0.6 J-0.018 F350
X19.957 Y-25.198 I0.547 J-0.246 F850
G1 X25.094 Y-25.419
G2 X25.615 Y-25.773 I-0.026 J-0.599
X25.668 Y-26.001 I-0.547 J-0.246 F350
G1 X25.663 Y-27.007 F850
X25.655 Y-27.157
X25.635 Y-27.306
X25.602 Y-27.452
X25.557 Y-27.595
X25.502 Y-27.735
X25.438 Y-27.87
X25.365 Y-28.004
X25.282 Y-28.137
X25.183 Y-28.277
X25.07 Y-28.421
X24.945 Y-28.561
X24.804 Y-28.702
X24.646 Y-28.844
X24.474 Y-28.983
X24.289 Y-29.114
X24.09 Y-29.24
X23.877 Y-29.358
X23.652 Y-29.467
X23.415 Y-29.565
X23.173 Y-29.65
X22.923 Y-29.722
X22.669 Y-29.78
X22.414 Y-29.824
X22.175 Y-29.851
X21.935 Y-29.864
X21.693
X21.489 Y-29.852
X21.265 Y-29.827
X21.059 Y-29.792
X20.877 Y-29.75
X20.783 Y-29.723
X20.442 Y-29.589
X20.131 Y-29.395
X19.861 Y-29.148
X19.64 Y-28.855
X19.476 Y-28.527
X19.375 Y-28.175
X19.34 Y-27.811
X19.336 Y-26.795
G2 X19.388 Y-26.567 I0.6 J-0.018 F350
X19.96 Y-26.214 I0.547 J-0.246 F850
G1 X25.089 Y-26.426
G2 X25.611 Y-26.779 I-0.025 J-0.599
X25.663 Y-27.007 I-0.547 J-0.246 F350
G1 X25.659 Y-28.064 F850
X25.651 Y-28.214
X25.627 Y-28.362
X25.59 Y-28.507
X25.542 Y-28.649
X25.485 Y-28.788
X25.418 Y-28.922
X25.341 Y-29.058
X25.253 Y-29.195
X25.153 Y-29.333
X25.036 Y-29.475
X24.904 Y-29.619
X24.76 Y-29.759
X24.601 Y-29.898
X24.424 Y-30.035
X24.232 Y-30.167
X24.028 Y-30.291
X23.813 Y-30.406
X23.587 Y-30.511
X23.349 Y-30.605
X23.106 Y-30.686
X22.855 Y-30.755
X22.6 Y-30.809
X22.345 Y-30.848
X22.115 Y-30.87
X21.862 Y-30.88
X21.637 Y-30.877
X21.432 Y-30.862
X21.206 Y-30.832
X21.012 Y-30.796
X20.825 Y-30.75
X20.757 Y-30.729
X20.422 Y-30.592
X20.118 Y-30.397
X19.853 Y-30.15
X19.638 Y-29.859
X19.478 Y-29.534
X19.379 Y-29.186
X19.345 Y-28.826
X19.34 Y-27.811
G2 X19.393 Y-27.582 I0.6 J-0.018 F350
X19.97 Y-27.23 I0.547 J-0.246 F850
G1 X25.089 Y-27.483
G2 X25.606 Y-27.836 I-0.03 J-0.599
X25.659 Y-28.064 I-0.547 J-0.246 F350
G1 X25.654 Y-29.071 F850
X25.646 Y-29.22
X25.624 Y-29.369
X25.588 Y-29.514
X25.541 Y-29.657
X25.484 Y-29.796
X25.419 Y-29.931
X25.344 Y-30.063
X25.258 Y-30.198
X25.157 Y-30.339
X25.042 Y-30.481
X24.915 Y-30.621
X24.772 Y-30.762
X24.611 Y-30.903
X24.437 Y-31.039
X24.25 Y-31.169
X24.049 Y-31.294
X23.835 Y-31.409
X23.608 Y-31.516
X23.371 Y-31.612
X23.128 Y-31.694
X22.877 Y-31.764
X22.624 Y-31.819
X22.369 Y-31.859
X22.134 Y-31.883
X21.893 Y-31.894
X21.657 Y-31.892
X21.455 Y-31.878
X21.231 Y-31.85
X21.03 Y-31.813
X20.848 Y-31.77
X20.772 Y-31.747
X20.435 Y-31.611
X20.128 Y-31.416
X19.862 Y-31.169
X19.644 Y-30.878
X19.483 Y-30.552
X19.384 Y-30.202
X19.349 Y-29.841
X19.345 Y-28.826
G2 X19.397 Y-28.598 I0.6 J-0.018 F350
X19.973 Y-28.245 I0.547 J-0.246 F850
G1 X25.083 Y-28.49
G2 X25.602 Y-28.842 I-0.029 J-0.599
X25.654 Y-29.071 I-0.547 J-0.246 F350
G1 X25.65 Y-30.077 F850
X25.642 Y-30.227
X25.62 Y-30.376
X25.586 Y-30.521
X25.54 Y-30.664
X25.483 Y-30.803
X25.418 Y-30.939
X25.344 Y-31.072
X25.26 Y-31.205
X25.16 Y-31.345
X25.045 Y-31.488
X24.919 Y-31.627
X24.778 Y-31.768
X24.619 Y-31.909
X24.445 Y-32.046
X24.259 Y-32.176
X24.059 Y-32.301
X23.846 Y-32.417
X23.621 Y-32.524
X23.385 Y-32.62
X23.143 Y-32.703
X22.893 Y-32.773
X22.64 Y-32.829
X22.386 Y-32.871
X22.151 Y-32.895
X21.91 Y-32.907
X21.673 Y-32.906
X21.471 Y-32.893
X21.247 Y-32.866
X21.045 Y-32.83
X20.864 Y-32.787
X20.783 Y-32.763
X20.445 Y-32.627
X20.137 Y-32.433
X19.869 Y-32.186
X19.651 Y-31.894
X19.489 Y-31.568
X19.388 Y-31.217
X19.354 Y-30.855
X19.349 Y-29.841
G2 X19.402 Y-29.613 I0.6 J-0.018 F350
X19.977 Y-29.26 I0.547 J-0.246 F850
G1 X25.078 Y-29.496
G2 X25.597 Y-29.849 I-0.028 J-0.599
X25.65 Y-30.077 I-0.547 J-0.246 F350
G1 X25.645 Y-31.084 F850
X25.637 Y-31.234
X25.617 Y-31.382
X25.583 Y-31.529
X25.538 Y-31.672
X25.482 Y-31.811
X25.418 Y-31.946
X25.344 Y-32.08
X25.26 Y-32.213
X25.162 Y-32.352
X25.048 Y-32.494
X24.923 Y-32.634
X24.783 Y-32.774
X24.625 Y-32.915
X24.452 Y-33.052
X24.267 Y-33.183
X24.069 Y-33.307
X23.857 Y-33.423
X23.633 Y-33.531
X23.398 Y-33.628
X23.157 Y-33.711
X22.908 Y-33.782
X22.655 Y-33.839
X22.402 Y-33.881
X22.167 Y-33.907
X21.926 Y-33.919
X21.689
X21.487 Y-33.906
X21.263 Y-33.88
X21.06 Y-33.845
X20.879 Y-33.802
X20.795 Y-33.778
X20.455 Y-33.643
X20.145 Y-33.449
X19.876 Y-33.202
X19.657 Y-32.91
X19.494 Y-32.583
X19.393 Y-32.231
X19.358 Y-31.868
X19.354 Y-30.855
G2 X19.406 Y-30.626 I0.6 J-0.018 F350
X19.98 Y-30.273 I0.547 J-0.246 F850
G1 X25.073 Y-30.503
G2 X25.593 Y-30.856 I-0.027 J-0.599
X25.645 Y-31.084 I-0.547 J-0.246 F350
G1 X25.641 Y-32.091 F850
X25.633 Y-32.24
X25.613 Y-32.389
X25.58 Y-32.536
X25.535 Y-32.679
X25.48 Y-32.818
X25.416 Y-32.954
X25.343 Y-33.087
X25.261 Y-33.22
X25.163 Y-33.358
X25.05 Y-33.501
X24.926 Y-33.64
X24.787 Y-33.78
X24.63 Y-33.92
X24.458 Y-34.058
X24.274 Y-34.189
X24.077 Y-34.313
X23.867 Y-34.43
X23.644 Y-34.538
X23.409 Y-34.635
X23.169 Y-34.719
X22.921 Y-34.791
X22.669 Y-34.848
X22.416 Y-34.891
X22.181 Y-34.917
X21.94 Y-34.931
X21.703
X21.501 Y-34.919
X21.277 Y-34.893
X21.074 Y-34.859
X20.893 Y-34.817
X20.805 Y-34.791
X20.464 Y-34.658
X20.153 Y-34.464
X19.883 Y-34.216
X19.662 Y-33.924
X19.499 Y-33.596
X19.398 Y-33.244
X19.363 Y-32.88
X19.358 Y-31.868
G2 X19.411 Y-31.639 I0.6 J-0.018 F350
X19.984 Y-31.286 I0.547 J-0.246 F850
G1 X25.067 Y-31.51
G2 X25.588 Y-31.863 I-0.026 J-0.599
X25.641 Y-32.091 I-0.547 J-0.246 F350
G1 X25.636 Y-33.097 F850
X25.628 Y-33.247
X25.609 Y-33.396
X25.577 Y-33.542
X25.533 Y-33.686
X25.478 Y-33.826
X25.415 Y-33.961
X25.342 Y-34.095
X25.26 Y-34.227
X25.164 Y-34.365
X25.051 Y-34.507
X24.928 Y-34.647
X24.79 Y-34.786
X24.635 Y-34.926
X24.464 Y-35.064
X24.28 Y-35.195
X24.084 Y-35.32
X23.875 Y-35.436
X23.653 Y-35.544
X23.42 Y-35.642
X23.181 Y-35.726
X22.933 Y-35.798
X22.682 Y-35.857
X22.429 Y-35.9
X22.194 Y-35.927
X21.953 Y-35.941
X21.716 Y-35.942
X21.514 Y-35.931
X21.29 Y-35.906
X21.087 Y-35.872
X20.906 Y-35.83
X20.815 Y-35.804
X20.473 Y-35.671
X20.161 Y-35.477
X19.89 Y-35.23
X19.668 Y-34.937
X19.504 Y-34.609
X19.402 Y-34.256
X19.367 Y-33.891
X19.363 Y-32.88
G2 X19.415 Y-32.651 I0.6 J-0.018 F350
X19.988 Y-32.298 I0.547 J-0.246 F850
G1 X25.062 Y-32.516
G2 X25.584 Y-32.869 I-0.026 J-0.599
X25.636 Y-33.097 I-0.547 J-0.246 F350
G1 X25.632 Y-34.104 F850
X25.624 Y-34.254
X25.606 Y-34.403
X25.574 Y-34.549
X25.53 Y-34.693
X25.476 Y-34.833
X25.413 Y-34.969
X25.341 Y-35.102
X25.259 Y-35.234
X25.164 Y-35.371
X25.052 Y-35.513
X24.929 Y-35.653
X24.792 Y-35.792
X24.638 Y-35.932
X24.468 Y-36.07
X24.285 Y-36.201
X24.09 Y-36.326
X23.882 Y-36.442
X23.661 Y-36.551
X23.429 Y-36.649
X23.19 Y-36.733
X22.944 Y-36.806
X22.693 Y-36.865
X22.441 Y-36.909
X22.206 Y-36.936
X21.965 Y-36.951
X21.728 Y-36.952
X21.526 Y-36.941
X21.302 Y-36.917
X21.098 Y-36.883
X20.917 Y-36.843
X20.824 Y-36.816
X20.481 Y-36.683
X20.168 Y-36.49
X19.896 Y-36.243
X19.674 Y-35.95
X19.509 Y-35.621
X19.407 Y-35.267
X19.372 Y-34.901
X19.367 Y-33.891
G2 X19.42 Y-33.663 I0.6 J-0.018 F350
X19.992 Y-33.31 I0.547 J-0.246 F850
G1 X25.057 Y-33.523
G2 X25.579 Y-33.876 I-0.025 J-0.599
X25.632 Y-34.104 I-0.547 J-0.246 F350
G1 X25.627 Y-35.111 F850
X25.619 Y-35.261
X25.602 Y-35.41
X25.57 Y-35.556
X25.527 Y-35.7
X25.474 Y-35.84
X25.411 Y-35.976
X25.339 Y-36.109
X25.258 Y-36.241
X25.163 Y-36.378
X25.053 Y-36.52
X24.93 Y-36.66
X24.794 Y-36.798
X24.641 Y-36.938
X24.472 Y-37.075
X24.289 Y-37.207
X24.095 Y-37.332
X23.888 Y-37.448
X23.668 Y-37.557
X23.436 Y-37.655
X23.199 Y-37.74
X22.953 Y-37.813
X22.702 Y-37.872
X22.451 Y-37.917
X22.217 Y-37.945
X21.975 Y-37.96
X21.738 Y-37.961
X21.537 Y-37.951
X21.312 Y-37.927
X21.109 Y-37.894
X20.928 Y-37.854
X20.725 Y-37.796
X20.403 Y-37.653
X20.112 Y-37.455
X19.859 Y-37.209
X19.654 Y-36.923
X19.502 Y-36.605
X19.409 Y-36.265
X19.376 Y-35.915
X19.372 Y-34.901
G2 X19.424 Y-34.673 I0.6 J-0.018 F350
X19.996 Y-34.32 I0.547 J-0.246 F850
G1 X25.053 Y-34.53
G2 X25.575 Y-34.883 I-0.025 J-0.599
X25.627 Y-35.111 I-0.547 J-0.246 F350
G1 X25.623 Y-36.118 F850
X25.615 Y-36.267
X25.598 Y-36.416
X25.567 Y-36.563
X25.524 Y-36.707
X25.471 Y-36.847
X25.408 Y-36.984
X25.337 Y-37.116
X25.257 Y-37.248
X25.163 Y-37.384
X25.052 Y-37.526
X24.93 Y-37.666
X24.899 Y-37.698
X24.659 Y-37.907
X24.389 Y-38.076
X24.095 Y-38.199
X23.786 Y-38.275
X23.469 Y-38.3
G2 X23.241 Y-38.246 I0.021 J0.6 F350
X23.061 Y-37.28 I0.249 J0.546 F850
G1 X24.595 Y-35.716
G2 X25.57 Y-35.889 I0.428 J-0.42
X25.623 Y-36.118 I-0.547 J-0.246 F350
G1 X25.618 Y-37.174 F850
X25.61 Y-37.324
X25.535 Y-37.586
X25.402 Y-37.823
X25.217 Y-38.023
X24.99 Y-38.174
X24.734 Y-38.268
X24.464 Y-38.3
G2 X24.231 Y-38.267 I0.038 J1.095 F350
X23.45 Y-36.899 I0.271 J1.062 F850
X25.586 Y-36.941 I1.062 J-0.309
X25.618 Y-37.174 I-1.074 J-0.267 F350
G1 X25.616 Y-37.618 F850
X25.615 Y-37.718
X25.6 Y-37.819
X25.568 Y-37.915
X25.519 Y-38.01
X25.512 Y-38.02
X25.47 Y-38.079
X25.415 Y-38.138
X25.366 Y-38.179
X25.317 Y-38.212
X25.302 Y-38.222
X25.209 Y-38.264
X25.116 Y-38.29
X25.016 Y-38.3
X20.779
X20.63 Y-38.292
X20.344 Y-38.226
X20.078 Y-38.102
X19.842 Y-37.927
X19.648 Y-37.707
X19.502 Y-37.452
X19.412 Y-37.173
X19.38 Y-36.881
G2 X19.433 Y-36.653 I0.6 J-0.018 F350
X20.411 Y-36.481 I0.547 J-0.246 F850
G1 X21.189 Y-37.282
G2 X21.007 Y-38.246 I-0.43 J-0.418
X20.779 Y-38.3 I-0.249 J0.546 F350
G1 X20.085 F850
X20.055
X20.016
X19.937 Y-38.295
X19.903 Y-38.292
G2 X19.691 Y-38.196 I0.056 J0.405 F350
X20.003 Y-37.481 I0.267 J0.309 F850
G1 X20.047 Y-37.486
G2 X20.236 Y-38.226 I-0.045 J-0.406
X20.016 Y-38.3 I-0.234 J0.335 F350
G1 X19.984 F850
X19.884 Y-38.29
X19.833 Y-38.276
X19.791 Y-38.264
X19.698 Y-38.222
X19.683 Y-38.212
X19.634 Y-38.179
X19.585 Y-38.138
X19.53 Y-38.079
X19.488 Y-38.02
X19.481 Y-38.01
X19.432 Y-37.915
X19.4 Y-37.819
X19.385 Y-37.718
X19.384 Y-37.618
X19.376 Y-35.915
G2 X19.429 Y-35.686 I0.6 J-0.018 F350
G1 X19.467 Y-35.601 Z-7.483
X19.505 Y-35.517 Z-7.461
X19.541 Y-35.438 Z-7.425
X19.574 Y-35.365 Z-7.375
X19.603 Y-35.3 Z-7.314
X19.628 Y-35.244 Z-7.243
X19.648 Y-35.199 Z-7.162
X19.663 Y-35.166 Z-7.075
X19.672 Y-35.146 Z-6.984
X19.675 Y-35.139 Z-6.89
G0 Z5
X20.717 Y-286.578
Z3.1
G1 Z2.5 F350
G2 X21.935 Y-282.839 Z2.336 I1.783 J1.487
X24.771 Y-285.556 Z2.172 I0.565 J-2.249
X21.096 Y-286.929 Z2.009 I-2.268 J0.467
X21.454 Y-283.028 Z1.845 I1.404 J1.838
X24.809 Y-285.041 Z1.681 I1.045 J-2.06
X21.542 Y-287.186 Z1.517 I-2.307 J-0.047
X21.029 Y-283.317 Z1.354 I0.958 J2.096
X24.733 Y-284.533 Z1.19 I1.47 J-1.771
X22.032 Y-287.338 Z1.026 I-2.231 J-0.554
X20.68 Y-283.692 Z0.862 I0.469 J2.248
X24.547 Y-284.057 Z0.699 I1.819 J-1.396
X22.542 Y-287.377 Z0.535 I-2.045 J-1.031
X20.424 Y-284.134 Z0.371 I-0.04 J2.287
X24.261 Y-283.635 Z0.207 I2.075 J-0.955
X23.046 Y-287.303 Z0.043 I-1.76 J-1.453
X20.272 Y-284.619 Z-0.12 I-0.544 J2.213
X23.89 Y-283.288 Z-0.284 I2.227 J-0.47
X23.519 Y-287.12 Z-0.448 I-1.389 J-1.799
X20.232 Y-285.124 Z-0.612 I-1.017 J2.03
X23.453 Y-283.033 Z-0.775 I2.267 J0.034
X23.938 Y-286.837 Z-0.939 I-0.952 J-2.055
X20.305 Y-285.624 Z-1.103 I-1.436 J1.748
X22.972 Y-282.881 Z-1.267 I2.195 J0.534
X24.283 Y-286.47 Z-1.43 I-0.472 J-2.206
X20.485 Y-286.093 Z-1.594 I-1.78 J1.381
X22.471 Y-282.84 Z-1.758 I2.015 J1.003
X24.536 Y-286.038 Z-1.922 I0.028 J-2.247
X20.764 Y-286.509 Z-2.086 I-2.034 J0.949
X21.976 Y-282.911 Z-2.249 I1.736 J1.418
X24.688 Y-285.561 Z-2.413 I0.523 J-2.177
X21.127 Y-286.852 Z-2.577 I-2.185 J0.473
X21.511 Y-283.089 Z-2.741 I1.373 J1.761
X24.729 Y-285.066 Z-2.904 I0.989 J-1.999
X21.555 Y-287.104 Z-3.068 I-2.227 J-0.023
X21.098 Y-283.365 Z-3.232 I0.946 J2.014
X24.66 Y-284.574 Z-3.396 I1.401 J-1.724
X22.027 Y-287.255 Z-3.56 I-2.159 J-0.513
X20.757 Y-283.723 Z-3.723 I0.474 J2.165
X24.485 Y-284.113 Z-3.887 I1.742 J-1.365
X22.518 Y-287.298 Z-4.051 I-1.984 J-0.975
X20.506 Y-284.147 Z-4.215 I-0.017 J2.207
X24.213 Y-283.703 Z-4.378 I1.993 J-0.942
X23.005 Y-287.231 Z-4.542 I-1.712 J-1.384
X20.355 Y-284.614 Z-4.706 I-0.503 J2.14
X23.858 Y-283.365 Z-4.87 I2.144 J-0.475
X23.463 Y-287.058 Z-5.033 I-1.357 J-1.723
X20.312 Y-285.101 Z-5.197 I-0.961 J1.968
X23.439 Y-283.115 Z-5.361 I2.187 J0.011
X23.87 Y-286.789 Z-5.525 I-0.939 J-1.973
X20.377 Y-285.583 Z-5.689 I-1.368 J1.7
X22.977 Y-282.964 Z-5.852 I2.122 J0.493
X24.206 Y-286.439 Z-6.016 I-0.477 J-2.123
X20.547 Y-286.038 Z-6.18 I-1.703 J1.349
X22.494 Y-282.92 Z-6.344 I1.953 J0.947
X24.455 Y-286.024 Z-6.507 I0.005 J-2.167
X20.812 Y-286.441 Z-6.671 I-1.952 J0.935
X22.016 Y-282.984 Z-6.835 I1.688 J1.351
X24.605 Y-285.566 Z-6.999 I0.483 J-2.104
X21.159 Y-286.775 Z-7.162 I-2.102 J0.477
X21.566 Y-283.151 Z-7.326 I1.341 J1.684
X24.649 Y-285.088 Z-7.49 I0.934 J-1.937
X20.349 I-2.15
X24.649 I2.15
G1 X24.674 Y-285.974 F850
X24.686 Y-286.084
Y-286.234
X24.668 Y-286.383
X24.558 Y-286.687
X24.383 Y-286.96
X24.153 Y-287.187
X23.878 Y-287.358
X23.572 Y-287.464
X23.251 Y-287.5
X21.695
X21.545 Y-287.492
X21.208 Y-287.413
X20.895 Y-287.266
X20.619 Y-287.057
X20.391 Y-286.796
X20.222 Y-286.494
X20.119 Y-286.164
X20.086 Y-285.819
G2 X20.141 Y-285.592 I0.599 J-0.025 F350
X21.123 Y-285.434 I0.544 J-0.253 F850
G1 X22.112 Y-286.49
G2 X21.923 Y-287.446 I-0.438 J-0.41
X21.695 Y-287.5 I-0.249 J0.546 F350
G1 X20.89 F850
X20.74 Y-287.492
X20.527 Y-287.42
X20.341 Y-287.291
X20.198 Y-287.117
X20.109 Y-286.91
X20.079 Y-286.686
G2 X20.124 Y-286.456 I0.786 J-0.033 F350
X20.31 Y-286.162 I0.742 J-0.264 F850
X21.456 Y-287.228 I0.553 J-0.555
X21.121 Y-287.457 I-0.594 J0.511
X20.89 Y-287.5 I-0.258 J0.74 F350
G1 X20.689 F850
X20.622 Y-287.495
X20.556 Y-287.483
X20.488 Y-287.462
X20.437 Y-287.441
X20.387 Y-287.414
X20.286 Y-287.343
X20.225 Y-287.282
X20.186 Y-287.232
X20.154 Y-287.181
X20.129 Y-287.131
X20.109 Y-287.081
X20.085 Y-286.983
X20.078 Y-286.879
X20.097 Y-284.262
X20.106 Y-284.112
X20.126 Y-283.963
X20.16 Y-283.817
X20.206 Y-283.674
X20.262 Y-283.535
X20.329 Y-283.401
X20.406 Y-283.272
X20.491 Y-283.149
X20.584 Y-283.031
X20.685 Y-282.92
X20.793 Y-282.816
X20.907 Y-282.718
X21.027 Y-282.628
X21.151 Y-282.545
X21.281 Y-282.469
X21.415 Y-282.401
X21.552 Y-282.341
X21.693 Y-282.288
X21.839 Y-282.243
X21.988 Y-282.206
X22.14 Y-282.177
X22.295 Y-282.157
X22.452 Y-282.145
X22.61 Y-282.142
X22.769 Y-282.148
X22.928 Y-282.163
X23.087 Y-282.188
X23.244 Y-282.221
X23.401 Y-282.263
X23.555 Y-282.314
X23.707 Y-282.374
X23.74 Y-282.389
X24.066 Y-282.578
X24.35 Y-282.825
X24.583 Y-283.121
X24.756 Y-283.455
X24.864 Y-283.816
X24.902 Y-284.19
X24.92 Y-286.587
X24.914 Y-286.737
X24.844 Y-286.98
X24.708 Y-287.193
X24.518 Y-287.359
X24.288 Y-287.464
X24.038 Y-287.5
G2 X23.807 Y-287.461 I0.031 J0.894 F350
X23.448 Y-287.249 I0.263 J0.855 F850
X24.598 Y-285.948 I0.604 J0.625
X24.879 Y-286.356 I-0.546 J-0.677
X24.92 Y-286.587 I-0.827 J-0.268 F350
G1 X24.922 Y-286.879 F850
X24.915 Y-286.983
X24.891 Y-287.081
X24.871 Y-287.131
X24.846 Y-287.181
X24.814 Y-287.232
X24.775 Y-287.282
X24.714 Y-287.343
X24.613 Y-287.414
X24.563 Y-287.441
X24.512 Y-287.462
X24.444 Y-287.483
X24.378 Y-287.495
X24.311 Y-287.5
X23.251
G2 X23.023 Y-287.446 I0.021 J0.6 F350
X22.841 Y-287.318 I0.249 J0.546 F850
G1 X20.266 Y-284.663
G2 X20.149 Y-284.49 I0.431 J0.418
X20.097 Y-284.262 I0.548 J0.245 F350
G1 X20.104 Y-283.346 F850
X20.113 Y-283.196
X20.133 Y-283.047
X20.17 Y-282.902
X20.222 Y-282.761
X20.285 Y-282.625
X20.36 Y-282.495
X20.444 Y-282.371
X20.537 Y-282.253
X20.638 Y-282.142
X20.745 Y-282.037
X20.859 Y-281.939
X20.978 Y-281.848
X21.104 Y-281.763
X21.238 Y-281.683
X21.38 Y-281.608
X21.531 Y-281.54
X21.69 Y-281.478
X21.855 Y-281.425
X22.026 Y-281.38
X22.202 Y-281.344
X22.382 Y-281.318
X22.562 Y-281.302
X22.727 Y-281.297
X22.916 Y-281.302
X23.097 Y-281.316
X23.255 Y-281.338
X23.315 Y-281.35
X23.681 Y-281.46
X24.019 Y-281.639
X24.315 Y-281.88
X24.559 Y-282.174
X24.741 Y-282.51
X24.855 Y-282.875
X24.895 Y-283.255
X24.902 Y-284.19
G2 X24.85 Y-284.418 I-0.6 J0.016 F350
X24.165 Y-284.758 I-0.548 J0.245 F850
G1 X20.567 Y-283.913
G2 X20.156 Y-283.574 I0.137 J0.584
X20.104 Y-283.346 I0.548 J0.245 F350
G1 X20.111 Y-282.49 F850
X20.119 Y-282.341
X20.144 Y-282.193
X20.186 Y-282.049
X20.241 Y-281.909
X20.308 Y-281.775
X20.385 Y-281.646
X20.472 Y-281.524
X20.567 Y-281.408
X20.669 Y-281.298
X20.778 Y-281.195
X20.895 Y-281.096
X21.022 Y-281
X21.157 Y-280.91
X21.301 Y-280.825
X21.456 Y-280.745
X21.62 Y-280.672
X21.791 Y-280.607
X21.958 Y-280.554
X22.121 Y-280.512
X22.311 Y-280.474
X22.485 Y-280.45
X22.644 Y-280.437
X22.826 Y-280.432
X23.003 Y-280.438
X23.158 Y-280.451
X23.324 Y-280.475
X23.687 Y-280.586
X24.022 Y-280.765
X24.315 Y-281.006
X24.556 Y-281.299
X24.737 Y-281.632
X24.849 Y-281.995
X24.888 Y-282.372
X24.895 Y-283.255
G2 X24.843 Y-283.483 I-0.6 J0.016 F350
X24.17 Y-283.825 I-0.548 J0.245 F850
G1 X20.585 Y-283.061
G2 X20.163 Y-282.719 I0.125 J0.587
X20.111 Y-282.49 I0.548 J0.245 F350
G1 X20.117 Y-281.644 F850
X20.126 Y-281.495
X20.154 Y-281.347
X20.198 Y-281.204
X20.255 Y-281.065
X20.323 Y-280.931
X20.401 Y-280.803
X20.488 Y-280.681
X20.583 Y-280.565
X20.685 Y-280.455
X20.793 Y-280.351
X20.911 Y-280.25
X21.039 Y-280.152
X21.175 Y-280.059
X21.323 Y-279.971
X21.48 Y-279.888
X21.643 Y-279.814
X21.814 Y-279.747
X21.979 Y-279.694
X22.135 Y-279.652
X22.319 Y-279.614
X22.491 Y-279.589
X22.646 Y-279.575
X22.822 Y-279.569
X22.999 Y-279.573
X23.153 Y-279.586
X23.313 Y-279.607
X23.365 Y-279.617
X23.716 Y-279.722
X24.04 Y-279.893
X24.325 Y-280.124
X24.559 Y-280.406
X24.734 Y-280.728
X24.843 Y-281.078
X24.881 Y-281.443
X24.888 Y-282.372
G2 X24.836 Y-282.6 I-0.6 J0.016 F350
X24.169 Y-282.944 I-0.548 J0.245 F850
G1 X20.597 Y-282.216
G2 X20.169 Y-281.873 I0.12 J0.588
X20.117 Y-281.644 I0.548 J0.245 F350
G1 X20.123 Y-280.839 F850
X20.132 Y-280.689
X20.156 Y-280.541
X20.196 Y-280.396
X20.249 Y-280.256
X20.314 Y-280.121
X20.389 Y-279.991
X20.473 Y-279.867
X20.565 Y-279.749
X20.665 Y-279.636
X20.77 Y-279.53
X20.885 Y-279.427
X21.01 Y-279.326
X21.145 Y-279.231
X21.289 Y-279.14
X21.441 Y-279.056
X21.601 Y-278.979
X21.767 Y-278.91
X21.938 Y-278.85
X22.096 Y-278.804
X22.274 Y-278.764
X22.456 Y-278.733
X22.615 Y-278.715
X22.782 Y-278.706
X22.964
X23.124 Y-278.715
X23.277 Y-278.733
X23.646 Y-278.835
X23.986 Y-279.007
X24.287 Y-279.244
X24.534 Y-279.535
X24.719 Y-279.87
X24.834 Y-280.234
X24.875 Y-280.614
X24.881 Y-281.443
G2 X24.829 Y-281.671 I-0.6 J0.016 F350
X24.181 Y-282.018 I-0.548 J0.245 F850
G1 X20.623 Y-281.414
G2 X20.175 Y-281.067 I0.1 J0.592
X20.123 Y-280.839 I0.548 J0.245 F350
G1 X20.13 Y-279.973 F850
X20.138 Y-279.823
X20.164 Y-279.675
X20.206 Y-279.531
X20.26 Y-279.391
X20.326 Y-279.256
X20.401 Y-279.127
X20.486 Y-279.003
X20.578 Y-278.885
X20.678 Y-278.773
X20.785 Y-278.665
X20.901 Y-278.561
X21.027 Y-278.461
X21.162 Y-278.365
X21.306 Y-278.275
X21.46 Y-278.19
X21.622 Y-278.112
X21.791 Y-278.042
X21.948 Y-277.987
X22.105 Y-277.942
X22.288 Y-277.901
X22.454 Y-277.873
X22.606 Y-277.856
X22.783 Y-277.847
X22.956
X23.107 Y-277.856
X23.267 Y-277.875
X23.442 Y-277.905
X23.774 Y-278.016
X24.08 Y-278.189
X24.347 Y-278.416
X24.567 Y-278.69
X24.73 Y-279.001
X24.832 Y-279.337
X24.868 Y-279.686
X24.875 Y-280.614
G2 X24.823 Y-280.843 I-0.6 J0.016 F350
X24.168 Y-281.188 I-0.548 J0.245 F850
G1 X20.623 Y-280.547
G2 X20.182 Y-280.201 I0.107 J0.59
X20.13 Y-279.973 I0.548 J0.245 F350
G1 X20.136 Y-279.117 F850
X20.145 Y-278.968
X20.171 Y-278.82
X20.212 Y-278.676
X20.266 Y-278.536
X20.331 Y-278.401
X20.406 Y-278.271
X20.49 Y-278.147
X20.582 Y-278.028
X20.682 Y-277.916
X20.788 Y-277.809
X20.903 Y-277.705
X21.027 Y-277.606
X21.16 Y-277.511
X21.303 Y-277.42
X21.456 Y-277.335
X21.616 Y-277.258
X21.782 Y-277.189
X21.955 Y-277.128
X22.122 Y-277.079
X22.283 Y-277.042
X22.467 Y-277.011
X22.635 Y-276.992
X22.79 Y-276.983
X22.969
X23.135 Y-276.992
X23.284 Y-277.009
X23.322 Y-277.015
X23.677 Y-277.113
X24.005 Y-277.279
X24.294 Y-277.506
X24.533 Y-277.787
X24.711 Y-278.109
X24.822 Y-278.46
X24.861 Y-278.825
X24.868 Y-279.686
G2 X24.816 Y-279.914 I-0.6 J0.016 F350
X24.173 Y-280.262 I-0.548 J0.245 F850
G1 X20.641 Y-279.693
G2 X20.188 Y-279.346 I0.095 J0.592
X20.136 Y-279.117 I0.548 J0.245 F350
G1 X20.143 Y-278.262 F850
X20.151 Y-278.112
X20.176 Y-277.965
X20.217 Y-277.82
X20.27 Y-277.68
X20.335 Y-277.545
X20.41 Y-277.415
X20.494 Y-277.291
X20.586 Y-277.172
X20.685 Y-277.059
X20.791 Y-276.952
X20.906 Y-276.848
X21.031 Y-276.748
X21.165 Y-276.651
X21.309 Y-276.56
X21.462 Y-276.474
X21.623 Y-276.396
X21.79 Y-276.326
X21.953 Y-276.268
X22.11 Y-276.222
X22.293 Y-276.18
X22.463 Y-276.15
X22.616 Y-276.132
X22.791 Y-276.122
X22.964
X23.116 Y-276.13
X23.274 Y-276.147
X23.638 Y-276.246
X23.975 Y-276.416
X24.273 Y-276.649
X24.518 Y-276.936
X24.701 Y-277.266
X24.815 Y-277.626
X24.855 Y-278.001
X24.861 Y-278.825
G2 X24.81 Y-279.054 I-0.6 J0.016 F350
X24.167 Y-279.402 I-0.548 J0.245 F850
G1 X20.648 Y-278.838
G2 X20.195 Y-278.491 I0.095 J0.592
X20.143 Y-278.262 I0.548 J0.245 F350
G1 X20.149 Y-277.416 F850
X20.158 Y-277.266
X20.181 Y-277.118
X20.22 Y-276.973
X20.272 Y-276.833
X20.336 Y-276.697
X20.41 Y-276.566
X20.493 Y-276.442
X20.584 Y-276.322
X20.683 Y-276.209
X20.787 Y-276.102
X20.901 Y-275.997
X21.024 Y-275.897
X21.157 Y-275.801
X21.299 Y-275.709
X21.451 Y-275.622
X21.61 Y-275.544
X21.776 Y-275.473
X21.933 Y-275.416
X22.086 Y-275.37
X22.266 Y-275.327
X22.432 Y-275.297
X22.583 Y-275.279
X22.756 Y-275.268
X22.929 Y-275.266
X23.081 Y-275.273
X23.236 Y-275.289
X23.607 Y-275.388
X23.951 Y-275.559
X24.254 Y-275.794
X24.504 Y-276.086
X24.691 Y-276.421
X24.808 Y-276.787
X24.849 Y-277.169
X24.855 Y-278.001
G2 X24.803 Y-278.23 I-0.6 J0.016 F350
X24.157 Y-278.577 I-0.548 J0.245 F850
G1 X20.65 Y-277.991
G2 X20.201 Y-277.644 I0.099 J0.592
X20.149 Y-277.416 I0.548 J0.245 F350
G1 X20.156 Y-276.55 F850
X20.164 Y-276.4
X20.188 Y-276.252
X20.228 Y-276.107
X20.281 Y-275.967
X20.345 Y-275.831
X20.419 Y-275.701
X20.502 Y-275.576
X20.594 Y-275.457
X20.692 Y-275.344
X20.798 Y-275.237
X20.912 Y-275.133
X21.035 Y-275.033
X21.166 Y-274.938
X21.307 Y-274.848
X21.458 Y-274.763
X21.615 Y-274.686
X21.78 Y-274.616
X21.931 Y-274.562
X22.088 Y-274.516
X22.267 Y-274.474
X22.428 Y-274.445
X22.579 Y-274.428
X22.755 Y-274.417
X22.924 Y-274.416
X23.074 Y-274.423
X23.233 Y-274.44
X23.406 Y-274.469
X23.741 Y-274.578
X24.048 Y-274.749
X24.317 Y-274.976
X24.538 Y-275.25
X24.703 Y-275.561
X24.806 Y-275.897
X24.842 Y-276.247
X24.849 Y-277.169
G2 X24.797 Y-277.397 I-0.6 J0.016 F350
X24.144 Y-277.743 I-0.548 J0.245 F850
G1 X20.651 Y-277.124
G2 X20.208 Y-276.778 I0.105 J0.591
X20.156 Y-276.55 I0.548 J0.245 F350
G1 X20.162 Y-275.695 F850
X20.171 Y-275.545
X20.194 Y-275.397
X20.233 Y-275.252
X20.286 Y-275.111
X20.349 Y-274.976
X20.424 Y-274.845
X20.507 Y-274.72
X20.598 Y-274.601
X20.697 Y-274.488
X20.802 Y-274.381
X20.916 Y-274.278
X21.038 Y-274.179
X21.168 Y-274.086
X21.308 Y-273.996
X21.458 Y-273.912
X21.614 Y-273.835
X21.778 Y-273.766
X21.95 Y-273.705
X22.111 Y-273.658
X22.272 Y-273.62
X22.454 Y-273.588
X22.616 Y-273.569
X22.771 Y-273.559
X22.949
X23.112 Y-273.567
X23.261 Y-273.583
X23.285 Y-273.587
X23.642 Y-273.684
X23.973 Y-273.85
X24.264 Y-274.078
X24.504 Y-274.359
X24.684 Y-274.682
X24.796 Y-275.035
X24.836 Y-275.403
X24.842 Y-276.247
G2 X24.79 Y-276.476 I-0.6 J0.016 F350
X24.148 Y-276.823 I-0.548 J0.245 F850
G1 X20.668 Y-276.271
G2 X20.214 Y-275.923 I0.094 J0.593
X20.162 Y-275.695 I0.548 J0.245 F350
G1 X20.169 Y-274.839 F850
X20.177 Y-274.69
X20.201 Y-274.541
X20.239 Y-274.397
X20.292 Y-274.256
X20.356 Y-274.12
X20.43 Y-273.99
X20.513 Y-273.865
X20.605 Y-273.746
X20.703 Y-273.633
X20.809 Y-273.527
X20.923 Y-273.423
X21.046 Y-273.323
X21.178 Y-273.228
X21.319 Y-273.138
X21.47 Y-273.054
X21.629 Y-272.976
X21.794 Y-272.906
X21.951 Y-272.851
X22.107 Y-272.805
X22.287 Y-272.762
X22.451 Y-272.734
X22.602 Y-272.716
X22.777 Y-272.705
X22.947
X23.097 Y-272.712
X23.255 Y-272.73
X23.617 Y-272.828
X23.953 Y-272.996
X24.249 Y-273.228
X24.493 Y-273.514
X24.675 Y-273.842
X24.789 Y-274.2
X24.829 Y-274.574
X24.836 Y-275.403
G2 X24.784 Y-275.631 I-0.6 J0.016 F350
X24.14 Y-275.978 I-0.548 J0.245 F850
G1 X20.672 Y-275.415
G2 X20.221 Y-275.068 I0.096 J0.592
X20.169 Y-274.839 I0.548 J0.245 F350
G1 X20.175 Y-273.993 F850
X20.184 Y-273.844
X20.206 Y-273.695
X20.244 Y-273.55
X20.295 Y-273.409
X20.359 Y-273.273
X20.432 Y-273.143
X20.515 Y-273.017
X20.606 Y-272.898
X20.704 Y-272.785
X20.809 Y-272.677
X20.922 Y-272.574
X21.044 Y-272.475
X21.174 Y-272.38
X21.314 Y-272.29
X21.464 Y-272.205
X21.621 Y-272.128
X21.785 Y-272.058
X21.938 Y-272.003
X22.091 Y-271.957
X22.269 Y-271.915
X22.431 Y-271.886
X22.581 Y-271.868
X22.754 Y-271.857
X22.923 Y-271.855
X23.073 Y-271.863
X23.229 Y-271.879
X23.596 Y-271.977
X23.936 Y-272.146
X24.235 Y-272.38
X24.482 Y-272.668
X24.667 Y-273
X24.782 Y-273.361
X24.823 Y-273.739
X24.829 Y-274.574
G2 X24.777 Y-274.802 I-0.6 J0.016 F350
X24.13 Y-275.149 I-0.548 J0.245 F850
G1 X20.675 Y-274.569
G2 X20.227 Y-274.222 I0.099 J0.592
X20.175 Y-273.993 I0.548 J0.245 F350
G1 X20.182 Y-273.127 F850
X20.19 Y-272.977
X20.214 Y-272.829
X20.253 Y-272.684
X20.305 Y-272.544
X20.37 Y-272.408
X20.444 Y-272.278
X20.527 Y-272.153
X20.619 Y-272.034
X20.718 Y-271.922
X20.823 Y-271.815
X20.937 Y-271.712
X21.06 Y-271.613
X21.19 Y-271.52
X21.33 Y-271.431
X21.479 Y-271.348
X21.635 Y-271.272
X21.798 Y-271.204
X21.946 Y-271.152
X22.104 Y-271.106
X22.281 Y-271.065
X22.438 Y-271.038
X22.588 Y-271.021
X22.764 Y-271.01
X22.93
X23.079 Y-271.018
X23.24 Y-271.036
X23.604 Y-271.136
X23.94 Y-271.306
X24.236 Y-271.539
X24.48 Y-271.826
X24.663 Y-272.155
X24.776 Y-272.514
X24.816 Y-272.889
X24.823 Y-273.739
G2 X24.771 Y-273.967 I-0.6 J0.016 F350
X24.118 Y-274.313 I-0.548 J0.245 F850
G1 X20.676 Y-273.701
G2 X20.234 Y-273.355 I0.105 J0.591
X20.182 Y-273.127 I0.548 J0.245 F350
G1 X20.188 Y-272.272 F850
X20.197 Y-272.122
X20.22 Y-271.974
X20.26 Y-271.829
X20.312 Y-271.689
X20.377 Y-271.553
X20.451 Y-271.423
X20.535 Y-271.299
X20.627 Y-271.18
X20.726 Y-271.067
X20.832 Y-270.961
X20.946 Y-270.859
X21.068 Y-270.761
X21.198 Y-270.669
X21.337 Y-270.581
X21.486 Y-270.499
X21.641 Y-270.424
X21.804 Y-270.356
X21.953 Y-270.304
X22.11 Y-270.259
X22.287 Y-270.219
X22.445 Y-270.192
X22.595 Y-270.175
X22.77 Y-270.165
X22.936 Y-270.166
X23.085 Y-270.174
X23.2 Y-270.187
X23.567 Y-270.269
X23.909 Y-270.424
X24.212 Y-270.646
X24.463 Y-270.925
X24.651 Y-271.25
X24.768 Y-271.607
X24.81 Y-271.98
X24.816 Y-272.889
G2 X24.765 Y-273.117 I-0.6 J0.016 F350
X24.11 Y-273.463 I-0.548 J0.245 F850
G1 X20.682 Y-272.846
G2 X20.24 Y-272.5 I0.106 J0.591
X20.188 Y-272.272 I0.548 J0.245 F350
G1 X20.195 Y-271.417 F850
X20.203 Y-271.267
X20.227 Y-271.119
X20.267 Y-270.974
X20.32 Y-270.834
X20.385 Y-270.699
X20.46 Y-270.569
X20.544 Y-270.445
X20.637 Y-270.326
X20.736 Y-270.214
X20.842 Y-270.108
X20.957 Y-270.007
X21.079 Y-269.91
X21.21 Y-269.817
X21.349 Y-269.73
X21.498 Y-269.649
X21.654 Y-269.574
X21.811 Y-269.51
X21.965 Y-269.456
X22.146 Y-269.405
X22.313 Y-269.368
X22.463 Y-269.343
X22.634 Y-269.324
X22.809 Y-269.316
X22.962
X23.113 Y-269.326
X23.152 Y-269.33
X23.483 Y-269.4
X23.795 Y-269.528
X24.079 Y-269.71
X24.326 Y-269.94
X24.528 Y-270.211
X24.678 Y-270.514
X24.771 Y-270.838
X24.804 Y-271.174
X24.81 Y-271.98
G2 X24.758 Y-272.208 I-0.6 J0.016 F350
X24.112 Y-272.555 I-0.548 J0.245 F850
G1 X20.697 Y-271.992
G2 X20.247 Y-271.645 I0.098 J0.592
X20.195 Y-271.417 I0.548 J0.245 F350
G1 X20.201 Y-270.57 F850
X20.21 Y-270.421
X20.234 Y-270.273
X20.273 Y-270.128
X20.326 Y-269.988
X20.391 Y-269.852
X20.466 Y-269.723
X20.55 Y-269.598
X20.643 Y-269.48
X20.742 Y-269.368
X20.848 Y-269.262
X20.962 Y-269.161
X21.085 Y-269.063
X21.216 Y-268.97
X21.358 Y-268.882
X21.507 Y-268.8
X21.663 Y-268.725
X21.812 Y-268.664
X21.97 Y-268.609
X22.142 Y-268.56
X22.294 Y-268.526
X22.453 Y-268.5
X22.627 Y-268.481
X22.781 Y-268.473
X22.935 Y-268.474
X23.107 Y-268.484
X23.26 Y-268.502
X23.615 Y-268.601
X23.943 Y-268.768
X24.231 Y-268.997
X24.469 Y-269.278
X24.647 Y-269.6
X24.758 Y-269.952
X24.797 Y-270.318
X24.804 Y-271.174
G2 X24.752 Y-271.403 I-0.6 J0.016 F350
X24.099 Y-271.749 I-0.548 J0.245 F850
G1 X20.696 Y-271.145
G2 X20.253 Y-270.799 I0.105 J0.591
X20.201 Y-270.57 I0.548 J0.245 F350
G1 X20.208 Y-269.704 F850
X20.216 Y-269.554
X20.242 Y-269.407
X20.284 Y-269.263
X20.339 Y-269.123
X20.405 Y-268.988
X20.481 Y-268.859
X20.566 Y-268.736
X20.66 Y-268.618
X20.76 Y-268.507
X20.867 Y-268.402
X20.982 Y-268.301
X21.106 Y-268.204
X21.239 Y-268.112
X21.379 Y-268.026
X21.527 Y-267.947
X21.684 Y-267.873
X21.847 Y-267.808
X21.994 Y-267.758
X22.155 Y-267.714
X22.33 Y-267.676
X22.485 Y-267.652
X22.636 Y-267.636
X22.812 Y-267.629
X22.973 Y-267.631
X23.122 Y-267.641
X23.287 Y-267.662
X23.635 Y-267.763
X23.956 Y-267.93
X24.238 Y-268.157
X24.471 Y-268.434
X24.644 Y-268.752
X24.752 Y-269.097
X24.79 Y-269.457
X24.797 Y-270.318
G2 X24.745 Y-270.546 I-0.6 J0.016 F350
X24.09 Y-270.892 I-0.548 J0.245 F850
G1 X20.701 Y-270.278
G2 X20.26 Y-269.932 I0.107 J0.59
X20.208 Y-269.704 I0.548 J0.245 F350
G1 X20.214 Y-268.849 F850
X20.223 Y-268.699
X20.25 Y-268.552
X20.292 Y-268.408
X20.348 Y-268.268
X20.415 Y-268.134
X20.492 Y-268.005
X20.577 Y-267.882
X20.671 Y-267.765
X20.772 Y-267.654
X20.88 Y-267.55
X20.995 Y-267.449
X21.119 Y-267.353
X21.251 Y-267.263
X21.392 Y-267.177
X21.542 Y-267.097
X21.698 Y-267.025
X21.862 Y-266.96
X22.012 Y-266.91
X22.17 Y-266.867
X22.346 Y-266.83
X22.502 Y-266.806
X22.653 Y-266.791
X22.827 Y-266.785
X22.988 Y-266.787
X23.138 Y-266.798
X23.301 Y-266.82
X23.644 Y-266.921
X23.961 Y-267.087
X24.24 Y-267.311
X24.469 Y-267.586
X24.64 Y-267.9
X24.746 Y-268.242
X24.784 Y-268.597
X24.79 Y-269.457
G2 X24.739 Y-269.685 I-0.6 J0.016 F350
X24.084 Y-270.031 I-0.548 J0.245 F850
G1 X20.708 Y-269.423
G2 X20.266 Y-269.077 I0.106 J0.59
X20.214 Y-268.849 I0.548 J0.245 F350
G1 X20.22 Y-268.044 F850
X20.229 Y-267.894
X20.251 Y-267.745
X20.289 Y-267.6
X20.341 Y-267.46
X20.405 Y-267.324
X20.479 Y-267.194
X20.563 Y-267.069
X20.655 Y-266.951
X20.754 Y-266.838
X20.86 Y-266.732
X20.972 Y-266.631
X21.092 Y-266.535
X21.221 Y-266.443
X21.361 Y-266.355
X21.51 Y-266.273
X21.665 Y-266.199
X21.826 Y-266.132
X21.981 Y-266.078
X22.131 Y-266.034
X22.307 Y-265.995
X22.469 Y-265.967
X22.618 Y-265.951
X22.787 Y-265.942
X22.954
X23.103 Y-265.951
X23.258 Y-265.969
X23.608 Y-266.067
X23.933 Y-266.232
X24.218 Y-266.458
X24.453 Y-266.735
X24.629 Y-267.054
X24.739 Y-267.401
X24.778 Y-267.763
X24.784 Y-268.597
G2 X24.732 Y-268.826 I-0.6 J0.016 F350
X24.087 Y-269.173 I-0.548 J0.245 F850
G1 X20.723 Y-268.619
G2 X20.272 Y-268.272 I0.097 J0.592
X20.22 Y-268.044 I0.548 J0.245 F350
G1 X20.227 Y-267.188 F850
X20.235 Y-267.039
X20.259 Y-266.891
X20.298 Y-266.746
X20.351 Y-266.605
X20.416 Y-266.47
X20.491 Y-266.34
X20.575 Y-266.216
X20.668 Y-266.098
X20.767 Y-265.986
X20.874 Y-265.88
X20.988 Y-265.779
X21.11 Y-265.682
X21.24 Y-265.591
X21.379 Y-265.504
X21.527 Y-265.423
X21.682 Y-265.35
X21.843 Y-265.284
X21.99 Y-265.234
X22.148 Y-265.189
X22.321 Y-265.151
X22.475 Y-265.125
X22.625 Y-265.109
X22.798 Y-265.101
X22.958 Y-265.102
X23.108 Y-265.111
X23.138 Y-265.115
X23.465 Y-265.186
X23.775 Y-265.313
X24.056 Y-265.494
X24.3 Y-265.723
X24.499 Y-265.992
X24.647 Y-266.292
X24.739 Y-266.613
X24.771 Y-266.946
X24.778 Y-267.763
G2 X24.726 Y-267.991 I-0.6 J0.016 F350
X24.076 Y-268.338 I-0.548 J0.245 F850
G1 X20.725 Y-267.763
G2 X20.279 Y-267.417 I0.101 J0.591
X20.227 Y-267.188 I0.548 J0.245 F350
G1 X20.233 Y-266.342 F850
X20.242 Y-266.193
X20.266 Y-266.044
X20.305 Y-265.9
X20.358 Y-265.76
X20.423 Y-265.624
X20.499 Y-265.495
X20.583 Y-265.37
X20.675 Y-265.252
X20.775 Y-265.14
X20.882 Y-265.035
X20.995 Y-264.934
X21.117 Y-264.839
X21.247 Y-264.748
X21.385 Y-264.662
X21.533 Y-264.581
X21.687 Y-264.508
X21.831 Y-264.45
X21.989 Y-264.396
X22.155 Y-264.349
X22.304 Y-264.316
X22.463 Y-264.291
X22.632 Y-264.273
X22.783 Y-264.266
X22.937 Y-264.267
X23.106 Y-264.278
X23.439 Y-264.349
X23.752 Y-264.479
X24.038 Y-264.663
X24.286 Y-264.895
X24.489 Y-265.167
X24.639 Y-265.472
X24.732 Y-265.799
X24.765 Y-266.137
X24.771 Y-266.946
G2 X24.72 Y-267.175 I-0.6 J0.016 F350
X24.065 Y-267.52 I-0.548 J0.245 F850
G1 X20.726 Y-266.916
G2 X20.285 Y-266.571 I0.107 J0.59
X20.233 Y-266.342 I0.548 J0.245 F350
G1 X20.24 Y-265.476 F850
X20.248 Y-265.326
X20.275 Y-265.179
X20.317 Y-265.035
X20.372 Y-264.895
X20.439 Y-264.761
X20.516 Y-264.632
X20.602 Y-264.509
X20.696 Y-264.392
X20.797 Y-264.281
X20.904 Y-264.177
X21.019 Y-264.078
X21.143 Y-263.983
X21.275 Y-263.893
X21.414 Y-263.808
X21.561 Y-263.731
X21.713 Y-263.661
X21.854 Y-263.606
X22.017 Y-263.552
X22.177 Y-263.51
X22.324 Y-263.479
X22.489 Y-263.454
X22.653 Y-263.439
X22.803 Y-263.434
X22.965 Y-263.438
X23.129 Y-263.451
X23.457 Y-263.526
X23.766 Y-263.657
X24.046 Y-263.842
X24.29 Y-264.073
X24.488 Y-264.344
X24.635 Y-264.646
X24.727 Y-264.969
X24.759 Y-265.303
X24.765 Y-266.137
G2 X24.713 Y-266.365 I-0.6 J0.016 F350
X24.049 Y-266.709 I-0.548 J0.245 F850
G1 X20.723 Y-266.048
G2 X20.292 Y-265.704 I0.117 J0.589
X20.24 Y-265.476 I0.548 J0.245 F350
G1 X20.246 Y-264.621 F850
X20.255 Y-264.471
X20.283 Y-264.324
X20.327 Y-264.18
X20.383 Y-264.041
X20.451 Y-263.908
X20.529 Y-263.779
X20.616 Y-263.657
X20.711 Y-263.541
X20.813 Y-263.431
X20.922 Y-263.328
X21.037 Y-263.23
X21.162 Y-263.136
X21.294 Y-263.048
X21.433 Y-262.965
X21.581 Y-262.889
X21.734 Y-262.82
X21.875 Y-262.766
X22.038 Y-262.715
X22.198 Y-262.673
X22.345 Y-262.644
X22.51 Y-262.621
X22.674 Y-262.608
X22.824 Y-262.604
X22.986 Y-262.609
X23.15 Y-262.623
X23.517 Y-262.715
X23.859 Y-262.879
X24.16 Y-263.109
X24.409 Y-263.395
X24.595 Y-263.724
X24.711 Y-264.085
X24.753 Y-264.462
X24.759 Y-265.303
G2 X24.707 Y-265.531 I-0.6 J0.016 F350
X24.038 Y-265.874 I-0.548 J0.245 F850
G1 X20.725 Y-265.192
G2 X20.298 Y-264.849 I0.121 J0.588
X20.246 Y-264.621 I0.548 J0.245 F350
G1 X20.252 Y-263.815 F850
X20.261 Y-263.666
X20.285 Y-263.518
X20.325 Y-263.373
X20.379 Y-263.233
X20.445 Y-263.098
X20.521 Y-262.969
X20.607 Y-262.846
X20.7 Y-262.729
X20.801 Y-262.618
X20.908 Y-262.513
X21.022 Y-262.415
X21.143 Y-262.322
X21.272 Y-262.233
X21.41 Y-262.15
X21.556 Y-262.072
X21.711 Y-262.001
X21.855 Y-261.945
X22.002 Y-261.896
X22.173 Y-261.85
X22.329 Y-261.818
X22.477 Y-261.795
X22.644 Y-261.78
X22.811 Y-261.774
X22.961 Y-261.777
X23.111 Y-261.789
X23.28 Y-261.812
X23.62 Y-261.914
X23.933 Y-262.079
X24.208 Y-262.302
X24.434 Y-262.574
X24.603 Y-262.886
X24.709 Y-263.224
X24.746 Y-263.576
X24.753 Y-264.462
G2 X24.701 Y-264.69 I-0.6 J0.016 F350
X24.038 Y-265.034 I-0.548 J0.245 F850
G1 X20.737 Y-264.388
G2 X20.304 Y-264.044 I0.115 J0.589
X20.252 Y-263.815 I0.548 J0.245 F350
G1 X20.259 Y-262.96 F850
X20.267 Y-262.81
X20.294 Y-262.663
X20.337 Y-262.519
X20.393 Y-262.38
X20.461 Y-262.246
X20.538 Y-262.118
X20.625 Y-261.995
X20.72 Y-261.879
X20.822 Y-261.769
X20.93 Y-261.666
X21.045 Y-261.569
X21.168 Y-261.475
X21.3 Y-261.387
X21.44 Y-261.305
X21.586 Y-261.229
X21.74 Y-261.16
X21.9 Y-261.099
X22.046 Y-261.053
X22.207 Y-261.011
X22.377 Y-260.978
X22.528 Y-260.956
X22.68 Y-260.944
X22.853 Y-260.939
X23.007 Y-260.944
X23.107 Y-260.952
X23.431 Y-261.011
X23.739 Y-261.128
X24.02 Y-261.299
X24.265 Y-261.519
X24.465 Y-261.781
X24.614 Y-262.074
X24.707 Y-262.39
X24.739 Y-262.718
X24.746 Y-263.576
G2 X24.694 Y-263.804 I-0.6 J0.016 F350
X24.036 Y-264.15 I-0.548 J0.245 F850
G1 X20.748 Y-263.534
G2 X20.311 Y-263.189 I0.11 J0.59
X20.259 Y-262.96 I0.548 J0.245 F350
G1 X20.265 Y-262.155 F850
X20.273 Y-262.005
X20.297 Y-261.857
X20.337 Y-261.712
X20.391 Y-261.572
X20.575 Y-261.269
X20.812 Y-261.005
X21.094 Y-260.79
X21.411 Y-260.631
X21.751 Y-260.533
X22.105 Y-260.5
G2 X22.333 Y-260.554 I-0.021 J-0.6 F350
X22.473 Y-261.556 I-0.249 J-0.546 F850
G1 X21.254 Y-262.595
G2 X20.317 Y-262.383 I-0.389 J0.457
X20.265 Y-262.155 I0.548 J0.245 F350
G1 X20.271 Y-261.349 F850
X20.28 Y-261.2
X20.361 Y-260.974
X20.5 Y-260.779
X20.686 Y-260.628
X20.907 Y-260.533
X21.144 Y-260.5
G2 X21.375 Y-260.541 I-0.029 J-0.829 F350
X21.91 Y-261.564 I-0.26 J-0.787 F850
X20.31 Y-261.581 I-0.803 J0.238
X20.271 Y-261.349 I0.798 J0.254 F350
G1 X20.273 Y-261.107 F850
X20.276 Y-261.047
X20.286 Y-260.986
X20.31 Y-260.906
X20.331 Y-260.856
X20.358 Y-260.805
X20.391 Y-260.755
X20.433 Y-260.705
X20.488 Y-260.653
X20.588 Y-260.583
X20.638 Y-260.556
X20.689 Y-260.535
X20.759 Y-260.515
X20.829 Y-260.503
X20.89 Y-260.5
X23.416
X23.565 Y-260.508
X23.875 Y-260.585
X24.157 Y-260.733
X24.396 Y-260.945
X24.578 Y-261.207
X24.692 Y-261.504
X24.733 Y-261.821
G2 X24.705 Y-262.054 I-1.274 J0.035 F350
X23.119 Y-263.014 I-1.246 J0.268 F850
X23.182 Y-260.53 I0.341 J1.234
X23.416 Y-260.5 I0.278 J-1.25 F350
G1 X24.11 F850
X24.171 Y-260.503
X24.241 Y-260.515
X24.311 Y-260.535
X24.362 Y-260.556
X24.412 Y-260.583
X24.512 Y-260.653
X24.567 Y-260.705
X24.609 Y-260.755
X24.642 Y-260.805
X24.669 Y-260.856
X24.69 Y-260.906
X24.714 Y-260.986
X24.724 Y-261.047
X24.727 Y-261.107
X24.739 Y-262.718
X24.728 Y-262.772 Z-7.483 F350
X24.717 Y-262.823 Z-7.464
X24.708 Y-262.868 Z-7.433
X24.7 Y-262.904 Z-7.392
X24.694 Y-262.93 Z-7.343
X24.689 Y-262.942 Z-7.3
X24.688 Y-262.946 Z-7.254
G0 Z5
X20.717 Y-15.346
Z-4.39
G1 Z-4.99 F350
G2 X21.934 Y-11.607 Z-5.154 I1.783 J1.487
X24.771 Y-14.324 Z-5.318 I0.565 J-2.249
X21.096 Y-15.698 Z-5.481 I-2.268 J0.467
X21.454 Y-11.796 Z-5.645 I1.404 J1.838
X24.809 Y-13.81 Z-5.809 I1.045 J-2.06
X21.542 Y-15.955 Z-5.973 I-2.307 J-0.047
X21.029 Y-12.086 Z-6.136 I0.958 J2.096
X24.733 Y-13.302 Z-6.3 I1.47 J-1.771
X22.032 Y-16.107 Z-6.464 I-2.231 J-0.554
X20.68 Y-12.461 Z-6.628 I0.469 J2.248
X24.547 Y-12.825 Z-6.791 I1.819 J-1.397
X22.542 Y-16.146 Z-6.955 I-2.045 J-1.031
X20.424 Y-12.902 Z-7.119 I-0.04 J2.287
X24.261 Y-12.403 Z-7.283 I2.075 J-0.955
X23.046 Y-16.072 Z-7.447 I-1.76 J-1.453
X20.272 Y-13.388 Z-7.61 I-0.544 J2.213
X23.89 Y-12.056 Z-7.774 I2.227 J-0.47
X23.519 Y-15.888 Z-7.938 I-1.389 J-1.799
X20.232 Y-13.893 Z-8.102 I-1.017 J2.03
X23.453 Y-11.801 Z-8.265 I2.267 J0.034
X23.938 Y-15.606 Z-8.429 I-0.952 J-2.055
X20.304 Y-14.392 Z-8.593 I-1.436 J1.748
X22.972 Y-11.65 Z-8.757 I2.195 J0.534
X24.282 Y-15.239 Z-8.92 I-0.472 J-2.206
X20.485 Y-14.862 Z-9.084 I-1.78 J1.381
X22.471 Y-11.609 Z-9.248 I2.015 J1.003
X24.536 Y-14.806 Z-9.412 I0.028 J-2.247
X20.764 Y-15.278 Z-9.576 I-2.034 J0.949
X21.976 Y-11.68 Z-9.739 I1.736 J1.418
X24.687 Y-14.33 Z-9.903 I0.523 J-2.177
X21.127 Y-15.62 Z-10.067 I-2.185 J0.473
X21.51 Y-11.858 Z-10.231 I1.373 J1.761
X24.729 Y-13.834 Z-10.394 I0.989 J-1.999
X21.555 Y-15.873 Z-10.558 I-2.227 J-0.023
X21.097 Y-12.133 Z-10.722 I0.946 J2.014
X24.66 Y-13.343 Z-10.886 I1.401 J-1.724
X22.027 Y-16.024 Z-11.05 I-2.159 J-0.513
X20.757 Y-12.492 Z-11.213 I0.474 J2.165
X24.485 Y-12.881 Z-11.377 I1.742 J-1.365
X22.518 Y-16.066 Z-11.541 I-1.984 J-0.975
X20.506 Y-12.916 Z-11.705 I-0.017 J2.207
X24.213 Y-12.471 Z-11.868 I1.993 J-0.942
X23.005 Y-15.999 Z-12.032 I-1.712 J-1.384
X20.355 Y-13.383 Z-12.196 I-0.503 J2.14
X23.858 Y-12.133 Z-12.36 I2.144 J-0.476
X23.463 Y-15.827 Z-12.523 I-1.357 J-1.723
X20.312 Y-13.87 Z-12.687 I-0.961 J1.968
X23.439 Y-11.883 Z-12.851 I2.187 J0.011
X23.87 Y-15.558 Z-13.015 I-0.939 J-1.973
X20.377 Y-14.352 Z-13.179 I-1.368 J1.7
X22.976 Y-11.733 Z-13.342 I2.122 J0.493
X24.206 Y-15.207 Z-13.506 I-0.477 J-2.123
X20.547 Y-14.806 Z-13.67 I-1.703 J1.349
X22.494 Y-11.689 Z-13.834 I1.953 J0.947
X24.454 Y-14.792 Z-13.997 I0.005 J-2.167
X20.812 Y-15.21 Z-14.161 I-1.952 J0.935
X22.016 Y-11.752 Z-14.325 I1.688 J1.351
X24.605 Y-14.334 Z-14.489 I0.483 J-2.104
X21.159 Y-15.544 Z-14.652 I-2.102 J0.477
X21.565 Y-11.92 Z-14.816 I1.341 J1.684
X24.649 Y-13.857 Z-14.98 I0.934 J-1.937
X20.349 I-2.15
X24.636 Y-13.621 I2.15
X24.649 Y-13.857 I-2.137 J-0.236
G1 X24.674 Y-14.742 F850
X24.686 Y-14.853
Y-15.003
X24.667 Y-15.151
X24.633 Y-15.297
X24.583 Y-15.439
X24.521 Y-15.576
X24.448 Y-15.707
X24.365 Y-15.831
X24.272 Y-15.949
X24.171 Y-16.06
X24.063 Y-16.164
X23.948 Y-16.26
X23.826 Y-16.348
X23.7 Y-16.429
X23.568 Y-16.501
X23.433 Y-16.565
X23.293 Y-16.621
X23.151 Y-16.668
X23.006 Y-16.707
X22.86 Y-16.738
X22.711 Y-16.761
X22.559 Y-16.775
X22.406 Y-16.781
X22.252 Y-16.778
X22.096 Y-16.766
X21.941 Y-16.745
X21.786 Y-16.716
X21.631 Y-16.677
X21.479 Y-16.63
X21.329 Y-16.574
X21.181 Y-16.509
X21.037 Y-16.436
X20.896 Y-16.354
X20.76 Y-16.265
X20.629 Y-16.167
X20.503 Y-16.062
X20.383 Y-15.95
X20.269 Y-15.831
X20.162 Y-15.705
X20.062 Y-15.574
X19.969 Y-15.437
X19.884 Y-15.294
X19.807 Y-15.147
X19.739 Y-14.995
X19.679 Y-14.84
X19.627 Y-14.681
X19.585 Y-14.519
X19.552 Y-14.355
X19.528 Y-14.19
X19.513 Y-14.023
X19.508 Y-13.855
X19.512 Y-13.688
X19.526 Y-13.521
X19.549 Y-13.354
X19.582 Y-13.19
X19.623 Y-13.027
X19.674 Y-12.867
X19.734 Y-12.71
X19.803 Y-12.556
X19.88 Y-12.406
X19.965 Y-12.261
X20.059 Y-12.121
X20.16 Y-11.987
X20.269 Y-11.858
X20.384 Y-11.736
X20.507 Y-11.62
X20.636 Y-11.512
X20.77 Y-11.411
X20.911 Y-11.317
X21.056 Y-11.232
X21.206 Y-11.155
X21.36 Y-11.086
X21.518 Y-11.026
X21.678 Y-10.976
X21.842 Y-10.934
X22.007 Y-10.901
X22.174 Y-10.878
X22.343 Y-10.865
X22.511 Y-10.861
X22.68 Y-10.866
X22.848 Y-10.881
X23.015 Y-10.905
X23.18 Y-10.939
X23.343 Y-10.982
X23.504 Y-11.034
X23.661 Y-11.095
X23.815 Y-11.165
X23.964 Y-11.243
X24.109 Y-11.33
X24.249 Y-11.424
X24.383 Y-11.527
X24.511 Y-11.636
X24.633 Y-11.753
X24.748 Y-11.877
X24.856 Y-12.006
X24.956 Y-12.142
X25.049 Y-12.283
X25.145 Y-12.45
X25.251 Y-12.659
X25.375 Y-12.941
X25.476 Y-13.213
X25.55 Y-13.454
X25.605 Y-13.674
X25.645 Y-13.888
X25.672 Y-14.093
X25.687 Y-14.288
X25.69 Y-14.477
X25.683 Y-14.663
X25.665 Y-14.847
X25.638 Y-15.025
X25.602 Y-15.199
X25.556 Y-15.369
X25.5 Y-15.537
X25.435 Y-15.702
X25.36 Y-15.864
X25.277 Y-16.02
X25.185 Y-16.173
X25.083 Y-16.32
X24.974 Y-16.462
X24.855 Y-16.598
X24.728 Y-16.729
X24.593 Y-16.853
X24.45 Y-16.971
X24.299 Y-17.081
X24.14 Y-17.184
X23.975 Y-17.278
X23.803 Y-17.364
X23.625 Y-17.44
X23.442 Y-17.507
X23.254 Y-17.564
X23.062 Y-17.61
X22.866 Y-17.646
X22.666 Y-17.671
X22.465 Y-17.685
X22.262 Y-17.687
X22.058 Y-17.678
X21.853 Y-17.657
X21.649 Y-17.625
X21.447 Y-17.581
X21.246 Y-17.525
X21.047 Y-17.458
X20.852 Y-17.379
X20.661 Y-17.289
X20.474 Y-17.188
X20.293 Y-17.077
X20.117 Y-16.955
X20.051 Y-16.903
X19.789 Y-16.656
X19.575 Y-16.366
X19.417 Y-16.043
X19.319 Y-15.696
X19.285 Y-15.338
X19.273 Y-12.742
X19.281 Y-12.573
X19.296 Y-12.424
X19.323 Y-12.276
X19.359 Y-12.13
X19.405 Y-11.988
X19.46 Y-11.848
X19.523 Y-11.712
X19.596 Y-11.575
X19.679 Y-11.438
X19.771 Y-11.303
X19.792 Y-11.276
X20.04 Y-11.01
X20.333 Y-10.792
X20.66 Y-10.632
X21.011 Y-10.533
X21.374 Y-10.5
G2 X21.602 Y-10.554 I-0.021 J-0.6 F350
X21.796 Y-11.505 I-0.249 J-0.546 F850
G1 X20.316 Y-13.123
G2 X19.328 Y-12.969 I-0.443 J0.405
X19.273 Y-12.742 I0.545 J0.251 F350
G1 X19.268 Y-11.644 F850
X19.275 Y-11.495
X19.338 Y-11.23
X19.462 Y-10.989
X19.64 Y-10.785
X19.863 Y-10.63
X20.117 Y-10.533
X20.386 Y-10.5
G2 X20.614 Y-10.554 I-0.021 J-0.6 F350
X20.799 Y-11.514 I-0.249 J-0.546 F850
G1 X20.302 Y-12.035
G2 X19.323 Y-11.872 I-0.434 J0.414
X19.268 Y-11.644 I0.545 J0.251 F350
G1 X19.267 Y-11.242 F850
X19.271 Y-11.04
X19.28 Y-10.986
X19.301 Y-10.912
X19.333 Y-10.839
X19.36 Y-10.793
X19.392 Y-10.747
X19.432 Y-10.701
X19.481 Y-10.654
X19.502 Y-10.638
X19.592 Y-10.576
X19.683 Y-10.535
X19.783 Y-10.509
X19.884 Y-10.5
X23.506
X23.656 Y-10.507
X23.805 Y-10.524
X23.953 Y-10.551
X24.098 Y-10.587
X24.242 Y-10.631
X24.384 Y-10.684
X24.528 Y-10.748
X24.674 Y-10.822
X24.828 Y-10.912
X25.088 Y-11.116
X25.311 Y-11.36
X25.49 Y-11.637
X25.622 Y-11.94
X25.702 Y-12.261
X25.727 Y-12.59
G2 X25.673 Y-12.818 I-0.6 J0.024 F350
X24.722 Y-13.009 I-0.545 J0.251 F850
G1 X23.122 Y-11.542
G2 X23.278 Y-10.554 I0.405 J0.442
X23.506 Y-10.5 I0.249 J-0.546 F350
G1 X24.623 F850
X24.773 Y-10.507
X25.029 Y-10.573
X25.263 Y-10.698
X25.46 Y-10.875
X25.609 Y-11.093
X25.701 Y-11.341
X25.732 Y-11.604
G2 X25.677 Y-11.832 I-0.6 J0.024 F350
X24.711 Y-12.008 I-0.545 J0.251 F850
G1 X24.223 Y-11.527
G2 X24.395 Y-10.554 I0.421 J0.427
X24.623 Y-10.5 I0.249 J-0.546 F350
G1 X25.116 F850
X25.217 Y-10.509
X25.317 Y-10.535
X25.408 Y-10.576
X25.498 Y-10.638
X25.519 Y-10.654
X25.568 Y-10.701
X25.608 Y-10.747
X25.64 Y-10.793
X25.667 Y-10.839
X25.699 Y-10.912
X25.72 Y-10.986
X25.729 Y-11.04
X25.733 Y-11.242
X25.713 Y-15.873
X25.703 Y-16.044
X25.687 Y-16.193
X25.658 Y-16.34
X25.618 Y-16.484
X25.568 Y-16.626
X25.508 Y-16.764
X25.441 Y-16.898
X25.366 Y-17.028
X25.278 Y-17.161
X25.179 Y-17.296
X25.068 Y-17.429
X24.947 Y-17.558
X24.815 Y-17.685
X24.671 Y-17.809
X24.514 Y-17.928
X24.346 Y-18.042
X24.168 Y-18.148
X23.981 Y-18.247
X23.785 Y-18.336
X23.58 Y-18.415
X23.366 Y-18.484
X23.145 Y-18.543
X22.916 Y-18.589
X22.682 Y-18.624
X22.442 Y-18.645
X22.199 Y-18.653
X21.953 Y-18.647
X21.704 Y-18.627
X21.455 Y-18.592
X21.207 Y-18.544
X20.973 Y-18.484
X20.754 Y-18.415
X20.524 Y-18.328
X20.477 Y-18.307
X20.144 Y-18.119
X19.854 Y-17.871
X19.615 Y-17.573
X19.438 Y-17.235
X19.328 Y-16.869
X19.29 Y-16.488
X19.285 Y-15.338
G2 X19.337 Y-15.109 I0.6 J-0.018 F350
X19.946 Y-14.759 I0.547 J-0.246 F850
G1 X25.174 Y-15.294
G2 X25.66 Y-15.644 I-0.061 J-0.597
X25.713 Y-15.873 I-0.547 J-0.246 F350
G1 X25.708 Y-16.99 F850
X25.7 Y-17.14
X25.678 Y-17.288
X25.643 Y-17.434
X25.596 Y-17.577
X25.539 Y-17.715
X25.472 Y-17.85
X25.397 Y-17.98
X25.313 Y-18.108
X25.219 Y-18.236
X25.111 Y-18.366
X24.989 Y-18.497
X24.855 Y-18.626
X24.709 Y-18.751
X24.549 Y-18.873
X24.375 Y-18.992
X24.186 Y-19.105
X23.986 Y-19.21
X23.775 Y-19.306
X23.552 Y-19.393
X23.317 Y-19.47
X23.07 Y-19.535
X22.812 Y-19.588
X22.548 Y-19.626
X22.28 Y-19.651
X22.007 Y-19.66
X21.753 Y-19.654
X21.513 Y-19.635
X21.26 Y-19.6
X21.053 Y-19.56
X20.838 Y-19.505
X20.626 Y-19.438
X20.588 Y-19.424
X20.278 Y-19.275
X19.998 Y-19.076
X19.756 Y-18.831
X19.56 Y-18.549
X19.415 Y-18.237
X19.326 Y-17.904
X19.295 Y-17.562
X19.29 Y-16.488
G2 X19.343 Y-16.26 I0.6 J-0.018 F350
X19.947 Y-15.91 I0.547 J-0.246 F850
G1 X25.166 Y-16.411
G2 X25.655 Y-16.762 I-0.057 J-0.597
X25.708 Y-16.99 I-0.547 J-0.246 F350
G1 X25.703 Y-17.997 F850
X25.695 Y-18.147
X25.67 Y-18.294
X25.632 Y-18.44
X25.583 Y-18.581
X25.523 Y-18.719
X25.454 Y-18.852
X25.377 Y-18.981
X25.288 Y-19.112
X25.188 Y-19.243
X25.076 Y-19.373
X24.947 Y-19.507
X24.803 Y-19.641
X24.649 Y-19.769
X24.478 Y-19.895
X24.289 Y-20.019
X24.085 Y-20.137
X23.869 Y-20.246
X23.641 Y-20.345
X23.399 Y-20.434
X23.148 Y-20.512
X22.887 Y-20.576
X22.622 Y-20.626
X22.353 Y-20.661
X22.082 Y-20.681
X21.844 Y-20.685
X21.588 Y-20.674
X21.365 Y-20.653
X21.152 Y-20.62
X20.93 Y-20.573
X20.744 Y-20.523
X20.668 Y-20.497
X20.342 Y-20.355
X20.046 Y-20.158
X19.79 Y-19.912
X19.582 Y-19.624
X19.428 Y-19.304
X19.332 Y-18.962
X19.299 Y-18.608
X19.295 Y-17.562
G2 X19.347 Y-17.334 I0.6 J-0.018 F350
X19.944 Y-16.982 I0.547 J-0.246 F850
G1 X25.154 Y-17.417
G2 X25.651 Y-17.769 I-0.05 J-0.598
X25.703 Y-17.997 I-0.547 J-0.246 F350
G1 X25.699 Y-18.954 F850
X25.691 Y-19.103
X25.668 Y-19.252
X25.632 Y-19.397
X25.583 Y-19.539
X25.525 Y-19.677
X25.457 Y-19.811
X25.382 Y-19.941
X25.296 Y-20.07
X25.194 Y-20.206
X25.079 Y-20.344
X24.953 Y-20.478
X24.809 Y-20.615
X24.648 Y-20.753
X24.473 Y-20.884
X24.286 Y-21.01
X24.081 Y-21.132
X23.86 Y-21.247
X23.627 Y-21.352
X23.383 Y-21.445
X23.131 Y-21.526
X22.874 Y-21.592
X22.612 Y-21.645
X22.347 Y-21.683
X22.094 Y-21.704
X21.855 Y-21.711
X21.603 Y-21.704
X21.393 Y-21.686
X21.168 Y-21.654
X20.959 Y-21.612
X20.775 Y-21.565
X20.695 Y-21.539
X20.364 Y-21.4
X20.064 Y-21.203
X19.804 Y-20.957
X19.592 Y-20.668
X19.435 Y-20.345
X19.338 Y-20
X19.304 Y-19.643
X19.299 Y-18.608
G2 X19.352 Y-18.38 I0.6 J-0.018 F350
X19.939 Y-18.028 I0.547 J-0.246 F850
G1 X25.139 Y-18.373
G2 X25.646 Y-18.726 I-0.04 J-0.599
X25.699 Y-18.954 I-0.547 J-0.246 F350
G1 X25.695 Y-19.899 F850
X25.687 Y-20.049
X25.668 Y-20.198
X25.635 Y-20.344
X25.59 Y-20.488
X25.535 Y-20.627
X25.47 Y-20.762
X25.398 Y-20.894
X25.314 Y-21.026
X25.215 Y-21.165
X25.105 Y-21.302
X24.98 Y-21.441
X24.837 Y-21.583
X24.68 Y-21.722
X24.51 Y-21.856
X24.324 Y-21.987
X24.121 Y-22.113
X23.904 Y-22.232
X23.676 Y-22.34
X23.437 Y-22.438
X23.19 Y-22.523
X22.937 Y-22.594
X22.677 Y-22.651
X22.415 Y-22.694
X22.161 Y-22.721
X21.928 Y-22.733
X21.673 Y-22.731
X21.46 Y-22.718
X21.241 Y-22.691
X21.025 Y-22.653
X20.841 Y-22.609
X20.632 Y-22.547
X20.316 Y-22.401
X20.029 Y-22.202
X19.782 Y-21.957
X19.581 Y-21.672
X19.432 Y-21.357
X19.34 Y-21.021
X19.308 Y-20.674
X19.304 Y-19.643
G2 X19.357 Y-19.415 I0.6 J-0.018 F350
X19.933 Y-19.062 I0.547 J-0.246 F850
G1 X25.125 Y-19.318
G2 X25.642 Y-19.671 I-0.03 J-0.599
X25.695 Y-19.899 I-0.547 J-0.246 F350
G1 X25.69 Y-20.906 F850
X25.682 Y-21.056
X25.662 Y-21.205
X25.629 Y-21.351
X25.584 Y-21.494
X25.528 Y-21.633
X25.464 Y-21.769
X25.39 Y-21.902
X25.307 Y-22.035
X25.208 Y-22.173
X25.094 Y-22.316
X24.969 Y-22.455
X24.828 Y-22.596
X24.67 Y-22.736
X24.496 Y-22.875
X24.31 Y-23.006
X24.11 Y-23.131
X23.894 Y-23.25
X23.667 Y-23.358
X23.427 Y-23.457
X23.18 Y-23.542
X22.927 Y-23.614
X22.669 Y-23.672
X22.41 Y-23.715
X22.148 Y-23.743
X21.918 Y-23.755
X21.675 Y-23.754
X21.45 Y-23.74
X21.249 Y-23.716
X21.027 Y-23.677
X20.838 Y-23.633
X20.651 Y-23.578
X20.641 Y-23.574
X20.323 Y-23.428
X20.036 Y-23.23
X19.788 Y-22.984
X19.586 Y-22.7
X19.437 Y-22.384
X19.345 Y-22.047
X19.313 Y-21.699
X19.308 Y-20.674
G2 X19.361 Y-20.445 I0.6 J-0.018 F350
X19.935 Y-20.092 I0.547 J-0.246 F850
G1 X25.118 Y-20.325
G2 X25.638 Y-20.678 I-0.027 J-0.599
X25.69 Y-20.906 I-0.547 J-0.246 F350
G1 X25.686 Y-21.913 F850
X25.678 Y-22.063
X25.658 Y-22.211
X25.625 Y-22.358
X25.58 Y-22.501
X25.525 Y-22.64
X25.461 Y-22.776
X25.388 Y-22.909
X25.305 Y-23.042
X25.207 Y-23.182
X25.094 Y-23.325
X24.969 Y-23.465
X24.828 Y-23.606
X24.67 Y-23.748
X24.497 Y-23.886
X24.312 Y-24.018
X24.112 Y-24.144
X23.896 Y-24.264
X23.669 Y-24.374
X23.43 Y-24.472
X23.183 Y-24.559
X22.932 Y-24.631
X22.675 Y-24.69
X22.416 Y-24.734
X22.156 Y-24.763
X21.928 Y-24.776
X21.686 Y-24.775
X21.462 Y-24.762
X21.261 Y-24.739
X21.04 Y-24.701
X20.851 Y-24.658
X20.665 Y-24.604
X20.652 Y-24.599
X20.334 Y-24.455
X20.045 Y-24.256
X19.795 Y-24.011
X19.592 Y-23.725
X19.442 Y-23.409
X19.35 Y-23.071
X19.318 Y-22.722
X19.313 Y-21.699
G2 X19.366 Y-21.471 I0.6 J-0.018 F350
X19.938 Y-21.118 I0.547 J-0.246 F850
G1 X25.111 Y-21.332
G2 X25.633 Y-21.685 I-0.025 J-0.599
X25.686 Y-21.913 I-0.547 J-0.246 F350
G1 X25.682 Y-22.92 F850
X25.673 Y-23.069
X25.655 Y-23.218
X25.622 Y-23.365
X25.578 Y-23.508
X25.524 Y-23.648
X25.46 Y-23.784
X25.388 Y-23.917
X25.306 Y-24.05
X25.208 Y-24.19
X25.096 Y-24.333
X24.972 Y-24.474
X24.832 Y-24.615
X24.675 Y-24.758
X24.503 Y-24.897
X24.318 Y-25.029
X24.119 Y-25.156
X23.904 Y-25.276
X23.678 Y-25.386
X23.441 Y-25.486
X23.195 Y-25.573
X22.945 Y-25.647
X22.689 Y-25.706
X22.431 Y-25.751
X22.172 Y-25.781
X21.944 Y-25.795
X21.703 Y-25.796
X21.478 Y-25.784
X21.278 Y-25.762
X21.057 Y-25.725
X20.867 Y-25.682
X20.682 Y-25.629
X20.665 Y-25.623
X20.345 Y-25.479
X20.054 Y-25.281
X19.803 Y-25.035
X19.599 Y-24.749
X19.448 Y-24.432
X19.355 Y-24.093
X19.322 Y-23.743
X19.318 Y-22.722
G2 X19.37 Y-22.494 I0.6 J-0.018 F350
X19.94 Y-22.141 I0.547 J-0.246 F850
G1 X25.105 Y-22.338
G2 X25.629 Y-22.691 I-0.023 J-0.6
X25.682 Y-22.92 I-0.547 J-0.246 F350
G1 X25.677 Y-23.926 F850
X25.669 Y-24.076
X25.651 Y-24.225
X25.62 Y-24.372
X25.577 Y-24.515
X25.523 Y-24.656
X25.461 Y-24.792
X25.389 Y-24.925
X25.308 Y-25.058
X25.211 Y-25.198
X25.1 Y-25.341
X24.977 Y-25.481
X24.839 Y-25.623
X24.683 Y-25.766
X24.512 Y-25.905
X24.329 Y-26.038
X24.131 Y-26.165
X23.918 Y-26.286
X23.693 Y-26.397
X23.457 Y-26.498
X23.212 Y-26.586
X22.964 Y-26.66
X22.708 Y-26.721
X22.451 Y-26.767
X22.193 Y-26.798
X21.965 Y-26.813
X21.724 Y-26.815
X21.499 Y-26.804
X21.299 Y-26.783
X21.077 Y-26.747
X20.886 Y-26.705
X20.702 Y-26.654
X20.679 Y-26.646
X20.357 Y-26.502
X20.064 Y-26.305
X19.811 Y-26.059
X19.606 Y-25.772
X19.453 Y-25.454
X19.359 Y-25.114
X19.327 Y-24.762
X19.322 Y-23.743
G2 X19.375 Y-23.515 I0.6 J-0.018 F350
X19.943 Y-23.162 I0.547 J-0.246 F850
G1 X25.099 Y-23.345
G2 X25.624 Y-23.698 I-0.021 J-0.6
X25.677 Y-23.926 I-0.547 J-0.246 F350
G1 X25.672 Y-24.994 F850
X25.664 Y-25.144
X25.641 Y-25.292
X25.605 Y-25.438
X25.559 Y-25.58
X25.502 Y-25.719
X25.436 Y-25.854
X25.361 Y-25.988
X25.272 Y-26.127
X25.173 Y-26.264
X25.058 Y-26.407
X24.926 Y-26.552
X24.783 Y-26.693
X24.625 Y-26.832
X24.449 Y-26.969
X24.257 Y-27.103
X24.052 Y-27.229
X23.836 Y-27.346
X23.61 Y-27.453
X23.372 Y-27.548
X23.126 Y-27.631
X22.877 Y-27.701
X22.62 Y-27.756
X22.362 Y-27.797
X22.111 Y-27.823
X21.887 Y-27.833
X21.642 Y-27.83
X21.433 Y-27.816
X21.223 Y-27.79
X21.01 Y-27.751
X20.829 Y-27.708
X20.753 Y-27.685
X20.417 Y-27.549
X20.11 Y-27.354
X19.844 Y-27.107
X19.626 Y-26.816
X19.465 Y-26.49
X19.366 Y-26.14
X19.331 Y-25.779
X19.327 Y-24.762
G2 X19.379 Y-24.534 I0.6 J-0.018 F350
X19.953 Y-24.181 I0.547 J-0.246 F850
G1 X25.1 Y-24.413
G2 X25.62 Y-24.766 I-0.027 J-0.599
X25.672 Y-24.994 I-0.547 J-0.246 F350
G1 X25.668 Y-26.001 F850
X25.66 Y-26.15
X25.638 Y-26.299
X25.604 Y-26.445
X25.558 Y-26.588
X25.502 Y-26.727
X25.437 Y-26.862
X25.364 Y-26.995
X25.279 Y-27.13
X25.179 Y-27.271
X25.065 Y-27.413
X24.939 Y-27.554
X24.796 Y-27.696
X24.636 Y-27.838
X24.463 Y-27.975
X24.278 Y-28.106
X24.076 Y-28.232
X23.86 Y-28.351
X23.634 Y-28.459
X23.396 Y-28.556
X23.151 Y-28.641
X22.902 Y-28.712
X22.646 Y-28.769
X22.39 Y-28.811
X22.152 Y-28.837
X21.912 Y-28.849
X21.671 Y-28.848
X21.468 Y-28.835
X21.244 Y-28.809
X21.039 Y-28.773
X20.857 Y-28.73
X20.77 Y-28.704
X20.431 Y-28.57
X20.121 Y-28.375
X19.853 Y-28.128
X19.634 Y-27.836
X19.471 Y-27.509
X19.371 Y-27.158
X19.336 Y-26.795
X19.331 Y-25.779
G2 X19.384 Y-25.551 I0.6 J-0.018 F350
X19.957 Y-25.198 I0.547 J-0.246 F850
G1 X25.094 Y-25.419
G2 X25.615 Y-25.773 I-0.026 J-0.599
X25.668 Y-26.001 I-0.547 J-0.246 F350
G1 X25.663 Y-27.007 F850
X25.655 Y-27.157
X25.635 Y-27.306
X25.602 Y-27.452
X25.557 Y-27.595
X25.502 Y-27.735
X25.438 Y-27.87
X25.365 Y-28.004
X25.282 Y-28.137
X25.183 Y-28.277
X25.07 Y-28.421
X24.945 Y-28.561
X24.804 Y-28.702
X24.646 Y-28.844
X24.474 Y-28.983
X24.289 Y-29.114
X24.09 Y-29.24
X23.877 Y-29.358
X23.652 Y-29.467
X23.415 Y-29.565
X23.173 Y-29.65
X22.923 Y-29.722
X22.669 Y-29.78
X22.414 Y-29.824
X22.175 Y-29.851
X21.935 Y-29.864
X21.693
X21.489 Y-29.852
X21.265 Y-29.827
X21.059 Y-29.792
X20.877 Y-29.75
X20.783 Y-29.723
X20.442 Y-29.589
X20.131 Y-29.395
X19.861 Y-29.148
X19.64 Y-28.855
X19.476 Y-28.527
X19.375 Y-28.175
X19.34 Y-27.811
X19.336 Y-26.795
G2 X19.388 Y-26.567 I0.6 J-0.018 F350
X19.96 Y-26.214 I0.547 J-0.246 F850
G1 X25.089 Y-26.426
G2 X25.611 Y-26.779 I-0.025 J-0.599
X25.663 Y-27.007 I-0.547 J-0.246 F350
G1 X25.659 Y-28.064 F850
X25.651 Y-28.214
X25.627 Y-28.362
X25.59 Y-28.507
X25.542 Y-28.649
X25.485 Y-28.788
X25.418 Y-28.922
X25.341 Y-29.058
X25.253 Y-29.195
X25.153 Y-29.333
X25.036 Y-29.475
X24.904 Y-29.619
X24.76 Y-29.759
X24.601 Y-29.898
X24.424 Y-30.035
X24.232 Y-30.167
X24.028 Y-30.291
X23.813 Y-30.406
X23.587 Y-30.511
X23.349 Y-30.605
X23.106 Y-30.686
X22.855 Y-30.755
X22.6 Y-30.809
X22.345 Y-30.848
X22.115 Y-30.87
X21.862 Y-30.88
X21.637 Y-30.877
X21.432 Y-30.862
X21.206 Y-30.832
X21.012 Y-30.796
X20.825 Y-30.75
X20.757 Y-30.729
X20.422 Y-30.592
X20.118 Y-30.397
X19.853 Y-30.15
X19.638 Y-29.859
X19.478 Y-29.534
X19.379 Y-29.186
X19.345 Y-28.826
X19.34 Y-27.811
G2 X19.393 Y-27.582 I0.6 J-0.018 F350
X19.97 Y-27.23 I0.547 J-0.246 F850
G1 X25.089 Y-27.483
G2 X25.606 Y-27.836 I-0.03 J-0.599
X25.659 Y-28.064 I-0.547 J-0.246 F350
G1 X25.654 Y-29.071 F850
X25.646 Y-29.22
X25.624 Y-29.369
X25.588 Y-29.514
X25.541 Y-29.657
X25.484 Y-29.796
X25.419 Y-29.931
X25.344 Y-30.063
X25.258 Y-30.198
X25.157 Y-30.339
X25.042 Y-30.481
X24.915 Y-30.621
X24.772 Y-30.762
X24.611 Y-30.903
X24.437 Y-31.039
X24.25 Y-31.169
X24.049 Y-31.294
X23.835 Y-31.409
X23.608 Y-31.516
X23.371 Y-31.612
X23.128 Y-31.694
X22.877 Y-31.764
X22.624 Y-31.819
X22.369 Y-31.859
X22.134 Y-31.883
X21.893 Y-31.894
X21.657 Y-31.892
X21.455 Y-31.878
X21.231 Y-31.85
X21.03 Y-31.813
X20.848 Y-31.77
X20.772 Y-31.747
X20.435 Y-31.611
X20.128 Y-31.416
X19.862 Y-31.169
X19.644 Y-30.878
X19.483 Y-30.552
X19.384 Y-30.202
X19.349 Y-29.841
X19.345 Y-28.826
G2 X19.397 Y-28.598 I0.6 J-0.018 F350
X19.973 Y-28.245 I0.547 J-0.246 F850
G1 X25.083 Y-28.49
G2 X25.602 Y-28.842 I-0.029 J-0.599
X25.654 Y-29.071 I-0.547 J-0.246 F350
G1 X25.65 Y-30.077 F850
X25.642 Y-30.227
X25.62 Y-30.376
X25.586 Y-30.521
X25.54 Y-30.664
X25.483 Y-30.803
X25.418 Y-30.939
X25.344 Y-31.072
X25.26 Y-31.205
X25.16 Y-31.345
X25.045 Y-31.488
X24.919 Y-31.627
X24.778 Y-31.768
X24.619 Y-31.909
X24.445 Y-32.046
X24.259 Y-32.176
X24.059 Y-32.301
X23.846 Y-32.417
X23.621 Y-32.524
X23.385 Y-32.62
X23.143 Y-32.703
X22.893 Y-32.773
X22.64 Y-32.829
X22.386 Y-32.871
X22.151 Y-32.895
X21.91 Y-32.907
X21.673 Y-32.906
X21.471 Y-32.893
X21.247 Y-32.866
X21.045 Y-32.83
X20.864 Y-32.787
X20.783 Y-32.763
X20.445 Y-32.627
X20.137 Y-32.433
X19.869 Y-32.186
X19.651 Y-31.894
X19.489 Y-31.568
X19.388 Y-31.217
X19.354 Y-30.855
X19.349 Y-29.841
G2 X19.402 Y-29.613 I0.6 J-0.018 F350
X19.977 Y-29.26 I0.547 J-0.246 F850
G1 X25.078 Y-29.496
G2 X25.597 Y-29.849 I-0.028 J-0.599
X25.65 Y-30.077 I-0.547 J-0.246 F350
G1 X25.645 Y-31.084 F850
X25.637 Y-31.234
X25.617 Y-31.382
X25.583 Y-31.529
X25.538 Y-31.672
X25.482 Y-31.811
X25.418 Y-31.946
X25.344 Y-32.08
X25.26 Y-32.213
X25.162 Y-32.352
X25.048 Y-32.494
X24.923 Y-32.634
X24.783 Y-32.774
X24.625 Y-32.915
X24.452 Y-33.052
X24.267 Y-33.183
X24.069 Y-33.307
X23.857 Y-33.423
X23.633 Y-33.531
X23.398 Y-33.628
X23.157 Y-33.711
X22.908 Y-33.782
X22.655 Y-33.839
X22.402 Y-33.881
X22.167 Y-33.907
X21.926 Y-33.919
X21.689
X21.487 Y-33.906
X21.263 Y-33.88
X21.06 Y-33.845
X20.879 Y-33.802
X20.795 Y-33.778
X20.455 Y-33.643
X20.145 Y-33.449
X19.876 Y-33.202
X19.657 Y-32.91
X19.494 Y-32.583
X19.393 Y-32.231
X19.358 Y-31.868
X19.354 Y-30.855
G2 X19.406 Y-30.626 I0.6 J-0.018 F350
X19.98 Y-30.273 I0.547 J-0.246 F850
G1 X25.073 Y-30.503
G2 X25.593 Y-30.856 I-0.027 J-0.599
X25.645 Y-31.084 I-0.547 J-0.246 F350
G1 X25.641 Y-32.091 F850
X25.633 Y-32.24
X25.613 Y-32.389
X25.58 Y-32.536
X25.535 Y-32.679
X25.48 Y-32.818
X25.416 Y-32.954
X25.343 Y-33.087
X25.261 Y-33.22
X25.163 Y-33.358
X25.05 Y-33.501
X24.926 Y-33.64
X24.787 Y-33.78
X24.63 Y-33.92
X24.458 Y-34.058
X24.274 Y-34.189
X24.077 Y-34.313
X23.867 Y-34.43
X23.644 Y-34.538
X23.409 Y-34.635
X23.169 Y-34.719
X22.921 Y-34.791
X22.669 Y-34.848
X22.416 Y-34.891
X22.181 Y-34.917
X21.94 Y-34.931
X21.703
X21.501 Y-34.919
X21.277 Y-34.893
X21.074 Y-34.859
X20.893 Y-34.817
X20.805 Y-34.791
X20.464 Y-34.658
X20.153 Y-34.464
X19.883 Y-34.216
X19.662 Y-33.924
X19.499 Y-33.596
X19.398 Y-33.244
X19.363 Y-32.88
X19.358 Y-31.868
G2 X19.411 Y-31.639 I0.6 J-0.018 F350
X19.984 Y-31.286 I0.547 J-0.246 F850
G1 X25.067 Y-31.51
G2 X25.588 Y-31.863 I-0.026 J-0.599
X25.641 Y-32.091 I-0.547 J-0.246 F350
G1 X25.636 Y-33.097 F850
X25.628 Y-33.247
X25.609 Y-33.396
X25.577 Y-33.542
X25.533 Y-33.686
X25.478 Y-33.826
X25.415 Y-33.961
X25.342 Y-34.095
X25.26 Y-34.227
X25.164 Y-34.365
X25.051 Y-34.507
X24.928 Y-34.647
X24.79 Y-34.786
X24.635 Y-34.926
X24.464 Y-35.064
X24.28 Y-35.195
X24.084 Y-35.32
X23.875 Y-35.436
X23.653 Y-35.544
X23.42 Y-35.642
X23.181 Y-35.726
X22.933 Y-35.798
X22.682 Y-35.857
X22.429 Y-35.9
X22.194 Y-35.927
X21.953 Y-35.941
X21.716 Y-35.942
X21.514 Y-35.931
X21.29 Y-35.906
X21.087 Y-35.872
X20.906 Y-35.83
X20.815 Y-35.804
X20.473 Y-35.671
X20.161 Y-35.477
X19.89 Y-35.23
X19.668 Y-34.937
X19.504 Y-34.609
X19.402 Y-34.256
X19.367 Y-33.891
X19.363 Y-32.88
G2 X19.415 Y-32.651 I0.6 J-0.018 F350
X19.988 Y-32.298 I0.547 J-0.246 F850
G1 X25.062 Y-32.516
G2 X25.584 Y-32.869 I-0.026 J-0.599
X25.636 Y-33.097 I-0.547 J-0.246 F350
G1 X25.632 Y-34.104 F850
X25.624 Y-34.254
X25.606 Y-34.403
X25.574 Y-34.549
X25.53 Y-34.693
X25.476 Y-34.833
X25.413 Y-34.969
X25.341 Y-35.102
X25.259 Y-35.234
X25.164 Y-35.371
X25.052 Y-35.513
X24.929 Y-35.653
X24.792 Y-35.792
X24.638 Y-35.932
X24.468 Y-36.07
X24.285 Y-36.201
X24.09 Y-36.326
X23.882 Y-36.442
X23.661 Y-36.551
X23.429 Y-36.649
X23.19 Y-36.733
X22.944 Y-36.806
X22.693 Y-36.865
X22.441 Y-36.909
X22.206 Y-36.936
X21.965 Y-36.951
X21.728 Y-36.952
X21.526 Y-36.941
X21.302 Y-36.917
X21.098 Y-36.883
X20.917 Y-36.843
X20.824 Y-36.816
X20.481 Y-36.683
X20.168 Y-36.49
X19.896 Y-36.243
X19.674 Y-35.95
X19.509 Y-35.621
X19.407 Y-35.267
X19.372 Y-34.901
X19.367 Y-33.891
G2 X19.42 Y-33.663 I0.6 J-0.018 F350
X19.992 Y-33.31 I0.547 J-0.246 F850
G1 X25.057 Y-33.523
G2 X25.579 Y-33.876 I-0.025 J-0.599
X25.632 Y-34.104 I-0.547 J-0.246 F350
G1 X25.627 Y-35.111 F850
X25.619 Y-35.261
X25.602 Y-35.41
X25.57 Y-35.556
X25.527 Y-35.7
X25.474 Y-35.84
X25.411 Y-35.976
X25.339 Y-36.109
X25.258 Y-36.241
X25.163 Y-36.378
X25.053 Y-36.52
X24.93 Y-36.66
X24.794 Y-36.798
X24.641 Y-36.938
X24.472 Y-37.075
X24.289 Y-37.207
X24.095 Y-37.332
X23.888 Y-37.448
X23.668 Y-37.557
X23.436 Y-37.655
X23.199 Y-37.74
X22.953 Y-37.813
X22.702 Y-37.872
X22.451 Y-37.917
X22.217 Y-37.945
X21.975 Y-37.96
X21.738 Y-37.961
X21.537 Y-37.951
X21.312 Y-37.927
X21.109 Y-37.894
X20.928 Y-37.854
X20.725 Y-37.796
X20.403 Y-37.653
X20.112 Y-37.455
X19.859 Y-37.209
X19.654 Y-36.923
X19.502 Y-36.605
X19.409 Y-36.265
X19.376 Y-35.915
X19.372 Y-34.901
G2 X19.424 Y-34.673 I0.6 J-0.018 F350
X19.996 Y-34.32 I0.547 J-0.246 F850
G1 X25.053 Y-34.53
G2 X25.575 Y-34.883 I-0.025 J-0.599
X25.627 Y-35.111 I-0.547 J-0.246 F350
G1 X25.623 Y-36.118 F850
X25.615 Y-36.267
X25.598 Y-36.416
X25.567 Y-36.563
X25.524 Y-36.707
X25.471 Y-36.847
X25.408 Y-36.984
X25.337 Y-37.116
X25.257 Y-37.248
X25.163 Y-37.384
X25.052 Y-37.526
X24.93 Y-37.666
X24.899 Y-37.698
X24.659 Y-37.907
X24.389 Y-38.076
X24.095 Y-38.199
X23.786 Y-38.275
X23.469 Y-38.3
G2 X23.241 Y-38.246 I0.021 J0.6 F350
X23.061 Y-37.28 I0.249 J0.546 F850
G1 X24.595 Y-35.716
G2 X25.57 Y-35.889 I0.428 J-0.42
X25.623 Y-36.118 I-0.547 J-0.246 F350
G1 X25.618 Y-37.174 F850
X25.61 Y-37.324
X25.535 Y-37.586
X25.402 Y-37.823
X25.217 Y-38.023
X24.99 Y-38.174
X24.734 Y-38.268
X24.464 Y-38.3
G2 X24.231 Y-38.267 I0.038 J1.095 F350
X23.45 Y-36.899 I0.271 J1.062 F850
X25.586 Y-36.941 I1.062 J-0.309
X25.618 Y-37.174 I-1.074 J-0.267 F350
G1 X25.616 Y-37.618 F850
X25.615 Y-37.718
X25.6 Y-37.819
X25.568 Y-37.915
X25.519 Y-38.01
X25.512 Y-38.02
X25.47 Y-38.079
X25.415 Y-38.138
X25.366 Y-38.179
X25.317 Y-38.212
X25.302 Y-38.222
X25.209 Y-38.264
X25.116 Y-38.29
X25.016 Y-38.3
X20.779
X20.63 Y-38.292
X20.344 Y-38.226
X20.078 Y-38.102
X19.842 Y-37.927
X19.648 Y-37.707
X19.502 Y-37.452
X19.412 Y-37.173
X19.38 Y-36.881
G2 X19.433 Y-36.653 I0.6 J-0.018 F350
X20.411 Y-36.481 I0.547 J-0.246 F850
G1 X21.189 Y-37.282
G2 X21.007 Y-38.246 I-0.43 J-0.418
X20.779 Y-38.3 I-0.249 J0.546 F350
G1 X20.085 F850
X20.055
X20.016
X19.937 Y-38.295
X19.903 Y-38.292
G2 X19.691 Y-38.196 I0.056 J0.405 F350
X20.003 Y-37.481 I0.267 J0.309 F850
G1 X20.047 Y-37.486
G2 X20.236 Y-38.226 I-0.045 J-0.406
X20.016 Y-38.3 I-0.234 J0.335 F350
G1 X19.984 F850
X19.884 Y-38.29
X19.833 Y-38.276
X19.791 Y-38.264
X19.698 Y-38.222
X19.683 Y-38.212
X19.634 Y-38.179
X19.585 Y-38.138
X19.53 Y-38.079
X19.488 Y-38.02
X19.481 Y-38.01
X19.432 Y-37.915
X19.4 Y-37.819
X19.385 Y-37.718
X19.384 Y-37.618
X19.376 Y-35.915
G2 X19.429 Y-35.686 I0.6 J-0.018 F350
G1 X19.467 Y-35.601 Z-14.973
X19.505 Y-35.517 Z-14.951
X19.541 Y-35.438 Z-14.915
X19.574 Y-35.365 Z-14.865
X19.603 Y-35.3 Z-14.804
X19.628 Y-35.244 Z-14.733
X19.648 Y-35.199 Z-14.652
X19.663 Y-35.166 Z-14.565
X19.672 Y-35.146 Z-14.474
X19.675 Y-35.139 Z-14.38
G0 Z5
X20.717 Y-286.578
Z-4.39
G1 Z-4.99 F350
G2 X21.935 Y-282.839 Z-5.154 I1.783 J1.487
X24.771 Y-285.556 Z-5.318 I0.565 J-2.249
X21.096 Y-286.929 Z-5.481 I-2.268 J0.467
X21.454 Y-283.028 Z-5.645 I1.404 J1.838
X24.809 Y-285.041 Z-5.809 I1.045 J-2.06
X21.542 Y-287.186 Z-5.973 I-2.307 J-0.047
X21.029 Y-283.317 Z-6.136 I0.958 J2.096
X24.733 Y-284.533 Z-6.3 I1.47 J-1.771
X22.032 Y-287.338 Z-6.464 I-2.231 J-0.554
X20.68 Y-283.692 Z-6.628 I0.469 J2.248
X24.547 Y-284.057 Z-6.791 I1.819 J-1.396
X22.542 Y-287.377 Z-6.955 I-2.045 J-1.031
X20.424 Y-284.134 Z-7.119 I-0.04 J2.287
X24.261 Y-283.635 Z-7.283 I2.075 J-0.955
X23.046 Y-287.303 Z-7.447 I-1.76 J-1.453
X20.272 Y-284.619 Z-7.61 I-0.544 J2.213
X23.89 Y-283.288 Z-7.774 I2.227 J-0.47
X23.519 Y-287.12 Z-7.938 I-1.389 J-1.799
X20.232 Y-285.124 Z-8.102 I-1.017 J2.03
X23.453 Y-283.033 Z-8.265 I2.267 J0.034
X23.938 Y-286.837 Z-8.429 I-0.952 J-2.055
X20.305 Y-285.624 Z-8.593 I-1.436 J1.748
X22.972 Y-282.881 Z-8.757 I2.195 J0.534
X24.283 Y-286.47 Z-8.92 I-0.472 J-2.206
X20.485 Y-286.093 Z-9.084 I-1.78 J1.381
X22.471 Y-282.84 Z-9.248 I2.015 J1.003
X24.536 Y-286.038 Z-9.412 I0.028 J-2.247
X20.764 Y-286.509 Z-9.576 I-2.034 J0.949
X21.976 Y-282.911 Z-9.739 I1.736 J1.418
X24.688 Y-285.561 Z-9.903 I0.523 J-2.177
X21.127 Y-286.852 Z-10.067 I-2.185 J0.473
X21.511 Y-283.089 Z-10.231 I1.373 J1.761
X24.729 Y-285.066 Z-10.394 I0.989 J-1.999
X21.555 Y-287.104 Z-10.558 I-2.227 J-0.023
X21.098 Y-283.365 Z-10.722 I0.946 J2.014
X24.66 Y-284.574 Z-10.886 I1.401 J-1.724
X22.027 Y-287.255 Z-11.05 I-2.159 J-0.513
X20.757 Y-283.723 Z-11.213 I0.474 J2.165
X24.485 Y-284.113 Z-11.377 I1.742 J-1.365
X22.518 Y-287.298 Z-11.541 I-1.984 J-0.975
X20.506 Y-284.147 Z-11.705 I-0.017 J2.207
X24.213 Y-283.703 Z-11.868 I1.993 J-0.942
X23.005 Y-287.231 Z-12.032 I-1.712 J-1.384
X20.355 Y-284.614 Z-12.196 I-0.503 J2.14
X23.858 Y-283.365 Z-12.36 I2.144 J-0.475
X23.463 Y-287.058 Z-12.523 I-1.357 J-1.723
X20.312 Y-285.101 Z-12.687 I-0.961 J1.968
X23.439 Y-283.115 Z-12.851 I2.187 J0.011
X23.87 Y-286.789 Z-13.015 I-0.939 J-1.973
X20.377 Y-285.583 Z-13.179 I-1.368 J1.7
X22.977 Y-282.964 Z-13.342 I2.122 J0.493
X24.206 Y-286.439 Z-13.506 I-0.477 J-2.123
X20.547 Y-286.038 Z-13.67 I-1.703 J1.349
X22.494 Y-282.92 Z-13.834 I1.953 J0.947
X24.455 Y-286.024 Z-13.997 I0.005 J-2.167
X20.812 Y-286.441 Z-14.161 I-1.952 J0.935
X22.016 Y-282.984 Z-14.325 I1.688 J1.351
X24.605 Y-285.566 Z-14.489 I0.483 J-2.104
X21.159 Y-286.775 Z-14.652 I-2.102 J0.477
X21.566 Y-283.151 Z-14.816 I1.341 J1.684
X24.649 Y-285.088 Z-14.98 I0.934 J-1.937
X20.349 I-2.15
X24.649 I2.15
G1 X24.674 Y-285.974 F850
X24.686 Y-286.084
Y-286.234
X24.668 Y-286.383
X24.558 Y-286.687
X24.383 Y-286.96
X24.153 Y-287.187
X23.878 Y-287.358
X23.572 Y-287.464
X23.251 Y-287.5
X21.695
X21.545 Y-287.492
X21.208 Y-287.413
X20.895 Y-287.266
X20.619 Y-287.057
X20.391 Y-286.796
X20.222 Y-286.494
X20.119 Y-286.164
X20.086 Y-285.819
G2 X20.141 Y-285.592 I0.599 J-0.025 F350
X21.123 Y-285.434 I0.544 J-0.253 F850
G1 X22.112 Y-286.49
G2 X21.923 Y-287.446 I-0.438 J-0.41
X21.695 Y-287.5 I-0.249 J0.546 F350
G1 X20.89 F850
X20.74 Y-287.492
X20.527 Y-287.42
X20.341 Y-287.291
X20.198 Y-287.117
X20.109 Y-286.91
X20.079 Y-286.686
G2 X20.124 Y-286.456 I0.786 J-0.033 F350
X20.31 Y-286.162 I0.742 J-0.264 F850
X21.456 Y-287.228 I0.553 J-0.555
X21.121 Y-287.457 I-0.594 J0.511
X20.89 Y-287.5 I-0.258 J0.74 F350
G1 X20.689 F850
X20.622 Y-287.495
X20.556 Y-287.483
X20.488 Y-287.462
X20.437 Y-287.441
X20.387 Y-287.414
X20.286 Y-287.343
X20.225 Y-287.282
X20.186 Y-287.232
X20.154 Y-287.181
X20.129 Y-287.131
X20.109 Y-287.081
X20.085 Y-286.983
X20.078 Y-286.879
X20.097 Y-284.262
X20.106 Y-284.112
X20.126 Y-283.963
X20.16 Y-283.817
X20.206 Y-283.674
X20.262 Y-283.535
X20.329 Y-283.401
X20.406 Y-283.272
X20.491 Y-283.149
X20.584 Y-283.031
X20.685 Y-282.92
X20.793 Y-282.816
X20.907 Y-282.718
X21.027 Y-282.628
X21.151 Y-282.545
X21.281 Y-282.469
X21.415 Y-282.401
X21.552 Y-282.341
X21.693 Y-282.288
X21.839 Y-282.243
X21.988 Y-282.206
X22.14 Y-282.177
X22.295 Y-282.157
X22.452 Y-282.145
X22.61 Y-282.142
X22.769 Y-282.148
X22.928 Y-282.163
X23.087 Y-282.188
X23.244 Y-282.221
X23.401 Y-282.263
X23.555 Y-282.314
X23.707 Y-282.374
X23.74 Y-282.389
X24.066 Y-282.578
X24.35 Y-282.825
X24.583 Y-283.121
X24.756 Y-283.455
X24.864 Y-283.816
X24.902 Y-284.19
X24.92 Y-286.587
X24.914 Y-286.737
X24.844 Y-286.98
X24.708 Y-287.193
X24.518 Y-287.359
X24.288 Y-287.464
X24.038 Y-287.5
G2 X23.807 Y-287.461 I0.031 J0.894 F350
X23.448 Y-287.249 I0.263 J0.855 F850
X24.598 Y-285.948 I0.604 J0.625
X24.879 Y-286.356 I-0.546 J-0.677
X24.92 Y-286.587 I-0.827 J-0.268 F350
G1 X24.922 Y-286.879 F850
X24.915 Y-286.983
X24.891 Y-287.081
X24.871 Y-287.131
X24.846 Y-287.181
X24.814 Y-287.232
X24.775 Y-287.282
X24.714 Y-287.343
X24.613 Y-287.414
X24.563 Y-287.441
X24.512 Y-287.462
X24.444 Y-287.483
X24.378 Y-287.495
X24.311 Y-287.5
X23.251
G2 X23.023 Y-287.446 I0.021 J0.6 F350
X22.841 Y-287.318 I0.249 J0.546 F850
G1 X20.266 Y-284.663
G2 X20.149 Y-284.49 I0.431 J0.418
X20.097 Y-284.262 I0.548 J0.245 F350
G1 X20.104 Y-283.346 F850
X20.113 Y-283.196
X20.133 Y-283.047
X20.17 Y-282.902
X20.222 Y-282.761
X20.285 Y-282.625
X20.36 Y-282.495
X20.444 Y-282.371
X20.537 Y-282.253
X20.638 Y-282.142
X20.745 Y-282.037
X20.859 Y-281.939
X20.978 Y-281.848
X21.104 Y-281.763
X21.238 Y-281.683
X21.38 Y-281.608
X21.531 Y-281.54
X21.69 Y-281.478
X21.855 Y-281.425
X22.026 Y-281.38
X22.202 Y-281.344
X22.382 Y-281.318
X22.562 Y-281.302
X22.727 Y-281.297
X22.916 Y-281.302
X23.097 Y-281.316
X23.255 Y-281.338
X23.315 Y-281.35
X23.681 Y-281.46
X24.019 Y-281.639
X24.315 Y-281.88
X24.559 Y-282.174
X24.741 Y-282.51
X24.855 Y-282.875
X24.895 Y-283.255
X24.902 Y-284.19
G2 X24.85 Y-284.418 I-0.6 J0.016 F350
X24.165 Y-284.758 I-0.548 J0.245 F850
G1 X20.567 Y-283.913
G2 X20.156 Y-283.574 I0.137 J0.584
X20.104 Y-283.346 I0.548 J0.245 F350
G1 X20.111 Y-282.49 F850
X20.119 Y-282.341
X20.144 Y-282.193
X20.186 Y-282.049
X20.241 Y-281.909
X20.308 Y-281.775
X20.385 Y-281.646
X20.472 Y-281.524
X20.567 Y-281.408
X20.669 Y-281.298
X20.778 Y-281.195
X20.895 Y-281.096
X21.022 Y-281
X21.157 Y-280.91
X21.301 Y-280.825
X21.456 Y-280.745
X21.62 Y-280.672
X21.791 Y-280.607
X21.958 Y-280.554
X22.121 Y-280.512
X22.311 Y-280.474
X22.485 Y-280.45
X22.644 Y-280.437
X22.826 Y-280.432
X23.003 Y-280.438
X23.158 Y-280.451
X23.324 Y-280.475
X23.687 Y-280.586
X24.022 Y-280.765
X24.315 Y-281.006
X24.556 Y-281.299
X24.737 Y-281.632
X24.849 Y-281.995
X24.888 Y-282.372
X24.895 Y-283.255
G2 X24.843 Y-283.483 I-0.6 J0.016 F350
X24.17 Y-283.825 I-0.548 J0.245 F850
G1 X20.585 Y-283.061
G2 X20.163 Y-282.719 I0.125 J0.587
X20.111 Y-282.49 I0.548 J0.245 F350
G1 X20.117 Y-281.644 F850
X20.126 Y-281.495
X20.154 Y-281.347
X20.198 Y-281.204
X20.255 Y-281.065
X20.323 Y-280.931
X20.401 Y-280.803
X20.488 Y-280.681
X20.583 Y-280.565
X20.685 Y-280.455
X20.793 Y-280.351
X20.911 Y-280.25
X21.039 Y-280.152
X21.175 Y-280.059
X21.323 Y-279.971
X21.48 Y-279.888
X21.643 Y-279.814
X21.814 Y-279.747
X21.979 Y-279.694
X22.135 Y-279.652
X22.319 Y-279.614
X22.491 Y-279.589
X22.646 Y-279.575
X22.822 Y-279.569
X22.999 Y-279.573
X23.153 Y-279.586
X23.313 Y-279.607
X23.365 Y-279.617
X23.716 Y-279.722
X24.04 Y-279.893
X24.325 Y-280.124
X24.559 Y-280.406
X24.734 Y-280.728
X24.843 Y-281.078
X24.881 Y-281.443
X24.888 Y-282.372
G2 X24.836 Y-282.6 I-0.6 J0.016 F350
X24.169 Y-282.944 I-0.548 J0.245 F850
G1 X20.597 Y-282.216
G2 X20.169 Y-281.873 I0.12 J0.588
X20.117 Y-281.644 I0.548 J0.245 F350
G1 X20.123 Y-280.839 F850
X20.132 Y-280.689
X20.156 Y-280.541
X20.196 Y-280.396
X20.249 Y-280.256
X20.314 Y-280.121
X20.389 Y-279.991
X20.473 Y-279.867
X20.565 Y-279.749
X20.665 Y-279.636
X20.77 Y-279.53
X20.885 Y-279.427
X21.01 Y-279.326
X21.145 Y-279.231
X21.289 Y-279.14
X21.441 Y-279.056
X21.601 Y-278.979
X21.767 Y-278.91
X21.938 Y-278.85
X22.096 Y-278.804
X22.274 Y-278.764
X22.456 Y-278.733
X22.615 Y-278.715
X22.782 Y-278.706
X22.964
X23.124 Y-278.715
X23.277 Y-278.733
X23.646 Y-278.835
X23.986 Y-279.007
X24.287 Y-279.244
X24.534 Y-279.535
X24.719 Y-279.87
X24.834 Y-280.234
X24.875 Y-280.614
X24.881 Y-281.443
G2 X24.829 Y-281.671 I-0.6 J0.016 F350
X24.181 Y-282.018 I-0.548 J0.245 F850
G1 X20.623 Y-281.414
G2 X20.175 Y-281.067 I0.1 J0.592
X20.123 Y-280.839 I0.548 J0.245 F350
G1 X20.13 Y-279.973 F850
X20.138 Y-279.823
X20.164 Y-279.675
X20.206 Y-279.531
X20.26 Y-279.391
X20.326 Y-279.256
X20.401 Y-279.127
X20.486 Y-279.003
X20.578 Y-278.885
X20.678 Y-278.773
X20.785 Y-278.665
X20.901 Y-278.561
X21.027 Y-278.461
X21.162 Y-278.365
X21.306 Y-278.275
X21.46 Y-278.19
X21.622 Y-278.112
X21.791 Y-278.042
X21.948 Y-277.987
X22.105 Y-277.942
X22.288 Y-277.901
X22.454 Y-277.873
X22.606 Y-277.856
X22.783 Y-277.847
X22.956
X23.107 Y-277.856
X23.267 Y-277.875
X23.442 Y-277.905
X23.774 Y-278.016
X24.08 Y-278.189
X24.347 Y-278.416
X24.567 Y-278.69
X24.73 Y-279.001
X24.832 Y-279.337
X24.868 Y-279.686
X24.875 Y-280.614
G2 X24.823 Y-280.843 I-0.6 J0.016 F350
X24.168 Y-281.188 I-0.548 J0.245 F850
G1 X20.623 Y-280.547
G2 X20.182 Y-280.201 I0.107 J0.59
X20.13 Y-279.973 I0.548 J0.245 F350
G1 X20.136 Y-279.117 F850
X20.145 Y-278.968
X20.171 Y-278.82
X20.212 Y-278.676
X20.266 Y-278.536
X20.331 Y-278.401
X20.406 Y-278.271
X20.49 Y-278.147
X20.582 Y-278.028
X20.682 Y-277.916
X20.788 Y-277.809
X20.903 Y-277.705
X21.027 Y-277.606
X21.16 Y-277.511
X21.303 Y-277.42
X21.456 Y-277.335
X21.616 Y-277.258
X21.782 Y-277.189
X21.955 Y-277.128
X22.122 Y-277.079
X22.283 Y-277.042
X22.467 Y-277.011
X22.635 Y-276.992
X22.79 Y-276.983
X22.969
X23.135 Y-276.992
X23.284 Y-277.009
X23.322 Y-277.015
X23.677 Y-277.113
X24.005 Y-277.279
X24.294 Y-277.506
X24.533 Y-277.787
X24.711 Y-278.109
X24.822 Y-278.46
X24.861 Y-278.825
X24.868 Y-279.686
G2 X24.816 Y-279.914 I-0.6 J0.016 F350
X24.173 Y-280.262 I-0.548 J0.245 F850
G1 X20.641 Y-279.693
G2 X20.188 Y-279.346 I0.095 J0.592
X20.136 Y-279.117 I0.548 J0.245 F350
G1 X20.143 Y-278.262 F850
X20.151 Y-278.112
X20.176 Y-277.965
X20.217 Y-277.82
X20.27 Y-277.68
X20.335 Y-277.545
X20.41 Y-277.415
X20.494 Y-277.291
X20.586 Y-277.172
X20.685 Y-277.059
X20.791 Y-276.952
X20.906 Y-276.848
X21.031 Y-276.748
X21.165 Y-276.651
X21.309 Y-276.56
X21.462 Y-276.474
X21.623 Y-276.396
X21.79 Y-276.326
X21.953 Y-276.268
X22.11 Y-276.222
X22.293 Y-276.18
X22.463 Y-276.15
X22.616 Y-276.132
X22.791 Y-276.122
X22.964
X23.116 Y-276.13
X23.274 Y-276.147
X23.638 Y-276.246
X23.975 Y-276.416
X24.273 Y-276.649
X24.518 Y-276.936
X24.701 Y-277.266
X24.815 Y-277.626
X24.855 Y-278.001
X24.861 Y-278.825
G2 X24.81 Y-279.054 I-0.6 J0.016 F350
X24.167 Y-279.402 I-0.548 J0.245 F850
G1 X20.648 Y-278.838
G2 X20.195 Y-278.491 I0.095 J0.592
X20.143 Y-278.262 I0.548 J0.245 F350
G1 X20.149 Y-277.416 F850
X20.158 Y-277.266
X20.181 Y-277.118
X20.22 Y-276.973
X20.272 Y-276.833
X20.336 Y-276.697
X20.41 Y-276.566
X20.493 Y-276.442
X20.584 Y-276.322
X20.683 Y-276.209
X20.787 Y-276.102
X20.901 Y-275.997
X21.024 Y-275.897
X21.157 Y-275.801
X21.299 Y-275.709
X21.451 Y-275.622
X21.61 Y-275.544
X21.776 Y-275.473
X21.933 Y-275.416
X22.086 Y-275.37
X22.266 Y-275.327
X22.432 Y-275.297
X22.583 Y-275.279
X22.756 Y-275.268
X22.929 Y-275.266
X23.081 Y-275.273
X23.236 Y-275.289
X23.607 Y-275.388
X23.951 Y-275.559
X24.254 Y-275.794
X24.504 Y-276.086
X24.691 Y-276.421
X24.808 Y-276.787
X24.849 Y-277.169
X24.855 Y-278.001
G2 X24.803 Y-278.23 I-0.6 J0.016 F350
X24.157 Y-278.577 I-0.548 J0.245 F850
G1 X20.65 Y-277.991
G2 X20.201 Y-277.644 I0.099 J0.592
X20.149 Y-277.416 I0.548 J0.245 F350
G1 X20.156 Y-276.55 F850
X20.164 Y-276.4
X20.188 Y-276.252
X20.228 Y-276.107
X20.281 Y-275.967
X20.345 Y-275.831
X20.419 Y-275.701
X20.502 Y-275.576
X20.594 Y-275.457
X20.692 Y-275.344
X20.798 Y-275.237
X20.912 Y-275.133
X21.035 Y-275.033
X21.166 Y-274.938
X21.307 Y-274.848
X21.458 Y-274.763
X21.615 Y-274.686
X21.78 Y-274.616
X21.931 Y-274.562
X22.088 Y-274.516
X22.267 Y-274.474
X22.428 Y-274.445
X22.579 Y-274.428
X22.755 Y-274.417
X22.924 Y-274.416
X23.074 Y-274.423
X23.233 Y-274.44
X23.406 Y-274.469
X23.741 Y-274.578
X24.048 Y-274.749
X24.317 Y-274.976
X24.538 Y-275.25
X24.703 Y-275.561
X24.806 Y-275.897
X24.842 Y-276.247
X24.849 Y-277.169
G2 X24.797 Y-277.397 I-0.6 J0.016 F350
X24.144 Y-277.743 I-0.548 J0.245 F850
G1 X20.651 Y-277.124
G2 X20.208 Y-276.778 I0.105 J0.591
X20.156 Y-276.55 I0.548 J0.245 F350
G1 X20.162 Y-275.695 F850
X20.171 Y-275.545
X20.194 Y-275.397
X20.233 Y-275.252
X20.286 Y-275.111
X20.349 Y-274.976
X20.424 Y-274.845
X20.507 Y-274.72
X20.598 Y-274.601
X20.697 Y-274.488
X20.802 Y-274.381
X20.916 Y-274.278
X21.038 Y-274.179
X21.168 Y-274.086
X21.308 Y-273.996
X21.458 Y-273.912
X21.614 Y-273.835
X21.778 Y-273.766
X21.95 Y-273.705
X22.111 Y-273.658
X22.272 Y-273.62
X22.454 Y-273.588
X22.616 Y-273.569
X22.771 Y-273.559
X22.949
X23.112 Y-273.567
X23.261 Y-273.583
X23.285 Y-273.587
X23.642 Y-273.684
X23.973 Y-273.85
X24.264 Y-274.078
X24.504 Y-274.359
X24.684 Y-274.682
X24.796 Y-275.035
X24.836 Y-275.403
X24.842 Y-276.247
G2 X24.79 Y-276.476 I-0.6 J0.016 F350
X24.148 Y-276.823 I-0.548 J0.245 F850
G1 X20.668 Y-276.271
G2 X20.214 Y-275.923 I0.094 J0.593
X20.162 Y-275.695 I0.548 J0.245 F350
G1 X20.169 Y-274.839 F850
X20.177 Y-274.69
X20.201 Y-274.541
X20.239 Y-274.397
X20.292 Y-274.256
X20.356 Y-274.12
X20.43 Y-273.99
X20.513 Y-273.865
X20.605 Y-273.746
X20.703 Y-273.633
X20.809 Y-273.527
X20.923 Y-273.423
X21.046 Y-273.323
X21.178 Y-273.228
X21.319 Y-273.138
X21.47 Y-273.054
X21.629 Y-272.976
X21.794 Y-272.906
X21.951 Y-272.851
X22.107 Y-272.805
X22.287 Y-272.762
X22.451 Y-272.734
X22.602 Y-272.716
X22.777 Y-272.705
X22.947
X23.097 Y-272.712
X23.255 Y-272.73
X23.617 Y-272.828
X23.953 Y-272.996
X24.249 Y-273.228
X24.493 Y-273.514
X24.675 Y-273.842
X24.789 Y-274.2
X24.829 Y-274.574
X24.836 Y-275.403
G2 X24.784 Y-275.631 I-0.6 J0.016 F350
X24.14 Y-275.978 I-0.548 J0.245 F850
G1 X20.672 Y-275.415
G2 X20.221 Y-275.068 I0.096 J0.592
X20.169 Y-274.839 I0.548 J0.245 F350
G1 X20.175 Y-273.993 F850
X20.184 Y-273.844
X20.206 Y-273.695
X20.244 Y-273.55
X20.295 Y-273.409
X20.359 Y-273.273
X20.432 Y-273.143
X20.515 Y-273.017
X20.606 Y-272.898
X20.704 Y-272.785
X20.809 Y-272.677
X20.922 Y-272.574
X21.044 Y-272.475
X21.174 Y-272.38
X21.314 Y-272.29
X21.464 Y-272.205
X21.621 Y-272.128
X21.785 Y-272.058
X21.938 Y-272.003
X22.091 Y-271.957
X22.269 Y-271.915
X22.431 Y-271.886
X22.581 Y-271.868
X22.754 Y-271.857
X22.923 Y-271.855
X23.073 Y-271.863
X23.229 Y-271.879
X23.596 Y-271.977
X23.936 Y-272.146
X24.235 Y-272.38
X24.482 Y-272.668
X24.667 Y-273
X24.782 Y-273.361
X24.823 Y-273.739
X24.829 Y-274.574
G2 X24.777 Y-274.802 I-0.6 J0.016 F350
X24.13 Y-275.149 I-0.548 J0.245 F850
G1 X20.675 Y-274.569
G2 X20.227 Y-274.222 I0.099 J0.592
X20.175 Y-273.993 I0.548 J0.245 F350
G1 X20.182 Y-273.127 F850
X20.19 Y-272.977
X20.214 Y-272.829
X20.253 Y-272.684
X20.305 Y-272.544
X20.37 Y-272.408
X20.444 Y-272.278
X20.527 Y-272.153
X20.619 Y-272.034
X20.718 Y-271.922
X20.823 Y-271.815
X20.937 Y-271.712
X21.06 Y-271.613
X21.19 Y-271.52
X21.33 Y-271.431
X21.479 Y-271.348
X21.635 Y-271.272
X21.798 Y-271.204
X21.946 Y-271.152
X22.104 Y-271.106
X22.281 Y-271.065
X22.438 Y-271.038
X22.588 Y-271.021
X22.764 Y-271.01
X22.93
X23.079 Y-271.018
X23.24 Y-271.036
X23.604 Y-271.136
X23.94 Y-271.306
X24.236 Y-271.539
X24.48 Y-271.826
X24.663 Y-272.155
X24.776 Y-272.514
X24.816 Y-272.889
X24.823 Y-273.739
G2 X24.771 Y-273.967 I-0.6 J0.016 F350
X24.118 Y-274.313 I-0.548 J0.245 F850
G1 X20.676 Y-273.701
G2 X20.234 Y-273.355 I0.105 J0.591
X20.182 Y-273.127 I0.548 J0.245 F350
G1 X20.188 Y-272.272 F850
X20.197 Y-272.122
X20.22 Y-271.974
X20.26 Y-271.829
X20.312 Y-271.689
X20.377 Y-271.553
X20.451 Y-271.423
X20.535 Y-271.299
X20.627 Y-271.18
X20.726 Y-271.067
X20.832 Y-270.961
X20.946 Y-270.859
X21.068 Y-270.761
X21.198 Y-270.669
X21.337 Y-270.581
X21.486 Y-270.499
X21.641 Y-270.424
X21.804 Y-270.356
X21.953 Y-270.304
X22.11 Y-270.259
X22.287 Y-270.219
X22.445 Y-270.192
X22.595 Y-270.175
X22.77 Y-270.165
X22.936 Y-270.166
X23.085 Y-270.174
X23.2 Y-270.187
X23.567 Y-270.269
X23.909 Y-270.424
X24.212 Y-270.646
X24.463 Y-270.925
X24.651 Y-271.25
X24.768 Y-271.607
X24.81 Y-271.98
X24.816 Y-272.889
G2 X24.765 Y-273.117 I-0.6 J0.016 F350
X24.11 Y-273.463 I-0.548 J0.245 F850
G1 X20.682 Y-272.846
G2 X20.24 Y-272.5 I0.106 J0.591
X20.188 Y-272.272 I0.548 J0.245 F350
G1 X20.195 Y-271.417 F850
X20.203 Y-271.267
X20.227 Y-271.119
X20.267 Y-270.974
X20.32 Y-270.834
X20.385 Y-270.699
X20.46 Y-270.569
X20.544 Y-270.445
X20.637 Y-270.326
X20.736 Y-270.214
X20.842 Y-270.108
X20.957 Y-270.007
X21.079 Y-269.91
X21.21 Y-269.817
X21.349 Y-269.73
X21.498 Y-269.649
X21.654 Y-269.574
X21.811 Y-269.51
X21.965 Y-269.456
X22.146 Y-269.405
X22.313 Y-269.368
X22.463 Y-269.343
X22.634 Y-269.324
X22.809 Y-269.316
X22.962
X23.113 Y-269.326
X23.152 Y-269.33
X23.483 Y-269.4
X23.795 Y-269.528
X24.079 Y-269.71
X24.326 Y-269.94
X24.528 Y-270.211
X24.678 Y-270.514
X24.771 Y-270.838
X24.804 Y-271.174
X24.81 Y-271.98
G2 X24.758 Y-272.208 I-0.6 J0.016 F350
X24.112 Y-272.555 I-0.548 J0.245 F850
G1 X20.697 Y-271.992
G2 X20.247 Y-271.645 I0.098 J0.592
X20.195 Y-271.417 I0.548 J0.245 F350
G1 X20.201 Y-270.57 F850
X20.21 Y-270.421
X20.234 Y-270.273
X20.273 Y-270.128
X20.326 Y-269.988
X20.391 Y-269.852
X20.466 Y-269.723
X20.55 Y-269.598
X20.643 Y-269.48
X20.742 Y-269.368
X20.848 Y-269.262
X20.962 Y-269.161
X21.085 Y-269.063
X21.216 Y-268.97
X21.358 Y-268.882
X21.507 Y-268.8
X21.663 Y-268.725
X21.812 Y-268.664
X21.97 Y-268.609
X22.142 Y-268.56
X22.294 Y-268.526
X22.453 Y-268.5
X22.627 Y-268.481
X22.781 Y-268.473
X22.935 Y-268.474
X23.107 Y-268.484
X23.26 Y-268.502
X23.615 Y-268.601
X23.943 Y-268.768
X24.231 Y-268.997
X24.469 Y-269.278
X24.647 Y-269.6
X24.758 Y-269.952
X24.797 Y-270.318
X24.804 Y-271.174
G2 X24.752 Y-271.403 I-0.6 J0.016 F350
X24.099 Y-271.749 I-0.548 J0.245 F850
G1 X20.696 Y-271.145
G2 X20.253 Y-270.799 I0.105 J0.591
X20.201 Y-270.57 I0.548 J0.245 F350
G1 X20.208 Y-269.704 F850
X20.216 Y-269.554
X20.242 Y-269.407
X20.284 Y-269.263
X20.339 Y-269.123
X20.405 Y-268.988
X20.481 Y-268.859
X20.566 Y-268.736
X20.66 Y-268.618
X20.76 Y-268.507
X20.867 Y-268.402
X20.982 Y-268.301
X21.106 Y-268.204
X21.239 Y-268.112
X21.379 Y-268.026
X21.527 Y-267.947
X21.684 Y-267.873
X21.847 Y-267.808
X21.994 Y-267.758
X22.155 Y-267.714
X22.33 Y-267.676
X22.485 Y-267.652
X22.636 Y-267.636
X22.812 Y-267.629
X22.973 Y-267.631
X23.122 Y-267.641
X23.287 Y-267.662
X23.635 Y-267.763
X23.956 Y-267.93
X24.238 Y-268.157
X24.471 Y-268.434
X24.644 Y-268.752
X24.752 Y-269.097
X24.79 Y-269.457
X24.797 Y-270.318
G2 X24.745 Y-270.546 I-0.6 J0.016 F350
X24.09 Y-270.892 I-0.548 J0.245 F850
G1 X20.701 Y-270.278
G2 X20.26 Y-269.932 I0.107 J0.59
X20.208 Y-269.704 I0.548 J0.245 F350
G1 X20.214 Y-268.849 F850
X20.223 Y-268.699
X20.25 Y-268.552
X20.292 Y-268.408
X20.348 Y-268.268
X20.415 Y-268.134
X20.492 Y-268.005
X20.577 Y-267.882
X20.671 Y-267.765
X20.772 Y-267.654
X20.88 Y-267.55
X20.995 Y-267.449
X21.119 Y-267.353
X21.251 Y-267.263
X21.392 Y-267.177
X21.542 Y-267.097
X21.698 Y-267.025
X21.862 Y-266.96
X22.012 Y-266.91
X22.17 Y-266.867
X22.346 Y-266.83
X22.502 Y-266.806
X22.653 Y-266.791
X22.827 Y-266.785
X22.988 Y-266.787
X23.138 Y-266.798
X23.301 Y-266.82
X23.644 Y-266.921
X23.961 Y-267.087
X24.24 Y-267.311
X24.469 Y-267.586
X24.64 Y-267.9
X24.746 Y-268.242
X24.784 Y-268.597
X24.79 Y-269.457
G2 X24.739 Y-269.685 I-0.6 J0.016 F350
X24.084 Y-270.031 I-0.548 J0.245 F850
G1 X20.708 Y-269.423
G2 X20.266 Y-269.077 I0.106 J0.59
X20.214 Y-268.849 I0.548 J0.245 F350
G1 X20.22 Y-268.044 F850
X20.229 Y-267.894
X20.251 Y-267.745
X20.289 Y-267.6
X20.341 Y-267.46
X20.405 Y-267.324
X20.479 Y-267.194
X20.563 Y-267.069
X20.655 Y-266.951
X20.754 Y-266.838
X20.86 Y-266.732
X20.972 Y-266.631
X21.092 Y-266.535
X21.221 Y-266.443
X21.361 Y-266.355
X21.51 Y-266.273
X21.665 Y-266.199
X21.826 Y-266.132
X21.981 Y-266.078
X22.131 Y-266.034
X22.307 Y-265.995
X22.469 Y-265.967
X22.618 Y-265.951
X22.787 Y-265.942
X22.954
X23.103 Y-265.951
X23.258 Y-265.969
X23.608 Y-266.067
X23.933 Y-266.232
X24.218 Y-266.458
X24.453 Y-266.735
X24.629 Y-267.054
X24.739 Y-267.401
X24.778 Y-267.763
X24.784 Y-268.597
G2 X24.732 Y-268.826 I-0.6 J0.016 F350
X24.087 Y-269.173 I-0.548 J0.245 F850
G1 X20.723 Y-268.619
G2 X20.272 Y-268.272 I0.097 J0.592
X20.22 Y-268.044 I0.548 J0.245 F350
G1 X20.227 Y-267.188 F850
X20.235 Y-267.039
X20.259 Y-266.891
X20.298 Y-266.746
X20.351 Y-266.605
X20.416 Y-266.47
X20.491 Y-266.34
X20.575 Y-266.216
X20.668 Y-266.098
X20.767 Y-265.986
X20.874 Y-265.88
X20.988 Y-265.779
X21.11 Y-265.682
X21.24 Y-265.591
X21.379 Y-265.504
X21.527 Y-265.423
X21.682 Y-265.35
X21.843 Y-265.284
X21.99 Y-265.234
X22.148 Y-265.189
X22.321 Y-265.151
X22.475 Y-265.125
X22.625 Y-265.109
X22.798 Y-265.101
X22.958 Y-265.102
X23.108 Y-265.111
X23.138 Y-265.115
X23.465 Y-265.186
X23.775 Y-265.313
X24.056 Y-265.494
