%
(1001)
(length along y axis. Origin far top left)
(T2  D=6 CR=0 - ZMIN=-22 - flat end mill)
G90 G94
G17
G21

(2D Adaptive11)
M9
T2 M6
S6000 M3
G54
M9
G0 X20.717 Y-35.682
Z15
Z5
Z3.1
G1 Z2.5 F350
G2 X21.934 Y-31.943 Z2.336 I1.783 J1.487
X24.771 Y-34.66 Z2.172 I0.565 J-2.249
X21.096 Y-36.033 Z2.009 I-2.268 J0.467
X21.454 Y-32.132 Z1.845 I1.404 J1.838
X24.809 Y-34.146 Z1.681 I1.045 J-2.06
X21.542 Y-36.291 Z1.517 I-2.307 J-0.047
X21.029 Y-32.421 Z1.354 I0.958 J2.096
X24.733 Y-33.638 Z1.19 I1.47 J-1.771
X22.032 Y-36.442 Z1.026 I-2.231 J-0.554
X20.68 Y-32.796 Z0.862 I0.469 J2.248
X24.547 Y-33.161 Z0.699 I1.819 J-1.397
X22.542 Y-36.482 Z0.535 I-2.045 J-1.031
X20.424 Y-33.238 Z0.371 I-0.04 J2.287
X24.261 Y-32.739 Z0.207 I2.075 J-0.955
X23.046 Y-36.407 Z0.043 I-1.76 J-1.453
X20.272 Y-33.723 Z-0.12 I-0.544 J2.213
X23.89 Y-32.392 Z-0.284 I2.227 J-0.47
X23.519 Y-36.224 Z-0.448 I-1.389 J-1.799
X20.232 Y-34.228 Z-0.612 I-1.017 J2.03
X23.453 Y-32.137 Z-0.775 I2.267 J0.034
X23.938 Y-35.941 Z-0.939 I-0.952 J-2.055
X20.304 Y-34.728 Z-1.103 I-1.436 J1.748
X22.972 Y-31.985 Z-1.267 I2.195 J0.534
X24.282 Y-35.574 Z-1.43 I-0.472 J-2.206
X20.485 Y-35.197 Z-1.594 I-1.78 J1.381
X22.471 Y-31.944 Z-1.758 I2.015 J1.003
X24.536 Y-35.142 Z-1.922 I0.028 J-2.247
X20.764 Y-35.613 Z-2.086 I-2.034 J0.949
X21.976 Y-32.015 Z-2.249 I1.736 J1.418
X24.687 Y-34.666 Z-2.413 I0.523 J-2.177
X21.127 Y-35.956 Z-2.577 I-2.185 J0.473
X21.51 Y-32.193 Z-2.741 I1.373 J1.761
X24.729 Y-34.17 Z-2.904 I0.989 J-1.999
X21.555 Y-36.208 Z-3.068 I-2.227 J-0.023
X21.097 Y-32.469 Z-3.232 I0.946 J2.014
X24.66 Y-33.679 Z-3.396 I1.401 J-1.724
X22.027 Y-36.359 Z-3.56 I-2.159 J-0.513
X20.757 Y-32.828 Z-3.723 I0.474 J2.165
X24.485 Y-33.217 Z-3.887 I1.742 J-1.365
X22.518 Y-36.402 Z-4.051 I-1.984 J-0.975
X20.506 Y-33.251 Z-4.215 I-0.017 J2.207
X24.213 Y-32.807 Z-4.378 I1.993 J-0.942
X23.005 Y-36.335 Z-4.542 I-1.712 J-1.384
X20.355 Y-33.718 Z-4.706 I-0.503 J2.14
X23.858 Y-32.469 Z-4.87 I2.144 J-0.476
X23.463 Y-36.162 Z-5.033 I-1.357 J-1.723
X20.312 Y-34.205 Z-5.197 I-0.961 J1.968
X23.439 Y-32.219 Z-5.361 I2.187 J0.011
X23.87 Y-35.893 Z-5.525 I-0.939 J-1.973
X20.377 Y-34.688 Z-5.689 I-1.368 J1.7
X22.976 Y-32.068 Z-5.852 I2.122 J0.493
X24.206 Y-35.543 Z-6.016 I-0.477 J-2.123
X20.547 Y-35.142 Z-6.18 I-1.703 J1.349
X22.494 Y-32.024 Z-6.344 I1.953 J0.947
X24.454 Y-35.128 Z-6.507 I0.005 J-2.167
X20.812 Y-35.546 Z-6.671 I-1.952 J0.935
X22.016 Y-32.088 Z-6.835 I1.688 J1.351
X24.605 Y-34.67 Z-6.999 I0.483 J-2.104
X21.159 Y-35.879 Z-7.162 I-2.102 J0.477
X21.565 Y-32.255 Z-7.326 I1.341 J1.684
X24.649 Y-34.192 Z-7.49 I0.934 J-1.937
X20.349 I-2.15
X24.649 I2.15
G1 X24.674 Y-35.078 F850
X24.686 Y-35.188
Y-35.338
X24.667 Y-35.487
X24.633 Y-35.633
X24.583 Y-35.775
X24.521 Y-35.911
X24.448 Y-36.042
X24.365 Y-36.167
X24.272 Y-36.285
X24.171 Y-36.396
X24.063 Y-36.499
X23.948 Y-36.595
X23.826 Y-36.684
X23.7 Y-36.764
X23.568 Y-36.836
X23.433 Y-36.9
X23.293 Y-36.956
X23.151 Y-37.004
X23.006 Y-37.043
X22.86 Y-37.074
X22.711 Y-37.096
X22.559 Y-37.11
X22.406 Y-37.116
X22.252 Y-37.113
X22.096 Y-37.101
X21.941 Y-37.081
X21.786 Y-37.051
X21.631 Y-37.013
X21.479 Y-36.965
X21.329 Y-36.909
X21.181 Y-36.845
X21.037 Y-36.771
X20.896 Y-36.69
X20.76 Y-36.6
X20.629 Y-36.503
X20.503 Y-36.398
X20.383 Y-36.286
X20.269 Y-36.167
X20.162 Y-36.041
X20.062 Y-35.909
X19.969 Y-35.772
X19.884 Y-35.63
X19.807 Y-35.482
X19.739 Y-35.331
X19.679 Y-35.175
X19.627 Y-35.016
X19.585 Y-34.855
X19.552 Y-34.691
X19.528 Y-34.525
X19.513 Y-34.359
X19.508 Y-34.191
X19.512 Y-34.023
X19.526 Y-33.856
X19.549 Y-33.69
X19.582 Y-33.525
X19.623 Y-33.362
X19.674 Y-33.202
X19.734 Y-33.045
X19.803 Y-32.892
X19.88 Y-32.742
X19.965 Y-32.597
X20.059 Y-32.457
X20.16 Y-32.323
X20.269 Y-32.194
X20.384 Y-32.072
X20.507 Y-31.956
X20.636 Y-31.847
X20.77 Y-31.746
X20.911 Y-31.653
X21.056 Y-31.567
X21.206 Y-31.49
X21.36 Y-31.422
X21.518 Y-31.362
X21.678 Y-31.311
X21.842 Y-31.269
X22.007 Y-31.237
X22.174 Y-31.214
X22.343 Y-31.2
X22.511 Y-31.196
X22.68 Y-31.202
X22.848 Y-31.217
X23.015 Y-31.241
X23.18 Y-31.275
X23.343 Y-31.318
X23.504 Y-31.37
X23.661 Y-31.431
X23.815 Y-31.5
X23.964 Y-31.579
X24.109 Y-31.665
X24.249 Y-31.76
X24.383 Y-31.862
X24.511 Y-31.972
X24.633 Y-32.089
X24.748 Y-32.212
X24.856 Y-32.342
X24.956 Y-32.477
X25.049 Y-32.618
X25.145 Y-32.785
X25.251 Y-32.994
X25.375 Y-33.277
X25.476 Y-33.549
X25.55 Y-33.789
X25.605 Y-34.01
X25.645 Y-34.224
X25.672 Y-34.429
X25.687 Y-34.624
X25.69 Y-34.812
X25.683 Y-34.999
X25.665 Y-35.183
X25.638 Y-35.361
X25.602 Y-35.535
X25.556 Y-35.705
X25.5 Y-35.872
X25.435 Y-36.038
X25.36 Y-36.199
X25.277 Y-36.356
X25.185 Y-36.508
X25.083 Y-36.655
X24.974 Y-36.797
X24.855 Y-36.934
X24.728 Y-37.064
X24.593 Y-37.189
X24.45 Y-37.307
X24.299 Y-37.417
X24.14 Y-37.52
X24.11 Y-37.537
X23.796 Y-37.682
X23.462 Y-37.77
X23.119 Y-37.8
X21.896
X21.711 Y-37.791
X21.546 Y-37.773
X21.378 Y-37.746
X21.209 Y-37.708
X21.038 Y-37.66
X20.868 Y-37.601
X20.698 Y-37.532
X20.529 Y-37.451
X20.362 Y-37.36
X20.197 Y-37.257
X20.037 Y-37.144
X19.882 Y-37.021
X19.732 Y-36.888
X19.588 Y-36.746
X19.448 Y-36.589
X19.259 Y-36.308
X19.121 Y-35.999
X19.036 Y-35.672
X19.008 Y-35.335
G2 X19.062 Y-35.107 I0.6 J-0.022 F350
X19.986 Y-34.891 I0.546 J-0.25 F850
G1 X22.254 Y-36.735
G2 X22.124 Y-37.746 I-0.379 J-0.466
X21.896 Y-37.8 I-0.249 J0.546 F350
G1 X20.488 F850
X20.338 Y-37.792
X20.033 Y-37.725
X19.748 Y-37.595
X19.497 Y-37.409
X19.289 Y-37.176
X19.134 Y-36.905
X19.039 Y-36.607
X19.007 Y-36.296
G2 X19.061 Y-36.069 I0.6 J-0.022 F350
X20.036 Y-35.899 I0.546 J-0.25 F850
G1 X20.896 Y-36.781
G2 X20.715 Y-37.746 I-0.43 J-0.419
X20.488 Y-37.8 I-0.249 J0.546 F350
G1 X19.723 F850
X19.683
X19.652
X19.564 Y-37.793
X19.523 Y-37.789
X19.481 Y-37.783
G2 X19.28 Y-37.664 I0.169 J0.516 F350
X19.11 Y-37.215 I0.37 J0.397 F850
X20.172 Y-37.318 I0.531 J-0.051
X19.879 Y-37.744 I-0.531 J0.051
X19.652 Y-37.8 I-0.238 J0.477 F350
G1 X19.582 Y-37.799 F850
X19.481 Y-37.783
X19.454 Y-37.775
X19.431 Y-37.769
X19.381 Y-37.749
X19.33 Y-37.724
X19.28 Y-37.692
X19.19 Y-37.618
X19.126 Y-37.545
X19.079 Y-37.472
X19.052 Y-37.416
X19.034 Y-37.366
X19.02 Y-37.316
X19.006 Y-37.215
Y-36.812
X19.011 Y-33.389
X19.021 Y-33.203
X19.037 Y-33.054
X19.062 Y-32.906
X19.096 Y-32.756
X19.14 Y-32.602
X19.195 Y-32.445
X19.26 Y-32.289
X19.335 Y-32.133
X19.421 Y-31.979
X19.517 Y-31.826
X19.624 Y-31.675
X19.742 Y-31.528
X19.87 Y-31.385
X20.008 Y-31.248
X20.155 Y-31.117
X20.312 Y-30.992
X20.477 Y-30.876
X20.65 Y-30.768
X20.83 Y-30.669
X21.017 Y-30.58
X21.21 Y-30.501
X21.409 Y-30.432
X21.612 Y-30.375
X21.819 Y-30.328
X22.03 Y-30.293
X22.243 Y-30.27
X22.458 Y-30.259
X22.675 Y-30.261
X22.891 Y-30.274
X23.107 Y-30.299
X23.322 Y-30.337
X23.535 Y-30.387
X23.745 Y-30.449
X23.952 Y-30.523
X24.154 Y-30.609
X24.352 Y-30.706
X24.544 Y-30.814
X24.73 Y-30.933
X24.912 Y-31.064
X25.092 Y-31.21
X25.274 Y-31.375
X25.452 Y-31.556
X25.491 Y-31.601
X25.703 Y-31.891
X25.859 Y-32.214
X25.956 Y-32.56
X25.988 Y-32.917
X25.993 Y-35.916
X25.985 Y-36.066
X25.969 Y-36.215
X25.965 Y-36.242
X25.863 Y-36.603
X25.693 Y-36.937
X25.459 Y-37.231
X25.171 Y-37.472
X24.842 Y-37.652
X24.483 Y-37.763
X24.11 Y-37.8
G2 X23.882 Y-37.746 I0.021 J0.6 F350
X23.707 Y-36.776 I0.249 J0.546 F850
G1 X24.969 Y-35.514
G2 X25.939 Y-35.688 I0.424 J-0.424
X25.993 Y-35.916 I-0.546 J-0.25 F350
G1 X25.994 Y-36.873 F850
X25.987 Y-37.023
X25.906 Y-37.272
X25.759 Y-37.489
X25.558 Y-37.657
X25.319 Y-37.764
X25.06 Y-37.8
G2 X24.828 Y-37.761 I0.031 J0.895 F350
X24.225 Y-36.674 I0.263 J0.856 F850
X25.955 Y-36.641 I0.869 J-0.232
X25.994 Y-36.873 I-0.86 J-0.264 F350
G1 Y-37.215 F850
X25.98 Y-37.316
X25.966 Y-37.366
X25.948 Y-37.416
X25.921 Y-37.472
X25.874 Y-37.545
X25.81 Y-37.618
X25.72 Y-37.692
X25.67 Y-37.724
X25.619 Y-37.749
X25.569 Y-37.769
X25.519 Y-37.783
X25.418 Y-37.799
X25.317 Y-37.8
X23.119
G2 X22.891 Y-37.746 I0.021 J0.6 F350
X22.698 Y-37.607 I0.249 J0.546 F850
G1 X19.169 Y-33.776
G2 X19.064 Y-33.617 I0.441 J0.406
X19.011 Y-33.389 I0.546 J0.248 F350
G1 X19.013 Y-32.071 F850
X19.021 Y-31.921
X19.039 Y-31.772
X19.071 Y-31.625
X19.113 Y-31.481
X19.165 Y-31.341
X19.226 Y-31.203
X19.295 Y-31.07
X19.375 Y-30.935
X19.467 Y-30.798
X19.571 Y-30.661
X19.685 Y-30.526
X19.813 Y-30.392
X19.954 Y-30.26
X20.108 Y-30.131
X20.273 Y-30.008
X20.448 Y-29.892
X20.634 Y-29.783
X20.832 Y-29.682
X21.041 Y-29.59
X21.259 Y-29.508
X21.487 Y-29.436
X21.722 Y-29.377
X21.963 Y-29.331
X22.21 Y-29.297
X22.461 Y-29.278
X22.716 Y-29.272
X22.973 Y-29.281
X23.232 Y-29.305
X23.491 Y-29.343
X23.75 Y-29.397
X24.007 Y-29.465
X24.264 Y-29.549
X24.52 Y-29.65
X24.774 Y-29.766
X24.989 Y-29.879
X25.018 Y-29.896
X25.295 Y-30.097
X25.533 Y-30.342
X25.727 Y-30.625
X25.869 Y-30.936
X25.957 Y-31.266
X25.986 Y-31.607
X25.988 Y-32.917
G2 X25.935 Y-33.145 I-0.6 J0.02 F350
X25.302 Y-33.491 I-0.546 J0.248 F850
G1 X19.526 Y-32.644
G2 X19.066 Y-32.299 I0.087 J0.594
X19.013 Y-32.071 I0.546 J0.248 F350
G1 X19.015 Y-31.014 F850
X19.022 Y-30.864
X19.042 Y-30.716
X19.076 Y-30.569
X19.121 Y-30.426
X19.177 Y-30.287
X19.241 Y-30.152
X19.314 Y-30.021
X19.397 Y-29.891
X19.493 Y-29.756
X19.601 Y-29.622
X19.721 Y-29.49
X19.856 Y-29.356
X20.007 Y-29.223
X20.17 Y-29.095
X20.345 Y-28.973
X20.535 Y-28.855
X20.741 Y-28.743
X20.96 Y-28.64
X21.192 Y-28.546
X21.433 Y-28.464
X21.684 Y-28.393
X21.947 Y-28.336
X22.219 Y-28.292
X22.501 Y-28.263
X22.79 Y-28.249
X23.085 Y-28.252
X23.386 Y-28.271
X23.686 Y-28.308
X23.948 Y-28.355
X24.215 Y-28.419
X24.449 Y-28.489
X24.663 Y-28.567
X24.77 Y-28.612
X25.11 Y-28.799
X25.408 Y-29.047
X25.653 Y-29.348
X25.834 Y-29.691
X25.946 Y-30.063
X25.985 Y-30.449
X25.986 Y-31.607
G2 X25.933 Y-31.835 I-0.6 J0.02 F350
X25.325 Y-32.184 I-0.546 J0.248 F850
G1 X19.553 Y-31.591
G2 X19.068 Y-31.242 I0.061 J0.597
X19.015 Y-31.014 I0.546 J0.248 F350
G1 X19.016 Y-30.007 F850
X19.024 Y-29.858
X19.045 Y-29.709
X19.08 Y-29.563
X19.127 Y-29.421
X19.184 Y-29.282
X19.25 Y-29.147
X19.324 Y-29.017
X19.411 Y-28.884
X19.507 Y-28.752
X19.62 Y-28.615
X19.748 Y-28.476
X19.888 Y-28.341
X20.042 Y-28.207
X20.214 Y-28.074
X20.404 Y-27.944
X20.606 Y-27.822
X20.822 Y-27.707
X21.056 Y-27.599
X21.308 Y-27.499
X21.575 Y-27.411
X21.853 Y-27.336
X22.141 Y-27.276
X22.436 Y-27.231
X22.738 Y-27.203
X23.042 Y-27.191
X23.339 Y-27.197
X23.6 Y-27.216
X23.884 Y-27.254
X24.119 Y-27.298
X24.339 Y-27.353
X24.573 Y-27.426
X24.763 Y-27.497
X24.786 Y-27.506
X25.122 Y-27.694
X25.415 Y-27.943
X25.656 Y-28.243
X25.835 Y-28.584
X25.945 Y-28.952
X25.983 Y-29.335
X25.985 Y-30.449
G2 X25.931 Y-30.677 I-0.6 J0.02 F350
X25.339 Y-31.027 I-0.546 J0.248 F850
G1 X19.57 Y-30.586
G2 X19.069 Y-30.235 I0.046 J0.598
X19.016 Y-30.007 I0.546 J0.248 F350
G1 X19.017 Y-29.05 F850
X19.025 Y-28.901
X19.043 Y-28.752
X19.075 Y-28.605
X19.119 Y-28.462
X19.174 Y-28.322
X19.238 Y-28.186
X19.31 Y-28.055
X19.392 Y-27.923
X19.49 Y-27.784
X19.601 Y-27.645
X19.725 Y-27.506
X19.868 Y-27.363
X20.027 Y-27.22
X20.199 Y-27.083
X20.39 Y-26.948
X20.601 Y-26.815
X20.828 Y-26.689
X21.067 Y-26.574
X21.324 Y-26.468
X21.596 Y-26.373
X21.878 Y-26.292
X22.172 Y-26.225
X22.468 Y-26.175
X22.765 Y-26.142
X23.064 Y-26.126
X23.358 Y-26.127
X23.605 Y-26.141
X23.873 Y-26.172
X24.108 Y-26.212
X24.315 Y-26.26
X24.545 Y-26.327
X24.739 Y-26.396
X24.753 Y-26.402
X25.097 Y-26.587
X25.398 Y-26.836
X25.645 Y-27.138
X25.829 Y-27.482
X25.943 Y-27.856
X25.981 Y-28.244
X25.983 Y-29.335
G2 X25.93 Y-29.563 I-0.6 J0.02 F350
X25.354 Y-29.915 I-0.546 J0.248 F850
G1 X19.588 Y-29.63
G2 X19.071 Y-29.278 I0.03 J0.599
X19.017 Y-29.05 I0.546 J0.248 F350
G1 X19.019 Y-28.044 F850
X19.027 Y-27.894
X19.046 Y-27.745
X19.078 Y-27.599
X19.123 Y-27.455
X19.177 Y-27.316
X19.241 Y-27.18
X19.314 Y-27.046
X19.397 Y-26.911
X19.497 Y-26.769
X19.611 Y-26.624
X19.738 Y-26.481
X19.884 Y-26.333
X20.048 Y-26.185
X20.224 Y-26.043
X20.419 Y-25.903
X20.635 Y-25.766
X20.868 Y-25.636
X21.114 Y-25.516
X21.373 Y-25.408
X21.647 Y-25.31
X21.929 Y-25.228
X22.22 Y-25.161
X22.514 Y-25.11
X22.808 Y-25.076
X23.103 Y-25.059
X23.383 Y-25.058
X23.625 Y-25.071
X23.891 Y-25.101
X24.112 Y-25.138
X24.322 Y-25.186
X24.548 Y-25.25
X24.735 Y-25.316
X24.744 Y-25.319
X25.09 Y-25.504
X25.393 Y-25.752
X25.641 Y-26.055
X25.827 Y-26.4
X25.941 Y-26.775
X25.98 Y-27.165
X25.981 Y-28.244
G2 X25.928 Y-28.472 I-0.6 J0.02 F350
X25.361 Y-28.824 I-0.546 J0.248 F850
G1 X19.598 Y-28.623
G2 X19.072 Y-28.272 I0.021 J0.6
X19.019 Y-28.044 I0.546 J0.248 F350
G1 X19.02 Y-27.037 F850
X19.028 Y-26.887
X19.046 Y-26.738
X19.077 Y-26.592
X19.12 Y-26.448
X19.174 Y-26.308
X19.236 Y-26.171
X19.306 Y-26.039
X19.39 Y-25.899
X19.49 Y-25.753
X19.601 Y-25.609
X19.729 Y-25.46
X19.877 Y-25.308
X20.038 Y-25.159
X20.214 Y-25.013
X20.411 Y-24.869
X20.628 Y-24.728
X20.858 Y-24.596
X21.101 Y-24.474
X21.361 Y-24.362
X21.634 Y-24.261
X21.914 Y-24.176
X22.203 Y-24.106
X22.494 Y-24.052
X22.784 Y-24.015
X23.077 Y-23.995
X23.357 Y-23.991
X23.595 Y-24.001
X23.86 Y-24.027
X24.083 Y-24.062
X24.289 Y-24.106
X24.515 Y-24.168
X24.705 Y-24.232
X24.721 Y-24.239
X25.024 Y-24.391
X25.297 Y-24.592
X25.532 Y-24.837
X25.723 Y-25.117
X25.863 Y-25.426
X25.949 Y-25.755
X25.978 Y-26.092
X25.98 Y-27.165
G2 X25.926 Y-27.393 I-0.6 J0.02 F350
X25.367 Y-27.744 I-0.546 J0.248 F850
G1 X19.607 Y-27.617
G2 X19.074 Y-27.265 I0.013 J0.6
X19.02 Y-27.037 I0.546 J0.248 F350
G1 X19.022 Y-25.98 F850
X19.03 Y-25.831
X19.05 Y-25.682
X19.083 Y-25.536
X19.128 Y-25.393
X19.182 Y-25.253
X19.245 Y-25.117
X19.319 Y-24.978
X19.404 Y-24.838
X19.506 Y-24.69
X19.623 Y-24.54
X19.752 Y-24.392
X19.901 Y-24.239
X20.069 Y-24.086
X20.249 Y-23.939
X20.447 Y-23.794
X20.664 Y-23.654
X20.9 Y-23.521
X21.149 Y-23.397
X21.411 Y-23.285
X21.684 Y-23.187
X21.963 Y-23.103
X22.251 Y-23.034
X22.541 Y-22.982
X22.83 Y-22.947
X23.12 Y-22.927
X23.384 Y-22.925
X23.638 Y-22.937
X23.885 Y-22.963
X24.098 Y-22.997
X24.329 Y-23.048
X24.525 Y-23.102
X24.728 Y-23.172
X25.029 Y-23.325
X25.3 Y-23.526
X25.534 Y-23.771
X25.723 Y-24.051
X25.862 Y-24.359
X25.947 Y-24.686
X25.977 Y-25.023
X25.978 Y-26.092
G2 X25.925 Y-26.32 I-0.6 J0.02 F350
X25.367 Y-26.672 I-0.546 J0.248 F850
G1 X19.61 Y-26.56
G2 X19.075 Y-26.208 I0.012 J0.6
X19.022 Y-25.98 I0.546 J0.248 F350
G1 X19.024 Y-24.933 F850
X19.031 Y-24.783
X19.052 Y-24.635
X19.085 Y-24.488
X19.129 Y-24.345
X19.183 Y-24.205
X19.246 Y-24.069
X19.318 Y-23.932
X19.404 Y-23.79
X19.507 Y-23.64
X19.622 Y-23.491
X19.753 Y-23.34
X19.904 Y-23.184
X20.069 Y-23.032
X20.249 Y-22.884
X20.449 Y-22.738
X20.668 Y-22.595
X20.903 Y-22.461
X21.15 Y-22.338
X21.41 Y-22.226
X21.682 Y-22.127
X21.962 Y-22.042
X22.249 Y-21.972
X22.536 Y-21.92
X22.827 Y-21.883
X23.115 Y-21.863
X23.382 Y-21.86
X23.63 Y-21.871
X23.879 Y-21.896
X24.091 Y-21.929
X24.321 Y-21.979
X24.518 Y-22.034
X24.711 Y-22.099
X24.72 Y-22.103
X25.023 Y-22.255
X25.296 Y-22.456
X25.53 Y-22.701
X25.72 Y-22.981
X25.86 Y-23.29
X25.946 Y-23.618
X25.975 Y-23.955
X25.977 Y-25.023
G2 X25.923 Y-25.25 I-0.6 J0.02 F350
X25.368 Y-25.602 I-0.546 J0.248 F850
G1 X19.614 Y-25.513
G2 X19.077 Y-25.161 I0.009 J0.6
X19.024 Y-24.933 I0.546 J0.248 F350
G1 X19.025 Y-23.926 F850
X19.033 Y-23.769
X19.049 Y-23.62
X19.079 Y-23.473
X19.12 Y-23.328
X19.171 Y-23.187
X19.231 Y-23.05
X19.3 Y-22.916
X19.384 Y-22.771
X19.481 Y-22.624
X19.591 Y-22.476
X19.72 Y-22.322
X19.865 Y-22.167
X20.023 Y-22.017
X20.2 Y-21.866
X20.397 Y-21.716
X20.611 Y-21.572
X20.837 Y-21.438
X21.079 Y-21.312
X21.337 Y-21.195
X21.607 Y-21.091
X21.885 Y-21.002
X22.17 Y-20.928
X22.456 Y-20.87
X22.745 Y-20.829
X23.032 Y-20.804
X23.311 Y-20.796
X23.554 Y-20.802
X23.812 Y-20.824
X24.027 Y-20.854
X24.255 Y-20.899
X24.462 Y-20.952
X24.649 Y-21.012
X24.687 Y-21.026
X24.996 Y-21.176
X25.275 Y-21.376
X25.516 Y-21.622
X25.711 Y-21.905
X25.855 Y-22.217
X25.943 Y-22.549
X25.973 Y-22.892
X25.975 Y-23.955
G2 X25.922 Y-24.183 I-0.6 J0.02 F350
X25.372 Y-24.535 I-0.546 J0.248 F850
G1 X19.622 Y-24.506
G2 X19.078 Y-24.154 I0.003 J0.6
X19.025 Y-23.926 I0.546 J0.248 F350
G1 X19.027 Y-22.809 F850
X19.034 Y-22.659
X19.056 Y-22.511
X19.09 Y-22.365
X19.135 Y-22.221
X19.19 Y-22.082
X19.253 Y-21.946
X19.329 Y-21.803
X19.416 Y-21.66
X19.518 Y-21.512
X19.638 Y-21.358
X19.77 Y-21.206
X19.919 Y-21.053
X20.088 Y-20.899
X20.274 Y-20.746
X20.474 Y-20.601
X20.69 Y-20.462
X20.925 Y-20.328
X21.176 Y-20.204
X21.441 Y-20.091
X21.714 Y-19.992
X21.994 Y-19.908
X22.279 Y-19.84
X22.566 Y-19.788
X22.854 Y-19.753
X23.138 Y-19.734
X23.39 Y-19.732
X23.653 Y-19.744
X23.888 Y-19.769
X24.104 Y-19.804
X24.333 Y-19.854
X24.523 Y-19.907
X24.617 Y-19.939
X24.941 Y-20.083
X25.234 Y-20.281
X25.488 Y-20.528
X25.694 Y-20.815
X25.846 Y-21.135
X25.94 Y-21.476
X25.972 Y-21.829
X25.973 Y-22.892
G2 X25.92 Y-23.12 I-0.6 J0.02 F350
X25.365 Y-23.471 I-0.546 J0.248 F850
G1 X19.618 Y-23.389
G2 X19.08 Y-23.037 I0.009 J0.6
X19.027 Y-22.809 I0.546 J0.248 F350
G1 X19.028 Y-21.802 F850
X19.036 Y-21.65
X19.052 Y-21.501
X19.082 Y-21.354
X19.123 Y-21.21
X19.174 Y-21.069
X19.234 Y-20.931
X19.303 Y-20.796
X19.387 Y-20.65
X19.483 Y-20.504
X19.594 Y-20.355
X19.724 Y-20.2
X19.868 Y-20.046
X20.026 Y-19.894
X20.205 Y-19.741
X20.402 Y-19.591
X20.614 Y-19.448
X20.84 Y-19.313
X21.083 Y-19.186
X21.341 Y-19.069
X21.609 Y-18.966
X21.887 Y-18.876
X22.171 Y-18.802
X22.456 Y-18.744
X22.744 Y-18.702
X23.03 Y-18.677
X23.287 Y-18.669
X23.559 Y-18.676
X23.797 Y-18.696
X24.018 Y-18.726
X24.251 Y-18.772
X24.444 Y-18.822
X24.65 Y-18.887
X24.681 Y-18.899
X24.991 Y-19.048
X25.271 Y-19.249
X25.512 Y-19.494
X25.708 Y-19.778
X25.852 Y-20.09
X25.94 Y-20.423
X25.97 Y-20.765
X25.972 Y-21.829
G2 X25.918 Y-22.057 I-0.6 J0.02 F350
X25.369 Y-22.409 I-0.546 J0.248 F850
G1 X19.625 Y-22.382
G2 X19.082 Y-22.03 I0.003 J0.6
X19.028 Y-21.802 I0.546 J0.248 F350
G1 X19.03 Y-20.705 F850
X19.038 Y-20.555
X19.057 Y-20.406
X19.09 Y-20.26
X19.134 Y-20.116
X19.187 Y-19.976
X19.249 Y-19.839
X19.323 Y-19.698
X19.408 Y-19.556
X19.508 Y-19.407
X19.626 Y-19.253
X19.755 Y-19.103
X19.903 Y-18.949
X20.07 Y-18.793
X20.252 Y-18.641
X20.449 Y-18.496
X20.664 Y-18.355
X20.897 Y-18.22
X21.146 Y-18.094
X21.406 Y-17.98
X21.677 Y-17.88
X21.956 Y-17.794
X22.239 Y-17.724
X22.525 Y-17.669
X22.812 Y-17.632
X23.097 Y-17.611
X23.353 Y-17.606
X23.613 Y-17.616
X23.855 Y-17.639
X24.068 Y-17.672
X24.3 Y-17.721
X24.493 Y-17.773
X24.692 Y-17.839
X24.704 Y-17.844
X25.009 Y-17.996
X25.284 Y-18.197
X25.52 Y-18.441
X25.712 Y-18.723
X25.853 Y-19.032
X25.939 Y-19.362
X25.969 Y-19.701
X25.97 Y-20.765
G2 X25.917 Y-20.993 I-0.6 J0.02 F350
X25.364 Y-21.345 I-0.546 J0.248 F850
G1 X19.623 Y-21.285
G2 X19.083 Y-20.933 I0.006 J0.6
X19.03 Y-20.705 I0.546 J0.248 F350
G1 X19.031 Y-19.637 F850
X19.039 Y-19.487
X19.059 Y-19.339
X19.092 Y-19.192
X19.136 Y-19.049
X19.19 Y-18.909
X19.252 Y-18.772
X19.324 Y-18.634
X19.41 Y-18.491
X19.513 Y-18.34
X19.628 Y-18.19
X19.759 Y-18.037
X19.909 Y-17.881
X20.075 Y-17.726
X20.255 Y-17.577
X20.454 Y-17.431
X20.671 Y-17.288
X20.906 Y-17.153
X21.153 Y-17.028
X21.413 Y-16.915
X21.681 Y-16.815
X21.96 Y-16.73
X22.244 Y-16.66
X22.53 Y-16.606
X22.818 Y-16.569
X23.104 Y-16.548
X23.365 Y-16.544
X23.616 Y-16.554
X23.862 Y-16.577
X24.073 Y-16.61
X24.303 Y-16.659
X24.5 Y-16.712
X24.693 Y-16.776
X24.705 Y-16.781
X25.009 Y-16.933
X25.283 Y-17.134
X25.519 Y-17.379
X25.71 Y-17.66
X25.851 Y-17.969
X25.938 Y-18.298
X25.967 Y-18.637
X25.969 Y-19.701
G2 X25.915 Y-19.929 I-0.6 J0.02 F350
X25.362 Y-20.281 I-0.546 J0.248 F850
G1 X19.625 Y-20.217
G2 X19.085 Y-19.865 I0.007 J0.6
X19.031 Y-19.637 I0.546 J0.248 F350
G1 X19.033 Y-18.581 F850
X19.041 Y-18.431
X19.06 Y-18.282
X19.093 Y-18.136
X19.136 Y-17.992
X19.189 Y-17.852
X19.251 Y-17.715
X19.322 Y-17.578
X19.408 Y-17.434
X19.51 Y-17.283
X19.624 Y-17.134
X19.754 Y-16.981
X19.904 Y-16.824
X20.068 Y-16.671
X20.247 Y-16.522
X20.446 Y-16.374
X20.663 Y-16.231
X20.896 Y-16.096
X21.142 Y-15.971
X21.4 Y-15.858
X21.67 Y-15.757
X21.947 Y-15.671
X22.232 Y-15.6
X22.517 Y-15.546
X22.805 Y-15.508
X23.091 Y-15.486
X23.355 Y-15.481
X23.603 Y-15.49
X23.852 Y-15.513
X24.063 Y-15.545
X24.293 Y-15.593
X24.491 Y-15.646
X24.683 Y-15.71
X24.698 Y-15.716
X25.004 Y-15.867
X25.279 Y-16.068
X25.516 Y-16.313
X25.708 Y-16.595
X25.849 Y-16.905
X25.936 Y-17.234
X25.965 Y-17.574
X25.967 Y-18.637
G2 X25.914 Y-18.865 I-0.6 J0.02 F350
X25.361 Y-19.217 I-0.546 J0.248 F850
G1 X19.627 Y-19.161
G2 X19.086 Y-18.809 I0.006 J0.6
X19.033 Y-18.581 I0.546 J0.248 F350
G1 X19.035 Y-17.483 F850
X19.042 Y-17.334
X19.065 Y-17.185
X19.101 Y-17.04
X19.147 Y-16.897
X19.202 Y-16.757
X19.266 Y-16.621
X19.343 Y-16.479
X19.431 Y-16.336
X19.536 Y-16.185
X19.656 Y-16.031
X19.789 Y-15.88
X19.941 Y-15.726
X20.112 Y-15.57
X20.297 Y-15.42
X20.498 Y-15.276
X20.717 Y-15.136
X20.953 Y-15.003
X21.206 Y-14.879
X21.47 Y-14.768
X21.742 Y-14.671
X22.021 Y-14.588
X22.305 Y-14.522
X22.591 Y-14.471
X22.878 Y-14.437
X23.162 Y-14.42
X23.411 Y-14.419
X23.67 Y-14.432
X23.904 Y-14.457
X24.118 Y-14.493
X24.344 Y-14.543
X24.534 Y-14.597
X24.618 Y-14.626
X24.939 Y-14.77
X25.231 Y-14.969
X25.483 Y-15.216
X25.688 Y-15.503
X25.839 Y-15.822
X25.932 Y-16.162
X25.964 Y-16.513
X25.965 Y-17.574
G2 X25.912 Y-17.802 I-0.6 J0.02 F350
X25.356 Y-18.154 I-0.546 J0.248 F850
G1 X19.625 Y-18.063
G2 X19.088 Y-17.711 I0.009 J0.6
X19.035 Y-17.483 I0.546 J0.248 F350
G1 X19.036 Y-16.477 F850
X19.044 Y-16.327
X19.061 Y-16.178
X19.091 Y-16.031
X19.133 Y-15.887
X19.185 Y-15.746
X19.245 Y-15.609
X19.315 Y-15.472
X19.4 Y-15.326
X19.497 Y-15.181
X19.609 Y-15.03
X19.74 Y-14.875
X19.885 Y-14.721
X20.044 Y-14.569
X20.224 Y-14.417
X20.423 Y-14.267
X20.635 Y-14.125
X20.861 Y-13.991
X21.105 Y-13.865
X21.363 Y-13.749
X21.632 Y-13.646
X21.909 Y-13.557
X22.192 Y-13.484
X22.476 Y-13.428
X22.764 Y-13.387
X23.048 Y-13.363
X23.302 Y-13.357
X23.573 Y-13.364
X23.808 Y-13.384
X24.029 Y-13.416
X24.26 Y-13.462
X24.452 Y-13.512
X24.657 Y-13.578
X24.68 Y-13.587
X24.988 Y-13.737
X25.267 Y-13.938
X25.507 Y-14.183
X25.701 Y-14.466
X25.844 Y-14.777
X25.932 Y-15.109
X25.962 Y-15.451
X25.964 Y-16.513
G2 X25.911 Y-16.741 I-0.6 J0.02 F350
X25.36 Y-17.093 I-0.546 J0.248 F850
G1 X19.632 Y-17.057
G2 X19.09 Y-16.705 I0.004 J0.6
X19.036 Y-16.477 I0.546 J0.248 F350
G1 X19.038 Y-15.359 F850
X19.046 Y-15.209
X19.068 Y-15.061
X19.104 Y-14.915
X19.149 Y-14.772
X19.204 Y-14.633
X19.268 Y-14.497
X19.345 Y-14.354
X19.433 Y-14.211
X19.537 Y-14.062
X19.658 Y-13.907
X19.791 Y-13.755
X19.942 Y-13.602
X20.112 Y-13.448
X20.299 Y-13.296
X20.5 Y-13.151
X20.717 Y-13.012
X20.952 Y-12.88
X21.203 Y-12.756
X21.465 Y-12.646
X21.739 Y-12.548
X22.018 Y-12.465
X22.301 Y-12.399
X22.587 Y-12.348
X22.872 Y-12.315
X23.156 Y-12.297
X23.404 Y-12.296
X23.667 Y-12.309
X23.897 Y-12.334
X24.114 Y-12.37
X24.339 Y-12.42
X24.528 Y-12.473
X24.613 Y-12.503
X24.936 Y-12.647
X25.227 Y-12.846
X25.48 Y-13.092
X25.685 Y-13.38
X25.836 Y-13.698
X25.929 Y-14.039
X25.961 Y-14.39
X25.962 Y-15.451
G2 X25.909 Y-15.679 I-0.6 J0.02 F350
X25.353 Y-16.031 I-0.546 J0.248 F850
G1 X19.628 Y-15.939
G2 X19.091 Y-15.587 I0.01 J0.6
X19.038 Y-15.359 I0.546 J0.248 F350
G1 X19.039 Y-14.352 F850
X19.047 Y-14.203
X19.064 Y-14.054
X19.094 Y-13.907
X19.136 Y-13.763
X19.187 Y-13.622
X19.248 Y-13.484
X19.317 Y-13.348
X19.403 Y-13.202
X19.499 Y-13.057
X19.611 Y-12.907
X19.741 Y-12.751
X19.885 Y-12.598
X20.045 Y-12.447
X20.224 Y-12.294
X20.422 Y-12.145
X20.634 Y-12.002
X20.86 Y-11.868
X21.103 Y-11.743
X21.361 Y-11.627
X21.628 Y-11.524
X21.906 Y-11.435
X22.188 Y-11.362
X22.472 Y-11.306
X22.759 Y-11.265
X23.044 Y-11.241
X23.298 Y-11.234
X23.568 Y-11.242
X23.803 Y-11.262
X24.024 Y-11.293
X24.255 Y-11.339
X24.447 Y-11.389
X24.652 Y-11.455
X24.676 Y-11.464
X24.984 Y-11.614
X25.263 Y-11.815
X25.503 Y-12.06
X25.698 Y-12.343
X25.841 Y-12.654
X25.929 Y-12.986
X25.959 Y-13.328
X25.961 Y-14.39
G2 X25.907 Y-14.618 I-0.6 J0.02 F350
X25.357 Y-14.97 I-0.546 J0.248 F850
G1 X19.635 Y-14.932
G2 X19.093 Y-14.58 I0.004 J0.6
X19.039 Y-14.352 I0.546 J0.248 F350
G1 X19.041 Y-13.255 F850
X19.049 Y-13.105
X19.069 Y-12.957
X19.103 Y-12.811
X19.147 Y-12.667
X19.201 Y-12.527
X19.263 Y-12.391
X19.338 Y-12.249
X19.424 Y-12.107
X19.526 Y-11.958
X19.644 Y-11.805
X19.774 Y-11.654
X19.923 Y-11.5
X20.091 Y-11.345
X20.274 Y-11.194
X20.471 Y-11.049
X20.686 Y-10.909
X20.92 Y-10.775
X21.169 Y-10.65
X21.429 Y-10.538
X21.7 Y-10.438
X21.978 Y-10.354
X22.26 Y-10.285
X22.545 Y-10.232
X22.675 Y-10.216
X22.759 Y-10.207
X22.843 Y-10.202
X22.927 Y-10.2
G2 X23.155 Y-10.254 I-0.021 J-0.6 F350
X23.265 Y-11.281 I-0.249 J-0.546 F850
G1 X19.999 Y-13.716
G2 X19.094 Y-13.483 I-0.359 J0.481
X19.041 Y-13.255 I0.546 J0.248 F350
G1 X19.043 Y-12.188 F850
X19.05 Y-12.038
X19.072 Y-11.889
X19.105 Y-11.743
X19.15 Y-11.6
X19.204 Y-11.46
X19.267 Y-11.323
X19.34 Y-11.185
X19.354 Y-11.163
X19.555 Y-10.887
X19.8 Y-10.65
X20.082 Y-10.457
X20.393 Y-10.316
X20.724 Y-10.229
X21.064 Y-10.2
G2 X21.292 Y-10.254 I-0.021 J-0.6 F350
X21.462 Y-11.229 I-0.249 J-0.546 F850
G1 X20.061 Y-12.597
G2 X19.096 Y-12.415 I-0.419 J0.429
X19.043 Y-12.188 I0.546 J0.248 F350
G1 X19.044 Y-11.242 F850
X19.052 Y-11.092
X19.114 Y-10.854
X19.231 Y-10.637
X19.395 Y-10.454
X19.599 Y-10.316
X19.829 Y-10.229
X20.074 Y-10.2
G2 X20.301 Y-10.254 I-0.021 J-0.6 F350
X20.484 Y-11.217 I-0.249 J-0.546 F850
G1 X20.075 Y-11.639
G2 X19.097 Y-11.47 I-0.431 J0.418
X19.044 Y-11.242 I0.546 J0.248 F350
G1 X19.045 Y-10.839 F850
X19.049 Y-10.738
X19.071 Y-10.638
X19.079 Y-10.613
X19.118 Y-10.525
X19.145 Y-10.481
X19.177 Y-10.436
X19.229 Y-10.38
X19.28 Y-10.336
X19.369 Y-10.275
X19.459 Y-10.235
X19.481 Y-10.227
X19.582 Y-10.205
X19.683 Y-10.2
X23.305
X23.723 Y-10.221
X23.938 Y-10.244
X24.153 Y-10.279
X24.367 Y-10.327
X24.55 Y-10.379
X24.609 Y-10.399
X24.931 Y-10.543
X25.223 Y-10.741
X25.476 Y-10.988
X25.681 Y-11.275
X25.833 Y-11.594
X25.926 Y-11.935
X25.958 Y-12.287
G2 X25.904 Y-12.515 I-0.6 J0.02 F350
X25.007 Y-12.753 I-0.546 J0.248 F850
G1 X22.975 Y-11.286
G2 X23.077 Y-10.254 I0.351 J0.486
X23.305 Y-10.2 I0.249 J-0.546 F350
G1 X24.874 F850
X25.024 Y-10.208
X25.273 Y-10.276
X25.5 Y-10.401
X25.69 Y-10.575
X25.835 Y-10.79
X25.925 Y-11.032
X25.956 Y-11.289
G2 X25.922 Y-11.522 I-1.046 J0.035 F350
X24.638 Y-12.265 I-1.012 J0.268 F850
X24.642 Y-10.234 I0.273 J1.015
X24.874 Y-10.2 I0.269 J-1.016 F350
G1 X25.317 F850
X25.418 Y-10.205
X25.519 Y-10.227
X25.541 Y-10.235
X25.631 Y-10.275
X25.72 Y-10.336
X25.771 Y-10.38
X25.823 Y-10.436
X25.855 Y-10.481
X25.882 Y-10.525
X25.921 Y-10.613
X25.929 Y-10.638
X25.951 Y-10.738
X25.955 Y-10.839
X25.959 Y-13.328
G2 X25.906 Y-13.556 I-0.6 J0.02 F350
G1 X25.867 Y-13.642 Z-7.483
X25.829 Y-13.725 Z-7.461
X25.793 Y-13.804 Z-7.425
X25.76 Y-13.877 Z-7.375
X25.73 Y-13.942 Z-7.314
X25.705 Y-13.998 Z-7.243
X25.685 Y-14.043 Z-7.162
X25.67 Y-14.076 Z-7.075
X25.661 Y-14.096 Z-6.984
X25.658 Y-14.102 Z-6.89
G0 Z5
X20.717 Y-282.05
Z3.1
G1 Z2.5 F350
G2 X21.934 Y-278.311 Z2.336 I1.783 J1.487
X24.771 Y-281.028 Z2.172 I0.565 J-2.249
X21.096 Y-282.401 Z2.009 I-2.268 J0.467
X21.454 Y-278.5 Z1.845 I1.404 J1.838
X24.809 Y-280.514 Z1.681 I1.045 J-2.06
X21.542 Y-282.659 Z1.517 I-2.307 J-0.047
X21.029 Y-278.79 Z1.354 I0.958 J2.096
X24.733 Y-280.006 Z1.19 I1.47 J-1.771
X22.032 Y-282.811 Z1.026 I-2.231 J-0.554
X20.68 Y-279.165 Z0.862 I0.469 J2.248
X24.547 Y-279.529 Z0.699 I1.819 J-1.397
X22.542 Y-282.85 Z0.535 I-2.045 J-1.031
X20.424 Y-279.606 Z0.371 I-0.04 J2.287
X24.261 Y-279.107 Z0.207 I2.075 J-0.955
X23.046 Y-282.775 Z0.043 I-1.76 J-1.453
X20.272 Y-280.092 Z-0.12 I-0.544 J2.213
X23.89 Y-278.76 Z-0.284 I2.227 J-0.47
X23.519 Y-282.592 Z-0.448 I-1.389 J-1.799
X20.232 Y-280.597 Z-0.612 I-1.017 J2.03
X23.453 Y-278.505 Z-0.775 I2.267 J0.034
X23.938 Y-282.31 Z-0.939 I-0.952 J-2.055
X20.304 Y-281.096 Z-1.103 I-1.436 J1.748
X22.972 Y-278.354 Z-1.267 I2.195 J0.534
X24.282 Y-281.943 Z-1.43 I-0.472 J-2.206
X20.485 Y-281.565 Z-1.594 I-1.78 J1.381
X22.471 Y-278.313 Z-1.758 I2.015 J1.003
X24.536 Y-281.51 Z-1.922 I0.028 J-2.247
X20.764 Y-281.981 Z-2.086 I-2.034 J0.949
X21.976 Y-278.383 Z-2.249 I1.736 J1.418
X24.687 Y-281.034 Z-2.413 I0.523 J-2.177
X21.127 Y-282.324 Z-2.577 I-2.185 J0.473
X21.51 Y-278.561 Z-2.741 I1.373 J1.761
X24.729 Y-280.538 Z-2.904 I0.989 J-1.999
X21.555 Y-282.577 Z-3.068 I-2.227 J-0.023
X21.097 Y-278.837 Z-3.232 I0.946 J2.014
X24.66 Y-280.047 Z-3.396 I1.401 J-1.724
X22.027 Y-282.728 Z-3.56 I-2.159 J-0.513
X20.757 Y-279.196 Z-3.723 I0.474 J2.165
X24.485 Y-279.585 Z-3.887 I1.742 J-1.365
X22.518 Y-282.77 Z-4.051 I-1.984 J-0.975
X20.506 Y-279.619 Z-4.215 I-0.017 J2.207
X24.213 Y-279.175 Z-4.378 I1.993 J-0.942
X23.005 Y-282.703 Z-4.542 I-1.712 J-1.385
X20.355 Y-280.086 Z-4.706 I-0.503 J2.14
X23.858 Y-278.837 Z-4.87 I2.144 J-0.475
X23.463 Y-282.53 Z-5.033 I-1.357 J-1.723
X20.312 Y-280.573 Z-5.197 I-0.961 J1.968
X23.439 Y-278.587 Z-5.361 I2.187 J0.011
X23.87 Y-282.262 Z-5.525 I-0.939 J-1.973
X20.377 Y-281.056 Z-5.689 I-1.368 J1.7
X22.977 Y-278.437 Z-5.852 I2.122 J0.493
X24.206 Y-281.911 Z-6.016 I-0.477 J-2.123
X20.547 Y-281.51 Z-6.18 I-1.703 J1.349
X22.494 Y-278.392 Z-6.344 I1.953 J0.947
X24.454 Y-281.496 Z-6.507 I0.005 J-2.167
X20.812 Y-281.914 Z-6.671 I-1.952 J0.935
X22.016 Y-278.456 Z-6.835 I1.688 J1.351
X24.605 Y-281.038 Z-6.999 I0.483 J-2.104
X21.159 Y-282.247 Z-7.162 I-2.102 J0.477
X21.565 Y-278.623 Z-7.326 I1.341 J1.684
X24.649 Y-280.56 Z-7.49 I0.934 J-1.937
X20.349 I-2.15
X24.636 Y-280.324 I2.15
X24.649 Y-280.56 I-2.137 J-0.236
G1 X24.674 Y-281.446 F850
X24.686 Y-281.556
Y-281.706
X24.623 Y-281.98
X24.504 Y-282.235
X24.336 Y-282.46
X24.125 Y-282.646
X23.88 Y-282.785
X23.613 Y-282.871
X23.333 Y-282.9
X21.634
X21.484 Y-282.892
X21.181 Y-282.822
X20.899 Y-282.691
X20.65 Y-282.505
X20.444 Y-282.272
X20.291 Y-282.001
X20.197 Y-281.704
X20.166 Y-281.395
G2 X20.22 Y-281.167 I0.6 J-0.023 F350
X21.198 Y-281.002 I0.545 J-0.251 F850
G1 X22.046 Y-281.885
G2 X21.862 Y-282.846 I-0.433 J-0.416
X21.634 Y-282.9 I-0.249 J0.546 F350
G1 X20.89 F850
X20.857 Y-282.899
X20.829 Y-282.898
X20.679 Y-282.885
X20.651 Y-282.878
X20.516 Y-282.826
X20.394 Y-282.75
X20.29 Y-282.651
G2 X20.256 Y-282.427 I0.201 J0.145 F350
X20.588 Y-282.278 I0.235 J-0.08 F850
G1 X20.926 Y-282.422
G2 X21.03 Y-282.794 I-0.097 J-0.228
X20.829 Y-282.898 I-0.202 J0.144 F350
G1 X20.689 Y-282.893 F850
X20.617 Y-282.878
X20.545 Y-282.852
X20.488 Y-282.824
X20.438 Y-282.794
X20.389 Y-282.755
X20.335 Y-282.703
X20.286 Y-282.647
X20.252 Y-282.597
X20.225 Y-282.548
X20.203 Y-282.499
X20.187 Y-282.45
X20.166 Y-282.349
X20.163 Y-282.248
X20.172 Y-279.631
X20.18 Y-279.481
X20.204 Y-279.333
X20.242 Y-279.188
X20.292 Y-279.047
X20.354 Y-278.91
X20.426 Y-278.778
X20.507 Y-278.652
X20.597 Y-278.532
X20.696 Y-278.419
X20.801 Y-278.312
X20.913 Y-278.213
X21.031 Y-278.12
X21.155 Y-278.035
X21.284 Y-277.958
X21.417 Y-277.889
X21.553 Y-277.827
X21.693 Y-277.773
X21.836 Y-277.728
X21.983 Y-277.69
X22.133 Y-277.66
X22.286 Y-277.639
X22.441 Y-277.626
X22.597 Y-277.622
X22.755 Y-277.626
X22.912 Y-277.64
X23.07 Y-277.663
X23.227 Y-277.694
X23.383 Y-277.735
X23.537 Y-277.784
X23.547 Y-277.788
X23.855 Y-277.938
X24.132 Y-278.138
X24.372 Y-278.383
X24.566 Y-278.665
X24.709 Y-278.976
X24.798 Y-279.306
X24.828 Y-279.648
X24.837 Y-282.108
X24.83 Y-282.258
X24.767 Y-282.463
X24.65 Y-282.642
X24.487 Y-282.781
X24.292 Y-282.87
X24.08 Y-282.9
G2 X23.849 Y-282.857 I0.028 J0.789 F350
X23.563 Y-282.682 I0.258 J0.746 F850
X24.592 Y-281.58 I0.521 J0.545
X24.791 Y-281.878 I-0.509 J-0.556
X24.837 Y-282.108 I-0.708 J-0.259 F350
G1 Y-282.248 F850
X24.834 Y-282.349
X24.813 Y-282.45
X24.797 Y-282.499
X24.775 Y-282.548
X24.748 Y-282.597
X24.71 Y-282.651
X24.665 Y-282.703
X24.611 Y-282.755
X24.562 Y-282.794
X24.512 Y-282.824
X24.455 Y-282.852
X24.383 Y-282.878
X24.311 Y-282.893
X24.11 Y-282.9
X23.333
G2 X23.105 Y-282.846 I0.021 J0.6 F350
X22.921 Y-282.716 I0.249 J0.546 F850
G1 X20.339 Y-280.028
G2 X20.225 Y-279.859 I0.433 J0.416
X20.172 Y-279.631 I0.547 J0.247 F350
G1 X20.175 Y-278.765 F850
X20.183 Y-278.615
X20.207 Y-278.467
X20.247 Y-278.322
X20.301 Y-278.182
X20.368 Y-278.048
X20.445 Y-277.919
X20.532 Y-277.797
X20.627 Y-277.681
X20.731 Y-277.573
X20.84 Y-277.47
X20.957 Y-277.375
X21.078 Y-277.287
X21.206 Y-277.206
X21.343 Y-277.129
X21.488 Y-277.058
X21.639 Y-276.994
X21.798 Y-276.937
X21.962 Y-276.888
X22.132 Y-276.848
X22.306 Y-276.818
X22.464 Y-276.799
X22.644 Y-276.788
X22.816 Y-276.787
X22.972 Y-276.795
X23.15 Y-276.814
X23.316 Y-276.841
X23.668 Y-276.957
X23.992 Y-277.137
X24.276 Y-277.377
X24.508 Y-277.666
X24.681 Y-277.994
X24.788 Y-278.349
X24.825 Y-278.718
X24.828 Y-279.648
G2 X24.775 Y-279.876 I-0.6 J0.019 F350
X24.08 Y-280.21 I-0.547 J0.247 F850
G1 X20.626 Y-279.327
G2 X20.228 Y-278.993 I0.149 J0.581
X20.175 Y-278.765 I0.547 J0.247 F350
G1 X20.178 Y-277.959 F850
X20.186 Y-277.809
X20.209 Y-277.661
X20.25 Y-277.517
X20.305 Y-277.377
X20.373 Y-277.243
X20.45 Y-277.115
X20.538 Y-276.993
X20.633 Y-276.877
X20.736 Y-276.768
X20.845 Y-276.665
X20.96 Y-276.569
X21.083 Y-276.478
X21.216 Y-276.39
X21.36 Y-276.307
X21.511 Y-276.23
X21.671 Y-276.159
X21.838 Y-276.097
X22 Y-276.047
X22.154 Y-276.008
X22.335 Y-275.974
X22.503 Y-275.951
X22.656 Y-275.94
X22.83 Y-275.936
X23.002 Y-275.943
X23.153 Y-275.957
X23.313 Y-275.981
X23.325 Y-275.983
X23.673 Y-276.092
X23.995 Y-276.267
X24.276 Y-276.5
X24.507 Y-276.783
X24.679 Y-277.106
X24.785 Y-277.455
X24.822 Y-277.819
X24.825 Y-278.718
G2 X24.772 Y-278.946 I-0.6 J0.019 F350
X24.096 Y-279.286 I-0.547 J0.247 F850
G1 X20.648 Y-278.526
G2 X20.231 Y-278.187 I0.129 J0.586
X20.178 Y-277.959 I0.547 J0.247 F350
G1 X20.18 Y-277.154 F850
X20.189 Y-277.004
X20.212 Y-276.856
X20.253 Y-276.711
X20.307 Y-276.572
X20.373 Y-276.437
X20.45 Y-276.308
X20.535 Y-276.185
X20.629 Y-276.068
X20.73 Y-275.957
X20.838 Y-275.852
X20.951 Y-275.754
X21.075 Y-275.659
X21.208 Y-275.568
X21.35 Y-275.481
X21.502 Y-275.401
X21.66 Y-275.328
X21.825 Y-275.263
X21.986 Y-275.21
X22.139 Y-275.169
X22.318 Y-275.131
X22.487 Y-275.106
X22.638 Y-275.092
X22.809 Y-275.085
X22.982 Y-275.089
X23.133 Y-275.1
X23.288 Y-275.121
X23.644 Y-275.225
X23.971 Y-275.398
X24.259 Y-275.631
X24.496 Y-275.915
X24.672 Y-276.241
X24.781 Y-276.595
X24.819 Y-276.963
X24.822 Y-277.819
G2 X24.769 Y-278.047 I-0.6 J0.019 F350
X24.108 Y-278.389 I-0.547 J0.247 F850
G1 X20.666 Y-277.724
G2 X20.233 Y-277.382 I0.114 J0.589
X20.18 Y-277.154 I0.547 J0.247 F350
G1 X20.183 Y-276.299 F850
X20.191 Y-276.149
X20.219 Y-276.001
X20.262 Y-275.858
X20.318 Y-275.719
X20.386 Y-275.585
X20.463 Y-275.456
X20.55 Y-275.334
X20.644 Y-275.217
X20.746 Y-275.107
X20.854 Y-275.002
X20.97 Y-274.902
X21.096 Y-274.805
X21.229 Y-274.714
X21.371 Y-274.628
X21.524 Y-274.548
X21.683 Y-274.475
X21.849 Y-274.41
X22.002 Y-274.359
X22.16 Y-274.317
X22.338 Y-274.28
X22.498 Y-274.256
X22.65 Y-274.242
X22.826 Y-274.236
X22.991 Y-274.239
X23.141 Y-274.251
X23.303 Y-274.273
X23.654 Y-274.377
X23.979 Y-274.548
X24.263 Y-274.779
X24.497 Y-275.061
X24.671 Y-275.384
X24.779 Y-275.734
X24.816 Y-276.099
X24.819 Y-276.963
G2 X24.766 Y-277.191 I-0.6 J0.019 F350
X24.105 Y-277.534 I-0.547 J0.247 F850
G1 X20.669 Y-276.869
G2 X20.236 Y-276.527 I0.114 J0.589
X20.183 Y-276.299 I0.547 J0.247 F350
G1 X20.186 Y-275.493 F850
X20.194 Y-275.343
X20.218 Y-275.195
X20.257 Y-275.051
X20.31 Y-274.91
X20.375 Y-274.775
X20.45 Y-274.645
X20.534 Y-274.521
X20.626 Y-274.402
X20.725 Y-274.29
X20.831 Y-274.184
X20.944 Y-274.083
X21.066 Y-273.986
X21.197 Y-273.893
X21.339 Y-273.804
X21.489 Y-273.721
X21.645 Y-273.646
X21.808 Y-273.579
X21.967 Y-273.524
X22.118 Y-273.481
X22.295 Y-273.441
X22.461 Y-273.413
X22.611 Y-273.397
X22.779 Y-273.388
X22.951
X23.102 Y-273.398
X23.213 Y-273.41
X23.578 Y-273.492
X23.919 Y-273.647
X24.221 Y-273.869
X24.47 Y-274.148
X24.657 Y-274.473
X24.773 Y-274.829
X24.813 Y-275.201
X24.816 Y-276.099
G2 X24.763 Y-276.327 I-0.6 J0.019 F350
X24.112 Y-276.671 I-0.547 J0.247 F850
G1 X20.682 Y-276.065
G2 X20.239 Y-275.721 I0.104 J0.591
X20.186 Y-275.493 I0.547 J0.247 F350
G1 X20.189 Y-274.638 F850
X20.197 Y-274.488
X20.222 Y-274.34
X20.263 Y-274.196
X20.316 Y-274.056
X20.382 Y-273.921
X20.457 Y-273.791
X20.541 Y-273.667
X20.634 Y-273.549
X20.734 Y-273.437
X20.84 Y-273.331
X20.955 Y-273.229
X21.078 Y-273.132
X21.209 Y-273.039
X21.35 Y-272.952
X21.5 Y-272.87
X21.657 Y-272.795
X21.815 Y-272.73
X21.97 Y-272.677
X22.151 Y-272.625
X22.319 Y-272.588
X22.471 Y-272.563
X22.641 Y-272.545
X22.816 Y-272.536
X22.97 Y-272.537
X23.121 Y-272.546
X23.167 Y-272.552
X23.496 Y-272.622
X23.808 Y-272.75
X24.092 Y-272.932
X24.338 Y-273.163
X24.538 Y-273.433
X24.687 Y-273.736
X24.778 Y-274.06
X24.81 Y-274.396
X24.813 Y-275.201
G2 X24.76 Y-275.429 I-0.6 J0.019 F350
X24.116 Y-275.775 I-0.547 J0.247 F850
G1 X20.692 Y-275.211
G2 X20.242 Y-274.866 I0.097 J0.592
X20.189 Y-274.638 I0.547 J0.247 F350
G1 X20.192 Y-273.792 F850
X20.2 Y-273.642
X20.225 Y-273.494
X20.265 Y-273.35
X20.319 Y-273.21
X20.384 Y-273.075
X20.459 Y-272.945
X20.544 Y-272.821
X20.636 Y-272.703
X20.736 Y-272.591
X20.842 Y-272.485
X20.957 Y-272.383
X21.079 Y-272.285
X21.211 Y-272.192
X21.354 Y-272.103
X21.504 Y-272.02
X21.661 Y-271.945
X21.813 Y-271.883
X21.969 Y-271.828
X22.143 Y-271.779
X22.298 Y-271.744
X22.456 Y-271.718
X22.631 Y-271.699
X22.787 Y-271.69
X22.94 Y-271.691
X23.113 Y-271.702
X23.267 Y-271.72
X23.623 Y-271.819
X23.953 Y-271.988
X24.242 Y-272.218
X24.481 Y-272.5
X24.659 Y-272.825
X24.769 Y-273.178
X24.807 Y-273.546
X24.81 Y-274.396
G2 X24.757 Y-274.624 I-0.6 J0.019 F350
X24.106 Y-274.968 I-0.547 J0.247 F850
G1 X20.688 Y-274.364
G2 X20.245 Y-274.02 I0.104 J0.591
X20.192 Y-273.792 I0.547 J0.247 F350
G1 X20.195 Y-272.926 F850
X20.203 Y-272.776
X20.23 Y-272.628
X20.272 Y-272.484
X20.328 Y-272.345
X20.394 Y-272.21
X20.47 Y-272.081
X20.556 Y-271.958
X20.649 Y-271.84
X20.749 Y-271.729
X20.856 Y-271.624
X20.972 Y-271.522
X21.096 Y-271.425
X21.229 Y-271.332
X21.37 Y-271.246
X21.519 Y-271.165
X21.677 Y-271.091
X21.841 Y-271.025
X21.99 Y-270.975
X22.15 Y-270.93
X22.327 Y-270.892
X22.484 Y-270.867
X22.635 Y-270.852
X22.811 Y-270.844
X22.973 Y-270.846
X23.123 Y-270.856
X23.286 Y-270.877
X23.638 Y-270.978
X23.963 Y-271.147
X24.248 Y-271.376
X24.483 Y-271.657
X24.658 Y-271.979
X24.767 Y-272.329
X24.804 Y-272.693
X24.807 Y-273.546
G2 X24.754 Y-273.774 I-0.6 J0.019 F350
X24.1 Y-274.118 I-0.547 J0.247 F850
G1 X20.688 Y-273.497
G2 X20.248 Y-273.154 I0.107 J0.59
X20.195 Y-272.926 I0.547 J0.247 F350
G1 X20.198 Y-272.07 F850
X20.206 Y-271.921
X20.234 Y-271.773
X20.277 Y-271.629
X20.332 Y-271.49
X20.399 Y-271.356
X20.476 Y-271.227
X20.562 Y-271.104
X20.656 Y-270.987
X20.757 Y-270.876
X20.864 Y-270.771
X20.98 Y-270.67
X21.104 Y-270.573
X21.236 Y-270.482
X21.378 Y-270.395
X21.528 Y-270.314
X21.686 Y-270.241
X21.851 Y-270.175
X22.002 Y-270.125
X22.159 Y-270.082
X22.336 Y-270.044
X22.495 Y-270.019
X22.645 Y-270.004
X22.82 Y-269.997
X22.983 Y-270
X23.133 Y-270.01
X23.295 Y-270.031
X23.644 Y-270.133
X23.967 Y-270.302
X24.25 Y-270.53
X24.483 Y-270.81
X24.656 Y-271.13
X24.764 Y-271.478
X24.801 Y-271.84
X24.804 Y-272.693
G2 X24.751 Y-272.921 I-0.6 J0.019 F350
X24.096 Y-273.264 I-0.547 J0.247 F850
G1 X20.69 Y-272.642
G2 X20.251 Y-272.298 I0.108 J0.59
X20.198 Y-272.07 I0.547 J0.247 F350
G1 X20.201 Y-271.265 F850
X20.209 Y-271.115
X20.231 Y-270.967
X20.27 Y-270.822
X20.322 Y-270.681
X20.386 Y-270.546
X20.46 Y-270.415
X20.543 Y-270.291
X20.635 Y-270.172
X20.734 Y-270.059
X20.839 Y-269.952
X20.951 Y-269.851
X21.072 Y-269.754
X21.202 Y-269.661
X21.342 Y-269.572
X21.491 Y-269.489
X21.647 Y-269.414
X21.809 Y-269.346
X21.965 Y-269.291
X22.115 Y-269.247
X22.291 Y-269.207
X22.456 Y-269.179
X22.605 Y-269.162
X22.773 Y-269.152
X22.943
X23.092 Y-269.16
X23.245 Y-269.177
X23.282 Y-269.184
X23.632 Y-269.28
X23.956 Y-269.444
X24.242 Y-269.669
X24.477 Y-269.946
X24.652 Y-270.265
X24.76 Y-270.612
X24.798 Y-270.973
X24.801 Y-271.84
G2 X24.748 Y-272.068 I-0.6 J0.019 F350
X24.101 Y-272.412 I-0.547 J0.247 F850
G1 X20.701 Y-271.838
G2 X20.254 Y-271.493 I0.1 J0.592
X20.201 Y-271.265 I0.547 J0.247 F350
G1 X20.204 Y-270.41 F850
X20.212 Y-270.26
X20.236 Y-270.112
X20.275 Y-269.967
X20.328 Y-269.827
X20.392 Y-269.691
X20.467 Y-269.561
X20.551 Y-269.437
X20.643 Y-269.318
X20.742 Y-269.206
X20.848 Y-269.1
X20.962 Y-268.998
X21.085 Y-268.9
X21.215 Y-268.808
X21.354 Y-268.72
X21.503 Y-268.639
X21.658 Y-268.564
X21.821 Y-268.497
X21.974 Y-268.443
X22.131 Y-268.398
X22.31 Y-268.358
X22.469 Y-268.331
X22.619 Y-268.314
X22.794 Y-268.305
X22.959 Y-268.306
X23.109 Y-268.314
X23.145 Y-268.319
X23.476 Y-268.388
X23.789 Y-268.517
X24.073 Y-268.699
X24.321 Y-268.93
X24.522 Y-269.202
X24.671 Y-269.505
X24.763 Y-269.831
X24.795 Y-270.168
X24.798 Y-270.973
G2 X24.745 Y-271.201 I-0.6 J0.019 F350
X24.1 Y-271.546 I-0.547 J0.247 F850
G1 X20.705 Y-270.983
G2 X20.257 Y-270.638 I0.098 J0.592
X20.204 Y-270.41 I0.547 J0.247 F350
G1 X20.207 Y-269.564 F850
X20.215 Y-269.414
X20.239 Y-269.266
X20.278 Y-269.121
X20.331 Y-268.981
X20.395 Y-268.845
X20.47 Y-268.715
X20.554 Y-268.591
X20.646 Y-268.472
X20.745 Y-268.36
X20.851 Y-268.254
X20.965 Y-268.152
X21.087 Y-268.055
X21.217 Y-267.962
X21.357 Y-267.874
X21.506 Y-267.792
X21.662 Y-267.717
X21.81 Y-267.656
X21.966 Y-267.601
X22.137 Y-267.552
X22.289 Y-267.518
X22.446 Y-267.492
X22.62 Y-267.472
X22.774 Y-267.464
X22.927 Y-267.465
X23.099 Y-267.475
X23.251 Y-267.492
X23.608 Y-267.591
X23.937 Y-267.759
X24.227 Y-267.989
X24.466 Y-268.271
X24.644 Y-268.595
X24.754 Y-268.948
X24.792 Y-269.316
X24.795 Y-270.168
G2 X24.742 Y-270.396 I-0.6 J0.019 F350
X24.09 Y-270.74 I-0.547 J0.247 F850
G1 X20.701 Y-270.136
G2 X20.26 Y-269.792 I0.105 J0.591
X20.207 Y-269.564 I0.547 J0.247 F350
G1 X20.21 Y-268.697 F850
X20.218 Y-268.548
X20.244 Y-268.4
X20.285 Y-268.256
X20.34 Y-268.116
X20.406 Y-267.981
X20.482 Y-267.852
X20.567 Y-267.728
X20.66 Y-267.611
X20.761 Y-267.499
X20.867 Y-267.394
X20.982 Y-267.294
X21.106 Y-267.197
X21.238 Y-267.105
X21.378 Y-267.019
X21.525 Y-266.939
X21.682 Y-266.866
X21.844 Y-266.801
X21.991 Y-266.751
X22.152 Y-266.706
X22.326 Y-266.669
X22.48 Y-266.644
X22.631 Y-266.629
X22.807 Y-266.621
X22.967 Y-266.623
X23.117 Y-266.633
X23.281 Y-266.654
X23.631 Y-266.756
X23.954 Y-266.923
X24.237 Y-267.152
X24.471 Y-267.431
X24.644 Y-267.751
X24.752 Y-268.099
X24.789 Y-268.461
X24.792 Y-269.316
G2 X24.739 Y-269.544 I-0.6 J0.019 F350
X24.085 Y-269.888 I-0.547 J0.247 F850
G1 X20.702 Y-269.269
G2 X20.263 Y-268.926 I0.108 J0.59
X20.21 Y-268.697 I0.547 J0.247 F350
G1 X20.213 Y-267.842 F850
X20.221 Y-267.692
X20.248 Y-267.545
X20.291 Y-267.401
X20.346 Y-267.262
X20.413 Y-267.127
X20.49 Y-266.999
X20.575 Y-266.876
X20.669 Y-266.758
X20.77 Y-266.647
X20.878 Y-266.543
X20.993 Y-266.442
X21.117 Y-266.346
X21.249 Y-266.256
X21.389 Y-266.17
X21.539 Y-266.09
X21.695 Y-266.018
X21.859 Y-265.953
X22.008 Y-265.903
X22.166 Y-265.86
X22.342 Y-265.823
X22.498 Y-265.799
X22.648 Y-265.784
X22.823 Y-265.777
X22.984 Y-265.78
X23.134 Y-265.791
X23.297 Y-265.813
X23.642 Y-265.914
X23.961 Y-266.082
X24.241 Y-266.308
X24.472 Y-266.585
X24.643 Y-266.902
X24.75 Y-267.246
X24.786 Y-267.605
X24.789 Y-268.461
G2 X24.736 Y-268.689 I-0.6 J0.019 F350
X24.081 Y-269.032 I-0.547 J0.247 F850
G1 X20.705 Y-268.414
G2 X20.266 Y-268.07 I0.108 J0.59
X20.213 Y-267.842 I0.547 J0.247 F350
G1 X20.216 Y-267.037 F850
X20.224 Y-266.887
X20.246 Y-266.739
X20.284 Y-266.594
X20.337 Y-266.453
X20.401 Y-266.318
X20.475 Y-266.187
X20.559 Y-266.063
X20.65 Y-265.944
X20.749 Y-265.831
X20.855 Y-265.725
X20.967 Y-265.625
X21.088 Y-265.528
X21.217 Y-265.436
X21.357 Y-265.348
X21.505 Y-265.266
X21.66 Y-265.192
X21.822 Y-265.125
X21.977 Y-265.071
X22.127 Y-265.027
X22.302 Y-264.988
X22.465 Y-264.96
X22.614 Y-264.944
X22.783 Y-264.934
X22.95 Y-264.935
X23.1 Y-264.944
X23.253 Y-264.961
X23.607 Y-265.06
X23.935 Y-265.227
X24.222 Y-265.455
X24.459 Y-265.736
X24.636 Y-266.058
X24.746 Y-266.409
X24.783 Y-266.774
X24.786 Y-267.605
G2 X24.733 Y-267.833 I-0.6 J0.019 F350
X24.087 Y-268.178 I-0.547 J0.247 F850
G1 X20.716 Y-267.61
G2 X20.269 Y-267.265 I0.1 J0.592
X20.216 Y-267.037 I0.547 J0.247 F350
G1 X20.219 Y-266.182 F850
X20.227 Y-266.032
X20.251 Y-265.884
X20.291 Y-265.739
X20.344 Y-265.599
X20.409 Y-265.464
X20.484 Y-265.334
X20.568 Y-265.21
X20.66 Y-265.092
X20.76 Y-264.98
X20.866 Y-264.874
X20.981 Y-264.772
X21.103 Y-264.675
X21.234 Y-264.584
X21.373 Y-264.497
X21.521 Y-264.416
X21.676 Y-264.342
X21.838 Y-264.276
X21.984 Y-264.226
X22.142 Y-264.181
X22.316 Y-264.143
X22.471 Y-264.117
X22.62 Y-264.102
X22.794 Y-264.093
X22.955 Y-264.094
X23.105 Y-264.103
X23.154 Y-264.109
X23.481 Y-264.18
X23.789 Y-264.307
X24.07 Y-264.489
X24.313 Y-264.717
X24.512 Y-264.986
X24.659 Y-265.286
X24.749 Y-265.607
X24.78 Y-265.94
X24.783 Y-266.774
G2 X24.73 Y-267.002 I-0.6 J0.019 F350
X24.08 Y-267.346 I-0.547 J0.247 F850
G1 X20.714 Y-266.754
G2 X20.272 Y-266.41 I0.104 J0.591
X20.219 Y-266.182 I0.547 J0.247 F350
G1 X20.222 Y-265.336 F850
X20.23 Y-265.186
X20.254 Y-265.038
X20.294 Y-264.893
X20.348 Y-264.753
X20.413 Y-264.618
X20.488 Y-264.488
X20.572 Y-264.364
X20.665 Y-264.246
X20.765 Y-264.134
X20.871 Y-264.029
X20.985 Y-263.928
X21.107 Y-263.832
X21.237 Y-263.741
X21.376 Y-263.654
X21.524 Y-263.574
X21.679 Y-263.5
X21.826 Y-263.44
X21.984 Y-263.386
X22.154 Y-263.339
X22.305 Y-263.305
X22.463 Y-263.279
X22.635 Y-263.261
X22.787 Y-263.254
X22.942 Y-263.255
X23.112 Y-263.266
X23.263 Y-263.284
X23.613 Y-263.384
X23.938 Y-263.551
X24.223 Y-263.778
X24.457 Y-264.057
X24.632 Y-264.377
X24.74 Y-264.725
X24.777 Y-265.088
X24.78 Y-265.94
G2 X24.728 Y-266.168 I-0.6 J0.019 F350
X24.075 Y-266.511 I-0.547 J0.247 F850
G1 X20.715 Y-265.907
G2 X20.275 Y-265.564 I0.106 J0.591
X20.222 Y-265.336 I0.547 J0.247 F350
G1 X20.225 Y-264.469 F850
X20.233 Y-264.319
X20.26 Y-264.172
X20.302 Y-264.028
X20.358 Y-263.889
X20.425 Y-263.754
X20.502 Y-263.626
X20.587 Y-263.503
X20.681 Y-263.386
X20.782 Y-263.275
X20.89 Y-263.17
X21.005 Y-263.071
X21.13 Y-262.975
X21.262 Y-262.884
X21.403 Y-262.799
X21.55 Y-262.72
X21.707 Y-262.648
X21.868 Y-262.585
X22.014 Y-262.536
X22.177 Y-262.493
X22.349 Y-262.457
X22.502 Y-262.434
X22.654 Y-262.419
X22.828 Y-262.413
X22.986 Y-262.416
X23.136 Y-262.427
X23.466 Y-262.502
X23.777 Y-262.635
X24.06 Y-262.821
X24.305 Y-263.054
X24.505 Y-263.327
X24.652 Y-263.632
X24.743 Y-263.958
X24.775 Y-264.295
X24.777 Y-265.088
G2 X24.725 Y-265.316 I-0.6 J0.019 F350
X24.069 Y-265.659 I-0.547 J0.247 F850
G1 X20.716 Y-265.04
G2 X20.278 Y-264.697 I0.109 J0.59
X20.225 Y-264.469 I0.547 J0.247 F350
G1 X20.227 Y-263.664 F850
X20.236 Y-263.514
X20.258 Y-263.366
X20.297 Y-263.221
X20.349 Y-263.08
X20.413 Y-262.945
X20.488 Y-262.815
X20.572 Y-262.69
X20.664 Y-262.572
X20.763 Y-262.46
X20.869 Y-262.353
X20.981 Y-262.254
X21.102 Y-262.158
X21.231 Y-262.067
X21.37 Y-261.98
X21.518 Y-261.899
X21.673 Y-261.825
X21.817 Y-261.765
X21.967 Y-261.713
X22.136 Y-261.665
X22.287 Y-261.631
X22.438 Y-261.606
X22.61 Y-261.588
X22.764 Y-261.58
X22.914
X23.084 Y-261.591
X23.237 Y-261.609
X23.592 Y-261.708
X23.921 Y-261.876
X24.209 Y-262.106
X24.447 Y-262.388
X24.624 Y-262.711
X24.734 Y-263.063
X24.772 Y-263.43
X24.775 Y-264.295
G2 X24.722 Y-264.523 I-0.6 J0.019 F350
X24.064 Y-264.866 I-0.547 J0.247 F850
G1 X20.716 Y-264.235
G2 X20.28 Y-263.892 I0.111 J0.59
X20.227 Y-263.664 I0.547 J0.247 F350
G1 X20.23 Y-262.809 F850
X20.238 Y-262.659
X20.263 Y-262.511
X20.303 Y-262.366
X20.357 Y-262.226
X20.422 Y-262.091
X20.498 Y-261.962
X20.583 Y-261.838
X20.675 Y-261.72
X20.776 Y-261.609
X20.883 Y-261.503
X20.995 Y-261.405
X21.118 Y-261.309
X21.249 Y-261.218
X21.387 Y-261.133
X21.532 Y-261.055
X21.686 Y-260.983
X21.846 Y-260.919
X21.991 Y-260.87
X22.151 Y-260.826
X22.323 Y-260.789
X22.475 Y-260.765
X22.626 Y-260.75
X22.8 Y-260.742
X22.959 Y-260.744
X23.108 Y-260.755
X23.272 Y-260.776
X23.619 Y-260.877
X23.94 Y-261.044
X24.221 Y-261.271
X24.453 Y-261.548
X24.625 Y-261.866
X24.732 Y-262.211
X24.769 Y-262.571
X24.772 Y-263.43
G2 X24.719 Y-263.658 I-0.6 J0.019 F350
X24.062 Y-264.001 I-0.547 J0.247 F850
G1 X20.721 Y-263.38
G2 X20.283 Y-263.037 I0.11 J0.59
X20.23 Y-262.809 I0.547 J0.247 F350
G1 X20.233 Y-262.003 F850
X20.241 Y-261.854
X20.261 Y-261.705
X20.298 Y-261.559
X20.349 Y-261.418
X20.412 Y-261.282
X20.486 Y-261.152
X20.568 Y-261.027
X20.66 Y-260.908
X20.76 Y-260.793
X20.999 Y-260.587
X21.268 Y-260.421
X21.56 Y-260.299
X21.867 Y-260.225
X22.182 Y-260.2
G2 X22.409 Y-260.254 I-0.021 J-0.6 F350
X22.56 Y-261.247 I-0.249 J-0.546 F850
G1 X21.233 Y-262.432
G2 X20.286 Y-262.231 I-0.4 J0.448
X20.233 Y-262.003 I0.547 J0.247 F350
G1 X20.236 Y-261.148 F850
X20.244 Y-260.998
X20.326 Y-260.743
X20.475 Y-260.52
X20.68 Y-260.347
X20.924 Y-260.237
X21.19 Y-260.2
G2 X21.422 Y-260.238 I-0.032 J-0.919 F350
X22.047 Y-261.357 I-0.264 J-0.881 F850
X20.274 Y-261.38 I-0.89 J0.238
X20.236 Y-261.148 I0.883 J0.261 F350
G1 X20.237 Y-260.805 F850
X20.247 Y-260.705
X20.263 Y-260.64
X20.286 Y-260.575
X20.323 Y-260.503
X20.39 Y-260.412
X20.439 Y-260.361
X20.488 Y-260.32
X20.513 Y-260.302
X20.601 Y-260.253
X20.689 Y-260.221
X20.789 Y-260.203
X20.89 Y-260.2
X23.305
X23.455 Y-260.207
X23.754 Y-260.275
X24.034 Y-260.403
X24.281 Y-260.586
X24.485 Y-260.815
X24.638 Y-261.082
X24.733 Y-261.374
X24.766 Y-261.68
G2 X24.713 Y-261.908 I-0.6 J0.019 F350
X23.736 Y-262.08 I-0.547 J0.247 F850
G1 X22.896 Y-261.219
G2 X23.077 Y-260.254 I0.429 J0.419
X23.305 Y-260.2 I0.249 J-0.546 F350
G1 X24.069 F850
X24.11
X24.14 Y-260.201
X24.221 Y-260.208
X24.266 Y-260.214
X24.311 Y-260.221
G2 X24.501 Y-260.358 I-0.18 J-0.45 F350
X24.612 Y-260.729 I-0.37 J-0.314 F850
X23.675 Y-260.617 I-0.469 J0.056
X23.915 Y-260.26 I0.469 J-0.056
X24.14 Y-260.201 I0.229 J-0.413 F350
G1 X24.211 Y-260.203 F850
X24.311 Y-260.221
X24.399 Y-260.253
X24.487 Y-260.302
X24.512 Y-260.32
X24.561 Y-260.361
X24.61 Y-260.412
X24.677 Y-260.503
X24.714 Y-260.575
X24.737 Y-260.64
X24.753 Y-260.705
X24.763 Y-260.805
X24.769 Y-262.571
X24.757 Y-262.624 Z-7.483 F350
X24.746 Y-262.675 Z-7.464
X24.736 Y-262.72 Z-7.433
X24.728 Y-262.756 Z-7.392
X24.723 Y-262.783 Z-7.343
X24.718 Y-262.795 Z-7.3
X24.716 Y-262.799 Z-7.254
G0 Z5
X20.717 Y-35.682
Z-4.39
G1 Z-4.99 F350
G2 X21.934 Y-31.943 Z-5.154 I1.783 J1.487
X24.771 Y-34.66 Z-5.318 I0.565 J-2.249
X21.096 Y-36.033 Z-5.481 I-2.268 J0.467
X21.454 Y-32.132 Z-5.645 I1.404 J1.838
X24.809 Y-34.146 Z-5.809 I1.045 J-2.06
X21.542 Y-36.291 Z-5.973 I-2.307 J-0.047
X21.029 Y-32.421 Z-6.136 I0.958 J2.096
X24.733 Y-33.638 Z-6.3 I1.47 J-1.771
X22.032 Y-36.442 Z-6.464 I-2.231 J-0.554
X20.68 Y-32.796 Z-6.628 I0.469 J2.248
X24.547 Y-33.161 Z-6.791 I1.819 J-1.397
X22.542 Y-36.482 Z-6.955 I-2.045 J-1.031
X20.424 Y-33.238 Z-7.119 I-0.04 J2.287
X24.261 Y-32.739 Z-7.283 I2.075 J-0.955
X23.046 Y-36.407 Z-7.447 I-1.76 J-1.453
X20.272 Y-33.723 Z-7.61 I-0.544 J2.213
X23.89 Y-32.392 Z-7.774 I2.227 J-0.47
X23.519 Y-36.224 Z-7.938 I-1.389 J-1.799
X20.232 Y-34.228 Z-8.102 I-1.017 J2.03
X23.453 Y-32.137 Z-8.265 I2.267 J0.034
X23.938 Y-35.941 Z-8.429 I-0.952 J-2.055
X20.304 Y-34.728 Z-8.593 I-1.436 J1.748
X22.972 Y-31.985 Z-8.757 I2.195 J0.534
X24.282 Y-35.574 Z-8.92 I-0.472 J-2.206
X20.485 Y-35.197 Z-9.084 I-1.78 J1.381
X22.471 Y-31.944 Z-9.248 I2.015 J1.003
X24.536 Y-35.142 Z-9.412 I0.028 J-2.247
X20.764 Y-35.613 Z-9.576 I-2.034 J0.949
X21.976 Y-32.015 Z-9.739 I1.736 J1.418
X24.687 Y-34.666 Z-9.903 I0.523 J-2.177
X21.127 Y-35.956 Z-10.067 I-2.185 J0.473
X21.51 Y-32.193 Z-10.231 I1.373 J1.761
X24.729 Y-34.17 Z-10.394 I0.989 J-1.999
X21.555 Y-36.208 Z-10.558 I-2.227 J-0.023
X21.097 Y-32.469 Z-10.722 I0.946 J2.014
X24.66 Y-33.679 Z-10.886 I1.401 J-1.724
X22.027 Y-36.359 Z-11.05 I-2.159 J-0.513
X20.757 Y-32.828 Z-11.213 I0.474 J2.165
X24.485 Y-33.217 Z-11.377 I1.742 J-1.365
X22.518 Y-36.402 Z-11.541 I-1.984 J-0.975
X20.506 Y-33.251 Z-11.705 I-0.017 J2.207
X24.213 Y-32.807 Z-11.868 I1.993 J-0.942
X23.005 Y-36.335 Z-12.032 I-1.712 J-1.384
X20.355 Y-33.718 Z-12.196 I-0.503 J2.14
X23.858 Y-32.469 Z-12.36 I2.144 J-0.476
X23.463 Y-36.162 Z-12.523 I-1.357 J-1.723
X20.312 Y-34.205 Z-12.687 I-0.961 J1.968
X23.439 Y-32.219 Z-12.851 I2.187 J0.011
X23.87 Y-35.893 Z-13.015 I-0.939 J-1.973
X20.377 Y-34.688 Z-13.179 I-1.368 J1.7
X22.976 Y-32.068 Z-13.342 I2.122 J0.493
X24.206 Y-35.543 Z-13.506 I-0.477 J-2.123
X20.547 Y-35.142 Z-13.67 I-1.703 J1.349
X22.494 Y-32.024 Z-13.834 I1.953 J0.947
X24.454 Y-35.128 Z-13.997 I0.005 J-2.167
X20.812 Y-35.546 Z-14.161 I-1.952 J0.935
X22.016 Y-32.088 Z-14.325 I1.688 J1.351
X24.605 Y-34.67 Z-14.489 I0.483 J-2.104
X21.159 Y-35.879 Z-14.652 I-2.102 J0.477
X21.565 Y-32.255 Z-14.816 I1.341 J1.684
X24.649 Y-34.192 Z-14.98 I0.934 J-1.937
X20.349 I-2.15
X24.649 I2.15
G1 X24.674 Y-35.078 F850
X24.686 Y-35.188
Y-35.338
X24.667 Y-35.487
X24.633 Y-35.633
X24.583 Y-35.775
X24.521 Y-35.911
X24.448 Y-36.042
X24.365 Y-36.167
X24.272 Y-36.285
X24.171 Y-36.396
X24.063 Y-36.499
X23.948 Y-36.595
X23.826 Y-36.684
X23.7 Y-36.764
X23.568 Y-36.836
X23.433 Y-36.9
X23.293 Y-36.956
X23.151 Y-37.004
X23.006 Y-37.043
X22.86 Y-37.074
X22.711 Y-37.096
X22.559 Y-37.11
X22.406 Y-37.116
X22.252 Y-37.113
X22.096 Y-37.101
X21.941 Y-37.081
X21.786 Y-37.051
X21.631 Y-37.013
X21.479 Y-36.965
X21.329 Y-36.909
X21.181 Y-36.845
X21.037 Y-36.771
X20.896 Y-36.69
X20.76 Y-36.6
X20.629 Y-36.503
X20.503 Y-36.398
X20.383 Y-36.286
X20.269 Y-36.167
X20.162 Y-36.041
X20.062 Y-35.909
X19.969 Y-35.772
X19.884 Y-35.63
X19.807 Y-35.482
X19.739 Y-35.331
X19.679 Y-35.175
X19.627 Y-35.016
X19.585 Y-34.855
X19.552 Y-34.691
X19.528 Y-34.525
X19.513 Y-34.359
X19.508 Y-34.191
X19.512 Y-34.023
X19.526 Y-33.856
X19.549 Y-33.69
X19.582 Y-33.525
X19.623 Y-33.362
X19.674 Y-33.202
X19.734 Y-33.045
X19.803 Y-32.892
X19.88 Y-32.742
X19.965 Y-32.597
X20.059 Y-32.457
X20.16 Y-32.323
X20.269 Y-32.194
X20.384 Y-32.072
X20.507 Y-31.956
X20.636 Y-31.847
X20.77 Y-31.746
X20.911 Y-31.653
X21.056 Y-31.567
X21.206 Y-31.49
X21.36 Y-31.422
X21.518 Y-31.362
X21.678 Y-31.311
X21.842 Y-31.269
X22.007 Y-31.237
X22.174 Y-31.214
X22.343 Y-31.2
X22.511 Y-31.196
X22.68 Y-31.202
X22.848 Y-31.217
X23.015 Y-31.241
X23.18 Y-31.275
X23.343 Y-31.318
X23.504 Y-31.37
X23.661 Y-31.431
X23.815 Y-31.5
X23.964 Y-31.579
X24.109 Y-31.665
X24.249 Y-31.76
X24.383 Y-31.862
X24.511 Y-31.972
X24.633 Y-32.089
X24.748 Y-32.212
X24.856 Y-32.342
X24.956 Y-32.477
X25.049 Y-32.618
X25.145 Y-32.785
X25.251 Y-32.994
X25.375 Y-33.277
X25.476 Y-33.549
X25.55 Y-33.789
X25.605 Y-34.01
X25.645 Y-34.224
X25.672 Y-34.429
X25.687 Y-34.624
X25.69 Y-34.812
X25.683 Y-34.999
X25.665 Y-35.183
X25.638 Y-35.361
X25.602 Y-35.535
X25.556 Y-35.705
X25.5 Y-35.872
X25.435 Y-36.038
X25.36 Y-36.199
X25.277 Y-36.356
X25.185 Y-36.508
X25.083 Y-36.655
X24.974 Y-36.797
X24.855 Y-36.934
X24.728 Y-37.064
X24.593 Y-37.189
X24.45 Y-37.307
X24.299 Y-37.417
X24.14 Y-37.52
X24.11 Y-37.537
X23.796 Y-37.682
X23.462 Y-37.77
X23.119 Y-37.8
X21.896
X21.711 Y-37.791
X21.546 Y-37.773
X21.378 Y-37.746
X21.209 Y-37.708
X21.038 Y-37.66
X20.868 Y-37.601
X20.698 Y-37.532
X20.529 Y-37.451
X20.362 Y-37.36
X20.197 Y-37.257
X20.037 Y-37.144
X19.882 Y-37.021
X19.732 Y-36.888
X19.588 Y-36.746
X19.448 Y-36.589
X19.259 Y-36.308
X19.121 Y-35.999
X19.036 Y-35.672
X19.008 Y-35.335
G2 X19.062 Y-35.107 I0.6 J-0.022 F350
X19.986 Y-34.891 I0.546 J-0.25 F850
G1 X22.254 Y-36.735
G2 X22.124 Y-37.746 I-0.379 J-0.466
X21.896 Y-37.8 I-0.249 J0.546 F350
G1 X20.488 F850
X20.338 Y-37.792
X20.033 Y-37.725
X19.748 Y-37.595
X19.497 Y-37.409
X19.289 Y-37.176
X19.134 Y-36.905
X19.039 Y-36.607
X19.007 Y-36.296
G2 X19.061 Y-36.069 I0.6 J-0.022 F350
X20.036 Y-35.899 I0.546 J-0.25 F850
G1 X20.896 Y-36.781
G2 X20.715 Y-37.746 I-0.43 J-0.419
X20.488 Y-37.8 I-0.249 J0.546 F350
G1 X19.723 F850
X19.683
X19.652
X19.564 Y-37.793
X19.523 Y-37.789
X19.481 Y-37.783
G2 X19.28 Y-37.664 I0.169 J0.516 F350
X19.11 Y-37.215 I0.37 J0.397 F850
X20.172 Y-37.318 I0.531 J-0.051
X19.879 Y-37.744 I-0.531 J0.051
X19.652 Y-37.8 I-0.238 J0.477 F350
G1 X19.582 Y-37.799 F850
X19.481 Y-37.783
X19.454 Y-37.775
X19.431 Y-37.769
X19.381 Y-37.749
X19.33 Y-37.724
X19.28 Y-37.692
X19.19 Y-37.618
X19.126 Y-37.545
X19.079 Y-37.472
X19.052 Y-37.416
X19.034 Y-37.366
X19.02 Y-37.316
X19.006 Y-37.215
Y-36.812
X19.011 Y-33.389
X19.021 Y-33.203
X19.037 Y-33.054
X19.062 Y-32.906
X19.096 Y-32.756
X19.14 Y-32.602
X19.195 Y-32.445
X19.26 Y-32.289
X19.335 Y-32.133
X19.421 Y-31.979
X19.517 Y-31.826
X19.624 Y-31.675
X19.742 Y-31.528
X19.87 Y-31.385
X20.008 Y-31.248
X20.155 Y-31.117
X20.312 Y-30.992
X20.477 Y-30.876
X20.65 Y-30.768
X20.83 Y-30.669
X21.017 Y-30.58
X21.21 Y-30.501
X21.409 Y-30.432
X21.612 Y-30.375
X21.819 Y-30.328
X22.03 Y-30.293
X22.243 Y-30.27
X22.458 Y-30.259
X22.675 Y-30.261
X22.891 Y-30.274
X23.107 Y-30.299
X23.322 Y-30.337
X23.535 Y-30.387
X23.745 Y-30.449
X23.952 Y-30.523
X24.154 Y-30.609
X24.352 Y-30.706
X24.544 Y-30.814
X24.73 Y-30.933
X24.912 Y-31.064
X25.092 Y-31.21
X25.274 Y-31.375
X25.452 Y-31.556
X25.491 Y-31.601
X25.703 Y-31.891
X25.859 Y-32.214
X25.956 Y-32.56
X25.988 Y-32.917
X25.993 Y-35.916
X25.985 Y-36.066
X25.969 Y-36.215
X25.965 Y-36.242
X25.863 Y-36.603
X25.693 Y-36.937
X25.459 Y-37.231
X25.171 Y-37.472
X24.842 Y-37.652
X24.483 Y-37.763
X24.11 Y-37.8
G2 X23.882 Y-37.746 I0.021 J0.6 F350
X23.707 Y-36.776 I0.249 J0.546 F850
G1 X24.969 Y-35.514
G2 X25.939 Y-35.688 I0.424 J-0.424
X25.993 Y-35.916 I-0.546 J-0.25 F350
G1 X25.994 Y-36.873 F850
X25.987 Y-37.023
X25.906 Y-37.272
X25.759 Y-37.489
X25.558 Y-37.657
X25.319 Y-37.764
X25.06 Y-37.8
G2 X24.828 Y-37.761 I0.031 J0.895 F350
X24.225 Y-36.674 I0.263 J0.856 F850
X25.955 Y-36.641 I0.869 J-0.232
X25.994 Y-36.873 I-0.86 J-0.264 F350
G1 Y-37.215 F850
X25.98 Y-37.316
X25.966 Y-37.366
X25.948 Y-37.416
X25.921 Y-37.472
X25.874 Y-37.545
X25.81 Y-37.618
X25.72 Y-37.692
X25.67 Y-37.724
X25.619 Y-37.749
X25.569 Y-37.769
X25.519 Y-37.783
X25.418 Y-37.799
X25.317 Y-37.8
X23.119
G2 X22.891 Y-37.746 I0.021 J0.6 F350
X22.698 Y-37.607 I0.249 J0.546 F850
G1 X19.169 Y-33.776
G2 X19.064 Y-33.617 I0.441 J0.406
X19.011 Y-33.389 I0.546 J0.248 F350
G1 X19.013 Y-32.071 F850
X19.021 Y-31.921
X19.039 Y-31.772
X19.071 Y-31.625
X19.113 Y-31.481
X19.165 Y-31.341
X19.226 Y-31.203
X19.295 Y-31.07
X19.375 Y-30.935
X19.467 Y-30.798
X19.571 Y-30.661
X19.685 Y-30.526
X19.813 Y-30.392
X19.954 Y-30.26
X20.108 Y-30.131
X20.273 Y-30.008
X20.448 Y-29.892
X20.634 Y-29.783
X20.832 Y-29.682
X21.041 Y-29.59
X21.259 Y-29.508
X21.487 Y-29.436
X21.722 Y-29.377
X21.963 Y-29.331
X22.21 Y-29.297
X22.461 Y-29.278
X22.716 Y-29.272
X22.973 Y-29.281
X23.232 Y-29.305
X23.491 Y-29.343
X23.75 Y-29.397
X24.007 Y-29.465
X24.264 Y-29.549
X24.52 Y-29.65
X24.774 Y-29.766
X24.989 Y-29.879
X25.018 Y-29.896
X25.295 Y-30.097
X25.533 Y-30.342
X25.727 Y-30.625
X25.869 Y-30.936
X25.957 Y-31.266
X25.986 Y-31.607
X25.988 Y-32.917
G2 X25.935 Y-33.145 I-0.6 J0.02 F350
X25.302 Y-33.491 I-0.546 J0.248 F850
G1 X19.526 Y-32.644
G2 X19.066 Y-32.299 I0.087 J0.594
X19.013 Y-32.071 I0.546 J0.248 F350
G1 X19.015 Y-31.014 F850
X19.022 Y-30.864
X19.042 Y-30.716
X19.076 Y-30.569
X19.121 Y-30.426
X19.177 Y-30.287
X19.241 Y-30.152
X19.314 Y-30.021
X19.397 Y-29.891
X19.493 Y-29.756
X19.601 Y-29.622
X19.721 Y-29.49
X19.856 Y-29.356
X20.007 Y-29.223
X20.17 Y-29.095
X20.345 Y-28.973
X20.535 Y-28.855
X20.741 Y-28.743
X20.96 Y-28.64
X21.192 Y-28.546
X21.433 Y-28.464
X21.684 Y-28.393
X21.947 Y-28.336
X22.219 Y-28.292
X22.501 Y-28.263
X22.79 Y-28.249
X23.085 Y-28.252
X23.386 Y-28.271
X23.686 Y-28.308
X23.948 Y-28.355
X24.215 Y-28.419
X24.449 Y-28.489
X24.663 Y-28.567
X24.77 Y-28.612
X25.11 Y-28.799
X25.408 Y-29.047
X25.653 Y-29.348
X25.834 Y-29.691
X25.946 Y-30.063
X25.985 Y-30.449
X25.986 Y-31.607
G2 X25.933 Y-31.835 I-0.6 J0.02 F350
X25.325 Y-32.184 I-0.546 J0.248 F850
G1 X19.553 Y-31.591
G2 X19.068 Y-31.242 I0.061 J0.597
X19.015 Y-31.014 I0.546 J0.248 F350
G1 X19.016 Y-30.007 F850
X19.024 Y-29.858
X19.045 Y-29.709
X19.08 Y-29.563
X19.127 Y-29.421
X19.184 Y-29.282
X19.25 Y-29.147
X19.324 Y-29.017
X19.411 Y-28.884
X19.507 Y-28.752
X19.62 Y-28.615
X19.748 Y-28.476
X19.888 Y-28.341
X20.042 Y-28.207
X20.214 Y-28.074
X20.404 Y-27.944
X20.606 Y-27.822
X20.822 Y-27.707
X21.056 Y-27.599
X21.308 Y-27.499
X21.575 Y-27.411
X21.853 Y-27.336
X22.141 Y-27.276
X22.436 Y-27.231
X22.738 Y-27.203
X23.042 Y-27.191
X23.339 Y-27.197
X23.6 Y-27.216
X23.884 Y-27.254
X24.119 Y-27.298
X24.339 Y-27.353
X24.573 Y-27.426
X24.763 Y-27.497
X24.786 Y-27.506
X25.122 Y-27.694
X25.415 Y-27.943
X25.656 Y-28.243
X25.835 Y-28.584
X25.945 Y-28.952
X25.983 Y-29.335
X25.985 Y-30.449
G2 X25.931 Y-30.677 I-0.6 J0.02 F350
X25.339 Y-31.027 I-0.546 J0.248 F850
G1 X19.57 Y-30.586
G2 X19.069 Y-30.235 I0.046 J0.598
X19.016 Y-30.007 I0.546 J0.248 F350
G1 X19.017 Y-29.05 F850
X19.025 Y-28.901
X19.043 Y-28.752
X19.075 Y-28.605
X19.119 Y-28.462
X19.174 Y-28.322
X19.238 Y-28.186
X19.31 Y-28.055
X19.392 Y-27.923
X19.49 Y-27.784
X19.601 Y-27.645
X19.725 Y-27.506
X19.868 Y-27.363
X20.027 Y-27.22
X20.199 Y-27.083
X20.39 Y-26.948
X20.601 Y-26.815
X20.828 Y-26.689
X21.067 Y-26.574
X21.324 Y-26.468
X21.596 Y-26.373
X21.878 Y-26.292
X22.172 Y-26.225
X22.468 Y-26.175
X22.765 Y-26.142
X23.064 Y-26.126
X23.358 Y-26.127
X23.605 Y-26.141
X23.873 Y-26.172
X24.108 Y-26.212
X24.315 Y-26.26
X24.545 Y-26.327
X24.739 Y-26.396
X24.753 Y-26.402
X25.097 Y-26.587
X25.398 Y-26.836
X25.645 Y-27.138
X25.829 Y-27.482
X25.943 Y-27.856
X25.981 Y-28.244
X25.983 Y-29.335
G2 X25.93 Y-29.563 I-0.6 J0.02 F350
X25.354 Y-29.915 I-0.546 J0.248 F850
G1 X19.588 Y-29.63
G2 X19.071 Y-29.278 I0.03 J0.599
X19.017 Y-29.05 I0.546 J0.248 F350
G1 X19.019 Y-28.044 F850
X19.027 Y-27.894
X19.046 Y-27.745
X19.078 Y-27.599
X19.123 Y-27.455
X19.177 Y-27.316
X19.241 Y-27.18
X19.314 Y-27.046
X19.397 Y-26.911
X19.497 Y-26.769
X19.611 Y-26.624
X19.738 Y-26.481
X19.884 Y-26.333
X20.048 Y-26.185
X20.224 Y-26.043
X20.419 Y-25.903
X20.635 Y-25.766
X20.868 Y-25.636
X21.114 Y-25.516
X21.373 Y-25.408
X21.647 Y-25.31
X21.929 Y-25.228
X22.22 Y-25.161
X22.514 Y-25.11
X22.808 Y-25.076
X23.103 Y-25.059
X23.383 Y-25.058
X23.625 Y-25.071
X23.891 Y-25.101
X24.112 Y-25.138
X24.322 Y-25.186
X24.548 Y-25.25
X24.735 Y-25.316
X24.744 Y-25.319
X25.09 Y-25.504
X25.393 Y-25.752
X25.641 Y-26.055
X25.827 Y-26.4
X25.941 Y-26.775
X25.98 Y-27.165
X25.981 Y-28.244
G2 X25.928 Y-28.472 I-0.6 J0.02 F350
X25.361 Y-28.824 I-0.546 J0.248 F850
G1 X19.598 Y-28.623
G2 X19.072 Y-28.272 I0.021 J0.6
X19.019 Y-28.044 I0.546 J0.248 F350
G1 X19.02 Y-27.037 F850
X19.028 Y-26.887
X19.046 Y-26.738
X19.077 Y-26.592
X19.12 Y-26.448
X19.174 Y-26.308
X19.236 Y-26.171
X19.306 Y-26.039
X19.39 Y-25.899
X19.49 Y-25.753
X19.601 Y-25.609
X19.729 Y-25.46
X19.877 Y-25.308
X20.038 Y-25.159
X20.214 Y-25.013
X20.411 Y-24.869
X20.628 Y-24.728
X20.858 Y-24.596
X21.101 Y-24.474
X21.361 Y-24.362
X21.634 Y-24.261
X21.914 Y-24.176
X22.203 Y-24.106
X22.494 Y-24.052
X22.784 Y-24.015
X23.077 Y-23.995
X23.357 Y-23.991
X23.595 Y-24.001
X23.86 Y-24.027
X24.083 Y-24.062
X24.289 Y-24.106
X24.515 Y-24.168
X24.705 Y-24.232
X24.721 Y-24.239
X25.024 Y-24.391
X25.297 Y-24.592
X25.532 Y-24.837
X25.723 Y-25.117
X25.863 Y-25.426
X25.949 Y-25.755
X25.978 Y-26.092
X25.98 Y-27.165
G2 X25.926 Y-27.393 I-0.6 J0.02 F350
X25.367 Y-27.744 I-0.546 J0.248 F850
G1 X19.607 Y-27.617
G2 X19.074 Y-27.265 I0.013 J0.6
X19.02 Y-27.037 I0.546 J0.248 F350
G1 X19.022 Y-25.98 F850
X19.03 Y-25.831
X19.05 Y-25.682
X19.083 Y-25.536
X19.128 Y-25.393
X19.182 Y-25.253
X19.245 Y-25.117
X19.319 Y-24.978
X19.404 Y-24.838
X19.506 Y-24.69
X19.623 Y-24.54
X19.752 Y-24.392
X19.901 Y-24.239
X20.069 Y-24.086
X20.249 Y-23.939
X20.447 Y-23.794
X20.664 Y-23.654
X20.9 Y-23.521
X21.149 Y-23.397
X21.411 Y-23.285
X21.684 Y-23.187
X21.963 Y-23.103
X22.251 Y-23.034
X22.541 Y-22.982
X22.83 Y-22.947
X23.12 Y-22.927
X23.384 Y-22.925
X23.638 Y-22.937
X23.885 Y-22.963
X24.098 Y-22.997
X24.329 Y-23.048
X24.525 Y-23.102
X24.728 Y-23.172
X25.029 Y-23.325
X25.3 Y-23.526
X25.534 Y-23.771
X25.723 Y-24.051
X25.862 Y-24.359
X25.947 Y-24.686
X25.977 Y-25.023
X25.978 Y-26.092
G2 X25.925 Y-26.32 I-0.6 J0.02 F350
X25.367 Y-26.672 I-0.546 J0.248 F850
G1 X19.61 Y-26.56
G2 X19.075 Y-26.208 I0.012 J0.6
X19.022 Y-25.98 I0.546 J0.248 F350
G1 X19.024 Y-24.933 F850
X19.031 Y-24.783
X19.052 Y-24.635
X19.085 Y-24.488
X19.129 Y-24.345
X19.183 Y-24.205
X19.246 Y-24.069
X19.318 Y-23.932
X19.404 Y-23.79
X19.507 Y-23.64
X19.622 Y-23.491
X19.753 Y-23.34
X19.904 Y-23.184
X20.069 Y-23.032
X20.249 Y-22.884
X20.449 Y-22.738
X20.668 Y-22.595
X20.903 Y-22.461
X21.15 Y-22.338
X21.41 Y-22.226
X21.682 Y-22.127
X21.962 Y-22.042
X22.249 Y-21.972
X22.536 Y-21.92
X22.827 Y-21.883
X23.115 Y-21.863
X23.382 Y-21.86
X23.63 Y-21.871
X23.879 Y-21.896
X24.091 Y-21.929
X24.321 Y-21.979
X24.518 Y-22.034
X24.711 Y-22.099
X24.72 Y-22.103
X25.023 Y-22.255
X25.296 Y-22.456
X25.53 Y-22.701
X25.72 Y-22.981
X25.86 Y-23.29
X25.946 Y-23.618
X25.975 Y-23.955
X25.977 Y-25.023
G2 X25.923 Y-25.25 I-0.6 J0.02 F350
X25.368 Y-25.602 I-0.546 J0.248 F850
G1 X19.614 Y-25.513
G2 X19.077 Y-25.161 I0.009 J0.6
X19.024 Y-24.933 I0.546 J0.248 F350
G1 X19.025 Y-23.926 F850
X19.033 Y-23.769
X19.049 Y-23.62
X19.079 Y-23.473
X19.12 Y-23.328
X19.171 Y-23.187
X19.231 Y-23.05
X19.3 Y-22.916
X19.384 Y-22.771
X19.481 Y-22.624
X19.591 Y-22.476
X19.72 Y-22.322
X19.865 Y-22.167
X20.023 Y-22.017
X20.2 Y-21.866
X20.397 Y-21.716
X20.611 Y-21.572
X20.837 Y-21.438
X21.079 Y-21.312
X21.337 Y-21.195
X21.607 Y-21.091
X21.885 Y-21.002
X22.17 Y-20.928
X22.456 Y-20.87
X22.745 Y-20.829
X23.032 Y-20.804
X23.311 Y-20.796
X23.554 Y-20.802
X23.812 Y-20.824
X24.027 Y-20.854
X24.255 Y-20.899
X24.462 Y-20.952
X24.649 Y-21.012
X24.687 Y-21.026
X24.996 Y-21.176
X25.275 Y-21.376
X25.516 Y-21.622
X25.711 Y-21.905
X25.855 Y-22.217
X25.943 Y-22.549
X25.973 Y-22.892
X25.975 Y-23.955
G2 X25.922 Y-24.183 I-0.6 J0.02 F350
X25.372 Y-24.535 I-0.546 J0.248 F850
G1 X19.622 Y-24.506
G2 X19.078 Y-24.154 I0.003 J0.6
X19.025 Y-23.926 I0.546 J0.248 F350
G1 X19.027 Y-22.809 F850
X19.034 Y-22.659
X19.056 Y-22.511
X19.09 Y-22.365
X19.135 Y-22.221
X19.19 Y-22.082
X19.253 Y-21.946
X19.329 Y-21.803
X19.416 Y-21.66
X19.518 Y-21.512
X19.638 Y-21.358
X19.77 Y-21.206
X19.919 Y-21.053
X20.088 Y-20.899
X20.274 Y-20.746
X20.474 Y-20.601
X20.69 Y-20.462
X20.925 Y-20.328
X21.176 Y-20.204
X21.441 Y-20.091
X21.714 Y-19.992
X21.994 Y-19.908
X22.279 Y-19.84
X22.566 Y-19.788
X22.854 Y-19.753
X23.138 Y-19.734
X23.39 Y-19.732
X23.653 Y-19.744
X23.888 Y-19.769
X24.104 Y-19.804
X24.333 Y-19.854
X24.523 Y-19.907
X24.617 Y-19.939
X24.941 Y-20.083
X25.234 Y-20.281
X25.488 Y-20.528
X25.694 Y-20.815
X25.846 Y-21.135
X25.94 Y-21.476
X25.972 Y-21.829
X25.973 Y-22.892
G2 X25.92 Y-23.12 I-0.6 J0.02 F350
X25.365 Y-23.471 I-0.546 J0.248 F850
G1 X19.618 Y-23.389
G2 X19.08 Y-23.037 I0.009 J0.6
X19.027 Y-22.809 I0.546 J0.248 F350
G1 X19.028 Y-21.802 F850
X19.036 Y-21.65
X19.052 Y-21.501
X19.082 Y-21.354
X19.123 Y-21.21
X19.174 Y-21.069
X19.234 Y-20.931
X19.303 Y-20.796
X19.387 Y-20.65
X19.483 Y-20.504
X19.594 Y-20.355
X19.724 Y-20.2
X19.868 Y-20.046
X20.026 Y-19.894
X20.205 Y-19.741
X20.402 Y-19.591
X20.614 Y-19.448
X20.84 Y-19.313
X21.083 Y-19.186
X21.341 Y-19.069
X21.609 Y-18.966
X21.887 Y-18.876
X22.171 Y-18.802
X22.456 Y-18.744
X22.744 Y-18.702
X23.03 Y-18.677
X23.287 Y-18.669
X23.559 Y-18.676
X23.797 Y-18.696
X24.018 Y-18.726
X24.251 Y-18.772
X24.444 Y-18.822
X24.65 Y-18.887
X24.681 Y-18.899
X24.991 Y-19.048
X25.271 Y-19.249
X25.512 Y-19.494
X25.708 Y-19.778
X25.852 Y-20.09
X25.94 Y-20.423
X25.97 Y-20.765
X25.972 Y-21.829
G2 X25.918 Y-22.057 I-0.6 J0.02 F350
X25.369 Y-22.409 I-0.546 J0.248 F850
G1 X19.625 Y-22.382
G2 X19.082 Y-22.03 I0.003 J0.6
X19.028 Y-21.802 I0.546 J0.248 F350
G1 X19.03 Y-20.705 F850
X19.038 Y-20.555
X19.057 Y-20.406
X19.09 Y-20.26
X19.134 Y-20.116
X19.187 Y-19.976
X19.249 Y-19.839
X19.323 Y-19.698
X19.408 Y-19.556
X19.508 Y-19.407
X19.626 Y-19.253
X19.755 Y-19.103
X19.903 Y-18.949
X20.07 Y-18.793
X20.252 Y-18.641
X20.449 Y-18.496
X20.664 Y-18.355
X20.897 Y-18.22
X21.146 Y-18.094
X21.406 Y-17.98
X21.677 Y-17.88
X21.956 Y-17.794
X22.239 Y-17.724
X22.525 Y-17.669
X22.812 Y-17.632
X23.097 Y-17.611
X23.353 Y-17.606
X23.613 Y-17.616
X23.855 Y-17.639
X24.068 Y-17.672
X24.3 Y-17.721
X24.493 Y-17.773
X24.692 Y-17.839
X24.704 Y-17.844
X25.009 Y-17.996
X25.284 Y-18.197
X25.52 Y-18.441
X25.712 Y-18.723
X25.853 Y-19.032
X25.939 Y-19.362
X25.969 Y-19.701
X25.97 Y-20.765
G2 X25.917 Y-20.993 I-0.6 J0.02 F350
X25.364 Y-21.345 I-0.546 J0.248 F850
G1 X19.623 Y-21.285
G2 X19.083 Y-20.933 I0.006 J0.6
X19.03 Y-20.705 I0.546 J0.248 F350
G1 X19.031 Y-19.637 F850
X19.039 Y-19.487
X19.059 Y-19.339
X19.092 Y-19.192
X19.136 Y-19.049
X19.19 Y-18.909
X19.252 Y-18.772
X19.324 Y-18.634
X19.41 Y-18.491
X19.513 Y-18.34
X19.628 Y-18.19
X19.759 Y-18.037
X19.909 Y-17.881
X20.075 Y-17.726
X20.255 Y-17.577
X20.454 Y-17.431
X20.671 Y-17.288
X20.906 Y-17.153
X21.153 Y-17.028
X21.413 Y-16.915
X21.681 Y-16.815
X21.96 Y-16.73
X22.244 Y-16.66
X22.53 Y-16.606
X22.818 Y-16.569
X23.104 Y-16.548
X23.365 Y-16.544
X23.616 Y-16.554
X23.862 Y-16.577
X24.073 Y-16.61
X24.303 Y-16.659
X24.5 Y-16.712
X24.693 Y-16.776
X24.705 Y-16.781
X25.009 Y-16.933
X25.283 Y-17.134
X25.519 Y-17.379
X25.71 Y-17.66
X25.851 Y-17.969
X25.938 Y-18.298
X25.967 Y-18.637
X25.969 Y-19.701
G2 X25.915 Y-19.929 I-0.6 J0.02 F350
X25.362 Y-20.281 I-0.546 J0.248 F850
G1 X19.625 Y-20.217
G2 X19.085 Y-19.865 I0.007 J0.6
X19.031 Y-19.637 I0.546 J0.248 F350
G1 X19.033 Y-18.581 F850
X19.041 Y-18.431
X19.06 Y-18.282
X19.093 Y-18.136
X19.136 Y-17.992
X19.189 Y-17.852
X19.251 Y-17.715
X19.322 Y-17.578
X19.408 Y-17.434
X19.51 Y-17.283
X19.624 Y-17.134
X19.754 Y-16.981
X19.904 Y-16.824
X20.068 Y-16.671
X20.247 Y-16.522
X20.446 Y-16.374
X20.663 Y-16.231
X20.896 Y-16.096
X21.142 Y-15.971
X21.4 Y-15.858
X21.67 Y-15.757
X21.947 Y-15.671
X22.232 Y-15.6
X22.517 Y-15.546
X22.805 Y-15.508
X23.091 Y-15.486
X23.355 Y-15.481
X23.603 Y-15.49
X23.852 Y-15.513
X24.063 Y-15.545
X24.293 Y-15.593
X24.491 Y-15.646
X24.683 Y-15.71
X24.698 Y-15.716
X25.004 Y-15.867
X25.279 Y-16.068
X25.516 Y-16.313
X25.708 Y-16.595
X25.849 Y-16.905
X25.936 Y-17.234
X25.965 Y-17.574
X25.967 Y-18.637
G2 X25.914 Y-18.865 I-0.6 J0.02 F350
X25.361 Y-19.217 I-0.546 J0.248 F850
G1 X19.627 Y-19.161
G2 X19.086 Y-18.809 I0.006 J0.6
X19.033 Y-18.581 I0.546 J0.248 F350
G1 X19.035 Y-17.483 F850
X19.042 Y-17.334
X19.065 Y-17.185
X19.101 Y-17.04
X19.147 Y-16.897
X19.202 Y-16.757
X19.266 Y-16.621
X19.343 Y-16.479
X19.431 Y-16.336
X19.536 Y-16.185
X19.656 Y-16.031
X19.789 Y-15.88
X19.941 Y-15.726
X20.112 Y-15.57
X20.297 Y-15.42
X20.498 Y-15.276
X20.717 Y-15.136
X20.953 Y-15.003
X21.206 Y-14.879
X21.47 Y-14.768
X21.742 Y-14.671
X22.021 Y-14.588
X22.305 Y-14.522
X22.591 Y-14.471
X22.878 Y-14.437
X23.162 Y-14.42
X23.411 Y-14.419
X23.67 Y-14.432
X23.904 Y-14.457
X24.118 Y-14.493
X24.344 Y-14.543
X24.534 Y-14.597
X24.618 Y-14.626
X24.939 Y-14.77
X25.231 Y-14.969
X25.483 Y-15.216
X25.688 Y-15.503
X25.839 Y-15.822
X25.932 Y-16.162
X25.964 Y-16.513
X25.965 Y-17.574
G2 X25.912 Y-17.802 I-0.6 J0.02 F350
X25.356 Y-18.154 I-0.546 J0.248 F850
G1 X19.625 Y-18.063
G2 X19.088 Y-17.711 I0.009 J0.6
X19.035 Y-17.483 I0.546 J0.248 F350
G1 X19.036 Y-16.477 F850
X19.044 Y-16.327
X19.061 Y-16.178
X19.091 Y-16.031
X19.133 Y-15.887
X19.185 Y-15.746
X19.245 Y-15.609
X19.315 Y-15.472
X19.4 Y-15.326
X19.497 Y-15.181
X19.609 Y-15.03
X19.74 Y-14.875
X19.885 Y-14.721
X20.044 Y-14.569
X20.224 Y-14.417
X20.423 Y-14.267
X20.635 Y-14.125
X20.861 Y-13.991
X21.105 Y-13.865
X21.363 Y-13.749
X21.632 Y-13.646
X21.909 Y-13.557
X22.192 Y-13.484
X22.476 Y-13.428
X22.764 Y-13.387
X23.048 Y-13.363
X23.302 Y-13.357
X23.573 Y-13.364
X23.808 Y-13.384
X24.029 Y-13.416
X24.26 Y-13.462
X24.452 Y-13.512
X24.657 Y-13.578
X24.68 Y-13.587
X24.988 Y-13.737
X25.267 Y-13.938
X25.507 Y-14.183
X25.701 Y-14.466
X25.844 Y-14.777
X25.932 Y-15.109
X25.962 Y-15.451
X25.964 Y-16.513
G2 X25.911 Y-16.741 I-0.6 J0.02 F350
X25.36 Y-17.093 I-0.546 J0.248 F850
G1 X19.632 Y-17.057
G2 X19.09 Y-16.705 I0.004 J0.6
X19.036 Y-16.477 I0.546 J0.248 F350
G1 X19.038 Y-15.359 F850
X19.046 Y-15.209
X19.068 Y-15.061
X19.104 Y-14.915
X19.149 Y-14.772
X19.204 Y-14.633
X19.268 Y-14.497
X19.345 Y-14.354
X19.433 Y-14.211
X19.537 Y-14.062
X19.658 Y-13.907
X19.791 Y-13.755
X19.942 Y-13.602
X20.112 Y-13.448
X20.299 Y-13.296
X20.5 Y-13.151
X20.717 Y-13.012
X20.952 Y-12.88
X21.203 Y-12.756
X21.465 Y-12.646
X21.739 Y-12.548
X22.018 Y-12.465
X22.301 Y-12.399
X22.587 Y-12.348
X22.872 Y-12.315
X23.156 Y-12.297
X23.404 Y-12.296
X23.667 Y-12.309
X23.897 Y-12.334
X24.114 Y-12.37
X24.339 Y-12.42
X24.528 Y-12.473
X24.613 Y-12.503
X24.936 Y-12.647
X25.227 Y-12.846
X25.48 Y-13.092
X25.685 Y-13.38
X25.836 Y-13.698
X25.929 Y-14.039
X25.961 Y-14.39
X25.962 Y-15.451
G2 X25.909 Y-15.679 I-0.6 J0.02 F350
X25.353 Y-16.031 I-0.546 J0.248 F850
G1 X19.628 Y-15.939
G2 X19.091 Y-15.587 I0.01 J0.6
X19.038 Y-15.359 I0.546 J0.248 F350
G1 X19.039 Y-14.352 F850
X19.047 Y-14.203
X19.064 Y-14.054
X19.094 Y-13.907
X19.136 Y-13.763
X19.187 Y-13.622
X19.248 Y-13.484
X19.317 Y-13.348
X19.403 Y-13.202
X19.499 Y-13.057
X19.611 Y-12.907
X19.741 Y-12.751
X19.885 Y-12.598
X20.045 Y-12.447
X20.224 Y-12.294
X20.422 Y-12.145
X20.634 Y-12.002
X20.86 Y-11.868
X21.103 Y-11.743
X21.361 Y-11.627
X21.628 Y-11.524
X21.906 Y-11.435
X22.188 Y-11.362
X22.472 Y-11.306
X22.759 Y-11.265
X23.044 Y-11.241
X23.298 Y-11.234
X23.568 Y-11.242
X23.803 Y-11.262
X24.024 Y-11.293
X24.255 Y-11.339
X24.447 Y-11.389
X24.652 Y-11.455
X24.676 Y-11.464
X24.984 Y-11.614
X25.263 Y-11.815
X25.503 Y-12.06
X25.698 Y-12.343
X25.841 Y-12.654
X25.929 Y-12.986
X25.959 Y-13.328
X25.961 Y-14.39
G2 X25.907 Y-14.618 I-0.6 J0.02 F350
X25.357 Y-14.97 I-0.546 J0.248 F850
G1 X19.635 Y-14.932
G2 X19.093 Y-14.58 I0.004 J0.6
X19.039 Y-14.352 I0.546 J0.248 F350
G1 X19.041 Y-13.255 F850
X19.049 Y-13.105
X19.069 Y-12.957
X19.103 Y-12.811
X19.147 Y-12.667
X19.201 Y-12.527
X19.263 Y-12.391
X19.338 Y-12.249
X19.424 Y-12.107
X19.526 Y-11.958
X19.644 Y-11.805
X19.774 Y-11.654
X19.923 Y-11.5
X20.091 Y-11.345
X20.274 Y-11.194
X20.471 Y-11.049
X20.686 Y-10.909
X20.92 Y-10.775
X21.169 Y-10.65
X21.429 Y-10.538
X21.7 Y-10.438
X21.978 Y-10.354
X22.26 Y-10.285
X22.545 Y-10.232
X22.675 Y-10.216
X22.759 Y-10.207
X22.843 Y-10.202
X22.927 Y-10.2
G2 X23.155 Y-10.254 I-0.021 J-0.6 F350
X23.265 Y-11.281 I-0.249 J-0.546 F850
G1 X19.999 Y-13.716
G2 X19.094 Y-13.483 I-0.359 J0.481
X19.041 Y-13.255 I0.546 J0.248 F350
G1 X19.043 Y-12.188 F850
X19.05 Y-12.038
X19.072 Y-11.889
X19.105 Y-11.743
X19.15 Y-11.6
X19.204 Y-11.46
X19.267 Y-11.323
X19.34 Y-11.185
X19.354 Y-11.163
X19.555 Y-10.887
X19.8 Y-10.65
X20.082 Y-10.457
X20.393 Y-10.316
X20.724 Y-10.229
X21.064 Y-10.2
G2 X21.292 Y-10.254 I-0.021 J-0.6 F350
X21.462 Y-11.229 I-0.249 J-0.546 F850
G1 X20.061 Y-12.597
G2 X19.096 Y-12.415 I-0.419 J0.429
X19.043 Y-12.188 I0.546 J0.248 F350
G1 X19.044 Y-11.242 F850
X19.052 Y-11.092
X19.114 Y-10.854
X19.231 Y-10.637
X19.395 Y-10.454
X19.599 Y-10.316
X19.829 Y-10.229
X20.074 Y-10.2
G2 X20.301 Y-10.254 I-0.021 J-0.6 F350
X20.484 Y-11.217 I-0.249 J-0.546 F850
G1 X20.075 Y-11.639
G2 X19.097 Y-11.47 I-0.431 J0.418
X19.044 Y-11.242 I0.546 J0.248 F350
G1 X19.045 Y-10.839 F850
X19.049 Y-10.738
X19.071 Y-10.638
X19.079 Y-10.613
X19.118 Y-10.525
X19.145 Y-10.481
X19.177 Y-10.436
X19.229 Y-10.38
X19.28 Y-10.336
X19.369 Y-10.275
X19.459 Y-10.235
X19.481 Y-10.227
X19.582 Y-10.205
X19.683 Y-10.2
X23.305
X23.723 Y-10.221
X23.938 Y-10.244
X24.153 Y-10.279
X24.367 Y-10.327
X24.55 Y-10.379
X24.609 Y-10.399
X24.931 Y-10.543
X25.223 Y-10.741
X25.476 Y-10.988
X25.681 Y-11.275
X25.833 Y-11.594
X25.926 Y-11.935
X25.958 Y-12.287
G2 X25.904 Y-12.515 I-0.6 J0.02 F350
X25.007 Y-12.753 I-0.546 J0.248 F850
G1 X22.975 Y-11.286
G2 X23.077 Y-10.254 I0.351 J0.486
X23.305 Y-10.2 I0.249 J-0.546 F350
G1 X24.874 F850
X25.024 Y-10.208
X25.273 Y-10.276
X25.5 Y-10.401
X25.69 Y-10.575
X25.835 Y-10.79
X25.925 Y-11.032
X25.956 Y-11.289
G2 X25.922 Y-11.522 I-1.046 J0.035 F350
X24.638 Y-12.265 I-1.012 J0.268 F850
X24.642 Y-10.234 I0.273 J1.015
X24.874 Y-10.2 I0.269 J-1.016 F350
G1 X25.317 F850
X25.418 Y-10.205
X25.519 Y-10.227
X25.541 Y-10.235
X25.631 Y-10.275
X25.72 Y-10.336
X25.771 Y-10.38
X25.823 Y-10.436
X25.855 Y-10.481
X25.882 Y-10.525
X25.921 Y-10.613
X25.929 Y-10.638
X25.951 Y-10.738
X25.955 Y-10.839
X25.959 Y-13.328
G2 X25.906 Y-13.556 I-0.6 J0.02 F350
G1 X25.867 Y-13.642 Z-14.973
X25.829 Y-13.725 Z-14.951
X25.793 Y-13.804 Z-14.915
X25.76 Y-13.877 Z-14.865
X25.73 Y-13.942 Z-14.804
X25.705 Y-13.998 Z-14.733
X25.685 Y-14.043 Z-14.652
X25.67 Y-14.076 Z-14.565
X25.661 Y-14.096 Z-14.474
X25.658 Y-14.102 Z-14.38
G0 Z5
X20.717 Y-282.05
Z-4.39
G1 Z-4.99 F350
G2 X21.934 Y-278.311 Z-5.154 I1.783 J1.487
X24.771 Y-281.028 Z-5.318 I0.565 J-2.249
X21.096 Y-282.401 Z-5.481 I-2.268 J0.467
X21.454 Y-278.5 Z-5.645 I1.404 J1.838
X24.809 Y-280.514 Z-5.809 I1.045 J-2.06
X21.542 Y-282.659 Z-5.973 I-2.307 J-0.047
X21.029 Y-278.79 Z-6.136 I0.958 J2.096
X24.733 Y-280.006 Z-6.3 I1.47 J-1.771
X22.032 Y-282.811 Z-6.464 I-2.231 J-0.554
X20.68 Y-279.165 Z-6.628 I0.469 J2.248
X24.547 Y-279.529 Z-6.791 I1.819 J-1.397
X22.542 Y-282.85 Z-6.955 I-2.045 J-1.031
X20.424 Y-279.606 Z-7.119 I-0.04 J2.287
X24.261 Y-279.107 Z-7.283 I2.075 J-0.955
X23.046 Y-282.775 Z-7.447 I-1.76 J-1.453
X20.272 Y-280.092 Z-7.61 I-0.544 J2.213
X23.89 Y-278.76 Z-7.774 I2.227 J-0.47
X23.519 Y-282.592 Z-7.938 I-1.389 J-1.799
X20.232 Y-280.597 Z-8.102 I-1.017 J2.03
X23.453 Y-278.505 Z-8.265 I2.267 J0.034
X23.938 Y-282.31 Z-8.429 I-0.952 J-2.055
X20.304 Y-281.096 Z-8.593 I-1.436 J1.748
X22.972 Y-278.354 Z-8.757 I2.195 J0.534
X24.282 Y-281.943 Z-8.92 I-0.472 J-2.206
X20.485 Y-281.565 Z-9.084 I-1.78 J1.381
X22.471 Y-278.313 Z-9.248 I2.015 J1.003
X24.536 Y-281.51 Z-9.412 I0.028 J-2.247
X20.764 Y-281.981 Z-9.576 I-2.034 J0.949
X21.976 Y-278.383 Z-9.739 I1.736 J1.418
X24.687 Y-281.034 Z-9.903 I0.523 J-2.177
X21.127 Y-282.324 Z-10.067 I-2.185 J0.473
X21.51 Y-278.561 Z-10.231 I1.373 J1.761
X24.729 Y-280.538 Z-10.394 I0.989 J-1.999
X21.555 Y-282.577 Z-10.558 I-2.227 J-0.023
X21.097 Y-278.837 Z-10.722 I0.946 J2.014
X24.66 Y-280.047 Z-10.886 I1.401 J-1.724
X22.027 Y-282.728 Z-11.05 I-2.159 J-0.513
X20.757 Y-279.196 Z-11.213 I0.474 J2.165
X24.485 Y-279.585 Z-11.377 I1.742 J-1.365
X22.518 Y-282.77 Z-11.541 I-1.984 J-0.975
X20.506 Y-279.619 Z-11.705 I-0.017 J2.207
X24.213 Y-279.175 Z-11.868 I1.993 J-0.942
X23.005 Y-282.703 Z-12.032 I-1.712 J-1.385
X20.355 Y-280.086 Z-12.196 I-0.503 J2.14
X23.858 Y-278.837 Z-12.36 I2.144 J-0.475
X23.463 Y-282.53 Z-12.523 I-1.357 J-1.723
X20.312 Y-280.573 Z-12.687 I-0.961 J1.968
X23.439 Y-278.587 Z-12.851 I2.187 J0.011
X23.87 Y-282.262 Z-13.015 I-0.939 J-1.973
X20.377 Y-281.056 Z-13.179 I-1.368 J1.7
X22.977 Y-278.437 Z-13.342 I2.122 J0.493
X24.206 Y-281.911 Z-13.506 I-0.477 J-2.123
X20.547 Y-281.51 Z-13.67 I-1.703 J1.349
X22.494 Y-278.392 Z-13.834 I1.953 J0.947
X24.454 Y-281.496 Z-13.997 I0.005 J-2.167
X20.812 Y-281.914 Z-14.161 I-1.952 J0.935
X22.016 Y-278.456 Z-14.325 I1.688 J1.351
X24.605 Y-281.038 Z-14.489 I0.483 J-2.104
X21.159 Y-282.247 Z-14.652 I-2.102 J0.477
X21.565 Y-278.623 Z-14.816 I1.341 J1.684
X24.649 Y-280.56 Z-14.98 I0.934 J-1.937
X20.349 I-2.15
X24.636 Y-280.324 I2.15
X24.649 Y-280.56 I-2.137 J-0.236
G1 X24.674 Y-281.446 F850
X24.686 Y-281.556
Y-281.706
X24.623 Y-281.98
X24.504 Y-282.235
X24.336 Y-282.46
X24.125 Y-282.646
X23.88 Y-282.785
X23.613 Y-282.871
X23.333 Y-282.9
X21.634
X21.484 Y-282.892
X21.181 Y-282.822
X20.899 Y-282.691
X20.65 Y-282.505
X20.444 Y-282.272
X20.291 Y-282.001
X20.197 Y-281.704
X20.166 Y-281.395
G2 X20.22 Y-281.167 I0.6 J-0.023 F350
X21.198 Y-281.002 I0.545 J-0.251 F850
G1 X22.046 Y-281.885
G2 X21.862 Y-282.846 I-0.433 J-0.416
X21.634 Y-282.9 I-0.249 J0.546 F350
G1 X20.89 F850
X20.857 Y-282.899
X20.829 Y-282.898
X20.679 Y-282.885
X20.651 Y-282.878
X20.516 Y-282.826
X20.394 Y-282.75
X20.29 Y-282.651
G2 X20.256 Y-282.427 I0.201 J0.145 F350
X20.588 Y-282.278 I0.235 J-0.08 F850
G1 X20.926 Y-282.422
G2 X21.03 Y-282.794 I-0.097 J-0.228
X20.829 Y-282.898 I-0.202 J0.144 F350
G1 X20.689 Y-282.893 F850
X20.617 Y-282.878
X20.545 Y-282.852
X20.488 Y-282.824
X20.438 Y-282.794
X20.389 Y-282.755
X20.335 Y-282.703
X20.286 Y-282.647
X20.252 Y-282.597
X20.225 Y-282.548
X20.203 Y-282.499
X20.187 Y-282.45
X20.166 Y-282.349
X20.163 Y-282.248
X20.172 Y-279.631
X20.18 Y-279.481
X20.204 Y-279.333
X20.242 Y-279.188
X20.292 Y-279.047
X20.354 Y-278.91
X20.426 Y-278.778
X20.507 Y-278.652
X20.597 Y-278.532
X20.696 Y-278.419
X20.801 Y-278.312
X20.913 Y-278.213
X21.031 Y-278.12
X21.155 Y-278.035
X21.284 Y-277.958
X21.417 Y-277.889
X21.553 Y-277.827
X21.693 Y-277.773
X21.836 Y-277.728
X21.983 Y-277.69
X22.133 Y-277.66
X22.286 Y-277.639
X22.441 Y-277.626
X22.597 Y-277.622
X22.755 Y-277.626
X22.912 Y-277.64
X23.07 Y-277.663
X23.227 Y-277.694
X23.383 Y-277.735
X23.537 Y-277.784
X23.547 Y-277.788
X23.855 Y-277.938
X24.132 Y-278.138
X24.372 Y-278.383
X24.566 Y-278.665
X24.709 Y-278.976
X24.798 Y-279.306
X24.828 Y-279.648
X24.837 Y-282.108
X24.83 Y-282.258
X24.767 Y-282.463
X24.65 Y-282.642
X24.487 Y-282.781
X24.292 Y-282.87
X24.08 Y-282.9
G2 X23.849 Y-282.857 I0.028 J0.789 F350
X23.563 Y-282.682 I0.258 J0.746 F850
X24.592 Y-281.58 I0.521 J0.545
X24.791 Y-281.878 I-0.509 J-0.556
X24.837 Y-282.108 I-0.708 J-0.259 F350
G1 Y-282.248 F850
X24.834 Y-282.349
X24.813 Y-282.45
X24.797 Y-282.499
X24.775 Y-282.548
X24.748 Y-282.597
X24.71 Y-282.651
X24.665 Y-282.703
X24.611 Y-282.755
X24.562 Y-282.794
X24.512 Y-282.824
X24.455 Y-282.852
X24.383 Y-282.878
X24.311 Y-282.893
X24.11 Y-282.9
X23.333
G2 X23.105 Y-282.846 I0.021 J0.6 F350
X22.921 Y-282.716 I0.249 J0.546 F850
G1 X20.339 Y-280.028
G2 X20.225 Y-279.859 I0.433 J0.416
X20.172 Y-279.631 I0.547 J0.247 F350
G1 X20.175 Y-278.765 F850
X20.183 Y-278.615
X20.207 Y-278.467
X20.247 Y-278.322
X20.301 Y-278.182
X20.368 Y-278.048
X20.445 Y-277.919
X20.532 Y-277.797
X20.627 Y-277.681
X20.731 Y-277.573
X20.84 Y-277.47
X20.957 Y-277.375
X21.078 Y-277.287
X21.206 Y-277.206
X21.343 Y-277.129
X21.488 Y-277.058
X21.639 Y-276.994
X21.798 Y-276.937
X21.962 Y-276.888
X22.132 Y-276.848
X22.306 Y-276.818
X22.464 Y-276.799
X22.644 Y-276.788
X22.816 Y-276.787
X22.972 Y-276.795
X23.15 Y-276.814
X23.316 Y-276.841
X23.668 Y-276.957
X23.992 Y-277.137
X24.276 Y-277.377
X24.508 Y-277.666
X24.681 Y-277.994
X24.788 Y-278.349
X24.825 Y-278.718
X24.828 Y-279.648
G2 X24.775 Y-279.876 I-0.6 J0.019 F350
X24.08 Y-280.21 I-0.547 J0.247 F850
G1 X20.626 Y-279.327
G2 X20.228 Y-278.993 I0.149 J0.581
X20.175 Y-278.765 I0.547 J0.247 F350
G1 X20.178 Y-277.959 F850
X20.186 Y-277.809
X20.209 Y-277.661
X20.25 Y-277.517
X20.305 Y-277.377
X20.373 Y-277.243
X20.45 Y-277.115
X20.538 Y-276.993
X20.633 Y-276.877
X20.736 Y-276.768
X20.845 Y-276.665
X20.96 Y-276.569
X21.083 Y-276.478
X21.216 Y-276.39
X21.36 Y-276.307
X21.511 Y-276.23
X21.671 Y-276.159
X21.838 Y-276.097
X22 Y-276.047
X22.154 Y-276.008
X22.335 Y-275.974
X22.503 Y-275.951
X22.656 Y-275.94
X22.83 Y-275.936
X23.002 Y-275.943
X23.153 Y-275.957
X23.313 Y-275.981
X23.325 Y-275.983
X23.673 Y-276.092
X23.995 Y-276.267
X24.276 Y-276.5
X24.507 Y-276.783
X24.679 Y-277.106
X24.785 Y-277.455
X24.822 Y-277.819
X24.825 Y-278.718
G2 X24.772 Y-278.946 I-0.6 J0.019 F350
X24.096 Y-279.286 I-0.547 J0.247 F850
G1 X20.648 Y-278.526
G2 X20.231 Y-278.187 I0.129 J0.586
X20.178 Y-277.959 I0.547 J0.247 F350
G1 X20.18 Y-277.154 F850
X20.189 Y-277.004
X20.212 Y-276.856
X20.253 Y-276.711
X20.307 Y-276.572
X20.373 Y-276.437
X20.45 Y-276.308
X20.535 Y-276.185
X20.629 Y-276.068
X20.73 Y-275.957
X20.838 Y-275.852
X20.951 Y-275.754
X21.075 Y-275.659
X21.208 Y-275.568
X21.35 Y-275.481
X21.502 Y-275.401
X21.66 Y-275.328
X21.825 Y-275.263
X21.986 Y-275.21
X22.139 Y-275.169
X22.318 Y-275.131
X22.487 Y-275.106
X22.638 Y-275.092
X22.809 Y-275.085
X22.982 Y-275.089
X23.133 Y-275.1
X23.288 Y-275.121
X23.644 Y-275.225
X23.971 Y-275.398
X24.259 Y-275.631
X24.496 Y-275.915
X24.672 Y-276.241
X24.781 Y-276.595
X24.819 Y-276.963
X24.822 Y-277.819
G2 X24.769 Y-278.047 I-0.6 J0.019 F350
X24.108 Y-278.389 I-0.547 J0.247 F850
G1 X20.666 Y-277.724
G2 X20.233 Y-277.382 I0.114 J0.589
X20.18 Y-277.154 I0.547 J0.247 F350
G1 X20.183 Y-276.299 F850
X20.191 Y-276.149
X20.219 Y-276.001
X20.262 Y-275.858
X20.318 Y-275.719
X20.386 Y-275.585
X20.463 Y-275.456
X20.55 Y-275.334
X20.644 Y-275.217
X20.746 Y-275.107
X20.854 Y-275.002
X20.97 Y-274.902
X21.096 Y-274.805
X21.229 Y-274.714
X21.371 Y-274.628
X21.524 Y-274.548
X21.683 Y-274.475
X21.849 Y-274.41
X22.002 Y-274.359
X22.16 Y-274.317
X22.338 Y-274.28
X22.498 Y-274.256
X22.65 Y-274.242
X22.826 Y-274.236
X22.991 Y-274.239
X23.141 Y-274.251
X23.303 Y-274.273
X23.654 Y-274.377
X23.979 Y-274.548
X24.263 Y-274.779
X24.497 Y-275.061
X24.671 Y-275.384
X24.779 Y-275.734
X24.816 Y-276.099
X24.819 Y-276.963
G2 X24.766 Y-277.191 I-0.6 J0.019 F350
X24.105 Y-277.534 I-0.547 J0.247 F850
G1 X20.669 Y-276.869
G2 X20.236 Y-276.527 I0.114 J0.589
X20.183 Y-276.299 I0.547 J0.247 F350
G1 X20.186 Y-275.493 F850
X20.194 Y-275.343
X20.218 Y-275.195
X20.257 Y-275.051
X20.31 Y-274.91
X20.375 Y-274.775
X20.45 Y-274.645
X20.534 Y-274.521
X20.626 Y-274.402
X20.725 Y-274.29
X20.831 Y-274.184
X20.944 Y-274.083
X21.066 Y-273.986
X21.197 Y-273.893
X21.339 Y-273.804
X21.489 Y-273.721
X21.645 Y-273.646
X21.808 Y-273.579
X21.967 Y-273.524
X22.118 Y-273.481
X22.295 Y-273.441
X22.461 Y-273.413
X22.611 Y-273.397
X22.779 Y-273.388
X22.951
X23.102 Y-273.398
X23.213 Y-273.41
X23.578 Y-273.492
X23.919 Y-273.647
X24.221 Y-273.869
X24.47 Y-274.148
X24.657 Y-274.473
X24.773 Y-274.829
X24.813 Y-275.201
X24.816 Y-276.099
G2 X24.763 Y-276.327 I-0.6 J0.019 F350
X24.112 Y-276.671 I-0.547 J0.247 F850
G1 X20.682 Y-276.065
G2 X20.239 Y-275.721 I0.104 J0.591
X20.186 Y-275.493 I0.547 J0.247 F350
G1 X20.189 Y-274.638 F850
X20.197 Y-274.488
X20.222 Y-274.34
X20.263 Y-274.196
X20.316 Y-274.056
X20.382 Y-273.921
X20.457 Y-273.791
X20.541 Y-273.667
X20.634 Y-273.549
X20.734 Y-273.437
X20.84 Y-273.331
X20.955 Y-273.229
X21.078 Y-273.132
X21.209 Y-273.039
X21.35 Y-272.952
X21.5 Y-272.87
X21.657 Y-272.795
X21.815 Y-272.73
X21.97 Y-272.677
X22.151 Y-272.625
X22.319 Y-272.588
X22.471 Y-272.563
X22.641 Y-272.545
X22.816 Y-272.536
X22.97 Y-272.537
X23.121 Y-272.546
X23.167 Y-272.552
X23.496 Y-272.622
X23.808 Y-272.75
X24.092 Y-272.932
X24.338 Y-273.163
X24.538 Y-273.433
X24.687 Y-273.736
X24.778 Y-274.06
X24.81 Y-274.396
X24.813 Y-275.201
G2 X24.76 Y-275.429 I-0.6 J0.019 F350
X24.116 Y-275.775 I-0.547 J0.247 F850
G1 X20.692 Y-275.211
G2 X20.242 Y-274.866 I0.097 J0.592
X20.189 Y-274.638 I0.547 J0.247 F350
G1 X20.192 Y-273.792 F850
X20.2 Y-273.642
X20.225 Y-273.494
X20.265 Y-273.35
X20.319 Y-273.21
X20.384 Y-273.075
X20.459 Y-272.945
X20.544 Y-272.821
X20.636 Y-272.703
X20.736 Y-272.591
X20.842 Y-272.485
X20.957 Y-272.383
X21.079 Y-272.285
X21.211 Y-272.192
X21.354 Y-272.103
X21.504 Y-272.02
X21.661 Y-271.945
X21.813 Y-271.883
X21.969 Y-271.828
X22.143 Y-271.779
X22.298 Y-271.744
X22.456 Y-271.718
X22.631 Y-271.699
X22.787 Y-271.69
X22.94 Y-271.691
X23.113 Y-271.702
X23.267 Y-271.72
X23.623 Y-271.819
X23.953 Y-271.988
X24.242 Y-272.218
X24.481 Y-272.5
X24.659 Y-272.825
X24.769 Y-273.178
X24.807 Y-273.546
X24.81 Y-274.396
G2 X24.757 Y-274.624 I-0.6 J0.019 F350
X24.106 Y-274.968 I-0.547 J0.247 F850
G1 X20.688 Y-274.364
G2 X20.245 Y-274.02 I0.104 J0.591
X20.192 Y-273.792 I0.547 J0.247 F350
G1 X20.195 Y-272.926 F850
X20.203 Y-272.776
X20.23 Y-272.628
X20.272 Y-272.484
X20.328 Y-272.345
X20.394 Y-272.21
X20.47 Y-272.081
X20.556 Y-271.958
X20.649 Y-271.84
X20.749 Y-271.729
X20.856 Y-271.624
X20.972 Y-271.522
X21.096 Y-271.425
X21.229 Y-271.332
X21.37 Y-271.246
X21.519 Y-271.165
X21.677 Y-271.091
X21.841 Y-271.025
X21.99 Y-270.975
X22.15 Y-270.93
X22.327 Y-270.892
X22.484 Y-270.867
X22.635 Y-270.852
X22.811 Y-270.844
X22.973 Y-270.846
X23.123 Y-270.856
X23.286 Y-270.877
X23.638 Y-270.978
X23.963 Y-271.147
X24.248 Y-271.376
X24.483 Y-271.657
X24.658 Y-271.979
X24.767 Y-272.329
X24.804 Y-272.693
X24.807 Y-273.546
G2 X24.754 Y-273.774 I-0.6 J0.019 F350
X24.1 Y-274.118 I-0.547 J0.247 F850
G1 X20.688 Y-273.497
G2 X20.248 Y-273.154 I0.107 J0.59
X20.195 Y-272.926 I0.547 J0.247 F350
G1 X20.198 Y-272.07 F850
X20.206 Y-271.921
X20.234 Y-271.773
X20.277 Y-271.629
X20.332 Y-271.49
X20.399 Y-271.356
X20.476 Y-271.227
X20.562 Y-271.104
X20.656 Y-270.987
X20.757 Y-270.876
X20.864 Y-270.771
X20.98 Y-270.67
X21.104 Y-270.573
X21.236 Y-270.482
X21.378 Y-270.395
X21.528 Y-270.314
X21.686 Y-270.241
X21.851 Y-270.175
X22.002 Y-270.125
X22.159 Y-270.082
X22.336 Y-270.044
X22.495 Y-270.019
X22.645 Y-270.004
X22.82 Y-269.997
X22.983 Y-270
X23.133 Y-270.01
X23.295 Y-270.031
X23.644 Y-270.133
X23.967 Y-270.302
X24.25 Y-270.53
X24.483 Y-270.81
X24.656 Y-271.13
X24.764 Y-271.478
X24.801 Y-271.84
X24.804 Y-272.693
G2 X24.751 Y-272.921 I-0.6 J0.019 F350
X24.096 Y-273.264 I-0.547 J0.247 F850
G1 X20.69 Y-272.642
G2 X20.251 Y-272.298 I0.108 J0.59
X20.198 Y-272.07 I0.547 J0.247 F350
G1 X20.201 Y-271.265 F850
X20.209 Y-271.115
X20.231 Y-270.967
X20.27 Y-270.822
X20.322 Y-270.681
X20.386 Y-270.546
X20.46 Y-270.415
X20.543 Y-270.291
X20.635 Y-270.172
X20.734 Y-270.059
X20.839 Y-269.952
X20.951 Y-269.851
X21.072 Y-269.754
X21.202 Y-269.661
X21.342 Y-269.572
X21.491 Y-269.489
X21.647 Y-269.414
X21.809 Y-269.346
X21.965 Y-269.291
X22.115 Y-269.247
X22.291 Y-269.207
X22.456 Y-269.179
X22.605 Y-269.162
X22.773 Y-269.152
X22.943
X23.092 Y-269.16
X23.245 Y-269.177
X23.282 Y-269.184
X23.632 Y-269.28
X23.956 Y-269.444
X24.242 Y-269.669
X24.477 Y-269.946
X24.652 Y-270.265
X24.76 Y-270.612
X24.798 Y-270.973
X24.801 Y-271.84
G2 X24.748 Y-272.068 I-0.6 J0.019 F350
X24.101 Y-272.412 I-0.547 J0.247 F850
G1 X20.701 Y-271.838
G2 X20.254 Y-271.493 I0.1 J0.592
X20.201 Y-271.265 I0.547 J0.247 F350
G1 X20.204 Y-270.41 F850
X20.212 Y-270.26
X20.236 Y-270.112
X20.275 Y-269.967
X20.328 Y-269.827
X20.392 Y-269.691
X20.467 Y-269.561
X20.551 Y-269.437
X20.643 Y-269.318
X20.742 Y-269.206
X20.848 Y-269.1
X20.962 Y-268.998
X21.085 Y-268.9
X21.215 Y-268.808
X21.354 Y-268.72
X21.503 Y-268.639
X21.658 Y-268.564
X21.821 Y-268.497
X21.974 Y-268.443
X22.131 Y-268.398
X22.31 Y-268.358
X22.469 Y-268.331
X22.619 Y-268.314
X22.794 Y-268.305
X22.959 Y-268.306
X23.109 Y-268.314
X23.145 Y-268.319
X23.476 Y-268.388
X23.789 Y-268.517
X24.073 Y-268.699
X24.321 Y-268.93
X24.522 Y-269.202
X24.671 Y-269.505
X24.763 Y-269.831
X24.795 Y-270.168
X24.798 Y-270.973
G2 X24.745 Y-271.201 I-0.6 J0.019 F350
X24.1 Y-271.546 I-0.547 J0.247 F850
G1 X20.705 Y-270.983
G2 X20.257 Y-270.638 I0.098 J0.592
X20.204 Y-270.41 I0.547 J0.247 F350
G1 X20.207 Y-269.564 F850
X20.215 Y-269.414
X20.239 Y-269.266
X20.278 Y-269.121
X20.331 Y-268.981
X20.395 Y-268.845
X20.47 Y-268.715
X20.554 Y-268.591
X20.646 Y-268.472
X20.745 Y-268.36
X20.851 Y-268.254
X20.965 Y-268.152
X21.087 Y-268.055
X21.217 Y-267.962
X21.357 Y-267.874
X21.506 Y-267.792
X21.662 Y-267.717
X21.81 Y-267.656
X21.966 Y-267.601
X22.137 Y-267.552
X22.289 Y-267.518
X22.446 Y-267.492
X22.62 Y-267.472
X22.774 Y-267.464
X22.927 Y-267.465
X23.099 Y-267.475
X23.251 Y-267.492
X23.608 Y-267.591
X23.937 Y-267.759
X24.227 Y-267.989
X24.466 Y-268.271
X24.644 Y-268.595
X24.754 Y-268.948
X24.792 Y-269.316
X24.795 Y-270.168
G2 X24.742 Y-270.396 I-0.6 J0.019 F350
X24.09 Y-270.74 I-0.547 J0.247 F850
G1 X20.701 Y-270.136
G2 X20.26 Y-269.792 I0.105 J0.591
X20.207 Y-269.564 I0.547 J0.247 F350
G1 X20.21 Y-268.697 F850
X20.218 Y-268.548
X20.244 Y-268.4
X20.285 Y-268.256
X20.34 Y-268.116
X20.406 Y-267.981
X20.482 Y-267.852
X20.567 Y-267.728
X20.66 Y-267.611
X20.761 Y-267.499
X20.867 Y-267.394
X20.982 Y-267.294
X21.106 Y-267.197
X21.238 Y-267.105
X21.378 Y-267.019
X21.525 Y-266.939
X21.682 Y-266.866
X21.844 Y-266.801
X21.991 Y-266.751
X22.152 Y-266.706
X22.326 Y-266.669
X22.48 Y-266.644
X22.631 Y-266.629
X22.807 Y-266.621
X22.967 Y-266.623
X23.117 Y-266.633
X23.281 Y-266.654
X23.631 Y-266.756
X23.954 Y-266.923
X24.237 Y-267.152
X24.471 Y-267.431
X24.644 Y-267.751
X24.752 Y-268.099
X24.789 Y-268.461
X24.792 Y-269.316
G2 X24.739 Y-269.544 I-0.6 J0.019 F350
X24.085 Y-269.888 I-0.547 J0.247 F850
G1 X20.702 Y-269.269
G2 X20.263 Y-268.926 I0.108 J0.59
X20.21 Y-268.697 I0.547 J0.247 F350
G1 X20.213 Y-267.842 F850
X20.221 Y-267.692
X20.248 Y-267.545
X20.291 Y-267.401
X20.346 Y-267.262
X20.413 Y-267.127
X20.49 Y-266.999
X20.575 Y-266.876
X20.669 Y-266.758
X20.77 Y-266.647
X20.878 Y-266.543
X20.993 Y-266.442
X21.117 Y-266.346
X21.249 Y-266.256
X21.389 Y-266.17
X21.539 Y-266.09
X21.695 Y-266.018
X21.859 Y-265.953
X22.008 Y-265.903
X22.166 Y-265.86
X22.342 Y-265.823
X22.498 Y-265.799
X22.648 Y-265.784
X22.823 Y-265.777
X22.984 Y-265.78
X23.134 Y-265.791
X23.297 Y-265.813
X23.642 Y-265.914
X23.961 Y-266.082
X24.241 Y-266.308
X24.472 Y-266.585
X24.643 Y-266.902
X24.75 Y-267.246
X24.786 Y-267.605
X24.789 Y-268.461
G2 X24.736 Y-268.689 I-0.6 J0.019 F350
X24.081 Y-269.032 I-0.547 J0.247 F850
G1 X20.705 Y-268.414
G2 X20.266 Y-268.07 I0.108 J0.59
X20.213 Y-267.842 I0.547 J0.247 F350
G1 X20.216 Y-267.037 F850
X20.224 Y-266.887
X20.246 Y-266.739
X20.284 Y-266.594
X20.337 Y-266.453
X20.401 Y-266.318
X20.475 Y-266.187
X20.559 Y-266.063
X20.65 Y-265.944
X20.749 Y-265.831
X20.855 Y-265.725
X20.967 Y-265.625
X21.088 Y-265.528
X21.217 Y-265.436
X21.357 Y-265.348
X21.505 Y-265.266
X21.66 Y-265.192
X21.822 Y-265.125
X21.977 Y-265.071
X22.127 Y-265.027
X22.302 Y-264.988
X22.465 Y-264.96
X22.614 Y-264.944
X22.783 Y-264.934
X22.95 Y-264.935
X23.1 Y-264.944
X23.253 Y-264.961
X23.607 Y-265.06
X23.935 Y-265.227
X24.222 Y-265.455
X24.459 Y-265.736
X24.636 Y-266.058
X24.746 Y-266.409
X24.783 Y-266.774
X24.786 Y-267.605
G2 X24.733 Y-267.833 I-0.6 J0.019 F350
X24.087 Y-268.178 I-0.547 J0.247 F850
G1 X20.716 Y-267.61
G2 X20.269 Y-267.265 I0.1 J0.592
X20.216 Y-267.037 I0.547 J0.247 F350
G1 X20.219 Y-266.182 F850
X20.227 Y-266.032
X20.251 Y-265.884
X20.291 Y-265.739
X20.344 Y-265.599
X20.409 Y-265.464
X20.484 Y-265.334
X20.568 Y-265.21
X20.66 Y-265.092
X20.76 Y-264.98
X20.866 Y-264.874
X20.981 Y-264.772
X21.103 Y-264.675
X21.234 Y-264.584
X21.373 Y-264.497
X21.521 Y-264.416
X21.676 Y-264.342
X21.838 Y-264.276
X21.984 Y-264.226
X22.142 Y-264.181
X22.316 Y-264.143
X22.471 Y-264.117
X22.62 Y-264.102
X22.794 Y-264.093
X22.955 Y-264.094
X23.105 Y-264.103
X23.154 Y-264.109
X23.481 Y-264.18
X23.789 Y-264.307
X24.07 Y-264.489
X24.313 Y-264.717
X24.512 Y-264.986
X24.659 Y-265.286
X24.749 Y-265.607
X24.78 Y-265.94
X24.783 Y-266.774
G2 X24.73 Y-267.002 I-0.6 J0.019 F350
X24.08 Y-267.346 I-0.547 J0.247 F850
G1 X20.714 Y-266.754
G2 X20.272 Y-266.41 I0.104 J0.591
X20.219 Y-266.182 I0.547 J0.247 F350
G1 X20.222 Y-265.336 F850
X20.23 Y-265.186
X20.254 Y-265.038
X20.294 Y-264.893
X20.348 Y-264.753
X20.413 Y-264.618
X20.488 Y-264.488
X20.572 Y-264.364
X20.665 Y-264.246
X20.765 Y-264.134
X20.871 Y-264.029
X20.985 Y-263.928
X21.107 Y-263.832
X21.237 Y-263.741
X21.376 Y-263.654
X21.524 Y-263.574
X21.679 Y-263.5
X21.826 Y-263.44
X21.984 Y-263.386
X22.154 Y-263.339
X22.305 Y-263.305
X22.463 Y-263.279
X22.635 Y-263.261
X22.787 Y-263.254
X22.942 Y-263.255
X23.112 Y-263.266
X23.263 Y-263.284
X23.613 Y-263.384
X23.938 Y-263.551
X24.223 Y-263.778
X24.457 Y-264.057
X24.632 Y-264.377
X24.74 Y-264.725
X24.777 Y-265.088
X24.78 Y-265.94
G2 X24.728 Y-266.168 I-0.6 J0.019 F350
X24.075 Y-266.511 I-0.547 J0.247 F850
G1 X20.715 Y-265.907
G2 X20.275 Y-265.564 I0.106 J0.591
X20.222 Y-265.336 I0.547 J0.247 F350
G1 X20.225 Y-264.469 F850
X20.233 Y-264.319
X20.26 Y-264.172
X20.302 Y-264.028
X20.358 Y-263.889
X20.425 Y-263.754
X20.502 Y-263.626
X20.587 Y-263.503
X20.681 Y-263.386
X20.782 Y-263.275
X20.89 Y-263.17
X21.005 Y-263.071
X21.13 Y-262.975
X21.262 Y-262.884
X21.403 Y-262.799
X21.55 Y-262.72
X21.707 Y-262.648
X21.868 Y-262.585
X22.014 Y-262.536
X22.177 Y-262.493
X22.349 Y-262.457
X22.502 Y-262.434
X22.654 Y-262.419
X22.828 Y-262.413
X22.986 Y-262.416
X23.136 Y-262.427
X23.466 Y-262.502
X23.777 Y-262.635
X24.06 Y-262.821
X24.305 Y-263.054
X24.505 Y-263.327
X24.652 Y-263.632
X24.743 Y-263.958
X24.775 Y-264.295
X24.777 Y-265.088
G2 X24.725 Y-265.316 I-0.6 J0.019 F350
X24.069 Y-265.659 I-0.547 J0.247 F850
G1 X20.716 Y-265.04
G2 X20.278 Y-264.697 I0.109 J0.59
X20.225 Y-264.469 I0.547 J0.247 F350
G1 X20.227 Y-263.664 F850
X20.236 Y-263.514
X20.258 Y-263.366
X20.297 Y-263.221
X20.349 Y-263.08
X20.413 Y-262.945
X20.488 Y-262.815
X20.572 Y-262.69
X20.664 Y-262.572
X20.763 Y-262.46
X20.869 Y-262.353
X20.981 Y-262.254
X21.102 Y-262.158
X21.231 Y-262.067
X21.37 Y-261.98
X21.518 Y-261.899
X21.673 Y-261.825
X21.817 Y-261.765
X21.967 Y-261.713
X22.136 Y-261.665
X22.287 Y-261.631
X22.438 Y-261.606
X22.61 Y-261.588
X22.764 Y-261.58
X22.914
X23.084 Y-261.591
X23.237 Y-261.609
X23.592 Y-261.708
X23.921 Y-261.876
X24.209 Y-262.106
X24.447 Y-262.388
X24.624 Y-262.711
X24.734 Y-263.063
X24.772 Y-263.43
X24.775 Y-264.295
G2 X24.722 Y-264.523 I-0.6 J0.019 F350
X24.064 Y-264.866 I-0.547 J0.247 F850
G1 X20.716 Y-264.235
G2 X20.28 Y-263.892 I0.111 J0.59
X20.227 Y-263.664 I0.547 J0.247 F350
G1 X20.23 Y-262.809 F850
X20.238 Y-262.659
X20.263 Y-262.511
X20.303 Y-262.366
X20.357 Y-262.226
X20.422 Y-262.091
X20.498 Y-261.962
X20.583 Y-261.838
X20.675 Y-261.72
X20.776 Y-261.609
X20.883 Y-261.503
X20.995 Y-261.405
X21.118 Y-261.309
X21.249 Y-261.218
X21.387 Y-261.133
X21.532 Y-261.055
X21.686 Y-260.983
X21.846 Y-260.919
X21.991 Y-260.87
X22.151 Y-260.826
X22.323 Y-260.789
X22.475 Y-260.765
X22.626 Y-260.75
X22.8 Y-260.742
X22.959 Y-260.744
X23.108 Y-260.755
X23.272 Y-260.776
X23.619 Y-260.877
X23.94 Y-261.044
X24.221 Y-261.271
X24.453 Y-261.548
X24.625 Y-261.866
X24.732 Y-262.211
X24.769 Y-262.571
X24.772 Y-263.43
G2 X24.719 Y-263.658 I-0.6 J0.019 F350
X24.062 Y-264.001 I-0.547 J0.247 F850
G1 X20.721 Y-263.38
G2 X20.283 Y-263.037 I0.11 J0.59
X20.23 Y-262.809 I0.547 J0.247 F350
G1 X20.233 Y-262.003 F850
X20.241 Y-261.854
X20.261 Y-261.705
X20.298 Y-261.559
X20.349 Y-261.418
X20.412 Y-261.282
X20.486 Y-261.152
X20.568 Y-261.027
X20.66 Y-260.908
X20.76 Y-260.793
X20.999 Y-260.587
X21.268 Y-260.421
X21.56 Y-260.299
X21.867 Y-260.225
X22.182 Y-260.2
G2 X22.409 Y-260.254 I-0.021 J-0.6 F350
X22.56 Y-261.247 I-0.249 J-0.546 F850
G1 X21.233 Y-262.432
G2 X20.286 Y-262.231 I-0.4 J0.448
X20.233 Y-262.003 I0.547 J0.247 F350
G1 X20.236 Y-261.148 F850
X20.244 Y-260.998
X20.326 Y-260.743
X20.475 Y-260.52
X20.68 Y-260.347
X20.924 Y-260.237
X21.19 Y-260.2
G2 X21.422 Y-260.238 I-0.032 J-0.919 F350
X22.047 Y-261.357 I-0.264 J-0.881 F850
X20.274 Y-261.38 I-0.89 J0.238
X20.236 Y-261.148 I0.883 J0.261 F350
G1 X20.237 Y-260.805 F850
X20.247 Y-260.705
X20.263 Y-260.64
X20.286 Y-260.575
X20.323 Y-260.503
X20.39 Y-260.412
X20.439 Y-260.361
X20.488 Y-260.32
X20.513 Y-260.302
X20.601 Y-260.253
X20.689 Y-260.221
X20.789 Y-260.203
X20.89 Y-260.2
X23.305
X23.455 Y-260.207
X23.754 Y-260.275
X24.034 Y-260.403
X24.281 Y-260.586
X24.485 Y-260.815
X24.638 Y-261.082
X24.733 Y-261.374
X24.766 Y-261.68
G2 X24.713 Y-261.908 I-0.6 J0.019 F350
X23.736 Y-262.08 I-0.547 J0.247 F850
G1 X22.896 Y-261.219
G2 X23.077 Y-260.254 I0.429 J0.419
X23.305 Y-260.2 I0.249 J-0.546 F350
G1 X24.069 F850
X24.11
X24.14 Y-260.201
X24.221 Y-260.208
X24.266 Y-260.214
X24.311 Y-260.221
G2 X24.501 Y-260.358 I-0.18 J-0.45 F350
X24.612 Y-260.729 I-0.37 J-0.314 F850
X23.675 Y-260.617 I-0.469 J0.056
X23.915 Y-260.26 I0.469 J-0.056
X24.14 Y-260.201 I0.229 J-0.413 F350
G1 X24.211 Y-260.203 F850
X24.311 Y-260.221
X24.399 Y-260.253
X24.487 Y-260.302
X24.512 Y-260.32
X24.561 Y-260.361
X24.61 Y-260.412
X24.677 Y-260.503
X24.714 Y-260.575
X24.737 Y-260.64
X24.753 Y-260.705
X24.763 Y-260.805
X24.769 Y-262.571
X24.757 Y-262.624 Z-14.973 F350
X24.746 Y-262.675 Z-14.954
X24.736 Y-262.72 Z-14.923
X24.728 Y-262.756 Z-14.882
X24.723 Y-262.783 Z-14.833
X24.718 Y-262.795 Z-14.79
X24.716 Y-262.799 Z-14.744
G0 Z5
X22.562 Y-36.507
Z-11.88
G1 Z-12.48 F350
G2 X20.369 Y-33.294 Z-12.641 I-0.062 J2.313
X24.197 Y-32.628 Z-12.803 I2.128 J-0.899
X23.221 Y-36.384 Z-12.964 I-1.697 J-1.564
X20.209 Y-33.945 Z-13.125 I-0.721 J2.189
X23.671 Y-32.213 Z-13.287 I2.289 J-0.249
X23.816 Y-36.077 Z-13.448 I-1.172 J-1.978
X20.242 Y-34.612 Z-13.609 I-1.315 J1.883
X23.05 Y-31.968 Z-13.771 I2.255 J0.418
X24.295 Y-35.614 Z-13.932 I-0.552 J-2.224
X20.466 Y-35.239 Z-14.094 I-1.794 J1.42
X22.388 Y-31.912 Z-14.255 I2.033 J1.045
X24.619 Y-35.035 Z-14.416 I0.11 J-2.28
X20.858 Y-35.774 Z-14.578 I-2.119 J0.842
X21.74 Y-32.048 Z-14.739 I1.641 J1.579
X24.763 Y-34.389 Z-14.9 I0.758 J-2.144
X21.386 Y-36.171 Z-15.062 I-2.263 J0.197
X21.16 Y-32.364 Z-15.223 I1.114 J1.976
X24.716 Y-33.732 Z-15.384 I1.337 J-1.829
X22.003 Y-36.4 Z-15.546 I-2.216 J-0.46
X20.698 Y-32.831 Z-15.707 I0.497 J2.205
X24.482 Y-33.118 Z-15.868 I1.8 J-1.362
X22.657 Y-36.441 Z-16.03 I-1.982 J-1.074
X20.39 Y-33.409 Z-16.191 I-0.157 J2.246
X24.084 Y-32.6 Z-16.353 I2.107 J-0.785
X23.294 Y-36.293 Z-16.514 I-1.584 J-1.592
X20.262 Y-34.049 Z-16.675 I-0.793 J2.098
X23.555 Y-32.219 Z-16.837 I2.236 J-0.146
