%
(1001)
(length along y axis. Origin far top left)
(T2  D=6 CR=0 - ZMIN=-22 - flat end mill)
G90 G94
G17
G21

(2D Adaptive11)
M9
T2 M6
S6000 M3
G54
M9
G0 X20.717 Y-265.212
Z15
Z5
Z3.1
G1 Z2.5 F350
G2 X21.934 Y-261.473 Z2.336 I1.783 J1.487
X24.771 Y-264.19 Z2.172 I0.565 J-2.249
X21.096 Y-265.563 Z2.009 I-2.268 J0.467
X21.454 Y-261.662 Z1.845 I1.404 J1.838
X24.809 Y-263.676 Z1.681 I1.045 J-2.06
X21.542 Y-265.821 Z1.517 I-2.307 J-0.047
X21.029 Y-261.951 Z1.354 I0.958 J2.096
X24.733 Y-263.168 Z1.19 I1.47 J-1.771
X22.032 Y-265.972 Z1.026 I-2.231 J-0.554
X20.68 Y-262.327 Z0.862 I0.469 J2.248
X24.547 Y-262.691 Z0.699 I1.819 J-1.397
X22.542 Y-266.012 Z0.535 I-2.045 J-1.031
X20.424 Y-262.768 Z0.371 I-0.04 J2.287
X24.261 Y-262.269 Z0.207 I2.075 J-0.955
X23.046 Y-265.937 Z0.043 I-1.76 J-1.453
X20.272 Y-263.253 Z-0.12 I-0.544 J2.213
X23.89 Y-261.922 Z-0.284 I2.227 J-0.47
X23.519 Y-265.754 Z-0.448 I-1.389 J-1.799
X20.232 Y-263.759 Z-0.612 I-1.017 J2.03
X23.453 Y-261.667 Z-0.775 I2.267 J0.034
X23.938 Y-265.471 Z-0.939 I-0.952 J-2.055
X20.304 Y-264.258 Z-1.103 I-1.436 J1.748
X22.972 Y-261.516 Z-1.267 I2.195 J0.534
X24.282 Y-265.105 Z-1.43 I-0.472 J-2.206
X20.485 Y-264.727 Z-1.594 I-1.78 J1.381
X22.471 Y-261.475 Z-1.758 I2.015 J1.003
X24.536 Y-264.672 Z-1.922 I0.028 J-2.247
X20.764 Y-265.143 Z-2.086 I-2.034 J0.949
X21.976 Y-261.545 Z-2.249 I1.736 J1.418
X24.687 Y-264.196 Z-2.413 I0.523 J-2.177
X21.127 Y-265.486 Z-2.577 I-2.185 J0.473
X21.51 Y-261.723 Z-2.741 I1.373 J1.761
X24.729 Y-263.7 Z-2.904 I0.989 J-1.999
X21.555 Y-265.738 Z-3.068 I-2.227 J-0.022
X21.097 Y-261.999 Z-3.232 I0.946 J2.014
X24.66 Y-263.209 Z-3.396 I1.401 J-1.724
X22.027 Y-265.889 Z-3.56 I-2.159 J-0.513
X20.757 Y-262.358 Z-3.723 I0.474 J2.165
X24.485 Y-262.747 Z-3.887 I1.742 J-1.365
X22.518 Y-265.932 Z-4.051 I-1.984 J-0.975
X20.506 Y-262.781 Z-4.215 I-0.017 J2.207
X24.213 Y-262.337 Z-4.378 I1.993 J-0.942
X23.005 Y-265.865 Z-4.542 I-1.712 J-1.385
X20.355 Y-263.248 Z-4.706 I-0.503 J2.14
X23.858 Y-261.999 Z-4.87 I2.144 J-0.476
X23.463 Y-265.692 Z-5.033 I-1.357 J-1.723
X20.312 Y-263.735 Z-5.197 I-0.961 J1.968
X23.439 Y-261.749 Z-5.361 I2.187 J0.011
X23.87 Y-265.424 Z-5.525 I-0.939 J-1.973
X20.377 Y-264.218 Z-5.689 I-1.368 J1.7
X22.976 Y-261.598 Z-5.852 I2.122 J0.493
X24.206 Y-265.073 Z-6.016 I-0.477 J-2.123
X20.547 Y-264.672 Z-6.18 I-1.703 J1.349
X22.494 Y-261.554 Z-6.344 I1.953 J0.947
X24.454 Y-264.658 Z-6.507 I0.005 J-2.167
X20.812 Y-265.076 Z-6.671 I-1.952 J0.935
X22.016 Y-261.618 Z-6.835 I1.688 J1.351
X24.605 Y-264.2 Z-6.999 I0.483 J-2.104
X21.159 Y-265.409 Z-7.162 I-2.102 J0.477
X21.565 Y-261.785 Z-7.326 I1.341 J1.684
X24.649 Y-263.722 Z-7.49 I0.934 J-1.937
X20.349 I-2.15
X24.636 Y-263.486 I2.15
X24.649 Y-263.722 I-2.137 J-0.236
G1 X24.674 Y-264.608 F850
X24.686 Y-264.718
Y-264.868
X24.667 Y-265.017
X24.633 Y-265.163
X24.583 Y-265.305
X24.521 Y-265.441
X24.448 Y-265.572
X24.365 Y-265.697
X24.272 Y-265.815
X24.171 Y-265.926
X24.063 Y-266.029
X23.948 Y-266.125
X23.826 Y-266.214
X23.7 Y-266.294
X23.568 Y-266.366
X23.433 Y-266.431
X23.293 Y-266.486
X23.151 Y-266.534
X23.006 Y-266.573
X22.86 Y-266.604
X22.711 Y-266.626
X22.559 Y-266.64
X22.406 Y-266.646
X22.252 Y-266.643
X22.096 Y-266.631
X21.941 Y-266.611
X21.786 Y-266.581
X21.631 Y-266.543
X21.479 Y-266.496
X21.329 Y-266.439
X21.181 Y-266.375
X21.037 Y-266.302
X20.896 Y-266.22
X20.76 Y-266.13
X20.629 Y-266.033
X20.503 Y-265.928
X20.383 Y-265.816
X20.269 Y-265.697
X20.162 Y-265.571
X20.062 Y-265.439
X19.969 Y-265.302
X19.884 Y-265.16
X19.807 Y-265.012
X19.739 Y-264.861
X19.679 Y-264.705
X19.627 Y-264.546
X19.585 Y-264.385
X19.552 Y-264.221
X19.528 Y-264.055
X19.513 Y-263.889
X19.508 Y-263.721
X19.512 Y-263.553
X19.526 Y-263.386
X19.549 Y-263.22
X19.582 Y-263.055
X19.623 Y-262.893
X19.674 Y-262.732
X19.734 Y-262.575
X19.803 Y-262.422
X19.88 Y-262.272
X19.965 Y-262.127
X20.059 Y-261.987
X20.16 Y-261.853
X20.269 Y-261.724
X20.384 Y-261.602
X20.507 Y-261.486
X20.636 Y-261.377
X20.77 Y-261.276
X20.911 Y-261.183
X21.056 Y-261.097
X21.206 Y-261.02
X21.36 Y-260.952
X21.518 Y-260.892
X21.678 Y-260.841
X21.842 Y-260.8
X22.007 Y-260.767
X22.174 Y-260.744
X22.343 Y-260.73
X22.511 Y-260.726
X22.68 Y-260.732
X22.848 Y-260.747
X23.015 Y-260.771
X23.18 Y-260.805
X23.343 Y-260.848
X23.504 Y-260.9
X23.661 Y-260.961
X23.815 Y-261.03
X23.964 Y-261.109
X24.109 Y-261.195
X24.249 Y-261.29
X24.383 Y-261.392
X24.511 Y-261.502
X24.633 Y-261.619
X24.748 Y-261.742
X24.856 Y-261.872
X24.956 Y-262.008
X25.049 Y-262.149
X25.145 Y-262.315
X25.251 Y-262.525
X25.375 Y-262.807
X25.476 Y-263.079
X25.55 Y-263.319
X25.605 Y-263.54
X25.645 Y-263.754
X25.672 Y-263.959
X25.687 Y-264.154
X25.69 Y-264.342
X25.683 Y-264.529
X25.665 Y-264.713
X25.638 Y-264.891
X25.602 Y-265.065
X25.556 Y-265.235
X25.5 Y-265.403
X25.435 Y-265.568
X25.36 Y-265.729
X25.277 Y-265.886
X25.185 Y-266.038
X25.083 Y-266.185
X24.974 Y-266.327
X24.855 Y-266.464
X24.728 Y-266.595
X24.593 Y-266.719
X24.45 Y-266.837
X24.299 Y-266.947
X24.14 Y-267.05
X23.975 Y-267.144
X23.803 Y-267.23
X23.625 Y-267.306
X23.442 Y-267.373
X23.254 Y-267.43
X23.062 Y-267.476
X22.866 Y-267.512
X22.666 Y-267.537
X22.465 Y-267.55
X22.262 Y-267.553
X22.058 Y-267.543
X21.853 Y-267.523
X21.649 Y-267.49
X21.447 Y-267.446
X21.246 Y-267.391
X21.047 Y-267.323
X20.852 Y-267.245
X20.661 Y-267.155
X20.474 Y-267.054
X20.293 Y-266.942
X20.117 Y-266.82
X19.949 Y-266.688
X19.787 Y-266.546
X19.76 Y-266.519
X19.552 Y-266.28
X19.385 Y-266.011
X19.263 Y-265.72
X19.188 Y-265.412
X19.162 Y-265.097
X19.158 Y-262.718
X19.166 Y-262.565
X19.182 Y-262.416
X19.207 Y-262.268
X19.242 Y-262.123
X19.286 Y-261.979
X19.338 Y-261.837
X19.4 Y-261.695
X19.472 Y-261.551
X19.555 Y-261.406
X19.649 Y-261.263
X19.754 Y-261.121
X19.868 Y-260.983
X19.992 Y-260.849
X20.126 Y-260.72
X20.168 Y-260.684
X20.456 Y-260.477
X20.777 Y-260.325
X21.119 Y-260.231
X21.472 Y-260.2
G2 X21.7 Y-260.254 I-0.021 J-0.6 F350
X21.899 Y-261.199 I-0.249 J-0.546 F850
G1 X20.206 Y-263.096
G2 X19.212 Y-262.946 I-0.448 J0.4
X19.158 Y-262.718 I0.546 J0.25 F350
G1 X19.157 Y-261.51 F850
X19.164 Y-261.36
X19.243 Y-261.051
X19.393 Y-260.769
X19.606 Y-260.531
X19.87 Y-260.351
X20.169 Y-260.238
X20.486 Y-260.2
G2 X20.719 Y-260.23 I-0.044 J-1.266 F350
X21.663 Y-261.801 I-0.278 J-1.236 F850
X19.187 Y-261.743 I-1.231 J0.338
X19.157 Y-261.51 I1.245 J0.28 F350
G1 X19.156 Y-260.851 F850
Y-260.805
X19.165 Y-260.705
X19.193 Y-260.604
X19.214 Y-260.554
X19.241 Y-260.503
X19.28 Y-260.447
X19.357 Y-260.363
X19.434 Y-260.302
X19.481 Y-260.273
X19.532 Y-260.249
X19.582 Y-260.23
X19.683 Y-260.206
X19.884 Y-260.2
X23.305
X23.455 Y-260.207
X23.604 Y-260.224
X23.756 Y-260.25
X23.911 Y-260.286
X24.07 Y-260.332
X24.228 Y-260.388
X24.387 Y-260.455
X24.545 Y-260.531
X24.703 Y-260.619
X24.861 Y-260.719
X25.022 Y-260.834
X25.095 Y-260.893
X25.352 Y-261.141
X25.562 Y-261.431
X25.716 Y-261.753
X25.811 Y-262.098
X25.842 Y-262.455
G2 X25.788 Y-262.682 I-0.6 J0.022 F350
X24.853 Y-262.89 I-0.546 J0.25 F850
G1 X22.937 Y-261.256
G2 X23.077 Y-260.254 I0.389 J0.457
X23.305 Y-260.2 I0.249 J-0.546 F350
G1 X24.573 F850
X24.723 Y-260.207
X25.021 Y-260.281
X25.294 Y-260.423
X25.524 Y-260.627
X25.698 Y-260.879
X25.807 Y-261.167
X25.843 Y-261.472
G2 X25.789 Y-261.7 I-0.6 J0.022 F350
X24.819 Y-261.874 I-0.546 J0.25 F850
G1 X24.17 Y-261.224
G2 X24.345 Y-260.254 I0.424 J0.424
X24.573 Y-260.2 I0.249 J-0.546 F350
G1 X25.116 F850
X25.277 Y-260.205
X25.317 Y-260.206
X25.418 Y-260.23
X25.468 Y-260.249
X25.519 Y-260.273
X25.566 Y-260.302
X25.643 Y-260.363
X25.72 Y-260.447
X25.759 Y-260.503
X25.786 Y-260.554
X25.807 Y-260.604
X25.835 Y-260.705
X25.844 Y-260.805
X25.837 Y-265.648
X25.829 Y-265.797
X25.811 Y-265.946
X25.782 Y-266.093
X25.743 Y-266.238
X25.694 Y-266.38
X25.637 Y-266.519
X25.57 Y-266.658
X25.492 Y-266.799
X25.404 Y-266.939
X25.305 Y-267.078
X25.193 Y-267.217
X25.07 Y-267.355
X24.934 Y-267.49
X24.787 Y-267.621
X24.63 Y-267.745
X24.463 Y-267.863
X24.285 Y-267.974
X24.096 Y-268.078
X23.897 Y-268.173
X23.689 Y-268.258
X23.473 Y-268.333
X23.249 Y-268.397
X23.019 Y-268.448
X22.783 Y-268.487
X22.543 Y-268.513
X22.3 Y-268.526
X22.053 Y-268.524
X21.804 Y-268.509
X21.554 Y-268.479
X21.304 Y-268.435
X21.054 Y-268.377
X20.806 Y-268.304
X20.565 Y-268.217
X20.353 Y-268.128
X20.284 Y-268.094
X19.967 Y-267.901
X19.692 Y-267.652
X19.468 Y-267.358
X19.301 Y-267.026
X19.199 Y-266.67
X19.164 Y-266.301
X19.162 Y-265.097
G2 X19.215 Y-264.869 I0.6 J-0.02 F350
X19.822 Y-264.52 I0.546 J-0.248 F850
G1 X25.297 Y-265.071
G2 X25.784 Y-265.42 I-0.06 J-0.597
X25.837 Y-265.648 I-0.546 J-0.248 F350
G1 X25.835 Y-266.745 F850
X25.828 Y-266.895
X25.81 Y-267.044
X25.779 Y-267.191
X25.737 Y-267.334
X25.684 Y-267.475
X25.621 Y-267.611
X25.551 Y-267.743
X25.472 Y-267.872
X25.38 Y-268.005
X25.274 Y-268.141
X25.156 Y-268.276
X25.027 Y-268.408
X24.883 Y-268.539
X24.724 Y-268.669
X24.551 Y-268.794
X24.368 Y-268.913
X24.172 Y-269.023
X23.962 Y-269.127
X23.738 Y-269.222
X23.503 Y-269.307
X23.256 Y-269.381
X23.001 Y-269.441
X22.738 Y-269.488
X22.468 Y-269.521
X22.19 Y-269.539
X21.907 Y-269.541
X21.626 Y-269.528
X21.381 Y-269.502
X21.115 Y-269.459
X20.891 Y-269.41
X20.679 Y-269.35
X20.457 Y-269.274
X20.412 Y-269.256
X20.111 Y-269.103
X19.841 Y-268.901
X19.607 Y-268.657
X19.419 Y-268.377
X19.28 Y-268.069
X19.195 Y-267.743
X19.166 Y-267.406
X19.164 Y-266.301
G2 X19.217 Y-266.073 I0.6 J-0.02 F350
X19.812 Y-265.723 I0.546 J-0.248 F850
G1 X25.284 Y-266.167
G2 X25.782 Y-266.517 I-0.048 J-0.598
X25.835 Y-266.745 I-0.546 J-0.248 F350
G1 X25.834 Y-267.752 F850
X25.826 Y-267.901
X25.809 Y-268.05
X25.777 Y-268.197
X25.733 Y-268.341
X25.679 Y-268.48
X25.616 Y-268.616
X25.544 Y-268.748
X25.46 Y-268.88
X25.367 Y-269.013
X25.26 Y-269.146
X25.137 Y-269.284
X25 Y-269.421
X24.852 Y-269.554
X24.686 Y-269.686
X24.503 Y-269.816
X24.305 Y-269.94
X24.095 Y-270.055
X23.87 Y-270.163
X23.628 Y-270.263
X23.372 Y-270.352
X23.106 Y-270.428
X22.831 Y-270.49
X22.551 Y-270.537
X22.269 Y-270.568
X21.986 Y-270.583
X21.726 Y-270.582
X21.467 Y-270.567
X21.224 Y-270.539
X21.009 Y-270.501
X20.778 Y-270.448
X20.585 Y-270.391
X20.498 Y-270.36
X20.179 Y-270.215
X19.891 Y-270.015
X19.642 Y-269.769
X19.44 Y-269.483
X19.29 Y-269.166
X19.199 Y-268.828
X19.167 Y-268.479
X19.166 Y-267.406
G2 X19.219 Y-267.178 I0.6 J-0.02 F350
X19.803 Y-266.827 I0.546 J-0.248 F850
G1 X25.272 Y-267.173
G2 X25.781 Y-267.524 I-0.038 J-0.599
X25.834 Y-267.752 I-0.546 J-0.248 F350
G1 X25.832 Y-268.758 F850
X25.825 Y-268.908
X25.805 Y-269.057
X25.772 Y-269.203
X25.727 Y-269.346
X25.672 Y-269.486
X25.607 Y-269.621
X25.534 Y-269.752
X25.45 Y-269.885
X25.354 Y-270.02
X25.241 Y-270.16
X25.115 Y-270.301
X24.975 Y-270.439
X24.817 Y-270.579
X24.641 Y-270.719
X24.452 Y-270.851
X24.249 Y-270.978
X24.027 Y-271.099
X23.788 Y-271.213
X23.537 Y-271.315
X23.277 Y-271.405
X23.007 Y-271.481
X22.733 Y-271.542
X22.455 Y-271.587
X22.176 Y-271.617
X21.911 Y-271.63
X21.659 Y-271.628
X21.401 Y-271.612
X21.187 Y-271.586
X20.952 Y-271.544
X20.747 Y-271.496
X20.556 Y-271.439
X20.493 Y-271.416
X20.176 Y-271.27
X19.889 Y-271.071
X19.641 Y-270.824
X19.44 Y-270.539
X19.291 Y-270.223
X19.2 Y-269.885
X19.169 Y-269.537
X19.167 Y-268.479
G2 X19.221 Y-268.251 I0.6 J-0.02 F350
X19.798 Y-267.899 I0.546 J-0.248 F850
G1 X25.263 Y-268.179
G2 X25.779 Y-268.53 I-0.031 J-0.599
X25.832 Y-268.758 I-0.546 J-0.248 F350
G1 X25.831 Y-269.765 F850
X25.823 Y-269.915
X25.803 Y-270.063
X25.769 Y-270.21
X25.723 Y-270.353
X25.668 Y-270.492
X25.603 Y-270.627
X25.529 Y-270.761
X25.445 Y-270.895
X25.345 Y-271.036
X25.229 Y-271.18
X25.103 Y-271.321
X24.958 Y-271.466
X24.795 Y-271.611
X24.618 Y-271.751
X24.427 Y-271.886
X24.218 Y-272.017
X23.992 Y-272.141
X23.752 Y-272.256
X23.501 Y-272.358
X23.241 Y-272.448
X22.973 Y-272.525
X22.701 Y-272.586
X22.425 Y-272.631
X22.148 Y-272.661
X21.889 Y-272.675
X21.642 Y-272.673
X21.389 Y-272.658
X21.177 Y-272.633
X20.946 Y-272.592
X20.742 Y-272.544
X20.554 Y-272.489
X20.498 Y-272.469
X20.18 Y-272.323
X19.892 Y-272.124
X19.644 Y-271.878
X19.442 Y-271.592
X19.293 Y-271.275
X19.202 Y-270.937
X19.171 Y-270.589
X19.169 Y-269.537
G2 X19.222 Y-269.309 I0.6 J-0.02 F350
X19.794 Y-268.958 I0.546 J-0.248 F850
G1 X25.256 Y-269.186
G2 X25.777 Y-269.537 I-0.025 J-0.599
X25.831 Y-269.765 I-0.546 J-0.248 F350
G1 X25.829 Y-270.772 F850
X25.821 Y-270.922
X25.802 Y-271.07
X25.769 Y-271.217
X25.724 Y-271.36
X25.669 Y-271.499
X25.606 Y-271.635
X25.533 Y-271.768
X25.449 Y-271.905
X25.348 Y-272.049
X25.235 Y-272.193
X25.108 Y-272.337
X24.962 Y-272.485
X24.8 Y-272.631
X24.625 Y-272.772
X24.434 Y-272.909
X24.224 Y-273.043
X23.998 Y-273.169
X23.76 Y-273.286
X23.511 Y-273.39
X23.253 Y-273.481
X22.987 Y-273.559
X22.717 Y-273.622
X22.442 Y-273.67
X22.166 Y-273.702
X21.907 Y-273.717
X21.664 Y-273.718
X21.41 Y-273.704
X21.199 Y-273.681
X20.97 Y-273.643
X20.763 Y-273.596
X20.577 Y-273.543
X20.515 Y-273.521
X20.194 Y-273.377
X19.903 Y-273.178
X19.651 Y-272.931
X19.447 Y-272.644
X19.296 Y-272.326
X19.204 Y-271.986
X19.172 Y-271.635
X19.171 Y-270.589
G2 X19.224 Y-270.361 I0.6 J-0.02 F350
X19.79 Y-270.009 I0.546 J-0.248 F850
G1 X25.25 Y-270.192
G2 X25.776 Y-270.544 I-0.02 J-0.6
X25.829 Y-270.772 I-0.546 J-0.248 F350
G1 X25.828 Y-271.779 F850
X25.82 Y-271.928
X25.802 Y-272.077
X25.771 Y-272.224
X25.728 Y-272.368
X25.674 Y-272.508
X25.612 Y-272.644
X25.542 Y-272.777
X25.459 Y-272.915
X25.359 Y-273.06
X25.249 Y-273.204
X25.123 Y-273.349
X24.979 Y-273.498
X24.819 Y-273.646
X24.647 Y-273.788
X24.457 Y-273.927
X24.25 Y-274.062
X24.025 Y-274.19
X23.789 Y-274.309
X23.543 Y-274.415
X23.287 Y-274.509
X23.022 Y-274.589
X22.754 Y-274.655
X22.48 Y-274.705
X22.206 Y-274.74
X21.945 Y-274.758
X21.703 Y-274.761
X21.447 Y-274.75
X21.234 Y-274.729
X21.007 Y-274.694
X20.797 Y-274.648
X20.611 Y-274.598
X20.536 Y-274.572
X20.211 Y-274.429
X19.916 Y-274.231
X19.661 Y-273.984
X19.453 Y-273.696
X19.3 Y-273.376
X19.206 Y-273.033
X19.174 Y-272.68
X19.172 Y-271.635
G2 X19.225 Y-271.408 I0.6 J-0.02 F350
X19.788 Y-271.056 I0.546 J-0.248 F850
G1 X25.244 Y-271.199
G2 X25.774 Y-271.551 I-0.016 J-0.6
X25.828 Y-271.779 I-0.546 J-0.248 F350
G1 X25.826 Y-272.846 F850
X25.818 Y-272.996
X25.797 Y-273.144
X25.762 Y-273.29
X25.716 Y-273.433
X25.661 Y-273.573
X25.597 Y-273.708
X25.521 Y-273.847
X25.435 Y-273.986
X25.334 Y-274.129
X25.216 Y-274.278
X25.086 Y-274.425
X24.941 Y-274.571
X24.777 Y-274.719
X24.595 Y-274.864
X24.401 Y-275.003
X24.193 Y-275.134
X23.967 Y-275.26
X23.728 Y-275.376
X23.478 Y-275.48
X23.218 Y-275.571
X22.953 Y-275.648
X22.682 Y-275.71
X22.409 Y-275.757
X22.137 Y-275.788
X21.889 Y-275.802
X21.632
X21.393 Y-275.788
X21.183 Y-275.764
X20.951 Y-275.725
X20.755 Y-275.68
X20.563 Y-275.624
X20.513 Y-275.607
X20.193 Y-275.462
X19.903 Y-275.263
X19.652 Y-275.016
X19.449 Y-274.73
X19.299 Y-274.412
X19.207 Y-274.073
X19.175 Y-273.723
X19.174 Y-272.68
G2 X19.227 Y-272.452 I0.6 J-0.02 F350
X19.792 Y-272.1 I0.546 J-0.248 F850
G1 X25.245 Y-272.266
G2 X25.773 Y-272.618 I-0.018 J-0.6
X25.826 Y-272.846 I-0.546 J-0.248 F350
G1 X25.824 Y-273.853 F850
X25.817 Y-274.003
X25.798 Y-274.151
X25.767 Y-274.298
X25.723 Y-274.442
X25.67 Y-274.582
X25.608 Y-274.718
X25.538 Y-274.851
X25.454 Y-274.991
X25.354 Y-275.137
X25.244 Y-275.28
X25.117 Y-275.428
X24.972 Y-275.578
X24.813 Y-275.725
X24.64 Y-275.868
X24.449 Y-276.008
X24.24 Y-276.144
X24.016 Y-276.273
X23.781 Y-276.391
X23.536 Y-276.497
X23.28 Y-276.591
X23.016 Y-276.672
X22.748 Y-276.737
X22.475 Y-276.788
X22.202 Y-276.823
X21.941 Y-276.841
X21.701 Y-276.845
X21.446 Y-276.834
X21.235 Y-276.813
X21.009 Y-276.778
X20.799 Y-276.733
X20.614 Y-276.682
X20.541 Y-276.658
X20.215 Y-276.515
X19.92 Y-276.317
X19.665 Y-276.07
X19.457 Y-275.782
X19.303 Y-275.461
X19.209 Y-275.119
X19.177 Y-274.765
X19.175 Y-273.723
G2 X19.229 Y-273.495 I0.6 J-0.02 F350
X19.789 Y-273.143 I0.546 J-0.248 F850
G1 X25.239 Y-273.273
G2 X25.771 Y-273.625 I-0.014 J-0.6
X25.824 Y-273.853 I-0.546 J-0.248 F350
G1 X25.823 Y-274.909 F850
X25.815 Y-275.059
X25.795 Y-275.208
X25.761 Y-275.354
X25.717 Y-275.497
X25.663 Y-275.637
X25.599 Y-275.773
X25.525 Y-275.912
X25.44 Y-276.05
X25.34 Y-276.194
X25.224 Y-276.343
X25.096 Y-276.489
X24.951 Y-276.637
X24.788 Y-276.785
X24.609 Y-276.931
X24.418 Y-277.069
X24.211 Y-277.202
X23.986 Y-277.329
X23.748 Y-277.446
X23.499 Y-277.552
X23.24 Y-277.645
X22.976 Y-277.723
X22.707 Y-277.787
X22.435 Y-277.835
X22.164 Y-277.867
X21.914 Y-277.883
X21.661 Y-277.885
X21.418 Y-277.873
X21.208 Y-277.851
X20.977 Y-277.813
X20.777 Y-277.768
X20.588 Y-277.715
X20.528 Y-277.695
X20.206 Y-277.551
X19.913 Y-277.352
X19.661 Y-277.105
X19.455 Y-276.818
X19.303 Y-276.499
X19.21 Y-276.158
X19.179 Y-275.806
X19.177 Y-274.765
G2 X19.23 Y-274.537 I0.6 J-0.02 F350
X19.793 Y-274.185 I0.546 J-0.248 F850
G1 X25.239 Y-274.33
G2 X25.77 Y-274.681 I-0.016 J-0.6
X25.823 Y-274.909 I-0.546 J-0.248 F350
G1 X25.821 Y-275.916 F850
X25.814 Y-276.066
X25.797 Y-276.215
X25.766 Y-276.362
X25.725 Y-276.506
X25.672 Y-276.646
X25.611 Y-276.783
X25.542 Y-276.917
X25.459 Y-277.056
X25.361 Y-277.201
X25.252 Y-277.345
X25.127 Y-277.492
X24.984 Y-277.643
X24.826 Y-277.791
X24.655 Y-277.934
X24.466 Y-278.075
X24.259 Y-278.212
X24.037 Y-278.341
X23.804 Y-278.46
X23.559 Y-278.568
X23.305 Y-278.663
X23.042 Y-278.745
X22.776 Y-278.812
X22.504 Y-278.865
X22.231 Y-278.901
X21.97 Y-278.922
X21.73 Y-278.927
X21.474 Y-278.918
X21.261 Y-278.898
X21.036 Y-278.864
X20.824 Y-278.82
X20.639 Y-278.771
X20.557 Y-278.744
X20.229 Y-278.603
X19.931 Y-278.406
X19.673 Y-278.158
X19.463 Y-277.869
X19.308 Y-277.547
X19.213 Y-277.203
X19.18 Y-276.847
X19.179 Y-275.806
G2 X19.232 Y-275.578 I0.6 J-0.02 F350
X19.79 Y-275.226 I0.546 J-0.248 F850
G1 X25.234 Y-275.336
G2 X25.768 Y-275.688 I-0.012 J-0.6
X25.821 Y-275.916 I-0.546 J-0.248 F350
G1 X25.82 Y-277.013 F850
X25.812 Y-277.163
X25.789 Y-277.311
X25.754 Y-277.457
X25.707 Y-277.6
X25.651 Y-277.739
X25.587 Y-277.875
X25.51 Y-278.014
X25.422 Y-278.156
X25.321 Y-278.298
X25.203 Y-278.447
X25.069 Y-278.597
X24.923 Y-278.743
X24.759 Y-278.889
X24.578 Y-279.034
X24.38 Y-279.175
X24.17 Y-279.307
X23.945 Y-279.431
X23.707 Y-279.546
X23.458 Y-279.648
X23.198 Y-279.739
X22.933 Y-279.815
X22.664 Y-279.876
X22.391 Y-279.922
X22.12 Y-279.952
X21.877 Y-279.965
X21.616 Y-279.964
X21.385 Y-279.951
X21.172 Y-279.926
X20.943 Y-279.887
X20.751 Y-279.842
X20.554 Y-279.785
X20.514 Y-279.77
X20.195 Y-279.625
X19.906 Y-279.426
X19.657 Y-279.179
X19.454 Y-278.893
X19.305 Y-278.576
X19.213 Y-278.237
X19.182 Y-277.888
X19.18 Y-276.847
G2 X19.233 Y-276.619 I0.6 J-0.02 F350
X19.798 Y-276.267 I0.546 J-0.248 F850
G1 X25.238 Y-276.434
G2 X25.766 Y-276.785 I-0.018 J-0.6
X25.82 Y-277.013 I-0.546 J-0.248 F350
G1 X25.818 Y-278.02 F850
X25.81 Y-278.17
X25.791 Y-278.319
X25.759 Y-278.465
X25.716 Y-278.609
X25.662 Y-278.749
X25.599 Y-278.885
X25.529 Y-279.018
X25.444 Y-279.159
X25.344 Y-279.304
X25.233 Y-279.448
X25.105 Y-279.596
X24.959 Y-279.746
X24.801 Y-279.893
X24.627 Y-280.036
X24.435 Y-280.176
X24.226 Y-280.312
X24.002 Y-280.44
X23.767 Y-280.557
X23.522 Y-280.663
X23.266 Y-280.757
X23.003 Y-280.837
X22.736 Y-280.901
X22.463 Y-280.951
X22.191 Y-280.986
X21.932 Y-281.004
X21.693 Y-281.007
X21.44 Y-280.996
X21.23 Y-280.975
X21.005 Y-280.939
X20.796 Y-280.894
X20.612 Y-280.843
X20.544 Y-280.82
X20.219 Y-280.678
X19.925 Y-280.479
X19.67 Y-280.233
X19.462 Y-279.944
X19.309 Y-279.624
X19.215 Y-279.282
X19.183 Y-278.928
X19.182 Y-277.888
G2 X19.235 Y-277.66 I0.6 J-0.02 F350
X19.796 Y-277.308 I0.546 J-0.248 F850
G1 X25.233 Y-277.44
G2 X25.765 Y-277.792 I-0.015 J-0.6
X25.818 Y-278.02 I-0.546 J-0.248 F350
G1 X25.816 Y-279.088 F850
X25.809 Y-279.238
X25.787 Y-279.386
X25.752 Y-279.532
X25.706 Y-279.675
X25.651 Y-279.814
X25.587 Y-279.95
X25.511 Y-280.089
X25.425 Y-280.228
X25.323 Y-280.372
X25.205 Y-280.522
X25.075 Y-280.668
X24.929 Y-280.815
X24.765 Y-280.963
X24.584 Y-281.109
X24.39 Y-281.247
X24.182 Y-281.379
X23.957 Y-281.504
X23.718 Y-281.62
X23.469 Y-281.724
X23.209 Y-281.815
X22.946 Y-281.892
X22.677 Y-281.954
X22.405 Y-282
X22.134 Y-282.031
X21.889 Y-282.045
X21.633
X21.396 Y-282.032
X21.187 Y-282.009
X20.957 Y-281.969
X20.761 Y-281.925
X20.57 Y-281.869
X20.523 Y-281.853
X20.203 Y-281.708
X19.913 Y-281.509
X19.662 Y-281.263
X19.459 Y-280.976
X19.309 Y-280.658
X19.216 Y-280.319
X19.185 Y-279.969
X19.183 Y-278.928
G2 X19.237 Y-278.7 I0.6 J-0.02 F350
X19.801 Y-278.349 I0.546 J-0.248 F850
G1 X25.234 Y-278.508
G2 X25.763 Y-278.86 I-0.018 J-0.6
X25.816 Y-279.088 I-0.546 J-0.248 F350
G1 X25.815 Y-280.144 F850
X25.807 Y-280.294
X25.784 Y-280.442
X25.748 Y-280.588
X25.701 Y-280.73
X25.644 Y-280.869
X25.579 Y-281.005
X25.503 Y-281.143
X25.416 Y-281.281
X25.312 Y-281.428
X25.193 Y-281.576
X25.062 Y-281.722
X24.914 Y-281.87
X24.747 Y-282.019
X24.566 Y-282.163
X24.372 Y-282.3
X24.16 Y-282.432
X23.933 Y-282.557
X23.693 Y-282.671
X23.442 Y-282.774
X23.182 Y-282.864
X22.919 Y-282.939
X22.649 Y-282.999
X22.378 Y-283.044
X22.107 Y-283.073
X21.863 Y-283.086
X21.611 Y-283.085
X21.374 Y-283.07
X21.166 Y-283.046
X20.938 Y-283.005
X20.742 Y-282.96
X20.552 Y-282.904
X20.514 Y-282.89
X20.196 Y-282.744
X19.908 Y-282.545
X19.66 Y-282.299
X19.458 Y-282.013
X19.309 Y-281.696
X19.218 Y-281.358
X19.187 Y-281.01
X19.185 Y-279.969
G2 X19.238 Y-279.741 I0.6 J-0.02 F350
X19.804 Y-279.389 I0.546 J-0.248 F850
G1 X25.235 Y-279.565
G2 X25.761 Y-279.916 I-0.019 J-0.6
X25.815 Y-280.144 I-0.546 J-0.248 F350
G1 X25.813 Y-281.151 F850
X25.806 Y-281.301
X25.786 Y-281.449
X25.753 Y-281.596
X25.709 Y-281.739
X25.654 Y-281.879
X25.591 Y-282.015
X25.52 Y-282.148
X25.434 Y-282.289
X25.334 Y-282.435
X25.222 Y-282.579
X25.093 Y-282.727
X24.946 Y-282.877
X24.786 Y-283.023
X24.612 Y-283.166
X24.419 Y-283.306
X24.209 Y-283.441
X23.985 Y-283.569
X23.749 Y-283.685
X23.503 Y-283.79
X23.248 Y-283.883
X22.984 Y-283.961
X22.718 Y-284.025
X22.446 Y-284.074
X22.174 Y-284.107
X21.917 Y-284.124
X21.679 Y-284.126
X21.428 Y-284.114
X21.219 Y-284.093
X20.994 Y-284.056
X20.787 Y-284.011
X20.603 Y-283.96
X20.542 Y-283.939
X20.219 Y-283.795
X19.925 Y-283.597
X19.672 Y-283.35
X19.466 Y-283.062
X19.313 Y-282.743
X19.22 Y-282.402
X19.188 Y-282.049
X19.187 Y-281.01
G2 X19.24 Y-280.782 I0.6 J-0.02 F350
X19.802 Y-280.43 I0.546 J-0.248 F850
G1 X25.229 Y-280.571
G2 X25.76 Y-280.923 I-0.016 J-0.6
X25.813 Y-281.151 I-0.546 J-0.248 F350
G1 X25.812 Y-282.158 F850
X25.804 Y-282.307
X25.788 Y-282.457
X25.758 Y-282.604
X25.716 Y-282.748
X25.664 Y-282.888
X25.603 Y-283.025
X25.534 Y-283.158
X25.451 Y-283.297
X25.354 Y-283.443
X25.245 Y-283.587
X25.12 Y-283.734
X24.978 Y-283.883
X24.82 Y-284.031
X24.65 Y-284.174
X24.462 Y-284.314
X24.257 Y-284.451
X24.035 Y-284.58
X23.802 Y-284.7
X23.558 Y-284.807
X23.305 Y-284.902
X23.043 Y-284.984
X22.777 Y-285.052
X22.507 Y-285.104
X22.235 Y-285.141
X21.976 Y-285.161
X21.737 Y-285.166
X21.482 Y-285.157
X21.27 Y-285.138
X21.045 Y-285.105
X20.834 Y-285.061
X20.649 Y-285.012
X20.568 Y-284.986
X20.24 Y-284.845
X19.941 Y-284.647
X19.683 Y-284.4
X19.473 Y-284.111
X19.318 Y-283.789
X19.222 Y-283.444
X19.19 Y-283.088
X19.188 Y-282.049
G2 X19.241 Y-281.821 I0.6 J-0.02 F350
X19.8 Y-281.469 I0.546 J-0.248 F850
G1 X25.224 Y-281.578
G2 X25.758 Y-281.93 I-0.012 J-0.6
X25.812 Y-282.158 I-0.546 J-0.248 F350
G1 X25.81 Y-283.255 F850
X25.802 Y-283.405
X25.78 Y-283.553
X25.745 Y-283.699
X25.698 Y-283.842
X25.643 Y-283.981
X25.578 Y-284.116
X25.502 Y-284.255
X25.413 Y-284.397
X25.313 Y-284.539
X25.195 Y-284.688
X25.062 Y-284.837
X24.916 Y-284.983
X24.753 Y-285.129
X24.572 Y-285.274
X24.375 Y-285.414
X24.165 Y-285.546
X23.941 Y-285.67
X23.704 Y-285.784
X23.456 Y-285.887
X23.197 Y-285.977
X22.934 Y-286.053
X22.666 Y-286.114
X22.394 Y-286.16
X22.124 Y-286.19
X21.883 Y-286.203
X21.622
X21.392 Y-286.189
X21.18 Y-286.165
X20.951 Y-286.125
X20.76 Y-286.081
X20.563 Y-286.024
X20.525 Y-286.01
X20.206 Y-285.865
X19.917 Y-285.666
X19.667 Y-285.419
X19.464 Y-285.133
X19.314 Y-284.816
X19.223 Y-284.477
X19.191 Y-284.128
X19.19 Y-283.088
G2 X19.243 Y-282.86 I0.6 J-0.02 F350
X19.808 Y-282.508 I0.546 J-0.248 F850
G1 X25.229 Y-282.675
G2 X25.757 Y-283.027 I-0.018 J-0.6
X25.81 Y-283.255 I-0.546 J-0.248 F350
G1 X25.808 Y-284.262 F850
X25.801 Y-284.411
X25.782 Y-284.56
X25.75 Y-284.707
X25.706 Y-284.85
X25.653 Y-284.99
X25.59 Y-285.127
X25.52 Y-285.26
X25.435 Y-285.4
X25.335 Y-285.545
X25.225 Y-285.689
X25.097 Y-285.836
X24.952 Y-285.986
X24.793 Y-286.133
X24.62 Y-286.275
X24.429 Y-286.415
X24.334 Y-286.477
X23.994 Y-286.654
X23.626 Y-286.763
X23.244 Y-286.8
G2 X23.016 Y-286.746 I0.021 J0.6 F350
X22.844 Y-285.773 I0.249 J0.546 F850
G1 X24.787 Y-283.855
G2 X25.755 Y-284.034 I0.422 J-0.427
X25.808 Y-284.262 I-0.546 J-0.248 F350
G1 X25.807 Y-285.329 F850
X25.799 Y-285.479
X25.722 Y-285.784
X25.584 Y-286.066
X25.393 Y-286.315
X25.155 Y-286.521
X24.88 Y-286.674
X24.581 Y-286.768
X24.268 Y-286.8
G2 X24.04 Y-286.746 I0.021 J0.6 F350
X23.881 Y-285.76 I0.249 J0.546 F850
G1 X24.799 Y-284.909
G2 X25.754 Y-285.101 I0.408 J-0.44
X25.807 Y-285.329 I-0.546 J-0.248 F350
G1 X25.806 Y-286.074 F850
X25.805 Y-286.107
X25.804 Y-286.135
X25.792 Y-286.285
X25.694 Y-286.492
X25.536 Y-286.657
X25.334 Y-286.763
X25.108 Y-286.8
G2 X24.879 Y-286.751 I0.023 J0.664 F350
X24.501 Y-285.926 I0.252 J0.614 F850
X25.762 Y-285.905 I0.634 J-0.212
X25.804 Y-286.135 I-0.627 J-0.233 F350
G1 X25.799 Y-286.275 F850
X25.776 Y-286.376
X25.757 Y-286.426
X25.732 Y-286.476
X25.72 Y-286.498
X25.69 Y-286.543
X25.654 Y-286.588
X25.606 Y-286.637
X25.557 Y-286.678
X25.519 Y-286.705
X25.468 Y-286.734
X25.418 Y-286.757
X25.368 Y-286.774
X25.317 Y-286.787
X25.217 Y-286.8
X20.981
X20.782 Y-286.79
X20.419 Y-286.712
X20.081 Y-286.561
X19.781 Y-286.343
X19.532 Y-286.067
X19.347 Y-285.746
X19.232 Y-285.394
X19.193 Y-285.025
G2 X19.246 Y-284.797 I0.6 J-0.02 F350
X20.214 Y-284.618 I0.546 J-0.248 F850
G1 X21.382 Y-285.774
G2 X21.208 Y-286.746 I-0.422 J-0.426
X20.981 Y-286.8 I-0.249 J0.546 F350
G1 X20.085 F850
X19.935 Y-286.793
X19.699 Y-286.72
X19.492 Y-286.585
X19.331 Y-286.397
X19.229 Y-286.172
X19.194 Y-285.928
G2 X19.233 Y-285.696 I0.874 J-0.029 F350
X19.443 Y-285.345 I0.835 J-0.261 F850
X20.709 Y-286.497 I0.612 J-0.599
X20.316 Y-286.76 I-0.654 J0.553
X20.085 Y-286.8 I-0.261 J0.816 F350
G1 X19.783 F850
X19.683 Y-286.787
X19.632 Y-286.774
X19.582 Y-286.757
X19.532 Y-286.734
X19.481 Y-286.705
X19.443 Y-286.678
X19.394 Y-286.637
X19.346 Y-286.588
X19.31 Y-286.543
X19.28 Y-286.498
X19.268 Y-286.476
X19.243 Y-286.426
X19.224 Y-286.376
X19.201 Y-286.275
X19.194 Y-286.074
X19.191 Y-284.128
G2 X19.245 Y-283.9 I0.6 J-0.02 F350
G1 X19.283 Y-283.814 Z-7.483
X19.321 Y-283.731 Z-7.461
X19.357 Y-283.652 Z-7.425
X19.39 Y-283.579 Z-7.375
X19.42 Y-283.513 Z-7.314
X19.445 Y-283.458 Z-7.243
X19.466 Y-283.413 Z-7.162
X19.48 Y-283.38 Z-7.075
X19.49 Y-283.36 Z-6.984
X19.493 Y-283.353 Z-6.89
G0 Z5
X20.717 Y-14.742
Z3.1
G1 Z2.5 F350
G2 X21.934 Y-11.003 Z2.336 I1.783 J1.487
X24.771 Y-13.72 Z2.172 I0.565 J-2.249
X21.096 Y-15.094 Z2.009 I-2.268 J0.467
X21.454 Y-11.192 Z1.845 I1.404 J1.838
X24.809 Y-13.206 Z1.681 I1.045 J-2.06
X21.542 Y-15.351 Z1.517 I-2.307 J-0.047
X21.029 Y-11.482 Z1.354 I0.958 J2.096
X24.733 Y-12.698 Z1.19 I1.47 J-1.771
X22.032 Y-15.503 Z1.026 I-2.231 J-0.554
X20.68 Y-11.857 Z0.862 I0.469 J2.248
X24.547 Y-12.221 Z0.699 I1.819 J-1.397
X22.542 Y-15.542 Z0.535 I-2.045 J-1.031
X20.424 Y-12.298 Z0.371 I-0.04 J2.287
X24.261 Y-11.799 Z0.207 I2.075 J-0.955
X23.046 Y-15.468 Z0.043 I-1.76 J-1.453
X20.272 Y-12.784 Z-0.12 I-0.544 J2.213
X23.89 Y-11.452 Z-0.284 I2.227 J-0.47
X23.519 Y-15.284 Z-0.448 I-1.389 J-1.799
X20.232 Y-13.289 Z-0.612 I-1.017 J2.03
X23.453 Y-11.197 Z-0.775 I2.267 J0.034
X23.938 Y-15.002 Z-0.939 I-0.952 J-2.055
X20.304 Y-13.788 Z-1.103 I-1.436 J1.748
X22.972 Y-11.046 Z-1.267 I2.195 J0.534
X24.282 Y-14.635 Z-1.43 I-0.472 J-2.206
X20.485 Y-14.258 Z-1.594 I-1.78 J1.381
X22.471 Y-11.005 Z-1.758 I2.015 J1.003
X24.536 Y-14.202 Z-1.922 I0.028 J-2.247
X20.764 Y-14.674 Z-2.086 I-2.034 J0.949
X21.976 Y-11.076 Z-2.249 I1.736 J1.418
X24.687 Y-13.726 Z-2.413 I0.523 J-2.177
X21.127 Y-15.016 Z-2.577 I-2.185 J0.473
X21.51 Y-11.254 Z-2.741 I1.373 J1.761
X24.729 Y-13.23 Z-2.904 I0.989 J-1.999
X21.555 Y-15.269 Z-3.068 I-2.227 J-0.023
X21.097 Y-11.529 Z-3.232 I0.946 J2.014
X24.66 Y-12.739 Z-3.396 I1.401 J-1.724
X22.027 Y-15.42 Z-3.56 I-2.159 J-0.513
X20.757 Y-11.888 Z-3.723 I0.474 J2.165
X24.485 Y-12.277 Z-3.887 I1.742 J-1.365
X22.518 Y-15.462 Z-4.051 I-1.984 J-0.975
X20.506 Y-12.312 Z-4.215 I-0.017 J2.207
X24.213 Y-11.867 Z-4.378 I1.993 J-0.942
X23.005 Y-15.395 Z-4.542 I-1.712 J-1.384
X20.355 Y-12.779 Z-4.706 I-0.503 J2.14
X23.858 Y-11.529 Z-4.87 I2.144 J-0.476
X23.463 Y-15.223 Z-5.033 I-1.357 J-1.723
X20.312 Y-13.266 Z-5.197 I-0.961 J1.968
X23.439 Y-11.279 Z-5.361 I2.187 J0.011
X23.87 Y-14.954 Z-5.525 I-0.939 J-1.973
X20.377 Y-13.748 Z-5.689 I-1.368 J1.7
X22.976 Y-11.129 Z-5.852 I2.122 J0.493
X24.206 Y-14.603 Z-6.016 I-0.477 J-2.123
X20.547 Y-14.202 Z-6.18 I-1.703 J1.349
X22.494 Y-11.085 Z-6.344 I1.953 J0.947
X24.454 Y-14.188 Z-6.507 I0.005 J-2.167
X20.812 Y-14.606 Z-6.671 I-1.952 J0.935
X22.016 Y-11.148 Z-6.835 I1.688 J1.351
X24.605 Y-13.73 Z-6.999 I0.483 J-2.104
X21.159 Y-14.94 Z-7.162 I-2.102 J0.477
X21.565 Y-11.316 Z-7.326 I1.341 J1.684
X24.649 Y-13.253 Z-7.49 I0.934 J-1.937
X20.349 I-2.15
X24.636 Y-13.017 I2.15
X24.649 Y-13.253 I-2.137 J-0.236
G1 X24.674 Y-14.138 F850
X24.686 Y-14.249
Y-14.399
X24.667 Y-14.547
X24.633 Y-14.693
X24.583 Y-14.835
X24.521 Y-14.972
X24.448 Y-15.103
X24.365 Y-15.227
X24.272 Y-15.345
X24.171 Y-15.456
X24.063 Y-15.56
X23.948 Y-15.656
X23.826 Y-15.744
X23.7 Y-15.824
X23.568 Y-15.897
X23.433 Y-15.961
X23.293 Y-16.017
X23.151 Y-16.064
X23.006 Y-16.103
X22.86 Y-16.134
X22.711 Y-16.157
X22.559 Y-16.171
X22.406 Y-16.176
X22.252 Y-16.174
X22.096 Y-16.162
X21.941 Y-16.141
X21.786 Y-16.112
X21.631 Y-16.073
X21.479 Y-16.026
X21.329 Y-15.97
X21.181 Y-15.905
X21.037 Y-15.832
X20.896 Y-15.75
X20.76 Y-15.661
X20.629 Y-15.563
X20.503 Y-15.458
X20.383 Y-15.346
X20.269 Y-15.227
X20.162 Y-15.101
X20.062 Y-14.97
X19.969 Y-14.832
X19.884 Y-14.69
X19.807 Y-14.543
X19.739 Y-14.391
X19.679 Y-14.236
X19.627 Y-14.077
X19.615 Y-14.031
X19.579 Y-13.864
X19.557 Y-13.695
X19.55 Y-13.524
Y-13.255
X19.566 Y-12.944
X19.582 Y-12.786
X19.608 Y-12.628
X19.643 Y-12.471
X19.687 Y-12.315
X19.74 Y-12.162
X19.802 Y-12.011
X19.872 Y-11.864
X19.951 Y-11.72
X20.037 Y-11.581
X20.132 Y-11.446
X20.235 Y-11.317
X20.344 Y-11.193
X20.461 Y-11.075
X20.584 Y-10.965
X20.714 Y-10.861
X20.849 Y-10.764
X20.99 Y-10.675
X21.136 Y-10.594
X21.286 Y-10.521
X21.441 Y-10.457
X21.599 Y-10.402
X21.759 Y-10.355
X21.923 Y-10.318
X22.088 Y-10.29
X22.255 Y-10.271
X22.422 Y-10.261
X22.59
X22.758 Y-10.271
X22.925 Y-10.29
X23.09 Y-10.318
X23.254 Y-10.356
X23.416 Y-10.403
X23.575 Y-10.458
X23.73 Y-10.523
X23.882 Y-10.596
X24.029 Y-10.678
X24.171 Y-10.768
X24.308 Y-10.866
X24.44 Y-10.971
X24.565 Y-11.084
X24.684 Y-11.204
X24.796 Y-11.33
X24.9 Y-11.462
X24.997 Y-11.6
X25.089 Y-11.748
X25.19 Y-11.932
X25.256 Y-12.07
X25.363 Y-12.346
X25.428 Y-12.635
X25.45 Y-12.93
Y-14.262
X25.442 Y-14.422
X25.426 Y-14.571
X25.401 Y-14.719
X25.368 Y-14.866
X25.326 Y-15.01
X25.276 Y-15.151
X25.216 Y-15.291
X25.148 Y-15.431
X25.071 Y-15.568
X24.986 Y-15.702
X24.892 Y-15.832
X24.789 Y-15.959
X24.677 Y-16.083
X24.556 Y-16.202
X24.426 Y-16.316
X24.289 Y-16.424
X24.143 Y-16.526
X23.99 Y-16.62
X23.83 Y-16.707
X23.664 Y-16.785
X23.491 Y-16.855
X23.313 Y-16.915
X23.13 Y-16.966
X22.942 Y-17.007
X22.75 Y-17.038
X22.555 Y-17.058
X22.357 Y-17.067
X22.157 Y-17.065
X21.956 Y-17.051
X21.754 Y-17.026
X21.553 Y-16.99
X21.353 Y-16.942
X21.155 Y-16.882
X20.959 Y-16.811
X20.767 Y-16.729
X20.579 Y-16.635
X20.56 Y-16.625
X20.272 Y-16.425
X20.023 Y-16.178
X19.821 Y-15.892
X19.672 Y-15.574
X19.581 Y-15.236
X19.55 Y-14.887
Y-13.524
Y-13.491 F350
Y-13.255
Y-11.846 F850
X19.558 Y-11.695
X19.573 Y-11.545
X19.669 Y-11.232
X19.824 Y-10.943
X20.032 Y-10.69
X20.286 Y-10.482
X20.575 Y-10.327
X20.889 Y-10.232
X21.215 Y-10.2
G2 X21.443 Y-10.254 I-0.021 J-0.6 F350
X21.614 Y-11.228 I-0.249 J-0.546 F850
G1 X20.57 Y-12.253
G2 X19.604 Y-12.074 I-0.42 J0.428
X19.55 Y-11.846 I0.546 J0.249 F350
G1 Y-11.007 F850
X19.558 Y-10.857
X19.628 Y-10.646
X19.754 Y-10.463
X19.925 Y-10.321
X20.128 Y-10.231
X20.349 Y-10.2
G2 X20.579 Y-10.243 I-0.027 J-0.786 F350
X20.874 Y-10.427 I-0.258 J-0.743 F850
X19.78 Y-11.533 I-0.547 J-0.553
X19.593 Y-11.238 I0.547 J0.553
X19.55 Y-11.007 I0.734 J0.258 F350
G1 Y-10.839 F850
X19.555 Y-10.738
X19.576 Y-10.638
X19.594 Y-10.587
X19.617 Y-10.537
X19.646 Y-10.487
X19.683 Y-10.436
X19.728 Y-10.385
X19.783 Y-10.334
X19.834 Y-10.297
X19.884 Y-10.268
X19.959 Y-10.235
X20.022 Y-10.216
X20.085 Y-10.205
X20.286 Y-10.2
X23.818
X23.973 Y-10.208
X24.31 Y-10.28
X24.625 Y-10.421
X24.904 Y-10.624
X25.135 Y-10.881
X25.307 Y-11.179
X25.414 Y-11.508
X25.45 Y-11.851
G2 X25.396 Y-12.079 I-0.6 J0.021 F350
X24.422 Y-12.25 I-0.546 J0.249 F850
G1 X23.411 Y-11.22
G2 X23.59 Y-10.254 I0.428 J0.42
X23.818 Y-10.2 I0.249 J-0.546 F350
G1 X24.623 F850
X24.773 Y-10.208
X24.989 Y-10.274
X25.178 Y-10.398
X25.325 Y-10.571
X25.418 Y-10.777
X25.45 Y-11.001
G2 X25.408 Y-11.232 I-0.819 J0.029 F350
X25.22 Y-11.542 I-0.777 J0.26 F850
X24.082 Y-10.441 I-0.569 J0.551
X24.392 Y-10.243 I0.569 J-0.551
X24.623 Y-10.2 I0.258 J-0.749 F350
G1 X24.714 F850
X24.915 Y-10.205
X24.978 Y-10.216
X25.041 Y-10.235
X25.116 Y-10.268
X25.166 Y-10.297
X25.217 Y-10.334
X25.272 Y-10.385
X25.317 Y-10.437
X25.354 Y-10.487
X25.383 Y-10.537
X25.406 Y-10.587
X25.424 Y-10.638
X25.445 Y-10.738
X25.45 Y-10.839
Y-12.93
X25.449 Y-12.938 F350
G3 X25.413 Y-13.162 I3.382 J-0.657
X25.405 Y-13.236 I3.418 J-0.434 F850
X25.401 Y-13.298 I0.597 J-0.063
G1 Y-13.893
G3 X25.405 Y-13.956 I0.6
X25.413 Y-14.029 I3.427 J0.36
X25.449 Y-14.253 I3.418 J0.434 F350
G1 X25.45 Y-14.262
Y-15.47 F850
X25.442 Y-15.62
X25.425 Y-15.769
X25.393 Y-15.915
X25.349 Y-16.059
X25.295 Y-16.199
X25.231 Y-16.334
X25.158 Y-16.465
X25.077 Y-16.592
X24.987 Y-16.715
X24.888 Y-16.838
X24.778 Y-16.957
X24.657 Y-17.076
X24.523 Y-17.193
X24.378 Y-17.306
X24.223 Y-17.413
X24.059 Y-17.514
X23.884 Y-17.608
X23.699 Y-17.694
X23.505 Y-17.772
X23.301 Y-17.84
X23.088 Y-17.898
X22.869 Y-17.945
X22.644 Y-17.98
X22.415 Y-18.003
X22.18 Y-18.013
X21.943 Y-18.009
X21.711 Y-17.993
X21.503 Y-17.966
X21.274 Y-17.924
X21.081 Y-17.877
X20.888 Y-17.818
X20.86 Y-17.808
X20.545 Y-17.66
X20.261 Y-17.46
X20.016 Y-17.213
X19.817 Y-16.928
X19.67 Y-16.613
X19.58 Y-16.277
X19.55 Y-15.931
Y-14.887
G2 X19.604 Y-14.659 I0.6 J-0.021 F350
X20.224 Y-14.312 I0.546 J-0.249 F850
G1 X24.924 Y-14.895
G2 X25.396 Y-15.242 I-0.074 J-0.595
X25.45 Y-15.47 I-0.546 J-0.249 F350
G1 Y-16.477 F850
X25.442 Y-16.626
X25.42 Y-16.775
X25.383 Y-16.92
X25.334 Y-17.062
X25.274 Y-17.199
X25.205 Y-17.332
X25.127 Y-17.461
X25.042 Y-17.584
X24.947 Y-17.705
X24.838 Y-17.83
X24.717 Y-17.953
X24.586 Y-18.072
X24.441 Y-18.19
X24.282 Y-18.305
X24.109 Y-18.416
X23.925 Y-18.52
X23.731 Y-18.615
X23.524 Y-18.703
X23.305 Y-18.781
X23.078 Y-18.848
X22.841 Y-18.904
X22.601 Y-18.947
X22.357 Y-18.976
X22.137 Y-18.99
X21.906 Y-18.991
X21.685 Y-18.98
X21.491 Y-18.959
X21.276 Y-18.924
X21.086 Y-18.882
X20.908 Y-18.831
X20.899 Y-18.828
X20.576 Y-18.684
X20.284 Y-18.485
X20.031 Y-18.238
X19.825 Y-17.95
X19.674 Y-17.631
X19.581 Y-17.289
X19.55 Y-16.937
Y-15.931
G2 X19.604 Y-15.703 I0.6 J-0.021 F350
X20.219 Y-15.356 I0.546 J-0.249 F850
G1 X24.92 Y-15.902
G2 X25.396 Y-16.249 I-0.069 J-0.596
X25.45 Y-16.477 I-0.546 J-0.249 F350
G1 Y-17.393 F850
X25.442 Y-17.543
X25.422 Y-17.691
X25.387 Y-17.837
X25.339 Y-17.979
X25.28 Y-18.117
X25.212 Y-18.251
X25.135 Y-18.38
X25.051 Y-18.504
X24.956 Y-18.627
X24.847 Y-18.755
X24.723 Y-18.883
X24.589 Y-19.008
X24.44 Y-19.131
X24.276 Y-19.252
X24.097 Y-19.369
X23.907 Y-19.479
X23.707 Y-19.579
X23.496 Y-19.671
X23.275 Y-19.753
X23.048 Y-19.822
X22.813 Y-19.88
X22.574 Y-19.925
X22.335 Y-19.956
X22.126 Y-19.971
X21.894 Y-19.975
X21.686 Y-19.966
X21.493 Y-19.948
X21.281 Y-19.915
X21.099 Y-19.876
X20.917 Y-19.827
X20.59 Y-19.684
X20.294 Y-19.486
X20.038 Y-19.239
X19.83 Y-18.95
X19.676 Y-18.628
X19.582 Y-18.284
X19.55 Y-17.93
Y-16.937
G2 X19.604 Y-16.709 I0.6 J-0.021 F350
X20.207 Y-16.361 I0.546 J-0.249 F850
G1 X24.908 Y-16.816
G2 X25.396 Y-17.165 I-0.058 J-0.597
X25.45 Y-17.393 I-0.546 J-0.249 F350
G1 Y-18.35 F850
X25.442 Y-18.499
X25.42 Y-18.648
X25.383 Y-18.793
X25.334 Y-18.935
X25.275 Y-19.073
X25.206 Y-19.206
X25.129 Y-19.335
X25.043 Y-19.462
X24.946 Y-19.589
X24.833 Y-19.72
X24.707 Y-19.852
X24.569 Y-19.98
X24.418 Y-20.105
X24.251 Y-20.229
X24.069 Y-20.348
X23.877 Y-20.459
X23.675 Y-20.561
X23.463 Y-20.654
X23.242 Y-20.735
X23.016 Y-20.805
X22.782 Y-20.863
X22.545 Y-20.907
X22.314 Y-20.938
X22.107 Y-20.953
X21.876 Y-20.957
X21.676 Y-20.949
X21.481 Y-20.93
X21.272 Y-20.898
X21.094 Y-20.861
X21.027 Y-20.842
X20.678 Y-20.712
X20.359 Y-20.519
X20.082 Y-20.27
X19.855 Y-19.974
X19.688 Y-19.641
X19.585 Y-19.283
X19.55 Y-18.912
Y-17.93
G2 X19.604 Y-17.702 I0.6 J-0.021 F350
X20.203 Y-17.353 I0.546 J-0.249 F850
G1 X24.904 Y-17.773
G2 X25.396 Y-18.122 I-0.053 J-0.598
X25.45 Y-18.35 I-0.546 J-0.249 F350
G1 Y-19.295 F850
X25.442 Y-19.445
X25.421 Y-19.594
X25.385 Y-19.739
X25.337 Y-19.882
X25.279 Y-20.02
X25.212 Y-20.154
X25.136 Y-20.283
X25.052 Y-20.41
X24.955 Y-20.54
X24.842 Y-20.674
X24.718 Y-20.805
X24.582 Y-20.934
X24.431 Y-21.063
X24.264 Y-21.189
X24.084 Y-21.309
X23.894 Y-21.422
X23.695 Y-21.525
X23.484 Y-21.619
X23.265 Y-21.703
X23.04 Y-21.775
X22.807 Y-21.835
X22.572 Y-21.881
X22.36 Y-21.911
X22.128 Y-21.931
X21.909 Y-21.937
X21.717 Y-21.931
X21.502 Y-21.912
X21.305 Y-21.884
X21.13 Y-21.849
X20.933 Y-21.798
X20.604 Y-21.658
X20.304 Y-21.462
X20.045 Y-21.214
X19.834 Y-20.925
X19.678 Y-20.602
X19.582 Y-20.257
X19.55 Y-19.9
Y-18.912
G2 X19.604 Y-18.684 I0.6 J-0.021 F350
X20.198 Y-18.335 I0.546 J-0.249 F850
G1 X24.899 Y-18.718
G2 X25.396 Y-19.068 I-0.049 J-0.598
X25.45 Y-19.295 I-0.546 J-0.249 F350
G1 Y-20.261 F850
X25.442 Y-20.411
X25.421 Y-20.56
X25.385 Y-20.705
X25.338 Y-20.848
X25.28 Y-20.986
X25.213 Y-21.12
X25.138 Y-21.25
X25.053 Y-21.378
X24.957 Y-21.508
X24.845 Y-21.642
X24.72 Y-21.776
X24.584 Y-21.906
X24.433 Y-22.034
X24.267 Y-22.16
X24.089 Y-22.281
X23.899 Y-22.394
X23.698 Y-22.499
X23.489 Y-22.594
X23.272 Y-22.677
X23.046 Y-22.75
X22.815 Y-22.811
X22.581 Y-22.858
X22.349 Y-22.891
X22.143 Y-22.909
X21.913 Y-22.916
X21.711 Y-22.911
X21.518 Y-22.895
X21.308 Y-22.866
X21.128 Y-22.83
X20.945 Y-22.783
X20.612 Y-22.643
X20.31 Y-22.446
X20.049 Y-22.198
X19.836 Y-21.908
X19.679 Y-21.583
X19.582 Y-21.236
X19.55 Y-20.877
Y-19.9
G2 X19.604 Y-19.672 I0.6 J-0.021 F350
X20.196 Y-19.323 I0.546 J-0.249 F850
G1 X24.896 Y-19.684
G2 X25.396 Y-20.033 I-0.046 J-0.598
X25.45 Y-20.261 I-0.546 J-0.249 F350
G1 Y-21.218 F850
X25.442 Y-21.368
X25.423 Y-21.517
X25.388 Y-21.663
X25.342 Y-21.806
X25.286 Y-21.945
X25.22 Y-22.079
X25.146 Y-22.21
X25.063 Y-22.337
X24.968 Y-22.468
X24.857 Y-22.602
X24.734 Y-22.736
X24.6 Y-22.866
X24.451 Y-22.995
X24.286 Y-23.123
X24.108 Y-23.245
X23.92 Y-23.359
X23.722 Y-23.464
X23.513 Y-23.561
X23.296 Y-23.647
X23.073 Y-23.721
X22.841 Y-23.783
X22.607 Y-23.832
X22.375 Y-23.868
X22.17 Y-23.887
X21.94 Y-23.896
X21.737 Y-23.892
X21.546 Y-23.878
X21.335 Y-23.85
X21.153 Y-23.816
X20.976 Y-23.772
X20.96 Y-23.767
X20.624 Y-23.629
X20.319 Y-23.432
X20.055 Y-23.184
X19.839 Y-22.892
X19.68 Y-22.566
X19.583 Y-22.217
X19.55 Y-21.856
Y-20.877
G2 X19.604 Y-20.649 I0.6 J-0.021 F350
X20.193 Y-20.299 I0.546 J-0.249 F850
G1 X24.894 Y-20.641
G2 X25.396 Y-20.99 I-0.043 J-0.598
X25.45 Y-21.218 I-0.546 J-0.249 F350
G1 Y-22.225 F850
X25.442 Y-22.375
X25.419 Y-22.523
X25.382 Y-22.668
X25.333 Y-22.81
X25.275 Y-22.948
X25.207 Y-23.082
X25.131 Y-23.212
X25.044 Y-23.344
X24.946 Y-23.474
X24.834 Y-23.607
X24.707 Y-23.741
X24.567 Y-23.874
X24.416 Y-24.002
X24.25 Y-24.127
X24.07 Y-24.248
X23.879 Y-24.361
X23.675 Y-24.466
X23.463 Y-24.56
X23.245 Y-24.644
X23.019 Y-24.715
X22.788 Y-24.775
X22.553 Y-24.821
X22.334 Y-24.852
X22.123 Y-24.869
X21.894 Y-24.875
X21.7 Y-24.87
X21.5 Y-24.852
X21.294 Y-24.823
X21.119 Y-24.787
X20.932 Y-24.739
X20.603 Y-24.599
X20.303 Y-24.402
X20.044 Y-24.155
X19.833 Y-23.865
X19.678 Y-23.543
X19.582 Y-23.198
X19.55 Y-22.841
Y-21.856
G2 X19.604 Y-21.628 I0.6 J-0.021 F350
X20.197 Y-21.279 I0.546 J-0.249 F850
G1 X24.897 Y-21.648
G2 X25.396 Y-21.997 I-0.047 J-0.598
X25.45 Y-22.225 I-0.546 J-0.249 F350
G1 Y-23.182 F850
X25.442 Y-23.332
X25.421 Y-23.48
X25.387 Y-23.626
X25.34 Y-23.769
X25.283 Y-23.907
X25.216 Y-24.042
X25.142 Y-24.172
X25.058 Y-24.3
X24.961 Y-24.432
X24.85 Y-24.567
X24.726 Y-24.7
X24.591 Y-24.831
X24.44 Y-24.961
X24.274 Y-25.088
X24.096 Y-25.21
X23.907 Y-25.324
X23.709 Y-25.428
X23.499 Y-25.524
X23.283 Y-25.609
X23.059 Y-25.683
X22.828 Y-25.744
X22.594 Y-25.793
X22.361 Y-25.828
X22.156 Y-25.846
X21.927 Y-25.855
X21.723 Y-25.85
X21.533 Y-25.836
X21.322 Y-25.807
X21.141 Y-25.772
X20.964 Y-25.728
X20.954 Y-25.725
X20.62 Y-25.586
X20.316 Y-25.39
X20.053 Y-25.142
X19.838 Y-24.85
X19.68 Y-24.525
X19.583 Y-24.176
X19.55 Y-23.816
Y-22.841
G2 X19.604 Y-22.613 I0.6 J-0.021 F350
X20.193 Y-22.263 I0.546 J-0.249 F850
G1 X24.894 Y-22.604
G2 X25.396 Y-22.954 I-0.043 J-0.598
X25.45 Y-23.182 I-0.546 J-0.249 F350
G1 Y-24.128 F850
X25.442 Y-24.277
X25.425 Y-24.426
X25.393 Y-24.573
X25.349 Y-24.716
X25.294 Y-24.856
X25.23 Y-24.991
X25.157 Y-25.123
X25.076 Y-25.25
X24.982 Y-25.381
X24.874 Y-25.515
X24.754 Y-25.649
X24.622 Y-25.779
X24.475 Y-25.91
X24.312 Y-26.038
X24.136 Y-26.162
X23.95 Y-26.277
X23.755 Y-26.384
X23.547 Y-26.482
X23.331 Y-26.57
X23.109 Y-26.646
X22.879 Y-26.711
X22.645 Y-26.762
X22.412 Y-26.8
X22.207 Y-26.822
X21.978 Y-26.833
X21.77 Y-26.831
X21.581 Y-26.819
X21.369 Y-26.794
X21.183 Y-26.76
X21.009 Y-26.719
X20.979 Y-26.71
X20.64 Y-26.574
X20.331 Y-26.379
X20.063 Y-26.13
X19.844 Y-25.837
X19.683 Y-25.509
X19.583 Y-25.157
X19.55 Y-24.793
Y-23.816
G2 X19.604 Y-23.588 I0.6 J-0.021 F350
X20.189 Y-23.238 I0.546 J-0.249 F850
G1 X24.89 Y-23.55
G2 X25.396 Y-23.9 I-0.04 J-0.599
X25.45 Y-24.128 I-0.546 J-0.249 F350
G1 Y-25.134 F850
X25.442 Y-25.284
X25.422 Y-25.433
X25.387 Y-25.579
X25.34 Y-25.721
X25.283 Y-25.86
X25.217 Y-25.995
X25.143 Y-26.125
X25.057 Y-26.257
X24.961 Y-26.388
X24.853 Y-26.52
X24.728 Y-26.654
X24.59 Y-26.788
X24.441 Y-26.917
X24.278 Y-27.042
X24.1 Y-27.164
X23.911 Y-27.278
X23.71 Y-27.385
X23.499 Y-27.482
X23.282 Y-27.567
X23.058 Y-27.641
X22.828 Y-27.703
X22.594 Y-27.751
X22.373 Y-27.784
X22.163 Y-27.804
X21.932 Y-27.813
X21.736 Y-27.809
X21.537 Y-27.793
X21.329 Y-27.766
X21.152 Y-27.732
X20.967 Y-27.686
X20.956 Y-27.682
X20.622 Y-27.544
X20.317 Y-27.347
X20.053 Y-27.099
X19.839 Y-26.808
X19.68 Y-26.482
X19.583 Y-26.133
X19.55 Y-25.773
Y-24.793
G2 X19.604 Y-24.565 I0.6 J-0.021 F350
X20.193 Y-24.216 I0.546 J-0.249 F850
G1 X24.894 Y-24.557
G2 X25.396 Y-24.906 I-0.043 J-0.598
X25.45 Y-25.134 I-0.546 J-0.249 F350
G1 Y-26.141 F850
X25.442 Y-26.291
X25.419 Y-26.439
X25.381 Y-26.584
X25.333 Y-26.726
X25.274 Y-26.864
X25.206 Y-26.998
X25.13 Y-27.127
X25.042 Y-27.26
X24.944 Y-27.39
X24.832 Y-27.524
X24.705 Y-27.659
X24.564 Y-27.792
X24.413 Y-27.92
X24.247 Y-28.045
X24.067 Y-28.165
X23.876 Y-28.278
X23.672 Y-28.383
X23.461 Y-28.477
X23.243 Y-28.56
X23.017 Y-28.632
X22.786 Y-28.691
X22.552 Y-28.738
X22.331 Y-28.768
X22.122 Y-28.786
X21.893 Y-28.792
X21.699 Y-28.786
X21.499 Y-28.768
X21.293 Y-28.739
X21.118 Y-28.703
X21.044 Y-28.684
X20.692 Y-28.556
X20.369 Y-28.364
X20.089 Y-28.115
X19.859 Y-27.818
X19.69 Y-27.483
X19.585 Y-27.123
X19.55 Y-26.749
Y-25.773
G2 X19.604 Y-25.545 I0.6 J-0.021 F350
X20.197 Y-25.195 I0.546 J-0.249 F850
G1 X24.897 Y-25.564
G2 X25.396 Y-25.913 I-0.047 J-0.598
X25.45 Y-26.141 I-0.546 J-0.249 F350
G1 Y-27.057 F850
X25.442 Y-27.207
X25.426 Y-27.356
X25.394 Y-27.503
X25.351 Y-27.646
X25.296 Y-27.786
X25.232 Y-27.922
X25.16 Y-28.053
X25.08 Y-28.181
X24.985 Y-28.314
X24.878 Y-28.447
X24.76 Y-28.579
X24.627 Y-28.711
X24.479 Y-28.843
X24.317 Y-28.971
X24.144 Y-29.093
X23.96 Y-29.208
X23.765 Y-29.315
X23.557 Y-29.415
X23.341 Y-29.503
X23.119 Y-29.58
X22.889 Y-29.645
X22.656 Y-29.697
X22.439 Y-29.733
X22.218 Y-29.757
X21.988 Y-29.768
X21.794 Y-29.767
X21.586 Y-29.755
X21.379 Y-29.73
X21.203 Y-29.699
X21.013 Y-29.654
X20.961 Y-29.639
X20.626 Y-29.506
X20.321 Y-29.314
X20.056 Y-29.069
X19.84 Y-28.781
X19.681 Y-28.457
X19.583 Y-28.111
X19.55 Y-27.752
Y-26.749
G2 X19.604 Y-26.521 I0.6 J-0.021 F350
X20.189 Y-26.171 I0.546 J-0.249 F850
G1 X24.89 Y-26.479
G2 X25.396 Y-26.829 I-0.039 J-0.599
X25.45 Y-27.057 I-0.546 J-0.249 F350
G1 Y-28.064 F850
X25.442 Y-28.214
X25.422 Y-28.362
X25.388 Y-28.508
X25.342 Y-28.651
X25.286 Y-28.79
X25.221 Y-28.925
X25.147 Y-29.056
X25.061 Y-29.187
X24.966 Y-29.318
X24.858 Y-29.45
X24.735 Y-29.585
X24.597 Y-29.718
X24.448 Y-29.848
X24.286 Y-29.973
X24.111 Y-30.094
X23.922 Y-30.208
X23.721 Y-30.316
X23.513 Y-30.412
X23.296 Y-30.498
X23.072 Y-30.573
X22.842 Y-30.635
X22.609 Y-30.684
X22.383 Y-30.719
X22.172 Y-30.739
X21.938 Y-30.748
X21.738 Y-30.745
X21.54 Y-30.73
X21.329 Y-30.703
X21.151 Y-30.669
X20.962 Y-30.622
X20.626 Y-30.484
X20.32 Y-30.288
X20.056 Y-30.04
X19.84 Y-29.748
X19.681 Y-29.422
X19.583 Y-29.072
X19.55 Y-28.711
Y-27.752
G2 X19.604 Y-27.524 I0.6 J-0.021 F350
X20.189 Y-27.174 I0.546 J-0.249 F850
G1 X24.89 Y-27.486
G2 X25.396 Y-27.836 I-0.04 J-0.599
X25.45 Y-28.064 I-0.546 J-0.249 F350
G1 Y-29.071 F850
X25.442 Y-29.22
X25.419 Y-29.369
X25.383 Y-29.514
X25.335 Y-29.656
X25.276 Y-29.794
X25.209 Y-29.928
X25.134 Y-30.058
X25.046 Y-30.19
X24.949 Y-30.321
X24.837 Y-30.454
X24.711 Y-30.589
X24.571 Y-30.722
X24.42 Y-30.85
X24.255 Y-30.975
X24.076 Y-31.095
X23.885 Y-31.209
X23.681 Y-31.314
X23.47 Y-31.41
X23.251 Y-31.493
X23.025 Y-31.566
X22.794 Y-31.626
X22.559 Y-31.673
X22.338 Y-31.704
X22.128 Y-31.722
X21.899 Y-31.729
X21.705 Y-31.723
X21.506 Y-31.706
X21.3 Y-31.677
X21.124 Y-31.642
X20.939 Y-31.594
X20.608 Y-31.455
X20.307 Y-31.258
X20.047 Y-31.01
X19.835 Y-30.72
X19.678 Y-30.397
X19.582 Y-30.05
X19.55 Y-29.692
Y-28.711
G2 X19.604 Y-28.483 I0.6 J-0.021 F350
X20.195 Y-28.134 I0.546 J-0.249 F850
G1 X24.896 Y-28.493
G2 X25.396 Y-28.843 I-0.046 J-0.598
X25.45 Y-29.071 I-0.546 J-0.249 F350
G1 Y-30.027 F850
X25.442 Y-30.177
X25.422 Y-30.326
X25.388 Y-30.472
X25.341 Y-30.615
X25.285 Y-30.753
X25.218 Y-30.888
X25.144 Y-31.018
X25.061 Y-31.146
X24.965 Y-31.278
X24.854 Y-31.413
X24.731 Y-31.547
X24.596 Y-31.678
X24.445 Y-31.808
X24.28 Y-31.936
X24.102 Y-32.058
X23.914 Y-32.172
X23.716 Y-32.277
X23.506 Y-32.374
X23.29 Y-32.459
X23.066 Y-32.533
X22.835 Y-32.595
X22.602 Y-32.644
X22.369 Y-32.68
X22.165 Y-32.699
X21.935 Y-32.708
X21.732 Y-32.704
X21.542 Y-32.69
X21.331 Y-32.662
X21.149 Y-32.627
X20.972 Y-32.583
X20.959 Y-32.579
X20.624 Y-32.441
X20.319 Y-32.245
X20.054 Y-31.997
X19.839 Y-31.705
X19.68 Y-31.379
X19.583 Y-31.03
X19.55 Y-30.669
Y-29.692
G2 X19.604 Y-29.465 I0.6 J-0.021 F350
X20.192 Y-29.115 I0.546 J-0.249 F850
G1 X24.893 Y-29.45
G2 X25.396 Y-29.8 I-0.043 J-0.598
X25.45 Y-30.027 I-0.546 J-0.249 F350
G1 Y-30.973 F850
X25.442 Y-31.123
X25.426 Y-31.272
X25.394 Y-31.419
X25.351 Y-31.562
X25.296 Y-31.702
X25.232 Y-31.838
X25.16 Y-31.969
X25.08 Y-32.096
X24.986 Y-32.227
X24.879 Y-32.362
X24.759 Y-32.495
X24.628 Y-32.626
X24.481 Y-32.757
X24.318 Y-32.886
X24.144 Y-33.009
X23.958 Y-33.125
X23.763 Y-33.232
X23.556 Y-33.331
X23.34 Y-33.419
X23.119 Y-33.496
X22.889 Y-33.561
X22.656 Y-33.613
X22.422 Y-33.652
X22.217 Y-33.674
X21.988 Y-33.686
X21.78 Y-33.685
X21.591 Y-33.673
X21.378 Y-33.648
X21.192 Y-33.615
X21.018 Y-33.574
X20.984 Y-33.564
X20.644 Y-33.429
X20.334 Y-33.234
X20.065 Y-32.985
X19.845 Y-32.692
X19.683 Y-32.363
X19.584 Y-32.011
X19.55 Y-31.646
Y-30.669
G2 X19.604 Y-30.441 I0.6 J-0.021 F350
X20.188 Y-30.091 I0.546 J-0.249 F850
G1 X24.889 Y-30.395
G2 X25.396 Y-30.745 I-0.039 J-0.599
X25.45 Y-30.973 I-0.546 J-0.249 F350
G1 Y-31.98 F850
X25.442 Y-32.13
X25.422 Y-32.278
X25.388 Y-32.424
X25.342 Y-32.567
X25.286 Y-32.706
X25.22 Y-32.841
X25.146 Y-32.972
X25.061 Y-33.104
X24.965 Y-33.235
X24.857 Y-33.366
X24.734 Y-33.501
X24.596 Y-33.635
X24.448 Y-33.764
X24.285 Y-33.889
X24.108 Y-34.011
X23.92 Y-34.126
X23.719 Y-34.233
X23.509 Y-34.33
X23.293 Y-34.416
X23.069 Y-34.49
X22.839 Y-34.553
X22.605 Y-34.602
X22.384 Y-34.636
X22.174 Y-34.656
X21.942 Y-34.665
X21.746 Y-34.662
X21.547 Y-34.647
X21.338 Y-34.62
X21.161 Y-34.586
X20.976 Y-34.541
X20.961 Y-34.536
X20.626 Y-34.398
X20.32 Y-34.202
X20.056 Y-33.954
X19.84 Y-33.662
X19.681 Y-33.336
X19.583 Y-32.986
X19.55 Y-32.625
Y-31.646
G2 X19.604 Y-31.418 I0.6 J-0.021 F350
X20.192 Y-31.068 I0.546 J-0.249 F850
G1 X24.893 Y-31.402
G2 X25.396 Y-31.752 I-0.043 J-0.598
X25.45 Y-31.98 I-0.546 J-0.249 F350
G1 Y-32.987 F850
X25.442 Y-33.137
X25.419 Y-33.285
X25.383 Y-33.43
X25.335 Y-33.572
X25.276 Y-33.71
X25.209 Y-33.845
X25.134 Y-33.974
X25.046 Y-34.106
X24.948 Y-34.237
X24.837 Y-34.37
X24.71 Y-34.505
X24.571 Y-34.638
X24.42 Y-34.767
X24.254 Y-34.892
X24.075 Y-35.012
X23.885 Y-35.125
X23.682 Y-35.231
X23.471 Y-35.326
X23.253 Y-35.409
X23.028 Y-35.482
X22.797 Y-35.541
X22.563 Y-35.588
X22.342 Y-35.62
X22.132 Y-35.638
X21.903 Y-35.644
X21.708 Y-35.639
X21.509 Y-35.622
X21.302 Y-35.593
X21.126 Y-35.558
X21.049 Y-35.538
X20.696 Y-35.41
X20.372 Y-35.218
X20.091 Y-34.969
X19.861 Y-34.672
X19.69 Y-34.337
X19.585 Y-33.976
X19.55 Y-33.602
Y-32.625
G2 X19.604 Y-32.397 I0.6 J-0.021 F350
X20.196 Y-32.048 I0.546 J-0.249 F850
G1 X24.896 Y-32.409
G2 X25.396 Y-32.759 I-0.046 J-0.598
X25.45 Y-32.987 I-0.546 J-0.249 F350
G1 Y-33.953 F850
X25.442 Y-34.102
X25.421 Y-34.251
X25.386 Y-34.397
X25.339 Y-34.539
X25.282 Y-34.678
X25.215 Y-34.812
X25.14 Y-34.942
X25.056 Y-35.071
X24.959 Y-35.202
X24.848 Y-35.337
X24.723 Y-35.471
X24.588 Y-35.602
X24.437 Y-35.731
X24.271 Y-35.859
X24.092 Y-35.98
X23.904 Y-36.094
X23.705 Y-36.199
X23.495 Y-36.295
X23.278 Y-36.379
X23.055 Y-36.453
X22.823 Y-36.514
X22.591 Y-36.562
X22.38 Y-36.593
X22.147 Y-36.615
X21.93 Y-36.622
X21.738 Y-36.618
X21.522 Y-36.601
X21.326 Y-36.575
X21.152 Y-36.541
X20.952 Y-36.491
X20.619 Y-36.352
X20.315 Y-36.155
X20.052 Y-35.907
X19.838 Y-35.616
X19.68 Y-35.29
X19.583 Y-34.942
X19.55 Y-34.582
Y-33.602
G2 X19.604 Y-33.374 I0.6 J-0.021 F350
X20.194 Y-33.024 I0.546 J-0.249 F850
G1 X24.895 Y-33.375
G2 X25.396 Y-33.725 I-0.045 J-0.598
X25.45 Y-33.953 I-0.546 J-0.249 F350
G1 Y-34.91 F850
X25.442 Y-35.059
X25.423 Y-35.208
X25.39 Y-35.354
X25.345 Y-35.497
X25.289 Y-35.637
X25.224 Y-35.772
X25.15 Y-35.902
X25.069 Y-36.03
X24.974 Y-36.161
X24.864 Y-36.296
X24.742 Y-36.43
X24.609 Y-36.56
X24.461 Y-36.69
X24.297 Y-36.818
X24.121 Y-36.94
X23.935 Y-37.055
X23.737 Y-37.161
X23.529 Y-37.258
X23.315 Y-37.344
X23.091 Y-37.42
X22.861 Y-37.483
X22.628 Y-37.533
X22.394 Y-37.57
X22.189 Y-37.591
X21.959 Y-37.6
X21.754 Y-37.598
X21.564 Y-37.585
X21.352 Y-37.558
X21.169 Y-37.524
X20.992 Y-37.481
X20.969 Y-37.474
X20.632 Y-37.337
X20.325 Y-37.141
X20.059 Y-36.893
X19.842 Y-36.601
X19.681 Y-36.274
X19.583 Y-35.923
X19.55 Y-35.56
Y-34.582
G2 X19.604 Y-34.354 I0.6 J-0.021 F350
X20.191 Y-34.004 I0.546 J-0.249 F850
G1 X24.892 Y-34.332
G2 X25.396 Y-34.682 I-0.042 J-0.599
X25.45 Y-34.91 I-0.546 J-0.249 F350
G1 Y-35.916 F850
X25.442 Y-36.066
X25.42 Y-36.214
X25.384 Y-36.36
X25.337 Y-36.502
X25.279 Y-36.641
X25.212 Y-36.775
X25.137 Y-36.905
X25.05 Y-37.037
X24.953 Y-37.168
X24.943 Y-37.18
X24.696 Y-37.428
X24.41 Y-37.63
X24.093 Y-37.778
X23.755 Y-37.869
X23.406 Y-37.9
G2 X23.178 Y-37.846 I0.021 J0.6 F350
X23.012 Y-36.867 I0.249 J0.546 F850
G1 X24.435 Y-35.504
G2 X25.396 Y-35.688 I0.415 J-0.433
X25.45 Y-35.916 I-0.546 J-0.249 F350
G1 Y-36.873 F850
X25.442 Y-37.023
X25.373 Y-37.259
X25.252 Y-37.472
X25.084 Y-37.651
X24.879 Y-37.787
X24.648 Y-37.871
X24.404 Y-37.9
G2 X24.172 Y-37.864 I0.035 J0.994 F350
X23.481 Y-36.638 I0.267 J0.958 F850
X25.414 Y-36.641 I0.966 J-0.271
X25.45 Y-36.873 I-0.967 J-0.267 F350
G1 Y-37.215 F850
X25.449 Y-37.316
X25.436 Y-37.416
X25.422 Y-37.467
X25.404 Y-37.517
X25.38 Y-37.567
X25.35 Y-37.618
X25.317 Y-37.662
X25.278 Y-37.709
X25.229 Y-37.756
X25.184 Y-37.79
X25.14 Y-37.819
X25.116 Y-37.832
X25.066 Y-37.855
X25.016 Y-37.873
X24.915 Y-37.895
X24.714 Y-37.9
X20.89
X20.74 Y-37.893
X20.467 Y-37.828
X20.213 Y-37.709
X19.988 Y-37.541
X19.803 Y-37.33
X19.664 Y-37.086
X19.579 Y-36.818
X19.55 Y-36.539
G2 X19.579 Y-36.306 I1.297 J-0.045 F350
X21.193 Y-35.334 I1.267 J-0.279 F850
X21.124 Y-37.871 I-0.349 J-1.26
X20.89 Y-37.9 I-0.279 J1.277 F350
G1 X20.286 F850
X20.176 Y-37.897
X20.126 Y-37.896
X20.085 Y-37.895
X19.937 Y-37.855
X19.926 Y-37.852
G2 X19.764 Y-37.687 I0.165 J0.325 F350
X20.419 Y-37.366 I0.328 J0.16 F850
X20.34 Y-37.793 I-0.328 J-0.16
X20.305 Y-37.822 I-0.259 J0.277
X20.085 Y-37.895 I-0.224 J0.307 F350
G1 X19.984 Y-37.873 F850
X19.934 Y-37.855
X19.884 Y-37.832
X19.86 Y-37.819
X19.816 Y-37.79
X19.771 Y-37.756
X19.722 Y-37.709
X19.683 Y-37.662
X19.65 Y-37.618
X19.62 Y-37.567
X19.596 Y-37.517
X19.578 Y-37.467
X19.564 Y-37.416
X19.551 Y-37.316
X19.55 Y-37.014
Y-35.56
X19.562 Y-35.507 Z-7.483 F350
X19.573 Y-35.456 Z-7.464
X19.583 Y-35.411 Z-7.433
X19.591 Y-35.375 Z-7.392
X19.597 Y-35.349 Z-7.343
X19.602 Y-35.337 Z-7.3
X19.604 Y-35.333 Z-7.254
G0 Z5
X20.717 Y-265.212
Z-4.39
G1 Z-4.99 F350
G2 X21.934 Y-261.473 Z-5.154 I1.783 J1.487
X24.771 Y-264.19 Z-5.318 I0.565 J-2.249
X21.096 Y-265.563 Z-5.481 I-2.268 J0.467
X21.454 Y-261.662 Z-5.645 I1.404 J1.838
X24.809 Y-263.676 Z-5.809 I1.045 J-2.06
X21.542 Y-265.821 Z-5.973 I-2.307 J-0.047
X21.029 Y-261.951 Z-6.136 I0.958 J2.096
X24.733 Y-263.168 Z-6.3 I1.47 J-1.771
X22.032 Y-265.972 Z-6.464 I-2.231 J-0.554
X20.68 Y-262.327 Z-6.628 I0.469 J2.248
X24.547 Y-262.691 Z-6.791 I1.819 J-1.397
X22.542 Y-266.012 Z-6.955 I-2.045 J-1.031
X20.424 Y-262.768 Z-7.119 I-0.04 J2.287
X24.261 Y-262.269 Z-7.283 I2.075 J-0.955
X23.046 Y-265.937 Z-7.447 I-1.76 J-1.453
X20.272 Y-263.253 Z-7.61 I-0.544 J2.213
X23.89 Y-261.922 Z-7.774 I2.227 J-0.47
X23.519 Y-265.754 Z-7.938 I-1.389 J-1.799
X20.232 Y-263.759 Z-8.102 I-1.017 J2.03
X23.453 Y-261.667 Z-8.265 I2.267 J0.034
X23.938 Y-265.471 Z-8.429 I-0.952 J-2.055
X20.304 Y-264.258 Z-8.593 I-1.436 J1.748
X22.972 Y-261.516 Z-8.757 I2.195 J0.534
X24.282 Y-265.105 Z-8.92 I-0.472 J-2.206
X20.485 Y-264.727 Z-9.084 I-1.78 J1.381
X22.471 Y-261.475 Z-9.248 I2.015 J1.003
X24.536 Y-264.672 Z-9.412 I0.028 J-2.247
X20.764 Y-265.143 Z-9.576 I-2.034 J0.949
X21.976 Y-261.545 Z-9.739 I1.736 J1.418
X24.687 Y-264.196 Z-9.903 I0.523 J-2.177
X21.127 Y-265.486 Z-10.067 I-2.185 J0.473
X21.51 Y-261.723 Z-10.231 I1.373 J1.761
X24.729 Y-263.7 Z-10.394 I0.989 J-1.999
X21.555 Y-265.738 Z-10.558 I-2.227 J-0.022
X21.097 Y-261.999 Z-10.722 I0.946 J2.014
X24.66 Y-263.209 Z-10.886 I1.401 J-1.724
X22.027 Y-265.889 Z-11.05 I-2.159 J-0.513
X20.757 Y-262.358 Z-11.213 I0.474 J2.165
X24.485 Y-262.747 Z-11.377 I1.742 J-1.365
X22.518 Y-265.932 Z-11.541 I-1.984 J-0.975
X20.506 Y-262.781 Z-11.705 I-0.017 J2.207
X24.213 Y-262.337 Z-11.868 I1.993 J-0.942
X23.005 Y-265.865 Z-12.032 I-1.712 J-1.385
X20.355 Y-263.248 Z-12.196 I-0.503 J2.14
X23.858 Y-261.999 Z-12.36 I2.144 J-0.476
X23.463 Y-265.692 Z-12.523 I-1.357 J-1.723
X20.312 Y-263.735 Z-12.687 I-0.961 J1.968
X23.439 Y-261.749 Z-12.851 I2.187 J0.011
X23.87 Y-265.424 Z-13.015 I-0.939 J-1.973
X20.377 Y-264.218 Z-13.179 I-1.368 J1.7
X22.976 Y-261.598 Z-13.342 I2.122 J0.493
X24.206 Y-265.073 Z-13.506 I-0.477 J-2.123
X20.547 Y-264.672 Z-13.67 I-1.703 J1.349
X22.494 Y-261.554 Z-13.834 I1.953 J0.947
X24.454 Y-264.658 Z-13.997 I0.005 J-2.167
X20.812 Y-265.076 Z-14.161 I-1.952 J0.935
X22.016 Y-261.618 Z-14.325 I1.688 J1.351
X24.605 Y-264.2 Z-14.489 I0.483 J-2.104
X21.159 Y-265.409 Z-14.652 I-2.102 J0.477
X21.565 Y-261.785 Z-14.816 I1.341 J1.684
X24.649 Y-263.722 Z-14.98 I0.934 J-1.937
X20.349 I-2.15
X24.636 Y-263.486 I2.15
X24.649 Y-263.722 I-2.137 J-0.236
G1 X24.674 Y-264.608 F850
X24.686 Y-264.718
Y-264.868
X24.667 Y-265.017
X24.633 Y-265.163
X24.583 Y-265.305
X24.521 Y-265.441
X24.448 Y-265.572
X24.365 Y-265.697
X24.272 Y-265.815
X24.171 Y-265.926
X24.063 Y-266.029
X23.948 Y-266.125
X23.826 Y-266.214
X23.7 Y-266.294
X23.568 Y-266.366
X23.433 Y-266.431
X23.293 Y-266.486
X23.151 Y-266.534
X23.006 Y-266.573
X22.86 Y-266.604
X22.711 Y-266.626
X22.559 Y-266.64
X22.406 Y-266.646
X22.252 Y-266.643
X22.096 Y-266.631
X21.941 Y-266.611
X21.786 Y-266.581
X21.631 Y-266.543
X21.479 Y-266.496
X21.329 Y-266.439
X21.181 Y-266.375
X21.037 Y-266.302
X20.896 Y-266.22
X20.76 Y-266.13
X20.629 Y-266.033
X20.503 Y-265.928
X20.383 Y-265.816
X20.269 Y-265.697
X20.162 Y-265.571
X20.062 Y-265.439
X19.969 Y-265.302
X19.884 Y-265.16
X19.807 Y-265.012
X19.739 Y-264.861
X19.679 Y-264.705
X19.627 Y-264.546
X19.585 Y-264.385
X19.552 Y-264.221
X19.528 Y-264.055
X19.513 Y-263.889
X19.508 Y-263.721
X19.512 Y-263.553
X19.526 Y-263.386
X19.549 Y-263.22
X19.582 Y-263.055
X19.623 Y-262.893
X19.674 Y-262.732
X19.734 Y-262.575
X19.803 Y-262.422
X19.88 Y-262.272
X19.965 Y-262.127
X20.059 Y-261.987
X20.16 Y-261.853
X20.269 Y-261.724
X20.384 Y-261.602
X20.507 Y-261.486
X20.636 Y-261.377
X20.77 Y-261.276
X20.911 Y-261.183
X21.056 Y-261.097
X21.206 Y-261.02
X21.36 Y-260.952
X21.518 Y-260.892
X21.678 Y-260.841
X21.842 Y-260.8
X22.007 Y-260.767
X22.174 Y-260.744
X22.343 Y-260.73
X22.511 Y-260.726
X22.68 Y-260.732
X22.848 Y-260.747
X23.015 Y-260.771
X23.18 Y-260.805
X23.343 Y-260.848
X23.504 Y-260.9
X23.661 Y-260.961
X23.815 Y-261.03
X23.964 Y-261.109
X24.109 Y-261.195
X24.249 Y-261.29
X24.383 Y-261.392
X24.511 Y-261.502
X24.633 Y-261.619
X24.748 Y-261.742
X24.856 Y-261.872
X24.956 Y-262.008
X25.049 Y-262.149
X25.145 Y-262.315
X25.251 Y-262.525
X25.375 Y-262.807
X25.476 Y-263.079
X25.55 Y-263.319
X25.605 Y-263.54
X25.645 Y-263.754
X25.672 Y-263.959
X25.687 Y-264.154
X25.69 Y-264.342
X25.683 Y-264.529
X25.665 Y-264.713
X25.638 Y-264.891
X25.602 Y-265.065
X25.556 Y-265.235
X25.5 Y-265.403
X25.435 Y-265.568
X25.36 Y-265.729
X25.277 Y-265.886
X25.185 Y-266.038
X25.083 Y-266.185
X24.974 Y-266.327
X24.855 Y-266.464
X24.728 Y-266.595
X24.593 Y-266.719
X24.45 Y-266.837
X24.299 Y-266.947
X24.14 Y-267.05
X23.975 Y-267.144
X23.803 Y-267.23
X23.625 Y-267.306
X23.442 Y-267.373
X23.254 Y-267.43
X23.062 Y-267.476
X22.866 Y-267.512
X22.666 Y-267.537
X22.465 Y-267.55
X22.262 Y-267.553
X22.058 Y-267.543
X21.853 Y-267.523
X21.649 Y-267.49
X21.447 Y-267.446
X21.246 Y-267.391
X21.047 Y-267.323
X20.852 Y-267.245
X20.661 Y-267.155
X20.474 Y-267.054
X20.293 Y-266.942
X20.117 Y-266.82
X19.949 Y-266.688
X19.787 Y-266.546
X19.76 Y-266.519
X19.552 Y-266.28
X19.385 Y-266.011
X19.263 Y-265.72
X19.188 Y-265.412
X19.162 Y-265.097
X19.158 Y-262.718
X19.166 Y-262.565
X19.182 Y-262.416
X19.207 Y-262.268
X19.242 Y-262.123
X19.286 Y-261.979
X19.338 Y-261.837
X19.4 Y-261.695
X19.472 Y-261.551
X19.555 Y-261.406
X19.649 Y-261.263
X19.754 Y-261.121
X19.868 Y-260.983
X19.992 Y-260.849
X20.126 Y-260.72
X20.168 Y-260.684
X20.456 Y-260.477
X20.777 Y-260.325
X21.119 Y-260.231
X21.472 Y-260.2
G2 X21.7 Y-260.254 I-0.021 J-0.6 F350
X21.899 Y-261.199 I-0.249 J-0.546 F850
G1 X20.206 Y-263.096
G2 X19.212 Y-262.946 I-0.448 J0.4
X19.158 Y-262.718 I0.546 J0.25 F350
G1 X19.157 Y-261.51 F850
X19.164 Y-261.36
X19.243 Y-261.051
X19.393 Y-260.769
X19.606 Y-260.531
X19.87 Y-260.351
X20.169 Y-260.238
X20.486 Y-260.2
G2 X20.719 Y-260.23 I-0.044 J-1.266 F350
X21.663 Y-261.801 I-0.278 J-1.236 F850
X19.187 Y-261.743 I-1.231 J0.338
X19.157 Y-261.51 I1.245 J0.28 F350
G1 X19.156 Y-260.851 F850
Y-260.805
X19.165 Y-260.705
X19.193 Y-260.604
X19.214 Y-260.554
X19.241 Y-260.503
X19.28 Y-260.447
X19.357 Y-260.363
X19.434 Y-260.302
X19.481 Y-260.273
X19.532 Y-260.249
X19.582 Y-260.23
X19.683 Y-260.206
X19.884 Y-260.2
X23.305
X23.455 Y-260.207
X23.604 Y-260.224
X23.756 Y-260.25
X23.911 Y-260.286
X24.07 Y-260.332
X24.228 Y-260.388
X24.387 Y-260.455
X24.545 Y-260.531
X24.703 Y-260.619
X24.861 Y-260.719
X25.022 Y-260.834
X25.095 Y-260.893
X25.352 Y-261.141
X25.562 Y-261.431
X25.716 Y-261.753
X25.811 Y-262.098
X25.842 Y-262.455
G2 X25.788 Y-262.682 I-0.6 J0.022 F350
X24.853 Y-262.89 I-0.546 J0.25 F850
G1 X22.937 Y-261.256
G2 X23.077 Y-260.254 I0.389 J0.457
X23.305 Y-260.2 I0.249 J-0.546 F350
G1 X24.573 F850
X24.723 Y-260.207
X25.021 Y-260.281
X25.294 Y-260.423
X25.524 Y-260.627
X25.698 Y-260.879
X25.807 Y-261.167
X25.843 Y-261.472
G2 X25.789 Y-261.7 I-0.6 J0.022 F350
X24.819 Y-261.874 I-0.546 J0.25 F850
G1 X24.17 Y-261.224
G2 X24.345 Y-260.254 I0.424 J0.424
X24.573 Y-260.2 I0.249 J-0.546 F350
G1 X25.116 F850
X25.277 Y-260.205
X25.317 Y-260.206
X25.418 Y-260.23
X25.468 Y-260.249
X25.519 Y-260.273
X25.566 Y-260.302
X25.643 Y-260.363
X25.72 Y-260.447
X25.759 Y-260.503
X25.786 Y-260.554
X25.807 Y-260.604
X25.835 Y-260.705
X25.844 Y-260.805
X25.837 Y-265.648
X25.829 Y-265.797
X25.811 Y-265.946
X25.782 Y-266.093
X25.743 Y-266.238
X25.694 Y-266.38
X25.637 Y-266.519
X25.57 Y-266.658
X25.492 Y-266.799
X25.404 Y-266.939
X25.305 Y-267.078
X25.193 Y-267.217
X25.07 Y-267.355
X24.934 Y-267.49
X24.787 Y-267.621
X24.63 Y-267.745
X24.463 Y-267.863
X24.285 Y-267.974
X24.096 Y-268.078
X23.897 Y-268.173
X23.689 Y-268.258
X23.473 Y-268.333
X23.249 Y-268.397
X23.019 Y-268.448
X22.783 Y-268.487
X22.543 Y-268.513
X22.3 Y-268.526
X22.053 Y-268.524
X21.804 Y-268.509
X21.554 Y-268.479
X21.304 Y-268.435
X21.054 Y-268.377
X20.806 Y-268.304
X20.565 Y-268.217
X20.353 Y-268.128
X20.284 Y-268.094
X19.967 Y-267.901
X19.692 Y-267.652
X19.468 Y-267.358
X19.301 Y-267.026
X19.199 Y-266.67
X19.164 Y-266.301
X19.162 Y-265.097
G2 X19.215 Y-264.869 I0.6 J-0.02 F350
X19.822 Y-264.52 I0.546 J-0.248 F850
G1 X25.297 Y-265.071
G2 X25.784 Y-265.42 I-0.06 J-0.597
X25.837 Y-265.648 I-0.546 J-0.248 F350
G1 X25.835 Y-266.745 F850
X25.828 Y-266.895
X25.81 Y-267.044
X25.779 Y-267.191
X25.737 Y-267.334
X25.684 Y-267.475
X25.621 Y-267.611
X25.551 Y-267.743
X25.472 Y-267.872
X25.38 Y-268.005
X25.274 Y-268.141
X25.156 Y-268.276
X25.027 Y-268.408
X24.883 Y-268.539
X24.724 Y-268.669
X24.551 Y-268.794
X24.368 Y-268.913
X24.172 Y-269.023
X23.962 Y-269.127
X23.738 Y-269.222
X23.503 Y-269.307
X23.256 Y-269.381
X23.001 Y-269.441
X22.738 Y-269.488
X22.468 Y-269.521
X22.19 Y-269.539
X21.907 Y-269.541
X21.626 Y-269.528
X21.381 Y-269.502
X21.115 Y-269.459
X20.891 Y-269.41
X20.679 Y-269.35
X20.457 Y-269.274
X20.412 Y-269.256
X20.111 Y-269.103
X19.841 Y-268.901
X19.607 Y-268.657
X19.419 Y-268.377
X19.28 Y-268.069
X19.195 Y-267.743
X19.166 Y-267.406
X19.164 Y-266.301
G2 X19.217 Y-266.073 I0.6 J-0.02 F350
X19.812 Y-265.723 I0.546 J-0.248 F850
G1 X25.284 Y-266.167
G2 X25.782 Y-266.517 I-0.048 J-0.598
X25.835 Y-266.745 I-0.546 J-0.248 F350
G1 X25.834 Y-267.752 F850
X25.826 Y-267.901
X25.809 Y-268.05
X25.777 Y-268.197
X25.733 Y-268.341
X25.679 Y-268.48
X25.616 Y-268.616
X25.544 Y-268.748
X25.46 Y-268.88
X25.367 Y-269.013
X25.26 Y-269.146
X25.137 Y-269.284
X25 Y-269.421
X24.852 Y-269.554
X24.686 Y-269.686
X24.503 Y-269.816
X24.305 Y-269.94
X24.095 Y-270.055
X23.87 Y-270.163
X23.628 Y-270.263
X23.372 Y-270.352
X23.106 Y-270.428
X22.831 Y-270.49
X22.551 Y-270.537
X22.269 Y-270.568
X21.986 Y-270.583
X21.726 Y-270.582
X21.467 Y-270.567
X21.224 Y-270.539
X21.009 Y-270.501
X20.778 Y-270.448
X20.585 Y-270.391
X20.498 Y-270.36
X20.179 Y-270.215
X19.891 Y-270.015
X19.642 Y-269.769
X19.44 Y-269.483
X19.29 Y-269.166
X19.199 Y-268.828
X19.167 Y-268.479
X19.166 Y-267.406
G2 X19.219 Y-267.178 I0.6 J-0.02 F350
X19.803 Y-266.827 I0.546 J-0.248 F850
G1 X25.272 Y-267.173
G2 X25.781 Y-267.524 I-0.038 J-0.599
X25.834 Y-267.752 I-0.546 J-0.248 F350
G1 X25.832 Y-268.758 F850
X25.825 Y-268.908
X25.805 Y-269.057
X25.772 Y-269.203
X25.727 Y-269.346
X25.672 Y-269.486
X25.607 Y-269.621
X25.534 Y-269.752
X25.45 Y-269.885
X25.354 Y-270.02
X25.241 Y-270.16
X25.115 Y-270.301
X24.975 Y-270.439
X24.817 Y-270.579
X24.641 Y-270.719
X24.452 Y-270.851
X24.249 Y-270.978
X24.027 Y-271.099
X23.788 Y-271.213
X23.537 Y-271.315
X23.277 Y-271.405
X23.007 Y-271.481
X22.733 Y-271.542
X22.455 Y-271.587
X22.176 Y-271.617
X21.911 Y-271.63
X21.659 Y-271.628
X21.401 Y-271.612
X21.187 Y-271.586
X20.952 Y-271.544
X20.747 Y-271.496
X20.556 Y-271.439
X20.493 Y-271.416
X20.176 Y-271.27
X19.889 Y-271.071
X19.641 Y-270.824
X19.44 Y-270.539
X19.291 Y-270.223
X19.2 Y-269.885
X19.169 Y-269.537
X19.167 Y-268.479
G2 X19.221 Y-268.251 I0.6 J-0.02 F350
X19.798 Y-267.899 I0.546 J-0.248 F850
G1 X25.263 Y-268.179
G2 X25.779 Y-268.53 I-0.031 J-0.599
X25.832 Y-268.758 I-0.546 J-0.248 F350
G1 X25.831 Y-269.765 F850
X25.823 Y-269.915
X25.803 Y-270.063
X25.769 Y-270.21
X25.723 Y-270.353
X25.668 Y-270.492
X25.603 Y-270.627
X25.529 Y-270.761
X25.445 Y-270.895
X25.345 Y-271.036
X25.229 Y-271.18
X25.103 Y-271.321
X24.958 Y-271.466
X24.795 Y-271.611
X24.618 Y-271.751
X24.427 Y-271.886
X24.218 Y-272.017
X23.992 Y-272.141
X23.752 Y-272.256
X23.501 Y-272.358
X23.241 Y-272.448
X22.973 Y-272.525
X22.701 Y-272.586
X22.425 Y-272.631
X22.148 Y-272.661
X21.889 Y-272.675
X21.642 Y-272.673
X21.389 Y-272.658
X21.177 Y-272.633
X20.946 Y-272.592
X20.742 Y-272.544
X20.554 Y-272.489
X20.498 Y-272.469
X20.18 Y-272.323
X19.892 Y-272.124
X19.644 Y-271.878
X19.442 Y-271.592
X19.293 Y-271.275
X19.202 Y-270.937
X19.171 Y-270.589
X19.169 Y-269.537
G2 X19.222 Y-269.309 I0.6 J-0.02 F350
X19.794 Y-268.958 I0.546 J-0.248 F850
G1 X25.256 Y-269.186
G2 X25.777 Y-269.537 I-0.025 J-0.599
X25.831 Y-269.765 I-0.546 J-0.248 F350
G1 X25.829 Y-270.772 F850
X25.821 Y-270.922
X25.802 Y-271.07
X25.769 Y-271.217
X25.724 Y-271.36
X25.669 Y-271.499
X25.606 Y-271.635
X25.533 Y-271.768
X25.449 Y-271.905
X25.348 Y-272.049
X25.235 Y-272.193
X25.108 Y-272.337
X24.962 Y-272.485
X24.8 Y-272.631
X24.625 Y-272.772
X24.434 Y-272.909
X24.224 Y-273.043
X23.998 Y-273.169
X23.76 Y-273.286
X23.511 Y-273.39
X23.253 Y-273.481
X22.987 Y-273.559
X22.717 Y-273.622
X22.442 Y-273.67
X22.166 Y-273.702
X21.907 Y-273.717
X21.664 Y-273.718
X21.41 Y-273.704
X21.199 Y-273.681
X20.97 Y-273.643
X20.763 Y-273.596
X20.577 Y-273.543
X20.515 Y-273.521
X20.194 Y-273.377
X19.903 Y-273.178
X19.651 Y-272.931
X19.447 Y-272.644
X19.296 Y-272.326
X19.204 Y-271.986
X19.172 Y-271.635
X19.171 Y-270.589
G2 X19.224 Y-270.361 I0.6 J-0.02 F350
X19.79 Y-270.009 I0.546 J-0.248 F850
G1 X25.25 Y-270.192
G2 X25.776 Y-270.544 I-0.02 J-0.6
X25.829 Y-270.772 I-0.546 J-0.248 F350
G1 X25.828 Y-271.779 F850
X25.82 Y-271.928
X25.802 Y-272.077
X25.771 Y-272.224
X25.728 Y-272.368
X25.674 Y-272.508
X25.612 Y-272.644
X25.542 Y-272.777
X25.459 Y-272.915
X25.359 Y-273.06
X25.249 Y-273.204
X25.123 Y-273.349
X24.979 Y-273.498
X24.819 Y-273.646
X24.647 Y-273.788
X24.457 Y-273.927
X24.25 Y-274.062
X24.025 Y-274.19
X23.789 Y-274.309
X23.543 Y-274.415
X23.287 Y-274.509
X23.022 Y-274.589
X22.754 Y-274.655
X22.48 Y-274.705
X22.206 Y-274.74
X21.945 Y-274.758
X21.703 Y-274.761
X21.447 Y-274.75
X21.234 Y-274.729
X21.007 Y-274.694
X20.797 Y-274.648
X20.611 Y-274.598
X20.536 Y-274.572
X20.211 Y-274.429
X19.916 Y-274.231
X19.661 Y-273.984
X19.453 Y-273.696
X19.3 Y-273.376
X19.206 Y-273.033
X19.174 Y-272.68
X19.172 Y-271.635
G2 X19.225 Y-271.408 I0.6 J-0.02 F350
X19.788 Y-271.056 I0.546 J-0.248 F850
G1 X25.244 Y-271.199
G2 X25.774 Y-271.551 I-0.016 J-0.6
X25.828 Y-271.779 I-0.546 J-0.248 F350
G1 X25.826 Y-272.846 F850
X25.818 Y-272.996
X25.797 Y-273.144
X25.762 Y-273.29
X25.716 Y-273.433
X25.661 Y-273.573
X25.597 Y-273.708
X25.521 Y-273.847
X25.435 Y-273.986
X25.334 Y-274.129
X25.216 Y-274.278
X25.086 Y-274.425
X24.941 Y-274.571
X24.777 Y-274.719
X24.595 Y-274.864
X24.401 Y-275.003
X24.193 Y-275.134
X23.967 Y-275.26
X23.728 Y-275.376
X23.478 Y-275.48
X23.218 Y-275.571
X22.953 Y-275.648
X22.682 Y-275.71
X22.409 Y-275.757
X22.137 Y-275.788
X21.889 Y-275.802
X21.632
X21.393 Y-275.788
X21.183 Y-275.764
X20.951 Y-275.725
X20.755 Y-275.68
X20.563 Y-275.624
X20.513 Y-275.607
X20.193 Y-275.462
X19.903 Y-275.263
X19.652 Y-275.016
X19.449 Y-274.73
X19.299 Y-274.412
X19.207 Y-274.073
X19.175 Y-273.723
X19.174 Y-272.68
G2 X19.227 Y-272.452 I0.6 J-0.02 F350
X19.792 Y-272.1 I0.546 J-0.248 F850
G1 X25.245 Y-272.266
G2 X25.773 Y-272.618 I-0.018 J-0.6
X25.826 Y-272.846 I-0.546 J-0.248 F350
G1 X25.824 Y-273.853 F850
X25.817 Y-274.003
X25.798 Y-274.151
X25.767 Y-274.298
X25.723 Y-274.442
X25.67 Y-274.582
X25.608 Y-274.718
X25.538 Y-274.851
X25.454 Y-274.991
X25.354 Y-275.137
X25.244 Y-275.28
X25.117 Y-275.428
X24.972 Y-275.578
X24.813 Y-275.725
X24.64 Y-275.868
X24.449 Y-276.008
X24.24 Y-276.144
X24.016 Y-276.273
X23.781 Y-276.391
X23.536 Y-276.497
X23.28 Y-276.591
X23.016 Y-276.672
X22.748 Y-276.737
X22.475 Y-276.788
X22.202 Y-276.823
X21.941 Y-276.841
X21.701 Y-276.845
X21.446 Y-276.834
X21.235 Y-276.813
X21.009 Y-276.778
X20.799 Y-276.733
X20.614 Y-276.682
X20.541 Y-276.658
X20.215 Y-276.515
X19.92 Y-276.317
X19.665 Y-276.07
X19.457 Y-275.782
X19.303 Y-275.461
X19.209 Y-275.119
X19.177 Y-274.765
X19.175 Y-273.723
G2 X19.229 Y-273.495 I0.6 J-0.02 F350
X19.789 Y-273.143 I0.546 J-0.248 F850
G1 X25.239 Y-273.273
G2 X25.771 Y-273.625 I-0.014 J-0.6
X25.824 Y-273.853 I-0.546 J-0.248 F350
G1 X25.823 Y-274.909 F850
X25.815 Y-275.059
X25.795 Y-275.208
X25.761 Y-275.354
X25.717 Y-275.497
X25.663 Y-275.637
X25.599 Y-275.773
X25.525 Y-275.912
X25.44 Y-276.05
X25.34 Y-276.194
X25.224 Y-276.343
X25.096 Y-276.489
X24.951 Y-276.637
X24.788 Y-276.785
X24.609 Y-276.931
X24.418 Y-277.069
X24.211 Y-277.202
X23.986 Y-277.329
X23.748 Y-277.446
X23.499 Y-277.552
X23.24 Y-277.645
X22.976 Y-277.723
X22.707 Y-277.787
X22.435 Y-277.835
X22.164 Y-277.867
X21.914 Y-277.883
X21.661 Y-277.885
X21.418 Y-277.873
X21.208 Y-277.851
X20.977 Y-277.813
X20.777 Y-277.768
X20.588 Y-277.715
X20.528 Y-277.695
X20.206 Y-277.551
X19.913 Y-277.352
X19.661 Y-277.105
X19.455 Y-276.818
X19.303 Y-276.499
X19.21 Y-276.158
X19.179 Y-275.806
X19.177 Y-274.765
G2 X19.23 Y-274.537 I0.6 J-0.02 F350
X19.793 Y-274.185 I0.546 J-0.248 F850
G1 X25.239 Y-274.33
G2 X25.77 Y-274.681 I-0.016 J-0.6
X25.823 Y-274.909 I-0.546 J-0.248 F350
G1 X25.821 Y-275.916 F850
X25.814 Y-276.066
X25.797 Y-276.215
X25.766 Y-276.362
X25.725 Y-276.506
X25.672 Y-276.646
X25.611 Y-276.783
X25.542 Y-276.917
X25.459 Y-277.056
X25.361 Y-277.201
X25.252 Y-277.345
X25.127 Y-277.492
X24.984 Y-277.643
X24.826 Y-277.791
X24.655 Y-277.934
X24.466 Y-278.075
X24.259 Y-278.212
X24.037 Y-278.341
X23.804 Y-278.46
X23.559 Y-278.568
X23.305 Y-278.663
X23.042 Y-278.745
X22.776 Y-278.812
X22.504 Y-278.865
X22.231 Y-278.901
X21.97 Y-278.922
X21.73 Y-278.927
X21.474 Y-278.918
X21.261 Y-278.898
X21.036 Y-278.864
X20.824 Y-278.82
X20.639 Y-278.771
X20.557 Y-278.744
X20.229 Y-278.603
X19.931 Y-278.406
X19.673 Y-278.158
X19.463 Y-277.869
X19.308 Y-277.547
X19.213 Y-277.203
X19.18 Y-276.847
X19.179 Y-275.806
G2 X19.232 Y-275.578 I0.6 J-0.02 F350
X19.79 Y-275.226 I0.546 J-0.248 F850
G1 X25.234 Y-275.336
G2 X25.768 Y-275.688 I-0.012 J-0.6
X25.821 Y-275.916 I-0.546 J-0.248 F350
G1 X25.82 Y-277.013 F850
X25.812 Y-277.163
X25.789 Y-277.311
X25.754 Y-277.457
X25.707 Y-277.6
X25.651 Y-277.739
X25.587 Y-277.875
X25.51 Y-278.014
X25.422 Y-278.156
X25.321 Y-278.298
X25.203 Y-278.447
X25.069 Y-278.597
X24.923 Y-278.743
X24.759 Y-278.889
X24.578 Y-279.034
X24.38 Y-279.175
X24.17 Y-279.307
X23.945 Y-279.431
X23.707 Y-279.546
X23.458 Y-279.648
X23.198 Y-279.739
X22.933 Y-279.815
X22.664 Y-279.876
X22.391 Y-279.922
X22.12 Y-279.952
X21.877 Y-279.965
X21.616 Y-279.964
X21.385 Y-279.951
X21.172 Y-279.926
X20.943 Y-279.887
X20.751 Y-279.842
X20.554 Y-279.785
X20.514 Y-279.77
X20.195 Y-279.625
X19.906 Y-279.426
X19.657 Y-279.179
X19.454 Y-278.893
X19.305 Y-278.576
X19.213 Y-278.237
X19.182 Y-277.888
X19.18 Y-276.847
G2 X19.233 Y-276.619 I0.6 J-0.02 F350
X19.798 Y-276.267 I0.546 J-0.248 F850
G1 X25.238 Y-276.434
G2 X25.766 Y-276.785 I-0.018 J-0.6
X25.82 Y-277.013 I-0.546 J-0.248 F350
G1 X25.818 Y-278.02 F850
X25.81 Y-278.17
X25.791 Y-278.319
X25.759 Y-278.465
X25.716 Y-278.609
X25.662 Y-278.749
X25.599 Y-278.885
X25.529 Y-279.018
X25.444 Y-279.159
X25.344 Y-279.304
X25.233 Y-279.448
X25.105 Y-279.596
X24.959 Y-279.746
X24.801 Y-279.893
X24.627 Y-280.036
X24.435 Y-280.176
X24.226 Y-280.312
X24.002 Y-280.44
X23.767 Y-280.557
X23.522 Y-280.663
X23.266 Y-280.757
X23.003 Y-280.837
X22.736 Y-280.901
X22.463 Y-280.951
X22.191 Y-280.986
X21.932 Y-281.004
X21.693 Y-281.007
X21.44 Y-280.996
X21.23 Y-280.975
X21.005 Y-280.939
X20.796 Y-280.894
X20.612 Y-280.843
X20.544 Y-280.82
X20.219 Y-280.678
X19.925 Y-280.479
X19.67 Y-280.233
X19.462 Y-279.944
X19.309 Y-279.624
X19.215 Y-279.282
X19.183 Y-278.928
X19.182 Y-277.888
G2 X19.235 Y-277.66 I0.6 J-0.02 F350
X19.796 Y-277.308 I0.546 J-0.248 F850
G1 X25.233 Y-277.44
G2 X25.765 Y-277.792 I-0.015 J-0.6
X25.818 Y-278.02 I-0.546 J-0.248 F350
G1 X25.816 Y-279.088 F850
X25.809 Y-279.238
X25.787 Y-279.386
X25.752 Y-279.532
X25.706 Y-279.675
X25.651 Y-279.814
X25.587 Y-279.95
X25.511 Y-280.089
X25.425 Y-280.228
X25.323 Y-280.372
X25.205 Y-280.522
X25.075 Y-280.668
X24.929 Y-280.815
X24.765 Y-280.963
X24.584 Y-281.109
X24.39 Y-281.247
X24.182 Y-281.379
X23.957 Y-281.504
X23.718 Y-281.62
X23.469 Y-281.724
X23.209 Y-281.815
X22.946 Y-281.892
X22.677 Y-281.954
X22.405 Y-282
X22.134 Y-282.031
X21.889 Y-282.045
X21.633
X21.396 Y-282.032
X21.187 Y-282.009
X20.957 Y-281.969
X20.761 Y-281.925
X20.57 Y-281.869
X20.523 Y-281.853
X20.203 Y-281.708
X19.913 Y-281.509
X19.662 Y-281.263
X19.459 Y-280.976
X19.309 Y-280.658
X19.216 Y-280.319
X19.185 Y-279.969
X19.183 Y-278.928
G2 X19.237 Y-278.7 I0.6 J-0.02 F350
X19.801 Y-278.349 I0.546 J-0.248 F850
G1 X25.234 Y-278.508
G2 X25.763 Y-278.86 I-0.018 J-0.6
X25.816 Y-279.088 I-0.546 J-0.248 F350
G1 X25.815 Y-280.144 F850
X25.807 Y-280.294
X25.784 Y-280.442
X25.748 Y-280.588
X25.701 Y-280.73
X25.644 Y-280.869
X25.579 Y-281.005
X25.503 Y-281.143
X25.416 Y-281.281
X25.312 Y-281.428
X25.193 Y-281.576
X25.062 Y-281.722
X24.914 Y-281.87
X24.747 Y-282.019
X24.566 Y-282.163
X24.372 Y-282.3
X24.16 Y-282.432
X23.933 Y-282.557
X23.693 Y-282.671
X23.442 Y-282.774
X23.182 Y-282.864
X22.919 Y-282.939
X22.649 Y-282.999
X22.378 Y-283.044
X22.107 Y-283.073
X21.863 Y-283.086
X21.611 Y-283.085
X21.374 Y-283.07
X21.166 Y-283.046
X20.938 Y-283.005
X20.742 Y-282.96
X20.552 Y-282.904
X20.514 Y-282.89
X20.196 Y-282.744
X19.908 Y-282.545
X19.66 Y-282.299
X19.458 Y-282.013
X19.309 Y-281.696
X19.218 Y-281.358
X19.187 Y-281.01
X19.185 Y-279.969
G2 X19.238 Y-279.741 I0.6 J-0.02 F350
X19.804 Y-279.389 I0.546 J-0.248 F850
G1 X25.235 Y-279.565
G2 X25.761 Y-279.916 I-0.019 J-0.6
X25.815 Y-280.144 I-0.546 J-0.248 F350
G1 X25.813 Y-281.151 F850
X25.806 Y-281.301
X25.786 Y-281.449
X25.753 Y-281.596
X25.709 Y-281.739
X25.654 Y-281.879
X25.591 Y-282.015
X25.52 Y-282.148
X25.434 Y-282.289
X25.334 Y-282.435
X25.222 Y-282.579
X25.093 Y-282.727
X24.946 Y-282.877
X24.786 Y-283.023
X24.612 Y-283.166
X24.419 Y-283.306
X24.209 Y-283.441
X23.985 Y-283.569
X23.749 Y-283.685
X23.503 Y-283.79
X23.248 Y-283.883
X22.984 Y-283.961
X22.718 Y-284.025
X22.446 Y-284.074
X22.174 Y-284.107
X21.917 Y-284.124
X21.679 Y-284.126
X21.428 Y-284.114
X21.219 Y-284.093
X20.994 Y-284.056
X20.787 Y-284.011
X20.603 Y-283.96
X20.542 Y-283.939
X20.219 Y-283.795
X19.925 Y-283.597
X19.672 Y-283.35
X19.466 Y-283.062
X19.313 Y-282.743
X19.22 Y-282.402
X19.188 Y-282.049
X19.187 Y-281.01
G2 X19.24 Y-280.782 I0.6 J-0.02 F350
X19.802 Y-280.43 I0.546 J-0.248 F850
G1 X25.229 Y-280.571
G2 X25.76 Y-280.923 I-0.016 J-0.6
X25.813 Y-281.151 I-0.546 J-0.248 F350
G1 X25.812 Y-282.158 F850
X25.804 Y-282.307
X25.788 Y-282.457
X25.758 Y-282.604
X25.716 Y-282.748
X25.664 Y-282.888
X25.603 Y-283.025
X25.534 Y-283.158
X25.451 Y-283.297
X25.354 Y-283.443
X25.245 Y-283.587
X25.12 Y-283.734
X24.978 Y-283.883
X24.82 Y-284.031
X24.65 Y-284.174
X24.462 Y-284.314
X24.257 Y-284.451
X24.035 Y-284.58
X23.802 Y-284.7
X23.558 Y-284.807
X23.305 Y-284.902
X23.043 Y-284.984
X22.777 Y-285.052
X22.507 Y-285.104
X22.235 Y-285.141
X21.976 Y-285.161
X21.737 Y-285.166
X21.482 Y-285.157
X21.27 Y-285.138
X21.045 Y-285.105
X20.834 Y-285.061
X20.649 Y-285.012
X20.568 Y-284.986
X20.24 Y-284.845
X19.941 Y-284.647
X19.683 Y-284.4
X19.473 Y-284.111
X19.318 Y-283.789
X19.222 Y-283.444
X19.19 Y-283.088
X19.188 Y-282.049
G2 X19.241 Y-281.821 I0.6 J-0.02 F350
X19.8 Y-281.469 I0.546 J-0.248 F850
G1 X25.224 Y-281.578
G2 X25.758 Y-281.93 I-0.012 J-0.6
X25.812 Y-282.158 I-0.546 J-0.248 F350
G1 X25.81 Y-283.255 F850
X25.802 Y-283.405
X25.78 Y-283.553
X25.745 Y-283.699
X25.698 Y-283.842
X25.643 Y-283.981
X25.578 Y-284.116
X25.502 Y-284.255
X25.413 Y-284.397
X25.313 Y-284.539
X25.195 Y-284.688
X25.062 Y-284.837
X24.916 Y-284.983
X24.753 Y-285.129
X24.572 Y-285.274
X24.375 Y-285.414
X24.165 Y-285.546
X23.941 Y-285.67
X23.704 Y-285.784
X23.456 Y-285.887
X23.197 Y-285.977
X22.934 Y-286.053
X22.666 Y-286.114
X22.394 Y-286.16
X22.124 Y-286.19
X21.883 Y-286.203
X21.622
X21.392 Y-286.189
X21.18 Y-286.165
X20.951 Y-286.125
X20.76 Y-286.081
X20.563 Y-286.024
X20.525 Y-286.01
X20.206 Y-285.865
X19.917 Y-285.666
X19.667 Y-285.419
X19.464 Y-285.133
X19.314 Y-284.816
X19.223 Y-284.477
X19.191 Y-284.128
X19.19 Y-283.088
G2 X19.243 Y-282.86 I0.6 J-0.02 F350
X19.808 Y-282.508 I0.546 J-0.248 F850
G1 X25.229 Y-282.675
G2 X25.757 Y-283.027 I-0.018 J-0.6
X25.81 Y-283.255 I-0.546 J-0.248 F350
G1 X25.808 Y-284.262 F850
X25.801 Y-284.411
X25.782 Y-284.56
X25.75 Y-284.707
X25.706 Y-284.85
X25.653 Y-284.99
X25.59 Y-285.127
X25.52 Y-285.26
X25.435 Y-285.4
X25.335 Y-285.545
X25.225 Y-285.689
X25.097 Y-285.836
X24.952 Y-285.986
X24.793 Y-286.133
X24.62 Y-286.275
X24.429 Y-286.415
X24.334 Y-286.477
X23.994 Y-286.654
X23.626 Y-286.763
X23.244 Y-286.8
G2 X23.016 Y-286.746 I0.021 J0.6 F350
X22.844 Y-285.773 I0.249 J0.546 F850
G1 X24.787 Y-283.855
G2 X25.755 Y-284.034 I0.422 J-0.427
X25.808 Y-284.262 I-0.546 J-0.248 F350
G1 X25.807 Y-285.329 F850
X25.799 Y-285.479
X25.722 Y-285.784
X25.584 Y-286.066
X25.393 Y-286.315
X25.155 Y-286.521
X24.88 Y-286.674
X24.581 Y-286.768
X24.268 Y-286.8
G2 X24.04 Y-286.746 I0.021 J0.6 F350
X23.881 Y-285.76 I0.249 J0.546 F850
G1 X24.799 Y-284.909
G2 X25.754 Y-285.101 I0.408 J-0.44
X25.807 Y-285.329 I-0.546 J-0.248 F350
G1 X25.806 Y-286.074 F850
X25.805 Y-286.107
X25.804 Y-286.135
X25.792 Y-286.285
X25.694 Y-286.492
X25.536 Y-286.657
X25.334 Y-286.763
X25.108 Y-286.8
G2 X24.879 Y-286.751 I0.023 J0.664 F350
X24.501 Y-285.926 I0.252 J0.614 F850
X25.762 Y-285.905 I0.634 J-0.212
X25.804 Y-286.135 I-0.627 J-0.233 F350
G1 X25.799 Y-286.275 F850
X25.776 Y-286.376
X25.757 Y-286.426
X25.732 Y-286.476
X25.72 Y-286.498
X25.69 Y-286.543
X25.654 Y-286.588
X25.606 Y-286.637
X25.557 Y-286.678
X25.519 Y-286.705
X25.468 Y-286.734
X25.418 Y-286.757
X25.368 Y-286.774
X25.317 Y-286.787
X25.217 Y-286.8
X20.981
X20.782 Y-286.79
X20.419 Y-286.712
X20.081 Y-286.561
X19.781 Y-286.343
X19.532 Y-286.067
X19.347 Y-285.746
X19.232 Y-285.394
X19.193 Y-285.025
G2 X19.246 Y-284.797 I0.6 J-0.02 F350
X20.214 Y-284.618 I0.546 J-0.248 F850
G1 X21.382 Y-285.774
G2 X21.208 Y-286.746 I-0.422 J-0.426
X20.981 Y-286.8 I-0.249 J0.546 F350
G1 X20.085 F850
X19.935 Y-286.793
X19.699 Y-286.72
X19.492 Y-286.585
X19.331 Y-286.397
X19.229 Y-286.172
X19.194 Y-285.928
G2 X19.233 Y-285.696 I0.874 J-0.029 F350
X19.443 Y-285.345 I0.835 J-0.261 F850
X20.709 Y-286.497 I0.612 J-0.599
X20.316 Y-286.76 I-0.654 J0.553
X20.085 Y-286.8 I-0.261 J0.816 F350
G1 X19.783 F850
X19.683 Y-286.787
X19.632 Y-286.774
X19.582 Y-286.757
X19.532 Y-286.734
X19.481 Y-286.705
X19.443 Y-286.678
X19.394 Y-286.637
X19.346 Y-286.588
X19.31 Y-286.543
X19.28 Y-286.498
X19.268 Y-286.476
X19.243 Y-286.426
X19.224 Y-286.376
X19.201 Y-286.275
X19.194 Y-286.074
X19.191 Y-284.128
G2 X19.245 Y-283.9 I0.6 J-0.02 F350
G1 X19.283 Y-283.814 Z-14.973
X19.321 Y-283.731 Z-14.951
X19.357 Y-283.652 Z-14.915
X19.39 Y-283.579 Z-14.865
X19.42 Y-283.513 Z-14.804
X19.445 Y-283.458 Z-14.733
X19.466 Y-283.413 Z-14.652
X19.48 Y-283.38 Z-14.565
X19.49 Y-283.36 Z-14.474
X19.493 Y-283.353 Z-14.38
G0 Z5
X20.717 Y-14.742
Z-4.39
G1 Z-4.99 F350
G2 X21.934 Y-11.003 Z-5.154 I1.783 J1.487
X24.771 Y-13.72 Z-5.318 I0.565 J-2.249
X21.096 Y-15.094 Z-5.481 I-2.268 J0.467
X21.454 Y-11.192 Z-5.645 I1.404 J1.838
X24.809 Y-13.206 Z-5.809 I1.045 J-2.06
X21.542 Y-15.351 Z-5.973 I-2.307 J-0.047
X21.029 Y-11.482 Z-6.136 I0.958 J2.096
X24.733 Y-12.698 Z-6.3 I1.47 J-1.771
X22.032 Y-15.503 Z-6.464 I-2.231 J-0.554
X20.68 Y-11.857 Z-6.628 I0.469 J2.248
X24.547 Y-12.221 Z-6.791 I1.819 J-1.397
X22.542 Y-15.542 Z-6.955 I-2.045 J-1.031
X20.424 Y-12.298 Z-7.119 I-0.04 J2.287
X24.261 Y-11.799 Z-7.283 I2.075 J-0.955
X23.046 Y-15.468 Z-7.447 I-1.76 J-1.453
X20.272 Y-12.784 Z-7.61 I-0.544 J2.213
X23.89 Y-11.452 Z-7.774 I2.227 J-0.47
X23.519 Y-15.284 Z-7.938 I-1.389 J-1.799
X20.232 Y-13.289 Z-8.102 I-1.017 J2.03
X23.453 Y-11.197 Z-8.265 I2.267 J0.034
X23.938 Y-15.002 Z-8.429 I-0.952 J-2.055
X20.304 Y-13.788 Z-8.593 I-1.436 J1.748
X22.972 Y-11.046 Z-8.757 I2.195 J0.534
X24.282 Y-14.635 Z-8.92 I-0.472 J-2.206
X20.485 Y-14.258 Z-9.084 I-1.78 J1.381
X22.471 Y-11.005 Z-9.248 I2.015 J1.003
X24.536 Y-14.202 Z-9.412 I0.028 J-2.247
X20.764 Y-14.674 Z-9.576 I-2.034 J0.949
X21.976 Y-11.076 Z-9.739 I1.736 J1.418
X24.687 Y-13.726 Z-9.903 I0.523 J-2.177
X21.127 Y-15.016 Z-10.067 I-2.185 J0.473
X21.51 Y-11.254 Z-10.231 I1.373 J1.761
X24.729 Y-13.23 Z-10.394 I0.989 J-1.999
X21.555 Y-15.269 Z-10.558 I-2.227 J-0.023
X21.097 Y-11.529 Z-10.722 I0.946 J2.014
X24.66 Y-12.739 Z-10.886 I1.401 J-1.724
X22.027 Y-15.42 Z-11.05 I-2.159 J-0.513
X20.757 Y-11.888 Z-11.213 I0.474 J2.165
X24.485 Y-12.277 Z-11.377 I1.742 J-1.365
X22.518 Y-15.462 Z-11.541 I-1.984 J-0.975
X20.506 Y-12.312 Z-11.705 I-0.017 J2.207
X24.213 Y-11.867 Z-11.868 I1.993 J-0.942
X23.005 Y-15.395 Z-12.032 I-1.712 J-1.384
X20.355 Y-12.779 Z-12.196 I-0.503 J2.14
X23.858 Y-11.529 Z-12.36 I2.144 J-0.476
X23.463 Y-15.223 Z-12.523 I-1.357 J-1.723
X20.312 Y-13.266 Z-12.687 I-0.961 J1.968
X23.439 Y-11.279 Z-12.851 I2.187 J0.011
X23.87 Y-14.954 Z-13.015 I-0.939 J-1.973
X20.377 Y-13.748 Z-13.179 I-1.368 J1.7
X22.976 Y-11.129 Z-13.342 I2.122 J0.493
X24.206 Y-14.603 Z-13.506 I-0.477 J-2.123
X20.547 Y-14.202 Z-13.67 I-1.703 J1.349
X22.494 Y-11.085 Z-13.834 I1.953 J0.947
X24.454 Y-14.188 Z-13.997 I0.005 J-2.167
X20.812 Y-14.606 Z-14.161 I-1.952 J0.935
X22.016 Y-11.148 Z-14.325 I1.688 J1.351
X24.605 Y-13.73 Z-14.489 I0.483 J-2.104
X21.159 Y-14.94 Z-14.652 I-2.102 J0.477
X21.565 Y-11.316 Z-14.816 I1.341 J1.684
X24.649 Y-13.253 Z-14.98 I0.934 J-1.937
X20.349 I-2.15
X24.636 Y-13.017 I2.15
X24.649 Y-13.253 I-2.137 J-0.236
G1 X24.674 Y-14.138 F850
X24.686 Y-14.249
Y-14.399
X24.667 Y-14.547
X24.633 Y-14.693
X24.583 Y-14.835
X24.521 Y-14.972
X24.448 Y-15.103
X24.365 Y-15.227
X24.272 Y-15.345
X24.171 Y-15.456
X24.063 Y-15.56
X23.948 Y-15.656
X23.826 Y-15.744
X23.7 Y-15.824
X23.568 Y-15.897
X23.433 Y-15.961
X23.293 Y-16.017
X23.151 Y-16.064
X23.006 Y-16.103
X22.86 Y-16.134
X22.711 Y-16.157
X22.559 Y-16.171
X22.406 Y-16.176
X22.252 Y-16.174
X22.096 Y-16.162
X21.941 Y-16.141
X21.786 Y-16.112
X21.631 Y-16.073
X21.479 Y-16.026
X21.329 Y-15.97
X21.181 Y-15.905
X21.037 Y-15.832
X20.896 Y-15.75
X20.76 Y-15.661
X20.629 Y-15.563
X20.503 Y-15.458
X20.383 Y-15.346
X20.269 Y-15.227
X20.162 Y-15.101
X20.062 Y-14.97
X19.969 Y-14.832
X19.884 Y-14.69
X19.807 Y-14.543
X19.739 Y-14.391
X19.679 Y-14.236
X19.627 Y-14.077
X19.615 Y-14.031
X19.579 Y-13.864
X19.557 Y-13.695
X19.55 Y-13.524
Y-13.255
X19.566 Y-12.944
X19.582 Y-12.786
X19.608 Y-12.628
X19.643 Y-12.471
X19.687 Y-12.315
X19.74 Y-12.162
X19.802 Y-12.011
X19.872 Y-11.864
X19.951 Y-11.72
X20.037 Y-11.581
X20.132 Y-11.446
X20.235 Y-11.317
X20.344 Y-11.193
X20.461 Y-11.075
X20.584 Y-10.965
X20.714 Y-10.861
X20.849 Y-10.764
X20.99 Y-10.675
X21.136 Y-10.594
X21.286 Y-10.521
X21.441 Y-10.457
X21.599 Y-10.402
X21.759 Y-10.355
X21.923 Y-10.318
X22.088 Y-10.29
X22.255 Y-10.271
X22.422 Y-10.261
X22.59
X22.758 Y-10.271
X22.925 Y-10.29
X23.09 Y-10.318
X23.254 Y-10.356
X23.416 Y-10.403
X23.575 Y-10.458
X23.73 Y-10.523
X23.882 Y-10.596
X24.029 Y-10.678
X24.171 Y-10.768
X24.308 Y-10.866
X24.44 Y-10.971
X24.565 Y-11.084
X24.684 Y-11.204
X24.796 Y-11.33
X24.9 Y-11.462
X24.997 Y-11.6
X25.089 Y-11.748
X25.19 Y-11.932
X25.256 Y-12.07
X25.363 Y-12.346
X25.428 Y-12.635
X25.45 Y-12.93
Y-14.262
X25.442 Y-14.422
X25.426 Y-14.571
X25.401 Y-14.719
X25.368 Y-14.866
X25.326 Y-15.01
X25.276 Y-15.151
X25.216 Y-15.291
X25.148 Y-15.431
X25.071 Y-15.568
X24.986 Y-15.702
X24.892 Y-15.832
X24.789 Y-15.959
X24.677 Y-16.083
X24.556 Y-16.202
X24.426 Y-16.316
X24.289 Y-16.424
X24.143 Y-16.526
X23.99 Y-16.62
X23.83 Y-16.707
X23.664 Y-16.785
X23.491 Y-16.855
X23.313 Y-16.915
X23.13 Y-16.966
X22.942 Y-17.007
X22.75 Y-17.038
X22.555 Y-17.058
X22.357 Y-17.067
X22.157 Y-17.065
X21.956 Y-17.051
X21.754 Y-17.026
X21.553 Y-16.99
X21.353 Y-16.942
X21.155 Y-16.882
X20.959 Y-16.811
X20.767 Y-16.729
X20.579 Y-16.635
X20.56 Y-16.625
X20.272 Y-16.425
X20.023 Y-16.178
X19.821 Y-15.892
X19.672 Y-15.574
X19.581 Y-15.236
X19.55 Y-14.887
Y-13.524
Y-13.491 F350
Y-13.255
Y-11.846 F850
X19.558 Y-11.695
X19.573 Y-11.545
X19.669 Y-11.232
X19.824 Y-10.943
X20.032 Y-10.69
X20.286 Y-10.482
X20.575 Y-10.327
X20.889 Y-10.232
X21.215 Y-10.2
G2 X21.443 Y-10.254 I-0.021 J-0.6 F350
X21.614 Y-11.228 I-0.249 J-0.546 F850
G1 X20.57 Y-12.253
G2 X19.604 Y-12.074 I-0.42 J0.428
X19.55 Y-11.846 I0.546 J0.249 F350
G1 Y-11.007 F850
X19.558 Y-10.857
X19.628 Y-10.646
X19.754 Y-10.463
X19.925 Y-10.321
X20.128 Y-10.231
X20.349 Y-10.2
G2 X20.579 Y-10.243 I-0.027 J-0.786 F350
X20.874 Y-10.427 I-0.258 J-0.743 F850
X19.78 Y-11.533 I-0.547 J-0.553
X19.593 Y-11.238 I0.547 J0.553
X19.55 Y-11.007 I0.734 J0.258 F350
G1 Y-10.839 F850
X19.555 Y-10.738
X19.576 Y-10.638
X19.594 Y-10.587
X19.617 Y-10.537
X19.646 Y-10.487
X19.683 Y-10.436
X19.728 Y-10.385
X19.783 Y-10.334
X19.834 Y-10.297
X19.884 Y-10.268
X19.959 Y-10.235
X20.022 Y-10.216
X20.085 Y-10.205
X20.286 Y-10.2
X23.818
X23.973 Y-10.208
X24.31 Y-10.28
X24.625 Y-10.421
X24.904 Y-10.624
X25.135 Y-10.881
X25.307 Y-11.179
X25.414 Y-11.508
X25.45 Y-11.851
G2 X25.396 Y-12.079 I-0.6 J0.021 F350
X24.422 Y-12.25 I-0.546 J0.249 F850
G1 X23.411 Y-11.22
G2 X23.59 Y-10.254 I0.428 J0.42
X23.818 Y-10.2 I0.249 J-0.546 F350
G1 X24.623 F850
X24.773 Y-10.208
X24.989 Y-10.274
X25.178 Y-10.398
X25.325 Y-10.571
X25.418 Y-10.777
X25.45 Y-11.001
G2 X25.408 Y-11.232 I-0.819 J0.029 F350
X25.22 Y-11.542 I-0.777 J0.26 F850
X24.082 Y-10.441 I-0.569 J0.551
X24.392 Y-10.243 I0.569 J-0.551
X24.623 Y-10.2 I0.258 J-0.749 F350
G1 X24.714 F850
X24.915 Y-10.205
X24.978 Y-10.216
X25.041 Y-10.235
X25.116 Y-10.268
X25.166 Y-10.297
X25.217 Y-10.334
X25.272 Y-10.385
X25.317 Y-10.437
X25.354 Y-10.487
X25.383 Y-10.537
X25.406 Y-10.587
X25.424 Y-10.638
X25.445 Y-10.738
X25.45 Y-10.839
Y-12.93
X25.449 Y-12.938 F350
G3 X25.413 Y-13.162 I3.382 J-0.657
X25.405 Y-13.236 I3.418 J-0.434 F850
X25.401 Y-13.298 I0.597 J-0.063
G1 Y-13.893
G3 X25.405 Y-13.956 I0.6
X25.413 Y-14.029 I3.427 J0.36
X25.449 Y-14.253 I3.418 J0.434 F350
G1 X25.45 Y-14.262
Y-15.47 F850
X25.442 Y-15.62
X25.425 Y-15.769
X25.393 Y-15.915
X25.349 Y-16.059
X25.295 Y-16.199
X25.231 Y-16.334
X25.158 Y-16.465
X25.077 Y-16.592
X24.987 Y-16.715
X24.888 Y-16.838
X24.778 Y-16.957
X24.657 Y-17.076
X24.523 Y-17.193
X24.378 Y-17.306
X24.223 Y-17.413
X24.059 Y-17.514
X23.884 Y-17.608
X23.699 Y-17.694
X23.505 Y-17.772
X23.301 Y-17.84
X23.088 Y-17.898
X22.869 Y-17.945
X22.644 Y-17.98
X22.415 Y-18.003
X22.18 Y-18.013
X21.943 Y-18.009
X21.711 Y-17.993
X21.503 Y-17.966
X21.274 Y-17.924
X21.081 Y-17.877
X20.888 Y-17.818
X20.86 Y-17.808
X20.545 Y-17.66
X20.261 Y-17.46
X20.016 Y-17.213
X19.817 Y-16.928
X19.67 Y-16.613
X19.58 Y-16.277
X19.55 Y-15.931
Y-14.887
G2 X19.604 Y-14.659 I0.6 J-0.021 F350
X20.224 Y-14.312 I0.546 J-0.249 F850
G1 X24.924 Y-14.895
G2 X25.396 Y-15.242 I-0.074 J-0.595
X25.45 Y-15.47 I-0.546 J-0.249 F350
G1 Y-16.477 F850
X25.442 Y-16.626
X25.42 Y-16.775
X25.383 Y-16.92
X25.334 Y-17.062
X25.274 Y-17.199
X25.205 Y-17.332
X25.127 Y-17.461
X25.042 Y-17.584
X24.947 Y-17.705
X24.838 Y-17.83
X24.717 Y-17.953
X24.586 Y-18.072
X24.441 Y-18.19
X24.282 Y-18.305
X24.109 Y-18.416
X23.925 Y-18.52
X23.731 Y-18.615
X23.524 Y-18.703
X23.305 Y-18.781
X23.078 Y-18.848
X22.841 Y-18.904
X22.601 Y-18.947
X22.357 Y-18.976
X22.137 Y-18.99
X21.906 Y-18.991
X21.685 Y-18.98
X21.491 Y-18.959
X21.276 Y-18.924
X21.086 Y-18.882
X20.908 Y-18.831
X20.899 Y-18.828
X20.576 Y-18.684
X20.284 Y-18.485
X20.031 Y-18.238
X19.825 Y-17.95
X19.674 Y-17.631
X19.581 Y-17.289
X19.55 Y-16.937
Y-15.931
G2 X19.604 Y-15.703 I0.6 J-0.021 F350
X20.219 Y-15.356 I0.546 J-0.249 F850
G1 X24.92 Y-15.902
G2 X25.396 Y-16.249 I-0.069 J-0.596
X25.45 Y-16.477 I-0.546 J-0.249 F350
G1 Y-17.393 F850
X25.442 Y-17.543
X25.422 Y-17.691
X25.387 Y-17.837
X25.339 Y-17.979
X25.28 Y-18.117
X25.212 Y-18.251
X25.135 Y-18.38
X25.051 Y-18.504
X24.956 Y-18.627
X24.847 Y-18.755
X24.723 Y-18.883
X24.589 Y-19.008
X24.44 Y-19.131
X24.276 Y-19.252
X24.097 Y-19.369
X23.907 Y-19.479
X23.707 Y-19.579
X23.496 Y-19.671
X23.275 Y-19.753
X23.048 Y-19.822
X22.813 Y-19.88
X22.574 Y-19.925
X22.335 Y-19.956
X22.126 Y-19.971
X21.894 Y-19.975
X21.686 Y-19.966
X21.493 Y-19.948
X21.281 Y-19.915
X21.099 Y-19.876
X20.917 Y-19.827
X20.59 Y-19.684
X20.294 Y-19.486
X20.038 Y-19.239
X19.83 Y-18.95
X19.676 Y-18.628
X19.582 Y-18.284
X19.55 Y-17.93
Y-16.937
G2 X19.604 Y-16.709 I0.6 J-0.021 F350
X20.207 Y-16.361 I0.546 J-0.249 F850
G1 X24.908 Y-16.816
G2 X25.396 Y-17.165 I-0.058 J-0.597
X25.45 Y-17.393 I-0.546 J-0.249 F350
G1 Y-18.35 F850
X25.442 Y-18.499
X25.42 Y-18.648
X25.383 Y-18.793
X25.334 Y-18.935
X25.275 Y-19.073
X25.206 Y-19.206
X25.129 Y-19.335
X25.043 Y-19.462
X24.946 Y-19.589
X24.833 Y-19.72
X24.707 Y-19.852
X24.569 Y-19.98
X24.418 Y-20.105
X24.251 Y-20.229
X24.069 Y-20.348
X23.877 Y-20.459
X23.675 Y-20.561
X23.463 Y-20.654
X23.242 Y-20.735
X23.016 Y-20.805
X22.782 Y-20.863
X22.545 Y-20.907
X22.314 Y-20.938
X22.107 Y-20.953
X21.876 Y-20.957
X21.676 Y-20.949
X21.481 Y-20.93
X21.272 Y-20.898
X21.094 Y-20.861
X21.027 Y-20.842
X20.678 Y-20.712
X20.359 Y-20.519
X20.082 Y-20.27
X19.855 Y-19.974
X19.688 Y-19.641
X19.585 Y-19.283
X19.55 Y-18.912
Y-17.93
G2 X19.604 Y-17.702 I0.6 J-0.021 F350
X20.203 Y-17.353 I0.546 J-0.249 F850
G1 X24.904 Y-17.773
G2 X25.396 Y-18.122 I-0.053 J-0.598
X25.45 Y-18.35 I-0.546 J-0.249 F350
G1 Y-19.295 F850
X25.442 Y-19.445
X25.421 Y-19.594
X25.385 Y-19.739
X25.337 Y-19.882
X25.279 Y-20.02
X25.212 Y-20.154
X25.136 Y-20.283
X25.052 Y-20.41
X24.955 Y-20.54
X24.842 Y-20.674
X24.718 Y-20.805
X24.582 Y-20.934
X24.431 Y-21.063
X24.264 Y-21.189
X24.084 Y-21.309
X23.894 Y-21.422
X23.695 Y-21.525
X23.484 Y-21.619
X23.265 Y-21.703
X23.04 Y-21.775
X22.807 Y-21.835
X22.572 Y-21.881
X22.36 Y-21.911
X22.128 Y-21.931
X21.909 Y-21.937
X21.717 Y-21.931
X21.502 Y-21.912
X21.305 Y-21.884
X21.13 Y-21.849
X20.933 Y-21.798
X20.604 Y-21.658
X20.304 Y-21.462
X20.045 Y-21.214
X19.834 Y-20.925
X19.678 Y-20.602
X19.582 Y-20.257
X19.55 Y-19.9
Y-18.912
G2 X19.604 Y-18.684 I0.6 J-0.021 F350
X20.198 Y-18.335 I0.546 J-0.249 F850
G1 X24.899 Y-18.718
G2 X25.396 Y-19.068 I-0.049 J-0.598
X25.45 Y-19.295 I-0.546 J-0.249 F350
G1 Y-20.261 F850
X25.442 Y-20.411
X25.421 Y-20.56
X25.385 Y-20.705
X25.338 Y-20.848
X25.28 Y-20.986
X25.213 Y-21.12
X25.138 Y-21.25
X25.053 Y-21.378
X24.957 Y-21.508
X24.845 Y-21.642
X24.72 Y-21.776
X24.584 Y-21.906
X24.433 Y-22.034
X24.267 Y-22.16
X24.089 Y-22.281
X23.899 Y-22.394
X23.698 Y-22.499
X23.489 Y-22.594
X23.272 Y-22.677
X23.046 Y-22.75
X22.815 Y-22.811
X22.581 Y-22.858
X22.349 Y-22.891
X22.143 Y-22.909
X21.913 Y-22.916
X21.711 Y-22.911
X21.518 Y-22.895
X21.308 Y-22.866
X21.128 Y-22.83
X20.945 Y-22.783
X20.612 Y-22.643
X20.31 Y-22.446
X20.049 Y-22.198
X19.836 Y-21.908
X19.679 Y-21.583
X19.582 Y-21.236
X19.55 Y-20.877
Y-19.9
G2 X19.604 Y-19.672 I0.6 J-0.021 F350
X20.196 Y-19.323 I0.546 J-0.249 F850
G1 X24.896 Y-19.684
G2 X25.396 Y-20.033 I-0.046 J-0.598
X25.45 Y-20.261 I-0.546 J-0.249 F350
G1 Y-21.218 F850
X25.442 Y-21.368
X25.423 Y-21.517
X25.388 Y-21.663
X25.342 Y-21.806
X25.286 Y-21.945
X25.22 Y-22.079
X25.146 Y-22.21
X25.063 Y-22.337
X24.968 Y-22.468
X24.857 Y-22.602
X24.734 Y-22.736
X24.6 Y-22.866
X24.451 Y-22.995
X24.286 Y-23.123
X24.108 Y-23.245
X23.92 Y-23.359
X23.722 Y-23.464
X23.513 Y-23.561
X23.296 Y-23.647
X23.073 Y-23.721
X22.841 Y-23.783
X22.607 Y-23.832
X22.375 Y-23.868
X22.17 Y-23.887
X21.94 Y-23.896
X21.737 Y-23.892
X21.546 Y-23.878
X21.335 Y-23.85
X21.153 Y-23.816
X20.976 Y-23.772
X20.96 Y-23.767
X20.624 Y-23.629
X20.319 Y-23.432
X20.055 Y-23.184
X19.839 Y-22.892
X19.68 Y-22.566
X19.583 Y-22.217
X19.55 Y-21.856
Y-20.877
G2 X19.604 Y-20.649 I0.6 J-0.021 F350
X20.193 Y-20.299 I0.546 J-0.249 F850
G1 X24.894 Y-20.641
G2 X25.396 Y-20.99 I-0.043 J-0.598
X25.45 Y-21.218 I-0.546 J-0.249 F350
G1 Y-22.225 F850
X25.442 Y-22.375
X25.419 Y-22.523
X25.382 Y-22.668
X25.333 Y-22.81
X25.275 Y-22.948
X25.207 Y-23.082
X25.131 Y-23.212
X25.044 Y-23.344
X24.946 Y-23.474
X24.834 Y-23.607
X24.707 Y-23.741
X24.567 Y-23.874
X24.416 Y-24.002
X24.25 Y-24.127
X24.07 Y-24.248
X23.879 Y-24.361
X23.675 Y-24.466
X23.463 Y-24.56
X23.245 Y-24.644
X23.019 Y-24.715
X22.788 Y-24.775
X22.553 Y-24.821
X22.334 Y-24.852
X22.123 Y-24.869
X21.894 Y-24.875
X21.7 Y-24.87
X21.5 Y-24.852
X21.294 Y-24.823
X21.119 Y-24.787
X20.932 Y-24.739
X20.603 Y-24.599
X20.303 Y-24.402
X20.044 Y-24.155
X19.833 Y-23.865
X19.678 Y-23.543
X19.582 Y-23.198
X19.55 Y-22.841
Y-21.856
G2 X19.604 Y-21.628 I0.6 J-0.021 F350
X20.197 Y-21.279 I0.546 J-0.249 F850
G1 X24.897 Y-21.648
G2 X25.396 Y-21.997 I-0.047 J-0.598
X25.45 Y-22.225 I-0.546 J-0.249 F350
G1 Y-23.182 F850
X25.442 Y-23.332
X25.421 Y-23.48
X25.387 Y-23.626
X25.34 Y-23.769
X25.283 Y-23.907
X25.216 Y-24.042
X25.142 Y-24.172
X25.058 Y-24.3
X24.961 Y-24.432
X24.85 Y-24.567
X24.726 Y-24.7
X24.591 Y-24.831
X24.44 Y-24.961
X24.274 Y-25.088
X24.096 Y-25.21
X23.907 Y-25.324
X23.709 Y-25.428
X23.499 Y-25.524
X23.283 Y-25.609
X23.059 Y-25.683
X22.828 Y-25.744
X22.594 Y-25.793
X22.361 Y-25.828
X22.156 Y-25.846
X21.927 Y-25.855
X21.723 Y-25.85
X21.533 Y-25.836
X21.322 Y-25.807
X21.141 Y-25.772
X20.964 Y-25.728
X20.954 Y-25.725
X20.62 Y-25.586
X20.316 Y-25.39
X20.053 Y-25.142
X19.838 Y-24.85
X19.68 Y-24.525
X19.583 Y-24.176
X19.55 Y-23.816
Y-22.841
G2 X19.604 Y-22.613 I0.6 J-0.021 F350
X20.193 Y-22.263 I0.546 J-0.249 F850
G1 X24.894 Y-22.604
G2 X25.396 Y-22.954 I-0.043 J-0.598
X25.45 Y-23.182 I-0.546 J-0.249 F350
G1 Y-24.128 F850
X25.442 Y-24.277
X25.425 Y-24.426
X25.393 Y-24.573
X25.349 Y-24.716
X25.294 Y-24.856
X25.23 Y-24.991
X25.157 Y-25.123
X25.076 Y-25.25
X24.982 Y-25.381
X24.874 Y-25.515
X24.754 Y-25.649
X24.622 Y-25.779
X24.475 Y-25.91
X24.312 Y-26.038
X24.136 Y-26.162
X23.95 Y-26.277
X23.755 Y-26.384
X23.547 Y-26.482
X23.331 Y-26.57
X23.109 Y-26.646
X22.879 Y-26.711
X22.645 Y-26.762
X22.412 Y-26.8
X22.207 Y-26.822
X21.978 Y-26.833
X21.77 Y-26.831
X21.581 Y-26.819
X21.369 Y-26.794
X21.183 Y-26.76
X21.009 Y-26.719
X20.979 Y-26.71
X20.64 Y-26.574
X20.331 Y-26.379
X20.063 Y-26.13
X19.844 Y-25.837
X19.683 Y-25.509
X19.583 Y-25.157
X19.55 Y-24.793
Y-23.816
G2 X19.604 Y-23.588 I0.6 J-0.021 F350
X20.189 Y-23.238 I0.546 J-0.249 F850
G1 X24.89 Y-23.55
G2 X25.396 Y-23.9 I-0.04 J-0.599
X25.45 Y-24.128 I-0.546 J-0.249 F350
G1 Y-25.134 F850
X25.442 Y-25.284
X25.422 Y-25.433
X25.387 Y-25.579
X25.34 Y-25.721
X25.283 Y-25.86
X25.217 Y-25.995
X25.143 Y-26.125
X25.057 Y-26.257
X24.961 Y-26.388
X24.853 Y-26.52
X24.728 Y-26.654
X24.59 Y-26.788
X24.441 Y-26.917
X24.278 Y-27.042
X24.1 Y-27.164
X23.911 Y-27.278
X23.71 Y-27.385
X23.499 Y-27.482
X23.282 Y-27.567
X23.058 Y-27.641
X22.828 Y-27.703
X22.594 Y-27.751
X22.373 Y-27.784
X22.163 Y-27.804
X21.932 Y-27.813
X21.736 Y-27.809
X21.537 Y-27.793
X21.329 Y-27.766
X21.152 Y-27.732
X20.967 Y-27.686
X20.956 Y-27.682
X20.622 Y-27.544
X20.317 Y-27.347
X20.053 Y-27.099
X19.839 Y-26.808
X19.68 Y-26.482
X19.583 Y-26.133
X19.55 Y-25.773
Y-24.793
G2 X19.604 Y-24.565 I0.6 J-0.021 F350
X20.193 Y-24.216 I0.546 J-0.249 F850
G1 X24.894 Y-24.557
G2 X25.396 Y-24.906 I-0.043 J-0.598
X25.45 Y-25.134 I-0.546 J-0.249 F350
G1 Y-26.141 F850
X25.442 Y-26.291
X25.419 Y-26.439
X25.381 Y-26.584
X25.333 Y-26.726
X25.274 Y-26.864
X25.206 Y-26.998
X25.13 Y-27.127
X25.042 Y-27.26
X24.944 Y-27.39
X24.832 Y-27.524
X24.705 Y-27.659
X24.564 Y-27.792
X24.413 Y-27.92
X24.247 Y-28.045
X24.067 Y-28.165
X23.876 Y-28.278
X23.672 Y-28.383
X23.461 Y-28.477
X23.243 Y-28.56
X23.017 Y-28.632
X22.786 Y-28.691
X22.552 Y-28.738
X22.331 Y-28.768
X22.122 Y-28.786
X21.893 Y-28.792
X21.699 Y-28.786
X21.499 Y-28.768
X21.293 Y-28.739
X21.118 Y-28.703
X21.044 Y-28.684
X20.692 Y-28.556
X20.369 Y-28.364
X20.089 Y-28.115
X19.859 Y-27.818
X19.69 Y-27.483
X19.585 Y-27.123
X19.55 Y-26.749
Y-25.773
G2 X19.604 Y-25.545 I0.6 J-0.021 F350
X20.197 Y-25.195 I0.546 J-0.249 F850
G1 X24.897 Y-25.564
G2 X25.396 Y-25.913 I-0.047 J-0.598
X25.45 Y-26.141 I-0.546 J-0.249 F350
G1 Y-27.057 F850
X25.442 Y-27.207
X25.426 Y-27.356
X25.394 Y-27.503
X25.351 Y-27.646
X25.296 Y-27.786
X25.232 Y-27.922
X25.16 Y-28.053
X25.08 Y-28.181
X24.985 Y-28.314
X24.878 Y-28.447
X24.76 Y-28.579
X24.627 Y-28.711
X24.479 Y-28.843
X24.317 Y-28.971
X24.144 Y-29.093
X23.96 Y-29.208
X23.765 Y-29.315
X23.557 Y-29.415
X23.341 Y-29.503
X23.119 Y-29.58
X22.889 Y-29.645
X22.656 Y-29.697
X22.439 Y-29.733
X22.218 Y-29.757
X21.988 Y-29.768
X21.794 Y-29.767
X21.586 Y-29.755
X21.379 Y-29.73
X21.203 Y-29.699
X21.013 Y-29.654
X20.961 Y-29.639
X20.626 Y-29.506
X20.321 Y-29.314
X20.056 Y-29.069
X19.84 Y-28.781
X19.681 Y-28.457
X19.583 Y-28.111
X19.55 Y-27.752
Y-26.749
G2 X19.604 Y-26.521 I0.6 J-0.021 F350
X20.189 Y-26.171 I0.546 J-0.249 F850
G1 X24.89 Y-26.479
G2 X25.396 Y-26.829 I-0.039 J-0.599
X25.45 Y-27.057 I-0.546 J-0.249 F350
G1 Y-28.064 F850
X25.442 Y-28.214
X25.422 Y-28.362
X25.388 Y-28.508
X25.342 Y-28.651
X25.286 Y-28.79
X25.221 Y-28.925
X25.147 Y-29.056
X25.061 Y-29.187
X24.966 Y-29.318
X24.858 Y-29.45
X24.735 Y-29.585
X24.597 Y-29.718
X24.448 Y-29.848
X24.286 Y-29.973
X24.111 Y-30.094
X23.922 Y-30.208
X23.721 Y-30.316
X23.513 Y-30.412
X23.296 Y-30.498
X23.072 Y-30.573
X22.842 Y-30.635
X22.609 Y-30.684
X22.383 Y-30.719
X22.172 Y-30.739
X21.938 Y-30.748
X21.738 Y-30.745
X21.54 Y-30.73
X21.329 Y-30.703
X21.151 Y-30.669
X20.962 Y-30.622
X20.626 Y-30.484
X20.32 Y-30.288
X20.056 Y-30.04
X19.84 Y-29.748
X19.681 Y-29.422
X19.583 Y-29.072
X19.55 Y-28.711
Y-27.752
G2 X19.604 Y-27.524 I0.6 J-0.021 F350
X20.189 Y-27.174 I0.546 J-0.249 F850
G1 X24.89 Y-27.486
G2 X25.396 Y-27.836 I-0.04 J-0.599
X25.45 Y-28.064 I-0.546 J-0.249 F350
G1 Y-29.071 F850
X25.442 Y-29.22
X25.419 Y-29.369
X25.383 Y-29.514
X25.335 Y-29.656
X25.276 Y-29.794
X25.209 Y-29.928
X25.134 Y-30.058
X25.046 Y-30.19
X24.949 Y-30.321
X24.837 Y-30.454
X24.711 Y-30.589
X24.571 Y-30.722
X24.42 Y-30.85
X24.255 Y-30.975
X24.076 Y-31.095
X23.885 Y-31.209
X23.681 Y-31.314
X23.47 Y-31.41
X23.251 Y-31.493
X23.025 Y-31.566
X22.794 Y-31.626
X22.559 Y-31.673
X22.338 Y-31.704
X22.128 Y-31.722
X21.899 Y-31.729
X21.705 Y-31.723
X21.506 Y-31.706
X21.3 Y-31.677
X21.124 Y-31.642
X20.939 Y-31.594
X20.608 Y-31.455
X20.307 Y-31.258
X20.047 Y-31.01
X19.835 Y-30.72
X19.678 Y-30.397
X19.582 Y-30.05
X19.55 Y-29.692
Y-28.711
G2 X19.604 Y-28.483 I0.6 J-0.021 F350
X20.195 Y-28.134 I0.546 J-0.249 F850
G1 X24.896 Y-28.493
G2 X25.396 Y-28.843 I-0.046 J-0.598
X25.45 Y-29.071 I-0.546 J-0.249 F350
G1 Y-30.027 F850
X25.442 Y-30.177
X25.422 Y-30.326
X25.388 Y-30.472
X25.341 Y-30.615
X25.285 Y-30.753
X25.218 Y-30.888
X25.144 Y-31.018
X25.061 Y-31.146
X24.965 Y-31.278
X24.854 Y-31.413
X24.731 Y-31.547
X24.596 Y-31.678
X24.445 Y-31.808
X24.28 Y-31.936
X24.102 Y-32.058
X23.914 Y-32.172
X23.716 Y-32.277
X23.506 Y-32.374
X23.29 Y-32.459
X23.066 Y-32.533
X22.835 Y-32.595
X22.602 Y-32.644
X22.369 Y-32.68
X22.165 Y-32.699
X21.935 Y-32.708
X21.732 Y-32.704
X21.542 Y-32.69
X21.331 Y-32.662
X21.149 Y-32.627
X20.972 Y-32.583
X20.959 Y-32.579
X20.624 Y-32.441
X20.319 Y-32.245
X20.054 Y-31.997
X19.839 Y-31.705
X19.68 Y-31.379
X19.583 Y-31.03
X19.55 Y-30.669
Y-29.692
G2 X19.604 Y-29.465 I0.6 J-0.021 F350
X20.192 Y-29.115 I0.546 J-0.249 F850
G1 X24.893 Y-29.45
G2 X25.396 Y-29.8 I-0.043 J-0.598
X25.45 Y-30.027 I-0.546 J-0.249 F350
G1 Y-30.973 F850
X25.442 Y-31.123
X25.426 Y-31.272
X25.394 Y-31.419
X25.351 Y-31.562
X25.296 Y-31.702
X25.232 Y-31.838
X25.16 Y-31.969
X25.08 Y-32.096
X24.986 Y-32.227
X24.879 Y-32.362
X24.759 Y-32.495
X24.628 Y-32.626
X24.481 Y-32.757
X24.318 Y-32.886
X24.144 Y-33.009
X23.958 Y-33.125
X23.763 Y-33.232
X23.556 Y-33.331
X23.34 Y-33.419
X23.119 Y-33.496
X22.889 Y-33.561
X22.656 Y-33.613
X22.422 Y-33.652
X22.217 Y-33.674
X21.988 Y-33.686
X21.78 Y-33.685
X21.591 Y-33.673
X21.378 Y-33.648
X21.192 Y-33.615
X21.018 Y-33.574
X20.984 Y-33.564
