%
(1001)
(length along y axis. Origin far top left)
(T2  D=6 CR=0 - ZMIN=-22 - flat end mill)
G90 G94
G17
G21

(2D Adaptive11)
M9
T2 M6
S6000 M3
G54
M9
G0 X20.717 Y-14.944
Z15
Z5
Z3.1
G1 Z2.5 F350
G2 X21.934 Y-11.205 Z2.336 I1.783 J1.487
X24.771 Y-13.921 Z2.172 I0.565 J-2.249
X21.096 Y-15.295 Z2.009 I-2.268 J0.467
X21.454 Y-11.394 Z1.845 I1.404 J1.838
X24.809 Y-13.407 Z1.681 I1.045 J-2.06
X21.542 Y-15.552 Z1.517 I-2.307 J-0.047
X21.029 Y-11.683 Z1.354 I0.958 J2.096
X24.733 Y-12.899 Z1.19 I1.47 J-1.771
X22.032 Y-15.704 Z1.026 I-2.231 J-0.554
X20.68 Y-12.058 Z0.862 I0.469 J2.248
X24.547 Y-12.423 Z0.699 I1.819 J-1.397
X22.542 Y-15.743 Z0.535 I-2.045 J-1.031
X20.424 Y-12.5 Z0.371 I-0.04 J2.287
X24.261 Y-12.001 Z0.207 I2.075 J-0.955
X23.046 Y-15.669 Z0.043 I-1.76 J-1.453
X20.272 Y-12.985 Z-0.12 I-0.544 J2.213
X23.89 Y-11.654 Z-0.284 I2.227 J-0.47
X23.519 Y-15.486 Z-0.448 I-1.389 J-1.799
X20.232 Y-13.49 Z-0.612 I-1.017 J2.03
X23.453 Y-11.399 Z-0.775 I2.267 J0.034
X23.938 Y-15.203 Z-0.939 I-0.952 J-2.055
X20.304 Y-13.99 Z-1.103 I-1.436 J1.748
X22.972 Y-11.247 Z-1.267 I2.195 J0.534
X24.282 Y-14.836 Z-1.43 I-0.472 J-2.206
X20.485 Y-14.459 Z-1.594 I-1.78 J1.381
X22.471 Y-11.206 Z-1.758 I2.015 J1.003
X24.536 Y-14.404 Z-1.922 I0.028 J-2.247
X20.764 Y-14.875 Z-2.086 I-2.034 J0.949
X21.976 Y-11.277 Z-2.249 I1.736 J1.418
X24.687 Y-13.927 Z-2.413 I0.523 J-2.177
X21.127 Y-15.217 Z-2.577 I-2.185 J0.473
X21.51 Y-11.455 Z-2.741 I1.373 J1.761
X24.729 Y-13.431 Z-2.904 I0.989 J-1.999
X21.555 Y-15.47 Z-3.068 I-2.227 J-0.023
X21.097 Y-11.73 Z-3.232 I0.946 J2.014
X24.66 Y-12.94 Z-3.396 I1.401 J-1.724
X22.027 Y-15.621 Z-3.56 I-2.159 J-0.513
X20.757 Y-12.089 Z-3.723 I0.474 J2.165
X24.485 Y-12.479 Z-3.887 I1.742 J-1.365
X22.518 Y-15.664 Z-4.051 I-1.984 J-0.975
X20.506 Y-12.513 Z-4.215 I-0.017 J2.207
X24.213 Y-12.069 Z-4.378 I1.993 J-0.942
X23.005 Y-15.597 Z-4.542 I-1.712 J-1.384
X20.355 Y-12.98 Z-4.706 I-0.503 J2.14
X23.858 Y-11.731 Z-4.87 I2.144 J-0.476
X23.463 Y-15.424 Z-5.033 I-1.357 J-1.723
X20.312 Y-13.467 Z-5.197 I-0.961 J1.968
X23.439 Y-11.481 Z-5.361 I2.187 J0.011
X23.87 Y-15.155 Z-5.525 I-0.939 J-1.973
X20.377 Y-13.949 Z-5.689 I-1.368 J1.7
X22.976 Y-11.33 Z-5.852 I2.122 J0.493
X24.206 Y-14.804 Z-6.016 I-0.477 J-2.123
X20.547 Y-14.404 Z-6.18 I-1.703 J1.349
X22.494 Y-11.286 Z-6.344 I1.953 J0.947
X24.454 Y-14.39 Z-6.507 I0.005 J-2.167
X20.812 Y-14.807 Z-6.671 I-1.952 J0.935
X22.016 Y-11.35 Z-6.835 I1.688 J1.351
X24.605 Y-13.932 Z-6.999 I0.483 J-2.104
X21.159 Y-15.141 Z-7.162 I-2.102 J0.477
X21.565 Y-11.517 Z-7.326 I1.341 J1.684
X24.649 Y-13.454 Z-7.49 I0.934 J-1.937
X20.349 I-2.15
X24.636 Y-13.218 I2.15
X24.649 Y-13.454 I-2.137 J-0.236
G1 X24.674 Y-14.34 F850
X24.686 Y-14.45
Y-14.6
X24.667 Y-14.749
X24.633 Y-14.895
X24.583 Y-15.036
X24.521 Y-15.173
X24.448 Y-15.304
X24.365 Y-15.429
X24.272 Y-15.547
X24.171 Y-15.657
X24.063 Y-15.761
X23.948 Y-15.857
X23.826 Y-15.945
X23.7 Y-16.026
X23.568 Y-16.098
X23.433 Y-16.162
X23.293 Y-16.218
X23.151 Y-16.266
X23.006 Y-16.305
X22.86 Y-16.335
X22.711 Y-16.358
X22.559 Y-16.372
X22.406 Y-16.378
X22.252 Y-16.375
X22.096 Y-16.363
X21.941 Y-16.343
X21.786 Y-16.313
X21.631 Y-16.275
X21.479 Y-16.227
X21.329 Y-16.171
X21.181 Y-16.106
X21.037 Y-16.033
X20.896 Y-15.952
X20.76 Y-15.862
X20.629 Y-15.765
X20.503 Y-15.66
X20.383 Y-15.547
X20.269 Y-15.428
X20.162 Y-15.303
X20.062 Y-15.171
X19.969 Y-15.034
X19.884 Y-14.891
X19.807 Y-14.744
X19.739 Y-14.592
X19.679 Y-14.437
X19.627 Y-14.278
X19.585 Y-14.117
X19.552 Y-13.953
X19.528 Y-13.787
X19.513 Y-13.62
X19.508 Y-13.453
X19.512 Y-13.285
X19.526 Y-13.118
X19.549 Y-12.952
X19.582 Y-12.787
X19.623 Y-12.624
X19.674 Y-12.464
X19.734 Y-12.307
X19.803 Y-12.153
X19.88 Y-12.004
X19.965 Y-11.859
X20.059 Y-11.719
X20.16 Y-11.584
X20.269 Y-11.456
X20.384 Y-11.333
X20.507 Y-11.218
X20.636 Y-11.109
X20.77 Y-11.008
X20.911 Y-10.914
X21.056 Y-10.829
X21.206 Y-10.752
X21.36 Y-10.683
X21.518 Y-10.624
X21.678 Y-10.573
X21.842 Y-10.531
X22.007 Y-10.499
X22.174 Y-10.476
X22.343 Y-10.462
X22.511 Y-10.458
X22.68 Y-10.463
X22.848 Y-10.478
X23.015 Y-10.503
X23.18 Y-10.536
X23.343 Y-10.579
X23.504 Y-10.631
X23.661 Y-10.692
X23.815 Y-10.762
X23.964 Y-10.84
X24.109 Y-10.927
X24.249 Y-11.022
X24.383 Y-11.124
X24.511 Y-11.234
X24.633 Y-11.35
X24.748 Y-11.474
X24.856 Y-11.604
X24.956 Y-11.739
X25.049 Y-11.88
X25.145 Y-12.047
X25.251 Y-12.256
X25.375 Y-12.539
X25.476 Y-12.811
X25.55 Y-13.051
X25.605 Y-13.272
X25.645 Y-13.486
X25.672 Y-13.691
X25.687 Y-13.886
X25.69 Y-14.074
X25.683 Y-14.261
X25.665 Y-14.444
X25.638 Y-14.623
X25.602 Y-14.796
X25.556 Y-14.966
X25.5 Y-15.134
X25.435 Y-15.299
X25.36 Y-15.461
X25.277 Y-15.618
X25.185 Y-15.77
X25.083 Y-15.917
X24.974 Y-16.059
X24.855 Y-16.195
X24.728 Y-16.326
X24.593 Y-16.451
X24.45 Y-16.568
X24.299 Y-16.679
X24.14 Y-16.781
X23.975 Y-16.876
X23.803 Y-16.961
X23.625 Y-17.038
X23.442 Y-17.104
X23.254 Y-17.161
X23.062 Y-17.208
X22.866 Y-17.243
X22.666 Y-17.268
X22.465 Y-17.282
X22.262 Y-17.284
X22.058 Y-17.275
X21.853 Y-17.254
X21.649 Y-17.222
X21.447 Y-17.178
X21.246 Y-17.122
X21.047 Y-17.055
X20.852 Y-16.976
X20.661 Y-16.887
X20.474 Y-16.786
X20.293 Y-16.674
X20.117 Y-16.552
X20.067 Y-16.512
X19.803 Y-16.264
X19.588 Y-15.973
X19.43 Y-15.647
X19.333 Y-15.298
X19.3 Y-14.938
Y-12.248
X19.308 Y-12.099
X19.326 Y-11.95
X19.356 Y-11.803
X19.396 Y-11.658
X19.446 Y-11.517
X19.503 Y-11.378
X19.569 Y-11.243
X19.582 Y-11.22
X19.781 Y-10.929
X20.028 Y-10.678
X20.316 Y-10.474
X20.635 Y-10.323
X20.975 Y-10.231
X21.326 Y-10.2
G2 X21.554 Y-10.254 I-0.021 J-0.6 F350
X21.733 Y-11.221 I-0.249 J-0.546 F850
G1 X20.327 Y-12.648
G2 X19.354 Y-12.476 I-0.428 J0.421
X19.3 Y-12.248 I0.546 J0.249 F350
G1 Y-11.242 F850
X19.308 Y-11.092
X19.371 Y-10.853
X19.489 Y-10.637
X19.655 Y-10.454
X19.859 Y-10.316
X20.09 Y-10.229
X20.335 Y-10.2
G2 X20.563 Y-10.254 I-0.021 J-0.6 F350
X20.742 Y-11.221 I-0.249 J-0.546 F850
G1 X20.327 Y-11.642
G2 X19.354 Y-11.47 I-0.427 J0.421
X19.3 Y-11.242 I0.546 J0.249 F350
G1 Y-10.839 F850
X19.305 Y-10.738
X19.326 Y-10.638
X19.344 Y-10.587
X19.367 Y-10.537
X19.396 Y-10.487
X19.433 Y-10.436
X19.481 Y-10.383
X19.532 Y-10.339
X19.582 Y-10.302
X19.632 Y-10.271
X19.683 Y-10.247
X19.714 Y-10.235
X19.799 Y-10.212
X19.884 Y-10.201
X20.286 Y-10.2
X23.617
X23.767 Y-10.208
X23.916 Y-10.224
X24.063 Y-10.251
X24.209 Y-10.288
X24.351 Y-10.334
X24.491 Y-10.389
X24.629 Y-10.453
X24.639 Y-10.458
X24.94 Y-10.655
X25.202 Y-10.903
X25.414 Y-11.193
X25.571 Y-11.518
X25.668 Y-11.865
X25.7 Y-12.224
G2 X25.646 Y-12.452 I-0.6 J0.021 F350
X24.685 Y-12.636 I-0.546 J0.249 F850
G1 X23.222 Y-11.233
G2 X23.389 Y-10.254 I0.415 J0.433
X23.617 Y-10.2 I0.249 J-0.546 F350
G1 X24.673 F850
X24.823 Y-10.208
X25.058 Y-10.274
X25.271 Y-10.393
X25.451 Y-10.559
X25.587 Y-10.762
X25.671 Y-10.992
X25.7 Y-11.234
G2 X25.664 Y-11.467 I-0.993 J0.035 F350
X24.451 Y-12.16 I-0.957 J0.267 F850
X24.441 Y-10.236 I0.257 J0.963
X24.673 Y-10.2 I0.267 J-0.961 F350
G1 X25.116 Y-10.201 F850
X25.201 Y-10.212
X25.286 Y-10.235
X25.317 Y-10.247
X25.368 Y-10.271
X25.418 Y-10.302
X25.468 Y-10.339
X25.519 Y-10.383
X25.567 Y-10.436
X25.604 Y-10.487
X25.633 Y-10.537
X25.656 Y-10.587
X25.674 Y-10.638
X25.695 Y-10.738
X25.7 Y-10.839
Y-15.531
X25.692 Y-15.681
X25.673 Y-15.829
X25.642 Y-15.976
X25.6 Y-16.12
X25.547 Y-16.261
X25.486 Y-16.398
X25.417 Y-16.53
X25.338 Y-16.662
X25.25 Y-16.793
X25.149 Y-16.926
X25.035 Y-17.058
X24.91 Y-17.189
X24.775 Y-17.315
X24.63 Y-17.436
X24.472 Y-17.553
X24.303 Y-17.665
X24.122 Y-17.769
X23.932 Y-17.866
X23.732 Y-17.953
X23.525 Y-18.03
X23.31 Y-18.097
X23.088 Y-18.152
X22.859 Y-18.196
X22.624 Y-18.227
X22.385 Y-18.245
X22.141 Y-18.249
X21.894 Y-18.24
X21.646 Y-18.217
X21.397 Y-18.179
X21.148 Y-18.127
X20.925 Y-18.067
X20.698 Y-17.992
X20.483 Y-17.907
X20.463 Y-17.897
X20.135 Y-17.707
X19.849 Y-17.458
X19.616 Y-17.159
X19.442 Y-16.822
X19.336 Y-16.458
X19.3 Y-16.081
Y-14.938
G2 X19.354 Y-14.71 I0.6 J-0.021 F350
X19.968 Y-14.363 I0.546 J-0.249 F850
G1 X25.168 Y-14.956
G2 X25.646 Y-15.303 I-0.068 J-0.596
X25.7 Y-15.531 I-0.546 J-0.249 F350
G1 Y-16.587 F850
X25.692 Y-16.737
X25.671 Y-16.886
X25.636 Y-17.032
X25.589 Y-17.174
X25.532 Y-17.313
X25.466 Y-17.447
X25.391 Y-17.577
X25.309 Y-17.703
X25.214 Y-17.832
X25.105 Y-17.964
X24.984 Y-18.094
X24.852 Y-18.22
X24.706 Y-18.346
X24.545 Y-18.47
X24.37 Y-18.589
X24.184 Y-18.7
X23.987 Y-18.804
X23.776 Y-18.901
X23.552 Y-18.988
X23.315 Y-19.065
X23.068 Y-19.131
X22.813 Y-19.183
X22.551 Y-19.222
X22.284 Y-19.246
X22.013 Y-19.256
X21.753 Y-19.25
X21.521 Y-19.232
X21.267 Y-19.197
X21.057 Y-19.156
X20.85 Y-19.104
X20.635 Y-19.037
X20.595 Y-19.022
X20.283 Y-18.872
X20.002 Y-18.672
X19.76 Y-18.426
X19.563 Y-18.142
X19.418 Y-17.828
X19.33 Y-17.494
X19.3 Y-17.15
Y-16.081
G2 X19.354 Y-15.853 I0.6 J-0.021 F350
X19.958 Y-15.505 I0.546 J-0.249 F850
G1 X25.158 Y-16.011
G2 X25.646 Y-16.359 I-0.058 J-0.597
X25.7 Y-16.587 I-0.546 J-0.249 F350
G1 Y-17.544 F850
X25.692 Y-17.694
X25.673 Y-17.843
X25.639 Y-17.989
X25.594 Y-18.132
X25.537 Y-18.271
X25.471 Y-18.406
X25.397 Y-18.536
X25.313 Y-18.664
X25.219 Y-18.793
X25.11 Y-18.925
X24.985 Y-19.06
X24.85 Y-19.19
X24.7 Y-19.32
X24.532 Y-19.45
X24.348 Y-19.575
X24.153 Y-19.693
X23.944 Y-19.803
X23.719 Y-19.907
X23.479 Y-20.001
X23.231 Y-20.083
X22.973 Y-20.152
X22.71 Y-20.206
X22.444 Y-20.246
X22.175 Y-20.271
X21.927 Y-20.28
X21.681 Y-20.275
X21.441 Y-20.257
X21.234 Y-20.229
X21.007 Y-20.186
X20.811 Y-20.137
X20.622 Y-20.078
X20.599 Y-20.069
X20.287 Y-19.92
X20.005 Y-19.72
X19.761 Y-19.474
X19.564 Y-19.189
X19.419 Y-18.875
X19.33 Y-18.541
X19.3 Y-18.196
Y-17.15
G2 X19.354 Y-16.922 I0.6 J-0.021 F350
X19.945 Y-16.573 I0.546 J-0.249 F850
G1 X25.146 Y-16.967
G2 X25.646 Y-17.316 I-0.045 J-0.598
X25.7 Y-17.544 I-0.546 J-0.249 F350
G1 Y-18.49 F850
X25.692 Y-18.64
X25.676 Y-18.789
X25.644 Y-18.936
X25.6 Y-19.079
X25.546 Y-19.219
X25.482 Y-19.354
X25.409 Y-19.486
X25.328 Y-19.613
X25.233 Y-19.748
X25.123 Y-19.885
X25.002 Y-20.02
X24.864 Y-20.157
X24.709 Y-20.295
X24.54 Y-20.429
X24.359 Y-20.557
X24.16 Y-20.68
X23.945 Y-20.798
X23.717 Y-20.907
X23.478 Y-21.005
X23.23 Y-21.09
X22.976 Y-21.163
X22.716 Y-21.22
X22.452 Y-21.264
X22.187 Y-21.293
X21.942 Y-21.305
X21.706 Y-21.304
X21.465 Y-21.289
X21.262 Y-21.265
X21.039 Y-21.225
X20.84 Y-21.179
X20.657 Y-21.124
X20.626 Y-21.113
X20.308 Y-20.967
X20.02 Y-20.767
X19.772 Y-20.521
X19.57 Y-20.234
X19.422 Y-19.917
X19.331 Y-19.579
X19.3 Y-19.23
Y-18.196
G2 X19.354 Y-17.968 I0.6 J-0.021 F350
X19.933 Y-17.618 I0.546 J-0.249 F850
G1 X25.134 Y-17.912
G2 X25.646 Y-18.262 I-0.034 J-0.599
X25.7 Y-18.49 I-0.546 J-0.249 F350
G1 Y-19.497 F850
X25.692 Y-19.647
X25.672 Y-19.795
X25.639 Y-19.941
X25.593 Y-20.084
X25.538 Y-20.224
X25.473 Y-20.359
X25.399 Y-20.491
X25.315 Y-20.624
X25.217 Y-20.76
X25.103 Y-20.901
X24.977 Y-21.041
X24.837 Y-21.179
X24.68 Y-21.318
X24.505 Y-21.456
X24.317 Y-21.587
X24.117 Y-21.711
X23.901 Y-21.829
X23.672 Y-21.937
X23.432 Y-22.035
X23.183 Y-22.12
X22.929 Y-22.191
X22.669 Y-22.248
X22.407 Y-22.291
X22.144 Y-22.318
X21.913 Y-22.329
X21.665 Y-22.327
X21.44 Y-22.312
X21.237 Y-22.287
X21.014 Y-22.247
X20.825 Y-22.202
X20.636 Y-22.146
X20.62 Y-22.14
X20.304 Y-21.993
X20.017 Y-21.793
X19.77 Y-21.547
X19.569 Y-21.261
X19.421 Y-20.944
X19.331 Y-20.607
X19.3 Y-20.259
Y-19.23
G2 X19.354 Y-19.002 I0.6 J-0.021 F350
X19.93 Y-18.652 I0.546 J-0.249 F850
G1 X25.131 Y-18.918
G2 X25.646 Y-19.269 I-0.031 J-0.599
X25.7 Y-19.497 I-0.546 J-0.249 F350
G1 Y-20.503 F850
X25.692 Y-20.653
X25.672 Y-20.802
X25.637 Y-20.948
X25.591 Y-21.091
X25.535 Y-21.23
X25.471 Y-21.365
X25.396 Y-21.499
X25.312 Y-21.632
X25.212 Y-21.771
X25.098 Y-21.914
X24.971 Y-22.054
X24.829 Y-22.195
X24.67 Y-22.336
X24.495 Y-22.474
X24.308 Y-22.606
X24.106 Y-22.731
X23.888 Y-22.85
X23.659 Y-22.959
X23.418 Y-23.057
X23.17 Y-23.142
X22.917 Y-23.213
X22.657 Y-23.271
X22.397 Y-23.313
X22.135 Y-23.341
X21.905 Y-23.352
X21.661 Y-23.35
X21.436 Y-23.336
X21.234 Y-23.312
X21.013 Y-23.272
X20.823 Y-23.227
X20.636 Y-23.172
X20.623 Y-23.167
X20.305 Y-23.02
X20.018 Y-22.82
X19.771 Y-22.574
X19.57 Y-22.288
X19.421 Y-21.971
X19.331 Y-21.633
X19.3 Y-21.285
Y-20.259
G2 X19.354 Y-20.031 I0.6 J-0.021 F350
X19.928 Y-19.681 I0.546 J-0.249 F850
G1 X25.129 Y-19.925
G2 X25.646 Y-20.276 I-0.028 J-0.599
X25.7 Y-20.503 I-0.546 J-0.249 F350
G1 Y-21.51 F850
X25.692 Y-21.66
X25.672 Y-21.809
X25.638 Y-21.955
X25.592 Y-22.098
X25.537 Y-22.237
X25.472 Y-22.372
X25.398 Y-22.506
X25.314 Y-22.64
X25.215 Y-22.78
X25.1 Y-22.924
X24.974 Y-23.064
X24.832 Y-23.207
X24.672 Y-23.349
X24.498 Y-23.488
X24.311 Y-23.62
X24.109 Y-23.746
X23.891 Y-23.866
X23.663 Y-23.976
X23.423 Y-24.075
X23.175 Y-24.161
X22.922 Y-24.233
X22.664 Y-24.291
X22.404 Y-24.334
X22.143 Y-24.363
X21.913 Y-24.375
X21.67 Y-24.374
X21.445 Y-24.36
X21.244 Y-24.337
X21.022 Y-24.298
X20.832 Y-24.254
X20.646 Y-24.199
X20.63 Y-24.193
X20.311 Y-24.047
X20.022 Y-23.848
X19.773 Y-23.601
X19.571 Y-23.314
X19.422 Y-22.997
X19.331 Y-22.658
X19.3 Y-22.309
Y-21.285
G2 X19.354 Y-21.057 I0.6 J-0.021 F350
X19.926 Y-20.706 I0.546 J-0.249 F850
G1 X25.126 Y-20.932
G2 X25.646 Y-21.282 I-0.026 J-0.599
X25.7 Y-21.51 I-0.546 J-0.249 F350
G1 Y-22.517 F850
X25.692 Y-22.667
X25.673 Y-22.815
X25.639 Y-22.962
X25.595 Y-23.105
X25.54 Y-23.244
X25.476 Y-23.38
X25.403 Y-23.514
X25.319 Y-23.648
X25.22 Y-23.789
X25.107 Y-23.933
X24.982 Y-24.074
X24.84 Y-24.216
X24.681 Y-24.36
X24.508 Y-24.499
X24.322 Y-24.631
X24.121 Y-24.759
X23.904 Y-24.88
X23.676 Y-24.99
X23.437 Y-25.09
X23.189 Y-25.177
X22.938 Y-25.25
X22.68 Y-25.309
X22.42 Y-25.354
X22.16 Y-25.384
X21.93 Y-25.397
X21.687
X21.46 Y-25.384
X21.26 Y-25.362
X21.038 Y-25.324
X20.846 Y-25.28
X20.661 Y-25.227
X20.638 Y-25.219
X20.318 Y-25.074
X20.027 Y-24.875
X19.777 Y-24.628
X19.573 Y-24.34
X19.423 Y-24.022
X19.331 Y-23.682
X19.3 Y-23.332
Y-22.309
G2 X19.354 Y-22.081 I0.6 J-0.021 F350
X19.924 Y-21.73 I0.546 J-0.249 F850
G1 X25.124 Y-21.938
G2 X25.646 Y-22.289 I-0.024 J-0.6
X25.7 Y-22.517 I-0.546 J-0.249 F350
G1 Y-23.524 F850
X25.692 Y-23.673
X25.674 Y-23.822
X25.641 Y-23.969
X25.598 Y-24.112
X25.544 Y-24.252
X25.48 Y-24.388
X25.408 Y-24.522
X25.326 Y-24.656
X25.228 Y-24.797
X25.116 Y-24.941
X24.992 Y-25.082
X24.851 Y-25.225
X24.694 Y-25.369
X24.522 Y-25.508
X24.337 Y-25.642
X24.137 Y-25.77
X23.921 Y-25.891
X23.694 Y-26.003
X23.456 Y-26.104
X23.209 Y-26.192
X22.958 Y-26.266
X22.701 Y-26.327
X22.442 Y-26.373
X22.182 Y-26.404
X21.95 Y-26.418
X21.709 Y-26.42
X21.48 Y-26.408
X21.279 Y-26.387
X21.056 Y-26.35
X20.863 Y-26.307
X20.679 Y-26.255
X20.648 Y-26.244
X20.326 Y-26.1
X20.033 Y-25.901
X19.781 Y-25.654
X19.575 Y-25.366
X19.424 Y-25.047
X19.331 Y-24.706
X19.3 Y-24.354
Y-23.332
G2 X19.354 Y-23.104 I0.6 J-0.021 F350
X19.922 Y-22.753 I0.546 J-0.249 F850
G1 X25.122 Y-22.945
G2 X25.646 Y-23.296 I-0.022 J-0.6
X25.7 Y-23.524 I-0.546 J-0.249 F350
G1 Y-24.53 F850
X25.692 Y-24.68
X25.675 Y-24.829
X25.644 Y-24.976
X25.601 Y-25.12
X25.548 Y-25.26
X25.486 Y-25.396
X25.415 Y-25.53
X25.334 Y-25.664
X25.237 Y-25.804
X25.126 Y-25.949
X25.003 Y-26.09
X24.864 Y-26.233
X24.708 Y-26.377
X24.537 Y-26.517
X24.354 Y-26.651
X24.156 Y-26.779
X23.941 Y-26.902
X23.715 Y-27.014
X23.478 Y-27.116
X23.232 Y-27.206
X22.982 Y-27.282
X22.725 Y-27.344
X22.466 Y-27.391
X22.207 Y-27.423
X21.974 Y-27.439
X21.732 Y-27.442
X21.501 Y-27.432
X21.3 Y-27.411
X21.077 Y-27.376
X20.882 Y-27.334
X20.699 Y-27.283
X20.659 Y-27.27
X20.334 Y-27.126
X20.04 Y-26.928
X19.785 Y-26.681
X19.578 Y-26.392
X19.425 Y-26.071
X19.332 Y-25.729
X19.3 Y-25.375
Y-24.354
G2 X19.354 Y-24.126 I0.6 J-0.021 F350
X19.92 Y-23.775 I0.546 J-0.249 F850
G1 X25.121 Y-23.952
G2 X25.646 Y-24.302 I-0.02 J-0.6
X25.7 Y-24.53 I-0.546 J-0.249 F350
G1 Y-25.537 F850
X25.692 Y-25.687
X25.677 Y-25.836
X25.647 Y-25.983
X25.605 Y-26.127
X25.553 Y-26.268
X25.491 Y-26.405
X25.421 Y-26.538
X25.341 Y-26.672
X25.246 Y-26.812
X25.136 Y-26.956
X25.015 Y-27.097
X24.878 Y-27.24
X24.723 Y-27.384
X24.554 Y-27.525
X24.372 Y-27.659
X24.175 Y-27.789
X23.962 Y-27.912
X23.738 Y-28.025
X23.502 Y-28.128
X23.257 Y-28.219
X23.007 Y-28.296
X22.751 Y-28.36
X22.492 Y-28.409
X22.233 Y-28.442
X21.998 Y-28.46
X21.757 Y-28.464
X21.523 Y-28.455
X21.322 Y-28.436
X21.098 Y-28.402
X20.901 Y-28.36
X20.718 Y-28.311
X20.67 Y-28.294
X20.343 Y-28.152
X20.046 Y-27.954
X19.789 Y-27.707
X19.58 Y-27.417
X19.426 Y-27.096
X19.332 Y-26.752
X19.3 Y-26.396
Y-25.375
G2 X19.354 Y-25.147 I0.6 J-0.021 F350
X19.918 Y-24.796 I0.546 J-0.249 F850
G1 X25.119 Y-24.958
G2 X25.646 Y-25.309 I-0.019 J-0.6
X25.7 Y-25.537 I-0.546 J-0.249 F350
G1 Y-26.605 F850
X25.692 Y-26.754
X25.671 Y-26.903
X25.637 Y-27.049
X25.592 Y-27.192
X25.537 Y-27.331
X25.473 Y-27.467
X25.399 Y-27.602
X25.312 Y-27.741
X25.214 Y-27.879
X25.101 Y-28.022
X24.971 Y-28.168
X24.829 Y-28.311
X24.672 Y-28.451
X24.498 Y-28.59
X24.307 Y-28.726
X24.103 Y-28.854
X23.888 Y-28.974
X23.662 Y-29.083
X23.424 Y-29.181
X23.177 Y-29.268
X22.926 Y-29.34
X22.668 Y-29.399
X22.407 Y-29.443
X22.151 Y-29.471
X21.923 Y-29.484
X21.672
X21.456 Y-29.471
X21.248 Y-29.447
X21.028 Y-29.409
X20.843 Y-29.367
X20.649 Y-29.31
X20.634 Y-29.305
X20.314 Y-29.159
X20.025 Y-28.96
X19.775 Y-28.713
X19.572 Y-28.426
X19.423 Y-28.108
X19.331 Y-27.769
X19.3 Y-27.419
Y-26.396
G2 X19.354 Y-26.168 I0.6 J-0.021 F350
X19.924 Y-25.818 I0.546 J-0.249 F850
G1 X25.124 Y-26.026
G2 X25.646 Y-26.377 I-0.024 J-0.6
X25.7 Y-26.605 I-0.546 J-0.249 F350
G1 Y-27.611 F850
X25.692 Y-27.761
X25.673 Y-27.91
X25.641 Y-28.056
X25.597 Y-28.2
X25.542 Y-28.34
X25.479 Y-28.476
X25.407 Y-28.609
X25.324 Y-28.744
X25.225 Y-28.885
X25.113 Y-29.029
X24.989 Y-29.17
X24.848 Y-29.314
X24.69 Y-29.458
X24.518 Y-29.597
X24.334 Y-29.73
X24.133 Y-29.858
X23.917 Y-29.98
X23.691 Y-30.091
X23.452 Y-30.192
X23.206 Y-30.28
X22.955 Y-30.354
X22.698 Y-30.414
X22.439 Y-30.46
X22.178 Y-30.491
X21.947 Y-30.505
X21.706 Y-30.507
X21.476 Y-30.495
X21.276 Y-30.473
X21.054 Y-30.437
X20.861 Y-30.394
X20.677 Y-30.342
X20.647 Y-30.331
X20.325 Y-30.187
X20.033 Y-29.988
X19.78 Y-29.741
X19.575 Y-29.453
X19.424 Y-29.134
X19.331 Y-28.793
X19.3 Y-28.441
Y-27.419
G2 X19.354 Y-27.191 I0.6 J-0.021 F350
X19.922 Y-26.84 I0.546 J-0.249 F850
G1 X25.123 Y-27.033
G2 X25.646 Y-27.383 I-0.022 J-0.6
X25.7 Y-27.611 I-0.546 J-0.249 F350
G1 Y-28.668 F850
X25.692 Y-28.818
X25.67 Y-28.966
X25.634 Y-29.112
X25.587 Y-29.254
X25.53 Y-29.393
X25.465 Y-29.528
X25.389 Y-29.665
X25.301 Y-29.802
X25.202 Y-29.941
X25.085 Y-30.086
X24.953 Y-30.231
X24.81 Y-30.373
X24.65 Y-30.514
X24.473 Y-30.653
X24.281 Y-30.788
X24.076 Y-30.914
X23.859 Y-31.032
X23.63 Y-31.14
X23.391 Y-31.237
X23.142 Y-31.322
X22.89 Y-31.393
X22.631 Y-31.449
X22.371 Y-31.491
X22.114 Y-31.518
X21.888 Y-31.529
X21.639 Y-31.526
X21.425 Y-31.512
X21.218 Y-31.487
X20.999 Y-31.447
X20.816 Y-31.404
X20.619 Y-31.345
X20.303 Y-31.197
X20.016 Y-30.998
X19.769 Y-30.751
X19.569 Y-30.465
X19.421 Y-30.149
X19.33 Y-29.812
X19.3 Y-29.464
Y-28.441
G2 X19.354 Y-28.213 I0.6 J-0.021 F350
X19.926 Y-27.862 I0.546 J-0.249 F850
G1 X25.127 Y-28.089
G2 X25.646 Y-28.44 I-0.026 J-0.599
X25.7 Y-28.668 I-0.546 J-0.249 F350
G1 Y-29.675 F850
X25.692 Y-29.824
X25.671 Y-29.973
X25.637 Y-30.119
X25.592 Y-30.262
X25.536 Y-30.401
X25.472 Y-30.537
X25.399 Y-30.669
X25.314 Y-30.805
X25.213 Y-30.948
X25.099 Y-31.091
X24.973 Y-31.232
X24.829 Y-31.376
X24.669 Y-31.52
X24.496 Y-31.658
X24.309 Y-31.791
X24.106 Y-31.918
X23.888 Y-32.039
X23.66 Y-32.149
X23.419 Y-32.248
X23.172 Y-32.335
X22.92 Y-32.407
X22.663 Y-32.465
X22.404 Y-32.509
X22.143 Y-32.538
X21.913 Y-32.551
X21.673 Y-32.55
X21.446 Y-32.537
X21.247 Y-32.514
X21.026 Y-32.476
X20.835 Y-32.431
X20.651 Y-32.378
X20.633 Y-32.372
X20.313 Y-32.226
X20.024 Y-32.026
X19.775 Y-31.78
X19.572 Y-31.493
X19.422 Y-31.175
X19.331 Y-30.836
X19.3 Y-30.486
Y-29.464
G2 X19.354 Y-29.236 I0.6 J-0.021 F350
X19.924 Y-28.885 I0.546 J-0.249 F850
G1 X25.125 Y-29.096
G2 X25.646 Y-29.447 I-0.024 J-0.6
X25.7 Y-29.675 I-0.546 J-0.249 F350
G1 Y-30.681 F850
X25.692 Y-30.831
X25.673 Y-30.98
X25.64 Y-31.126
X25.596 Y-31.269
X25.541 Y-31.409
X25.478 Y-31.545
X25.405 Y-31.679
X25.322 Y-31.813
X25.223 Y-31.955
X25.11 Y-32.099
X24.985 Y-32.24
X24.844 Y-32.384
X24.685 Y-32.528
X24.512 Y-32.667
X24.327 Y-32.8
X24.126 Y-32.928
X23.909 Y-33.05
X23.682 Y-33.161
X23.443 Y-33.261
X23.196 Y-33.349
X22.945 Y-33.423
X22.688 Y-33.483
X22.428 Y-33.528
X22.168 Y-33.558
X21.938 Y-33.572
X21.696 Y-33.573
X21.469 Y-33.561
X21.268 Y-33.539
X21.046 Y-33.502
X20.854 Y-33.459
X20.67 Y-33.406
X20.644 Y-33.397
X20.322 Y-33.252
X20.031 Y-33.053
X19.779 Y-32.806
X19.574 Y-32.519
X19.424 Y-32.2
X19.331 Y-31.859
X19.3 Y-31.508
Y-30.486
G2 X19.354 Y-30.258 I0.6 J-0.021 F350
X19.922 Y-29.907 I0.546 J-0.249 F850
G1 X25.123 Y-30.103
G2 X25.646 Y-30.453 I-0.023 J-0.6
X25.7 Y-30.681 I-0.546 J-0.249 F350
G1 Y-31.688 F850
X25.692 Y-31.838
X25.674 Y-31.987
X25.643 Y-32.133
X25.6 Y-32.277
X25.546 Y-32.417
X25.483 Y-32.553
X25.412 Y-32.687
X25.33 Y-32.821
X25.233 Y-32.962
X25.121 Y-33.106
X24.998 Y-33.248
X24.858 Y-33.391
X24.701 Y-33.535
X24.53 Y-33.675
X24.346 Y-33.809
X24.147 Y-33.938
X23.932 Y-34.06
X23.705 Y-34.172
X23.468 Y-34.273
X23.222 Y-34.363
X22.971 Y-34.438
X22.714 Y-34.499
X22.455 Y-34.546
X22.195 Y-34.578
X21.963 Y-34.593
X21.722 Y-34.595
X21.492 Y-34.585
X21.291 Y-34.564
X21.068 Y-34.528
X20.874 Y-34.486
X20.691 Y-34.434
X20.655 Y-34.422
X20.331 Y-34.279
X20.037 Y-34.08
X19.783 Y-33.833
X19.577 Y-33.544
X19.425 Y-33.224
X19.331 Y-32.882
X19.3 Y-32.529
Y-31.508
G2 X19.354 Y-31.28 I0.6 J-0.021 F350
X19.92 Y-30.929 I0.546 J-0.249 F850
G1 X25.121 Y-31.109
G2 X25.646 Y-31.46 I-0.021 J-0.6
X25.7 Y-31.688 I-0.546 J-0.249 F350
G1 Y-32.695 F850
X25.692 Y-32.845
X25.676 Y-32.994
X25.646 Y-33.141
X25.604 Y-33.285
X25.551 Y-33.425
X25.489 Y-33.562
X25.419 Y-33.695
X25.338 Y-33.829
X25.243 Y-33.97
X25.132 Y-34.114
X25.011 Y-34.255
X24.873 Y-34.398
X24.717 Y-34.542
X24.547 Y-34.683
X24.365 Y-34.817
X24.168 Y-34.946
X23.954 Y-35.069
X23.729 Y-35.183
X23.493 Y-35.285
X23.247 Y-35.376
X22.997 Y-35.452
X22.741 Y-35.515
X22.482 Y-35.563
X22.223 Y-35.597
X21.989 Y-35.614
X21.748 Y-35.617
X21.515 Y-35.608
X21.314 Y-35.588
X21.09 Y-35.554
X20.894 Y-35.512
X20.711 Y-35.462
X20.666 Y-35.447
X20.34 Y-35.305
X20.044 Y-35.106
X19.788 Y-34.859
X19.579 Y-34.57
X19.426 Y-34.248
X19.332 Y-33.905
X19.3 Y-33.55
Y-32.529
G2 X19.354 Y-32.301 I0.6 J-0.021 F350
X19.919 Y-31.95 I0.546 J-0.249 F850
G1 X25.119 Y-32.116
G2 X25.646 Y-32.467 I-0.019 J-0.6
X25.7 Y-32.695 I-0.546 J-0.249 F350
G1 Y-33.751 F850
X25.692 Y-33.901
X25.672 Y-34.05
X25.639 Y-34.196
X25.594 Y-34.339
X25.539 Y-34.479
X25.475 Y-34.614
X25.401 Y-34.75
X25.316 Y-34.888
X25.219 Y-35.026
X25.105 Y-35.17
X24.976 Y-35.315
X24.836 Y-35.457
X24.679 Y-35.598
X24.505 Y-35.738
X24.315 Y-35.874
X24.113 Y-36.002
X23.898 Y-36.122
X23.672 Y-36.231
X23.434 Y-36.33
X23.187 Y-36.418
X22.936 Y-36.49
X22.678 Y-36.55
X22.418 Y-36.595
X22.16 Y-36.624
X21.933 Y-36.637
X21.683
X21.464 Y-36.625
X21.258 Y-36.602
X21.037 Y-36.565
X20.851 Y-36.522
X20.659 Y-36.467
X20.639 Y-36.46
X20.318 Y-36.315
X20.028 Y-36.116
X19.777 Y-35.869
X19.573 Y-35.581
X19.423 Y-35.263
X19.331 Y-34.923
X19.3 Y-34.572
Y-33.55
G2 X19.354 Y-33.322 I0.6 J-0.021 F350
X19.923 Y-32.972 I0.546 J-0.249 F850
G1 X25.124 Y-33.173
G2 X25.646 Y-33.523 I-0.023 J-0.6
X25.7 Y-33.751 I-0.546 J-0.249 F350
G1 Y-34.799 F850
X25.692 Y-34.949
X25.67 Y-35.097
X25.634 Y-35.243
X25.587 Y-35.385
X25.531 Y-35.524
X25.465 Y-35.659
X25.389 Y-35.796
X25.302 Y-35.932
X25.202 Y-36.072
X25.085 Y-36.218
X24.955 Y-36.361
X24.812 Y-36.503
X24.652 Y-36.644
X24.474 Y-36.784
X24.283 Y-36.918
X24.079 Y-37.044
X23.862 Y-37.162
X23.633 Y-37.27
X23.393 Y-37.368
X23.145 Y-37.453
X22.892 Y-37.523
X22.634 Y-37.58
X22.374 Y-37.622
X22.115 Y-37.649
X21.889 Y-37.66
X21.642 Y-37.658
X21.425 Y-37.644
X21.22 Y-37.619
X21.001 Y-37.579
X20.816 Y-37.535
X20.62 Y-37.476
X20.303 Y-37.329
X20.017 Y-37.13
X19.77 Y-36.883
X19.569 Y-36.597
X19.421 Y-36.281
X19.33 Y-35.943
X19.3 Y-35.595
Y-34.572
G2 X19.354 Y-34.345 I0.6 J-0.021 F350
X19.926 Y-33.994 I0.546 J-0.249 F850
G1 X25.126 Y-34.22
G2 X25.646 Y-34.571 I-0.026 J-0.599
X25.7 Y-34.799 I-0.546 J-0.249 F350
G1 Y-35.805 F850
X25.692 Y-35.955
X25.671 Y-36.104
X25.637 Y-36.25
X25.592 Y-36.393
X25.536 Y-36.532
X25.472 Y-36.668
X25.399 Y-36.801
X25.314 Y-36.936
X25.213 Y-37.079
X25.1 Y-37.222
X24.974 Y-37.363
X24.83 Y-37.507
X24.67 Y-37.651
X24.497 Y-37.789
X24.31 Y-37.922
X24.107 Y-38.049
X23.889 Y-38.17
X23.661 Y-38.28
X23.42 Y-38.379
X23.396 Y-38.388
X23.18 Y-38.45
X22.96 Y-38.487
X22.736 Y-38.5
G2 X22.508 Y-38.446 I0.021 J0.6 F350
X22.359 Y-37.451 I0.249 J0.546 F850
G1 X24.703 Y-35.377
G2 X25.646 Y-35.578 I0.398 J-0.449
X25.7 Y-35.805 I-0.546 J-0.249 F350
G1 Y-36.812 F850
X25.692 Y-36.962
X25.673 Y-37.111
X25.566 Y-37.436
X25.399 Y-37.735
X25.177 Y-37.996
X24.91 Y-38.21
X24.607 Y-38.369
X24.278 Y-38.467
X23.937 Y-38.5
G2 X23.709 Y-38.446 I0.021 J0.6 F350
X23.549 Y-37.462 I0.249 J0.546 F850
G1 X24.691 Y-36.395
G2 X25.646 Y-36.584 I0.41 J-0.438
X25.7 Y-36.812 I-0.546 J-0.249 F350
G1 Y-37.618 F850
X25.692 Y-37.767
X25.62 Y-38.001
X25.485 Y-38.206
X25.299 Y-38.365
X25.076 Y-38.466
X24.833 Y-38.5
G2 X24.602 Y-38.46 I0.03 J0.865 F350
X24.257 Y-38.253 I0.262 J0.825 F850
X25.447 Y-37.042 I0.595 J0.605
X25.659 Y-37.386 I-0.595 J-0.605
X25.7 Y-37.618 I-0.808 J-0.261 F350
G1 Y-37.819 F850
X25.699 Y-37.92
X25.684 Y-38.02
X25.669 Y-38.071
X25.65 Y-38.121
X25.625 Y-38.171
X25.594 Y-38.222
X25.519 Y-38.313
X25.448 Y-38.377
X25.378 Y-38.423
X25.317 Y-38.453
X25.267 Y-38.471
X25.217 Y-38.485
X25.116 Y-38.499
X24.714 Y-38.5
X21.494
X21.202 Y-38.485
X21.018 Y-38.466
X20.848 Y-38.438
X20.693 Y-38.403
X20.363 Y-38.276
X20.062 Y-38.091
X19.801 Y-37.853
X19.587 Y-37.571
X19.43 Y-37.254
X19.333 Y-36.914
X19.3 Y-36.562
G2 X19.354 Y-36.335 I0.6 J-0.021 F350
X20.285 Y-36.123 I0.546 J-0.249 F850
G1 X21.858 Y-37.44
G2 X21.722 Y-38.446 I-0.385 J-0.46
X21.494 Y-38.5 I-0.249 J0.546 F350
G1 X20.286 F850
X20.137 Y-38.493
X19.912 Y-38.429
X19.709 Y-38.315
X19.538 Y-38.157
X19.408 Y-37.963
X19.327 Y-37.744
X19.3 Y-37.513
G2 X19.337 Y-37.281 I0.953 J-0.033 F350
X20.493 Y-36.623 I0.916 J-0.265 F850
X20.518 Y-38.463 I-0.239 J-0.924
X20.286 Y-38.5 I-0.265 J0.917 F350
G1 X19.884 Y-38.499 F850
X19.783 Y-38.485
X19.733 Y-38.471
X19.683 Y-38.453
X19.622 Y-38.423
X19.552 Y-38.377
X19.481 Y-38.313
X19.406 Y-38.222
X19.375 Y-38.171
X19.35 Y-38.121
X19.331 Y-38.071
X19.316 Y-38.02
X19.301 Y-37.92
X19.3 Y-37.819
Y-35.595
G2 X19.354 Y-35.368 I0.6 J-0.021 F350
G1 X19.393 Y-35.282 Z-7.483
X19.431 Y-35.199 Z-7.461
X19.467 Y-35.12 Z-7.425
X19.5 Y-35.047 Z-7.375
X19.53 Y-34.981 Z-7.314
X19.555 Y-34.926 Z-7.243
X19.575 Y-34.881 Z-7.162
X19.59 Y-34.848 Z-7.075
X19.599 Y-34.828 Z-6.984
X19.602 Y-34.822 Z-6.89
G0 Z5
X20.717 Y-285.346
Z3.1
G1 Z2.5 F350
G2 X21.934 Y-281.607 Z2.336 I1.783 J1.487
X24.771 Y-284.324 Z2.172 I0.565 J-2.249
X21.096 Y-285.697 Z2.009 I-2.268 J0.467
X21.454 Y-281.796 Z1.845 I1.404 J1.838
X24.809 Y-283.81 Z1.681 I1.045 J-2.06
X21.542 Y-285.955 Z1.517 I-2.307 J-0.047
X21.029 Y-282.086 Z1.354 I0.958 J2.096
X24.733 Y-283.302 Z1.19 I1.47 J-1.771
X22.032 Y-286.107 Z1.026 I-2.231 J-0.554
X20.68 Y-282.461 Z0.862 I0.469 J2.248
X24.547 Y-282.825 Z0.699 I1.819 J-1.397
X22.542 Y-286.146 Z0.535 I-2.045 J-1.031
X20.424 Y-282.902 Z0.371 I-0.04 J2.287
X24.261 Y-282.403 Z0.207 I2.075 J-0.955
X23.046 Y-286.072 Z0.043 I-1.76 J-1.453
X20.272 Y-283.388 Z-0.12 I-0.544 J2.213
X23.89 Y-282.056 Z-0.284 I2.227 J-0.47
X23.519 Y-285.888 Z-0.448 I-1.389 J-1.799
X20.232 Y-283.893 Z-0.612 I-1.017 J2.03
X23.453 Y-281.801 Z-0.775 I2.267 J0.034
X23.938 Y-285.606 Z-0.939 I-0.952 J-2.055
X20.304 Y-284.392 Z-1.103 I-1.436 J1.748
X22.972 Y-281.65 Z-1.267 I2.195 J0.534
X24.282 Y-285.239 Z-1.43 I-0.472 J-2.206
X20.485 Y-284.861 Z-1.594 I-1.78 J1.381
X22.471 Y-281.609 Z-1.758 I2.015 J1.003
X24.536 Y-284.806 Z-1.922 I0.028 J-2.247
X20.764 Y-285.277 Z-2.086 I-2.034 J0.949
X21.976 Y-281.679 Z-2.249 I1.736 J1.418
X24.687 Y-284.33 Z-2.413 I0.523 J-2.177
X21.127 Y-285.62 Z-2.577 I-2.185 J0.473
X21.51 Y-281.857 Z-2.741 I1.373 J1.761
X24.729 Y-283.834 Z-2.904 I0.989 J-1.999
X21.555 Y-285.873 Z-3.068 I-2.227 J-0.022
X21.097 Y-282.133 Z-3.232 I0.946 J2.014
X24.66 Y-283.343 Z-3.396 I1.401 J-1.724
X22.027 Y-286.024 Z-3.56 I-2.159 J-0.513
X20.757 Y-282.492 Z-3.723 I0.474 J2.165
X24.485 Y-282.881 Z-3.887 I1.742 J-1.365
X22.518 Y-286.066 Z-4.051 I-1.984 J-0.975
X20.506 Y-282.915 Z-4.215 I-0.017 J2.207
X24.213 Y-282.471 Z-4.378 I1.993 J-0.942
X23.005 Y-285.999 Z-4.542 I-1.712 J-1.385
X20.355 Y-283.382 Z-4.706 I-0.503 J2.14
X23.858 Y-282.133 Z-4.87 I2.144 J-0.476
X23.463 Y-285.826 Z-5.033 I-1.357 J-1.723
X20.312 Y-283.869 Z-5.197 I-0.961 J1.968
X23.439 Y-281.883 Z-5.361 I2.187 J0.011
X23.87 Y-285.558 Z-5.525 I-0.939 J-1.973
X20.377 Y-284.352 Z-5.689 I-1.368 J1.7
X22.976 Y-281.733 Z-5.852 I2.122 J0.493
X24.206 Y-285.207 Z-6.016 I-0.477 J-2.123
X20.547 Y-284.806 Z-6.18 I-1.703 J1.349
X22.494 Y-281.689 Z-6.344 I1.953 J0.947
X24.454 Y-284.792 Z-6.507 I0.005 J-2.167
X20.812 Y-285.21 Z-6.671 I-1.952 J0.935
X22.016 Y-281.752 Z-6.835 I1.688 J1.351
X24.605 Y-284.334 Z-6.999 I0.483 J-2.104
X21.159 Y-285.543 Z-7.162 I-2.102 J0.477
X21.565 Y-281.92 Z-7.326 I1.341 J1.684
X24.649 Y-283.857 Z-7.49 I0.934 J-1.937
X20.349 I-2.15
X24.636 Y-283.62 I2.15
X24.649 Y-283.857 I-2.137 J-0.236
G1 X24.674 Y-284.742 F850
X24.686 Y-284.852
Y-285.002
X24.667 Y-285.151
X24.633 Y-285.297
X24.583 Y-285.439
X24.521 Y-285.575
X24.448 Y-285.706
X24.365 Y-285.831
X24.272 Y-285.949
X24.171 Y-286.06
X24.063 Y-286.164
X23.948 Y-286.26
X23.826 Y-286.348
X23.7 Y-286.428
X23.568 Y-286.501
X23.433 Y-286.565
X23.293 Y-286.621
X23.151 Y-286.668
X23.006 Y-286.707
X22.86 Y-286.738
X22.711 Y-286.76
X22.559 Y-286.775
X22.406 Y-286.78
X22.252 Y-286.777
X22.096 Y-286.766
X21.941 Y-286.745
X21.786 Y-286.716
X21.631 Y-286.677
X21.479 Y-286.63
X21.329 Y-286.574
X21.181 Y-286.509
X21.037 Y-286.436
X20.896 Y-286.354
X20.76 Y-286.265
X20.629 Y-286.167
X20.503 Y-286.062
X20.383 Y-285.95
X20.269 Y-285.831
X20.162 Y-285.705
X20.062 Y-285.574
X19.969 Y-285.436
X19.884 Y-285.294
X19.807 Y-285.146
X19.739 Y-284.995
X19.679 Y-284.839
X19.627 Y-284.681
X19.585 Y-284.519
X19.552 Y-284.355
X19.528 Y-284.19
X19.513 Y-284.023
X19.508 Y-283.855
X19.512 Y-283.688
X19.526 Y-283.521
X19.549 Y-283.354
X19.582 Y-283.189
X19.623 Y-283.027
X19.674 Y-282.867
X19.734 Y-282.709
X19.803 Y-282.556
X19.88 Y-282.406
X19.965 Y-282.261
X20.059 Y-282.121
X20.16 Y-281.987
X20.269 Y-281.858
X20.384 Y-281.736
X20.507 Y-281.62
X20.636 Y-281.512
X20.77 Y-281.41
X20.911 Y-281.317
X21.056 Y-281.232
X21.206 Y-281.154
X21.36 Y-281.086
X21.518 Y-281.026
X21.678 Y-280.975
X21.842 Y-280.934
X22.007 Y-280.901
X22.174 Y-280.878
X22.343 Y-280.865
X22.511 Y-280.861
X22.68 Y-280.866
X22.848 Y-280.881
X23.015 Y-280.905
X23.18 Y-280.939
X23.343 Y-280.982
X23.504 Y-281.034
X23.661 Y-281.095
X23.815 Y-281.165
X23.964 Y-281.243
X24.109 Y-281.33
X24.249 Y-281.424
X24.383 Y-281.526
X24.511 Y-281.636
X24.633 Y-281.753
X24.748 Y-281.876
X24.856 Y-282.006
X24.956 Y-282.142
X25.049 Y-282.283
X25.145 Y-282.449
X25.251 Y-282.659
X25.375 Y-282.941
X25.476 Y-283.213
X25.55 Y-283.453
X25.573 Y-283.545
X25.605 Y-283.701
X25.625 Y-283.86
X25.632 Y-284.02
X25.633 Y-284.463
X25.618 Y-284.785
X25.6 Y-284.952
X25.573 Y-285.119
X25.537 Y-285.285
X25.492 Y-285.448
X25.437 Y-285.606
X25.374 Y-285.762
X25.302 Y-285.917
X25.219 Y-286.068
X25.128 Y-286.216
X25.107 Y-286.246
X24.858 Y-286.538
X24.557 Y-286.777
X24.217 Y-286.954
X23.849 Y-287.063
X23.468 Y-287.1
G2 X23.24 Y-287.046 I0.021 J0.6 F350
X23.012 Y-286.135 I0.249 J0.546 F850
G1 X24.557 Y-284.121
G2 X25.579 Y-284.235 I0.476 J-0.365
X25.633 Y-284.463 I-0.545 J-0.25 F350
G1 X25.637 Y-285.933 F850
X25.63 Y-286.083
X25.558 Y-286.355
X25.423 Y-286.602
X25.234 Y-286.81
X25.001 Y-286.968
X24.738 Y-287.067
X24.458 Y-287.1
G2 X24.225 Y-287.067 I0.039 J1.126 F350
X23.41 Y-285.682 I0.272 J1.093 F850
X25.604 Y-285.701 I1.095 J-0.294
X25.637 Y-285.933 I-1.099 J-0.276 F350
G1 X25.639 Y-286.476 F850
X25.632 Y-286.577
X25.607 Y-286.678
X25.572 Y-286.762
X25.519 Y-286.846
X25.492 Y-286.879
X25.448 Y-286.927
X25.405 Y-286.966
X25.361 Y-286.998
X25.317 Y-287.025
X25.248 Y-287.058
X25.178 Y-287.081
X25.116 Y-287.093
X24.915 Y-287.1
X21.383
X21.233 Y-287.092
X21.084 Y-287.075
X20.937 Y-287.047
X20.792 Y-287.009
X20.649 Y-286.962
X20.628 Y-286.954
X20.323 Y-286.801
X20.048 Y-286.599
X19.811 Y-286.353
X19.62 Y-286.07
X19.479 Y-285.759
X19.393 Y-285.429
X19.365 Y-285.088
G2 X19.42 Y-284.861 I0.6 J-0.023 F350
X20.388 Y-284.686 I0.545 J-0.25 F850
G1 X21.785 Y-286.075
G2 X21.611 Y-287.046 I-0.423 J-0.425
X21.383 Y-287.1 I-0.249 J0.546 F350
G1 X20.377 F850
X20.227 Y-287.092
X19.995 Y-287.028
X19.784 Y-286.911
X19.607 Y-286.747
X19.473 Y-286.547
X19.39 Y-286.32
X19.362 Y-286.081
G2 X19.399 Y-285.849 I0.981 J-0.037 F350
X20.587 Y-285.168 I0.944 J-0.269 F850
X20.609 Y-287.064 I-0.245 J-0.951
X20.377 Y-287.1 I-0.267 J0.945 F350
G1 X20.085 F850
X19.884 Y-287.093
X19.822 Y-287.081
X19.752 Y-287.058
X19.683 Y-287.025
X19.639 Y-286.998
X19.595 Y-286.966
X19.552 Y-286.927
X19.508 Y-286.879
X19.481 Y-286.846
X19.428 Y-286.762
X19.393 Y-286.678
X19.368 Y-286.577
X19.361 Y-286.476
X19.373 Y-282.59
X19.381 Y-282.44
X19.398 Y-282.291
X19.428 Y-282.144
X19.468 Y-282
X19.518 Y-281.858
X19.577 Y-281.72
X19.644 Y-281.586
X19.719 Y-281.456
X19.803 Y-281.327
X19.897 Y-281.199
X20.003 Y-281.072
X20.118 Y-280.948
X20.244 Y-280.826
X20.379 Y-280.71
X20.524 Y-280.6
X20.676 Y-280.496
X20.837 Y-280.399
X21.006 Y-280.31
X21.183 Y-280.229
X21.367 Y-280.158
X21.557 Y-280.096
X21.752 Y-280.044
X21.952 Y-280.003
X22.156 Y-279.973
X22.363 Y-279.954
X22.572 Y-279.947
X22.783 Y-279.952
X22.994 Y-279.968
X23.205 Y-279.997
X23.415 Y-280.038
X23.623 Y-280.09
X23.829 Y-280.155
X24.031 Y-280.231
X24.23 Y-280.319
X24.423 Y-280.418
X24.612 Y-280.528
X24.795 Y-280.65
X24.824 Y-280.671
X25.098 Y-280.919
X25.322 Y-281.213
X25.488 Y-281.543
X25.591 Y-281.899
X25.626 Y-282.267
X25.632 Y-284.02
G2 X25.579 Y-284.248 I-0.6 J0.019 F350
X24.869 Y-284.578 I-0.547 J0.247 F850
G1 X19.809 Y-283.148
G2 X19.426 Y-282.818 I0.163 J0.577
X19.373 Y-282.59 I0.547 J0.247 F350
G1 X19.376 Y-281.534 F850
X19.384 Y-281.384
X19.402 Y-281.235
X19.434 Y-281.088
X19.479 Y-280.945
X19.535 Y-280.806
X19.6 Y-280.671
X19.674 Y-280.54
X19.756 Y-280.415
X19.847 Y-280.291
X19.948 Y-280.17
X20.061 Y-280.049
X20.186 Y-279.928
X20.324 Y-279.81
X20.473 Y-279.696
X20.632 Y-279.589
X20.802 Y-279.487
X20.984 Y-279.391
X21.177 Y-279.303
X21.38 Y-279.224
X21.592 Y-279.155
X21.812 Y-279.097
X22.038 Y-279.051
X22.27 Y-279.017
X22.508 Y-278.996
X22.751 Y-278.988
X22.999 Y-278.993
X23.248 Y-279.013
X23.5 Y-279.048
X23.752 Y-279.097
X23.969 Y-279.152
X24.2 Y-279.225
X24.41 Y-279.304
X24.434 Y-279.315
X24.768 Y-279.503
X25.059 Y-279.751
X25.298 Y-280.05
X25.475 Y-280.389
X25.585 Y-280.756
X25.623 Y-281.137
X25.626 Y-282.267
G2 X25.573 Y-282.495 I-0.6 J0.019 F350
X24.94 Y-282.842 I-0.547 J0.247 F850
G1 X19.89 Y-282.108
G2 X19.429 Y-281.762 I0.086 J0.594
X19.376 Y-281.534 I0.547 J0.247 F350
G1 X19.379 Y-280.527 F850
X19.387 Y-280.377
X19.411 Y-280.229
X19.45 Y-280.084
X19.5 Y-279.943
X19.561 Y-279.806
X19.631 Y-279.673
X19.709 Y-279.545
X19.795 Y-279.422
X19.893 Y-279.298
X20.005 Y-279.172
X20.127 Y-279.049
X20.262 Y-278.927
X20.411 Y-278.807
X20.575 Y-278.69
X20.751 Y-278.578
X20.938 Y-278.474
X21.138 Y-278.377
X21.353 Y-278.288
X21.58 Y-278.207
X21.819 Y-278.138
X22.067 Y-278.081
X22.322 Y-278.037
X22.582 Y-278.007
X22.848 Y-277.992
X23.108 Y-277.991
X23.336 Y-278.004
X23.589 Y-278.032
X23.803 Y-278.068
X24.003 Y-278.114
X24.222 Y-278.177
X24.28 Y-278.197
X24.6 Y-278.342
X24.89 Y-278.54
X25.141 Y-278.787
X25.344 Y-279.073
X25.495 Y-279.39
X25.588 Y-279.729
X25.62 Y-280.079
X25.623 Y-281.137
G2 X25.57 Y-281.365 I-0.6 J0.019 F350
X24.951 Y-281.713 I-0.547 J0.247 F850
G1 X19.907 Y-281.103
G2 X19.432 Y-280.755 I0.072 J0.596
X19.379 Y-280.527 I0.547 J0.247 F350
G1 X19.382 Y-279.631 F850
X19.39 Y-279.481
X19.409 Y-279.332
X19.444 Y-279.186
X19.49 Y-279.044
X19.548 Y-278.905
X19.616 Y-278.771
X19.692 Y-278.642
X19.775 Y-278.517
X19.871 Y-278.391
X19.981 Y-278.26
X20.103 Y-278.133
X20.238 Y-278.006
X20.39 Y-277.878
X20.558 Y-277.753
X20.736 Y-277.635
X20.93 Y-277.521
X21.14 Y-277.414
X21.365 Y-277.314
X21.599 Y-277.226
X21.843 Y-277.15
X22.095 Y-277.086
X22.351 Y-277.037
X22.61 Y-277.002
X22.863 Y-276.982
X23.097 Y-276.977
X23.347 Y-276.985
X23.556 Y-277.004
X23.777 Y-277.037
X23.987 Y-277.08
X24.169 Y-277.129
X24.238 Y-277.151
X24.566 Y-277.292
X24.864 Y-277.489
X25.122 Y-277.736
X25.332 Y-278.025
X25.488 Y-278.346
X25.583 Y-278.691
X25.616 Y-279.046
X25.62 Y-280.079
G2 X25.567 Y-280.307 I-0.6 J0.019 F350
X24.967 Y-280.657 I-0.547 J0.247 F850
G1 X19.928 Y-280.209
G2 X19.435 Y-279.859 I0.053 J0.598
X19.382 Y-279.631 I0.547 J0.247 F350
G1 X19.385 Y-278.665 F850
X19.393 Y-278.515
X19.415 Y-278.367
X19.451 Y-278.221
X19.499 Y-278.079
X19.557 Y-277.941
X19.625 Y-277.807
X19.701 Y-277.678
X19.786 Y-277.549
X19.884 Y-277.419
X19.998 Y-277.284
X20.126 Y-277.15
X20.265 Y-277.018
X20.421 Y-276.886
X20.595 Y-276.756
X20.781 Y-276.632
X20.98 Y-276.515
X21.192 Y-276.406
X21.416 Y-276.306
X21.653 Y-276.216
X21.897 Y-276.139
X22.147 Y-276.076
X22.402 Y-276.026
X22.658 Y-275.99
X22.893 Y-275.971
X23.136 Y-275.965
X23.369 Y-275.973
X23.571 Y-275.991
X23.796 Y-276.023
X23.993 Y-276.064
X24.176 Y-276.112
X24.23 Y-276.129
X24.559 Y-276.27
X24.858 Y-276.466
X25.117 Y-276.713
X25.328 Y-277.003
X25.484 Y-277.325
X25.58 Y-277.669
X25.613 Y-278.026
X25.616 Y-279.046
G2 X25.563 Y-279.274 I-0.6 J0.019 F350
X24.971 Y-279.625 I-0.547 J0.247 F850
G1 X19.939 Y-279.244
G2 X19.438 Y-278.893 I0.045 J0.598
X19.385 Y-278.665 I0.547 J0.247 F350
G1 X19.388 Y-277.708 F850
X19.396 Y-277.558
X19.416 Y-277.41
X19.451 Y-277.264
X19.498 Y-277.121
X19.555 Y-276.982
X19.621 Y-276.848
X19.695 Y-276.718
X19.779 Y-276.589
X19.878 Y-276.453
X19.991 Y-276.316
X20.116 Y-276.181
X20.256 Y-276.045
X20.414 Y-275.909
X20.585 Y-275.777
X20.768 Y-275.652
X20.966 Y-275.531
X21.178 Y-275.419
X21.402 Y-275.316
X21.637 Y-275.223
X21.877 Y-275.144
X22.125 Y-275.077
X22.377 Y-275.025
X22.63 Y-274.986
X22.864 Y-274.964
X23.099 Y-274.956
X23.336 Y-274.96
X23.536 Y-274.975
X23.757 Y-275.005
X23.958 Y-275.043
X24.138 Y-275.088
X24.203 Y-275.108
X24.537 Y-275.246
X24.841 Y-275.441
X25.104 Y-275.689
X25.319 Y-275.979
X25.478 Y-276.304
X25.576 Y-276.652
X25.61 Y-277.012
X25.613 Y-278.026
G2 X25.56 Y-278.254 I-0.6 J0.019 F350
X24.976 Y-278.605 I-0.547 J0.247 F850
G1 X19.95 Y-278.288
G2 X19.441 Y-277.936 I0.038 J0.599
X19.388 Y-277.708 I0.547 J0.247 F350
G1 X19.391 Y-276.701 F850
X19.399 Y-276.552
X19.422 Y-276.403
X19.459 Y-276.258
X19.507 Y-276.116
X19.565 Y-275.977
X19.632 Y-275.843
X19.708 Y-275.711
X19.795 Y-275.579
X19.894 Y-275.444
X20.011 Y-275.304
X20.14 Y-275.165
X20.281 Y-275.029
X20.439 Y-274.894
X20.614 Y-274.76
X20.802 Y-274.632
X21.002 Y-274.512
X21.214 Y-274.401
X21.437 Y-274.299
X21.671 Y-274.208
X21.911 Y-274.13
X22.159 Y-274.065
X22.41 Y-274.013
X22.662 Y-273.976
X22.888 Y-273.956
X23.133 Y-273.948
X23.356 Y-273.953
X23.557 Y-273.969
X23.78 Y-273.999
X23.972 Y-274.037
X24.156 Y-274.083
X24.207 Y-274.1
X24.54 Y-274.238
X24.842 Y-274.435
X25.105 Y-274.682
X25.318 Y-274.972
X25.476 Y-275.296
X25.574 Y-275.643
X25.607 Y-276.001
X25.61 Y-277.012
G2 X25.557 Y-277.24 I-0.6 J0.019 F350
X24.973 Y-277.592 I-0.547 J0.247 F850
G1 X19.953 Y-277.281
G2 X19.444 Y-276.929 I0.037 J0.599
X19.391 Y-276.701 I0.547 J0.247 F350
G1 X19.394 Y-275.695 F850
X19.402 Y-275.545
X19.426 Y-275.397
X19.464 Y-275.252
X19.512 Y-275.11
X19.571 Y-274.971
X19.638 Y-274.837
X19.715 Y-274.704
X19.802 Y-274.572
X19.904 Y-274.435
X20.021 Y-274.294
X20.15 Y-274.156
X20.292 Y-274.019
X20.452 Y-273.883
X20.628 Y-273.749
X20.816 Y-273.621
X21.017 Y-273.502
X21.228 Y-273.391
X21.453 Y-273.289
X21.687 Y-273.198
X21.926 Y-273.121
X22.174 Y-273.056
X22.424 Y-273.005
X22.675 Y-272.968
X22.899 Y-272.948
X23.143 Y-272.941
X23.365 Y-272.946
X23.564 Y-272.962
X23.786 Y-272.993
X23.978 Y-273.031
X24.161 Y-273.077
X24.207 Y-273.092
X24.539 Y-273.231
X24.841 Y-273.427
X25.103 Y-273.674
X25.316 Y-273.964
X25.473 Y-274.288
X25.571 Y-274.635
X25.604 Y-274.993
X25.607 Y-276.001
G2 X25.554 Y-276.229 I-0.6 J0.019 F350
X24.971 Y-276.581 I-0.547 J0.247 F850
G1 X19.957 Y-276.274
G2 X19.447 Y-275.923 I0.037 J0.599
X19.394 Y-275.695 I0.547 J0.247 F350
G1 X19.397 Y-274.738 F850
X19.405 Y-274.588
X19.424 Y-274.439
X19.457 Y-274.293
X19.503 Y-274.15
X19.558 Y-274.01
X19.622 Y-273.875
X19.695 Y-273.744
X19.779 Y-273.611
X19.878 Y-273.472
X19.988 Y-273.335
X20.111 Y-273.197
X20.251 Y-273.058
X20.407 Y-272.919
X20.575 Y-272.786
X20.757 Y-272.658
X20.954 Y-272.535
X21.163 Y-272.42
X21.385 Y-272.314
X21.617 Y-272.22
X21.854 Y-272.138
X22.098 Y-272.069
X22.347 Y-272.013
X22.597 Y-271.972
X22.829 Y-271.947
X23.059 Y-271.935
X23.296 Y-271.937
X23.495 Y-271.949
X23.713 Y-271.975
X23.916 Y-272.011
X24.095 Y-272.053
X24.168 Y-272.074
X24.507 Y-272.21
X24.816 Y-272.404
X25.085 Y-272.652
X25.304 Y-272.944
X25.466 Y-273.271
X25.567 Y-273.623
X25.601 Y-273.986
X25.604 Y-274.993
G2 X25.551 Y-275.221 I-0.6 J0.019 F350
X24.974 Y-275.573 I-0.547 J0.247 F850
G1 X19.966 Y-275.318
G2 X19.45 Y-274.966 I0.031 J0.599
X19.397 Y-274.738 I0.547 J0.247 F350
G1 X19.4 Y-273.731 F850
X19.408 Y-273.581
X19.428 Y-273.433
X19.461 Y-273.286
X19.507 Y-273.143
X19.562 Y-273.004
X19.627 Y-272.869
X19.7 Y-272.736
X19.784 Y-272.604
X19.881 Y-272.468
X19.994 Y-272.327
X20.119 Y-272.188
X20.257 Y-272.051
X20.411 Y-271.913
X20.583 Y-271.778
X20.767 Y-271.648
X20.963 Y-271.526
X21.171 Y-271.412
X21.39 Y-271.308
X21.621 Y-271.214
X21.857 Y-271.132
X22.101 Y-271.063
X22.35 Y-271.008
X22.6 Y-270.967
X22.826 Y-270.943
X23.069 Y-270.93
X23.295 Y-270.932
X23.494 Y-270.944
X23.717 Y-270.971
X23.914 Y-271.006
X24.095 Y-271.048
X24.166 Y-271.069
X24.505 Y-271.205
X24.814 Y-271.399
X25.082 Y-271.647
X25.301 Y-271.939
X25.464 Y-272.266
X25.564 Y-272.617
X25.598 Y-272.981
X25.601 Y-273.986
G2 X25.548 Y-274.214 I-0.6 J0.019 F350
X24.971 Y-274.566 I-0.547 J0.247 F850
G1 X19.969 Y-274.311
G2 X19.453 Y-273.959 I0.031 J0.599
X19.4 Y-273.731 I0.547 J0.247 F350
G1 X19.403 Y-272.724 F850
X19.411 Y-272.575
X19.431 Y-272.426
X19.465 Y-272.28
X19.51 Y-272.137
X19.566 Y-271.997
X19.631 Y-271.862
X19.704 Y-271.729
X19.788 Y-271.597
X19.885 Y-271.461
X19.998 Y-271.321
X20.123 Y-271.181
X20.261 Y-271.044
X20.415 Y-270.907
X20.586 Y-270.772
X20.77 Y-270.642
X20.966 Y-270.52
X21.173 Y-270.407
X21.393 Y-270.302
X21.623 Y-270.208
X21.859 Y-270.127
X22.104 Y-270.058
X22.352 Y-270.003
X22.601 Y-269.962
X22.826 Y-269.938
X23.069 Y-269.926
X23.295 Y-269.927
X23.494 Y-269.94
X23.717 Y-269.967
X23.913 Y-270.001
X24.093 Y-270.044
X24.163 Y-270.065
X24.502 Y-270.2
X24.811 Y-270.395
X25.08 Y-270.642
X25.298 Y-270.934
X25.461 Y-271.262
X25.56 Y-271.613
X25.595 Y-271.976
X25.598 Y-272.981
G2 X25.545 Y-273.209 I-0.6 J0.019 F350
X24.967 Y-273.561 I-0.547 J0.247 F850
G1 X19.972 Y-273.304
G2 X19.456 Y-272.952 I0.031 J0.599
X19.403 Y-272.724 I0.547 J0.247 F350
G1 X19.406 Y-271.718 F850
X19.414 Y-271.568
X19.434 Y-271.419
X19.468 Y-271.273
X19.514 Y-271.13
X19.569 Y-270.991
X19.634 Y-270.856
X19.708 Y-270.723
X19.791 Y-270.591
X19.888 Y-270.455
X20.001 Y-270.314
X20.127 Y-270.175
X20.264 Y-270.038
X20.419 Y-269.901
X20.59 Y-269.766
X20.774 Y-269.636
X20.97 Y-269.515
X21.177 Y-269.402
X21.397 Y-269.297
X21.627 Y-269.203
X21.863 Y-269.122
X22.107 Y-269.054
X22.354 Y-268.999
X22.603 Y-268.958
X22.828 Y-268.934
X23.07 Y-268.922
X23.296 Y-268.924
X23.494 Y-268.936
X23.717 Y-268.963
X23.912 Y-268.998
X24.093 Y-269.041
X24.161 Y-269.061
X24.5 Y-269.196
X24.809 Y-269.391
X25.077 Y-269.638
X25.296 Y-269.931
X25.458 Y-270.258
X25.557 Y-270.609
X25.592 Y-270.972
X25.595 Y-271.976
G2 X25.542 Y-272.204 I-0.6 J0.019 F350
X24.964 Y-272.556 I-0.547 J0.247 F850
G1 X19.975 Y-272.298
G2 X19.459 Y-271.946 I0.031 J0.599
X19.406 Y-271.718 I0.547 J0.247 F350
G1 X19.409 Y-270.711 F850
X19.417 Y-270.561
X19.437 Y-270.413
X19.471 Y-270.266
X19.517 Y-270.124
X19.573 Y-269.984
X19.638 Y-269.849
X19.711 Y-269.716
X19.795 Y-269.584
X19.892 Y-269.448
X20.005 Y-269.308
X20.131 Y-269.168
X20.269 Y-269.032
X20.423 Y-268.895
X20.594 Y-268.76
X20.779 Y-268.631
X20.974 Y-268.509
X21.181 Y-268.396
X21.401 Y-268.292
X21.63 Y-268.199
X21.866 Y-268.118
X22.11 Y-268.049
X22.357 Y-267.995
X22.606 Y-267.954
X22.83 Y-267.931
X23.072 Y-267.919
X23.297 Y-267.92
X23.495 Y-267.933
X23.718 Y-267.96
X23.912 Y-267.995
X24.093 Y-268.038
X24.161 Y-268.058
X24.499 Y-268.193
X24.807 Y-268.388
X25.075 Y-268.635
X25.293 Y-268.927
X25.455 Y-269.253
X25.554 Y-269.604
X25.589 Y-269.966
X25.592 Y-270.972
G2 X25.539 Y-271.2 I-0.6 J0.019 F350
X24.961 Y-271.552 I-0.547 J0.247 F850
G1 X19.977 Y-271.291
G2 X19.462 Y-270.939 I0.031 J0.599
X19.409 Y-270.711 I0.547 J0.247 F350
G1 X19.412 Y-269.704 F850
X19.42 Y-269.554
X19.441 Y-269.406
X19.475 Y-269.26
X19.521 Y-269.117
X19.576 Y-268.978
X19.641 Y-268.842
X19.715 Y-268.71
X19.799 Y-268.578
X19.897 Y-268.442
X20.01 Y-268.302
X20.135 Y-268.162
X20.273 Y-268.026
X20.428 Y-267.889
X20.599 Y-267.754
X20.783 Y-267.625
X20.979 Y-267.504
X21.186 Y-267.391
X21.405 Y-267.287
X21.635 Y-267.194
X21.87 Y-267.114
X22.114 Y-267.045
X22.361 Y-266.991
X22.609 Y-266.951
X22.833 Y-266.927
X23.075 Y-266.916
X23.299 Y-266.918
X23.497 Y-266.931
X23.72 Y-266.958
X23.914 Y-266.992
X24.095 Y-267.036
X24.163 Y-267.056
X24.5 Y-267.191
X24.807 Y-267.385
X25.074 Y-267.632
X25.291 Y-267.923
X25.452 Y-268.249
X25.552 Y-268.598
X25.586 Y-268.96
X25.589 Y-269.966
G2 X25.536 Y-270.194 I-0.6 J0.019 F350
X24.958 Y-270.546 I-0.547 J0.247 F850
G1 X19.98 Y-270.284
G2 X19.465 Y-269.932 I0.032 J0.599
X19.412 Y-269.704 I0.547 J0.247 F350
G1 X19.415 Y-268.697 F850
X19.423 Y-268.548
X19.444 Y-268.399
X19.478 Y-268.253
X19.524 Y-268.11
X19.58 Y-267.971
X19.645 Y-267.836
X19.719 Y-267.703
X19.804 Y-267.571
X19.901 Y-267.436
X20.014 Y-267.295
X20.14 Y-267.156
X20.278 Y-267.02
X20.433 Y-266.883
X20.604 Y-266.749
X20.789 Y-266.62
X20.984 Y-266.499
X21.191 Y-266.386
X21.411 Y-266.283
X21.64 Y-266.19
X21.875 Y-266.11
X22.119 Y-266.042
X22.366 Y-265.988
X22.614 Y-265.948
X22.837 Y-265.925
X23.079 Y-265.913
X23.303 Y-265.915
X23.501 Y-265.928
X23.723 Y-265.956
X23.917 Y-265.991
X24.098 Y-266.034
X24.165 Y-266.054
X24.501 Y-266.189
X24.807 Y-266.383
X25.073 Y-266.629
X25.289 Y-266.919
X25.45 Y-267.244
X25.549 Y-267.592
X25.583 Y-267.953
X25.586 Y-268.96
G2 X25.533 Y-269.188 I-0.6 J0.019 F350
X24.954 Y-269.54 I-0.547 J0.247 F850
G1 X19.983 Y-269.277
G2 X19.468 Y-268.926 I0.032 J0.599
X19.415 Y-268.697 I0.547 J0.247 F350
G1 X19.418 Y-267.691 F850
X19.426 Y-267.541
X19.447 Y-267.392
X19.482 Y-267.247
X19.528 Y-267.104
X19.584 Y-266.965
X19.649 Y-266.83
X19.724 Y-266.697
X19.808 Y-266.565
X19.906 Y-266.429
X20.019 Y-266.289
X20.145 Y-266.15
X20.284 Y-266.014
X20.438 Y-265.878
X20.61 Y-265.743
X20.794 Y-265.614
X20.991 Y-265.493
X21.197 Y-265.382
X21.417 Y-265.278
X21.646 Y-265.186
X21.881 Y-265.106
X22.125 Y-265.038
X22.372 Y-264.984
X22.62 Y-264.945
X22.843 Y-264.922
X23.085 Y-264.911
X23.307 Y-264.913
X23.506 Y-264.927
X23.727 Y-264.954
X23.92 Y-264.989
X24.101 Y-265.033
X24.167 Y-265.053
X24.502 Y-265.188
X24.807 Y-265.381
X25.072 Y-265.627
X25.287 Y-265.916
X25.447 Y-266.24
X25.546 Y-266.587
X25.58 Y-266.946
X25.583 Y-267.953
G2 X25.53 Y-268.181 I-0.6 J0.019 F350
X24.951 Y-268.533 I-0.547 J0.247 F850
G1 X19.986 Y-268.271
G2 X19.471 Y-267.919 I0.032 J0.599
X19.418 Y-267.691 I0.547 J0.247 F350
G1 X19.421 Y-266.684 F850
X19.429 Y-266.534
X19.451 Y-266.386
X19.486 Y-266.24
X19.532 Y-266.097
X19.588 Y-265.958
X19.654 Y-265.823
X19.728 Y-265.691
X19.813 Y-265.559
X19.911 Y-265.423
X20.025 Y-265.283
X20.151 Y-265.144
X20.289 Y-265.008
X20.444 Y-264.872
X20.616 Y-264.737
X20.801 Y-264.609
X20.997 Y-264.488
X21.204 Y-264.377
X21.424 Y-264.273
X21.653 Y-264.181
X21.889 Y-264.102
X22.132 Y-264.035
X22.379 Y-263.981
X22.626 Y-263.942
X22.849 Y-263.919
X23.091 Y-263.909
X23.313 Y-263.911
X23.511 Y-263.925
X23.732 Y-263.953
X23.925 Y-263.988
X24.106 Y-264.032
X24.171 Y-264.051
X24.504 Y-264.186
X24.807 Y-264.379
X25.071 Y-264.624
X25.286 Y-264.913
X25.445 Y-265.235
X25.543 Y-265.581
X25.577 Y-265.94
X25.58 Y-266.946
G2 X25.527 Y-267.174 I-0.6 J0.019 F350
X24.948 Y-267.526 I-0.547 J0.247 F850
G1 X19.989 Y-267.264
G2 X19.474 Y-266.912 I0.032 J0.599
X19.421 Y-266.684 I0.547 J0.247 F350
G1 X19.424 Y-265.677 F850
X19.432 Y-265.528
X19.454 Y-265.379
X19.489 Y-265.233
X19.536 Y-265.091
X19.592 Y-264.952
X19.658 Y-264.817
X19.733 Y-264.684
X19.818 Y-264.552
X19.916 Y-264.417
X20.03 Y-264.276
X20.157 Y-264.138
X20.296 Y-264.002
X20.451 Y-263.866
X20.623 Y-263.732
X20.808 Y-263.603
X21.005 Y-263.483
X21.212 Y-263.372
X21.432 Y-263.269
X21.661 Y-263.177
X21.896 Y-263.098
X22.14 Y-263.031
X22.386 Y-262.978
X22.634 Y-262.939
X22.856 Y-262.917
X23.098 Y-262.907
X23.319 Y-262.91
X23.517 Y-262.924
X23.738 Y-262.952
X23.929 Y-262.987
X24.111 Y-263.031
X24.156 Y-263.045
X24.492 Y-263.182
X24.798 Y-263.377
X25.064 Y-263.624
X25.28 Y-263.916
X25.441 Y-264.241
X25.539 Y-264.591
X25.574 Y-264.952
X25.577 Y-265.94
G2 X25.524 Y-266.168 I-0.6 J0.019 F350
X24.945 Y-266.52 I-0.547 J0.247 F850
G1 X19.992 Y-266.257
G2 X19.477 Y-265.905 I0.032 J0.599
X19.424 Y-265.677 I0.547 J0.247 F350
G1 X19.427 Y-264.671 F850
X19.435 Y-264.521
X19.458 Y-264.372
X19.493 Y-264.227
X19.54 Y-264.084
X19.597 Y-263.945
X19.663 Y-263.811
X19.738 Y-263.678
X19.823 Y-263.546
X19.922 Y-263.41
X20.036 Y-263.27
X20.163 Y-263.131
X20.302 Y-262.995
X20.458 Y-262.86
X20.63 Y-262.726
X20.816 Y-262.598
X21.013 Y-262.478
X21.22 Y-262.367
X21.44 Y-262.264
X21.669 Y-262.173
X21.905 Y-262.094
X22.148 Y-262.028
X22.394 Y-261.975
X22.641 Y-261.937
X22.86 Y-261.915
X23.101 Y-261.906
X23.319 Y-261.909
X23.516 Y-261.923
X23.736 Y-261.951
X23.926 Y-261.987
X24.108 Y-262.031
X24.156 Y-262.046
X24.491 Y-262.183
X24.797 Y-262.378
X25.062 Y-262.626
X25.278 Y-262.917
X25.438 Y-263.242
X25.537 Y-263.591
X25.571 Y-263.952
X25.574 Y-264.952
G2 X25.521 Y-265.18 I-0.6 J0.019 F350
X24.94 Y-265.532 I-0.547 J0.247 F850
G1 X19.993 Y-265.251
G2 X19.48 Y-264.899 I0.034 J0.599
X19.427 Y-264.671 I0.547 J0.247 F350
G1 X19.43 Y-263.664 F850
X19.438 Y-263.514
X19.461 Y-263.366
X19.497 Y-263.22
X19.544 Y-263.078
X19.601 Y-262.939
X19.667 Y-262.805
X19.743 Y-262.672
X19.828 Y-262.54
X19.927 Y-262.404
X20.042 Y-262.264
X20.17 Y-262.125
X20.309 Y-261.989
X20.465 Y-261.854
X20.638 Y-261.72
X20.824 Y-261.592
X21.021 Y-261.472
X21.228 Y-261.362
X21.448 Y-261.26
X21.676 Y-261.169
X21.911 Y-261.091
X22.154 Y-261.026
X22.399 Y-260.974
X22.646 Y-260.936
X22.864 Y-260.915
X23.105 Y-260.906
X23.322 Y-260.909
X23.52 Y-260.924
X23.739 Y-260.952
X23.929 Y-260.988
X24.11 Y-261.033
X24.156 Y-261.047
X24.491 Y-261.184
X24.796 Y-261.38
X25.06 Y-261.627
X25.276 Y-261.918
X25.435 Y-262.243
X25.534 Y-262.592
X25.567 Y-262.952
X25.571 Y-263.952
G2 X25.518 Y-264.18 I-0.6 J0.019 F350
X24.936 Y-264.532 I-0.547 J0.247 F850
G1 X19.995 Y-264.244
G2 X19.483 Y-263.892 I0.035 J0.599
X19.43 Y-263.664 I0.547 J0.247 F350
G1 X19.433 Y-262.718 F850
X19.441 Y-262.568
X19.458 Y-262.419
X19.488 Y-262.272
X19.531 Y-262.129
X19.585 Y-261.989
X19.648 Y-261.852
X19.719 Y-261.72
X19.799 Y-261.589
X19.895 Y-261.452
X20.002 Y-261.315
X20.122 Y-261.178
X20.258 Y-261.04
X20.41 Y-260.902
X20.574 Y-260.769
X20.751 Y-260.642
X20.943 Y-260.519
X21.148 Y-260.404
X21.43 Y-260.292
X21.726 Y-260.223
X22.028 Y-260.2
G2 X22.256 Y-260.254 I-0.021 J-0.6 F350
X22.423 Y-261.232 I-0.249 J-0.546 F850
G1 X20.449 Y-263.131
G2 X19.486 Y-262.946 I-0.416 J0.432
X19.433 Y-262.718 I0.547 J0.247 F350
G1 X19.436 Y-261.711 F850
X19.444 Y-261.562
X19.514 Y-261.25
X19.646 Y-260.959
X19.836 Y-260.702
X20.074 Y-260.49
X20.351 Y-260.331
X20.655 Y-260.233
X20.973 Y-260.2
G2 X21.201 Y-260.254 I-0.021 J-0.6 F350
X21.371 Y-261.229 I-0.249 J-0.546 F850
G1 X20.455 Y-262.122
G2 X19.489 Y-261.939 I-0.419 J0.43
X19.436 Y-261.711 I0.547 J0.247 F350
G1 X19.439 Y-260.947 F850
Y-260.906
Y-260.876
X19.447 Y-260.726
X19.466 Y-260.658
X19.482 Y-260.605
X19.502 Y-260.554
X19.525 Y-260.503
G2 X19.693 Y-260.34 I0.533 J-0.381 F350
X20.206 Y-260.246 I0.365 J-0.544 F850
X19.938 Y-261.469 I-0.141 J-0.61
X19.49 Y-261.104 I0.127 J0.613
X19.439 Y-260.876 I0.575 J0.248 F350
G1 Y-260.805 F850
X19.449 Y-260.705
X19.462 Y-260.648
X19.481 Y-260.591
X19.525 Y-260.503
X19.554 Y-260.46
X19.589 Y-260.416
X19.636 Y-260.368
X19.683 Y-260.329
X19.72 Y-260.302
X19.802 Y-260.256
X19.884 Y-260.225
X19.984 Y-260.204
X20.085 Y-260.2
X23.707
X23.87 Y-260.208
X24.019 Y-260.224
X24.376 Y-260.321
X24.707 Y-260.488
X24.998 Y-260.717
X25.237 Y-260.999
X25.416 Y-261.323
X25.527 Y-261.677
X25.565 Y-262.045
G2 X25.512 Y-262.273 I-0.6 J0.019 F350
X24.543 Y-262.452 I-0.547 J0.247 F850
G1 X23.306 Y-261.226
G2 X23.48 Y-260.254 I0.422 J0.426
X23.707 Y-260.2 I0.249 J-0.546 F350
G1 X24.623 F850
X24.773 Y-260.207
X25.024 Y-260.282
X25.244 Y-260.424
X25.415 Y-260.622
X25.524 Y-260.86
X25.562 Y-261.119
G2 X25.524 Y-261.351 I-0.92 J0.029 F350
X25.3 Y-261.733 I-0.883 J0.261 F850
X23.984 Y-260.498 I-0.645 J0.631
X24.391 Y-260.239 I0.671 J-0.604
X24.623 Y-260.2 I0.263 J-0.863 F350
G1 X24.915 F850
X25.016 Y-260.204
X25.116 Y-260.225
X25.198 Y-260.256
X25.28 Y-260.302
X25.317 Y-260.329
X25.364 Y-260.368
X25.411 Y-260.416
X25.446 Y-260.46
X25.475 Y-260.503
X25.519 Y-260.591
X25.538 Y-260.648
X25.551 Y-260.705
X25.561 Y-260.805
X25.567 Y-262.952
X25.556 Y-263.006 Z-7.483 F350
X25.545 Y-263.057 Z-7.464
X25.535 Y-263.102 Z-7.433
X25.527 Y-263.138 Z-7.392
X25.521 Y-263.164 Z-7.343
X25.516 Y-263.176 Z-7.3
X25.515 Y-263.18 Z-7.254
G0 Z5
X20.717 Y-14.944
Z-4.39
G1 Z-4.99 F350
G2 X21.934 Y-11.205 Z-5.154 I1.783 J1.487
X24.771 Y-13.921 Z-5.318 I0.565 J-2.249
X21.096 Y-15.295 Z-5.481 I-2.268 J0.467
X21.454 Y-11.394 Z-5.645 I1.404 J1.838
X24.809 Y-13.407 Z-5.809 I1.045 J-2.06
X21.542 Y-15.552 Z-5.973 I-2.307 J-0.047
X21.029 Y-11.683 Z-6.136 I0.958 J2.096
X24.733 Y-12.899 Z-6.3 I1.47 J-1.771
X22.032 Y-15.704 Z-6.464 I-2.231 J-0.554
X20.68 Y-12.058 Z-6.628 I0.469 J2.248
X24.547 Y-12.423 Z-6.791 I1.819 J-1.397
X22.542 Y-15.743 Z-6.955 I-2.045 J-1.031
X20.424 Y-12.5 Z-7.119 I-0.04 J2.287
X24.261 Y-12.001 Z-7.283 I2.075 J-0.955
X23.046 Y-15.669 Z-7.447 I-1.76 J-1.453
X20.272 Y-12.985 Z-7.61 I-0.544 J2.213
X23.89 Y-11.654 Z-7.774 I2.227 J-0.47
X23.519 Y-15.486 Z-7.938 I-1.389 J-1.799
X20.232 Y-13.49 Z-8.102 I-1.017 J2.03
X23.453 Y-11.399 Z-8.265 I2.267 J0.034
X23.938 Y-15.203 Z-8.429 I-0.952 J-2.055
X20.304 Y-13.99 Z-8.593 I-1.436 J1.748
X22.972 Y-11.247 Z-8.757 I2.195 J0.534
X24.282 Y-14.836 Z-8.92 I-0.472 J-2.206
X20.485 Y-14.459 Z-9.084 I-1.78 J1.381
X22.471 Y-11.206 Z-9.248 I2.015 J1.003
X24.536 Y-14.404 Z-9.412 I0.028 J-2.247
X20.764 Y-14.875 Z-9.576 I-2.034 J0.949
X21.976 Y-11.277 Z-9.739 I1.736 J1.418
X24.687 Y-13.927 Z-9.903 I0.523 J-2.177
X21.127 Y-15.217 Z-10.067 I-2.185 J0.473
X21.51 Y-11.455 Z-10.231 I1.373 J1.761
X24.729 Y-13.431 Z-10.394 I0.989 J-1.999
X21.555 Y-15.47 Z-10.558 I-2.227 J-0.023
X21.097 Y-11.73 Z-10.722 I0.946 J2.014
X24.66 Y-12.94 Z-10.886 I1.401 J-1.724
X22.027 Y-15.621 Z-11.05 I-2.159 J-0.513
X20.757 Y-12.089 Z-11.213 I0.474 J2.165
X24.485 Y-12.479 Z-11.377 I1.742 J-1.365
X22.518 Y-15.664 Z-11.541 I-1.984 J-0.975
X20.506 Y-12.513 Z-11.705 I-0.017 J2.207
X24.213 Y-12.069 Z-11.868 I1.993 J-0.942
X23.005 Y-15.597 Z-12.032 I-1.712 J-1.384
X20.355 Y-12.98 Z-12.196 I-0.503 J2.14
X23.858 Y-11.731 Z-12.36 I2.144 J-0.476
X23.463 Y-15.424 Z-12.523 I-1.357 J-1.723
X20.312 Y-13.467 Z-12.687 I-0.961 J1.968
X23.439 Y-11.481 Z-12.851 I2.187 J0.011
X23.87 Y-15.155 Z-13.015 I-0.939 J-1.973
X20.377 Y-13.949 Z-13.179 I-1.368 J1.7
X22.976 Y-11.33 Z-13.342 I2.122 J0.493
X24.206 Y-14.804 Z-13.506 I-0.477 J-2.123
X20.547 Y-14.404 Z-13.67 I-1.703 J1.349
X22.494 Y-11.286 Z-13.834 I1.953 J0.947
X24.454 Y-14.39 Z-13.997 I0.005 J-2.167
X20.812 Y-14.807 Z-14.161 I-1.952 J0.935
X22.016 Y-11.35 Z-14.325 I1.688 J1.351
X24.605 Y-13.932 Z-14.489 I0.483 J-2.104
X21.159 Y-15.141 Z-14.652 I-2.102 J0.477
X21.565 Y-11.517 Z-14.816 I1.341 J1.684
X24.649 Y-13.454 Z-14.98 I0.934 J-1.937
X20.349 I-2.15
X24.636 Y-13.218 I2.15
X24.649 Y-13.454 I-2.137 J-0.236
G1 X24.674 Y-14.34 F850
X24.686 Y-14.45
Y-14.6
X24.667 Y-14.749
X24.633 Y-14.895
X24.583 Y-15.036
X24.521 Y-15.173
X24.448 Y-15.304
X24.365 Y-15.429
X24.272 Y-15.547
X24.171 Y-15.657
X24.063 Y-15.761
X23.948 Y-15.857
X23.826 Y-15.945
X23.7 Y-16.026
X23.568 Y-16.098
X23.433 Y-16.162
X23.293 Y-16.218
X23.151 Y-16.266
X23.006 Y-16.305
X22.86 Y-16.335
X22.711 Y-16.358
X22.559 Y-16.372
X22.406 Y-16.378
X22.252 Y-16.375
X22.096 Y-16.363
X21.941 Y-16.343
X21.786 Y-16.313
X21.631 Y-16.275
X21.479 Y-16.227
X21.329 Y-16.171
X21.181 Y-16.106
X21.037 Y-16.033
X20.896 Y-15.952
X20.76 Y-15.862
X20.629 Y-15.765
X20.503 Y-15.66
X20.383 Y-15.547
X20.269 Y-15.428
X20.162 Y-15.303
X20.062 Y-15.171
X19.969 Y-15.034
X19.884 Y-14.891
X19.807 Y-14.744
X19.739 Y-14.592
X19.679 Y-14.437
X19.627 Y-14.278
X19.585 Y-14.117
X19.552 Y-13.953
X19.528 Y-13.787
X19.513 Y-13.62
X19.508 Y-13.453
X19.512 Y-13.285
X19.526 Y-13.118
X19.549 Y-12.952
X19.582 Y-12.787
X19.623 Y-12.624
X19.674 Y-12.464
X19.734 Y-12.307
X19.803 Y-12.153
X19.88 Y-12.004
X19.965 Y-11.859
X20.059 Y-11.719
X20.16 Y-11.584
X20.269 Y-11.456
X20.384 Y-11.333
X20.507 Y-11.218
X20.636 Y-11.109
X20.77 Y-11.008
X20.911 Y-10.914
X21.056 Y-10.829
X21.206 Y-10.752
X21.36 Y-10.683
X21.518 Y-10.624
X21.678 Y-10.573
X21.842 Y-10.531
X22.007 Y-10.499
X22.174 Y-10.476
X22.343 Y-10.462
X22.511 Y-10.458
X22.68 Y-10.463
X22.848 Y-10.478
X23.015 Y-10.503
X23.18 Y-10.536
X23.343 Y-10.579
X23.504 Y-10.631
X23.661 Y-10.692
X23.815 Y-10.762
X23.964 Y-10.84
X24.109 Y-10.927
X24.249 Y-11.022
X24.383 Y-11.124
X24.511 Y-11.234
X24.633 Y-11.35
X24.748 Y-11.474
X24.856 Y-11.604
X24.956 Y-11.739
X25.049 Y-11.88
X25.145 Y-12.047
X25.251 Y-12.256
X25.375 Y-12.539
X25.476 Y-12.811
X25.55 Y-13.051
X25.605 Y-13.272
X25.645 Y-13.486
X25.672 Y-13.691
X25.687 Y-13.886
X25.69 Y-14.074
X25.683 Y-14.261
X25.665 Y-14.444
X25.638 Y-14.623
X25.602 Y-14.796
X25.556 Y-14.966
X25.5 Y-15.134
X25.435 Y-15.299
X25.36 Y-15.461
X25.277 Y-15.618
X25.185 Y-15.77
X25.083 Y-15.917
X24.974 Y-16.059
X24.855 Y-16.195
X24.728 Y-16.326
X24.593 Y-16.451
X24.45 Y-16.568
X24.299 Y-16.679
X24.14 Y-16.781
X23.975 Y-16.876
X23.803 Y-16.961
X23.625 Y-17.038
X23.442 Y-17.104
X23.254 Y-17.161
X23.062 Y-17.208
X22.866 Y-17.243
X22.666 Y-17.268
X22.465 Y-17.282
X22.262 Y-17.284
X22.058 Y-17.275
X21.853 Y-17.254
X21.649 Y-17.222
X21.447 Y-17.178
X21.246 Y-17.122
X21.047 Y-17.055
X20.852 Y-16.976
X20.661 Y-16.887
X20.474 Y-16.786
X20.293 Y-16.674
X20.117 Y-16.552
X20.067 Y-16.512
X19.803 Y-16.264
X19.588 Y-15.973
X19.43 Y-15.647
X19.333 Y-15.298
X19.3 Y-14.938
Y-12.248
X19.308 Y-12.099
X19.326 Y-11.95
X19.356 Y-11.803
X19.396 Y-11.658
X19.446 Y-11.517
X19.503 Y-11.378
X19.569 Y-11.243
X19.582 Y-11.22
X19.781 Y-10.929
X20.028 Y-10.678
X20.316 Y-10.474
X20.635 Y-10.323
X20.975 Y-10.231
X21.326 Y-10.2
G2 X21.554 Y-10.254 I-0.021 J-0.6 F350
X21.733 Y-11.221 I-0.249 J-0.546 F850
G1 X20.327 Y-12.648
G2 X19.354 Y-12.476 I-0.428 J0.421
X19.3 Y-12.248 I0.546 J0.249 F350
G1 Y-11.242 F850
X19.308 Y-11.092
X19.371 Y-10.853
X19.489 Y-10.637
X19.655 Y-10.454
X19.859 Y-10.316
X20.09 Y-10.229
X20.335 Y-10.2
G2 X20.563 Y-10.254 I-0.021 J-0.6 F350
X20.742 Y-11.221 I-0.249 J-0.546 F850
G1 X20.327 Y-11.642
G2 X19.354 Y-11.47 I-0.427 J0.421
X19.3 Y-11.242 I0.546 J0.249 F350
G1 Y-10.839 F850
X19.305 Y-10.738
X19.326 Y-10.638
X19.344 Y-10.587
X19.367 Y-10.537
X19.396 Y-10.487
X19.433 Y-10.436
X19.481 Y-10.383
X19.532 Y-10.339
X19.582 Y-10.302
X19.632 Y-10.271
X19.683 Y-10.247
X19.714 Y-10.235
X19.799 Y-10.212
X19.884 Y-10.201
X20.286 Y-10.2
X23.617
X23.767 Y-10.208
X23.916 Y-10.224
X24.063 Y-10.251
X24.209 Y-10.288
X24.351 Y-10.334
X24.491 Y-10.389
X24.629 Y-10.453
X24.639 Y-10.458
X24.94 Y-10.655
X25.202 Y-10.903
X25.414 Y-11.193
X25.571 Y-11.518
X25.668 Y-11.865
X25.7 Y-12.224
G2 X25.646 Y-12.452 I-0.6 J0.021 F350
X24.685 Y-12.636 I-0.546 J0.249 F850
G1 X23.222 Y-11.233
G2 X23.389 Y-10.254 I0.415 J0.433
X23.617 Y-10.2 I0.249 J-0.546 F350
G1 X24.673 F850
X24.823 Y-10.208
X25.058 Y-10.274
X25.271 Y-10.393
X25.451 Y-10.559
X25.587 Y-10.762
X25.671 Y-10.992
X25.7 Y-11.234
G2 X25.664 Y-11.467 I-0.993 J0.035 F350
X24.451 Y-12.16 I-0.957 J0.267 F850
X24.441 Y-10.236 I0.257 J0.963
X24.673 Y-10.2 I0.267 J-0.961 F350
G1 X25.116 Y-10.201 F850
X25.201 Y-10.212
X25.286 Y-10.235
X25.317 Y-10.247
X25.368 Y-10.271
X25.418 Y-10.302
X25.468 Y-10.339
X25.519 Y-10.383
X25.567 Y-10.436
X25.604 Y-10.487
X25.633 Y-10.537
X25.656 Y-10.587
X25.674 Y-10.638
X25.695 Y-10.738
X25.7 Y-10.839
Y-15.531
X25.692 Y-15.681
X25.673 Y-15.829
X25.642 Y-15.976
X25.6 Y-16.12
X25.547 Y-16.261
X25.486 Y-16.398
X25.417 Y-16.53
X25.338 Y-16.662
X25.25 Y-16.793
X25.149 Y-16.926
X25.035 Y-17.058
X24.91 Y-17.189
X24.775 Y-17.315
X24.63 Y-17.436
X24.472 Y-17.553
X24.303 Y-17.665
X24.122 Y-17.769
X23.932 Y-17.866
X23.732 Y-17.953
X23.525 Y-18.03
X23.31 Y-18.097
X23.088 Y-18.152
X22.859 Y-18.196
X22.624 Y-18.227
X22.385 Y-18.245
X22.141 Y-18.249
X21.894 Y-18.24
X21.646 Y-18.217
X21.397 Y-18.179
X21.148 Y-18.127
X20.925 Y-18.067
X20.698 Y-17.992
X20.483 Y-17.907
X20.463 Y-17.897
X20.135 Y-17.707
X19.849 Y-17.458
X19.616 Y-17.159
X19.442 Y-16.822
X19.336 Y-16.458
X19.3 Y-16.081
Y-14.938
G2 X19.354 Y-14.71 I0.6 J-0.021 F350
X19.968 Y-14.363 I0.546 J-0.249 F850
G1 X25.168 Y-14.956
G2 X25.646 Y-15.303 I-0.068 J-0.596
X25.7 Y-15.531 I-0.546 J-0.249 F350
G1 Y-16.587 F850
X25.692 Y-16.737
X25.671 Y-16.886
X25.636 Y-17.032
X25.589 Y-17.174
X25.532 Y-17.313
X25.466 Y-17.447
X25.391 Y-17.577
X25.309 Y-17.703
X25.214 Y-17.832
X25.105 Y-17.964
X24.984 Y-18.094
X24.852 Y-18.22
X24.706 Y-18.346
X24.545 Y-18.47
X24.37 Y-18.589
X24.184 Y-18.7
X23.987 Y-18.804
X23.776 Y-18.901
X23.552 Y-18.988
X23.315 Y-19.065
X23.068 Y-19.131
X22.813 Y-19.183
X22.551 Y-19.222
X22.284 Y-19.246
X22.013 Y-19.256
X21.753 Y-19.25
X21.521 Y-19.232
X21.267 Y-19.197
X21.057 Y-19.156
X20.85 Y-19.104
X20.635 Y-19.037
X20.595 Y-19.022
X20.283 Y-18.872
X20.002 Y-18.672
X19.76 Y-18.426
X19.563 Y-18.142
X19.418 Y-17.828
X19.33 Y-17.494
X19.3 Y-17.15
Y-16.081
G2 X19.354 Y-15.853 I0.6 J-0.021 F350
X19.958 Y-15.505 I0.546 J-0.249 F850
G1 X25.158 Y-16.011
G2 X25.646 Y-16.359 I-0.058 J-0.597
X25.7 Y-16.587 I-0.546 J-0.249 F350
G1 Y-17.544 F850
X25.692 Y-17.694
X25.673 Y-17.843
X25.639 Y-17.989
X25.594 Y-18.132
X25.537 Y-18.271
X25.471 Y-18.406
X25.397 Y-18.536
X25.313 Y-18.664
X25.219 Y-18.793
X25.11 Y-18.925
X24.985 Y-19.06
X24.85 Y-19.19
X24.7 Y-19.32
X24.532 Y-19.45
X24.348 Y-19.575
X24.153 Y-19.693
X23.944 Y-19.803
X23.719 Y-19.907
X23.479 Y-20.001
X23.231 Y-20.083
X22.973 Y-20.152
X22.71 Y-20.206
X22.444 Y-20.246
X22.175 Y-20.271
X21.927 Y-20.28
X21.681 Y-20.275
X21.441 Y-20.257
X21.234 Y-20.229
X21.007 Y-20.186
X20.811 Y-20.137
X20.622 Y-20.078
X20.599 Y-20.069
X20.287 Y-19.92
X20.005 Y-19.72
X19.761 Y-19.474
X19.564 Y-19.189
X19.419 Y-18.875
X19.33 Y-18.541
X19.3 Y-18.196
Y-17.15
G2 X19.354 Y-16.922 I0.6 J-0.021 F350
X19.945 Y-16.573 I0.546 J-0.249 F850
G1 X25.146 Y-16.967
G2 X25.646 Y-17.316 I-0.045 J-0.598
X25.7 Y-17.544 I-0.546 J-0.249 F350
G1 Y-18.49 F850
X25.692 Y-18.64
X25.676 Y-18.789
X25.644 Y-18.936
X25.6 Y-19.079
X25.546 Y-19.219
X25.482 Y-19.354
X25.409 Y-19.486
X25.328 Y-19.613
X25.233 Y-19.748
X25.123 Y-19.885
X25.002 Y-20.02
X24.864 Y-20.157
X24.709 Y-20.295
X24.54 Y-20.429
X24.359 Y-20.557
X24.16 Y-20.68
X23.945 Y-20.798
X23.717 Y-20.907
X23.478 Y-21.005
X23.23 Y-21.09
X22.976 Y-21.163
X22.716 Y-21.22
X22.452 Y-21.264
X22.187 Y-21.293
X21.942 Y-21.305
X21.706 Y-21.304
X21.465 Y-21.289
X21.262 Y-21.265
X21.039 Y-21.225
X20.84 Y-21.179
X20.657 Y-21.124
X20.626 Y-21.113
X20.308 Y-20.967
X20.02 Y-20.767
X19.772 Y-20.521
X19.57 Y-20.234
X19.422 Y-19.917
X19.331 Y-19.579
X19.3 Y-19.23
Y-18.196
G2 X19.354 Y-17.968 I0.6 J-0.021 F350
X19.933 Y-17.618 I0.546 J-0.249 F850
G1 X25.134 Y-17.912
G2 X25.646 Y-18.262 I-0.034 J-0.599
X25.7 Y-18.49 I-0.546 J-0.249 F350
G1 Y-19.497 F850
X25.692 Y-19.647
X25.672 Y-19.795
X25.639 Y-19.941
X25.593 Y-20.084
X25.538 Y-20.224
X25.473 Y-20.359
X25.399 Y-20.491
X25.315 Y-20.624
X25.217 Y-20.76
X25.103 Y-20.901
X24.977 Y-21.041
X24.837 Y-21.179
X24.68 Y-21.318
X24.505 Y-21.456
X24.317 Y-21.587
X24.117 Y-21.711
X23.901 Y-21.829
X23.672 Y-21.937
X23.432 Y-22.035
X23.183 Y-22.12
X22.929 Y-22.191
X22.669 Y-22.248
X22.407 Y-22.291
X22.144 Y-22.318
X21.913 Y-22.329
X21.665 Y-22.327
X21.44 Y-22.312
X21.237 Y-22.287
X21.014 Y-22.247
X20.825 Y-22.202
X20.636 Y-22.146
X20.62 Y-22.14
X20.304 Y-21.993
X20.017 Y-21.793
X19.77 Y-21.547
X19.569 Y-21.261
X19.421 Y-20.944
X19.331 Y-20.607
X19.3 Y-20.259
Y-19.23
G2 X19.354 Y-19.002 I0.6 J-0.021 F350
X19.93 Y-18.652 I0.546 J-0.249 F850
G1 X25.131 Y-18.918
G2 X25.646 Y-19.269 I-0.031 J-0.599
X25.7 Y-19.497 I-0.546 J-0.249 F350
G1 Y-20.503 F850
X25.692 Y-20.653
X25.672 Y-20.802
X25.637 Y-20.948
X25.591 Y-21.091
X25.535 Y-21.23
X25.471 Y-21.365
X25.396 Y-21.499
X25.312 Y-21.632
X25.212 Y-21.771
X25.098 Y-21.914
X24.971 Y-22.054
X24.829 Y-22.195
X24.67 Y-22.336
X24.495 Y-22.474
X24.308 Y-22.606
X24.106 Y-22.731
X23.888 Y-22.85
X23.659 Y-22.959
X23.418 Y-23.057
X23.17 Y-23.142
X22.917 Y-23.213
X22.657 Y-23.271
X22.397 Y-23.313
X22.135 Y-23.341
X21.905 Y-23.352
X21.661 Y-23.35
X21.436 Y-23.336
X21.234 Y-23.312
X21.013 Y-23.272
X20.823 Y-23.227
X20.636 Y-23.172
X20.623 Y-23.167
X20.305 Y-23.02
X20.018 Y-22.82
X19.771 Y-22.574
X19.57 Y-22.288
X19.421 Y-21.971
X19.331 Y-21.633
X19.3 Y-21.285
Y-20.259
G2 X19.354 Y-20.031 I0.6 J-0.021 F350
X19.928 Y-19.681 I0.546 J-0.249 F850
G1 X25.129 Y-19.925
G2 X25.646 Y-20.276 I-0.028 J-0.599
X25.7 Y-20.503 I-0.546 J-0.249 F350
G1 Y-21.51 F850
X25.692 Y-21.66
X25.672 Y-21.809
X25.638 Y-21.955
X25.592 Y-22.098
X25.537 Y-22.237
X25.472 Y-22.372
X25.398 Y-22.506
X25.314 Y-22.64
X25.215 Y-22.78
X25.1 Y-22.924
X24.974 Y-23.064
X24.832 Y-23.207
X24.672 Y-23.349
X24.498 Y-23.488
X24.311 Y-23.62
X24.109 Y-23.746
X23.891 Y-23.866
X23.663 Y-23.976
X23.423 Y-24.075
X23.175 Y-24.161
X22.922 Y-24.233
X22.664 Y-24.291
X22.404 Y-24.334
X22.143 Y-24.363
X21.913 Y-24.375
X21.67 Y-24.374
X21.445 Y-24.36
X21.244 Y-24.337
X21.022 Y-24.298
X20.832 Y-24.254
X20.646 Y-24.199
X20.63 Y-24.193
X20.311 Y-24.047
X20.022 Y-23.848
X19.773 Y-23.601
X19.571 Y-23.314
X19.422 Y-22.997
X19.331 Y-22.658
X19.3 Y-22.309
Y-21.285
G2 X19.354 Y-21.057 I0.6 J-0.021 F350
X19.926 Y-20.706 I0.546 J-0.249 F850
G1 X25.126 Y-20.932
G2 X25.646 Y-21.282 I-0.026 J-0.599
X25.7 Y-21.51 I-0.546 J-0.249 F350
G1 Y-22.517 F850
X25.692 Y-22.667
X25.673 Y-22.815
X25.639 Y-22.962
X25.595 Y-23.105
X25.54 Y-23.244
X25.476 Y-23.38
X25.403 Y-23.514
X25.319 Y-23.648
X25.22 Y-23.789
X25.107 Y-23.933
X24.982 Y-24.074
X24.84 Y-24.216
X24.681 Y-24.36
X24.508 Y-24.499
X24.322 Y-24.631
X24.121 Y-24.759
X23.904 Y-24.88
X23.676 Y-24.99
X23.437 Y-25.09
X23.189 Y-25.177
X22.938 Y-25.25
X22.68 Y-25.309
X22.42 Y-25.354
X22.16 Y-25.384
X21.93 Y-25.397
X21.687
X21.46 Y-25.384
X21.26 Y-25.362
X21.038 Y-25.324
X20.846 Y-25.28
X20.661 Y-25.227
X20.638 Y-25.219
X20.318 Y-25.074
X20.027 Y-24.875
X19.777 Y-24.628
X19.573 Y-24.34
X19.423 Y-24.022
X19.331 Y-23.682
X19.3 Y-23.332
Y-22.309
G2 X19.354 Y-22.081 I0.6 J-0.021 F350
X19.924 Y-21.73 I0.546 J-0.249 F850
G1 X25.124 Y-21.938
G2 X25.646 Y-22.289 I-0.024 J-0.6
X25.7 Y-22.517 I-0.546 J-0.249 F350
G1 Y-23.524 F850
X25.692 Y-23.673
X25.674 Y-23.822
X25.641 Y-23.969
X25.598 Y-24.112
X25.544 Y-24.252
X25.48 Y-24.388
X25.408 Y-24.522
X25.326 Y-24.656
X25.228 Y-24.797
X25.116 Y-24.941
X24.992 Y-25.082
X24.851 Y-25.225
X24.694 Y-25.369
X24.522 Y-25.508
X24.337 Y-25.642
X24.137 Y-25.77
X23.921 Y-25.891
X23.694 Y-26.003
X23.456 Y-26.104
X23.209 Y-26.192
X22.958 Y-26.266
X22.701 Y-26.327
X22.442 Y-26.373
X22.182 Y-26.404
X21.95 Y-26.418
X21.709 Y-26.42
X21.48 Y-26.408
X21.279 Y-26.387
X21.056 Y-26.35
X20.863 Y-26.307
X20.679 Y-26.255
X20.648 Y-26.244
X20.326 Y-26.1
X20.033 Y-25.901
X19.781 Y-25.654
X19.575 Y-25.366
X19.424 Y-25.047
X19.331 Y-24.706
X19.3 Y-24.354
Y-23.332
G2 X19.354 Y-23.104 I0.6 J-0.021 F350
X19.922 Y-22.753 I0.546 J-0.249 F850
G1 X25.122 Y-22.945
G2 X25.646 Y-23.296 I-0.022 J-0.6
X25.7 Y-23.524 I-0.546 J-0.249 F350
G1 Y-24.53 F850
X25.692 Y-24.68
X25.675 Y-24.829
X25.644 Y-24.976
X25.601 Y-25.12
X25.548 Y-25.26
X25.486 Y-25.396
X25.415 Y-25.53
X25.334 Y-25.664
X25.237 Y-25.804
X25.126 Y-25.949
X25.003 Y-26.09
X24.864 Y-26.233
X24.708 Y-26.377
X24.537 Y-26.517
X24.354 Y-26.651
X24.156 Y-26.779
X23.941 Y-26.902
X23.715 Y-27.014
X23.478 Y-27.116
X23.232 Y-27.206
X22.982 Y-27.282
X22.725 Y-27.344
X22.466 Y-27.391
X22.207 Y-27.423
X21.974 Y-27.439
X21.732 Y-27.442
X21.501 Y-27.432
X21.3 Y-27.411
X21.077 Y-27.376
X20.882 Y-27.334
X20.699 Y-27.283
X20.659 Y-27.27
X20.334 Y-27.126
X20.04 Y-26.928
X19.785 Y-26.681
X19.578 Y-26.392
X19.425 Y-26.071
X19.332 Y-25.729
X19.3 Y-25.375
Y-24.354
G2 X19.354 Y-24.126 I0.6 J-0.021 F350
X19.92 Y-23.775 I0.546 J-0.249 F850
G1 X25.121 Y-23.952
G2 X25.646 Y-24.302 I-0.02 J-0.6
X25.7 Y-24.53 I-0.546 J-0.249 F350
G1 Y-25.537 F850
X25.692 Y-25.687
X25.677 Y-25.836
X25.647 Y-25.983
X25.605 Y-26.127
X25.553 Y-26.268
X25.491 Y-26.405
X25.421 Y-26.538
X25.341 Y-26.672
X25.246 Y-26.812
X25.136 Y-26.956
X25.015 Y-27.097
X24.878 Y-27.24
X24.723 Y-27.384
X24.554 Y-27.525
X24.372 Y-27.659
X24.175 Y-27.789
X23.962 Y-27.912
X23.738 Y-28.025
X23.502 Y-28.128
X23.257 Y-28.219
X23.007 Y-28.296
X22.751 Y-28.36
X22.492 Y-28.409
X22.233 Y-28.442
X21.998 Y-28.46
X21.757 Y-28.464
X21.523 Y-28.455
X21.322 Y-28.436
X21.098 Y-28.402
X20.901 Y-28.36
X20.718 Y-28.311
X20.67 Y-28.294
X20.343 Y-28.152
X20.046 Y-27.954
X19.789 Y-27.707
X19.58 Y-27.417
X19.426 Y-27.096
X19.332 Y-26.752
X19.3 Y-26.396
Y-25.375
G2 X19.354 Y-25.147 I0.6 J-0.021 F350
X19.918 Y-24.796 I0.546 J-0.249 F850
G1 X25.119 Y-24.958
G2 X25.646 Y-25.309 I-0.019 J-0.6
X25.7 Y-25.537 I-0.546 J-0.249 F350
G1 Y-26.605 F850
X25.692 Y-26.754
X25.671 Y-26.903
X25.637 Y-27.049
X25.592 Y-27.192
X25.537 Y-27.331
X25.473 Y-27.467
X25.399 Y-27.602
X25.312 Y-27.741
X25.214 Y-27.879
X25.101 Y-28.022
X24.971 Y-28.168
X24.829 Y-28.311
X24.672 Y-28.451
X24.498 Y-28.59
X24.307 Y-28.726
X24.103 Y-28.854
X23.888 Y-28.974
X23.662 Y-29.083
X23.424 Y-29.181
X23.177 Y-29.268
X22.926 Y-29.34
X22.668 Y-29.399
X22.407 Y-29.443
X22.151 Y-29.471
X21.923 Y-29.484
X21.672
X21.456 Y-29.471
X21.248 Y-29.447
X21.028 Y-29.409
X20.843 Y-29.367
X20.649 Y-29.31
X20.634 Y-29.305
X20.314 Y-29.159
X20.025 Y-28.96
X19.775 Y-28.713
X19.572 Y-28.426
X19.423 Y-28.108
X19.331 Y-27.769
X19.3 Y-27.419
Y-26.396
G2 X19.354 Y-26.168 I0.6 J-0.021 F350
X19.924 Y-25.818 I0.546 J-0.249 F850
G1 X25.124 Y-26.026
G2 X25.646 Y-26.377 I-0.024 J-0.6
X25.7 Y-26.605 I-0.546 J-0.249 F350
G1 Y-27.611 F850
X25.692 Y-27.761
X25.673 Y-27.91
X25.641 Y-28.056
X25.597 Y-28.2
X25.542 Y-28.34
X25.479 Y-28.476
X25.407 Y-28.609
X25.324 Y-28.744
X25.225 Y-28.885
X25.113 Y-29.029
X24.989 Y-29.17
X24.848 Y-29.314
X24.69 Y-29.458
X24.518 Y-29.597
X24.334 Y-29.73
X24.133 Y-29.858
X23.917 Y-29.98
X23.691 Y-30.091
X23.452 Y-30.192
X23.206 Y-30.28
X22.955 Y-30.354
X22.698 Y-30.414
X22.439 Y-30.46
X22.178 Y-30.491
X21.947 Y-30.505
X21.706 Y-30.507
X21.476 Y-30.495
X21.276 Y-30.473
X21.054 Y-30.437
X20.861 Y-30.394
X20.677 Y-30.342
X20.647 Y-30.331
X20.325 Y-30.187
X20.033 Y-29.988
X19.78 Y-29.741
X19.575 Y-29.453
X19.424 Y-29.134
X19.331 Y-28.793
X19.3 Y-28.441
Y-27.419
G2 X19.354 Y-27.191 I0.6 J-0.021 F350
X19.922 Y-26.84 I0.546 J-0.249 F850
G1 X25.123 Y-27.033
G2 X25.646 Y-27.383 I-0.022 J-0.6
X25.7 Y-27.611 I-0.546 J-0.249 F350
G1 Y-28.668 F850
X25.692 Y-28.818
X25.67 Y-28.966
X25.634 Y-29.112
X25.587 Y-29.254
X25.53 Y-29.393
X25.465 Y-29.528
X25.389 Y-29.665
X25.301 Y-29.802
X25.202 Y-29.941
X25.085 Y-30.086
X24.953 Y-30.231
X24.81 Y-30.373
X24.65 Y-30.514
X24.473 Y-30.653
X24.281 Y-30.788
X24.076 Y-30.914
X23.859 Y-31.032
X23.63 Y-31.14
X23.391 Y-31.237
X23.142 Y-31.322
X22.89 Y-31.393
X22.631 Y-31.449
X22.371 Y-31.491
X22.114 Y-31.518
X21.888 Y-31.529
X21.639 Y-31.526
X21.425 Y-31.512
X21.218 Y-31.487
X20.999 Y-31.447
X20.816 Y-31.404
X20.619 Y-31.345
X20.303 Y-31.197
X20.016 Y-30.998
X19.769 Y-30.751
X19.569 Y-30.465
X19.421 Y-30.149
X19.33 Y-29.812
X19.3 Y-29.464
Y-28.441
G2 X19.354 Y-28.213 I0.6 J-0.021 F350
X19.926 Y-27.862 I0.546 J-0.249 F850
G1 X25.127 Y-28.089
G2 X25.646 Y-28.44 I-0.026 J-0.599
X25.7 Y-28.668 I-0.546 J-0.249 F350
G1 Y-29.675 F850
X25.692 Y-29.824
X25.671 Y-29.973
X25.637 Y-30.119
X25.592 Y-30.262
X25.536 Y-30.401
X25.472 Y-30.537
X25.399 Y-30.669
X25.314 Y-30.805
X25.213 Y-30.948
X25.099 Y-31.091
X24.973 Y-31.232
X24.829 Y-31.376
X24.669 Y-31.52
X24.496 Y-31.658
X24.309 Y-31.791
X24.106 Y-31.918
X23.888 Y-32.039
X23.66 Y-32.149
X23.419 Y-32.248
X23.172 Y-32.335
X22.92 Y-32.407
X22.663 Y-32.465
X22.404 Y-32.509
X22.143 Y-32.538
X21.913 Y-32.551
X21.673 Y-32.55
X21.446 Y-32.537
X21.247 Y-32.514
X21.026 Y-32.476
X20.835 Y-32.431
X20.651 Y-32.378
X20.633 Y-32.372
X20.313 Y-32.226
X20.024 Y-32.026
X19.775 Y-31.78
X19.572 Y-31.493
X19.422 Y-31.175
X19.331 Y-30.836
X19.3 Y-30.486
Y-29.464
G2 X19.354 Y-29.236 I0.6 J-0.021 F350
X19.924 Y-28.885 I0.546 J-0.249 F850
G1 X25.125 Y-29.096
G2 X25.646 Y-29.447 I-0.024 J-0.6
X25.7 Y-29.675 I-0.546 J-0.249 F350
G1 Y-30.681 F850
X25.692 Y-30.831
X25.673 Y-30.98
X25.64 Y-31.126
X25.596 Y-31.269
X25.541 Y-31.409
X25.478 Y-31.545
X25.405 Y-31.679
X25.322 Y-31.813
X25.223 Y-31.955
X25.11 Y-32.099
X24.985 Y-32.24
X24.844 Y-32.384
X24.685 Y-32.528
X24.512 Y-32.667
X24.327 Y-32.8
X24.126 Y-32.928
X23.909 Y-33.05
X23.682 Y-33.161
X23.443 Y-33.261
X23.196 Y-33.349
X22.945 Y-33.423
X22.688 Y-33.483
X22.428 Y-33.528
X22.168 Y-33.558
X21.938 Y-33.572
X21.696 Y-33.573
X21.469 Y-33.561
X21.268 Y-33.539
X21.046 Y-33.502
X20.854 Y-33.459
X20.67 Y-33.406
X20.644 Y-33.397
X20.322 Y-33.252
X20.031 Y-33.053
X19.779 Y-32.806
X19.574 Y-32.519
X19.424 Y-32.2
X19.331 Y-31.859
X19.3 Y-31.508
Y-30.486
G2 X19.354 Y-30.258 I0.6 J-0.021 F350
X19.922 Y-29.907 I0.546 J-0.249 F850
G1 X25.123 Y-30.103
G2 X25.646 Y-30.453 I-0.023 J-0.6
X25.7 Y-30.681 I-0.546 J-0.249 F350
G1 Y-31.688 F850
X25.692 Y-31.838
X25.674 Y-31.987
X25.643 Y-32.133
X25.6 Y-32.277
X25.546 Y-32.417
X25.483 Y-32.553
X25.412 Y-32.687
X25.33 Y-32.821
X25.233 Y-32.962
X25.121 Y-33.106
X24.998 Y-33.248
X24.858 Y-33.391
X24.701 Y-33.535
X24.53 Y-33.675
X24.346 Y-33.809
X24.147 Y-33.938
X23.932 Y-34.06
X23.705 Y-34.172
X23.468 Y-34.273
X23.222 Y-34.363
X22.971 Y-34.438
X22.714 Y-34.499
X22.455 Y-34.546
X22.195 Y-34.578
X21.963 Y-34.593
X21.722 Y-34.595
X21.492 Y-34.585
X21.291 Y-34.564
X21.068 Y-34.528
X20.874 Y-34.486
X20.691 Y-34.434
X20.655 Y-34.422
X20.331 Y-34.279
X20.037 Y-34.08
X19.783 Y-33.833
X19.577 Y-33.544
X19.425 Y-33.224
X19.331 Y-32.882
X19.3 Y-32.529
Y-31.508
G2 X19.354 Y-31.28 I0.6 J-0.021 F350
X19.92 Y-30.929 I0.546 J-0.249 F850
G1 X25.121 Y-31.109
G2 X25.646 Y-31.46 I-0.021 J-0.6
X25.7 Y-31.688 I-0.546 J-0.249 F350
G1 Y-32.695 F850
X25.692 Y-32.845
X25.676 Y-32.994
X25.646 Y-33.141
X25.604 Y-33.285
X25.551 Y-33.425
X25.489 Y-33.562
X25.419 Y-33.695
X25.338 Y-33.829
X25.243 Y-33.97
X25.132 Y-34.114
X25.011 Y-34.255
X24.873 Y-34.398
X24.717 Y-34.542
X24.547 Y-34.683
X24.365 Y-34.817
X24.168 Y-34.946
X23.954 Y-35.069
X23.729 Y-35.183
X23.493 Y-35.285
X23.247 Y-35.376
X22.997 Y-35.452
X22.741 Y-35.515
X22.482 Y-35.563
X22.223 Y-35.597
X21.989 Y-35.614
X21.748 Y-35.617
X21.515 Y-35.608
X21.314 Y-35.588
X21.09 Y-35.554
X20.894 Y-35.512
X20.711 Y-35.462
X20.666 Y-35.447
X20.34 Y-35.305
X20.044 Y-35.106
X19.788 Y-34.859
X19.579 Y-34.57
X19.426 Y-34.248
X19.332 Y-33.905
X19.3 Y-33.55
Y-32.529
G2 X19.354 Y-32.301 I0.6 J-0.021 F350
X19.919 Y-31.95 I0.546 J-0.249 F850
G1 X25.119 Y-32.116
G2 X25.646 Y-32.467 I-0.019 J-0.6
X25.7 Y-32.695 I-0.546 J-0.249 F350
G1 Y-33.751 F850
X25.692 Y-33.901
X25.672 Y-34.05
X25.639 Y-34.196
X25.594 Y-34.339
X25.539 Y-34.479
X25.475 Y-34.614
X25.401 Y-34.75
X25.316 Y-34.888
X25.219 Y-35.026
X25.105 Y-35.17
X24.976 Y-35.315
X24.836 Y-35.457
X24.679 Y-35.598
X24.505 Y-35.738
X24.315 Y-35.874
X24.113 Y-36.002
X23.898 Y-36.122
X23.672 Y-36.231
X23.434 Y-36.33
X23.187 Y-36.418
X22.936 Y-36.49
X22.678 Y-36.55
X22.418 Y-36.595
X22.16 Y-36.624
X21.933 Y-36.637
X21.683
X21.464 Y-36.625
X21.258 Y-36.602
X21.037 Y-36.565
X20.851 Y-36.522
X20.659 Y-36.467
X20.639 Y-36.46
X20.318 Y-36.315
X20.028 Y-36.116
X19.777 Y-35.869
X19.573 Y-35.581
X19.423 Y-35.263
X19.331 Y-34.923
X19.3 Y-34.572
Y-33.55
G2 X19.354 Y-33.322 I0.6 J-0.021 F350
X19.923 Y-32.972 I0.546 J-0.249 F850
G1 X25.124 Y-33.173
G2 X25.646 Y-33.523 I-0.023 J-0.6
X25.7 Y-33.751 I-0.546 J-0.249 F350
G1 Y-34.799 F850
X25.692 Y-34.949
X25.67 Y-35.097
X25.634 Y-35.243
X25.587 Y-35.385
X25.531 Y-35.524
X25.465 Y-35.659
X25.389 Y-35.796
X25.302 Y-35.932
X25.202 Y-36.072
X25.085 Y-36.218
X24.955 Y-36.361
X24.812 Y-36.503
X24.652 Y-36.644
X24.474 Y-36.784
X24.283 Y-36.918
X24.079 Y-37.044
X23.862 Y-37.162
X23.633 Y-37.27
X23.393 Y-37.368
X23.145 Y-37.453
X22.892 Y-37.523
X22.634 Y-37.58
X22.374 Y-37.622
X22.115 Y-37.649
X21.889 Y-37.66
X21.642 Y-37.658
X21.425 Y-37.644
X21.22 Y-37.619
X21.001 Y-37.579
X20.816 Y-37.535
X20.62 Y-37.476
X20.303 Y-37.329
X20.017 Y-37.13
X19.77 Y-36.883
X19.569 Y-36.597
X19.421 Y-36.281
X19.33 Y-35.943
X19.3 Y-35.595
Y-34.572
G2 X19.354 Y-34.345 I0.6 J-0.021 F350
X19.926 Y-33.994 I0.546 J-0.249 F850
G1 X25.126 Y-34.22
G2 X25.646 Y-34.571 I-0.026 J-0.599
X25.7 Y-34.799 I-0.546 J-0.249 F350
G1 Y-35.805 F850
X25.692 Y-35.955
X25.671 Y-36.104
X25.637 Y-36.25
X25.592 Y-36.393
X25.536 Y-36.532
X25.472 Y-36.668
X25.399 Y-36.801
X25.314 Y-36.936
X25.213 Y-37.079
X25.1 Y-37.222
X24.974 Y-37.363
X24.83 Y-37.507
X24.67 Y-37.651
X24.497 Y-37.789
X24.31 Y-37.922
X24.107 Y-38.049
X23.889 Y-38.17
X23.661 Y-38.28
X23.42 Y-38.379
X23.396 Y-38.388
X23.18 Y-38.45
X22.96 Y-38.487
X22.736 Y-38.5
G2 X22.508 Y-38.446 I0.021 J0.6 F350
X22.359 Y-37.451 I0.249 J0.546 F850
G1 X24.703 Y-35.377
G2 X25.646 Y-35.578 I0.398 J-0.449
X25.7 Y-35.805 I-0.546 J-0.249 F350
G1 Y-36.812 F850
X25.692 Y-36.962
X25.673 Y-37.111
X25.566 Y-37.436
X25.399 Y-37.735
X25.177 Y-37.996
X24.91 Y-38.21
X24.607 Y-38.369
X24.278 Y-38.467
X23.937 Y-38.5
G2 X23.709 Y-38.446 I0.021 J0.6 F350
X23.549 Y-37.462 I0.249 J0.546 F850
G1 X24.691 Y-36.395
G2 X25.646 Y-36.584 I0.41 J-0.438
X25.7 Y-36.812 I-0.546 J-0.249 F350
G1 Y-37.618 F850
X25.692 Y-37.767
X25.62 Y-38.001
X25.485 Y-38.206
X25.299 Y-38.365
X25.076 Y-38.466
X24.833 Y-38.5
G2 X24.602 Y-38.46 I0.03 J0.865 F350
X24.257 Y-38.253 I0.262 J0.825 F850
X25.447 Y-37.042 I0.595 J0.605
X25.659 Y-37.386 I-0.595 J-0.605
X25.7 Y-37.618 I-0.808 J-0.261 F350
G1 Y-37.819 F850
X25.699 Y-37.92
X25.684 Y-38.02
X25.669 Y-38.071
X25.65 Y-38.121
X25.625 Y-38.171
X25.594 Y-38.222
X25.519 Y-38.313
X25.448 Y-38.377
X25.378 Y-38.423
X25.317 Y-38.453
X25.267 Y-38.471
X25.217 Y-38.485
X25.116 Y-38.499
X24.714 Y-38.5
X21.494
X21.202 Y-38.485
X21.018 Y-38.466
X20.848 Y-38.438
X20.693 Y-38.403
X20.363 Y-38.276
X20.062 Y-38.091
X19.801 Y-37.853
X19.587 Y-37.571
X19.43 Y-37.254
X19.333 Y-36.914
X19.3 Y-36.562
G2 X19.354 Y-36.335 I0.6 J-0.021 F350
X20.285 Y-36.123 I0.546 J-0.249 F850
G1 X21.858 Y-37.44
G2 X21.722 Y-38.446 I-0.385 J-0.46
X21.494 Y-38.5 I-0.249 J0.546 F350
G1 X20.286 F850
X20.137 Y-38.493
X19.912 Y-38.429
X19.709 Y-38.315
X19.538 Y-38.157
X19.408 Y-37.963
X19.327 Y-37.744
X19.3 Y-37.513
G2 X19.337 Y-37.281 I0.953 J-0.033 F350
X20.493 Y-36.623 I0.916 J-0.265 F850
X20.518 Y-38.463 I-0.239 J-0.924
X20.286 Y-38.5 I-0.265 J0.917 F350
G1 X19.884 Y-38.499 F850
X19.783 Y-38.485
X19.733 Y-38.471
X19.683 Y-38.453
X19.622 Y-38.423
X19.552 Y-38.377
X19.481 Y-38.313
X19.406 Y-38.222
X19.375 Y-38.171
X19.35 Y-38.121
X19.331 Y-38.071
X19.316 Y-38.02
X19.301 Y-37.92
X19.3 Y-37.819
Y-35.595
G2 X19.354 Y-35.368 I0.6 J-0.021 F350
G1 X19.393 Y-35.282 Z-14.973
X19.431 Y-35.199 Z-14.951
X19.467 Y-35.12 Z-14.915
X19.5 Y-35.047 Z-14.865
X19.53 Y-34.981 Z-14.804
X19.555 Y-34.926 Z-14.733
X19.575 Y-34.881 Z-14.652
X19.59 Y-34.848 Z-14.565
X19.599 Y-34.828 Z-14.474
X19.602 Y-34.822 Z-14.38
G0 Z5
X20.717 Y-285.346
Z-4.39
G1 Z-4.99 F350
G2 X21.934 Y-281.607 Z-5.154 I1.783 J1.487
X24.771 Y-284.324 Z-5.318 I0.565 J-2.249
X21.096 Y-285.697 Z-5.481 I-2.268 J0.467
X21.454 Y-281.796 Z-5.645 I1.404 J1.838
X24.809 Y-283.81 Z-5.809 I1.045 J-2.06
X21.542 Y-285.955 Z-5.973 I-2.307 J-0.047
X21.029 Y-282.086 Z-6.136 I0.958 J2.096
X24.733 Y-283.302 Z-6.3 I1.47 J-1.771
X22.032 Y-286.107 Z-6.464 I-2.231 J-0.554
X20.68 Y-282.461 Z-6.628 I0.469 J2.248
X24.547 Y-282.825 Z-6.791 I1.819 J-1.397
X22.542 Y-286.146 Z-6.955 I-2.045 J-1.031
X20.424 Y-282.902 Z-7.119 I-0.04 J2.287
X24.261 Y-282.403 Z-7.283 I2.075 J-0.955
X23.046 Y-286.072 Z-7.447 I-1.76 J-1.453
X20.272 Y-283.388 Z-7.61 I-0.544 J2.213
X23.89 Y-282.056 Z-7.774 I2.227 J-0.47
X23.519 Y-285.888 Z-7.938 I-1.389 J-1.799
X20.232 Y-283.893 Z-8.102 I-1.017 J2.03
X23.453 Y-281.801 Z-8.265 I2.267 J0.034
X23.938 Y-285.606 Z-8.429 I-0.952 J-2.055
X20.304 Y-284.392 Z-8.593 I-1.436 J1.748
X22.972 Y-281.65 Z-8.757 I2.195 J0.534
X24.282 Y-285.239 Z-8.92 I-0.472 J-2.206
X20.485 Y-284.861 Z-9.084 I-1.78 J1.381
X22.471 Y-281.609 Z-9.248 I2.015 J1.003
X24.536 Y-284.806 Z-9.412 I0.028 J-2.247
X20.764 Y-285.277 Z-9.576 I-2.034 J0.949
X21.976 Y-281.679 Z-9.739 I1.736 J1.418
X24.687 Y-284.33 Z-9.903 I0.523 J-2.177
X21.127 Y-285.62 Z-10.067 I-2.185 J0.473
X21.51 Y-281.857 Z-10.231 I1.373 J1.761
X24.729 Y-283.834 Z-10.394 I0.989 J-1.999
X21.555 Y-285.873 Z-10.558 I-2.227 J-0.022
X21.097 Y-282.133 Z-10.722 I0.946 J2.014
X24.66 Y-283.343 Z-10.886 I1.401 J-1.724
X22.027 Y-286.024 Z-11.05 I-2.159 J-0.513
X20.757 Y-282.492 Z-11.213 I0.474 J2.165
X24.485 Y-282.881 Z-11.377 I1.742 J-1.365
X22.518 Y-286.066 Z-11.541 I-1.984 J-0.975
X20.506 Y-282.915 Z-11.705 I-0.017 J2.207
X24.213 Y-282.471 Z-11.868 I1.993 J-0.942
X23.005 Y-285.999 Z-12.032 I-1.712 J-1.385
X20.355 Y-283.382 Z-12.196 I-0.503 J2.14
X23.858 Y-282.133 Z-12.36 I2.144 J-0.476
X23.463 Y-285.826 Z-12.523 I-1.357 J-1.723
X20.312 Y-283.869 Z-12.687 I-0.961 J1.968
X23.439 Y-281.883 Z-12.851 I2.187 J0.011
X23.87 Y-285.558 Z-13.015 I-0.939 J-1.973
X20.377 Y-284.352 Z-13.179 I-1.368 J1.7
X22.976 Y-281.733 Z-13.342 I2.122 J0.493
X24.206 Y-285.207 Z-13.506 I-0.477 J-2.123
X20.547 Y-284.806 Z-13.67 I-1.703 J1.349
X22.494 Y-281.689 Z-13.834 I1.953 J0.947
X24.454 Y-284.792 Z-13.997 I0.005 J-2.167
X20.812 Y-285.21 Z-14.161 I-1.952 J0.935
X22.016 Y-281.752 Z-14.325 I1.688 J1.351
X24.605 Y-284.334 Z-14.489 I0.483 J-2.104
X21.159 Y-285.543 Z-14.652 I-2.102 J0.477
X21.565 Y-281.92 Z-14.816 I1.341 J1.684
X24.649 Y-283.857 Z-14.98 I0.934 J-1.937
X20.349 I-2.15
X24.636 Y-283.62 I2.15
X24.649 Y-283.857 I-2.137 J-0.236
G1 X24.674 Y-284.742 F850
X24.686 Y-284.852
Y-285.002
X24.667 Y-285.151
X24.633 Y-285.297
X24.583 Y-285.439
X24.521 Y-285.575
X24.448 Y-285.706
X24.365 Y-285.831
X24.272 Y-285.949
X24.171 Y-286.06
X24.063 Y-286.164
X23.948 Y-286.26
X23.826 Y-286.348
X23.7 Y-286.428
X23.568 Y-286.501
X23.433 Y-286.565
X23.293 Y-286.621
X23.151 Y-286.668
X23.006 Y-286.707
X22.86 Y-286.738
X22.711 Y-286.76
X22.559 Y-286.775
X22.406 Y-286.78
X22.252 Y-286.777
X22.096 Y-286.766
X21.941 Y-286.745
X21.786 Y-286.716
X21.631 Y-286.677
X21.479 Y-286.63
X21.329 Y-286.574
X21.181 Y-286.509
X21.037 Y-286.436
X20.896 Y-286.354
X20.76 Y-286.265
X20.629 Y-286.167
X20.503 Y-286.062
X20.383 Y-285.95
X20.269 Y-285.831
X20.162 Y-285.705
X20.062 Y-285.574
X19.969 Y-285.436
X19.884 Y-285.294
X19.807 Y-285.146
X19.739 Y-284.995
X19.679 Y-284.839
X19.627 Y-284.681
X19.585 Y-284.519
X19.552 Y-284.355
X19.528 Y-284.19
X19.513 Y-284.023
X19.508 Y-283.855
X19.512 Y-283.688
X19.526 Y-283.521
X19.549 Y-283.354
X19.582 Y-283.189
X19.623 Y-283.027
X19.674 Y-282.867
X19.734 Y-282.709
X19.803 Y-282.556
X19.88 Y-282.406
X19.965 Y-282.261
X20.059 Y-282.121
X20.16 Y-281.987
X20.269 Y-281.858
X20.384 Y-281.736
X20.507 Y-281.62
X20.636 Y-281.512
X20.77 Y-281.41
X20.911 Y-281.317
X21.056 Y-281.232
X21.206 Y-281.154
X21.36 Y-281.086
X21.518 Y-281.026
X21.678 Y-280.975
X21.842 Y-280.934
X22.007 Y-280.901
X22.174 Y-280.878
X22.343 Y-280.865
X22.511 Y-280.861
X22.68 Y-280.866
X22.848 Y-280.881
X23.015 Y-280.905
X23.18 Y-280.939
X23.343 Y-280.982
X23.504 Y-281.034
X23.661 Y-281.095
X23.815 Y-281.165
X23.964 Y-281.243
X24.109 Y-281.33
X24.249 Y-281.424
X24.383 Y-281.526
X24.511 Y-281.636
X24.633 Y-281.753
X24.748 Y-281.876
X24.856 Y-282.006
X24.956 Y-282.142
X25.049 Y-282.283
X25.145 Y-282.449
X25.251 Y-282.659
X25.375 Y-282.941
X25.476 Y-283.213
X25.55 Y-283.453
X25.573 Y-283.545
X25.605 Y-283.701
X25.625 Y-283.86
X25.632 Y-284.02
X25.633 Y-284.463
X25.618 Y-284.785
X25.6 Y-284.952
X25.573 Y-285.119
X25.537 Y-285.285
X25.492 Y-285.448
X25.437 Y-285.606
X25.374 Y-285.762
X25.302 Y-285.917
X25.219 Y-286.068
X25.128 Y-286.216
X25.107 Y-286.246
X24.858 Y-286.538
X24.557 Y-286.777
X24.217 Y-286.954
X23.849 Y-287.063
X23.468 Y-287.1
G2 X23.24 Y-287.046 I0.021 J0.6 F350
X23.012 Y-286.135 I0.249 J0.546 F850
G1 X24.557 Y-284.121
G2 X25.579 Y-284.235 I0.476 J-0.365
X25.633 Y-284.463 I-0.545 J-0.25 F350
G1 X25.637 Y-285.933 F850
X25.63 Y-286.083
X25.558 Y-286.355
X25.423 Y-286.602
X25.234 Y-286.81
X25.001 Y-286.968
X24.738 Y-287.067
X24.458 Y-287.1
G2 X24.225 Y-287.067 I0.039 J1.126 F350
X23.41 Y-285.682 I0.272 J1.093 F850
X25.604 Y-285.701 I1.095 J-0.294
X25.637 Y-285.933 I-1.099 J-0.276 F350
G1 X25.639 Y-286.476 F850
X25.632 Y-286.577
X25.607 Y-286.678
X25.572 Y-286.762
X25.519 Y-286.846
X25.492 Y-286.879
X25.448 Y-286.927
X25.405 Y-286.966
X25.361 Y-286.998
X25.317 Y-287.025
X25.248 Y-287.058
X25.178 Y-287.081
X25.116 Y-287.093
X24.915 Y-287.1
X21.383
X21.233 Y-287.092
X21.084 Y-287.075
X20.937 Y-287.047
X20.792 Y-287.009
X20.649 Y-286.962
X20.628 Y-286.954
X20.323 Y-286.801
X20.048 Y-286.599
X19.811 Y-286.353
X19.62 Y-286.07
X19.479 Y-285.759
X19.393 Y-285.429
X19.365 Y-285.088
G2 X19.42 Y-284.861 I0.6 J-0.023 F350
X20.388 Y-284.686 I0.545 J-0.25 F850
G1 X21.785 Y-286.075
G2 X21.611 Y-287.046 I-0.423 J-0.425
X21.383 Y-287.1 I-0.249 J0.546 F350
G1 X20.377 F850
X20.227 Y-287.092
X19.995 Y-287.028
X19.784 Y-286.911
X19.607 Y-286.747
X19.473 Y-286.547
X19.39 Y-286.32
X19.362 Y-286.081
G2 X19.399 Y-285.849 I0.981 J-0.037 F350
X20.587 Y-285.168 I0.944 J-0.269 F850
X20.609 Y-287.064 I-0.245 J-0.951
X20.377 Y-287.1 I-0.267 J0.945 F350
G1 X20.085 F850
X19.884 Y-287.093
X19.822 Y-287.081
X19.752 Y-287.058
X19.683 Y-287.025
X19.639 Y-286.998
X19.595 Y-286.966
X19.552 Y-286.927
X19.508 Y-286.879
X19.481 Y-286.846
X19.428 Y-286.762
X19.393 Y-286.678
X19.368 Y-286.577
X19.361 Y-286.476
X19.373 Y-282.59
X19.381 Y-282.44
X19.398 Y-282.291
X19.428 Y-282.144
X19.468 Y-282
X19.518 Y-281.858
X19.577 Y-281.72
X19.644 Y-281.586
X19.719 Y-281.456
X19.803 Y-281.327
X19.897 Y-281.199
X20.003 Y-281.072
X20.118 Y-280.948
X20.244 Y-280.826
X20.379 Y-280.71
X20.524 Y-280.6
X20.676 Y-280.496
X20.837 Y-280.399
X21.006 Y-280.31
X21.183 Y-280.229
X21.367 Y-280.158
X21.557 Y-280.096
X21.752 Y-280.044
X21.952 Y-280.003
X22.156 Y-279.973
X22.363 Y-279.954
X22.572 Y-279.947
X22.783 Y-279.952
X22.994 Y-279.968
X23.205 Y-279.997
X23.415 Y-280.038
X23.623 Y-280.09
X23.829 Y-280.155
X24.031 Y-280.231
X24.23 Y-280.319
X24.423 Y-280.418
X24.612 Y-280.528
X24.795 Y-280.65
X24.824 Y-280.671
X25.098 Y-280.919
X25.322 Y-281.213
X25.488 Y-281.543
X25.591 Y-281.899
X25.626 Y-282.267
X25.632 Y-284.02
G2 X25.579 Y-284.248 I-0.6 J0.019 F350
X24.869 Y-284.578 I-0.547 J0.247 F850
G1 X19.809 Y-283.148
G2 X19.426 Y-282.818 I0.163 J0.577
X19.373 Y-282.59 I0.547 J0.247 F350
G1 X19.376 Y-281.534 F850
X19.384 Y-281.384
X19.402 Y-281.235
X19.434 Y-281.088
X19.479 Y-280.945
X19.535 Y-280.806
X19.6 Y-280.671
X19.674 Y-280.54
X19.756 Y-280.415
X19.847 Y-280.291
X19.948 Y-280.17
X20.061 Y-280.049
X20.186 Y-279.928
X20.324 Y-279.81
X20.473 Y-279.696
X20.632 Y-279.589
X20.802 Y-279.487
X20.984 Y-279.391
X21.177 Y-279.303
X21.38 Y-279.224
X21.592 Y-279.155
X21.812 Y-279.097
X22.038 Y-279.051
X22.27 Y-279.017
X22.508 Y-278.996
X22.751 Y-278.988
X22.999 Y-278.993
X23.248 Y-279.013
X23.5 Y-279.048
X23.752 Y-279.097
X23.969 Y-279.152
X24.2 Y-279.225
X24.41 Y-279.304
X24.434 Y-279.315
X24.768 Y-279.503
X25.059 Y-279.751
X25.298 Y-280.05
X25.475 Y-280.389
X25.585 Y-280.756
X25.623 Y-281.137
X25.626 Y-282.267
G2 X25.573 Y-282.495 I-0.6 J0.019 F350
X24.94 Y-282.842 I-0.547 J0.247 F850
G1 X19.89 Y-282.108
G2 X19.429 Y-281.762 I0.086 J0.594
X19.376 Y-281.534 I0.547 J0.247 F350
G1 X19.379 Y-280.527 F850
X19.387 Y-280.377
X19.411 Y-280.229
X19.45 Y-280.084
X19.5 Y-279.943
X19.561 Y-279.806
X19.631 Y-279.673
X19.709 Y-279.545
X19.795 Y-279.422
X19.893 Y-279.298
X20.005 Y-279.172
X20.127 Y-279.049
X20.262 Y-278.927
X20.411 Y-278.807
X20.575 Y-278.69
X20.751 Y-278.578
X20.938 Y-278.474
X21.138 Y-278.377
X21.353 Y-278.288
X21.58 Y-278.207
X21.819 Y-278.138
X22.067 Y-278.081
X22.322 Y-278.037
X22.582 Y-278.007
X22.848 Y-277.992
X23.108 Y-277.991
X23.336 Y-278.004
X23.589 Y-278.032
X23.803 Y-278.068
X24.003 Y-278.114
X24.222 Y-278.177
X24.28 Y-278.197
X24.6 Y-278.342
X24.89 Y-278.54
X25.141 Y-278.787
X25.344 Y-279.073
X25.495 Y-279.39
X25.588 Y-279.729
X25.62 Y-280.079
X25.623 Y-281.137
G2 X25.57 Y-281.365 I-0.6 J0.019 F350
X24.951 Y-281.713 I-0.547 J0.247 F850
G1 X19.907 Y-281.103
G2 X19.432 Y-280.755 I0.072 J0.596
X19.379 Y-280.527 I0.547 J0.247 F350
G1 X19.382 Y-279.631 F850
X19.39 Y-279.481
X19.409 Y-279.332
X19.444 Y-279.186
X19.49 Y-279.044
X19.548 Y-278.905
X19.616 Y-278.771
X19.692 Y-278.642
X19.775 Y-278.517
X19.871 Y-278.391
X19.981 Y-278.26
X20.103 Y-278.133
X20.238 Y-278.006
X20.39 Y-277.878
X20.558 Y-277.753
X20.736 Y-277.635
X20.93 Y-277.521
X21.14 Y-277.414
X21.365 Y-277.314
X21.599 Y-277.226
X21.843 Y-277.15
X22.095 Y-277.086
X22.351 Y-277.037
X22.61 Y-277.002
X22.863 Y-276.982
X23.097 Y-276.977
X23.347 Y-276.985
X23.556 Y-277.004
X23.777 Y-277.037
X23.987 Y-277.08
X24.169 Y-277.129
X24.238 Y-277.151
X24.566 Y-277.292
X24.864 Y-277.489
X25.122 Y-277.736
X25.332 Y-278.025
X25.488 Y-278.346
X25.583 Y-278.691
X25.616 Y-279.046
X25.62 Y-280.079
G2 X25.567 Y-280.307 I-0.6 J0.019 F350
X24.967 Y-280.657 I-0.547 J0.247 F850
G1 X19.928 Y-280.209
G2 X19.435 Y-279.859 I0.053 J0.598
X19.382 Y-279.631 I0.547 J0.247 F350
G1 X19.385 Y-278.665 F850
X19.393 Y-278.515
X19.415 Y-278.367
X19.451 Y-278.221
X19.499 Y-278.079
X19.557 Y-277.941
X19.625 Y-277.807
X19.701 Y-277.678
X19.786 Y-277.549
X19.884 Y-277.419
X19.998 Y-277.284
X20.126 Y-277.15
X20.265 Y-277.018
X20.421 Y-276.886
X20.595 Y-276.756
X20.781 Y-276.632
X20.98 Y-276.515
X21.192 Y-276.406
X21.416 Y-276.306
X21.653 Y-276.216
X21.897 Y-276.139
X22.147 Y-276.076
X22.402 Y-276.026
X22.658 Y-275.99
X22.893 Y-275.971
X23.136 Y-275.965
X23.369 Y-275.973
X23.571 Y-275.991
X23.796 Y-276.023
X23.993 Y-276.064
X24.176 Y-276.112
X24.23 Y-276.129
X24.559 Y-276.27
X24.858 Y-276.466
X25.117 Y-276.713
X25.328 Y-277.003
X25.484 Y-277.325
X25.58 Y-277.669
X25.613 Y-278.026
X25.616 Y-279.046
G2 X25.563 Y-279.274 I-0.6 J0.019 F350
X24.971 Y-279.625 I-0.547 J0.247 F850
G1 X19.939 Y-279.244
G2 X19.438 Y-278.893 I0.045 J0.598
X19.385 Y-278.665 I0.547 J0.247 F350
G1 X19.388 Y-277.708 F850
X19.396 Y-277.558
X19.416 Y-277.41
X19.451 Y-277.264
X19.498 Y-277.121
X19.555 Y-276.982
X19.621 Y-276.848
X19.695 Y-276.718
X19.779 Y-276.589
X19.878 Y-276.453
X19.991 Y-276.316
X20.116 Y-276.181
X20.256 Y-276.045
X20.414 Y-275.909
X20.585 Y-275.777
X20.768 Y-275.652
X20.966 Y-275.531
X21.178 Y-275.419
X21.402 Y-275.316
X21.637 Y-275.223
X21.877 Y-275.144
X22.125 Y-275.077
X22.377 Y-275.025
X22.63 Y-274.986
X22.864 Y-274.964
X23.099 Y-274.956
X23.336 Y-274.96
X23.536 Y-274.975
X23.757 Y-275.005
X23.958 Y-275.043
X24.138 Y-275.088
X24.203 Y-275.108
X24.537 Y-275.246
X24.841 Y-275.441
X25.104 Y-275.689
X25.319 Y-275.979
X25.478 Y-276.304
X25.576 Y-276.652
X25.61 Y-277.012
X25.613 Y-278.026
G2 X25.56 Y-278.254 I-0.6 J0.019 F350
X24.976 Y-278.605 I-0.547 J0.247 F850
G1 X19.95 Y-278.288
G2 X19.441 Y-277.936 I0.038 J0.599
X19.388 Y-277.708 I0.547 J0.247 F350
G1 X19.391 Y-276.701 F850
X19.399 Y-276.552
X19.422 Y-276.403
X19.459 Y-276.258
X19.507 Y-276.116
X19.565 Y-275.977
X19.632 Y-275.843
X19.708 Y-275.711
X19.795 Y-275.579
X19.894 Y-275.444
X20.011 Y-275.304
X20.14 Y-275.165
X20.281 Y-275.029
X20.439 Y-274.894
X20.614 Y-274.76
X20.802 Y-274.632
X21.002 Y-274.512
X21.214 Y-274.401
X21.437 Y-274.299
X21.671 Y-274.208
X21.911 Y-274.13
X22.159 Y-274.065
X22.41 Y-274.013
X22.662 Y-273.976
X22.888 Y-273.956
X23.133 Y-273.948
X23.356 Y-273.953
X23.557 Y-273.969
X23.78 Y-273.999
X23.972 Y-274.037
X24.156 Y-274.083
X24.207 Y-274.1
X24.54 Y-274.238
X24.842 Y-274.435
X25.105 Y-274.682
X25.318 Y-274.972
X25.476 Y-275.296
X25.574 Y-275.643
X25.607 Y-276.001
X25.61 Y-277.012
G2 X25.557 Y-277.24 I-0.6 J0.019 F350
X24.973 Y-277.592 I-0.547 J0.247 F850
G1 X19.953 Y-277.281
G2 X19.444 Y-276.929 I0.037 J0.599
X19.391 Y-276.701 I0.547 J0.247 F350
G1 X19.394 Y-275.695 F850
X19.402 Y-275.545
X19.426 Y-275.397
X19.464 Y-275.252
X19.512 Y-275.11
X19.571 Y-274.971
X19.638 Y-274.837
X19.715 Y-274.704
X19.802 Y-274.572
X19.904 Y-274.435
X20.021 Y-274.294
X20.15 Y-274.156
X20.292 Y-274.019
X20.452 Y-273.883
X20.628 Y-273.749
X20.816 Y-273.621
X21.017 Y-273.502
X21.228 Y-273.391
X21.453 Y-273.289
X21.687 Y-273.198
X21.926 Y-273.121
X22.174 Y-273.056
X22.424 Y-273.005
X22.675 Y-272.968
X22.899 Y-272.948
X23.143 Y-272.941
X23.365 Y-272.946
X23.564 Y-272.962
X23.786 Y-272.993
X23.978 Y-273.031
X24.161 Y-273.077
X24.207 Y-273.092
X24.539 Y-273.231
X24.841 Y-273.427
X25.103 Y-273.674
X25.316 Y-273.964
X25.473 Y-274.288
X25.571 Y-274.635
X25.604 Y-274.993
X25.607 Y-276.001
G2 X25.554 Y-276.229 I-0.6 J0.019 F350
X24.971 Y-276.581 I-0.547 J0.247 F850
G1 X19.957 Y-276.274
G2 X19.447 Y-275.923 I0.037 J0.599
X19.394 Y-275.695 I0.547 J0.247 F350
G1 X19.397 Y-274.738 F850
X19.405 Y-274.588
X19.424 Y-274.439
X19.457 Y-274.293
X19.503 Y-274.15
X19.558 Y-274.01
X19.622 Y-273.875
X19.695 Y-273.744
X19.779 Y-273.611
X19.878 Y-273.472
X19.988 Y-273.335
X20.111 Y-273.197
X20.251 Y-273.058
X20.407 Y-272.919
X20.575 Y-272.786
X20.757 Y-272.658
X20.954 Y-272.535
X21.163 Y-272.42
X21.385 Y-272.314
X21.617 Y-272.22
X21.854 Y-272.138
X22.098 Y-272.069
X22.347 Y-272.013
X22.597 Y-271.972
X22.829 Y-271.947
X23.059 Y-271.935
X23.296 Y-271.937
X23.495 Y-271.949
X23.713 Y-271.975
X23.916 Y-272.011
X24.095 Y-272.053
X24.168 Y-272.074
X24.507 Y-272.21
X24.816 Y-272.404
X25.085 Y-272.652
X25.304 Y-272.944
X25.466 Y-273.271
X25.567 Y-273.623
X25.601 Y-273.986
X25.604 Y-274.993
G2 X25.551 Y-275.221 I-0.6 J0.019 F350
X24.974 Y-275.573 I-0.547 J0.247 F850
G1 X19.966 Y-275.318
G2 X19.45 Y-274.966 I0.031 J0.599
X19.397 Y-274.738 I0.547 J0.247 F350
G1 X19.4 Y-273.731 F850
X19.408 Y-273.581
X19.428 Y-273.433
X19.461 Y-273.286
X19.507 Y-273.143
X19.562 Y-273.004
X19.627 Y-272.869
X19.7 Y-272.736
X19.784 Y-272.604
X19.881 Y-272.468
X19.994 Y-272.327
X20.119 Y-272.188
X20.257 Y-272.051
X20.411 Y-271.913
X20.583 Y-271.778
X20.767 Y-271.648
X20.963 Y-271.526
X21.171 Y-271.412
X21.39 Y-271.308
X21.621 Y-271.214
X21.857 Y-271.132
X22.101 Y-271.063
X22.35 Y-271.008
X22.6 Y-270.967
X22.826 Y-270.943
X23.069 Y-270.93
X23.295 Y-270.932
X23.494 Y-270.944
X23.717 Y-270.971
X23.914 Y-271.006
X24.095 Y-271.048
X24.166 Y-271.069
X24.505 Y-271.205
X24.814 Y-271.399
X25.082 Y-271.647
X25.301 Y-271.939
X25.464 Y-272.266
X25.564 Y-272.617
X25.598 Y-272.981
X25.601 Y-273.986
G2 X25.548 Y-274.214 I-0.6 J0.019 F350
X24.971 Y-274.566 I-0.547 J0.247 F850
G1 X19.969 Y-274.311
G2 X19.453 Y-273.959 I0.031 J0.599
X19.4 Y-273.731 I0.547 J0.247 F350
G1 X19.403 Y-272.724 F850
X19.411 Y-272.575
X19.431 Y-272.426
X19.465 Y-272.28
X19.51 Y-272.137
X19.566 Y-271.997
X19.631 Y-271.862
X19.704 Y-271.729
X19.788 Y-271.597
X19.885 Y-271.461
X19.998 Y-271.321
X20.123 Y-271.181
X20.261 Y-271.044
X20.415 Y-270.907
X20.586 Y-270.772
X20.77 Y-270.642
X20.966 Y-270.52
X21.173 Y-270.407
X21.393 Y-270.302
X21.623 Y-270.208
X21.859 Y-270.127
X22.104 Y-270.058
X22.352 Y-270.003
X22.601 Y-269.962
X22.826 Y-269.938
X23.069 Y-269.926
X23.295 Y-269.927
X23.494 Y-269.94
X23.717 Y-269.967
X23.913 Y-270.001
X24.093 Y-270.044
X24.163 Y-270.065
X24.502 Y-270.2
X24.811 Y-270.395
X25.08 Y-270.642
X25.298 Y-270.934
X25.461 Y-271.262
X25.56 Y-271.613
X25.595 Y-271.976
X25.598 Y-272.981
G2 X25.545 Y-273.209 I-0.6 J0.019 F350
X24.967 Y-273.561 I-0.547 J0.247 F850
G1 X19.972 Y-273.304
G2 X19.456 Y-272.952 I0.031 J0.599
X19.403 Y-272.724 I0.547 J0.247 F350
G1 X19.406 Y-271.718 F850
X19.414 Y-271.568
X19.434 Y-271.419
X19.468 Y-271.273
X19.514 Y-271.13
X19.569 Y-270.991
X19.634 Y-270.856
X19.708 Y-270.723
X19.791 Y-270.591
X19.888 Y-270.455
X20.001 Y-270.314
X20.127 Y-270.175
X20.264 Y-270.038
X20.419 Y-269.901
X20.59 Y-269.766
X20.774 Y-269.636
X20.97 Y-269.515
X21.177 Y-269.402
X21.397 Y-269.297
X21.627 Y-269.203
X21.863 Y-269.122
X22.107 Y-269.054
X22.354 Y-268.999
X22.603 Y-268.958
X22.828 Y-268.934
X23.07 Y-268.922
X23.296 Y-268.924
X23.494 Y-268.936
X23.717 Y-268.963
X23.912 Y-268.998
X24.093 Y-269.041
X24.161 Y-269.061
X24.5 Y-269.196
X24.809 Y-269.391
X25.077 Y-269.638
X25.296 Y-269.931
X25.458 Y-270.258
X25.557 Y-270.609
X25.592 Y-270.972
X25.595 Y-271.976
G2 X25.542 Y-272.204 I-0.6 J0.019 F350
X24.964 Y-272.556 I-0.547 J0.247 F850
G1 X19.975 Y-272.298
G2 X19.459 Y-271.946 I0.031 J0.599
X19.406 Y-271.718 I0.547 J0.247 F350
G1 X19.409 Y-270.711 F850
X19.417 Y-270.561
X19.437 Y-270.413
X19.471 Y-270.266
X19.517 Y-270.124
X19.573 Y-269.984
X19.638 Y-269.849
X19.711 Y-269.716
X19.795 Y-269.584
X19.892 Y-269.448
X20.005 Y-269.308
X20.131 Y-269.168
X20.269 Y-269.032
X20.423 Y-268.895
X20.594 Y-268.76
X20.779 Y-268.631
X20.974 Y-268.509
X21.181 Y-268.396
X21.401 Y-268.292
X21.63 Y-268.199
X21.866 Y-268.118
X22.11 Y-268.049
X22.357 Y-267.995
X22.606 Y-267.954
X22.83 Y-267.931
X23.072 Y-267.919
X23.297 Y-267.92
X23.495 Y-267.933
X23.718 Y-267.96
X23.912 Y-267.995
X24.093 Y-268.038
X24.161 Y-268.058
X24.499 Y-268.193
X24.807 Y-268.388
X25.075 Y-268.635
X25.293 Y-268.927
X25.455 Y-269.253
X25.554 Y-269.604
X25.589 Y-269.966
X25.592 Y-270.972
G2 X25.539 Y-271.2 I-0.6 J0.019 F350
X24.961 Y-271.552 I-0.547 J0.247 F850
G1 X19.977 Y-271.291
G2 X19.462 Y-270.939 I0.031 J0.599
X19.409 Y-270.711 I0.547 J0.247 F350
G1 X19.412 Y-269.704 F850
X19.42 Y-269.554
X19.441 Y-269.406
X19.475 Y-269.26
X19.521 Y-269.117
X19.576 Y-268.978
X19.641 Y-268.842
X19.715 Y-268.71
X19.799 Y-268.578
X19.897 Y-268.442
X20.01 Y-268.302
X20.135 Y-268.162
X20.273 Y-268.026
X20.428 Y-267.889
X20.599 Y-267.754
X20.783 Y-267.625
X20.979 Y-267.504
X21.186 Y-267.391
X21.405 Y-267.287
X21.635 Y-267.194
X21.87 Y-267.114
X22.114 Y-267.045
X22.361 Y-266.991
X22.609 Y-266.951
X22.833 Y-266.927
X23.075 Y-266.916
X23.299 Y-266.918
X23.497 Y-266.931
X23.72 Y-266.958
X23.914 Y-266.992
X24.095 Y-267.036
X24.163 Y-267.056
X24.5 Y-267.191
X24.807 Y-267.385
X25.074 Y-267.632
X25.291 Y-267.923
X25.452 Y-268.249
X25.552 Y-268.598
X25.586 Y-268.96
X25.589 Y-269.966
G2 X25.536 Y-270.194 I-0.6 J0.019 F350
X24.958 Y-270.546 I-0.547 J0.247 F850
G1 X19.98 Y-270.284
G2 X19.465 Y-269.932 I0.032 J0.599
X19.412 Y-269.704 I0.547 J0.247 F350
G1 X19.415 Y-268.697 F850
X19.423 Y-268.548
X19.444 Y-268.399
X19.478 Y-268.253
X19.524 Y-268.11
X19.58 Y-267.971
X19.645 Y-267.836
X19.719 Y-267.703
X19.804 Y-267.571
X19.901 Y-267.436
X20.014 Y-267.295
X20.14 Y-267.156
X20.278 Y-267.02
X20.433 Y-266.883
X20.604 Y-266.749
X20.789 Y-266.62
X20.984 Y-266.499
X21.191 Y-266.386
X21.411 Y-266.283
X21.64 Y-266.19
X21.875 Y-266.11
X22.119 Y-266.042
X22.366 Y-265.988
X22.614 Y-265.948
X22.837 Y-265.925
X23.079 Y-265.913
X23.303 Y-265.915
X23.501 Y-265.928
X23.723 Y-265.956
X23.917 Y-265.991
X24.098 Y-266.034
X24.165 Y-266.054
X24.501 Y-266.189
X24.807 Y-266.383
X25.073 Y-266.629
X25.289 Y-266.919
X25.45 Y-267.244
X25.549 Y-267.592
X25.583 Y-267.953
X25.586 Y-268.96
G2 X25.533 Y-269.188 I-0.6 J0.019 F350
X24.954 Y-269.54 I-0.547 J0.247 F850
G1 X19.983 Y-269.277
G2 X19.468 Y-268.926 I0.032 J0.599
X19.415 Y-268.697 I0.547 J0.247 F350
G1 X19.418 Y-267.691 F850
X19.426 Y-267.541
X19.447 Y-267.392
X19.482 Y-267.247
X19.528 Y-267.104
X19.584 Y-266.965
X19.649 Y-266.83
X19.724 Y-266.697
X19.808 Y-266.565
