%
(1001)
(crosssupportsfacing_ z0 stock top)
(T0  D=20 CR=0 - ZMIN=-5 - flat end mill)
G90 G94
G17
G21

(Face3)
M9
T0 M6
S6000 M3
G54
M9
G0 X515.899 Y-1.544
Z15
Z5
G1 Z1.5 F300
G18 G3 X513.899 Z-0.5 I-2
G1 X503
X-10 F750
G17 G2 Y16.722 J9.133
G1 X503
G3 Y34.988 J9.133
G1 X-10
G2 Y53.254 J9.133
G1 X503
G3 Y71.52 J9.133
G1 X-10
G2 Y89.787 J9.133
G1 X503
G3 Y108.053 J9.133
G1 X-10
G2 Y126.319 J9.133
G1 X503
G3 Y144.585 J9.133
G1 X-10
G2 Y162.851 J9.133
G1 X503
G3 Y181.117 J9.133
G1 X-10
G2 Y199.383 J9.133
G1 X503
G3 Y217.649 J9.133
G1 X-10
G2 Y235.915 J9.133
G1 X503
G3 Y254.181 J9.133
G1 X-10
G2 Y272.447 J9.133
G1 X503
G3 Y290.713 J9.133
G1 X-10
G2 Y308.98 J9.133
G1 X503
G3 Y327.246 J9.133
G1 X-10
G2 Y345.512 J9.133
G1 X503
G3 Y363.778 J9.133
G1 X-10
G2 Y382.044 J9.133
G1 X503
G3 Y400.31 J9.133
G1 X-10
G18 G3 X-12 Z1.5 K2 F300
G0 Z5
X-22.899 Y401.544
G1 Z0 F300
G2 X-20.899 Z-2 I2
G1 X-10
X503 F750
G17 G2 Y383.278 J-9.133
G1 X-10
G3 Y365.012 J-9.133
G1 X503
G2 Y346.746 J-9.133
G1 X-10
G3 Y328.48 J-9.133
G1 X503
G2 Y310.213 J-9.133
G1 X-10
G3 Y291.947 J-9.133
G1 X503
G2 Y273.681 J-9.133
G1 X-10
G3 Y255.415 J-9.133
G1 X503
G2 Y237.149 J-9.133
G1 X-10
G3 Y218.883 J-9.133
G1 X503
G2 Y200.617 J-9.133
G1 X-10
G3 Y182.351 J-9.133
G1 X503
G2 Y164.085 J-9.133
G1 X-10
G3 Y145.819 J-9.133
G1 X503
G2 Y127.553 J-9.133
G1 X-10
G3 Y109.287 J-9.133
G1 X503
G2 Y91.02 J-9.133
G1 X-10
G3 Y72.754 J-9.133
G1 X503
G2 Y54.488 J-9.133
G1 X-10
G3 Y36.222 J-9.133
G1 X503
G2 Y17.956 J-9.133
G1 X-10
G3 Y-0.31 J-9.133
G1 X503
G18 G2 X505 Z0 K2 F300
G0 Z5
X515.899 Y-1.544
G1 Z-1.5 F300
G3 X513.899 Z-3.5 I-2
G1 X503
X-10 F750
G17 G2 Y16.722 J9.133
G1 X503
G3 Y34.988 J9.133
G1 X-10
G2 Y53.254 J9.133
G1 X503
G3 Y71.52 J9.133
G1 X-10
G2 Y89.787 J9.133
G1 X503
G3 Y108.053 J9.133
G1 X-10
G2 Y126.319 J9.133
G1 X503
G3 Y144.585 J9.133
G1 X-10
G2 Y162.851 J9.133
G1 X503
G3 Y181.117 J9.133
G1 X-10
G2 Y199.383 J9.133
G1 X503
G3 Y217.649 J9.133
G1 X-10
G2 Y235.915 J9.133
G1 X503
G3 Y254.181 J9.133
G1 X-10
G2 Y272.447 J9.133
G1 X503
G3 Y290.713 J9.133
G1 X-10
G2 Y308.98 J9.133
G1 X503
G3 Y327.246 J9.133
G1 X-10
G2 Y345.512 J9.133
G1 X503
G3 Y363.778 J9.133
G1 X-10
G2 Y382.044 J9.133
G1 X503
G3 Y400.31 J9.133
G1 X-10
G18 G3 X-12 Z-1.5 K2 F300
G0 Z5
X-22.899 Y401.544
G1 Z-3 F300
G2 X-20.899 Z-5 I2
G1 X-10
X503 F750
G17 G2 Y383.278 J-9.133
G1 X-10
G3 Y365.012 J-9.133
G1 X503
G2 Y346.746 J-9.133
G1 X-10
G3 Y328.48 J-9.133
G1 X503
G2 Y310.213 J-9.133
G1 X-10
G3 Y291.947 J-9.133
G1 X503
G2 Y273.681 J-9.133
G1 X-10
G3 Y255.415 J-9.133
G1 X503
G2 Y237.149 J-9.133
G1 X-10
G3 Y218.883 J-9.133
G1 X503
G2 Y200.617 J-9.133
G1 X-10
G3 Y182.351 J-9.133
G1 X503
G2 Y164.085 J-9.133
G1 X-10
G3 Y145.819 J-9.133
G1 X503
G2 Y127.553 J-9.133
G1 X-10
G3 Y109.287 J-9.133
G1 X503
G2 Y91.02 J-9.133
G1 X-10
G3 Y72.754 J-9.133
G1 X503
G2 Y54.488 J-9.133
G1 X-10
G3 Y36.222 J-9.133
G1 X503
G2 Y17.956 J-9.133
G1 X-10
G3 Y-0.31 J-9.133
G1 X503
G18 G2 X505 Z-3 K2 F300
G0 Z15
G17
M9
M30
%
