%
(1001)
(2 legs length along y axis. Origin far top left)
(T2  D=6 CR=0 - ZMIN=-22 - flat end mill)
G90 G94
G17
G21

(2D Adaptive11)
M9
T2 M6
S6500 M3
G54
M9
G0 X25.219 Y-33.886
Z15
Z5
Z3.1
G1 Z2.5 F250
G2 X22.647 Y-38.219 Z2.292 I-2.719 J-1.316 F200
X19.669 Y-34.161 Z2.084 I-0.147 J3.014
X24.563 Y-33.01 Z1.876 I2.827 J-1.043
X23.708 Y-37.958 Z1.668 I-2.064 J-2.191
X19.495 Y-35.238 Z1.459 I-1.207 J2.753
X23.642 Y-32.428 Z1.251 I3.003 J0.033
X24.603 Y-37.338 Z1.043 I-1.143 J-2.773
X19.714 Y-36.302 Z0.835 I-2.102 J2.134
X22.577 Y-32.214 Z0.627 I2.783 J1.097
X25.216 Y-36.443 Z0.419 I-0.079 J-2.987
X20.297 Y-37.216 Z0.211 I-2.715 J1.24
X21.51 Y-32.393 Z0.002 I2.201 J2.01
X25.468 Y-35.393 Z-0.206 I0.987 J-2.809
X21.164 Y-37.859 Z-0.414 I-2.968 J0.19
X20.58 Y-32.939 Z-0.622 I1.335 J2.653
X25.33 Y-34.325 Z-0.83 I1.917 J-2.264
X22.2 Y-38.149 Z-1.038 I-2.83 J-0.877
X19.908 Y-33.777 Z-1.246 I0.3 J2.944
X24.823 Y-33.38 Z-1.454 I2.588 J-1.427
X23.267 Y-38.052 Z-1.663 I-2.323 J-1.821
X19.581 Y-34.796 Z-1.871 I-0.766 J2.847
X24.014 Y-32.681 Z-2.079 I2.916 J-0.409
X24.225 Y-37.582 Z-2.287 I-1.515 J-2.521
X19.638 Y-35.86 Z-2.495 I-1.724 J2.378
X23.013 Y-32.317 Z-2.703 I2.86 J0.655
X24.951 Y-36.804 Z-2.911 I-0.515 J-2.884
X20.069 Y-36.831 Z-3.119 I-2.45 J1.601
X21.952 Y-32.334 Z-3.328 I2.429 J1.626
X25.35 Y-35.823 Z-3.536 I0.545 J-2.868
X20.815 Y-37.582 Z-3.744 I-2.849 J0.62
X20.971 Y-32.727 Z-3.952 I1.683 J2.376
X25.372 Y-34.767 Z-4.16 I1.526 J-2.476
X21.777 Y-38.015 Z-4.368 I-2.872 J-0.435
X20.197 Y-33.441 Z-4.576 I0.723 J2.81
X25.019 Y-33.777 Z-4.784 I2.3 J-1.763
X22.825 Y-38.077 Z-4.992 I-2.519 J-1.425
X19.73 Y-34.38 Z-5.201 I-0.325 J2.872
X24.338 Y-32.981 Z-5.409 I2.766 J-0.824
X23.823 Y-37.762 Z-5.617 I-1.838 J-2.221
X19.63 Y-35.42 Z-5.825 I-1.322 J2.558
X23.421 Y-32.481 Z-6.033 I2.868 J0.216
X24.64 Y-37.114 Z-6.241 I-0.922 J-2.72
X19.905 Y-36.424 Z-6.449 I-2.139 J1.911
X22.39 Y-32.342 Z-6.657 I2.592 J1.219
X25.171 Y-36.222 Z-6.866 I0.107 J-2.859
X20.519 Y-37.261 Z-7.074 I-2.67 J1.019
X21.382 Y-32.579 Z-7.282 I1.98 J2.056
X25.347 Y-35.202 Z-7.49 I1.115 J-2.623
X19.647 I-2.85
X25.347 I2.85
G1 X25.36 Y-36.088 F850
X25.393 Y-36.194
X25.421 Y-36.341
X25.43 Y-36.491
X25.423 Y-36.641
X25.403 Y-36.789
X25.37 Y-36.936
X25.325 Y-37.079
X25.271 Y-37.219
X25.207 Y-37.355
X25.135 Y-37.486
X25.055 Y-37.613
X24.967 Y-37.735
X24.949 Y-37.757
X24.702 Y-38.013
X24.413 Y-38.221
X24.091 Y-38.374
X23.748 Y-38.468
X23.393 Y-38.5
X21.672
X21.508 Y-38.492
X21.359 Y-38.476
X21.211 Y-38.451
X21.065 Y-38.416
X20.921 Y-38.373
X20.775 Y-38.321
X20.629 Y-38.259
X20.482 Y-38.187
X20.336 Y-38.104
X20.192 Y-38.012
X20.051 Y-37.909
X19.913 Y-37.797
X19.902 Y-37.787
X19.676 Y-37.544
X19.494 Y-37.267
X19.36 Y-36.963
X19.278 Y-36.641
X19.25 Y-36.31
G2 X19.304 Y-36.082 I0.6 J-0.021 F250
X20.244 Y-35.878 I0.546 J-0.249 F850
G1 X22.045 Y-37.448
G2 X21.9 Y-38.446 I-0.394 J-0.452
X21.672 Y-38.5 I-0.249 J0.546 F250
G1 X20.465 F850
X20.315 Y-38.493
X20.032 Y-38.423
X19.773 Y-38.287
X19.555 Y-38.094
X19.389 Y-37.853
X19.285 Y-37.58
X19.25 Y-37.29
G2 X19.304 Y-37.062 I0.6 J-0.021 F250
X20.272 Y-36.885 I0.546 J-0.249 F850
G1 X20.867 Y-37.474
G2 X20.693 Y-38.446 I-0.422 J-0.426
X20.465 Y-38.5 I-0.249 J0.546 F250
G1 X19.862 F850
X19.761 Y-38.492
X19.661 Y-38.465
X19.568 Y-38.423
X19.514 Y-38.389
X19.46 Y-38.345
X19.4 Y-38.283
X19.355 Y-38.222
X19.3 Y-38.121
X19.281 Y-38.071
X19.266 Y-38.02
X19.259 Y-37.982
X19.25 Y-37.819
Y-34.285
X19.257 Y-34.136
X19.275 Y-33.987
X19.302 Y-33.839
X19.338 Y-33.693
X19.383 Y-33.55
X19.436 Y-33.409
X19.5 Y-33.266
X19.573 Y-33.123
X19.656 Y-32.981
X19.749 Y-32.841
X19.853 Y-32.703
X19.966 Y-32.569
X20.089 Y-32.438
X20.221 Y-32.313
X20.362 Y-32.194
X20.512 Y-32.081
X20.669 Y-31.975
X20.835 Y-31.878
X21.007 Y-31.788
X21.186 Y-31.708
X21.371 Y-31.638
X21.561 Y-31.578
X21.755 Y-31.528
X21.953 Y-31.488
X22.154 Y-31.46
X22.358 Y-31.443
X22.563 Y-31.438
X22.769 Y-31.444
X22.975 Y-31.462
X23.18 Y-31.491
X23.384 Y-31.532
X23.586 Y-31.585
X23.785 Y-31.649
X23.981 Y-31.725
X24.172 Y-31.811
X24.359 Y-31.908
X24.54 Y-32.016
X24.715 Y-32.134
X24.884 Y-32.262
X25.045 Y-32.399
X25.198 Y-32.546
X25.21 Y-32.559
X25.44 Y-32.856
X25.61 Y-33.191
X25.715 Y-33.551
X25.75 Y-33.925
Y-37.124
X25.743 Y-37.274
X25.679 Y-37.555
X25.558 Y-37.817
X25.387 Y-38.048
X25.171 Y-38.239
X24.921 Y-38.382
X24.647 Y-38.47
X24.36 Y-38.5
G2 X24.132 Y-38.446 I0.021 J0.6 F250
X23.961 Y-37.472 I0.249 J0.546 F850
G1 X24.73 Y-36.717
G2 X25.696 Y-36.896 I0.42 J-0.428
X25.75 Y-37.124 I-0.546 J-0.249 F250
G1 Y-37.819 F850
X25.749 Y-37.92
X25.734 Y-38.02
X25.717 Y-38.077
X25.694 Y-38.134
X25.644 Y-38.222
X25.581 Y-38.302
X25.537 Y-38.346
X25.493 Y-38.382
X25.429 Y-38.423
X25.361 Y-38.456
X25.292 Y-38.479
X25.191 Y-38.497
X25.091 Y-38.5
X23.393
G2 X23.165 Y-38.446 I0.021 J0.6 F250
X22.986 Y-38.32 I0.249 J0.546 F850
G1 X19.421 Y-34.684
G2 X19.304 Y-34.513 I0.428 J0.42
X19.25 Y-34.285 I0.546 J0.249 F250
G1 Y-33.077 F850
X19.257 Y-32.927
X19.28 Y-32.779
X19.314 Y-32.633
X19.361 Y-32.49
X19.417 Y-32.351
X19.482 Y-32.216
X19.556 Y-32.086
X19.637 Y-31.96
X19.729 Y-31.832
X19.834 Y-31.703
X19.951 Y-31.575
X20.079 Y-31.451
X20.217 Y-31.33
X20.367 Y-31.213
X20.529 Y-31.101
X20.703 Y-30.995
X20.887 Y-30.896
X21.081 Y-30.805
X21.283 Y-30.725
X21.493 Y-30.654
X21.711 Y-30.594
X21.937 Y-30.546
X22.169 Y-30.51
X22.406 Y-30.487
X22.648 Y-30.476
X22.893 Y-30.48
X23.14 Y-30.497
X23.388 Y-30.529
X23.636 Y-30.575
X23.883 Y-30.635
X24.127 Y-30.71
X24.369 Y-30.799
X24.582 Y-30.891
X24.647 Y-30.924
X24.959 Y-31.118
X25.231 Y-31.367
X25.452 Y-31.661
X25.616 Y-31.991
X25.716 Y-32.345
X25.75 Y-32.711
Y-33.925
G2 X25.696 Y-34.153 I-0.6 J0.021 F250
X25.056 Y-34.497 I-0.546 J0.249 F850
G1 X19.755 Y-33.649
G2 X19.304 Y-33.305 I0.095 J0.592
X19.25 Y-33.077 I0.546 J0.249 F250
G1 Y-32.071 F850
X19.257 Y-31.921
X19.281 Y-31.773
X19.319 Y-31.627
X19.368 Y-31.486
X19.428 Y-31.348
X19.496 Y-31.215
X19.573 Y-31.086
X19.658 Y-30.961
X19.757 Y-30.833
X19.867 Y-30.705
X19.988 Y-30.58
X20.123 Y-30.454
X20.273 Y-30.33
X20.436 Y-30.21
X20.61 Y-30.097
X20.796 Y-29.989
X20.997 Y-29.888
X21.212 Y-29.795
X21.439 Y-29.711
X21.676 Y-29.639
X21.921 Y-29.579
X22.175 Y-29.532
X22.438 Y-29.498
X22.71 Y-29.478
X22.988 Y-29.474
X23.268 Y-29.486
X23.514 Y-29.51
X23.774 Y-29.55
X24.006 Y-29.6
X24.211 Y-29.656
X24.435 Y-29.731
X24.49 Y-29.753
X24.794 Y-29.905
X25.068 Y-30.106
X25.304 Y-30.351
X25.495 Y-30.633
X25.635 Y-30.943
X25.721 Y-31.272
X25.75 Y-31.61
Y-32.711
G2 X25.696 Y-32.939 I-0.6 J0.021 F250
X25.078 Y-33.286 I-0.546 J0.249 F850
G1 X19.778 Y-32.645
G2 X19.304 Y-32.298 I0.072 J0.596
X19.25 Y-32.071 I0.546 J0.249 F250
G1 Y-31.175 F850
X19.257 Y-31.025
X19.275 Y-30.876
X19.306 Y-30.729
X19.351 Y-30.586
X19.407 Y-30.447
X19.472 Y-30.312
X19.546 Y-30.181
X19.627 Y-30.055
X19.721 Y-29.926
X19.83 Y-29.794
X19.949 Y-29.665
X20.082 Y-29.535
X20.233 Y-29.405
X20.398 Y-29.278
X20.574 Y-29.157
X20.766 Y-29.04
X20.976 Y-28.929
X21.202 Y-28.824
X21.439 Y-28.731
X21.687 Y-28.649
X21.945 Y-28.579
X22.213 Y-28.523
X22.488 Y-28.481
X22.763 Y-28.455
X23.04 Y-28.444
X23.284 Y-28.449
X23.546 Y-28.468
X23.766 Y-28.497
X23.991 Y-28.54
X24.206 Y-28.593
X24.392 Y-28.651
X24.448 Y-28.672
X24.761 Y-28.82
X25.043 Y-29.021
X25.287 Y-29.267
X25.485 Y-29.551
X25.631 Y-29.866
X25.72 Y-30.201
X25.75 Y-30.546
Y-31.61
G2 X25.696 Y-31.838 I-0.6 J0.021 F250
X25.101 Y-32.187 I-0.546 J0.249 F850
G1 X19.8 Y-31.752
G2 X19.304 Y-31.402 I0.049 J0.598
X19.25 Y-31.175 I0.546 J0.249 F250
G1 Y-30.168 F850
X19.257 Y-30.018
X19.28 Y-29.87
X19.317 Y-29.724
X19.365 Y-29.582
X19.424 Y-29.444
X19.491 Y-29.31
X19.567 Y-29.181
X19.655 Y-29.048
X19.754 Y-28.917
X19.868 Y-28.781
X19.999 Y-28.643
X20.141 Y-28.508
X20.298 Y-28.375
X20.474 Y-28.242
X20.667 Y-28.113
X20.872 Y-27.992
X21.091 Y-27.879
X21.326 Y-27.774
X21.572 Y-27.68
X21.831 Y-27.598
X22.094 Y-27.53
X22.364 Y-27.477
X22.636 Y-27.439
X22.907 Y-27.417
X23.151 Y-27.41
X23.407 Y-27.418
X23.639 Y-27.438
X23.849 Y-27.468
X24.076 Y-27.514
X24.266 Y-27.564
X24.47 Y-27.63
X24.778 Y-27.781
X25.056 Y-27.982
X25.296 Y-28.227
X25.49 Y-28.51
X25.633 Y-28.822
X25.721 Y-29.154
X25.75 Y-29.496
Y-30.546
G2 X25.696 Y-30.774 I-0.6 J0.021 F250
X25.108 Y-31.124 I-0.546 J0.249 F850
G1 X19.807 Y-30.745
G2 X19.304 Y-30.396 I0.043 J0.598
X19.25 Y-30.168 I0.546 J0.249 F250
G1 Y-29.252 F850
X19.257 Y-29.102
X19.274 Y-28.953
X19.305 Y-28.806
X19.348 Y-28.662
X19.402 Y-28.522
X19.465 Y-28.386
X19.536 Y-28.254
X19.619 Y-28.121
X19.716 Y-27.984
X19.823 Y-27.848
X19.947 Y-27.707
X20.088 Y-27.565
X20.241 Y-27.427
X20.41 Y-27.292
X20.597 Y-27.158
X20.801 Y-27.028
X21.018 Y-26.908
X21.246 Y-26.797
X21.486 Y-26.697
X21.738 Y-26.608
X21.998 Y-26.532
X22.261 Y-26.472
X22.53 Y-26.425
X22.799 Y-26.394
X23.063 Y-26.379
X23.294
X23.544 Y-26.393
X23.754 Y-26.416
X23.971 Y-26.453
X24.181 Y-26.501
X24.362 Y-26.553
X24.411 Y-26.57
X24.732 Y-26.715
X25.022 Y-26.914
X25.273 Y-27.161
X25.477 Y-27.449
X25.627 Y-27.767
X25.719 Y-28.107
X25.75 Y-28.458
Y-29.496
G2 X25.696 Y-29.724 I-0.6 J0.021 F250
X25.123 Y-30.075 I-0.546 J0.249 F850
G1 X19.822 Y-29.83
G2 X19.304 Y-29.48 I0.028 J0.599
X19.25 Y-29.252 I0.546 J0.249 F250
G1 Y-28.245 F850
X19.257 Y-28.095
X19.276 Y-27.946
X19.307 Y-27.8
X19.351 Y-27.656
X19.405 Y-27.516
X19.468 Y-27.38
X19.541 Y-27.247
X19.623 Y-27.114
X19.72 Y-26.975
X19.832 Y-26.832
X19.956 Y-26.691
X20.096 Y-26.55
X20.254 Y-26.407
X20.427 Y-26.267
X20.612 Y-26.133
X20.814 Y-26.005
X21.032 Y-25.883
X21.265 Y-25.769
X21.508 Y-25.667
X21.76 Y-25.577
X22.018 Y-25.502
X22.281 Y-25.44
X22.548 Y-25.394
X22.814 Y-25.363
X23.058 Y-25.348
X23.303 Y-25.347
X23.543 Y-25.36
X23.748 Y-25.382
X23.975 Y-25.42
X24.174 Y-25.465
X24.36 Y-25.518
X24.406 Y-25.534
X24.728 Y-25.679
X25.019 Y-25.878
X25.271 Y-26.125
X25.476 Y-26.412
X25.626 Y-26.731
X25.719 Y-27.072
X25.75 Y-27.423
Y-28.458
G2 X25.696 Y-28.686 I-0.6 J0.021 F250
X25.126 Y-29.036 I-0.546 J0.249 F850
G1 X19.826 Y-28.824
G2 X19.304 Y-28.473 I0.024 J0.6
X19.25 Y-28.245 I0.546 J0.249 F250
G1 Y-27.238 F850
X19.257 Y-27.089
X19.275 Y-26.94
X19.307 Y-26.793
X19.35 Y-26.649
X19.404 Y-26.509
X19.466 Y-26.373
X19.538 Y-26.239
X19.62 Y-26.106
X19.717 Y-25.965
X19.829 Y-25.82
X19.953 Y-25.679
X20.093 Y-25.535
X20.252 Y-25.39
X20.424 Y-25.249
X20.61 Y-25.114
X20.812 Y-24.984
X21.03 Y-24.861
X21.261 Y-24.746
X21.503 Y-24.643
X21.754 Y-24.553
X22.01 Y-24.476
X22.272 Y-24.414
X22.538 Y-24.366
X22.803 Y-24.334
X23.047 Y-24.318
X23.29 Y-24.316
X23.53 Y-24.327
X23.735 Y-24.349
X23.962 Y-24.385
X24.161 Y-24.429
X24.346 Y-24.481
X24.397 Y-24.499
X24.721 Y-24.642
X25.014 Y-24.841
X25.268 Y-25.088
X25.474 Y-25.376
X25.626 Y-25.696
X25.719 Y-26.038
X25.75 Y-26.391
Y-27.423
G2 X25.696 Y-27.651 I-0.6 J0.021 F250
X25.129 Y-28.002 I-0.546 J0.249 F850
G1 X19.829 Y-27.817
G2 X19.304 Y-27.466 I0.021 J0.6
X19.25 Y-27.238 I0.546 J0.249 F250
G1 Y-26.232 F850
X19.257 Y-26.082
X19.274 Y-25.933
X19.305 Y-25.786
X19.347 Y-25.642
X19.399 Y-25.501
X19.461 Y-25.365
X19.532 Y-25.231
X19.612 Y-25.097
X19.709 Y-24.955
X19.82 Y-24.811
X19.942 Y-24.668
X20.082 Y-24.523
X20.239 Y-24.378
X20.409 Y-24.236
X20.593 Y-24.101
X20.794 Y-23.97
X21.012 Y-23.844
X21.241 Y-23.729
X21.482 Y-23.624
X21.731 Y-23.532
X21.987 Y-23.454
X22.247 Y-23.39
X22.512 Y-23.341
X22.777 Y-23.307
X23.022 Y-23.289
X23.263 Y-23.285
X23.507 Y-23.295
X23.712 Y-23.315
X23.938 Y-23.35
X24.14 Y-23.393
X24.324 Y-23.443
X24.384 Y-23.463
X24.71 Y-23.606
X25.006 Y-23.804
X25.262 Y-24.052
X25.471 Y-24.341
X25.624 Y-24.662
X25.718 Y-25.006
X25.75 Y-25.36
Y-26.391
G2 X25.696 Y-26.619 I-0.6 J0.021 F250
X25.132 Y-26.97 I-0.546 J0.249 F850
G1 X19.832 Y-26.81
G2 X19.304 Y-26.46 I0.018 J0.6
X19.25 Y-26.232 I0.546 J0.249 F250
G1 Y-25.175 F850
X19.257 Y-25.025
X19.278 Y-24.877
X19.311 Y-24.73
X19.356 Y-24.587
X19.411 Y-24.448
X19.474 Y-24.312
X19.548 Y-24.175
X19.633 Y-24.037
X19.731 Y-23.898
X19.846 Y-23.751
X19.975 Y-23.605
X20.116 Y-23.462
X20.275 Y-23.319
X20.452 Y-23.176
X20.643 Y-23.039
X20.846 Y-22.91
X21.064 Y-22.788
X21.295 Y-22.675
X21.537 Y-22.574
X21.789 Y-22.485
X22.046 Y-22.41
X22.308 Y-22.349
X22.573 Y-22.303
X22.838 Y-22.272
X23.074 Y-22.258
X23.327 Y-22.257
X23.555 Y-22.269
X23.762 Y-22.292
X23.988 Y-22.33
X24.18 Y-22.373
X24.371 Y-22.428
X24.408 Y-22.441
X24.729 Y-22.586
X25.02 Y-22.785
X25.272 Y-23.032
X25.476 Y-23.319
X25.627 Y-23.638
X25.719 Y-23.978
X25.75 Y-24.33
Y-25.36
G2 X25.696 Y-25.588 I-0.6 J0.021 F250
X25.129 Y-25.939 I-0.546 J0.249 F850
G1 X19.829 Y-25.754
G2 X19.304 Y-25.403 I0.021 J0.6
X19.25 Y-25.175 I0.546 J0.249 F250
G1 Y-24.128 F850
X19.257 Y-23.978
X19.28 Y-23.83
X19.315 Y-23.684
X19.361 Y-23.541
X19.417 Y-23.402
X19.482 Y-23.266
X19.558 Y-23.129
X19.644 Y-22.993
X19.745 Y-22.85
X19.862 Y-22.703
X19.991 Y-22.56
X20.135 Y-22.416
X20.297 Y-22.271
X20.476 Y-22.129
X20.668 Y-21.994
X20.873 Y-21.865
X21.094 Y-21.744
X21.326 Y-21.633
X21.571 Y-21.532
X21.824 Y-21.444
X22.081 Y-21.371
X22.345 Y-21.312
X22.609 Y-21.268
X22.874 Y-21.239
X23.108 Y-21.227
X23.359 Y-21.228
X23.586 Y-21.242
X23.791 Y-21.266
X24.016 Y-21.306
X24.206 Y-21.35
X24.396 Y-21.406
X24.421 Y-21.415
X24.74 Y-21.561
X25.028 Y-21.761
X25.277 Y-22.007
X25.479 Y-22.294
X25.628 Y-22.611
X25.719 Y-22.95
X25.75 Y-23.299
Y-24.33
G2 X25.696 Y-24.558 I-0.6 J0.021 F250
X25.128 Y-24.908 I-0.546 J0.249 F850
G1 X19.827 Y-24.706
G2 X19.304 Y-24.356 I0.023 J0.6
X19.25 Y-24.128 I0.546 J0.249 F250
G1 Y-23.121 F850
X19.257 Y-22.971
X19.277 Y-22.822
X19.311 Y-22.676
X19.355 Y-22.533
X19.41 Y-22.393
X19.473 Y-22.257
X19.545 Y-22.125
X19.629 Y-21.987
X19.729 Y-21.843
X19.842 Y-21.7
X19.968 Y-21.556
X20.112 Y-21.41
X20.272 Y-21.264
X20.445 Y-21.124
X20.633 Y-20.989
X20.838 Y-20.858
X21.059 Y-20.733
X21.29 Y-20.62
X21.533 Y-20.517
X21.784 Y-20.428
X22.04 Y-20.352
X22.301 Y-20.291
X22.566 Y-20.244
X22.831 Y-20.213
X23.073 Y-20.198
X23.313 Y-20.196
X23.552 Y-20.209
X23.755 Y-20.231
X23.979 Y-20.268
X24.178 Y-20.312
X24.361 Y-20.364
X24.403 Y-20.379
X24.726 Y-20.523
X25.018 Y-20.722
X25.27 Y-20.969
X25.475 Y-21.257
X25.626 Y-21.576
X25.719 Y-21.917
X25.75 Y-22.269
Y-23.299
G2 X25.696 Y-23.527 I-0.6 J0.021 F250
X25.13 Y-23.878 I-0.546 J0.249 F850
G1 X19.83 Y-23.7
G2 X19.304 Y-23.349 I0.02 J0.6
X19.25 Y-23.121 I0.546 J0.249 F250
G1 Y-22.114 F850
X19.257 Y-21.964
X19.275 Y-21.815
X19.306 Y-21.669
X19.349 Y-21.525
X19.402 Y-21.385
X19.464 Y-21.248
X19.535 Y-21.115
X19.617 Y-20.979
X19.715 Y-20.835
X19.826 Y-20.691
X19.95 Y-20.548
X20.091 Y-20.402
X20.249 Y-20.255
X20.42 Y-20.114
X20.605 Y-19.978
X20.808 Y-19.847
X21.026 Y-19.721
X21.257 Y-19.606
X21.498 Y-19.502
X21.747 Y-19.41
X22.003 Y-19.332
X22.263 Y-19.269
X22.528 Y-19.22
X22.792 Y-19.186
X23.036 Y-19.169
X23.276 Y-19.166
X23.518 Y-19.176
X23.722 Y-19.196
X23.947 Y-19.232
X24.148 Y-19.275
X24.332 Y-19.325
X24.387 Y-19.344
X24.713 Y-19.487
X25.008 Y-19.685
X25.264 Y-19.932
X25.471 Y-20.221
X25.624 Y-20.542
X25.718 Y-20.885
X25.75 Y-21.24
Y-22.269
G2 X25.696 Y-22.497 I-0.6 J0.021 F250
X25.133 Y-22.848 I-0.546 J0.249 F850
G1 X19.832 Y-22.693
G2 X19.304 Y-22.342 I0.018 J0.6
X19.25 Y-22.114 I0.546 J0.249 F250
G1 Y-21.047 F850
X19.257 Y-20.897
X19.279 Y-20.748
X19.314 Y-20.602
X19.36 Y-20.46
X19.416 Y-20.32
X19.48 Y-20.185
X19.556 Y-20.047
X19.642 Y-19.909
X19.742 Y-19.768
X19.858 Y-19.621
X19.989 Y-19.474
X20.133 Y-19.331
X20.293 Y-19.187
X20.471 Y-19.045
X20.665 Y-18.908
X20.87 Y-18.779
X21.09 Y-18.658
X21.322 Y-18.546
X21.564 Y-18.446
X21.817 Y-18.358
X22.074 Y-18.284
X22.337 Y-18.224
X22.602 Y-18.18
X22.866 Y-18.151
X23.099 Y-18.138
X23.353 Y-18.139
X23.577 Y-18.152
X23.785 Y-18.176
X24.009 Y-18.215
X24.198 Y-18.258
X24.391 Y-18.315
X24.418 Y-18.324
X24.737 Y-18.47
X25.026 Y-18.669
X25.276 Y-18.916
X25.478 Y-19.203
X25.628 Y-19.521
X25.719 Y-19.86
X25.75 Y-20.209
Y-21.24
G2 X25.696 Y-21.468 I-0.6 J0.021 F250
X25.129 Y-21.818 I-0.546 J0.249 F850
G1 X19.828 Y-21.625
G2 X19.304 Y-21.274 I0.022 J0.6
X19.25 Y-21.047 I0.546 J0.249 F250
G1 Y-20.04 F850
X19.257 Y-19.89
X19.277 Y-19.741
X19.309 Y-19.595
X19.353 Y-19.451
X19.407 Y-19.312
X19.471 Y-19.176
X19.542 Y-19.043
X19.626 Y-18.906
X19.725 Y-18.761
X19.837 Y-18.618
X19.962 Y-18.474
X20.106 Y-18.328
X20.265 Y-18.182
X20.437 Y-18.042
X20.624 Y-17.906
X20.828 Y-17.775
X21.049 Y-17.65
X21.28 Y-17.536
X21.521 Y-17.433
X21.772 Y-17.343
X22.028 Y-17.266
X22.289 Y-17.204
X22.553 Y-17.157
X22.818 Y-17.125
X23.062 Y-17.109
X23.3 Y-17.107
X23.54 Y-17.118
X23.744 Y-17.14
X23.968 Y-17.176
X24.168 Y-17.22
X24.351 Y-17.272
X24.398 Y-17.288
X24.721 Y-17.431
X25.014 Y-17.63
X25.268 Y-17.877
X25.474 Y-18.165
X25.626 Y-18.485
X25.719 Y-18.827
X25.75 Y-19.18
Y-20.209
G2 X25.696 Y-20.437 I-0.6 J0.021 F250
X25.131 Y-20.788 I-0.546 J0.249 F850
G1 X19.83 Y-20.619
G2 X19.304 Y-20.268 I0.019 J0.6
X19.25 Y-20.04 I0.546 J0.249 F250
G1 Y-18.983 F850
X19.257 Y-18.834
X19.28 Y-18.685
X19.315 Y-18.539
X19.361 Y-18.397
X19.417 Y-18.257
X19.481 Y-18.122
X19.557 Y-17.984
X19.644 Y-17.847
X19.744 Y-17.705
X19.862 Y-17.558
X19.992 Y-17.412
X20.136 Y-17.268
X20.297 Y-17.124
X20.477 Y-16.982
X20.669 Y-16.845
X20.874 Y-16.717
X21.095 Y-16.596
X21.328 Y-16.484
X21.571 Y-16.384
X21.824 Y-16.296
X22.081 Y-16.223
X22.344 Y-16.163
X22.609 Y-16.119
X22.873 Y-16.09
X23.107 Y-16.078
X23.359 Y-16.079
X23.584 Y-16.093
X23.79 Y-16.117
X24.015 Y-16.156
X24.204 Y-16.2
X24.396 Y-16.256
X24.42 Y-16.265
X24.739 Y-16.411
X25.028 Y-16.611
X25.277 Y-16.858
X25.479 Y-17.144
X25.628 Y-17.462
X25.719 Y-17.8
X25.75 Y-18.149
Y-19.18
G2 X25.696 Y-19.408 I-0.6 J0.021 F250
X25.128 Y-19.758 I-0.546 J0.249 F850
G1 X19.827 Y-19.562
G2 X19.304 Y-19.211 I0.022 J0.6
X19.25 Y-18.983 I0.546 J0.249 F250
G1 Y-17.977 F850
X19.257 Y-17.827
X19.277 Y-17.678
X19.31 Y-17.532
X19.354 Y-17.388
X19.409 Y-17.249
X19.472 Y-17.113
X19.543 Y-16.98
X19.628 Y-16.843
X19.728 Y-16.698
X19.839 Y-16.555
X19.965 Y-16.411
X20.109 Y-16.264
X20.269 Y-16.119
X20.441 Y-15.979
X20.629 Y-15.843
X20.834 Y-15.712
X21.055 Y-15.587
X21.286 Y-15.473
X21.528 Y-15.371
X21.779 Y-15.281
X22.035 Y-15.205
X22.296 Y-15.143
X22.561 Y-15.096
X22.826 Y-15.064
X23.068 Y-15.049
X23.307 Y-15.047
X23.547 Y-15.059
X23.75 Y-15.081
X23.974 Y-15.118
X24.173 Y-15.162
X24.356 Y-15.213
X24.4 Y-15.229
X24.723 Y-15.373
X25.016 Y-15.572
X25.269 Y-15.819
X25.474 Y-16.107
X25.626 Y-16.426
X25.719 Y-16.768
X25.75 Y-17.12
Y-18.149
G2 X25.696 Y-18.377 I-0.6 J0.021 F250
X25.131 Y-18.728 I-0.546 J0.249 F850
G1 X19.83 Y-18.555
G2 X19.304 Y-18.205 I0.02 J0.6
X19.25 Y-17.977 I0.546 J0.249 F250
G1 Y-16.97 F850
X19.257 Y-16.82
X19.275 Y-16.671
X19.306 Y-16.524
X19.348 Y-16.38
X19.401 Y-16.24
X19.463 Y-16.103
X19.533 Y-15.97
X19.615 Y-15.834
X19.713 Y-15.691
X19.823 Y-15.546
X19.947 Y-15.403
X20.088 Y-15.257
X20.246 Y-15.11
X20.416 Y-14.969
X20.601 Y-14.833
X20.803 Y-14.701
X21.021 Y-14.576
X21.251 Y-14.46
X21.492 Y-14.355
X21.741 Y-14.264
X21.996 Y-14.185
X22.257 Y-14.121
X22.521 Y-14.072
X22.786 Y-14.038
X23.03 Y-14.021
X23.269 Y-14.017
X23.512 Y-14.027
X23.716 Y-14.047
X23.942 Y-14.082
X24.143 Y-14.125
X24.326 Y-14.175
X24.384 Y-14.194
X24.71 Y-14.336
X25.006 Y-14.535
X25.262 Y-14.782
X25.471 Y-15.071
X25.624 Y-15.393
X25.718 Y-15.736
X25.75 Y-16.091
Y-17.12
G2 X25.696 Y-17.348 I-0.6 J0.021 F250
X25.133 Y-17.699 I-0.546 J0.249 F850
G1 X19.833 Y-17.549
G2 X19.304 Y-17.198 I0.017 J0.6
X19.25 Y-16.97 I0.546 J0.249 F250
G1 Y-15.913 F850
X19.257 Y-15.764
X19.278 Y-15.615
X19.311 Y-15.469
X19.356 Y-15.326
X19.411 Y-15.186
X19.474 Y-15.05
X19.548 Y-14.913
X19.633 Y-14.775
X19.732 Y-14.634
X19.847 Y-14.488
X19.976 Y-14.342
X20.117 Y-14.198
X20.276 Y-14.054
X20.453 Y-13.911
X20.644 Y-13.773
X20.847 Y-13.644
X21.066 Y-13.522
X21.297 Y-13.409
X21.539 Y-13.307
X21.791 Y-13.218
X22.047 Y-13.142
X22.309 Y-13.081
X22.574 Y-13.035
X22.838 Y-13.004
X23.074 Y-12.99
X23.326 Y-12.989
X23.554 Y-13.001
X23.761 Y-13.024
X23.987 Y-13.061
X24.178 Y-13.104
X24.369 Y-13.159
X24.406 Y-13.172
X24.728 Y-13.316
X25.019 Y-13.515
X25.271 Y-13.762
X25.476 Y-14.05
X25.626 Y-14.369
X25.719 Y-14.709
X25.75 Y-15.061
Y-16.091
G2 X25.696 Y-16.319 I-0.6 J0.021 F250
X25.13 Y-16.669 I-0.546 J0.249 F850
G1 X19.83 Y-16.492
G2 X19.304 Y-16.141 I0.02 J0.6
X19.25 Y-15.913 I0.546 J0.249 F250
G1 Y-14.866 F850
X19.257 Y-14.716
X19.28 Y-14.568
X19.315 Y-14.422
X19.361 Y-14.279
X19.416 Y-14.14
X19.481 Y-14.004
X19.556 Y-13.867
X19.642 Y-13.73
X19.743 Y-13.588
X19.86 Y-13.441
X19.989 Y-13.297
X20.133 Y-13.152
X20.295 Y-13.007
X20.474 Y-12.865
X20.664 Y-12.73
X20.869 Y-12.601
X21.09 Y-12.479
X21.323 Y-12.367
X21.567 Y-12.267
X21.82 Y-12.179
X22.077 Y-12.105
X22.34 Y-12.045
X22.604 Y-12.001
X22.869 Y-11.972
X23.103 Y-11.959
X23.353 Y-11.96
X23.581 Y-11.974
X23.786 Y-11.997
X24.011 Y-12.036
X24.202 Y-12.081
X24.391 Y-12.136
X24.418 Y-12.146
X24.738 Y-12.292
X25.026 Y-12.491
X25.276 Y-12.738
X25.478 Y-13.025
X25.628 Y-13.342
X25.719 Y-13.681
X25.75 Y-14.031
Y-15.061
G2 X25.696 Y-15.289 I-0.6 J0.021 F250
X25.128 Y-15.64 I-0.546 J0.249 F850
G1 X19.828 Y-15.445
G2 X19.304 Y-15.094 I0.022 J0.6
X19.25 Y-14.866 I0.546 J0.249 F250
G1 Y-13.859 F850
X19.257 Y-13.709
X19.277 Y-13.561
X19.31 Y-13.414
X19.354 Y-13.271
X19.408 Y-13.131
X19.471 Y-12.995
X19.543 Y-12.862
X19.627 Y-12.725
X19.727 Y-12.581
X19.839 Y-12.438
X19.964 Y-12.294
X20.108 Y-12.147
X20.268 Y-12.001
X20.44 Y-11.861
X20.628 Y-11.725
X20.832 Y-11.594
X21.053 Y-11.469
X21.284 Y-11.355
X21.526 Y-11.253
X21.777 Y-11.163
X22.033 Y-11.087
X22.294 Y-11.025
X22.559 Y-10.978
X22.823 Y-10.946
X23.066 Y-10.93
X23.305 Y-10.929
X23.545 Y-10.94
X23.748 Y-10.962
X23.972 Y-10.998
X24.171 Y-11.043
X24.355 Y-11.094
X24.4 Y-11.11
X24.723 Y-11.254
X25.015 Y-11.452
X25.269 Y-11.7
X25.474 Y-11.988
X25.626 Y-12.307
X25.719 Y-12.649
X25.75 Y-13.001
Y-14.031
G2 X25.696 Y-14.259 I-0.6 J0.021 F250
X25.131 Y-14.609 I-0.546 J0.249 F850
G1 X19.83 Y-14.438
G2 X19.304 Y-14.087 I0.019 J0.6
X19.25 Y-13.859 I0.546 J0.249 F250
G1 Y-12.852 F850
X19.257 Y-12.703
X19.275 Y-12.554
X19.305 Y-12.407
X19.348 Y-12.263
X19.401 Y-12.123
X19.463 Y-11.986
X19.533 Y-11.853
X19.614 Y-11.717
X19.712 Y-11.573
X19.822 Y-11.429
X19.946 Y-11.286
X20.086 Y-11.139
X20.244 Y-10.993
X20.284 Y-10.96
X20.568 Y-10.763
X20.882 Y-10.618
X21.216 Y-10.53
X21.56 Y-10.5
G2 X21.788 Y-10.554 I-0.021 J-0.6 F250
X21.969 Y-11.519 I-0.249 J-0.546 F850
G1 X20.279 Y-13.251
G2 X19.304 Y-13.08 I-0.429 J0.419
X19.25 Y-12.852 I0.546 J0.249 F250
G1 Y-11.785 F850
X19.257 Y-11.635
X19.339 Y-11.332
X19.49 Y-11.056
X19.701 Y-10.823
X19.961 Y-10.647
X20.256 Y-10.537
X20.568 Y-10.5
G2 X20.801 Y-10.53 I-0.043 J-1.245 F250
X21.721 Y-12.091 I-0.277 J-1.215 F850
X19.28 Y-12.018 I-1.211 J0.35
X19.25 Y-11.785 I1.23 J0.277 F250
G1 Y-11.242 F850
X19.254 Y-11.081
X19.255 Y-11.04
X19.259 Y-11.014
X19.28 Y-10.926
X19.317 Y-10.839
X19.344 Y-10.793
X19.376 Y-10.747
X19.414 Y-10.701
X19.46 Y-10.655
X19.479 Y-10.638
X19.525 Y-10.604
X19.57 Y-10.576
X19.661 Y-10.535
X19.761 Y-10.508
X19.862 Y-10.5
X24.196
X24.355 Y-10.508
X24.673 Y-10.576
X24.971 Y-10.709
X25.235 Y-10.901
X25.452 Y-11.144
X25.615 Y-11.426
X25.716 Y-11.736
X25.75 Y-12.06
G2 X25.696 Y-12.288 I-0.6 J0.021 F250
X24.725 Y-12.462 I-0.546 J0.249 F850
G1 X23.791 Y-11.523
G2 X23.968 Y-10.554 I0.426 J0.423
X24.196 Y-10.5 I0.249 J-0.546 F250
G1 X25 F850
X25.05
X25.091
X25.222 Y-10.511
X25.257 Y-10.515
X25.292 Y-10.521
G2 X25.491 Y-10.643 I-0.193 J-0.539 F250
X25.669 Y-11.119 I-0.392 J-0.417 F850
X24.552 Y-11.004 I-0.559 J0.058
X24.864 Y-10.557 I0.559 J-0.058
X25.091 Y-10.5 I0.247 J-0.505 F250
G1 X25.191 Y-10.503 F850
X25.292 Y-10.521
X25.319 Y-10.53
X25.342 Y-10.537
X25.392 Y-10.558
X25.443 Y-10.585
X25.493 Y-10.618
X25.518 Y-10.638
X25.572 Y-10.688
X25.617 Y-10.738
X25.654 Y-10.789
X25.683 Y-10.839
X25.694 Y-10.862
X25.727 Y-10.951
X25.745 Y-11.04
X25.75 Y-11.242
Y-13.001
G2 X25.696 Y-13.229 I-0.6 J0.021 F250
G1 X25.657 Y-13.314 Z-7.483
X25.619 Y-13.398 Z-7.461
X25.583 Y-13.477 Z-7.425
X25.55 Y-13.55 Z-7.375
X25.52 Y-13.615 Z-7.314
X25.495 Y-13.671 Z-7.243
X25.475 Y-13.716 Z-7.162
X25.46 Y-13.748 Z-7.075
X25.451 Y-13.768 Z-6.984
X25.448 Y-13.775 Z-6.89
G0 Z5
X25.219 Y-262.61
Z3.1
G1 Z2.5 F250
G2 X22.647 Y-266.944 Z2.292 I-2.719 J-1.316 F200
X19.669 Y-262.885 Z2.084 I-0.147 J3.014
X24.563 Y-261.735 Z1.876 I2.827 J-1.043
X23.708 Y-266.683 Z1.668 I-2.064 J-2.191
X19.495 Y-263.962 Z1.459 I-1.207 J2.753
X23.642 Y-261.153 Z1.251 I3.003 J0.033
X24.603 Y-266.063 Z1.043 I-1.143 J-2.773
X19.714 Y-265.027 Z0.835 I-2.102 J2.135
X22.577 Y-260.939 Z0.627 I2.783 J1.097
X25.216 Y-265.168 Z0.419 I-0.079 J-2.987
X20.297 Y-265.94 Z0.211 I-2.715 J1.24
X21.51 Y-261.118 Z0.002 I2.201 J2.01
X25.468 Y-264.117 Z-0.206 I0.987 J-2.809
X21.164 Y-266.583 Z-0.414 I-2.968 J0.19
X20.58 Y-261.663 Z-0.622 I1.335 J2.653
X25.33 Y-263.05 Z-0.83 I1.917 J-2.264
X22.2 Y-266.874 Z-1.038 I-2.83 J-0.877
X19.908 Y-262.502 Z-1.246 I0.3 J2.944
X24.823 Y-262.105 Z-1.454 I2.588 J-1.427
X23.267 Y-266.776 Z-1.663 I-2.323 J-1.821
X19.581 Y-263.52 Z-1.871 I-0.766 J2.847
X24.014 Y-261.405 Z-2.079 I2.916 J-0.409
X24.225 Y-266.307 Z-2.287 I-1.515 J-2.521
X19.638 Y-264.585 Z-2.495 I-1.724 J2.378
X23.013 Y-261.042 Z-2.703 I2.86 J0.655
X24.951 Y-265.529 Z-2.911 I-0.515 J-2.884
X20.069 Y-265.556 Z-3.119 I-2.45 J1.601
X21.952 Y-261.059 Z-3.328 I2.429 J1.626
X25.35 Y-264.547 Z-3.536 I0.545 J-2.868
X20.815 Y-266.306 Z-3.744 I-2.849 J0.62
X20.971 Y-261.451 Z-3.952 I1.683 J2.376
X25.372 Y-263.492 Z-4.16 I1.526 J-2.476
X21.777 Y-266.74 Z-4.368 I-2.872 J-0.435
X20.197 Y-262.165 Z-4.576 I0.723 J2.81
X25.019 Y-262.501 Z-4.784 I2.3 J-1.763
X22.825 Y-266.802 Z-4.992 I-2.519 J-1.425
X19.73 Y-263.105 Z-5.201 I-0.325 J2.872
X24.338 Y-261.705 Z-5.409 I2.766 J-0.824
X23.823 Y-266.487 Z-5.617 I-1.838 J-2.221
X19.63 Y-264.145 Z-5.825 I-1.322 J2.558
X23.421 Y-261.206 Z-6.033 I2.868 J0.216
X24.64 Y-265.839 Z-6.241 I-0.922 J-2.72
X19.905 Y-265.149 Z-6.449 I-2.139 J1.911
X22.39 Y-261.067 Z-6.657 I2.592 J1.219
X25.171 Y-264.946 Z-6.866 I0.107 J-2.859
X20.519 Y-265.986 Z-7.074 I-2.67 J1.019
X21.382 Y-261.304 Z-7.282 I1.98 J2.056
X25.347 Y-263.927 Z-7.49 I1.115 J-2.623
X23.147 Y-266.702 I-2.85
X20.97 Y-261.52 I-0.65 J2.775
X24.268 Y-261.693 I1.527 J-2.407
X25.347 Y-263.927 I-1.771 J-2.233
G1 X25.36 Y-264.813 F850
X25.393 Y-264.919
X25.421 Y-265.066
X25.43 Y-265.216
X25.423 Y-265.365
X25.403 Y-265.514
X25.37 Y-265.66
X25.325 Y-265.804
X25.271 Y-265.943
X25.207 Y-266.079
X25.135 Y-266.211
X25.055 Y-266.337
X24.967 Y-266.459
X24.87 Y-266.579
X24.764 Y-266.696
X24.648 Y-266.811
X24.523 Y-266.921
X24.389 Y-267.026
X24.246 Y-267.126
X24.095 Y-267.22
X23.936 Y-267.306
X23.77 Y-267.384
X23.597 Y-267.454
X23.419 Y-267.515
X23.235 Y-267.566
X23.046 Y-267.607
X22.853 Y-267.638
X22.657 Y-267.659
X22.459 Y-267.668
X22.259 Y-267.666
X22.058 Y-267.652
X21.857 Y-267.628
X21.656 Y-267.591
X21.457 Y-267.544
X21.26 Y-267.485
X21.066 Y-267.414
X20.876 Y-267.333
X20.69 Y-267.24
X20.508 Y-267.137
X20.333 Y-267.024
X20.164 Y-266.901
X20.001 Y-266.768
X19.846 Y-266.626
X19.817 Y-266.596
X19.576 Y-266.295
X19.397 Y-265.954
X19.287 Y-265.584
X19.25 Y-265.201
Y-263.01
X19.257 Y-262.86
X19.275 Y-262.711
X19.302 Y-262.564
X19.338 Y-262.418
X19.383 Y-262.275
X19.436 Y-262.133
X19.5 Y-261.991
X19.573 Y-261.848
X19.656 Y-261.706
X19.749 Y-261.566
X19.853 Y-261.428
X19.966 Y-261.293
X20.089 Y-261.163
X20.221 Y-261.038
X20.362 Y-260.918
X20.382 Y-260.903
X20.655 Y-260.73
X20.951 Y-260.603
X21.265 Y-260.526
X21.586 Y-260.5
G2 X21.814 Y-260.554 I-0.021 J-0.6 F250
X22.01 Y-261.503 I-0.249 J-0.546 F850
G1 X20.294 Y-263.392
G2 X19.304 Y-263.238 I-0.444 J0.403
X19.25 Y-263.01 I0.546 J0.249 F250
G1 Y-261.802 F850
X19.257 Y-261.652
X19.342 Y-261.344
X19.496 Y-261.064
X19.711 Y-260.828
X19.976 Y-260.649
X20.276 Y-260.538
X20.593 Y-260.5
G2 X20.827 Y-260.53 I-0.044 J-1.263 F250
X21.761 Y-262.121 I-0.277 J-1.233 F850
X19.28 Y-262.035 I-1.229 J0.364
X19.25 Y-261.802 I1.252 J0.278 F250
G1 Y-261.148 F850
Y-261.107
X19.259 Y-261.012
X19.27 Y-260.959
X19.287 Y-260.906
X19.308 Y-260.856
X19.335 Y-260.805
X19.368 Y-260.755
X19.41 Y-260.705
X19.46 Y-260.655
X19.51 Y-260.614
X19.56 Y-260.581
X19.611 Y-260.555
X19.661 Y-260.535
X19.73 Y-260.515
X19.799 Y-260.503
X19.862 Y-260.5
X23.08
X23.33 Y-260.513
X23.48 Y-260.528
X23.632 Y-260.553
X23.786 Y-260.588
X23.943 Y-260.632
X24.1 Y-260.687
X24.258 Y-260.751
X24.416 Y-260.826
X24.571 Y-260.911
X24.725 Y-261.007
X24.875 Y-261.113
X25.021 Y-261.228
X25.078 Y-261.279
X25.311 Y-261.524
X25.499 Y-261.804
X25.637 Y-262.112
X25.722 Y-262.438
X25.75 Y-262.775
G2 X25.696 Y-263.002 I-0.6 J0.021 F250
X24.774 Y-263.221 I-0.546 J0.249 F850
G1 X22.724 Y-261.567
G2 X22.852 Y-260.554 I0.377 J0.467
X23.08 Y-260.5 I0.249 J-0.546 F250
G1 X24.487 F850
X24.637 Y-260.508
X24.935 Y-260.587
X25.205 Y-260.734
X25.433 Y-260.941
X25.606 Y-261.196
X25.713 Y-261.485
X25.75 Y-261.79
G2 X25.719 Y-262.024 I-1.223 J0.043 F250
X24.192 Y-262.925 I-1.192 J0.276 F850
X24.254 Y-260.531 I0.338 J1.189
X24.487 Y-260.5 I0.276 J-1.205 F250
G1 X25.091 F850
X25.15 Y-260.502
X25.198 Y-260.503
X25.292 Y-260.521
X25.342 Y-260.537
X25.392 Y-260.558
X25.443 Y-260.585
X25.493 Y-260.618
X25.541 Y-260.658
X25.59 Y-260.705
X25.651 Y-260.782
X25.694 Y-260.86
X25.713 Y-260.906
X25.741 Y-261.007
X25.75 Y-261.107
Y-265.849
X25.742 Y-266
X25.727 Y-266.149
X25.699 Y-266.296
X25.66 Y-266.441
X25.612 Y-266.583
X25.555 Y-266.722
X25.489 Y-266.857
X25.414 Y-266.99
X25.33 Y-267.122
X25.235 Y-267.254
X25.128 Y-267.386
X25.01 Y-267.517
X24.88 Y-267.645
X24.739 Y-267.768
X24.589 Y-267.886
X24.428 Y-267.999
X24.255 Y-268.105
X24.073 Y-268.204
X23.88 Y-268.294
X23.678 Y-268.376
X23.468 Y-268.447
X23.251 Y-268.507
X23.028 Y-268.556
X22.799 Y-268.592
X22.566 Y-268.616
X22.328 Y-268.627
X22.087 Y-268.624
X21.843 Y-268.608
X21.598 Y-268.577
X21.353 Y-268.533
X21.109 Y-268.474
X20.866 Y-268.401
X20.627 Y-268.314
X20.423 Y-268.226
X20.359 Y-268.195
X20.045 Y-268.001
X19.772 Y-267.752
X19.55 Y-267.457
X19.385 Y-267.127
X19.284 Y-266.772
X19.25 Y-266.404
Y-265.201
G2 X19.304 Y-264.973 I0.6 J-0.021 F250
X19.922 Y-264.626 I0.546 J-0.249 F850
G1 X25.223 Y-265.274
G2 X25.696 Y-265.621 I-0.073 J-0.596
X25.75 Y-265.849 I-0.546 J-0.249 F250
G1 Y-266.946 F850
X25.743 Y-267.096
X25.723 Y-267.245
X25.69 Y-267.391
X25.645 Y-267.534
X25.59 Y-267.674
X25.525 Y-267.809
X25.452 Y-267.94
X25.369 Y-268.069
X25.277 Y-268.196
X25.172 Y-268.325
X25.053 Y-268.455
X24.921 Y-268.585
X24.777 Y-268.71
X24.622 Y-268.831
X24.452 Y-268.949
X24.267 Y-269.062
X24.07 Y-269.168
X23.862 Y-269.265
X23.644 Y-269.353
X23.414 Y-269.43
X23.173 Y-269.496
X22.921 Y-269.55
X22.66 Y-269.591
X22.391 Y-269.618
X22.117 Y-269.629
X21.841 Y-269.626
X21.584 Y-269.608
X21.339 Y-269.577
X21.088 Y-269.53
X20.882 Y-269.48
X20.661 Y-269.413
X20.456 Y-269.338
X20.118 Y-269.15
X19.821 Y-268.901
X19.579 Y-268.6
X19.398 Y-268.258
X19.287 Y-267.887
X19.25 Y-267.502
Y-266.404
G2 X19.304 Y-266.176 I0.6 J-0.021 F250
X19.911 Y-265.828 I0.546 J-0.249 F850
G1 X25.211 Y-266.37
G2 X25.696 Y-266.718 I-0.061 J-0.597
X25.75 Y-266.946 I-0.546 J-0.249 F250
G1 Y-267.953 F850
X25.743 Y-268.103
X25.72 Y-268.251
X25.684 Y-268.397
X25.635 Y-268.539
X25.577 Y-268.677
X25.509 Y-268.811
X25.434 Y-268.94
X25.347 Y-269.07
X25.248 Y-269.202
X25.138 Y-269.331
X25.013 Y-269.464
X24.872 Y-269.597
X24.719 Y-269.726
X24.552 Y-269.851
X24.368 Y-269.974
X24.167 Y-270.092
X23.953 Y-270.202
X23.727 Y-270.302
X23.487 Y-270.393
X23.234 Y-270.473
X22.972 Y-270.54
X22.701 Y-270.593
X22.428 Y-270.631
X22.152 Y-270.653
X21.875 Y-270.66
X21.642 Y-270.652
X21.39 Y-270.63
X21.159 Y-270.596
X20.961 Y-270.556
X20.739 Y-270.498
X20.542 Y-270.434
X20.527 Y-270.428
X20.219 Y-270.277
X19.942 Y-270.076
X19.703 Y-269.83
X19.509 Y-269.547
X19.367 Y-269.236
X19.279 Y-268.904
X19.25 Y-268.563
Y-267.502
G2 X19.304 Y-267.274 I0.6 J-0.021 F250
X19.901 Y-266.925 I0.546 J-0.249 F850
G1 X25.201 Y-267.376
G2 X25.696 Y-267.725 I-0.051 J-0.598
X25.75 Y-267.953 I-0.546 J-0.249 F250
G1 Y-268.869 F850
X25.743 Y-269.019
X25.726 Y-269.168
X25.694 Y-269.315
X25.65 Y-269.458
X25.596 Y-269.598
X25.532 Y-269.733
X25.459 Y-269.865
X25.378 Y-269.994
X25.281 Y-270.129
X25.173 Y-270.264
X25.052 Y-270.399
X24.912 Y-270.537
X24.758 Y-270.674
X24.592 Y-270.806
X24.408 Y-270.935
X24.206 Y-271.061
X23.988 Y-271.18
X23.759 Y-271.289
X23.517 Y-271.387
X23.267 Y-271.473
X23.005 Y-271.547
X22.738 Y-271.607
X22.469 Y-271.651
X22.196 Y-271.68
X21.93 Y-271.693
X21.696 Y-271.691
X21.444 Y-271.675
X21.233 Y-271.65
X21.011 Y-271.611
X20.803 Y-271.562
X20.62 Y-271.507
X20.574 Y-271.491
X20.257 Y-271.344
X19.969 Y-271.144
X19.721 Y-270.898
X19.52 Y-270.612
X19.371 Y-270.295
X19.281 Y-269.957
X19.25 Y-269.608
Y-268.563
G2 X19.304 Y-268.335 I0.6 J-0.021 F250
X19.884 Y-267.985 I0.546 J-0.249 F850
G1 X25.185 Y-268.291
G2 X25.696 Y-268.641 I-0.035 J-0.599
X25.75 Y-268.869 I-0.546 J-0.249 F250
G1 Y-269.876 F850
X25.743 Y-270.026
X25.722 Y-270.174
X25.689 Y-270.32
X25.643 Y-270.463
X25.587 Y-270.603
X25.522 Y-270.738
X25.448 Y-270.87
X25.364 Y-271.003
X25.266 Y-271.139
X25.151 Y-271.281
X25.024 Y-271.422
X24.884 Y-271.56
X24.725 Y-271.701
X24.549 Y-271.839
X24.36 Y-271.971
X24.158 Y-272.096
X23.938 Y-272.216
X23.703 Y-272.327
X23.459 Y-272.426
X23.203 Y-272.513
X22.944 Y-272.585
X22.678 Y-272.643
X22.41 Y-272.687
X22.142 Y-272.714
X21.9 Y-272.726
X21.651 Y-272.723
X21.416 Y-272.708
X21.21 Y-272.683
X20.983 Y-272.642
X20.788 Y-272.595
X20.599 Y-272.539
X20.569 Y-272.528
X20.253 Y-272.381
X19.966 Y-272.181
X19.719 Y-271.934
X19.519 Y-271.648
X19.371 Y-271.332
X19.28 Y-270.995
X19.25 Y-270.647
Y-269.608
G2 X19.304 Y-269.38 I0.6 J-0.021 F250
X19.88 Y-269.03 I0.546 J-0.249 F850
G1 X25.181 Y-269.298
G2 X25.696 Y-269.648 I-0.03 J-0.599
X25.75 Y-269.876 I-0.546 J-0.249 F250
G1 Y-270.883 F850
X25.743 Y-271.032
X25.721 Y-271.181
X25.687 Y-271.327
X25.641 Y-271.47
X25.585 Y-271.609
X25.52 Y-271.744
X25.446 Y-271.878
X25.362 Y-272.011
X25.261 Y-272.152
X25.146 Y-272.296
X25.019 Y-272.437
X24.875 Y-272.579
X24.713 Y-272.723
X24.537 Y-272.862
X24.349 Y-272.995
X24.143 Y-273.123
X23.921 Y-273.244
X23.688 Y-273.355
X23.443 Y-273.455
X23.189 Y-273.542
X22.931 Y-273.615
X22.667 Y-273.673
X22.401 Y-273.717
X22.134 Y-273.745
X21.894 Y-273.757
X21.649 Y-273.756
X21.414 Y-273.741
X21.21 Y-273.716
X20.984 Y-273.676
X20.79 Y-273.63
X20.603 Y-273.575
X20.574 Y-273.564
X20.256 Y-273.418
X19.969 Y-273.218
X19.721 Y-272.971
X19.52 Y-272.685
X19.371 Y-272.368
X19.281 Y-272.031
X19.25 Y-271.682
Y-270.647
G2 X19.304 Y-270.419 I0.6 J-0.021 F250
X19.876 Y-270.069 I0.546 J-0.249 F850
G1 X25.177 Y-270.304
G2 X25.696 Y-270.655 I-0.027 J-0.599
X25.75 Y-270.883 I-0.546 J-0.249 F250
G1 Y-271.889 F850
X25.743 Y-272.039
X25.722 Y-272.188
X25.688 Y-272.334
X25.643 Y-272.477
X25.588 Y-272.616
X25.523 Y-272.752
X25.45 Y-272.885
X25.366 Y-273.02
X25.265 Y-273.163
X25.151 Y-273.307
X25.025 Y-273.449
X24.881 Y-273.594
X24.719 Y-273.738
X24.545 Y-273.878
X24.357 Y-274.012
X24.152 Y-274.141
X23.93 Y-274.264
X23.697 Y-274.376
X23.453 Y-274.477
X23.201 Y-274.566
X22.944 Y-274.64
X22.681 Y-274.7
X22.416 Y-274.745
X22.15 Y-274.774
X21.909 Y-274.788
X21.667 Y-274.787
X21.43 Y-274.774
X21.226 Y-274.751
X21.001 Y-274.712
X20.805 Y-274.667
X20.62 Y-274.613
X20.585 Y-274.601
X20.265 Y-274.455
X19.975 Y-274.256
X19.725 Y-274.009
X19.522 Y-273.722
X19.373 Y-273.404
X19.281 Y-273.065
X19.25 Y-272.714
Y-271.682
G2 X19.304 Y-271.454 I0.6 J-0.021 F250
X19.873 Y-271.103 I0.546 J-0.249 F850
G1 X25.174 Y-271.311
G2 X25.696 Y-271.661 I-0.023 J-0.6
X25.75 Y-271.889 I-0.546 J-0.249 F250
G1 Y-272.896 F850
X25.743 Y-273.046
X25.723 Y-273.195
X25.691 Y-273.341
X25.647 Y-273.484
X25.593 Y-273.624
X25.529 Y-273.76
X25.457 Y-273.893
X25.374 Y-274.029
X25.275 Y-274.172
X25.162 Y-274.316
X25.037 Y-274.459
X24.894 Y-274.604
X24.734 Y-274.75
X24.562 Y-274.89
X24.375 Y-275.025
X24.171 Y-275.156
X23.951 Y-275.28
X23.719 Y-275.394
X23.477 Y-275.496
X23.226 Y-275.586
X22.969 Y-275.662
X22.708 Y-275.724
X22.443 Y-275.77
X22.178 Y-275.802
X21.935 Y-275.817
X21.694 Y-275.819
X21.455 Y-275.807
X21.251 Y-275.785
X21.026 Y-275.748
X20.827 Y-275.704
X20.643 Y-275.652
X20.598 Y-275.636
X20.276 Y-275.492
X19.983 Y-275.293
X19.731 Y-275.046
X19.525 Y-274.758
X19.374 Y-274.439
X19.281 Y-274.097
X19.25 Y-273.745
Y-272.714
G2 X19.304 Y-272.487 I0.6 J-0.021 F250
X19.87 Y-272.136 I0.546 J-0.249 F850
G1 X25.171 Y-272.317
G2 X25.696 Y-272.668 I-0.021 J-0.6
X25.75 Y-272.896 I-0.546 J-0.249 F250
G1 Y-273.903 F850
X25.743 Y-274.052
X25.725 Y-274.201
X25.694 Y-274.348
X25.652 Y-274.492
X25.599 Y-274.632
X25.536 Y-274.769
X25.466 Y-274.902
X25.384 Y-275.038
X25.287 Y-275.181
X25.176 Y-275.325
X25.053 Y-275.468
X24.912 Y-275.613
X24.754 Y-275.76
X24.583 Y-275.901
X24.398 Y-276.036
X24.196 Y-276.168
X23.978 Y-276.293
X23.748 Y-276.409
X23.507 Y-276.513
X23.258 Y-276.604
X23.002 Y-276.682
X22.741 Y-276.746
X22.477 Y-276.795
X22.212 Y-276.829
X21.968 Y-276.846
X21.728 Y-276.849
X21.485 Y-276.839
X21.281 Y-276.819
X21.055 Y-276.784
X20.854 Y-276.741
X20.67 Y-276.69
X20.614 Y-276.671
X20.288 Y-276.528
X19.992 Y-276.33
X19.737 Y-276.083
X19.529 Y-275.794
X19.376 Y-275.473
X19.282 Y-275.13
X19.25 Y-274.775
Y-273.745
G2 X19.304 Y-273.517 I0.6 J-0.021 F250
X19.867 Y-273.166 I0.546 J-0.249 F850
G1 X25.168 Y-273.324
G2 X25.696 Y-273.675 I-0.018 J-0.6
X25.75 Y-273.903 I-0.546 J-0.249 F250
G1 Y-274.959 F850
X25.743 Y-275.109
X25.722 Y-275.258
X25.688 Y-275.404
X25.643 Y-275.547
X25.588 Y-275.686
X25.525 Y-275.822
X25.45 Y-275.959
X25.365 Y-276.097
X25.266 Y-276.238
X25.151 Y-276.384
X25.022 Y-276.53
X24.88 Y-276.673
X24.72 Y-276.817
X24.543 Y-276.96
X24.352 Y-277.097
X24.148 Y-277.226
X23.93 Y-277.348
X23.698 Y-277.461
X23.456 Y-277.562
X23.204 Y-277.651
X22.948 Y-277.726
X22.685 Y-277.787
X22.42 Y-277.833
X22.156 Y-277.863
X21.921 Y-277.877
X21.668
X21.44 Y-277.865
X21.233 Y-277.842
X21.008 Y-277.804
X20.816 Y-277.761
X20.626 Y-277.706
X20.591 Y-277.694
X20.27 Y-277.549
X19.979 Y-277.349
X19.728 Y-277.102
X19.524 Y-276.815
X19.373 Y-276.496
X19.281 Y-276.156
X19.25 Y-275.805
Y-274.775
G2 X19.304 Y-274.547 I0.6 J-0.021 F250
X19.87 Y-274.196 I0.546 J-0.249 F850
G1 X25.171 Y-274.38
G2 X25.696 Y-274.731 I-0.021 J-0.6
X25.75 Y-274.959 I-0.546 J-0.249 F250
G1 Y-276.007 F850
X25.743 Y-276.156
X25.72 Y-276.305
X25.685 Y-276.451
X25.638 Y-276.593
X25.582 Y-276.732
X25.517 Y-276.868
X25.442 Y-277.005
X25.355 Y-277.142
X25.254 Y-277.284
X25.137 Y-277.431
X25.008 Y-277.575
X24.863 Y-277.72
X24.7 Y-277.864
X24.521 Y-278.006
X24.33 Y-278.142
X24.125 Y-278.27
X23.903 Y-278.392
X23.67 Y-278.503
X23.425 Y-278.603
X23.173 Y-278.691
X22.916 Y-278.764
X22.652 Y-278.823
X22.388 Y-278.867
X22.123 Y-278.895
X21.889 Y-278.907
X21.639 Y-278.906
X21.412 Y-278.892
X21.207 Y-278.868
X20.982 Y-278.829
X20.792 Y-278.784
X20.602 Y-278.728
X20.578 Y-278.72
X20.259 Y-278.573
X19.971 Y-278.374
X19.723 Y-278.127
X19.521 Y-277.841
X19.372 Y-277.523
X19.281 Y-277.185
X19.25 Y-276.836
Y-275.805
G2 X19.304 Y-275.578 I0.6 J-0.021 F250
X19.872 Y-275.227 I0.546 J-0.249 F850
G1 X25.173 Y-275.428
G2 X25.696 Y-275.779 I-0.023 J-0.6
X25.75 Y-276.007 I-0.546 J-0.249 F250
G1 Y-277.013 F850
X25.743 Y-277.163
X25.722 Y-277.312
X25.689 Y-277.458
X25.645 Y-277.601
X25.59 Y-277.741
X25.527 Y-277.877
X25.455 Y-278.01
X25.37 Y-278.147
X25.27 Y-278.291
X25.158 Y-278.435
X25.031 Y-278.578
X24.887 Y-278.725
X24.727 Y-278.871
X24.554 Y-279.011
X24.366 Y-279.146
X24.161 Y-279.277
X23.94 Y-279.402
X23.708 Y-279.515
X23.465 Y-279.618
X23.215 Y-279.707
X22.958 Y-279.783
X22.697 Y-279.844
X22.432 Y-279.891
X22.167 Y-279.922
X21.925 Y-279.937
X21.686 Y-279.938
X21.447 Y-279.926
X21.244 Y-279.904
X21.02 Y-279.867
X20.821 Y-279.822
X20.638 Y-279.77
X20.596 Y-279.756
X20.274 Y-279.611
X19.982 Y-279.413
X19.73 Y-279.165
X19.525 Y-278.878
X19.374 Y-278.558
X19.281 Y-278.217
X19.25 Y-277.866
Y-276.836
G2 X19.304 Y-276.608 I0.6 J-0.021 F250
X19.87 Y-276.257 I0.546 J-0.249 F850
G1 X25.17 Y-276.435
G2 X25.696 Y-276.786 I-0.02 J-0.6
X25.75 Y-277.013 I-0.546 J-0.249 F250
G1 Y-278.02 F850
X25.743 Y-278.17
X25.725 Y-278.319
X25.694 Y-278.466
X25.651 Y-278.609
X25.598 Y-278.75
X25.535 Y-278.886
X25.465 Y-279.019
X25.383 Y-279.155
X25.284 Y-279.299
X25.174 Y-279.443
X25.05 Y-279.586
X24.908 Y-279.733
X24.75 Y-279.879
X24.579 Y-280.02
X24.394 Y-280.156
X24.191 Y-280.288
X23.973 Y-280.413
X23.742 Y-280.529
X23.502 Y-280.633
X23.252 Y-280.725
X22.996 Y-280.802
X22.736 Y-280.866
X22.472 Y-280.915
X22.207 Y-280.948
X21.963 Y-280.965
X21.724 Y-280.969
X21.482 Y-280.958
X21.277 Y-280.938
X21.052 Y-280.903
X20.851 Y-280.86
X20.668 Y-280.809
X20.613 Y-280.791
X20.287 Y-280.648
X19.992 Y-280.45
X19.736 Y-280.202
X19.529 Y-279.913
X19.376 Y-279.592
X19.282 Y-279.249
X19.25 Y-278.895
Y-277.866
G2 X19.304 Y-277.638 I0.6 J-0.021 F250
X19.867 Y-277.287 I0.546 J-0.249 F850
G1 X25.168 Y-277.441
G2 X25.696 Y-277.792 I-0.017 J-0.6
X25.75 Y-278.02 I-0.546 J-0.249 F250
G1 Y-279.088 F850
X25.743 Y-279.238
X25.721 Y-279.386
X25.686 Y-279.532
X25.64 Y-279.675
X25.584 Y-279.814
X25.52 Y-279.949
X25.444 Y-280.087
X25.357 Y-280.226
X25.258 Y-280.367
X25.141 Y-280.513
X25.01 Y-280.66
X24.867 Y-280.803
X24.707 Y-280.947
X24.528 Y-281.089
X24.335 Y-281.227
X24.129 Y-281.356
X23.91 Y-281.477
X23.678 Y-281.589
X23.435 Y-281.689
X23.183 Y-281.777
X22.926 Y-281.851
X22.663 Y-281.91
X22.398 Y-281.955
X22.134 Y-281.984
X21.901 Y-281.997
X21.647 Y-281.996
X21.423 Y-281.983
X21.215 Y-281.959
X20.99 Y-281.92
X20.802 Y-281.876
X20.609 Y-281.82
X20.582 Y-281.81
X20.263 Y-281.665
X19.974 Y-281.465
X19.724 Y-281.218
X19.522 Y-280.932
X19.372 Y-280.614
X19.281 Y-280.275
X19.25 Y-279.925
Y-278.895
G2 X19.304 Y-278.667 I0.6 J-0.021 F250
X19.871 Y-278.316 I0.546 J-0.249 F850
G1 X25.172 Y-278.509
G2 X25.696 Y-278.86 I-0.022 J-0.6
X25.75 Y-279.088 I-0.546 J-0.249 F250
G1 Y-280.094 F850
X25.743 Y-280.244
X25.723 Y-280.393
X25.691 Y-280.539
X25.647 Y-280.683
X25.593 Y-280.823
X25.529 Y-280.959
X25.458 Y-281.091
X25.374 Y-281.229
X25.275 Y-281.373
X25.163 Y-281.516
X25.038 Y-281.66
X24.894 Y-281.807
X24.735 Y-281.952
X24.563 Y-282.092
X24.376 Y-282.228
X24.172 Y-282.36
X23.951 Y-282.484
X23.72 Y-282.599
X23.479 Y-282.702
X23.228 Y-282.792
X22.972 Y-282.868
X22.711 Y-282.93
X22.447 Y-282.978
X22.182 Y-283.01
X21.938 Y-283.026
X21.7 Y-283.028
X21.459 Y-283.016
X21.256 Y-282.995
X21.032 Y-282.958
X20.832 Y-282.914
X20.649 Y-282.863
X20.602 Y-282.847
X20.279 Y-282.703
X19.986 Y-282.504
X19.732 Y-282.257
X19.526 Y-281.969
X19.374 Y-281.649
X19.281 Y-281.307
X19.25 Y-280.955
Y-279.925
G2 X19.304 Y-279.697 I0.6 J-0.021 F250
X19.869 Y-279.346 I0.546 J-0.249 F850
G1 X25.17 Y-279.516
G2 X25.696 Y-279.867 I-0.019 J-0.6
X25.75 Y-280.094 I-0.546 J-0.249 F250
G1 Y-281.151 F850
X25.743 Y-281.301
X25.72 Y-281.449
X25.685 Y-281.595
X25.639 Y-281.738
X25.583 Y-281.877
X25.519 Y-282.012
X25.443 Y-282.15
X25.356 Y-282.288
X25.256 Y-282.43
X25.138 Y-282.577
X25.008 Y-282.722
X24.864 Y-282.866
X24.703 Y-283.01
X24.523 Y-283.153
X24.331 Y-283.289
X24.126 Y-283.417
X23.905 Y-283.539
X23.672 Y-283.65
X23.429 Y-283.751
X23.176 Y-283.838
X22.919 Y-283.912
X22.656 Y-283.971
X22.391 Y-284.015
X22.127 Y-284.044
X21.894 Y-284.056
X21.641 Y-284.055
X21.416 Y-284.042
X21.21 Y-284.018
X20.985 Y-283.979
X20.796 Y-283.934
X20.604 Y-283.878
X20.58 Y-283.869
X20.261 Y-283.723
X19.972 Y-283.524
X19.723 Y-283.277
X19.521 Y-282.99
X19.372 Y-282.673
X19.281 Y-282.334
X19.25 Y-281.985
Y-280.955
G2 X19.304 Y-280.727 I0.6 J-0.021 F250
X19.872 Y-280.376 I0.546 J-0.249 F850
G1 X25.173 Y-280.572
G2 X25.696 Y-280.923 I-0.022 J-0.6
X25.75 Y-281.151 I-0.546 J-0.249 F250
G1 Y-282.158 F850
X25.743 Y-282.307
X25.723 Y-282.456
X25.69 Y-282.603
X25.646 Y-282.746
X25.591 Y-282.886
X25.528 Y-283.022
X25.457 Y-283.154
X25.372 Y-283.292
X25.272 Y-283.436
X25.161 Y-283.579
X25.035 Y-283.723
X24.891 Y-283.87
X24.731 Y-284.016
X24.559 Y-284.155
X24.371 Y-284.291
X24.166 Y-284.423
X23.945 Y-284.547
X23.714 Y-284.661
X23.472 Y-284.764
X23.221 Y-284.854
X22.965 Y-284.93
X22.704 Y-284.991
X22.439 Y-285.038
X22.175 Y-285.07
X21.932 Y-285.086
X21.693 Y-285.087
X21.453 Y-285.075
X21.25 Y-285.054
X21.026 Y-285.017
X20.827 Y-284.973
X20.644 Y-284.921
X20.6 Y-284.906
X20.277 Y-284.762
X19.984 Y-284.563
X19.731 Y-284.316
X19.526 Y-284.028
X19.374 Y-283.708
X19.281 Y-283.367
X19.25 Y-283.015
Y-281.985
G2 X19.304 Y-281.757 I0.6 J-0.021 F250
X19.869 Y-281.406 I0.546 J-0.249 F850
G1 X25.17 Y-281.579
G2 X25.696 Y-281.93 I-0.02 J-0.6
X25.75 Y-282.158 I-0.546 J-0.249 F250
G1 Y-283.164 F850
X25.743 Y-283.314
X25.725 Y-283.463
X25.694 Y-283.61
X25.652 Y-283.754
X25.599 Y-283.894
X25.537 Y-284.031
X25.467 Y-284.164
X25.385 Y-284.3
X25.287 Y-284.444
X25.177 Y-284.588
X25.053 Y-284.731
X24.912 Y-284.877
X24.754 Y-285.024
X24.584 Y-285.165
X24.399 Y-285.301
X24.197 Y-285.433
X23.979 Y-285.559
X23.749 Y-285.675
X23.508 Y-285.779
X23.259 Y-285.871
X23.004 Y-285.949
X22.743 Y-286.013
X22.479 Y-286.062
X22.214 Y-286.096
X21.97 Y-286.114
X21.731 Y-286.118
X21.488 Y-286.108
X21.284 Y-286.088
X21.059 Y-286.053
X20.857 Y-286.01
X20.674 Y-285.96
X20.616 Y-285.941
X20.29 Y-285.798
X19.994 Y-285.6
X19.738 Y-285.352
X19.529 Y-285.063
X19.376 Y-284.742
X19.282 Y-284.398
X19.25 Y-284.044
Y-283.015
G2 X19.304 Y-282.787 I0.6 J-0.021 F250
X19.867 Y-282.436 I0.546 J-0.249 F850
G1 X25.167 Y-282.586
G2 X25.696 Y-282.937 I-0.017 J-0.6
X25.75 Y-283.164 I-0.546 J-0.249 F250
G1 Y-284.221 F850
X25.743 Y-284.371
X25.722 Y-284.519
X25.689 Y-284.666
X25.644 Y-284.809
X25.589 Y-284.949
X25.526 Y-285.084
X25.452 Y-285.222
X25.367 Y-285.359
X25.268 Y-285.5
X25.153 Y-285.647
X25.025 Y-285.793
X24.883 Y-285.936
X24.724 Y-286.081
X24.547 Y-286.224
X24.356 Y-286.361
X24.153 Y-286.49
X23.934 Y-286.613
X23.703 Y-286.726
X23.462 Y-286.827
X23.21 Y-286.917
X22.953 Y-286.992
X22.691 Y-287.053
X22.426 Y-287.099
X22.162 Y-287.13
X21.927 Y-287.145
X21.674 Y-287.146
X21.446 Y-287.134
X21.239 Y-287.111
X21.013 Y-287.073
X20.822 Y-287.03
X20.631 Y-286.976
X20.594 Y-286.963
X20.272 Y-286.818
X19.981 Y-286.619
X19.729 Y-286.372
X19.524 Y-286.085
X19.374 Y-285.766
X19.281 Y-285.425
X19.25 Y-285.073
Y-284.044
G2 X19.304 Y-283.816 I0.6 J-0.021 F250
X19.87 Y-283.465 I0.546 J-0.249 F850
G1 X25.17 Y-283.642
G2 X25.696 Y-283.993 I-0.02 J-0.6
X25.75 Y-284.221 I-0.546 J-0.249 F250
G1 Y-285.268 F850
X25.743 Y-285.418
X25.72 Y-285.567
X25.685 Y-285.712
X25.639 Y-285.855
X25.584 Y-285.995
X25.519 Y-286.13
X25.444 Y-286.267
X25.358 Y-286.404
X25.257 Y-286.547
X25.14 Y-286.694
X25.012 Y-286.838
X24.867 Y-286.982
X24.705 Y-287.127
X24.527 Y-287.269
X24.336 Y-287.405
X24.131 Y-287.533
X23.91 Y-287.655
X23.678 Y-287.767
X23.433 Y-287.868
X23.18 Y-287.956
X22.924 Y-288.029
X22.66 Y-288.089
X22.396 Y-288.133
X22.131 Y-288.163
X21.897 Y-288.175
X21.647 Y-288.174
X21.419 Y-288.161
X21.214 Y-288.137
X20.989 Y-288.098
X20.798 Y-288.054
X20.609 Y-287.998
X20.582 Y-287.989
X20.262 Y-287.843
X19.974 Y-287.643
X19.724 Y-287.397
X19.522 Y-287.11
X19.372 Y-286.792
X19.281 Y-286.453
X19.25 Y-286.104
Y-285.073
G2 X19.304 Y-284.846 I0.6 J-0.021 F250
X19.872 Y-284.495 I0.546 J-0.249 F850
G1 X25.172 Y-284.69
G2 X25.696 Y-285.041 I-0.022 J-0.6
X25.75 Y-285.268 I-0.546 J-0.249 F250
G1 Y-286.275 F850
X25.743 Y-286.425
X25.723 Y-286.574
X25.69 Y-286.72
X25.646 Y-286.863
X25.592 Y-287.003
X25.529 Y-287.139
X25.457 Y-287.272
X25.373 Y-287.409
X25.273 Y-287.553
X25.162 Y-287.697
X25.036 Y-287.841
X24.978 Y-287.899
X24.738 Y-288.108
X24.468 Y-288.276
X24.175 Y-288.4
X23.866 Y-288.475
X23.549 Y-288.5
G2 X23.321 Y-288.446 I0.021 J0.6 F250
X23.143 Y-287.479 I0.249 J0.546 F850
G1 X24.723 Y-285.875
G2 X25.696 Y-286.047 I0.427 J-0.421
X25.75 Y-286.275 I-0.546 J-0.249 F250
G1 Y-287.282 F850
X25.743 Y-287.432
X25.672 Y-287.716
X25.535 Y-287.976
X25.34 Y-288.195
X25.098 Y-288.361
X24.824 Y-288.465
X24.533 Y-288.5
G2 X24.305 Y-288.446 I0.021 J0.6 F250
X24.129 Y-287.476 I0.249 J0.546 F850
G1 X24.726 Y-286.879
G2 X25.696 Y-287.054 I0.425 J-0.424
X25.75 Y-287.282 I-0.546 J-0.249 F250
G1 Y-287.886 F850
X25.741 Y-287.987
X25.714 Y-288.087
X25.694 Y-288.137
X25.652 Y-288.213
X25.593 Y-288.289
X25.543 Y-288.34
X25.493 Y-288.382
X25.443 Y-288.415
X25.392 Y-288.442
X25.342 Y-288.463
X25.292 Y-288.479
X25.245 Y-288.49
X25.168 Y-288.499
X25.091 Y-288.5
X20.666
X20.517 Y-288.492
X20.226 Y-288.427
X19.956 Y-288.302
X19.717 Y-288.125
X19.519 Y-287.902
X19.372 Y-287.644
X19.281 Y-287.361
X19.25 Y-287.065
G2 X19.304 Y-286.837 I0.6 J-0.021 F250
X20.279 Y-286.666 I0.546 J-0.249 F850
G1 X21.075 Y-287.481
G2 X20.894 Y-288.446 I-0.429 J-0.419
X20.666 Y-288.5 I-0.249 J0.546 F250
G1 X19.952 F850
X19.903
X19.862
X19.781 Y-288.49
X19.72 Y-288.48
X19.661 Y-288.465
G2 X19.479 Y-288.32 I0.19 J0.423 F250
X19.393 Y-287.963 I0.372 J0.278 F850
X20.298 Y-288.119 I0.452 J-0.078
X20.085 Y-288.433 I-0.452 J0.078
X19.862 Y-288.5 I-0.239 J0.392 F250
G1 X19.807 Y-288.497 F850
X19.752 Y-288.49
X19.661 Y-288.465
X19.611 Y-288.445
X19.56 Y-288.419
X19.51 Y-288.386
X19.46 Y-288.345
X19.405 Y-288.289
X19.333 Y-288.188
X19.306 Y-288.138
X19.286 Y-288.087
X19.27 Y-288.036
X19.259 Y-287.985
X19.25 Y-287.886
Y-286.104
G2 X19.304 Y-285.876 I0.6 J-0.021 F250
G1 X19.343 Y-285.79 Z-7.483
X19.381 Y-285.707 Z-7.461
X19.417 Y-285.628 Z-7.425
X19.45 Y-285.555 Z-7.375
X19.48 Y-285.49 Z-7.314
X19.505 Y-285.434 Z-7.243
X19.525 Y-285.389 Z-7.162
X19.54 Y-285.357 Z-7.075
X19.549 Y-285.337 Z-6.984
X19.552 Y-285.33 Z-6.89
G0 Z5
X70.219 Y-33.886
Z3.1
G1 Z2.5 F250
G2 X67.647 Y-38.219 Z2.292 I-2.719 J-1.316 F200
X64.669 Y-34.161 Z2.084 I-0.147 J3.014
X69.563 Y-33.01 Z1.876 I2.827 J-1.043
X68.708 Y-37.958 Z1.668 I-2.064 J-2.191
X64.495 Y-35.238 Z1.459 I-1.207 J2.753
X68.642 Y-32.428 Z1.251 I3.003 J0.033
X69.603 Y-37.338 Z1.043 I-1.143 J-2.773
X64.714 Y-36.302 Z0.835 I-2.102 J2.134
X67.577 Y-32.214 Z0.627 I2.783 J1.097
X70.216 Y-36.443 Z0.419 I-0.079 J-2.987
X65.297 Y-37.216 Z0.211 I-2.715 J1.24
X66.51 Y-32.393 Z0.002 I2.201 J2.01
X70.468 Y-35.393 Z-0.206 I0.987 J-2.809
X66.164 Y-37.859 Z-0.414 I-2.968 J0.19
X65.58 Y-32.939 Z-0.622 I1.335 J2.653
X70.33 Y-34.325 Z-0.83 I1.917 J-2.264
X67.2 Y-38.149 Z-1.038 I-2.83 J-0.877
X64.908 Y-33.777 Z-1.246 I0.3 J2.944
X69.823 Y-33.38 Z-1.454 I2.588 J-1.427
X68.267 Y-38.052 Z-1.663 I-2.323 J-1.821
X64.581 Y-34.796 Z-1.871 I-0.766 J2.847
X69.014 Y-32.681 Z-2.079 I2.916 J-0.409
X69.225 Y-37.582 Z-2.287 I-1.515 J-2.521
X64.638 Y-35.86 Z-2.495 I-1.724 J2.378
X68.013 Y-32.317 Z-2.703 I2.86 J0.655
X69.951 Y-36.804 Z-2.911 I-0.515 J-2.884
X65.069 Y-36.831 Z-3.119 I-2.45 J1.601
X66.952 Y-32.334 Z-3.328 I2.429 J1.626
X70.35 Y-35.823 Z-3.536 I0.545 J-2.868
X65.815 Y-37.582 Z-3.744 I-2.849 J0.62
X65.971 Y-32.727 Z-3.952 I1.683 J2.376
X70.372 Y-34.767 Z-4.16 I1.526 J-2.476
X66.777 Y-38.015 Z-4.368 I-2.872 J-0.435
X65.197 Y-33.441 Z-4.576 I0.723 J2.81
X70.019 Y-33.777 Z-4.784 I2.3 J-1.763
X67.825 Y-38.077 Z-4.992 I-2.519 J-1.425
X64.73 Y-34.38 Z-5.201 I-0.325 J2.872
X69.338 Y-32.981 Z-5.409 I2.766 J-0.824
X68.823 Y-37.762 Z-5.617 I-1.838 J-2.221
X64.63 Y-35.42 Z-5.825 I-1.322 J2.558
X68.421 Y-32.481 Z-6.033 I2.868 J0.216
X69.64 Y-37.114 Z-6.241 I-0.922 J-2.72
X64.905 Y-36.424 Z-6.449 I-2.139 J1.911
X67.39 Y-32.342 Z-6.657 I2.592 J1.219
X70.171 Y-36.222 Z-6.866 I0.107 J-2.859
X65.519 Y-37.261 Z-7.074 I-2.67 J1.019
X66.382 Y-32.579 Z-7.282 I1.98 J2.056
X70.347 Y-35.202 Z-7.49 I1.115 J-2.623
X64.647 I-2.85
X70.347 I2.85
G1 X70.36 Y-36.088 F850
X70.393 Y-36.194
X70.421 Y-36.341
X70.43 Y-36.491
X70.423 Y-36.641
X70.403 Y-36.789
X70.37 Y-36.936
X70.325 Y-37.079
X70.271 Y-37.219
X70.207 Y-37.355
X70.135 Y-37.486
X70.055 Y-37.613
X69.967 Y-37.735
X69.949 Y-37.757
X69.702 Y-38.013
X69.413 Y-38.221
X69.091 Y-38.374
X68.748 Y-38.468
X68.393 Y-38.5
X66.719
X66.505 Y-38.489
X66.356 Y-38.473
X66.208 Y-38.448
X66.062 Y-38.414
X65.918 Y-38.371
X65.773 Y-38.319
X65.626 Y-38.256
X65.48 Y-38.184
X65.334 Y-38.102
X65.19 Y-38.009
X65.049 Y-37.907
X64.911 Y-37.794
X64.902 Y-37.786
X64.676 Y-37.542
X64.493 Y-37.265
X64.359 Y-36.961
X64.278 Y-36.64
X64.25 Y-36.309
G2 X64.304 Y-36.081 I0.6 J-0.021 F250
X65.238 Y-35.872 I0.546 J-0.249 F850
G1 X67.087 Y-37.443
G2 X66.947 Y-38.446 I-0.388 J-0.457
X66.719 Y-38.5 I-0.249 J0.546 F250
G1 X65.452 F850
X65.302 Y-38.493
X65.021 Y-38.421
X64.766 Y-38.284
X64.55 Y-38.091
X64.387 Y-37.852
X64.285 Y-37.581
X64.25 Y-37.293
G2 X64.282 Y-37.06 I1.162 J-0.041 F250
X65.707 Y-36.209 I1.13 J-0.274 F850
X65.685 Y-38.468 I-0.296 J-1.126
X65.452 Y-38.5 I-0.274 J1.132 F250
G1 X64.909 F850
X64.809 Y-38.497
X64.708 Y-38.479
X64.639 Y-38.456
X64.571 Y-38.423
X64.507 Y-38.382
X64.463 Y-38.346
X64.419 Y-38.302
X64.356 Y-38.222
X64.306 Y-38.134
X64.283 Y-38.077
X64.266 Y-38.02
X64.251 Y-37.92
X64.25 Y-37.819
Y-34.285
X64.257 Y-34.136
X64.275 Y-33.987
X64.302 Y-33.839
X64.338 Y-33.693
X64.383 Y-33.55
X64.436 Y-33.409
X64.5 Y-33.266
X64.573 Y-33.123
X64.656 Y-32.981
X64.749 Y-32.841
X64.853 Y-32.703
X64.966 Y-32.569
X65.089 Y-32.438
X65.221 Y-32.313
X65.362 Y-32.194
X65.512 Y-32.081
X65.669 Y-31.975
X65.835 Y-31.878
X66.007 Y-31.788
X66.186 Y-31.708
X66.371 Y-31.638
X66.561 Y-31.578
X66.755 Y-31.528
X66.953 Y-31.488
X67.154 Y-31.46
X67.358 Y-31.443
X67.563 Y-31.438
X67.769 Y-31.444
X67.975 Y-31.462
X68.18 Y-31.491
X68.384 Y-31.532
X68.586 Y-31.585
X68.785 Y-31.649
X68.981 Y-31.725
X69.172 Y-31.811
X69.359 Y-31.908
X69.54 Y-32.016
X69.715 Y-32.134
X69.884 Y-32.262
X70.045 Y-32.399
X70.198 Y-32.546
X70.21 Y-32.559
X70.44 Y-32.856
X70.61 Y-33.191
X70.715 Y-33.551
X70.75 Y-33.925
Y-37.124
X70.743 Y-37.274
X70.679 Y-37.555
X70.558 Y-37.817
X70.387 Y-38.048
X70.171 Y-38.239
X69.921 Y-38.382
X69.647 Y-38.47
X69.36 Y-38.5
G2 X69.132 Y-38.446 I0.021 J0.6 F250
X68.961 Y-37.472 I0.249 J0.546 F850
G1 X69.73 Y-36.717
G2 X70.696 Y-36.896 I0.42 J-0.428
X70.75 Y-37.124 I-0.546 J-0.249 F250
G1 Y-37.819 F850
X70.747 Y-37.868
X70.746 Y-37.903
X70.733 Y-38.021
G2 X70.605 Y-38.215 I-0.413 J0.134 F250
X70.276 Y-38.318 I-0.284 J0.328 F850
X70.364 Y-37.472 I0.044 J0.423
X70.686 Y-37.678 I-0.044 J-0.423
X70.746 Y-37.903 I-0.366 J-0.217 F250
G1 X70.741 Y-37.982 F850
X70.734 Y-38.02
X70.719 Y-38.071
X70.7 Y-38.121
X70.645 Y-38.222
X70.6 Y-38.283
X70.54 Y-38.345
X70.486 Y-38.389
X70.432 Y-38.423
X70.339 Y-38.465
X70.239 Y-38.492
X70.138 Y-38.5
X68.393
G2 X68.165 Y-38.446 I0.021 J0.6 F250
X67.986 Y-38.32 I0.249 J0.546 F850
G1 X64.421 Y-34.684
G2 X64.304 Y-34.513 I0.428 J0.42
X64.25 Y-34.285 I0.546 J0.249 F250
G1 Y-33.077 F850
X64.257 Y-32.927
X64.28 Y-32.779
X64.314 Y-32.633
X64.361 Y-32.49
X64.417 Y-32.351
X64.482 Y-32.216
X64.556 Y-32.086
X64.637 Y-31.96
X64.729 Y-31.832
X64.834 Y-31.703
X64.951 Y-31.575
X65.079 Y-31.451
X65.217 Y-31.33
X65.367 Y-31.213
X65.529 Y-31.101
X65.703 Y-30.995
X65.887 Y-30.896
X66.081 Y-30.805
X66.283 Y-30.725
X66.493 Y-30.654
X66.711 Y-30.594
X66.937 Y-30.546
X67.169 Y-30.51
X67.406 Y-30.487
X67.648 Y-30.476
X67.893 Y-30.48
X68.14 Y-30.497
X68.388 Y-30.529
X68.636 Y-30.575
X68.883 Y-30.635
X69.127 Y-30.71
X69.369 Y-30.799
X69.582 Y-30.891
X69.647 Y-30.924
X69.959 Y-31.118
X70.231 Y-31.367
X70.452 Y-31.661
X70.616 Y-31.991
X70.716 Y-32.345
X70.75 Y-32.711
Y-33.925
G2 X70.696 Y-34.153 I-0.6 J0.021 F250
X70.056 Y-34.497 I-0.546 J0.249 F850
G1 X64.755 Y-33.649
G2 X64.304 Y-33.305 I0.095 J0.592
X64.25 Y-33.077 I0.546 J0.249 F250
G1 Y-32.071 F850
X64.257 Y-31.921
X64.281 Y-31.773
X64.319 Y-31.627
X64.368 Y-31.486
X64.428 Y-31.348
X64.496 Y-31.215
X64.573 Y-31.086
X64.658 Y-30.961
X64.757 Y-30.833
X64.867 Y-30.705
X64.988 Y-30.58
X65.123 Y-30.454
X65.273 Y-30.33
X65.436 Y-30.21
X65.61 Y-30.097
X65.796 Y-29.989
X65.997 Y-29.888
X66.212 Y-29.795
X66.439 Y-29.711
X66.676 Y-29.639
X66.921 Y-29.579
X67.175 Y-29.532
X67.438 Y-29.498
X67.71 Y-29.478
X67.988 Y-29.474
X68.268 Y-29.486
X68.514 Y-29.51
X68.774 Y-29.55
X69.006 Y-29.6
X69.211 Y-29.656
X69.435 Y-29.731
X69.49 Y-29.753
X69.794 Y-29.905
X70.068 Y-30.106
X70.304 Y-30.351
X70.495 Y-30.633
X70.635 Y-30.943
X70.721 Y-31.272
X70.75 Y-31.61
Y-32.711
G2 X70.696 Y-32.939 I-0.6 J0.021 F250
X70.078 Y-33.286 I-0.546 J0.249 F850
G1 X64.778 Y-32.645
G2 X64.304 Y-32.298 I0.072 J0.596
X64.25 Y-32.071 I0.546 J0.249 F250
G1 Y-31.175 F850
X64.257 Y-31.025
X64.275 Y-30.876
X64.306 Y-30.729
X64.351 Y-30.586
X64.407 Y-30.447
X64.472 Y-30.312
X64.546 Y-30.181
X64.627 Y-30.055
X64.721 Y-29.926
X64.83 Y-29.794
X64.949 Y-29.665
X65.082 Y-29.535
X65.233 Y-29.405
X65.398 Y-29.278
X65.574 Y-29.157
X65.766 Y-29.04
X65.976 Y-28.929
X66.202 Y-28.824
X66.439 Y-28.731
X66.687 Y-28.649
X66.945 Y-28.579
X67.213 Y-28.523
X67.488 Y-28.481
X67.763 Y-28.455
X68.04 Y-28.444
X68.284 Y-28.449
X68.546 Y-28.468
X68.766 Y-28.497
X68.991 Y-28.54
X69.206 Y-28.593
X69.392 Y-28.651
X69.448 Y-28.672
X69.761 Y-28.82
X70.043 Y-29.021
X70.287 Y-29.267
X70.485 Y-29.551
X70.631 Y-29.866
X70.72 Y-30.201
X70.75 Y-30.546
Y-31.61
G2 X70.696 Y-31.838 I-0.6 J0.021 F250
X70.101 Y-32.187 I-0.546 J0.249 F850
G1 X64.8 Y-31.752
G2 X64.304 Y-31.402 I0.049 J0.598
X64.25 Y-31.175 I0.546 J0.249 F250
G1 Y-30.168 F850
X64.257 Y-30.018
X64.28 Y-29.87
X64.317 Y-29.724
X64.365 Y-29.582
X64.424 Y-29.444
X64.491 Y-29.31
X64.567 Y-29.181
X64.655 Y-29.048
X64.754 Y-28.917
X64.868 Y-28.781
X64.999 Y-28.643
X65.141 Y-28.508
X65.298 Y-28.375
X65.474 Y-28.242
X65.667 Y-28.113
X65.872 Y-27.992
X66.091 Y-27.879
X66.326 Y-27.774
X66.572 Y-27.68
X66.831 Y-27.598
X67.094 Y-27.53
X67.364 Y-27.477
X67.636 Y-27.439
X67.907 Y-27.417
X68.151 Y-27.41
X68.407 Y-27.418
X68.639 Y-27.438
X68.849 Y-27.468
X69.076 Y-27.514
X69.266 Y-27.564
X69.47 Y-27.63
X69.778 Y-27.781
X70.056 Y-27.982
X70.296 Y-28.227
X70.49 Y-28.51
X70.633 Y-28.822
X70.721 Y-29.154
X70.75 Y-29.496
Y-30.546
G2 X70.696 Y-30.774 I-0.6 J0.021 F250
X70.108 Y-31.124 I-0.546 J0.249 F850
G1 X64.807 Y-30.745
G2 X64.304 Y-30.396 I0.043 J0.598
X64.25 Y-30.168 I0.546 J0.249 F250
G1 Y-29.252 F850
X64.257 Y-29.102
X64.274 Y-28.953
X64.305 Y-28.806
X64.348 Y-28.662
X64.402 Y-28.522
X64.465 Y-28.386
X64.536 Y-28.254
X64.619 Y-28.121
X64.716 Y-27.984
X64.823 Y-27.848
X64.947 Y-27.707
X65.088 Y-27.565
X65.241 Y-27.427
X65.41 Y-27.292
X65.597 Y-27.158
X65.801 Y-27.028
X66.018 Y-26.908
X66.246 Y-26.797
X66.486 Y-26.697
X66.738 Y-26.608
X66.998 Y-26.532
X67.261 Y-26.472
X67.53 Y-26.425
X67.799 Y-26.394
X68.063 Y-26.379
X68.294
X68.544 Y-26.393
X68.754 Y-26.416
X68.971 Y-26.453
X69.181 Y-26.501
X69.362 Y-26.553
X69.411 Y-26.57
X69.732 Y-26.715
X70.022 Y-26.914
X70.273 Y-27.161
X70.477 Y-27.449
X70.627 Y-27.767
X70.719 Y-28.107
X70.75 Y-28.458
Y-29.496
G2 X70.696 Y-29.724 I-0.6 J0.021 F250
X70.123 Y-30.075 I-0.546 J0.249 F850
G1 X64.822 Y-29.83
G2 X64.304 Y-29.48 I0.028 J0.599
X64.25 Y-29.252 I0.546 J0.249 F250
G1 Y-28.245 F850
X64.257 Y-28.095
X64.276 Y-27.946
X64.307 Y-27.8
X64.351 Y-27.656
X64.405 Y-27.516
X64.468 Y-27.38
X64.541 Y-27.247
X64.623 Y-27.114
X64.72 Y-26.975
X64.832 Y-26.832
X64.956 Y-26.691
X65.096 Y-26.55
X65.254 Y-26.407
X65.427 Y-26.267
X65.612 Y-26.133
X65.814 Y-26.005
X66.032 Y-25.883
X66.265 Y-25.769
X66.508 Y-25.667
X66.76 Y-25.577
X67.018 Y-25.502
X67.281 Y-25.44
X67.548 Y-25.394
X67.814 Y-25.363
X68.058 Y-25.348
X68.303 Y-25.347
X68.543 Y-25.36
X68.748 Y-25.382
X68.975 Y-25.42
X69.174 Y-25.465
X69.36 Y-25.518
X69.406 Y-25.534
X69.728 Y-25.679
X70.019 Y-25.878
X70.271 Y-26.125
X70.476 Y-26.412
X70.626 Y-26.731
X70.719 Y-27.072
X70.75 Y-27.423
Y-28.458
G2 X70.696 Y-28.686 I-0.6 J0.021 F250
X70.126 Y-29.036 I-0.546 J0.249 F850
G1 X64.826 Y-28.824
G2 X64.304 Y-28.473 I0.024 J0.6
X64.25 Y-28.245 I0.546 J0.249 F250
G1 Y-27.238 F850
X64.257 Y-27.089
X64.275 Y-26.94
X64.307 Y-26.793
X64.35 Y-26.649
X64.404 Y-26.509
X64.466 Y-26.373
X64.538 Y-26.239
X64.62 Y-26.106
X64.717 Y-25.965
X64.829 Y-25.82
X64.953 Y-25.679
X65.093 Y-25.535
X65.252 Y-25.39
X65.424 Y-25.249
X65.61 Y-25.114
X65.812 Y-24.984
X66.03 Y-24.861
X66.261 Y-24.746
X66.503 Y-24.643
X66.754 Y-24.553
X67.01 Y-24.476
X67.272 Y-24.414
X67.538 Y-24.366
X67.803 Y-24.334
X68.047 Y-24.318
X68.29 Y-24.316
X68.53 Y-24.327
X68.735 Y-24.349
X68.962 Y-24.385
X69.161 Y-24.429
X69.346 Y-24.481
X69.397 Y-24.499
X69.721 Y-24.642
X70.014 Y-24.841
X70.268 Y-25.088
X70.474 Y-25.376
X70.626 Y-25.696
X70.719 Y-26.038
X70.75 Y-26.391
Y-27.423
G2 X70.696 Y-27.651 I-0.6 J0.021 F250
X70.129 Y-28.002 I-0.546 J0.249 F850
G1 X64.829 Y-27.817
G2 X64.304 Y-27.466 I0.021 J0.6
X64.25 Y-27.238 I0.546 J0.249 F250
G1 Y-26.232 F850
X64.257 Y-26.082
X64.274 Y-25.933
X64.305 Y-25.786
X64.347 Y-25.642
X64.399 Y-25.501
X64.461 Y-25.365
X64.532 Y-25.231
X64.612 Y-25.097
X64.709 Y-24.955
X64.82 Y-24.811
X64.942 Y-24.668
X65.082 Y-24.523
X65.239 Y-24.378
X65.409 Y-24.236
X65.593 Y-24.101
X65.794 Y-23.97
X66.012 Y-23.844
X66.241 Y-23.729
X66.482 Y-23.624
X66.731 Y-23.532
X66.987 Y-23.454
X67.247 Y-23.39
X67.512 Y-23.341
X67.777 Y-23.307
X68.022 Y-23.289
X68.263 Y-23.285
X68.507 Y-23.295
X68.712 Y-23.315
X68.938 Y-23.35
X69.14 Y-23.393
X69.324 Y-23.443
X69.384 Y-23.463
X69.71 Y-23.606
X70.006 Y-23.804
X70.262 Y-24.052
X70.471 Y-24.341
X70.624 Y-24.662
X70.718 Y-25.006
X70.75 Y-25.36
Y-26.391
G2 X70.696 Y-26.619 I-0.6 J0.021 F250
X70.132 Y-26.97 I-0.546 J0.249 F850
G1 X64.832 Y-26.81
G2 X64.304 Y-26.46 I0.018 J0.6
X64.25 Y-26.232 I0.546 J0.249 F250
G1 Y-25.175 F850
X64.257 Y-25.025
X64.278 Y-24.877
X64.311 Y-24.73
X64.356 Y-24.587
X64.411 Y-24.448
X64.474 Y-24.312
X64.548 Y-24.175
X64.633 Y-24.037
X64.731 Y-23.898
X64.846 Y-23.751
X64.975 Y-23.605
X65.116 Y-23.462
X65.275 Y-23.319
X65.452 Y-23.176
X65.643 Y-23.039
X65.846 Y-22.91
X66.064 Y-22.788
X66.295 Y-22.675
X66.537 Y-22.574
X66.789 Y-22.485
X67.046 Y-22.41
X67.308 Y-22.349
X67.573 Y-22.303
X67.838 Y-22.272
X68.074 Y-22.258
X68.327 Y-22.257
X68.555 Y-22.269
X68.762 Y-22.292
X68.988 Y-22.33
X69.18 Y-22.373
X69.371 Y-22.428
X69.408 Y-22.441
X69.729 Y-22.586
X70.02 Y-22.785
X70.272 Y-23.032
X70.476 Y-23.319
X70.627 Y-23.638
X70.719 Y-23.978
X70.75 Y-24.33
Y-25.36
G2 X70.696 Y-25.588 I-0.6 J0.021 F250
X70.129 Y-25.939 I-0.546 J0.249 F850
G1 X64.829 Y-25.754
G2 X64.304 Y-25.403 I0.021 J0.6
X64.25 Y-25.175 I0.546 J0.249 F250
G1 Y-24.128 F850
X64.257 Y-23.978
X64.28 Y-23.83
X64.315 Y-23.684
X64.361 Y-23.541
X64.417 Y-23.402
X64.482 Y-23.266
X64.558 Y-23.129
X64.644 Y-22.993
X64.745 Y-22.85
X64.862 Y-22.703
X64.991 Y-22.56
X65.135 Y-22.416
X65.297 Y-22.271
X65.476 Y-22.129
X65.668 Y-21.994
X65.873 Y-21.865
X66.094 Y-21.744
X66.326 Y-21.633
X66.571 Y-21.532
X66.824 Y-21.444
X67.081 Y-21.371
X67.345 Y-21.312
X67.609 Y-21.268
X67.874 Y-21.239
X68.108 Y-21.227
X68.359 Y-21.228
X68.586 Y-21.242
X68.791 Y-21.266
X69.016 Y-21.306
X69.206 Y-21.35
X69.396 Y-21.406
X69.421 Y-21.415
X69.74 Y-21.561
X70.028 Y-21.761
X70.277 Y-22.007
X70.479 Y-22.294
X70.628 Y-22.611
X70.719 Y-22.95
X70.75 Y-23.299
Y-24.33
G2 X70.696 Y-24.558 I-0.6 J0.021 F250
X70.128 Y-24.908 I-0.546 J0.249 F850
G1 X64.827 Y-24.706
G2 X64.304 Y-24.356 I0.023 J0.6
X64.25 Y-24.128 I0.546 J0.249 F250
G1 Y-23.121 F850
X64.257 Y-22.971
X64.277 Y-22.822
X64.311 Y-22.676
X64.355 Y-22.533
X64.41 Y-22.393
X64.473 Y-22.257
X64.545 Y-22.125
X64.629 Y-21.987
X64.729 Y-21.843
X64.842 Y-21.7
X64.968 Y-21.556
X65.112 Y-21.41
X65.272 Y-21.264
X65.445 Y-21.124
X65.633 Y-20.989
X65.838 Y-20.858
X66.059 Y-20.733
X66.29 Y-20.62
X66.533 Y-20.517
X66.784 Y-20.428
X67.04 Y-20.352
X67.301 Y-20.291
X67.566 Y-20.244
X67.831 Y-20.213
X68.073 Y-20.198
X68.313 Y-20.196
X68.552 Y-20.209
X68.755 Y-20.231
X68.979 Y-20.268
X69.178 Y-20.312
X69.361 Y-20.364
X69.403 Y-20.379
X69.726 Y-20.523
X70.018 Y-20.722
X70.27 Y-20.969
X70.475 Y-21.257
X70.626 Y-21.576
X70.719 Y-21.917
X70.75 Y-22.269
Y-23.299
G2 X70.696 Y-23.527 I-0.6 J0.021 F250
X70.13 Y-23.878 I-0.546 J0.249 F850
G1 X64.83 Y-23.7
G2 X64.304 Y-23.349 I0.02 J0.6
X64.25 Y-23.121 I0.546 J0.249 F250
G1 Y-22.114 F850
X64.257 Y-21.964
X64.275 Y-21.815
X64.306 Y-21.669
X64.349 Y-21.525
X64.402 Y-21.385
X64.464 Y-21.248
X64.535 Y-21.115
X64.617 Y-20.979
X64.715 Y-20.835
X64.826 Y-20.691
X64.95 Y-20.548
X65.091 Y-20.402
X65.249 Y-20.255
X65.42 Y-20.114
X65.605 Y-19.978
X65.808 Y-19.847
X66.026 Y-19.721
X66.257 Y-19.606
X66.498 Y-19.502
X66.747 Y-19.41
X67.003 Y-19.332
X67.263 Y-19.269
X67.528 Y-19.22
X67.792 Y-19.186
X68.036 Y-19.169
X68.276 Y-19.166
X68.518 Y-19.176
X68.722 Y-19.196
X68.947 Y-19.232
X69.148 Y-19.275
X69.332 Y-19.325
X69.387 Y-19.344
X69.713 Y-19.487
X70.008 Y-19.685
X70.264 Y-19.932
X70.471 Y-20.221
X70.624 Y-20.542
X70.718 Y-20.885
X70.75 Y-21.24
Y-22.269
G2 X70.696 Y-22.497 I-0.6 J0.021 F250
X70.133 Y-22.848 I-0.546 J0.249 F850
G1 X64.832 Y-22.693
G2 X64.304 Y-22.342 I0.018 J0.6
X64.25 Y-22.114 I0.546 J0.249 F250
G1 Y-21.047 F850
X64.257 Y-20.897
X64.279 Y-20.748
X64.314 Y-20.602
X64.36 Y-20.46
X64.416 Y-20.32
X64.48 Y-20.185
X64.556 Y-20.047
X64.642 Y-19.909
X64.742 Y-19.768
X64.858 Y-19.621
X64.989 Y-19.474
X65.133 Y-19.331
X65.293 Y-19.187
X65.471 Y-19.045
X65.665 Y-18.908
X65.87 Y-18.779
X66.09 Y-18.658
X66.322 Y-18.546
X66.564 Y-18.446
X66.817 Y-18.358
X67.074 Y-18.284
X67.337 Y-18.224
X67.602 Y-18.18
X67.866 Y-18.151
X68.099 Y-18.138
X68.353 Y-18.139
X68.577 Y-18.152
X68.785 Y-18.176
X69.009 Y-18.215
X69.198 Y-18.258
X69.391 Y-18.315
X69.418 Y-18.324
X69.737 Y-18.47
X70.026 Y-18.669
X70.276 Y-18.916
X70.478 Y-19.203
X70.628 Y-19.521
X70.719 Y-19.86
X70.75 Y-20.209
Y-21.24
G2 X70.696 Y-21.468 I-0.6 J0.021 F250
X70.129 Y-21.818 I-0.546 J0.249 F850
G1 X64.828 Y-21.625
G2 X64.304 Y-21.274 I0.022 J0.6
X64.25 Y-21.047 I0.546 J0.249 F250
G1 Y-20.04 F850
X64.257 Y-19.89
X64.277 Y-19.741
X64.309 Y-19.595
X64.353 Y-19.451
X64.407 Y-19.312
X64.471 Y-19.176
X64.542 Y-19.043
X64.626 Y-18.906
X64.725 Y-18.761
X64.837 Y-18.618
X64.962 Y-18.474
X65.106 Y-18.328
X65.265 Y-18.182
X65.437 Y-18.042
X65.624 Y-17.906
X65.828 Y-17.775
X66.049 Y-17.65
X66.28 Y-17.536
X66.521 Y-17.433
X66.772 Y-17.343
X67.028 Y-17.266
X67.289 Y-17.204
X67.553 Y-17.157
X67.818 Y-17.125
X68.062 Y-17.109
X68.3 Y-17.107
X68.54 Y-17.118
X68.744 Y-17.14
X68.968 Y-17.176
X69.168 Y-17.22
X69.351 Y-17.272
X69.398 Y-17.288
X69.721 Y-17.431
X70.014 Y-17.63
X70.268 Y-17.877
X70.474 Y-18.165
X70.626 Y-18.485
X70.719 Y-18.827
X70.75 Y-19.18
Y-20.209
G2 X70.696 Y-20.437 I-0.6 J0.021 F250
X70.131 Y-20.788 I-0.546 J0.249 F850
G1 X64.83 Y-20.619
G2 X64.304 Y-20.268 I0.019 J0.6
X64.25 Y-20.04 I0.546 J0.249 F250
G1 Y-18.983 F850
X64.257 Y-18.834
X64.28 Y-18.685
X64.315 Y-18.539
X64.361 Y-18.397
X64.417 Y-18.257
X64.481 Y-18.122
X64.557 Y-17.984
X64.644 Y-17.847
X64.744 Y-17.705
X64.862 Y-17.558
X64.992 Y-17.412
X65.136 Y-17.268
X65.297 Y-17.124
X65.477 Y-16.982
X65.669 Y-16.845
X65.874 Y-16.717
X66.095 Y-16.596
X66.328 Y-16.484
X66.571 Y-16.384
X66.824 Y-16.296
X67.081 Y-16.223
X67.344 Y-16.163
X67.609 Y-16.119
X67.873 Y-16.09
X68.107 Y-16.078
X68.359 Y-16.079
X68.584 Y-16.093
X68.79 Y-16.117
X69.015 Y-16.156
X69.204 Y-16.2
X69.396 Y-16.256
X69.42 Y-16.265
X69.739 Y-16.411
X70.028 Y-16.611
X70.277 Y-16.858
X70.479 Y-17.144
X70.628 Y-17.462
X70.719 Y-17.8
X70.75 Y-18.149
Y-19.18
G2 X70.696 Y-19.408 I-0.6 J0.021 F250
X70.128 Y-19.758 I-0.546 J0.249 F850
G1 X64.827 Y-19.562
G2 X64.304 Y-19.211 I0.022 J0.6
X64.25 Y-18.983 I0.546 J0.249 F250
G1 Y-17.977 F850
X64.257 Y-17.827
X64.277 Y-17.678
X64.31 Y-17.532
X64.354 Y-17.388
X64.409 Y-17.249
X64.472 Y-17.113
X64.543 Y-16.98
X64.628 Y-16.843
X64.728 Y-16.698
X64.839 Y-16.555
X64.965 Y-16.411
X65.109 Y-16.264
X65.269 Y-16.119
X65.441 Y-15.979
X65.629 Y-15.843
X65.834 Y-15.712
X66.055 Y-15.587
X66.286 Y-15.473
X66.528 Y-15.371
X66.779 Y-15.281
X67.035 Y-15.205
X67.296 Y-15.143
X67.561 Y-15.096
X67.826 Y-15.064
X68.068 Y-15.049
X68.307 Y-15.047
X68.547 Y-15.059
X68.75 Y-15.081
X68.974 Y-15.118
X69.173 Y-15.162
X69.356 Y-15.213
X69.4 Y-15.229
X69.723 Y-15.373
X70.016 Y-15.572
X70.269 Y-15.819
X70.474 Y-16.107
X70.626 Y-16.426
X70.719 Y-16.768
X70.75 Y-17.12
Y-18.149
G2 X70.696 Y-18.377 I-0.6 J0.021 F250
X70.131 Y-18.728 I-0.546 J0.249 F850
G1 X64.83 Y-18.555
G2 X64.304 Y-18.205 I0.02 J0.6
X64.25 Y-17.977 I0.546 J0.249 F250
G1 Y-16.97 F850
X64.257 Y-16.82
X64.275 Y-16.671
X64.306 Y-16.524
X64.348 Y-16.38
X64.401 Y-16.24
X64.463 Y-16.103
X64.533 Y-15.97
X64.615 Y-15.834
X64.713 Y-15.691
X64.823 Y-15.546
X64.947 Y-15.403
X65.088 Y-15.257
X65.246 Y-15.11
X65.416 Y-14.969
X65.601 Y-14.833
X65.803 Y-14.701
X66.021 Y-14.576
X66.251 Y-14.46
X66.492 Y-14.355
X66.741 Y-14.264
X66.996 Y-14.185
X67.257 Y-14.121
X67.521 Y-14.072
X67.786 Y-14.038
X68.03 Y-14.021
X68.269 Y-14.017
X68.512 Y-14.027
X68.716 Y-14.047
X68.942 Y-14.082
X69.143 Y-14.125
X69.326 Y-14.175
X69.384 Y-14.194
X69.71 Y-14.336
X70.006 Y-14.535
X70.262 Y-14.782
X70.471 Y-15.071
X70.624 Y-15.393
X70.718 Y-15.736
X70.75 Y-16.091
Y-17.12
G2 X70.696 Y-17.348 I-0.6 J0.021 F250
X70.133 Y-17.699 I-0.546 J0.249 F850
G1 X64.833 Y-17.549
G2 X64.304 Y-17.198 I0.017 J0.6
X64.25 Y-16.97 I0.546 J0.249 F250
G1 Y-15.913 F850
X64.257 Y-15.764
X64.278 Y-15.615
X64.311 Y-15.469
X64.356 Y-15.326
X64.411 Y-15.186
X64.474 Y-15.05
X64.548 Y-14.913
X64.633 Y-14.775
X64.732 Y-14.634
X64.847 Y-14.488
X64.976 Y-14.342
X65.117 Y-14.198
X65.276 Y-14.054
X65.453 Y-13.911
X65.644 Y-13.773
X65.847 Y-13.644
X66.066 Y-13.522
X66.297 Y-13.409
X66.539 Y-13.307
X66.791 Y-13.218
X67.047 Y-13.142
X67.309 Y-13.081
X67.574 Y-13.035
X67.838 Y-13.004
X68.074 Y-12.99
X68.326 Y-12.989
X68.554 Y-13.001
X68.761 Y-13.024
X68.987 Y-13.061
X69.178 Y-13.104
X69.369 Y-13.159
X69.406 Y-13.172
X69.728 Y-13.316
X70.019 Y-13.515
X70.271 Y-13.762
X70.476 Y-14.05
X70.626 Y-14.369
X70.719 Y-14.709
X70.75 Y-15.061
Y-16.091
G2 X70.696 Y-16.319 I-0.6 J0.021 F250
X70.13 Y-16.669 I-0.546 J0.249 F850
G1 X64.83 Y-16.492
G2 X64.304 Y-16.141 I0.02 J0.6
X64.25 Y-15.913 I0.546 J0.249 F250
G1 Y-14.866 F850
X64.257 Y-14.716
X64.28 Y-14.568
X64.315 Y-14.422
X64.361 Y-14.279
X64.416 Y-14.14
X64.481 Y-14.004
X64.556 Y-13.867
X64.642 Y-13.73
X64.743 Y-13.588
X64.86 Y-13.441
X64.989 Y-13.297
X65.133 Y-13.152
X65.295 Y-13.007
X65.474 Y-12.865
X65.664 Y-12.73
X65.869 Y-12.601
X66.09 Y-12.479
X66.323 Y-12.367
X66.567 Y-12.267
X66.82 Y-12.179
X67.077 Y-12.105
X67.34 Y-12.045
X67.604 Y-12.001
X67.869 Y-11.972
X68.103 Y-11.959
X68.353 Y-11.96
X68.581 Y-11.974
X68.786 Y-11.997
X69.011 Y-12.036
X69.202 Y-12.081
X69.391 Y-12.136
X69.418 Y-12.146
X69.738 Y-12.292
X70.026 Y-12.491
X70.276 Y-12.738
X70.478 Y-13.025
X70.628 Y-13.342
X70.719 Y-13.681
X70.75 Y-14.031
Y-15.061
G2 X70.696 Y-15.289 I-0.6 J0.021 F250
X70.128 Y-15.64 I-0.546 J0.249 F850
G1 X64.828 Y-15.445
G2 X64.304 Y-15.094 I0.022 J0.6
X64.25 Y-14.866 I0.546 J0.249 F250
G1 Y-13.859 F850
X64.257 Y-13.709
X64.277 Y-13.561
X64.31 Y-13.414
X64.354 Y-13.271
X64.408 Y-13.131
X64.471 Y-12.995
X64.543 Y-12.862
X64.627 Y-12.725
X64.727 Y-12.581
X64.839 Y-12.438
X64.964 Y-12.294
X65.108 Y-12.147
X65.268 Y-12.001
X65.44 Y-11.861
X65.628 Y-11.725
X65.832 Y-11.594
X66.053 Y-11.469
X66.284 Y-11.355
X66.526 Y-11.253
X66.777 Y-11.163
X67.033 Y-11.087
X67.294 Y-11.025
X67.559 Y-10.978
X67.823 Y-10.946
X68.066 Y-10.93
X68.305 Y-10.929
X68.545 Y-10.94
X68.748 Y-10.962
X68.972 Y-10.998
X69.171 Y-11.043
X69.355 Y-11.094
X69.4 Y-11.11
X69.723 Y-11.254
X70.015 Y-11.452
X70.269 Y-11.7
X70.474 Y-11.988
X70.626 Y-12.307
X70.719 Y-12.649
X70.75 Y-13.001
Y-14.031
G2 X70.696 Y-14.259 I-0.6 J0.021 F250
X70.131 Y-14.609 I-0.546 J0.249 F850
G1 X64.83 Y-14.438
G2 X64.304 Y-14.087 I0.019 J0.6
X64.25 Y-13.859 I0.546 J0.249 F250
G1 Y-12.852 F850
X64.257 Y-12.703
X64.275 Y-12.554
X64.305 Y-12.407
X64.348 Y-12.263
X64.401 Y-12.123
X64.463 Y-11.986
X64.533 Y-11.853
X64.614 Y-11.717
X64.712 Y-11.573
X64.822 Y-11.429
X64.946 Y-11.286
X65.086 Y-11.139
X65.244 Y-10.993
X65.284 Y-10.96
X65.568 Y-10.763
X65.882 Y-10.618
X66.216 Y-10.53
X66.56 Y-10.5
G2 X66.788 Y-10.554 I-0.021 J-0.6 F250
X66.969 Y-11.519 I-0.249 J-0.546 F850
G1 X65.279 Y-13.251
G2 X64.304 Y-13.08 I-0.429 J0.419
X64.25 Y-12.852 I0.546 J0.249 F250
G1 Y-11.785 F850
X64.257 Y-11.635
X64.339 Y-11.332
X64.49 Y-11.056
X64.701 Y-10.823
X64.961 Y-10.647
X65.256 Y-10.537
X65.568 Y-10.5
G2 X65.801 Y-10.53 I-0.043 J-1.245 F250
X66.721 Y-12.091 I-0.277 J-1.215 F850
X64.28 Y-12.018 I-1.211 J0.35
X64.25 Y-11.785 I1.23 J0.277 F250
G1 Y-11.242 F850
X64.254 Y-11.081
X64.255 Y-11.04
X64.273 Y-10.951
X64.306 Y-10.862
X64.317 Y-10.839
X64.346 Y-10.789
X64.383 Y-10.738
X64.428 Y-10.688
X64.482 Y-10.638
X64.507 Y-10.618
X64.557 Y-10.585
X64.608 Y-10.558
X64.658 Y-10.537
X64.708 Y-10.521
X64.809 Y-10.503
X64.909 Y-10.5
X69.243
X69.393 Y-10.507
X69.705 Y-10.581
X69.995 Y-10.718
X70.251 Y-10.91
X70.462 Y-11.151
X70.62 Y-11.43
X70.717 Y-11.735
X70.75 Y-12.054
G2 X70.696 Y-12.281 I-0.6 J0.021 F250
X69.715 Y-12.446 I-0.546 J0.249 F850
G1 X68.829 Y-11.513
G2 X69.015 Y-10.554 I0.435 J0.413
X69.243 Y-10.5 I0.249 J-0.546 F250
G1 X69.998 F850
X70.04
X70.07
X70.22 Y-10.507
X70.429 Y-10.604
X70.597 Y-10.762
X70.707 Y-10.964
X70.749 Y-11.19
G2 X70.704 Y-11.42 I-0.659 J0.008 F250
X69.886 Y-11.81 I-0.615 J0.238 F850
X69.841 Y-10.549 I0.207 J0.639
X70.07 Y-10.5 I0.253 J-0.622 F250
G1 X70.138 F850
X70.239 Y-10.508
X70.339 Y-10.535
X70.43 Y-10.576
X70.475 Y-10.604
X70.521 Y-10.638
X70.54 Y-10.655
X70.586 Y-10.701
X70.624 Y-10.747
X70.656 Y-10.793
X70.683 Y-10.839
X70.72 Y-10.926
X70.741 Y-11.014
X70.745 Y-11.04
X70.75 Y-11.242
Y-13.001
G2 X70.696 Y-13.229 I-0.6 J0.021 F250
G1 X70.657 Y-13.314 Z-7.483
X70.619 Y-13.398 Z-7.461
X70.583 Y-13.477 Z-7.425
X70.55 Y-13.55 Z-7.375
X70.52 Y-13.615 Z-7.314
X70.495 Y-13.671 Z-7.243
X70.475 Y-13.716 Z-7.162
X70.46 Y-13.748 Z-7.075
X70.451 Y-13.768 Z-6.984
X70.448 Y-13.775 Z-6.89
G0 Z5
X70.219 Y-262.61
Z3.1
G1 Z2.5 F250
G2 X67.647 Y-266.944 Z2.292 I-2.719 J-1.316 F200
X64.669 Y-262.885 Z2.084 I-0.147 J3.014
X69.563 Y-261.735 Z1.876 I2.827 J-1.043
X68.708 Y-266.683 Z1.668 I-2.064 J-2.191
X64.495 Y-263.962 Z1.459 I-1.207 J2.753
X68.642 Y-261.153 Z1.251 I3.003 J0.033
X69.603 Y-266.063 Z1.043 I-1.143 J-2.773
X64.714 Y-265.027 Z0.835 I-2.102 J2.135
X67.577 Y-260.939 Z0.627 I2.783 J1.097
X70.216 Y-265.168 Z0.419 I-0.079 J-2.987
X65.297 Y-265.94 Z0.211 I-2.715 J1.24
X66.51 Y-261.118 Z0.002 I2.201 J2.01
X70.468 Y-264.117 Z-0.206 I0.987 J-2.809
X66.164 Y-266.583 Z-0.414 I-2.968 J0.19
X65.58 Y-261.663 Z-0.622 I1.335 J2.653
X70.33 Y-263.05 Z-0.83 I1.917 J-2.264
X67.2 Y-266.874 Z-1.038 I-2.83 J-0.877
X64.908 Y-262.502 Z-1.246 I0.3 J2.944
X69.823 Y-262.105 Z-1.454 I2.588 J-1.427
X68.267 Y-266.776 Z-1.663 I-2.323 J-1.821
X64.581 Y-263.52 Z-1.871 I-0.766 J2.847
X69.014 Y-261.405 Z-2.079 I2.916 J-0.409
X69.225 Y-266.307 Z-2.287 I-1.515 J-2.521
X64.638 Y-264.585 Z-2.495 I-1.724 J2.378
X68.013 Y-261.042 Z-2.703 I2.86 J0.655
X69.951 Y-265.529 Z-2.911 I-0.515 J-2.884
X65.069 Y-265.556 Z-3.119 I-2.45 J1.601
X66.952 Y-261.059 Z-3.328 I2.429 J1.626
X70.35 Y-264.547 Z-3.536 I0.545 J-2.868
X65.815 Y-266.306 Z-3.744 I-2.849 J0.62
X65.971 Y-261.451 Z-3.952 I1.683 J2.376
X70.372 Y-263.492 Z-4.16 I1.526 J-2.476
X66.777 Y-266.74 Z-4.368 I-2.872 J-0.435
X65.197 Y-262.165 Z-4.576 I0.723 J2.81
X70.019 Y-262.501 Z-4.784 I2.3 J-1.763
X67.825 Y-266.802 Z-4.992 I-2.519 J-1.425
X64.73 Y-263.105 Z-5.201 I-0.325 J2.872
X69.338 Y-261.705 Z-5.409 I2.766 J-0.824
X68.823 Y-266.487 Z-5.617 I-1.838 J-2.221
X64.63 Y-264.145 Z-5.825 I-1.322 J2.558
X68.421 Y-261.206 Z-6.033 I2.868 J0.216
X69.64 Y-265.839 Z-6.241 I-0.922 J-2.72
X64.905 Y-265.149 Z-6.449 I-2.139 J1.911
X67.39 Y-261.067 Z-6.657 I2.592 J1.219
X70.171 Y-264.946 Z-6.866 I0.107 J-2.859
X65.519 Y-265.986 Z-7.074 I-2.67 J1.019
X66.382 Y-261.304 Z-7.282 I1.98 J2.056
X70.347 Y-263.927 Z-7.49 I1.115 J-2.623
X68.147 Y-266.702 I-2.85
X65.97 Y-261.52 I-0.65 J2.775
X69.268 Y-261.693 I1.527 J-2.407
X70.347 Y-263.927 I-1.771 J-2.233
G1 X70.36 Y-264.813 F850
X70.393 Y-264.919
X70.421 Y-265.066
X70.43 Y-265.216
X70.423 Y-265.365
X70.403 Y-265.514
X70.37 Y-265.66
X70.325 Y-265.804
X70.271 Y-265.943
X70.207 Y-266.079
X70.135 Y-266.211
X70.055 Y-266.337
X69.967 Y-266.459
X69.87 Y-266.579
X69.764 Y-266.696
X69.648 Y-266.811
X69.523 Y-266.921
X69.389 Y-267.026
X69.246 Y-267.126
X69.095 Y-267.22
X68.936 Y-267.306
X68.77 Y-267.384
X68.597 Y-267.454
X68.419 Y-267.515
X68.235 Y-267.566
X68.046 Y-267.607
X67.853 Y-267.638
X67.657 Y-267.659
X67.459 Y-267.668
X67.259 Y-267.666
X67.058 Y-267.652
X66.857 Y-267.628
X66.656 Y-267.591
X66.457 Y-267.544
X66.26 Y-267.485
X66.066 Y-267.414
X65.876 Y-267.333
X65.69 Y-267.24
X65.508 Y-267.137
X65.333 Y-267.024
X65.164 Y-266.901
X65.001 Y-266.768
X64.846 Y-266.626
X64.817 Y-266.596
X64.576 Y-266.295
X64.397 Y-265.954
X64.287 Y-265.584
X64.25 Y-265.201
Y-263.01
X64.257 Y-262.86
X64.275 Y-262.711
X64.302 Y-262.564
X64.338 Y-262.418
X64.383 Y-262.275
X64.436 Y-262.133
X64.5 Y-261.991
X64.573 Y-261.848
X64.656 Y-261.706
X64.749 Y-261.566
X64.853 Y-261.428
X64.966 Y-261.293
X65.089 Y-261.163
X65.221 Y-261.038
X65.362 Y-260.918
X65.382 Y-260.903
X65.655 Y-260.73
X65.951 Y-260.603
X66.265 Y-260.526
X66.586 Y-260.5
G2 X66.814 Y-260.554 I-0.021 J-0.6 F250
X67.01 Y-261.503 I-0.249 J-0.546 F850
G1 X65.294 Y-263.392
G2 X64.304 Y-263.238 I-0.444 J0.403
X64.25 Y-263.01 I0.546 J0.249 F250
G1 Y-261.802 F850
X64.257 Y-261.652
X64.342 Y-261.344
X64.496 Y-261.064
X64.711 Y-260.828
X64.976 Y-260.649
X65.276 Y-260.538
X65.593 Y-260.5
G2 X65.827 Y-260.53 I-0.044 J-1.263 F250
X66.761 Y-262.121 I-0.277 J-1.233 F850
X64.28 Y-262.035 I-1.229 J0.364
X64.25 Y-261.802 I1.252 J0.278 F250
G1 Y-261.148 F850
Y-261.107
X64.259 Y-261.007
X64.287 Y-260.906
X64.306 Y-260.86
X64.349 Y-260.782
X64.41 Y-260.705
X64.459 Y-260.658
X64.507 Y-260.618
X64.557 Y-260.585
X64.608 Y-260.558
X64.658 Y-260.537
X64.708 Y-260.521
X64.802 Y-260.503
X64.909 Y-260.5
X68.127
X68.327 Y-260.51
X68.476 Y-260.526
X68.629 Y-260.551
X68.784 Y-260.585
X68.94 Y-260.63
X69.098 Y-260.684
X69.257 Y-260.749
X69.414 Y-260.824
X69.57 Y-260.909
X69.723 Y-261.005
X69.874 Y-261.111
X70.02 Y-261.227
X70.078 Y-261.278
X70.311 Y-261.523
X70.499 Y-261.803
X70.637 Y-262.111
X70.722 Y-262.437
X70.75 Y-262.774
G2 X70.696 Y-263.001 I-0.6 J0.021 F250
X69.768 Y-263.215 I-0.546 J0.249 F850
G1 X67.766 Y-261.562
G2 X67.899 Y-260.554 I0.382 J0.463
X68.127 Y-260.5 I0.249 J-0.546 F250
G1 X69.444 F850
X69.594 Y-260.508
X69.901 Y-260.581
X70.182 Y-260.725
X70.419 Y-260.933
X70.599 Y-261.192
X70.712 Y-261.487
X70.75 Y-261.801
G2 X70.696 Y-262.028 I-0.6 J0.021 F250
X69.728 Y-262.205 I-0.546 J0.249 F850
G1 X69.043 Y-261.526
G2 X69.216 Y-260.554 I0.423 J0.426
X69.444 Y-260.5 I0.249 J-0.546 F250
G1 X70.138 F850
X70.201 Y-260.503
X70.27 Y-260.515
X70.339 Y-260.535
X70.389 Y-260.555
X70.44 Y-260.581
X70.49 Y-260.614
X70.54 Y-260.655
X70.59 Y-260.705
X70.632 Y-260.755
X70.665 Y-260.805
X70.692 Y-260.856
X70.713 Y-260.906
X70.73 Y-260.959
X70.741 Y-261.012
X70.75 Y-261.107
Y-265.849
X70.742 Y-266
X70.727 Y-266.149
X70.699 Y-266.296
X70.66 Y-266.441
X70.612 Y-266.583
X70.555 Y-266.722
X70.489 Y-266.857
X70.414 Y-266.99
X70.33 Y-267.122
X70.235 Y-267.254
X70.128 Y-267.386
X70.01 Y-267.517
X69.88 Y-267.645
X69.739 Y-267.768
X69.589 Y-267.886
X69.428 Y-267.999
X69.255 Y-268.105
X69.073 Y-268.204
X68.88 Y-268.294
X68.678 Y-268.376
X68.468 Y-268.447
X68.251 Y-268.507
X68.028 Y-268.556
X67.799 Y-268.592
X67.566 Y-268.616
X67.328 Y-268.627
X67.087 Y-268.624
X66.843 Y-268.608
X66.598 Y-268.577
X66.353 Y-268.533
X66.109 Y-268.474
X65.866 Y-268.401
X65.627 Y-268.314
X65.423 Y-268.226
X65.359 Y-268.195
X65.045 Y-268.001
X64.772 Y-267.752
X64.55 Y-267.457
X64.385 Y-267.127
X64.284 Y-266.772
X64.25 Y-266.404
Y-265.201
G2 X64.304 Y-264.973 I0.6 J-0.021 F250
X64.922 Y-264.626 I0.546 J-0.249 F850
G1 X70.223 Y-265.274
G2 X70.696 Y-265.621 I-0.073 J-0.596
X70.75 Y-265.849 I-0.546 J-0.249 F250
G1 Y-266.946 F850
X70.743 Y-267.096
X70.723 Y-267.245
X70.69 Y-267.391
X70.645 Y-267.534
X70.59 Y-267.674
X70.525 Y-267.809
X70.452 Y-267.94
X70.369 Y-268.069
X70.277 Y-268.196
X70.172 Y-268.325
X70.053 Y-268.455
X69.921 Y-268.585
X69.777 Y-268.71
X69.622 Y-268.831
X69.452 Y-268.949
X69.267 Y-269.062
X69.07 Y-269.168
X68.862 Y-269.265
X68.644 Y-269.353
X68.414 Y-269.43
X68.173 Y-269.496
X67.921 Y-269.55
X67.66 Y-269.591
X67.391 Y-269.618
X67.117 Y-269.629
X66.841 Y-269.626
X66.584 Y-269.608
X66.339 Y-269.577
X66.088 Y-269.53
X65.882 Y-269.48
X65.661 Y-269.413
X65.456 Y-269.338
X65.118 Y-269.15
X64.821 Y-268.901
X64.579 Y-268.6
X64.398 Y-268.258
X64.287 Y-267.887
X64.25 Y-267.502
Y-266.404
G2 X64.304 Y-266.176 I0.6 J-0.021 F250
X64.911 Y-265.828 I0.546 J-0.249 F850
G1 X70.211 Y-266.37
G2 X70.696 Y-266.718 I-0.061 J-0.597
X70.75 Y-266.946 I-0.546 J-0.249 F250
G1 Y-267.953 F850
X70.743 Y-268.103
X70.72 Y-268.251
X70.684 Y-268.397
X70.635 Y-268.539
X70.577 Y-268.677
X70.509 Y-268.811
X70.434 Y-268.94
X70.347 Y-269.07
X70.248 Y-269.202
X70.138 Y-269.331
X70.013 Y-269.464
X69.872 Y-269.597
X69.719 Y-269.726
X69.552 Y-269.851
X69.368 Y-269.974
X69.167 Y-270.092
X68.953 Y-270.202
X68.727 Y-270.302
X68.487 Y-270.393
X68.234 Y-270.473
X67.972 Y-270.54
X67.701 Y-270.593
X67.428 Y-270.631
X67.152 Y-270.653
X66.875 Y-270.66
X66.642 Y-270.652
X66.39 Y-270.63
X66.159 Y-270.596
X65.961 Y-270.556
X65.739 Y-270.498
X65.542 Y-270.434
X65.527 Y-270.428
X65.219 Y-270.277
X64.942 Y-270.076
X64.703 Y-269.83
X64.509 Y-269.547
X64.367 Y-269.236
X64.279 Y-268.904
X64.25 Y-268.563
Y-267.502
G2 X64.304 Y-267.274 I0.6 J-0.021 F250
X64.901 Y-266.925 I0.546 J-0.249 F850
G1 X70.201 Y-267.376
G2 X70.696 Y-267.725 I-0.051 J-0.598
X70.75 Y-267.953 I-0.546 J-0.249 F250
G1 Y-268.869 F850
X70.743 Y-269.019
X70.726 Y-269.168
X70.694 Y-269.315
X70.65 Y-269.458
X70.596 Y-269.598
X70.532 Y-269.733
X70.459 Y-269.865
X70.378 Y-269.994
X70.281 Y-270.129
X70.173 Y-270.264
X70.052 Y-270.399
X69.912 Y-270.537
X69.758 Y-270.674
X69.592 Y-270.806
X69.408 Y-270.935
X69.206 Y-271.061
X68.988 Y-271.18
X68.759 Y-271.289
X68.517 Y-271.387
X68.267 Y-271.473
X68.005 Y-271.547
X67.738 Y-271.607
X67.469 Y-271.651
X67.196 Y-271.68
X66.93 Y-271.693
X66.696 Y-271.691
X66.444 Y-271.675
X66.233 Y-271.65
X66.011 Y-271.611
X65.803 Y-271.562
X65.62 Y-271.507
X65.574 Y-271.491
X65.257 Y-271.344
X64.969 Y-271.144
X64.721 Y-270.898
X64.52 Y-270.612
X64.371 Y-270.295
X64.281 Y-269.957
X64.25 Y-269.608
Y-268.563
G2 X64.304 Y-268.335 I0.6 J-0.021 F250
X64.884 Y-267.985 I0.546 J-0.249 F850
G1 X70.185 Y-268.291
G2 X70.696 Y-268.641 I-0.035 J-0.599
X70.75 Y-268.869 I-0.546 J-0.249 F250
G1 Y-269.876 F850
X70.743 Y-270.026
X70.722 Y-270.174
X70.689 Y-270.32
X70.643 Y-270.463
X70.587 Y-270.603
X70.522 Y-270.738
X70.448 Y-270.87
X70.364 Y-271.003
X70.266 Y-271.139
X70.151 Y-271.281
X70.024 Y-271.422
X69.884 Y-271.56
X69.725 Y-271.701
X69.549 Y-271.839
X69.36 Y-271.971
X69.158 Y-272.096
X68.938 Y-272.216
X68.703 Y-272.327
X68.459 Y-272.426
X68.203 Y-272.513
X67.944 Y-272.585
X67.678 Y-272.643
X67.41 Y-272.687
X67.142 Y-272.714
X66.9 Y-272.726
X66.651 Y-272.723
X66.416 Y-272.708
X66.21 Y-272.683
X65.983 Y-272.642
X65.788 Y-272.595
X65.599 Y-272.539
X65.569 Y-272.528
X65.253 Y-272.381
X64.966 Y-272.181
X64.719 Y-271.934
X64.519 Y-271.648
X64.371 Y-271.332
X64.28 Y-270.995
X64.25 Y-270.647
Y-269.608
G2 X64.304 Y-269.38 I0.6 J-0.021 F250
X64.88 Y-269.03 I0.546 J-0.249 F850
G1 X70.181 Y-269.298
G2 X70.696 Y-269.648 I-0.03 J-0.599
X70.75 Y-269.876 I-0.546 J-0.249 F250
G1 Y-270.883 F850
X70.743 Y-271.032
X70.721 Y-271.181
X70.687 Y-271.327
X70.641 Y-271.47
X70.585 Y-271.609
X70.52 Y-271.744
X70.446 Y-271.878
X70.362 Y-272.011
X70.261 Y-272.152
X70.146 Y-272.296
X70.019 Y-272.437
X69.875 Y-272.579
X69.713 Y-272.723
X69.537 Y-272.862
X69.349 Y-272.995
X69.143 Y-273.123
X68.921 Y-273.244
X68.688 Y-273.355
X68.443 Y-273.455
X68.189 Y-273.542
X67.931 Y-273.615
X67.667 Y-273.673
X67.401 Y-273.717
X67.134 Y-273.745
X66.894 Y-273.757
X66.649 Y-273.756
X66.414 Y-273.741
X66.21 Y-273.716
X65.984 Y-273.676
X65.79 Y-273.63
X65.603 Y-273.575
X65.574 Y-273.564
X65.256 Y-273.418
X64.969 Y-273.218
X64.721 Y-272.971
X64.52 Y-272.685
X64.371 Y-272.368
X64.281 Y-272.031
X64.25 Y-271.682
Y-270.647
G2 X64.304 Y-270.419 I0.6 J-0.021 F250
X64.876 Y-270.069 I0.546 J-0.249 F850
G1 X70.177 Y-270.304
G2 X70.696 Y-270.655 I-0.027 J-0.599
X70.75 Y-270.883 I-0.546 J-0.249 F250
G1 Y-271.889 F850
X70.743 Y-272.039
X70.722 Y-272.188
X70.688 Y-272.334
X70.643 Y-272.477
X70.588 Y-272.616
X70.523 Y-272.752
X70.45 Y-272.885
X70.366 Y-273.02
X70.265 Y-273.163
X70.151 Y-273.307
X70.025 Y-273.449
X69.881 Y-273.594
X69.719 Y-273.738
X69.545 Y-273.878
X69.357 Y-274.012
X69.152 Y-274.141
X68.93 Y-274.264
X68.697 Y-274.376
X68.453 Y-274.477
X68.201 Y-274.566
X67.944 Y-274.64
X67.681 Y-274.7
X67.416 Y-274.745
X67.15 Y-274.774
X66.909 Y-274.788
X66.667 Y-274.787
X66.43 Y-274.774
X66.226 Y-274.751
X66.001 Y-274.712
X65.805 Y-274.667
X65.62 Y-274.613
X65.585 Y-274.601
X65.265 Y-274.455
X64.975 Y-274.256
X64.725 Y-274.009
X64.522 Y-273.722
X64.373 Y-273.404
X64.281 Y-273.065
X64.25 Y-272.714
Y-271.682
G2 X64.304 Y-271.454 I0.6 J-0.021 F250
X64.873 Y-271.103 I0.546 J-0.249 F850
G1 X70.174 Y-271.311
G2 X70.696 Y-271.661 I-0.023 J-0.6
X70.75 Y-271.889 I-0.546 J-0.249 F250
G1 Y-272.896 F850
X70.743 Y-273.046
X70.723 Y-273.195
X70.691 Y-273.341
X70.647 Y-273.484
X70.593 Y-273.624
X70.529 Y-273.76
X70.457 Y-273.893
X70.374 Y-274.029
X70.275 Y-274.172
X70.162 Y-274.316
X70.037 Y-274.459
X69.894 Y-274.604
X69.734 Y-274.75
X69.562 Y-274.89
X69.375 Y-275.025
X69.171 Y-275.156
X68.951 Y-275.28
X68.719 Y-275.394
X68.477 Y-275.496
X68.226 Y-275.586
X67.969 Y-275.662
X67.708 Y-275.724
X67.443 Y-275.77
X67.178 Y-275.802
X66.935 Y-275.817
X66.694 Y-275.819
X66.455 Y-275.807
X66.251 Y-275.785
X66.026 Y-275.748
X65.827 Y-275.704
X65.643 Y-275.652
X65.598 Y-275.636
X65.276 Y-275.492
X64.983 Y-275.293
X64.731 Y-275.046
X64.525 Y-274.758
X64.374 Y-274.439
X64.281 Y-274.097
X64.25 Y-273.745
Y-272.714
G2 X64.304 Y-272.487 I0.6 J-0.021 F250
X64.87 Y-272.136 I0.546 J-0.249 F850
G1 X70.171 Y-272.317
G2 X70.696 Y-272.668 I-0.021 J-0.6
X70.75 Y-272.896 I-0.546 J-0.249 F250
G1 Y-273.903 F850
X70.743 Y-274.052
X70.725 Y-274.201
X70.694 Y-274.348
X70.652 Y-274.492
X70.599 Y-274.632
X70.536 Y-274.769
X70.466 Y-274.902
X70.384 Y-275.038
X70.287 Y-275.181
X70.176 Y-275.325
X70.053 Y-275.468
X69.912 Y-275.613
X69.754 Y-275.76
X69.583 Y-275.901
X69.398 Y-276.036
X69.196 Y-276.168
X68.978 Y-276.293
X68.748 Y-276.409
X68.507 Y-276.513
X68.258 Y-276.604
X68.002 Y-276.682
X67.741 Y-276.746
X67.477 Y-276.795
X67.212 Y-276.829
X66.968 Y-276.846
X66.728 Y-276.849
X66.485 Y-276.839
X66.281 Y-276.819
X66.055 Y-276.784
X65.854 Y-276.741
X65.67 Y-276.69
X65.614 Y-276.671
X65.288 Y-276.528
X64.992 Y-276.33
X64.737 Y-276.083
X64.529 Y-275.794
X64.376 Y-275.473
X64.282 Y-275.13
X64.25 Y-274.775
Y-273.745
G2 X64.304 Y-273.517 I0.6 J-0.021 F250
X64.867 Y-273.166 I0.546 J-0.249 F850
G1 X70.168 Y-273.324
G2 X70.696 Y-273.675 I-0.018 J-0.6
X70.75 Y-273.903 I-0.546 J-0.249 F250
G1 Y-274.959 F850
X70.743 Y-275.109
X70.722 Y-275.258
X70.688 Y-275.404
X70.643 Y-275.547
X70.588 Y-275.686
X70.525 Y-275.822
X70.45 Y-275.959
X70.365 Y-276.097
X70.266 Y-276.238
X70.151 Y-276.384
X70.022 Y-276.53
X69.88 Y-276.673
X69.72 Y-276.817
X69.543 Y-276.96
X69.352 Y-277.097
X69.148 Y-277.226
X68.93 Y-277.348
X68.698 Y-277.461
X68.456 Y-277.562
X68.204 Y-277.651
X67.948 Y-277.726
X67.685 Y-277.787
X67.42 Y-277.833
X67.156 Y-277.863
X66.921 Y-277.877
X66.668
X66.44 Y-277.865
X66.233 Y-277.842
X66.008 Y-277.804
X65.816 Y-277.761
X65.626 Y-277.706
X65.591 Y-277.694
X65.27 Y-277.549
X64.979 Y-277.349
X64.728 Y-277.102
X64.524 Y-276.815
X64.373 Y-276.496
X64.281 Y-276.156
X64.25 Y-275.805
Y-274.775
G2 X64.304 Y-274.547 I0.6 J-0.021 F250
X64.87 Y-274.196 I0.546 J-0.249 F850
G1 X70.171 Y-274.38
G2 X70.696 Y-274.731 I-0.021 J-0.6
X70.75 Y-274.959 I-0.546 J-0.249 F250
G1 Y-276.007 F850
X70.743 Y-276.156
X70.72 Y-276.305
X70.685 Y-276.451
X70.638 Y-276.593
X70.582 Y-276.732
X70.517 Y-276.868
X70.442 Y-277.005
X70.355 Y-277.142
X70.254 Y-277.284
X70.137 Y-277.431
X70.008 Y-277.575
X69.863 Y-277.72
X69.7 Y-277.864
X69.521 Y-278.006
X69.33 Y-278.142
X69.125 Y-278.27
X68.903 Y-278.392
X68.67 Y-278.503
X68.425 Y-278.603
X68.173 Y-278.691
X67.916 Y-278.764
X67.652 Y-278.823
X67.388 Y-278.867
X67.123 Y-278.895
X66.889 Y-278.907
X66.639 Y-278.906
X66.412 Y-278.892
X66.207 Y-278.868
X65.982 Y-278.829
X65.792 Y-278.784
X65.602 Y-278.728
X65.578 Y-278.72
X65.259 Y-278.573
X64.971 Y-278.374
X64.723 Y-278.127
X64.521 Y-277.841
X64.372 Y-277.523
X64.281 Y-277.185
X64.25 Y-276.836
Y-275.805
G2 X64.304 Y-275.578 I0.6 J-0.021 F250
X64.872 Y-275.227 I0.546 J-0.249 F850
G1 X70.173 Y-275.428
G2 X70.696 Y-275.779 I-0.023 J-0.6
X70.75 Y-276.007 I-0.546 J-0.249 F250
G1 Y-277.013 F850
X70.743 Y-277.163
X70.722 Y-277.312
X70.689 Y-277.458
X70.645 Y-277.601
X70.59 Y-277.741
X70.527 Y-277.877
X70.455 Y-278.01
X70.37 Y-278.147
X70.27 Y-278.291
X70.158 Y-278.435
X70.031 Y-278.578
X69.887 Y-278.725
X69.727 Y-278.871
X69.554 Y-279.011
X69.366 Y-279.146
X69.161 Y-279.277
X68.94 Y-279.402
X68.708 Y-279.515
X68.465 Y-279.618
X68.215 Y-279.707
X67.958 Y-279.783
X67.697 Y-279.844
X67.432 Y-279.891
X67.167 Y-279.922
X66.925 Y-279.937
X66.686 Y-279.938
X66.447 Y-279.926
X66.244 Y-279.904
X66.02 Y-279.867
X65.821 Y-279.822
X65.638 Y-279.77
X65.596 Y-279.756
X65.274 Y-279.611
X64.982 Y-279.413
X64.73 Y-279.165
X64.525 Y-278.878
X64.374 Y-278.558
X64.281 Y-278.217
X64.25 Y-277.866
Y-276.836
G2 X64.304 Y-276.608 I0.6 J-0.021 F250
X64.87 Y-276.257 I0.546 J-0.249 F850
G1 X70.17 Y-276.435
G2 X70.696 Y-276.786 I-0.02 J-0.6
X70.75 Y-277.013 I-0.546 J-0.249 F250
G1 Y-278.02 F850
X70.743 Y-278.17
X70.725 Y-278.319
X70.694 Y-278.466
X70.651 Y-278.609
X70.598 Y-278.75
X70.535 Y-278.886
X70.465 Y-279.019
X70.383 Y-279.155
X70.285 Y-279.299
X70.174 Y-279.443
X70.05 Y-279.586
X69.908 Y-279.733
X69.75 Y-279.879
X69.579 Y-280.02
X69.394 Y-280.156
X69.191 Y-280.288
X68.973 Y-280.413
X68.742 Y-280.529
X68.502 Y-280.633
X68.252 Y-280.725
X67.996 Y-280.802
X67.736 Y-280.866
X67.472 Y-280.915
X67.207 Y-280.948
X66.963 Y-280.965
X66.724 Y-280.969
X66.482 Y-280.958
X66.277 Y-280.938
X66.052 Y-280.903
X65.851 Y-280.86
X65.668 Y-280.809
X65.613 Y-280.791
X65.287 Y-280.648
X64.992 Y-280.45
X64.736 Y-280.202
X64.529 Y-279.913
X64.376 Y-279.592
X64.282 Y-279.249
X64.25 Y-278.895
Y-277.866
G2 X64.304 Y-277.638 I0.6 J-0.021 F250
X64.867 Y-277.287 I0.546 J-0.249 F850
G1 X70.168 Y-277.441
G2 X70.696 Y-277.792 I-0.017 J-0.6
X70.75 Y-278.02 I-0.546 J-0.249 F250
G1 Y-279.088 F850
X70.743 Y-279.238
X70.721 Y-279.386
X70.686 Y-279.532
X70.64 Y-279.675
X70.584 Y-279.814
X70.52 Y-279.949
X70.444 Y-280.087
X70.357 Y-280.226
X70.258 Y-280.367
X70.141 Y-280.513
X70.01 Y-280.66
X69.867 Y-280.803
X69.707 Y-280.947
X69.528 Y-281.089
X69.335 Y-281.227
X69.129 Y-281.356
X68.91 Y-281.477
X68.678 Y-281.589
X68.435 Y-281.689
X68.183 Y-281.777
X67.926 Y-281.851
X67.663 Y-281.91
X67.398 Y-281.955
X67.134 Y-281.984
X66.901 Y-281.997
X66.647 Y-281.996
X66.423 Y-281.983
X66.215 Y-281.959
X65.99 Y-281.92
X65.802 Y-281.876
X65.609 Y-281.82
X65.582 Y-281.81
X65.263 Y-281.665
X64.974 Y-281.465
X64.724 Y-281.218
X64.522 Y-280.932
X64.372 Y-280.614
X64.281 Y-280.275
X64.25 Y-279.925
Y-278.895
G2 X64.304 Y-278.667 I0.6 J-0.021 F250
X64.871 Y-278.316 I0.546 J-0.249 F850
G1 X70.172 Y-278.509
G2 X70.696 Y-278.86 I-0.022 J-0.6
X70.75 Y-279.088 I-0.546 J-0.249 F250
G1 Y-280.094 F850
X70.743 Y-280.244
X70.723 Y-280.393
X70.691 Y-280.539
X70.647 Y-280.683
X70.593 Y-280.823
X70.529 Y-280.959
X70.458 Y-281.091
X70.374 Y-281.229
X70.275 Y-281.373
X70.163 Y-281.516
X70.038 Y-281.66
X69.894 Y-281.807
X69.735 Y-281.952
X69.563 Y-282.092
X69.376 Y-282.228
X69.172 Y-282.36
X68.951 Y-282.484
X68.72 Y-282.599
X68.479 Y-282.702
X68.228 Y-282.792
X67.972 Y-282.868
X67.711 Y-282.93
X67.447 Y-282.978
X67.182 Y-283.01
X66.938 Y-283.026
X66.7 Y-283.028
X66.459 Y-283.016
X66.256 Y-282.995
X66.032 Y-282.958
X65.832 Y-282.914
X65.649 Y-282.863
X65.602 Y-282.847
X65.279 Y-282.703
X64.986 Y-282.504
X64.732 Y-282.257
X64.526 Y-281.969
X64.374 Y-281.649
X64.281 Y-281.307
X64.25 Y-280.955
Y-279.925
G2 X64.304 Y-279.697 I0.6 J-0.021 F250
X64.869 Y-279.346 I0.546 J-0.249 F850
G1 X70.17 Y-279.516
G2 X70.696 Y-279.867 I-0.019 J-0.6
X70.75 Y-280.094 I-0.546 J-0.249 F250
G1 Y-281.151 F850
X70.743 Y-281.301
X70.72 Y-281.449
X70.685 Y-281.595
X70.639 Y-281.738
X70.583 Y-281.877
X70.519 Y-282.012
X70.443 Y-282.15
X70.356 Y-282.288
X70.256 Y-282.43
X70.138 Y-282.577
X70.008 Y-282.722
X69.864 Y-282.866
X69.703 Y-283.01
X69.523 Y-283.153
X69.331 Y-283.289
X69.126 Y-283.417
X68.905 Y-283.539
X68.672 Y-283.65
X68.429 Y-283.751
X68.176 Y-283.838
X67.919 Y-283.912
X67.656 Y-283.971
X67.391 Y-284.015
X67.127 Y-284.044
X66.894 Y-284.056
X66.641 Y-284.055
X66.416 Y-284.042
X66.21 Y-284.018
X65.985 Y-283.979
X65.796 Y-283.934
X65.604 Y-283.878
X65.58 Y-283.869
X65.261 Y-283.723
X64.972 Y-283.524
X64.723 Y-283.277
X64.521 Y-282.99
X64.372 Y-282.673
X64.281 Y-282.334
X64.25 Y-281.985
Y-280.955
G2 X64.304 Y-280.727 I0.6 J-0.021 F250
X64.872 Y-280.376 I0.546 J-0.249 F850
G1 X70.173 Y-280.572
G2 X70.696 Y-280.923 I-0.022 J-0.6
X70.75 Y-281.151 I-0.546 J-0.249 F250
G1 Y-282.158 F850
X70.743 Y-282.307
X70.723 Y-282.456
X70.69 Y-282.603
X70.646 Y-282.746
X70.591 Y-282.886
X70.528 Y-283.022
X70.457 Y-283.154
X70.372 Y-283.292
X70.272 Y-283.436
X70.161 Y-283.579
X70.035 Y-283.723
X69.891 Y-283.87
X69.731 Y-284.016
X69.559 Y-284.155
X69.371 Y-284.291
X69.166 Y-284.423
X68.945 Y-284.547
X68.714 Y-284.661
X68.472 Y-284.764
X68.221 Y-284.854
X67.965 Y-284.93
X67.704 Y-284.991
X67.439 Y-285.038
X67.175 Y-285.07
X66.932 Y-285.086
X66.693 Y-285.087
X66.453 Y-285.075
X66.25 Y-285.054
X66.026 Y-285.017
X65.827 Y-284.973
X65.644 Y-284.921
X65.6 Y-284.906
X65.277 Y-284.762
X64.984 Y-284.563
X64.731 Y-284.316
X64.526 Y-284.028
X64.374 Y-283.708
X64.281 Y-283.367
X64.25 Y-283.015
Y-281.985
G2 X64.304 Y-281.757 I0.6 J-0.021 F250
X64.869 Y-281.406 I0.546 J-0.249 F850
G1 X70.17 Y-281.579
G2 X70.696 Y-281.93 I-0.02 J-0.6
X70.75 Y-282.158 I-0.546 J-0.249 F250
G1 Y-283.164 F850
X70.743 Y-283.314
X70.725 Y-283.463
X70.694 Y-283.61
X70.652 Y-283.754
X70.599 Y-283.894
X70.537 Y-284.031
X70.467 Y-284.164
X70.385 Y-284.3
X70.287 Y-284.444
X70.177 Y-284.588
X70.053 Y-284.731
X69.912 Y-284.877
X69.754 Y-285.024
X69.584 Y-285.165
X69.399 Y-285.301
X69.197 Y-285.433
X68.979 Y-285.559
X68.749 Y-285.675
X68.508 Y-285.779
X68.259 Y-285.871
X68.004 Y-285.949
X67.743 Y-286.013
X67.479 Y-286.062
X67.214 Y-286.096
X66.97 Y-286.114
X66.731 Y-286.118
X66.488 Y-286.108
X66.284 Y-286.088
X66.059 Y-286.053
X65.857 Y-286.01
X65.674 Y-285.96
X65.616 Y-285.941
X65.29 Y-285.798
X64.994 Y-285.6
X64.738 Y-285.352
X64.529 Y-285.063
X64.376 Y-284.742
X64.282 Y-284.398
X64.25 Y-284.044
Y-283.015
G2 X64.304 Y-282.787 I0.6 J-0.021 F250
X64.867 Y-282.436 I0.546 J-0.249 F850
G1 X70.167 Y-282.586
G2 X70.696 Y-282.937 I-0.017 J-0.6
X70.75 Y-283.164 I-0.546 J-0.249 F250
G1 Y-284.221 F850
X70.743 Y-284.371
X70.722 Y-284.519
X70.689 Y-284.666
X70.644 Y-284.809
X70.589 Y-284.949
X70.526 Y-285.084
X70.452 Y-285.222
X70.367 Y-285.359
X70.268 Y-285.5
X70.153 Y-285.647
X70.025 Y-285.793
X69.883 Y-285.936
X69.724 Y-286.081
X69.547 Y-286.224
X69.356 Y-286.361
X69.153 Y-286.49
X68.934 Y-286.613
X68.703 Y-286.726
X68.462 Y-286.827
X68.21 Y-286.917
X67.953 Y-286.992
X67.691 Y-287.053
X67.426 Y-287.099
X67.162 Y-287.13
X66.927 Y-287.145
X66.674 Y-287.146
X66.446 Y-287.134
X66.239 Y-287.111
X66.013 Y-287.073
X65.822 Y-287.03
X65.631 Y-286.976
X65.594 Y-286.963
X65.272 Y-286.818
X64.981 Y-286.619
X64.729 Y-286.372
X64.524 Y-286.085
X64.374 Y-285.766
X64.281 Y-285.425
X64.25 Y-285.073
Y-284.044
G2 X64.304 Y-283.816 I0.6 J-0.021 F250
X64.87 Y-283.465 I0.546 J-0.249 F850
G1 X70.17 Y-283.642
G2 X70.696 Y-283.993 I-0.02 J-0.6
X70.75 Y-284.221 I-0.546 J-0.249 F250
G1 Y-285.268 F850
X70.743 Y-285.418
X70.72 Y-285.567
X70.685 Y-285.712
X70.639 Y-285.855
X70.584 Y-285.995
X70.519 Y-286.13
X70.444 Y-286.267
X70.358 Y-286.404
X70.257 Y-286.547
X70.14 Y-286.694
X70.012 Y-286.838
X69.867 Y-286.982
X69.705 Y-287.127
X69.527 Y-287.269
X69.336 Y-287.405
X69.131 Y-287.533
X68.91 Y-287.655
X68.678 Y-287.767
X68.433 Y-287.868
X68.18 Y-287.956
X67.924 Y-288.029
X67.66 Y-288.089
X67.396 Y-288.133
X67.131 Y-288.163
X66.897 Y-288.175
X66.647 Y-288.174
X66.419 Y-288.161
X66.214 Y-288.137
X65.989 Y-288.098
X65.798 Y-288.054
X65.609 Y-287.998
X65.582 Y-287.989
X65.262 Y-287.843
X64.974 Y-287.643
X64.724 Y-287.397
X64.522 Y-287.11
X64.372 Y-286.792
X64.281 Y-286.453
X64.25 Y-286.104
Y-285.073
G2 X64.304 Y-284.846 I0.6 J-0.021 F250
X64.872 Y-284.495 I0.546 J-0.249 F850
G1 X70.172 Y-284.69
G2 X70.696 Y-285.041 I-0.022 J-0.6
X70.75 Y-285.268 I-0.546 J-0.249 F250
G1 Y-286.275 F850
X70.743 Y-286.425
X70.723 Y-286.574
X70.69 Y-286.72
X70.646 Y-286.863
X70.592 Y-287.003
X70.529 Y-287.139
X70.457 Y-287.272
X70.373 Y-287.409
X70.273 Y-287.553
X70.162 Y-287.697
X70.036 Y-287.841
X69.978 Y-287.899
X69.738 Y-288.108
X69.468 Y-288.276
X69.175 Y-288.4
X68.866 Y-288.475
X68.549 Y-288.5
G2 X68.321 Y-288.446 I0.021 J0.6 F250
X68.143 Y-287.479 I0.249 J0.546 F850
G1 X69.723 Y-285.875
G2 X70.696 Y-286.047 I0.427 J-0.421
X70.75 Y-286.275 I-0.546 J-0.249 F250
G1 Y-287.282 F850
X70.743 Y-287.432
X70.672 Y-287.716
X70.535 Y-287.976
X70.34 Y-288.195
X70.098 Y-288.361
X69.824 Y-288.465
X69.533 Y-288.5
G2 X69.305 Y-288.446 I0.021 J0.6 F250
X69.129 Y-287.476 I0.249 J0.546 F850
G1 X69.726 Y-286.879
G2 X70.696 Y-287.054 I0.425 J-0.424
X70.75 Y-287.282 I-0.546 J-0.249 F250
G1 Y-287.886 F850
X70.741 Y-287.985
X70.73 Y-288.036
X70.714 Y-288.087
X70.694 Y-288.138
X70.667 Y-288.188
X70.595 Y-288.289
X70.54 Y-288.345
X70.49 Y-288.386
X70.44 Y-288.419
X70.389 Y-288.445
X70.339 Y-288.465
X70.248 Y-288.49
X70.193 Y-288.497
X70.138 Y-288.5
X65.714
X65.536 Y-288.491
X65.242 Y-288.428
X64.968 Y-288.306
X64.725 Y-288.129
X64.524 Y-287.905
X64.374 Y-287.645
X64.281 Y-287.359
X64.25 Y-287.06
G2 X64.304 Y-286.832 I0.6 J-0.021 F250
X65.268 Y-286.651 I0.546 J-0.249 F850
G1 X66.111 Y-287.47
G2 X65.942 Y-288.446 I-0.418 J-0.43
X65.714 Y-288.5 I-0.249 J0.546 F250
G1 X64.95 F850
X64.909
X64.867
X64.787 Y-288.493
X64.755 Y-288.49
G2 X64.556 Y-288.37 I0.106 J0.4 F250
X64.449 Y-288.054 I0.305 J0.28 F850
X65.266 Y-288.125 I0.409 J-0.035
X65.088 Y-288.428 I-0.409 J0.035
X64.867 Y-288.5 I-0.231 J0.339 F250
G1 X64.832 Y-288.499 F850
X64.755 Y-288.49
X64.708 Y-288.479
X64.658 Y-288.463
X64.608 Y-288.442
X64.557 Y-288.415
X64.507 Y-288.382
X64.457 Y-288.34
X64.407 Y-288.289
X64.348 Y-288.213
X64.306 Y-288.137
X64.286 Y-288.087
X64.259 Y-287.987
X64.25 Y-287.886
Y-286.104
X64.262 Y-286.05 Z-7.483 F250
X64.273 Y-285.999 Z-7.464
X64.283 Y-285.955 Z-7.433
X64.291 Y-285.918 Z-7.392
X64.297 Y-285.892 Z-7.343
X64.302 Y-285.88 Z-7.3
X64.304 Y-285.876 Z-7.254
G0 Z5
X25.219 Y-33.886
Z-4.39
G1 Z-4.99 F250
G2 X22.647 Y-38.219 Z-5.198 I-2.719 J-1.316 F200
X19.669 Y-34.161 Z-5.406 I-0.147 J3.014
X24.563 Y-33.01 Z-5.614 I2.827 J-1.043
X23.708 Y-37.958 Z-5.823 I-2.064 J-2.191
X19.495 Y-35.238 Z-6.031 I-1.207 J2.753
X23.642 Y-32.428 Z-6.239 I3.003 J0.033
X24.603 Y-37.338 Z-6.447 I-1.143 J-2.773
X19.714 Y-36.302 Z-6.655 I-2.102 J2.134
X22.577 Y-32.214 Z-6.863 I2.783 J1.097
X25.216 Y-36.443 Z-7.071 I-0.079 J-2.987
X20.297 Y-37.216 Z-7.279 I-2.715 J1.24
X21.51 Y-32.393 Z-7.488 I2.201 J2.01
X25.468 Y-35.393 Z-7.696 I0.987 J-2.809
X21.164 Y-37.859 Z-7.904 I-2.968 J0.19
X20.58 Y-32.939 Z-8.112 I1.335 J2.653
X25.33 Y-34.325 Z-8.32 I1.917 J-2.264
X22.2 Y-38.149 Z-8.528 I-2.83 J-0.877
X19.908 Y-33.777 Z-8.736 I0.3 J2.944
X24.823 Y-33.38 Z-8.944 I2.588 J-1.427
X23.267 Y-38.052 Z-9.153 I-2.323 J-1.821
X19.581 Y-34.796 Z-9.361 I-0.766 J2.847
X24.014 Y-32.681 Z-9.569 I2.916 J-0.409
X24.225 Y-37.582 Z-9.777 I-1.515 J-2.521
X19.638 Y-35.86 Z-9.985 I-1.724 J2.378
X23.013 Y-32.317 Z-10.193 I2.86 J0.655
X24.951 Y-36.804 Z-10.401 I-0.515 J-2.884
X20.069 Y-36.831 Z-10.609 I-2.45 J1.601
X21.952 Y-32.334 Z-10.818 I2.429 J1.626
X25.35 Y-35.823 Z-11.026 I0.545 J-2.868
X20.815 Y-37.582 Z-11.234 I-2.849 J0.62
X20.971 Y-32.727 Z-11.442 I1.683 J2.376
X25.372 Y-34.767 Z-11.65 I1.526 J-2.476
X21.777 Y-38.015 Z-11.858 I-2.872 J-0.435
X20.197 Y-33.441 Z-12.066 I0.723 J2.81
X25.019 Y-33.777 Z-12.274 I2.3 J-1.763
X22.825 Y-38.077 Z-12.483 I-2.519 J-1.425
X19.73 Y-34.38 Z-12.691 I-0.325 J2.872
X24.338 Y-32.981 Z-12.899 I2.766 J-0.824
X23.823 Y-37.762 Z-13.107 I-1.838 J-2.221
X19.63 Y-35.42 Z-13.315 I-1.322 J2.558
X23.421 Y-32.481 Z-13.523 I2.868 J0.216
X24.64 Y-37.114 Z-13.731 I-0.922 J-2.72
X19.905 Y-36.424 Z-13.939 I-2.139 J1.911
X22.39 Y-32.342 Z-14.148 I2.592 J1.219
X25.171 Y-36.222 Z-14.356 I0.107 J-2.859
X20.519 Y-37.261 Z-14.564 I-2.67 J1.019
X21.382 Y-32.579 Z-14.772 I1.98 J2.056
X25.347 Y-35.202 Z-14.98 I1.115 J-2.623
X19.647 I-2.85
X25.347 I2.85
