%
(1001)
(leg side facing_ z0 stock top)
(T1  D=22 CR=0 - ZMIN=-6 - flat end mill)
G90 G94
G17
G21
G28 G91 Z0
G90

(Face1)
M9
T1 M6
(22mm Facing Bit)
S5000 M3
G54
M9
G0 X664.272 Y-0.429
Z15
Z5
G1 Z0.2 F850
G18 G3 X662.072 Z-2 I-2.2
G1 X650
X-10
G17 G2 Y19.933 J10.181
G1 X650
G3 Y40.295 J10.181
G1 X-10
G2 Y60.656 J10.181
G1 X650
G3 Y81.018 J10.181
G1 X-10
G2 Y101.38 J10.181
G1 X650
G3 Y121.742 J10.181
G1 X-10
G2 Y142.104 J10.181
G1 X650
G3 Y162.466 J10.181
G1 X-10
G2 Y182.828 J10.181
G1 X650
G3 Y203.189 J10.181
G1 X-10
G2 Y223.551 J10.181
G1 X650
G3 Y243.913 J10.181
G1 X-10
G2 Y264.275 J10.181
G1 X650
G3 Y284.637 J10.181
G1 X-10
G2 Y304.999 J10.181
G1 X650
G3 Y325.361 J10.181
G1 X-10
G2 Y345.722 J10.181
G1 X650
G3 Y366.084 J10.181
G1 X-10
G2 Y386.446 J10.181
G1 X650
G3 Y406.808 J10.181
G1 X-10
G2 Y427.17 J10.181
G1 X650
G3 Y447.532 J10.181
G1 X-10
G2 Y467.894 J10.181
G1 X650
G3 Y488.255 J10.181
G1 X-10
G2 Y508.617 J10.181
G1 X650
G3 Y528.979 J10.181
G1 X-10
G2 Y549.341 J10.181
G1 X650
G18 G2 X652.2 Z0.2 K2.2
G0 Z5
X664.272 Y-0.429
G1 Z-1.8 F850
G3 X662.072 Z-4 I-2.2
G1 X650
X-10
G17 G2 Y19.933 J10.181
G1 X650
G3 Y40.295 J10.181
G1 X-10
G2 Y60.656 J10.181
G1 X650
G3 Y81.018 J10.181
G1 X-10
G2 Y101.38 J10.181
G1 X650
G3 Y121.742 J10.181
G1 X-10
G2 Y142.104 J10.181
G1 X650
G3 Y162.466 J10.181
G1 X-10
G2 Y182.828 J10.181
G1 X650
G3 Y203.189 J10.181
G1 X-10
G2 Y223.551 J10.181
G1 X650
G3 Y243.913 J10.181
G1 X-10
G2 Y264.275 J10.181
G1 X650
G3 Y284.637 J10.181
G1 X-10
G2 Y304.999 J10.181
G1 X650
G3 Y325.361 J10.181
G1 X-10
G2 Y345.722 J10.181
G1 X650
G3 Y366.084 J10.181
G1 X-10
G2 Y386.446 J10.181
G1 X650
G3 Y406.808 J10.181
G1 X-10
G2 Y427.17 J10.181
G1 X650
G3 Y447.532 J10.181
G1 X-10
G2 Y467.894 J10.181
G1 X650
G3 Y488.255 J10.181
G1 X-10
G2 Y508.617 J10.181
G1 X650
G3 Y528.979 J10.181
G1 X-10
G2 Y549.341 J10.181
G1 X650
G18 G2 X652.2 Z-1.8 K2.2
G0 Z5
X664.272 Y-0.429
G1 Z-3.8 F850
G3 X662.072 Z-6 I-2.2
G1 X650
X-10
G17 G2 Y19.933 J10.181
G1 X650
G3 Y40.295 J10.181
G1 X-10
G2 Y60.656 J10.181
G1 X650
G3 Y81.018 J10.181
G1 X-10
G2 Y101.38 J10.181
G1 X650
G3 Y121.742 J10.181
G1 X-10
G2 Y142.104 J10.181
G1 X650
G3 Y162.466 J10.181
G1 X-10
G2 Y182.828 J10.181
G1 X650
G3 Y203.189 J10.181
G1 X-10
G2 Y223.551 J10.181
G1 X650
G3 Y243.913 J10.181
G1 X-10
G2 Y264.275 J10.181
G1 X650
G3 Y284.637 J10.181
G1 X-10
G2 Y304.999 J10.181
G1 X650
G3 Y325.361 J10.181
G1 X-10
G2 Y345.722 J10.181
G1 X650
G3 Y366.084 J10.181
G1 X-10
G2 Y386.446 J10.181
G1 X650
G3 Y406.808 J10.181
G1 X-10
G2 Y427.17 J10.181
G1 X650
G3 Y447.532 J10.181
G1 X-10
G2 Y467.894 J10.181
G1 X650
G3 Y488.255 J10.181
G1 X-10
G2 Y508.617 J10.181
G1 X650
G3 Y528.979 J10.181
G1 X-10
G2 Y549.341 J10.181
G1 X650
G18 G2 X652.2 Z-3.8 K2.2
G0 Z15
G17
M9
G28 G91 Z0
G28 X0 Y0
M30
%
