%
(1001)
(Z0 stock bottom)
(T1  D=12.7 CR=0 - ZMIN=15 - flat end mill)
G90 G94
G17
G21

(2D Contour7 2)
M9
T1 M6
S6000 M3
G54
M9
G0 X665.525 Y139.84
Z65
Z55
G1 Z53.77 F849.6
G19 G3 Y141.11 Z52.5 J1.27
G1 Y142.38
G17 G3 X664.255 Y143.65 I-1.27
G1 X632.206 Z51.381 F400.3
G2 X625.856 Y150 Z51.033 J6.35
G1 Y173.65 Z50.207
X548.348 Z47.5
X511.096 F849.6
X508.556 F212.4
Y150 F849.6
G2 X502.206 Y143.65 I-6.35
G1 X493.89
X491.35 F212.4
Y20 F849.6
G3 X505 Y6.35 I13.65
G1 X520
G3 X533.65 Y20 J13.65
G1 Y60
G2 X560 Y86.35 I26.35
G1 X845
G2 X871.35 Y60 J-26.35
G1 Y20
G3 X885 Y6.35 I13.65
G1 X900
G3 X913.65 Y20 J13.65
G1 Y141.11
Y143.65 F212.4
X900.101 F849.6
G2 X893.751 Y150 J6.35
G1 Y171.11
Y173.65 F212.4
X778.991 F849.6
X776.451 F212.4
Y150 F849.6
G2 X770.101 Y143.65 I-6.35
G1 X632.206
G2 X625.856 Y150 J6.35
G1 Y171.11
Y173.65 F212.4
X548.348 F849.6
X508.556 Z46.11 F400.3
Y150 Z45.285
G2 X504.007 Y143.911 Z45 I-6.35
X502.206 Y143.65 I-1.801 J6.089 F849.6
G1 X493.89
X491.35 F212.4
Y20 F849.6
G3 X505 Y6.35 I13.65
G1 X520
G3 X533.65 Y20 J13.65
G1 Y60
G2 X560 Y86.35 I26.35
G1 X845
G2 X871.35 Y60 J-26.35
G1 Y20
G3 X885 Y6.35 I13.65
G1 X900
G3 X913.65 Y20 J13.65
G1 Y141.11
Y143.65 F212.4
X900.101 F849.6
G2 X893.751 Y150 J6.35
G1 Y171.11
Y173.65 F212.4
X778.991 F849.6
X776.451 F212.4
Y150 F849.6
G2 X770.101 Y143.65 I-6.35
G1 X632.206
G2 X625.856 Y150 J6.35
G1 Y171.11
Y173.65 F212.4
X548.348 F849.6
X511.096
X508.556 F212.4
Y150 F849.6
G2 X504.007 Y143.911 I-6.35
X502.206 Y143.65 Z44.936 I-1.801 J6.089 F400.3
G1 X491.35 Z44.557
Y84.741 Z42.5
Y20 F849.6
G3 X505 Y6.35 I13.65
G1 X520
G3 X533.65 Y20 J13.65
G1 Y60
G2 X560 Y86.35 I26.35
G1 X845
G2 X871.35 Y60 J-26.35
G1 Y20
G3 X885 Y6.35 I13.65
G1 X900
G3 X913.65 Y20 J13.65
G1 Y141.11
Y143.65 F212.4
X900.101 F849.6
G2 X893.751 Y150 J6.35
G1 Y171.11
Y173.65 F212.4
X778.991 F849.6
X776.451 F212.4
Y150 F849.6
G2 X770.101 Y143.65 I-6.35
G1 X632.206
G2 X625.856 Y150 J6.35
G1 Y171.11
Y173.65 F212.4
X511.096 F849.6
X508.556 F212.4
Y150 F849.6
G2 X502.206 Y143.65 I-6.35
G1 X493.89
X491.35 F212.4
Y84.741 F849.6
Y20 Z40.239 F400.3
G3 X493.033 Y13.434 Z40 I13.65
X505 Y6.35 I11.967 J6.566 F849.6
G1 X520
G3 X533.65 Y20 J13.65
G1 Y60
G2 X560 Y86.35 I26.35
G1 X845
G2 X871.35 Y60 J-26.35
G1 Y20
G3 X885 Y6.35 I13.65
G1 X900
G3 X913.65 Y20 J13.65
G1 Y141.11
Y143.65 F212.4
X900.101 F849.6
G2 X893.751 Y150 J6.35
G1 Y171.11
Y173.65 F212.4
X778.991 F849.6
X776.451 F212.4
Y150 F849.6
G2 X770.101 Y143.65 I-6.35
G1 X632.206
G2 X625.856 Y150 J6.35
G1 Y171.11
Y173.65 F212.4
X511.096 F849.6
X508.556 F212.4
Y150 F849.6
G2 X502.206 Y143.65 I-6.35
G1 X493.89
X491.35 F212.4
Y20 F849.6
G3 X493.033 Y13.434 I13.65
X505 Y6.35 Z39.49 I11.967 J6.566 F400.3
G1 X520 Z38.967
G3 X533.65 Y20 Z38.218 J13.65
G1 Y40.557 Z37.5
Y60 F849.6
G2 X560 Y86.35 I26.35
G1 X845
G2 X871.35 Y60 J-26.35
G1 Y20
G3 X885 Y6.35 I13.65
G1 X900
G3 X913.65 Y20 J13.65
G1 Y141.11
Y143.65 F212.4
X900.101 F849.6
G2 X893.751 Y150 J6.35
G1 Y171.11
Y173.65 F212.4
X778.991 F849.6
X776.451 F212.4
Y150 F849.6
G2 X770.101 Y143.65 I-6.35
G1 X632.206
G2 X625.856 Y150 J6.35
G1 Y171.11
Y173.65 F212.4
X511.096 F849.6
X508.556 F212.4
Y150 F849.6
G2 X502.206 Y143.65 I-6.35
G1 X493.89
X491.35 F212.4
Y20 F849.6
G3 X505 Y6.35 I13.65
G1 X520
G3 X533.65 Y20 J13.65
G1 Y40.557
Y60 Z36.821 F400.3
G2 X560 Y86.35 Z35.376 I26.35
G1 X570.758 Z35
X845 F849.6
G2 X871.35 Y60 J-26.35
G1 Y20
G3 X885 Y6.35 I13.65
G1 X900
G3 X913.65 Y20 J13.65
G1 Y141.11
Y143.65 F212.4
X900.101 F849.6
G2 X893.751 Y150 J6.35
G1 Y171.11
Y173.65 F212.4
X778.991 F849.6
X776.451 F212.4
Y150 F849.6
G2 X770.101 Y143.65 I-6.35
G1 X632.206
G2 X625.856 Y150 J6.35
G1 Y171.11
Y173.65 F212.4
X511.096 F849.6
X508.556 F212.4
Y150 F849.6
G2 X502.206 Y143.65 I-6.35
G1 X493.89
X491.35 F212.4
Y20 F849.6
G3 X505 Y6.35 I13.65
G1 X520
G3 X533.65 Y20 J13.65
G1 Y40.557
Y60
G2 X560 Y86.35 I26.35
G1 X570.758
X642.348 Z32.5 F400.3
X845 F849.6
G2 X871.35 Y60 J-26.35
G1 Y20
G3 X885 Y6.35 I13.65
G1 X900
G3 X913.65 Y20 J13.65
G1 Y141.11
Y143.65 F212.4
X900.101 F849.6
G2 X893.751 Y150 J6.35
G1 Y171.11
Y173.65 F212.4
X778.991 F849.6
X776.451 F212.4
Y150 F849.6
G2 X770.101 Y143.65 I-6.35
G1 X632.206
G2 X625.856 Y150 J6.35
G1 Y171.11
Y173.65 F212.4
X511.096 F849.6
X508.556 F212.4
Y150 F849.6
G2 X502.206 Y143.65 I-6.35
G1 X493.89
X491.35 F212.4
Y20 F849.6
G3 X505 Y6.35 I13.65
G1 X520
G3 X533.65 Y20 J13.65
G1 Y60
G2 X560 Y86.35 I26.35
G1 X642.348
X713.939 Z30 F400.3
X845 F849.6
G2 X871.35 Y60 J-26.35
G1 Y20
G3 X885 Y6.35 I13.65
G1 X900
G3 X913.65 Y20 J13.65
G1 Y141.11
Y143.65 F212.4
X900.101 F849.6
G2 X893.751 Y150 J6.35
G1 Y171.11
Y173.65 F212.4
X778.991 F849.6
X776.451 F212.4
Y150 F849.6
G2 X770.101 Y143.65 I-6.35
G1 X632.206
G2 X625.856 Y150 J6.35
G1 Y171.11
Y173.65 F212.4
X511.096 F849.6
X508.556 F212.4
Y150 F849.6
G2 X502.206 Y143.65 I-6.35
G1 X493.89
X491.35 F212.4
Y20 F849.6
G3 X505 Y6.35 I13.65
G1 X520
G3 X533.65 Y20 J13.65
G1 Y60
G2 X560 Y86.35 I26.35
G1 X642.348
X713.939
X785.529 Z27.5 F400.3
X845 F849.6
G2 X871.35 Y60 J-26.35
G1 Y20
G3 X885 Y6.35 I13.65
G1 X900
G3 X913.65 Y20 J13.65
G1 Y141.11
Y143.65 F212.4
X900.101 F849.6
G2 X893.751 Y150 J6.35
G1 Y171.11
Y173.65 F212.4
X778.991 F849.6
X776.451 F212.4
Y150 F849.6
G2 X770.101 Y143.65 I-6.35
G1 X632.206
G2 X625.856 Y150 J6.35
G1 Y171.11
Y173.65 F212.4
X511.096 F849.6
X508.556 F212.4
Y150 F849.6
G2 X502.206 Y143.65 I-6.35
G1 X493.89
X491.35 F212.4
Y20 F849.6
G3 X505 Y6.35 I13.65
G1 X520
G3 X533.65 Y20 J13.65
G1 Y60
G2 X560 Y86.35 I26.35
G1 X713.939
X785.529
X845 Z25.423 F400.3
G2 X856.697 Y83.611 Z25 J-26.35
X871.35 Y60 I-11.697 J-23.611 F849.6
G1 Y20
G3 X885 Y6.35 I13.65
G1 X900
G3 X913.65 Y20 J13.65
G1 Y141.11
Y143.65 F212.4
X900.101 F849.6
G2 X893.751 Y150 J6.35
G1 Y171.11
Y173.65 F212.4
X778.991 F849.6
X776.451 F212.4
Y150 F849.6
G2 X770.101 Y143.65 I-6.35
G1 X632.206
G2 X625.856 Y150 J6.35
G1 Y171.11
Y173.65 F212.4
X511.096 F849.6
X508.556 F212.4
Y150 F849.6
G2 X502.206 Y143.65 I-6.35
G1 X493.89
X491.35 F212.4
Y20 F849.6
G3 X505 Y6.35 I13.65
G1 X520
G3 X533.65 Y20 J13.65
G1 Y60
G2 X560 Y86.35 I26.35
G1 X785.529
X845
G2 X856.697 Y83.611 J-26.35
X871.35 Y60 Z23.978 I-11.697 J-23.611 F400.3
G1 Y20 Z22.581
G3 X871.547 Y17.691 Z22.5 I13.65
X885 Y6.35 I13.453 J2.309 F849.6
G1 X900
G3 X913.65 Y20 J13.65
G1 Y141.11
Y143.65 F212.4
X900.101 F849.6
G2 X893.751 Y150 J6.35
G1 Y171.11
Y173.65 F212.4
X778.991 F849.6
X776.451 F212.4
Y150 F849.6
G2 X770.101 Y143.65 I-6.35
G1 X632.206
G2 X625.856 Y150 J6.35
G1 Y171.11
Y173.65 F212.4
X511.096 F849.6
X508.556 F212.4
Y150 F849.6
G2 X502.206 Y143.65 I-6.35
G1 X493.89
X491.35 F212.4
Y20 F849.6
G3 X505 Y6.35 I13.65
G1 X520
G3 X533.65 Y20 J13.65
G1 Y60
G2 X560 Y86.35 I26.35
G1 X845
G2 X871.35 Y60 J-26.35
G1 Y20
G3 X871.547 Y17.691 I13.65
X885 Y6.35 Z21.832 I13.453 J2.309 F400.3
G1 X900 Z21.308
G3 X913.65 Y20 Z20.56 J13.65
G1 Y36.028 Z20
Y141.11 F849.6
Y143.65 F212.4
X900.101 F849.6
G2 X893.751 Y150 J6.35
G1 Y171.11
Y173.65 F212.4
X778.991 F849.6
X776.451 F212.4
Y150 F849.6
G2 X770.101 Y143.65 I-6.35
G1 X632.206
G2 X625.856 Y150 J6.35
G1 Y171.11
Y173.65 F212.4
X511.096 F849.6
X508.556 F212.4
Y150 F849.6
G2 X502.206 Y143.65 I-6.35
G1 X493.89
X491.35 F212.4
Y20 F849.6
G3 X505 Y6.35 I13.65
G1 X520
G3 X533.65 Y20 J13.65
G1 Y60
G2 X560 Y86.35 I26.35
G1 X845
G2 X871.35 Y60 J-26.35
G1 Y20
G3 X885 Y6.35 I13.65
G1 X900
G3 X913.65 Y20 J13.65
G1 Y36.028
Y107.619 Z17.5 F400.3
Y141.11 F849.6
Y143.65 F212.4
X900.101 F849.6
G2 X893.751 Y150 J6.35
G1 Y171.11
Y173.65 F212.4
X778.991 F849.6
X776.451 F212.4
Y150 F849.6
G2 X770.101 Y143.65 I-6.35
G1 X632.206
G2 X625.856 Y150 J6.35
G1 Y171.11
Y173.65 F212.4
X511.096 F849.6
X508.556 F212.4
Y150 F849.6
G2 X502.206 Y143.65 I-6.35
G1 X493.89
X491.35 F212.4
Y20 F849.6
G3 X505 Y6.35 I13.65
G1 X520
G3 X533.65 Y20 J13.65
G1 Y60
G2 X560 Y86.35 I26.35
G1 X845
G2 X871.35 Y60 J-26.35
G1 Y20
G3 X885 Y6.35 I13.65
G1 X900
G3 X913.65 Y20 J13.65
G1 Y107.619
Y143.65 Z16.242 F400.3
X900.101 Z15.769
G2 X893.751 Y150 Z15.42 J6.35
G1 Y162.036 Z15
Y171.11 F849.6
Y173.65 F212.4
X778.991 F849.6
X776.451 F212.4
Y150 F849.6
G2 X770.101 Y143.65 I-6.35
G1 X632.206
G2 X625.856 Y150 J6.35
G1 Y171.11
Y173.65 F212.4
X511.096 F849.6
X508.556 F212.4
Y150 F849.6
G2 X502.206 Y143.65 I-6.35
G1 X493.89
X491.35 F212.4
Y20 F849.6
G3 X505 Y6.35 I13.65
G1 X520
G3 X533.65 Y20 J13.65
G1 Y60
G2 X560 Y86.35 I26.35
G1 X845
G2 X871.35 Y60 J-26.35
G1 Y20
G3 X885 Y6.35 I13.65
G1 X900
G3 X913.65 Y20 J13.65
G1 Y107.619
Y141.11
Y143.65 F212.4
X900.101 F849.6
G2 X893.751 Y150 J6.35
G1 Y162.036
G3 X892.481 Y163.306 I-1.27
G1 X891.211
G18 G3 X889.941 Z16.27 K1.27
G0 Z55
X1100.86 Y172.85
G1 Z53.769 F849.6
G19 G3 Y173.65 Z52.589 J1.27 F400.3
G18 G3 X1100.434 Z52.5 I-0.47 K1.18
G1 X983.556 Z48.419
Y150 Z47.593
G17 G2 X983.01 Y147.423 Z47.5 I-6.35
X977.206 Y143.65 I-5.804 J2.577 F849.6
G1 X968.89
X966.35 F212.4
Y20 F849.6
G3 X980 Y6.35 I13.65
G1 X995
G3 X1008.65 Y20 J13.65
G1 Y60
G2 X1035 Y86.35 I26.35
G1 X1320
G2 X1346.35 Y60 J-26.35
G1 Y20
G3 X1360 Y6.35 I13.65
G1 X1375
G3 X1388.65 Y20 J13.65
G1 Y141.11
Y143.65 F212.4
X1375.1 F849.6
G2 X1368.75 Y150 J6.35
G1 Y171.11
Y173.65 F212.4
X1253.99 F849.6
X1251.45 F212.4
Y150 F849.6
G2 X1245.1 Y143.65 I-6.35
G1 X1107.21
G2 X1100.86 Y150 J6.35
G1 Y171.11
Y173.65 F212.4
X986.096 F849.6
X983.556 F212.4
Y150 F849.6
G2 X983.01 Y147.423 I-6.35
X977.206 Y143.65 Z47.244 I-5.804 J2.577 F400.3
G1 X966.35 Z46.865
Y90.237 Z45
Y20 F849.6
G3 X980 Y6.35 I13.65
G1 X995
G3 X1008.65 Y20 J13.65
G1 Y60
G2 X1035 Y86.35 I26.35
G1 X1320
G2 X1346.35 Y60 J-26.35
G1 Y20
G3 X1360 Y6.35 I13.65
G1 X1375
G3 X1388.65 Y20 J13.65
G1 Y141.11
Y143.65 F212.4
X1375.1 F849.6
G2 X1368.75 Y150 J6.35
G1 Y171.11
Y173.65 F212.4
X1253.99 F849.6
X1251.45 F212.4
Y150 F849.6
G2 X1245.1 Y143.65 I-6.35
G1 X1107.21
G2 X1100.86 Y150 J6.35
G1 Y171.11
Y173.65 F212.4
X986.096 F849.6
X983.556 F212.4
Y150 F849.6
G2 X977.206 Y143.65 I-6.35
G1 X968.89
X966.35 F212.4
Y90.237 F849.6
Y20 Z42.547 F400.3
G3 X966.417 Y18.648 Z42.5 I13.65
X980 Y6.35 I13.583 J1.352 F849.6
G1 X995
G3 X1008.65 Y20 J13.65
G1 Y60
G2 X1035 Y86.35 I26.35
G1 X1320
G2 X1346.35 Y60 J-26.35
G1 Y20
G3 X1360 Y6.35 I13.65
G1 X1375
G3 X1388.65 Y20 J13.65
G1 Y141.11
Y143.65 F212.4
X1375.1 F849.6
G2 X1368.75 Y150 J6.35
G1 Y171.11
Y173.65 F212.4
X1253.99 F849.6
X1251.45 F212.4
Y150 F849.6
G2 X1245.1 Y143.65 I-6.35
G1 X1107.21
G2 X1100.86 Y150 J6.35
G1 Y171.11
Y173.65 F212.4
X986.096 F849.6
X983.556 F212.4
Y150 F849.6
G2 X977.206 Y143.65 I-6.35
G1 X968.89
X966.35 F212.4
Y20 F849.6
G3 X966.417 Y18.648 I13.65
X980 Y6.35 Z41.799 I13.583 J1.352 F400.3
G1 X995 Z41.275
G3 X1008.65 Y20 Z40.526 J13.65
G1 Y35.062 Z40
Y60 F849.6
G2 X1035 Y86.35 I26.35
G1 X1320
G2 X1346.35 Y60 J-26.35
G1 Y20
G3 X1360 Y6.35 I13.65
G1 X1375
G3 X1388.65 Y20 J13.65
G1 Y141.11
Y143.65 F212.4
X1375.1 F849.6
G2 X1368.75 Y150 J6.35
G1 Y171.11
Y173.65 F212.4
X1253.99 F849.6
X1251.45 F212.4
Y150 F849.6
G2 X1245.1 Y143.65 I-6.35
G1 X1107.21
G2 X1100.86 Y150 J6.35
G1 Y171.11
Y173.65 F212.4
X986.096 F849.6
X983.556 F212.4
Y150 F849.6
G2 X977.206 Y143.65 I-6.35
G1 X968.89
X966.35 F212.4
Y20 F849.6
G3 X980 Y6.35 I13.65
G1 X995
G3 X1008.65 Y20 J13.65
G1 Y35.062
Y60 Z39.129 F400.3
G2 X1035 Y86.35 Z37.684 I26.35
G1 X1040.262 Z37.5
X1320 F849.6
G2 X1346.35 Y60 J-26.35
G1 Y20
G3 X1360 Y6.35 I13.65
G1 X1375
G3 X1388.65 Y20 J13.65
G1 Y141.11
Y143.65 F212.4
X1375.1 F849.6
G2 X1368.75 Y150 J6.35
G1 Y171.11
Y173.65 F212.4
X1253.99 F849.6
X1251.45 F212.4
Y150 F849.6
G2 X1245.1 Y143.65 I-6.35
G1 X1107.21
G2 X1100.86 Y150 J6.35
G1 Y171.11
Y173.65 F212.4
X986.096 F849.6
X983.556 F212.4
Y150 F849.6
G2 X977.206 Y143.65 I-6.35
G1 X968.89
X966.35 F212.4
Y20 F849.6
G3 X980 Y6.35 I13.65
G1 X995
G3 X1008.65 Y20 J13.65
G1 Y60
G2 X1035 Y86.35 I26.35
G1 X1040.262
X1111.852 Z35 F400.3
X1320 F849.6
G2 X1346.35 Y60 J-26.35
G1 Y20
G3 X1360 Y6.35 I13.65
G1 X1375
G3 X1388.65 Y20 J13.65
G1 Y141.11
Y143.65 F212.4
X1375.1 F849.6
G2 X1368.75 Y150 J6.35
G1 Y171.11
Y173.65 F212.4
X1253.99 F849.6
X1251.45 F212.4
Y150 F849.6
G2 X1245.1 Y143.65 I-6.35
G1 X1107.21
G2 X1100.86 Y150 J6.35
G1 Y171.11
Y173.65 F212.4
X986.096 F849.6
X983.556 F212.4
Y150 F849.6
G2 X977.206 Y143.65 I-6.35
G1 X968.89
X966.35 F212.4
Y20 F849.6
G3 X980 Y6.35 I13.65
G1 X995
G3 X1008.65 Y20 J13.65
G1 Y60
G2 X1035 Y86.35 I26.35
G1 X1111.852
X1183.443 Z32.5 F400.3
X1320 F849.6
G2 X1346.35 Y60 J-26.35
G1 Y20
G3 X1360 Y6.35 I13.65
G1 X1375
G3 X1388.65 Y20 J13.65
G1 Y141.11
Y143.65 F212.4
X1375.1 F849.6
G2 X1368.75 Y150 J6.35
G1 Y171.11
Y173.65 F212.4
X1253.99 F849.6
X1251.45 F212.4
Y150 F849.6
G2 X1245.1 Y143.65 I-6.35
G1 X1107.21
G2 X1100.86 Y150 J6.35
G1 Y171.11
Y173.65 F212.4
X986.096 F849.6
X983.556 F212.4
Y150 F849.6
G2 X977.206 Y143.65 I-6.35
G1 X968.89
X966.35 F212.4
Y20 F849.6
G3 X980 Y6.35 I13.65
G1 X995
G3 X1008.65 Y20 J13.65
G1 Y60
G2 X1035 Y86.35 I26.35
G1 X1111.852
X1183.443
X1255.034 Z30 F400.3
X1320 F849.6
G2 X1346.35 Y60 J-26.35
G1 Y20
G3 X1360 Y6.35 I13.65
G1 X1375
G3 X1388.65 Y20 J13.65
G1 Y141.11
Y143.65 F212.4
X1375.1 F849.6
G2 X1368.75 Y150 J6.35
G1 Y171.11
Y173.65 F212.4
X1253.99 F849.6
X1251.45 F212.4
Y150 F849.6
G2 X1245.1 Y143.65 I-6.35
G1 X1107.21
G2 X1100.86 Y150 J6.35
G1 Y171.11
Y173.65 F212.4
X986.096 F849.6
X983.556 F212.4
Y150 F849.6
G2 X977.206 Y143.65 I-6.35
G1 X968.89
X966.35 F212.4
Y20 F849.6
G3 X980 Y6.35 I13.65
G1 X995
G3 X1008.65 Y20 J13.65
G1 Y60
G2 X1035 Y86.35 I26.35
G1 X1183.443
X1255.034
X1320 Z27.731 F400.3
G2 X1326.555 Y85.522 Z27.5 J-26.35
X1346.35 Y60 I-6.555 J-25.522 F849.6
G1 Y20
G3 X1360 Y6.35 I13.65
G1 X1375
G3 X1388.65 Y20 J13.65
G1 Y141.11
Y143.65 F212.4
X1375.1 F849.6
G2 X1368.75 Y150 J6.35
G1 Y171.11
Y173.65 F212.4
X1253.99 F849.6
X1251.45 F212.4
Y150 F849.6
G2 X1245.1 Y143.65 I-6.35
G1 X1107.21
G2 X1100.86 Y150 J6.35
G1 Y171.11
Y173.65 F212.4
X986.096 F849.6
X983.556 F212.4
Y150 F849.6
G2 X977.206 Y143.65 I-6.35
G1 X968.89
X966.35 F212.4
Y20 F849.6
G3 X980 Y6.35 I13.65
G1 X995
G3 X1008.65 Y20 J13.65
G1 Y60
G2 X1035 Y86.35 I26.35
G1 X1255.034
X1320
G2 X1326.555 Y85.522 J-26.35
X1346.35 Y60 Z26.286 I-6.555 J-25.522 F400.3
G1 Y23.175 Z25
Y20 F849.6
G3 X1360 Y6.35 I13.65
G1 X1375
G3 X1388.65 Y20 J13.65
G1 Y141.11
Y143.65 F212.4
X1375.1 F849.6
G2 X1368.75 Y150 J6.35
G1 Y171.11
Y173.65 F212.4
X1253.99 F849.6
X1251.45 F212.4
Y150 F849.6
G2 X1245.1 Y143.65 I-6.35
G1 X1107.21
G2 X1100.86 Y150 J6.35
G1 Y171.11
Y173.65 F212.4
X986.096 F849.6
X983.556 F212.4
Y150 F849.6
G2 X977.206 Y143.65 I-6.35
G1 X968.89
X966.35 F212.4
Y20 F849.6
G3 X980 Y6.35 I13.65
G1 X995
G3 X1008.65 Y20 J13.65
G1 Y60
G2 X1035 Y86.35 I26.35
G1 X1320
G2 X1346.35 Y60 J-26.35
G1 Y23.175
Y20 Z24.889 F400.3
G3 X1360 Y6.35 Z24.14 I13.65
G1 X1375 Z23.617
G3 X1388.65 Y20 Z22.868 J13.65
G1 Y30.532 Z22.5
Y141.11 F849.6
Y143.65 F212.4
X1375.1 F849.6
G2 X1368.75 Y150 J6.35
G1 Y171.11
Y173.65 F212.4
X1253.99 F849.6
X1251.45 F212.4
Y150 F849.6
G2 X1245.1 Y143.65 I-6.35
G1 X1107.21
G2 X1100.86 Y150 J6.35
G1 Y171.11
Y173.65 F212.4
X986.096 F849.6
X983.556 F212.4
Y150 F849.6
G2 X977.206 Y143.65 I-6.35
G1 X968.89
X966.35 F212.4
Y20 F849.6
G3 X980 Y6.35 I13.65
G1 X995
G3 X1008.65 Y20 J13.65
G1 Y60
G2 X1035 Y86.35 I26.35
G1 X1320
G2 X1346.35 Y60 J-26.35
G1 Y23.175
Y20
G3 X1360 Y6.35 I13.65
G1 X1375
G3 X1388.65 Y20 J13.65
G1 Y30.532
Y102.123 Z20 F400.3
Y141.11 F849.6
Y143.65 F212.4
X1375.1 F849.6
G2 X1368.75 Y150 J6.35
G1 Y171.11
Y173.65 F212.4
X1253.99 F849.6
X1251.45 F212.4
Y150 F849.6
G2 X1245.1 Y143.65 I-6.35
G1 X1107.21
G2 X1100.86 Y150 J6.35
G1 Y171.11
Y173.65 F212.4
X986.096 F849.6
X983.556 F212.4
Y150 F849.6
G2 X977.206 Y143.65 I-6.35
G1 X968.89
X966.35 F212.4
Y20 F849.6
G3 X980 Y6.35 I13.65
G1 X995
G3 X1008.65 Y20 J13.65
G1 Y60
G2 X1035 Y86.35 I26.35
G1 X1320
G2 X1346.35 Y60 J-26.35
G1 Y20
G3 X1360 Y6.35 I13.65
G1 X1375
G3 X1388.65 Y20 J13.65
G1 Y102.123
Y143.65 Z18.55 F400.3
X1375.1 Z18.077
G2 X1368.75 Y150 Z17.728 J6.35
G1 Y156.539 Z17.5
Y171.11 F849.6
Y173.65 F212.4
X1253.99 F849.6
X1251.45 F212.4
Y150 F849.6
G2 X1245.1 Y143.65 I-6.35
G1 X1107.21
G2 X1100.86 Y150 J6.35
G1 Y171.11
Y173.65 F212.4
X986.096 F849.6
X983.556 F212.4
Y150 F849.6
G2 X977.206 Y143.65 I-6.35
G1 X968.89
X966.35 F212.4
Y20 F849.6
G3 X980 Y6.35 I13.65
G1 X995
G3 X1008.65 Y20 J13.65
G1 Y60
G2 X1035 Y86.35 I26.35
G1 X1320
G2 X1346.35 Y60 J-26.35
G1 Y20
G3 X1360 Y6.35 I13.65
G1 X1375
G3 X1388.65 Y20 J13.65
G1 Y102.123
Y141.11
Y143.65 F212.4
X1375.1 F849.6
G2 X1368.75 Y150 J6.35
G1 Y156.539
Y173.65 Z16.902 F400.3
X1314.27 Z15
X1253.99 F849.6
X1251.45 F212.4
Y150 F849.6
G2 X1245.1 Y143.65 I-6.35
G1 X1107.21
G2 X1100.86 Y150 J6.35
G1 Y171.11
Y173.65 F212.4
X986.096 F849.6
X983.556 F212.4
Y150 F849.6
G2 X977.206 Y143.65 I-6.35
G1 X968.89
X966.35 F212.4
Y20 F849.6
G3 X980 Y6.35 I13.65
G1 X995
G3 X1008.65 Y20 J13.65
G1 Y60
G2 X1035 Y86.35 I26.35
G1 X1320
G2 X1346.35 Y60 J-26.35
G1 Y20
G3 X1360 Y6.35 I13.65
G1 X1375
G3 X1388.65 Y20 J13.65
G1 Y141.11
Y143.65 F212.4
X1375.1 F849.6
G2 X1368.75 Y150 J6.35
G1 Y171.11
Y173.65 F212.4
X1314.27 F849.6
G3 X1313 Y172.38 J-1.27
G1 Y171.11
G19 G2 Y169.84 Z16.27 K1.27
G0 Z55
X190.525 Y139.84
G1 Z53.77 F849.6
G3 Y141.11 Z52.5 J1.27
G1 Y142.38
G17 G3 X189.255 Y143.65 I-1.27
G1 X157.206 Z51.381 F400.3
G2 X150.856 Y150 Z51.033 J6.35
G1 Y173.65 Z50.207
X73.348 Z47.5
X36.096 F849.6
X33.556 F212.4
Y150 F849.6
G2 X27.206 Y143.65 I-6.35
G1 X18.89
X16.35 F212.4
Y20 F849.6
G3 X30 Y6.35 I13.65
G1 X45
G3 X58.65 Y20 J13.65
G1 Y60
G2 X85 Y86.35 I26.35
G1 X370
G2 X396.35 Y60 J-26.35
G1 Y20
G3 X410 Y6.35 I13.65
G1 X425
G3 X438.65 Y20 J13.65
G1 Y141.11
Y143.65 F212.4
X425.101 F849.6
G2 X418.751 Y150 J6.35
G1 Y171.11
Y173.65 F212.4
X303.991 F849.6
X301.451 F212.4
Y150 F849.6
G2 X295.101 Y143.65 I-6.35
G1 X157.206
G2 X150.856 Y150 J6.35
G1 Y171.11
Y173.65 F212.4
X73.348 F849.6
X33.556 Z46.11 F400.3
Y150 Z45.285
G2 X29.007 Y143.911 Z45 I-6.35
X27.206 Y143.65 I-1.801 J6.089 F849.6
G1 X18.89
X16.35 F212.4
Y20 F849.6
G3 X30 Y6.35 I13.65
G1 X45
G3 X58.65 Y20 J13.65
G1 Y60
G2 X85 Y86.35 I26.35
G1 X370
G2 X396.35 Y60 J-26.35
G1 Y20
G3 X410 Y6.35 I13.65
G1 X425
G3 X438.65 Y20 J13.65
G1 Y141.11
Y143.65 F212.4
X425.101 F849.6
G2 X418.751 Y150 J6.35
G1 Y171.11
Y173.65 F212.4
X303.991 F849.6
X301.451 F212.4
Y150 F849.6
G2 X295.101 Y143.65 I-6.35
G1 X157.206
G2 X150.856 Y150 J6.35
G1 Y171.11
Y173.65 F212.4
X73.348 F849.6
X36.096
X33.556 F212.4
Y150 F849.6
G2 X29.007 Y143.911 I-6.35
X27.206 Y143.65 Z44.936 I-1.801 J6.089 F400.3
G1 X16.35 Z44.557
Y84.741 Z42.5
Y20 F849.6
G3 X30 Y6.35 I13.65
G1 X45
G3 X58.65 Y20 J13.65
G1 Y60
G2 X85 Y86.35 I26.35
G1 X370
G2 X396.35 Y60 J-26.35
G1 Y20
G3 X410 Y6.35 I13.65
G1 X425
G3 X438.65 Y20 J13.65
G1 Y141.11
Y143.65 F212.4
X425.101 F849.6
G2 X418.751 Y150 J6.35
G1 Y171.11
Y173.65 F212.4
X303.991 F849.6
X301.451 F212.4
Y150 F849.6
G2 X295.101 Y143.65 I-6.35
G1 X157.206
G2 X150.856 Y150 J6.35
G1 Y171.11
Y173.65 F212.4
X36.096 F849.6
X33.556 F212.4
Y150 F849.6
G2 X27.206 Y143.65 I-6.35
G1 X18.89
X16.35 F212.4
Y84.741 F849.6
Y20 Z40.239 F400.3
G3 X18.033 Y13.434 Z40 I13.65
X30 Y6.35 I11.967 J6.566 F849.6
G1 X45
G3 X58.65 Y20 J13.65
G1 Y60
G2 X85 Y86.35 I26.35
G1 X370
G2 X396.35 Y60 J-26.35
G1 Y20
G3 X410 Y6.35 I13.65
G1 X425
G3 X438.65 Y20 J13.65
G1 Y141.11
Y143.65 F212.4
X425.101 F849.6
G2 X418.751 Y150 J6.35
G1 Y171.11
Y173.65 F212.4
X303.991 F849.6
X301.451 F212.4
Y150 F849.6
G2 X295.101 Y143.65 I-6.35
G1 X157.206
G2 X150.856 Y150 J6.35
G1 Y171.11
Y173.65 F212.4
X36.096 F849.6
X33.556 F212.4
Y150 F849.6
G2 X27.206 Y143.65 I-6.35
G1 X18.89
X16.35 F212.4
Y20 F849.6
G3 X18.033 Y13.434 I13.65
X30 Y6.35 Z39.49 I11.967 J6.566 F400.3
G1 X45 Z38.967
G3 X58.65 Y20 Z38.218 J13.65
G1 Y40.557 Z37.5
Y60 F849.6
G2 X85 Y86.35 I26.35
G1 X370
G2 X396.35 Y60 J-26.35
G1 Y20
G3 X410 Y6.35 I13.65
G1 X425
G3 X438.65 Y20 J13.65
G1 Y141.11
Y143.65 F212.4
X425.101 F849.6
G2 X418.751 Y150 J6.35
G1 Y171.11
Y173.65 F212.4
X303.991 F849.6
X301.451 F212.4
Y150 F849.6
G2 X295.101 Y143.65 I-6.35
G1 X157.206
G2 X150.856 Y150 J6.35
G1 Y171.11
Y173.65 F212.4
X36.096 F849.6
X33.556 F212.4
Y150 F849.6
G2 X27.206 Y143.65 I-6.35
G1 X18.89
X16.35 F212.4
Y20 F849.6
G3 X30 Y6.35 I13.65
G1 X45
G3 X58.65 Y20 J13.65
G1 Y40.557
Y60 Z36.821 F400.3
G2 X85 Y86.35 Z35.376 I26.35
G1 X95.757 Z35
X370 F849.6
G2 X396.35 Y60 J-26.35
G1 Y20
G3 X410 Y6.35 I13.65
G1 X425
G3 X438.65 Y20 J13.65
G1 Y141.11
Y143.65 F212.4
X425.101 F849.6
G2 X418.751 Y150 J6.35
G1 Y171.11
Y173.65 F212.4
X303.991 F849.6
X301.451 F212.4
Y150 F849.6
G2 X295.101 Y143.65 I-6.35
G1 X157.206
G2 X150.856 Y150 J6.35
G1 Y171.11
Y173.65 F212.4
X36.096 F849.6
X33.556 F212.4
Y150 F849.6
G2 X27.206 Y143.65 I-6.35
G1 X18.89
X16.35 F212.4
Y20 F849.6
G3 X30 Y6.35 I13.65
G1 X45
G3 X58.65 Y20 J13.65
G1 Y40.557
Y60
G2 X85 Y86.35 I26.35
G1 X95.757
X167.348 Z32.5 F400.3
X370 F849.6
G2 X396.35 Y60 J-26.35
G1 Y20
G3 X410 Y6.35 I13.65
G1 X425
G3 X438.65 Y20 J13.65
G1 Y141.11
Y143.65 F212.4
X425.101 F849.6
G2 X418.751 Y150 J6.35
G1 Y171.11
Y173.65 F212.4
X303.991 F849.6
X301.451 F212.4
Y150 F849.6
G2 X295.101 Y143.65 I-6.35
G1 X157.206
G2 X150.856 Y150 J6.35
G1 Y171.11
Y173.65 F212.4
X36.096 F849.6
X33.556 F212.4
Y150 F849.6
G2 X27.206 Y143.65 I-6.35
G1 X18.89
X16.35 F212.4
Y20 F849.6
G3 X30 Y6.35 I13.65
G1 X45
G3 X58.65 Y20 J13.65
G1 Y60
G2 X85 Y86.35 I26.35
G1 X167.348
X238.939 Z30 F400.3
X370 F849.6
G2 X396.35 Y60 J-26.35
G1 Y20
G3 X410 Y6.35 I13.65
G1 X425
G3 X438.65 Y20 J13.65
G1 Y141.11
Y143.65 F212.4
X425.101 F849.6
G2 X418.751 Y150 J6.35
G1 Y171.11
Y173.65 F212.4
X303.991 F849.6
X301.451 F212.4
Y150 F849.6
G2 X295.101 Y143.65 I-6.35
G1 X157.206
G2 X150.856 Y150 J6.35
G1 Y171.11
Y173.65 F212.4
X36.096 F849.6
X33.556 F212.4
Y150 F849.6
G2 X27.206 Y143.65 I-6.35
G1 X18.89
X16.35 F212.4
Y20 F849.6
G3 X30 Y6.35 I13.65
G1 X45
G3 X58.65 Y20 J13.65
G1 Y60
G2 X85 Y86.35 I26.35
G1 X167.348
X238.939
X310.529 Z27.5 F400.3
X370 F849.6
G2 X396.35 Y60 J-26.35
G1 Y20
G3 X410 Y6.35 I13.65
G1 X425
G3 X438.65 Y20 J13.65
G1 Y141.11
Y143.65 F212.4
X425.101 F849.6
G2 X418.751 Y150 J6.35
G1 Y171.11
Y173.65 F212.4
X303.991 F849.6
X301.451 F212.4
Y150 F849.6
G2 X295.101 Y143.65 I-6.35
G1 X157.206
G2 X150.856 Y150 J6.35
G1 Y171.11
Y173.65 F212.4
X36.096 F849.6
X33.556 F212.4
Y150 F849.6
G2 X27.206 Y143.65 I-6.35
G1 X18.89
X16.35 F212.4
Y20 F849.6
G3 X30 Y6.35 I13.65
G1 X45
G3 X58.65 Y20 J13.65
G1 Y60
G2 X85 Y86.35 I26.35
G1 X238.939
X310.529
X370 Z25.423 F400.3
G2 X381.697 Y83.611 Z25 J-26.35
X396.35 Y60 I-11.697 J-23.611 F849.6
G1 Y20
G3 X410 Y6.35 I13.65
G1 X425
G3 X438.65 Y20 J13.65
G1 Y141.11
Y143.65 F212.4
X425.101 F849.6
G2 X418.751 Y150 J6.35
G1 Y171.11
Y173.65 F212.4
X303.991 F849.6
X301.451 F212.4
Y150 F849.6
G2 X295.101 Y143.65 I-6.35
G1 X157.206
G2 X150.856 Y150 J6.35
G1 Y171.11
Y173.65 F212.4
X36.096 F849.6
X33.556 F212.4
Y150 F849.6
G2 X27.206 Y143.65 I-6.35
G1 X18.89
X16.35 F212.4
Y20 F849.6
G3 X30 Y6.35 I13.65
G1 X45
G3 X58.65 Y20 J13.65
G1 Y60
G2 X85 Y86.35 I26.35
G1 X310.529
X370
G2 X381.697 Y83.611 J-26.35
X396.35 Y60 Z23.978 I-11.697 J-23.611 F400.3
G1 Y20 Z22.581
G3 X396.547 Y17.691 Z22.5 I13.65
X410 Y6.35 I13.453 J2.309 F849.6
G1 X425
G3 X438.65 Y20 J13.65
G1 Y141.11
Y143.65 F212.4
X425.101 F849.6
G2 X418.751 Y150 J6.35
G1 Y171.11
Y173.65 F212.4
X303.991 F849.6
X301.451 F212.4
Y150 F849.6
G2 X295.101 Y143.65 I-6.35
G1 X157.206
G2 X150.856 Y150 J6.35
G1 Y171.11
Y173.65 F212.4
X36.096 F849.6
X33.556 F212.4
Y150 F849.6
G2 X27.206 Y143.65 I-6.35
G1 X18.89
X16.35 F212.4
Y20 F849.6
G3 X30 Y6.35 I13.65
G1 X45
G3 X58.65 Y20 J13.65
G1 Y60
G2 X85 Y86.35 I26.35
G1 X370
G2 X396.35 Y60 J-26.35
G1 Y20
G3 X396.547 Y17.691 I13.65
X410 Y6.35 Z21.832 I13.453 J2.309 F400.3
G1 X425 Z21.308
G3 X438.65 Y20 Z20.56 J13.65
G1 Y36.028 Z20
Y141.11 F849.6
Y143.65 F212.4
X425.101 F849.6
G2 X418.751 Y150 J6.35
G1 Y171.11
Y173.65 F212.4
X303.991 F849.6
X301.451 F212.4
Y150 F849.6
G2 X295.101 Y143.65 I-6.35
G1 X157.206
G2 X150.856 Y150 J6.35
G1 Y171.11
Y173.65 F212.4
X36.096 F849.6
X33.556 F212.4
Y150 F849.6
G2 X27.206 Y143.65 I-6.35
G1 X18.89
X16.35 F212.4
Y20 F849.6
G3 X30 Y6.35 I13.65
G1 X45
G3 X58.65 Y20 J13.65
G1 Y60
G2 X85 Y86.35 I26.35
G1 X370
G2 X396.35 Y60 J-26.35
G1 Y20
G3 X410 Y6.35 I13.65
G1 X425
G3 X438.65 Y20 J13.65
G1 Y36.028
Y107.619 Z17.5 F400.3
Y141.11 F849.6
Y143.65 F212.4
X425.101 F849.6
G2 X418.751 Y150 J6.35
G1 Y171.11
Y173.65 F212.4
X303.991 F849.6
X301.451 F212.4
Y150 F849.6
G2 X295.101 Y143.65 I-6.35
G1 X157.206
G2 X150.856 Y150 J6.35
G1 Y171.11
Y173.65 F212.4
X36.096 F849.6
X33.556 F212.4
Y150 F849.6
G2 X27.206 Y143.65 I-6.35
G1 X18.89
X16.35 F212.4
Y20 F849.6
G3 X30 Y6.35 I13.65
G1 X45
G3 X58.65 Y20 J13.65
G1 Y60
G2 X85 Y86.35 I26.35
G1 X370
G2 X396.35 Y60 J-26.35
G1 Y20
G3 X410 Y6.35 I13.65
G1 X425
G3 X438.65 Y20 J13.65
G1 Y107.619
Y143.65 Z16.242 F400.3
X425.101 Z15.769
G2 X418.751 Y150 Z15.42 J6.35
G1 Y162.036 Z15
Y171.11 F849.6
Y173.65 F212.4
X303.991 F849.6
X301.451 F212.4
Y150 F849.6
G2 X295.101 Y143.65 I-6.35
G1 X157.206
G2 X150.856 Y150 J6.35
G1 Y171.11
Y173.65 F212.4
X36.096 F849.6
X33.556 F212.4
Y150 F849.6
G2 X27.206 Y143.65 I-6.35
G1 X18.89
X16.35 F212.4
Y20 F849.6
G3 X30 Y6.35 I13.65
G1 X45
G3 X58.65 Y20 J13.65
G1 Y60
G2 X85 Y86.35 I26.35
G1 X370
G2 X396.35 Y60 J-26.35
G1 Y20
G3 X410 Y6.35 I13.65
G1 X425
G3 X438.65 Y20 J13.65
G1 Y107.619
Y141.11
Y143.65 F212.4
X425.101 F849.6
G2 X418.751 Y150 J6.35
G1 Y162.036
G3 X417.481 Y163.306 I-1.27
G1 X416.211
G18 G3 X414.941 Z16.27 K1.27
G0 Z65
G17

(2D Adaptive15 2)
M9
G0 X136.332 Y162.649
Z65
Z55
Z53.77
G1 Z52.5 F849.6
G3 X147.444 Y167.351 Z51.838 I5.556 J2.351 F400.3
X136.332 Y162.649 Z51.176 I-5.556 J-2.351
X147.444 Y167.351 Z50.515 I5.556 J2.351
X136.332 Y162.649 Z49.853 I-5.556 J-2.351
X147.444 Y167.351 Z49.191 I5.556 J2.351
X136.332 Y162.649 Z48.529 I-5.556 J-2.351
X147.444 Y167.351 Z47.867 I5.556 J2.351
X136.332 Y162.649 Z47.206 I-5.556 J-2.351
X147.444 Y167.351 Z46.544 I5.556 J2.351
X136.332 Y162.649 Z45.882 I-5.556 J-2.351
X147.444 Y167.351 Z45.22 I5.556 J2.351
X136.332 Y162.649 Z44.558 I-5.556 J-2.351
X147.444 Y167.351 Z43.897 I5.556 J2.351
X136.332 Y162.649 Z43.235 I-5.556 J-2.351
X147.444 Y167.351 Z42.573 I5.556 J2.351
X136.332 Y162.649 Z41.911 I-5.556 J-2.351
X144.635 Y159.629 Z41.565 I5.556 J2.351
X147.045 Y168.13 Z41.219 I-2.747 J5.371
X137.211 Y168.81 Z40.816 I-5.157 J-3.13
X146.565 Y161.19 Z40.154 I4.677 J-3.81
X147.92 Y165 Z40.01 I-4.677 J3.81
X135.855 I-6.033
X142.581 Y159.007 I6.033
X147.398 Y162.545 I-0.693 J5.993
X147.92 Y165 I-5.511 J2.455
G1 X147.936 Y166.292 F849.6
X147.959 Y166.369
X147.996 Y166.515
X148.02 Y166.663
X148.035 Y166.812
X148.042 Y166.962
X148.04 Y167.112
X148.032 Y167.262
X148.016 Y167.411
X147.993 Y167.566
X147.962 Y167.729
X147.923 Y167.897
X147.875 Y168.072
X147.816 Y168.251
X147.748 Y168.434
X147.67 Y168.62
X147.581 Y168.81
X147.481 Y169.001
X147.37 Y169.193
X147.248 Y169.385
X147.115 Y169.576
X146.971 Y169.766
X146.816 Y169.953
X146.65 Y170.137
X146.473 Y170.317
X146.286 Y170.492
X146.089 Y170.662
X145.882 Y170.826
X145.666 Y170.982
X145.441 Y171.131
X145.207 Y171.272
X144.965 Y171.404
X144.716 Y171.527
X144.46 Y171.641
X144.198 Y171.744
X143.929 Y171.837
X143.656 Y171.918
X143.377 Y171.989
X143.095 Y172.048
X142.809 Y172.096
X142.52 Y172.131
X142.229 Y172.155
X141.936 Y172.166
X141.642 Y172.165
X141.348 Y172.151
X141.054 Y172.125
X140.76 Y172.087
X140.468 Y172.036
X140.177 Y171.973
X139.889 Y171.898
X139.604 Y171.81
X139.322 Y171.711
X139.045 Y171.599
X138.772 Y171.476
X138.504 Y171.342
X138.242 Y171.196
X137.986 Y171.039
X137.737 Y170.871
X137.495 Y170.693
X137.26 Y170.505
X137.034 Y170.307
X136.816 Y170.1
X136.606 Y169.883
X136.406 Y169.658
X136.216 Y169.424
X136.035 Y169.183
X135.864 Y168.934
X135.705 Y168.678
X135.556 Y168.416
X135.418 Y168.147
X135.291 Y167.873
X135.176 Y167.594
X135.073 Y167.31
X134.982 Y167.022
X134.903 Y166.731
X134.837 Y166.436
X134.782 Y166.139
X134.741 Y165.839
X134.712 Y165.539
X134.695 Y165.237
X134.692 Y164.935
X134.701 Y164.632
X134.722 Y164.331
X134.757 Y164.031
X134.804 Y163.732
X134.863 Y163.435
X134.935 Y163.142
X135.019 Y162.851
X135.116 Y162.565
X135.224 Y162.282
X135.344 Y162.005
X135.475 Y161.733
X135.618 Y161.466
X135.772 Y161.206
X135.937 Y160.952
X136.112 Y160.706
X136.298 Y160.467
X136.493 Y160.236
X136.698 Y160.014
X136.912 Y159.8
X137.135 Y159.596
X137.366 Y159.401
X137.605 Y159.216
X137.852 Y159.041
X138.106 Y158.877
X138.367 Y158.723
X138.633 Y158.581
X138.906 Y158.45
X139.184 Y158.33
X139.467 Y158.222
X139.753 Y158.127
X140.044 Y158.043
X140.338 Y157.972
X140.635 Y157.913
X140.933 Y157.866
X141.234 Y157.833
X141.536 Y157.811
X141.838 Y157.803
X142.141 Y157.807
X142.442 Y157.824
X142.743 Y157.854
X143.043 Y157.896
X143.34 Y157.951
X143.635 Y158.018
X143.927 Y158.098
X144.215 Y158.189
X144.499 Y158.293
X144.779 Y158.409
X145.053 Y158.536
X145.322 Y158.675
X145.585 Y158.825
X145.841 Y158.985
X146.09 Y159.157
X146.332 Y159.339
X146.566 Y159.53
X146.792 Y159.732
X147.009 Y159.942
X147.217 Y160.162
X147.415 Y160.39
X147.604 Y160.626
X147.783 Y160.87
X147.951 Y161.122
X148.108 Y161.38
X148.255 Y161.644
X148.39 Y161.915
X148.514 Y162.191
X148.638 Y162.501
X148.852 Y163.109
X149.019 Y163.657
X149.139 Y164.119
X149.227 Y164.527
X149.292 Y164.906
X149.337 Y165.262
X149.366 Y165.6
X149.381 Y165.925
Y166.242
X149.369 Y166.552
X149.344 Y166.855
X149.307 Y167.152
X149.258 Y167.444
X149.197 Y167.732
X149.124 Y168.016
X149.04 Y168.296
X148.944 Y168.573
X148.836 Y168.846
X148.716 Y169.114
X148.585 Y169.379
X148.442 Y169.639
X148.287 Y169.894
X148.121 Y170.144
X147.944 Y170.388
X147.755 Y170.627
X147.554 Y170.858
X147.343 Y171.083
X147.121 Y171.3
X146.888 Y171.509
X146.645 Y171.71
X146.392 Y171.901
X146.129 Y172.083
X145.858 Y172.255
X145.577 Y172.417
X145.288 Y172.567
X144.992 Y172.706
X144.688 Y172.832
X144.378 Y172.947
X144.061 Y173.049
X143.74 Y173.138
X143.413 Y173.214
X143.082 Y173.276
X142.747 Y173.324
X142.41 Y173.359
X142.07 Y173.379
X141.729 Y173.385
X141.387 Y173.376
X141.044 Y173.354
X140.702 Y173.316
X140.361 Y173.265
X140.022 Y173.198
X139.685 Y173.118
X139.351 Y173.023
X139.021 Y172.914
X138.695 Y172.791
X138.374 Y172.655
X138.059 Y172.504
X137.75 Y172.341
X137.447 Y172.164
X137.152 Y171.975
X136.865 Y171.773
X136.587 Y171.559
X136.317 Y171.333
X136.057 Y171.096
X135.807 Y170.848
X135.567 Y170.59
X135.339 Y170.321
X135.121 Y170.043
X134.916 Y169.756
X134.722 Y169.461
X134.541 Y169.157
X134.373 Y168.847
X134.218 Y168.529
X134.077 Y168.204
X133.949 Y167.874
X133.835 Y167.539
X133.735 Y167.2
X133.65 Y166.856
X133.579 Y166.509
X133.523 Y166.159
X133.481 Y165.807
X133.454 Y165.454
X133.443 Y165.1
X133.446 Y164.745
X133.464 Y164.391
X133.497 Y164.038
X133.544 Y163.686
X133.607 Y163.337
X133.684 Y162.991
X133.775 Y162.648
X133.881 Y162.31
X134.001 Y161.976
X134.135 Y161.647
X134.282 Y161.325
X134.443 Y161.008
X134.617 Y160.699
X134.804 Y160.398
X135.004 Y160.104
X135.216 Y159.819
X135.439 Y159.544
X135.674 Y159.277
X135.92 Y159.021
X136.176 Y158.776
X136.443 Y158.542
X136.719 Y158.319
X137.004 Y158.107
X137.298 Y157.908
X137.6 Y157.722
X137.909 Y157.548
X138.226 Y157.387
X138.549 Y157.24
X138.878 Y157.107
X139.212 Y156.987
X139.551 Y156.882
X139.894 Y156.791
X140.241 Y156.714
X140.59 Y156.652
X140.942 Y156.605
X141.296 Y156.573
X141.65 Y156.555
X142.005 Y156.553
X142.36 Y156.565
X142.714 Y156.593
X143.067 Y156.635
X143.417 Y156.692
X143.765 Y156.763
X144.109 Y156.849
X144.45 Y156.95
X144.786 Y157.065
X145.116 Y157.193
X145.442 Y157.336
X145.76 Y157.492
X146.072 Y157.661
X146.377 Y157.844
X146.674 Y158.038
X146.962 Y158.246
X147.241 Y158.465
X147.511 Y158.696
X147.771 Y158.937
X148.021 Y159.19
X148.26 Y159.454
X148.491 Y159.73
X148.733 Y160.047
X148.976 Y160.394
X149.209 Y160.758
X149.431 Y161.139
X149.639 Y161.533
X149.83 Y161.935
X150.002 Y162.34
X150.153 Y162.744
X150.286 Y163.147
X150.399 Y163.548
X150.493 Y163.945
X150.569 Y164.34
X150.628 Y164.731
X150.67 Y165.119
X150.695 Y165.503
X150.704 Y165.883
X150.696 Y166.26
X150.674 Y166.632
X150.636 Y167
X150.582 Y167.363
X150.514 Y167.722
X150.432 Y168.076
X150.335 Y168.425
X150.223 Y168.769
X150.098 Y169.107
X149.958 Y169.44
X149.805 Y169.767
X149.637 Y170.087
X149.457 Y170.4
X149.262 Y170.706
X149.055 Y171.005
X148.834 Y171.295
X148.601 Y171.577
X148.355 Y171.85
X148.097 Y172.113
X147.827 Y172.366
X147.546 Y172.608
X147.253 Y172.84
X146.95 Y173.059
X146.887 Y173.101
X146.467 Y173.337
X146.016 Y173.51
X145.546 Y173.615
X145.065 Y173.65
X139.393
X139.075 Y173.634
X138.872 Y173.615
X138.66 Y173.587
X138.434 Y173.547
X138.198 Y173.494
X137.957 Y173.43
X137.709 Y173.353
X137.452 Y173.261
X137.187 Y173.153
X136.92 Y173.031
X136.652 Y172.895
X136.383 Y172.743
X136.111 Y172.575
X135.84 Y172.391
X135.57 Y172.191
X135.303 Y171.975
X135.04 Y171.743
X134.784 Y171.498
X134.535 Y171.238
X134.295 Y170.965
X134.063 Y170.678
X133.841 Y170.379
X133.629 Y170.067
X133.429 Y169.744
X133.241 Y169.409
X133.066 Y169.064
X132.904 Y168.71
X132.757 Y168.347
X132.624 Y167.976
X132.506 Y167.598
X132.404 Y167.214
X132.317 Y166.824
X132.247 Y166.43
X132.194 Y166.032
X132.157 Y165.632
X132.137 Y165.229
X132.134 Y164.825
X132.147 Y164.42
X132.178 Y164.016
X132.226 Y163.612
X132.291 Y163.211
X132.373 Y162.812
X132.472 Y162.417
X132.587 Y162.026
X132.718 Y161.639
X132.866 Y161.259
X133.03 Y160.884
X133.21 Y160.517
X133.404 Y160.157
X133.614 Y159.806
X133.839 Y159.464
X134.078 Y159.131
X134.33 Y158.808
X134.596 Y158.497
X134.875 Y158.196
X135.167 Y157.908
X135.47 Y157.632
X135.785 Y157.369
X136.11 Y157.12
X136.446 Y156.884
X136.465 Y156.872
X136.878 Y156.647
X137.318 Y156.483
X137.777 Y156.383
X138.246 Y156.35
X144.383
X144.741 Y156.368
X144.937 Y156.386
X145.147 Y156.414
X145.37 Y156.454
X145.6 Y156.505
X145.836 Y156.568
X146.084 Y156.645
X146.34 Y156.737
X146.601 Y156.843
X146.863 Y156.963
X147.129 Y157.098
X147.399 Y157.25
X147.675 Y157.421
X147.954 Y157.61
X148.232 Y157.816
X148.51 Y158.041
X148.79 Y158.288
X149.07 Y158.557
X149.348 Y158.847
X149.619 Y159.154
X149.882 Y159.479
X150.134 Y159.82
X150.287 Y160.044
X150.532 Y160.47
X150.71 Y160.928
X150.819 Y161.407
X150.856 Y161.897
G3 X148.781 Y162.834 I-1.269 J-0.044
G1 X143.622 Y158.601
G3 X144.383 Y156.35 I0.806 J-0.982
G1 X146.46
X146.653 Y156.36
X146.803 Y156.373
X146.964 Y156.395
X147.14 Y156.427
X147.319 Y156.467
X147.514 Y156.518
X147.721 Y156.583
X147.932 Y156.659
X148.156 Y156.75
X148.393 Y156.858
X148.631 Y156.979
X148.878 Y157.118
X149.134 Y157.277
X149.386 Y157.448
X149.614 Y157.617
X149.633 Y157.633
X149.989 Y157.968
X150.292 Y158.352
X150.535 Y158.777
X150.712 Y159.232
X150.82 Y159.709
X150.856 Y160.197
G3 X148.78 Y161.134 I-1.269 J-0.044
G1 X145.698 Y158.6
G3 X145.977 Y156.464 I0.806 J-0.981
X146.46 Y156.35 I0.527 J1.156
G1 X148.099
X148.306 Y156.36
X148.455 Y156.374
X148.604 Y156.395
X148.751 Y156.423
X148.902 Y156.459
X149.046 Y156.5
X149.188 Y156.547
X149.59 Y156.744
X149.952 Y157.006
X150.265 Y157.326
X150.518 Y157.695
X150.704 Y158.102
X150.818 Y158.534
X150.856 Y158.98
G3 X148.731 Y159.874 I-1.269 J-0.044
G1 X147.287 Y158.558
G3 X148.099 Y156.35 I0.856 J-0.938
G1 X149.242
X149.391 Y156.357
X149.726 Y156.43
X150.039 Y156.57
X150.315 Y156.773
X150.544 Y157.028
X150.715 Y157.325
X150.82 Y157.65
X150.856 Y157.991
G3 X150.76 Y158.478 I-1.563 J-0.055
X148.875 Y159.443 I-1.467 J-0.542
X148.754 Y156.445 I0.422 J-1.518
X149.242 Y156.35 I0.542 J1.48
G1 X149.507
X149.698 Y156.356
X149.888 Y156.389
X150.079 Y156.454
X150.269 Y156.557
X150.422 Y156.674
X150.551 Y156.808
X150.65 Y156.941
X150.716 Y157.055
X150.795 Y157.246
X150.84 Y157.436
X150.856 Y157.817
Y168.595
X150.84 Y168.909
X150.822 Y169.109
X150.794 Y169.317
X150.755 Y169.533
X150.704 Y169.765
X150.64 Y170.006
X150.564 Y170.25
X150.473 Y170.504
X150.366 Y170.767
X150.243 Y171.036
X150.105 Y171.307
X149.952 Y171.579
X149.783 Y171.853
X149.596 Y172.128
X149.421 Y172.364
X149.37 Y172.426
X149.035 Y172.783
X148.651 Y173.086
X148.226 Y173.328
X147.77 Y173.506
X147.293 Y173.614
X146.805 Y173.65
G3 X146.323 Y173.536 I0.044 J-1.269
X145.825 Y171.631 I0.527 J-1.156
G1 X148.562 Y167.889
G3 X150.856 Y168.595 I1.025 J0.75
G1 Y170.593
X150.844 Y170.83
X150.83 Y170.979
X150.809 Y171.136
X150.783 Y171.285
X150.749 Y171.437
X150.703 Y171.608
X150.651 Y171.773
X150.474 Y172.169
X150.238 Y172.533
X149.949 Y172.857
X149.614 Y173.134
X149.241 Y173.356
X148.839 Y173.518
X148.416 Y173.617
X147.983 Y173.65
G3 X147.501 Y173.536 I0.044 J-1.269
X147.081 Y171.534 I0.527 J-1.156
G1 X148.64 Y169.791
G3 X150.856 Y170.593 I0.947 J0.847
G1 Y171.907
X150.848 Y172.056
X150.765 Y172.422
X150.608 Y172.762
X150.384 Y173.063
X150.103 Y173.311
X149.778 Y173.497
X149.421 Y173.611
X149.048 Y173.65
G3 X148.559 Y173.56 I0.059 J-1.692
X147.486 Y171.469 I0.548 J-1.602
X150.767 Y171.418 I1.648 J0.498
X150.856 Y171.907 I-1.632 J0.549
G1 Y172.287
X150.851 Y172.478
X150.82 Y172.668
X150.757 Y172.859
X150.657 Y173.049
X150.65 Y173.06
X150.505 Y173.245
X150.397 Y173.348
X150.289 Y173.43
X150.269 Y173.443
X150.079 Y173.546
X149.888 Y173.611
X149.698 Y173.644
X149.666 Y173.645
X149.167
X139.891 Y173.65
X139.393
X137.316
X137.228 Y173.646
X137.079 Y173.636
X136.921 Y173.618
X136.759 Y173.593
X136.582 Y173.559
X136.394 Y173.513
X136.202 Y173.458
X135.998 Y173.391
X135.782 Y173.309
X135.563 Y173.215
X135.339 Y173.108
X135.106 Y172.984
X134.865 Y172.843
X134.624 Y172.688
X134.383 Y172.518
X134.138 Y172.329
X133.892 Y172.122
X133.645 Y171.897
X133.402 Y171.655
X133.164 Y171.398
X132.933 Y171.125
X132.707 Y170.835
X132.487 Y170.528
X132.276 Y170.205
X132.075 Y169.866
X131.884 Y169.512
X131.706 Y169.145
X131.541 Y168.766
X131.391 Y168.376
X131.256 Y167.976
X131.136 Y167.566
X131.033 Y167.148
X130.947 Y166.723
X130.878 Y166.29
X130.827 Y165.852
X130.794 Y165.409
X130.78 Y164.962
X130.785 Y164.513
X130.808 Y164.062
X130.851 Y163.61
X130.913 Y163.159
X130.994 Y162.71
X131.094 Y162.263
X131.213 Y161.819
X131.351 Y161.38
X131.508 Y160.946
X131.683 Y160.518
X131.876 Y160.097
X132.087 Y159.684
X132.316 Y159.28
X132.561 Y158.885
X132.824 Y158.501
X133.102 Y158.127
X133.39 Y157.773
X133.645 Y157.485
X133.765 Y157.361
X134.092 Y157.064
X134.456 Y156.813
X134.85 Y156.613
X135.268 Y156.468
X135.701 Y156.38
X136.142 Y156.35
X138.246
G3 X138.728 Y156.464 I-0.044 J1.269
X139.469 Y157.699 I-0.527 J1.156
G1 X138.54 Y172.461
G3 X137.799 Y173.536 I-1.267 J-0.08
X137.316 Y173.65 I-0.527 J-1.156
G1 X135.677
X135.596 Y173.646
X135.446 Y173.636
X135.297 Y173.619
X135.147 Y173.595
X134.992 Y173.563
X134.823 Y173.521
X134.645 Y173.469
X134.463 Y173.407
X134.269 Y173.332
X134.064 Y173.242
X133.858 Y173.142
X133.645 Y173.026
X133.421 Y172.893
X133.194 Y172.744
X132.967 Y172.582
X132.736 Y172.4
X132.5 Y172.199
X132.263 Y171.979
X132.029 Y171.743
X131.799 Y171.49
X131.57 Y171.217
X131.345 Y170.924
X131.125 Y170.611
X130.913 Y170.28
X130.711 Y169.934
X130.52 Y169.572
X130.34 Y169.196
X130.173 Y168.802
X130.019 Y168.393
X129.879 Y167.97
X129.756 Y167.534
X129.649 Y167.085
X129.559 Y166.626
X129.488 Y166.158
X129.437 Y165.682
X129.405 Y165.2
X129.393 Y164.713
X129.402 Y164.222
X129.431 Y163.728
X129.482 Y163.232
X129.554 Y162.736
X129.647 Y162.24
X129.762 Y161.746
X129.898 Y161.255
X130.055 Y160.769
X130.233 Y160.287
X130.432 Y159.811
X130.65 Y159.345
X130.872 Y158.919
X131.091 Y158.539
X131.303 Y158.203
X131.503 Y157.915
X131.714 Y157.636
X131.787 Y157.549
X132.121 Y157.199
X132.503 Y156.902
X132.925 Y156.665
X133.376 Y156.491
X133.849 Y156.385
X134.331 Y156.35
X136.142
G3 X137.367 Y157.659 I-0.044 J1.269
G1 X136.902 Y172.421
G3 X136.16 Y173.536 I-1.269 J-0.04
X135.677 Y173.65 I-0.527 J-1.156
G1 X134.153
X134.004 Y173.643
X133.854 Y173.628
X133.706 Y173.606
X133.559 Y173.577
X133.4 Y173.539
X133.234 Y173.492
X133.063 Y173.435
X132.879 Y173.366
X132.687 Y173.284
X132.492 Y173.191
X132.287 Y173.082
X132.072 Y172.956
X131.857 Y172.818
X131.637 Y172.663
X131.41 Y172.488
X131.178 Y172.294
X130.949 Y172.085
X130.721 Y171.859
X130.491 Y171.61
X130.261 Y171.34
X130.034 Y171.049
X129.815 Y170.743
X129.602 Y170.418
X129.396 Y170.071
X129.197 Y169.703
X129.008 Y169.314
X128.83 Y168.906
X128.667 Y168.484
X128.519 Y168.047
X128.387 Y167.596
X128.271 Y167.129
X128.173 Y166.648
X128.094 Y166.154
X128.035 Y165.648
X127.996 Y165.132
X127.979 Y164.609
X127.984 Y164.078
X128.011 Y163.543
X128.062 Y163.003
X128.136 Y162.462
X128.233 Y161.92
X128.353 Y161.383
X128.493 Y160.858
X128.652 Y160.352
X128.826 Y159.868
X129.013 Y159.411
X129.186 Y159.032
X129.379 Y158.655
X129.546 Y158.359
X129.731 Y158.061
X129.909 Y157.799
X130.079 Y157.57
X130.414 Y157.215
X130.798 Y156.913
X131.223 Y156.671
X131.678 Y156.494
X132.155 Y156.386
X132.642 Y156.35
X134.331
G3 X134.813 Y156.464 I-0.044 J1.269
X135.557 Y157.635 I-0.527 J1.156
G1 X135.379 Y172.396
G3 X134.153 Y173.65 I-1.27 J-0.015
G1 X132.745
X132.662 Y173.646
X132.512 Y173.637
X132.363 Y173.62
X132.215 Y173.595
X132.066 Y173.563
X131.91 Y173.522
X131.749 Y173.473
X131.573 Y173.412
X131.391 Y173.339
X131.205 Y173.255
X131.006 Y173.156
X130.8 Y173.042
X130.593 Y172.916
X130.378 Y172.772
X130.155 Y172.608
X129.93 Y172.429
X129.706 Y172.234
X129.477 Y172.016
X129.243 Y171.776
X129.012 Y171.517
X128.786 Y171.242
X128.562 Y170.944
X128.34 Y170.621
X128.123 Y170.276
X127.915 Y169.911
X127.718 Y169.529
X127.532 Y169.128
X127.356 Y168.704
X127.193 Y168.258
X127.045 Y167.791
X126.912 Y167.306
X126.798 Y166.806
X126.703 Y166.293
X126.629 Y165.767
X126.576 Y165.23
X126.545 Y164.68
X126.537 Y164.119
X126.553 Y163.552
X126.592 Y162.982
X126.656 Y162.414
X126.744 Y161.851
X126.852 Y161.306
X126.979 Y160.78
X127.121 Y160.287
X127.276 Y159.822
X127.44 Y159.392
X127.591 Y159.04
X127.762 Y158.683
X127.914 Y158.398
X128.081 Y158.116
X128.249 Y157.856
X128.408 Y157.632
X128.744 Y157.259
X129.133 Y156.942
X129.565 Y156.688
X130.03 Y156.502
X130.519 Y156.388
X131.019 Y156.35
X132.642
G3 X133.124 Y156.464 I-0.044 J1.269
X133.867 Y157.61 I-0.527 J1.156
G1 X133.97 Y172.372
G3 X133.227 Y173.536 I-1.27 J0.009
X132.745 Y173.65 I-0.527 J-1.156
G1 X131.298
X131.148 Y173.643
X130.999 Y173.627
X130.851 Y173.604
X130.704 Y173.575
X130.552 Y173.537
X130.388 Y173.489
X130.222 Y173.432
X130.043 Y173.363
X129.854 Y173.28
X129.663 Y173.187
X129.463 Y173.078
X129.251 Y172.952
X129.039 Y172.812
X128.822 Y172.657
X128.596 Y172.48
X128.366 Y172.283
X128.138 Y172.072
X127.908 Y171.84
X127.675 Y171.583
X127.441 Y171.303
X127.213 Y171.007
X126.99 Y170.689
X126.769 Y170.344
X126.553 Y169.974
X126.345 Y169.58
X126.149 Y169.169
X125.966 Y168.739
X125.796 Y168.285
X125.638 Y167.808
X125.497 Y167.308
X125.373 Y166.789
X125.269 Y166.251
X125.185 Y165.701
X125.125 Y165.139
X125.087 Y164.567
X125.073 Y163.988
X125.084 Y163.406
X125.119 Y162.825
X125.177 Y162.253
X125.258 Y161.7
X125.357 Y161.171
X125.474 Y160.669
X125.607 Y160.189
X125.753 Y159.735
X125.895 Y159.352
X126.044 Y158.997
X126.198 Y158.668
X126.339 Y158.398
X126.504 Y158.112
X126.659 Y157.866
X126.727 Y157.769
X127.011 Y157.414
X127.341 Y157.102
X127.711 Y156.838
X128.113 Y156.628
X128.54 Y156.474
X128.985 Y156.381
X129.438 Y156.35
X131.019
G3 X132.244 Y157.595 I-0.044 J1.269
G1 X132.524 Y172.357
G3 X131.298 Y173.65 I-1.27 J0.024
G1 X129.963
X129.718 Y173.637
X129.569 Y173.62
X129.421 Y173.596
X129.275 Y173.565
X129.124 Y173.526
X128.962 Y173.477
X128.789 Y173.416
X128.612 Y173.346
X128.425 Y173.262
X128.226 Y173.163
X128.026 Y173.053
X127.818 Y172.926
X127.599 Y172.78
X127.377 Y172.618
X127.154 Y172.441
X126.923 Y172.24
X126.686 Y172.017
X126.453 Y171.778
X126.221 Y171.518
X125.985 Y171.232
X125.75 Y170.919
X125.52 Y170.587
X125.299 Y170.236
X125.082 Y169.857
X124.871 Y169.449
X124.668 Y169.015
X124.479 Y168.561
X124.306 Y168.089
X124.148 Y167.595
X124.006 Y167.078
X123.882 Y166.539
X123.779 Y165.983
X123.697 Y165.412
X123.639 Y164.832
X123.605 Y164.247
X123.596 Y163.662
X123.611 Y163.081
X123.65 Y162.507
X123.712 Y161.951
X123.794 Y161.415
X123.895 Y160.901
X124.011 Y160.421
X124.14 Y159.97
X124.27 Y159.577
X124.416 Y159.191
X124.553 Y158.871
X124.699 Y158.568
X124.849 Y158.285
X124.99 Y158.045
X125.153 Y157.791
X125.184 Y157.747
X125.468 Y157.398
X125.798 Y157.09
X126.166 Y156.831
X126.566 Y156.623
X126.99 Y156.472
X127.431 Y156.381
X127.88 Y156.35
X129.438
G3 X129.921 Y156.464 I-0.044 J1.269
X130.663 Y157.574 I-0.527 J1.156
G1 X131.188 Y172.336
G3 X130.445 Y173.536 I-1.269 J0.045
X129.963 Y173.65 I-0.527 J-1.156
G1 X128.554
X128.317 Y173.637
X128.168 Y173.62
X128.02 Y173.595
X127.874 Y173.563
X127.722 Y173.524
X127.556 Y173.473
X127.384 Y173.413
X127.206 Y173.342
X127.014 Y173.256
X126.817 Y173.157
X126.615 Y173.045
X126.4 Y172.914
X126.18 Y172.766
X125.96 Y172.605
X125.731 Y172.422
X125.494 Y172.216
X125.259 Y171.993
X125.023 Y171.75
X124.782 Y171.48
X124.539 Y171.183
X124.303 Y170.869
X124.072 Y170.533
X123.843 Y170.168
X123.618 Y169.774
X123.401 Y169.353
X123.198 Y168.915
X123.007 Y168.455
X122.829 Y167.967
X122.666 Y167.454
X122.52 Y166.92
X122.394 Y166.367
X122.29 Y165.8
X122.209 Y165.223
X122.151 Y164.64
X122.118 Y164.054
X122.11 Y163.47
X122.126 Y162.895
X122.166 Y162.336
X122.227 Y161.791
X122.308 Y161.269
X122.407 Y160.771
X122.52 Y160.305
X122.646 Y159.867
X122.771 Y159.494
X122.912 Y159.123
X123.044 Y158.816
X123.187 Y158.519
X123.333 Y158.245
X123.472 Y158.01
X123.632 Y157.762
X123.646 Y157.742
X123.931 Y157.394
X124.26 Y157.088
X124.627 Y156.829
X125.027 Y156.622
X125.45 Y156.472
X125.891 Y156.381
X126.339 Y156.35
X127.88
G3 X128.363 Y156.464 I-0.044 J1.269
X129.105 Y157.561 I-0.527 J1.156
G1 X129.779 Y172.323
G3 X129.037 Y173.536 I-1.269 J0.058
X128.554 Y173.65 I-0.527 J-1.156
G1 X127.108
X126.958 Y173.643
X126.808 Y173.627
X126.66 Y173.604
X126.513 Y173.575
X126.359 Y173.536
X126.195 Y173.488
X126.027 Y173.431
X125.844 Y173.361
X125.654 Y173.278
X125.46 Y173.183
X125.252 Y173.071
X125.037 Y172.943
X124.822 Y172.802
X124.596 Y172.64
X124.36 Y172.456
X124.127 Y172.257
X123.889 Y172.037
X123.644 Y171.79
X123.398 Y171.52
X123.158 Y171.233
X122.917 Y170.92
X122.676 Y170.577
X122.437 Y170.205
X122.209 Y169.814
X121.99 Y169.401
X121.779 Y168.959
X121.578 Y168.488
X121.39 Y167.991
X121.219 Y167.473
X121.067 Y166.938
X120.936 Y166.389
X120.826 Y165.825
X120.739 Y165.25
X120.675 Y164.668
X120.636 Y164.082
X120.621 Y163.498
X120.631 Y162.922
X120.664 Y162.362
X120.719 Y161.824
X120.793 Y161.311
X120.885 Y160.82
X120.994 Y160.351
X121.115 Y159.913
X121.236 Y159.537
X121.37 Y159.173
X121.502 Y158.858
X121.635 Y158.572
X121.782 Y158.289
X121.918 Y158.054
X122.073 Y157.808
X122.098 Y157.771
X122.382 Y157.416
X122.712 Y157.104
X123.082 Y156.839
X123.485 Y156.628
X123.913 Y156.475
X124.358 Y156.381
X124.811 Y156.35
X126.339
G3 X126.821 Y156.464 I-0.044 J1.269
X127.563 Y157.553 I-0.527 J1.156
G1 X128.331 Y172.315
G3 X127.59 Y173.536 I-1.268 J0.066
X127.108 Y173.65 I-0.527 J-1.156
G1 X125.678
X125.528 Y173.643
X125.379 Y173.626
X125.231 Y173.602
X125.084 Y173.572
X124.932 Y173.533
X124.764 Y173.484
X124.59 Y173.424
X124.409 Y173.353
X124.214 Y173.267
X124.014 Y173.169
X123.809 Y173.057
X123.59 Y172.925
X123.365 Y172.777
X123.139 Y172.614
X122.903 Y172.428
X122.659 Y172.219
X122.419 Y171.994
X122.175 Y171.746
X121.925 Y171.469
X121.674 Y171.168
X121.431 Y170.849
X121.189 Y170.501
X120.948 Y170.124
X120.712 Y169.717
X120.488 Y169.289
X120.277 Y168.842
X120.077 Y168.369
X119.89 Y167.869
X119.72 Y167.346
X119.568 Y166.802
X119.436 Y166.243
X119.326 Y165.671
X119.241 Y165.092
X119.179 Y164.51
X119.143 Y163.93
X119.131 Y163.354
X119.143 Y162.787
X119.178 Y162.237
X119.234 Y161.704
X119.309 Y161.193
X119.401 Y160.713
X119.508 Y160.262
X119.627 Y159.834
X119.744 Y159.476
X119.88 Y159.112
X120.005 Y158.816
X120.144 Y158.521
X120.285 Y158.253
X120.42 Y158.021
X120.576 Y157.775
X120.586 Y157.761
X120.87 Y157.408
X121.2 Y157.098
X121.569 Y156.836
X121.971 Y156.626
X122.397 Y156.474
X122.84 Y156.381
X123.292 Y156.35
X124.811
G3 X125.294 Y156.464 I-0.044 J1.269
X126.035 Y157.545 I-0.527 J1.156
G1 X126.901 Y172.306
G3 X126.16 Y173.536 I-1.268 J0.074
X125.678 Y173.65 I-0.527 J-1.156
G1 X124.248
X124.099 Y173.643
X123.95 Y173.626
X123.801 Y173.602
X123.655 Y173.571
X123.499 Y173.531
X123.329 Y173.481
X123.156 Y173.421
X122.97 Y173.348
X122.772 Y173.26
X122.572 Y173.162
X122.362 Y173.046
X122.139 Y172.912
X121.915 Y172.764
X121.684 Y172.597
X121.442 Y172.405
X121.198 Y172.195
X120.955 Y171.967
X120.704 Y171.712
X120.449 Y171.43
X120.199 Y171.128
X119.953 Y170.804
X119.707 Y170.45
X119.462 Y170.065
X119.225 Y169.654
X119.001 Y169.225
X118.787 Y168.771
X118.584 Y168.289
X118.396 Y167.782
X118.224 Y167.253
X118.072 Y166.706
X117.941 Y166.145
X117.832 Y165.574
X117.747 Y164.996
X117.687 Y164.415
X117.651 Y163.836
X117.64 Y163.264
X117.653 Y162.702
X117.688 Y162.16
X117.744 Y161.632
X117.819 Y161.13
X117.911 Y160.655
X118.016 Y160.211
X118.135 Y159.789
X118.25 Y159.438
X118.384 Y159.081
X118.507 Y158.79
X118.646 Y158.498
X118.785 Y158.234
X118.919 Y158.003
X119.076 Y157.757
X119.36 Y157.405
X119.69 Y157.096
X120.059 Y156.834
X120.46 Y156.625
X120.886 Y156.473
X121.328 Y156.381
X121.779 Y156.35
X123.292
G3 X123.774 Y156.464 I-0.044 J1.269
X124.515 Y157.537 I-0.527 J1.156
G1 X125.471 Y172.299
G3 X124.731 Y173.536 I-1.267 J0.082
X124.248 Y173.65 I-0.527 J-1.156
G1 X122.84
X122.69 Y173.643
X122.541 Y173.627
X122.392 Y173.604
X122.245 Y173.575
X122.087 Y173.536
X121.92 Y173.488
X121.747 Y173.43
X121.558 Y173.357
X121.364 Y173.273
X121.163 Y173.176
X120.949 Y173.061
X120.729 Y172.931
X120.505 Y172.785
X120.269 Y172.617
X120.026 Y172.428
X119.786 Y172.224
X119.537 Y171.995
X119.281 Y171.738
X119.028 Y171.462
X118.778 Y171.165
X118.525 Y170.838
X118.272 Y170.48
X118.025 Y170.098
X117.789 Y169.698
X117.56 Y169.269
X117.34 Y168.81
X117.132 Y168.326
X116.938 Y167.818
X116.763 Y167.29
X116.607 Y166.748
X116.472 Y166.192
X116.36 Y165.624
X116.27 Y165.048
X116.205 Y164.468
X116.165 Y163.888
X116.149 Y163.315
X116.157 Y162.754
X116.188 Y162.213
X116.24 Y161.69
X116.311 Y161.19
X116.399 Y160.711
X116.502 Y160.262
X116.617 Y159.839
X116.73 Y159.485
X116.861 Y159.127
X116.985 Y158.829
X117.117 Y158.543
X117.258 Y158.271
X117.389 Y158.041
X117.542 Y157.798
X117.555 Y157.779
X117.839 Y157.422
X118.169 Y157.108
X118.54 Y156.842
X118.943 Y156.63
X119.372 Y156.475
X119.818 Y156.382
X120.273 Y156.35
X121.779
G3 X123.002 Y157.528 I-0.044 J1.269
G1 X124.062 Y172.29
G3 X122.84 Y173.65 I-1.267 J0.091
G1 X121.393
X121.243 Y173.643
X121.094 Y173.627
X120.946 Y173.604
X120.799 Y173.575
X120.641 Y173.536
X120.47 Y173.486
X120.296 Y173.428
X120.108 Y173.356
X119.909 Y173.27
X119.708 Y173.172
X119.494 Y173.057
X119.269 Y172.924
X119.043 Y172.778
X118.807 Y172.609
X118.561 Y172.418
X118.316 Y172.211
X118.068 Y171.982
X117.812 Y171.725
X117.552 Y171.442
X117.3 Y171.142
X117.046 Y170.814
X116.792 Y170.456
X116.542 Y170.068
X116.301 Y169.659
X116.072 Y169.23
X115.852 Y168.772
X115.644 Y168.288
X115.451 Y167.78
X115.274 Y167.251
X115.117 Y166.704
X114.981 Y166.143
X114.868 Y165.574
X114.779 Y164.999
X114.715 Y164.422
X114.674 Y163.846
X114.659 Y163.278
X114.667 Y162.72
X114.697 Y162.18
X114.749 Y161.657
X114.82 Y161.157
X114.907 Y160.686
X115.008 Y160.243
X115.122 Y159.824
X115.234 Y159.473
X115.365 Y159.116
X115.485 Y158.824
X115.621 Y158.533
X115.758 Y158.267
X115.889 Y158.037
X116.043 Y157.793
X116.052 Y157.779
X116.336 Y157.422
X116.666 Y157.108
X117.037 Y156.842
X117.44 Y156.63
X117.869 Y156.475
X118.316 Y156.382
X118.771 Y156.35
X120.273
G3 X120.756 Y156.464 I-0.044 J1.269
X121.495 Y157.523 I-0.527 J1.156
G1 X122.615 Y172.285
G3 X121.875 Y173.536 I-1.266 J0.096
X121.393 Y173.65 I-0.527 J-1.156
G1 X119.964
X119.814 Y173.643
X119.664 Y173.628
X119.516 Y173.607
X119.369 Y173.578
X119.21 Y173.541
X119.042 Y173.493
X118.868 Y173.436
X118.678 Y173.365
X118.483 Y173.282
X118.281 Y173.186
X118.064 Y173.072
X117.842 Y172.943
X117.616 Y172.798
X117.377 Y172.63
X117.131 Y172.442
X116.887 Y172.239
X116.635 Y172.009
X116.375 Y171.753
X116.119 Y171.477
X115.865 Y171.18
X115.608 Y170.852
X115.35 Y170.493
X115.099 Y170.111
X114.859 Y169.71
X114.625 Y169.28
X114.401 Y168.821
X114.189 Y168.336
X113.991 Y167.828
X113.811 Y167.301
X113.651 Y166.759
X113.512 Y166.204
X113.396 Y165.638
X113.302 Y165.064
X113.233 Y164.486
X113.189 Y163.909
X113.169 Y163.34
X113.173 Y162.781
X113.2 Y162.244
X113.247 Y161.722
X113.314 Y161.223
X113.399 Y160.747
X113.497 Y160.299
X113.609 Y159.877
X113.72 Y159.523
X113.848 Y159.164
X113.97 Y158.864
X114.1 Y158.578
X114.239 Y158.304
X114.368 Y158.074
X114.519 Y157.829
X114.54 Y157.799
X114.823 Y157.437
X115.154 Y157.119
X115.526 Y156.849
X115.932 Y156.634
X116.364 Y156.477
X116.813 Y156.382
X117.272 Y156.35
X118.771
G3 X119.253 Y156.464 I-0.044 J1.269
X119.992 Y157.517 I-0.527 J1.156
G1 X121.185 Y172.278
G3 X120.446 Y173.536 I-1.266 J0.102
X119.964 Y173.65 I-0.527 J-1.156
G1 X118.534
X118.447 Y173.646
X118.297 Y173.637
X118.148 Y173.62
X118 Y173.596
X117.847 Y173.563
X117.688 Y173.523
X117.515 Y173.471
X117.332 Y173.408
X117.145 Y173.335
X116.942 Y173.245
X116.732 Y173.141
X116.518 Y173.024
X116.289 Y172.886
X116.053 Y172.731
X115.817 Y172.56
X115.57 Y172.365
X115.315 Y172.145
X115.063 Y171.909
X114.808 Y171.649
X114.547 Y171.359
X114.284 Y171.042
X114.029 Y170.707
X113.777 Y170.345
X113.528 Y169.953
X113.284 Y169.531
X113.05 Y169.084
X112.83 Y168.617
X112.626 Y168.131
X112.436 Y167.621
X112.264 Y167.089
X112.111 Y166.54
X111.979 Y165.977
X111.87 Y165.406
X111.786 Y164.83
X111.726 Y164.254
X111.69 Y163.68
X111.679 Y163.114
X111.692 Y162.558
X111.726 Y162.023
X111.781 Y161.513
X111.853 Y161.031
X111.942 Y160.57
X112.046 Y160.131
X112.157 Y159.734
X112.273 Y159.382
X112.4 Y159.042
X112.519 Y158.762
X112.659 Y158.467
X112.791 Y158.216
X112.926 Y157.983
X113.079 Y157.745
X113.36 Y157.396
X113.687 Y157.089
X114.052 Y156.83
X114.449 Y156.623
X114.871 Y156.472
X115.31 Y156.381
X115.757 Y156.35
X117.272
G3 X117.754 Y156.464 I-0.044 J1.269
X118.493 Y157.511 I-0.527 J1.156
G1 X119.755 Y172.273
G3 X119.016 Y173.536 I-1.265 J0.108
X118.534 Y173.65 I-0.527 J-1.156
G1 X117.01
X116.86 Y173.643
X116.711 Y173.627
X116.563 Y173.604
X116.414 Y173.574
X116.25 Y173.533
X116.081 Y173.484
X115.902 Y173.424
X115.708 Y173.349
X115.511 Y173.264
X115.302 Y173.163
X115.081 Y173.044
X114.858 Y172.912
X114.626 Y172.761
X114.381 Y172.587
X114.137 Y172.396
X113.888 Y172.185
X113.629 Y171.947
X113.367 Y171.684
X113.11 Y171.403
X112.851 Y171.096
X112.591 Y170.759
X112.332 Y170.393
X112.082 Y170.007
X111.842 Y169.598
X111.609 Y169.159
X111.385 Y168.693
X111.174 Y168.201
X110.978 Y167.688
X110.802 Y167.157
X110.645 Y166.611
X110.51 Y166.053
X110.397 Y165.483
X110.308 Y164.908
X110.244 Y164.331
X110.204 Y163.758
X110.189 Y163.193
X110.197 Y162.642
X110.227 Y162.11
X110.278 Y161.596
X110.348 Y161.105
X110.434 Y160.637
X110.535 Y160.199
X110.648 Y159.784
X110.758 Y159.439
X110.887 Y159.087
X111.008 Y158.796
X111.14 Y158.511
X111.278 Y158.245
X111.408 Y158.018
X111.559 Y157.777
X111.843 Y157.42
X112.173 Y157.107
X112.543 Y156.841
X112.946 Y156.629
X113.374 Y156.475
X113.82 Y156.381
X114.274 Y156.35
X115.757
G3 X116.978 Y157.512 I-0.044 J1.269
G1 X118.231 Y172.273
G3 X117.492 Y173.536 I-1.265 J0.107
X117.01 Y173.65 I-0.527 J-1.156
G1 X115.601
X115.362 Y173.637
X115.213 Y173.62
X115.065 Y173.596
X114.916 Y173.565
X114.753 Y173.524
X114.578 Y173.472
X114.399 Y173.411
X114.206 Y173.335
X114.002 Y173.246
X113.796 Y173.144
X113.575 Y173.024
X113.344 Y172.886
X113.113 Y172.734
X112.871 Y172.559
X112.619 Y172.361
X112.369 Y172.147
X112.115 Y171.91
X111.854 Y171.644
X111.589 Y171.353
X111.331 Y171.043
X111.074 Y170.706
X110.817 Y170.338
X110.563 Y169.94
X110.319 Y169.52
X110.088 Y169.081
X109.867 Y168.615
X109.66 Y168.124
X109.467 Y167.609
X109.292 Y167.074
X109.137 Y166.524
X109.005 Y165.961
X108.895 Y165.391
X108.81 Y164.817
X108.749 Y164.243
X108.712 Y163.673
X108.7 Y163.11
X108.711 Y162.558
X108.744 Y162.025
X108.798 Y161.511
X108.87 Y161.026
X108.957 Y160.568
X109.059 Y160.133
X109.172 Y159.73
X109.283 Y159.386
X109.411 Y159.043
X109.529 Y158.763
X109.666 Y158.472
X109.799 Y158.218
X109.932 Y157.989
X110.002 Y157.879
X110.284 Y157.499
X110.617 Y157.163
X110.995 Y156.879
X111.409 Y156.651
X111.852 Y156.485
X112.314 Y156.384
X112.786 Y156.35
X114.274
G3 X115.495 Y157.506 I-0.044 J1.269
G1 X116.822 Y172.267
G3 X116.084 Y173.536 I-1.265 J0.114
X115.601 Y173.65 I-0.527 J-1.156
G1 X114.078
X113.928 Y173.643
X113.779 Y173.627
X113.63 Y173.605
X113.481 Y173.576
X113.317 Y173.536
X113.15 Y173.489
X112.969 Y173.429
X112.775 Y173.355
X112.579 Y173.271
X112.369 Y173.171
X112.148 Y173.053
X111.926 Y172.923
X111.692 Y172.772
X111.446 Y172.599
X111.202 Y172.411
X110.95 Y172.2
X110.69 Y171.962
X110.428 Y171.702
X110.171 Y171.424
X109.91 Y171.117
X109.647 Y170.779
X109.387 Y170.415
X109.137 Y170.032
X108.894 Y169.622
X108.657 Y169.183
X108.43 Y168.717
X108.217 Y168.225
X108.019 Y167.713
X107.841 Y167.185
X107.682 Y166.642
X107.545 Y166.085
X107.43 Y165.518
X107.338 Y164.943
X107.271 Y164.366
X107.229 Y163.792
X107.211 Y163.226
X107.216 Y162.673
X107.244 Y162.142
X107.292 Y161.628
X107.36 Y161.138
X107.444 Y160.668
X107.543 Y160.228
X107.648 Y159.836
X107.765 Y159.464
X107.887 Y159.126
X108.005 Y158.838
X108.143 Y158.537
X108.271 Y158.286
X108.408 Y158.045
X108.557 Y157.804
X108.567 Y157.791
X108.85 Y157.431
X109.181 Y157.114
X109.552 Y156.846
X109.957 Y156.632
X110.388 Y156.477
X110.836 Y156.382
X111.293 Y156.35
X112.786
G3 X113.269 Y156.464 I-0.044 J1.269
X114.007 Y157.509 I-0.527 J1.156
G1 X115.298 Y172.27
G3 X114.56 Y173.536 I-1.265 J0.111
X114.078 Y173.65 I-0.527 J-1.156
G1 X112.631
X112.551 Y173.646
X112.402 Y173.637
X112.253 Y173.619
X112.105 Y173.595
X111.951 Y173.563
X111.79 Y173.522
X111.612 Y173.469
X111.431 Y173.406
X111.239 Y173.331
X111.032 Y173.239
X110.823 Y173.136
X110.603 Y173.016
X110.37 Y172.875
X110.135 Y172.719
X109.894 Y172.545
X109.642 Y172.345
X109.386 Y172.125
X109.132 Y171.887
X108.871 Y171.621
X108.604 Y171.326
X108.342 Y171.009
X108.085 Y170.671
X107.829 Y170.302
X107.576 Y169.904
X107.329 Y169.478
X107.095 Y169.03
X106.876 Y168.564
X106.67 Y168.073
X106.479 Y167.558
X106.305 Y167.023
X106.151 Y166.472
X106.02 Y165.908
X105.911 Y165.337
X105.827 Y164.762
X105.768 Y164.188
X105.732 Y163.618
X105.722 Y163.055
X105.734 Y162.507
X105.768 Y161.975
X105.822 Y161.471
X105.894 Y160.993
X105.982 Y160.537
X106.085 Y160.103
X106.196 Y159.71
X106.31 Y159.362
X106.436 Y159.026
X106.553 Y158.748
X106.692 Y158.456
X106.823 Y158.206
X106.958 Y157.975
X107.024 Y157.872
X107.306 Y157.494
X107.639 Y157.16
X108.016 Y156.876
X108.43 Y156.65
X108.872 Y156.484
X109.333 Y156.384
X109.804 Y156.35
X111.293
G3 X111.775 Y156.464 I-0.044 J1.269
X112.513 Y157.505 I-0.527 J1.156
G1 X113.851 Y172.266
G3 X113.113 Y173.536 I-1.265 J0.115
X112.631 Y173.65 I-0.527 J-1.156
G1 X111.107
X110.957 Y173.643
X110.808 Y173.627
X110.66 Y173.604
X110.508 Y173.574
X110.343 Y173.533
X110.175 Y173.484
X109.992 Y173.423
X109.797 Y173.348
X109.599 Y173.263
X109.387 Y173.16
X109.164 Y173.041
X108.94 Y172.909
X108.704 Y172.756
X108.458 Y172.58
X108.212 Y172.39
X107.959 Y172.176
X107.697 Y171.934
X107.434 Y171.671
X107.176 Y171.39
X106.914 Y171.079
X106.65 Y170.738
X106.39 Y170.371
X106.14 Y169.985
X105.897 Y169.572
X105.66 Y169.13
X105.435 Y168.661
X105.222 Y168.167
X105.026 Y167.652
X104.848 Y167.121
X104.691 Y166.575
X104.555 Y166.017
X104.442 Y165.448
X104.353 Y164.873
X104.288 Y164.298
X104.248 Y163.727
X104.232 Y163.164
X104.239 Y162.616
X104.269 Y162.087
X104.319 Y161.576
X104.388 Y161.089
X104.473 Y160.623
X104.573 Y160.187
X104.678 Y159.801
X104.796 Y159.429
X104.917 Y159.097
X105.036 Y158.81
X105.174 Y158.511
X105.302 Y158.264
X105.44 Y158.021
X105.591 Y157.781
X105.875 Y157.424
X106.206 Y157.109
X106.576 Y156.843
X106.98 Y156.63
X107.409 Y156.476
X107.856 Y156.382
X108.311 Y156.35
X109.804
G3 X110.286 Y156.464 I-0.044 J1.269
X111.025 Y157.508 I-0.527 J1.156
G1 X112.328 Y172.269
G3 X111.589 Y173.536 I-1.265 J0.112
X111.107 Y173.65 I-0.527 J-1.156
G1 X109.678
X109.593 Y173.646
X109.443 Y173.637
X109.294 Y173.62
X109.146 Y173.595
X108.995 Y173.564
X108.831 Y173.523
X108.654 Y173.47
X108.474 Y173.408
X108.279 Y173.332
X108.074 Y173.242
X107.866 Y173.139
X107.643 Y173.018
X107.411 Y172.878
X107.178 Y172.725
X106.934 Y172.549
X106.68 Y172.349
X106.428 Y172.133
X106.172 Y171.894
X105.908 Y171.626
X105.641 Y171.331
X105.382 Y171.019
X105.122 Y170.679
X104.863 Y170.308
X104.608 Y169.908
X104.363 Y169.485
X104.13 Y169.043
X103.909 Y168.576
X103.701 Y168.082
X103.508 Y167.566
X103.333 Y167.03
X103.179 Y166.479
X103.046 Y165.916
X102.937 Y165.346
X102.852 Y164.773
X102.791 Y164.2
X102.755 Y163.631
X102.743 Y163.071
X102.755 Y162.524
X102.788 Y161.993
X102.841 Y161.485
X102.912 Y161.005
X102.999 Y160.552
X103.101 Y160.118
X103.213 Y159.719
X103.325 Y159.376
X103.451 Y159.036
X103.569 Y158.757
X103.706 Y158.466
X103.838 Y158.214
X103.971 Y157.985
X104.04 Y157.877
X104.321 Y157.498
X104.655 Y157.162
X105.032 Y156.878
X105.447 Y156.651
X105.89 Y156.485
X106.352 Y156.384
X106.823 Y156.35
X108.311
G3 X108.793 Y156.464 I-0.044 J1.269
X109.531 Y157.502 I-0.527 J1.156
G1 X110.898 Y172.264
G3 X110.16 Y173.536 I-1.265 J0.117
X109.678 Y173.65 I-0.527 J-1.156
G1 X108.154
X108.004 Y173.643
X107.855 Y173.627
X107.706 Y173.605
X107.555 Y173.576
X107.391 Y173.536
X107.223 Y173.488
X107.04 Y173.428
X106.847 Y173.354
X106.649 Y173.27
X106.437 Y173.169
X106.215 Y173.051
X105.992 Y172.92
X105.756 Y172.768
X105.509 Y172.594
X105.264 Y172.406
X105.01 Y172.193
X104.748 Y171.953
X104.486 Y171.693
X104.227 Y171.414
X103.964 Y171.104
X103.699 Y170.764
X103.438 Y170.4
X103.188 Y170.017
X102.943 Y169.605
X102.705 Y169.163
X102.477 Y168.695
X102.263 Y168.202
X102.065 Y167.69
X101.886 Y167.162
X101.727 Y166.618
X101.59 Y166.062
X101.475 Y165.494
X101.383 Y164.92
X101.316 Y164.344
X101.273 Y163.772
X101.255 Y163.209
X101.26 Y162.658
X101.288 Y162.129
X101.336 Y161.618
X101.402 Y161.13
X101.487 Y160.662
X101.585 Y160.223
X101.689 Y159.832
X101.806 Y159.461
X101.927 Y159.124
X102.045 Y158.837
X102.183 Y158.536
X102.311 Y158.285
X102.446 Y158.045
X102.596 Y157.804
X102.604 Y157.792
X102.888 Y157.432
X103.219 Y157.115
X103.59 Y156.847
X103.995 Y156.633
X104.426 Y156.477
X104.874 Y156.382
X105.331 Y156.35
X106.823
G3 X107.305 Y156.464 I-0.044 J1.269
X108.044 Y157.505 I-0.527 J1.156
G1 X109.374 Y172.267
G3 X108.636 Y173.536 I-1.265 J0.114
X108.154 Y173.65 I-0.527 J-1.156
G1 X106.724
X106.482 Y173.637
X106.333 Y173.62
X106.185 Y173.596
X106.033 Y173.565
X105.871 Y173.525
X105.694 Y173.472
X105.513 Y173.411
X105.32 Y173.336
X105.114 Y173.246
X104.906 Y173.144
X104.684 Y173.024
X104.45 Y172.884
X104.217 Y172.731
X103.974 Y172.557
X103.72 Y172.358
X103.466 Y172.141
X103.211 Y171.904
X102.947 Y171.637
X102.68 Y171.343
X102.419 Y171.03
X102.159 Y170.692
X101.901 Y170.323
X101.645 Y169.925
X101.398 Y169.501
X101.164 Y169.058
X100.943 Y168.593
X100.734 Y168.102
X100.541 Y167.587
X100.365 Y167.052
X100.209 Y166.502
X100.075 Y165.939
X99.965 Y165.37
X99.879 Y164.797
X99.817 Y164.224
X99.779 Y163.655
X99.766 Y163.093
X99.776 Y162.546
X99.808 Y162.014
X99.861 Y161.506
X99.931 Y161.026
X100.016 Y160.571
X100.117 Y160.137
X100.228 Y159.738
X100.34 Y159.392
X100.466 Y159.051
X100.583 Y158.772
X100.721 Y158.479
X100.853 Y158.227
X100.985 Y157.997
X101.137 Y157.757
X101.419 Y157.406
X101.746 Y157.096
X102.113 Y156.834
X102.512 Y156.625
X102.936 Y156.473
X103.377 Y156.381
X103.827 Y156.35
X105.331
G3 X105.814 Y156.464 I-0.044 J1.269
X106.552 Y157.5 I-0.527 J1.156
G1 X107.944 Y172.261
G3 X107.206 Y173.536 I-1.264 J0.119
X106.724 Y173.65 I-0.527 J-1.156
G1 X105.2
X105.05 Y173.643
X104.901 Y173.628
X104.753 Y173.607
X104.602 Y173.578
X104.439 Y173.54
X104.273 Y173.493
X104.09 Y173.434
X103.898 Y173.363
X103.701 Y173.28
X103.489 Y173.18
X103.27 Y173.064
X103.047 Y172.936
X102.81 Y172.785
X102.565 Y172.614
X102.321 Y172.428
X102.067 Y172.217
X101.804 Y171.979
X101.544 Y171.724
X101.284 Y171.446
X101.02 Y171.139
X100.754 Y170.801
X100.494 Y170.442
X100.243 Y170.062
X99.996 Y169.652
X99.756 Y169.212
X99.527 Y168.746
X99.31 Y168.256
X99.111 Y167.748
X98.93 Y167.223
X98.769 Y166.683
X98.629 Y166.127
X98.511 Y165.56
X98.416 Y164.986
X98.346 Y164.41
X98.3 Y163.837
X98.279 Y163.271
X98.281 Y162.718
X98.306 Y162.187
X98.352 Y161.675
X98.416 Y161.186
X98.498 Y160.715
X98.595 Y160.272
X98.704 Y159.855
X98.812 Y159.504
X98.937 Y159.151
X99.058 Y158.851
X99.185 Y158.572
X99.323 Y158.298
X99.451 Y158.068
X99.599 Y157.827
X99.613 Y157.806
X99.897 Y157.443
X100.228 Y157.123
X100.6 Y156.852
X101.007 Y156.636
X101.44 Y156.478
X101.89 Y156.382
X102.35 Y156.35
X103.827
G3 X104.309 Y156.464 I-0.044 J1.269
X105.047 Y157.502 I-0.527 J1.156
G1 X106.42 Y172.263
G3 X105.683 Y173.536 I-1.265 J0.118
X105.2 Y173.65 I-0.527 J-1.156
G1 X103.676
X103.527 Y173.643
X103.377 Y173.626
X103.229 Y173.603
X103.077 Y173.572
X102.915 Y173.532
X102.738 Y173.481
X102.557 Y173.42
X102.365 Y173.346
X102.158 Y173.256
X101.949 Y173.154
X101.729 Y173.036
X101.495 Y172.897
X101.261 Y172.744
X101.019 Y172.572
X100.766 Y172.374
X100.509 Y172.157
X100.254 Y171.921
X99.991 Y171.657
X99.723 Y171.364
X99.46 Y171.05
X99.201 Y170.714
X98.942 Y170.348
X98.687 Y169.953
X98.439 Y169.529
X98.203 Y169.085
X97.981 Y168.622
X97.771 Y168.133
X97.577 Y167.62
X97.4 Y167.087
X97.243 Y166.537
X97.107 Y165.975
X96.995 Y165.405
X96.907 Y164.832
X96.843 Y164.259
X96.804 Y163.689
X96.789 Y163.127
X96.798 Y162.575
X96.829 Y162.042
X96.88 Y161.532
X96.948 Y161.052
X97.033 Y160.593
X97.134 Y160.157
X97.243 Y159.758
X97.354 Y159.411
X97.48 Y159.069
X97.596 Y158.788
X97.733 Y158.495
X97.864 Y158.241
X97.996 Y158.011
X98.148 Y157.771
X98.431 Y157.416
X98.76 Y157.103
X99.128 Y156.839
X99.53 Y156.628
X99.957 Y156.475
X100.401 Y156.381
X100.854 Y156.35
X102.35
G3 X102.832 Y156.464 I-0.044 J1.269
X103.57 Y157.506 I-0.527 J1.156
G1 X104.897 Y172.267
G3 X104.159 Y173.536 I-1.265 J0.114
X103.676 Y173.65 I-0.527 J-1.156
G1 X102.268
X102.024 Y173.637
X101.875 Y173.62
X101.726 Y173.596
X101.577 Y173.566
X101.412 Y173.525
X101.237 Y173.473
X101.057 Y173.412
X100.86 Y173.336
X100.657 Y173.247
X100.448 Y173.145
X100.223 Y173.023
X99.994 Y172.886
X99.761 Y172.734
X99.514 Y172.557
X99.261 Y172.359
X99.009 Y172.144
X98.75 Y171.904
X98.484 Y171.635
X98.22 Y171.345
X97.961 Y171.035
X97.699 Y170.695
X97.439 Y170.324
X97.183 Y169.926
X96.939 Y169.508
X96.706 Y169.067
X96.483 Y168.598
X96.273 Y168.104
X96.078 Y167.588
X95.902 Y167.053
X95.745 Y166.502
X95.611 Y165.939
X95.5 Y165.369
X95.413 Y164.795
X95.351 Y164.223
X95.313 Y163.655
X95.3 Y163.095
X95.31 Y162.547
X95.341 Y162.018
X95.394 Y161.507
X95.464 Y161.025
X95.549 Y160.569
X95.649 Y160.138
X95.761 Y159.734
X95.871 Y159.393
X95.998 Y159.049
X96.115 Y158.769
X96.251 Y158.479
X96.384 Y158.224
X96.515 Y157.996
X96.667 Y157.757
X96.948 Y157.405
X97.275 Y157.096
X97.641 Y156.834
X98.04 Y156.625
X98.464 Y156.473
X98.905 Y156.381
X99.354 Y156.35
X100.854
G3 X102.074 Y157.498 I-0.044 J1.269
G1 X103.488 Y172.26
G3 X102.75 Y173.536 I-1.264 J0.121
X102.268 Y173.65 I-0.527 J-1.156
G1 X100.744
X100.594 Y173.643
X100.445 Y173.629
X100.296 Y173.607
X100.146 Y173.579
X99.984 Y173.541
X99.817 Y173.495
X99.634 Y173.436
X99.442 Y173.364
X99.246 Y173.282
X99.034 Y173.182
X98.815 Y173.068
X98.592 Y172.939
X98.355 Y172.789
X98.11 Y172.619
X97.866 Y172.433
X97.612 Y172.223
X97.349 Y171.986
X97.089 Y171.732
X96.83 Y171.455
X96.565 Y171.148
X96.298 Y170.81
X96.038 Y170.452
X95.787 Y170.072
X95.539 Y169.662
X95.299 Y169.223
X95.068 Y168.756
X94.851 Y168.267
X94.651 Y167.76
X94.47 Y167.235
X94.308 Y166.695
X94.167 Y166.139
X94.048 Y165.572
X93.953 Y164.999
X93.881 Y164.423
X93.835 Y163.849
X93.813 Y163.283
X93.815 Y162.729
X93.839 Y162.196
X93.884 Y161.684
X93.947 Y161.195
X94.029 Y160.724
X94.125 Y160.28
X94.234 Y159.862
X94.342 Y159.51
X94.466 Y159.157
X94.587 Y158.857
X94.713 Y158.578
X94.851 Y158.303
X94.978 Y158.073
X95.126 Y157.833
X95.141 Y157.81
X95.425 Y157.446
X95.756 Y157.125
X96.129 Y156.853
X96.536 Y156.636
X96.969 Y156.478
X97.42 Y156.382
X97.881 Y156.35
X99.354
G3 X100.574 Y157.5 I-0.044 J1.269
G1 X101.964 Y172.262
G3 X101.226 Y173.536 I-1.264 J0.119
X100.744 Y173.65 I-0.527 J-1.156
G1 X99.22
X99.07 Y173.643
X98.921 Y173.627
X98.773 Y173.604
X98.621 Y173.573
X98.46 Y173.534
X98.283 Y173.482
X98.102 Y173.422
X97.91 Y173.348
X97.704 Y173.259
X97.495 Y173.158
X97.275 Y173.04
X97.041 Y172.902
X96.807 Y172.75
X96.566 Y172.578
X96.312 Y172.382
X96.056 Y172.165
X95.801 Y171.93
X95.538 Y171.666
X95.269 Y171.374
X95.006 Y171.061
X94.747 Y170.726
X94.488 Y170.361
X94.232 Y169.966
X93.983 Y169.543
X93.747 Y169.1
X93.524 Y168.637
X93.314 Y168.149
X93.118 Y167.637
X92.941 Y167.104
X92.782 Y166.554
X92.646 Y165.992
X92.533 Y165.423
X92.444 Y164.849
X92.379 Y164.276
X92.339 Y163.706
X92.323 Y163.143
X92.331 Y162.591
X92.361 Y162.057
X92.411 Y161.546
X92.479 Y161.065
X92.563 Y160.606
X92.663 Y160.17
X92.772 Y159.77
X92.882 Y159.422
X93.008 Y159.079
X93.124 Y158.798
X93.26 Y158.504
X93.391 Y158.25
X93.523 Y158.019
X93.674 Y157.779
X93.957 Y157.422
X94.287 Y157.108
X94.657 Y156.842
X95.061 Y156.63
X95.489 Y156.475
X95.935 Y156.382
X96.39 Y156.35
X97.881
G3 X98.363 Y156.464 I-0.044 J1.269
X99.101 Y157.504 I-0.527 J1.156
G1 X100.441 Y172.266
G3 X99.702 Y173.536 I-1.265 J0.115
X99.22 Y173.65 I-0.527 J-1.156
G1 X97.773
X97.696 Y173.646
X97.547 Y173.637
X97.398 Y173.619
X97.25 Y173.595
X97.098 Y173.563
X96.934 Y173.521
X96.756 Y173.468
X96.575 Y173.406
X96.378 Y173.329
X96.171 Y173.237
X95.962 Y173.134
X95.738 Y173.011
X95.505 Y172.87
X95.271 Y172.716
X95.026 Y172.538
X94.77 Y172.336
X94.516 Y172.118
X94.258 Y171.876
X93.993 Y171.606
X93.726 Y171.31
X93.466 Y170.996
X93.207 Y170.655
X92.948 Y170.283
X92.693 Y169.882
X92.446 Y169.456
X92.214 Y169.011
X91.993 Y168.542
X91.785 Y168.047
X91.593 Y167.53
X91.419 Y166.993
X91.265 Y166.441
X91.133 Y165.877
X91.024 Y165.306
X90.94 Y164.731
X90.88 Y164.158
X90.845 Y163.59
X90.834 Y163.029
X90.846 Y162.482
X90.88 Y161.953
X90.934 Y161.448
X91.006 Y160.972
X91.093 Y160.519
X91.195 Y160.088
X91.306 Y159.695
X91.418 Y159.352
X91.544 Y159.016
X91.661 Y158.74
X91.799 Y158.45
X91.93 Y158.2
X92.063 Y157.971
X92.126 Y157.873
X92.408 Y157.494
X92.741 Y157.16
X93.118 Y156.876
X93.532 Y156.65
X93.975 Y156.484
X94.436 Y156.384
X94.906 Y156.35
X96.39
G3 X97.61 Y157.501 I-0.044 J1.269
G1 X98.993 Y172.262
G3 X98.256 Y173.536 I-1.264 J0.119
X97.773 Y173.65 I-0.527 J-1.156
G1 X96.249
X96.1 Y173.643
X95.951 Y173.627
X95.802 Y173.604
X95.65 Y173.574
X95.485 Y173.534
X95.315 Y173.485
X95.131 Y173.423
X94.936 Y173.349
X94.737 Y173.263
X94.523 Y173.16
X94.301 Y173.041
X94.076 Y172.909
X93.839 Y172.755
X93.591 Y172.579
X93.345 Y172.389
X93.09 Y172.174
X92.827 Y171.931
X92.564 Y171.669
X92.305 Y171.387
X92.041 Y171.075
X91.775 Y170.733
X91.514 Y170.365
X91.264 Y169.979
X91.019 Y169.565
X90.781 Y169.121
X90.554 Y168.65
X90.34 Y168.155
X90.143 Y167.64
X89.965 Y167.109
X89.808 Y166.564
X89.671 Y166.005
X89.557 Y165.437
X89.467 Y164.862
X89.402 Y164.286
X89.361 Y163.716
X89.345 Y163.154
X89.352 Y162.606
X89.381 Y162.079
X89.43 Y161.569
X89.498 Y161.083
X89.583 Y160.619
X89.681 Y160.184
X89.786 Y159.799
X89.903 Y159.428
X90.024 Y159.097
X90.142 Y158.811
X90.279 Y158.513
X90.407 Y158.266
X90.544 Y158.024
X90.695 Y157.784
X90.978 Y157.426
X91.309 Y157.11
X91.68 Y156.844
X92.084 Y156.631
X92.514 Y156.476
X92.961 Y156.382
X93.416 Y156.35
X94.906
G3 X96.127 Y157.504 I-0.044 J1.269
G1 X97.47 Y172.266
G3 X96.732 Y173.536 I-1.265 J0.115
X96.249 Y173.65 I-0.527 J-1.156
G1 X94.82
X94.731 Y173.646
X94.581 Y173.637
X94.432 Y173.62
X94.284 Y173.596
X94.133 Y173.565
X93.969 Y173.524
X93.792 Y173.471
X93.611 Y173.41
X93.416 Y173.334
X93.21 Y173.244
X93.002 Y173.141
X92.778 Y173.02
X92.546 Y172.881
X92.312 Y172.727
X92.067 Y172.551
X91.812 Y172.351
X91.56 Y172.136
X91.303 Y171.896
X91.037 Y171.628
X90.77 Y171.333
X90.51 Y171.021
X90.249 Y170.681
X89.989 Y170.309
X89.733 Y169.909
X89.487 Y169.486
X89.254 Y169.044
X89.032 Y168.576
X88.822 Y168.082
X88.628 Y167.566
X88.452 Y167.03
X88.297 Y166.479
X88.163 Y165.916
X88.053 Y165.346
X87.967 Y164.773
X87.906 Y164.201
X87.869 Y163.633
X87.856 Y163.072
X87.867 Y162.527
X87.899 Y161.996
X87.952 Y161.489
X88.022 Y161.01
X88.108 Y160.557
X88.209 Y160.124
X88.32 Y159.725
X88.431 Y159.382
X88.557 Y159.042
X88.674 Y158.763
X88.811 Y158.473
X88.943 Y158.22
X89.075 Y157.991
X89.144 Y157.882
X89.426 Y157.501
X89.759 Y157.165
X90.137 Y156.88
X90.552 Y156.652
X90.995 Y156.485
X91.458 Y156.384
X91.93 Y156.35
X93.416
G3 X94.636 Y157.499 I-0.044 J1.269
G1 X96.04 Y172.261
G3 X94.82 Y173.65 I-1.264 J0.12
G1 X93.296
X93.146 Y173.643
X92.997 Y173.628
X92.849 Y173.607
X92.698 Y173.578
X92.534 Y173.539
X92.367 Y173.492
X92.184 Y173.432
X91.991 Y173.36
X91.794 Y173.277
X91.581 Y173.176
X91.361 Y173.06
X91.138 Y172.931
X90.9 Y172.779
X90.655 Y172.608
X90.41 Y172.421
X90.155 Y172.208
X89.891 Y171.97
X89.631 Y171.713
X89.371 Y171.434
X89.106 Y171.126
X88.839 Y170.787
X88.579 Y170.426
X88.328 Y170.044
X88.081 Y169.633
X87.841 Y169.192
X87.611 Y168.724
X87.395 Y168.233
X87.196 Y167.723
X87.016 Y167.198
X86.855 Y166.656
X86.715 Y166.1
X86.598 Y165.533
X86.504 Y164.959
X86.434 Y164.383
X86.389 Y163.81
X86.369 Y163.246
X86.372 Y162.694
X86.397 Y162.164
X86.443 Y161.653
X86.508 Y161.165
X86.59 Y160.696
X86.687 Y160.255
X86.791 Y159.86
X86.905 Y159.491
X87.027 Y159.148
X87.143 Y158.861
X87.28 Y158.559
X87.409 Y158.305
X87.542 Y158.067
X87.692 Y157.823
X87.706 Y157.803
X87.99 Y157.44
X88.321 Y157.121
X88.693 Y156.851
X89.099 Y156.635
X89.532 Y156.478
X89.982 Y156.382
X90.441 Y156.35
X91.93
G3 X92.413 Y156.464 I-0.044 J1.269
X93.151 Y157.502 I-0.527 J1.156
G1 X94.516 Y172.264
G3 X93.296 Y173.65 I-1.265 J0.117
G1 X91.772
X91.622 Y173.643
X91.473 Y173.626
X91.325 Y173.603
X91.173 Y173.572
X91.011 Y173.532
X90.833 Y173.48
X90.652 Y173.419
X90.459 Y173.344
X90.252 Y173.254
X90.043 Y173.153
X89.822 Y173.033
X89.588 Y172.894
X89.353 Y172.741
X89.111 Y172.568
X88.856 Y172.369
X88.601 Y172.152
X88.345 Y171.916
X88.081 Y171.65
X87.812 Y171.356
X87.549 Y171.043
X87.29 Y170.706
X87.031 Y170.338
X86.775 Y169.941
X86.526 Y169.517
X86.291 Y169.073
X86.069 Y168.609
X85.859 Y168.119
X85.665 Y167.605
X85.488 Y167.071
X85.331 Y166.521
X85.195 Y165.959
X85.084 Y165.389
X84.996 Y164.816
X84.933 Y164.243
X84.894 Y163.674
X84.879 Y163.112
X84.888 Y162.564
X84.919 Y162.032
X84.97 Y161.525
X85.039 Y161.045
X85.124 Y160.589
X85.224 Y160.154
X85.334 Y159.755
X85.445 Y159.408
X85.571 Y159.066
X85.688 Y158.786
X85.825 Y158.492
X85.956 Y158.239
X86.088 Y158.008
X86.24 Y157.768
X86.522 Y157.414
X86.851 Y157.102
X87.22 Y156.838
X87.621 Y156.628
X88.047 Y156.474
X88.491 Y156.381
X88.943 Y156.35
X90.441
G3 X90.923 Y156.464 I-0.044 J1.269
X91.661 Y157.505 I-0.527 J1.156
G1 X92.993 Y172.267
G3 X92.255 Y173.536 I-1.265 J0.114
X91.772 Y173.65 I-0.527 J-1.156
G1 X90.343
X90.26 Y173.646
X90.11 Y173.637
X89.961 Y173.619
X89.813 Y173.595
X89.662 Y173.564
X89.497 Y173.522
X89.321 Y173.47
X89.14 Y173.408
X88.942 Y173.33
X88.738 Y173.24
X88.528 Y173.137
X88.303 Y173.015
X88.072 Y172.875
X87.838 Y172.721
X87.591 Y172.543
X87.336 Y172.343
X87.084 Y172.126
X86.825 Y171.884
X86.558 Y171.614
X86.293 Y171.32
X86.033 Y171.008
X85.773 Y170.666
X85.513 Y170.294
X85.257 Y169.892
X85.012 Y169.471
X84.78 Y169.028
X84.558 Y168.558
X84.349 Y168.063
X84.155 Y167.545
X83.98 Y167.009
X83.826 Y166.457
X83.693 Y165.894
X83.584 Y165.323
X83.499 Y164.75
X83.438 Y164.178
X83.403 Y163.612
X83.391 Y163.053
X83.402 Y162.506
X83.435 Y161.978
X83.489 Y161.469
X83.56 Y160.991
X83.646 Y160.538
X83.748 Y160.107
X83.86 Y159.708
X83.971 Y159.366
X84.098 Y159.026
X84.215 Y158.748
X84.352 Y158.459
X84.484 Y158.207
X84.616 Y157.978
X84.768 Y157.74
X85.048 Y157.393
X85.372 Y157.087
X85.736 Y156.828
X86.132 Y156.622
X86.552 Y156.472
X86.988 Y156.381
X87.434 Y156.35
X88.943
G3 X89.425 Y156.464 I-0.044 J1.269
X90.163 Y157.499 I-0.527 J1.156
G1 X91.563 Y172.261
G3 X90.825 Y173.536 I-1.264 J0.12
X90.343 Y173.65 I-0.527 J-1.156
G1 X88.819
X88.669 Y173.643
X88.52 Y173.627
X88.371 Y173.605
X88.22 Y173.576
X88.055 Y173.536
X87.887 Y173.488
X87.703 Y173.427
X87.509 Y173.354
X87.311 Y173.269
X87.098 Y173.168
X86.876 Y173.05
X86.652 Y172.919
X86.414 Y172.766
X86.168 Y172.592
X85.922 Y172.404
X85.667 Y172.19
X85.404 Y171.95
X85.142 Y171.69
X84.883 Y171.41
X84.618 Y171.099
X84.352 Y170.758
X84.091 Y170.394
X83.841 Y170.01
X83.595 Y169.597
X83.356 Y169.154
X83.127 Y168.685
X82.912 Y168.191
X82.714 Y167.679
X82.535 Y167.151
X82.376 Y166.608
X82.238 Y166.051
X82.123 Y165.484
X82.031 Y164.91
X81.964 Y164.334
X81.921 Y163.762
X81.902 Y163.199
X81.908 Y162.649
X81.935 Y162.121
X81.983 Y161.61
X82.049 Y161.123
X82.133 Y160.655
X82.231 Y160.217
X82.342 Y159.803
X82.45 Y159.457
X82.576 Y159.106
X82.696 Y158.812
X82.825 Y158.531
X82.962 Y158.262
X83.09 Y158.035
X83.241 Y157.793
X83.525 Y157.433
X83.855 Y157.115
X84.227 Y156.847
X84.632 Y156.633
X85.063 Y156.477
X85.511 Y156.382
X85.969 Y156.35
X87.434
G3 X87.916 Y156.464 I-0.044 J1.269
X88.654 Y157.501 I-0.527 J1.156
G1 X90.039 Y172.262
G3 X89.301 Y173.536 I-1.264 J0.119
X88.819 Y173.65 I-0.527 J-1.156
G1 X87.41
X87.198 Y173.639
X87.049 Y173.626
X86.9 Y173.605
X86.753 Y173.577
X86.59 Y173.539
X86.421 Y173.492
X86.243 Y173.435
X86.049 Y173.363
X85.853 Y173.281
X85.645 Y173.183
X85.422 Y173.067
X85.199 Y172.938
X84.965 Y172.791
X84.719 Y172.62
X84.472 Y172.433
X84.222 Y172.226
X83.962 Y171.992
X83.697 Y171.733
X83.437 Y171.456
X83.174 Y171.152
X82.909 Y170.817
X82.645 Y170.453
X82.39 Y170.07
X82.145 Y169.664
X81.906 Y169.229
X81.677 Y168.767
X81.46 Y168.278
X81.258 Y167.768
X81.075 Y167.239
X80.912 Y166.696
X80.77 Y166.141
X80.651 Y165.575
X80.555 Y165.003
X80.484 Y164.429
X80.437 Y163.858
X80.414 Y163.294
X80.416 Y162.741
X80.439 Y162.209
X80.484 Y161.692
X80.548 Y161.198
X80.629 Y160.727
X80.724 Y160.285
X80.833 Y159.868
X80.939 Y159.52
X81.064 Y159.165
X81.182 Y158.87
X81.31 Y158.585
X81.446 Y158.314
X81.573 Y158.085
X81.722 Y157.841
X81.741 Y157.812
X82.025 Y157.448
X82.356 Y157.126
X82.729 Y156.854
X83.136 Y156.637
X83.57 Y156.479
X84.022 Y156.382
X84.482 Y156.35
X85.969
G3 X86.451 Y156.464 I-0.044 J1.269
X87.188 Y157.496 I-0.527 J1.156
G1 X88.63 Y172.257
G3 X87.893 Y173.536 I-1.264 J0.123
X87.41 Y173.65 I-0.527 J-1.156
G1 X85.886
X85.8 Y173.646
X85.651 Y173.637
X85.502 Y173.62
X85.354 Y173.596
X85.197 Y173.563
X85.036 Y173.523
X84.859 Y173.47
X84.673 Y173.407
X84.482 Y173.332
X84.276 Y173.241
X84.062 Y173.136
X83.843 Y173.017
X83.61 Y172.877
X83.37 Y172.719
X83.129 Y172.545
X82.877 Y172.347
X82.617 Y172.124
X82.361 Y171.885
X82.1 Y171.62
X81.833 Y171.326
X81.566 Y171.004
X81.307 Y170.665
X81.05 Y170.298
X80.797 Y169.901
X80.549 Y169.474
X80.312 Y169.022
X80.089 Y168.551
X79.881 Y168.06
X79.69 Y167.548
X79.516 Y167.015
X79.361 Y166.465
X79.229 Y165.903
X79.119 Y165.333
X79.034 Y164.758
X78.973 Y164.184
X78.936 Y163.613
X78.924 Y163.05
X78.936 Y162.499
X78.968 Y161.972
X79.021 Y161.472
X79.091 Y160.994
X79.179 Y160.536
X79.281 Y160.103
X79.388 Y159.718
X79.503 Y159.365
X79.626 Y159.034
X79.744 Y158.755
X79.882 Y158.462
X80.011 Y158.216
X80.147 Y157.981
X80.297 Y157.745
X80.578 Y157.397
X80.903 Y157.09
X81.268 Y156.83
X81.665 Y156.623
X82.086 Y156.472
X82.524 Y156.381
X82.971 Y156.35
X84.482
G3 X84.965 Y156.464 I-0.044 J1.269
X85.702 Y157.499 I-0.527 J1.156
G1 X87.106 Y172.261
G3 X86.369 Y173.536 I-1.264 J0.12
X85.886 Y173.65 I-0.527 J-1.156
G1 X84.362
X84.213 Y173.643
X84.063 Y173.628
X83.915 Y173.606
X83.763 Y173.577
X83.599 Y173.538
X83.432 Y173.491
X83.248 Y173.43
X83.055 Y173.358
X82.858 Y173.274
X82.644 Y173.173
X82.424 Y173.057
X82.2 Y172.926
X81.962 Y172.774
X81.716 Y172.602
X81.472 Y172.415
X81.216 Y172.202
X80.952 Y171.962
X80.692 Y171.705
X80.431 Y171.424
X80.165 Y171.114
X79.899 Y170.774
X79.639 Y170.413
X79.388 Y170.031
X79.141 Y169.619
X78.902 Y169.178
X78.673 Y168.71
X78.457 Y168.218
X78.259 Y167.709
X78.079 Y167.182
X77.919 Y166.64
X77.779 Y166.082
X77.662 Y165.513
X77.569 Y164.939
X77.5 Y164.363
X77.456 Y163.791
X77.436 Y163.226
X77.44 Y162.675
X77.466 Y162.145
X77.512 Y161.635
X77.578 Y161.149
X77.66 Y160.68
X77.757 Y160.241
X77.868 Y159.825
X77.976 Y159.477
X78.101 Y159.126
X78.222 Y158.829
X78.349 Y158.549
X78.486 Y158.278
X78.614 Y158.05
X78.77 Y157.799
X79.053 Y157.438
X79.384 Y157.119
X79.757 Y156.849
X80.162 Y156.634
X80.594 Y156.477
X81.044 Y156.382
X81.502 Y156.35
X82.971
G3 X83.453 Y156.464 I-0.044 J1.269
X84.191 Y157.5 I-0.527 J1.156
G1 X85.583 Y172.262
G3 X84.845 Y173.536 I-1.264 J0.119
X84.362 Y173.65 I-0.527 J-1.156
G1 X82.916
X82.676 Y173.637
X82.527 Y173.62
X82.379 Y173.596
X82.226 Y173.564
X82.064 Y173.524
X81.886 Y173.471
X81.704 Y173.409
X81.511 Y173.334
X81.303 Y173.243
X81.094 Y173.141
X80.872 Y173.021
X80.638 Y172.88
X80.403 Y172.726
X80.16 Y172.551
X79.906 Y172.352
X79.649 Y172.133
X79.394 Y171.895
X79.13 Y171.629
X78.862 Y171.333
X78.598 Y171.017
X78.34 Y170.679
X78.081 Y170.311
X77.826 Y169.912
X77.578 Y169.486
X77.343 Y169.04
X77.121 Y168.574
X76.913 Y168.082
X76.72 Y167.567
X76.544 Y167.033
X76.389 Y166.481
X76.255 Y165.918
X76.144 Y165.348
X76.058 Y164.775
X75.997 Y164.202
X75.96 Y163.633
X75.947 Y163.072
X75.957 Y162.521
X75.99 Y161.99
X76.042 Y161.484
X76.112 Y161.006
X76.198 Y160.549
X76.3 Y160.115
X76.409 Y159.723
X76.521 Y159.375
X76.646 Y159.04
X76.762 Y158.762
X76.9 Y158.47
X77.03 Y158.22
X77.164 Y157.989
X77.231 Y157.882
X77.513 Y157.501
X77.846 Y157.165
X78.224 Y156.88
X78.639 Y156.652
X79.083 Y156.485
X79.545 Y156.384
X80.018 Y156.35
X81.502
G3 X81.984 Y156.464 I-0.044 J1.269
X82.722 Y157.498 I-0.527 J1.156
G1 X84.136 Y172.26
G3 X83.398 Y173.536 I-1.264 J0.121
X82.916 Y173.65 I-0.527 J-1.156
G1 X81.392
X81.242 Y173.643
X81.093 Y173.628
X80.944 Y173.607
X80.793 Y173.578
X80.63 Y173.54
X80.463 Y173.493
X80.28 Y173.433
X80.088 Y173.362
X79.89 Y173.279
X79.677 Y173.178
X79.457 Y173.063
X79.234 Y172.933
X78.996 Y172.782
X78.751 Y172.611
X78.507 Y172.425
X78.252 Y172.213
X77.988 Y171.975
X77.728 Y171.719
X77.467 Y171.44
X77.202 Y171.131
X76.936 Y170.793
X76.676 Y170.434
X76.424 Y170.053
X76.177 Y169.642
X75.937 Y169.201
X75.707 Y168.734
X75.49 Y168.243
X75.291 Y167.735
X75.111 Y167.21
X74.949 Y166.669
X74.809 Y166.112
X74.691 Y165.544
X74.596 Y164.969
X74.526 Y164.393
X74.48 Y163.82
X74.459 Y163.254
X74.462 Y162.701
X74.487 Y162.17
X74.532 Y161.659
X74.596 Y161.171
X74.678 Y160.702
X74.775 Y160.26
X74.879 Y159.865
X74.992 Y159.497
X75.114 Y159.153
X75.23 Y158.866
X75.367 Y158.564
X75.495 Y158.309
X75.628 Y158.072
X75.778 Y157.828
X75.793 Y157.805
X76.076 Y157.442
X76.407 Y157.122
X76.78 Y156.852
X77.186 Y156.635
X77.619 Y156.478
X78.07 Y156.382
X78.529 Y156.35
X80.018
G3 X81.238 Y157.502 I-0.044 J1.269
G1 X82.612 Y172.263
G3 X81.874 Y173.536 I-1.265 J0.118
X81.392 Y173.65 I-0.527 J-1.156
G1 X79.962
X79.71 Y173.637
X79.561 Y173.621
X79.413 Y173.597
X79.26 Y173.566
X79.099 Y173.527
X78.922 Y173.475
X78.741 Y173.414
X78.549 Y173.34
X78.342 Y173.25
X78.133 Y173.149
X77.913 Y173.03
X77.679 Y172.891
X77.445 Y172.739
X77.203 Y172.566
X76.949 Y172.368
X76.693 Y172.151
X76.438 Y171.915
X76.174 Y171.65
X75.906 Y171.357
X75.642 Y171.043
X75.383 Y170.707
X75.124 Y170.341
X74.869 Y169.945
X74.62 Y169.521
X74.384 Y169.077
X74.162 Y168.613
X73.952 Y168.123
X73.757 Y167.61
X73.58 Y167.076
X73.423 Y166.526
X73.287 Y165.963
X73.175 Y165.393
X73.087 Y164.82
X73.023 Y164.247
X72.984 Y163.677
X72.969 Y163.115
X72.978 Y162.567
X73.009 Y162.035
X73.059 Y161.528
X73.128 Y161.049
X73.213 Y160.592
X73.313 Y160.157
X73.422 Y159.759
X73.533 Y159.411
X73.659 Y159.069
X73.775 Y158.789
X73.912 Y158.495
X74.043 Y158.242
X74.175 Y158.011
X74.251 Y157.892
X74.532 Y157.509
X74.866 Y157.17
X75.244 Y156.883
X75.66 Y156.654
X76.105 Y156.486
X76.569 Y156.384
X77.043 Y156.35
X78.529
G3 X79.011 Y156.464 I-0.044 J1.269
X79.749 Y157.496 I-0.527 J1.156
G1 X81.182 Y172.258
G3 X80.445 Y173.536 I-1.264 J0.123
X79.962 Y173.65 I-0.527 J-1.156
G1 X78.438
X78.355 Y173.646
X78.205 Y173.637
X78.056 Y173.619
X77.908 Y173.595
X77.757 Y173.564
X77.592 Y173.522
X77.415 Y173.47
X77.234 Y173.408
X77.037 Y173.331
X76.832 Y173.241
X76.622 Y173.138
X76.397 Y173.015
X76.165 Y172.876
X75.932 Y172.722
X75.685 Y172.544
X75.43 Y172.344
X75.178 Y172.128
X74.918 Y171.885
X74.652 Y171.615
X74.387 Y171.322
X74.127 Y171.01
X73.866 Y170.669
X73.606 Y170.296
X73.35 Y169.895
X73.105 Y169.474
X72.873 Y169.031
X72.65 Y168.561
X72.441 Y168.066
X72.248 Y167.548
X72.072 Y167.012
X71.917 Y166.46
X71.784 Y165.897
X71.675 Y165.326
X71.59 Y164.753
X71.529 Y164.181
X71.493 Y163.614
X71.481 Y163.055
X71.492 Y162.509
X71.525 Y161.981
X71.578 Y161.472
X71.649 Y160.994
X71.735 Y160.541
X71.836 Y160.11
X71.94 Y159.738
X72.063 Y159.36
X72.18 Y159.047
X72.304 Y158.753
X72.44 Y158.465
X72.565 Y158.226
X72.71 Y157.976
X72.772 Y157.878
X73.054 Y157.498
X73.387 Y157.163
X73.765 Y156.878
X74.179 Y156.651
X74.622 Y156.485
X75.084 Y156.384
X75.556 Y156.35
X77.043
G3 X77.525 Y156.464 I-0.044 J1.269
X78.263 Y157.5 I-0.527 J1.156
G1 X79.659 Y172.261
G3 X78.438 Y173.65 I-1.264 J0.12
G1 X76.915
X76.765 Y173.643
X76.616 Y173.628
X76.467 Y173.606
X76.316 Y173.576
X76.151 Y173.537
X75.983 Y173.489
X75.799 Y173.429
X75.606 Y173.356
X75.408 Y173.271
X75.194 Y173.17
X74.973 Y173.053
X74.749 Y172.922
X74.511 Y172.77
X74.265 Y172.596
X74.02 Y172.408
X73.765 Y172.195
X73.501 Y171.955
X73.24 Y171.696
X72.98 Y171.416
X72.715 Y171.106
X72.449 Y170.765
X72.189 Y170.402
X71.937 Y170.019
X71.691 Y169.606
X71.452 Y169.164
X71.223 Y168.694
X71.007 Y168.201
X70.809 Y167.69
X70.63 Y167.162
X70.47 Y166.619
X70.332 Y166.063
X70.216 Y165.496
X70.123 Y164.922
X70.055 Y164.346
X70.012 Y163.774
X69.993 Y163.211
X69.997 Y162.663
X70.024 Y162.134
X70.071 Y161.625
X70.137 Y161.137
X70.22 Y160.67
X70.318 Y160.231
X70.422 Y159.839
X70.538 Y159.469
X70.659 Y159.13
X70.776 Y158.844
X70.913 Y158.543
X71.042 Y158.291
X71.176 Y158.052
X71.326 Y157.81
X71.336 Y157.796
X71.619 Y157.435
X71.95 Y157.117
X72.322 Y156.848
X72.728 Y156.633
X73.159 Y156.477
X73.608 Y156.382
X74.066 Y156.35
X75.556
G3 X76.038 Y156.464 I-0.044 J1.269
X76.776 Y157.503 I-0.527 J1.156
G1 X78.135 Y172.264
G3 X77.397 Y173.536 I-1.265 J0.116
X76.915 Y173.65 I-0.527 J-1.156
G1 X75.485
X75.239 Y173.637
X75.09 Y173.62
X74.941 Y173.597
X74.79 Y173.566
X74.627 Y173.525
X74.45 Y173.474
X74.27 Y173.412
X74.076 Y173.337
X73.87 Y173.247
X73.661 Y173.146
X73.439 Y173.026
X73.205 Y172.887
X72.972 Y172.734
X72.728 Y172.56
X72.474 Y172.361
X72.22 Y172.145
X71.964 Y171.907
X71.699 Y171.641
X71.431 Y171.346
X71.169 Y171.034
X70.909 Y170.696
X70.649 Y170.327
X70.393 Y169.929
X70.146 Y169.505
X69.911 Y169.063
X69.689 Y168.597
X69.48 Y168.106
X69.285 Y167.591
X69.108 Y167.057
X68.952 Y166.507
X68.817 Y165.945
X68.706 Y165.375
X68.619 Y164.803
X68.556 Y164.231
X68.518 Y163.662
X68.504 Y163.101
X68.513 Y162.554
X68.545 Y162.023
X68.596 Y161.515
X68.665 Y161.036
X68.751 Y160.581
X68.851 Y160.147
X68.961 Y159.747
X69.073 Y159.401
X69.199 Y159.059
X69.315 Y158.779
X69.452 Y158.487
X69.584 Y158.233
X69.716 Y158.004
X69.867 Y157.764
X70.15 Y157.411
X70.478 Y157.1
X70.846 Y156.837
X71.246 Y156.627
X71.672 Y156.474
X72.114 Y156.381
X72.565 Y156.35
X74.066
G3 X75.285 Y157.498 I-0.044 J1.269
G1 X76.705 Y172.259
G3 X75.485 Y173.65 I-1.264 J0.122
G1 X73.961
X73.884 Y173.646
X73.734 Y173.637
X73.585 Y173.619
X73.437 Y173.595
X73.286 Y173.563
X73.119 Y173.521
X72.943 Y173.468
X72.761 Y173.406
X72.563 Y173.328
X72.358 Y173.237
X72.148 Y173.134
X71.923 Y173.01
X71.691 Y172.871
X71.457 Y172.716
X71.209 Y172.537
X70.954 Y172.336
X70.702 Y172.119
X70.442 Y171.876
X70.176 Y171.604
X69.91 Y171.31
X69.651 Y170.997
X69.39 Y170.655
X69.13 Y170.281
X68.874 Y169.879
X68.63 Y169.456
X68.398 Y169.013
X68.176 Y168.542
X67.967 Y168.046
X67.775 Y167.528
X67.6 Y166.992
X67.447 Y166.44
X67.315 Y165.877
X67.206 Y165.307
X67.122 Y164.733
X67.062 Y164.162
X67.027 Y163.595
X67.016 Y163.037
X67.028 Y162.49
X67.062 Y161.963
X67.116 Y161.455
X67.187 Y160.977
X67.274 Y160.525
X67.376 Y160.095
X67.488 Y159.697
X67.599 Y159.356
X67.726 Y159.017
X67.844 Y158.739
X67.981 Y158.45
X68.113 Y158.199
X68.246 Y157.97
X68.397 Y157.733
X68.676 Y157.387
X69 Y157.083
X69.362 Y156.826
X69.756 Y156.621
X70.175 Y156.471
X70.61 Y156.38
X71.053 Y156.35
X72.565
G3 X73.785 Y157.5 I-0.044 J1.269
G1 X75.181 Y172.261
G3 X73.961 Y173.65 I-1.264 J0.12
G1 X72.437
X72.288 Y173.643
X72.138 Y173.627
X71.99 Y173.604
X71.838 Y173.574
X71.673 Y173.534
X71.504 Y173.486
X71.319 Y173.424
X71.124 Y173.35
X70.925 Y173.265
X70.712 Y173.162
X70.489 Y173.043
X70.265 Y172.911
X70.027 Y172.757
X69.779 Y172.582
X69.533 Y172.392
X69.278 Y172.177
X69.014 Y171.935
X68.752 Y171.674
X68.493 Y171.392
X68.228 Y171.08
X67.962 Y170.738
X67.702 Y170.371
X67.451 Y169.986
X67.205 Y169.571
X66.967 Y169.128
X66.74 Y168.657
X66.526 Y168.163
X66.329 Y167.649
X66.15 Y167.119
X65.992 Y166.575
X65.856 Y166.017
X65.742 Y165.45
X65.651 Y164.876
X65.585 Y164.3
X65.544 Y163.73
X65.527 Y163.168
X65.533 Y162.619
X65.562 Y162.092
X65.611 Y161.581
X65.678 Y161.094
X65.763 Y160.628
X65.862 Y160.192
X65.973 Y159.78
X66.082 Y159.435
X66.209 Y159.085
X66.329 Y158.794
X66.459 Y158.512
X66.595 Y158.246
X66.724 Y158.02
X66.874 Y157.779
X67.156 Y157.423
X67.485 Y157.108
X67.854 Y156.842
X68.257 Y156.63
X68.685 Y156.475
X69.13 Y156.382
X69.584 Y156.35
X71.053
G3 X71.535 Y156.464 I-0.044 J1.269
X72.273 Y157.501 I-0.527 J1.156
G1 X73.658 Y172.262
G3 X72.92 Y173.536 I-1.264 J0.119
X72.437 Y173.65 I-0.527 J-1.156
G1 X71.029
X70.777 Y173.637
X70.628 Y173.62
X70.48 Y173.597
X70.33 Y173.567
X70.166 Y173.526
X69.99 Y173.475
X69.811 Y173.415
X69.615 Y173.339
X69.411 Y173.251
X69.203 Y173.15
X68.98 Y173.03
X68.748 Y172.892
X68.515 Y172.74
X68.27 Y172.565
X68.016 Y172.368
X67.765 Y172.155
X67.507 Y171.916
X67.241 Y171.649
X66.975 Y171.358
X66.715 Y171.049
X66.453 Y170.709
X66.192 Y170.339
X65.935 Y169.941
X65.69 Y169.523
X65.456 Y169.084
X65.232 Y168.617
X65.022 Y168.125
X64.826 Y167.609
X64.649 Y167.075
X64.491 Y166.525
X64.356 Y165.963
X64.244 Y165.394
X64.156 Y164.822
X64.092 Y164.25
X64.053 Y163.682
X64.038 Y163.121
X64.047 Y162.571
X64.077 Y162.04
X64.129 Y161.526
X64.198 Y161.042
X64.283 Y160.584
X64.382 Y160.151
X64.493 Y159.746
X64.603 Y159.404
X64.729 Y159.06
X64.846 Y158.779
X64.981 Y158.489
X65.113 Y158.234
X65.243 Y158.006
X65.395 Y157.766
X65.676 Y157.412
X66.004 Y157.101
X66.372 Y156.837
X66.772 Y156.627
X67.198 Y156.474
X67.64 Y156.381
X68.091 Y156.35
X69.584
G3 X70.804 Y157.496 I-0.044 J1.269
G1 X72.248 Y172.257
G3 X71.029 Y173.65 I-1.264 J0.124
G1 X69.505
X69.422 Y173.646
X69.273 Y173.637
X69.124 Y173.619
X68.976 Y173.595
X68.825 Y173.564
X68.659 Y173.522
X68.483 Y173.47
X68.301 Y173.408
X68.104 Y173.33
X67.899 Y173.24
X67.689 Y173.137
X67.465 Y173.015
X67.233 Y172.876
X66.999 Y172.721
X66.752 Y172.543
X66.497 Y172.342
X66.245 Y172.126
X65.986 Y171.885
X65.72 Y171.615
X65.454 Y171.321
X65.194 Y171.009
X64.934 Y170.667
X64.673 Y170.294
X64.417 Y169.893
X64.172 Y169.471
X63.94 Y169.028
X63.717 Y168.558
X63.508 Y168.063
X63.315 Y167.546
X63.14 Y167.01
X62.985 Y166.458
X62.853 Y165.895
X62.743 Y165.325
X62.658 Y164.751
X62.597 Y164.178
X62.561 Y163.609
X62.549 Y163.05
X62.561 Y162.501
X62.594 Y161.973
X62.647 Y161.464
X62.718 Y160.985
X62.805 Y160.532
X62.906 Y160.101
X63.017 Y159.703
X63.129 Y159.361
X63.255 Y159.022
X63.372 Y158.745
X63.509 Y158.455
X63.64 Y158.204
X63.773 Y157.975
X63.924 Y157.738
X64.203 Y157.391
X64.527 Y157.086
X64.89 Y156.828
X65.285 Y156.622
X65.704 Y156.472
X66.14 Y156.381
X66.584 Y156.35
X68.091
G3 X68.574 Y156.464 I-0.044 J1.269
X69.311 Y157.498 I-0.527 J1.156
G1 X70.725 Y172.26
G3 X69.987 Y173.536 I-1.264 J0.121
X69.505 Y173.65 I-0.527 J-1.156
G1 X67.981
X67.831 Y173.643
X67.682 Y173.628
X67.534 Y173.605
X67.382 Y173.576
X67.218 Y173.537
X67.049 Y173.489
X66.865 Y173.428
X66.672 Y173.355
X66.473 Y173.27
X66.26 Y173.169
X66.039 Y173.051
X65.815 Y172.92
X65.577 Y172.768
X65.33 Y172.594
X65.085 Y172.406
X64.83 Y172.192
X64.566 Y171.952
X64.305 Y171.692
X64.045 Y171.412
X63.78 Y171.102
X63.514 Y170.761
X63.253 Y170.397
X63.002 Y170.013
X62.756 Y169.6
X62.517 Y169.158
X62.289 Y168.689
X62.073 Y168.195
X61.875 Y167.684
X61.696 Y167.155
X61.537 Y166.612
X61.398 Y166.055
X61.283 Y165.487
X61.19 Y164.912
X61.122 Y164.336
X61.079 Y163.763
X61.061 Y163.2
X61.066 Y162.649
X61.093 Y162.12
X61.14 Y161.609
X61.206 Y161.122
X61.29 Y160.654
X61.388 Y160.216
X61.498 Y159.802
X61.606 Y159.456
X61.733 Y159.105
X61.852 Y158.811
X61.981 Y158.53
X62.118 Y158.262
X62.246 Y158.035
X62.395 Y157.794
X62.679 Y157.434
X63.01 Y157.116
X63.381 Y156.848
X63.787 Y156.633
X64.218 Y156.477
X64.666 Y156.382
X65.124 Y156.35
X66.584
G3 X67.067 Y156.464 I-0.044 J1.269
X67.804 Y157.5 I-0.527 J1.156
G1 X69.201 Y172.261
G3 X67.981 Y173.65 I-1.264 J0.12
G1 X66.534
X66.448 Y173.646
X66.298 Y173.637
X66.149 Y173.62
X66.001 Y173.596
X65.848 Y173.564
X65.685 Y173.523
X65.507 Y173.471
X65.326 Y173.408
X65.132 Y173.333
X64.925 Y173.242
X64.715 Y173.139
X64.493 Y173.018
X64.259 Y172.878
X64.024 Y172.723
X63.781 Y172.548
X63.526 Y172.348
X63.271 Y172.129
X63.015 Y171.891
X62.751 Y171.623
X62.482 Y171.327
X62.22 Y171.012
X61.96 Y170.673
X61.701 Y170.303
X61.446 Y169.903
X61.198 Y169.477
X60.964 Y169.031
X60.743 Y168.564
X60.534 Y168.072
X60.341 Y167.556
X60.166 Y167.021
X60.011 Y166.469
X59.877 Y165.906
X59.767 Y165.336
X59.682 Y164.762
X59.621 Y164.189
X59.584 Y163.62
X59.572 Y163.058
X59.583 Y162.507
X59.615 Y161.977
X59.668 Y161.47
X59.739 Y160.992
X59.825 Y160.536
X59.927 Y160.103
X60.036 Y159.711
X60.148 Y159.365
X60.273 Y159.031
X60.389 Y158.754
X60.526 Y158.463
X60.657 Y158.213
X60.79 Y157.983
X60.855 Y157.88
X61.137 Y157.5
X61.471 Y157.164
X61.848 Y156.879
X62.263 Y156.651
X62.706 Y156.485
X63.169 Y156.384
X63.64 Y156.35
X65.124
G3 X65.606 Y156.464 I-0.044 J1.269
X66.344 Y157.498 I-0.527 J1.156
G1 X67.754 Y172.26
G3 X67.017 Y173.536 I-1.264 J0.121
X66.534 Y173.65 I-0.527 J-1.156
G1 X65.01
X64.861 Y173.643
X64.711 Y173.628
X64.563 Y173.606
X64.412 Y173.577
X64.248 Y173.538
X64.08 Y173.491
X63.897 Y173.431
X63.704 Y173.358
X63.506 Y173.275
X63.293 Y173.173
X63.072 Y173.057
X62.849 Y172.927
X62.611 Y172.775
X62.365 Y172.603
X62.12 Y172.415
X61.865 Y172.202
X61.601 Y171.963
X61.34 Y171.705
X61.08 Y171.426
X60.815 Y171.116
X60.549 Y170.777
X60.288 Y170.415
X60.037 Y170.033
X59.791 Y169.621
X59.551 Y169.179
X59.321 Y168.711
X59.106 Y168.219
X58.907 Y167.709
X58.727 Y167.182
X58.567 Y166.64
X58.427 Y166.083
X58.31 Y165.514
X58.216 Y164.939
X58.147 Y164.362
X58.103 Y163.789
X58.083 Y163.224
X58.087 Y162.672
X58.113 Y162.142
X58.159 Y161.632
X58.224 Y161.145
X58.307 Y160.676
X58.404 Y160.237
X58.508 Y159.846
X58.622 Y159.477
X58.744 Y159.137
X58.86 Y158.851
X58.997 Y158.55
X59.125 Y158.297
X59.259 Y158.059
X59.408 Y157.816
X59.419 Y157.8
X59.703 Y157.438
X60.034 Y157.119
X60.406 Y156.85
X60.812 Y156.634
X61.244 Y156.477
X61.693 Y156.382
X62.152 Y156.35
X63.64
G3 X64.861 Y157.502 I-0.044 J1.269
G1 X66.231 Y172.263
G3 X65.493 Y173.536 I-1.265 J0.117
X65.01 Y173.65 I-0.527 J-1.156
G1 X63.581
X63.332 Y173.637
X63.183 Y173.62
X63.035 Y173.597
X62.883 Y173.566
X62.721 Y173.526
X62.544 Y173.474
X62.363 Y173.413
X62.17 Y173.338
X61.963 Y173.249
X61.755 Y173.147
X61.533 Y173.028
X61.299 Y172.889
X61.066 Y172.736
X60.823 Y172.562
X60.569 Y172.364
X60.314 Y172.147
X60.058 Y171.91
X59.794 Y171.645
X59.525 Y171.35
X59.263 Y171.038
X59.003 Y170.701
X58.744 Y170.333
X58.488 Y169.935
X58.24 Y169.511
X58.005 Y169.068
X57.783 Y168.603
X57.573 Y168.112
X57.378 Y167.598
X57.201 Y167.063
X57.044 Y166.512
X56.909 Y165.949
X56.797 Y165.379
X56.71 Y164.806
X56.647 Y164.233
X56.608 Y163.664
X56.594 Y163.102
X56.603 Y162.554
X56.634 Y162.023
X56.685 Y161.516
X56.754 Y161.037
X56.839 Y160.582
X56.939 Y160.148
X57.049 Y159.749
X57.16 Y159.403
X57.285 Y159.061
X57.402 Y158.782
X57.538 Y158.489
X57.67 Y158.236
X57.802 Y158.006
X57.875 Y157.889
X58.157 Y157.507
X58.49 Y157.169
X58.869 Y156.882
X59.285 Y156.653
X59.729 Y156.486
X60.193 Y156.384
X60.666 Y156.35
X62.152
G3 X62.634 Y156.464 I-0.044 J1.269
X63.372 Y157.497 I-0.527 J1.156
G1 X64.801 Y172.258
G3 X63.581 Y173.65 I-1.264 J0.122
G1 X62.057
X61.977 Y173.646
X61.827 Y173.637
X61.678 Y173.619
X61.53 Y173.595
X61.379 Y173.563
X61.213 Y173.522
X61.037 Y173.469
X60.855 Y173.407
X60.657 Y173.329
X60.453 Y173.239
X60.242 Y173.135
X60.017 Y173.012
X59.786 Y172.873
X59.552 Y172.719
X59.304 Y172.54
X59.049 Y172.339
X58.797 Y172.122
X58.537 Y171.88
X58.271 Y171.609
X58.006 Y171.315
X57.746 Y171.003
X57.485 Y170.66
X57.225 Y170.287
X56.969 Y169.885
X56.724 Y169.463
X56.492 Y169.02
X56.27 Y168.549
X56.061 Y168.053
X55.868 Y167.535
X55.693 Y166.998
X55.538 Y166.446
X55.406 Y165.882
X55.297 Y165.312
X55.212 Y164.738
X55.152 Y164.166
X55.117 Y163.6
X55.105 Y163.041
X55.117 Y162.495
X55.15 Y161.967
X55.204 Y161.459
X55.275 Y160.982
X55.362 Y160.529
X55.463 Y160.099
X55.567 Y159.729
X55.69 Y159.351
X55.807 Y159.039
X55.931 Y158.745
X56.067 Y158.458
X56.192 Y158.22
X56.337 Y157.97
X56.397 Y157.876
X56.679 Y157.496
X57.012 Y157.161
X57.39 Y156.877
X57.804 Y156.65
X58.247 Y156.485
X58.708 Y156.384
X59.179 Y156.35
X60.666
G3 X61.149 Y156.464 I-0.044 J1.269
X61.886 Y157.5 I-0.527 J1.156
G1 X63.277 Y172.262
G3 X62.539 Y173.536 I-1.264 J0.119
X62.057 Y173.65 I-0.527 J-1.156
G1 X60.533
X60.383 Y173.643
X60.234 Y173.627
X60.086 Y173.605
X59.934 Y173.575
X59.769 Y173.535
X59.6 Y173.487
X59.416 Y173.426
X59.222 Y173.352
X59.023 Y173.267
X58.81 Y173.165
X58.588 Y173.047
X58.364 Y172.916
X58.125 Y172.762
X57.878 Y172.588
X57.633 Y172.399
X57.378 Y172.184
X57.114 Y171.943
X56.852 Y171.683
X56.592 Y171.402
X56.328 Y171.09
X56.061 Y170.749
X55.801 Y170.384
X55.55 Y169.999
X55.304 Y169.585
X55.065 Y169.142
X54.837 Y168.671
X54.622 Y168.177
X54.424 Y167.664
X54.246 Y167.135
X54.087 Y166.591
X53.95 Y166.034
X53.835 Y165.466
X53.743 Y164.892
X53.676 Y164.317
X53.634 Y163.745
X53.616 Y163.183
X53.622 Y162.637
X53.65 Y162.108
X53.698 Y161.6
X53.765 Y161.113
X53.849 Y160.647
X53.947 Y160.21
X54.051 Y159.821
X54.168 Y159.451
X54.289 Y159.115
X54.406 Y158.829
X54.544 Y158.53
X54.671 Y158.28
X54.807 Y158.039
X54.963 Y157.79
X55.247 Y157.431
X55.577 Y157.114
X55.949 Y156.846
X56.354 Y156.632
X56.784 Y156.476
X57.232 Y156.382
X57.689 Y156.35
X59.179
G3 X59.662 Y156.464 I-0.044 J1.269
X60.4 Y157.503 I-0.527 J1.156
G1 X61.754 Y172.265
G3 X61.016 Y173.536 I-1.265 J0.116
X60.533 Y173.65 I-0.527 J-1.156
G1 X59.104
X58.861 Y173.637
X58.711 Y173.62
X58.563 Y173.596
X58.412 Y173.565
X58.249 Y173.525
X58.072 Y173.473
X57.891 Y173.411
X57.697 Y173.336
X57.491 Y173.246
X57.282 Y173.144
X57.059 Y173.023
X56.826 Y172.884
X56.592 Y172.731
X56.348 Y172.556
X56.093 Y172.356
X55.84 Y172.141
X55.583 Y171.902
X55.318 Y171.634
X55.05 Y171.34
X54.789 Y171.028
X54.529 Y170.689
X54.268 Y170.318
X54.012 Y169.919
X53.765 Y169.496
X53.531 Y169.054
X53.309 Y168.587
X53.1 Y168.095
X52.905 Y167.579
X52.729 Y167.044
X52.573 Y166.493
X52.439 Y165.931
X52.328 Y165.362
X52.241 Y164.79
X52.179 Y164.218
X52.142 Y163.65
X52.128 Y163.089
X52.138 Y162.543
X52.17 Y162.012
X52.222 Y161.505
X52.291 Y161.025
X52.377 Y160.571
X52.477 Y160.138
X52.588 Y159.738
X52.699 Y159.394
X52.825 Y159.052
X52.942 Y158.773
X53.079 Y158.481
X53.211 Y158.228
X53.343 Y157.999
X53.494 Y157.759
X53.776 Y157.407
X54.104 Y157.097
X54.471 Y156.835
X54.87 Y156.626
X55.295 Y156.474
X55.736 Y156.381
X56.186 Y156.35
X57.689
G3 X58.171 Y156.464 I-0.044 J1.269
X58.909 Y157.498 I-0.527 J1.156
G1 X60.324 Y172.26
G3 X59.586 Y173.536 I-1.264 J0.121
X59.104 Y173.65 I-0.527 J-1.156
G1 X57.58
X57.43 Y173.643
X57.281 Y173.629
X57.132 Y173.608
X56.982 Y173.579
X56.819 Y173.541
X56.652 Y173.495
X56.47 Y173.436
X56.278 Y173.365
X56.081 Y173.282
X55.868 Y173.182
X55.649 Y173.068
X55.426 Y172.939
X55.189 Y172.789
X54.944 Y172.619
X54.699 Y172.433
X54.444 Y172.222
X54.181 Y171.985
X53.921 Y171.73
X53.661 Y171.453
X53.395 Y171.145
X53.128 Y170.808
X52.869 Y170.45
X52.617 Y170.07
X52.369 Y169.659
X52.128 Y169.22
X51.897 Y168.754
X51.681 Y168.264
X51.481 Y167.757
X51.299 Y167.234
X51.138 Y166.693
X50.996 Y166.138
X50.877 Y165.571
X50.781 Y164.998
X50.71 Y164.422
X50.664 Y163.849
X50.641 Y163.284
X50.643 Y162.731
X50.667 Y162.199
X50.712 Y161.687
X50.775 Y161.198
X50.856 Y160.728
X50.952 Y160.284
X51.061 Y159.866
X51.169 Y159.514
X51.294 Y159.161
X51.414 Y158.86
X51.54 Y158.582
X51.678 Y158.306
X51.806 Y158.076
X51.953 Y157.836
X51.97 Y157.81
X52.253 Y157.446
X52.585 Y157.125
X52.958 Y156.854
X53.365 Y156.637
X53.798 Y156.478
X54.249 Y156.382
X54.71 Y156.35
X56.186
