%
(1001)
(Z0 stock bottom)
(T1  D=12.7 CR=0 - ZMIN=20 - flat end mill)
G90 G94
G17
G21

(2D Adaptive15)
M9
T1 M6
S6000 M3
G54
M9
G0 X147.269 Y167.729
Z65
Z55
Z53.77
G1 Z52.5 F849.6
G3 X137.503 Y169.142 Z52.097 I-5.38 J-2.729 F400.3
X146.275 Y160.858 Z51.435 I4.386 J-4.142
X137.503 Y169.142 Z50.773 I-4.386 J4.142
X146.275 Y160.858 Z50.111 I4.386 J-4.142
X137.503 Y169.142 Z49.449 I-4.386 J4.142
X146.275 Y160.858 Z48.788 I4.386 J-4.142
X146.21 Y169.209 Z48.465 I-4.386 J4.142
X136.468 Y167.646 Z48.062 I-4.321 J-4.209
X147.31 Y162.354 Z47.4 I5.421 J-2.646
X136.468 Y167.646 Z46.738 I-5.421 J2.646
X147.31 Y162.354 Z46.077 I5.421 J-2.646
X136.468 Y167.646 Z45.415 I-5.421 J2.646
X147.31 Y162.354 Z44.753 I5.421 J-2.646
X136.468 Y167.646 Z44.091 I-5.421 J2.646
X147.31 Y162.354 Z43.429 I5.421 J-2.646
X136.468 Y167.646 Z42.767 I-5.421 J2.646
X147.31 Y162.354 Z42.106 I5.421 J-2.646
X147.922 Y165 Z42.01 I-5.421 J2.646
X135.857 I-6.033
X147.922 I6.033
G1 X147.937 Y166.292 F849.6
X147.96 Y166.369
X147.997 Y166.515
X148.021 Y166.663
X148.037 Y166.812
X148.043 Y166.962
X148.041 Y167.112
X148.033 Y167.262
X148.017 Y167.411
X147.994 Y167.566
X147.964 Y167.729
X147.924 Y167.897
X147.876 Y168.072
X147.818 Y168.251
X147.749 Y168.434
X147.671 Y168.62
X147.582 Y168.81
X147.482 Y169.001
X147.371 Y169.193
X147.249 Y169.385
X147.116 Y169.576
X146.972 Y169.766
X146.817 Y169.953
X146.651 Y170.137
X146.474 Y170.317
X146.287 Y170.492
X146.09 Y170.662
X145.883 Y170.826
X145.667 Y170.982
X145.442 Y171.131
X145.208 Y171.272
X144.966 Y171.404
X144.717 Y171.527
X144.461 Y171.641
X144.199 Y171.744
X143.93 Y171.837
X143.657 Y171.918
X143.378 Y171.989
X143.096 Y172.048
X142.81 Y172.096
X142.521 Y172.131
X142.23 Y172.155
X141.937 Y172.166
X141.643 Y172.165
X141.349 Y172.151
X141.055 Y172.125
X140.761 Y172.087
X140.469 Y172.036
X140.178 Y171.973
X139.89 Y171.898
X139.605 Y171.81
X139.323 Y171.711
X139.046 Y171.599
X138.773 Y171.476
X138.505 Y171.342
X138.243 Y171.196
X137.988 Y171.039
X137.738 Y170.871
X137.496 Y170.693
X137.262 Y170.505
X137.035 Y170.307
X136.817 Y170.1
X136.607 Y169.883
X136.407 Y169.658
X136.217 Y169.424
X136.036 Y169.183
X135.865 Y168.934
X135.706 Y168.678
X135.557 Y168.416
X135.419 Y168.147
X135.292 Y167.873
X135.177 Y167.594
X135.074 Y167.31
X134.983 Y167.022
X134.904 Y166.731
X134.838 Y166.436
X134.783 Y166.139
X134.742 Y165.839
X134.713 Y165.539
X134.696 Y165.237
X134.693 Y164.935
X134.702 Y164.632
X134.723 Y164.331
X134.758 Y164.031
X134.805 Y163.732
X134.864 Y163.435
X134.936 Y163.142
X135.02 Y162.851
X135.117 Y162.565
X135.225 Y162.282
X135.345 Y162.005
X135.476 Y161.733
X135.619 Y161.466
X135.773 Y161.206
X135.938 Y160.952
X136.113 Y160.706
X136.299 Y160.467
X136.494 Y160.236
X136.699 Y160.014
X136.913 Y159.8
X137.136 Y159.596
X137.367 Y159.401
X137.606 Y159.216
X137.853 Y159.041
X138.107 Y158.877
X138.368 Y158.723
X138.635 Y158.581
X138.907 Y158.45
X139.185 Y158.33
X139.468 Y158.222
X139.754 Y158.127
X140.045 Y158.043
X140.339 Y157.972
X140.636 Y157.913
X140.935 Y157.866
X141.235 Y157.833
X141.537 Y157.811
X141.839 Y157.803
X142.142 Y157.807
X142.444 Y157.824
X142.745 Y157.854
X143.044 Y157.896
X143.341 Y157.951
X143.636 Y158.018
X143.928 Y158.098
X144.216 Y158.189
X144.5 Y158.293
X144.78 Y158.409
X145.054 Y158.536
X145.323 Y158.675
X145.586 Y158.825
X145.842 Y158.985
X146.091 Y159.157
X146.333 Y159.339
X146.567 Y159.53
X146.793 Y159.732
X147.01 Y159.942
X147.218 Y160.162
X147.416 Y160.39
X147.605 Y160.626
X147.784 Y160.87
X147.952 Y161.122
X148.11 Y161.38
X148.256 Y161.644
X148.392 Y161.915
X148.515 Y162.191
X148.639 Y162.501
X148.853 Y163.109
X149.02 Y163.657
X149.14 Y164.119
X149.228 Y164.527
X149.293 Y164.906
X149.339 Y165.262
X149.368 Y165.6
X149.382 Y165.925
Y166.242
X149.37 Y166.552
X149.345 Y166.855
X149.308 Y167.152
X149.259 Y167.444
X149.198 Y167.732
X149.125 Y168.016
X149.041 Y168.296
X148.945 Y168.573
X148.837 Y168.846
X148.717 Y169.114
X148.586 Y169.379
X148.443 Y169.639
X148.288 Y169.894
X148.122 Y170.144
X147.945 Y170.388
X147.756 Y170.627
X147.555 Y170.858
X147.344 Y171.083
X147.122 Y171.3
X146.889 Y171.509
X146.646 Y171.71
X146.393 Y171.901
X146.13 Y172.083
X145.859 Y172.255
X145.578 Y172.417
X145.289 Y172.567
X144.993 Y172.706
X144.689 Y172.832
X144.379 Y172.947
X144.063 Y173.049
X143.741 Y173.138
X143.414 Y173.214
X143.083 Y173.276
X142.748 Y173.324
X142.411 Y173.359
X142.071 Y173.379
X141.73 Y173.385
X141.388 Y173.376
X141.046 Y173.354
X140.703 Y173.316
X140.362 Y173.265
X140.023 Y173.198
X139.686 Y173.118
X139.352 Y173.023
X139.022 Y172.914
X138.696 Y172.791
X138.375 Y172.655
X138.06 Y172.504
X137.751 Y172.341
X137.449 Y172.164
X137.154 Y171.975
X136.866 Y171.773
X136.588 Y171.559
X136.318 Y171.333
X136.058 Y171.096
X135.808 Y170.848
X135.568 Y170.59
X135.34 Y170.321
X135.122 Y170.043
X134.917 Y169.756
X134.723 Y169.461
X134.542 Y169.157
X134.374 Y168.847
X134.219 Y168.529
X134.078 Y168.204
X133.95 Y167.874
X133.836 Y167.539
X133.736 Y167.2
X133.651 Y166.856
X133.58 Y166.509
X133.524 Y166.159
X133.482 Y165.807
X133.456 Y165.454
X133.444 Y165.1
X133.447 Y164.745
X133.465 Y164.391
X133.498 Y164.038
X133.545 Y163.686
X133.608 Y163.337
X133.685 Y162.991
X133.776 Y162.648
X133.882 Y162.31
X134.002 Y161.976
X134.136 Y161.647
X134.283 Y161.325
X134.444 Y161.008
X134.618 Y160.699
X134.806 Y160.398
X135.005 Y160.104
X135.217 Y159.819
X135.44 Y159.544
X135.675 Y159.277
X135.921 Y159.021
X136.177 Y158.776
X136.444 Y158.542
X136.72 Y158.319
X137.005 Y158.107
X137.299 Y157.908
X137.601 Y157.722
X137.91 Y157.548
X138.227 Y157.387
X138.55 Y157.24
X138.879 Y157.107
X139.213 Y156.987
X139.552 Y156.882
X139.895 Y156.791
X140.242 Y156.714
X140.592 Y156.652
X140.943 Y156.605
X141.297 Y156.573
X141.651 Y156.555
X142.006 Y156.553
X142.361 Y156.565
X142.715 Y156.593
X143.068 Y156.635
X143.418 Y156.692
X143.766 Y156.763
X144.11 Y156.849
X144.451 Y156.95
X144.787 Y157.065
X145.117 Y157.193
X145.443 Y157.336
X145.761 Y157.492
X146.074 Y157.661
X146.378 Y157.844
X146.675 Y158.038
X146.963 Y158.246
X147.242 Y158.465
X147.512 Y158.696
X147.772 Y158.937
X148.022 Y159.19
X148.261 Y159.454
X148.492 Y159.73
X148.735 Y160.047
X148.978 Y160.394
X149.21 Y160.758
X149.432 Y161.139
X149.64 Y161.533
X149.831 Y161.935
X150.003 Y162.34
X150.155 Y162.744
X150.287 Y163.147
X150.4 Y163.548
X150.494 Y163.945
X150.57 Y164.34
X150.629 Y164.731
X150.671 Y165.119
X150.696 Y165.503
X150.705 Y165.883
X150.697 Y166.26
X150.675 Y166.632
X150.637 Y167
X150.583 Y167.363
X150.516 Y167.722
X150.433 Y168.076
X150.336 Y168.425
X150.224 Y168.769
X150.099 Y169.107
X149.959 Y169.44
X149.806 Y169.767
X149.638 Y170.087
X149.458 Y170.4
X149.263 Y170.706
X149.056 Y171.005
X148.835 Y171.295
X148.602 Y171.577
X148.356 Y171.85
X148.098 Y172.113
X147.828 Y172.366
X147.547 Y172.608
X147.255 Y172.84
X146.951 Y173.059
X146.888 Y173.101
X146.468 Y173.337
X146.017 Y173.51
X145.547 Y173.615
X145.066 Y173.65
X139.394
X139.076 Y173.634
X138.873 Y173.615
X138.661 Y173.587
X138.435 Y173.547
X138.199 Y173.494
X137.958 Y173.43
X137.71 Y173.353
X137.453 Y173.261
X137.188 Y173.153
X136.921 Y173.031
X136.653 Y172.895
X136.384 Y172.743
X136.113 Y172.575
X135.841 Y172.391
X135.571 Y172.191
X135.304 Y171.975
X135.042 Y171.743
X134.785 Y171.498
X134.537 Y171.238
X134.296 Y170.965
X134.064 Y170.678
X133.842 Y170.379
X133.63 Y170.067
X133.43 Y169.744
X133.242 Y169.409
X133.067 Y169.064
X132.905 Y168.71
X132.758 Y168.347
X132.625 Y167.976
X132.507 Y167.598
X132.405 Y167.214
X132.319 Y166.824
X132.248 Y166.43
X132.195 Y166.032
X132.158 Y165.632
X132.138 Y165.229
X132.135 Y164.825
X132.149 Y164.42
X132.179 Y164.016
X132.227 Y163.612
X132.292 Y163.211
X132.374 Y162.812
X132.473 Y162.417
X132.588 Y162.026
X132.719 Y161.639
X132.867 Y161.259
X133.031 Y160.884
X133.211 Y160.517
X133.405 Y160.157
X133.615 Y159.806
X133.84 Y159.464
X134.079 Y159.131
X134.331 Y158.808
X134.598 Y158.497
X134.876 Y158.196
X135.168 Y157.908
X135.471 Y157.632
X135.786 Y157.369
X136.112 Y157.12
X136.447 Y156.884
X136.466 Y156.872
X136.879 Y156.647
X137.319 Y156.483
X137.778 Y156.383
X138.247 Y156.35
X144.384
X144.742 Y156.368
X144.938 Y156.386
X145.148 Y156.414
X145.371 Y156.454
X145.601 Y156.505
X145.837 Y156.568
X146.085 Y156.645
X146.341 Y156.737
X146.602 Y156.843
X146.864 Y156.963
X147.13 Y157.098
X147.4 Y157.25
X147.676 Y157.421
X147.955 Y157.61
X148.233 Y157.816
X148.511 Y158.041
X148.791 Y158.288
X149.071 Y158.557
X149.349 Y158.847
X149.62 Y159.154
X149.883 Y159.479
X150.135 Y159.82
X150.287 Y160.042
X150.532 Y160.468
X150.71 Y160.926
X150.819 Y161.405
X150.856 Y161.895
G3 X150.742 Y162.378 I-1.269 J-0.044
X148.781 Y162.833 I-1.156 J-0.527
G1 X143.623 Y158.601
G3 X144.384 Y156.35 I0.806 J-0.982
G1 X146.461
X146.654 Y156.36
X146.804 Y156.373
X146.965 Y156.395
X147.141 Y156.427
X147.32 Y156.467
X147.515 Y156.518
X147.723 Y156.583
X147.933 Y156.659
X148.157 Y156.75
X148.394 Y156.858
X148.632 Y156.979
X148.879 Y157.118
X149.135 Y157.277
X149.387 Y157.448
X149.615 Y157.617
X149.633 Y157.632
X149.989 Y157.967
X150.292 Y158.351
X150.535 Y158.776
X150.712 Y159.232
X150.82 Y159.709
X150.856 Y160.196
G3 X148.78 Y161.133 I-1.269 J-0.044
G1 X145.699 Y158.6
G3 X145.978 Y156.464 I0.806 J-0.981
X146.461 Y156.35 I0.527 J1.156
G1 X148.1
X148.307 Y156.36
X148.456 Y156.374
X148.605 Y156.395
X148.752 Y156.423
X148.903 Y156.459
X149.047 Y156.5
X149.189 Y156.547
X149.591 Y156.744
X149.953 Y157.006
X150.265 Y157.326
X150.518 Y157.695
X150.704 Y158.101
X150.818 Y158.534
X150.856 Y158.979
G3 X148.731 Y159.873 I-1.269 J-0.044
G1 X147.288 Y158.558
G3 X147.617 Y156.464 I0.856 J-0.938
X148.1 Y156.35 I0.527 J1.156
G1 X149.243
X149.392 Y156.357
X149.727 Y156.43
X150.039 Y156.571
X150.316 Y156.773
X150.544 Y157.028
X150.715 Y157.324
X150.82 Y157.65
X150.856 Y157.991
G3 X148.875 Y159.442 I-1.562 J-0.055
X149.243 Y156.35 I0.422 J-1.517
G1 X149.508
X149.699 Y156.357
X149.889 Y156.391
X150.08 Y156.457
X150.27 Y156.561
X150.417 Y156.674
X150.551 Y156.809
X150.651 Y156.943
X150.716 Y157.055
X150.795 Y157.246
X150.84 Y157.436
X150.856 Y157.817
Y168.595
X150.84 Y168.911
X150.822 Y169.111
X150.794 Y169.318
X150.755 Y169.535
X150.704 Y169.766
X150.64 Y170.007
X150.564 Y170.251
X150.473 Y170.505
X150.366 Y170.767
X150.243 Y171.037
X150.105 Y171.308
X149.953 Y171.579
X149.783 Y171.853
X149.596 Y172.129
X149.421 Y172.365
X149.371 Y172.426
X149.036 Y172.783
X148.652 Y173.086
X148.227 Y173.328
X147.771 Y173.506
X147.294 Y173.614
X146.806 Y173.65
G3 X146.324 Y173.536 I0.044 J-1.269
X145.825 Y171.631 I0.527 J-1.156
G1 X148.562 Y167.889
G3 X150.856 Y168.595 I1.025 J0.75
G1 Y170.593
X150.844 Y170.831
X150.83 Y170.98
X150.809 Y171.137
X150.783 Y171.286
X150.749 Y171.437
X150.703 Y171.609
X150.651 Y171.774
X150.474 Y172.17
X150.238 Y172.534
X149.95 Y172.858
X149.615 Y173.134
X149.242 Y173.356
X148.84 Y173.518
X148.417 Y173.617
X147.984 Y173.65
G3 X147.082 Y171.535 I0.044 J-1.269
G1 X148.64 Y169.791
G3 X150.742 Y170.11 I0.947 J0.846
X150.856 Y170.593 I-1.156 J0.527
G1 Y171.907
X150.848 Y172.056
X150.765 Y172.422
X150.608 Y172.762
X150.384 Y173.063
X150.104 Y173.311
X149.778 Y173.497
X149.421 Y173.611
X149.048 Y173.65
G3 X148.56 Y173.56 I0.059 J-1.692
X147.487 Y171.469 I0.548 J-1.602
X150.856 Y171.907 I1.648 J0.497
G1 Y172.287
X150.851 Y172.478
X150.82 Y172.668
X150.757 Y172.859
X150.657 Y173.049
X150.585 Y173.151
X150.504 Y173.244
X150.394 Y173.346
X150.284 Y173.43
X150.27 Y173.439
X150.08 Y173.543
X149.889 Y173.609
X149.699 Y173.643
X149.667 Y173.644
X149.168 Y173.645
X139.892 Y173.65
X139.394
X137.317
X137.229 Y173.646
X137.08 Y173.636
X136.922 Y173.618
X136.76 Y173.593
X136.583 Y173.559
X136.395 Y173.513
X136.203 Y173.458
X135.999 Y173.391
X135.783 Y173.309
X135.564 Y173.215
X135.34 Y173.108
X135.107 Y172.984
X134.866 Y172.843
X134.625 Y172.688
X134.384 Y172.518
X134.14 Y172.329
X133.893 Y172.122
X133.646 Y171.897
X133.403 Y171.655
X133.165 Y171.398
X132.934 Y171.125
X132.708 Y170.835
X132.488 Y170.528
X132.277 Y170.205
X132.076 Y169.866
X131.885 Y169.512
X131.707 Y169.145
X131.542 Y168.766
X131.392 Y168.376
X131.257 Y167.976
X131.137 Y167.566
X131.034 Y167.148
X130.948 Y166.723
X130.879 Y166.29
X130.828 Y165.852
X130.795 Y165.409
X130.781 Y164.962
X130.786 Y164.513
X130.809 Y164.062
X130.852 Y163.61
X130.914 Y163.159
X130.995 Y162.71
X131.095 Y162.262
X131.214 Y161.819
X131.352 Y161.38
X131.509 Y160.945
X131.684 Y160.518
X131.877 Y160.097
X132.088 Y159.684
X132.317 Y159.28
X132.563 Y158.885
X132.825 Y158.501
X133.103 Y158.127
X133.391 Y157.773
X133.646 Y157.485
X133.766 Y157.361
X134.093 Y157.064
X134.457 Y156.813
X134.851 Y156.613
X135.269 Y156.468
X135.702 Y156.38
X136.143 Y156.35
X138.247
G3 X138.729 Y156.464 I-0.044 J1.269
X139.47 Y157.699 I-0.527 J1.156
G1 X138.541 Y172.461
G3 X137.8 Y173.536 I-1.267 J-0.08
X137.317 Y173.65 I-0.527 J-1.156
G1 X135.678
X135.597 Y173.646
X135.447 Y173.636
X135.298 Y173.619
X135.148 Y173.595
X134.993 Y173.563
X134.825 Y173.521
X134.646 Y173.469
X134.464 Y173.407
X134.27 Y173.332
X134.065 Y173.242
X133.859 Y173.142
X133.646 Y173.026
X133.423 Y172.893
X133.195 Y172.744
X132.968 Y172.581
X132.737 Y172.4
X132.501 Y172.199
X132.264 Y171.979
X132.03 Y171.743
X131.8 Y171.49
X131.571 Y171.217
X131.346 Y170.924
X131.126 Y170.611
X130.914 Y170.28
X130.712 Y169.934
X130.521 Y169.572
X130.341 Y169.196
X130.174 Y168.802
X130.02 Y168.393
X129.88 Y167.97
X129.757 Y167.534
X129.65 Y167.085
X129.56 Y166.626
X129.489 Y166.158
X129.438 Y165.682
X129.406 Y165.2
X129.394 Y164.713
X129.403 Y164.222
X129.432 Y163.728
X129.483 Y163.232
X129.555 Y162.736
X129.648 Y162.24
X129.763 Y161.746
X129.899 Y161.255
X130.056 Y160.768
X130.234 Y160.287
X130.433 Y159.811
X130.651 Y159.345
X130.873 Y158.919
X131.092 Y158.539
X131.305 Y158.203
X131.504 Y157.915
X131.715 Y157.636
X131.788 Y157.549
X132.122 Y157.199
X132.504 Y156.902
X132.926 Y156.665
X133.377 Y156.491
X133.85 Y156.385
X134.332 Y156.35
X136.143
G3 X136.625 Y156.464 I-0.044 J1.269
X137.368 Y157.659 I-0.527 J1.156
G1 X136.903 Y172.421
G3 X136.161 Y173.536 I-1.269 J-0.04
X135.678 Y173.65 I-0.527 J-1.156
G1 X134.154
X134.005 Y173.643
X133.855 Y173.628
X133.707 Y173.606
X133.56 Y173.577
X133.401 Y173.539
X133.235 Y173.492
X133.064 Y173.435
X132.88 Y173.366
X132.688 Y173.284
X132.493 Y173.191
X132.288 Y173.082
X132.073 Y172.956
X131.858 Y172.818
X131.638 Y172.663
X131.411 Y172.488
X131.179 Y172.294
X130.95 Y172.085
X130.722 Y171.859
X130.492 Y171.61
X130.262 Y171.34
X130.035 Y171.049
X129.816 Y170.743
X129.603 Y170.418
X129.397 Y170.071
X129.198 Y169.703
X129.009 Y169.314
X128.831 Y168.906
X128.668 Y168.484
X128.52 Y168.047
X128.388 Y167.596
X128.272 Y167.129
X128.174 Y166.648
X128.095 Y166.153
X128.036 Y165.648
X127.997 Y165.132
X127.98 Y164.609
X127.985 Y164.078
X128.013 Y163.542
X128.063 Y163.003
X128.137 Y162.461
X128.234 Y161.92
X128.354 Y161.383
X128.494 Y160.858
X128.653 Y160.352
X128.827 Y159.868
X129.014 Y159.411
X129.187 Y159.032
X129.38 Y158.655
X129.547 Y158.359
X129.732 Y158.061
X129.91 Y157.799
X130.081 Y157.57
X130.416 Y157.215
X130.799 Y156.913
X131.224 Y156.671
X131.679 Y156.494
X132.156 Y156.386
X132.643 Y156.35
X134.332
G3 X135.558 Y157.635 I-0.044 J1.269
G1 X135.38 Y172.396
G3 X134.637 Y173.536 I-1.27 J-0.015
X134.154 Y173.65 I-0.527 J-1.156
G1 X132.746
X132.663 Y173.646
X132.513 Y173.637
X132.364 Y173.62
X132.216 Y173.595
X132.067 Y173.563
X131.911 Y173.522
X131.75 Y173.473
X131.574 Y173.412
X131.392 Y173.339
X131.206 Y173.255
X131.007 Y173.156
X130.801 Y173.042
X130.594 Y172.915
X130.379 Y172.772
X130.156 Y172.608
X129.931 Y172.429
X129.707 Y172.234
X129.478 Y172.016
X129.244 Y171.776
X129.013 Y171.517
X128.787 Y171.242
X128.563 Y170.944
X128.341 Y170.621
X128.124 Y170.276
X127.916 Y169.911
X127.719 Y169.529
X127.533 Y169.128
X127.357 Y168.703
X127.194 Y168.257
X127.046 Y167.791
X126.913 Y167.306
X126.799 Y166.806
X126.704 Y166.293
X126.63 Y165.767
X126.577 Y165.23
X126.546 Y164.68
X126.538 Y164.119
X126.554 Y163.552
X126.594 Y162.982
X126.657 Y162.413
X126.745 Y161.851
X126.853 Y161.305
X126.98 Y160.78
X127.122 Y160.287
X127.277 Y159.822
X127.441 Y159.391
X127.592 Y159.04
X127.764 Y158.683
X127.915 Y158.398
X128.082 Y158.116
X128.25 Y157.856
X128.409 Y157.632
X128.745 Y157.259
X129.134 Y156.942
X129.566 Y156.688
X130.031 Y156.502
X130.52 Y156.388
X131.02 Y156.35
X132.643
G3 X133.868 Y157.61 I-0.044 J1.269
G1 X133.971 Y172.372
G3 X132.746 Y173.65 I-1.27 J0.009
G1 X131.299
X131.149 Y173.643
X131 Y173.627
X130.852 Y173.604
X130.705 Y173.575
X130.553 Y173.537
X130.389 Y173.489
X130.223 Y173.432
X130.044 Y173.362
X129.855 Y173.28
X129.664 Y173.187
X129.464 Y173.078
X129.252 Y172.952
X129.04 Y172.812
X128.823 Y172.657
X128.597 Y172.48
X128.366 Y172.283
X128.139 Y172.072
X127.909 Y171.84
X127.676 Y171.583
X127.442 Y171.303
X127.214 Y171.007
X126.991 Y170.689
X126.77 Y170.344
X126.554 Y169.974
X126.346 Y169.58
X126.15 Y169.169
X125.967 Y168.739
X125.796 Y168.285
X125.639 Y167.808
X125.498 Y167.308
X125.374 Y166.788
X125.27 Y166.251
X125.186 Y165.701
X125.126 Y165.139
X125.088 Y164.567
X125.074 Y163.988
X125.085 Y163.405
X125.12 Y162.825
X125.178 Y162.253
X125.259 Y161.7
X125.358 Y161.171
X125.475 Y160.669
X125.608 Y160.189
X125.755 Y159.735
X125.896 Y159.352
X126.045 Y158.997
X126.2 Y158.667
X126.34 Y158.398
X126.505 Y158.112
X126.66 Y157.866
X126.728 Y157.769
X127.012 Y157.414
X127.342 Y157.102
X127.712 Y156.838
X128.114 Y156.628
X128.542 Y156.474
X128.986 Y156.381
X129.439 Y156.35
X131.02
G3 X131.502 Y156.464 I-0.044 J1.269
X132.245 Y157.595 I-0.527 J1.156
G1 X132.525 Y172.357
G3 X131.299 Y173.65 I-1.27 J0.024
G1 X129.964
X129.719 Y173.637
X129.57 Y173.62
X129.422 Y173.596
X129.276 Y173.565
X129.125 Y173.526
X128.963 Y173.477
X128.79 Y173.416
X128.613 Y173.346
X128.426 Y173.262
X128.227 Y173.163
X128.027 Y173.053
X127.819 Y172.926
X127.6 Y172.78
X127.378 Y172.618
X127.155 Y172.441
X126.924 Y172.24
X126.687 Y172.017
X126.454 Y171.778
X126.222 Y171.518
X125.986 Y171.232
X125.751 Y170.919
X125.521 Y170.587
X125.3 Y170.236
X125.083 Y169.857
X124.872 Y169.449
X124.669 Y169.015
X124.48 Y168.56
X124.307 Y168.089
X124.149 Y167.595
X124.007 Y167.078
X123.883 Y166.539
X123.78 Y165.983
X123.698 Y165.412
X123.64 Y164.831
X123.606 Y164.246
X123.597 Y163.662
X123.612 Y163.081
X123.651 Y162.507
X123.713 Y161.951
X123.795 Y161.414
X123.896 Y160.901
X124.012 Y160.421
X124.141 Y159.97
X124.271 Y159.577
X124.418 Y159.191
X124.554 Y158.871
X124.7 Y158.568
X124.85 Y158.285
X124.991 Y158.044
X125.154 Y157.791
X125.185 Y157.747
X125.47 Y157.398
X125.799 Y157.09
X126.167 Y156.83
X126.567 Y156.623
X126.991 Y156.472
X127.432 Y156.381
X127.881 Y156.35
X129.439
G3 X129.922 Y156.464 I-0.044 J1.269
X130.664 Y157.574 I-0.527 J1.156
G1 X131.189 Y172.336
G3 X130.446 Y173.536 I-1.269 J0.045
X129.964 Y173.65 I-0.527 J-1.156
G1 X128.555
X128.318 Y173.637
X128.169 Y173.62
X128.021 Y173.595
X127.875 Y173.563
X127.723 Y173.524
X127.557 Y173.473
X127.385 Y173.413
X127.207 Y173.342
X127.015 Y173.256
X126.818 Y173.157
X126.616 Y173.045
X126.401 Y172.914
X126.181 Y172.766
X125.961 Y172.605
X125.732 Y172.422
X125.495 Y172.216
X125.26 Y171.993
X125.024 Y171.75
X124.783 Y171.48
X124.54 Y171.183
X124.304 Y170.869
X124.073 Y170.533
X123.844 Y170.168
X123.619 Y169.774
X123.402 Y169.353
X123.199 Y168.915
X123.008 Y168.455
X122.83 Y167.967
X122.667 Y167.454
X122.521 Y166.92
X122.395 Y166.367
X122.291 Y165.8
X122.21 Y165.223
X122.152 Y164.639
X122.119 Y164.053
X122.111 Y163.47
X122.127 Y162.895
X122.167 Y162.335
X122.228 Y161.791
X122.309 Y161.269
X122.408 Y160.771
X122.521 Y160.305
X122.647 Y159.866
X122.772 Y159.494
X122.913 Y159.122
X123.045 Y158.816
X123.188 Y158.519
X123.334 Y158.245
X123.473 Y158.01
X123.633 Y157.762
X123.647 Y157.742
X123.932 Y157.394
X124.261 Y157.087
X124.628 Y156.829
X125.028 Y156.622
X125.451 Y156.472
X125.892 Y156.381
X126.34 Y156.35
X127.881
G3 X128.364 Y156.464 I-0.044 J1.269
X129.106 Y157.561 I-0.527 J1.156
G1 X129.78 Y172.323
G3 X129.038 Y173.536 I-1.269 J0.058
X128.555 Y173.65 I-0.527 J-1.156
G1 X127.108
X126.959 Y173.643
X126.809 Y173.627
X126.661 Y173.604
X126.514 Y173.575
X126.36 Y173.536
X126.196 Y173.488
X126.028 Y173.431
X125.845 Y173.361
X125.655 Y173.278
X125.461 Y173.183
X125.253 Y173.071
X125.038 Y172.943
X124.823 Y172.802
X124.597 Y172.64
X124.361 Y172.456
X124.128 Y172.257
X123.89 Y172.037
X123.645 Y171.79
X123.399 Y171.52
X123.159 Y171.233
X122.918 Y170.919
X122.677 Y170.576
X122.438 Y170.205
X122.21 Y169.814
X121.991 Y169.401
X121.78 Y168.958
X121.579 Y168.487
X121.391 Y167.991
X121.22 Y167.472
X121.068 Y166.938
X120.937 Y166.388
X120.827 Y165.825
X120.74 Y165.25
X120.676 Y164.667
X120.637 Y164.082
X120.622 Y163.497
X120.632 Y162.921
X120.665 Y162.362
X120.72 Y161.824
X120.794 Y161.311
X120.886 Y160.82
X120.995 Y160.351
X121.116 Y159.912
X121.237 Y159.537
X121.371 Y159.173
X121.503 Y158.857
X121.637 Y158.572
X121.784 Y158.289
X121.919 Y158.054
X122.074 Y157.808
X122.1 Y157.771
X122.383 Y157.416
X122.714 Y157.104
X123.083 Y156.839
X123.486 Y156.628
X123.914 Y156.475
X124.359 Y156.381
X124.813 Y156.35
X126.34
G3 X126.822 Y156.464 I-0.044 J1.269
X127.564 Y157.553 I-0.527 J1.156
G1 X128.332 Y172.315
G3 X127.591 Y173.536 I-1.268 J0.066
X127.108 Y173.65 I-0.527 J-1.156
G1 X125.679
X125.529 Y173.643
X125.38 Y173.626
X125.232 Y173.602
X125.085 Y173.572
X124.933 Y173.533
X124.765 Y173.484
X124.591 Y173.424
X124.41 Y173.353
X124.215 Y173.267
X124.015 Y173.169
X123.81 Y173.057
X123.591 Y172.925
X123.366 Y172.777
X123.14 Y172.614
X122.904 Y172.427
X122.66 Y172.218
X122.42 Y171.994
X122.176 Y171.746
X121.926 Y171.469
X121.675 Y171.168
X121.432 Y170.849
X121.189 Y170.501
X120.949 Y170.123
X120.713 Y169.717
X120.489 Y169.289
X120.278 Y168.842
X120.078 Y168.368
X119.891 Y167.869
X119.721 Y167.345
X119.569 Y166.802
X119.437 Y166.242
X119.327 Y165.67
X119.242 Y165.092
X119.18 Y164.51
X119.144 Y163.929
X119.132 Y163.354
X119.144 Y162.786
X119.179 Y162.236
X119.235 Y161.703
X119.311 Y161.193
X119.403 Y160.712
X119.509 Y160.262
X119.629 Y159.834
X119.745 Y159.476
X119.881 Y159.112
X120.006 Y158.816
X120.146 Y158.521
X120.286 Y158.253
X120.421 Y158.021
X120.578 Y157.775
X120.587 Y157.761
X120.871 Y157.408
X121.201 Y157.098
X121.57 Y156.835
X121.972 Y156.626
X122.398 Y156.474
X122.841 Y156.381
X123.293 Y156.35
X124.813
G3 X125.295 Y156.464 I-0.044 J1.269
X126.036 Y157.545 I-0.527 J1.156
G1 X126.902 Y172.306
G3 X126.161 Y173.536 I-1.268 J0.074
X125.679 Y173.65 I-0.527 J-1.156
G1 X124.249
X124.1 Y173.643
X123.95 Y173.626
X123.802 Y173.602
X123.656 Y173.571
X123.5 Y173.531
X123.33 Y173.481
X123.156 Y173.421
X122.971 Y173.348
X122.773 Y173.26
X122.573 Y173.162
X122.363 Y173.046
X122.14 Y172.912
X121.916 Y172.764
X121.685 Y172.597
X121.443 Y172.405
X121.199 Y172.195
X120.955 Y171.967
X120.705 Y171.712
X120.45 Y171.429
X120.2 Y171.128
X119.954 Y170.804
X119.707 Y170.45
X119.463 Y170.064
X119.226 Y169.654
X119.001 Y169.225
X118.788 Y168.77
X118.585 Y168.288
X118.397 Y167.781
X118.225 Y167.253
X118.073 Y166.706
X117.941 Y166.144
X117.833 Y165.573
X117.748 Y164.995
X117.688 Y164.414
X117.652 Y163.835
X117.641 Y163.264
X117.654 Y162.702
X117.689 Y162.159
X117.745 Y161.632
X117.82 Y161.13
X117.912 Y160.655
X118.017 Y160.21
X118.136 Y159.789
X118.251 Y159.438
X118.385 Y159.081
X118.508 Y158.79
X118.647 Y158.497
X118.786 Y158.234
X118.92 Y158.003
X119.077 Y157.757
X119.361 Y157.405
X119.691 Y157.096
X120.06 Y156.834
X120.461 Y156.625
X120.887 Y156.473
X121.329 Y156.381
X121.781 Y156.35
X123.293
G3 X123.775 Y156.464 I-0.044 J1.269
X124.516 Y157.537 I-0.527 J1.156
G1 X125.472 Y172.299
G3 X124.732 Y173.536 I-1.267 J0.082
X124.249 Y173.65 I-0.527 J-1.156
G1 X122.841
X122.691 Y173.643
X122.542 Y173.627
X122.393 Y173.604
X122.246 Y173.575
X122.088 Y173.536
X121.921 Y173.488
X121.748 Y173.43
X121.559 Y173.357
X121.365 Y173.273
X121.164 Y173.176
X120.95 Y173.061
X120.73 Y172.93
X120.506 Y172.785
X120.27 Y172.617
X120.027 Y172.428
X119.786 Y172.224
X119.537 Y171.995
X119.282 Y171.738
X119.029 Y171.462
X118.779 Y171.165
X118.526 Y170.838
X118.272 Y170.48
X118.026 Y170.098
X117.79 Y169.697
X117.561 Y169.268
X117.341 Y168.81
X117.133 Y168.325
X116.939 Y167.817
X116.764 Y167.29
X116.608 Y166.747
X116.473 Y166.191
X116.361 Y165.624
X116.271 Y165.048
X116.206 Y164.467
X116.166 Y163.888
X116.15 Y163.315
X116.159 Y162.753
X116.189 Y162.213
X116.241 Y161.69
X116.312 Y161.19
X116.4 Y160.711
X116.503 Y160.262
X116.618 Y159.838
X116.731 Y159.485
X116.862 Y159.127
X116.986 Y158.828
X117.118 Y158.543
X117.259 Y158.271
X117.39 Y158.041
X117.543 Y157.797
X117.556 Y157.779
X117.84 Y157.422
X118.17 Y157.108
X118.541 Y156.842
X118.944 Y156.63
X119.373 Y156.475
X119.819 Y156.382
X120.274 Y156.35
X121.781
G3 X123.003 Y157.528 I-0.044 J1.269
G1 X124.063 Y172.29
G3 X123.323 Y173.536 I-1.267 J0.091
X122.841 Y173.65 I-0.527 J-1.156
G1 X121.394
X121.244 Y173.643
X121.095 Y173.627
X120.947 Y173.604
X120.8 Y173.575
X120.642 Y173.536
X120.471 Y173.486
X120.297 Y173.428
X120.109 Y173.356
X119.91 Y173.27
X119.709 Y173.172
X119.495 Y173.057
X119.27 Y172.924
X119.044 Y172.777
X118.808 Y172.609
X118.562 Y172.418
X118.317 Y172.21
X118.069 Y171.982
X117.813 Y171.725
X117.553 Y171.442
X117.3 Y171.142
X117.047 Y170.814
X116.793 Y170.456
X116.542 Y170.067
X116.302 Y169.658
X116.073 Y169.229
X115.853 Y168.772
X115.645 Y168.288
X115.452 Y167.78
X115.275 Y167.25
X115.118 Y166.703
X114.982 Y166.143
X114.869 Y165.574
X114.78 Y164.998
X114.716 Y164.421
X114.675 Y163.846
X114.66 Y163.277
X114.668 Y162.719
X114.698 Y162.18
X114.75 Y161.656
X114.821 Y161.157
X114.908 Y160.685
X115.009 Y160.243
X115.123 Y159.823
X115.235 Y159.473
X115.366 Y159.116
X115.487 Y158.824
X115.622 Y158.533
X115.759 Y158.267
X115.89 Y158.037
X116.044 Y157.793
X116.053 Y157.779
X116.337 Y157.422
X116.667 Y157.108
X117.038 Y156.842
X117.442 Y156.63
X117.871 Y156.475
X118.317 Y156.382
X118.772 Y156.35
X120.274
G3 X120.757 Y156.464 I-0.044 J1.269
X121.496 Y157.523 I-0.527 J1.156
G1 X122.616 Y172.285
G3 X121.876 Y173.536 I-1.266 J0.096
X121.394 Y173.65 I-0.527 J-1.156
G1 X119.964
X119.815 Y173.643
X119.665 Y173.628
X119.517 Y173.607
X119.37 Y173.578
X119.211 Y173.541
X119.043 Y173.493
X118.869 Y173.436
X118.679 Y173.365
X118.484 Y173.282
X118.282 Y173.186
X118.065 Y173.072
X117.843 Y172.942
X117.617 Y172.798
X117.377 Y172.63
X117.132 Y172.442
X116.888 Y172.238
X116.636 Y172.009
X116.376 Y171.752
X116.12 Y171.477
X115.866 Y171.18
X115.608 Y170.851
X115.351 Y170.493
X115.1 Y170.111
X114.86 Y169.71
X114.626 Y169.279
X114.402 Y168.821
X114.189 Y168.336
X113.992 Y167.828
X113.812 Y167.301
X113.652 Y166.759
X113.513 Y166.204
X113.397 Y165.637
X113.303 Y165.063
X113.234 Y164.485
X113.19 Y163.909
X113.17 Y163.339
X113.174 Y162.781
X113.201 Y162.243
X113.248 Y161.721
X113.315 Y161.223
X113.4 Y160.746
X113.499 Y160.299
X113.611 Y159.877
X113.721 Y159.523
X113.849 Y159.164
X113.971 Y158.864
X114.101 Y158.578
X114.24 Y158.304
X114.369 Y158.073
X114.52 Y157.829
X114.541 Y157.799
X114.825 Y157.437
X115.156 Y157.119
X115.528 Y156.849
X115.933 Y156.634
X116.365 Y156.477
X116.814 Y156.382
X117.273 Y156.35
X118.772
G3 X119.254 Y156.464 I-0.044 J1.269
X119.993 Y157.517 I-0.527 J1.156
G1 X121.186 Y172.278
G3 X120.447 Y173.536 I-1.266 J0.102
X119.964 Y173.65 I-0.527 J-1.156
G1 X118.535
X118.448 Y173.646
X118.298 Y173.637
X118.149 Y173.62
X118.001 Y173.596
X117.848 Y173.563
X117.689 Y173.523
X117.516 Y173.471
X117.333 Y173.408
X117.145 Y173.335
X116.943 Y173.245
X116.733 Y173.141
X116.519 Y173.024
X116.29 Y172.886
X116.054 Y172.73
X115.818 Y172.559
X115.571 Y172.364
X115.316 Y172.145
X115.064 Y171.909
X114.809 Y171.649
X114.547 Y171.359
X114.285 Y171.042
X114.03 Y170.707
X113.778 Y170.345
X113.529 Y169.952
X113.285 Y169.531
X113.051 Y169.083
X112.831 Y168.617
X112.627 Y168.131
X112.437 Y167.621
X112.265 Y167.089
X112.112 Y166.54
X111.98 Y165.977
X111.871 Y165.406
X111.787 Y164.83
X111.727 Y164.253
X111.692 Y163.68
X111.68 Y163.114
X111.693 Y162.558
X111.727 Y162.023
X111.782 Y161.513
X111.854 Y161.031
X111.943 Y160.569
X112.047 Y160.131
X112.158 Y159.734
X112.274 Y159.382
X112.401 Y159.042
X112.52 Y158.762
X112.66 Y158.467
X112.792 Y158.216
X112.927 Y157.983
X113.08 Y157.744
X113.361 Y157.396
X113.688 Y157.089
X114.053 Y156.83
X114.45 Y156.623
X114.872 Y156.472
X115.311 Y156.381
X115.758 Y156.35
X117.273
G3 X117.755 Y156.464 I-0.044 J1.269
X118.494 Y157.511 I-0.527 J1.156
G1 X119.756 Y172.273
G3 X119.017 Y173.536 I-1.265 J0.108
X118.535 Y173.65 I-0.527 J-1.156
G1 X117.011
X116.861 Y173.643
X116.712 Y173.627
X116.564 Y173.604
X116.415 Y173.574
X116.251 Y173.533
X116.082 Y173.484
X115.903 Y173.424
X115.709 Y173.349
X115.512 Y173.264
X115.303 Y173.163
X115.081 Y173.044
X114.859 Y172.912
X114.627 Y172.761
X114.382 Y172.587
X114.137 Y172.396
X113.888 Y172.185
X113.63 Y171.947
X113.367 Y171.683
X113.111 Y171.403
X112.852 Y171.096
X112.592 Y170.758
X112.333 Y170.392
X112.083 Y170.006
X111.843 Y169.597
X111.609 Y169.159
X111.386 Y168.692
X111.175 Y168.201
X110.979 Y167.687
X110.802 Y167.156
X110.646 Y166.611
X110.511 Y166.052
X110.398 Y165.483
X110.309 Y164.907
X110.245 Y164.33
X110.205 Y163.757
X110.19 Y163.192
X110.198 Y162.641
X110.228 Y162.11
X110.279 Y161.595
X110.349 Y161.105
X110.436 Y160.636
X110.536 Y160.198
X110.649 Y159.783
X110.76 Y159.438
X110.889 Y159.086
X111.009 Y158.795
X111.142 Y158.51
X111.279 Y158.245
X111.409 Y158.018
X111.56 Y157.776
X111.844 Y157.42
X112.174 Y157.106
X112.544 Y156.841
X112.947 Y156.629
X113.375 Y156.475
X113.821 Y156.381
X114.275 Y156.35
X115.758
G3 X116.979 Y157.512 I-0.044 J1.269
G1 X118.232 Y172.273
G3 X117.493 Y173.536 I-1.265 J0.107
X117.011 Y173.65 I-0.527 J-1.156
G1 X115.602
X115.363 Y173.637
X115.214 Y173.62
X115.066 Y173.596
X114.917 Y173.565
X114.754 Y173.524
X114.579 Y173.472
X114.4 Y173.411
X114.207 Y173.335
X114.003 Y173.246
X113.797 Y173.144
X113.576 Y173.024
X113.345 Y172.886
X113.114 Y172.734
X112.872 Y172.559
X112.62 Y172.361
X112.37 Y172.147
X112.116 Y171.91
X111.854 Y171.644
X111.59 Y171.352
X111.332 Y171.043
X111.075 Y170.706
X110.817 Y170.338
X110.564 Y169.94
X110.32 Y169.52
X110.089 Y169.08
X109.868 Y168.615
X109.66 Y168.123
X109.468 Y167.608
X109.293 Y167.074
X109.138 Y166.523
X109.006 Y165.961
X108.896 Y165.39
X108.811 Y164.816
X108.75 Y164.242
X108.713 Y163.672
X108.701 Y163.11
X108.712 Y162.557
X108.745 Y162.025
X108.799 Y161.51
X108.871 Y161.026
X108.958 Y160.567
X109.06 Y160.133
X109.173 Y159.729
X109.284 Y159.386
X109.412 Y159.043
X109.53 Y158.763
X109.667 Y158.472
X109.8 Y158.218
X109.933 Y157.989
X110.003 Y157.879
X110.285 Y157.499
X110.618 Y157.163
X110.996 Y156.879
X111.41 Y156.651
X111.853 Y156.485
X112.315 Y156.384
X112.787 Y156.35
X114.275
G3 X114.757 Y156.464 I-0.044 J1.269
X115.496 Y157.505 I-0.527 J1.156
G1 X116.823 Y172.267
G3 X116.085 Y173.536 I-1.265 J0.114
X115.602 Y173.65 I-0.527 J-1.156
G1 X114.079
X113.929 Y173.643
X113.779 Y173.627
X113.631 Y173.605
X113.482 Y173.576
X113.318 Y173.536
X113.151 Y173.489
X112.97 Y173.429
X112.776 Y173.355
X112.58 Y173.271
X112.37 Y173.171
X112.149 Y173.053
X111.927 Y172.923
X111.692 Y172.772
X111.447 Y172.599
X111.202 Y172.411
X110.951 Y172.2
X110.691 Y171.962
X110.429 Y171.701
X110.172 Y171.423
X109.911 Y171.116
X109.648 Y170.779
X109.388 Y170.414
X109.138 Y170.032
X108.894 Y169.622
X108.658 Y169.183
X108.431 Y168.716
X108.218 Y168.224
X108.02 Y167.712
X107.842 Y167.184
X107.683 Y166.641
X107.546 Y166.084
X107.431 Y165.517
X107.339 Y164.942
X107.272 Y164.365
X107.23 Y163.791
X107.212 Y163.225
X107.217 Y162.673
X107.245 Y162.141
X107.294 Y161.628
X107.361 Y161.137
X107.445 Y160.668
X107.544 Y160.228
X107.649 Y159.836
X107.766 Y159.463
X107.888 Y159.125
X108.006 Y158.838
X108.144 Y158.536
X108.273 Y158.285
X108.409 Y158.044
X108.559 Y157.804
X108.568 Y157.791
X108.851 Y157.431
X109.182 Y157.114
X109.553 Y156.846
X109.958 Y156.632
X110.389 Y156.476
X110.837 Y156.382
X111.294 Y156.35
X112.787
G3 X113.27 Y156.464 I-0.044 J1.269
X114.008 Y157.509 I-0.527 J1.156
G1 X115.299 Y172.27
G3 X114.561 Y173.536 I-1.265 J0.111
X114.079 Y173.65 I-0.527 J-1.156
G1 X112.632
X112.552 Y173.646
X112.403 Y173.637
X112.254 Y173.619
X112.106 Y173.595
X111.952 Y173.563
X111.791 Y173.522
X111.613 Y173.469
X111.432 Y173.406
X111.24 Y173.33
X111.033 Y173.239
X110.824 Y173.136
X110.604 Y173.015
X110.37 Y172.875
X110.136 Y172.719
X109.895 Y172.545
X109.643 Y172.345
X109.387 Y172.125
X109.133 Y171.887
X108.872 Y171.621
X108.605 Y171.325
X108.343 Y171.008
X108.086 Y170.671
X107.829 Y170.302
X107.576 Y169.904
X107.33 Y169.477
X107.096 Y169.03
X106.877 Y168.564
X106.671 Y168.073
X106.48 Y167.558
X106.306 Y167.023
X106.152 Y166.471
X106.021 Y165.908
X105.912 Y165.337
X105.828 Y164.762
X105.769 Y164.188
X105.733 Y163.617
X105.723 Y163.055
X105.735 Y162.506
X105.769 Y161.975
X105.823 Y161.471
X105.895 Y160.992
X105.983 Y160.537
X106.086 Y160.102
X106.197 Y159.709
X106.311 Y159.362
X106.437 Y159.026
X106.555 Y158.748
X106.693 Y158.455
X106.824 Y158.206
X106.959 Y157.974
X107.025 Y157.872
X107.307 Y157.494
X107.64 Y157.159
X108.017 Y156.876
X108.431 Y156.65
X108.873 Y156.484
X109.334 Y156.384
X109.805 Y156.35
X111.294
G3 X112.514 Y157.505 I-0.044 J1.269
G1 X113.852 Y172.266
G3 X113.114 Y173.536 I-1.265 J0.115
X112.632 Y173.65 I-0.527 J-1.156
G1 X111.108
X110.958 Y173.643
X110.809 Y173.627
X110.661 Y173.604
X110.509 Y173.574
X110.344 Y173.533
X110.175 Y173.484
X109.993 Y173.423
X109.798 Y173.348
X109.6 Y173.263
X109.387 Y173.16
X109.165 Y173.041
X108.941 Y172.909
X108.705 Y172.755
X108.458 Y172.58
X108.213 Y172.389
X107.96 Y172.175
X107.698 Y171.934
X107.435 Y171.671
X107.177 Y171.389
X106.915 Y171.079
X106.651 Y170.738
X106.39 Y170.37
X106.141 Y169.984
X105.897 Y169.572
X105.661 Y169.129
X105.435 Y168.66
X105.223 Y168.166
X105.026 Y167.651
X104.849 Y167.12
X104.692 Y166.574
X104.556 Y166.016
X104.443 Y165.447
X104.354 Y164.872
X104.289 Y164.297
X104.249 Y163.726
X104.233 Y163.163
X104.24 Y162.615
X104.27 Y162.087
X104.32 Y161.575
X104.389 Y161.088
X104.475 Y160.622
X104.574 Y160.187
X104.679 Y159.801
X104.797 Y159.428
X104.919 Y159.096
X105.037 Y158.81
X105.176 Y158.511
X105.303 Y158.264
X105.441 Y158.021
X105.592 Y157.781
X105.876 Y157.423
X106.207 Y157.109
X106.577 Y156.843
X106.981 Y156.63
X107.41 Y156.476
X107.857 Y156.382
X108.312 Y156.35
X109.805
G3 X110.287 Y156.464 I-0.044 J1.269
X111.026 Y157.508 I-0.527 J1.156
G1 X112.329 Y172.269
G3 X111.59 Y173.536 I-1.265 J0.112
X111.108 Y173.65 I-0.527 J-1.156
G1 X109.678
X109.594 Y173.646
X109.444 Y173.637
X109.295 Y173.62
X109.147 Y173.595
X108.996 Y173.564
X108.832 Y173.523
X108.655 Y173.47
X108.475 Y173.408
X108.28 Y173.332
X108.075 Y173.242
X107.867 Y173.139
X107.644 Y173.018
X107.411 Y172.878
X107.179 Y172.725
X106.934 Y172.549
X106.68 Y172.349
X106.429 Y172.133
X106.172 Y171.894
X105.908 Y171.625
X105.642 Y171.331
X105.382 Y171.019
X105.123 Y170.679
X104.864 Y170.308
X104.609 Y169.908
X104.364 Y169.485
X104.131 Y169.043
X103.91 Y168.575
X103.702 Y168.082
X103.509 Y167.566
X103.334 Y167.03
X103.18 Y166.479
X103.047 Y165.916
X102.938 Y165.346
X102.853 Y164.773
X102.792 Y164.2
X102.756 Y163.631
X102.744 Y163.07
X102.756 Y162.524
X102.789 Y161.993
X102.843 Y161.485
X102.914 Y161.005
X103 Y160.551
X103.102 Y160.118
X103.214 Y159.719
X103.326 Y159.376
X103.453 Y159.035
X103.57 Y158.757
X103.707 Y158.466
X103.84 Y158.214
X103.972 Y157.984
X104.041 Y157.877
X104.323 Y157.498
X104.656 Y157.162
X105.034 Y156.878
X105.448 Y156.651
X105.891 Y156.485
X106.353 Y156.384
X106.824 Y156.35
X108.312
G3 X108.794 Y156.464 I-0.044 J1.269
X109.532 Y157.502 I-0.527 J1.156
G1 X110.899 Y172.264
G3 X109.678 Y173.65 I-1.265 J0.117
G1 X108.154
X108.005 Y173.643
X107.855 Y173.627
X107.707 Y173.605
X107.556 Y173.576
X107.392 Y173.536
X107.224 Y173.488
X107.041 Y173.428
X106.847 Y173.354
X106.65 Y173.27
X106.438 Y173.169
X106.216 Y173.051
X105.993 Y172.92
X105.756 Y172.768
X105.51 Y172.594
X105.265 Y172.406
X105.011 Y172.193
X104.748 Y171.953
X104.487 Y171.693
X104.228 Y171.413
X103.965 Y171.104
X103.7 Y170.764
X103.439 Y170.399
X103.189 Y170.016
X102.944 Y169.604
X102.706 Y169.162
X102.478 Y168.694
X102.263 Y168.201
X102.066 Y167.689
X101.887 Y167.161
X101.728 Y166.617
X101.591 Y166.061
X101.475 Y165.493
X101.384 Y164.919
X101.316 Y164.343
X101.274 Y163.771
X101.256 Y163.208
X101.261 Y162.658
X101.289 Y162.129
X101.337 Y161.617
X101.404 Y161.129
X101.488 Y160.661
X101.586 Y160.222
X101.691 Y159.832
X101.807 Y159.461
X101.929 Y159.123
X102.046 Y158.836
X102.184 Y158.536
X102.312 Y158.285
X102.448 Y158.044
X102.597 Y157.804
X102.606 Y157.792
X102.889 Y157.432
X103.22 Y157.115
X103.591 Y156.847
X103.996 Y156.633
X104.427 Y156.477
X104.875 Y156.382
X105.333 Y156.35
X106.824
G3 X107.306 Y156.464 I-0.044 J1.269
X108.045 Y157.505 I-0.527 J1.156
G1 X109.375 Y172.267
G3 X108.637 Y173.536 I-1.265 J0.114
X108.154 Y173.65 I-0.527 J-1.156
G1 X106.725
X106.483 Y173.637
X106.334 Y173.62
X106.186 Y173.596
X106.034 Y173.565
X105.872 Y173.525
X105.695 Y173.472
X105.514 Y173.411
X105.321 Y173.336
X105.115 Y173.245
X104.906 Y173.144
X104.685 Y173.024
X104.451 Y172.884
X104.218 Y172.731
X103.975 Y172.557
X103.721 Y172.357
X103.467 Y172.141
X103.212 Y171.903
X102.948 Y171.637
X102.68 Y171.342
X102.419 Y171.03
X102.16 Y170.692
X101.901 Y170.323
X101.646 Y169.924
X101.399 Y169.501
X101.165 Y169.058
X100.944 Y168.593
X100.735 Y168.101
X100.542 Y167.586
X100.366 Y167.052
X100.21 Y166.501
X100.076 Y165.939
X99.966 Y165.369
X99.88 Y164.796
X99.818 Y164.223
X99.78 Y163.654
X99.767 Y163.093
X99.777 Y162.545
X99.81 Y162.013
X99.862 Y161.506
X99.932 Y161.026
X100.018 Y160.571
X100.119 Y160.137
X100.229 Y159.737
X100.341 Y159.392
X100.468 Y159.051
X100.585 Y158.771
X100.722 Y158.479
X100.854 Y158.226
X100.986 Y157.996
X101.138 Y157.757
X101.42 Y157.406
X101.747 Y157.096
X102.114 Y156.834
X102.513 Y156.625
X102.937 Y156.473
X103.378 Y156.381
X103.828 Y156.35
X105.333
G3 X105.815 Y156.464 I-0.044 J1.269
X106.553 Y157.5 I-0.527 J1.156
G1 X107.945 Y172.262
G3 X106.725 Y173.65 I-1.264 J0.119
G1 X105.201
X105.051 Y173.643
X104.902 Y173.628
X104.753 Y173.607
X104.603 Y173.578
X104.44 Y173.54
X104.273 Y173.493
X104.091 Y173.434
X103.899 Y173.362
X103.702 Y173.28
X103.49 Y173.18
X103.27 Y173.064
X103.048 Y172.935
X102.811 Y172.785
X102.566 Y172.614
X102.322 Y172.428
X102.067 Y172.217
X101.804 Y171.979
X101.544 Y171.723
X101.285 Y171.446
X101.02 Y171.138
X100.754 Y170.801
X100.494 Y170.441
X100.244 Y170.061
X99.997 Y169.651
X99.757 Y169.212
X99.527 Y168.745
X99.311 Y168.255
X99.112 Y167.747
X98.931 Y167.222
X98.77 Y166.682
X98.63 Y166.126
X98.511 Y165.559
X98.417 Y164.985
X98.347 Y164.409
X98.301 Y163.836
X98.28 Y163.27
X98.282 Y162.718
X98.307 Y162.186
X98.353 Y161.674
X98.417 Y161.185
X98.499 Y160.714
X98.596 Y160.271
X98.705 Y159.854
X98.813 Y159.503
X98.939 Y159.15
X99.059 Y158.851
X99.186 Y158.571
X99.324 Y158.297
X99.452 Y158.068
X99.6 Y157.827
X99.614 Y157.806
X99.898 Y157.443
X100.229 Y157.123
X100.602 Y156.852
X101.008 Y156.636
X101.441 Y156.478
X101.891 Y156.382
X102.351 Y156.35
X103.828
G3 X104.31 Y156.464 I-0.044 J1.269
X105.048 Y157.502 I-0.527 J1.156
G1 X106.421 Y172.263
G3 X105.201 Y173.65 I-1.265 J0.118
G1 X103.677
X103.527 Y173.643
X103.378 Y173.626
X103.23 Y173.603
X103.077 Y173.572
X102.916 Y173.532
X102.739 Y173.481
X102.558 Y173.419
X102.366 Y173.345
X102.159 Y173.256
X101.95 Y173.154
X101.73 Y173.036
X101.496 Y172.897
X101.261 Y172.744
X101.02 Y172.571
X100.766 Y172.374
X100.51 Y172.156
X100.255 Y171.921
X99.992 Y171.656
X99.724 Y171.363
X99.46 Y171.049
X99.202 Y170.714
X98.943 Y170.348
X98.688 Y169.952
X98.439 Y169.528
X98.203 Y169.085
X97.981 Y168.621
X97.772 Y168.132
X97.577 Y167.619
X97.4 Y167.086
X97.243 Y166.536
X97.108 Y165.974
X96.996 Y165.404
X96.908 Y164.831
X96.844 Y164.258
X96.805 Y163.688
X96.79 Y163.126
X96.799 Y162.574
X96.83 Y162.041
X96.881 Y161.531
X96.949 Y161.051
X97.035 Y160.592
X97.135 Y160.156
X97.244 Y159.758
X97.356 Y159.41
X97.481 Y159.068
X97.598 Y158.788
X97.734 Y158.494
X97.866 Y158.241
X97.998 Y158.01
X98.149 Y157.77
X98.432 Y157.415
X98.761 Y157.103
X99.13 Y156.839
X99.531 Y156.628
X99.958 Y156.475
X100.402 Y156.381
X100.855 Y156.35
X102.351
G3 X102.833 Y156.464 I-0.044 J1.269
X103.571 Y157.506 I-0.527 J1.156
G1 X104.898 Y172.267
G3 X103.677 Y173.65 I-1.265 J0.114
G1 X102.269
X102.025 Y173.637
X101.876 Y173.62
X101.727 Y173.596
X101.577 Y173.566
X101.413 Y173.525
X101.238 Y173.473
X101.058 Y173.412
X100.861 Y173.336
X100.658 Y173.247
X100.449 Y173.145
X100.224 Y173.023
X99.995 Y172.886
X99.761 Y172.734
X99.515 Y172.557
X99.262 Y172.358
X99.01 Y172.144
X98.751 Y171.903
X98.485 Y171.635
X98.221 Y171.345
X97.961 Y171.035
X97.7 Y170.694
X97.44 Y170.324
X97.184 Y169.925
X96.94 Y169.508
X96.707 Y169.067
X96.484 Y168.598
X96.273 Y168.104
X96.079 Y167.587
X95.903 Y167.052
X95.746 Y166.501
X95.612 Y165.939
X95.501 Y165.368
X95.414 Y164.795
X95.352 Y164.222
X95.314 Y163.654
X95.301 Y163.095
X95.311 Y162.547
X95.342 Y162.018
X95.395 Y161.506
X95.465 Y161.024
X95.55 Y160.569
X95.65 Y160.138
X95.762 Y159.733
X95.872 Y159.393
X95.999 Y159.049
X96.117 Y158.768
X96.252 Y158.479
X96.385 Y158.224
X96.516 Y157.996
X96.668 Y157.756
X96.949 Y157.405
X97.276 Y157.096
X97.642 Y156.834
X98.041 Y156.625
X98.465 Y156.473
X98.905 Y156.381
X99.355 Y156.35
X100.855
G3 X102.075 Y157.498 I-0.044 J1.269
G1 X103.488 Y172.26
G3 X102.751 Y173.536 I-1.264 J0.121
X102.269 Y173.65 I-0.527 J-1.156
G1 X100.745
X100.595 Y173.643
X100.446 Y173.629
X100.297 Y173.607
X100.147 Y173.579
X99.984 Y173.541
X99.818 Y173.495
X99.635 Y173.436
X99.443 Y173.364
X99.246 Y173.282
X99.035 Y173.182
X98.815 Y173.068
X98.593 Y172.939
X98.356 Y172.789
X98.111 Y172.619
X97.866 Y172.433
X97.612 Y172.223
X97.35 Y171.986
X97.09 Y171.731
X96.83 Y171.454
X96.565 Y171.147
X96.299 Y170.81
X96.039 Y170.451
X95.788 Y170.072
X95.54 Y169.661
X95.299 Y169.222
X95.069 Y168.756
X94.852 Y168.266
X94.652 Y167.759
X94.471 Y167.234
X94.309 Y166.694
X94.168 Y166.138
X94.049 Y165.571
X93.953 Y164.998
X93.882 Y164.422
X93.836 Y163.848
X93.814 Y163.282
X93.816 Y162.728
X93.84 Y162.195
X93.885 Y161.683
X93.948 Y161.194
X94.03 Y160.723
X94.126 Y160.279
X94.235 Y159.861
X94.343 Y159.51
X94.468 Y159.157
X94.588 Y158.856
X94.714 Y158.577
X94.852 Y158.302
X94.98 Y158.073
X95.127 Y157.832
X95.142 Y157.809
X95.426 Y157.446
X95.757 Y157.125
X96.13 Y156.853
X96.537 Y156.636
X96.97 Y156.478
X97.421 Y156.382
X97.882 Y156.35
X99.355
G3 X100.575 Y157.5 I-0.044 J1.269
G1 X101.965 Y172.262
G3 X101.227 Y173.536 I-1.264 J0.119
X100.745 Y173.65 I-0.527 J-1.156
G1 X99.221
X99.071 Y173.643
X98.922 Y173.627
X98.774 Y173.603
X98.621 Y173.573
X98.46 Y173.534
X98.284 Y173.482
X98.103 Y173.422
X97.911 Y173.348
X97.705 Y173.259
X97.496 Y173.158
X97.276 Y173.04
X97.042 Y172.902
X96.808 Y172.75
X96.566 Y172.578
X96.313 Y172.381
X96.057 Y172.164
X95.802 Y171.93
X95.539 Y171.666
X95.27 Y171.373
X95.006 Y171.06
X94.747 Y170.726
X94.488 Y170.36
X94.233 Y169.965
X93.984 Y169.542
X93.747 Y169.099
X93.525 Y168.637
X93.314 Y168.148
X93.119 Y167.636
X92.941 Y167.103
X92.783 Y166.553
X92.647 Y165.991
X92.533 Y165.422
X92.444 Y164.848
X92.38 Y164.275
X92.34 Y163.705
X92.324 Y163.142
X92.332 Y162.59
X92.362 Y162.056
X92.412 Y161.545
X92.48 Y161.064
X92.564 Y160.605
X92.664 Y160.169
X92.773 Y159.769
X92.884 Y159.421
X93.009 Y159.078
X93.125 Y158.798
X93.261 Y158.504
X93.393 Y158.25
X93.524 Y158.019
X93.675 Y157.778
X93.959 Y157.422
X94.288 Y157.107
X94.659 Y156.842
X95.062 Y156.63
X95.49 Y156.475
X95.936 Y156.381
X96.39 Y156.35
X97.882
G3 X98.364 Y156.464 I-0.044 J1.269
X99.102 Y157.504 I-0.527 J1.156
G1 X100.441 Y172.266
G3 X99.703 Y173.536 I-1.265 J0.115
X99.221 Y173.65 I-0.527 J-1.156
G1 X97.774
X97.697 Y173.646
X97.548 Y173.637
X97.399 Y173.619
X97.251 Y173.595
X97.099 Y173.563
X96.934 Y173.521
X96.757 Y173.468
X96.576 Y173.406
X96.379 Y173.328
X96.172 Y173.237
X95.963 Y173.133
X95.739 Y173.011
X95.506 Y172.87
X95.272 Y172.716
X95.026 Y172.538
X94.771 Y172.336
X94.517 Y172.118
X94.259 Y171.876
X93.994 Y171.606
X93.727 Y171.31
X93.467 Y170.996
X93.207 Y170.655
X92.949 Y170.283
X92.693 Y169.881
X92.447 Y169.455
X92.215 Y169.011
X91.994 Y168.541
X91.786 Y168.047
X91.594 Y167.529
X91.42 Y166.993
X91.266 Y166.441
X91.134 Y165.877
X91.025 Y165.305
X90.941 Y164.73
X90.881 Y164.157
X90.846 Y163.589
X90.835 Y163.029
X90.847 Y162.481
X90.882 Y161.953
X90.936 Y161.448
X91.007 Y160.971
X91.094 Y160.519
X91.196 Y160.088
X91.307 Y159.694
X91.419 Y159.351
X91.545 Y159.016
X91.662 Y158.739
X91.8 Y158.449
X91.931 Y158.2
X92.065 Y157.97
X92.127 Y157.873
X92.409 Y157.494
X92.742 Y157.16
X93.119 Y156.876
X93.533 Y156.65
X93.976 Y156.484
X94.437 Y156.384
X94.907 Y156.35
X96.39
G3 X96.873 Y156.464 I-0.044 J1.269
X97.611 Y157.501 I-0.527 J1.156
G1 X98.994 Y172.262
G3 X97.774 Y173.65 I-1.264 J0.119
G1 X96.25
X96.1 Y173.643
X95.951 Y173.627
X95.803 Y173.604
X95.651 Y173.574
X95.485 Y173.533
X95.316 Y173.485
X95.132 Y173.423
X94.937 Y173.348
X94.738 Y173.263
X94.524 Y173.16
X94.301 Y173.041
X94.077 Y172.908
X93.839 Y172.754
X93.592 Y172.579
X93.346 Y172.388
X93.091 Y172.173
X92.827 Y171.931
X92.565 Y171.669
X92.305 Y171.386
X92.041 Y171.074
X91.776 Y170.732
X91.515 Y170.365
X91.264 Y169.978
X91.019 Y169.564
X90.782 Y169.12
X90.555 Y168.649
X90.341 Y168.154
X90.144 Y167.639
X89.966 Y167.108
X89.808 Y166.563
X89.672 Y166.004
X89.558 Y165.435
X89.468 Y164.861
X89.403 Y164.285
X89.362 Y163.714
X89.346 Y163.153
X89.353 Y162.605
X89.382 Y162.078
X89.431 Y161.568
X89.499 Y161.082
X89.584 Y160.618
X89.683 Y160.183
X89.787 Y159.799
X89.905 Y159.427
X90.025 Y159.096
X90.143 Y158.811
X90.281 Y158.513
X90.408 Y158.265
X90.545 Y158.024
X90.696 Y157.783
X90.98 Y157.426
X91.31 Y157.11
X91.681 Y156.844
X92.085 Y156.631
X92.515 Y156.476
X92.962 Y156.382
X93.417 Y156.35
X94.907
G3 X95.39 Y156.464 I-0.044 J1.269
X96.128 Y157.504 I-0.527 J1.156
G1 X97.471 Y172.266
G3 X96.25 Y173.65 I-1.265 J0.115
G1 X94.821
X94.732 Y173.646
X94.582 Y173.637
X94.433 Y173.62
X94.285 Y173.596
X94.134 Y173.565
X93.97 Y173.524
X93.793 Y173.471
X93.612 Y173.41
X93.417 Y173.334
X93.211 Y173.243
X93.003 Y173.141
X92.779 Y173.02
X92.546 Y172.881
X92.313 Y172.727
X92.068 Y172.551
X91.813 Y172.351
X91.561 Y172.135
X91.303 Y171.896
X91.038 Y171.627
X90.771 Y171.333
X90.511 Y171.021
X90.25 Y170.68
X89.99 Y170.309
X89.733 Y169.908
X89.488 Y169.486
X89.255 Y169.044
X89.032 Y168.576
X88.823 Y168.082
X88.629 Y167.565
X88.453 Y167.029
X88.298 Y166.478
X88.164 Y165.915
X88.054 Y165.346
X87.968 Y164.773
X87.907 Y164.2
X87.87 Y163.632
X87.857 Y163.072
X87.868 Y162.526
X87.9 Y161.996
X87.953 Y161.488
X88.023 Y161.009
X88.109 Y160.556
X88.21 Y160.124
X88.321 Y159.725
X88.432 Y159.382
X88.558 Y159.042
X88.675 Y158.763
X88.812 Y158.472
X88.944 Y158.22
X89.076 Y157.991
X89.145 Y157.882
X89.427 Y157.501
X89.76 Y157.165
X90.138 Y156.88
X90.553 Y156.652
X90.997 Y156.485
X91.459 Y156.384
X91.931 Y156.35
X93.417
G3 X94.637 Y157.499 I-0.044 J1.269
G1 X96.041 Y172.261
G3 X95.303 Y173.536 I-1.264 J0.12
X94.821 Y173.65 I-0.527 J-1.156
G1 X93.297
X93.147 Y173.643
X92.998 Y173.628
X92.849 Y173.607
X92.698 Y173.578
X92.535 Y173.539
X92.368 Y173.492
X92.185 Y173.432
X91.992 Y173.36
X91.795 Y173.277
X91.582 Y173.176
X91.362 Y173.06
X91.138 Y172.931
X90.901 Y172.779
X90.655 Y172.607
X90.41 Y172.42
X90.155 Y172.208
X89.892 Y171.969
X89.631 Y171.713
X89.371 Y171.434
X89.106 Y171.125
X88.84 Y170.786
X88.58 Y170.425
X88.328 Y170.044
X88.081 Y169.632
X87.841 Y169.191
X87.612 Y168.723
X87.396 Y168.232
X87.197 Y167.722
X87.016 Y167.196
X86.856 Y166.655
X86.716 Y166.099
X86.598 Y165.531
X86.504 Y164.958
X86.435 Y164.382
X86.39 Y163.809
X86.37 Y163.245
X86.373 Y162.693
X86.398 Y162.163
X86.444 Y161.652
X86.509 Y161.164
X86.592 Y160.695
X86.688 Y160.254
X86.792 Y159.859
X86.907 Y159.49
X87.029 Y159.148
X87.145 Y158.861
X87.282 Y158.559
X87.41 Y158.305
X87.544 Y158.066
X87.694 Y157.823
X87.707 Y157.802
X87.991 Y157.44
X88.322 Y157.121
X88.694 Y156.851
X89.101 Y156.635
X89.533 Y156.478
X89.983 Y156.382
X90.442 Y156.35
X91.931
G3 X92.414 Y156.464 I-0.044 J1.269
X93.152 Y157.502 I-0.527 J1.156
G1 X94.517 Y172.264
G3 X93.297 Y173.65 I-1.265 J0.117
G1 X91.773
X91.623 Y173.643
X91.474 Y173.626
X91.326 Y173.603
X91.174 Y173.572
X91.011 Y173.532
X90.834 Y173.48
X90.653 Y173.419
X90.46 Y173.344
X90.253 Y173.254
X90.044 Y173.152
X89.822 Y173.033
X89.588 Y172.894
X89.354 Y172.741
X89.111 Y172.567
X88.857 Y172.369
X88.601 Y172.152
X88.345 Y171.915
X88.082 Y171.65
X87.813 Y171.355
X87.55 Y171.042
X87.29 Y170.705
X87.031 Y170.337
X86.775 Y169.94
X86.527 Y169.516
X86.291 Y169.072
X86.069 Y168.608
X85.86 Y168.118
X85.665 Y167.604
X85.488 Y167.07
X85.331 Y166.52
X85.196 Y165.958
X85.084 Y165.388
X84.997 Y164.815
X84.933 Y164.242
X84.895 Y163.673
X84.88 Y163.111
X84.889 Y162.563
X84.92 Y162.031
X84.971 Y161.524
X85.04 Y161.044
X85.125 Y160.588
X85.225 Y160.153
X85.335 Y159.754
X85.447 Y159.407
X85.572 Y159.065
X85.689 Y158.785
X85.826 Y158.492
X85.957 Y158.238
X86.089 Y158.008
X86.241 Y157.768
X86.524 Y157.414
X86.852 Y157.102
X87.221 Y156.838
X87.622 Y156.628
X88.048 Y156.474
X88.492 Y156.381
X88.944 Y156.35
X90.442
G3 X90.924 Y156.464 I-0.044 J1.269
X91.662 Y157.505 I-0.527 J1.156
G1 X92.993 Y172.267
G3 X92.255 Y173.536 I-1.265 J0.114
X91.773 Y173.65 I-0.527 J-1.156
G1 X90.343
X90.261 Y173.646
X90.111 Y173.637
X89.962 Y173.619
X89.814 Y173.595
X89.663 Y173.564
X89.498 Y173.522
X89.322 Y173.47
X89.141 Y173.408
X88.943 Y173.33
X88.739 Y173.24
X88.529 Y173.137
X88.304 Y173.014
X88.072 Y172.875
X87.839 Y172.721
X87.592 Y172.543
X87.337 Y172.342
X87.085 Y172.126
X86.825 Y171.884
X86.559 Y171.613
X86.294 Y171.32
X86.034 Y171.008
X85.773 Y170.666
X85.513 Y170.293
X85.257 Y169.892
X85.013 Y169.47
X84.781 Y169.028
X84.558 Y168.557
X84.349 Y168.062
X84.156 Y167.544
X83.981 Y167.008
X83.827 Y166.456
X83.694 Y165.893
X83.585 Y165.323
X83.5 Y164.749
X83.439 Y164.178
X83.404 Y163.611
X83.392 Y163.052
X83.403 Y162.505
X83.436 Y161.977
X83.49 Y161.469
X83.561 Y160.99
X83.648 Y160.537
X83.749 Y160.107
X83.861 Y159.707
X83.972 Y159.366
X84.099 Y159.026
X84.216 Y158.748
X84.353 Y158.458
X84.485 Y158.206
X84.617 Y157.978
X84.769 Y157.74
X85.049 Y157.393
X85.373 Y157.087
X85.737 Y156.828
X86.133 Y156.622
X86.553 Y156.472
X86.989 Y156.381
X87.434 Y156.35
X88.944
G3 X90.164 Y157.499 I-0.044 J1.269
G1 X91.563 Y172.261
G3 X90.826 Y173.536 I-1.264 J0.12
X90.343 Y173.65 I-0.527 J-1.156
G1 X88.82
X88.67 Y173.643
X88.52 Y173.627
X88.372 Y173.605
X88.22 Y173.576
X88.056 Y173.536
X87.888 Y173.488
X87.703 Y173.427
X87.51 Y173.354
X87.311 Y173.269
X87.098 Y173.167
X86.877 Y173.05
X86.653 Y172.919
X86.415 Y172.766
X86.168 Y172.592
X85.923 Y172.403
X85.668 Y172.189
X85.404 Y171.949
X85.143 Y171.69
X84.883 Y171.409
X84.619 Y171.098
X84.352 Y170.757
X84.092 Y170.393
X83.841 Y170.009
X83.595 Y169.596
X83.356 Y169.153
X83.128 Y168.684
X82.913 Y168.19
X82.715 Y167.678
X82.536 Y167.15
X82.377 Y166.606
X82.239 Y166.05
X82.124 Y165.482
X82.032 Y164.908
X81.964 Y164.333
X81.922 Y163.761
X81.903 Y163.198
X81.909 Y162.648
X81.936 Y162.12
X81.984 Y161.609
X82.05 Y161.121
X82.134 Y160.654
X82.232 Y160.216
X82.343 Y159.802
X82.451 Y159.456
X82.578 Y159.105
X82.698 Y158.811
X82.827 Y158.53
X82.963 Y158.262
X83.092 Y158.035
X83.242 Y157.792
X83.526 Y157.433
X83.856 Y157.115
X84.228 Y156.847
X84.633 Y156.633
X85.064 Y156.477
X85.512 Y156.382
X85.97 Y156.35
X87.434
G3 X87.917 Y156.464 I-0.044 J1.269
X88.654 Y157.501 I-0.527 J1.156
G1 X90.04 Y172.262
G3 X89.302 Y173.536 I-1.264 J0.119
X88.82 Y173.65 I-0.527 J-1.156
G1 X87.411
X87.199 Y173.639
X87.05 Y173.626
X86.902 Y173.605
X86.754 Y173.577
X86.591 Y173.539
X86.422 Y173.492
X86.244 Y173.435
X86.05 Y173.363
X85.854 Y173.281
X85.646 Y173.183
X85.423 Y173.067
X85.2 Y172.938
X84.966 Y172.791
X84.72 Y172.62
X84.473 Y172.433
X84.223 Y172.226
X83.963 Y171.992
X83.698 Y171.733
X83.438 Y171.456
X83.175 Y171.152
X82.91 Y170.817
X82.646 Y170.453
X82.391 Y170.07
X82.146 Y169.664
X81.907 Y169.229
X81.678 Y168.767
X81.461 Y168.278
X81.259 Y167.768
X81.076 Y167.239
X80.913 Y166.696
X80.771 Y166.141
X80.652 Y165.575
X80.556 Y165.003
X80.485 Y164.429
X80.438 Y163.858
X80.415 Y163.294
X80.417 Y162.741
X80.44 Y162.209
X80.485 Y161.692
X80.549 Y161.198
X80.63 Y160.727
X80.725 Y160.285
X80.834 Y159.867
X80.94 Y159.52
X81.065 Y159.165
X81.183 Y158.87
X81.311 Y158.585
X81.447 Y158.314
X81.574 Y158.085
X81.723 Y157.841
X81.742 Y157.812
X82.026 Y157.448
X82.357 Y157.126
X82.73 Y156.854
X83.137 Y156.637
X83.571 Y156.479
X84.023 Y156.382
X84.483 Y156.35
X85.97
G3 X86.452 Y156.464 I-0.044 J1.269
X87.189 Y157.496 I-0.527 J1.156
G1 X88.631 Y172.257
G3 X87.893 Y173.536 I-1.264 J0.123
X87.411 Y173.65 I-0.527 J-1.156
G1 X85.887
X85.801 Y173.646
X85.651 Y173.637
X85.502 Y173.62
X85.354 Y173.596
X85.198 Y173.563
X85.037 Y173.523
X84.86 Y173.47
X84.674 Y173.406
X84.483 Y173.332
X84.276 Y173.241
X84.063 Y173.136
X83.844 Y173.017
X83.61 Y172.876
X83.371 Y172.719
X83.13 Y172.545
X82.878 Y172.347
X82.618 Y172.124
X82.361 Y171.884
X82.101 Y171.62
X81.834 Y171.326
X81.567 Y171.004
X81.307 Y170.664
X81.051 Y170.298
X80.797 Y169.9
X80.55 Y169.474
X80.312 Y169.022
X80.089 Y168.55
X79.882 Y168.06
X79.691 Y167.547
X79.516 Y167.014
X79.362 Y166.464
X79.229 Y165.902
X79.12 Y165.332
X79.035 Y164.758
X78.974 Y164.183
X78.937 Y163.612
X78.925 Y163.049
X78.937 Y162.498
X78.969 Y161.972
X79.022 Y161.471
X79.092 Y160.994
X79.18 Y160.536
X79.282 Y160.102
X79.389 Y159.718
X79.504 Y159.364
X79.628 Y159.034
X79.745 Y158.755
X79.883 Y158.462
X80.012 Y158.215
X80.148 Y157.981
X80.298 Y157.745
X80.579 Y157.396
X80.904 Y157.09
X81.269 Y156.83
X81.666 Y156.623
X82.087 Y156.472
X82.525 Y156.381
X82.972 Y156.35
X84.483
G3 X84.966 Y156.464 I-0.044 J1.269
X85.703 Y157.499 I-0.527 J1.156
G1 X87.107 Y172.261
G3 X85.887 Y173.65 I-1.264 J0.12
G1 X84.363
X84.213 Y173.643
X84.064 Y173.628
X83.916 Y173.606
X83.764 Y173.577
X83.6 Y173.538
X83.432 Y173.491
X83.249 Y173.43
X83.056 Y173.358
X82.858 Y173.274
X82.644 Y173.173
X82.424 Y173.056
X82.2 Y172.926
X81.962 Y172.774
X81.717 Y172.602
X81.472 Y172.414
X81.217 Y172.201
X80.953 Y171.962
X80.692 Y171.704
X80.431 Y171.424
X80.166 Y171.113
X79.899 Y170.773
X79.639 Y170.412
X79.388 Y170.03
X79.142 Y169.618
X78.902 Y169.177
X78.673 Y168.709
X78.458 Y168.217
X78.259 Y167.707
X78.08 Y167.181
X77.919 Y166.639
X77.78 Y166.081
X77.663 Y165.512
X77.57 Y164.937
X77.501 Y164.361
X77.457 Y163.789
X77.437 Y163.224
X77.441 Y162.674
X77.467 Y162.144
X77.513 Y161.634
X77.579 Y161.147
X77.662 Y160.679
X77.759 Y160.24
X77.869 Y159.824
X77.977 Y159.476
X78.103 Y159.125
X78.223 Y158.828
X78.35 Y158.548
X78.488 Y158.277
X78.616 Y158.049
X78.771 Y157.799
X79.055 Y157.438
X79.386 Y157.119
X79.758 Y156.849
X80.163 Y156.634
X80.595 Y156.477
X81.045 Y156.382
X81.503 Y156.35
X82.972
G3 X84.192 Y157.5 I-0.044 J1.269
G1 X85.583 Y172.262
G3 X84.363 Y173.65 I-1.264 J0.119
G1 X82.916
X82.677 Y173.637
X82.528 Y173.62
X82.38 Y173.596
X82.227 Y173.564
X82.064 Y173.524
X81.887 Y173.471
X81.705 Y173.409
X81.512 Y173.334
X81.304 Y173.243
X81.095 Y173.141
X80.873 Y173.02
X80.638 Y172.88
X80.403 Y172.726
X80.161 Y172.551
X79.907 Y172.352
X79.65 Y172.132
X79.395 Y171.895
X79.131 Y171.628
X78.863 Y171.333
X78.599 Y171.017
X78.34 Y170.679
X78.082 Y170.31
X77.827 Y169.912
X77.579 Y169.486
X77.344 Y169.039
X77.122 Y168.573
X76.914 Y168.082
X76.72 Y167.567
X76.545 Y167.032
X76.389 Y166.481
X76.256 Y165.918
X76.145 Y165.348
X76.059 Y164.774
X75.998 Y164.201
X75.961 Y163.632
X75.948 Y163.071
X75.958 Y162.52
X75.991 Y161.99
X76.043 Y161.483
X76.113 Y161.006
X76.2 Y160.549
X76.301 Y160.115
X76.41 Y159.722
X76.522 Y159.375
X76.647 Y159.039
X76.764 Y158.761
X76.901 Y158.469
X77.031 Y158.22
X77.165 Y157.989
X77.232 Y157.882
X77.514 Y157.501
X77.847 Y157.165
X78.225 Y156.88
X78.64 Y156.652
X79.084 Y156.485
X79.546 Y156.384
X80.019 Y156.35
X81.503
G3 X81.985 Y156.464 I-0.044 J1.269
X82.723 Y157.498 I-0.527 J1.156
G1 X84.136 Y172.26
G3 X83.399 Y173.536 I-1.264 J0.121
X82.916 Y173.65 I-0.527 J-1.156
G1 X81.393
X81.243 Y173.643
X81.093 Y173.628
X80.945 Y173.607
X80.794 Y173.578
X80.631 Y173.54
X80.464 Y173.493
X80.28 Y173.433
X80.088 Y173.362
X79.891 Y173.278
X79.678 Y173.178
X79.458 Y173.062
X79.234 Y172.933
X78.997 Y172.782
X78.752 Y172.611
X78.507 Y172.424
X78.252 Y172.212
X77.988 Y171.974
X77.728 Y171.718
X77.468 Y171.439
X77.203 Y171.131
X76.936 Y170.792
X76.676 Y170.433
X76.425 Y170.052
X76.178 Y169.641
X75.937 Y169.2
X75.707 Y168.733
X75.491 Y168.242
X75.292 Y167.734
X75.111 Y167.209
X74.95 Y166.667
X74.81 Y166.111
X74.691 Y165.543
X74.597 Y164.968
X74.527 Y164.391
X74.481 Y163.818
X74.46 Y163.252
X74.463 Y162.7
X74.488 Y162.168
X74.533 Y161.658
X74.598 Y161.17
X74.68 Y160.701
X74.776 Y160.259
X74.88 Y159.864
X74.993 Y159.496
X75.115 Y159.152
X75.231 Y158.866
X75.368 Y158.563
X75.496 Y158.309
X75.629 Y158.071
X75.779 Y157.827
X75.794 Y157.805
X76.077 Y157.442
X76.409 Y157.122
X76.781 Y156.852
X77.188 Y156.635
X77.62 Y156.478
X78.071 Y156.382
X78.53 Y156.35
X80.019
G3 X80.501 Y156.464 I-0.044 J1.269
X81.239 Y157.502 I-0.527 J1.156
G1 X82.613 Y172.263
G3 X81.393 Y173.65 I-1.265 J0.118
G1 X79.963
X79.711 Y173.637
X79.562 Y173.621
X79.413 Y173.597
X79.261 Y173.566
X79.1 Y173.527
X78.923 Y173.475
X78.742 Y173.414
X78.55 Y173.34
X78.343 Y173.25
X78.134 Y173.149
X77.913 Y173.03
X77.68 Y172.891
X77.445 Y172.738
X77.203 Y172.566
X76.95 Y172.368
X76.694 Y172.151
X76.438 Y171.915
X76.175 Y171.65
X75.906 Y171.356
X75.643 Y171.043
X75.384 Y170.707
X75.125 Y170.34
X74.87 Y169.944
X74.621 Y169.52
X74.385 Y169.077
X74.163 Y168.613
X73.953 Y168.123
X73.758 Y167.609
X73.581 Y167.075
X73.424 Y166.525
X73.288 Y165.963
X73.176 Y165.393
X73.088 Y164.819
X73.024 Y164.246
X72.985 Y163.677
X72.97 Y163.115
X72.979 Y162.566
X73.01 Y162.034
X73.06 Y161.528
X73.129 Y161.048
X73.214 Y160.592
X73.314 Y160.157
X73.423 Y159.758
X73.534 Y159.411
X73.66 Y159.069
X73.776 Y158.788
X73.913 Y158.495
X74.044 Y158.241
X74.176 Y158.011
X74.252 Y157.891
X74.533 Y157.509
X74.867 Y157.17
X75.245 Y156.883
X75.661 Y156.654
X76.106 Y156.486
X76.57 Y156.384
X77.044 Y156.35
X78.53
G3 X79.012 Y156.464 I-0.044 J1.269
X79.75 Y157.497 I-0.527 J1.156
G1 X81.183 Y172.258
G3 X80.445 Y173.536 I-1.264 J0.123
X79.963 Y173.65 I-0.527 J-1.156
G1 X78.439
X78.356 Y173.646
X78.206 Y173.637
X78.057 Y173.619
X77.909 Y173.595
X77.758 Y173.564
X77.592 Y173.522
X77.416 Y173.47
X77.235 Y173.408
X77.037 Y173.331
X76.833 Y173.241
X76.623 Y173.137
X76.398 Y173.015
X76.166 Y172.876
X75.932 Y172.722
X75.686 Y172.544
X75.431 Y172.343
X75.179 Y172.127
X74.919 Y171.885
X74.653 Y171.615
X74.387 Y171.322
X74.128 Y171.01
X73.867 Y170.668
X73.607 Y170.296
X73.351 Y169.895
X73.106 Y169.473
X72.873 Y169.031
X72.651 Y168.56
X72.442 Y168.065
X72.248 Y167.548
X72.073 Y167.011
X71.918 Y166.46
X71.785 Y165.896
X71.676 Y165.326
X71.59 Y164.752
X71.53 Y164.18
X71.494 Y163.614
X71.482 Y163.055
X71.493 Y162.508
X71.526 Y161.98
X71.579 Y161.472
X71.65 Y160.993
X71.736 Y160.54
X71.837 Y160.11
X71.941 Y159.738
X72.064 Y159.36
X72.181 Y159.046
X72.305 Y158.752
X72.441 Y158.465
X72.566 Y158.226
X72.711 Y157.976
X72.773 Y157.878
X73.055 Y157.498
X73.388 Y157.163
X73.766 Y156.878
X74.18 Y156.651
X74.623 Y156.485
X75.085 Y156.384
X75.557 Y156.35
X77.044
G3 X78.264 Y157.5 I-0.044 J1.269
G1 X79.659 Y172.261
G3 X78.921 Y173.536 I-1.264 J0.119
X78.439 Y173.65 I-0.527 J-1.156
G1 X76.915
X76.765 Y173.643
X76.616 Y173.628
X76.468 Y173.606
X76.316 Y173.576
X76.152 Y173.537
X75.984 Y173.489
X75.8 Y173.428
X75.606 Y173.355
X75.408 Y173.271
X75.195 Y173.17
X74.974 Y173.053
X74.75 Y172.922
X74.512 Y172.769
X74.265 Y172.596
X74.02 Y172.408
X73.765 Y172.194
X73.502 Y171.954
X73.24 Y171.695
X72.98 Y171.415
X72.716 Y171.105
X72.449 Y170.764
X72.189 Y170.401
X71.938 Y170.018
X71.691 Y169.605
X71.452 Y169.162
X71.223 Y168.693
X71.008 Y168.2
X70.81 Y167.689
X70.63 Y167.161
X70.471 Y166.618
X70.332 Y166.061
X70.216 Y165.494
X70.124 Y164.92
X70.056 Y164.344
X70.012 Y163.772
X69.994 Y163.209
X69.998 Y162.662
X70.025 Y162.132
X70.072 Y161.624
X70.138 Y161.136
X70.222 Y160.668
X70.319 Y160.23
X70.423 Y159.838
X70.539 Y159.468
X70.66 Y159.13
X70.777 Y158.843
X70.915 Y158.542
X71.043 Y158.291
X71.178 Y158.051
X71.327 Y157.81
X71.337 Y157.795
X71.621 Y157.435
X71.951 Y157.117
X72.323 Y156.848
X72.729 Y156.633
X73.16 Y156.477
X73.609 Y156.382
X74.066 Y156.35
X75.557
G3 X76.039 Y156.464 I-0.044 J1.269
X76.777 Y157.503 I-0.527 J1.156
G1 X78.136 Y172.264
G3 X77.398 Y173.536 I-1.265 J0.116
X76.915 Y173.65 I-0.527 J-1.156
G1 X75.486
X75.239 Y173.637
X75.09 Y173.62
X74.942 Y173.597
X74.791 Y173.566
X74.628 Y173.525
X74.451 Y173.473
X74.27 Y173.412
X74.077 Y173.337
X73.87 Y173.247
X73.662 Y173.146
X73.44 Y173.026
X73.206 Y172.887
X72.973 Y172.734
X72.729 Y172.56
X72.475 Y172.361
X72.221 Y172.144
X71.964 Y171.907
X71.7 Y171.64
X71.431 Y171.346
X71.17 Y171.034
X70.91 Y170.696
X70.65 Y170.327
X70.394 Y169.928
X70.146 Y169.505
X69.912 Y169.062
X69.69 Y168.597
X69.48 Y168.105
X69.286 Y167.591
X69.109 Y167.056
X68.953 Y166.506
X68.818 Y165.944
X68.707 Y165.375
X68.62 Y164.802
X68.557 Y164.23
X68.519 Y163.662
X68.505 Y163.101
X68.514 Y162.554
X68.546 Y162.022
X68.597 Y161.515
X68.667 Y161.035
X68.752 Y160.58
X68.852 Y160.146
X68.962 Y159.746
X69.074 Y159.401
X69.2 Y159.059
X69.316 Y158.779
X69.453 Y158.487
X69.585 Y158.233
X69.717 Y158.003
X69.869 Y157.763
X70.151 Y157.41
X70.479 Y157.099
X70.847 Y156.837
X71.247 Y156.627
X71.673 Y156.474
X72.115 Y156.381
X72.566 Y156.35
X74.066
G3 X74.549 Y156.464 I-0.044 J1.269
X75.286 Y157.498 I-0.527 J1.156
G1 X76.706 Y172.259
G3 X75.968 Y173.536 I-1.264 J0.122
X75.486 Y173.65 I-0.527 J-1.156
G1 X73.962
X73.884 Y173.646
X73.735 Y173.637
X73.586 Y173.619
X73.438 Y173.595
X73.286 Y173.563
X73.12 Y173.521
X72.944 Y173.468
X72.762 Y173.406
X72.564 Y173.328
X72.359 Y173.237
X72.149 Y173.133
X71.923 Y173.01
X71.692 Y172.871
X71.457 Y172.716
X71.21 Y172.537
X70.955 Y172.335
X70.702 Y172.118
X70.443 Y171.875
X70.177 Y171.604
X69.911 Y171.31
X69.652 Y170.997
X69.391 Y170.654
X69.131 Y170.281
X68.875 Y169.878
X68.631 Y169.456
X68.398 Y169.012
X68.177 Y168.542
X67.968 Y168.046
X67.775 Y167.528
X67.601 Y166.991
X67.447 Y166.439
X67.315 Y165.876
X67.207 Y165.306
X67.123 Y164.733
X67.063 Y164.161
X67.028 Y163.595
X67.017 Y163.036
X67.029 Y162.489
X67.063 Y161.962
X67.117 Y161.454
X67.188 Y160.977
X67.275 Y160.524
X67.377 Y160.094
X67.489 Y159.696
X67.601 Y159.355
X67.727 Y159.016
X67.845 Y158.739
X67.982 Y158.449
X68.114 Y158.198
X68.247 Y157.97
X68.398 Y157.733
X68.677 Y157.387
X69.001 Y157.083
X69.363 Y156.826
X69.757 Y156.621
X70.176 Y156.471
X70.61 Y156.38
X71.054 Y156.35
X72.566
G3 X73.048 Y156.464 I-0.044 J1.269
X73.786 Y157.5 I-0.527 J1.156
G1 X75.182 Y172.261
G3 X74.444 Y173.536 I-1.264 J0.12
X73.962 Y173.65 I-0.527 J-1.156
G1 X72.438
X72.288 Y173.643
X72.139 Y173.627
X71.991 Y173.604
X71.838 Y173.574
X71.673 Y173.534
X71.504 Y173.486
X71.319 Y173.424
X71.125 Y173.35
X70.926 Y173.264
X70.712 Y173.162
X70.49 Y173.043
X70.265 Y172.911
X70.027 Y172.757
X69.779 Y172.582
X69.533 Y172.391
X69.278 Y172.176
X69.015 Y171.935
X68.753 Y171.673
X68.493 Y171.391
X68.229 Y171.079
X67.963 Y170.737
X67.702 Y170.37
X67.451 Y169.985
X67.206 Y169.57
X66.968 Y169.127
X66.74 Y168.656
X66.526 Y168.161
X66.329 Y167.647
X66.151 Y167.118
X65.993 Y166.573
X65.856 Y166.016
X65.742 Y165.448
X65.652 Y164.874
X65.586 Y164.299
X65.545 Y163.728
X65.528 Y163.166
X65.534 Y162.618
X65.563 Y162.09
X65.612 Y161.58
X65.68 Y161.093
X65.764 Y160.627
X65.863 Y160.191
X65.974 Y159.779
X66.083 Y159.434
X66.21 Y159.084
X66.33 Y158.793
X66.46 Y158.511
X66.596 Y158.245
X66.725 Y158.019
X66.875 Y157.779
X67.157 Y157.422
X67.486 Y157.108
X67.855 Y156.842
X68.258 Y156.63
X68.686 Y156.475
X69.131 Y156.382
X69.585 Y156.35
X71.054
G3 X71.536 Y156.464 I-0.044 J1.269
X72.274 Y157.501 I-0.527 J1.156
G1 X73.658 Y172.262
G3 X72.92 Y173.536 I-1.264 J0.119
X72.438 Y173.65 I-0.527 J-1.156
G1 X71.029
X70.778 Y173.637
X70.628 Y173.62
X70.48 Y173.597
X70.331 Y173.567
X70.166 Y173.526
X69.991 Y173.475
X69.811 Y173.415
X69.616 Y173.339
X69.412 Y173.251
X69.204 Y173.15
X68.98 Y173.029
X68.749 Y172.892
X68.516 Y172.74
X68.271 Y172.565
X68.017 Y172.367
X67.766 Y172.154
X67.508 Y171.916
X67.242 Y171.648
X66.976 Y171.358
X66.716 Y171.048
X66.454 Y170.709
X66.193 Y170.339
X65.936 Y169.941
X65.69 Y169.522
X65.457 Y169.083
X65.233 Y168.616
X65.022 Y168.124
X64.827 Y167.609
X64.649 Y167.074
X64.492 Y166.524
X64.356 Y165.962
X64.244 Y165.393
X64.156 Y164.821
X64.093 Y164.249
X64.054 Y163.681
X64.039 Y163.12
X64.048 Y162.57
X64.078 Y162.039
X64.13 Y161.525
X64.199 Y161.041
X64.284 Y160.583
X64.383 Y160.15
X64.494 Y159.745
X64.604 Y159.403
X64.73 Y159.059
X64.847 Y158.779
X64.982 Y158.489
X65.114 Y158.233
X65.245 Y158.005
X65.396 Y157.765
X65.678 Y157.412
X66.005 Y157.101
X66.373 Y156.837
X66.773 Y156.627
X67.198 Y156.474
X67.641 Y156.381
X68.092 Y156.35
X69.585
G3 X70.804 Y157.496 I-0.044 J1.269
G1 X72.249 Y172.257
G3 X71.512 Y173.536 I-1.264 J0.124
X71.029 Y173.65 I-0.527 J-1.156
G1 X69.505
X69.423 Y173.646
X69.273 Y173.637
X69.124 Y173.619
X68.976 Y173.595
X68.825 Y173.564
X68.66 Y173.522
X68.483 Y173.47
X68.302 Y173.408
X68.105 Y173.33
X67.9 Y173.24
X67.69 Y173.137
X67.465 Y173.015
X67.233 Y172.875
X67 Y172.721
X66.752 Y172.543
X66.497 Y172.342
X66.245 Y172.126
X65.986 Y171.884
X65.72 Y171.614
X65.455 Y171.321
X65.195 Y171.008
X64.934 Y170.667
X64.674 Y170.294
X64.418 Y169.892
X64.173 Y169.47
X63.94 Y169.027
X63.718 Y168.557
X63.509 Y168.062
X63.316 Y167.545
X63.141 Y167.009
X62.986 Y166.458
X62.853 Y165.895
X62.744 Y165.324
X62.659 Y164.75
X62.598 Y164.177
X62.562 Y163.609
X62.55 Y163.049
X62.562 Y162.501
X62.595 Y161.972
X62.648 Y161.463
X62.719 Y160.984
X62.806 Y160.531
X62.907 Y160.101
X63.019 Y159.702
X63.13 Y159.361
X63.256 Y159.022
X63.373 Y158.744
X63.51 Y158.455
X63.642 Y158.203
X63.774 Y157.975
X63.925 Y157.738
X64.204 Y157.391
X64.528 Y157.085
X64.891 Y156.827
X65.286 Y156.622
X65.705 Y156.472
X66.14 Y156.381
X66.585 Y156.35
X68.092
G3 X68.574 Y156.464 I-0.044 J1.269
X69.312 Y157.498 I-0.527 J1.156
G1 X70.725 Y172.26
G3 X69.988 Y173.536 I-1.264 J0.121
X69.505 Y173.65 I-0.527 J-1.156
G1 X67.982
X67.832 Y173.643
X67.683 Y173.628
X67.534 Y173.605
X67.383 Y173.576
X67.218 Y173.536
X67.05 Y173.489
X66.866 Y173.428
X66.672 Y173.355
X66.474 Y173.27
X66.261 Y173.168
X66.039 Y173.051
X65.815 Y172.92
X65.577 Y172.767
X65.331 Y172.594
X65.085 Y172.405
X64.83 Y172.191
X64.567 Y171.951
X64.305 Y171.692
X64.045 Y171.411
X63.781 Y171.101
X63.514 Y170.76
X63.254 Y170.396
X63.003 Y170.012
X62.757 Y169.599
X62.518 Y169.157
X62.289 Y168.687
X62.074 Y168.194
X61.876 Y167.682
X61.696 Y167.154
X61.537 Y166.61
X61.399 Y166.053
X61.283 Y165.485
X61.191 Y164.911
X61.123 Y164.334
X61.08 Y163.761
X61.062 Y163.198
X61.067 Y162.647
X61.094 Y162.119
X61.141 Y161.608
X61.208 Y161.12
X61.291 Y160.653
X61.389 Y160.215
X61.499 Y159.801
X61.608 Y159.455
X61.734 Y159.104
X61.854 Y158.81
X61.982 Y158.529
X62.119 Y158.261
X62.247 Y158.034
X62.396 Y157.794
X62.68 Y157.433
X63.011 Y157.116
X63.382 Y156.847
X63.787 Y156.633
X64.218 Y156.477
X64.667 Y156.382
X65.124 Y156.35
X66.585
G3 X67.805 Y157.5 I-0.044 J1.269
G1 X69.202 Y172.261
G3 X67.982 Y173.65 I-1.264 J0.12
G1 X66.535
X66.449 Y173.646
X66.299 Y173.637
X66.15 Y173.62
X66.002 Y173.596
X65.849 Y173.564
X65.686 Y173.523
X65.508 Y173.47
X65.327 Y173.408
X65.133 Y173.333
X64.925 Y173.242
X64.716 Y173.139
X64.494 Y173.018
X64.259 Y172.878
X64.025 Y172.723
X63.782 Y172.548
X63.527 Y172.348
X63.271 Y172.129
X63.015 Y171.891
X62.751 Y171.623
X62.483 Y171.327
X62.22 Y171.011
X61.961 Y170.672
X61.702 Y170.302
X61.447 Y169.903
X61.199 Y169.476
X60.964 Y169.03
X60.743 Y168.564
X60.535 Y168.071
X60.342 Y167.556
X60.167 Y167.02
X60.011 Y166.469
X59.878 Y165.905
X59.768 Y165.335
X59.683 Y164.761
X59.622 Y164.188
X59.585 Y163.619
X59.573 Y163.057
X59.584 Y162.507
X59.616 Y161.976
X59.669 Y161.469
X59.74 Y160.991
X59.826 Y160.535
X59.928 Y160.102
X60.037 Y159.71
X60.149 Y159.365
X60.274 Y159.03
X60.39 Y158.753
X60.527 Y158.462
X60.658 Y158.213
X60.791 Y157.982
X60.856 Y157.88
X61.138 Y157.5
X61.471 Y157.164
X61.849 Y156.879
X62.264 Y156.651
X62.707 Y156.485
X63.169 Y156.384
X63.641 Y156.35
X65.124
G3 X65.607 Y156.464 I-0.044 J1.269
X66.344 Y157.498 I-0.527 J1.156
G1 X67.755 Y172.26
G3 X67.017 Y173.536 I-1.264 J0.121
X66.535 Y173.65 I-0.527 J-1.156
G1 X65.011
X64.861 Y173.643
X64.712 Y173.628
X64.564 Y173.606
X64.412 Y173.577
X64.248 Y173.538
X64.081 Y173.491
X63.897 Y173.431
X63.704 Y173.358
X63.507 Y173.274
X63.293 Y173.173
X63.073 Y173.057
X62.849 Y172.927
X62.611 Y172.775
X62.365 Y172.602
X62.12 Y172.415
X61.865 Y172.202
X61.601 Y171.962
X61.34 Y171.705
X61.08 Y171.425
X60.815 Y171.115
X60.549 Y170.776
X60.289 Y170.414
X60.038 Y170.032
X59.791 Y169.62
X59.551 Y169.178
X59.322 Y168.71
X59.106 Y168.218
X58.907 Y167.707
X58.727 Y167.181
X58.567 Y166.638
X58.428 Y166.081
X58.311 Y165.513
X58.217 Y164.938
X58.148 Y164.361
X58.104 Y163.787
X58.084 Y163.222
X58.088 Y162.671
X58.114 Y162.141
X58.16 Y161.63
X58.226 Y161.143
X58.308 Y160.675
X58.405 Y160.236
X58.509 Y159.844
X58.624 Y159.475
X58.745 Y159.136
X58.861 Y158.85
X58.998 Y158.549
X59.126 Y158.296
X59.26 Y158.058
X59.409 Y157.816
X59.421 Y157.799
X59.704 Y157.438
X60.035 Y157.119
X60.407 Y156.85
X60.813 Y156.634
X61.245 Y156.477
X61.694 Y156.382
X62.153 Y156.35
X63.641
G3 X64.124 Y156.464 I-0.044 J1.269
X64.862 Y157.502 I-0.527 J1.156
G1 X66.231 Y172.263
G3 X65.493 Y173.536 I-1.265 J0.117
X65.011 Y173.65 I-0.527 J-1.156
G1 X63.581
X63.333 Y173.637
X63.184 Y173.62
X63.036 Y173.597
X62.884 Y173.566
X62.722 Y173.526
X62.544 Y173.474
X62.364 Y173.413
X62.171 Y173.338
X61.964 Y173.248
X61.756 Y173.147
X61.534 Y173.028
X61.3 Y172.888
X61.066 Y172.736
X60.823 Y172.562
X60.569 Y172.364
X60.314 Y172.147
X60.059 Y171.91
X59.795 Y171.644
X59.526 Y171.35
X59.264 Y171.037
X59.004 Y170.7
X58.745 Y170.332
X58.489 Y169.934
X58.241 Y169.511
X58.006 Y169.068
X57.784 Y168.603
X57.574 Y168.112
X57.379 Y167.597
X57.202 Y167.062
X57.045 Y166.512
X56.91 Y165.949
X56.798 Y165.378
X56.71 Y164.805
X56.647 Y164.232
X56.609 Y163.663
X56.595 Y163.101
X56.604 Y162.554
X56.635 Y162.022
X56.686 Y161.515
X56.755 Y161.036
X56.84 Y160.581
X56.94 Y160.147
X57.05 Y159.748
X57.161 Y159.402
X57.286 Y159.061
X57.403 Y158.781
X57.54 Y158.489
X57.671 Y158.235
X57.803 Y158.005
X57.876 Y157.889
X58.158 Y157.507
X58.491 Y157.169
X58.87 Y156.882
X59.286 Y156.653
X59.73 Y156.486
X60.194 Y156.384
X60.667 Y156.35
X62.153
G3 X62.635 Y156.464 I-0.044 J1.269
X63.373 Y157.497 I-0.527 J1.156
G1 X64.801 Y172.258
G3 X63.581 Y173.65 I-1.264 J0.122
G1 X62.058
X61.978 Y173.646
X61.828 Y173.637
X61.679 Y173.619
X61.531 Y173.595
X61.38 Y173.563
X61.214 Y173.521
X61.037 Y173.469
X60.856 Y173.407
X60.658 Y173.329
X60.453 Y173.239
X60.243 Y173.135
X60.018 Y173.012
X59.786 Y172.873
X59.552 Y172.718
X59.305 Y172.54
X59.05 Y172.339
X58.798 Y172.122
X58.538 Y171.879
X58.272 Y171.608
X58.006 Y171.315
X57.747 Y171.002
X57.486 Y170.66
X57.225 Y170.287
X56.97 Y169.885
X56.725 Y169.462
X56.493 Y169.019
X56.27 Y168.548
X56.061 Y168.052
X55.868 Y167.534
X55.693 Y166.997
X55.539 Y166.445
X55.407 Y165.882
X55.298 Y165.311
X55.213 Y164.737
X55.153 Y164.165
X55.117 Y163.599
X55.106 Y163.04
X55.118 Y162.494
X55.151 Y161.966
X55.205 Y161.459
X55.276 Y160.981
X55.363 Y160.529
X55.464 Y160.099
X55.568 Y159.728
X55.691 Y159.351
X55.808 Y159.039
X55.932 Y158.745
X56.068 Y158.458
X56.193 Y158.22
X56.338 Y157.97
X56.398 Y157.875
X56.68 Y157.496
X57.013 Y157.161
X57.391 Y156.877
X57.805 Y156.65
X58.247 Y156.485
X58.709 Y156.384
X59.18 Y156.35
X60.667
G3 X61.15 Y156.464 I-0.044 J1.269
X61.887 Y157.5 I-0.527 J1.156
G1 X63.278 Y172.262
G3 X62.54 Y173.536 I-1.264 J0.119
X62.058 Y173.65 I-0.527 J-1.156
G1 X60.534
X60.384 Y173.643
X60.235 Y173.627
X60.086 Y173.605
X59.934 Y173.575
X59.77 Y173.535
X59.601 Y173.487
X59.416 Y173.426
X59.222 Y173.352
X59.024 Y173.267
X58.81 Y173.165
X58.588 Y173.047
X58.364 Y172.915
X58.126 Y172.762
X57.879 Y172.587
X57.633 Y172.398
X57.378 Y172.184
X57.114 Y171.943
X56.852 Y171.682
X56.592 Y171.401
X56.328 Y171.089
X56.062 Y170.748
X55.801 Y170.382
X55.55 Y169.998
X55.304 Y169.583
X55.065 Y169.14
X54.837 Y168.67
X54.622 Y168.175
X54.425 Y167.662
X54.246 Y167.133
X54.087 Y166.589
X53.95 Y166.032
X53.835 Y165.464
X53.744 Y164.89
X53.677 Y164.315
X53.635 Y163.743
X53.617 Y163.181
X53.623 Y162.636
X53.651 Y162.107
X53.699 Y161.599
X53.766 Y161.111
X53.85 Y160.646
X53.948 Y160.209
X54.052 Y159.82
X54.169 Y159.45
X54.29 Y159.115
X54.407 Y158.829
X54.545 Y158.529
X54.673 Y158.279
X54.809 Y158.039
X54.964 Y157.79
X55.248 Y157.43
X55.578 Y157.114
X55.95 Y156.846
X56.355 Y156.632
X56.785 Y156.476
X57.233 Y156.382
X57.69 Y156.35
X59.18
G3 X59.663 Y156.464 I-0.044 J1.269
X60.401 Y157.503 I-0.527 J1.156
G1 X61.754 Y172.265
G3 X61.016 Y173.536 I-1.265 J0.116
X60.534 Y173.65 I-0.527 J-1.156
G1 X59.104
X58.861 Y173.637
X58.712 Y173.62
X58.564 Y173.596
X58.413 Y173.565
X58.249 Y173.525
X58.072 Y173.473
X57.892 Y173.411
X57.697 Y173.336
X57.491 Y173.246
X57.283 Y173.144
X57.06 Y173.023
X56.826 Y172.884
X56.593 Y172.731
X56.349 Y172.556
X56.094 Y172.356
X55.841 Y172.14
X55.584 Y171.902
X55.318 Y171.634
X55.051 Y171.34
X54.79 Y171.028
X54.529 Y170.688
X54.269 Y170.318
X54.013 Y169.918
X53.766 Y169.495
X53.532 Y169.053
X53.31 Y168.587
X53.1 Y168.094
X52.906 Y167.578
X52.73 Y167.043
X52.574 Y166.493
X52.439 Y165.931
X52.329 Y165.361
X52.242 Y164.789
X52.18 Y164.217
X52.142 Y163.649
X52.129 Y163.089
X52.139 Y162.542
X52.171 Y162.011
X52.223 Y161.504
X52.292 Y161.024
X52.378 Y160.57
X52.478 Y160.137
X52.589 Y159.737
X52.7 Y159.393
X52.826 Y159.052
X52.943 Y158.772
X53.08 Y158.481
X53.212 Y158.228
X53.344 Y157.998
X53.495 Y157.759
X53.777 Y157.407
X54.105 Y157.097
X54.472 Y156.835
X54.871 Y156.626
X55.295 Y156.474
X55.737 Y156.381
X56.187 Y156.35
X57.69
G3 X58.172 Y156.464 I-0.044 J1.269
X58.91 Y157.498 I-0.527 J1.156
G1 X60.324 Y172.26
G3 X59.586 Y173.536 I-1.264 J0.121
X59.104 Y173.65 I-0.527 J-1.156
G1 X57.58
X57.43 Y173.643
X57.281 Y173.629
X57.133 Y173.608
X56.982 Y173.579
X56.82 Y173.541
X56.653 Y173.495
X56.47 Y173.436
X56.278 Y173.365
X56.081 Y173.282
X55.869 Y173.182
X55.649 Y173.068
X55.426 Y172.939
X55.189 Y172.788
X54.944 Y172.618
X54.699 Y172.433
X54.444 Y172.221
X54.181 Y171.984
X53.921 Y171.729
X53.661 Y171.452
X53.395 Y171.144
X53.129 Y170.807
X52.869 Y170.449
X52.617 Y170.069
X52.369 Y169.658
X52.128 Y169.219
X51.898 Y168.752
X51.681 Y168.263
X51.481 Y167.756
X51.3 Y167.232
X51.138 Y166.692
X50.997 Y166.136
X50.878 Y165.569
X50.782 Y164.996
X50.711 Y164.42
X50.664 Y163.847
X50.642 Y163.282
X50.644 Y162.729
X50.668 Y162.197
X50.713 Y161.685
X50.776 Y161.197
X50.857 Y160.726
X50.954 Y160.283
X51.063 Y159.865
X51.17 Y159.513
X51.295 Y159.16
X51.415 Y158.859
X51.541 Y158.581
X51.679 Y158.305
X51.807 Y158.076
X51.954 Y157.835
X51.971 Y157.81
X52.254 Y157.446
X52.586 Y157.125
X52.959 Y156.853
X53.366 Y156.636
X53.799 Y156.478
X54.25 Y156.382
X54.711 Y156.35
X56.187
G3 X56.669 Y156.464 I-0.044 J1.269
X57.407 Y157.5 I-0.527 J1.156
G1 X58.8 Y172.261
G3 X58.063 Y173.536 I-1.264 J0.119
X57.58 Y173.65 I-0.527 J-1.156
G1 X56.056
X55.907 Y173.643
X55.757 Y173.627
X55.609 Y173.604
X55.457 Y173.573
X55.296 Y173.534
X55.119 Y173.483
X54.938 Y173.422
X54.746 Y173.349
X54.54 Y173.26
X54.331 Y173.159
X54.111 Y173.041
X53.877 Y172.903
X53.643 Y172.751
X53.401 Y172.579
X53.147 Y172.383
X52.891 Y172.166
X52.636 Y171.932
X52.372 Y171.668
X52.103 Y171.375
X51.84 Y171.063
X51.58 Y170.728
X51.321 Y170.363
X51.065 Y169.968
X50.816 Y169.546
X50.579 Y169.103
X50.357 Y168.641
X50.146 Y168.152
X49.95 Y167.64
X49.772 Y167.108
X49.614 Y166.559
X49.477 Y165.997
X49.364 Y165.428
X49.274 Y164.855
X49.209 Y164.282
X49.169 Y163.713
X49.153 Y163.15
X49.16 Y162.598
X49.19 Y162.065
X49.24 Y161.554
X49.307 Y161.072
X49.391 Y160.613
X49.49 Y160.177
X49.6 Y159.776
X49.71 Y159.428
X49.835 Y159.084
X49.952 Y158.803
X50.088 Y158.509
X50.219 Y158.254
X50.35 Y158.023
X50.501 Y157.782
X50.785 Y157.424
X51.116 Y157.11
X51.486 Y156.843
X51.89 Y156.631
X52.32 Y156.476
X52.766 Y156.382
X53.222 Y156.35
X54.711
G3 X55.193 Y156.464 I-0.044 J1.269
X55.931 Y157.504 I-0.527 J1.156
G1 X57.277 Y172.265
G3 X56.539 Y173.536 I-1.265 J0.115
X56.056 Y173.65 I-0.527 J-1.156
G1 X54.648
X54.399 Y173.637
X54.25 Y173.62
X54.102 Y173.597
X53.952 Y173.566
X53.788 Y173.526
X53.613 Y173.475
X53.433 Y173.414
X53.236 Y173.338
X53.033 Y173.249
X52.824 Y173.148
X52.6 Y173.027
X52.369 Y172.89
X52.136 Y172.738
X51.89 Y172.562
X51.636 Y172.363
X51.385 Y172.15
X51.125 Y171.91
X50.859 Y171.642
X50.594 Y171.352
X50.335 Y171.042
X50.073 Y170.703
X49.813 Y170.333
X49.556 Y169.935
X49.311 Y169.517
X49.078 Y169.077
X48.854 Y168.609
X48.643 Y168.115
X48.448 Y167.6
X48.271 Y167.065
X48.114 Y166.515
X47.979 Y165.953
X47.867 Y165.382
X47.779 Y164.809
X47.716 Y164.236
X47.678 Y163.669
X47.663 Y163.109
X47.672 Y162.561
X47.703 Y162.031
X47.755 Y161.52
X47.824 Y161.038
X47.909 Y160.582
X48.009 Y160.15
X48.12 Y159.746
X48.229 Y159.405
X48.356 Y159.061
X48.473 Y158.78
X48.608 Y158.49
X48.741 Y158.234
X48.872 Y158.006
X49.023 Y157.766
X49.306 Y157.412
X49.634 Y157.101
X50.002 Y156.838
X50.403 Y156.627
X50.829 Y156.474
X51.272 Y156.381
X51.723 Y156.35
X53.222
G3 X53.704 Y156.464 I-0.044 J1.269
X54.442 Y157.497 I-0.527 J1.156
G1 X55.868 Y172.259
G3 X55.13 Y173.536 I-1.264 J0.122
X54.648 Y173.65 I-0.527 J-1.156
G1 X53.124
X53.044 Y173.646
X52.895 Y173.637
X52.746 Y173.619
X52.598 Y173.595
X52.447 Y173.563
X52.281 Y173.521
X52.104 Y173.469
X51.922 Y173.406
X51.724 Y173.329
X51.519 Y173.238
X51.31 Y173.135
X51.085 Y173.012
X50.853 Y172.873
X50.619 Y172.718
X50.372 Y172.539
X50.117 Y172.338
X49.865 Y172.122
X49.606 Y171.88
X49.34 Y171.609
X49.074 Y171.315
X48.815 Y171.003
X48.554 Y170.66
X48.294 Y170.287
X48.038 Y169.885
X47.793 Y169.462
X47.561 Y169.019
X47.339 Y168.548
X47.13 Y168.052
X46.937 Y167.534
X46.762 Y166.998
X46.608 Y166.446
X46.475 Y165.883
X46.367 Y165.313
X46.282 Y164.739
X46.222 Y164.167
X46.186 Y163.6
X46.175 Y163.041
X46.187 Y162.494
X46.22 Y161.966
X46.274 Y161.458
X46.345 Y160.98
X46.432 Y160.528
X46.534 Y160.098
X46.645 Y159.699
X46.757 Y159.358
X46.883 Y159.02
X47.001 Y158.742
X47.138 Y158.453
X47.27 Y158.201
X47.402 Y157.973
X47.553 Y157.736
X47.833 Y157.389
X48.157 Y157.085
X48.519 Y156.827
X48.914 Y156.621
X49.333 Y156.471
X49.769 Y156.381
X50.212 Y156.35
X51.723
G3 X52.206 Y156.464 I-0.044 J1.269
X52.943 Y157.499 I-0.527 J1.156
G1 X54.344 Y172.261
G3 X53.606 Y173.536 I-1.264 J0.12
X53.124 Y173.65 I-0.527 J-1.156
G1 X51.6
X51.45 Y173.643
X51.301 Y173.627
X51.153 Y173.605
X51.001 Y173.575
X50.836 Y173.535
X50.667 Y173.487
X50.483 Y173.426
X50.288 Y173.352
X50.09 Y173.267
X49.877 Y173.165
X49.655 Y173.046
X49.43 Y172.915
X49.192 Y172.761
X48.945 Y172.587
X48.7 Y172.397
X48.444 Y172.183
X48.181 Y171.942
X47.919 Y171.681
X47.659 Y171.4
X47.395 Y171.088
X47.129 Y170.747
X46.868 Y170.381
X46.617 Y169.996
X46.371 Y169.582
X46.133 Y169.139
X45.905 Y168.669
X45.69 Y168.175
X45.493 Y167.662
X45.314 Y167.132
X45.156 Y166.588
X45.018 Y166.031
X44.904 Y165.463
X44.813 Y164.889
X44.746 Y164.313
X44.704 Y163.742
X44.686 Y163.179
X44.692 Y162.63
X44.72 Y162.102
X44.768 Y161.592
X44.835 Y161.105
X44.92 Y160.639
X45.018 Y160.202
X45.129 Y159.789
X45.238 Y159.444
X45.364 Y159.093
X45.484 Y158.801
X45.614 Y158.519
X45.75 Y158.253
X45.878 Y158.026
X46.028 Y157.786
X46.311 Y157.427
X46.641 Y157.112
X47.011 Y156.845
X47.415 Y156.631
X47.844 Y156.476
X48.291 Y156.382
X48.747 Y156.35
X50.212
G3 X50.695 Y156.464 I-0.044 J1.269
X51.433 Y157.5 I-0.527 J1.156
G1 X52.82 Y172.262
G3 X52.082 Y173.536 I-1.264 J0.119
X51.6 Y173.65 I-0.527 J-1.156
G1 X50.153
X50.07 Y173.646
X49.92 Y173.637
X49.771 Y173.62
X49.623 Y173.595
X49.471 Y173.564
X49.307 Y173.523
X49.129 Y173.47
X48.948 Y173.407
X48.753 Y173.331
X48.546 Y173.24
X48.337 Y173.137
X48.114 Y173.016
X47.88 Y172.875
X47.645 Y172.721
X47.401 Y172.545
X47.146 Y172.344
X46.892 Y172.126
X46.635 Y171.886
X46.371 Y171.618
X46.102 Y171.321
X45.841 Y171.007
X45.581 Y170.666
X45.322 Y170.295
X45.066 Y169.895
X44.819 Y169.469
X44.585 Y169.023
X44.364 Y168.556
X44.156 Y168.063
X43.963 Y167.547
X43.788 Y167.011
X43.634 Y166.46
X43.501 Y165.896
X43.391 Y165.326
X43.306 Y164.753
X43.246 Y164.18
X43.21 Y163.611
X43.198 Y163.051
X43.209 Y162.5
X43.242 Y161.97
X43.296 Y161.463
X43.366 Y160.985
X43.453 Y160.53
X43.555 Y160.097
X43.665 Y159.704
X43.777 Y159.359
X43.902 Y159.024
X44.019 Y158.747
X44.156 Y158.456
X44.287 Y158.207
X44.42 Y157.977
X44.483 Y157.878
X44.765 Y157.498
X45.098 Y157.163
X45.476 Y156.878
X45.891 Y156.651
X46.333 Y156.485
X46.795 Y156.384
X47.267 Y156.35
X48.747
G3 X49.229 Y156.464 I-0.044 J1.269
X49.966 Y157.499 I-0.527 J1.156
G1 X51.373 Y172.26
G3 X50.636 Y173.536 I-1.264 J0.12
X50.153 Y173.65 I-0.527 J-1.156
G1 X48.629
X48.48 Y173.643
X48.33 Y173.628
X48.182 Y173.606
X48.03 Y173.576
X47.866 Y173.537
X47.698 Y173.489
X47.514 Y173.428
X47.321 Y173.355
X47.123 Y173.271
X46.909 Y173.169
X46.688 Y173.052
X46.464 Y172.921
X46.226 Y172.768
X45.98 Y172.595
X45.734 Y172.407
X45.479 Y172.193
X45.215 Y171.953
X44.954 Y171.694
X44.694 Y171.413
X44.429 Y171.103
X44.163 Y170.762
X43.903 Y170.399
X43.652 Y170.016
X43.405 Y169.603
X43.166 Y169.16
X42.938 Y168.691
X42.723 Y168.198
X42.524 Y167.687
X42.345 Y167.159
X42.186 Y166.616
X42.047 Y166.059
X41.931 Y165.491
X41.839 Y164.916
X41.771 Y164.339
X41.728 Y163.766
X41.709 Y163.202
X41.714 Y162.651
X41.74 Y162.122
X41.788 Y161.611
X41.854 Y161.124
X41.937 Y160.657
X42.035 Y160.219
X42.139 Y159.83
X42.254 Y159.46
X42.375 Y159.124
X42.492 Y158.838
X42.629 Y158.538
X42.757 Y158.287
X42.892 Y158.047
X43.041 Y157.807
X43.049 Y157.795
X43.333 Y157.434
X43.664 Y157.117
X44.035 Y156.848
X44.441 Y156.633
X44.872 Y156.477
X45.321 Y156.382
X45.778 Y156.35
X47.267
G3 X47.749 Y156.464 I-0.044 J1.269
X48.487 Y157.502 I-0.527 J1.156
G1 X49.85 Y172.264
G3 X49.112 Y173.536 I-1.265 J0.117
X48.629 Y173.65 I-0.527 J-1.156
G1 X47.2
X46.954 Y173.637
X46.805 Y173.62
X46.657 Y173.597
X46.506 Y173.566
X46.343 Y173.525
X46.166 Y173.473
X45.985 Y173.412
X45.791 Y173.337
X45.585 Y173.247
X45.376 Y173.145
X45.154 Y173.025
X44.92 Y172.886
X44.687 Y172.733
X44.443 Y172.559
X44.189 Y172.36
X43.935 Y172.144
X43.679 Y171.906
X43.414 Y171.639
X43.146 Y171.345
X42.884 Y171.033
X42.624 Y170.695
X42.365 Y170.326
X42.109 Y169.927
X41.861 Y169.503
X41.627 Y169.061
X41.405 Y168.596
X41.195 Y168.104
X41.001 Y167.589
X40.824 Y167.054
X40.667 Y166.503
X40.533 Y165.94
X40.421 Y165.37
X40.334 Y164.796
X40.272 Y164.223
X40.234 Y163.654
X40.22 Y163.093
X40.229 Y162.546
X40.261 Y162.014
X40.312 Y161.507
X40.381 Y161.028
X40.467 Y160.574
X40.567 Y160.14
X40.677 Y159.741
X40.788 Y159.396
X40.914 Y159.055
X41.031 Y158.776
X41.167 Y158.484
X41.299 Y158.231
X41.431 Y158.001
X41.503 Y157.887
X41.785 Y157.505
X42.118 Y157.168
X42.496 Y156.882
X42.912 Y156.653
X43.356 Y156.486
X43.819 Y156.384
X44.293 Y156.35
X45.778
G3 X46.26 Y156.464 I-0.044 J1.269
X46.998 Y157.497 I-0.527 J1.156
G1 X48.42 Y172.259
G3 X47.682 Y173.536 I-1.264 J0.122
X47.2 Y173.65 I-0.527 J-1.156
G1 X45.676
X45.599 Y173.646
X45.449 Y173.637
X45.3 Y173.619
X45.152 Y173.595
X45.001 Y173.563
X44.835 Y173.521
X44.658 Y173.468
X44.477 Y173.405
X44.279 Y173.328
X44.074 Y173.237
X43.863 Y173.133
X43.638 Y173.01
X43.406 Y172.87
X43.172 Y172.715
X42.924 Y172.536
X42.669 Y172.335
X42.417 Y172.118
X42.157 Y171.875
X41.891 Y171.603
X41.626 Y171.309
X41.366 Y170.996
X41.105 Y170.653
X40.845 Y170.279
X40.589 Y169.877
X40.345 Y169.454
X40.113 Y169.01
X39.891 Y168.539
X39.682 Y168.043
X39.49 Y167.524
X39.315 Y166.987
X39.161 Y166.435
X39.029 Y165.871
X38.921 Y165.3
X38.837 Y164.727
X38.777 Y164.155
X38.742 Y163.588
X38.731 Y163.03
X38.743 Y162.484
X38.777 Y161.956
X38.831 Y161.449
X38.903 Y160.972
X38.99 Y160.52
X39.091 Y160.091
X39.195 Y159.721
X39.319 Y159.344
X39.435 Y159.033
X39.56 Y158.739
X39.695 Y158.453
X39.821 Y158.215
X39.966 Y157.965
X40.025 Y157.873
X40.307 Y157.494
X40.64 Y157.16
X41.017 Y156.876
X41.431 Y156.65
X41.873 Y156.484
X42.335 Y156.384
X42.805 Y156.35
X44.293
G3 X44.775 Y156.464 I-0.044 J1.269
X45.513 Y157.501 I-0.527 J1.156
G1 X46.896 Y172.262
G3 X46.158 Y173.536 I-1.264 J0.118
X45.676 Y173.65 I-0.527 J-1.156
G1 X44.152
X44.002 Y173.643
X43.853 Y173.627
X43.705 Y173.604
X43.553 Y173.574
X43.387 Y173.534
X43.218 Y173.485
X43.033 Y173.423
X42.838 Y173.349
X42.64 Y173.264
X42.426 Y173.161
X42.203 Y173.042
X41.979 Y172.91
X41.74 Y172.756
X41.493 Y172.58
X41.247 Y172.39
X40.992 Y172.175
X40.728 Y171.933
X40.466 Y171.671
X40.206 Y171.389
X39.942 Y171.076
X39.676 Y170.734
X39.415 Y170.367
X39.164 Y169.981
X38.919 Y169.566
X38.681 Y169.122
X38.453 Y168.651
X38.239 Y168.156
X38.042 Y167.641
X37.864 Y167.111
X37.706 Y166.566
X37.57 Y166.008
X37.456 Y165.44
X37.366 Y164.866
X37.3 Y164.291
X37.259 Y163.72
X37.242 Y163.159
X37.249 Y162.614
X37.277 Y162.086
X37.326 Y161.578
X37.394 Y161.091
X37.479 Y160.627
X37.577 Y160.191
X37.682 Y159.805
X37.799 Y159.434
X37.92 Y159.102
X38.038 Y158.816
X38.176 Y158.517
X38.303 Y158.269
X38.44 Y158.028
X38.592 Y157.785
X38.876 Y157.427
X39.207 Y157.111
X39.578 Y156.844
X39.982 Y156.631
X40.412 Y156.476
X40.859 Y156.382
X41.315 Y156.35
X42.805
G3 X43.288 Y156.464 I-0.044 J1.269
X44.026 Y157.504 I-0.527 J1.156
G1 X45.373 Y172.265
G3 X44.635 Y173.536 I-1.265 J0.115
X44.152 Y173.65 I-0.527 J-1.156
G1 X42.723
X42.483 Y173.637
X42.334 Y173.62
X42.186 Y173.596
X42.035 Y173.565
X41.87 Y173.524
X41.693 Y173.472
X41.513 Y173.41
X41.318 Y173.334
X41.112 Y173.244
X40.903 Y173.142
X40.68 Y173.021
X40.447 Y172.882
X40.213 Y172.728
X39.968 Y172.552
X39.713 Y172.352
X39.461 Y172.137
X39.203 Y171.897
X38.938 Y171.629
X38.67 Y171.334
X38.41 Y171.022
X38.149 Y170.682
X37.889 Y170.311
X37.632 Y169.91
X37.386 Y169.488
X37.153 Y169.046
X36.931 Y168.578
X36.721 Y168.084
X36.527 Y167.568
X36.351 Y167.033
X36.196 Y166.482
X36.062 Y165.919
X35.952 Y165.35
X35.866 Y164.778
X35.804 Y164.206
X35.767 Y163.638
X35.754 Y163.078
X35.764 Y162.533
X35.796 Y162.002
X35.849 Y161.495
X35.919 Y161.015
X36.004 Y160.562
X36.105 Y160.129
X36.216 Y159.729
X36.327 Y159.386
X36.454 Y159.045
X36.571 Y158.767
X36.707 Y158.476
X36.839 Y158.223
X36.971 Y157.993
X37.123 Y157.754
X37.405 Y157.404
X37.731 Y157.095
X38.098 Y156.833
X38.496 Y156.625
X38.92 Y156.473
X39.36 Y156.381
X39.809 Y156.35
X41.315
G3 X41.797 Y156.464 I-0.044 J1.269
X42.535 Y157.499 I-0.527 J1.156
G1 X43.943 Y172.26
G3 X43.205 Y173.536 I-1.264 J0.121
X42.723 Y173.65 I-0.527 J-1.156
G1 X41.199
X41.049 Y173.643
X40.9 Y173.628
X40.751 Y173.607
X40.6 Y173.578
X40.437 Y173.54
X40.27 Y173.493
X40.087 Y173.433
X39.895 Y173.362
X39.697 Y173.278
X39.485 Y173.178
X39.265 Y173.063
X39.041 Y172.933
X38.804 Y172.782
X38.558 Y172.611
X38.313 Y172.424
X38.058 Y172.212
X37.795 Y171.974
X37.535 Y171.718
X37.274 Y171.44
X37.009 Y171.131
X36.742 Y170.793
X36.482 Y170.433
X36.231 Y170.052
X35.984 Y169.64
X35.743 Y169.2
X35.513 Y168.732
X35.297 Y168.242
X35.098 Y167.734
X34.917 Y167.208
X34.756 Y166.667
X34.616 Y166.112
X34.498 Y165.545
X34.403 Y164.971
X34.333 Y164.396
X34.288 Y163.823
X34.267 Y163.259
X34.269 Y162.707
X34.294 Y162.176
X34.34 Y161.664
X34.404 Y161.176
X34.486 Y160.706
X34.583 Y160.264
X34.692 Y159.848
X34.8 Y159.498
X34.925 Y159.145
X35.046 Y158.846
X35.172 Y158.567
X35.31 Y158.294
X35.438 Y158.065
X35.586 Y157.824
X35.599 Y157.805
X35.882 Y157.442
X36.213 Y157.122
X36.586 Y156.852
X36.992 Y156.635
X37.425 Y156.478
X37.876 Y156.382
X38.335 Y156.35
X39.809
G3 X40.291 Y156.464 I-0.044 J1.269
X41.029 Y157.5 I-0.527 J1.156
G1 X42.419 Y172.262
G3 X41.681 Y173.536 I-1.264 J0.119
X41.199 Y173.65 I-0.527 J-1.156
G1 X39.675
X39.525 Y173.643
X39.376 Y173.626
X39.228 Y173.603
X39.076 Y173.572
X38.914 Y173.533
X38.736 Y173.481
X38.555 Y173.42
X38.363 Y173.346
X38.156 Y173.256
X37.947 Y173.155
X37.726 Y173.036
X37.492 Y172.897
X37.258 Y172.745
X37.015 Y172.572
X36.761 Y172.374
X36.505 Y172.157
X36.25 Y171.921
X35.986 Y171.656
X35.717 Y171.363
X35.454 Y171.05
X35.194 Y170.714
X34.935 Y170.347
X34.679 Y169.951
X34.43 Y169.527
X34.195 Y169.084
X33.972 Y168.621
X33.823 Y168.274
X33.676 Y167.853
X33.586 Y167.417
X33.556 Y166.973
Y160.863
X33.581 Y160.375
X33.606 Y160.1
X33.643 Y159.824
X33.691 Y159.552
X33.745 Y159.31
X33.815 Y159.046
X33.888 Y158.813
X33.965 Y158.598
X34.06 Y158.365
X34.153 Y158.161
X34.249 Y157.972
X34.516 Y157.572
X34.84 Y157.217
X35.213 Y156.914
X35.628 Y156.672
X36.075 Y156.494
X36.543 Y156.386
X37.022 Y156.35
G3 X37.504 Y156.464 I-0.044 J1.269
X38.032 Y158.328 I-0.527 J1.156
G1 X35.879 Y161.528
G3 X33.556 Y160.863 I-1.054 J-0.709
G1 Y158.656
X33.564 Y158.489
X33.578 Y158.339
X33.68 Y157.935
X33.851 Y157.556
X34.087 Y157.212
X34.379 Y156.915
X34.718 Y156.674
X35.095 Y156.496
X35.497 Y156.387
X35.912 Y156.35
G3 X36.404 Y156.423 I-0.078 J2.233
X37.983 Y159.194 I-0.57 J2.16
X33.556 Y158.656 I-2.171 J-0.617
G1 Y157.817
X33.561 Y157.702
X33.574 Y157.552
X33.599 Y157.404
X33.639 Y157.26
X33.641 Y157.254
X33.774 Y156.983
X33.96 Y156.746
X34.191 Y156.552
X34.457 Y156.41
G3 X34.953 Y156.396 I0.289 J1.458
X35.592 Y156.646 I-0.208 J1.471
X34.125 Y158.778 I-0.737 J1.063
X33.653 Y158.189 I0.73 J-1.068
X33.561 Y157.702 I1.202 J-0.479
G1 X33.572 Y157.436
X33.617 Y157.247
X33.696 Y157.055
X33.75 Y156.96
X33.816 Y156.865
X33.896 Y156.77
X33.993 Y156.674
X34.076 Y156.607
X34.171 Y156.541
X34.266 Y156.488
X34.457 Y156.41
X34.647 Y156.365
X34.838 Y156.35
X38.335
G3 X38.817 Y156.464 I-0.044 J1.269
X39.555 Y157.504 I-0.527 J1.156
G1 X40.895 Y172.266
G3 X40.157 Y173.536 I-1.265 J0.115
X39.675 Y173.65 I-0.527 J-1.156
G1 X38.266
X38.021 Y173.637
X37.872 Y173.62
X37.723 Y173.596
X37.574 Y173.566
X37.409 Y173.525
X37.234 Y173.474
X37.054 Y173.413
X36.857 Y173.336
X36.654 Y173.248
X36.444 Y173.146
X36.219 Y173.024
X35.99 Y172.887
X35.756 Y172.734
X35.509 Y172.558
X35.256 Y172.359
X35.004 Y172.145
X34.744 Y171.904
X34.478 Y171.635
X34.417 Y171.569
X34.116 Y171.186
X33.875 Y170.762
X33.699 Y170.308
X33.592 Y169.832
X33.556 Y169.346
G3 X35.665 Y168.437 I1.269 J0.044
G1 X39.061 Y171.428
G3 X38.749 Y173.536 I-0.839 J0.953
X38.266 Y173.65 I-0.527 J-1.156
G1 X36.742
X36.666 Y173.646
X36.516 Y173.637
X36.367 Y173.619
X36.219 Y173.595
X36.068 Y173.563
X35.902 Y173.521
X35.725 Y173.468
X35.545 Y173.406
X35.379 Y173.34
X35.202 Y173.262
X34.799 Y173.022
X34.44 Y172.721
X34.133 Y172.367
X33.885 Y171.969
X33.704 Y171.537
X33.593 Y171.082
X33.556 Y170.614
G3 X35.685 Y169.724 I1.269 J0.044
G1 X37.558 Y171.446
G3 X37.225 Y173.536 I-0.86 J0.935
X36.742 Y173.65 I-0.527 J-1.156
G1 X35.404
X35.254 Y173.643
X35.105 Y173.623
X34.743 Y173.509
X34.41 Y173.328
X34.119 Y173.085
X33.88 Y172.79
X33.702 Y172.455
X33.593 Y172.091
X33.556 Y171.714
G3 X35.891 Y170.063 I1.796 J0.063
X35.894 Y173.566 I-0.551 J1.752
X35.404 Y173.65 I-0.554 J-1.751
G1 X34.838
X34.647 Y173.635
X34.457 Y173.59
X34.291 Y173.525
X34.126 Y173.43
X34.076 Y173.393
X33.981 Y173.315
X33.887 Y173.221
X33.755 Y173.049
X33.695 Y172.944
X33.634 Y172.806
X33.592 Y172.668
X33.561 Y172.478
X33.556 Y172.287
Y166.973
X33.57 Y166.888 Z42.018
X33.583 Y166.806 Z42.04
X33.595 Y166.729 Z42.076
X33.607 Y166.66 Z42.125
X33.628 Y166.601 Z42.186
X33.646 Y166.554 Z42.258
X33.659 Y166.519 Z42.337
X33.667 Y166.498 Z42.421
X33.67 Y166.49 Z42.509
G0 Z55
X415.469 Y167.729
Z53.77
G1 Z52.5 F849.6
G3 X405.704 Y169.142 Z52.097 I-5.38 J-2.729 F400.3
X407.671 Y159.473 Z51.693 I4.386 J-4.142
X412.507 Y170.527 Z51.031 I2.418 J5.527
X407.671 Y159.473 Z50.369 I-2.418 J-5.527
X415.783 Y163.007 Z50.023 I2.418 J5.527
X411.646 Y170.828 Z49.676 I-5.694 J1.993
X404.078 Y164.498 Z49.272 I-1.557 J-5.828
X412.592 Y159.511 Z48.869 I6.012 J0.502
X414.411 Y169.209 Z48.465 I-2.503 J5.489
X404.668 Y167.646 Z48.062 I-4.321 J-4.209
X409.429 Y159.004 Z47.658 I5.421 J-2.646
X415.956 Y166.403 Z47.255 I0.66 J5.996
X404.222 Y163.597 Z46.593 I-5.867 J-1.403
X415.956 Y166.403 Z45.931 I5.867 J1.403
X404.222 Y163.597 Z45.27 I-5.867 J-1.403
X415.956 Y166.403 Z44.608 I5.867 J1.403
X412.959 Y170.306 Z44.431 I-5.867 J-1.403
X404.126 Y165.91 Z44.027 I-2.87 J-5.306
X416.053 Y164.09 Z43.366 I5.964 J-0.91
X404.126 Y165.91 Z42.704 I-5.964 J0.91
X409.633 Y158.985 Z42.357 I5.964 J-0.91
X416.122 Y165 Z42.01 I0.456 J6.015
X404.057 I-6.033
X410.782 Y159.007 I6.033
X415.6 Y162.545 I-0.693 J5.993
X416.122 Y165 I-5.511 J2.455
G1 X416.137 Y166.292 F849.6
X416.16 Y166.369
X416.197 Y166.515
X416.222 Y166.663
X416.237 Y166.812
X416.243 Y166.962
X416.241 Y167.112
X416.233 Y167.262
X416.217 Y167.411
X416.194 Y167.566
X416.164 Y167.729
X416.124 Y167.897
X416.076 Y168.072
X416.018 Y168.251
X415.95 Y168.434
X415.871 Y168.62
X415.782 Y168.81
X415.682 Y169.001
X415.571 Y169.193
X415.449 Y169.385
X415.316 Y169.576
X415.172 Y169.766
X415.017 Y169.953
X414.851 Y170.137
X414.674 Y170.317
X414.487 Y170.492
X414.29 Y170.662
X414.083 Y170.826
X413.867 Y170.982
X413.642 Y171.131
X413.408 Y171.272
X413.166 Y171.404
X412.917 Y171.527
X412.661 Y171.641
X412.399 Y171.744
X412.13 Y171.837
X411.857 Y171.918
X411.578 Y171.989
X411.296 Y172.048
X411.01 Y172.096
X410.721 Y172.131
X410.43 Y172.155
X410.137 Y172.166
X409.843 Y172.165
X409.549 Y172.151
X409.255 Y172.125
X408.961 Y172.087
X408.669 Y172.036
X408.378 Y171.973
X408.09 Y171.898
X407.805 Y171.81
X407.523 Y171.711
X407.246 Y171.599
X406.973 Y171.476
X406.706 Y171.342
X406.444 Y171.196
X406.188 Y171.039
X405.938 Y170.871
X405.696 Y170.693
X405.462 Y170.505
X405.235 Y170.307
X405.017 Y170.1
X404.807 Y169.883
X404.607 Y169.658
X404.417 Y169.424
X404.236 Y169.183
X404.066 Y168.934
X403.906 Y168.678
X403.757 Y168.416
X403.619 Y168.147
X403.492 Y167.873
X403.377 Y167.594
X403.274 Y167.31
X403.183 Y167.022
X403.104 Y166.731
X403.038 Y166.436
X402.984 Y166.139
X402.942 Y165.839
X402.913 Y165.539
X402.896 Y165.237
X402.893 Y164.935
X402.902 Y164.632
X402.924 Y164.331
X402.958 Y164.031
X403.005 Y163.732
X403.064 Y163.435
X403.136 Y163.142
X403.22 Y162.851
X403.317 Y162.565
X403.425 Y162.282
X403.545 Y162.005
X403.677 Y161.733
X403.819 Y161.466
X403.973 Y161.206
X404.138 Y160.952
X404.313 Y160.706
X404.499 Y160.467
X404.694 Y160.236
X404.899 Y160.014
X405.113 Y159.8
X405.336 Y159.596
X405.567 Y159.401
X405.807 Y159.216
X406.053 Y159.041
X406.307 Y158.877
X406.568 Y158.723
X406.835 Y158.581
X407.107 Y158.45
X407.385 Y158.33
X407.668 Y158.222
X407.955 Y158.127
X408.245 Y158.043
X408.539 Y157.972
X408.836 Y157.913
X409.135 Y157.866
X409.435 Y157.833
X409.737 Y157.811
X410.039 Y157.803
X410.342 Y157.807
X410.644 Y157.824
X410.945 Y157.854
X411.244 Y157.896
X411.542 Y157.951
X411.836 Y158.018
X412.128 Y158.098
X412.416 Y158.189
X412.701 Y158.293
X412.98 Y158.409
X413.254 Y158.536
X413.523 Y158.675
X413.786 Y158.825
X414.042 Y158.985
X414.291 Y159.157
X414.533 Y159.339
X414.767 Y159.53
X414.993 Y159.732
X415.21 Y159.942
X415.418 Y160.162
X415.616 Y160.39
X415.805 Y160.626
X415.984 Y160.87
X416.152 Y161.122
X416.31 Y161.38
X416.456 Y161.644
X416.592 Y161.915
X416.715 Y162.191
X416.839 Y162.501
X417.053 Y163.109
X417.22 Y163.657
X417.34 Y164.119
X417.428 Y164.527
X417.493 Y164.906
X417.539 Y165.262
X417.568 Y165.6
X417.582 Y165.925
Y166.242
X417.57 Y166.552
X417.545 Y166.855
X417.508 Y167.152
X417.459 Y167.444
X417.398 Y167.732
X417.325 Y168.016
X417.241 Y168.296
X417.145 Y168.573
X417.037 Y168.846
X416.917 Y169.114
X416.786 Y169.379
X416.643 Y169.639
X416.488 Y169.894
X416.322 Y170.144
X416.145 Y170.388
X415.956 Y170.627
X415.756 Y170.858
X415.544 Y171.083
X415.322 Y171.3
X415.089 Y171.509
X414.846 Y171.71
X414.593 Y171.901
X414.331 Y172.083
X414.059 Y172.255
X413.778 Y172.417
X413.49 Y172.567
X413.193 Y172.706
X412.889 Y172.832
X412.579 Y172.947
X412.263 Y173.049
X411.941 Y173.138
X411.614 Y173.214
X411.283 Y173.276
X410.949 Y173.324
X410.611 Y173.359
X410.272 Y173.379
X409.93 Y173.385
X409.588 Y173.376
X409.246 Y173.354
X408.904 Y173.316
X408.563 Y173.265
X408.223 Y173.198
X407.886 Y173.118
X407.552 Y173.023
X407.222 Y172.914
X406.896 Y172.791
X406.576 Y172.655
X406.26 Y172.504
X405.951 Y172.341
X405.649 Y172.164
X405.354 Y171.975
X405.067 Y171.773
X404.788 Y171.559
X404.518 Y171.333
X404.258 Y171.096
X404.008 Y170.848
X403.768 Y170.59
X403.54 Y170.321
X403.322 Y170.043
X403.117 Y169.756
X402.923 Y169.461
X402.742 Y169.157
X402.574 Y168.847
X402.419 Y168.529
X402.278 Y168.204
X402.15 Y167.874
X402.036 Y167.539
X401.936 Y167.2
X401.851 Y166.856
X401.78 Y166.509
X401.724 Y166.159
X401.682 Y165.807
X401.656 Y165.454
X401.644 Y165.1
X401.647 Y164.745
X401.665 Y164.391
X401.698 Y164.038
X401.745 Y163.686
X401.808 Y163.337
X401.885 Y162.991
X401.976 Y162.648
X402.082 Y162.31
X402.202 Y161.976
X402.336 Y161.647
X402.483 Y161.325
X402.644 Y161.008
X402.819 Y160.699
X403.006 Y160.398
X403.205 Y160.104
X403.417 Y159.819
X403.64 Y159.544
X403.875 Y159.277
X404.121 Y159.021
X404.377 Y158.776
X404.644 Y158.542
X404.92 Y158.319
X405.205 Y158.107
X405.499 Y157.908
X405.801 Y157.722
X406.111 Y157.548
X406.427 Y157.387
X406.75 Y157.24
X407.079 Y157.107
X407.413 Y156.987
X407.752 Y156.882
X408.095 Y156.791
X408.442 Y156.714
X408.792 Y156.652
X409.143 Y156.605
X409.497 Y156.573
X409.852 Y156.555
X410.207 Y156.553
X410.561 Y156.565
X410.915 Y156.593
X411.268 Y156.635
X411.618 Y156.692
X411.966 Y156.763
X412.31 Y156.849
X412.651 Y156.95
X412.987 Y157.065
X413.318 Y157.193
X413.643 Y157.336
X413.962 Y157.492
X414.274 Y157.661
X414.578 Y157.844
X414.875 Y158.038
X415.163 Y158.246
X415.443 Y158.465
X415.712 Y158.696
X415.972 Y158.937
X416.222 Y159.19
X416.461 Y159.454
X416.692 Y159.73
X416.935 Y160.047
X417.178 Y160.394
X417.41 Y160.758
X417.633 Y161.139
X417.84 Y161.533
X418.031 Y161.935
X418.203 Y162.34
X418.355 Y162.744
X418.487 Y163.147
X418.6 Y163.548
X418.662 Y163.808
X418.711 Y164.06
X418.741 Y164.314
X418.751 Y164.57
Y166.195
X418.716 Y166.897
X418.686 Y167.221
X418.642 Y167.545
X418.584 Y167.87
X418.513 Y168.194
X418.427 Y168.516
X418.327 Y168.837
X418.213 Y169.155
X418.085 Y169.47
X417.942 Y169.782
X417.786 Y170.089
X417.616 Y170.391
X417.433 Y170.688
X417.235 Y170.978
X417.025 Y171.263
X416.801 Y171.539
X416.564 Y171.808
X416.314 Y172.069
X416.052 Y172.32
X415.778 Y172.561
X415.492 Y172.792
X415.195 Y173.012
X415.095 Y173.081
X414.669 Y173.326
X414.211 Y173.504
X413.732 Y173.613
X413.242 Y173.65
X407.594
X407.276 Y173.634
X407.073 Y173.615
X406.862 Y173.587
X406.635 Y173.547
X406.399 Y173.494
X406.158 Y173.43
X405.91 Y173.353
X405.653 Y173.261
X405.388 Y173.153
X405.121 Y173.031
X404.853 Y172.895
X404.584 Y172.743
X404.313 Y172.575
X404.041 Y172.391
X403.771 Y172.191
X403.504 Y171.975
X403.242 Y171.743
X402.986 Y171.498
X402.737 Y171.238
X402.496 Y170.965
X402.264 Y170.678
X402.042 Y170.379
X401.831 Y170.067
X401.63 Y169.744
X401.442 Y169.409
X401.267 Y169.064
X401.105 Y168.71
X400.958 Y168.347
X400.825 Y167.976
X400.707 Y167.598
X400.605 Y167.214
X400.519 Y166.824
X400.449 Y166.43
X400.395 Y166.032
X400.358 Y165.632
X400.338 Y165.229
X400.335 Y164.825
X400.349 Y164.42
X400.38 Y164.016
X400.427 Y163.612
X400.492 Y163.211
X400.574 Y162.812
X400.673 Y162.417
X400.788 Y162.026
X400.92 Y161.639
X401.067 Y161.259
X401.231 Y160.884
X401.411 Y160.517
X401.606 Y160.157
X401.815 Y159.806
X402.04 Y159.464
X402.279 Y159.131
X402.532 Y158.808
X402.798 Y158.497
X403.077 Y158.196
X403.368 Y157.908
X403.671 Y157.632
X403.986 Y157.369
X404.312 Y157.12
X404.647 Y156.884
X404.667 Y156.872
X405.079 Y156.647
X405.519 Y156.483
X405.979 Y156.383
X406.447 Y156.35
X412.584
X412.942 Y156.368
X413.138 Y156.386
X413.348 Y156.414
X413.572 Y156.454
X413.801 Y156.505
X414.037 Y156.568
X414.285 Y156.645
X414.541 Y156.737
X414.802 Y156.843
X415.064 Y156.963
X415.33 Y157.098
X415.6 Y157.25
X415.876 Y157.421
X416.156 Y157.61
X416.433 Y157.816
X416.711 Y158.041
X416.991 Y158.288
X417.271 Y158.557
X417.549 Y158.847
X417.82 Y159.154
X418.083 Y159.479
X418.101 Y159.504
X418.33 Y159.857
X418.512 Y160.237
X418.644 Y160.637
X418.724 Y161.05
X418.751 Y161.47
G3 X418.637 Y161.952 I-1.269 J-0.044
X416.698 Y162.425 I-1.156 J-0.527
G1 X411.845 Y158.619
G3 X412.102 Y156.464 I0.784 J-0.999
X412.584 Y156.35 I0.527 J1.156
G1 X414.661
X414.854 Y156.36
X415.004 Y156.373
X415.165 Y156.395
X415.341 Y156.427
X415.521 Y156.467
X415.715 Y156.518
X415.923 Y156.583
X416.133 Y156.659
X416.358 Y156.75
X416.594 Y156.858
X416.833 Y156.979
X417.074 Y157.115
X417.288 Y157.248
X417.305 Y157.26
X417.666 Y157.543
X417.984 Y157.874
X418.253 Y158.246
X418.468 Y158.651
X418.624 Y159.083
X418.719 Y159.532
X418.751 Y159.989
G3 X418.637 Y160.472 I-1.269 J-0.044
