%
(1001)
(Z0 stock bottom)
(T1  D=12.7 CR=0 - ZMIN=15 - flat end mill)
G90 G94
G17
G21

(2D Contour7 3)
M9
T1 M6
S6000 M3
G54
M9
G0 X632.797 Y160.16
Z65
Z55
G1 Z53.77 F849.6
G19 G2 Y158.89 Z52.5 J-1.27
G1 Y157.62
G17 G3 X634.067 Y156.35 I1.27
G1 X743.751 Z48.67 F400.3
Y180 Z47.844
G2 X749.974 Y186.349 Z47.5 I6.35
X750.101 Y186.35 I0.127 J-6.349 F849.6
G1 X880.101
G2 X886.451 Y180 J-6.35
G1 Y158.89
Y156.35 F212.4
X900 F849.6
G2 X906.35 Y150 J-6.35
G1 Y20
G2 X880 Y-6.35 I-26.35
G1 X865
G2 X838.65 Y20 J26.35
G1 Y60
G3 X825 Y73.65 I-13.65
G1 X540
G3 X526.35 Y60 J-13.65
G1 Y20
G2 X500 Y-6.35 I-26.35
G1 X485
G2 X458.65 Y20 J26.35
G1 Y150
G2 X465 Y156.35 I6.35
G1 X473.316
X475.856 F212.4
Y180 F849.6
G2 X482.206 Y186.35 I6.35
G1 X612.206
G2 X618.556 Y180 J-6.35
G1 Y158.89
Y156.35 F212.4
X741.211 F849.6
X743.751 F212.4
Y180 F849.6
G2 X749.974 Y186.349 I6.35
X750.101 Y186.35 Z47.496 I0.127 J-6.349 F400.3
G1 X821.564 Z45
X880.101 F849.6
G2 X886.451 Y180 J-6.35
G1 Y158.89
Y156.35 F212.4
X900 F849.6
G2 X906.35 Y150 J-6.35
G1 Y20
G2 X880 Y-6.35 I-26.35
G1 X865
G2 X838.65 Y20 J26.35
G1 Y60
G3 X825 Y73.65 I-13.65
G1 X540
G3 X526.35 Y60 J-13.65
G1 Y20
G2 X500 Y-6.35 I-26.35
G1 X485
G2 X458.65 Y20 J26.35
G1 Y150
G2 X465 Y156.35 I6.35
G1 X473.316
X475.856 F212.4
Y180 F849.6
G2 X482.206 Y186.35 I6.35
G1 X612.206
G2 X618.556 Y180 J-6.35
G1 Y158.89
Y156.35 F212.4
X741.211 F849.6
X743.751 F212.4
Y180 F849.6
G2 X750.101 Y186.35 I6.35
G1 X821.564
X880.101 Z42.956 F400.3
G2 X886.451 Y180 Z42.608 J-6.35
G1 Y176.921 Z42.5
Y158.89 F849.6
Y156.35 F212.4
X900 F849.6
G2 X906.35 Y150 J-6.35
G1 Y20
G2 X880 Y-6.35 I-26.35
G1 X865
G2 X838.65 Y20 J26.35
G1 Y60
G3 X825 Y73.65 I-13.65
G1 X540
G3 X526.35 Y60 J-13.65
G1 Y20
G2 X500 Y-6.35 I-26.35
G1 X485
G2 X458.65 Y20 J26.35
G1 Y150
G2 X465 Y156.35 I6.35
G1 X473.316
X475.856 F212.4
Y180 F849.6
G2 X482.206 Y186.35 I6.35
G1 X612.206
G2 X618.556 Y180 J-6.35
G1 Y158.89
Y156.35 F212.4
X741.211 F849.6
X743.751 F212.4
Y180 F849.6
G2 X750.101 Y186.35 I6.35
G1 X821.564
X880.101
G2 X886.451 Y180 J-6.35
G1 Y176.921
Y156.35 Z41.782 F400.3
X900 Z41.309
G2 X906.35 Y150 Z40.96 J-6.35
G1 Y122.503 Z40
Y20 F849.6
G2 X880 Y-6.35 I-26.35
G1 X865
G2 X838.65 Y20 J26.35
G1 Y60
G3 X825 Y73.65 I-13.65
G1 X540
G3 X526.35 Y60 J-13.65
G1 Y20
G2 X500 Y-6.35 I-26.35
G1 X485
G2 X458.65 Y20 J26.35
G1 Y150
G2 X465 Y156.35 I6.35
G1 X473.316
X475.856 F212.4
Y180 F849.6
G2 X482.206 Y186.35 I6.35
G1 X612.206
G2 X618.556 Y180 J-6.35
G1 Y158.89
Y156.35 F212.4
X741.211 F849.6
X743.751 F212.4
Y180 F849.6
G2 X750.101 Y186.35 I6.35
G1 X880.101
G2 X886.451 Y180 J-6.35
G1 Y158.89
Y156.35 F212.4
X900 F849.6
G2 X906.35 Y150 J-6.35
G1 Y122.503
Y50.913 Z37.5 F400.3
Y20 F849.6
G2 X880 Y-6.35 I-26.35
G1 X865
G2 X838.65 Y20 J26.35
G1 Y60
G3 X825 Y73.65 I-13.65
G1 X540
G3 X526.35 Y60 J-13.65
G1 Y20
G2 X500 Y-6.35 I-26.35
G1 X485
G2 X458.65 Y20 J26.35
G1 Y150
G2 X465 Y156.35 I6.35
G1 X473.316
X475.856 F212.4
Y180 F849.6
G2 X482.206 Y186.35 I6.35
G1 X612.206
G2 X618.556 Y180 J-6.35
G1 Y158.89
Y156.35 F212.4
X741.211 F849.6
X743.751 F212.4
Y180 F849.6
G2 X750.101 Y186.35 I6.35
G1 X880.101
G2 X886.451 Y180 J-6.35
G1 Y158.89
Y156.35 F212.4
X900 F849.6
G2 X906.35 Y150 J-6.35
G1 Y50.913
Y20 Z36.42 F400.3
G2 X880.713 Y-6.34 Z35 I-26.35
X880 Y-6.35 I-0.713 J26.34 F849.6
G1 X865
G2 X838.65 Y20 J26.35
G1 Y60
G3 X825 Y73.65 I-13.65
G1 X540
G3 X526.35 Y60 J-13.65
G1 Y20
G2 X500 Y-6.35 I-26.35
G1 X485
G2 X458.65 Y20 J26.35
G1 Y150
G2 X465 Y156.35 I6.35
G1 X473.316
X475.856 F212.4
Y180 F849.6
G2 X482.206 Y186.35 I6.35
G1 X612.206
G2 X618.556 Y180 J-6.35
G1 Y158.89
Y156.35 F212.4
X741.211 F849.6
X743.751 F212.4
Y180 F849.6
G2 X750.101 Y186.35 I6.35
G1 X880.101
G2 X886.451 Y180 J-6.35
G1 Y158.89
Y156.35 F212.4
X900 F849.6
G2 X906.35 Y150 J-6.35
G1 Y50.913
Y20
G2 X880.713 Y-6.34 I-26.35
X880 Y-6.35 Z34.975 I-0.713 J26.34 F400.3
G1 X865 Z34.451
G2 X838.65 Y20 Z33.006 J26.35
G1 Y34.487 Z32.5
Y60 F849.6
G3 X825 Y73.65 I-13.65
G1 X540
G3 X526.35 Y60 J-13.65
G1 Y20
G2 X500 Y-6.35 I-26.35
G1 X485
G2 X458.65 Y20 J26.35
G1 Y150
G2 X465 Y156.35 I6.35
G1 X473.316
X475.856 F212.4
Y180 F849.6
G2 X482.206 Y186.35 I6.35
G1 X612.206
G2 X618.556 Y180 J-6.35
G1 Y158.89
Y156.35 F212.4
X741.211 F849.6
X743.751 F212.4
Y180 F849.6
G2 X750.101 Y186.35 I6.35
G1 X880.101
G2 X886.451 Y180 J-6.35
G1 Y158.89
Y156.35 F212.4
X900 F849.6
G2 X906.35 Y150 J-6.35
G1 Y20
G2 X880 Y-6.35 I-26.35
G1 X865
G2 X838.65 Y20 J26.35
G1 Y34.487
Y60 Z31.609 F400.3
G3 X825 Y73.65 Z30.86 I-13.65
G1 X800.363 Z30
X540 F849.6
G3 X526.35 Y60 J-13.65
G1 Y20
G2 X500 Y-6.35 I-26.35
G1 X485
G2 X458.65 Y20 J26.35
G1 Y150
G2 X465 Y156.35 I6.35
G1 X473.316
X475.856 F212.4
Y180 F849.6
G2 X482.206 Y186.35 I6.35
G1 X612.206
G2 X618.556 Y180 J-6.35
G1 Y158.89
Y156.35 F212.4
X741.211 F849.6
X743.751 F212.4
Y180 F849.6
G2 X750.101 Y186.35 I6.35
G1 X880.101
G2 X886.451 Y180 J-6.35
G1 Y158.89
Y156.35 F212.4
X900 F849.6
G2 X906.35 Y150 J-6.35
G1 Y20
G2 X880 Y-6.35 I-26.35
G1 X865
G2 X838.65 Y20 J26.35
G1 Y60
G3 X825 Y73.65 I-13.65
G1 X800.363
X728.773 Z27.5 F400.3
X540 F849.6
G3 X526.35 Y60 J-13.65
G1 Y20
G2 X500 Y-6.35 I-26.35
G1 X485
G2 X458.65 Y20 J26.35
G1 Y150
G2 X465 Y156.35 I6.35
G1 X473.316
X475.856 F212.4
Y180 F849.6
G2 X482.206 Y186.35 I6.35
G1 X612.206
G2 X618.556 Y180 J-6.35
G1 Y158.89
Y156.35 F212.4
X741.211 F849.6
X743.751 F212.4
Y180 F849.6
G2 X750.101 Y186.35 I6.35
G1 X880.101
G2 X886.451 Y180 J-6.35
G1 Y158.89
Y156.35 F212.4
X900 F849.6
G2 X906.35 Y150 J-6.35
G1 Y20
G2 X880 Y-6.35 I-26.35
G1 X865
G2 X838.65 Y20 J26.35
G1 Y60
G3 X825 Y73.65 I-13.65
G1 X728.773
X657.182 Z25 F400.3
X540 F849.6
G3 X526.35 Y60 J-13.65
G1 Y20
G2 X500 Y-6.35 I-26.35
G1 X485
G2 X458.65 Y20 J26.35
G1 Y150
G2 X465 Y156.35 I6.35
G1 X473.316
X475.856 F212.4
Y180 F849.6
G2 X482.206 Y186.35 I6.35
G1 X612.206
G2 X618.556 Y180 J-6.35
G1 Y158.89
Y156.35 F212.4
X741.211 F849.6
X743.751 F212.4
Y180 F849.6
G2 X750.101 Y186.35 I6.35
G1 X880.101
G2 X886.451 Y180 J-6.35
G1 Y158.89
Y156.35 F212.4
X900 F849.6
G2 X906.35 Y150 J-6.35
G1 Y20
G2 X880 Y-6.35 I-26.35
G1 X865
G2 X838.65 Y20 J26.35
G1 Y60
G3 X825 Y73.65 I-13.65
G1 X728.773
X657.182
X585.591 Z22.5 F400.3
X540 F849.6
G3 X526.35 Y60 J-13.65
G1 Y20
G2 X500 Y-6.35 I-26.35
G1 X485
G2 X458.65 Y20 J26.35
G1 Y150
G2 X465 Y156.35 I6.35
G1 X473.316
X475.856 F212.4
Y180 F849.6
G2 X482.206 Y186.35 I6.35
G1 X612.206
G2 X618.556 Y180 J-6.35
G1 Y158.89
Y156.35 F212.4
X741.211 F849.6
X743.751 F212.4
Y180 F849.6
G2 X750.101 Y186.35 I6.35
G1 X880.101
G2 X886.451 Y180 J-6.35
G1 Y158.89
Y156.35 F212.4
X900 F849.6
G2 X906.35 Y150 J-6.35
G1 Y20
G2 X880 Y-6.35 I-26.35
G1 X865
G2 X838.65 Y20 J26.35
G1 Y60
G3 X825 Y73.65 I-13.65
G1 X657.182
X585.591
X540 Z20.908 F400.3
G3 X526.35 Y60 Z20.159 J-13.65
G1 Y55.442 Z20
Y20 F849.6
G2 X500 Y-6.35 I-26.35
G1 X485
G2 X458.65 Y20 J26.35
G1 Y150
G2 X465 Y156.35 I6.35
G1 X473.316
X475.856 F212.4
Y180 F849.6
G2 X482.206 Y186.35 I6.35
G1 X612.206
G2 X618.556 Y180 J-6.35
G1 Y158.89
Y156.35 F212.4
X741.211 F849.6
X743.751 F212.4
Y180 F849.6
G2 X750.101 Y186.35 I6.35
G1 X880.101
G2 X886.451 Y180 J-6.35
G1 Y158.89
Y156.35 F212.4
X900 F849.6
G2 X906.35 Y150 J-6.35
G1 Y20
G2 X880 Y-6.35 I-26.35
G1 X865
G2 X838.65 Y20 J26.35
G1 Y60
G3 X825 Y73.65 I-13.65
G1 X585.591
X540
G3 X526.35 Y60 J-13.65
G1 Y55.442
Y20 Z18.762 F400.3
G2 X505.207 Y-5.83 Z17.5 I-26.35
X500 Y-6.35 I-5.207 J25.83 F849.6
G1 X485
G2 X458.65 Y20 J26.35
G1 Y150
G2 X465 Y156.35 I6.35
G1 X473.316
X475.856 F212.4
Y180 F849.6
G2 X482.206 Y186.35 I6.35
G1 X612.206
G2 X618.556 Y180 J-6.35
G1 Y158.89
Y156.35 F212.4
X741.211 F849.6
X743.751 F212.4
Y180 F849.6
G2 X750.101 Y186.35 I6.35
G1 X880.101
G2 X886.451 Y180 J-6.35
G1 Y158.89
Y156.35 F212.4
X900 F849.6
G2 X906.35 Y150 J-6.35
G1 Y20
G2 X880 Y-6.35 I-26.35
G1 X865
G2 X838.65 Y20 J26.35
G1 Y60
G3 X825 Y73.65 I-13.65
G1 X540
G3 X526.35 Y60 J-13.65
G1 Y20
G2 X505.207 Y-5.83 I-26.35
X500 Y-6.35 Z17.317 I-5.207 J25.83 F400.3
G1 X485 Z16.793
G2 X458.65 Y20 Z15.348 J26.35
G1 Y29.958 Z15
Y150 F849.6
G2 X465 Y156.35 I6.35
G1 X473.316
X475.856 F212.4
Y180 F849.6
G2 X482.206 Y186.35 I6.35
G1 X612.206
G2 X618.556 Y180 J-6.35
G1 Y158.89
Y156.35 F212.4
X741.211 F849.6
X743.751 F212.4
Y180 F849.6
G2 X750.101 Y186.35 I6.35
G1 X880.101
G2 X886.451 Y180 J-6.35
G1 Y158.89
Y156.35 F212.4
X900 F849.6
G2 X906.35 Y150 J-6.35
G1 Y20
G2 X880 Y-6.35 I-26.35
G1 X865
G2 X838.65 Y20 J26.35
G1 Y60
G3 X825 Y73.65 I-13.65
G1 X540
G3 X526.35 Y60 J-13.65
G1 Y20
G2 X500 Y-6.35 I-26.35
G1 X485
G2 X458.65 Y20 J26.35
G1 Y29.958
G3 X457.38 Y31.228 I-1.27
G1 X456.11
G18 G3 X454.84 Z16.27 K1.27
G0 Z55
X455.16 Y123.348
G1 Z53.77 F849.6
G3 X453.89 Z52.5 I-1.27
G1 X452.62
G17 G3 X451.35 Y122.078 J-1.27
G1 Y20 Z48.935 F400.3
G2 X425.287 Y-6.348 Z47.5 I-26.35
X425 Y-6.35 I-0.287 J26.348 F849.6
G1 X410
G2 X383.65 Y20 J26.35
G1 Y60
G3 X370 Y73.65 I-13.65
G1 X85
G3 X71.35 Y60 J-13.65
G1 Y20
G2 X45 Y-6.35 I-26.35
G1 X30
G2 X3.65 Y20 J26.35
G1 Y150
G2 X10 Y156.35 I6.35
G1 X18.316
X20.856 F212.4
Y180 F849.6
G2 X27.206 Y186.35 I6.35
G1 X157.206
G2 X163.556 Y180 J-6.35
G1 Y158.89
Y156.35 F212.4
X286.211 F849.6
X288.751 F212.4
Y180 F849.6
G2 X295.101 Y186.35 I6.35
G1 X425.101
G2 X431.451 Y180 J-6.35
G1 Y158.89
Y156.35 F212.4
X445 F849.6
G2 X451.35 Y150 J-6.35
G1 Y20
G2 X425.287 Y-6.348 I-26.35
X425 Y-6.35 Z47.49 I-0.287 J26.348 F400.3
G1 X410 Z46.966
G2 X383.65 Y20 Z45.521 J26.35
G1 Y34.913 Z45
Y60 F849.6
G3 X370 Y73.65 I-13.65
G1 X85
G3 X71.35 Y60 J-13.65
G1 Y20
G2 X45 Y-6.35 I-26.35
G1 X30
G2 X3.65 Y20 J26.35
G1 Y150
G2 X10 Y156.35 I6.35
G1 X18.316
X20.856 F212.4
Y180 F849.6
G2 X27.206 Y186.35 I6.35
G1 X157.206
G2 X163.556 Y180 J-6.35
G1 Y158.89
Y156.35 F212.4
X286.211 F849.6
X288.751 F212.4
Y180 F849.6
G2 X295.101 Y186.35 I6.35
G1 X425.101
G2 X431.451 Y180 J-6.35
G1 Y158.89
Y156.35 F212.4
X445 F849.6
G2 X451.35 Y150 J-6.35
G1 Y20
G2 X425 Y-6.35 I-26.35
G1 X410
G2 X383.65 Y20 J26.35
G1 Y34.913
Y60 Z44.124 F400.3
G3 X370 Y73.65 Z43.375 I-13.65
G1 X344.938 Z42.5
X85 F849.6
G3 X71.35 Y60 J-13.65
G1 Y20
G2 X45 Y-6.35 I-26.35
G1 X30
G2 X3.65 Y20 J26.35
G1 Y150
G2 X10 Y156.35 I6.35
G1 X18.316
X20.856 F212.4
Y180 F849.6
G2 X27.206 Y186.35 I6.35
G1 X157.206
G2 X163.556 Y180 J-6.35
G1 Y158.89
Y156.35 F212.4
X286.211 F849.6
X288.751 F212.4
Y180 F849.6
G2 X295.101 Y186.35 I6.35
G1 X425.101
G2 X431.451 Y180 J-6.35
G1 Y158.89
Y156.35 F212.4
X445 F849.6
G2 X451.35 Y150 J-6.35
G1 Y20
G2 X425 Y-6.35 I-26.35
G1 X410
G2 X383.65 Y20 J26.35
G1 Y60
G3 X370 Y73.65 I-13.65
G1 X344.938
X273.347 Z40 F400.3
X85 F849.6
G3 X71.35 Y60 J-13.65
G1 Y20
G2 X45 Y-6.35 I-26.35
G1 X30
G2 X3.65 Y20 J26.35
G1 Y150
G2 X10 Y156.35 I6.35
G1 X18.316
X20.856 F212.4
Y180 F849.6
G2 X27.206 Y186.35 I6.35
G1 X157.206
G2 X163.556 Y180 J-6.35
G1 Y158.89
Y156.35 F212.4
X286.211 F849.6
X288.751 F212.4
Y180 F849.6
G2 X295.101 Y186.35 I6.35
G1 X425.101
G2 X431.451 Y180 J-6.35
G1 Y158.89
Y156.35 F212.4
X445 F849.6
G2 X451.35 Y150 J-6.35
G1 Y20
G2 X425 Y-6.35 I-26.35
G1 X410
G2 X383.65 Y20 J26.35
G1 Y60
G3 X370 Y73.65 I-13.65
G1 X273.347
X201.756 Z37.5 F400.3
X85 F849.6
G3 X71.35 Y60 J-13.65
G1 Y20
G2 X45 Y-6.35 I-26.35
G1 X30
G2 X3.65 Y20 J26.35
G1 Y150
G2 X10 Y156.35 I6.35
G1 X18.316
X20.856 F212.4
Y180 F849.6
G2 X27.206 Y186.35 I6.35
G1 X157.206
G2 X163.556 Y180 J-6.35
G1 Y158.89
Y156.35 F212.4
X286.211 F849.6
X288.751 F212.4
Y180 F849.6
G2 X295.101 Y186.35 I6.35
G1 X425.101
G2 X431.451 Y180 J-6.35
G1 Y158.89
Y156.35 F212.4
X445 F849.6
G2 X451.35 Y150 J-6.35
G1 Y20
G2 X425 Y-6.35 I-26.35
G1 X410
G2 X383.65 Y20 J26.35
G1 Y60
G3 X370 Y73.65 I-13.65
G1 X273.347
X201.756
X130.166 Z35 F400.3
X85 F849.6
G3 X71.35 Y60 J-13.65
G1 Y20
G2 X45 Y-6.35 I-26.35
G1 X30
G2 X3.65 Y20 J26.35
G1 Y150
G2 X10 Y156.35 I6.35
G1 X18.316
X20.856 F212.4
Y180 F849.6
G2 X27.206 Y186.35 I6.35
G1 X157.206
G2 X163.556 Y180 J-6.35
G1 Y158.89
Y156.35 F212.4
X286.211 F849.6
X288.751 F212.4
Y180 F849.6
G2 X295.101 Y186.35 I6.35
G1 X425.101
G2 X431.451 Y180 J-6.35
G1 Y158.89
Y156.35 F212.4
X445 F849.6
G2 X451.35 Y150 J-6.35
G1 Y20
G2 X425 Y-6.35 I-26.35
G1 X410
G2 X383.65 Y20 J26.35
G1 Y60
G3 X370 Y73.65 I-13.65
G1 X201.756
X130.166
X85 Z33.423 F400.3
G3 X71.35 Y60 Z32.674 J-13.65
G1 Y55.017 Z32.5
Y20 F849.6
G2 X45 Y-6.35 I-26.35
G1 X30
G2 X3.65 Y20 J26.35
G1 Y150
G2 X10 Y156.35 I6.35
G1 X18.316
X20.856 F212.4
Y180 F849.6
G2 X27.206 Y186.35 I6.35
G1 X157.206
G2 X163.556 Y180 J-6.35
G1 Y158.89
Y156.35 F212.4
X286.211 F849.6
X288.751 F212.4
Y180 F849.6
G2 X295.101 Y186.35 I6.35
G1 X425.101
G2 X431.451 Y180 J-6.35
G1 Y158.89
Y156.35 F212.4
X445 F849.6
G2 X451.35 Y150 J-6.35
G1 Y20
G2 X425 Y-6.35 I-26.35
G1 X410
G2 X383.65 Y20 J26.35
G1 Y60
G3 X370 Y73.65 I-13.65
G1 X130.166
X85
G3 X71.35 Y60 J-13.65
G1 Y55.017
Y20 Z31.277 F400.3
G2 X49.79 Y-5.911 Z30 I-26.35
X45 Y-6.35 I-4.79 J25.911 F849.6
G1 X30
G2 X3.65 Y20 J26.35
G1 Y150
G2 X10 Y156.35 I6.35
G1 X18.316
X20.856 F212.4
Y180 F849.6
G2 X27.206 Y186.35 I6.35
G1 X157.206
G2 X163.556 Y180 J-6.35
G1 Y158.89
Y156.35 F212.4
X286.211 F849.6
X288.751 F212.4
Y180 F849.6
G2 X295.101 Y186.35 I6.35
G1 X425.101
G2 X431.451 Y180 J-6.35
G1 Y158.89
Y156.35 F212.4
X445 F849.6
G2 X451.35 Y150 J-6.35
G1 Y20
G2 X425 Y-6.35 I-26.35
G1 X410
G2 X383.65 Y20 J26.35
G1 Y60
G3 X370 Y73.65 I-13.65
G1 X85
G3 X71.35 Y60 J-13.65
G1 Y20
G2 X49.79 Y-5.911 I-26.35
X45 Y-6.35 Z29.832 I-4.79 J25.911 F400.3
G1 X30 Z29.308
G2 X3.65 Y20 Z27.863 J26.35
G1 Y30.384 Z27.5
Y150 F849.6
G2 X10 Y156.35 I6.35
G1 X18.316
X20.856 F212.4
Y180 F849.6
G2 X27.206 Y186.35 I6.35
G1 X157.206
G2 X163.556 Y180 J-6.35
G1 Y158.89
Y156.35 F212.4
X286.211 F849.6
X288.751 F212.4
Y180 F849.6
G2 X295.101 Y186.35 I6.35
G1 X425.101
G2 X431.451 Y180 J-6.35
G1 Y158.89
Y156.35 F212.4
X445 F849.6
G2 X451.35 Y150 J-6.35
G1 Y20
G2 X425 Y-6.35 I-26.35
G1 X410
G2 X383.65 Y20 J26.35
G1 Y60
G3 X370 Y73.65 I-13.65
G1 X85
G3 X71.35 Y60 J-13.65
G1 Y20
G2 X45 Y-6.35 I-26.35
G1 X30
G2 X3.65 Y20 J26.35
G1 Y30.384
Y101.974 Z25 F400.3
Y150 F849.6
G2 X10 Y156.35 I6.35
G1 X18.316
X20.856 F212.4
Y180 F849.6
G2 X27.206 Y186.35 I6.35
G1 X157.206
G2 X163.556 Y180 J-6.35
G1 Y158.89
Y156.35 F212.4
X286.211 F849.6
X288.751 F212.4
Y180 F849.6
G2 X295.101 Y186.35 I6.35
G1 X425.101
G2 X431.451 Y180 J-6.35
G1 Y158.89
Y156.35 F212.4
X445 F849.6
G2 X451.35 Y150 J-6.35
G1 Y20
G2 X425 Y-6.35 I-26.35
G1 X410
G2 X383.65 Y20 J26.35
G1 Y60
G3 X370 Y73.65 I-13.65
G1 X85
G3 X71.35 Y60 J-13.65
G1 Y20
G2 X45 Y-6.35 I-26.35
G1 X30
G2 X3.65 Y20 J26.35
G1 Y101.974
Y150 Z23.323 F400.3
G2 X10 Y156.35 Z22.975 I6.35
G1 X20.856 Z22.595
Y159.084 Z22.5
Y180 F849.6
G2 X27.206 Y186.35 I6.35
G1 X157.206
G2 X163.556 Y180 J-6.35
G1 Y158.89
Y156.35 F212.4
X286.211 F849.6
X288.751 F212.4
Y180 F849.6
G2 X295.101 Y186.35 I6.35
G1 X425.101
G2 X431.451 Y180 J-6.35
G1 Y158.89
Y156.35 F212.4
X445 F849.6
G2 X451.35 Y150 J-6.35
G1 Y20
G2 X425 Y-6.35 I-26.35
G1 X410
G2 X383.65 Y20 J26.35
G1 Y60
G3 X370 Y73.65 I-13.65
G1 X85
G3 X71.35 Y60 J-13.65
G1 Y20
G2 X45 Y-6.35 I-26.35
G1 X30
G2 X3.65 Y20 J26.35
G1 Y101.974
Y150
G2 X10 Y156.35 I6.35
G1 X18.316
X20.856 F212.4
Y159.084 F849.6
Y180 Z21.77 F400.3
G2 X27.206 Y186.35 Z21.421 I6.35
G1 X67.907 Z20
X157.206 F849.6
G2 X163.556 Y180 J-6.35
G1 Y158.89
Y156.35 F212.4
X286.211 F849.6
X288.751 F212.4
Y180 F849.6
G2 X295.101 Y186.35 I6.35
G1 X425.101
G2 X431.451 Y180 J-6.35
G1 Y158.89
Y156.35 F212.4
X445 F849.6
G2 X451.35 Y150 J-6.35
G1 Y20
G2 X425 Y-6.35 I-26.35
G1 X410
G2 X383.65 Y20 J26.35
G1 Y60
G3 X370 Y73.65 I-13.65
G1 X85
G3 X71.35 Y60 J-13.65
G1 Y20
G2 X45 Y-6.35 I-26.35
G1 X30
G2 X3.65 Y20 J26.35
G1 Y150
G2 X10 Y156.35 I6.35
G1 X18.316
X20.856 F212.4
Y180 F849.6
G2 X27.206 Y186.35 I6.35
G1 X67.907
X139.497 Z17.5 F400.3
X157.206 F849.6
G2 X163.556 Y180 J-6.35
G1 Y158.89
Y156.35 F212.4
X286.211 F849.6
X288.751 F212.4
Y180 F849.6
G2 X295.101 Y186.35 I6.35
G1 X425.101
G2 X431.451 Y180 J-6.35
G1 Y158.89
Y156.35 F212.4
X445 F849.6
G2 X451.35 Y150 J-6.35
G1 Y20
G2 X425 Y-6.35 I-26.35
G1 X410
G2 X383.65 Y20 J26.35
G1 Y60
G3 X370 Y73.65 I-13.65
G1 X85
G3 X71.35 Y60 J-13.65
G1 Y20
G2 X45 Y-6.35 I-26.35
G1 X30
G2 X3.65 Y20 J26.35
G1 Y150
G2 X10 Y156.35 I6.35
G1 X18.316
X20.856 F212.4
Y180 F849.6
G2 X27.206 Y186.35 I6.35
G1 X139.497
X157.206 Z16.882 F400.3
G2 X163.556 Y180 Z16.533 J-6.35
G1 Y156.35 Z15.707
X183.813 Z15
X286.211 F849.6
X288.751 F212.4
Y180 F849.6
G2 X295.101 Y186.35 I6.35
G1 X425.101
G2 X431.451 Y180 J-6.35
G1 Y158.89
Y156.35 F212.4
X445 F849.6
G2 X451.35 Y150 J-6.35
G1 Y20
G2 X425 Y-6.35 I-26.35
G1 X410
G2 X383.65 Y20 J26.35
G1 Y60
G3 X370 Y73.65 I-13.65
G1 X85
G3 X71.35 Y60 J-13.65
G1 Y20
G2 X45 Y-6.35 I-26.35
G1 X30
G2 X3.65 Y20 J26.35
G1 Y150
G2 X10 Y156.35 I6.35
G1 X18.316
X20.856 F212.4
Y180 F849.6
G2 X27.206 Y186.35 I6.35
G1 X139.497
X157.206
G2 X163.556 Y180 J-6.35
G1 Y158.89
Y156.35 F212.4
X183.813 F849.6
G3 X185.083 Y157.62 J1.27
G1 Y158.89
G19 G3 Y160.16 Z16.27 K1.27
G0 Z55
X909.84 Y59.938
G1 Z53.77 F849.6
G18 G2 X911.11 Z52.5 I1.27
G1 X912.38
G17 G3 X913.65 Y61.208 J1.27
G1 Y150 Z49.399 F400.3
G2 X920 Y156.35 Z49.051 I6.35
G1 X930.856 Z48.672
Y180 Z47.846
G2 X937.14 Y186.35 Z47.5 I6.35
X937.206 I0.066 J-6.35 F849.6
G1 X1067.21
G2 X1073.56 Y180 J-6.35
G1 Y158.89
Y156.35 F212.4
X1196.21 F849.6
X1198.75 F212.4
Y180 F849.6
G2 X1205.1 Y186.35 I6.35
G1 X1335.1
G2 X1341.45 Y180 J-6.35
G1 Y158.89
Y156.35 F212.4
X1355 F849.6
G2 X1361.35 Y150 J-6.35
G1 Y20
G2 X1335 Y-6.35 I-26.35
G1 X1320
G2 X1293.65 Y20 J26.35
G1 Y60
G3 X1280 Y73.65 I-13.65
G1 X995
G3 X981.35 Y60 J-13.65
G1 Y20
G2 X955 Y-6.35 I-26.35
G1 X940
G2 X913.65 Y20 J26.35
G1 Y150
G2 X920 Y156.35 I6.35
G1 X928.316
X930.856 F212.4
Y180 F849.6
G2 X937.14 Y186.35 I6.35
X937.206 Z47.498 I0.066 J-6.35 F400.3
G1 X1008.73 Z45
X1067.21 F849.6
G2 X1073.56 Y180 J-6.35
G1 Y158.89
Y156.35 F212.4
X1196.21 F849.6
X1198.75 F212.4
Y180 F849.6
G2 X1205.1 Y186.35 I6.35
G1 X1335.1
G2 X1341.45 Y180 J-6.35
G1 Y158.89
Y156.35 F212.4
X1355 F849.6
G2 X1361.35 Y150 J-6.35
G1 Y20
G2 X1335 Y-6.35 I-26.35
G1 X1320
G2 X1293.65 Y20 J26.35
G1 Y60
G3 X1280 Y73.65 I-13.65
G1 X995
G3 X981.35 Y60 J-13.65
G1 Y20
G2 X955 Y-6.35 I-26.35
G1 X940
G2 X913.65 Y20 J26.35
G1 Y150
G2 X920 Y156.35 I6.35
G1 X928.316
X930.856 F212.4
Y180 F849.6
G2 X937.206 Y186.35 I6.35
G1 X1008.73
X1067.21 Z42.958 F400.3
G2 X1073.56 Y180 Z42.61 J-6.35
G1 Y176.864 Z42.5
Y158.89 F849.6
Y156.35 F212.4
X1196.21 F849.6
X1198.75 F212.4
Y180 F849.6
G2 X1205.1 Y186.35 I6.35
G1 X1335.1
G2 X1341.45 Y180 J-6.35
G1 Y158.89
Y156.35 F212.4
X1355 F849.6
G2 X1361.35 Y150 J-6.35
G1 Y20
G2 X1335 Y-6.35 I-26.35
G1 X1320
G2 X1293.65 Y20 J26.35
G1 Y60
G3 X1280 Y73.65 I-13.65
G1 X995
G3 X981.35 Y60 J-13.65
G1 Y20
G2 X955 Y-6.35 I-26.35
G1 X940
G2 X913.65 Y20 J26.35
G1 Y150
G2 X920 Y156.35 I6.35
G1 X928.316
X930.856 F212.4
Y180 F849.6
G2 X937.206 Y186.35 I6.35
G1 X1008.73
X1067.21
G2 X1073.56 Y180 J-6.35
G1 Y176.864
Y156.35 Z41.784 F400.3
X1124.637 Z40
X1196.21 F849.6
X1198.75 F212.4
Y180 F849.6
G2 X1205.1 Y186.35 I6.35
G1 X1335.1
G2 X1341.45 Y180 J-6.35
G1 Y158.89
Y156.35 F212.4
X1355 F849.6
G2 X1361.35 Y150 J-6.35
G1 Y20
G2 X1335 Y-6.35 I-26.35
G1 X1320
G2 X1293.65 Y20 J26.35
G1 Y60
G3 X1280 Y73.65 I-13.65
G1 X995
G3 X981.35 Y60 J-13.65
G1 Y20
G2 X955 Y-6.35 I-26.35
G1 X940
G2 X913.65 Y20 J26.35
G1 Y150
G2 X920 Y156.35 I6.35
G1 X928.316
X930.856 F212.4
Y180 F849.6
G2 X937.206 Y186.35 I6.35
G1 X1067.21
G2 X1073.56 Y180 J-6.35
G1 Y158.89
Y156.35 F212.4
X1124.637 F849.6
X1196.228 Z37.5 F400.3
X1198.75 F212.4
Y180 F849.6
G2 X1205.1 Y186.35 I6.35
G1 X1335.1
G2 X1341.45 Y180 J-6.35
G1 Y158.89
Y156.35 F212.4
X1355 F849.6
G2 X1361.35 Y150 J-6.35
G1 Y20
G2 X1335 Y-6.35 I-26.35
G1 X1320
G2 X1293.65 Y20 J26.35
G1 Y60
G3 X1280 Y73.65 I-13.65
G1 X995
G3 X981.35 Y60 J-13.65
G1 Y20
G2 X955 Y-6.35 I-26.35
G1 X940
G2 X913.65 Y20 J26.35
G1 Y150
G2 X920 Y156.35 I6.35
G1 X928.316
X930.856 F212.4
Y180 F849.6
G2 X937.206 Y186.35 I6.35
G1 X1067.21
G2 X1073.56 Y180 J-6.35
G1 Y158.89
Y156.35 F212.4
X1196.228 F849.6
X1198.75 Z37.412 F400.3
Y180 Z36.586
G2 X1205.1 Y186.35 Z36.238 I6.35
G1 X1240.544 Z35
X1335.1 F849.6
G2 X1341.45 Y180 J-6.35
G1 Y158.89
Y156.35 F212.4
X1355 F849.6
G2 X1361.35 Y150 J-6.35
G1 Y20
G2 X1335 Y-6.35 I-26.35
G1 X1320
G2 X1293.65 Y20 J26.35
G1 Y60
G3 X1280 Y73.65 I-13.65
G1 X995
G3 X981.35 Y60 J-13.65
G1 Y20
G2 X955 Y-6.35 I-26.35
G1 X940
G2 X913.65 Y20 J26.35
G1 Y150
G2 X920 Y156.35 I6.35
G1 X928.316
X930.856 F212.4
Y180 F849.6
G2 X937.206 Y186.35 I6.35
G1 X1067.21
G2 X1073.56 Y180 J-6.35
G1 Y158.89
Y156.35 F212.4
X1196.228 F849.6
X1198.75 F212.4
Y180 F849.6
G2 X1205.1 Y186.35 I6.35
G1 X1240.544
X1312.134 Z32.5 F400.3
X1335.1 F849.6
G2 X1341.45 Y180 J-6.35
G1 Y158.89
Y156.35 F212.4
X1355 F849.6
G2 X1361.35 Y150 J-6.35
G1 Y20
G2 X1335 Y-6.35 I-26.35
G1 X1320
G2 X1293.65 Y20 J26.35
G1 Y60
G3 X1280 Y73.65 I-13.65
G1 X995
G3 X981.35 Y60 J-13.65
G1 Y20
G2 X955 Y-6.35 I-26.35
G1 X940
G2 X913.65 Y20 J26.35
G1 Y150
G2 X920 Y156.35 I6.35
G1 X928.316
X930.856 F212.4
Y180 F849.6
G2 X937.206 Y186.35 I6.35
G1 X1067.21
G2 X1073.56 Y180 J-6.35
G1 Y158.89
Y156.35 F212.4
X1196.21 F849.6
X1198.75 F212.4
Y180 F849.6
G2 X1205.1 Y186.35 I6.35
G1 X1312.134
X1335.1 Z31.698 F400.3
G2 X1341.45 Y180 Z31.35 J-6.35
G1 Y156.35 Z30.524
X1355 Z30.051
G2 X1356.438 Y156.185 Z30 J-6.35
X1361.35 Y150 I-1.438 J-6.185 F849.6
G1 Y20
G2 X1335 Y-6.35 I-26.35
G1 X1320
G2 X1293.65 Y20 J26.35
G1 Y60
G3 X1280 Y73.65 I-13.65
G1 X995
G3 X981.35 Y60 J-13.65
G1 Y20
G2 X955 Y-6.35 I-26.35
G1 X940
G2 X913.65 Y20 J26.35
G1 Y150
G2 X920 Y156.35 I6.35
G1 X928.316
X930.856 F212.4
Y180 F849.6
G2 X937.206 Y186.35 I6.35
G1 X1067.21
G2 X1073.56 Y180 J-6.35
G1 Y158.89
Y156.35 F212.4
X1196.21 F849.6
X1198.75 F212.4
Y180 F849.6
G2 X1205.1 Y186.35 I6.35
G1 X1312.134
X1335.1
G2 X1341.45 Y180 J-6.35
G1 Y158.89
Y156.35 F212.4
X1355 F849.6
G2 X1356.438 Y156.185 J-6.35
X1361.35 Y150 Z29.702 I-1.438 J-6.185 F400.3
G1 Y86.933 Z27.5
Y20 F849.6
G2 X1335 Y-6.35 I-26.35
G1 X1320
G2 X1293.65 Y20 J26.35
G1 Y60
G3 X1280 Y73.65 I-13.65
G1 X995
G3 X981.35 Y60 J-13.65
G1 Y20
G2 X955 Y-6.35 I-26.35
G1 X940
G2 X913.65 Y20 J26.35
G1 Y150
G2 X920 Y156.35 I6.35
G1 X928.316
X930.856 F212.4
Y180 F849.6
G2 X937.206 Y186.35 I6.35
G1 X1067.21
G2 X1073.56 Y180 J-6.35
G1 Y158.89
Y156.35 F212.4
X1196.21 F849.6
X1198.75 F212.4
Y180 F849.6
G2 X1205.1 Y186.35 I6.35
G1 X1335.1
G2 X1341.45 Y180 J-6.35
G1 Y158.89
Y156.35 F212.4
X1355 F849.6
G2 X1361.35 Y150 J-6.35
G1 Y86.933
Y20 Z25.163 F400.3
G2 X1360.939 Y15.367 Z25 I-26.35
X1335 Y-6.35 I-25.939 J4.633 F849.6
G1 X1320
G2 X1293.65 Y20 J26.35
G1 Y60
G3 X1280 Y73.65 I-13.65
G1 X995
G3 X981.35 Y60 J-13.65
G1 Y20
G2 X955 Y-6.35 I-26.35
G1 X940
G2 X913.65 Y20 J26.35
G1 Y150
G2 X920 Y156.35 I6.35
G1 X928.316
X930.856 F212.4
Y180 F849.6
G2 X937.206 Y186.35 I6.35
G1 X1067.21
G2 X1073.56 Y180 J-6.35
G1 Y158.89
Y156.35 F212.4
X1196.21 F849.6
X1198.75 F212.4
Y180 F849.6
G2 X1205.1 Y186.35 I6.35
G1 X1335.1
G2 X1341.45 Y180 J-6.35
G1 Y158.89
Y156.35 F212.4
X1355 F849.6
G2 X1361.35 Y150 J-6.35
G1 Y20
G2 X1360.939 Y15.367 I-26.35
X1335 Y-6.35 Z23.717 I-25.939 J4.633 F400.3
G1 X1320 Z23.193
G2 X1301.969 Y0.785 Z22.5 J26.35
X1293.65 Y20 I18.031 J19.215 F849.6
G1 Y60
G3 X1280 Y73.65 I-13.65
G1 X995
G3 X981.35 Y60 J-13.65
G1 Y20
G2 X955 Y-6.35 I-26.35
G1 X940
G2 X913.65 Y20 J26.35
G1 Y150
G2 X920 Y156.35 I6.35
G1 X928.316
X930.856 F212.4
Y180 F849.6
G2 X937.206 Y186.35 I6.35
G1 X1067.21
G2 X1073.56 Y180 J-6.35
G1 Y158.89
Y156.35 F212.4
X1196.21 F849.6
X1198.75 F212.4
Y180 F849.6
G2 X1205.1 Y186.35 I6.35
G1 X1335.1
G2 X1341.45 Y180 J-6.35
G1 Y158.89
Y156.35 F212.4
X1355 F849.6
G2 X1361.35 Y150 J-6.35
G1 Y20
G2 X1335 Y-6.35 I-26.35
G1 X1320
G2 X1301.969 Y0.785 J26.35
X1293.65 Y20 Z21.748 I18.031 J19.215 F400.3
G1 Y60 Z20.351
G3 X1290.109 Y69.172 Z20 I-13.65
X1280 Y73.65 I-10.109 J-9.172 F849.6
G1 X995
G3 X981.35 Y60 J-13.65
G1 Y20
G2 X955 Y-6.35 I-26.35
G1 X940
G2 X913.65 Y20 J26.35
G1 Y150
G2 X920 Y156.35 I6.35
G1 X928.316
X930.856 F212.4
Y180 F849.6
G2 X937.206 Y186.35 I6.35
G1 X1067.21
G2 X1073.56 Y180 J-6.35
G1 Y158.89
Y156.35 F212.4
X1196.21 F849.6
X1198.75 F212.4
Y180 F849.6
G2 X1205.1 Y186.35 I6.35
G1 X1335.1
G2 X1341.45 Y180 J-6.35
G1 Y158.89
Y156.35 F212.4
X1355 F849.6
G2 X1361.35 Y150 J-6.35
G1 Y20
G2 X1335 Y-6.35 I-26.35
G1 X1320
G2 X1293.65 Y20 J26.35
G1 Y60
G3 X1290.109 Y69.172 I-13.65
X1280 Y73.65 Z19.602 I-10.109 J-9.172 F400.3
G1 X1219.793 Z17.5
X995 F849.6
G3 X981.35 Y60 J-13.65
G1 Y20
G2 X955 Y-6.35 I-26.35
G1 X940
G2 X913.65 Y20 J26.35
G1 Y150
G2 X920 Y156.35 I6.35
G1 X928.316
X930.856 F212.4
Y180 F849.6
G2 X937.206 Y186.35 I6.35
G1 X1067.21
G2 X1073.56 Y180 J-6.35
G1 Y158.89
Y156.35 F212.4
X1196.21 F849.6
X1198.75 F212.4
Y180 F849.6
G2 X1205.1 Y186.35 I6.35
G1 X1335.1
G2 X1341.45 Y180 J-6.35
G1 Y158.89
Y156.35 F212.4
X1355 F849.6
G2 X1361.35 Y150 J-6.35
G1 Y20
G2 X1335 Y-6.35 I-26.35
G1 X1320
G2 X1293.65 Y20 J26.35
G1 Y60
G3 X1280 Y73.65 I-13.65
G1 X1219.793
X1148.203 Z15 F400.3
X995 F849.6
G3 X981.35 Y60 J-13.65
G1 Y20
G2 X955 Y-6.35 I-26.35
G1 X940
G2 X913.65 Y20 J26.35
G1 Y150
G2 X920 Y156.35 I6.35
G1 X928.316
X930.856 F212.4
Y180 F849.6
G2 X937.206 Y186.35 I6.35
G1 X1067.21
G2 X1073.56 Y180 J-6.35
G1 Y158.89
Y156.35 F212.4
X1196.21 F849.6
X1198.75 F212.4
Y180 F849.6
G2 X1205.1 Y186.35 I6.35
G1 X1335.1
G2 X1341.45 Y180 J-6.35
G1 Y158.89
Y156.35 F212.4
X1355 F849.6
G2 X1361.35 Y150 J-6.35
G1 Y20
G2 X1335 Y-6.35 I-26.35
G1 X1320
G2 X1293.65 Y20 J26.35
G1 Y60
G3 X1280 Y73.65 I-13.65
G1 X1148.203
G3 X1146.933 Y72.38 J-1.27
G1 Y71.11
G19 G2 Y69.84 Z16.27 K1.27
G0 Z65
G17

(2D Adaptive15 3)
M9
G0 X136.332 Y162.649
Z65
Z55
Z53.77
G1 Z52.5 F849.6
G3 X147.444 Y167.351 Z51.838 I5.556 J2.351 F400.3
X136.332 Y162.649 Z51.176 I-5.556 J-2.351
X147.444 Y167.351 Z50.515 I5.556 J2.351
X136.332 Y162.649 Z49.853 I-5.556 J-2.351
X147.444 Y167.351 Z49.191 I5.556 J2.351
X136.332 Y162.649 Z48.529 I-5.556 J-2.351
X147.444 Y167.351 Z47.867 I5.556 J2.351
X136.332 Y162.649 Z47.206 I-5.556 J-2.351
X147.444 Y167.351 Z46.544 I5.556 J2.351
X136.332 Y162.649 Z45.882 I-5.556 J-2.351
X147.444 Y167.351 Z45.22 I5.556 J2.351
X136.332 Y162.649 Z44.558 I-5.556 J-2.351
X147.444 Y167.351 Z43.897 I5.556 J2.351
X136.332 Y162.649 Z43.235 I-5.556 J-2.351
X147.444 Y167.351 Z42.573 I5.556 J2.351
X136.332 Y162.649 Z41.911 I-5.556 J-2.351
X144.635 Y159.629 Z41.565 I5.556 J2.351
X147.045 Y168.13 Z41.219 I-2.747 J5.371
X137.211 Y168.81 Z40.816 I-5.157 J-3.13
X146.565 Y161.19 Z40.154 I4.677 J-3.81
X147.92 Y165 Z40.01 I-4.677 J3.81
X135.855 I-6.033
X142.581 Y159.007 I6.033
X147.398 Y162.545 I-0.693 J5.993
X147.92 Y165 I-5.511 J2.455
G1 X147.924 Y165.323 F849.6
X148.044 Y166.61
X148.06 Y166.689
X148.086 Y166.836
X148.102 Y166.985
X148.111 Y167.135
X148.112 Y167.289
X148.105 Y167.453
X148.089 Y167.626
X148.063 Y167.808
X148.027 Y167.999
X147.979 Y168.197
X147.92 Y168.401
X147.847 Y168.611
X147.762 Y168.826
X147.662 Y169.044
X147.548 Y169.264
X147.42 Y169.485
X147.277 Y169.707
X147.119 Y169.927
X146.947 Y170.145
X146.76 Y170.359
X146.558 Y170.569
X146.343 Y170.772
X146.113 Y170.969
X145.871 Y171.157
X145.616 Y171.336
X145.349 Y171.505
X145.07 Y171.663
X144.781 Y171.809
X144.482 Y171.943
X144.173 Y172.063
X143.857 Y172.168
X143.533 Y172.26
X143.203 Y172.336
X142.867 Y172.396
X142.526 Y172.441
X142.182 Y172.469
X141.836 Y172.481
X141.487 Y172.476
X141.138 Y172.454
X140.789 Y172.415
X140.441 Y172.359
X140.095 Y172.287
X139.753 Y172.197
X139.414 Y172.091
X139.079 Y171.968
X138.751 Y171.829
X138.429 Y171.674
X138.114 Y171.504
X137.807 Y171.318
X137.51 Y171.118
X137.222 Y170.903
X136.944 Y170.674
X136.678 Y170.432
X136.423 Y170.177
X136.18 Y169.91
X135.951 Y169.631
X135.735 Y169.342
X135.533 Y169.042
X135.346 Y168.733
X135.174 Y168.415
X135.017 Y168.088
X134.876 Y167.755
X134.752 Y167.415
X134.643 Y167.069
X134.552 Y166.718
X134.478 Y166.364
X134.42 Y166.006
X134.38 Y165.645
X134.358 Y165.283
X134.353 Y164.921
X134.365 Y164.558
X134.395 Y164.197
X134.442 Y163.837
X134.506 Y163.48
X134.588 Y163.126
X134.687 Y162.777
X134.802 Y162.433
X134.934 Y162.094
X135.082 Y161.763
X135.245 Y161.439
X135.425 Y161.123
X135.619 Y160.816
X135.827 Y160.519
X136.05 Y160.232
X136.287 Y159.957
X136.536 Y159.693
X136.798 Y159.441
X137.072 Y159.202
X137.356 Y158.977
X137.652 Y158.766
X137.957 Y158.569
X138.271 Y158.387
X138.594 Y158.22
X138.924 Y158.07
X139.262 Y157.935
X139.605 Y157.817
X139.954 Y157.715
X140.307 Y157.63
X140.664 Y157.563
X141.024 Y157.512
X141.385 Y157.479
X141.748 Y157.464
X142.111 Y157.466
X142.474 Y157.485
X142.835 Y157.522
X143.195 Y157.577
X143.551 Y157.648
X143.903 Y157.737
X144.251 Y157.842
X144.593 Y157.964
X144.928 Y158.103
X145.257 Y158.257
X145.578 Y158.427
X145.89 Y158.613
X146.194 Y158.813
X146.487 Y159.028
X146.769 Y159.256
X147.04 Y159.498
X147.299 Y159.753
X147.546 Y160.019
X147.779 Y160.298
X147.999 Y160.587
X148.204 Y160.887
X148.395 Y161.196
X148.571 Y161.514
X148.731 Y161.84
X148.956 Y162.358
X149.232 Y163.093
X149.422 Y163.68
X149.561 Y164.194
X149.663 Y164.659
X149.737 Y165.096
X149.787 Y165.514
X149.815 Y165.914
X149.824 Y166.301
X149.815 Y166.677
X149.788 Y167.047
X149.743 Y167.411
X149.682 Y167.768
X149.604 Y168.12
X149.509 Y168.467
X149.398 Y168.809
X149.271 Y169.145
X149.127 Y169.476
X148.966 Y169.8
X148.79 Y170.118
X148.596 Y170.43
X148.387 Y170.733
X148.162 Y171.028
X147.921 Y171.315
X147.664 Y171.591
X147.392 Y171.857
X147.106 Y172.112
X146.805 Y172.354
X146.491 Y172.583
X146.164 Y172.798
X145.824 Y172.999
X145.473 Y173.184
X145.111 Y173.353
X144.988 Y173.404
X144.583 Y173.54
X144.163 Y173.622
X143.737 Y173.65
X140.745
X140.273 Y173.626
X139.94 Y173.594
X139.603 Y173.544
X139.261 Y173.477
X138.915 Y173.391
X138.566 Y173.286
X138.215 Y173.162
X137.864 Y173.019
X137.514 Y172.856
X137.168 Y172.674
X136.827 Y172.474
X136.493 Y172.255
X136.166 Y172.017
X135.849 Y171.763
X135.542 Y171.49
X135.246 Y171.202
X134.962 Y170.897
X134.692 Y170.577
X134.436 Y170.243
X134.195 Y169.895
X133.97 Y169.534
X133.762 Y169.161
X133.572 Y168.777
X133.399 Y168.383
X133.246 Y167.979
X133.111 Y167.568
X132.997 Y167.15
X132.902 Y166.726
X132.828 Y166.297
X132.774 Y165.864
X132.742 Y165.429
X132.73 Y164.992
X132.739 Y164.554
X132.77 Y164.117
X132.821 Y163.681
X132.894 Y163.248
X132.987 Y162.819
X133.101 Y162.394
X133.236 Y161.975
X133.39 Y161.563
X133.565 Y161.159
X133.758 Y160.763
X133.971 Y160.377
X134.202 Y160.002
X134.451 Y159.638
X134.717 Y159.286
X135 Y158.948
X135.299 Y158.623
X135.613 Y158.313
X135.942 Y158.019
X136.285 Y157.741
X136.641 Y157.479
X137.009 Y157.235
X137.388 Y157.009
X137.778 Y156.802
X138.178 Y156.613
X138.207 Y156.601
X138.616 Y156.462
X139.039 Y156.378
X139.47 Y156.35
X143.031
X143.538 Y156.375
X143.865 Y156.408
X144.2 Y156.457
X144.539 Y156.524
X144.882 Y156.609
X145.226 Y156.712
X145.573 Y156.834
X145.92 Y156.976
X146.266 Y157.137
X146.61 Y157.318
X146.95 Y157.517
X147.283 Y157.736
X147.61 Y157.973
X147.928 Y158.229
X148.235 Y158.501
X148.539 Y158.797
X148.838 Y159.119
X149.156 Y159.495
X149.469 Y159.903
X149.767 Y160.334
X150.049 Y160.787
X150.31 Y161.256
X150.548 Y161.735
X150.579 Y161.808
X150.732 Y162.234
X150.825 Y162.678
X150.856 Y163.13
Y167.718
X150.838 Y168.081
X150.807 Y168.396
X150.759 Y168.717
X150.695 Y169.043
X150.613 Y169.375
X150.512 Y169.713
X150.391 Y170.056
X150.249 Y170.402
X150.088 Y170.748
X149.908 Y171.092
X149.708 Y171.432
X149.488 Y171.768
X149.248 Y172.098
X148.988 Y172.422
X148.885 Y172.538
X148.553 Y172.863
X148.179 Y173.139
X147.769 Y173.359
X147.333 Y173.52
X146.878 Y173.617
X146.414 Y173.65
G3 X145.407 Y171.669 I0.044 J-1.269
G1 X148.535 Y167.05
G3 X150.856 Y167.718 I1.052 J0.712
G1 Y170.383
X150.84 Y170.699
X150.821 Y170.897
X150.79 Y171.102
X150.751 Y171.3
X150.698 Y171.514
X150.635 Y171.725
X150.568 Y171.915
X150.385 Y172.284
X150.149 Y172.622
X149.866 Y172.921
X149.542 Y173.176
X149.184 Y173.38
X148.799 Y173.529
X148.397 Y173.62
X147.986 Y173.65
G3 X147.504 Y173.536 I0.044 J-1.269
X147.037 Y171.589 I0.527 J-1.156
G1 X148.593 Y169.636
G3 X150.742 Y169.901 I0.993 J0.791
X150.856 Y170.383 I-1.156 J0.527
G1 Y172.022
X150.848 Y172.174
X150.779 Y172.51
X150.641 Y172.825
X150.44 Y173.104
X150.185 Y173.335
X149.888 Y173.507
X149.561 Y173.614
X149.219 Y173.65
G3 X147.752 Y171.674 I0.055 J-1.574
X150.856 Y172.022 I1.527 J0.403
G1 Y172.287
X150.851 Y172.478
X150.82 Y172.668
X150.757 Y172.859
X150.657 Y173.049
X150.65 Y173.06
X150.505 Y173.245
X150.397 Y173.348
X150.289 Y173.43
X150.269 Y173.443
X150.079 Y173.546
X149.888 Y173.611
X149.698 Y173.644
X149.666 Y173.645
X149.579 Z40.018
X149.495 Z40.04
X149.417 Z40.077
X149.345 Z40.127
X149.284 Y173.646 Z40.188
X149.234 Z40.259
X149.197 Z40.338
X149.175 Z40.422
X149.167 Z40.509
G0 Z55
X141.227 Y173.536
Z41.28
G1 Z40.01 F849.6
G3 X140.745 Y173.65 I-0.527 J-1.156
G1 X137.869
X137.598 Y173.636
X137.4 Y173.617
X137.192 Y173.586
X136.964 Y173.541
X136.728 Y173.483
X136.484 Y173.41
X136.225 Y173.318
X135.955 Y173.208
X135.684 Y173.082
X135.406 Y172.936
X135.118 Y172.767
X134.827 Y172.576
X134.538 Y172.366
X134.252 Y172.136
X133.966 Y171.883
X133.682 Y171.606
X133.404 Y171.307
X133.133 Y170.987
X132.874 Y170.648
X132.626 Y170.29
X132.393 Y169.915
X132.173 Y169.521
X131.969 Y169.11
X131.783 Y168.683
X131.614 Y168.242
X131.466 Y167.787
X131.338 Y167.32
X131.231 Y166.843
X131.147 Y166.358
X131.086 Y165.865
X131.049 Y165.367
X131.036 Y164.865
X131.046 Y164.36
X131.082 Y163.853
X131.142 Y163.348
X131.226 Y162.843
X131.335 Y162.342
X131.469 Y161.846
X131.626 Y161.355
X131.808 Y160.871
X132.013 Y160.396
X132.241 Y159.93
X132.491 Y159.475
X132.764 Y159.031
X133.058 Y158.601
X133.373 Y158.185
X133.708 Y157.785
X134.062 Y157.401
X134.164 Y157.3
X134.487 Y157.02
X134.844 Y156.784
X135.229 Y156.597
X135.634 Y156.46
X136.054 Y156.378
X136.481 Y156.35
X139.47
G3 X139.952 Y156.464 I-0.044 J1.269
X140.688 Y157.756 I-0.527 J1.156
G1 X139.087 Y172.518
G3 X138.351 Y173.536 I-1.263 J-0.137
X137.869 Y173.65 I-0.527 J-1.156
G1 X135.793
X135.541 Y173.637
X135.377 Y173.621
X135.197 Y173.595
X135.002 Y173.556
X134.803 Y173.507
X134.585 Y173.442
X134.357 Y173.361
X134.125 Y173.267
X133.879 Y173.152
X133.622 Y173.017
X133.365 Y172.866
X133.101 Y172.693
X132.829 Y172.495
X132.554 Y172.275
X132.284 Y172.036
X132.014 Y171.772
X131.744 Y171.481
X131.476 Y171.165
X131.217 Y170.826
X130.968 Y170.467
X130.731 Y170.086
X130.505 Y169.68
X130.292 Y169.251
X130.095 Y168.8
X129.915 Y168.329
X129.756 Y167.841
X129.618 Y167.338
X129.503 Y166.821
X129.411 Y166.293
X129.344 Y165.753
X129.303 Y165.204
X129.288 Y164.646
X129.3 Y164.082
X129.34 Y163.513
X129.408 Y162.942
X129.503 Y162.371
X129.628 Y161.801
X129.78 Y161.234
X129.96 Y160.672
X130.168 Y160.117
X130.404 Y159.571
X130.666 Y159.035
X130.919 Y158.576
X131.177 Y158.157
X131.421 Y157.8
X131.528 Y157.658
X131.813 Y157.33
X132.138 Y157.041
X132.499 Y156.798
X132.888 Y156.605
X133.299 Y156.464
X133.726 Y156.379
X134.159 Y156.35
X136.481
G3 X136.963 Y156.464 I-0.044 J1.269
X137.705 Y157.678 I-0.527 J1.156
G1 X137.017 Y172.44
G3 X136.275 Y173.536 I-1.269 J-0.059
X135.793 Y173.65 I-0.527 J-1.156
G1 X133.888
X133.788 Y173.645
X133.638 Y173.635
X133.476 Y173.617
X133.304 Y173.589
X133.123 Y173.55
X132.924 Y173.497
X132.719 Y173.433
X132.504 Y173.353
X132.272 Y173.254
X132.038 Y173.14
X131.795 Y173.008
X131.54 Y172.852
X131.281 Y172.677
X131.022 Y172.482
X130.755 Y172.261
X130.483 Y172.012
X130.215 Y171.742
X129.951 Y171.45
X129.687 Y171.127
X129.426 Y170.774
X129.174 Y170.397
X128.935 Y169.999
X128.708 Y169.576
X128.493 Y169.126
X128.294 Y168.649
X128.111 Y168.148
X127.949 Y167.624
X127.81 Y167.083
X127.695 Y166.526
X127.605 Y165.954
X127.542 Y165.366
X127.506 Y164.764
X127.5 Y164.15
X127.523 Y163.526
X127.577 Y162.895
X127.662 Y162.261
X127.78 Y161.624
X127.926 Y160.998
X128.1 Y160.389
X128.296 Y159.811
X128.493 Y159.31
X128.692 Y158.868
X128.894 Y158.471
X129.093 Y158.123
X129.3 Y157.797
X129.338 Y157.744
X129.622 Y157.396
X129.951 Y157.089
X130.319 Y156.829
X130.719 Y156.623
X131.143 Y156.472
X131.583 Y156.381
X132.032 Y156.35
X134.159
G3 X135.385 Y157.643 I-0.044 J1.269
G1 X135.113 Y172.404
G3 X134.37 Y173.536 I-1.27 J-0.023
X133.888 Y173.65 I-0.527 J-1.156
G1 X132.06
X131.984 Y173.646
X131.834 Y173.635
X131.673 Y173.615
X131.505 Y173.587
X131.325 Y173.546
X131.128 Y173.493
X130.928 Y173.427
X130.713 Y173.345
X130.485 Y173.246
X130.254 Y173.132
X130.01 Y172.996
X129.756 Y172.837
X129.502 Y172.662
X129.241 Y172.462
X128.97 Y172.234
X128.701 Y171.984
X128.435 Y171.711
X128.166 Y171.407
X127.895 Y171.07
X127.633 Y170.71
X127.381 Y170.326
X127.137 Y169.911
X126.901 Y169.463
X126.678 Y168.985
X126.473 Y168.483
X126.289 Y167.961
X126.125 Y167.414
X125.982 Y166.839
X125.864 Y166.239
X125.772 Y165.617
X125.708 Y164.976
X125.675 Y164.319
X125.673 Y163.652
X125.704 Y162.982
X125.767 Y162.316
X125.86 Y161.669
X125.98 Y161.045
X126.125 Y160.449
X126.288 Y159.897
X126.454 Y159.42
X126.624 Y158.998
X126.801 Y158.614
X126.981 Y158.267
X127.165 Y157.952
X127.23 Y157.852
X127.513 Y157.479
X127.845 Y157.148
X128.221 Y156.869
X128.633 Y156.645
X129.072 Y156.482
X129.53 Y156.383
X129.997 Y156.35
X132.032
G3 X132.514 Y156.464 I-0.044 J1.269
X133.258 Y157.617 I-0.527 J1.156
G1 X133.286 Y172.378
G3 X132.542 Y173.536 I-1.27 J0.002
X132.06 Y173.65 I-0.527 J-1.156
G1 X130.344
X130.247 Y173.645
X130.098 Y173.635
X129.941 Y173.617
X129.778 Y173.59
X129.596 Y173.551
X129.408 Y173.5
X129.208 Y173.437
X128.991 Y173.356
X128.771 Y173.262
X128.539 Y173.148
X128.292 Y173.013
X128.046 Y172.862
X127.789 Y172.687
X127.521 Y172.485
X127.254 Y172.263
X126.985 Y172.016
X126.708 Y171.736
X126.43 Y171.427
X126.162 Y171.097
X125.895 Y170.736
X125.631 Y170.338
X125.373 Y169.907
X125.131 Y169.454
X124.903 Y168.972
X124.687 Y168.454
X124.488 Y167.902
X124.308 Y167.318
X124.153 Y166.711
X124.025 Y166.085
X123.926 Y165.439
X123.855 Y164.775
X123.817 Y164.099
X123.811 Y163.417
X123.837 Y162.738
X123.896 Y162.077
X123.982 Y161.446
X124.093 Y160.849
X124.227 Y160.282
X124.366 Y159.798
X124.525 Y159.332
X124.676 Y158.951
X124.849 Y158.568
X125.011 Y158.252
X125.196 Y157.929
X125.233 Y157.871
X125.515 Y157.493
X125.849 Y157.159
X126.226 Y156.876
X126.64 Y156.649
X127.081 Y156.484
X127.542 Y156.384
X128.013 Y156.35
X129.997
G3 X131.223 Y157.589 I-0.044 J1.269
G1 X131.569 Y172.351
G3 X130.344 Y173.65 I-1.27 J0.03
G1 X128.554
X128.404 Y173.643
X128.255 Y173.628
X128.093 Y173.604
X127.914 Y173.569
X127.731 Y173.523
X127.53 Y173.463
X127.318 Y173.388
X127.101 Y173.3
X126.867 Y173.191
X126.625 Y173.063
X126.379 Y172.918
X126.117 Y172.746
X125.849 Y172.552
X125.582 Y172.338
X125.305 Y172.092
X125.022 Y171.816
X124.746 Y171.519
X124.468 Y171.19
X124.186 Y170.822
X123.91 Y170.423
X123.648 Y170.001
X123.392 Y169.542
X123.146 Y169.045
X122.913 Y168.512
X122.699 Y167.952
X122.509 Y167.371
X122.342 Y166.759
X122.199 Y166.12
X122.085 Y165.458
X122.002 Y164.783
X121.951 Y164.102
X121.932 Y163.421
X121.947 Y162.753
X121.993 Y162.1
X122.066 Y161.478
X122.165 Y160.889
X122.286 Y160.333
X122.413 Y159.86
X122.562 Y159.397
X122.703 Y159.021
X122.867 Y158.64
X123.023 Y158.322
X123.198 Y158.004
X123.25 Y157.92
X123.531 Y157.531
X123.865 Y157.186
X124.246 Y156.894
X124.665 Y156.66
X125.113 Y156.489
X125.582 Y156.385
X126.06 Y156.35
X128.013
G3 X129.237 Y157.573 I-0.044 J1.269
G1 X129.779 Y172.334
G3 X128.554 Y173.65 I-1.269 J0.047
G1 X126.821
X126.734 Y173.646
X126.584 Y173.636
X126.428 Y173.617
X126.255 Y173.588
X126.078 Y173.549
X125.882 Y173.497
X125.676 Y173.431
X125.462 Y173.351
X125.23 Y173.25
X124.993 Y173.135
X124.746 Y172.998
X124.483 Y172.837
X124.22 Y172.657
X123.95 Y172.452
X123.666 Y172.215
X123.383 Y171.955
X123.101 Y171.668
X122.81 Y171.343
X122.519 Y170.985
X122.24 Y170.605
X121.964 Y170.189
X121.692 Y169.732
X121.429 Y169.238
X121.184 Y168.718
X120.958 Y168.172
X120.749 Y167.589
X120.561 Y166.975
X120.399 Y166.335
X120.266 Y165.675
X120.163 Y165.003
X120.093 Y164.326
X120.055 Y163.648
X120.051 Y162.985
X120.077 Y162.336
X120.133 Y161.713
X120.216 Y161.115
X120.321 Y160.553
X120.438 Y160.064
X120.575 Y159.591
X120.71 Y159.199
X120.862 Y158.815
X121.016 Y158.477
X121.175 Y158.167
X121.351 Y157.862
X121.632 Y157.486
X121.965 Y157.154
X122.341 Y156.873
X122.753 Y156.647
X123.193 Y156.483
X123.652 Y156.384
X124.121 Y156.35
X126.06
G3 X127.284 Y157.554 I-0.044 J1.269
G1 X128.045 Y172.315
G3 X127.303 Y173.536 I-1.268 J0.065
X126.821 Y173.65 I-0.527 J-1.156
G1 X125.01
X124.861 Y173.643
X124.708 Y173.627
X124.54 Y173.602
X124.358 Y173.565
X124.17 Y173.518
X123.961 Y173.454
X123.746 Y173.378
X123.52 Y173.284
X123.275 Y173.17
X123.03 Y173.039
X122.771 Y172.886
X122.498 Y172.705
X122.226 Y172.507
X121.944 Y172.278
X121.65 Y172.016
X121.361 Y171.732
X121.071 Y171.419
X120.775 Y171.066
X120.48 Y170.678
X120.198 Y170.267
X119.921 Y169.819
X119.651 Y169.329
X119.391 Y168.801
X119.151 Y168.247
X118.933 Y167.669
X118.737 Y167.062
X118.565 Y166.427
X118.422 Y165.773
X118.308 Y165.105
X118.227 Y164.429
X118.179 Y163.753
X118.164 Y163.089
X118.18 Y162.438
X118.225 Y161.817
X118.297 Y161.228
X118.393 Y160.67
X118.509 Y160.144
X118.63 Y159.7
X118.768 Y159.275
X118.904 Y158.915
X119.062 Y158.553
X119.211 Y158.251
X119.384 Y157.94
X119.402 Y157.911
X119.683 Y157.524
X120.017 Y157.181
X120.397 Y156.89
X120.815 Y156.658
X121.262 Y156.488
X121.729 Y156.385
X122.207 Y156.35
X124.121
G3 X125.344 Y157.543 I-0.044 J1.269
G1 X126.234 Y172.304
G3 X125.01 Y173.65 I-1.268 J0.076
G1 X123.221
X123.071 Y173.643
X122.911 Y173.626
X122.746 Y173.602
X122.561 Y173.565
X122.368 Y173.516
X122.163 Y173.455
X121.939 Y173.375
X121.712 Y173.282
X121.468 Y173.168
X121.211 Y173.032
X120.954 Y172.88
X120.68 Y172.699
X120.396 Y172.492
X120.114 Y172.265
X119.82 Y172.003
X119.518 Y171.707
X119.223 Y171.389
X118.927 Y171.037
X118.628 Y170.644
X118.333 Y170.216
X118.054 Y169.766
X117.783 Y169.277
X117.523 Y168.75
X117.278 Y168.187
X117.053 Y167.593
X116.854 Y166.978
X116.681 Y166.343
X116.537 Y165.689
X116.423 Y165.023
X116.341 Y164.35
X116.292 Y163.679
X116.276 Y163.018
X116.291 Y162.382
X116.335 Y161.774
X116.406 Y161.188
X116.5 Y160.63
X116.611 Y160.128
X116.734 Y159.674
X116.865 Y159.268
X117.003 Y158.903
X117.156 Y158.55
X117.304 Y158.25
X117.477 Y157.938
X117.491 Y157.914
X117.772 Y157.526
X118.106 Y157.183
X118.486 Y156.892
X118.905 Y156.659
X119.352 Y156.488
X119.82 Y156.385
X120.298 Y156.35
X122.207
G3 X122.689 Y156.464 I-0.044 J1.269
X123.429 Y157.532 I-0.527 J1.156
G1 X124.443 Y172.294
G3 X123.221 Y173.65 I-1.267 J0.087
G1 X121.487
X121.258 Y173.639
X121.098 Y173.623
X120.932 Y173.598
X120.745 Y173.561
X120.552 Y173.513
X120.344 Y173.451
X120.119 Y173.372
X119.891 Y173.279
X119.643 Y173.164
X119.385 Y173.028
X119.124 Y172.874
X118.845 Y172.691
X118.56 Y172.484
X118.275 Y172.256
X117.976 Y171.991
X117.672 Y171.694
X117.376 Y171.376
X117.073 Y171.018
X116.768 Y170.62
X116.472 Y170.192
X116.19 Y169.738
X115.914 Y169.244
X115.651 Y168.712
X115.403 Y168.146
X115.176 Y167.551
X114.975 Y166.935
X114.801 Y166.3
X114.655 Y165.647
X114.54 Y164.983
X114.457 Y164.313
X114.407 Y163.644
X114.39 Y162.99
X114.403 Y162.358
X114.445 Y161.755
X114.514 Y161.174
X114.607 Y160.62
X114.715 Y160.123
X114.836 Y159.672
X114.966 Y159.269
X115.102 Y158.905
X115.253 Y158.554
X115.4 Y158.255
X115.571 Y157.943
X115.585 Y157.921
X115.866 Y157.531
X116.2 Y157.186
X116.581 Y156.894
X117 Y156.66
X117.449 Y156.489
X117.917 Y156.385
X118.396 Y156.35
X120.298
G3 X120.78 Y156.464 I-0.044 J1.269
X121.519 Y157.517 I-0.527 J1.156
G1 X122.709 Y172.279
G3 X121.97 Y173.536 I-1.266 J0.102
X121.487 Y173.65 I-0.527 J-1.156
G1 X119.583
X119.433 Y173.643
X119.271 Y173.627
X119.103 Y173.602
X118.913 Y173.564
X118.718 Y173.516
X118.508 Y173.453
X118.28 Y173.372
X118.049 Y173.278
X117.798 Y173.161
X117.538 Y173.025
X117.273 Y172.869
X116.991 Y172.683
X116.703 Y172.474
X116.415 Y172.242
X116.112 Y171.975
X115.805 Y171.675
X115.505 Y171.352
X115.2 Y170.991
X114.892 Y170.588
X114.593 Y170.156
X114.308 Y169.698
X114.031 Y169.201
X113.766 Y168.666
X113.517 Y168.097
X113.29 Y167.499
X113.087 Y166.88
X112.913 Y166.243
X112.767 Y165.59
X112.653 Y164.928
X112.57 Y164.26
X112.521 Y163.596
X112.504 Y162.946
X112.517 Y162.321
X112.559 Y161.72
X112.628 Y161.141
X112.72 Y160.59
X112.826 Y160.104
X112.948 Y159.653
X113.075 Y159.257
X113.212 Y158.891
X113.361 Y158.545
X113.508 Y158.246
X113.678 Y157.937
X113.689 Y157.92
X113.969 Y157.531
X114.303 Y157.186
X114.684 Y156.894
X115.103 Y156.66
X115.552 Y156.489
X116.02 Y156.385
X116.499 Y156.35
X118.396
G3 X118.878 Y156.464 I-0.044 J1.269
X119.618 Y157.517 I-0.527 J1.156
G1 X120.804 Y172.279
G3 X120.065 Y173.536 I-1.266 J0.102
X119.583 Y173.65 I-0.527 J-1.156
G1 X117.772
X117.679 Y173.645
X117.529 Y173.635
X117.361 Y173.616
X117.186 Y173.587
X116.994 Y173.545
X116.787 Y173.49
X116.575 Y173.422
X116.341 Y173.335
X116.101 Y173.232
X115.85 Y173.11
X115.579 Y172.962
X115.309 Y172.796
X115.026 Y172.603
X114.729 Y172.379
X114.435 Y172.135
X114.134 Y171.858
X113.823 Y171.544
X113.514 Y171.2
X113.212 Y170.829
X112.908 Y170.418
X112.608 Y169.966
X112.318 Y169.482
X112.047 Y168.974
X111.79 Y168.432
X111.55 Y167.855
X111.331 Y167.249
X111.137 Y166.619
X110.972 Y165.972
X110.838 Y165.314
X110.735 Y164.65
X110.664 Y163.985
X110.627 Y163.33
X110.621 Y162.689
X110.645 Y162.069
X110.698 Y161.474
X110.774 Y160.913
X110.873 Y160.381
X110.979 Y159.933
X111.107 Y159.486
X111.232 Y159.121
X111.379 Y158.749
X111.523 Y158.43
X111.68 Y158.124
X111.847 Y157.832
X112.122 Y157.464
X112.447 Y157.138
X112.814 Y156.862
X113.218 Y156.642
X113.648 Y156.481
X114.098 Y156.383
X114.556 Y156.35
X116.499
G3 X116.981 Y156.464 I-0.044 J1.269
X117.72 Y157.51 I-0.527 J1.156
G1 X118.993 Y172.272
G3 X118.254 Y173.536 I-1.265 J0.109
X117.772 Y173.65 I-0.527 J-1.156
G1 X115.982
X115.726 Y173.637
X115.569 Y173.622
X115.391 Y173.595
X115.208 Y173.559
X115.006 Y173.509
X114.79 Y173.445
X114.568 Y173.366
X114.326 Y173.267
X114.077 Y173.152
X113.818 Y173.015
X113.54 Y172.852
X113.261 Y172.669
X112.972 Y172.459
X112.669 Y172.215
X112.368 Y171.949
X112.065 Y171.653
X111.753 Y171.319
X111.44 Y170.948
X111.139 Y170.555
X110.841 Y170.123
X110.546 Y169.651
X110.262 Y169.141
X109.995 Y168.603
X109.75 Y168.042
X109.524 Y167.45
X109.322 Y166.831
X109.147 Y166.191
X109 Y165.536
X108.885 Y164.872
X108.803 Y164.206
X108.753 Y163.542
X108.736 Y162.896
X108.749 Y162.267
X108.791 Y161.671
X108.858 Y161.104
X108.949 Y160.562
X109.058 Y160.059
X109.175 Y159.624
X109.306 Y159.217
X109.438 Y158.864
X109.59 Y158.513
X109.734 Y158.218
X109.903 Y157.912
X110.182 Y157.525
X110.514 Y157.182
X110.893 Y156.891
X111.31 Y156.658
X111.756 Y156.488
X112.222 Y156.385
X112.698 Y156.35
X114.556
G3 X115.038 Y156.464 I-0.044 J1.269
X115.776 Y157.497 I-0.527 J1.156
G1 X117.202 Y172.259
G3 X116.465 Y173.536 I-1.264 J0.122
X115.982 Y173.65 I-0.527 J-1.156
G1 X114.078
X113.869 Y173.64
X113.707 Y173.624
X113.535 Y173.598
X113.342 Y173.56
X113.145 Y173.511
X112.929 Y173.447
X112.7 Y173.366
X112.464 Y173.27
X112.207 Y173.15
X111.946 Y173.013
X111.676 Y172.854
X111.387 Y172.664
X111.098 Y172.455
X110.801 Y172.216
X110.491 Y171.942
X110.183 Y171.641
X109.877 Y171.313
X109.567 Y170.945
X109.255 Y170.538
X108.955 Y170.104
X108.666 Y169.64
X108.385 Y169.136
X108.117 Y168.596
X107.866 Y168.022
X107.637 Y167.422
X107.435 Y166.802
X107.26 Y166.163
X107.114 Y165.51
X106.999 Y164.847
X106.917 Y164.183
X106.867 Y163.522
X106.85 Y162.877
X106.863 Y162.256
X106.905 Y161.659
X106.973 Y161.084
X107.065 Y160.537
X107.168 Y160.063
X107.288 Y159.615
X107.413 Y159.228
X107.549 Y158.865
X107.695 Y158.525
X107.841 Y158.228
X108.01 Y157.921
X108.291 Y157.531
X108.625 Y157.186
X109.006 Y156.894
X109.425 Y156.66
X109.873 Y156.489
X110.342 Y156.385
X110.821 Y156.35
X112.698
G3 X113.18 Y156.464 I-0.044 J1.269
X113.918 Y157.501 I-0.527 J1.156
G1 X115.298 Y172.263
G3 X114.56 Y173.536 I-1.264 J0.118
X114.078 Y173.65 I-0.527 J-1.156
G1 X112.173
X112.088 Y173.646
X111.937 Y173.635
X111.765 Y173.615
X111.587 Y173.585
X111.391 Y173.542
X111.182 Y173.485
X110.966 Y173.416
X110.727 Y173.326
X110.485 Y173.221
X110.228 Y173.095
X109.954 Y172.944
X109.68 Y172.775
X109.393 Y172.578
X109.091 Y172.35
X108.794 Y172.101
X108.489 Y171.819
X108.173 Y171.498
X107.861 Y171.149
X107.556 Y170.772
X107.25 Y170.354
X106.947 Y169.897
X106.655 Y169.406
X106.382 Y168.891
X106.124 Y168.344
X105.884 Y167.763
X105.666 Y167.154
X105.474 Y166.521
X105.31 Y165.873
X105.177 Y165.214
X105.076 Y164.55
X105.008 Y163.886
X104.972 Y163.233
X104.969 Y162.595
X104.994 Y161.98
X105.047 Y161.394
X105.124 Y160.842
X105.223 Y160.317
X105.328 Y159.878
X105.456 Y159.441
X105.579 Y159.082
X105.726 Y158.713
X105.868 Y158.402
X106.026 Y158.095
X106.191 Y157.809
X106.463 Y157.446
X106.784 Y157.126
X107.147 Y156.854
X107.546 Y156.637
X107.971 Y156.479
X108.414 Y156.382
X108.867 Y156.35
X110.821
G3 X111.303 Y156.464 I-0.044 J1.269
X112.041 Y157.503 I-0.527 J1.156
G1 X113.393 Y172.265
G3 X112.655 Y173.536 I-1.265 J0.116
X112.173 Y173.65 I-0.527 J-1.156
G1 X110.268
X110.118 Y173.643
X109.957 Y173.626
X109.776 Y173.598
X109.59 Y173.561
X109.384 Y173.509
X109.166 Y173.443
X108.939 Y173.362
X108.692 Y173.26
X108.442 Y173.142
X108.177 Y173.001
X107.895 Y172.834
X107.614 Y172.648
X107.32 Y172.432
X107.013 Y172.183
X106.71 Y171.913
X106.403 Y171.61
X106.087 Y171.268
X105.773 Y170.893
X105.47 Y170.494
X105.169 Y170.055
X104.874 Y169.575
X104.589 Y169.059
X104.322 Y168.516
X104.077 Y167.949
X103.853 Y167.353
X103.652 Y166.73
X103.479 Y166.086
X103.335 Y165.429
X103.223 Y164.765
X103.144 Y164.1
X103.097 Y163.439
X103.082 Y162.796
X103.098 Y162.176
X103.142 Y161.587
X103.211 Y161.027
X103.303 Y160.489
X103.413 Y159.996
X103.531 Y159.563
X103.661 Y159.165
X103.794 Y158.813
X103.944 Y158.469
X104.089 Y158.177
X104.258 Y157.874
X104.532 Y157.496
X104.859 Y157.161
X105.23 Y156.878
X105.639 Y156.65
X106.076 Y156.485
X106.532 Y156.384
X106.998 Y156.35
X108.867
G3 X109.349 Y156.464 I-0.044 J1.269
X110.087 Y157.499 I-0.527 J1.156
G1 X111.488 Y172.261
G3 X110.75 Y173.536 I-1.264 J0.12
X110.268 Y173.65 I-0.527 J-1.156
G1 X108.44
X108.346 Y173.645
X108.192 Y173.635
X108.021 Y173.615
X107.845 Y173.585
X107.647 Y173.542
X107.441 Y173.488
X107.222 Y173.417
X106.983 Y173.328
X106.742 Y173.225
X106.482 Y173.098
X106.211 Y172.948
X105.937 Y172.781
X105.645 Y172.582
X105.346 Y172.355
X105.048 Y172.107
X104.738 Y171.822
X104.421 Y171.501
X104.113 Y171.158
X103.805 Y170.779
X103.496 Y170.359
X103.192 Y169.901
X102.903 Y169.418
X102.629 Y168.905
X102.369 Y168.354
X102.126 Y167.771
X101.906 Y167.159
X101.712 Y166.526
X101.547 Y165.877
X101.413 Y165.219
X101.311 Y164.557
X101.242 Y163.897
X101.205 Y163.244
X101.2 Y162.607
X101.224 Y161.991
X101.277 Y161.4
X101.353 Y160.842
X101.452 Y160.314
X101.557 Y159.871
X101.684 Y159.432
X101.807 Y159.071
X101.952 Y158.704
X102.095 Y158.389
X102.25 Y158.087
X102.415 Y157.8
X102.684 Y157.44
X103.002 Y157.121
X103.362 Y156.851
X103.757 Y156.635
X104.179 Y156.478
X104.619 Y156.382
X105.068 Y156.35
X106.998
G3 X108.218 Y157.496 I-0.044 J1.269
G1 X109.66 Y172.257
G3 X108.923 Y173.536 I-1.264 J0.123
X108.44 Y173.65 I-0.527 J-1.156
G1 X106.63
X106.372 Y173.637
X106.212 Y173.621
X106.032 Y173.595
X105.847 Y173.558
X105.641 Y173.507
X105.425 Y173.443
X105.199 Y173.363
X104.953 Y173.262
X104.704 Y173.146
X104.439 Y173.007
X104.158 Y172.842
X103.878 Y172.658
X103.583 Y172.444
X103.277 Y172.198
X102.975 Y171.931
X102.667 Y171.63
X102.35 Y171.29
X102.036 Y170.919
X101.732 Y170.522
X101.429 Y170.083
X101.131 Y169.605
X100.845 Y169.091
X100.578 Y168.552
X100.331 Y167.988
X100.104 Y167.392
X99.901 Y166.771
X99.724 Y166.129
X99.578 Y165.473
X99.463 Y164.808
X99.381 Y164.142
X99.331 Y163.48
X99.314 Y162.835
X99.327 Y162.209
X99.369 Y161.616
X99.435 Y161.053
X99.526 Y160.514
X99.634 Y160.015
X99.75 Y159.583
X99.879 Y159.181
X100.011 Y158.83
X100.16 Y158.483
X100.304 Y158.19
X100.471 Y157.887
X100.745 Y157.506
X101.072 Y157.169
X101.445 Y156.883
X101.855 Y156.653
X102.294 Y156.486
X102.753 Y156.384
X103.222 Y156.35
X105.068
G3 X105.55 Y156.464 I-0.044 J1.269
X106.286 Y157.486 I-0.527 J1.156
G1 X107.848 Y172.247
G3 X106.63 Y173.65 I-1.263 J0.134
G1 X104.725
X104.495 Y173.639
X104.333 Y173.623
X104.159 Y173.597
X103.965 Y173.559
X103.767 Y173.51
X103.547 Y173.444
X103.318 Y173.363
X103.079 Y173.265
X102.82 Y173.145
X102.559 Y173.007
X102.284 Y172.846
X101.993 Y172.655
X101.703 Y172.444
X101.402 Y172.203
X101.089 Y171.925
X100.78 Y171.624
X100.471 Y171.292
X100.157 Y170.92
X99.843 Y170.51
X99.542 Y170.075
X99.251 Y169.607
X98.968 Y169.099
X98.698 Y168.555
X98.445 Y167.979
X98.216 Y167.377
X98.013 Y166.755
X97.837 Y166.114
X97.691 Y165.459
X97.576 Y164.796
X97.494 Y164.132
X97.445 Y163.472
X97.427 Y162.829
X97.441 Y162.209
X97.482 Y161.614
X97.55 Y161.041
X97.641 Y160.498
X97.743 Y160.028
X97.863 Y159.582
X97.986 Y159.199
X98.122 Y158.837
X98.267 Y158.501
X98.411 Y158.205
X98.579 Y157.902
X98.856 Y157.517
X99.186 Y157.177
X99.562 Y156.888
X99.976 Y156.656
X100.42 Y156.487
X100.883 Y156.385
X101.356 Y156.35
X103.222
G3 X104.441 Y157.491 I-0.044 J1.269
G1 X105.944 Y172.252
G3 X105.207 Y173.536 I-1.263 J0.129
X104.725 Y173.65 I-0.527 J-1.156
G1 X102.82
X102.719 Y173.645
X102.567 Y173.635
X102.395 Y173.615
X102.219 Y173.586
X102.021 Y173.544
X101.814 Y173.489
X101.596 Y173.42
X101.357 Y173.332
X101.116 Y173.229
X100.856 Y173.103
X100.583 Y172.954
X100.309 Y172.787
X100.018 Y172.589
X99.718 Y172.363
X99.42 Y172.117
X99.111 Y171.834
X98.793 Y171.514
X98.483 Y171.17
X98.173 Y170.792
X97.863 Y170.373
X97.557 Y169.915
X97.266 Y169.43
X96.99 Y168.918
X96.729 Y168.368
X96.485 Y167.786
X96.263 Y167.175
X96.068 Y166.543
X95.901 Y165.894
X95.765 Y165.236
X95.661 Y164.572
X95.589 Y163.909
X95.551 Y163.257
X95.544 Y162.62
X95.567 Y162.005
X95.617 Y161.416
X95.692 Y160.861
X95.789 Y160.334
X95.892 Y159.894
X96.017 Y159.455
X96.139 Y159.094
X96.284 Y158.727
X96.426 Y158.412
X96.58 Y158.109
X96.745 Y157.821
X97.016 Y157.455
X97.337 Y157.132
X97.701 Y156.858
X98.101 Y156.639
X98.527 Y156.48
X98.972 Y156.383
X99.426 Y156.35
X101.356
G3 X101.838 Y156.464 I-0.044 J1.269
X102.575 Y157.494 I-0.527 J1.156
G1 X104.04 Y172.255
G3 X103.303 Y173.536 I-1.264 J0.125
X102.82 Y173.65 I-0.527 J-1.156
G1 X100.915
X100.826 Y173.646
X100.667 Y173.634
X100.501 Y173.614
X100.319 Y173.584
X100.12 Y173.54
X99.915 Y173.485
X99.688 Y173.412
X99.456 Y173.325
X99.21 Y173.218
X98.945 Y173.088
X98.68 Y172.942
X98.398 Y172.768
X98.103 Y172.565
X97.81 Y172.343
X97.506 Y172.089
X97.19 Y171.798
X96.881 Y171.484
X96.571 Y171.137
X96.257 Y170.748
X95.944 Y170.322
X95.646 Y169.871
X95.358 Y169.387
X95.08 Y168.864
X94.818 Y168.306
X94.575 Y167.717
X94.355 Y167.103
X94.163 Y166.471
X93.999 Y165.824
X93.867 Y165.165
X93.766 Y164.501
X93.698 Y163.839
X93.663 Y163.191
X93.659 Y162.561
X93.684 Y161.956
X93.737 Y161.37
X93.815 Y160.813
X93.914 Y160.286
X94.021 Y159.841
X94.148 Y159.404
X94.273 Y159.04
X94.417 Y158.679
X94.562 Y158.362
X94.715 Y158.064
X94.753 Y157.999
X95.031 Y157.592
X95.366 Y157.23
X95.752 Y156.923
X96.179 Y156.677
X96.638 Y156.496
X97.118 Y156.387
X97.61 Y156.35
X99.426
G3 X99.909 Y156.464 I-0.044 J1.269
X100.645 Y157.492 I-0.527 J1.156
G1 X102.135 Y172.253
G3 X100.915 Y173.65 I-1.264 J0.127
G1 X99.011
X98.934 Y173.646
X98.774 Y173.634
X98.607 Y173.614
X98.422 Y173.582
X98.224 Y173.538
X98.017 Y173.481
X97.789 Y173.407
X97.557 Y173.319
X97.308 Y173.21
X97.043 Y173.079
X96.777 Y172.93
X96.493 Y172.754
X96.198 Y172.55
X95.905 Y172.327
X95.599 Y172.069
X95.284 Y171.775
X94.976 Y171.46
X94.664 Y171.108
X94.348 Y170.715
X94.036 Y170.287
X93.739 Y169.834
X93.451 Y169.346
X93.174 Y168.819
X92.912 Y168.258
X92.671 Y167.667
X92.453 Y167.052
X92.264 Y166.42
X92.103 Y165.773
X91.973 Y165.116
X91.875 Y164.453
X91.809 Y163.791
X91.776 Y163.143
X91.774 Y162.513
X91.802 Y161.907
X91.857 Y161.321
X91.937 Y160.764
X92.032 Y160.271
X92.143 Y159.812
X92.264 Y159.405
X92.391 Y159.038
X92.536 Y158.68
X92.674 Y158.378
X92.839 Y158.061
X92.881 Y157.988
X93.16 Y157.584
X93.495 Y157.224
X93.88 Y156.919
X94.306 Y156.674
X94.764 Y156.495
X95.243 Y156.387
X95.733 Y156.35
X97.61
G3 X98.092 Y156.464 I-0.044 J1.269
X98.83 Y157.499 I-0.527 J1.156
G1 X100.231 Y172.261
G3 X99.011 Y173.65 I-1.264 J0.12
G1 X97.106
X96.956 Y173.643
X96.792 Y173.625
X96.61 Y173.597
X96.422 Y173.559
X96.212 Y173.506
X95.996 Y173.44
X95.766 Y173.357
X95.517 Y173.253
X95.266 Y173.135
X94.996 Y172.991
X94.713 Y172.822
X94.431 Y172.635
X94.133 Y172.416
X93.825 Y172.165
X93.523 Y171.894
X93.21 Y171.586
X92.891 Y171.238
X92.578 Y170.863
X92.272 Y170.458
X91.968 Y170.013
X91.67 Y169.528
X91.385 Y169.009
X91.12 Y168.466
X90.875 Y167.897
X90.65 Y167.296
X90.45 Y166.671
X90.278 Y166.026
X90.135 Y165.37
X90.025 Y164.706
X89.946 Y164.041
X89.901 Y163.385
X89.888 Y162.743
X89.905 Y162.127
X89.949 Y161.542
X90.019 Y160.986
X90.111 Y160.455
X90.212 Y160.002
X90.336 Y159.554
X90.456 Y159.188
X90.6 Y158.81
X90.74 Y158.492
X90.894 Y158.181
X91.058 Y157.888
X91.336 Y157.507
X91.667 Y157.169
X92.043 Y156.882
X92.456 Y156.653
X92.898 Y156.486
X93.359 Y156.384
X93.831 Y156.35
X95.733
G3 X96.953 Y157.502 I-0.044 J1.269
G1 X98.326 Y172.263
G3 X97.588 Y173.536 I-1.265 J0.118
X97.106 Y173.65 I-0.527 J-1.156
G1 X95.295
X95.083 Y173.639
X94.924 Y173.624
X94.746 Y173.597
X94.555 Y173.56
X94.355 Y173.51
X94.133 Y173.444
X93.907 Y173.364
X93.664 Y173.265
X93.406 Y173.145
X93.145 Y173.008
X92.866 Y172.844
X92.576 Y172.654
X92.287 Y172.443
X91.981 Y172.198
X91.669 Y171.921
X91.362 Y171.622
X91.049 Y171.286
X90.732 Y170.91
X90.42 Y170.503
X90.121 Y170.071
X89.827 Y169.598
X89.541 Y169.086
X89.27 Y168.539
X89.018 Y167.964
X88.791 Y167.367
X88.588 Y166.747
X88.413 Y166.107
X88.267 Y165.452
X88.152 Y164.79
X88.07 Y164.127
X88.021 Y163.468
X88.004 Y162.83
X88.017 Y162.218
X88.058 Y161.628
X88.125 Y161.063
X88.216 Y160.521
X88.319 Y160.044
X88.438 Y159.604
X88.563 Y159.214
X88.697 Y158.856
X88.844 Y158.515
X88.988 Y158.22
X89.157 Y157.915
X89.436 Y157.527
X89.769 Y157.183
X90.148 Y156.892
X90.566 Y156.659
X91.013 Y156.488
X91.48 Y156.385
X91.957 Y156.35
X93.831
G3 X94.313 Y156.464 I-0.044 J1.269
X95.05 Y157.494 I-0.527 J1.156
G1 X96.515 Y172.255
G3 X95.778 Y173.536 I-1.264 J0.125
X95.295 Y173.65 I-0.527 J-1.156
G1 X93.39
X93.297 Y173.645
X93.144 Y173.635
X92.971 Y173.615
X92.793 Y173.585
X92.595 Y173.542
X92.387 Y173.487
X92.168 Y173.417
X91.928 Y173.327
X91.685 Y173.223
X91.425 Y173.096
X91.15 Y172.945
X90.875 Y172.776
X90.584 Y172.578
X90.282 Y172.349
X89.983 Y172.1
X89.673 Y171.815
X89.354 Y171.492
X89.042 Y171.145
X88.733 Y170.766
X88.424 Y170.345
X88.118 Y169.885
X87.826 Y169.397
X87.552 Y168.882
X87.291 Y168.332
X87.049 Y167.75
X86.829 Y167.139
X86.635 Y166.506
X86.47 Y165.859
X86.336 Y165.202
X86.234 Y164.542
X86.165 Y163.881
X86.128 Y163.231
X86.123 Y162.596
X86.147 Y161.983
X86.199 Y161.398
X86.274 Y160.846
X86.372 Y160.322
X86.476 Y159.883
X86.602 Y159.446
X86.725 Y159.087
X86.87 Y158.72
X87.012 Y158.407
X87.168 Y158.102
X87.228 Y157.998
X87.504 Y157.591
X87.839 Y157.23
X88.223 Y156.923
X88.649 Y156.677
X89.107 Y156.497
X89.586 Y156.387
X90.077 Y156.35
X91.957
G3 X92.439 Y156.464 I-0.044 J1.269
X93.177 Y157.496 I-0.527 J1.156
G1 X94.61 Y172.258
G3 X93.873 Y173.536 I-1.264 J0.123
X93.39 Y173.65 I-0.527 J-1.156
G1 X91.486
X91.403 Y173.646
X91.243 Y173.634
X91.077 Y173.614
X90.893 Y173.583
X90.694 Y173.539
X90.488 Y173.483
X90.26 Y173.409
X90.028 Y173.321
X89.78 Y173.213
X89.515 Y173.083
X89.249 Y172.935
X88.965 Y172.76
X88.67 Y172.556
X88.377 Y172.333
X88.071 Y172.076
X87.755 Y171.783
X87.447 Y171.469
X87.136 Y171.119
X86.821 Y170.729
X86.509 Y170.302
X86.212 Y169.85
X85.924 Y169.364
X85.647 Y168.84
X85.385 Y168.281
X85.143 Y167.692
X84.925 Y167.079
X84.734 Y166.447
X84.573 Y165.8
X84.441 Y165.143
X84.342 Y164.48
X84.275 Y163.819
X84.241 Y163.173
X84.239 Y162.545
X84.265 Y161.941
X84.319 Y161.357
X84.398 Y160.801
X84.493 Y160.302
X84.605 Y159.84
X84.726 Y159.426
X84.853 Y159.057
X84.999 Y158.695
X85.138 Y158.391
X85.302 Y158.073
X85.364 Y157.967
X85.638 Y157.567
X85.968 Y157.213
X86.347 Y156.912
X86.766 Y156.67
X87.217 Y156.494
X87.689 Y156.386
X88.172 Y156.35
X90.077
G3 X90.559 Y156.464 I-0.044 J1.269
X91.297 Y157.499 I-0.527 J1.156
G1 X92.705 Y172.26
G3 X91.968 Y173.536 I-1.264 J0.121
X91.486 Y173.65 I-0.527 J-1.156
G1 X89.581
X89.431 Y173.643
X89.267 Y173.626
X89.087 Y173.599
X88.9 Y173.562
X88.691 Y173.509
X88.476 Y173.445
X88.247 Y173.363
X87.998 Y173.261
X87.748 Y173.144
X87.479 Y173.002
X87.198 Y172.835
X86.917 Y172.65
X86.619 Y172.433
X86.312 Y172.185
X86.01 Y171.917
X85.698 Y171.611
X85.378 Y171.266
X85.067 Y170.895
X84.761 Y170.493
X84.456 Y170.05
X84.157 Y169.568
X83.871 Y169.053
X83.606 Y168.515
X83.359 Y167.947
X83.132 Y167.348
X82.93 Y166.725
X82.755 Y166.083
X82.611 Y165.428
X82.498 Y164.766
X82.417 Y164.103
X82.37 Y163.447
X82.354 Y162.805
X82.369 Y162.185
X82.411 Y161.595
X82.479 Y161.037
X82.57 Y160.5
X82.671 Y160.039
X82.795 Y159.581
X82.916 Y159.209
X83.059 Y158.83
X83.199 Y158.506
X83.352 Y158.197
X83.516 Y157.9
X83.531 Y157.875
X83.805 Y157.497
X84.131 Y157.162
X84.501 Y156.878
X84.909 Y156.651
X85.346 Y156.485
X85.802 Y156.384
X86.267 Y156.35
X88.172
G3 X88.654 Y156.464 I-0.044 J1.269
X89.392 Y157.499 I-0.527 J1.156
G1 X90.801 Y172.26
G3 X90.063 Y173.536 I-1.264 J0.121
X89.581 Y173.65 I-0.527 J-1.156
G1 X87.791
X87.545 Y173.638
X87.384 Y173.622
X87.208 Y173.596
X87.015 Y173.558
X86.816 Y173.509
X86.595 Y173.442
X86.368 Y173.362
X86.127 Y173.264
X85.867 Y173.143
X85.607 Y173.006
X85.33 Y172.843
X85.038 Y172.652
X84.749 Y172.442
X84.445 Y172.198
X84.132 Y171.92
X83.824 Y171.62
X83.513 Y171.286
X83.197 Y170.912
X82.884 Y170.503
X82.584 Y170.069
X82.291 Y169.599
X82.007 Y169.089
X81.736 Y168.544
X81.484 Y167.968
X81.256 Y167.368
X81.053 Y166.748
X80.878 Y166.109
X80.732 Y165.456
X80.618 Y164.794
X80.536 Y164.132
X80.487 Y163.476
X80.469 Y162.836
X80.483 Y162.223
X80.524 Y161.629
X80.591 Y161.061
X80.682 Y160.517
X80.786 Y160.04
X80.906 Y159.595
X81.031 Y159.205
X81.166 Y158.844
X81.313 Y158.504
X81.458 Y158.208
X81.625 Y157.904
X81.648 Y157.867
X81.919 Y157.491
X82.242 Y157.158
X82.61 Y156.875
X83.014 Y156.649
X83.448 Y156.484
X83.9 Y156.384
X84.362 Y156.35
X86.267
G3 X86.75 Y156.464 I-0.044 J1.269
X87.486 Y157.489 I-0.527 J1.156
G1 X89.01 Y172.25
G3 X88.273 Y173.536 I-1.263 J0.13
X87.791 Y173.65 I-0.527 J-1.156
G1 X85.886
X85.665 Y173.639
X85.503 Y173.623
X85.327 Y173.597
X85.133 Y173.559
X84.934 Y173.509
X84.714 Y173.444
X84.484 Y173.363
X84.245 Y173.265
X83.984 Y173.144
X83.722 Y173.006
X83.446 Y172.844
X83.154 Y172.652
X82.865 Y172.442
X82.564 Y172.2
X82.25 Y171.922
X81.941 Y171.621
X81.63 Y171.287
X81.315 Y170.913
X81 Y170.502
X80.698 Y170.066
X80.406 Y169.597
X80.123 Y169.089
X79.853 Y168.544
X79.6 Y167.967
X79.371 Y167.366
X79.168 Y166.745
X78.993 Y166.107
X78.848 Y165.455
X78.734 Y164.795
X78.651 Y164.132
X78.602 Y163.474
X78.585 Y162.834
X78.598 Y162.217
X78.64 Y161.624
X78.707 Y161.052
X78.798 Y160.51
X78.902 Y160.034
X79.022 Y159.586
X79.147 Y159.197
X79.283 Y158.834
X79.429 Y158.496
X79.574 Y158.2
X79.741 Y157.896
X80.017 Y157.513
X80.346 Y157.173
X80.721 Y156.886
X81.134 Y156.655
X81.575 Y156.487
X82.037 Y156.384
X82.508 Y156.35
X84.362
G3 X84.845 Y156.464 I-0.044 J1.269
X85.581 Y157.489 I-0.527 J1.156
G1 X87.105 Y172.25
G3 X86.369 Y173.536 I-1.263 J0.13
X85.886 Y173.65 I-0.527 J-1.156
G1 X83.982
X83.882 Y173.645
X83.729 Y173.635
X83.558 Y173.615
X83.381 Y173.586
X83.182 Y173.544
X82.975 Y173.489
X82.757 Y173.419
X82.517 Y173.33
X82.276 Y173.227
X82.015 Y173.1
X81.741 Y172.951
X81.466 Y172.783
X81.175 Y172.585
X80.873 Y172.358
X80.575 Y172.111
X80.265 Y171.827
X79.946 Y171.505
X79.636 Y171.161
X79.326 Y170.782
X79.016 Y170.362
X78.71 Y169.903
X78.418 Y169.418
X78.143 Y168.905
X77.882 Y168.356
X77.639 Y167.774
X77.418 Y167.164
X77.223 Y166.533
X77.057 Y165.885
X76.922 Y165.228
X76.818 Y164.566
X76.747 Y163.904
X76.709 Y163.253
X76.703 Y162.616
X76.726 Y162
X76.777 Y161.41
X76.852 Y160.854
X76.95 Y160.327
X77.053 Y159.886
X77.179 Y159.447
X77.301 Y159.087
X77.446 Y158.719
X77.588 Y158.405
X77.742 Y158.102
X77.907 Y157.815
X78.178 Y157.451
X78.498 Y157.129
X78.86 Y156.856
X79.258 Y156.638
X79.683 Y156.479
X80.126 Y156.382
X80.579 Y156.35
X82.508
G3 X83.727 Y157.493 I-0.044 J1.269
G1 X85.201 Y172.255
G3 X83.982 Y173.65 I-1.264 J0.126
G1 X82.077
X81.988 Y173.646
X81.829 Y173.634
X81.663 Y173.614
X81.48 Y173.584
X81.281 Y173.54
X81.076 Y173.485
X80.848 Y173.411
X80.616 Y173.324
X80.37 Y173.217
X80.105 Y173.087
X79.839 Y172.941
X79.556 Y172.766
X79.261 Y172.563
X78.968 Y172.341
X78.663 Y172.086
X78.347 Y171.794
X78.038 Y171.48
X77.728 Y171.133
X77.413 Y170.744
X77.101 Y170.318
X76.803 Y169.867
X76.515 Y169.383
X76.238 Y168.86
X75.975 Y168.302
X75.732 Y167.714
X75.513 Y167.101
X75.321 Y166.469
X75.158 Y165.822
X75.025 Y165.164
X74.925 Y164.5
X74.857 Y163.837
X74.822 Y163.189
X74.818 Y162.559
X74.843 Y161.953
X74.897 Y161.367
X74.974 Y160.809
X75.074 Y160.283
X75.181 Y159.837
X75.308 Y159.4
X75.433 Y159.036
X75.577 Y158.675
X75.722 Y158.358
X75.875 Y158.061
X76.041 Y157.774
X76.306 Y157.42
X76.62 Y157.107
X76.974 Y156.842
X77.363 Y156.63
X77.778 Y156.476
X78.211 Y156.382
X78.652 Y156.35
X80.579
G3 X81.061 Y156.464 I-0.044 J1.269
X81.798 Y157.491 I-0.527 J1.156
G1 X83.296 Y172.253
G3 X82.559 Y173.536 I-1.264 J0.128
X82.077 Y173.65 I-0.527 J-1.156
G1 X80.172
X80.095 Y173.646
X79.934 Y173.634
X79.768 Y173.614
X79.582 Y173.582
X79.384 Y173.538
X79.177 Y173.481
X78.949 Y173.407
X78.717 Y173.319
X78.468 Y173.21
X78.203 Y173.079
X77.937 Y172.931
X77.653 Y172.754
X77.358 Y172.55
X77.065 Y172.327
X76.759 Y172.068
X76.443 Y171.775
X76.135 Y171.46
X75.823 Y171.108
X75.507 Y170.715
X75.196 Y170.287
X74.899 Y169.835
X74.611 Y169.347
X74.334 Y168.821
X74.072 Y168.26
X73.83 Y167.668
X73.613 Y167.054
X73.423 Y166.422
X73.262 Y165.775
X73.132 Y165.118
X73.034 Y164.455
X72.968 Y163.793
X72.935 Y163.144
X72.933 Y162.513
X72.961 Y161.907
X73.016 Y161.322
X73.096 Y160.763
X73.197 Y160.237
X73.306 Y159.791
X73.434 Y159.356
X73.56 Y158.993
X73.705 Y158.634
X73.849 Y158.32
X74.003 Y158.024
X74.089 Y157.875
X74.348 Y157.498
X74.66 Y157.164
X75.019 Y156.88
X75.415 Y156.652
X75.841 Y156.485
X76.287 Y156.384
X76.743 Y156.35
X78.652
G3 X79.135 Y156.464 I-0.044 J1.269
X79.871 Y157.489 I-0.527 J1.156
G1 X81.391 Y172.251
G3 X80.654 Y173.536 I-1.263 J0.13
X80.172 Y173.65 I-0.527 J-1.156
G1 X78.267
X78.117 Y173.643
X77.953 Y173.625
X77.771 Y173.598
X77.583 Y173.559
X77.374 Y173.506
X77.158 Y173.44
X76.928 Y173.358
X76.679 Y173.254
X76.428 Y173.136
X76.158 Y172.992
X75.876 Y172.824
X75.594 Y172.637
X75.296 Y172.418
X74.988 Y172.168
X74.685 Y171.897
X74.373 Y171.589
X74.053 Y171.242
X73.741 Y170.868
X73.435 Y170.463
X73.131 Y170.018
X72.833 Y169.534
X72.548 Y169.016
X72.282 Y168.473
X72.037 Y167.904
X71.812 Y167.303
X71.611 Y166.678
X71.438 Y166.034
X71.296 Y165.377
X71.185 Y164.713
X71.106 Y164.048
X71.06 Y163.386
X71.046 Y162.741
X71.063 Y162.116
X71.108 Y161.524
X71.178 Y160.963
X71.271 Y160.427
X71.375 Y159.959
X71.501 Y159.501
X71.623 Y159.129
X71.766 Y158.752
X71.906 Y158.433
X72.059 Y158.124
X72.22 Y157.836
X72.488 Y157.467
X72.808 Y157.141
X73.17 Y156.865
X73.569 Y156.643
X73.996 Y156.481
X74.442 Y156.383
X74.897 Y156.35
X76.743
G3 X77.226 Y156.464 I-0.044 J1.269
X77.962 Y157.489 I-0.527 J1.156
G1 X79.486 Y172.25
G3 X78.749 Y173.536 I-1.263 J0.13
X78.267 Y173.65 I-0.527 J-1.156
G1 X76.439
X76.341 Y173.645
X76.186 Y173.635
X76.016 Y173.615
X75.838 Y173.585
X75.639 Y173.542
X75.435 Y173.488
X75.212 Y173.417
X74.974 Y173.328
X74.732 Y173.224
X74.47 Y173.096
X74.199 Y172.948
X73.923 Y172.779
X73.628 Y172.578
X73.33 Y172.353
X73.03 Y172.103
X72.716 Y171.815
X72.4 Y171.495
X72.092 Y171.152
X71.781 Y170.77
X71.469 Y170.348
X71.164 Y169.89
X70.876 Y169.408
X70.6 Y168.892
X70.338 Y168.339
X70.094 Y167.754
X69.873 Y167.141
X69.678 Y166.506
X69.512 Y165.855
X69.377 Y165.195
X69.274 Y164.531
X69.204 Y163.868
X69.167 Y163.218
X69.161 Y162.579
X69.186 Y161.965
X69.238 Y161.372
X69.314 Y160.812
X69.412 Y160.284
X69.517 Y159.841
X69.643 Y159.403
X69.766 Y159.043
X69.91 Y158.679
X70.051 Y158.366
X70.205 Y158.066
X70.368 Y157.782
X70.634 Y157.426
X70.947 Y157.111
X71.302 Y156.845
X71.692 Y156.632
X72.108 Y156.476
X72.541 Y156.382
X72.984 Y156.35
X74.897
G3 X76.116 Y157.487 I-0.044 J1.269
G1 X77.658 Y172.249
G3 X76.922 Y173.536 I-1.263 J0.132
X76.439 Y173.65 I-0.527 J-1.156
G1 X74.535
X74.449 Y173.646
X74.289 Y173.634
X74.124 Y173.614
X73.939 Y173.583
X73.741 Y173.54
X73.535 Y173.484
X73.307 Y173.41
X73.075 Y173.323
X72.828 Y173.215
X72.563 Y173.085
X72.297 Y172.938
X72.014 Y172.763
X71.719 Y172.56
X71.426 Y172.338
X71.121 Y172.081
X70.805 Y171.79
X70.497 Y171.476
X70.186 Y171.127
X69.87 Y170.736
X69.558 Y170.309
X69.26 Y169.858
X68.971 Y169.372
X68.693 Y168.846
X68.43 Y168.286
X68.187 Y167.695
X67.968 Y167.081
X67.776 Y166.449
X67.613 Y165.8
X67.481 Y165.141
X67.381 Y164.474
X67.313 Y163.809
X67.278 Y163.158
X67.275 Y162.526
X67.301 Y161.919
X67.355 Y161.333
X67.433 Y160.774
X67.533 Y160.248
X67.64 Y159.802
X67.767 Y159.367
X67.892 Y159.005
X68.036 Y158.645
X68.18 Y158.331
X68.333 Y158.034
X68.497 Y157.751
X68.759 Y157.403
X69.067 Y157.095
X69.417 Y156.834
X69.8 Y156.626
X70.208 Y156.474
X70.634 Y156.381
X71.069 Y156.35
X72.984
G3 X74.203 Y157.487 I-0.044 J1.269
G1 X75.753 Y172.248
G3 X75.017 Y173.536 I-1.263 J0.133
X74.535 Y173.65 I-0.527 J-1.156
G1 X72.724
X72.475 Y173.638
X72.313 Y173.622
X72.133 Y173.595
X71.947 Y173.558
X71.739 Y173.507
X71.525 Y173.443
X71.297 Y173.362
X71.05 Y173.261
X70.801 Y173.146
X70.532 Y173.004
X70.252 Y172.839
X69.971 Y172.655
X69.674 Y172.439
X69.368 Y172.193
X69.066 Y171.926
X68.753 Y171.621
X68.433 Y171.278
X68.122 Y170.91
X67.815 Y170.508
X67.509 Y170.066
X67.209 Y169.584
X66.923 Y169.071
X66.657 Y168.534
X66.408 Y167.966
X66.18 Y167.366
X65.975 Y166.74
X65.799 Y166.096
X65.652 Y165.44
X65.537 Y164.776
X65.455 Y164.11
X65.405 Y163.448
X65.388 Y162.802
X65.401 Y162.174
X65.443 Y161.579
X65.51 Y161.015
X65.6 Y160.478
X65.709 Y159.977
X65.824 Y159.546
X65.953 Y159.144
X66.084 Y158.795
X66.233 Y158.451
X66.375 Y158.16
X66.54 Y157.86
X66.81 Y157.486
X67.131 Y157.154
X67.497 Y156.873
X67.9 Y156.648
X68.332 Y156.484
X68.782 Y156.384
X69.243 Y156.35
X71.069
G3 X71.551 Y156.464 I-0.044 J1.269
X72.287 Y157.478 I-0.527 J1.156
G1 X73.942 Y172.239
G3 X73.206 Y173.536 I-1.262 J0.142
X72.724 Y173.65 I-0.527 J-1.156
G1 X70.819
X70.592 Y173.639
X70.43 Y173.623
X70.255 Y173.597
X70.061 Y173.559
X69.862 Y173.509
X69.641 Y173.443
X69.412 Y173.362
X69.172 Y173.264
X68.912 Y173.143
X68.65 Y173.006
X68.374 Y172.843
X68.081 Y172.651
X67.79 Y172.44
X67.488 Y172.197
X67.173 Y171.919
X66.864 Y171.617
X66.554 Y171.284
X66.238 Y170.91
X65.923 Y170.499
X65.622 Y170.063
X65.329 Y169.592
X65.044 Y169.082
X64.773 Y168.536
X64.52 Y167.958
X64.291 Y167.355
X64.087 Y166.732
X63.911 Y166.09
X63.764 Y165.433
X63.649 Y164.768
X63.567 Y164.102
X63.517 Y163.441
X63.5 Y162.796
X63.513 Y162.176
X63.555 Y161.581
X63.623 Y161.008
X63.714 Y160.465
X63.816 Y159.997
X63.935 Y159.553
X64.057 Y159.172
X64.193 Y158.81
X64.336 Y158.478
X64.48 Y158.183
X64.646 Y157.883
X64.92 Y157.503
X65.246 Y157.166
X65.617 Y156.881
X66.026 Y156.652
X66.464 Y156.486
X66.921 Y156.384
X67.389 Y156.35
X69.243
G3 X70.461 Y157.484 I-0.044 J1.269
G1 X72.038 Y172.246
G3 X71.302 Y173.536 I-1.263 J0.135
X70.819 Y173.65 I-0.527 J-1.156
G1 X68.914
X68.812 Y173.645
X68.659 Y173.635
X68.488 Y173.615
X68.31 Y173.586
X68.112 Y173.544
X67.905 Y173.489
X67.686 Y173.42
X67.447 Y173.331
X67.205 Y173.228
X66.944 Y173.102
X66.671 Y172.953
X66.396 Y172.785
X66.104 Y172.587
X65.803 Y172.361
X65.505 Y172.114
X65.193 Y171.829
X64.875 Y171.508
X64.565 Y171.165
X64.254 Y170.785
X63.942 Y170.364
X63.635 Y169.905
X63.344 Y169.42
X63.067 Y168.906
X62.804 Y168.355
X62.56 Y167.77
X62.337 Y167.158
X62.141 Y166.523
X61.973 Y165.873
X61.837 Y165.213
X61.733 Y164.549
X61.661 Y163.884
X61.622 Y163.232
X61.615 Y162.595
X61.638 Y161.98
X61.688 Y161.391
X61.763 Y160.836
X61.859 Y160.311
X61.962 Y159.872
X62.087 Y159.434
X62.208 Y159.075
X62.352 Y158.709
X62.493 Y158.396
X62.647 Y158.094
X62.81 Y157.808
X63.08 Y157.446
X63.398 Y157.126
X63.758 Y156.854
X64.154 Y156.637
X64.577 Y156.479
X65.018 Y156.382
X65.468 Y156.35
X67.389
G3 X67.871 Y156.464 I-0.044 J1.269
X68.607 Y157.489 I-0.527 J1.156
G1 X70.133 Y172.25
G3 X68.914 Y173.65 I-1.263 J0.131
G1 X67.01
X66.917 Y173.645
X66.758 Y173.634
X66.592 Y173.615
X66.409 Y173.584
X66.211 Y173.541
X66.006 Y173.486
X65.779 Y173.413
X65.546 Y173.326
X65.3 Y173.219
X65.035 Y173.09
X64.769 Y172.943
X64.486 Y172.769
X64.191 Y172.567
X63.898 Y172.345
X63.592 Y172.09
X63.276 Y171.799
X62.967 Y171.485
X62.656 Y171.137
X62.34 Y170.748
X62.027 Y170.322
X61.728 Y169.872
X61.439 Y169.386
X61.16 Y168.861
X60.896 Y168.302
X60.651 Y167.712
X60.431 Y167.098
X60.238 Y166.465
X60.073 Y165.817
X59.94 Y165.157
X59.838 Y164.493
X59.769 Y163.829
X59.733 Y163.181
X59.729 Y162.551
X59.754 Y161.945
X59.806 Y161.36
X59.883 Y160.803
X59.982 Y160.277
X60.088 Y159.832
X60.215 Y159.395
X60.339 Y159.033
X60.482 Y158.672
X60.626 Y158.355
X60.779 Y158.059
X60.812 Y158.002
X61.089 Y157.594
X61.425 Y157.232
X61.811 Y156.924
X62.238 Y156.677
X62.697 Y156.497
X63.178 Y156.387
X63.67 Y156.35
X65.468
G3 X65.951 Y156.464 I-0.044 J1.269
X66.687 Y157.487 I-0.527 J1.156
G1 X68.228 Y172.249
G3 X67.492 Y173.536 I-1.263 J0.132
X67.01 Y173.65 I-0.527 J-1.156
G1 X65.105
X65.023 Y173.646
X64.863 Y173.634
X64.697 Y173.614
X64.511 Y173.582
X64.314 Y173.539
X64.107 Y173.482
X63.879 Y173.408
X63.647 Y173.321
X63.398 Y173.212
X63.133 Y173.082
X62.866 Y172.934
X62.582 Y172.758
X62.287 Y172.555
X61.994 Y172.331
X61.687 Y172.073
X61.371 Y171.78
X61.062 Y171.465
X60.749 Y171.113
X60.432 Y170.72
X60.12 Y170.292
X59.822 Y169.84
X59.533 Y169.352
X59.255 Y168.824
X58.992 Y168.263
X58.749 Y167.671
X58.53 Y167.056
X58.339 Y166.424
X58.178 Y165.776
X58.046 Y165.118
X57.947 Y164.455
X57.88 Y163.793
X57.846 Y163.143
X57.844 Y162.513
X57.871 Y161.907
X57.925 Y161.322
X58.004 Y160.764
X58.098 Y160.273
X58.208 Y159.815
X58.327 Y159.408
X58.454 Y159.042
X58.598 Y158.684
X58.736 Y158.383
X58.9 Y158.067
X58.943 Y157.993
X59.221 Y157.587
X59.556 Y157.227
X59.941 Y156.921
X60.368 Y156.675
X60.826 Y156.496
X61.306 Y156.387
X61.796 Y156.35
X63.67
G3 X64.153 Y156.464 I-0.044 J1.269
X64.89 Y157.496 I-0.527 J1.156
G1 X66.325 Y172.258
G3 X65.587 Y173.536 I-1.264 J0.123
X65.105 Y173.65 I-0.527 J-1.156
G1 X63.2
X63.05 Y173.643
X62.886 Y173.626
X62.706 Y173.599
X62.518 Y173.562
X62.309 Y173.509
X62.094 Y173.444
X61.864 Y173.363
X61.616 Y173.261
X61.366 Y173.143
X61.095 Y173.001
X60.814 Y172.834
X60.532 Y172.649
X60.234 Y172.431
X59.926 Y172.183
X59.624 Y171.913
X59.31 Y171.606
X58.99 Y171.26
X58.678 Y170.889
X58.37 Y170.486
X58.064 Y170.041
X57.764 Y169.557
X57.479 Y169.042
X57.213 Y168.503
X56.965 Y167.933
X56.738 Y167.333
X56.535 Y166.708
X56.36 Y166.063
X56.215 Y165.407
X56.102 Y164.744
X56.021 Y164.078
X55.973 Y163.422
X55.958 Y162.78
X55.972 Y162.162
X56.015 Y161.575
X56.082 Y161.019
X56.172 Y160.486
X56.272 Y160.032
X56.395 Y159.58
X56.514 Y159.213
X56.656 Y158.835
X56.796 Y158.513
X56.948 Y158.204
X57.112 Y157.908
X57.392 Y157.522
X57.724 Y157.18
X58.103 Y156.89
X58.52 Y156.657
X58.966 Y156.488
X59.432 Y156.385
X59.907 Y156.35
X61.796
G3 X62.279 Y156.464 I-0.044 J1.269
X63.016 Y157.499 I-0.527 J1.156
G1 X64.42 Y172.261
G3 X63.682 Y173.536 I-1.264 J0.12
X63.2 Y173.65 I-0.527 J-1.156
G1 X61.295
X61.145 Y173.643
X60.98 Y173.625
X60.803 Y173.597
X60.606 Y173.557
X60.404 Y173.505
X60.182 Y173.437
X59.948 Y173.352
X59.707 Y173.252
X59.445 Y173.127
X59.179 Y172.985
X58.902 Y172.819
X58.607 Y172.622
X58.314 Y172.406
X58.011 Y172.159
X57.696 Y171.875
X57.383 Y171.565
X57.074 Y171.228
X56.759 Y170.85
X56.444 Y170.432
X56.141 Y169.986
X55.851 Y169.511
X55.57 Y168.998
X55.302 Y168.448
X55.053 Y167.866
X54.826 Y167.257
X54.626 Y166.629
X54.455 Y165.985
X54.314 Y165.329
X54.205 Y164.668
X54.128 Y164.008
X54.085 Y163.36
X54.073 Y162.727
X54.091 Y162.117
X54.136 Y161.526
X54.208 Y160.963
X54.301 Y160.43
X54.403 Y159.978
X54.526 Y159.534
X54.649 Y159.163
X54.789 Y158.797
X54.933 Y158.47
X55.081 Y158.173
X55.249 Y157.873
X55.526 Y157.495
X55.854 Y157.161
X56.227 Y156.877
X56.637 Y156.65
X57.075 Y156.485
X57.533 Y156.384
X58 Y156.35
X59.907
G3 X60.39 Y156.464 I-0.044 J1.269
X61.128 Y157.5 I-0.527 J1.156
G1 X62.515 Y172.262
G3 X61.777 Y173.536 I-1.264 J0.119
X61.295 Y173.65 I-0.527 J-1.156
G1 X59.485
X59.276 Y173.64
X59.117 Y173.624
X58.938 Y173.597
X58.748 Y173.56
X58.546 Y173.51
X58.324 Y173.444
X58.099 Y173.364
X57.855 Y173.265
X57.597 Y173.145
X57.336 Y173.007
X57.054 Y172.842
X56.766 Y172.653
X56.476 Y172.442
X56.171 Y172.197
X55.859 Y171.921
X55.553 Y171.622
X55.238 Y171.284
X54.919 Y170.906
X54.609 Y170.501
X54.308 Y170.066
X54.012 Y169.59
X53.725 Y169.076
X53.453 Y168.528
X53.203 Y167.955
X52.975 Y167.359
X52.773 Y166.74
X52.598 Y166.102
X52.453 Y165.449
X52.338 Y164.788
X52.256 Y164.124
X52.207 Y163.464
X52.189 Y162.825
X52.203 Y162.211
X52.244 Y161.622
X52.311 Y161.057
X52.401 Y160.517
X52.506 Y160.037
X52.624 Y159.597
X52.749 Y159.207
X52.883 Y158.85
X53.03 Y158.508
X53.174 Y158.214
X53.342 Y157.909
X53.621 Y157.522
X53.952 Y157.18
X54.33 Y156.89
X54.746 Y156.658
X55.191 Y156.488
X55.657 Y156.385
X56.132 Y156.35
X58
G3 X58.483 Y156.464 I-0.044 J1.269
X59.22 Y157.492 I-0.527 J1.156
G1 X60.704 Y172.254
G3 X59.967 Y173.536 I-1.264 J0.127
X59.485 Y173.65 I-0.527 J-1.156
G1 X57.58
X57.487 Y173.645
X57.334 Y173.635
X57.161 Y173.615
X56.983 Y173.585
X56.785 Y173.542
X56.577 Y173.486
X56.357 Y173.416
X56.117 Y173.326
X55.874 Y173.222
X55.613 Y173.095
X55.338 Y172.943
X55.063 Y172.775
X54.771 Y172.575
X54.468 Y172.346
X54.169 Y172.097
X53.858 Y171.811
X53.539 Y171.487
X53.227 Y171.14
X52.918 Y170.76
X52.608 Y170.339
X52.302 Y169.879
X52.01 Y169.39
X51.736 Y168.875
X51.476 Y168.325
X51.234 Y167.743
X51.014 Y167.132
X50.82 Y166.499
X50.655 Y165.851
X50.521 Y165.194
X50.42 Y164.533
X50.35 Y163.873
X50.314 Y163.222
X50.309 Y162.587
X50.333 Y161.973
X50.385 Y161.389
X50.461 Y160.837
X50.559 Y160.313
X50.662 Y159.875
X50.789 Y159.438
X50.911 Y159.08
X51.057 Y158.712
X51.198 Y158.401
X51.354 Y158.096
X51.407 Y158.004
X51.685 Y157.595
X52.02 Y157.233
X52.406 Y156.925
X52.833 Y156.678
X53.293 Y156.497
X53.774 Y156.387
X54.266 Y156.35
X56.132
G3 X56.614 Y156.464 I-0.044 J1.269
X57.351 Y157.495 I-0.527 J1.156
G1 X58.799 Y172.257
G3 X58.062 Y173.536 I-1.264 J0.124
X57.58 Y173.65 I-0.527 J-1.156
G1 X55.675
X55.593 Y173.646
X55.433 Y173.634
X55.267 Y173.614
X55.082 Y173.583
X54.884 Y173.539
X54.677 Y173.483
X54.448 Y173.408
X54.216 Y173.321
X53.968 Y173.213
X53.703 Y173.082
X53.437 Y172.934
X53.153 Y172.758
X52.857 Y172.555
X52.563 Y172.331
X52.257 Y172.074
X51.942 Y171.781
X51.633 Y171.467
X51.322 Y171.117
X51.007 Y170.726
X50.695 Y170.299
X50.397 Y169.848
X50.11 Y169.361
X49.832 Y168.836
X49.571 Y168.277
X49.329 Y167.688
X49.111 Y167.074
X48.92 Y166.442
X48.758 Y165.795
X48.627 Y165.137
X48.527 Y164.474
X48.461 Y163.813
X48.427 Y163.167
X48.424 Y162.539
X48.451 Y161.935
X48.505 Y161.35
X48.583 Y160.795
X48.678 Y160.298
X48.79 Y159.837
X48.91 Y159.425
X49.038 Y159.057
X49.183 Y158.695
X49.322 Y158.392
X49.486 Y158.074
X49.546 Y157.971
X49.821 Y157.57
X50.151 Y157.215
X50.531 Y156.913
X50.952 Y156.671
X51.404 Y156.494
X51.877 Y156.386
X52.362 Y156.35
X54.266
G3 X54.749 Y156.464 I-0.044 J1.269
X55.486 Y157.499 I-0.527 J1.156
G1 X56.895 Y172.26
G3 X56.157 Y173.536 I-1.264 J0.121
X55.675 Y173.65 I-0.527 J-1.156
G1 X53.77
X53.62 Y173.643
X53.457 Y173.626
X53.276 Y173.599
X53.089 Y173.562
X52.88 Y173.51
X52.665 Y173.445
X52.436 Y173.363
X52.187 Y173.261
X51.937 Y173.144
X51.668 Y173.002
X51.387 Y172.836
X51.105 Y172.651
X50.808 Y172.433
X50.501 Y172.186
X50.199 Y171.917
X49.886 Y171.611
X49.566 Y171.267
X49.255 Y170.896
X48.948 Y170.494
X48.643 Y170.051
X48.344 Y169.568
X48.059 Y169.054
X47.793 Y168.515
X47.546 Y167.947
X47.319 Y167.348
X47.116 Y166.725
X46.941 Y166.082
X46.797 Y165.428
X46.684 Y164.766
X46.603 Y164.102
X46.555 Y163.447
X46.539 Y162.804
X46.554 Y162.185
X46.596 Y161.596
X46.663 Y161.038
X46.754 Y160.502
X46.855 Y160.042
X46.979 Y159.584
X47.099 Y159.212
X47.242 Y158.833
X47.383 Y158.509
X47.535 Y158.2
X47.699 Y157.903
X47.714 Y157.879
X47.989 Y157.5
X48.315 Y157.164
X48.686 Y156.879
X49.095 Y156.652
X49.533 Y156.485
X49.99 Y156.384
X50.457 Y156.35
X52.362
G3 X53.581 Y157.499 I-0.044 J1.269
G1 X54.99 Y172.26
G3 X54.253 Y173.536 I-1.264 J0.121
X53.77 Y173.65 I-0.527 J-1.156
G1 X51.981
X51.732 Y173.638
X51.571 Y173.622
X51.396 Y173.596
X51.203 Y173.558
X51.004 Y173.509
X50.783 Y173.442
X50.555 Y173.362
X50.314 Y173.264
X50.055 Y173.143
X49.794 Y173.006
X49.517 Y172.843
X49.225 Y172.651
X48.935 Y172.441
X48.632 Y172.198
X48.318 Y171.919
X48.01 Y171.619
X47.7 Y171.286
X47.384 Y170.911
X47.07 Y170.501
X46.769 Y170.067
X46.477 Y169.597
X46.192 Y169.087
X45.922 Y168.542
X45.67 Y167.965
X45.441 Y167.366
X45.238 Y166.745
X45.063 Y166.106
X44.917 Y165.453
X44.803 Y164.791
X44.721 Y164.129
X44.672 Y163.474
X44.655 Y162.835
X44.668 Y162.222
X44.709 Y161.629
X44.777 Y161.06
X44.868 Y160.517
X44.971 Y160.041
X45.091 Y159.596
X45.216 Y159.207
X45.351 Y158.845
X45.498 Y158.506
X45.642 Y158.21
X45.81 Y157.905
X45.832 Y157.87
X46.104 Y157.493
X46.427 Y157.16
X46.795 Y156.876
X47.201 Y156.65
X47.635 Y156.484
X48.089 Y156.384
X48.552 Y156.35
X50.457
G3 X50.939 Y156.464 I-0.044 J1.269
X51.676 Y157.489 I-0.527 J1.156
G1 X53.2 Y172.25
G3 X52.463 Y173.536 I-1.263 J0.13
X51.981 Y173.65 I-0.527 J-1.156
G1 X50.076
X49.852 Y173.639
X49.69 Y173.623
X49.514 Y173.597
X49.32 Y173.559
X49.121 Y173.509
X48.901 Y173.443
X48.671 Y173.363
X48.432 Y173.265
X48.171 Y173.143
X47.909 Y173.006
X47.633 Y172.843
X47.341 Y172.652
X47.051 Y172.441
X46.75 Y172.199
X46.436 Y171.922
X46.127 Y171.62
X45.816 Y171.286
X45.5 Y170.912
X45.186 Y170.501
X44.884 Y170.065
X44.592 Y169.596
X44.308 Y169.087
X44.038 Y168.542
X43.786 Y167.965
X43.557 Y167.364
X43.354 Y166.743
X43.178 Y166.105
X43.033 Y165.453
X42.919 Y164.793
X42.837 Y164.13
X42.788 Y163.473
X42.77 Y162.833
X42.784 Y162.217
X42.825 Y161.624
X42.893 Y161.053
X42.984 Y160.511
X43.087 Y160.035
X43.207 Y159.587
X43.332 Y159.199
X43.468 Y158.836
X43.614 Y158.497
X43.759 Y158.202
X43.926 Y157.898
X44.203 Y157.514
X44.532 Y157.174
X44.907 Y156.886
X45.32 Y156.655
X45.762 Y156.487
X46.224 Y156.384
X46.696 Y156.35
X48.552
G3 X49.034 Y156.464 I-0.044 J1.269
X49.771 Y157.489 I-0.527 J1.156
G1 X51.295 Y172.25
G3 X50.558 Y173.536 I-1.263 J0.13
X50.076 Y173.65 I-0.527 J-1.156
G1 X48.171
X48.07 Y173.645
X47.917 Y173.635
X47.746 Y173.615
X47.569 Y173.586
X47.371 Y173.544
X47.164 Y173.489
X46.945 Y173.42
X46.706 Y173.331
X46.464 Y173.228
X46.203 Y173.101
X45.93 Y172.952
X45.655 Y172.784
X45.363 Y172.586
X45.062 Y172.36
X44.764 Y172.112
X44.453 Y171.828
X44.135 Y171.507
X43.825 Y171.163
X43.515 Y170.784
X43.204 Y170.364
X42.897 Y169.906
X42.606 Y169.421
X42.331 Y168.908
X42.07 Y168.359
X41.826 Y167.777
X41.605 Y167.168
X41.41 Y166.536
X41.244 Y165.889
X41.108 Y165.232
X41.005 Y164.571
X40.933 Y163.909
X40.895 Y163.258
X40.888 Y162.621
X40.911 Y162.006
X40.962 Y161.416
X41.037 Y160.859
X41.134 Y160.332
X41.238 Y159.891
X41.363 Y159.451
X41.486 Y159.091
X41.63 Y158.723
X41.772 Y158.408
X41.926 Y158.105
X42.091 Y157.818
X42.362 Y157.453
X42.683 Y157.131
X43.046 Y156.857
X43.444 Y156.639
X43.87 Y156.479
X44.314 Y156.383
X44.768 Y156.35
X46.696
G3 X47.178 Y156.464 I-0.044 J1.269
X47.915 Y157.493 I-0.527 J1.156
G1 X49.39 Y172.254
G3 X48.653 Y173.536 I-1.264 J0.126
X48.171 Y173.65 I-0.527 J-1.156
G1 X46.266
X46.176 Y173.645
X46.017 Y173.634
X45.851 Y173.615
X45.668 Y173.584
X45.47 Y173.54
X45.264 Y173.485
X45.037 Y173.412
X44.805 Y173.325
X44.558 Y173.218
X44.293 Y173.088
X44.028 Y172.942
X43.745 Y172.768
X43.449 Y172.565
X43.156 Y172.343
X42.851 Y172.088
X42.536 Y171.797
X42.227 Y171.483
X41.917 Y171.136
X41.602 Y170.747
X41.289 Y170.321
X40.991 Y169.871
X40.703 Y169.387
X40.426 Y168.864
X40.163 Y168.307
X39.92 Y167.719
X39.701 Y167.106
X39.508 Y166.475
X39.345 Y165.828
X39.212 Y165.17
X39.111 Y164.506
X39.043 Y163.844
X39.007 Y163.195
X39.003 Y162.565
X39.029 Y161.959
X39.082 Y161.373
X39.159 Y160.815
X39.259 Y160.288
X39.365 Y159.842
X39.492 Y159.405
X39.617 Y159.041
X39.761 Y158.679
X39.906 Y158.362
X40.059 Y158.065
X40.225 Y157.778
X40.491 Y157.423
X40.805 Y157.109
X41.16 Y156.843
X41.55 Y156.631
X41.965 Y156.476
X42.399 Y156.382
X42.842 Y156.35
X44.768
G3 X45.25 Y156.464 I-0.044 J1.269
X45.987 Y157.491 I-0.527 J1.156
G1 X47.485 Y172.253
G3 X46.748 Y173.536 I-1.264 J0.128
X46.266 Y173.65 I-0.527 J-1.156
G1 X44.361
X44.283 Y173.646
X44.122 Y173.634
X43.956 Y173.614
X43.77 Y173.582
X43.573 Y173.538
X43.366 Y173.482
X43.138 Y173.408
X42.906 Y173.32
X42.657 Y173.211
X42.392 Y173.08
X42.125 Y172.932
X41.841 Y172.756
X41.547 Y172.552
X41.254 Y172.329
X40.948 Y172.071
X40.632 Y171.778
X40.324 Y171.463
X40.012 Y171.112
X39.696 Y170.719
X39.384 Y170.291
X39.088 Y169.84
X38.8 Y169.352
X38.522 Y168.826
X38.26 Y168.265
X38.018 Y167.674
X37.801 Y167.061
X37.611 Y166.429
X37.45 Y165.782
X37.319 Y165.125
X37.221 Y164.462
X37.154 Y163.8
X37.121 Y163.151
X37.119 Y162.52
X37.146 Y161.914
X37.201 Y161.328
X37.281 Y160.77
X37.382 Y160.243
X37.49 Y159.797
X37.618 Y159.361
X37.744 Y158.999
X37.889 Y158.639
X38.033 Y158.324
X38.187 Y158.028
X38.273 Y157.879
X38.533 Y157.501
X38.845 Y157.166
X39.204 Y156.881
X39.602 Y156.653
X40.029 Y156.486
X40.476 Y156.384
X40.933 Y156.35
X42.842
G3 X43.324 Y156.464 I-0.044 J1.269
X44.061 Y157.489 I-0.527 J1.156
G1 X45.58 Y172.251
G3 X44.844 Y173.536 I-1.263 J0.13
X44.361 Y173.65 I-0.527 J-1.156
G1 X42.457
X42.307 Y173.643
X42.143 Y173.626
X41.961 Y173.598
X41.774 Y173.56
X41.565 Y173.507
X41.349 Y173.442
X41.119 Y173.36
X40.87 Y173.257
X40.619 Y173.139
X40.35 Y172.995
X40.068 Y172.828
X39.786 Y172.641
X39.488 Y172.423
X39.181 Y172.174
X38.878 Y171.903
X38.566 Y171.596
X38.246 Y171.249
X37.934 Y170.876
X37.628 Y170.473
X37.323 Y170.028
X37.025 Y169.544
X36.739 Y169.027
X36.474 Y168.486
X36.228 Y167.917
X36.003 Y167.317
X35.801 Y166.692
X35.628 Y166.048
X35.485 Y165.392
X35.373 Y164.729
X35.293 Y164.063
X35.247 Y163.402
X35.232 Y162.757
X35.249 Y162.131
X35.293 Y161.538
X35.362 Y160.976
X35.454 Y160.439
X35.558 Y159.971
X35.684 Y159.511
X35.805 Y159.139
X35.949 Y158.761
X36.088 Y158.442
X36.241 Y158.133
X36.402 Y157.844
X36.671 Y157.473
X36.992 Y157.145
X37.356 Y156.867
X37.756 Y156.644
X38.185 Y156.482
X38.632 Y156.383
X39.089 Y156.35
X40.933
G3 X41.415 Y156.464 I-0.044 J1.269
X42.152 Y157.489 I-0.527 J1.156
G1 X43.675 Y172.25
G3 X42.939 Y173.536 I-1.263 J0.13
X42.457 Y173.65 I-0.527 J-1.156
G1 X40.629
X40.529 Y173.645
X40.374 Y173.635
X40.204 Y173.615
X40.027 Y173.586
X39.828 Y173.543
X39.623 Y173.488
X39.401 Y173.418
X39.163 Y173.329
X38.921 Y173.226
X38.659 Y173.098
X38.388 Y172.95
X38.113 Y172.781
X37.818 Y172.581
X37.52 Y172.356
X37.219 Y172.106
X36.906 Y171.819
X36.59 Y171.499
X36.281 Y171.157
X35.97 Y170.776
X35.659 Y170.354
X35.354 Y169.896
X35.065 Y169.414
X34.789 Y168.899
X34.527 Y168.347
X34.283 Y167.762
X34.062 Y167.15
X33.867 Y166.515
X33.7 Y165.864
X33.623 Y165.491
X33.586 Y165.272
X33.564 Y165.05
X33.556 Y164.828
Y162.386
X33.611 Y161.29
X33.659 Y160.8
X33.73 Y160.323
X33.812 Y159.905
X33.913 Y159.498
X34.02 Y159.141
X34.138 Y158.806
X34.269 Y158.484
X34.399 Y158.205
X34.552 Y157.914
X34.82 Y157.527
X35.143 Y157.184
X35.512 Y156.893
X35.92 Y156.659
X36.359 Y156.489
X36.818 Y156.385
X37.287 Y156.35
G3 X37.769 Y156.464 I-0.044 J1.269
X38.373 Y158.198 I-0.527 J1.156
G1 X35.956 Y162.921
G3 X33.67 Y162.869 I-1.131 J-0.579
X33.556 Y162.386 I1.156 J-0.527
G1 Y158.75
X33.567 Y158.537
X33.638 Y158.147
X33.771 Y157.774
X33.964 Y157.428
X34.21 Y157.117
X34.504 Y156.851
X34.837 Y156.636
X35.201 Y156.479
X35.585 Y156.382
X35.98 Y156.35
G3 X36.473 Y156.421 I-0.081 J2.321
X38.141 Y159.277 I-0.574 J2.251
X33.626 Y159.243 I-2.253 J-0.609
X33.556 Y158.75 I2.262 J-0.574
G1 Y157.817
X33.565 Y157.607
X33.566 Y157.579
X33.568 Y157.536
X33.578 Y157.447
X33.592 Y157.359
X33.611 Y157.271
G3 X34.377 Y157.445 I0.379 J0.104
G1 X34.348 Y157.608
G3 X33.568 Y157.536 I-0.387 J-0.07
G1 X33.572 Y157.436
X33.617 Y157.247
X33.696 Y157.055
X33.75 Y156.96
X33.816 Y156.865
X33.896 Y156.77
X33.993 Y156.674
X34.075 Y156.606
X34.171 Y156.541
X34.266 Y156.487
X34.456 Y156.41
X34.647 Y156.365
X34.837 Y156.35
X39.089
G3 X39.571 Y156.464 I-0.044 J1.269
X40.308 Y157.487 I-0.527 J1.156
G1 X41.848 Y172.249
G3 X41.111 Y173.536 I-1.263 J0.132
X40.629 Y173.65 I-0.527 J-1.156
G1 X38.724
X38.636 Y173.646
X38.477 Y173.634
X38.311 Y173.614
X38.127 Y173.583
X37.929 Y173.54
X37.723 Y173.484
X37.496 Y173.411
X37.264 Y173.324
X37.017 Y173.217
X36.752 Y173.086
X36.486 Y172.94
X36.203 Y172.765
X35.908 Y172.562
X35.615 Y172.34
X35.31 Y172.084
X34.995 Y171.793
X34.686 Y171.479
X34.375 Y171.131
X34.291 Y171.027
X34.033 Y170.66
X33.827 Y170.261
X33.678 Y169.838
X33.587 Y169.398
X33.556 Y168.951
G3 X33.67 Y168.468 I1.269 J0.044
X35.663 Y168.041 I1.156 J0.527
G1 X39.518 Y171.427
G3 X39.206 Y173.536 I-0.838 J0.954
X38.724 Y173.65 I-0.527 J-1.156
G1 X36.913
X36.661 Y173.637
X36.499 Y173.621
X36.319 Y173.595
X36.133 Y173.558
X35.925 Y173.507
X35.711 Y173.443
X35.483 Y173.362
X35.267 Y173.274
X34.85 Y173.037
X34.477 Y172.736
X34.157 Y172.379
X33.9 Y171.974
X33.71 Y171.534
X33.595 Y171.068
X33.556 Y170.59
G3 X33.67 Y170.108 I1.269 J0.044
X35.65 Y169.669 I1.156 J0.527
G1 X37.694 Y171.415
G3 X37.396 Y173.536 I-0.825 J0.966
X36.913 Y173.65 I-0.527 J-1.156
G1 X35.295
X35.146 Y173.643
X34.783 Y173.565
X34.444 Y173.414
X34.143 Y173.196
X33.895 Y172.921
X33.71 Y172.599
X33.595 Y172.246
X33.556 Y171.877
G3 X35.696 Y170.314 I1.684 J0.059
X35.784 Y173.56 I-0.46 J1.637
X35.295 Y173.65 I-0.548 J-1.61
G1 X34.837
X34.647 Y173.635
X34.456 Y173.59
X34.291 Y173.525
X34.126 Y173.43
X34.075 Y173.394
X33.981 Y173.315
X33.887 Y173.221
X33.755 Y173.049
X33.694 Y172.943
X33.634 Y172.806
X33.592 Y172.668
X33.561 Y172.478
X33.556 Y172.287
Y164.828
X33.57 Y164.743 Z40.018
X33.583 Y164.661 Z40.04
X33.595 Y164.584 Z40.076
X33.607 Y164.514 Z40.125
X33.628 Y164.456 Z40.186
X33.646 Y164.409 Z40.258
X33.659 Y164.374 Z40.337
X33.667 Y164.353 Z40.421
X33.67 Y164.345 Z40.509
G0 Z55
X142.549 Y156.464
Z41.28
G1 Z40.01 F849.6
G3 X143.031 Y156.35 I0.527 J1.156
G1 X145.907
X146.19 Y156.364
X146.388 Y156.384
X146.595 Y156.414
X146.822 Y156.459
X147.058 Y156.517
X147.301 Y156.59
X147.563 Y156.683
X147.835 Y156.794
X148.112 Y156.922
X148.407 Y157.078
X148.712 Y157.257
X149.015 Y157.456
X149.33 Y157.685
X149.653 Y157.944
X149.744 Y158.024
X150.069 Y158.356
X150.345 Y158.731
X150.565 Y159.14
X150.726 Y159.576
X150.823 Y160.031
X150.856 Y160.495
G3 X150.742 Y160.977 I-1.269 J-0.044
X148.806 Y161.452 I-1.156 J-0.527
G1 X145.171 Y158.621
G3 X145.425 Y156.464 I0.78 J-1.002
X145.907 Y156.35 I0.527 J1.156
G1 X147.983
X148.27 Y156.364
X148.439 Y156.381
X148.605 Y156.405
X148.783 Y156.441
X148.969 Y156.487
X149.136 Y156.537
X149.499 Y156.697
X149.832 Y156.911
X150.129 Y157.174
X150.383 Y157.479
X150.586 Y157.819
X150.735 Y158.186
X150.826 Y158.572
X150.856 Y158.967
G3 X150.742 Y159.45 I-1.269 J-0.044
X148.772 Y159.897 I-1.156 J-0.527
G1 X147.213 Y158.593
G3 X147.501 Y156.464 I0.815 J-0.974
X147.983 Y156.35 I0.527 J1.156
G1 X149.43
X149.473
X149.507
X149.657 Y156.362
X149.804 Y156.389
X149.949 Y156.428
X150.091 Y156.478
X150.205 Y156.533
X150.314 Y156.598
X150.418 Y156.671
G3 X149.954 Y157.487 I-0.303 J0.367
G1 X149.363 Y157.274
G3 X149.103 Y156.602 I0.161 J-0.448
X149.507 Y156.35 I0.421 J0.224
G1 X149.698 Y156.356
X149.888 Y156.389
X150.079 Y156.454
X150.269 Y156.557
X150.422 Y156.674
X150.551 Y156.808
X150.65 Y156.941
X150.716 Y157.055
X150.795 Y157.246
X150.84 Y157.436
X150.856 Y157.817
Y163.13
X150.842 Y163.215 Z40.018
X150.829 Y163.296 Z40.04
X150.817 Y163.374 Z40.076
X150.805 Y163.443 Z40.125
X150.784 Y163.502 Z40.186
X150.766 Y163.549 Z40.258
X150.753 Y163.584 Z40.337
X150.745 Y163.605 Z40.421
X150.742 Y163.612 Z40.509
G0 Z55
X146.923 Y173.649
Z41.28
G1 Z40.01 F849.6
X146.425 Y173.65
X145.775
X145.69 Y173.636 Z40.018
X145.608 Y173.623 Z40.04
X145.531 Y173.611 Z40.076
X145.462 Y173.599 Z40.125
X145.403 Y173.578 Z40.186
X145.356 Y173.56 Z40.258
X145.321 Y173.547 Z40.337
X145.3 Y173.539 Z40.421
X145.292 Y173.536 Z40.509
G0 Z55
X136.332 Y162.649
Z43.78
G1 Z42.51 F849.6
G3 X147.444 Y167.351 Z41.848 I5.556 J2.351 F400.3
X136.332 Y162.649 Z41.186 I-5.556 J-2.351
X147.444 Y167.351 Z40.525 I5.556 J2.351
X136.332 Y162.649 Z39.863 I-5.556 J-2.351
X147.444 Y167.351 Z39.201 I5.556 J2.351
X136.332 Y162.649 Z38.539 I-5.556 J-2.351
X147.444 Y167.351 Z37.877 I5.556 J2.351
X136.332 Y162.649 Z37.216 I-5.556 J-2.351
X147.444 Y167.351 Z36.554 I5.556 J2.351
X136.332 Y162.649 Z35.892 I-5.556 J-2.351
X147.444 Y167.351 Z35.23 I5.556 J2.351
X136.332 Y162.649 Z34.568 I-5.556 J-2.351
X147.444 Y167.351 Z33.907 I5.556 J2.351
X136.332 Y162.649 Z33.245 I-5.556 J-2.351
X147.444 Y167.351 Z32.583 I5.556 J2.351
X136.332 Y162.649 Z31.921 I-5.556 J-2.351
X144.635 Y159.629 Z31.575 I5.556 J2.351
X147.045 Y168.13 Z31.229 I-2.747 J5.371
X137.211 Y168.81 Z30.826 I-5.157 J-3.13
X146.565 Y161.19 Z30.164 I4.677 J-3.81
X147.92 Y165 Z30.02 I-4.677 J3.81
X135.855 I-6.033
X142.581 Y159.007 I6.033
X147.398 Y162.545 I-0.693 J5.993
X147.92 Y165 I-5.511 J2.455
G1 X147.924 Y165.323 F849.6
X148.044 Y166.61
X148.06 Y166.689
X148.086 Y166.836
X148.102 Y166.985
X148.111 Y167.135
X148.112 Y167.289
X148.105 Y167.453
X148.089 Y167.626
X148.063 Y167.808
X148.027 Y167.999
X147.979 Y168.197
X147.92 Y168.401
X147.847 Y168.611
X147.762 Y168.826
X147.662 Y169.044
X147.548 Y169.264
X147.42 Y169.485
X147.277 Y169.707
X147.119 Y169.927
X146.947 Y170.145
X146.76 Y170.359
X146.558 Y170.569
X146.343 Y170.772
X146.113 Y170.969
X145.871 Y171.157
X145.616 Y171.336
X145.349 Y171.505
X145.07 Y171.663
X144.781 Y171.809
X144.482 Y171.943
X144.173 Y172.063
X143.857 Y172.168
X143.533 Y172.26
X143.203 Y172.336
X142.867 Y172.396
X142.526 Y172.441
X142.182 Y172.469
X141.836 Y172.481
X141.487 Y172.476
X141.138 Y172.454
X140.789 Y172.415
X140.441 Y172.359
X140.095 Y172.287
X139.753 Y172.197
X139.414 Y172.091
X139.079 Y171.968
X138.751 Y171.829
X138.429 Y171.674
X138.114 Y171.504
X137.807 Y171.318
X137.51 Y171.118
X137.222 Y170.903
X136.944 Y170.674
X136.678 Y170.432
X136.423 Y170.177
X136.18 Y169.91
X135.951 Y169.631
X135.735 Y169.342
X135.533 Y169.042
X135.346 Y168.733
X135.174 Y168.415
X135.017 Y168.088
X134.876 Y167.755
X134.752 Y167.415
X134.643 Y167.069
X134.552 Y166.718
X134.478 Y166.364
X134.42 Y166.006
X134.38 Y165.645
X134.358 Y165.283
X134.353 Y164.921
X134.365 Y164.558
X134.395 Y164.197
X134.442 Y163.837
X134.506 Y163.48
X134.588 Y163.126
X134.687 Y162.777
X134.802 Y162.433
X134.934 Y162.094
X135.082 Y161.763
X135.245 Y161.439
X135.425 Y161.123
X135.619 Y160.816
X135.827 Y160.519
X136.05 Y160.232
X136.287 Y159.957
X136.536 Y159.693
X136.798 Y159.441
X137.072 Y159.202
X137.356 Y158.977
X137.652 Y158.766
X137.957 Y158.569
X138.271 Y158.387
X138.594 Y158.22
X138.924 Y158.07
X139.262 Y157.935
X139.605 Y157.817
X139.954 Y157.715
X140.307 Y157.63
X140.664 Y157.563
X141.024 Y157.512
X141.385 Y157.479
X141.748 Y157.464
X142.111 Y157.466
X142.474 Y157.485
X142.835 Y157.522
X143.195 Y157.577
X143.551 Y157.648
X143.903 Y157.737
X144.251 Y157.842
X144.593 Y157.964
X144.928 Y158.103
X145.257 Y158.257
X145.578 Y158.427
X145.89 Y158.613
X146.194 Y158.813
X146.487 Y159.028
X146.769 Y159.256
X147.04 Y159.498
X147.299 Y159.753
X147.546 Y160.019
X147.779 Y160.298
X147.999 Y160.587
X148.204 Y160.887
X148.395 Y161.196
X148.571 Y161.514
X148.731 Y161.84
X148.956 Y162.358
X149.232 Y163.093
X149.422 Y163.68
X149.561 Y164.194
X149.663 Y164.659
X149.737 Y165.096
X149.787 Y165.514
X149.815 Y165.914
X149.824 Y166.301
X149.815 Y166.677
X149.788 Y167.047
X149.743 Y167.411
X149.682 Y167.768
X149.604 Y168.12
X149.509 Y168.467
X149.398 Y168.809
X149.271 Y169.145
X149.127 Y169.476
X148.966 Y169.8
X148.79 Y170.118
X148.596 Y170.43
X148.387 Y170.733
X148.162 Y171.028
X147.921 Y171.315
X147.664 Y171.591
X147.392 Y171.857
X147.106 Y172.112
X146.805 Y172.354
X146.491 Y172.583
X146.164 Y172.798
X145.824 Y172.999
X145.473 Y173.184
X145.111 Y173.353
X144.988 Y173.404
X144.583 Y173.54
X144.163 Y173.622
X143.737 Y173.65
X140.745
X140.273 Y173.626
X139.94 Y173.594
X139.603 Y173.544
X139.261 Y173.477
X138.915 Y173.391
X138.566 Y173.286
X138.215 Y173.162
X137.864 Y173.019
X137.514 Y172.856
X137.168 Y172.674
X136.827 Y172.474
X136.493 Y172.255
X136.166 Y172.017
X135.849 Y171.763
X135.542 Y171.49
X135.246 Y171.202
X134.962 Y170.897
X134.692 Y170.577
X134.436 Y170.243
X134.195 Y169.895
X133.97 Y169.534
X133.762 Y169.161
X133.572 Y168.777
X133.399 Y168.383
X133.246 Y167.979
X133.111 Y167.568
X132.997 Y167.15
X132.902 Y166.726
X132.828 Y166.297
X132.774 Y165.864
X132.742 Y165.429
X132.73 Y164.992
X132.739 Y164.554
X132.77 Y164.117
X132.821 Y163.681
X132.894 Y163.248
X132.987 Y162.819
X133.101 Y162.394
X133.236 Y161.975
X133.39 Y161.563
X133.565 Y161.159
X133.758 Y160.763
X133.971 Y160.377
X134.202 Y160.002
X134.451 Y159.638
X134.717 Y159.286
X135 Y158.948
X135.299 Y158.623
X135.613 Y158.313
X135.942 Y158.019
X136.285 Y157.741
X136.641 Y157.479
X137.009 Y157.235
X137.388 Y157.009
X137.778 Y156.802
X138.178 Y156.613
X138.207 Y156.601
X138.616 Y156.462
X139.039 Y156.378
X139.47 Y156.35
X143.031
X143.538 Y156.375
X143.865 Y156.408
X144.2 Y156.457
X144.539 Y156.524
X144.882 Y156.609
X145.226 Y156.712
X145.573 Y156.834
X145.92 Y156.976
X146.266 Y157.137
X146.61 Y157.318
X146.95 Y157.517
X147.283 Y157.736
X147.61 Y157.973
X147.928 Y158.229
X148.235 Y158.501
X148.539 Y158.797
X148.838 Y159.119
X149.156 Y159.495
X149.469 Y159.903
X149.767 Y160.334
X150.049 Y160.787
X150.31 Y161.256
X150.548 Y161.735
X150.579 Y161.808
X150.732 Y162.234
X150.825 Y162.678
X150.856 Y163.13
Y167.718
X150.838 Y168.081
X150.807 Y168.396
X150.759 Y168.717
X150.695 Y169.043
X150.613 Y169.375
X150.512 Y169.713
X150.391 Y170.056
X150.249 Y170.402
X150.088 Y170.748
X149.908 Y171.092
X149.708 Y171.432
X149.488 Y171.768
X149.248 Y172.098
X148.988 Y172.422
X148.885 Y172.538
X148.553 Y172.863
X148.179 Y173.139
X147.769 Y173.359
X147.333 Y173.52
X146.878 Y173.617
X146.414 Y173.65
G3 X145.407 Y171.669 I0.044 J-1.269
G1 X148.535 Y167.05
G3 X150.856 Y167.718 I1.052 J0.712
G1 Y170.383
X150.84 Y170.699
X150.821 Y170.897
X150.79 Y171.102
X150.751 Y171.3
X150.698 Y171.514
X150.635 Y171.725
X150.568 Y171.915
X150.385 Y172.284
X150.149 Y172.622
X149.866 Y172.921
X149.542 Y173.176
X149.184 Y173.38
X148.799 Y173.529
X148.397 Y173.62
X147.986 Y173.65
G3 X147.504 Y173.536 I0.044 J-1.269
X147.037 Y171.589 I0.527 J-1.156
G1 X148.593 Y169.636
G3 X150.742 Y169.901 I0.993 J0.791
X150.856 Y170.383 I-1.156 J0.527
G1 Y172.022
X150.848 Y172.174
X150.779 Y172.51
X150.641 Y172.825
X150.44 Y173.104
X150.185 Y173.335
X149.888 Y173.507
X149.561 Y173.614
X149.219 Y173.65
G3 X147.752 Y171.674 I0.055 J-1.574
X150.856 Y172.022 I1.527 J0.403
G1 Y172.287
X150.851 Y172.478
X150.82 Y172.668
X150.757 Y172.859
X150.657 Y173.049
X150.65 Y173.06
X150.505 Y173.245
X150.397 Y173.348
X150.289 Y173.43
X150.269 Y173.443
X150.079 Y173.546
X149.888 Y173.611
X149.698 Y173.644
X149.666 Y173.645
X149.579 Z30.028
X149.495 Z30.05
X149.417 Z30.087
X149.345 Z30.137
X149.284 Y173.646 Z30.198
X149.234 Z30.269
X149.197 Z30.348
X149.175 Z30.432
X149.167 Z30.519
G0 Z55
X141.227 Y173.536
Z31.29
G1 Z30.02 F849.6
G3 X140.745 Y173.65 I-0.527 J-1.156
G1 X137.869
X137.598 Y173.636
X137.4 Y173.617
X137.192 Y173.586
X136.964 Y173.541
X136.728 Y173.483
X136.484 Y173.41
X136.225 Y173.318
X135.955 Y173.208
X135.684 Y173.082
X135.406 Y172.936
X135.118 Y172.767
X134.827 Y172.576
X134.538 Y172.366
X134.252 Y172.136
X133.966 Y171.883
X133.682 Y171.606
X133.404 Y171.307
X133.133 Y170.987
X132.874 Y170.648
X132.626 Y170.29
X132.393 Y169.915
X132.173 Y169.521
X131.969 Y169.11
X131.783 Y168.683
X131.614 Y168.242
X131.466 Y167.787
X131.338 Y167.32
X131.231 Y166.843
X131.147 Y166.358
X131.086 Y165.865
X131.049 Y165.367
X131.036 Y164.865
X131.046 Y164.36
X131.082 Y163.853
X131.142 Y163.348
X131.226 Y162.843
X131.335 Y162.342
X131.469 Y161.846
X131.626 Y161.355
X131.808 Y160.871
X132.013 Y160.396
X132.241 Y159.93
X132.491 Y159.475
X132.764 Y159.031
X133.058 Y158.601
X133.373 Y158.185
X133.708 Y157.785
X134.062 Y157.401
X134.164 Y157.3
X134.487 Y157.02
X134.844 Y156.784
X135.229 Y156.597
X135.634 Y156.46
X136.054 Y156.378
X136.481 Y156.35
X139.47
