%
(1001)
(Z0 stock bottom)
(T1  D=12.7 CR=0 - ZMIN=15 - flat end mill)
G90 G94
G17
G21

(2D Contour7)
M9
T1 M6
S6000 M3
G54
M9
G0 X469.006 Y160.16
Z65
Z55
G1 Z53.77 F849.6
G19 G2 Y158.89 Z52.5 J-1.27
G1 Y157.62
G17 G3 X470.276 Y156.35 I1.27
G1 X475.856 Z52.305 F400.3
Y180 Z51.479
G2 X482.206 Y186.35 Z51.131 I6.35
G1 X571.865 Z48
X612.206 F849.6
G2 X618.556 Y180 J-6.35
G1 Y156.35
X743.751
Y180
G2 X750.101 Y186.35 I6.35
G1 X880.101
G2 X886.451 Y180 J-6.35
G1 Y156.35
X900
G2 X906.35 Y150 J-6.35
G1 Y20
G2 X880 Y-6.35 I-26.35
G1 X865
G2 X838.65 Y20 J26.35
G1 Y60
G3 X825 Y73.65 I-13.65
G1 X540
G3 X526.35 Y60 J-13.65
G1 Y20
G2 X500 Y-6.35 I-26.35
G1 X485
G2 X458.65 Y20 J26.35
G1 Y150
G2 X465 Y156.35 I6.35
G1 X475.856
Y180
G2 X482.206 Y186.35 I6.35
G1 X571.865
X612.206 Z46.591 F400.3
G2 X618.556 Y180 Z46.243 J-6.35
G1 Y173.043 Z46
Y156.35 F849.6
X743.751
Y180
G2 X750.101 Y186.35 I6.35
G1 X880.101
G2 X886.451 Y180 J-6.35
G1 Y156.35
X900
G2 X906.35 Y150 J-6.35
G1 Y20
G2 X880 Y-6.35 I-26.35
G1 X865
G2 X838.65 Y20 J26.35
G1 Y60
G3 X825 Y73.65 I-13.65
G1 X540
G3 X526.35 Y60 J-13.65
G1 Y20
G2 X500 Y-6.35 I-26.35
G1 X485
G2 X458.65 Y20 J26.35
G1 Y150
G2 X465 Y156.35 I6.35
G1 X475.856
Y180
G2 X482.206 Y186.35 I6.35
G1 X571.865
X612.206
G2 X618.556 Y180 J-6.35
G1 Y173.043
Y156.35 Z45.417 F400.3
X659.135 Z44
X743.751 F849.6
Y180
G2 X750.101 Y186.35 I6.35
G1 X880.101
G2 X886.451 Y180 J-6.35
G1 Y156.35
X900
G2 X906.35 Y150 J-6.35
G1 Y20
G2 X880 Y-6.35 I-26.35
G1 X865
G2 X838.65 Y20 J26.35
G1 Y60
G3 X825 Y73.65 I-13.65
G1 X540
G3 X526.35 Y60 J-13.65
G1 Y20
G2 X500 Y-6.35 I-26.35
G1 X485
G2 X458.65 Y20 J26.35
G1 Y150
G2 X465 Y156.35 I6.35
G1 X475.856
Y180
G2 X482.206 Y186.35 I6.35
G1 X612.206
G2 X618.556 Y180 J-6.35
G1 Y156.35
X659.135
X716.408 Z42 F400.3
X743.751 F849.6
Y180
G2 X750.101 Y186.35 I6.35
G1 X880.101
G2 X886.451 Y180 J-6.35
G1 Y156.35
X900
G2 X906.35 Y150 J-6.35
G1 Y20
G2 X880 Y-6.35 I-26.35
G1 X865
G2 X838.65 Y20 J26.35
G1 Y60
G3 X825 Y73.65 I-13.65
G1 X540
G3 X526.35 Y60 J-13.65
G1 Y20
G2 X500 Y-6.35 I-26.35
G1 X485
G2 X458.65 Y20 J26.35
G1 Y150
G2 X465 Y156.35 I6.35
G1 X475.856
Y180
G2 X482.206 Y186.35 I6.35
G1 X612.206
G2 X618.556 Y180 J-6.35
G1 Y156.35
X716.408
X743.751 Z41.045 F400.3
Y180 Z40.219
G2 X746.611 Y185.305 Z40 I6.35
X750.101 Y186.35 I3.49 J-5.305 F849.6
G1 X880.101
G2 X886.451 Y180 J-6.35
G1 Y156.35
X900
G2 X906.35 Y150 J-6.35
G1 Y20
G2 X880 Y-6.35 I-26.35
G1 X865
G2 X838.65 Y20 J26.35
G1 Y60
G3 X825 Y73.65 I-13.65
G1 X540
G3 X526.35 Y60 J-13.65
G1 Y20
G2 X500 Y-6.35 I-26.35
G1 X485
G2 X458.65 Y20 J26.35
G1 Y150
G2 X465 Y156.35 I6.35
G1 X475.856
Y180
G2 X482.206 Y186.35 I6.35
G1 X612.206
G2 X618.556 Y180 J-6.35
G1 Y156.35
X716.408
X743.751
Y180
G2 X746.611 Y185.305 I6.35
X750.101 Y186.35 Z39.871 I3.49 J-5.305 F400.3
G1 X803.678 Z38
X880.101 F849.6
G2 X886.451 Y180 J-6.35
G1 Y156.35
X900
G2 X906.35 Y150 J-6.35
G1 Y20
G2 X880 Y-6.35 I-26.35
G1 X865
G2 X838.65 Y20 J26.35
G1 Y60
G3 X825 Y73.65 I-13.65
G1 X540
G3 X526.35 Y60 J-13.65
G1 Y20
G2 X500 Y-6.35 I-26.35
G1 X485
G2 X458.65 Y20 J26.35
G1 Y150
G2 X465 Y156.35 I6.35
G1 X475.856
Y180
G2 X482.206 Y186.35 I6.35
G1 X612.206
G2 X618.556 Y180 J-6.35
G1 Y156.35
X743.751
Y180
G2 X750.101 Y186.35 I6.35
G1 X803.678
X860.951 Z36 F400.3
X880.101 F849.6
G2 X886.451 Y180 J-6.35
G1 Y156.35
X900
G2 X906.35 Y150 J-6.35
G1 Y20
G2 X880 Y-6.35 I-26.35
G1 X865
G2 X838.65 Y20 J26.35
G1 Y60
G3 X825 Y73.65 I-13.65
G1 X540
G3 X526.35 Y60 J-13.65
G1 Y20
G2 X500 Y-6.35 I-26.35
G1 X485
G2 X458.65 Y20 J26.35
G1 Y150
G2 X465 Y156.35 I6.35
G1 X475.856
Y180
G2 X482.206 Y186.35 I6.35
G1 X612.206
G2 X618.556 Y180 J-6.35
G1 Y156.35
X743.751
Y180
G2 X750.101 Y186.35 I6.35
G1 X860.951
X880.101 Z35.331 F400.3
G2 X886.451 Y180 Z34.983 J-6.35
G1 Y156.35 Z34.157
X890.949 Z34
X900 F849.6
G2 X906.35 Y150 J-6.35
G1 Y20
G2 X880 Y-6.35 I-26.35
G1 X865
G2 X838.65 Y20 J26.35
G1 Y60
G3 X825 Y73.65 I-13.65
G1 X540
G3 X526.35 Y60 J-13.65
G1 Y20
G2 X500 Y-6.35 I-26.35
G1 X485
G2 X458.65 Y20 J26.35
G1 Y150
G2 X465 Y156.35 I6.35
G1 X475.856
Y180
G2 X482.206 Y186.35 I6.35
G1 X612.206
G2 X618.556 Y180 J-6.35
G1 Y156.35
X743.751
Y180
G2 X750.101 Y186.35 I6.35
G1 X860.951
X880.101
G2 X886.451 Y180 J-6.35
G1 Y156.35
X890.949
X900 Z33.684 F400.3
G2 X906.35 Y150 Z33.336 J-6.35
G1 Y111.753 Z32
Y20 F849.6
G2 X880 Y-6.35 I-26.35
G1 X865
G2 X838.65 Y20 J26.35
G1 Y60
G3 X825 Y73.65 I-13.65
G1 X540
G3 X526.35 Y60 J-13.65
G1 Y20
G2 X500 Y-6.35 I-26.35
G1 X485
G2 X458.65 Y20 J26.35
G1 Y150
G2 X465 Y156.35 I6.35
G1 X475.856
Y180
G2 X482.206 Y186.35 I6.35
G1 X612.206
G2 X618.556 Y180 J-6.35
G1 Y156.35
X743.751
Y180
G2 X750.101 Y186.35 I6.35
G1 X880.101
G2 X886.451 Y180 J-6.35
G1 Y156.35
X900
G2 X906.35 Y150 J-6.35
G1 Y111.753
Y54.481 Z30 F400.3
Y20 F849.6
G2 X880 Y-6.35 I-26.35
G1 X865
G2 X838.65 Y20 J26.35
G1 Y60
G3 X825 Y73.65 I-13.65
G1 X540
G3 X526.35 Y60 J-13.65
G1 Y20
G2 X500 Y-6.35 I-26.35
G1 X485
G2 X458.65 Y20 J26.35
G1 Y150
G2 X465 Y156.35 I6.35
G1 X475.856
Y180
G2 X482.206 Y186.35 I6.35
G1 X612.206
G2 X618.556 Y180 J-6.35
G1 Y156.35
X743.751
Y180
G2 X750.101 Y186.35 I6.35
G1 X880.101
G2 X886.451 Y180 J-6.35
G1 Y156.35
X900
G2 X906.35 Y150 J-6.35
G1 Y54.481
Y20 Z28.796 F400.3
G2 X897.092 Y-0.054 Z28 I-26.35
X880 Y-6.35 I-17.092 J20.054 F849.6
G1 X865
G2 X838.65 Y20 J26.35
G1 Y60
G3 X825 Y73.65 I-13.65
G1 X540
G3 X526.35 Y60 J-13.65
G1 Y20
G2 X500 Y-6.35 I-26.35
G1 X485
G2 X458.65 Y20 J26.35
G1 Y150
G2 X465 Y156.35 I6.35
G1 X475.856
Y180
G2 X482.206 Y186.35 I6.35
G1 X612.206
G2 X618.556 Y180 J-6.35
G1 Y156.35
X743.751
Y180
G2 X750.101 Y186.35 I6.35
G1 X880.101
G2 X886.451 Y180 J-6.35
G1 Y156.35
X900
G2 X906.35 Y150 J-6.35
G1 Y54.481
Y20
G2 X897.092 Y-0.054 I-26.35
X880 Y-6.35 Z27.351 I-17.092 J20.054 F400.3
G1 X865 Z26.827
G2 X844.385 Y3.588 Z26 J26.35
X838.65 Y20 I20.615 J16.412 F849.6
G1 Y60
G3 X825 Y73.65 I-13.65
G1 X540
G3 X526.35 Y60 J-13.65
G1 Y20
G2 X500 Y-6.35 I-26.35
G1 X485
G2 X458.65 Y20 J26.35
G1 Y150
G2 X465 Y156.35 I6.35
G1 X475.856
Y180
G2 X482.206 Y186.35 I6.35
G1 X612.206
G2 X618.556 Y180 J-6.35
G1 Y156.35
X743.751
Y180
G2 X750.101 Y186.35 I6.35
G1 X880.101
G2 X886.451 Y180 J-6.35
G1 Y156.35
X900
G2 X906.35 Y150 J-6.35
G1 Y20
G2 X880 Y-6.35 I-26.35
G1 X865
G2 X844.385 Y3.588 J26.35
X838.65 Y20 Z25.381 I20.615 J16.412 F400.3
G1 Y59.556 Z24
Y60 F849.6
G3 X825 Y73.65 I-13.65
G1 X540
G3 X526.35 Y60 J-13.65
G1 Y20
G2 X500 Y-6.35 I-26.35
G1 X485
G2 X458.65 Y20 J26.35
G1 Y150
G2 X465 Y156.35 I6.35
G1 X475.856
Y180
G2 X482.206 Y186.35 I6.35
G1 X612.206
G2 X618.556 Y180 J-6.35
G1 Y156.35
X743.751
Y180
G2 X750.101 Y186.35 I6.35
G1 X880.101
G2 X886.451 Y180 J-6.35
G1 Y156.35
X900
G2 X906.35 Y150 J-6.35
G1 Y20
G2 X880 Y-6.35 I-26.35
G1 X865
G2 X838.65 Y20 J26.35
G1 Y59.556
Y60 Z23.984 F400.3
G3 X825 Y73.65 Z23.236 I-13.65
G1 X789.613 Z22
X540 F849.6
G3 X526.35 Y60 J-13.65
G1 Y20
G2 X500 Y-6.35 I-26.35
G1 X485
G2 X458.65 Y20 J26.35
G1 Y150
G2 X465 Y156.35 I6.35
G1 X475.856
Y180
G2 X482.206 Y186.35 I6.35
G1 X612.206
G2 X618.556 Y180 J-6.35
G1 Y156.35
X743.751
Y180
G2 X750.101 Y186.35 I6.35
G1 X880.101
G2 X886.451 Y180 J-6.35
G1 Y156.35
X900
G2 X906.35 Y150 J-6.35
G1 Y20
G2 X880 Y-6.35 I-26.35
G1 X865
G2 X838.65 Y20 J26.35
G1 Y59.556
Y60
G3 X825 Y73.65 I-13.65
G1 X789.613
X732.34 Z20 F400.3
X540 F849.6
G3 X526.35 Y60 J-13.65
G1 Y20
G2 X500 Y-6.35 I-26.35
G1 X485
G2 X458.65 Y20 J26.35
G1 Y150
G2 X465 Y156.35 I6.35
G1 X475.856
Y180
G2 X482.206 Y186.35 I6.35
G1 X612.206
G2 X618.556 Y180 J-6.35
G1 Y156.35
X743.751
Y180
G2 X750.101 Y186.35 I6.35
G1 X880.101
G2 X886.451 Y180 J-6.35
G1 Y156.35
X900
G2 X906.35 Y150 J-6.35
G1 Y20
G2 X880 Y-6.35 I-26.35
G1 X865
G2 X838.65 Y20 J26.35
G1 Y60
G3 X825 Y73.65 I-13.65
G1 X732.34
X675.068 Z18 F400.3
X540 F849.6
G3 X526.35 Y60 J-13.65
G1 Y20
G2 X500 Y-6.35 I-26.35
G1 X485
G2 X458.65 Y20 J26.35
G1 Y150
G2 X465 Y156.35 I6.35
G1 X475.856
Y180
G2 X482.206 Y186.35 I6.35
G1 X612.206
G2 X618.556 Y180 J-6.35
G1 Y156.35
X743.751
Y180
G2 X750.101 Y186.35 I6.35
G1 X880.101
G2 X886.451 Y180 J-6.35
G1 Y156.35
X900
G2 X906.35 Y150 J-6.35
G1 Y20
G2 X880 Y-6.35 I-26.35
G1 X865
G2 X838.65 Y20 J26.35
G1 Y60
G3 X825 Y73.65 I-13.65
G1 X732.34
X675.068
X617.795 Z16 F400.3
X540 F849.6
G3 X526.35 Y60 J-13.65
G1 Y20
G2 X500 Y-6.35 I-26.35
G1 X485
G2 X458.65 Y20 J26.35
G1 Y150
G2 X465 Y156.35 I6.35
G1 X475.856
Y180
G2 X482.206 Y186.35 I6.35
G1 X612.206
G2 X618.556 Y180 J-6.35
G1 Y156.35
X743.751
Y180
G2 X750.101 Y186.35 I6.35
G1 X880.101
G2 X886.451 Y180 J-6.35
G1 Y156.35
X900
G2 X906.35 Y150 J-6.35
G1 Y20
G2 X880 Y-6.35 I-26.35
G1 X865
G2 X838.65 Y20 J26.35
G1 Y60
G3 X825 Y73.65 I-13.65
G1 X675.068
X617.795
X589.159 Z15 F400.3
X540 F849.6
G3 X526.35 Y60 J-13.65
G1 Y20
G2 X500 Y-6.35 I-26.35
G1 X485
G2 X458.65 Y20 J26.35
G1 Y150
G2 X465 Y156.35 I6.35
G1 X475.856
Y180
G2 X482.206 Y186.35 I6.35
G1 X612.206
G2 X618.556 Y180 J-6.35
G1 Y156.35
X743.751
Y180
G2 X750.101 Y186.35 I6.35
G1 X880.101
G2 X886.451 Y180 J-6.35
G1 Y156.35
X900
G2 X906.35 Y150 J-6.35
G1 Y20
G2 X880 Y-6.35 I-26.35
G1 X865
G2 X838.65 Y20 J26.35
G1 Y60
G3 X825 Y73.65 I-13.65
G1 X617.795
X589.159
G3 X587.889 Y72.38 J-1.27
G1 Y71.11
G19 G2 Y69.84 Z16.27 K1.27
G0 Z55
X455.16 Y109.059
G1 Z53.77 F849.6
G18 G3 X453.89 Z52.5 I-1.27
G1 X452.62
G17 G3 X451.35 Y107.789 J-1.27
G1 Y20 Z49.434 F400.3
G2 X425.316 Y-6.348 Z48 I-26.35
X425 Y-6.35 I-0.316 J26.348 F849.6
G1 X410
G2 X383.65 Y20 J26.35
G1 Y60
G3 X370 Y73.65 I-13.65
G1 X85
G3 X71.35 Y60 J-13.65
G1 Y20
G2 X45 Y-6.35 I-26.35
G1 X30
G2 X3.65 Y20 J26.35
G1 Y150
G2 X10 Y156.35 I6.35
G1 X20.856
Y180
G2 X27.206 Y186.35 I6.35
G1 X157.206
G2 X163.556 Y180 J-6.35
G1 Y156.35
X288.751
Y180
G2 X295.101 Y186.35 I6.35
G1 X425.101
G2 X431.451 Y180 J-6.35
G1 Y156.35
X445
G2 X451.35 Y150 J-6.35
G1 Y20
G2 X425.316 Y-6.348 I-26.35
X425 Y-6.35 Z47.989 I-0.316 J26.348 F400.3
G1 X410 Z47.465
G2 X383.65 Y20 Z46.02 J26.35
G1 Y20.566 Z46
Y60 F849.6
G3 X370 Y73.65 I-13.65
G1 X85
G3 X71.35 Y60 J-13.65
G1 Y20
G2 X45 Y-6.35 I-26.35
G1 X30
G2 X3.65 Y20 J26.35
G1 Y150
G2 X10 Y156.35 I6.35
G1 X20.856
Y180
G2 X27.206 Y186.35 I6.35
G1 X157.206
G2 X163.556 Y180 J-6.35
G1 Y156.35
X288.751
Y180
G2 X295.101 Y186.35 I6.35
G1 X425.101
G2 X431.451 Y180 J-6.35
G1 Y156.35
X445
G2 X451.35 Y150 J-6.35
G1 Y20
G2 X425 Y-6.35 I-26.35
G1 X410
G2 X383.65 Y20 J26.35
G1 Y20.566
Y60 Z44.623 F400.3
G3 X373.561 Y73.177 Z44 I-13.65
X370 Y73.65 I-3.561 J-13.177 F849.6
G1 X85
G3 X71.35 Y60 J-13.65
G1 Y20
G2 X45 Y-6.35 I-26.35
G1 X30
G2 X3.65 Y20 J26.35
G1 Y150
G2 X10 Y156.35 I6.35
G1 X20.856
Y180
G2 X27.206 Y186.35 I6.35
G1 X157.206
G2 X163.556 Y180 J-6.35
G1 Y156.35
X288.751
Y180
G2 X295.101 Y186.35 I6.35
G1 X425.101
G2 X431.451 Y180 J-6.35
G1 Y156.35
X445
G2 X451.35 Y150 J-6.35
G1 Y20
G2 X425 Y-6.35 I-26.35
G1 X410
G2 X383.65 Y20 J26.35
G1 Y60
G3 X373.561 Y73.177 I-13.65
X370 Y73.65 Z43.874 I-3.561 J-13.177 F400.3
G1 X316.33 Z42
X85 F849.6
G3 X71.35 Y60 J-13.65
G1 Y20
G2 X45 Y-6.35 I-26.35
G1 X30
G2 X3.65 Y20 J26.35
G1 Y150
G2 X10 Y156.35 I6.35
G1 X20.856
Y180
G2 X27.206 Y186.35 I6.35
G1 X157.206
G2 X163.556 Y180 J-6.35
G1 Y156.35
X288.751
Y180
G2 X295.101 Y186.35 I6.35
G1 X425.101
G2 X431.451 Y180 J-6.35
G1 Y156.35
X445
G2 X451.35 Y150 J-6.35
G1 Y20
G2 X425 Y-6.35 I-26.35
G1 X410
G2 X383.65 Y20 J26.35
G1 Y60
G3 X370 Y73.65 I-13.65
G1 X316.33
X259.058 Z40 F400.3
X85 F849.6
G3 X71.35 Y60 J-13.65
G1 Y20
G2 X45 Y-6.35 I-26.35
G1 X30
G2 X3.65 Y20 J26.35
G1 Y150
G2 X10 Y156.35 I6.35
G1 X20.856
Y180
G2 X27.206 Y186.35 I6.35
G1 X157.206
G2 X163.556 Y180 J-6.35
G1 Y156.35
X288.751
Y180
G2 X295.101 Y186.35 I6.35
G1 X425.101
G2 X431.451 Y180 J-6.35
G1 Y156.35
X445
G2 X451.35 Y150 J-6.35
G1 Y20
G2 X425 Y-6.35 I-26.35
G1 X410
G2 X383.65 Y20 J26.35
G1 Y60
G3 X370 Y73.65 I-13.65
G1 X259.058
X201.785 Z38 F400.3
X85 F849.6
G3 X71.35 Y60 J-13.65
G1 Y20
G2 X45 Y-6.35 I-26.35
G1 X30
G2 X3.65 Y20 J26.35
G1 Y150
G2 X10 Y156.35 I6.35
G1 X20.856
Y180
G2 X27.206 Y186.35 I6.35
G1 X157.206
G2 X163.556 Y180 J-6.35
G1 Y156.35
X288.751
Y180
G2 X295.101 Y186.35 I6.35
G1 X425.101
G2 X431.451 Y180 J-6.35
G1 Y156.35
X445
G2 X451.35 Y150 J-6.35
G1 Y20
G2 X425 Y-6.35 I-26.35
G1 X410
G2 X383.65 Y20 J26.35
G1 Y60
G3 X370 Y73.65 I-13.65
G1 X259.058
X201.785
X144.513 Z36 F400.3
X85 F849.6
G3 X71.35 Y60 J-13.65
G1 Y20
G2 X45 Y-6.35 I-26.35
G1 X30
G2 X3.65 Y20 J26.35
G1 Y150
G2 X10 Y156.35 I6.35
G1 X20.856
Y180
G2 X27.206 Y186.35 I6.35
G1 X157.206
G2 X163.556 Y180 J-6.35
G1 Y156.35
X288.751
Y180
G2 X295.101 Y186.35 I6.35
G1 X425.101
G2 X431.451 Y180 J-6.35
G1 Y156.35
X445
G2 X451.35 Y150 J-6.35
G1 Y20
G2 X425 Y-6.35 I-26.35
G1 X410
G2 X383.65 Y20 J26.35
G1 Y60
G3 X370 Y73.65 I-13.65
G1 X201.785
X144.513
X87.24 Z34 F400.3
X85 F849.6
G3 X71.35 Y60 J-13.65
G1 Y20
G2 X45 Y-6.35 I-26.35
G1 X30
G2 X3.65 Y20 J26.35
G1 Y150
G2 X10 Y156.35 I6.35
G1 X20.856
Y180
G2 X27.206 Y186.35 I6.35
G1 X157.206
G2 X163.556 Y180 J-6.35
G1 Y156.35
X288.751
Y180
G2 X295.101 Y186.35 I6.35
G1 X425.101
G2 X431.451 Y180 J-6.35
G1 Y156.35
X445
G2 X451.35 Y150 J-6.35
G1 Y20
G2 X425 Y-6.35 I-26.35
G1 X410
G2 X383.65 Y20 J26.35
G1 Y60
G3 X370 Y73.65 I-13.65
G1 X144.513
X87.24
X85 Z33.922 F400.3
G3 X71.35 Y60 Z33.173 J-13.65
G1 Y26.409 Z32
Y20 F849.6
G2 X45 Y-6.35 I-26.35
G1 X30
G2 X3.65 Y20 J26.35
G1 Y150
G2 X10 Y156.35 I6.35
G1 X20.856
Y180
G2 X27.206 Y186.35 I6.35
G1 X157.206
G2 X163.556 Y180 J-6.35
G1 Y156.35
X288.751
Y180
G2 X295.101 Y186.35 I6.35
G1 X425.101
G2 X431.451 Y180 J-6.35
G1 Y156.35
X445
G2 X451.35 Y150 J-6.35
G1 Y20
G2 X425 Y-6.35 I-26.35
G1 X410
G2 X383.65 Y20 J26.35
G1 Y60
G3 X370 Y73.65 I-13.65
G1 X87.24
X85
G3 X71.35 Y60 J-13.65
G1 Y26.409
Y20 Z31.776 F400.3
G2 X45 Y-6.35 Z30.331 I-26.35
G1 X35.527 Z30
X30 F849.6
G2 X3.65 Y20 J26.35
G1 Y150
G2 X10 Y156.35 I6.35
G1 X20.856
Y180
G2 X27.206 Y186.35 I6.35
G1 X157.206
G2 X163.556 Y180 J-6.35
G1 Y156.35
X288.751
Y180
G2 X295.101 Y186.35 I6.35
G1 X425.101
G2 X431.451 Y180 J-6.35
G1 Y156.35
X445
G2 X451.35 Y150 J-6.35
G1 Y20
G2 X425 Y-6.35 I-26.35
G1 X410
G2 X383.65 Y20 J26.35
G1 Y60
G3 X370 Y73.65 I-13.65
G1 X85
G3 X71.35 Y60 J-13.65
G1 Y26.409
Y20
G2 X45 Y-6.35 I-26.35
G1 X35.527
X30 Z29.807 F400.3
G2 X3.65 Y20 Z28.362 J26.35
G1 Y30.355 Z28
Y150 F849.6
G2 X10 Y156.35 I6.35
G1 X20.856
Y180
G2 X27.206 Y186.35 I6.35
G1 X157.206
G2 X163.556 Y180 J-6.35
G1 Y156.35
X288.751
Y180
G2 X295.101 Y186.35 I6.35
G1 X425.101
G2 X431.451 Y180 J-6.35
G1 Y156.35
X445
G2 X451.35 Y150 J-6.35
G1 Y20
G2 X425 Y-6.35 I-26.35
G1 X410
G2 X383.65 Y20 J26.35
G1 Y60
G3 X370 Y73.65 I-13.65
G1 X85
G3 X71.35 Y60 J-13.65
G1 Y20
G2 X45 Y-6.35 I-26.35
G1 X35.527
X30
G2 X3.65 Y20 J26.35
G1 Y30.355
Y87.628 Z26 F400.3
Y150 F849.6
G2 X10 Y156.35 I6.35
G1 X20.856
Y180
G2 X27.206 Y186.35 I6.35
G1 X157.206
G2 X163.556 Y180 J-6.35
G1 Y156.35
X288.751
Y180
G2 X295.101 Y186.35 I6.35
G1 X425.101
G2 X431.451 Y180 J-6.35
G1 Y156.35
X445
G2 X451.35 Y150 J-6.35
G1 Y20
G2 X425 Y-6.35 I-26.35
G1 X410
G2 X383.65 Y20 J26.35
G1 Y60
G3 X370 Y73.65 I-13.65
G1 X85
G3 X71.35 Y60 J-13.65
G1 Y20
G2 X45 Y-6.35 I-26.35
G1 X30
G2 X3.65 Y20 J26.35
G1 Y87.628
Y144.9 Z24 F400.3
Y150 F849.6
G2 X10 Y156.35 I6.35
G1 X20.856
Y180
G2 X27.206 Y186.35 I6.35
G1 X157.206
G2 X163.556 Y180 J-6.35
G1 Y156.35
X288.751
Y180
G2 X295.101 Y186.35 I6.35
G1 X425.101
G2 X431.451 Y180 J-6.35
G1 Y156.35
X445
G2 X451.35 Y150 J-6.35
G1 Y20
G2 X425 Y-6.35 I-26.35
G1 X410
G2 X383.65 Y20 J26.35
G1 Y60
G3 X370 Y73.65 I-13.65
G1 X85
G3 X71.35 Y60 J-13.65
G1 Y20
G2 X45 Y-6.35 I-26.35
G1 X30
G2 X3.65 Y20 J26.35
G1 Y87.628
Y144.9
Y150 Z23.822 F400.3
G2 X10 Y156.35 Z23.474 I6.35
G1 X20.856 Z23.094
Y180 Z22.269
G2 X24.972 Y185.944 Z22 I6.35
X27.206 Y186.35 I2.234 J-5.944 F849.6
G1 X157.206
G2 X163.556 Y180 J-6.35
G1 Y156.35
X288.751
Y180
G2 X295.101 Y186.35 I6.35
G1 X425.101
G2 X431.451 Y180 J-6.35
G1 Y156.35
X445
G2 X451.35 Y150 J-6.35
G1 Y20
G2 X425 Y-6.35 I-26.35
G1 X410
G2 X383.65 Y20 J26.35
G1 Y60
G3 X370 Y73.65 I-13.65
G1 X85
G3 X71.35 Y60 J-13.65
G1 Y20
G2 X45 Y-6.35 I-26.35
G1 X30
G2 X3.65 Y20 J26.35
G1 Y144.9
Y150
G2 X10 Y156.35 I6.35
G1 X20.856
Y180
G2 X24.972 Y185.944 I6.35
X27.206 Y186.35 Z21.92 I2.234 J-5.944 F400.3
G1 X82.196 Z20
X157.206 F849.6
G2 X163.556 Y180 J-6.35
G1 Y156.35
X288.751
Y180
G2 X295.101 Y186.35 I6.35
G1 X425.101
G2 X431.451 Y180 J-6.35
G1 Y156.35
X445
G2 X451.35 Y150 J-6.35
G1 Y20
G2 X425 Y-6.35 I-26.35
G1 X410
G2 X383.65 Y20 J26.35
G1 Y60
G3 X370 Y73.65 I-13.65
G1 X85
G3 X71.35 Y60 J-13.65
G1 Y20
G2 X45 Y-6.35 I-26.35
G1 X30
G2 X3.65 Y20 J26.35
G1 Y150
G2 X10 Y156.35 I6.35
G1 X20.856
Y180
G2 X27.206 Y186.35 I6.35
G1 X82.196
X139.468 Z18 F400.3
X157.206 F849.6
G2 X163.556 Y180 J-6.35
G1 Y156.35
X288.751
Y180
G2 X295.101 Y186.35 I6.35
G1 X425.101
G2 X431.451 Y180 J-6.35
G1 Y156.35
X445
G2 X451.35 Y150 J-6.35
G1 Y20
G2 X425 Y-6.35 I-26.35
G1 X410
G2 X383.65 Y20 J26.35
G1 Y60
G3 X370 Y73.65 I-13.65
G1 X85
G3 X71.35 Y60 J-13.65
G1 Y20
G2 X45 Y-6.35 I-26.35
G1 X30
G2 X3.65 Y20 J26.35
G1 Y150
G2 X10 Y156.35 I6.35
G1 X20.856
Y180
G2 X27.206 Y186.35 I6.35
G1 X139.468
X157.206 Z17.381 F400.3
G2 X163.556 Y180 Z17.032 J-6.35
G1 Y156.35 Z16.206
X169.466 Z16
X288.751 F849.6
Y180
G2 X295.101 Y186.35 I6.35
G1 X425.101
G2 X431.451 Y180 J-6.35
G1 Y156.35
X445
G2 X451.35 Y150 J-6.35
G1 Y20
G2 X425 Y-6.35 I-26.35
G1 X410
G2 X383.65 Y20 J26.35
G1 Y60
G3 X370 Y73.65 I-13.65
G1 X85
G3 X71.35 Y60 J-13.65
G1 Y20
G2 X45 Y-6.35 I-26.35
G1 X30
G2 X3.65 Y20 J26.35
G1 Y150
G2 X10 Y156.35 I6.35
G1 X20.856
Y180
G2 X27.206 Y186.35 I6.35
G1 X139.468
X157.206
G2 X163.556 Y180 J-6.35
G1 Y156.35
X169.466
X198.103 Z15 F400.3
X288.751 F849.6
Y180
G2 X295.101 Y186.35 I6.35
G1 X425.101
G2 X431.451 Y180 J-6.35
G1 Y156.35
X445
G2 X451.35 Y150 J-6.35
G1 Y20
G2 X425 Y-6.35 I-26.35
G1 X410
G2 X383.65 Y20 J26.35
G1 Y60
G3 X370 Y73.65 I-13.65
G1 X85
G3 X71.35 Y60 J-13.65
G1 Y20
G2 X45 Y-6.35 I-26.35
G1 X30
G2 X3.65 Y20 J26.35
G1 Y150
G2 X10 Y156.35 I6.35
G1 X20.856
Y180
G2 X27.206 Y186.35 I6.35
G1 X157.206
G2 X163.556 Y180 J-6.35
G1 Y156.35
X198.103
G3 X199.373 Y157.62 J1.27
G1 Y158.89
G19 G3 Y160.16 Z16.27 K1.27
G0 Z55
X954.108 Y175.128
G1 Z53.77 F849.6
X954.105 Y175.12 Z53.628
X954.097 Y175.098 Z53.487
X954.084 Y175.06 Z53.351
X954.067 Y175.009 Z53.219
X954.044 Y174.944 Z53.094
X954.017 Y174.866 Z52.978
X953.986 Y174.776 Z52.872
X953.952 Y174.676 Z52.777
X953.914 Y174.566 Z52.695
X953.873 Y174.448 Z52.626
X953.83 Y174.324 Z52.571
X953.786 Y174.194 Z52.532
X953.74 Y174.061 Z52.508
X953.694 Y173.927 Z52.5
X953.28 Y172.726
G17 G3 X954.066 Y171.112 I1.201 J-0.414
G1 X954.816 Y170.853 Z52.472 F400.3
G2 X954.99 Y170.79 Z52.466 I-2.07 J-6.003
G1 X956.332 Y170.283 Z52.416
G2 X956.505 Y170.215 Z52.409 I-2.244 J-5.94
G1 X957.829 Y169.67 Z52.359
G2 X958.003 Y169.595 Z52.353 I-2.417 J-5.872
G1 X959.303 Y169.014 Z52.303
G2 X959.48 Y168.932 Z52.296 I-2.591 J-5.797
G1 X960.752 Y168.316 Z52.247
G2 X960.93 Y168.226 Z52.24 I-2.768 J-5.715
G1 X962.171 Y167.576 Z52.191
G2 X962.347 Y167.48 Z52.184 I-2.946 J-5.625
G1 X963.553 Y166.799 Z52.135
G2 X963.731 Y166.695 Z52.128 I-3.122 J-5.529
G1 X964.9 Y165.984 Z52.081
G2 X965.082 Y165.869 Z52.073 I-3.3 J-5.425
G1 X966.212 Y165.128 Z52.026
G2 X966.387 Y165.01 Z52.018 I-3.482 J-5.31
G1 X967.476 Y164.243 Z51.972
G2 X967.653 Y164.113 Z51.964 I-3.657 J-5.192
G1 X968.7 Y163.32 Z51.918
G2 X968.867 Y163.189 Z51.911 I-3.834 J-5.062
G1 X969.874 Y162.372 Z51.866
G2 X970.029 Y162.242 Z51.859 I-4.001 J-4.931
G1 X970.996 Y161.405 Z51.814
G2 X971.146 Y161.271 Z51.807 I-4.156 J-4.801
G1 X972.076 Y160.413 Z51.763
G2 X972.201 Y160.294 Z51.757 I-4.306 J-4.667
G1 X973.097 Y159.421 Z51.713
G2 X973.21 Y159.309 Z51.707 I-4.431 J-4.548
G1 X974.076 Y158.422 Z51.664
G2 X974.191 Y158.301 Z51.658 I-4.544 J-4.436
G1 X975.86 Y156.499 Z51.573
G2 X975.922 Y156.431 Z51.569 I-4.659 J-4.315
G1 X977.535 Y154.638 Z51.485
X978.306 Y153.796 Z51.445
X979.06 Y152.998 Z51.407
X979.806 Y152.249 Z51.37
X980.549 Y151.548 Z51.334
X981.301 Y150.895 Z51.3
X982.113 Y150.255 Z51.263
X982.487 Y149.983 Z51.247
X982.903 Y149.696 Z51.23
X983.33 Y149.42 Z51.212
X983.774 Y149.15 Z51.194
X984.239 Y148.887 Z51.175
X984.73 Y148.627 Z51.156
X985.239 Y148.376 Z51.136
X985.768 Y148.135 Z51.116
X986.452 Y147.849 Z51.09
X987.171 Y147.576 Z51.063
X987.933 Y147.314 Z51.035
X988.749 Y147.062 Z51.005
X989.619 Y146.822 Z50.973
X990.546 Y146.596 Z50.94
X991.534 Y146.383 Z50.905
X992.579 Y146.186 Z50.868
X993.687 Y146.006 Z50.828
X994.861 Y145.843 Z50.787
X996.101 Y145.699 Z50.743
X997.403 Y145.574 Z50.698
X998.774 Y145.47 Z50.65
X1000.209 Y145.387 Z50.6
X1001.708 Y145.326 Z50.547
X1003.281 Y145.286 Z50.492
X1004.815 Y145.271 Z50.439
X1006.284 Y145.279 Z50.387
X1007.687 Y145.309 Z50.338
X1009.03 Y145.362 Z50.291
X1010.308 Y145.437 Z50.247
X1011.528 Y145.531 Z50.204
X1012.688 Y145.647 Z50.163
X1013.785 Y145.782 Z50.125
X1014.831 Y145.934 Z50.088
X1015.804 Y146.103 Z50.053
X1016.727 Y146.288 Z50.02
X1017.6 Y146.488 Z49.989
X1018.419 Y146.701 Z49.96
X1019.196 Y146.928 Z49.931
X1019.915 Y147.162 Z49.905
X1020.593 Y147.41 Z49.88
X1021.244 Y147.67 Z49.855
X1021.849 Y147.936 Z49.832
X1022.422 Y148.211 Z49.81
X1022.955 Y148.49 Z49.789
X1023.47 Y148.783 Z49.768
X1023.975 Y149.093 Z49.748
X1024.461 Y149.41 Z49.727
X1024.922 Y149.733 Z49.708
X1025.383 Y150.076 Z49.688
X1025.796 Y150.401 Z49.669
X1026.71 Y151.18 Z49.627
X1027.601 Y152 Z49.585
X1028.483 Y152.861 Z49.542
X1030.376 Y154.809 Z49.447
G2 X1030.398 Y154.832 Z49.446 I4.554 J-4.425
G1 X1032.368 Y156.839 Z49.348
G2 X1032.46 Y156.93 Z49.343 I4.532 J-4.448
G1 X1033.47 Y157.918 Z49.294
G2 X1033.621 Y158.061 Z49.287 I4.44 J-4.539
G1 X1034.681 Y159.032 Z49.236
G2 X1034.805 Y159.144 Z49.231 I4.289 J-4.682
G1 X1035.895 Y160.091 Z49.18
G2 X1036.091 Y160.253 Z49.171 I4.165 J-4.794
G1 X1037.241 Y161.174 Z49.12
G2 X1037.404 Y161.301 Z49.113 I3.969 J-4.956
G1 X1038.594 Y162.192 Z49.061
G2 X1038.809 Y162.346 Z49.051 I3.806 J-5.083
G1 X1040.059 Y163.203 Z48.999
G2 X1040.262 Y163.337 Z48.99 I3.591 J-5.237
G1 X1041.562 Y164.157 Z48.936
G2 X1041.767 Y164.281 Z48.928 I3.388 J-5.371
G1 X1043.117 Y165.063 Z48.874
G2 X1043.329 Y165.18 Z48.865 I3.183 J-5.495
G1 X1044.729 Y165.921 Z48.81
G2 X1044.946 Y166.031 Z48.801 I2.97 J-5.612
G1 X1046.396 Y166.729 Z48.745
G2 X1046.601 Y166.823 Z48.737 I2.754 J-5.722
G1 X1048.091 Y167.476 Z48.68
G2 X1048.292 Y167.56 Z48.673 I2.549 J-5.816
G1 X1049.812 Y168.165 Z48.616
G2 X1050.004 Y168.238 Z48.609 I2.348 J-5.9
G1 X1051.544 Y168.794 Z48.551
G2 X1051.759 Y168.867 Z48.543 I2.156 J-5.973
G1 X1053.329 Y169.371 Z48.486
G2 X1053.531 Y169.432 Z48.478 I1.941 J-6.046
G1 X1055.111 Y169.882 Z48.421
G2 X1055.326 Y169.939 Z48.413 I1.739 J-6.107
G1 X1056.916 Y170.332 Z48.356
G2 X1057.134 Y170.382 Z48.348 I1.524 J-6.164
G1 X1058.714 Y170.714 Z48.292
G2 X1058.958 Y170.761 Z48.283 I1.306 J-6.214
G1 X1060.538 Y171.029 Z48.227
G2 X1060.787 Y171.066 Z48.218 I1.062 J-6.261
G1 X1062.337 Y171.266 Z48.164
G2 X1062.559 Y171.29 Z48.156 I0.813 J-6.298
G1 X1063.329 Y171.362 Z48.129
G2 X1063.47 Y171.374 Z48.124 I0.591 J-6.322
G1 X1064.23 Y171.428 Z48.098
G2 X1064.405 Y171.438 Z48.091 I0.45 J-6.334
G1 X1065.165 Y171.471 Z48.065
G2 X1065.328 Y171.476 Z48.059 I0.275 J-6.344
G1 X1066.068 Y171.489 Z48.033
G2 X1066.249 Y171.49 Z48.027 I0.112 J-6.349
G1 X1066.989 Y171.482 Z48.001
G2 X1067.023 Y171.481 Z48 I-0.069 J-6.35
X1067.189 Y171.476 I-0.103 J-6.349 F849.6
G1 X1067.919 Y171.445
G2 X1068.14 Y171.432 I-0.269 J-6.344
G1 X1068.85 Y171.377
G2 X1069.063 Y171.357 I-0.49 J-6.331
G1 X1069.763 Y171.279
G2 X1070.006 Y171.247 I-0.703 J-6.311
G1 X1070.696 Y171.143
G2 X1070.942 Y171.101 I-0.946 J-6.279
G1 X1071.622 Y170.971
G2 X1071.879 Y170.917 I-1.192 J-6.237
G1 X1072.549 Y170.76
G2 X1072.847 Y170.682 I-1.449 J-6.183
G1 X1073.497 Y170.496
G2 X1073.809 Y170.398 I-1.747 J-6.105
G1 X1074.439 Y170.182
G2 X1074.698 Y170.087 I-2.059 J-6.007
G1 X1075.328 Y169.84
G2 X1075.688 Y169.686 I-2.318 J-5.912
G1 X1076.287 Y169.407
G2 X1076.578 Y169.262 I-2.677 J-5.758
G1 X1077.168 Y168.95
G2 X1077.46 Y168.786 I-2.969 J-5.613
G1 X1078.04 Y168.439
G2 X1078.365 Y168.231 I-3.26 J-5.449
G1 X1078.925 Y167.848
G2 X1079.244 Y167.615 I-3.585 J-5.241
G1 X1079.784 Y167.194
G2 X1080.032 Y166.991 I-3.904 J-5.008
G1 X1080.562 Y166.533
G2 X1080.851 Y166.267 I-4.152 J-4.805
G1 X1081.361 Y165.768
G2 X1081.623 Y165.496 I-4.441 J-4.539
G1 X1082.113 Y164.956
G2 X1082.35 Y164.679 I-4.703 J-4.267
G1 X1082.82 Y164.097
G2 X1082.997 Y163.867 I-4.94 J-3.99
G1 X1083.457 Y163.241
G2 X1083.689 Y162.904 I-5.117 J-3.76
G1 X1084.119 Y162.232
G2 X1084.216 Y162.075 I-5.349 J-3.423
G1 X1084.646 Y161.358
G2 X1084.829 Y161.031 I-5.446 J-3.266
G1 X1085.229 Y160.265
G2 X1085.354 Y160.012 I-5.629 J-2.939
G1 X1085.734 Y159.198
G2 X1085.818 Y159.009 I-5.754 J-2.686
G1 X1086.188 Y158.144
G2 X1086.303 Y157.857 I-5.838 J-2.497
G1 X1086.643 Y156.941
G2 X1086.701 Y156.778 I-5.953 J-2.21
G1 X1087.031 Y155.809
G2 X1087.097 Y155.605 I-6.011 J-2.047
G1 X1087.407 Y154.583
G2 X1087.462 Y154.39 I-6.077 J-1.843
G1 X1087.752 Y153.312
G2 X1087.797 Y153.133 I-6.132 J-1.65
G1 X1088.067 Y151.999
G2 X1088.094 Y151.882 I-6.177 J-1.471
G1 X1088.354 Y150.691
G2 X1088.395 Y150.486 I-6.204 J-1.354
G1 X1088.625 Y149.236
G2 X1088.642 Y149.139 I-6.245 J-1.149
G1 X1088.862 Y147.83
G2 X1088.883 Y147.695 I-6.262 J-1.052
G1 X1089.083 Y146.325
G2 X1089.106 Y146.157 I-6.283 J-0.917
G1 X1089.276 Y144.726
G2 X1089.284 Y144.654 I-6.306 J-0.749
G1 X1089.444 Y143.162
G2 X1089.454 Y143.054 I-6.314 J-0.677
G1 X1089.594 Y141.498
G2 X1089.603 Y141.398 I-6.324 J-0.569
G1 X1089.723 Y139.778
G2 X1089.726 Y139.723 I-6.333 J-0.469
G1 X1089.837 Y138.039
G2 X1089.843 Y137.915 I-6.337 J-0.414
G1 X1089.923 Y136.166
G2 X1089.925 Y136.121 I-6.343 J-0.29
G1 X1089.995 Y134.306
G2 X1089.999 Y134.196 I-6.345 J-0.245
G1 X1090.039 Y132.315
G2 Y132.278 I-6.349 J-0.135
G1 X1090.069 Y130.331
G2 X1090.07 Y130.265 I-6.349 J-0.098
G1 X1090.08 Y128.251
G2 Y128.188 I-6.35 J-0.032
G1 X1090.07 Y126.107
G2 X1090.069 Y126.049 I-6.35 J0.031
G1 X1090.039 Y123.901
G2 X1090.038 Y123.842 I-6.349 J0.089
G1 X1089.988 Y121.694
G2 X1089.987 Y121.659 I-6.348 J0.148
G1 X1089.927 Y119.579
G2 X1089.925 Y119.51 I-6.347 J0.183
G1 X1089.845 Y117.497
G2 X1089.843 Y117.455 I-6.345 J0.252
G1 X1089.753 Y115.51
G2 X1089.749 Y115.433 I-6.343 J0.294
G1 X1089.639 Y113.555
G2 X1089.634 Y113.471 I-6.339 J0.371
G1 X1089.504 Y111.66
G2 X1089.497 Y111.571 I-6.334 J0.455
G1 X1089.347 Y109.826
G2 X1089.341 Y109.768 I-6.327 J0.544
G1 X1089.181 Y108.088
G2 X1089.171 Y107.986 I-6.321 J0.602
G1 X1088.991 Y106.372
G2 X1088.983 Y106.303 I-6.311 J0.704
G1 X1088.793 Y104.753
G2 X1088.777 Y104.637 I-6.303 J0.773
G1 X1088.568 Y103.151
G2 X1088.549 Y103.027 I-6.287 J0.889
G1 X1088.319 Y101.603
G2 X1088.296 Y101.47 I-6.269 J1.013
G1 X1088.046 Y100.108
G2 X1088.027 Y100.009 I-6.246 J1.146
G1 X1087.767 Y98.709
G2 X1087.734 Y98.556 I-6.227 J1.245
G1 X1087.454 Y97.315
G2 X1087.427 Y97.199 I-6.194 J1.398
G1 X1087.137 Y96.017
G2 X1087.091 Y95.842 I-6.167 J1.513
G1 X1086.781 Y94.718
G2 X1086.726 Y94.531 I-6.121 J1.688
G1 X1086.396 Y93.464
G2 X1086.331 Y93.263 I-6.067 J1.876
G1 X1085.981 Y92.252
G2 X1085.923 Y92.092 I-6.001 J2.077
G1 X1085.563 Y91.136
G2 X1085.473 Y90.91 I-5.943 J2.236
G1 X1085.093 Y90.006
G2 X1085.013 Y89.824 I-5.853 J2.462
G1 X1084.623 Y88.973
G2 X1084.502 Y88.722 I-5.773 J2.645
G1 X1084.092 Y87.922
G2 X1083.95 Y87.661 I-5.652 J2.895
G1 X1083.521 Y86.91
G2 X1083.357 Y86.641 I-5.51 J3.156
G1 X1082.907 Y85.938
G2 X1082.758 Y85.716 I-5.347 J3.425
G1 X1082.298 Y85.06
G2 X1082.09 Y84.78 I-5.198 J3.647
G1 X1081.61 Y84.17
G2 X1081.419 Y83.939 I-4.99 J3.928
G1 X1080.929 Y83.374
G2 X1080.674 Y83.097 I-4.799 J4.159
G1 X1080.164 Y82.574
G2 X1079.885 Y82.306 I-4.544 J4.436
G1 X1079.356 Y81.826
G2 X1079.102 Y81.608 I-4.266 J4.704
G1 X1078.562 Y81.167
G2 X1078.291 Y80.958 I-4.012 J4.922
G1 X1077.741 Y80.557
G2 X1077.371 Y80.307 I-3.741 J5.131
G1 X1076.791 Y79.944
G2 X1076.537 Y79.793 I-3.371 J5.381
G1 X1075.957 Y79.466
G2 X1075.615 Y79.287 I-3.117 J5.532
G1 X1075.015 Y78.995
G2 X1074.676 Y78.843 I-2.775 J5.712
G1 X1074.056 Y78.585
G2 X1073.755 Y78.469 I-2.436 J5.864
G1 X1073.125 Y78.244
G2 X1072.828 Y78.146 I-2.135 J5.98
G1 X1072.188 Y77.952
G2 X1071.875 Y77.867 I-1.838 J6.078
G1 X1071.215 Y77.703
G2 X1070.937 Y77.641 I-1.525 J6.164
G1 X1070.267 Y77.507
G2 X1070.001 Y77.459 I-1.247 J6.226
G1 X1069.321 Y77.353
G2 X1069.057 Y77.318 I-0.981 J6.274
G1 X1068.357 Y77.238
G2 X1068.128 Y77.216 I-0.717 J6.309
G1 X1067.427 Y77.162
G2 X1067.197 Y77.149 I-0.488 J6.331
G1 X1066.477 Y77.119
G2 X1066.269 Y77.114 I-0.257 J6.345
G1 X1065.539 Y77.109
G2 X1065.34 Y77.11 I-0.049 J6.35
G1 X1064.61 Y77.128
G2 X1064.431 Y77.134 I0.15 J6.348
G1 X1063.681 Y77.173
G2 X1063.505 Y77.185 I0.329 J6.341
G1 X1062.755 Y77.245
G2 X1062.595 Y77.259 I0.505 J6.33
G1 X1061.835 Y77.339
G2 X1061.677 Y77.358 I0.665 J6.315
G1 X1060.917 Y77.457
G2 X1060.714 Y77.487 I0.823 J6.296
G1 X1059.164 Y77.741
G2 X1058.911 Y77.788 I1.026 J6.267
G1 X1057.341 Y78.111
G2 X1057.099 Y78.165 I1.279 J6.22
G1 X1055.529 Y78.553
G2 X1055.308 Y78.611 I1.521 J6.165
G1 X1053.738 Y79.059
G2 X1053.525 Y79.124 I1.742 J6.106
G1 X1051.965 Y79.629
G2 X1051.767 Y79.697 I1.955 J6.042
G1 X1050.217 Y80.255
G2 X1050.02 Y80.33 I2.153 J5.974
G1 X1048.49 Y80.94
G2 X1048.289 Y81.024 I2.35 J5.899
G1 X1046.789 Y81.682
G2 X1046.582 Y81.777 I2.551 J5.815
G1 X1045.122 Y82.481
G2 X1044.921 Y82.582 I2.758 J5.72
G1 X1043.501 Y83.33
G2 X1043.307 Y83.437 I2.959 J5.619
G1 X1041.927 Y84.226
G2 X1041.704 Y84.36 I3.153 J5.512
G1 X1040.384 Y85.188
G2 X1040.183 Y85.32 I3.376 J5.378
G1 X1038.913 Y86.185
G2 X1038.72 Y86.322 I3.577 J5.247
G1 X1037.5 Y87.222
G2 X1037.293 Y87.382 I3.77 J5.11
G1 X1036.133 Y88.313
G2 X1035.955 Y88.462 I3.977 J4.951
G1 X1034.845 Y89.422
G2 X1034.699 Y89.553 I4.155 J4.802
G1 X1033.629 Y90.538
G2 X1033.448 Y90.711 I4.302 J4.671
G1 X1032.438 Y91.718
G2 X1032.357 Y91.8 I4.482 J4.498
G1 X1031.367 Y92.823
G2 X1031.236 Y92.962 I4.563 J4.416
G1 X1029.346 Y95.037
G2 X1029.335 Y95.049 I4.694 J4.277
G1 X1027.505 Y97.069
X1026.663 Y97.955
X1025.805 Y98.797
X1024.903 Y99.62
X1024.492 Y99.969
X1024.067 Y100.311
X1023.614 Y100.65
X1023.137 Y100.987
X1022.655 Y101.305
X1022.144 Y101.617
X1021.604 Y101.924
X1021.046 Y102.217
X1020.442 Y102.508
X1019.807 Y102.79
X1019.153 Y103.055
X1018.438 Y103.315
X1017.667 Y103.57
X1016.856 Y103.812
X1015.988 Y104.043
X1015.078 Y104.259
X1014.104 Y104.462
X1013.067 Y104.651
X1011.972 Y104.823
X1010.815 Y104.979
X1009.604 Y105.118
X1008.33 Y105.237
X1006.987 Y105.336
X1005.582 Y105.415
X1004.112 Y105.475
X1002.591 Y105.513
X1001.017 Y105.528
X999.513 Y105.519
X998.076 Y105.486
X996.701 Y105.43
X995.395 Y105.351
X994.155 Y105.251
X992.976 Y105.128
X991.86 Y104.987
X990.807 Y104.826
X989.811 Y104.648
X988.878 Y104.454
X988.005 Y104.246
X987.178 Y104.022
X986.402 Y103.786
X985.679 Y103.54
X984.987 Y103.278
X984.449 Y103.055
X983.931 Y102.821
X983.431 Y102.579
X982.959 Y102.333
X982.504 Y102.078
X982.064 Y101.815
X981.64 Y101.544
X981.259 Y101.287
X980.425 Y100.674
X979.648 Y100.046
X978.882 Y99.373
X978.112 Y98.651
X977.332 Y97.881
X976.53 Y97.064
X974.853 Y95.328
G2 X974.791 Y95.265 I-4.568 J4.411
G1 X973.061 Y93.522
G2 X972.94 Y93.404 I-4.506 J4.474
G1 X972.043 Y92.547
G2 X971.929 Y92.441 I-4.385 J4.593
G1 X971.003 Y91.599
G2 X970.871 Y91.482 I-4.271 J4.699
G1 X969.912 Y90.658
G2 X969.761 Y90.532 I-4.139 J4.816
G1 X968.765 Y89.729
G2 X968.604 Y89.603 I-3.988 J4.942
G1 X967.57 Y88.822
G2 X967.395 Y88.695 I-3.827 J5.067
G1 X966.32 Y87.939
G2 X966.143 Y87.819 I-3.652 J5.195
G1 X965.028 Y87.09
G2 X964.846 Y86.975 I-3.475 J5.315
G1 X963.691 Y86.275
G2 X963.508 Y86.168 I-3.293 J5.43
G1 X962.315 Y85.498
G2 X962.133 Y85.399 I-3.11 J5.536
G1 X960.904 Y84.761
G2 X960.722 Y84.67 I-2.928 J5.635
G1 X959.459 Y84.064
G2 X959.279 Y83.981 I-2.746 J5.726
G1 X957.986 Y83.41
G2 X957.809 Y83.335 I-2.566 J5.808
G1 X956.49 Y82.8
G2 X956.312 Y82.73 I-2.389 J5.883
G1 X954.97 Y82.232
G2 X954.793 Y82.169 I-2.211 J5.953
G1 X953.433 Y81.709
G2 X953.257 Y81.652 I-2.034 J6.015
G1 X951.885 Y81.232
G2 X951.703 Y81.18 I-1.858 J6.072
G1 X950.323 Y80.802
G2 X950.135 Y80.754 I-1.676 J6.125
G1 X948.751 Y80.42
G2 X948.558 Y80.377 I-1.488 J6.173
G1 X947.178 Y80.089
G2 X946.97 Y80.05 I-1.295 J6.217
G1 X945.596 Y79.811
G2 X945.375 Y79.776 I-1.087 J6.256
G1 X944.015 Y79.589
G2 X943.772 Y79.561 I-0.866 J6.291
G1 X942.429 Y79.428
G2 X942.16 Y79.407 I-0.623 J6.319
G1 X940.838 Y79.333
G2 X940.539 Y79.324 I-0.354 J6.34
G1 X939.245 Y79.313
G2 X938.91 Y79.318 I-0.055 J6.35
G1 X937.646 Y79.374
G2 X937.37 Y79.392 I0.28 J6.344
G1 X936.75 Y79.447
G2 X936.551 Y79.468 I0.556 J6.326
G1 X935.94 Y79.541
G2 X935.728 Y79.57 I0.755 J6.305
G1 X935.127 Y79.662
G2 X934.907 Y79.7 I0.967 J6.276
G1 X934.316 Y79.813
G2 X934.084 Y79.861 I1.187 J6.238
G1 X933.502 Y79.995
G2 X933.259 Y80.055 I1.419 J6.189
G1 X932.688 Y80.21
G2 X932.435 Y80.285 I1.661 J6.129
G1 X931.875 Y80.462
G2 X931.614 Y80.551 I1.915 J6.054
G1 X931.065 Y80.751
G2 X930.8 Y80.854 I2.176 J5.965
G1 X930.262 Y81.078
G2 X929.988 Y81.2 I2.441 J5.862
G1 X929.462 Y81.449
G2 X929.187 Y81.587 I2.715 J5.74
G1 X928.673 Y81.861
G2 X928.406 Y82.013 I2.99 J5.602
G1 X927.903 Y82.313
G2 X927.628 Y82.487 I3.257 J5.451
G1 X927.138 Y82.815
G2 X926.873 Y83.003 I3.531 J5.277
G1 X926.396 Y83.358
G2 X926.145 Y83.556 I3.797 J5.089
G1 X925.68 Y83.941
G2 X925.436 Y84.153 I4.048 J4.892
G1 X924.984 Y84.568
G2 X924.755 Y84.789 I4.292 J4.68
G1 X924.315 Y85.234
G2 X924.102 Y85.462 I4.521 J4.459
G1 X923.676 Y85.939
G2 X923.475 Y86.175 I4.735 J4.231
G1 X923.063 Y86.684
G2 X922.884 Y86.916 I4.936 J3.995
G1 X922.485 Y87.459
G2 X922.319 Y87.694 I5.115 J3.762
G1 X921.934 Y88.271
G2 X921.79 Y88.497 I5.281 J3.527
G1 X921.418 Y89.109
G2 X921.286 Y89.336 I5.425 J3.3
G1 X920.928 Y89.983
G2 X920.812 Y90.204 I5.557 J3.073
G1 X920.468 Y90.888
G2 X920.366 Y91.1 I5.673 J2.853
G1 X920.036 Y91.821
G2 X919.95 Y92.018 I5.775 J2.641
G1 X919.633 Y92.778
G2 X919.554 Y92.977 I5.861 J2.444
G1 X919.252 Y93.777
G2 X919.186 Y93.96 I5.94 J2.245
G1 X918.898 Y94.8
G2 X918.841 Y94.973 I6.006 J2.061
G1 X918.567 Y95.853
G2 X918.517 Y96.023 I6.063 J1.888
G1 X918.258 Y96.944
G2 X918.218 Y97.092 I6.113 J1.718
G1 X917.972 Y98.056
G2 X917.936 Y98.206 I6.153 J1.57
G1 X917.705 Y99.213
G2 X917.675 Y99.349 I6.189 J1.42
G1 X917.458 Y100.4
G2 X917.433 Y100.528 I6.219 J1.284
G1 X917.23 Y101.624
G2 X917.209 Y101.747 I6.244 J1.156
G1 X917.021 Y102.887
G2 X917.003 Y102.999 I6.265 J1.033
G1 X916.829 Y104.186
G2 X916.815 Y104.289 I6.283 J0.921
G1 X916.655 Y105.521
G2 X916.642 Y105.624 I6.297 J0.818
G1 X916.497 Y106.904
G2 X916.488 Y106.996 I6.31 J0.715
G1 X916.357 Y108.324
G2 X916.349 Y108.409 I6.319 J0.623
G1 X916.232 Y109.784
G2 X916.225 Y109.868 I6.327 J0.538
G1 X916.123 Y111.292
G2 X916.119 Y111.363 I6.334 J0.454
G1 X916.03 Y112.836
G2 X916.025 Y112.915 I6.338 J0.383
G1 X915.952 Y114.438
G2 X915.95 Y114.5 I6.343 J0.304
G1 X915.89 Y116.072
G2 X915.887 Y116.138 I6.345 J0.242
G1 X915.842 Y117.761
G2 X915.841 Y117.819 I6.348 J0.176
G1 X915.81 Y119.491
G2 X915.809 Y119.546 I6.349 J0.118
G1 X915.792 Y121.27
G2 Y121.326 I6.35 J0.063
G1 X915.79 Y123.1
G2 Y123.149 I6.35 J0.007
G1 X915.802 Y124.975
G2 X915.803 Y125.021 I6.35 J-0.042
G1 X915.829 Y126.897
G2 Y126.941 I6.349 J-0.088
G1 X915.868 Y128.817
G2 X915.87 Y128.866 I6.349 J-0.132
G1 X915.922 Y130.691
G2 X915.923 Y130.739 I6.347 J-0.181
G1 X915.987 Y132.512
G2 X915.989 Y132.567 I6.346 J-0.229
G1 X916.066 Y134.289
G2 X916.069 Y134.343 I6.344 J-0.284
G1 X916.158 Y136.014
G2 X916.162 Y136.075 I6.341 J-0.338
G1 X916.264 Y137.695
G2 X916.268 Y137.76 I6.337 J-0.399
G1 X916.383 Y139.329
G2 X916.388 Y139.394 I6.333 J-0.464
G1 X916.515 Y140.913
G2 X916.521 Y140.982 I6.328 J-0.529
G1 X916.66 Y142.451
G2 X916.668 Y142.529 I6.322 J-0.598
G1 X916.82 Y143.949
G2 X916.83 Y144.032 I6.314 J-0.676
G1 X916.995 Y145.402
G2 X917.005 Y145.486 I6.304 J-0.759
G1 X917.182 Y146.808
G2 X917.195 Y146.902 I6.294 J-0.843
G1 X917.385 Y148.176
G2 X917.401 Y148.275 I6.281 J-0.937
G1 X917.604 Y149.502
G2 X917.622 Y149.604 I6.265 J-1.036
G1 X917.837 Y150.784
G2 X917.859 Y150.899 I6.247 J-1.138
G1 X918.087 Y152.032
G2 X918.113 Y152.153 I6.225 J-1.253
G1 X918.354 Y153.24
G2 X918.382 Y153.363 I6.199 J-1.374
G1 X918.635 Y154.406
G2 X918.671 Y154.549 I6.171 J-1.497
G1 X918.938 Y155.548
G2 X918.978 Y155.69 I6.135 J-1.64
G1 X919.257 Y156.644
G2 X919.302 Y156.792 I6.095 J-1.782
G1 X919.594 Y157.704
G2 X919.651 Y157.875 I6.049 J-1.93
G1 X919.956 Y158.745
G2 X920.017 Y158.912 I5.992 J-2.101
G1 X920.334 Y159.741
G2 X920.408 Y159.926 I5.931 J-2.268
G1 X920.738 Y160.714
G2 X920.819 Y160.899 I5.857 J-2.453
G1 X921.161 Y161.648
G2 X921.259 Y161.853 I5.776 J-2.638
G1 X921.614 Y162.562
G2 X921.722 Y162.769 I5.678 J-2.843
G1 X922.09 Y163.441
G2 X922.215 Y163.658 I5.57 J-3.05
G1 X922.596 Y164.293
G2 X922.73 Y164.507 I5.445 J-3.267
G1 X923.122 Y165.105
G2 X923.286 Y165.343 I5.311 J-3.481
G1 X923.692 Y165.905
G2 X923.852 Y166.117 I5.147 J-3.719
G1 X924.269 Y166.646
G2 X924.466 Y166.884 I4.987 J-3.931
G1 X924.896 Y167.378
G2 X925.098 Y167.599 I4.79 J-4.169
G1 X925.54 Y168.061
G2 X925.772 Y168.291 I4.588 J-4.39
G1 X926.227 Y168.72
G2 X926.453 Y168.923 I4.356 J-4.62
G1 X926.919 Y169.322
G2 X927.175 Y169.531 I4.13 J-4.823
G1 X927.653 Y169.899
G2 X927.909 Y170.086 I3.874 J-5.032
G1 X928.398 Y170.425
G2 X928.667 Y170.601 I3.618 J-5.219
G1 X929.168 Y170.912
G2 X929.45 Y171.077 I3.349 J-5.395
G1 X929.963 Y171.36
G2 X930.243 Y171.506 I3.067 J-5.56
G1 X930.767 Y171.762
G2 X931.042 Y171.888 I2.787 J-5.706
G1 X931.576 Y172.118
G2 X931.852 Y172.229 I2.512 J-5.832
G1 X932.397 Y172.434
G2 X932.667 Y172.529 I2.236 J-5.943
G1 X933.223 Y172.71
G2 X933.482 Y172.788 I1.966 J-6.038
G1 X934.048 Y172.946
G2 X934.306 Y173.012 I1.707 J-6.116
G1 X934.882 Y173.147
G2 X935.129 Y173.2 I1.449 J-6.182
G1 X935.715 Y173.313
G2 X935.957 Y173.355 I1.202 J-6.235
G1 X936.552 Y173.446
G2 X936.76 Y173.474 I0.96 J-6.277
G1 X937.364 Y173.546
G2 X937.579 Y173.568 I0.752 J-6.305
G1 X938.192 Y173.62
G2 X938.392 Y173.634 I0.537 J-6.327
G1 X939.013 Y173.667
G2 X939.295 Y173.676 I0.337 J-6.341
G1 X940.56 Y173.687
G2 X940.89 Y173.681 I0.055 J-6.35
G1 X942.184 Y173.625
G2 X942.485 Y173.605 I-0.275 J-6.344
G1 X943.803 Y173.485
G2 X944.07 Y173.455 I-0.576 J-6.324
G1 X945.407 Y173.276
G2 X945.65 Y173.238 I-0.843 J-6.294
G1 X947.004 Y173.003
G2 X947.225 Y172.961 I-1.086 J-6.256
G1 X948.589 Y172.674
G2 X948.79 Y172.628 I-1.307 J-6.214
G1 X950.16 Y172.293
G2 X950.358 Y172.242 I-1.508 J-6.168
G1 X951.728 Y171.86
G2 X951.907 Y171.807 I-1.706 J-6.117
G1 X953.274 Y171.382
G2 X953.459 Y171.321 I-1.885 J-6.064
G1 X954.816 Y170.853
G2 X954.99 Y170.79 I-2.07 J-6.003
G1 X956.332 Y170.283
G2 X956.505 Y170.215 I-2.244 J-5.94
G1 X957.829 Y169.67
G2 X958.003 Y169.595 I-2.417 J-5.872
G1 X959.303 Y169.014
G2 X959.48 Y168.932 I-2.591 J-5.797
G1 X960.752 Y168.316
G2 X960.93 Y168.226 I-2.768 J-5.715
G1 X962.171 Y167.576
G2 X962.347 Y167.48 I-2.946 J-5.625
G1 X963.553 Y166.799
G2 X963.731 Y166.695 I-3.122 J-5.529
G1 X964.9 Y165.984
G2 X965.082 Y165.869 I-3.3 J-5.425
G1 X966.212 Y165.128
G2 X966.387 Y165.01 I-3.482 J-5.31
G1 X967.476 Y164.243
G2 X967.653 Y164.113 I-3.657 J-5.192
G1 X968.7 Y163.32
G2 X968.867 Y163.189 I-3.834 J-5.062
G1 X969.874 Y162.372
G2 X970.029 Y162.242 I-4.001 J-4.931
G1 X970.996 Y161.405
G2 X971.146 Y161.271 I-4.156 J-4.801
G1 X972.076 Y160.413
G2 X972.201 Y160.294 I-4.306 J-4.667
G1 X973.097 Y159.421
G2 X973.21 Y159.309 I-4.431 J-4.548
G1 X974.076 Y158.422
G2 X974.191 Y158.301 I-4.544 J-4.436
G1 X975.86 Y156.499
G2 X975.922 Y156.431 I-4.659 J-4.315
G1 X977.535 Y154.638
X978.306 Y153.796
X979.06 Y152.998
X979.806 Y152.249
X980.549 Y151.548
X981.301 Y150.895
X982.113 Y150.255
X982.487 Y149.983
X982.903 Y149.696
X983.33 Y149.42
X983.774 Y149.15
X984.239 Y148.887
X984.73 Y148.627
X985.239 Y148.376
X985.768 Y148.135
X986.452 Y147.849
X987.171 Y147.576
X987.933 Y147.314
X988.749 Y147.062
X989.619 Y146.822
X990.546 Y146.596
X991.534 Y146.383
X992.579 Y146.186
X993.687 Y146.006
X994.861 Y145.843
X996.101 Y145.699
X997.403 Y145.574
X998.774 Y145.47
X1000.209 Y145.387
X1001.708 Y145.326
X1003.281 Y145.286
X1004.815 Y145.271
X1006.284 Y145.279
X1007.687 Y145.309
X1009.03 Y145.362
X1010.308 Y145.437
X1011.528 Y145.531
X1012.688 Y145.647
X1013.785 Y145.782
X1014.831 Y145.934
X1015.804 Y146.103
X1016.727 Y146.288
X1017.6 Y146.488
X1018.419 Y146.701
X1019.196 Y146.928
X1019.915 Y147.162
X1020.593 Y147.41
X1021.244 Y147.67
X1021.849 Y147.936
X1022.422 Y148.211
X1022.955 Y148.49
X1023.47 Y148.783
X1023.975 Y149.093
X1024.461 Y149.41
X1024.922 Y149.733
X1025.383 Y150.076
X1025.796 Y150.401
X1026.71 Y151.18
X1027.601 Y152
X1028.483 Y152.861
X1030.376 Y154.809
G2 X1030.398 Y154.832 I4.554 J-4.425
G1 X1032.368 Y156.839
G2 X1032.46 Y156.93 I4.532 J-4.448
G1 X1033.47 Y157.918
G2 X1033.621 Y158.061 I4.44 J-4.539
G1 X1034.681 Y159.032
G2 X1034.805 Y159.144 I4.289 J-4.682
G1 X1035.895 Y160.091
G2 X1036.091 Y160.253 I4.165 J-4.794
G1 X1037.241 Y161.174
G2 X1037.404 Y161.301 I3.969 J-4.956
G1 X1038.594 Y162.192
G2 X1038.809 Y162.346 I3.806 J-5.083
G1 X1040.059 Y163.203
G2 X1040.262 Y163.337 I3.591 J-5.237
G1 X1041.562 Y164.157
G2 X1041.767 Y164.281 I3.388 J-5.371
G1 X1043.117 Y165.063
G2 X1043.329 Y165.18 I3.183 J-5.495
G1 X1044.729 Y165.921
G2 X1044.946 Y166.031 I2.97 J-5.612
G1 X1046.396 Y166.729
G2 X1046.601 Y166.823 I2.754 J-5.722
G1 X1048.091 Y167.476
G2 X1048.292 Y167.56 I2.549 J-5.816
G1 X1049.812 Y168.165
G2 X1050.004 Y168.238 I2.348 J-5.9
G1 X1051.544 Y168.794
G2 X1051.759 Y168.867 I2.156 J-5.973
G1 X1053.329 Y169.371
G2 X1053.531 Y169.432 I1.941 J-6.046
G1 X1055.111 Y169.882
G2 X1055.326 Y169.939 I1.739 J-6.107
G1 X1056.916 Y170.332
G2 X1057.134 Y170.382 I1.524 J-6.164
G1 X1058.714 Y170.714
G2 X1058.958 Y170.761 I1.306 J-6.214
G1 X1060.538 Y171.029
G2 X1060.787 Y171.066 I1.062 J-6.261
G1 X1062.337 Y171.266
G2 X1062.559 Y171.29 I0.813 J-6.298
G1 X1063.329 Y171.362
G2 X1063.47 Y171.374 I0.591 J-6.322
G1 X1064.23 Y171.428
G2 X1064.405 Y171.438 I0.45 J-6.334
G1 X1065.165 Y171.471
G2 X1065.328 Y171.476 I0.275 J-6.344
G1 X1066.068 Y171.489
G2 X1066.249 Y171.49 I0.112 J-6.349
G1 X1066.989 Y171.482
G2 X1067.023 Y171.481 I-0.069 J-6.35
X1067.189 Y171.476 Z47.994 I-0.103 J-6.349 F400.3
G1 X1067.919 Y171.445 Z47.969
G2 X1068.14 Y171.432 Z47.961 I-0.269 J-6.344
G1 X1068.85 Y171.377 Z47.936
G2 X1069.063 Y171.357 Z47.929 I-0.49 J-6.331
G1 X1069.763 Y171.279 Z47.904
G2 X1070.006 Y171.247 Z47.895 I-0.703 J-6.311
G1 X1070.696 Y171.143 Z47.871
G2 X1070.942 Y171.101 Z47.862 I-0.946 J-6.279
G1 X1071.622 Y170.971 Z47.838
G2 X1071.879 Y170.917 Z47.829 I-1.192 J-6.237
G1 X1072.549 Y170.76 Z47.805
G2 X1072.847 Y170.682 Z47.794 I-1.449 J-6.183
G1 X1073.497 Y170.496 Z47.771
G2 X1073.809 Y170.398 Z47.759 I-1.747 J-6.105
G1 X1074.439 Y170.182 Z47.736
G2 X1074.698 Y170.087 Z47.726 I-2.059 J-6.007
G1 X1075.328 Y169.84 Z47.703
G2 X1075.688 Y169.686 Z47.689 I-2.318 J-5.912
G1 X1076.287 Y169.407 Z47.666
G2 X1076.578 Y169.262 Z47.655 I-2.677 J-5.758
G1 X1077.168 Y168.95 Z47.631
G2 X1077.46 Y168.786 Z47.62 I-2.969 J-5.613
G1 X1078.04 Y168.439 Z47.596
G2 X1078.365 Y168.231 Z47.582 I-3.26 J-5.449
G1 X1078.925 Y167.848 Z47.559
G2 X1079.244 Y167.615 Z47.545 I-3.585 J-5.241
G1 X1079.784 Y167.194 Z47.521
G2 X1080.032 Y166.991 Z47.51 I-3.904 J-5.008
G1 X1080.562 Y166.533 Z47.485
G2 X1080.851 Y166.267 Z47.472 I-4.152 J-4.805
G1 X1081.361 Y165.768 Z47.447
G2 X1081.623 Y165.496 Z47.434 I-4.441 J-4.539
G1 X1082.113 Y164.956 Z47.408
G2 X1082.35 Y164.679 Z47.395 I-4.703 J-4.267
G1 X1082.82 Y164.097 Z47.369
G2 X1082.997 Y163.867 Z47.359 I-4.94 J-3.99
G1 X1083.457 Y163.241 Z47.332
G2 X1083.689 Y162.904 Z47.318 I-5.117 J-3.76
G1 X1084.119 Y162.232 Z47.29
G2 X1084.216 Y162.075 Z47.283 I-5.349 J-3.423
G1 X1084.646 Y161.358 Z47.254
G2 X1084.829 Y161.031 Z47.241 I-5.446 J-3.266
G1 X1085.229 Y160.265 Z47.211
G2 X1085.354 Y160.012 Z47.201 I-5.629 J-2.939
G1 X1085.734 Y159.198 Z47.17
G2 X1085.818 Y159.009 Z47.163 I-5.754 J-2.686
G1 X1086.188 Y158.144 Z47.13
G2 X1086.303 Y157.857 Z47.119 I-5.838 J-2.497
G1 X1086.643 Y156.941 Z47.085
G2 X1086.701 Y156.778 Z47.079 I-5.953 J-2.21
G1 X1087.031 Y155.809 Z47.043
G2 X1087.097 Y155.605 Z47.035 I-6.011 J-2.047
G1 X1087.407 Y154.583 Z46.998
G2 X1087.462 Y154.39 Z46.991 I-6.077 J-1.843
G1 X1087.752 Y153.312 Z46.952
G2 X1087.797 Y153.133 Z46.946 I-6.132 J-1.65
G1 X1088.067 Y151.999 Z46.905
G2 X1088.094 Y151.882 Z46.901 I-6.177 J-1.471
G1 X1088.354 Y150.691 Z46.858
G2 X1088.395 Y150.486 Z46.851 I-6.204 J-1.354
G1 X1088.625 Y149.236 Z46.807
G2 X1088.642 Y149.139 Z46.803 I-6.245 J-1.149
G1 X1088.862 Y147.83 Z46.757
G2 X1088.883 Y147.695 Z46.752 I-6.262 J-1.052
G1 X1089.083 Y146.325 Z46.704
G2 X1089.106 Y146.157 Z46.698 I-6.283 J-0.917
G1 X1089.276 Y144.726 Z46.647
G2 X1089.284 Y144.654 Z46.645 I-6.306 J-0.749
G1 X1089.444 Y143.162 Z46.593
G2 X1089.454 Y143.054 Z46.589 I-6.314 J-0.677
G1 X1089.594 Y141.498 Z46.534
G2 X1089.603 Y141.398 Z46.531 I-6.324 J-0.569
G1 X1089.723 Y139.778 Z46.474
G2 X1089.726 Y139.723 Z46.472 I-6.333 J-0.469
G1 X1089.837 Y138.039 Z46.413
G2 X1089.843 Y137.915 Z46.409 I-6.337 J-0.414
G1 X1089.923 Y136.166 Z46.348
G2 X1089.925 Y136.121 Z46.346 I-6.343 J-0.29
G1 X1089.995 Y134.306 Z46.283
G2 X1089.999 Y134.196 Z46.279 I-6.345 J-0.245
G1 X1090.039 Y132.315 Z46.213
G2 Y132.278 Z46.212 I-6.349 J-0.135
G1 X1090.069 Y130.331 Z46.144
G2 X1090.07 Y130.265 Z46.141 I-6.349 J-0.098
G1 X1090.08 Y128.251 Z46.071
G2 Y128.188 Z46.069 I-6.35 J-0.032
G1 X1090.07 Y126.214 Z46
Y126.107 F849.6
G2 X1090.069 Y126.049 I-6.35 J0.031
G1 X1090.039 Y123.901
G2 X1090.038 Y123.842 I-6.349 J0.089
G1 X1089.988 Y121.694
G2 X1089.987 Y121.659 I-6.348 J0.148
G1 X1089.927 Y119.579
G2 X1089.925 Y119.51 I-6.347 J0.183
G1 X1089.845 Y117.497
G2 X1089.843 Y117.455 I-6.345 J0.252
G1 X1089.753 Y115.51
G2 X1089.749 Y115.433 I-6.343 J0.294
G1 X1089.639 Y113.555
G2 X1089.634 Y113.471 I-6.339 J0.371
G1 X1089.504 Y111.66
G2 X1089.497 Y111.571 I-6.334 J0.455
G1 X1089.347 Y109.826
G2 X1089.341 Y109.768 I-6.327 J0.544
G1 X1089.181 Y108.088
G2 X1089.171 Y107.986 I-6.321 J0.602
G1 X1088.991 Y106.372
G2 X1088.983 Y106.303 I-6.311 J0.704
G1 X1088.793 Y104.753
G2 X1088.777 Y104.637 I-6.303 J0.773
G1 X1088.568 Y103.151
G2 X1088.549 Y103.027 I-6.287 J0.889
G1 X1088.319 Y101.603
G2 X1088.296 Y101.47 I-6.269 J1.013
G1 X1088.046 Y100.108
G2 X1088.027 Y100.009 I-6.246 J1.146
G1 X1087.767 Y98.709
G2 X1087.734 Y98.556 I-6.227 J1.245
G1 X1087.454 Y97.315
G2 X1087.427 Y97.199 I-6.194 J1.398
G1 X1087.137 Y96.017
G2 X1087.091 Y95.842 I-6.167 J1.513
G1 X1086.781 Y94.718
G2 X1086.726 Y94.531 I-6.121 J1.688
G1 X1086.396 Y93.464
G2 X1086.331 Y93.263 I-6.067 J1.876
G1 X1085.981 Y92.252
G2 X1085.923 Y92.092 I-6.001 J2.077
G1 X1085.563 Y91.136
G2 X1085.473 Y90.91 I-5.943 J2.236
G1 X1085.093 Y90.006
G2 X1085.013 Y89.824 I-5.853 J2.462
G1 X1084.623 Y88.973
G2 X1084.502 Y88.722 I-5.773 J2.645
G1 X1084.092 Y87.922
G2 X1083.95 Y87.661 I-5.652 J2.895
G1 X1083.521 Y86.91
G2 X1083.357 Y86.641 I-5.51 J3.156
G1 X1082.907 Y85.938
G2 X1082.758 Y85.716 I-5.347 J3.425
G1 X1082.298 Y85.06
G2 X1082.09 Y84.78 I-5.198 J3.647
G1 X1081.61 Y84.17
G2 X1081.419 Y83.939 I-4.99 J3.928
G1 X1080.929 Y83.374
G2 X1080.674 Y83.097 I-4.799 J4.159
G1 X1080.164 Y82.574
G2 X1079.885 Y82.306 I-4.544 J4.436
G1 X1079.356 Y81.826
G2 X1079.102 Y81.608 I-4.266 J4.704
G1 X1078.562 Y81.167
G2 X1078.291 Y80.958 I-4.012 J4.922
G1 X1077.741 Y80.557
G2 X1077.371 Y80.307 I-3.741 J5.131
G1 X1076.791 Y79.944
G2 X1076.537 Y79.793 I-3.371 J5.381
G1 X1075.957 Y79.466
G2 X1075.615 Y79.287 I-3.117 J5.532
G1 X1075.015 Y78.995
G2 X1074.676 Y78.843 I-2.775 J5.712
G1 X1074.056 Y78.585
G2 X1073.755 Y78.469 I-2.436 J5.864
G1 X1073.125 Y78.244
G2 X1072.828 Y78.146 I-2.135 J5.98
G1 X1072.188 Y77.952
G2 X1071.875 Y77.867 I-1.838 J6.078
G1 X1071.215 Y77.703
G2 X1070.937 Y77.641 I-1.525 J6.164
G1 X1070.267 Y77.507
G2 X1070.001 Y77.459 I-1.247 J6.226
G1 X1069.321 Y77.353
G2 X1069.057 Y77.318 I-0.981 J6.274
G1 X1068.357 Y77.238
G2 X1068.128 Y77.216 I-0.717 J6.309
G1 X1067.427 Y77.162
G2 X1067.197 Y77.149 I-0.488 J6.331
G1 X1066.477 Y77.119
G2 X1066.269 Y77.114 I-0.257 J6.345
G1 X1065.539 Y77.109
G2 X1065.34 Y77.11 I-0.049 J6.35
G1 X1064.61 Y77.128
G2 X1064.431 Y77.134 I0.15 J6.348
G1 X1063.681 Y77.173
G2 X1063.505 Y77.185 I0.329 J6.341
G1 X1062.755 Y77.245
G2 X1062.595 Y77.259 I0.505 J6.33
G1 X1061.835 Y77.339
G2 X1061.677 Y77.358 I0.665 J6.315
G1 X1060.917 Y77.457
G2 X1060.714 Y77.487 I0.823 J6.296
G1 X1059.164 Y77.741
G2 X1058.911 Y77.788 I1.026 J6.267
G1 X1057.341 Y78.111
G2 X1057.099 Y78.165 I1.279 J6.22
G1 X1055.529 Y78.553
G2 X1055.308 Y78.611 I1.521 J6.165
G1 X1053.738 Y79.059
G2 X1053.525 Y79.124 I1.742 J6.106
G1 X1051.965 Y79.629
G2 X1051.767 Y79.697 I1.955 J6.042
G1 X1050.217 Y80.255
G2 X1050.02 Y80.33 I2.153 J5.974
G1 X1048.49 Y80.94
G2 X1048.289 Y81.024 I2.35 J5.899
G1 X1046.789 Y81.682
G2 X1046.582 Y81.777 I2.551 J5.815
G1 X1045.122 Y82.481
G2 X1044.921 Y82.582 I2.758 J5.72
G1 X1043.501 Y83.33
G2 X1043.307 Y83.437 I2.959 J5.619
G1 X1041.927 Y84.226
G2 X1041.704 Y84.36 I3.153 J5.512
G1 X1040.384 Y85.188
G2 X1040.183 Y85.32 I3.376 J5.378
G1 X1038.913 Y86.185
G2 X1038.72 Y86.322 I3.577 J5.247
G1 X1037.5 Y87.222
G2 X1037.293 Y87.382 I3.77 J5.11
G1 X1036.133 Y88.313
G2 X1035.955 Y88.462 I3.977 J4.951
G1 X1034.845 Y89.422
G2 X1034.699 Y89.553 I4.155 J4.802
G1 X1033.629 Y90.538
G2 X1033.448 Y90.711 I4.302 J4.671
G1 X1032.438 Y91.718
G2 X1032.357 Y91.8 I4.482 J4.498
G1 X1031.367 Y92.823
G2 X1031.236 Y92.962 I4.563 J4.416
G1 X1029.346 Y95.037
G2 X1029.335 Y95.049 I4.694 J4.277
G1 X1027.505 Y97.069
X1026.663 Y97.955
X1025.805 Y98.797
X1024.903 Y99.62
X1024.492 Y99.969
X1024.067 Y100.311
X1023.614 Y100.65
X1023.137 Y100.987
X1022.655 Y101.305
X1022.144 Y101.617
X1021.604 Y101.924
X1021.046 Y102.217
X1020.442 Y102.508
X1019.807 Y102.79
X1019.153 Y103.055
X1018.438 Y103.315
X1017.667 Y103.57
X1016.856 Y103.812
X1015.988 Y104.043
X1015.078 Y104.259
X1014.104 Y104.462
X1013.067 Y104.651
X1011.972 Y104.823
X1010.815 Y104.979
X1009.604 Y105.118
X1008.33 Y105.237
X1006.987 Y105.336
X1005.582 Y105.415
X1004.112 Y105.475
X1002.591 Y105.513
X1001.017 Y105.528
X999.513 Y105.519
X998.076 Y105.486
X996.701 Y105.43
X995.395 Y105.351
X994.155 Y105.251
X992.976 Y105.128
X991.86 Y104.987
X990.807 Y104.826
X989.811 Y104.648
X988.878 Y104.454
X988.005 Y104.246
X987.178 Y104.022
X986.402 Y103.786
X985.679 Y103.54
X984.987 Y103.278
X984.449 Y103.055
X983.931 Y102.821
X983.431 Y102.579
X982.959 Y102.333
X982.504 Y102.078
X982.064 Y101.815
X981.64 Y101.544
X981.259 Y101.287
X980.425 Y100.674
X979.648 Y100.046
X978.882 Y99.373
X978.112 Y98.651
X977.332 Y97.881
X976.53 Y97.064
X974.853 Y95.328
G2 X974.791 Y95.265 I-4.568 J4.411
G1 X973.061 Y93.522
G2 X972.94 Y93.404 I-4.506 J4.474
G1 X972.043 Y92.547
G2 X971.929 Y92.441 I-4.385 J4.593
G1 X971.003 Y91.599
G2 X970.871 Y91.482 I-4.271 J4.699
G1 X969.912 Y90.658
G2 X969.761 Y90.532 I-4.139 J4.816
G1 X968.765 Y89.729
G2 X968.604 Y89.603 I-3.988 J4.942
G1 X967.57 Y88.822
G2 X967.395 Y88.695 I-3.827 J5.067
G1 X966.32 Y87.939
G2 X966.143 Y87.819 I-3.652 J5.195
G1 X965.028 Y87.09
G2 X964.846 Y86.975 I-3.475 J5.315
G1 X963.691 Y86.275
G2 X963.508 Y86.168 I-3.293 J5.43
G1 X962.315 Y85.498
G2 X962.133 Y85.399 I-3.11 J5.536
G1 X960.904 Y84.761
G2 X960.722 Y84.67 I-2.928 J5.635
G1 X959.459 Y84.064
G2 X959.279 Y83.981 I-2.746 J5.726
G1 X957.986 Y83.41
G2 X957.809 Y83.335 I-2.566 J5.808
G1 X956.49 Y82.8
G2 X956.312 Y82.73 I-2.389 J5.883
G1 X954.97 Y82.232
G2 X954.793 Y82.169 I-2.211 J5.953
G1 X953.433 Y81.709
G2 X953.257 Y81.652 I-2.034 J6.015
G1 X951.885 Y81.232
G2 X951.703 Y81.18 I-1.858 J6.072
G1 X950.323 Y80.802
G2 X950.135 Y80.754 I-1.676 J6.125
G1 X948.751 Y80.42
G2 X948.558 Y80.377 I-1.488 J6.173
G1 X947.178 Y80.089
G2 X946.97 Y80.05 I-1.295 J6.217
G1 X945.596 Y79.811
G2 X945.375 Y79.776 I-1.087 J6.256
G1 X944.015 Y79.589
G2 X943.772 Y79.561 I-0.866 J6.291
G1 X942.429 Y79.428
G2 X942.16 Y79.407 I-0.623 J6.319
G1 X940.838 Y79.333
G2 X940.539 Y79.324 I-0.354 J6.34
G1 X939.245 Y79.313
G2 X938.91 Y79.318 I-0.055 J6.35
G1 X937.646 Y79.374
G2 X937.37 Y79.392 I0.28 J6.344
G1 X936.75 Y79.447
G2 X936.551 Y79.468 I0.556 J6.326
G1 X935.94 Y79.541
G2 X935.728 Y79.57 I0.755 J6.305
G1 X935.127 Y79.662
G2 X934.907 Y79.7 I0.967 J6.276
G1 X934.316 Y79.813
G2 X934.084 Y79.861 I1.187 J6.238
G1 X933.502 Y79.995
G2 X933.259 Y80.055 I1.419 J6.189
G1 X932.688 Y80.21
G2 X932.435 Y80.285 I1.661 J6.129
G1 X931.875 Y80.462
G2 X931.614 Y80.551 I1.915 J6.054
G1 X931.065 Y80.751
G2 X930.8 Y80.854 I2.176 J5.965
G1 X930.262 Y81.078
G2 X929.988 Y81.2 I2.441 J5.862
G1 X929.462 Y81.449
G2 X929.187 Y81.587 I2.715 J5.74
G1 X928.673 Y81.861
G2 X928.406 Y82.013 I2.99 J5.602
G1 X927.903 Y82.313
G2 X927.628 Y82.487 I3.257 J5.451
G1 X927.138 Y82.815
G2 X926.873 Y83.003 I3.531 J5.277
G1 X926.396 Y83.358
G2 X926.145 Y83.556 I3.797 J5.089
G1 X925.68 Y83.941
G2 X925.436 Y84.153 I4.048 J4.892
G1 X924.984 Y84.568
G2 X924.755 Y84.789 I4.292 J4.68
G1 X924.315 Y85.234
G2 X924.102 Y85.462 I4.521 J4.459
G1 X923.676 Y85.939
G2 X923.475 Y86.175 I4.735 J4.231
G1 X923.063 Y86.684
G2 X922.884 Y86.916 I4.936 J3.995
G1 X922.485 Y87.459
G2 X922.319 Y87.694 I5.115 J3.762
G1 X921.934 Y88.271
G2 X921.79 Y88.497 I5.281 J3.527
G1 X921.418 Y89.109
G2 X921.286 Y89.336 I5.425 J3.3
G1 X920.928 Y89.983
G2 X920.812 Y90.204 I5.557 J3.073
G1 X920.468 Y90.888
G2 X920.366 Y91.1 I5.673 J2.853
G1 X920.036 Y91.821
G2 X919.95 Y92.018 I5.775 J2.641
G1 X919.633 Y92.778
G2 X919.554 Y92.977 I5.861 J2.444
G1 X919.252 Y93.777
G2 X919.186 Y93.96 I5.94 J2.245
G1 X918.898 Y94.8
G2 X918.841 Y94.973 I6.006 J2.061
G1 X918.567 Y95.853
G2 X918.517 Y96.023 I6.063 J1.888
G1 X918.258 Y96.944
G2 X918.218 Y97.092 I6.113 J1.718
G1 X917.972 Y98.056
G2 X917.936 Y98.206 I6.153 J1.57
G1 X917.705 Y99.213
G2 X917.675 Y99.349 I6.189 J1.42
G1 X917.458 Y100.4
G2 X917.433 Y100.528 I6.219 J1.284
G1 X917.23 Y101.624
G2 X917.209 Y101.747 I6.244 J1.156
G1 X917.021 Y102.887
G2 X917.003 Y102.999 I6.265 J1.033
G1 X916.829 Y104.186
G2 X916.815 Y104.289 I6.283 J0.921
G1 X916.655 Y105.521
G2 X916.642 Y105.624 I6.297 J0.818
G1 X916.497 Y106.904
G2 X916.488 Y106.996 I6.31 J0.715
G1 X916.357 Y108.324
G2 X916.349 Y108.409 I6.319 J0.623
G1 X916.232 Y109.784
G2 X916.225 Y109.868 I6.327 J0.538
G1 X916.123 Y111.292
G2 X916.119 Y111.363 I6.334 J0.454
G1 X916.03 Y112.836
G2 X916.025 Y112.915 I6.338 J0.383
G1 X915.952 Y114.438
G2 X915.95 Y114.5 I6.343 J0.304
G1 X915.89 Y116.072
G2 X915.887 Y116.138 I6.345 J0.242
G1 X915.842 Y117.761
G2 X915.841 Y117.819 I6.348 J0.176
G1 X915.81 Y119.491
G2 X915.809 Y119.546 I6.349 J0.118
G1 X915.792 Y121.27
G2 Y121.326 I6.35 J0.063
G1 X915.79 Y123.1
G2 Y123.149 I6.35 J0.007
G1 X915.802 Y124.975
G2 X915.803 Y125.021 I6.35 J-0.042
G1 X915.829 Y126.897
G2 Y126.941 I6.349 J-0.088
G1 X915.868 Y128.817
G2 X915.87 Y128.866 I6.349 J-0.132
G1 X915.922 Y130.691
G2 X915.923 Y130.739 I6.347 J-0.181
G1 X915.987 Y132.512
G2 X915.989 Y132.567 I6.346 J-0.229
G1 X916.066 Y134.289
G2 X916.069 Y134.343 I6.344 J-0.284
G1 X916.158 Y136.014
G2 X916.162 Y136.075 I6.341 J-0.338
G1 X916.264 Y137.695
G2 X916.268 Y137.76 I6.337 J-0.399
G1 X916.383 Y139.329
G2 X916.388 Y139.394 I6.333 J-0.464
G1 X916.515 Y140.913
G2 X916.521 Y140.982 I6.328 J-0.529
G1 X916.66 Y142.451
G2 X916.668 Y142.529 I6.322 J-0.598
G1 X916.82 Y143.949
G2 X916.83 Y144.032 I6.314 J-0.676
G1 X916.995 Y145.402
G2 X917.005 Y145.486 I6.304 J-0.759
G1 X917.182 Y146.808
G2 X917.195 Y146.902 I6.294 J-0.843
G1 X917.385 Y148.176
G2 X917.401 Y148.275 I6.281 J-0.937
G1 X917.604 Y149.502
G2 X917.622 Y149.604 I6.265 J-1.036
G1 X917.837 Y150.784
G2 X917.859 Y150.899 I6.247 J-1.138
G1 X918.087 Y152.032
G2 X918.113 Y152.153 I6.225 J-1.253
G1 X918.354 Y153.24
G2 X918.382 Y153.363 I6.199 J-1.374
G1 X918.635 Y154.406
G2 X918.671 Y154.549 I6.171 J-1.497
G1 X918.938 Y155.548
G2 X918.978 Y155.69 I6.135 J-1.64
G1 X919.257 Y156.644
G2 X919.302 Y156.792 I6.095 J-1.782
G1 X919.594 Y157.704
G2 X919.651 Y157.875 I6.049 J-1.93
G1 X919.956 Y158.745
G2 X920.017 Y158.912 I5.992 J-2.101
G1 X920.334 Y159.741
G2 X920.408 Y159.926 I5.931 J-2.268
G1 X920.738 Y160.714
G2 X920.819 Y160.899 I5.857 J-2.453
G1 X921.161 Y161.648
G2 X921.259 Y161.853 I5.776 J-2.638
G1 X921.614 Y162.562
G2 X921.722 Y162.769 I5.678 J-2.843
G1 X922.09 Y163.441
G2 X922.215 Y163.658 I5.57 J-3.05
G1 X922.596 Y164.293
G2 X922.73 Y164.507 I5.445 J-3.267
G1 X923.122 Y165.105
G2 X923.286 Y165.343 I5.311 J-3.481
G1 X923.692 Y165.905
G2 X923.852 Y166.117 I5.147 J-3.719
G1 X924.269 Y166.646
G2 X924.466 Y166.884 I4.987 J-3.931
G1 X924.896 Y167.378
G2 X925.098 Y167.599 I4.79 J-4.169
G1 X925.54 Y168.061
G2 X925.772 Y168.291 I4.588 J-4.39
G1 X926.227 Y168.72
G2 X926.453 Y168.923 I4.356 J-4.62
G1 X926.919 Y169.322
G2 X927.175 Y169.531 I4.13 J-4.823
G1 X927.653 Y169.899
G2 X927.909 Y170.086 I3.874 J-5.032
G1 X928.398 Y170.425
G2 X928.667 Y170.601 I3.618 J-5.219
G1 X929.168 Y170.912
G2 X929.45 Y171.077 I3.349 J-5.395
G1 X929.963 Y171.36
G2 X930.243 Y171.506 I3.067 J-5.56
G1 X930.767 Y171.762
G2 X931.042 Y171.888 I2.787 J-5.706
G1 X931.576 Y172.118
G2 X931.852 Y172.229 I2.512 J-5.832
G1 X932.397 Y172.434
G2 X932.667 Y172.529 I2.236 J-5.943
G1 X933.223 Y172.71
G2 X933.482 Y172.788 I1.966 J-6.038
G1 X934.048 Y172.946
G2 X934.306 Y173.012 I1.707 J-6.116
G1 X934.882 Y173.147
G2 X935.129 Y173.2 I1.449 J-6.182
G1 X935.715 Y173.313
G2 X935.957 Y173.355 I1.202 J-6.235
G1 X936.552 Y173.446
G2 X936.76 Y173.474 I0.96 J-6.277
G1 X937.364 Y173.546
G2 X937.579 Y173.568 I0.752 J-6.305
G1 X938.192 Y173.62
G2 X938.392 Y173.634 I0.537 J-6.327
G1 X939.013 Y173.667
G2 X939.295 Y173.676 I0.337 J-6.341
G1 X940.56 Y173.687
G2 X940.89 Y173.681 I0.055 J-6.35
G1 X942.184 Y173.625
G2 X942.485 Y173.605 I-0.275 J-6.344
G1 X943.803 Y173.485
G2 X944.07 Y173.455 I-0.576 J-6.324
G1 X945.407 Y173.276
G2 X945.65 Y173.238 I-0.843 J-6.294
G1 X947.004 Y173.003
G2 X947.225 Y172.961 I-1.086 J-6.256
G1 X948.589 Y172.674
G2 X948.79 Y172.628 I-1.307 J-6.214
G1 X950.16 Y172.293
G2 X950.358 Y172.242 I-1.508 J-6.168
G1 X951.728 Y171.86
G2 X951.907 Y171.807 I-1.706 J-6.117
G1 X953.274 Y171.382
G2 X953.459 Y171.321 I-1.885 J-6.064
G1 X954.816 Y170.853
G2 X954.99 Y170.79 I-2.07 J-6.003
G1 X956.332 Y170.283
G2 X956.505 Y170.215 I-2.244 J-5.94
G1 X957.829 Y169.67
G2 X958.003 Y169.595 I-2.417 J-5.872
G1 X959.303 Y169.014
G2 X959.48 Y168.932 I-2.591 J-5.797
G1 X960.752 Y168.316
G2 X960.93 Y168.226 I-2.768 J-5.715
G1 X962.171 Y167.576
G2 X962.347 Y167.48 I-2.946 J-5.625
G1 X963.553 Y166.799
G2 X963.731 Y166.695 I-3.122 J-5.529
G1 X964.9 Y165.984
G2 X965.082 Y165.869 I-3.3 J-5.425
G1 X966.212 Y165.128
G2 X966.387 Y165.01 I-3.482 J-5.31
G1 X967.476 Y164.243
G2 X967.653 Y164.113 I-3.657 J-5.192
G1 X968.7 Y163.32
G2 X968.867 Y163.189 I-3.834 J-5.062
G1 X969.874 Y162.372
G2 X970.029 Y162.242 I-4.001 J-4.931
G1 X970.996 Y161.405
G2 X971.146 Y161.271 I-4.156 J-4.801
G1 X972.076 Y160.413
G2 X972.201 Y160.294 I-4.306 J-4.667
G1 X973.097 Y159.421
G2 X973.21 Y159.309 I-4.431 J-4.548
G1 X974.076 Y158.422
G2 X974.191 Y158.301 I-4.544 J-4.436
G1 X975.86 Y156.499
G2 X975.922 Y156.431 I-4.659 J-4.315
G1 X977.535 Y154.638
X978.306 Y153.796
X979.06 Y152.998
X979.806 Y152.249
X980.549 Y151.548
X981.301 Y150.895
X982.113 Y150.255
X982.487 Y149.983
X982.903 Y149.696
X983.33 Y149.42
X983.774 Y149.15
X984.239 Y148.887
X984.73 Y148.627
X985.239 Y148.376
X985.768 Y148.135
X986.452 Y147.849
X987.171 Y147.576
X987.933 Y147.314
X988.749 Y147.062
X989.619 Y146.822
X990.546 Y146.596
X991.534 Y146.383
X992.579 Y146.186
X993.687 Y146.006
X994.861 Y145.843
X996.101 Y145.699
X997.403 Y145.574
X998.774 Y145.47
X1000.209 Y145.387
X1001.708 Y145.326
X1003.281 Y145.286
X1004.815 Y145.271
X1006.284 Y145.279
X1007.687 Y145.309
X1009.03 Y145.362
X1010.308 Y145.437
X1011.528 Y145.531
X1012.688 Y145.647
X1013.785 Y145.782
X1014.831 Y145.934
X1015.804 Y146.103
X1016.727 Y146.288
X1017.6 Y146.488
X1018.419 Y146.701
X1019.196 Y146.928
X1019.915 Y147.162
X1020.593 Y147.41
X1021.244 Y147.67
X1021.849 Y147.936
X1022.422 Y148.211
X1022.955 Y148.49
X1023.47 Y148.783
X1023.975 Y149.093
X1024.461 Y149.41
X1024.922 Y149.733
X1025.383 Y150.076
X1025.796 Y150.401
X1026.71 Y151.18
X1027.601 Y152
X1028.483 Y152.861
X1030.376 Y154.809
G2 X1030.398 Y154.832 I4.554 J-4.425
G1 X1032.368 Y156.839
G2 X1032.46 Y156.93 I4.532 J-4.448
G1 X1033.47 Y157.918
G2 X1033.621 Y158.061 I4.44 J-4.539
G1 X1034.681 Y159.032
G2 X1034.805 Y159.144 I4.289 J-4.682
G1 X1035.895 Y160.091
G2 X1036.091 Y160.253 I4.165 J-4.794
G1 X1037.241 Y161.174
G2 X1037.404 Y161.301 I3.969 J-4.956
G1 X1038.594 Y162.192
G2 X1038.809 Y162.346 I3.806 J-5.083
G1 X1040.059 Y163.203
G2 X1040.262 Y163.337 I3.591 J-5.237
G1 X1041.562 Y164.157
G2 X1041.767 Y164.281 I3.388 J-5.371
G1 X1043.117 Y165.063
G2 X1043.329 Y165.18 I3.183 J-5.495
G1 X1044.729 Y165.921
G2 X1044.946 Y166.031 I2.97 J-5.612
G1 X1046.396 Y166.729
G2 X1046.601 Y166.823 I2.754 J-5.722
G1 X1048.091 Y167.476
G2 X1048.292 Y167.56 I2.549 J-5.816
G1 X1049.812 Y168.165
G2 X1050.004 Y168.238 I2.348 J-5.9
G1 X1051.544 Y168.794
G2 X1051.759 Y168.867 I2.156 J-5.973
G1 X1053.329 Y169.371
G2 X1053.531 Y169.432 I1.941 J-6.046
G1 X1055.111 Y169.882
G2 X1055.326 Y169.939 I1.739 J-6.107
G1 X1056.916 Y170.332
G2 X1057.134 Y170.382 I1.524 J-6.164
G1 X1058.714 Y170.714
G2 X1058.958 Y170.761 I1.306 J-6.214
G1 X1060.538 Y171.029
G2 X1060.787 Y171.066 I1.062 J-6.261
G1 X1062.337 Y171.266
G2 X1062.559 Y171.29 I0.813 J-6.298
G1 X1063.329 Y171.362
G2 X1063.47 Y171.374 I0.591 J-6.322
G1 X1064.23 Y171.428
G2 X1064.405 Y171.438 I0.45 J-6.334
G1 X1065.165 Y171.471
G2 X1065.328 Y171.476 I0.275 J-6.344
G1 X1066.068 Y171.489
G2 X1066.249 Y171.49 I0.112 J-6.349
G1 X1066.989 Y171.482
G2 X1067.189 Y171.476 I-0.069 J-6.35
G1 X1067.919 Y171.445
G2 X1068.14 Y171.432 I-0.269 J-6.344
G1 X1068.85 Y171.377
G2 X1069.063 Y171.357 I-0.49 J-6.331
G1 X1069.763 Y171.279
G2 X1070.006 Y171.247 I-0.703 J-6.311
G1 X1070.696 Y171.143
G2 X1070.942 Y171.101 I-0.946 J-6.279
G1 X1071.622 Y170.971
G2 X1071.879 Y170.917 I-1.192 J-6.237
G1 X1072.549 Y170.76
G2 X1072.847 Y170.682 I-1.449 J-6.183
G1 X1073.497 Y170.496
G2 X1073.809 Y170.398 I-1.747 J-6.105
G1 X1074.439 Y170.182
G2 X1074.698 Y170.087 I-2.059 J-6.007
G1 X1075.328 Y169.84
G2 X1075.688 Y169.686 I-2.318 J-5.912
G1 X1076.287 Y169.407
G2 X1076.578 Y169.262 I-2.677 J-5.758
G1 X1077.168 Y168.95
G2 X1077.46 Y168.786 I-2.969 J-5.613
G1 X1078.04 Y168.439
G2 X1078.365 Y168.231 I-3.26 J-5.449
G1 X1078.925 Y167.848
G2 X1079.244 Y167.615 I-3.585 J-5.241
G1 X1079.784 Y167.194
G2 X1080.032 Y166.991 I-3.904 J-5.008
G1 X1080.562 Y166.533
G2 X1080.851 Y166.267 I-4.152 J-4.805
G1 X1081.361 Y165.768
G2 X1081.623 Y165.496 I-4.441 J-4.539
G1 X1082.113 Y164.956
G2 X1082.35 Y164.679 I-4.703 J-4.267
G1 X1082.82 Y164.097
G2 X1082.997 Y163.867 I-4.94 J-3.99
G1 X1083.457 Y163.241
G2 X1083.689 Y162.904 I-5.117 J-3.76
G1 X1084.119 Y162.232
G2 X1084.216 Y162.075 I-5.349 J-3.423
G1 X1084.646 Y161.358
G2 X1084.829 Y161.031 I-5.446 J-3.266
G1 X1085.229 Y160.265
G2 X1085.354 Y160.012 I-5.629 J-2.939
G1 X1085.734 Y159.198
G2 X1085.818 Y159.009 I-5.754 J-2.686
G1 X1086.188 Y158.144
G2 X1086.303 Y157.857 I-5.838 J-2.497
G1 X1086.643 Y156.941
G2 X1086.701 Y156.778 I-5.953 J-2.21
G1 X1087.031 Y155.809
G2 X1087.097 Y155.605 I-6.011 J-2.047
G1 X1087.407 Y154.583
G2 X1087.462 Y154.39 I-6.077 J-1.843
G1 X1087.752 Y153.312
G2 X1087.797 Y153.133 I-6.132 J-1.65
G1 X1088.067 Y151.999
G2 X1088.094 Y151.882 I-6.177 J-1.471
G1 X1088.354 Y150.691
G2 X1088.395 Y150.486 I-6.204 J-1.354
G1 X1088.625 Y149.236
G2 X1088.642 Y149.139 I-6.245 J-1.149
G1 X1088.862 Y147.83
G2 X1088.883 Y147.695 I-6.262 J-1.052
G1 X1089.083 Y146.325
G2 X1089.106 Y146.157 I-6.283 J-0.917
G1 X1089.276 Y144.726
G2 X1089.284 Y144.654 I-6.306 J-0.749
G1 X1089.444 Y143.162
G2 X1089.454 Y143.054 I-6.314 J-0.677
G1 X1089.594 Y141.498
G2 X1089.603 Y141.398 I-6.324 J-0.569
G1 X1089.723 Y139.778
G2 X1089.726 Y139.723 I-6.333 J-0.469
G1 X1089.837 Y138.039
G2 X1089.843 Y137.915 I-6.337 J-0.414
G1 X1089.923 Y136.166
G2 X1089.925 Y136.121 I-6.343 J-0.29
G1 X1089.995 Y134.306
G2 X1089.999 Y134.196 I-6.345 J-0.245
G1 X1090.039 Y132.315
G2 Y132.278 I-6.349 J-0.135
G1 X1090.069 Y130.331
G2 X1090.07 Y130.265 I-6.349 J-0.098
G1 X1090.08 Y128.251
G2 Y128.188 I-6.35 J-0.032
G1 X1090.07 Y126.214
Y126.107 Z45.996 F400.3
G2 X1090.069 Y126.049 Z45.994 I-6.35 J0.031
G1 X1090.039 Y123.901 Z45.919
G2 X1090.038 Y123.842 Z45.917 I-6.349 J0.089
G1 X1089.988 Y121.694 Z45.842
G2 X1089.987 Y121.659 Z45.841 I-6.348 J0.148
G1 X1089.927 Y119.579 Z45.768
G2 X1089.925 Y119.51 Z45.766 I-6.347 J0.183
G1 X1089.845 Y117.497 Z45.695
G2 X1089.843 Y117.455 Z45.694 I-6.345 J0.252
G1 X1089.753 Y115.51 Z45.626
G2 X1089.749 Y115.433 Z45.623 I-6.343 J0.294
G1 X1089.639 Y113.555 Z45.558
G2 X1089.634 Y113.471 Z45.555 I-6.339 J0.371
G1 X1089.504 Y111.66 Z45.491
G2 X1089.497 Y111.571 Z45.488 I-6.334 J0.455
G1 X1089.347 Y109.826 Z45.427
G2 X1089.341 Y109.768 Z45.425 I-6.327 J0.544
G1 X1089.181 Y108.088 Z45.366
G2 X1089.171 Y107.986 Z45.362 I-6.321 J0.602
G1 X1088.991 Y106.372 Z45.306
G2 X1088.983 Y106.303 Z45.303 I-6.311 J0.704
G1 X1088.793 Y104.753 Z45.249
G2 X1088.777 Y104.637 Z45.245 I-6.303 J0.773
G1 X1088.568 Y103.151 Z45.192
G2 X1088.549 Y103.027 Z45.188 I-6.287 J0.889
G1 X1088.319 Y101.603 Z45.138
G2 X1088.296 Y101.47 Z45.133 I-6.269 J1.013
G1 X1088.046 Y100.108 Z45.084
G2 X1088.027 Y100.009 Z45.081 I-6.246 J1.146
G1 X1087.767 Y98.709 Z45.035
G2 X1087.734 Y98.556 Z45.029 I-6.227 J1.245
G1 X1087.454 Y97.315 Z44.985
G2 X1087.427 Y97.199 Z44.981 I-6.194 J1.398
G1 X1087.137 Y96.017 Z44.938
G2 X1087.091 Y95.842 Z44.932 I-6.167 J1.513
G1 X1086.781 Y94.718 Z44.891
G2 X1086.726 Y94.531 Z44.884 I-6.121 J1.688
G1 X1086.396 Y93.464 Z44.845
G2 X1086.331 Y93.263 Z44.838 I-6.067 J1.876
G1 X1085.981 Y92.252 Z44.801
G2 X1085.923 Y92.092 Z44.795 I-6.001 J2.077
G1 X1085.563 Y91.136 Z44.759
G2 X1085.473 Y90.91 Z44.75 I-5.943 J2.236
G1 X1085.093 Y90.006 Z44.716
G2 X1085.013 Y89.824 Z44.709 I-5.853 J2.462
G1 X1084.623 Y88.973 Z44.677
G2 X1084.502 Y88.722 Z44.667 I-5.773 J2.645
G1 X1084.092 Y87.922 Z44.635
G2 X1083.95 Y87.661 Z44.625 I-5.652 J2.895
G1 X1083.521 Y86.91 Z44.595
G2 X1083.357 Y86.641 Z44.584 I-5.51 J3.156
G1 X1082.907 Y85.938 Z44.555
G2 X1082.758 Y85.716 Z44.545 I-5.347 J3.425
G1 X1082.298 Y85.06 Z44.517
G2 X1082.09 Y84.78 Z44.505 I-5.198 J3.647
G1 X1081.61 Y84.17 Z44.478
G2 X1081.419 Y83.939 Z44.468 I-4.99 J3.928
G1 X1080.929 Y83.374 Z44.441
G2 X1080.674 Y83.097 Z44.428 I-4.799 J4.159
G1 X1080.164 Y82.574 Z44.403
G2 X1079.885 Y82.306 Z44.389 I-4.544 J4.436
G1 X1079.356 Y81.826 Z44.364
G2 X1079.102 Y81.608 Z44.353 I-4.266 J4.704
G1 X1078.562 Y81.167 Z44.328
G2 X1078.291 Y80.958 Z44.316 I-4.012 J4.922
G1 X1077.741 Y80.557 Z44.293
G2 X1077.371 Y80.307 Z44.277 I-3.741 J5.131
G1 X1076.791 Y79.944 Z44.253
G2 X1076.537 Y79.793 Z44.243 I-3.371 J5.381
G1 X1075.957 Y79.466 Z44.22
G2 X1075.615 Y79.287 Z44.206 I-3.117 J5.532
G1 X1075.015 Y78.995 Z44.183
G2 X1074.676 Y78.843 Z44.17 I-2.775 J5.712
G1 X1074.056 Y78.585 Z44.146
G2 X1073.755 Y78.469 Z44.135 I-2.436 J5.864
G1 X1073.125 Y78.244 Z44.112
G2 X1072.828 Y78.146 Z44.101 I-2.135 J5.98
G1 X1072.188 Y77.952 Z44.077
G2 X1071.875 Y77.867 Z44.066 I-1.838 J6.078
G1 X1071.215 Y77.703 Z44.042
G2 X1070.937 Y77.641 Z44.032 I-1.525 J6.164
G1 X1070.267 Y77.507 Z44.009
G2 X1070.026 Y77.463 Z44 I-1.247 J6.226
X1070.001 Y77.459 I-1.006 J6.27 F849.6
G1 X1069.321 Y77.353
G2 X1069.057 Y77.318 I-0.981 J6.274
G1 X1068.357 Y77.238
G2 X1068.128 Y77.216 I-0.717 J6.309
G1 X1067.427 Y77.162
G2 X1067.197 Y77.149 I-0.488 J6.331
G1 X1066.477 Y77.119
G2 X1066.269 Y77.114 I-0.257 J6.345
G1 X1065.539 Y77.109
G2 X1065.34 Y77.11 I-0.049 J6.35
G1 X1064.61 Y77.128
G2 X1064.431 Y77.134 I0.15 J6.348
G1 X1063.681 Y77.173
G2 X1063.505 Y77.185 I0.329 J6.341
G1 X1062.755 Y77.245
G2 X1062.595 Y77.259 I0.505 J6.33
G1 X1061.835 Y77.339
G2 X1061.677 Y77.358 I0.665 J6.315
G1 X1060.917 Y77.457
G2 X1060.714 Y77.487 I0.823 J6.296
G1 X1059.164 Y77.741
G2 X1058.911 Y77.788 I1.026 J6.267
G1 X1057.341 Y78.111
G2 X1057.099 Y78.165 I1.279 J6.22
G1 X1055.529 Y78.553
G2 X1055.308 Y78.611 I1.521 J6.165
G1 X1053.738 Y79.059
G2 X1053.525 Y79.124 I1.742 J6.106
G1 X1051.965 Y79.629
G2 X1051.767 Y79.697 I1.955 J6.042
G1 X1050.217 Y80.255
G2 X1050.02 Y80.33 I2.153 J5.974
G1 X1048.49 Y80.94
G2 X1048.289 Y81.024 I2.35 J5.899
G1 X1046.789 Y81.682
G2 X1046.582 Y81.777 I2.551 J5.815
G1 X1045.122 Y82.481
G2 X1044.921 Y82.582 I2.758 J5.72
G1 X1043.501 Y83.33
G2 X1043.307 Y83.437 I2.959 J5.619
G1 X1041.927 Y84.226
G2 X1041.704 Y84.36 I3.153 J5.512
G1 X1040.384 Y85.188
G2 X1040.183 Y85.32 I3.376 J5.378
G1 X1038.913 Y86.185
G2 X1038.72 Y86.322 I3.577 J5.247
G1 X1037.5 Y87.222
G2 X1037.293 Y87.382 I3.77 J5.11
G1 X1036.133 Y88.313
G2 X1035.955 Y88.462 I3.977 J4.951
G1 X1034.845 Y89.422
G2 X1034.699 Y89.553 I4.155 J4.802
G1 X1033.629 Y90.538
G2 X1033.448 Y90.711 I4.302 J4.671
G1 X1032.438 Y91.718
G2 X1032.357 Y91.8 I4.482 J4.498
G1 X1031.367 Y92.823
G2 X1031.236 Y92.962 I4.563 J4.416
G1 X1029.346 Y95.037
G2 X1029.335 Y95.049 I4.694 J4.277
G1 X1027.505 Y97.069
X1026.663 Y97.955
X1025.805 Y98.797
X1024.903 Y99.62
X1024.492 Y99.969
X1024.067 Y100.311
X1023.614 Y100.65
X1023.137 Y100.987
X1022.655 Y101.305
X1022.144 Y101.617
X1021.604 Y101.924
X1021.046 Y102.217
X1020.442 Y102.508
X1019.807 Y102.79
X1019.153 Y103.055
X1018.438 Y103.315
X1017.667 Y103.57
X1016.856 Y103.812
X1015.988 Y104.043
X1015.078 Y104.259
X1014.104 Y104.462
X1013.067 Y104.651
X1011.972 Y104.823
X1010.815 Y104.979
X1009.604 Y105.118
X1008.33 Y105.237
X1006.987 Y105.336
X1005.582 Y105.415
X1004.112 Y105.475
X1002.591 Y105.513
X1001.017 Y105.528
X999.513 Y105.519
X998.076 Y105.486
X996.701 Y105.43
X995.395 Y105.351
X994.155 Y105.251
X992.976 Y105.128
X991.86 Y104.987
X990.807 Y104.826
X989.811 Y104.648
X988.878 Y104.454
X988.005 Y104.246
X987.178 Y104.022
X986.402 Y103.786
X985.679 Y103.54
X984.987 Y103.278
X984.449 Y103.055
X983.931 Y102.821
X983.431 Y102.579
X982.959 Y102.333
X982.504 Y102.078
X982.064 Y101.815
X981.64 Y101.544
X981.259 Y101.287
X980.425 Y100.674
X979.648 Y100.046
X978.882 Y99.373
X978.112 Y98.651
X977.332 Y97.881
X976.53 Y97.064
X974.853 Y95.328
G2 X974.791 Y95.265 I-4.568 J4.411
G1 X973.061 Y93.522
G2 X972.94 Y93.404 I-4.506 J4.474
G1 X972.043 Y92.547
G2 X971.929 Y92.441 I-4.385 J4.593
G1 X971.003 Y91.599
G2 X970.871 Y91.482 I-4.271 J4.699
G1 X969.912 Y90.658
G2 X969.761 Y90.532 I-4.139 J4.816
G1 X968.765 Y89.729
G2 X968.604 Y89.603 I-3.988 J4.942
G1 X967.57 Y88.822
G2 X967.395 Y88.695 I-3.827 J5.067
G1 X966.32 Y87.939
G2 X966.143 Y87.819 I-3.652 J5.195
G1 X965.028 Y87.09
G2 X964.846 Y86.975 I-3.475 J5.315
G1 X963.691 Y86.275
G2 X963.508 Y86.168 I-3.293 J5.43
G1 X962.315 Y85.498
G2 X962.133 Y85.399 I-3.11 J5.536
G1 X960.904 Y84.761
G2 X960.722 Y84.67 I-2.928 J5.635
G1 X959.459 Y84.064
G2 X959.279 Y83.981 I-2.746 J5.726
G1 X957.986 Y83.41
G2 X957.809 Y83.335 I-2.566 J5.808
G1 X956.49 Y82.8
G2 X956.312 Y82.73 I-2.389 J5.883
G1 X954.97 Y82.232
G2 X954.793 Y82.169 I-2.211 J5.953
G1 X953.433 Y81.709
G2 X953.257 Y81.652 I-2.034 J6.015
G1 X951.885 Y81.232
G2 X951.703 Y81.18 I-1.858 J6.072
G1 X950.323 Y80.802
G2 X950.135 Y80.754 I-1.676 J6.125
G1 X948.751 Y80.42
G2 X948.558 Y80.377 I-1.488 J6.173
G1 X947.178 Y80.089
G2 X946.97 Y80.05 I-1.295 J6.217
G1 X945.596 Y79.811
G2 X945.375 Y79.776 I-1.087 J6.256
G1 X944.015 Y79.589
G2 X943.772 Y79.561 I-0.866 J6.291
G1 X942.429 Y79.428
G2 X942.16 Y79.407 I-0.623 J6.319
G1 X940.838 Y79.333
G2 X940.539 Y79.324 I-0.354 J6.34
G1 X939.245 Y79.313
G2 X938.91 Y79.318 I-0.055 J6.35
G1 X937.646 Y79.374
G2 X937.37 Y79.392 I0.28 J6.344
G1 X936.75 Y79.447
G2 X936.551 Y79.468 I0.556 J6.326
G1 X935.94 Y79.541
G2 X935.728 Y79.57 I0.755 J6.305
G1 X935.127 Y79.662
G2 X934.907 Y79.7 I0.967 J6.276
G1 X934.316 Y79.813
G2 X934.084 Y79.861 I1.187 J6.238
G1 X933.502 Y79.995
G2 X933.259 Y80.055 I1.419 J6.189
G1 X932.688 Y80.21
G2 X932.435 Y80.285 I1.661 J6.129
G1 X931.875 Y80.462
G2 X931.614 Y80.551 I1.915 J6.054
G1 X931.065 Y80.751
G2 X930.8 Y80.854 I2.176 J5.965
G1 X930.262 Y81.078
G2 X929.988 Y81.2 I2.441 J5.862
G1 X929.462 Y81.449
G2 X929.187 Y81.587 I2.715 J5.74
G1 X928.673 Y81.861
G2 X928.406 Y82.013 I2.99 J5.602
G1 X927.903 Y82.313
G2 X927.628 Y82.487 I3.257 J5.451
G1 X927.138 Y82.815
G2 X926.873 Y83.003 I3.531 J5.277
G1 X926.396 Y83.358
G2 X926.145 Y83.556 I3.797 J5.089
G1 X925.68 Y83.941
G2 X925.436 Y84.153 I4.048 J4.892
G1 X924.984 Y84.568
G2 X924.755 Y84.789 I4.292 J4.68
G1 X924.315 Y85.234
G2 X924.102 Y85.462 I4.521 J4.459
G1 X923.676 Y85.939
G2 X923.475 Y86.175 I4.735 J4.231
G1 X923.063 Y86.684
G2 X922.884 Y86.916 I4.936 J3.995
G1 X922.485 Y87.459
G2 X922.319 Y87.694 I5.115 J3.762
G1 X921.934 Y88.271
G2 X921.79 Y88.497 I5.281 J3.527
G1 X921.418 Y89.109
G2 X921.286 Y89.336 I5.425 J3.3
G1 X920.928 Y89.983
G2 X920.812 Y90.204 I5.557 J3.073
G1 X920.468 Y90.888
G2 X920.366 Y91.1 I5.673 J2.853
G1 X920.036 Y91.821
G2 X919.95 Y92.018 I5.775 J2.641
G1 X919.633 Y92.778
G2 X919.554 Y92.977 I5.861 J2.444
G1 X919.252 Y93.777
G2 X919.186 Y93.96 I5.94 J2.245
G1 X918.898 Y94.8
G2 X918.841 Y94.973 I6.006 J2.061
G1 X918.567 Y95.853
G2 X918.517 Y96.023 I6.063 J1.888
G1 X918.258 Y96.944
G2 X918.218 Y97.092 I6.113 J1.718
G1 X917.972 Y98.056
G2 X917.936 Y98.206 I6.153 J1.57
G1 X917.705 Y99.213
G2 X917.675 Y99.349 I6.189 J1.42
G1 X917.458 Y100.4
G2 X917.433 Y100.528 I6.219 J1.284
G1 X917.23 Y101.624
G2 X917.209 Y101.747 I6.244 J1.156
G1 X917.021 Y102.887
G2 X917.003 Y102.999 I6.265 J1.033
G1 X916.829 Y104.186
G2 X916.815 Y104.289 I6.283 J0.921
G1 X916.655 Y105.521
G2 X916.642 Y105.624 I6.297 J0.818
G1 X916.497 Y106.904
G2 X916.488 Y106.996 I6.31 J0.715
G1 X916.357 Y108.324
G2 X916.349 Y108.409 I6.319 J0.623
G1 X916.232 Y109.784
G2 X916.225 Y109.868 I6.327 J0.538
G1 X916.123 Y111.292
G2 X916.119 Y111.363 I6.334 J0.454
G1 X916.03 Y112.836
G2 X916.025 Y112.915 I6.338 J0.383
G1 X915.952 Y114.438
G2 X915.95 Y114.5 I6.343 J0.304
G1 X915.89 Y116.072
G2 X915.887 Y116.138 I6.345 J0.242
G1 X915.842 Y117.761
G2 X915.841 Y117.819 I6.348 J0.176
G1 X915.81 Y119.491
G2 X915.809 Y119.546 I6.349 J0.118
G1 X915.792 Y121.27
G2 Y121.326 I6.35 J0.063
G1 X915.79 Y123.1
G2 Y123.149 I6.35 J0.007
G1 X915.802 Y124.975
G2 X915.803 Y125.021 I6.35 J-0.042
G1 X915.829 Y126.897
G2 Y126.941 I6.349 J-0.088
G1 X915.868 Y128.817
G2 X915.87 Y128.866 I6.349 J-0.132
G1 X915.922 Y130.691
G2 X915.923 Y130.739 I6.347 J-0.181
G1 X915.987 Y132.512
G2 X915.989 Y132.567 I6.346 J-0.229
G1 X916.066 Y134.289
G2 X916.069 Y134.343 I6.344 J-0.284
G1 X916.158 Y136.014
G2 X916.162 Y136.075 I6.341 J-0.338
G1 X916.264 Y137.695
G2 X916.268 Y137.76 I6.337 J-0.399
G1 X916.383 Y139.329
G2 X916.388 Y139.394 I6.333 J-0.464
G1 X916.515 Y140.913
G2 X916.521 Y140.982 I6.328 J-0.529
G1 X916.66 Y142.451
G2 X916.668 Y142.529 I6.322 J-0.598
G1 X916.82 Y143.949
G2 X916.83 Y144.032 I6.314 J-0.676
G1 X916.995 Y145.402
G2 X917.005 Y145.486 I6.304 J-0.759
G1 X917.182 Y146.808
G2 X917.195 Y146.902 I6.294 J-0.843
G1 X917.385 Y148.176
G2 X917.401 Y148.275 I6.281 J-0.937
G1 X917.604 Y149.502
G2 X917.622 Y149.604 I6.265 J-1.036
G1 X917.837 Y150.784
G2 X917.859 Y150.899 I6.247 J-1.138
G1 X918.087 Y152.032
G2 X918.113 Y152.153 I6.225 J-1.253
G1 X918.354 Y153.24
G2 X918.382 Y153.363 I6.199 J-1.374
G1 X918.635 Y154.406
G2 X918.671 Y154.549 I6.171 J-1.497
G1 X918.938 Y155.548
G2 X918.978 Y155.69 I6.135 J-1.64
G1 X919.257 Y156.644
G2 X919.302 Y156.792 I6.095 J-1.782
G1 X919.594 Y157.704
G2 X919.651 Y157.875 I6.049 J-1.93
G1 X919.956 Y158.745
G2 X920.017 Y158.912 I5.992 J-2.101
G1 X920.334 Y159.741
G2 X920.408 Y159.926 I5.931 J-2.268
G1 X920.738 Y160.714
G2 X920.819 Y160.899 I5.857 J-2.453
G1 X921.161 Y161.648
G2 X921.259 Y161.853 I5.776 J-2.638
G1 X921.614 Y162.562
G2 X921.722 Y162.769 I5.678 J-2.843
G1 X922.09 Y163.441
G2 X922.215 Y163.658 I5.57 J-3.05
G1 X922.596 Y164.293
G2 X922.73 Y164.507 I5.445 J-3.267
G1 X923.122 Y165.105
G2 X923.286 Y165.343 I5.311 J-3.481
G1 X923.692 Y165.905
G2 X923.852 Y166.117 I5.147 J-3.719
G1 X924.269 Y166.646
G2 X924.466 Y166.884 I4.987 J-3.931
G1 X924.896 Y167.378
G2 X925.098 Y167.599 I4.79 J-4.169
G1 X925.54 Y168.061
G2 X925.772 Y168.291 I4.588 J-4.39
G1 X926.227 Y168.72
G2 X926.453 Y168.923 I4.356 J-4.62
G1 X926.919 Y169.322
G2 X927.175 Y169.531 I4.13 J-4.823
G1 X927.653 Y169.899
G2 X927.909 Y170.086 I3.874 J-5.032
G1 X928.398 Y170.425
G2 X928.667 Y170.601 I3.618 J-5.219
G1 X929.168 Y170.912
G2 X929.45 Y171.077 I3.349 J-5.395
G1 X929.963 Y171.36
G2 X930.243 Y171.506 I3.067 J-5.56
G1 X930.767 Y171.762
G2 X931.042 Y171.888 I2.787 J-5.706
G1 X931.576 Y172.118
G2 X931.852 Y172.229 I2.512 J-5.832
G1 X932.397 Y172.434
G2 X932.667 Y172.529 I2.236 J-5.943
G1 X933.223 Y172.71
G2 X933.482 Y172.788 I1.966 J-6.038
G1 X934.048 Y172.946
G2 X934.306 Y173.012 I1.707 J-6.116
G1 X934.882 Y173.147
G2 X935.129 Y173.2 I1.449 J-6.182
G1 X935.715 Y173.313
G2 X935.957 Y173.355 I1.202 J-6.235
G1 X936.552 Y173.446
G2 X936.76 Y173.474 I0.96 J-6.277
G1 X937.364 Y173.546
G2 X937.579 Y173.568 I0.752 J-6.305
G1 X938.192 Y173.62
G2 X938.392 Y173.634 I0.537 J-6.327
G1 X939.013 Y173.667
G2 X939.295 Y173.676 I0.337 J-6.341
G1 X940.56 Y173.687
G2 X940.89 Y173.681 I0.055 J-6.35
G1 X942.184 Y173.625
G2 X942.485 Y173.605 I-0.275 J-6.344
G1 X943.803 Y173.485
G2 X944.07 Y173.455 I-0.576 J-6.324
G1 X945.407 Y173.276
G2 X945.65 Y173.238 I-0.843 J-6.294
G1 X947.004 Y173.003
G2 X947.225 Y172.961 I-1.086 J-6.256
G1 X948.589 Y172.674
G2 X948.79 Y172.628 I-1.307 J-6.214
G1 X950.16 Y172.293
G2 X950.358 Y172.242 I-1.508 J-6.168
G1 X951.728 Y171.86
G2 X951.907 Y171.807 I-1.706 J-6.117
G1 X953.274 Y171.382
G2 X953.459 Y171.321 I-1.885 J-6.064
G1 X954.816 Y170.853
G2 X954.99 Y170.79 I-2.07 J-6.003
G1 X956.332 Y170.283
G2 X956.505 Y170.215 I-2.244 J-5.94
G1 X957.829 Y169.67
G2 X958.003 Y169.595 I-2.417 J-5.872
G1 X959.303 Y169.014
G2 X959.48 Y168.932 I-2.591 J-5.797
G1 X960.752 Y168.316
G2 X960.93 Y168.226 I-2.768 J-5.715
G1 X962.171 Y167.576
G2 X962.347 Y167.48 I-2.946 J-5.625
G1 X963.553 Y166.799
G2 X963.731 Y166.695 I-3.122 J-5.529
G1 X964.9 Y165.984
G2 X965.082 Y165.869 I-3.3 J-5.425
G1 X966.212 Y165.128
G2 X966.387 Y165.01 I-3.482 J-5.31
G1 X967.476 Y164.243
G2 X967.653 Y164.113 I-3.657 J-5.192
G1 X968.7 Y163.32
G2 X968.867 Y163.189 I-3.834 J-5.062
G1 X969.874 Y162.372
G2 X970.029 Y162.242 I-4.001 J-4.931
G1 X970.996 Y161.405
G2 X971.146 Y161.271 I-4.156 J-4.801
G1 X972.076 Y160.413
G2 X972.201 Y160.294 I-4.306 J-4.667
G1 X973.097 Y159.421
G2 X973.21 Y159.309 I-4.431 J-4.548
G1 X974.076 Y158.422
G2 X974.191 Y158.301 I-4.544 J-4.436
G1 X975.86 Y156.499
G2 X975.922 Y156.431 I-4.659 J-4.315
G1 X977.535 Y154.638
X978.306 Y153.796
X979.06 Y152.998
X979.806 Y152.249
X980.549 Y151.548
X981.301 Y150.895
X982.113 Y150.255
X982.487 Y149.983
X982.903 Y149.696
X983.33 Y149.42
X983.774 Y149.15
X984.239 Y148.887
X984.73 Y148.627
X985.239 Y148.376
X985.768 Y148.135
X986.452 Y147.849
X987.171 Y147.576
X987.933 Y147.314
X988.749 Y147.062
X989.619 Y146.822
X990.546 Y146.596
X991.534 Y146.383
X992.579 Y146.186
X993.687 Y146.006
X994.861 Y145.843
X996.101 Y145.699
X997.403 Y145.574
X998.774 Y145.47
X1000.209 Y145.387
X1001.708 Y145.326
X1003.281 Y145.286
X1004.815 Y145.271
X1006.284 Y145.279
X1007.687 Y145.309
X1009.03 Y145.362
X1010.308 Y145.437
X1011.528 Y145.531
X1012.688 Y145.647
X1013.785 Y145.782
X1014.831 Y145.934
X1015.804 Y146.103
X1016.727 Y146.288
X1017.6 Y146.488
X1018.419 Y146.701
X1019.196 Y146.928
X1019.915 Y147.162
X1020.593 Y147.41
X1021.244 Y147.67
X1021.849 Y147.936
X1022.422 Y148.211
X1022.955 Y148.49
X1023.47 Y148.783
X1023.975 Y149.093
X1024.461 Y149.41
X1024.922 Y149.733
X1025.383 Y150.076
X1025.796 Y150.401
X1026.71 Y151.18
X1027.601 Y152
X1028.483 Y152.861
X1030.376 Y154.809
G2 X1030.398 Y154.832 I4.554 J-4.425
G1 X1032.368 Y156.839
G2 X1032.46 Y156.93 I4.532 J-4.448
G1 X1033.47 Y157.918
G2 X1033.621 Y158.061 I4.44 J-4.539
G1 X1034.681 Y159.032
G2 X1034.805 Y159.144 I4.289 J-4.682
G1 X1035.895 Y160.091
G2 X1036.091 Y160.253 I4.165 J-4.794
G1 X1037.241 Y161.174
G2 X1037.404 Y161.301 I3.969 J-4.956
G1 X1038.594 Y162.192
G2 X1038.809 Y162.346 I3.806 J-5.083
G1 X1040.059 Y163.203
G2 X1040.262 Y163.337 I3.591 J-5.237
G1 X1041.562 Y164.157
G2 X1041.767 Y164.281 I3.388 J-5.371
G1 X1043.117 Y165.063
G2 X1043.329 Y165.18 I3.183 J-5.495
G1 X1044.729 Y165.921
G2 X1044.946 Y166.031 I2.97 J-5.612
G1 X1046.396 Y166.729
G2 X1046.601 Y166.823 I2.754 J-5.722
G1 X1048.091 Y167.476
G2 X1048.292 Y167.56 I2.549 J-5.816
G1 X1049.812 Y168.165
G2 X1050.004 Y168.238 I2.348 J-5.9
G1 X1051.544 Y168.794
G2 X1051.759 Y168.867 I2.156 J-5.973
G1 X1053.329 Y169.371
G2 X1053.531 Y169.432 I1.941 J-6.046
G1 X1055.111 Y169.882
G2 X1055.326 Y169.939 I1.739 J-6.107
G1 X1056.916 Y170.332
G2 X1057.134 Y170.382 I1.524 J-6.164
G1 X1058.714 Y170.714
G2 X1058.958 Y170.761 I1.306 J-6.214
G1 X1060.538 Y171.029
G2 X1060.787 Y171.066 I1.062 J-6.261
G1 X1062.337 Y171.266
G2 X1062.559 Y171.29 I0.813 J-6.298
G1 X1063.329 Y171.362
G2 X1063.47 Y171.374 I0.591 J-6.322
G1 X1064.23 Y171.428
G2 X1064.405 Y171.438 I0.45 J-6.334
G1 X1065.165 Y171.471
G2 X1065.328 Y171.476 I0.275 J-6.344
G1 X1066.068 Y171.489
G2 X1066.249 Y171.49 I0.112 J-6.349
G1 X1066.989 Y171.482
G2 X1067.189 Y171.476 I-0.069 J-6.35
G1 X1067.919 Y171.445
G2 X1068.14 Y171.432 I-0.269 J-6.344
G1 X1068.85 Y171.377
G2 X1069.063 Y171.357 I-0.49 J-6.331
G1 X1069.763 Y171.279
G2 X1070.006 Y171.247 I-0.703 J-6.311
G1 X1070.696 Y171.143
G2 X1070.942 Y171.101 I-0.946 J-6.279
G1 X1071.622 Y170.971
G2 X1071.879 Y170.917 I-1.192 J-6.237
G1 X1072.549 Y170.76
G2 X1072.847 Y170.682 I-1.449 J-6.183
G1 X1073.497 Y170.496
G2 X1073.809 Y170.398 I-1.747 J-6.105
G1 X1074.439 Y170.182
G2 X1074.698 Y170.087 I-2.059 J-6.007
G1 X1075.328 Y169.84
G2 X1075.688 Y169.686 I-2.318 J-5.912
G1 X1076.287 Y169.407
G2 X1076.578 Y169.262 I-2.677 J-5.758
G1 X1077.168 Y168.95
G2 X1077.46 Y168.786 I-2.969 J-5.613
G1 X1078.04 Y168.439
G2 X1078.365 Y168.231 I-3.26 J-5.449
G1 X1078.925 Y167.848
G2 X1079.244 Y167.615 I-3.585 J-5.241
G1 X1079.784 Y167.194
G2 X1080.032 Y166.991 I-3.904 J-5.008
G1 X1080.562 Y166.533
G2 X1080.851 Y166.267 I-4.152 J-4.805
G1 X1081.361 Y165.768
G2 X1081.623 Y165.496 I-4.441 J-4.539
G1 X1082.113 Y164.956
G2 X1082.35 Y164.679 I-4.703 J-4.267
G1 X1082.82 Y164.097
G2 X1082.997 Y163.867 I-4.94 J-3.99
G1 X1083.457 Y163.241
G2 X1083.689 Y162.904 I-5.117 J-3.76
G1 X1084.119 Y162.232
G2 X1084.216 Y162.075 I-5.349 J-3.423
G1 X1084.646 Y161.358
G2 X1084.829 Y161.031 I-5.446 J-3.266
G1 X1085.229 Y160.265
G2 X1085.354 Y160.012 I-5.629 J-2.939
G1 X1085.734 Y159.198
G2 X1085.818 Y159.009 I-5.754 J-2.686
G1 X1086.188 Y158.144
G2 X1086.303 Y157.857 I-5.838 J-2.497
G1 X1086.643 Y156.941
G2 X1086.701 Y156.778 I-5.953 J-2.21
G1 X1087.031 Y155.809
G2 X1087.097 Y155.605 I-6.011 J-2.047
G1 X1087.407 Y154.583
G2 X1087.462 Y154.39 I-6.077 J-1.843
G1 X1087.752 Y153.312
G2 X1087.797 Y153.133 I-6.132 J-1.65
G1 X1088.067 Y151.999
G2 X1088.094 Y151.882 I-6.177 J-1.471
G1 X1088.354 Y150.691
G2 X1088.395 Y150.486 I-6.204 J-1.354
G1 X1088.625 Y149.236
G2 X1088.642 Y149.139 I-6.245 J-1.149
G1 X1088.862 Y147.83
G2 X1088.883 Y147.695 I-6.262 J-1.052
G1 X1089.083 Y146.325
G2 X1089.106 Y146.157 I-6.283 J-0.917
G1 X1089.276 Y144.726
G2 X1089.284 Y144.654 I-6.306 J-0.749
G1 X1089.444 Y143.162
G2 X1089.454 Y143.054 I-6.314 J-0.677
G1 X1089.594 Y141.498
G2 X1089.603 Y141.398 I-6.324 J-0.569
G1 X1089.723 Y139.778
G2 X1089.726 Y139.723 I-6.333 J-0.469
G1 X1089.837 Y138.039
G2 X1089.843 Y137.915 I-6.337 J-0.414
G1 X1089.923 Y136.166
G2 X1089.925 Y136.121 I-6.343 J-0.29
G1 X1089.995 Y134.306
G2 X1089.999 Y134.196 I-6.345 J-0.245
G1 X1090.039 Y132.315
G2 Y132.278 I-6.349 J-0.135
G1 X1090.069 Y130.331
G2 X1090.07 Y130.265 I-6.349 J-0.098
G1 X1090.08 Y128.251
G2 Y128.188 I-6.35 J-0.032
G1 X1090.07 Y126.214
Y126.107
G2 X1090.069 Y126.049 I-6.35 J0.031
G1 X1090.039 Y123.901
G2 X1090.038 Y123.842 I-6.349 J0.089
G1 X1089.988 Y121.694
G2 X1089.987 Y121.659 I-6.348 J0.148
G1 X1089.927 Y119.579
G2 X1089.925 Y119.51 I-6.347 J0.183
G1 X1089.845 Y117.497
G2 X1089.843 Y117.455 I-6.345 J0.252
G1 X1089.753 Y115.51
G2 X1089.749 Y115.433 I-6.343 J0.294
G1 X1089.639 Y113.555
G2 X1089.634 Y113.471 I-6.339 J0.371
G1 X1089.504 Y111.66
G2 X1089.497 Y111.571 I-6.334 J0.455
G1 X1089.347 Y109.826
G2 X1089.341 Y109.768 I-6.327 J0.544
G1 X1089.181 Y108.088
G2 X1089.171 Y107.986 I-6.321 J0.602
G1 X1088.991 Y106.372
G2 X1088.983 Y106.303 I-6.311 J0.704
G1 X1088.793 Y104.753
G2 X1088.777 Y104.637 I-6.303 J0.773
G1 X1088.568 Y103.151
G2 X1088.549 Y103.027 I-6.287 J0.889
G1 X1088.319 Y101.603
G2 X1088.296 Y101.47 I-6.269 J1.013
G1 X1088.046 Y100.108
G2 X1088.027 Y100.009 I-6.246 J1.146
G1 X1087.767 Y98.709
G2 X1087.734 Y98.556 I-6.227 J1.245
G1 X1087.454 Y97.315
G2 X1087.427 Y97.199 I-6.194 J1.398
G1 X1087.137 Y96.017
G2 X1087.091 Y95.842 I-6.167 J1.513
G1 X1086.781 Y94.718
G2 X1086.726 Y94.531 I-6.121 J1.688
G1 X1086.396 Y93.464
G2 X1086.331 Y93.263 I-6.067 J1.876
G1 X1085.981 Y92.252
G2 X1085.923 Y92.092 I-6.001 J2.077
G1 X1085.563 Y91.136
G2 X1085.473 Y90.91 I-5.943 J2.236
G1 X1085.093 Y90.006
G2 X1085.013 Y89.824 I-5.853 J2.462
G1 X1084.623 Y88.973
G2 X1084.502 Y88.722 I-5.773 J2.645
G1 X1084.092 Y87.922
G2 X1083.95 Y87.661 I-5.652 J2.895
G1 X1083.521 Y86.91
G2 X1083.357 Y86.641 I-5.51 J3.156
G1 X1082.907 Y85.938
G2 X1082.758 Y85.716 I-5.347 J3.425
G1 X1082.298 Y85.06
G2 X1082.09 Y84.78 I-5.198 J3.647
G1 X1081.61 Y84.17
G2 X1081.419 Y83.939 I-4.99 J3.928
G1 X1080.929 Y83.374
G2 X1080.674 Y83.097 I-4.799 J4.159
G1 X1080.164 Y82.574
G2 X1079.885 Y82.306 I-4.544 J4.436
G1 X1079.356 Y81.826
G2 X1079.102 Y81.608 I-4.266 J4.704
G1 X1078.562 Y81.167
G2 X1078.291 Y80.958 I-4.012 J4.922
G1 X1077.741 Y80.557
G2 X1077.371 Y80.307 I-3.741 J5.131
G1 X1076.791 Y79.944
G2 X1076.537 Y79.793 I-3.371 J5.381
G1 X1075.957 Y79.466
G2 X1075.615 Y79.287 I-3.117 J5.532
G1 X1075.015 Y78.995
G2 X1074.676 Y78.843 I-2.775 J5.712
G1 X1074.056 Y78.585
G2 X1073.755 Y78.469 I-2.436 J5.864
G1 X1073.125 Y78.244
G2 X1072.828 Y78.146 I-2.135 J5.98
G1 X1072.188 Y77.952
G2 X1071.875 Y77.867 I-1.838 J6.078
G1 X1071.215 Y77.703
G2 X1070.937 Y77.641 I-1.525 J6.164
G1 X1070.267 Y77.507
G2 X1070.026 Y77.463 I-1.247 J6.226
X1070.001 Y77.459 Z43.999 I-1.006 J6.27 F400.3
G1 X1069.321 Y77.353 Z43.975
G2 X1069.057 Y77.318 Z43.966 I-0.981 J6.274
G1 X1068.357 Y77.238 Z43.941
G2 X1068.128 Y77.216 Z43.933 I-0.717 J6.309
G1 X1067.427 Y77.162 Z43.909
G2 X1067.197 Y77.149 Z43.901 I-0.488 J6.331
G1 X1066.477 Y77.119 Z43.875
G2 X1066.269 Y77.114 Z43.868 I-0.257 J6.345
G1 X1065.539 Y77.109 Z43.843
G2 X1065.34 Y77.11 Z43.836 I-0.049 J6.35
G1 X1064.61 Y77.128 Z43.81
G2 X1064.431 Y77.134 Z43.804 I0.15 J6.348
G1 X1063.681 Y77.173 Z43.778
G2 X1063.505 Y77.185 Z43.772 I0.329 J6.341
G1 X1062.755 Y77.245 Z43.745
G2 X1062.595 Y77.259 Z43.74 I0.505 J6.33
G1 X1061.835 Y77.339 Z43.713
G2 X1061.677 Y77.358 Z43.707 I0.665 J6.315
G1 X1060.917 Y77.457 Z43.681
G2 X1060.714 Y77.487 Z43.673 I0.823 J6.296
G1 X1059.164 Y77.741 Z43.619
G2 X1058.911 Y77.788 Z43.61 I1.026 J6.267
G1 X1057.341 Y78.111 Z43.554
G2 X1057.099 Y78.165 Z43.545 I1.279 J6.22
G1 X1055.529 Y78.553 Z43.489
G2 X1055.308 Y78.611 Z43.481 I1.521 J6.165
G1 X1053.738 Y79.059 Z43.424
G2 X1053.525 Y79.124 Z43.416 I1.742 J6.106
G1 X1051.965 Y79.629 Z43.358
G2 X1051.767 Y79.697 Z43.351 I1.955 J6.042
G1 X1050.217 Y80.255 Z43.294
G2 X1050.02 Y80.33 Z43.286 I2.153 J5.974
G1 X1048.49 Y80.94 Z43.229
G2 X1048.289 Y81.024 Z43.221 I2.35 J5.899
G1 X1046.789 Y81.682 Z43.164
G2 X1046.582 Y81.777 Z43.156 I2.551 J5.815
G1 X1045.122 Y82.481 Z43.099
G2 X1044.921 Y82.582 Z43.092 I2.758 J5.72
G1 X1043.501 Y83.33 Z43.036
G2 X1043.307 Y83.437 Z43.028 I2.959 J5.619
G1 X1041.927 Y84.226 Z42.972
G2 X1041.704 Y84.36 Z42.963 I3.153 J5.512
G1 X1040.384 Y85.188 Z42.909
G2 X1040.183 Y85.32 Z42.9 I3.376 J5.378
G1 X1038.913 Y86.185 Z42.847
G2 X1038.72 Y86.322 Z42.838 I3.577 J5.247
G1 X1037.5 Y87.222 Z42.786
G2 X1037.293 Y87.382 Z42.776 I3.77 J5.11
G1 X1036.133 Y88.313 Z42.724
G2 X1035.955 Y88.462 Z42.716 I3.977 J4.951
G1 X1034.845 Y89.422 Z42.665
G2 X1034.699 Y89.553 Z42.658 I4.155 J4.802
G1 X1033.629 Y90.538 Z42.607
G2 X1033.448 Y90.711 Z42.599 I4.302 J4.671
G1 X1032.438 Y91.718 Z42.549
G2 X1032.357 Y91.8 Z42.545 I4.482 J4.498
G1 X1031.367 Y92.823 Z42.495
G2 X1031.236 Y92.962 Z42.488 I4.563 J4.416
G1 X1029.346 Y95.037 Z42.39
G2 X1029.335 Y95.049 I4.694 J4.277
G1 X1027.505 Y97.069 Z42.295
X1026.663 Y97.955 Z42.252
X1025.805 Y98.797 Z42.21
X1024.903 Y99.62 Z42.167
X1024.492 Y99.969 Z42.149
X1024.067 Y100.311 Z42.13
X1023.614 Y100.65 Z42.11
X1023.137 Y100.987 Z42.089
X1022.655 Y101.305 Z42.069
X1022.144 Y101.617 Z42.048
X1021.604 Y101.924 Z42.027
X1021.046 Y102.217 Z42.005
X1020.927 Y102.274 Z42
X1020.442 Y102.508 F849.6
X1019.807 Y102.79
X1019.153 Y103.055
X1018.438 Y103.315
X1017.667 Y103.57
X1016.856 Y103.812
X1015.988 Y104.043
X1015.078 Y104.259
X1014.104 Y104.462
X1013.067 Y104.651
X1011.972 Y104.823
X1010.815 Y104.979
X1009.604 Y105.118
X1008.33 Y105.237
X1006.987 Y105.336
X1005.582 Y105.415
X1004.112 Y105.475
X1002.591 Y105.513
X1001.017 Y105.528
X999.513 Y105.519
X998.076 Y105.486
X996.701 Y105.43
X995.395 Y105.351
X994.155 Y105.251
X992.976 Y105.128
X991.86 Y104.987
X990.807 Y104.826
X989.811 Y104.648
X988.878 Y104.454
X988.005 Y104.246
X987.178 Y104.022
X986.402 Y103.786
X985.679 Y103.54
X984.987 Y103.278
X984.449 Y103.055
X983.931 Y102.821
X983.431 Y102.579
X982.959 Y102.333
X982.504 Y102.078
X982.064 Y101.815
X981.64 Y101.544
X981.259 Y101.287
X980.425 Y100.674
X979.648 Y100.046
X978.882 Y99.373
X978.112 Y98.651
X977.332 Y97.881
X976.53 Y97.064
X974.853 Y95.328
G2 X974.791 Y95.265 I-4.568 J4.411
G1 X973.061 Y93.522
G2 X972.94 Y93.404 I-4.506 J4.474
G1 X972.043 Y92.547
G2 X971.929 Y92.441 I-4.385 J4.593
G1 X971.003 Y91.599
G2 X970.871 Y91.482 I-4.271 J4.699
G1 X969.912 Y90.658
G2 X969.761 Y90.532 I-4.139 J4.816
G1 X968.765 Y89.729
G2 X968.604 Y89.603 I-3.988 J4.942
G1 X967.57 Y88.822
G2 X967.395 Y88.695 I-3.827 J5.067
G1 X966.32 Y87.939
G2 X966.143 Y87.819 I-3.652 J5.195
G1 X965.028 Y87.09
G2 X964.846 Y86.975 I-3.475 J5.315
G1 X963.691 Y86.275
G2 X963.508 Y86.168 I-3.293 J5.43
G1 X962.315 Y85.498
G2 X962.133 Y85.399 I-3.11 J5.536
G1 X960.904 Y84.761
G2 X960.722 Y84.67 I-2.928 J5.635
G1 X959.459 Y84.064
G2 X959.279 Y83.981 I-2.746 J5.726
G1 X957.986 Y83.41
G2 X957.809 Y83.335 I-2.566 J5.808
G1 X956.49 Y82.8
G2 X956.312 Y82.73 I-2.389 J5.883
G1 X954.97 Y82.232
G2 X954.793 Y82.169 I-2.211 J5.953
G1 X953.433 Y81.709
G2 X953.257 Y81.652 I-2.034 J6.015
G1 X951.885 Y81.232
G2 X951.703 Y81.18 I-1.858 J6.072
G1 X950.323 Y80.802
G2 X950.135 Y80.754 I-1.676 J6.125
G1 X948.751 Y80.42
G2 X948.558 Y80.377 I-1.488 J6.173
G1 X947.178 Y80.089
G2 X946.97 Y80.05 I-1.295 J6.217
G1 X945.596 Y79.811
G2 X945.375 Y79.776 I-1.087 J6.256
G1 X944.015 Y79.589
G2 X943.772 Y79.561 I-0.866 J6.291
G1 X942.429 Y79.428
G2 X942.16 Y79.407 I-0.623 J6.319
G1 X940.838 Y79.333
G2 X940.539 Y79.324 I-0.354 J6.34
G1 X939.245 Y79.313
G2 X938.91 Y79.318 I-0.055 J6.35
G1 X937.646 Y79.374
G2 X937.37 Y79.392 I0.28 J6.344
G1 X936.75 Y79.447
G2 X936.551 Y79.468 I0.556 J6.326
G1 X935.94 Y79.541
G2 X935.728 Y79.57 I0.755 J6.305
G1 X935.127 Y79.662
G2 X934.907 Y79.7 I0.967 J6.276
G1 X934.316 Y79.813
G2 X934.084 Y79.861 I1.187 J6.238
G1 X933.502 Y79.995
G2 X933.259 Y80.055 I1.419 J6.189
G1 X932.688 Y80.21
G2 X932.435 Y80.285 I1.661 J6.129
G1 X931.875 Y80.462
G2 X931.614 Y80.551 I1.915 J6.054
G1 X931.065 Y80.751
G2 X930.8 Y80.854 I2.176 J5.965
G1 X930.262 Y81.078
G2 X929.988 Y81.2 I2.441 J5.862
G1 X929.462 Y81.449
G2 X929.187 Y81.587 I2.715 J5.74
G1 X928.673 Y81.861
G2 X928.406 Y82.013 I2.99 J5.602
G1 X927.903 Y82.313
G2 X927.628 Y82.487 I3.257 J5.451
G1 X927.138 Y82.815
G2 X926.873 Y83.003 I3.531 J5.277
G1 X926.396 Y83.358
G2 X926.145 Y83.556 I3.797 J5.089
G1 X925.68 Y83.941
G2 X925.436 Y84.153 I4.048 J4.892
G1 X924.984 Y84.568
G2 X924.755 Y84.789 I4.292 J4.68
G1 X924.315 Y85.234
G2 X924.102 Y85.462 I4.521 J4.459
G1 X923.676 Y85.939
G2 X923.475 Y86.175 I4.735 J4.231
G1 X923.063 Y86.684
G2 X922.884 Y86.916 I4.936 J3.995
G1 X922.485 Y87.459
G2 X922.319 Y87.694 I5.115 J3.762
G1 X921.934 Y88.271
G2 X921.79 Y88.497 I5.281 J3.527
G1 X921.418 Y89.109
G2 X921.286 Y89.336 I5.425 J3.3
G1 X920.928 Y89.983
G2 X920.812 Y90.204 I5.557 J3.073
G1 X920.468 Y90.888
G2 X920.366 Y91.1 I5.673 J2.853
G1 X920.036 Y91.821
G2 X919.95 Y92.018 I5.775 J2.641
G1 X919.633 Y92.778
G2 X919.554 Y92.977 I5.861 J2.444
G1 X919.252 Y93.777
G2 X919.186 Y93.96 I5.94 J2.245
G1 X918.898 Y94.8
G2 X918.841 Y94.973 I6.006 J2.061
G1 X918.567 Y95.853
G2 X918.517 Y96.023 I6.063 J1.888
G1 X918.258 Y96.944
G2 X918.218 Y97.092 I6.113 J1.718
G1 X917.972 Y98.056
G2 X917.936 Y98.206 I6.153 J1.57
G1 X917.705 Y99.213
G2 X917.675 Y99.349 I6.189 J1.42
G1 X917.458 Y100.4
G2 X917.433 Y100.528 I6.219 J1.284
G1 X917.23 Y101.624
G2 X917.209 Y101.747 I6.244 J1.156
G1 X917.021 Y102.887
G2 X917.003 Y102.999 I6.265 J1.033
G1 X916.829 Y104.186
G2 X916.815 Y104.289 I6.283 J0.921
G1 X916.655 Y105.521
G2 X916.642 Y105.624 I6.297 J0.818
G1 X916.497 Y106.904
G2 X916.488 Y106.996 I6.31 J0.715
G1 X916.357 Y108.324
G2 X916.349 Y108.409 I6.319 J0.623
G1 X916.232 Y109.784
G2 X916.225 Y109.868 I6.327 J0.538
G1 X916.123 Y111.292
G2 X916.119 Y111.363 I6.334 J0.454
G1 X916.03 Y112.836
G2 X916.025 Y112.915 I6.338 J0.383
G1 X915.952 Y114.438
G2 X915.95 Y114.5 I6.343 J0.304
G1 X915.89 Y116.072
G2 X915.887 Y116.138 I6.345 J0.242
G1 X915.842 Y117.761
G2 X915.841 Y117.819 I6.348 J0.176
G1 X915.81 Y119.491
G2 X915.809 Y119.546 I6.349 J0.118
G1 X915.792 Y121.27
G2 Y121.326 I6.35 J0.063
G1 X915.79 Y123.1
G2 Y123.149 I6.35 J0.007
G1 X915.802 Y124.975
G2 X915.803 Y125.021 I6.35 J-0.042
G1 X915.829 Y126.897
G2 Y126.941 I6.349 J-0.088
G1 X915.868 Y128.817
G2 X915.87 Y128.866 I6.349 J-0.132
G1 X915.922 Y130.691
G2 X915.923 Y130.739 I6.347 J-0.181
G1 X915.987 Y132.512
G2 X915.989 Y132.567 I6.346 J-0.229
G1 X916.066 Y134.289
G2 X916.069 Y134.343 I6.344 J-0.284
G1 X916.158 Y136.014
G2 X916.162 Y136.075 I6.341 J-0.338
G1 X916.264 Y137.695
G2 X916.268 Y137.76 I6.337 J-0.399
G1 X916.383 Y139.329
G2 X916.388 Y139.394 I6.333 J-0.464
G1 X916.515 Y140.913
G2 X916.521 Y140.982 I6.328 J-0.529
G1 X916.66 Y142.451
G2 X916.668 Y142.529 I6.322 J-0.598
G1 X916.82 Y143.949
G2 X916.83 Y144.032 I6.314 J-0.676
G1 X916.995 Y145.402
G2 X917.005 Y145.486 I6.304 J-0.759
G1 X917.182 Y146.808
G2 X917.195 Y146.902 I6.294 J-0.843
G1 X917.385 Y148.176
G2 X917.401 Y148.275 I6.281 J-0.937
G1 X917.604 Y149.502
G2 X917.622 Y149.604 I6.265 J-1.036
G1 X917.837 Y150.784
G2 X917.859 Y150.899 I6.247 J-1.138
G1 X918.087 Y152.032
G2 X918.113 Y152.153 I6.225 J-1.253
G1 X918.354 Y153.24
G2 X918.382 Y153.363 I6.199 J-1.374
G1 X918.635 Y154.406
G2 X918.671 Y154.549 I6.171 J-1.497
G1 X918.938 Y155.548
G2 X918.978 Y155.69 I6.135 J-1.64
G1 X919.257 Y156.644
G2 X919.302 Y156.792 I6.095 J-1.782
G1 X919.594 Y157.704
G2 X919.651 Y157.875 I6.049 J-1.93
G1 X919.956 Y158.745
G2 X920.017 Y158.912 I5.992 J-2.101
G1 X920.334 Y159.741
G2 X920.408 Y159.926 I5.931 J-2.268
G1 X920.738 Y160.714
G2 X920.819 Y160.899 I5.857 J-2.453
G1 X921.161 Y161.648
G2 X921.259 Y161.853 I5.776 J-2.638
G1 X921.614 Y162.562
G2 X921.722 Y162.769 I5.678 J-2.843
G1 X922.09 Y163.441
G2 X922.215 Y163.658 I5.57 J-3.05
G1 X922.596 Y164.293
G2 X922.73 Y164.507 I5.445 J-3.267
G1 X923.122 Y165.105
G2 X923.286 Y165.343 I5.311 J-3.481
G1 X923.692 Y165.905
G2 X923.852 Y166.117 I5.147 J-3.719
G1 X924.269 Y166.646
G2 X924.466 Y166.884 I4.987 J-3.931
G1 X924.896 Y167.378
G2 X925.098 Y167.599 I4.79 J-4.169
G1 X925.54 Y168.061
G2 X925.772 Y168.291 I4.588 J-4.39
G1 X926.227 Y168.72
G2 X926.453 Y168.923 I4.356 J-4.62
G1 X926.919 Y169.322
G2 X927.175 Y169.531 I4.13 J-4.823
G1 X927.653 Y169.899
G2 X927.909 Y170.086 I3.874 J-5.032
G1 X928.398 Y170.425
G2 X928.667 Y170.601 I3.618 J-5.219
G1 X929.168 Y170.912
G2 X929.45 Y171.077 I3.349 J-5.395
G1 X929.963 Y171.36
G2 X930.243 Y171.506 I3.067 J-5.56
G1 X930.767 Y171.762
G2 X931.042 Y171.888 I2.787 J-5.706
G1 X931.576 Y172.118
G2 X931.852 Y172.229 I2.512 J-5.832
G1 X932.397 Y172.434
G2 X932.667 Y172.529 I2.236 J-5.943
G1 X933.223 Y172.71
G2 X933.482 Y172.788 I1.966 J-6.038
G1 X934.048 Y172.946
G2 X934.306 Y173.012 I1.707 J-6.116
G1 X934.882 Y173.147
G2 X935.129 Y173.2 I1.449 J-6.182
G1 X935.715 Y173.313
G2 X935.957 Y173.355 I1.202 J-6.235
G1 X936.552 Y173.446
G2 X936.76 Y173.474 I0.96 J-6.277
G1 X937.364 Y173.546
G2 X937.579 Y173.568 I0.752 J-6.305
G1 X938.192 Y173.62
G2 X938.392 Y173.634 I0.537 J-6.327
G1 X939.013 Y173.667
G2 X939.295 Y173.676 I0.337 J-6.341
G1 X940.56 Y173.687
G2 X940.89 Y173.681 I0.055 J-6.35
G1 X942.184 Y173.625
G2 X942.485 Y173.605 I-0.275 J-6.344
G1 X943.803 Y173.485
G2 X944.07 Y173.455 I-0.576 J-6.324
G1 X945.407 Y173.276
G2 X945.65 Y173.238 I-0.843 J-6.294
G1 X947.004 Y173.003
G2 X947.225 Y172.961 I-1.086 J-6.256
G1 X948.589 Y172.674
G2 X948.79 Y172.628 I-1.307 J-6.214
G1 X950.16 Y172.293
G2 X950.358 Y172.242 I-1.508 J-6.168
G1 X951.728 Y171.86
G2 X951.907 Y171.807 I-1.706 J-6.117
G1 X953.274 Y171.382
G2 X953.459 Y171.321 I-1.885 J-6.064
G1 X954.816 Y170.853
G2 X954.99 Y170.79 I-2.07 J-6.003
G1 X956.332 Y170.283
G2 X956.505 Y170.215 I-2.244 J-5.94
G1 X957.829 Y169.67
G2 X958.003 Y169.595 I-2.417 J-5.872
G1 X959.303 Y169.014
G2 X959.48 Y168.932 I-2.591 J-5.797
G1 X960.752 Y168.316
G2 X960.93 Y168.226 I-2.768 J-5.715
G1 X962.171 Y167.576
G2 X962.347 Y167.48 I-2.946 J-5.625
G1 X963.553 Y166.799
G2 X963.731 Y166.695 I-3.122 J-5.529
G1 X964.9 Y165.984
G2 X965.082 Y165.869 I-3.3 J-5.425
G1 X966.212 Y165.128
G2 X966.387 Y165.01 I-3.482 J-5.31
G1 X967.476 Y164.243
G2 X967.653 Y164.113 I-3.657 J-5.192
G1 X968.7 Y163.32
G2 X968.867 Y163.189 I-3.834 J-5.062
G1 X969.874 Y162.372
G2 X970.029 Y162.242 I-4.001 J-4.931
G1 X970.996 Y161.405
G2 X971.146 Y161.271 I-4.156 J-4.801
G1 X972.076 Y160.413
G2 X972.201 Y160.294 I-4.306 J-4.667
G1 X973.097 Y159.421
G2 X973.21 Y159.309 I-4.431 J-4.548
G1 X974.076 Y158.422
G2 X974.191 Y158.301 I-4.544 J-4.436
G1 X975.86 Y156.499
G2 X975.922 Y156.431 I-4.659 J-4.315
G1 X977.535 Y154.638
X978.306 Y153.796
X979.06 Y152.998
X979.806 Y152.249
X980.549 Y151.548
X981.301 Y150.895
X982.113 Y150.255
X982.487 Y149.983
X982.903 Y149.696
X983.33 Y149.42
X983.774 Y149.15
X984.239 Y148.887
X984.73 Y148.627
X985.239 Y148.376
X985.768 Y148.135
X986.452 Y147.849
X987.171 Y147.576
X987.933 Y147.314
X988.749 Y147.062
X989.619 Y146.822
X990.546 Y146.596
X991.534 Y146.383
X992.579 Y146.186
X993.687 Y146.006
X994.861 Y145.843
X996.101 Y145.699
X997.403 Y145.574
X998.774 Y145.47
X1000.209 Y145.387
X1001.708 Y145.326
X1003.281 Y145.286
X1004.815 Y145.271
X1006.284 Y145.279
X1007.687 Y145.309
X1009.03 Y145.362
X1010.308 Y145.437
X1011.528 Y145.531
X1012.688 Y145.647
X1013.785 Y145.782
X1014.831 Y145.934
X1015.804 Y146.103
X1016.727 Y146.288
X1017.6 Y146.488
X1018.419 Y146.701
X1019.196 Y146.928
X1019.915 Y147.162
X1020.593 Y147.41
X1021.244 Y147.67
X1021.849 Y147.936
X1022.422 Y148.211
X1022.955 Y148.49
X1023.47 Y148.783
X1023.975 Y149.093
X1024.461 Y149.41
X1024.922 Y149.733
X1025.383 Y150.076
X1025.796 Y150.401
X1026.71 Y151.18
X1027.601 Y152
X1028.483 Y152.861
X1030.376 Y154.809
G2 X1030.398 Y154.832 I4.554 J-4.425
G1 X1032.368 Y156.839
G2 X1032.46 Y156.93 I4.532 J-4.448
G1 X1033.47 Y157.918
G2 X1033.621 Y158.061 I4.44 J-4.539
G1 X1034.681 Y159.032
G2 X1034.805 Y159.144 I4.289 J-4.682
G1 X1035.895 Y160.091
G2 X1036.091 Y160.253 I4.165 J-4.794
G1 X1037.241 Y161.174
G2 X1037.404 Y161.301 I3.969 J-4.956
G1 X1038.594 Y162.192
G2 X1038.809 Y162.346 I3.806 J-5.083
G1 X1040.059 Y163.203
G2 X1040.262 Y163.337 I3.591 J-5.237
G1 X1041.562 Y164.157
G2 X1041.767 Y164.281 I3.388 J-5.371
G1 X1043.117 Y165.063
G2 X1043.329 Y165.18 I3.183 J-5.495
G1 X1044.729 Y165.921
G2 X1044.946 Y166.031 I2.97 J-5.612
G1 X1046.396 Y166.729
G2 X1046.601 Y166.823 I2.754 J-5.722
G1 X1048.091 Y167.476
G2 X1048.292 Y167.56 I2.549 J-5.816
G1 X1049.812 Y168.165
G2 X1050.004 Y168.238 I2.348 J-5.9
G1 X1051.544 Y168.794
G2 X1051.759 Y168.867 I2.156 J-5.973
G1 X1053.329 Y169.371
G2 X1053.531 Y169.432 I1.941 J-6.046
G1 X1055.111 Y169.882
G2 X1055.326 Y169.939 I1.739 J-6.107
G1 X1056.916 Y170.332
G2 X1057.134 Y170.382 I1.524 J-6.164
G1 X1058.714 Y170.714
G2 X1058.958 Y170.761 I1.306 J-6.214
G1 X1060.538 Y171.029
G2 X1060.787 Y171.066 I1.062 J-6.261
G1 X1062.337 Y171.266
G2 X1062.559 Y171.29 I0.813 J-6.298
G1 X1063.329 Y171.362
G2 X1063.47 Y171.374 I0.591 J-6.322
