%
(1001)
(Z0 stock bottom)
(T1  D=12.7 CR=0 - ZMIN=10 - flat end mill)
G90 G94
G17
G21

(2D Contour7 5)
M9
T1 M6
S6000 M3
G54
M9
G0 X420.596 Y190.06
Z65
Z55
G1 Z54 F849.6
Z53.77
G19 G2 Y188.79 Z52.5 J-1.27
G1 Y187.52
G17 G3 X421.866 Y186.25 I1.27
G1 X579.365 Z47 F400.3
X1014.27 F849.6
G2 X1019.407 Y183.633 J-6.35
G1 X1150.047 Y3.833
G2 X1144.91 Y-6.25 I-5.137 J-3.733
G1 X596.082
G2 X590.274 Y2.668 J6.35
G1 X590.585 Y3.371
G2 X590.663 Y3.541 I5.808 J-2.568
G1 X590.986 Y4.217
G2 X591.072 Y4.389 I5.73 J-2.737
G1 X591.407 Y5.039
G2 X591.491 Y5.197 I5.644 J-2.909
G1 X591.836 Y5.822
G2 X591.926 Y5.98 I5.56 J-3.067
G1 X592.281 Y6.582
G2 X592.38 Y6.745 I5.47 J-3.225
G1 X592.746 Y7.325
G2 X592.838 Y7.465 I5.371 J-3.388
G1 X593.212 Y8.025
G2 X593.315 Y8.175 I5.279 J-3.528
G1 X593.699 Y8.715
G2 X593.838 Y8.904 I5.176 J-3.678
G1 X594.628 Y9.933
G2 X594.813 Y10.163 I5.037 J-3.867
G1 X595.631 Y11.132
G2 X595.797 Y11.32 I4.852 J-4.097
G1 X596.638 Y12.24
G2 X596.782 Y12.392 I4.686 J-4.286
G1 X597.643 Y13.273
G2 X597.784 Y13.413 I4.542 J-4.438
G1 X599.544 Y15.105
G2 X599.605 Y15.163 I4.401 J-4.577
G1 X601.355 Y16.802
X603.038 Y18.42
X603.799 Y19.189
X604.539 Y19.974
X605.247 Y20.772
X605.932 Y21.598
X606.602 Y22.462
X607.253 Y23.361
X607.884 Y24.294
X608.493 Y25.264
X609.078 Y26.266
X609.64 Y27.303
X610.175 Y28.373
X610.685 Y29.48
X611.169 Y30.621
X611.623 Y31.782
X612.043 Y32.957
X612.426 Y34.143
X612.772 Y35.33
X613.076 Y36.514
X613.34 Y37.691
X613.559 Y38.847
X613.732 Y39.978
X613.859 Y41.07
X613.935 Y42.106
X613.96 Y43.08
X613.933 Y44.037
X613.906 Y44.412
X613.863 Y44.818
X613.809 Y45.207
X613.746 Y45.567
X613.67 Y45.916
X613.585 Y46.247
X613.492 Y46.556
X613.389 Y46.85
X613.28 Y47.125
X613.162 Y47.382
X613.035 Y47.629
X612.899 Y47.864
X612.753 Y48.088
X612.592 Y48.311
X612.412 Y48.534
X612.214 Y48.757
X611.993 Y48.981
X611.744 Y49.209
X611.466 Y49.441
X611.156 Y49.676
X610.809 Y49.917
X610.424 Y50.159
X609.998 Y50.404
X609.528 Y50.651
X609.014 Y50.897
X608.453 Y51.142
X607.843 Y51.384
X607.184 Y51.623
X606.478 Y51.856
X605.719 Y52.084
X604.907 Y52.305
X604.044 Y52.519
X603.126 Y52.724
X602.154 Y52.92
X601.131 Y53.107
X600.055 Y53.284
X598.924 Y53.45
X597.741 Y53.605
X596.505 Y53.748
X595.216 Y53.88
X593.873 Y54
X592.477 Y54.108
X591.028 Y54.204
X589.524 Y54.287
X587.966 Y54.357
X586.354 Y54.415
X584.687 Y54.461
X582.967 Y54.493
X581.191 Y54.512
X579.363 Y54.519
X577.534 Y54.512
X575.759 Y54.493
X574.038 Y54.461
X572.371 Y54.415
X570.759 Y54.357
X569.201 Y54.287
X567.697 Y54.204
X566.248 Y54.108
X564.852 Y54
X563.509 Y53.88
X562.22 Y53.748
X560.984 Y53.605
X559.801 Y53.45
X558.671 Y53.284
X557.594 Y53.107
X556.571 Y52.92
X555.6 Y52.724
X554.682 Y52.518
X553.817 Y52.305
X553.007 Y52.084
X552.248 Y51.856
X551.54 Y51.623
X550.882 Y51.384
X550.274 Y51.142
X549.714 Y50.898
X549.198 Y50.651
X548.728 Y50.404
X548.302 Y50.159
X547.917 Y49.917
X547.57 Y49.676
X547.257 Y49.439
X546.982 Y49.209
X546.736 Y48.983
X546.513 Y48.757
X546.314 Y48.534
X546.134 Y48.311
X545.973 Y48.088
X545.825 Y47.86
X545.69 Y47.629
X545.566 Y47.386
X545.446 Y47.125
X545.335 Y46.845
X545.232 Y46.551
X545.14 Y46.247
X545.056 Y45.921
X544.981 Y45.573
X544.916 Y45.202
X544.862 Y44.818
X544.82 Y44.417
X544.792 Y44.034
X544.765 Y43.08
X544.791 Y42.109
X544.867 Y41.07
X544.994 Y39.978
X545.167 Y38.845
X545.386 Y37.689
X545.648 Y36.516
X545.954 Y35.33
X546.299 Y34.143
X546.683 Y32.959
X547.103 Y31.78
X547.556 Y30.619
X548.04 Y29.481
X548.551 Y28.373
X549.085 Y27.303
X549.647 Y26.267
X550.233 Y25.264
X550.842 Y24.294
X551.474 Y23.359
X552.125 Y22.46
X552.793 Y21.598
X553.478 Y20.772
X554.186 Y19.974
X554.926 Y19.189
X555.687 Y18.42
X557.37 Y16.802
X559.121 Y15.163
G2 X559.182 Y15.105 I-4.34 J-4.635
G1 X560.942 Y13.413
G2 X561.086 Y13.27 I-4.401 J-4.577
G1 X561.946 Y12.389
G2 X562.084 Y12.243 I-4.545 J-4.435
G1 X562.926 Y11.323
G2 X563.095 Y11.132 I-4.683 J-4.288
G1 X563.913 Y10.163
G2 X564.098 Y9.933 I-4.852 J-4.097
G1 X564.888 Y8.904
G2 X565.032 Y8.709 I-5.037 J-3.867
G1 X565.415 Y8.168
G2 X565.509 Y8.032 I-5.181 J-3.672
G1 X565.884 Y7.472
G2 X565.984 Y7.319 I-5.275 J-3.535
G1 X566.349 Y6.738
G2 X566.44 Y6.589 I-5.375 J-3.381
G1 X566.796 Y5.987
G2 X566.89 Y5.822 I-5.466 J-3.232
G1 X567.235 Y5.197
G2 X567.323 Y5.032 I-5.56 J-3.067
G1 X567.657 Y4.382
G2 X567.739 Y4.217 I-5.648 J-2.902
G1 X568.062 Y3.541
G2 X568.14 Y3.371 I-5.73 J-2.737
G1 X568.451 Y2.668
G2 X562.643 Y-6.25 I-5.808 J-2.568
G1 X13.82
G2 X8.683 Y3.832 J6.35
G1 X139.316 Y183.632
G2 X144.453 Y186.25 I5.137 J-3.732
G1 X579.365
X704.715 Z44 F400.3
X1014.27 F849.6
G2 X1019.407 Y183.633 J-6.35
G1 X1150.047 Y3.833
G2 X1144.91 Y-6.25 I-5.137 J-3.733
G1 X596.082
G2 X590.274 Y2.668 J6.35
G1 X590.585 Y3.371
G2 X590.663 Y3.541 I5.808 J-2.568
G1 X590.986 Y4.217
G2 X591.072 Y4.389 I5.73 J-2.737
G1 X591.407 Y5.039
G2 X591.491 Y5.197 I5.644 J-2.909
G1 X591.836 Y5.822
G2 X591.926 Y5.98 I5.56 J-3.067
G1 X592.281 Y6.582
G2 X592.38 Y6.745 I5.47 J-3.225
G1 X592.746 Y7.325
G2 X592.838 Y7.465 I5.371 J-3.388
G1 X593.212 Y8.025
G2 X593.315 Y8.175 I5.279 J-3.528
G1 X593.699 Y8.715
G2 X593.838 Y8.904 I5.176 J-3.678
G1 X594.628 Y9.933
G2 X594.813 Y10.163 I5.037 J-3.867
G1 X595.631 Y11.132
G2 X595.797 Y11.32 I4.852 J-4.097
G1 X596.638 Y12.24
G2 X596.782 Y12.392 I4.686 J-4.286
G1 X597.643 Y13.273
G2 X597.784 Y13.413 I4.542 J-4.438
G1 X599.544 Y15.105
G2 X599.605 Y15.163 I4.401 J-4.577
G1 X601.355 Y16.802
X603.038 Y18.42
X603.799 Y19.189
X604.539 Y19.974
X605.247 Y20.772
X605.932 Y21.598
X606.602 Y22.462
X607.253 Y23.361
X607.884 Y24.294
X608.493 Y25.264
X609.078 Y26.266
X609.64 Y27.303
X610.175 Y28.373
X610.685 Y29.48
X611.169 Y30.621
X611.623 Y31.782
X612.043 Y32.957
X612.426 Y34.143
X612.772 Y35.33
X613.076 Y36.514
X613.34 Y37.691
X613.559 Y38.847
X613.732 Y39.978
X613.859 Y41.07
X613.935 Y42.106
X613.96 Y43.08
X613.933 Y44.037
X613.906 Y44.412
X613.863 Y44.818
X613.809 Y45.207
X613.746 Y45.567
X613.67 Y45.916
X613.585 Y46.247
X613.492 Y46.556
X613.389 Y46.85
X613.28 Y47.125
X613.162 Y47.382
X613.035 Y47.629
X612.899 Y47.864
X612.753 Y48.088
X612.592 Y48.311
X612.412 Y48.534
X612.214 Y48.757
X611.993 Y48.981
X611.744 Y49.209
X611.466 Y49.441
X611.156 Y49.676
X610.809 Y49.917
X610.424 Y50.159
X609.998 Y50.404
X609.528 Y50.651
X609.014 Y50.897
X608.453 Y51.142
X607.843 Y51.384
X607.184 Y51.623
X606.478 Y51.856
X605.719 Y52.084
X604.907 Y52.305
X604.044 Y52.519
X603.126 Y52.724
X602.154 Y52.92
X601.131 Y53.107
X600.055 Y53.284
X598.924 Y53.45
X597.741 Y53.605
X596.505 Y53.748
X595.216 Y53.88
X593.873 Y54
X592.477 Y54.108
X591.028 Y54.204
X589.524 Y54.287
X587.966 Y54.357
X586.354 Y54.415
X584.687 Y54.461
X582.967 Y54.493
X581.191 Y54.512
X579.363 Y54.519
X577.534 Y54.512
X575.759 Y54.493
X574.038 Y54.461
X572.371 Y54.415
X570.759 Y54.357
X569.201 Y54.287
X567.697 Y54.204
X566.248 Y54.108
X564.852 Y54
X563.509 Y53.88
X562.22 Y53.748
X560.984 Y53.605
X559.801 Y53.45
X558.671 Y53.284
X557.594 Y53.107
X556.571 Y52.92
X555.6 Y52.724
X554.682 Y52.518
X553.817 Y52.305
X553.007 Y52.084
X552.248 Y51.856
X551.54 Y51.623
X550.882 Y51.384
X550.274 Y51.142
X549.714 Y50.898
X549.198 Y50.651
X548.728 Y50.404
X548.302 Y50.159
X547.917 Y49.917
X547.57 Y49.676
X547.257 Y49.439
X546.982 Y49.209
X546.736 Y48.983
X546.513 Y48.757
X546.314 Y48.534
X546.134 Y48.311
X545.973 Y48.088
X545.825 Y47.86
X545.69 Y47.629
X545.566 Y47.386
X545.446 Y47.125
X545.335 Y46.845
X545.232 Y46.551
X545.14 Y46.247
X545.056 Y45.921
X544.981 Y45.573
X544.916 Y45.202
X544.862 Y44.818
X544.82 Y44.417
X544.792 Y44.034
X544.765 Y43.08
X544.791 Y42.109
X544.867 Y41.07
X544.994 Y39.978
X545.167 Y38.845
X545.386 Y37.689
X545.648 Y36.516
X545.954 Y35.33
X546.299 Y34.143
X546.683 Y32.959
X547.103 Y31.78
X547.556 Y30.619
X548.04 Y29.481
X548.551 Y28.373
X549.085 Y27.303
X549.647 Y26.267
X550.233 Y25.264
X550.842 Y24.294
X551.474 Y23.359
X552.125 Y22.46
X552.793 Y21.598
X553.478 Y20.772
X554.186 Y19.974
X554.926 Y19.189
X555.687 Y18.42
X557.37 Y16.802
X559.121 Y15.163
G2 X559.182 Y15.105 I-4.34 J-4.635
G1 X560.942 Y13.413
G2 X561.086 Y13.27 I-4.401 J-4.577
G1 X561.946 Y12.389
G2 X562.084 Y12.243 I-4.545 J-4.435
G1 X562.926 Y11.323
G2 X563.095 Y11.132 I-4.683 J-4.288
G1 X563.913 Y10.163
G2 X564.098 Y9.933 I-4.852 J-4.097
G1 X564.888 Y8.904
G2 X565.032 Y8.709 I-5.037 J-3.867
G1 X565.415 Y8.168
G2 X565.509 Y8.032 I-5.181 J-3.672
G1 X565.884 Y7.472
G2 X565.984 Y7.319 I-5.275 J-3.535
G1 X566.349 Y6.738
G2 X566.44 Y6.589 I-5.375 J-3.381
G1 X566.796 Y5.987
G2 X566.89 Y5.822 I-5.466 J-3.232
G1 X567.235 Y5.197
G2 X567.323 Y5.032 I-5.56 J-3.067
G1 X567.657 Y4.382
G2 X567.739 Y4.217 I-5.648 J-2.902
G1 X568.062 Y3.541
G2 X568.14 Y3.371 I-5.73 J-2.737
G1 X568.451 Y2.668
G2 X562.643 Y-6.25 I-5.808 J-2.568
G1 X13.82
G2 X8.683 Y3.832 J6.35
G1 X139.316 Y183.632
G2 X144.453 Y186.25 I5.137 J-3.732
G1 X579.365
X704.715
X830.065 Z41 F400.3
X1014.27 F849.6
G2 X1019.407 Y183.633 J-6.35
G1 X1150.047 Y3.833
G2 X1144.91 Y-6.25 I-5.137 J-3.733
G1 X596.082
G2 X590.274 Y2.668 J6.35
G1 X590.585 Y3.371
G2 X590.663 Y3.541 I5.808 J-2.568
G1 X590.986 Y4.217
G2 X591.072 Y4.389 I5.73 J-2.737
G1 X591.407 Y5.039
G2 X591.491 Y5.197 I5.644 J-2.909
G1 X591.836 Y5.822
G2 X591.926 Y5.98 I5.56 J-3.067
G1 X592.281 Y6.582
G2 X592.38 Y6.745 I5.47 J-3.225
G1 X592.746 Y7.325
G2 X592.838 Y7.465 I5.371 J-3.388
G1 X593.212 Y8.025
G2 X593.315 Y8.175 I5.279 J-3.528
G1 X593.699 Y8.715
G2 X593.838 Y8.904 I5.176 J-3.678
G1 X594.628 Y9.933
G2 X594.813 Y10.163 I5.037 J-3.867
G1 X595.631 Y11.132
G2 X595.797 Y11.32 I4.852 J-4.097
G1 X596.638 Y12.24
G2 X596.782 Y12.392 I4.686 J-4.286
G1 X597.643 Y13.273
G2 X597.784 Y13.413 I4.542 J-4.438
G1 X599.544 Y15.105
G2 X599.605 Y15.163 I4.401 J-4.577
G1 X601.355 Y16.802
X603.038 Y18.42
X603.799 Y19.189
X604.539 Y19.974
X605.247 Y20.772
X605.932 Y21.598
X606.602 Y22.462
X607.253 Y23.361
X607.884 Y24.294
X608.493 Y25.264
X609.078 Y26.266
X609.64 Y27.303
X610.175 Y28.373
X610.685 Y29.48
X611.169 Y30.621
X611.623 Y31.782
X612.043 Y32.957
X612.426 Y34.143
X612.772 Y35.33
X613.076 Y36.514
X613.34 Y37.691
X613.559 Y38.847
X613.732 Y39.978
X613.859 Y41.07
X613.935 Y42.106
X613.96 Y43.08
X613.933 Y44.037
X613.906 Y44.412
X613.863 Y44.818
X613.809 Y45.207
X613.746 Y45.567
X613.67 Y45.916
X613.585 Y46.247
X613.492 Y46.556
X613.389 Y46.85
X613.28 Y47.125
X613.162 Y47.382
X613.035 Y47.629
X612.899 Y47.864
X612.753 Y48.088
X612.592 Y48.311
X612.412 Y48.534
X612.214 Y48.757
X611.993 Y48.981
X611.744 Y49.209
X611.466 Y49.441
X611.156 Y49.676
X610.809 Y49.917
X610.424 Y50.159
X609.998 Y50.404
X609.528 Y50.651
X609.014 Y50.897
X608.453 Y51.142
X607.843 Y51.384
X607.184 Y51.623
X606.478 Y51.856
X605.719 Y52.084
X604.907 Y52.305
X604.044 Y52.519
X603.126 Y52.724
X602.154 Y52.92
X601.131 Y53.107
X600.055 Y53.284
X598.924 Y53.45
X597.741 Y53.605
X596.505 Y53.748
X595.216 Y53.88
X593.873 Y54
X592.477 Y54.108
X591.028 Y54.204
X589.524 Y54.287
X587.966 Y54.357
X586.354 Y54.415
X584.687 Y54.461
X582.967 Y54.493
X581.191 Y54.512
X579.363 Y54.519
X577.534 Y54.512
X575.759 Y54.493
X574.038 Y54.461
X572.371 Y54.415
X570.759 Y54.357
X569.201 Y54.287
X567.697 Y54.204
X566.248 Y54.108
X564.852 Y54
X563.509 Y53.88
X562.22 Y53.748
X560.984 Y53.605
X559.801 Y53.45
X558.671 Y53.284
X557.594 Y53.107
X556.571 Y52.92
X555.6 Y52.724
X554.682 Y52.518
X553.817 Y52.305
X553.007 Y52.084
X552.248 Y51.856
X551.54 Y51.623
X550.882 Y51.384
X550.274 Y51.142
X549.714 Y50.898
X549.198 Y50.651
X548.728 Y50.404
X548.302 Y50.159
X547.917 Y49.917
X547.57 Y49.676
X547.257 Y49.439
X546.982 Y49.209
X546.736 Y48.983
X546.513 Y48.757
X546.314 Y48.534
X546.134 Y48.311
X545.973 Y48.088
X545.825 Y47.86
X545.69 Y47.629
X545.566 Y47.386
X545.446 Y47.125
X545.335 Y46.845
X545.232 Y46.551
X545.14 Y46.247
X545.056 Y45.921
X544.981 Y45.573
X544.916 Y45.202
X544.862 Y44.818
X544.82 Y44.417
X544.792 Y44.034
X544.765 Y43.08
X544.791 Y42.109
X544.867 Y41.07
X544.994 Y39.978
X545.167 Y38.845
X545.386 Y37.689
X545.648 Y36.516
X545.954 Y35.33
X546.299 Y34.143
X546.683 Y32.959
X547.103 Y31.78
X547.556 Y30.619
X548.04 Y29.481
X548.551 Y28.373
X549.085 Y27.303
X549.647 Y26.267
X550.233 Y25.264
X550.842 Y24.294
X551.474 Y23.359
X552.125 Y22.46
X552.793 Y21.598
X553.478 Y20.772
X554.186 Y19.974
X554.926 Y19.189
X555.687 Y18.42
X557.37 Y16.802
X559.121 Y15.163
G2 X559.182 Y15.105 I-4.34 J-4.635
G1 X560.942 Y13.413
G2 X561.086 Y13.27 I-4.401 J-4.577
G1 X561.946 Y12.389
G2 X562.084 Y12.243 I-4.545 J-4.435
G1 X562.926 Y11.323
G2 X563.095 Y11.132 I-4.683 J-4.288
G1 X563.913 Y10.163
G2 X564.098 Y9.933 I-4.852 J-4.097
G1 X564.888 Y8.904
G2 X565.032 Y8.709 I-5.037 J-3.867
G1 X565.415 Y8.168
G2 X565.509 Y8.032 I-5.181 J-3.672
G1 X565.884 Y7.472
G2 X565.984 Y7.319 I-5.275 J-3.535
G1 X566.349 Y6.738
G2 X566.44 Y6.589 I-5.375 J-3.381
G1 X566.796 Y5.987
G2 X566.89 Y5.822 I-5.466 J-3.232
G1 X567.235 Y5.197
G2 X567.323 Y5.032 I-5.56 J-3.067
G1 X567.657 Y4.382
G2 X567.739 Y4.217 I-5.648 J-2.902
G1 X568.062 Y3.541
G2 X568.14 Y3.371 I-5.73 J-2.737
G1 X568.451 Y2.668
G2 X562.643 Y-6.25 I-5.808 J-2.568
G1 X13.82
G2 X8.683 Y3.832 J6.35
G1 X139.316 Y183.632
G2 X144.453 Y186.25 I5.137 J-3.732
G1 X704.715
X830.065
X955.415 Z38 F400.3
X1014.27 F849.6
G2 X1019.407 Y183.633 J-6.35
G1 X1150.047 Y3.833
G2 X1144.91 Y-6.25 I-5.137 J-3.733
G1 X596.082
G2 X590.274 Y2.668 J6.35
G1 X590.585 Y3.371
G2 X590.663 Y3.541 I5.808 J-2.568
G1 X590.986 Y4.217
G2 X591.072 Y4.389 I5.73 J-2.737
G1 X591.407 Y5.039
G2 X591.491 Y5.197 I5.644 J-2.909
G1 X591.836 Y5.822
G2 X591.926 Y5.98 I5.56 J-3.067
G1 X592.281 Y6.582
G2 X592.38 Y6.745 I5.47 J-3.225
G1 X592.746 Y7.325
G2 X592.838 Y7.465 I5.371 J-3.388
G1 X593.212 Y8.025
G2 X593.315 Y8.175 I5.279 J-3.528
G1 X593.699 Y8.715
G2 X593.838 Y8.904 I5.176 J-3.678
G1 X594.628 Y9.933
G2 X594.813 Y10.163 I5.037 J-3.867
G1 X595.631 Y11.132
G2 X595.797 Y11.32 I4.852 J-4.097
G1 X596.638 Y12.24
G2 X596.782 Y12.392 I4.686 J-4.286
G1 X597.643 Y13.273
G2 X597.784 Y13.413 I4.542 J-4.438
G1 X599.544 Y15.105
G2 X599.605 Y15.163 I4.401 J-4.577
G1 X601.355 Y16.802
X603.038 Y18.42
X603.799 Y19.189
X604.539 Y19.974
X605.247 Y20.772
X605.932 Y21.598
X606.602 Y22.462
X607.253 Y23.361
X607.884 Y24.294
X608.493 Y25.264
X609.078 Y26.266
X609.64 Y27.303
X610.175 Y28.373
X610.685 Y29.48
X611.169 Y30.621
X611.623 Y31.782
X612.043 Y32.957
X612.426 Y34.143
X612.772 Y35.33
X613.076 Y36.514
X613.34 Y37.691
X613.559 Y38.847
X613.732 Y39.978
X613.859 Y41.07
X613.935 Y42.106
X613.96 Y43.08
X613.933 Y44.037
X613.906 Y44.412
X613.863 Y44.818
X613.809 Y45.207
X613.746 Y45.567
X613.67 Y45.916
X613.585 Y46.247
X613.492 Y46.556
X613.389 Y46.85
X613.28 Y47.125
X613.162 Y47.382
X613.035 Y47.629
X612.899 Y47.864
X612.753 Y48.088
X612.592 Y48.311
X612.412 Y48.534
X612.214 Y48.757
X611.993 Y48.981
X611.744 Y49.209
X611.466 Y49.441
X611.156 Y49.676
X610.809 Y49.917
X610.424 Y50.159
X609.998 Y50.404
X609.528 Y50.651
X609.014 Y50.897
X608.453 Y51.142
X607.843 Y51.384
X607.184 Y51.623
X606.478 Y51.856
X605.719 Y52.084
X604.907 Y52.305
X604.044 Y52.519
X603.126 Y52.724
X602.154 Y52.92
X601.131 Y53.107
X600.055 Y53.284
X598.924 Y53.45
X597.741 Y53.605
X596.505 Y53.748
X595.216 Y53.88
X593.873 Y54
X592.477 Y54.108
X591.028 Y54.204
X589.524 Y54.287
X587.966 Y54.357
X586.354 Y54.415
X584.687 Y54.461
X582.967 Y54.493
X581.191 Y54.512
X579.363 Y54.519
X577.534 Y54.512
X575.759 Y54.493
X574.038 Y54.461
X572.371 Y54.415
X570.759 Y54.357
X569.201 Y54.287
X567.697 Y54.204
X566.248 Y54.108
X564.852 Y54
X563.509 Y53.88
X562.22 Y53.748
X560.984 Y53.605
X559.801 Y53.45
X558.671 Y53.284
X557.594 Y53.107
X556.571 Y52.92
X555.6 Y52.724
X554.682 Y52.518
X553.817 Y52.305
X553.007 Y52.084
X552.248 Y51.856
X551.54 Y51.623
X550.882 Y51.384
X550.274 Y51.142
X549.714 Y50.898
X549.198 Y50.651
X548.728 Y50.404
X548.302 Y50.159
X547.917 Y49.917
X547.57 Y49.676
X547.257 Y49.439
X546.982 Y49.209
X546.736 Y48.983
X546.513 Y48.757
X546.314 Y48.534
X546.134 Y48.311
X545.973 Y48.088
X545.825 Y47.86
X545.69 Y47.629
X545.566 Y47.386
X545.446 Y47.125
X545.335 Y46.845
X545.232 Y46.551
X545.14 Y46.247
X545.056 Y45.921
X544.981 Y45.573
X544.916 Y45.202
X544.862 Y44.818
X544.82 Y44.417
X544.792 Y44.034
X544.765 Y43.08
X544.791 Y42.109
X544.867 Y41.07
X544.994 Y39.978
X545.167 Y38.845
X545.386 Y37.689
X545.648 Y36.516
X545.954 Y35.33
X546.299 Y34.143
X546.683 Y32.959
X547.103 Y31.78
X547.556 Y30.619
X548.04 Y29.481
X548.551 Y28.373
X549.085 Y27.303
X549.647 Y26.267
X550.233 Y25.264
X550.842 Y24.294
X551.474 Y23.359
X552.125 Y22.46
X552.793 Y21.598
X553.478 Y20.772
X554.186 Y19.974
X554.926 Y19.189
X555.687 Y18.42
X557.37 Y16.802
X559.121 Y15.163
G2 X559.182 Y15.105 I-4.34 J-4.635
G1 X560.942 Y13.413
G2 X561.086 Y13.27 I-4.401 J-4.577
G1 X561.946 Y12.389
G2 X562.084 Y12.243 I-4.545 J-4.435
G1 X562.926 Y11.323
G2 X563.095 Y11.132 I-4.683 J-4.288
G1 X563.913 Y10.163
G2 X564.098 Y9.933 I-4.852 J-4.097
G1 X564.888 Y8.904
G2 X565.032 Y8.709 I-5.037 J-3.867
G1 X565.415 Y8.168
G2 X565.509 Y8.032 I-5.181 J-3.672
G1 X565.884 Y7.472
G2 X565.984 Y7.319 I-5.275 J-3.535
G1 X566.349 Y6.738
G2 X566.44 Y6.589 I-5.375 J-3.381
G1 X566.796 Y5.987
G2 X566.89 Y5.822 I-5.466 J-3.232
G1 X567.235 Y5.197
G2 X567.323 Y5.032 I-5.56 J-3.067
G1 X567.657 Y4.382
G2 X567.739 Y4.217 I-5.648 J-2.902
G1 X568.062 Y3.541
G2 X568.14 Y3.371 I-5.73 J-2.737
G1 X568.451 Y2.668
G2 X562.643 Y-6.25 I-5.808 J-2.568
G1 X13.82
G2 X8.683 Y3.832 J6.35
G1 X139.316 Y183.632
G2 X144.453 Y186.25 I5.137 J-3.732
G1 X830.065
X955.415
X1014.27 Z36.591 F400.3
G2 X1019.407 Y183.633 Z36.448 J-6.35
G1 X1054.975 Y134.68 Z35
X1150.047 Y3.833 F849.6
G2 X1144.91 Y-6.25 I-5.137 J-3.733
G1 X596.082
G2 X590.274 Y2.668 J6.35
G1 X590.585 Y3.371
G2 X590.663 Y3.541 I5.808 J-2.568
G1 X590.986 Y4.217
G2 X591.072 Y4.389 I5.73 J-2.737
G1 X591.407 Y5.039
G2 X591.491 Y5.197 I5.644 J-2.909
G1 X591.836 Y5.822
G2 X591.926 Y5.98 I5.56 J-3.067
G1 X592.281 Y6.582
G2 X592.38 Y6.745 I5.47 J-3.225
G1 X592.746 Y7.325
G2 X592.838 Y7.465 I5.371 J-3.388
G1 X593.212 Y8.025
G2 X593.315 Y8.175 I5.279 J-3.528
G1 X593.699 Y8.715
G2 X593.838 Y8.904 I5.176 J-3.678
G1 X594.628 Y9.933
G2 X594.813 Y10.163 I5.037 J-3.867
G1 X595.631 Y11.132
G2 X595.797 Y11.32 I4.852 J-4.097
G1 X596.638 Y12.24
G2 X596.782 Y12.392 I4.686 J-4.286
G1 X597.643 Y13.273
G2 X597.784 Y13.413 I4.542 J-4.438
G1 X599.544 Y15.105
G2 X599.605 Y15.163 I4.401 J-4.577
G1 X601.355 Y16.802
X603.038 Y18.42
X603.799 Y19.189
X604.539 Y19.974
X605.247 Y20.772
X605.932 Y21.598
X606.602 Y22.462
X607.253 Y23.361
X607.884 Y24.294
X608.493 Y25.264
X609.078 Y26.266
X609.64 Y27.303
X610.175 Y28.373
X610.685 Y29.48
X611.169 Y30.621
X611.623 Y31.782
X612.043 Y32.957
X612.426 Y34.143
X612.772 Y35.33
X613.076 Y36.514
X613.34 Y37.691
X613.559 Y38.847
X613.732 Y39.978
X613.859 Y41.07
X613.935 Y42.106
X613.96 Y43.08
X613.933 Y44.037
X613.906 Y44.412
X613.863 Y44.818
X613.809 Y45.207
X613.746 Y45.567
X613.67 Y45.916
X613.585 Y46.247
X613.492 Y46.556
X613.389 Y46.85
X613.28 Y47.125
X613.162 Y47.382
X613.035 Y47.629
X612.899 Y47.864
X612.753 Y48.088
X612.592 Y48.311
X612.412 Y48.534
X612.214 Y48.757
X611.993 Y48.981
X611.744 Y49.209
X611.466 Y49.441
X611.156 Y49.676
X610.809 Y49.917
X610.424 Y50.159
X609.998 Y50.404
X609.528 Y50.651
X609.014 Y50.897
X608.453 Y51.142
X607.843 Y51.384
X607.184 Y51.623
X606.478 Y51.856
X605.719 Y52.084
X604.907 Y52.305
X604.044 Y52.519
X603.126 Y52.724
X602.154 Y52.92
X601.131 Y53.107
X600.055 Y53.284
X598.924 Y53.45
X597.741 Y53.605
X596.505 Y53.748
X595.216 Y53.88
X593.873 Y54
X592.477 Y54.108
X591.028 Y54.204
X589.524 Y54.287
X587.966 Y54.357
X586.354 Y54.415
X584.687 Y54.461
X582.967 Y54.493
X581.191 Y54.512
X579.363 Y54.519
X577.534 Y54.512
X575.759 Y54.493
X574.038 Y54.461
X572.371 Y54.415
X570.759 Y54.357
X569.201 Y54.287
X567.697 Y54.204
X566.248 Y54.108
X564.852 Y54
X563.509 Y53.88
X562.22 Y53.748
X560.984 Y53.605
X559.801 Y53.45
X558.671 Y53.284
X557.594 Y53.107
X556.571 Y52.92
X555.6 Y52.724
X554.682 Y52.518
X553.817 Y52.305
X553.007 Y52.084
X552.248 Y51.856
X551.54 Y51.623
X550.882 Y51.384
X550.274 Y51.142
X549.714 Y50.898
X549.198 Y50.651
X548.728 Y50.404
X548.302 Y50.159
X547.917 Y49.917
X547.57 Y49.676
X547.257 Y49.439
X546.982 Y49.209
X546.736 Y48.983
X546.513 Y48.757
X546.314 Y48.534
X546.134 Y48.311
X545.973 Y48.088
X545.825 Y47.86
X545.69 Y47.629
X545.566 Y47.386
X545.446 Y47.125
X545.335 Y46.845
X545.232 Y46.551
X545.14 Y46.247
X545.056 Y45.921
X544.981 Y45.573
X544.916 Y45.202
X544.862 Y44.818
X544.82 Y44.417
X544.792 Y44.034
X544.765 Y43.08
X544.791 Y42.109
X544.867 Y41.07
X544.994 Y39.978
X545.167 Y38.845
X545.386 Y37.689
X545.648 Y36.516
X545.954 Y35.33
X546.299 Y34.143
X546.683 Y32.959
X547.103 Y31.78
X547.556 Y30.619
X548.04 Y29.481
X548.551 Y28.373
X549.085 Y27.303
X549.647 Y26.267
X550.233 Y25.264
X550.842 Y24.294
X551.474 Y23.359
X552.125 Y22.46
X552.793 Y21.598
X553.478 Y20.772
X554.186 Y19.974
X554.926 Y19.189
X555.687 Y18.42
X557.37 Y16.802
X559.121 Y15.163
G2 X559.182 Y15.105 I-4.34 J-4.635
G1 X560.942 Y13.413
G2 X561.086 Y13.27 I-4.401 J-4.577
G1 X561.946 Y12.389
G2 X562.084 Y12.243 I-4.545 J-4.435
G1 X562.926 Y11.323
G2 X563.095 Y11.132 I-4.683 J-4.288
G1 X563.913 Y10.163
G2 X564.098 Y9.933 I-4.852 J-4.097
G1 X564.888 Y8.904
G2 X565.032 Y8.709 I-5.037 J-3.867
G1 X565.415 Y8.168
G2 X565.509 Y8.032 I-5.181 J-3.672
G1 X565.884 Y7.472
G2 X565.984 Y7.319 I-5.275 J-3.535
G1 X566.349 Y6.738
G2 X566.44 Y6.589 I-5.375 J-3.381
G1 X566.796 Y5.987
G2 X566.89 Y5.822 I-5.466 J-3.232
G1 X567.235 Y5.197
G2 X567.323 Y5.032 I-5.56 J-3.067
G1 X567.657 Y4.382
G2 X567.739 Y4.217 I-5.648 J-2.902
G1 X568.062 Y3.541
G2 X568.14 Y3.371 I-5.73 J-2.737
G1 X568.451 Y2.668
G2 X562.643 Y-6.25 I-5.808 J-2.568
G1 X13.82
G2 X8.683 Y3.832 J6.35
G1 X139.316 Y183.632
G2 X144.453 Y186.25 I5.137 J-3.732
G1 X955.415
X1014.27
G2 X1019.407 Y183.633 J-6.35
G1 X1054.975 Y134.68
X1128.657 Y33.272 Z32 F400.3
X1150.047 Y3.833 F849.6
G2 X1144.91 Y-6.25 I-5.137 J-3.733
G1 X596.082
G2 X590.274 Y2.668 J6.35
G1 X590.585 Y3.371
G2 X590.663 Y3.541 I5.808 J-2.568
G1 X590.986 Y4.217
G2 X591.072 Y4.389 I5.73 J-2.737
G1 X591.407 Y5.039
G2 X591.491 Y5.197 I5.644 J-2.909
G1 X591.836 Y5.822
G2 X591.926 Y5.98 I5.56 J-3.067
G1 X592.281 Y6.582
G2 X592.38 Y6.745 I5.47 J-3.225
G1 X592.746 Y7.325
G2 X592.838 Y7.465 I5.371 J-3.388
G1 X593.212 Y8.025
G2 X593.315 Y8.175 I5.279 J-3.528
G1 X593.699 Y8.715
G2 X593.838 Y8.904 I5.176 J-3.678
G1 X594.628 Y9.933
G2 X594.813 Y10.163 I5.037 J-3.867
G1 X595.631 Y11.132
G2 X595.797 Y11.32 I4.852 J-4.097
G1 X596.638 Y12.24
G2 X596.782 Y12.392 I4.686 J-4.286
G1 X597.643 Y13.273
G2 X597.784 Y13.413 I4.542 J-4.438
G1 X599.544 Y15.105
G2 X599.605 Y15.163 I4.401 J-4.577
G1 X601.355 Y16.802
X603.038 Y18.42
X603.799 Y19.189
X604.539 Y19.974
X605.247 Y20.772
X605.932 Y21.598
X606.602 Y22.462
X607.253 Y23.361
X607.884 Y24.294
X608.493 Y25.264
X609.078 Y26.266
X609.64 Y27.303
X610.175 Y28.373
X610.685 Y29.48
X611.169 Y30.621
X611.623 Y31.782
X612.043 Y32.957
X612.426 Y34.143
X612.772 Y35.33
X613.076 Y36.514
X613.34 Y37.691
X613.559 Y38.847
X613.732 Y39.978
X613.859 Y41.07
X613.935 Y42.106
X613.96 Y43.08
X613.933 Y44.037
X613.906 Y44.412
X613.863 Y44.818
X613.809 Y45.207
X613.746 Y45.567
X613.67 Y45.916
X613.585 Y46.247
X613.492 Y46.556
X613.389 Y46.85
X613.28 Y47.125
X613.162 Y47.382
X613.035 Y47.629
X612.899 Y47.864
X612.753 Y48.088
X612.592 Y48.311
X612.412 Y48.534
X612.214 Y48.757
X611.993 Y48.981
X611.744 Y49.209
X611.466 Y49.441
X611.156 Y49.676
X610.809 Y49.917
X610.424 Y50.159
X609.998 Y50.404
X609.528 Y50.651
X609.014 Y50.897
X608.453 Y51.142
X607.843 Y51.384
X607.184 Y51.623
X606.478 Y51.856
X605.719 Y52.084
X604.907 Y52.305
X604.044 Y52.519
X603.126 Y52.724
X602.154 Y52.92
X601.131 Y53.107
X600.055 Y53.284
X598.924 Y53.45
X597.741 Y53.605
X596.505 Y53.748
X595.216 Y53.88
X593.873 Y54
X592.477 Y54.108
X591.028 Y54.204
X589.524 Y54.287
X587.966 Y54.357
X586.354 Y54.415
X584.687 Y54.461
X582.967 Y54.493
X581.191 Y54.512
X579.363 Y54.519
X577.534 Y54.512
X575.759 Y54.493
X574.038 Y54.461
X572.371 Y54.415
X570.759 Y54.357
X569.201 Y54.287
X567.697 Y54.204
X566.248 Y54.108
X564.852 Y54
X563.509 Y53.88
X562.22 Y53.748
X560.984 Y53.605
X559.801 Y53.45
X558.671 Y53.284
X557.594 Y53.107
X556.571 Y52.92
X555.6 Y52.724
X554.682 Y52.518
X553.817 Y52.305
X553.007 Y52.084
X552.248 Y51.856
X551.54 Y51.623
X550.882 Y51.384
X550.274 Y51.142
X549.714 Y50.898
X549.198 Y50.651
X548.728 Y50.404
X548.302 Y50.159
X547.917 Y49.917
X547.57 Y49.676
X547.257 Y49.439
X546.982 Y49.209
X546.736 Y48.983
X546.513 Y48.757
X546.314 Y48.534
X546.134 Y48.311
X545.973 Y48.088
X545.825 Y47.86
X545.69 Y47.629
X545.566 Y47.386
X545.446 Y47.125
X545.335 Y46.845
X545.232 Y46.551
X545.14 Y46.247
X545.056 Y45.921
X544.981 Y45.573
X544.916 Y45.202
X544.862 Y44.818
X544.82 Y44.417
X544.792 Y44.034
X544.765 Y43.08
X544.791 Y42.109
X544.867 Y41.07
X544.994 Y39.978
X545.167 Y38.845
X545.386 Y37.689
X545.648 Y36.516
X545.954 Y35.33
X546.299 Y34.143
X546.683 Y32.959
X547.103 Y31.78
X547.556 Y30.619
X548.04 Y29.481
X548.551 Y28.373
X549.085 Y27.303
X549.647 Y26.267
X550.233 Y25.264
X550.842 Y24.294
X551.474 Y23.359
X552.125 Y22.46
X552.793 Y21.598
X553.478 Y20.772
X554.186 Y19.974
X554.926 Y19.189
X555.687 Y18.42
X557.37 Y16.802
X559.121 Y15.163
G2 X559.182 Y15.105 I-4.34 J-4.635
G1 X560.942 Y13.413
G2 X561.086 Y13.27 I-4.401 J-4.577
G1 X561.946 Y12.389
G2 X562.084 Y12.243 I-4.545 J-4.435
G1 X562.926 Y11.323
G2 X563.095 Y11.132 I-4.683 J-4.288
G1 X563.913 Y10.163
G2 X564.098 Y9.933 I-4.852 J-4.097
G1 X564.888 Y8.904
G2 X565.032 Y8.709 I-5.037 J-3.867
G1 X565.415 Y8.168
G2 X565.509 Y8.032 I-5.181 J-3.672
G1 X565.884 Y7.472
G2 X565.984 Y7.319 I-5.275 J-3.535
G1 X566.349 Y6.738
G2 X566.44 Y6.589 I-5.375 J-3.381
G1 X566.796 Y5.987
G2 X566.89 Y5.822 I-5.466 J-3.232
G1 X567.235 Y5.197
G2 X567.323 Y5.032 I-5.56 J-3.067
G1 X567.657 Y4.382
G2 X567.739 Y4.217 I-5.648 J-2.902
G1 X568.062 Y3.541
G2 X568.14 Y3.371 I-5.73 J-2.737
G1 X568.451 Y2.668
G2 X562.643 Y-6.25 I-5.808 J-2.568
G1 X13.82
G2 X8.683 Y3.832 J6.35
G1 X139.316 Y183.632
G2 X144.453 Y186.25 I5.137 J-3.732
G1 X1014.27
G2 X1019.407 Y183.633 J-6.35
G1 X1128.657 Y33.272
X1150.047 Y3.833 Z31.129 F400.3
G2 X1144.91 Y-6.25 Z30.795 I-5.137 J-3.733
G1 X1069.914 Z29
X596.082 F849.6
G2 X590.274 Y2.668 J6.35
G1 X590.585 Y3.371
G2 X590.663 Y3.541 I5.808 J-2.568
G1 X590.986 Y4.217
G2 X591.072 Y4.389 I5.73 J-2.737
G1 X591.407 Y5.039
G2 X591.491 Y5.197 I5.644 J-2.909
G1 X591.836 Y5.822
G2 X591.926 Y5.98 I5.56 J-3.067
G1 X592.281 Y6.582
G2 X592.38 Y6.745 I5.47 J-3.225
G1 X592.746 Y7.325
G2 X592.838 Y7.465 I5.371 J-3.388
G1 X593.212 Y8.025
G2 X593.315 Y8.175 I5.279 J-3.528
G1 X593.699 Y8.715
G2 X593.838 Y8.904 I5.176 J-3.678
G1 X594.628 Y9.933
G2 X594.813 Y10.163 I5.037 J-3.867
G1 X595.631 Y11.132
G2 X595.797 Y11.32 I4.852 J-4.097
G1 X596.638 Y12.24
G2 X596.782 Y12.392 I4.686 J-4.286
G1 X597.643 Y13.273
G2 X597.784 Y13.413 I4.542 J-4.438
G1 X599.544 Y15.105
G2 X599.605 Y15.163 I4.401 J-4.577
G1 X601.355 Y16.802
X603.038 Y18.42
X603.799 Y19.189
X604.539 Y19.974
X605.247 Y20.772
X605.932 Y21.598
X606.602 Y22.462
X607.253 Y23.361
X607.884 Y24.294
X608.493 Y25.264
X609.078 Y26.266
X609.64 Y27.303
X610.175 Y28.373
X610.685 Y29.48
X611.169 Y30.621
X611.623 Y31.782
X612.043 Y32.957
X612.426 Y34.143
X612.772 Y35.33
X613.076 Y36.514
X613.34 Y37.691
X613.559 Y38.847
X613.732 Y39.978
X613.859 Y41.07
X613.935 Y42.106
X613.96 Y43.08
X613.933 Y44.037
X613.906 Y44.412
X613.863 Y44.818
X613.809 Y45.207
X613.746 Y45.567
X613.67 Y45.916
X613.585 Y46.247
X613.492 Y46.556
X613.389 Y46.85
X613.28 Y47.125
X613.162 Y47.382
X613.035 Y47.629
X612.899 Y47.864
X612.753 Y48.088
X612.592 Y48.311
X612.412 Y48.534
X612.214 Y48.757
X611.993 Y48.981
X611.744 Y49.209
X611.466 Y49.441
X611.156 Y49.676
X610.809 Y49.917
X610.424 Y50.159
X609.998 Y50.404
X609.528 Y50.651
X609.014 Y50.897
X608.453 Y51.142
X607.843 Y51.384
X607.184 Y51.623
X606.478 Y51.856
X605.719 Y52.084
X604.907 Y52.305
X604.044 Y52.519
X603.126 Y52.724
X602.154 Y52.92
X601.131 Y53.107
X600.055 Y53.284
X598.924 Y53.45
X597.741 Y53.605
X596.505 Y53.748
X595.216 Y53.88
X593.873 Y54
X592.477 Y54.108
X591.028 Y54.204
X589.524 Y54.287
X587.966 Y54.357
X586.354 Y54.415
X584.687 Y54.461
X582.967 Y54.493
X581.191 Y54.512
X579.363 Y54.519
X577.534 Y54.512
X575.759 Y54.493
X574.038 Y54.461
X572.371 Y54.415
X570.759 Y54.357
X569.201 Y54.287
X567.697 Y54.204
X566.248 Y54.108
X564.852 Y54
X563.509 Y53.88
X562.22 Y53.748
X560.984 Y53.605
X559.801 Y53.45
X558.671 Y53.284
X557.594 Y53.107
X556.571 Y52.92
X555.6 Y52.724
X554.682 Y52.518
X553.817 Y52.305
X553.007 Y52.084
X552.248 Y51.856
X551.54 Y51.623
X550.882 Y51.384
X550.274 Y51.142
X549.714 Y50.898
X549.198 Y50.651
X548.728 Y50.404
X548.302 Y50.159
X547.917 Y49.917
X547.57 Y49.676
X547.257 Y49.439
X546.982 Y49.209
X546.736 Y48.983
X546.513 Y48.757
X546.314 Y48.534
X546.134 Y48.311
X545.973 Y48.088
X545.825 Y47.86
X545.69 Y47.629
X545.566 Y47.386
X545.446 Y47.125
X545.335 Y46.845
X545.232 Y46.551
X545.14 Y46.247
X545.056 Y45.921
X544.981 Y45.573
X544.916 Y45.202
X544.862 Y44.818
X544.82 Y44.417
X544.792 Y44.034
X544.765 Y43.08
X544.791 Y42.109
X544.867 Y41.07
X544.994 Y39.978
X545.167 Y38.845
X545.386 Y37.689
X545.648 Y36.516
X545.954 Y35.33
X546.299 Y34.143
X546.683 Y32.959
X547.103 Y31.78
X547.556 Y30.619
X548.04 Y29.481
X548.551 Y28.373
X549.085 Y27.303
X549.647 Y26.267
X550.233 Y25.264
X550.842 Y24.294
X551.474 Y23.359
X552.125 Y22.46
X552.793 Y21.598
X553.478 Y20.772
X554.186 Y19.974
X554.926 Y19.189
X555.687 Y18.42
X557.37 Y16.802
X559.121 Y15.163
G2 X559.182 Y15.105 I-4.34 J-4.635
G1 X560.942 Y13.413
G2 X561.086 Y13.27 I-4.401 J-4.577
G1 X561.946 Y12.389
G2 X562.084 Y12.243 I-4.545 J-4.435
G1 X562.926 Y11.323
G2 X563.095 Y11.132 I-4.683 J-4.288
G1 X563.913 Y10.163
G2 X564.098 Y9.933 I-4.852 J-4.097
G1 X564.888 Y8.904
G2 X565.032 Y8.709 I-5.037 J-3.867
G1 X565.415 Y8.168
G2 X565.509 Y8.032 I-5.181 J-3.672
G1 X565.884 Y7.472
G2 X565.984 Y7.319 I-5.275 J-3.535
G1 X566.349 Y6.738
G2 X566.44 Y6.589 I-5.375 J-3.381
G1 X566.796 Y5.987
G2 X566.89 Y5.822 I-5.466 J-3.232
G1 X567.235 Y5.197
G2 X567.323 Y5.032 I-5.56 J-3.067
G1 X567.657 Y4.382
G2 X567.739 Y4.217 I-5.648 J-2.902
G1 X568.062 Y3.541
G2 X568.14 Y3.371 I-5.73 J-2.737
G1 X568.451 Y2.668
G2 X562.643 Y-6.25 I-5.808 J-2.568
G1 X13.82
G2 X8.683 Y3.832 J6.35
G1 X139.316 Y183.632
G2 X144.453 Y186.25 I5.137 J-3.732
G1 X1014.27
G2 X1019.407 Y183.633 J-6.35
G1 X1128.657 Y33.272
X1150.047 Y3.833
G2 X1144.91 Y-6.25 I-5.137 J-3.733
G1 X1069.914
X944.565 Z26 F400.3
X596.082 F849.6
G2 X590.274 Y2.668 J6.35
G1 X590.585 Y3.371
G2 X590.663 Y3.541 I5.808 J-2.568
G1 X590.986 Y4.217
G2 X591.072 Y4.389 I5.73 J-2.737
G1 X591.407 Y5.039
G2 X591.491 Y5.197 I5.644 J-2.909
G1 X591.836 Y5.822
G2 X591.926 Y5.98 I5.56 J-3.067
G1 X592.281 Y6.582
G2 X592.38 Y6.745 I5.47 J-3.225
G1 X592.746 Y7.325
G2 X592.838 Y7.465 I5.371 J-3.388
G1 X593.212 Y8.025
G2 X593.315 Y8.175 I5.279 J-3.528
G1 X593.699 Y8.715
G2 X593.838 Y8.904 I5.176 J-3.678
G1 X594.628 Y9.933
G2 X594.813 Y10.163 I5.037 J-3.867
G1 X595.631 Y11.132
G2 X595.797 Y11.32 I4.852 J-4.097
G1 X596.638 Y12.24
G2 X596.782 Y12.392 I4.686 J-4.286
G1 X597.643 Y13.273
G2 X597.784 Y13.413 I4.542 J-4.438
G1 X599.544 Y15.105
G2 X599.605 Y15.163 I4.401 J-4.577
G1 X601.355 Y16.802
X603.038 Y18.42
X603.799 Y19.189
X604.539 Y19.974
X605.247 Y20.772
X605.932 Y21.598
X606.602 Y22.462
X607.253 Y23.361
X607.884 Y24.294
X608.493 Y25.264
X609.078 Y26.266
X609.64 Y27.303
X610.175 Y28.373
X610.685 Y29.48
X611.169 Y30.621
X611.623 Y31.782
X612.043 Y32.957
X612.426 Y34.143
X612.772 Y35.33
X613.076 Y36.514
X613.34 Y37.691
X613.559 Y38.847
X613.732 Y39.978
X613.859 Y41.07
X613.935 Y42.106
X613.96 Y43.08
X613.933 Y44.037
X613.906 Y44.412
X613.863 Y44.818
X613.809 Y45.207
X613.746 Y45.567
X613.67 Y45.916
X613.585 Y46.247
X613.492 Y46.556
X613.389 Y46.85
X613.28 Y47.125
X613.162 Y47.382
X613.035 Y47.629
X612.899 Y47.864
X612.753 Y48.088
X612.592 Y48.311
X612.412 Y48.534
X612.214 Y48.757
X611.993 Y48.981
X611.744 Y49.209
X611.466 Y49.441
X611.156 Y49.676
X610.809 Y49.917
X610.424 Y50.159
X609.998 Y50.404
X609.528 Y50.651
X609.014 Y50.897
X608.453 Y51.142
X607.843 Y51.384
X607.184 Y51.623
X606.478 Y51.856
X605.719 Y52.084
X604.907 Y52.305
X604.044 Y52.519
X603.126 Y52.724
X602.154 Y52.92
X601.131 Y53.107
X600.055 Y53.284
X598.924 Y53.45
X597.741 Y53.605
X596.505 Y53.748
X595.216 Y53.88
X593.873 Y54
X592.477 Y54.108
X591.028 Y54.204
X589.524 Y54.287
X587.966 Y54.357
X586.354 Y54.415
X584.687 Y54.461
X582.967 Y54.493
X581.191 Y54.512
X579.363 Y54.519
X577.534 Y54.512
X575.759 Y54.493
X574.038 Y54.461
X572.371 Y54.415
X570.759 Y54.357
X569.201 Y54.287
X567.697 Y54.204
X566.248 Y54.108
X564.852 Y54
X563.509 Y53.88
X562.22 Y53.748
X560.984 Y53.605
X559.801 Y53.45
X558.671 Y53.284
X557.594 Y53.107
X556.571 Y52.92
X555.6 Y52.724
X554.682 Y52.518
X553.817 Y52.305
X553.007 Y52.084
X552.248 Y51.856
X551.54 Y51.623
X550.882 Y51.384
X550.274 Y51.142
X549.714 Y50.898
X549.198 Y50.651
X548.728 Y50.404
X548.302 Y50.159
X547.917 Y49.917
X547.57 Y49.676
X547.257 Y49.439
X546.982 Y49.209
X546.736 Y48.983
X546.513 Y48.757
X546.314 Y48.534
X546.134 Y48.311
X545.973 Y48.088
X545.825 Y47.86
X545.69 Y47.629
X545.566 Y47.386
X545.446 Y47.125
X545.335 Y46.845
X545.232 Y46.551
X545.14 Y46.247
X545.056 Y45.921
X544.981 Y45.573
X544.916 Y45.202
X544.862 Y44.818
X544.82 Y44.417
X544.792 Y44.034
X544.765 Y43.08
X544.791 Y42.109
X544.867 Y41.07
X544.994 Y39.978
X545.167 Y38.845
X545.386 Y37.689
X545.648 Y36.516
X545.954 Y35.33
X546.299 Y34.143
X546.683 Y32.959
X547.103 Y31.78
X547.556 Y30.619
X548.04 Y29.481
X548.551 Y28.373
X549.085 Y27.303
X549.647 Y26.267
X550.233 Y25.264
X550.842 Y24.294
X551.474 Y23.359
X552.125 Y22.46
X552.793 Y21.598
X553.478 Y20.772
X554.186 Y19.974
X554.926 Y19.189
X555.687 Y18.42
X557.37 Y16.802
X559.121 Y15.163
G2 X559.182 Y15.105 I-4.34 J-4.635
G1 X560.942 Y13.413
G2 X561.086 Y13.27 I-4.401 J-4.577
G1 X561.946 Y12.389
G2 X562.084 Y12.243 I-4.545 J-4.435
G1 X562.926 Y11.323
G2 X563.095 Y11.132 I-4.683 J-4.288
G1 X563.913 Y10.163
G2 X564.098 Y9.933 I-4.852 J-4.097
G1 X564.888 Y8.904
G2 X565.032 Y8.709 I-5.037 J-3.867
G1 X565.415 Y8.168
G2 X565.509 Y8.032 I-5.181 J-3.672
G1 X565.884 Y7.472
G2 X565.984 Y7.319 I-5.275 J-3.535
G1 X566.349 Y6.738
G2 X566.44 Y6.589 I-5.375 J-3.381
G1 X566.796 Y5.987
G2 X566.89 Y5.822 I-5.466 J-3.232
G1 X567.235 Y5.197
G2 X567.323 Y5.032 I-5.56 J-3.067
G1 X567.657 Y4.382
G2 X567.739 Y4.217 I-5.648 J-2.902
G1 X568.062 Y3.541
G2 X568.14 Y3.371 I-5.73 J-2.737
G1 X568.451 Y2.668
G2 X562.643 Y-6.25 I-5.808 J-2.568
G1 X13.82
G2 X8.683 Y3.832 J6.35
G1 X139.316 Y183.632
G2 X144.453 Y186.25 I5.137 J-3.732
G1 X1014.27
G2 X1019.407 Y183.633 J-6.35
G1 X1150.047 Y3.833
G2 X1144.91 Y-6.25 I-5.137 J-3.733
G1 X944.565
X819.215 Z23 F400.3
X596.082 F849.6
G2 X590.274 Y2.668 J6.35
G1 X590.585 Y3.371
G2 X590.663 Y3.541 I5.808 J-2.568
G1 X590.986 Y4.217
G2 X591.072 Y4.389 I5.73 J-2.737
G1 X591.407 Y5.039
G2 X591.491 Y5.197 I5.644 J-2.909
G1 X591.836 Y5.822
G2 X591.926 Y5.98 I5.56 J-3.067
G1 X592.281 Y6.582
G2 X592.38 Y6.745 I5.47 J-3.225
G1 X592.746 Y7.325
G2 X592.838 Y7.465 I5.371 J-3.388
G1 X593.212 Y8.025
G2 X593.315 Y8.175 I5.279 J-3.528
G1 X593.699 Y8.715
G2 X593.838 Y8.904 I5.176 J-3.678
G1 X594.628 Y9.933
G2 X594.813 Y10.163 I5.037 J-3.867
G1 X595.631 Y11.132
G2 X595.797 Y11.32 I4.852 J-4.097
G1 X596.638 Y12.24
G2 X596.782 Y12.392 I4.686 J-4.286
G1 X597.643 Y13.273
G2 X597.784 Y13.413 I4.542 J-4.438
G1 X599.544 Y15.105
G2 X599.605 Y15.163 I4.401 J-4.577
G1 X601.355 Y16.802
X603.038 Y18.42
X603.799 Y19.189
X604.539 Y19.974
X605.247 Y20.772
X605.932 Y21.598
X606.602 Y22.462
X607.253 Y23.361
X607.884 Y24.294
X608.493 Y25.264
X609.078 Y26.266
X609.64 Y27.303
X610.175 Y28.373
X610.685 Y29.48
X611.169 Y30.621
X611.623 Y31.782
X612.043 Y32.957
X612.426 Y34.143
X612.772 Y35.33
X613.076 Y36.514
X613.34 Y37.691
X613.559 Y38.847
X613.732 Y39.978
X613.859 Y41.07
X613.935 Y42.106
X613.96 Y43.08
X613.933 Y44.037
X613.906 Y44.412
X613.863 Y44.818
X613.809 Y45.207
X613.746 Y45.567
X613.67 Y45.916
X613.585 Y46.247
X613.492 Y46.556
X613.389 Y46.85
X613.28 Y47.125
X613.162 Y47.382
X613.035 Y47.629
X612.899 Y47.864
X612.753 Y48.088
X612.592 Y48.311
X612.412 Y48.534
X612.214 Y48.757
X611.993 Y48.981
X611.744 Y49.209
X611.466 Y49.441
X611.156 Y49.676
X610.809 Y49.917
X610.424 Y50.159
X609.998 Y50.404
X609.528 Y50.651
X609.014 Y50.897
X608.453 Y51.142
X607.843 Y51.384
X607.184 Y51.623
X606.478 Y51.856
X605.719 Y52.084
X604.907 Y52.305
X604.044 Y52.519
X603.126 Y52.724
X602.154 Y52.92
X601.131 Y53.107
X600.055 Y53.284
X598.924 Y53.45
X597.741 Y53.605
X596.505 Y53.748
X595.216 Y53.88
X593.873 Y54
X592.477 Y54.108
X591.028 Y54.204
X589.524 Y54.287
X587.966 Y54.357
X586.354 Y54.415
X584.687 Y54.461
X582.967 Y54.493
X581.191 Y54.512
X579.363 Y54.519
X577.534 Y54.512
X575.759 Y54.493
X574.038 Y54.461
X572.371 Y54.415
X570.759 Y54.357
X569.201 Y54.287
X567.697 Y54.204
X566.248 Y54.108
X564.852 Y54
X563.509 Y53.88
X562.22 Y53.748
X560.984 Y53.605
X559.801 Y53.45
X558.671 Y53.284
X557.594 Y53.107
X556.571 Y52.92
X555.6 Y52.724
X554.682 Y52.518
X553.817 Y52.305
X553.007 Y52.084
X552.248 Y51.856
X551.54 Y51.623
X550.882 Y51.384
X550.274 Y51.142
X549.714 Y50.898
X549.198 Y50.651
X548.728 Y50.404
X548.302 Y50.159
X547.917 Y49.917
X547.57 Y49.676
X547.257 Y49.439
X546.982 Y49.209
X546.736 Y48.983
X546.513 Y48.757
X546.314 Y48.534
X546.134 Y48.311
X545.973 Y48.088
X545.825 Y47.86
X545.69 Y47.629
X545.566 Y47.386
X545.446 Y47.125
X545.335 Y46.845
X545.232 Y46.551
X545.14 Y46.247
X545.056 Y45.921
X544.981 Y45.573
X544.916 Y45.202
X544.862 Y44.818
X544.82 Y44.417
X544.792 Y44.034
X544.765 Y43.08
X544.791 Y42.109
X544.867 Y41.07
X544.994 Y39.978
X545.167 Y38.845
X545.386 Y37.689
X545.648 Y36.516
X545.954 Y35.33
X546.299 Y34.143
X546.683 Y32.959
X547.103 Y31.78
X547.556 Y30.619
X548.04 Y29.481
X548.551 Y28.373
X549.085 Y27.303
X549.647 Y26.267
X550.233 Y25.264
X550.842 Y24.294
X551.474 Y23.359
X552.125 Y22.46
X552.793 Y21.598
X553.478 Y20.772
X554.186 Y19.974
X554.926 Y19.189
X555.687 Y18.42
X557.37 Y16.802
X559.121 Y15.163
G2 X559.182 Y15.105 I-4.34 J-4.635
G1 X560.942 Y13.413
G2 X561.086 Y13.27 I-4.401 J-4.577
G1 X561.946 Y12.389
G2 X562.084 Y12.243 I-4.545 J-4.435
G1 X562.926 Y11.323
G2 X563.095 Y11.132 I-4.683 J-4.288
G1 X563.913 Y10.163
G2 X564.098 Y9.933 I-4.852 J-4.097
G1 X564.888 Y8.904
G2 X565.032 Y8.709 I-5.037 J-3.867
G1 X565.415 Y8.168
G2 X565.509 Y8.032 I-5.181 J-3.672
G1 X565.884 Y7.472
G2 X565.984 Y7.319 I-5.275 J-3.535
G1 X566.349 Y6.738
G2 X566.44 Y6.589 I-5.375 J-3.381
G1 X566.796 Y5.987
G2 X566.89 Y5.822 I-5.466 J-3.232
G1 X567.235 Y5.197
G2 X567.323 Y5.032 I-5.56 J-3.067
G1 X567.657 Y4.382
G2 X567.739 Y4.217 I-5.648 J-2.902
G1 X568.062 Y3.541
G2 X568.14 Y3.371 I-5.73 J-2.737
G1 X568.451 Y2.668
G2 X562.643 Y-6.25 I-5.808 J-2.568
G1 X13.82
G2 X8.683 Y3.832 J6.35
G1 X139.316 Y183.632
G2 X144.453 Y186.25 I5.137 J-3.732
G1 X1014.27
G2 X1019.407 Y183.633 J-6.35
G1 X1150.047 Y3.833
G2 X1144.91 Y-6.25 I-5.137 J-3.733
G1 X944.565
X819.215
X693.865 Z20 F400.3
X596.082 F849.6
G2 X590.274 Y2.668 J6.35
G1 X590.585 Y3.371
G2 X590.663 Y3.541 I5.808 J-2.568
G1 X590.986 Y4.217
G2 X591.072 Y4.389 I5.73 J-2.737
G1 X591.407 Y5.039
G2 X591.491 Y5.197 I5.644 J-2.909
G1 X591.836 Y5.822
G2 X591.926 Y5.98 I5.56 J-3.067
G1 X592.281 Y6.582
G2 X592.38 Y6.745 I5.47 J-3.225
G1 X592.746 Y7.325
G2 X592.838 Y7.465 I5.371 J-3.388
G1 X593.212 Y8.025
G2 X593.315 Y8.175 I5.279 J-3.528
G1 X593.699 Y8.715
G2 X593.838 Y8.904 I5.176 J-3.678
G1 X594.628 Y9.933
G2 X594.813 Y10.163 I5.037 J-3.867
G1 X595.631 Y11.132
G2 X595.797 Y11.32 I4.852 J-4.097
G1 X596.638 Y12.24
G2 X596.782 Y12.392 I4.686 J-4.286
G1 X597.643 Y13.273
G2 X597.784 Y13.413 I4.542 J-4.438
G1 X599.544 Y15.105
G2 X599.605 Y15.163 I4.401 J-4.577
G1 X601.355 Y16.802
X603.038 Y18.42
X603.799 Y19.189
X604.539 Y19.974
X605.247 Y20.772
X605.932 Y21.598
X606.602 Y22.462
X607.253 Y23.361
X607.884 Y24.294
X608.493 Y25.264
X609.078 Y26.266
X609.64 Y27.303
X610.175 Y28.373
X610.685 Y29.48
X611.169 Y30.621
X611.623 Y31.782
X612.043 Y32.957
X612.426 Y34.143
X612.772 Y35.33
X613.076 Y36.514
X613.34 Y37.691
X613.559 Y38.847
X613.732 Y39.978
X613.859 Y41.07
X613.935 Y42.106
X613.96 Y43.08
X613.933 Y44.037
X613.906 Y44.412
X613.863 Y44.818
X613.809 Y45.207
X613.746 Y45.567
X613.67 Y45.916
X613.585 Y46.247
X613.492 Y46.556
X613.389 Y46.85
X613.28 Y47.125
X613.162 Y47.382
X613.035 Y47.629
X612.899 Y47.864
X612.753 Y48.088
X612.592 Y48.311
X612.412 Y48.534
X612.214 Y48.757
X611.993 Y48.981
X611.744 Y49.209
X611.466 Y49.441
X611.156 Y49.676
X610.809 Y49.917
X610.424 Y50.159
X609.998 Y50.404
X609.528 Y50.651
X609.014 Y50.897
X608.453 Y51.142
X607.843 Y51.384
X607.184 Y51.623
X606.478 Y51.856
X605.719 Y52.084
X604.907 Y52.305
X604.044 Y52.519
X603.126 Y52.724
X602.154 Y52.92
X601.131 Y53.107
X600.055 Y53.284
X598.924 Y53.45
X597.741 Y53.605
X596.505 Y53.748
X595.216 Y53.88
X593.873 Y54
X592.477 Y54.108
X591.028 Y54.204
X589.524 Y54.287
X587.966 Y54.357
X586.354 Y54.415
X584.687 Y54.461
X582.967 Y54.493
X581.191 Y54.512
X579.363 Y54.519
X577.534 Y54.512
X575.759 Y54.493
X574.038 Y54.461
X572.371 Y54.415
X570.759 Y54.357
X569.201 Y54.287
X567.697 Y54.204
X566.248 Y54.108
X564.852 Y54
X563.509 Y53.88
X562.22 Y53.748
X560.984 Y53.605
X559.801 Y53.45
X558.671 Y53.284
X557.594 Y53.107
X556.571 Y52.92
X555.6 Y52.724
X554.682 Y52.518
X553.817 Y52.305
X553.007 Y52.084
X552.248 Y51.856
X551.54 Y51.623
X550.882 Y51.384
X550.274 Y51.142
X549.714 Y50.898
X549.198 Y50.651
X548.728 Y50.404
X548.302 Y50.159
X547.917 Y49.917
X547.57 Y49.676
X547.257 Y49.439
X546.982 Y49.209
X546.736 Y48.983
X546.513 Y48.757
X546.314 Y48.534
X546.134 Y48.311
X545.973 Y48.088
X545.825 Y47.86
X545.69 Y47.629
X545.566 Y47.386
X545.446 Y47.125
X545.335 Y46.845
X545.232 Y46.551
X545.14 Y46.247
X545.056 Y45.921
X544.981 Y45.573
X544.916 Y45.202
X544.862 Y44.818
X544.82 Y44.417
X544.792 Y44.034
X544.765 Y43.08
X544.791 Y42.109
X544.867 Y41.07
X544.994 Y39.978
X545.167 Y38.845
X545.386 Y37.689
X545.648 Y36.516
X545.954 Y35.33
X546.299 Y34.143
X546.683 Y32.959
X547.103 Y31.78
X547.556 Y30.619
X548.04 Y29.481
X548.551 Y28.373
X549.085 Y27.303
X549.647 Y26.267
X550.233 Y25.264
X550.842 Y24.294
X551.474 Y23.359
X552.125 Y22.46
X552.793 Y21.598
X553.478 Y20.772
X554.186 Y19.974
X554.926 Y19.189
X555.687 Y18.42
X557.37 Y16.802
X559.121 Y15.163
G2 X559.182 Y15.105 I-4.34 J-4.635
G1 X560.942 Y13.413
G2 X561.086 Y13.27 I-4.401 J-4.577
G1 X561.946 Y12.389
G2 X562.084 Y12.243 I-4.545 J-4.435
G1 X562.926 Y11.323
G2 X563.095 Y11.132 I-4.683 J-4.288
G1 X563.913 Y10.163
G2 X564.098 Y9.933 I-4.852 J-4.097
G1 X564.888 Y8.904
G2 X565.032 Y8.709 I-5.037 J-3.867
G1 X565.415 Y8.168
G2 X565.509 Y8.032 I-5.181 J-3.672
G1 X565.884 Y7.472
G2 X565.984 Y7.319 I-5.275 J-3.535
G1 X566.349 Y6.738
G2 X566.44 Y6.589 I-5.375 J-3.381
G1 X566.796 Y5.987
G2 X566.89 Y5.822 I-5.466 J-3.232
G1 X567.235 Y5.197
G2 X567.323 Y5.032 I-5.56 J-3.067
G1 X567.657 Y4.382
G2 X567.739 Y4.217 I-5.648 J-2.902
G1 X568.062 Y3.541
G2 X568.14 Y3.371 I-5.73 J-2.737
G1 X568.451 Y2.668
G2 X562.643 Y-6.25 I-5.808 J-2.568
G1 X13.82
G2 X8.683 Y3.832 J6.35
G1 X139.316 Y183.632
G2 X144.453 Y186.25 I5.137 J-3.732
G1 X1014.27
G2 X1019.407 Y183.633 J-6.35
G1 X1150.047 Y3.833
G2 X1144.91 Y-6.25 I-5.137 J-3.733
G1 X819.215
X693.865
G3 X692.595 Y-7.52 J-1.27
G1 Y-8.79
G19 G2 Y-10.06 Z21.27 K1.27
G0 Z65
G17

(2D Adaptive15 5)
M9
G0 X149.81 Y128.547
Z65
Z55
Z53.77
G1 Z52.5 F849.6
G3 X143.885 Y127.601 Z52.171 I-2.963 J-0.473 F400.3
X149.81 Y128.547 Z51.842 I2.963 J0.473
X143.885 Y127.601 Z51.513 I-2.963 J-0.473
X149.81 Y128.547 Z51.184 I2.963 J0.473
X143.885 Y127.601 Z50.854 I-2.963 J-0.473
X149.81 Y128.547 Z50.525 I2.963 J0.473
X143.885 Y127.601 Z50.196 I-2.963 J-0.473
X149.81 Y128.547 Z49.867 I2.963 J0.473
X143.885 Y127.601 Z49.538 I-2.963 J-0.473
X149.81 Y128.547 Z49.209 I2.963 J0.473
X143.885 Y127.601 Z48.88 I-2.963 J-0.473
X149.81 Y128.547 Z48.551 I2.963 J0.473
X143.885 Y127.601 Z48.221 I-2.963 J-0.473
X149.81 Y128.547 Z47.892 I2.963 J0.473
X143.885 Y127.601 Z47.563 I-2.963 J-0.473
X149.81 Y128.547 Z47.234 I2.963 J0.473
X143.885 Y127.601 Z46.905 I-2.963 J-0.473
X149.81 Y128.547 Z46.576 I2.963 J0.473
X143.885 Y127.601 Z46.247 I-2.963 J-0.473
X149.81 Y128.547 Z45.918 I2.963 J0.473
X143.885 Y127.601 Z45.588 I-2.963 J-0.473
X149.81 Y128.547 Z45.259 I2.963 J0.473
X143.885 Y127.601 Z44.93 I-2.963 J-0.473
X149.81 Y128.547 Z44.601 I2.963 J0.473
X143.885 Y127.601 Z44.272 I-2.963 J-0.473
X149.81 Y128.547 Z43.943 I2.963 J0.473
X143.885 Y127.601 Z43.614 I-2.963 J-0.473
X149.81 Y128.547 Z43.285 I2.963 J0.473
X143.885 Y127.601 Z42.956 I-2.963 J-0.473
X149.81 Y128.547 Z42.626 I2.963 J0.473
X143.885 Y127.601 Z42.297 I-2.963 J-0.473
X149.81 Y128.547 Z41.968 I2.963 J0.473
X143.885 Y127.601 Z41.639 I-2.963 J-0.473
X149.81 Y128.547 Z41.31 I2.963 J0.473
X143.885 Y127.601 Z40.981 I-2.963 J-0.473
X149.81 Y128.547 Z40.652 I2.963 J0.473
X143.885 Y127.601 Z40.323 I-2.963 J-0.473
X149.847 Y128.074 Z40.01 I2.963 J0.473
X143.847 I-3
X149.743 Y127.291 I3
X149.847 Y128.074 I-2.896 J0.783
G1 X149.869 Y129.366 F849.6
X149.876 Y129.446
X149.883 Y129.596
X149.875 Y129.746
X149.855 Y129.894
X149.824 Y130.041
X149.783 Y130.185
X149.732 Y130.327
X149.673 Y130.464
X149.605 Y130.598
X149.53 Y130.728
X149.447 Y130.855
X149.354 Y130.981
X149.252 Y131.105
X149.141 Y131.226
X149.02 Y131.344
X148.89 Y131.458
X148.751 Y131.567
X148.604 Y131.67
X148.448 Y131.767
X148.285 Y131.857
X148.114 Y131.939
X147.936 Y132.013
X147.752 Y132.078
X147.562 Y132.133
X147.367 Y132.179
X146.9 Y132.225
X146.431 Y132.195
X145.973 Y132.092
X145.537 Y131.916
X145.135 Y131.674
X144.777 Y131.37
X144.471 Y131.014
X143.413 Y129.557
X143.261 Y129.325
X143.184 Y129.19
X143.111 Y129.048
X143.045 Y128.898
X142.986 Y128.741
X142.934 Y128.578
X142.89 Y128.408
X142.855 Y128.232
X142.829 Y128.052
X142.812 Y127.867
X142.805 Y127.678
X142.809 Y127.486
X142.823 Y127.292
X142.848 Y127.097
X142.883 Y126.9
X142.93 Y126.704
X142.989 Y126.508
X143.058 Y126.314
X143.139 Y126.122
X143.231 Y125.932
X143.334 Y125.747
X143.447 Y125.566
X143.571 Y125.39
X143.706 Y125.22
X143.85 Y125.057
X144.004 Y124.9
X144.167 Y124.752
X144.339 Y124.612
X144.518 Y124.48
X144.706 Y124.358
X144.901 Y124.246
X145.102 Y124.144
X145.309 Y124.053
X145.521 Y123.974
X145.739 Y123.905
X145.96 Y123.848
X146.184 Y123.804
X146.412 Y123.771
X146.858 Y123.764
X147.3 Y123.823
X147.729 Y123.946
X148.135 Y124.131
X148.51 Y124.374
X148.845 Y124.668
X149.133 Y125.009
X150.411 Y126.768
X150.617 Y127.083
X150.739 Y127.296
X150.848 Y127.51
X150.943 Y127.724
X151.023 Y127.938
X151.092 Y128.153
X151.165 Y128.562
X151.177 Y128.977
X151.127 Y129.39
X151.016 Y129.791
X150.847 Y130.171
X150.623 Y130.521
X150.349 Y130.834
X150.032 Y131.103
G3 X149.575 Y131.294 I-0.71 J-1.053
X148.053 Y130.005 I-0.253 J-1.245
G1 X148.141 Y127.505
G3 X150.411 Y126.768 I1.269 J0.045
G1 X151.413 Y128.148
X151.524 Y128.302
X151.541 Y128.327
X151.568 Y128.364
X151.649 Y128.49
X151.714 Y128.625
X151.768 Y128.765
X151.792 Y128.848
X151.812 Y128.932
X151.829 Y129.017
G3 X151.682 Y129.12 I-0.125 J-0.022
G2 X151.561 Y129.166 I-0.022 J0.125
G3 X150.544 Y128.355 I-0.508 J-0.406
X151.568 Y128.364 I0.508 J0.406
G1 X151.629 Y128.449
X151.729 Y128.635
X151.794 Y128.822
X151.796 Y128.829
X151.83 Y129.02
X151.834 Y129.21
X151.821 Y129.339
X151.794 Y129.468
X151.755 Y129.591
X151.665 Y129.781
X151.604 Y129.876
X151.53 Y129.971
X151.413 Y130.091
X151.066 Y130.352
X147.922 Y132.636
X147.774 Y132.732
X147.466 Y132.875
X147.137 Y132.958
X146.798 Y132.981
X146.461 Y132.941
X146.136 Y132.84
X145.836 Y132.682
X145.569 Y132.472
X145.345 Y132.217
G3 X146.183 Y129.562 I1.474 J-0.994
X148.267 Y132.279 I0.639 J1.667
X147.922 Y132.636 I-1.445 J-1.049
G1 X147.604 Y132.867
X147.391 Y133.017
X147.223 Y133.104
X147.032 Y133.17
X146.842 Y133.204
X146.651 Y133.209
X146.461 Y133.185
X146.27 Y133.13
X146.08 Y133.04
X146.04 Y133.017
X145.869 Y132.889
X145.776 Y132.796
X145.699 Y132.703
X144.471 Y131.014
X144.465 Y131.003
G2 X144.278 Y130.643 I-4.218 J1.967
X144.235 Y130.575 I-1.1 J0.635
X144.205 Y130.531 I-1.058 J0.703
G1 X143.789 Y129.959
G2 X143.758 Y129.917 I-1.027 J0.746
X143.706 Y129.856 I-0.996 J0.788
X143.421 Y129.566 I-3.459 J3.114
G1 X143.413 Y129.557
X142.456 Y128.239
X142.374 Y128.114
X142.299 Y127.983
X142.234 Y127.848
X142.178 Y127.709
X142.13 Y127.567
X142.09 Y127.42
X142.056 Y127.264
X142.03 Y127.101
X142.012 Y126.93
X142.003 Y126.752
X142.004 Y126.565
X142.015 Y126.371
X142.038 Y126.173
X142.072 Y125.97
X142.118 Y125.764
X142.177 Y125.555
X142.249 Y125.344
X142.335 Y125.131
X142.435 Y124.918
X142.549 Y124.706
X142.676 Y124.497
X142.817 Y124.291
X142.972 Y124.09
X143.139 Y123.894
X143.32 Y123.705
X143.514 Y123.524
X143.717 Y123.353
X143.914 Y123.205
X144.14 Y123.054
X144.356 Y122.925
X144.577 Y122.809
X144.818 Y122.699
X145.043 Y122.611
X145.289 Y122.53
X145.723 Y122.451
X146.165 Y122.449
X146.601 Y122.522
X147.017 Y122.668
X147.402 Y122.885
X147.745 Y123.164
X148.034 Y123.497
X149.133 Y125.009
G3 X149.324 Y125.466 I-1.053 J0.71
X148.527 Y126.908 I-1.245 J0.253
G1 X143.903 Y128.646
G3 X142.831 Y128.563 I-0.447 J-1.189
X142.456 Y128.239 I0.625 J-1.105
G1 X141.696 Y127.194
X141.602 Y127.05
X141.527 Y126.92
X141.462 Y126.785
X141.405 Y126.646
X141.358 Y126.504
X141.318 Y126.359
X141.284 Y126.202
X141.257 Y126.033
X141.239 Y125.857
X141.23 Y125.673
Y125.478
X141.243 Y125.273
X141.267 Y125.061
X141.303 Y124.845
X141.353 Y124.623
X141.417 Y124.395
X141.496 Y124.165
X141.591 Y123.93
X141.701 Y123.696
X141.825 Y123.464
X141.965 Y123.234
X142.12 Y123.008
X142.29 Y122.787
X142.473 Y122.574
X142.649 Y122.39
X142.852 Y122.2
X143.053 Y122.031
X143.246 Y121.886
X143.467 Y121.738
X143.681 Y121.611
X143.887 Y121.503
X143.914 Y121.491
X144.298 Y121.35
X144.699 Y121.269
X145.108 Y121.25
X145.515 Y121.293
X145.911 Y121.397
X146.286 Y121.56
X146.632 Y121.778
X146.941 Y122.046
X147.206 Y122.358
X148.034 Y123.497
G3 X148.226 Y123.954 I-1.053 J0.71
X147.563 Y125.337 I-1.245 J0.253
G1 X143.278 Y127.542
G3 X141.696 Y127.194 I-0.581 J-1.129
G1 X140.887 Y126.08
X140.805 Y125.955
X140.732 Y125.824
X140.667 Y125.688
X140.612 Y125.549
X140.564 Y125.407
X140.522 Y125.252
X140.486 Y125.085
X140.458 Y124.909
X140.439 Y124.724
X140.429 Y124.525
X140.43 Y124.315
X140.443 Y124.099
X140.468 Y123.876
X140.507 Y123.647
X140.56 Y123.409
X140.628 Y123.168
X140.711 Y122.925
X140.81 Y122.682
X140.923 Y122.44
X141.052 Y122.2
X141.192 Y121.97
X141.335 Y121.76
X141.503 Y121.542
X141.666 Y121.352
X141.842 Y121.169
X142.031 Y120.992
X142.212 Y120.84
X142.417 Y120.686
X142.619 Y120.55
X142.818 Y120.432
X143.042 Y120.315
X143.253 Y120.219
X143.661 Y120.096
X144.085 Y120.042
X144.511 Y120.059
X144.929 Y120.144
X145.327 Y120.297
X145.694 Y120.513
X146.022 Y120.787
X146.3 Y121.11
X147.206 Y122.358
G3 X147.398 Y122.815 I-1.053 J0.71
X146.742 Y124.193 I-1.245 J0.253
G1 X142.476 Y126.424
G3 X140.887 Y126.08 I-0.588 J-1.125
G1 X140.118 Y125.023
X140.004 Y124.846
X139.928 Y124.717
X139.862 Y124.582
X139.805 Y124.443
X139.753 Y124.297
X139.708 Y124.14
X139.669 Y123.973
X139.637 Y123.793
X139.614 Y123.6
X139.6 Y123.399
X139.598 Y123.191
X139.607 Y122.974
X139.629 Y122.748
X139.664 Y122.516
X139.713 Y122.279
X139.776 Y122.04
X139.854 Y121.8
X139.947 Y121.558
X140.055 Y121.318
X140.178 Y121.08
X140.317 Y120.843
X140.469 Y120.612
X140.62 Y120.409
X140.792 Y120.202
X140.969 Y120.011
X141.141 Y119.844
X141.339 Y119.672
X141.534 Y119.521
X141.724 Y119.389
X141.941 Y119.255
X142.148 Y119.142
X142.352 Y119.045
X142.763 Y118.915
X143.19 Y118.855
X143.621 Y118.866
X144.045 Y118.949
X144.448 Y119.1
X144.821 Y119.317
X145.153 Y119.592
X145.435 Y119.919
X146.3 Y121.11
G3 X146.492 Y121.567 I-1.053 J0.71
X145.889 Y122.916 I-1.245 J0.253
G1 X141.762 Y125.336
G3 X140.494 Y125.346 I-0.642 J-1.096
X140.118 Y125.023 I0.625 J-1.105
G1 X139.222 Y123.789
X139.14 Y123.663
X139.068 Y123.532
X139.004 Y123.396
X138.948 Y123.257
X138.898 Y123.11
X138.852 Y122.948
X138.813 Y122.773
X138.783 Y122.59
X138.761 Y122.397
X138.75 Y122.19
X138.749 Y121.975
X138.761 Y121.752
X138.785 Y121.524
X138.823 Y121.29
X138.875 Y121.052
X138.942 Y120.809
X139.024 Y120.564
X139.121 Y120.319
X139.233 Y120.076
X139.36 Y119.835
X139.502 Y119.599
X139.651 Y119.379
X139.803 Y119.178
X139.98 Y118.97
X140.15 Y118.789
X140.328 Y118.62
X140.527 Y118.451
X140.715 Y118.308
X140.913 Y118.173
X141.127 Y118.044
X141.328 Y117.937
X141.543 Y117.838
X141.946 Y117.714
X142.364 Y117.659
X142.785 Y117.673
X143.198 Y117.756
X143.592 Y117.906
X143.956 Y118.119
X144.28 Y118.389
X144.555 Y118.708
X145.435 Y119.919
G3 X145.626 Y120.376 I-1.053 J0.71
X145.012 Y121.732 I-1.245 J0.253
G1 X140.853 Y124.11
G3 X139.222 Y123.789 I-0.63 J-1.102
G1 X138.375 Y122.623
X138.293 Y122.498
X138.22 Y122.367
X138.156 Y122.231
X138.099 Y122.092
X138.047 Y121.942
X138.001 Y121.778
X137.962 Y121.606
X137.931 Y121.423
X137.908 Y121.226
X137.896 Y121.018
X137.895 Y120.804
X137.906 Y120.583
X137.929 Y120.354
X137.967 Y120.118
X138.018 Y119.878
X138.085 Y119.634
X138.166 Y119.39
X138.261 Y119.146
X138.372 Y118.903
X138.498 Y118.663
X138.639 Y118.427
X138.791 Y118.199
X138.942 Y117.999
X139.119 Y117.789
X139.293 Y117.604
X139.467 Y117.437
X139.666 Y117.267
X139.857 Y117.12
X140.05 Y116.988
X140.266 Y116.857
X140.469 Y116.748
X140.678 Y116.65
X141.08 Y116.526
X141.498 Y116.469
X141.918 Y116.482
X142.331 Y116.565
X142.725 Y116.714
X143.089 Y116.926
X143.413 Y117.196
X143.688 Y117.515
X144.555 Y118.708
G3 X144.746 Y119.165 I-1.053 J0.71
X144.145 Y120.513 I-1.244 J0.253
G1 X140.019 Y122.936
G3 X138.375 Y122.623 I-0.643 J-1.095
G1 X137.546 Y121.481
X137.455 Y121.342
X137.38 Y121.213
X137.314 Y121.078
X137.255 Y120.94
X137.202 Y120.791
X137.155 Y120.631
X137.114 Y120.462
X137.081 Y120.279
X137.057 Y120.083
X137.042 Y119.879
X137.038 Y119.666
X137.046 Y119.447
X137.067 Y119.217
X137.102 Y118.98
X137.151 Y118.741
X137.214 Y118.498
X137.292 Y118.253
X137.384 Y118.009
X137.492 Y117.766
X137.615 Y117.524
X137.753 Y117.286
X137.904 Y117.054
X138.054 Y116.851
X138.226 Y116.642
X138.401 Y116.451
X138.572 Y116.284
X138.769 Y116.111
X138.96 Y115.96
X139.15 Y115.827
X139.365 Y115.693
X139.569 Y115.581
X139.772 Y115.483
X139.859 Y115.446
X140.248 Y115.321
X140.653 Y115.263
X141.061 Y115.272
X141.463 Y115.349
X141.846 Y115.492
X142.199 Y115.697
X142.514 Y115.957
X142.781 Y116.267
X143.688 Y117.515
G3 X143.879 Y117.972 I-1.053 J0.71
X143.292 Y119.311 I-1.245 J0.253
G1 X139.204 Y121.786
G3 X137.546 Y121.481 I-0.658 J-1.086
G1 X136.665 Y120.27
X136.583 Y120.144
X136.51 Y120.013
X136.445 Y119.878
X136.388 Y119.739
X136.336 Y119.591
X136.289 Y119.427
X136.249 Y119.253
X136.217 Y119.07
X136.194 Y118.875
X136.181 Y118.667
X136.179 Y118.45
X136.189 Y118.227
X136.212 Y117.998
X136.248 Y117.762
X136.298 Y117.522
X136.364 Y117.278
X136.445 Y117.031
X136.54 Y116.786
X136.65 Y116.542
X136.776 Y116.3
X136.916 Y116.062
X137.067 Y115.835
X137.222 Y115.628
X137.401 Y115.413
X137.576 Y115.225
X137.754 Y115.054
X137.954 Y114.881
X138.144 Y114.734
X138.34 Y114.598
X138.554 Y114.467
X138.755 Y114.359
X138.966 Y114.259
X139.363 Y114.135
X139.774 Y114.077
X140.19 Y114.089
X140.598 Y114.17
X140.987 Y114.316
X141.346 Y114.525
X141.666 Y114.791
X141.938 Y115.106
X142.781 Y116.267
G3 X142.973 Y116.724 I-1.053 J0.71
X142.396 Y118.057 I-1.245 J0.253
G1 X138.334 Y120.568
G3 X137.041 Y120.593 I-0.668 J-1.08
X136.665 Y120.27 I0.625 J-1.105
G1 X135.829 Y119.119
X135.737 Y118.978
X135.662 Y118.848
X135.596 Y118.714
X135.538 Y118.576
X135.484 Y118.426
X135.436 Y118.265
X135.396 Y118.095
X135.362 Y117.913
X135.337 Y117.716
X135.323 Y117.51
X135.319 Y117.297
X135.327 Y117.076
X135.348 Y116.845
X135.383 Y116.607
X135.431 Y116.365
X135.495 Y116.12
X135.573 Y115.874
X135.666 Y115.627
X135.774 Y115.382
X135.898 Y115.139
X136.037 Y114.899
X136.189 Y114.667
X136.339 Y114.462
X136.512 Y114.251
X136.686 Y114.061
X136.857 Y113.893
X137.054 Y113.72
X137.245 Y113.57
X137.434 Y113.437
X137.648 Y113.303
X137.852 Y113.191
X137.893 Y113.171
X138.267 Y113.025
X138.658 Y112.938
X139.059 Y112.913
X139.458 Y112.95
X139.847 Y113.048
X140.217 Y113.204
X140.557 Y113.416
X140.861 Y113.677
X141.122 Y113.983
X141.938 Y115.106
G3 X142.129 Y115.563 I-1.053 J0.71
X141.555 Y116.895 I-1.244 J0.253
G1 X137.501 Y119.416
G3 X135.829 Y119.119 I-0.671 J-1.079
G1 X134.939 Y117.894
X134.857 Y117.768
X134.784 Y117.637
X134.72 Y117.502
X134.663 Y117.363
X134.611 Y117.213
X134.564 Y117.048
X134.524 Y116.872
X134.493 Y116.687
X134.47 Y116.491
X134.457 Y116.281
X134.455 Y116.063
X134.466 Y115.838
X134.489 Y115.607
X134.527 Y115.37
X134.578 Y115.129
X134.644 Y114.884
X134.726 Y114.636
X134.822 Y114.39
X134.934 Y114.145
X135.06 Y113.902
X135.196 Y113.673
X135.339 Y113.459
X135.502 Y113.241
X135.661 Y113.052
X135.837 Y112.864
X136.02 Y112.688
X136.198 Y112.535
X136.4 Y112.38
X136.597 Y112.244
X136.794 Y112.124
X137.013 Y112.007
X137.025 Y112.001
X137.405 Y111.857
X137.802 Y111.773
X138.207 Y111.75
X138.611 Y111.79
X139.004 Y111.891
X139.377 Y112.051
X139.722 Y112.266
X140.029 Y112.532
X140.292 Y112.841
X141.122 Y113.983
G3 X141.313 Y114.44 I-1.053 J0.71
X140.711 Y115.789 I-1.245 J0.253
G1 X136.582 Y118.208
G3 X134.939 Y117.894 I-0.642 J-1.096
G1 X134.082 Y116.713
X134 Y116.588
X133.926 Y116.457
X133.861 Y116.322
X133.803 Y116.183
X133.75 Y116.032
X133.703 Y115.868
X133.663 Y115.696
X133.631 Y115.511
X133.607 Y115.313
X133.594 Y115.106
X133.591 Y114.891
X133.601 Y114.669
X133.623 Y114.441
X133.66 Y114.205
X133.71 Y113.964
X133.775 Y113.721
X133.854 Y113.477
X133.949 Y113.232
X134.058 Y112.989
X134.182 Y112.749
X134.319 Y112.517
X134.458 Y112.308
X134.621 Y112.089
X134.78 Y111.897
X134.95 Y111.714
X135.136 Y111.535
X135.313 Y111.382
X135.513 Y111.227
X135.712 Y111.089
X135.907 Y110.969
X136.126 Y110.85
X136.335 Y110.751
X136.745 Y110.622
X137.171 Y110.562
X137.601 Y110.574
X138.023 Y110.657
X138.425 Y110.808
X138.797 Y111.024
X139.128 Y111.299
X139.408 Y111.625
X140.292 Y112.841
G3 X140.484 Y113.298 I-1.053 J0.71
X139.87 Y114.653 I-1.245 J0.253
G1 X135.713 Y117.034
G3 X134.082 Y116.713 I-0.631 J-1.102
G1 X133.26 Y115.583
X133.15 Y115.415
X133.075 Y115.285
X133.009 Y115.15
X132.951 Y115.012
X132.897 Y114.863
X132.849 Y114.702
X132.809 Y114.532
X132.776 Y114.35
X132.751 Y114.155
X132.736 Y113.951
X132.732 Y113.739
X132.74 Y113.519
X132.761 Y113.293
X132.795 Y113.059
X132.843 Y112.82
X132.906 Y112.579
X132.983 Y112.336
X133.075 Y112.093
X133.182 Y111.851
X133.303 Y111.612
X133.44 Y111.375
X133.59 Y111.146
X133.738 Y110.945
X133.91 Y110.734
X134.083 Y110.546
X134.254 Y110.378
X134.451 Y110.205
X134.642 Y110.055
X134.832 Y109.921
X135.047 Y109.787
X135.252 Y109.674
X135.456 Y109.575
X135.684 Y109.48
X136.063 Y109.379
X136.452 Y109.34
X136.844 Y109.363
X137.226 Y109.449
X137.59 Y109.594
X137.926 Y109.796
X138.225 Y110.049
X138.48 Y110.347
X139.408 Y111.625
G3 X139.6 Y112.082 I-1.053 J0.71
X139.011 Y113.423 I-1.245 J0.253
G1 X134.916 Y115.889
G3 X133.26 Y115.583 I-0.655 J-1.088
G1 X132.374 Y114.363
X132.292 Y114.237
X132.217 Y114.108
X132.15 Y113.973
X132.092 Y113.835
X132.039 Y113.688
X131.992 Y113.527
X131.951 Y113.356
X131.918 Y113.175
X131.893 Y112.982
X131.878 Y112.776
X131.874 Y112.563
X131.882 Y112.343
X131.903 Y112.116
X131.937 Y111.881
X131.985 Y111.643
X132.048 Y111.399
X132.126 Y111.154
X132.218 Y110.91
X132.326 Y110.667
X132.448 Y110.426
X132.585 Y110.189
X132.737 Y109.957
X132.901 Y109.733
X133.062 Y109.536
X133.248 Y109.334
X133.428 Y109.157
X133.613 Y108.994
X133.816 Y108.834
X134.008 Y108.699
X134.215 Y108.57
X134.428 Y108.453
X134.628 Y108.356
X135.03 Y108.226
X135.448 Y108.165
X135.871 Y108.175
X136.286 Y108.254
X136.682 Y108.402
X137.047 Y108.613
X137.373 Y108.883
X137.649 Y109.203
X138.48 Y110.347
G3 X138.672 Y110.804 I-1.053 J0.71
X138.099 Y112.135 I-1.245 J0.253
G1 X134.047 Y114.66
G3 X132.75 Y114.687 I-0.672 J-1.078
X132.374 Y114.363 I0.625 J-1.105
G1 X131.545 Y113.221
X131.435 Y113.054
X131.36 Y112.924
X131.294 Y112.79
X131.235 Y112.652
X131.183 Y112.505
X131.135 Y112.343
X131.094 Y112.172
X131.061 Y111.992
X131.036 Y111.798
X131.021 Y111.591
X131.018 Y111.376
X131.026 Y111.154
X131.046 Y110.926
X131.081 Y110.689
X131.13 Y110.447
X131.193 Y110.202
X131.272 Y109.954
X131.365 Y109.707
X131.474 Y109.462
X131.597 Y109.219
X131.736 Y108.979
X131.885 Y108.75
X132.034 Y108.548
X132.208 Y108.335
X132.38 Y108.148
X132.552 Y107.98
X132.749 Y107.806
X132.937 Y107.658
X133.128 Y107.524
X133.342 Y107.39
X133.544 Y107.279
X133.749 Y107.18
X134.155 Y107.049
X134.578 Y106.987
X135.004 Y106.997
X135.424 Y107.077
X135.823 Y107.226
X136.193 Y107.44
X136.522 Y107.712
X136.8 Y108.035
X137.649 Y109.203
G3 X137.84 Y109.66 I-1.053 J0.71
X137.268 Y110.991 I-1.244 J0.253
G1 X133.217 Y113.517
G3 X131.545 Y113.221 I-0.672 J-1.078
G1 X130.638 Y111.973
X130.556 Y111.848
X130.483 Y111.717
X130.418 Y111.581
X130.362 Y111.442
X130.31 Y111.293
X130.263 Y111.128
X130.223 Y110.952
X130.191 Y110.766
X130.169 Y110.57
X130.156 Y110.361
X130.154 Y110.143
X130.165 Y109.918
X130.189 Y109.687
X130.226 Y109.451
X130.277 Y109.211
X130.343 Y108.965
X130.425 Y108.718
X130.521 Y108.473
X130.632 Y108.228
X130.759 Y107.986
X130.9 Y107.748
X131.047 Y107.527
X131.199 Y107.325
X131.375 Y107.116
X131.544 Y106.935
X131.721 Y106.765
X131.918 Y106.596
X132.105 Y106.452
X132.302 Y106.317
X132.515 Y106.187
X132.714 Y106.08
X132.927 Y105.98
X133.329 Y105.855
X133.745 Y105.798
X134.166 Y105.811
X134.578 Y105.893
X134.971 Y106.042
X135.335 Y106.253
X135.658 Y106.522
X135.933 Y106.841
X136.8 Y108.035
G3 X136.992 Y108.492 I-1.053 J0.71
X136.397 Y109.837 I-1.244 J0.253
G1 X132.288 Y112.283
G3 X131.013 Y112.297 I-0.65 J-1.091
X130.638 Y111.973 I0.625 J-1.105
G1 X129.782 Y110.796
X129.7 Y110.67
X129.626 Y110.54
X129.561 Y110.405
X129.504 Y110.266
X129.451 Y110.115
X129.403 Y109.952
X129.363 Y109.779
X129.331 Y109.595
X129.307 Y109.397
X129.293 Y109.189
X129.291 Y108.975
X129.3 Y108.753
X129.323 Y108.523
X129.359 Y108.286
X129.409 Y108.045
X129.474 Y107.801
X129.554 Y107.555
X129.648 Y107.311
X129.758 Y107.067
X129.882 Y106.826
X130.021 Y106.589
X130.173 Y106.36
X130.323 Y106.158
X130.498 Y105.948
X130.671 Y105.761
X130.844 Y105.594
X131.042 Y105.422
X131.232 Y105.275
X131.424 Y105.142
X131.639 Y105.009
X131.841 Y104.899
X131.994 Y104.827
X132.392 Y104.678
X132.809 Y104.601
X133.234 Y104.596
X133.653 Y104.665
X134.053 Y104.805
X134.424 Y105.012
X134.753 Y105.28
X135.032 Y105.601
X135.933 Y106.841
G3 X136.124 Y107.298 I-1.053 J0.71
X135.534 Y108.639 I-1.245 J0.253
G1 X131.437 Y111.102
G3 X129.782 Y110.796 I-0.654 J-1.088
G1 X128.936 Y109.631
X128.849 Y109.498
X128.774 Y109.368
X128.707 Y109.233
X128.649 Y109.095
X128.596 Y108.946
X128.548 Y108.785
X128.507 Y108.614
X128.474 Y108.432
X128.449 Y108.236
X128.434 Y108.03
X128.43 Y107.816
X128.438 Y107.596
X128.458 Y107.366
X128.493 Y107.13
X128.541 Y106.889
X128.604 Y106.645
X128.682 Y106.4
X128.775 Y106.155
X128.882 Y105.912
X129.005 Y105.67
X129.142 Y105.432
X129.288 Y105.208
X129.452 Y104.985
X129.625 Y104.774
X129.792 Y104.592
X129.98 Y104.407
X130.172 Y104.238
X130.355 Y104.094
X130.563 Y103.948
X130.769 Y103.819
X130.965 Y103.711
X131.046 Y103.672
X131.459 Y103.515
X131.893 Y103.432
X132.334 Y103.425
X132.771 Y103.495
X133.188 Y103.639
X133.574 Y103.854
X133.917 Y104.132
X134.207 Y104.466
X135.032 Y105.601
G3 X135.223 Y106.058 I-1.053 J0.71
X134.654 Y107.386 I-1.245 J0.253
G1 X130.612 Y109.925
G3 X128.936 Y109.631 I-0.676 J-1.075
G1 X128.05 Y108.412
X127.968 Y108.287
X127.895 Y108.155
X127.831 Y108.02
X127.774 Y107.881
X127.723 Y107.732
X127.676 Y107.568
X127.636 Y107.392
X127.605 Y107.207
X127.582 Y107.012
X127.569 Y106.804
X127.568 Y106.586
X127.578 Y106.36
X127.602 Y106.129
X127.639 Y105.893
X127.691 Y105.65
X127.758 Y105.404
X127.839 Y105.157
X127.936 Y104.909
X128.048 Y104.663
X128.175 Y104.42
X128.312 Y104.188
X128.454 Y103.976
X128.622 Y103.752
X128.787 Y103.556
X128.953 Y103.378
X129.146 Y103.194
X129.331 Y103.035
X129.515 Y102.893
X129.727 Y102.748
X129.928 Y102.625
X130.125 Y102.519
X130.169 Y102.498
X130.59 Y102.344
X131.031 Y102.263
X131.48 Y102.26
X131.922 Y102.334
X132.345 Y102.483
X132.736 Y102.702
X133.084 Y102.985
X133.377 Y103.324
X134.207 Y104.466
G3 X134.399 Y104.923 I-1.053 J0.71
X133.806 Y106.266 I-1.245 J0.253
G1 X129.703 Y108.72
G3 X128.05 Y108.412 I-0.652 J-1.09
G1 X127.244 Y107.302
X127.126 Y107.122
X127.051 Y106.992
X126.984 Y106.857
X126.926 Y106.719
X126.872 Y106.569
X126.825 Y106.408
X126.784 Y106.238
X126.75 Y106.054
X126.725 Y105.857
X126.71 Y105.652
X126.706 Y105.44
X126.714 Y105.218
X126.735 Y104.988
X126.77 Y104.752
X126.818 Y104.511
X126.881 Y104.268
X126.959 Y104.023
X127.051 Y103.779
X127.158 Y103.535
X127.281 Y103.294
X127.418 Y103.057
X127.556 Y102.846
X127.716 Y102.628
X127.883 Y102.424
X128.044 Y102.247
X128.23 Y102.065
X128.419 Y101.899
X128.6 Y101.756
X128.806 Y101.612
X129.013 Y101.482
X129.208 Y101.374
X129.428 Y101.268
X129.838 Y101.136
X130.265 Y101.073
X130.696 Y101.083
X131.12 Y101.164
X131.524 Y101.315
X131.898 Y101.531
X132.23 Y101.806
X132.512 Y102.133
X133.377 Y103.324
G3 X133.569 Y103.781 I-1.053 J0.71
X132.985 Y105.118 I-1.245 J0.253
G1 X128.905 Y107.605
G3 X127.244 Y107.302 I-0.661 J-1.085
G1 X126.346 Y106.066
X126.264 Y105.94
X126.188 Y105.81
X126.122 Y105.676
X126.064 Y105.538
X126.01 Y105.389
X125.962 Y105.227
X125.921 Y105.056
X125.888 Y104.874
X125.863 Y104.679
X125.848 Y104.474
X125.844 Y104.26
X125.851 Y104.039
X125.872 Y103.812
X125.906 Y103.579
X125.954 Y103.339
X126.017 Y103.095
X126.094 Y102.852
X126.186 Y102.607
X126.293 Y102.364
X126.415 Y102.123
X126.552 Y101.886
X126.7 Y101.66
X126.847 Y101.458
X127.021 Y101.246
X127.192 Y101.059
X127.363 Y100.891
X127.56 Y100.717
X127.749 Y100.568
X127.94 Y100.434
X128.155 Y100.299
X128.358 Y100.187
X128.563 Y100.088
X128.645 Y100.054
X129.039 Y99.926
X129.448 Y99.866
X129.862 Y99.875
X130.268 Y99.953
X130.656 Y100.098
X131.014 Y100.305
X131.333 Y100.568
X131.603 Y100.882
X132.512 Y102.133
G3 X132.704 Y102.59 I-1.053 J0.71
X132.107 Y103.935 I-1.245 J0.253
G1 X127.994 Y106.376
G3 X126.346 Y106.066 I-0.648 J-1.092
G1 X125.507 Y104.912
X125.403 Y104.753
X125.328 Y104.623
X125.262 Y104.488
X125.203 Y104.35
X125.151 Y104.203
X125.103 Y104.041
X125.062 Y103.87
X125.029 Y103.689
X125.004 Y103.496
X124.989 Y103.289
X124.985 Y103.076
X124.993 Y102.856
X125.014 Y102.628
X125.048 Y102.394
X125.096 Y102.155
X125.159 Y101.912
X125.236 Y101.667
X125.329 Y101.423
X125.436 Y101.179
X125.558 Y100.938
X125.696 Y100.701
X125.845 Y100.471
X125.997 Y100.264
X126.174 Y100.048
X126.349 Y99.856
X126.523 Y99.686
X126.722 Y99.511
X126.914 Y99.36
X127.106 Y99.225
X127.321 Y99.09
X127.524 Y98.978
X127.729 Y98.879
X128.134 Y98.748
X128.554 Y98.687
X128.979 Y98.696
X129.396 Y98.776
X129.794 Y98.925
X130.162 Y99.137
X130.489 Y99.408
X130.766 Y99.73
X131.603 Y100.882
G3 X131.795 Y101.338 I-1.053 J0.71
X131.226 Y102.667 I-1.245 J0.253
G1 X127.184 Y105.206
G3 X125.507 Y104.912 I-0.675 J-1.075
G1 X124.63 Y103.704
X124.544 Y103.573
X124.469 Y103.443
X124.403 Y103.309
X124.344 Y103.171
X124.291 Y103.023
X124.243 Y102.861
X124.202 Y102.69
X124.169 Y102.509
X124.144 Y102.315
X124.129 Y102.108
X124.125 Y101.894
X124.133 Y101.673
X124.154 Y101.444
X124.188 Y101.208
X124.237 Y100.967
X124.3 Y100.722
X124.379 Y100.475
X124.472 Y100.229
X124.58 Y99.984
X124.703 Y99.741
X124.841 Y99.502
X124.99 Y99.274
X125.139 Y99.071
X125.312 Y98.859
X125.484 Y98.671
X125.655 Y98.503
X125.852 Y98.33
X126.041 Y98.181
X126.232 Y98.047
X126.446 Y97.913
X126.648 Y97.801
X126.854 Y97.702
X127.261 Y97.57
X127.685 Y97.508
X128.113 Y97.518
X128.534 Y97.598
X128.935 Y97.748
X129.306 Y97.962
X129.636 Y98.236
X129.916 Y98.56
X130.766 Y99.73
G3 X130.958 Y100.187 I-1.053 J0.71
X130.373 Y101.525 I-1.245 J0.253
G1 X126.291 Y104.008
G3 X124.63 Y103.704 I-0.66 J-1.085
G1 X123.8 Y102.562
X123.685 Y102.386
X123.61 Y102.256
X123.544 Y102.122
X123.485 Y101.984
X123.432 Y101.835
X123.384 Y101.673
X123.343 Y101.502
X123.309 Y101.32
X123.285 Y101.125
X123.269 Y100.918
X123.265 Y100.704
X123.273 Y100.483
X123.294 Y100.254
X123.328 Y100.019
X123.376 Y99.779
X123.439 Y99.534
X123.517 Y99.288
X123.61 Y99.043
X123.717 Y98.799
X123.84 Y98.557
X123.977 Y98.32
X124.125 Y98.093
X124.273 Y97.891
X124.446 Y97.679
X124.617 Y97.493
X124.789 Y97.325
X124.985 Y97.151
X125.174 Y97.003
X125.365 Y96.868
X125.579 Y96.734
X125.781 Y96.623
X125.986 Y96.523
X126.396 Y96.391
X126.821 Y96.329
X127.252 Y96.338
X127.674 Y96.419
X128.077 Y96.569
X128.45 Y96.785
X128.781 Y97.059
X129.062 Y97.385
X129.916 Y98.56
G3 X130.108 Y99.017 I-1.053 J0.71
X129.531 Y100.35 I-1.245 J0.253
G1 X125.469 Y102.861
G3 X123.8 Y102.562 I-0.668 J-1.08
G1 X122.899 Y101.322
X122.817 Y101.196
X122.743 Y101.066
X122.677 Y100.932
X122.619 Y100.793
X122.566 Y100.645
X122.518 Y100.482
X122.477 Y100.309
X122.444 Y100.127
X122.42 Y99.931
X122.406 Y99.724
X122.402 Y99.509
X122.411 Y99.287
X122.432 Y99.058
X122.467 Y98.823
X122.516 Y98.584
X122.58 Y98.339
X122.659 Y98.094
X122.752 Y97.849
X122.86 Y97.605
X122.984 Y97.363
X123.122 Y97.126
X123.269 Y96.901
X123.418 Y96.7
X123.592 Y96.488
X123.762 Y96.303
X123.935 Y96.135
X124.132 Y95.963
X124.32 Y95.815
X124.513 Y95.681
X124.727 Y95.548
X124.929 Y95.437
X125.136 Y95.337
X125.362 Y95.244
X125.737 Y95.144
X126.124 Y95.106
X126.512 Y95.13
X126.891 Y95.215
X127.251 Y95.36
X127.584 Y95.56
X127.881 Y95.811
X128.133 Y96.106
X129.062 Y97.385
G3 X129.254 Y97.842 I-1.053 J0.71
X128.659 Y99.186 I-1.245 J0.253
G1 X124.549 Y101.632
G3 X122.899 Y101.322 I-0.649 J-1.091
G1 X122.079 Y100.193
X121.962 Y100.013
X121.886 Y99.883
X121.82 Y99.749
X121.762 Y99.611
X121.709 Y99.462
X121.66 Y99.301
X121.62 Y99.13
X121.586 Y98.949
X121.562 Y98.754
X121.547 Y98.547
X121.543 Y98.334
X121.551 Y98.113
X121.571 Y97.886
X121.605 Y97.651
X121.654 Y97.411
X121.717 Y97.167
X121.794 Y96.923
X121.887 Y96.678
X121.994 Y96.435
X122.117 Y96.194
X122.254 Y95.957
X122.405 Y95.724
X122.57 Y95.5
X122.732 Y95.303
X122.917 Y95.1
X123.098 Y94.923
X123.282 Y94.761
X123.485 Y94.601
X123.678 Y94.466
X123.883 Y94.337
X124.096 Y94.22
X124.296 Y94.123
X124.316 Y94.115
X124.712 Y93.987
X125.124 Y93.927
X125.54 Y93.936
X125.949 Y94.014
X126.339 Y94.16
X126.7 Y94.368
X127.021 Y94.634
X127.293 Y94.949
X128.133 Y96.106
G3 X128.325 Y96.563 I-1.053 J0.71
X127.772 Y97.882 I-1.244 J0.253
G1 X123.771 Y100.477
G3 X122.454 Y100.516 I-0.691 J-1.066
X122.079 Y100.193 I0.625 J-1.105
G1 X121.159 Y98.927
X121.077 Y98.801
X121.005 Y98.67
X120.941 Y98.534
X120.884 Y98.395
X120.833 Y98.246
X120.787 Y98.082
X120.747 Y97.905
X120.716 Y97.72
X120.694 Y97.524
X120.682 Y97.316
X120.681 Y97.096
X120.692 Y96.87
X120.716 Y96.639
X120.754 Y96.401
X120.807 Y96.158
X120.874 Y95.912
X120.957 Y95.663
X121.055 Y95.415
X121.168 Y95.169
X121.296 Y94.926
X121.438 Y94.687
X121.588 Y94.464
X121.743 Y94.259
X121.92 Y94.049
X122.091 Y93.867
X122.27 Y93.697
X122.468 Y93.528
X122.654 Y93.385
X122.854 Y93.249
X123.065 Y93.121
X123.264 Y93.015
X123.313 Y92.992
X123.727 Y92.841
X124.16 Y92.763
X124.6 Y92.761
X125.034 Y92.834
X125.449 Y92.981
X125.833 Y93.196
X126.174 Y93.474
X126.463 Y93.807
X127.293 Y94.949
G3 X126.901 Y96.744 I-1.053 J0.71
G1 X122.821 Y99.23
G3 X121.159 Y98.927 I-0.661 J-1.085
G1 X120.329 Y97.785
X120.238 Y97.645
X120.163 Y97.515
X120.097 Y97.381
X120.038 Y97.243
X119.985 Y97.092
X119.937 Y96.932
X119.896 Y96.762
X119.862 Y96.577
X119.837 Y96.379
X119.822 Y96.174
X119.818 Y95.96
X119.826 Y95.738
X119.847 Y95.506
X119.881 Y95.268
X119.93 Y95.027
X119.993 Y94.783
X120.07 Y94.537
X120.163 Y94.292
X120.271 Y94.047
X120.394 Y93.804
X120.532 Y93.565
X120.672 Y93.351
X120.831 Y93.133
X121 Y92.927
X121.163 Y92.749
X121.348 Y92.567
X121.538 Y92.4
X121.719 Y92.257
X121.924 Y92.113
X122.131 Y91.984
X122.326 Y91.876
X122.545 Y91.77
X122.952 Y91.638
X123.376 Y91.576
X123.804 Y91.586
X124.224 Y91.666
X124.626 Y91.816
X124.996 Y92.03
X125.326 Y92.303
X125.606 Y92.627
X126.463 Y93.807
G3 X126.071 Y95.602 I-1.053 J0.71
G1 X121.991 Y98.088
G3 X120.705 Y98.108 I-0.661 J-1.085
X120.329 Y97.785 I0.625 J-1.105
G1 X119.461 Y96.589
X119.375 Y96.458
X119.3 Y96.328
X119.233 Y96.194
X119.175 Y96.055
X119.121 Y95.907
X119.073 Y95.745
X119.032 Y95.573
X118.998 Y95.391
X118.973 Y95.195
X118.958 Y94.989
X118.954 Y94.775
X118.961 Y94.553
X118.982 Y94.325
X119.016 Y94.09
X119.064 Y93.85
X119.127 Y93.605
X119.204 Y93.36
X119.297 Y93.116
X119.404 Y92.871
X119.526 Y92.63
X119.663 Y92.393
X119.811 Y92.165
X119.959 Y91.963
X120.133 Y91.751
X120.304 Y91.564
X120.475 Y91.395
X120.672 Y91.222
X120.861 Y91.072
X121.051 Y90.938
X121.266 Y90.804
X121.468 Y90.692
X121.673 Y90.592
X121.685 Y90.587
X122.093 Y90.455
X122.516 Y90.393
X122.944 Y90.402
X123.364 Y90.483
X123.765 Y90.632
X124.136 Y90.846
X124.466 Y91.119
X124.746 Y91.443
X125.606 Y92.627
G3 X125.209 Y94.425 I-1.053 J0.71
G1 X121.118 Y96.895
G3 X119.461 Y96.589 I-0.656 J-1.087
G1 X118.592 Y95.394
X118.51 Y95.269
X118.436 Y95.139
X118.369 Y95.004
X118.311 Y94.866
X118.258 Y94.718
X118.21 Y94.556
X118.168 Y94.384
X118.135 Y94.203
X118.111 Y94.008
X118.096 Y93.801
X118.092 Y93.587
X118.1 Y93.366
X118.12 Y93.138
X118.154 Y92.903
X118.203 Y92.663
X118.266 Y92.419
X118.344 Y92.173
X118.436 Y91.928
X118.544 Y91.685
X118.667 Y91.443
X118.804 Y91.205
X118.952 Y90.979
X119.1 Y90.776
X119.274 Y90.564
X119.445 Y90.377
X119.617 Y90.209
X119.815 Y90.035
X120.004 Y89.886
X120.195 Y89.752
X120.41 Y89.618
X120.612 Y89.506
X120.818 Y89.407
X121.227 Y89.275
X121.652 Y89.212
X122.082 Y89.222
X122.505 Y89.303
X122.908 Y89.453
X123.28 Y89.669
X123.611 Y89.943
X123.892 Y90.268
X124.746 Y91.443
G3 X124.346 Y93.242 I-1.053 J0.71
G1 X120.247 Y95.702
G3 X118.968 Y95.718 I-0.653 J-1.089
X118.592 Y95.394 I0.625 J-1.105
G1 X117.716 Y94.187
X117.634 Y94.062
X117.56 Y93.931
X117.496 Y93.796
X117.439 Y93.657
X117.387 Y93.508
X117.34 Y93.344
X117.3 Y93.169
X117.268 Y92.985
X117.245 Y92.79
X117.232 Y92.582
X117.23 Y92.366
X117.241 Y92.142
X117.264 Y91.912
X117.3 Y91.677
X117.351 Y91.438
X117.417 Y91.194
X117.497 Y90.948
X117.593 Y90.703
X117.703 Y90.458
X117.829 Y90.217
X117.969 Y89.98
X118.116 Y89.759
X118.267 Y89.557
X118.443 Y89.347
X118.612 Y89.165
X118.788 Y88.996
X118.986 Y88.826
X119.173 Y88.682
X119.369 Y88.546
X119.583 Y88.416
X119.783 Y88.308
X119.995 Y88.208
X120.399 Y88.081
X120.819 Y88.023
X121.242 Y88.036
X121.658 Y88.118
X122.054 Y88.267
X122.421 Y88.481
X122.746 Y88.751
X123.023 Y89.072
X123.892 Y90.268
G3 X123.483 Y92.073 I-1.053 J0.71
G1 X119.361 Y94.5
G3 X118.091 Y94.511 I-0.644 J-1.094
X117.716 Y94.187 I0.625 J-1.105
G1 X116.886 Y93.045
X116.789 Y92.897
X116.714 Y92.767
X116.647 Y92.633
X116.589 Y92.494
X116.536 Y92.345
X116.488 Y92.184
X116.447 Y92.014
X116.414 Y91.832
X116.389 Y91.635
X116.374 Y91.43
X116.371 Y91.217
X116.379 Y90.998
X116.4 Y90.768
X116.434 Y90.533
X116.482 Y90.293
X116.545 Y90.049
X116.623 Y89.805
X116.715 Y89.561
X116.823 Y89.318
X116.945 Y89.077
X117.083 Y88.84
X117.233 Y88.609
X117.382 Y88.406
X117.555 Y88.196
X117.728 Y88.007
X117.899 Y87.839
X118.096 Y87.666
X118.287 Y87.516
X118.476 Y87.383
X118.691 Y87.249
X118.895 Y87.136
X119.099 Y87.038
X119.326 Y86.943
X119.702 Y86.843
X120.089 Y86.803
X120.477 Y86.827
X120.856 Y86.912
X121.217 Y87.056
X121.551 Y87.257
X121.848 Y87.508
X122.101 Y87.803
X123.023 Y89.072
G3 X122.63 Y90.868 I-1.053 J0.71
G1 X118.546 Y93.349
G3 X116.886 Y93.045 I-0.659 J-1.085
G1 X116.016 Y91.848
X115.93 Y91.716
X115.855 Y91.586
X115.788 Y91.451
X115.73 Y91.313
X115.677 Y91.165
X115.629 Y91.004
X115.587 Y90.833
X115.554 Y90.652
X115.53 Y90.457
X115.515 Y90.251
X115.511 Y90.037
X115.518 Y89.816
X115.539 Y89.588
X115.573 Y89.353
X115.621 Y89.113
X115.685 Y88.869
X115.762 Y88.623
X115.855 Y88.378
X115.962 Y88.135
X116.085 Y87.893
X116.222 Y87.655
X116.374 Y87.423
X116.538 Y87.199
X116.7 Y87.001
X116.885 Y86.799
X117.066 Y86.622
X117.25 Y86.459
X117.453 Y86.299
X117.645 Y86.164
X117.851 Y86.035
X118.064 Y85.918
X118.264 Y85.821
X118.664 Y85.692
X119.081 Y85.631
X119.502 Y85.64
X119.915 Y85.719
X120.31 Y85.866
X120.674 Y86.077
X120.998 Y86.346
X121.273 Y86.664
X122.101 Y87.803
G3 X121.728 Y89.586 I-1.053 J0.71
G1 X117.696 Y92.139
G3 X116.016 Y91.848 I-0.68 J-1.073
G1 X115.139 Y90.641
X115.057 Y90.516
X114.984 Y90.385
X114.918 Y90.25
X114.861 Y90.111
X114.809 Y89.963
X114.762 Y89.8
X114.721 Y89.626
X114.689 Y89.442
X114.666 Y89.248
X114.652 Y89.039
X114.65 Y88.822
X114.659 Y88.597
X114.682 Y88.368
X114.718 Y88.13
X114.769 Y87.887
X114.834 Y87.641
X114.915 Y87.392
X115.011 Y87.144
X115.122 Y86.898
X115.247 Y86.655
X115.388 Y86.415
X115.537 Y86.19
X115.688 Y85.987
X115.864 Y85.776
X116.034 Y85.592
X116.21 Y85.423
X116.407 Y85.252
X116.594 Y85.107
X116.789 Y84.971
X117.002 Y84.841
X117.202 Y84.732
X117.353 Y84.66
X117.749 Y84.513
X118.165 Y84.436
X118.587 Y84.431
X119.005 Y84.5
X119.404 Y84.64
X119.773 Y84.846
X120.101 Y85.113
X120.378 Y85.432
X121.273 Y86.664
G3 X120.881 Y88.459 I-1.053 J0.71
G1 X116.801 Y90.944
G3 X115.139 Y90.641 I-0.661 J-1.085
G1 X114.313 Y89.504
X114.208 Y89.343
X114.133 Y89.213
X114.066 Y89.079
X114.008 Y88.941
X113.954 Y88.79
X113.906 Y88.629
X113.865 Y88.458
X113.831 Y88.275
X113.806 Y88.077
X113.791 Y87.871
X113.787 Y87.657
X113.795 Y87.436
X113.816 Y87.205
X113.85 Y86.968
X113.899 Y86.726
X113.962 Y86.482
X114.04 Y86.236
X114.132 Y85.991
X114.24 Y85.747
X114.363 Y85.505
X114.5 Y85.267
X114.646 Y85.043
X114.809 Y84.82
X114.982 Y84.609
X115.149 Y84.427
X115.337 Y84.242
X115.529 Y84.074
X115.712 Y83.929
X115.919 Y83.784
X116.125 Y83.655
X116.32 Y83.547
X116.539 Y83.441
X116.939 Y83.312
X117.355 Y83.251
X117.775 Y83.26
X118.187 Y83.339
X118.581 Y83.486
X118.945 Y83.696
X119.268 Y83.964
X119.543 Y84.282
X120.378 Y85.432
G3 X120.012 Y87.21 I-1.053 J0.71
G1 X116.001 Y89.79
G3 X114.313 Y89.504 I-0.687 J-1.068
G1 X113.429 Y88.288
X113.344 Y88.157
X113.269 Y88.027
X113.202 Y87.893
X113.144 Y87.755
X113.091 Y87.606
X113.042 Y87.444
X113.001 Y87.272
X112.967 Y87.091
X112.942 Y86.895
X112.927 Y86.688
X112.923 Y86.473
X112.931 Y86.251
X112.951 Y86.021
X112.985 Y85.784
X113.034 Y85.541
X113.098 Y85.295
X113.176 Y85.048
X113.269 Y84.801
X113.377 Y84.555
X113.5 Y84.312
X113.638 Y84.073
X113.788 Y83.843
X113.937 Y83.639
X114.111 Y83.426
X114.283 Y83.238
X114.454 Y83.07
X114.651 Y82.896
X114.84 Y82.747
X115.031 Y82.613
X115.244 Y82.479
X115.446 Y82.367
X115.605 Y82.29
X116.002 Y82.139
X116.42 Y82.058
X116.846 Y82.052
X117.266 Y82.119
X117.668 Y82.258
X118.04 Y82.464
X118.371 Y82.732
X118.65 Y83.054
X119.543 Y84.282
G3 X119.158 Y86.072 I-1.053 J0.71
G1 X115.099 Y88.586
G3 X113.429 Y88.288 I-0.669 J-1.08
G1 X112.555 Y87.084
X112.473 Y86.958
X112.398 Y86.828
X112.333 Y86.693
X112.275 Y86.555
X112.222 Y86.406
X112.174 Y86.242
X112.133 Y86.068
X112.1 Y85.885
X112.076 Y85.689
X112.061 Y85.48
X112.058 Y85.264
X112.067 Y85.041
X112.089 Y84.811
X112.124 Y84.575
X112.173 Y84.334
X112.238 Y84.088
X112.317 Y83.841
X112.411 Y83.595
X112.52 Y83.35
X112.644 Y83.108
X112.782 Y82.871
X112.927 Y82.651
X113.094 Y82.424
X113.265 Y82.217
X113.431 Y82.037
X113.623 Y81.85
X113.812 Y81.684
X113.996 Y81.541
X114.206 Y81.395
X114.409 Y81.268
X114.605 Y81.161
X114.984 Y81.014
X115.381 Y80.927
X115.787 Y80.903
X116.192 Y80.941
X116.586 Y81.04
X116.96 Y81.199
X117.305 Y81.414
X117.613 Y81.679
X117.877 Y81.989
X118.65 Y83.054
G3 X118.273 Y84.839 I-1.053 J0.71
G1 X114.231 Y87.378
G3 X112.555 Y87.084 I-0.675 J-1.075
G1 X111.704 Y85.913
X111.615 Y85.777
X111.54 Y85.647
X111.474 Y85.513
X111.415 Y85.375
X111.362 Y85.225
X111.313 Y85.063
X111.272 Y84.892
X111.239 Y84.71
X111.214 Y84.514
X111.199 Y84.307
X111.194 Y84.093
X111.202 Y83.871
X111.223 Y83.64
X111.257 Y83.403
X111.306 Y83.16
X111.37 Y82.914
X111.448 Y82.667
X111.541 Y82.421
X111.649 Y82.175
X111.772 Y81.931
X111.907 Y81.698
X112.044 Y81.488
X112.205 Y81.268
X112.363 Y81.075
X112.53 Y80.892
X112.714 Y80.711
X112.89 Y80.557
X113.087 Y80.401
X113.286 Y80.261
X113.478 Y80.141
X113.696 Y80.021
X113.904 Y79.919
X114.317 Y79.786
X114.746 Y79.723
X115.179 Y79.733
X115.605 Y79.814
X116.011 Y79.965
X116.386 Y80.182
X116.72 Y80.459
X117.003 Y80.787
X117.877 Y81.989
G3 X117.469 Y83.793 I-1.053 J0.71
G1 X113.35 Y86.225
G3 X111.704 Y85.913 I-0.646 J-1.094
G1 X110.848 Y84.734
X110.752 Y84.588
X110.677 Y84.458
X110.61 Y84.324
X110.552 Y84.186
X110.499 Y84.037
X110.45 Y83.875
X110.409 Y83.703
X110.375 Y83.521
X110.35 Y83.325
X110.335 Y83.119
X110.331 Y82.905
X110.338 Y82.684
X110.359 Y82.458
X110.392 Y82.224
X110.44 Y81.985
X110.503 Y81.743
X110.58 Y81.499
X110.672 Y81.255
X110.778 Y81.012
X110.9 Y80.773
X111.036 Y80.536
X111.183 Y80.31
X111.331 Y80.108
X111.504 Y79.897
X111.674 Y79.71
X111.845 Y79.542
X112.042 Y79.369
X112.231 Y79.219
X112.422 Y79.085
X112.637 Y78.95
X112.839 Y78.838
X113.044 Y78.739
X113.457 Y78.605
X113.886 Y78.542
X114.32 Y78.551
X114.746 Y78.633
X115.152 Y78.784
X115.528 Y79.001
X115.862 Y79.277
X116.145 Y79.606
X117.003 Y80.787
G3 X116.603 Y82.587 I-1.053 J0.71
G1 X112.501 Y85.042
G3 X110.848 Y84.734 I-0.652 J-1.09
G1 X109.971 Y83.528
X109.889 Y83.402
X109.814 Y83.272
X109.747 Y83.138
X109.689 Y83
X109.636 Y82.852
X109.588 Y82.691
X109.547 Y82.519
X109.514 Y82.339
X109.489 Y82.145
X109.474 Y81.939
X109.47 Y81.725
X109.478 Y81.505
X109.498 Y81.278
X109.532 Y81.044
X109.58 Y80.805
X109.643 Y80.562
X109.721 Y80.317
X109.813 Y80.073
X109.92 Y79.83
X110.042 Y79.588
X110.179 Y79.351
X110.326 Y79.126
X110.474 Y78.924
X110.647 Y78.713
X110.817 Y78.527
X110.989 Y78.358
X111.186 Y78.185
X111.375 Y78.036
X111.566 Y77.902
X111.781 Y77.767
X111.983 Y77.655
X112.189 Y77.556
X112.29 Y77.514
X112.68 Y77.387
X113.086 Y77.328
X113.496 Y77.337
X113.898 Y77.414
X114.283 Y77.557
X114.638 Y77.763
X114.954 Y78.024
X115.221 Y78.334
X116.145 Y79.606
G3 X115.738 Y81.41 I-1.053 J0.71
G1 X111.617 Y83.84
G3 X109.971 Y83.528 I-0.645 J-1.094
G1 X109.142 Y82.386
X109.031 Y82.216
X108.956 Y82.086
X108.889 Y81.952
X108.831 Y81.814
X108.778 Y81.667
X108.73 Y81.505
X108.689 Y81.334
X108.656 Y81.153
X108.631 Y80.96
X108.616 Y80.754
X108.613 Y80.54
X108.621 Y80.32
X108.641 Y80.093
X108.675 Y79.859
X108.723 Y79.621
X108.786 Y79.377
X108.864 Y79.132
X108.956 Y78.888
X109.063 Y78.645
X109.186 Y78.404
X109.323 Y78.167
X109.473 Y77.937
X109.626 Y77.728
X109.803 Y77.512
X109.98 Y77.319
X110.155 Y77.148
X110.354 Y76.973
X110.546 Y76.821
X110.738 Y76.686
X110.954 Y76.552
X111.157 Y76.44
X111.363 Y76.34
X111.765 Y76.21
X112.184 Y76.149
X112.607 Y76.158
X113.023 Y76.238
X113.42 Y76.386
X113.786 Y76.598
X114.112 Y76.868
X114.389 Y77.188
X115.221 Y78.334
G3 X114.85 Y80.116 I-1.053 J0.71
G1 X110.824 Y82.676
G3 X109.142 Y82.386 I-0.681 J-1.072
G1 X108.266 Y81.181
X108.172 Y81.037
X108.097 Y80.907
X108.031 Y80.773
X107.972 Y80.635
X107.919 Y80.487
X107.871 Y80.326
X107.83 Y80.155
X107.797 Y79.974
X107.773 Y79.78
X107.758 Y79.573
X107.754 Y79.359
X107.762 Y79.138
X107.782 Y78.909
X107.817 Y78.673
X107.865 Y78.431
X107.929 Y78.186
X108.007 Y77.939
X108.1 Y77.692
X108.209 Y77.447
X108.332 Y77.204
X108.47 Y76.964
X108.62 Y76.736
X108.768 Y76.533
X108.942 Y76.321
X109.114 Y76.133
X109.286 Y75.965
X109.483 Y75.791
X109.672 Y75.642
X109.863 Y75.508
X110.077 Y75.374
X110.278 Y75.263
X110.484 Y75.164
X110.709 Y75.069
X111.083 Y74.969
X111.468 Y74.93
X111.854 Y74.953
X112.232 Y75.038
X112.591 Y75.182
X112.923 Y75.381
X113.219 Y75.631
X113.471 Y75.925
X114.389 Y77.188
G3 X114.001 Y78.98 I-1.053 J0.71
G1 X109.932 Y81.481
G3 X108.641 Y81.504 I-0.665 J-1.082
X108.266 Y81.181 I0.625 J-1.105
G1 X107.403 Y79.994
X107.312 Y79.855
X107.237 Y79.725
X107.171 Y79.59
X107.112 Y79.452
X107.059 Y79.304
X107.011 Y79.142
X106.97 Y78.97
X106.936 Y78.788
X106.911 Y78.593
X106.896 Y78.385
X106.892 Y78.171
X106.9 Y77.95
X106.921 Y77.721
X106.955 Y77.485
X107.003 Y77.244
X107.066 Y76.999
X107.144 Y76.753
X107.236 Y76.508
X107.344 Y76.264
X107.467 Y76.022
X107.604 Y75.784
X107.756 Y75.551
X107.92 Y75.327
X108.082 Y75.129
X108.267 Y74.926
X108.448 Y74.749
X108.632 Y74.587
X108.835 Y74.427
X109.026 Y74.292
X109.232 Y74.163
X109.444 Y74.046
X109.644 Y73.949
X109.663 Y73.941
X110.058 Y73.813
X110.47 Y73.753
X110.885 Y73.762
X111.293 Y73.84
X111.682 Y73.985
X112.042 Y74.193
X112.362 Y74.458
X112.634 Y74.773
X113.471 Y75.925
G3 X113.662 Y76.382 I-1.053 J0.71
X113.104 Y77.704 I-1.245 J0.253
G1 X109.09 Y80.28
G3 X107.403 Y79.994 I-0.686 J-1.069
G1 X106.546 Y78.814
X106.45 Y78.667
X106.375 Y78.537
X106.309 Y78.403
X106.25 Y78.265
X106.197 Y78.116
X106.149 Y77.954
X106.107 Y77.783
X106.074 Y77.601
X106.049 Y77.406
X106.034 Y77.199
X106.03 Y76.983
X106.038 Y76.761
X106.058 Y76.531
X106.093 Y76.293
X106.142 Y76.05
X106.205 Y75.804
X106.284 Y75.556
X106.377 Y75.308
X106.485 Y75.062
X106.609 Y74.818
X106.748 Y74.578
X106.898 Y74.347
X107.048 Y74.143
X107.222 Y73.929
X107.395 Y73.74
X107.567 Y73.571
X107.764 Y73.398
X107.953 Y73.248
X108.144 Y73.114
X108.358 Y72.98
X108.559 Y72.869
X108.767 Y72.768
X109.17 Y72.638
X109.588 Y72.577
X110.012 Y72.586
X110.427 Y72.666
X110.824 Y72.813
X111.19 Y73.025
X111.516 Y73.295
X111.793 Y73.615
X112.634 Y74.773
G3 X112.259 Y76.557 I-1.053 J0.71
G1 X108.225 Y79.106
G3 X106.546 Y78.814 I-0.678 J-1.074
G1 X105.697 Y77.646
X105.588 Y77.478
X105.513 Y77.348
X105.446 Y77.213
X105.388 Y77.075
X105.334 Y76.926
X105.285 Y76.764
X105.244 Y76.592
X105.211 Y76.41
X105.185 Y76.213
X105.17 Y76.005
X105.166 Y75.79
X105.174 Y75.568
X105.194 Y75.338
X105.228 Y75.101
X105.277 Y74.86
X105.34 Y74.614
X105.418 Y74.367
X105.511 Y74.121
X105.618 Y73.876
X105.741 Y73.633
X105.879 Y73.394
X106.028 Y73.166
X106.176 Y72.963
X106.349 Y72.751
X106.52 Y72.564
X106.692 Y72.395
X106.888 Y72.222
X107.077 Y72.073
X107.267 Y71.939
X107.481 Y71.805
X107.683 Y71.693
X107.723 Y71.674
X108.099 Y71.526
X108.493 Y71.439
X108.896 Y71.413
X109.299 Y71.449
X109.691 Y71.547
X110.063 Y71.705
X110.406 Y71.918
X110.712 Y72.181
X110.974 Y72.489
X111.793 Y73.615
G3 X111.415 Y75.401 I-1.053 J0.71
G1 X107.373 Y77.939
G3 X105.697 Y77.646 I-0.675 J-1.075
G1 X104.815 Y76.431
X104.722 Y76.289
X104.647 Y76.159
X104.581 Y76.025
X104.522 Y75.887
X104.469 Y75.738
X104.42 Y75.575
X104.379 Y75.403
X104.345 Y75.221
X104.32 Y75.026
X104.304 Y74.818
X104.3 Y74.603
X104.308 Y74.382
X104.328 Y74.153
X104.362 Y73.917
X104.411 Y73.676
X104.474 Y73.431
X104.551 Y73.185
X104.644 Y72.94
X104.751 Y72.695
X104.874 Y72.453
X105.008 Y72.22
X105.146 Y72.008
X105.308 Y71.786
X105.467 Y71.592
X105.636 Y71.406
X105.82 Y71.225
X105.997 Y71.07
X106.195 Y70.913
X106.394 Y70.773
X106.587 Y70.652
X106.805 Y70.531
X107.013 Y70.43
X107.425 Y70.297
X107.853 Y70.234
X108.285 Y70.243
X108.71 Y70.324
X109.116 Y70.475
X109.491 Y70.692
X109.824 Y70.967
X110.107 Y71.295
X110.974 Y72.489
G3 X110.572 Y74.289 I-1.053 J0.71
G1 X106.467 Y76.74
G3 X104.815 Y76.431 I-0.651 J-1.091
G1 X103.943 Y75.231
X103.857 Y75.1
X103.782 Y74.97
X103.716 Y74.836
X103.657 Y74.698
X103.604 Y74.549
X103.556 Y74.387
X103.514 Y74.215
X103.481 Y74.034
X103.456 Y73.839
X103.441 Y73.634
X103.437 Y73.419
X103.444 Y73.198
X103.465 Y72.972
X103.498 Y72.738
X103.546 Y72.499
X103.609 Y72.256
X103.686 Y72.012
X103.778 Y71.767
X103.885 Y71.524
X104.007 Y71.284
X104.144 Y71.047
X104.291 Y70.821
X104.438 Y70.619
X104.612 Y70.407
X104.782 Y70.221
X104.953 Y70.052
X105.15 Y69.879
X105.339 Y69.73
X105.53 Y69.595
X105.745 Y69.461
X105.947 Y69.348
X106.153 Y69.249
X106.565 Y69.115
X106.993 Y69.052
X107.426 Y69.062
X107.852 Y69.143
X108.258 Y69.294
X108.633 Y69.511
X108.967 Y69.787
X109.25 Y70.115
X110.107 Y71.295
G3 X109.703 Y73.097 I-1.053 J0.71
G1 X105.592 Y75.54
G3 X103.943 Y75.231 I-0.649 J-1.092
G1 X103.057 Y74.011
X102.975 Y73.886
X102.902 Y73.755
X102.838 Y73.619
X102.781 Y73.48
X102.73 Y73.332
X102.684 Y73.168
X102.644 Y72.992
X102.612 Y72.807
X102.59 Y72.613
X102.577 Y72.405
X102.576 Y72.189
X102.587 Y71.965
X102.611 Y71.735
X102.648 Y71.501
X102.699 Y71.262
X102.765 Y71.019
X102.846 Y70.774
X102.942 Y70.529
X103.053 Y70.285
X103.179 Y70.044
X103.32 Y69.807
X103.466 Y69.589
X103.619 Y69.386
X103.794 Y69.178
X103.963 Y68.998
X104.141 Y68.828
X104.337 Y68.659
X104.524 Y68.516
X104.723 Y68.379
X104.935 Y68.25
X105.135 Y68.143
X105.349 Y68.043
X105.366 Y68.036
X105.766 Y67.912
X106.182 Y67.855
X106.601 Y67.868
X107.013 Y67.95
X107.405 Y68.099
X107.768 Y68.31
X108.09 Y68.578
X108.364 Y68.896
X109.25 Y70.115
G3 X108.835 Y71.924 I-1.053 J0.71
G1 X104.696 Y74.328
G3 X103.057 Y74.011 I-0.638 J-1.098
G1 X102.227 Y72.869
X102.135 Y72.728
X102.06 Y72.599
X101.994 Y72.464
X101.935 Y72.326
X101.882 Y72.176
X101.835 Y72.016
X101.794 Y71.847
X101.761 Y71.664
X101.736 Y71.468
X101.721 Y71.263
X101.718 Y71.051
X101.726 Y70.831
X101.747 Y70.602
X101.781 Y70.367
X101.83 Y70.127
X101.892 Y69.885
X101.97 Y69.641
X102.062 Y69.398
X102.169 Y69.155
X102.292 Y68.914
X102.429 Y68.677
X102.581 Y68.445
X102.731 Y68.241
X102.904 Y68.03
X103.079 Y67.839
X103.25 Y67.671
X103.448 Y67.498
X103.64 Y67.347
X103.83 Y67.214
X104.045 Y67.079
X104.25 Y66.967
X104.453 Y66.869
X104.861 Y66.737
X105.284 Y66.676
X105.713 Y66.685
X106.133 Y66.766
X106.535 Y66.916
X106.906 Y67.131
X107.236 Y67.404
X107.516 Y67.728
X108.364 Y68.896
G3 X107.971 Y70.692 I-1.053 J0.71
G1 X103.887 Y73.173
G3 X102.603 Y73.193 I-0.66 J-1.085
X102.227 Y72.869 I0.625 J-1.105
G1 X101.352 Y71.665
X101.27 Y71.54
X101.196 Y71.409
X101.13 Y71.274
X101.072 Y71.136
X101.02 Y70.988
X100.973 Y70.826
X100.932 Y70.653
X100.9 Y70.471
X100.876 Y70.277
X100.862 Y70.07
X100.859 Y69.855
X100.867 Y69.633
X100.889 Y69.404
X100.924 Y69.169
X100.974 Y68.929
X101.038 Y68.684
X101.117 Y68.438
X101.211 Y68.193
X101.32 Y67.949
X101.444 Y67.706
X101.583 Y67.469
X101.731 Y67.244
X101.881 Y67.042
X102.055 Y66.831
X102.226 Y66.646
X102.399 Y66.478
X102.596 Y66.305
X102.785 Y66.158
X102.978 Y66.024
X103.192 Y65.891
X103.394 Y65.781
X103.601 Y65.682
X104.008 Y65.552
X104.431 Y65.492
X104.859 Y65.503
X105.278 Y65.584
X105.678 Y65.734
X106.048 Y65.948
X106.377 Y66.221
X106.656 Y66.545
X107.516 Y67.728
G3 X107.112 Y69.53 I-1.053 J0.71
G1 X103.002 Y71.975
G3 X101.352 Y71.665 I-0.649 J-1.091
G1 X100.506 Y70.5
X100.418 Y70.365
X100.343 Y70.235
X100.276 Y70.101
X100.218 Y69.963
X100.165 Y69.814
X100.117 Y69.652
X100.076 Y69.482
X100.042 Y69.3
X100.018 Y69.104
X100.003 Y68.898
X99.999 Y68.684
X100.007 Y68.464
X100.027 Y68.236
X100.062 Y68
X100.11 Y67.76
X100.173 Y67.516
X100.251 Y67.271
X100.343 Y67.027
X100.451 Y66.784
X100.573 Y66.542
X100.711 Y66.305
X100.86 Y66.076
X101.008 Y65.874
X101.181 Y65.663
X101.353 Y65.475
X101.524 Y65.308
X101.721 Y65.134
X101.911 Y64.985
X102.101 Y64.851
X102.316 Y64.717
X102.519 Y64.605
X102.723 Y64.506
X102.95 Y64.411
X103.327 Y64.311
X103.715 Y64.271
X104.104 Y64.295
X104.484 Y64.38
X104.846 Y64.524
X105.18 Y64.725
X105.478 Y64.977
X105.732 Y65.273
X106.656 Y66.545
G3 X106.257 Y68.343 I-1.053 J0.71
G1 X102.161 Y70.807
G3 X100.506 Y70.5 I-0.655 J-1.088
G1 X99.663 Y69.34
X99.558 Y69.18
X99.483 Y69.05
X99.417 Y68.915
X99.358 Y68.777
X99.305 Y68.629
X99.257 Y68.468
X99.216 Y68.296
X99.183 Y68.116
X99.158 Y67.921
X99.143 Y67.715
X99.139 Y67.501
X99.147 Y67.28
X99.168 Y67.052
X99.202 Y66.818
X99.25 Y66.578
X99.313 Y66.334
X99.391 Y66.089
X99.483 Y65.844
X99.591 Y65.601
X99.713 Y65.359
X99.85 Y65.122
X100.002 Y64.889
X100.166 Y64.666
X100.327 Y64.469
X100.513 Y64.266
X100.693 Y64.089
X100.877 Y63.927
X101.081 Y63.767
X101.273 Y63.632
X101.478 Y63.503
X101.691 Y63.386
X101.891 Y63.289
X101.913 Y63.28
X102.309 Y63.152
X102.721 Y63.092
X103.137 Y63.101
X103.546 Y63.179
X103.936 Y63.325
X104.297 Y63.533
X104.617 Y63.799
X104.889 Y64.114
X105.732 Y65.273
G3 X105.364 Y67.052 I-1.053 J0.71
G1 X101.35 Y69.627
G3 X99.663 Y69.34 I-0.686 J-1.069
G1 X98.777 Y68.12
X98.695 Y67.995
X98.62 Y67.865
X98.554 Y67.73
X98.496 Y67.592
X98.443 Y67.444
X98.395 Y67.282
X98.354 Y67.11
X98.321 Y66.928
X98.297 Y66.734
X98.282 Y66.526
X98.278 Y66.31
X98.287 Y66.087
X98.308 Y65.859
X98.343 Y65.621
X98.392 Y65.378
X98.456 Y65.132
X98.535 Y64.884
X98.629 Y64.637
X98.738 Y64.391
X98.862 Y64.147
X99.001 Y63.908
X99.151 Y63.678
X99.301 Y63.474
X99.477 Y63.261
X99.649 Y63.072
X99.822 Y62.903
X100.02 Y62.73
X100.209 Y62.581
X100.401 Y62.447
X100.615 Y62.314
X100.816 Y62.203
X100.882 Y62.171
X101.298 Y62.014
X101.734 Y61.931
X102.178 Y61.925
X102.616 Y61.995
X103.036 Y62.141
X103.424 Y62.357
X103.769 Y62.637
X104.06 Y62.972
X104.889 Y64.114
G3 X104.505 Y65.904 I-1.053 J0.71
G1 X100.446 Y68.418
G3 X99.152 Y68.444 I-0.669 J-1.08
X98.777 Y68.12 I0.625 J-1.105
G1 X97.926 Y66.95
X97.836 Y66.812
X97.761 Y66.682
X97.695 Y66.548
X97.636 Y66.41
X97.583 Y66.26
X97.534 Y66.098
X97.493 Y65.926
X97.46 Y65.744
X97.435 Y65.548
X97.419 Y65.34
X97.415 Y65.125
X97.423 Y64.904
X97.444 Y64.674
X97.478 Y64.437
X97.526 Y64.195
X97.59 Y63.95
X97.668 Y63.703
X97.76 Y63.457
X97.868 Y63.212
X97.991 Y62.969
X98.127 Y62.734
X98.266 Y62.521
X98.429 Y62.298
X98.595 Y62.095
X98.757 Y61.918
X98.946 Y61.733
X99.133 Y61.567
X99.314 Y61.425
X99.522 Y61.278
X99.726 Y61.15
X99.921 Y61.043
X100.142 Y60.936
X100.549 Y60.804
X100.973 Y60.742
X101.401 Y60.751
X101.821 Y60.831
X102.222 Y60.981
X102.593 Y61.195
X102.923 Y61.468
X103.203 Y61.792
X104.06 Y62.972
G3 X103.668 Y64.766 I-1.053 J0.71
G1 X99.588 Y67.252
G3 X97.926 Y66.95 I-0.661 J-1.085
G1 X97.059 Y65.756
X96.972 Y65.623
X96.897 Y65.493
X96.831 Y65.359
X96.772 Y65.221
X96.719 Y65.072
X96.67 Y64.91
X96.629 Y64.738
X96.596 Y64.556
X96.57 Y64.361
X96.555 Y64.155
X96.551 Y63.94
X96.559 Y63.719
X96.579 Y63.491
X96.613 Y63.256
X96.661 Y63.015
X96.724 Y62.771
X96.801 Y62.526
X96.894 Y62.281
X97.001 Y62.037
X97.124 Y61.796
X97.26 Y61.558
X97.409 Y61.331
X97.557 Y61.128
X97.73 Y60.916
X97.901 Y60.729
X98.072 Y60.561
X98.269 Y60.387
X98.458 Y60.238
X98.649 Y60.103
X98.863 Y59.969
X99.066 Y59.857
X99.271 Y59.758
X99.497 Y59.663
X99.874 Y59.562
X100.262 Y59.522
X100.651 Y59.545
X101.032 Y59.63
X101.394 Y59.774
X101.729 Y59.975
X102.027 Y60.227
X102.281 Y60.523
X103.203 Y61.792
G3 X102.807 Y63.589 I-1.053 J0.71
G1 X98.717 Y66.061
G3 X97.059 Y65.756 I-0.657 J-1.087
G1 X96.173 Y64.537
X96.091 Y64.411
X96.018 Y64.28
X95.953 Y64.145
X95.897 Y64.006
X95.845 Y63.857
X95.798 Y63.693
X95.758 Y63.517
X95.726 Y63.333
X95.703 Y63.138
X95.69 Y62.93
X95.689 Y62.713
X95.699 Y62.489
X95.722 Y62.259
X95.759 Y62.024
X95.81 Y61.785
X95.875 Y61.541
X95.956 Y61.295
X96.052 Y61.049
X96.163 Y60.805
X96.288 Y60.563
X96.429 Y60.326
X96.584 Y60.094
X96.746 Y59.877
X96.911 Y59.68
X97.098 Y59.48
X97.276 Y59.309
X97.467 Y59.144
X97.668 Y58.99
X97.858 Y58.859
X98.07 Y58.729
X98.28 Y58.616
X98.48 Y58.522
X98.876 Y58.398
X99.286 Y58.342
X99.7 Y58.354
X100.107 Y58.434
X100.494 Y58.581
X100.852 Y58.789
X101.171 Y59.054
X101.441 Y59.368
X102.281 Y60.523
G3 X101.899 Y62.312 I-1.053 J0.71
G1 X97.845 Y64.833
G3 X96.173 Y64.537 I-0.671 J-1.078
G1 X95.313 Y63.352
X95.231 Y63.227
X95.157 Y63.096
X95.093 Y62.961
X95.036 Y62.822
X94.983 Y62.671
X94.936 Y62.507
X94.897 Y62.334
X94.865 Y62.15
X94.842 Y61.952
X94.829 Y61.743
X94.827 Y61.526
X94.838 Y61.303
X94.861 Y61.072
X94.898 Y60.833
X94.95 Y60.589
X95.016 Y60.343
X95.098 Y60.095
X95.194 Y59.848
X95.305 Y59.602
X95.432 Y59.359
X95.574 Y59.12
X95.726 Y58.892
X95.877 Y58.69
X96.054 Y58.479
X96.227 Y58.294
X96.401 Y58.126
X96.599 Y57.955
X96.789 Y57.809
X96.982 Y57.676
X97.196 Y57.546
X97.397 Y57.437
X97.605 Y57.339
X98.004 Y57.215
X98.417 Y57.158
X98.834 Y57.17
X99.243 Y57.251
X99.633 Y57.399
X99.993 Y57.609
X100.314 Y57.875
X100.586 Y58.191
X101.441 Y59.368
G3 X101.051 Y61.161 I-1.053 J0.71
G1 X96.976 Y63.654
G3 X95.313 Y63.352 I-0.663 J-1.083
G1 X94.483 Y62.21
X94.385 Y62.06
X94.31 Y61.931
X94.243 Y61.796
X94.185 Y61.658
X94.131 Y61.507
X94.083 Y61.347
X94.043 Y61.176
X94.009 Y60.992
X93.984 Y60.795
X93.969 Y60.589
X93.965 Y60.375
X93.972 Y60.153
X93.993 Y59.922
X94.028 Y59.684
X94.076 Y59.442
X94.139 Y59.198
X94.217 Y58.952
X94.31 Y58.706
X94.418 Y58.462
X94.541 Y58.22
X94.679 Y57.981
X94.83 Y57.748
X94.98 Y57.544
X95.152 Y57.334
X95.326 Y57.144
X95.497 Y56.976
X95.693 Y56.803
X95.884 Y56.653
X96.073 Y56.52
X96.287 Y56.386
X96.491 Y56.273
X96.693 Y56.175
X97.099 Y56.044
X97.521 Y55.982
X97.947 Y55.992
X98.366 Y56.072
X98.766 Y56.221
X99.135 Y56.434
X99.464 Y56.706
X99.742 Y57.029
X100.586 Y58.191
G3 X100.206 Y59.979 I-1.053 J0.71
G1 X96.156 Y62.506
G3 X94.483 Y62.21 I-0.672 J-1.077
G1 X93.609 Y61.007
X93.522 Y60.873
X93.446 Y60.744
X93.38 Y60.609
X93.321 Y60.471
X93.268 Y60.322
X93.22 Y60.16
X93.178 Y59.988
X93.145 Y59.807
X93.12 Y59.611
X93.104 Y59.403
X93.1 Y59.188
X93.108 Y58.967
X93.128 Y58.738
X93.163 Y58.501
X93.211 Y58.26
X93.274 Y58.015
X93.352 Y57.769
X93.444 Y57.523
X93.552 Y57.279
X93.675 Y57.036
X93.812 Y56.798
X93.96 Y56.57
X94.108 Y56.368
X94.281 Y56.156
X94.452 Y55.969
X94.623 Y55.801
X94.82 Y55.627
X95.009 Y55.479
X95.199 Y55.344
X95.413 Y55.21
X95.615 Y55.098
X95.82 Y54.999
X96.046 Y54.904
X96.422 Y54.803
X96.809 Y54.764
X97.197 Y54.787
X97.577 Y54.871
X97.938 Y55.016
X98.271 Y55.216
X98.569 Y55.467
X98.822 Y55.763
X99.742 Y57.029
G3 X99.934 Y57.486 I-1.053 J0.71
X99.35 Y58.824 I-1.245 J0.253
G1 X95.27 Y61.31
G3 X93.609 Y61.007 I-0.661 J-1.085
G1 X92.744 Y59.817
X92.658 Y59.685
X92.583 Y59.555
X92.516 Y59.42
X92.458 Y59.282
X92.404 Y59.134
X92.356 Y58.972
X92.315 Y58.8
X92.281 Y58.618
X92.256 Y58.423
X92.241 Y58.216
X92.237 Y58.001
X92.244 Y57.78
X92.265 Y57.552
X92.299 Y57.316
X92.347 Y57.076
X92.41 Y56.831
X92.488 Y56.586
X92.58 Y56.341
X92.687 Y56.097
X92.81 Y55.855
X92.947 Y55.617
X93.098 Y55.385
X93.262 Y55.161
X93.424 Y54.964
X93.609 Y54.761
X93.789 Y54.584
X93.973 Y54.422
X94.176 Y54.262
X94.367 Y54.127
X94.573 Y53.998
X94.785 Y53.88
X94.985 Y53.783
X95.018 Y53.77
X95.411 Y53.642
X95.821 Y53.582
X96.234 Y53.591
X96.64 Y53.669
X97.028 Y53.813
X97.386 Y54.02
X97.705 Y54.284
X97.975 Y54.597
X98.822 Y55.763
G3 X98.451 Y57.544 I-1.053 J0.71
G1 X94.427 Y60.107
G3 X92.744 Y59.817 I-0.682 J-1.071
G1 X91.902 Y58.658
X91.795 Y58.495
X91.72 Y58.365
X91.654 Y58.23
X91.595 Y58.092
X91.542 Y57.944
X91.494 Y57.782
X91.453 Y57.611
X91.42 Y57.43
X91.395 Y57.235
X91.38 Y57.028
X91.376 Y56.812
X91.383 Y56.59
X91.404 Y56.361
X91.438 Y56.123
X91.487 Y55.88
X91.551 Y55.634
X91.629 Y55.386
X91.722 Y55.139
X91.831 Y54.893
X91.954 Y54.65
X92.093 Y54.41
X92.243 Y54.179
X92.394 Y53.973
X92.569 Y53.76
X92.742 Y53.57
X92.915 Y53.4
X93.112 Y53.226
X93.302 Y53.077
X93.493 Y52.942
X93.707 Y52.809
X93.908 Y52.697
X94.113 Y52.598
X94.516 Y52.468
X94.934 Y52.407
X95.357 Y52.416
X95.773 Y52.495
X96.169 Y52.643
X96.536 Y52.855
X96.862 Y53.125
X97.138 Y53.445
X97.975 Y54.597
G3 X97.606 Y56.377 I-1.053 J0.71
G1 X93.587 Y58.946
G3 X91.902 Y58.658 I-0.684 J-1.07
G1 X91.012 Y57.433
X90.93 Y57.307
X90.855 Y57.177
X90.789 Y57.043
X90.731 Y56.904
X90.677 Y56.755
X90.629 Y56.592
X90.588 Y56.42
X90.554 Y56.237
X90.529 Y56.041
X90.514 Y55.832
X90.51 Y55.617
X90.518 Y55.394
X90.539 Y55.164
X90.574 Y54.927
X90.623 Y54.685
X90.687 Y54.438
X90.765 Y54.191
X90.858 Y53.945
X90.967 Y53.7
X91.09 Y53.456
X91.228 Y53.218
X91.377 Y52.99
X91.526 Y52.787
X91.7 Y52.575
X91.871 Y52.389
X92.043 Y52.22
X92.239 Y52.047
X92.428 Y51.899
X92.619 Y51.765
X92.832 Y51.631
X93.034 Y51.52
X93.239 Y51.421
X93.645 Y51.29
X94.067 Y51.229
X94.494 Y51.238
X94.913 Y51.319
X95.312 Y51.468
X95.682 Y51.681
X96.01 Y51.953
X96.289 Y52.276
X97.138 Y53.445
G3 X96.749 Y55.238 I-1.053 J0.71
G1 X92.676 Y57.734
G3 X91.012 Y57.433 I-0.664 J-1.083
G1 X90.13 Y56.219
X90.048 Y56.093
X89.975 Y55.962
X89.91 Y55.826
X89.853 Y55.688
X89.802 Y55.537
X89.754 Y55.372
X89.714 Y55.196
X89.682 Y55.011
X89.659 Y54.814
X89.646 Y54.605
X89.645 Y54.387
X89.655 Y54.162
X89.679 Y53.931
X89.715 Y53.695
X89.767 Y53.455
X89.833 Y53.21
X89.914 Y52.963
X90.01 Y52.717
X90.121 Y52.472
X90.247 Y52.23
X90.388 Y51.993
X90.535 Y51.772
X90.687 Y51.569
X90.862 Y51.36
X91.032 Y51.179
X91.209 Y51.009
X91.405 Y50.84
X91.592 Y50.696
X91.789 Y50.56
X92.002 Y50.43
X92.201 Y50.323
X92.414 Y50.223
X92.431 Y50.216
X92.829 Y50.092
X93.242 Y50.035
X93.659 Y50.047
X94.068 Y50.128
X94.458 Y50.276
X94.818 Y50.486
X95.139 Y50.752
X95.411 Y51.068
X96.289 Y52.276
G3 X95.887 Y54.077 I-1.053 J0.71
G1 X91.781 Y56.527
G3 X90.13 Y56.219 I-0.651 J-1.091
G1 X89.316 Y55.098
X89.202 Y54.924
X89.127 Y54.794
X89.061 Y54.66
X89.002 Y54.522
X88.949 Y54.372
X88.901 Y54.211
X88.86 Y54.041
X88.827 Y53.858
X88.801 Y53.661
X88.786 Y53.455
X88.783 Y53.242
X88.791 Y53.022
X88.811 Y52.792
X88.846 Y52.555
X88.894 Y52.315
X88.957 Y52.071
X89.035 Y51.827
X89.127 Y51.583
X89.234 Y51.34
X89.357 Y51.098
X89.494 Y50.86
