%
(1001)
(Z0 stock bottom)
(T1  D=12.7 CR=0 - ZMIN=20 - flat end mill)
G90 G94
G17
G21

(2D Contour7 4)
M9
T1 M6
S6000 M3
G54
M9
G0 X878.861 Y-9.96
Z65
Z55
G1 Z54 F849.6
Z53.77
G19 G3 Y-8.69 Z52.5 J1.27
G1 Y-7.42
G17 G3 X877.591 Y-6.15 I-1.27
G1 X720.091 Z47 F400.3
X36.139 F849.6
G2 X32.406 Y-4.937 J6.35
G1 X5.421 Y14.669
G2 X4.016 Y23.539 I3.732 J5.137
G1 X120.258 Y183.532
G2 X125.395 Y186.15 I5.137 J-3.732
G1 X703.223
G2 X709.015 Y177.196 J-6.35
G1 X708.703 Y176.502
G2 X708.628 Y176.342 I-5.792 J2.604
G1 X708.305 Y175.674
G2 X708.216 Y175.497 I-5.717 J2.764
G1 X707.881 Y174.856
G2 X707.798 Y174.702 I-5.628 J2.941
G1 X707.453 Y174.084
G2 X707.355 Y173.915 I-5.544 J3.095
G1 X706.999 Y173.321
G2 X706.908 Y173.173 I-5.447 J3.264
G1 X706.543 Y172.6
G2 X706.447 Y172.455 I-5.356 J3.412
G1 X706.073 Y171.902
G2 X705.973 Y171.758 I-5.26 J3.557
G1 X705.59 Y171.224
G2 X705.451 Y171.038 I-5.16 J3.701
G1 X704.663 Y170.02
G2 X704.476 Y169.789 I-5.021 J3.887
G1 X703.659 Y168.83
G2 X703.496 Y168.646 I-4.834 J4.118
G1 X702.657 Y167.735
G2 X702.517 Y167.588 I-4.671 J4.302
G1 X701.658 Y166.713
G2 X701.524 Y166.58 I-4.531 J4.449
G1 X699.767 Y164.894
G2 X699.71 Y164.841 I-4.397 J4.582
G1 X697.965 Y163.207
X696.285 Y161.589
X695.527 Y160.821
X694.792 Y160.037
X694.085 Y159.235
X693.398 Y158.404
X692.729 Y157.538
X692.077 Y156.634
X691.447 Y155.698
X690.84 Y154.728
X690.255 Y153.721
X689.695 Y152.682
X689.161 Y151.606
X688.65 Y150.492
X688.167 Y149.352
X687.716 Y148.19
X687.297 Y147.011
X686.916 Y145.826
X686.573 Y144.636
X686.269 Y143.45
X686.008 Y142.275
X685.79 Y141.116
X685.617 Y139.981
X685.492 Y138.892
X685.419 Y137.858
X685.395 Y136.884
X685.425 Y135.928
X685.453 Y135.546
X685.497 Y135.142
X685.552 Y134.756
X685.618 Y134.387
X685.695 Y134.035
X685.781 Y133.706
X685.875 Y133.397
X685.982 Y133.094
X686.094 Y132.814
X686.21 Y132.562
X686.339 Y132.315
X686.478 Y132.077
X686.63 Y131.844
X686.797 Y131.616
X686.975 Y131.395
X687.18 Y131.168
X687.409 Y130.937
X687.659 Y130.707
X687.941 Y130.473
X688.258 Y130.233
X688.611 Y129.99
X689.002 Y129.744
X689.428 Y129.5
X689.905 Y129.25
X690.426 Y129.001
X690.989 Y128.756
X691.6 Y128.514
X692.259 Y128.276
X692.974 Y128.04
X693.735 Y127.812
X694.547 Y127.592
X695.416 Y127.378
X696.336 Y127.173
X697.308 Y126.976
X698.334 Y126.789
X699.41 Y126.613
X700.54 Y126.448
X701.726 Y126.293
X702.962 Y126.15
X704.251 Y126.018
X705.593 Y125.898
X706.988 Y125.791
X708.439 Y125.695
X709.941 Y125.612
X711.498 Y125.542
X713.108 Y125.484
X714.773 Y125.439
X716.494 Y125.407
X718.268 Y125.388
X720.094 Y125.381
X721.919 Y125.388
X723.694 Y125.407
X725.414 Y125.439
X727.079 Y125.484
X728.69 Y125.542
X730.246 Y125.612
X731.748 Y125.695
X733.199 Y125.791
X734.595 Y125.898
X735.937 Y126.018
X737.225 Y126.15
X738.462 Y126.293
X739.648 Y126.448
X740.778 Y126.613
X741.854 Y126.789
X742.879 Y126.976
X743.852 Y127.173
X744.773 Y127.378
X745.641 Y127.592
X746.453 Y127.812
X747.213 Y128.04
X747.927 Y128.275
X748.587 Y128.514
X749.198 Y128.756
X749.761 Y129.001
X750.282 Y129.25
X750.759 Y129.5
X751.185 Y129.744
X751.578 Y129.991
X751.932 Y130.234
X752.244 Y130.471
X752.528 Y130.707
X752.782 Y130.939
X753.006 Y131.165
X753.209 Y131.392
X753.393 Y131.619
X753.56 Y131.848
X753.71 Y132.077
X753.847 Y132.311
X753.975 Y132.558
X754.095 Y132.818
X754.208 Y133.099
X754.311 Y133.393
X754.407 Y133.706
X754.493 Y134.035
X754.569 Y134.387
X754.636 Y134.756
X754.69 Y135.142
X754.735 Y135.551
X754.763 Y135.928
X754.793 Y136.884
X754.769 Y137.855
X754.695 Y138.89
X754.57 Y139.981
X754.397 Y141.116
X754.179 Y142.275
X753.918 Y143.452
X753.615 Y144.636
X753.272 Y145.824
X752.889 Y147.013
X752.472 Y148.19
X752.02 Y149.352
X751.538 Y150.492
X751.027 Y151.605
X750.491 Y152.684
X749.932 Y153.723
X749.349 Y154.726
X748.74 Y155.698
X748.111 Y156.634
X747.458 Y157.538
X746.789 Y158.405
X746.105 Y159.233
X745.396 Y160.035
X744.659 Y160.822
X743.901 Y161.59
X742.224 Y163.206
X740.478 Y164.84
G2 X740.42 Y164.894 I4.339 J4.636
G1 X738.663 Y166.58
G2 X738.526 Y166.716 I4.397 J4.582
G1 X737.668 Y167.591
G2 X737.534 Y167.732 I4.534 J4.446
G1 X736.694 Y168.643
G2 X736.526 Y168.833 I4.668 J4.305
G1 X735.71 Y169.792
G2 X735.527 Y170.017 I4.836 J4.115
G1 X734.738 Y171.035
G2 X734.597 Y171.224 I5.019 J3.89
G1 X734.214 Y171.758
G2 X734.114 Y171.902 I5.16 J3.701
G1 X733.74 Y172.455
G2 X733.644 Y172.6 I5.26 J3.557
G1 X733.279 Y173.173
G2 X733.184 Y173.327 I5.356 J3.412
G1 X732.829 Y173.921
G2 X732.739 Y174.077 I5.451 J3.258
G1 X732.393 Y174.695
G2 X732.303 Y174.863 I5.541 J3.102
G1 X731.969 Y175.504
G2 X731.887 Y175.667 I5.631 J2.934
G1 X731.563 Y176.335
G2 X731.481 Y176.509 I5.713 J2.771
G1 X731.17 Y177.203
G2 X736.965 Y186.15 I5.795 J2.597
G1 X1314.79
G2 X1319.927 Y183.532 J-6.35
G1 X1436.167 Y23.539
G2 X1434.763 Y14.669 I-5.137 J-3.732
G1 X1407.783 Y-4.937
G2 X1404.05 Y-6.15 I-3.733 J5.137
G1 X720.091
X567.627 Z44 F400.3
X36.139 F849.6
G2 X32.406 Y-4.937 J6.35
G1 X5.421 Y14.669
G2 X4.016 Y23.539 I3.732 J5.137
G1 X120.258 Y183.532
G2 X125.395 Y186.15 I5.137 J-3.732
G1 X703.223
G2 X709.015 Y177.196 J-6.35
G1 X708.703 Y176.502
G2 X708.628 Y176.342 I-5.792 J2.604
G1 X708.305 Y175.674
G2 X708.216 Y175.497 I-5.717 J2.764
G1 X707.881 Y174.856
G2 X707.798 Y174.702 I-5.628 J2.941
G1 X707.453 Y174.084
G2 X707.355 Y173.915 I-5.544 J3.095
G1 X706.999 Y173.321
G2 X706.908 Y173.173 I-5.447 J3.264
G1 X706.543 Y172.6
G2 X706.447 Y172.455 I-5.356 J3.412
G1 X706.073 Y171.902
G2 X705.973 Y171.758 I-5.26 J3.557
G1 X705.59 Y171.224
G2 X705.451 Y171.038 I-5.16 J3.701
G1 X704.663 Y170.02
G2 X704.476 Y169.789 I-5.021 J3.887
G1 X703.659 Y168.83
G2 X703.496 Y168.646 I-4.834 J4.118
G1 X702.657 Y167.735
G2 X702.517 Y167.588 I-4.671 J4.302
G1 X701.658 Y166.713
G2 X701.524 Y166.58 I-4.531 J4.449
G1 X699.767 Y164.894
G2 X699.71 Y164.841 I-4.397 J4.582
G1 X697.965 Y163.207
X696.285 Y161.589
X695.527 Y160.821
X694.792 Y160.037
X694.085 Y159.235
X693.398 Y158.404
X692.729 Y157.538
X692.077 Y156.634
X691.447 Y155.698
X690.84 Y154.728
X690.255 Y153.721
X689.695 Y152.682
X689.161 Y151.606
X688.65 Y150.492
X688.167 Y149.352
X687.716 Y148.19
X687.297 Y147.011
X686.916 Y145.826
X686.573 Y144.636
X686.269 Y143.45
X686.008 Y142.275
X685.79 Y141.116
X685.617 Y139.981
X685.492 Y138.892
X685.419 Y137.858
X685.395 Y136.884
X685.425 Y135.928
X685.453 Y135.546
X685.497 Y135.142
X685.552 Y134.756
X685.618 Y134.387
X685.695 Y134.035
X685.781 Y133.706
X685.875 Y133.397
X685.982 Y133.094
X686.094 Y132.814
X686.21 Y132.562
X686.339 Y132.315
X686.478 Y132.077
X686.63 Y131.844
X686.797 Y131.616
X686.975 Y131.395
X687.18 Y131.168
X687.409 Y130.937
X687.659 Y130.707
X687.941 Y130.473
X688.258 Y130.233
X688.611 Y129.99
X689.002 Y129.744
X689.428 Y129.5
X689.905 Y129.25
X690.426 Y129.001
X690.989 Y128.756
X691.6 Y128.514
X692.259 Y128.276
X692.974 Y128.04
X693.735 Y127.812
X694.547 Y127.592
X695.416 Y127.378
X696.336 Y127.173
X697.308 Y126.976
X698.334 Y126.789
X699.41 Y126.613
X700.54 Y126.448
X701.726 Y126.293
X702.962 Y126.15
X704.251 Y126.018
X705.593 Y125.898
X706.988 Y125.791
X708.439 Y125.695
X709.941 Y125.612
X711.498 Y125.542
X713.108 Y125.484
X714.773 Y125.439
X716.494 Y125.407
X718.268 Y125.388
X720.094 Y125.381
X721.919 Y125.388
X723.694 Y125.407
X725.414 Y125.439
X727.079 Y125.484
X728.69 Y125.542
X730.246 Y125.612
X731.748 Y125.695
X733.199 Y125.791
X734.595 Y125.898
X735.937 Y126.018
X737.225 Y126.15
X738.462 Y126.293
X739.648 Y126.448
X740.778 Y126.613
X741.854 Y126.789
X742.879 Y126.976
X743.852 Y127.173
X744.773 Y127.378
X745.641 Y127.592
X746.453 Y127.812
X747.213 Y128.04
X747.927 Y128.275
X748.587 Y128.514
X749.198 Y128.756
X749.761 Y129.001
X750.282 Y129.25
X750.759 Y129.5
X751.185 Y129.744
X751.578 Y129.991
X751.932 Y130.234
X752.244 Y130.471
X752.528 Y130.707
X752.782 Y130.939
X753.006 Y131.165
X753.209 Y131.392
X753.393 Y131.619
X753.56 Y131.848
X753.71 Y132.077
X753.847 Y132.311
X753.975 Y132.558
X754.095 Y132.818
X754.208 Y133.099
X754.311 Y133.393
X754.407 Y133.706
X754.493 Y134.035
X754.569 Y134.387
X754.636 Y134.756
X754.69 Y135.142
X754.735 Y135.551
X754.763 Y135.928
X754.793 Y136.884
X754.769 Y137.855
X754.695 Y138.89
X754.57 Y139.981
X754.397 Y141.116
X754.179 Y142.275
X753.918 Y143.452
X753.615 Y144.636
X753.272 Y145.824
X752.889 Y147.013
X752.472 Y148.19
X752.02 Y149.352
X751.538 Y150.492
X751.027 Y151.605
X750.491 Y152.684
X749.932 Y153.723
X749.349 Y154.726
X748.74 Y155.698
X748.111 Y156.634
X747.458 Y157.538
X746.789 Y158.405
X746.105 Y159.233
X745.396 Y160.035
X744.659 Y160.822
X743.901 Y161.59
X742.224 Y163.206
X740.478 Y164.84
G2 X740.42 Y164.894 I4.339 J4.636
G1 X738.663 Y166.58
G2 X738.526 Y166.716 I4.397 J4.582
G1 X737.668 Y167.591
G2 X737.534 Y167.732 I4.534 J4.446
G1 X736.694 Y168.643
G2 X736.526 Y168.833 I4.668 J4.305
G1 X735.71 Y169.792
G2 X735.527 Y170.017 I4.836 J4.115
G1 X734.738 Y171.035
G2 X734.597 Y171.224 I5.019 J3.89
G1 X734.214 Y171.758
G2 X734.114 Y171.902 I5.16 J3.701
G1 X733.74 Y172.455
G2 X733.644 Y172.6 I5.26 J3.557
G1 X733.279 Y173.173
G2 X733.184 Y173.327 I5.356 J3.412
G1 X732.829 Y173.921
G2 X732.739 Y174.077 I5.451 J3.258
G1 X732.393 Y174.695
G2 X732.303 Y174.863 I5.541 J3.102
G1 X731.969 Y175.504
G2 X731.887 Y175.667 I5.631 J2.934
G1 X731.563 Y176.335
G2 X731.481 Y176.509 I5.713 J2.771
G1 X731.17 Y177.203
G2 X736.965 Y186.15 I5.795 J2.597
G1 X1314.79
G2 X1319.927 Y183.532 J-6.35
G1 X1436.167 Y23.539
G2 X1434.763 Y14.669 I-5.137 J-3.732
G1 X1407.783 Y-4.937
G2 X1404.05 Y-6.15 I-3.733 J5.137
G1 X720.091
X567.627
X415.163 Z41 F400.3
X36.139 F849.6
G2 X32.406 Y-4.937 J6.35
G1 X5.421 Y14.669
G2 X4.016 Y23.539 I3.732 J5.137
G1 X120.258 Y183.532
G2 X125.395 Y186.15 I5.137 J-3.732
G1 X703.223
G2 X709.015 Y177.196 J-6.35
G1 X708.703 Y176.502
G2 X708.628 Y176.342 I-5.792 J2.604
G1 X708.305 Y175.674
G2 X708.216 Y175.497 I-5.717 J2.764
G1 X707.881 Y174.856
G2 X707.798 Y174.702 I-5.628 J2.941
G1 X707.453 Y174.084
G2 X707.355 Y173.915 I-5.544 J3.095
G1 X706.999 Y173.321
G2 X706.908 Y173.173 I-5.447 J3.264
G1 X706.543 Y172.6
G2 X706.447 Y172.455 I-5.356 J3.412
G1 X706.073 Y171.902
G2 X705.973 Y171.758 I-5.26 J3.557
G1 X705.59 Y171.224
G2 X705.451 Y171.038 I-5.16 J3.701
G1 X704.663 Y170.02
G2 X704.476 Y169.789 I-5.021 J3.887
G1 X703.659 Y168.83
G2 X703.496 Y168.646 I-4.834 J4.118
G1 X702.657 Y167.735
G2 X702.517 Y167.588 I-4.671 J4.302
G1 X701.658 Y166.713
G2 X701.524 Y166.58 I-4.531 J4.449
G1 X699.767 Y164.894
G2 X699.71 Y164.841 I-4.397 J4.582
G1 X697.965 Y163.207
X696.285 Y161.589
X695.527 Y160.821
X694.792 Y160.037
X694.085 Y159.235
X693.398 Y158.404
X692.729 Y157.538
X692.077 Y156.634
X691.447 Y155.698
X690.84 Y154.728
X690.255 Y153.721
X689.695 Y152.682
X689.161 Y151.606
X688.65 Y150.492
X688.167 Y149.352
X687.716 Y148.19
X687.297 Y147.011
X686.916 Y145.826
X686.573 Y144.636
X686.269 Y143.45
X686.008 Y142.275
X685.79 Y141.116
X685.617 Y139.981
X685.492 Y138.892
X685.419 Y137.858
X685.395 Y136.884
X685.425 Y135.928
X685.453 Y135.546
X685.497 Y135.142
X685.552 Y134.756
X685.618 Y134.387
X685.695 Y134.035
X685.781 Y133.706
X685.875 Y133.397
X685.982 Y133.094
X686.094 Y132.814
X686.21 Y132.562
X686.339 Y132.315
X686.478 Y132.077
X686.63 Y131.844
X686.797 Y131.616
X686.975 Y131.395
X687.18 Y131.168
X687.409 Y130.937
X687.659 Y130.707
X687.941 Y130.473
X688.258 Y130.233
X688.611 Y129.99
X689.002 Y129.744
X689.428 Y129.5
X689.905 Y129.25
X690.426 Y129.001
X690.989 Y128.756
X691.6 Y128.514
X692.259 Y128.276
X692.974 Y128.04
X693.735 Y127.812
X694.547 Y127.592
X695.416 Y127.378
X696.336 Y127.173
X697.308 Y126.976
X698.334 Y126.789
X699.41 Y126.613
X700.54 Y126.448
X701.726 Y126.293
X702.962 Y126.15
X704.251 Y126.018
X705.593 Y125.898
X706.988 Y125.791
X708.439 Y125.695
X709.941 Y125.612
X711.498 Y125.542
X713.108 Y125.484
X714.773 Y125.439
X716.494 Y125.407
X718.268 Y125.388
X720.094 Y125.381
X721.919 Y125.388
X723.694 Y125.407
X725.414 Y125.439
X727.079 Y125.484
X728.69 Y125.542
X730.246 Y125.612
X731.748 Y125.695
X733.199 Y125.791
X734.595 Y125.898
X735.937 Y126.018
X737.225 Y126.15
X738.462 Y126.293
X739.648 Y126.448
X740.778 Y126.613
X741.854 Y126.789
X742.879 Y126.976
X743.852 Y127.173
X744.773 Y127.378
X745.641 Y127.592
X746.453 Y127.812
X747.213 Y128.04
X747.927 Y128.275
X748.587 Y128.514
X749.198 Y128.756
X749.761 Y129.001
X750.282 Y129.25
X750.759 Y129.5
X751.185 Y129.744
X751.578 Y129.991
X751.932 Y130.234
X752.244 Y130.471
X752.528 Y130.707
X752.782 Y130.939
X753.006 Y131.165
X753.209 Y131.392
X753.393 Y131.619
X753.56 Y131.848
X753.71 Y132.077
X753.847 Y132.311
X753.975 Y132.558
X754.095 Y132.818
X754.208 Y133.099
X754.311 Y133.393
X754.407 Y133.706
X754.493 Y134.035
X754.569 Y134.387
X754.636 Y134.756
X754.69 Y135.142
X754.735 Y135.551
X754.763 Y135.928
X754.793 Y136.884
X754.769 Y137.855
X754.695 Y138.89
X754.57 Y139.981
X754.397 Y141.116
X754.179 Y142.275
X753.918 Y143.452
X753.615 Y144.636
X753.272 Y145.824
X752.889 Y147.013
X752.472 Y148.19
X752.02 Y149.352
X751.538 Y150.492
X751.027 Y151.605
X750.491 Y152.684
X749.932 Y153.723
X749.349 Y154.726
X748.74 Y155.698
X748.111 Y156.634
X747.458 Y157.538
X746.789 Y158.405
X746.105 Y159.233
X745.396 Y160.035
X744.659 Y160.822
X743.901 Y161.59
X742.224 Y163.206
X740.478 Y164.84
G2 X740.42 Y164.894 I4.339 J4.636
G1 X738.663 Y166.58
G2 X738.526 Y166.716 I4.397 J4.582
G1 X737.668 Y167.591
G2 X737.534 Y167.732 I4.534 J4.446
G1 X736.694 Y168.643
G2 X736.526 Y168.833 I4.668 J4.305
G1 X735.71 Y169.792
G2 X735.527 Y170.017 I4.836 J4.115
G1 X734.738 Y171.035
G2 X734.597 Y171.224 I5.019 J3.89
G1 X734.214 Y171.758
G2 X734.114 Y171.902 I5.16 J3.701
G1 X733.74 Y172.455
G2 X733.644 Y172.6 I5.26 J3.557
G1 X733.279 Y173.173
G2 X733.184 Y173.327 I5.356 J3.412
G1 X732.829 Y173.921
G2 X732.739 Y174.077 I5.451 J3.258
G1 X732.393 Y174.695
G2 X732.303 Y174.863 I5.541 J3.102
G1 X731.969 Y175.504
G2 X731.887 Y175.667 I5.631 J2.934
G1 X731.563 Y176.335
G2 X731.481 Y176.509 I5.713 J2.771
G1 X731.17 Y177.203
G2 X736.965 Y186.15 I5.795 J2.597
G1 X1314.79
G2 X1319.927 Y183.532 J-6.35
G1 X1436.167 Y23.539
G2 X1434.763 Y14.669 I-5.137 J-3.732
G1 X1407.783 Y-4.937
G2 X1404.05 Y-6.15 I-3.733 J5.137
G1 X567.627
X415.163
X262.698 Z38 F400.3
X36.139 F849.6
G2 X32.406 Y-4.937 J6.35
G1 X5.421 Y14.669
G2 X4.016 Y23.539 I3.732 J5.137
G1 X120.258 Y183.532
G2 X125.395 Y186.15 I5.137 J-3.732
G1 X703.223
G2 X709.015 Y177.196 J-6.35
G1 X708.703 Y176.502
G2 X708.628 Y176.342 I-5.792 J2.604
G1 X708.305 Y175.674
G2 X708.216 Y175.497 I-5.717 J2.764
G1 X707.881 Y174.856
G2 X707.798 Y174.702 I-5.628 J2.941
G1 X707.453 Y174.084
G2 X707.355 Y173.915 I-5.544 J3.095
G1 X706.999 Y173.321
G2 X706.908 Y173.173 I-5.447 J3.264
G1 X706.543 Y172.6
G2 X706.447 Y172.455 I-5.356 J3.412
G1 X706.073 Y171.902
G2 X705.973 Y171.758 I-5.26 J3.557
G1 X705.59 Y171.224
G2 X705.451 Y171.038 I-5.16 J3.701
G1 X704.663 Y170.02
G2 X704.476 Y169.789 I-5.021 J3.887
G1 X703.659 Y168.83
G2 X703.496 Y168.646 I-4.834 J4.118
G1 X702.657 Y167.735
G2 X702.517 Y167.588 I-4.671 J4.302
G1 X701.658 Y166.713
G2 X701.524 Y166.58 I-4.531 J4.449
G1 X699.767 Y164.894
G2 X699.71 Y164.841 I-4.397 J4.582
G1 X697.965 Y163.207
X696.285 Y161.589
X695.527 Y160.821
X694.792 Y160.037
X694.085 Y159.235
X693.398 Y158.404
X692.729 Y157.538
X692.077 Y156.634
X691.447 Y155.698
X690.84 Y154.728
X690.255 Y153.721
X689.695 Y152.682
X689.161 Y151.606
X688.65 Y150.492
X688.167 Y149.352
X687.716 Y148.19
X687.297 Y147.011
X686.916 Y145.826
X686.573 Y144.636
X686.269 Y143.45
X686.008 Y142.275
X685.79 Y141.116
X685.617 Y139.981
X685.492 Y138.892
X685.419 Y137.858
X685.395 Y136.884
X685.425 Y135.928
X685.453 Y135.546
X685.497 Y135.142
X685.552 Y134.756
X685.618 Y134.387
X685.695 Y134.035
X685.781 Y133.706
X685.875 Y133.397
X685.982 Y133.094
X686.094 Y132.814
X686.21 Y132.562
X686.339 Y132.315
X686.478 Y132.077
X686.63 Y131.844
X686.797 Y131.616
X686.975 Y131.395
X687.18 Y131.168
X687.409 Y130.937
X687.659 Y130.707
X687.941 Y130.473
X688.258 Y130.233
X688.611 Y129.99
X689.002 Y129.744
X689.428 Y129.5
X689.905 Y129.25
X690.426 Y129.001
X690.989 Y128.756
X691.6 Y128.514
X692.259 Y128.276
X692.974 Y128.04
X693.735 Y127.812
X694.547 Y127.592
X695.416 Y127.378
X696.336 Y127.173
X697.308 Y126.976
X698.334 Y126.789
X699.41 Y126.613
X700.54 Y126.448
X701.726 Y126.293
X702.962 Y126.15
X704.251 Y126.018
X705.593 Y125.898
X706.988 Y125.791
X708.439 Y125.695
X709.941 Y125.612
X711.498 Y125.542
X713.108 Y125.484
X714.773 Y125.439
X716.494 Y125.407
X718.268 Y125.388
X720.094 Y125.381
X721.919 Y125.388
X723.694 Y125.407
X725.414 Y125.439
X727.079 Y125.484
X728.69 Y125.542
X730.246 Y125.612
X731.748 Y125.695
X733.199 Y125.791
X734.595 Y125.898
X735.937 Y126.018
X737.225 Y126.15
X738.462 Y126.293
X739.648 Y126.448
X740.778 Y126.613
X741.854 Y126.789
X742.879 Y126.976
X743.852 Y127.173
X744.773 Y127.378
X745.641 Y127.592
X746.453 Y127.812
X747.213 Y128.04
X747.927 Y128.275
X748.587 Y128.514
X749.198 Y128.756
X749.761 Y129.001
X750.282 Y129.25
X750.759 Y129.5
X751.185 Y129.744
X751.578 Y129.991
X751.932 Y130.234
X752.244 Y130.471
X752.528 Y130.707
X752.782 Y130.939
X753.006 Y131.165
X753.209 Y131.392
X753.393 Y131.619
X753.56 Y131.848
X753.71 Y132.077
X753.847 Y132.311
X753.975 Y132.558
X754.095 Y132.818
X754.208 Y133.099
X754.311 Y133.393
X754.407 Y133.706
X754.493 Y134.035
X754.569 Y134.387
X754.636 Y134.756
X754.69 Y135.142
X754.735 Y135.551
X754.763 Y135.928
X754.793 Y136.884
X754.769 Y137.855
X754.695 Y138.89
X754.57 Y139.981
X754.397 Y141.116
X754.179 Y142.275
X753.918 Y143.452
X753.615 Y144.636
X753.272 Y145.824
X752.889 Y147.013
X752.472 Y148.19
X752.02 Y149.352
X751.538 Y150.492
X751.027 Y151.605
X750.491 Y152.684
X749.932 Y153.723
X749.349 Y154.726
X748.74 Y155.698
X748.111 Y156.634
X747.458 Y157.538
X746.789 Y158.405
X746.105 Y159.233
X745.396 Y160.035
X744.659 Y160.822
X743.901 Y161.59
X742.224 Y163.206
X740.478 Y164.84
G2 X740.42 Y164.894 I4.339 J4.636
G1 X738.663 Y166.58
G2 X738.526 Y166.716 I4.397 J4.582
G1 X737.668 Y167.591
G2 X737.534 Y167.732 I4.534 J4.446
G1 X736.694 Y168.643
G2 X736.526 Y168.833 I4.668 J4.305
G1 X735.71 Y169.792
G2 X735.527 Y170.017 I4.836 J4.115
G1 X734.738 Y171.035
G2 X734.597 Y171.224 I5.019 J3.89
G1 X734.214 Y171.758
G2 X734.114 Y171.902 I5.16 J3.701
G1 X733.74 Y172.455
G2 X733.644 Y172.6 I5.26 J3.557
G1 X733.279 Y173.173
G2 X733.184 Y173.327 I5.356 J3.412
G1 X732.829 Y173.921
G2 X732.739 Y174.077 I5.451 J3.258
G1 X732.393 Y174.695
G2 X732.303 Y174.863 I5.541 J3.102
G1 X731.969 Y175.504
G2 X731.887 Y175.667 I5.631 J2.934
G1 X731.563 Y176.335
G2 X731.481 Y176.509 I5.713 J2.771
G1 X731.17 Y177.203
G2 X736.965 Y186.15 I5.795 J2.597
G1 X1314.79
G2 X1319.927 Y183.532 J-6.35
G1 X1436.167 Y23.539
G2 X1434.763 Y14.669 I-5.137 J-3.732
G1 X1407.783 Y-4.937
G2 X1404.05 Y-6.15 I-3.733 J5.137
G1 X415.163
X262.698
X110.234 Z35 F400.3
X36.139 F849.6
G2 X32.406 Y-4.937 J6.35
G1 X5.421 Y14.669
G2 X4.016 Y23.539 I3.732 J5.137
G1 X120.258 Y183.532
G2 X125.395 Y186.15 I5.137 J-3.732
G1 X703.223
G2 X709.015 Y177.196 J-6.35
G1 X708.703 Y176.502
G2 X708.628 Y176.342 I-5.792 J2.604
G1 X708.305 Y175.674
G2 X708.216 Y175.497 I-5.717 J2.764
G1 X707.881 Y174.856
G2 X707.798 Y174.702 I-5.628 J2.941
G1 X707.453 Y174.084
G2 X707.355 Y173.915 I-5.544 J3.095
G1 X706.999 Y173.321
G2 X706.908 Y173.173 I-5.447 J3.264
G1 X706.543 Y172.6
G2 X706.447 Y172.455 I-5.356 J3.412
G1 X706.073 Y171.902
G2 X705.973 Y171.758 I-5.26 J3.557
G1 X705.59 Y171.224
G2 X705.451 Y171.038 I-5.16 J3.701
G1 X704.663 Y170.02
G2 X704.476 Y169.789 I-5.021 J3.887
G1 X703.659 Y168.83
G2 X703.496 Y168.646 I-4.834 J4.118
G1 X702.657 Y167.735
G2 X702.517 Y167.588 I-4.671 J4.302
G1 X701.658 Y166.713
G2 X701.524 Y166.58 I-4.531 J4.449
G1 X699.767 Y164.894
G2 X699.71 Y164.841 I-4.397 J4.582
G1 X697.965 Y163.207
X696.285 Y161.589
X695.527 Y160.821
X694.792 Y160.037
X694.085 Y159.235
X693.398 Y158.404
X692.729 Y157.538
X692.077 Y156.634
X691.447 Y155.698
X690.84 Y154.728
X690.255 Y153.721
X689.695 Y152.682
X689.161 Y151.606
X688.65 Y150.492
X688.167 Y149.352
X687.716 Y148.19
X687.297 Y147.011
X686.916 Y145.826
X686.573 Y144.636
X686.269 Y143.45
X686.008 Y142.275
X685.79 Y141.116
X685.617 Y139.981
X685.492 Y138.892
X685.419 Y137.858
X685.395 Y136.884
X685.425 Y135.928
X685.453 Y135.546
X685.497 Y135.142
X685.552 Y134.756
X685.618 Y134.387
X685.695 Y134.035
X685.781 Y133.706
X685.875 Y133.397
X685.982 Y133.094
X686.094 Y132.814
X686.21 Y132.562
X686.339 Y132.315
X686.478 Y132.077
X686.63 Y131.844
X686.797 Y131.616
X686.975 Y131.395
X687.18 Y131.168
X687.409 Y130.937
X687.659 Y130.707
X687.941 Y130.473
X688.258 Y130.233
X688.611 Y129.99
X689.002 Y129.744
X689.428 Y129.5
X689.905 Y129.25
X690.426 Y129.001
X690.989 Y128.756
X691.6 Y128.514
X692.259 Y128.276
X692.974 Y128.04
X693.735 Y127.812
X694.547 Y127.592
X695.416 Y127.378
X696.336 Y127.173
X697.308 Y126.976
X698.334 Y126.789
X699.41 Y126.613
X700.54 Y126.448
X701.726 Y126.293
X702.962 Y126.15
X704.251 Y126.018
X705.593 Y125.898
X706.988 Y125.791
X708.439 Y125.695
X709.941 Y125.612
X711.498 Y125.542
X713.108 Y125.484
X714.773 Y125.439
X716.494 Y125.407
X718.268 Y125.388
X720.094 Y125.381
X721.919 Y125.388
X723.694 Y125.407
X725.414 Y125.439
X727.079 Y125.484
X728.69 Y125.542
X730.246 Y125.612
X731.748 Y125.695
X733.199 Y125.791
X734.595 Y125.898
X735.937 Y126.018
X737.225 Y126.15
X738.462 Y126.293
X739.648 Y126.448
X740.778 Y126.613
X741.854 Y126.789
X742.879 Y126.976
X743.852 Y127.173
X744.773 Y127.378
X745.641 Y127.592
X746.453 Y127.812
X747.213 Y128.04
X747.927 Y128.275
X748.587 Y128.514
X749.198 Y128.756
X749.761 Y129.001
X750.282 Y129.25
X750.759 Y129.5
X751.185 Y129.744
X751.578 Y129.991
X751.932 Y130.234
X752.244 Y130.471
X752.528 Y130.707
X752.782 Y130.939
X753.006 Y131.165
X753.209 Y131.392
X753.393 Y131.619
X753.56 Y131.848
X753.71 Y132.077
X753.847 Y132.311
X753.975 Y132.558
X754.095 Y132.818
X754.208 Y133.099
X754.311 Y133.393
X754.407 Y133.706
X754.493 Y134.035
X754.569 Y134.387
X754.636 Y134.756
X754.69 Y135.142
X754.735 Y135.551
X754.763 Y135.928
X754.793 Y136.884
X754.769 Y137.855
X754.695 Y138.89
X754.57 Y139.981
X754.397 Y141.116
X754.179 Y142.275
X753.918 Y143.452
X753.615 Y144.636
X753.272 Y145.824
X752.889 Y147.013
X752.472 Y148.19
X752.02 Y149.352
X751.538 Y150.492
X751.027 Y151.605
X750.491 Y152.684
X749.932 Y153.723
X749.349 Y154.726
X748.74 Y155.698
X748.111 Y156.634
X747.458 Y157.538
X746.789 Y158.405
X746.105 Y159.233
X745.396 Y160.035
X744.659 Y160.822
X743.901 Y161.59
X742.224 Y163.206
X740.478 Y164.84
G2 X740.42 Y164.894 I4.339 J4.636
G1 X738.663 Y166.58
G2 X738.526 Y166.716 I4.397 J4.582
G1 X737.668 Y167.591
G2 X737.534 Y167.732 I4.534 J4.446
G1 X736.694 Y168.643
G2 X736.526 Y168.833 I4.668 J4.305
G1 X735.71 Y169.792
G2 X735.527 Y170.017 I4.836 J4.115
G1 X734.738 Y171.035
G2 X734.597 Y171.224 I5.019 J3.89
G1 X734.214 Y171.758
G2 X734.114 Y171.902 I5.16 J3.701
G1 X733.74 Y172.455
G2 X733.644 Y172.6 I5.26 J3.557
G1 X733.279 Y173.173
G2 X733.184 Y173.327 I5.356 J3.412
G1 X732.829 Y173.921
G2 X732.739 Y174.077 I5.451 J3.258
G1 X732.393 Y174.695
G2 X732.303 Y174.863 I5.541 J3.102
G1 X731.969 Y175.504
G2 X731.887 Y175.667 I5.631 J2.934
G1 X731.563 Y176.335
G2 X731.481 Y176.509 I5.713 J2.771
G1 X731.17 Y177.203
G2 X736.965 Y186.15 I5.795 J2.597
G1 X1314.79
G2 X1319.927 Y183.532 J-6.35
G1 X1436.167 Y23.539
G2 X1434.763 Y14.669 I-5.137 J-3.732
G1 X1407.783 Y-4.937
G2 X1404.05 Y-6.15 I-3.733 J5.137
G1 X262.698
X110.234
X36.139 Z33.542 F400.3
G2 X32.406 Y-4.937 Z33.464 J6.35
G1 X5.421 Y14.669 Z32.807
G2 X4.016 Y23.539 Z32.611 I3.732 J5.137
G1 X22.266 Y48.658 Z32
X120.258 Y183.532 F849.6
G2 X125.395 Y186.15 I5.137 J-3.732
G1 X703.223
G2 X709.015 Y177.196 J-6.35
G1 X708.703 Y176.502
G2 X708.628 Y176.342 I-5.792 J2.604
G1 X708.305 Y175.674
G2 X708.216 Y175.497 I-5.717 J2.764
G1 X707.881 Y174.856
G2 X707.798 Y174.702 I-5.628 J2.941
G1 X707.453 Y174.084
G2 X707.355 Y173.915 I-5.544 J3.095
G1 X706.999 Y173.321
G2 X706.908 Y173.173 I-5.447 J3.264
G1 X706.543 Y172.6
G2 X706.447 Y172.455 I-5.356 J3.412
G1 X706.073 Y171.902
G2 X705.973 Y171.758 I-5.26 J3.557
G1 X705.59 Y171.224
G2 X705.451 Y171.038 I-5.16 J3.701
G1 X704.663 Y170.02
G2 X704.476 Y169.789 I-5.021 J3.887
G1 X703.659 Y168.83
G2 X703.496 Y168.646 I-4.834 J4.118
G1 X702.657 Y167.735
G2 X702.517 Y167.588 I-4.671 J4.302
G1 X701.658 Y166.713
G2 X701.524 Y166.58 I-4.531 J4.449
G1 X699.767 Y164.894
G2 X699.71 Y164.841 I-4.397 J4.582
G1 X697.965 Y163.207
X696.285 Y161.589
X695.527 Y160.821
X694.792 Y160.037
X694.085 Y159.235
X693.398 Y158.404
X692.729 Y157.538
X692.077 Y156.634
X691.447 Y155.698
X690.84 Y154.728
X690.255 Y153.721
X689.695 Y152.682
X689.161 Y151.606
X688.65 Y150.492
X688.167 Y149.352
X687.716 Y148.19
X687.297 Y147.011
X686.916 Y145.826
X686.573 Y144.636
X686.269 Y143.45
X686.008 Y142.275
X685.79 Y141.116
X685.617 Y139.981
X685.492 Y138.892
X685.419 Y137.858
X685.395 Y136.884
X685.425 Y135.928
X685.453 Y135.546
X685.497 Y135.142
X685.552 Y134.756
X685.618 Y134.387
X685.695 Y134.035
X685.781 Y133.706
X685.875 Y133.397
X685.982 Y133.094
X686.094 Y132.814
X686.21 Y132.562
X686.339 Y132.315
X686.478 Y132.077
X686.63 Y131.844
X686.797 Y131.616
X686.975 Y131.395
X687.18 Y131.168
X687.409 Y130.937
X687.659 Y130.707
X687.941 Y130.473
X688.258 Y130.233
X688.611 Y129.99
X689.002 Y129.744
X689.428 Y129.5
X689.905 Y129.25
X690.426 Y129.001
X690.989 Y128.756
X691.6 Y128.514
X692.259 Y128.276
X692.974 Y128.04
X693.735 Y127.812
X694.547 Y127.592
X695.416 Y127.378
X696.336 Y127.173
X697.308 Y126.976
X698.334 Y126.789
X699.41 Y126.613
X700.54 Y126.448
X701.726 Y126.293
X702.962 Y126.15
X704.251 Y126.018
X705.593 Y125.898
X706.988 Y125.791
X708.439 Y125.695
X709.941 Y125.612
X711.498 Y125.542
X713.108 Y125.484
X714.773 Y125.439
X716.494 Y125.407
X718.268 Y125.388
X720.094 Y125.381
X721.919 Y125.388
X723.694 Y125.407
X725.414 Y125.439
X727.079 Y125.484
X728.69 Y125.542
X730.246 Y125.612
X731.748 Y125.695
X733.199 Y125.791
X734.595 Y125.898
X735.937 Y126.018
X737.225 Y126.15
X738.462 Y126.293
X739.648 Y126.448
X740.778 Y126.613
X741.854 Y126.789
X742.879 Y126.976
X743.852 Y127.173
X744.773 Y127.378
X745.641 Y127.592
X746.453 Y127.812
X747.213 Y128.04
X747.927 Y128.275
X748.587 Y128.514
X749.198 Y128.756
X749.761 Y129.001
X750.282 Y129.25
X750.759 Y129.5
X751.185 Y129.744
X751.578 Y129.991
X751.932 Y130.234
X752.244 Y130.471
X752.528 Y130.707
X752.782 Y130.939
X753.006 Y131.165
X753.209 Y131.392
X753.393 Y131.619
X753.56 Y131.848
X753.71 Y132.077
X753.847 Y132.311
X753.975 Y132.558
X754.095 Y132.818
X754.208 Y133.099
X754.311 Y133.393
X754.407 Y133.706
X754.493 Y134.035
X754.569 Y134.387
X754.636 Y134.756
X754.69 Y135.142
X754.735 Y135.551
X754.763 Y135.928
X754.793 Y136.884
X754.769 Y137.855
X754.695 Y138.89
X754.57 Y139.981
X754.397 Y141.116
X754.179 Y142.275
X753.918 Y143.452
X753.615 Y144.636
X753.272 Y145.824
X752.889 Y147.013
X752.472 Y148.19
X752.02 Y149.352
X751.538 Y150.492
X751.027 Y151.605
X750.491 Y152.684
X749.932 Y153.723
X749.349 Y154.726
X748.74 Y155.698
X748.111 Y156.634
X747.458 Y157.538
X746.789 Y158.405
X746.105 Y159.233
X745.396 Y160.035
X744.659 Y160.822
X743.901 Y161.59
X742.224 Y163.206
X740.478 Y164.84
G2 X740.42 Y164.894 I4.339 J4.636
G1 X738.663 Y166.58
G2 X738.526 Y166.716 I4.397 J4.582
G1 X737.668 Y167.591
G2 X737.534 Y167.732 I4.534 J4.446
G1 X736.694 Y168.643
G2 X736.526 Y168.833 I4.668 J4.305
G1 X735.71 Y169.792
G2 X735.527 Y170.017 I4.836 J4.115
G1 X734.738 Y171.035
G2 X734.597 Y171.224 I5.019 J3.89
G1 X734.214 Y171.758
G2 X734.114 Y171.902 I5.16 J3.701
G1 X733.74 Y172.455
G2 X733.644 Y172.6 I5.26 J3.557
G1 X733.279 Y173.173
G2 X733.184 Y173.327 I5.356 J3.412
G1 X732.829 Y173.921
G2 X732.739 Y174.077 I5.451 J3.258
G1 X732.393 Y174.695
G2 X732.303 Y174.863 I5.541 J3.102
G1 X731.969 Y175.504
G2 X731.887 Y175.667 I5.631 J2.934
G1 X731.563 Y176.335
G2 X731.481 Y176.509 I5.713 J2.771
G1 X731.17 Y177.203
G2 X736.965 Y186.15 I5.795 J2.597
G1 X1314.79
G2 X1319.927 Y183.532 J-6.35
G1 X1436.167 Y23.539
G2 X1434.763 Y14.669 I-5.137 J-3.732
G1 X1407.783 Y-4.937
G2 X1404.05 Y-6.15 I-3.733 J5.137
G1 X110.234
X36.139
G2 X32.406 Y-4.937 J6.35
G1 X5.421 Y14.669
G2 X4.016 Y23.539 I3.732 J5.137
G1 X22.266 Y48.658
X111.882 Y172.004 Z29 F400.3
X120.258 Y183.532 F849.6
G2 X125.395 Y186.15 I5.137 J-3.732
G1 X703.223
G2 X709.015 Y177.196 J-6.35
G1 X708.703 Y176.502
G2 X708.628 Y176.342 I-5.792 J2.604
G1 X708.305 Y175.674
G2 X708.216 Y175.497 I-5.717 J2.764
G1 X707.881 Y174.856
G2 X707.798 Y174.702 I-5.628 J2.941
G1 X707.453 Y174.084
G2 X707.355 Y173.915 I-5.544 J3.095
G1 X706.999 Y173.321
G2 X706.908 Y173.173 I-5.447 J3.264
G1 X706.543 Y172.6
G2 X706.447 Y172.455 I-5.356 J3.412
G1 X706.073 Y171.902
G2 X705.973 Y171.758 I-5.26 J3.557
G1 X705.59 Y171.224
G2 X705.451 Y171.038 I-5.16 J3.701
G1 X704.663 Y170.02
G2 X704.476 Y169.789 I-5.021 J3.887
G1 X703.659 Y168.83
G2 X703.496 Y168.646 I-4.834 J4.118
G1 X702.657 Y167.735
G2 X702.517 Y167.588 I-4.671 J4.302
G1 X701.658 Y166.713
G2 X701.524 Y166.58 I-4.531 J4.449
G1 X699.767 Y164.894
G2 X699.71 Y164.841 I-4.397 J4.582
G1 X697.965 Y163.207
X696.285 Y161.589
X695.527 Y160.821
X694.792 Y160.037
X694.085 Y159.235
X693.398 Y158.404
X692.729 Y157.538
X692.077 Y156.634
X691.447 Y155.698
X690.84 Y154.728
X690.255 Y153.721
X689.695 Y152.682
X689.161 Y151.606
X688.65 Y150.492
X688.167 Y149.352
X687.716 Y148.19
X687.297 Y147.011
X686.916 Y145.826
X686.573 Y144.636
X686.269 Y143.45
X686.008 Y142.275
X685.79 Y141.116
X685.617 Y139.981
X685.492 Y138.892
X685.419 Y137.858
X685.395 Y136.884
X685.425 Y135.928
X685.453 Y135.546
X685.497 Y135.142
X685.552 Y134.756
X685.618 Y134.387
X685.695 Y134.035
X685.781 Y133.706
X685.875 Y133.397
X685.982 Y133.094
X686.094 Y132.814
X686.21 Y132.562
X686.339 Y132.315
X686.478 Y132.077
X686.63 Y131.844
X686.797 Y131.616
X686.975 Y131.395
X687.18 Y131.168
X687.409 Y130.937
X687.659 Y130.707
X687.941 Y130.473
X688.258 Y130.233
X688.611 Y129.99
X689.002 Y129.744
X689.428 Y129.5
X689.905 Y129.25
X690.426 Y129.001
X690.989 Y128.756
X691.6 Y128.514
X692.259 Y128.276
X692.974 Y128.04
X693.735 Y127.812
X694.547 Y127.592
X695.416 Y127.378
X696.336 Y127.173
X697.308 Y126.976
X698.334 Y126.789
X699.41 Y126.613
X700.54 Y126.448
X701.726 Y126.293
X702.962 Y126.15
X704.251 Y126.018
X705.593 Y125.898
X706.988 Y125.791
X708.439 Y125.695
X709.941 Y125.612
X711.498 Y125.542
X713.108 Y125.484
X714.773 Y125.439
X716.494 Y125.407
X718.268 Y125.388
X720.094 Y125.381
X721.919 Y125.388
X723.694 Y125.407
X725.414 Y125.439
X727.079 Y125.484
X728.69 Y125.542
X730.246 Y125.612
X731.748 Y125.695
X733.199 Y125.791
X734.595 Y125.898
X735.937 Y126.018
X737.225 Y126.15
X738.462 Y126.293
X739.648 Y126.448
X740.778 Y126.613
X741.854 Y126.789
X742.879 Y126.976
X743.852 Y127.173
X744.773 Y127.378
X745.641 Y127.592
X746.453 Y127.812
X747.213 Y128.04
X747.927 Y128.275
X748.587 Y128.514
X749.198 Y128.756
X749.761 Y129.001
X750.282 Y129.25
X750.759 Y129.5
X751.185 Y129.744
X751.578 Y129.991
X751.932 Y130.234
X752.244 Y130.471
X752.528 Y130.707
X752.782 Y130.939
X753.006 Y131.165
X753.209 Y131.392
X753.393 Y131.619
X753.56 Y131.848
X753.71 Y132.077
X753.847 Y132.311
X753.975 Y132.558
X754.095 Y132.818
X754.208 Y133.099
X754.311 Y133.393
X754.407 Y133.706
X754.493 Y134.035
X754.569 Y134.387
X754.636 Y134.756
X754.69 Y135.142
X754.735 Y135.551
X754.763 Y135.928
X754.793 Y136.884
X754.769 Y137.855
X754.695 Y138.89
X754.57 Y139.981
X754.397 Y141.116
X754.179 Y142.275
X753.918 Y143.452
X753.615 Y144.636
X753.272 Y145.824
X752.889 Y147.013
X752.472 Y148.19
X752.02 Y149.352
X751.538 Y150.492
X751.027 Y151.605
X750.491 Y152.684
X749.932 Y153.723
X749.349 Y154.726
X748.74 Y155.698
X748.111 Y156.634
X747.458 Y157.538
X746.789 Y158.405
X746.105 Y159.233
X745.396 Y160.035
X744.659 Y160.822
X743.901 Y161.59
X742.224 Y163.206
X740.478 Y164.84
G2 X740.42 Y164.894 I4.339 J4.636
G1 X738.663 Y166.58
G2 X738.526 Y166.716 I4.397 J4.582
G1 X737.668 Y167.591
G2 X737.534 Y167.732 I4.534 J4.446
G1 X736.694 Y168.643
G2 X736.526 Y168.833 I4.668 J4.305
G1 X735.71 Y169.792
G2 X735.527 Y170.017 I4.836 J4.115
G1 X734.738 Y171.035
G2 X734.597 Y171.224 I5.019 J3.89
G1 X734.214 Y171.758
G2 X734.114 Y171.902 I5.16 J3.701
G1 X733.74 Y172.455
G2 X733.644 Y172.6 I5.26 J3.557
G1 X733.279 Y173.173
G2 X733.184 Y173.327 I5.356 J3.412
G1 X732.829 Y173.921
G2 X732.739 Y174.077 I5.451 J3.258
G1 X732.393 Y174.695
G2 X732.303 Y174.863 I5.541 J3.102
G1 X731.969 Y175.504
G2 X731.887 Y175.667 I5.631 J2.934
G1 X731.563 Y176.335
G2 X731.481 Y176.509 I5.713 J2.771
G1 X731.17 Y177.203
G2 X736.965 Y186.15 I5.795 J2.597
G1 X1314.79
G2 X1319.927 Y183.532 J-6.35
G1 X1436.167 Y23.539
G2 X1434.763 Y14.669 I-5.137 J-3.732
G1 X1407.783 Y-4.937
G2 X1404.05 Y-6.15 I-3.733 J5.137
G1 X36.139
G2 X32.406 Y-4.937 J6.35
G1 X5.421 Y14.669
G2 X4.016 Y23.539 I3.732 J5.137
G1 X111.882 Y172.004
X120.258 Y183.532 Z28.72 F400.3
G2 X125.395 Y186.15 Z28.602 I5.137 J-3.732
G1 X257.625 Z26
X703.223 F849.6
G2 X709.015 Y177.196 J-6.35
G1 X708.703 Y176.502
G2 X708.628 Y176.342 I-5.792 J2.604
G1 X708.305 Y175.674
G2 X708.216 Y175.497 I-5.717 J2.764
G1 X707.881 Y174.856
G2 X707.798 Y174.702 I-5.628 J2.941
G1 X707.453 Y174.084
G2 X707.355 Y173.915 I-5.544 J3.095
G1 X706.999 Y173.321
G2 X706.908 Y173.173 I-5.447 J3.264
G1 X706.543 Y172.6
G2 X706.447 Y172.455 I-5.356 J3.412
G1 X706.073 Y171.902
G2 X705.973 Y171.758 I-5.26 J3.557
G1 X705.59 Y171.224
G2 X705.451 Y171.038 I-5.16 J3.701
G1 X704.663 Y170.02
G2 X704.476 Y169.789 I-5.021 J3.887
G1 X703.659 Y168.83
G2 X703.496 Y168.646 I-4.834 J4.118
G1 X702.657 Y167.735
G2 X702.517 Y167.588 I-4.671 J4.302
G1 X701.658 Y166.713
G2 X701.524 Y166.58 I-4.531 J4.449
G1 X699.767 Y164.894
G2 X699.71 Y164.841 I-4.397 J4.582
G1 X697.965 Y163.207
X696.285 Y161.589
X695.527 Y160.821
X694.792 Y160.037
X694.085 Y159.235
X693.398 Y158.404
X692.729 Y157.538
X692.077 Y156.634
X691.447 Y155.698
X690.84 Y154.728
X690.255 Y153.721
X689.695 Y152.682
X689.161 Y151.606
X688.65 Y150.492
X688.167 Y149.352
X687.716 Y148.19
X687.297 Y147.011
X686.916 Y145.826
X686.573 Y144.636
X686.269 Y143.45
X686.008 Y142.275
X685.79 Y141.116
X685.617 Y139.981
X685.492 Y138.892
X685.419 Y137.858
X685.395 Y136.884
X685.425 Y135.928
X685.453 Y135.546
X685.497 Y135.142
X685.552 Y134.756
X685.618 Y134.387
X685.695 Y134.035
X685.781 Y133.706
X685.875 Y133.397
X685.982 Y133.094
X686.094 Y132.814
X686.21 Y132.562
X686.339 Y132.315
X686.478 Y132.077
X686.63 Y131.844
X686.797 Y131.616
X686.975 Y131.395
X687.18 Y131.168
X687.409 Y130.937
X687.659 Y130.707
X687.941 Y130.473
X688.258 Y130.233
X688.611 Y129.99
X689.002 Y129.744
X689.428 Y129.5
X689.905 Y129.25
X690.426 Y129.001
X690.989 Y128.756
X691.6 Y128.514
X692.259 Y128.276
X692.974 Y128.04
X693.735 Y127.812
X694.547 Y127.592
X695.416 Y127.378
X696.336 Y127.173
X697.308 Y126.976
X698.334 Y126.789
X699.41 Y126.613
X700.54 Y126.448
X701.726 Y126.293
X702.962 Y126.15
X704.251 Y126.018
X705.593 Y125.898
X706.988 Y125.791
X708.439 Y125.695
X709.941 Y125.612
X711.498 Y125.542
X713.108 Y125.484
X714.773 Y125.439
X716.494 Y125.407
X718.268 Y125.388
X720.094 Y125.381
X721.919 Y125.388
X723.694 Y125.407
X725.414 Y125.439
X727.079 Y125.484
X728.69 Y125.542
X730.246 Y125.612
X731.748 Y125.695
X733.199 Y125.791
X734.595 Y125.898
X735.937 Y126.018
X737.225 Y126.15
X738.462 Y126.293
X739.648 Y126.448
X740.778 Y126.613
X741.854 Y126.789
X742.879 Y126.976
X743.852 Y127.173
X744.773 Y127.378
X745.641 Y127.592
X746.453 Y127.812
X747.213 Y128.04
X747.927 Y128.275
X748.587 Y128.514
X749.198 Y128.756
X749.761 Y129.001
X750.282 Y129.25
X750.759 Y129.5
X751.185 Y129.744
X751.578 Y129.991
X751.932 Y130.234
X752.244 Y130.471
X752.528 Y130.707
X752.782 Y130.939
X753.006 Y131.165
X753.209 Y131.392
X753.393 Y131.619
X753.56 Y131.848
X753.71 Y132.077
X753.847 Y132.311
X753.975 Y132.558
X754.095 Y132.818
X754.208 Y133.099
X754.311 Y133.393
X754.407 Y133.706
X754.493 Y134.035
X754.569 Y134.387
X754.636 Y134.756
X754.69 Y135.142
X754.735 Y135.551
X754.763 Y135.928
X754.793 Y136.884
X754.769 Y137.855
X754.695 Y138.89
X754.57 Y139.981
X754.397 Y141.116
X754.179 Y142.275
X753.918 Y143.452
X753.615 Y144.636
X753.272 Y145.824
X752.889 Y147.013
X752.472 Y148.19
X752.02 Y149.352
X751.538 Y150.492
X751.027 Y151.605
X750.491 Y152.684
X749.932 Y153.723
X749.349 Y154.726
X748.74 Y155.698
X748.111 Y156.634
X747.458 Y157.538
X746.789 Y158.405
X746.105 Y159.233
X745.396 Y160.035
X744.659 Y160.822
X743.901 Y161.59
X742.224 Y163.206
X740.478 Y164.84
G2 X740.42 Y164.894 I4.339 J4.636
G1 X738.663 Y166.58
G2 X738.526 Y166.716 I4.397 J4.582
G1 X737.668 Y167.591
G2 X737.534 Y167.732 I4.534 J4.446
G1 X736.694 Y168.643
G2 X736.526 Y168.833 I4.668 J4.305
G1 X735.71 Y169.792
G2 X735.527 Y170.017 I4.836 J4.115
G1 X734.738 Y171.035
G2 X734.597 Y171.224 I5.019 J3.89
G1 X734.214 Y171.758
G2 X734.114 Y171.902 I5.16 J3.701
G1 X733.74 Y172.455
G2 X733.644 Y172.6 I5.26 J3.557
G1 X733.279 Y173.173
G2 X733.184 Y173.327 I5.356 J3.412
G1 X732.829 Y173.921
G2 X732.739 Y174.077 I5.451 J3.258
G1 X732.393 Y174.695
G2 X732.303 Y174.863 I5.541 J3.102
G1 X731.969 Y175.504
G2 X731.887 Y175.667 I5.631 J2.934
G1 X731.563 Y176.335
G2 X731.481 Y176.509 I5.713 J2.771
G1 X731.17 Y177.203
G2 X736.965 Y186.15 I5.795 J2.597
G1 X1314.79
G2 X1319.927 Y183.532 J-6.35
G1 X1436.167 Y23.539
G2 X1434.763 Y14.669 I-5.137 J-3.732
G1 X1407.783 Y-4.937
G2 X1404.05 Y-6.15 I-3.733 J5.137
G1 X36.139
G2 X32.406 Y-4.937 J6.35
G1 X5.421 Y14.669
G2 X4.016 Y23.539 I3.732 J5.137
G1 X111.882 Y172.004
X120.258 Y183.532
G2 X125.395 Y186.15 I5.137 J-3.732
G1 X257.625
X410.089 Z23 F400.3
X703.223 F849.6
G2 X709.015 Y177.196 J-6.35
G1 X708.703 Y176.502
G2 X708.628 Y176.342 I-5.792 J2.604
G1 X708.305 Y175.674
G2 X708.216 Y175.497 I-5.717 J2.764
G1 X707.881 Y174.856
G2 X707.798 Y174.702 I-5.628 J2.941
G1 X707.453 Y174.084
G2 X707.355 Y173.915 I-5.544 J3.095
G1 X706.999 Y173.321
G2 X706.908 Y173.173 I-5.447 J3.264
G1 X706.543 Y172.6
G2 X706.447 Y172.455 I-5.356 J3.412
G1 X706.073 Y171.902
G2 X705.973 Y171.758 I-5.26 J3.557
G1 X705.59 Y171.224
G2 X705.451 Y171.038 I-5.16 J3.701
G1 X704.663 Y170.02
G2 X704.476 Y169.789 I-5.021 J3.887
G1 X703.659 Y168.83
G2 X703.496 Y168.646 I-4.834 J4.118
G1 X702.657 Y167.735
G2 X702.517 Y167.588 I-4.671 J4.302
G1 X701.658 Y166.713
G2 X701.524 Y166.58 I-4.531 J4.449
G1 X699.767 Y164.894
G2 X699.71 Y164.841 I-4.397 J4.582
G1 X697.965 Y163.207
X696.285 Y161.589
X695.527 Y160.821
X694.792 Y160.037
X694.085 Y159.235
X693.398 Y158.404
X692.729 Y157.538
X692.077 Y156.634
X691.447 Y155.698
X690.84 Y154.728
X690.255 Y153.721
X689.695 Y152.682
X689.161 Y151.606
X688.65 Y150.492
X688.167 Y149.352
X687.716 Y148.19
X687.297 Y147.011
X686.916 Y145.826
X686.573 Y144.636
X686.269 Y143.45
X686.008 Y142.275
X685.79 Y141.116
X685.617 Y139.981
X685.492 Y138.892
X685.419 Y137.858
X685.395 Y136.884
X685.425 Y135.928
X685.453 Y135.546
X685.497 Y135.142
X685.552 Y134.756
X685.618 Y134.387
X685.695 Y134.035
X685.781 Y133.706
X685.875 Y133.397
X685.982 Y133.094
X686.094 Y132.814
X686.21 Y132.562
X686.339 Y132.315
X686.478 Y132.077
X686.63 Y131.844
X686.797 Y131.616
X686.975 Y131.395
X687.18 Y131.168
X687.409 Y130.937
X687.659 Y130.707
X687.941 Y130.473
X688.258 Y130.233
X688.611 Y129.99
X689.002 Y129.744
X689.428 Y129.5
X689.905 Y129.25
X690.426 Y129.001
X690.989 Y128.756
X691.6 Y128.514
X692.259 Y128.276
X692.974 Y128.04
X693.735 Y127.812
X694.547 Y127.592
X695.416 Y127.378
X696.336 Y127.173
X697.308 Y126.976
X698.334 Y126.789
X699.41 Y126.613
X700.54 Y126.448
X701.726 Y126.293
X702.962 Y126.15
X704.251 Y126.018
X705.593 Y125.898
X706.988 Y125.791
X708.439 Y125.695
X709.941 Y125.612
X711.498 Y125.542
X713.108 Y125.484
X714.773 Y125.439
X716.494 Y125.407
X718.268 Y125.388
X720.094 Y125.381
X721.919 Y125.388
X723.694 Y125.407
X725.414 Y125.439
X727.079 Y125.484
X728.69 Y125.542
X730.246 Y125.612
X731.748 Y125.695
X733.199 Y125.791
X734.595 Y125.898
X735.937 Y126.018
X737.225 Y126.15
X738.462 Y126.293
X739.648 Y126.448
X740.778 Y126.613
X741.854 Y126.789
X742.879 Y126.976
X743.852 Y127.173
X744.773 Y127.378
X745.641 Y127.592
X746.453 Y127.812
X747.213 Y128.04
X747.927 Y128.275
X748.587 Y128.514
X749.198 Y128.756
X749.761 Y129.001
X750.282 Y129.25
X750.759 Y129.5
X751.185 Y129.744
X751.578 Y129.991
X751.932 Y130.234
X752.244 Y130.471
X752.528 Y130.707
X752.782 Y130.939
X753.006 Y131.165
X753.209 Y131.392
X753.393 Y131.619
X753.56 Y131.848
X753.71 Y132.077
X753.847 Y132.311
X753.975 Y132.558
X754.095 Y132.818
X754.208 Y133.099
X754.311 Y133.393
X754.407 Y133.706
X754.493 Y134.035
X754.569 Y134.387
X754.636 Y134.756
X754.69 Y135.142
X754.735 Y135.551
X754.763 Y135.928
X754.793 Y136.884
X754.769 Y137.855
X754.695 Y138.89
X754.57 Y139.981
X754.397 Y141.116
X754.179 Y142.275
X753.918 Y143.452
X753.615 Y144.636
X753.272 Y145.824
X752.889 Y147.013
X752.472 Y148.19
X752.02 Y149.352
X751.538 Y150.492
X751.027 Y151.605
X750.491 Y152.684
X749.932 Y153.723
X749.349 Y154.726
X748.74 Y155.698
X748.111 Y156.634
X747.458 Y157.538
X746.789 Y158.405
X746.105 Y159.233
X745.396 Y160.035
X744.659 Y160.822
X743.901 Y161.59
X742.224 Y163.206
X740.478 Y164.84
G2 X740.42 Y164.894 I4.339 J4.636
G1 X738.663 Y166.58
G2 X738.526 Y166.716 I4.397 J4.582
G1 X737.668 Y167.591
G2 X737.534 Y167.732 I4.534 J4.446
G1 X736.694 Y168.643
G2 X736.526 Y168.833 I4.668 J4.305
G1 X735.71 Y169.792
G2 X735.527 Y170.017 I4.836 J4.115
G1 X734.738 Y171.035
G2 X734.597 Y171.224 I5.019 J3.89
G1 X734.214 Y171.758
G2 X734.114 Y171.902 I5.16 J3.701
G1 X733.74 Y172.455
G2 X733.644 Y172.6 I5.26 J3.557
G1 X733.279 Y173.173
G2 X733.184 Y173.327 I5.356 J3.412
G1 X732.829 Y173.921
G2 X732.739 Y174.077 I5.451 J3.258
G1 X732.393 Y174.695
G2 X732.303 Y174.863 I5.541 J3.102
G1 X731.969 Y175.504
G2 X731.887 Y175.667 I5.631 J2.934
G1 X731.563 Y176.335
G2 X731.481 Y176.509 I5.713 J2.771
G1 X731.17 Y177.203
G2 X736.965 Y186.15 I5.795 J2.597
G1 X1314.79
G2 X1319.927 Y183.532 J-6.35
G1 X1436.167 Y23.539
G2 X1434.763 Y14.669 I-5.137 J-3.732
G1 X1407.783 Y-4.937
G2 X1404.05 Y-6.15 I-3.733 J5.137
G1 X36.139
G2 X32.406 Y-4.937 J6.35
G1 X5.421 Y14.669
G2 X4.016 Y23.539 I3.732 J5.137
G1 X120.258 Y183.532
G2 X125.395 Y186.15 I5.137 J-3.732
G1 X410.089
X562.554 Z20 F400.3
X703.223 F849.6
G2 X709.015 Y177.196 J-6.35
G1 X708.703 Y176.502
G2 X708.628 Y176.342 I-5.792 J2.604
G1 X708.305 Y175.674
G2 X708.216 Y175.497 I-5.717 J2.764
G1 X707.881 Y174.856
G2 X707.798 Y174.702 I-5.628 J2.941
G1 X707.453 Y174.084
G2 X707.355 Y173.915 I-5.544 J3.095
G1 X706.999 Y173.321
G2 X706.908 Y173.173 I-5.447 J3.264
G1 X706.543 Y172.6
G2 X706.447 Y172.455 I-5.356 J3.412
G1 X706.073 Y171.902
G2 X705.973 Y171.758 I-5.26 J3.557
G1 X705.59 Y171.224
G2 X705.451 Y171.038 I-5.16 J3.701
G1 X704.663 Y170.02
G2 X704.476 Y169.789 I-5.021 J3.887
G1 X703.659 Y168.83
G2 X703.496 Y168.646 I-4.834 J4.118
G1 X702.657 Y167.735
G2 X702.517 Y167.588 I-4.671 J4.302
G1 X701.658 Y166.713
G2 X701.524 Y166.58 I-4.531 J4.449
G1 X699.767 Y164.894
G2 X699.71 Y164.841 I-4.397 J4.582
G1 X697.965 Y163.207
X696.285 Y161.589
X695.527 Y160.821
X694.792 Y160.037
X694.085 Y159.235
X693.398 Y158.404
X692.729 Y157.538
X692.077 Y156.634
X691.447 Y155.698
X690.84 Y154.728
X690.255 Y153.721
X689.695 Y152.682
X689.161 Y151.606
X688.65 Y150.492
X688.167 Y149.352
X687.716 Y148.19
X687.297 Y147.011
X686.916 Y145.826
X686.573 Y144.636
X686.269 Y143.45
X686.008 Y142.275
X685.79 Y141.116
X685.617 Y139.981
X685.492 Y138.892
X685.419 Y137.858
X685.395 Y136.884
X685.425 Y135.928
X685.453 Y135.546
X685.497 Y135.142
X685.552 Y134.756
X685.618 Y134.387
X685.695 Y134.035
X685.781 Y133.706
X685.875 Y133.397
X685.982 Y133.094
X686.094 Y132.814
X686.21 Y132.562
X686.339 Y132.315
X686.478 Y132.077
X686.63 Y131.844
X686.797 Y131.616
X686.975 Y131.395
X687.18 Y131.168
X687.409 Y130.937
X687.659 Y130.707
X687.941 Y130.473
X688.258 Y130.233
X688.611 Y129.99
X689.002 Y129.744
X689.428 Y129.5
X689.905 Y129.25
X690.426 Y129.001
X690.989 Y128.756
X691.6 Y128.514
X692.259 Y128.276
X692.974 Y128.04
X693.735 Y127.812
X694.547 Y127.592
X695.416 Y127.378
X696.336 Y127.173
X697.308 Y126.976
X698.334 Y126.789
X699.41 Y126.613
X700.54 Y126.448
X701.726 Y126.293
X702.962 Y126.15
X704.251 Y126.018
X705.593 Y125.898
X706.988 Y125.791
X708.439 Y125.695
X709.941 Y125.612
X711.498 Y125.542
X713.108 Y125.484
X714.773 Y125.439
X716.494 Y125.407
X718.268 Y125.388
X720.094 Y125.381
X721.919 Y125.388
X723.694 Y125.407
X725.414 Y125.439
X727.079 Y125.484
X728.69 Y125.542
X730.246 Y125.612
X731.748 Y125.695
X733.199 Y125.791
X734.595 Y125.898
X735.937 Y126.018
X737.225 Y126.15
X738.462 Y126.293
X739.648 Y126.448
X740.778 Y126.613
X741.854 Y126.789
X742.879 Y126.976
X743.852 Y127.173
X744.773 Y127.378
X745.641 Y127.592
X746.453 Y127.812
X747.213 Y128.04
X747.927 Y128.275
X748.587 Y128.514
X749.198 Y128.756
X749.761 Y129.001
X750.282 Y129.25
X750.759 Y129.5
X751.185 Y129.744
X751.578 Y129.991
X751.932 Y130.234
X752.244 Y130.471
X752.528 Y130.707
X752.782 Y130.939
X753.006 Y131.165
X753.209 Y131.392
X753.393 Y131.619
X753.56 Y131.848
X753.71 Y132.077
X753.847 Y132.311
X753.975 Y132.558
X754.095 Y132.818
X754.208 Y133.099
X754.311 Y133.393
X754.407 Y133.706
X754.493 Y134.035
X754.569 Y134.387
X754.636 Y134.756
X754.69 Y135.142
X754.735 Y135.551
X754.763 Y135.928
X754.793 Y136.884
X754.769 Y137.855
X754.695 Y138.89
X754.57 Y139.981
X754.397 Y141.116
X754.179 Y142.275
X753.918 Y143.452
X753.615 Y144.636
X753.272 Y145.824
X752.889 Y147.013
X752.472 Y148.19
X752.02 Y149.352
X751.538 Y150.492
X751.027 Y151.605
X750.491 Y152.684
X749.932 Y153.723
X749.349 Y154.726
X748.74 Y155.698
X748.111 Y156.634
X747.458 Y157.538
X746.789 Y158.405
X746.105 Y159.233
X745.396 Y160.035
X744.659 Y160.822
X743.901 Y161.59
X742.224 Y163.206
X740.478 Y164.84
G2 X740.42 Y164.894 I4.339 J4.636
G1 X738.663 Y166.58
G2 X738.526 Y166.716 I4.397 J4.582
G1 X737.668 Y167.591
G2 X737.534 Y167.732 I4.534 J4.446
G1 X736.694 Y168.643
G2 X736.526 Y168.833 I4.668 J4.305
G1 X735.71 Y169.792
G2 X735.527 Y170.017 I4.836 J4.115
G1 X734.738 Y171.035
G2 X734.597 Y171.224 I5.019 J3.89
G1 X734.214 Y171.758
G2 X734.114 Y171.902 I5.16 J3.701
G1 X733.74 Y172.455
G2 X733.644 Y172.6 I5.26 J3.557
G1 X733.279 Y173.173
G2 X733.184 Y173.327 I5.356 J3.412
G1 X732.829 Y173.921
G2 X732.739 Y174.077 I5.451 J3.258
G1 X732.393 Y174.695
G2 X732.303 Y174.863 I5.541 J3.102
G1 X731.969 Y175.504
G2 X731.887 Y175.667 I5.631 J2.934
G1 X731.563 Y176.335
G2 X731.481 Y176.509 I5.713 J2.771
G1 X731.17 Y177.203
G2 X736.965 Y186.15 I5.795 J2.597
G1 X1314.79
G2 X1319.927 Y183.532 J-6.35
G1 X1436.167 Y23.539
G2 X1434.763 Y14.669 I-5.137 J-3.732
G1 X1407.783 Y-4.937
G2 X1404.05 Y-6.15 I-3.733 J5.137
G1 X36.139
G2 X32.406 Y-4.937 J6.35
G1 X5.421 Y14.669
G2 X4.016 Y23.539 I3.732 J5.137
G1 X120.258 Y183.532
G2 X125.395 Y186.15 I5.137 J-3.732
G1 X410.089
X562.554
G3 X563.824 Y187.42 J1.27
G1 Y188.69
G19 G3 Y189.96 Z21.27 K1.27
G0 Z65
G17

(2D Adaptive15 4)
M9
G0 X69.02 Y43.649
Z65
Z55
Z53.77
G1 Z52.5 F849.6
G3 X63.095 Y42.704 Z52.171 I-2.963 J-0.473 F400.3
X69.02 Y43.649 Z51.842 I2.963 J0.473
X63.095 Y42.704 Z51.513 I-2.963 J-0.473
X69.02 Y43.649 Z51.184 I2.963 J0.473
X63.095 Y42.704 Z50.854 I-2.963 J-0.473
X69.02 Y43.649 Z50.525 I2.963 J0.473
X63.095 Y42.704 Z50.196 I-2.963 J-0.473
X69.02 Y43.649 Z49.867 I2.963 J0.473
X63.095 Y42.704 Z49.538 I-2.963 J-0.473
X69.02 Y43.649 Z49.209 I2.963 J0.473
X63.095 Y42.704 Z48.88 I-2.963 J-0.473
X69.02 Y43.649 Z48.551 I2.963 J0.473
X63.095 Y42.704 Z48.221 I-2.963 J-0.473
X69.02 Y43.649 Z47.892 I2.963 J0.473
X63.095 Y42.704 Z47.563 I-2.963 J-0.473
X69.02 Y43.649 Z47.234 I2.963 J0.473
X63.095 Y42.704 Z46.905 I-2.963 J-0.473
X69.02 Y43.649 Z46.576 I2.963 J0.473
X63.095 Y42.704 Z46.247 I-2.963 J-0.473
X69.02 Y43.649 Z45.918 I2.963 J0.473
X63.095 Y42.704 Z45.588 I-2.963 J-0.473
X69.02 Y43.649 Z45.259 I2.963 J0.473
X63.095 Y42.704 Z44.93 I-2.963 J-0.473
X69.02 Y43.649 Z44.601 I2.963 J0.473
X63.095 Y42.704 Z44.272 I-2.963 J-0.473
X69.02 Y43.649 Z43.943 I2.963 J0.473
X63.095 Y42.704 Z43.614 I-2.963 J-0.473
X69.02 Y43.649 Z43.285 I2.963 J0.473
X63.095 Y42.704 Z42.956 I-2.963 J-0.473
X69.02 Y43.649 Z42.626 I2.963 J0.473
X63.095 Y42.704 Z42.297 I-2.963 J-0.473
X69.02 Y43.649 Z41.968 I2.963 J0.473
X63.095 Y42.704 Z41.639 I-2.963 J-0.473
X69.02 Y43.649 Z41.31 I2.963 J0.473
X63.095 Y42.704 Z40.981 I-2.963 J-0.473
X69.02 Y43.649 Z40.652 I2.963 J0.473
X63.095 Y42.704 Z40.323 I-2.963 J-0.473
X69.057 Y43.176 Z40.01 I2.963 J0.473
X63.057 I-3
X68.953 Y42.393 I3
X69.057 Y43.176 I-2.896 J0.783
G1 X69.079 Y44.468 F849.6
X69.086 Y44.549
X69.093 Y44.699
X69.085 Y44.848
X69.065 Y44.997
X69.034 Y45.144
X68.993 Y45.288
X68.942 Y45.429
X68.883 Y45.567
X68.815 Y45.701
X68.74 Y45.831
X68.657 Y45.957
X68.564 Y46.083
X68.462 Y46.207
X68.35 Y46.329
X68.23 Y46.447
X68.1 Y46.56
X67.961 Y46.669
X67.814 Y46.772
X67.658 Y46.869
X67.494 Y46.959
X67.324 Y47.041
X67.146 Y47.115
X66.962 Y47.18
X66.772 Y47.236
X66.328 Y47.302
X65.88 Y47.293
X65.44 Y47.209
X65.019 Y47.053
X64.631 Y46.829
X64.285 Y46.543
X63.992 Y46.204
X62.648 Y44.353
X62.525 Y44.165
X62.45 Y44.035
X62.383 Y43.901
X62.323 Y43.763
X62.27 Y43.62
X62.224 Y43.47
X62.185 Y43.313
X62.135 Y42.857
X62.16 Y42.4
X62.257 Y41.952
X62.426 Y41.525
X62.661 Y41.131
X62.956 Y40.781
X63.304 Y40.482
G3 X67.29 Y41.772 I1.488 J2.206
X62.648 Y44.353 I-2.524 J0.925
G1 X61.835 Y43.234
X61.812 Y43.202
X61.793 Y43.176
X61.707 Y43.019
X61.643 Y42.884
X61.629 Y42.847
X61.6 Y42.768
X61.575 Y42.687
X61.554 Y42.605
G3 X62.214 Y41.566 I1.076 J-0.047
X63.022 Y43.498 I0.404 J0.966
X61.793 Y43.176 I-0.404 J-0.966
G1 X61.676 Y42.986
X61.599 Y42.796
X61.554 Y42.605
X61.539 Y42.415
X61.553 Y42.225
X61.596 Y42.034
X61.673 Y41.844
X61.725 Y41.749
X61.79 Y41.654
X61.886 Y41.539
X62.05 Y41.393
X64.444 Y39.654
X64.598 Y39.553
X64.745 Y39.468
X64.9 Y39.389
X65.063 Y39.318
X65.232 Y39.254
X65.634 Y39.16
X66.046 Y39.13
X66.458 Y39.164
X66.86 Y39.262
X67.241 Y39.422
X67.593 Y39.638
X67.907 Y39.907
X68.175 Y40.221
G3 X66.938 Y42.188 I-1.053 J0.71
G1 X65.042 Y41.911
G3 X64.444 Y39.654 I0.183 J-1.257
G1 X65.359 Y38.989
X65.59 Y38.827
X65.695 Y38.754
X65.886 Y38.664
X66.076 Y38.61
X66.086 Y38.608
X66.271 Y38.586
X66.457 Y38.592
X66.569 Y38.608
X66.704 Y38.642
X66.838 Y38.691
X67.029 Y38.792
X67.124 Y38.859
X67.219 Y38.941
X67.266 Y38.989
X67.556 Y39.37
X69.65 Y42.252
X69.804 Y42.487
X69.911 Y42.673
X70.007 Y42.861
X70.091 Y43.053
X70.165 Y43.248
X70.227 Y43.445
X70.279 Y43.644
X70.32 Y43.845
X70.349 Y44.049
X70.368 Y44.255
X70.375 Y44.462
X70.371 Y44.671
X70.356 Y44.881
X70.329 Y45.092
X70.291 Y45.303
X70.24 Y45.515
X70.177 Y45.725
X70.102 Y45.935
X70.015 Y46.142
X69.916 Y46.348
X69.803 Y46.55
X69.679 Y46.748
X69.543 Y46.941
X69.394 Y47.129
X69.244 Y47.299
X69.087 Y47.459
X68.906 Y47.623
X68.733 Y47.765
X68.556 Y47.895
X68.353 Y48.026
X68.161 Y48.137
X67.968 Y48.234
X67.75 Y48.33
X67.369 Y48.439
X66.975 Y48.485
X66.58 Y48.466
X66.192 Y48.383
X65.823 Y48.239
X65.482 Y48.037
X65.179 Y47.782
X64.921 Y47.482
X63.992 Y46.204
G3 X64.329 Y44.445 I1.053 J-0.71
G1 X67.933 Y41.985
G3 X69.65 Y42.252 I0.716 J1.049
G1 X70.773 Y43.797
X70.855 Y43.923
X70.928 Y44.053
X70.993 Y44.189
X71.05 Y44.327
X71.101 Y44.474
X71.146 Y44.63
X71.184 Y44.795
X71.215 Y44.972
X71.237 Y45.158
X71.249 Y45.352
X71.251 Y45.552
X71.242 Y45.759
X71.221 Y45.973
X71.187 Y46.193
X71.14 Y46.417
X71.079 Y46.643
X71.005 Y46.87
X70.917 Y47.097
X70.815 Y47.323
X70.698 Y47.547
X70.568 Y47.768
X70.424 Y47.985
X70.282 Y48.175
X70.117 Y48.372
X69.951 Y48.551
X69.788 Y48.709
X69.599 Y48.871
X69.417 Y49.012
X69.234 Y49.138
X69.029 Y49.264
X68.835 Y49.369
X68.425 Y49.521
X67.996 Y49.6
X67.56 Y49.604
X67.129 Y49.533
X66.717 Y49.389
X66.337 Y49.176
X65.998 Y48.9
X65.712 Y48.571
X64.921 Y47.482
G3 X65.339 Y45.672 I1.053 J-0.71
G1 X69.137 Y43.479
G3 X70.397 Y43.474 I0.635 J1.1
X70.773 Y43.797 I-0.625 J1.105
G1 X71.58 Y44.909
X71.676 Y45.056
X71.751 Y45.186
X71.817 Y45.32
X71.875 Y45.459
X71.924 Y45.6
X71.969 Y45.754
X72.007 Y45.92
X72.037 Y46.094
X72.059 Y46.277
X72.072 Y46.473
X72.074 Y46.677
X72.064 Y46.889
X72.043 Y47.106
X72.009 Y47.328
X71.962 Y47.553
X71.9 Y47.783
X71.824 Y48.015
X71.734 Y48.247
X71.63 Y48.479
X71.511 Y48.708
X71.387 Y48.919
X71.255 Y49.117
X71.101 Y49.324
X70.951 Y49.504
X70.794 Y49.672
X70.615 Y49.845
X70.442 Y49.994
X70.267 Y50.13
X70.067 Y50.268
X69.877 Y50.385
X69.688 Y50.487
X69.272 Y50.642
X68.836 Y50.722
X68.393 Y50.726
X67.956 Y50.654
X67.537 Y50.507
X67.15 Y50.291
X66.806 Y50.011
X66.516 Y49.676
X65.712 Y48.571
G3 X66.137 Y46.756 I1.053 J-0.71
G1 X69.951 Y44.587
G3 X71.58 Y44.909 I0.628 J1.104
G1 X72.41 Y46.051
X72.499 Y46.187
X72.574 Y46.317
X72.64 Y46.452
X72.698 Y46.59
X72.748 Y46.732
X72.793 Y46.888
X72.832 Y47.054
X72.862 Y47.229
X72.884 Y47.413
X72.897 Y47.608
X72.899 Y47.813
X72.89 Y48.024
X72.869 Y48.24
X72.836 Y48.46
X72.789 Y48.686
X72.728 Y48.914
X72.653 Y49.144
X72.564 Y49.375
X72.46 Y49.606
X72.343 Y49.833
X72.221 Y50.041
X72.09 Y50.239
X71.937 Y50.444
X71.788 Y50.624
X71.632 Y50.791
X71.453 Y50.964
X71.281 Y51.113
X71.107 Y51.249
X70.907 Y51.388
X70.716 Y51.505
X70.527 Y51.607
X70.108 Y51.764
X69.668 Y51.845
X69.221 Y51.85
X68.779 Y51.777
X68.357 Y51.63
X67.966 Y51.411
X67.619 Y51.129
X67.325 Y50.791
X66.516 Y49.676
G3 X66.952 Y47.856 I1.053 J-0.71
G1 X70.792 Y45.722
G3 X72.41 Y46.051 I0.617 J1.11
G1 X73.212 Y47.155
X73.325 Y47.327
X73.4 Y47.457
X73.466 Y47.591
X73.523 Y47.73
X73.573 Y47.872
X73.618 Y48.026
X73.656 Y48.193
X73.687 Y48.368
X73.709 Y48.551
X73.722 Y48.744
X73.724 Y48.948
X73.715 Y49.159
X73.694 Y49.374
X73.66 Y49.594
X73.613 Y49.818
X73.553 Y50.045
X73.478 Y50.274
X73.389 Y50.504
X73.286 Y50.734
X73.169 Y50.96
X73.047 Y51.167
X72.916 Y51.365
X72.764 Y51.57
X72.615 Y51.748
X72.46 Y51.916
X72.281 Y52.089
X72.109 Y52.237
X71.934 Y52.373
X71.734 Y52.512
X71.543 Y52.629
X71.354 Y52.732
X71.331 Y52.743
X70.915 Y52.897
X70.479 Y52.978
X70.035 Y52.983
X69.597 Y52.911
X69.177 Y52.764
X68.79 Y52.547
X68.445 Y52.267
X68.154 Y51.932
X67.325 Y50.791
G3 X67.758 Y48.972 I1.053 J-0.71
G1 X71.592 Y46.829
G3 X73.212 Y47.155 I0.62 J1.108
G1 X74.076 Y48.344
X74.158 Y48.47
X74.232 Y48.6
X74.298 Y48.735
X74.354 Y48.874
X74.403 Y49.016
X74.447 Y49.171
X74.485 Y49.339
X74.515 Y49.515
X74.536 Y49.7
X74.547 Y49.892
X74.549 Y50.096
X74.538 Y50.307
X74.516 Y50.523
X74.481 Y50.744
X74.433 Y50.968
X74.371 Y51.194
X74.296 Y51.422
X74.205 Y51.652
X74.101 Y51.881
X73.982 Y52.108
X73.859 Y52.314
X73.725 Y52.514
X73.571 Y52.718
X73.422 Y52.896
X73.263 Y53.065
X73.083 Y53.237
X72.911 Y53.384
X72.734 Y53.521
X72.533 Y53.658
X72.343 Y53.774
X72.151 Y53.876
X71.934 Y53.977
X71.547 Y54.097
X71.145 Y54.152
X70.739 Y54.139
X70.342 Y54.06
X69.962 Y53.916
X69.612 Y53.712
X69.3 Y53.452
X69.036 Y53.145
X68.154 Y51.932
G3 X68.602 Y50.105 I1.053 J-0.71
G1 X72.471 Y48.01
G3 X74.076 Y48.344 I0.605 J1.117
G1 X74.894 Y49.47
X74.976 Y49.596
X75.051 Y49.726
X75.117 Y49.861
X75.174 Y49.999
X75.223 Y50.141
X75.268 Y50.296
X75.306 Y50.462
X75.336 Y50.637
X75.357 Y50.82
X75.369 Y51.014
X75.371 Y51.218
X75.361 Y51.428
X75.339 Y51.643
X75.305 Y51.863
X75.258 Y52.087
X75.196 Y52.314
X75.121 Y52.543
X75.031 Y52.774
X74.927 Y53.003
X74.809 Y53.23
X74.677 Y53.453
X74.538 Y53.661
X74.394 Y53.853
X74.229 Y54.051
X74.068 Y54.223
X73.899 Y54.385
X73.713 Y54.546
X73.536 Y54.682
X73.345 Y54.813
X73.144 Y54.936
X72.954 Y55.039
X72.748 Y55.135
X72.366 Y55.255
X71.97 Y55.309
X71.57 Y55.298
X71.177 Y55.22
X70.803 Y55.078
X70.457 Y54.877
X70.149 Y54.621
X69.888 Y54.318
X69.036 Y53.145
G3 X68.844 Y52.688 I1.053 J-0.71
X69.457 Y51.333 I1.244 J-0.253
G1 X73.262 Y49.15
G3 X74.894 Y49.47 I0.632 J1.102
G1 X75.74 Y50.633
X75.821 Y50.759
X75.894 Y50.89
X75.957 Y51.026
X76.012 Y51.166
X76.059 Y51.311
X76.102 Y51.467
X76.138 Y51.636
X76.166 Y51.816
X76.185 Y52.005
X76.195 Y52.201
X76.193 Y52.406
X76.18 Y52.622
X76.155 Y52.842
X76.116 Y53.066
X76.065 Y53.294
X75.999 Y53.524
X75.919 Y53.754
X75.825 Y53.986
X75.716 Y54.217
X75.594 Y54.444
X75.456 Y54.669
X75.318 Y54.869
X75.165 Y55.068
X75.001 Y55.258
X74.842 Y55.423
X74.664 Y55.59
X74.481 Y55.742
X74.305 Y55.874
X74.107 Y56.006
X73.91 Y56.122
X73.896 Y56.13
X73.525 Y56.287
X73.133 Y56.384
X72.731 Y56.418
X72.328 Y56.388
X71.935 Y56.296
X71.562 Y56.143
X71.217 Y55.933
X70.91 Y55.671
X70.648 Y55.364
X69.888 Y54.318
G3 X70.306 Y52.508 I1.053 J-0.71
G1 X74.104 Y50.315
G3 X75.74 Y50.633 I0.635 J1.1
G1 X76.559 Y51.761
X76.641 Y51.886
X76.713 Y52.018
X76.777 Y52.153
X76.833 Y52.293
X76.882 Y52.438
X76.925 Y52.597
X76.962 Y52.766
X76.991 Y52.943
X77.011 Y53.132
X77.021 Y53.332
X77.02 Y53.539
X77.008 Y53.753
X76.984 Y53.973
X76.946 Y54.196
X76.895 Y54.425
X76.83 Y54.658
X76.75 Y54.89
X76.657 Y55.124
X76.549 Y55.355
X76.433 Y55.571
X76.308 Y55.777
X76.165 Y55.988
X76.024 Y56.171
X75.867 Y56.355
X75.7 Y56.529
X75.539 Y56.681
X75.354 Y56.837
X75.17 Y56.976
X74.99 Y57.097
X74.785 Y57.219
X74.713 Y57.257
X74.343 Y57.415
X73.952 Y57.513
X73.551 Y57.548
X73.15 Y57.52
X72.758 Y57.428
X72.385 Y57.276
X72.041 Y57.067
X71.735 Y56.806
X71.473 Y56.5
X70.648 Y55.364
G3 X71.091 Y53.54 I1.053 J-0.71
G1 X74.948 Y51.429
G3 X76.559 Y51.761 I0.61 J1.114
G1 X77.384 Y52.897
X77.466 Y53.023
X77.539 Y53.154
X77.604 Y53.289
X77.659 Y53.428
X77.709 Y53.574
X77.753 Y53.733
X77.79 Y53.901
X77.819 Y54.078
X77.839 Y54.264
X77.85 Y54.462
Y54.668
X77.838 Y54.88
X77.815 Y55.097
X77.778 Y55.319
X77.729 Y55.543
X77.665 Y55.772
X77.587 Y56.003
X77.495 Y56.233
X77.389 Y56.462
X77.273 Y56.68
X77.148 Y56.888
X77.003 Y57.101
X76.861 Y57.288
X76.704 Y57.472
X76.536 Y57.649
X76.374 Y57.803
X76.19 Y57.959
X76.004 Y58.1
X75.824 Y58.222
X75.619 Y58.345
X75.412 Y58.453
X75.003 Y58.601
X74.575 Y58.676
X74.141 Y58.677
X73.712 Y58.604
X73.303 Y58.459
X72.924 Y58.245
X72.588 Y57.971
X72.303 Y57.642
X71.473 Y56.5
G3 X71.916 Y54.676 I1.053 J-0.71
G1 X75.774 Y52.565
G3 X77.384 Y52.897 I0.61 J1.114
G1 X78.177 Y53.988
X78.276 Y54.14
X78.351 Y54.27
X78.417 Y54.405
X78.475 Y54.543
X78.525 Y54.686
X78.57 Y54.842
X78.608 Y55.007
X78.638 Y55.18
X78.66 Y55.364
X78.672 Y55.56
X78.674 Y55.763
X78.665 Y55.973
X78.644 Y56.187
X78.61 Y56.408
X78.563 Y56.632
X78.502 Y56.861
X78.427 Y57.092
X78.337 Y57.322
X78.234 Y57.551
X78.116 Y57.778
X77.99 Y57.992
X77.86 Y58.188
X77.706 Y58.395
X77.553 Y58.579
X77.399 Y58.745
X77.218 Y58.918
X77.044 Y59.069
X76.87 Y59.204
X76.67 Y59.342
X76.477 Y59.461
X76.289 Y59.562
X76.25 Y59.581
X75.842 Y59.733
X75.413 Y59.812
X74.978 Y59.816
X74.548 Y59.745
X74.137 Y59.601
X73.756 Y59.388
X73.418 Y59.113
X73.133 Y58.784
X72.303 Y57.642
G3 X72.111 Y57.185 I1.053 J-0.71
X72.73 Y55.827 I1.244 J-0.253
G1 X76.55 Y53.664
G3 X78.177 Y53.988 I0.626 J1.105
G1 X79.029 Y55.161
X79.111 Y55.286
X79.185 Y55.417
X79.25 Y55.552
X79.306 Y55.691
X79.355 Y55.833
X79.398 Y55.989
X79.436 Y56.157
X79.466 Y56.334
X79.487 Y56.519
X79.498 Y56.713
X79.499 Y56.918
X79.488 Y57.13
X79.465 Y57.347
X79.43 Y57.568
X79.381 Y57.794
X79.319 Y58.022
X79.242 Y58.251
X79.151 Y58.482
X79.046 Y58.712
X78.926 Y58.939
X78.801 Y59.148
X78.666 Y59.349
X78.511 Y59.554
X78.36 Y59.733
X78.2 Y59.902
X78.02 Y60.074
X77.848 Y60.221
X77.669 Y60.358
X77.469 Y60.495
X77.279 Y60.609
X77.087 Y60.712
X76.871 Y60.812
X76.488 Y60.93
X76.091 Y60.984
X75.69 Y60.971
X75.297 Y60.892
X74.923 Y60.75
X74.576 Y60.547
X74.268 Y60.291
X74.007 Y59.987
X73.133 Y58.784
G3 X73.57 Y56.963 I1.053 J-0.71
G1 X77.412 Y54.832
G3 X79.029 Y55.161 I0.616 J1.111
G1 X79.855 Y56.297
X79.937 Y56.423
X80.01 Y56.554
X80.075 Y56.689
X80.132 Y56.828
X80.18 Y56.971
X80.224 Y57.127
X80.262 Y57.295
X80.291 Y57.472
X80.312 Y57.656
X80.323 Y57.852
Y58.058
X80.312 Y58.27
X80.289 Y58.487
X80.253 Y58.708
X80.204 Y58.933
X80.141 Y59.162
X80.065 Y59.392
X79.973 Y59.623
X79.867 Y59.853
X79.747 Y60.08
X79.613 Y60.304
X79.474 Y60.511
X79.327 Y60.704
X79.161 Y60.9
X79.001 Y61.07
X78.829 Y61.234
X78.643 Y61.392
X78.467 Y61.527
X78.274 Y61.658
X78.074 Y61.778
X77.942 Y61.848
X77.543 Y62.017
X77.12 Y62.112
X76.686 Y62.13
X76.257 Y62.07
X75.844 Y61.936
X75.463 Y61.729
X75.124 Y61.459
X74.838 Y61.132
X74.007 Y59.987
G3 X74.423 Y58.178 I1.053 J-0.71
G1 X78.217 Y55.98
G3 X79.855 Y56.297 I0.637 J1.099
G1 X80.639 Y57.377
X80.748 Y57.544
X80.823 Y57.674
X80.889 Y57.809
X80.947 Y57.947
X80.996 Y58.089
X81.041 Y58.245
X81.08 Y58.41
X81.11 Y58.584
X81.132 Y58.77
X81.145 Y58.967
X81.147 Y59.172
X81.137 Y59.383
X81.116 Y59.601
X81.082 Y59.823
X81.034 Y60.05
X80.972 Y60.281
X80.896 Y60.514
X80.806 Y60.746
X80.702 Y60.978
X80.585 Y61.204
X80.461 Y61.413
X80.314 Y61.635
X80.165 Y61.835
X80.017 Y62.012
X79.845 Y62.197
X79.672 Y62.364
X79.505 Y62.509
X79.314 Y62.656
X79.121 Y62.79
X78.938 Y62.902
X78.859 Y62.945
X78.491 Y63.108
X78.102 Y63.21
X77.702 Y63.248
X77.3 Y63.223
X76.908 Y63.134
X76.535 Y62.984
X76.191 Y62.776
X75.884 Y62.516
X75.622 Y62.21
X74.838 Y61.132
G3 X75.235 Y59.335 I1.053 J-0.71
G1 X78.982 Y57.072
G3 X80.639 Y57.377 I0.657 J1.087
G1 X81.469 Y58.519
X81.573 Y58.679
X81.648 Y58.809
X81.714 Y58.943
X81.772 Y59.082
X81.822 Y59.224
X81.867 Y59.38
X81.906 Y59.546
X81.937 Y59.721
X81.959 Y59.905
X81.972 Y60.102
X81.974 Y60.308
X81.965 Y60.52
X81.944 Y60.738
X81.911 Y60.96
X81.863 Y61.187
X81.802 Y61.417
X81.727 Y61.65
X81.637 Y61.883
X81.533 Y62.115
X81.42 Y62.334
X81.297 Y62.544
X81.154 Y62.76
X81.014 Y62.949
X80.859 Y63.134
X80.693 Y63.314
X80.532 Y63.47
X80.351 Y63.627
X80.166 Y63.771
X79.988 Y63.894
X79.785 Y64.019
X79.587 Y64.127
X79.554 Y64.142
X79.148 Y64.294
X78.722 Y64.373
X78.288 Y64.378
X77.86 Y64.308
X77.451 Y64.165
X77.072 Y63.953
X76.736 Y63.68
X76.452 Y63.352
X75.622 Y62.21
G3 X76.038 Y60.402 I1.053 J-0.71
G1 X79.831 Y58.202
G3 X81.469 Y58.519 I0.637 J1.099
G1 X82.288 Y59.647
X82.401 Y59.82
X82.477 Y59.95
X82.543 Y60.085
X82.6 Y60.223
X82.65 Y60.365
X82.695 Y60.521
X82.734 Y60.687
X82.765 Y60.862
X82.787 Y61.046
X82.8 Y61.241
X82.803 Y61.446
X82.794 Y61.657
X82.773 Y61.873
X82.739 Y62.094
X82.693 Y62.319
X82.632 Y62.547
X82.558 Y62.778
X82.469 Y63.008
X82.365 Y63.239
X82.248 Y63.467
X82.123 Y63.679
X81.991 Y63.879
X81.837 Y64.087
X81.686 Y64.269
X81.53 Y64.438
X81.35 Y64.612
X81.177 Y64.762
X81.002 Y64.898
X80.802 Y65.037
X80.611 Y65.155
X80.423 Y65.257
X80.372 Y65.281
X79.968 Y65.432
X79.543 Y65.511
X79.111 Y65.516
X78.685 Y65.446
X78.277 Y65.304
X77.9 Y65.093
X77.565 Y64.821
X77.281 Y64.494
X76.452 Y63.352
G3 X76.863 Y61.546 I1.053 J-0.71
G1 X80.646 Y59.333
G3 X82.288 Y59.647 I0.641 J1.096
G1 X83.141 Y60.82
X83.23 Y60.957
X83.305 Y61.086
X83.371 Y61.221
X83.429 Y61.36
X83.478 Y61.501
X83.523 Y61.656
X83.562 Y61.823
X83.593 Y61.998
X83.615 Y62.182
X83.628 Y62.376
X83.63 Y62.581
X83.621 Y62.793
X83.6 Y63.009
X83.567 Y63.23
X83.52 Y63.455
X83.459 Y63.683
X83.384 Y63.913
X83.295 Y64.145
X83.191 Y64.376
X83.074 Y64.604
X82.949 Y64.817
X82.816 Y65.017
X82.661 Y65.225
X82.509 Y65.408
X82.353 Y65.577
X82.173 Y65.751
X82 Y65.901
X81.824 Y66.038
X81.624 Y66.176
X81.433 Y66.294
X81.244 Y66.396
X81.192 Y66.421
X80.789 Y66.572
X80.365 Y66.65
X79.935 Y66.655
X79.51 Y66.585
X79.103 Y66.443
X78.728 Y66.233
X78.393 Y65.962
X78.111 Y65.637
X77.281 Y64.494
G3 X77.703 Y62.683 I1.053 J-0.71
G1 X81.508 Y60.5
G3 X83.141 Y60.82 I0.632 J1.102
G1 X83.982 Y61.977
X84.064 Y62.103
X84.138 Y62.233
X84.203 Y62.368
X84.26 Y62.507
X84.309 Y62.649
X84.353 Y62.804
X84.392 Y62.972
X84.422 Y63.149
X84.443 Y63.334
X84.455 Y63.528
X84.457 Y63.733
X84.447 Y63.946
X84.424 Y64.163
X84.39 Y64.385
X84.342 Y64.61
X84.28 Y64.839
X84.204 Y65.069
X84.113 Y65.301
X84.008 Y65.532
X83.89 Y65.759
X83.764 Y65.971
X83.629 Y66.172
X83.474 Y66.38
X83.322 Y66.561
X83.163 Y66.73
X82.983 Y66.903
X82.81 Y67.052
X82.632 Y67.189
X82.432 Y67.326
X82.242 Y67.442
X82.052 Y67.544
X81.837 Y67.645
X81.454 Y67.764
X81.058 Y67.819
X80.658 Y67.807
X80.265 Y67.729
X79.891 Y67.587
X79.545 Y67.385
X79.237 Y67.129
X78.976 Y66.826
X78.111 Y65.637
G3 X78.537 Y63.822 I1.053 J-0.71
G1 X82.354 Y61.655
G3 X83.982 Y61.977 I0.627 J1.104
G1 X84.815 Y63.125
X84.897 Y63.25
X84.971 Y63.381
X85.035 Y63.517
X85.091 Y63.656
X85.14 Y63.799
X85.184 Y63.955
X85.221 Y64.124
X85.251 Y64.302
X85.271 Y64.487
X85.282 Y64.682
X85.283 Y64.889
X85.272 Y65.102
X85.249 Y65.32
X85.213 Y65.542
X85.163 Y65.769
X85.1 Y65.997
X85.023 Y66.228
X84.931 Y66.46
X84.824 Y66.691
X84.704 Y66.918
X84.57 Y67.143
X84.431 Y67.348
X84.283 Y67.543
X84.118 Y67.738
X83.958 Y67.907
X83.785 Y68.072
X83.6 Y68.229
X83.424 Y68.363
X83.23 Y68.494
X83.031 Y68.614
X82.843 Y68.714
X82.806 Y68.732
X82.41 Y68.875
X81.995 Y68.949
X81.573 Y68.951
X81.158 Y68.88
X80.761 Y68.74
X80.393 Y68.533
X80.067 Y68.267
X79.791 Y67.948
X78.976 Y66.826
G3 X79.388 Y65.019 I1.053 J-0.71
G1 X83.174 Y62.81
G3 X84.815 Y63.125 I0.64 J1.097
G1 X85.617 Y64.229
X85.71 Y64.37
X85.785 Y64.5
X85.851 Y64.635
X85.908 Y64.773
X85.958 Y64.916
X86.003 Y65.072
X86.041 Y65.237
X86.072 Y65.412
X86.094 Y65.598
X86.107 Y65.796
X86.109 Y66.001
X86.1 Y66.212
X86.078 Y66.43
X86.044 Y66.653
X85.997 Y66.88
X85.935 Y67.112
X85.859 Y67.345
X85.769 Y67.578
X85.665 Y67.809
X85.546 Y68.038
X85.418 Y68.255
X85.287 Y68.454
X85.131 Y68.663
X84.976 Y68.848
X84.821 Y69.016
X84.641 Y69.19
X84.466 Y69.341
X84.292 Y69.476
X84.092 Y69.614
X83.9 Y69.732
X83.713 Y69.834
X83.68 Y69.849
X83.277 Y69.999
X82.854 Y70.077
X82.423 Y70.081
X81.999 Y70.011
X81.592 Y69.869
X81.217 Y69.659
X80.883 Y69.388
X80.6 Y69.063
X79.791 Y67.948
G3 X80.198 Y66.145 I1.053 J-0.71
G1 X83.971 Y63.917
G3 X85.617 Y64.229 I0.646 J1.094
G1 X86.447 Y65.371
X86.536 Y65.508
X86.611 Y65.638
X86.678 Y65.772
X86.735 Y65.911
X86.785 Y66.052
X86.831 Y66.209
X86.869 Y66.376
X86.9 Y66.551
X86.923 Y66.736
X86.936 Y66.932
X86.938 Y67.138
X86.929 Y67.35
X86.908 Y67.568
X86.875 Y67.789
X86.828 Y68.016
X86.767 Y68.246
X86.692 Y68.478
X86.602 Y68.711
X86.498 Y68.942
X86.38 Y69.17
X86.255 Y69.384
X86.124 Y69.583
X85.969 Y69.791
X85.817 Y69.974
X85.662 Y70.142
X85.482 Y70.316
X85.309 Y70.466
X85.134 Y70.602
X84.935 Y70.74
X84.744 Y70.858
X84.556 Y70.96
X84.502 Y70.986
X84.099 Y71.136
X83.677 Y71.215
X83.248 Y71.22
X82.825 Y71.15
X82.419 Y71.009
X82.045 Y70.8
X81.712 Y70.529
X81.43 Y70.205
X80.6 Y69.063
G3 X81.016 Y67.254 I1.053 J-0.71
G1 X84.809 Y65.054
G3 X86.447 Y65.371 I0.637 J1.099
G1 X87.259 Y66.488
X87.365 Y66.651
X87.44 Y66.781
X87.506 Y66.916
X87.564 Y67.054
X87.614 Y67.196
X87.659 Y67.351
X87.698 Y67.518
X87.729 Y67.694
X87.751 Y67.878
X87.764 Y68.073
X87.767 Y68.278
X87.758 Y68.49
X87.737 Y68.707
X87.703 Y68.928
X87.656 Y69.154
X87.595 Y69.383
X87.521 Y69.613
X87.431 Y69.845
X87.328 Y70.076
X87.21 Y70.304
X87.085 Y70.518
X86.953 Y70.718
X86.797 Y70.927
X86.645 Y71.11
X86.489 Y71.279
X86.309 Y71.453
X86.135 Y71.604
X85.96 Y71.74
X85.76 Y71.879
X85.57 Y71.996
X85.381 Y72.099
X85.323 Y72.126
X84.922 Y72.276
X84.501 Y72.355
X84.073 Y72.359
X83.651 Y72.29
X83.247 Y72.149
X82.873 Y71.94
X82.541 Y71.67
X82.26 Y71.347
X81.43 Y70.205
G3 X81.838 Y68.4 I1.053 J-0.71
G1 X85.613 Y66.176
G3 X87.259 Y66.488 I0.645 J1.094
G1 X88.105 Y67.653
X88.194 Y67.789
X88.269 Y67.919
X88.335 Y68.053
X88.393 Y68.192
X88.442 Y68.333
X88.487 Y68.489
X88.526 Y68.656
X88.557 Y68.831
X88.579 Y69.015
X88.592 Y69.21
X88.595 Y69.415
X88.586 Y69.627
X88.565 Y69.844
X88.531 Y70.065
X88.484 Y70.291
X88.423 Y70.52
X88.349 Y70.751
X88.259 Y70.983
X88.155 Y71.214
X88.038 Y71.442
X87.912 Y71.656
X87.779 Y71.857
X87.624 Y72.066
X87.471 Y72.25
X87.315 Y72.419
X87.134 Y72.593
X86.961 Y72.744
X86.785 Y72.88
X86.585 Y73.019
X86.395 Y73.136
X86.206 Y73.239
X86.147 Y73.267
X85.746 Y73.417
X85.326 Y73.495
X84.899 Y73.499
X84.478 Y73.43
X84.074 Y73.289
X83.701 Y73.081
X83.37 Y72.811
X83.09 Y72.489
X82.26 Y71.347
G3 X82.675 Y69.538 I1.053 J-0.71
G1 X86.466 Y67.337
G3 X87.73 Y67.329 I0.638 J1.098
X88.105 Y67.653 I-0.625 J1.105
G1 X88.934 Y68.794
X89.021 Y68.928
X89.096 Y69.057
X89.162 Y69.192
X89.22 Y69.331
X89.27 Y69.472
X89.315 Y69.627
X89.354 Y69.794
X89.385 Y69.97
X89.407 Y70.154
X89.42 Y70.348
X89.422 Y70.554
X89.413 Y70.766
X89.392 Y70.983
X89.358 Y71.204
X89.311 Y71.43
X89.25 Y71.659
X89.175 Y71.89
X89.086 Y72.123
X88.982 Y72.354
X88.864 Y72.582
X88.738 Y72.796
X88.606 Y72.997
X88.45 Y73.207
X88.297 Y73.39
X88.14 Y73.559
X87.96 Y73.734
X87.786 Y73.884
X87.611 Y74.021
X87.411 Y74.159
X87.22 Y74.277
X87.032 Y74.379
X86.817 Y74.481
X86.434 Y74.602
X86.036 Y74.658
X85.635 Y74.648
X85.24 Y74.57
X84.864 Y74.429
X84.517 Y74.227
X84.207 Y73.97
X83.945 Y73.666
X83.09 Y72.489
G3 X83.504 Y70.68 I1.053 J-0.71
G1 X87.295 Y68.478
G3 X88.934 Y68.794 I0.638 J1.098
G1 X89.776 Y69.952
X89.858 Y70.078
X89.932 Y70.208
X89.997 Y70.343
X90.054 Y70.482
X90.103 Y70.624
X90.147 Y70.78
X90.185 Y70.949
X90.215 Y71.126
X90.237 Y71.311
X90.248 Y71.506
X90.25 Y71.712
X90.239 Y71.925
X90.217 Y72.143
X90.182 Y72.366
X90.133 Y72.592
X90.071 Y72.821
X89.995 Y73.052
X89.904 Y73.284
X89.799 Y73.515
X89.679 Y73.744
X89.546 Y73.969
X89.408 Y74.174
X89.261 Y74.37
X89.097 Y74.565
X88.938 Y74.735
X88.765 Y74.9
X88.581 Y75.058
X88.406 Y75.193
X88.213 Y75.325
X88.014 Y75.446
X87.826 Y75.547
X87.8 Y75.559
X87.4 Y75.706
X86.98 Y75.782
X86.554 Y75.785
X86.133 Y75.714
X85.731 Y75.573
X85.359 Y75.364
X85.029 Y75.095
X84.749 Y74.773
X83.945 Y73.666
G3 X84.354 Y71.861 I1.053 J-0.71
G1 X88.131 Y69.639
G3 X89.776 Y69.952 I0.644 J1.095
G1 X90.596 Y71.081
X90.678 Y71.207
X90.753 Y71.337
X90.819 Y71.471
X90.876 Y71.61
X90.926 Y71.752
X90.971 Y71.908
X91.01 Y72.075
X91.04 Y72.25
X91.063 Y72.436
X91.075 Y72.633
X91.078 Y72.839
X91.068 Y73.051
X91.047 Y73.269
X91.013 Y73.492
X90.965 Y73.719
X90.903 Y73.951
X90.828 Y74.184
X90.737 Y74.417
X90.633 Y74.649
X90.514 Y74.878
X90.388 Y75.092
X90.256 Y75.291
X90.101 Y75.499
X89.949 Y75.682
X89.793 Y75.85
X89.613 Y76.024
X89.439 Y76.174
X89.265 Y76.309
X89.065 Y76.448
X88.875 Y76.565
X88.687 Y76.667
X88.63 Y76.694
X88.23 Y76.842
X87.811 Y76.92
X87.384 Y76.924
X86.964 Y76.855
X86.561 Y76.714
X86.189 Y76.506
X85.858 Y76.237
X85.579 Y75.915
X84.749 Y74.773
G3 X85.165 Y72.964 I1.053 J-0.71
G1 X88.958 Y70.764
G3 X90.596 Y71.081 I0.637 J1.099
G1 X91.42 Y72.216
X91.505 Y72.346
X91.58 Y72.476
X91.646 Y72.61
X91.704 Y72.749
X91.754 Y72.891
X91.799 Y73.047
X91.838 Y73.214
X91.869 Y73.389
X91.892 Y73.574
X91.905 Y73.77
X91.907 Y73.976
X91.898 Y74.188
X91.877 Y74.405
X91.844 Y74.626
X91.797 Y74.853
X91.736 Y75.082
X91.661 Y75.313
X91.571 Y75.546
X91.468 Y75.777
X91.35 Y76.005
X91.224 Y76.22
X91.092 Y76.42
X90.936 Y76.63
X90.783 Y76.814
X90.627 Y76.983
X90.447 Y77.157
X90.273 Y77.308
X90.098 Y77.444
X89.898 Y77.583
X89.708 Y77.7
X89.52 Y77.803
X89.457 Y77.833
X89.058 Y77.982
X88.639 Y78.06
X88.213 Y78.064
X87.793 Y77.995
X87.391 Y77.855
X87.019 Y77.647
X86.688 Y77.379
X86.409 Y77.057
X85.579 Y75.915
G3 X85.992 Y74.107 I1.053 J-0.71
G1 X89.78 Y71.9
G3 X91.045 Y71.892 I0.639 J1.097
X91.42 Y72.216 I-0.625 J1.105
G1 X92.277 Y73.395
X92.359 Y73.52
X92.431 Y73.652
X92.495 Y73.788
X92.55 Y73.927
X92.598 Y74.072
X92.641 Y74.229
X92.678 Y74.399
X92.707 Y74.58
X92.727 Y74.768
X92.737 Y74.964
X92.736 Y75.17
X92.724 Y75.385
X92.699 Y75.605
X92.661 Y75.83
X92.61 Y76.057
X92.546 Y76.287
X92.467 Y76.517
X92.374 Y76.748
X92.266 Y76.979
X92.144 Y77.206
X92.017 Y77.416
X91.877 Y77.621
X91.721 Y77.825
X91.569 Y78.001
X91.404 Y78.175
X91.224 Y78.343
X91.053 Y78.487
X90.869 Y78.626
X90.67 Y78.759
X90.483 Y78.871
X90.286 Y78.974
X90.25 Y78.99
X89.854 Y79.132
X89.439 Y79.204
X89.018
X88.603 Y79.132
X88.207 Y78.991
X87.84 Y78.784
X87.514 Y78.517
X87.238 Y78.199
X86.409 Y77.057
G3 X86.833 Y75.243 I1.053 J-0.71
G1 X90.648 Y73.073
G3 X92.277 Y73.395 I0.628 J1.104
G1 X93.069 Y74.485
X93.164 Y74.631
X93.239 Y74.761
X93.305 Y74.895
X93.363 Y75.034
X93.413 Y75.178
X93.458 Y75.334
X93.496 Y75.498
X93.527 Y75.673
X93.549 Y75.86
X93.562 Y76.056
X93.564 Y76.261
X93.555 Y76.471
X93.534 Y76.688
X93.5 Y76.91
X93.452 Y77.138
X93.39 Y77.369
X93.315 Y77.6
X93.225 Y77.832
X93.121 Y78.063
X93.004 Y78.29
X92.875 Y78.509
X92.744 Y78.707
X92.588 Y78.915
X92.433 Y79.102
X92.278 Y79.268
X92.098 Y79.442
X91.922 Y79.595
X91.748 Y79.73
X91.549 Y79.868
X91.356 Y79.986
X91.169 Y80.088
X91.107 Y80.117
X90.709 Y80.265
X90.291 Y80.342
X89.867 Y80.346
X89.448 Y80.277
X89.047 Y80.137
X88.676 Y79.93
X88.347 Y79.662
X88.068 Y79.341
X87.238 Y78.199
G3 X87.047 Y77.742 I1.053 J-0.71
X87.647 Y76.394 I1.244 J-0.253
G1 X91.425 Y74.173
G3 X92.694 Y74.162 I0.644 J1.095
X93.069 Y74.485 I-0.625 J1.105
G1 X93.887 Y75.611
X93.99 Y75.77
X94.065 Y75.899
X94.132 Y76.034
X94.189 Y76.173
X94.239 Y76.314
X94.284 Y76.47
X94.323 Y76.636
X94.354 Y76.812
X94.376 Y76.996
X94.389 Y77.191
X94.391 Y77.397
X94.382 Y77.609
X94.361 Y77.826
X94.328 Y78.047
X94.28 Y78.274
X94.219 Y78.504
X94.145 Y78.735
X94.055 Y78.967
X93.951 Y79.199
X93.833 Y79.427
X93.707 Y79.642
X93.574 Y79.843
X93.418 Y80.053
X93.265 Y80.237
X93.109 Y80.406
X92.928 Y80.581
X92.754 Y80.731
X92.579 Y80.868
X92.379 Y81.006
X92.189 Y81.124
X92 Y81.226
X91.786 Y81.328
X91.404 Y81.449
X91.007 Y81.505
X90.606 Y81.494
X90.213 Y81.417
X89.838 Y81.276
X89.491 Y81.074
X89.183 Y80.818
X88.921 Y80.515
X88.068 Y79.341
G3 X88.472 Y77.539 I1.053 J-0.71
G1 X92.237 Y75.301
G3 X93.887 Y75.611 I0.649 J1.092
G1 X94.744 Y76.791
X94.826 Y76.917
X94.901 Y77.047
X94.966 Y77.182
X95.023 Y77.321
X95.072 Y77.463
X95.117 Y77.619
X95.155 Y77.788
X95.185 Y77.965
X95.207 Y78.15
X95.219 Y78.345
X95.22 Y78.552
X95.21 Y78.765
X95.188 Y78.983
X95.153 Y79.206
X95.105 Y79.432
X95.043 Y79.662
X94.967 Y79.893
X94.876 Y80.126
X94.771 Y80.357
X94.652 Y80.585
X94.518 Y80.811
X94.38 Y81.017
X94.234 Y81.212
X94.069 Y81.408
X93.91 Y81.578
X93.738 Y81.743
X93.554 Y81.901
X93.379 Y82.036
X93.186 Y82.169
X92.988 Y82.29
X92.8 Y82.391
X92.767 Y82.406
X92.368 Y82.553
X91.95 Y82.629
X91.526 Y82.632
X91.107 Y82.563
X90.706 Y82.422
X90.335 Y82.214
X90.006 Y81.946
X89.728 Y81.625
X88.921 Y80.515
G3 X89.327 Y78.712 I1.053 J-0.71
G1 X93.097 Y76.48
G3 X94.744 Y76.791 I0.647 J1.093
G1 X95.574 Y77.933
X95.656 Y78.059
X95.73 Y78.189
X95.796 Y78.325
X95.852 Y78.463
X95.902 Y78.606
X95.946 Y78.763
X95.984 Y78.931
X96.015 Y79.108
X96.036 Y79.294
X96.048 Y79.492
X96.049 Y79.699
X96.039 Y79.912
X96.016 Y80.132
X95.981 Y80.355
X95.933 Y80.582
X95.87 Y80.814
X95.793 Y81.046
X95.702 Y81.28
X95.596 Y81.512
X95.476 Y81.741
X95.349 Y81.954
X95.215 Y82.154
X95.059 Y82.362
X94.907 Y82.543
X94.749 Y82.711
X94.569 Y82.884
X94.396 Y83.033
X94.219 Y83.168
X94.019 Y83.305
X93.83 Y83.421
X93.64 Y83.523
X93.587 Y83.547
X93.189 Y83.693
X92.773 Y83.769
X92.349 Y83.772
X91.932 Y83.702
X91.532 Y83.561
X91.163 Y83.354
X90.835 Y83.087
X90.557 Y82.767
X89.728 Y81.625
G3 X90.143 Y79.816 I1.053 J-0.71
G1 X93.936 Y77.617
G3 X95.199 Y77.61 I0.637 J1.099
X95.574 Y77.933 I-0.625 J1.105
G1 X96.391 Y79.057
X96.477 Y79.19
X96.552 Y79.32
X96.619 Y79.455
X96.676 Y79.593
X96.726 Y79.736
X96.772 Y79.893
X96.811 Y80.059
X96.842 Y80.234
X96.864 Y80.42
X96.877 Y80.617
X96.879 Y80.822
X96.87 Y81.034
X96.849 Y81.251
X96.816 Y81.473
X96.768 Y81.7
X96.707 Y81.93
X96.632 Y82.162
X96.542 Y82.395
X96.439 Y82.626
X96.321 Y82.854
X96.194 Y83.07
X96.062 Y83.269
X95.906 Y83.479
X95.753 Y83.664
X95.597 Y83.832
X95.416 Y84.007
X95.242 Y84.158
X95.068 Y84.294
X94.868 Y84.432
X94.677 Y84.55
X94.489 Y84.652
X94.424 Y84.683
X94.027 Y84.831
X93.609 Y84.909
X93.185 Y84.913
X92.766 Y84.844
X92.365 Y84.704
X91.995 Y84.497
X91.665 Y84.23
X91.387 Y83.909
X90.557 Y82.767
G3 X90.968 Y80.962 I1.053 J-0.71
G1 X94.747 Y78.744
G3 X96.391 Y79.057 I0.643 J1.095
G1 X97.241 Y80.227
X97.323 Y80.353
X97.396 Y80.484
X97.461 Y80.619
X97.517 Y80.758
X97.566 Y80.902
X97.609 Y81.059
X97.647 Y81.228
X97.677 Y81.407
X97.698 Y81.594
X97.709 Y81.789
Y81.996
X97.698 Y82.21
X97.674 Y82.429
X97.638 Y82.653
X97.589 Y82.88
X97.525 Y83.11
X97.448 Y83.34
X97.356 Y83.573
X97.249 Y83.804
X97.129 Y84.032
X97.002 Y84.244
X96.864 Y84.447
X96.708 Y84.654
X96.556 Y84.833
X96.394 Y85.005
X96.214 Y85.176
X96.041 Y85.323
X95.861 Y85.46
X95.661 Y85.595
X95.473 Y85.709
X95.28 Y85.812
X95.231 Y85.834
X94.835 Y85.978
X94.42 Y86.052
X93.999 Y86.053
X93.584 Y85.983
X93.186 Y85.842
X92.819 Y85.636
X92.493 Y85.369
X92.217 Y85.051
X91.387 Y83.909
G3 X91.806 Y82.099 I1.053 J-0.71
G1 X95.606 Y79.909
G3 X97.241 Y80.227 I0.634 J1.1
G1 X98.077 Y81.378
X98.159 Y81.504
X98.232 Y81.635
X98.295 Y81.771
X98.351 Y81.91
X98.399 Y82.055
X98.443 Y82.214
X98.48 Y82.384
X98.509 Y82.562
X98.529 Y82.75
X98.539 Y82.947
X98.538 Y83.155
X98.526 Y83.37
X98.501 Y83.589
X98.464 Y83.812
X98.413 Y84.04
X98.349 Y84.27
X98.27 Y84.501
X98.176 Y84.734
X98.068 Y84.965
X97.946 Y85.193
X97.818 Y85.405
X97.681 Y85.606
X97.523 Y85.812
X97.369 Y85.992
X97.208 Y86.161
X97.027 Y86.331
X96.853 Y86.477
X96.673 Y86.613
X96.473 Y86.748
X96.284 Y86.861
X96.09 Y86.962
X96.049 Y86.981
X95.654 Y87.122
X95.24 Y87.194
X94.821
X94.407 Y87.123
X94.012 Y86.982
X93.646 Y86.776
X93.321 Y86.51
X93.047 Y86.193
X92.217 Y85.051
G3 X92.638 Y83.239 I1.053 J-0.71
G1 X96.445 Y81.058
G3 X98.077 Y81.378 I0.631 J1.102
G1 X98.88 Y82.484
X98.966 Y82.616
X99.041 Y82.745
X99.107 Y82.88
X99.165 Y83.019
X99.215 Y83.163
X99.261 Y83.319
X99.299 Y83.484
X99.329 Y83.659
X99.352 Y83.846
X99.365 Y84.043
X99.367 Y84.247
X99.358 Y84.458
X99.336 Y84.675
X99.302 Y84.897
X99.254 Y85.125
X99.193 Y85.356
X99.117 Y85.588
X99.028 Y85.82
X98.924 Y86.051
X98.806 Y86.279
X98.677 Y86.497
X98.546 Y86.696
X98.39 Y86.905
X98.235 Y87.092
X98.08 Y87.258
X97.899 Y87.433
X97.723 Y87.585
X97.55 Y87.72
X97.35 Y87.858
X97.158 Y87.976
X97.009 Y88.057
X96.654 Y88.214
X96.279 Y88.313
X95.893 Y88.35
X95.506 Y88.326
X95.127 Y88.24
X94.767 Y88.095
X94.435 Y87.895
X94.139 Y87.644
X93.887 Y87.349
X93.047 Y86.193
G3 X93.457 Y84.388 I1.053 J-0.71
G1 X97.237 Y82.17
G3 X98.505 Y82.16 I0.643 J1.095
X98.88 Y82.484 I-0.625 J1.105
G1 X99.723 Y83.644
X99.805 Y83.769
X99.879 Y83.9
X99.944 Y84.035
X100 Y84.174
X100.049 Y84.317
X100.094 Y84.473
X100.132 Y84.642
X100.162 Y84.82
X100.183 Y85.006
X100.195 Y85.201
X100.196 Y85.408
X100.185 Y85.622
X100.162 Y85.841
X100.127 Y86.063
X100.078 Y86.29
X100.015 Y86.52
X99.939 Y86.751
X99.847 Y86.984
X99.741 Y87.215
X99.623 Y87.44
X99.495 Y87.655
X99.348 Y87.874
X99.204 Y88.065
X99.045 Y88.254
X98.877 Y88.433
X98.714 Y88.589
X98.529 Y88.748
X98.344 Y88.889
X98.164 Y89.012
X97.96 Y89.136
X97.764 Y89.241
X97.728 Y89.258
X97.331 Y89.403
X96.916 Y89.478
X96.493 Y89.48
X96.077 Y89.41
X95.679 Y89.27
X95.31 Y89.063
X94.983 Y88.796
X94.706 Y88.477
X93.887 Y87.349
G3 X94.298 Y85.543 I1.053 J-0.71
G1 X98.081 Y83.329
G3 X99.348 Y83.32 I0.641 J1.096
X99.723 Y83.644 I-0.625 J1.105
G1 X100.552 Y84.785
X100.634 Y84.911
X100.708 Y85.041
X100.773 Y85.176
X100.83 Y85.315
X100.879 Y85.458
X100.923 Y85.616
X100.961 Y85.784
X100.991 Y85.961
X101.012 Y86.147
X101.024 Y86.345
X101.025 Y86.552
X101.014 Y86.765
X100.991 Y86.984
X100.956 Y87.208
X100.907 Y87.434
X100.844 Y87.665
X100.766 Y87.898
X100.675 Y88.131
X100.569 Y88.363
X100.448 Y88.592
X100.321 Y88.806
X100.186 Y89.006
X100.029 Y89.214
X99.876 Y89.396
X99.718 Y89.564
X99.537 Y89.737
X99.363 Y89.885
X99.186 Y90.021
X98.986 Y90.157
X98.796 Y90.272
X98.606 Y90.374
X98.553 Y90.399
X98.157 Y90.544
X97.742 Y90.619
X97.32 Y90.621
X96.904 Y90.551
X96.507 Y90.411
X96.139 Y90.204
X95.812 Y89.938
X95.536 Y89.619
X94.706 Y88.477
G3 X94.514 Y88.02 I1.053 J-0.71
X95.122 Y86.669 I1.244 J-0.253
G1 X98.914 Y84.468
G3 X100.552 Y84.785 I0.637 J1.099
G1 X101.361 Y85.899
X101.453 Y86.038
X101.528 Y86.168
X101.594 Y86.303
X101.651 Y86.441
X101.701 Y86.584
X101.747 Y86.741
X101.785 Y86.907
X101.816 Y87.082
X101.839 Y87.268
X101.852 Y87.465
X101.854 Y87.67
X101.845 Y87.882
X101.824 Y88.099
X101.79 Y88.321
X101.742 Y88.548
X101.681 Y88.779
X101.606 Y89.011
X101.516 Y89.243
X101.412 Y89.475
X101.294 Y89.703
X101.167 Y89.919
X101.035 Y90.119
X100.879 Y90.329
X100.725 Y90.514
X100.569 Y90.682
X100.388 Y90.857
X100.214 Y91.008
X100.039 Y91.144
X99.84 Y91.282
X99.648 Y91.4
X99.461 Y91.502
X99.394 Y91.533
X98.998 Y91.681
X98.582 Y91.758
X98.158 Y91.763
X97.741 Y91.694
X97.341 Y91.554
X96.971 Y91.348
X96.643 Y91.081
X96.366 Y90.761
X95.536 Y89.619
G3 X95.943 Y87.816 I1.053 J-0.71
G1 X99.715 Y85.587
G3 X100.986 Y85.575 I0.646 J1.093
X101.361 Y85.899 I-0.625 J1.105
G1 X102.205 Y87.06
X102.287 Y87.186
X102.361 Y87.316
X102.427 Y87.451
X102.484 Y87.589
X102.534 Y87.732
X102.578 Y87.888
X102.617 Y88.056
X102.648 Y88.233
X102.669 Y88.418
X102.682 Y88.613
X102.683 Y88.82
X102.674 Y89.033
X102.652 Y89.251
X102.617 Y89.473
X102.569 Y89.7
X102.508 Y89.93
X102.432 Y90.161
X102.341 Y90.394
X102.236 Y90.626
X102.118 Y90.854
X101.991 Y91.069
X101.857 Y91.27
X101.7 Y91.48
X101.547 Y91.663
X101.389 Y91.832
X101.208 Y92.006
X101.035 Y92.156
X100.858 Y92.292
X100.658 Y92.43
X100.468 Y92.546
X100.279 Y92.648
X100.216 Y92.678
X99.82 Y92.824
X99.405 Y92.9
X98.983 Y92.904
X98.566 Y92.835
X98.168 Y92.695
X97.799 Y92.489
X97.472 Y92.222
X97.195 Y91.903
X96.366 Y90.761
G3 X96.778 Y88.954 I1.053 J-0.71
G1 X100.564 Y86.745
G3 X102.205 Y87.06 I0.64 J1.097
G1 X103.03 Y88.195
X103.112 Y88.321
X103.187 Y88.451
X103.253 Y88.585
X103.31 Y88.724
X103.36 Y88.866
X103.405 Y89.022
X103.444 Y89.189
X103.475 Y89.364
X103.497 Y89.549
X103.51 Y89.745
X103.512 Y89.951
X103.503 Y90.163
X103.482 Y90.38
X103.448 Y90.602
X103.401 Y90.829
X103.34 Y91.059
X103.265 Y91.291
X103.175 Y91.524
X103.071 Y91.756
X102.953 Y91.984
X102.826 Y92.2
X102.693 Y92.401
X102.537 Y92.611
X102.383 Y92.796
X102.226 Y92.964
X102.046 Y93.139
X101.871 Y93.29
X101.696 Y93.426
X101.497 Y93.565
X101.306 Y93.682
X101.118 Y93.785
X100.904 Y93.886
X100.522 Y94.007
X100.127 Y94.062
X99.727 Y94.051
X99.335 Y93.974
X98.961 Y93.834
X98.615 Y93.633
X98.307 Y93.378
X98.046 Y93.075
X97.195 Y91.903
G3 X97.606 Y90.098 I1.053 J-0.71
G1 X101.387 Y87.881
G3 X102.654 Y87.872 I0.642 J1.096
X103.03 Y88.195 I-0.625 J1.105
G1 X103.874 Y89.357
X103.956 Y89.483
X104.029 Y89.614
X104.094 Y89.749
X104.15 Y89.888
X104.199 Y90.032
X104.242 Y90.189
X104.28 Y90.359
X104.31 Y90.537
X104.33 Y90.724
X104.341 Y90.92
X104.342 Y91.127
X104.33 Y91.341
X104.307 Y91.561
X104.27 Y91.784
X104.221 Y92.012
X104.157 Y92.242
X104.08 Y92.472
X103.987 Y92.705
X103.881 Y92.936
X103.76 Y93.165
X103.625 Y93.39
X103.487 Y93.594
X103.337 Y93.791
X103.173 Y93.984
X103.015 Y94.152
X102.84 Y94.318
X102.656 Y94.474
X102.481 Y94.607
X102.286 Y94.74
X102.088 Y94.859
X101.901 Y94.958
X101.871 Y94.972
X101.475 Y95.116
X101.06 Y95.189
X100.638 Y95.191
X100.222 Y95.12
X99.825 Y94.979
X99.458 Y94.773
X99.131 Y94.506
X98.855 Y94.187
X98.046 Y93.075
G3 X98.454 Y91.271 I1.053 J-0.71
G1 X102.228 Y89.045
G3 X103.874 Y89.357 I0.645 J1.094
G1 X104.701 Y90.496
X104.783 Y90.621
X104.857 Y90.752
X104.922 Y90.888
X104.978 Y91.027
X105.027 Y91.171
X105.071 Y91.329
X105.109 Y91.497
X105.138 Y91.674
X105.159 Y91.862
X105.171 Y92.061
Y92.269
X105.16 Y92.483
X105.137 Y92.702
X105.101 Y92.925
X105.051 Y93.154
X104.987 Y93.386
X104.909 Y93.619
X104.817 Y93.852
X104.71 Y94.084
X104.589 Y94.313
X104.461 Y94.527
X104.327 Y94.726
X104.17 Y94.933
X104.017 Y95.114
X103.858 Y95.282
X103.677 Y95.454
X103.504 Y95.602
X103.327 Y95.737
X103.127 Y95.873
X102.937 Y95.987
X102.747 Y96.088
X102.697 Y96.111
X102.301 Y96.255
X101.887 Y96.329
X101.466 Y96.331
X101.051 Y96.261
X100.654 Y96.12
X100.287 Y95.914
X99.96 Y95.648
X99.684 Y95.33
X98.855 Y94.187
G3 X99.271 Y92.379 I1.053 J-0.71
G1 X103.063 Y90.179
G3 X104.701 Y90.496 I0.637 J1.099
G1 X105.523 Y91.626
X105.605 Y91.752
X105.679 Y91.882
X105.745 Y92.017
X105.802 Y92.156
X105.852 Y92.3
X105.897 Y92.457
X105.936 Y92.624
X105.966 Y92.8
X105.988 Y92.987
X106 Y93.184
X106.002 Y93.391
X105.992 Y93.603
X105.971 Y93.821
X105.936 Y94.043
X105.888 Y94.27
X105.826 Y94.501
X105.75 Y94.733
X105.659 Y94.966
X105.554 Y95.197
X105.436 Y95.425
X105.308 Y95.641
X105.175 Y95.84
X105.019 Y96.05
X104.865 Y96.234
X104.708 Y96.402
X104.527 Y96.576
X104.353 Y96.726
X104.178 Y96.861
X103.978 Y96.999
X103.786 Y97.116
X103.598 Y97.218
X103.537 Y97.247
X103.141 Y97.393
X102.725 Y97.469
X102.303 Y97.473
X101.886 Y97.403
X101.487 Y97.264
X101.119 Y97.057
X100.791 Y96.791
X100.514 Y96.472
X99.684 Y95.33
G3 X100.097 Y93.523 I1.053 J-0.71
G1 X103.881 Y91.312
G3 X105.147 Y91.303 I0.641 J1.097
X105.523 Y91.626 I-0.625 J1.105
G1 X106.332 Y92.74
X106.43 Y92.89
X106.505 Y93.02
X106.571 Y93.154
X106.629 Y93.293
X106.678 Y93.435
X106.724 Y93.591
X106.763 Y93.758
X106.793 Y93.933
X106.816 Y94.118
X106.829 Y94.314
X106.831 Y94.52
X106.822 Y94.732
X106.801 Y94.949
X106.767 Y95.17
X106.72 Y95.397
X106.659 Y95.628
X106.584 Y95.859
X106.494 Y96.092
X106.39 Y96.324
X106.272 Y96.552
X106.146 Y96.768
X106.013 Y96.968
X105.857 Y97.179
X105.703 Y97.364
X105.547 Y97.532
X105.366 Y97.707
X105.192 Y97.858
X105.017 Y97.994
X104.818 Y98.133
X104.627 Y98.25
X104.439 Y98.352
X104.371 Y98.384
X103.975 Y98.532
X103.559 Y98.61
X103.136 Y98.614
X102.718 Y98.546
X102.319 Y98.406
X101.95 Y98.2
X101.621 Y97.933
X101.344 Y97.614
X100.514 Y96.472
G3 X100.918 Y94.67 I1.053 J-0.71
G1 X104.682 Y92.431
G3 X106.332 Y92.74 I0.649 J1.091
G1 X107.169 Y93.893
X107.259 Y94.029
X107.334 Y94.159
X107.4 Y94.294
X107.458 Y94.432
X107.507 Y94.574
X107.553 Y94.73
X107.591 Y94.897
X107.622 Y95.072
X107.645 Y95.257
X107.658 Y95.452
X107.66 Y95.658
X107.651 Y95.871
X107.63 Y96.088
X107.597 Y96.31
X107.55 Y96.536
X107.489 Y96.766
X107.414 Y96.998
X107.324 Y97.231
X107.22 Y97.462
X107.102 Y97.691
X106.976 Y97.907
X106.843 Y98.108
X106.687 Y98.318
X106.533 Y98.503
X106.377 Y98.672
X106.196 Y98.847
X106.022 Y98.998
X105.847 Y99.134
X105.647 Y99.273
X105.457 Y99.39
X105.269 Y99.493
X105.055 Y99.595
X104.673 Y99.716
X104.277 Y99.771
X103.877 Y99.761
X103.484 Y99.684
X103.11 Y99.543
X102.763 Y99.342
X102.456 Y99.087
X102.194 Y98.784
X101.344 Y97.614
G3 X101.751 Y95.81 I1.053 J-0.71
G1 X105.522 Y93.581
G3 X107.169 Y93.893 I0.646 J1.093
G1 X107.982 Y95.012
X108.087 Y95.172
X108.162 Y95.302
X108.228 Y95.437
X108.286 Y95.575
X108.336 Y95.717
X108.381 Y95.872
X108.42 Y96.039
X108.451 Y96.215
X108.473 Y96.399
X108.486 Y96.594
X108.489 Y96.8
X108.48 Y97.013
X108.459 Y97.23
X108.425 Y97.452
X108.378 Y97.679
X108.317 Y97.908
X108.242 Y98.14
X108.152 Y98.373
X108.048 Y98.605
X107.93 Y98.833
X107.798 Y99.058
X107.66 Y99.267
X107.516 Y99.461
X107.351 Y99.659
X107.192 Y99.831
X107.023 Y99.995
X106.838 Y100.155
X106.662 Y100.292
X106.473 Y100.424
X106.273 Y100.547
X106.118 Y100.631
X105.722 Y100.803
X105.301 Y100.9
X104.87 Y100.921
X104.442 Y100.864
X104.032 Y100.732
X103.651 Y100.528
X103.314 Y100.259
X103.03 Y99.934
X102.194 Y98.784
G3 X102.585 Y96.99 I1.053 J-0.71
G1 X106.32 Y94.71
G3 X107.982 Y95.012 I0.662 J1.084
G1 X108.85 Y96.206
X108.932 Y96.332
X109.005 Y96.463
X109.07 Y96.598
X109.126 Y96.737
X109.175 Y96.881
X109.219 Y97.037
X109.256 Y97.207
X109.286 Y97.386
X109.307 Y97.574
X109.318 Y97.771
X109.319 Y97.977
X109.307 Y98.193
X109.284 Y98.414
X109.248 Y98.638
X109.198 Y98.866
X109.134 Y99.097
X109.057 Y99.329
X108.964 Y99.562
X108.857 Y99.794
X108.738 Y100.02
X108.611 Y100.232
X108.46 Y100.455
X108.312 Y100.65
X108.162 Y100.828
X107.986 Y101.014
X107.816 Y101.176
X107.647 Y101.319
X107.452 Y101.468
X107.262 Y101.597
X107.08 Y101.707
X106.872 Y101.817
X106.856 Y101.825
X106.459 Y101.969
X106.043 Y102.043
X105.62 Y102.045
X105.204 Y101.974
X104.806 Y101.833
X104.437 Y101.626
X104.11 Y101.359
X103.833 Y101.04
X103.03 Y99.934
G3 X103.434 Y98.132 I1.053 J-0.71
G1 X107.201 Y95.896
G3 X108.85 Y96.206 I0.648 J1.092
G1 X109.68 Y97.348
X109.762 Y97.474
X109.835 Y97.604
X109.9 Y97.74
X109.956 Y97.879
X110.005 Y98.023
X110.05 Y98.182
X110.088 Y98.351
X110.117 Y98.528
X110.138 Y98.715
X110.149 Y98.914
X110.15 Y99.123
X110.139 Y99.337
X110.116 Y99.556
X110.079 Y99.78
X110.03 Y100.009
X109.966 Y100.24
X109.888 Y100.474
X109.795 Y100.708
X109.689 Y100.939
X109.568 Y101.168
X109.44 Y101.381
X109.306 Y101.58
X109.149 Y101.787
X108.997 Y101.968
X108.838 Y102.136
X108.658 Y102.307
X108.484 Y102.455
X108.307 Y102.59
X108.107 Y102.726
X107.918 Y102.841
X107.727 Y102.942
X107.679 Y102.964
X107.283 Y103.108
X106.868 Y103.182
X106.446 Y103.184
X106.031 Y103.114
X105.633 Y102.973
X105.266 Y102.767
X104.939 Y102.5
X104.663 Y102.182
X103.833 Y101.04
G3 X104.249 Y99.231 I1.053 J-0.71
G1 X108.042 Y97.031
G3 X109.68 Y97.348 I0.637 J1.099
G1 X110.493 Y98.468
X110.579 Y98.599
X110.654 Y98.729
X110.72 Y98.864
X110.778 Y99.002
X110.828 Y99.146
X110.874 Y99.303
X110.913 Y99.469
X110.943 Y99.644
X110.966 Y99.831
X110.979 Y100.028
X110.981 Y100.234
X110.972 Y100.445
X110.951 Y100.662
X110.917 Y100.884
X110.87 Y101.112
X110.809 Y101.343
X110.733 Y101.575
X110.644 Y101.807
X110.54 Y102.038
X110.422 Y102.266
X110.295 Y102.483
X110.163 Y102.682
X110.008 Y102.892
X109.853 Y103.078
X109.698 Y103.245
X109.518 Y103.42
X109.342 Y103.572
X109.169 Y103.707
X108.969 Y103.845
X108.777 Y103.963
X108.59 Y104.065
X108.524 Y104.096
X108.127 Y104.244
X107.711 Y104.322
X107.287 Y104.326
X106.869 Y104.257
X106.469 Y104.118
X106.099 Y103.911
X105.77 Y103.644
X105.493 Y103.324
X104.663 Y102.182
G3 X105.072 Y100.377 I1.053 J-0.71
G1 X108.849 Y98.155
G3 X110.493 Y98.468 I0.644 J1.095
G1 X111.341 Y99.635
X111.423 Y99.76
X111.496 Y99.891
X111.561 Y100.026
X111.618 Y100.165
X111.666 Y100.309
X111.711 Y100.465
X111.749 Y100.635
X111.779 Y100.813
X111.8 Y101
X111.811 Y101.195
X111.812 Y101.402
X111.801 Y101.616
X111.778 Y101.835
X111.742 Y102.058
X111.693 Y102.286
X111.63 Y102.515
X111.553 Y102.746
X111.461 Y102.979
X111.355 Y103.21
X111.235 Y103.438
X111.107 Y103.651
X110.971 Y103.854
X110.814 Y104.061
X110.662 Y104.242
X110.501 Y104.412
X110.32 Y104.584
X110.148 Y104.732
X109.968 Y104.869
X109.769 Y105.005
X109.58 Y105.119
X109.388 Y105.222
X109.335 Y105.246
X108.939 Y105.39
X108.525 Y105.464
X108.104 Y105.467
X107.689 Y105.396
X107.292 Y105.256
X106.925 Y105.05
X106.598 Y104.784
X106.322 Y104.466
X105.493 Y103.324
G3 X105.909 Y101.515 I1.053 J-0.71
G1 X109.704 Y99.317
G3 X111.341 Y99.635 I0.636 J1.099
G1 X112.173 Y100.779
X112.255 Y100.905
X112.328 Y101.036
X112.393 Y101.171
X112.449 Y101.31
X112.498 Y101.454
X112.542 Y101.612
X112.579 Y101.781
X112.609 Y101.959
X112.63 Y102.145
X112.641 Y102.342
Y102.55
X112.63 Y102.764
X112.606 Y102.982
X112.57 Y103.205
X112.52 Y103.433
X112.457 Y103.663
X112.379 Y103.894
X112.287 Y104.128
X112.18 Y104.359
X112.059 Y104.587
X111.931 Y104.801
X111.796 Y105.001
X111.638 Y105.209
X111.484 Y105.39
X111.325 Y105.559
X111.143 Y105.731
X110.97 Y105.879
X110.791 Y106.014
X110.591 Y106.15
X110.401 Y106.265
X110.21 Y106.366
X109.996 Y106.465
X109.62 Y106.581
X109.23 Y106.632
X108.836 Y106.619
X108.451 Y106.541
X108.083 Y106.401
X107.744 Y106.203
X107.441 Y105.951
X107.185 Y105.653
X106.322 Y104.466
G3 X106.74 Y102.656 I1.053 J-0.71
G1 X110.537 Y100.462
G3 X111.797 Y100.456 I0.635 J1.1
X112.173 Y100.779 I-0.625 J1.105
G1 X113.012 Y101.935
X113.094 Y102.061
X113.167 Y102.192
X113.23 Y102.328
X113.285 Y102.468
X113.333 Y102.613
X113.377 Y102.772
X113.413 Y102.943
X113.442 Y103.122
X113.461 Y103.31
X113.471 Y103.507
X113.47 Y103.716
X113.457 Y103.931
X113.432 Y104.151
X113.395 Y104.374
X113.343 Y104.602
X113.278 Y104.832
X113.199 Y105.064
X113.104 Y105.297
X112.996 Y105.528
X112.873 Y105.756
X112.737 Y105.98
X112.596 Y106.185
X112.446 Y106.38
X112.28 Y106.574
X112.119 Y106.741
X111.943 Y106.906
X111.759 Y107.06
X111.583 Y107.193
X111.387 Y107.324
X111.189 Y107.441
X111.001 Y107.539
X110.992 Y107.544
X110.596 Y107.684
X110.181 Y107.756
X109.76 Y107.755
X109.346 Y107.683
X108.95 Y107.542
X108.583 Y107.335
X108.258 Y107.068
X107.982 Y106.75
X107.185 Y105.653
G3 X107.593 Y103.849 I1.053 J-0.71
G1 X111.367 Y101.623
G3 X113.012 Y101.935 I0.645 J1.094
G1 X113.829 Y103.058
X113.91 Y103.184
X113.984 Y103.314
X114.049 Y103.45
X114.106 Y103.589
X114.155 Y103.734
X114.2 Y103.892
X114.237 Y104.059
X114.266 Y104.236
X114.288 Y104.425
X114.299 Y104.624
X114.3 Y104.831
X114.289 Y105.044
X114.266 Y105.264
X114.23 Y105.488
X114.18 Y105.717
X114.116 Y105.951
X114.038 Y106.184
X113.946 Y106.417
X113.839 Y106.649
X113.718 Y106.878
X113.59 Y107.094
X113.457 Y107.29
X113.3 Y107.497
X113.146 Y107.68
X112.99 Y107.845
X112.809 Y108.017
X112.635 Y108.166
X112.459 Y108.3
X112.259 Y108.436
X112.069 Y108.552
X111.88 Y108.652
X111.831 Y108.675
X111.435 Y108.819
X111.019 Y108.893
X110.597 Y108.895
X110.181 Y108.825
X109.783 Y108.684
X109.415 Y108.478
X109.088 Y108.211
X108.812 Y107.892
X107.982 Y106.75
G3 X108.398 Y104.942 I1.053 J-0.71
G1 X112.19 Y102.742
G3 X113.453 Y102.735 I0.637 J1.099
X113.829 Y103.058 I-0.625 J1.105
G1 X114.655 Y104.195
X114.737 Y104.321
X114.811 Y104.451
X114.876 Y104.587
X114.933 Y104.725
X114.983 Y104.87
X115.028 Y105.028
X115.066 Y105.195
X115.096 Y105.372
X115.118 Y105.559
X115.13 Y105.757
X115.131 Y105.964
X115.121 Y106.177
X115.099 Y106.395
X115.064 Y106.617
X115.015 Y106.844
X114.953 Y107.075
X114.876 Y107.307
X114.785 Y107.54
X114.68 Y107.771
X114.561 Y107.999
X114.433 Y108.214
X114.3 Y108.413
X114.143 Y108.621
X113.99 Y108.805
X113.832 Y108.972
X113.651 Y109.146
X113.477 Y109.295
X113.301 Y109.431
X113.101 Y109.568
X112.911 Y109.684
X112.722 Y109.786
X112.665 Y109.812
X112.268 Y109.958
X111.852 Y110.034
X111.43 Y110.036
X111.013 Y109.967
X110.615 Y109.827
X110.246 Y109.62
X109.918 Y109.353
X109.641 Y109.034
X108.812 Y107.892
G3 X109.226 Y106.084 I1.053 J-0.71
G1 X113.015 Y103.88
G3 X114.655 Y104.195 I0.639 J1.098
G1 X115.464 Y105.309
X115.559 Y105.455
X115.634 Y105.585
X115.7 Y105.72
X115.758 Y105.858
X115.808 Y106.001
X115.854 Y106.157
X115.892 Y106.324
X115.923 Y106.499
X115.945 Y106.684
X115.958 Y106.88
X115.961 Y107.086
X115.952 Y107.298
X115.931 Y107.515
X115.897 Y107.736
X115.85 Y107.963
X115.788 Y108.194
X115.713 Y108.425
X115.623 Y108.658
X115.52 Y108.889
X115.402 Y109.118
X115.275 Y109.334
X115.143 Y109.533
X114.986 Y109.744
X114.833 Y109.929
X114.677 Y110.097
X114.496 Y110.271
X114.322 Y110.423
X114.147 Y110.558
X113.947 Y110.697
X113.756 Y110.815
X113.568 Y110.917
X113.502 Y110.948
X113.106 Y111.096
X112.689 Y111.174
X112.265 Y111.178
X111.847 Y111.109
X111.447 Y110.97
X111.078 Y110.763
X110.749 Y110.496
X110.471 Y110.176
X109.641 Y109.034
G3 X110.047 Y107.231 I1.053 J-0.71
G1 X113.816 Y104.998
G3 X115.464 Y105.309 I0.647 J1.093
G1 X116.305 Y106.467
X116.388 Y106.594
X116.463 Y106.724
X116.529 Y106.859
X116.587 Y106.997
X116.637 Y107.139
X116.682 Y107.295
X116.721 Y107.462
X116.752 Y107.637
X116.775 Y107.822
X116.787 Y108.017
X116.79 Y108.223
X116.781 Y108.435
X116.76 Y108.653
X116.726 Y108.874
X116.679 Y109.101
X116.618 Y109.331
X116.543 Y109.562
X116.454 Y109.795
X116.35 Y110.027
X116.232 Y110.255
X116.106 Y110.471
X115.973 Y110.672
X115.817 Y110.882
X115.664 Y111.067
X115.507 Y111.236
X115.326 Y111.411
X115.152 Y111.562
X114.977 Y111.698
X114.777 Y111.837
X114.587 Y111.954
X114.399 Y112.057
X114.331 Y112.089
X113.934 Y112.237
X113.518 Y112.315
X113.095 Y112.319
X112.677 Y112.251
X112.277 Y112.111
X111.907 Y111.905
X111.578 Y111.638
X111.301 Y111.318
X110.471 Y110.176
G3 X110.882 Y108.37 I1.053 J-0.71
G1 X114.662 Y106.153
G3 X115.93 Y106.144 I0.642 J1.096
X116.305 Y106.467 I-0.625 J1.105
G1 X117.125 Y107.596
X117.217 Y107.736
X117.292 Y107.866
X117.358 Y108.001
X117.416 Y108.139
X117.466 Y108.281
X117.511 Y108.436
X117.55 Y108.603
X117.581 Y108.779
X117.603 Y108.963
X117.616 Y109.158
X117.618 Y109.365
X117.609 Y109.577
X117.588 Y109.794
X117.555 Y110.016
X117.508 Y110.242
X117.447 Y110.472
X117.372 Y110.704
X117.282 Y110.937
X117.178 Y111.168
X117.06 Y111.397
X116.934 Y111.612
X116.801 Y111.814
X116.644 Y112.024
X116.491 Y112.208
X116.335 Y112.378
X116.154 Y112.553
X115.98 Y112.704
X115.805 Y112.84
X115.605 Y112.979
X115.415 Y113.096
X115.226 Y113.198
X115.012 Y113.3
X114.631 Y113.421
X114.234 Y113.477
X113.834 Y113.466
X113.442 Y113.389
X113.067 Y113.249
X112.721 Y113.048
X112.413 Y112.792
X112.152 Y112.489
X111.301 Y111.318
G3 X111.707 Y109.515 I1.053 J-0.71
G1 X115.478 Y107.285
G3 X117.125 Y107.596 I0.646 J1.093
G1 X117.977 Y108.768
X118.059 Y108.894
X118.133 Y109.025
X118.197 Y109.16
X118.254 Y109.299
X118.303 Y109.442
X118.347 Y109.599
X118.385 Y109.768
X118.415 Y109.946
X118.436 Y110.133
X118.447 Y110.328
X118.448 Y110.535
X118.437 Y110.749
X118.414 Y110.968
X118.378 Y111.191
X118.329 Y111.419
X118.266 Y111.648
X118.189 Y111.879
X118.097 Y112.112
X117.991 Y112.343
X117.871 Y112.572
X117.736 Y112.797
X117.598 Y113.001
X117.45 Y113.198
X117.286 Y113.392
X117.127 Y113.561
X116.953 Y113.727
X116.769 Y113.883
X116.594 Y114.017
X116.4 Y114.15
X116.202 Y114.269
X116.014 Y114.369
X115.982 Y114.385
X115.585 Y114.529
X115.169 Y114.604
X114.747 Y114.606
X114.331 Y114.535
X113.932 Y114.395
X113.564 Y114.188
X113.237 Y113.921
X112.96 Y113.602
X112.152 Y112.489
G3 X112.558 Y110.685 I1.053 J-0.71
G1 X116.33 Y108.457
G3 X117.977 Y108.768 I0.646 J1.093
G1 X118.807 Y109.91
X118.889 Y110.036
X118.962 Y110.167
X119.027 Y110.302
X119.084 Y110.441
X119.133 Y110.585
X119.177 Y110.743
X119.215 Y110.911
X119.244 Y111.089
X119.265 Y111.276
X119.277 Y111.474
Y111.682
X119.266 Y111.896
X119.243 Y112.116
X119.207 Y112.339
X119.157 Y112.567
X119.094 Y112.799
X119.016 Y113.032
X118.924 Y113.265
X118.817 Y113.498
X118.696 Y113.726
X118.569 Y113.94
X118.434 Y114.139
X118.277 Y114.346
X118.124 Y114.527
X117.966 Y114.695
X117.785 Y114.867
X117.611 Y115.015
X117.434 Y115.15
X117.234 Y115.287
X117.045 Y115.401
X116.854 Y115.503
X116.804 Y115.526
X116.408 Y115.67
X115.993 Y115.744
X115.572 Y115.746
X115.157 Y115.675
X114.76 Y115.535
X114.392 Y115.329
X114.066 Y115.062
X113.79 Y114.744
X112.96 Y113.602
G3 X113.376 Y111.793 I1.053 J-0.71
G1 X117.169 Y109.594
G3 X118.807 Y109.91 I0.637 J1.099
G1 X119.625 Y111.037
X119.707 Y111.163
X119.782 Y111.292
X119.848 Y111.427
X119.906 Y111.566
X119.956 Y111.709
X120.001 Y111.867
X120.04 Y112.033
X120.071 Y112.208
X120.093 Y112.395
X120.106 Y112.592
X120.108 Y112.798
X120.099 Y113.01
X120.077 Y113.227
X120.043 Y113.449
X119.996 Y113.677
X119.934 Y113.907
X119.859 Y114.139
X119.769 Y114.372
X119.665 Y114.603
X119.547 Y114.831
X119.419 Y115.048
X119.287 Y115.247
X119.131 Y115.457
X118.977 Y115.642
X118.821 Y115.809
X118.64 Y115.984
X118.465 Y116.136
X118.291 Y116.271
X118.091 Y116.409
X117.9 Y116.527
X117.712 Y116.628
X117.647 Y116.659
X117.251 Y116.807
X116.835 Y116.883
X116.412 Y116.888
X115.994 Y116.819
X115.595 Y116.679
X115.225 Y116.473
X114.897 Y116.206
X114.62 Y115.886
X113.79 Y114.744
G3 X114.201 Y112.938 I1.053 J-0.71
G1 X117.983 Y110.723
G3 X119.625 Y111.037 I0.642 J1.096
G1 X120.477 Y112.209
X120.559 Y112.335
X120.631 Y112.466
X120.695 Y112.602
X120.75 Y112.741
X120.799 Y112.886
X120.842 Y113.043
X120.879 Y113.214
X120.908 Y113.394
X120.928 Y113.582
X120.938 Y113.778
Y113.986
X120.926 Y114.201
X120.901 Y114.421
X120.864 Y114.645
X120.813 Y114.873
X120.748 Y115.103
X120.67 Y115.333
X120.577 Y115.566
X120.469 Y115.797
X120.347 Y116.024
X120.219 Y116.235
X120.08 Y116.44
X119.923 Y116.645
X119.771 Y116.822
X119.606 Y116.995
X119.426 Y117.164
X119.254 Y117.309
X119.071 Y117.447
X118.873 Y117.581
X118.685 Y117.693
X118.489 Y117.795
X118.447 Y117.815
X118.053 Y117.956
X117.64 Y118.028
X117.221
X116.808 Y117.957
X116.413 Y117.816
X116.048 Y117.61
X115.724 Y117.345
X115.45 Y117.028
X114.62 Y115.886
G3 X115.04 Y114.075 I1.053 J-0.71
G1 X118.844 Y111.89
G3 X120.477 Y112.209 I0.633 J1.101
G1 X121.269 Y113.3
X121.366 Y113.448
X121.441 Y113.578
X121.507 Y113.713
X121.565 Y113.851
X121.615 Y113.995
X121.66 Y114.151
X121.699 Y114.316
X121.729 Y114.491
X121.752 Y114.678
X121.764 Y114.875
X121.767 Y115.079
X121.757 Y115.29
X121.736 Y115.507
X121.702 Y115.729
X121.654 Y115.958
X121.593 Y116.189
X121.517 Y116.421
X121.428 Y116.653
X121.324 Y116.884
X121.206 Y117.112
X121.077 Y117.33
X120.946 Y117.529
X120.79 Y117.738
X120.634 Y117.925
X120.479 Y118.092
X120.299 Y118.266
X120.123 Y118.418
X119.949 Y118.553
X119.75 Y118.691
X119.557 Y118.809
X119.37 Y118.911
X119.157 Y119.012
X118.776 Y119.132
X118.38 Y119.188
X117.981 Y119.177
X117.589 Y119.1
X117.215 Y118.959
X116.869 Y118.758
X116.562 Y118.503
X116.301 Y118.2
X115.45 Y117.028
G3 X115.854 Y115.226 I1.053 J-0.71
G1 X119.62 Y112.99
G3 X121.269 Y113.3 I0.648 J1.092
G1 X122.118 Y114.468
X122.2 Y114.593
X122.274 Y114.724
X122.34 Y114.858
X122.397 Y114.997
X122.446 Y115.139
X122.491 Y115.296
X122.53 Y115.464
X122.56 Y115.64
X122.582 Y115.826
X122.594 Y116.021
X122.596 Y116.228
X122.586 Y116.441
X122.564 Y116.659
X122.53 Y116.881
X122.482 Y117.108
X122.42 Y117.338
X122.344 Y117.57
X122.253 Y117.803
X122.148 Y118.034
X122.03 Y118.263
X121.896 Y118.488
X121.758 Y118.695
X121.613 Y118.89
X121.448 Y119.087
X121.289 Y119.258
X121.118 Y119.422
X120.933 Y119.581
X120.757 Y119.717
X120.566 Y119.849
X120.367 Y119.97
X120.233 Y120.042
X119.834 Y120.214
X119.411 Y120.311
X118.977 Y120.33
X118.546 Y120.272
X118.133 Y120.138
X117.751 Y119.933
