%
(1001)
(Z0 model corner top)
(T1  D=12.7 CR=0 - ZMIN=-40 - flat end mill)
G90 G94
G17
G21

(2D Contour7 9)
M9
T1 M6
S6000 M3
G54
M9
G0 X276.193 Y9.96
Z15
Z5
G1 Z4 F849.6
Z3.77
G19 G2 Y8.69 Z2.5 J-1.27
G1 Y7.42
G17 G3 X277.463 Y6.15 I1.27
G1 X434.962 Z-3 F400.3
X869.82 F849.6
G2 X874.957 Y3.532 J-6.35
G1 X1005.447 Y-176.068
G2 X1000.31 Y-186.15 I-5.137 J-3.732
G1 X451.832
G2 X446.04 Y-177.196 J6.35
G1 X446.352 Y-176.502
G2 X446.427 Y-176.342 I5.792 J-2.604
G1 X446.75 Y-175.674
G2 X446.839 Y-175.497 I5.717 J-2.764
G1 X447.174 Y-174.856
G2 X447.257 Y-174.702 I5.628 J-2.941
G1 X447.602 Y-174.084
G2 X447.7 Y-173.915 I5.545 J-3.095
G1 X448.056 Y-173.321
G2 X448.147 Y-173.173 I5.447 J-3.264
G1 X448.512 Y-172.6
G2 X448.608 Y-172.455 I5.356 J-3.412
G1 X448.982 Y-171.902
G2 X449.077 Y-171.764 I5.26 J-3.557
G1 X449.459 Y-171.23
G2 X449.605 Y-171.035 I5.165 J-3.695
G1 X450.394 Y-170.017
G2 X450.577 Y-169.792 I5.019 J-3.89
G1 X451.393 Y-168.833
G2 X451.561 Y-168.643 I4.836 J-4.115
G1 X452.401 Y-167.732
G2 X452.538 Y-167.588 I4.668 J-4.305
G1 X453.397 Y-166.713
G2 X453.53 Y-166.581 I4.531 J-4.449
G1 X455.286 Y-164.896
G2 X455.345 Y-164.84 I4.398 J-4.58
G1 X457.091 Y-163.206
X458.768 Y-161.59
X459.527 Y-160.821
X460.264 Y-160.035
X460.97 Y-159.235
X461.657 Y-158.404
X462.326 Y-157.538
X462.977 Y-156.635
X463.607 Y-155.698
X464.216 Y-154.726
X464.8 Y-153.721
X465.36 Y-152.682
X465.894 Y-151.606
X466.404 Y-150.494
X466.887 Y-149.352
X467.34 Y-148.188
X467.758 Y-147.011
X468.139 Y-145.826
X468.482 Y-144.638
X468.785 Y-143.452
X469.047 Y-142.273
X469.265 Y-141.114
X469.437 Y-139.984
X469.562 Y-138.892
X469.636 Y-137.855
X469.66 Y-136.884
X469.63 Y-135.928
X469.602 Y-135.546
X469.558 Y-135.142
X469.503 Y-134.756
X469.437 Y-134.387
X469.361 Y-134.04
X469.274 Y-133.706
X469.178 Y-133.393
X469.075 Y-133.099
X468.962 Y-132.818
X468.842 Y-132.558
X468.714 Y-132.311
X468.577 Y-132.077
X468.427 Y-131.848
X468.26 Y-131.619
X468.076 Y-131.392
X467.873 Y-131.165
X467.646 Y-130.937
X467.396 Y-130.707
X467.114 Y-130.473
X466.797 Y-130.233
X466.446 Y-129.991
X466.054 Y-129.745
X465.624 Y-129.499
X465.148 Y-129.25
X464.629 Y-129.001
X464.066 Y-128.756
X463.455 Y-128.514
X462.796 Y-128.276
X462.081 Y-128.041
X461.319 Y-127.812
X460.508 Y-127.592
X459.639 Y-127.378
X458.719 Y-127.173
X457.747 Y-126.976
X456.721 Y-126.789
X455.645 Y-126.613
X454.515 Y-126.448
X453.329 Y-126.293
X452.093 Y-126.15
X450.804 Y-126.018
X449.462 Y-125.898
X448.067 Y-125.791
X446.616 Y-125.695
X445.113 Y-125.612
X443.557 Y-125.542
X441.947 Y-125.484
X440.282 Y-125.439
X438.561 Y-125.407
X436.786 Y-125.388
X434.961 Y-125.381
X433.136 Y-125.388
X431.361 Y-125.407
X429.64 Y-125.439
X427.976 Y-125.484
X426.365 Y-125.542
X424.809 Y-125.612
X423.306 Y-125.695
X421.855 Y-125.791
X420.46 Y-125.898
X419.118 Y-126.018
X417.829 Y-126.15
X416.593 Y-126.293
X415.407 Y-126.448
X414.277 Y-126.613
X413.201 Y-126.789
X412.175 Y-126.976
X411.203 Y-127.173
X410.283 Y-127.378
X409.414 Y-127.592
X408.603 Y-127.812
X407.842 Y-128.04
X407.128 Y-128.275
X406.468 Y-128.514
X405.855 Y-128.757
X405.291 Y-129.002
X404.774 Y-129.25
X404.298 Y-129.499
X403.868 Y-129.745
X403.476 Y-129.991
X403.125 Y-130.233
X402.808 Y-130.473
X402.526 Y-130.707
X402.276 Y-130.937
X402.049 Y-131.165
X401.846 Y-131.392
X401.662 Y-131.619
X401.495 Y-131.848
X401.345 Y-132.077
X401.208 Y-132.311
X401.08 Y-132.558
X400.96 Y-132.818
X400.847 Y-133.099
X400.744 Y-133.393
X400.648 Y-133.706
X400.561 Y-134.04
X400.485 Y-134.387
X400.42 Y-134.751
X400.365 Y-135.142
X400.32 Y-135.551
X400.292 Y-135.928
X400.262 Y-136.884
X400.286 Y-137.855
X400.36 Y-138.892
X400.485 Y-139.984
X400.657 Y-141.114
X400.875 Y-142.273
X401.137 Y-143.452
X401.44 Y-144.638
X401.783 Y-145.826
X402.164 Y-147.011
X402.582 Y-148.188
X403.035 Y-149.352
X403.517 Y-150.492
X404.029 Y-151.606
X404.563 Y-152.684
X405.122 Y-153.721
X405.706 Y-154.726
X406.315 Y-155.698
X406.945 Y-156.635
X407.596 Y-157.538
X408.265 Y-158.404
X408.952 Y-159.235
X409.658 Y-160.035
X410.395 Y-160.821
X411.154 Y-161.59
X412.831 Y-163.206
X414.577 Y-164.84
G2 X414.636 Y-164.896 I-4.339 J-4.636
G1 X416.392 Y-166.581
G2 X416.525 Y-166.713 I-4.398 J-4.581
G1 X417.384 Y-167.588
G2 X417.521 Y-167.732 I-4.531 J-4.449
G1 X418.361 Y-168.643
G2 X418.529 Y-168.833 I-4.668 J-4.305
G1 X419.345 Y-169.792
G2 X419.528 Y-170.017 I-4.836 J-4.115
G1 X420.317 Y-171.035
G2 X420.463 Y-171.23 I-5.019 J-3.89
G1 X420.845 Y-171.764
G2 X420.936 Y-171.895 I-5.165 J-3.695
G1 X421.311 Y-172.448
G2 X421.411 Y-172.6 I-5.256 J-3.564
G1 X421.776 Y-173.173
G2 X421.871 Y-173.327 I-5.356 J-3.412
G1 X422.226 Y-173.921
G2 X422.32 Y-174.084 I-5.451 J-3.258
G1 X422.665 Y-174.702
G2 X422.748 Y-174.856 I-5.545 J-3.095
G1 X423.083 Y-175.497
G2 X423.172 Y-175.674 I-5.628 J-2.941
G1 X423.495 Y-176.342
G2 X423.57 Y-176.502 I-5.717 J-2.764
G1 X423.882 Y-177.196
G2 X418.09 Y-186.15 I-5.792 J-2.604
G1 X-130.385
G2 X-135.522 Y-176.068 J6.35
G1 X-5.035 Y3.532
G2 X0.102 Y6.15 I5.137 J-3.732
G1 X434.962
X560.255 Z-6 F400.3
X869.82 F849.6
G2 X874.957 Y3.532 J-6.35
G1 X1005.447 Y-176.068
G2 X1000.31 Y-186.15 I-5.137 J-3.732
G1 X451.832
G2 X446.04 Y-177.196 J6.35
G1 X446.352 Y-176.502
G2 X446.427 Y-176.342 I5.792 J-2.604
G1 X446.75 Y-175.674
G2 X446.839 Y-175.497 I5.717 J-2.764
G1 X447.174 Y-174.856
G2 X447.257 Y-174.702 I5.628 J-2.941
G1 X447.602 Y-174.084
G2 X447.7 Y-173.915 I5.545 J-3.095
G1 X448.056 Y-173.321
G2 X448.147 Y-173.173 I5.447 J-3.264
G1 X448.512 Y-172.6
G2 X448.608 Y-172.455 I5.356 J-3.412
G1 X448.982 Y-171.902
G2 X449.077 Y-171.764 I5.26 J-3.557
G1 X449.459 Y-171.23
G2 X449.605 Y-171.035 I5.165 J-3.695
G1 X450.394 Y-170.017
G2 X450.577 Y-169.792 I5.019 J-3.89
G1 X451.393 Y-168.833
G2 X451.561 Y-168.643 I4.836 J-4.115
G1 X452.401 Y-167.732
G2 X452.538 Y-167.588 I4.668 J-4.305
G1 X453.397 Y-166.713
G2 X453.53 Y-166.581 I4.531 J-4.449
G1 X455.286 Y-164.896
G2 X455.345 Y-164.84 I4.398 J-4.58
G1 X457.091 Y-163.206
X458.768 Y-161.59
X459.527 Y-160.821
X460.264 Y-160.035
X460.97 Y-159.235
X461.657 Y-158.404
X462.326 Y-157.538
X462.977 Y-156.635
X463.607 Y-155.698
X464.216 Y-154.726
X464.8 Y-153.721
X465.36 Y-152.682
X465.894 Y-151.606
X466.404 Y-150.494
X466.887 Y-149.352
X467.34 Y-148.188
X467.758 Y-147.011
X468.139 Y-145.826
X468.482 Y-144.638
X468.785 Y-143.452
X469.047 Y-142.273
X469.265 Y-141.114
X469.437 Y-139.984
X469.562 Y-138.892
X469.636 Y-137.855
X469.66 Y-136.884
X469.63 Y-135.928
X469.602 Y-135.546
X469.558 Y-135.142
X469.503 Y-134.756
X469.437 Y-134.387
X469.361 Y-134.04
X469.274 Y-133.706
X469.178 Y-133.393
X469.075 Y-133.099
X468.962 Y-132.818
X468.842 Y-132.558
X468.714 Y-132.311
X468.577 Y-132.077
X468.427 Y-131.848
X468.26 Y-131.619
X468.076 Y-131.392
X467.873 Y-131.165
X467.646 Y-130.937
X467.396 Y-130.707
X467.114 Y-130.473
X466.797 Y-130.233
X466.446 Y-129.991
X466.054 Y-129.745
X465.624 Y-129.499
X465.148 Y-129.25
X464.629 Y-129.001
X464.066 Y-128.756
X463.455 Y-128.514
X462.796 Y-128.276
X462.081 Y-128.041
X461.319 Y-127.812
X460.508 Y-127.592
X459.639 Y-127.378
X458.719 Y-127.173
X457.747 Y-126.976
X456.721 Y-126.789
X455.645 Y-126.613
X454.515 Y-126.448
X453.329 Y-126.293
X452.093 Y-126.15
X450.804 Y-126.018
X449.462 Y-125.898
X448.067 Y-125.791
X446.616 Y-125.695
X445.113 Y-125.612
X443.557 Y-125.542
X441.947 Y-125.484
X440.282 Y-125.439
X438.561 Y-125.407
X436.786 Y-125.388
X434.961 Y-125.381
X433.136 Y-125.388
X431.361 Y-125.407
X429.64 Y-125.439
X427.976 Y-125.484
X426.365 Y-125.542
X424.809 Y-125.612
X423.306 Y-125.695
X421.855 Y-125.791
X420.46 Y-125.898
X419.118 Y-126.018
X417.829 Y-126.15
X416.593 Y-126.293
X415.407 Y-126.448
X414.277 Y-126.613
X413.201 Y-126.789
X412.175 Y-126.976
X411.203 Y-127.173
X410.283 Y-127.378
X409.414 Y-127.592
X408.603 Y-127.812
X407.842 Y-128.04
X407.128 Y-128.275
X406.468 Y-128.514
X405.855 Y-128.757
X405.291 Y-129.002
X404.774 Y-129.25
X404.298 Y-129.499
X403.868 Y-129.745
X403.476 Y-129.991
X403.125 Y-130.233
X402.808 Y-130.473
X402.526 Y-130.707
X402.276 Y-130.937
X402.049 Y-131.165
X401.846 Y-131.392
X401.662 Y-131.619
X401.495 Y-131.848
X401.345 Y-132.077
X401.208 Y-132.311
X401.08 Y-132.558
X400.96 Y-132.818
X400.847 Y-133.099
X400.744 Y-133.393
X400.648 Y-133.706
X400.561 Y-134.04
X400.485 Y-134.387
X400.42 Y-134.751
X400.365 Y-135.142
X400.32 Y-135.551
X400.292 Y-135.928
X400.262 Y-136.884
X400.286 Y-137.855
X400.36 Y-138.892
X400.485 Y-139.984
X400.657 Y-141.114
X400.875 Y-142.273
X401.137 Y-143.452
X401.44 Y-144.638
X401.783 Y-145.826
X402.164 Y-147.011
X402.582 Y-148.188
X403.035 Y-149.352
X403.517 Y-150.492
X404.029 Y-151.606
X404.563 Y-152.684
X405.122 Y-153.721
X405.706 Y-154.726
X406.315 Y-155.698
X406.945 Y-156.635
X407.596 Y-157.538
X408.265 Y-158.404
X408.952 Y-159.235
X409.658 Y-160.035
X410.395 Y-160.821
X411.154 Y-161.59
X412.831 Y-163.206
X414.577 Y-164.84
G2 X414.636 Y-164.896 I-4.339 J-4.636
G1 X416.392 Y-166.581
G2 X416.525 Y-166.713 I-4.398 J-4.581
G1 X417.384 Y-167.588
G2 X417.521 Y-167.732 I-4.531 J-4.449
G1 X418.361 Y-168.643
G2 X418.529 Y-168.833 I-4.668 J-4.305
G1 X419.345 Y-169.792
G2 X419.528 Y-170.017 I-4.836 J-4.115
G1 X420.317 Y-171.035
G2 X420.463 Y-171.23 I-5.019 J-3.89
G1 X420.845 Y-171.764
G2 X420.936 Y-171.895 I-5.165 J-3.695
G1 X421.311 Y-172.448
G2 X421.411 Y-172.6 I-5.256 J-3.564
G1 X421.776 Y-173.173
G2 X421.871 Y-173.327 I-5.356 J-3.412
G1 X422.226 Y-173.921
G2 X422.32 Y-174.084 I-5.451 J-3.258
G1 X422.665 Y-174.702
G2 X422.748 Y-174.856 I-5.545 J-3.095
G1 X423.083 Y-175.497
G2 X423.172 Y-175.674 I-5.628 J-2.941
G1 X423.495 Y-176.342
G2 X423.57 Y-176.502 I-5.717 J-2.764
G1 X423.882 Y-177.196
G2 X418.09 Y-186.15 I-5.792 J-2.604
G1 X-130.385
G2 X-135.522 Y-176.068 J6.35
G1 X-5.035 Y3.532
G2 X0.102 Y6.15 I5.137 J-3.732
G1 X434.962
X560.255
X685.549 Z-9 F400.3
X869.82 F849.6
G2 X874.957 Y3.532 J-6.35
G1 X1005.447 Y-176.068
G2 X1000.31 Y-186.15 I-5.137 J-3.732
G1 X451.832
G2 X446.04 Y-177.196 J6.35
G1 X446.352 Y-176.502
G2 X446.427 Y-176.342 I5.792 J-2.604
G1 X446.75 Y-175.674
G2 X446.839 Y-175.497 I5.717 J-2.764
G1 X447.174 Y-174.856
G2 X447.257 Y-174.702 I5.628 J-2.941
G1 X447.602 Y-174.084
G2 X447.7 Y-173.915 I5.545 J-3.095
G1 X448.056 Y-173.321
G2 X448.147 Y-173.173 I5.447 J-3.264
G1 X448.512 Y-172.6
G2 X448.608 Y-172.455 I5.356 J-3.412
G1 X448.982 Y-171.902
G2 X449.077 Y-171.764 I5.26 J-3.557
G1 X449.459 Y-171.23
G2 X449.605 Y-171.035 I5.165 J-3.695
G1 X450.394 Y-170.017
G2 X450.577 Y-169.792 I5.019 J-3.89
G1 X451.393 Y-168.833
G2 X451.561 Y-168.643 I4.836 J-4.115
G1 X452.401 Y-167.732
G2 X452.538 Y-167.588 I4.668 J-4.305
G1 X453.397 Y-166.713
G2 X453.53 Y-166.581 I4.531 J-4.449
G1 X455.286 Y-164.896
G2 X455.345 Y-164.84 I4.398 J-4.58
G1 X457.091 Y-163.206
X458.768 Y-161.59
X459.527 Y-160.821
X460.264 Y-160.035
X460.97 Y-159.235
X461.657 Y-158.404
X462.326 Y-157.538
X462.977 Y-156.635
X463.607 Y-155.698
X464.216 Y-154.726
X464.8 Y-153.721
X465.36 Y-152.682
X465.894 Y-151.606
X466.404 Y-150.494
X466.887 Y-149.352
X467.34 Y-148.188
X467.758 Y-147.011
X468.139 Y-145.826
X468.482 Y-144.638
X468.785 Y-143.452
X469.047 Y-142.273
X469.265 Y-141.114
X469.437 Y-139.984
X469.562 Y-138.892
X469.636 Y-137.855
X469.66 Y-136.884
X469.63 Y-135.928
X469.602 Y-135.546
X469.558 Y-135.142
X469.503 Y-134.756
X469.437 Y-134.387
X469.361 Y-134.04
X469.274 Y-133.706
X469.178 Y-133.393
X469.075 Y-133.099
X468.962 Y-132.818
X468.842 Y-132.558
X468.714 Y-132.311
X468.577 Y-132.077
X468.427 Y-131.848
X468.26 Y-131.619
X468.076 Y-131.392
X467.873 Y-131.165
X467.646 Y-130.937
X467.396 Y-130.707
X467.114 Y-130.473
X466.797 Y-130.233
X466.446 Y-129.991
X466.054 Y-129.745
X465.624 Y-129.499
X465.148 Y-129.25
X464.629 Y-129.001
X464.066 Y-128.756
X463.455 Y-128.514
X462.796 Y-128.276
X462.081 Y-128.041
X461.319 Y-127.812
X460.508 Y-127.592
X459.639 Y-127.378
X458.719 Y-127.173
X457.747 Y-126.976
X456.721 Y-126.789
X455.645 Y-126.613
X454.515 Y-126.448
X453.329 Y-126.293
X452.093 Y-126.15
X450.804 Y-126.018
X449.462 Y-125.898
X448.067 Y-125.791
X446.616 Y-125.695
X445.113 Y-125.612
X443.557 Y-125.542
X441.947 Y-125.484
X440.282 Y-125.439
X438.561 Y-125.407
X436.786 Y-125.388
X434.961 Y-125.381
X433.136 Y-125.388
X431.361 Y-125.407
X429.64 Y-125.439
X427.976 Y-125.484
X426.365 Y-125.542
X424.809 Y-125.612
X423.306 Y-125.695
X421.855 Y-125.791
X420.46 Y-125.898
X419.118 Y-126.018
X417.829 Y-126.15
X416.593 Y-126.293
X415.407 Y-126.448
X414.277 Y-126.613
X413.201 Y-126.789
X412.175 Y-126.976
X411.203 Y-127.173
X410.283 Y-127.378
X409.414 Y-127.592
X408.603 Y-127.812
X407.842 Y-128.04
X407.128 Y-128.275
X406.468 Y-128.514
X405.855 Y-128.757
X405.291 Y-129.002
X404.774 Y-129.25
X404.298 Y-129.499
X403.868 Y-129.745
X403.476 Y-129.991
X403.125 Y-130.233
X402.808 Y-130.473
X402.526 Y-130.707
X402.276 Y-130.937
X402.049 Y-131.165
X401.846 Y-131.392
X401.662 Y-131.619
X401.495 Y-131.848
X401.345 Y-132.077
X401.208 Y-132.311
X401.08 Y-132.558
X400.96 Y-132.818
X400.847 Y-133.099
X400.744 Y-133.393
X400.648 Y-133.706
X400.561 Y-134.04
X400.485 Y-134.387
X400.42 Y-134.751
X400.365 Y-135.142
X400.32 Y-135.551
X400.292 Y-135.928
X400.262 Y-136.884
X400.286 Y-137.855
X400.36 Y-138.892
X400.485 Y-139.984
X400.657 Y-141.114
X400.875 Y-142.273
X401.137 Y-143.452
X401.44 Y-144.638
X401.783 Y-145.826
X402.164 Y-147.011
X402.582 Y-148.188
X403.035 Y-149.352
X403.517 Y-150.492
X404.029 Y-151.606
X404.563 Y-152.684
X405.122 Y-153.721
X405.706 Y-154.726
X406.315 Y-155.698
X406.945 Y-156.635
X407.596 Y-157.538
X408.265 Y-158.404
X408.952 Y-159.235
X409.658 Y-160.035
X410.395 Y-160.821
X411.154 Y-161.59
X412.831 Y-163.206
X414.577 Y-164.84
G2 X414.636 Y-164.896 I-4.339 J-4.636
G1 X416.392 Y-166.581
G2 X416.525 Y-166.713 I-4.398 J-4.581
G1 X417.384 Y-167.588
G2 X417.521 Y-167.732 I-4.531 J-4.449
G1 X418.361 Y-168.643
G2 X418.529 Y-168.833 I-4.668 J-4.305
G1 X419.345 Y-169.792
G2 X419.528 Y-170.017 I-4.836 J-4.115
G1 X420.317 Y-171.035
G2 X420.463 Y-171.23 I-5.019 J-3.89
G1 X420.845 Y-171.764
G2 X420.936 Y-171.895 I-5.165 J-3.695
G1 X421.311 Y-172.448
G2 X421.411 Y-172.6 I-5.256 J-3.564
G1 X421.776 Y-173.173
G2 X421.871 Y-173.327 I-5.356 J-3.412
G1 X422.226 Y-173.921
G2 X422.32 Y-174.084 I-5.451 J-3.258
G1 X422.665 Y-174.702
G2 X422.748 Y-174.856 I-5.545 J-3.095
G1 X423.083 Y-175.497
G2 X423.172 Y-175.674 I-5.628 J-2.941
G1 X423.495 Y-176.342
G2 X423.57 Y-176.502 I-5.717 J-2.764
G1 X423.882 Y-177.196
G2 X418.09 Y-186.15 I-5.792 J-2.604
G1 X-130.385
G2 X-135.522 Y-176.068 J6.35
G1 X-5.035 Y3.532
G2 X0.102 Y6.15 I5.137 J-3.732
G1 X560.255
X685.549
X810.841 Z-12 F400.3
X869.82 F849.6
G2 X874.957 Y3.532 J-6.35
G1 X1005.447 Y-176.068
G2 X1000.31 Y-186.15 I-5.137 J-3.732
G1 X451.832
G2 X446.04 Y-177.196 J6.35
G1 X446.352 Y-176.502
G2 X446.427 Y-176.342 I5.792 J-2.604
G1 X446.75 Y-175.674
G2 X446.839 Y-175.497 I5.717 J-2.764
G1 X447.174 Y-174.856
G2 X447.257 Y-174.702 I5.628 J-2.941
G1 X447.602 Y-174.084
G2 X447.7 Y-173.915 I5.545 J-3.095
G1 X448.056 Y-173.321
G2 X448.147 Y-173.173 I5.447 J-3.264
G1 X448.512 Y-172.6
G2 X448.608 Y-172.455 I5.356 J-3.412
G1 X448.982 Y-171.902
G2 X449.077 Y-171.764 I5.26 J-3.557
G1 X449.459 Y-171.23
G2 X449.605 Y-171.035 I5.165 J-3.695
G1 X450.394 Y-170.017
G2 X450.577 Y-169.792 I5.019 J-3.89
G1 X451.393 Y-168.833
G2 X451.561 Y-168.643 I4.836 J-4.115
G1 X452.401 Y-167.732
G2 X452.538 Y-167.588 I4.668 J-4.305
G1 X453.397 Y-166.713
G2 X453.53 Y-166.581 I4.531 J-4.449
G1 X455.286 Y-164.896
G2 X455.345 Y-164.84 I4.398 J-4.58
G1 X457.091 Y-163.206
X458.768 Y-161.59
X459.527 Y-160.821
X460.264 Y-160.035
X460.97 Y-159.235
X461.657 Y-158.404
X462.326 Y-157.538
X462.977 Y-156.635
X463.607 Y-155.698
X464.216 Y-154.726
X464.8 Y-153.721
X465.36 Y-152.682
X465.894 Y-151.606
X466.404 Y-150.494
X466.887 Y-149.352
X467.34 Y-148.188
X467.758 Y-147.011
X468.139 Y-145.826
X468.482 Y-144.638
X468.785 Y-143.452
X469.047 Y-142.273
X469.265 Y-141.114
X469.437 Y-139.984
X469.562 Y-138.892
X469.636 Y-137.855
X469.66 Y-136.884
X469.63 Y-135.928
X469.602 Y-135.546
X469.558 Y-135.142
X469.503 Y-134.756
X469.437 Y-134.387
X469.361 Y-134.04
X469.274 Y-133.706
X469.178 Y-133.393
X469.075 Y-133.099
X468.962 Y-132.818
X468.842 Y-132.558
X468.714 Y-132.311
X468.577 Y-132.077
X468.427 Y-131.848
X468.26 Y-131.619
X468.076 Y-131.392
X467.873 Y-131.165
X467.646 Y-130.937
X467.396 Y-130.707
X467.114 Y-130.473
X466.797 Y-130.233
X466.446 Y-129.991
X466.054 Y-129.745
X465.624 Y-129.499
X465.148 Y-129.25
X464.629 Y-129.001
X464.066 Y-128.756
X463.455 Y-128.514
X462.796 Y-128.276
X462.081 Y-128.041
X461.319 Y-127.812
X460.508 Y-127.592
X459.639 Y-127.378
X458.719 Y-127.173
X457.747 Y-126.976
X456.721 Y-126.789
X455.645 Y-126.613
X454.515 Y-126.448
X453.329 Y-126.293
X452.093 Y-126.15
X450.804 Y-126.018
X449.462 Y-125.898
X448.067 Y-125.791
X446.616 Y-125.695
X445.113 Y-125.612
X443.557 Y-125.542
X441.947 Y-125.484
X440.282 Y-125.439
X438.561 Y-125.407
X436.786 Y-125.388
X434.961 Y-125.381
X433.136 Y-125.388
X431.361 Y-125.407
X429.64 Y-125.439
X427.976 Y-125.484
X426.365 Y-125.542
X424.809 Y-125.612
X423.306 Y-125.695
X421.855 Y-125.791
X420.46 Y-125.898
X419.118 Y-126.018
X417.829 Y-126.15
X416.593 Y-126.293
X415.407 Y-126.448
X414.277 Y-126.613
X413.201 Y-126.789
X412.175 Y-126.976
X411.203 Y-127.173
X410.283 Y-127.378
X409.414 Y-127.592
X408.603 Y-127.812
X407.842 Y-128.04
X407.128 Y-128.275
X406.468 Y-128.514
X405.855 Y-128.757
X405.291 Y-129.002
X404.774 Y-129.25
X404.298 Y-129.499
X403.868 Y-129.745
X403.476 Y-129.991
X403.125 Y-130.233
X402.808 Y-130.473
X402.526 Y-130.707
X402.276 Y-130.937
X402.049 Y-131.165
X401.846 Y-131.392
X401.662 Y-131.619
X401.495 Y-131.848
X401.345 Y-132.077
X401.208 Y-132.311
X401.08 Y-132.558
X400.96 Y-132.818
X400.847 Y-133.099
X400.744 Y-133.393
X400.648 Y-133.706
X400.561 Y-134.04
X400.485 Y-134.387
X400.42 Y-134.751
X400.365 Y-135.142
X400.32 Y-135.551
X400.292 Y-135.928
X400.262 Y-136.884
X400.286 Y-137.855
X400.36 Y-138.892
X400.485 Y-139.984
X400.657 Y-141.114
X400.875 Y-142.273
X401.137 Y-143.452
X401.44 Y-144.638
X401.783 Y-145.826
X402.164 Y-147.011
X402.582 Y-148.188
X403.035 Y-149.352
X403.517 Y-150.492
X404.029 Y-151.606
X404.563 Y-152.684
X405.122 Y-153.721
X405.706 Y-154.726
X406.315 Y-155.698
X406.945 Y-156.635
X407.596 Y-157.538
X408.265 Y-158.404
X408.952 Y-159.235
X409.658 Y-160.035
X410.395 Y-160.821
X411.154 Y-161.59
X412.831 Y-163.206
X414.577 Y-164.84
G2 X414.636 Y-164.896 I-4.339 J-4.636
G1 X416.392 Y-166.581
G2 X416.525 Y-166.713 I-4.398 J-4.581
G1 X417.384 Y-167.588
G2 X417.521 Y-167.732 I-4.531 J-4.449
G1 X418.361 Y-168.643
G2 X418.529 Y-168.833 I-4.668 J-4.305
G1 X419.345 Y-169.792
G2 X419.528 Y-170.017 I-4.836 J-4.115
G1 X420.317 Y-171.035
G2 X420.463 Y-171.23 I-5.019 J-3.89
G1 X420.845 Y-171.764
G2 X420.936 Y-171.895 I-5.165 J-3.695
G1 X421.311 Y-172.448
G2 X421.411 Y-172.6 I-5.256 J-3.564
G1 X421.776 Y-173.173
G2 X421.871 Y-173.327 I-5.356 J-3.412
G1 X422.226 Y-173.921
G2 X422.32 Y-174.084 I-5.451 J-3.258
G1 X422.665 Y-174.702
G2 X422.748 Y-174.856 I-5.545 J-3.095
G1 X423.083 Y-175.497
G2 X423.172 Y-175.674 I-5.628 J-2.941
G1 X423.495 Y-176.342
G2 X423.57 Y-176.502 I-5.717 J-2.764
G1 X423.882 Y-177.196
G2 X418.09 Y-186.15 I-5.792 J-2.604
G1 X-130.385
G2 X-135.522 Y-176.068 J6.35
G1 X-5.035 Y3.532
G2 X0.102 Y6.15 I5.137 J-3.732
G1 X685.549
X810.841
X869.82 Z-13.412 F400.3
G2 X874.957 Y3.532 Z-13.555 J-6.35
G1 X910.419 Y-45.275 Z-15
X1005.447 Y-176.068 F849.6
G2 X1000.31 Y-186.15 I-5.137 J-3.732
G1 X451.832
G2 X446.04 Y-177.196 J6.35
G1 X446.352 Y-176.502
G2 X446.427 Y-176.342 I5.792 J-2.604
G1 X446.75 Y-175.674
G2 X446.839 Y-175.497 I5.717 J-2.764
G1 X447.174 Y-174.856
G2 X447.257 Y-174.702 I5.628 J-2.941
G1 X447.602 Y-174.084
G2 X447.7 Y-173.915 I5.545 J-3.095
G1 X448.056 Y-173.321
G2 X448.147 Y-173.173 I5.447 J-3.264
G1 X448.512 Y-172.6
G2 X448.608 Y-172.455 I5.356 J-3.412
G1 X448.982 Y-171.902
G2 X449.077 Y-171.764 I5.26 J-3.557
G1 X449.459 Y-171.23
G2 X449.605 Y-171.035 I5.165 J-3.695
G1 X450.394 Y-170.017
G2 X450.577 Y-169.792 I5.019 J-3.89
G1 X451.393 Y-168.833
G2 X451.561 Y-168.643 I4.836 J-4.115
G1 X452.401 Y-167.732
G2 X452.538 Y-167.588 I4.668 J-4.305
G1 X453.397 Y-166.713
G2 X453.53 Y-166.581 I4.531 J-4.449
G1 X455.286 Y-164.896
G2 X455.345 Y-164.84 I4.398 J-4.58
G1 X457.091 Y-163.206
X458.768 Y-161.59
X459.527 Y-160.821
X460.264 Y-160.035
X460.97 Y-159.235
X461.657 Y-158.404
X462.326 Y-157.538
X462.977 Y-156.635
X463.607 Y-155.698
X464.216 Y-154.726
X464.8 Y-153.721
X465.36 Y-152.682
X465.894 Y-151.606
X466.404 Y-150.494
X466.887 Y-149.352
X467.34 Y-148.188
X467.758 Y-147.011
X468.139 Y-145.826
X468.482 Y-144.638
X468.785 Y-143.452
X469.047 Y-142.273
X469.265 Y-141.114
X469.437 Y-139.984
X469.562 Y-138.892
X469.636 Y-137.855
X469.66 Y-136.884
X469.63 Y-135.928
X469.602 Y-135.546
X469.558 Y-135.142
X469.503 Y-134.756
X469.437 Y-134.387
X469.361 Y-134.04
X469.274 Y-133.706
X469.178 Y-133.393
X469.075 Y-133.099
X468.962 Y-132.818
X468.842 Y-132.558
X468.714 Y-132.311
X468.577 Y-132.077
X468.427 Y-131.848
X468.26 Y-131.619
X468.076 Y-131.392
X467.873 Y-131.165
X467.646 Y-130.937
X467.396 Y-130.707
X467.114 Y-130.473
X466.797 Y-130.233
X466.446 Y-129.991
X466.054 Y-129.745
X465.624 Y-129.499
X465.148 Y-129.25
X464.629 Y-129.001
X464.066 Y-128.756
X463.455 Y-128.514
X462.796 Y-128.276
X462.081 Y-128.041
X461.319 Y-127.812
X460.508 Y-127.592
X459.639 Y-127.378
X458.719 Y-127.173
X457.747 Y-126.976
X456.721 Y-126.789
X455.645 Y-126.613
X454.515 Y-126.448
X453.329 Y-126.293
X452.093 Y-126.15
X450.804 Y-126.018
X449.462 Y-125.898
X448.067 Y-125.791
X446.616 Y-125.695
X445.113 Y-125.612
X443.557 Y-125.542
X441.947 Y-125.484
X440.282 Y-125.439
X438.561 Y-125.407
X436.786 Y-125.388
X434.961 Y-125.381
X433.136 Y-125.388
X431.361 Y-125.407
X429.64 Y-125.439
X427.976 Y-125.484
X426.365 Y-125.542
X424.809 Y-125.612
X423.306 Y-125.695
X421.855 Y-125.791
X420.46 Y-125.898
X419.118 Y-126.018
X417.829 Y-126.15
X416.593 Y-126.293
X415.407 Y-126.448
X414.277 Y-126.613
X413.201 Y-126.789
X412.175 Y-126.976
X411.203 Y-127.173
X410.283 Y-127.378
X409.414 Y-127.592
X408.603 Y-127.812
X407.842 Y-128.04
X407.128 Y-128.275
X406.468 Y-128.514
X405.855 Y-128.757
X405.291 Y-129.002
X404.774 Y-129.25
X404.298 Y-129.499
X403.868 Y-129.745
X403.476 Y-129.991
X403.125 Y-130.233
X402.808 Y-130.473
X402.526 Y-130.707
X402.276 Y-130.937
X402.049 Y-131.165
X401.846 Y-131.392
X401.662 Y-131.619
X401.495 Y-131.848
X401.345 Y-132.077
X401.208 Y-132.311
X401.08 Y-132.558
X400.96 Y-132.818
X400.847 Y-133.099
X400.744 Y-133.393
X400.648 Y-133.706
X400.561 Y-134.04
X400.485 Y-134.387
X400.42 Y-134.751
X400.365 Y-135.142
X400.32 Y-135.551
X400.292 Y-135.928
X400.262 Y-136.884
X400.286 Y-137.855
X400.36 Y-138.892
X400.485 Y-139.984
X400.657 Y-141.114
X400.875 Y-142.273
X401.137 Y-143.452
X401.44 Y-144.638
X401.783 Y-145.826
X402.164 Y-147.011
X402.582 Y-148.188
X403.035 Y-149.352
X403.517 Y-150.492
X404.029 Y-151.606
X404.563 Y-152.684
X405.122 Y-153.721
X405.706 Y-154.726
X406.315 Y-155.698
X406.945 Y-156.635
X407.596 Y-157.538
X408.265 Y-158.404
X408.952 Y-159.235
X409.658 Y-160.035
X410.395 Y-160.821
X411.154 Y-161.59
X412.831 Y-163.206
X414.577 Y-164.84
G2 X414.636 Y-164.896 I-4.339 J-4.636
G1 X416.392 Y-166.581
G2 X416.525 Y-166.713 I-4.398 J-4.581
G1 X417.384 Y-167.588
G2 X417.521 Y-167.732 I-4.531 J-4.449
G1 X418.361 Y-168.643
G2 X418.529 Y-168.833 I-4.668 J-4.305
G1 X419.345 Y-169.792
G2 X419.528 Y-170.017 I-4.836 J-4.115
G1 X420.317 Y-171.035
G2 X420.463 Y-171.23 I-5.019 J-3.89
G1 X420.845 Y-171.764
G2 X420.936 Y-171.895 I-5.165 J-3.695
G1 X421.311 Y-172.448
G2 X421.411 Y-172.6 I-5.256 J-3.564
G1 X421.776 Y-173.173
G2 X421.871 Y-173.327 I-5.356 J-3.412
G1 X422.226 Y-173.921
G2 X422.32 Y-174.084 I-5.451 J-3.258
G1 X422.665 Y-174.702
G2 X422.748 Y-174.856 I-5.545 J-3.095
G1 X423.083 Y-175.497
G2 X423.172 Y-175.674 I-5.628 J-2.941
G1 X423.495 Y-176.342
G2 X423.57 Y-176.502 I-5.717 J-2.764
G1 X423.882 Y-177.196
G2 X418.09 Y-186.15 I-5.792 J-2.604
G1 X-130.385
G2 X-135.522 Y-176.068 J6.35
G1 X-5.035 Y3.532
G2 X0.102 Y6.15 I5.137 J-3.732
G1 X810.841
X869.82
G2 X874.957 Y3.532 J-6.35
G1 X910.419 Y-45.275
X984.065 Y-146.638 Z-18 F400.3
X1005.447 Y-176.068 F849.6
G2 X1000.31 Y-186.15 I-5.137 J-3.732
G1 X451.832
G2 X446.04 Y-177.196 J6.35
G1 X446.352 Y-176.502
G2 X446.427 Y-176.342 I5.792 J-2.604
G1 X446.75 Y-175.674
G2 X446.839 Y-175.497 I5.717 J-2.764
G1 X447.174 Y-174.856
G2 X447.257 Y-174.702 I5.628 J-2.941
G1 X447.602 Y-174.084
G2 X447.7 Y-173.915 I5.545 J-3.095
G1 X448.056 Y-173.321
G2 X448.147 Y-173.173 I5.447 J-3.264
G1 X448.512 Y-172.6
G2 X448.608 Y-172.455 I5.356 J-3.412
G1 X448.982 Y-171.902
G2 X449.077 Y-171.764 I5.26 J-3.557
G1 X449.459 Y-171.23
G2 X449.605 Y-171.035 I5.165 J-3.695
G1 X450.394 Y-170.017
G2 X450.577 Y-169.792 I5.019 J-3.89
G1 X451.393 Y-168.833
G2 X451.561 Y-168.643 I4.836 J-4.115
G1 X452.401 Y-167.732
G2 X452.538 Y-167.588 I4.668 J-4.305
G1 X453.397 Y-166.713
G2 X453.53 Y-166.581 I4.531 J-4.449
G1 X455.286 Y-164.896
G2 X455.345 Y-164.84 I4.398 J-4.58
G1 X457.091 Y-163.206
X458.768 Y-161.59
X459.527 Y-160.821
X460.264 Y-160.035
X460.97 Y-159.235
X461.657 Y-158.404
X462.326 Y-157.538
X462.977 Y-156.635
X463.607 Y-155.698
X464.216 Y-154.726
X464.8 Y-153.721
X465.36 Y-152.682
X465.894 Y-151.606
X466.404 Y-150.494
X466.887 Y-149.352
X467.34 Y-148.188
X467.758 Y-147.011
X468.139 Y-145.826
X468.482 Y-144.638
X468.785 Y-143.452
X469.047 Y-142.273
X469.265 Y-141.114
X469.437 Y-139.984
X469.562 Y-138.892
X469.636 Y-137.855
X469.66 Y-136.884
X469.63 Y-135.928
X469.602 Y-135.546
X469.558 Y-135.142
X469.503 Y-134.756
X469.437 Y-134.387
X469.361 Y-134.04
X469.274 Y-133.706
X469.178 Y-133.393
X469.075 Y-133.099
X468.962 Y-132.818
X468.842 Y-132.558
X468.714 Y-132.311
X468.577 Y-132.077
X468.427 Y-131.848
X468.26 Y-131.619
X468.076 Y-131.392
X467.873 Y-131.165
X467.646 Y-130.937
X467.396 Y-130.707
X467.114 Y-130.473
X466.797 Y-130.233
X466.446 Y-129.991
X466.054 Y-129.745
X465.624 Y-129.499
X465.148 Y-129.25
X464.629 Y-129.001
X464.066 Y-128.756
X463.455 Y-128.514
X462.796 Y-128.276
X462.081 Y-128.041
X461.319 Y-127.812
X460.508 Y-127.592
X459.639 Y-127.378
X458.719 Y-127.173
X457.747 Y-126.976
X456.721 Y-126.789
X455.645 Y-126.613
X454.515 Y-126.448
X453.329 Y-126.293
X452.093 Y-126.15
X450.804 Y-126.018
X449.462 Y-125.898
X448.067 Y-125.791
X446.616 Y-125.695
X445.113 Y-125.612
X443.557 Y-125.542
X441.947 Y-125.484
X440.282 Y-125.439
X438.561 Y-125.407
X436.786 Y-125.388
X434.961 Y-125.381
X433.136 Y-125.388
X431.361 Y-125.407
X429.64 Y-125.439
X427.976 Y-125.484
X426.365 Y-125.542
X424.809 Y-125.612
X423.306 Y-125.695
X421.855 Y-125.791
X420.46 Y-125.898
X419.118 Y-126.018
X417.829 Y-126.15
X416.593 Y-126.293
X415.407 Y-126.448
X414.277 Y-126.613
X413.201 Y-126.789
X412.175 Y-126.976
X411.203 Y-127.173
X410.283 Y-127.378
X409.414 Y-127.592
X408.603 Y-127.812
X407.842 Y-128.04
X407.128 Y-128.275
X406.468 Y-128.514
X405.855 Y-128.757
X405.291 Y-129.002
X404.774 Y-129.25
X404.298 Y-129.499
X403.868 Y-129.745
X403.476 Y-129.991
X403.125 Y-130.233
X402.808 Y-130.473
X402.526 Y-130.707
X402.276 Y-130.937
X402.049 Y-131.165
X401.846 Y-131.392
X401.662 Y-131.619
X401.495 Y-131.848
X401.345 Y-132.077
X401.208 Y-132.311
X401.08 Y-132.558
X400.96 Y-132.818
X400.847 Y-133.099
X400.744 Y-133.393
X400.648 Y-133.706
X400.561 Y-134.04
X400.485 Y-134.387
X400.42 Y-134.751
X400.365 Y-135.142
X400.32 Y-135.551
X400.292 Y-135.928
X400.262 Y-136.884
X400.286 Y-137.855
X400.36 Y-138.892
X400.485 Y-139.984
X400.657 Y-141.114
X400.875 Y-142.273
X401.137 Y-143.452
X401.44 Y-144.638
X401.783 Y-145.826
X402.164 Y-147.011
X402.582 Y-148.188
X403.035 Y-149.352
X403.517 Y-150.492
X404.029 Y-151.606
X404.563 Y-152.684
X405.122 Y-153.721
X405.706 Y-154.726
X406.315 Y-155.698
X406.945 Y-156.635
X407.596 Y-157.538
X408.265 Y-158.404
X408.952 Y-159.235
X409.658 Y-160.035
X410.395 Y-160.821
X411.154 Y-161.59
X412.831 Y-163.206
X414.577 Y-164.84
G2 X414.636 Y-164.896 I-4.339 J-4.636
G1 X416.392 Y-166.581
G2 X416.525 Y-166.713 I-4.398 J-4.581
G1 X417.384 Y-167.588
G2 X417.521 Y-167.732 I-4.531 J-4.449
G1 X418.361 Y-168.643
G2 X418.529 Y-168.833 I-4.668 J-4.305
G1 X419.345 Y-169.792
G2 X419.528 Y-170.017 I-4.836 J-4.115
G1 X420.317 Y-171.035
G2 X420.463 Y-171.23 I-5.019 J-3.89
G1 X420.845 Y-171.764
G2 X420.936 Y-171.895 I-5.165 J-3.695
G1 X421.311 Y-172.448
G2 X421.411 Y-172.6 I-5.256 J-3.564
G1 X421.776 Y-173.173
G2 X421.871 Y-173.327 I-5.356 J-3.412
G1 X422.226 Y-173.921
G2 X422.32 Y-174.084 I-5.451 J-3.258
G1 X422.665 Y-174.702
G2 X422.748 Y-174.856 I-5.545 J-3.095
G1 X423.083 Y-175.497
G2 X423.172 Y-175.674 I-5.628 J-2.941
G1 X423.495 Y-176.342
G2 X423.57 Y-176.502 I-5.717 J-2.764
G1 X423.882 Y-177.196
G2 X418.09 Y-186.15 I-5.792 J-2.604
G1 X-130.385
G2 X-135.522 Y-176.068 J6.35
G1 X-5.035 Y3.532
G2 X0.102 Y6.15 I5.137 J-3.732
G1 X869.82
G2 X874.957 Y3.532 J-6.35
G1 X984.065 Y-146.638
X1005.447 Y-176.068 Z-18.871 F400.3
G2 X1000.31 Y-186.15 Z-19.205 I-5.137 J-3.732
G1 X925.358 Z-21
X451.832 F849.6
G2 X446.04 Y-177.196 J6.35
G1 X446.352 Y-176.502
G2 X446.427 Y-176.342 I5.792 J-2.604
G1 X446.75 Y-175.674
G2 X446.839 Y-175.497 I5.717 J-2.764
G1 X447.174 Y-174.856
G2 X447.257 Y-174.702 I5.628 J-2.941
G1 X447.602 Y-174.084
G2 X447.7 Y-173.915 I5.545 J-3.095
G1 X448.056 Y-173.321
G2 X448.147 Y-173.173 I5.447 J-3.264
G1 X448.512 Y-172.6
G2 X448.608 Y-172.455 I5.356 J-3.412
G1 X448.982 Y-171.902
G2 X449.077 Y-171.764 I5.26 J-3.557
G1 X449.459 Y-171.23
G2 X449.605 Y-171.035 I5.165 J-3.695
G1 X450.394 Y-170.017
G2 X450.577 Y-169.792 I5.019 J-3.89
G1 X451.393 Y-168.833
G2 X451.561 Y-168.643 I4.836 J-4.115
G1 X452.401 Y-167.732
G2 X452.538 Y-167.588 I4.668 J-4.305
G1 X453.397 Y-166.713
G2 X453.53 Y-166.581 I4.531 J-4.449
G1 X455.286 Y-164.896
G2 X455.345 Y-164.84 I4.398 J-4.58
G1 X457.091 Y-163.206
X458.768 Y-161.59
X459.527 Y-160.821
X460.264 Y-160.035
X460.97 Y-159.235
X461.657 Y-158.404
X462.326 Y-157.538
X462.977 Y-156.635
X463.607 Y-155.698
X464.216 Y-154.726
X464.8 Y-153.721
X465.36 Y-152.682
X465.894 Y-151.606
X466.404 Y-150.494
X466.887 Y-149.352
X467.34 Y-148.188
X467.758 Y-147.011
X468.139 Y-145.826
X468.482 Y-144.638
X468.785 Y-143.452
X469.047 Y-142.273
X469.265 Y-141.114
X469.437 Y-139.984
X469.562 Y-138.892
X469.636 Y-137.855
X469.66 Y-136.884
X469.63 Y-135.928
X469.602 Y-135.546
X469.558 Y-135.142
X469.503 Y-134.756
X469.437 Y-134.387
X469.361 Y-134.04
X469.274 Y-133.706
X469.178 Y-133.393
X469.075 Y-133.099
X468.962 Y-132.818
X468.842 Y-132.558
X468.714 Y-132.311
X468.577 Y-132.077
X468.427 Y-131.848
X468.26 Y-131.619
X468.076 Y-131.392
X467.873 Y-131.165
X467.646 Y-130.937
X467.396 Y-130.707
X467.114 Y-130.473
X466.797 Y-130.233
X466.446 Y-129.991
X466.054 Y-129.745
X465.624 Y-129.499
X465.148 Y-129.25
X464.629 Y-129.001
X464.066 Y-128.756
X463.455 Y-128.514
X462.796 Y-128.276
X462.081 Y-128.041
X461.319 Y-127.812
X460.508 Y-127.592
X459.639 Y-127.378
X458.719 Y-127.173
X457.747 Y-126.976
X456.721 Y-126.789
X455.645 Y-126.613
X454.515 Y-126.448
X453.329 Y-126.293
X452.093 Y-126.15
X450.804 Y-126.018
X449.462 Y-125.898
X448.067 Y-125.791
X446.616 Y-125.695
X445.113 Y-125.612
X443.557 Y-125.542
X441.947 Y-125.484
X440.282 Y-125.439
X438.561 Y-125.407
X436.786 Y-125.388
X434.961 Y-125.381
X433.136 Y-125.388
X431.361 Y-125.407
X429.64 Y-125.439
X427.976 Y-125.484
X426.365 Y-125.542
X424.809 Y-125.612
X423.306 Y-125.695
X421.855 Y-125.791
X420.46 Y-125.898
X419.118 Y-126.018
X417.829 Y-126.15
X416.593 Y-126.293
X415.407 Y-126.448
X414.277 Y-126.613
X413.201 Y-126.789
X412.175 Y-126.976
X411.203 Y-127.173
X410.283 Y-127.378
X409.414 Y-127.592
X408.603 Y-127.812
X407.842 Y-128.04
X407.128 Y-128.275
X406.468 Y-128.514
X405.855 Y-128.757
X405.291 Y-129.002
X404.774 Y-129.25
X404.298 Y-129.499
X403.868 Y-129.745
X403.476 Y-129.991
X403.125 Y-130.233
X402.808 Y-130.473
X402.526 Y-130.707
X402.276 Y-130.937
X402.049 Y-131.165
X401.846 Y-131.392
X401.662 Y-131.619
X401.495 Y-131.848
X401.345 Y-132.077
X401.208 Y-132.311
X401.08 Y-132.558
X400.96 Y-132.818
X400.847 Y-133.099
X400.744 Y-133.393
X400.648 Y-133.706
X400.561 Y-134.04
X400.485 Y-134.387
X400.42 Y-134.751
X400.365 Y-135.142
X400.32 Y-135.551
X400.292 Y-135.928
X400.262 Y-136.884
X400.286 Y-137.855
X400.36 Y-138.892
X400.485 Y-139.984
X400.657 Y-141.114
X400.875 Y-142.273
X401.137 Y-143.452
X401.44 Y-144.638
X401.783 Y-145.826
X402.164 Y-147.011
X402.582 Y-148.188
X403.035 Y-149.352
X403.517 Y-150.492
X404.029 Y-151.606
X404.563 Y-152.684
X405.122 Y-153.721
X405.706 Y-154.726
X406.315 Y-155.698
X406.945 Y-156.635
X407.596 Y-157.538
X408.265 Y-158.404
X408.952 Y-159.235
X409.658 Y-160.035
X410.395 Y-160.821
X411.154 Y-161.59
X412.831 Y-163.206
X414.577 Y-164.84
G2 X414.636 Y-164.896 I-4.339 J-4.636
G1 X416.392 Y-166.581
G2 X416.525 Y-166.713 I-4.398 J-4.581
G1 X417.384 Y-167.588
G2 X417.521 Y-167.732 I-4.531 J-4.449
G1 X418.361 Y-168.643
G2 X418.529 Y-168.833 I-4.668 J-4.305
G1 X419.345 Y-169.792
G2 X419.528 Y-170.017 I-4.836 J-4.115
G1 X420.317 Y-171.035
G2 X420.463 Y-171.23 I-5.019 J-3.89
G1 X420.845 Y-171.764
G2 X420.936 Y-171.895 I-5.165 J-3.695
G1 X421.311 Y-172.448
G2 X421.411 Y-172.6 I-5.256 J-3.564
G1 X421.776 Y-173.173
G2 X421.871 Y-173.327 I-5.356 J-3.412
G1 X422.226 Y-173.921
G2 X422.32 Y-174.084 I-5.451 J-3.258
G1 X422.665 Y-174.702
G2 X422.748 Y-174.856 I-5.545 J-3.095
G1 X423.083 Y-175.497
G2 X423.172 Y-175.674 I-5.628 J-2.941
G1 X423.495 Y-176.342
G2 X423.57 Y-176.502 I-5.717 J-2.764
G1 X423.882 Y-177.196
G2 X418.09 Y-186.15 I-5.792 J-2.604
G1 X-130.385
G2 X-135.522 Y-176.068 J6.35
G1 X-5.035 Y3.532
G2 X0.102 Y6.15 I5.137 J-3.732
G1 X869.82
G2 X874.957 Y3.532 J-6.35
G1 X984.065 Y-146.638
X1005.447 Y-176.068
G2 X1000.31 Y-186.15 I-5.137 J-3.732
G1 X925.358
X800.065 Z-24 F400.3
X451.832 F849.6
G2 X446.04 Y-177.196 J6.35
G1 X446.352 Y-176.502
G2 X446.427 Y-176.342 I5.792 J-2.604
G1 X446.75 Y-175.674
G2 X446.839 Y-175.497 I5.717 J-2.764
G1 X447.174 Y-174.856
G2 X447.257 Y-174.702 I5.628 J-2.941
G1 X447.602 Y-174.084
G2 X447.7 Y-173.915 I5.545 J-3.095
G1 X448.056 Y-173.321
G2 X448.147 Y-173.173 I5.447 J-3.264
G1 X448.512 Y-172.6
G2 X448.608 Y-172.455 I5.356 J-3.412
G1 X448.982 Y-171.902
G2 X449.077 Y-171.764 I5.26 J-3.557
G1 X449.459 Y-171.23
G2 X449.605 Y-171.035 I5.165 J-3.695
G1 X450.394 Y-170.017
G2 X450.577 Y-169.792 I5.019 J-3.89
G1 X451.393 Y-168.833
G2 X451.561 Y-168.643 I4.836 J-4.115
G1 X452.401 Y-167.732
G2 X452.538 Y-167.588 I4.668 J-4.305
G1 X453.397 Y-166.713
G2 X453.53 Y-166.581 I4.531 J-4.449
G1 X455.286 Y-164.896
G2 X455.345 Y-164.84 I4.398 J-4.58
G1 X457.091 Y-163.206
X458.768 Y-161.59
X459.527 Y-160.821
X460.264 Y-160.035
X460.97 Y-159.235
X461.657 Y-158.404
X462.326 Y-157.538
X462.977 Y-156.635
X463.607 Y-155.698
X464.216 Y-154.726
X464.8 Y-153.721
X465.36 Y-152.682
X465.894 Y-151.606
X466.404 Y-150.494
X466.887 Y-149.352
X467.34 Y-148.188
X467.758 Y-147.011
X468.139 Y-145.826
X468.482 Y-144.638
X468.785 Y-143.452
X469.047 Y-142.273
X469.265 Y-141.114
X469.437 Y-139.984
X469.562 Y-138.892
X469.636 Y-137.855
X469.66 Y-136.884
X469.63 Y-135.928
X469.602 Y-135.546
X469.558 Y-135.142
X469.503 Y-134.756
X469.437 Y-134.387
X469.361 Y-134.04
X469.274 Y-133.706
X469.178 Y-133.393
X469.075 Y-133.099
X468.962 Y-132.818
X468.842 Y-132.558
X468.714 Y-132.311
X468.577 Y-132.077
X468.427 Y-131.848
X468.26 Y-131.619
X468.076 Y-131.392
X467.873 Y-131.165
X467.646 Y-130.937
X467.396 Y-130.707
X467.114 Y-130.473
X466.797 Y-130.233
X466.446 Y-129.991
X466.054 Y-129.745
X465.624 Y-129.499
X465.148 Y-129.25
X464.629 Y-129.001
X464.066 Y-128.756
X463.455 Y-128.514
X462.796 Y-128.276
X462.081 Y-128.041
X461.319 Y-127.812
X460.508 Y-127.592
X459.639 Y-127.378
X458.719 Y-127.173
X457.747 Y-126.976
X456.721 Y-126.789
X455.645 Y-126.613
X454.515 Y-126.448
X453.329 Y-126.293
X452.093 Y-126.15
X450.804 Y-126.018
X449.462 Y-125.898
X448.067 Y-125.791
X446.616 Y-125.695
X445.113 Y-125.612
X443.557 Y-125.542
X441.947 Y-125.484
X440.282 Y-125.439
X438.561 Y-125.407
X436.786 Y-125.388
X434.961 Y-125.381
X433.136 Y-125.388
X431.361 Y-125.407
X429.64 Y-125.439
X427.976 Y-125.484
X426.365 Y-125.542
X424.809 Y-125.612
X423.306 Y-125.695
X421.855 Y-125.791
X420.46 Y-125.898
X419.118 Y-126.018
X417.829 Y-126.15
X416.593 Y-126.293
X415.407 Y-126.448
X414.277 Y-126.613
X413.201 Y-126.789
X412.175 Y-126.976
X411.203 Y-127.173
X410.283 Y-127.378
X409.414 Y-127.592
X408.603 Y-127.812
X407.842 Y-128.04
X407.128 Y-128.275
X406.468 Y-128.514
X405.855 Y-128.757
X405.291 Y-129.002
X404.774 Y-129.25
X404.298 Y-129.499
X403.868 Y-129.745
X403.476 Y-129.991
X403.125 Y-130.233
X402.808 Y-130.473
X402.526 Y-130.707
X402.276 Y-130.937
X402.049 Y-131.165
X401.846 Y-131.392
X401.662 Y-131.619
X401.495 Y-131.848
X401.345 Y-132.077
X401.208 Y-132.311
X401.08 Y-132.558
X400.96 Y-132.818
X400.847 Y-133.099
X400.744 Y-133.393
X400.648 Y-133.706
X400.561 Y-134.04
X400.485 Y-134.387
X400.42 Y-134.751
X400.365 Y-135.142
X400.32 Y-135.551
X400.292 Y-135.928
X400.262 Y-136.884
X400.286 Y-137.855
X400.36 Y-138.892
X400.485 Y-139.984
X400.657 Y-141.114
X400.875 Y-142.273
X401.137 Y-143.452
X401.44 Y-144.638
X401.783 Y-145.826
X402.164 Y-147.011
X402.582 Y-148.188
X403.035 Y-149.352
X403.517 Y-150.492
X404.029 Y-151.606
X404.563 Y-152.684
X405.122 Y-153.721
X405.706 Y-154.726
X406.315 Y-155.698
X406.945 Y-156.635
X407.596 Y-157.538
X408.265 Y-158.404
X408.952 Y-159.235
X409.658 Y-160.035
X410.395 Y-160.821
X411.154 Y-161.59
X412.831 Y-163.206
X414.577 Y-164.84
G2 X414.636 Y-164.896 I-4.339 J-4.636
G1 X416.392 Y-166.581
G2 X416.525 Y-166.713 I-4.398 J-4.581
G1 X417.384 Y-167.588
G2 X417.521 Y-167.732 I-4.531 J-4.449
G1 X418.361 Y-168.643
G2 X418.529 Y-168.833 I-4.668 J-4.305
G1 X419.345 Y-169.792
G2 X419.528 Y-170.017 I-4.836 J-4.115
G1 X420.317 Y-171.035
G2 X420.463 Y-171.23 I-5.019 J-3.89
G1 X420.845 Y-171.764
G2 X420.936 Y-171.895 I-5.165 J-3.695
G1 X421.311 Y-172.448
G2 X421.411 Y-172.6 I-5.256 J-3.564
G1 X421.776 Y-173.173
G2 X421.871 Y-173.327 I-5.356 J-3.412
G1 X422.226 Y-173.921
G2 X422.32 Y-174.084 I-5.451 J-3.258
G1 X422.665 Y-174.702
G2 X422.748 Y-174.856 I-5.545 J-3.095
G1 X423.083 Y-175.497
G2 X423.172 Y-175.674 I-5.628 J-2.941
G1 X423.495 Y-176.342
G2 X423.57 Y-176.502 I-5.717 J-2.764
G1 X423.882 Y-177.196
G2 X418.09 Y-186.15 I-5.792 J-2.604
G1 X-130.385
G2 X-135.522 Y-176.068 J6.35
G1 X-5.035 Y3.532
G2 X0.102 Y6.15 I5.137 J-3.732
G1 X869.82
G2 X874.957 Y3.532 J-6.35
G1 X1005.447 Y-176.068
G2 X1000.31 Y-186.15 I-5.137 J-3.732
G1 X800.065
X674.772 Z-27 F400.3
X451.832 F849.6
G2 X446.04 Y-177.196 J6.35
G1 X446.352 Y-176.502
G2 X446.427 Y-176.342 I5.792 J-2.604
G1 X446.75 Y-175.674
G2 X446.839 Y-175.497 I5.717 J-2.764
G1 X447.174 Y-174.856
G2 X447.257 Y-174.702 I5.628 J-2.941
G1 X447.602 Y-174.084
G2 X447.7 Y-173.915 I5.545 J-3.095
G1 X448.056 Y-173.321
G2 X448.147 Y-173.173 I5.447 J-3.264
G1 X448.512 Y-172.6
G2 X448.608 Y-172.455 I5.356 J-3.412
G1 X448.982 Y-171.902
G2 X449.077 Y-171.764 I5.26 J-3.557
G1 X449.459 Y-171.23
G2 X449.605 Y-171.035 I5.165 J-3.695
G1 X450.394 Y-170.017
G2 X450.577 Y-169.792 I5.019 J-3.89
G1 X451.393 Y-168.833
G2 X451.561 Y-168.643 I4.836 J-4.115
G1 X452.401 Y-167.732
G2 X452.538 Y-167.588 I4.668 J-4.305
G1 X453.397 Y-166.713
G2 X453.53 Y-166.581 I4.531 J-4.449
G1 X455.286 Y-164.896
G2 X455.345 Y-164.84 I4.398 J-4.58
G1 X457.091 Y-163.206
X458.768 Y-161.59
X459.527 Y-160.821
X460.264 Y-160.035
X460.97 Y-159.235
X461.657 Y-158.404
X462.326 Y-157.538
X462.977 Y-156.635
X463.607 Y-155.698
X464.216 Y-154.726
X464.8 Y-153.721
X465.36 Y-152.682
X465.894 Y-151.606
X466.404 Y-150.494
X466.887 Y-149.352
X467.34 Y-148.188
X467.758 Y-147.011
X468.139 Y-145.826
X468.482 Y-144.638
X468.785 Y-143.452
X469.047 Y-142.273
X469.265 Y-141.114
X469.437 Y-139.984
X469.562 Y-138.892
X469.636 Y-137.855
X469.66 Y-136.884
X469.63 Y-135.928
X469.602 Y-135.546
X469.558 Y-135.142
X469.503 Y-134.756
X469.437 Y-134.387
X469.361 Y-134.04
X469.274 Y-133.706
X469.178 Y-133.393
X469.075 Y-133.099
X468.962 Y-132.818
X468.842 Y-132.558
X468.714 Y-132.311
X468.577 Y-132.077
X468.427 Y-131.848
X468.26 Y-131.619
X468.076 Y-131.392
X467.873 Y-131.165
X467.646 Y-130.937
X467.396 Y-130.707
X467.114 Y-130.473
X466.797 Y-130.233
X466.446 Y-129.991
X466.054 Y-129.745
X465.624 Y-129.499
X465.148 Y-129.25
X464.629 Y-129.001
X464.066 Y-128.756
X463.455 Y-128.514
X462.796 Y-128.276
X462.081 Y-128.041
X461.319 Y-127.812
X460.508 Y-127.592
X459.639 Y-127.378
X458.719 Y-127.173
X457.747 Y-126.976
X456.721 Y-126.789
X455.645 Y-126.613
X454.515 Y-126.448
X453.329 Y-126.293
X452.093 Y-126.15
X450.804 Y-126.018
X449.462 Y-125.898
X448.067 Y-125.791
X446.616 Y-125.695
X445.113 Y-125.612
X443.557 Y-125.542
X441.947 Y-125.484
X440.282 Y-125.439
X438.561 Y-125.407
X436.786 Y-125.388
X434.961 Y-125.381
X433.136 Y-125.388
X431.361 Y-125.407
X429.64 Y-125.439
X427.976 Y-125.484
X426.365 Y-125.542
X424.809 Y-125.612
X423.306 Y-125.695
X421.855 Y-125.791
X420.46 Y-125.898
X419.118 Y-126.018
X417.829 Y-126.15
X416.593 Y-126.293
X415.407 Y-126.448
X414.277 Y-126.613
X413.201 Y-126.789
X412.175 Y-126.976
X411.203 Y-127.173
X410.283 Y-127.378
X409.414 Y-127.592
X408.603 Y-127.812
X407.842 Y-128.04
X407.128 Y-128.275
X406.468 Y-128.514
X405.855 Y-128.757
X405.291 Y-129.002
X404.774 Y-129.25
X404.298 Y-129.499
X403.868 Y-129.745
X403.476 Y-129.991
X403.125 Y-130.233
X402.808 Y-130.473
X402.526 Y-130.707
X402.276 Y-130.937
X402.049 Y-131.165
X401.846 Y-131.392
X401.662 Y-131.619
X401.495 Y-131.848
X401.345 Y-132.077
X401.208 Y-132.311
X401.08 Y-132.558
X400.96 Y-132.818
X400.847 Y-133.099
X400.744 Y-133.393
X400.648 Y-133.706
X400.561 Y-134.04
X400.485 Y-134.387
X400.42 Y-134.751
X400.365 Y-135.142
X400.32 Y-135.551
X400.292 Y-135.928
X400.262 Y-136.884
X400.286 Y-137.855
X400.36 Y-138.892
X400.485 Y-139.984
X400.657 Y-141.114
X400.875 Y-142.273
X401.137 Y-143.452
X401.44 Y-144.638
X401.783 Y-145.826
X402.164 Y-147.011
X402.582 Y-148.188
X403.035 Y-149.352
X403.517 Y-150.492
X404.029 Y-151.606
X404.563 Y-152.684
X405.122 Y-153.721
X405.706 Y-154.726
X406.315 Y-155.698
X406.945 Y-156.635
X407.596 Y-157.538
X408.265 Y-158.404
X408.952 Y-159.235
X409.658 Y-160.035
X410.395 Y-160.821
X411.154 Y-161.59
X412.831 Y-163.206
X414.577 Y-164.84
G2 X414.636 Y-164.896 I-4.339 J-4.636
G1 X416.392 Y-166.581
G2 X416.525 Y-166.713 I-4.398 J-4.581
G1 X417.384 Y-167.588
G2 X417.521 Y-167.732 I-4.531 J-4.449
G1 X418.361 Y-168.643
G2 X418.529 Y-168.833 I-4.668 J-4.305
G1 X419.345 Y-169.792
G2 X419.528 Y-170.017 I-4.836 J-4.115
G1 X420.317 Y-171.035
G2 X420.463 Y-171.23 I-5.019 J-3.89
G1 X420.845 Y-171.764
G2 X420.936 Y-171.895 I-5.165 J-3.695
G1 X421.311 Y-172.448
G2 X421.411 Y-172.6 I-5.256 J-3.564
G1 X421.776 Y-173.173
G2 X421.871 Y-173.327 I-5.356 J-3.412
G1 X422.226 Y-173.921
G2 X422.32 Y-174.084 I-5.451 J-3.258
G1 X422.665 Y-174.702
G2 X422.748 Y-174.856 I-5.545 J-3.095
G1 X423.083 Y-175.497
G2 X423.172 Y-175.674 I-5.628 J-2.941
G1 X423.495 Y-176.342
G2 X423.57 Y-176.502 I-5.717 J-2.764
G1 X423.882 Y-177.196
G2 X418.09 Y-186.15 I-5.792 J-2.604
G1 X-130.385
G2 X-135.522 Y-176.068 J6.35
G1 X-5.035 Y3.532
G2 X0.102 Y6.15 I5.137 J-3.732
G1 X869.82
G2 X874.957 Y3.532 J-6.35
G1 X1005.447 Y-176.068
G2 X1000.31 Y-186.15 I-5.137 J-3.732
G1 X800.065
X674.772
X549.479 Z-30 F400.3
X451.832 F849.6
G2 X446.04 Y-177.196 J6.35
G1 X446.352 Y-176.502
G2 X446.427 Y-176.342 I5.792 J-2.604
G1 X446.75 Y-175.674
G2 X446.839 Y-175.497 I5.717 J-2.764
G1 X447.174 Y-174.856
G2 X447.257 Y-174.702 I5.628 J-2.941
G1 X447.602 Y-174.084
G2 X447.7 Y-173.915 I5.545 J-3.095
G1 X448.056 Y-173.321
G2 X448.147 Y-173.173 I5.447 J-3.264
G1 X448.512 Y-172.6
G2 X448.608 Y-172.455 I5.356 J-3.412
G1 X448.982 Y-171.902
G2 X449.077 Y-171.764 I5.26 J-3.557
G1 X449.459 Y-171.23
G2 X449.605 Y-171.035 I5.165 J-3.695
G1 X450.394 Y-170.017
G2 X450.577 Y-169.792 I5.019 J-3.89
G1 X451.393 Y-168.833
G2 X451.561 Y-168.643 I4.836 J-4.115
G1 X452.401 Y-167.732
G2 X452.538 Y-167.588 I4.668 J-4.305
G1 X453.397 Y-166.713
G2 X453.53 Y-166.581 I4.531 J-4.449
G1 X455.286 Y-164.896
G2 X455.345 Y-164.84 I4.398 J-4.58
G1 X457.091 Y-163.206
X458.768 Y-161.59
X459.527 Y-160.821
X460.264 Y-160.035
X460.97 Y-159.235
X461.657 Y-158.404
X462.326 Y-157.538
X462.977 Y-156.635
X463.607 Y-155.698
X464.216 Y-154.726
X464.8 Y-153.721
X465.36 Y-152.682
X465.894 Y-151.606
X466.404 Y-150.494
X466.887 Y-149.352
X467.34 Y-148.188
X467.758 Y-147.011
X468.139 Y-145.826
X468.482 Y-144.638
X468.785 Y-143.452
X469.047 Y-142.273
X469.265 Y-141.114
X469.437 Y-139.984
X469.562 Y-138.892
X469.636 Y-137.855
X469.66 Y-136.884
X469.63 Y-135.928
X469.602 Y-135.546
X469.558 Y-135.142
X469.503 Y-134.756
X469.437 Y-134.387
X469.361 Y-134.04
X469.274 Y-133.706
X469.178 Y-133.393
X469.075 Y-133.099
X468.962 Y-132.818
X468.842 Y-132.558
X468.714 Y-132.311
X468.577 Y-132.077
X468.427 Y-131.848
X468.26 Y-131.619
X468.076 Y-131.392
X467.873 Y-131.165
X467.646 Y-130.937
X467.396 Y-130.707
X467.114 Y-130.473
X466.797 Y-130.233
X466.446 Y-129.991
X466.054 Y-129.745
X465.624 Y-129.499
X465.148 Y-129.25
X464.629 Y-129.001
X464.066 Y-128.756
X463.455 Y-128.514
X462.796 Y-128.276
X462.081 Y-128.041
X461.319 Y-127.812
X460.508 Y-127.592
X459.639 Y-127.378
X458.719 Y-127.173
X457.747 Y-126.976
X456.721 Y-126.789
X455.645 Y-126.613
X454.515 Y-126.448
X453.329 Y-126.293
X452.093 Y-126.15
X450.804 Y-126.018
X449.462 Y-125.898
X448.067 Y-125.791
X446.616 Y-125.695
X445.113 Y-125.612
X443.557 Y-125.542
X441.947 Y-125.484
X440.282 Y-125.439
X438.561 Y-125.407
X436.786 Y-125.388
X434.961 Y-125.381
X433.136 Y-125.388
X431.361 Y-125.407
X429.64 Y-125.439
X427.976 Y-125.484
X426.365 Y-125.542
X424.809 Y-125.612
X423.306 Y-125.695
X421.855 Y-125.791
X420.46 Y-125.898
X419.118 Y-126.018
X417.829 Y-126.15
X416.593 Y-126.293
X415.407 Y-126.448
X414.277 Y-126.613
X413.201 Y-126.789
X412.175 Y-126.976
X411.203 Y-127.173
X410.283 Y-127.378
X409.414 Y-127.592
X408.603 Y-127.812
X407.842 Y-128.04
X407.128 Y-128.275
X406.468 Y-128.514
X405.855 Y-128.757
X405.291 Y-129.002
X404.774 Y-129.25
X404.298 Y-129.499
X403.868 Y-129.745
X403.476 Y-129.991
X403.125 Y-130.233
X402.808 Y-130.473
X402.526 Y-130.707
X402.276 Y-130.937
X402.049 Y-131.165
X401.846 Y-131.392
X401.662 Y-131.619
X401.495 Y-131.848
X401.345 Y-132.077
X401.208 Y-132.311
X401.08 Y-132.558
X400.96 Y-132.818
X400.847 Y-133.099
X400.744 Y-133.393
X400.648 Y-133.706
X400.561 Y-134.04
X400.485 Y-134.387
X400.42 Y-134.751
X400.365 Y-135.142
X400.32 Y-135.551
X400.292 Y-135.928
X400.262 Y-136.884
X400.286 Y-137.855
X400.36 Y-138.892
X400.485 Y-139.984
X400.657 Y-141.114
X400.875 Y-142.273
X401.137 Y-143.452
X401.44 Y-144.638
X401.783 Y-145.826
X402.164 Y-147.011
X402.582 Y-148.188
X403.035 Y-149.352
X403.517 Y-150.492
X404.029 Y-151.606
X404.563 Y-152.684
X405.122 Y-153.721
X405.706 Y-154.726
X406.315 Y-155.698
X406.945 Y-156.635
X407.596 Y-157.538
X408.265 Y-158.404
X408.952 Y-159.235
X409.658 Y-160.035
X410.395 Y-160.821
X411.154 Y-161.59
X412.831 Y-163.206
X414.577 Y-164.84
G2 X414.636 Y-164.896 I-4.339 J-4.636
G1 X416.392 Y-166.581
G2 X416.525 Y-166.713 I-4.398 J-4.581
G1 X417.384 Y-167.588
G2 X417.521 Y-167.732 I-4.531 J-4.449
G1 X418.361 Y-168.643
G2 X418.529 Y-168.833 I-4.668 J-4.305
G1 X419.345 Y-169.792
G2 X419.528 Y-170.017 I-4.836 J-4.115
G1 X420.317 Y-171.035
G2 X420.463 Y-171.23 I-5.019 J-3.89
G1 X420.845 Y-171.764
G2 X420.936 Y-171.895 I-5.165 J-3.695
G1 X421.311 Y-172.448
G2 X421.411 Y-172.6 I-5.256 J-3.564
G1 X421.776 Y-173.173
G2 X421.871 Y-173.327 I-5.356 J-3.412
G1 X422.226 Y-173.921
G2 X422.32 Y-174.084 I-5.451 J-3.258
G1 X422.665 Y-174.702
G2 X422.748 Y-174.856 I-5.545 J-3.095
G1 X423.083 Y-175.497
G2 X423.172 Y-175.674 I-5.628 J-2.941
G1 X423.495 Y-176.342
G2 X423.57 Y-176.502 I-5.717 J-2.764
G1 X423.882 Y-177.196
G2 X418.09 Y-186.15 I-5.792 J-2.604
G1 X-130.385
G2 X-135.522 Y-176.068 J6.35
G1 X-5.035 Y3.532
G2 X0.102 Y6.15 I5.137 J-3.732
G1 X869.82
G2 X874.957 Y3.532 J-6.35
G1 X1005.447 Y-176.068
G2 X1000.31 Y-186.15 I-5.137 J-3.732
G1 X674.772
X549.479
G3 X548.209 Y-187.42 J-1.27
G1 Y-188.69
G19 G2 Y-189.96 Z-28.73 K1.27
G0 Z15
G17

(2D Adaptive15 9)
M9
G0 X-58.486 Y-139.396
Z15
Z5
Z3.77
G1 Z2.5 F849.6
G3 X-64.411 Y-140.342 Z2.171 I-2.963 J-0.473 F400.3
X-58.486 Y-139.396 Z1.842 I2.963 J0.473
X-64.411 Y-140.342 Z1.513 I-2.963 J-0.473
X-58.486 Y-139.396 Z1.184 I2.963 J0.473
X-64.411 Y-140.342 Z0.854 I-2.963 J-0.473
X-58.486 Y-139.396 Z0.525 I2.963 J0.473
X-64.411 Y-140.342 Z0.196 I-2.963 J-0.473
X-58.486 Y-139.396 Z-0.133 I2.963 J0.473
X-64.411 Y-140.342 Z-0.462 I-2.963 J-0.473
X-58.486 Y-139.396 Z-0.791 I2.963 J0.473
X-64.411 Y-140.342 Z-1.12 I-2.963 J-0.473
X-58.486 Y-139.396 Z-1.449 I2.963 J0.473
X-64.411 Y-140.342 Z-1.779 I-2.963 J-0.473
X-58.486 Y-139.396 Z-2.108 I2.963 J0.473
X-64.411 Y-140.342 Z-2.437 I-2.963 J-0.473
X-58.486 Y-139.396 Z-2.766 I2.963 J0.473
X-64.411 Y-140.342 Z-3.095 I-2.963 J-0.473
X-58.486 Y-139.396 Z-3.424 I2.963 J0.473
X-64.411 Y-140.342 Z-3.753 I-2.963 J-0.473
X-58.486 Y-139.396 Z-4.082 I2.963 J0.473
X-64.411 Y-140.342 Z-4.412 I-2.963 J-0.473
X-58.486 Y-139.396 Z-4.741 I2.963 J0.473
X-64.411 Y-140.342 Z-5.07 I-2.963 J-0.473
X-58.486 Y-139.396 Z-5.399 I2.963 J0.473
X-64.411 Y-140.342 Z-5.728 I-2.963 J-0.473
X-58.486 Y-139.396 Z-6.057 I2.963 J0.473
X-64.411 Y-140.342 Z-6.386 I-2.963 J-0.473
X-58.486 Y-139.396 Z-6.715 I2.963 J0.473
X-64.411 Y-140.342 Z-7.044 I-2.963 J-0.473
X-58.486 Y-139.396 Z-7.374 I2.963 J0.473
X-64.411 Y-140.342 Z-7.703 I-2.963 J-0.473
X-58.486 Y-139.396 Z-8.032 I2.963 J0.473
X-64.411 Y-140.342 Z-8.361 I-2.963 J-0.473
X-58.486 Y-139.396 Z-8.69 I2.963 J0.473
X-64.411 Y-140.342 Z-9.019 I-2.963 J-0.473
X-58.486 Y-139.396 Z-9.348 I2.963 J0.473
X-64.411 Y-140.342 Z-9.677 I-2.963 J-0.473
X-58.449 Y-139.869 Z-9.99 I2.963 J0.473
X-64.449 I-3
X-58.449 I3
G1 X-58.427 Y-138.577 F849.6
X-58.42 Y-138.497
X-58.414 Y-138.347
X-58.421 Y-138.197
X-58.441 Y-138.048
X-58.472 Y-137.902
X-58.513 Y-137.757
X-58.564 Y-137.616
X-58.624 Y-137.479
X-58.691 Y-137.345
X-58.766 Y-137.215
X-58.849 Y-137.088
X-58.942 Y-136.962
X-59.044 Y-136.838
X-59.156 Y-136.717
X-59.276 Y-136.599
X-59.406 Y-136.485
X-59.545 Y-136.376
X-59.693 Y-136.273
X-59.848 Y-136.176
X-60.012 Y-136.086
X-60.183 Y-136.004
X-60.36 Y-135.93
X-60.544 Y-135.865
X-60.734 Y-135.809
X-60.929 Y-135.764
X-61.129 Y-135.728
X-61.332 Y-135.703
X-61.792 Y-135.704
X-62.247 Y-135.772
X-62.688 Y-135.905
X-63.105 Y-136.1
X-63.489 Y-136.352
X-63.833 Y-136.658
X-64.13 Y-137.009
X-64.991 Y-138.195
X-65.084 Y-138.337
X-65.172 Y-138.489
X-65.253 Y-138.648
X-65.326 Y-138.815
X-65.392 Y-138.989
X-65.449 Y-139.169
X-65.497 Y-139.354
X-65.535 Y-139.545
X-65.564 Y-139.74
X-65.582 Y-139.939
X-65.589 Y-140.14
X-65.585 Y-140.345
X-65.57 Y-140.55
X-65.544 Y-140.757
X-65.506 Y-140.964
X-65.457 Y-141.17
X-65.396 Y-141.375
X-65.323 Y-141.577
X-65.24 Y-141.777
X-65.144 Y-141.973
X-65.038 Y-142.165
X-64.921 Y-142.352
X-64.793 Y-142.533
X-64.655 Y-142.708
X-64.507 Y-142.875
X-64.349 Y-143.035
X-64.183 Y-143.187
X-64.008 Y-143.331
X-63.824 Y-143.464
X-63.633 Y-143.589
X-63.435 Y-143.702
X-63.231 Y-143.806
X-63.021 Y-143.898
X-62.806 Y-143.979
X-62.586 Y-144.048
X-62.362 Y-144.106
X-62.135 Y-144.151
X-61.906 Y-144.184
X-61.674 Y-144.204
X-61.637 Y-144.206
X-61.177 Y-144.189
X-60.724 Y-144.109
X-60.286 Y-143.967
X-59.873 Y-143.765
X-59.491 Y-143.508
X-59.15 Y-143.2
X-58.854 Y-142.847
X-57.921 Y-141.563
X-57.666 Y-141.172
X-57.525 Y-140.93
X-57.404 Y-140.691
X-57.3 Y-140.454
X-57.21 Y-140.218
X-57.135 Y-139.982
X-57.075 Y-139.746
X-57.027 Y-139.512
X-56.993 Y-139.277
X-56.972 Y-139.044
X-56.964 Y-138.81
X-56.968 Y-138.577
X-56.985 Y-138.344
X-57.014 Y-138.112
X-57.056 Y-137.882
X-57.111 Y-137.653
X-57.179 Y-137.426
X-57.259 Y-137.202
X-57.352 Y-136.981
X-57.457 Y-136.763
X-57.575 Y-136.551
X-57.706 Y-136.343
X-57.848 Y-136.141
X-58.003 Y-135.945
X-58.17 Y-135.756
X-58.348 Y-135.575
X-58.537 Y-135.403
X-58.732 Y-135.243
X-58.925 Y-135.103
X-59.146 Y-134.959
X-59.357 Y-134.837
X-59.577 Y-134.726
X-59.815 Y-134.621
X-60.037 Y-134.538
X-60.451 Y-134.442
X-60.874 Y-134.412
X-61.296 Y-134.448
X-61.708 Y-134.549
X-62.1 Y-134.713
X-62.461 Y-134.935
X-62.783 Y-135.211
X-63.058 Y-135.534
X-64.13 Y-137.009
G3 X-64.322 Y-137.466 I1.053 J-0.71
X-63.83 Y-138.742 I1.245 J-0.253
G1 X-59.675 Y-141.804
G3 X-58.296 Y-141.887 I0.753 J1.022
X-57.921 Y-141.563 I-0.625 J1.105
G1 X-56.55 Y-139.677
X-56.451 Y-139.525
X-56.376 Y-139.396
X-56.309 Y-139.262
X-56.245 Y-139.116
X-56.186 Y-138.957
X-56.133 Y-138.788
X-56.088 Y-138.611
X-56.051 Y-138.424
X-56.023 Y-138.225
X-56.004 Y-138.016
X-55.997 Y-137.8
X-56.002 Y-137.578
X-56.02 Y-137.35
X-56.05 Y-137.115
X-56.095 Y-136.874
X-56.155 Y-136.629
X-56.23 Y-136.381
X-56.319 Y-136.134
X-56.424 Y-135.887
X-56.545 Y-135.641
X-56.68 Y-135.398
X-56.831 Y-135.16
X-56.998 Y-134.925
X-57.178 Y-134.7
X-57.352 Y-134.503
X-57.553 Y-134.3
X-57.75 Y-134.123
X-57.948 Y-133.962
X-58.169 Y-133.802
X-58.377 Y-133.668
X-58.6 Y-133.54
X-58.829 Y-133.425
X-59.045 Y-133.331
X-59.286 Y-133.242
X-59.666 Y-133.155
X-60.055 Y-133.129
X-60.443 Y-133.162
X-60.822 Y-133.256
X-61.181 Y-133.407
X-61.513 Y-133.612
X-61.809 Y-133.866
X-62.062 Y-134.163
X-63.058 Y-135.534
G3 X-62.655 Y-137.336 I1.053 J-0.71
G1 X-58.201 Y-139.987
G3 X-56.926 Y-140.001 I0.65 J1.091
X-56.55 Y-139.677 I-0.625 J1.105
G1 X-55.637 Y-138.42
X-55.546 Y-138.281
X-55.471 Y-138.151
X-55.404 Y-138.017
X-55.346 Y-137.879
X-55.292 Y-137.73
X-55.242 Y-137.567
X-55.2 Y-137.392
X-55.165 Y-137.208
X-55.139 Y-137.013
X-55.123 Y-136.803
X-55.118 Y-136.584
X-55.125 Y-136.357
X-55.146 Y-136.122
X-55.18 Y-135.881
X-55.229 Y-135.631
X-55.293 Y-135.377
X-55.373 Y-135.121
X-55.468 Y-134.865
X-55.58 Y-134.61
X-55.707 Y-134.357
X-55.849 Y-134.107
X-56.008 Y-133.862
X-56.182 Y-133.623
X-56.369 Y-133.392
X-56.551 Y-133.191
X-56.757 Y-132.987
X-56.957 Y-132.81
X-57.161 Y-132.648
X-57.38 Y-132.492
X-57.587 Y-132.362
X-57.813 Y-132.235
X-58.037 Y-132.126
X-58.106 Y-132.097
X-58.515 Y-131.963
X-58.94 Y-131.899
X-59.37 Y-131.907
X-59.793 Y-131.987
X-60.196 Y-132.137
X-60.569 Y-132.352
X-60.9 Y-132.626
X-61.182 Y-132.951
X-62.062 Y-134.163
G3 X-61.688 Y-135.946 I1.053 J-0.71
G1 X-57.317 Y-138.711
G3 X-56.013 Y-138.743 I0.679 J1.073
X-55.637 Y-138.42 I-0.625 J1.105
G1 X-54.754 Y-137.204
X-54.67 Y-137.076
X-54.595 Y-136.946
X-54.528 Y-136.812
X-54.47 Y-136.674
X-54.415 Y-136.522
X-54.365 Y-136.357
X-54.322 Y-136.183
X-54.287 Y-135.996
X-54.261 Y-135.795
X-54.245 Y-135.583
X-54.24 Y-135.362
X-54.247 Y-135.133
X-54.268 Y-134.891
X-54.303 Y-134.643
X-54.353 Y-134.388
X-54.419 Y-134.131
X-54.5 Y-133.872
X-54.597 Y-133.613
X-54.71 Y-133.353
X-54.839 Y-133.096
X-54.985 Y-132.841
X-55.146 Y-132.592
X-55.31 Y-132.366
X-55.492 Y-132.143
X-55.682 Y-131.933
X-55.865 Y-131.753
X-56.072 Y-131.569
X-56.278 Y-131.406
X-56.475 Y-131.265
X-56.701 Y-131.123
X-56.917 Y-131.002
X-57.127 Y-130.9
X-57.554 Y-130.76
X-57.999 Y-130.694
X-58.448 Y-130.703
X-58.89 Y-130.786
X-59.311 Y-130.943
X-59.7 Y-131.167
X-60.047 Y-131.453
X-60.34 Y-131.793
X-61.182 Y-132.951
G3 X-60.807 Y-134.735 I1.053 J-0.71
G1 X-56.432 Y-137.496
G3 X-55.129 Y-137.528 I0.678 J1.074
X-54.754 Y-137.204 I-0.625 J1.105
G1 X-53.878 Y-135.999
X-53.788 Y-135.861
X-53.713 Y-135.731
X-53.646 Y-135.597
X-53.587 Y-135.459
X-53.531 Y-135.305
X-53.481 Y-135.139
X-53.438 Y-134.964
X-53.402 Y-134.774
X-53.375 Y-134.57
X-53.358 Y-134.356
X-53.353 Y-134.134
X-53.36 Y-133.903
X-53.38 Y-133.66
X-53.415 Y-133.41
X-53.465 Y-133.156
X-53.53 Y-132.899
X-53.61 Y-132.641
X-53.707 Y-132.381
X-53.819 Y-132.123
X-53.948 Y-131.866
X-54.092 Y-131.612
X-54.252 Y-131.365
X-54.408 Y-131.149
X-54.587 Y-130.929
X-54.771 Y-130.725
X-54.949 Y-130.548
X-55.154 Y-130.366
X-55.357 Y-130.204
X-55.553 Y-130.065
X-55.777 Y-129.923
X-55.993 Y-129.802
X-56.202 Y-129.699
X-56.44 Y-129.598
X-56.841 Y-129.489
X-57.254 Y-129.445
X-57.669 Y-129.468
X-58.075 Y-129.557
X-58.461 Y-129.711
X-58.818 Y-129.924
X-59.136 Y-130.192
X-59.406 Y-130.508
X-60.34 Y-131.793
G3 X-59.953 Y-133.585 I1.053 J-0.71
G1 X-55.544 Y-136.299
G3 X-54.253 Y-136.322 I0.666 J1.082
X-53.878 Y-135.999 I-0.625 J1.105
G1 X-53.011 Y-134.805
X-52.899 Y-134.633
X-52.824 Y-134.503
X-52.757 Y-134.369
X-52.697 Y-134.231
X-52.641 Y-134.076
X-52.591 Y-133.91
X-52.547 Y-133.734
X-52.511 Y-133.545
X-52.484 Y-133.34
X-52.467 Y-133.126
X-52.462 Y-132.904
X-52.469 Y-132.674
X-52.489 Y-132.433
X-52.523 Y-132.184
X-52.573 Y-131.932
X-52.637 Y-131.677
X-52.717 Y-131.42
X-52.812 Y-131.162
X-52.923 Y-130.907
X-53.05 Y-130.652
X-53.194 Y-130.401
X-53.352 Y-130.155
X-53.526 Y-129.915
X-53.695 Y-129.705
X-53.887 Y-129.493
X-54.08 Y-129.301
X-54.269 Y-129.133
X-54.483 Y-128.962
X-54.689 Y-128.815
X-54.896 Y-128.684
X-55.124 Y-128.556
X-55.338 Y-128.451
X-55.562 Y-128.356
X-55.958 Y-128.247
X-56.367 Y-128.204
X-56.778 Y-128.227
X-57.179 Y-128.315
X-57.561 Y-128.467
X-57.914 Y-128.678
X-58.228 Y-128.943
X-58.496 Y-129.255
X-59.406 Y-130.508
G3 X-59.043 Y-132.285 I1.053 J-0.71
G1 X-54.701 Y-135.09
G3 X-53.386 Y-135.128 I0.689 J1.067
X-53.011 Y-134.805 I-0.625 J1.105
G1 X-52.084 Y-133.53
X-52.002 Y-133.404
X-51.928 Y-133.274
X-51.861 Y-133.14
X-51.802 Y-133.001
X-51.746 Y-132.846
X-51.696 Y-132.679
X-51.653 Y-132.503
X-51.618 Y-132.314
X-51.591 Y-132.11
X-51.574 Y-131.896
X-51.569 Y-131.673
X-51.577 Y-131.441
X-51.598 Y-131.2
X-51.633 Y-130.95
X-51.683 Y-130.695
X-51.749 Y-130.438
X-51.83 Y-130.179
X-51.927 Y-129.92
X-52.039 Y-129.662
X-52.168 Y-129.406
X-52.313 Y-129.153
X-52.473 Y-128.906
X-52.648 Y-128.665
X-52.818 Y-128.456
X-53.011 Y-128.243
X-53.204 Y-128.052
X-53.394 Y-127.884
X-53.609 Y-127.714
X-53.813 Y-127.569
X-54.022 Y-127.437
X-54.249 Y-127.311
X-54.461 Y-127.207
X-54.492 Y-127.194
X-54.91 Y-127.058
X-55.344 Y-126.993
X-55.783 Y-127.001
X-56.215 Y-127.083
X-56.627 Y-127.236
X-57.008 Y-127.455
X-57.347 Y-127.735
X-57.634 Y-128.068
X-58.496 Y-129.255
G3 X-58.127 Y-131.035 I1.053 J-0.71
G1 X-53.768 Y-133.818
G3 X-52.46 Y-133.853 I0.684 J1.07
X-52.084 Y-133.53 I-0.625 J1.105
G1 X-51.211 Y-132.329
X-51.115 Y-132.181
X-51.04 Y-132.051
X-50.973 Y-131.917
X-50.914 Y-131.778
X-50.857 Y-131.623
X-50.807 Y-131.457
X-50.764 Y-131.282
X-50.728 Y-131.092
X-50.7 Y-130.887
X-50.684 Y-130.674
X-50.678 Y-130.452
X-50.685 Y-130.218
X-50.706 Y-129.976
X-50.741 Y-129.725
X-50.79 Y-129.47
X-50.855 Y-129.213
X-50.935 Y-128.955
X-51.032 Y-128.695
X-51.144 Y-128.435
X-51.273 Y-128.179
X-51.418 Y-127.925
X-51.577 Y-127.676
X-51.737 Y-127.456
X-51.916 Y-127.235
X-52.103 Y-127.028
X-52.283 Y-126.849
X-52.488 Y-126.667
X-52.692 Y-126.504
X-52.888 Y-126.364
X-53.112 Y-126.223
X-53.329 Y-126.101
X-53.537 Y-125.999
X-53.774 Y-125.898
X-54.171 Y-125.79
X-54.58 Y-125.746
X-54.991 Y-125.769
X-55.393 Y-125.857
X-55.775 Y-126.009
X-56.129 Y-126.22
X-56.443 Y-126.486
X-56.711 Y-126.798
X-57.634 Y-128.068
G3 X-57.825 Y-128.525 I1.053 J-0.71
X-57.261 Y-129.851 I1.245 J-0.253
G1 X-52.892 Y-132.619
G3 X-51.587 Y-132.652 I0.68 J1.073
X-51.211 Y-132.329 I-0.625 J1.105
G1 X-50.329 Y-131.113
X-50.223 Y-130.952
X-50.148 Y-130.822
X-50.081 Y-130.688
X-50.022 Y-130.549
X-49.965 Y-130.394
X-49.914 Y-130.228
X-49.871 Y-130.052
X-49.835 Y-129.862
X-49.808 Y-129.657
X-49.791 Y-129.443
X-49.785 Y-129.22
X-49.792 Y-128.989
X-49.812 Y-128.747
X-49.847 Y-128.497
X-49.896 Y-128.244
X-49.961 Y-127.988
X-50.041 Y-127.729
X-50.137 Y-127.471
X-50.248 Y-127.214
X-50.376 Y-126.958
X-50.52 Y-126.706
X-50.678 Y-126.459
X-50.852 Y-126.218
X-51.023 Y-126.007
X-51.214 Y-125.795
X-51.408 Y-125.603
X-51.597 Y-125.435
X-51.811 Y-125.264
X-52.016 Y-125.117
X-52.224 Y-124.986
X-52.451 Y-124.858
X-52.664 Y-124.754
X-52.888 Y-124.658
X-53.282 Y-124.55
X-53.688 Y-124.507
X-54.097 Y-124.53
X-54.496 Y-124.617
X-54.876 Y-124.768
X-55.227 Y-124.978
X-55.539 Y-125.241
X-55.806 Y-125.552
X-56.711 Y-126.798
G3 X-56.352 Y-128.572 I1.053 J-0.71
G1 X-52.023 Y-131.395
G3 X-50.704 Y-131.437 I0.694 J1.064
X-50.329 Y-131.113 I-0.625 J1.105
G1 X-49.429 Y-129.875
X-49.329 Y-129.723
X-49.254 Y-129.593
X-49.188 Y-129.459
X-49.128 Y-129.32
X-49.072 Y-129.165
X-49.021 Y-128.999
X-48.978 Y-128.824
X-48.942 Y-128.634
X-48.915 Y-128.43
X-48.898 Y-128.216
X-48.892 Y-127.994
X-48.899 Y-127.761
X-48.919 Y-127.519
X-48.954 Y-127.268
X-49.004 Y-127.014
X-49.068 Y-126.756
X-49.149 Y-126.498
X-49.245 Y-126.238
X-49.357 Y-125.979
X-49.485 Y-125.722
X-49.63 Y-125.469
X-49.789 Y-125.22
X-49.964 Y-124.979
X-50.134 Y-124.768
X-50.326 Y-124.556
X-50.52 Y-124.364
X-50.708 Y-124.196
X-50.923 Y-124.024
X-51.128 Y-123.878
X-51.335 Y-123.747
X-51.562 Y-123.62
X-51.774 Y-123.515
X-51.998 Y-123.42
X-52.39 Y-123.313
X-52.795 Y-123.269
X-53.202 Y-123.292
X-53.599 Y-123.379
X-53.977 Y-123.529
X-54.327 Y-123.738
X-54.638 Y-124.001
X-54.903 Y-124.31
X-55.806 Y-125.552
G3 X-55.449 Y-127.324 I1.053 J-0.71
G1 X-51.125 Y-130.156
G3 X-49.429 Y-129.875 I0.696 J1.062
G1 X-48.544 Y-128.657
X-48.437 Y-128.493
X-48.362 Y-128.363
X-48.295 Y-128.229
X-48.236 Y-128.09
X-48.179 Y-127.935
X-48.128 Y-127.769
X-48.085 Y-127.593
X-48.049 Y-127.403
X-48.021 Y-127.198
X-48.004 Y-126.984
X-47.999 Y-126.761
X-48.006 Y-126.528
X-48.026 Y-126.285
X-48.061 Y-126.034
X-48.111 Y-125.779
X-48.176 Y-125.521
X-48.256 Y-125.262
X-48.352 Y-125.002
X-48.465 Y-124.743
X-48.593 Y-124.486
X-48.738 Y-124.231
X-48.897 Y-123.983
X-49.072 Y-123.742
X-49.243 Y-123.531
X-49.434 Y-123.318
X-49.628 Y-123.126
X-49.817 Y-122.958
X-50.031 Y-122.787
X-50.236 Y-122.641
X-50.443 Y-122.509
X-50.67 Y-122.382
X-50.881 Y-122.278
X-51.105 Y-122.183
X-51.496 Y-122.076
X-51.9 Y-122.033
X-52.305 Y-122.055
X-52.702 Y-122.142
X-53.079 Y-122.292
X-53.428 Y-122.5
X-53.738 Y-122.762
X-54.002 Y-123.07
X-54.903 Y-124.31
G3 X-54.552 Y-126.078 I1.053 J-0.71
G1 X-50.247 Y-128.934
G3 X-48.919 Y-128.981 I0.702 J1.058
X-48.544 Y-128.657 I-0.625 J1.105
G1 X-47.619 Y-127.384
X-47.537 Y-127.258
X-47.462 Y-127.128
X-47.396 Y-126.993
X-47.337 Y-126.854
X-47.28 Y-126.698
X-47.23 Y-126.53
X-47.187 Y-126.353
X-47.151 Y-126.162
X-47.124 Y-125.956
X-47.108 Y-125.74
X-47.103 Y-125.516
X-47.11 Y-125.282
X-47.132 Y-125.039
X-47.167 Y-124.787
X-47.218 Y-124.531
X-47.284 Y-124.272
X-47.365 Y-124.012
X-47.463 Y-123.751
X-47.576 Y-123.492
X-47.706 Y-123.235
X-47.851 Y-122.981
X-48.012 Y-122.733
X-48.187 Y-122.492
X-48.358 Y-122.282
X-48.551 Y-122.07
X-48.744 Y-121.879
X-48.934 Y-121.711
X-49.149 Y-121.541
X-49.352 Y-121.397
X-49.562 Y-121.265
X-49.787 Y-121.139
X-49.998 Y-121.036
X-50.419 Y-120.899
X-50.857 Y-120.834
X-51.3 Y-120.842
X-51.736 Y-120.925
X-52.151 Y-121.079
X-52.535 Y-121.301
X-52.876 Y-121.583
X-53.166 Y-121.918
X-54.002 Y-123.07
G3 X-53.643 Y-124.844 I1.053 J-0.71
G1 X-49.313 Y-127.666
G3 X-47.994 Y-127.707 I0.693 J1.064
X-47.619 Y-127.384 I-0.625 J1.105
G1 X-46.733 Y-126.165
X-46.646 Y-126.031
X-46.571 Y-125.901
X-46.504 Y-125.767
X-46.444 Y-125.627
X-46.387 Y-125.472
X-46.337 Y-125.305
X-46.293 Y-125.129
X-46.257 Y-124.938
X-46.229 Y-124.732
X-46.213 Y-124.518
X-46.207 Y-124.295
X-46.214 Y-124.06
X-46.234 Y-123.816
X-46.269 Y-123.565
X-46.319 Y-123.31
X-46.384 Y-123.051
X-46.464 Y-122.792
X-46.561 Y-122.531
X-46.674 Y-122.271
X-46.803 Y-122.013
X-46.948 Y-121.759
X-47.108 Y-121.51
X-47.265 Y-121.292
X-47.443 Y-121.072
X-47.628 Y-120.867
X-47.807 Y-120.69
X-48.011 Y-120.508
X-48.214 Y-120.346
X-48.409 Y-120.207
X-48.632 Y-120.065
X-48.848 Y-119.944
X-49.057 Y-119.842
X-49.293 Y-119.741
X-49.691 Y-119.632
X-50.102 Y-119.588
X-50.514 Y-119.611
X-50.917 Y-119.699
X-51.301 Y-119.852
X-51.655 Y-120.064
X-51.97 Y-120.33
X-52.239 Y-120.643
X-53.166 Y-121.918
G3 X-53.357 Y-122.375 I1.053 J-0.71
X-52.789 Y-123.703 I1.245 J-0.253
G1 X-48.41 Y-126.458
G3 X-46.733 Y-126.165 I0.676 J1.075
G1 X-45.82 Y-124.907
X-45.738 Y-124.782
X-45.664 Y-124.651
X-45.598 Y-124.516
X-45.539 Y-124.376
X-45.483 Y-124.219
X-45.433 Y-124.05
X-45.39 Y-123.87
X-45.355 Y-123.679
X-45.329 Y-123.472
X-45.314 Y-123.255
X-45.31 Y-123.029
X-45.318 Y-122.797
X-45.34 Y-122.554
X-45.377 Y-122.304
X-45.428 Y-122.05
X-45.495 Y-121.792
X-45.578 Y-121.533
X-45.675 Y-121.275
X-45.789 Y-121.018
X-45.919 Y-120.764
X-46.064 Y-120.512
X-46.224 Y-120.267
X-46.399 Y-120.029
X-46.569 Y-119.822
X-46.764 Y-119.609
X-46.956 Y-119.421
X-47.147 Y-119.254
X-47.362 Y-119.084
X-47.566 Y-118.942
X-47.778 Y-118.809
X-48.003 Y-118.685
X-48.214 Y-118.583
X-48.443 Y-118.488
X-48.833 Y-118.384
X-49.234 Y-118.343
X-49.637 Y-118.368
X-50.031 Y-118.456
X-50.406 Y-118.606
X-50.751 Y-118.814
X-51.059 Y-119.074
X-51.322 Y-119.381
X-52.239 Y-120.643
G3 X-51.867 Y-122.425 I1.053 J-0.71
G1 X-47.501 Y-125.198
G3 X-45.82 Y-124.907 I0.681 J1.072
G1 X-44.923 Y-123.673
X-44.841 Y-123.548
X-44.767 Y-123.417
X-44.702 Y-123.282
X-44.643 Y-123.141
X-44.587 Y-122.984
X-44.537 Y-122.816
X-44.495 Y-122.639
X-44.46 Y-122.447
X-44.434 Y-122.241
X-44.419 Y-122.025
X-44.415 Y-121.801
X-44.424 Y-121.567
X-44.446 Y-121.324
X-44.483 Y-121.072
X-44.535 Y-120.817
X-44.602 Y-120.559
X-44.685 Y-120.301
X-44.784 Y-120.041
X-44.898 Y-119.782
X-45.029 Y-119.526
X-45.176 Y-119.273
X-45.337 Y-119.026
X-45.514 Y-118.785
X-45.687 Y-118.576
X-45.881 Y-118.365
X-46.075 Y-118.174
X-46.266 Y-118.007
X-46.482 Y-117.838
X-46.687 Y-117.694
X-46.897 Y-117.563
X-47.123 Y-117.439
X-47.334 Y-117.337
X-47.393 Y-117.313
X-47.799 Y-117.182
X-48.221 Y-117.121
X-48.648 Y-117.131
X-49.067 Y-117.212
X-49.466 Y-117.361
X-49.835 Y-117.575
X-50.164 Y-117.847
X-50.443 Y-118.17
X-51.322 Y-119.381
G3 X-50.957 Y-121.158 I1.053 J-0.71
G1 X-46.612 Y-123.959
G3 X-45.298 Y-123.997 I0.688 J1.067
X-44.923 Y-123.673 I-0.625 J1.105
G1 X-44.038 Y-122.455
X-43.956 Y-122.33
X-43.881 Y-122.2
X-43.815 Y-122.065
X-43.755 Y-121.924
X-43.699 Y-121.769
X-43.649 Y-121.603
X-43.606 Y-121.426
X-43.57 Y-121.234
X-43.543 Y-121.029
X-43.527 Y-120.816
X-43.522 Y-120.593
X-43.529 Y-120.357
X-43.55 Y-120.113
X-43.586 Y-119.862
X-43.636 Y-119.607
X-43.702 Y-119.349
X-43.783 Y-119.09
X-43.881 Y-118.829
X-43.994 Y-118.569
X-44.124 Y-118.311
X-44.27 Y-118.056
X-44.431 Y-117.808
X-44.595 Y-117.582
X-44.774 Y-117.363
X-44.964 Y-117.152
X-45.147 Y-116.972
X-45.352 Y-116.791
X-45.558 Y-116.627
X-45.755 Y-116.487
X-45.978 Y-116.346
X-46.195 Y-116.226
X-46.404 Y-116.124
X-46.829 Y-115.985
X-47.271 Y-115.919
X-47.719 Y-115.928
X-48.158 Y-116.011
X-48.578 Y-116.167
X-48.965 Y-116.39
X-49.31 Y-116.675
X-49.602 Y-117.014
X-50.443 Y-118.17
G3 X-50.076 Y-119.949 I1.053 J-0.71
G1 X-45.725 Y-122.742
G3 X-44.413 Y-122.779 I0.686 J1.069
X-44.038 Y-122.455 I-0.625 J1.105
G1 X-43.137 Y-121.216
X-43.055 Y-121.09
X-42.981 Y-120.96
X-42.916 Y-120.825
X-42.857 Y-120.685
X-42.8 Y-120.528
X-42.75 Y-120.359
X-42.708 Y-120.181
X-42.672 Y-119.99
X-42.646 Y-119.783
X-42.63 Y-119.566
X-42.626 Y-119.342
X-42.635 Y-119.108
X-42.657 Y-118.865
X-42.693 Y-118.613
X-42.744 Y-118.358
X-42.811 Y-118.1
X-42.894 Y-117.84
X-42.992 Y-117.58
X-43.105 Y-117.322
X-43.236 Y-117.065
X-43.382 Y-116.812
X-43.542 Y-116.567
X-43.699 Y-116.352
X-43.88 Y-116.131
X-44.064 Y-115.93
X-44.243 Y-115.755
X-44.449 Y-115.573
X-44.651 Y-115.414
X-44.848 Y-115.276
X-45.073 Y-115.135
X-45.288 Y-115.016
X-45.498 Y-114.914
X-45.736 Y-114.815
X-46.132 Y-114.709
X-46.541 Y-114.667
X-46.95 Y-114.692
X-47.35 Y-114.781
X-47.731 Y-114.934
X-48.083 Y-115.145
X-48.396 Y-115.41
X-48.663 Y-115.721
X-49.602 Y-117.014
G3 X-49.214 Y-118.806 I1.053 J-0.71
G1 X-44.803 Y-121.516
G3 X-43.137 Y-121.216 I0.665 J1.082
G1 X-42.255 Y-120.001
X-42.17 Y-119.87
X-42.094 Y-119.74
X-42.028 Y-119.606
X-41.968 Y-119.466
X-41.911 Y-119.31
X-41.861 Y-119.145
X-41.817 Y-118.968
X-41.781 Y-118.776
X-41.754 Y-118.572
X-41.737 Y-118.358
X-41.731 Y-118.136
X-41.738 Y-117.904
X-41.759 Y-117.661
X-41.793 Y-117.412
X-41.843 Y-117.16
X-41.907 Y-116.905
X-41.987 Y-116.648
X-42.082 Y-116.39
X-42.194 Y-116.134
X-42.322 Y-115.878
X-42.465 Y-115.626
X-42.624 Y-115.38
X-42.798 Y-115.139
X-42.97 Y-114.927
X-43.159 Y-114.717
X-43.355 Y-114.523
X-43.543 Y-114.355
X-43.758 Y-114.184
X-43.965 Y-114.037
X-44.171 Y-113.907
X-44.399 Y-113.779
X-44.613 Y-113.674
X-44.835 Y-113.579
X-45.23 Y-113.471
X-45.637 Y-113.428
X-46.046 Y-113.45
X-46.446 Y-113.538
X-46.826 Y-113.689
X-47.178 Y-113.9
X-47.491 Y-114.163
X-47.757 Y-114.474
X-48.663 Y-115.721
G3 X-48.295 Y-117.501 I1.053 J-0.71
G1 X-43.94 Y-120.289
G3 X-42.255 Y-120.001 I0.685 J1.07
G1 X-41.371 Y-118.785
X-41.276 Y-118.639
X-41.201 Y-118.509
X-41.134 Y-118.375
X-41.075 Y-118.236
X-41.019 Y-118.082
X-40.968 Y-117.916
X-40.925 Y-117.74
X-40.889 Y-117.551
X-40.862 Y-117.347
X-40.845 Y-117.134
X-40.839 Y-116.912
X-40.846 Y-116.679
X-40.867 Y-116.438
X-40.901 Y-116.188
X-40.951 Y-115.933
X-41.016 Y-115.676
X-41.096 Y-115.418
X-41.192 Y-115.158
X-41.304 Y-114.899
X-41.433 Y-114.643
X-41.577 Y-114.389
X-41.737 Y-114.141
X-41.911 Y-113.899
X-42.082 Y-113.688
X-42.274 Y-113.476
X-42.467 Y-113.284
X-42.656 Y-113.116
X-42.871 Y-112.945
X-43.076 Y-112.799
X-43.283 Y-112.667
X-43.51 Y-112.54
X-43.722 Y-112.436
X-43.946 Y-112.34
X-44.339 Y-112.233
X-44.744 Y-112.189
X-45.151 Y-112.212
X-45.549 Y-112.299
X-45.927 Y-112.45
X-46.277 Y-112.659
X-46.589 Y-112.922
X-46.854 Y-113.231
X-47.757 Y-114.474
G3 X-47.397 Y-116.249 I1.053 J-0.71
G1 X-43.065 Y-119.068
G3 X-41.747 Y-119.108 I0.693 J1.065
X-41.371 Y-118.785 I-0.625 J1.105
G1 X-40.479 Y-117.556
X-40.384 Y-117.412
X-40.309 Y-117.282
X-40.242 Y-117.147
X-40.183 Y-117.009
X-40.127 Y-116.854
X-40.076 Y-116.688
X-40.033 Y-116.512
X-39.997 Y-116.322
X-39.969 Y-116.118
X-39.952 Y-115.903
X-39.947 Y-115.681
X-39.954 Y-115.447
X-39.974 Y-115.205
X-40.009 Y-114.954
X-40.058 Y-114.699
X-40.123 Y-114.441
X-40.204 Y-114.182
X-40.3 Y-113.922
X-40.413 Y-113.663
X-40.541 Y-113.406
X-40.686 Y-113.152
X-40.845 Y-112.903
X-41.02 Y-112.662
X-41.191 Y-112.451
X-41.382 Y-112.238
X-41.576 Y-112.046
X-41.765 Y-111.878
X-41.979 Y-111.707
X-42.184 Y-111.561
X-42.391 Y-111.429
X-42.618 Y-111.302
X-42.83 Y-111.198
X-43.053 Y-111.103
X-43.445 Y-110.995
X-43.849 Y-110.952
X-44.255 Y-110.975
X-44.651 Y-111.062
X-45.029 Y-111.212
X-45.378 Y-111.42
X-45.688 Y-111.682
X-45.953 Y-111.991
X-46.854 Y-113.231
G3 X-46.497 Y-115.003 I1.053 J-0.71
G1 X-42.176 Y-117.836
G3 X-40.479 Y-117.556 I0.696 J1.062
G1 X-39.598 Y-116.344
X-39.491 Y-116.18
X-39.416 Y-116.05
X-39.349 Y-115.916
X-39.29 Y-115.777
X-39.233 Y-115.622
X-39.182 Y-115.456
X-39.139 Y-115.28
X-39.103 Y-115.09
X-39.075 Y-114.885
X-39.058 Y-114.67
X-39.053 Y-114.447
X-39.06 Y-114.214
X-39.08 Y-113.971
X-39.115 Y-113.719
X-39.165 Y-113.464
X-39.229 Y-113.206
X-39.31 Y-112.947
X-39.406 Y-112.686
X-39.519 Y-112.427
X-39.647 Y-112.17
X-39.792 Y-111.915
X-39.952 Y-111.667
X-40.126 Y-111.425
X-40.297 Y-111.214
X-40.489 Y-111.002
X-40.682 Y-110.809
X-40.871 Y-110.641
X-41.085 Y-110.47
X-41.29 Y-110.324
X-41.497 Y-110.193
X-41.724 Y-110.066
X-41.935 Y-109.962
X-42.358 Y-109.822
X-42.798 Y-109.756
X-43.243 Y-109.763
X-43.681 Y-109.846
X-44.098 Y-110
X-44.484 Y-110.222
X-44.828 Y-110.506
X-45.119 Y-110.842
X-45.953 Y-111.991
G3 X-45.603 Y-113.758 I1.053 J-0.71
G1 X-41.302 Y-116.619
G3 X-39.973 Y-116.667 I0.703 J1.057
X-39.598 Y-116.344 I-0.625 J1.105
G1 X-38.712 Y-115.125
X-38.597 Y-114.948
X-38.522 Y-114.818
X-38.455 Y-114.684
X-38.395 Y-114.545
X-38.338 Y-114.389
X-38.288 Y-114.223
X-38.244 Y-114.047
X-38.208 Y-113.856
X-38.18 Y-113.651
X-38.163 Y-113.436
X-38.158 Y-113.213
X-38.165 Y-112.979
X-38.185 Y-112.736
X-38.22 Y-112.485
X-38.27 Y-112.229
X-38.334 Y-111.971
X-38.415 Y-111.712
X-38.511 Y-111.451
X-38.624 Y-111.191
X-38.752 Y-110.934
X-38.897 Y-110.679
X-39.056 Y-110.431
X-39.213 Y-110.215
X-39.392 Y-109.993
X-39.576 Y-109.789
X-39.754 Y-109.612
X-39.959 Y-109.43
X-40.161 Y-109.269
X-40.356 Y-109.129
X-40.58 Y-108.987
X-40.795 Y-108.866
X-41.004 Y-108.764
X-41.241 Y-108.663
X-41.639 Y-108.554
X-42.05 Y-108.51
X-42.463 Y-108.532
X-42.867 Y-108.621
X-43.251 Y-108.773
X-43.606 Y-108.986
X-43.922 Y-109.252
X-44.191 Y-109.566
X-45.119 Y-110.842
G3 X-44.751 Y-112.622 I1.053 J-0.71
G1 X-40.398 Y-115.412
G3 X-38.712 Y-115.125 I0.685 J1.069
G1 X-37.799 Y-113.868
X-37.7 Y-113.717
X-37.625 Y-113.587
X-37.559 Y-113.453
X-37.499 Y-113.314
X-37.442 Y-113.158
X-37.391 Y-112.992
X-37.348 Y-112.815
X-37.311 Y-112.624
X-37.284 Y-112.419
X-37.267 Y-112.204
X-37.261 Y-111.981
X-37.268 Y-111.749
X-37.288 Y-111.507
X-37.322 Y-111.257
X-37.372 Y-111.004
X-37.436 Y-110.749
X-37.516 Y-110.491
X-37.611 Y-110.233
X-37.722 Y-109.976
X-37.85 Y-109.721
X-37.993 Y-109.469
X-38.151 Y-109.223
X-38.325 Y-108.982
X-38.495 Y-108.772
X-38.686 Y-108.56
X-38.879 Y-108.368
X-39.068 Y-108.2
X-39.282 Y-108.028
X-39.487 Y-107.882
X-39.694 Y-107.75
X-39.922 Y-107.623
X-40.135 Y-107.518
X-40.358 Y-107.423
X-40.754 Y-107.314
X-41.161 Y-107.271
X-41.571 Y-107.293
X-41.971 Y-107.381
X-42.352 Y-107.532
X-42.704 Y-107.742
X-43.017 Y-108.007
X-43.284 Y-108.318
X-44.191 Y-109.566
G3 X-43.828 Y-111.342 I1.053 J-0.71
G1 X-39.49 Y-114.152
G3 X-37.799 Y-113.868 I0.69 J1.066
G1 X-36.914 Y-112.649
X-36.805 Y-112.483
X-36.73 Y-112.353
X-36.663 Y-112.219
X-36.604 Y-112.08
X-36.547 Y-111.926
X-36.497 Y-111.759
X-36.453 Y-111.584
X-36.417 Y-111.394
X-36.39 Y-111.19
X-36.373 Y-110.976
X-36.368 Y-110.754
X-36.374 Y-110.522
X-36.395 Y-110.28
X-36.429 Y-110.03
X-36.479 Y-109.775
X-36.543 Y-109.518
X-36.624 Y-109.26
X-36.72 Y-109
X-36.832 Y-108.741
X-36.96 Y-108.485
X-37.104 Y-108.231
X-37.264 Y-107.984
X-37.438 Y-107.742
X-37.608 Y-107.532
X-37.8 Y-107.32
X-37.993 Y-107.128
X-38.182 Y-106.959
X-38.396 Y-106.788
X-38.601 Y-106.642
X-38.809 Y-106.511
X-39.036 Y-106.383
X-39.248 Y-106.279
X-39.286 Y-106.263
X-39.702 Y-106.126
X-40.136 Y-106.06
X-40.574 Y-106.068
X-41.005 Y-106.149
X-41.417 Y-106.301
X-41.797 Y-106.519
X-42.135 Y-106.799
X-42.422 Y-107.131
X-43.284 Y-108.318
G3 X-42.929 Y-110.089 I1.053 J-0.71
G1 X-38.612 Y-112.928
G3 X-37.289 Y-112.973 I0.698 J1.061
X-36.914 Y-112.649 I-0.625 J1.105
G1 X-35.987 Y-111.375
X-35.905 Y-111.249
X-35.831 Y-111.119
X-35.765 Y-110.984
X-35.706 Y-110.845
X-35.65 Y-110.69
X-35.599 Y-110.522
X-35.556 Y-110.344
X-35.521 Y-110.154
X-35.494 Y-109.949
X-35.478 Y-109.733
X-35.473 Y-109.509
X-35.481 Y-109.276
X-35.502 Y-109.033
X-35.538 Y-108.782
X-35.588 Y-108.526
X-35.654 Y-108.267
X-35.736 Y-108.008
X-35.833 Y-107.748
X-35.947 Y-107.489
X-36.076 Y-107.232
X-36.222 Y-106.978
X-36.382 Y-106.731
X-36.542 Y-106.512
X-36.723 Y-106.289
X-36.91 Y-106.084
X-37.09 Y-105.907
X-37.297 Y-105.724
X-37.499 Y-105.563
X-37.697 Y-105.423
X-37.922 Y-105.282
X-38.137 Y-105.162
X-38.347 Y-105.06
X-38.583 Y-104.96
X-38.978 Y-104.853
X-39.384 Y-104.811
X-39.791 Y-104.835
X-40.19 Y-104.923
X-40.569 Y-105.074
X-40.919 Y-105.284
X-41.231 Y-105.548
X-41.497 Y-105.858
X-42.422 Y-107.131
G3 X-42.044 Y-108.916 I1.053 J-0.71
G1 X-37.664 Y-111.668
G3 X-35.987 Y-111.375 I0.676 J1.075
G1 X-35.117 Y-110.176
X-35.017 Y-110.023
X-34.942 Y-109.894
X-34.875 Y-109.759
X-34.815 Y-109.62
X-34.759 Y-109.464
X-34.708 Y-109.298
X-34.665 Y-109.122
X-34.629 Y-108.931
X-34.601 Y-108.726
X-34.584 Y-108.512
X-34.579 Y-108.29
X-34.586 Y-108.058
X-34.606 Y-107.815
X-34.641 Y-107.565
X-34.69 Y-107.312
X-34.755 Y-107.056
X-34.835 Y-106.798
X-34.931 Y-106.539
X-35.043 Y-106.281
X-35.171 Y-106.025
X-35.315 Y-105.772
X-35.474 Y-105.525
X-35.648 Y-105.284
X-35.82 Y-105.072
X-36.01 Y-104.861
X-36.205 Y-104.668
X-36.394 Y-104.5
X-36.608 Y-104.328
X-36.814 Y-104.182
X-37.021 Y-104.051
X-37.249 Y-103.923
X-37.462 Y-103.819
X-37.685 Y-103.724
X-38.078 Y-103.616
X-38.483 Y-103.573
X-38.89 Y-103.595
X-39.288 Y-103.683
X-39.667 Y-103.833
X-40.017 Y-104.043
X-40.328 Y-104.305
X-40.594 Y-104.615
X-41.497 Y-105.858
G3 X-41.139 Y-107.631 I1.053 J-0.71
G1 X-36.812 Y-110.457
G3 X-35.117 Y-110.176 I0.695 J1.063
G1 X-34.202 Y-108.917
X-34.12 Y-108.792
X-34.045 Y-108.662
X-33.979 Y-108.527
X-33.92 Y-108.388
X-33.863 Y-108.233
X-33.813 Y-108.067
X-33.769 Y-107.89
X-33.734 Y-107.7
X-33.706 Y-107.496
X-33.69 Y-107.281
X-33.685 Y-107.058
X-33.692 Y-106.825
X-33.713 Y-106.582
X-33.748 Y-106.331
X-33.798 Y-106.076
X-33.863 Y-105.818
X-33.944 Y-105.559
X-34.041 Y-105.299
X-34.153 Y-105.04
X-34.282 Y-104.783
X-34.427 Y-104.529
X-34.587 Y-104.281
X-34.762 Y-104.04
X-34.933 Y-103.829
X-35.125 Y-103.617
X-35.319 Y-103.425
X-35.508 Y-103.257
X-35.722 Y-103.086
X-35.927 Y-102.941
X-36.135 Y-102.809
X-36.362 Y-102.683
X-36.573 Y-102.579
X-36.798 Y-102.484
X-37.189 Y-102.377
X-37.592 Y-102.335
X-37.997 Y-102.357
X-38.392 Y-102.445
X-38.769 Y-102.594
X-39.117 Y-102.803
X-39.427 Y-103.064
X-39.691 Y-103.372
X-40.594 Y-104.615
G3 X-40.232 Y-106.391 I1.053 J-0.71
G1 X-35.894 Y-109.201
G3 X-34.202 Y-108.917 I0.691 J1.066
G1 X-33.313 Y-107.694
X-33.229 Y-107.564
X-33.154 Y-107.435
X-33.087 Y-107.3
X-33.027 Y-107.161
X-32.971 Y-107.006
X-32.92 Y-106.84
X-32.877 Y-106.664
X-32.84 Y-106.473
X-32.813 Y-106.268
X-32.796 Y-106.054
X-32.79 Y-105.831
X-32.797 Y-105.597
X-32.818 Y-105.354
X-32.853 Y-105.102
X-32.902 Y-104.847
X-32.967 Y-104.589
X-33.048 Y-104.33
X-33.144 Y-104.069
X-33.257 Y-103.81
X-33.385 Y-103.552
X-33.53 Y-103.298
X-33.69 Y-103.05
X-33.865 Y-102.808
X-34.036 Y-102.596
X-34.227 Y-102.384
X-34.422 Y-102.191
X-34.61 Y-102.023
X-34.825 Y-101.852
X-35.03 Y-101.706
X-35.237 Y-101.575
X-35.463 Y-101.448
X-35.675 Y-101.343
X-35.898 Y-101.248
X-36.289 Y-101.141
X-36.692 Y-101.098
X-37.097 Y-101.12
X-37.493 Y-101.208
X-37.87 Y-101.357
X-38.218 Y-101.565
X-38.528 Y-101.826
X-38.792 Y-102.134
X-39.691 Y-103.372
G3 X-39.333 Y-105.144 I1.053 J-0.71
G1 X-35.01 Y-107.975
G3 X-33.313 Y-107.694 I0.696 J1.063
G1 X-32.403 Y-106.441
X-32.321 Y-106.316
X-32.247 Y-106.185
X-32.182 Y-106.05
X-32.123 Y-105.91
X-32.067 Y-105.753
X-32.017 Y-105.584
X-31.974 Y-105.404
X-31.94 Y-105.213
X-31.914 Y-105.007
X-31.898 Y-104.789
X-31.894 Y-104.563
X-31.903 Y-104.329
X-31.925 Y-104.085
X-31.962 Y-103.833
X-32.015 Y-103.576
X-32.082 Y-103.316
X-32.165 Y-103.056
X-32.264 Y-102.795
X-32.379 Y-102.535
X-32.509 Y-102.279
X-32.656 Y-102.025
X-32.818 Y-101.778
X-32.994 Y-101.539
X-33.165 Y-101.33
X-33.361 Y-101.118
X-33.553 Y-100.93
X-33.744 Y-100.762
X-33.959 Y-100.593
X-34.162 Y-100.451
X-34.374 Y-100.318
X-34.598 Y-100.195
X-34.808 Y-100.094
X-34.821 Y-100.089
X-35.236 Y-99.955
X-35.669 Y-99.892
X-36.105 Y-99.902
X-36.534 Y-99.985
X-36.943 Y-100.138
X-37.321 Y-100.356
X-37.657 Y-100.635
X-37.943 Y-100.966
X-38.792 Y-102.134
G3 X-38.43 Y-103.909 I1.053 J-0.71
G1 X-34.096 Y-106.724
G3 X-32.403 Y-106.441 I0.692 J1.065
G1 X-31.521 Y-105.227
X-31.437 Y-105.099
X-31.362 Y-104.969
X-31.295 Y-104.834
X-31.235 Y-104.693
X-31.178 Y-104.538
X-31.128 Y-104.372
X-31.084 Y-104.195
X-31.048 Y-104.002
X-31.02 Y-103.798
X-31.004 Y-103.584
X-30.998 Y-103.361
X-31.005 Y-103.125
X-31.026 Y-102.88
X-31.061 Y-102.63
X-31.11 Y-102.375
X-31.175 Y-102.117
X-31.256 Y-101.858
X-31.353 Y-101.596
X-31.466 Y-101.335
X-31.595 Y-101.077
X-31.74 Y-100.822
X-31.901 Y-100.574
X-32.061 Y-100.352
X-32.237 Y-100.134
X-32.425 Y-99.927
X-32.604 Y-99.748
X-32.808 Y-99.567
X-33.012 Y-99.404
X-33.208 Y-99.265
X-33.431 Y-99.124
X-33.647 Y-99.002
X-33.855 Y-98.9
X-34.091 Y-98.8
X-34.487 Y-98.691
X-34.895 Y-98.648
X-35.305 Y-98.671
X-35.706 Y-98.759
X-36.088 Y-98.91
X-36.44 Y-99.121
X-36.754 Y-99.386
X-37.021 Y-99.697
X-37.943 Y-100.966
G3 X-37.57 Y-102.748 I1.053 J-0.71
G1 X-33.202 Y-105.518
G3 X-31.521 Y-105.227 I0.68 J1.073
G1 X-30.608 Y-103.97
X-30.526 Y-103.844
X-30.452 Y-103.714
X-30.387 Y-103.579
X-30.328 Y-103.438
X-30.272 Y-103.281
X-30.222 Y-103.11
X-30.18 Y-102.93
X-30.145 Y-102.739
X-30.119 Y-102.532
X-30.104 Y-102.313
X-30.101 Y-102.087
X-30.11 Y-101.854
X-30.132 Y-101.611
X-30.17 Y-101.36
X-30.222 Y-101.105
X-30.289 Y-100.847
X-30.372 Y-100.588
X-30.471 Y-100.329
X-30.585 Y-100.071
X-30.716 Y-99.816
X-30.862 Y-99.565
X-31.023 Y-99.32
X-31.198 Y-99.082
X-31.369 Y-98.875
X-31.565 Y-98.662
X-31.756 Y-98.475
X-31.948 Y-98.307
X-32.163 Y-98.139
X-32.366 Y-97.997
X-32.58 Y-97.864
X-32.804 Y-97.741
X-33.015 Y-97.64
X-33.244 Y-97.545
X-33.632 Y-97.442
X-34.031 Y-97.403
X-34.431 Y-97.427
X-34.822 Y-97.515
X-35.194 Y-97.665
X-35.537 Y-97.871
X-35.843 Y-98.13
X-36.104 Y-98.435
X-37.021 Y-99.697
G3 X-36.651 Y-101.478 I1.053 J-0.71
G1 X-32.291 Y-104.259
G3 X-30.608 Y-103.97 I0.683 J1.071
G1 X-29.709 Y-102.734
X-29.627 Y-102.608
X-29.554 Y-102.477
X-29.489 Y-102.342
X-29.43 Y-102.2
X-29.374 Y-102.042
X-29.325 Y-101.874
X-29.283 Y-101.695
X-29.248 Y-101.502
X-29.223 Y-101.295
X-29.208 Y-101.079
X-29.205 Y-100.854
X-29.215 Y-100.619
X-29.238 Y-100.375
X-29.276 Y-100.123
X-29.328 Y-99.867
X-29.396 Y-99.609
X-29.48 Y-99.35
X-29.58 Y-99.089
X-29.695 Y-98.831
X-29.827 Y-98.574
X-29.974 Y-98.321
X-30.137 Y-98.075
X-30.315 Y-97.834
X-30.488 Y-97.625
X-30.683 Y-97.414
X-30.877 Y-97.225
X-31.069 Y-97.058
X-31.285 Y-96.889
X-31.49 Y-96.747
X-31.701 Y-96.616
X-31.926 Y-96.493
X-32.137 Y-96.392
X-32.185 Y-96.372
X-32.591 Y-96.243
X-33.013 Y-96.183
X-33.439 Y-96.194
X-33.857 Y-96.275
X-34.256 Y-96.425
X-34.624 Y-96.638
X-34.952 Y-96.91
X-35.231 Y-97.233
X-36.104 Y-98.435
G3 X-35.741 Y-100.211 I1.053 J-0.71
G1 X-31.4 Y-103.018
G3 X-30.085 Y-103.057 I0.69 J1.066
X-29.709 Y-102.734 I-0.625 J1.105
G1 X-28.846 Y-101.546
X-28.749 Y-101.397
X-28.674 Y-101.267
X-28.607 Y-101.133
X-28.547 Y-100.992
X-28.491 Y-100.837
X-28.441 Y-100.672
X-28.397 Y-100.495
X-28.361 Y-100.303
X-28.334 Y-100.099
X-28.317 Y-99.886
X-28.312 Y-99.663
X-28.319 Y-99.427
X-28.34 Y-99.183
X-28.375 Y-98.933
X-28.424 Y-98.678
X-28.49 Y-98.42
X-28.57 Y-98.161
X-28.668 Y-97.899
X-28.781 Y-97.638
X-28.91 Y-97.38
X-29.056 Y-97.124
X-29.216 Y-96.876
X-29.38 Y-96.649
X-29.556 Y-96.432
X-29.748 Y-96.22
X-29.93 Y-96.039
X-30.133 Y-95.859
X-30.34 Y-95.694
X-30.537 Y-95.554
X-30.759 Y-95.413
X-30.977 Y-95.292
X-31.185 Y-95.19
X-31.611 Y-95.049
X-32.054 Y-94.983
X-32.503 Y-94.991
X-32.944 Y-95.074
X-33.364 Y-95.23
X-33.753 Y-95.453
X-34.099 Y-95.739
X-34.392 Y-96.079
X-35.231 Y-97.233
G3 X-34.871 Y-99.007 I1.053 J-0.71
G1 X-30.54 Y-101.828
G3 X-29.222 Y-101.869 I0.693 J1.064
X-28.846 Y-101.546 I-0.625 J1.105
G1 X-27.926 Y-100.278
X-27.844 Y-100.153
X-27.77 Y-100.022
X-27.704 Y-99.887
X-27.645 Y-99.747
X-27.589 Y-99.59
X-27.539 Y-99.421
X-27.496 Y-99.242
X-27.461 Y-99.051
X-27.435 Y-98.844
X-27.419 Y-98.626
X-27.415 Y-98.401
X-27.424 Y-98.167
X-27.446 Y-97.924
X-27.483 Y-97.672
X-27.534 Y-97.417
X-27.601 Y-97.158
X-27.684 Y-96.898
X-27.782 Y-96.638
X-27.896 Y-96.38
X-28.027 Y-96.123
X-28.173 Y-95.871
X-28.333 Y-95.626
X-28.489 Y-95.413
X-28.671 Y-95.191
X-28.854 Y-94.991
X-29.033 Y-94.816
X-29.24 Y-94.634
X-29.441 Y-94.476
X-29.638 Y-94.337
X-29.864 Y-94.197
X-30.078 Y-94.078
X-30.289 Y-93.977
X-30.527 Y-93.877
X-30.923 Y-93.771
X-31.331 Y-93.73
X-31.74 Y-93.755
X-32.14 Y-93.844
X-32.52 Y-93.997
X-32.871 Y-94.208
X-33.184 Y-94.472
X-33.451 Y-94.784
X-34.392 Y-96.079
G3 X-34.003 Y-97.871 I1.053 J-0.71
G1 X-29.59 Y-100.579
G3 X-28.301 Y-100.602 I0.664 J1.082
X-27.926 Y-100.278 I-0.625 J1.105
G1 X-27.035 Y-99.053
X-26.953 Y-98.927
X-26.878 Y-98.797
X-26.812 Y-98.662
X-26.752 Y-98.521
X-26.696 Y-98.365
X-26.646 Y-98.198
X-26.603 Y-98.021
X-26.567 Y-97.829
X-26.54 Y-97.623
X-26.524 Y-97.408
X-26.519 Y-97.185
X-26.527 Y-96.953
X-26.548 Y-96.71
X-26.584 Y-96.461
X-26.634 Y-96.208
X-26.699 Y-95.953
X-26.78 Y-95.695
X-26.877 Y-95.438
X-26.989 Y-95.182
X-27.117 Y-94.926
X-27.262 Y-94.675
X-27.421 Y-94.429
X-27.596 Y-94.189
X-27.768 Y-93.979
X-27.959 Y-93.768
X-28.154 Y-93.576
X-28.344 Y-93.408
X-28.559 Y-93.238
X-28.765 Y-93.092
X-28.972 Y-92.961
X-29.201 Y-92.835
X-29.414 Y-92.731
X-29.638 Y-92.636
X-30.031 Y-92.53
X-30.435 Y-92.488
X-30.842 Y-92.511
X-31.239 Y-92.6
X-31.616 Y-92.75
X-31.965 Y-92.96
X-32.276 Y-93.222
X-32.541 Y-93.531
X-33.451 Y-94.784
G3 X-33.08 Y-96.565 I1.053 J-0.71
G1 X-28.718 Y-99.342
G3 X-27.035 Y-99.053 I0.682 J1.071
G1 X-26.133 Y-97.811
X-26.051 Y-97.685
X-25.977 Y-97.554
X-25.911 Y-97.42
X-25.853 Y-97.279
X-25.797 Y-97.123
X-25.748 Y-96.955
X-25.705 Y-96.777
X-25.671 Y-96.586
X-25.645 Y-96.381
X-25.63 Y-96.165
X-25.626 Y-95.941
X-25.635 Y-95.707
X-25.658 Y-95.465
X-25.695 Y-95.214
X-25.747 Y-94.958
X-25.814 Y-94.7
X-25.897 Y-94.441
X-25.996 Y-94.181
X-26.11 Y-93.922
X-26.241 Y-93.667
X-26.388 Y-93.414
X-26.55 Y-93.167
X-26.726 Y-92.927
X-26.898 Y-92.719
X-27.092 Y-92.507
X-27.286 Y-92.318
X-27.477 Y-92.15
X-27.692 Y-91.981
X-27.896 Y-91.838
X-28.108 Y-91.707
X-28.334 Y-91.583
X-28.544 Y-91.481
X-28.64 Y-91.442
X-29.039 Y-91.314
X-29.454 Y-91.254
X-29.873 Y-91.264
X-30.284 Y-91.343
X-30.676 Y-91.49
X-31.039 Y-91.7
X-31.361 Y-91.967
X-31.635 Y-92.284
X-32.541 Y-93.531
G3 X-32.173 Y-95.31 I1.053 J-0.71
G1 X-27.818 Y-98.098
G3 X-26.133 Y-97.811 I0.685 J1.07
G1 X-25.255 Y-96.602
X-25.171 Y-96.474
X-25.096 Y-96.344
X-25.029 Y-96.21
X-24.969 Y-96.069
X-24.913 Y-95.914
X-24.862 Y-95.749
X-24.819 Y-95.573
X-24.783 Y-95.381
X-24.756 Y-95.177
X-24.739 Y-94.964
X-24.734 Y-94.742
X-24.741 Y-94.506
X-24.762 Y-94.263
X-24.797 Y-94.012
X-24.846 Y-93.758
X-24.911 Y-93.501
X-24.992 Y-93.242
X-25.089 Y-92.981
X-25.202 Y-92.721
X-25.331 Y-92.463
X-25.476 Y-92.208
X-25.636 Y-91.96
X-25.803 Y-91.729
X-25.981 Y-91.51
X-26.175 Y-91.295
X-26.36 Y-91.113
X-26.564 Y-90.931
X-26.772 Y-90.765
X-26.969 Y-90.624
X-27.193 Y-90.483
X-27.41 Y-90.361
X-27.619 Y-90.259
X-27.853 Y-90.16
X-28.243 Y-90.053
X-28.644 Y-90.011
X-29.047 Y-90.033
X-29.441 Y-90.12
X-29.816 Y-90.269
X-30.162 Y-90.476
X-30.47 Y-90.736
X-30.733 Y-91.042
X-31.635 Y-92.284
G3 X-31.277 Y-94.058 I1.053 J-0.71
G1 X-26.95 Y-96.884
G3 X-25.255 Y-96.602 I0.694 J1.063
G1 X-24.386 Y-95.407
X-24.278 Y-95.242
X-24.203 Y-95.112
X-24.137 Y-94.978
X-24.077 Y-94.839
X-24.02 Y-94.684
X-23.97 Y-94.517
X-23.926 Y-94.341
X-23.89 Y-94.151
X-23.863 Y-93.946
X-23.846 Y-93.731
X-23.84 Y-93.508
X-23.847 Y-93.276
X-23.868 Y-93.032
X-23.903 Y-92.781
X-23.952 Y-92.526
X-24.017 Y-92.268
X-24.098 Y-92.008
X-24.194 Y-91.748
X-24.307 Y-91.488
X-24.436 Y-91.23
X-24.581 Y-90.976
X-24.74 Y-90.728
X-24.916 Y-90.485
X-25.087 Y-90.273
X-25.279 Y-90.061
X-25.473 Y-89.868
X-25.662 Y-89.699
X-25.877 Y-89.528
X-26.082 Y-89.382
X-26.289 Y-89.251
X-26.515 Y-89.124
X-26.727 Y-89.02
X-27.149 Y-88.881
X-27.587 Y-88.814
X-28.031 Y-88.822
X-28.468 Y-88.904
X-28.884 Y-89.058
X-29.269 Y-89.279
X-29.611 Y-89.562
X-29.902 Y-89.898
X-30.733 Y-91.042
G3 X-30.386 Y-92.808 I1.053 J-0.71
G1 X-26.093 Y-95.68
G3 X-24.386 Y-95.407 I0.706 J1.056
G1 X-23.5 Y-94.187
X-23.384 Y-94.01
X-23.309 Y-93.88
X-23.242 Y-93.746
X-23.183 Y-93.607
X-23.126 Y-93.451
X-23.075 Y-93.285
X-23.032 Y-93.109
X-22.996 Y-92.918
X-22.968 Y-92.713
X-22.951 Y-92.498
X-22.945 Y-92.275
X-22.952 Y-92.041
X-22.973 Y-91.797
X-23.008 Y-91.546
X-23.057 Y-91.29
X-23.122 Y-91.032
X-23.203 Y-90.772
X-23.299 Y-90.511
X-23.412 Y-90.251
X-23.541 Y-89.993
X-23.686 Y-89.739
X-23.845 Y-89.49
X-24.002 Y-89.273
X-24.181 Y-89.052
X-24.365 Y-88.848
X-24.543 Y-88.671
X-24.748 Y-88.488
X-24.95 Y-88.327
X-25.146 Y-88.188
X-25.369 Y-88.046
X-25.585 Y-87.925
X-25.793 Y-87.822
X-26.029 Y-87.722
X-26.427 Y-87.612
X-26.838 Y-87.569
X-27.25 Y-87.591
X-27.653 Y-87.68
X-28.037 Y-87.832
X-28.391 Y-88.044
X-28.707 Y-88.31
X-28.975 Y-88.623
X-29.902 Y-89.898
G3 X-29.536 Y-91.676 I1.053 J-0.71
G1 X-25.188 Y-94.474
G3 X-23.876 Y-94.511 I0.687 J1.068
X-23.5 Y-94.187 I-0.625 J1.105
G1 X-22.587 Y-92.93
X-22.488 Y-92.779
X-22.413 Y-92.649
X-22.346 Y-92.515
X-22.286 Y-92.375
X-22.23 Y-92.22
X-22.179 Y-92.053
X-22.135 Y-91.877
X-22.099 Y-91.686
X-22.071 Y-91.48
X-22.054 Y-91.265
X-22.048 Y-91.042
X-22.055 Y-90.81
X-22.075 Y-90.568
X-22.11 Y-90.318
X-22.159 Y-90.065
X-22.223 Y-89.809
X-22.303 Y-89.551
X-22.399 Y-89.292
X-22.51 Y-89.036
X-22.637 Y-88.78
X-22.781 Y-88.528
X-22.939 Y-88.282
X-23.113 Y-88.041
X-23.283 Y-87.831
X-23.474 Y-87.619
X-23.667 Y-87.427
X-23.856 Y-87.259
X-24.07 Y-87.087
X-24.275 Y-86.941
X-24.482 Y-86.81
X-24.71 Y-86.682
X-24.922 Y-86.577
X-25.146 Y-86.482
X-25.541 Y-86.373
X-25.948 Y-86.33
X-26.357 Y-86.352
X-26.757 Y-86.44
X-27.138 Y-86.591
X-27.489 Y-86.801
X-27.803 Y-87.065
X-28.069 Y-87.376
X-28.975 Y-88.623
G3 X-28.614 Y-90.398 I1.053 J-0.71
G1 X-24.279 Y-93.214
G3 X-22.962 Y-93.254 I0.692 J1.065
X-22.587 Y-92.93 I-0.625 J1.105
G1 X-21.689 Y-91.694
X-21.592 Y-91.546
X-21.517 Y-91.416
X-21.45 Y-91.282
X-21.39 Y-91.143
X-21.334 Y-90.988
X-21.283 Y-90.822
X-21.24 Y-90.646
X-21.204 Y-90.456
X-21.176 Y-90.252
X-21.159 Y-90.038
X-21.154 Y-89.816
X-21.161 Y-89.583
X-21.181 Y-89.341
X-21.216 Y-89.091
X-21.265 Y-88.836
X-21.33 Y-88.579
X-21.41 Y-88.32
X-21.506 Y-88.061
X-21.618 Y-87.802
X-21.746 Y-87.545
X-21.891 Y-87.292
X-22.05 Y-87.044
X-22.225 Y-86.802
X-22.395 Y-86.592
X-22.587 Y-86.379
X-22.78 Y-86.187
X-22.969 Y-86.019
X-23.183 Y-85.848
X-23.388 Y-85.702
X-23.595 Y-85.57
X-23.822 Y-85.443
X-24.034 Y-85.339
X-24.068 Y-85.324
X-24.485 Y-85.186
X-24.92 Y-85.121
X-25.359 Y-85.128
X-25.791 Y-85.21
X-26.203 Y-85.362
X-26.584 Y-85.581
X-26.923 Y-85.861
X-27.21 Y-86.193
X-28.069 Y-87.376
G3 X-27.711 Y-89.15 I1.053 J-0.71
G1 X-23.384 Y-91.975
G3 X-21.689 Y-91.694 I0.694 J1.063
G1 X-20.799 Y-90.47
X-20.698 Y-90.315
X-20.623 Y-90.186
X-20.556 Y-90.051
X-20.497 Y-89.913
X-20.441 Y-89.758
X-20.39 Y-89.591
X-20.346 Y-89.415
X-20.31 Y-89.226
X-20.283 Y-89.021
X-20.266 Y-88.806
X-20.26 Y-88.584
X-20.267 Y-88.35
X-20.288 Y-88.108
X-20.322 Y-87.857
X-20.372 Y-87.602
X-20.437 Y-87.344
X-20.517 Y-87.085
X-20.614 Y-86.825
X-20.726 Y-86.565
X-20.854 Y-86.308
X-20.999 Y-86.054
X-21.159 Y-85.806
X-21.318 Y-85.586
X-21.497 Y-85.364
X-21.684 Y-85.157
X-21.863 Y-84.979
X-22.069 Y-84.796
X-22.272 Y-84.634
X-22.468 Y-84.494
X-22.692 Y-84.351
X-22.908 Y-84.23
X-23.117 Y-84.128
X-23.548 Y-83.986
X-23.997 Y-83.918
X-24.45 Y-83.926
X-24.896 Y-84.01
X-25.322 Y-84.167
X-25.715 Y-84.393
X-26.065 Y-84.682
X-26.361 Y-85.025
X-27.21 Y-86.193
G3 X-26.841 Y-87.974 I1.053 J-0.71
G1 X-22.484 Y-90.758
G3 X-20.799 Y-90.47 I0.684 J1.07
G1 X-19.905 Y-89.239
X-19.804 Y-89.085
X-19.729 Y-88.955
X-19.662 Y-88.821
X-19.603 Y-88.682
X-19.546 Y-88.527
X-19.495 Y-88.36
X-19.452 Y-88.184
X-19.416 Y-87.994
X-19.388 Y-87.789
X-19.371 Y-87.574
X-19.366 Y-87.351
X-19.372 Y-87.12
X-19.393 Y-86.877
X-19.427 Y-86.627
X-19.477 Y-86.374
X-19.541 Y-86.118
X-19.621 Y-85.859
X-19.717 Y-85.601
X-19.828 Y-85.344
X-19.956 Y-85.088
X-20.1 Y-84.835
X-20.258 Y-84.589
X-20.413 Y-84.375
X-20.592 Y-84.154
X-20.775 Y-83.951
X-20.952 Y-83.775
X-21.157 Y-83.592
X-21.359 Y-83.431
X-21.554 Y-83.291
X-21.779 Y-83.149
X-21.995 Y-83.027
X-22.204 Y-82.925
X-22.442 Y-82.823
X-22.845 Y-82.713
X-23.26 Y-82.668
X-23.678 Y-82.691
X-24.086 Y-82.781
X-24.474 Y-82.935
X-24.833 Y-83.15
X-25.153 Y-83.419
X-25.425 Y-83.736
X-26.361 Y-85.025
G3 X-25.976 Y-86.816 I1.053 J-0.71
G1 X-21.573 Y-89.537
G3 X-19.905 Y-89.239 I0.668 J1.08
G1 X-18.976 Y-87.96
X-18.894 Y-87.834
X-18.82 Y-87.703
X-18.755 Y-87.568
X-18.696 Y-87.428
X-18.641 Y-87.272
X-18.591 Y-87.102
X-18.549 Y-86.922
X-18.515 Y-86.732
X-18.489 Y-86.526
X-18.474 Y-86.309
X-18.471 Y-86.084
X-18.48 Y-85.852
X-18.502 Y-85.611
X-18.539 Y-85.363
X-18.591 Y-85.11
X-18.658 Y-84.853
X-18.741 Y-84.595
X-18.839 Y-84.338
X-18.953 Y-84.082
X-19.083 Y-83.829
X-19.229 Y-83.579
X-19.389 Y-83.335
X-19.563 Y-83.099
X-19.733 Y-82.893
X-19.929 Y-82.681
X-20.12 Y-82.494
X-20.312 Y-82.326
X-20.528 Y-82.158
X-20.731 Y-82.016
X-20.945 Y-81.883
X-21.171 Y-81.759
X-21.382 Y-81.658
X-21.612 Y-81.563
X-22.004 Y-81.459
X-22.406 Y-81.419
X-22.81 Y-81.444
X-23.205 Y-81.533
X-23.58 Y-81.684
X-23.927 Y-81.893
X-24.235 Y-82.154
X-24.499 Y-82.462
X-25.425 Y-83.736
G3 X-25.042 Y-85.525 I1.053 J-0.71
G1 X-20.647 Y-88.257
G3 X-18.976 Y-87.96 I0.67 J1.079
G1 X-18.132 Y-86.799
X-18.016 Y-86.622
X-17.941 Y-86.492
X-17.875 Y-86.357
X-17.815 Y-86.217
X-17.759 Y-86.063
X-17.709 Y-85.899
X-17.666 Y-85.723
X-17.63 Y-85.533
X-17.603 Y-85.33
X-17.587 Y-85.118
X-17.582 Y-84.897
X-17.589 Y-84.664
X-17.609 Y-84.422
X-17.644 Y-84.173
X-17.694 Y-83.92
X-17.758 Y-83.665
X-17.839 Y-83.408
X-17.935 Y-83.148
X-18.048 Y-82.889
X-18.176 Y-82.633
X-18.321 Y-82.379
X-18.481 Y-82.132
X-18.656 Y-81.891
X-18.829 Y-81.677
X-19.018 Y-81.468
X-19.215 Y-81.273
X-19.404 Y-81.105
X-19.619 Y-80.934
X-19.826 Y-80.787
X-20.032 Y-80.657
X-20.26 Y-80.529
X-20.474 Y-80.424
X-20.547 Y-80.393
X-20.955 Y-80.26
X-21.379 Y-80.196
X-21.808 Y-80.204
X-22.229 Y-80.283
X-22.631 Y-80.432
X-23.003 Y-80.646
X-23.334 Y-80.92
X-23.614 Y-81.244
X-24.499 Y-82.462
G3 X-24.145 Y-84.232 I1.053 J-0.71
G1 X-19.833 Y-87.077
G3 X-18.508 Y-87.123 I0.699 J1.06
X-18.132 Y-86.799 I-0.625 J1.105
G1 X-17.243 Y-85.575
X-17.127 Y-85.398
X-17.052 Y-85.268
X-16.985 Y-85.134
X-16.926 Y-84.996
X-16.87 Y-84.841
X-16.82 Y-84.675
X-16.776 Y-84.5
X-16.741 Y-84.31
X-16.713 Y-84.106
X-16.697 Y-83.892
X-16.691 Y-83.67
X-16.698 Y-83.437
X-16.719 Y-83.195
X-16.753 Y-82.944
X-16.803 Y-82.689
X-16.868 Y-82.432
X-16.948 Y-82.173
X-17.045 Y-81.913
X-17.158 Y-81.653
X-17.286 Y-81.396
X-17.431 Y-81.142
X-17.591 Y-80.893
X-17.755 Y-80.667
X-17.935 Y-80.445
X-18.124 Y-80.235
X-18.306 Y-80.055
X-18.512 Y-79.871
X-18.717 Y-79.708
X-18.914 Y-79.567
X-19.139 Y-79.425
X-19.355 Y-79.304
X-19.564 Y-79.202
X-19.8 Y-79.101
X-20.192 Y-78.994
X-20.597 Y-78.951
X-21.003 Y-78.973
X-21.4 Y-79.061
X-21.779 Y-79.211
X-22.128 Y-79.42
X-22.439 Y-79.682
X-22.704 Y-79.991
X-23.614 Y-81.244
G3 X-23.259 Y-83.016 I1.053 J-0.71
G1 X-18.942 Y-85.855
G3 X-17.243 Y-85.575 I0.698 J1.061
G1 X-16.309 Y-84.29
X-16.227 Y-84.164
X-16.153 Y-84.034
X-16.087 Y-83.899
X-16.028 Y-83.759
X-15.972 Y-83.604
X-15.921 Y-83.435
X-15.878 Y-83.257
X-15.843 Y-83.067
X-15.816 Y-82.861
X-15.8 Y-82.645
X-15.796 Y-82.42
X-15.804 Y-82.188
X-15.825 Y-81.945
X-15.862 Y-81.693
X-15.912 Y-81.438
X-15.979 Y-81.18
X-16.061 Y-80.92
X-16.158 Y-80.66
X-16.271 Y-80.403
X-16.401 Y-80.146
X-16.547 Y-79.893
X-16.707 Y-79.646
X-16.883 Y-79.405
X-17.054 Y-79.196
X-17.248 Y-78.983
X-17.441 Y-78.793
X-17.632 Y-78.625
X-17.847 Y-78.455
X-18.051 Y-78.311
X-18.261 Y-78.179
X-18.487 Y-78.054
X-18.698 Y-77.951
X-19.119 Y-77.814
X-19.557 Y-77.75
X-20 Y-77.759
X-20.435 Y-77.842
X-20.85 Y-77.996
X-21.233 Y-78.218
X-21.575 Y-78.5
X-21.864 Y-78.835
X-22.704 Y-79.991
G3 X-22.34 Y-81.768 I1.053 J-0.71
G1 X-17.999 Y-84.574
G3 X-16.685 Y-84.613 I0.69 J1.066
X-16.309 Y-84.29 I-0.625 J1.105
G1 X-15.422 Y-83.069
X-15.34 Y-82.942
X-15.264 Y-82.813
X-15.198 Y-82.678
X-15.138 Y-82.538
X-15.081 Y-82.383
X-15.031 Y-82.217
X-14.987 Y-82.041
X-14.951 Y-81.85
X-14.924 Y-81.645
X-14.907 Y-81.431
X-14.901 Y-81.209
X-14.908 Y-80.974
X-14.929 Y-80.73
X-14.964 Y-80.479
X-15.014 Y-80.224
X-15.078 Y-79.967
X-15.159 Y-79.708
X-15.256 Y-79.447
X-15.369 Y-79.187
X-15.497 Y-78.929
X-15.642 Y-78.674
X-15.802 Y-78.426
X-15.96 Y-78.207
X-16.138 Y-77.988
X-16.324 Y-77.783
X-16.502 Y-77.605
X-16.706 Y-77.424
X-16.91 Y-77.261
X-17.105 Y-77.122
X-17.328 Y-76.981
X-17.545 Y-76.859
X-17.753 Y-76.757
X-17.99 Y-76.656
X-18.388 Y-76.547
X-18.799 Y-76.504
X-19.211 Y-76.527
X-19.614 Y-76.615
X-19.998 Y-76.768
X-20.352 Y-76.98
X-20.668 Y-77.246
X-20.937 Y-77.559
X-21.864 Y-78.835
G3 X-21.484 Y-80.623 I1.053 J-0.71
G1 X-17.095 Y-83.364
G3 X-15.422 Y-83.069 I0.673 J1.077
G1 X-14.566 Y-81.891
X-14.446 Y-81.707
X-14.371 Y-81.577
X-14.304 Y-81.443
X-14.245 Y-81.304
X-14.188 Y-81.149
X-14.137 Y-80.982
X-14.094 Y-80.806
X-14.058 Y-80.616
X-14.03 Y-80.411
X-14.013 Y-80.196
X-14.008 Y-79.973
X-14.014 Y-79.742
X-14.035 Y-79.5
X-14.069 Y-79.25
X-14.119 Y-78.997
X-14.183 Y-78.741
X-14.263 Y-78.484
X-14.358 Y-78.225
X-14.47 Y-77.969
X-14.597 Y-77.714
X-14.741 Y-77.461
X-14.899 Y-77.215
X-15.073 Y-76.975
X-15.243 Y-76.765
X-15.434 Y-76.553
X-15.627 Y-76.361
X-15.816 Y-76.193
X-16.03 Y-76.022
X-16.236 Y-75.875
X-16.443 Y-75.744
X-16.67 Y-75.616
X-16.883 Y-75.512
X-17.107 Y-75.416
X-17.502 Y-75.308
X-17.909 Y-75.264
X-18.318 Y-75.287
X-18.718 Y-75.375
X-19.099 Y-75.526
X-19.45 Y-75.736
X-19.763 Y-76
X-20.03 Y-76.311
X-20.937 Y-77.559
G3 X-20.582 Y-79.331 I1.053 J-0.71
G1 X-16.265 Y-82.17
G3 X-14.566 Y-81.891 I0.698 J1.061
G1 X-13.613 Y-80.579
X-13.531 Y-80.454
X-13.458 Y-80.323
X-13.393 Y-80.187
X-13.335 Y-80.046
X-13.28 Y-79.89
X-13.23 Y-79.719
X-13.188 Y-79.539
X-13.154 Y-79.348
X-13.129 Y-79.143
X-13.115 Y-78.924
X-13.112 Y-78.698
X-13.122 Y-78.464
X-13.145 Y-78.222
X-13.183 Y-77.971
X-13.236 Y-77.714
X-13.305 Y-77.456
X-13.389 Y-77.195
X-13.489 Y-76.935
X-13.605 Y-76.676
X-13.737 Y-76.421
X-13.884 Y-76.169
X-14.047 Y-75.923
X-14.222 Y-75.686
X-14.394 Y-75.48
X-14.59 Y-75.267
X-14.782 Y-75.082
X-14.975 Y-74.914
X-15.19 Y-74.747
X-15.392 Y-74.606
X-15.607 Y-74.473
X-15.831 Y-74.351
X-16.041 Y-74.252
X-16.459 Y-74.119
X-16.894 Y-74.057
X-17.333 Y-74.069
X-17.764 Y-74.153
X-18.175 Y-74.308
X-18.555 Y-74.528
X-18.893 Y-74.808
X-19.18 Y-75.141
X-20.03 Y-76.311
G3 X-19.659 Y-78.093 I1.053 J-0.71
G1 X-15.296 Y-80.869
G3 X-13.989 Y-80.903 I0.682 J1.071
X-13.613 Y-80.579 I-0.625 J1.105
G1 X-12.752 Y-79.394
X-12.657 Y-79.248
X-12.581 Y-79.118
X-12.515 Y-78.983
X-12.454 Y-78.842
X-12.398 Y-78.687
X-12.348 Y-78.523
X-12.305 Y-78.346
X-12.268 Y-78.153
X-12.241 Y-77.95
X-12.225 Y-77.738
X-12.219 Y-77.514
X-12.227 Y-77.279
X-12.247 Y-77.035
X-12.282 Y-76.786
X-12.332 Y-76.532
X-12.397 Y-76.275
X-12.477 Y-76.016
X-12.574 Y-75.755
X-12.688 Y-75.495
X-12.817 Y-75.237
X-12.962 Y-74.982
X-13.122 Y-74.734
X-13.282 Y-74.513
X-13.457 Y-74.297
X-13.645 Y-74.089
X-13.825 Y-73.911
X-14.027 Y-73.732
X-14.232 Y-73.568
X-14.428 Y-73.429
X-14.65 Y-73.288
X-14.868 Y-73.166
X-15.076 Y-73.064
X-15.312 Y-72.964
X-15.71 Y-72.855
X-16.119 Y-72.812
X-16.531 Y-72.835
X-16.934 Y-72.924
X-17.317 Y-73.076
X-17.67 Y-73.288
X-17.985 Y-73.553
X-18.254 Y-73.866
X-19.18 Y-75.141
G3 X-18.805 Y-76.925 I1.053 J-0.71
G1 X-14.431 Y-79.686
G3 X-12.752 Y-79.394 I0.678 J1.074
G1 X-11.884 Y-78.199
X-11.764 Y-78.015
X-11.689 Y-77.885
X-11.622 Y-77.751
X-11.563 Y-77.612
X-11.506 Y-77.457
X-11.455 Y-77.291
X-11.412 Y-77.115
X-11.376 Y-76.924
X-11.348 Y-76.719
X-11.332 Y-76.505
X-11.326 Y-76.282
X-11.333 Y-76.05
X-11.353 Y-75.809
X-11.388 Y-75.559
X-11.437 Y-75.306
X-11.502 Y-75.05
X-11.582 Y-74.792
X-11.677 Y-74.534
X-11.788 Y-74.278
X-11.916 Y-74.022
X-12.06 Y-73.77
X-12.218 Y-73.524
X-12.392 Y-73.283
X-12.562 Y-73.073
X-12.754 Y-72.861
X-12.947 Y-72.669
X-13.136 Y-72.501
X-13.35 Y-72.329
X-13.556 Y-72.183
X-13.763 Y-72.052
X-13.99 Y-71.924
X-14.203 Y-71.82
X-14.427 Y-71.724
X-14.821 Y-71.616
X-15.228 Y-71.573
X-15.637 Y-71.595
X-16.037 Y-71.683
X-16.417 Y-71.834
X-16.768 Y-72.044
X-17.081 Y-72.308
X-17.347 Y-72.619
X-18.254 Y-73.866
G3 X-17.899 Y-75.637 I1.053 J-0.71
G1 X-13.583 Y-78.478
G3 X-12.259 Y-78.522 I0.698 J1.061
X-11.884 Y-78.199 I-0.625 J1.105
G1 X-10.966 Y-76.936
X-10.87 Y-76.788
X-10.795 Y-76.658
X-10.728 Y-76.524
X-10.668 Y-76.385
X-10.612 Y-76.231
X-10.561 Y-76.064
X-10.518 Y-75.889
X-10.482 Y-75.699
X-10.455 Y-75.495
X-10.438 Y-75.281
X-10.432 Y-75.059
X-10.439 Y-74.826
X-10.459 Y-74.584
X-10.494 Y-74.334
X-10.544 Y-74.079
X-10.608 Y-73.822
X-10.688 Y-73.563
X-10.785 Y-73.304
X-10.897 Y-73.045
X-11.025 Y-72.788
X-11.169 Y-72.534
X-11.329 Y-72.286
X-11.503 Y-72.045
X-11.674 Y-71.834
X-11.865 Y-71.622
X-12.059 Y-71.43
X-12.248 Y-71.262
X-12.462 Y-71.09
X-12.667 Y-70.944
X-12.874 Y-70.813
X-13.101 Y-70.686
X-13.313 Y-70.581
X-13.537 Y-70.486
X-13.93 Y-70.378
X-14.335 Y-70.335
X-14.742 Y-70.357
X-15.14 Y-70.445
X-15.518 Y-70.595
X-15.868 Y-70.804
X-16.179 Y-71.067
X-16.444 Y-71.376
X-17.347 Y-72.619
G3 X-16.989 Y-74.392 I1.053 J-0.71
G1 X-12.661 Y-77.217
G3 X-11.341 Y-77.259 I0.694 J1.063
X-10.966 Y-76.936 I-0.625 J1.105
G1 X-10.076 Y-75.711
X-9.977 Y-75.558
X-9.902 Y-75.429
X-9.835 Y-75.294
X-9.775 Y-75.156
X-9.719 Y-75.001
X-9.668 Y-74.834
X-9.625 Y-74.658
X-9.589 Y-74.469
X-9.561 Y-74.264
X-9.544 Y-74.05
X-9.539 Y-73.827
X-9.546 Y-73.594
X-9.566 Y-73.351
X-9.601 Y-73.1
X-9.651 Y-72.845
X-9.715 Y-72.587
X-9.796 Y-72.328
X-9.892 Y-72.068
X-10.004 Y-71.808
X-10.133 Y-71.551
X-10.277 Y-71.297
X-10.437 Y-71.049
X-10.612 Y-70.807
X-10.782 Y-70.596
X-10.974 Y-70.384
X-11.168 Y-70.192
X-11.356 Y-70.024
X-11.571 Y-69.853
X-11.775 Y-69.707
X-11.983 Y-69.575
X-12.209 Y-69.448
X-12.421 Y-69.344
X-12.645 Y-69.249
X-13.036 Y-69.141
X-13.44 Y-69.098
X-13.846 Y-69.121
X-14.243 Y-69.208
X-14.62 Y-69.358
X-14.969 Y-69.566
X-15.279 Y-69.828
X-15.544 Y-70.136
X-16.444 Y-71.376
G3 X-16.09 Y-73.147 I1.053 J-0.71
G1 X-11.776 Y-75.99
G3 X-10.076 Y-75.711 I0.699 J1.06
G1 X-9.169 Y-74.462
X-9.082 Y-74.329
X-9.007 Y-74.2
X-8.94 Y-74.065
X-8.881 Y-73.926
X-8.824 Y-73.771
X-8.773 Y-73.605
X-8.73 Y-73.428
X-8.694 Y-73.238
X-8.666 Y-73.033
X-8.649 Y-72.818
X-8.644 Y-72.595
X-8.65 Y-72.361
X-8.671 Y-72.118
X-8.706 Y-71.867
