%
(1001)
(Z0 left bow model top)
(T1  D=12.7 CR=0 - ZMIN=-25 - flat end mill)
G90 G94
G17
G21

(2D Contour7 7)
M9
T1 M6
S6000 M3
G54
M9
G0 X218.171 Y-114.069
Z25
Z15
G1 Z14 F849.6
Z13.77
X218.165 Y-114.064 Z13.628
X218.147 Y-114.049 Z13.487
X218.116 Y-114.024 Z13.351
X218.073 Y-113.99 Z13.219
X218.019 Y-113.947 Z13.094
X217.955 Y-113.896 Z12.978
X217.881 Y-113.836 Z12.872
X217.798 Y-113.77 Z12.777
X217.707 Y-113.697 Z12.695
X217.61 Y-113.619 Z12.626
X217.507 Y-113.537 Z12.571
X217.401 Y-113.452 Z12.532
X217.291 Y-113.364 Z12.508
X217.18 Y-113.275 Z12.5
X216.188 Y-112.481
G3 X214.403 Y-112.679 I-0.794 J-0.991
G2 X214.23 Y-112.887 Z12.491 I-4.957 J3.968 F400.3
G1 X213.736 Y-113.453 Z12.464
G2 X213.494 Y-113.715 Z12.452 I-4.784 J4.176
G1 X212.984 Y-114.237 Z12.426
G2 X212.727 Y-114.485 Z12.414 I-4.542 J4.438
G1 X212.201 Y-114.966 Z12.389
G2 X211.923 Y-115.206 Z12.376 I-4.285 J4.686
G1 X211.382 Y-115.646 Z12.352
G2 X211.085 Y-115.873 Z12.339 I-4.007 J4.926
G1 X210.528 Y-116.274 Z12.315
G2 X210.22 Y-116.482 Z12.302 I-3.71 J5.153
G1 X209.648 Y-116.845 Z12.278
G2 X209.336 Y-117.031 Z12.265 I-3.402 J5.361
G1 X208.749 Y-117.358 Z12.242
G2 X208.423 Y-117.528 Z12.229 I-3.09 J5.547
G1 X207.821 Y-117.819 Z12.206
G2 X207.51 Y-117.959 Z12.194 I-2.764 J5.717
G1 X206.894 Y-118.217 Z12.171
G2 X206.577 Y-118.34 Z12.159 I-2.453 J5.857
G1 X205.947 Y-118.565 Z12.135
G2 X205.637 Y-118.667 Z12.124 I-2.136 J5.98
G1 X204.994 Y-118.86 Z12.101
G2 X204.706 Y-118.939 Z12.09 I-1.826 J6.082
G1 X204.049 Y-119.103 Z12.066
G2 X203.756 Y-119.169 Z12.056 I-1.538 J6.161
G1 X203.086 Y-119.303 Z12.032
G2 X202.816 Y-119.351 Z12.023 I-1.245 J6.227
G1 X202.134 Y-119.457 Z11.998
G2 X201.886 Y-119.49 Z11.99 I-0.975 J6.275
G1 X201.192 Y-119.57 Z11.965
G2 X200.949 Y-119.594 Z11.957 I-0.727 J6.308
G1 X200.243 Y-119.648 Z11.932
G2 X200.016 Y-119.661 Z11.924 I-0.484 J6.332
G1 X199.3 Y-119.69 Z11.899
G2 X199.087 Y-119.695 Z11.892 I-0.257 J6.345
G1 X198.361 Y-119.7 Z11.866
G2 X198.17 Y-119.698 Z11.86 I-0.044 J6.35
G1 X197.434 Y-119.681 Z11.834
G2 X197.249 Y-119.674 Z11.827 I0.147 J6.348
G1 X196.504 Y-119.635 Z11.801
G2 X196.339 Y-119.625 Z11.796 I0.332 J6.341
G1 X195.587 Y-119.566 Z11.769
G2 X195.419 Y-119.55 Z11.763 I0.497 J6.331
G1 X194.659 Y-119.47 Z11.737
G2 X194.502 Y-119.452 Z11.731 I0.665 J6.315
G1 X193.736 Y-119.352 Z11.704
G2 X193.534 Y-119.322 Z11.697 I0.822 J6.297
G1 X191.985 Y-119.069 Z11.642
G2 X191.725 Y-119.021 Z11.633 I1.024 J6.267
G1 X190.161 Y-118.698 Z11.577
G2 X189.922 Y-118.644 Z11.569 I1.284 J6.219
G1 X188.351 Y-118.256 Z11.512
G2 X188.134 Y-118.198 Z11.504 I1.523 J6.165
G1 X186.562 Y-117.75 Z11.447
G2 X186.354 Y-117.687 Z11.44 I1.74 J6.107
G1 X184.79 Y-117.183 Z11.382
G2 X184.582 Y-117.112 Z11.375 I1.948 J6.044
G1 X183.033 Y-116.553 Z11.317
G2 X182.833 Y-116.477 Z11.31 I2.156 J5.973
G1 X181.306 Y-115.867 Z11.252
G2 X181.108 Y-115.784 Z11.245 I2.356 J5.897
G1 X179.61 Y-115.126 Z11.188
G2 X179.409 Y-115.033 Z11.18 I2.554 J5.814
G1 X177.947 Y-114.329 Z11.123
G2 X177.746 Y-114.228 Z11.115 I2.755 J5.721
G1 X176.326 Y-113.481 Z11.059
G2 X176.119 Y-113.367 Z11.051 I2.956 J5.62
G1 X174.744 Y-112.577 Z10.996
G2 X174.54 Y-112.455 Z10.987 I3.163 J5.506
G1 X173.216 Y-111.627 Z10.933
G2 X173.009 Y-111.492 Z10.924 I3.367 J5.384
G1 X171.737 Y-110.626 Z10.87
G2 X171.537 Y-110.484 Z10.862 I3.574 J5.249
G1 X170.319 Y-109.584 Z10.809
G2 X170.122 Y-109.432 Z10.8 I3.774 J5.107
G1 X168.959 Y-108.5 Z10.748
G2 X168.778 Y-108.35 Z10.74 I3.971 J4.955
G1 X167.667 Y-107.39 Z10.689
G2 X167.501 Y-107.241 Z10.681 I4.152 J4.805
G1 X166.439 Y-106.256 Z10.63
G2 X166.294 Y-106.117 Z10.623 I4.318 J4.656
G1 X165.275 Y-105.11 Z10.573
G2 X165.158 Y-104.991 Z10.568 I4.463 J4.517
G1 X164.176 Y-103.968 Z10.518
G2 X164.066 Y-103.852 Z10.512 I4.58 J4.398
G1 X162.172 Y-101.777 Z10.414
G2 X162.161 Y-101.764 I4.69 J4.281
G1 X160.328 Y-99.745 Z10.319
X159.474 Y-98.848 Z10.275
X158.622 Y-98.006 Z10.233
X157.732 Y-97.195 Z10.191
X157.324 Y-96.85 Z10.173
X156.882 Y-96.496 Z10.153
X156.427 Y-96.153 Z10.133
X155.958 Y-95.822 Z10.113
X155.473 Y-95.501 Z10.093
X154.963 Y-95.188 Z10.072
X154.429 Y-94.884 Z10.05
X153.869 Y-94.59 Z10.028
X153.273 Y-94.303 Z10.005
X152.641 Y-94.024 Z9.981
X151.97 Y-93.753 Z9.956
X151.255 Y-93.491 Z9.929
X150.493 Y-93.239 Z9.901
X149.681 Y-92.997 Z9.872
X148.816 Y-92.767 Z9.84
X147.898 Y-92.55 Z9.807
X146.923 Y-92.347 Z9.773
X145.889 Y-92.158 Z9.736
X144.796 Y-91.985 Z9.697
X143.643 Y-91.83 Z9.657
X142.429 Y-91.692 Z9.614
X141.151 Y-91.573 Z9.569
X139.81 Y-91.473 Z9.522
X138.407 Y-91.393 Z9.473
X136.939 Y-91.334 Z9.422
X135.41 Y-91.297 Z9.368
X133.84 Y-91.281 Z9.314
X132.336 Y-91.29 Z9.261
X130.897 Y-91.323 Z9.211
X129.525 Y-91.379 Z9.163
X128.218 Y-91.458 Z9.117
X126.976 Y-91.559 Z9.074
X125.798 Y-91.681 Z9.032
X124.683 Y-91.822 Z8.993
X123.63 Y-91.983 Z8.956
X122.637 Y-92.161 Z8.921
X121.703 Y-92.355 Z8.887
X120.824 Y-92.564 Z8.856
X119.999 Y-92.787 Z8.826
X119.226 Y-93.023 Z8.798
X118.501 Y-93.27 Z8.771
X117.811 Y-93.531 Z8.745
X117.271 Y-93.755 Z8.725
X116.75 Y-93.989 Z8.705
X116.256 Y-94.229 Z8.686
X115.781 Y-94.477 Z8.667
X115.326 Y-94.731 Z8.649
X114.888 Y-94.994 Z8.631
X114.462 Y-95.265 Z8.613
X114.083 Y-95.522 Z8.597
X113.248 Y-96.134 Z8.561
X112.472 Y-96.762 Z8.526
X111.705 Y-97.436 Z8.49
X110.934 Y-98.159 Z8.454
X110.153 Y-98.928 Z8.415
X109.354 Y-99.744 Z8.375
X107.674 Y-101.482 Z8.291
G2 X107.613 Y-101.544 Z8.288 I-4.567 J4.412
G1 X105.883 Y-103.287 Z8.202
G2 X105.762 Y-103.406 Z8.196 I-4.506 J4.474
G1 X104.865 Y-104.262 Z8.153
G2 X104.753 Y-104.366 Z8.148 I-4.385 J4.593
G1 X103.828 Y-105.208 Z8.104
G2 X103.693 Y-105.328 Z8.098 I-4.273 J4.697
G1 X102.734 Y-106.152 Z8.054
G2 X102.585 Y-106.275 Z8.047 I-4.138 J4.817
G1 X101.589 Y-107.079 Z8.002
G2 X101.422 Y-107.209 Z7.995 I-3.989 J4.94
G1 X100.388 Y-107.989 Z7.949
G2 X100.219 Y-108.113 Z7.942 I-3.823 J5.07
G1 X99.144 Y-108.869 Z7.896
G2 X98.966 Y-108.99 Z7.889 I-3.654 J5.194
G1 X97.851 Y-109.719 Z7.842
G2 X97.671 Y-109.832 Z7.835 I-3.475 J5.315
G1 X96.516 Y-110.533 Z7.788
G2 X96.33 Y-110.642 Z7.78 I-3.295 J5.428
G1 X95.137 Y-111.312 Z7.732
G2 X94.956 Y-111.409 Z7.725 I-3.109 J5.537
G1 X93.727 Y-112.048 Z7.677
G2 X93.542 Y-112.141 Z7.67 I-2.929 J5.634
G1 X92.279 Y-112.746 Z7.621
G2 X92.104 Y-112.826 Z7.614 I-2.744 J5.727
G1 X90.811 Y-113.398 Z7.565
G2 X90.628 Y-113.476 Z7.558 I-2.569 J5.807
G1 X89.309 Y-114.011 Z7.508
G2 X89.136 Y-114.078 Z7.501 I-2.386 J5.885
G1 X87.795 Y-114.577 Z7.451
G2 X87.616 Y-114.64 Z7.445 I-2.214 J5.952
G1 X86.257 Y-115.1 Z7.395
G2 X86.076 Y-115.158 Z7.388 I-2.035 J6.015
G1 X84.703 Y-115.577 Z7.338
G2 X84.526 Y-115.629 Z7.332 I-1.854 J6.073
G1 X83.146 Y-116.007 Z7.282
G2 X82.959 Y-116.055 Z7.275 I-1.677 J6.125
G1 X81.576 Y-116.389 Z7.225
G2 X81.378 Y-116.433 Z7.218 I-1.491 J6.173
G1 X79.997 Y-116.72 Z7.169
G2 X79.794 Y-116.759 Z7.162 I-1.292 J6.217
G1 X78.42 Y-116.998 Z7.113
G2 X78.196 Y-117.033 Z7.105 I-1.089 J6.256
G1 X76.836 Y-117.22 Z7.057
G2 X76.597 Y-117.248 Z7.049 I-0.865 J6.291
G1 X75.254 Y-117.381 Z7.001
G2 X75.212 Y-117.385 Z7 I-0.626 J6.319
X74.983 Y-117.402 I-0.584 J6.323 F849.6
G1 X73.662 Y-117.476
G2 X73.361 Y-117.486 I-0.355 J6.34
G1 X72.066 Y-117.497
G2 X71.731 Y-117.491 I-0.054 J6.35
G1 X70.467 Y-117.435
G2 X70.196 Y-117.417 I0.281 J6.344
G1 X69.577 Y-117.363
G2 X69.364 Y-117.341 I0.551 J6.326
G1 X68.754 Y-117.267
G2 X68.557 Y-117.24 I0.764 J6.304
G1 X67.956 Y-117.148
G2 X67.725 Y-117.108 I0.961 J6.277
G1 X67.134 Y-116.995
G2 X66.909 Y-116.948 I1.192 J6.237
G1 X66.328 Y-116.815
G2 X66.08 Y-116.753 I1.416 J6.19
G1 X65.509 Y-116.598
G2 X65.26 Y-116.525 I1.664 J6.128
G1 X64.699 Y-116.348
G2 X64.439 Y-116.26 I1.913 J6.055
G1 X63.89 Y-116.06
G2 X63.622 Y-115.955 I2.173 J5.967
G1 X63.084 Y-115.731
G2 X62.81 Y-115.609 I2.442 J5.862
G1 X62.283 Y-115.36
G2 X62.014 Y-115.225 I2.716 J5.74
G1 X61.5 Y-114.951
G2 X61.221 Y-114.793 I2.985 J5.605
G1 X60.719 Y-114.492
G2 X60.45 Y-114.322 I3.264 J5.447
G1 X59.96 Y-113.994
G2 X59.697 Y-113.808 I3.532 J5.277
G1 X59.22 Y-113.452
G2 X58.965 Y-113.251 I3.795 J5.091
G1 X58.5 Y-112.866
G2 X58.261 Y-112.659 I4.051 J4.89
G1 X57.809 Y-112.245
G2 X57.577 Y-112.021 I4.289 J4.683
G1 X57.138 Y-111.576
G2 X56.922 Y-111.346 I4.521 J4.459
G1 X56.497 Y-110.869
G2 X56.3 Y-110.637 I4.737 J4.229
G1 X55.887 Y-110.128
G2 X55.704 Y-109.891 I4.934 J3.997
G1 X55.305 Y-109.348
G2 X55.145 Y-109.119 I5.117 J3.76
G1 X54.759 Y-108.543
G2 X54.61 Y-108.308 I5.278 J3.531
G1 X54.238 Y-107.696
G2 X54.109 Y-107.474 I5.427 J3.296
G1 X53.751 Y-106.827
G2 X53.635 Y-106.607 I5.556 J3.074
G1 X53.29 Y-105.923
G2 X53.188 Y-105.71 I5.673 J2.854
G1 X52.858 Y-104.988
G2 X52.77 Y-104.786 I5.775 J2.641
G1 X52.454 Y-104.026
G2 X52.377 Y-103.833 I5.863 J2.439
G1 X52.075 Y-103.034
G2 X52.008 Y-102.849 I5.939 J2.246
G1 X51.72 Y-102.009
G2 X51.663 Y-101.836 I6.006 J2.061
G1 X51.389 Y-100.955
G2 X51.341 Y-100.791 I6.063 J1.887
G1 X51.081 Y-99.869
G2 X51.039 Y-99.713 I6.112 J1.722
G1 X50.794 Y-98.749
G2 X50.758 Y-98.604 I6.154 J1.567
G1 X50.527 Y-97.597
G2 X50.497 Y-97.46 I6.189 J1.421
G1 X50.28 Y-96.409
G2 X50.255 Y-96.28 I6.219 J1.284
G1 X50.053 Y-95.185
G2 X50.032 Y-95.064 I6.244 J1.155
G1 X49.843 Y-93.923
G2 X49.826 Y-93.811 I6.265 J1.034
G1 X49.652 Y-92.625
G2 X49.637 Y-92.518 I6.283 J0.922
G1 X49.477 Y-91.286
G2 X49.465 Y-91.187 I6.297 J0.816
G1 X49.32 Y-89.907
G2 X49.31 Y-89.814 I6.309 J0.717
G1 X49.179 Y-88.486
G2 X49.171 Y-88.4 I6.319 J0.624
G1 X49.054 Y-87.024
G2 X49.048 Y-86.943 I6.327 J0.537
G1 X48.945 Y-85.518
G2 X48.94 Y-85.442 I6.334 J0.455
G1 X48.852 Y-83.969
G2 X48.848 Y-83.898 I6.339 J0.379
G1 X48.774 Y-82.375
G2 X48.772 Y-82.308 I6.343 J0.308
G1 X48.712 Y-80.735
G2 X48.71 Y-80.672 I6.345 J0.24
G1 X48.665 Y-79.05
G2 X48.663 Y-78.99 I6.348 J0.177
G1 X48.632 Y-77.317
G2 Y-77.261 I6.349 J0.117
G1 X48.615 Y-75.538
G2 Y-75.485 I6.35 J0.062
G1 X48.612 Y-73.711
G2 Y-73.661 I6.35 J0.009
G1 X48.624 Y-71.835
G2 X48.625 Y-71.788 I6.35 J-0.041
G1 X48.651 Y-69.912
G2 Y-69.867 I6.349 J-0.088
G1 X48.691 Y-67.99
G2 X48.692 Y-67.943 I6.349 J-0.133
G1 X48.744 Y-66.119
G2 X48.745 Y-66.069 I6.347 J-0.181
G1 X48.81 Y-64.296
G2 X48.812 Y-64.243 I6.346 J-0.23
G1 X48.889 Y-62.521
G2 X48.892 Y-62.465 I6.344 J-0.283
G1 X48.981 Y-60.794
G2 X48.984 Y-60.735 I6.341 J-0.339
G1 X49.086 Y-59.115
G2 X49.091 Y-59.052 I6.337 J-0.398
G1 X49.205 Y-57.482
G2 X49.21 Y-57.415 I6.333 J-0.462
G1 X49.337 Y-55.896
G2 X49.343 Y-55.825 I6.328 J-0.529
G1 X49.483 Y-54.356
G2 X49.491 Y-54.279 I6.322 J-0.6
G1 X49.643 Y-52.86
G2 X49.652 Y-52.779 I6.314 J-0.676
G1 X49.817 Y-51.408
G2 X49.828 Y-51.322 I6.305 J-0.758
G1 X50.005 Y-50
G2 X50.018 Y-49.908 I6.294 J-0.844
G1 X50.208 Y-48.634
G2 X50.223 Y-48.534 I6.281 J-0.936
G1 X50.426 Y-47.308
G2 X50.444 Y-47.203 I6.265 J-1.035
G1 X50.66 Y-46.023
G2 X50.681 Y-45.911 I6.247 J-1.14
G1 X50.909 Y-44.778
G2 X50.935 Y-44.658 I6.225 J-1.252
G1 X51.175 Y-43.57
G2 X51.205 Y-43.443 I6.2 J-1.373
G1 X51.459 Y-42.4
G2 X51.493 Y-42.264 I6.17 J-1.5
G1 X51.759 Y-41.266
G2 X51.8 Y-41.121 I6.136 J-1.636
G1 X52.079 Y-40.166
G2 X52.126 Y-40.012 I6.095 J-1.78
G1 X52.417 Y-39.1
G2 X52.472 Y-38.938 I6.048 J-1.934
G1 X52.776 Y-38.068
G2 X52.84 Y-37.895 I5.994 J-2.097
G1 X53.157 Y-37.066
G2 X53.229 Y-36.885 I5.93 J-2.27
G1 X53.559 Y-36.097
G2 X53.643 Y-35.905 I5.858 J-2.451
G1 X53.986 Y-35.157
G2 X54.081 Y-34.958 I5.774 J-2.643
G1 X54.436 Y-34.248
G2 X54.545 Y-34.04 I5.679 J-2.841
G1 X54.913 Y-33.368
G2 X55.036 Y-33.153 I5.569 J-3.05
G1 X55.417 Y-32.518
G2 X55.555 Y-32.298 I5.446 J-3.265
G1 X55.948 Y-31.7
G2 X56.103 Y-31.475 I5.308 J-3.485
G1 X56.508 Y-30.912
G2 X56.681 Y-30.683 I5.153 J-3.711
G1 X57.098 Y-30.155
G2 X57.287 Y-29.928 I4.98 J-3.939
G1 X57.717 Y-29.433
G2 X57.923 Y-29.208 I4.792 J-4.167
G1 X58.365 Y-28.746
G2 X58.587 Y-28.525 I4.586 J-4.392
G1 X59.042 Y-28.095
G2 X59.278 Y-27.883 I4.363 J-4.613
G1 X59.744 Y-27.484
G2 X59.995 Y-27.281 I4.127 J-4.826
G1 X60.473 Y-26.912
G2 X60.734 Y-26.721 I3.876 J-5.03
G1 X61.224 Y-26.382
G2 X61.495 Y-26.205 I3.615 J-5.221
G1 X61.996 Y-25.894
G2 X62.27 Y-25.733 I3.344 J-5.398
G1 X62.783 Y-25.45
G2 X63.062 Y-25.305 I3.07 J-5.559
G1 X63.586 Y-25.049
G2 X63.864 Y-24.921 I2.79 J-5.704
G1 X64.398 Y-24.691
G2 X64.674 Y-24.58 I2.512 J-5.832
G1 X65.219 Y-24.375
G2 X65.491 Y-24.279 I2.236 J-5.943
G1 X66.046 Y-24.099
G2 X66.31 Y-24.019 I1.965 J-6.038
G1 X66.876 Y-23.862
G2 X67.13 Y-23.797 I1.701 J-6.118
G1 X67.706 Y-23.662
G2 X67.952 Y-23.609 I1.448 J-6.183
G1 X68.537 Y-23.496
G2 X68.77 Y-23.456 I1.202 J-6.235
G1 X69.365 Y-23.364
G2 X69.588 Y-23.334 I0.969 J-6.276
G1 X70.192 Y-23.262
G2 X70.404 Y-23.241 I0.746 J-6.306
G1 X71.016 Y-23.189
G2 X71.215 Y-23.175 I0.535 J-6.327
G1 X71.837 Y-23.142
G2 X72.114 Y-23.134 I0.336 J-6.341
G1 X73.38 Y-23.122
G2 X73.715 Y-23.128 I0.058 J-6.35
G1 X75.008 Y-23.184
G2 X75.307 Y-23.205 I-0.277 J-6.344
G1 X76.625 Y-23.325
G2 X76.892 Y-23.355 I-0.576 J-6.324
G1 X78.23 Y-23.534
G2 X78.471 Y-23.571 I-0.843 J-6.294
G1 X79.825 Y-23.806
G2 X80.045 Y-23.848 I-1.085 J-6.257
G1 X81.409 Y-24.134
G2 X81.615 Y-24.181 I-1.305 J-6.214
G1 X82.985 Y-24.516
G2 X83.178 Y-24.567 I-1.511 J-6.168
G1 X84.549 Y-24.949
G2 X84.733 Y-25.003 I-1.704 J-6.117
G1 X86.1 Y-25.429
G2 X86.279 Y-25.488 I-1.889 J-6.063
G1 X87.636 Y-25.955
G2 X87.812 Y-26.018 I-2.068 J-6.004
G1 X89.154 Y-26.526
G2 X89.328 Y-26.594 I-2.244 J-5.94
G1 X90.652 Y-27.139
G2 X90.827 Y-27.214 I-2.418 J-5.872
G1 X92.127 Y-27.796
G2 X92.302 Y-27.877 I-2.592 J-5.797
G1 X93.574 Y-28.493
G2 X93.751 Y-28.582 I-2.768 J-5.715
G1 X94.992 Y-29.232
G2 X95.169 Y-29.328 I-2.944 J-5.626
G1 X96.376 Y-30.009
G2 X96.555 Y-30.115 I-3.122 J-5.53
G1 X97.724 Y-30.826
G2 X97.903 Y-30.939 I-3.302 J-5.424
G1 X99.033 Y-31.68
G2 X99.21 Y-31.8 I-3.48 J-5.311
G1 X100.299 Y-32.568
G2 X100.474 Y-32.695 I-3.658 J-5.191
G1 X101.521 Y-33.488
G2 X101.689 Y-33.619 I-3.833 J-5.063
G1 X102.696 Y-34.436
G2 X102.854 Y-34.569 I-4 J-4.932
G1 X103.821 Y-35.407
G2 X103.967 Y-35.537 I-4.158 J-4.799
G1 X104.897 Y-36.394
G2 X105.025 Y-36.516 I-4.305 J-4.668
G1 X105.921 Y-37.389
G2 X106.032 Y-37.5 I-4.433 J-4.547
G1 X106.898 Y-38.388
G2 X107.013 Y-38.508 I-4.544 J-4.436
G1 X108.682 Y-40.31
G2 X108.742 Y-40.376 I-4.659 J-4.315
G1 X110.358 Y-42.171
X111.131 Y-43.015
X111.884 Y-43.812
X112.626 Y-44.559
X113.37 Y-45.259
X114.126 Y-45.915
X114.937 Y-46.556
X115.306 Y-46.825
X115.722 Y-47.11
X116.152 Y-47.389
X116.599 Y-47.66
X117.063 Y-47.923
X117.55 Y-48.181
X118.063 Y-48.433
X118.594 Y-48.676
X119.273 Y-48.96
X119.99 Y-49.232
X120.756 Y-49.495
X121.572 Y-49.747
X122.442 Y-49.987
X123.369 Y-50.213
X124.354 Y-50.426
X125.402 Y-50.623
X126.511 Y-50.803
X127.684 Y-50.966
X128.922 Y-51.11
X130.226 Y-51.235
X131.595 Y-51.339
X133.032 Y-51.422
X134.535 Y-51.483
X136.104 Y-51.523
X137.633 Y-51.538
X139.102 Y-51.53
X140.508 Y-51.5
X141.851 Y-51.447
X143.132 Y-51.373
X144.351 Y-51.277
X145.51 Y-51.162
X146.607 Y-51.028
X147.646 Y-50.875
X148.629 Y-50.706
X149.554 Y-50.521
X150.425 Y-50.321
X151.245 Y-50.108
X152.015 Y-49.882
X152.74 Y-49.645
X153.421 Y-49.398
X154.061 Y-49.142
X154.665 Y-48.876
X155.238 Y-48.6
X155.783 Y-48.315
X156.3 Y-48.022
X156.798 Y-47.718
X157.279 Y-47.402
X157.743 Y-47.077
X158.201 Y-46.736
X158.62 Y-46.406
X159.536 Y-45.628
X160.418 Y-44.815
X161.302 Y-43.949
X163.202 Y-41.997
G2 X163.216 Y-41.983 I4.551 J-4.428
G1 X165.181 Y-39.976
G2 X165.296 Y-39.861 I4.537 J-4.442
G1 X166.314 Y-38.873
G2 X166.433 Y-38.76 I4.422 J-4.557
G1 X167.486 Y-37.79
G2 X167.636 Y-37.656 I4.303 J-4.67
G1 X168.732 Y-36.709
G2 X168.903 Y-36.565 I4.153 J-4.803
G1 X170.047 Y-35.645
G2 X170.234 Y-35.499 I3.982 J-4.946
G1 X171.429 Y-34.609
G2 X171.629 Y-34.466 I3.795 J-5.092
G1 X172.877 Y-33.609
G2 X173.086 Y-33.472 I3.595 J-5.235
G1 X174.388 Y-32.651
G2 X174.595 Y-32.526 I3.386 J-5.372
G1 X175.947 Y-31.744
G2 X176.158 Y-31.627 I3.179 J-5.497
G1 X177.559 Y-30.886
G2 X177.767 Y-30.781 I2.968 J-5.614
G1 X179.213 Y-30.083
G2 X179.42 Y-29.988 I2.76 J-5.719
G1 X180.906 Y-29.335
G2 X181.108 Y-29.251 I2.553 J-5.814
G1 X182.627 Y-28.645
G2 X182.83 Y-28.568 I2.351 J-5.899
G1 X184.377 Y-28.012
G2 X184.581 Y-27.943 I2.148 J-5.976
G1 X186.149 Y-27.439
G2 X186.355 Y-27.376 I1.944 J-6.045
G1 X187.936 Y-26.927
G2 X188.148 Y-26.87 I1.738 J-6.108
G1 X189.735 Y-26.477
G2 X189.957 Y-26.427 I1.526 J-6.164
G1 X191.541 Y-26.094
G2 X191.779 Y-26.049 I1.304 J-6.215
G1 X193.353 Y-25.781
G2 X193.611 Y-25.742 I1.066 J-6.26
G1 X195.167 Y-25.543
G2 X195.38 Y-25.519 I0.808 J-6.298
G1 X196.15 Y-25.447
G2 X196.301 Y-25.434 I0.595 J-6.322
G1 X197.063 Y-25.381
G2 X197.225 Y-25.372 I0.444 J-6.334
G1 X197.979 Y-25.338
G2 X198.15 Y-25.333 I0.282 J-6.344
G1 X198.895 Y-25.32
G2 X199.08 Y-25.319 I0.111 J-6.349
G1 X199.816 Y-25.328
G2 X200.012 Y-25.333 I-0.074 J-6.35
G1 X200.738 Y-25.364
G2 X200.948 Y-25.377 I-0.27 J-6.344
G1 X201.663 Y-25.431
G2 X201.888 Y-25.452 I-0.48 J-6.332
G1 X202.591 Y-25.53
G2 X202.828 Y-25.562 I-0.705 J-6.311
G1 X203.519 Y-25.665
G2 X203.774 Y-25.709 I-0.942 J-6.28
G1 X204.452 Y-25.839
G2 X204.721 Y-25.896 I-1.197 J-6.236
G1 X205.385 Y-26.054
G2 X205.664 Y-26.127 I-1.466 J-6.179
G1 X206.315 Y-26.313
G2 X206.607 Y-26.404 I-1.745 J-6.105
G1 X207.244 Y-26.62
G2 X207.549 Y-26.732 I-2.037 J-6.014
G1 X208.171 Y-26.979
G2 X208.484 Y-27.113 I-2.342 J-5.902
G1 X209.09 Y-27.392
G2 X209.399 Y-27.544 I-2.655 J-5.768
G1 X209.991 Y-27.856
G2 X210.308 Y-28.036 I-2.964 J-5.616
G1 X210.883 Y-28.383
G2 X211.191 Y-28.581 I-3.281 J-5.437
G1 X211.75 Y-28.964
G2 X212.052 Y-29.184 I-3.589 J-5.238
G1 X212.594 Y-29.605
G2 X212.877 Y-29.837 I-3.891 J-5.018
G1 X213.403 Y-30.296
G2 X213.673 Y-30.546 I-4.174 J-4.785
G1 X214.182 Y-31.045
G2 X214.435 Y-31.308 I-4.444 J-4.536
G1 X214.926 Y-31.847
G2 X215.154 Y-32.111 I-4.697 J-4.273
G1 X215.628 Y-32.694
G2 X215.836 Y-32.964 I-4.925 J-4.009
G1 X216.292 Y-33.591
G2 X216.477 Y-33.858 I-5.133 J-3.738
G1 X216.915 Y-34.53
G2 X217.078 Y-34.793 I-5.318 J-3.47
G1 X217.498 Y-35.51
G2 X217.636 Y-35.759 I-5.481 J-3.207
G1 X218.039 Y-36.524
G2 X218.166 Y-36.78 I-5.619 J-2.959
G1 X218.549 Y-37.595
G2 X218.651 Y-37.822 I-5.746 J-2.702
G1 X219.017 Y-38.686
G2 X219.107 Y-38.913 I-5.848 J-2.475
G1 X219.454 Y-39.829
G2 X219.531 Y-40.042 I-5.938 J-2.249
G1 X219.859 Y-41.01
G2 X219.921 Y-41.205 I-6.015 J-2.036
G1 X220.231 Y-42.227
G2 X220.284 Y-42.414 I-6.077 J-1.842
G1 X220.575 Y-43.492
G2 X220.62 Y-43.666 I-6.13 J-1.655
G1 X220.892 Y-44.8
G2 X220.928 Y-44.962 I-6.175 J-1.481
G1 X221.181 Y-46.154
G2 X221.211 Y-46.299 I-6.211 J-1.319
G1 X221.446 Y-47.549
G2 X221.47 Y-47.689 I-6.241 J-1.174
G1 X221.686 Y-48.998
G2 X221.706 Y-49.127 I-6.265 J-1.034
G1 X221.903 Y-50.497
G2 X221.919 Y-50.617 I-6.285 J-0.904
G1 X222.097 Y-52.048
G2 X222.11 Y-52.159 I-6.301 J-0.784
G1 X222.269 Y-53.652
G2 X222.279 Y-53.751 I-6.314 J-0.672
G1 X222.42 Y-55.307
G2 X222.428 Y-55.407 I-6.324 J-0.573
G1 X222.549 Y-57.027
G2 X222.555 Y-57.112 I-6.332 J-0.473
G1 X222.658 Y-58.796
G2 X222.663 Y-58.879 I-6.338 J-0.388
G1 X222.747 Y-60.629
G2 X222.75 Y-60.706 I-6.343 J-0.305
G1 X222.815 Y-62.521
G2 X222.817 Y-62.589 I-6.346 J-0.227
G1 X222.864 Y-64.47
G2 X222.865 Y-64.541 I-6.348 J-0.159
G1 X222.892 Y-66.488
G2 X222.893 Y-66.548 I-6.349 J-0.088
G1 X222.902 Y-68.562
G2 Y-68.62 I-6.35 J-0.028
G1 X222.892 Y-70.702
G2 X222.891 Y-70.757 I-6.35 J0.031
G1 X222.862 Y-72.905
G2 Y-72.955 I-6.349 J0.086
G1 X222.816 Y-75.103
G2 X222.814 Y-75.159 I-6.349 J0.136
G1 X222.751 Y-77.24
G2 X222.749 Y-77.296 I-6.347 J0.192
G1 X222.67 Y-79.309
G2 X222.667 Y-79.37 I-6.345 J0.249
G1 X222.572 Y-81.315
G2 X222.569 Y-81.383 I-6.342 J0.31
G1 X222.457 Y-83.261
G2 X222.452 Y-83.334 I-6.339 J0.378
G1 X222.323 Y-85.145
G2 X222.317 Y-85.22 I-6.334 J0.451
G1 X222.172 Y-86.965
G2 X222.165 Y-87.045 I-6.328 J0.526
G1 X222.004 Y-88.725
G2 X221.995 Y-88.815 I-6.321 J0.606
G1 X221.817 Y-90.429
G2 X221.805 Y-90.526 I-6.312 J0.696
G1 X221.61 Y-92.076
G2 X221.597 Y-92.175 I-6.3 J0.793
G1 X221.386 Y-93.662
G2 X221.369 Y-93.774 I-6.287 J0.892
G1 X221.141 Y-95.197
G2 X221.121 Y-95.318 I-6.27 J1.004
G1 X220.876 Y-96.679
G2 X220.852 Y-96.804 I-6.25 J1.124
G1 X220.591 Y-98.105
G2 X220.561 Y-98.244 I-6.226 J1.249
G1 X220.283 Y-99.485
G2 X220.248 Y-99.634 I-6.196 J1.388
G1 X219.953 Y-100.816
G2 X219.91 Y-100.977 I-6.161 J1.538
G1 X219.598 Y-102.101
G2 X219.55 Y-102.268 I-6.118 J1.699
G1 X219.222 Y-103.335
G2 X219.16 Y-103.525 I-6.07 J1.866
G1 X218.814 Y-104.536
G2 X218.747 Y-104.721 I-6.008 J2.056
G1 X218.386 Y-105.678
G2 X218.301 Y-105.892 I-5.941 J2.241
G1 X217.922 Y-106.796
G2 X217.826 Y-107.014 I-5.856 J2.455
G1 X217.431 Y-107.865
G2 X217.316 Y-108.099 I-5.76 J2.673
G1 X216.904 Y-108.899
G2 X216.773 Y-109.142 I-5.645 J2.907
G1 X216.344 Y-109.893
G2 X216.195 Y-110.139 I-5.514 J3.15
G1 X215.75 Y-110.842
G2 X215.578 Y-111.101 I-5.365 J3.396
G1 X215.117 Y-111.756
G2 X214.922 Y-112.018 I-5.193 J3.655
G1 X214.444 Y-112.628
G2 X214.23 Y-112.887 I-4.998 J3.917
G1 X213.736 Y-113.453
G2 X213.494 Y-113.715 I-4.784 J4.176
G1 X212.984 Y-114.237
G2 X212.727 Y-114.485 I-4.542 J4.438
G1 X212.201 Y-114.966
G2 X211.923 Y-115.206 I-4.285 J4.686
G1 X211.382 Y-115.646
G2 X211.085 Y-115.873 I-4.007 J4.926
G1 X210.528 Y-116.274
G2 X210.22 Y-116.482 I-3.71 J5.153
G1 X209.648 Y-116.845
G2 X209.336 Y-117.031 I-3.402 J5.361
G1 X208.749 Y-117.358
G2 X208.423 Y-117.528 I-3.09 J5.547
G1 X207.821 Y-117.819
G2 X207.51 Y-117.959 I-2.764 J5.717
G1 X206.894 Y-118.217
G2 X206.577 Y-118.34 I-2.453 J5.857
G1 X205.947 Y-118.565
G2 X205.637 Y-118.667 I-2.136 J5.98
G1 X204.994 Y-118.86
G2 X204.706 Y-118.939 I-1.826 J6.082
G1 X204.049 Y-119.103
G2 X203.756 Y-119.169 I-1.538 J6.161
G1 X203.086 Y-119.303
G2 X202.816 Y-119.351 I-1.245 J6.227
G1 X202.134 Y-119.457
G2 X201.886 Y-119.49 I-0.975 J6.275
G1 X201.192 Y-119.57
G2 X200.949 Y-119.594 I-0.727 J6.308
G1 X200.243 Y-119.648
G2 X200.016 Y-119.661 I-0.484 J6.332
G1 X199.3 Y-119.69
G2 X199.087 Y-119.695 I-0.257 J6.345
G1 X198.361 Y-119.7
G2 X198.17 Y-119.698 I-0.044 J6.35
G1 X197.434 Y-119.681
G2 X197.249 Y-119.674 I0.147 J6.348
G1 X196.504 Y-119.635
G2 X196.339 Y-119.625 I0.332 J6.341
G1 X195.587 Y-119.566
G2 X195.419 Y-119.55 I0.497 J6.331
G1 X194.659 Y-119.47
G2 X194.502 Y-119.452 I0.665 J6.315
G1 X193.736 Y-119.352
G2 X193.534 Y-119.322 I0.822 J6.297
G1 X191.985 Y-119.069
G2 X191.725 Y-119.021 I1.024 J6.267
G1 X190.161 Y-118.698
G2 X189.922 Y-118.644 I1.284 J6.219
G1 X188.351 Y-118.256
G2 X188.134 Y-118.198 I1.523 J6.165
G1 X186.562 Y-117.75
G2 X186.354 Y-117.687 I1.74 J6.107
G1 X184.79 Y-117.183
G2 X184.582 Y-117.112 I1.948 J6.044
G1 X183.033 Y-116.553
G2 X182.833 Y-116.477 I2.156 J5.973
G1 X181.306 Y-115.867
G2 X181.108 Y-115.784 I2.356 J5.897
G1 X179.61 Y-115.126
G2 X179.409 Y-115.033 I2.554 J5.814
G1 X177.947 Y-114.329
G2 X177.746 Y-114.228 I2.755 J5.721
G1 X176.326 Y-113.481
G2 X176.119 Y-113.367 I2.956 J5.62
G1 X174.744 Y-112.577
G2 X174.54 Y-112.455 I3.163 J5.506
G1 X173.216 Y-111.627
G2 X173.009 Y-111.492 I3.367 J5.384
G1 X171.737 Y-110.626
G2 X171.537 Y-110.484 I3.574 J5.249
G1 X170.319 Y-109.584
G2 X170.122 Y-109.432 I3.774 J5.107
G1 X168.959 Y-108.5
G2 X168.778 Y-108.35 I3.971 J4.955
G1 X167.667 Y-107.39
G2 X167.501 Y-107.241 I4.152 J4.805
G1 X166.439 Y-106.256
G2 X166.294 Y-106.117 I4.318 J4.656
G1 X165.275 Y-105.11
G2 X165.158 Y-104.991 I4.463 J4.517
G1 X164.176 Y-103.968
G2 X164.066 Y-103.852 I4.58 J4.398
G1 X162.172 Y-101.777
G2 X162.161 Y-101.764 I4.69 J4.281
G1 X160.328 Y-99.745
X159.474 Y-98.848
X158.622 Y-98.006
X157.732 Y-97.195
X157.324 Y-96.85
X156.882 Y-96.496
X156.427 Y-96.153
X155.958 Y-95.822
X155.473 Y-95.501
X154.963 Y-95.188
X154.429 Y-94.884
X153.869 Y-94.59
X153.273 Y-94.303
X152.641 Y-94.024
X151.97 Y-93.753
X151.255 Y-93.491
X150.493 Y-93.239
X149.681 Y-92.997
X148.816 Y-92.767
X147.898 Y-92.55
X146.923 Y-92.347
X145.889 Y-92.158
X144.796 Y-91.985
X143.643 Y-91.83
X142.429 Y-91.692
X141.151 Y-91.573
X139.81 Y-91.473
X138.407 Y-91.393
X136.939 Y-91.334
X135.41 Y-91.297
X133.84 Y-91.281
X132.336 Y-91.29
X130.897 Y-91.323
X129.525 Y-91.379
X128.218 Y-91.458
X126.976 Y-91.559
X125.798 Y-91.681
X124.683 Y-91.822
X123.63 Y-91.983
X122.637 Y-92.161
X121.703 Y-92.355
X120.824 Y-92.564
X119.999 Y-92.787
X119.226 Y-93.023
X118.501 Y-93.27
X117.811 Y-93.531
X117.271 Y-93.755
X116.75 Y-93.989
X116.256 Y-94.229
X115.781 Y-94.477
X115.326 Y-94.731
X114.888 Y-94.994
X114.462 Y-95.265
X114.083 Y-95.522
X113.248 Y-96.134
X112.472 Y-96.762
X111.705 Y-97.436
X110.934 Y-98.159
X110.153 Y-98.928
X109.354 Y-99.744
X107.674 Y-101.482
G2 X107.613 Y-101.544 I-4.567 J4.412
G1 X105.883 Y-103.287
G2 X105.762 Y-103.406 I-4.506 J4.474
G1 X104.865 Y-104.262
G2 X104.753 Y-104.366 I-4.385 J4.593
G1 X103.828 Y-105.208
G2 X103.693 Y-105.328 I-4.273 J4.697
G1 X102.734 Y-106.152
G2 X102.585 Y-106.275 I-4.138 J4.817
G1 X101.589 Y-107.079
G2 X101.422 Y-107.209 I-3.989 J4.94
G1 X100.388 Y-107.989
G2 X100.219 Y-108.113 I-3.823 J5.07
G1 X99.144 Y-108.869
G2 X98.966 Y-108.99 I-3.654 J5.194
G1 X97.851 Y-109.719
G2 X97.671 Y-109.832 I-3.475 J5.315
G1 X96.516 Y-110.533
G2 X96.33 Y-110.642 I-3.295 J5.428
G1 X95.137 Y-111.312
G2 X94.956 Y-111.409 I-3.109 J5.537
G1 X93.727 Y-112.048
G2 X93.542 Y-112.141 I-2.929 J5.634
G1 X92.279 Y-112.746
G2 X92.104 Y-112.826 I-2.744 J5.727
G1 X90.811 Y-113.398
G2 X90.628 Y-113.476 I-2.569 J5.807
G1 X89.309 Y-114.011
G2 X89.136 Y-114.078 I-2.386 J5.885
G1 X87.795 Y-114.577
G2 X87.616 Y-114.64 I-2.214 J5.952
G1 X86.257 Y-115.1
G2 X86.076 Y-115.158 I-2.035 J6.015
G1 X84.703 Y-115.577
G2 X84.526 Y-115.629 I-1.854 J6.073
G1 X83.146 Y-116.007
G2 X82.959 Y-116.055 I-1.677 J6.125
G1 X81.576 Y-116.389
G2 X81.378 Y-116.433 I-1.491 J6.173
G1 X79.997 Y-116.72
G2 X79.794 Y-116.759 I-1.292 J6.217
G1 X78.42 Y-116.998
G2 X78.196 Y-117.033 I-1.089 J6.256
G1 X76.836 Y-117.22
G2 X76.597 Y-117.248 I-0.865 J6.291
G1 X75.254 Y-117.381
G2 X75.212 Y-117.385 I-0.626 J6.319
X74.983 Y-117.402 Z6.992 I-0.584 J6.323 F400.3
G1 X73.662 Y-117.476 Z6.946
G2 X73.361 Y-117.486 Z6.935 I-0.355 J6.34
G1 X72.066 Y-117.497 Z6.89
G2 X71.731 Y-117.491 Z6.878 I-0.054 J6.35
G1 X70.467 Y-117.435 Z6.834
G2 X70.196 Y-117.417 Z6.825 I0.281 J6.344
G1 X69.577 Y-117.363 Z6.803
G2 X69.364 Y-117.341 Z6.795 I0.551 J6.326
G1 X68.754 Y-117.267 Z6.774
G2 X68.557 Y-117.24 Z6.767 I0.764 J6.304
G1 X67.956 Y-117.148 Z6.746
G2 X67.725 Y-117.108 Z6.738 I0.961 J6.277
G1 X67.134 Y-116.995 Z6.717
G2 X66.909 Y-116.948 Z6.709 I1.192 J6.237
G1 X66.328 Y-116.815 Z6.688
G2 X66.08 Y-116.753 Z6.679 I1.416 J6.19
G1 X65.509 Y-116.598 Z6.658
G2 X65.26 Y-116.525 Z6.649 I1.664 J6.128
G1 X64.699 Y-116.348 Z6.629
G2 X64.439 Y-116.26 Z6.619 I1.913 J6.055
G1 X63.89 Y-116.06 Z6.599
G2 X63.622 Y-115.955 Z6.589 I2.173 J5.967
G1 X63.084 Y-115.731 Z6.568
G2 X62.81 Y-115.609 Z6.558 I2.442 J5.862
G1 X62.283 Y-115.36 Z6.537
G2 X62.014 Y-115.225 Z6.527 I2.716 J5.74
G1 X61.5 Y-114.951 Z6.507
G2 X61.221 Y-114.793 Z6.495 I2.985 J5.605
G1 X60.719 Y-114.492 Z6.475
G2 X60.45 Y-114.322 Z6.464 I3.264 J5.447
G1 X59.96 Y-113.994 Z6.443
G2 X59.697 Y-113.808 Z6.432 I3.532 J5.277
G1 X59.22 Y-113.452 Z6.411
G2 X58.965 Y-113.251 Z6.4 I3.795 J5.091
G1 X58.5 Y-112.866 Z6.379
G2 X58.261 Y-112.659 Z6.368 I4.051 J4.89
G1 X57.809 Y-112.245 Z6.346
G2 X57.577 Y-112.021 Z6.335 I4.289 J4.683
G1 X57.138 Y-111.576 Z6.313
G2 X56.922 Y-111.346 Z6.302 I4.521 J4.459
G1 X56.497 Y-110.869 Z6.28
G2 X56.3 Y-110.637 Z6.269 I4.737 J4.229
G1 X55.887 Y-110.128 Z6.246
G2 X55.704 Y-109.891 Z6.236 I4.934 J3.997
G1 X55.305 Y-109.348 Z6.212
G2 X55.145 Y-109.119 Z6.203 I5.117 J3.76
G1 X54.759 Y-108.543 Z6.178
G2 X54.61 Y-108.308 Z6.169 I5.278 J3.531
G1 X54.238 Y-107.696 Z6.144
G2 X54.109 Y-107.474 Z6.135 I5.427 J3.296
G1 X53.751 Y-106.827 Z6.109
G2 X53.635 Y-106.607 Z6.1 I5.556 J3.074
G1 X53.29 Y-105.923 Z6.073
G2 X53.188 Y-105.71 Z6.065 I5.673 J2.854
G1 X52.858 Y-104.988 Z6.037
G2 X52.77 Y-104.786 Z6.03 I5.775 J2.641
G1 X52.454 Y-104.026 Z6.001
G2 X52.377 Y-103.833 Z5.994 I5.863 J2.439
G1 X52.075 Y-103.034 Z5.964
G2 X52.008 Y-102.849 Z5.957 I5.939 J2.246
G1 X51.72 Y-102.009 Z5.926
G2 X51.663 Y-101.836 Z5.92 I6.006 J2.061
G1 X51.389 Y-100.955 Z5.888
G2 X51.341 Y-100.791 Z5.882 I6.063 J1.887
G1 X51.081 Y-99.869 Z5.848
G2 X51.039 Y-99.713 Z5.842 I6.112 J1.722
G1 X50.794 Y-98.749 Z5.808
G2 X50.758 Y-98.604 Z5.802 I6.154 J1.567
G1 X50.527 Y-97.597 Z5.766
G2 X50.497 Y-97.46 Z5.762 I6.189 J1.421
G1 X50.28 Y-96.409 Z5.724
G2 X50.255 Y-96.28 Z5.719 I6.219 J1.284
G1 X50.053 Y-95.185 Z5.681
G2 X50.032 Y-95.064 Z5.676 I6.244 J1.155
G1 X49.843 Y-93.923 Z5.636
G2 X49.826 Y-93.811 Z5.632 I6.265 J1.034
G1 X49.652 Y-92.625 Z5.59
G2 X49.637 Y-92.518 Z5.586 I6.283 J0.922
G1 X49.477 Y-91.286 Z5.543
G2 X49.465 Y-91.187 Z5.539 I6.297 J0.816
G1 X49.32 Y-89.907 Z5.494
G2 X49.31 Y-89.814 Z5.491 I6.309 J0.717
G1 X49.179 Y-88.486 Z5.445
G2 X49.171 Y-88.4 Z5.442 I6.319 J0.624
G1 X49.054 Y-87.024 Z5.393
G2 X49.048 Y-86.943 Z5.39 I6.327 J0.537
G1 X48.945 Y-85.518 Z5.341
G2 X48.94 Y-85.442 Z5.338 I6.334 J0.455
G1 X48.852 Y-83.969 Z5.286
G2 X48.848 Y-83.898 Z5.284 I6.339 J0.379
G1 X48.774 Y-82.375 Z5.231
G2 X48.772 Y-82.308 Z5.228 I6.343 J0.308
G1 X48.712 Y-80.735 Z5.173
G2 X48.71 Y-80.672 Z5.171 I6.345 J0.24
G1 X48.665 Y-79.05 Z5.115
G2 X48.663 Y-78.99 Z5.112 I6.348 J0.177
G1 X48.632 Y-77.317 Z5.054
G2 Y-77.261 Z5.052 I6.349 J0.117
G1 X48.615 Y-75.538 Z4.992
G2 Y-75.485 Z4.99 I6.35 J0.062
G1 X48.612 Y-73.711 Z4.928
G2 Y-73.661 Z4.926 I6.35 J0.009
G1 X48.624 Y-71.835 Z4.863
G2 X48.625 Y-71.788 Z4.861 I6.35 J-0.041
G1 X48.651 Y-69.912 Z4.795
G2 Y-69.867 Z4.794 I6.349 J-0.088
G1 X48.691 Y-67.99 Z4.728
G2 X48.692 Y-67.943 Z4.727 I6.349 J-0.133
G1 X48.744 Y-66.119 Z4.663
G2 X48.745 Y-66.069 Z4.661 I6.347 J-0.181
G1 X48.81 Y-64.296 Z4.599
G2 X48.812 Y-64.243 Z4.597 I6.346 J-0.23
G1 X48.889 Y-62.521 Z4.537
G2 X48.892 Y-62.465 Z4.535 I6.344 J-0.283
G1 X48.981 Y-60.794 Z4.477
G2 X48.984 Y-60.735 Z4.475 I6.341 J-0.339
G1 X49.086 Y-59.115 Z4.418
G2 X49.091 Y-59.052 Z4.416 I6.337 J-0.398
G1 X49.205 Y-57.482 Z4.361
G2 X49.21 Y-57.415 Z4.358 I6.333 J-0.462
G1 X49.337 Y-55.896 Z4.305
G2 X49.343 Y-55.825 Z4.303 I6.328 J-0.529
G1 X49.483 Y-54.356 Z4.251
G2 X49.491 Y-54.279 Z4.249 I6.322 J-0.6
G1 X49.643 Y-52.86 Z4.199
G2 X49.652 Y-52.779 Z4.196 I6.314 J-0.676
G1 X49.817 Y-51.408 Z4.148
G2 X49.828 Y-51.322 Z4.145 I6.305 J-0.758
G1 X50.005 Y-50 Z4.098
G2 X50.018 Y-49.908 Z4.095 I6.294 J-0.844
G1 X50.208 Y-48.634 Z4.05
G2 X50.223 Y-48.534 Z4.046 I6.281 J-0.936
G1 X50.426 Y-47.308 Z4.003
G2 X50.44 Y-47.227 Z4 I6.265 J-1.035
X50.444 Y-47.203 I6.251 J-1.116 F849.6
G1 X50.66 Y-46.023
G2 X50.681 Y-45.911 I6.247 J-1.14
G1 X50.909 Y-44.778
G2 X50.935 Y-44.658 I6.225 J-1.252
G1 X51.175 Y-43.57
G2 X51.205 Y-43.443 I6.2 J-1.373
G1 X51.459 Y-42.4
G2 X51.493 Y-42.264 I6.17 J-1.5
G1 X51.759 Y-41.266
G2 X51.8 Y-41.121 I6.136 J-1.636
G1 X52.079 Y-40.166
G2 X52.126 Y-40.012 I6.095 J-1.78
G1 X52.417 Y-39.1
G2 X52.472 Y-38.938 I6.048 J-1.934
G1 X52.776 Y-38.068
G2 X52.84 Y-37.895 I5.994 J-2.097
G1 X53.157 Y-37.066
G2 X53.229 Y-36.885 I5.93 J-2.27
G1 X53.559 Y-36.097
G2 X53.643 Y-35.905 I5.858 J-2.451
G1 X53.986 Y-35.157
G2 X54.081 Y-34.958 I5.774 J-2.643
G1 X54.436 Y-34.248
G2 X54.545 Y-34.04 I5.679 J-2.841
G1 X54.913 Y-33.368
G2 X55.036 Y-33.153 I5.569 J-3.05
G1 X55.417 Y-32.518
G2 X55.555 Y-32.298 I5.446 J-3.265
G1 X55.948 Y-31.7
G2 X56.103 Y-31.475 I5.308 J-3.485
G1 X56.508 Y-30.912
G2 X56.681 Y-30.683 I5.153 J-3.711
G1 X57.098 Y-30.155
G2 X57.287 Y-29.928 I4.98 J-3.939
G1 X57.717 Y-29.433
G2 X57.923 Y-29.208 I4.792 J-4.167
G1 X58.365 Y-28.746
G2 X58.587 Y-28.525 I4.586 J-4.392
G1 X59.042 Y-28.095
G2 X59.278 Y-27.883 I4.363 J-4.613
G1 X59.744 Y-27.484
G2 X59.995 Y-27.281 I4.127 J-4.826
G1 X60.473 Y-26.912
G2 X60.734 Y-26.721 I3.876 J-5.03
G1 X61.224 Y-26.382
G2 X61.495 Y-26.205 I3.615 J-5.221
G1 X61.996 Y-25.894
G2 X62.27 Y-25.733 I3.344 J-5.398
G1 X62.783 Y-25.45
G2 X63.062 Y-25.305 I3.07 J-5.559
G1 X63.586 Y-25.049
G2 X63.864 Y-24.921 I2.79 J-5.704
G1 X64.398 Y-24.691
G2 X64.674 Y-24.58 I2.512 J-5.832
G1 X65.219 Y-24.375
G2 X65.491 Y-24.279 I2.236 J-5.943
G1 X66.046 Y-24.099
G2 X66.31 Y-24.019 I1.965 J-6.038
G1 X66.876 Y-23.862
G2 X67.13 Y-23.797 I1.701 J-6.118
G1 X67.706 Y-23.662
G2 X67.952 Y-23.609 I1.448 J-6.183
G1 X68.537 Y-23.496
G2 X68.77 Y-23.456 I1.202 J-6.235
G1 X69.365 Y-23.364
G2 X69.588 Y-23.334 I0.969 J-6.276
G1 X70.192 Y-23.262
G2 X70.404 Y-23.241 I0.746 J-6.306
G1 X71.016 Y-23.189
G2 X71.215 Y-23.175 I0.535 J-6.327
G1 X71.837 Y-23.142
G2 X72.114 Y-23.134 I0.336 J-6.341
G1 X73.38 Y-23.122
G2 X73.715 Y-23.128 I0.058 J-6.35
G1 X75.008 Y-23.184
G2 X75.307 Y-23.205 I-0.277 J-6.344
G1 X76.625 Y-23.325
G2 X76.892 Y-23.355 I-0.576 J-6.324
G1 X78.23 Y-23.534
G2 X78.471 Y-23.571 I-0.843 J-6.294
G1 X79.825 Y-23.806
G2 X80.045 Y-23.848 I-1.085 J-6.257
G1 X81.409 Y-24.134
G2 X81.615 Y-24.181 I-1.305 J-6.214
G1 X82.985 Y-24.516
G2 X83.178 Y-24.567 I-1.511 J-6.168
G1 X84.549 Y-24.949
G2 X84.733 Y-25.003 I-1.704 J-6.117
G1 X86.1 Y-25.429
G2 X86.279 Y-25.488 I-1.889 J-6.063
G1 X87.636 Y-25.955
G2 X87.812 Y-26.018 I-2.068 J-6.004
G1 X89.154 Y-26.526
G2 X89.328 Y-26.594 I-2.244 J-5.94
G1 X90.652 Y-27.139
G2 X90.827 Y-27.214 I-2.418 J-5.872
G1 X92.127 Y-27.796
G2 X92.302 Y-27.877 I-2.592 J-5.797
G1 X93.574 Y-28.493
G2 X93.751 Y-28.582 I-2.768 J-5.715
G1 X94.992 Y-29.232
G2 X95.169 Y-29.328 I-2.944 J-5.626
G1 X96.376 Y-30.009
G2 X96.555 Y-30.115 I-3.122 J-5.53
G1 X97.724 Y-30.826
G2 X97.903 Y-30.939 I-3.302 J-5.424
G1 X99.033 Y-31.68
G2 X99.21 Y-31.8 I-3.48 J-5.311
G1 X100.299 Y-32.568
G2 X100.474 Y-32.695 I-3.658 J-5.191
G1 X101.521 Y-33.488
G2 X101.689 Y-33.619 I-3.833 J-5.063
G1 X102.696 Y-34.436
G2 X102.854 Y-34.569 I-4 J-4.932
G1 X103.821 Y-35.407
G2 X103.967 Y-35.537 I-4.158 J-4.799
G1 X104.897 Y-36.394
G2 X105.025 Y-36.516 I-4.305 J-4.668
G1 X105.921 Y-37.389
G2 X106.032 Y-37.5 I-4.433 J-4.547
G1 X106.898 Y-38.388
G2 X107.013 Y-38.508 I-4.544 J-4.436
G1 X108.682 Y-40.31
G2 X108.742 Y-40.376 I-4.659 J-4.315
G1 X110.358 Y-42.171
X111.131 Y-43.015
X111.884 Y-43.812
X112.626 Y-44.559
X113.37 Y-45.259
X114.126 Y-45.915
X114.937 Y-46.556
X115.306 Y-46.825
X115.722 Y-47.11
X116.152 Y-47.389
X116.599 Y-47.66
X117.063 Y-47.923
X117.55 Y-48.181
X118.063 Y-48.433
X118.594 Y-48.676
X119.273 Y-48.96
X119.99 Y-49.232
X120.756 Y-49.495
X121.572 Y-49.747
X122.442 Y-49.987
X123.369 Y-50.213
X124.354 Y-50.426
X125.402 Y-50.623
X126.511 Y-50.803
X127.684 Y-50.966
X128.922 Y-51.11
X130.226 Y-51.235
X131.595 Y-51.339
X133.032 Y-51.422
X134.535 Y-51.483
X136.104 Y-51.523
X137.633 Y-51.538
X139.102 Y-51.53
X140.508 Y-51.5
X141.851 Y-51.447
X143.132 Y-51.373
X144.351 Y-51.277
X145.51 Y-51.162
X146.607 Y-51.028
X147.646 Y-50.875
X148.629 Y-50.706
X149.554 Y-50.521
X150.425 Y-50.321
X151.245 Y-50.108
X152.015 Y-49.882
X152.74 Y-49.645
X153.421 Y-49.398
X154.061 Y-49.142
X154.665 Y-48.876
X155.238 Y-48.6
X155.783 Y-48.315
X156.3 Y-48.022
X156.798 Y-47.718
X157.279 Y-47.402
X157.743 Y-47.077
X158.201 Y-46.736
X158.62 Y-46.406
X159.536 Y-45.628
X160.418 Y-44.815
X161.302 Y-43.949
X163.202 Y-41.997
G2 X163.216 Y-41.983 I4.551 J-4.428
G1 X165.181 Y-39.976
G2 X165.296 Y-39.861 I4.537 J-4.442
G1 X166.314 Y-38.873
G2 X166.433 Y-38.76 I4.422 J-4.557
G1 X167.486 Y-37.79
G2 X167.636 Y-37.656 I4.303 J-4.67
G1 X168.732 Y-36.709
G2 X168.903 Y-36.565 I4.153 J-4.803
G1 X170.047 Y-35.645
G2 X170.234 Y-35.499 I3.982 J-4.946
G1 X171.429 Y-34.609
G2 X171.629 Y-34.466 I3.795 J-5.092
G1 X172.877 Y-33.609
G2 X173.086 Y-33.472 I3.595 J-5.235
G1 X174.388 Y-32.651
G2 X174.595 Y-32.526 I3.386 J-5.372
G1 X175.947 Y-31.744
G2 X176.158 Y-31.627 I3.179 J-5.497
G1 X177.559 Y-30.886
G2 X177.767 Y-30.781 I2.968 J-5.614
G1 X179.213 Y-30.083
G2 X179.42 Y-29.988 I2.76 J-5.719
G1 X180.906 Y-29.335
G2 X181.108 Y-29.251 I2.553 J-5.814
G1 X182.627 Y-28.645
G2 X182.83 Y-28.568 I2.351 J-5.899
G1 X184.377 Y-28.012
G2 X184.581 Y-27.943 I2.148 J-5.976
G1 X186.149 Y-27.439
G2 X186.355 Y-27.376 I1.944 J-6.045
G1 X187.936 Y-26.927
G2 X188.148 Y-26.87 I1.738 J-6.108
G1 X189.735 Y-26.477
G2 X189.957 Y-26.427 I1.526 J-6.164
G1 X191.541 Y-26.094
G2 X191.779 Y-26.049 I1.304 J-6.215
G1 X193.353 Y-25.781
G2 X193.611 Y-25.742 I1.066 J-6.26
G1 X195.167 Y-25.543
G2 X195.38 Y-25.519 I0.808 J-6.298
G1 X196.15 Y-25.447
G2 X196.301 Y-25.434 I0.595 J-6.322
G1 X197.063 Y-25.381
G2 X197.225 Y-25.372 I0.444 J-6.334
G1 X197.979 Y-25.338
G2 X198.15 Y-25.333 I0.282 J-6.344
G1 X198.895 Y-25.32
G2 X199.08 Y-25.319 I0.111 J-6.349
G1 X199.816 Y-25.328
G2 X200.012 Y-25.333 I-0.074 J-6.35
G1 X200.738 Y-25.364
G2 X200.948 Y-25.377 I-0.27 J-6.344
G1 X201.663 Y-25.431
G2 X201.888 Y-25.452 I-0.48 J-6.332
G1 X202.591 Y-25.53
G2 X202.828 Y-25.562 I-0.705 J-6.311
G1 X203.519 Y-25.665
G2 X203.774 Y-25.709 I-0.942 J-6.28
G1 X204.452 Y-25.839
G2 X204.721 Y-25.896 I-1.197 J-6.236
G1 X205.385 Y-26.054
G2 X205.664 Y-26.127 I-1.466 J-6.179
G1 X206.315 Y-26.313
G2 X206.607 Y-26.404 I-1.745 J-6.105
G1 X207.244 Y-26.62
G2 X207.549 Y-26.732 I-2.037 J-6.014
G1 X208.171 Y-26.979
G2 X208.484 Y-27.113 I-2.342 J-5.902
G1 X209.09 Y-27.392
G2 X209.399 Y-27.544 I-2.655 J-5.768
G1 X209.991 Y-27.856
G2 X210.308 Y-28.036 I-2.964 J-5.616
G1 X210.883 Y-28.383
G2 X211.191 Y-28.581 I-3.281 J-5.437
G1 X211.75 Y-28.964
G2 X212.052 Y-29.184 I-3.589 J-5.238
G1 X212.594 Y-29.605
G2 X212.877 Y-29.837 I-3.891 J-5.018
G1 X213.403 Y-30.296
G2 X213.673 Y-30.546 I-4.174 J-4.785
G1 X214.182 Y-31.045
G2 X214.435 Y-31.308 I-4.444 J-4.536
G1 X214.926 Y-31.847
G2 X215.154 Y-32.111 I-4.697 J-4.273
G1 X215.628 Y-32.694
G2 X215.836 Y-32.964 I-4.925 J-4.009
G1 X216.292 Y-33.591
G2 X216.477 Y-33.858 I-5.133 J-3.738
G1 X216.915 Y-34.53
G2 X217.078 Y-34.793 I-5.318 J-3.47
G1 X217.498 Y-35.51
G2 X217.636 Y-35.759 I-5.481 J-3.207
G1 X218.039 Y-36.524
G2 X218.166 Y-36.78 I-5.619 J-2.959
G1 X218.549 Y-37.595
G2 X218.651 Y-37.822 I-5.746 J-2.702
G1 X219.017 Y-38.686
G2 X219.107 Y-38.913 I-5.848 J-2.475
G1 X219.454 Y-39.829
G2 X219.531 Y-40.042 I-5.938 J-2.249
G1 X219.859 Y-41.01
G2 X219.921 Y-41.205 I-6.015 J-2.036
G1 X220.231 Y-42.227
G2 X220.284 Y-42.414 I-6.077 J-1.842
G1 X220.575 Y-43.492
G2 X220.62 Y-43.666 I-6.13 J-1.655
G1 X220.892 Y-44.8
G2 X220.928 Y-44.962 I-6.175 J-1.481
G1 X221.181 Y-46.154
G2 X221.211 Y-46.299 I-6.211 J-1.319
G1 X221.446 Y-47.549
G2 X221.47 Y-47.689 I-6.241 J-1.174
G1 X221.686 Y-48.998
G2 X221.706 Y-49.127 I-6.265 J-1.034
G1 X221.903 Y-50.497
G2 X221.919 Y-50.617 I-6.285 J-0.904
G1 X222.097 Y-52.048
G2 X222.11 Y-52.159 I-6.301 J-0.784
G1 X222.269 Y-53.652
G2 X222.279 Y-53.751 I-6.314 J-0.672
G1 X222.42 Y-55.307
G2 X222.428 Y-55.407 I-6.324 J-0.573
G1 X222.549 Y-57.027
G2 X222.555 Y-57.112 I-6.332 J-0.473
G1 X222.658 Y-58.796
G2 X222.663 Y-58.879 I-6.338 J-0.388
G1 X222.747 Y-60.629
G2 X222.75 Y-60.706 I-6.343 J-0.305
G1 X222.815 Y-62.521
G2 X222.817 Y-62.589 I-6.346 J-0.227
G1 X222.864 Y-64.47
G2 X222.865 Y-64.541 I-6.348 J-0.159
G1 X222.892 Y-66.488
G2 X222.893 Y-66.548 I-6.349 J-0.088
G1 X222.902 Y-68.562
G2 Y-68.62 I-6.35 J-0.028
G1 X222.892 Y-70.702
G2 X222.891 Y-70.757 I-6.35 J0.031
G1 X222.862 Y-72.905
G2 Y-72.955 I-6.349 J0.086
G1 X222.816 Y-75.103
G2 X222.814 Y-75.159 I-6.349 J0.136
G1 X222.751 Y-77.24
G2 X222.749 Y-77.296 I-6.347 J0.192
G1 X222.67 Y-79.309
G2 X222.667 Y-79.37 I-6.345 J0.249
G1 X222.572 Y-81.315
G2 X222.569 Y-81.383 I-6.342 J0.31
G1 X222.457 Y-83.261
G2 X222.452 Y-83.334 I-6.339 J0.378
G1 X222.323 Y-85.145
G2 X222.317 Y-85.22 I-6.334 J0.451
G1 X222.172 Y-86.965
G2 X222.165 Y-87.045 I-6.328 J0.526
G1 X222.004 Y-88.725
G2 X221.995 Y-88.815 I-6.321 J0.606
G1 X221.817 Y-90.429
G2 X221.805 Y-90.526 I-6.312 J0.696
G1 X221.61 Y-92.076
G2 X221.597 Y-92.175 I-6.3 J0.793
G1 X221.386 Y-93.662
G2 X221.369 Y-93.774 I-6.287 J0.892
G1 X221.141 Y-95.197
G2 X221.121 Y-95.318 I-6.27 J1.004
G1 X220.876 Y-96.679
G2 X220.852 Y-96.804 I-6.25 J1.124
G1 X220.591 Y-98.105
G2 X220.561 Y-98.244 I-6.226 J1.249
G1 X220.283 Y-99.485
G2 X220.248 Y-99.634 I-6.196 J1.388
G1 X219.953 Y-100.816
G2 X219.91 Y-100.977 I-6.161 J1.538
G1 X219.598 Y-102.101
G2 X219.55 Y-102.268 I-6.118 J1.699
G1 X219.222 Y-103.335
G2 X219.16 Y-103.525 I-6.07 J1.866
G1 X218.814 Y-104.536
G2 X218.747 Y-104.721 I-6.008 J2.056
G1 X218.386 Y-105.678
G2 X218.301 Y-105.892 I-5.941 J2.241
G1 X217.922 Y-106.796
G2 X217.826 Y-107.014 I-5.856 J2.455
G1 X217.431 Y-107.865
G2 X217.316 Y-108.099 I-5.76 J2.673
G1 X216.904 Y-108.899
G2 X216.773 Y-109.142 I-5.645 J2.907
G1 X216.344 Y-109.893
G2 X216.195 Y-110.139 I-5.514 J3.15
G1 X215.75 Y-110.842
G2 X215.578 Y-111.101 I-5.365 J3.396
G1 X215.117 Y-111.756
G2 X214.922 Y-112.018 I-5.193 J3.655
G1 X214.444 Y-112.628
G2 X214.23 Y-112.887 I-4.998 J3.917
G1 X213.736 Y-113.453
G2 X213.494 Y-113.715 I-4.784 J4.176
G1 X212.984 Y-114.237
G2 X212.727 Y-114.485 I-4.542 J4.438
G1 X212.201 Y-114.966
G2 X211.923 Y-115.206 I-4.285 J4.686
G1 X211.382 Y-115.646
G2 X211.085 Y-115.873 I-4.007 J4.926
G1 X210.528 Y-116.274
G2 X210.22 Y-116.482 I-3.71 J5.153
G1 X209.648 Y-116.845
G2 X209.336 Y-117.031 I-3.402 J5.361
G1 X208.749 Y-117.358
G2 X208.423 Y-117.528 I-3.09 J5.547
G1 X207.821 Y-117.819
G2 X207.51 Y-117.959 I-2.764 J5.717
G1 X206.894 Y-118.217
G2 X206.577 Y-118.34 I-2.453 J5.857
G1 X205.947 Y-118.565
G2 X205.637 Y-118.667 I-2.136 J5.98
G1 X204.994 Y-118.86
G2 X204.706 Y-118.939 I-1.826 J6.082
G1 X204.049 Y-119.103
G2 X203.756 Y-119.169 I-1.538 J6.161
G1 X203.086 Y-119.303
G2 X202.816 Y-119.351 I-1.245 J6.227
G1 X202.134 Y-119.457
G2 X201.886 Y-119.49 I-0.975 J6.275
G1 X201.192 Y-119.57
G2 X200.949 Y-119.594 I-0.727 J6.308
G1 X200.243 Y-119.648
G2 X200.016 Y-119.661 I-0.484 J6.332
G1 X199.3 Y-119.69
G2 X199.087 Y-119.695 I-0.257 J6.345
G1 X198.361 Y-119.7
G2 X198.17 Y-119.698 I-0.044 J6.35
G1 X197.434 Y-119.681
G2 X197.249 Y-119.674 I0.147 J6.348
G1 X196.504 Y-119.635
G2 X196.339 Y-119.625 I0.332 J6.341
G1 X195.587 Y-119.566
G2 X195.419 Y-119.55 I0.497 J6.331
G1 X194.659 Y-119.47
G2 X194.502 Y-119.452 I0.665 J6.315
G1 X193.736 Y-119.352
G2 X193.534 Y-119.322 I0.822 J6.297
G1 X191.985 Y-119.069
G2 X191.725 Y-119.021 I1.024 J6.267
G1 X190.161 Y-118.698
G2 X189.922 Y-118.644 I1.284 J6.219
G1 X188.351 Y-118.256
G2 X188.134 Y-118.198 I1.523 J6.165
G1 X186.562 Y-117.75
G2 X186.354 Y-117.687 I1.74 J6.107
G1 X184.79 Y-117.183
G2 X184.582 Y-117.112 I1.948 J6.044
G1 X183.033 Y-116.553
G2 X182.833 Y-116.477 I2.156 J5.973
G1 X181.306 Y-115.867
G2 X181.108 Y-115.784 I2.356 J5.897
G1 X179.61 Y-115.126
G2 X179.409 Y-115.033 I2.554 J5.814
G1 X177.947 Y-114.329
G2 X177.746 Y-114.228 I2.755 J5.721
G1 X176.326 Y-113.481
G2 X176.119 Y-113.367 I2.956 J5.62
G1 X174.744 Y-112.577
G2 X174.54 Y-112.455 I3.163 J5.506
G1 X173.216 Y-111.627
G2 X173.009 Y-111.492 I3.367 J5.384
G1 X171.737 Y-110.626
G2 X171.537 Y-110.484 I3.574 J5.249
G1 X170.319 Y-109.584
G2 X170.122 Y-109.432 I3.774 J5.107
G1 X168.959 Y-108.5
G2 X168.778 Y-108.35 I3.971 J4.955
G1 X167.667 Y-107.39
G2 X167.501 Y-107.241 I4.152 J4.805
G1 X166.439 Y-106.256
G2 X166.294 Y-106.117 I4.318 J4.656
G1 X165.275 Y-105.11
G2 X165.158 Y-104.991 I4.463 J4.517
G1 X164.176 Y-103.968
G2 X164.066 Y-103.852 I4.58 J4.398
G1 X162.172 Y-101.777
G2 X162.161 Y-101.764 I4.69 J4.281
G1 X160.328 Y-99.745
X159.474 Y-98.848
X158.622 Y-98.006
X157.732 Y-97.195
X157.324 Y-96.85
X156.882 Y-96.496
X156.427 Y-96.153
X155.958 Y-95.822
X155.473 Y-95.501
X154.963 Y-95.188
X154.429 Y-94.884
X153.869 Y-94.59
X153.273 Y-94.303
X152.641 Y-94.024
X151.97 Y-93.753
X151.255 Y-93.491
X150.493 Y-93.239
X149.681 Y-92.997
X148.816 Y-92.767
X147.898 Y-92.55
X146.923 Y-92.347
X145.889 Y-92.158
X144.796 Y-91.985
X143.643 Y-91.83
X142.429 Y-91.692
X141.151 Y-91.573
X139.81 Y-91.473
X138.407 Y-91.393
X136.939 Y-91.334
X135.41 Y-91.297
X133.84 Y-91.281
X132.336 Y-91.29
X130.897 Y-91.323
X129.525 Y-91.379
X128.218 Y-91.458
X126.976 Y-91.559
X125.798 Y-91.681
X124.683 Y-91.822
X123.63 Y-91.983
X122.637 Y-92.161
X121.703 Y-92.355
X120.824 Y-92.564
X119.999 Y-92.787
X119.226 Y-93.023
X118.501 Y-93.27
X117.811 Y-93.531
X117.271 Y-93.755
X116.75 Y-93.989
X116.256 Y-94.229
X115.781 Y-94.477
X115.326 Y-94.731
X114.888 Y-94.994
X114.462 Y-95.265
X114.083 Y-95.522
X113.248 Y-96.134
X112.472 Y-96.762
X111.705 Y-97.436
X110.934 Y-98.159
X110.153 Y-98.928
X109.354 Y-99.744
X107.674 Y-101.482
G2 X107.613 Y-101.544 I-4.567 J4.412
G1 X105.883 Y-103.287
G2 X105.762 Y-103.406 I-4.506 J4.474
G1 X104.865 Y-104.262
G2 X104.753 Y-104.366 I-4.385 J4.593
G1 X103.828 Y-105.208
G2 X103.693 Y-105.328 I-4.273 J4.697
G1 X102.734 Y-106.152
G2 X102.585 Y-106.275 I-4.138 J4.817
G1 X101.589 Y-107.079
G2 X101.422 Y-107.209 I-3.989 J4.94
G1 X100.388 Y-107.989
G2 X100.219 Y-108.113 I-3.823 J5.07
G1 X99.144 Y-108.869
G2 X98.966 Y-108.99 I-3.654 J5.194
G1 X97.851 Y-109.719
G2 X97.671 Y-109.832 I-3.475 J5.315
G1 X96.516 Y-110.533
G2 X96.33 Y-110.642 I-3.295 J5.428
G1 X95.137 Y-111.312
G2 X94.956 Y-111.409 I-3.109 J5.537
G1 X93.727 Y-112.048
G2 X93.542 Y-112.141 I-2.929 J5.634
G1 X92.279 Y-112.746
G2 X92.104 Y-112.826 I-2.744 J5.727
G1 X90.811 Y-113.398
G2 X90.628 Y-113.476 I-2.569 J5.807
G1 X89.309 Y-114.011
G2 X89.136 Y-114.078 I-2.386 J5.885
G1 X87.795 Y-114.577
G2 X87.616 Y-114.64 I-2.214 J5.952
G1 X86.257 Y-115.1
G2 X86.076 Y-115.158 I-2.035 J6.015
G1 X84.703 Y-115.577
G2 X84.526 Y-115.629 I-1.854 J6.073
G1 X83.146 Y-116.007
G2 X82.959 Y-116.055 I-1.677 J6.125
G1 X81.576 Y-116.389
G2 X81.378 Y-116.433 I-1.491 J6.173
G1 X79.997 Y-116.72
G2 X79.794 Y-116.759 I-1.292 J6.217
G1 X78.42 Y-116.998
G2 X78.196 Y-117.033 I-1.089 J6.256
G1 X76.836 Y-117.22
G2 X76.597 Y-117.248 I-0.865 J6.291
G1 X75.254 Y-117.381
G2 X74.983 Y-117.402 I-0.626 J6.319
G1 X73.662 Y-117.476
G2 X73.361 Y-117.486 I-0.355 J6.34
G1 X72.066 Y-117.497
G2 X71.731 Y-117.491 I-0.054 J6.35
G1 X70.467 Y-117.435
G2 X70.196 Y-117.417 I0.281 J6.344
G1 X69.577 Y-117.363
G2 X69.364 Y-117.341 I0.551 J6.326
G1 X68.754 Y-117.267
G2 X68.557 Y-117.24 I0.764 J6.304
G1 X67.956 Y-117.148
G2 X67.725 Y-117.108 I0.961 J6.277
G1 X67.134 Y-116.995
G2 X66.909 Y-116.948 I1.192 J6.237
G1 X66.328 Y-116.815
G2 X66.08 Y-116.753 I1.416 J6.19
G1 X65.509 Y-116.598
G2 X65.26 Y-116.525 I1.664 J6.128
G1 X64.699 Y-116.348
G2 X64.439 Y-116.26 I1.913 J6.055
G1 X63.89 Y-116.06
G2 X63.622 Y-115.955 I2.173 J5.967
G1 X63.084 Y-115.731
G2 X62.81 Y-115.609 I2.442 J5.862
G1 X62.283 Y-115.36
G2 X62.014 Y-115.225 I2.716 J5.74
G1 X61.5 Y-114.951
G2 X61.221 Y-114.793 I2.985 J5.605
G1 X60.719 Y-114.492
G2 X60.45 Y-114.322 I3.264 J5.447
G1 X59.96 Y-113.994
G2 X59.697 Y-113.808 I3.532 J5.277
G1 X59.22 Y-113.452
G2 X58.965 Y-113.251 I3.795 J5.091
G1 X58.5 Y-112.866
G2 X58.261 Y-112.659 I4.051 J4.89
G1 X57.809 Y-112.245
G2 X57.577 Y-112.021 I4.289 J4.683
G1 X57.138 Y-111.576
G2 X56.922 Y-111.346 I4.521 J4.459
G1 X56.497 Y-110.869
G2 X56.3 Y-110.637 I4.737 J4.229
G1 X55.887 Y-110.128
G2 X55.704 Y-109.891 I4.934 J3.997
G1 X55.305 Y-109.348
G2 X55.145 Y-109.119 I5.117 J3.76
G1 X54.759 Y-108.543
G2 X54.61 Y-108.308 I5.278 J3.531
G1 X54.238 Y-107.696
G2 X54.109 Y-107.474 I5.427 J3.296
G1 X53.751 Y-106.827
G2 X53.635 Y-106.607 I5.556 J3.074
G1 X53.29 Y-105.923
G2 X53.188 Y-105.71 I5.673 J2.854
G1 X52.858 Y-104.988
G2 X52.77 Y-104.786 I5.775 J2.641
G1 X52.454 Y-104.026
G2 X52.377 Y-103.833 I5.863 J2.439
G1 X52.075 Y-103.034
G2 X52.008 Y-102.849 I5.939 J2.246
G1 X51.72 Y-102.009
G2 X51.663 Y-101.836 I6.006 J2.061
G1 X51.389 Y-100.955
G2 X51.341 Y-100.791 I6.063 J1.887
G1 X51.081 Y-99.869
G2 X51.039 Y-99.713 I6.112 J1.722
G1 X50.794 Y-98.749
G2 X50.758 Y-98.604 I6.154 J1.567
G1 X50.527 Y-97.597
G2 X50.497 Y-97.46 I6.189 J1.421
G1 X50.28 Y-96.409
G2 X50.255 Y-96.28 I6.219 J1.284
G1 X50.053 Y-95.185
G2 X50.032 Y-95.064 I6.244 J1.155
G1 X49.843 Y-93.923
G2 X49.826 Y-93.811 I6.265 J1.034
G1 X49.652 Y-92.625
G2 X49.637 Y-92.518 I6.283 J0.922
G1 X49.477 Y-91.286
G2 X49.465 Y-91.187 I6.297 J0.816
G1 X49.32 Y-89.907
G2 X49.31 Y-89.814 I6.309 J0.717
G1 X49.179 Y-88.486
G2 X49.171 Y-88.4 I6.319 J0.624
G1 X49.054 Y-87.024
G2 X49.048 Y-86.943 I6.327 J0.537
G1 X48.945 Y-85.518
G2 X48.94 Y-85.442 I6.334 J0.455
G1 X48.852 Y-83.969
G2 X48.848 Y-83.898 I6.339 J0.379
G1 X48.774 Y-82.375
G2 X48.772 Y-82.308 I6.343 J0.308
G1 X48.712 Y-80.735
G2 X48.71 Y-80.672 I6.345 J0.24
G1 X48.665 Y-79.05
G2 X48.663 Y-78.99 I6.348 J0.177
G1 X48.632 Y-77.317
G2 Y-77.261 I6.349 J0.117
G1 X48.615 Y-75.538
G2 Y-75.485 I6.35 J0.062
G1 X48.612 Y-73.711
G2 Y-73.661 I6.35 J0.009
G1 X48.624 Y-71.835
G2 X48.625 Y-71.788 I6.35 J-0.041
G1 X48.651 Y-69.912
G2 Y-69.867 I6.349 J-0.088
G1 X48.691 Y-67.99
G2 X48.692 Y-67.943 I6.349 J-0.133
G1 X48.744 Y-66.119
G2 X48.745 Y-66.069 I6.347 J-0.181
G1 X48.81 Y-64.296
G2 X48.812 Y-64.243 I6.346 J-0.23
G1 X48.889 Y-62.521
G2 X48.892 Y-62.465 I6.344 J-0.283
G1 X48.981 Y-60.794
G2 X48.984 Y-60.735 I6.341 J-0.339
G1 X49.086 Y-59.115
G2 X49.091 Y-59.052 I6.337 J-0.398
G1 X49.205 Y-57.482
G2 X49.21 Y-57.415 I6.333 J-0.462
G1 X49.337 Y-55.896
G2 X49.343 Y-55.825 I6.328 J-0.529
G1 X49.483 Y-54.356
G2 X49.491 Y-54.279 I6.322 J-0.6
G1 X49.643 Y-52.86
G2 X49.652 Y-52.779 I6.314 J-0.676
G1 X49.817 Y-51.408
G2 X49.828 Y-51.322 I6.305 J-0.758
G1 X50.005 Y-50
G2 X50.018 Y-49.908 I6.294 J-0.844
G1 X50.208 Y-48.634
G2 X50.223 Y-48.534 I6.281 J-0.936
G1 X50.426 Y-47.308
G2 X50.44 Y-47.227 I6.265 J-1.035
X50.444 Y-47.203 Z3.999 I6.251 J-1.116 F400.3
G1 X50.66 Y-46.023 Z3.957
G2 X50.681 Y-45.911 Z3.953 I6.247 J-1.14
G1 X50.909 Y-44.778 Z3.913
G2 X50.935 Y-44.658 Z3.909 I6.225 J-1.252
G1 X51.175 Y-43.57 Z3.87
G2 X51.205 Y-43.443 Z3.865 I6.2 J-1.373
G1 X51.459 Y-42.4 Z3.828
G2 X51.493 Y-42.264 Z3.823 I6.17 J-1.5
G1 X51.759 Y-41.266 Z3.787
G2 X51.8 Y-41.121 Z3.781 I6.136 J-1.636
G1 X52.079 Y-40.166 Z3.747
G2 X52.126 Y-40.012 Z3.741 I6.095 J-1.78
G1 X52.417 Y-39.1 Z3.708
G2 X52.472 Y-38.938 Z3.702 I6.048 J-1.934
G1 X52.776 Y-38.068 Z3.669
G2 X52.84 Y-37.895 Z3.663 I5.994 J-2.097
G1 X53.157 Y-37.066 Z3.632
G2 X53.229 Y-36.885 Z3.625 I5.93 J-2.27
G1 X53.559 Y-36.097 Z3.595
G2 X53.643 Y-35.905 Z3.588 I5.858 J-2.451
G1 X53.986 Y-35.157 Z3.559
G2 X54.081 Y-34.958 Z3.552 I5.774 J-2.643
G1 X54.436 Y-34.248 Z3.524
G2 X54.545 Y-34.04 Z3.516 I5.679 J-2.841
G1 X54.913 Y-33.368 Z3.489
G2 X55.036 Y-33.153 Z3.48 I5.569 J-3.05
G1 X55.417 Y-32.518 Z3.455
G2 X55.555 Y-32.298 Z3.445 I5.446 J-3.265
G1 X55.948 Y-31.7 Z3.42
G2 X56.103 Y-31.475 Z3.411 I5.308 J-3.485
G1 X56.508 Y-30.912 Z3.387
G2 X56.681 Y-30.683 Z3.377 I5.153 J-3.711
G1 X57.098 Y-30.155 Z3.353
G2 X57.287 Y-29.928 Z3.343 I4.98 J-3.939
G1 X57.717 Y-29.433 Z3.32
G2 X57.923 Y-29.208 Z3.309 I4.792 J-4.167
G1 X58.365 Y-28.746 Z3.287
G2 X58.587 Y-28.525 Z3.276 I4.586 J-4.392
G1 X59.042 Y-28.095 Z3.254
G2 X59.278 Y-27.883 Z3.243 I4.363 J-4.613
G1 X59.744 Y-27.484 Z3.222
G2 X59.995 Y-27.281 Z3.21 I4.127 J-4.826
G1 X60.473 Y-26.912 Z3.189
G2 X60.734 Y-26.721 Z3.178 I3.876 J-5.03
G1 X61.224 Y-26.382 Z3.157
G2 X61.495 Y-26.205 Z3.146 I3.615 J-5.221
G1 X61.996 Y-25.894 Z3.125
G2 X62.27 Y-25.733 Z3.114 I3.344 J-5.398
G1 X62.783 Y-25.45 Z3.094
G2 X63.062 Y-25.305 Z3.083 I3.07 J-5.559
G1 X63.586 Y-25.049 Z3.062
G2 X63.864 Y-24.921 Z3.052 I2.79 J-5.704
G1 X64.398 Y-24.691 Z3.031
G2 X64.674 Y-24.58 Z3.021 I2.512 J-5.832
G1 X65.219 Y-24.375 Z3.001
G2 X65.491 Y-24.279 Z2.991 I2.236 J-5.943
G1 X66.046 Y-24.099 Z2.97
G2 X66.31 Y-24.019 Z2.961 I1.965 J-6.038
G1 X66.876 Y-23.862 Z2.94
G2 X67.13 Y-23.797 Z2.931 I1.701 J-6.118
G1 X67.706 Y-23.662 Z2.91
G2 X67.952 Y-23.609 Z2.901 I1.448 J-6.183
G1 X68.537 Y-23.496 Z2.881
G2 X68.77 Y-23.456 Z2.872 I1.202 J-6.235
G1 X69.365 Y-23.364 Z2.851
G2 X69.588 Y-23.334 Z2.844 I0.969 J-6.276
G1 X70.192 Y-23.262 Z2.822
G2 X70.404 Y-23.241 Z2.815 I0.746 J-6.306
G1 X71.016 Y-23.189 Z2.793
G2 X71.215 Y-23.175 Z2.786 I0.535 J-6.327
G1 X71.837 Y-23.142 Z2.765
G2 X72.114 Y-23.134 Z2.755 I0.336 J-6.341
G1 X73.38 Y-23.122 Z2.711
G2 X73.715 Y-23.128 Z2.699 I0.058 J-6.35
G1 X75.008 Y-23.184 Z2.654
G2 X75.307 Y-23.205 Z2.643 I-0.277 J-6.344
G1 X76.625 Y-23.325 Z2.597
G2 X76.892 Y-23.355 Z2.588 I-0.576 J-6.324
G1 X78.23 Y-23.534 Z2.541
G2 X78.471 Y-23.571 Z2.532 I-0.843 J-6.294
G1 X79.825 Y-23.806 Z2.484
G2 X80.045 Y-23.848 Z2.476 I-1.085 J-6.257
G1 X81.409 Y-24.134 Z2.428
G2 X81.615 Y-24.181 Z2.42 I-1.305 J-6.214
G1 X82.985 Y-24.516 Z2.371
G2 X83.178 Y-24.567 Z2.364 I-1.511 J-6.168
G1 X84.549 Y-24.949 Z2.314
G2 X84.733 Y-25.003 Z2.308 I-1.704 J-6.117
G1 X86.1 Y-25.429 Z2.258
G2 X86.279 Y-25.488 Z2.251 I-1.889 J-6.063
G1 X87.636 Y-25.955 Z2.201
G2 X87.812 Y-26.018 Z2.194 I-2.068 J-6.004
G1 X89.154 Y-26.526 Z2.144
G2 X89.328 Y-26.594 Z2.138 I-2.244 J-5.94
G1 X90.652 Y-27.139 Z2.088
G2 X90.827 Y-27.214 Z2.081 I-2.418 J-5.872
G1 X92.127 Y-27.796 Z2.031
G2 X92.302 Y-27.877 Z2.025 I-2.592 J-5.797
G1 X93.574 Y-28.493 Z1.975
G2 X93.751 Y-28.582 Z1.968 I-2.768 J-5.715
G1 X94.992 Y-29.232 Z1.92
G2 X95.169 Y-29.328 Z1.912 I-2.944 J-5.626
G1 X96.376 Y-30.009 Z1.864
G2 X96.555 Y-30.115 Z1.857 I-3.122 J-5.53
G1 X97.724 Y-30.826 Z1.809
G2 X97.903 Y-30.939 Z1.802 I-3.302 J-5.424
G1 X99.033 Y-31.68 Z1.754
G2 X99.21 Y-31.8 Z1.747 I-3.48 J-5.311
G1 X100.299 Y-32.568 Z1.7
G2 X100.474 Y-32.695 Z1.693 I-3.658 J-5.191
G1 X101.521 Y-33.488 Z1.647
G2 X101.689 Y-33.619 Z1.64 I-3.833 J-5.063
G1 X102.696 Y-34.436 Z1.594
G2 X102.854 Y-34.569 Z1.587 I-4 J-4.932
G1 X103.821 Y-35.407 Z1.542
G2 X103.967 Y-35.537 Z1.536 I-4.158 J-4.799
G1 X104.897 Y-36.394 Z1.491
G2 X105.025 Y-36.516 Z1.485 I-4.305 J-4.668
G1 X105.921 Y-37.389 Z1.442
G2 X106.032 Y-37.5 Z1.436 I-4.433 J-4.547
G1 X106.898 Y-38.388 Z1.393
G2 X107.013 Y-38.508 Z1.387 I-4.544 J-4.436
G1 X108.682 Y-40.31 Z1.301
G2 X108.742 Y-40.376 Z1.298 I-4.659 J-4.315
G1 X110.358 Y-42.171 Z1.214
X111.131 Y-43.015 Z1.174
X111.884 Y-43.812 Z1.136
X112.626 Y-44.559 Z1.099
X113.37 Y-45.259 Z1.063
X114.126 Y-45.915 Z1.028
X114.757 Y-46.414 Z1
X114.937 Y-46.556 F849.6
X115.306 Y-46.825
X115.722 Y-47.11
X116.152 Y-47.389
X116.599 Y-47.66
X117.063 Y-47.923
X117.55 Y-48.181
X118.063 Y-48.433
X118.594 Y-48.676
X119.273 Y-48.96
X119.99 Y-49.232
X120.756 Y-49.495
X121.572 Y-49.747
X122.442 Y-49.987
X123.369 Y-50.213
X124.354 Y-50.426
X125.402 Y-50.623
X126.511 Y-50.803
X127.684 Y-50.966
X128.922 Y-51.11
X130.226 Y-51.235
X131.595 Y-51.339
X133.032 Y-51.422
X134.535 Y-51.483
X136.104 Y-51.523
X137.633 Y-51.538
X139.102 Y-51.53
X140.508 Y-51.5
X141.851 Y-51.447
X143.132 Y-51.373
X144.351 Y-51.277
X145.51 Y-51.162
X146.607 Y-51.028
X147.646 Y-50.875
X148.629 Y-50.706
X149.554 Y-50.521
X150.425 Y-50.321
X151.245 Y-50.108
X152.015 Y-49.882
X152.74 Y-49.645
X153.421 Y-49.398
X154.061 Y-49.142
X154.665 Y-48.876
X155.238 Y-48.6
X155.783 Y-48.315
X156.3 Y-48.022
X156.798 Y-47.718
X157.279 Y-47.402
X157.743 Y-47.077
X158.201 Y-46.736
X158.62 Y-46.406
X159.536 Y-45.628
X160.418 Y-44.815
X161.302 Y-43.949
X163.202 Y-41.997
G2 X163.216 Y-41.983 I4.551 J-4.428
G1 X165.181 Y-39.976
G2 X165.296 Y-39.861 I4.537 J-4.442
G1 X166.314 Y-38.873
G2 X166.433 Y-38.76 I4.422 J-4.557
G1 X167.486 Y-37.79
G2 X167.636 Y-37.656 I4.303 J-4.67
G1 X168.732 Y-36.709
G2 X168.903 Y-36.565 I4.153 J-4.803
G1 X170.047 Y-35.645
G2 X170.234 Y-35.499 I3.982 J-4.946
G1 X171.429 Y-34.609
G2 X171.629 Y-34.466 I3.795 J-5.092
G1 X172.877 Y-33.609
G2 X173.086 Y-33.472 I3.595 J-5.235
G1 X174.388 Y-32.651
G2 X174.595 Y-32.526 I3.386 J-5.372
G1 X175.947 Y-31.744
G2 X176.158 Y-31.627 I3.179 J-5.497
G1 X177.559 Y-30.886
G2 X177.767 Y-30.781 I2.968 J-5.614
G1 X179.213 Y-30.083
G2 X179.42 Y-29.988 I2.76 J-5.719
G1 X180.906 Y-29.335
G2 X181.108 Y-29.251 I2.553 J-5.814
G1 X182.627 Y-28.645
G2 X182.83 Y-28.568 I2.351 J-5.899
G1 X184.377 Y-28.012
G2 X184.581 Y-27.943 I2.148 J-5.976
G1 X186.149 Y-27.439
G2 X186.355 Y-27.376 I1.944 J-6.045
G1 X187.936 Y-26.927
G2 X188.148 Y-26.87 I1.738 J-6.108
G1 X189.735 Y-26.477
G2 X189.957 Y-26.427 I1.526 J-6.164
G1 X191.541 Y-26.094
G2 X191.779 Y-26.049 I1.304 J-6.215
G1 X193.353 Y-25.781
G2 X193.611 Y-25.742 I1.066 J-6.26
G1 X195.167 Y-25.543
G2 X195.38 Y-25.519 I0.808 J-6.298
G1 X196.15 Y-25.447
G2 X196.301 Y-25.434 I0.595 J-6.322
G1 X197.063 Y-25.381
G2 X197.225 Y-25.372 I0.444 J-6.334
G1 X197.979 Y-25.338
G2 X198.15 Y-25.333 I0.282 J-6.344
G1 X198.895 Y-25.32
G2 X199.08 Y-25.319 I0.111 J-6.349
G1 X199.816 Y-25.328
G2 X200.012 Y-25.333 I-0.074 J-6.35
G1 X200.738 Y-25.364
G2 X200.948 Y-25.377 I-0.27 J-6.344
G1 X201.663 Y-25.431
G2 X201.888 Y-25.452 I-0.48 J-6.332
G1 X202.591 Y-25.53
G2 X202.828 Y-25.562 I-0.705 J-6.311
G1 X203.519 Y-25.665
G2 X203.774 Y-25.709 I-0.942 J-6.28
G1 X204.452 Y-25.839
G2 X204.721 Y-25.896 I-1.197 J-6.236
G1 X205.385 Y-26.054
G2 X205.664 Y-26.127 I-1.466 J-6.179
G1 X206.315 Y-26.313
G2 X206.607 Y-26.404 I-1.745 J-6.105
G1 X207.244 Y-26.62
G2 X207.549 Y-26.732 I-2.037 J-6.014
G1 X208.171 Y-26.979
G2 X208.484 Y-27.113 I-2.342 J-5.902
G1 X209.09 Y-27.392
G2 X209.399 Y-27.544 I-2.655 J-5.768
G1 X209.991 Y-27.856
G2 X210.308 Y-28.036 I-2.964 J-5.616
G1 X210.883 Y-28.383
G2 X211.191 Y-28.581 I-3.281 J-5.437
G1 X211.75 Y-28.964
G2 X212.052 Y-29.184 I-3.589 J-5.238
G1 X212.594 Y-29.605
G2 X212.877 Y-29.837 I-3.891 J-5.018
G1 X213.403 Y-30.296
G2 X213.673 Y-30.546 I-4.174 J-4.785
G1 X214.182 Y-31.045
G2 X214.435 Y-31.308 I-4.444 J-4.536
G1 X214.926 Y-31.847
G2 X215.154 Y-32.111 I-4.697 J-4.273
G1 X215.628 Y-32.694
G2 X215.836 Y-32.964 I-4.925 J-4.009
G1 X216.292 Y-33.591
G2 X216.477 Y-33.858 I-5.133 J-3.738
G1 X216.915 Y-34.53
G2 X217.078 Y-34.793 I-5.318 J-3.47
G1 X217.498 Y-35.51
G2 X217.636 Y-35.759 I-5.481 J-3.207
G1 X218.039 Y-36.524
G2 X218.166 Y-36.78 I-5.619 J-2.959
G1 X218.549 Y-37.595
G2 X218.651 Y-37.822 I-5.746 J-2.702
G1 X219.017 Y-38.686
G2 X219.107 Y-38.913 I-5.848 J-2.475
G1 X219.454 Y-39.829
G2 X219.531 Y-40.042 I-5.938 J-2.249
G1 X219.859 Y-41.01
G2 X219.921 Y-41.205 I-6.015 J-2.036
G1 X220.231 Y-42.227
G2 X220.284 Y-42.414 I-6.077 J-1.842
G1 X220.575 Y-43.492
G2 X220.62 Y-43.666 I-6.13 J-1.655
G1 X220.892 Y-44.8
G2 X220.928 Y-44.962 I-6.175 J-1.481
G1 X221.181 Y-46.154
G2 X221.211 Y-46.299 I-6.211 J-1.319
G1 X221.446 Y-47.549
G2 X221.47 Y-47.689 I-6.241 J-1.174
G1 X221.686 Y-48.998
G2 X221.706 Y-49.127 I-6.265 J-1.034
G1 X221.903 Y-50.497
G2 X221.919 Y-50.617 I-6.285 J-0.904
G1 X222.097 Y-52.048
G2 X222.11 Y-52.159 I-6.301 J-0.784
G1 X222.269 Y-53.652
G2 X222.279 Y-53.751 I-6.314 J-0.672
G1 X222.42 Y-55.307
G2 X222.428 Y-55.407 I-6.324 J-0.573
G1 X222.549 Y-57.027
G2 X222.555 Y-57.112 I-6.332 J-0.473
G1 X222.658 Y-58.796
G2 X222.663 Y-58.879 I-6.338 J-0.388
G1 X222.747 Y-60.629
G2 X222.75 Y-60.706 I-6.343 J-0.305
G1 X222.815 Y-62.521
G2 X222.817 Y-62.589 I-6.346 J-0.227
G1 X222.864 Y-64.47
G2 X222.865 Y-64.541 I-6.348 J-0.159
G1 X222.892 Y-66.488
G2 X222.893 Y-66.548 I-6.349 J-0.088
G1 X222.902 Y-68.562
G2 Y-68.62 I-6.35 J-0.028
G1 X222.892 Y-70.702
G2 X222.891 Y-70.757 I-6.35 J0.031
G1 X222.862 Y-72.905
G2 Y-72.955 I-6.349 J0.086
G1 X222.816 Y-75.103
G2 X222.814 Y-75.159 I-6.349 J0.136
G1 X222.751 Y-77.24
G2 X222.749 Y-77.296 I-6.347 J0.192
G1 X222.67 Y-79.309
G2 X222.667 Y-79.37 I-6.345 J0.249
G1 X222.572 Y-81.315
G2 X222.569 Y-81.383 I-6.342 J0.31
G1 X222.457 Y-83.261
G2 X222.452 Y-83.334 I-6.339 J0.378
G1 X222.323 Y-85.145
G2 X222.317 Y-85.22 I-6.334 J0.451
G1 X222.172 Y-86.965
G2 X222.165 Y-87.045 I-6.328 J0.526
G1 X222.004 Y-88.725
G2 X221.995 Y-88.815 I-6.321 J0.606
G1 X221.817 Y-90.429
G2 X221.805 Y-90.526 I-6.312 J0.696
G1 X221.61 Y-92.076
G2 X221.597 Y-92.175 I-6.3 J0.793
G1 X221.386 Y-93.662
G2 X221.369 Y-93.774 I-6.287 J0.892
G1 X221.141 Y-95.197
G2 X221.121 Y-95.318 I-6.27 J1.004
G1 X220.876 Y-96.679
G2 X220.852 Y-96.804 I-6.25 J1.124
G1 X220.591 Y-98.105
G2 X220.561 Y-98.244 I-6.226 J1.249
G1 X220.283 Y-99.485
G2 X220.248 Y-99.634 I-6.196 J1.388
G1 X219.953 Y-100.816
G2 X219.91 Y-100.977 I-6.161 J1.538
G1 X219.598 Y-102.101
G2 X219.55 Y-102.268 I-6.118 J1.699
G1 X219.222 Y-103.335
G2 X219.16 Y-103.525 I-6.07 J1.866
G1 X218.814 Y-104.536
G2 X218.747 Y-104.721 I-6.008 J2.056
G1 X218.386 Y-105.678
G2 X218.301 Y-105.892 I-5.941 J2.241
G1 X217.922 Y-106.796
G2 X217.826 Y-107.014 I-5.856 J2.455
G1 X217.431 Y-107.865
G2 X217.316 Y-108.099 I-5.76 J2.673
G1 X216.904 Y-108.899
G2 X216.773 Y-109.142 I-5.645 J2.907
G1 X216.344 Y-109.893
G2 X216.195 Y-110.139 I-5.514 J3.15
G1 X215.75 Y-110.842
G2 X215.578 Y-111.101 I-5.365 J3.396
G1 X215.117 Y-111.756
G2 X214.922 Y-112.018 I-5.193 J3.655
G1 X214.444 Y-112.628
G2 X214.23 Y-112.887 I-4.998 J3.917
G1 X213.736 Y-113.453
G2 X213.494 Y-113.715 I-4.784 J4.176
G1 X212.984 Y-114.237
G2 X212.727 Y-114.485 I-4.542 J4.438
G1 X212.201 Y-114.966
G2 X211.923 Y-115.206 I-4.285 J4.686
G1 X211.382 Y-115.646
G2 X211.085 Y-115.873 I-4.007 J4.926
G1 X210.528 Y-116.274
G2 X210.22 Y-116.482 I-3.71 J5.153
G1 X209.648 Y-116.845
G2 X209.336 Y-117.031 I-3.402 J5.361
G1 X208.749 Y-117.358
G2 X208.423 Y-117.528 I-3.09 J5.547
G1 X207.821 Y-117.819
G2 X207.51 Y-117.959 I-2.764 J5.717
G1 X206.894 Y-118.217
G2 X206.577 Y-118.34 I-2.453 J5.857
G1 X205.947 Y-118.565
G2 X205.637 Y-118.667 I-2.136 J5.98
G1 X204.994 Y-118.86
G2 X204.706 Y-118.939 I-1.826 J6.082
G1 X204.049 Y-119.103
G2 X203.756 Y-119.169 I-1.538 J6.161
G1 X203.086 Y-119.303
G2 X202.816 Y-119.351 I-1.245 J6.227
G1 X202.134 Y-119.457
G2 X201.886 Y-119.49 I-0.975 J6.275
G1 X201.192 Y-119.57
G2 X200.949 Y-119.594 I-0.727 J6.308
G1 X200.243 Y-119.648
G2 X200.016 Y-119.661 I-0.484 J6.332
G1 X199.3 Y-119.69
G2 X199.087 Y-119.695 I-0.257 J6.345
G1 X198.361 Y-119.7
G2 X198.17 Y-119.698 I-0.044 J6.35
G1 X197.434 Y-119.681
G2 X197.249 Y-119.674 I0.147 J6.348
G1 X196.504 Y-119.635
G2 X196.339 Y-119.625 I0.332 J6.341
G1 X195.587 Y-119.566
G2 X195.419 Y-119.55 I0.497 J6.331
G1 X194.659 Y-119.47
G2 X194.502 Y-119.452 I0.665 J6.315
G1 X193.736 Y-119.352
G2 X193.534 Y-119.322 I0.822 J6.297
G1 X191.985 Y-119.069
G2 X191.725 Y-119.021 I1.024 J6.267
G1 X190.161 Y-118.698
G2 X189.922 Y-118.644 I1.284 J6.219
G1 X188.351 Y-118.256
G2 X188.134 Y-118.198 I1.523 J6.165
G1 X186.562 Y-117.75
G2 X186.354 Y-117.687 I1.74 J6.107
G1 X184.79 Y-117.183
G2 X184.582 Y-117.112 I1.948 J6.044
G1 X183.033 Y-116.553
G2 X182.833 Y-116.477 I2.156 J5.973
G1 X181.306 Y-115.867
G2 X181.108 Y-115.784 I2.356 J5.897
G1 X179.61 Y-115.126
G2 X179.409 Y-115.033 I2.554 J5.814
G1 X177.947 Y-114.329
G2 X177.746 Y-114.228 I2.755 J5.721
G1 X176.326 Y-113.481
G2 X176.119 Y-113.367 I2.956 J5.62
G1 X174.744 Y-112.577
G2 X174.54 Y-112.455 I3.163 J5.506
G1 X173.216 Y-111.627
G2 X173.009 Y-111.492 I3.367 J5.384
G1 X171.737 Y-110.626
G2 X171.537 Y-110.484 I3.574 J5.249
G1 X170.319 Y-109.584
G2 X170.122 Y-109.432 I3.774 J5.107
G1 X168.959 Y-108.5
G2 X168.778 Y-108.35 I3.971 J4.955
G1 X167.667 Y-107.39
G2 X167.501 Y-107.241 I4.152 J4.805
G1 X166.439 Y-106.256
G2 X166.294 Y-106.117 I4.318 J4.656
G1 X165.275 Y-105.11
G2 X165.158 Y-104.991 I4.463 J4.517
G1 X164.176 Y-103.968
G2 X164.066 Y-103.852 I4.58 J4.398
G1 X162.172 Y-101.777
G2 X162.161 Y-101.764 I4.69 J4.281
G1 X160.328 Y-99.745
X159.474 Y-98.848
X158.622 Y-98.006
X157.732 Y-97.195
X157.324 Y-96.85
X156.882 Y-96.496
X156.427 Y-96.153
X155.958 Y-95.822
X155.473 Y-95.501
X154.963 Y-95.188
X154.429 Y-94.884
X153.869 Y-94.59
X153.273 Y-94.303
X152.641 Y-94.024
X151.97 Y-93.753
X151.255 Y-93.491
X150.493 Y-93.239
X149.681 Y-92.997
X148.816 Y-92.767
X147.898 Y-92.55
X146.923 Y-92.347
X145.889 Y-92.158
X144.796 Y-91.985
X143.643 Y-91.83
X142.429 Y-91.692
X141.151 Y-91.573
X139.81 Y-91.473
X138.407 Y-91.393
X136.939 Y-91.334
X135.41 Y-91.297
X133.84 Y-91.281
X132.336 Y-91.29
X130.897 Y-91.323
X129.525 Y-91.379
X128.218 Y-91.458
X126.976 Y-91.559
X125.798 Y-91.681
X124.683 Y-91.822
X123.63 Y-91.983
X122.637 Y-92.161
X121.703 Y-92.355
X120.824 Y-92.564
X119.999 Y-92.787
X119.226 Y-93.023
X118.501 Y-93.27
X117.811 Y-93.531
X117.271 Y-93.755
X116.75 Y-93.989
X116.256 Y-94.229
X115.781 Y-94.477
X115.326 Y-94.731
X114.888 Y-94.994
X114.462 Y-95.265
X114.083 Y-95.522
X113.248 Y-96.134
X112.472 Y-96.762
X111.705 Y-97.436
X110.934 Y-98.159
X110.153 Y-98.928
X109.354 Y-99.744
X107.674 Y-101.482
G2 X107.613 Y-101.544 I-4.567 J4.412
G1 X105.883 Y-103.287
G2 X105.762 Y-103.406 I-4.506 J4.474
G1 X104.865 Y-104.262
G2 X104.753 Y-104.366 I-4.385 J4.593
G1 X103.828 Y-105.208
G2 X103.693 Y-105.328 I-4.273 J4.697
G1 X102.734 Y-106.152
G2 X102.585 Y-106.275 I-4.138 J4.817
G1 X101.589 Y-107.079
G2 X101.422 Y-107.209 I-3.989 J4.94
G1 X100.388 Y-107.989
G2 X100.219 Y-108.113 I-3.823 J5.07
G1 X99.144 Y-108.869
G2 X98.966 Y-108.99 I-3.654 J5.194
G1 X97.851 Y-109.719
G2 X97.671 Y-109.832 I-3.475 J5.315
G1 X96.516 Y-110.533
G2 X96.33 Y-110.642 I-3.295 J5.428
G1 X95.137 Y-111.312
G2 X94.956 Y-111.409 I-3.109 J5.537
G1 X93.727 Y-112.048
G2 X93.542 Y-112.141 I-2.929 J5.634
G1 X92.279 Y-112.746
G2 X92.104 Y-112.826 I-2.744 J5.727
G1 X90.811 Y-113.398
G2 X90.628 Y-113.476 I-2.569 J5.807
G1 X89.309 Y-114.011
G2 X89.136 Y-114.078 I-2.386 J5.885
G1 X87.795 Y-114.577
G2 X87.616 Y-114.64 I-2.214 J5.952
G1 X86.257 Y-115.1
G2 X86.076 Y-115.158 I-2.035 J6.015
G1 X84.703 Y-115.577
G2 X84.526 Y-115.629 I-1.854 J6.073
G1 X83.146 Y-116.007
G2 X82.959 Y-116.055 I-1.677 J6.125
G1 X81.576 Y-116.389
G2 X81.378 Y-116.433 I-1.491 J6.173
G1 X79.997 Y-116.72
G2 X79.794 Y-116.759 I-1.292 J6.217
G1 X78.42 Y-116.998
G2 X78.196 Y-117.033 I-1.089 J6.256
G1 X76.836 Y-117.22
G2 X76.597 Y-117.248 I-0.865 J6.291
G1 X75.254 Y-117.381
G2 X74.983 Y-117.402 I-0.626 J6.319
G1 X73.662 Y-117.476
G2 X73.361 Y-117.486 I-0.355 J6.34
G1 X72.066 Y-117.497
G2 X71.731 Y-117.491 I-0.054 J6.35
G1 X70.467 Y-117.435
G2 X70.196 Y-117.417 I0.281 J6.344
G1 X69.577 Y-117.363
G2 X69.364 Y-117.341 I0.551 J6.326
G1 X68.754 Y-117.267
G2 X68.557 Y-117.24 I0.764 J6.304
G1 X67.956 Y-117.148
G2 X67.725 Y-117.108 I0.961 J6.277
G1 X67.134 Y-116.995
G2 X66.909 Y-116.948 I1.192 J6.237
G1 X66.328 Y-116.815
G2 X66.08 Y-116.753 I1.416 J6.19
G1 X65.509 Y-116.598
G2 X65.26 Y-116.525 I1.664 J6.128
G1 X64.699 Y-116.348
G2 X64.439 Y-116.26 I1.913 J6.055
G1 X63.89 Y-116.06
G2 X63.622 Y-115.955 I2.173 J5.967
G1 X63.084 Y-115.731
G2 X62.81 Y-115.609 I2.442 J5.862
G1 X62.283 Y-115.36
G2 X62.014 Y-115.225 I2.716 J5.74
G1 X61.5 Y-114.951
G2 X61.221 Y-114.793 I2.985 J5.605
G1 X60.719 Y-114.492
G2 X60.45 Y-114.322 I3.264 J5.447
G1 X59.96 Y-113.994
G2 X59.697 Y-113.808 I3.532 J5.277
G1 X59.22 Y-113.452
G2 X58.965 Y-113.251 I3.795 J5.091
G1 X58.5 Y-112.866
G2 X58.261 Y-112.659 I4.051 J4.89
G1 X57.809 Y-112.245
G2 X57.577 Y-112.021 I4.289 J4.683
G1 X57.138 Y-111.576
G2 X56.922 Y-111.346 I4.521 J4.459
G1 X56.497 Y-110.869
G2 X56.3 Y-110.637 I4.737 J4.229
G1 X55.887 Y-110.128
G2 X55.704 Y-109.891 I4.934 J3.997
G1 X55.305 Y-109.348
G2 X55.145 Y-109.119 I5.117 J3.76
G1 X54.759 Y-108.543
G2 X54.61 Y-108.308 I5.278 J3.531
G1 X54.238 Y-107.696
G2 X54.109 Y-107.474 I5.427 J3.296
G1 X53.751 Y-106.827
G2 X53.635 Y-106.607 I5.556 J3.074
G1 X53.29 Y-105.923
G2 X53.188 Y-105.71 I5.673 J2.854
G1 X52.858 Y-104.988
G2 X52.77 Y-104.786 I5.775 J2.641
G1 X52.454 Y-104.026
G2 X52.377 Y-103.833 I5.863 J2.439
G1 X52.075 Y-103.034
G2 X52.008 Y-102.849 I5.939 J2.246
G1 X51.72 Y-102.009
G2 X51.663 Y-101.836 I6.006 J2.061
G1 X51.389 Y-100.955
G2 X51.341 Y-100.791 I6.063 J1.887
G1 X51.081 Y-99.869
G2 X51.039 Y-99.713 I6.112 J1.722
G1 X50.794 Y-98.749
G2 X50.758 Y-98.604 I6.154 J1.567
G1 X50.527 Y-97.597
G2 X50.497 Y-97.46 I6.189 J1.421
G1 X50.28 Y-96.409
G2 X50.255 Y-96.28 I6.219 J1.284
G1 X50.053 Y-95.185
G2 X50.032 Y-95.064 I6.244 J1.155
G1 X49.843 Y-93.923
G2 X49.826 Y-93.811 I6.265 J1.034
G1 X49.652 Y-92.625
G2 X49.637 Y-92.518 I6.283 J0.922
G1 X49.477 Y-91.286
G2 X49.465 Y-91.187 I6.297 J0.816
G1 X49.32 Y-89.907
G2 X49.31 Y-89.814 I6.309 J0.717
G1 X49.179 Y-88.486
G2 X49.171 Y-88.4 I6.319 J0.624
G1 X49.054 Y-87.024
G2 X49.048 Y-86.943 I6.327 J0.537
G1 X48.945 Y-85.518
G2 X48.94 Y-85.442 I6.334 J0.455
G1 X48.852 Y-83.969
G2 X48.848 Y-83.898 I6.339 J0.379
G1 X48.774 Y-82.375
G2 X48.772 Y-82.308 I6.343 J0.308
G1 X48.712 Y-80.735
G2 X48.71 Y-80.672 I6.345 J0.24
G1 X48.665 Y-79.05
G2 X48.663 Y-78.99 I6.348 J0.177
G1 X48.632 Y-77.317
G2 Y-77.261 I6.349 J0.117
G1 X48.615 Y-75.538
G2 Y-75.485 I6.35 J0.062
G1 X48.612 Y-73.711
G2 Y-73.661 I6.35 J0.009
G1 X48.624 Y-71.835
G2 X48.625 Y-71.788 I6.35 J-0.041
G1 X48.651 Y-69.912
G2 Y-69.867 I6.349 J-0.088
G1 X48.691 Y-67.99
G2 X48.692 Y-67.943 I6.349 J-0.133
G1 X48.744 Y-66.119
G2 X48.745 Y-66.069 I6.347 J-0.181
G1 X48.81 Y-64.296
G2 X48.812 Y-64.243 I6.346 J-0.23
G1 X48.889 Y-62.521
G2 X48.892 Y-62.465 I6.344 J-0.283
G1 X48.981 Y-60.794
G2 X48.984 Y-60.735 I6.341 J-0.339
G1 X49.086 Y-59.115
G2 X49.091 Y-59.052 I6.337 J-0.398
G1 X49.205 Y-57.482
G2 X49.21 Y-57.415 I6.333 J-0.462
G1 X49.337 Y-55.896
G2 X49.343 Y-55.825 I6.328 J-0.529
G1 X49.483 Y-54.356
G2 X49.491 Y-54.279 I6.322 J-0.6
G1 X49.643 Y-52.86
G2 X49.652 Y-52.779 I6.314 J-0.676
G1 X49.817 Y-51.408
G2 X49.828 Y-51.322 I6.305 J-0.758
G1 X50.005 Y-50
G2 X50.018 Y-49.908 I6.294 J-0.844
G1 X50.208 Y-48.634
G2 X50.223 Y-48.534 I6.281 J-0.936
G1 X50.426 Y-47.308
G2 X50.444 Y-47.203 I6.265 J-1.035
G1 X50.66 Y-46.023
G2 X50.681 Y-45.911 I6.247 J-1.14
G1 X50.909 Y-44.778
G2 X50.935 Y-44.658 I6.225 J-1.252
G1 X51.175 Y-43.57
G2 X51.205 Y-43.443 I6.2 J-1.373
G1 X51.459 Y-42.4
G2 X51.493 Y-42.264 I6.17 J-1.5
G1 X51.759 Y-41.266
G2 X51.8 Y-41.121 I6.136 J-1.636
G1 X52.079 Y-40.166
G2 X52.126 Y-40.012 I6.095 J-1.78
G1 X52.417 Y-39.1
G2 X52.472 Y-38.938 I6.048 J-1.934
G1 X52.776 Y-38.068
G2 X52.84 Y-37.895 I5.994 J-2.097
G1 X53.157 Y-37.066
G2 X53.229 Y-36.885 I5.93 J-2.27
G1 X53.559 Y-36.097
G2 X53.643 Y-35.905 I5.858 J-2.451
G1 X53.986 Y-35.157
G2 X54.081 Y-34.958 I5.774 J-2.643
G1 X54.436 Y-34.248
G2 X54.545 Y-34.04 I5.679 J-2.841
G1 X54.913 Y-33.368
G2 X55.036 Y-33.153 I5.569 J-3.05
G1 X55.417 Y-32.518
G2 X55.555 Y-32.298 I5.446 J-3.265
G1 X55.948 Y-31.7
G2 X56.103 Y-31.475 I5.308 J-3.485
G1 X56.508 Y-30.912
G2 X56.681 Y-30.683 I5.153 J-3.711
G1 X57.098 Y-30.155
G2 X57.287 Y-29.928 I4.98 J-3.939
G1 X57.717 Y-29.433
G2 X57.923 Y-29.208 I4.792 J-4.167
G1 X58.365 Y-28.746
G2 X58.587 Y-28.525 I4.586 J-4.392
G1 X59.042 Y-28.095
G2 X59.278 Y-27.883 I4.363 J-4.613
G1 X59.744 Y-27.484
G2 X59.995 Y-27.281 I4.127 J-4.826
G1 X60.473 Y-26.912
G2 X60.734 Y-26.721 I3.876 J-5.03
G1 X61.224 Y-26.382
G2 X61.495 Y-26.205 I3.615 J-5.221
G1 X61.996 Y-25.894
G2 X62.27 Y-25.733 I3.344 J-5.398
G1 X62.783 Y-25.45
G2 X63.062 Y-25.305 I3.07 J-5.559
G1 X63.586 Y-25.049
G2 X63.864 Y-24.921 I2.79 J-5.704
G1 X64.398 Y-24.691
G2 X64.674 Y-24.58 I2.512 J-5.832
G1 X65.219 Y-24.375
G2 X65.491 Y-24.279 I2.236 J-5.943
G1 X66.046 Y-24.099
G2 X66.31 Y-24.019 I1.965 J-6.038
G1 X66.876 Y-23.862
G2 X67.13 Y-23.797 I1.701 J-6.118
G1 X67.706 Y-23.662
G2 X67.952 Y-23.609 I1.448 J-6.183
G1 X68.537 Y-23.496
G2 X68.77 Y-23.456 I1.202 J-6.235
G1 X69.365 Y-23.364
G2 X69.588 Y-23.334 I0.969 J-6.276
G1 X70.192 Y-23.262
G2 X70.404 Y-23.241 I0.746 J-6.306
G1 X71.016 Y-23.189
G2 X71.215 Y-23.175 I0.535 J-6.327
G1 X71.837 Y-23.142
G2 X72.114 Y-23.134 I0.336 J-6.341
G1 X73.38 Y-23.122
G2 X73.715 Y-23.128 I0.058 J-6.35
G1 X75.008 Y-23.184
G2 X75.307 Y-23.205 I-0.277 J-6.344
G1 X76.625 Y-23.325
G2 X76.892 Y-23.355 I-0.576 J-6.324
G1 X78.23 Y-23.534
G2 X78.471 Y-23.571 I-0.843 J-6.294
G1 X79.825 Y-23.806
G2 X80.045 Y-23.848 I-1.085 J-6.257
G1 X81.409 Y-24.134
G2 X81.615 Y-24.181 I-1.305 J-6.214
G1 X82.985 Y-24.516
G2 X83.178 Y-24.567 I-1.511 J-6.168
G1 X84.549 Y-24.949
G2 X84.733 Y-25.003 I-1.704 J-6.117
G1 X86.1 Y-25.429
G2 X86.279 Y-25.488 I-1.889 J-6.063
G1 X87.636 Y-25.955
G2 X87.812 Y-26.018 I-2.068 J-6.004
G1 X89.154 Y-26.526
G2 X89.328 Y-26.594 I-2.244 J-5.94
G1 X90.652 Y-27.139
G2 X90.827 Y-27.214 I-2.418 J-5.872
G1 X92.127 Y-27.796
G2 X92.302 Y-27.877 I-2.592 J-5.797
G1 X93.574 Y-28.493
G2 X93.751 Y-28.582 I-2.768 J-5.715
G1 X94.992 Y-29.232
G2 X95.169 Y-29.328 I-2.944 J-5.626
G1 X96.376 Y-30.009
G2 X96.555 Y-30.115 I-3.122 J-5.53
G1 X97.724 Y-30.826
G2 X97.903 Y-30.939 I-3.302 J-5.424
G1 X99.033 Y-31.68
G2 X99.21 Y-31.8 I-3.48 J-5.311
G1 X100.299 Y-32.568
G2 X100.474 Y-32.695 I-3.658 J-5.191
G1 X101.521 Y-33.488
G2 X101.689 Y-33.619 I-3.833 J-5.063
G1 X102.696 Y-34.436
G2 X102.854 Y-34.569 I-4 J-4.932
G1 X103.821 Y-35.407
G2 X103.967 Y-35.537 I-4.158 J-4.799
G1 X104.897 Y-36.394
G2 X105.025 Y-36.516 I-4.305 J-4.668
G1 X105.921 Y-37.389
G2 X106.032 Y-37.5 I-4.433 J-4.547
G1 X106.898 Y-38.388
G2 X107.013 Y-38.508 I-4.544 J-4.436
G1 X108.682 Y-40.31
G2 X108.742 Y-40.376 I-4.659 J-4.315
G1 X110.358 Y-42.171
X111.131 Y-43.015
X111.884 Y-43.812
X112.626 Y-44.559
X113.37 Y-45.259
X114.126 Y-45.915
X114.757 Y-46.414
X114.937 Y-46.556 Z0.992 F400.3
X115.306 Y-46.825 Z0.976
X115.722 Y-47.11 Z0.958
X116.152 Y-47.389 Z0.941
X116.599 Y-47.66 Z0.922
X117.063 Y-47.923 Z0.904
X117.55 Y-48.181 Z0.884
X118.063 Y-48.433 Z0.864
X118.594 Y-48.676 Z0.844
X119.273 Y-48.96 Z0.818
X119.99 Y-49.232 Z0.792
X120.756 Y-49.495 Z0.763
X121.572 Y-49.747 Z0.734
X122.442 Y-49.987 Z0.702
X123.369 Y-50.213 Z0.669
X124.354 Y-50.426 Z0.633
X125.402 Y-50.623 Z0.596
X126.511 Y-50.803 Z0.557
X127.684 Y-50.966 Z0.516
X128.922 Y-51.11 Z0.472
X130.226 Y-51.235 Z0.426
X131.595 Y-51.339 Z0.378
X133.032 Y-51.422 Z0.328
X134.535 Y-51.483 Z0.276
X136.104 Y-51.523 Z0.221
X137.633 Y-51.538 Z0.167
X139.102 Y-51.53 Z0.116
X140.508 Y-51.5 Z0.067
X141.851 Y-51.447 Z0.02
X143.132 Y-51.373 Z-0.025
X144.351 Y-51.277 Z-0.067
X145.51 Y-51.162 Z-0.108
X146.607 Y-51.028 Z-0.147
X147.646 Y-50.875 Z-0.183
X148.629 Y-50.706 Z-0.218
X149.554 Y-50.521 Z-0.251
X150.425 Y-50.321 Z-0.282
X151.245 Y-50.108 Z-0.312
X152.015 Y-49.882 Z-0.34
X152.74 Y-49.645 Z-0.367
X153.421 Y-49.398 Z-0.392
X154.061 Y-49.142 Z-0.416
X154.665 Y-48.876 Z-0.439
X155.238 Y-48.6 Z-0.461
X155.783 Y-48.315 Z-0.483
X156.3 Y-48.022 Z-0.503
X156.798 Y-47.718 Z-0.524
X157.279 Y-47.402 Z-0.544
X157.743 Y-47.077 Z-0.564
X158.201 Y-46.736 Z-0.584
X158.62 Y-46.406 Z-0.602
X159.536 Y-45.628 Z-0.644
X160.418 Y-44.815 Z-0.686
X161.302 Y-43.949 Z-0.729
X163.202 Y-41.997 Z-0.824
G2 X163.216 Y-41.983 Z-0.825 I4.551 J-4.428
G1 X165.181 Y-39.976 Z-0.923
G2 X165.296 Y-39.861 Z-0.929 I4.537 J-4.442
G1 X166.314 Y-38.873 Z-0.978
G2 X166.433 Y-38.76 Z-0.984 I4.422 J-4.557
G1 X167.486 Y-37.79 Z-1.034
G2 X167.636 Y-37.656 Z-1.041 I4.303 J-4.67
G1 X168.732 Y-36.709 Z-1.092
G2 X168.903 Y-36.565 Z-1.1 I4.153 J-4.803
G1 X170.047 Y-35.645 Z-1.151
G2 X170.234 Y-35.499 Z-1.159 I3.982 J-4.946
G1 X171.429 Y-34.609 Z-1.211
G2 X171.629 Y-34.466 Z-1.22 I3.795 J-5.092
G1 X172.877 Y-33.609 Z-1.273
G2 X173.086 Y-33.472 Z-1.281 I3.595 J-5.235
G1 X174.388 Y-32.651 Z-1.335
G2 X174.595 Y-32.526 Z-1.344 I3.386 J-5.372
G1 X175.947 Y-31.744 Z-1.398
G2 X176.158 Y-31.627 Z-1.407 I3.179 J-5.497
G1 X177.559 Y-30.886 Z-1.462
G2 X177.767 Y-30.781 Z-1.47 I2.968 J-5.614
G1 X179.213 Y-30.083 Z-1.526
G2 X179.42 Y-29.988 Z-1.534 I2.76 J-5.719
G1 X180.906 Y-29.335 Z-1.591
G2 X181.108 Y-29.251 Z-1.598 I2.553 J-5.814
G1 X182.627 Y-28.645 Z-1.655
G2 X182.83 Y-28.568 Z-1.663 I2.351 J-5.899
G1 X184.377 Y-28.012 Z-1.72
G2 X184.581 Y-27.943 Z-1.728 I2.148 J-5.976
G1 X186.149 Y-27.439 Z-1.785
G2 X186.355 Y-27.376 Z-1.793 I1.944 J-6.045
G1 X187.936 Y-26.927 Z-1.85
G2 X188.148 Y-26.87 Z-1.858 I1.738 J-6.108
G1 X189.735 Y-26.477 Z-1.915
G2 X189.957 Y-26.427 Z-1.923 I1.526 J-6.164
G1 X191.541 Y-26.094 Z-1.98
G2 X191.779 Y-26.049 Z-1.988 I1.304 J-6.215
G1 X192.115 Y-25.992 Z-2
X193.353 Y-25.781 F849.6
G2 X193.611 Y-25.742 I1.066 J-6.26
G1 X195.167 Y-25.543
G2 X195.38 Y-25.519 I0.808 J-6.298
G1 X196.15 Y-25.447
G2 X196.301 Y-25.434 I0.595 J-6.322
G1 X197.063 Y-25.381
G2 X197.225 Y-25.372 I0.444 J-6.334
G1 X197.979 Y-25.338
G2 X198.15 Y-25.333 I0.282 J-6.344
G1 X198.895 Y-25.32
G2 X199.08 Y-25.319 I0.111 J-6.349
G1 X199.816 Y-25.328
G2 X200.012 Y-25.333 I-0.074 J-6.35
G1 X200.738 Y-25.364
G2 X200.948 Y-25.377 I-0.27 J-6.344
G1 X201.663 Y-25.431
G2 X201.888 Y-25.452 I-0.48 J-6.332
G1 X202.591 Y-25.53
G2 X202.828 Y-25.562 I-0.705 J-6.311
G1 X203.519 Y-25.665
G2 X203.774 Y-25.709 I-0.942 J-6.28
G1 X204.452 Y-25.839
G2 X204.721 Y-25.896 I-1.197 J-6.236
G1 X205.385 Y-26.054
G2 X205.664 Y-26.127 I-1.466 J-6.179
G1 X206.315 Y-26.313
G2 X206.607 Y-26.404 I-1.745 J-6.105
G1 X207.244 Y-26.62
G2 X207.549 Y-26.732 I-2.037 J-6.014
G1 X208.171 Y-26.979
G2 X208.484 Y-27.113 I-2.342 J-5.902
G1 X209.09 Y-27.392
G2 X209.399 Y-27.544 I-2.655 J-5.768
G1 X209.991 Y-27.856
G2 X210.308 Y-28.036 I-2.964 J-5.616
G1 X210.883 Y-28.383
G2 X211.191 Y-28.581 I-3.281 J-5.437
G1 X211.75 Y-28.964
G2 X212.052 Y-29.184 I-3.589 J-5.238
G1 X212.594 Y-29.605
G2 X212.877 Y-29.837 I-3.891 J-5.018
G1 X213.403 Y-30.296
G2 X213.673 Y-30.546 I-4.174 J-4.785
G1 X214.182 Y-31.045
G2 X214.435 Y-31.308 I-4.444 J-4.536
G1 X214.926 Y-31.847
G2 X215.154 Y-32.111 I-4.697 J-4.273
G1 X215.628 Y-32.694
G2 X215.836 Y-32.964 I-4.925 J-4.009
G1 X216.292 Y-33.591
G2 X216.477 Y-33.858 I-5.133 J-3.738
G1 X216.915 Y-34.53
G2 X217.078 Y-34.793 I-5.318 J-3.47
G1 X217.498 Y-35.51
G2 X217.636 Y-35.759 I-5.481 J-3.207
G1 X218.039 Y-36.524
G2 X218.166 Y-36.78 I-5.619 J-2.959
G1 X218.549 Y-37.595
G2 X218.651 Y-37.822 I-5.746 J-2.702
G1 X219.017 Y-38.686
G2 X219.107 Y-38.913 I-5.848 J-2.475
G1 X219.454 Y-39.829
G2 X219.531 Y-40.042 I-5.938 J-2.249
G1 X219.859 Y-41.01
G2 X219.921 Y-41.205 I-6.015 J-2.036
G1 X220.231 Y-42.227
G2 X220.284 Y-42.414 I-6.077 J-1.842
G1 X220.575 Y-43.492
G2 X220.62 Y-43.666 I-6.13 J-1.655
G1 X220.892 Y-44.8
G2 X220.928 Y-44.962 I-6.175 J-1.481
G1 X221.181 Y-46.154
G2 X221.211 Y-46.299 I-6.211 J-1.319
G1 X221.446 Y-47.549
G2 X221.47 Y-47.689 I-6.241 J-1.174
G1 X221.686 Y-48.998
G2 X221.706 Y-49.127 I-6.265 J-1.034
G1 X221.903 Y-50.497
G2 X221.919 Y-50.617 I-6.285 J-0.904
G1 X222.097 Y-52.048
G2 X222.11 Y-52.159 I-6.301 J-0.784
G1 X222.269 Y-53.652
G2 X222.279 Y-53.751 I-6.314 J-0.672
G1 X222.42 Y-55.307
G2 X222.428 Y-55.407 I-6.324 J-0.573
G1 X222.549 Y-57.027
G2 X222.555 Y-57.112 I-6.332 J-0.473
G1 X222.658 Y-58.796
G2 X222.663 Y-58.879 I-6.338 J-0.388
G1 X222.747 Y-60.629
G2 X222.75 Y-60.706 I-6.343 J-0.305
G1 X222.815 Y-62.521
G2 X222.817 Y-62.589 I-6.346 J-0.227
G1 X222.864 Y-64.47
G2 X222.865 Y-64.541 I-6.348 J-0.159
G1 X222.892 Y-66.488
G2 X222.893 Y-66.548 I-6.349 J-0.088
G1 X222.902 Y-68.562
G2 Y-68.62 I-6.35 J-0.028
G1 X222.892 Y-70.702
G2 X222.891 Y-70.757 I-6.35 J0.031
G1 X222.862 Y-72.905
G2 Y-72.955 I-6.349 J0.086
G1 X222.816 Y-75.103
G2 X222.814 Y-75.159 I-6.349 J0.136
G1 X222.751 Y-77.24
G2 X222.749 Y-77.296 I-6.347 J0.192
G1 X222.67 Y-79.309
G2 X222.667 Y-79.37 I-6.345 J0.249
G1 X222.572 Y-81.315
G2 X222.569 Y-81.383 I-6.342 J0.31
G1 X222.457 Y-83.261
G2 X222.452 Y-83.334 I-6.339 J0.378
G1 X222.323 Y-85.145
G2 X222.317 Y-85.22 I-6.334 J0.451
G1 X222.172 Y-86.965
G2 X222.165 Y-87.045 I-6.328 J0.526
G1 X222.004 Y-88.725
G2 X221.995 Y-88.815 I-6.321 J0.606
G1 X221.817 Y-90.429
G2 X221.805 Y-90.526 I-6.312 J0.696
G1 X221.61 Y-92.076
G2 X221.597 Y-92.175 I-6.3 J0.793
G1 X221.386 Y-93.662
G2 X221.369 Y-93.774 I-6.287 J0.892
G1 X221.141 Y-95.197
G2 X221.121 Y-95.318 I-6.27 J1.004
G1 X220.876 Y-96.679
G2 X220.852 Y-96.804 I-6.25 J1.124
G1 X220.591 Y-98.105
G2 X220.561 Y-98.244 I-6.226 J1.249
G1 X220.283 Y-99.485
G2 X220.248 Y-99.634 I-6.196 J1.388
G1 X219.953 Y-100.816
G2 X219.91 Y-100.977 I-6.161 J1.538
G1 X219.598 Y-102.101
G2 X219.55 Y-102.268 I-6.118 J1.699
G1 X219.222 Y-103.335
G2 X219.16 Y-103.525 I-6.07 J1.866
G1 X218.814 Y-104.536
G2 X218.747 Y-104.721 I-6.008 J2.056
G1 X218.386 Y-105.678
G2 X218.301 Y-105.892 I-5.941 J2.241
G1 X217.922 Y-106.796
G2 X217.826 Y-107.014 I-5.856 J2.455
G1 X217.431 Y-107.865
G2 X217.316 Y-108.099 I-5.76 J2.673
G1 X216.904 Y-108.899
G2 X216.773 Y-109.142 I-5.645 J2.907
G1 X216.344 Y-109.893
G2 X216.195 Y-110.139 I-5.514 J3.15
G1 X215.75 Y-110.842
G2 X215.578 Y-111.101 I-5.365 J3.396
G1 X215.117 Y-111.756
G2 X214.922 Y-112.018 I-5.193 J3.655
G1 X214.444 Y-112.628
G2 X214.23 Y-112.887 I-4.998 J3.917
G1 X213.736 Y-113.453
G2 X213.494 Y-113.715 I-4.784 J4.176
G1 X212.984 Y-114.237
G2 X212.727 Y-114.485 I-4.542 J4.438
G1 X212.201 Y-114.966
G2 X211.923 Y-115.206 I-4.285 J4.686
G1 X211.382 Y-115.646
G2 X211.085 Y-115.873 I-4.007 J4.926
G1 X210.528 Y-116.274
G2 X210.22 Y-116.482 I-3.71 J5.153
G1 X209.648 Y-116.845
G2 X209.336 Y-117.031 I-3.402 J5.361
G1 X208.749 Y-117.358
G2 X208.423 Y-117.528 I-3.09 J5.547
G1 X207.821 Y-117.819
G2 X207.51 Y-117.959 I-2.764 J5.717
G1 X206.894 Y-118.217
G2 X206.577 Y-118.34 I-2.453 J5.857
G1 X205.947 Y-118.565
G2 X205.637 Y-118.667 I-2.136 J5.98
G1 X204.994 Y-118.86
G2 X204.706 Y-118.939 I-1.826 J6.082
G1 X204.049 Y-119.103
G2 X203.756 Y-119.169 I-1.538 J6.161
G1 X203.086 Y-119.303
G2 X202.816 Y-119.351 I-1.245 J6.227
G1 X202.134 Y-119.457
G2 X201.886 Y-119.49 I-0.975 J6.275
G1 X201.192 Y-119.57
G2 X200.949 Y-119.594 I-0.727 J6.308
G1 X200.243 Y-119.648
G2 X200.016 Y-119.661 I-0.484 J6.332
G1 X199.3 Y-119.69
G2 X199.087 Y-119.695 I-0.257 J6.345
G1 X198.361 Y-119.7
G2 X198.17 Y-119.698 I-0.044 J6.35
G1 X197.434 Y-119.681
G2 X197.249 Y-119.674 I0.147 J6.348
G1 X196.504 Y-119.635
G2 X196.339 Y-119.625 I0.332 J6.341
G1 X195.587 Y-119.566
G2 X195.419 Y-119.55 I0.497 J6.331
G1 X194.659 Y-119.47
G2 X194.502 Y-119.452 I0.665 J6.315
G1 X193.736 Y-119.352
G2 X193.534 Y-119.322 I0.822 J6.297
G1 X191.985 Y-119.069
G2 X191.725 Y-119.021 I1.024 J6.267
G1 X190.161 Y-118.698
G2 X189.922 Y-118.644 I1.284 J6.219
G1 X188.351 Y-118.256
G2 X188.134 Y-118.198 I1.523 J6.165
G1 X186.562 Y-117.75
G2 X186.354 Y-117.687 I1.74 J6.107
G1 X184.79 Y-117.183
G2 X184.582 Y-117.112 I1.948 J6.044
G1 X183.033 Y-116.553
G2 X182.833 Y-116.477 I2.156 J5.973
G1 X181.306 Y-115.867
G2 X181.108 Y-115.784 I2.356 J5.897
G1 X179.61 Y-115.126
G2 X179.409 Y-115.033 I2.554 J5.814
G1 X177.947 Y-114.329
G2 X177.746 Y-114.228 I2.755 J5.721
G1 X176.326 Y-113.481
G2 X176.119 Y-113.367 I2.956 J5.62
G1 X174.744 Y-112.577
G2 X174.54 Y-112.455 I3.163 J5.506
G1 X173.216 Y-111.627
G2 X173.009 Y-111.492 I3.367 J5.384
G1 X171.737 Y-110.626
G2 X171.537 Y-110.484 I3.574 J5.249
G1 X170.319 Y-109.584
G2 X170.122 Y-109.432 I3.774 J5.107
G1 X168.959 Y-108.5
G2 X168.778 Y-108.35 I3.971 J4.955
G1 X167.667 Y-107.39
G2 X167.501 Y-107.241 I4.152 J4.805
G1 X166.439 Y-106.256
G2 X166.294 Y-106.117 I4.318 J4.656
G1 X165.275 Y-105.11
G2 X165.158 Y-104.991 I4.463 J4.517
G1 X164.176 Y-103.968
G2 X164.066 Y-103.852 I4.58 J4.398
G1 X162.172 Y-101.777
G2 X162.161 Y-101.764 I4.69 J4.281
G1 X160.328 Y-99.745
X159.474 Y-98.848
X158.622 Y-98.006
X157.732 Y-97.195
X157.324 Y-96.85
X156.882 Y-96.496
X156.427 Y-96.153
X155.958 Y-95.822
X155.473 Y-95.501
X154.963 Y-95.188
X154.429 Y-94.884
X153.869 Y-94.59
X153.273 Y-94.303
X152.641 Y-94.024
X151.97 Y-93.753
X151.255 Y-93.491
X150.493 Y-93.239
X149.681 Y-92.997
X148.816 Y-92.767
X147.898 Y-92.55
X146.923 Y-92.347
X145.889 Y-92.158
X144.796 Y-91.985
X143.643 Y-91.83
X142.429 Y-91.692
X141.151 Y-91.573
X139.81 Y-91.473
X138.407 Y-91.393
X136.939 Y-91.334
X135.41 Y-91.297
X133.84 Y-91.281
X132.336 Y-91.29
X130.897 Y-91.323
X129.525 Y-91.379
X128.218 Y-91.458
X126.976 Y-91.559
X125.798 Y-91.681
X124.683 Y-91.822
X123.63 Y-91.983
X122.637 Y-92.161
X121.703 Y-92.355
X120.824 Y-92.564
X119.999 Y-92.787
X119.226 Y-93.023
X118.501 Y-93.27
X117.811 Y-93.531
X117.271 Y-93.755
X116.75 Y-93.989
X116.256 Y-94.229
X115.781 Y-94.477
X115.326 Y-94.731
X114.888 Y-94.994
X114.462 Y-95.265
X114.083 Y-95.522
X113.248 Y-96.134
X112.472 Y-96.762
X111.705 Y-97.436
X110.934 Y-98.159
X110.153 Y-98.928
X109.354 Y-99.744
X107.674 Y-101.482
G2 X107.613 Y-101.544 I-4.567 J4.412
G1 X105.883 Y-103.287
G2 X105.762 Y-103.406 I-4.506 J4.474
G1 X104.865 Y-104.262
G2 X104.753 Y-104.366 I-4.385 J4.593
G1 X103.828 Y-105.208
G2 X103.693 Y-105.328 I-4.273 J4.697
G1 X102.734 Y-106.152
G2 X102.585 Y-106.275 I-4.138 J4.817
G1 X101.589 Y-107.079
G2 X101.422 Y-107.209 I-3.989 J4.94
G1 X100.388 Y-107.989
G2 X100.219 Y-108.113 I-3.823 J5.07
G1 X99.144 Y-108.869
G2 X98.966 Y-108.99 I-3.654 J5.194
G1 X97.851 Y-109.719
G2 X97.671 Y-109.832 I-3.475 J5.315
G1 X96.516 Y-110.533
G2 X96.33 Y-110.642 I-3.295 J5.428
G1 X95.137 Y-111.312
G2 X94.956 Y-111.409 I-3.109 J5.537
G1 X93.727 Y-112.048
G2 X93.542 Y-112.141 I-2.929 J5.634
G1 X92.279 Y-112.746
G2 X92.104 Y-112.826 I-2.744 J5.727
G1 X90.811 Y-113.398
G2 X90.628 Y-113.476 I-2.569 J5.807
G1 X89.309 Y-114.011
G2 X89.136 Y-114.078 I-2.386 J5.885
G1 X87.795 Y-114.577
G2 X87.616 Y-114.64 I-2.214 J5.952
G1 X86.257 Y-115.1
G2 X86.076 Y-115.158 I-2.035 J6.015
G1 X84.703 Y-115.577
G2 X84.526 Y-115.629 I-1.854 J6.073
G1 X83.146 Y-116.007
G2 X82.959 Y-116.055 I-1.677 J6.125
G1 X81.576 Y-116.389
G2 X81.378 Y-116.433 I-1.491 J6.173
G1 X79.997 Y-116.72
G2 X79.794 Y-116.759 I-1.292 J6.217
G1 X78.42 Y-116.998
G2 X78.196 Y-117.033 I-1.089 J6.256
G1 X76.836 Y-117.22
G2 X76.597 Y-117.248 I-0.865 J6.291
G1 X75.254 Y-117.381
G2 X74.983 Y-117.402 I-0.626 J6.319
G1 X73.662 Y-117.476
G2 X73.361 Y-117.486 I-0.355 J6.34
G1 X72.066 Y-117.497
G2 X71.731 Y-117.491 I-0.054 J6.35
G1 X70.467 Y-117.435
G2 X70.196 Y-117.417 I0.281 J6.344
G1 X69.577 Y-117.363
G2 X69.364 Y-117.341 I0.551 J6.326
G1 X68.754 Y-117.267
G2 X68.557 Y-117.24 I0.764 J6.304
G1 X67.956 Y-117.148
G2 X67.725 Y-117.108 I0.961 J6.277
G1 X67.134 Y-116.995
G2 X66.909 Y-116.948 I1.192 J6.237
G1 X66.328 Y-116.815
G2 X66.08 Y-116.753 I1.416 J6.19
G1 X65.509 Y-116.598
G2 X65.26 Y-116.525 I1.664 J6.128
G1 X64.699 Y-116.348
G2 X64.439 Y-116.26 I1.913 J6.055
G1 X63.89 Y-116.06
G2 X63.622 Y-115.955 I2.173 J5.967
G1 X63.084 Y-115.731
G2 X62.81 Y-115.609 I2.442 J5.862
G1 X62.283 Y-115.36
G2 X62.014 Y-115.225 I2.716 J5.74
G1 X61.5 Y-114.951
G2 X61.221 Y-114.793 I2.985 J5.605
G1 X60.719 Y-114.492
G2 X60.45 Y-114.322 I3.264 J5.447
G1 X59.96 Y-113.994
G2 X59.697 Y-113.808 I3.532 J5.277
G1 X59.22 Y-113.452
G2 X58.965 Y-113.251 I3.795 J5.091
G1 X58.5 Y-112.866
G2 X58.261 Y-112.659 I4.051 J4.89
G1 X57.809 Y-112.245
G2 X57.577 Y-112.021 I4.289 J4.683
G1 X57.138 Y-111.576
G2 X56.922 Y-111.346 I4.521 J4.459
G1 X56.497 Y-110.869
G2 X56.3 Y-110.637 I4.737 J4.229
G1 X55.887 Y-110.128
G2 X55.704 Y-109.891 I4.934 J3.997
G1 X55.305 Y-109.348
G2 X55.145 Y-109.119 I5.117 J3.76
G1 X54.759 Y-108.543
G2 X54.61 Y-108.308 I5.278 J3.531
G1 X54.238 Y-107.696
G2 X54.109 Y-107.474 I5.427 J3.296
G1 X53.751 Y-106.827
G2 X53.635 Y-106.607 I5.556 J3.074
G1 X53.29 Y-105.923
G2 X53.188 Y-105.71 I5.673 J2.854
G1 X52.858 Y-104.988
G2 X52.77 Y-104.786 I5.775 J2.641
G1 X52.454 Y-104.026
G2 X52.377 Y-103.833 I5.863 J2.439
G1 X52.075 Y-103.034
G2 X52.008 Y-102.849 I5.939 J2.246
G1 X51.72 Y-102.009
G2 X51.663 Y-101.836 I6.006 J2.061
G1 X51.389 Y-100.955
G2 X51.341 Y-100.791 I6.063 J1.887
G1 X51.081 Y-99.869
G2 X51.039 Y-99.713 I6.112 J1.722
G1 X50.794 Y-98.749
G2 X50.758 Y-98.604 I6.154 J1.567
G1 X50.527 Y-97.597
G2 X50.497 Y-97.46 I6.189 J1.421
G1 X50.28 Y-96.409
G2 X50.255 Y-96.28 I6.219 J1.284
G1 X50.053 Y-95.185
G2 X50.032 Y-95.064 I6.244 J1.155
G1 X49.843 Y-93.923
G2 X49.826 Y-93.811 I6.265 J1.034
G1 X49.652 Y-92.625
G2 X49.637 Y-92.518 I6.283 J0.922
G1 X49.477 Y-91.286
G2 X49.465 Y-91.187 I6.297 J0.816
G1 X49.32 Y-89.907
G2 X49.31 Y-89.814 I6.309 J0.717
G1 X49.179 Y-88.486
G2 X49.171 Y-88.4 I6.319 J0.624
G1 X49.054 Y-87.024
G2 X49.048 Y-86.943 I6.327 J0.537
G1 X48.945 Y-85.518
G2 X48.94 Y-85.442 I6.334 J0.455
G1 X48.852 Y-83.969
G2 X48.848 Y-83.898 I6.339 J0.379
G1 X48.774 Y-82.375
G2 X48.772 Y-82.308 I6.343 J0.308
G1 X48.712 Y-80.735
G2 X48.71 Y-80.672 I6.345 J0.24
G1 X48.665 Y-79.05
G2 X48.663 Y-78.99 I6.348 J0.177
G1 X48.632 Y-77.317
G2 Y-77.261 I6.349 J0.117
G1 X48.615 Y-75.538
G2 Y-75.485 I6.35 J0.062
G1 X48.612 Y-73.711
G2 Y-73.661 I6.35 J0.009
G1 X48.624 Y-71.835
G2 X48.625 Y-71.788 I6.35 J-0.041
G1 X48.651 Y-69.912
G2 Y-69.867 I6.349 J-0.088
G1 X48.691 Y-67.99
G2 X48.692 Y-67.943 I6.349 J-0.133
G1 X48.744 Y-66.119
G2 X48.745 Y-66.069 I6.347 J-0.181
G1 X48.81 Y-64.296
G2 X48.812 Y-64.243 I6.346 J-0.23
G1 X48.889 Y-62.521
G2 X48.892 Y-62.465 I6.344 J-0.283
G1 X48.981 Y-60.794
G2 X48.984 Y-60.735 I6.341 J-0.339
G1 X49.086 Y-59.115
G2 X49.091 Y-59.052 I6.337 J-0.398
G1 X49.205 Y-57.482
G2 X49.21 Y-57.415 I6.333 J-0.462
G1 X49.337 Y-55.896
G2 X49.343 Y-55.825 I6.328 J-0.529
G1 X49.483 Y-54.356
G2 X49.491 Y-54.279 I6.322 J-0.6
G1 X49.643 Y-52.86
G2 X49.652 Y-52.779 I6.314 J-0.676
G1 X49.817 Y-51.408
G2 X49.828 Y-51.322 I6.305 J-0.758
G1 X50.005 Y-50
G2 X50.018 Y-49.908 I6.294 J-0.844
G1 X50.208 Y-48.634
G2 X50.223 Y-48.534 I6.281 J-0.936
G1 X50.426 Y-47.308
G2 X50.444 Y-47.203 I6.265 J-1.035
G1 X50.66 Y-46.023
G2 X50.681 Y-45.911 I6.247 J-1.14
G1 X50.909 Y-44.778
G2 X50.935 Y-44.658 I6.225 J-1.252
G1 X51.175 Y-43.57
G2 X51.205 Y-43.443 I6.2 J-1.373
G1 X51.459 Y-42.4
G2 X51.493 Y-42.264 I6.17 J-1.5
G1 X51.759 Y-41.266
G2 X51.8 Y-41.121 I6.136 J-1.636
G1 X52.079 Y-40.166
G2 X52.126 Y-40.012 I6.095 J-1.78
G1 X52.417 Y-39.1
G2 X52.472 Y-38.938 I6.048 J-1.934
G1 X52.776 Y-38.068
G2 X52.84 Y-37.895 I5.994 J-2.097
G1 X53.157 Y-37.066
G2 X53.229 Y-36.885 I5.93 J-2.27
G1 X53.559 Y-36.097
G2 X53.643 Y-35.905 I5.858 J-2.451
G1 X53.986 Y-35.157
G2 X54.081 Y-34.958 I5.774 J-2.643
G1 X54.436 Y-34.248
G2 X54.545 Y-34.04 I5.679 J-2.841
G1 X54.913 Y-33.368
G2 X55.036 Y-33.153 I5.569 J-3.05
G1 X55.417 Y-32.518
G2 X55.555 Y-32.298 I5.446 J-3.265
G1 X55.948 Y-31.7
G2 X56.103 Y-31.475 I5.308 J-3.485
G1 X56.508 Y-30.912
G2 X56.681 Y-30.683 I5.153 J-3.711
G1 X57.098 Y-30.155
G2 X57.287 Y-29.928 I4.98 J-3.939
G1 X57.717 Y-29.433
G2 X57.923 Y-29.208 I4.792 J-4.167
G1 X58.365 Y-28.746
G2 X58.587 Y-28.525 I4.586 J-4.392
G1 X59.042 Y-28.095
G2 X59.278 Y-27.883 I4.363 J-4.613
G1 X59.744 Y-27.484
G2 X59.995 Y-27.281 I4.127 J-4.826
G1 X60.473 Y-26.912
G2 X60.734 Y-26.721 I3.876 J-5.03
G1 X61.224 Y-26.382
G2 X61.495 Y-26.205 I3.615 J-5.221
G1 X61.996 Y-25.894
G2 X62.27 Y-25.733 I3.344 J-5.398
G1 X62.783 Y-25.45
G2 X63.062 Y-25.305 I3.07 J-5.559
G1 X63.586 Y-25.049
G2 X63.864 Y-24.921 I2.79 J-5.704
G1 X64.398 Y-24.691
G2 X64.674 Y-24.58 I2.512 J-5.832
G1 X65.219 Y-24.375
G2 X65.491 Y-24.279 I2.236 J-5.943
G1 X66.046 Y-24.099
G2 X66.31 Y-24.019 I1.965 J-6.038
G1 X66.876 Y-23.862
G2 X67.13 Y-23.797 I1.701 J-6.118
G1 X67.706 Y-23.662
G2 X67.952 Y-23.609 I1.448 J-6.183
G1 X68.537 Y-23.496
G2 X68.77 Y-23.456 I1.202 J-6.235
G1 X69.365 Y-23.364
G2 X69.588 Y-23.334 I0.969 J-6.276
G1 X70.192 Y-23.262
G2 X70.404 Y-23.241 I0.746 J-6.306
G1 X71.016 Y-23.189
G2 X71.215 Y-23.175 I0.535 J-6.327
G1 X71.837 Y-23.142
G2 X72.114 Y-23.134 I0.336 J-6.341
G1 X73.38 Y-23.122
G2 X73.715 Y-23.128 I0.058 J-6.35
G1 X75.008 Y-23.184
G2 X75.307 Y-23.205 I-0.277 J-6.344
G1 X76.625 Y-23.325
G2 X76.892 Y-23.355 I-0.576 J-6.324
G1 X78.23 Y-23.534
G2 X78.471 Y-23.571 I-0.843 J-6.294
G1 X79.825 Y-23.806
G2 X80.045 Y-23.848 I-1.085 J-6.257
G1 X81.409 Y-24.134
G2 X81.615 Y-24.181 I-1.305 J-6.214
G1 X82.985 Y-24.516
G2 X83.178 Y-24.567 I-1.511 J-6.168
G1 X84.549 Y-24.949
G2 X84.733 Y-25.003 I-1.704 J-6.117
G1 X86.1 Y-25.429
G2 X86.279 Y-25.488 I-1.889 J-6.063
G1 X87.636 Y-25.955
G2 X87.812 Y-26.018 I-2.068 J-6.004
G1 X89.154 Y-26.526
G2 X89.328 Y-26.594 I-2.244 J-5.94
G1 X90.652 Y-27.139
G2 X90.827 Y-27.214 I-2.418 J-5.872
G1 X92.127 Y-27.796
G2 X92.302 Y-27.877 I-2.592 J-5.797
G1 X93.574 Y-28.493
G2 X93.751 Y-28.582 I-2.768 J-5.715
G1 X94.992 Y-29.232
G2 X95.169 Y-29.328 I-2.944 J-5.626
G1 X96.376 Y-30.009
G2 X96.555 Y-30.115 I-3.122 J-5.53
G1 X97.724 Y-30.826
G2 X97.903 Y-30.939 I-3.302 J-5.424
G1 X99.033 Y-31.68
G2 X99.21 Y-31.8 I-3.48 J-5.311
G1 X100.299 Y-32.568
G2 X100.474 Y-32.695 I-3.658 J-5.191
G1 X101.521 Y-33.488
G2 X101.689 Y-33.619 I-3.833 J-5.063
G1 X102.696 Y-34.436
G2 X102.854 Y-34.569 I-4 J-4.932
G1 X103.821 Y-35.407
G2 X103.967 Y-35.537 I-4.158 J-4.799
G1 X104.897 Y-36.394
G2 X105.025 Y-36.516 I-4.305 J-4.668
G1 X105.921 Y-37.389
G2 X106.032 Y-37.5 I-4.433 J-4.547
G1 X106.898 Y-38.388
G2 X107.013 Y-38.508 I-4.544 J-4.436
G1 X108.682 Y-40.31
G2 X108.742 Y-40.376 I-4.659 J-4.315
G1 X110.358 Y-42.171
X111.131 Y-43.015
X111.884 Y-43.812
X112.626 Y-44.559
X113.37 Y-45.259
X114.126 Y-45.915
X114.757 Y-46.414
X114.937 Y-46.556
X115.306 Y-46.825
X115.722 Y-47.11
X116.152 Y-47.389
X116.599 Y-47.66
X117.063 Y-47.923
X117.55 Y-48.181
X118.063 Y-48.433
X118.594 Y-48.676
X119.273 Y-48.96
X119.99 Y-49.232
X120.756 Y-49.495
X121.572 Y-49.747
X122.442 Y-49.987
X123.369 Y-50.213
X124.354 Y-50.426
X125.402 Y-50.623
X126.511 Y-50.803
X127.684 Y-50.966
X128.922 Y-51.11
X130.226 Y-51.235
X131.595 Y-51.339
X133.032 Y-51.422
X134.535 Y-51.483
X136.104 Y-51.523
X137.633 Y-51.538
X139.102 Y-51.53
X140.508 Y-51.5
X141.851 Y-51.447
X143.132 Y-51.373
X144.351 Y-51.277
X145.51 Y-51.162
X146.607 Y-51.028
X147.646 Y-50.875
X148.629 Y-50.706
X149.554 Y-50.521
X150.425 Y-50.321
X151.245 Y-50.108
X152.015 Y-49.882
X152.74 Y-49.645
X153.421 Y-49.398
X154.061 Y-49.142
X154.665 Y-48.876
X155.238 Y-48.6
X155.783 Y-48.315
X156.3 Y-48.022
X156.798 Y-47.718
X157.279 Y-47.402
X157.743 Y-47.077
X158.201 Y-46.736
X158.62 Y-46.406
X159.536 Y-45.628
X160.418 Y-44.815
X161.302 Y-43.949
X163.202 Y-41.997
G2 X163.216 Y-41.983 I4.551 J-4.428
G1 X165.181 Y-39.976
G2 X165.296 Y-39.861 I4.537 J-4.442
G1 X166.314 Y-38.873
G2 X166.433 Y-38.76 I4.422 J-4.557
G1 X167.486 Y-37.79
G2 X167.636 Y-37.656 I4.303 J-4.67
G1 X168.732 Y-36.709
G2 X168.903 Y-36.565 I4.153 J-4.803
G1 X170.047 Y-35.645
G2 X170.234 Y-35.499 I3.982 J-4.946
G1 X171.429 Y-34.609
G2 X171.629 Y-34.466 I3.795 J-5.092
G1 X172.877 Y-33.609
G2 X173.086 Y-33.472 I3.595 J-5.235
G1 X174.388 Y-32.651
G2 X174.595 Y-32.526 I3.386 J-5.372
G1 X175.947 Y-31.744
G2 X176.158 Y-31.627 I3.179 J-5.497
G1 X177.559 Y-30.886
G2 X177.767 Y-30.781 I2.968 J-5.614
G1 X179.213 Y-30.083
G2 X179.42 Y-29.988 I2.76 J-5.719
G1 X180.906 Y-29.335
G2 X181.108 Y-29.251 I2.553 J-5.814
G1 X182.627 Y-28.645
G2 X182.83 Y-28.568 I2.351 J-5.899
G1 X184.377 Y-28.012
G2 X184.581 Y-27.943 I2.148 J-5.976
G1 X186.149 Y-27.439
G2 X186.355 Y-27.376 I1.944 J-6.045
G1 X187.936 Y-26.927
G2 X188.148 Y-26.87 I1.738 J-6.108
G1 X189.735 Y-26.477
G2 X189.957 Y-26.427 I1.526 J-6.164
G1 X191.541 Y-26.094
G2 X191.779 Y-26.049 I1.304 J-6.215
G1 X192.115 Y-25.992
X193.353 Y-25.781 Z-2.044 F400.3
G2 X193.611 Y-25.742 Z-2.053 I1.066 J-6.26
G1 X195.167 Y-25.543 Z-2.108
G2 X195.38 Y-25.519 Z-2.115 I0.808 J-6.298
G1 X196.15 Y-25.447 Z-2.142
G2 X196.301 Y-25.434 Z-2.148 I0.595 J-6.322
G1 X197.063 Y-25.381 Z-2.174
G2 X197.225 Y-25.372 Z-2.18 I0.444 J-6.334
G1 X197.979 Y-25.338 Z-2.206
G2 X198.15 Y-25.333 Z-2.212 I0.282 J-6.344
G1 X198.895 Y-25.32 Z-2.238
G2 X199.08 Y-25.319 Z-2.245 I0.111 J-6.349
G1 X199.816 Y-25.328 Z-2.27
G2 X200.012 Y-25.333 Z-2.277 I-0.074 J-6.35
G1 X200.738 Y-25.364 Z-2.303
G2 X200.948 Y-25.377 Z-2.31 I-0.27 J-6.344
G1 X201.663 Y-25.431 Z-2.335
G2 X201.888 Y-25.452 Z-2.343 I-0.48 J-6.332
G1 X202.591 Y-25.53 Z-2.368
G2 X202.828 Y-25.562 Z-2.376 I-0.705 J-6.311
G1 X203.519 Y-25.665 Z-2.4
G2 X203.774 Y-25.709 Z-2.409 I-0.942 J-6.28
G1 X204.452 Y-25.839 Z-2.433
G2 X204.721 Y-25.896 Z-2.443 I-1.197 J-6.236
G1 X205.385 Y-26.054 Z-2.467
G2 X205.664 Y-26.127 Z-2.477 I-1.466 J-6.179
G1 X206.315 Y-26.313 Z-2.501
G2 X206.607 Y-26.404 Z-2.511 I-1.745 J-6.105
G1 X207.244 Y-26.62 Z-2.535
G2 X207.549 Y-26.732 Z-2.546 I-2.037 J-6.014
G1 X208.171 Y-26.979 Z-2.57
G2 X208.484 Y-27.113 Z-2.581 I-2.342 J-5.902
G1 X209.09 Y-27.392 Z-2.605
G2 X209.399 Y-27.544 Z-2.617 I-2.655 J-5.768
G1 X209.991 Y-27.856 Z-2.64
G2 X210.308 Y-28.036 Z-2.653 I-2.964 J-5.616
G1 X210.883 Y-28.383 Z-2.676
G2 X211.191 Y-28.581 Z-2.689 I-3.281 J-5.437
G1 X211.75 Y-28.964 Z-2.713
G2 X212.052 Y-29.184 Z-2.726 I-3.589 J-5.238
G1 X212.594 Y-29.605 Z-2.75
G2 X212.877 Y-29.837 Z-2.763 I-3.891 J-5.018
G1 X213.403 Y-30.296 Z-2.787
G2 X213.673 Y-30.546 Z-2.8 I-4.174 J-4.785
G1 X214.182 Y-31.045 Z-2.825
G2 X214.435 Y-31.308 Z-2.837 I-4.444 J-4.536
G1 X214.926 Y-31.847 Z-2.863
G2 X215.154 Y-32.111 Z-2.875 I-4.697 J-4.273
G1 X215.628 Y-32.694 Z-2.901
G2 X215.836 Y-32.964 Z-2.913 I-4.925 J-4.009
G1 X216.292 Y-33.591 Z-2.94
G2 X216.477 Y-33.858 Z-2.952 I-5.133 J-3.738
G1 X216.915 Y-34.53 Z-2.98
G2 X217.078 Y-34.793 Z-2.99 I-5.318 J-3.47
G1 X217.498 Y-35.51 Z-3.019
G2 X217.636 Y-35.759 Z-3.029 I-5.481 J-3.207
G1 X218.039 Y-36.524 Z-3.06
G2 X218.166 Y-36.78 Z-3.07 I-5.619 J-2.959
G1 X218.549 Y-37.595 Z-3.101
G2 X218.651 Y-37.822 Z-3.11 I-5.746 J-2.702
G1 X219.017 Y-38.686 Z-3.142
G2 X219.107 Y-38.913 Z-3.151 I-5.848 J-2.475
G1 X219.454 Y-39.829 Z-3.185
G2 X219.531 Y-40.042 Z-3.193 I-5.938 J-2.249
G1 X219.859 Y-41.01 Z-3.229
G2 X219.921 Y-41.205 Z-3.236 I-6.015 J-2.036
G1 X220.231 Y-42.227 Z-3.273
G2 X220.284 Y-42.414 Z-3.28 I-6.077 J-1.842
G1 X220.575 Y-43.492 Z-3.319
G2 X220.62 Y-43.666 Z-3.325 I-6.13 J-1.655
G1 X220.892 Y-44.8 Z-3.366
G2 X220.928 Y-44.962 Z-3.372 I-6.175 J-1.481
G1 X221.181 Y-46.154 Z-3.414
G2 X221.211 Y-46.299 Z-3.42 I-6.211 J-1.319
G1 X221.446 Y-47.549 Z-3.464
G2 X221.47 Y-47.689 Z-3.469 I-6.241 J-1.174
G1 X221.686 Y-48.998 Z-3.515
G2 X221.706 Y-49.127 Z-3.52 I-6.265 J-1.034
G1 X221.903 Y-50.497 Z-3.568
G2 X221.919 Y-50.617 Z-3.572 I-6.285 J-0.904
G1 X222.097 Y-52.048 Z-3.623
G2 X222.11 Y-52.159 Z-3.627 I-6.301 J-0.784
G1 X222.269 Y-53.652 Z-3.679
G2 X222.279 Y-53.751 Z-3.683 I-6.314 J-0.672
G1 X222.42 Y-55.307 Z-3.737
G2 X222.428 Y-55.407 Z-3.741 I-6.324 J-0.573
G1 X222.549 Y-57.027 Z-3.797
G2 X222.555 Y-57.112 Z-3.8 I-6.332 J-0.473
G1 X222.658 Y-58.796 Z-3.859
G2 X222.663 Y-58.879 Z-3.862 I-6.338 J-0.388
G1 X222.747 Y-60.629 Z-3.923
G2 X222.75 Y-60.706 Z-3.926 I-6.343 J-0.305
G1 X222.815 Y-62.521 Z-3.989
G2 X222.817 Y-62.589 Z-3.992 I-6.346 J-0.227
G1 X222.864 Y-64.47 Z-4.057
G2 X222.865 Y-64.541 Z-4.06 I-6.348 J-0.159
G1 X222.892 Y-66.488 Z-4.128
G2 X222.893 Y-66.548 Z-4.13 I-6.349 J-0.088
G1 X222.902 Y-68.562 Z-4.2
G2 Y-68.62 Z-4.202 I-6.35 J-0.028
G1 X222.892 Y-70.702 Z-4.275
G2 X222.891 Y-70.757 Z-4.277 I-6.35 J0.031
G1 X222.862 Y-72.905 Z-4.352
G2 Y-72.955 Z-4.354 I-6.349 J0.086
G1 X222.816 Y-75.103 Z-4.429
G2 X222.814 Y-75.159 Z-4.431 I-6.349 J0.136
G1 X222.751 Y-77.24 Z-4.503
G2 X222.749 Y-77.296 Z-4.505 I-6.347 J0.192
G1 X222.67 Y-79.309 Z-4.576
G2 X222.667 Y-79.37 Z-4.578 I-6.345 J0.249
G1 X222.572 Y-81.315 Z-4.646
G2 X222.569 Y-81.383 Z-4.648 I-6.342 J0.31
G1 X222.457 Y-83.261 Z-4.714
G2 X222.452 Y-83.334 Z-4.717 I-6.339 J0.378
G1 X222.323 Y-85.145 Z-4.78
G2 X222.317 Y-85.22 Z-4.783 I-6.334 J0.451
G1 X222.172 Y-86.965 Z-4.844
G2 X222.165 Y-87.045 Z-4.847 I-6.328 J0.526
G1 X222.004 Y-88.725 Z-4.905
G2 X221.995 Y-88.815 Z-4.909 I-6.321 J0.606
G1 X221.817 Y-90.429 Z-4.965
G2 X221.805 Y-90.526 Z-4.969 I-6.312 J0.696
G1 X221.694 Y-91.414 Z-5
X221.61 Y-92.076 F849.6
G2 X221.597 Y-92.175 I-6.3 J0.793
G1 X221.386 Y-93.662
G2 X221.369 Y-93.774 I-6.287 J0.892
G1 X221.141 Y-95.197
G2 X221.121 Y-95.318 I-6.27 J1.004
G1 X220.876 Y-96.679
G2 X220.852 Y-96.804 I-6.25 J1.124
G1 X220.591 Y-98.105
G2 X220.561 Y-98.244 I-6.226 J1.249
G1 X220.283 Y-99.485
G2 X220.248 Y-99.634 I-6.196 J1.388
G1 X219.953 Y-100.816
G2 X219.91 Y-100.977 I-6.161 J1.538
G1 X219.598 Y-102.101
G2 X219.55 Y-102.268 I-6.118 J1.699
G1 X219.222 Y-103.335
G2 X219.16 Y-103.525 I-6.07 J1.866
G1 X218.814 Y-104.536
G2 X218.747 Y-104.721 I-6.008 J2.056
G1 X218.386 Y-105.678
G2 X218.301 Y-105.892 I-5.941 J2.241
G1 X217.922 Y-106.796
G2 X217.826 Y-107.014 I-5.856 J2.455
G1 X217.431 Y-107.865
G2 X217.316 Y-108.099 I-5.76 J2.673
G1 X216.904 Y-108.899
G2 X216.773 Y-109.142 I-5.645 J2.907
G1 X216.344 Y-109.893
G2 X216.195 Y-110.139 I-5.514 J3.15
G1 X215.75 Y-110.842
G2 X215.578 Y-111.101 I-5.365 J3.396
G1 X215.117 Y-111.756
G2 X214.922 Y-112.018 I-5.193 J3.655
G1 X214.444 Y-112.628
G2 X214.23 Y-112.887 I-4.998 J3.917
G1 X213.736 Y-113.453
G2 X213.494 Y-113.715 I-4.784 J4.176
G1 X212.984 Y-114.237
G2 X212.727 Y-114.485 I-4.542 J4.438
G1 X212.201 Y-114.966
G2 X211.923 Y-115.206 I-4.285 J4.686
G1 X211.382 Y-115.646
G2 X211.085 Y-115.873 I-4.007 J4.926
G1 X210.528 Y-116.274
G2 X210.22 Y-116.482 I-3.71 J5.153
G1 X209.648 Y-116.845
G2 X209.336 Y-117.031 I-3.402 J5.361
G1 X208.749 Y-117.358
G2 X208.423 Y-117.528 I-3.09 J5.547
G1 X207.821 Y-117.819
G2 X207.51 Y-117.959 I-2.764 J5.717
G1 X206.894 Y-118.217
G2 X206.577 Y-118.34 I-2.453 J5.857
G1 X205.947 Y-118.565
G2 X205.637 Y-118.667 I-2.136 J5.98
G1 X204.994 Y-118.86
G2 X204.706 Y-118.939 I-1.826 J6.082
G1 X204.049 Y-119.103
G2 X203.756 Y-119.169 I-1.538 J6.161
G1 X203.086 Y-119.303
G2 X202.816 Y-119.351 I-1.245 J6.227
G1 X202.134 Y-119.457
G2 X201.886 Y-119.49 I-0.975 J6.275
G1 X201.192 Y-119.57
G2 X200.949 Y-119.594 I-0.727 J6.308
G1 X200.243 Y-119.648
G2 X200.016 Y-119.661 I-0.484 J6.332
G1 X199.3 Y-119.69
G2 X199.087 Y-119.695 I-0.257 J6.345
G1 X198.361 Y-119.7
G2 X198.17 Y-119.698 I-0.044 J6.35
G1 X197.434 Y-119.681
G2 X197.249 Y-119.674 I0.147 J6.348
G1 X196.504 Y-119.635
G2 X196.339 Y-119.625 I0.332 J6.341
G1 X195.587 Y-119.566
G2 X195.419 Y-119.55 I0.497 J6.331
