%
(1001)
(Z0 stock top)
(T1  D=12.7 CR=0 - ZMIN=-25 - flat end mill)
G90 G94
G17
G21

(2D Contour7 12)
M9
T1 M6
S6000 M3
G54
M9
G0 X55.72 Y-33.641
Z25
Z15
G1 Z14 F849.6
Z13.77
X55.715 Y-33.635 Z13.628
X55.7 Y-33.616 Z13.487
X55.675 Y-33.585 Z13.351
X55.641 Y-33.543 Z13.219
X55.598 Y-33.489 Z13.094
X55.546 Y-33.425 Z12.978
X55.487 Y-33.351 Z12.872
X55.42 Y-33.269 Z12.777
X55.347 Y-33.178 Z12.695
X55.269 Y-33.081 Z12.626
X55.186 Y-32.979 Z12.571
X55.1 Y-32.872 Z12.532
X55.012 Y-32.763 Z12.508
X54.923 Y-32.653 Z12.5
X54.125 Y-31.664
G3 X52.339 Y-31.474 I-0.988 J-0.798
G1 X51.588 Y-32.08 Z12.466 F400.3
G2 X51.425 Y-32.207 Z12.459 I-3.988 J4.941
G1 X50.391 Y-32.988 Z12.414
G2 X50.219 Y-33.113 Z12.406 I-3.826 J5.068
G1 X49.144 Y-33.869 Z12.361
G2 X48.966 Y-33.99 Z12.353 I-3.653 J5.194
G1 X47.851 Y-34.719 Z12.306
G2 X47.669 Y-34.834 Z12.299 I-3.475 J5.315
G1 X46.514 Y-35.534 Z12.252
G2 X46.331 Y-35.641 Z12.244 I-3.293 J5.429
G1 X45.138 Y-36.311 Z12.197
G2 X44.955 Y-36.41 Z12.189 I-3.11 J5.536
G1 X43.726 Y-37.049 Z12.141
G2 X43.544 Y-37.139 Z12.134 I-2.927 J5.635
G1 X42.281 Y-37.745 Z12.085
G2 X42.102 Y-37.828 Z12.078 I-2.746 J5.726
G1 X40.809 Y-38.399 Z12.029
G2 X40.631 Y-38.474 Z12.022 I-2.567 J5.808
G1 X39.311 Y-39.01 Z11.972
G2 X39.134 Y-39.079 Z11.966 I-2.388 J5.884
G1 X37.793 Y-39.577 Z11.916
G2 X37.616 Y-39.64 Z11.909 I-2.212 J5.952
G1 X36.257 Y-40.1 Z11.859
G2 X36.079 Y-40.157 Z11.852 I-2.035 J6.015
G1 X34.706 Y-40.577 Z11.802
G2 X34.525 Y-40.629 Z11.796 I-1.857 J6.072
G1 X33.145 Y-41.007 Z11.746
G2 X32.958 Y-41.055 Z11.739 I-1.676 J6.125
G1 X31.575 Y-41.389 Z11.689
G2 X31.38 Y-41.432 Z11.682 I-1.489 J6.173
G1 X29.999 Y-41.72 Z11.633
G2 X29.792 Y-41.759 Z11.626 I-1.294 J6.217
G1 X28.419 Y-41.998 Z11.577
G2 X28.197 Y-42.033 Z11.569 I-1.087 J6.256
G1 X26.837 Y-42.22 Z11.521
G2 X26.594 Y-42.249 Z11.513 I-0.866 J6.291
G1 X25.251 Y-42.381 Z11.466
G2 X24.983 Y-42.402 Z11.456 I-0.623 J6.319
G1 X23.662 Y-42.476 Z11.41
G2 X23.363 Y-42.485 Z11.4 I-0.355 J6.34
G1 X22.068 Y-42.497 Z11.354
G2 X21.732 Y-42.491 Z11.343 I-0.056 J6.35
G1 X20.468 Y-42.435 Z11.298
G2 X20.191 Y-42.417 Z11.289 I0.28 J6.344
G1 X19.572 Y-42.362 Z11.267
G2 X19.373 Y-42.341 Z11.26 I0.556 J6.326
G1 X18.762 Y-42.268 Z11.239
G2 X18.552 Y-42.24 Z11.231 I0.756 J6.305
G1 X17.951 Y-42.147 Z11.21
G2 X17.729 Y-42.109 Z11.202 I0.966 J6.276
G1 X17.138 Y-41.996 Z11.181
G2 X16.906 Y-41.948 Z11.173 I1.187 J6.238
G1 X16.325 Y-41.814 Z11.152
G2 X16.081 Y-41.753 Z11.143 I1.419 J6.189
G1 X15.51 Y-41.599 Z11.123
G2 X15.259 Y-41.525 Z11.113 I1.663 J6.128
G1 X14.698 Y-41.348 Z11.093
G2 X14.437 Y-41.259 Z11.083 I1.914 J6.055
G1 X13.888 Y-41.059 Z11.063
G2 X13.621 Y-40.954 Z11.053 I2.175 J5.966
G1 X13.083 Y-40.73 Z11.032
G2 X12.811 Y-40.609 Z11.022 I2.442 J5.861
G1 X12.285 Y-40.361 Z11.002
G2 X12.012 Y-40.224 Z10.991 I2.714 J5.741
G1 X11.498 Y-39.949 Z10.971
G2 X11.223 Y-39.794 Z10.96 I2.987 J5.604
G1 X10.721 Y-39.493 Z10.939
G2 X10.452 Y-39.323 Z10.928 I3.262 J5.448
G1 X9.962 Y-38.995 Z10.908
G2 X9.698 Y-38.809 Z10.896 I3.531 J5.278
G1 X9.22 Y-38.453 Z10.875
G2 X8.966 Y-38.253 Z10.864 I3.795 J5.091
G1 X8.501 Y-37.868 Z10.843
G2 X8.258 Y-37.656 Z10.832 I4.049 J4.891
G1 X7.806 Y-37.241 Z10.81
G2 X7.576 Y-37.019 Z10.799 I4.292 J4.68
G1 X7.137 Y-36.574 Z10.777
G2 X6.923 Y-36.346 Z10.766 I4.523 J4.458
G1 X6.497 Y-35.869 Z10.744
G2 X6.299 Y-35.637 Z10.733 I4.736 J4.23
G1 X5.887 Y-35.128 Z10.711
G2 X5.706 Y-34.893 Z10.7 I4.934 J3.997
G1 X5.307 Y-34.351 Z10.677
G2 X5.143 Y-34.117 Z10.667 I5.115 J3.763
G1 X4.758 Y-33.54 Z10.643
G2 X4.611 Y-33.31 Z10.633 I5.279 J3.529
G1 X4.239 Y-32.699 Z10.608
G2 X4.108 Y-32.473 Z10.599 I5.426 J3.298
G1 X3.75 Y-31.826 Z10.573
G2 X3.634 Y-31.606 Z10.564 I5.557 J3.073
G1 X3.29 Y-30.922 Z10.538
G2 X3.189 Y-30.711 Z10.529 I5.673 J2.854
G1 X2.859 Y-29.989 Z10.502
G2 X2.77 Y-29.786 Z10.494 I5.774 J2.642
G1 X2.454 Y-29.026 Z10.465
G2 X2.377 Y-28.833 Z10.458 I5.863 J2.439
G1 X2.075 Y-28.033 Z10.428
G2 X2.008 Y-27.849 Z10.421 I5.94 J2.246
G1 X1.72 Y-27.01 Z10.39
G2 X1.663 Y-26.835 Z10.384 I6.006 J2.061
G1 X1.389 Y-25.955 Z10.352
G2 X1.341 Y-25.791 Z10.346 I6.063 J1.887
G1 X1.081 Y-24.869 Z10.312
G2 X1.039 Y-24.714 Z10.307 I6.112 J1.722
G1 X0.794 Y-23.75 Z10.272
G2 X0.758 Y-23.604 Z10.267 I6.154 J1.567
G1 X0.527 Y-22.597 Z10.231
G2 X0.497 Y-22.46 Z10.226 I6.189 J1.421
G1 X0.28 Y-21.409 Z10.188
G2 X0.255 Y-21.28 Z10.184 I6.219 J1.284
G1 X0.053 Y-20.185 Z10.145
G2 X0.032 Y-20.064 Z10.141 I6.244 J1.155
G1 X-0.157 Y-18.924 Z10.1
G2 X-0.174 Y-18.811 Z10.096 I6.265 J1.035
G1 X-0.348 Y-17.624 Z10.054
G2 X-0.363 Y-17.518 Z10.051 I6.283 J0.922
G1 X-0.523 Y-16.286 Z10.007
G2 X-0.535 Y-16.187 Z10.004 I6.297 J0.816
G1 X-0.68 Y-14.907 Z9.959
G2 X-0.69 Y-14.814 Z9.955 I6.309 J0.717
G1 X-0.821 Y-13.487 Z9.909
G2 X-0.829 Y-13.4 Z9.906 I6.319 J0.624
G1 X-0.946 Y-12.024 Z9.858
G2 X-0.952 Y-11.943 Z9.855 I6.327 J0.537
G1 X-1.055 Y-10.519 Z9.805
G2 X-1.06 Y-10.442 Z9.802 I6.334 J0.456
G1 X-1.148 Y-8.969 Z9.751
G2 X-1.152 Y-8.897 Z9.748 I6.339 J0.379
G1 X-1.226 Y-7.375 Z9.695
G2 X-1.228 Y-7.308 Z9.693 I6.343 J0.308
G1 X-1.288 Y-5.735 Z9.638
G2 X-1.29 Y-5.672 Z9.635 I6.345 J0.24
G1 X-1.335 Y-4.05 Z9.579
G2 X-1.337 Y-3.99 Z9.577 I6.348 J0.177
G1 X-1.368 Y-2.317 Z9.518
G2 Y-2.261 Z9.516 I6.349 J0.118
G1 X-1.385 Y-0.538 Z9.456
G2 Y-0.485 Z9.454 I6.35 J0.062
G1 X-1.388 Y1.29 Z9.392
G2 Y1.339 Z9.391 I6.35 J0.009
G1 X-1.376 Y3.165 Z9.327
G2 X-1.375 Y3.212 Z9.325 I6.35 J-0.041
G1 X-1.349 Y5.088 Z9.26
G2 Y5.133 Z9.258 I6.349 J-0.088
G1 X-1.309 Y7.01 Z9.193
G2 X-1.308 Y7.057 Z9.191 I6.349 J-0.133
G1 X-1.256 Y8.881 Z9.127
G2 X-1.255 Y8.931 Z9.125 I6.347 J-0.181
G1 X-1.19 Y10.704 Z9.063
G2 X-1.188 Y10.757 Z9.062 I6.346 J-0.23
G1 X-1.111 Y12.479 Z9.001
G2 X-1.108 Y12.535 Z8.999 I6.344 J-0.283
G1 X-1.019 Y14.206 Z8.941
G2 X-1.016 Y14.265 Z8.939 I6.341 J-0.339
G1 X-0.914 Y15.885 Z8.882
G2 X-0.909 Y15.948 Z8.88 I6.337 J-0.398
G1 X-0.795 Y17.518 Z8.825
G2 X-0.79 Y17.585 Z8.823 I6.333 J-0.462
G1 X-0.663 Y19.104 Z8.77
G2 X-0.657 Y19.175 Z8.767 I6.328 J-0.529
G1 X-0.517 Y20.644 Z8.715
G2 X-0.509 Y20.72 Z8.713 I6.322 J-0.6
G1 X-0.357 Y22.14 Z8.663
G2 X-0.348 Y22.221 Z8.66 I6.314 J-0.676
G1 X-0.183 Y23.592 Z8.612
G2 X-0.172 Y23.678 Z8.609 I6.305 J-0.758
G1 X0.005 Y25 Z8.562
G2 X0.018 Y25.093 Z8.559 I6.294 J-0.844
G1 X0.208 Y26.367 Z8.514
G2 X0.223 Y26.465 Z8.511 I6.281 J-0.936
G1 X0.426 Y27.692 Z8.467
G2 X0.444 Y27.797 Z8.463 I6.265 J-1.035
G1 X0.66 Y28.977 Z8.422
G2 X0.681 Y29.089 Z8.418 I6.247 J-1.14
G1 X0.909 Y30.222 Z8.377
G2 X0.935 Y30.342 Z8.373 I6.225 J-1.253
G1 X1.175 Y31.43 Z8.334
G2 X1.205 Y31.557 Z8.329 I6.2 J-1.372
G1 X1.458 Y32.6 Z8.292
G2 X1.493 Y32.736 Z8.287 I6.17 J-1.5
G1 X1.759 Y33.734 Z8.251
G2 X1.8 Y33.879 Z8.246 I6.136 J-1.636
G1 X2.079 Y34.834 Z8.211
G2 X2.126 Y34.988 Z8.205 I6.095 J-1.781
G1 X2.417 Y35.9 Z8.172
G2 X2.472 Y36.062 Z8.166 I6.048 J-1.934
G1 X2.776 Y36.932 Z8.134
G2 X2.84 Y37.105 Z8.127 I5.994 J-2.097
G1 X3.157 Y37.934 Z8.096
G2 X3.229 Y38.115 Z8.09 I5.931 J-2.27
G1 X3.559 Y38.903 Z8.06
G2 X3.643 Y39.094 Z8.052 I5.858 J-2.451
G1 X3.985 Y39.843 Z8.024
G2 X4.081 Y40.042 Z8.016 I5.774 J-2.642
G1 X4.436 Y40.752 Z7.988
G2 X4.545 Y40.96 Z7.98 I5.679 J-2.842
G1 X4.913 Y41.632 Z7.953
G2 X5.036 Y41.847 Z7.945 I5.569 J-3.05
G1 X5.417 Y42.482 Z7.919
G2 X5.555 Y42.702 Z7.91 I5.446 J-3.265
G1 X5.948 Y43.3 Z7.885
G2 X6.103 Y43.525 Z7.875 I5.308 J-3.485
G1 X6.508 Y44.088 Z7.851
G2 X6.681 Y44.317 Z7.841 I5.153 J-3.711
G1 X7.098 Y44.845 Z7.817
G2 X7.287 Y45.072 Z7.807 I4.98 J-3.939
G1 X7.717 Y45.567 Z7.784
G2 X7.923 Y45.792 Z7.774 I4.792 J-4.167
G1 X8.365 Y46.254 Z7.751
G2 X8.587 Y46.475 Z7.74 I4.586 J-4.392
G1 X9.042 Y46.905 Z7.718
G2 X9.278 Y47.117 Z7.707 I4.363 J-4.613
G1 X9.744 Y47.516 Z7.686
G2 X9.995 Y47.719 Z7.675 I4.127 J-4.826
G1 X10.473 Y48.088 Z7.654
G2 X10.734 Y48.279 Z7.642 I3.876 J-5.03
G1 X11.224 Y48.618 Z7.621
G2 X11.495 Y48.795 Z7.61 I3.615 J-5.221
G1 X11.996 Y49.106 Z7.59
G2 X12.27 Y49.267 Z7.578 I3.344 J-5.398
G1 X12.783 Y49.55 Z7.558
G2 X13.062 Y49.695 Z7.547 I3.07 J-5.559
G1 X13.586 Y49.951 Z7.527
G2 X13.864 Y50.079 Z7.516 I2.79 J-5.704
G1 X14.398 Y50.309 Z7.496
G2 X14.674 Y50.42 Z7.485 I2.512 J-5.832
G1 X15.219 Y50.625 Z7.465
G2 X15.491 Y50.721 Z7.455 I2.236 J-5.943
G1 X16.046 Y50.901 Z7.434
G2 X16.31 Y50.981 Z7.425 I1.965 J-6.038
G1 X16.876 Y51.138 Z7.404
G2 X17.13 Y51.203 Z7.395 I1.701 J-6.118
G1 X17.706 Y51.338 Z7.375
G2 X17.952 Y51.391 Z7.366 I1.448 J-6.183
G1 X18.537 Y51.504 Z7.345
G2 X18.77 Y51.544 Z7.337 I1.202 J-6.235
G1 X19.365 Y51.636 Z7.316
G2 X19.588 Y51.666 Z7.308 I0.969 J-6.276
G1 X20.192 Y51.738 Z7.287
G2 X20.404 Y51.759 Z7.279 I0.746 J-6.306
G1 X21.016 Y51.811 Z7.258
G2 X21.215 Y51.825 Z7.251 I0.535 J-6.327
G1 X21.837 Y51.858 Z7.229
G2 X22.114 Y51.866 Z7.219 I0.336 J-6.341
G1 X23.38 Y51.878 Z7.175
G2 X23.715 Y51.872 Z7.163 I0.058 J-6.35
G1 X25.008 Y51.816 Z7.118
G2 X25.307 Y51.795 Z7.108 I-0.277 J-6.344
G1 X26.625 Y51.675 Z7.061
G2 X26.892 Y51.645 Z7.052 I-0.576 J-6.324
G1 X28.23 Y51.466 Z7.005
G2 X28.37 Y51.446 Z7 I-0.843 J-6.294
X28.471 Y51.429 I-0.983 J-6.273 F849.6
G1 X29.825 Y51.194
G2 X30.045 Y51.152 I-1.085 J-6.257
G1 X31.409 Y50.866
G2 X31.615 Y50.819 I-1.305 J-6.214
G1 X32.985 Y50.484
G2 X33.178 Y50.433 I-1.511 J-6.168
G1 X34.549 Y50.051
G2 X34.733 Y49.997 I-1.704 J-6.117
G1 X36.1 Y49.571
G2 X36.279 Y49.512 I-1.889 J-6.063
G1 X37.636 Y49.045
G2 X37.812 Y48.981 I-2.068 J-6.004
G1 X39.154 Y48.474
G2 X39.328 Y48.406 I-2.244 J-5.94
G1 X40.652 Y47.861
G2 X40.827 Y47.786 I-2.418 J-5.872
G1 X42.127 Y47.204
G2 X42.302 Y47.123 I-2.592 J-5.797
G1 X43.574 Y46.507
G2 X43.751 Y46.418 I-2.768 J-5.715
G1 X44.992 Y45.768
G2 X45.169 Y45.672 I-2.944 J-5.626
G1 X46.376 Y44.991
G2 X46.555 Y44.885 I-3.122 J-5.53
G1 X47.724 Y44.174
G2 X47.903 Y44.061 I-3.302 J-5.424
G1 X49.033 Y43.32
G2 X49.21 Y43.2 I-3.48 J-5.311
G1 X50.299 Y42.432
G2 X50.474 Y42.305 I-3.658 J-5.191
G1 X51.521 Y41.512
G2 X51.689 Y41.381 I-3.833 J-5.063
G1 X52.695 Y40.564
G2 X52.854 Y40.431 I-4 J-4.932
G1 X53.821 Y39.593
G2 X53.966 Y39.463 I-4.158 J-4.799
G1 X54.896 Y38.606
G2 X55.026 Y38.483 I-4.304 J-4.669
G1 X55.921 Y37.61
G2 X56.031 Y37.501 I-4.433 J-4.546
G1 X56.897 Y36.614
G2 X57.014 Y36.491 I-4.543 J-4.437
G1 X58.682 Y34.689
G2 X58.742 Y34.624 I-4.659 J-4.314
G1 X60.358 Y32.829
X61.13 Y31.986
X61.883 Y31.189
X62.627 Y30.441
X63.371 Y29.74
X64.125 Y29.085
X64.937 Y28.444
X65.308 Y28.174
X65.723 Y27.889
X66.152 Y27.611
X66.598 Y27.341
X67.063 Y27.077
X67.55 Y26.819
X68.062 Y26.567
X68.594 Y26.324
X69.273 Y26.04
X69.99 Y25.767
X70.755 Y25.505
X71.571 Y25.253
X72.442 Y25.013
X73.368 Y24.787
X74.355 Y24.574
X75.402 Y24.377
X76.511 Y24.197
X77.684 Y24.034
X78.922 Y23.89
X80.226 Y23.765
X81.595 Y23.661
X83.032 Y23.578
X84.535 Y23.517
X86.104 Y23.477
X87.634 Y23.462
X89.102 Y23.47
X90.508 Y23.5
X91.851 Y23.553
X93.132 Y23.627
X94.351 Y23.723
X95.509 Y23.838
X96.607 Y23.972
X97.647 Y24.125
X98.629 Y24.294
X99.554 Y24.479
X100.425 Y24.679
X101.245 Y24.892
X102.015 Y25.118
X102.74 Y25.355
X103.421 Y25.602
X104.061 Y25.858
X104.665 Y26.124
X105.238 Y26.4
X105.783 Y26.685
X106.3 Y26.978
X106.798 Y27.282
X107.279 Y27.598
X107.743 Y27.923
X108.201 Y28.264
X108.62 Y28.594
X109.536 Y29.372
X110.418 Y30.185
X111.302 Y31.051
X113.202 Y33.003
G2 X113.216 Y33.017 I4.551 J-4.428
G1 X115.181 Y35.024
G2 X115.296 Y35.139 I4.537 J-4.442
G1 X116.314 Y36.127
G2 X116.433 Y36.24 I4.422 J-4.557
G1 X117.486 Y37.21
G2 X117.636 Y37.344 I4.303 J-4.67
G1 X118.732 Y38.291
G2 X118.903 Y38.435 I4.153 J-4.803
G1 X120.047 Y39.355
G2 X120.234 Y39.501 I3.982 J-4.946
G1 X121.429 Y40.391
G2 X121.629 Y40.534 I3.795 J-5.092
G1 X122.877 Y41.391
G2 X123.086 Y41.528 I3.595 J-5.235
G1 X124.388 Y42.349
G2 X124.595 Y42.474 I3.386 J-5.372
G1 X125.947 Y43.256
G2 X126.158 Y43.373 I3.179 J-5.497
G1 X127.559 Y44.114
G2 X127.767 Y44.219 I2.968 J-5.614
G1 X129.213 Y44.917
G2 X129.42 Y45.012 I2.76 J-5.719
G1 X130.906 Y45.665
G2 X131.108 Y45.749 I2.553 J-5.814
G1 X132.627 Y46.355
G2 X132.83 Y46.432 I2.351 J-5.899
G1 X134.377 Y46.988
G2 X134.581 Y47.057 I2.148 J-5.976
G1 X136.149 Y47.561
G2 X136.355 Y47.624 I1.944 J-6.045
G1 X137.936 Y48.073
G2 X138.148 Y48.13 I1.738 J-6.108
G1 X139.735 Y48.523
G2 X139.957 Y48.573 I1.526 J-6.164
G1 X141.541 Y48.906
G2 X141.779 Y48.951 I1.304 J-6.215
G1 X143.353 Y49.219
G2 X143.611 Y49.258 I1.066 J-6.26
G1 X145.167 Y49.457
G2 X145.38 Y49.481 I0.808 J-6.298
G1 X146.15 Y49.553
G2 X146.301 Y49.566 I0.595 J-6.322
G1 X147.063 Y49.619
G2 X147.225 Y49.628 I0.444 J-6.334
G1 X147.979 Y49.662
G2 X148.15 Y49.667 I0.282 J-6.344
G1 X148.895 Y49.68
G2 X149.08 Y49.681 I0.111 J-6.349
G1 X149.816 Y49.672
G2 X150.012 Y49.667 I-0.074 J-6.35
G1 X150.738 Y49.636
G2 X150.948 Y49.623 I-0.27 J-6.344
G1 X151.663 Y49.569
G2 X151.888 Y49.548 I-0.48 J-6.332
G1 X152.591 Y49.47
G2 X152.828 Y49.438 I-0.705 J-6.311
G1 X153.519 Y49.335
G2 X153.774 Y49.291 I-0.942 J-6.28
G1 X154.452 Y49.161
G2 X154.721 Y49.104 I-1.197 J-6.236
G1 X155.385 Y48.946
G2 X155.664 Y48.873 I-1.466 J-6.179
G1 X156.315 Y48.687
G2 X156.607 Y48.596 I-1.745 J-6.105
G1 X157.244 Y48.38
G2 X157.549 Y48.268 I-2.037 J-6.014
G1 X158.171 Y48.021
G2 X158.484 Y47.887 I-2.342 J-5.902
G1 X159.09 Y47.608
G2 X159.399 Y47.456 I-2.655 J-5.768
G1 X159.991 Y47.144
G2 X160.308 Y46.964 I-2.964 J-5.616
G1 X160.883 Y46.617
G2 X161.191 Y46.419 I-3.281 J-5.437
G1 X161.75 Y46.036
G2 X162.052 Y45.816 I-3.589 J-5.238
G1 X162.594 Y45.395
G2 X162.877 Y45.163 I-3.891 J-5.018
G1 X163.403 Y44.704
G2 X163.673 Y44.454 I-4.174 J-4.785
G1 X164.182 Y43.955
G2 X164.435 Y43.692 I-4.444 J-4.536
G1 X164.926 Y43.153
G2 X165.154 Y42.889 I-4.697 J-4.273
G1 X165.628 Y42.306
G2 X165.836 Y42.036 I-4.925 J-4.009
G1 X166.292 Y41.409
G2 X166.477 Y41.142 I-5.133 J-3.738
G1 X166.915 Y40.47
G2 X167.078 Y40.207 I-5.318 J-3.47
G1 X167.498 Y39.49
G2 X167.636 Y39.241 I-5.481 J-3.207
G1 X168.039 Y38.476
G2 X168.166 Y38.22 I-5.619 J-2.959
G1 X168.549 Y37.405
G2 X168.651 Y37.178 I-5.746 J-2.702
G1 X169.017 Y36.314
G2 X169.107 Y36.087 I-5.848 J-2.475
G1 X169.454 Y35.171
G2 X169.531 Y34.958 I-5.938 J-2.249
G1 X169.859 Y33.99
G2 X169.921 Y33.795 I-6.015 J-2.036
G1 X170.231 Y32.773
G2 X170.284 Y32.586 I-6.077 J-1.842
G1 X170.575 Y31.508
G2 X170.62 Y31.334 I-6.13 J-1.655
G1 X170.892 Y30.2
G2 X170.928 Y30.038 I-6.175 J-1.481
G1 X171.181 Y28.846
G2 X171.211 Y28.701 I-6.211 J-1.319
G1 X171.446 Y27.451
G2 X171.47 Y27.311 I-6.241 J-1.174
G1 X171.686 Y26.002
G2 X171.706 Y25.873 I-6.265 J-1.034
G1 X171.903 Y24.503
G2 X171.919 Y24.383 I-6.285 J-0.904
G1 X172.097 Y22.952
G2 X172.11 Y22.841 I-6.301 J-0.784
G1 X172.269 Y21.348
G2 X172.279 Y21.249 I-6.314 J-0.672
G1 X172.42 Y19.693
G2 X172.428 Y19.593 I-6.324 J-0.573
G1 X172.549 Y17.973
G2 X172.555 Y17.888 I-6.332 J-0.473
G1 X172.658 Y16.204
G2 X172.663 Y16.121 I-6.338 J-0.388
G1 X172.747 Y14.371
G2 X172.75 Y14.294 I-6.343 J-0.305
G1 X172.815 Y12.479
G2 X172.817 Y12.411 I-6.346 J-0.227
G1 X172.864 Y10.53
G2 X172.865 Y10.459 I-6.348 J-0.159
G1 X172.892 Y8.512
G2 X172.893 Y8.452 I-6.349 J-0.088
G1 X172.902 Y6.438
G2 Y6.38 I-6.35 J-0.028
G1 X172.892 Y4.298
G2 X172.891 Y4.243 I-6.35 J0.031
G1 X172.862 Y2.095
G2 Y2.045 I-6.349 J0.086
G1 X172.816 Y-0.103
G2 X172.814 Y-0.159 I-6.349 J0.136
G1 X172.751 Y-2.24
G2 X172.749 Y-2.296 I-6.347 J0.192
G1 X172.67 Y-4.309
G2 X172.667 Y-4.37 I-6.345 J0.249
G1 X172.572 Y-6.315
G2 X172.569 Y-6.383 I-6.342 J0.31
G1 X172.457 Y-8.261
G2 X172.452 Y-8.334 I-6.339 J0.378
G1 X172.323 Y-10.145
G2 X172.317 Y-10.22 I-6.334 J0.451
G1 X172.172 Y-11.965
G2 X172.165 Y-12.045 I-6.328 J0.526
G1 X172.004 Y-13.725
G2 X171.995 Y-13.815 I-6.321 J0.606
G1 X171.817 Y-15.429
G2 X171.805 Y-15.526 I-6.312 J0.696
G1 X171.61 Y-17.076
G2 X171.597 Y-17.176 I-6.3 J0.793
G1 X171.386 Y-18.662
G2 X171.369 Y-18.774 I-6.287 J0.892
G1 X171.141 Y-20.197
G2 X171.121 Y-20.318 I-6.27 J1.004
G1 X170.876 Y-21.679
G2 X170.852 Y-21.804 I-6.25 J1.124
G1 X170.591 Y-23.105
G2 X170.561 Y-23.244 I-6.226 J1.249
G1 X170.283 Y-24.485
G2 X170.248 Y-24.634 I-6.196 J1.388
G1 X169.953 Y-25.816
G2 X169.911 Y-25.977 I-6.161 J1.538
G1 X169.599 Y-27.101
G2 X169.55 Y-27.268 I-6.119 J1.699
G1 X169.222 Y-28.335
G2 X169.16 Y-28.525 I-6.07 J1.866
G1 X168.814 Y-29.536
G2 X168.747 Y-29.722 I-6.008 J2.056
G1 X168.386 Y-30.679
G2 X168.301 Y-30.894 I-5.941 J2.242
G1 X167.922 Y-31.797
G2 X167.826 Y-32.013 I-5.856 J2.457
G1 X167.431 Y-32.865
G2 X167.317 Y-33.098 I-5.76 J2.673
G1 X166.905 Y-33.899
G2 X166.773 Y-34.142 I-5.646 J2.906
G1 X166.344 Y-34.893
G2 X166.195 Y-35.141 I-5.514 J3.15
G1 X165.75 Y-35.844
G2 X165.579 Y-36.099 I-5.365 J3.398
G1 X165.118 Y-36.754
G2 X164.922 Y-37.019 I-5.194 J3.653
G1 X164.444 Y-37.629
G2 X164.228 Y-37.889 I-4.998 J3.917
G1 X163.734 Y-38.454
G2 X163.495 Y-38.713 I-4.782 J4.178
G1 X162.985 Y-39.235
G2 X162.725 Y-39.487 I-4.543 J4.436
G1 X162.199 Y-39.967
G2 X161.924 Y-40.205 I-4.283 J4.688
G1 X161.383 Y-40.645
G2 X161.086 Y-40.873 I-4.008 J4.925
G1 X160.529 Y-41.274
G2 X160.222 Y-41.482 I-3.711 J5.153
G1 X159.65 Y-41.845
G2 X159.335 Y-42.032 I-3.404 J5.361
G1 X158.748 Y-42.359
G2 X158.426 Y-42.526 I-3.089 J5.548
G1 X157.824 Y-42.818
G2 X157.508 Y-42.96 I-2.767 J5.715
G1 X156.892 Y-43.218
G2 X156.576 Y-43.34 I-2.451 J5.858
G1 X155.946 Y-43.565
G2 X155.641 Y-43.666 I-2.135 J5.98
G1 X154.998 Y-43.859
G2 X154.699 Y-43.941 I-1.83 J6.081
G1 X154.042 Y-44.104
G2 X153.758 Y-44.168 I-1.531 J6.163
G1 X153.088 Y-44.302
G2 X152.82 Y-44.35 I-1.247 J6.226
G1 X152.138 Y-44.456
G2 X151.882 Y-44.491 I-0.979 J6.274
G1 X151.188 Y-44.571
G2 X150.948 Y-44.593 I-0.723 J6.309
G1 X150.242 Y-44.647
G2 X150.018 Y-44.66 I-0.483 J6.332
G1 X149.302 Y-44.69
G2 X149.092 Y-44.695 I-0.259 J6.345
G1 X148.366 Y-44.7
G2 X148.17 Y-44.699 I-0.049 J6.35
G1 X147.434 Y-44.682
G2 X147.249 Y-44.675 I0.147 J6.348
G1 X146.504 Y-44.636
G2 X146.333 Y-44.624 I0.332 J6.341
G1 X145.581 Y-44.565
G2 X145.419 Y-44.55 I0.503 J6.33
G1 X144.659 Y-44.47
G2 X144.508 Y-44.452 I0.665 J6.315
G1 X143.742 Y-44.353
G2 X143.532 Y-44.322 I0.816 J6.297
G1 X141.983 Y-44.068
G2 X141.725 Y-44.02 I1.026 J6.267
G1 X140.161 Y-43.698
G2 X139.925 Y-43.644 I1.284 J6.219
G1 X138.354 Y-43.257
G2 X138.134 Y-43.198 I1.52 J6.165
G1 X136.562 Y-42.751
G2 X136.351 Y-42.686 I1.74 J6.107
G1 X134.787 Y-42.182
G2 X134.584 Y-42.112 I1.951 J6.043
G1 X133.035 Y-41.553
G2 X132.835 Y-41.477 I2.154 J5.973
G1 X131.308 Y-40.868
G2 X131.108 Y-40.784 I2.354 J5.897
G1 X129.61 Y-40.126
G2 X129.409 Y-40.034 I2.554 J5.814
G1 X127.947 Y-39.33
G2 X127.743 Y-39.227 I2.755 J5.721
G1 X126.323 Y-38.479
G2 X126.12 Y-38.368 I2.959 J5.619
G1 X124.745 Y-37.578
G2 X124.538 Y-37.454 I3.162 J5.507
G1 X123.214 Y-36.625
G2 X123.011 Y-36.492 I3.369 J5.383
G1 X121.739 Y-35.627
G2 X121.537 Y-35.484 I3.572 J5.25
G1 X120.319 Y-34.584
G2 X120.123 Y-34.433 I3.774 J5.107
G1 X118.96 Y-33.501
G2 X118.778 Y-33.349 I3.97 J4.956
G1 X117.667 Y-32.389
G2 X117.5 Y-32.24 I4.152 J4.804
G1 X116.438 Y-31.255
G2 X116.295 Y-31.117 I4.319 J4.655
G1 X115.276 Y-30.111
G2 X115.157 Y-29.991 I4.462 J4.518
G1 X114.175 Y-28.968
G2 X114.066 Y-28.852 I4.581 J4.398
G1 X112.172 Y-26.777
G2 X112.161 Y-26.764 I4.69 J4.281
G1 X110.328 Y-24.745
X109.474 Y-23.848
X108.622 Y-23.006
X107.732 Y-22.195
X107.324 Y-21.85
X106.882 Y-21.496
X106.427 Y-21.153
X105.958 Y-20.822
X105.473 Y-20.501
X104.963 Y-20.188
X104.429 Y-19.884
X103.869 Y-19.59
X103.273 Y-19.303
X102.641 Y-19.024
X101.97 Y-18.753
X101.255 Y-18.491
X100.493 Y-18.239
X99.681 Y-17.998
X98.816 Y-17.767
X97.898 Y-17.55
X96.923 Y-17.347
X95.889 Y-17.158
X94.797 Y-16.985
X93.643 Y-16.83
X92.428 Y-16.692
X91.15 Y-16.573
X89.81 Y-16.473
X88.406 Y-16.393
X86.939 Y-16.334
X85.41 Y-16.297
X83.84 Y-16.281
X82.336 Y-16.29
X80.897 Y-16.323
X79.525 Y-16.379
X78.218 Y-16.458
X76.975 Y-16.559
X75.797 Y-16.681
X74.683 Y-16.822
X73.629 Y-16.983
X72.636 Y-17.161
X71.702 Y-17.355
X70.824 Y-17.564
X69.999 Y-17.787
X69.226 Y-18.023
X68.5 Y-18.27
X67.811 Y-18.531
X67.271 Y-18.754
X66.751 Y-18.988
X66.255 Y-19.229
X65.78 Y-19.477
X65.325 Y-19.732
X64.887 Y-19.994
X64.463 Y-20.264
X64.083 Y-20.522
X63.248 Y-21.134
X62.471 Y-21.763
X61.704 Y-22.436
X60.935 Y-23.158
X60.154 Y-23.928
X59.353 Y-24.744
X57.675 Y-26.481
G2 X57.613 Y-26.545 I-4.568 J4.411
G1 X55.883 Y-28.287
G2 X55.762 Y-28.405 I-4.506 J4.474
G1 X54.866 Y-29.262
G2 X54.752 Y-29.367 I-4.385 J4.593
G1 X53.827 Y-30.209
G2 X53.693 Y-30.327 I-4.272 J4.698
G1 X52.734 Y-31.151
G2 X52.584 Y-31.276 I-4.138 J4.817
G1 X51.588 Y-32.08
G2 X51.425 Y-32.207 I-3.988 J4.941
G1 X50.391 Y-32.988
G2 X50.219 Y-33.113 I-3.826 J5.068
G1 X49.144 Y-33.869
G2 X48.966 Y-33.99 I-3.653 J5.194
G1 X47.851 Y-34.719
G2 X47.669 Y-34.834 I-3.475 J5.315
G1 X46.514 Y-35.534
G2 X46.331 Y-35.641 I-3.293 J5.429
G1 X45.138 Y-36.311
G2 X44.955 Y-36.41 I-3.11 J5.536
G1 X43.726 Y-37.049
G2 X43.544 Y-37.139 I-2.927 J5.635
G1 X42.281 Y-37.745
G2 X42.102 Y-37.828 I-2.746 J5.726
G1 X40.809 Y-38.399
G2 X40.631 Y-38.474 I-2.567 J5.808
G1 X39.311 Y-39.01
G2 X39.134 Y-39.079 I-2.388 J5.884
G1 X37.793 Y-39.577
G2 X37.616 Y-39.64 I-2.212 J5.952
G1 X36.257 Y-40.1
G2 X36.079 Y-40.157 I-2.035 J6.015
G1 X34.706 Y-40.577
G2 X34.525 Y-40.629 I-1.857 J6.072
G1 X33.145 Y-41.007
G2 X32.958 Y-41.055 I-1.676 J6.125
G1 X31.575 Y-41.389
G2 X31.38 Y-41.432 I-1.489 J6.173
G1 X29.999 Y-41.72
G2 X29.792 Y-41.759 I-1.294 J6.217
G1 X28.419 Y-41.998
G2 X28.197 Y-42.033 I-1.087 J6.256
G1 X26.837 Y-42.22
G2 X26.594 Y-42.249 I-0.866 J6.291
G1 X25.251 Y-42.381
G2 X24.983 Y-42.402 I-0.623 J6.319
G1 X23.662 Y-42.476
G2 X23.363 Y-42.485 I-0.355 J6.34
G1 X22.068 Y-42.497
G2 X21.732 Y-42.491 I-0.056 J6.35
G1 X20.468 Y-42.435
G2 X20.191 Y-42.417 I0.28 J6.344
G1 X19.572 Y-42.362
G2 X19.373 Y-42.341 I0.556 J6.326
G1 X18.762 Y-42.268
G2 X18.552 Y-42.24 I0.756 J6.305
G1 X17.951 Y-42.147
G2 X17.729 Y-42.109 I0.966 J6.276
G1 X17.138 Y-41.996
G2 X16.906 Y-41.948 I1.187 J6.238
G1 X16.325 Y-41.814
G2 X16.081 Y-41.753 I1.419 J6.189
G1 X15.51 Y-41.599
G2 X15.259 Y-41.525 I1.663 J6.128
G1 X14.698 Y-41.348
G2 X14.437 Y-41.259 I1.914 J6.055
G1 X13.888 Y-41.059
G2 X13.621 Y-40.954 I2.175 J5.966
G1 X13.083 Y-40.73
G2 X12.811 Y-40.609 I2.442 J5.861
G1 X12.285 Y-40.361
G2 X12.012 Y-40.224 I2.714 J5.741
G1 X11.498 Y-39.949
G2 X11.223 Y-39.794 I2.987 J5.604
G1 X10.721 Y-39.493
G2 X10.452 Y-39.323 I3.262 J5.448
G1 X9.962 Y-38.995
G2 X9.698 Y-38.809 I3.531 J5.278
G1 X9.22 Y-38.453
G2 X8.966 Y-38.253 I3.795 J5.091
G1 X8.501 Y-37.868
G2 X8.258 Y-37.656 I4.049 J4.891
G1 X7.806 Y-37.241
G2 X7.576 Y-37.019 I4.292 J4.68
G1 X7.137 Y-36.574
G2 X6.923 Y-36.346 I4.523 J4.458
G1 X6.497 Y-35.869
G2 X6.299 Y-35.637 I4.736 J4.23
G1 X5.887 Y-35.128
G2 X5.706 Y-34.893 I4.934 J3.997
G1 X5.307 Y-34.351
G2 X5.143 Y-34.117 I5.115 J3.763
G1 X4.758 Y-33.54
G2 X4.611 Y-33.31 I5.279 J3.529
G1 X4.239 Y-32.699
G2 X4.108 Y-32.473 I5.426 J3.298
G1 X3.75 Y-31.826
G2 X3.634 Y-31.606 I5.557 J3.073
G1 X3.29 Y-30.922
G2 X3.189 Y-30.711 I5.673 J2.854
G1 X2.859 Y-29.989
G2 X2.77 Y-29.786 I5.774 J2.642
G1 X2.454 Y-29.026
G2 X2.377 Y-28.833 I5.863 J2.439
G1 X2.075 Y-28.033
G2 X2.008 Y-27.849 I5.94 J2.246
G1 X1.72 Y-27.01
G2 X1.663 Y-26.835 I6.006 J2.061
G1 X1.389 Y-25.955
G2 X1.341 Y-25.791 I6.063 J1.887
G1 X1.081 Y-24.869
G2 X1.039 Y-24.714 I6.112 J1.722
G1 X0.794 Y-23.75
G2 X0.758 Y-23.604 I6.154 J1.567
G1 X0.527 Y-22.597
G2 X0.497 Y-22.46 I6.189 J1.421
G1 X0.28 Y-21.409
G2 X0.255 Y-21.28 I6.219 J1.284
G1 X0.053 Y-20.185
G2 X0.032 Y-20.064 I6.244 J1.155
G1 X-0.157 Y-18.924
G2 X-0.174 Y-18.811 I6.265 J1.035
G1 X-0.348 Y-17.624
G2 X-0.363 Y-17.518 I6.283 J0.922
G1 X-0.523 Y-16.286
G2 X-0.535 Y-16.187 I6.297 J0.816
G1 X-0.68 Y-14.907
G2 X-0.69 Y-14.814 I6.309 J0.717
G1 X-0.821 Y-13.487
G2 X-0.829 Y-13.4 I6.319 J0.624
G1 X-0.946 Y-12.024
G2 X-0.952 Y-11.943 I6.327 J0.537
G1 X-1.055 Y-10.519
G2 X-1.06 Y-10.442 I6.334 J0.456
G1 X-1.148 Y-8.969
G2 X-1.152 Y-8.897 I6.339 J0.379
G1 X-1.226 Y-7.375
G2 X-1.228 Y-7.308 I6.343 J0.308
G1 X-1.288 Y-5.735
G2 X-1.29 Y-5.672 I6.345 J0.24
G1 X-1.335 Y-4.05
G2 X-1.337 Y-3.99 I6.348 J0.177
G1 X-1.368 Y-2.317
G2 Y-2.261 I6.349 J0.118
G1 X-1.385 Y-0.538
G2 Y-0.485 I6.35 J0.062
G1 X-1.388 Y1.29
G2 Y1.339 I6.35 J0.009
G1 X-1.376 Y3.165
G2 X-1.375 Y3.212 I6.35 J-0.041
G1 X-1.349 Y5.088
G2 Y5.133 I6.349 J-0.088
G1 X-1.309 Y7.01
G2 X-1.308 Y7.057 I6.349 J-0.133
G1 X-1.256 Y8.881
G2 X-1.255 Y8.931 I6.347 J-0.181
G1 X-1.19 Y10.704
G2 X-1.188 Y10.757 I6.346 J-0.23
G1 X-1.111 Y12.479
G2 X-1.108 Y12.535 I6.344 J-0.283
G1 X-1.019 Y14.206
G2 X-1.016 Y14.265 I6.341 J-0.339
G1 X-0.914 Y15.885
G2 X-0.909 Y15.948 I6.337 J-0.398
G1 X-0.795 Y17.518
G2 X-0.79 Y17.585 I6.333 J-0.462
G1 X-0.663 Y19.104
G2 X-0.657 Y19.175 I6.328 J-0.529
G1 X-0.517 Y20.644
G2 X-0.509 Y20.72 I6.322 J-0.6
G1 X-0.357 Y22.14
G2 X-0.348 Y22.221 I6.314 J-0.676
G1 X-0.183 Y23.592
G2 X-0.172 Y23.678 I6.305 J-0.758
G1 X0.005 Y25
G2 X0.018 Y25.093 I6.294 J-0.844
G1 X0.208 Y26.367
G2 X0.223 Y26.465 I6.281 J-0.936
G1 X0.426 Y27.692
G2 X0.444 Y27.797 I6.265 J-1.035
G1 X0.66 Y28.977
G2 X0.681 Y29.089 I6.247 J-1.14
G1 X0.909 Y30.222
G2 X0.935 Y30.342 I6.225 J-1.253
G1 X1.175 Y31.43
G2 X1.205 Y31.557 I6.2 J-1.372
G1 X1.458 Y32.6
G2 X1.493 Y32.736 I6.17 J-1.5
G1 X1.759 Y33.734
G2 X1.8 Y33.879 I6.136 J-1.636
G1 X2.079 Y34.834
G2 X2.126 Y34.988 I6.095 J-1.781
G1 X2.417 Y35.9
G2 X2.472 Y36.062 I6.048 J-1.934
G1 X2.776 Y36.932
G2 X2.84 Y37.105 I5.994 J-2.097
G1 X3.157 Y37.934
G2 X3.229 Y38.115 I5.931 J-2.27
G1 X3.559 Y38.903
G2 X3.643 Y39.094 I5.858 J-2.451
G1 X3.985 Y39.843
G2 X4.081 Y40.042 I5.774 J-2.642
G1 X4.436 Y40.752
G2 X4.545 Y40.96 I5.679 J-2.842
G1 X4.913 Y41.632
G2 X5.036 Y41.847 I5.569 J-3.05
G1 X5.417 Y42.482
G2 X5.555 Y42.702 I5.446 J-3.265
G1 X5.948 Y43.3
G2 X6.103 Y43.525 I5.308 J-3.485
G1 X6.508 Y44.088
G2 X6.681 Y44.317 I5.153 J-3.711
G1 X7.098 Y44.845
G2 X7.287 Y45.072 I4.98 J-3.939
G1 X7.717 Y45.567
G2 X7.923 Y45.792 I4.792 J-4.167
G1 X8.365 Y46.254
G2 X8.587 Y46.475 I4.586 J-4.392
G1 X9.042 Y46.905
G2 X9.278 Y47.117 I4.363 J-4.613
G1 X9.744 Y47.516
G2 X9.995 Y47.719 I4.127 J-4.826
G1 X10.473 Y48.088
G2 X10.734 Y48.279 I3.876 J-5.03
G1 X11.224 Y48.618
G2 X11.495 Y48.795 I3.615 J-5.221
G1 X11.996 Y49.106
G2 X12.27 Y49.267 I3.344 J-5.398
G1 X12.783 Y49.55
G2 X13.062 Y49.695 I3.07 J-5.559
G1 X13.586 Y49.951
G2 X13.864 Y50.079 I2.79 J-5.704
G1 X14.398 Y50.309
G2 X14.674 Y50.42 I2.512 J-5.832
G1 X15.219 Y50.625
G2 X15.491 Y50.721 I2.236 J-5.943
G1 X16.046 Y50.901
G2 X16.31 Y50.981 I1.965 J-6.038
G1 X16.876 Y51.138
G2 X17.13 Y51.203 I1.701 J-6.118
G1 X17.706 Y51.338
G2 X17.952 Y51.391 I1.448 J-6.183
G1 X18.537 Y51.504
G2 X18.77 Y51.544 I1.202 J-6.235
G1 X19.365 Y51.636
G2 X19.588 Y51.666 I0.969 J-6.276
G1 X20.192 Y51.738
G2 X20.404 Y51.759 I0.746 J-6.306
G1 X21.016 Y51.811
G2 X21.215 Y51.825 I0.535 J-6.327
G1 X21.837 Y51.858
G2 X22.114 Y51.866 I0.336 J-6.341
G1 X23.38 Y51.878
G2 X23.715 Y51.872 I0.058 J-6.35
G1 X25.008 Y51.816
G2 X25.307 Y51.795 I-0.277 J-6.344
G1 X26.625 Y51.675
G2 X26.892 Y51.645 I-0.576 J-6.324
G1 X28.23 Y51.466
G2 X28.37 Y51.446 I-0.843 J-6.294
X28.471 Y51.429 Z6.996 I-0.983 J-6.273 F400.3
G1 X29.825 Y51.194 Z6.948
G2 X30.045 Y51.152 Z6.941 I-1.085 J-6.257
G1 X31.409 Y50.866 Z6.892
G2 X31.615 Y50.819 Z6.885 I-1.305 J-6.214
G1 X32.985 Y50.484 Z6.835
G2 X33.178 Y50.433 Z6.828 I-1.511 J-6.168
G1 X34.549 Y50.051 Z6.779
G2 X34.733 Y49.997 Z6.772 I-1.704 J-6.117
G1 X36.1 Y49.571 Z6.722
G2 X36.279 Y49.512 Z6.715 I-1.889 J-6.063
G1 X37.636 Y49.045 Z6.665
G2 X37.812 Y48.981 Z6.659 I-2.068 J-6.004
G1 X39.154 Y48.474 Z6.609
G2 X39.328 Y48.406 Z6.602 I-2.244 J-5.94
G1 X40.652 Y47.861 Z6.552
G2 X40.827 Y47.786 Z6.545 I-2.418 J-5.872
G1 X42.127 Y47.204 Z6.496
G2 X42.302 Y47.123 Z6.489 I-2.592 J-5.797
G1 X43.574 Y46.507 Z6.44
G2 X43.751 Y46.418 Z6.433 I-2.768 J-5.715
G1 X44.992 Y45.768 Z6.384
G2 X45.169 Y45.672 Z6.377 I-2.944 J-5.626
G1 X46.376 Y44.991 Z6.328
G2 X46.555 Y44.885 Z6.321 I-3.122 J-5.53
G1 X47.724 Y44.174 Z6.273
G2 X47.903 Y44.061 Z6.266 I-3.302 J-5.424
G1 X49.033 Y43.32 Z6.219
G2 X49.21 Y43.2 Z6.211 I-3.48 J-5.311
G1 X50.299 Y42.432 Z6.165
G2 X50.474 Y42.305 Z6.157 I-3.658 J-5.191
G1 X51.521 Y41.512 Z6.111
G2 X51.689 Y41.381 Z6.104 I-3.833 J-5.063
G1 X52.695 Y40.564 Z6.059
G2 X52.854 Y40.431 Z6.051 I-4 J-4.932
G1 X53.821 Y39.593 Z6.007
G2 X53.966 Y39.463 Z6 I-4.158 J-4.799
G1 X54.896 Y38.606 Z5.956
G2 X55.026 Y38.483 Z5.949 I-4.304 J-4.669
G1 X55.921 Y37.61 Z5.906
G2 X56.031 Y37.501 Z5.9 I-4.433 J-4.546
G1 X56.897 Y36.614 Z5.857
G2 X57.014 Y36.491 Z5.851 I-4.543 J-4.437
G1 X58.682 Y34.689 Z5.765
G2 X58.742 Y34.624 Z5.762 I-4.659 J-4.314
G1 X60.358 Y32.829 Z5.678
X61.13 Y31.986 Z5.638
X61.883 Y31.189 Z5.6
X62.627 Y30.441 Z5.563
X63.371 Y29.74 Z5.527
X64.125 Y29.085 Z5.492
X64.937 Y28.444 Z5.456
X65.308 Y28.174 Z5.44
X65.723 Y27.889 Z5.423
X66.152 Y27.611 Z5.405
X66.598 Y27.341 Z5.387
X67.063 Y27.077 Z5.368
X67.55 Y26.819 Z5.349
X68.062 Y26.567 Z5.329
X68.594 Y26.324 Z5.308
X69.273 Y26.04 Z5.283
X69.99 Y25.767 Z5.256
X70.755 Y25.505 Z5.228
X71.571 Y25.253 Z5.198
X72.442 Y25.013 Z5.166
X73.368 Y24.787 Z5.133
X74.355 Y24.574 Z5.098
X75.402 Y24.377 Z5.06
X76.511 Y24.197 Z5.021
X77.684 Y24.034 Z4.98
X78.922 Y23.89 Z4.936
X80.226 Y23.765 Z4.891
X81.595 Y23.661 Z4.843
X83.032 Y23.578 Z4.792
X84.535 Y23.517 Z4.74
X86.104 Y23.477 Z4.685
X87.634 Y23.462 Z4.632
X89.102 Y23.47 Z4.58
X90.508 Y23.5 Z4.531
X91.851 Y23.553 Z4.484
X93.132 Y23.627 Z4.44
X94.351 Y23.723 Z4.397
X95.509 Y23.838 Z4.356
X96.607 Y23.972 Z4.318
X97.647 Y24.125 Z4.281
X98.629 Y24.294 Z4.246
X99.554 Y24.479 Z4.213
X100.425 Y24.679 Z4.182
X101.245 Y24.892 Z4.152
X102.015 Y25.118 Z4.124
X102.74 Y25.355 Z4.098
X103.421 Y25.602 Z4.072
X104.061 Y25.858 Z4.048
X104.665 Y26.124 Z4.025
X105.238 Y26.4 Z4.003
X105.315 Y26.44 Z4
X105.783 Y26.685 F849.6
X106.3 Y26.978
X106.798 Y27.282
X107.279 Y27.598
X107.743 Y27.923
X108.201 Y28.264
X108.62 Y28.594
X109.536 Y29.372
X110.418 Y30.185
X111.302 Y31.051
X113.202 Y33.003
G2 X113.216 Y33.017 I4.551 J-4.428
G1 X115.181 Y35.024
G2 X115.296 Y35.139 I4.537 J-4.442
G1 X116.314 Y36.127
G2 X116.433 Y36.24 I4.422 J-4.557
G1 X117.486 Y37.21
G2 X117.636 Y37.344 I4.303 J-4.67
G1 X118.732 Y38.291
G2 X118.903 Y38.435 I4.153 J-4.803
G1 X120.047 Y39.355
G2 X120.234 Y39.501 I3.982 J-4.946
G1 X121.429 Y40.391
G2 X121.629 Y40.534 I3.795 J-5.092
G1 X122.877 Y41.391
G2 X123.086 Y41.528 I3.595 J-5.235
G1 X124.388 Y42.349
G2 X124.595 Y42.474 I3.386 J-5.372
G1 X125.947 Y43.256
G2 X126.158 Y43.373 I3.179 J-5.497
G1 X127.559 Y44.114
G2 X127.767 Y44.219 I2.968 J-5.614
G1 X129.213 Y44.917
G2 X129.42 Y45.012 I2.76 J-5.719
G1 X130.906 Y45.665
G2 X131.108 Y45.749 I2.553 J-5.814
G1 X132.627 Y46.355
G2 X132.83 Y46.432 I2.351 J-5.899
G1 X134.377 Y46.988
G2 X134.581 Y47.057 I2.148 J-5.976
G1 X136.149 Y47.561
G2 X136.355 Y47.624 I1.944 J-6.045
G1 X137.936 Y48.073
G2 X138.148 Y48.13 I1.738 J-6.108
G1 X139.735 Y48.523
G2 X139.957 Y48.573 I1.526 J-6.164
G1 X141.541 Y48.906
G2 X141.779 Y48.951 I1.304 J-6.215
G1 X143.353 Y49.219
G2 X143.611 Y49.258 I1.066 J-6.26
G1 X145.167 Y49.457
G2 X145.38 Y49.481 I0.808 J-6.298
G1 X146.15 Y49.553
G2 X146.301 Y49.566 I0.595 J-6.322
G1 X147.063 Y49.619
G2 X147.225 Y49.628 I0.444 J-6.334
G1 X147.979 Y49.662
G2 X148.15 Y49.667 I0.282 J-6.344
G1 X148.895 Y49.68
G2 X149.08 Y49.681 I0.111 J-6.349
G1 X149.816 Y49.672
G2 X150.012 Y49.667 I-0.074 J-6.35
G1 X150.738 Y49.636
G2 X150.948 Y49.623 I-0.27 J-6.344
G1 X151.663 Y49.569
G2 X151.888 Y49.548 I-0.48 J-6.332
G1 X152.591 Y49.47
G2 X152.828 Y49.438 I-0.705 J-6.311
G1 X153.519 Y49.335
G2 X153.774 Y49.291 I-0.942 J-6.28
G1 X154.452 Y49.161
G2 X154.721 Y49.104 I-1.197 J-6.236
G1 X155.385 Y48.946
G2 X155.664 Y48.873 I-1.466 J-6.179
G1 X156.315 Y48.687
G2 X156.607 Y48.596 I-1.745 J-6.105
G1 X157.244 Y48.38
G2 X157.549 Y48.268 I-2.037 J-6.014
G1 X158.171 Y48.021
G2 X158.484 Y47.887 I-2.342 J-5.902
G1 X159.09 Y47.608
G2 X159.399 Y47.456 I-2.655 J-5.768
G1 X159.991 Y47.144
G2 X160.308 Y46.964 I-2.964 J-5.616
G1 X160.883 Y46.617
G2 X161.191 Y46.419 I-3.281 J-5.437
G1 X161.75 Y46.036
G2 X162.052 Y45.816 I-3.589 J-5.238
G1 X162.594 Y45.395
G2 X162.877 Y45.163 I-3.891 J-5.018
G1 X163.403 Y44.704
G2 X163.673 Y44.454 I-4.174 J-4.785
G1 X164.182 Y43.955
G2 X164.435 Y43.692 I-4.444 J-4.536
G1 X164.926 Y43.153
G2 X165.154 Y42.889 I-4.697 J-4.273
G1 X165.628 Y42.306
G2 X165.836 Y42.036 I-4.925 J-4.009
G1 X166.292 Y41.409
G2 X166.477 Y41.142 I-5.133 J-3.738
G1 X166.915 Y40.47
G2 X167.078 Y40.207 I-5.318 J-3.47
G1 X167.498 Y39.49
G2 X167.636 Y39.241 I-5.481 J-3.207
G1 X168.039 Y38.476
G2 X168.166 Y38.22 I-5.619 J-2.959
G1 X168.549 Y37.405
G2 X168.651 Y37.178 I-5.746 J-2.702
G1 X169.017 Y36.314
G2 X169.107 Y36.087 I-5.848 J-2.475
G1 X169.454 Y35.171
G2 X169.531 Y34.958 I-5.938 J-2.249
G1 X169.859 Y33.99
G2 X169.921 Y33.795 I-6.015 J-2.036
G1 X170.231 Y32.773
G2 X170.284 Y32.586 I-6.077 J-1.842
G1 X170.575 Y31.508
G2 X170.62 Y31.334 I-6.13 J-1.655
G1 X170.892 Y30.2
G2 X170.928 Y30.038 I-6.175 J-1.481
G1 X171.181 Y28.846
G2 X171.211 Y28.701 I-6.211 J-1.319
G1 X171.446 Y27.451
G2 X171.47 Y27.311 I-6.241 J-1.174
G1 X171.686 Y26.002
G2 X171.706 Y25.873 I-6.265 J-1.034
G1 X171.903 Y24.503
G2 X171.919 Y24.383 I-6.285 J-0.904
G1 X172.097 Y22.952
G2 X172.11 Y22.841 I-6.301 J-0.784
G1 X172.269 Y21.348
G2 X172.279 Y21.249 I-6.314 J-0.672
G1 X172.42 Y19.693
G2 X172.428 Y19.593 I-6.324 J-0.573
G1 X172.549 Y17.973
G2 X172.555 Y17.888 I-6.332 J-0.473
G1 X172.658 Y16.204
G2 X172.663 Y16.121 I-6.338 J-0.388
G1 X172.747 Y14.371
G2 X172.75 Y14.294 I-6.343 J-0.305
G1 X172.815 Y12.479
G2 X172.817 Y12.411 I-6.346 J-0.227
G1 X172.864 Y10.53
G2 X172.865 Y10.459 I-6.348 J-0.159
G1 X172.892 Y8.512
G2 X172.893 Y8.452 I-6.349 J-0.088
G1 X172.902 Y6.438
G2 Y6.38 I-6.35 J-0.028
G1 X172.892 Y4.298
G2 X172.891 Y4.243 I-6.35 J0.031
G1 X172.862 Y2.095
G2 Y2.045 I-6.349 J0.086
G1 X172.816 Y-0.103
G2 X172.814 Y-0.159 I-6.349 J0.136
G1 X172.751 Y-2.24
G2 X172.749 Y-2.296 I-6.347 J0.192
G1 X172.67 Y-4.309
G2 X172.667 Y-4.37 I-6.345 J0.249
G1 X172.572 Y-6.315
G2 X172.569 Y-6.383 I-6.342 J0.31
G1 X172.457 Y-8.261
G2 X172.452 Y-8.334 I-6.339 J0.378
G1 X172.323 Y-10.145
G2 X172.317 Y-10.22 I-6.334 J0.451
G1 X172.172 Y-11.965
G2 X172.165 Y-12.045 I-6.328 J0.526
G1 X172.004 Y-13.725
G2 X171.995 Y-13.815 I-6.321 J0.606
G1 X171.817 Y-15.429
G2 X171.805 Y-15.526 I-6.312 J0.696
G1 X171.61 Y-17.076
G2 X171.597 Y-17.176 I-6.3 J0.793
G1 X171.386 Y-18.662
G2 X171.369 Y-18.774 I-6.287 J0.892
G1 X171.141 Y-20.197
G2 X171.121 Y-20.318 I-6.27 J1.004
G1 X170.876 Y-21.679
G2 X170.852 Y-21.804 I-6.25 J1.124
G1 X170.591 Y-23.105
G2 X170.561 Y-23.244 I-6.226 J1.249
G1 X170.283 Y-24.485
G2 X170.248 Y-24.634 I-6.196 J1.388
G1 X169.953 Y-25.816
G2 X169.911 Y-25.977 I-6.161 J1.538
G1 X169.599 Y-27.101
G2 X169.55 Y-27.268 I-6.119 J1.699
G1 X169.222 Y-28.335
G2 X169.16 Y-28.525 I-6.07 J1.866
G1 X168.814 Y-29.536
G2 X168.747 Y-29.722 I-6.008 J2.056
G1 X168.386 Y-30.679
G2 X168.301 Y-30.894 I-5.941 J2.242
G1 X167.922 Y-31.797
G2 X167.826 Y-32.013 I-5.856 J2.457
G1 X167.431 Y-32.865
G2 X167.317 Y-33.098 I-5.76 J2.673
G1 X166.905 Y-33.899
G2 X166.773 Y-34.142 I-5.646 J2.906
G1 X166.344 Y-34.893
G2 X166.195 Y-35.141 I-5.514 J3.15
G1 X165.75 Y-35.844
G2 X165.579 Y-36.099 I-5.365 J3.398
G1 X165.118 Y-36.754
G2 X164.922 Y-37.019 I-5.194 J3.653
G1 X164.444 Y-37.629
G2 X164.228 Y-37.889 I-4.998 J3.917
G1 X163.734 Y-38.454
G2 X163.495 Y-38.713 I-4.782 J4.178
G1 X162.985 Y-39.235
G2 X162.725 Y-39.487 I-4.543 J4.436
G1 X162.199 Y-39.967
G2 X161.924 Y-40.205 I-4.283 J4.688
G1 X161.383 Y-40.645
G2 X161.086 Y-40.873 I-4.008 J4.925
G1 X160.529 Y-41.274
G2 X160.222 Y-41.482 I-3.711 J5.153
G1 X159.65 Y-41.845
G2 X159.335 Y-42.032 I-3.404 J5.361
G1 X158.748 Y-42.359
G2 X158.426 Y-42.526 I-3.089 J5.548
G1 X157.824 Y-42.818
G2 X157.508 Y-42.96 I-2.767 J5.715
G1 X156.892 Y-43.218
G2 X156.576 Y-43.34 I-2.451 J5.858
G1 X155.946 Y-43.565
G2 X155.641 Y-43.666 I-2.135 J5.98
G1 X154.998 Y-43.859
G2 X154.699 Y-43.941 I-1.83 J6.081
G1 X154.042 Y-44.104
G2 X153.758 Y-44.168 I-1.531 J6.163
G1 X153.088 Y-44.302
G2 X152.82 Y-44.35 I-1.247 J6.226
G1 X152.138 Y-44.456
G2 X151.882 Y-44.491 I-0.979 J6.274
G1 X151.188 Y-44.571
G2 X150.948 Y-44.593 I-0.723 J6.309
G1 X150.242 Y-44.647
G2 X150.018 Y-44.66 I-0.483 J6.332
G1 X149.302 Y-44.69
G2 X149.092 Y-44.695 I-0.259 J6.345
G1 X148.366 Y-44.7
G2 X148.17 Y-44.699 I-0.049 J6.35
G1 X147.434 Y-44.682
G2 X147.249 Y-44.675 I0.147 J6.348
G1 X146.504 Y-44.636
G2 X146.333 Y-44.624 I0.332 J6.341
G1 X145.581 Y-44.565
G2 X145.419 Y-44.55 I0.503 J6.33
G1 X144.659 Y-44.47
G2 X144.508 Y-44.452 I0.665 J6.315
G1 X143.742 Y-44.353
G2 X143.532 Y-44.322 I0.816 J6.297
G1 X141.983 Y-44.068
G2 X141.725 Y-44.02 I1.026 J6.267
G1 X140.161 Y-43.698
G2 X139.925 Y-43.644 I1.284 J6.219
G1 X138.354 Y-43.257
G2 X138.134 Y-43.198 I1.52 J6.165
G1 X136.562 Y-42.751
G2 X136.351 Y-42.686 I1.74 J6.107
G1 X134.787 Y-42.182
G2 X134.584 Y-42.112 I1.951 J6.043
G1 X133.035 Y-41.553
G2 X132.835 Y-41.477 I2.154 J5.973
G1 X131.308 Y-40.868
G2 X131.108 Y-40.784 I2.354 J5.897
G1 X129.61 Y-40.126
G2 X129.409 Y-40.034 I2.554 J5.814
G1 X127.947 Y-39.33
G2 X127.743 Y-39.227 I2.755 J5.721
G1 X126.323 Y-38.479
G2 X126.12 Y-38.368 I2.959 J5.619
G1 X124.745 Y-37.578
G2 X124.538 Y-37.454 I3.162 J5.507
G1 X123.214 Y-36.625
G2 X123.011 Y-36.492 I3.369 J5.383
G1 X121.739 Y-35.627
G2 X121.537 Y-35.484 I3.572 J5.25
G1 X120.319 Y-34.584
G2 X120.123 Y-34.433 I3.774 J5.107
G1 X118.96 Y-33.501
G2 X118.778 Y-33.349 I3.97 J4.956
G1 X117.667 Y-32.389
G2 X117.5 Y-32.24 I4.152 J4.804
G1 X116.438 Y-31.255
G2 X116.295 Y-31.117 I4.319 J4.655
G1 X115.276 Y-30.111
G2 X115.157 Y-29.991 I4.462 J4.518
G1 X114.175 Y-28.968
G2 X114.066 Y-28.852 I4.581 J4.398
G1 X112.172 Y-26.777
G2 X112.161 Y-26.764 I4.69 J4.281
G1 X110.328 Y-24.745
X109.474 Y-23.848
X108.622 Y-23.006
X107.732 Y-22.195
X107.324 Y-21.85
X106.882 Y-21.496
X106.427 Y-21.153
X105.958 Y-20.822
X105.473 Y-20.501
X104.963 Y-20.188
X104.429 Y-19.884
X103.869 Y-19.59
X103.273 Y-19.303
X102.641 Y-19.024
X101.97 Y-18.753
X101.255 Y-18.491
X100.493 Y-18.239
X99.681 Y-17.998
X98.816 Y-17.767
X97.898 Y-17.55
X96.923 Y-17.347
X95.889 Y-17.158
X94.797 Y-16.985
X93.643 Y-16.83
X92.428 Y-16.692
X91.15 Y-16.573
X89.81 Y-16.473
X88.406 Y-16.393
X86.939 Y-16.334
X85.41 Y-16.297
X83.84 Y-16.281
X82.336 Y-16.29
X80.897 Y-16.323
X79.525 Y-16.379
X78.218 Y-16.458
X76.975 Y-16.559
X75.797 Y-16.681
X74.683 Y-16.822
X73.629 Y-16.983
X72.636 Y-17.161
X71.702 Y-17.355
X70.824 Y-17.564
X69.999 Y-17.787
X69.226 Y-18.023
X68.5 Y-18.27
X67.811 Y-18.531
X67.271 Y-18.754
X66.751 Y-18.988
X66.255 Y-19.229
X65.78 Y-19.477
X65.325 Y-19.732
X64.887 Y-19.994
X64.463 Y-20.264
X64.083 Y-20.522
X63.248 Y-21.134
X62.471 Y-21.763
X61.704 Y-22.436
X60.935 Y-23.158
X60.154 Y-23.928
X59.353 Y-24.744
X57.675 Y-26.481
G2 X57.613 Y-26.545 I-4.568 J4.411
G1 X55.883 Y-28.287
G2 X55.762 Y-28.405 I-4.506 J4.474
G1 X54.866 Y-29.262
G2 X54.752 Y-29.367 I-4.385 J4.593
G1 X53.827 Y-30.209
G2 X53.693 Y-30.327 I-4.272 J4.698
G1 X52.734 Y-31.151
G2 X52.584 Y-31.276 I-4.138 J4.817
G1 X51.588 Y-32.08
G2 X51.425 Y-32.207 I-3.988 J4.941
G1 X50.391 Y-32.988
G2 X50.219 Y-33.113 I-3.826 J5.068
G1 X49.144 Y-33.869
G2 X48.966 Y-33.99 I-3.653 J5.194
G1 X47.851 Y-34.719
G2 X47.669 Y-34.834 I-3.475 J5.315
G1 X46.514 Y-35.534
G2 X46.331 Y-35.641 I-3.293 J5.429
G1 X45.138 Y-36.311
G2 X44.955 Y-36.41 I-3.11 J5.536
G1 X43.726 Y-37.049
G2 X43.544 Y-37.139 I-2.927 J5.635
G1 X42.281 Y-37.745
G2 X42.102 Y-37.828 I-2.746 J5.726
G1 X40.809 Y-38.399
G2 X40.631 Y-38.474 I-2.567 J5.808
G1 X39.311 Y-39.01
G2 X39.134 Y-39.079 I-2.388 J5.884
G1 X37.793 Y-39.577
G2 X37.616 Y-39.64 I-2.212 J5.952
G1 X36.257 Y-40.1
G2 X36.079 Y-40.157 I-2.035 J6.015
G1 X34.706 Y-40.577
G2 X34.525 Y-40.629 I-1.857 J6.072
G1 X33.145 Y-41.007
G2 X32.958 Y-41.055 I-1.676 J6.125
G1 X31.575 Y-41.389
G2 X31.38 Y-41.432 I-1.489 J6.173
G1 X29.999 Y-41.72
G2 X29.792 Y-41.759 I-1.294 J6.217
G1 X28.419 Y-41.998
G2 X28.197 Y-42.033 I-1.087 J6.256
G1 X26.837 Y-42.22
G2 X26.594 Y-42.249 I-0.866 J6.291
G1 X25.251 Y-42.381
G2 X24.983 Y-42.402 I-0.623 J6.319
G1 X23.662 Y-42.476
G2 X23.363 Y-42.485 I-0.355 J6.34
G1 X22.068 Y-42.497
G2 X21.732 Y-42.491 I-0.056 J6.35
G1 X20.468 Y-42.435
G2 X20.191 Y-42.417 I0.28 J6.344
G1 X19.572 Y-42.362
G2 X19.373 Y-42.341 I0.556 J6.326
G1 X18.762 Y-42.268
G2 X18.552 Y-42.24 I0.756 J6.305
G1 X17.951 Y-42.147
G2 X17.729 Y-42.109 I0.966 J6.276
G1 X17.138 Y-41.996
G2 X16.906 Y-41.948 I1.187 J6.238
G1 X16.325 Y-41.814
G2 X16.081 Y-41.753 I1.419 J6.189
G1 X15.51 Y-41.599
G2 X15.259 Y-41.525 I1.663 J6.128
G1 X14.698 Y-41.348
G2 X14.437 Y-41.259 I1.914 J6.055
G1 X13.888 Y-41.059
G2 X13.621 Y-40.954 I2.175 J5.966
G1 X13.083 Y-40.73
G2 X12.811 Y-40.609 I2.442 J5.861
G1 X12.285 Y-40.361
G2 X12.012 Y-40.224 I2.714 J5.741
G1 X11.498 Y-39.949
G2 X11.223 Y-39.794 I2.987 J5.604
G1 X10.721 Y-39.493
G2 X10.452 Y-39.323 I3.262 J5.448
G1 X9.962 Y-38.995
G2 X9.698 Y-38.809 I3.531 J5.278
G1 X9.22 Y-38.453
G2 X8.966 Y-38.253 I3.795 J5.091
G1 X8.501 Y-37.868
G2 X8.258 Y-37.656 I4.049 J4.891
G1 X7.806 Y-37.241
G2 X7.576 Y-37.019 I4.292 J4.68
G1 X7.137 Y-36.574
G2 X6.923 Y-36.346 I4.523 J4.458
G1 X6.497 Y-35.869
G2 X6.299 Y-35.637 I4.736 J4.23
G1 X5.887 Y-35.128
G2 X5.706 Y-34.893 I4.934 J3.997
G1 X5.307 Y-34.351
G2 X5.143 Y-34.117 I5.115 J3.763
G1 X4.758 Y-33.54
G2 X4.611 Y-33.31 I5.279 J3.529
G1 X4.239 Y-32.699
G2 X4.108 Y-32.473 I5.426 J3.298
G1 X3.75 Y-31.826
G2 X3.634 Y-31.606 I5.557 J3.073
G1 X3.29 Y-30.922
G2 X3.189 Y-30.711 I5.673 J2.854
G1 X2.859 Y-29.989
G2 X2.77 Y-29.786 I5.774 J2.642
G1 X2.454 Y-29.026
G2 X2.377 Y-28.833 I5.863 J2.439
G1 X2.075 Y-28.033
G2 X2.008 Y-27.849 I5.94 J2.246
G1 X1.72 Y-27.01
G2 X1.663 Y-26.835 I6.006 J2.061
G1 X1.389 Y-25.955
G2 X1.341 Y-25.791 I6.063 J1.887
G1 X1.081 Y-24.869
G2 X1.039 Y-24.714 I6.112 J1.722
G1 X0.794 Y-23.75
G2 X0.758 Y-23.604 I6.154 J1.567
G1 X0.527 Y-22.597
G2 X0.497 Y-22.46 I6.189 J1.421
G1 X0.28 Y-21.409
G2 X0.255 Y-21.28 I6.219 J1.284
G1 X0.053 Y-20.185
G2 X0.032 Y-20.064 I6.244 J1.155
G1 X-0.157 Y-18.924
G2 X-0.174 Y-18.811 I6.265 J1.035
G1 X-0.348 Y-17.624
G2 X-0.363 Y-17.518 I6.283 J0.922
G1 X-0.523 Y-16.286
G2 X-0.535 Y-16.187 I6.297 J0.816
G1 X-0.68 Y-14.907
G2 X-0.69 Y-14.814 I6.309 J0.717
G1 X-0.821 Y-13.487
G2 X-0.829 Y-13.4 I6.319 J0.624
G1 X-0.946 Y-12.024
G2 X-0.952 Y-11.943 I6.327 J0.537
G1 X-1.055 Y-10.519
G2 X-1.06 Y-10.442 I6.334 J0.456
G1 X-1.148 Y-8.969
G2 X-1.152 Y-8.897 I6.339 J0.379
G1 X-1.226 Y-7.375
G2 X-1.228 Y-7.308 I6.343 J0.308
G1 X-1.288 Y-5.735
G2 X-1.29 Y-5.672 I6.345 J0.24
G1 X-1.335 Y-4.05
G2 X-1.337 Y-3.99 I6.348 J0.177
G1 X-1.368 Y-2.317
G2 Y-2.261 I6.349 J0.118
G1 X-1.385 Y-0.538
G2 Y-0.485 I6.35 J0.062
G1 X-1.388 Y1.29
G2 Y1.339 I6.35 J0.009
G1 X-1.376 Y3.165
G2 X-1.375 Y3.212 I6.35 J-0.041
G1 X-1.349 Y5.088
G2 Y5.133 I6.349 J-0.088
G1 X-1.309 Y7.01
G2 X-1.308 Y7.057 I6.349 J-0.133
G1 X-1.256 Y8.881
G2 X-1.255 Y8.931 I6.347 J-0.181
G1 X-1.19 Y10.704
G2 X-1.188 Y10.757 I6.346 J-0.23
G1 X-1.111 Y12.479
G2 X-1.108 Y12.535 I6.344 J-0.283
G1 X-1.019 Y14.206
G2 X-1.016 Y14.265 I6.341 J-0.339
G1 X-0.914 Y15.885
G2 X-0.909 Y15.948 I6.337 J-0.398
G1 X-0.795 Y17.518
G2 X-0.79 Y17.585 I6.333 J-0.462
G1 X-0.663 Y19.104
G2 X-0.657 Y19.175 I6.328 J-0.529
G1 X-0.517 Y20.644
G2 X-0.509 Y20.72 I6.322 J-0.6
G1 X-0.357 Y22.14
G2 X-0.348 Y22.221 I6.314 J-0.676
G1 X-0.183 Y23.592
G2 X-0.172 Y23.678 I6.305 J-0.758
G1 X0.005 Y25
G2 X0.018 Y25.093 I6.294 J-0.844
G1 X0.208 Y26.367
G2 X0.223 Y26.465 I6.281 J-0.936
G1 X0.426 Y27.692
G2 X0.444 Y27.797 I6.265 J-1.035
G1 X0.66 Y28.977
G2 X0.681 Y29.089 I6.247 J-1.14
G1 X0.909 Y30.222
G2 X0.935 Y30.342 I6.225 J-1.253
G1 X1.175 Y31.43
G2 X1.205 Y31.557 I6.2 J-1.372
G1 X1.458 Y32.6
G2 X1.493 Y32.736 I6.17 J-1.5
G1 X1.759 Y33.734
G2 X1.8 Y33.879 I6.136 J-1.636
G1 X2.079 Y34.834
G2 X2.126 Y34.988 I6.095 J-1.781
G1 X2.417 Y35.9
G2 X2.472 Y36.062 I6.048 J-1.934
G1 X2.776 Y36.932
G2 X2.84 Y37.105 I5.994 J-2.097
G1 X3.157 Y37.934
G2 X3.229 Y38.115 I5.931 J-2.27
G1 X3.559 Y38.903
G2 X3.643 Y39.094 I5.858 J-2.451
G1 X3.985 Y39.843
G2 X4.081 Y40.042 I5.774 J-2.642
G1 X4.436 Y40.752
G2 X4.545 Y40.96 I5.679 J-2.842
G1 X4.913 Y41.632
G2 X5.036 Y41.847 I5.569 J-3.05
G1 X5.417 Y42.482
G2 X5.555 Y42.702 I5.446 J-3.265
G1 X5.948 Y43.3
G2 X6.103 Y43.525 I5.308 J-3.485
G1 X6.508 Y44.088
G2 X6.681 Y44.317 I5.153 J-3.711
G1 X7.098 Y44.845
G2 X7.287 Y45.072 I4.98 J-3.939
G1 X7.717 Y45.567
G2 X7.923 Y45.792 I4.792 J-4.167
G1 X8.365 Y46.254
G2 X8.587 Y46.475 I4.586 J-4.392
G1 X9.042 Y46.905
G2 X9.278 Y47.117 I4.363 J-4.613
G1 X9.744 Y47.516
G2 X9.995 Y47.719 I4.127 J-4.826
G1 X10.473 Y48.088
G2 X10.734 Y48.279 I3.876 J-5.03
G1 X11.224 Y48.618
G2 X11.495 Y48.795 I3.615 J-5.221
G1 X11.996 Y49.106
G2 X12.27 Y49.267 I3.344 J-5.398
G1 X12.783 Y49.55
G2 X13.062 Y49.695 I3.07 J-5.559
G1 X13.586 Y49.951
G2 X13.864 Y50.079 I2.79 J-5.704
G1 X14.398 Y50.309
G2 X14.674 Y50.42 I2.512 J-5.832
G1 X15.219 Y50.625
G2 X15.491 Y50.721 I2.236 J-5.943
G1 X16.046 Y50.901
G2 X16.31 Y50.981 I1.965 J-6.038
G1 X16.876 Y51.138
G2 X17.13 Y51.203 I1.701 J-6.118
G1 X17.706 Y51.338
G2 X17.952 Y51.391 I1.448 J-6.183
G1 X18.537 Y51.504
G2 X18.77 Y51.544 I1.202 J-6.235
G1 X19.365 Y51.636
G2 X19.588 Y51.666 I0.969 J-6.276
G1 X20.192 Y51.738
G2 X20.404 Y51.759 I0.746 J-6.306
G1 X21.016 Y51.811
G2 X21.215 Y51.825 I0.535 J-6.327
G1 X21.837 Y51.858
G2 X22.114 Y51.866 I0.336 J-6.341
G1 X23.38 Y51.878
G2 X23.715 Y51.872 I0.058 J-6.35
G1 X25.008 Y51.816
G2 X25.307 Y51.795 I-0.277 J-6.344
G1 X26.625 Y51.675
G2 X26.892 Y51.645 I-0.576 J-6.324
G1 X28.23 Y51.466
G2 X28.471 Y51.429 I-0.843 J-6.294
G1 X29.825 Y51.194
G2 X30.045 Y51.152 I-1.085 J-6.257
G1 X31.409 Y50.866
G2 X31.615 Y50.819 I-1.305 J-6.214
G1 X32.985 Y50.484
G2 X33.178 Y50.433 I-1.511 J-6.168
G1 X34.549 Y50.051
G2 X34.733 Y49.997 I-1.704 J-6.117
G1 X36.1 Y49.571
G2 X36.279 Y49.512 I-1.889 J-6.063
G1 X37.636 Y49.045
G2 X37.812 Y48.981 I-2.068 J-6.004
G1 X39.154 Y48.474
G2 X39.328 Y48.406 I-2.244 J-5.94
G1 X40.652 Y47.861
G2 X40.827 Y47.786 I-2.418 J-5.872
G1 X42.127 Y47.204
G2 X42.302 Y47.123 I-2.592 J-5.797
G1 X43.574 Y46.507
G2 X43.751 Y46.418 I-2.768 J-5.715
G1 X44.992 Y45.768
G2 X45.169 Y45.672 I-2.944 J-5.626
G1 X46.376 Y44.991
G2 X46.555 Y44.885 I-3.122 J-5.53
G1 X47.724 Y44.174
G2 X47.903 Y44.061 I-3.302 J-5.424
G1 X49.033 Y43.32
G2 X49.21 Y43.2 I-3.48 J-5.311
G1 X50.299 Y42.432
G2 X50.474 Y42.305 I-3.658 J-5.191
G1 X51.521 Y41.512
G2 X51.689 Y41.381 I-3.833 J-5.063
G1 X52.695 Y40.564
G2 X52.854 Y40.431 I-4 J-4.932
G1 X53.821 Y39.593
G2 X53.966 Y39.463 I-4.158 J-4.799
G1 X54.896 Y38.606
G2 X55.026 Y38.483 I-4.304 J-4.669
G1 X55.921 Y37.61
G2 X56.031 Y37.501 I-4.433 J-4.546
G1 X56.897 Y36.614
G2 X57.014 Y36.491 I-4.543 J-4.437
G1 X58.682 Y34.689
G2 X58.742 Y34.624 I-4.659 J-4.314
G1 X60.358 Y32.829
X61.13 Y31.986
X61.883 Y31.189
X62.627 Y30.441
X63.371 Y29.74
X64.125 Y29.085
X64.937 Y28.444
X65.308 Y28.174
X65.723 Y27.889
X66.152 Y27.611
X66.598 Y27.341
X67.063 Y27.077
X67.55 Y26.819
X68.062 Y26.567
X68.594 Y26.324
X69.273 Y26.04
X69.99 Y25.767
X70.755 Y25.505
X71.571 Y25.253
X72.442 Y25.013
X73.368 Y24.787
X74.355 Y24.574
X75.402 Y24.377
X76.511 Y24.197
X77.684 Y24.034
X78.922 Y23.89
X80.226 Y23.765
X81.595 Y23.661
X83.032 Y23.578
X84.535 Y23.517
X86.104 Y23.477
X87.634 Y23.462
X89.102 Y23.47
X90.508 Y23.5
X91.851 Y23.553
X93.132 Y23.627
X94.351 Y23.723
X95.509 Y23.838
X96.607 Y23.972
X97.647 Y24.125
X98.629 Y24.294
X99.554 Y24.479
X100.425 Y24.679
X101.245 Y24.892
X102.015 Y25.118
X102.74 Y25.355
X103.421 Y25.602
X104.061 Y25.858
X104.665 Y26.124
X105.238 Y26.4
X105.315 Y26.44
X105.783 Y26.685 Z3.982 F400.3
X106.3 Y26.978 Z3.961
X106.798 Y27.282 Z3.94
X107.279 Y27.598 Z3.92
X107.743 Y27.923 Z3.901
X108.201 Y28.264 Z3.881
X108.62 Y28.594 Z3.862
X109.536 Y29.372 Z3.82
X110.418 Y30.185 Z3.778
X111.302 Y31.051 Z3.735
X113.202 Y33.003 Z3.64
G2 X113.216 Y33.017 Z3.639 I4.551 J-4.428
G1 X115.181 Y35.024 Z3.541
G2 X115.296 Y35.139 Z3.535 I4.537 J-4.442
G1 X116.314 Y36.127 Z3.486
G2 X116.433 Y36.24 Z3.48 I4.422 J-4.557
G1 X117.486 Y37.21 Z3.43
G2 X117.636 Y37.344 Z3.423 I4.303 J-4.67
G1 X118.732 Y38.291 Z3.372
G2 X118.903 Y38.435 Z3.365 I4.153 J-4.803
G1 X120.047 Y39.355 Z3.313
G2 X120.234 Y39.501 Z3.305 I3.982 J-4.946
G1 X121.429 Y40.391 Z3.253
G2 X121.629 Y40.534 Z3.244 I3.795 J-5.092
G1 X122.877 Y41.391 Z3.192
G2 X123.086 Y41.528 Z3.183 I3.595 J-5.235
G1 X124.388 Y42.349 Z3.129
G2 X124.595 Y42.474 Z3.121 I3.386 J-5.372
G1 X125.947 Y43.256 Z3.066
G2 X126.158 Y43.373 Z3.058 I3.179 J-5.497
G1 X127.559 Y44.114 Z3.002
G2 X127.767 Y44.219 Z2.994 I2.968 J-5.614
G1 X129.213 Y44.917 Z2.938
G2 X129.42 Y45.012 Z2.93 I2.76 J-5.719
G1 X130.906 Y45.665 Z2.874
G2 X131.108 Y45.749 Z2.866 I2.553 J-5.814
G1 X132.627 Y46.355 Z2.809
G2 X132.83 Y46.432 Z2.801 I2.351 J-5.899
G1 X134.377 Y46.988 Z2.744
G2 X134.581 Y47.057 Z2.736 I2.148 J-5.976
G1 X136.149 Y47.561 Z2.679
G2 X136.355 Y47.624 Z2.671 I1.944 J-6.045
G1 X137.936 Y48.073 Z2.614
G2 X138.148 Y48.13 Z2.606 I1.738 J-6.108
G1 X139.735 Y48.523 Z2.549
G2 X139.957 Y48.573 Z2.541 I1.526 J-6.164
G1 X141.541 Y48.906 Z2.485
G2 X141.779 Y48.951 Z2.476 I1.304 J-6.215
G1 X143.353 Y49.219 Z2.42
G2 X143.611 Y49.258 Z2.411 I1.066 J-6.26
G1 X145.167 Y49.457 Z2.356
G2 X145.38 Y49.481 Z2.349 I0.808 J-6.298
G1 X146.15 Y49.553 Z2.322
G2 X146.301 Y49.566 Z2.317 I0.595 J-6.322
G1 X147.063 Y49.619 Z2.29
G2 X147.225 Y49.628 Z2.284 I0.444 J-6.334
G1 X147.979 Y49.662 Z2.258
G2 X148.15 Y49.667 Z2.252 I0.282 J-6.344
G1 X148.895 Y49.68 Z2.226
G2 X149.08 Y49.681 Z2.22 I0.111 J-6.349
G1 X149.816 Y49.672 Z2.194
G2 X150.012 Y49.667 Z2.187 I-0.074 J-6.35
G1 X150.738 Y49.636 Z2.162
G2 X150.948 Y49.623 Z2.154 I-0.27 J-6.344
G1 X151.663 Y49.569 Z2.129
G2 X151.888 Y49.548 Z2.121 I-0.48 J-6.332
G1 X152.591 Y49.47 Z2.097
G2 X152.828 Y49.438 Z2.088 I-0.705 J-6.311
G1 X153.519 Y49.335 Z2.064
G2 X153.774 Y49.291 Z2.055 I-0.942 J-6.28
G1 X154.452 Y49.161 Z2.031
G2 X154.721 Y49.104 Z2.021 I-1.197 J-6.236
G1 X155.385 Y48.946 Z1.997
G2 X155.664 Y48.873 Z1.987 I-1.466 J-6.179
G1 X156.315 Y48.687 Z1.964
G2 X156.607 Y48.596 Z1.953 I-1.745 J-6.105
G1 X157.244 Y48.38 Z1.929
G2 X157.549 Y48.268 Z1.918 I-2.037 J-6.014
G1 X158.171 Y48.021 Z1.895
G2 X158.484 Y47.887 Z1.883 I-2.342 J-5.902
G1 X159.09 Y47.608 Z1.86
G2 X159.399 Y47.456 Z1.848 I-2.655 J-5.768
G1 X159.991 Y47.144 Z1.824
G2 X160.308 Y46.964 Z1.811 I-2.964 J-5.616
G1 X160.883 Y46.617 Z1.788
G2 X161.191 Y46.419 Z1.775 I-3.281 J-5.437
G1 X161.75 Y46.036 Z1.752
G2 X162.052 Y45.816 Z1.738 I-3.589 J-5.238
G1 X162.594 Y45.395 Z1.715
G2 X162.877 Y45.163 Z1.702 I-3.891 J-5.018
G1 X163.403 Y44.704 Z1.677
G2 X163.673 Y44.454 Z1.664 I-4.174 J-4.785
G1 X164.182 Y43.955 Z1.64
G2 X164.435 Y43.692 Z1.627 I-4.444 J-4.536
G1 X164.926 Y43.153 Z1.601
G2 X165.154 Y42.889 Z1.589 I-4.697 J-4.273
G1 X165.628 Y42.306 Z1.563
G2 X165.836 Y42.036 Z1.551 I-4.925 J-4.009
G1 X166.292 Y41.409 Z1.524
G2 X166.477 Y41.142 Z1.513 I-5.133 J-3.738
G1 X166.915 Y40.47 Z1.485
G2 X167.078 Y40.207 Z1.474 I-5.318 J-3.47
G1 X167.498 Y39.49 Z1.445
G2 X167.636 Y39.241 Z1.435 I-5.481 J-3.207
G1 X168.039 Y38.476 Z1.405
G2 X168.166 Y38.22 Z1.395 I-5.619 J-2.959
G1 X168.549 Y37.405 Z1.363
G2 X168.651 Y37.178 Z1.355 I-5.746 J-2.702
G1 X169.017 Y36.314 Z1.322
G2 X169.107 Y36.087 Z1.313 I-5.848 J-2.475
G1 X169.454 Y35.171 Z1.279
G2 X169.531 Y34.958 Z1.271 I-5.938 J-2.249
G1 X169.859 Y33.99 Z1.235
G2 X169.921 Y33.795 Z1.228 I-6.015 J-2.036
G1 X170.231 Y32.773 Z1.191
G2 X170.284 Y32.586 Z1.184 I-6.077 J-1.842
G1 X170.575 Y31.508 Z1.145
G2 X170.62 Y31.334 Z1.139 I-6.13 J-1.655
G1 X170.892 Y30.2 Z1.098
G2 X170.928 Y30.038 Z1.092 I-6.175 J-1.481
G1 X171.181 Y28.846 Z1.05
G2 X171.211 Y28.701 Z1.045 I-6.211 J-1.319
G1 X171.446 Y27.451 Z1
X171.447 Y27.442
G2 X171.47 Y27.311 I-6.242 J-1.165 F849.6
G1 X171.686 Y26.002
G2 X171.706 Y25.873 I-6.265 J-1.034
G1 X171.903 Y24.503
G2 X171.919 Y24.383 I-6.285 J-0.904
G1 X172.097 Y22.952
G2 X172.11 Y22.841 I-6.301 J-0.784
G1 X172.269 Y21.348
G2 X172.279 Y21.249 I-6.314 J-0.672
G1 X172.42 Y19.693
G2 X172.428 Y19.593 I-6.324 J-0.573
G1 X172.549 Y17.973
G2 X172.555 Y17.888 I-6.332 J-0.473
G1 X172.658 Y16.204
G2 X172.663 Y16.121 I-6.338 J-0.388
G1 X172.747 Y14.371
G2 X172.75 Y14.294 I-6.343 J-0.305
G1 X172.815 Y12.479
G2 X172.817 Y12.411 I-6.346 J-0.227
G1 X172.864 Y10.53
G2 X172.865 Y10.459 I-6.348 J-0.159
G1 X172.892 Y8.512
G2 X172.893 Y8.452 I-6.349 J-0.088
G1 X172.902 Y6.438
G2 Y6.38 I-6.35 J-0.028
G1 X172.892 Y4.298
G2 X172.891 Y4.243 I-6.35 J0.031
G1 X172.862 Y2.095
G2 Y2.045 I-6.349 J0.086
G1 X172.816 Y-0.103
G2 X172.814 Y-0.159 I-6.349 J0.136
G1 X172.751 Y-2.24
G2 X172.749 Y-2.296 I-6.347 J0.192
G1 X172.67 Y-4.309
G2 X172.667 Y-4.37 I-6.345 J0.249
G1 X172.572 Y-6.315
G2 X172.569 Y-6.383 I-6.342 J0.31
G1 X172.457 Y-8.261
G2 X172.452 Y-8.334 I-6.339 J0.378
G1 X172.323 Y-10.145
G2 X172.317 Y-10.22 I-6.334 J0.451
G1 X172.172 Y-11.965
G2 X172.165 Y-12.045 I-6.328 J0.526
G1 X172.004 Y-13.725
G2 X171.995 Y-13.815 I-6.321 J0.606
G1 X171.817 Y-15.429
G2 X171.805 Y-15.526 I-6.312 J0.696
G1 X171.61 Y-17.076
G2 X171.597 Y-17.176 I-6.3 J0.793
G1 X171.386 Y-18.662
G2 X171.369 Y-18.774 I-6.287 J0.892
G1 X171.141 Y-20.197
G2 X171.121 Y-20.318 I-6.27 J1.004
G1 X170.876 Y-21.679
G2 X170.852 Y-21.804 I-6.25 J1.124
G1 X170.591 Y-23.105
G2 X170.561 Y-23.244 I-6.226 J1.249
G1 X170.283 Y-24.485
G2 X170.248 Y-24.634 I-6.196 J1.388
G1 X169.953 Y-25.816
G2 X169.911 Y-25.977 I-6.161 J1.538
G1 X169.599 Y-27.101
G2 X169.55 Y-27.268 I-6.119 J1.699
G1 X169.222 Y-28.335
G2 X169.16 Y-28.525 I-6.07 J1.866
G1 X168.814 Y-29.536
G2 X168.747 Y-29.722 I-6.008 J2.056
G1 X168.386 Y-30.679
G2 X168.301 Y-30.894 I-5.941 J2.242
G1 X167.922 Y-31.797
G2 X167.826 Y-32.013 I-5.856 J2.457
G1 X167.431 Y-32.865
G2 X167.317 Y-33.098 I-5.76 J2.673
G1 X166.905 Y-33.899
G2 X166.773 Y-34.142 I-5.646 J2.906
G1 X166.344 Y-34.893
G2 X166.195 Y-35.141 I-5.514 J3.15
G1 X165.75 Y-35.844
G2 X165.579 Y-36.099 I-5.365 J3.398
G1 X165.118 Y-36.754
G2 X164.922 Y-37.019 I-5.194 J3.653
G1 X164.444 Y-37.629
G2 X164.228 Y-37.889 I-4.998 J3.917
G1 X163.734 Y-38.454
G2 X163.495 Y-38.713 I-4.782 J4.178
G1 X162.985 Y-39.235
G2 X162.725 Y-39.487 I-4.543 J4.436
G1 X162.199 Y-39.967
G2 X161.924 Y-40.205 I-4.283 J4.688
G1 X161.383 Y-40.645
G2 X161.086 Y-40.873 I-4.008 J4.925
G1 X160.529 Y-41.274
G2 X160.222 Y-41.482 I-3.711 J5.153
G1 X159.65 Y-41.845
G2 X159.335 Y-42.032 I-3.404 J5.361
G1 X158.748 Y-42.359
G2 X158.426 Y-42.526 I-3.089 J5.548
G1 X157.824 Y-42.818
G2 X157.508 Y-42.96 I-2.767 J5.715
G1 X156.892 Y-43.218
G2 X156.576 Y-43.34 I-2.451 J5.858
G1 X155.946 Y-43.565
G2 X155.641 Y-43.666 I-2.135 J5.98
G1 X154.998 Y-43.859
G2 X154.699 Y-43.941 I-1.83 J6.081
G1 X154.042 Y-44.104
G2 X153.758 Y-44.168 I-1.531 J6.163
G1 X153.088 Y-44.302
G2 X152.82 Y-44.35 I-1.247 J6.226
G1 X152.138 Y-44.456
G2 X151.882 Y-44.491 I-0.979 J6.274
G1 X151.188 Y-44.571
G2 X150.948 Y-44.593 I-0.723 J6.309
G1 X150.242 Y-44.647
G2 X150.018 Y-44.66 I-0.483 J6.332
G1 X149.302 Y-44.69
G2 X149.092 Y-44.695 I-0.259 J6.345
G1 X148.366 Y-44.7
G2 X148.17 Y-44.699 I-0.049 J6.35
G1 X147.434 Y-44.682
G2 X147.249 Y-44.675 I0.147 J6.348
G1 X146.504 Y-44.636
G2 X146.333 Y-44.624 I0.332 J6.341
G1 X145.581 Y-44.565
G2 X145.419 Y-44.55 I0.503 J6.33
G1 X144.659 Y-44.47
G2 X144.508 Y-44.452 I0.665 J6.315
G1 X143.742 Y-44.353
G2 X143.532 Y-44.322 I0.816 J6.297
G1 X141.983 Y-44.068
G2 X141.725 Y-44.02 I1.026 J6.267
G1 X140.161 Y-43.698
G2 X139.925 Y-43.644 I1.284 J6.219
G1 X138.354 Y-43.257
G2 X138.134 Y-43.198 I1.52 J6.165
G1 X136.562 Y-42.751
G2 X136.351 Y-42.686 I1.74 J6.107
G1 X134.787 Y-42.182
G2 X134.584 Y-42.112 I1.951 J6.043
G1 X133.035 Y-41.553
G2 X132.835 Y-41.477 I2.154 J5.973
G1 X131.308 Y-40.868
G2 X131.108 Y-40.784 I2.354 J5.897
G1 X129.61 Y-40.126
G2 X129.409 Y-40.034 I2.554 J5.814
G1 X127.947 Y-39.33
G2 X127.743 Y-39.227 I2.755 J5.721
G1 X126.323 Y-38.479
G2 X126.12 Y-38.368 I2.959 J5.619
G1 X124.745 Y-37.578
G2 X124.538 Y-37.454 I3.162 J5.507
G1 X123.214 Y-36.625
G2 X123.011 Y-36.492 I3.369 J5.383
G1 X121.739 Y-35.627
G2 X121.537 Y-35.484 I3.572 J5.25
G1 X120.319 Y-34.584
G2 X120.123 Y-34.433 I3.774 J5.107
G1 X118.96 Y-33.501
G2 X118.778 Y-33.349 I3.97 J4.956
G1 X117.667 Y-32.389
G2 X117.5 Y-32.24 I4.152 J4.804
G1 X116.438 Y-31.255
G2 X116.295 Y-31.117 I4.319 J4.655
G1 X115.276 Y-30.111
G2 X115.157 Y-29.991 I4.462 J4.518
G1 X114.175 Y-28.968
G2 X114.066 Y-28.852 I4.581 J4.398
G1 X112.172 Y-26.777
G2 X112.161 Y-26.764 I4.69 J4.281
G1 X110.328 Y-24.745
X109.474 Y-23.848
X108.622 Y-23.006
X107.732 Y-22.195
X107.324 Y-21.85
X106.882 Y-21.496
X106.427 Y-21.153
X105.958 Y-20.822
X105.473 Y-20.501
X104.963 Y-20.188
X104.429 Y-19.884
X103.869 Y-19.59
X103.273 Y-19.303
X102.641 Y-19.024
X101.97 Y-18.753
X101.255 Y-18.491
X100.493 Y-18.239
X99.681 Y-17.998
X98.816 Y-17.767
X97.898 Y-17.55
X96.923 Y-17.347
X95.889 Y-17.158
X94.797 Y-16.985
X93.643 Y-16.83
X92.428 Y-16.692
X91.15 Y-16.573
X89.81 Y-16.473
X88.406 Y-16.393
X86.939 Y-16.334
X85.41 Y-16.297
X83.84 Y-16.281
X82.336 Y-16.29
X80.897 Y-16.323
X79.525 Y-16.379
X78.218 Y-16.458
X76.975 Y-16.559
X75.797 Y-16.681
X74.683 Y-16.822
X73.629 Y-16.983
X72.636 Y-17.161
X71.702 Y-17.355
X70.824 Y-17.564
X69.999 Y-17.787
X69.226 Y-18.023
X68.5 Y-18.27
X67.811 Y-18.531
X67.271 Y-18.754
X66.751 Y-18.988
X66.255 Y-19.229
X65.78 Y-19.477
X65.325 Y-19.732
X64.887 Y-19.994
X64.463 Y-20.264
X64.083 Y-20.522
X63.248 Y-21.134
X62.471 Y-21.763
X61.704 Y-22.436
X60.935 Y-23.158
X60.154 Y-23.928
X59.353 Y-24.744
X57.675 Y-26.481
G2 X57.613 Y-26.545 I-4.568 J4.411
G1 X55.883 Y-28.287
G2 X55.762 Y-28.405 I-4.506 J4.474
G1 X54.866 Y-29.262
G2 X54.752 Y-29.367 I-4.385 J4.593
G1 X53.827 Y-30.209
G2 X53.693 Y-30.327 I-4.272 J4.698
G1 X52.734 Y-31.151
G2 X52.584 Y-31.276 I-4.138 J4.817
G1 X51.588 Y-32.08
G2 X51.425 Y-32.207 I-3.988 J4.941
G1 X50.391 Y-32.988
G2 X50.219 Y-33.113 I-3.826 J5.068
G1 X49.144 Y-33.869
G2 X48.966 Y-33.99 I-3.653 J5.194
G1 X47.851 Y-34.719
G2 X47.669 Y-34.834 I-3.475 J5.315
G1 X46.514 Y-35.534
G2 X46.331 Y-35.641 I-3.293 J5.429
G1 X45.138 Y-36.311
G2 X44.955 Y-36.41 I-3.11 J5.536
G1 X43.726 Y-37.049
G2 X43.544 Y-37.139 I-2.927 J5.635
G1 X42.281 Y-37.745
G2 X42.102 Y-37.828 I-2.746 J5.726
G1 X40.809 Y-38.399
G2 X40.631 Y-38.474 I-2.567 J5.808
G1 X39.311 Y-39.01
G2 X39.134 Y-39.079 I-2.388 J5.884
G1 X37.793 Y-39.577
G2 X37.616 Y-39.64 I-2.212 J5.952
G1 X36.257 Y-40.1
G2 X36.079 Y-40.157 I-2.035 J6.015
G1 X34.706 Y-40.577
G2 X34.525 Y-40.629 I-1.857 J6.072
G1 X33.145 Y-41.007
G2 X32.958 Y-41.055 I-1.676 J6.125
G1 X31.575 Y-41.389
G2 X31.38 Y-41.432 I-1.489 J6.173
G1 X29.999 Y-41.72
G2 X29.792 Y-41.759 I-1.294 J6.217
G1 X28.419 Y-41.998
G2 X28.197 Y-42.033 I-1.087 J6.256
G1 X26.837 Y-42.22
G2 X26.594 Y-42.249 I-0.866 J6.291
G1 X25.251 Y-42.381
G2 X24.983 Y-42.402 I-0.623 J6.319
G1 X23.662 Y-42.476
G2 X23.363 Y-42.485 I-0.355 J6.34
G1 X22.068 Y-42.497
G2 X21.732 Y-42.491 I-0.056 J6.35
G1 X20.468 Y-42.435
G2 X20.191 Y-42.417 I0.28 J6.344
G1 X19.572 Y-42.362
G2 X19.373 Y-42.341 I0.556 J6.326
G1 X18.762 Y-42.268
G2 X18.552 Y-42.24 I0.756 J6.305
G1 X17.951 Y-42.147
G2 X17.729 Y-42.109 I0.966 J6.276
G1 X17.138 Y-41.996
G2 X16.906 Y-41.948 I1.187 J6.238
G1 X16.325 Y-41.814
G2 X16.081 Y-41.753 I1.419 J6.189
G1 X15.51 Y-41.599
G2 X15.259 Y-41.525 I1.663 J6.128
G1 X14.698 Y-41.348
G2 X14.437 Y-41.259 I1.914 J6.055
G1 X13.888 Y-41.059
G2 X13.621 Y-40.954 I2.175 J5.966
G1 X13.083 Y-40.73
G2 X12.811 Y-40.609 I2.442 J5.861
G1 X12.285 Y-40.361
G2 X12.012 Y-40.224 I2.714 J5.741
G1 X11.498 Y-39.949
G2 X11.223 Y-39.794 I2.987 J5.604
G1 X10.721 Y-39.493
G2 X10.452 Y-39.323 I3.262 J5.448
G1 X9.962 Y-38.995
G2 X9.698 Y-38.809 I3.531 J5.278
G1 X9.22 Y-38.453
G2 X8.966 Y-38.253 I3.795 J5.091
G1 X8.501 Y-37.868
G2 X8.258 Y-37.656 I4.049 J4.891
G1 X7.806 Y-37.241
G2 X7.576 Y-37.019 I4.292 J4.68
G1 X7.137 Y-36.574
G2 X6.923 Y-36.346 I4.523 J4.458
G1 X6.497 Y-35.869
G2 X6.299 Y-35.637 I4.736 J4.23
G1 X5.887 Y-35.128
G2 X5.706 Y-34.893 I4.934 J3.997
G1 X5.307 Y-34.351
G2 X5.143 Y-34.117 I5.115 J3.763
G1 X4.758 Y-33.54
G2 X4.611 Y-33.31 I5.279 J3.529
G1 X4.239 Y-32.699
G2 X4.108 Y-32.473 I5.426 J3.298
G1 X3.75 Y-31.826
G2 X3.634 Y-31.606 I5.557 J3.073
G1 X3.29 Y-30.922
G2 X3.189 Y-30.711 I5.673 J2.854
G1 X2.859 Y-29.989
G2 X2.77 Y-29.786 I5.774 J2.642
G1 X2.454 Y-29.026
G2 X2.377 Y-28.833 I5.863 J2.439
G1 X2.075 Y-28.033
G2 X2.008 Y-27.849 I5.94 J2.246
G1 X1.72 Y-27.01
G2 X1.663 Y-26.835 I6.006 J2.061
G1 X1.389 Y-25.955
G2 X1.341 Y-25.791 I6.063 J1.887
G1 X1.081 Y-24.869
G2 X1.039 Y-24.714 I6.112 J1.722
G1 X0.794 Y-23.75
G2 X0.758 Y-23.604 I6.154 J1.567
G1 X0.527 Y-22.597
G2 X0.497 Y-22.46 I6.189 J1.421
G1 X0.28 Y-21.409
G2 X0.255 Y-21.28 I6.219 J1.284
G1 X0.053 Y-20.185
G2 X0.032 Y-20.064 I6.244 J1.155
G1 X-0.157 Y-18.924
G2 X-0.174 Y-18.811 I6.265 J1.035
G1 X-0.348 Y-17.624
G2 X-0.363 Y-17.518 I6.283 J0.922
G1 X-0.523 Y-16.286
G2 X-0.535 Y-16.187 I6.297 J0.816
G1 X-0.68 Y-14.907
G2 X-0.69 Y-14.814 I6.309 J0.717
G1 X-0.821 Y-13.487
G2 X-0.829 Y-13.4 I6.319 J0.624
G1 X-0.946 Y-12.024
G2 X-0.952 Y-11.943 I6.327 J0.537
G1 X-1.055 Y-10.519
G2 X-1.06 Y-10.442 I6.334 J0.456
G1 X-1.148 Y-8.969
G2 X-1.152 Y-8.897 I6.339 J0.379
G1 X-1.226 Y-7.375
G2 X-1.228 Y-7.308 I6.343 J0.308
G1 X-1.288 Y-5.735
G2 X-1.29 Y-5.672 I6.345 J0.24
G1 X-1.335 Y-4.05
G2 X-1.337 Y-3.99 I6.348 J0.177
G1 X-1.368 Y-2.317
G2 Y-2.261 I6.349 J0.118
G1 X-1.385 Y-0.538
G2 Y-0.485 I6.35 J0.062
G1 X-1.388 Y1.29
G2 Y1.339 I6.35 J0.009
G1 X-1.376 Y3.165
G2 X-1.375 Y3.212 I6.35 J-0.041
G1 X-1.349 Y5.088
G2 Y5.133 I6.349 J-0.088
G1 X-1.309 Y7.01
G2 X-1.308 Y7.057 I6.349 J-0.133
G1 X-1.256 Y8.881
G2 X-1.255 Y8.931 I6.347 J-0.181
G1 X-1.19 Y10.704
G2 X-1.188 Y10.757 I6.346 J-0.23
G1 X-1.111 Y12.479
G2 X-1.108 Y12.535 I6.344 J-0.283
G1 X-1.019 Y14.206
G2 X-1.016 Y14.265 I6.341 J-0.339
G1 X-0.914 Y15.885
G2 X-0.909 Y15.948 I6.337 J-0.398
G1 X-0.795 Y17.518
G2 X-0.79 Y17.585 I6.333 J-0.462
G1 X-0.663 Y19.104
G2 X-0.657 Y19.175 I6.328 J-0.529
G1 X-0.517 Y20.644
G2 X-0.509 Y20.72 I6.322 J-0.6
G1 X-0.357 Y22.14
G2 X-0.348 Y22.221 I6.314 J-0.676
G1 X-0.183 Y23.592
G2 X-0.172 Y23.678 I6.305 J-0.758
G1 X0.005 Y25
G2 X0.018 Y25.093 I6.294 J-0.844
G1 X0.208 Y26.367
G2 X0.223 Y26.465 I6.281 J-0.936
G1 X0.426 Y27.692
G2 X0.444 Y27.797 I6.265 J-1.035
G1 X0.66 Y28.977
G2 X0.681 Y29.089 I6.247 J-1.14
G1 X0.909 Y30.222
G2 X0.935 Y30.342 I6.225 J-1.253
G1 X1.175 Y31.43
G2 X1.205 Y31.557 I6.2 J-1.372
G1 X1.458 Y32.6
G2 X1.493 Y32.736 I6.17 J-1.5
G1 X1.759 Y33.734
G2 X1.8 Y33.879 I6.136 J-1.636
G1 X2.079 Y34.834
G2 X2.126 Y34.988 I6.095 J-1.781
G1 X2.417 Y35.9
G2 X2.472 Y36.062 I6.048 J-1.934
G1 X2.776 Y36.932
G2 X2.84 Y37.105 I5.994 J-2.097
G1 X3.157 Y37.934
G2 X3.229 Y38.115 I5.931 J-2.27
G1 X3.559 Y38.903
G2 X3.643 Y39.094 I5.858 J-2.451
G1 X3.985 Y39.843
G2 X4.081 Y40.042 I5.774 J-2.642
G1 X4.436 Y40.752
G2 X4.545 Y40.96 I5.679 J-2.842
G1 X4.913 Y41.632
G2 X5.036 Y41.847 I5.569 J-3.05
G1 X5.417 Y42.482
G2 X5.555 Y42.702 I5.446 J-3.265
G1 X5.948 Y43.3
G2 X6.103 Y43.525 I5.308 J-3.485
G1 X6.508 Y44.088
G2 X6.681 Y44.317 I5.153 J-3.711
G1 X7.098 Y44.845
G2 X7.287 Y45.072 I4.98 J-3.939
G1 X7.717 Y45.567
G2 X7.923 Y45.792 I4.792 J-4.167
G1 X8.365 Y46.254
G2 X8.587 Y46.475 I4.586 J-4.392
G1 X9.042 Y46.905
G2 X9.278 Y47.117 I4.363 J-4.613
G1 X9.744 Y47.516
G2 X9.995 Y47.719 I4.127 J-4.826
G1 X10.473 Y48.088
G2 X10.734 Y48.279 I3.876 J-5.03
G1 X11.224 Y48.618
G2 X11.495 Y48.795 I3.615 J-5.221
G1 X11.996 Y49.106
G2 X12.27 Y49.267 I3.344 J-5.398
G1 X12.783 Y49.55
G2 X13.062 Y49.695 I3.07 J-5.559
G1 X13.586 Y49.951
G2 X13.864 Y50.079 I2.79 J-5.704
G1 X14.398 Y50.309
G2 X14.674 Y50.42 I2.512 J-5.832
G1 X15.219 Y50.625
G2 X15.491 Y50.721 I2.236 J-5.943
G1 X16.046 Y50.901
G2 X16.31 Y50.981 I1.965 J-6.038
G1 X16.876 Y51.138
G2 X17.13 Y51.203 I1.701 J-6.118
G1 X17.706 Y51.338
G2 X17.952 Y51.391 I1.448 J-6.183
G1 X18.537 Y51.504
G2 X18.77 Y51.544 I1.202 J-6.235
G1 X19.365 Y51.636
G2 X19.588 Y51.666 I0.969 J-6.276
G1 X20.192 Y51.738
G2 X20.404 Y51.759 I0.746 J-6.306
G1 X21.016 Y51.811
G2 X21.215 Y51.825 I0.535 J-6.327
G1 X21.837 Y51.858
G2 X22.114 Y51.866 I0.336 J-6.341
G1 X23.38 Y51.878
G2 X23.715 Y51.872 I0.058 J-6.35
G1 X25.008 Y51.816
G2 X25.307 Y51.795 I-0.277 J-6.344
G1 X26.625 Y51.675
G2 X26.892 Y51.645 I-0.576 J-6.324
G1 X28.23 Y51.466
G2 X28.471 Y51.429 I-0.843 J-6.294
G1 X29.825 Y51.194
G2 X30.045 Y51.152 I-1.085 J-6.257
G1 X31.409 Y50.866
G2 X31.615 Y50.819 I-1.305 J-6.214
G1 X32.985 Y50.484
G2 X33.178 Y50.433 I-1.511 J-6.168
G1 X34.549 Y50.051
G2 X34.733 Y49.997 I-1.704 J-6.117
G1 X36.1 Y49.571
G2 X36.279 Y49.512 I-1.889 J-6.063
G1 X37.636 Y49.045
G2 X37.812 Y48.981 I-2.068 J-6.004
G1 X39.154 Y48.474
G2 X39.328 Y48.406 I-2.244 J-5.94
G1 X40.652 Y47.861
G2 X40.827 Y47.786 I-2.418 J-5.872
G1 X42.127 Y47.204
G2 X42.302 Y47.123 I-2.592 J-5.797
G1 X43.574 Y46.507
G2 X43.751 Y46.418 I-2.768 J-5.715
G1 X44.992 Y45.768
G2 X45.169 Y45.672 I-2.944 J-5.626
G1 X46.376 Y44.991
G2 X46.555 Y44.885 I-3.122 J-5.53
G1 X47.724 Y44.174
G2 X47.903 Y44.061 I-3.302 J-5.424
G1 X49.033 Y43.32
G2 X49.21 Y43.2 I-3.48 J-5.311
G1 X50.299 Y42.432
G2 X50.474 Y42.305 I-3.658 J-5.191
G1 X51.521 Y41.512
G2 X51.689 Y41.381 I-3.833 J-5.063
G1 X52.695 Y40.564
G2 X52.854 Y40.431 I-4 J-4.932
G1 X53.821 Y39.593
G2 X53.966 Y39.463 I-4.158 J-4.799
G1 X54.896 Y38.606
G2 X55.026 Y38.483 I-4.304 J-4.669
G1 X55.921 Y37.61
G2 X56.031 Y37.501 I-4.433 J-4.546
G1 X56.897 Y36.614
G2 X57.014 Y36.491 I-4.543 J-4.437
G1 X58.682 Y34.689
G2 X58.742 Y34.624 I-4.659 J-4.314
G1 X60.358 Y32.829
X61.13 Y31.986
X61.883 Y31.189
X62.627 Y30.441
X63.371 Y29.74
X64.125 Y29.085
X64.937 Y28.444
X65.308 Y28.174
X65.723 Y27.889
X66.152 Y27.611
X66.598 Y27.341
X67.063 Y27.077
X67.55 Y26.819
X68.062 Y26.567
X68.594 Y26.324
X69.273 Y26.04
X69.99 Y25.767
X70.755 Y25.505
X71.571 Y25.253
X72.442 Y25.013
X73.368 Y24.787
X74.355 Y24.574
X75.402 Y24.377
X76.511 Y24.197
X77.684 Y24.034
X78.922 Y23.89
X80.226 Y23.765
X81.595 Y23.661
X83.032 Y23.578
X84.535 Y23.517
X86.104 Y23.477
X87.634 Y23.462
X89.102 Y23.47
X90.508 Y23.5
X91.851 Y23.553
X93.132 Y23.627
X94.351 Y23.723
X95.509 Y23.838
X96.607 Y23.972
X97.647 Y24.125
X98.629 Y24.294
X99.554 Y24.479
X100.425 Y24.679
X101.245 Y24.892
X102.015 Y25.118
X102.74 Y25.355
X103.421 Y25.602
X104.061 Y25.858
X104.665 Y26.124
X105.238 Y26.4
X105.783 Y26.685
X106.3 Y26.978
X106.798 Y27.282
X107.279 Y27.598
X107.743 Y27.923
X108.201 Y28.264
X108.62 Y28.594
X109.536 Y29.372
X110.418 Y30.185
X111.302 Y31.051
X113.202 Y33.003
G2 X113.216 Y33.017 I4.551 J-4.428
G1 X115.181 Y35.024
G2 X115.296 Y35.139 I4.537 J-4.442
G1 X116.314 Y36.127
G2 X116.433 Y36.24 I4.422 J-4.557
G1 X117.486 Y37.21
G2 X117.636 Y37.344 I4.303 J-4.67
G1 X118.732 Y38.291
G2 X118.903 Y38.435 I4.153 J-4.803
G1 X120.047 Y39.355
G2 X120.234 Y39.501 I3.982 J-4.946
G1 X121.429 Y40.391
G2 X121.629 Y40.534 I3.795 J-5.092
G1 X122.877 Y41.391
G2 X123.086 Y41.528 I3.595 J-5.235
G1 X124.388 Y42.349
G2 X124.595 Y42.474 I3.386 J-5.372
G1 X125.947 Y43.256
G2 X126.158 Y43.373 I3.179 J-5.497
G1 X127.559 Y44.114
G2 X127.767 Y44.219 I2.968 J-5.614
G1 X129.213 Y44.917
G2 X129.42 Y45.012 I2.76 J-5.719
G1 X130.906 Y45.665
G2 X131.108 Y45.749 I2.553 J-5.814
G1 X132.627 Y46.355
G2 X132.83 Y46.432 I2.351 J-5.899
G1 X134.377 Y46.988
G2 X134.581 Y47.057 I2.148 J-5.976
G1 X136.149 Y47.561
G2 X136.355 Y47.624 I1.944 J-6.045
G1 X137.936 Y48.073
G2 X138.148 Y48.13 I1.738 J-6.108
G1 X139.735 Y48.523
G2 X139.957 Y48.573 I1.526 J-6.164
G1 X141.541 Y48.906
G2 X141.779 Y48.951 I1.304 J-6.215
G1 X143.353 Y49.219
G2 X143.611 Y49.258 I1.066 J-6.26
G1 X145.167 Y49.457
G2 X145.38 Y49.481 I0.808 J-6.298
G1 X146.15 Y49.553
G2 X146.301 Y49.566 I0.595 J-6.322
G1 X147.063 Y49.619
G2 X147.225 Y49.628 I0.444 J-6.334
G1 X147.979 Y49.662
G2 X148.15 Y49.667 I0.282 J-6.344
G1 X148.895 Y49.68
G2 X149.08 Y49.681 I0.111 J-6.349
G1 X149.816 Y49.672
G2 X150.012 Y49.667 I-0.074 J-6.35
G1 X150.738 Y49.636
G2 X150.948 Y49.623 I-0.27 J-6.344
G1 X151.663 Y49.569
G2 X151.888 Y49.548 I-0.48 J-6.332
G1 X152.591 Y49.47
G2 X152.828 Y49.438 I-0.705 J-6.311
G1 X153.519 Y49.335
G2 X153.774 Y49.291 I-0.942 J-6.28
G1 X154.452 Y49.161
G2 X154.721 Y49.104 I-1.197 J-6.236
G1 X155.385 Y48.946
G2 X155.664 Y48.873 I-1.466 J-6.179
G1 X156.315 Y48.687
G2 X156.607 Y48.596 I-1.745 J-6.105
G1 X157.244 Y48.38
G2 X157.549 Y48.268 I-2.037 J-6.014
G1 X158.171 Y48.021
G2 X158.484 Y47.887 I-2.342 J-5.902
G1 X159.09 Y47.608
G2 X159.399 Y47.456 I-2.655 J-5.768
G1 X159.991 Y47.144
G2 X160.308 Y46.964 I-2.964 J-5.616
G1 X160.883 Y46.617
G2 X161.191 Y46.419 I-3.281 J-5.437
G1 X161.75 Y46.036
G2 X162.052 Y45.816 I-3.589 J-5.238
G1 X162.594 Y45.395
G2 X162.877 Y45.163 I-3.891 J-5.018
G1 X163.403 Y44.704
G2 X163.673 Y44.454 I-4.174 J-4.785
G1 X164.182 Y43.955
G2 X164.435 Y43.692 I-4.444 J-4.536
G1 X164.926 Y43.153
G2 X165.154 Y42.889 I-4.697 J-4.273
G1 X165.628 Y42.306
G2 X165.836 Y42.036 I-4.925 J-4.009
G1 X166.292 Y41.409
G2 X166.477 Y41.142 I-5.133 J-3.738
G1 X166.915 Y40.47
G2 X167.078 Y40.207 I-5.318 J-3.47
G1 X167.498 Y39.49
G2 X167.636 Y39.241 I-5.481 J-3.207
G1 X168.039 Y38.476
G2 X168.166 Y38.22 I-5.619 J-2.959
G1 X168.549 Y37.405
G2 X168.651 Y37.178 I-5.746 J-2.702
G1 X169.017 Y36.314
G2 X169.107 Y36.087 I-5.848 J-2.475
G1 X169.454 Y35.171
G2 X169.531 Y34.958 I-5.938 J-2.249
G1 X169.859 Y33.99
G2 X169.921 Y33.795 I-6.015 J-2.036
G1 X170.231 Y32.773
G2 X170.284 Y32.586 I-6.077 J-1.842
G1 X170.575 Y31.508
G2 X170.62 Y31.334 I-6.13 J-1.655
G1 X170.892 Y30.2
G2 X170.928 Y30.038 I-6.175 J-1.481
G1 X171.181 Y28.846
G2 X171.211 Y28.701 I-6.211 J-1.319
G1 X171.446 Y27.451
X171.447 Y27.442
G2 X171.47 Y27.311 Z0.995 I-6.242 J-1.165 F400.3
G1 X171.686 Y26.002 Z0.949
G2 X171.706 Y25.873 Z0.944 I-6.265 J-1.034
G1 X171.903 Y24.503 Z0.896
G2 X171.919 Y24.383 Z0.892 I-6.285 J-0.904
G1 X172.097 Y22.952 Z0.841
G2 X172.11 Y22.841 Z0.837 I-6.301 J-0.784
G1 X172.269 Y21.348 Z0.785
G2 X172.279 Y21.249 Z0.781 I-6.314 J-0.672
G1 X172.42 Y19.693 Z0.727
G2 X172.428 Y19.593 Z0.723 I-6.324 J-0.573
G1 X172.549 Y17.973 Z0.667
G2 X172.555 Y17.888 Z0.664 I-6.332 J-0.473
G1 X172.658 Y16.204 Z0.605
G2 X172.663 Y16.121 Z0.602 I-6.338 J-0.388
G1 X172.747 Y14.371 Z0.541
G2 X172.75 Y14.294 Z0.538 I-6.343 J-0.305
G1 X172.815 Y12.479 Z0.475
G2 X172.817 Y12.411 Z0.472 I-6.346 J-0.227
G1 X172.864 Y10.53 Z0.406
G2 X172.865 Y10.459 Z0.404 I-6.348 J-0.159
G1 X172.892 Y8.512 Z0.336
G2 X172.893 Y8.452 Z0.334 I-6.349 J-0.088
G1 X172.902 Y6.438 Z0.264
G2 Y6.38 Z0.262 I-6.35 J-0.028
G1 X172.892 Y4.298 Z0.189
G2 X172.891 Y4.243 Z0.187 I-6.35 J0.031
G1 X172.862 Y2.095 Z0.112
G2 Y2.045 Z0.11 I-6.349 J0.086
G1 X172.816 Y-0.103 Z0.035
G2 X172.814 Y-0.159 Z0.033 I-6.349 J0.136
G1 X172.751 Y-2.24 Z-0.04
G2 X172.749 Y-2.296 Z-0.042 I-6.347 J0.192
G1 X172.67 Y-4.309 Z-0.112
G2 X172.667 Y-4.37 Z-0.114 I-6.345 J0.249
G1 X172.572 Y-6.315 Z-0.182
G2 X172.569 Y-6.383 Z-0.184 I-6.342 J0.31
G1 X172.457 Y-8.261 Z-0.25
G2 X172.452 Y-8.334 Z-0.253 I-6.339 J0.378
G1 X172.323 Y-10.145 Z-0.316
G2 X172.317 Y-10.22 Z-0.319 I-6.334 J0.451
G1 X172.172 Y-11.965 Z-0.38
G2 X172.165 Y-12.045 Z-0.383 I-6.328 J0.526
G1 X172.004 Y-13.725 Z-0.442
G2 X171.995 Y-13.815 Z-0.445 I-6.321 J0.606
G1 X171.817 Y-15.429 Z-0.501
G2 X171.805 Y-15.526 Z-0.505 I-6.312 J0.696
G1 X171.61 Y-17.076 Z-0.559
G2 X171.597 Y-17.176 Z-0.563 I-6.3 J0.793
G1 X171.386 Y-18.662 Z-0.615
G2 X171.369 Y-18.774 Z-0.619 I-6.287 J0.892
G1 X171.141 Y-20.197 Z-0.67
G2 X171.121 Y-20.318 Z-0.674 I-6.27 J1.004
G1 X170.876 Y-21.679 Z-0.722
G2 X170.852 Y-21.804 Z-0.727 I-6.25 J1.124
G1 X170.591 Y-23.105 Z-0.773
G2 X170.561 Y-23.244 Z-0.778 I-6.226 J1.249
G1 X170.283 Y-24.485 Z-0.822
G2 X170.248 Y-24.634 Z-0.828 I-6.196 J1.388
G1 X169.953 Y-25.816 Z-0.87
G2 X169.911 Y-25.977 Z-0.876 I-6.161 J1.538
G1 X169.599 Y-27.101 Z-0.917
G2 X169.55 Y-27.268 Z-0.923 I-6.119 J1.699
G1 X169.222 Y-28.335 Z-0.962
G2 X169.16 Y-28.525 Z-0.969 I-6.07 J1.866
G1 X168.814 Y-29.536 Z-1.006
G2 X168.747 Y-29.722 Z-1.013 I-6.008 J2.056
G1 X168.386 Y-30.679 Z-1.049
G2 X168.301 Y-30.894 Z-1.057 I-5.941 J2.242
G1 X167.922 Y-31.797 Z-1.091
G2 X167.826 Y-32.013 Z-1.099 I-5.856 J2.457
G1 X167.431 Y-32.865 Z-1.132
G2 X167.317 Y-33.098 Z-1.141 I-5.76 J2.673
G1 X166.905 Y-33.899 Z-1.173
G2 X166.773 Y-34.142 Z-1.182 I-5.646 J2.906
G1 X166.344 Y-34.893 Z-1.212
G2 X166.195 Y-35.141 Z-1.223 I-5.514 J3.15
G1 X165.75 Y-35.844 Z-1.252
G2 X165.579 Y-36.099 Z-1.262 I-5.365 J3.398
G1 X165.118 Y-36.754 Z-1.29
G2 X164.922 Y-37.019 Z-1.302 I-5.194 J3.653
G1 X164.444 Y-37.629 Z-1.329
G2 X164.228 Y-37.889 Z-1.341 I-4.998 J3.917
G1 X163.734 Y-38.454 Z-1.367
G2 X163.495 Y-38.713 Z-1.379 I-4.782 J4.178
G1 X162.985 Y-39.235 Z-1.405
G2 X162.725 Y-39.487 Z-1.417 I-4.543 J4.436
G1 X162.199 Y-39.967 Z-1.442
G2 X161.924 Y-40.205 Z-1.455 I-4.283 J4.688
G1 X161.383 Y-40.645 Z-1.479
G2 X161.086 Y-40.873 Z-1.492 I-4.008 J4.925
G1 X160.529 Y-41.274 Z-1.516
G2 X160.222 Y-41.482 Z-1.529 I-3.711 J5.153
G1 X159.65 Y-41.845 Z-1.553
G2 X159.335 Y-42.032 Z-1.566 I-3.404 J5.361
G1 X158.748 Y-42.359 Z-1.589
G2 X158.426 Y-42.526 Z-1.602 I-3.089 J5.548
G1 X157.824 Y-42.818 Z-1.625
G2 X157.508 Y-42.96 Z-1.637 I-2.767 J5.715
G1 X156.892 Y-43.218 Z-1.661
G2 X156.576 Y-43.34 Z-1.672 I-2.451 J5.858
G1 X155.946 Y-43.565 Z-1.696
G2 X155.641 Y-43.666 Z-1.707 I-2.135 J5.98
G1 X154.998 Y-43.859 Z-1.73
G2 X154.699 Y-43.941 Z-1.741 I-1.83 J6.081
G1 X154.042 Y-44.104 Z-1.765
G2 X153.758 Y-44.168 Z-1.775 I-1.531 J6.163
G1 X153.088 Y-44.302 Z-1.799
G2 X152.82 Y-44.35 Z-1.808 I-1.247 J6.226
G1 X152.138 Y-44.456 Z-1.833
G2 X151.882 Y-44.491 Z-1.842 I-0.979 J6.274
G1 X151.188 Y-44.571 Z-1.866
G2 X150.948 Y-44.593 Z-1.874 I-0.723 J6.309
G1 X150.242 Y-44.647 Z-1.899
G2 X150.018 Y-44.66 Z-1.907 I-0.483 J6.332
G1 X149.302 Y-44.69 Z-1.932
G2 X149.092 Y-44.695 Z-1.939 I-0.259 J6.345
G1 X148.366 Y-44.7 Z-1.965
G2 X148.17 Y-44.699 Z-1.972 I-0.049 J6.35
G1 X147.434 Y-44.682 Z-1.997
G2 X147.354 Y-44.679 Z-2 I0.147 J6.348
X147.249 Y-44.675 I0.227 J6.346 F849.6
G1 X146.504 Y-44.636
G2 X146.333 Y-44.624 I0.332 J6.341
G1 X145.581 Y-44.565
G2 X145.419 Y-44.55 I0.503 J6.33
G1 X144.659 Y-44.47
G2 X144.508 Y-44.452 I0.665 J6.315
G1 X143.742 Y-44.353
G2 X143.532 Y-44.322 I0.816 J6.297
G1 X141.983 Y-44.068
G2 X141.725 Y-44.02 I1.026 J6.267
G1 X140.161 Y-43.698
G2 X139.925 Y-43.644 I1.284 J6.219
G1 X138.354 Y-43.257
G2 X138.134 Y-43.198 I1.52 J6.165
G1 X136.562 Y-42.751
G2 X136.351 Y-42.686 I1.74 J6.107
G1 X134.787 Y-42.182
G2 X134.584 Y-42.112 I1.951 J6.043
G1 X133.035 Y-41.553
G2 X132.835 Y-41.477 I2.154 J5.973
G1 X131.308 Y-40.868
G2 X131.108 Y-40.784 I2.354 J5.897
G1 X129.61 Y-40.126
G2 X129.409 Y-40.034 I2.554 J5.814
G1 X127.947 Y-39.33
G2 X127.743 Y-39.227 I2.755 J5.721
G1 X126.323 Y-38.479
G2 X126.12 Y-38.368 I2.959 J5.619
G1 X124.745 Y-37.578
G2 X124.538 Y-37.454 I3.162 J5.507
G1 X123.214 Y-36.625
G2 X123.011 Y-36.492 I3.369 J5.383
G1 X121.739 Y-35.627
G2 X121.537 Y-35.484 I3.572 J5.25
G1 X120.319 Y-34.584
G2 X120.123 Y-34.433 I3.774 J5.107
G1 X118.96 Y-33.501
G2 X118.778 Y-33.349 I3.97 J4.956
G1 X117.667 Y-32.389
G2 X117.5 Y-32.24 I4.152 J4.804
G1 X116.438 Y-31.255
G2 X116.295 Y-31.117 I4.319 J4.655
G1 X115.276 Y-30.111
G2 X115.157 Y-29.991 I4.462 J4.518
G1 X114.175 Y-28.968
G2 X114.066 Y-28.852 I4.581 J4.398
G1 X112.172 Y-26.777
G2 X112.161 Y-26.764 I4.69 J4.281
G1 X110.328 Y-24.745
X109.474 Y-23.848
X108.622 Y-23.006
X107.732 Y-22.195
X107.324 Y-21.85
X106.882 Y-21.496
X106.427 Y-21.153
X105.958 Y-20.822
X105.473 Y-20.501
X104.963 Y-20.188
X104.429 Y-19.884
X103.869 Y-19.59
X103.273 Y-19.303
X102.641 Y-19.024
X101.97 Y-18.753
X101.255 Y-18.491
X100.493 Y-18.239
X99.681 Y-17.998
X98.816 Y-17.767
X97.898 Y-17.55
X96.923 Y-17.347
X95.889 Y-17.158
X94.797 Y-16.985
X93.643 Y-16.83
X92.428 Y-16.692
X91.15 Y-16.573
X89.81 Y-16.473
X88.406 Y-16.393
X86.939 Y-16.334
X85.41 Y-16.297
X83.84 Y-16.281
X82.336 Y-16.29
X80.897 Y-16.323
X79.525 Y-16.379
X78.218 Y-16.458
X76.975 Y-16.559
X75.797 Y-16.681
X74.683 Y-16.822
X73.629 Y-16.983
X72.636 Y-17.161
X71.702 Y-17.355
X70.824 Y-17.564
X69.999 Y-17.787
X69.226 Y-18.023
X68.5 Y-18.27
X67.811 Y-18.531
X67.271 Y-18.754
X66.751 Y-18.988
X66.255 Y-19.229
X65.78 Y-19.477
X65.325 Y-19.732
X64.887 Y-19.994
X64.463 Y-20.264
X64.083 Y-20.522
X63.248 Y-21.134
X62.471 Y-21.763
X61.704 Y-22.436
X60.935 Y-23.158
X60.154 Y-23.928
X59.353 Y-24.744
X57.675 Y-26.481
G2 X57.613 Y-26.545 I-4.568 J4.411
G1 X55.883 Y-28.287
G2 X55.762 Y-28.405 I-4.506 J4.474
G1 X54.866 Y-29.262
G2 X54.752 Y-29.367 I-4.385 J4.593
G1 X53.827 Y-30.209
G2 X53.693 Y-30.327 I-4.272 J4.698
G1 X52.734 Y-31.151
G2 X52.584 Y-31.276 I-4.138 J4.817
G1 X51.588 Y-32.08
G2 X51.425 Y-32.207 I-3.988 J4.941
G1 X50.391 Y-32.988
G2 X50.219 Y-33.113 I-3.826 J5.068
G1 X49.144 Y-33.869
G2 X48.966 Y-33.99 I-3.653 J5.194
G1 X47.851 Y-34.719
G2 X47.669 Y-34.834 I-3.475 J5.315
G1 X46.514 Y-35.534
G2 X46.331 Y-35.641 I-3.293 J5.429
G1 X45.138 Y-36.311
G2 X44.955 Y-36.41 I-3.11 J5.536
G1 X43.726 Y-37.049
G2 X43.544 Y-37.139 I-2.927 J5.635
G1 X42.281 Y-37.745
G2 X42.102 Y-37.828 I-2.746 J5.726
G1 X40.809 Y-38.399
G2 X40.631 Y-38.474 I-2.567 J5.808
G1 X39.311 Y-39.01
G2 X39.134 Y-39.079 I-2.388 J5.884
G1 X37.793 Y-39.577
G2 X37.616 Y-39.64 I-2.212 J5.952
G1 X36.257 Y-40.1
G2 X36.079 Y-40.157 I-2.035 J6.015
G1 X34.706 Y-40.577
G2 X34.525 Y-40.629 I-1.857 J6.072
G1 X33.145 Y-41.007
G2 X32.958 Y-41.055 I-1.676 J6.125
G1 X31.575 Y-41.389
G2 X31.38 Y-41.432 I-1.489 J6.173
G1 X29.999 Y-41.72
G2 X29.792 Y-41.759 I-1.294 J6.217
G1 X28.419 Y-41.998
G2 X28.197 Y-42.033 I-1.087 J6.256
G1 X26.837 Y-42.22
G2 X26.594 Y-42.249 I-0.866 J6.291
G1 X25.251 Y-42.381
G2 X24.983 Y-42.402 I-0.623 J6.319
G1 X23.662 Y-42.476
G2 X23.363 Y-42.485 I-0.355 J6.34
G1 X22.068 Y-42.497
G2 X21.732 Y-42.491 I-0.056 J6.35
G1 X20.468 Y-42.435
G2 X20.191 Y-42.417 I0.28 J6.344
G1 X19.572 Y-42.362
G2 X19.373 Y-42.341 I0.556 J6.326
G1 X18.762 Y-42.268
G2 X18.552 Y-42.24 I0.756 J6.305
G1 X17.951 Y-42.147
G2 X17.729 Y-42.109 I0.966 J6.276
G1 X17.138 Y-41.996
G2 X16.906 Y-41.948 I1.187 J6.238
G1 X16.325 Y-41.814
G2 X16.081 Y-41.753 I1.419 J6.189
G1 X15.51 Y-41.599
G2 X15.259 Y-41.525 I1.663 J6.128
G1 X14.698 Y-41.348
G2 X14.437 Y-41.259 I1.914 J6.055
G1 X13.888 Y-41.059
G2 X13.621 Y-40.954 I2.175 J5.966
G1 X13.083 Y-40.73
G2 X12.811 Y-40.609 I2.442 J5.861
G1 X12.285 Y-40.361
G2 X12.012 Y-40.224 I2.714 J5.741
G1 X11.498 Y-39.949
G2 X11.223 Y-39.794 I2.987 J5.604
G1 X10.721 Y-39.493
G2 X10.452 Y-39.323 I3.262 J5.448
G1 X9.962 Y-38.995
G2 X9.698 Y-38.809 I3.531 J5.278
G1 X9.22 Y-38.453
G2 X8.966 Y-38.253 I3.795 J5.091
G1 X8.501 Y-37.868
G2 X8.258 Y-37.656 I4.049 J4.891
G1 X7.806 Y-37.241
G2 X7.576 Y-37.019 I4.292 J4.68
G1 X7.137 Y-36.574
G2 X6.923 Y-36.346 I4.523 J4.458
G1 X6.497 Y-35.869
G2 X6.299 Y-35.637 I4.736 J4.23
G1 X5.887 Y-35.128
G2 X5.706 Y-34.893 I4.934 J3.997
G1 X5.307 Y-34.351
G2 X5.143 Y-34.117 I5.115 J3.763
G1 X4.758 Y-33.54
G2 X4.611 Y-33.31 I5.279 J3.529
G1 X4.239 Y-32.699
G2 X4.108 Y-32.473 I5.426 J3.298
G1 X3.75 Y-31.826
G2 X3.634 Y-31.606 I5.557 J3.073
G1 X3.29 Y-30.922
G2 X3.189 Y-30.711 I5.673 J2.854
G1 X2.859 Y-29.989
G2 X2.77 Y-29.786 I5.774 J2.642
G1 X2.454 Y-29.026
G2 X2.377 Y-28.833 I5.863 J2.439
G1 X2.075 Y-28.033
G2 X2.008 Y-27.849 I5.94 J2.246
G1 X1.72 Y-27.01
G2 X1.663 Y-26.835 I6.006 J2.061
G1 X1.389 Y-25.955
G2 X1.341 Y-25.791 I6.063 J1.887
G1 X1.081 Y-24.869
G2 X1.039 Y-24.714 I6.112 J1.722
G1 X0.794 Y-23.75
G2 X0.758 Y-23.604 I6.154 J1.567
G1 X0.527 Y-22.597
G2 X0.497 Y-22.46 I6.189 J1.421
G1 X0.28 Y-21.409
G2 X0.255 Y-21.28 I6.219 J1.284
G1 X0.053 Y-20.185
G2 X0.032 Y-20.064 I6.244 J1.155
G1 X-0.157 Y-18.924
G2 X-0.174 Y-18.811 I6.265 J1.035
G1 X-0.348 Y-17.624
G2 X-0.363 Y-17.518 I6.283 J0.922
G1 X-0.523 Y-16.286
G2 X-0.535 Y-16.187 I6.297 J0.816
G1 X-0.68 Y-14.907
G2 X-0.69 Y-14.814 I6.309 J0.717
G1 X-0.821 Y-13.487
G2 X-0.829 Y-13.4 I6.319 J0.624
G1 X-0.946 Y-12.024
G2 X-0.952 Y-11.943 I6.327 J0.537
G1 X-1.055 Y-10.519
G2 X-1.06 Y-10.442 I6.334 J0.456
G1 X-1.148 Y-8.969
G2 X-1.152 Y-8.897 I6.339 J0.379
G1 X-1.226 Y-7.375
G2 X-1.228 Y-7.308 I6.343 J0.308
G1 X-1.288 Y-5.735
G2 X-1.29 Y-5.672 I6.345 J0.24
G1 X-1.335 Y-4.05
G2 X-1.337 Y-3.99 I6.348 J0.177
G1 X-1.368 Y-2.317
G2 Y-2.261 I6.349 J0.118
G1 X-1.385 Y-0.538
G2 Y-0.485 I6.35 J0.062
G1 X-1.388 Y1.29
G2 Y1.339 I6.35 J0.009
G1 X-1.376 Y3.165
G2 X-1.375 Y3.212 I6.35 J-0.041
G1 X-1.349 Y5.088
G2 Y5.133 I6.349 J-0.088
G1 X-1.309 Y7.01
G2 X-1.308 Y7.057 I6.349 J-0.133
G1 X-1.256 Y8.881
G2 X-1.255 Y8.931 I6.347 J-0.181
G1 X-1.19 Y10.704
G2 X-1.188 Y10.757 I6.346 J-0.23
G1 X-1.111 Y12.479
G2 X-1.108 Y12.535 I6.344 J-0.283
G1 X-1.019 Y14.206
G2 X-1.016 Y14.265 I6.341 J-0.339
G1 X-0.914 Y15.885
G2 X-0.909 Y15.948 I6.337 J-0.398
G1 X-0.795 Y17.518
G2 X-0.79 Y17.585 I6.333 J-0.462
G1 X-0.663 Y19.104
G2 X-0.657 Y19.175 I6.328 J-0.529
G1 X-0.517 Y20.644
G2 X-0.509 Y20.72 I6.322 J-0.6
G1 X-0.357 Y22.14
G2 X-0.348 Y22.221 I6.314 J-0.676
G1 X-0.183 Y23.592
G2 X-0.172 Y23.678 I6.305 J-0.758
G1 X0.005 Y25
G2 X0.018 Y25.093 I6.294 J-0.844
G1 X0.208 Y26.367
G2 X0.223 Y26.465 I6.281 J-0.936
G1 X0.426 Y27.692
G2 X0.444 Y27.797 I6.265 J-1.035
G1 X0.66 Y28.977
G2 X0.681 Y29.089 I6.247 J-1.14
G1 X0.909 Y30.222
G2 X0.935 Y30.342 I6.225 J-1.253
G1 X1.175 Y31.43
G2 X1.205 Y31.557 I6.2 J-1.372
G1 X1.458 Y32.6
G2 X1.493 Y32.736 I6.17 J-1.5
G1 X1.759 Y33.734
G2 X1.8 Y33.879 I6.136 J-1.636
G1 X2.079 Y34.834
G2 X2.126 Y34.988 I6.095 J-1.781
G1 X2.417 Y35.9
G2 X2.472 Y36.062 I6.048 J-1.934
G1 X2.776 Y36.932
G2 X2.84 Y37.105 I5.994 J-2.097
G1 X3.157 Y37.934
G2 X3.229 Y38.115 I5.931 J-2.27
G1 X3.559 Y38.903
G2 X3.643 Y39.094 I5.858 J-2.451
G1 X3.985 Y39.843
G2 X4.081 Y40.042 I5.774 J-2.642
G1 X4.436 Y40.752
G2 X4.545 Y40.96 I5.679 J-2.842
G1 X4.913 Y41.632
G2 X5.036 Y41.847 I5.569 J-3.05
G1 X5.417 Y42.482
G2 X5.555 Y42.702 I5.446 J-3.265
G1 X5.948 Y43.3
G2 X6.103 Y43.525 I5.308 J-3.485
G1 X6.508 Y44.088
G2 X6.681 Y44.317 I5.153 J-3.711
G1 X7.098 Y44.845
G2 X7.287 Y45.072 I4.98 J-3.939
G1 X7.717 Y45.567
G2 X7.923 Y45.792 I4.792 J-4.167
G1 X8.365 Y46.254
G2 X8.587 Y46.475 I4.586 J-4.392
G1 X9.042 Y46.905
G2 X9.278 Y47.117 I4.363 J-4.613
G1 X9.744 Y47.516
G2 X9.995 Y47.719 I4.127 J-4.826
G1 X10.473 Y48.088
G2 X10.734 Y48.279 I3.876 J-5.03
G1 X11.224 Y48.618
G2 X11.495 Y48.795 I3.615 J-5.221
G1 X11.996 Y49.106
G2 X12.27 Y49.267 I3.344 J-5.398
G1 X12.783 Y49.55
G2 X13.062 Y49.695 I3.07 J-5.559
G1 X13.586 Y49.951
G2 X13.864 Y50.079 I2.79 J-5.704
G1 X14.398 Y50.309
G2 X14.674 Y50.42 I2.512 J-5.832
G1 X15.219 Y50.625
G2 X15.491 Y50.721 I2.236 J-5.943
G1 X16.046 Y50.901
G2 X16.31 Y50.981 I1.965 J-6.038
G1 X16.876 Y51.138
G2 X17.13 Y51.203 I1.701 J-6.118
G1 X17.706 Y51.338
G2 X17.952 Y51.391 I1.448 J-6.183
G1 X18.537 Y51.504
G2 X18.77 Y51.544 I1.202 J-6.235
G1 X19.365 Y51.636
G2 X19.588 Y51.666 I0.969 J-6.276
G1 X20.192 Y51.738
G2 X20.404 Y51.759 I0.746 J-6.306
G1 X21.016 Y51.811
G2 X21.215 Y51.825 I0.535 J-6.327
G1 X21.837 Y51.858
G2 X22.114 Y51.866 I0.336 J-6.341
G1 X23.38 Y51.878
G2 X23.715 Y51.872 I0.058 J-6.35
G1 X25.008 Y51.816
G2 X25.307 Y51.795 I-0.277 J-6.344
G1 X26.625 Y51.675
G2 X26.892 Y51.645 I-0.576 J-6.324
G1 X28.23 Y51.466
G2 X28.471 Y51.429 I-0.843 J-6.294
G1 X29.825 Y51.194
G2 X30.045 Y51.152 I-1.085 J-6.257
G1 X31.409 Y50.866
G2 X31.615 Y50.819 I-1.305 J-6.214
G1 X32.985 Y50.484
G2 X33.178 Y50.433 I-1.511 J-6.168
G1 X34.549 Y50.051
G2 X34.733 Y49.997 I-1.704 J-6.117
G1 X36.1 Y49.571
G2 X36.279 Y49.512 I-1.889 J-6.063
G1 X37.636 Y49.045
G2 X37.812 Y48.981 I-2.068 J-6.004
G1 X39.154 Y48.474
G2 X39.328 Y48.406 I-2.244 J-5.94
G1 X40.652 Y47.861
G2 X40.827 Y47.786 I-2.418 J-5.872
G1 X42.127 Y47.204
G2 X42.302 Y47.123 I-2.592 J-5.797
G1 X43.574 Y46.507
G2 X43.751 Y46.418 I-2.768 J-5.715
G1 X44.992 Y45.768
G2 X45.169 Y45.672 I-2.944 J-5.626
G1 X46.376 Y44.991
G2 X46.555 Y44.885 I-3.122 J-5.53
G1 X47.724 Y44.174
G2 X47.903 Y44.061 I-3.302 J-5.424
G1 X49.033 Y43.32
G2 X49.21 Y43.2 I-3.48 J-5.311
G1 X50.299 Y42.432
G2 X50.474 Y42.305 I-3.658 J-5.191
G1 X51.521 Y41.512
G2 X51.689 Y41.381 I-3.833 J-5.063
G1 X52.695 Y40.564
G2 X52.854 Y40.431 I-4 J-4.932
G1 X53.821 Y39.593
G2 X53.966 Y39.463 I-4.158 J-4.799
G1 X54.896 Y38.606
G2 X55.026 Y38.483 I-4.304 J-4.669
G1 X55.921 Y37.61
G2 X56.031 Y37.501 I-4.433 J-4.546
G1 X56.897 Y36.614
G2 X57.014 Y36.491 I-4.543 J-4.437
G1 X58.682 Y34.689
G2 X58.742 Y34.624 I-4.659 J-4.314
G1 X60.358 Y32.829
X61.13 Y31.986
X61.883 Y31.189
X62.627 Y30.441
X63.371 Y29.74
X64.125 Y29.085
X64.937 Y28.444
X65.308 Y28.174
X65.723 Y27.889
X66.152 Y27.611
X66.598 Y27.341
X67.063 Y27.077
X67.55 Y26.819
X68.062 Y26.567
X68.594 Y26.324
X69.273 Y26.04
X69.99 Y25.767
X70.755 Y25.505
X71.571 Y25.253
X72.442 Y25.013
X73.368 Y24.787
X74.355 Y24.574
X75.402 Y24.377
X76.511 Y24.197
X77.684 Y24.034
X78.922 Y23.89
X80.226 Y23.765
X81.595 Y23.661
X83.032 Y23.578
X84.535 Y23.517
X86.104 Y23.477
X87.634 Y23.462
X89.102 Y23.47
X90.508 Y23.5
X91.851 Y23.553
X93.132 Y23.627
X94.351 Y23.723
X95.509 Y23.838
X96.607 Y23.972
X97.647 Y24.125
X98.629 Y24.294
X99.554 Y24.479
X100.425 Y24.679
X101.245 Y24.892
X102.015 Y25.118
X102.74 Y25.355
X103.421 Y25.602
X104.061 Y25.858
X104.665 Y26.124
X105.238 Y26.4
X105.783 Y26.685
X106.3 Y26.978
X106.798 Y27.282
X107.279 Y27.598
X107.743 Y27.923
X108.201 Y28.264
X108.62 Y28.594
X109.536 Y29.372
X110.418 Y30.185
X111.302 Y31.051
X113.202 Y33.003
G2 X113.216 Y33.017 I4.551 J-4.428
G1 X115.181 Y35.024
G2 X115.296 Y35.139 I4.537 J-4.442
G1 X116.314 Y36.127
G2 X116.433 Y36.24 I4.422 J-4.557
G1 X117.486 Y37.21
G2 X117.636 Y37.344 I4.303 J-4.67
G1 X118.732 Y38.291
G2 X118.903 Y38.435 I4.153 J-4.803
G1 X120.047 Y39.355
G2 X120.234 Y39.501 I3.982 J-4.946
G1 X121.429 Y40.391
G2 X121.629 Y40.534 I3.795 J-5.092
G1 X122.877 Y41.391
G2 X123.086 Y41.528 I3.595 J-5.235
G1 X124.388 Y42.349
G2 X124.595 Y42.474 I3.386 J-5.372
G1 X125.947 Y43.256
G2 X126.158 Y43.373 I3.179 J-5.497
G1 X127.559 Y44.114
G2 X127.767 Y44.219 I2.968 J-5.614
G1 X129.213 Y44.917
G2 X129.42 Y45.012 I2.76 J-5.719
G1 X130.906 Y45.665
G2 X131.108 Y45.749 I2.553 J-5.814
G1 X132.627 Y46.355
G2 X132.83 Y46.432 I2.351 J-5.899
G1 X134.377 Y46.988
G2 X134.581 Y47.057 I2.148 J-5.976
G1 X136.149 Y47.561
G2 X136.355 Y47.624 I1.944 J-6.045
G1 X137.936 Y48.073
G2 X138.148 Y48.13 I1.738 J-6.108
G1 X139.735 Y48.523
G2 X139.957 Y48.573 I1.526 J-6.164
G1 X141.541 Y48.906
G2 X141.779 Y48.951 I1.304 J-6.215
G1 X143.353 Y49.219
G2 X143.611 Y49.258 I1.066 J-6.26
G1 X145.167 Y49.457
G2 X145.38 Y49.481 I0.808 J-6.298
G1 X146.15 Y49.553
G2 X146.301 Y49.566 I0.595 J-6.322
G1 X147.063 Y49.619
G2 X147.225 Y49.628 I0.444 J-6.334
G1 X147.979 Y49.662
G2 X148.15 Y49.667 I0.282 J-6.344
G1 X148.895 Y49.68
G2 X149.08 Y49.681 I0.111 J-6.349
G1 X149.816 Y49.672
G2 X150.012 Y49.667 I-0.074 J-6.35
G1 X150.738 Y49.636
G2 X150.948 Y49.623 I-0.27 J-6.344
G1 X151.663 Y49.569
G2 X151.888 Y49.548 I-0.48 J-6.332
G1 X152.591 Y49.47
G2 X152.828 Y49.438 I-0.705 J-6.311
G1 X153.519 Y49.335
G2 X153.774 Y49.291 I-0.942 J-6.28
G1 X154.452 Y49.161
G2 X154.721 Y49.104 I-1.197 J-6.236
G1 X155.385 Y48.946
G2 X155.664 Y48.873 I-1.466 J-6.179
G1 X156.315 Y48.687
G2 X156.607 Y48.596 I-1.745 J-6.105
G1 X157.244 Y48.38
G2 X157.549 Y48.268 I-2.037 J-6.014
G1 X158.171 Y48.021
G2 X158.484 Y47.887 I-2.342 J-5.902
G1 X159.09 Y47.608
G2 X159.399 Y47.456 I-2.655 J-5.768
G1 X159.991 Y47.144
G2 X160.308 Y46.964 I-2.964 J-5.616
G1 X160.883 Y46.617
G2 X161.191 Y46.419 I-3.281 J-5.437
G1 X161.75 Y46.036
G2 X162.052 Y45.816 I-3.589 J-5.238
G1 X162.594 Y45.395
G2 X162.877 Y45.163 I-3.891 J-5.018
G1 X163.403 Y44.704
G2 X163.673 Y44.454 I-4.174 J-4.785
G1 X164.182 Y43.955
G2 X164.435 Y43.692 I-4.444 J-4.536
G1 X164.926 Y43.153
G2 X165.154 Y42.889 I-4.697 J-4.273
G1 X165.628 Y42.306
G2 X165.836 Y42.036 I-4.925 J-4.009
G1 X166.292 Y41.409
G2 X166.477 Y41.142 I-5.133 J-3.738
G1 X166.915 Y40.47
G2 X167.078 Y40.207 I-5.318 J-3.47
G1 X167.498 Y39.49
G2 X167.636 Y39.241 I-5.481 J-3.207
G1 X168.039 Y38.476
G2 X168.166 Y38.22 I-5.619 J-2.959
G1 X168.549 Y37.405
G2 X168.651 Y37.178 I-5.746 J-2.702
G1 X169.017 Y36.314
G2 X169.107 Y36.087 I-5.848 J-2.475
G1 X169.454 Y35.171
G2 X169.531 Y34.958 I-5.938 J-2.249
G1 X169.859 Y33.99
G2 X169.921 Y33.795 I-6.015 J-2.036
G1 X170.231 Y32.773
G2 X170.284 Y32.586 I-6.077 J-1.842
G1 X170.575 Y31.508
G2 X170.62 Y31.334 I-6.13 J-1.655
G1 X170.892 Y30.2
G2 X170.928 Y30.038 I-6.175 J-1.481
G1 X171.181 Y28.846
G2 X171.211 Y28.701 I-6.211 J-1.319
G1 X171.446 Y27.451
G2 X171.47 Y27.311 I-6.241 J-1.174
G1 X171.686 Y26.002
G2 X171.706 Y25.873 I-6.265 J-1.034
G1 X171.903 Y24.503
G2 X171.919 Y24.383 I-6.285 J-0.904
G1 X172.097 Y22.952
G2 X172.11 Y22.841 I-6.301 J-0.784
G1 X172.269 Y21.348
G2 X172.279 Y21.249 I-6.314 J-0.672
G1 X172.42 Y19.693
G2 X172.428 Y19.593 I-6.324 J-0.573
G1 X172.549 Y17.973
G2 X172.555 Y17.888 I-6.332 J-0.473
G1 X172.658 Y16.204
G2 X172.663 Y16.121 I-6.338 J-0.388
G1 X172.747 Y14.371
G2 X172.75 Y14.294 I-6.343 J-0.305
G1 X172.815 Y12.479
G2 X172.817 Y12.411 I-6.346 J-0.227
G1 X172.864 Y10.53
G2 X172.865 Y10.459 I-6.348 J-0.159
G1 X172.892 Y8.512
G2 X172.893 Y8.452 I-6.349 J-0.088
G1 X172.902 Y6.438
G2 Y6.38 I-6.35 J-0.028
G1 X172.892 Y4.298
G2 X172.891 Y4.243 I-6.35 J0.031
G1 X172.862 Y2.095
G2 Y2.045 I-6.349 J0.086
G1 X172.816 Y-0.103
G2 X172.814 Y-0.159 I-6.349 J0.136
G1 X172.751 Y-2.24
G2 X172.749 Y-2.296 I-6.347 J0.192
G1 X172.67 Y-4.309
G2 X172.667 Y-4.37 I-6.345 J0.249
G1 X172.572 Y-6.315
G2 X172.569 Y-6.383 I-6.342 J0.31
G1 X172.457 Y-8.261
G2 X172.452 Y-8.334 I-6.339 J0.378
G1 X172.323 Y-10.145
G2 X172.317 Y-10.22 I-6.334 J0.451
G1 X172.172 Y-11.965
G2 X172.165 Y-12.045 I-6.328 J0.526
G1 X172.004 Y-13.725
G2 X171.995 Y-13.815 I-6.321 J0.606
G1 X171.817 Y-15.429
G2 X171.805 Y-15.526 I-6.312 J0.696
G1 X171.61 Y-17.076
G2 X171.597 Y-17.176 I-6.3 J0.793
G1 X171.386 Y-18.662
G2 X171.369 Y-18.774 I-6.287 J0.892
G1 X171.141 Y-20.197
G2 X171.121 Y-20.318 I-6.27 J1.004
G1 X170.876 Y-21.679
G2 X170.852 Y-21.804 I-6.25 J1.124
G1 X170.591 Y-23.105
G2 X170.561 Y-23.244 I-6.226 J1.249
G1 X170.283 Y-24.485
G2 X170.248 Y-24.634 I-6.196 J1.388
G1 X169.953 Y-25.816
G2 X169.911 Y-25.977 I-6.161 J1.538
G1 X169.599 Y-27.101
G2 X169.55 Y-27.268 I-6.119 J1.699
G1 X169.222 Y-28.335
G2 X169.16 Y-28.525 I-6.07 J1.866
G1 X168.814 Y-29.536
G2 X168.747 Y-29.722 I-6.008 J2.056
G1 X168.386 Y-30.679
G2 X168.301 Y-30.894 I-5.941 J2.242
G1 X167.922 Y-31.797
G2 X167.826 Y-32.013 I-5.856 J2.457
G1 X167.431 Y-32.865
G2 X167.317 Y-33.098 I-5.76 J2.673
G1 X166.905 Y-33.899
G2 X166.773 Y-34.142 I-5.646 J2.906
G1 X166.344 Y-34.893
G2 X166.195 Y-35.141 I-5.514 J3.15
G1 X165.75 Y-35.844
G2 X165.579 Y-36.099 I-5.365 J3.398
G1 X165.118 Y-36.754
G2 X164.922 Y-37.019 I-5.194 J3.653
G1 X164.444 Y-37.629
G2 X164.228 Y-37.889 I-4.998 J3.917
G1 X163.734 Y-38.454
G2 X163.495 Y-38.713 I-4.782 J4.178
G1 X162.985 Y-39.235
G2 X162.725 Y-39.487 I-4.543 J4.436
G1 X162.199 Y-39.967
G2 X161.924 Y-40.205 I-4.283 J4.688
G1 X161.383 Y-40.645
G2 X161.086 Y-40.873 I-4.008 J4.925
G1 X160.529 Y-41.274
G2 X160.222 Y-41.482 I-3.711 J5.153
G1 X159.65 Y-41.845
G2 X159.335 Y-42.032 I-3.404 J5.361
G1 X158.748 Y-42.359
G2 X158.426 Y-42.526 I-3.089 J5.548
G1 X157.824 Y-42.818
G2 X157.508 Y-42.96 I-2.767 J5.715
G1 X156.892 Y-43.218
G2 X156.576 Y-43.34 I-2.451 J5.858
G1 X155.946 Y-43.565
G2 X155.641 Y-43.666 I-2.135 J5.98
G1 X154.998 Y-43.859
G2 X154.699 Y-43.941 I-1.83 J6.081
G1 X154.042 Y-44.104
G2 X153.758 Y-44.168 I-1.531 J6.163
G1 X153.088 Y-44.302
G2 X152.82 Y-44.35 I-1.247 J6.226
G1 X152.138 Y-44.456
G2 X151.882 Y-44.491 I-0.979 J6.274
G1 X151.188 Y-44.571
G2 X150.948 Y-44.593 I-0.723 J6.309
G1 X150.242 Y-44.647
G2 X150.018 Y-44.66 I-0.483 J6.332
G1 X149.302 Y-44.69
G2 X149.092 Y-44.695 I-0.259 J6.345
G1 X148.366 Y-44.7
G2 X148.17 Y-44.699 I-0.049 J6.35
G1 X147.434 Y-44.682
G2 X147.354 Y-44.679 I0.147 J6.348
X147.249 Y-44.675 Z-2.004 I0.227 J6.346 F400.3
G1 X146.504 Y-44.636 Z-2.03
G2 X146.333 Y-44.624 Z-2.036 I0.332 J6.341
G1 X145.581 Y-44.565 Z-2.062
G2 X145.419 Y-44.55 Z-2.068 I0.503 J6.33
G1 X144.659 Y-44.47 Z-2.094
G2 X144.508 Y-44.452 Z-2.1 I0.665 J6.315
G1 X143.742 Y-44.353 Z-2.127
G2 X143.532 Y-44.322 Z-2.134 I0.816 J6.297
G1 X141.983 Y-44.068 Z-2.189
G2 X141.725 Y-44.02 Z-2.198 I1.026 J6.267
G1 X140.161 Y-43.698 Z-2.254
G2 X139.925 Y-43.644 Z-2.262 I1.284 J6.219
G1 X138.354 Y-43.257 Z-2.319
G2 X138.134 Y-43.198 Z-2.327 I1.52 J6.165
G1 X136.562 Y-42.751 Z-2.384
G2 X136.351 Y-42.686 Z-2.392 I1.74 J6.107
G1 X134.787 Y-42.182 Z-2.449
G2 X134.584 Y-42.112 Z-2.456 I1.951 J6.043
G1 X133.035 Y-41.553 Z-2.514
G2 X132.835 Y-41.477 Z-2.521 I2.154 J5.973
G1 X131.308 Y-40.868 Z-2.579
G2 X131.108 Y-40.784 Z-2.586 I2.354 J5.897
G1 X129.61 Y-40.126 Z-2.644
G2 X129.409 Y-40.034 Z-2.651 I2.554 J5.814
G1 X127.947 Y-39.33 Z-2.708
G2 X127.743 Y-39.227 Z-2.716 I2.755 J5.721
G1 X126.323 Y-38.479 Z-2.772
G2 X126.12 Y-38.368 Z-2.78 I2.959 J5.619
G1 X124.745 Y-37.578 Z-2.835
G2 X124.538 Y-37.454 Z-2.844 I3.162 J5.507
G1 X123.214 Y-36.625 Z-2.898
G2 X123.011 Y-36.492 Z-2.907 I3.369 J5.383
G1 X121.739 Y-35.627 Z-2.961
G2 X121.537 Y-35.484 Z-2.969 I3.572 J5.25
G1 X120.319 Y-34.584 Z-3.022
G2 X120.123 Y-34.433 Z-3.031 I3.774 J5.107
G1 X118.96 Y-33.501 Z-3.083
G2 X118.778 Y-33.349 Z-3.091 I3.97 J4.956
G1 X117.667 Y-32.389 Z-3.142
G2 X117.5 Y-32.24 Z-3.15 I4.152 J4.804
G1 X116.438 Y-31.255 Z-3.201
G2 X116.295 Y-31.117 Z-3.208 I4.319 J4.655
G1 X115.276 Y-30.111 Z-3.258
G2 X115.157 Y-29.991 Z-3.264 I4.462 J4.518
G1 X114.175 Y-28.968 Z-3.313
G2 X114.066 Y-28.852 Z-3.319 I4.581 J4.398
G1 X112.172 Y-26.777 Z-3.417
G2 X112.161 Y-26.764 I4.69 J4.281
G1 X110.328 Y-24.745 Z-3.513
X109.474 Y-23.848 Z-3.556
X108.622 Y-23.006 Z-3.598
X107.732 Y-22.195 Z-3.64
X107.324 Y-21.85 Z-3.658
X106.882 Y-21.496 Z-3.678
X106.427 Y-21.153 Z-3.698
X105.958 Y-20.822 Z-3.718
X105.473 Y-20.501 Z-3.738
X104.963 Y-20.188 Z-3.759
X104.429 Y-19.884 Z-3.781
X103.869 Y-19.59 Z-3.803
X103.273 Y-19.303 Z-3.826
X102.641 Y-19.024 Z-3.85
X101.97 Y-18.753 Z-3.875
X101.255 Y-18.491 Z-3.902
X100.493 Y-18.239 Z-3.93
X99.681 Y-17.998 Z-3.96
X98.816 Y-17.767 Z-3.991
X97.898 Y-17.55 Z-4.024
X96.923 Y-17.347 Z-4.059
X95.889 Y-17.158 Z-4.095
X94.797 Y-16.985 Z-4.134
X93.643 Y-16.83 Z-4.174
X92.428 Y-16.692 Z-4.217
X91.15 Y-16.573 Z-4.262
X89.81 Y-16.473 Z-4.309
X88.406 Y-16.393 Z-4.358
X86.939 Y-16.334 Z-4.409
X85.41 Y-16.297 Z-4.463
X83.84 Y-16.281 Z-4.518
X82.336 Y-16.29 Z-4.57
X80.897 Y-16.323 Z-4.62
X79.525 Y-16.379 Z-4.668
X78.218 Y-16.458 Z-4.714
X76.975 Y-16.559 Z-4.758
X75.797 Y-16.681 Z-4.799
X74.683 Y-16.822 Z-4.838
X73.629 Y-16.983 Z-4.875
X72.636 Y-17.161 Z-4.911
X71.702 Y-17.355 Z-4.944
X70.824 Y-17.564 Z-4.975
X70.145 Y-17.748 Z-5
X69.999 Y-17.787 F849.6
X69.226 Y-18.023
X68.5 Y-18.27
X67.811 Y-18.531
X67.271 Y-18.754
X66.751 Y-18.988
X66.255 Y-19.229
X65.78 Y-19.477
X65.325 Y-19.732
X64.887 Y-19.994
X64.463 Y-20.264
X64.083 Y-20.522
X63.248 Y-21.134
X62.471 Y-21.763
X61.704 Y-22.436
X60.935 Y-23.158
X60.154 Y-23.928
X59.353 Y-24.744
X57.675 Y-26.481
G2 X57.613 Y-26.545 I-4.568 J4.411
G1 X55.883 Y-28.287
G2 X55.762 Y-28.405 I-4.506 J4.474
G1 X54.866 Y-29.262
G2 X54.752 Y-29.367 I-4.385 J4.593
G1 X53.827 Y-30.209
G2 X53.693 Y-30.327 I-4.272 J4.698
G1 X52.734 Y-31.151
G2 X52.584 Y-31.276 I-4.138 J4.817
G1 X51.588 Y-32.08
G2 X51.425 Y-32.207 I-3.988 J4.941
G1 X50.391 Y-32.988
G2 X50.219 Y-33.113 I-3.826 J5.068
G1 X49.144 Y-33.869
G2 X48.966 Y-33.99 I-3.653 J5.194
G1 X47.851 Y-34.719
G2 X47.669 Y-34.834 I-3.475 J5.315
G1 X46.514 Y-35.534
G2 X46.331 Y-35.641 I-3.293 J5.429
G1 X45.138 Y-36.311
G2 X44.955 Y-36.41 I-3.11 J5.536
G1 X43.726 Y-37.049
G2 X43.544 Y-37.139 I-2.927 J5.635
G1 X42.281 Y-37.745
G2 X42.102 Y-37.828 I-2.746 J5.726
G1 X40.809 Y-38.399
G2 X40.631 Y-38.474 I-2.567 J5.808
G1 X39.311 Y-39.01
G2 X39.134 Y-39.079 I-2.388 J5.884
G1 X37.793 Y-39.577
G2 X37.616 Y-39.64 I-2.212 J5.952
G1 X36.257 Y-40.1
G2 X36.079 Y-40.157 I-2.035 J6.015
G1 X34.706 Y-40.577
G2 X34.525 Y-40.629 I-1.857 J6.072
G1 X33.145 Y-41.007
G2 X32.958 Y-41.055 I-1.676 J6.125
G1 X31.575 Y-41.389
G2 X31.38 Y-41.432 I-1.489 J6.173
G1 X29.999 Y-41.72
G2 X29.792 Y-41.759 I-1.294 J6.217
G1 X28.419 Y-41.998
G2 X28.197 Y-42.033 I-1.087 J6.256
G1 X26.837 Y-42.22
G2 X26.594 Y-42.249 I-0.866 J6.291
G1 X25.251 Y-42.381
G2 X24.983 Y-42.402 I-0.623 J6.319
G1 X23.662 Y-42.476
G2 X23.363 Y-42.485 I-0.355 J6.34
G1 X22.068 Y-42.497
G2 X21.732 Y-42.491 I-0.056 J6.35
G1 X20.468 Y-42.435
G2 X20.191 Y-42.417 I0.28 J6.344
G1 X19.572 Y-42.362
G2 X19.373 Y-42.341 I0.556 J6.326
G1 X18.762 Y-42.268
G2 X18.552 Y-42.24 I0.756 J6.305
G1 X17.951 Y-42.147
G2 X17.729 Y-42.109 I0.966 J6.276
G1 X17.138 Y-41.996
G2 X16.906 Y-41.948 I1.187 J6.238
G1 X16.325 Y-41.814
G2 X16.081 Y-41.753 I1.419 J6.189
G1 X15.51 Y-41.599
G2 X15.259 Y-41.525 I1.663 J6.128
G1 X14.698 Y-41.348
G2 X14.437 Y-41.259 I1.914 J6.055
G1 X13.888 Y-41.059
G2 X13.621 Y-40.954 I2.175 J5.966
G1 X13.083 Y-40.73
G2 X12.811 Y-40.609 I2.442 J5.861
G1 X12.285 Y-40.361
G2 X12.012 Y-40.224 I2.714 J5.741
G1 X11.498 Y-39.949
G2 X11.223 Y-39.794 I2.987 J5.604
G1 X10.721 Y-39.493
G2 X10.452 Y-39.323 I3.262 J5.448
G1 X9.962 Y-38.995
G2 X9.698 Y-38.809 I3.531 J5.278
G1 X9.22 Y-38.453
G2 X8.966 Y-38.253 I3.795 J5.091
G1 X8.501 Y-37.868
G2 X8.258 Y-37.656 I4.049 J4.891
G1 X7.806 Y-37.241
G2 X7.576 Y-37.019 I4.292 J4.68
G1 X7.137 Y-36.574
G2 X6.923 Y-36.346 I4.523 J4.458
G1 X6.497 Y-35.869
G2 X6.299 Y-35.637 I4.736 J4.23
G1 X5.887 Y-35.128
G2 X5.706 Y-34.893 I4.934 J3.997
G1 X5.307 Y-34.351
G2 X5.143 Y-34.117 I5.115 J3.763
G1 X4.758 Y-33.54
G2 X4.611 Y-33.31 I5.279 J3.529
G1 X4.239 Y-32.699
G2 X4.108 Y-32.473 I5.426 J3.298
G1 X3.75 Y-31.826
G2 X3.634 Y-31.606 I5.557 J3.073
G1 X3.29 Y-30.922
G2 X3.189 Y-30.711 I5.673 J2.854
G1 X2.859 Y-29.989
G2 X2.77 Y-29.786 I5.774 J2.642
G1 X2.454 Y-29.026
G2 X2.377 Y-28.833 I5.863 J2.439
G1 X2.075 Y-28.033
G2 X2.008 Y-27.849 I5.94 J2.246
G1 X1.72 Y-27.01
G2 X1.663 Y-26.835 I6.006 J2.061
G1 X1.389 Y-25.955
G2 X1.341 Y-25.791 I6.063 J1.887
G1 X1.081 Y-24.869
G2 X1.039 Y-24.714 I6.112 J1.722
G1 X0.794 Y-23.75
G2 X0.758 Y-23.604 I6.154 J1.567
G1 X0.527 Y-22.597
G2 X0.497 Y-22.46 I6.189 J1.421
G1 X0.28 Y-21.409
G2 X0.255 Y-21.28 I6.219 J1.284
G1 X0.053 Y-20.185
G2 X0.032 Y-20.064 I6.244 J1.155
G1 X-0.157 Y-18.924
G2 X-0.174 Y-18.811 I6.265 J1.035
G1 X-0.348 Y-17.624
G2 X-0.363 Y-17.518 I6.283 J0.922
G1 X-0.523 Y-16.286
G2 X-0.535 Y-16.187 I6.297 J0.816
G1 X-0.68 Y-14.907
G2 X-0.69 Y-14.814 I6.309 J0.717
G1 X-0.821 Y-13.487
G2 X-0.829 Y-13.4 I6.319 J0.624
G1 X-0.946 Y-12.024
G2 X-0.952 Y-11.943 I6.327 J0.537
G1 X-1.055 Y-10.519
G2 X-1.06 Y-10.442 I6.334 J0.456
G1 X-1.148 Y-8.969
G2 X-1.152 Y-8.897 I6.339 J0.379
G1 X-1.226 Y-7.375
G2 X-1.228 Y-7.308 I6.343 J0.308
G1 X-1.288 Y-5.735
G2 X-1.29 Y-5.672 I6.345 J0.24
G1 X-1.335 Y-4.05
G2 X-1.337 Y-3.99 I6.348 J0.177
G1 X-1.368 Y-2.317
G2 Y-2.261 I6.349 J0.118
G1 X-1.385 Y-0.538
G2 Y-0.485 I6.35 J0.062
G1 X-1.388 Y1.29
G2 Y1.339 I6.35 J0.009
G1 X-1.376 Y3.165
G2 X-1.375 Y3.212 I6.35 J-0.041
G1 X-1.349 Y5.088
G2 Y5.133 I6.349 J-0.088
G1 X-1.309 Y7.01
G2 X-1.308 Y7.057 I6.349 J-0.133
G1 X-1.256 Y8.881
G2 X-1.255 Y8.931 I6.347 J-0.181
G1 X-1.19 Y10.704
G2 X-1.188 Y10.757 I6.346 J-0.23
G1 X-1.111 Y12.479
G2 X-1.108 Y12.535 I6.344 J-0.283
G1 X-1.019 Y14.206
G2 X-1.016 Y14.265 I6.341 J-0.339
G1 X-0.914 Y15.885
G2 X-0.909 Y15.948 I6.337 J-0.398
G1 X-0.795 Y17.518
G2 X-0.79 Y17.585 I6.333 J-0.462
G1 X-0.663 Y19.104
G2 X-0.657 Y19.175 I6.328 J-0.529
G1 X-0.517 Y20.644
G2 X-0.509 Y20.72 I6.322 J-0.6
G1 X-0.357 Y22.14
G2 X-0.348 Y22.221 I6.314 J-0.676
G1 X-0.183 Y23.592
G2 X-0.172 Y23.678 I6.305 J-0.758
G1 X0.005 Y25
G2 X0.018 Y25.093 I6.294 J-0.844
G1 X0.208 Y26.367
G2 X0.223 Y26.465 I6.281 J-0.936
G1 X0.426 Y27.692
G2 X0.444 Y27.797 I6.265 J-1.035
G1 X0.66 Y28.977
G2 X0.681 Y29.089 I6.247 J-1.14
G1 X0.909 Y30.222
G2 X0.935 Y30.342 I6.225 J-1.253
G1 X1.175 Y31.43
G2 X1.205 Y31.557 I6.2 J-1.372
G1 X1.458 Y32.6
G2 X1.493 Y32.736 I6.17 J-1.5
G1 X1.759 Y33.734
G2 X1.8 Y33.879 I6.136 J-1.636
G1 X2.079 Y34.834
G2 X2.126 Y34.988 I6.095 J-1.781
G1 X2.417 Y35.9
G2 X2.472 Y36.062 I6.048 J-1.934
G1 X2.776 Y36.932
G2 X2.84 Y37.105 I5.994 J-2.097
G1 X3.157 Y37.934
G2 X3.229 Y38.115 I5.931 J-2.27
G1 X3.559 Y38.903
G2 X3.643 Y39.094 I5.858 J-2.451
G1 X3.985 Y39.843
G2 X4.081 Y40.042 I5.774 J-2.642
G1 X4.436 Y40.752
G2 X4.545 Y40.96 I5.679 J-2.842
G1 X4.913 Y41.632
G2 X5.036 Y41.847 I5.569 J-3.05
G1 X5.417 Y42.482
G2 X5.555 Y42.702 I5.446 J-3.265
G1 X5.948 Y43.3
G2 X6.103 Y43.525 I5.308 J-3.485
G1 X6.508 Y44.088
G2 X6.681 Y44.317 I5.153 J-3.711
G1 X7.098 Y44.845
G2 X7.287 Y45.072 I4.98 J-3.939
