%
(1001)
(Z0 stock bottom)
(T1  D=12.7 CR=0 - ZMIN=15 - flat end mill)
G90 G94
G17
G21

(2D Contour7 2)
M9
T1 M6
S6000 M3
G54
M9
G0 X665.16 Y123.97
Z65
Z55
G1 Z53.77 F849.6
G18 G3 X663.89 Z52.5 I-1.27
G1 X662.62
G17 G3 X661.35 Y122.7 J-1.27
G1 Y20 Z48.914 F400.3
G2 X635.909 Y-6.334 Z47.5 I-26.35
X635 Y-6.35 I-0.909 J26.334 F849.6
G1 X620
G2 X593.65 Y20 J26.35
G1 Y60
G3 X580 Y73.65 I-13.65
G1 X295
G3 X281.35 Y60 J-13.65
G1 Y20
G2 X255 Y-6.35 I-26.35
G1 X240
G2 X213.65 Y20 J26.35
G1 Y150
G2 X220 Y156.35 I6.35
G1 X228.316
X230.856 F212.4
Y180 F849.6
G2 X237.206 Y186.35 I6.35
G1 X367.206
G2 X373.556 Y180 J-6.35
G1 Y158.89
Y156.35 F212.4
X496.211 F849.6
X498.751 F212.4
Y180 F849.6
G2 X505.101 Y186.35 I6.35
G1 X635.101
G2 X641.451 Y180 J-6.35
G1 Y158.89
Y156.35 F212.4
X655 F849.6
G2 X661.35 Y150 J-6.35
G1 Y20
G2 X635.909 Y-6.334 I-26.35
X635 Y-6.35 Z47.468 I-0.909 J26.334 F400.3
G1 X620 Z46.944
G2 X593.65 Y20 Z45.499 J26.35
G1 Y34.291 Z45
Y60 F849.6
G3 X580 Y73.65 I-13.65
G1 X295
G3 X281.35 Y60 J-13.65
G1 Y20
G2 X255 Y-6.35 I-26.35
G1 X240
G2 X213.65 Y20 J26.35
G1 Y150
G2 X220 Y156.35 I6.35
G1 X228.316
X230.856 F212.4
Y180 F849.6
G2 X237.206 Y186.35 I6.35
G1 X367.206
G2 X373.556 Y180 J-6.35
G1 Y158.89
Y156.35 F212.4
X496.211 F849.6
X498.751 F212.4
Y180 F849.6
G2 X505.101 Y186.35 I6.35
G1 X635.101
G2 X641.451 Y180 J-6.35
G1 Y158.89
Y156.35 F212.4
X655 F849.6
G2 X661.35 Y150 J-6.35
G1 Y20
G2 X635 Y-6.35 I-26.35
G1 X620
G2 X593.65 Y20 J26.35
G1 Y34.291
Y60 Z44.102 F400.3
G3 X580 Y73.65 Z43.353 I-13.65
G1 X555.56 Z42.5
X295 F849.6
G3 X281.35 Y60 J-13.65
G1 Y20
G2 X255 Y-6.35 I-26.35
G1 X240
G2 X213.65 Y20 J26.35
G1 Y150
G2 X220 Y156.35 I6.35
G1 X228.316
X230.856 F212.4
Y180 F849.6
G2 X237.206 Y186.35 I6.35
G1 X367.206
G2 X373.556 Y180 J-6.35
G1 Y158.89
Y156.35 F212.4
X496.211 F849.6
X498.751 F212.4
Y180 F849.6
G2 X505.101 Y186.35 I6.35
G1 X635.101
G2 X641.451 Y180 J-6.35
G1 Y158.89
Y156.35 F212.4
X655 F849.6
G2 X661.35 Y150 J-6.35
G1 Y20
G2 X635 Y-6.35 I-26.35
G1 X620
G2 X593.65 Y20 J26.35
G1 Y60
G3 X580 Y73.65 I-13.65
G1 X555.56
X483.969 Z40 F400.3
X295 F849.6
G3 X281.35 Y60 J-13.65
G1 Y20
G2 X255 Y-6.35 I-26.35
G1 X240
G2 X213.65 Y20 J26.35
G1 Y150
G2 X220 Y156.35 I6.35
G1 X228.316
X230.856 F212.4
Y180 F849.6
G2 X237.206 Y186.35 I6.35
G1 X367.206
G2 X373.556 Y180 J-6.35
G1 Y158.89
Y156.35 F212.4
X496.211 F849.6
X498.751 F212.4
Y180 F849.6
G2 X505.101 Y186.35 I6.35
G1 X635.101
G2 X641.451 Y180 J-6.35
G1 Y158.89
Y156.35 F212.4
X655 F849.6
G2 X661.35 Y150 J-6.35
G1 Y20
G2 X635 Y-6.35 I-26.35
G1 X620
G2 X593.65 Y20 J26.35
G1 Y60
G3 X580 Y73.65 I-13.65
G1 X483.969
X412.378 Z37.5 F400.3
X295 F849.6
G3 X281.35 Y60 J-13.65
G1 Y20
G2 X255 Y-6.35 I-26.35
G1 X240
G2 X213.65 Y20 J26.35
G1 Y150
G2 X220 Y156.35 I6.35
G1 X228.316
X230.856 F212.4
Y180 F849.6
G2 X237.206 Y186.35 I6.35
G1 X367.206
G2 X373.556 Y180 J-6.35
G1 Y158.89
Y156.35 F212.4
X496.211 F849.6
X498.751 F212.4
Y180 F849.6
G2 X505.101 Y186.35 I6.35
G1 X635.101
G2 X641.451 Y180 J-6.35
G1 Y158.89
Y156.35 F212.4
X655 F849.6
G2 X661.35 Y150 J-6.35
G1 Y20
G2 X635 Y-6.35 I-26.35
G1 X620
G2 X593.65 Y20 J26.35
G1 Y60
G3 X580 Y73.65 I-13.65
G1 X483.969
X412.378
X340.788 Z35 F400.3
X295 F849.6
G3 X281.35 Y60 J-13.65
G1 Y20
G2 X255 Y-6.35 I-26.35
G1 X240
G2 X213.65 Y20 J26.35
G1 Y150
G2 X220 Y156.35 I6.35
G1 X228.316
X230.856 F212.4
Y180 F849.6
G2 X237.206 Y186.35 I6.35
G1 X367.206
G2 X373.556 Y180 J-6.35
G1 Y158.89
Y156.35 F212.4
X496.211 F849.6
X498.751 F212.4
Y180 F849.6
G2 X505.101 Y186.35 I6.35
G1 X635.101
G2 X641.451 Y180 J-6.35
G1 Y158.89
Y156.35 F212.4
X655 F849.6
G2 X661.35 Y150 J-6.35
G1 Y20
G2 X635 Y-6.35 I-26.35
G1 X620
G2 X593.65 Y20 J26.35
G1 Y60
G3 X580 Y73.65 I-13.65
G1 X412.378
X340.788
X295 Z33.401 F400.3
G3 X281.35 Y60 Z32.652 J-13.65
G1 Y55.639 Z32.5
Y20 F849.6
G2 X255 Y-6.35 I-26.35
G1 X240
G2 X213.65 Y20 J26.35
G1 Y150
G2 X220 Y156.35 I6.35
G1 X228.316
X230.856 F212.4
Y180 F849.6
G2 X237.206 Y186.35 I6.35
G1 X367.206
G2 X373.556 Y180 J-6.35
G1 Y158.89
Y156.35 F212.4
X496.211 F849.6
X498.751 F212.4
Y180 F849.6
G2 X505.101 Y186.35 I6.35
G1 X635.101
G2 X641.451 Y180 J-6.35
G1 Y158.89
Y156.35 F212.4
X655 F849.6
G2 X661.35 Y150 J-6.35
G1 Y20
G2 X635 Y-6.35 I-26.35
G1 X620
G2 X593.65 Y20 J26.35
G1 Y60
G3 X580 Y73.65 I-13.65
G1 X340.788
X295
G3 X281.35 Y60 J-13.65
G1 Y55.639
Y20 Z31.255 F400.3
G2 X260.4 Y-5.791 Z30 I-26.35
X255 Y-6.35 I-5.4 J25.791 F849.6
G1 X240
G2 X213.65 Y20 J26.35
G1 Y150
G2 X220 Y156.35 I6.35
G1 X228.316
X230.856 F212.4
Y180 F849.6
G2 X237.206 Y186.35 I6.35
G1 X367.206
G2 X373.556 Y180 J-6.35
G1 Y158.89
Y156.35 F212.4
X496.211 F849.6
X498.751 F212.4
Y180 F849.6
G2 X505.101 Y186.35 I6.35
G1 X635.101
G2 X641.451 Y180 J-6.35
G1 Y158.89
Y156.35 F212.4
X655 F849.6
G2 X661.35 Y150 J-6.35
G1 Y20
G2 X635 Y-6.35 I-26.35
G1 X620
G2 X593.65 Y20 J26.35
G1 Y60
G3 X580 Y73.65 I-13.65
G1 X295
G3 X281.35 Y60 J-13.65
G1 Y20
G2 X260.4 Y-5.791 I-26.35
X255 Y-6.35 Z29.81 I-5.4 J25.791 F400.3
G1 X240 Z29.286
G2 X213.65 Y20 Z27.841 J26.35
G1 Y29.762 Z27.5
Y150 F849.6
G2 X220 Y156.35 I6.35
G1 X228.316
X230.856 F212.4
Y180 F849.6
G2 X237.206 Y186.35 I6.35
G1 X367.206
G2 X373.556 Y180 J-6.35
G1 Y158.89
Y156.35 F212.4
X496.211 F849.6
X498.751 F212.4
Y180 F849.6
G2 X505.101 Y186.35 I6.35
G1 X635.101
G2 X641.451 Y180 J-6.35
G1 Y158.89
Y156.35 F212.4
X655 F849.6
G2 X661.35 Y150 J-6.35
G1 Y20
G2 X635 Y-6.35 I-26.35
G1 X620
G2 X593.65 Y20 J26.35
G1 Y60
G3 X580 Y73.65 I-13.65
G1 X295
G3 X281.35 Y60 J-13.65
G1 Y20
G2 X255 Y-6.35 I-26.35
G1 X240
G2 X213.65 Y20 J26.35
G1 Y29.762
Y101.352 Z25 F400.3
Y150 F849.6
G2 X220 Y156.35 I6.35
G1 X228.316
X230.856 F212.4
Y180 F849.6
G2 X237.206 Y186.35 I6.35
G1 X367.206
G2 X373.556 Y180 J-6.35
G1 Y158.89
Y156.35 F212.4
X496.211 F849.6
X498.751 F212.4
Y180 F849.6
G2 X505.101 Y186.35 I6.35
G1 X635.101
G2 X641.451 Y180 J-6.35
G1 Y158.89
Y156.35 F212.4
X655 F849.6
G2 X661.35 Y150 J-6.35
G1 Y20
G2 X635 Y-6.35 I-26.35
G1 X620
G2 X593.65 Y20 J26.35
G1 Y60
G3 X580 Y73.65 I-13.65
G1 X295
G3 X281.35 Y60 J-13.65
G1 Y20
G2 X255 Y-6.35 I-26.35
G1 X240
G2 X213.65 Y20 J26.35
G1 Y101.352
Y150 Z23.301 F400.3
G2 X220 Y156.35 Z22.953 I6.35
G1 X230.856 Z22.574
Y158.462 Z22.5
Y180 F849.6
G2 X237.206 Y186.35 I6.35
G1 X367.206
G2 X373.556 Y180 J-6.35
G1 Y158.89
Y156.35 F212.4
X496.211 F849.6
X498.751 F212.4
Y180 F849.6
G2 X505.101 Y186.35 I6.35
G1 X635.101
G2 X641.451 Y180 J-6.35
G1 Y158.89
Y156.35 F212.4
X655 F849.6
G2 X661.35 Y150 J-6.35
G1 Y20
G2 X635 Y-6.35 I-26.35
G1 X620
G2 X593.65 Y20 J26.35
G1 Y60
G3 X580 Y73.65 I-13.65
G1 X295
G3 X281.35 Y60 J-13.65
G1 Y20
G2 X255 Y-6.35 I-26.35
G1 X240
G2 X213.65 Y20 J26.35
G1 Y101.352
Y150
G2 X220 Y156.35 I6.35
G1 X228.316
X230.856 F212.4
Y158.462 F849.6
Y180 Z21.748 F400.3
G2 X237.206 Y186.35 Z21.4 I6.35
G1 X277.285 Z20
X367.206 F849.6
G2 X373.556 Y180 J-6.35
G1 Y158.89
Y156.35 F212.4
X496.211 F849.6
X498.751 F212.4
Y180 F849.6
G2 X505.101 Y186.35 I6.35
G1 X635.101
G2 X641.451 Y180 J-6.35
G1 Y158.89
Y156.35 F212.4
X655 F849.6
G2 X661.35 Y150 J-6.35
G1 Y20
G2 X635 Y-6.35 I-26.35
G1 X620
G2 X593.65 Y20 J26.35
G1 Y60
G3 X580 Y73.65 I-13.65
G1 X295
G3 X281.35 Y60 J-13.65
G1 Y20
G2 X255 Y-6.35 I-26.35
G1 X240
G2 X213.65 Y20 J26.35
G1 Y150
G2 X220 Y156.35 I6.35
G1 X228.316
X230.856 F212.4
Y180 F849.6
G2 X237.206 Y186.35 I6.35
G1 X277.285
X348.875 Z17.5 F400.3
X367.206 F849.6
G2 X373.556 Y180 J-6.35
G1 Y158.89
Y156.35 F212.4
X496.211 F849.6
X498.751 F212.4
Y180 F849.6
G2 X505.101 Y186.35 I6.35
G1 X635.101
G2 X641.451 Y180 J-6.35
G1 Y158.89
Y156.35 F212.4
X655 F849.6
G2 X661.35 Y150 J-6.35
G1 Y20
G2 X635 Y-6.35 I-26.35
G1 X620
G2 X593.65 Y20 J26.35
G1 Y60
G3 X580 Y73.65 I-13.65
G1 X295
G3 X281.35 Y60 J-13.65
G1 Y20
G2 X255 Y-6.35 I-26.35
G1 X240
G2 X213.65 Y20 J26.35
G1 Y150
G2 X220 Y156.35 I6.35
G1 X228.316
X230.856 F212.4
Y180 F849.6
G2 X237.206 Y186.35 I6.35
G1 X348.875
X367.206 Z16.86 F400.3
G2 X373.556 Y180 Z16.512 J-6.35
G1 Y156.35 Z15.686
X393.191 Z15
X496.211 F849.6
X498.751 F212.4
Y180 F849.6
G2 X505.101 Y186.35 I6.35
G1 X635.101
G2 X641.451 Y180 J-6.35
G1 Y158.89
Y156.35 F212.4
X655 F849.6
G2 X661.35 Y150 J-6.35
G1 Y20
G2 X635 Y-6.35 I-26.35
G1 X620
G2 X593.65 Y20 J26.35
G1 Y60
G3 X580 Y73.65 I-13.65
G1 X295
G3 X281.35 Y60 J-13.65
G1 Y20
G2 X255 Y-6.35 I-26.35
G1 X240
G2 X213.65 Y20 J26.35
G1 Y150
G2 X220 Y156.35 I6.35
G1 X228.316
X230.856 F212.4
Y180 F849.6
G2 X237.206 Y186.35 I6.35
G1 X348.875
X367.206
G2 X373.556 Y180 J-6.35
G1 Y158.89
Y156.35 F212.4
X393.191 F849.6
G3 X394.461 Y157.62 J1.27
G1 Y158.89
G19 G3 Y160.16 Z16.27 K1.27
G0 Z55
X779.84 Y59.79
G1 Z53.77 F849.6
G18 G2 X781.11 Z52.5 I1.27
G1 X782.38
G17 G3 X783.65 Y61.06 J1.27
G1 Y150 Z49.394 F400.3
G2 X790 Y156.35 Z49.046 I6.35
G1 X800.856 Z48.667
Y180 Z47.841
G2 X806.992 Y186.346 Z47.5 I6.35
X807.206 Y186.35 I0.214 J-6.346 F849.6
G1 X937.206
G2 X943.556 Y180 J-6.35
G1 Y158.89
Y156.35 F212.4
X1066.21 F849.6
X1068.75 F212.4
Y180 F849.6
G2 X1075.1 Y186.35 I6.35
G1 X1205.1
G2 X1211.45 Y180 J-6.35
G1 Y158.89
Y156.35 F212.4
X1225 F849.6
G2 X1231.35 Y150 J-6.35
G1 Y20
G2 X1205 Y-6.35 I-26.35
G1 X1190
G2 X1163.65 Y20 J26.35
G1 Y60
G3 X1150 Y73.65 I-13.65
G1 X865
G3 X851.35 Y60 J-13.65
G1 Y20
G2 X825 Y-6.35 I-26.35
G1 X810
G2 X783.65 Y20 J26.35
G1 Y150
G2 X790 Y156.35 I6.35
G1 X798.316
X800.856 F212.4
Y180 F849.6
G2 X806.992 Y186.346 I6.35
X807.206 Y186.35 Z47.493 I0.214 J-6.346 F400.3
G1 X878.583 Z45
X937.206 F849.6
G2 X943.556 Y180 J-6.35
G1 Y158.89
Y156.35 F212.4
X1066.21 F849.6
X1068.75 F212.4
Y180 F849.6
G2 X1075.1 Y186.35 I6.35
G1 X1205.1
G2 X1211.45 Y180 J-6.35
G1 Y158.89
Y156.35 F212.4
X1225 F849.6
G2 X1231.35 Y150 J-6.35
G1 Y20
G2 X1205 Y-6.35 I-26.35
G1 X1190
G2 X1163.65 Y20 J26.35
G1 Y60
G3 X1150 Y73.65 I-13.65
G1 X865
G3 X851.35 Y60 J-13.65
G1 Y20
G2 X825 Y-6.35 I-26.35
G1 X810
G2 X783.65 Y20 J26.35
G1 Y150
G2 X790 Y156.35 I6.35
G1 X798.316
X800.856 F212.4
Y180 F849.6
G2 X807.206 Y186.35 I6.35
G1 X878.583
X937.206 Z42.953 F400.3
G2 X943.556 Y180 Z42.605 J-6.35
G1 Y177.007 Z42.5
Y158.89 F849.6
Y156.35 F212.4
X1066.21 F849.6
X1068.75 F212.4
Y180 F849.6
G2 X1075.1 Y186.35 I6.35
G1 X1205.1
G2 X1211.45 Y180 J-6.35
G1 Y158.89
Y156.35 F212.4
X1225 F849.6
G2 X1231.35 Y150 J-6.35
G1 Y20
G2 X1205 Y-6.35 I-26.35
G1 X1190
G2 X1163.65 Y20 J26.35
G1 Y60
G3 X1150 Y73.65 I-13.65
G1 X865
G3 X851.35 Y60 J-13.65
G1 Y20
G2 X825 Y-6.35 I-26.35
G1 X810
G2 X783.65 Y20 J26.35
G1 Y150
G2 X790 Y156.35 I6.35
G1 X798.316
X800.856 F212.4
Y180 F849.6
G2 X807.206 Y186.35 I6.35
G1 X878.583
X937.206
G2 X943.556 Y180 J-6.35
G1 Y177.007
Y156.35 Z41.779 F400.3
X994.49 Z40
X1066.21 F849.6
X1068.75 F212.4
Y180 F849.6
G2 X1075.1 Y186.35 I6.35
G1 X1205.1
G2 X1211.45 Y180 J-6.35
G1 Y158.89
Y156.35 F212.4
X1225 F849.6
G2 X1231.35 Y150 J-6.35
G1 Y20
G2 X1205 Y-6.35 I-26.35
G1 X1190
G2 X1163.65 Y20 J26.35
G1 Y60
G3 X1150 Y73.65 I-13.65
G1 X865
G3 X851.35 Y60 J-13.65
G1 Y20
G2 X825 Y-6.35 I-26.35
G1 X810
G2 X783.65 Y20 J26.35
G1 Y150
G2 X790 Y156.35 I6.35
G1 X798.316
X800.856 F212.4
Y180 F849.6
G2 X807.206 Y186.35 I6.35
G1 X937.206
G2 X943.556 Y180 J-6.35
G1 Y158.89
Y156.35 F212.4
X994.49 F849.6
X1066.08 Z37.5 F400.3
X1066.21 F849.6
X1068.75 F212.4
Y180 F849.6
G2 X1075.1 Y186.35 I6.35
G1 X1205.1
G2 X1211.45 Y180 J-6.35
G1 Y158.89
Y156.35 F212.4
X1225 F849.6
G2 X1231.35 Y150 J-6.35
G1 Y20
G2 X1205 Y-6.35 I-26.35
G1 X1190
G2 X1163.65 Y20 J26.35
G1 Y60
G3 X1150 Y73.65 I-13.65
G1 X865
G3 X851.35 Y60 J-13.65
G1 Y20
G2 X825 Y-6.35 I-26.35
G1 X810
G2 X783.65 Y20 J26.35
G1 Y150
G2 X790 Y156.35 I6.35
G1 X798.316
X800.856 F212.4
Y180 F849.6
G2 X807.206 Y186.35 I6.35
G1 X937.206
G2 X943.556 Y180 J-6.35
G1 Y158.89
Y156.35 F212.4
X1066.08 F849.6
X1068.75 Z37.407 F400.3
Y180 Z36.581
G2 X1075.1 Y186.35 Z36.233 I6.35
G1 X1110.396 Z35
X1205.1 F849.6
G2 X1211.45 Y180 J-6.35
G1 Y158.89
Y156.35 F212.4
X1225 F849.6
G2 X1231.35 Y150 J-6.35
G1 Y20
G2 X1205 Y-6.35 I-26.35
G1 X1190
G2 X1163.65 Y20 J26.35
G1 Y60
G3 X1150 Y73.65 I-13.65
G1 X865
G3 X851.35 Y60 J-13.65
G1 Y20
G2 X825 Y-6.35 I-26.35
G1 X810
G2 X783.65 Y20 J26.35
G1 Y150
G2 X790 Y156.35 I6.35
G1 X798.316
X800.856 F212.4
Y180 F849.6
G2 X807.206 Y186.35 I6.35
G1 X937.206
G2 X943.556 Y180 J-6.35
G1 Y158.89
Y156.35 F212.4
X1066.08 F849.6
X1066.21
X1068.75 F212.4
Y180 F849.6
G2 X1075.1 Y186.35 I6.35
G1 X1110.396
X1181.987 Z32.5 F400.3
X1205.1 F849.6
G2 X1211.45 Y180 J-6.35
G1 Y158.89
Y156.35 F212.4
X1225 F849.6
G2 X1231.35 Y150 J-6.35
G1 Y20
G2 X1205 Y-6.35 I-26.35
G1 X1190
G2 X1163.65 Y20 J26.35
G1 Y60
G3 X1150 Y73.65 I-13.65
G1 X865
G3 X851.35 Y60 J-13.65
G1 Y20
G2 X825 Y-6.35 I-26.35
G1 X810
G2 X783.65 Y20 J26.35
G1 Y150
G2 X790 Y156.35 I6.35
G1 X798.316
X800.856 F212.4
Y180 F849.6
G2 X807.206 Y186.35 I6.35
G1 X937.206
G2 X943.556 Y180 J-6.35
G1 Y158.89
Y156.35 F212.4
X1066.21 F849.6
X1068.75 F212.4
Y180 F849.6
G2 X1075.1 Y186.35 I6.35
G1 X1181.987
X1205.1 Z31.693 F400.3
G2 X1211.45 Y180 Z31.345 J-6.35
G1 Y156.35 Z30.519
X1225 Z30.046
G2 X1226.294 Y156.217 Z30 J-6.35
X1231.35 Y150 I-1.294 J-6.217 F849.6
G1 Y20
G2 X1205 Y-6.35 I-26.35
G1 X1190
G2 X1163.65 Y20 J26.35
G1 Y60
G3 X1150 Y73.65 I-13.65
G1 X865
G3 X851.35 Y60 J-13.65
G1 Y20
G2 X825 Y-6.35 I-26.35
G1 X810
G2 X783.65 Y20 J26.35
G1 Y150
G2 X790 Y156.35 I6.35
G1 X798.316
X800.856 F212.4
Y180 F849.6
G2 X807.206 Y186.35 I6.35
G1 X937.206
G2 X943.556 Y180 J-6.35
G1 Y158.89
Y156.35 F212.4
X1066.21 F849.6
X1068.75 F212.4
Y180 F849.6
G2 X1075.1 Y186.35 I6.35
G1 X1181.987
X1205.1
G2 X1211.45 Y180 J-6.35
G1 Y158.89
Y156.35 F212.4
X1225 F849.6
G2 X1226.294 Y156.217 J-6.35
X1231.35 Y150 Z29.697 I-1.294 J-6.217 F400.3
G1 Y87.081 Z27.5
Y20 F849.6
G2 X1205 Y-6.35 I-26.35
G1 X1190
G2 X1163.65 Y20 J26.35
G1 Y60
G3 X1150 Y73.65 I-13.65
G1 X865
G3 X851.35 Y60 J-13.65
G1 Y20
G2 X825 Y-6.35 I-26.35
G1 X810
G2 X783.65 Y20 J26.35
G1 Y150
G2 X790 Y156.35 I6.35
G1 X798.316
X800.856 F212.4
Y180 F849.6
G2 X807.206 Y186.35 I6.35
G1 X937.206
G2 X943.556 Y180 J-6.35
G1 Y158.89
Y156.35 F212.4
X1066.21 F849.6
X1068.75 F212.4
Y180 F849.6
G2 X1075.1 Y186.35 I6.35
G1 X1205.1
G2 X1211.45 Y180 J-6.35
G1 Y158.89
Y156.35 F212.4
X1225 F849.6
G2 X1231.35 Y150 J-6.35
G1 Y87.081
Y20 Z25.157 F400.3
G2 X1230.965 Y15.512 Z25 I-26.35
X1205 Y-6.35 I-25.965 J4.488 F849.6
G1 X1190
G2 X1163.65 Y20 J26.35
G1 Y60
G3 X1150 Y73.65 I-13.65
G1 X865
G3 X851.35 Y60 J-13.65
G1 Y20
G2 X825 Y-6.35 I-26.35
G1 X810
G2 X783.65 Y20 J26.35
G1 Y150
G2 X790 Y156.35 I6.35
G1 X798.316
X800.856 F212.4
Y180 F849.6
G2 X807.206 Y186.35 I6.35
G1 X937.206
G2 X943.556 Y180 J-6.35
G1 Y158.89
Y156.35 F212.4
X1066.21 F849.6
X1068.75 F212.4
Y180 F849.6
G2 X1075.1 Y186.35 I6.35
G1 X1205.1
G2 X1211.45 Y180 J-6.35
G1 Y158.89
Y156.35 F212.4
X1225 F849.6
G2 X1231.35 Y150 J-6.35
G1 Y20
G2 X1230.965 Y15.512 I-26.35
X1205 Y-6.35 Z23.712 I-25.965 J4.488 F400.3
G1 X1190 Z23.188
G2 X1172.077 Y0.684 Z22.5 J26.35
X1163.65 Y20 I17.923 J19.316 F849.6
G1 Y60
G3 X1150 Y73.65 I-13.65
G1 X865
G3 X851.35 Y60 J-13.65
G1 Y20
G2 X825 Y-6.35 I-26.35
G1 X810
G2 X783.65 Y20 J26.35
G1 Y150
G2 X790 Y156.35 I6.35
G1 X798.316
X800.856 F212.4
Y180 F849.6
G2 X807.206 Y186.35 I6.35
G1 X937.206
G2 X943.556 Y180 J-6.35
G1 Y158.89
Y156.35 F212.4
X1066.21 F849.6
X1068.75 F212.4
Y180 F849.6
G2 X1075.1 Y186.35 I6.35
G1 X1205.1
G2 X1211.45 Y180 J-6.35
G1 Y158.89
Y156.35 F212.4
X1225 F849.6
G2 X1231.35 Y150 J-6.35
G1 Y20
G2 X1205 Y-6.35 I-26.35
G1 X1190
G2 X1172.077 Y0.684 J26.35
X1163.65 Y20 Z21.743 I17.923 J19.316 F400.3
G1 Y60 Z20.346
G3 X1160.208 Y69.062 Z20 I-13.65
X1150 Y73.65 I-10.208 J-9.062 F849.6
G1 X865
G3 X851.35 Y60 J-13.65
G1 Y20
G2 X825 Y-6.35 I-26.35
G1 X810
G2 X783.65 Y20 J26.35
G1 Y150
G2 X790 Y156.35 I6.35
G1 X798.316
X800.856 F212.4
Y180 F849.6
G2 X807.206 Y186.35 I6.35
G1 X937.206
G2 X943.556 Y180 J-6.35
G1 Y158.89
Y156.35 F212.4
X1066.21 F849.6
X1068.75 F212.4
Y180 F849.6
G2 X1075.1 Y186.35 I6.35
G1 X1205.1
G2 X1211.45 Y180 J-6.35
G1 Y158.89
Y156.35 F212.4
X1225 F849.6
G2 X1231.35 Y150 J-6.35
G1 Y20
G2 X1205 Y-6.35 I-26.35
G1 X1190
G2 X1163.65 Y20 J26.35
G1 Y60
G3 X1160.208 Y69.062 I-13.65
X1150 Y73.65 Z19.597 I-10.208 J-9.062 F400.3
G1 X1089.941 Z17.5
X865 F849.6
G3 X851.35 Y60 J-13.65
G1 Y20
G2 X825 Y-6.35 I-26.35
G1 X810
G2 X783.65 Y20 J26.35
G1 Y150
G2 X790 Y156.35 I6.35
G1 X798.316
X800.856 F212.4
Y180 F849.6
G2 X807.206 Y186.35 I6.35
G1 X937.206
G2 X943.556 Y180 J-6.35
G1 Y158.89
Y156.35 F212.4
X1066.21 F849.6
X1068.75 F212.4
Y180 F849.6
G2 X1075.1 Y186.35 I6.35
G1 X1205.1
G2 X1211.45 Y180 J-6.35
G1 Y158.89
Y156.35 F212.4
X1225 F849.6
G2 X1231.35 Y150 J-6.35
G1 Y20
G2 X1205 Y-6.35 I-26.35
G1 X1190
G2 X1163.65 Y20 J26.35
G1 Y60
G3 X1150 Y73.65 I-13.65
G1 X1089.941
X1018.35 Z15 F400.3
X865 F849.6
G3 X851.35 Y60 J-13.65
G1 Y20
G2 X825 Y-6.35 I-26.35
G1 X810
G2 X783.65 Y20 J26.35
G1 Y150
G2 X790 Y156.35 I6.35
G1 X798.316
X800.856 F212.4
Y180 F849.6
G2 X807.206 Y186.35 I6.35
G1 X937.206
G2 X943.556 Y180 J-6.35
G1 Y158.89
Y156.35 F212.4
X1066.21 F849.6
X1068.75 F212.4
Y180 F849.6
G2 X1075.1 Y186.35 I6.35
G1 X1205.1
G2 X1211.45 Y180 J-6.35
G1 Y158.89
Y156.35 F212.4
X1225 F849.6
G2 X1231.35 Y150 J-6.35
G1 Y20
G2 X1205 Y-6.35 I-26.35
G1 X1190
G2 X1163.65 Y20 J26.35
G1 Y60
G3 X1150 Y73.65 I-13.65
G1 X1018.35
G3 X1017.08 Y72.38 J-1.27
G1 Y71.11
G19 G2 Y69.84 Z16.27 K1.27
G0 Z65
G17

(2D Adaptive15 2)
M9
G0 X346.624 Y162.649
Z65
Z55
Z53.77
G1 Z52.5 F849.6
G3 X356.257 Y160.554 Z52.097 I5.556 J2.351 F400.3
X348.103 Y169.446 Z51.435 I-4.077 J4.446
X356.257 Y160.554 Z50.773 I4.077 J-4.446
X357.359 Y168.093 Z50.485 I-4.077 J4.446
X347.53 Y168.843 Z50.083 I-5.179 J-3.093
X356.83 Y161.157 Z49.421 I4.65 J-3.843
X347.53 Y168.843 Z48.759 I-4.65 J3.843
X348.667 Y160.096 Z48.414 I4.65 J-3.843
X357.315 Y161.834 Z48.068 I3.513 J4.904
X347.045 Y168.166 Z47.406 I-5.135 J3.166
X346.199 Y164.212 Z47.262 I5.135 J-3.166
X358.161 Y165.788 Z46.6 I5.981 J0.788
X356.319 Y169.389 Z46.456 I-5.981 J-0.788
X346.658 Y167.429 Z46.054 I-4.139 J-4.389
X357.702 Y162.571 Z45.392 I5.522 J-2.429
X357.995 Y166.604 Z45.248 I-5.522 J2.429
X346.365 Y163.396 Z44.586 I-5.815 J-1.604
X348.684 Y160.083 Z44.442 I5.815 J1.604
X357.984 Y163.355 Z44.039 I3.495 J4.917
X346.376 Y166.645 Z43.377 I-5.804 J1.645
X346.641 Y162.61 Z43.233 I5.804 J-1.645
X356.288 Y160.582 Z42.83 I5.539 J2.39
X348.072 Y169.418 Z42.169 I-4.108 J4.418
X346.205 Y165.831 Z42.025 I4.108 J-4.418
X358.155 Y164.169 Z41.363 I5.975 J-0.831
X357.337 Y168.13 Z41.219 I-5.975 J0.831
X347.503 Y168.81 Z40.816 I-5.157 J-3.13
X356.857 Y161.19 Z40.154 I4.677 J-3.81
X358.212 Y165 Z40.01 I-4.677 J3.81
X346.147 I-6.033
X357.69 Y162.545 I6.033
X358.212 Y165 I-5.511 J2.455
G1 X358.228 Y166.292 F849.6
X358.251 Y166.369
X358.287 Y166.515
X358.312 Y166.663
X358.327 Y166.812
X358.334 Y166.962
X358.332 Y167.112
X358.323 Y167.262
X358.308 Y167.411
X358.285 Y167.566
X358.254 Y167.729
X358.215 Y167.897
X358.166 Y168.072
X358.108 Y168.251
X358.04 Y168.434
X357.962 Y168.62
X357.873 Y168.81
X357.773 Y169.001
X357.662 Y169.193
X357.54 Y169.385
X357.407 Y169.576
X357.263 Y169.766
X357.108 Y169.953
X356.942 Y170.137
X356.765 Y170.317
X356.578 Y170.492
X356.381 Y170.662
X356.174 Y170.826
X355.958 Y170.982
X355.732 Y171.131
X355.499 Y171.272
X355.257 Y171.404
X355.008 Y171.527
X354.752 Y171.641
X354.489 Y171.744
X354.221 Y171.837
X353.947 Y171.918
X353.669 Y171.989
X353.387 Y172.048
X353.101 Y172.096
X352.812 Y172.131
X352.521 Y172.155
X352.228 Y172.166
X351.934 Y172.165
X351.64 Y172.151
X351.345 Y172.125
X351.052 Y172.087
X350.759 Y172.036
X350.469 Y171.973
X350.181 Y171.898
X349.896 Y171.81
X349.614 Y171.711
X349.337 Y171.599
X349.064 Y171.476
X348.796 Y171.342
X348.534 Y171.196
X348.278 Y171.039
X348.029 Y170.871
X347.787 Y170.693
X347.552 Y170.505
X347.326 Y170.307
X347.108 Y170.1
X346.898 Y169.883
X346.698 Y169.658
X346.507 Y169.424
X346.327 Y169.183
X346.156 Y168.934
X345.996 Y168.678
X345.847 Y168.416
X345.709 Y168.147
X345.583 Y167.873
X345.468 Y167.594
X345.365 Y167.31
X345.274 Y167.022
X345.195 Y166.731
X345.128 Y166.436
X345.074 Y166.139
X345.033 Y165.839
X345.004 Y165.539
X344.987 Y165.237
X344.983 Y164.935
X344.993 Y164.632
X345.014 Y164.331
X345.049 Y164.031
X345.096 Y163.732
X345.155 Y163.435
X345.227 Y163.142
X345.311 Y162.851
X345.407 Y162.565
X345.516 Y162.282
X345.636 Y162.005
X345.767 Y161.733
X345.91 Y161.466
X346.064 Y161.206
X346.229 Y160.952
X346.404 Y160.706
X346.59 Y160.467
X346.785 Y160.236
X346.99 Y160.014
X347.204 Y159.8
X347.427 Y159.596
X347.658 Y159.401
X347.897 Y159.216
X348.144 Y159.041
X348.398 Y158.877
X348.659 Y158.723
X348.925 Y158.581
X349.198 Y158.45
X349.476 Y158.33
X349.758 Y158.222
X350.045 Y158.127
X350.336 Y158.043
X350.63 Y157.972
X350.926 Y157.913
X351.225 Y157.866
X351.526 Y157.833
X351.828 Y157.811
X352.13 Y157.803
X352.432 Y157.807
X352.734 Y157.824
X353.035 Y157.854
X353.335 Y157.896
X353.632 Y157.951
X353.927 Y158.018
X354.219 Y158.098
X354.507 Y158.189
X354.791 Y158.293
X355.071 Y158.409
X355.345 Y158.536
X355.614 Y158.675
X355.877 Y158.825
X356.133 Y158.985
X356.382 Y159.157
X356.624 Y159.339
X356.858 Y159.53
X357.083 Y159.732
X357.3 Y159.942
X357.508 Y160.162
X357.707 Y160.39
X357.896 Y160.626
X358.074 Y160.87
X358.243 Y161.122
X358.4 Y161.38
X358.547 Y161.644
X358.682 Y161.915
X358.806 Y162.191
X358.93 Y162.501
X359.144 Y163.109
X359.311 Y163.657
X359.431 Y164.119
X359.519 Y164.527
X359.584 Y164.906
X359.629 Y165.262
X359.658 Y165.6
X359.673 Y165.925
Y166.242
X359.661 Y166.552
X359.636 Y166.855
X359.598 Y167.152
X359.549 Y167.444
X359.488 Y167.732
X359.416 Y168.016
X359.331 Y168.296
X359.235 Y168.573
X359.128 Y168.846
X359.008 Y169.114
X358.877 Y169.379
X358.734 Y169.639
X358.579 Y169.894
X358.413 Y170.144
X358.235 Y170.388
X358.046 Y170.627
X357.846 Y170.858
X357.635 Y171.083
X357.413 Y171.3
X357.18 Y171.509
X356.937 Y171.71
X356.684 Y171.901
X356.421 Y172.083
X356.149 Y172.255
X355.869 Y172.417
X355.58 Y172.567
X355.284 Y172.706
X354.98 Y172.832
X354.67 Y172.947
X354.353 Y173.049
X354.031 Y173.138
X353.705 Y173.214
X353.374 Y173.276
X353.039 Y173.324
X352.702 Y173.359
X352.362 Y173.379
X352.021 Y173.385
X351.679 Y173.376
X351.336 Y173.354
X350.994 Y173.316
X350.653 Y173.265
X350.314 Y173.198
X349.977 Y173.118
X349.643 Y173.023
X349.313 Y172.914
X348.987 Y172.791
X348.666 Y172.655
X348.351 Y172.504
X348.042 Y172.341
X347.739 Y172.164
X347.444 Y171.975
X347.157 Y171.773
X346.879 Y171.559
X346.609 Y171.333
X346.349 Y171.096
X346.099 Y170.848
X345.859 Y170.59
X345.63 Y170.321
X345.413 Y170.043
X345.207 Y169.756
X345.014 Y169.461
X344.833 Y169.157
X344.665 Y168.847
X344.51 Y168.529
X344.368 Y168.204
X344.241 Y167.874
X344.127 Y167.539
X344.027 Y167.2
X343.942 Y166.856
X343.871 Y166.509
X343.815 Y166.159
X343.773 Y165.807
X343.746 Y165.454
X343.734 Y165.1
X343.738 Y164.745
X343.756 Y164.391
X343.788 Y164.038
X343.836 Y163.686
X343.898 Y163.337
X343.975 Y162.991
X344.067 Y162.648
X344.173 Y162.31
X344.293 Y161.976
X344.427 Y161.647
X344.574 Y161.325
X344.735 Y161.008
X344.909 Y160.699
X345.096 Y160.398
X345.296 Y160.104
X345.507 Y159.819
X345.731 Y159.544
X345.966 Y159.277
X346.212 Y159.021
X346.468 Y158.776
X346.734 Y158.542
X347.011 Y158.319
X347.296 Y158.107
X347.59 Y157.908
X347.892 Y157.722
X348.201 Y157.548
X348.518 Y157.387
X348.841 Y157.24
X349.17 Y157.107
X349.504 Y156.987
X349.843 Y156.882
X350.186 Y156.791
X350.533 Y156.714
X350.882 Y156.652
X351.234 Y156.605
X351.588 Y156.573
X351.942 Y156.555
X352.297 Y156.553
X352.652 Y156.565
X353.006 Y156.593
X353.358 Y156.635
X353.709 Y156.692
X354.057 Y156.763
X354.401 Y156.849
X354.741 Y156.95
X355.077 Y157.065
X355.408 Y157.193
X355.733 Y157.336
X356.052 Y157.492
X356.364 Y157.661
X356.669 Y157.844
X356.966 Y158.038
X357.254 Y158.246
X357.533 Y158.465
X357.803 Y158.696
X358.063 Y158.937
X358.312 Y159.19
X358.552 Y159.454
X358.783 Y159.73
X359.025 Y160.047
X359.268 Y160.394
X359.501 Y160.758
X359.723 Y161.139
X359.931 Y161.533
X360.122 Y161.935
X360.293 Y162.34
X360.445 Y162.744
X360.578 Y163.147
X360.691 Y163.548
X360.785 Y163.945
X360.796 Y164.002
X360.829 Y164.21
X360.849 Y164.419
X360.856 Y164.629
Y166.195
X360.823 Y166.864
X360.792 Y167.191
X360.748 Y167.519
X360.69 Y167.847
X360.617 Y168.174
X360.531 Y168.499
X360.43 Y168.822
X360.315 Y169.142
X360.186 Y169.459
X360.044 Y169.772
X359.887 Y170.08
X359.716 Y170.384
X359.532 Y170.681
X359.334 Y170.973
X359.122 Y171.258
X358.898 Y171.536
X358.66 Y171.805
X358.41 Y172.066
X358.147 Y172.318
X357.873 Y172.56
X357.587 Y172.791
X357.29 Y173.011
X357.188 Y173.081
X356.761 Y173.326
X356.304 Y173.504
X355.825 Y173.613
X355.335 Y173.65
X349.684
X349.367 Y173.634
X349.164 Y173.615
X348.952 Y173.587
X348.726 Y173.547
X348.489 Y173.494
X348.249 Y173.43
X348.001 Y173.353
X347.744 Y173.261
X347.479 Y173.153
X347.212 Y173.031
X346.943 Y172.895
X346.674 Y172.743
X346.403 Y172.575
X346.132 Y172.391
X345.862 Y172.191
X345.595 Y171.975
X345.332 Y171.743
X345.076 Y171.498
X344.827 Y171.238
X344.586 Y170.965
X344.355 Y170.678
X344.133 Y170.379
X343.921 Y170.067
X343.721 Y169.744
X343.533 Y169.409
X343.358 Y169.064
X343.196 Y168.71
X343.048 Y168.347
X342.915 Y167.976
X342.798 Y167.598
X342.696 Y167.214
X342.609 Y166.824
X342.539 Y166.43
X342.486 Y166.032
X342.449 Y165.632
X342.429 Y165.229
X342.425 Y164.825
X342.439 Y164.42
X342.47 Y164.016
X342.518 Y163.612
X342.583 Y163.211
X342.665 Y162.812
X342.763 Y162.417
X342.879 Y162.026
X343.01 Y161.639
X343.158 Y161.259
X343.322 Y160.884
X343.501 Y160.517
X343.696 Y160.157
X343.906 Y159.806
X344.131 Y159.464
X344.37 Y159.131
X344.622 Y158.808
X344.888 Y158.497
X345.167 Y158.196
X345.459 Y157.908
X345.762 Y157.632
X346.077 Y157.369
X346.402 Y157.12
X346.738 Y156.884
X346.757 Y156.872
X347.17 Y156.647
X347.61 Y156.483
X348.069 Y156.383
X348.538 Y156.35
X354.675
X355.033 Y156.368
X355.229 Y156.386
X355.438 Y156.414
X355.662 Y156.454
X355.892 Y156.505
X356.128 Y156.568
X356.375 Y156.645
X356.632 Y156.737
X356.892 Y156.843
X357.155 Y156.963
X357.42 Y157.098
X357.691 Y157.25
X357.967 Y157.421
X358.246 Y157.61
X358.524 Y157.816
X358.802 Y158.041
X359.082 Y158.288
X359.362 Y158.557
X359.64 Y158.847
X359.911 Y159.154
X360.174 Y159.479
X360.206 Y159.523
X360.435 Y159.877
X360.617 Y160.256
X360.749 Y160.656
X360.829 Y161.069
X360.856 Y161.489
G3 X360.742 Y161.972 I-1.269 J-0.044
X358.802 Y162.443 I-1.156 J-0.527
G1 X353.935 Y158.618
G3 X354.193 Y156.464 I0.785 J-0.998
X354.675 Y156.35 I0.527 J1.156
G1 X356.751
X356.945 Y156.36
X357.094 Y156.373
X357.256 Y156.395
X357.431 Y156.427
X357.611 Y156.467
X357.806 Y156.518
X358.013 Y156.583
X358.224 Y156.659
X358.448 Y156.75
X358.685 Y156.858
X358.923 Y156.979
X359.166 Y157.116
X359.381 Y157.25
X359.41 Y157.269
X359.771 Y157.553
X360.089 Y157.884
X360.358 Y158.255
X360.573 Y158.661
X360.729 Y159.092
X360.824 Y159.541
X360.856 Y159.999
G3 X360.742 Y160.481 I-1.269 J-0.044
X358.772 Y160.929 I-1.156 J-0.527
G1 X355.981 Y158.593
G3 X356.269 Y156.464 I0.815 J-0.974
X356.751 Y156.35 I0.527 J1.156
G1 X358.39
X358.551 Y156.358
X358.7 Y156.372
X358.848 Y156.393
X359.26 Y156.514
X359.644 Y156.703
X359.991 Y156.955
X360.29 Y157.262
X360.532 Y157.616
X360.71 Y158.006
X360.819 Y158.42
X360.856 Y158.847
G3 X360.787 Y159.34 I-2.386 J-0.083
X357.841 Y161.067 I-2.316 J-0.576
X358.39 Y156.35 I0.633 J-2.316
G1 X359.341
X359.491 Y156.357
X359.803 Y156.428
X360.095 Y156.561
X360.353 Y156.752
X360.566 Y156.992
X360.725 Y157.27
X360.823 Y157.575
X360.856 Y157.894
G3 X360.755 Y158.38 I-1.467 J-0.051
X358.992 Y159.256 I-1.366 J-0.537
X358.855 Y156.45 I0.4 J-1.426
X359.341 Y156.35 I0.538 J1.38
G1 X359.609 Y156.351
X359.799 Y156.37
X359.99 Y156.42
X360.18 Y156.505
X360.3 Y156.579
X360.42 Y156.674
X360.561 Y156.821
X360.648 Y156.938
X360.716 Y157.055
X360.795 Y157.246
X360.84 Y157.436
X360.856 Y157.817
Y164.629
Y165.127
Y165.696
Y166.195
Y169.07
X360.845 Y169.292
X360.828 Y169.47
X360.804 Y169.652
X360.769 Y169.849
X360.722 Y170.059
X360.665 Y170.273
X360.596 Y170.496
X360.511 Y170.732
X360.413 Y170.974
X360.301 Y171.219
X360.174 Y171.468
X360.03 Y171.725
X359.868 Y171.986
X359.705 Y172.226
X359.638 Y172.316
X359.354 Y172.651
X359.027 Y172.945
X358.664 Y173.193
X358.272 Y173.39
X357.857 Y173.534
X357.426 Y173.621
X356.988 Y173.65
G3 X356.032 Y171.598 I0.044 J-1.269
G1 X358.586 Y168.332
G3 X360.742 Y168.587 I1 J0.782
X360.856 Y169.07 I-1.156 J0.527
G1 Y170.879
X360.846 Y171.074
X360.832 Y171.223
X360.811 Y171.372
X360.783 Y171.521
X360.749 Y171.667
X360.708 Y171.811
X360.658 Y171.963
X360.49 Y172.32
X360.271 Y172.648
X360.005 Y172.939
X359.698 Y173.187
X359.357 Y173.386
X358.99 Y173.532
X358.605 Y173.62
X358.212 Y173.65
G3 X357.318 Y171.524 I0.044 J-1.269
G1 X358.649 Y170.067
G3 X360.742 Y170.397 I0.938 J0.856
X360.856 Y170.879 I-1.156 J0.527
G1 Y172.022
X360.849 Y172.172
X360.776 Y172.509
X360.635 Y172.825
X360.432 Y173.104
X360.175 Y173.335
X359.876 Y173.507
X359.547 Y173.614
X359.204 Y173.65
G3 X358.716 Y173.555 I0.055 J-1.576
X357.739 Y171.655 I0.542 J-1.48
X360.761 Y171.534 I1.531 J0.422
X360.856 Y172.022 I-1.492 J0.543
G1 Y172.287
X360.851 Y172.478
X360.82 Y172.668
X360.757 Y172.859
X360.657 Y173.049
X360.561 Y173.181
X360.424 Y173.322
X360.287 Y173.43
X360.18 Y173.495
X359.99 Y173.58
X359.799 Y173.63
X359.767 Y173.633
X359.723 Y173.634 Z40.012
X359.642 Y173.635 Z40.026
X359.564 Z40.053
X359.493 Z40.093
X359.428 Z40.143
X359.373 Z40.204
X359.328 Z40.272
X359.295 Z40.348
X359.275 Z40.427
X359.269 Z40.509
G0 Z55
X350.167 Y173.536
Z41.28
G1 Z40.01 F849.6
G3 X349.684 Y173.65 I-0.527 J-1.156
G1 X347.608
X347.52 Y173.646
X347.371 Y173.636
X347.213 Y173.618
X347.051 Y173.593
X346.874 Y173.559
X346.686 Y173.513
X346.494 Y173.458
X346.29 Y173.391
X346.074 Y173.309
X345.855 Y173.215
X345.631 Y173.108
X345.397 Y172.984
X345.157 Y172.843
X344.916 Y172.688
X344.675 Y172.518
X344.43 Y172.329
X344.184 Y172.122
X343.937 Y171.897
X343.694 Y171.655
X343.456 Y171.398
X343.225 Y171.125
X342.998 Y170.835
X342.779 Y170.528
X342.568 Y170.205
X342.367 Y169.866
X342.176 Y169.512
X341.998 Y169.145
X341.833 Y168.766
X341.683 Y168.376
X341.548 Y167.976
X341.428 Y167.566
X341.325 Y167.148
X341.239 Y166.723
X341.17 Y166.29
X341.119 Y165.852
X341.086 Y165.409
X341.072 Y164.962
X341.077 Y164.513
X341.1 Y164.062
X341.143 Y163.61
X341.205 Y163.159
X341.286 Y162.71
X341.386 Y162.263
X341.505 Y161.819
X341.643 Y161.38
X341.8 Y160.946
X341.975 Y160.518
X342.168 Y160.097
X342.379 Y159.684
X342.608 Y159.28
X342.853 Y158.885
X343.115 Y158.501
X343.394 Y158.127
X343.682 Y157.773
X343.937 Y157.485
X344.057 Y157.361
X344.384 Y157.064
X344.748 Y156.813
X345.142 Y156.613
X345.559 Y156.468
X345.992 Y156.38
X346.433 Y156.35
X348.538
X348.622 Y156.364 Z40.018
X348.704 Y156.377 Z40.04
X348.781 Y156.389 Z40.076
X348.851 Y156.401 Z40.125
X348.909 Y156.422 Z40.186
X348.957 Y156.44 Z40.258
X348.992 Y156.453 Z40.337
X349.013 Y156.461 Z40.421
X349.02 Y156.464 Z40.509
G0 Z55
X348.107 Y173.649
Z41.28
G1 Z40.01 F849.6
X347.608 Y173.65
X345.969
X345.888 Y173.646
X345.738 Y173.636
X345.589 Y173.619
X345.439 Y173.595
X345.284 Y173.563
X345.115 Y173.521
X344.937 Y173.469
X344.755 Y173.407
X344.56 Y173.332
X344.356 Y173.242
X344.15 Y173.142
X343.936 Y173.026
X343.713 Y172.893
X343.486 Y172.744
X343.259 Y172.582
X343.028 Y172.4
X342.792 Y172.199
X342.554 Y171.979
X342.32 Y171.743
X342.09 Y171.49
X341.862 Y171.217
X341.637 Y170.924
X341.417 Y170.611
X341.205 Y170.28
X341.003 Y169.934
X340.812 Y169.572
X340.632 Y169.196
X340.465 Y168.802
X340.311 Y168.393
X340.171 Y167.97
X340.047 Y167.534
X339.94 Y167.085
X339.851 Y166.626
X339.78 Y166.158
X339.729 Y165.682
X339.697 Y165.2
X339.685 Y164.713
X339.694 Y164.222
X339.723 Y163.728
X339.774 Y163.232
X339.846 Y162.736
X339.939 Y162.24
X340.054 Y161.746
X340.19 Y161.255
X340.347 Y160.769
X340.525 Y160.287
X340.724 Y159.811
X340.942 Y159.345
X341.164 Y158.919
X341.383 Y158.539
X341.595 Y158.203
X341.795 Y157.915
X342.006 Y157.636
X342.078 Y157.549
X342.413 Y157.199
X342.795 Y156.902
X343.217 Y156.665
X343.668 Y156.491
X344.14 Y156.385
X344.623 Y156.35
X346.433
G3 X346.916 Y156.464 I-0.044 J1.269
X347.658 Y157.659 I-0.527 J1.156
G1 X347.194 Y172.421
G3 X346.451 Y173.536 I-1.269 J-0.04
X345.969 Y173.65 I-0.527 J-1.156
G1 X344.445
X344.295 Y173.643
X344.146 Y173.628
X343.998 Y173.606
X343.851 Y173.577
X343.692 Y173.539
X343.526 Y173.492
X343.355 Y173.435
X343.171 Y173.366
X342.978 Y173.284
X342.784 Y173.191
X342.579 Y173.082
X342.364 Y172.956
X342.148 Y172.818
X341.929 Y172.663
X341.702 Y172.488
X341.47 Y172.294
X341.241 Y172.085
X341.013 Y171.859
X340.783 Y171.61
X340.552 Y171.34
X340.326 Y171.049
X340.106 Y170.743
X339.894 Y170.418
X339.688 Y170.071
X339.489 Y169.703
X339.299 Y169.314
X339.122 Y168.906
X338.959 Y168.484
X338.81 Y168.047
X338.678 Y167.596
X338.563 Y167.129
X338.465 Y166.648
X338.386 Y166.154
X338.326 Y165.648
X338.288 Y165.132
X338.271 Y164.609
X338.276 Y164.078
X338.303 Y163.543
X338.354 Y163.003
X338.428 Y162.462
X338.525 Y161.92
X338.645 Y161.383
X338.785 Y160.858
X338.944 Y160.352
X339.118 Y159.868
X339.304 Y159.411
X339.478 Y159.032
X339.67 Y158.655
X339.838 Y158.359
X340.022 Y158.061
X340.201 Y157.799
X340.371 Y157.57
X340.706 Y157.215
X341.09 Y156.913
X341.514 Y156.671
X341.97 Y156.494
X342.446 Y156.386
X342.934 Y156.35
X344.623
G3 X345.105 Y156.464 I-0.044 J1.269
X345.848 Y157.635 I-0.527 J1.156
G1 X345.671 Y172.396
G3 X344.445 Y173.65 I-1.27 J-0.015
G1 X343.037
X342.954 Y173.646
X342.804 Y173.637
X342.655 Y173.62
X342.507 Y173.595
X342.358 Y173.563
X342.202 Y173.522
X342.041 Y173.473
X341.865 Y173.412
X341.683 Y173.339
X341.497 Y173.255
X341.298 Y173.156
X341.092 Y173.042
X340.885 Y172.916
X340.67 Y172.772
X340.447 Y172.608
X340.222 Y172.429
X339.998 Y172.234
X339.768 Y172.016
X339.535 Y171.776
X339.304 Y171.517
X339.078 Y171.242
X338.854 Y170.944
X338.632 Y170.621
X338.415 Y170.276
X338.207 Y169.911
X338.01 Y169.529
X337.824 Y169.128
X337.648 Y168.704
X337.485 Y168.258
X337.336 Y167.791
X337.204 Y167.306
X337.09 Y166.806
X336.995 Y166.293
X336.921 Y165.767
X336.868 Y165.23
X336.837 Y164.68
X336.829 Y164.119
X336.844 Y163.552
X336.884 Y162.982
X336.948 Y162.414
X337.035 Y161.851
X337.144 Y161.306
X337.271 Y160.78
X337.413 Y160.287
X337.568 Y159.822
X337.732 Y159.392
X337.883 Y159.04
X338.054 Y158.683
X338.206 Y158.398
X338.372 Y158.116
X338.541 Y157.856
X338.7 Y157.632
X339.036 Y157.259
X339.424 Y156.942
X339.857 Y156.688
X340.322 Y156.502
X340.811 Y156.388
X341.311 Y156.35
X342.934
G3 X343.416 Y156.464 I-0.044 J1.269
X344.159 Y157.61 I-0.527 J1.156
G1 X344.262 Y172.372
G3 X343.519 Y173.536 I-1.27 J0.009
X343.037 Y173.65 I-0.527 J-1.156
G1 X341.59
X341.44 Y173.643
X341.291 Y173.627
X341.143 Y173.604
X340.996 Y173.575
X340.844 Y173.537
X340.68 Y173.489
X340.514 Y173.432
X340.335 Y173.363
X340.146 Y173.28
X339.955 Y173.187
X339.755 Y173.078
X339.543 Y172.952
X339.33 Y172.812
X339.114 Y172.657
X338.888 Y172.48
X338.657 Y172.283
X338.43 Y172.072
X338.2 Y171.84
X337.967 Y171.583
X337.732 Y171.303
X337.505 Y171.007
X337.282 Y170.689
X337.061 Y170.344
X336.845 Y169.974
X336.637 Y169.58
X336.441 Y169.169
X336.258 Y168.739
X336.087 Y168.285
X335.93 Y167.808
X335.789 Y167.308
X335.665 Y166.789
X335.56 Y166.251
X335.477 Y165.701
X335.416 Y165.139
X335.379 Y164.567
X335.365 Y163.988
X335.375 Y163.406
X335.41 Y162.825
X335.469 Y162.253
X335.549 Y161.7
X335.649 Y161.171
X335.766 Y160.669
X335.899 Y160.189
X336.045 Y159.735
X336.187 Y159.352
X336.336 Y158.997
X336.49 Y158.668
X336.631 Y158.398
X336.795 Y158.112
X336.951 Y157.866
X337.019 Y157.769
X337.303 Y157.414
X337.633 Y157.102
X338.002 Y156.838
X338.405 Y156.628
X338.832 Y156.474
X339.277 Y156.381
X339.73 Y156.35
X341.311
G3 X341.793 Y156.464 I-0.044 J1.269
X342.536 Y157.595 I-0.527 J1.156
G1 X342.815 Y172.357
G3 X342.072 Y173.536 I-1.27 J0.024
X341.59 Y173.65 I-0.527 J-1.156
G1 X340.255
X340.01 Y173.637
X339.861 Y173.62
X339.713 Y173.596
X339.566 Y173.565
X339.416 Y173.526
X339.254 Y173.477
X339.081 Y173.416
X338.904 Y173.346
X338.717 Y173.262
X338.518 Y173.163
X338.317 Y173.053
X338.11 Y172.926
X337.891 Y172.78
X337.669 Y172.618
X337.446 Y172.441
X337.215 Y172.24
X336.978 Y172.017
X336.745 Y171.778
X336.513 Y171.518
X336.277 Y171.232
X336.041 Y170.919
X335.812 Y170.587
X335.591 Y170.236
X335.374 Y169.857
X335.163 Y169.449
X334.96 Y169.015
X334.771 Y168.561
X334.598 Y168.089
X334.44 Y167.595
X334.298 Y167.078
X334.174 Y166.539
X334.07 Y165.983
X333.989 Y165.412
X333.931 Y164.832
X333.897 Y164.247
X333.888 Y163.662
X333.903 Y163.081
X333.942 Y162.507
X334.004 Y161.951
X334.086 Y161.415
X334.187 Y160.901
X334.302 Y160.421
X334.432 Y159.97
X334.562 Y159.577
X334.708 Y159.191
X334.845 Y158.871
X334.99 Y158.568
X335.141 Y158.285
X335.282 Y158.045
X335.445 Y157.791
X335.476 Y157.747
X335.76 Y157.398
X336.089 Y157.09
X336.457 Y156.831
X336.857 Y156.623
X337.282 Y156.472
X337.723 Y156.381
X338.172 Y156.35
X339.73
G3 X340.212 Y156.464 I-0.044 J1.269
X340.955 Y157.574 I-0.527 J1.156
G1 X341.48 Y172.336
G3 X340.737 Y173.536 I-1.269 J0.045
X340.255 Y173.65 I-0.527 J-1.156
G1 X338.846
X338.609 Y173.637
X338.46 Y173.62
X338.312 Y173.595
X338.165 Y173.563
X338.014 Y173.524
X337.848 Y173.473
X337.676 Y173.413
X337.498 Y173.342
X337.306 Y173.256
X337.108 Y173.157
X336.906 Y173.045
X336.692 Y172.914
X336.472 Y172.766
X336.252 Y172.605
X336.023 Y172.422
X335.786 Y172.216
X335.551 Y171.993
X335.315 Y171.75
X335.073 Y171.48
X334.831 Y171.183
X334.595 Y170.869
X334.364 Y170.533
X334.135 Y170.168
X333.91 Y169.774
X333.693 Y169.353
X333.49 Y168.915
X333.299 Y168.455
X333.121 Y167.967
X332.958 Y167.454
X332.812 Y166.92
X332.686 Y166.367
X332.582 Y165.8
X332.5 Y165.223
X332.443 Y164.64
X332.41 Y164.054
X332.402 Y163.47
X332.418 Y162.895
X332.457 Y162.336
X332.519 Y161.791
X332.6 Y161.269
X332.699 Y160.771
X332.812 Y160.305
X332.938 Y159.867
X333.062 Y159.494
X333.204 Y159.123
X333.336 Y158.816
X333.479 Y158.519
X333.625 Y158.245
X333.764 Y158.01
X333.924 Y157.762
X333.938 Y157.742
X334.223 Y157.394
X334.552 Y157.088
X334.919 Y156.829
X335.318 Y156.622
X335.742 Y156.472
X336.182 Y156.381
X336.631 Y156.35
X338.172
G3 X338.655 Y156.464 I-0.044 J1.269
X339.397 Y157.561 I-0.527 J1.156
G1 X340.07 Y172.323
G3 X338.846 Y173.65 I-1.269 J0.058
G1 X337.399
X337.25 Y173.643
X337.1 Y173.627
X336.952 Y173.604
X336.805 Y173.575
X336.65 Y173.536
X336.487 Y173.488
X336.319 Y173.431
X336.136 Y173.361
X335.946 Y173.278
X335.751 Y173.183
X335.544 Y173.071
X335.329 Y172.943
X335.113 Y172.802
X334.888 Y172.64
X334.652 Y172.456
X334.419 Y172.257
X334.181 Y172.037
X333.936 Y171.79
X333.69 Y171.52
X333.45 Y171.233
X333.209 Y170.92
X332.968 Y170.577
X332.729 Y170.205
X332.501 Y169.814
X332.282 Y169.401
X332.071 Y168.959
X331.87 Y168.488
X331.682 Y167.991
X331.511 Y167.473
X331.359 Y166.938
X331.228 Y166.389
X331.118 Y165.825
X331.03 Y165.25
X330.967 Y164.668
X330.927 Y164.082
X330.913 Y163.498
X330.923 Y162.922
X330.956 Y162.362
X331.011 Y161.824
X331.085 Y161.311
X331.177 Y160.82
X331.285 Y160.351
X331.407 Y159.913
X331.527 Y159.537
X331.662 Y159.173
X331.794 Y158.858
X331.927 Y158.572
X332.074 Y158.289
X332.209 Y158.054
X332.365 Y157.808
X332.39 Y157.771
X332.674 Y157.416
X333.004 Y157.104
X333.374 Y156.839
X333.777 Y156.628
X334.205 Y156.475
X334.65 Y156.381
X335.103 Y156.35
X336.631
G3 X337.855 Y157.553 I-0.044 J1.269
G1 X338.623 Y172.315
G3 X337.399 Y173.65 I-1.268 J0.066
G1 X335.97
X335.82 Y173.643
X335.671 Y173.626
X335.523 Y173.602
X335.376 Y173.572
X335.224 Y173.533
X335.056 Y173.484
X334.882 Y173.424
X334.701 Y173.353
X334.506 Y173.267
X334.306 Y173.169
X334.101 Y173.057
X333.882 Y172.925
X333.657 Y172.777
X333.431 Y172.614
X333.195 Y172.428
X332.951 Y172.219
X332.711 Y171.994
X332.467 Y171.746
X332.217 Y171.469
X331.966 Y171.168
X331.723 Y170.849
X331.48 Y170.501
X331.24 Y170.124
X331.004 Y169.717
X330.779 Y169.289
X330.568 Y168.842
X330.369 Y168.369
X330.182 Y167.869
X330.012 Y167.346
X329.859 Y166.802
X329.728 Y166.243
X329.618 Y165.671
X329.533 Y165.092
X329.471 Y164.51
X329.435 Y163.93
X329.423 Y163.354
X329.435 Y162.787
X329.469 Y162.237
X329.526 Y161.704
X329.601 Y161.193
X329.693 Y160.713
X329.799 Y160.262
X329.919 Y159.834
X330.036 Y159.476
X330.172 Y159.112
X330.297 Y158.816
X330.436 Y158.521
X330.577 Y158.253
X330.712 Y158.021
X330.868 Y157.775
X330.878 Y157.761
X331.162 Y157.408
X331.492 Y157.098
X331.861 Y156.836
X332.262 Y156.626
X332.689 Y156.474
X333.132 Y156.381
X333.584 Y156.35
X335.103
G3 X335.586 Y156.464 I-0.044 J1.269
X336.327 Y157.545 I-0.527 J1.156
G1 X337.193 Y172.306
G3 X336.452 Y173.536 I-1.268 J0.074
X335.97 Y173.65 I-0.527 J-1.156
G1 X334.54
X334.39 Y173.643
X334.241 Y173.626
X334.093 Y173.602
X333.946 Y173.571
X333.79 Y173.531
X333.621 Y173.481
X333.447 Y173.421
X333.262 Y173.348
X333.064 Y173.26
X332.864 Y173.162
X332.653 Y173.046
X332.431 Y172.912
X332.207 Y172.764
X331.976 Y172.597
X331.734 Y172.405
X331.49 Y172.195
X331.246 Y171.967
X330.996 Y171.712
X330.741 Y171.43
X330.491 Y171.128
X330.245 Y170.804
X329.998 Y170.45
X329.754 Y170.065
X329.517 Y169.654
X329.292 Y169.225
X329.078 Y168.771
X328.876 Y168.289
X328.687 Y167.782
X328.516 Y167.253
X328.364 Y166.706
X328.232 Y166.145
X328.124 Y165.574
X328.039 Y164.996
X327.979 Y164.415
X327.943 Y163.836
X327.932 Y163.264
X327.944 Y162.702
X327.98 Y162.16
X328.036 Y161.632
X328.111 Y161.13
X328.203 Y160.655
X328.308 Y160.211
X328.427 Y159.789
X328.542 Y159.438
X328.676 Y159.081
X328.799 Y158.79
X328.938 Y158.498
X329.077 Y158.234
X329.211 Y158.003
X329.368 Y157.757
X329.652 Y157.405
X329.982 Y157.096
X330.351 Y156.834
X330.752 Y156.625
X331.178 Y156.473
X331.62 Y156.381
X332.071 Y156.35
X333.584
G3 X334.807 Y157.537 I-0.044 J1.269
G1 X335.763 Y172.299
G3 X334.54 Y173.65 I-1.267 J0.082
G1 X333.132
X332.982 Y173.643
X332.833 Y173.627
X332.684 Y173.604
X332.537 Y173.575
X332.379 Y173.536
X332.212 Y173.488
X332.039 Y173.43
X331.85 Y173.357
X331.656 Y173.273
X331.455 Y173.176
X331.24 Y173.061
X331.021 Y172.931
X330.797 Y172.785
X330.561 Y172.617
X330.318 Y172.428
X330.077 Y172.224
X329.828 Y171.995
X329.573 Y171.738
X329.32 Y171.462
X329.07 Y171.165
X328.817 Y170.838
X328.563 Y170.48
X328.317 Y170.098
X328.081 Y169.698
X327.852 Y169.269
X327.632 Y168.81
X327.424 Y168.326
X327.23 Y167.818
X327.054 Y167.29
X326.899 Y166.748
X326.764 Y166.192
X326.651 Y165.624
X326.562 Y165.048
X326.497 Y164.468
X326.457 Y163.888
X326.441 Y163.315
X326.449 Y162.754
X326.48 Y162.213
X326.532 Y161.69
X326.602 Y161.19
X326.691 Y160.711
X326.793 Y160.262
X326.909 Y159.839
X327.022 Y159.485
X327.153 Y159.127
X327.276 Y158.829
X327.409 Y158.543
X327.549 Y158.271
X327.681 Y158.041
X327.834 Y157.798
X327.847 Y157.779
X328.131 Y157.422
X328.461 Y157.108
X328.831 Y156.842
X329.235 Y156.63
X329.664 Y156.475
X330.11 Y156.382
X330.565 Y156.35
X332.071
G3 X332.554 Y156.464 I-0.044 J1.269
X333.294 Y157.528 I-0.527 J1.156
G1 X334.354 Y172.29
G3 X333.614 Y173.536 I-1.267 J0.091
X333.132 Y173.65 I-0.527 J-1.156
G1 X331.685
X331.535 Y173.643
X331.386 Y173.627
X331.238 Y173.604
X331.091 Y173.575
X330.933 Y173.536
X330.762 Y173.486
X330.588 Y173.428
X330.4 Y173.356
X330.201 Y173.27
X330 Y173.172
X329.786 Y173.057
X329.561 Y172.924
X329.335 Y172.778
X329.099 Y172.609
X328.853 Y172.418
X328.608 Y172.211
X328.36 Y171.982
X328.104 Y171.725
X327.844 Y171.442
X327.591 Y171.142
X327.338 Y170.814
X327.084 Y170.456
X326.833 Y170.068
X326.593 Y169.659
X326.364 Y169.23
X326.144 Y168.772
X325.936 Y168.288
X325.743 Y167.78
X325.566 Y167.251
X325.409 Y166.704
X325.273 Y166.143
X325.16 Y165.574
X325.071 Y164.999
X325.006 Y164.422
X324.966 Y163.846
X324.951 Y163.278
X324.959 Y162.72
X324.989 Y162.18
X325.041 Y161.657
X325.111 Y161.157
X325.198 Y160.686
X325.299 Y160.243
X325.414 Y159.824
X325.526 Y159.473
X325.656 Y159.116
X325.777 Y158.824
X325.912 Y158.533
X326.05 Y158.267
X326.181 Y158.037
X326.335 Y157.793
X326.344 Y157.779
X326.628 Y157.422
X326.958 Y157.108
X327.329 Y156.842
X327.732 Y156.63
X328.161 Y156.475
X328.607 Y156.382
X329.062 Y156.35
X330.565
G3 X331.787 Y157.523 I-0.044 J1.269
G1 X332.907 Y172.285
G3 X331.685 Y173.65 I-1.266 J0.096
G1 X330.255
X330.106 Y173.643
X329.956 Y173.628
X329.808 Y173.607
X329.66 Y173.578
X329.502 Y173.541
X329.334 Y173.493
X329.16 Y173.436
X328.97 Y173.365
X328.775 Y173.282
X328.573 Y173.186
X328.356 Y173.072
X328.134 Y172.943
X327.908 Y172.798
X327.668 Y172.63
X327.423 Y172.442
X327.179 Y172.239
X326.927 Y172.009
X326.667 Y171.753
X326.411 Y171.477
X326.157 Y171.18
X325.899 Y170.852
X325.642 Y170.493
X325.391 Y170.111
X325.151 Y169.71
X324.917 Y169.28
X324.693 Y168.821
X324.48 Y168.336
X324.283 Y167.828
X324.103 Y167.301
X323.943 Y166.759
X323.804 Y166.204
X323.687 Y165.638
X323.594 Y165.064
X323.525 Y164.486
X323.481 Y163.909
X323.461 Y163.34
X323.465 Y162.781
X323.491 Y162.244
X323.539 Y161.722
X323.606 Y161.223
X323.69 Y160.747
X323.789 Y160.299
X323.901 Y159.877
X324.011 Y159.523
X324.14 Y159.164
X324.261 Y158.864
X324.392 Y158.578
X324.53 Y158.304
X324.66 Y158.074
X324.811 Y157.829
X324.832 Y157.799
X325.115 Y157.437
X325.446 Y157.119
X325.818 Y156.849
X326.224 Y156.634
X326.656 Y156.477
X327.105 Y156.382
X327.564 Y156.35
X329.062
G3 X330.284 Y157.517 I-0.044 J1.269
G1 X331.477 Y172.278
G3 X330.255 Y173.65 I-1.266 J0.102
G1 X328.826
X328.739 Y173.646
X328.589 Y173.637
X328.44 Y173.62
X328.292 Y173.596
X328.138 Y173.563
X327.98 Y173.523
X327.807 Y173.471
X327.624 Y173.408
X327.436 Y173.335
X327.234 Y173.245
X327.024 Y173.141
X326.81 Y173.024
X326.581 Y172.886
X326.345 Y172.731
X326.109 Y172.56
X325.862 Y172.365
X325.607 Y172.145
X325.355 Y171.909
X325.1 Y171.649
X324.838 Y171.359
X324.576 Y171.042
X324.321 Y170.707
X324.069 Y170.345
X323.819 Y169.953
X323.576 Y169.531
X323.342 Y169.084
X323.122 Y168.617
X322.918 Y168.131
X322.728 Y167.621
X322.556 Y167.089
X322.402 Y166.54
X322.271 Y165.977
X322.162 Y165.406
X322.078 Y164.83
X322.018 Y164.254
X321.982 Y163.68
X321.971 Y163.114
X321.984 Y162.558
X322.018 Y162.023
X322.073 Y161.513
X322.145 Y161.031
X322.234 Y160.57
X322.337 Y160.131
X322.449 Y159.734
X322.564 Y159.382
X322.692 Y159.042
X322.811 Y158.762
X322.95 Y158.467
X323.082 Y158.216
X323.218 Y157.983
X323.37 Y157.745
X323.652 Y157.396
X323.978 Y157.089
X324.344 Y156.83
X324.741 Y156.623
X325.163 Y156.472
X325.602 Y156.381
X326.049 Y156.35
X327.564
G3 X328.046 Y156.464 I-0.044 J1.269
X328.785 Y157.511 I-0.527 J1.156
G1 X330.047 Y172.273
G3 X329.308 Y173.536 I-1.265 J0.108
X328.826 Y173.65 I-0.527 J-1.156
G1 X327.302
X327.152 Y173.643
X327.003 Y173.627
X326.855 Y173.604
X326.706 Y173.574
X326.542 Y173.533
X326.373 Y173.484
X326.194 Y173.424
X326 Y173.349
X325.803 Y173.264
X325.594 Y173.163
X325.372 Y173.044
X325.15 Y172.912
X324.918 Y172.761
X324.673 Y172.587
X324.428 Y172.396
X324.179 Y172.185
X323.921 Y171.947
X323.659 Y171.684
X323.402 Y171.403
X323.143 Y171.096
X322.883 Y170.759
X322.624 Y170.393
X322.374 Y170.007
X322.134 Y169.598
X321.9 Y169.159
X321.677 Y168.693
X321.466 Y168.201
X321.27 Y167.688
X321.093 Y167.157
X320.937 Y166.611
X320.802 Y166.053
X320.689 Y165.483
X320.6 Y164.908
X320.536 Y164.331
X320.496 Y163.758
X320.481 Y163.193
X320.489 Y162.642
X320.519 Y162.11
X320.57 Y161.596
X320.64 Y161.105
X320.726 Y160.637
X320.827 Y160.199
X320.94 Y159.784
X321.05 Y159.439
X321.179 Y159.087
X321.3 Y158.796
X321.432 Y158.511
X321.569 Y158.245
X321.699 Y158.018
X321.851 Y157.777
X322.135 Y157.42
X322.465 Y157.107
X322.835 Y156.841
X323.238 Y156.629
X323.666 Y156.475
X324.112 Y156.381
X324.566 Y156.35
X326.049
G3 X326.531 Y156.464 I-0.044 J1.269
X327.27 Y157.512 I-0.527 J1.156
G1 X328.523 Y172.273
G3 X327.784 Y173.536 I-1.265 J0.107
X327.302 Y173.65 I-0.527 J-1.156
G1 X325.893
X325.654 Y173.637
X325.505 Y173.62
X325.357 Y173.596
X325.207 Y173.565
X325.045 Y173.524
X324.87 Y173.472
X324.691 Y173.411
X324.498 Y173.335
X324.294 Y173.246
X324.088 Y173.144
X323.867 Y173.024
X323.636 Y172.886
X323.405 Y172.734
X323.163 Y172.559
X322.911 Y172.361
X322.661 Y172.147
X322.407 Y171.91
X322.145 Y171.644
X321.881 Y171.353
X321.623 Y171.043
X321.366 Y170.706
X321.108 Y170.338
X320.855 Y169.94
X320.611 Y169.52
X320.38 Y169.081
X320.159 Y168.615
X319.951 Y168.124
X319.759 Y167.609
X319.584 Y167.074
X319.429 Y166.524
X319.296 Y165.961
X319.187 Y165.391
X319.101 Y164.817
X319.04 Y164.243
X319.004 Y163.673
X318.992 Y163.11
X319.003 Y162.558
X319.036 Y162.025
X319.09 Y161.511
X319.161 Y161.026
X319.249 Y160.568
X319.351 Y160.133
X319.463 Y159.73
X319.575 Y159.386
X319.703 Y159.043
X319.821 Y158.763
X319.958 Y158.472
X320.091 Y158.218
X320.223 Y157.989
X320.294 Y157.879
X320.576 Y157.499
X320.909 Y157.163
X321.287 Y156.879
X321.701 Y156.651
X322.144 Y156.485
X322.606 Y156.384
X323.078 Y156.35
X324.566
G3 X325.787 Y157.506 I-0.044 J1.269
G1 X327.114 Y172.267
G3 X325.893 Y173.65 I-1.265 J0.114
G1 X324.369
X324.22 Y173.643
X324.07 Y173.627
X323.922 Y173.605
X323.773 Y173.576
X323.609 Y173.536
X323.442 Y173.489
X323.261 Y173.429
X323.067 Y173.355
X322.871 Y173.271
X322.661 Y173.171
X322.44 Y173.053
X322.218 Y172.923
X321.983 Y172.772
X321.738 Y172.599
X321.494 Y172.411
X321.242 Y172.2
X320.982 Y171.962
X320.72 Y171.702
X320.463 Y171.424
X320.202 Y171.117
X319.939 Y170.779
X319.679 Y170.415
X319.429 Y170.032
X319.186 Y169.622
X318.949 Y169.183
X318.722 Y168.717
X318.509 Y168.225
X318.311 Y167.713
X318.133 Y167.185
X317.974 Y166.642
X317.837 Y166.085
X317.722 Y165.518
X317.63 Y164.943
X317.563 Y164.366
X317.52 Y163.792
X317.502 Y163.226
X317.508 Y162.673
X317.536 Y162.142
X317.584 Y161.628
X317.651 Y161.138
X317.736 Y160.668
X317.835 Y160.228
X317.94 Y159.836
X318.057 Y159.464
X318.179 Y159.126
X318.297 Y158.838
X318.435 Y158.537
X318.563 Y158.286
X318.7 Y158.045
X318.849 Y157.804
X318.858 Y157.791
X319.142 Y157.431
X319.473 Y157.114
X319.844 Y156.846
X320.249 Y156.632
X320.68 Y156.477
X321.128 Y156.382
X321.585 Y156.35
X323.078
G3 X323.56 Y156.464 I-0.044 J1.269
X324.299 Y157.509 I-0.527 J1.156
G1 X325.59 Y172.27
G3 X324.852 Y173.536 I-1.265 J0.111
X324.369 Y173.65 I-0.527 J-1.156
G1 X322.923
X322.843 Y173.646
X322.693 Y173.637
X322.544 Y173.619
X322.396 Y173.595
X322.243 Y173.563
X322.082 Y173.522
X321.904 Y173.469
X321.722 Y173.406
X321.53 Y173.331
X321.324 Y173.239
X321.115 Y173.136
X320.895 Y173.016
X320.661 Y172.875
X320.427 Y172.719
X320.186 Y172.545
X319.933 Y172.345
X319.677 Y172.125
X319.424 Y171.887
X319.163 Y171.621
X318.896 Y171.326
X318.633 Y171.009
X318.377 Y170.671
X318.12 Y170.302
X317.867 Y169.904
X317.621 Y169.478
X317.387 Y169.03
X317.168 Y168.564
X316.962 Y168.073
X316.77 Y167.558
X316.597 Y167.023
X316.443 Y166.472
X316.312 Y165.908
X316.203 Y165.337
X316.119 Y164.762
X316.059 Y164.188
X316.024 Y163.618
X316.013 Y163.055
X316.026 Y162.507
X316.06 Y161.975
X316.114 Y161.471
X316.186 Y160.993
X316.274 Y160.537
X316.377 Y160.103
X316.487 Y159.71
X316.601 Y159.362
X316.727 Y159.026
X316.845 Y158.748
X316.984 Y158.456
X317.115 Y158.206
X317.25 Y157.975
X317.315 Y157.872
X317.598 Y157.494
X317.931 Y157.16
X318.308 Y156.876
X318.722 Y156.65
X319.164 Y156.484
X319.625 Y156.384
X320.096 Y156.35
X321.585
G3 X322.067 Y156.464 I-0.044 J1.269
X322.805 Y157.505 I-0.527 J1.156
G1 X324.143 Y172.266
G3 X323.405 Y173.536 I-1.265 J0.115
X322.923 Y173.65 I-0.527 J-1.156
G1 X321.399
X321.249 Y173.643
X321.1 Y173.627
X320.952 Y173.604
X320.8 Y173.574
X320.635 Y173.533
X320.466 Y173.484
X320.284 Y173.423
X320.089 Y173.348
X319.891 Y173.263
X319.679 Y173.16
X319.456 Y173.041
X319.232 Y172.909
X318.996 Y172.756
X318.749 Y172.58
X318.504 Y172.39
X318.251 Y172.176
X317.989 Y171.934
X317.726 Y171.671
X317.468 Y171.39
X317.206 Y171.079
X316.942 Y170.738
X316.682 Y170.371
X316.432 Y169.985
X316.188 Y169.572
X315.952 Y169.13
X315.726 Y168.661
X315.514 Y168.167
X315.317 Y167.652
X315.14 Y167.121
X314.983 Y166.575
X314.847 Y166.017
X314.734 Y165.448
X314.645 Y164.873
X314.58 Y164.298
X314.54 Y163.727
X314.524 Y163.164
X314.531 Y162.616
X314.561 Y162.087
X314.611 Y161.576
X314.68 Y161.089
X314.765 Y160.623
X314.864 Y160.187
X314.97 Y159.801
X315.088 Y159.429
X315.209 Y159.097
X315.328 Y158.81
X315.466 Y158.511
X315.594 Y158.264
X315.732 Y158.021
X315.883 Y157.781
X316.167 Y157.424
X316.497 Y157.109
X316.868 Y156.843
X317.272 Y156.63
X317.701 Y156.476
X318.148 Y156.382
X318.603 Y156.35
X320.096
G3 X321.316 Y157.508 I-0.044 J1.269
G1 X322.62 Y172.269
G3 X321.399 Y173.65 I-1.265 J0.112
G1 X319.969
X319.885 Y173.646
X319.735 Y173.637
X319.586 Y173.62
X319.438 Y173.595
X319.287 Y173.564
X319.123 Y173.523
X318.946 Y173.47
X318.766 Y173.408
X318.571 Y173.332
X318.366 Y173.242
X318.158 Y173.139
X317.935 Y173.018
X317.702 Y172.878
X317.469 Y172.725
X317.225 Y172.549
X316.971 Y172.349
X316.719 Y172.133
X316.463 Y171.894
X316.199 Y171.626
X315.933 Y171.331
X315.673 Y171.019
X315.414 Y170.679
X315.155 Y170.308
X314.9 Y169.908
X314.654 Y169.485
X314.422 Y169.043
X314.201 Y168.576
X313.993 Y168.082
X313.8 Y167.566
X313.625 Y167.03
X313.471 Y166.479
X313.338 Y165.916
X313.229 Y165.346
X313.144 Y164.773
X313.083 Y164.2
X313.047 Y163.631
X313.035 Y163.071
X313.047 Y162.524
X313.08 Y161.993
X313.133 Y161.485
X313.204 Y161.005
X313.291 Y160.552
X313.393 Y160.118
X313.505 Y159.719
X313.616 Y159.376
X313.743 Y159.036
X313.861 Y158.757
X313.998 Y158.466
X314.13 Y158.214
X314.263 Y157.985
X314.331 Y157.877
X314.613 Y157.498
X314.947 Y157.162
X315.324 Y156.878
X315.739 Y156.651
X316.181 Y156.485
X316.643 Y156.384
X317.115 Y156.35
X318.603
G3 X319.823 Y157.502 I-0.044 J1.269
G1 X321.19 Y172.264
G3 X319.969 Y173.65 I-1.265 J0.117
G1 X318.445
X318.296 Y173.643
X318.146 Y173.627
X317.998 Y173.605
X317.847 Y173.576
X317.683 Y173.536
X317.515 Y173.488
X317.332 Y173.428
X317.138 Y173.354
X316.941 Y173.27
X316.729 Y173.169
X316.507 Y173.051
X316.284 Y172.92
X316.047 Y172.768
X315.801 Y172.594
X315.556 Y172.406
X315.302 Y172.193
X315.04 Y171.953
X314.778 Y171.693
X314.519 Y171.414
X314.256 Y171.104
X313.991 Y170.764
X313.73 Y170.4
X313.48 Y170.017
X313.235 Y169.605
X312.997 Y169.163
X312.769 Y168.695
X312.555 Y168.202
X312.357 Y167.69
X312.178 Y167.162
X312.019 Y166.618
X311.882 Y166.062
X311.766 Y165.494
X311.675 Y164.92
X311.607 Y164.344
X311.565 Y163.772
X311.547 Y163.209
X311.552 Y162.658
X311.579 Y162.129
X311.628 Y161.618
X311.694 Y161.13
X311.778 Y160.662
X311.876 Y160.223
X311.981 Y159.832
X312.098 Y159.461
X312.219 Y159.124
X312.336 Y158.837
X312.474 Y158.536
X312.602 Y158.285
X312.738 Y158.045
X312.888 Y157.804
X312.896 Y157.792
X313.18 Y157.432
X313.511 Y157.115
X313.882 Y156.847
X314.287 Y156.633
X314.718 Y156.477
X315.166 Y156.382
X315.623 Y156.35
X317.115
G3 X318.335 Y157.505 I-0.044 J1.269
G1 X319.666 Y172.267
G3 X318.928 Y173.536 I-1.265 J0.114
X318.445 Y173.65 I-0.527 J-1.156
G1 X317.016
X316.774 Y173.637
X316.625 Y173.62
X316.477 Y173.596
X316.325 Y173.565
X316.163 Y173.525
X315.986 Y173.472
X315.805 Y173.411
X315.612 Y173.336
X315.405 Y173.246
X315.197 Y173.144
X314.976 Y173.024
X314.742 Y172.884
X314.509 Y172.731
X314.266 Y172.557
X314.012 Y172.358
X313.758 Y172.141
X313.503 Y171.904
X313.239 Y171.637
X312.971 Y171.343
X312.71 Y171.03
X312.451 Y170.692
X312.192 Y170.323
X311.937 Y169.925
X311.69 Y169.501
X311.456 Y169.058
X311.235 Y168.593
X311.026 Y168.102
X310.833 Y167.587
X310.657 Y167.052
X310.501 Y166.502
X310.367 Y165.939
X310.257 Y165.37
X310.17 Y164.797
X310.108 Y164.224
X310.071 Y163.655
X310.058 Y163.093
X310.068 Y162.546
X310.1 Y162.014
X310.153 Y161.506
X310.222 Y161.026
X310.308 Y160.571
X310.409 Y160.137
X310.52 Y159.738
X310.632 Y159.392
X310.758 Y159.051
X310.875 Y158.772
X311.012 Y158.479
X311.144 Y158.227
X311.277 Y157.997
X311.429 Y157.757
X311.71 Y157.406
X312.038 Y157.096
X312.405 Y156.834
X312.804 Y156.625
X313.228 Y156.473
X313.669 Y156.381
X314.119 Y156.35
X315.623
G3 X316.106 Y156.464 I-0.044 J1.269
X316.843 Y157.5 I-0.527 J1.156
G1 X318.236 Y172.261
G3 X317.498 Y173.536 I-1.264 J0.119
X317.016 Y173.65 I-0.527 J-1.156
G1 X315.492
X315.342 Y173.643
X315.193 Y173.628
X315.044 Y173.607
X314.894 Y173.578
X314.731 Y173.54
X314.565 Y173.493
X314.382 Y173.434
X314.19 Y173.363
X313.993 Y173.28
X313.781 Y173.18
X313.561 Y173.064
X313.339 Y172.936
X313.102 Y172.785
X312.857 Y172.614
X312.613 Y172.428
X312.358 Y172.217
X312.096 Y171.979
X311.835 Y171.724
X311.576 Y171.446
X311.312 Y171.139
X311.045 Y170.801
X310.786 Y170.442
X310.535 Y170.062
X310.288 Y169.652
X310.048 Y169.212
X309.818 Y168.746
X309.602 Y168.256
X309.403 Y167.748
X309.222 Y167.223
X309.061 Y166.683
X308.921 Y166.127
X308.802 Y165.56
X308.708 Y164.986
X308.637 Y164.41
X308.592 Y163.837
X308.571 Y163.271
X308.573 Y162.718
X308.598 Y162.187
X308.643 Y161.675
X308.708 Y161.186
X308.79 Y160.715
X308.886 Y160.272
X308.996 Y159.855
X309.104 Y159.504
X309.229 Y159.151
X309.35 Y158.851
X309.476 Y158.572
X309.614 Y158.298
X309.742 Y158.068
X309.891 Y157.827
X309.905 Y157.806
X310.189 Y157.443
X310.52 Y157.123
X310.892 Y156.852
X311.299 Y156.636
X311.732 Y156.478
X312.182 Y156.382
X312.642 Y156.35
X314.119
G3 X314.601 Y156.464 I-0.044 J1.269
X315.339 Y157.502 I-0.527 J1.156
G1 X316.712 Y172.263
G3 X315.974 Y173.536 I-1.265 J0.118
X315.492 Y173.65 I-0.527 J-1.156
G1 X313.968
X313.818 Y173.643
X313.669 Y173.626
X313.521 Y173.603
X313.369 Y173.572
X313.207 Y173.532
X313.03 Y173.481
X312.849 Y173.42
X312.657 Y173.346
X312.45 Y173.256
X312.241 Y173.154
X312.021 Y173.036
X311.787 Y172.897
X311.552 Y172.744
X311.311 Y172.572
X311.057 Y172.374
X310.801 Y172.157
X310.546 Y171.921
X310.283 Y171.657
X310.015 Y171.364
X309.751 Y171.05
X309.493 Y170.714
X309.234 Y170.348
X308.979 Y169.953
X308.731 Y169.529
X308.495 Y169.085
X308.273 Y168.622
X308.063 Y168.133
X307.869 Y167.62
X307.692 Y167.087
X307.534 Y166.537
X307.399 Y165.975
X307.287 Y165.405
X307.199 Y164.832
X307.135 Y164.259
X307.096 Y163.689
X307.081 Y163.127
X307.09 Y162.575
X307.121 Y162.042
X307.172 Y161.532
X307.24 Y161.052
X307.325 Y160.593
X307.425 Y160.157
X307.535 Y159.758
X307.646 Y159.411
X307.772 Y159.069
X307.888 Y158.788
X308.025 Y158.495
X308.156 Y158.241
X308.288 Y158.011
X308.439 Y157.771
X308.722 Y157.416
X309.051 Y157.103
X309.42 Y156.839
X309.822 Y156.628
X310.249 Y156.475
X310.693 Y156.381
X311.146 Y156.35
X312.642
G3 X313.862 Y157.506 I-0.044 J1.269
G1 X315.189 Y172.267
G3 X313.968 Y173.65 I-1.265 J0.114
G1 X312.56
X312.315 Y173.637
X312.166 Y173.62
X312.018 Y173.596
X311.868 Y173.566
X311.703 Y173.525
X311.529 Y173.473
X311.349 Y173.412
X311.152 Y173.336
X310.949 Y173.247
X310.74 Y173.145
X310.515 Y173.023
X310.286 Y172.886
X310.052 Y172.734
X309.806 Y172.557
X309.553 Y172.359
X309.301 Y172.144
X309.042 Y171.904
X308.776 Y171.635
X308.512 Y171.345
X308.252 Y171.035
X307.991 Y170.695
X307.731 Y170.324
X307.475 Y169.926
X307.231 Y169.508
X306.998 Y169.067
X306.775 Y168.598
X306.564 Y168.104
X306.37 Y167.588
X306.194 Y167.053
X306.037 Y166.502
X305.903 Y165.939
X305.792 Y165.369
X305.705 Y164.795
X305.643 Y164.223
X305.605 Y163.655
X305.592 Y163.095
X305.602 Y162.547
X305.633 Y162.018
X305.686 Y161.507
X305.755 Y161.025
X305.841 Y160.569
X305.941 Y160.138
X306.053 Y159.734
X306.163 Y159.393
X306.29 Y159.049
X306.407 Y158.769
X306.543 Y158.479
X306.676 Y158.224
X306.807 Y157.996
X306.958 Y157.757
X307.24 Y157.405
X307.567 Y157.096
X307.933 Y156.834
X308.332 Y156.625
X308.756 Y156.473
X309.196 Y156.381
X309.646 Y156.35
X311.146
G3 X311.628 Y156.464 I-0.044 J1.269
X312.366 Y157.498 I-0.527 J1.156
G1 X313.779 Y172.26
G3 X313.042 Y173.536 I-1.264 J0.121
X312.56 Y173.65 I-0.527 J-1.156
G1 X311.036
X310.886 Y173.643
X310.737 Y173.629
X310.588 Y173.607
X310.438 Y173.579
X310.275 Y173.541
X310.109 Y173.495
X309.926 Y173.436
X309.734 Y173.364
X309.538 Y173.282
X309.326 Y173.182
X309.106 Y173.068
X308.884 Y172.939
X308.647 Y172.789
X308.402 Y172.619
X308.158 Y172.433
X307.903 Y172.223
X307.641 Y171.986
X307.381 Y171.732
X307.121 Y171.455
X306.857 Y171.148
X306.59 Y170.81
X306.33 Y170.452
X306.079 Y170.072
X305.831 Y169.662
X305.59 Y169.223
X305.36 Y168.756
X305.143 Y168.267
X304.943 Y167.76
X304.762 Y167.235
X304.6 Y166.695
X304.459 Y166.139
X304.34 Y165.572
X304.244 Y164.999
X304.173 Y164.423
X304.127 Y163.849
X304.105 Y163.283
X304.107 Y162.729
X304.131 Y162.196
X304.176 Y161.684
X304.239 Y161.195
X304.321 Y160.724
X304.417 Y160.28
X304.526 Y159.862
X304.634 Y159.51
X304.758 Y159.157
X304.879 Y158.857
X305.005 Y158.578
X305.143 Y158.303
X305.27 Y158.073
X305.418 Y157.833
X305.433 Y157.81
X305.717 Y157.446
X306.048 Y157.125
X306.421 Y156.853
X306.828 Y156.636
X307.261 Y156.478
X307.712 Y156.382
X308.172 Y156.35
X309.646
G3 X310.128 Y156.464 I-0.044 J1.269
X310.866 Y157.5 I-0.527 J1.156
G1 X312.256 Y172.262
G3 X311.036 Y173.65 I-1.264 J0.119
G1 X309.512
X309.362 Y173.643
X309.213 Y173.627
X309.065 Y173.604
X308.912 Y173.573
X308.751 Y173.534
X308.575 Y173.482
X308.394 Y173.422
X308.202 Y173.348
X307.996 Y173.259
X307.787 Y173.158
X307.567 Y173.04
X307.333 Y172.902
X307.099 Y172.75
X306.858 Y172.578
X306.604 Y172.382
X306.348 Y172.165
X306.093 Y171.93
X305.83 Y171.666
X305.561 Y171.374
X305.297 Y171.061
X305.039 Y170.726
X304.78 Y170.361
X304.524 Y169.966
X304.275 Y169.543
X304.038 Y169.1
X303.816 Y168.637
X303.606 Y168.149
X303.41 Y167.637
X303.232 Y167.104
X303.074 Y166.554
X302.938 Y165.992
X302.824 Y165.423
X302.735 Y164.849
X302.671 Y164.276
X302.631 Y163.706
X302.615 Y163.143
X302.623 Y162.591
X302.652 Y162.057
X302.703 Y161.546
X302.771 Y161.065
X302.855 Y160.606
X302.954 Y160.17
X303.063 Y159.77
X303.174 Y159.422
X303.299 Y159.079
X303.416 Y158.798
X303.552 Y158.504
X303.683 Y158.25
X303.815 Y158.019
X303.966 Y157.779
X304.249 Y157.422
X304.579 Y157.108
X304.949 Y156.842
X305.352 Y156.63
X305.781 Y156.475
X306.227 Y156.382
X306.682 Y156.35
X308.172
G3 X308.655 Y156.464 I-0.044 J1.269
X309.393 Y157.504 I-0.527 J1.156
G1 X310.732 Y172.266
G3 X309.994 Y173.536 I-1.265 J0.115
X309.512 Y173.65 I-0.527 J-1.156
G1 X308.065
X307.988 Y173.646
X307.839 Y173.637
X307.69 Y173.619
X307.542 Y173.595
X307.39 Y173.563
X307.225 Y173.521
X307.048 Y173.468
X306.867 Y173.406
X306.67 Y173.329
X306.463 Y173.237
X306.254 Y173.134
X306.03 Y173.011
X305.797 Y172.87
X305.563 Y172.716
X305.317 Y172.538
X305.062 Y172.336
X304.808 Y172.118
X304.55 Y171.876
X304.285 Y171.606
X304.018 Y171.31
X303.758 Y170.996
X303.498 Y170.655
X303.24 Y170.283
X302.984 Y169.882
X302.738 Y169.456
X302.506 Y169.011
X302.285 Y168.542
X302.077 Y168.047
X301.885 Y167.53
X301.711 Y166.993
X301.557 Y166.441
X301.425 Y165.877
X301.316 Y165.306
X301.232 Y164.731
X301.172 Y164.158
X301.137 Y163.59
X301.126 Y163.029
X301.138 Y162.482
X301.172 Y161.953
X301.226 Y161.448
X301.297 Y160.972
X301.385 Y160.519
X301.487 Y160.088
X301.598 Y159.695
X301.71 Y159.352
X301.836 Y159.016
X301.953 Y158.74
X302.09 Y158.45
X302.222 Y158.2
X302.355 Y157.971
X302.418 Y157.873
X302.7 Y157.494
X303.033 Y157.16
X303.41 Y156.876
X303.824 Y156.65
X304.266 Y156.484
X304.728 Y156.384
X305.198 Y156.35
X306.682
G3 X307.164 Y156.464 I-0.044 J1.269
X307.902 Y157.501 I-0.527 J1.156
G1 X309.285 Y172.262
G3 X308.548 Y173.536 I-1.264 J0.119
X308.065 Y173.65 I-0.527 J-1.156
G1 X306.541
X306.392 Y173.643
X306.242 Y173.627
X306.094 Y173.604
X305.942 Y173.574
X305.776 Y173.534
X305.607 Y173.485
X305.423 Y173.423
X305.228 Y173.349
X305.029 Y173.263
X304.815 Y173.16
X304.593 Y173.041
X304.368 Y172.909
X304.13 Y172.755
X303.883 Y172.579
X303.637 Y172.389
X303.382 Y172.174
X303.118 Y171.931
X302.856 Y171.669
X302.596 Y171.387
X302.333 Y171.075
X302.067 Y170.733
X301.806 Y170.365
X301.556 Y169.979
X301.311 Y169.565
X301.073 Y169.121
X300.846 Y168.65
X300.632 Y168.155
X300.435 Y167.64
X300.257 Y167.109
X300.099 Y166.564
X299.963 Y166.005
X299.849 Y165.437
X299.759 Y164.862
X299.694 Y164.286
X299.653 Y163.716
X299.637 Y163.154
X299.643 Y162.606
X299.672 Y162.079
X299.722 Y161.569
X299.79 Y161.083
X299.875 Y160.619
X299.973 Y160.184
X300.077 Y159.799
X300.195 Y159.428
X300.316 Y159.097
X300.433 Y158.811
X300.571 Y158.513
X300.698 Y158.266
X300.836 Y158.024
X300.986 Y157.784
X301.27 Y157.426
X301.601 Y157.11
X301.972 Y156.844
X302.376 Y156.631
X302.805 Y156.476
X303.252 Y156.382
X303.708 Y156.35
X305.198
G3 X305.681 Y156.464 I-0.044 J1.269
X306.419 Y157.504 I-0.527 J1.156
G1 X307.762 Y172.266
G3 X306.541 Y173.65 I-1.265 J0.115
G1 X305.112
X305.023 Y173.646
X304.873 Y173.637
X304.724 Y173.62
X304.576 Y173.596
X304.425 Y173.565
X304.261 Y173.524
X304.084 Y173.471
X303.903 Y173.41
X303.708 Y173.334
X303.502 Y173.244
X303.294 Y173.141
X303.07 Y173.02
X302.837 Y172.881
X302.604 Y172.727
X302.359 Y172.551
X302.104 Y172.351
X301.852 Y172.136
X301.595 Y171.896
X301.329 Y171.628
X301.062 Y171.333
X300.802 Y171.021
X300.541 Y170.681
X300.281 Y170.309
X300.025 Y169.909
X299.779 Y169.486
X299.546 Y169.044
X299.323 Y168.576
X299.114 Y168.082
X298.92 Y167.566
X298.744 Y167.03
X298.589 Y166.479
X298.455 Y165.916
X298.345 Y165.346
X298.259 Y164.773
X298.198 Y164.201
X298.161 Y163.633
X298.148 Y163.072
X298.158 Y162.527
X298.191 Y161.996
X298.243 Y161.489
X298.314 Y161.01
X298.399 Y160.557
X298.5 Y160.124
X298.611 Y159.725
X298.722 Y159.382
X298.849 Y159.042
X298.966 Y158.763
X299.102 Y158.473
X299.234 Y158.22
X299.367 Y157.991
X299.436 Y157.882
X299.718 Y157.501
X300.051 Y157.165
X300.429 Y156.88
X300.844 Y156.652
X301.287 Y156.485
X301.75 Y156.384
X302.222 Y156.35
X303.708
G3 X304.928 Y157.499 I-0.044 J1.269
G1 X306.332 Y172.261
G3 X305.112 Y173.65 I-1.264 J0.12
G1 X303.588
X303.438 Y173.643
X303.289 Y173.628
X303.14 Y173.607
X302.99 Y173.578
X302.826 Y173.539
X302.659 Y173.492
X302.476 Y173.432
X302.283 Y173.36
X302.086 Y173.277
X301.873 Y173.176
X301.653 Y173.06
X301.43 Y172.931
X301.192 Y172.779
X300.946 Y172.608
X300.702 Y172.421
X300.446 Y172.208
X300.183 Y171.97
X299.923 Y171.713
X299.663 Y171.434
X299.398 Y171.126
X299.131 Y170.787
X298.871 Y170.426
X298.62 Y170.044
X298.373 Y169.633
X298.133 Y169.192
X297.903 Y168.724
X297.687 Y168.233
X297.488 Y167.723
X297.307 Y167.198
X297.147 Y166.656
X297.007 Y166.1
X296.889 Y165.533
X296.795 Y164.959
X296.726 Y164.383
X296.681 Y163.81
X296.66 Y163.246
X296.664 Y162.694
X296.689 Y162.164
X296.735 Y161.653
X296.8 Y161.165
X296.882 Y160.696
X296.979 Y160.255
X297.083 Y159.86
X297.197 Y159.491
X297.319 Y159.148
X297.435 Y158.861
X297.572 Y158.559
X297.701 Y158.305
X297.834 Y158.067
X297.984 Y157.823
X297.998 Y157.803
X298.282 Y157.44
X298.613 Y157.121
X298.985 Y156.851
X299.391 Y156.635
X299.824 Y156.478
X300.274 Y156.382
X300.733 Y156.35
X302.222
G3 X302.705 Y156.464 I-0.044 J1.269
X303.442 Y157.502 I-0.527 J1.156
G1 X304.808 Y172.264
G3 X304.07 Y173.536 I-1.265 J0.117
X303.588 Y173.65 I-0.527 J-1.156
G1 X302.064
X301.914 Y173.643
X301.765 Y173.626
X301.617 Y173.603
X301.465 Y173.572
X301.302 Y173.532
X301.125 Y173.48
X300.944 Y173.419
X300.751 Y173.344
X300.544 Y173.254
X300.335 Y173.153
X300.114 Y173.033
X299.879 Y172.894
X299.645 Y172.741
X299.402 Y172.568
X299.148 Y172.369
X298.892 Y172.152
X298.637 Y171.916
X298.373 Y171.65
X298.104 Y171.356
X297.841 Y171.043
X297.582 Y170.706
X297.323 Y170.338
X297.067 Y169.941
X296.818 Y169.517
X296.583 Y169.073
X296.361 Y168.609
X296.151 Y168.119
X295.956 Y167.605
X295.779 Y167.071
X295.622 Y166.521
X295.487 Y165.959
X295.375 Y165.389
X295.288 Y164.816
X295.224 Y164.243
X295.186 Y163.674
X295.171 Y163.112
X295.18 Y162.564
X295.211 Y162.032
X295.262 Y161.525
X295.331 Y161.045
X295.416 Y160.589
X295.516 Y160.154
X295.626 Y159.755
X295.737 Y159.408
X295.863 Y159.066
X295.98 Y158.786
X296.116 Y158.492
X296.248 Y158.239
X296.38 Y158.008
X296.531 Y157.768
X296.814 Y157.414
X297.143 Y157.102
X297.511 Y156.838
X297.913 Y156.628
X298.339 Y156.474
X298.783 Y156.381
X299.235 Y156.35
X300.733
G3 X301.215 Y156.464 I-0.044 J1.269
X301.953 Y157.505 I-0.527 J1.156
G1 X303.285 Y172.267
G3 X302.546 Y173.536 I-1.265 J0.114
X302.064 Y173.65 I-0.527 J-1.156
G1 X300.634
X300.552 Y173.646
X300.402 Y173.637
X300.253 Y173.619
X300.105 Y173.595
X299.954 Y173.564
X299.789 Y173.522
X299.613 Y173.47
X299.432 Y173.408
X299.234 Y173.33
X299.03 Y173.24
X298.82 Y173.137
X298.595 Y173.015
X298.363 Y172.875
X298.13 Y172.721
X297.883 Y172.543
X297.628 Y172.343
X297.376 Y172.126
X297.116 Y171.884
X296.85 Y171.614
X296.585 Y171.32
X296.325 Y171.008
X296.064 Y170.666
X295.804 Y170.294
X295.549 Y169.892
X295.304 Y169.471
X295.072 Y169.028
X294.849 Y168.558
X294.64 Y168.063
X294.447 Y167.545
X294.272 Y167.009
X294.118 Y166.457
X293.985 Y165.894
X293.876 Y165.323
X293.791 Y164.75
X293.73 Y164.178
X293.694 Y163.612
X293.683 Y163.053
X293.694 Y162.506
X293.727 Y161.978
X293.781 Y161.469
X293.852 Y160.991
X293.938 Y160.538
X294.04 Y160.107
X294.151 Y159.708
X294.263 Y159.366
X294.389 Y159.026
X294.507 Y158.748
X294.643 Y158.459
X294.776 Y158.207
X294.908 Y157.978
X295.06 Y157.74
X295.339 Y157.393
X295.664 Y157.087
X296.028 Y156.828
X296.423 Y156.622
X296.844 Y156.472
X297.28 Y156.381
X297.725 Y156.35
X299.235
G3 X299.717 Y156.464 I-0.044 J1.269
X300.455 Y157.499 I-0.527 J1.156
G1 X301.854 Y172.261
G3 X301.117 Y173.536 I-1.264 J0.12
X300.634 Y173.65 I-0.527 J-1.156
G1 X299.111
X298.961 Y173.643
X298.812 Y173.627
X298.663 Y173.605
X298.512 Y173.576
X298.347 Y173.536
X298.179 Y173.488
X297.995 Y173.427
X297.801 Y173.354
X297.603 Y173.269
X297.389 Y173.168
X297.168 Y173.05
X296.944 Y172.919
X296.706 Y172.766
X296.459 Y172.592
X296.214 Y172.404
X295.959 Y172.19
X295.696 Y171.95
X295.434 Y171.69
X295.174 Y171.41
X294.91 Y171.099
X294.644 Y170.758
X294.383 Y170.394
X294.132 Y170.01
X293.886 Y169.597
X293.648 Y169.154
X293.419 Y168.685
X293.204 Y168.191
X293.006 Y167.679
X292.827 Y167.151
X292.668 Y166.608
X292.53 Y166.051
X292.415 Y165.484
X292.323 Y164.91
X292.255 Y164.334
X292.213 Y163.762
X292.194 Y163.199
X292.199 Y162.649
X292.227 Y162.121
X292.274 Y161.61
X292.341 Y161.123
X292.425 Y160.655
X292.523 Y160.217
X292.633 Y159.803
X292.742 Y159.457
X292.868 Y159.106
X292.988 Y158.812
X293.117 Y158.531
X293.254 Y158.262
X293.382 Y158.035
X293.533 Y157.793
X293.816 Y157.433
X294.147 Y157.115
X294.519 Y156.847
X294.924 Y156.633
X295.355 Y156.477
X295.803 Y156.382
X296.26 Y156.35
X297.725
G3 X298.208 Y156.464 I-0.044 J1.269
X298.946 Y157.501 I-0.527 J1.156
G1 X300.331 Y172.262
G3 X299.111 Y173.65 I-1.264 J0.119
G1 X297.702
X297.49 Y173.639
X297.341 Y173.626
X297.192 Y173.605
X297.045 Y173.577
X296.882 Y173.539
X296.713 Y173.492
X296.535 Y173.435
X296.341 Y173.363
X296.144 Y173.281
X295.937 Y173.183
X295.714 Y173.067
X295.49 Y172.938
X295.257 Y172.791
X295.011 Y172.62
X294.764 Y172.433
X294.514 Y172.226
X294.254 Y171.992
X293.988 Y171.733
X293.728 Y171.456
X293.466 Y171.152
X293.201 Y170.817
X292.937 Y170.453
X292.682 Y170.07
X292.437 Y169.664
X292.198 Y169.229
X291.969 Y168.767
X291.752 Y168.278
X291.55 Y167.768
X291.367 Y167.239
X291.204 Y166.696
X291.062 Y166.141
X290.943 Y165.575
X290.847 Y165.003
X290.775 Y164.429
X290.729 Y163.858
X290.706 Y163.294
X290.707 Y162.741
X290.731 Y162.209
X290.776 Y161.692
X290.84 Y161.198
X290.921 Y160.727
X291.016 Y160.285
X291.125 Y159.868
X291.231 Y159.52
X291.356 Y159.165
X291.474 Y158.87
X291.602 Y158.585
X291.738 Y158.314
X291.865 Y158.085
X292.014 Y157.841
X292.033 Y157.812
X292.316 Y157.448
X292.648 Y157.126
X293.021 Y156.854
X293.428 Y156.637
X293.862 Y156.479
X294.314 Y156.382
X294.774 Y156.35
X296.26
G3 X297.48 Y157.496 I-0.044 J1.269
G1 X298.922 Y172.257
G3 X298.184 Y173.536 I-1.264 J0.123
X297.702 Y173.65 I-0.527 J-1.156
G1 X296.178
X296.092 Y173.646
X295.942 Y173.637
X295.793 Y173.62
X295.645 Y173.596
X295.489 Y173.563
X295.328 Y173.523
X295.151 Y173.47
X294.965 Y173.407
X294.774 Y173.332
X294.567 Y173.241
X294.354 Y173.136
X294.135 Y173.017
X293.901 Y172.877
X293.662 Y172.719
X293.421 Y172.545
X293.169 Y172.347
X292.909 Y172.124
X292.652 Y171.885
X292.392 Y171.62
X292.125 Y171.326
X291.858 Y171.004
X291.598 Y170.665
X291.342 Y170.298
X291.089 Y169.901
X290.841 Y169.474
X290.603 Y169.022
X290.38 Y168.551
X290.173 Y168.06
X289.982 Y167.548
X289.807 Y167.015
X289.653 Y166.465
X289.52 Y165.903
X289.411 Y165.333
X289.326 Y164.758
X289.265 Y164.184
X289.228 Y163.613
X289.216 Y163.05
X289.227 Y162.499
X289.26 Y161.972
X289.313 Y161.472
X289.383 Y160.994
X289.471 Y160.536
X289.572 Y160.103
X289.68 Y159.718
X289.795 Y159.365
X289.918 Y159.034
X290.036 Y158.755
X290.174 Y158.462
X290.303 Y158.216
X290.439 Y157.981
X290.589 Y157.745
X290.869 Y157.397
X291.195 Y157.09
X291.56 Y156.83
X291.957 Y156.623
X292.378 Y156.472
X292.816 Y156.381
X293.263 Y156.35
X294.774
G3 X295.994 Y157.499 I-0.044 J1.269
G1 X297.398 Y172.261
G3 X296.178 Y173.65 I-1.264 J0.12
G1 X294.654
X294.504 Y173.643
X294.355 Y173.628
X294.207 Y173.606
X294.055 Y173.577
X293.891 Y173.538
X293.723 Y173.491
X293.54 Y173.43
X293.347 Y173.358
X293.15 Y173.274
X292.936 Y173.173
X292.715 Y173.057
X292.491 Y172.926
X292.254 Y172.774
X292.008 Y172.602
X291.763 Y172.415
X291.508 Y172.202
X291.244 Y171.962
X290.984 Y171.705
X290.722 Y171.424
X290.457 Y171.114
X290.191 Y170.774
X289.931 Y170.413
X289.68 Y170.031
X289.433 Y169.619
X289.194 Y169.178
X288.965 Y168.71
X288.749 Y168.218
X288.551 Y167.709
X288.371 Y167.182
X288.211 Y166.64
X288.071 Y166.082
X287.954 Y165.513
X287.861 Y164.939
X287.792 Y164.363
X287.748 Y163.791
X287.728 Y163.226
X287.732 Y162.675
X287.758 Y162.145
X287.804 Y161.635
X287.869 Y161.149
X287.952 Y160.68
X288.049 Y160.241
X288.159 Y159.825
X288.267 Y159.477
X288.393 Y159.126
X288.513 Y158.829
X288.641 Y158.549
X288.778 Y158.278
X288.906 Y158.05
X289.062 Y157.799
X289.345 Y157.438
X289.676 Y157.119
X290.048 Y156.849
X290.454 Y156.634
X290.886 Y156.477
X291.336 Y156.382
X291.794 Y156.35
X293.263
G3 X294.483 Y157.5 I-0.044 J1.269
G1 X295.874 Y172.262
G3 X295.137 Y173.536 I-1.264 J0.119
X294.654 Y173.65 I-0.527 J-1.156
G1 X293.208
X292.968 Y173.637
X292.819 Y173.62
X292.671 Y173.596
X292.518 Y173.564
X292.355 Y173.524
X292.178 Y173.471
X291.996 Y173.409
X291.803 Y173.334
X291.595 Y173.243
X291.386 Y173.141
X291.164 Y173.021
X290.929 Y172.88
X290.694 Y172.726
X290.452 Y172.551
X290.198 Y172.352
X289.941 Y172.133
X289.686 Y171.895
X289.422 Y171.629
X289.154 Y171.333
X288.89 Y171.017
X288.631 Y170.679
X288.373 Y170.311
X288.118 Y169.912
X287.87 Y169.486
X287.635 Y169.04
X287.413 Y168.574
X287.205 Y168.082
X287.011 Y167.567
X286.836 Y167.033
X286.68 Y166.481
X286.547 Y165.918
X286.436 Y165.348
X286.35 Y164.775
X286.289 Y164.202
X286.252 Y163.633
X286.239 Y163.072
X286.249 Y162.521
X286.282 Y161.99
X286.334 Y161.484
X286.404 Y161.006
X286.49 Y160.549
X286.592 Y160.115
X286.701 Y159.723
X286.813 Y159.375
X286.938 Y159.04
X287.054 Y158.762
X287.192 Y158.47
X287.322 Y158.22
X287.455 Y157.989
X287.523 Y157.882
X287.805 Y157.501
X288.138 Y157.165
X288.516 Y156.88
X288.931 Y156.652
X289.375 Y156.485
X289.837 Y156.384
X290.31 Y156.35
X291.794
G3 X292.276 Y156.464 I-0.044 J1.269
X293.014 Y157.498 I-0.527 J1.156
G1 X294.427 Y172.26
G3 X293.69 Y173.536 I-1.264 J0.121
X293.208 Y173.65 I-0.527 J-1.156
G1 X291.684
X291.534 Y173.643
X291.385 Y173.628
X291.236 Y173.607
X291.085 Y173.578
X290.922 Y173.54
X290.755 Y173.493
X290.572 Y173.433
X290.38 Y173.362
X290.182 Y173.279
X289.969 Y173.178
X289.749 Y173.063
X289.526 Y172.933
X289.288 Y172.782
X289.043 Y172.611
X288.799 Y172.425
X288.543 Y172.213
X288.28 Y171.975
X288.02 Y171.719
X287.759 Y171.44
X287.494 Y171.131
X287.227 Y170.793
X286.968 Y170.434
X286.716 Y170.053
X286.469 Y169.642
X286.229 Y169.201
X285.999 Y168.734
X285.782 Y168.243
X285.583 Y167.735
X285.402 Y167.21
X285.241 Y166.669
X285.101 Y166.112
X284.982 Y165.544
X284.888 Y164.969
X284.818 Y164.393
X284.772 Y163.82
X284.751 Y163.254
X284.754 Y162.701
X284.779 Y162.17
X284.824 Y161.659
X284.888 Y161.171
X284.97 Y160.702
X285.067 Y160.26
X285.17 Y159.865
X285.284 Y159.497
X285.406 Y159.153
X285.522 Y158.866
X285.658 Y158.564
X285.787 Y158.309
X285.92 Y158.072
X286.07 Y157.828
X286.085 Y157.805
X286.368 Y157.442
X286.699 Y157.122
X287.072 Y156.852
X287.478 Y156.635
X287.911 Y156.478
X288.361 Y156.382
X288.821 Y156.35
X290.31
G3 X291.53 Y157.502 I-0.044 J1.269
G1 X292.904 Y172.263
G3 X291.684 Y173.65 I-1.265 J0.118
G1 X290.254
X290.002 Y173.637
X289.853 Y173.621
X289.704 Y173.597
X289.552 Y173.566
X289.391 Y173.527
X289.214 Y173.475
X289.033 Y173.414
X288.841 Y173.34
X288.634 Y173.25
X288.425 Y173.149
X288.205 Y173.03
X287.971 Y172.891
X287.736 Y172.739
X287.494 Y172.566
X287.241 Y172.368
X286.985 Y172.151
X286.729 Y171.915
X286.466 Y171.65
X286.198 Y171.357
X285.934 Y171.043
X285.675 Y170.707
X285.416 Y170.341
X285.161 Y169.945
X284.912 Y169.521
X284.676 Y169.077
X284.454 Y168.613
X284.244 Y168.123
X284.049 Y167.61
X283.872 Y167.076
X283.715 Y166.526
X283.579 Y165.963
X283.467 Y165.393
X283.379 Y164.82
X283.315 Y164.247
X283.276 Y163.677
X283.261 Y163.115
X283.27 Y162.567
X283.301 Y162.035
X283.351 Y161.528
X283.42 Y161.049
X283.504 Y160.592
X283.604 Y160.157
X283.714 Y159.759
X283.825 Y159.411
X283.951 Y159.069
X284.067 Y158.789
X284.204 Y158.495
X284.335 Y158.242
X284.467 Y158.011
X284.542 Y157.892
X284.824 Y157.509
X285.157 Y157.17
X285.536 Y156.883
X285.952 Y156.654
X286.397 Y156.486
X286.861 Y156.384
X287.335 Y156.35
X288.821
G3 X289.303 Y156.464 I-0.044 J1.269
X290.041 Y157.496 I-0.527 J1.156
G1 X291.474 Y172.258
G3 X290.254 Y173.65 I-1.264 J0.123
G1 X288.73
X288.647 Y173.646
X288.497 Y173.637
X288.348 Y173.619
X288.2 Y173.595
X288.049 Y173.564
X287.883 Y173.522
X287.707 Y173.47
X287.526 Y173.408
X287.329 Y173.331
X287.124 Y173.241
X286.914 Y173.138
X286.689 Y173.015
X286.457 Y172.876
X286.224 Y172.722
X285.977 Y172.544
X285.722 Y172.344
X285.47 Y172.128
X285.21 Y171.885
X284.944 Y171.615
X284.678 Y171.322
X284.419 Y171.01
X284.158 Y170.669
X283.898 Y170.296
X283.642 Y169.895
X283.397 Y169.474
X283.165 Y169.031
X282.942 Y168.561
X282.733 Y168.066
X282.539 Y167.548
X282.364 Y167.012
X282.209 Y166.46
X282.076 Y165.897
X281.967 Y165.326
X281.881 Y164.753
X281.821 Y164.181
X281.785 Y163.614
X281.773 Y163.055
X281.784 Y162.509
X281.817 Y161.981
X281.87 Y161.472
X281.941 Y160.994
X282.027 Y160.541
X282.128 Y160.11
X282.232 Y159.738
X282.355 Y159.36
X282.472 Y159.047
X282.596 Y158.753
X282.732 Y158.465
X282.857 Y158.226
X283.001 Y157.976
X283.064 Y157.878
X283.345 Y157.498
X283.679 Y157.163
X284.056 Y156.878
X284.471 Y156.651
X284.914 Y156.485
X285.376 Y156.384
X285.848 Y156.35
X287.335
G3 X287.817 Y156.464 I-0.044 J1.269
X288.555 Y157.5 I-0.527 J1.156
G1 X289.95 Y172.261
G3 X289.213 Y173.536 I-1.264 J0.12
X288.73 Y173.65 I-0.527 J-1.156
G1 X287.206
X287.057 Y173.643
X286.907 Y173.628
X286.759 Y173.606
X286.607 Y173.576
X286.443 Y173.537
X286.275 Y173.489
X286.091 Y173.429
X285.897 Y173.356
X285.699 Y173.271
X285.486 Y173.17
X285.265 Y173.053
X285.041 Y172.922
X284.803 Y172.77
X284.557 Y172.596
X284.311 Y172.408
X284.056 Y172.195
X283.793 Y171.955
X283.532 Y171.696
X283.272 Y171.416
X283.007 Y171.106
X282.741 Y170.765
X282.48 Y170.402
X282.229 Y170.019
X281.983 Y169.606
X281.744 Y169.164
X281.515 Y168.694
X281.299 Y168.201
X281.101 Y167.69
X280.921 Y167.162
X280.762 Y166.619
X280.623 Y166.063
X280.507 Y165.496
X280.415 Y164.922
X280.347 Y164.346
X280.303 Y163.774
X280.284 Y163.211
X280.289 Y162.663
X280.316 Y162.134
X280.363 Y161.625
X280.429 Y161.137
X280.512 Y160.67
X280.61 Y160.231
X280.714 Y159.839
X280.829 Y159.469
X280.951 Y159.13
X281.068 Y158.844
X281.205 Y158.543
X281.333 Y158.291
X281.468 Y158.052
X281.618 Y157.81
X281.628 Y157.796
X281.911 Y157.435
X282.242 Y157.117
X282.614 Y156.848
X283.019 Y156.633
X283.451 Y156.477
X283.9 Y156.382
X284.357 Y156.35
X285.848
G3 X286.33 Y156.464 I-0.044 J1.269
X287.068 Y157.503 I-0.527 J1.156
G1 X288.427 Y172.264
G3 X287.206 Y173.65 I-1.265 J0.116
G1 X285.777
X285.53 Y173.637
X285.381 Y173.62
X285.233 Y173.597
X285.082 Y173.566
X284.919 Y173.525
X284.742 Y173.474
X284.561 Y173.412
X284.368 Y173.337
X284.161 Y173.247
X283.953 Y173.146
X283.731 Y173.026
X283.497 Y172.887
X283.264 Y172.734
X283.02 Y172.56
X282.766 Y172.361
X282.512 Y172.145
X282.255 Y171.907
X281.991 Y171.641
X281.723 Y171.346
X281.461 Y171.034
X281.201 Y170.696
X280.941 Y170.327
X280.685 Y169.929
X280.437 Y169.505
X280.203 Y169.063
X279.981 Y168.597
X279.771 Y168.106
X279.577 Y167.591
X279.4 Y167.057
X279.244 Y166.507
X279.109 Y165.945
X278.998 Y165.375
X278.911 Y164.803
X278.848 Y164.231
X278.81 Y163.662
X278.796 Y163.101
X278.805 Y162.554
X278.837 Y162.023
X278.888 Y161.515
X278.957 Y161.036
X279.043 Y160.581
X279.143 Y160.147
X279.253 Y159.747
X279.364 Y159.401
X279.49 Y159.059
X279.607 Y158.779
X279.744 Y158.487
X279.876 Y158.233
X280.008 Y158.004
X280.159 Y157.764
X280.442 Y157.411
X280.77 Y157.1
X281.138 Y156.837
X281.538 Y156.627
X281.964 Y156.474
X282.406 Y156.381
X282.857 Y156.35
X284.357
G3 X284.84 Y156.464 I-0.044 J1.269
X285.577 Y157.498 I-0.527 J1.156
G1 X286.997 Y172.259
G3 X286.259 Y173.536 I-1.264 J0.122
X285.777 Y173.65 I-0.527 J-1.156
G1 X284.253
X284.175 Y173.646
X284.026 Y173.637
X283.877 Y173.619
X283.729 Y173.595
X283.577 Y173.563
X283.411 Y173.521
X283.235 Y173.468
X283.053 Y173.406
X282.855 Y173.328
X282.65 Y173.237
X282.44 Y173.134
X282.214 Y173.01
X281.983 Y172.871
X281.749 Y172.716
X281.501 Y172.537
X281.246 Y172.336
X280.994 Y172.119
X280.734 Y171.876
X280.468 Y171.604
X280.202 Y171.31
X279.943 Y170.997
X279.682 Y170.655
X279.422 Y170.281
X279.166 Y169.879
X278.922 Y169.456
X278.69 Y169.013
X278.468 Y168.542
X278.259 Y168.046
X278.067 Y167.528
X277.892 Y166.992
X277.738 Y166.44
X277.606 Y165.877
X277.498 Y165.307
X277.414 Y164.733
X277.354 Y164.162
X277.319 Y163.595
X277.308 Y163.037
X277.32 Y162.49
X277.354 Y161.963
X277.408 Y161.455
X277.479 Y160.977
X277.566 Y160.525
X277.668 Y160.095
X277.78 Y159.697
X277.891 Y159.356
X278.018 Y159.017
X278.136 Y158.739
X278.273 Y158.45
X278.405 Y158.199
X278.538 Y157.97
X278.689 Y157.733
X278.968 Y157.387
X279.292 Y157.083
X279.654 Y156.826
X280.048 Y156.621
X280.467 Y156.471
X280.902 Y156.38
X281.345 Y156.35
X282.857
G3 X283.339 Y156.464 I-0.044 J1.269
X284.077 Y157.5 I-0.527 J1.156
G1 X285.473 Y172.261
G3 X284.253 Y173.65 I-1.264 J0.12
G1 X282.729
X282.579 Y173.643
X282.43 Y173.627
X282.282 Y173.604
X282.13 Y173.574
X281.964 Y173.534
X281.795 Y173.486
X281.611 Y173.424
X281.416 Y173.35
X281.217 Y173.265
X281.003 Y173.162
X280.781 Y173.043
X280.557 Y172.911
X280.318 Y172.757
X280.071 Y172.582
X279.825 Y172.392
X279.57 Y172.177
X279.306 Y171.935
X279.044 Y171.674
X278.784 Y171.392
X278.52 Y171.08
X278.254 Y170.738
X277.993 Y170.371
X277.743 Y169.986
X277.497 Y169.571
X277.259 Y169.128
X277.032 Y168.657
X276.818 Y168.163
X276.62 Y167.649
X276.442 Y167.119
X276.284 Y166.575
X276.148 Y166.017
X276.034 Y165.45
X275.943 Y164.876
X275.877 Y164.3
X275.836 Y163.73
X275.819 Y163.168
X275.825 Y162.619
X275.854 Y162.092
X275.903 Y161.581
X275.97 Y161.094
X276.055 Y160.628
X276.153 Y160.192
X276.265 Y159.78
X276.374 Y159.435
X276.501 Y159.085
X276.621 Y158.794
X276.751 Y158.512
X276.887 Y158.246
X277.015 Y158.02
X277.165 Y157.779
X277.448 Y157.423
X277.777 Y157.108
X278.146 Y156.842
X278.549 Y156.63
X278.977 Y156.475
X279.422 Y156.382
X279.876 Y156.35
X281.345
G3 X281.827 Y156.464 I-0.044 J1.269
X282.565 Y157.501 I-0.527 J1.156
G1 X283.949 Y172.262
G3 X283.212 Y173.536 I-1.264 J0.119
X282.729 Y173.65 I-0.527 J-1.156
G1 X281.321
X281.069 Y173.637
X280.92 Y173.62
X280.771 Y173.597
X280.622 Y173.567
X280.458 Y173.526
X280.282 Y173.475
X280.102 Y173.415
X279.907 Y173.339
X279.703 Y173.251
X279.495 Y173.15
X279.271 Y173.03
X279.04 Y172.892
X278.807 Y172.74
X278.562 Y172.565
X278.308 Y172.368
X278.057 Y172.155
X277.799 Y171.916
X277.533 Y171.649
X277.267 Y171.358
X277.007 Y171.049
X276.745 Y170.709
X276.484 Y170.339
X276.227 Y169.941
X275.981 Y169.523
X275.748 Y169.084
X275.524 Y168.617
X275.313 Y168.125
X275.118 Y167.609
X274.94 Y167.075
X274.783 Y166.525
X274.647 Y165.963
X274.535 Y165.394
X274.447 Y164.822
X274.384 Y164.25
X274.345 Y163.682
X274.33 Y163.121
X274.339 Y162.571
X274.369 Y162.04
X274.421 Y161.526
X274.49 Y161.042
X274.575 Y160.584
X274.674 Y160.151
X274.785 Y159.746
X274.895 Y159.404
X275.021 Y159.06
X275.137 Y158.779
X275.272 Y158.489
X275.405 Y158.234
X275.535 Y158.006
X275.686 Y157.766
X275.968 Y157.412
X276.296 Y157.101
X276.664 Y156.837
X277.064 Y156.627
X277.49 Y156.474
X277.932 Y156.381
X278.383 Y156.35
X279.876
G3 X281.096 Y157.496 I-0.044 J1.269
G1 X282.54 Y172.257
G3 X281.321 Y173.65 I-1.264 J0.124
G1 X279.797
X279.714 Y173.646
X279.564 Y173.637
X279.415 Y173.619
X279.267 Y173.595
X279.116 Y173.564
X278.951 Y173.522
X278.774 Y173.47
X278.593 Y173.408
X278.396 Y173.33
X278.191 Y173.24
X277.981 Y173.137
X277.757 Y173.015
X277.525 Y172.876
X277.291 Y172.721
X277.044 Y172.543
X276.789 Y172.342
X276.536 Y172.126
X276.278 Y171.885
X276.012 Y171.615
X275.746 Y171.321
X275.486 Y171.009
X275.225 Y170.667
X274.965 Y170.294
X274.709 Y169.893
X274.464 Y169.471
X274.231 Y169.028
X274.009 Y168.558
X273.8 Y168.063
X273.607 Y167.546
X273.432 Y167.01
X273.277 Y166.458
X273.145 Y165.895
X273.035 Y165.325
X272.95 Y164.751
X272.889 Y164.178
X272.853 Y163.609
X272.841 Y163.05
X272.853 Y162.501
X272.886 Y161.973
X272.939 Y161.464
X273.01 Y160.985
X273.096 Y160.532
X273.198 Y160.101
X273.309 Y159.703
X273.42 Y159.361
X273.547 Y159.022
X273.664 Y158.745
X273.8 Y158.455
X273.932 Y158.204
X274.064 Y157.975
X274.216 Y157.738
X274.495 Y157.391
X274.819 Y157.086
X275.182 Y156.828
X275.577 Y156.622
X275.996 Y156.472
X276.432 Y156.381
X276.876 Y156.35
X278.383
G3 X278.866 Y156.464 I-0.044 J1.269
X279.603 Y157.498 I-0.527 J1.156
G1 X281.017 Y172.26
G3 X280.279 Y173.536 I-1.264 J0.121
X279.797 Y173.65 I-0.527 J-1.156
G1 X278.273
X278.123 Y173.643
X277.974 Y173.628
X277.825 Y173.605
X277.674 Y173.576
X277.509 Y173.537
X277.341 Y173.489
X277.157 Y173.428
X276.963 Y173.355
X276.765 Y173.27
X276.552 Y173.169
X276.331 Y173.051
X276.107 Y172.92
X275.869 Y172.768
X275.622 Y172.594
X275.377 Y172.406
X275.122 Y172.192
X274.858 Y171.952
X274.597 Y171.692
X274.337 Y171.412
X274.072 Y171.102
X273.806 Y170.761
X273.545 Y170.397
X273.294 Y170.013
X273.048 Y169.6
X272.809 Y169.158
X272.581 Y168.689
X272.365 Y168.195
X272.167 Y167.684
X271.988 Y167.155
X271.828 Y166.612
X271.69 Y166.055
X271.574 Y165.487
X271.482 Y164.912
X271.414 Y164.336
X271.371 Y163.763
X271.352 Y163.2
X271.357 Y162.649
X271.384 Y162.12
X271.432 Y161.609
X271.498 Y161.122
X271.582 Y160.654
X271.679 Y160.216
X271.79 Y159.802
X271.898 Y159.456
X272.024 Y159.105
X272.144 Y158.811
X272.273 Y158.53
X272.409 Y158.262
X272.538 Y158.035
X272.687 Y157.794
X272.971 Y157.434
X273.301 Y157.116
X273.673 Y156.848
X274.078 Y156.633
X274.509 Y156.477
X274.958 Y156.382
X275.416 Y156.35
X276.876
G3 X278.096 Y157.5 I-0.044 J1.269
G1 X279.493 Y172.261
G3 X278.755 Y173.536 I-1.264 J0.12
X278.273 Y173.65 I-0.527 J-1.156
G1 X276.826
X276.74 Y173.646
X276.59 Y173.637
X276.441 Y173.62
X276.293 Y173.596
X276.14 Y173.564
X275.977 Y173.523
X275.799 Y173.471
X275.618 Y173.408
X275.424 Y173.333
X275.217 Y173.242
X275.007 Y173.139
X274.785 Y173.018
X274.551 Y172.878
X274.316 Y172.723
X274.073 Y172.548
X273.818 Y172.348
X273.562 Y172.129
X273.307 Y171.891
X273.043 Y171.623
X272.774 Y171.327
X272.511 Y171.012
X272.252 Y170.673
X271.993 Y170.303
X271.738 Y169.903
X271.49 Y169.477
X271.256 Y169.031
X271.035 Y168.564
X270.826 Y168.072
X270.633 Y167.556
X270.458 Y167.021
X270.302 Y166.469
X270.169 Y165.906
X270.059 Y165.336
X269.974 Y164.762
X269.913 Y164.189
X269.876 Y163.62
X269.863 Y163.058
X269.874 Y162.507
X269.907 Y161.977
X269.96 Y161.47
X270.03 Y160.992
X270.117 Y160.536
X270.219 Y160.103
X270.328 Y159.711
X270.44 Y159.365
X270.565 Y159.031
X270.681 Y158.754
X270.818 Y158.463
X270.948 Y158.213
X271.082 Y157.983
X271.147 Y157.88
X271.429 Y157.5
X271.762 Y157.164
X272.14 Y156.879
X272.555 Y156.651
X272.998 Y156.485
X273.46 Y156.384
X273.932 Y156.35
X275.416
G3 X275.898 Y156.464 I-0.044 J1.269
X276.635 Y157.498 I-0.527 J1.156
G1 X278.046 Y172.26
G3 X276.826 Y173.65 I-1.264 J0.121
G1 X275.302
X275.152 Y173.643
X275.003 Y173.628
X274.855 Y173.606
X274.703 Y173.577
X274.54 Y173.538
X274.372 Y173.491
X274.189 Y173.431
X273.996 Y173.358
X273.798 Y173.275
X273.585 Y173.173
X273.364 Y173.057
X273.14 Y172.927
X272.903 Y172.775
X272.657 Y172.603
X272.412 Y172.415
X272.157 Y172.202
X271.893 Y171.963
X271.632 Y171.705
X271.372 Y171.426
X271.107 Y171.116
X270.84 Y170.777
X270.58 Y170.415
X270.329 Y170.033
X270.082 Y169.621
X269.843 Y169.179
X269.613 Y168.711
X269.397 Y168.219
X269.199 Y167.709
X269.019 Y167.182
X268.858 Y166.64
X268.719 Y166.083
X268.602 Y165.514
X268.508 Y164.939
X268.439 Y164.362
X268.395 Y163.789
X268.375 Y163.224
X268.379 Y162.672
X268.405 Y162.142
X268.451 Y161.632
X268.516 Y161.145
X268.599 Y160.676
X268.696 Y160.237
X268.8 Y159.846
X268.914 Y159.477
X269.036 Y159.137
X269.152 Y158.851
X269.289 Y158.55
X269.417 Y158.297
X269.55 Y158.059
X269.7 Y157.816
X269.711 Y157.8
X269.995 Y157.438
X270.326 Y157.119
X270.698 Y156.85
X271.104 Y156.634
X271.536 Y156.477
X271.985 Y156.382
X272.444 Y156.35
X273.932
G3 X274.415 Y156.464 I-0.044 J1.269
X275.153 Y157.502 I-0.527 J1.156
G1 X276.523 Y172.263
G3 X275.785 Y173.536 I-1.265 J0.117
X275.302 Y173.65 I-0.527 J-1.156
G1 X273.873
X273.624 Y173.637
X273.475 Y173.62
X273.327 Y173.597
X273.175 Y173.566
X273.013 Y173.526
X272.835 Y173.474
X272.655 Y173.413
X272.462 Y173.338
X272.255 Y173.249
X272.047 Y173.147
X271.825 Y173.028
X271.591 Y172.889
X271.358 Y172.736
X271.115 Y172.562
X270.86 Y172.364
X270.605 Y172.147
X270.35 Y171.91
X270.086 Y171.645
X269.817 Y171.35
X269.555 Y171.038
X269.295 Y170.701
X269.036 Y170.333
X268.78 Y169.935
X268.532 Y169.511
X268.297 Y169.068
X268.075 Y168.603
X267.865 Y168.112
X267.67 Y167.598
X267.493 Y167.063
X267.336 Y166.512
X267.201 Y165.949
X267.089 Y165.379
X267.001 Y164.806
X266.938 Y164.233
X266.9 Y163.664
X266.885 Y163.102
X266.895 Y162.554
X266.926 Y162.023
X266.977 Y161.516
X267.046 Y161.037
X267.13 Y160.582
X267.231 Y160.148
X267.34 Y159.749
X267.451 Y159.403
X267.577 Y159.061
X267.694 Y158.782
X267.83 Y158.489
X267.962 Y158.236
X268.094 Y158.006
X268.167 Y157.889
X268.449 Y157.507
X268.782 Y157.169
X269.161 Y156.882
X269.577 Y156.653
X270.021 Y156.486
X270.485 Y156.384
X270.958 Y156.35
X272.444
G3 X272.926 Y156.464 I-0.044 J1.269
X273.664 Y157.497 I-0.527 J1.156
G1 X275.093 Y172.258
G3 X274.355 Y173.536 I-1.264 J0.122
X273.873 Y173.65 I-0.527 J-1.156
G1 X272.349
X272.269 Y173.646
X272.119 Y173.637
X271.97 Y173.619
X271.822 Y173.595
X271.671 Y173.563
X271.505 Y173.522
X271.329 Y173.469
X271.147 Y173.407
X270.949 Y173.329
X270.744 Y173.239
X270.534 Y173.135
X270.309 Y173.012
X270.077 Y172.873
X269.843 Y172.719
X269.596 Y172.54
X269.341 Y172.339
X269.089 Y172.122
X268.829 Y171.88
X268.563 Y171.609
X268.297 Y171.315
X268.038 Y171.003
X267.777 Y170.66
X267.517 Y170.287
X267.261 Y169.885
X267.016 Y169.463
X266.784 Y169.02
X266.562 Y168.549
X266.353 Y168.053
X266.159 Y167.535
X265.985 Y166.998
X265.83 Y166.446
X265.698 Y165.882
X265.589 Y165.312
X265.504 Y164.738
X265.444 Y164.166
X265.408 Y163.6
X265.397 Y163.041
X265.408 Y162.495
X265.442 Y161.967
X265.496 Y161.459
X265.567 Y160.982
X265.653 Y160.529
X265.755 Y160.099
X265.859 Y159.729
X265.982 Y159.351
X266.099 Y159.039
X266.223 Y158.745
X266.358 Y158.458
X266.483 Y158.22
X266.629 Y157.97
X266.689 Y157.876
X266.971 Y157.496
X267.304 Y157.161
X267.682 Y156.877
X268.096 Y156.65
X268.538 Y156.485
X269 Y156.384
X269.471 Y156.35
X270.958
G3 X271.441 Y156.464 I-0.044 J1.269
X272.178 Y157.5 I-0.527 J1.156
G1 X273.569 Y172.262
G3 X272.831 Y173.536 I-1.264 J0.119
X272.349 Y173.65 I-0.527 J-1.156
G1 X270.825
X270.675 Y173.643
X270.526 Y173.627
X270.378 Y173.605
X270.226 Y173.575
X270.061 Y173.535
X269.892 Y173.487
X269.708 Y173.426
X269.514 Y173.352
X269.315 Y173.267
X269.102 Y173.165
X268.88 Y173.047
X268.655 Y172.916
X268.417 Y172.762
X268.17 Y172.588
X267.925 Y172.399
X267.669 Y172.184
X267.406 Y171.943
X267.144 Y171.683
X266.884 Y171.402
X266.62 Y171.09
X266.353 Y170.749
X266.093 Y170.384
X265.842 Y169.999
X265.596 Y169.585
X265.357 Y169.142
X265.129 Y168.671
X264.914 Y168.177
X264.716 Y167.664
X264.537 Y167.135
X264.379 Y166.591
X264.241 Y166.034
X264.126 Y165.466
X264.035 Y164.892
X263.968 Y164.317
X263.926 Y163.745
X263.908 Y163.183
X263.914 Y162.637
X263.942 Y162.108
X263.99 Y161.6
X264.057 Y161.113
X264.141 Y160.647
X264.239 Y160.21
X264.343 Y159.821
X264.459 Y159.451
X264.581 Y159.115
X264.698 Y158.829
X264.835 Y158.53
X264.963 Y158.28
X265.099 Y158.039
X265.255 Y157.79
X265.538 Y157.431
X265.869 Y157.114
X266.241 Y156.846
X266.645 Y156.632
X267.076 Y156.476
X267.524 Y156.382
X267.981 Y156.35
X269.471
G3 X270.692 Y157.503 I-0.044 J1.269
G1 X272.045 Y172.265
G3 X270.825 Y173.65 I-1.265 J0.116
G1 X269.395
X269.152 Y173.637
X269.003 Y173.62
X268.855 Y173.596
X268.704 Y173.565
X268.541 Y173.525
X268.363 Y173.473
X268.183 Y173.411
X267.989 Y173.336
X267.782 Y173.246
X267.574 Y173.144
X267.351 Y173.023
X267.118 Y172.884
X266.884 Y172.731
X266.64 Y172.556
X266.385 Y172.356
X266.132 Y172.141
X265.875 Y171.902
X265.61 Y171.634
X265.342 Y171.34
X265.081 Y171.028
X264.82 Y170.689
X264.56 Y170.318
X264.304 Y169.919
X264.057 Y169.496
X263.823 Y169.054
X263.601 Y168.587
X263.391 Y168.095
X263.197 Y167.579
X263.021 Y167.044
X262.865 Y166.493
X262.731 Y165.931
X262.62 Y165.362
X262.533 Y164.79
X262.471 Y164.218
X262.433 Y163.65
X262.42 Y163.089
X262.43 Y162.543
X262.462 Y162.012
X262.513 Y161.505
X262.583 Y161.025
X262.668 Y160.571
X262.769 Y160.138
X262.88 Y159.738
X262.991 Y159.394
X263.117 Y159.052
X263.234 Y158.773
X263.37 Y158.481
X263.502 Y158.228
X263.634 Y157.999
X263.786 Y157.759
X264.068 Y157.407
X264.395 Y157.097
X264.762 Y156.835
X265.162 Y156.626
X265.586 Y156.474
X266.028 Y156.381
X266.478 Y156.35
X267.981
G3 X268.463 Y156.464 I-0.044 J1.269
X269.201 Y157.498 I-0.527 J1.156
G1 X270.615 Y172.26
G3 X269.395 Y173.65 I-1.264 J0.121
G1 X267.872
X267.722 Y173.643
X267.572 Y173.629
X267.424 Y173.608
X267.273 Y173.579
X267.111 Y173.541
X266.944 Y173.495
X266.762 Y173.436
X266.57 Y173.365
X266.373 Y173.282
X266.16 Y173.182
X265.941 Y173.068
X265.718 Y172.939
X265.48 Y172.789
X265.236 Y172.619
X264.991 Y172.433
X264.736 Y172.222
X264.473 Y171.985
X264.213 Y171.73
X263.952 Y171.453
X263.687 Y171.145
X263.42 Y170.808
X263.161 Y170.45
X262.909 Y170.07
X262.661 Y169.659
X262.42 Y169.22
X262.189 Y168.754
X261.972 Y168.264
X261.773 Y167.757
X261.591 Y167.234
X261.429 Y166.693
X261.288 Y166.138
X261.169 Y165.571
X261.073 Y164.998
X261.002 Y164.422
X260.955 Y163.849
X260.933 Y163.284
X260.935 Y162.731
X260.959 Y162.199
X261.004 Y161.687
X261.067 Y161.198
X261.148 Y160.728
X261.244 Y160.284
X261.353 Y159.866
X261.461 Y159.514
X261.585 Y159.161
X261.706 Y158.86
X261.832 Y158.582
X261.97 Y158.306
X262.097 Y158.076
X262.245 Y157.836
X262.262 Y157.81
X262.545 Y157.446
X262.877 Y157.125
X263.249 Y156.854
X263.657 Y156.637
X264.09 Y156.478
X264.541 Y156.382
X265.002 Y156.35
X266.478
G3 X266.96 Y156.464 I-0.044 J1.269
X267.698 Y157.5 I-0.527 J1.156
G1 X269.092 Y172.261
G3 X268.354 Y173.536 I-1.264 J0.119
X267.872 Y173.65 I-0.527 J-1.156
G1 X266.348
X266.198 Y173.643
X266.049 Y173.627
X265.901 Y173.604
X265.748 Y173.573
X265.587 Y173.534
X265.41 Y173.483
X265.23 Y173.422
X265.038 Y173.349
X264.831 Y173.26
X264.623 Y173.159
X264.402 Y173.041
X264.168 Y172.903
X263.934 Y172.752
X263.692 Y172.58
X263.439 Y172.383
X263.183 Y172.167
X262.927 Y171.932
X262.664 Y171.669
X262.395 Y171.376
X262.131 Y171.064
X261.872 Y170.729
X261.613 Y170.364
X261.357 Y169.969
X261.108 Y169.547
X260.871 Y169.105
X260.648 Y168.642
X260.438 Y168.154
X260.242 Y167.642
X260.064 Y167.109
X259.905 Y166.56
X259.768 Y165.999
X259.655 Y165.429
X259.565 Y164.856
X259.5 Y164.284
X259.46 Y163.714
X259.444 Y163.152
X259.451 Y162.6
X259.48 Y162.067
X259.53 Y161.555
X259.598 Y161.074
X259.682 Y160.615
X259.781 Y160.178
X259.89 Y159.777
X260.001 Y159.429
X260.126 Y159.085
X260.242 Y158.804
X260.378 Y158.51
X260.51 Y158.254
X260.641 Y158.024
X260.792 Y157.782
X261.076 Y157.425
X261.406 Y157.11
X261.777 Y156.843
X262.181 Y156.631
X262.611 Y156.476
X263.057 Y156.382
X263.513 Y156.35
X265.002
G3 X265.484 Y156.464 I-0.044 J1.269
X266.222 Y157.504 I-0.527 J1.156
G1 X267.568 Y172.265
G3 X266.83 Y173.536 I-1.265 J0.115
X266.348 Y173.65 I-0.527 J-1.156
G1 X264.939
X264.69 Y173.637
X264.541 Y173.62
X264.393 Y173.597
X264.243 Y173.566
X264.079 Y173.526
X263.904 Y173.475
X263.724 Y173.414
X263.528 Y173.338
X263.324 Y173.249
X263.115 Y173.148
X262.891 Y173.027
X262.661 Y172.89
X262.428 Y172.738
X262.181 Y172.562
X261.927 Y172.364
X261.676 Y172.15
X261.417 Y171.91
X261.15 Y171.642
X260.885 Y171.352
X260.626 Y171.043
X260.365 Y170.704
X260.104 Y170.334
X259.848 Y169.935
X259.603 Y169.517
X259.369 Y169.077
X259.145 Y168.609
X258.934 Y168.116
X258.739 Y167.601
X258.562 Y167.066
X258.405 Y166.516
X258.27 Y165.953
X258.158 Y165.383
X258.07 Y164.81
X258.007 Y164.237
X257.969 Y163.67
X257.954 Y163.11
X257.963 Y162.561
X257.994 Y162.032
X258.046 Y161.52
X258.115 Y161.038
X258.2 Y160.583
X258.299 Y160.151
X258.411 Y159.747
X258.52 Y159.405
X258.647 Y159.061
X258.764 Y158.781
X258.899 Y158.491
X259.032 Y158.235
X259.162 Y158.007
X259.314 Y157.767
X259.596 Y157.413
X259.925 Y157.101
X260.293 Y156.838
X260.694 Y156.627
X261.12 Y156.474
X261.563 Y156.381
X262.015 Y156.35
X263.513
G3 X263.995 Y156.464 I-0.044 J1.269
X264.733 Y157.497 I-0.527 J1.156
G1 X266.159 Y172.259
G3 X265.422 Y173.536 I-1.264 J0.122
X264.939 Y173.65 I-0.527 J-1.156
G1 X263.415
X263.336 Y173.646
X263.186 Y173.637
X263.037 Y173.619
X262.889 Y173.595
X262.738 Y173.563
X262.572 Y173.521
X262.395 Y173.469
X262.214 Y173.406
X262.016 Y173.329
X261.811 Y173.238
X261.601 Y173.135
X261.376 Y173.012
X261.144 Y172.873
X260.91 Y172.718
X260.663 Y172.54
X260.408 Y172.339
X260.156 Y172.122
X259.897 Y171.88
X259.631 Y171.61
X259.365 Y171.316
X259.106 Y171.003
X258.845 Y170.661
X258.585 Y170.288
X258.329 Y169.886
X258.084 Y169.463
X257.852 Y169.02
X257.63 Y168.549
X257.421 Y168.053
X257.228 Y167.535
X257.053 Y166.999
X256.899 Y166.447
X256.767 Y165.884
X256.658 Y165.314
X256.573 Y164.74
X256.513 Y164.168
X256.477 Y163.601
X256.466 Y163.042
X256.478 Y162.494
X256.511 Y161.967
X256.565 Y161.459
X256.636 Y160.981
X256.723 Y160.528
X256.824 Y160.098
X256.936 Y159.7
X257.048 Y159.359
X257.174 Y159.02
X257.291 Y158.743
X257.428 Y158.453
X257.56 Y158.202
X257.693 Y157.974
X257.844 Y157.736
X258.124 Y157.39
X258.448 Y157.085
X258.81 Y156.827
X259.205 Y156.621
X259.624 Y156.472
X260.06 Y156.381
X260.504 Y156.35
X262.015
G3 X263.235 Y157.499 I-0.044 J1.269
G1 X264.635 Y172.261
G3 X263.898 Y173.536 I-1.264 J0.12
X263.415 Y173.65 I-0.527 J-1.156
G1 X261.891
X261.742 Y173.643
X261.592 Y173.627
X261.444 Y173.605
X261.292 Y173.575
X261.127 Y173.535
X260.959 Y173.487
X260.774 Y173.426
X260.58 Y173.352
X260.382 Y173.267
X260.168 Y173.165
X259.946 Y173.047
X259.722 Y172.915
X259.484 Y172.762
X259.237 Y172.587
X258.991 Y172.398
X258.736 Y172.184
X258.473 Y171.943
X258.211 Y171.682
X257.951 Y171.401
X257.687 Y171.089
X257.42 Y170.748
X257.16 Y170.382
X256.909 Y169.998
X256.663 Y169.584
X256.425 Y169.141
X256.197 Y168.671
X255.982 Y168.176
X255.784 Y167.663
X255.606 Y167.134
X255.447 Y166.59
X255.31 Y166.033
X255.195 Y165.465
X255.104 Y164.891
X255.037 Y164.315
X254.995 Y163.744
X254.977 Y163.181
X254.983 Y162.632
X255.011 Y162.104
X255.059 Y161.594
X255.126 Y161.107
X255.21 Y160.64
X255.309 Y160.203
X255.42 Y159.79
X255.528 Y159.445
X255.655 Y159.094
X255.775 Y158.802
X255.904 Y158.52
X256.041 Y158.254
X256.169 Y158.027
X256.319 Y157.786
X256.602 Y157.428
X256.932 Y157.112
X257.302 Y156.845
X257.706 Y156.632
X258.136 Y156.476
X258.583 Y156.382
X259.038 Y156.35
X260.504
G3 X261.724 Y157.5 I-0.044 J1.269
G1 X263.112 Y172.262
G3 X261.891 Y173.65 I-1.264 J0.119
G1 X260.445
X260.361 Y173.646
X260.211 Y173.637
X260.062 Y173.62
X259.914 Y173.595
X259.762 Y173.564
X259.598 Y173.523
X259.42 Y173.47
X259.239 Y173.408
X259.045 Y173.332
X258.837 Y173.24
X258.628 Y173.138
X258.405 Y173.016
X258.171 Y172.875
X257.937 Y172.721
X257.693 Y172.545
X257.438 Y172.344
X257.183 Y172.126
X256.927 Y171.887
X256.662 Y171.618
X256.394 Y171.322
X256.132 Y171.007
X255.872 Y170.667
X255.613 Y170.296
X255.358 Y169.895
X255.11 Y169.469
X254.876 Y169.024
X254.656 Y168.557
X254.447 Y168.064
X254.254 Y167.548
X254.079 Y167.012
X253.925 Y166.46
X253.792 Y165.897
X253.683 Y165.327
X253.597 Y164.754
X253.537 Y164.181
X253.501 Y163.612
X253.489 Y163.051
X253.5 Y162.501
X253.533 Y161.971
X253.586 Y161.464
X253.657 Y160.986
X253.744 Y160.53
X253.846 Y160.098
X253.956 Y159.704
X254.068 Y159.36
X254.193 Y159.025
X254.31 Y158.748
X254.447 Y158.457
X254.577 Y158.208
X254.711 Y157.978
X254.774 Y157.878
X255.056 Y157.498
X255.389 Y157.163
X255.767 Y156.878
X256.182 Y156.651
X256.624 Y156.485
X257.086 Y156.384
