%
(1001)
(Z0 stock bottom)
(T1  D=12.7 CR=0 - ZMIN=15 - flat end mill)
G90 G94
G17
G21

(2D Contour7 10)
M9
T1 M6
S6000 M3
G54
M9
G0 X455.16 Y123.412
Z65
Z55
G1 Z53.77 F849.6
G18 G3 X453.89 Z52.5 I-1.27
G1 X452.62
G17 G3 X451.35 Y122.142 J-1.27
G1 Y20 Z48.933 F400.3
G2 X425.351 Y-6.348 Z47.5 I-26.35
X425 Y-6.35 I-0.351 J26.348 F849.6
G1 X410
G2 X383.65 Y20 J26.35
G1 Y60
G3 X370 Y73.65 I-13.65
G1 X85
G3 X71.35 Y60 J-13.65
G1 Y20
G2 X45 Y-6.35 I-26.35
G1 X30
G2 X3.65 Y20 J26.35
G1 Y150
G2 X10 Y156.35 I6.35
G1 X20.856
Y180
G2 X27.206 Y186.35 I6.35
G1 X157.206
G2 X163.556 Y180 J-6.35
G1 Y156.35
X288.751
Y180
G2 X295.101 Y186.35 I6.35
G1 X425.101
G2 X431.451 Y180 J-6.35
G1 Y156.35
X445
G2 X451.35 Y150 J-6.35
G1 Y20
G2 X425.351 Y-6.348 I-26.35
X425 Y-6.35 Z47.488 I-0.351 J26.348 F400.3
G1 X410 Z46.964
G2 X383.65 Y20 Z45.519 J26.35
G1 Y34.849 Z45
Y60 F849.6
G3 X370 Y73.65 I-13.65
G1 X85
G3 X71.35 Y60 J-13.65
G1 Y20
G2 X45 Y-6.35 I-26.35
G1 X30
G2 X3.65 Y20 J26.35
G1 Y150
G2 X10 Y156.35 I6.35
G1 X20.856
Y180
G2 X27.206 Y186.35 I6.35
G1 X157.206
G2 X163.556 Y180 J-6.35
G1 Y156.35
X288.751
Y180
G2 X295.101 Y186.35 I6.35
G1 X425.101
G2 X431.451 Y180 J-6.35
G1 Y156.35
X445
G2 X451.35 Y150 J-6.35
G1 Y20
G2 X425 Y-6.35 I-26.35
G1 X410
G2 X383.65 Y20 J26.35
G1 Y34.849
Y60 Z44.122 F400.3
G3 X370 Y73.65 Z43.373 I-13.65
G1 X345.001 Z42.5
X85 F849.6
G3 X71.35 Y60 J-13.65
G1 Y20
G2 X45 Y-6.35 I-26.35
G1 X30
G2 X3.65 Y20 J26.35
G1 Y150
G2 X10 Y156.35 I6.35
G1 X20.856
Y180
G2 X27.206 Y186.35 I6.35
G1 X157.206
G2 X163.556 Y180 J-6.35
G1 Y156.35
X288.751
Y180
G2 X295.101 Y186.35 I6.35
G1 X425.101
G2 X431.451 Y180 J-6.35
G1 Y156.35
X445
G2 X451.35 Y150 J-6.35
G1 Y20
G2 X425 Y-6.35 I-26.35
G1 X410
G2 X383.65 Y20 J26.35
G1 Y60
G3 X370 Y73.65 I-13.65
G1 X345.001
X273.411 Z40 F400.3
X85 F849.6
G3 X71.35 Y60 J-13.65
G1 Y20
G2 X45 Y-6.35 I-26.35
G1 X30
G2 X3.65 Y20 J26.35
G1 Y150
G2 X10 Y156.35 I6.35
G1 X20.856
Y180
G2 X27.206 Y186.35 I6.35
G1 X157.206
G2 X163.556 Y180 J-6.35
G1 Y156.35
X288.751
Y180
G2 X295.101 Y186.35 I6.35
G1 X425.101
G2 X431.451 Y180 J-6.35
G1 Y156.35
X445
G2 X451.35 Y150 J-6.35
G1 Y20
G2 X425 Y-6.35 I-26.35
G1 X410
G2 X383.65 Y20 J26.35
G1 Y60
G3 X370 Y73.65 I-13.65
G1 X273.411
X201.82 Z37.5 F400.3
X85 F849.6
G3 X71.35 Y60 J-13.65
G1 Y20
G2 X45 Y-6.35 I-26.35
G1 X30
G2 X3.65 Y20 J26.35
G1 Y150
G2 X10 Y156.35 I6.35
G1 X20.856
Y180
G2 X27.206 Y186.35 I6.35
G1 X157.206
G2 X163.556 Y180 J-6.35
G1 Y156.35
X288.751
Y180
G2 X295.101 Y186.35 I6.35
G1 X425.101
G2 X431.451 Y180 J-6.35
G1 Y156.35
X445
G2 X451.35 Y150 J-6.35
G1 Y20
G2 X425 Y-6.35 I-26.35
G1 X410
G2 X383.65 Y20 J26.35
G1 Y60
G3 X370 Y73.65 I-13.65
G1 X273.411
X201.82
X130.23 Z35 F400.3
X85 F849.6
G3 X71.35 Y60 J-13.65
G1 Y20
G2 X45 Y-6.35 I-26.35
G1 X30
G2 X3.65 Y20 J26.35
G1 Y150
G2 X10 Y156.35 I6.35
G1 X20.856
Y180
G2 X27.206 Y186.35 I6.35
G1 X157.206
G2 X163.556 Y180 J-6.35
G1 Y156.35
X288.751
Y180
G2 X295.101 Y186.35 I6.35
G1 X425.101
G2 X431.451 Y180 J-6.35
G1 Y156.35
X445
G2 X451.35 Y150 J-6.35
G1 Y20
G2 X425 Y-6.35 I-26.35
G1 X410
G2 X383.65 Y20 J26.35
G1 Y60
G3 X370 Y73.65 I-13.65
G1 X201.82
X130.23
X85 Z33.421 F400.3
G3 X71.35 Y60 Z32.672 J-13.65
G1 Y55.08 Z32.5
Y20 F849.6
G2 X45 Y-6.35 I-26.35
G1 X30
G2 X3.65 Y20 J26.35
G1 Y150
G2 X10 Y156.35 I6.35
G1 X20.856
Y180
G2 X27.206 Y186.35 I6.35
G1 X157.206
G2 X163.556 Y180 J-6.35
G1 Y156.35
X288.751
Y180
G2 X295.101 Y186.35 I6.35
G1 X425.101
G2 X431.451 Y180 J-6.35
G1 Y156.35
X445
G2 X451.35 Y150 J-6.35
G1 Y20
G2 X425 Y-6.35 I-26.35
G1 X410
G2 X383.65 Y20 J26.35
G1 Y60
G3 X370 Y73.65 I-13.65
G1 X130.23
X85
G3 X71.35 Y60 J-13.65
G1 Y55.08
Y20 Z31.275 F400.3
G2 X49.852 Y-5.899 Z30 I-26.35
X45 Y-6.35 I-4.852 J25.899 F849.6
G1 X30
G2 X3.65 Y20 J26.35
G1 Y150
G2 X10 Y156.35 I6.35
G1 X20.856
Y180
G2 X27.206 Y186.35 I6.35
G1 X157.206
G2 X163.556 Y180 J-6.35
G1 Y156.35
X288.751
Y180
G2 X295.101 Y186.35 I6.35
G1 X425.101
G2 X431.451 Y180 J-6.35
G1 Y156.35
X445
G2 X451.35 Y150 J-6.35
G1 Y20
G2 X425 Y-6.35 I-26.35
G1 X410
G2 X383.65 Y20 J26.35
G1 Y60
G3 X370 Y73.65 I-13.65
G1 X85
G3 X71.35 Y60 J-13.65
G1 Y20
G2 X49.852 Y-5.899 I-26.35
X45 Y-6.35 Z29.83 I-4.852 J25.899 F400.3
G1 X30 Z29.306
G2 X3.65 Y20 Z27.86 J26.35
G1 Y30.32 Z27.5
Y150 F849.6
G2 X10 Y156.35 I6.35
G1 X20.856
Y180
G2 X27.206 Y186.35 I6.35
G1 X157.206
G2 X163.556 Y180 J-6.35
G1 Y156.35
X288.751
Y180
G2 X295.101 Y186.35 I6.35
G1 X425.101
G2 X431.451 Y180 J-6.35
G1 Y156.35
X445
G2 X451.35 Y150 J-6.35
G1 Y20
G2 X425 Y-6.35 I-26.35
G1 X410
G2 X383.65 Y20 J26.35
G1 Y60
G3 X370 Y73.65 I-13.65
G1 X85
G3 X71.35 Y60 J-13.65
G1 Y20
G2 X45 Y-6.35 I-26.35
G1 X30
G2 X3.65 Y20 J26.35
G1 Y30.32
Y101.911 Z25 F400.3
Y150 F849.6
G2 X10 Y156.35 I6.35
G1 X20.856
Y180
G2 X27.206 Y186.35 I6.35
G1 X157.206
G2 X163.556 Y180 J-6.35
G1 Y156.35
X288.751
Y180
G2 X295.101 Y186.35 I6.35
G1 X425.101
G2 X431.451 Y180 J-6.35
G1 Y156.35
X445
G2 X451.35 Y150 J-6.35
G1 Y20
G2 X425 Y-6.35 I-26.35
G1 X410
G2 X383.65 Y20 J26.35
G1 Y60
G3 X370 Y73.65 I-13.65
G1 X85
G3 X71.35 Y60 J-13.65
G1 Y20
G2 X45 Y-6.35 I-26.35
G1 X30
G2 X3.65 Y20 J26.35
G1 Y101.911
Y150 Z23.321 F400.3
G2 X10 Y156.35 Z22.972 I6.35
G1 X20.856 Z22.593
Y159.021 Z22.5
Y180 F849.6
G2 X27.206 Y186.35 I6.35
G1 X157.206
G2 X163.556 Y180 J-6.35
G1 Y156.35
X288.751
Y180
G2 X295.101 Y186.35 I6.35
G1 X425.101
G2 X431.451 Y180 J-6.35
G1 Y156.35
X445
G2 X451.35 Y150 J-6.35
G1 Y20
G2 X425 Y-6.35 I-26.35
G1 X410
G2 X383.65 Y20 J26.35
G1 Y60
G3 X370 Y73.65 I-13.65
G1 X85
G3 X71.35 Y60 J-13.65
G1 Y20
G2 X45 Y-6.35 I-26.35
G1 X30
G2 X3.65 Y20 J26.35
G1 Y101.911
Y150
G2 X10 Y156.35 I6.35
G1 X20.856
Y159.021
Y180 Z21.767 F400.3
G2 X27.206 Y186.35 Z21.419 I6.35
G1 X67.843 Z20
X157.206 F849.6
G2 X163.556 Y180 J-6.35
G1 Y156.35
X288.751
Y180
G2 X295.101 Y186.35 I6.35
G1 X425.101
G2 X431.451 Y180 J-6.35
G1 Y156.35
X445
G2 X451.35 Y150 J-6.35
G1 Y20
G2 X425 Y-6.35 I-26.35
G1 X410
G2 X383.65 Y20 J26.35
G1 Y60
G3 X370 Y73.65 I-13.65
G1 X85
G3 X71.35 Y60 J-13.65
G1 Y20
G2 X45 Y-6.35 I-26.35
G1 X30
G2 X3.65 Y20 J26.35
G1 Y150
G2 X10 Y156.35 I6.35
G1 X20.856
Y180
G2 X27.206 Y186.35 I6.35
G1 X67.843
X139.433 Z17.5 F400.3
X157.206 F849.6
G2 X163.556 Y180 J-6.35
G1 Y156.35
X288.751
Y180
G2 X295.101 Y186.35 I6.35
G1 X425.101
G2 X431.451 Y180 J-6.35
G1 Y156.35
X445
G2 X451.35 Y150 J-6.35
G1 Y20
G2 X425 Y-6.35 I-26.35
G1 X410
G2 X383.65 Y20 J26.35
G1 Y60
G3 X370 Y73.65 I-13.65
G1 X85
G3 X71.35 Y60 J-13.65
G1 Y20
G2 X45 Y-6.35 I-26.35
G1 X30
G2 X3.65 Y20 J26.35
G1 Y150
G2 X10 Y156.35 I6.35
G1 X20.856
Y180
G2 X27.206 Y186.35 I6.35
G1 X139.433
X157.206 Z16.879 F400.3
G2 X163.556 Y180 Z16.531 J-6.35
G1 Y156.35 Z15.705
X183.75 Z15
X288.751 F849.6
Y180
G2 X295.101 Y186.35 I6.35
G1 X425.101
G2 X431.451 Y180 J-6.35
G1 Y156.35
X445
G2 X451.35 Y150 J-6.35
G1 Y20
G2 X425 Y-6.35 I-26.35
G1 X410
G2 X383.65 Y20 J26.35
G1 Y60
G3 X370 Y73.65 I-13.65
G1 X85
G3 X71.35 Y60 J-13.65
G1 Y20
G2 X45 Y-6.35 I-26.35
G1 X30
G2 X3.65 Y20 J26.35
G1 Y150
G2 X10 Y156.35 I6.35
G1 X20.856
Y180
G2 X27.206 Y186.35 I6.35
G1 X139.433
X157.206
G2 X163.556 Y180 J-6.35
G1 Y156.35
X183.75
G3 X185.02 Y157.62 J1.27
G1 Y158.89
G19 G3 Y160.16 Z16.27 K1.27
G0 Z55
X454.84 Y59.926
G1 Z53.77 F849.6
G18 G2 X456.11 Z52.5 I1.27
G1 X457.38
G17 G3 X458.65 Y61.196 J1.27
G1 Y150 Z49.399 F400.3
G2 X465 Y156.35 Z49.051 I6.35
G1 X475.856 Z48.671
Y180 Z47.846
G2 X482.129 Y186.35 Z47.5 I6.35
X482.206 I0.077 J-6.35 F849.6
G1 X612.206
G2 X618.556 Y180 J-6.35
G1 Y156.35
X743.751
Y180
G2 X750.101 Y186.35 I6.35
G1 X880.101
G2 X886.451 Y180 J-6.35
G1 Y156.35
X900
G2 X906.35 Y150 J-6.35
G1 Y20
G2 X880 Y-6.35 I-26.35
G1 X865
G2 X838.65 Y20 J26.35
G1 Y60
G3 X825 Y73.65 I-13.65
G1 X540
G3 X526.35 Y60 J-13.65
G1 Y20
G2 X500 Y-6.35 I-26.35
G1 X485
G2 X458.65 Y20 J26.35
G1 Y150
G2 X465 Y156.35 I6.35
G1 X475.856
Y180
G2 X482.129 Y186.35 I6.35
X482.206 Z47.497 I0.077 J-6.35 F400.3
G1 X553.719 Z45
X612.206 F849.6
G2 X618.556 Y180 J-6.35
G1 Y156.35
X743.751
Y180
G2 X750.101 Y186.35 I6.35
G1 X880.101
G2 X886.451 Y180 J-6.35
G1 Y156.35
X900
G2 X906.35 Y150 J-6.35
G1 Y20
G2 X880 Y-6.35 I-26.35
G1 X865
G2 X838.65 Y20 J26.35
G1 Y60
G3 X825 Y73.65 I-13.65
G1 X540
G3 X526.35 Y60 J-13.65
G1 Y20
G2 X500 Y-6.35 I-26.35
G1 X485
G2 X458.65 Y20 J26.35
G1 Y150
G2 X465 Y156.35 I6.35
G1 X475.856
Y180
G2 X482.206 Y186.35 I6.35
G1 X553.719
X612.206 Z42.958 F400.3
G2 X618.556 Y180 Z42.609 J-6.35
G1 Y176.871 Z42.5
Y156.35 F849.6
X743.751
Y180
G2 X750.101 Y186.35 I6.35
G1 X880.101
G2 X886.451 Y180 J-6.35
G1 Y156.35
X900
G2 X906.35 Y150 J-6.35
G1 Y20
G2 X880 Y-6.35 I-26.35
G1 X865
G2 X838.65 Y20 J26.35
G1 Y60
G3 X825 Y73.65 I-13.65
G1 X540
G3 X526.35 Y60 J-13.65
G1 Y20
G2 X500 Y-6.35 I-26.35
G1 X485
G2 X458.65 Y20 J26.35
G1 Y150
G2 X465 Y156.35 I6.35
G1 X475.856
Y180
G2 X482.206 Y186.35 I6.35
G1 X553.719
X612.206
G2 X618.556 Y180 J-6.35
G1 Y176.871
Y156.35 Z41.783 F400.3
X669.626 Z40
X743.751 F849.6
Y180
G2 X750.101 Y186.35 I6.35
G1 X880.101
G2 X886.451 Y180 J-6.35
G1 Y156.35
X900
G2 X906.35 Y150 J-6.35
G1 Y20
G2 X880 Y-6.35 I-26.35
G1 X865
G2 X838.65 Y20 J26.35
G1 Y60
G3 X825 Y73.65 I-13.65
G1 X540
G3 X526.35 Y60 J-13.65
G1 Y20
G2 X500 Y-6.35 I-26.35
G1 X485
G2 X458.65 Y20 J26.35
G1 Y150
G2 X465 Y156.35 I6.35
G1 X475.856
Y180
G2 X482.206 Y186.35 I6.35
G1 X612.206
G2 X618.556 Y180 J-6.35
G1 Y156.35
X669.626
X741.217 Z37.5 F400.3
X743.751 F849.6
Y180
G2 X750.101 Y186.35 I6.35
G1 X880.101
G2 X886.451 Y180 J-6.35
G1 Y156.35
X900
G2 X906.35 Y150 J-6.35
G1 Y20
G2 X880 Y-6.35 I-26.35
G1 X865
G2 X838.65 Y20 J26.35
G1 Y60
G3 X825 Y73.65 I-13.65
G1 X540
G3 X526.35 Y60 J-13.65
G1 Y20
G2 X500 Y-6.35 I-26.35
G1 X485
G2 X458.65 Y20 J26.35
G1 Y150
G2 X465 Y156.35 I6.35
G1 X475.856
Y180
G2 X482.206 Y186.35 I6.35
G1 X612.206
G2 X618.556 Y180 J-6.35
G1 Y156.35
X741.217
X743.751 Z37.411 F400.3
Y180 Z36.586
G2 X750.101 Y186.35 Z36.237 I6.35
G1 X785.533 Z35
X880.101 F849.6
G2 X886.451 Y180 J-6.35
G1 Y156.35
X900
G2 X906.35 Y150 J-6.35
G1 Y20
G2 X880 Y-6.35 I-26.35
G1 X865
G2 X838.65 Y20 J26.35
G1 Y60
G3 X825 Y73.65 I-13.65
G1 X540
G3 X526.35 Y60 J-13.65
G1 Y20
G2 X500 Y-6.35 I-26.35
G1 X485
G2 X458.65 Y20 J26.35
G1 Y150
G2 X465 Y156.35 I6.35
G1 X475.856
Y180
G2 X482.206 Y186.35 I6.35
G1 X612.206
G2 X618.556 Y180 J-6.35
G1 Y156.35
X741.217
X743.751
Y180
G2 X750.101 Y186.35 I6.35
G1 X785.533
X857.123 Z32.5 F400.3
X880.101 F849.6
G2 X886.451 Y180 J-6.35
G1 Y156.35
X900
G2 X906.35 Y150 J-6.35
G1 Y20
G2 X880 Y-6.35 I-26.35
G1 X865
G2 X838.65 Y20 J26.35
G1 Y60
G3 X825 Y73.65 I-13.65
G1 X540
G3 X526.35 Y60 J-13.65
G1 Y20
G2 X500 Y-6.35 I-26.35
G1 X485
G2 X458.65 Y20 J26.35
G1 Y150
G2 X465 Y156.35 I6.35
G1 X475.856
Y180
G2 X482.206 Y186.35 I6.35
G1 X612.206
G2 X618.556 Y180 J-6.35
G1 Y156.35
X743.751
Y180
G2 X750.101 Y186.35 I6.35
G1 X857.123
X880.101 Z31.698 F400.3
G2 X886.451 Y180 Z31.349 J-6.35
G1 Y156.35 Z30.523
X900 Z30.05
G2 X901.427 Y156.188 Z30 J-6.35
X906.35 Y150 I-1.427 J-6.188 F849.6
G1 Y20
G2 X880 Y-6.35 I-26.35
G1 X865
G2 X838.65 Y20 J26.35
G1 Y60
G3 X825 Y73.65 I-13.65
G1 X540
G3 X526.35 Y60 J-13.65
G1 Y20
G2 X500 Y-6.35 I-26.35
G1 X485
G2 X458.65 Y20 J26.35
G1 Y150
G2 X465 Y156.35 I6.35
G1 X475.856
Y180
G2 X482.206 Y186.35 I6.35
G1 X612.206
G2 X618.556 Y180 J-6.35
G1 Y156.35
X743.751
Y180
G2 X750.101 Y186.35 I6.35
G1 X857.123
X880.101
G2 X886.451 Y180 J-6.35
G1 Y156.35
X900
G2 X901.427 Y156.188 J-6.35
X906.35 Y150 Z29.702 I-1.427 J-6.188 F400.3
G1 Y86.945 Z27.5
Y20 F849.6
G2 X880 Y-6.35 I-26.35
G1 X865
G2 X838.65 Y20 J26.35
G1 Y60
G3 X825 Y73.65 I-13.65
G1 X540
G3 X526.35 Y60 J-13.65
G1 Y20
G2 X500 Y-6.35 I-26.35
G1 X485
G2 X458.65 Y20 J26.35
G1 Y150
G2 X465 Y156.35 I6.35
G1 X475.856
Y180
G2 X482.206 Y186.35 I6.35
G1 X612.206
G2 X618.556 Y180 J-6.35
G1 Y156.35
X743.751
Y180
G2 X750.101 Y186.35 I6.35
G1 X880.101
G2 X886.451 Y180 J-6.35
G1 Y156.35
X900
G2 X906.35 Y150 J-6.35
G1 Y86.945
Y20 Z25.162 F400.3
G2 X905.941 Y15.378 Z25 I-26.35
X880 Y-6.35 I-25.941 J4.622 F849.6
G1 X865
G2 X838.65 Y20 J26.35
G1 Y60
G3 X825 Y73.65 I-13.65
G1 X540
G3 X526.35 Y60 J-13.65
G1 Y20
G2 X500 Y-6.35 I-26.35
G1 X485
G2 X458.65 Y20 J26.35
G1 Y150
G2 X465 Y156.35 I6.35
G1 X475.856
Y180
G2 X482.206 Y186.35 I6.35
G1 X612.206
G2 X618.556 Y180 J-6.35
G1 Y156.35
X743.751
Y180
G2 X750.101 Y186.35 I6.35
G1 X880.101
G2 X886.451 Y180 J-6.35
G1 Y156.35
X900
G2 X906.35 Y150 J-6.35
G1 Y20
G2 X905.941 Y15.378 I-26.35
X880 Y-6.35 Z23.717 I-25.941 J4.622 F400.3
G1 X865 Z23.193
G2 X846.978 Y0.777 Z22.5 J26.35
X838.65 Y20 I18.022 J19.223 F849.6
G1 Y60
G3 X825 Y73.65 I-13.65
G1 X540
G3 X526.35 Y60 J-13.65
G1 Y20
G2 X500 Y-6.35 I-26.35
G1 X485
G2 X458.65 Y20 J26.35
G1 Y150
G2 X465 Y156.35 I6.35
G1 X475.856
Y180
G2 X482.206 Y186.35 I6.35
G1 X612.206
G2 X618.556 Y180 J-6.35
G1 Y156.35
X743.751
Y180
G2 X750.101 Y186.35 I6.35
G1 X880.101
G2 X886.451 Y180 J-6.35
G1 Y156.35
X900
G2 X906.35 Y150 J-6.35
G1 Y20
G2 X880 Y-6.35 I-26.35
G1 X865
G2 X846.978 Y0.777 J26.35
X838.65 Y20 Z21.748 I18.022 J19.223 F400.3
G1 Y60 Z20.351
G3 X835.117 Y69.164 Z20 I-13.65
X825 Y73.65 I-10.117 J-9.164 F849.6
G1 X540
G3 X526.35 Y60 J-13.65
G1 Y20
G2 X500 Y-6.35 I-26.35
G1 X485
G2 X458.65 Y20 J26.35
G1 Y150
G2 X465 Y156.35 I6.35
G1 X475.856
Y180
G2 X482.206 Y186.35 I6.35
G1 X612.206
G2 X618.556 Y180 J-6.35
G1 Y156.35
X743.751
Y180
G2 X750.101 Y186.35 I6.35
G1 X880.101
G2 X886.451 Y180 J-6.35
G1 Y156.35
X900
G2 X906.35 Y150 J-6.35
G1 Y20
G2 X880 Y-6.35 I-26.35
G1 X865
G2 X838.65 Y20 J26.35
G1 Y60
G3 X835.117 Y69.164 I-13.65
X825 Y73.65 Z19.602 I-10.117 J-9.164 F400.3
G1 X764.804 Z17.5
X540 F849.6
G3 X526.35 Y60 J-13.65
G1 Y20
G2 X500 Y-6.35 I-26.35
G1 X485
G2 X458.65 Y20 J26.35
G1 Y150
G2 X465 Y156.35 I6.35
G1 X475.856
Y180
G2 X482.206 Y186.35 I6.35
G1 X612.206
G2 X618.556 Y180 J-6.35
G1 Y156.35
X743.751
Y180
G2 X750.101 Y186.35 I6.35
G1 X880.101
G2 X886.451 Y180 J-6.35
G1 Y156.35
X900
G2 X906.35 Y150 J-6.35
G1 Y20
G2 X880 Y-6.35 I-26.35
G1 X865
G2 X838.65 Y20 J26.35
G1 Y60
G3 X825 Y73.65 I-13.65
G1 X764.804
X693.214 Z15 F400.3
X540 F849.6
G3 X526.35 Y60 J-13.65
G1 Y20
G2 X500 Y-6.35 I-26.35
G1 X485
G2 X458.65 Y20 J26.35
G1 Y150
G2 X465 Y156.35 I6.35
G1 X475.856
Y180
G2 X482.206 Y186.35 I6.35
G1 X612.206
G2 X618.556 Y180 J-6.35
G1 Y156.35
X743.751
Y180
G2 X750.101 Y186.35 I6.35
G1 X880.101
G2 X886.451 Y180 J-6.35
G1 Y156.35
X900
G2 X906.35 Y150 J-6.35
G1 Y20
G2 X880 Y-6.35 I-26.35
G1 X865
G2 X838.65 Y20 J26.35
G1 Y60
G3 X825 Y73.65 I-13.65
G1 X693.214
G3 X691.944 Y72.38 J-1.27
G1 Y71.11
G19 G2 Y69.84 Z16.27 K1.27
G0 Z65
G17

(2D Adaptive15 10)
M9
G0 X144.046 Y159.366
Z65
Z55
Z53.77
G1 Z52.5 F849.6
G3 X139.732 Y170.634 Z51.838 I-2.157 J5.634 F400.3
X144.046 Y159.366 Z51.176 I2.157 J-5.634
X139.732 Y170.634 Z50.515 I-2.157 J5.634
X144.046 Y159.366 Z49.853 I2.157 J-5.634
X139.732 Y170.634 Z49.191 I-2.157 J5.634
X144.046 Y159.366 Z48.529 I2.157 J-5.634
X139.732 Y170.634 Z47.867 I-2.157 J5.634
X144.046 Y159.366 Z47.206 I2.157 J-5.634
X139.732 Y170.634 Z46.544 I-2.157 J5.634
X144.046 Y159.366 Z45.882 I2.157 J-5.634
X139.732 Y170.634 Z45.22 I-2.157 J5.634
X144.046 Y159.366 Z44.558 I2.157 J-5.634
X139.732 Y170.634 Z43.897 I-2.157 J5.634
X144.046 Y159.366 Z43.235 I2.157 J-5.634
X139.732 Y170.634 Z42.573 I-2.157 J5.634
X144.046 Y159.366 Z41.911 I2.157 J-5.634
X139.732 Y170.634 Z41.249 I-2.157 J5.634
X144.046 Y159.366 Z40.587 I2.157 J-5.634
X139.732 Y170.634 Z39.926 I-2.157 J5.634
X144.046 Y159.366 Z39.264 I2.157 J-5.634
X147.922 Y165 Z39.01 I-2.157 J5.634
X135.857 I-6.033
X147.645 Y163.195 I6.033
X147.922 Y165 I-5.756 J1.805
G1 X147.925 Y165.323 F849.6
X148.045 Y166.61
X148.069 Y166.687
X148.108 Y166.831
X148.137 Y166.979
X148.158 Y167.127
X148.171 Y167.289
X148.177 Y167.463
X148.172 Y167.65
X148.156 Y167.848
X148.128 Y168.057
X148.087 Y168.275
X148.031 Y168.502
X147.959 Y168.737
X147.871 Y168.978
X147.766 Y169.224
X147.643 Y169.474
X147.501 Y169.725
X147.341 Y169.976
X147.162 Y170.226
X146.964 Y170.473
X146.747 Y170.715
X146.512 Y170.951
X146.259 Y171.179
X145.988 Y171.397
X145.7 Y171.605
X145.396 Y171.799
X145.077 Y171.98
X144.744 Y172.146
X144.397 Y172.295
X144.039 Y172.427
X143.67 Y172.541
X143.291 Y172.636
X142.904 Y172.71
X142.511 Y172.764
X142.112 Y172.797
X141.71 Y172.808
X141.305 Y172.797
X140.899 Y172.764
X140.493 Y172.709
X140.089 Y172.631
X139.688 Y172.532
X139.291 Y172.41
X138.901 Y172.267
X138.518 Y172.102
X138.143 Y171.916
X137.778 Y171.709
X137.424 Y171.483
X137.082 Y171.237
X136.753 Y170.973
X136.439 Y170.691
X136.14 Y170.391
X135.857 Y170.076
X135.591 Y169.745
X135.344 Y169.4
X135.115 Y169.042
X134.906 Y168.672
X134.717 Y168.29
X134.549 Y167.899
X134.403 Y167.499
X134.278 Y167.091
X134.175 Y166.677
X134.096 Y166.258
X134.038 Y165.835
X134.004 Y165.409
X133.993 Y164.982
X134.005 Y164.555
X134.041 Y164.129
X134.099 Y163.705
X134.18 Y163.285
X134.284 Y162.871
X134.41 Y162.462
X134.558 Y162.061
X134.728 Y161.668
X134.919 Y161.285
X135.13 Y160.913
X135.362 Y160.553
X135.612 Y160.206
X135.881 Y159.872
X136.167 Y159.554
X136.471 Y159.252
X136.79 Y158.967
X137.124 Y158.7
X137.473 Y158.451
X137.834 Y158.221
X138.207 Y158.011
X138.591 Y157.822
X138.985 Y157.654
X139.388 Y157.507
X139.797 Y157.383
X140.213 Y157.28
X140.634 Y157.201
X141.058 Y157.144
X141.485 Y157.111
X141.914 Y157.1
X142.342 Y157.113
X142.768 Y157.149
X143.193 Y157.209
X143.613 Y157.291
X144.028 Y157.396
X144.437 Y157.523
X144.839 Y157.672
X145.232 Y157.842
X145.615 Y158.034
X145.987 Y158.246
X146.347 Y158.478
X146.694 Y158.729
X147.026 Y158.999
X147.344 Y159.286
X147.646 Y159.59
X147.93 Y159.91
X148.197 Y160.245
X148.446 Y160.594
X148.675 Y160.956
X148.884 Y161.33
X149.123 Y161.817
X149.502 Y162.707
X149.758 Y163.414
X149.943 Y164.026
X150.077 Y164.578
X150.175 Y165.098
X150.24 Y165.595
X150.276 Y166.07
X150.287 Y166.53
X150.272 Y166.98
X150.234 Y167.421
X150.173 Y167.855
X150.089 Y168.281
X149.982 Y168.7
X149.853 Y169.113
X149.702 Y169.518
X149.529 Y169.915
X149.333 Y170.304
X149.116 Y170.684
X148.876 Y171.054
X148.615 Y171.413
X148.333 Y171.761
X148.029 Y172.095
X147.705 Y172.415
X147.362 Y172.72
X146.999 Y173.008
X146.952 Y173.042
X146.606 Y173.256
X146.237 Y173.426
X145.849 Y173.55
X145.449 Y173.625
X145.043 Y173.65
X139.394
X139.107 Y173.636
X138.802 Y173.604
X138.48 Y173.552
X138.146 Y173.48
X137.808 Y173.388
X137.463 Y173.273
X137.109 Y173.134
X136.75 Y172.969
X136.389 Y172.779
X136.03 Y172.565
X135.677 Y172.328
X135.33 Y172.066
X134.989 Y171.778
X134.657 Y171.466
X134.336 Y171.129
X134.029 Y170.77
X133.737 Y170.389
X133.463 Y169.987
X133.208 Y169.566
X132.975 Y169.129
X132.763 Y168.675
X132.575 Y168.207
X132.411 Y167.725
X132.273 Y167.233
X132.161 Y166.731
X132.076 Y166.22
X132.019 Y165.704
X131.989 Y165.183
X131.988 Y164.659
X132.015 Y164.134
X132.071 Y163.609
X132.155 Y163.087
X132.268 Y162.57
X132.409 Y162.058
X132.578 Y161.553
X132.774 Y161.057
X132.997 Y160.573
X133.247 Y160.1
X133.522 Y159.641
X133.821 Y159.197
X134.145 Y158.77
X134.492 Y158.361
X134.86 Y157.97
X135.249 Y157.6
X135.658 Y157.252
X136.093 Y156.921
X136.519 Y156.675
X136.978 Y156.496
X137.458 Y156.387
X137.949 Y156.35
X144.175
X144.733 Y156.378
X145.029 Y156.409
X145.343 Y156.459
X145.671 Y156.53
X146.004 Y156.621
X146.344 Y156.734
X146.692 Y156.871
X147.048 Y157.034
X147.406 Y157.222
X147.761 Y157.434
X148.111 Y157.67
X148.457 Y157.931
X148.807 Y158.226
X149.173 Y158.571
X149.542 Y158.958
X149.919 Y159.398
X150.177 Y159.735
X150.416 Y160.094
X150.606 Y160.48
X150.744 Y160.888
X150.828 Y161.311
X150.856 Y161.741
G3 X150.742 Y162.223 I-1.269 J-0.044
X148.819 Y162.708 I-1.156 J-0.527
G1 X143.451 Y158.631
G3 X144.175 Y156.35 I0.768 J-1.011
G1 X147.223
X147.432 Y156.361
X147.648 Y156.383
X147.88 Y156.42
X148.136 Y156.475
X148.398 Y156.547
X148.688 Y156.644
X148.984 Y156.76
X149.277 Y156.894
X149.664 Y157.138
X150.01 Y157.439
X150.304 Y157.79
X150.541 Y158.182
X150.715 Y158.606
X150.82 Y159.052
X150.856 Y159.508
G3 X148.796 Y160.458 I-1.269 J-0.044
G1 X146.476 Y158.613
G3 X147.223 Y156.35 I0.79 J-0.994
G1 X149.243
X149.392 Y156.357
X149.728 Y156.435
X150.041 Y156.579
X150.317 Y156.785
X150.545 Y157.043
X150.715 Y157.342
X150.82 Y157.67
X150.856 Y158.013
G3 X150.76 Y158.5 I-1.564 J-0.055
X148.849 Y159.46 I-1.468 J-0.542
X148.755 Y156.445 I0.449 J-1.523
X149.243 Y156.35 I0.543 J1.492
G1 X149.508
X149.699 Y156.357
X149.889 Y156.391
X150.08 Y156.457
X150.27 Y156.561
X150.417 Y156.674
X150.551 Y156.809
X150.651 Y156.943
X150.716 Y157.055
X150.795 Y157.246
X150.84 Y157.436
X150.856 Y157.817
Y169.241
X150.837 Y169.624
X150.807 Y169.906
X150.76 Y170.202
X150.692 Y170.517
X150.603 Y170.843
X150.493 Y171.174
X150.358 Y171.516
X150.196 Y171.868
X150.188 Y171.885
X149.953 Y172.267
X149.669 Y172.613
X149.34 Y172.917
X148.973 Y173.175
X148.575 Y173.38
X148.152 Y173.529
X147.713 Y173.62
X147.266 Y173.65
G3 X146.784 Y173.536 I0.044 J-1.269
X146.288 Y171.628 I0.527 J-1.156
G1 X148.564 Y168.533
G3 X150.856 Y169.241 I1.023 J0.752
G1 Y171.735
X150.848 Y171.896
X150.778 Y172.247
X150.645 Y172.58
X150.454 Y172.883
X150.211 Y173.147
X149.924 Y173.361
X149.602 Y173.52
X149.257 Y173.617
X148.901 Y173.65
G3 X147.18 Y171.29 I0.065 J-1.854
X150.856 Y171.735 I1.803 J0.511
G1 Y172.287
X150.851 Y172.478
X150.82 Y172.668
X150.757 Y172.859
X150.657 Y173.049
X150.585 Y173.151
X150.504 Y173.244
X150.394 Y173.346
X150.284 Y173.43
X150.27 Y173.439
X150.08 Y173.543
X149.889 Y173.609
X149.699 Y173.643
X149.667 Y173.644
X149.168 Y173.645
X139.892 Y173.65
X139.394
X136.556
X136.458 Y173.645
X136.255 Y173.629
X136.027 Y173.599
X135.791 Y173.555
X135.541 Y173.494
X135.27 Y173.411
X134.994 Y173.311
X134.707 Y173.189
X134.404 Y173.04
X134.097 Y172.868
X133.789 Y172.672
X133.472 Y172.446
X133.151 Y172.19
X132.834 Y171.907
X132.525 Y171.6
X132.219 Y171.262
X131.921 Y170.893
X131.632 Y170.493
X131.358 Y170.067
X131.103 Y169.618
X130.867 Y169.147
X130.653 Y168.652
X130.461 Y168.135
X130.294 Y167.596
X130.154 Y167.039
X130.043 Y166.466
X129.962 Y165.88
X129.912 Y165.283
X129.894 Y164.677
X129.909 Y164.066
X129.958 Y163.451
X130.04 Y162.836
X130.157 Y162.222
X130.307 Y161.612
X130.492 Y161.007
X130.71 Y160.411
X130.961 Y159.825
X131.244 Y159.251
X131.559 Y158.691
X131.905 Y158.148
X132.241 Y157.679
X132.315 Y157.586
X132.651 Y157.226
X133.036 Y156.92
X133.462 Y156.675
X133.92 Y156.496
X134.4 Y156.387
X134.89 Y156.35
X137.949
G3 X138.431 Y156.464 I-0.044 J1.269
X139.169 Y157.739 I-0.527 J1.156
G1 X137.776 Y172.5
G3 X137.038 Y173.536 I-1.264 J-0.119
X136.556 Y173.65 I-0.527 J-1.156
G1 X134.27
X134.17 Y173.645
X133.989 Y173.632
X133.785 Y173.605
X133.574 Y173.567
X133.346 Y173.512
X133.099 Y173.438
X132.849 Y173.348
X132.58 Y173.234
X132.298 Y173.097
X132.015 Y172.94
X131.718 Y172.753
X131.412 Y172.536
X131.11 Y172.297
X130.804 Y172.027
X130.494 Y171.72
X130.187 Y171.382
X129.891 Y171.02
X129.603 Y170.624
X129.322 Y170.191
X129.054 Y169.723
X128.803 Y169.227
X128.575 Y168.706
X128.37 Y168.159
X128.189 Y167.582
X128.035 Y166.979
X127.911 Y166.352
X127.819 Y165.704
X127.761 Y165.039
X127.738 Y164.36
X127.753 Y163.672
X127.805 Y162.977
X127.896 Y162.278
X128.027 Y161.577
X128.197 Y160.877
X128.406 Y160.18
X128.635 Y159.547
X128.876 Y158.979
X129.104 Y158.511
X129.356 Y158.061
X129.466 Y157.887
X129.747 Y157.506
X130.081 Y157.168
X130.459 Y156.882
X130.875 Y156.653
X131.319 Y156.486
X131.782 Y156.384
X132.255 Y156.35
X134.89
G3 X135.373 Y156.464 I-0.044 J1.269
X136.115 Y157.673 I-0.527 J1.156
G1 X135.494 Y172.434
G3 X134.752 Y173.536 I-1.269 J-0.053
X134.27 Y173.65 I-0.527 J-1.156
G1 X132.155
X131.918 Y173.638
X131.728 Y173.618
X131.53 Y173.587
X131.314 Y173.54
X131.081 Y173.476
X130.843 Y173.397
X130.584 Y173.295
X130.316 Y173.172
X130.042 Y173.028
X129.749 Y172.853
X129.454 Y172.655
X129.155 Y172.429
X128.845 Y172.167
X128.533 Y171.874
X128.229 Y171.555
X127.923 Y171.198
X127.618 Y170.799
X127.324 Y170.368
X127.047 Y169.91
X126.781 Y169.412
X126.529 Y168.873
X126.297 Y168.295
X126.091 Y167.69
X125.915 Y167.061
X125.768 Y166.402
X125.653 Y165.713
X125.574 Y164.998
X125.532 Y164.259
X125.53 Y163.502
X125.569 Y162.74
X125.65 Y161.984
X125.768 Y161.251
X125.922 Y160.543
X126.091 Y159.929
X126.277 Y159.376
X126.469 Y158.89
X126.667 Y158.459
X126.88 Y158.056
X126.979 Y157.891
X127.248 Y157.509
X127.569 Y157.171
X127.937 Y156.884
X128.343 Y156.654
X128.778 Y156.487
X129.233 Y156.384
X129.698 Y156.35
X132.255
G3 X132.738 Y156.464 I-0.044 J1.269
X133.481 Y157.628 I-0.527 J1.156
G1 X133.381 Y172.389
G3 X132.155 Y173.65 I-1.27 J-0.009
G1 X130.079
X129.799 Y173.636
X129.619 Y173.617
X129.416 Y173.585
X129.204 Y173.539
X128.977 Y173.477
X128.729 Y173.395
X128.479 Y173.296
X128.208 Y173.172
X127.926 Y173.023
X127.642 Y172.854
X127.34 Y172.651
X127.032 Y172.418
X126.726 Y172.16
X126.408 Y171.861
X126.088 Y171.525
X125.779 Y171.163
X125.469 Y170.759
X125.162 Y170.31
X124.868 Y169.823
X124.593 Y169.309
X124.333 Y168.75
X124.09 Y168.146
X123.869 Y167.498
X123.679 Y166.82
X123.523 Y166.118
X123.401 Y165.385
X123.316 Y164.626
X123.272 Y163.849
X123.27 Y163.074
X123.31 Y162.311
X123.388 Y161.573
X123.501 Y160.873
X123.637 Y160.251
X123.797 Y159.668
X123.957 Y159.19
X124.142 Y158.723
X124.322 Y158.332
X124.528 Y157.942
X124.806 Y157.548
X125.138 Y157.199
X125.518 Y156.902
X125.937 Y156.665
X126.387 Y156.491
X126.857 Y156.385
X127.337 Y156.35
X129.698
G3 X130.923 Y157.586 I-0.044 J1.269
G1 X131.304 Y172.348
G3 X130.079 Y173.65 I-1.27 J0.033
G1 X127.965
X127.688 Y173.636
X127.507 Y173.617
X127.301 Y173.584
X127.088 Y173.538
X126.857 Y173.475
X126.608 Y173.392
X126.355 Y173.293
X126.078 Y173.166
X125.795 Y173.017
X125.503 Y172.843
X125.193 Y172.634
X124.884 Y172.401
X124.569 Y172.135
X124.24 Y171.825
X123.916 Y171.486
X123.596 Y171.111
X123.271 Y170.687
X122.952 Y170.22
X122.652 Y169.725
X122.363 Y169.183
X122.087 Y168.592
X121.831 Y167.953
X121.603 Y167.285
X121.408 Y166.588
X121.245 Y165.857
X121.119 Y165.099
X121.033 Y164.325
X120.989 Y163.549
X120.987 Y162.781
X121.025 Y162.038
X121.101 Y161.329
X121.209 Y160.657
X121.331 Y160.095
X121.479 Y159.559
X121.63 Y159.107
X121.804 Y158.669
X121.978 Y158.292
X122.176 Y157.915
X122.449 Y157.528
X122.776 Y157.185
X123.149 Y156.893
X123.562 Y156.659
X124.004 Y156.489
X124.466 Y156.385
X124.939 Y156.35
X127.337
G3 X128.562 Y157.565 I-0.044 J1.269
G1 X129.189 Y172.327
G3 X127.965 Y173.65 I-1.269 J0.054
G1 X125.773
X125.56 Y173.639
X125.375 Y173.62
X125.166 Y173.587
X124.951 Y173.54
X124.715 Y173.476
X124.464 Y173.392
X124.204 Y173.29
X123.92 Y173.16
X123.635 Y173.01
X123.334 Y172.83
X123.016 Y172.616
X122.703 Y172.38
X122.374 Y172.102
X122.036 Y171.784
X121.707 Y171.439
X121.372 Y171.047
X121.034 Y170.606
X120.711 Y170.133
X120.401 Y169.621
X120.099 Y169.055
X119.812 Y168.44
X119.55 Y167.789
X119.32 Y167.11
X119.119 Y166.396
X118.953 Y165.652
X118.826 Y164.888
X118.74 Y164.112
X118.696 Y163.347
X118.694 Y162.595
X118.732 Y161.877
X118.804 Y161.195
X118.909 Y160.546
X119.028 Y160
X119.17 Y159.486
X119.319 Y159.041
X119.486 Y158.617
X119.658 Y158.245
X119.851 Y157.879
X120.117 Y157.5
X120.436 Y157.165
X120.801 Y156.88
X121.204 Y156.652
X121.636 Y156.485
X122.088 Y156.384
X122.549 Y156.35
X124.939
G3 X125.421 Y156.464 I-0.044 J1.269
X126.163 Y157.548 I-0.527 J1.156
G1 X126.997 Y172.309
G3 X126.256 Y173.536 I-1.268 J0.072
X125.773 Y173.65 I-0.527 J-1.156
G1 X123.603
X123.501 Y173.645
X123.314 Y173.631
X123.12 Y173.606
X122.903 Y173.566
X122.673 Y173.511
X122.431 Y173.438
X122.164 Y173.342
X121.895 Y173.229
X121.603 Y173.086
X121.3 Y172.918
X120.993 Y172.724
X120.664 Y172.492
X120.335 Y172.23
X120.001 Y171.935
X119.652 Y171.591
X119.309 Y171.213
X118.972 Y170.8
X118.633 Y170.334
X118.299 Y169.818
X117.986 Y169.272
X117.69 Y168.684
X117.411 Y168.047
X117.157 Y167.367
X116.933 Y166.653
X116.744 Y165.914
X116.595 Y165.16
X116.486 Y164.395
X116.42 Y163.636
X116.396 Y162.893
X116.411 Y162.174
X116.464 Y161.478
X116.551 Y160.813
X116.659 Y160.229
X116.79 Y159.69
X116.927 Y159.238
X117.088 Y158.792
X117.248 Y158.413
X117.433 Y158.035
X117.497 Y157.921
X117.754 Y157.533
X118.066 Y157.19
X118.427 Y156.897
X118.827 Y156.662
X119.258 Y156.49
X119.711 Y156.385
X120.174 Y156.35
X122.549
G3 X123.031 Y156.464 I-0.044 J1.269
X123.772 Y157.529 I-0.527 J1.156
G1 X124.825 Y172.29
G3 X124.085 Y173.536 I-1.267 J0.09
X123.603 Y173.65 I-0.527 J-1.156
G1 X121.488
X121.206 Y173.636
X121.009 Y173.615
X120.803 Y173.582
X120.571 Y173.532
X120.334 Y173.467
X120.073 Y173.381
X119.799 Y173.273
X119.516 Y173.143
X119.208 Y172.981
X118.9 Y172.797
X118.575 Y172.579
X118.235 Y172.322
X117.902 Y172.041
X117.555 Y171.714
X117.199 Y171.341
X116.856 Y170.94
X116.511 Y170.49
X116.168 Y169.987
X115.837 Y169.441
X115.53 Y168.865
X115.24 Y168.243
X114.972 Y167.577
X114.734 Y166.876
X114.529 Y166.147
X114.362 Y165.398
X114.235 Y164.637
X114.151 Y163.878
X114.108 Y163.129
X114.106 Y162.403
X114.143 Y161.699
X114.215 Y161.027
X114.312 Y160.423
X114.434 Y159.865
X114.564 Y159.393
X114.717 Y158.936
X114.872 Y158.544
X115.048 Y158.161
X115.124 Y158.016
X115.383 Y157.607
X115.701 Y157.243
X116.072 Y156.932
X116.487 Y156.682
X116.935 Y156.499
X117.406 Y156.387
X117.888 Y156.35
X120.174
G3 X120.656 Y156.464 I-0.044 J1.269
X121.395 Y157.507 I-0.527 J1.156
G1 X122.709 Y172.268
G3 X121.971 Y173.536 I-1.265 J0.113
X121.488 Y173.65 I-0.527 J-1.156
G1 X119.202
X118.992 Y173.639
X118.795 Y173.619
X118.58 Y173.585
X118.354 Y173.536
X118.102 Y173.467
X117.847 Y173.382
X117.566 Y173.271
X117.276 Y173.138
X116.973 Y172.979
X116.648 Y172.785
X116.325 Y172.567
X115.986 Y172.312
X115.633 Y172.014
X115.289 Y171.69
X114.936 Y171.32
X114.575 Y170.898
X114.227 Y170.444
X113.89 Y169.949
X113.558 Y169.401
X113.239 Y168.804
X112.943 Y168.169
X112.676 Y167.506
X112.44 Y166.81
X112.236 Y166.084
X112.069 Y165.335
X111.942 Y164.573
X111.857 Y163.811
X111.814 Y163.058
X111.813 Y162.333
X111.849 Y161.641
X111.919 Y160.981
X112.013 Y160.401
X112.134 Y159.843
X112.26 Y159.386
X112.413 Y158.929
X112.564 Y158.548
X112.742 Y158.16
X112.808 Y158.035
X113.07 Y157.621
X113.392 Y157.253
X113.767 Y156.938
X114.186 Y156.686
X114.638 Y156.501
X115.115 Y156.388
X115.602 Y156.35
X117.888
G3 X118.371 Y156.464 I-0.044 J1.269
X119.109 Y157.507 I-0.527 J1.156
G1 X120.423 Y172.268
G3 X119.685 Y173.536 I-1.265 J0.113
X119.202 Y173.65 I-0.527 J-1.156
G1 X116.917
X116.836 Y173.646
X116.64 Y173.63
X116.438 Y173.603
X116.209 Y173.559
X115.973 Y173.501
X115.714 Y173.421
X115.438 Y173.32
X115.155 Y173.199
X114.847 Y173.046
X114.536 Y172.871
X114.21 Y172.662
X113.865 Y172.415
X113.525 Y172.142
X113.171 Y171.824
X112.808 Y171.461
X112.456 Y171.069
X112.104 Y170.631
X111.751 Y170.14
X111.408 Y169.604
X111.088 Y169.038
X110.786 Y168.427
X110.503 Y167.771
X110.248 Y167.076
X110.026 Y166.352
X109.842 Y165.608
X109.697 Y164.852
X109.595 Y164.098
X109.534 Y163.349
X109.515 Y162.623
X109.535 Y161.916
X109.59 Y161.241
X109.674 Y160.629
X109.783 Y160.065
X109.904 Y159.581
X110.046 Y159.12
X110.196 Y158.713
X110.361 Y158.33
X110.542 Y157.966
X110.81 Y157.567
X111.135 Y157.213
X111.508 Y156.912
X111.923 Y156.67
X112.37 Y156.494
X112.838 Y156.386
X113.317 Y156.35
X115.602
G3 X116.085 Y156.464 I-0.044 J1.269
X116.823 Y157.507 I-0.527 J1.156
G1 X118.137 Y172.268
G3 X117.399 Y173.536 I-1.265 J0.113
X116.917 Y173.65 I-0.527 J-1.156
G1 X114.631
X114.481 Y173.643
X114.284 Y173.621
X114.063 Y173.585
X113.828 Y173.533
X113.58 Y173.464
X113.307 Y173.371
X113.031 Y173.261
X112.729 Y173.121
X112.417 Y172.955
X112.097 Y172.762
X111.754 Y172.529
X111.413 Y172.27
X111.064 Y171.973
X110.7 Y171.627
X110.343 Y171.249
X109.989 Y170.831
X109.631 Y170.359
X109.279 Y169.838
X108.949 Y169.287
X108.635 Y168.694
X108.341 Y168.054
X108.071 Y167.375
X107.833 Y166.664
X107.631 Y165.93
X107.467 Y165.179
X107.345 Y164.424
X107.265 Y163.674
X107.226 Y162.942
X107.228 Y162.229
X107.267 Y161.541
X107.339 Y160.886
X107.433 Y160.324
X107.552 Y159.787
X107.678 Y159.34
X107.829 Y158.894
X107.981 Y158.516
X108.158 Y158.137
X108.207 Y158.044
X108.472 Y157.628
X108.798 Y157.257
X109.178 Y156.941
X109.601 Y156.687
X110.058 Y156.501
X110.539 Y156.388
X111.031 Y156.35
X113.317
G3 X113.799 Y156.464 I-0.044 J1.269
X114.537 Y157.507 I-0.527 J1.156
G1 X115.852 Y172.268
G3 X115.113 Y173.536 I-1.265 J0.113
X114.631 Y173.65 I-0.527 J-1.156
G1 X112.439
X112.229 Y173.639
X112.023 Y173.618
X111.811 Y173.584
X111.575 Y173.533
X111.324 Y173.464
X111.061 Y173.377
X110.772 Y173.263
X110.481 Y173.13
X110.165 Y172.964
X109.839 Y172.769
X109.509 Y172.547
X109.157 Y172.282
X108.805 Y171.985
X108.452 Y171.652
X108.086 Y171.269
X107.722 Y170.843
X107.373 Y170.386
X107.025 Y169.877
X106.685 Y169.316
X106.363 Y168.712
X106.067 Y168.078
X105.799 Y167.411
X105.56 Y166.709
X105.356 Y165.979
X105.189 Y165.231
X105.062 Y164.471
X104.978 Y163.719
X104.936 Y162.977
X104.935 Y162.266
X104.97 Y161.586
X105.039 Y160.937
X105.13 Y160.376
X105.248 Y159.831
X105.372 Y159.382
X105.523 Y158.931
X105.672 Y158.554
X105.85 Y158.168
X105.906 Y158.062
X106.171 Y157.642
X106.498 Y157.267
X106.879 Y156.948
X107.305 Y156.691
X107.765 Y156.503
X108.249 Y156.389
X108.745 Y156.35
X111.031
G3 X111.513 Y156.464 I-0.044 J1.269
X112.251 Y157.499 I-0.527 J1.156
G1 X113.659 Y172.26
G3 X112.922 Y173.536 I-1.264 J0.121
X112.439 Y173.65 I-0.527 J-1.156
G1 X110.154
X110.055 Y173.645
X109.862 Y173.631
X109.657 Y173.604
X109.426 Y173.561
X109.189 Y173.504
X108.925 Y173.424
X108.653 Y173.326
X108.364 Y173.204
X108.053 Y173.052
X107.742 Y172.879
X107.406 Y172.667
X107.062 Y172.423
X106.717 Y172.149
X106.355 Y171.827
X105.991 Y171.468
X105.636 Y171.076
X105.275 Y170.633
X104.916 Y170.138
X104.574 Y169.609
X104.249 Y169.043
X103.94 Y168.427
X103.652 Y167.768
X103.393 Y167.073
X103.168 Y166.352
X102.98 Y165.612
X102.832 Y164.861
X102.726 Y164.113
X102.662 Y163.373
X102.639 Y162.654
X102.655 Y161.954
X102.706 Y161.283
X102.787 Y160.671
X102.891 Y160.113
X103.01 Y159.625
X103.149 Y159.168
X103.298 Y158.756
X103.459 Y158.377
X103.638 Y158.012
X103.645 Y158
X103.915 Y157.593
X104.243 Y157.232
X104.622 Y156.924
X105.043 Y156.677
X105.497 Y156.497
X105.972 Y156.387
X106.459 Y156.35
X108.745
G3 X109.227 Y156.464 I-0.044 J1.269
X109.965 Y157.499 I-0.527 J1.156
G1 X111.374 Y172.26
G3 X110.636 Y173.536 I-1.264 J0.121
X110.154 Y173.65 I-0.527 J-1.156
G1 X107.868
X107.771 Y173.645
X107.58 Y173.631
X107.366 Y173.602
X107.144 Y173.561
X106.895 Y173.5
X106.64 Y173.423
X106.363 Y173.323
X106.068 Y173.197
X105.767 Y173.05
X105.44 Y172.867
X105.112 Y172.659
X104.772 Y172.417
X104.413 Y172.131
X104.061 Y171.818
X103.702 Y171.461
X103.333 Y171.053
X102.971 Y170.607
X102.622 Y170.126
X102.278 Y169.592
X101.945 Y169.008
X101.633 Y168.384
X101.348 Y167.729
X101.094 Y167.045
X100.872 Y166.332
X100.686 Y165.595
X100.539 Y164.843
X100.434 Y164.088
X100.371 Y163.341
X100.349 Y162.62
X100.365 Y161.929
X100.417 Y161.267
X100.501 Y160.639
X100.602 Y160.103
X100.725 Y159.602
X100.859 Y159.162
X101.012 Y158.74
X101.169 Y158.372
X101.353 Y158.001
X101.624 Y157.594
X101.953 Y157.232
X102.333 Y156.924
X102.755 Y156.677
X103.209 Y156.497
X103.686 Y156.387
X104.173 Y156.35
X106.459
G3 X107.679 Y157.499 I-0.044 J1.269
G1 X109.088 Y172.26
G3 X108.35 Y173.536 I-1.264 J0.121
X107.868 Y173.65 I-0.527 J-1.156
G1 X105.582
X105.486 Y173.645
X105.295 Y173.63
X105.081 Y173.602
X104.859 Y173.561
X104.609 Y173.5
X104.354 Y173.422
X104.074 Y173.321
X103.78 Y173.196
X103.479 Y173.048
X103.151 Y172.864
X102.824 Y172.657
X102.481 Y172.413
X102.121 Y172.125
X101.768 Y171.811
X101.407 Y171.452
X101.037 Y171.043
X100.677 Y170.598
X100.328 Y170.116
X99.985 Y169.582
X99.652 Y168.999
X99.34 Y168.374
X99.056 Y167.72
X98.802 Y167.035
X98.58 Y166.32
X98.394 Y165.582
X98.248 Y164.831
X98.143 Y164.075
X98.08 Y163.33
X98.058 Y162.609
X98.075 Y161.918
X98.127 Y161.259
X98.211 Y160.631
X98.312 Y160.098
X98.435 Y159.598
X98.569 Y159.159
X98.722 Y158.738
X98.88 Y158.37
X99.062 Y158.001
X99.333 Y157.594
X99.663 Y157.232
X100.043 Y156.924
X100.465 Y156.677
X100.92 Y156.497
X101.397 Y156.387
X101.884 Y156.35
X104.173
G3 X105.393 Y157.499 I-0.044 J1.269
G1 X106.802 Y172.26
G3 X105.582 Y173.65 I-1.264 J0.121
G1 X103.296
X103.2 Y173.645
X103.008 Y173.63
X102.794 Y173.602
X102.572 Y173.56
X102.321 Y173.499
X102.066 Y173.422
X101.786 Y173.32
X101.491 Y173.195
X101.19 Y173.047
X100.862 Y172.863
X100.534 Y172.655
X100.191 Y172.411
X99.831 Y172.123
X99.478 Y171.809
X99.116 Y171.45
X98.746 Y171.04
X98.386 Y170.595
X98.038 Y170.113
X97.694 Y169.578
X97.361 Y168.994
X97.049 Y168.369
X96.765 Y167.715
X96.511 Y167.03
X96.289 Y166.314
X96.103 Y165.577
X95.957 Y164.826
X95.852 Y164.069
X95.789 Y163.325
X95.768 Y162.605
X95.785 Y161.915
X95.837 Y161.256
X95.921 Y160.629
X96.022 Y160.096
X96.145 Y159.597
X96.279 Y159.158
X96.432 Y158.737
X96.589 Y158.37
X96.772 Y158
X97.043 Y157.593
X97.373 Y157.232
X97.753 Y156.924
X98.175 Y156.677
X98.63 Y156.497
X99.106 Y156.387
X99.594 Y156.35
X101.884
G3 X102.367 Y156.464 I-0.044 J1.269
X103.104 Y157.498 I-0.527 J1.156
G1 X104.516 Y172.26
G3 X103.779 Y173.536 I-1.264 J0.121
X103.296 Y173.65 I-0.527 J-1.156
G1 X101.01
X100.913 Y173.645
X100.721 Y173.63
X100.507 Y173.602
X100.285 Y173.561
X100.034 Y173.499
X99.779 Y173.422
X99.498 Y173.32
X99.204 Y173.195
X98.902 Y173.047
X98.574 Y172.863
X98.247 Y172.656
X97.904 Y172.411
X97.543 Y172.124
X97.19 Y171.809
X96.828 Y171.45
X96.458 Y171.04
X96.098 Y170.596
X95.749 Y170.114
X95.405 Y169.579
X95.072 Y168.994
X94.76 Y168.37
X94.476 Y167.716
X94.222 Y167.031
X94 Y166.315
X93.814 Y165.578
X93.668 Y164.827
X93.562 Y164.071
X93.5 Y163.327
X93.478 Y162.607
X93.495 Y161.917
X93.547 Y161.258
X93.631 Y160.631
X93.731 Y160.098
X93.854 Y159.599
X93.988 Y159.16
X94.141 Y158.739
X94.299 Y158.371
X94.481 Y158.001
X94.752 Y157.594
X95.082 Y157.232
X95.462 Y156.925
X95.885 Y156.678
X96.34 Y156.497
X96.816 Y156.387
X97.304 Y156.35
X99.594
G3 X100.076 Y156.464 I-0.044 J1.269
X100.814 Y157.498 I-0.527 J1.156
G1 X102.23 Y172.259
G3 X101.493 Y173.536 I-1.264 J0.121
X101.01 Y173.65 I-0.527 J-1.156
G1 X98.725
X98.626 Y173.645
X98.434 Y173.63
X98.22 Y173.602
X97.998 Y173.561
X97.747 Y173.5
X97.492 Y173.422
X97.211 Y173.321
X96.918 Y173.196
X96.616 Y173.048
X96.288 Y172.864
X95.96 Y172.657
X95.617 Y172.412
X95.256 Y172.125
X94.903 Y171.811
X94.541 Y171.452
X94.171 Y171.042
X93.811 Y170.598
X93.462 Y170.116
X93.117 Y169.581
X92.784 Y168.997
X92.472 Y168.373
X92.188 Y167.72
X91.934 Y167.035
X91.711 Y166.319
X91.525 Y165.582
X91.379 Y164.831
X91.273 Y164.075
X91.21 Y163.331
X91.188 Y162.611
X91.205 Y161.921
X91.256 Y161.262
X91.34 Y160.635
X91.44 Y160.102
X91.563 Y159.602
X91.697 Y159.163
X91.85 Y158.742
X92.007 Y158.374
X92.19 Y158.004
X92.461 Y157.596
X92.791 Y157.234
X93.172 Y156.926
X93.595 Y156.678
X94.05 Y156.497
X94.528 Y156.387
X95.016 Y156.35
X97.304
G3 X97.787 Y156.464 I-0.044 J1.269
X98.524 Y157.498 I-0.527 J1.156
G1 X99.944 Y172.259
G3 X99.207 Y173.536 I-1.264 J0.122
X98.725 Y173.65 I-0.527 J-1.156
G1 X96.439
X96.339 Y173.645
X96.147 Y173.63
X95.933 Y173.602
X95.711 Y173.561
X95.46 Y173.5
X95.205 Y173.423
X94.925 Y173.322
X94.631 Y173.197
X94.329 Y173.049
X94.001 Y172.866
X93.674 Y172.659
X93.33 Y172.414
X92.97 Y172.127
X92.617 Y171.814
X92.255 Y171.455
X91.884 Y171.046
X91.525 Y170.602
X91.175 Y170.12
X90.83 Y169.586
X90.497 Y169.002
X90.185 Y168.378
X89.901 Y167.725
X89.646 Y167.041
X89.423 Y166.325
X89.237 Y165.588
X89.09 Y164.837
X88.984 Y164.081
X88.92 Y163.337
X88.898 Y162.617
X88.914 Y161.926
X88.966 Y161.267
X89.049 Y160.64
X89.149 Y160.107
X89.272 Y159.607
X89.405 Y159.168
X89.559 Y158.746
X89.715 Y158.378
X89.898 Y158.007
X90.17 Y157.599
X90.5 Y157.236
X90.882 Y156.927
X91.305 Y156.679
X91.761 Y156.498
X92.24 Y156.387
X92.729 Y156.35
X95.016
G3 X96.236 Y157.497 I-0.044 J1.269
G1 X97.659 Y172.259
G3 X96.921 Y173.536 I-1.264 J0.122
X96.439 Y173.65 I-0.527 J-1.156
G1 X94.153
X94.051 Y173.645
X93.86 Y173.63
X93.646 Y173.603
X93.424 Y173.561
X93.173 Y173.5
X92.918 Y173.424
X92.638 Y173.323
X92.344 Y173.198
X92.042 Y173.05
X91.715 Y172.867
X91.387 Y172.661
X91.044 Y172.417
X90.684 Y172.13
X90.331 Y171.817
X89.969 Y171.458
X89.598 Y171.049
X89.238 Y170.606
X88.889 Y170.125
X88.544 Y169.591
X88.21 Y169.007
X87.898 Y168.384
X87.613 Y167.731
X87.358 Y167.047
X87.135 Y166.332
X86.948 Y165.595
X86.801 Y164.844
X86.695 Y164.089
X86.631 Y163.345
X86.608 Y162.624
X86.624 Y161.933
X86.675 Y161.274
X86.758 Y160.646
X86.858 Y160.113
X86.981 Y159.612
X87.114 Y159.174
X87.267 Y158.751
X87.424 Y158.383
X87.606 Y158.012
X87.879 Y157.602
X88.21 Y157.238
X88.592 Y156.928
X89.016 Y156.68
X89.473 Y156.498
X89.953 Y156.387
X90.443 Y156.35
X92.729
G3 X93.211 Y156.464 I-0.044 J1.269
X93.949 Y157.497 I-0.527 J1.156
G1 X95.373 Y172.259
G3 X94.635 Y173.536 I-1.264 J0.122
X94.153 Y173.65 I-0.527 J-1.156
G1 X91.867
X91.764 Y173.645
X91.572 Y173.63
X91.358 Y173.603
X91.137 Y173.562
X90.886 Y173.501
X90.631 Y173.424
X90.352 Y173.324
X90.058 Y173.199
X89.756 Y173.052
X89.429 Y172.869
X89.101 Y172.663
X88.758 Y172.419
X88.398 Y172.133
X88.045 Y171.82
X87.683 Y171.462
X87.312 Y171.054
X86.952 Y170.611
X86.603 Y170.13
X86.258 Y169.596
X85.924 Y169.014
X85.611 Y168.391
X85.326 Y167.738
X85.071 Y167.054
X84.848 Y166.339
X84.66 Y165.602
X84.513 Y164.852
X84.406 Y164.097
X84.342 Y163.353
X84.319 Y162.632
X84.334 Y161.941
X84.385 Y161.282
X84.467 Y160.654
X84.567 Y160.12
X84.69 Y159.619
X84.822 Y159.18
X84.976 Y158.757
X85.132 Y158.389
X85.314 Y158.017
X85.587 Y157.606
X85.919 Y157.241
X86.302 Y156.93
X86.728 Y156.681
X87.186 Y156.498
X87.667 Y156.387
X88.158 Y156.35
X90.443
G3 X90.926 Y156.464 I-0.044 J1.269
X91.663 Y157.497 I-0.527 J1.156
G1 X93.087 Y172.259
G3 X92.35 Y173.536 I-1.264 J0.122
X91.867 Y173.65 I-0.527 J-1.156
G1 X89.581
X89.37 Y173.639
X89.173 Y173.619
X88.951 Y173.583
X88.715 Y173.532
X88.464 Y173.464
X88.188 Y173.372
X87.909 Y173.262
X87.605 Y173.122
X87.291 Y172.958
X86.967 Y172.765
X86.621 Y172.531
X86.277 Y172.272
X85.922 Y171.972
X85.552 Y171.625
X85.192 Y171.247
X84.833 Y170.827
X84.472 Y170.355
X84.117 Y169.835
X83.783 Y169.284
X83.467 Y168.692
X83.169 Y168.053
X82.897 Y167.375
X82.656 Y166.666
X82.451 Y165.935
X82.285 Y165.19
X82.159 Y164.438
X82.077 Y163.696
X82.035 Y162.967
X82.033 Y162.26
X82.069 Y161.576
X82.138 Y160.926
X82.228 Y160.371
X82.345 Y159.834
X82.467 Y159.388
X82.617 Y158.94
X82.768 Y158.561
X82.943 Y158.18
X82.985 Y158.1
X83.219 Y157.721
X83.502 Y157.378
X83.828 Y157.076
X84.193 Y156.821
X84.588 Y156.618
X85.008 Y156.47
X85.443 Y156.38
X85.887 Y156.35
X88.158
G3 X88.641 Y156.464 I-0.044 J1.269
X89.378 Y157.497 I-0.527 J1.156
G1 X90.801 Y172.259
G3 X90.064 Y173.536 I-1.264 J0.122
X89.581 Y173.65 I-0.527 J-1.156
G1 X87.296
X87.085 Y173.639
X86.878 Y173.618
X86.663 Y173.583
X86.425 Y173.532
X86.17 Y173.462
X85.905 Y173.374
X85.613 Y173.259
X85.319 Y173.124
X85.001 Y172.958
X84.67 Y172.76
X84.338 Y172.536
X83.984 Y172.269
X83.627 Y171.968
X83.272 Y171.634
X82.905 Y171.249
X82.536 Y170.818
X82.184 Y170.358
X81.836 Y169.847
X81.496 Y169.286
X81.171 Y168.679
X80.873 Y168.039
X80.605 Y167.371
X80.367 Y166.671
X80.163 Y165.944
X79.996 Y165.198
X79.87 Y164.442
X79.787 Y163.694
X79.745 Y162.96
X79.744 Y162.256
X79.779 Y161.584
X79.847 Y160.937
X79.938 Y160.374
X80.052 Y159.853
X80.181 Y159.383
X80.322 Y158.962
X80.483 Y158.557
X80.648 Y158.197
X80.7 Y158.1
X80.933 Y157.721
X81.216 Y157.378
X81.543 Y157.076
X81.907 Y156.821
X82.303 Y156.618
X82.722 Y156.47
X83.158 Y156.38
X83.601 Y156.35
X85.887
G3 X86.369 Y156.464 I-0.044 J1.269
X87.107 Y157.499 I-0.527 J1.156
G1 X88.516 Y172.26
G3 X87.778 Y173.536 I-1.264 J0.121
X87.296 Y173.65 I-0.527 J-1.156
G1 X85.01
X84.795 Y173.639
X84.588 Y173.618
X84.373 Y173.583
X84.135 Y173.532
X83.881 Y173.462
X83.615 Y173.374
X83.323 Y173.259
X83.029 Y173.124
X82.713 Y172.958
X82.381 Y172.76
X82.049 Y172.537
X81.695 Y172.269
X81.337 Y171.967
X80.981 Y171.632
X80.614 Y171.247
X80.245 Y170.816
X79.893 Y170.356
X79.546 Y169.847
X79.206 Y169.287
X78.882 Y168.68
X78.584 Y168.041
X78.315 Y167.372
X78.077 Y166.67
X77.873 Y165.943
X77.707 Y165.199
X77.581 Y164.444
X77.498 Y163.696
X77.456 Y162.964
X77.455 Y162.262
X77.489 Y161.588
X77.558 Y160.943
X77.649 Y160.379
X77.763 Y159.857
X77.893 Y159.386
X78.034 Y158.964
X78.194 Y158.559
X78.36 Y158.199
X78.412 Y158.101
X78.646 Y157.722
X78.929 Y157.379
X79.255 Y157.077
X79.62 Y156.822
X80.016 Y156.618
X80.436 Y156.47
X80.871 Y156.38
X81.315 Y156.35
X83.601
G3 X84.821 Y157.499 I-0.044 J1.269
G1 X86.23 Y172.26
G3 X85.492 Y173.536 I-1.264 J0.121
X85.01 Y173.65 I-0.527 J-1.156
G1 X82.724
X82.505 Y173.639
X82.298 Y173.617
X82.083 Y173.583
X81.846 Y173.532
X81.591 Y173.462
X81.325 Y173.374
X81.033 Y173.258
X80.739 Y173.124
X80.423 Y172.958
X80.091 Y172.76
X79.759 Y172.537
X79.405 Y172.269
X79.047 Y171.967
X78.691 Y171.632
X78.324 Y171.247
X77.956 Y170.817
X77.604 Y170.357
X77.256 Y169.847
X76.917 Y169.287
X76.593 Y168.68
X76.295 Y168.041
X76.026 Y167.372
X75.788 Y166.672
X75.584 Y165.945
X75.418 Y165.201
X75.292 Y164.447
X75.209 Y163.699
X75.168 Y162.968
X75.166 Y162.265
X75.201 Y161.591
X75.269 Y160.946
X75.361 Y160.382
X75.475 Y159.859
X75.604 Y159.388
X75.745 Y158.965
X75.906 Y158.56
X76.072 Y158.2
X76.123 Y158.102
X76.357 Y157.723
X76.641 Y157.38
X76.968 Y157.077
X77.333 Y156.822
X77.729 Y156.618
X78.149 Y156.47
X78.585 Y156.38
X79.03 Y156.35
X81.315
G3 X82.535 Y157.499 I-0.044 J1.269
G1 X83.944 Y172.26
G3 X82.724 Y173.65 I-1.264 J0.121
G1 X80.438
X80.215 Y173.639
X80.009 Y173.617
X79.794 Y173.583
X79.556 Y173.531
X79.301 Y173.462
X79.035 Y173.373
X78.743 Y173.258
X78.449 Y173.124
X78.133 Y172.957
X77.802 Y172.76
X77.47 Y172.536
X77.115 Y172.269
X76.757 Y171.967
X76.402 Y171.632
X76.034 Y171.247
X75.666 Y170.817
X75.314 Y170.357
X74.967 Y169.848
X74.627 Y169.287
X74.304 Y168.681
X74.006 Y168.042
X73.737 Y167.374
X73.499 Y166.673
X73.295 Y165.947
X73.129 Y165.203
X73.004 Y164.45
X72.92 Y163.702
X72.879 Y162.97
X72.877 Y162.267
X72.912 Y161.593
X72.981 Y160.948
X73.072 Y160.383
X73.186 Y159.86
X73.316 Y159.39
X73.457 Y158.967
X73.618 Y158.562
X73.784 Y158.201
X73.835 Y158.104
X74.069 Y157.725
X74.353 Y157.381
X74.68 Y157.078
X75.045 Y156.822
X75.442 Y156.619
X75.862 Y156.47
X76.299 Y156.38
X76.744 Y156.35
X79.03
G3 X79.512 Y156.464 I-0.044 J1.269
X80.25 Y157.499 I-0.527 J1.156
G1 X81.658 Y172.26
G3 X80.438 Y173.65 I-1.264 J0.121
G1 X78.058
X77.908 Y173.643
X77.7 Y173.619
X77.481 Y173.583
X77.243 Y173.53
X76.983 Y173.457
X76.717 Y173.367
X76.423 Y173.249
X76.125 Y173.11
X75.81 Y172.941
X75.474 Y172.738
X75.141 Y172.511
X74.788 Y172.241
X74.425 Y171.931
X74.07 Y171.593
X73.705 Y171.205
X73.336 Y170.767
X72.982 Y170.298
X72.638 Y169.787
X72.302 Y169.225
X71.981 Y168.615
X71.684 Y167.966
X71.417 Y167.289
X71.183 Y166.586
X70.984 Y165.859
X70.823 Y165.114
X70.702 Y164.361
X70.624 Y163.616
X70.587 Y162.89
X70.59 Y162.193
X70.629 Y161.52
X70.702 Y160.879
X70.796 Y160.317
X70.91 Y159.809
X71.044 Y159.337
X71.185 Y158.923
X71.349 Y158.517
X71.515 Y158.163
X71.555 Y158.088
X71.79 Y157.712
X72.074 Y157.371
X72.402 Y157.071
X72.766 Y156.818
X73.161 Y156.616
X73.58 Y156.469
X74.015 Y156.38
X74.458 Y156.35
X76.744
G3 X77.226 Y156.464 I-0.044 J1.269
X77.965 Y157.507 I-0.527 J1.156
G1 X79.279 Y172.268
G3 X78.541 Y173.536 I-1.265 J0.113
X78.058 Y173.65 I-0.527 J-1.156
G1 X75.772
X75.623 Y173.643
X75.414 Y173.62
X75.198 Y173.584
X74.957 Y173.531
X74.704 Y173.46
X74.434 Y173.369
X74.141 Y173.252
X73.846 Y173.116
X73.527 Y172.946
X73.198 Y172.747
X72.863 Y172.52
X72.506 Y172.248
X72.152 Y171.946
X71.794 Y171.606
X71.424 Y171.215
X71.058 Y170.783
X70.707 Y170.32
X70.359 Y169.804
X70.02 Y169.239
X69.698 Y168.63
X69.404 Y167.99
X69.138 Y167.32
X68.903 Y166.617
X68.702 Y165.889
X68.54 Y165.144
X68.418 Y164.391
X68.338 Y163.643
X68.3 Y162.913
X68.301 Y162.211
X68.339 Y161.54
X68.411 Y160.898
X68.504 Y160.339
X68.619 Y159.822
X68.75 Y159.354
X68.892 Y158.935
X69.054 Y158.531
X69.221 Y158.174
X69.263 Y158.095
X69.498 Y157.717
X69.783 Y157.375
X70.111 Y157.074
X70.476 Y156.82
X70.872 Y156.617
X71.292 Y156.47
X71.728 Y156.38
X72.172 Y156.35
X74.458
G3 X74.94 Y156.464 I-0.044 J1.269
X75.679 Y157.507 I-0.527 J1.156
G1 X76.993 Y172.268
G3 X76.255 Y173.536 I-1.265 J0.113
X75.772 Y173.65 I-0.527 J-1.156
G1 X73.487
X73.337 Y173.643
X73.128 Y173.62
X72.913 Y173.585
X72.673 Y173.532
X72.419 Y173.462
X72.15 Y173.371
X71.858 Y173.255
X71.564 Y173.119
X71.245 Y172.95
X70.915 Y172.752
X70.581 Y172.525
X70.224 Y172.254
X69.869 Y171.952
X69.512 Y171.614
X69.144 Y171.225
X68.777 Y170.794
X68.426 Y170.332
X68.079 Y169.819
X67.74 Y169.255
X67.418 Y168.647
X67.122 Y168.008
X66.856 Y167.338
X66.619 Y166.635
X66.418 Y165.907
X66.254 Y165.162
X66.131 Y164.408
X66.051 Y163.661
X66.012 Y162.93
Y162.228
X66.049 Y161.556
X66.12 Y160.913
X66.213 Y160.353
X66.327 Y159.834
X66.458 Y159.366
X66.6 Y158.945
X66.762 Y158.541
X66.928 Y158.183
X66.972 Y158.1
X67.208 Y157.721
X67.492 Y157.378
X67.821 Y157.076
X68.186 Y156.821
X68.583 Y156.618
X69.004 Y156.47
X69.441 Y156.38
X69.886 Y156.35
X72.172
G3 X72.655 Y156.464 I-0.044 J1.269
X73.393 Y157.507 I-0.527 J1.156
G1 X74.707 Y172.268
G3 X73.969 Y173.536 I-1.265 J0.113
X73.487 Y173.65 I-0.527 J-1.156
G1 X71.201
X71.051 Y173.643
X70.843 Y173.62
X70.628 Y173.585
X70.388 Y173.533
X70.135 Y173.463
X69.867 Y173.373
X69.575 Y173.258
X69.281 Y173.122
X68.963 Y172.954
X68.633 Y172.756
X68.299 Y172.531
X67.944 Y172.261
X67.588 Y171.96
X67.231 Y171.623
X66.863 Y171.235
X66.497 Y170.804
X66.145 Y170.343
X65.798 Y169.832
X65.459 Y169.269
X65.136 Y168.662
X64.84 Y168.023
X64.573 Y167.354
X64.336 Y166.652
X64.133 Y165.924
X63.969 Y165.18
X63.845 Y164.426
X63.763 Y163.679
X63.724 Y162.947
X63.723 Y162.245
X63.76 Y161.572
X63.83 Y160.928
X63.922 Y160.367
X64.036 Y159.846
X64.166 Y159.377
X64.308 Y158.955
X64.47 Y158.551
X64.636 Y158.191
X64.683 Y158.103
X64.918 Y157.724
X65.203 Y157.38
X65.531 Y157.078
X65.897 Y156.822
X66.294 Y156.618
X66.715 Y156.47
X67.153 Y156.38
X67.598 Y156.35
X69.886
G3 X71.106 Y157.507 I-0.044 J1.269
G1 X72.421 Y172.268
G3 X71.683 Y173.536 I-1.265 J0.113
X71.201 Y173.65 I-0.527 J-1.156
G1 X68.915
X68.765 Y173.643
X68.558 Y173.621
X68.343 Y173.586
X68.104 Y173.534
X67.85 Y173.464
X67.583 Y173.375
X67.291 Y173.26
X66.998 Y173.125
X66.68 Y172.958
X66.35 Y172.76
X66.017 Y172.536
X65.662 Y172.267
X65.306 Y171.966
X64.95 Y171.63
X64.582 Y171.244
X64.215 Y170.813
X63.864 Y170.353
X63.516 Y169.843
X63.177 Y169.282
X62.854 Y168.675
X62.557 Y168.036
X62.289 Y167.368
X62.052 Y166.667
X61.848 Y165.94
X61.683 Y165.195
X61.559 Y164.442
X61.476 Y163.694
X61.435 Y162.962
X61.434 Y162.259
X61.47 Y161.586
X61.539 Y160.941
X61.631 Y160.379
X61.745 Y159.856
X61.875 Y159.387
X62.017 Y158.964
X62.178 Y158.559
X62.345 Y158.198
X62.393 Y158.107
X62.628 Y157.727
X62.913 Y157.382
X63.241 Y157.079
X63.607 Y156.823
X64.005 Y156.619
X64.426 Y156.47
X64.864 Y156.38
X65.31 Y156.35
X67.598
G3 X68.08 Y156.464 I-0.044 J1.269
X68.819 Y157.506 I-0.527 J1.156
G1 X70.136 Y172.268
G3 X68.915 Y173.65 I-1.265 J0.113
G1 X66.629
X66.479 Y173.643
X66.272 Y173.621
X66.058 Y173.586
X65.819 Y173.535
X65.565 Y173.465
X65.299 Y173.377
X65.007 Y173.262
X64.714 Y173.127
X64.397 Y172.961
X64.067 Y172.764
X63.735 Y172.54
X63.38 Y172.272
X63.023 Y171.971
X62.667 Y171.636
X62.3 Y171.251
X61.933 Y170.821
X61.581 Y170.362
X61.233 Y169.852
X60.894 Y169.292
X60.571 Y168.686
X60.273 Y168.048
X60.005 Y167.38
X59.767 Y166.68
X59.563 Y165.953
X59.397 Y165.209
X59.272 Y164.456
X59.189 Y163.708
X59.147 Y162.976
X59.146 Y162.272
X59.181 Y161.598
X59.25 Y160.953
X59.341 Y160.389
X59.455 Y159.865
X59.584 Y159.395
X59.726 Y158.971
X59.887 Y158.566
X60.053 Y158.205
X60.104 Y158.109
X60.339 Y157.729
X60.623 Y157.384
X60.952 Y157.08
X61.318 Y156.824
X61.716 Y156.619
X62.138 Y156.471
X62.576 Y156.38
X63.022 Y156.35
X65.31
G3 X65.792 Y156.464 I-0.044 J1.269
X66.531 Y157.506 I-0.527 J1.156
G1 X67.85 Y172.268
G3 X66.629 Y173.65 I-1.265 J0.113
G1 X64.343
X64.267 Y173.646
X64.069 Y173.63
X63.862 Y173.602
X63.627 Y173.556
X63.387 Y173.497
X63.12 Y173.414
X62.843 Y173.312
X62.551 Y173.187
X62.236 Y173.03
X61.922 Y172.852
X61.585 Y172.636
X61.236 Y172.385
X60.889 Y172.106
X60.527 Y171.779
X60.158 Y171.41
X59.802 Y171.012
X59.443 Y170.564
X59.084 Y170.063
X58.739 Y169.522
X58.417 Y168.95
X58.112 Y168.332
X57.829 Y167.672
X57.575 Y166.977
X57.355 Y166.256
X57.173 Y165.517
X57.031 Y164.767
X56.931 Y164.022
X56.872 Y163.286
X56.854 Y162.569
X56.875 Y161.875
X56.93 Y161.211
X57.011 Y160.625
X57.12 Y160.067
X57.238 Y159.597
X57.38 Y159.137
X57.528 Y158.738
X57.698 Y158.347
X57.869 Y158.003
X58.144 Y157.595
X58.476 Y157.233
X58.86 Y156.925
X59.285 Y156.678
X59.742 Y156.497
X60.221 Y156.387
X60.712 Y156.35
X63.022
G3 X63.504 Y156.464 I-0.044 J1.269
X64.243 Y157.506 I-0.527 J1.156
G1 X65.564 Y172.268
G3 X64.826 Y173.536 I-1.265 J0.113
X64.343 Y173.65 I-0.527 J-1.156
G1 X62.058
X61.978 Y173.646
X61.783 Y173.63
X61.568 Y173.6
X61.343 Y173.557
X61.09 Y173.494
X60.834 Y173.415
X60.552 Y173.311
X60.258 Y173.184
X59.953 Y173.032
X59.623 Y172.845
X59.295 Y172.635
X58.95 Y172.387
X58.59 Y172.097
X58.238 Y171.78
X57.877 Y171.417
X57.507 Y171.003
X57.148 Y170.556
X56.8 Y170.069
X56.456 Y169.529
X56.125 Y168.941
X55.816 Y168.314
X55.535 Y167.658
X55.285 Y166.972
X55.067 Y166.256
X54.885 Y165.518
X54.742 Y164.767
X54.642 Y164.016
X54.583 Y163.275
X54.566 Y162.56
X54.586 Y161.875
X54.641 Y161.216
X54.727 Y160.596
X54.831 Y160.066
X54.955 Y159.572
X55.091 Y159.133
X55.246 Y158.716
X55.405 Y158.348
X55.589 Y157.98
X55.86 Y157.578
X56.188 Y157.221
X56.566 Y156.917
X56.986 Y156.673
X57.437 Y156.495
X57.91 Y156.386
X58.393 Y156.35
X60.712
G3 X61.194 Y156.464 I-0.044 J1.269
X61.932 Y157.504 I-0.527 J1.156
G1 X63.278 Y172.265
G3 X62.54 Y173.536 I-1.265 J0.115
X62.058 Y173.65 I-0.527 J-1.156
G1 X59.772
X59.69 Y173.646
X59.496 Y173.63
X59.281 Y173.601
X59.057 Y173.558
X58.805 Y173.495
X58.548 Y173.416
X58.265 Y173.312
X57.972 Y173.185
X57.668 Y173.034
X57.339 Y172.847
X57.011 Y172.638
X56.666 Y172.389
X56.305 Y172.099
X55.953 Y171.782
X55.59 Y171.418
X55.22 Y171.005
X54.862 Y170.559
X54.514 Y170.072
X54.17 Y169.533
X53.839 Y168.946
X53.53 Y168.32
X53.249 Y167.665
X52.998 Y166.978
X52.78 Y166.261
X52.598 Y165.524
X52.455 Y164.774
X52.354 Y164.02
X52.295 Y163.278
X52.277 Y162.56
X52.297 Y161.872
X52.352 Y161.216
X52.438 Y160.591
X52.541 Y160.059
X52.666 Y159.563
X52.802 Y159.124
X52.957 Y158.706
X53.116 Y158.339
X53.299 Y157.972
X53.568 Y157.572
X53.895 Y157.216
X54.271 Y156.914
X54.688 Y156.672
X55.136 Y156.494
X55.606 Y156.386
X56.088 Y156.35
X58.393
G3 X58.876 Y156.464 I-0.044 J1.269
X59.614 Y157.501 I-0.527 J1.156
G1 X60.992 Y172.263
G3 X60.254 Y173.536 I-1.264 J0.118
X59.772 Y173.65 I-0.527 J-1.156
G1 X57.486
X57.404 Y173.646
X57.209 Y173.63
X56.994 Y173.601
X56.77 Y173.558
X56.518 Y173.495
X56.261 Y173.416
X55.979 Y173.312
X55.685 Y173.186
X55.381 Y173.035
X55.052 Y172.848
X54.725 Y172.639
X54.379 Y172.391
X54.019 Y172.1
X53.666 Y171.784
X53.304 Y171.42
X52.934 Y171.007
X52.576 Y170.561
X52.227 Y170.075
X51.884 Y169.537
X51.553 Y168.95
X51.243 Y168.323
X50.962 Y167.668
X50.711 Y166.981
X50.492 Y166.264
X50.31 Y165.526
X50.167 Y164.775
X50.065 Y164.02
X50.005 Y163.276
X49.987 Y162.557
X50.007 Y161.868
X50.062 Y161.211
X50.148 Y160.585
X50.251 Y160.053
X50.376 Y159.557
X50.511 Y159.118
X50.666 Y158.701
X50.824 Y158.334
X51.007 Y157.968
X51.276 Y157.569
X51.601 Y157.214
X51.976 Y156.913
X52.392 Y156.671
X52.839 Y156.494
X53.308 Y156.386
X53.787 Y156.35
X56.088
G3 X56.57 Y156.464 I-0.044 J1.269
X57.308 Y157.499 I-0.527 J1.156
G1 X58.706 Y172.261
G3 X57.968 Y173.536 I-1.264 J0.12
X57.486 Y173.65 I-0.527 J-1.156
G1 X55.2
X55.116 Y173.646
X54.922 Y173.63
X54.708 Y173.601
X54.483 Y173.558
X54.231 Y173.495
X53.975 Y173.417
X53.692 Y173.313
X53.399 Y173.187
X53.095 Y173.036
X52.766 Y172.85
X52.439 Y172.64
X52.094 Y172.392
X51.733 Y172.103
X51.381 Y171.786
X51.018 Y171.423
X50.648 Y171.01
X50.29 Y170.564
X49.941 Y170.078
X49.598 Y169.54
X49.266 Y168.953
X48.956 Y168.327
X48.675 Y167.671
X48.423 Y166.984
X48.204 Y166.266
X48.021 Y165.528
X47.877 Y164.776
X47.775 Y164.02
X47.716 Y163.275
X47.697 Y162.555
X47.717 Y161.866
X47.771 Y161.208
X47.857 Y160.583
X47.96 Y160.051
X48.084 Y159.555
X48.22 Y159.116
X48.374 Y158.699
X48.532 Y158.332
X48.715 Y157.966
X48.983 Y157.568
X49.307 Y157.214
X49.682 Y156.912
X50.097 Y156.67
X50.544 Y156.494
X51.012 Y156.386
X51.491 Y156.35
X53.787
G3 X54.27 Y156.464 I-0.044 J1.269
X55.007 Y157.498 I-0.527 J1.156
G1 X56.42 Y172.26
G3 X55.683 Y173.536 I-1.264 J0.121
X55.2 Y173.65 I-0.527 J-1.156
G1 X52.914
X52.829 Y173.646
X52.635 Y173.63
X52.421 Y173.601
X52.197 Y173.558
X51.945 Y173.496
X51.689 Y173.417
X51.406 Y173.314
X51.113 Y173.187
X50.809 Y173.037
X50.48 Y172.851
X50.152 Y172.642
X49.807 Y172.394
X49.447 Y172.104
X49.094 Y171.788
X48.732 Y171.425
X48.362 Y171.013
X48.003 Y170.567
X47.655 Y170.081
X47.311 Y169.543
X46.979 Y168.956
X46.669 Y168.329
X46.387 Y167.674
X46.135 Y166.986
X45.915 Y166.268
X45.731 Y165.529
X45.588 Y164.777
X45.485 Y164.02
X45.425 Y163.276
X45.406 Y162.555
X45.426 Y161.866
X45.48 Y161.208
X45.566 Y160.582
X45.668 Y160.05
X45.792 Y159.554
X45.928 Y159.116
X46.081 Y158.699
X46.24 Y158.333
X46.422 Y157.967
X46.69 Y157.568
X47.014 Y157.214
X47.388 Y156.912
X47.804 Y156.671
X48.25 Y156.494
X48.719 Y156.386
X49.198 Y156.35
X51.491
G3 X51.974 Y156.464 I-0.044 J1.269
X52.711 Y157.497 I-0.527 J1.156
G1 X54.134 Y172.259
G3 X53.397 Y173.536 I-1.264 J0.122
X52.914 Y173.65 I-0.527 J-1.156
G1 X50.629
X50.542 Y173.646
X50.348 Y173.63
X50.134 Y173.601
X49.91 Y173.558
X49.658 Y173.496
X49.402 Y173.418
X49.12 Y173.314
X48.826 Y173.188
X48.522 Y173.038
X48.193 Y172.852
X47.866 Y172.643
X47.521 Y172.396
X47.161 Y172.106
X46.808 Y171.79
X46.445 Y171.428
X46.075 Y171.015
X45.716 Y170.569
X45.367 Y170.084
X45.023 Y169.545
X44.691 Y168.958
X44.38 Y168.332
X44.099 Y167.676
X43.846 Y166.989
X43.626 Y166.27
X43.442 Y165.531
X43.298 Y164.779
X43.195 Y164.022
X43.135 Y163.277
X43.115 Y162.557
X43.134 Y161.867
X43.188 Y161.209
X43.274 Y160.584
X43.377 Y160.052
X43.5 Y159.556
X43.635 Y159.118
X43.789 Y158.701
X43.947 Y158.334
X44.129 Y157.968
X44.397 Y157.569
X44.722 Y157.215
X45.096 Y156.913
X45.511 Y156.671
X45.958 Y156.494
X46.427 Y156.386
X46.906 Y156.35
X49.198
G3 X49.68 Y156.464 I-0.044 J1.269
X50.417 Y157.497 I-0.527 J1.156
G1 X51.848 Y172.258
G3 X51.111 Y173.536 I-1.264 J0.123
X50.629 Y173.65 I-0.527 J-1.156
G1 X48.343
X48.255 Y173.646
X48.061 Y173.63
X47.847 Y173.601
X47.623 Y173.559
X47.371 Y173.496
X47.115 Y173.418
X46.833 Y173.315
X46.54 Y173.189
X46.236 Y173.039
X45.907 Y172.853
X45.579 Y172.645
X45.234 Y172.397
X44.874 Y172.108
X44.521 Y171.792
X44.158 Y171.43
X43.788 Y171.017
X43.429 Y170.572
X43.08 Y170.087
X42.735 Y169.548
X42.403 Y168.961
X42.092 Y168.335
X41.81 Y167.68
X41.557 Y166.992
X41.336 Y166.274
X41.152 Y165.534
X41.008 Y164.782
X40.905 Y164.025
X40.844 Y163.28
X40.824 Y162.56
X40.843 Y161.87
X40.897 Y161.212
X40.982 Y160.587
X41.084 Y160.055
X41.208 Y159.559
X41.343 Y159.12
X41.496 Y158.703
X41.654 Y158.337
X41.836 Y157.971
X42.104 Y157.571
X42.429 Y157.216
X42.804 Y156.914
X43.22 Y156.671
X43.667 Y156.494
X44.136 Y156.386
X44.616 Y156.35
X46.906
G3 X47.388 Y156.464 I-0.044 J1.269
X48.126 Y157.496 I-0.527 J1.156
G1 X49.563 Y172.258
G3 X48.825 Y173.536 I-1.264 J0.123
X48.343 Y173.65 I-0.527 J-1.156
G1 X46.057
X45.967 Y173.646
X45.774 Y173.63
X45.559 Y173.601
X45.336 Y173.559
X45.084 Y173.497
X44.828 Y173.419
X44.546 Y173.316
X44.253 Y173.19
X43.949 Y173.04
X43.62 Y172.855
X43.293 Y172.646
X42.948 Y172.399
X42.587 Y172.11
X42.234 Y171.795
X41.871 Y171.433
X41.501 Y171.02
X41.142 Y170.575
X40.793 Y170.09
X40.448 Y169.552
X40.115 Y168.965
X39.804 Y168.339
X39.522 Y167.684
X39.268 Y166.996
X39.047 Y166.278
X38.863 Y165.539
X38.718 Y164.787
X38.614 Y164.03
X38.553 Y163.285
X38.534 Y162.564
X38.552 Y161.875
X38.605 Y161.217
X38.69 Y160.591
X38.792 Y160.059
X38.916 Y159.563
X39.05 Y159.125
X39.204 Y158.707
X39.361 Y158.34
X39.543 Y157.974
X39.811 Y157.573
X40.137 Y157.218
X40.512 Y156.915
X40.928 Y156.672
X41.377 Y156.495
X41.847 Y156.386
X42.327 Y156.35
X44.616
G3 X45.098 Y156.464 I-0.044 J1.269
X45.836 Y157.496 I-0.527 J1.156
G1 X47.277 Y172.257
G3 X46.539 Y173.536 I-1.264 J0.123
X46.057 Y173.65 I-0.527 J-1.156
G1 X43.771
X43.68 Y173.645
X43.486 Y173.63
X43.272 Y173.602
X43.049 Y173.559
X42.797 Y173.497
X42.541 Y173.419
X42.259 Y173.317
X41.966 Y173.191
X41.662 Y173.042
X41.334 Y172.857
X41.006 Y172.648
X40.661 Y172.402
X40.301 Y172.113
X39.948 Y171.798
X39.585 Y171.436
X39.214 Y171.024
X38.855 Y170.579
X38.506 Y170.094
X38.161 Y169.557
X37.828 Y168.97
X37.516 Y168.345
X37.234 Y167.69
X36.98 Y167.002
X36.758 Y166.284
X36.574 Y165.545
X36.428 Y164.793
X36.324 Y164.036
X36.263 Y163.292
X36.243 Y162.571
X36.261 Y161.881
X36.314 Y161.223
X36.398 Y160.597
X36.5 Y160.065
X36.623 Y159.568
X36.758 Y159.13
X36.911 Y158.712
X37.068 Y158.345
X37.25 Y157.978
X37.519 Y157.577
X37.845 Y157.22
X38.221 Y156.917
X38.638 Y156.673
X39.087 Y156.495
X39.558 Y156.386
X40.04 Y156.35
X42.327
G3 X42.81 Y156.464 I-0.044 J1.269
X43.547 Y157.496 I-0.527 J1.156
G1 X44.991 Y172.257
G3 X44.254 Y173.536 I-1.264 J0.124
X43.771 Y173.65 I-0.527 J-1.156
G1 X41.485
X41.392 Y173.645
X41.199 Y173.63
X40.985 Y173.602
X40.761 Y173.56
X40.51 Y173.498
X40.254 Y173.42
X39.973 Y173.318
X39.679 Y173.193
X39.376 Y173.043
X39.047 Y172.859
X38.72 Y172.65
X38.375 Y172.404
X38.014 Y172.116
X37.661 Y171.801
X37.298 Y171.44
X36.927 Y171.028
X36.569 Y170.584
X36.219 Y170.099
X35.874 Y169.562
X35.541 Y168.976
X35.229 Y168.351
X34.946 Y167.696
X34.692 Y167.009
X34.47 Y166.292
X34.285 Y165.553
X34.139 Y164.801
X34.035 Y164.044
X33.973 Y163.3
X33.952 Y162.579
X33.97 Y161.889
X34.022 Y161.231
X34.106 Y160.604
X34.208 Y160.072
X34.331 Y159.575
X34.465 Y159.136
X34.618 Y158.718
X34.775 Y158.351
X34.957 Y157.983
X35.226 Y157.581
X35.553 Y157.223
X35.93 Y156.918
X36.348 Y156.674
X36.798 Y156.495
X37.271 Y156.387
X37.754 Y156.35
X40.04
G3 X40.522 Y156.464 I-0.044 J1.269
X41.259 Y157.495 I-0.527 J1.156
G1 X42.705 Y172.257
G3 X41.968 Y173.536 I-1.264 J0.124
X41.485 Y173.65 I-0.527 J-1.156
G1 X39.2
X39.104 Y173.645
X38.911 Y173.63
X38.697 Y173.602
X38.474 Y173.56
X38.223 Y173.499
X37.967 Y173.421
X37.686 Y173.319
X37.392 Y173.194
X37.089 Y173.045
X36.761 Y172.861
X36.433 Y172.653
X36.089 Y172.407
X35.728 Y172.119
X35.375 Y171.805
X35.012 Y171.444
X34.641 Y171.033
X34.282 Y170.589
X34.182 Y170.45
X33.961 Y170.101
X33.786 Y169.727
X33.659 Y169.334
X33.582 Y168.929
X33.556 Y168.517
G3 X35.665 Y167.609 I1.269 J0.044
G1 X39.995 Y171.428
G3 X39.682 Y173.536 I-0.84 J0.952
X39.2 Y173.65 I-0.527 J-1.156
G1 X36.914
X36.816 Y173.645
X36.623 Y173.63
X36.409 Y173.602
X36.187 Y173.56
X35.936 Y173.499
X35.68 Y173.422
X35.399 Y173.32
X35.128 Y173.205
X34.744 Y172.977
X34.401 Y172.691
X34.107 Y172.354
X33.871 Y171.974
X33.697 Y171.562
X33.592 Y171.128
X33.556 Y170.682
G3 X35.624 Y169.739 I1.269 J0.044
G1 X37.668 Y171.394
G3 X37.396 Y173.536 I-0.799 J0.987
X36.914 Y173.65 I-0.527 J-1.156
G1 X35.103
X35.02 Y173.646
X34.689 Y173.588
X34.378 Y173.461
X34.101 Y173.271
X33.871 Y173.026
X33.699 Y172.737
X33.592 Y172.419
X33.556 Y172.084
G3 X35.446 Y170.692 I1.497 J0.052
X35.59 Y173.551 I-0.396 J1.453
X35.103 Y173.65 I-0.539 J-1.406
G1 X34.838
X34.647 Y173.635
X34.457 Y173.59
X34.291 Y173.525
X34.126 Y173.43
X34.076 Y173.393
X33.981 Y173.315
X33.887 Y173.221
X33.755 Y173.049
X33.695 Y172.944
X33.634 Y172.806
X33.592 Y172.668
X33.561 Y172.478
X33.556 Y172.287
Y158.959
X33.568 Y158.728
X33.589 Y158.519
X33.62 Y158.328
X33.662 Y158.136
X33.796 Y157.764
X33.99 Y157.42
X34.236 Y157.112
X34.529 Y156.847
X34.862 Y156.634
X35.224 Y156.478
X35.607 Y156.382
X36.001 Y156.35
G3 X36.483 Y156.464 I-0.044 J1.269
X36.913 Y158.455 I-0.527 J1.156
G1 X35.782 Y159.75
G3 X33.556 Y158.959 I-0.957 J-0.835
G1 Y157.817
X33.572 Y157.436
X33.617 Y157.247
X33.696 Y157.055
X33.75 Y156.96
X33.816 Y156.865
X33.896 Y156.77
X33.993 Y156.674
X34.076 Y156.607
X34.171 Y156.541
X34.266 Y156.488
X34.457 Y156.41
X34.647 Y156.365
X34.838 Y156.35
X37.754
X37.838 Y156.364 Z39.018
X37.92 Y156.377 Z39.04
X37.997 Y156.389 Z39.076
X38.067 Y156.401 Z39.125
X38.125 Y156.422 Z39.186
X38.173 Y156.44 Z39.258
X38.207 Y156.453 Z39.337
X38.229 Y156.461 Z39.421
X38.236 Y156.464 Z39.509
G0 Z55
X144.046 Y159.366
Z42.78
G1 Z41.51 F849.6
G3 X139.732 Y170.634 Z40.848 I-2.157 J5.634 F400.3
X144.046 Y159.366 Z40.186 I2.157 J-5.634
X139.732 Y170.634 Z39.525 I-2.157 J5.634
X144.046 Y159.366 Z38.863 I2.157 J-5.634
X139.732 Y170.634 Z38.201 I-2.157 J5.634
X144.046 Y159.366 Z37.539 I2.157 J-5.634
X139.732 Y170.634 Z36.877 I-2.157 J5.634
X144.046 Y159.366 Z36.216 I2.157 J-5.634
X139.732 Y170.634 Z35.554 I-2.157 J5.634
X144.046 Y159.366 Z34.892 I2.157 J-5.634
X139.732 Y170.634 Z34.23 I-2.157 J5.634
X144.046 Y159.366 Z33.568 I2.157 J-5.634
X139.732 Y170.634 Z32.907 I-2.157 J5.634
X144.046 Y159.366 Z32.245 I2.157 J-5.634
X139.732 Y170.634 Z31.583 I-2.157 J5.634
X144.046 Y159.366 Z30.921 I2.157 J-5.634
X139.732 Y170.634 Z30.259 I-2.157 J5.634
X144.046 Y159.366 Z29.597 I2.157 J-5.634
X139.732 Y170.634 Z28.936 I-2.157 J5.634
X144.046 Y159.366 Z28.274 I2.157 J-5.634
X147.922 Y165 Z28.02 I-2.157 J5.634
X135.857 I-6.033
X147.645 Y163.195 I6.033
X147.922 Y165 I-5.756 J1.805
G1 X147.925 Y165.323 F849.6
X148.045 Y166.61
X148.069 Y166.687
X148.108 Y166.831
X148.137 Y166.979
X148.158 Y167.127
X148.171 Y167.289
X148.177 Y167.463
X148.172 Y167.65
X148.156 Y167.848
X148.128 Y168.057
X148.087 Y168.275
X148.031 Y168.502
X147.959 Y168.737
X147.871 Y168.978
X147.766 Y169.224
X147.643 Y169.474
X147.501 Y169.725
X147.341 Y169.976
X147.162 Y170.226
X146.964 Y170.473
X146.747 Y170.715
X146.512 Y170.951
X146.259 Y171.179
X145.988 Y171.397
X145.7 Y171.605
X145.396 Y171.799
X145.077 Y171.98
X144.744 Y172.146
X144.397 Y172.295
X144.039 Y172.427
X143.67 Y172.541
X143.291 Y172.636
X142.904 Y172.71
X142.511 Y172.764
X142.112 Y172.797
X141.71 Y172.808
X141.305 Y172.797
X140.899 Y172.764
X140.493 Y172.709
X140.089 Y172.631
X139.688 Y172.532
X139.291 Y172.41
X138.901 Y172.267
X138.518 Y172.102
X138.143 Y171.916
X137.778 Y171.709
X137.424 Y171.483
X137.082 Y171.237
X136.753 Y170.973
X136.439 Y170.691
X136.14 Y170.391
X135.857 Y170.076
X135.591 Y169.745
X135.344 Y169.4
X135.115 Y169.042
X134.906 Y168.672
X134.717 Y168.29
X134.549 Y167.899
X134.403 Y167.499
X134.278 Y167.091
X134.175 Y166.677
X134.096 Y166.258
X134.038 Y165.835
X134.004 Y165.409
X133.993 Y164.982
X134.005 Y164.555
X134.041 Y164.129
X134.099 Y163.705
X134.18 Y163.285
X134.284 Y162.871
X134.41 Y162.462
X134.558 Y162.061
X134.728 Y161.668
X134.919 Y161.285
X135.13 Y160.913
X135.362 Y160.553
X135.612 Y160.206
X135.881 Y159.872
X136.167 Y159.554
X136.471 Y159.252
X136.79 Y158.967
X137.124 Y158.7
X137.473 Y158.451
X137.834 Y158.221
X138.207 Y158.011
X138.591 Y157.822
X138.985 Y157.654
X139.388 Y157.507
X139.797 Y157.383
X140.213 Y157.28
X140.634 Y157.201
X141.058 Y157.144
X141.485 Y157.111
X141.914 Y157.1
X142.342 Y157.113
X142.768 Y157.149
X143.193 Y157.209
X143.613 Y157.291
X144.028 Y157.396
X144.437 Y157.523
X144.839 Y157.672
X145.232 Y157.842
X145.615 Y158.034
X145.987 Y158.246
X146.347 Y158.478
X146.694 Y158.729
X147.026 Y158.999
X147.344 Y159.286
X147.646 Y159.59
X147.93 Y159.91
X148.197 Y160.245
X148.446 Y160.594
X148.675 Y160.956
X148.884 Y161.33
X149.123 Y161.817
X149.502 Y162.707
X149.758 Y163.414
X149.943 Y164.026
X150.077 Y164.578
X150.175 Y165.098
X150.24 Y165.595
X150.276 Y166.07
X150.287 Y166.53
X150.272 Y166.98
X150.234 Y167.421
X150.173 Y167.855
X150.089 Y168.281
X149.982 Y168.7
X149.853 Y169.113
X149.702 Y169.518
X149.529 Y169.915
X149.333 Y170.304
X149.116 Y170.684
X148.876 Y171.054
X148.615 Y171.413
X148.333 Y171.761
X148.029 Y172.095
X147.705 Y172.415
X147.362 Y172.72
X146.999 Y173.008
X146.952 Y173.042
X146.606 Y173.256
X146.237 Y173.426
X145.849 Y173.55
X145.449 Y173.625
X145.043 Y173.65
X139.394
X139.107 Y173.636
X138.802 Y173.604
X138.48 Y173.552
X138.146 Y173.48
X137.808 Y173.388
X137.463 Y173.273
X137.109 Y173.134
X136.75 Y172.969
X136.389 Y172.779
X136.03 Y172.565
X135.677 Y172.328
X135.33 Y172.066
X134.989 Y171.778
X134.657 Y171.466
X134.336 Y171.129
X134.029 Y170.77
X133.737 Y170.389
X133.463 Y169.987
X133.208 Y169.566
X132.975 Y169.129
X132.763 Y168.675
X132.575 Y168.207
X132.411 Y167.725
X132.273 Y167.233
X132.161 Y166.731
X132.076 Y166.22
X132.019 Y165.704
X131.989 Y165.183
X131.988 Y164.659
X132.015 Y164.134
X132.071 Y163.609
X132.155 Y163.087
X132.268 Y162.57
X132.409 Y162.058
X132.578 Y161.553
X132.774 Y161.057
X132.997 Y160.573
X133.247 Y160.1
X133.522 Y159.641
X133.821 Y159.197
X134.145 Y158.77
X134.492 Y158.361
X134.86 Y157.97
X135.249 Y157.6
X135.658 Y157.252
X136.093 Y156.921
X136.519 Y156.675
X136.978 Y156.496
X137.458 Y156.387
X137.949 Y156.35
X144.175
X144.733 Y156.378
X145.029 Y156.409
X145.343 Y156.459
X145.671 Y156.53
X146.004 Y156.621
X146.344 Y156.734
X146.692 Y156.871
X147.048 Y157.034
X147.406 Y157.222
X147.761 Y157.434
X148.111 Y157.67
X148.457 Y157.931
X148.807 Y158.226
X149.173 Y158.571
X149.542 Y158.958
X149.919 Y159.398
X150.177 Y159.735
X150.416 Y160.094
X150.606 Y160.48
X150.744 Y160.888
X150.828 Y161.311
X150.856 Y161.741
G3 X150.742 Y162.223 I-1.269 J-0.044
X148.819 Y162.708 I-1.156 J-0.527
G1 X143.451 Y158.631
G3 X144.175 Y156.35 I0.768 J-1.011
G1 X147.223
X147.432 Y156.361
X147.648 Y156.383
X147.88 Y156.42
X148.136 Y156.475
X148.398 Y156.547
X148.688 Y156.644
X148.984 Y156.76
X149.277 Y156.894
X149.664 Y157.138
X150.01 Y157.439
X150.304 Y157.79
X150.541 Y158.182
X150.715 Y158.606
X150.82 Y159.052
X150.856 Y159.508
G3 X148.796 Y160.458 I-1.269 J-0.044
G1 X146.476 Y158.613
G3 X147.223 Y156.35 I0.79 J-0.994
G1 X149.243
X149.392 Y156.357
X149.728 Y156.435
X150.041 Y156.579
X150.317 Y156.785
X150.545 Y157.043
X150.715 Y157.342
X150.82 Y157.67
X150.856 Y158.013
G3 X150.76 Y158.5 I-1.564 J-0.055
X148.849 Y159.46 I-1.468 J-0.542
X148.755 Y156.445 I0.449 J-1.523
X149.243 Y156.35 I0.543 J1.492
G1 X149.508
X149.699 Y156.357
X149.889 Y156.391
X150.08 Y156.457
X150.27 Y156.561
X150.417 Y156.674
X150.551 Y156.809
X150.651 Y156.943
X150.716 Y157.055
X150.795 Y157.246
X150.84 Y157.436
X150.856 Y157.817
Y169.241
X150.837 Y169.624
X150.807 Y169.906
X150.76 Y170.202
X150.692 Y170.517
X150.603 Y170.843
X150.493 Y171.174
X150.358 Y171.516
X150.196 Y171.868
X150.188 Y171.885
X149.953 Y172.267
X149.669 Y172.613
X149.34 Y172.917
X148.973 Y173.175
X148.575 Y173.38
X148.152 Y173.529
X147.713 Y173.62
X147.266 Y173.65
G3 X146.784 Y173.536 I0.044 J-1.269
X146.288 Y171.628 I0.527 J-1.156
G1 X148.564 Y168.533
G3 X150.856 Y169.241 I1.023 J0.752
G1 Y171.735
X150.848 Y171.896
X150.778 Y172.247
X150.645 Y172.58
X150.454 Y172.883
X150.211 Y173.147
X149.924 Y173.361
X149.602 Y173.52
X149.257 Y173.617
X148.901 Y173.65
G3 X147.18 Y171.29 I0.065 J-1.854
X150.856 Y171.735 I1.803 J0.511
G1 Y172.287
X150.851 Y172.478
X150.82 Y172.668
X150.757 Y172.859
X150.657 Y173.049
X150.585 Y173.151
X150.504 Y173.244
X150.394 Y173.346
X150.284 Y173.43
X150.27 Y173.439
X150.08 Y173.543
X149.889 Y173.609
X149.699 Y173.643
X149.667 Y173.644
X149.168 Y173.645
X139.892 Y173.65
X139.394
X136.556
X136.458 Y173.645
X136.255 Y173.629
X136.027 Y173.599
X135.791 Y173.555
X135.541 Y173.494
X135.27 Y173.411
X134.994 Y173.311
X134.707 Y173.189
X134.404 Y173.04
X134.097 Y172.868
X133.789 Y172.672
X133.472 Y172.446
X133.151 Y172.19
X132.834 Y171.907
X132.525 Y171.6
X132.219 Y171.262
X131.921 Y170.893
X131.632 Y170.493
X131.358 Y170.067
X131.103 Y169.618
X130.867 Y169.147
X130.653 Y168.652
X130.461 Y168.135
X130.294 Y167.596
X130.154 Y167.039
X130.043 Y166.466
X129.962 Y165.88
X129.912 Y165.283
X129.894 Y164.677
X129.909 Y164.066
X129.958 Y163.451
X130.04 Y162.836
X130.157 Y162.222
X130.307 Y161.612
X130.492 Y161.007
X130.71 Y160.411
X130.961 Y159.825
X131.244 Y159.251
X131.559 Y158.691
X131.905 Y158.148
X132.241 Y157.679
X132.315 Y157.586
X132.651 Y157.226
X133.036 Y156.92
X133.462 Y156.675
X133.92 Y156.496
X134.4 Y156.387
X134.89 Y156.35
X137.949
G3 X138.431 Y156.464 I-0.044 J1.269
X139.169 Y157.739 I-0.527 J1.156
G1 X137.776 Y172.5
G3 X137.038 Y173.536 I-1.264 J-0.119
X136.556 Y173.65 I-0.527 J-1.156
G1 X134.27
X134.17 Y173.645
X133.989 Y173.632
X133.785 Y173.605
X133.574 Y173.567
X133.346 Y173.512
X133.099 Y173.438
X132.849 Y173.348
X132.58 Y173.234
X132.298 Y173.097
X132.015 Y172.94
X131.718 Y172.753
X131.412 Y172.536
X131.11 Y172.297
X130.804 Y172.027
X130.494 Y171.72
X130.187 Y171.382
X129.891 Y171.02
X129.603 Y170.624
X129.322 Y170.191
X129.054 Y169.723
X128.803 Y169.227
X128.575 Y168.706
X128.37 Y168.159
X128.189 Y167.582
X128.035 Y166.979
X127.911 Y166.352
X127.819 Y165.704
X127.761 Y165.039
X127.738 Y164.36
X127.753 Y163.672
X127.805 Y162.977
X127.896 Y162.278
X128.027 Y161.577
X128.197 Y160.877
X128.406 Y160.18
X128.635 Y159.547
X128.876 Y158.979
X129.104 Y158.511
X129.356 Y158.061
X129.466 Y157.887
X129.747 Y157.506
X130.081 Y157.168
X130.459 Y156.882
X130.875 Y156.653
X131.319 Y156.486
X131.782 Y156.384
X132.255 Y156.35
X134.89
G3 X135.373 Y156.464 I-0.044 J1.269
X136.115 Y157.673 I-0.527 J1.156
G1 X135.494 Y172.434
G3 X134.752 Y173.536 I-1.269 J-0.053
X134.27 Y173.65 I-0.527 J-1.156
G1 X132.155
X131.918 Y173.638
X131.728 Y173.618
X131.53 Y173.587
X131.314 Y173.54
X131.081 Y173.476
X130.843 Y173.397
X130.584 Y173.295
X130.316 Y173.172
X130.042 Y173.028
X129.749 Y172.853
X129.454 Y172.655
X129.155 Y172.429
X128.845 Y172.167
X128.533 Y171.874
X128.229 Y171.555
X127.923 Y171.198
X127.618 Y170.799
X127.324 Y170.368
X127.047 Y169.91
X126.781 Y169.412
X126.529 Y168.873
X126.297 Y168.295
X126.091 Y167.69
X125.915 Y167.061
X125.768 Y166.402
X125.653 Y165.713
X125.574 Y164.998
X125.532 Y164.259
X125.53 Y163.502
X125.569 Y162.74
X125.65 Y161.984
X125.768 Y161.251
X125.922 Y160.543
X126.091 Y159.929
X126.277 Y159.376
X126.469 Y158.89
X126.667 Y158.459
X126.88 Y158.056
X126.979 Y157.891
X127.248 Y157.509
X127.569 Y157.171
X127.937 Y156.884
X128.343 Y156.654
X128.778 Y156.487
X129.233 Y156.384
X129.698 Y156.35
X132.255
G3 X132.738 Y156.464 I-0.044 J1.269
X133.481 Y157.628 I-0.527 J1.156
G1 X133.381 Y172.389
G3 X132.155 Y173.65 I-1.27 J-0.009
G1 X130.079
X129.799 Y173.636
X129.619 Y173.617
X129.416 Y173.585
X129.204 Y173.539
X128.977 Y173.477
X128.729 Y173.395
X128.479 Y173.296
X128.208 Y173.172
X127.926 Y173.023
X127.642 Y172.854
X127.34 Y172.651
X127.032 Y172.418
X126.726 Y172.16
X126.408 Y171.861
X126.088 Y171.525
X125.779 Y171.163
X125.469 Y170.759
X125.162 Y170.31
X124.868 Y169.823
X124.593 Y169.309
X124.333 Y168.75
X124.09 Y168.146
X123.869 Y167.498
X123.679 Y166.82
X123.523 Y166.118
X123.401 Y165.385
X123.316 Y164.626
X123.272 Y163.849
X123.27 Y163.074
X123.31 Y162.311
X123.388 Y161.573
X123.501 Y160.873
X123.637 Y160.251
X123.797 Y159.668
X123.957 Y159.19
X124.142 Y158.723
X124.322 Y158.332
X124.528 Y157.942
X124.806 Y157.548
X125.138 Y157.199
X125.518 Y156.902
X125.937 Y156.665
X126.387 Y156.491
X126.857 Y156.385
X127.337 Y156.35
X129.698
G3 X130.923 Y157.586 I-0.044 J1.269
G1 X131.304 Y172.348
G3 X130.079 Y173.65 I-1.27 J0.033
G1 X127.965
X127.688 Y173.636
X127.507 Y173.617
X127.301 Y173.584
X127.088 Y173.538
X126.857 Y173.475
X126.608 Y173.392
X126.355 Y173.293
X126.078 Y173.166
X125.795 Y173.017
X125.503 Y172.843
X125.193 Y172.634
X124.884 Y172.401
X124.569 Y172.135
X124.24 Y171.825
X123.916 Y171.486
X123.596 Y171.111
X123.271 Y170.687
X122.952 Y170.22
X122.652 Y169.725
X122.363 Y169.183
X122.087 Y168.592
X121.831 Y167.953
X121.603 Y167.285
X121.408 Y166.588
X121.245 Y165.857
X121.119 Y165.099
X121.033 Y164.325
X120.989 Y163.549
X120.987 Y162.781
X121.025 Y162.038
X121.101 Y161.329
X121.209 Y160.657
X121.331 Y160.095
X121.479 Y159.559
X121.63 Y159.107
X121.804 Y158.669
X121.978 Y158.292
X122.176 Y157.915
X122.449 Y157.528
X122.776 Y157.185
X123.149 Y156.893
X123.562 Y156.659
X124.004 Y156.489
X124.466 Y156.385
X124.939 Y156.35
X127.337
G3 X128.562 Y157.565 I-0.044 J1.269
G1 X129.189 Y172.327
G3 X127.965 Y173.65 I-1.269 J0.054
G1 X125.773
X125.56 Y173.639
X125.375 Y173.62
X125.166 Y173.587
X124.951 Y173.54
X124.715 Y173.476
X124.464 Y173.392
X124.204 Y173.29
X123.92 Y173.16
X123.635 Y173.01
X123.334 Y172.83
X123.016 Y172.616
X122.703 Y172.38
X122.374 Y172.102
X122.036 Y171.784
X121.707 Y171.439
X121.372 Y171.047
X121.034 Y170.606
X120.711 Y170.133
X120.401 Y169.621
X120.099 Y169.055
X119.812 Y168.44
X119.55 Y167.789
X119.32 Y167.11
X119.119 Y166.396
X118.953 Y165.652
X118.826 Y164.888
X118.74 Y164.112
X118.696 Y163.347
X118.694 Y162.595
X118.732 Y161.877
X118.804 Y161.195
X118.909 Y160.546
X119.028 Y160
X119.17 Y159.486
X119.319 Y159.041
X119.486 Y158.617
X119.658 Y158.245
X119.851 Y157.879
X120.117 Y157.5
X120.436 Y157.165
X120.801 Y156.88
X121.204 Y156.652
X121.636 Y156.485
X122.088 Y156.384
X122.549 Y156.35
X124.939
G3 X125.421 Y156.464 I-0.044 J1.269
X126.163 Y157.548 I-0.527 J1.156
G1 X126.997 Y172.309
G3 X126.256 Y173.536 I-1.268 J0.072
X125.773 Y173.65 I-0.527 J-1.156
G1 X123.603
X123.501 Y173.645
X123.314 Y173.631
X123.12 Y173.606
X122.903 Y173.566
X122.673 Y173.511
X122.431 Y173.438
X122.164 Y173.342
X121.895 Y173.229
X121.603 Y173.086
X121.3 Y172.918
X120.993 Y172.724
X120.664 Y172.492
X120.335 Y172.23
X120.001 Y171.935
X119.652 Y171.591
X119.309 Y171.213
X118.972 Y170.8
X118.633 Y170.334
X118.299 Y169.818
X117.986 Y169.272
X117.69 Y168.684
X117.411 Y168.047
X117.157 Y167.367
X116.933 Y166.653
X116.744 Y165.914
X116.595 Y165.16
X116.486 Y164.395
X116.42 Y163.636
X116.396 Y162.893
X116.411 Y162.174
X116.464 Y161.478
X116.551 Y160.813
X116.659 Y160.229
X116.79 Y159.69
X116.927 Y159.238
X117.088 Y158.792
X117.248 Y158.413
X117.433 Y158.035
X117.497 Y157.921
X117.754 Y157.533
X118.066 Y157.19
X118.427 Y156.897
X118.827 Y156.662
X119.258 Y156.49
X119.711 Y156.385
X120.174 Y156.35
X122.549
G3 X123.031 Y156.464 I-0.044 J1.269
X123.772 Y157.529 I-0.527 J1.156
G1 X124.825 Y172.29
G3 X124.085 Y173.536 I-1.267 J0.09
X123.603 Y173.65 I-0.527 J-1.156
G1 X121.488
X121.206 Y173.636
X121.009 Y173.615
X120.803 Y173.582
X120.571 Y173.532
X120.334 Y173.467
X120.073 Y173.381
X119.799 Y173.273
X119.516 Y173.143
X119.208 Y172.981
X118.9 Y172.797
X118.575 Y172.579
X118.235 Y172.322
X117.902 Y172.041
X117.555 Y171.714
X117.199 Y171.341
X116.856 Y170.94
X116.511 Y170.49
X116.168 Y169.987
X115.837 Y169.441
X115.53 Y168.865
X115.24 Y168.243
X114.972 Y167.577
X114.734 Y166.876
X114.529 Y166.147
X114.362 Y165.398
X114.235 Y164.637
X114.151 Y163.878
X114.108 Y163.129
X114.106 Y162.403
X114.143 Y161.699
X114.215 Y161.027
X114.312 Y160.423
X114.434 Y159.865
X114.564 Y159.393
X114.717 Y158.936
X114.872 Y158.544
X115.048 Y158.161
X115.124 Y158.016
X115.383 Y157.607
X115.701 Y157.243
X116.072 Y156.932
X116.487 Y156.682
X116.935 Y156.499
X117.406 Y156.387
X117.888 Y156.35
X120.174
G3 X120.656 Y156.464 I-0.044 J1.269
X121.395 Y157.507 I-0.527 J1.156
G1 X122.709 Y172.268
G3 X121.971 Y173.536 I-1.265 J0.113
X121.488 Y173.65 I-0.527 J-1.156
G1 X119.202
X118.992 Y173.639
X118.795 Y173.619
X118.58 Y173.585
X118.354 Y173.536
X118.102 Y173.467
X117.847 Y173.382
X117.566 Y173.271
X117.276 Y173.138
X116.973 Y172.979
X116.648 Y172.785
X116.325 Y172.567
X115.986 Y172.312
X115.633 Y172.014
X115.289 Y171.69
X114.936 Y171.32
X114.575 Y170.898
X114.227 Y170.444
X113.89 Y169.949
X113.558 Y169.401
X113.239 Y168.804
X112.943 Y168.169
X112.676 Y167.506
X112.44 Y166.81
X112.236 Y166.084
X112.069 Y165.335
X111.942 Y164.573
X111.857 Y163.811
X111.814 Y163.058
X111.813 Y162.333
X111.849 Y161.641
X111.919 Y160.981
X112.013 Y160.401
X112.134 Y159.843
X112.26 Y159.386
X112.413 Y158.929
X112.564 Y158.548
X112.742 Y158.16
X112.808 Y158.035
X113.07 Y157.621
X113.392 Y157.253
X113.767 Y156.938
X114.186 Y156.686
X114.638 Y156.501
X115.115 Y156.388
X115.602 Y156.35
X117.888
G3 X118.371 Y156.464 I-0.044 J1.269
X119.109 Y157.507 I-0.527 J1.156
G1 X120.423 Y172.268
G3 X119.685 Y173.536 I-1.265 J0.113
X119.202 Y173.65 I-0.527 J-1.156
G1 X116.917
X116.836 Y173.646
X116.64 Y173.63
X116.438 Y173.603
X116.209 Y173.559
X115.973 Y173.501
X115.714 Y173.421
X115.438 Y173.32
X115.155 Y173.199
X114.847 Y173.046
X114.536 Y172.871
X114.21 Y172.662
X113.865 Y172.415
X113.525 Y172.142
X113.171 Y171.824
X112.808 Y171.461
X112.456 Y171.069
X112.104 Y170.631
X111.751 Y170.14
X111.408 Y169.604
X111.088 Y169.038
X110.786 Y168.427
X110.503 Y167.771
X110.248 Y167.076
X110.026 Y166.352
X109.842 Y165.608
X109.697 Y164.852
X109.595 Y164.098
X109.534 Y163.349
X109.515 Y162.623
X109.535 Y161.916
X109.59 Y161.241
X109.674 Y160.629
X109.783 Y160.065
X109.904 Y159.581
X110.046 Y159.12
X110.196 Y158.713
X110.361 Y158.33
X110.542 Y157.966
X110.81 Y157.567
X111.135 Y157.213
X111.508 Y156.912
X111.923 Y156.67
X112.37 Y156.494
X112.838 Y156.386
X113.317 Y156.35
X115.602
G3 X116.085 Y156.464 I-0.044 J1.269
X116.823 Y157.507 I-0.527 J1.156
G1 X118.137 Y172.268
G3 X117.399 Y173.536 I-1.265 J0.113
X116.917 Y173.65 I-0.527 J-1.156
G1 X114.631
X114.481 Y173.643
X114.284 Y173.621
X114.063 Y173.585
X113.828 Y173.533
X113.58 Y173.464
X113.307 Y173.371
X113.031 Y173.261
X112.729 Y173.121
X112.417 Y172.955
X112.097 Y172.762
X111.754 Y172.529
X111.413 Y172.27
X111.064 Y171.973
X110.7 Y171.627
X110.343 Y171.249
X109.989 Y170.831
X109.631 Y170.359
X109.279 Y169.838
X108.949 Y169.287
X108.635 Y168.694
X108.341 Y168.054
X108.071 Y167.375
X107.833 Y166.664
X107.631 Y165.93
X107.467 Y165.179
X107.345 Y164.424
X107.265 Y163.674
X107.226 Y162.942
X107.228 Y162.229
X107.267 Y161.541
X107.339 Y160.886
X107.433 Y160.324
X107.552 Y159.787
X107.678 Y159.34
X107.829 Y158.894
X107.981 Y158.516
X108.158 Y158.137
X108.207 Y158.044
X108.472 Y157.628
X108.798 Y157.257
X109.178 Y156.941
X109.601 Y156.687
X110.058 Y156.501
X110.539 Y156.388
X111.031 Y156.35
X113.317
G3 X113.799 Y156.464 I-0.044 J1.269
X114.537 Y157.507 I-0.527 J1.156
G1 X115.852 Y172.268
G3 X115.113 Y173.536 I-1.265 J0.113
X114.631 Y173.65 I-0.527 J-1.156
G1 X112.439
X112.229 Y173.639
X112.023 Y173.618
X111.811 Y173.584
X111.575 Y173.533
X111.324 Y173.464
X111.061 Y173.377
X110.772 Y173.263
X110.481 Y173.13
X110.165 Y172.964
X109.839 Y172.769
X109.509 Y172.547
X109.157 Y172.282
X108.805 Y171.985
X108.452 Y171.652
X108.086 Y171.269
X107.722 Y170.843
X107.373 Y170.386
X107.025 Y169.877
X106.685 Y169.316
X106.363 Y168.712
X106.067 Y168.078
X105.799 Y167.411
X105.56 Y166.709
X105.356 Y165.979
X105.189 Y165.231
X105.062 Y164.471
X104.978 Y163.719
X104.936 Y162.977
X104.935 Y162.266
X104.97 Y161.586
X105.039 Y160.937
X105.13 Y160.376
X105.248 Y159.831
X105.372 Y159.382
X105.523 Y158.931
X105.672 Y158.554
X105.85 Y158.168
X105.906 Y158.062
X106.171 Y157.642
X106.498 Y157.267
X106.879 Y156.948
X107.305 Y156.691
X107.765 Y156.503
X108.249 Y156.389
X108.745 Y156.35
X111.031
G3 X111.513 Y156.464 I-0.044 J1.269
X112.251 Y157.499 I-0.527 J1.156
G1 X113.659 Y172.26
G3 X112.922 Y173.536 I-1.264 J0.121
X112.439 Y173.65 I-0.527 J-1.156
G1 X110.154
X110.055 Y173.645
X109.862 Y173.631
X109.657 Y173.604
X109.426 Y173.561
X109.189 Y173.504
X108.925 Y173.424
X108.653 Y173.326
X108.364 Y173.204
X108.053 Y173.052
X107.742 Y172.879
X107.406 Y172.667
X107.062 Y172.423
X106.717 Y172.149
X106.355 Y171.827
X105.991 Y171.468
X105.636 Y171.076
X105.275 Y170.633
X104.916 Y170.138
X104.574 Y169.609
X104.249 Y169.043
X103.94 Y168.427
X103.652 Y167.768
X103.393 Y167.073
X103.168 Y166.352
X102.98 Y165.612
X102.832 Y164.861
X102.726 Y164.113
X102.662 Y163.373
X102.639 Y162.654
X102.655 Y161.954
X102.706 Y161.283
X102.787 Y160.671
X102.891 Y160.113
X103.01 Y159.625
X103.149 Y159.168
X103.298 Y158.756
X103.459 Y158.377
X103.638 Y158.012
X103.645 Y158
X103.915 Y157.593
X104.243 Y157.232
X104.622 Y156.924
X105.043 Y156.677
X105.497 Y156.497
X105.972 Y156.387
X106.459 Y156.35
X108.745
G3 X109.227 Y156.464 I-0.044 J1.269
X109.965 Y157.499 I-0.527 J1.156
G1 X111.374 Y172.26
G3 X110.636 Y173.536 I-1.264 J0.121
X110.154 Y173.65 I-0.527 J-1.156
G1 X107.868
X107.771 Y173.645
X107.58 Y173.631
X107.366 Y173.602
X107.144 Y173.561
X106.895 Y173.5
X106.64 Y173.423
X106.363 Y173.323
X106.068 Y173.197
X105.767 Y173.05
X105.44 Y172.867
X105.112 Y172.659
X104.772 Y172.417
X104.413 Y172.131
X104.061 Y171.818
X103.702 Y171.461
X103.333 Y171.053
X102.971 Y170.607
X102.622 Y170.126
X102.278 Y169.592
X101.945 Y169.008
X101.633 Y168.384
X101.348 Y167.729
X101.094 Y167.045
X100.872 Y166.332
X100.686 Y165.595
X100.539 Y164.843
X100.434 Y164.088
X100.371 Y163.341
X100.349 Y162.62
X100.365 Y161.929
X100.417 Y161.267
X100.501 Y160.639
X100.602 Y160.103
X100.725 Y159.602
X100.859 Y159.162
X101.012 Y158.74
X101.169 Y158.372
X101.353 Y158.001
X101.624 Y157.594
X101.953 Y157.232
X102.333 Y156.924
X102.755 Y156.677
X103.209 Y156.497
X103.686 Y156.387
X104.173 Y156.35
X106.459
G3 X107.679 Y157.499 I-0.044 J1.269
G1 X109.088 Y172.26
G3 X108.35 Y173.536 I-1.264 J0.121
X107.868 Y173.65 I-0.527 J-1.156
G1 X105.582
X105.486 Y173.645
X105.295 Y173.63
X105.081 Y173.602
X104.859 Y173.561
X104.609 Y173.5
X104.354 Y173.422
X104.074 Y173.321
X103.78 Y173.196
X103.479 Y173.048
X103.151 Y172.864
X102.824 Y172.657
X102.481 Y172.413
X102.121 Y172.125
X101.768 Y171.811
X101.407 Y171.452
X101.037 Y171.043
X100.677 Y170.598
X100.328 Y170.116
X99.985 Y169.582
X99.652 Y168.999
X99.34 Y168.374
X99.056 Y167.72
X98.802 Y167.035
X98.58 Y166.32
X98.394 Y165.582
X98.248 Y164.831
X98.143 Y164.075
X98.08 Y163.33
X98.058 Y162.609
X98.075 Y161.918
X98.127 Y161.259
X98.211 Y160.631
X98.312 Y160.098
X98.435 Y159.598
X98.569 Y159.159
X98.722 Y158.738
X98.88 Y158.37
X99.062 Y158.001
X99.333 Y157.594
X99.663 Y157.232
X100.043 Y156.924
X100.465 Y156.677
X100.92 Y156.497
X101.397 Y156.387
X101.884 Y156.35
X104.173
G3 X105.393 Y157.499 I-0.044 J1.269
G1 X106.802 Y172.26
G3 X105.582 Y173.65 I-1.264 J0.121
G1 X103.296
X103.2 Y173.645
X103.008 Y173.63
X102.794 Y173.602
X102.572 Y173.56
X102.321 Y173.499
X102.066 Y173.422
X101.786 Y173.32
X101.491 Y173.195
X101.19 Y173.047
X100.862 Y172.863
X100.534 Y172.655
X100.191 Y172.411
X99.831 Y172.123
X99.478 Y171.809
X99.116 Y171.45
X98.746 Y171.04
X98.386 Y170.595
X98.038 Y170.113
X97.694 Y169.578
X97.361 Y168.994
X97.049 Y168.369
X96.765 Y167.715
X96.511 Y167.03
X96.289 Y166.314
X96.103 Y165.577
X95.957 Y164.826
X95.852 Y164.069
X95.789 Y163.325
X95.768 Y162.605
X95.785 Y161.915
X95.837 Y161.256
X95.921 Y160.629
X96.022 Y160.096
X96.145 Y159.597
X96.279 Y159.158
X96.432 Y158.737
X96.589 Y158.37
X96.772 Y158
X97.043 Y157.593
X97.373 Y157.232
X97.753 Y156.924
X98.175 Y156.677
X98.63 Y156.497
X99.106 Y156.387
X99.594 Y156.35
X101.884
G3 X102.367 Y156.464 I-0.044 J1.269
X103.104 Y157.498 I-0.527 J1.156
G1 X104.516 Y172.26
G3 X103.779 Y173.536 I-1.264 J0.121
X103.296 Y173.65 I-0.527 J-1.156
G1 X101.01
X100.913 Y173.645
X100.721 Y173.63
X100.507 Y173.602
X100.285 Y173.561
X100.034 Y173.499
X99.779 Y173.422
X99.498 Y173.32
X99.204 Y173.195
X98.902 Y173.047
X98.574 Y172.863
X98.247 Y172.656
X97.904 Y172.411
X97.543 Y172.124
X97.19 Y171.809
X96.828 Y171.45
X96.458 Y171.04
X96.098 Y170.596
X95.749 Y170.114
X95.405 Y169.579
X95.072 Y168.994
X94.76 Y168.37
X94.476 Y167.716
X94.222 Y167.031
X94 Y166.315
X93.814 Y165.578
X93.668 Y164.827
X93.562 Y164.071
X93.5 Y163.327
X93.478 Y162.607
X93.495 Y161.917
X93.547 Y161.258
X93.631 Y160.631
X93.731 Y160.098
X93.854 Y159.599
X93.988 Y159.16
X94.141 Y158.739
X94.299 Y158.371
X94.481 Y158.001
X94.752 Y157.594
X95.082 Y157.232
X95.462 Y156.925
X95.885 Y156.678
X96.34 Y156.497
X96.816 Y156.387
X97.304 Y156.35
X99.594
G3 X100.076 Y156.464 I-0.044 J1.269
X100.814 Y157.498 I-0.527 J1.156
G1 X102.23 Y172.259
G3 X101.493 Y173.536 I-1.264 J0.121
X101.01 Y173.65 I-0.527 J-1.156
G1 X98.725
X98.626 Y173.645
X98.434 Y173.63
X98.22 Y173.602
X97.998 Y173.561
X97.747 Y173.5
X97.492 Y173.422
X97.211 Y173.321
X96.918 Y173.196
X96.616 Y173.048
X96.288 Y172.864
X95.96 Y172.657
X95.617 Y172.412
X95.256 Y172.125
X94.903 Y171.811
X94.541 Y171.452
X94.171 Y171.042
X93.811 Y170.598
X93.462 Y170.116
X93.117 Y169.581
X92.784 Y168.997
X92.472 Y168.373
X92.188 Y167.72
X91.934 Y167.035
X91.711 Y166.319
X91.525 Y165.582
X91.379 Y164.831
X91.273 Y164.075
X91.21 Y163.331
X91.188 Y162.611
X91.205 Y161.921
X91.256 Y161.262
X91.34 Y160.635
X91.44 Y160.102
X91.563 Y159.602
X91.697 Y159.163
X91.85 Y158.742
X92.007 Y158.374
X92.19 Y158.004
X92.461 Y157.596
X92.791 Y157.234
X93.172 Y156.926
X93.595 Y156.678
X94.05 Y156.497
X94.528 Y156.387
X95.016 Y156.35
X97.304
G3 X97.787 Y156.464 I-0.044 J1.269
X98.524 Y157.498 I-0.527 J1.156
G1 X99.944 Y172.259
G3 X99.207 Y173.536 I-1.264 J0.122
X98.725 Y173.65 I-0.527 J-1.156
G1 X96.439
X96.339 Y173.645
X96.147 Y173.63
X95.933 Y173.602
X95.711 Y173.561
X95.46 Y173.5
X95.205 Y173.423
X94.925 Y173.322
X94.631 Y173.197
X94.329 Y173.049
X94.001 Y172.866
X93.674 Y172.659
X93.33 Y172.414
X92.97 Y172.127
X92.617 Y171.814
X92.255 Y171.455
X91.884 Y171.046
X91.525 Y170.602
X91.175 Y170.12
X90.83 Y169.586
X90.497 Y169.002
X90.185 Y168.378
X89.901 Y167.725
X89.646 Y167.041
X89.423 Y166.325
X89.237 Y165.588
X89.09 Y164.837
X88.984 Y164.081
X88.92 Y163.337
X88.898 Y162.617
X88.914 Y161.926
X88.966 Y161.267
X89.049 Y160.64
X89.149 Y160.107
X89.272 Y159.607
X89.405 Y159.168
X89.559 Y158.746
X89.715 Y158.378
X89.898 Y158.007
X90.17 Y157.599
X90.5 Y157.236
X90.882 Y156.927
X91.305 Y156.679
X91.761 Y156.498
X92.24 Y156.387
X92.729 Y156.35
X95.016
G3 X96.236 Y157.497 I-0.044 J1.269
G1 X97.659 Y172.259
G3 X96.921 Y173.536 I-1.264 J0.122
X96.439 Y173.65 I-0.527 J-1.156
G1 X94.153
X94.051 Y173.645
X93.86 Y173.63
X93.646 Y173.603
X93.424 Y173.561
X93.173 Y173.5
X92.918 Y173.424
X92.638 Y173.323
X92.344 Y173.198
X92.042 Y173.05
X91.715 Y172.867
X91.387 Y172.661
X91.044 Y172.417
X90.684 Y172.13
X90.331 Y171.817
X89.969 Y171.458
X89.598 Y171.049
X89.238 Y170.606
X88.889 Y170.125
X88.544 Y169.591
X88.21 Y169.007
X87.898 Y168.384
X87.613 Y167.731
X87.358 Y167.047
X87.135 Y166.332
X86.948 Y165.595
X86.801 Y164.844
X86.695 Y164.089
X86.631 Y163.345
X86.608 Y162.624
X86.624 Y161.933
X86.675 Y161.274
X86.758 Y160.646
X86.858 Y160.113
X86.981 Y159.612
X87.114 Y159.174
X87.267 Y158.751
X87.424 Y158.383
X87.606 Y158.012
X87.879 Y157.602
X88.21 Y157.238
X88.592 Y156.928
X89.016 Y156.68
X89.473 Y156.498
X89.953 Y156.387
X90.443 Y156.35
X92.729
G3 X93.211 Y156.464 I-0.044 J1.269
X93.949 Y157.497 I-0.527 J1.156
G1 X95.373 Y172.259
G3 X94.635 Y173.536 I-1.264 J0.122
X94.153 Y173.65 I-0.527 J-1.156
G1 X91.867
X91.764 Y173.645
X91.572 Y173.63
X91.358 Y173.603
X91.137 Y173.562
X90.886 Y173.501
X90.631 Y173.424
X90.352 Y173.324
X90.058 Y173.199
X89.756 Y173.052
X89.429 Y172.869
X89.101 Y172.663
X88.758 Y172.419
X88.398 Y172.133
X88.045 Y171.82
X87.683 Y171.462
X87.312 Y171.054
X86.952 Y170.611
X86.603 Y170.13
X86.258 Y169.596
X85.924 Y169.014
X85.611 Y168.391
X85.326 Y167.738
X85.071 Y167.054
X84.848 Y166.339
X84.66 Y165.602
X84.513 Y164.852
X84.406 Y164.097
X84.342 Y163.353
X84.319 Y162.632
X84.334 Y161.941
X84.385 Y161.282
X84.467 Y160.654
X84.567 Y160.12
X84.69 Y159.619
X84.822 Y159.18
X84.976 Y158.757
X85.132 Y158.389
X85.314 Y158.017
X85.587 Y157.606
X85.919 Y157.241
X86.302 Y156.93
X86.728 Y156.681
X87.186 Y156.498
X87.667 Y156.387
X88.158 Y156.35
X90.443
G3 X90.926 Y156.464 I-0.044 J1.269
X91.663 Y157.497 I-0.527 J1.156
G1 X93.087 Y172.259
G3 X92.35 Y173.536 I-1.264 J0.122
X91.867 Y173.65 I-0.527 J-1.156
G1 X89.581
X89.37 Y173.639
X89.173 Y173.619
X88.951 Y173.583
X88.715 Y173.532
X88.464 Y173.464
X88.188 Y173.372
X87.909 Y173.262
X87.605 Y173.122
X87.291 Y172.958
X86.967 Y172.765
X86.621 Y172.531
X86.277 Y172.272
X85.922 Y171.972
X85.552 Y171.625
X85.192 Y171.247
X84.833 Y170.827
X84.472 Y170.355
X84.117 Y169.835
X83.783 Y169.284
X83.467 Y168.692
X83.169 Y168.053
X82.897 Y167.375
X82.656 Y166.666
X82.451 Y165.935
X82.285 Y165.19
X82.159 Y164.438
X82.077 Y163.696
X82.035 Y162.967
X82.033 Y162.26
X82.069 Y161.576
X82.138 Y160.926
X82.228 Y160.371
X82.345 Y159.834
X82.467 Y159.388
X82.617 Y158.94
X82.768 Y158.561
X82.943 Y158.18
X82.985 Y158.1
X83.219 Y157.721
X83.502 Y157.378
X83.828 Y157.076
X84.193 Y156.821
X84.588 Y156.618
X85.008 Y156.47
X85.443 Y156.38
X85.887 Y156.35
X88.158
G3 X88.641 Y156.464 I-0.044 J1.269
X89.378 Y157.497 I-0.527 J1.156
G1 X90.801 Y172.259
G3 X90.064 Y173.536 I-1.264 J0.122
X89.581 Y173.65 I-0.527 J-1.156
G1 X87.296
X87.085 Y173.639
X86.878 Y173.618
X86.663 Y173.583
X86.425 Y173.532
X86.17 Y173.462
X85.905 Y173.374
X85.613 Y173.259
X85.319 Y173.124
X85.001 Y172.958
X84.67 Y172.76
X84.338 Y172.536
X83.984 Y172.269
X83.627 Y171.968
X83.272 Y171.634
X82.905 Y171.249
X82.536 Y170.818
X82.184 Y170.358
X81.836 Y169.847
X81.496 Y169.286
X81.171 Y168.679
X80.873 Y168.039
X80.605 Y167.371
X80.367 Y166.671
X80.163 Y165.944
X79.996 Y165.198
X79.87 Y164.442
X79.787 Y163.694
X79.745 Y162.96
X79.744 Y162.256
X79.779 Y161.584
X79.847 Y160.937
X79.938 Y160.374
X80.052 Y159.853
X80.181 Y159.383
X80.322 Y158.962
X80.483 Y158.557
X80.648 Y158.197
X80.7 Y158.1
X80.933 Y157.721
X81.216 Y157.378
X81.543 Y157.076
X81.907 Y156.821
X82.303 Y156.618
X82.722 Y156.47
X83.158 Y156.38
X83.601 Y156.35
X85.887
G3 X86.369 Y156.464 I-0.044 J1.269
X87.107 Y157.499 I-0.527 J1.156
G1 X88.516 Y172.26
G3 X87.778 Y173.536 I-1.264 J0.121
X87.296 Y173.65 I-0.527 J-1.156
G1 X85.01
X84.795 Y173.639
X84.588 Y173.618
X84.373 Y173.583
X84.135 Y173.532
X83.881 Y173.462
X83.615 Y173.374
X83.323 Y173.259
X83.029 Y173.124
X82.713 Y172.958
X82.381 Y172.76
X82.049 Y172.537
X81.695 Y172.269
X81.337 Y171.967
X80.981 Y171.632
X80.614 Y171.247
X80.245 Y170.816
X79.893 Y170.356
X79.546 Y169.847
X79.206 Y169.287
X78.882 Y168.68
X78.584 Y168.041
X78.315 Y167.372
X78.077 Y166.67
X77.873 Y165.943
X77.707 Y165.199
X77.581 Y164.444
X77.498 Y163.696
X77.456 Y162.964
X77.455 Y162.262
X77.489 Y161.588
X77.558 Y160.943
X77.649 Y160.379
X77.763 Y159.857
X77.893 Y159.386
X78.034 Y158.964
X78.194 Y158.559
X78.36 Y158.199
X78.412 Y158.101
X78.646 Y157.722
X78.929 Y157.379
X79.255 Y157.077
X79.62 Y156.822
X80.016 Y156.618
X80.436 Y156.47
X80.871 Y156.38
X81.315 Y156.35
X83.601
G3 X84.821 Y157.499 I-0.044 J1.269
G1 X86.23 Y172.26
G3 X85.492 Y173.536 I-1.264 J0.121
X85.01 Y173.65 I-0.527 J-1.156
G1 X82.724
X82.505 Y173.639
X82.298 Y173.617
X82.083 Y173.583
X81.846 Y173.532
X81.591 Y173.462
X81.325 Y173.374
X81.033 Y173.258
X80.739 Y173.124
X80.423 Y172.958
X80.091 Y172.76
X79.759 Y172.537
X79.405 Y172.269
X79.047 Y171.967
X78.691 Y171.632
X78.324 Y171.247
X77.956 Y170.817
X77.604 Y170.357
X77.256 Y169.847
X76.917 Y169.287
X76.593 Y168.68
X76.295 Y168.041
X76.026 Y167.372
X75.788 Y166.672
X75.584 Y165.945
X75.418 Y165.201
X75.292 Y164.447
X75.209 Y163.699
X75.168 Y162.968
X75.166 Y162.265
X75.201 Y161.591
X75.269 Y160.946
X75.361 Y160.382
X75.475 Y159.859
X75.604 Y159.388
X75.745 Y158.965
X75.906 Y158.56
X76.072 Y158.2
X76.123 Y158.102
X76.357 Y157.723
X76.641 Y157.38
X76.968 Y157.077
X77.333 Y156.822
X77.729 Y156.618
X78.149 Y156.47
X78.585 Y156.38
X79.03 Y156.35
X81.315
G3 X82.535 Y157.499 I-0.044 J1.269
G1 X83.944 Y172.26
G3 X82.724 Y173.65 I-1.264 J0.121
G1 X80.438
X80.215 Y173.639
X80.009 Y173.617
X79.794 Y173.583
X79.556 Y173.531
X79.301 Y173.462
X79.035 Y173.373
X78.743 Y173.258
X78.449 Y173.124
X78.133 Y172.957
X77.802 Y172.76
X77.47 Y172.536
X77.115 Y172.269
X76.757 Y171.967
X76.402 Y171.632
X76.034 Y171.247
X75.666 Y170.817
X75.314 Y170.357
X74.967 Y169.848
X74.627 Y169.287
X74.304 Y168.681
X74.006 Y168.042
X73.737 Y167.374
X73.499 Y166.673
X73.295 Y165.947
X73.129 Y165.203
X73.004 Y164.45
X72.92 Y163.702
X72.879 Y162.97
X72.877 Y162.267
X72.912 Y161.593
X72.981 Y160.948
X73.072 Y160.383
X73.186 Y159.86
X73.316 Y159.39
X73.457 Y158.967
X73.618 Y158.562
X73.784 Y158.201
X73.835 Y158.104
X74.069 Y157.725
X74.353 Y157.381
X74.68 Y157.078
X75.045 Y156.822
X75.442 Y156.619
X75.862 Y156.47
X76.299 Y156.38
X76.744 Y156.35
X79.03
G3 X79.512 Y156.464 I-0.044 J1.269
X80.25 Y157.499 I-0.527 J1.156
G1 X81.658 Y172.26
G3 X80.438 Y173.65 I-1.264 J0.121
G1 X78.058
X77.908 Y173.643
X77.7 Y173.619
X77.481 Y173.583
X77.243 Y173.53
X76.983 Y173.457
X76.717 Y173.367
X76.423 Y173.249
X76.125 Y173.11
X75.81 Y172.941
X75.474 Y172.738
X75.141 Y172.511
X74.788 Y172.241
X74.425 Y171.931
X74.07 Y171.593
X73.705 Y171.205
X73.336 Y170.767
X72.982 Y170.298
X72.638 Y169.787
X72.302 Y169.225
X71.981 Y168.615
X71.684 Y167.966
X71.417 Y167.289
X71.183 Y166.586
X70.984 Y165.859
X70.823 Y165.114
X70.702 Y164.361
X70.624 Y163.616
X70.587 Y162.89
X70.59 Y162.193
X70.629 Y161.52
X70.702 Y160.879
X70.796 Y160.317
X70.91 Y159.809
X71.044 Y159.337
X71.185 Y158.923
X71.349 Y158.517
X71.515 Y158.163
X71.555 Y158.088
X71.79 Y157.712
X72.074 Y157.371
X72.402 Y157.071
X72.766 Y156.818
X73.161 Y156.616
X73.58 Y156.469
X74.015 Y156.38
X74.458 Y156.35
X76.744
G3 X77.226 Y156.464 I-0.044 J1.269
X77.965 Y157.507 I-0.527 J1.156
G1 X79.279 Y172.268
G3 X78.541 Y173.536 I-1.265 J0.113
X78.058 Y173.65 I-0.527 J-1.156
G1 X75.772
X75.623 Y173.643
X75.414 Y173.62
X75.198 Y173.584
X74.957 Y173.531
X74.704 Y173.46
X74.434 Y173.369
X74.141 Y173.252
X73.846 Y173.116
X73.527 Y172.946
X73.198 Y172.747
X72.863 Y172.52
X72.506 Y172.248
X72.152 Y171.946
X71.794 Y171.606
X71.424 Y171.215
X71.058 Y170.783
X70.707 Y170.32
X70.359 Y169.804
X70.02 Y169.239
X69.698 Y168.63
X69.404 Y167.99
X69.138 Y167.32
X68.903 Y166.617
X68.702 Y165.889
X68.54 Y165.144
X68.418 Y164.391
X68.338 Y163.643
X68.3 Y162.913
X68.301 Y162.211
X68.339 Y161.54
X68.411 Y160.898
X68.504 Y160.339
X68.619 Y159.822
X68.75 Y159.354
X68.892 Y158.935
X69.054 Y158.531
X69.221 Y158.174
X69.263 Y158.095
X69.498 Y157.717
X69.783 Y157.375
X70.111 Y157.074
X70.476 Y156.82
X70.872 Y156.617
X71.292 Y156.47
X71.728 Y156.38
X72.172 Y156.35
X74.458
G3 X74.94 Y156.464 I-0.044 J1.269
X75.679 Y157.507 I-0.527 J1.156
G1 X76.993 Y172.268
G3 X76.255 Y173.536 I-1.265 J0.113
X75.772 Y173.65 I-0.527 J-1.156
G1 X73.487
X73.337 Y173.643
X73.128 Y173.62
X72.913 Y173.585
X72.673 Y173.532
X72.419 Y173.462
X72.15 Y173.371
X71.858 Y173.255
X71.564 Y173.119
X71.245 Y172.95
X70.915 Y172.752
X70.581 Y172.525
X70.224 Y172.254
X69.869 Y171.952
X69.512 Y171.614
X69.144 Y171.225
X68.777 Y170.794
X68.426 Y170.332
X68.079 Y169.819
X67.74 Y169.255
X67.418 Y168.647
X67.122 Y168.008
X66.856 Y167.338
X66.619 Y166.635
X66.418 Y165.907
X66.254 Y165.162
X66.131 Y164.408
X66.051 Y163.661
X66.012 Y162.93
Y162.228
X66.049 Y161.556
X66.12 Y160.913
X66.213 Y160.353
X66.327 Y159.834
X66.458 Y159.366
X66.6 Y158.945
X66.762 Y158.541
X66.928 Y158.183
X66.972 Y158.1
X67.208 Y157.721
X67.492 Y157.378
X67.821 Y157.076
X68.186 Y156.821
X68.583 Y156.618
X69.004 Y156.47
X69.441 Y156.38
X69.886 Y156.35
X72.172
G3 X72.655 Y156.464 I-0.044 J1.269
X73.393 Y157.507 I-0.527 J1.156
G1 X74.707 Y172.268
G3 X73.969 Y173.536 I-1.265 J0.113
X73.487 Y173.65 I-0.527 J-1.156
G1 X71.201
X71.051 Y173.643
X70.843 Y173.62
X70.628 Y173.585
X70.388 Y173.533
X70.135 Y173.463
X69.867 Y173.373
X69.575 Y173.258
X69.281 Y173.122
X68.963 Y172.954
X68.633 Y172.756
X68.299 Y172.531
X67.944 Y172.261
X67.588 Y171.96
X67.231 Y171.623
X66.863 Y171.235
X66.497 Y170.804
X66.145 Y170.343
X65.798 Y169.832
X65.459 Y169.269
X65.136 Y168.662
X64.84 Y168.023
X64.573 Y167.354
X64.336 Y166.652
X64.133 Y165.924
X63.969 Y165.18
X63.845 Y164.426
X63.763 Y163.679
X63.724 Y162.947
X63.723 Y162.245
X63.76 Y161.572
X63.83 Y160.928
X63.922 Y160.367
X64.036 Y159.846
X64.166 Y159.377
X64.308 Y158.955
X64.47 Y158.551
X64.636 Y158.191
X64.683 Y158.103
X64.918 Y157.724
X65.203 Y157.38
X65.531 Y157.078
X65.897 Y156.822
X66.294 Y156.618
X66.715 Y156.47
X67.153 Y156.38
X67.598 Y156.35
X69.886
G3 X71.106 Y157.507 I-0.044 J1.269
G1 X72.421 Y172.268
G3 X71.683 Y173.536 I-1.265 J0.113
X71.201 Y173.65 I-0.527 J-1.156
G1 X68.915
X68.765 Y173.643
X68.558 Y173.621
X68.343 Y173.586
X68.104 Y173.534
X67.85 Y173.464
X67.583 Y173.375
X67.291 Y173.26
X66.998 Y173.125
X66.68 Y172.958
X66.35 Y172.76
X66.017 Y172.536
X65.662 Y172.267
X65.306 Y171.966
X64.95 Y171.63
X64.582 Y171.244
X64.215 Y170.813
X63.864 Y170.353
X63.516 Y169.843
X63.177 Y169.282
X62.854 Y168.675
X62.557 Y168.036
X62.289 Y167.368
X62.052 Y166.667
X61.848 Y165.94
X61.683 Y165.195
X61.559 Y164.442
X61.476 Y163.694
X61.435 Y162.962
X61.434 Y162.259
X61.47 Y161.586
X61.539 Y160.941
X61.631 Y160.379
X61.745 Y159.856
X61.875 Y159.387
X62.017 Y158.964
X62.178 Y158.559
X62.345 Y158.198
X62.393 Y158.107
X62.628 Y157.727
X62.913 Y157.382
X63.241 Y157.079
X63.607 Y156.823
X64.005 Y156.619
X64.426 Y156.47
X64.864 Y156.38
X65.31 Y156.35
X67.598
G3 X68.08 Y156.464 I-0.044 J1.269
X68.819 Y157.506 I-0.527 J1.156
G1 X70.136 Y172.268
G3 X68.915 Y173.65 I-1.265 J0.113
G1 X66.629
X66.479 Y173.643
X66.272 Y173.621
X66.058 Y173.586
X65.819 Y173.535
