%
(1001)
(Z0 stock bottom)
(T1  D=12.7 CR=0 - ZMIN=10 - flat end mill)
G90 G94
G17
G21

(2D Contour7 4)
M9
T1 M6
S6000 M3
G54
M9
G0 X878.861 Y-10.16
Z65
Z55
G1 Z54 F849.6
Z53.77
G19 G3 Y-8.89 Z52.5 J1.27
G1 Y-7.62
G17 G3 X877.591 Y-6.35 I-1.27
G1 X720.092 Z47 F400.3
X36.074 F849.6
G2 X32.341 Y-5.137 J6.35
G1 X5.141 Y14.625
G2 X3.736 Y23.494 I3.732 J5.137
G1 X120.156 Y183.732
G2 X125.293 Y186.35 I5.137 J-3.732
G1 X703.525
G2 X709.348 Y177.468 J-6.35
G1 X709.038 Y176.755
G2 X708.958 Y176.579 I-5.823 J2.532
G1 X708.635 Y175.894
G2 X708.554 Y175.728 I-5.743 J2.708
G1 X708.22 Y175.07
G2 X708.134 Y174.905 I-5.662 J2.874
G1 X707.789 Y174.272
G2 X707.701 Y174.117 I-5.576 J3.039
G1 X707.346 Y173.507
G2 X707.246 Y173.341 I-5.488 J3.194
G1 X706.88 Y172.754
G2 X706.79 Y172.613 I-5.388 J3.36
G1 X706.416 Y172.047
G2 X706.315 Y171.9 I-5.298 J3.501
G1 X705.931 Y171.353
G2 X705.786 Y171.154 I-5.197 J3.648
G1 X704.994 Y170.114
G2 X704.808 Y169.881 I-5.052 J3.847
G1 X703.988 Y168.903
G2 X703.822 Y168.713 I-4.866 J4.08
G1 X702.979 Y167.785
G2 X702.833 Y167.629 I-4.7 J4.27
G1 X701.97 Y166.741
G2 X701.859 Y166.631 I-4.554 J4.426
G1 X700.982 Y165.772
G2 X700.905 Y165.697 I-4.443 J4.536
G1 X700.018 Y164.857
G2 X699.982 Y164.823 I-4.366 J4.611
G1 X698.23 Y163.19
X696.552 Y161.58
X695.793 Y160.812
X695.048 Y160.021
X694.332 Y159.217
X693.642 Y158.392
X692.972 Y157.535
X692.322 Y156.646
X691.695 Y155.722
X691.088 Y154.761
X690.504 Y153.761
X689.942 Y152.724
X689.404 Y151.651
X688.892 Y150.543
X688.408 Y149.411
X687.956 Y148.255
X687.535 Y147.077
X687.149 Y145.893
X686.802 Y144.703
X686.493 Y143.514
X686.227 Y142.34
X686.006 Y141.185
X685.83 Y140.058
X685.704 Y138.973
X685.628 Y137.937
X685.602 Y136.961
X685.628 Y135.999
X685.654 Y135.618
X685.696 Y135.215
X685.749 Y134.825
X685.812 Y134.458
X685.884 Y134.116
X685.966 Y133.794
X686.058 Y133.485
X686.157 Y133.197
X686.264 Y132.928
X686.378 Y132.673
X686.502 Y132.431
X686.636 Y132.198
X686.782 Y131.971
X686.941 Y131.751
X687.115 Y131.533
X687.31 Y131.313
X687.526 Y131.092
X687.767 Y130.869
X688.035 Y130.644
X688.344 Y130.409
X688.686 Y130.171
X689.06 Y129.935
X689.482 Y129.692
X689.948 Y129.447
X690.461 Y129.202
X691.017 Y128.958
X691.619 Y128.719
X692.274 Y128.481
X692.983 Y128.247
X693.74 Y128.019
X694.55 Y127.798
X695.413 Y127.584
X696.328 Y127.379
X697.294 Y127.182
X698.315 Y126.995
X699.39 Y126.818
X700.517 Y126.652
X701.699 Y126.497
X702.934 Y126.353
X704.223 Y126.221
X705.566 Y126.101
X706.963 Y125.993
X708.414 Y125.897
X709.921 Y125.814
X711.482 Y125.743
X713.095 Y125.685
X714.764 Y125.639
X716.486 Y125.607
X718.264 Y125.588
X720.094 Y125.581
X721.923 Y125.588
X723.702 Y125.607
X725.424 Y125.639
X727.093 Y125.685
X728.706 Y125.743
X730.266 Y125.814
X731.773 Y125.897
X733.225 Y125.993
X734.622 Y126.101
X735.965 Y126.221
X737.254 Y126.353
X738.489 Y126.497
X739.671 Y126.652
X740.798 Y126.818
X741.872 Y126.995
X742.893 Y127.182
X743.861 Y127.379
X744.776 Y127.584
X745.637 Y127.798
X746.446 Y128.019
X747.204 Y128.247
X747.913 Y128.481
X748.568 Y128.719
X749.17 Y128.958
X749.727 Y129.202
X750.239 Y129.447
X750.705 Y129.692
X751.127 Y129.935
X751.504 Y130.173
X751.843 Y130.409
X752.149 Y130.642
X752.42 Y130.869
X752.661 Y131.092
X752.88 Y131.315
X753.073 Y131.533
X753.247 Y131.751
X753.405 Y131.971
X753.551 Y132.198
X753.685 Y132.431
X753.809 Y132.673
X753.924 Y132.928
X754.031 Y133.197
X754.13 Y133.485
X754.22 Y133.789
X754.303 Y134.116
X754.376 Y134.463
X754.44 Y134.83
X754.491 Y135.21
X754.533 Y135.618
X754.56 Y136.001
X754.585 Y136.961
X754.56 Y137.939
X754.484 Y138.973
X754.358 Y140.058
X754.183 Y141.183
X753.961 Y142.34
X753.695 Y143.516
X753.386 Y144.701
X753.038 Y145.893
X752.653 Y147.079
X752.232 Y148.253
X751.779 Y149.411
X751.295 Y150.545
X750.784 Y151.649
X750.246 Y152.722
X749.683 Y153.761
X749.098 Y154.762
X748.493 Y155.722
X747.865 Y156.646
X747.216 Y157.535
X746.547 Y158.391
X745.855 Y159.217
X745.138 Y160.023
X744.394 Y160.814
X743.637 Y161.579
X741.957 Y163.19
X740.205 Y164.823
G2 X740.166 Y164.86 I4.33 J4.645
G1 X739.28 Y165.7
G2 X739.206 Y165.772 I4.369 J4.608
G1 X738.329 Y166.631
G2 X738.218 Y166.741 I4.443 J4.536
G1 X737.355 Y167.629
G2 X737.211 Y167.783 I4.554 J4.426
G1 X736.367 Y168.711
G2 X736.199 Y168.903 I4.698 J4.272
G1 X735.379 Y169.881
G2 X735.191 Y170.117 I4.866 J4.08
G1 X734.4 Y171.157
G2 X734.257 Y171.353 I5.054 J3.844
G1 X733.873 Y171.9
G2 X733.776 Y172.041 I5.197 J3.648
G1 X733.401 Y172.607
G2 X733.302 Y172.761 I5.294 J3.507
G1 X732.938 Y173.348
G2 X732.846 Y173.5 I5.393 J3.353
G1 X732.49 Y174.11
G2 X732.398 Y174.272 I5.484 J3.201
G1 X732.053 Y174.905
G2 X731.967 Y175.07 I5.576 J3.039
G1 X731.633 Y175.728
G2 X731.548 Y175.901 I5.662 J2.874
G1 X731.226 Y176.586
G2 X731.153 Y176.748 I5.747 J2.701
G1 X730.842 Y177.461
G2 X736.662 Y186.35 I5.82 J2.539
G1 X1314.89
G2 X1320.027 Y183.732 J-6.35
G1 X1436.447 Y23.494
G2 X1435.042 Y14.625 I-5.137 J-3.732
G1 X1407.842 Y-5.137
G2 X1404.11 Y-6.35 I-3.732 J5.137
G1 X720.092
X567.538 Z44 F400.3
X36.074 F849.6
G2 X32.341 Y-5.137 J6.35
G1 X5.141 Y14.625
G2 X3.736 Y23.494 I3.732 J5.137
G1 X120.156 Y183.732
G2 X125.293 Y186.35 I5.137 J-3.732
G1 X703.525
G2 X709.348 Y177.468 J-6.35
G1 X709.038 Y176.755
G2 X708.958 Y176.579 I-5.823 J2.532
G1 X708.635 Y175.894
G2 X708.554 Y175.728 I-5.743 J2.708
G1 X708.22 Y175.07
G2 X708.134 Y174.905 I-5.662 J2.874
G1 X707.789 Y174.272
G2 X707.701 Y174.117 I-5.576 J3.039
G1 X707.346 Y173.507
G2 X707.246 Y173.341 I-5.488 J3.194
G1 X706.88 Y172.754
G2 X706.79 Y172.613 I-5.388 J3.36
G1 X706.416 Y172.047
G2 X706.315 Y171.9 I-5.298 J3.501
G1 X705.931 Y171.353
G2 X705.786 Y171.154 I-5.197 J3.648
G1 X704.994 Y170.114
G2 X704.808 Y169.881 I-5.052 J3.847
G1 X703.988 Y168.903
G2 X703.822 Y168.713 I-4.866 J4.08
G1 X702.979 Y167.785
G2 X702.833 Y167.629 I-4.7 J4.27
G1 X701.97 Y166.741
G2 X701.859 Y166.631 I-4.554 J4.426
G1 X700.982 Y165.772
G2 X700.905 Y165.697 I-4.443 J4.536
G1 X700.018 Y164.857
G2 X699.982 Y164.823 I-4.366 J4.611
G1 X698.23 Y163.19
X696.552 Y161.58
X695.793 Y160.812
X695.048 Y160.021
X694.332 Y159.217
X693.642 Y158.392
X692.972 Y157.535
X692.322 Y156.646
X691.695 Y155.722
X691.088 Y154.761
X690.504 Y153.761
X689.942 Y152.724
X689.404 Y151.651
X688.892 Y150.543
X688.408 Y149.411
X687.956 Y148.255
X687.535 Y147.077
X687.149 Y145.893
X686.802 Y144.703
X686.493 Y143.514
X686.227 Y142.34
X686.006 Y141.185
X685.83 Y140.058
X685.704 Y138.973
X685.628 Y137.937
X685.602 Y136.961
X685.628 Y135.999
X685.654 Y135.618
X685.696 Y135.215
X685.749 Y134.825
X685.812 Y134.458
X685.884 Y134.116
X685.966 Y133.794
X686.058 Y133.485
X686.157 Y133.197
X686.264 Y132.928
X686.378 Y132.673
X686.502 Y132.431
X686.636 Y132.198
X686.782 Y131.971
X686.941 Y131.751
X687.115 Y131.533
X687.31 Y131.313
X687.526 Y131.092
X687.767 Y130.869
X688.035 Y130.644
X688.344 Y130.409
X688.686 Y130.171
X689.06 Y129.935
X689.482 Y129.692
X689.948 Y129.447
X690.461 Y129.202
X691.017 Y128.958
X691.619 Y128.719
X692.274 Y128.481
X692.983 Y128.247
X693.74 Y128.019
X694.55 Y127.798
X695.413 Y127.584
X696.328 Y127.379
X697.294 Y127.182
X698.315 Y126.995
X699.39 Y126.818
X700.517 Y126.652
X701.699 Y126.497
X702.934 Y126.353
X704.223 Y126.221
X705.566 Y126.101
X706.963 Y125.993
X708.414 Y125.897
X709.921 Y125.814
X711.482 Y125.743
X713.095 Y125.685
X714.764 Y125.639
X716.486 Y125.607
X718.264 Y125.588
X720.094 Y125.581
X721.923 Y125.588
X723.702 Y125.607
X725.424 Y125.639
X727.093 Y125.685
X728.706 Y125.743
X730.266 Y125.814
X731.773 Y125.897
X733.225 Y125.993
X734.622 Y126.101
X735.965 Y126.221
X737.254 Y126.353
X738.489 Y126.497
X739.671 Y126.652
X740.798 Y126.818
X741.872 Y126.995
X742.893 Y127.182
X743.861 Y127.379
X744.776 Y127.584
X745.637 Y127.798
X746.446 Y128.019
X747.204 Y128.247
X747.913 Y128.481
X748.568 Y128.719
X749.17 Y128.958
X749.727 Y129.202
X750.239 Y129.447
X750.705 Y129.692
X751.127 Y129.935
X751.504 Y130.173
X751.843 Y130.409
X752.149 Y130.642
X752.42 Y130.869
X752.661 Y131.092
X752.88 Y131.315
X753.073 Y131.533
X753.247 Y131.751
X753.405 Y131.971
X753.551 Y132.198
X753.685 Y132.431
X753.809 Y132.673
X753.924 Y132.928
X754.031 Y133.197
X754.13 Y133.485
X754.22 Y133.789
X754.303 Y134.116
X754.376 Y134.463
X754.44 Y134.83
X754.491 Y135.21
X754.533 Y135.618
X754.56 Y136.001
X754.585 Y136.961
X754.56 Y137.939
X754.484 Y138.973
X754.358 Y140.058
X754.183 Y141.183
X753.961 Y142.34
X753.695 Y143.516
X753.386 Y144.701
X753.038 Y145.893
X752.653 Y147.079
X752.232 Y148.253
X751.779 Y149.411
X751.295 Y150.545
X750.784 Y151.649
X750.246 Y152.722
X749.683 Y153.761
X749.098 Y154.762
X748.493 Y155.722
X747.865 Y156.646
X747.216 Y157.535
X746.547 Y158.391
X745.855 Y159.217
X745.138 Y160.023
X744.394 Y160.814
X743.637 Y161.579
X741.957 Y163.19
X740.205 Y164.823
G2 X740.166 Y164.86 I4.33 J4.645
G1 X739.28 Y165.7
G2 X739.206 Y165.772 I4.369 J4.608
G1 X738.329 Y166.631
G2 X738.218 Y166.741 I4.443 J4.536
G1 X737.355 Y167.629
G2 X737.211 Y167.783 I4.554 J4.426
G1 X736.367 Y168.711
G2 X736.199 Y168.903 I4.698 J4.272
G1 X735.379 Y169.881
G2 X735.191 Y170.117 I4.866 J4.08
G1 X734.4 Y171.157
G2 X734.257 Y171.353 I5.054 J3.844
G1 X733.873 Y171.9
G2 X733.776 Y172.041 I5.197 J3.648
G1 X733.401 Y172.607
G2 X733.302 Y172.761 I5.294 J3.507
G1 X732.938 Y173.348
G2 X732.846 Y173.5 I5.393 J3.353
G1 X732.49 Y174.11
G2 X732.398 Y174.272 I5.484 J3.201
G1 X732.053 Y174.905
G2 X731.967 Y175.07 I5.576 J3.039
G1 X731.633 Y175.728
G2 X731.548 Y175.901 I5.662 J2.874
G1 X731.226 Y176.586
G2 X731.153 Y176.748 I5.747 J2.701
G1 X730.842 Y177.461
G2 X736.662 Y186.35 I5.82 J2.539
G1 X1314.89
G2 X1320.027 Y183.732 J-6.35
G1 X1436.447 Y23.494
G2 X1435.042 Y14.625 I-5.137 J-3.732
G1 X1407.842 Y-5.137
G2 X1404.11 Y-6.35 I-3.732 J5.137
G1 X720.092
X567.538
X414.984 Z41 F400.3
X36.074 F849.6
G2 X32.341 Y-5.137 J6.35
G1 X5.141 Y14.625
G2 X3.736 Y23.494 I3.732 J5.137
G1 X120.156 Y183.732
G2 X125.293 Y186.35 I5.137 J-3.732
G1 X703.525
G2 X709.348 Y177.468 J-6.35
G1 X709.038 Y176.755
G2 X708.958 Y176.579 I-5.823 J2.532
G1 X708.635 Y175.894
G2 X708.554 Y175.728 I-5.743 J2.708
G1 X708.22 Y175.07
G2 X708.134 Y174.905 I-5.662 J2.874
G1 X707.789 Y174.272
G2 X707.701 Y174.117 I-5.576 J3.039
G1 X707.346 Y173.507
G2 X707.246 Y173.341 I-5.488 J3.194
G1 X706.88 Y172.754
G2 X706.79 Y172.613 I-5.388 J3.36
G1 X706.416 Y172.047
G2 X706.315 Y171.9 I-5.298 J3.501
G1 X705.931 Y171.353
G2 X705.786 Y171.154 I-5.197 J3.648
G1 X704.994 Y170.114
G2 X704.808 Y169.881 I-5.052 J3.847
G1 X703.988 Y168.903
G2 X703.822 Y168.713 I-4.866 J4.08
G1 X702.979 Y167.785
G2 X702.833 Y167.629 I-4.7 J4.27
G1 X701.97 Y166.741
G2 X701.859 Y166.631 I-4.554 J4.426
G1 X700.982 Y165.772
G2 X700.905 Y165.697 I-4.443 J4.536
G1 X700.018 Y164.857
G2 X699.982 Y164.823 I-4.366 J4.611
G1 X698.23 Y163.19
X696.552 Y161.58
X695.793 Y160.812
X695.048 Y160.021
X694.332 Y159.217
X693.642 Y158.392
X692.972 Y157.535
X692.322 Y156.646
X691.695 Y155.722
X691.088 Y154.761
X690.504 Y153.761
X689.942 Y152.724
X689.404 Y151.651
X688.892 Y150.543
X688.408 Y149.411
X687.956 Y148.255
X687.535 Y147.077
X687.149 Y145.893
X686.802 Y144.703
X686.493 Y143.514
X686.227 Y142.34
X686.006 Y141.185
X685.83 Y140.058
X685.704 Y138.973
X685.628 Y137.937
X685.602 Y136.961
X685.628 Y135.999
X685.654 Y135.618
X685.696 Y135.215
X685.749 Y134.825
X685.812 Y134.458
X685.884 Y134.116
X685.966 Y133.794
X686.058 Y133.485
X686.157 Y133.197
X686.264 Y132.928
X686.378 Y132.673
X686.502 Y132.431
X686.636 Y132.198
X686.782 Y131.971
X686.941 Y131.751
X687.115 Y131.533
X687.31 Y131.313
X687.526 Y131.092
X687.767 Y130.869
X688.035 Y130.644
X688.344 Y130.409
X688.686 Y130.171
X689.06 Y129.935
X689.482 Y129.692
X689.948 Y129.447
X690.461 Y129.202
X691.017 Y128.958
X691.619 Y128.719
X692.274 Y128.481
X692.983 Y128.247
X693.74 Y128.019
X694.55 Y127.798
X695.413 Y127.584
X696.328 Y127.379
X697.294 Y127.182
X698.315 Y126.995
X699.39 Y126.818
X700.517 Y126.652
X701.699 Y126.497
X702.934 Y126.353
X704.223 Y126.221
X705.566 Y126.101
X706.963 Y125.993
X708.414 Y125.897
X709.921 Y125.814
X711.482 Y125.743
X713.095 Y125.685
X714.764 Y125.639
X716.486 Y125.607
X718.264 Y125.588
X720.094 Y125.581
X721.923 Y125.588
X723.702 Y125.607
X725.424 Y125.639
X727.093 Y125.685
X728.706 Y125.743
X730.266 Y125.814
X731.773 Y125.897
X733.225 Y125.993
X734.622 Y126.101
X735.965 Y126.221
X737.254 Y126.353
X738.489 Y126.497
X739.671 Y126.652
X740.798 Y126.818
X741.872 Y126.995
X742.893 Y127.182
X743.861 Y127.379
X744.776 Y127.584
X745.637 Y127.798
X746.446 Y128.019
X747.204 Y128.247
X747.913 Y128.481
X748.568 Y128.719
X749.17 Y128.958
X749.727 Y129.202
X750.239 Y129.447
X750.705 Y129.692
X751.127 Y129.935
X751.504 Y130.173
X751.843 Y130.409
X752.149 Y130.642
X752.42 Y130.869
X752.661 Y131.092
X752.88 Y131.315
X753.073 Y131.533
X753.247 Y131.751
X753.405 Y131.971
X753.551 Y132.198
X753.685 Y132.431
X753.809 Y132.673
X753.924 Y132.928
X754.031 Y133.197
X754.13 Y133.485
X754.22 Y133.789
X754.303 Y134.116
X754.376 Y134.463
X754.44 Y134.83
X754.491 Y135.21
X754.533 Y135.618
X754.56 Y136.001
X754.585 Y136.961
X754.56 Y137.939
X754.484 Y138.973
X754.358 Y140.058
X754.183 Y141.183
X753.961 Y142.34
X753.695 Y143.516
X753.386 Y144.701
X753.038 Y145.893
X752.653 Y147.079
X752.232 Y148.253
X751.779 Y149.411
X751.295 Y150.545
X750.784 Y151.649
X750.246 Y152.722
X749.683 Y153.761
X749.098 Y154.762
X748.493 Y155.722
X747.865 Y156.646
X747.216 Y157.535
X746.547 Y158.391
X745.855 Y159.217
X745.138 Y160.023
X744.394 Y160.814
X743.637 Y161.579
X741.957 Y163.19
X740.205 Y164.823
G2 X740.166 Y164.86 I4.33 J4.645
G1 X739.28 Y165.7
G2 X739.206 Y165.772 I4.369 J4.608
G1 X738.329 Y166.631
G2 X738.218 Y166.741 I4.443 J4.536
G1 X737.355 Y167.629
G2 X737.211 Y167.783 I4.554 J4.426
G1 X736.367 Y168.711
G2 X736.199 Y168.903 I4.698 J4.272
G1 X735.379 Y169.881
G2 X735.191 Y170.117 I4.866 J4.08
G1 X734.4 Y171.157
G2 X734.257 Y171.353 I5.054 J3.844
G1 X733.873 Y171.9
G2 X733.776 Y172.041 I5.197 J3.648
G1 X733.401 Y172.607
G2 X733.302 Y172.761 I5.294 J3.507
G1 X732.938 Y173.348
G2 X732.846 Y173.5 I5.393 J3.353
G1 X732.49 Y174.11
G2 X732.398 Y174.272 I5.484 J3.201
G1 X732.053 Y174.905
G2 X731.967 Y175.07 I5.576 J3.039
G1 X731.633 Y175.728
G2 X731.548 Y175.901 I5.662 J2.874
G1 X731.226 Y176.586
G2 X731.153 Y176.748 I5.747 J2.701
G1 X730.842 Y177.461
G2 X736.662 Y186.35 I5.82 J2.539
G1 X1314.89
G2 X1320.027 Y183.732 J-6.35
G1 X1436.447 Y23.494
G2 X1435.042 Y14.625 I-5.137 J-3.732
G1 X1407.842 Y-5.137
G2 X1404.11 Y-6.35 I-3.732 J5.137
G1 X567.538
X414.984
X262.43 Z38 F400.3
X36.074 F849.6
G2 X32.341 Y-5.137 J6.35
G1 X5.141 Y14.625
G2 X3.736 Y23.494 I3.732 J5.137
G1 X120.156 Y183.732
G2 X125.293 Y186.35 I5.137 J-3.732
G1 X703.525
G2 X709.348 Y177.468 J-6.35
G1 X709.038 Y176.755
G2 X708.958 Y176.579 I-5.823 J2.532
G1 X708.635 Y175.894
G2 X708.554 Y175.728 I-5.743 J2.708
G1 X708.22 Y175.07
G2 X708.134 Y174.905 I-5.662 J2.874
G1 X707.789 Y174.272
G2 X707.701 Y174.117 I-5.576 J3.039
G1 X707.346 Y173.507
G2 X707.246 Y173.341 I-5.488 J3.194
G1 X706.88 Y172.754
G2 X706.79 Y172.613 I-5.388 J3.36
G1 X706.416 Y172.047
G2 X706.315 Y171.9 I-5.298 J3.501
G1 X705.931 Y171.353
G2 X705.786 Y171.154 I-5.197 J3.648
G1 X704.994 Y170.114
G2 X704.808 Y169.881 I-5.052 J3.847
G1 X703.988 Y168.903
G2 X703.822 Y168.713 I-4.866 J4.08
G1 X702.979 Y167.785
G2 X702.833 Y167.629 I-4.7 J4.27
G1 X701.97 Y166.741
G2 X701.859 Y166.631 I-4.554 J4.426
G1 X700.982 Y165.772
G2 X700.905 Y165.697 I-4.443 J4.536
G1 X700.018 Y164.857
G2 X699.982 Y164.823 I-4.366 J4.611
G1 X698.23 Y163.19
X696.552 Y161.58
X695.793 Y160.812
X695.048 Y160.021
X694.332 Y159.217
X693.642 Y158.392
X692.972 Y157.535
X692.322 Y156.646
X691.695 Y155.722
X691.088 Y154.761
X690.504 Y153.761
X689.942 Y152.724
X689.404 Y151.651
X688.892 Y150.543
X688.408 Y149.411
X687.956 Y148.255
X687.535 Y147.077
X687.149 Y145.893
X686.802 Y144.703
X686.493 Y143.514
X686.227 Y142.34
X686.006 Y141.185
X685.83 Y140.058
X685.704 Y138.973
X685.628 Y137.937
X685.602 Y136.961
X685.628 Y135.999
X685.654 Y135.618
X685.696 Y135.215
X685.749 Y134.825
X685.812 Y134.458
X685.884 Y134.116
X685.966 Y133.794
X686.058 Y133.485
X686.157 Y133.197
X686.264 Y132.928
X686.378 Y132.673
X686.502 Y132.431
X686.636 Y132.198
X686.782 Y131.971
X686.941 Y131.751
X687.115 Y131.533
X687.31 Y131.313
X687.526 Y131.092
X687.767 Y130.869
X688.035 Y130.644
X688.344 Y130.409
X688.686 Y130.171
X689.06 Y129.935
X689.482 Y129.692
X689.948 Y129.447
X690.461 Y129.202
X691.017 Y128.958
X691.619 Y128.719
X692.274 Y128.481
X692.983 Y128.247
X693.74 Y128.019
X694.55 Y127.798
X695.413 Y127.584
X696.328 Y127.379
X697.294 Y127.182
X698.315 Y126.995
X699.39 Y126.818
X700.517 Y126.652
X701.699 Y126.497
X702.934 Y126.353
X704.223 Y126.221
X705.566 Y126.101
X706.963 Y125.993
X708.414 Y125.897
X709.921 Y125.814
X711.482 Y125.743
X713.095 Y125.685
X714.764 Y125.639
X716.486 Y125.607
X718.264 Y125.588
X720.094 Y125.581
X721.923 Y125.588
X723.702 Y125.607
X725.424 Y125.639
X727.093 Y125.685
X728.706 Y125.743
X730.266 Y125.814
X731.773 Y125.897
X733.225 Y125.993
X734.622 Y126.101
X735.965 Y126.221
X737.254 Y126.353
X738.489 Y126.497
X739.671 Y126.652
X740.798 Y126.818
X741.872 Y126.995
X742.893 Y127.182
X743.861 Y127.379
X744.776 Y127.584
X745.637 Y127.798
X746.446 Y128.019
X747.204 Y128.247
X747.913 Y128.481
X748.568 Y128.719
X749.17 Y128.958
X749.727 Y129.202
X750.239 Y129.447
X750.705 Y129.692
X751.127 Y129.935
X751.504 Y130.173
X751.843 Y130.409
X752.149 Y130.642
X752.42 Y130.869
X752.661 Y131.092
X752.88 Y131.315
X753.073 Y131.533
X753.247 Y131.751
X753.405 Y131.971
X753.551 Y132.198
X753.685 Y132.431
X753.809 Y132.673
X753.924 Y132.928
X754.031 Y133.197
X754.13 Y133.485
X754.22 Y133.789
X754.303 Y134.116
X754.376 Y134.463
X754.44 Y134.83
X754.491 Y135.21
X754.533 Y135.618
X754.56 Y136.001
X754.585 Y136.961
X754.56 Y137.939
X754.484 Y138.973
X754.358 Y140.058
X754.183 Y141.183
X753.961 Y142.34
X753.695 Y143.516
X753.386 Y144.701
X753.038 Y145.893
X752.653 Y147.079
X752.232 Y148.253
X751.779 Y149.411
X751.295 Y150.545
X750.784 Y151.649
X750.246 Y152.722
X749.683 Y153.761
X749.098 Y154.762
X748.493 Y155.722
X747.865 Y156.646
X747.216 Y157.535
X746.547 Y158.391
X745.855 Y159.217
X745.138 Y160.023
X744.394 Y160.814
X743.637 Y161.579
X741.957 Y163.19
X740.205 Y164.823
G2 X740.166 Y164.86 I4.33 J4.645
G1 X739.28 Y165.7
G2 X739.206 Y165.772 I4.369 J4.608
G1 X738.329 Y166.631
G2 X738.218 Y166.741 I4.443 J4.536
G1 X737.355 Y167.629
G2 X737.211 Y167.783 I4.554 J4.426
G1 X736.367 Y168.711
G2 X736.199 Y168.903 I4.698 J4.272
G1 X735.379 Y169.881
G2 X735.191 Y170.117 I4.866 J4.08
G1 X734.4 Y171.157
G2 X734.257 Y171.353 I5.054 J3.844
G1 X733.873 Y171.9
G2 X733.776 Y172.041 I5.197 J3.648
G1 X733.401 Y172.607
G2 X733.302 Y172.761 I5.294 J3.507
G1 X732.938 Y173.348
G2 X732.846 Y173.5 I5.393 J3.353
G1 X732.49 Y174.11
G2 X732.398 Y174.272 I5.484 J3.201
G1 X732.053 Y174.905
G2 X731.967 Y175.07 I5.576 J3.039
G1 X731.633 Y175.728
G2 X731.548 Y175.901 I5.662 J2.874
G1 X731.226 Y176.586
G2 X731.153 Y176.748 I5.747 J2.701
G1 X730.842 Y177.461
G2 X736.662 Y186.35 I5.82 J2.539
G1 X1314.89
G2 X1320.027 Y183.732 J-6.35
G1 X1436.447 Y23.494
G2 X1435.042 Y14.625 I-5.137 J-3.732
G1 X1407.842 Y-5.137
G2 X1404.11 Y-6.35 I-3.732 J5.137
G1 X414.984
X262.43
X109.877 Z35 F400.3
X36.074 F849.6
G2 X32.341 Y-5.137 J6.35
G1 X5.141 Y14.625
G2 X3.736 Y23.494 I3.732 J5.137
G1 X120.156 Y183.732
G2 X125.293 Y186.35 I5.137 J-3.732
G1 X703.525
G2 X709.348 Y177.468 J-6.35
G1 X709.038 Y176.755
G2 X708.958 Y176.579 I-5.823 J2.532
G1 X708.635 Y175.894
G2 X708.554 Y175.728 I-5.743 J2.708
G1 X708.22 Y175.07
G2 X708.134 Y174.905 I-5.662 J2.874
G1 X707.789 Y174.272
G2 X707.701 Y174.117 I-5.576 J3.039
G1 X707.346 Y173.507
G2 X707.246 Y173.341 I-5.488 J3.194
G1 X706.88 Y172.754
G2 X706.79 Y172.613 I-5.388 J3.36
G1 X706.416 Y172.047
G2 X706.315 Y171.9 I-5.298 J3.501
G1 X705.931 Y171.353
G2 X705.786 Y171.154 I-5.197 J3.648
G1 X704.994 Y170.114
G2 X704.808 Y169.881 I-5.052 J3.847
G1 X703.988 Y168.903
G2 X703.822 Y168.713 I-4.866 J4.08
G1 X702.979 Y167.785
G2 X702.833 Y167.629 I-4.7 J4.27
G1 X701.97 Y166.741
G2 X701.859 Y166.631 I-4.554 J4.426
G1 X700.982 Y165.772
G2 X700.905 Y165.697 I-4.443 J4.536
G1 X700.018 Y164.857
G2 X699.982 Y164.823 I-4.366 J4.611
G1 X698.23 Y163.19
X696.552 Y161.58
X695.793 Y160.812
X695.048 Y160.021
X694.332 Y159.217
X693.642 Y158.392
X692.972 Y157.535
X692.322 Y156.646
X691.695 Y155.722
X691.088 Y154.761
X690.504 Y153.761
X689.942 Y152.724
X689.404 Y151.651
X688.892 Y150.543
X688.408 Y149.411
X687.956 Y148.255
X687.535 Y147.077
X687.149 Y145.893
X686.802 Y144.703
X686.493 Y143.514
X686.227 Y142.34
X686.006 Y141.185
X685.83 Y140.058
X685.704 Y138.973
X685.628 Y137.937
X685.602 Y136.961
X685.628 Y135.999
X685.654 Y135.618
X685.696 Y135.215
X685.749 Y134.825
X685.812 Y134.458
X685.884 Y134.116
X685.966 Y133.794
X686.058 Y133.485
X686.157 Y133.197
X686.264 Y132.928
X686.378 Y132.673
X686.502 Y132.431
X686.636 Y132.198
X686.782 Y131.971
X686.941 Y131.751
X687.115 Y131.533
X687.31 Y131.313
X687.526 Y131.092
X687.767 Y130.869
X688.035 Y130.644
X688.344 Y130.409
X688.686 Y130.171
X689.06 Y129.935
X689.482 Y129.692
X689.948 Y129.447
X690.461 Y129.202
X691.017 Y128.958
X691.619 Y128.719
X692.274 Y128.481
X692.983 Y128.247
X693.74 Y128.019
X694.55 Y127.798
X695.413 Y127.584
X696.328 Y127.379
X697.294 Y127.182
X698.315 Y126.995
X699.39 Y126.818
X700.517 Y126.652
X701.699 Y126.497
X702.934 Y126.353
X704.223 Y126.221
X705.566 Y126.101
X706.963 Y125.993
X708.414 Y125.897
X709.921 Y125.814
X711.482 Y125.743
X713.095 Y125.685
X714.764 Y125.639
X716.486 Y125.607
X718.264 Y125.588
X720.094 Y125.581
X721.923 Y125.588
X723.702 Y125.607
X725.424 Y125.639
X727.093 Y125.685
X728.706 Y125.743
X730.266 Y125.814
X731.773 Y125.897
X733.225 Y125.993
X734.622 Y126.101
X735.965 Y126.221
X737.254 Y126.353
X738.489 Y126.497
X739.671 Y126.652
X740.798 Y126.818
X741.872 Y126.995
X742.893 Y127.182
X743.861 Y127.379
X744.776 Y127.584
X745.637 Y127.798
X746.446 Y128.019
X747.204 Y128.247
X747.913 Y128.481
X748.568 Y128.719
X749.17 Y128.958
X749.727 Y129.202
X750.239 Y129.447
X750.705 Y129.692
X751.127 Y129.935
X751.504 Y130.173
X751.843 Y130.409
X752.149 Y130.642
X752.42 Y130.869
X752.661 Y131.092
X752.88 Y131.315
X753.073 Y131.533
X753.247 Y131.751
X753.405 Y131.971
X753.551 Y132.198
X753.685 Y132.431
X753.809 Y132.673
X753.924 Y132.928
X754.031 Y133.197
X754.13 Y133.485
X754.22 Y133.789
X754.303 Y134.116
X754.376 Y134.463
X754.44 Y134.83
X754.491 Y135.21
X754.533 Y135.618
X754.56 Y136.001
X754.585 Y136.961
X754.56 Y137.939
X754.484 Y138.973
X754.358 Y140.058
X754.183 Y141.183
X753.961 Y142.34
X753.695 Y143.516
X753.386 Y144.701
X753.038 Y145.893
X752.653 Y147.079
X752.232 Y148.253
X751.779 Y149.411
X751.295 Y150.545
X750.784 Y151.649
X750.246 Y152.722
X749.683 Y153.761
X749.098 Y154.762
X748.493 Y155.722
X747.865 Y156.646
X747.216 Y157.535
X746.547 Y158.391
X745.855 Y159.217
X745.138 Y160.023
X744.394 Y160.814
X743.637 Y161.579
X741.957 Y163.19
X740.205 Y164.823
G2 X740.166 Y164.86 I4.33 J4.645
G1 X739.28 Y165.7
G2 X739.206 Y165.772 I4.369 J4.608
G1 X738.329 Y166.631
G2 X738.218 Y166.741 I4.443 J4.536
G1 X737.355 Y167.629
G2 X737.211 Y167.783 I4.554 J4.426
G1 X736.367 Y168.711
G2 X736.199 Y168.903 I4.698 J4.272
G1 X735.379 Y169.881
G2 X735.191 Y170.117 I4.866 J4.08
G1 X734.4 Y171.157
G2 X734.257 Y171.353 I5.054 J3.844
G1 X733.873 Y171.9
G2 X733.776 Y172.041 I5.197 J3.648
G1 X733.401 Y172.607
G2 X733.302 Y172.761 I5.294 J3.507
G1 X732.938 Y173.348
G2 X732.846 Y173.5 I5.393 J3.353
G1 X732.49 Y174.11
G2 X732.398 Y174.272 I5.484 J3.201
G1 X732.053 Y174.905
G2 X731.967 Y175.07 I5.576 J3.039
G1 X731.633 Y175.728
G2 X731.548 Y175.901 I5.662 J2.874
G1 X731.226 Y176.586
G2 X731.153 Y176.748 I5.747 J2.701
G1 X730.842 Y177.461
G2 X736.662 Y186.35 I5.82 J2.539
G1 X1314.89
G2 X1320.027 Y183.732 J-6.35
G1 X1436.447 Y23.494
G2 X1435.042 Y14.625 I-5.137 J-3.732
G1 X1407.842 Y-5.137
G2 X1404.11 Y-6.35 I-3.732 J5.137
G1 X262.43
X109.877
X36.074 Z33.549 F400.3
G2 X32.341 Y-5.137 Z33.47 J6.35
G1 X5.141 Y14.625 Z32.809
G2 X3.736 Y23.494 Z32.613 I3.732 J5.137
G1 X22.055 Y48.708 Z32
X120.156 Y183.732 F849.6
G2 X125.293 Y186.35 I5.137 J-3.732
G1 X703.525
G2 X709.348 Y177.468 J-6.35
G1 X709.038 Y176.755
G2 X708.958 Y176.579 I-5.823 J2.532
G1 X708.635 Y175.894
G2 X708.554 Y175.728 I-5.743 J2.708
G1 X708.22 Y175.07
G2 X708.134 Y174.905 I-5.662 J2.874
G1 X707.789 Y174.272
G2 X707.701 Y174.117 I-5.576 J3.039
G1 X707.346 Y173.507
G2 X707.246 Y173.341 I-5.488 J3.194
G1 X706.88 Y172.754
G2 X706.79 Y172.613 I-5.388 J3.36
G1 X706.416 Y172.047
G2 X706.315 Y171.9 I-5.298 J3.501
G1 X705.931 Y171.353
G2 X705.786 Y171.154 I-5.197 J3.648
G1 X704.994 Y170.114
G2 X704.808 Y169.881 I-5.052 J3.847
G1 X703.988 Y168.903
G2 X703.822 Y168.713 I-4.866 J4.08
G1 X702.979 Y167.785
G2 X702.833 Y167.629 I-4.7 J4.27
G1 X701.97 Y166.741
G2 X701.859 Y166.631 I-4.554 J4.426
G1 X700.982 Y165.772
G2 X700.905 Y165.697 I-4.443 J4.536
G1 X700.018 Y164.857
G2 X699.982 Y164.823 I-4.366 J4.611
G1 X698.23 Y163.19
X696.552 Y161.58
X695.793 Y160.812
X695.048 Y160.021
X694.332 Y159.217
X693.642 Y158.392
X692.972 Y157.535
X692.322 Y156.646
X691.695 Y155.722
X691.088 Y154.761
X690.504 Y153.761
X689.942 Y152.724
X689.404 Y151.651
X688.892 Y150.543
X688.408 Y149.411
X687.956 Y148.255
X687.535 Y147.077
X687.149 Y145.893
X686.802 Y144.703
X686.493 Y143.514
X686.227 Y142.34
X686.006 Y141.185
X685.83 Y140.058
X685.704 Y138.973
X685.628 Y137.937
X685.602 Y136.961
X685.628 Y135.999
X685.654 Y135.618
X685.696 Y135.215
X685.749 Y134.825
X685.812 Y134.458
X685.884 Y134.116
X685.966 Y133.794
X686.058 Y133.485
X686.157 Y133.197
X686.264 Y132.928
X686.378 Y132.673
X686.502 Y132.431
X686.636 Y132.198
X686.782 Y131.971
X686.941 Y131.751
X687.115 Y131.533
X687.31 Y131.313
X687.526 Y131.092
X687.767 Y130.869
X688.035 Y130.644
X688.344 Y130.409
X688.686 Y130.171
X689.06 Y129.935
X689.482 Y129.692
X689.948 Y129.447
X690.461 Y129.202
X691.017 Y128.958
X691.619 Y128.719
X692.274 Y128.481
X692.983 Y128.247
X693.74 Y128.019
X694.55 Y127.798
X695.413 Y127.584
X696.328 Y127.379
X697.294 Y127.182
X698.315 Y126.995
X699.39 Y126.818
X700.517 Y126.652
X701.699 Y126.497
X702.934 Y126.353
X704.223 Y126.221
X705.566 Y126.101
X706.963 Y125.993
X708.414 Y125.897
X709.921 Y125.814
X711.482 Y125.743
X713.095 Y125.685
X714.764 Y125.639
X716.486 Y125.607
X718.264 Y125.588
X720.094 Y125.581
X721.923 Y125.588
X723.702 Y125.607
X725.424 Y125.639
X727.093 Y125.685
X728.706 Y125.743
X730.266 Y125.814
X731.773 Y125.897
X733.225 Y125.993
X734.622 Y126.101
X735.965 Y126.221
X737.254 Y126.353
X738.489 Y126.497
X739.671 Y126.652
X740.798 Y126.818
X741.872 Y126.995
X742.893 Y127.182
X743.861 Y127.379
X744.776 Y127.584
X745.637 Y127.798
X746.446 Y128.019
X747.204 Y128.247
X747.913 Y128.481
X748.568 Y128.719
X749.17 Y128.958
X749.727 Y129.202
X750.239 Y129.447
X750.705 Y129.692
X751.127 Y129.935
X751.504 Y130.173
X751.843 Y130.409
X752.149 Y130.642
X752.42 Y130.869
X752.661 Y131.092
X752.88 Y131.315
X753.073 Y131.533
X753.247 Y131.751
X753.405 Y131.971
X753.551 Y132.198
X753.685 Y132.431
X753.809 Y132.673
X753.924 Y132.928
X754.031 Y133.197
X754.13 Y133.485
X754.22 Y133.789
X754.303 Y134.116
X754.376 Y134.463
X754.44 Y134.83
X754.491 Y135.21
X754.533 Y135.618
X754.56 Y136.001
X754.585 Y136.961
X754.56 Y137.939
X754.484 Y138.973
X754.358 Y140.058
X754.183 Y141.183
X753.961 Y142.34
X753.695 Y143.516
X753.386 Y144.701
X753.038 Y145.893
X752.653 Y147.079
X752.232 Y148.253
X751.779 Y149.411
X751.295 Y150.545
X750.784 Y151.649
X750.246 Y152.722
X749.683 Y153.761
X749.098 Y154.762
X748.493 Y155.722
X747.865 Y156.646
X747.216 Y157.535
X746.547 Y158.391
X745.855 Y159.217
X745.138 Y160.023
X744.394 Y160.814
X743.637 Y161.579
X741.957 Y163.19
X740.205 Y164.823
G2 X740.166 Y164.86 I4.33 J4.645
G1 X739.28 Y165.7
G2 X739.206 Y165.772 I4.369 J4.608
G1 X738.329 Y166.631
G2 X738.218 Y166.741 I4.443 J4.536
G1 X737.355 Y167.629
G2 X737.211 Y167.783 I4.554 J4.426
G1 X736.367 Y168.711
G2 X736.199 Y168.903 I4.698 J4.272
G1 X735.379 Y169.881
G2 X735.191 Y170.117 I4.866 J4.08
G1 X734.4 Y171.157
G2 X734.257 Y171.353 I5.054 J3.844
G1 X733.873 Y171.9
G2 X733.776 Y172.041 I5.197 J3.648
G1 X733.401 Y172.607
G2 X733.302 Y172.761 I5.294 J3.507
G1 X732.938 Y173.348
G2 X732.846 Y173.5 I5.393 J3.353
G1 X732.49 Y174.11
G2 X732.398 Y174.272 I5.484 J3.201
G1 X732.053 Y174.905
G2 X731.967 Y175.07 I5.576 J3.039
G1 X731.633 Y175.728
G2 X731.548 Y175.901 I5.662 J2.874
G1 X731.226 Y176.586
G2 X731.153 Y176.748 I5.747 J2.701
G1 X730.842 Y177.461
G2 X736.662 Y186.35 I5.82 J2.539
G1 X1314.89
G2 X1320.027 Y183.732 J-6.35
G1 X1436.447 Y23.494
G2 X1435.042 Y14.625 I-5.137 J-3.732
G1 X1407.842 Y-5.137
G2 X1404.11 Y-6.35 I-3.732 J5.137
G1 X109.877
X36.074
G2 X32.341 Y-5.137 J6.35
G1 X5.141 Y14.625
G2 X3.736 Y23.494 I3.732 J5.137
G1 X22.055 Y48.708
X111.724 Y172.127 Z29 F400.3
X120.156 Y183.732 F849.6
G2 X125.293 Y186.35 I5.137 J-3.732
G1 X703.525
G2 X709.348 Y177.468 J-6.35
G1 X709.038 Y176.755
G2 X708.958 Y176.579 I-5.823 J2.532
G1 X708.635 Y175.894
G2 X708.554 Y175.728 I-5.743 J2.708
G1 X708.22 Y175.07
G2 X708.134 Y174.905 I-5.662 J2.874
G1 X707.789 Y174.272
G2 X707.701 Y174.117 I-5.576 J3.039
G1 X707.346 Y173.507
G2 X707.246 Y173.341 I-5.488 J3.194
G1 X706.88 Y172.754
G2 X706.79 Y172.613 I-5.388 J3.36
G1 X706.416 Y172.047
G2 X706.315 Y171.9 I-5.298 J3.501
G1 X705.931 Y171.353
G2 X705.786 Y171.154 I-5.197 J3.648
G1 X704.994 Y170.114
G2 X704.808 Y169.881 I-5.052 J3.847
G1 X703.988 Y168.903
G2 X703.822 Y168.713 I-4.866 J4.08
G1 X702.979 Y167.785
G2 X702.833 Y167.629 I-4.7 J4.27
G1 X701.97 Y166.741
G2 X701.859 Y166.631 I-4.554 J4.426
G1 X700.982 Y165.772
G2 X700.905 Y165.697 I-4.443 J4.536
G1 X700.018 Y164.857
G2 X699.982 Y164.823 I-4.366 J4.611
G1 X698.23 Y163.19
X696.552 Y161.58
X695.793 Y160.812
X695.048 Y160.021
X694.332 Y159.217
X693.642 Y158.392
X692.972 Y157.535
X692.322 Y156.646
X691.695 Y155.722
X691.088 Y154.761
X690.504 Y153.761
X689.942 Y152.724
X689.404 Y151.651
X688.892 Y150.543
X688.408 Y149.411
X687.956 Y148.255
X687.535 Y147.077
X687.149 Y145.893
X686.802 Y144.703
X686.493 Y143.514
X686.227 Y142.34
X686.006 Y141.185
X685.83 Y140.058
X685.704 Y138.973
X685.628 Y137.937
X685.602 Y136.961
X685.628 Y135.999
X685.654 Y135.618
X685.696 Y135.215
X685.749 Y134.825
X685.812 Y134.458
X685.884 Y134.116
X685.966 Y133.794
X686.058 Y133.485
X686.157 Y133.197
X686.264 Y132.928
X686.378 Y132.673
X686.502 Y132.431
X686.636 Y132.198
X686.782 Y131.971
X686.941 Y131.751
X687.115 Y131.533
X687.31 Y131.313
X687.526 Y131.092
X687.767 Y130.869
X688.035 Y130.644
X688.344 Y130.409
X688.686 Y130.171
X689.06 Y129.935
X689.482 Y129.692
X689.948 Y129.447
X690.461 Y129.202
X691.017 Y128.958
X691.619 Y128.719
X692.274 Y128.481
X692.983 Y128.247
X693.74 Y128.019
X694.55 Y127.798
X695.413 Y127.584
X696.328 Y127.379
X697.294 Y127.182
X698.315 Y126.995
X699.39 Y126.818
X700.517 Y126.652
X701.699 Y126.497
X702.934 Y126.353
X704.223 Y126.221
X705.566 Y126.101
X706.963 Y125.993
X708.414 Y125.897
X709.921 Y125.814
X711.482 Y125.743
X713.095 Y125.685
X714.764 Y125.639
X716.486 Y125.607
X718.264 Y125.588
X720.094 Y125.581
X721.923 Y125.588
X723.702 Y125.607
X725.424 Y125.639
X727.093 Y125.685
X728.706 Y125.743
X730.266 Y125.814
X731.773 Y125.897
X733.225 Y125.993
X734.622 Y126.101
X735.965 Y126.221
X737.254 Y126.353
X738.489 Y126.497
X739.671 Y126.652
X740.798 Y126.818
X741.872 Y126.995
X742.893 Y127.182
X743.861 Y127.379
X744.776 Y127.584
X745.637 Y127.798
X746.446 Y128.019
X747.204 Y128.247
X747.913 Y128.481
X748.568 Y128.719
X749.17 Y128.958
X749.727 Y129.202
X750.239 Y129.447
X750.705 Y129.692
X751.127 Y129.935
X751.504 Y130.173
X751.843 Y130.409
X752.149 Y130.642
X752.42 Y130.869
X752.661 Y131.092
X752.88 Y131.315
X753.073 Y131.533
X753.247 Y131.751
X753.405 Y131.971
X753.551 Y132.198
X753.685 Y132.431
X753.809 Y132.673
X753.924 Y132.928
X754.031 Y133.197
X754.13 Y133.485
X754.22 Y133.789
X754.303 Y134.116
X754.376 Y134.463
X754.44 Y134.83
X754.491 Y135.21
X754.533 Y135.618
X754.56 Y136.001
X754.585 Y136.961
X754.56 Y137.939
X754.484 Y138.973
X754.358 Y140.058
X754.183 Y141.183
X753.961 Y142.34
X753.695 Y143.516
X753.386 Y144.701
X753.038 Y145.893
X752.653 Y147.079
X752.232 Y148.253
X751.779 Y149.411
X751.295 Y150.545
X750.784 Y151.649
X750.246 Y152.722
X749.683 Y153.761
X749.098 Y154.762
X748.493 Y155.722
X747.865 Y156.646
X747.216 Y157.535
X746.547 Y158.391
X745.855 Y159.217
X745.138 Y160.023
X744.394 Y160.814
X743.637 Y161.579
X741.957 Y163.19
X740.205 Y164.823
G2 X740.166 Y164.86 I4.33 J4.645
G1 X739.28 Y165.7
G2 X739.206 Y165.772 I4.369 J4.608
G1 X738.329 Y166.631
G2 X738.218 Y166.741 I4.443 J4.536
G1 X737.355 Y167.629
G2 X737.211 Y167.783 I4.554 J4.426
G1 X736.367 Y168.711
G2 X736.199 Y168.903 I4.698 J4.272
G1 X735.379 Y169.881
G2 X735.191 Y170.117 I4.866 J4.08
G1 X734.4 Y171.157
G2 X734.257 Y171.353 I5.054 J3.844
G1 X733.873 Y171.9
G2 X733.776 Y172.041 I5.197 J3.648
G1 X733.401 Y172.607
G2 X733.302 Y172.761 I5.294 J3.507
G1 X732.938 Y173.348
G2 X732.846 Y173.5 I5.393 J3.353
G1 X732.49 Y174.11
G2 X732.398 Y174.272 I5.484 J3.201
G1 X732.053 Y174.905
G2 X731.967 Y175.07 I5.576 J3.039
G1 X731.633 Y175.728
G2 X731.548 Y175.901 I5.662 J2.874
G1 X731.226 Y176.586
G2 X731.153 Y176.748 I5.747 J2.701
G1 X730.842 Y177.461
G2 X736.662 Y186.35 I5.82 J2.539
G1 X1314.89
G2 X1320.027 Y183.732 J-6.35
G1 X1436.447 Y23.494
G2 X1435.042 Y14.625 I-5.137 J-3.732
G1 X1407.842 Y-5.137
G2 X1404.11 Y-6.35 I-3.732 J5.137
G1 X36.074
G2 X32.341 Y-5.137 J6.35
G1 X5.141 Y14.625
G2 X3.736 Y23.494 I3.732 J5.137
G1 X111.724 Y172.127
X120.156 Y183.732 Z28.718 F400.3
G2 X125.293 Y186.35 Z28.6 I5.137 J-3.732
G1 X257.516 Z26
X703.525 F849.6
G2 X709.348 Y177.468 J-6.35
G1 X709.038 Y176.755
G2 X708.958 Y176.579 I-5.823 J2.532
G1 X708.635 Y175.894
G2 X708.554 Y175.728 I-5.743 J2.708
G1 X708.22 Y175.07
G2 X708.134 Y174.905 I-5.662 J2.874
G1 X707.789 Y174.272
G2 X707.701 Y174.117 I-5.576 J3.039
G1 X707.346 Y173.507
G2 X707.246 Y173.341 I-5.488 J3.194
G1 X706.88 Y172.754
G2 X706.79 Y172.613 I-5.388 J3.36
G1 X706.416 Y172.047
G2 X706.315 Y171.9 I-5.298 J3.501
G1 X705.931 Y171.353
G2 X705.786 Y171.154 I-5.197 J3.648
G1 X704.994 Y170.114
G2 X704.808 Y169.881 I-5.052 J3.847
G1 X703.988 Y168.903
G2 X703.822 Y168.713 I-4.866 J4.08
G1 X702.979 Y167.785
G2 X702.833 Y167.629 I-4.7 J4.27
G1 X701.97 Y166.741
G2 X701.859 Y166.631 I-4.554 J4.426
G1 X700.982 Y165.772
G2 X700.905 Y165.697 I-4.443 J4.536
G1 X700.018 Y164.857
G2 X699.982 Y164.823 I-4.366 J4.611
G1 X698.23 Y163.19
X696.552 Y161.58
X695.793 Y160.812
X695.048 Y160.021
X694.332 Y159.217
X693.642 Y158.392
X692.972 Y157.535
X692.322 Y156.646
X691.695 Y155.722
X691.088 Y154.761
X690.504 Y153.761
X689.942 Y152.724
X689.404 Y151.651
X688.892 Y150.543
X688.408 Y149.411
X687.956 Y148.255
X687.535 Y147.077
X687.149 Y145.893
X686.802 Y144.703
X686.493 Y143.514
X686.227 Y142.34
X686.006 Y141.185
X685.83 Y140.058
X685.704 Y138.973
X685.628 Y137.937
X685.602 Y136.961
X685.628 Y135.999
X685.654 Y135.618
X685.696 Y135.215
X685.749 Y134.825
X685.812 Y134.458
X685.884 Y134.116
X685.966 Y133.794
X686.058 Y133.485
X686.157 Y133.197
X686.264 Y132.928
X686.378 Y132.673
X686.502 Y132.431
X686.636 Y132.198
X686.782 Y131.971
X686.941 Y131.751
X687.115 Y131.533
X687.31 Y131.313
X687.526 Y131.092
X687.767 Y130.869
X688.035 Y130.644
X688.344 Y130.409
X688.686 Y130.171
X689.06 Y129.935
X689.482 Y129.692
X689.948 Y129.447
X690.461 Y129.202
X691.017 Y128.958
X691.619 Y128.719
X692.274 Y128.481
X692.983 Y128.247
X693.74 Y128.019
X694.55 Y127.798
X695.413 Y127.584
X696.328 Y127.379
X697.294 Y127.182
X698.315 Y126.995
X699.39 Y126.818
X700.517 Y126.652
X701.699 Y126.497
X702.934 Y126.353
X704.223 Y126.221
X705.566 Y126.101
X706.963 Y125.993
X708.414 Y125.897
X709.921 Y125.814
X711.482 Y125.743
X713.095 Y125.685
X714.764 Y125.639
X716.486 Y125.607
X718.264 Y125.588
X720.094 Y125.581
X721.923 Y125.588
X723.702 Y125.607
X725.424 Y125.639
X727.093 Y125.685
X728.706 Y125.743
X730.266 Y125.814
X731.773 Y125.897
X733.225 Y125.993
X734.622 Y126.101
X735.965 Y126.221
X737.254 Y126.353
X738.489 Y126.497
X739.671 Y126.652
X740.798 Y126.818
X741.872 Y126.995
X742.893 Y127.182
X743.861 Y127.379
X744.776 Y127.584
X745.637 Y127.798
X746.446 Y128.019
X747.204 Y128.247
X747.913 Y128.481
X748.568 Y128.719
X749.17 Y128.958
X749.727 Y129.202
X750.239 Y129.447
X750.705 Y129.692
X751.127 Y129.935
X751.504 Y130.173
X751.843 Y130.409
X752.149 Y130.642
X752.42 Y130.869
X752.661 Y131.092
X752.88 Y131.315
X753.073 Y131.533
X753.247 Y131.751
X753.405 Y131.971
X753.551 Y132.198
X753.685 Y132.431
X753.809 Y132.673
X753.924 Y132.928
X754.031 Y133.197
X754.13 Y133.485
X754.22 Y133.789
X754.303 Y134.116
X754.376 Y134.463
X754.44 Y134.83
X754.491 Y135.21
X754.533 Y135.618
X754.56 Y136.001
X754.585 Y136.961
X754.56 Y137.939
X754.484 Y138.973
X754.358 Y140.058
X754.183 Y141.183
X753.961 Y142.34
X753.695 Y143.516
X753.386 Y144.701
X753.038 Y145.893
X752.653 Y147.079
X752.232 Y148.253
X751.779 Y149.411
X751.295 Y150.545
X750.784 Y151.649
X750.246 Y152.722
X749.683 Y153.761
X749.098 Y154.762
X748.493 Y155.722
X747.865 Y156.646
X747.216 Y157.535
X746.547 Y158.391
X745.855 Y159.217
X745.138 Y160.023
X744.394 Y160.814
X743.637 Y161.579
X741.957 Y163.19
X740.205 Y164.823
G2 X740.166 Y164.86 I4.33 J4.645
G1 X739.28 Y165.7
G2 X739.206 Y165.772 I4.369 J4.608
G1 X738.329 Y166.631
G2 X738.218 Y166.741 I4.443 J4.536
G1 X737.355 Y167.629
G2 X737.211 Y167.783 I4.554 J4.426
G1 X736.367 Y168.711
G2 X736.199 Y168.903 I4.698 J4.272
G1 X735.379 Y169.881
G2 X735.191 Y170.117 I4.866 J4.08
G1 X734.4 Y171.157
G2 X734.257 Y171.353 I5.054 J3.844
G1 X733.873 Y171.9
G2 X733.776 Y172.041 I5.197 J3.648
G1 X733.401 Y172.607
G2 X733.302 Y172.761 I5.294 J3.507
G1 X732.938 Y173.348
G2 X732.846 Y173.5 I5.393 J3.353
G1 X732.49 Y174.11
G2 X732.398 Y174.272 I5.484 J3.201
G1 X732.053 Y174.905
G2 X731.967 Y175.07 I5.576 J3.039
G1 X731.633 Y175.728
G2 X731.548 Y175.901 I5.662 J2.874
G1 X731.226 Y176.586
G2 X731.153 Y176.748 I5.747 J2.701
G1 X730.842 Y177.461
G2 X736.662 Y186.35 I5.82 J2.539
G1 X1314.89
G2 X1320.027 Y183.732 J-6.35
G1 X1436.447 Y23.494
G2 X1435.042 Y14.625 I-5.137 J-3.732
G1 X1407.842 Y-5.137
G2 X1404.11 Y-6.35 I-3.732 J5.137
G1 X36.074
G2 X32.341 Y-5.137 J6.35
G1 X5.141 Y14.625
G2 X3.736 Y23.494 I3.732 J5.137
G1 X111.724 Y172.127
X120.156 Y183.732
G2 X125.293 Y186.35 I5.137 J-3.732
G1 X257.516
X410.07 Z23 F400.3
X703.525 F849.6
G2 X709.348 Y177.468 J-6.35
G1 X709.038 Y176.755
G2 X708.958 Y176.579 I-5.823 J2.532
G1 X708.635 Y175.894
G2 X708.554 Y175.728 I-5.743 J2.708
G1 X708.22 Y175.07
G2 X708.134 Y174.905 I-5.662 J2.874
G1 X707.789 Y174.272
G2 X707.701 Y174.117 I-5.576 J3.039
G1 X707.346 Y173.507
G2 X707.246 Y173.341 I-5.488 J3.194
G1 X706.88 Y172.754
G2 X706.79 Y172.613 I-5.388 J3.36
G1 X706.416 Y172.047
G2 X706.315 Y171.9 I-5.298 J3.501
G1 X705.931 Y171.353
G2 X705.786 Y171.154 I-5.197 J3.648
G1 X704.994 Y170.114
G2 X704.808 Y169.881 I-5.052 J3.847
G1 X703.988 Y168.903
G2 X703.822 Y168.713 I-4.866 J4.08
G1 X702.979 Y167.785
G2 X702.833 Y167.629 I-4.7 J4.27
G1 X701.97 Y166.741
G2 X701.859 Y166.631 I-4.554 J4.426
G1 X700.982 Y165.772
G2 X700.905 Y165.697 I-4.443 J4.536
G1 X700.018 Y164.857
G2 X699.982 Y164.823 I-4.366 J4.611
G1 X698.23 Y163.19
X696.552 Y161.58
X695.793 Y160.812
X695.048 Y160.021
X694.332 Y159.217
X693.642 Y158.392
X692.972 Y157.535
X692.322 Y156.646
X691.695 Y155.722
X691.088 Y154.761
X690.504 Y153.761
X689.942 Y152.724
X689.404 Y151.651
X688.892 Y150.543
X688.408 Y149.411
X687.956 Y148.255
X687.535 Y147.077
X687.149 Y145.893
X686.802 Y144.703
X686.493 Y143.514
X686.227 Y142.34
X686.006 Y141.185
X685.83 Y140.058
X685.704 Y138.973
X685.628 Y137.937
X685.602 Y136.961
X685.628 Y135.999
X685.654 Y135.618
X685.696 Y135.215
X685.749 Y134.825
X685.812 Y134.458
X685.884 Y134.116
X685.966 Y133.794
X686.058 Y133.485
X686.157 Y133.197
X686.264 Y132.928
X686.378 Y132.673
X686.502 Y132.431
X686.636 Y132.198
X686.782 Y131.971
X686.941 Y131.751
X687.115 Y131.533
X687.31 Y131.313
X687.526 Y131.092
X687.767 Y130.869
X688.035 Y130.644
X688.344 Y130.409
X688.686 Y130.171
X689.06 Y129.935
X689.482 Y129.692
X689.948 Y129.447
X690.461 Y129.202
X691.017 Y128.958
X691.619 Y128.719
X692.274 Y128.481
X692.983 Y128.247
X693.74 Y128.019
X694.55 Y127.798
X695.413 Y127.584
X696.328 Y127.379
X697.294 Y127.182
X698.315 Y126.995
X699.39 Y126.818
X700.517 Y126.652
X701.699 Y126.497
X702.934 Y126.353
X704.223 Y126.221
X705.566 Y126.101
X706.963 Y125.993
X708.414 Y125.897
X709.921 Y125.814
X711.482 Y125.743
X713.095 Y125.685
X714.764 Y125.639
X716.486 Y125.607
X718.264 Y125.588
X720.094 Y125.581
X721.923 Y125.588
X723.702 Y125.607
X725.424 Y125.639
X727.093 Y125.685
X728.706 Y125.743
X730.266 Y125.814
X731.773 Y125.897
X733.225 Y125.993
X734.622 Y126.101
X735.965 Y126.221
X737.254 Y126.353
X738.489 Y126.497
X739.671 Y126.652
X740.798 Y126.818
X741.872 Y126.995
X742.893 Y127.182
X743.861 Y127.379
X744.776 Y127.584
X745.637 Y127.798
X746.446 Y128.019
X747.204 Y128.247
X747.913 Y128.481
X748.568 Y128.719
X749.17 Y128.958
X749.727 Y129.202
X750.239 Y129.447
X750.705 Y129.692
X751.127 Y129.935
X751.504 Y130.173
X751.843 Y130.409
X752.149 Y130.642
X752.42 Y130.869
X752.661 Y131.092
X752.88 Y131.315
X753.073 Y131.533
X753.247 Y131.751
X753.405 Y131.971
X753.551 Y132.198
X753.685 Y132.431
X753.809 Y132.673
X753.924 Y132.928
X754.031 Y133.197
X754.13 Y133.485
X754.22 Y133.789
X754.303 Y134.116
X754.376 Y134.463
X754.44 Y134.83
X754.491 Y135.21
X754.533 Y135.618
X754.56 Y136.001
X754.585 Y136.961
X754.56 Y137.939
X754.484 Y138.973
X754.358 Y140.058
X754.183 Y141.183
X753.961 Y142.34
X753.695 Y143.516
X753.386 Y144.701
X753.038 Y145.893
X752.653 Y147.079
X752.232 Y148.253
X751.779 Y149.411
X751.295 Y150.545
X750.784 Y151.649
X750.246 Y152.722
X749.683 Y153.761
X749.098 Y154.762
X748.493 Y155.722
X747.865 Y156.646
X747.216 Y157.535
X746.547 Y158.391
X745.855 Y159.217
X745.138 Y160.023
X744.394 Y160.814
X743.637 Y161.579
X741.957 Y163.19
X740.205 Y164.823
G2 X740.166 Y164.86 I4.33 J4.645
G1 X739.28 Y165.7
G2 X739.206 Y165.772 I4.369 J4.608
G1 X738.329 Y166.631
G2 X738.218 Y166.741 I4.443 J4.536
G1 X737.355 Y167.629
G2 X737.211 Y167.783 I4.554 J4.426
G1 X736.367 Y168.711
G2 X736.199 Y168.903 I4.698 J4.272
G1 X735.379 Y169.881
G2 X735.191 Y170.117 I4.866 J4.08
G1 X734.4 Y171.157
G2 X734.257 Y171.353 I5.054 J3.844
G1 X733.873 Y171.9
G2 X733.776 Y172.041 I5.197 J3.648
G1 X733.401 Y172.607
G2 X733.302 Y172.761 I5.294 J3.507
G1 X732.938 Y173.348
G2 X732.846 Y173.5 I5.393 J3.353
G1 X732.49 Y174.11
G2 X732.398 Y174.272 I5.484 J3.201
G1 X732.053 Y174.905
G2 X731.967 Y175.07 I5.576 J3.039
G1 X731.633 Y175.728
G2 X731.548 Y175.901 I5.662 J2.874
G1 X731.226 Y176.586
G2 X731.153 Y176.748 I5.747 J2.701
G1 X730.842 Y177.461
G2 X736.662 Y186.35 I5.82 J2.539
G1 X1314.89
G2 X1320.027 Y183.732 J-6.35
G1 X1436.447 Y23.494
G2 X1435.042 Y14.625 I-5.137 J-3.732
G1 X1407.842 Y-5.137
G2 X1404.11 Y-6.35 I-3.732 J5.137
G1 X36.074
G2 X32.341 Y-5.137 J6.35
G1 X5.141 Y14.625
G2 X3.736 Y23.494 I3.732 J5.137
G1 X120.156 Y183.732
G2 X125.293 Y186.35 I5.137 J-3.732
G1 X410.07
X562.624 Z20 F400.3
X703.525 F849.6
G2 X709.348 Y177.468 J-6.35
G1 X709.038 Y176.755
G2 X708.958 Y176.579 I-5.823 J2.532
G1 X708.635 Y175.894
G2 X708.554 Y175.728 I-5.743 J2.708
G1 X708.22 Y175.07
G2 X708.134 Y174.905 I-5.662 J2.874
G1 X707.789 Y174.272
G2 X707.701 Y174.117 I-5.576 J3.039
G1 X707.346 Y173.507
G2 X707.246 Y173.341 I-5.488 J3.194
G1 X706.88 Y172.754
G2 X706.79 Y172.613 I-5.388 J3.36
G1 X706.416 Y172.047
G2 X706.315 Y171.9 I-5.298 J3.501
G1 X705.931 Y171.353
G2 X705.786 Y171.154 I-5.197 J3.648
G1 X704.994 Y170.114
G2 X704.808 Y169.881 I-5.052 J3.847
G1 X703.988 Y168.903
G2 X703.822 Y168.713 I-4.866 J4.08
G1 X702.979 Y167.785
G2 X702.833 Y167.629 I-4.7 J4.27
G1 X701.97 Y166.741
G2 X701.859 Y166.631 I-4.554 J4.426
G1 X700.982 Y165.772
G2 X700.905 Y165.697 I-4.443 J4.536
G1 X700.018 Y164.857
G2 X699.982 Y164.823 I-4.366 J4.611
G1 X698.23 Y163.19
X696.552 Y161.58
X695.793 Y160.812
X695.048 Y160.021
X694.332 Y159.217
X693.642 Y158.392
X692.972 Y157.535
X692.322 Y156.646
X691.695 Y155.722
X691.088 Y154.761
X690.504 Y153.761
X689.942 Y152.724
X689.404 Y151.651
X688.892 Y150.543
X688.408 Y149.411
X687.956 Y148.255
X687.535 Y147.077
X687.149 Y145.893
X686.802 Y144.703
X686.493 Y143.514
X686.227 Y142.34
X686.006 Y141.185
X685.83 Y140.058
X685.704 Y138.973
X685.628 Y137.937
X685.602 Y136.961
X685.628 Y135.999
X685.654 Y135.618
X685.696 Y135.215
X685.749 Y134.825
X685.812 Y134.458
X685.884 Y134.116
X685.966 Y133.794
X686.058 Y133.485
X686.157 Y133.197
X686.264 Y132.928
X686.378 Y132.673
X686.502 Y132.431
X686.636 Y132.198
X686.782 Y131.971
X686.941 Y131.751
X687.115 Y131.533
X687.31 Y131.313
X687.526 Y131.092
X687.767 Y130.869
X688.035 Y130.644
X688.344 Y130.409
X688.686 Y130.171
X689.06 Y129.935
X689.482 Y129.692
X689.948 Y129.447
X690.461 Y129.202
X691.017 Y128.958
X691.619 Y128.719
X692.274 Y128.481
X692.983 Y128.247
X693.74 Y128.019
X694.55 Y127.798
X695.413 Y127.584
X696.328 Y127.379
X697.294 Y127.182
X698.315 Y126.995
X699.39 Y126.818
X700.517 Y126.652
X701.699 Y126.497
X702.934 Y126.353
X704.223 Y126.221
X705.566 Y126.101
X706.963 Y125.993
X708.414 Y125.897
X709.921 Y125.814
X711.482 Y125.743
X713.095 Y125.685
X714.764 Y125.639
X716.486 Y125.607
X718.264 Y125.588
X720.094 Y125.581
X721.923 Y125.588
X723.702 Y125.607
X725.424 Y125.639
X727.093 Y125.685
X728.706 Y125.743
X730.266 Y125.814
X731.773 Y125.897
X733.225 Y125.993
X734.622 Y126.101
X735.965 Y126.221
X737.254 Y126.353
X738.489 Y126.497
X739.671 Y126.652
X740.798 Y126.818
X741.872 Y126.995
X742.893 Y127.182
X743.861 Y127.379
X744.776 Y127.584
X745.637 Y127.798
X746.446 Y128.019
X747.204 Y128.247
X747.913 Y128.481
X748.568 Y128.719
X749.17 Y128.958
X749.727 Y129.202
X750.239 Y129.447
X750.705 Y129.692
X751.127 Y129.935
X751.504 Y130.173
X751.843 Y130.409
X752.149 Y130.642
X752.42 Y130.869
X752.661 Y131.092
X752.88 Y131.315
X753.073 Y131.533
X753.247 Y131.751
X753.405 Y131.971
X753.551 Y132.198
X753.685 Y132.431
X753.809 Y132.673
X753.924 Y132.928
X754.031 Y133.197
X754.13 Y133.485
X754.22 Y133.789
X754.303 Y134.116
X754.376 Y134.463
X754.44 Y134.83
X754.491 Y135.21
X754.533 Y135.618
X754.56 Y136.001
X754.585 Y136.961
X754.56 Y137.939
X754.484 Y138.973
X754.358 Y140.058
X754.183 Y141.183
X753.961 Y142.34
X753.695 Y143.516
X753.386 Y144.701
X753.038 Y145.893
X752.653 Y147.079
X752.232 Y148.253
X751.779 Y149.411
X751.295 Y150.545
X750.784 Y151.649
X750.246 Y152.722
X749.683 Y153.761
X749.098 Y154.762
X748.493 Y155.722
X747.865 Y156.646
X747.216 Y157.535
X746.547 Y158.391
X745.855 Y159.217
X745.138 Y160.023
X744.394 Y160.814
X743.637 Y161.579
X741.957 Y163.19
X740.205 Y164.823
G2 X740.166 Y164.86 I4.33 J4.645
G1 X739.28 Y165.7
G2 X739.206 Y165.772 I4.369 J4.608
G1 X738.329 Y166.631
G2 X738.218 Y166.741 I4.443 J4.536
G1 X737.355 Y167.629
G2 X737.211 Y167.783 I4.554 J4.426
G1 X736.367 Y168.711
G2 X736.199 Y168.903 I4.698 J4.272
G1 X735.379 Y169.881
G2 X735.191 Y170.117 I4.866 J4.08
G1 X734.4 Y171.157
G2 X734.257 Y171.353 I5.054 J3.844
G1 X733.873 Y171.9
G2 X733.776 Y172.041 I5.197 J3.648
G1 X733.401 Y172.607
G2 X733.302 Y172.761 I5.294 J3.507
G1 X732.938 Y173.348
G2 X732.846 Y173.5 I5.393 J3.353
G1 X732.49 Y174.11
G2 X732.398 Y174.272 I5.484 J3.201
G1 X732.053 Y174.905
G2 X731.967 Y175.07 I5.576 J3.039
G1 X731.633 Y175.728
G2 X731.548 Y175.901 I5.662 J2.874
G1 X731.226 Y176.586
G2 X731.153 Y176.748 I5.747 J2.701
G1 X730.842 Y177.461
G2 X736.662 Y186.35 I5.82 J2.539
G1 X1314.89
G2 X1320.027 Y183.732 J-6.35
G1 X1436.447 Y23.494
G2 X1435.042 Y14.625 I-5.137 J-3.732
G1 X1407.842 Y-5.137
G2 X1404.11 Y-6.35 I-3.732 J5.137
G1 X36.074
G2 X32.341 Y-5.137 J6.35
G1 X5.141 Y14.625
G2 X3.736 Y23.494 I3.732 J5.137
G1 X120.156 Y183.732
G2 X125.293 Y186.35 I5.137 J-3.732
G1 X410.07
X562.624
G3 X563.894 Y187.62 J1.27
G1 Y188.89
G19 G3 Y190.16 Z21.27 K1.27
G0 Z65
G17

(2D Adaptive15 4)
M9
G0 X69.02 Y43.649
Z65
Z55
Z53.77
G1 Z52.5 F849.6
G3 X63.095 Y42.704 Z52.171 I-2.963 J-0.473 F400.3
X69.02 Y43.649 Z51.842 I2.963 J0.473
X63.095 Y42.704 Z51.513 I-2.963 J-0.473
X69.02 Y43.649 Z51.184 I2.963 J0.473
X63.095 Y42.704 Z50.854 I-2.963 J-0.473
X69.02 Y43.649 Z50.525 I2.963 J0.473
X63.095 Y42.704 Z50.196 I-2.963 J-0.473
X69.02 Y43.649 Z49.867 I2.963 J0.473
X63.095 Y42.704 Z49.538 I-2.963 J-0.473
X69.02 Y43.649 Z49.209 I2.963 J0.473
X63.095 Y42.704 Z48.88 I-2.963 J-0.473
X69.02 Y43.649 Z48.551 I2.963 J0.473
X63.095 Y42.704 Z48.221 I-2.963 J-0.473
X69.02 Y43.649 Z47.892 I2.963 J0.473
X63.095 Y42.704 Z47.563 I-2.963 J-0.473
X69.02 Y43.649 Z47.234 I2.963 J0.473
X63.095 Y42.704 Z46.905 I-2.963 J-0.473
X69.02 Y43.649 Z46.576 I2.963 J0.473
X63.095 Y42.704 Z46.247 I-2.963 J-0.473
X69.02 Y43.649 Z45.918 I2.963 J0.473
X63.095 Y42.704 Z45.588 I-2.963 J-0.473
X69.02 Y43.649 Z45.259 I2.963 J0.473
X63.095 Y42.704 Z44.93 I-2.963 J-0.473
X69.02 Y43.649 Z44.601 I2.963 J0.473
X63.095 Y42.704 Z44.272 I-2.963 J-0.473
X69.02 Y43.649 Z43.943 I2.963 J0.473
X63.095 Y42.704 Z43.614 I-2.963 J-0.473
X69.02 Y43.649 Z43.285 I2.963 J0.473
X63.095 Y42.704 Z42.956 I-2.963 J-0.473
X69.02 Y43.649 Z42.626 I2.963 J0.473
X63.095 Y42.704 Z42.297 I-2.963 J-0.473
X69.02 Y43.649 Z41.968 I2.963 J0.473
X63.095 Y42.704 Z41.639 I-2.963 J-0.473
X69.02 Y43.649 Z41.31 I2.963 J0.473
X63.095 Y42.704 Z40.981 I-2.963 J-0.473
X69.02 Y43.649 Z40.652 I2.963 J0.473
X63.095 Y42.704 Z40.323 I-2.963 J-0.473
X69.057 Y43.176 Z40.01 I2.963 J0.473
X63.057 I-3
X68.953 Y42.393 I3
X69.057 Y43.176 I-2.896 J0.783
G1 X69.079 Y44.468 F849.6
X69.086 Y44.549
X69.093 Y44.699
X69.085 Y44.848
X69.065 Y44.997
X69.034 Y45.144
X68.993 Y45.288
X68.942 Y45.429
X68.883 Y45.567
X68.815 Y45.701
X68.74 Y45.831
X68.657 Y45.957
X68.564 Y46.083
X68.462 Y46.207
X68.351 Y46.329
X68.23 Y46.447
X68.1 Y46.56
X67.961 Y46.669
X67.814 Y46.772
X67.658 Y46.869
X67.494 Y46.959
X67.324 Y47.041
X67.146 Y47.115
X66.962 Y47.18
X66.772 Y47.236
X66.577 Y47.282
X66.11 Y47.327
X65.641 Y47.298
X65.183 Y47.194
X64.748 Y47.019
X64.346 Y46.776
X63.987 Y46.473
X63.682 Y46.117
X62.565 Y44.58
X62.47 Y44.434
X62.392 Y44.299
X62.32 Y44.156
X62.253 Y44.006
X62.194 Y43.849
X62.142 Y43.685
X62.098 Y43.515
X62.063 Y43.339
X62.036 Y43.158
X62.019 Y42.97
X62.035 Y42.509
X62.115 Y42.055
X62.257 Y41.617
X62.459 Y41.202
X62.716 Y40.82
X63.024 Y40.478
X63.378 Y40.181
G3 X65.332 Y41.487 I0.71 J1.053
G1 X64.811 Y44.051
G3 X62.565 Y44.58 I-1.244 J-0.253
G1 X61.67 Y43.348
X61.588 Y43.222
X61.462 Y42.913
X61.401 Y42.585
X61.408 Y42.252
X61.483 Y41.927
X61.622 Y41.623
X61.82 Y41.355
X62.069 Y41.132
G3 X64.348 Y41.898 I0.847 J1.255
X61.67 Y43.348 I-1.461 J0.499
G1 X61.505 Y43.12
X61.404 Y42.958
X61.334 Y42.796
X61.282 Y42.605
X61.262 Y42.415
X61.269 Y42.225
X61.306 Y42.034
X61.376 Y41.844
X61.483 Y41.654
X61.505 Y41.623
X61.588 Y41.52
X61.69 Y41.417
X61.886 Y41.265
X64.171 Y39.604
X64.315 Y39.51
X64.481 Y39.415
X64.654 Y39.327
X64.834 Y39.247
X65.021 Y39.177
X65.213 Y39.116
X65.41 Y39.065
X65.613 Y39.024
X66.067 Y38.994
X66.52 Y39.034
X66.962 Y39.144
X67.381 Y39.321
X67.768 Y39.56
X68.113 Y39.857
X68.409 Y40.203
G3 X68.6 Y40.66 I-1.053 J0.71
X67.194 Y42.173 I-1.244 J0.253
G1 X64.792 Y41.865
G3 X64.171 Y39.604 I0.161 J-1.26
G1 X65.44 Y38.683
X65.569 Y38.599
X65.858 Y38.47
X66.167 Y38.404
X66.483
X66.792 Y38.47
X67.081 Y38.598
X67.337 Y38.784
X67.549 Y39.019
G3 X66.872 Y41.193 I-1.209 J0.816
X65.44 Y38.683 I-0.533 J-1.359
G1 X65.543 Y38.608
X65.695 Y38.501
X65.886 Y38.401
X66.076 Y38.339
X66.267 Y38.308
X66.457 Y38.306
X66.648 Y38.333
X66.838 Y38.391
X67.019 Y38.479
X67.11 Y38.538
X67.2 Y38.608
X67.219 Y38.625
X67.315 Y38.716
X67.393 Y38.807
X67.6 Y39.09
X69.634 Y41.889
X69.827 Y42.185
X69.95 Y42.397
X70.058 Y42.612
X70.153 Y42.825
X70.234 Y43.039
X70.302 Y43.254
X70.358 Y43.47
X70.401 Y43.688
X70.433 Y43.906
X70.453 Y44.126
X70.461 Y44.346
X70.457 Y44.568
X70.441 Y44.789
X70.413 Y45.011
X70.372 Y45.232
X70.319 Y45.452
X70.254 Y45.671
X70.177 Y45.889
X70.086 Y46.103
X69.984 Y46.314
X69.869 Y46.522
X69.741 Y46.725
X69.602 Y46.923
X69.45 Y47.115
X69.287 Y47.3
X69.119 Y47.47
X68.95 Y47.624
X68.753 Y47.785
X68.563 Y47.924
X68.371 Y48.049
X68.152 Y48.175
X67.945 Y48.279
X67.734 Y48.372
X67.319 Y48.491
X66.889 Y48.541
X66.458 Y48.52
X66.035 Y48.43
X65.632 Y48.273
X65.261 Y48.052
X64.93 Y47.774
X64.648 Y47.446
X63.682 Y46.117
G3 X64.005 Y44.367 I1.053 J-0.71
G1 X67.904 Y41.631
G3 X69.634 Y41.889 I0.729 J1.04
G1 X70.846 Y43.557
X70.948 Y43.715
X71.023 Y43.844
X71.091 Y43.979
X71.15 Y44.117
X71.205 Y44.266
X71.255 Y44.428
X71.298 Y44.6
X71.333 Y44.781
X71.358 Y44.97
X71.375 Y45.168
X71.38 Y45.377
X71.375 Y45.593
X71.357 Y45.814
X71.326 Y46.041
X71.282 Y46.271
X71.224 Y46.503
X71.151 Y46.74
X71.064 Y46.979
X70.961 Y47.216
X70.844 Y47.452
X70.712 Y47.686
X70.566 Y47.914
X70.414 Y48.125
X70.257 Y48.321
X70.076 Y48.522
X69.903 Y48.695
X69.718 Y48.86
X69.518 Y49.021
X69.328 Y49.157
X69.121 Y49.29
X68.906 Y49.411
X68.704 Y49.511
X68.48 Y49.607
X68.088 Y49.716
X67.683 Y49.76
X67.277 Y49.738
X66.879 Y49.651
X66.501 Y49.502
X66.151 Y49.293
X65.84 Y49.031
X65.575 Y48.722
X64.648 Y47.446
G3 X65.065 Y45.637 I1.053 J-0.71
G1 X69.209 Y43.24
G3 X70.47 Y43.234 I0.636 J1.099
X70.846 Y43.557 I-0.625 J1.105
G1 X71.739 Y44.786
X71.821 Y44.912
X71.896 Y45.042
X71.962 Y45.177
X72.02 Y45.315
X72.071 Y45.459
X72.118 Y45.616
X72.158 Y45.788
X72.191 Y45.968
X72.215 Y46.157
X72.229 Y46.359
X72.232 Y46.571
X72.224 Y46.791
X72.203 Y47.016
X72.169 Y47.247
X72.121 Y47.483
X72.059 Y47.722
X71.981 Y47.965
X71.889 Y48.208
X71.781 Y48.451
X71.659 Y48.691
X71.521 Y48.928
X71.369 Y49.16
X71.211 Y49.376
X71.048 Y49.573
X70.863 Y49.774
X70.687 Y49.947
X70.498 Y50.112
X70.297 Y50.27
X70.106 Y50.404
X69.895 Y50.535
X69.683 Y50.651
X69.482 Y50.748
X69.426 Y50.771
X69.03 Y50.898
X68.619 Y50.958
X68.204 Y50.948
X67.797 Y50.869
X67.408 Y50.724
X67.048 Y50.516
X66.728 Y50.251
X66.457 Y49.937
X65.575 Y48.722
G3 X65.979 Y46.92 I1.053 J-0.71
G1 X70.089 Y44.477
G3 X71.739 Y44.786 I0.649 J1.092
G1 X72.553 Y45.907
X72.668 Y46.083
X72.743 Y46.213
X72.809 Y46.348
X72.868 Y46.486
X72.92 Y46.632
X72.967 Y46.792
X73.007 Y46.963
X73.04 Y47.142
X73.064 Y47.334
X73.079 Y47.54
X73.082 Y47.754
X73.074 Y47.974
X73.053 Y48.2
X73.018 Y48.435
X72.969 Y48.675
X72.906 Y48.919
X72.827 Y49.165
X72.734 Y49.41
X72.626 Y49.654
X72.503 Y49.896
X72.364 Y50.134
X72.214 Y50.364
X72.062 Y50.57
X71.886 Y50.784
X71.711 Y50.975
X71.537 Y51.145
X71.338 Y51.319
X71.147 Y51.469
X70.955 Y51.603
X70.74 Y51.737
X70.537 Y51.849
X70.367 Y51.931
X69.973 Y52.08
X69.56 Y52.158
X69.139 Y52.164
X68.723 Y52.097
X68.325 Y51.959
X67.957 Y51.754
X67.63 Y51.489
X67.354 Y51.171
X66.457 Y49.937
G3 X66.266 Y49.48 I1.053 J-0.71
X66.835 Y48.151 I1.244 J-0.253
G1 X70.876 Y45.613
G3 X72.553 Y45.907 I0.675 J1.076
G1 X73.418 Y47.098
X73.521 Y47.256
X73.596 Y47.386
X73.663 Y47.52
X73.721 Y47.658
X73.774 Y47.806
X73.822 Y47.968
X73.863 Y48.139
X73.896 Y48.32
X73.921 Y48.514
X73.935 Y48.721
X73.939 Y48.935
X73.931 Y49.156
X73.91 Y49.384
X73.876 Y49.621
X73.827 Y49.862
X73.764 Y50.107
X73.686 Y50.353
X73.593 Y50.599
X73.485 Y50.844
X73.361 Y51.086
X73.223 Y51.325
X73.077 Y51.549
X72.911 Y51.775
X72.738 Y51.986
X72.571 Y52.168
X72.381 Y52.354
X72.19 Y52.522
X72.006 Y52.667
X71.798 Y52.813
X71.593 Y52.941
X71.397 Y53.049
X71.177 Y53.156
X70.779 Y53.284
X70.365 Y53.344
X69.947 Y53.335
X69.536 Y53.256
X69.144 Y53.11
X68.782 Y52.901
X68.46 Y52.634
X68.187 Y52.317
X67.354 Y51.171
G3 X67.72 Y49.392 I1.053 J-0.71
G1 X71.731 Y46.812
G3 X73.043 Y46.775 I0.687 J1.068
X73.418 Y47.098 I-0.625 J1.105
G1 X74.317 Y48.335
X74.399 Y48.46
X74.472 Y48.591
X74.536 Y48.727
X74.593 Y48.865
X74.645 Y49.015
X74.692 Y49.179
X74.732 Y49.354
X74.764 Y49.539
X74.787 Y49.735
X74.8 Y49.943
X74.802 Y50.162
X74.791 Y50.387
X74.768 Y50.619
X74.731 Y50.855
X74.679 Y51.098
X74.613 Y51.346
X74.531 Y51.594
X74.435 Y51.842
X74.323 Y52.088
X74.196 Y52.332
X74.055 Y52.571
X73.905 Y52.795
X73.753 Y52.999
X73.576 Y53.209
X73.405 Y53.392
X73.229 Y53.562
X73.031 Y53.732
X72.844 Y53.876
X72.647 Y54.012
X72.435 Y54.141
X72.236 Y54.249
X72.025 Y54.348
X71.626 Y54.473
X71.213 Y54.53
X70.796 Y54.517
X70.387 Y54.436
X69.997 Y54.289
X69.637 Y54.079
X69.316 Y53.812
X69.044 Y53.497
X68.187 Y52.317
G3 X68.578 Y50.523 I1.053 J-0.71
G1 X72.654 Y48.033
G3 X74.317 Y48.335 I0.662 J1.084
G1 X75.174 Y49.514
X75.256 Y49.64
X75.33 Y49.77
X75.395 Y49.905
X75.452 Y50.044
X75.506 Y50.196
X75.553 Y50.359
X75.593 Y50.532
X75.626 Y50.717
X75.65 Y50.916
X75.664 Y51.124
X75.666 Y51.34
X75.657 Y51.562
X75.634 Y51.794
X75.598 Y52.032
X75.548 Y52.274
X75.483 Y52.52
X75.403 Y52.766
X75.308 Y53.012
X75.199 Y53.256
X75.074 Y53.498
X74.934 Y53.736
X74.782 Y53.966
X74.632 Y54.168
X74.457 Y54.378
X74.284 Y54.565
X74.111 Y54.733
X73.913 Y54.904
X73.723 Y55.052
X73.532 Y55.185
X73.318 Y55.317
X73.116 Y55.427
X73.046 Y55.46
X72.632 Y55.615
X72.198 Y55.695
X71.756 Y55.7
X71.32 Y55.629
X70.904 Y55.483
X70.518 Y55.268
X70.175 Y54.989
X69.886 Y54.656
X69.044 Y53.497
G3 X68.852 Y53.04 I1.053 J-0.71
X69.435 Y51.703 I1.244 J-0.253
G1 X73.511 Y49.212
G3 X75.174 Y49.514 I0.662 J1.084
G1 X76.047 Y50.716
X76.129 Y50.842
X76.202 Y50.973
X76.266 Y51.108
X76.323 Y51.247
X76.375 Y51.398
X76.422 Y51.563
X76.462 Y51.738
X76.494 Y51.923
X76.517 Y52.121
X76.53 Y52.331
X76.531 Y52.548
X76.521 Y52.772
X76.497 Y53.002
X76.46 Y53.24
X76.408 Y53.481
X76.342 Y53.727
X76.26 Y53.974
X76.164 Y54.22
X76.053 Y54.464
X75.927 Y54.706
X75.789 Y54.939
X75.648 Y55.15
X75.481 Y55.373
X75.314 Y55.571
X75.149 Y55.747
X74.958 Y55.931
X74.771 Y56.091
X74.588 Y56.232
X74.377 Y56.377
X74.173 Y56.501
X73.977 Y56.607
X73.595 Y56.751
X73.195 Y56.836
X72.787 Y56.859
X72.381 Y56.819
X71.985 Y56.717
X71.609 Y56.556
X71.263 Y56.339
X70.954 Y56.072
X70.689 Y55.761
X69.886 Y54.656
G3 X70.289 Y52.855 I1.053 J-0.71
G1 X74.396 Y50.407
G3 X76.047 Y50.716 I0.65 J1.091
G1 X76.892 Y51.88
X76.974 Y52.005
X77.049 Y52.135
X77.116 Y52.27
X77.174 Y52.408
X77.228 Y52.558
X77.276 Y52.719
X77.317 Y52.889
X77.35 Y53.073
X77.375 Y53.27
X77.39 Y53.475
X77.394 Y53.687
X77.386 Y53.908
X77.366 Y54.138
X77.331 Y54.374
X77.283 Y54.615
X77.22 Y54.858
X77.143 Y55.102
X77.05 Y55.346
X76.943 Y55.59
X76.82 Y55.832
X76.685 Y56.067
X76.548 Y56.275
X76.389 Y56.494
X76.229 Y56.688
X76.064 Y56.869
X75.878 Y57.051
X75.701 Y57.207
X75.507 Y57.36
X75.305 Y57.502
X75.113 Y57.622
X74.895 Y57.742
X74.684 Y57.844
X74.27 Y57.978
X73.838 Y58.042
X73.403 Y58.032
X72.975 Y57.95
X72.566 Y57.798
X72.189 Y57.579
X71.853 Y57.302
X71.568 Y56.972
X70.689 Y55.761
G3 X70.497 Y55.304 I1.053 J-0.71
X71.108 Y53.95 I1.244 J-0.253
G1 X75.258 Y51.561
G3 X76.892 Y51.88 I0.634 J1.101
G1 X77.76 Y53.074
X77.842 Y53.2
X77.916 Y53.33
X77.982 Y53.465
X78.04 Y53.603
X78.093 Y53.751
X78.141 Y53.914
X78.181 Y54.087
X78.214 Y54.269
X78.238 Y54.463
X78.252 Y54.669
X78.255 Y54.883
X78.247 Y55.104
X78.226 Y55.331
X78.191 Y55.563
X78.142 Y55.802
X78.079 Y56.043
X78.001 Y56.287
X77.908 Y56.53
X77.8 Y56.772
X77.677 Y57.012
X77.54 Y57.248
X77.393 Y57.471
X77.244 Y57.672
X77.07 Y57.883
X76.9 Y58.068
X76.727 Y58.236
X76.53 Y58.409
X76.341 Y58.556
X76.149 Y58.691
X75.933 Y58.825
X75.731 Y58.935
X75.523 Y59.035
X75.112 Y59.166
X74.684 Y59.228
X74.252 Y59.217
X73.828 Y59.135
X73.423 Y58.983
X73.05 Y58.767
X72.717 Y58.491
X72.435 Y58.164
X71.568 Y56.972
G3 X71.983 Y55.163 I1.053 J-0.71
G1 X76.121 Y52.758
G3 X77.76 Y53.074 I0.638 J1.098
G1 X78.59 Y54.216
X78.695 Y54.377
X78.77 Y54.507
X78.837 Y54.642
X78.895 Y54.78
X78.948 Y54.928
X78.995 Y55.089
X79.036 Y55.259
X79.069 Y55.439
X79.093 Y55.633
X79.108 Y55.839
X79.112 Y56.052
X79.104 Y56.271
X79.083 Y56.498
X79.049 Y56.731
X79.001 Y56.97
X78.938 Y57.213
X78.86 Y57.457
X78.768 Y57.7
X78.661 Y57.943
X78.538 Y58.184
X78.401 Y58.42
X78.253 Y58.647
X78.105 Y58.848
X77.932 Y59.059
X77.76 Y59.246
X77.589 Y59.414
X77.392 Y59.587
X77.202 Y59.736
X77.011 Y59.87
X76.796 Y60.005
X76.593 Y60.117
X76.387 Y60.216
X76.356 Y60.229
X75.951 Y60.359
X75.53 Y60.42
X75.105 Y60.411
X74.687 Y60.33
X74.289 Y60.181
X73.92 Y59.968
X73.593 Y59.697
X73.315 Y59.375
X72.435 Y58.164
G3 X72.835 Y56.364 I1.053 J-0.71
G1 X76.937 Y53.908
G3 X78.59 Y54.216 I0.652 J1.09
G1 X79.466 Y55.421
X79.552 Y55.553
X79.627 Y55.683
X79.693 Y55.818
X79.752 Y55.956
X79.804 Y56.103
X79.852 Y56.265
X79.893 Y56.436
X79.926 Y56.616
X79.951 Y56.81
X79.966 Y57.016
X79.969 Y57.229
X79.961 Y57.449
X79.941 Y57.676
X79.907 Y57.91
X79.859 Y58.149
X79.796 Y58.393
X79.718 Y58.637
X79.626 Y58.881
X79.518 Y59.124
X79.396 Y59.365
X79.258 Y59.602
X79.11 Y59.83
X78.961 Y60.034
X78.786 Y60.246
X78.613 Y60.435
X78.441 Y60.604
X78.243 Y60.778
X78.053 Y60.927
X77.862 Y61.062
X77.646 Y61.196
X77.443 Y61.308
X77.238 Y61.408
X76.829 Y61.54
X76.404 Y61.602
X75.974 Y61.592
X75.552 Y61.511
X75.149 Y61.361
X74.777 Y61.146
X74.446 Y60.872
X74.166 Y60.546
X73.315 Y59.375
G3 X73.713 Y57.576 I1.053 J-0.71
G1 X77.811 Y55.115
G3 X79.466 Y55.421 I0.654 J1.089
G1 X80.333 Y56.615
X80.415 Y56.741
X80.489 Y56.871
X80.555 Y57.006
X80.613 Y57.144
X80.665 Y57.292
X80.713 Y57.454
X80.754 Y57.627
X80.786 Y57.808
X80.81 Y58.002
X80.825 Y58.209
X80.828 Y58.424
X80.819 Y58.645
X80.798 Y58.873
X80.763 Y59.108
X80.713 Y59.347
X80.649 Y59.592
X80.57 Y59.838
X80.477 Y60.083
X80.368 Y60.327
X80.244 Y60.568
X80.106 Y60.806
X79.958 Y61.031
X79.809 Y61.233
X79.635 Y61.444
X79.464 Y61.629
X79.291 Y61.797
X79.094 Y61.97
X78.905 Y62.117
X78.713 Y62.251
X78.498 Y62.385
X78.296 Y62.495
X78.089 Y62.594
X77.863 Y62.688
X77.488 Y62.787
X77.102 Y62.825
X76.714 Y62.801
X76.336 Y62.716
X75.976 Y62.571
X75.644 Y62.371
X75.347 Y62.12
X75.095 Y61.826
X74.166 Y60.546
G3 X74.571 Y58.744 I1.053 J-0.71
G1 X78.685 Y56.305
G3 X80.333 Y56.615 I0.648 J1.092
G1 X81.209 Y57.821
X81.291 Y57.946
X81.363 Y58.078
X81.427 Y58.213
X81.484 Y58.352
X81.535 Y58.502
X81.581 Y58.666
X81.621 Y58.842
X81.652 Y59.027
X81.674 Y59.223
X81.687 Y59.431
X81.688 Y59.648
X81.676 Y59.872
X81.652 Y60.102
X81.615 Y60.337
X81.563 Y60.576
X81.497 Y60.821
X81.415 Y61.066
X81.318 Y61.311
X81.207 Y61.555
X81.08 Y61.797
X80.939 Y62.033
X80.783 Y62.265
X80.619 Y62.482
X80.454 Y62.678
X80.266 Y62.878
X80.087 Y63.049
X79.896 Y63.212
X79.694 Y63.366
X79.503 Y63.497
X79.291 Y63.626
X79.081 Y63.738
X78.88 Y63.832
X78.487 Y63.953
X78.079 Y64.008
X77.667 Y63.995
X77.263 Y63.914
X76.878 Y63.768
X76.523 Y63.56
X76.206 Y63.297
X75.938 Y62.985
X75.095 Y61.826
G3 X75.48 Y60.035 I1.053 J-0.71
G1 X79.54 Y57.523
G3 X81.209 Y57.821 I0.668 J1.08
G1 X82.043 Y58.969
X82.129 Y59.101
X82.204 Y59.231
X82.271 Y59.365
X82.329 Y59.504
X82.382 Y59.653
X82.43 Y59.813
X82.47 Y59.983
X82.504 Y60.166
X82.529 Y60.362
X82.543 Y60.568
X82.547 Y60.781
X82.539 Y61.003
X82.518 Y61.235
X82.483 Y61.474
X82.434 Y61.716
X82.371 Y61.961
X82.292 Y62.207
X82.199 Y62.454
X82.091 Y62.699
X81.967 Y62.943
X81.827 Y63.184
X81.674 Y63.418
X81.524 Y63.623
X81.352 Y63.833
X81.176 Y64.024
X81.005 Y64.192
X80.808 Y64.365
X80.617 Y64.516
X80.428 Y64.648
X80.214 Y64.782
X80.01 Y64.894
X79.959 Y64.919
X79.541 Y65.078
X79.101 Y65.162
X78.654 Y65.168
X78.212 Y65.097
X77.789 Y64.951
X77.398 Y64.733
X77.051 Y64.451
X76.758 Y64.114
X75.938 Y62.985
G3 X76.319 Y61.197 I1.053 J-0.71
G1 X80.37 Y58.673
G3 X82.043 Y58.969 I0.672 J1.078
G1 X82.892 Y60.138
X82.989 Y60.286
X83.064 Y60.416
X83.13 Y60.55
X83.189 Y60.688
X83.242 Y60.837
X83.291 Y60.999
X83.332 Y61.171
X83.365 Y61.353
X83.39 Y61.549
X83.406 Y61.757
X83.41 Y61.972
X83.402 Y62.194
X83.381 Y62.424
X83.347 Y62.661
X83.298 Y62.903
X83.235 Y63.148
X83.157 Y63.395
X83.064 Y63.641
X82.956 Y63.886
X82.833 Y64.129
X82.698 Y64.364
X82.56 Y64.575
X82.397 Y64.798
X82.232 Y64.999
X82.07 Y65.176
X81.882 Y65.361
X81.695 Y65.526
X81.515 Y65.668
X81.307 Y65.814
X81.103 Y65.942
X80.908 Y66.05
X80.855 Y66.075
X80.477 Y66.224
X80.081 Y66.312
X79.676 Y66.338
X79.271 Y66.301
X78.877 Y66.202
X78.504 Y66.044
X78.159 Y65.83
X77.851 Y65.565
X77.587 Y65.256
X76.758 Y64.114
G3 X77.15 Y62.319 I1.053 J-0.71
G1 X81.231 Y59.835
G3 X82.892 Y60.138 I0.66 J1.085
G1 X83.735 Y61.298
X83.852 Y61.477
X83.927 Y61.607
X83.993 Y61.741
X84.052 Y61.879
X84.105 Y62.028
X84.154 Y62.19
X84.195 Y62.362
X84.228 Y62.544
X84.253 Y62.739
X84.269 Y62.945
X84.273 Y63.159
X84.265 Y63.38
X84.245 Y63.608
X84.211 Y63.842
X84.163 Y64.082
X84.1 Y64.326
X84.023 Y64.57
X83.93 Y64.815
X83.823 Y65.059
X83.701 Y65.3
X83.567 Y65.531
X83.429 Y65.744
X83.267 Y65.965
X83.108 Y66.159
X82.939 Y66.345
X82.755 Y66.526
X82.578 Y66.682
X82.38 Y66.838
X82.181 Y66.978
X81.988 Y67.099
X81.769 Y67.22
X81.56 Y67.321
X81.147 Y67.455
X80.718 Y67.518
X80.284 Y67.509
X79.858 Y67.427
X79.451 Y67.276
X79.075 Y67.059
X78.741 Y66.782
X78.458 Y66.454
X77.587 Y65.256
G3 X77.985 Y63.458 I1.053 J-0.71
G1 X82.079 Y60.992
G3 X83.36 Y60.974 I0.655 J1.088
X83.735 Y61.298 I-0.625 J1.105
G1 X84.619 Y62.514
X84.715 Y62.661
X84.79 Y62.791
X84.856 Y62.926
X84.915 Y63.064
X84.968 Y63.212
X85.016 Y63.374
X85.057 Y63.545
X85.091 Y63.726
X85.115 Y63.92
X85.13 Y64.125
X85.134 Y64.339
X85.127 Y64.559
X85.106 Y64.786
X85.073 Y65.018
X85.025 Y65.258
X84.962 Y65.499
X84.885 Y65.743
X84.793 Y65.988
X84.686 Y66.23
X84.564 Y66.47
X84.427 Y66.707
X84.28 Y66.933
X84.133 Y67.134
X83.96 Y67.346
X83.789 Y67.532
X83.618 Y67.701
X83.421 Y67.874
X83.232 Y68.023
X83.041 Y68.158
X82.826 Y68.292
X82.623 Y68.405
X82.417 Y68.504
X82.19 Y68.599
X81.81 Y68.701
X81.419 Y68.741
X81.027 Y68.718
X80.644 Y68.632
X80.279 Y68.486
X79.942 Y68.284
X79.642 Y68.03
X79.386 Y67.732
X78.458 Y66.454
G3 X78.86 Y64.652 I1.053 J-0.71
G1 X82.968 Y62.205
G3 X84.619 Y62.514 I0.65 J1.091
G1 X85.504 Y63.733
X85.586 Y63.859
X85.66 Y63.989
X85.725 Y64.124
X85.783 Y64.263
X85.834 Y64.411
X85.882 Y64.573
X85.922 Y64.747
X85.954 Y64.93
X85.978 Y65.124
X85.991 Y65.33
X85.994 Y65.545
X85.984 Y65.768
X85.962 Y65.996
X85.926 Y66.23
X85.877 Y66.468
X85.812 Y66.711
X85.732 Y66.956
X85.638 Y67.201
X85.529 Y67.444
X85.404 Y67.685
X85.265 Y67.922
X85.112 Y68.154
X84.949 Y68.373
X84.785 Y68.569
X84.599 Y68.77
X84.42 Y68.944
X84.231 Y69.107
X84.029 Y69.264
X83.839 Y69.396
X83.628 Y69.526
X83.417 Y69.641
X83.216 Y69.736
X82.817 Y69.862
X82.403 Y69.92
X81.985 Y69.909
X81.574 Y69.828
X81.182 Y69.681
X80.821 Y69.471
X80.499 Y69.204
X80.225 Y68.887
X79.386 Y67.732
G3 X79.773 Y65.941 I1.053 J-0.71
G1 X83.837 Y63.434
G3 X85.129 Y63.41 I0.667 J1.081
X85.504 Y63.733 I-0.625 J1.105
G1 X86.334 Y64.875
X86.434 Y65.028
X86.509 Y65.158
X86.575 Y65.292
X86.633 Y65.43
X86.686 Y65.579
X86.734 Y65.74
X86.775 Y65.91
X86.808 Y66.091
X86.833 Y66.287
X86.847 Y66.493
X86.851 Y66.707
X86.843 Y66.928
X86.822 Y67.157
X86.787 Y67.395
X86.738 Y67.638
X86.675 Y67.883
X86.596 Y68.129
X86.503 Y68.376
X86.394 Y68.62
X86.271 Y68.863
X86.132 Y69.103
X85.981 Y69.335
X85.831 Y69.538
X85.658 Y69.749
X85.485 Y69.938
X85.313 Y70.106
X85.116 Y70.279
X84.926 Y70.429
X84.736 Y70.562
X84.522 Y70.696
X84.319 Y70.807
X84.115 Y70.906
X83.71 Y71.036
X83.289 Y71.097
X82.863 Y71.088
X82.445 Y71.007
X82.046 Y70.858
X81.678 Y70.645
X81.35 Y70.374
X81.071 Y70.051
X80.225 Y68.887
G3 X80.608 Y67.098 I1.053 J-0.71
G1 X84.663 Y64.578
G3 X86.334 Y64.875 I0.67 J1.079
G1 X87.205 Y66.074
X87.293 Y66.208
X87.368 Y66.338
X87.434 Y66.472
X87.493 Y66.61
X87.546 Y66.759
X87.594 Y66.921
X87.635 Y67.093
X87.669 Y67.275
X87.694 Y67.47
X87.709 Y67.678
X87.713 Y67.893
X87.705 Y68.114
X87.685 Y68.343
X87.65 Y68.58
X87.602 Y68.821
X87.539 Y69.066
X87.461 Y69.312
X87.368 Y69.558
X87.261 Y69.802
X87.138 Y70.045
X87 Y70.283
X86.852 Y70.511
X86.704 Y70.713
X86.53 Y70.925
X86.359 Y71.112
X86.188 Y71.28
X85.991 Y71.453
X85.802 Y71.602
X85.612 Y71.736
X85.398 Y71.871
X85.196 Y71.982
X84.991 Y72.081
X84.765 Y72.176
X84.389 Y72.277
X84.003 Y72.316
X83.615 Y72.293
X83.236 Y72.208
X82.875 Y72.064
X82.542 Y71.864
X82.245 Y71.613
X81.992 Y71.318
X81.071 Y70.051
G3 X81.464 Y68.257 I1.053 J-0.71
G1 X85.543 Y65.771
G3 X87.205 Y66.074 I0.661 J1.085
G1 X88.092 Y67.294
X88.174 Y67.42
X88.247 Y67.551
X88.311 Y67.686
X88.368 Y67.825
X88.42 Y67.975
X88.467 Y68.139
X88.507 Y68.315
X88.539 Y68.499
X88.562 Y68.695
X88.575 Y68.904
X88.577 Y69.121
X88.566 Y69.345
X88.543 Y69.576
X88.507 Y69.811
X88.456 Y70.051
X88.39 Y70.296
X88.309 Y70.542
X88.213 Y70.787
X88.102 Y71.032
X87.977 Y71.274
X87.836 Y71.511
X87.681 Y71.743
X87.519 Y71.961
X87.354 Y72.158
X87.167 Y72.357
X86.989 Y72.529
X86.798 Y72.693
X86.597 Y72.848
X86.407 Y72.979
X86.195 Y73.108
X85.986 Y73.221
X85.785 Y73.316
X85.771 Y73.321
X85.379 Y73.444
X84.973 Y73.5
X84.563 Y73.488
X84.16 Y73.408
X83.777 Y73.263
X83.422 Y73.057
X83.106 Y72.794
X82.839 Y72.484
X81.992 Y71.318
G3 X81.8 Y70.861 I1.053 J-0.71
X82.371 Y69.531 I1.244 J-0.253
G1 X86.417 Y67
G3 X88.092 Y67.294 I0.674 J1.077
G1 X88.934 Y68.454
X89.019 Y68.585
X89.095 Y68.714
X89.161 Y68.849
X89.219 Y68.987
X89.273 Y69.137
X89.321 Y69.298
X89.361 Y69.468
X89.395 Y69.651
X89.42 Y69.848
X89.435 Y70.054
X89.439 Y70.268
X89.431 Y70.49
X89.41 Y70.721
X89.375 Y70.96
X89.326 Y71.203
X89.263 Y71.448
X89.184 Y71.695
X89.091 Y71.942
X88.983 Y72.187
X88.859 Y72.431
X88.72 Y72.672
X88.567 Y72.906
X88.416 Y73.111
X88.243 Y73.322
X88.068 Y73.514
X87.896 Y73.682
X87.699 Y73.856
X87.508 Y74.006
X87.319 Y74.139
X87.105 Y74.273
X86.902 Y74.385
X86.824 Y74.423
X86.412 Y74.579
X85.98 Y74.662
X85.539 Y74.669
X85.104 Y74.599
X84.688 Y74.455
X84.303 Y74.241
X83.961 Y73.963
X83.672 Y73.631
X82.839 Y72.484
G3 X83.216 Y70.698 I1.053 J-0.71
G1 X87.258 Y68.16
G3 X88.559 Y68.13 I0.675 J1.076
X88.934 Y68.454 I-0.625 J1.105
G1 X89.767 Y69.6
X89.88 Y69.774
X89.955 Y69.904
X90.022 Y70.038
X90.08 Y70.176
X90.134 Y70.325
X90.182 Y70.488
X90.224 Y70.659
X90.257 Y70.841
X90.282 Y71.037
X90.297 Y71.245
X90.302 Y71.461
X90.294 Y71.683
X90.273 Y71.913
X90.239 Y72.15
X90.19 Y72.392
X90.127 Y72.638
X90.049 Y72.885
X89.956 Y73.131
X89.848 Y73.376
X89.725 Y73.619
X89.589 Y73.855
X89.449 Y74.069
X89.286 Y74.293
X89.119 Y74.497
X88.957 Y74.675
X88.768 Y74.86
X88.58 Y75.025
X88.399 Y75.168
X88.192 Y75.314
X87.987 Y75.442
X87.793 Y75.55
X87.572 Y75.657
X87.166 Y75.788
X86.745 Y75.85
X86.319 Y75.841
X85.9 Y75.761
X85.501 Y75.612
X85.132 Y75.399
X84.803 Y75.127
X84.525 Y74.805
X83.672 Y73.631
G3 X84.049 Y71.845 I1.053 J-0.71
G1 X88.09 Y69.306
G3 X89.767 Y69.6 I0.676 J1.075
G1 X90.635 Y70.795
X90.745 Y70.963
X90.82 Y71.093
X90.886 Y71.227
X90.945 Y71.365
X90.998 Y71.514
X91.047 Y71.677
X91.088 Y71.849
X91.122 Y72.031
X91.147 Y72.226
X91.162 Y72.432
X91.166 Y72.647
X91.159 Y72.869
X91.138 Y73.098
X91.104 Y73.332
X91.056 Y73.573
X90.993 Y73.818
X90.916 Y74.063
X90.823 Y74.309
X90.716 Y74.553
X90.593 Y74.795
X90.456 Y75.033
X90.308 Y75.261
X90.16 Y75.463
X89.986 Y75.675
X89.815 Y75.863
X89.644 Y76.031
X89.447 Y76.205
X89.258 Y76.354
X89.068 Y76.488
X88.854 Y76.622
X88.652 Y76.734
X88.447 Y76.833
X88.038 Y76.966
X87.613 Y77.028
X87.183 Y77.019
X86.761 Y76.939
X86.359 Y76.789
X85.987 Y76.574
X85.656 Y76.3
X85.375 Y75.975
X84.525 Y74.805
G3 X84.908 Y73.015 I1.053 J-0.71
G1 X88.964 Y70.498
G3 X90.635 Y70.795 I0.67 J1.079
G1 X91.533 Y72.031
X91.615 Y72.157
X91.689 Y72.287
X91.755 Y72.422
X91.813 Y72.56
X91.866 Y72.708
X91.914 Y72.872
X91.955 Y73.045
X91.988 Y73.227
X92.012 Y73.422
X92.027 Y73.63
X92.03 Y73.845
X92.022 Y74.067
X92 Y74.296
X91.966 Y74.531
X91.917 Y74.771
X91.853 Y75.016
X91.774 Y75.262
X91.681 Y75.507
X91.572 Y75.751
X91.448 Y75.993
X91.31 Y76.231
X91.163 Y76.455
X91.014 Y76.657
X90.84 Y76.868
X90.67 Y77.053
X90.497 Y77.222
X90.3 Y77.394
X90.113 Y77.541
X89.92 Y77.676
X89.706 Y77.809
X89.505 Y77.92
X89.297 Y78.019
X89.244 Y78.041
X88.848 Y78.168
X88.436 Y78.228
X88.019 Y78.218
X87.61 Y78.138
X87.22 Y77.993
X86.86 Y77.784
X86.539 Y77.518
X86.267 Y77.203
X85.375 Y75.975
G3 X85.777 Y74.174 I1.053 J-0.71
G1 X89.881 Y71.723
G3 X91.533 Y72.031 I0.651 J1.09
G1 X92.363 Y73.173
X92.472 Y73.34
X92.547 Y73.47
X92.613 Y73.604
X92.672 Y73.742
X92.725 Y73.891
X92.773 Y74.053
X92.814 Y74.224
X92.847 Y74.405
X92.872 Y74.6
X92.887 Y74.807
X92.891 Y75.021
X92.883 Y75.241
X92.862 Y75.469
X92.828 Y75.704
X92.78 Y75.944
X92.717 Y76.188
X92.639 Y76.433
X92.547 Y76.677
X92.44 Y76.92
X92.317 Y77.162
X92.18 Y77.399
X92.03 Y77.629
X91.879 Y77.835
X91.704 Y78.048
X91.53 Y78.239
X91.357 Y78.409
X91.159 Y78.583
X90.967 Y78.734
X90.777 Y78.868
X90.562 Y79.002
X90.359 Y79.114
X90.154 Y79.213
X89.748 Y79.344
X89.327 Y79.406
X88.901 Y79.397
X88.483 Y79.316
X88.083 Y79.168
X87.715 Y78.954
X87.387 Y78.683
X87.108 Y78.36
X86.267 Y77.203
G3 X86.645 Y75.417 I1.053 J-0.71
G1 X90.687 Y72.879
G3 X92.363 Y73.173 I0.675 J1.076
G1 X93.249 Y74.392
X93.333 Y74.521
X93.408 Y74.651
X93.474 Y74.785
X93.533 Y74.924
X93.586 Y75.072
X93.634 Y75.233
X93.675 Y75.405
X93.708 Y75.586
X93.733 Y75.78
X93.748 Y75.987
X93.752 Y76.202
X93.744 Y76.423
X93.724 Y76.651
X93.69 Y76.887
X93.641 Y77.128
X93.578 Y77.373
X93.5 Y77.62
X93.407 Y77.865
X93.299 Y78.11
X93.176 Y78.353
X93.038 Y78.591
X92.89 Y78.819
X92.742 Y79.022
X92.568 Y79.234
X92.397 Y79.421
X92.225 Y79.589
X92.028 Y79.763
X91.84 Y79.911
X91.649 Y80.046
X91.435 Y80.18
X91.233 Y80.291
X91.028 Y80.391
X90.619 Y80.523
X90.195 Y80.585
X89.766 Y80.575
X89.344 Y80.495
X88.942 Y80.345
X88.57 Y80.13
X88.24 Y79.856
X87.959 Y79.532
X87.108 Y78.36
G3 X87.503 Y76.564 I1.053 J-0.71
G1 X91.59 Y74.088
G3 X92.873 Y74.069 I0.658 J1.086
X93.249 Y74.392 I-0.625 J1.105
G1 X94.078 Y75.534
X94.193 Y75.71
X94.268 Y75.84
X94.334 Y75.974
X94.393 Y76.112
X94.446 Y76.26
X94.494 Y76.422
X94.535 Y76.594
X94.569 Y76.775
X94.593 Y76.97
X94.609 Y77.177
X94.613 Y77.391
X94.605 Y77.612
X94.584 Y77.841
X94.55 Y78.076
X94.502 Y78.316
X94.439 Y78.56
X94.361 Y78.806
X94.269 Y79.051
X94.161 Y79.294
X94.038 Y79.536
X93.901 Y79.774
X93.754 Y80
X93.606 Y80.202
X93.432 Y80.414
X93.262 Y80.6
X93.091 Y80.768
X92.894 Y80.942
X92.705 Y81.09
X92.514 Y81.225
X92.3 Y81.359
X92.098 Y81.47
X91.893 Y81.57
X91.483 Y81.702
X91.057 Y81.765
X90.626 Y81.755
X90.203 Y81.674
X89.8 Y81.524
X89.427 Y81.308
X89.095 Y81.034
X88.814 Y80.708
X87.959 Y79.532
G3 X88.346 Y77.74 I1.053 J-0.71
G1 X92.411 Y75.235
G3 X94.078 Y75.534 I0.666 J1.081
G1 X94.975 Y76.768
X95.057 Y76.894
X95.132 Y77.024
X95.198 Y77.158
X95.256 Y77.297
X95.309 Y77.445
X95.358 Y77.607
X95.399 Y77.779
X95.432 Y77.961
X95.456 Y78.156
X95.471 Y78.363
X95.475 Y78.577
X95.467 Y78.798
X95.446 Y79.026
X95.412 Y79.261
X95.364 Y79.501
X95.301 Y79.745
X95.223 Y79.99
X95.13 Y80.235
X95.022 Y80.479
X94.9 Y80.72
X94.762 Y80.958
X94.615 Y81.183
X94.467 Y81.385
X94.293 Y81.596
X94.123 Y81.783
X93.951 Y81.951
X93.754 Y82.124
X93.566 Y82.272
X93.374 Y82.407
X93.16 Y82.541
X92.958 Y82.652
X92.752 Y82.752
X92.525 Y82.846
X92.148 Y82.947
X91.76 Y82.986
X91.37 Y82.963
X90.989 Y82.878
X90.627 Y82.732
X90.292 Y82.531
X89.994 Y82.279
X89.74 Y81.983
X88.814 Y80.708
G3 X89.217 Y78.906 I1.053 J-0.71
G1 X93.324 Y76.459
G3 X94.599 Y76.445 I0.65 J1.091
X94.975 Y76.768 I-0.625 J1.105
G1 X95.859 Y77.985
X95.941 Y78.111
X96.013 Y78.242
X96.077 Y78.378
X96.133 Y78.517
X96.184 Y78.666
X96.231 Y78.83
X96.27 Y79.007
X96.302 Y79.193
X96.324 Y79.388
X96.336 Y79.596
X96.337 Y79.814
X96.325 Y80.038
X96.301 Y80.269
X96.264 Y80.504
X96.212 Y80.743
X96.145 Y80.986
X96.063 Y81.232
X95.967 Y81.477
X95.855 Y81.721
X95.728 Y81.962
X95.587 Y82.199
X95.431 Y82.431
X95.268 Y82.646
X95.102 Y82.843
X94.915 Y83.041
X94.737 Y83.211
X94.544 Y83.376
X94.344 Y83.529
X94.153 Y83.659
X93.94 Y83.788
X93.731 Y83.9
X93.527 Y83.994
X93.134 Y84.116
X92.726 Y84.17
X92.315 Y84.157
X91.911 Y84.076
X91.527 Y83.93
X91.171 Y83.723
X90.855 Y83.459
X90.587 Y83.148
X89.74 Y81.983
G3 X90.127 Y80.192 I1.053 J-0.71
G1 X94.192 Y77.686
G3 X95.859 Y77.985 I0.666 J1.081
G1 X96.72 Y79.17
X96.802 Y79.295
X96.874 Y79.427
X96.938 Y79.562
X96.994 Y79.701
X97.046 Y79.853
X97.093 Y80.018
X97.132 Y80.192
X97.162 Y80.377
X97.185 Y80.575
X97.197 Y80.785
Y81.003
X97.186 Y81.227
X97.161 Y81.458
X97.123 Y81.697
X97.07 Y81.941
X97.002 Y82.188
X96.919 Y82.436
X96.822 Y82.683
X96.709 Y82.928
X96.581 Y83.171
X96.438 Y83.409
X96.285 Y83.637
X96.132 Y83.839
X95.955 Y84.049
X95.781 Y84.233
X95.605 Y84.4
X95.406 Y84.57
X95.217 Y84.715
X95.022 Y84.848
X94.808 Y84.977
X94.607 Y85.083
X94.561 Y85.105
X94.148 Y85.255
X93.715 Y85.333
X93.276 Y85.335
X92.842 Y85.261
X92.428 Y85.115
X92.045 Y84.9
X91.704 Y84.622
X91.416 Y84.29
X90.587 Y83.148
G3 X90.979 Y81.353 I1.053 J-0.71
G1 X95.058 Y78.867
G3 X96.72 Y79.17 I0.661 J1.084
G1 X97.549 Y80.312
X97.64 Y80.45
X97.715 Y80.58
X97.781 Y80.714
X97.839 Y80.853
X97.893 Y81.003
X97.941 Y81.163
X97.982 Y81.333
X98.016 Y81.518
X98.041 Y81.715
X98.056 Y81.92
X98.06 Y82.134
X98.052 Y82.356
X98.031 Y82.589
X97.996 Y82.827
X97.948 Y83.068
X97.885 Y83.312
X97.807 Y83.558
X97.715 Y83.803
X97.607 Y84.048
X97.483 Y84.291
X97.345 Y84.53
X97.205 Y84.745
X97.046 Y84.962
X96.877 Y85.168
X96.714 Y85.347
X96.529 Y85.528
X96.339 Y85.695
X96.158 Y85.838
X95.953 Y85.982
X95.746 Y86.112
X95.551 Y86.22
X95.333 Y86.325
X94.926 Y86.457
X94.502 Y86.519
X94.074 Y86.51
X93.654 Y86.429
X93.253 Y86.28
X92.882 Y86.065
X92.552 Y85.793
X92.273 Y85.468
X91.416 Y84.29
G3 X91.808 Y82.495 I1.053 J-0.71
G1 X95.888 Y80.009
G3 X97.549 Y80.312 I0.661 J1.084
G1 X98.411 Y81.498
X98.503 Y81.638
X98.578 Y81.768
X98.644 Y81.902
X98.703 Y82.04
X98.756 Y82.189
X98.804 Y82.351
X98.846 Y82.523
X98.879 Y82.705
X98.904 Y82.9
X98.919 Y83.107
X98.924 Y83.321
X98.916 Y83.542
X98.895 Y83.771
X98.861 Y84.005
X98.813 Y84.246
X98.75 Y84.491
X98.673 Y84.735
X98.581 Y84.98
X98.473 Y85.224
X98.351 Y85.466
X98.214 Y85.703
X98.066 Y85.931
X97.918 Y86.133
X97.744 Y86.345
X97.574 Y86.532
X97.402 Y86.701
X97.205 Y86.874
X97.016 Y87.023
X96.826 Y87.157
X96.611 Y87.292
X96.409 Y87.404
X96.204 Y87.503
X95.795 Y87.636
X95.368 Y87.698
X94.938 Y87.689
X94.515 Y87.608
X94.111 Y87.458
X93.738 Y87.242
X93.407 Y86.968
X93.125 Y86.642
X92.273 Y85.468
G3 X92.667 Y83.672 I1.053 J-0.71
G1 X96.752 Y81.194
G3 X98.411 Y81.498 I0.659 J1.086
G1 X99.282 Y82.697
X99.366 Y82.825
X99.441 Y82.954
X99.507 Y83.089
X99.566 Y83.227
X99.619 Y83.375
X99.667 Y83.537
X99.708 Y83.709
X99.742 Y83.89
X99.767 Y84.085
X99.782 Y84.291
X99.786 Y84.506
X99.778 Y84.726
X99.757 Y84.954
X99.723 Y85.189
X99.675 Y85.429
X99.612 Y85.673
X99.535 Y85.919
X99.442 Y86.163
X99.335 Y86.407
X99.213 Y86.649
X99.075 Y86.887
X98.928 Y87.113
X98.78 Y87.315
X98.607 Y87.526
X98.437 Y87.713
X98.265 Y87.881
X98.068 Y88.054
X97.88 Y88.203
X97.689 Y88.338
X97.475 Y88.472
X97.272 Y88.584
X97.067 Y88.683
X96.656 Y88.816
X96.229 Y88.879
X95.798 Y88.869
X95.374 Y88.788
X94.969 Y88.637
X94.595 Y88.421
X94.263 Y88.146
X93.981 Y87.819
X93.125 Y86.642
G3 X93.526 Y84.842 I1.053 J-0.71
G1 X97.63 Y82.389
G3 X99.282 Y82.697 I0.652 J1.09
G1 X100.163 Y83.909
X100.245 Y84.035
X100.318 Y84.166
X100.383 Y84.301
X100.439 Y84.44
X100.491 Y84.589
X100.538 Y84.752
X100.578 Y84.928
X100.61 Y85.112
X100.633 Y85.307
X100.645 Y85.515
X100.647 Y85.732
X100.637 Y85.956
X100.614 Y86.185
X100.577 Y86.42
X100.526 Y86.659
X100.461 Y86.903
X100.38 Y87.148
X100.284 Y87.393
X100.173 Y87.637
X100.048 Y87.879
X99.908 Y88.116
X99.761 Y88.335
X99.609 Y88.537
X99.434 Y88.747
X99.265 Y88.928
X99.089 Y89.097
X98.892 Y89.267
X98.705 Y89.411
X98.507 Y89.547
X98.294 Y89.677
X98.094 Y89.785
X97.882 Y89.885
X97.477 Y90.011
X97.057 Y90.069
X96.633 Y90.056
X96.218 Y89.974
X95.821 Y89.824
X95.455 Y89.611
X95.129 Y89.34
X94.852 Y89.019
X93.981 Y87.819
G3 X94.392 Y86.013 I1.053 J-0.71
G1 X98.52 Y83.595
G3 X99.788 Y83.586 I0.642 J1.096
X100.163 Y83.909 I-0.625 J1.105
G1 X100.993 Y85.051
X101.089 Y85.198
X101.164 Y85.328
X101.23 Y85.462
X101.288 Y85.601
X101.342 Y85.75
X101.389 Y85.91
X101.43 Y86.08
X101.463 Y86.263
X101.488 Y86.459
X101.503 Y86.664
X101.507 Y86.877
X101.499 Y87.096
X101.478 Y87.326
X101.443 Y87.561
X101.395 Y87.801
X101.332 Y88.044
X101.254 Y88.288
X101.162 Y88.532
X101.055 Y88.774
X100.932 Y89.015
X100.795 Y89.253
X100.644 Y89.483
X100.495 Y89.686
X100.323 Y89.896
X100.149 Y90.086
X99.979 Y90.253
X99.782 Y90.426
X99.59 Y90.577
X99.401 Y90.71
X99.186 Y90.844
X98.982 Y90.956
X98.778 Y91.055
X98.551 Y91.149
X98.175 Y91.25
X97.788 Y91.289
X97.4 Y91.266
X97.02 Y91.181
X96.659 Y91.036
X96.325 Y90.835
X96.028 Y90.584
X95.775 Y90.289
X94.852 Y89.019
G3 X95.247 Y87.222 I1.053 J-0.71
G1 X99.334 Y84.747
G3 X100.617 Y84.728 I0.658 J1.086
X100.993 Y85.051 I-0.625 J1.105
G1 X101.887 Y86.282
X101.969 Y86.407
X102.042 Y86.539
X102.106 Y86.674
X102.162 Y86.813
X102.213 Y86.962
X102.26 Y87.126
X102.3 Y87.302
X102.331 Y87.486
X102.353 Y87.681
X102.366 Y87.889
X102.367 Y88.106
X102.356 Y88.331
X102.332 Y88.561
X102.295 Y88.796
X102.244 Y89.035
X102.177 Y89.28
X102.096 Y89.526
X101.999 Y89.771
X101.888 Y90.015
X101.761 Y90.257
X101.62 Y90.494
X101.464 Y90.726
X101.301 Y90.942
X101.136 Y91.139
X100.949 Y91.338
X100.77 Y91.509
X100.578 Y91.674
X100.378 Y91.828
X100.187 Y91.958
X99.974 Y92.087
X99.765 Y92.199
X99.564 Y92.293
X99.17 Y92.415
X98.761 Y92.471
X98.349 Y92.458
X97.945 Y92.377
X97.559 Y92.231
X97.203 Y92.023
X96.886 Y91.76
X96.616 Y91.447
X95.775 Y90.289
G3 X96.159 Y88.499 I1.053 J-0.71
G1 X100.217 Y85.984
G3 X101.887 Y86.282 I0.669 J1.08
G1 X102.736 Y87.45
X102.818 Y87.576
X102.892 Y87.706
X102.957 Y87.841
X103.015 Y87.98
X103.068 Y88.131
X103.115 Y88.293
X103.155 Y88.464
X103.187 Y88.648
X103.211 Y88.846
X103.225 Y89.053
X103.227 Y89.268
X103.218 Y89.491
X103.195 Y89.722
X103.159 Y89.962
X103.108 Y90.205
X103.043 Y90.451
X102.963 Y90.698
X102.868 Y90.945
X102.758 Y91.19
X102.632 Y91.433
X102.492 Y91.673
X102.338 Y91.905
X102.187 Y92.108
X102.013 Y92.318
X101.838 Y92.506
X101.666 Y92.674
X101.468 Y92.845
X101.277 Y92.994
X101.086 Y93.126
X100.872 Y93.258
X100.67 Y93.368
X100.464 Y93.466
X100.407 Y93.489
X100.019 Y93.612
X99.617 Y93.668
X99.21 Y93.658
X98.811 Y93.58
X98.431 Y93.436
X98.079 Y93.232
X97.767 Y92.973
X97.501 Y92.665
X96.616 Y91.447
G3 X97.003 Y89.656 I1.053 J-0.71
G1 X101.069 Y87.151
G3 X102.36 Y87.127 I0.666 J1.081
X102.736 Y87.45 I-0.625 J1.105
G1 X103.566 Y88.592
X103.669 Y88.751
X103.744 Y88.881
X103.811 Y89.015
X103.869 Y89.153
X103.923 Y89.303
X103.971 Y89.465
X104.012 Y89.635
X104.045 Y89.818
X104.07 Y90.015
X104.085 Y90.223
X104.089 Y90.437
X104.082 Y90.658
X104.061 Y90.889
X104.026 Y91.127
X103.978 Y91.369
X103.914 Y91.614
X103.836 Y91.86
X103.744 Y92.106
X103.636 Y92.35
X103.513 Y92.593
X103.375 Y92.832
X103.223 Y93.064
X103.071 Y93.273
X102.896 Y93.486
X102.719 Y93.679
X102.547 Y93.848
X102.349 Y94.023
X102.157 Y94.174
X101.967 Y94.308
X101.752 Y94.442
X101.549 Y94.554
X101.346 Y94.652
X100.945 Y94.782
X100.528 Y94.843
X100.106 Y94.834
X99.692 Y94.754
X99.297 Y94.607
X98.932 Y94.396
X98.607 Y94.127
X98.332 Y93.808
X97.501 Y92.665
G3 X97.867 Y90.887 I1.053 J-0.71
G1 X101.878 Y88.306
G3 X103.566 Y88.592 I0.687 J1.068
G1 X104.445 Y89.802
X104.533 Y89.937
X104.608 Y90.067
X104.674 Y90.201
X104.733 Y90.34
X104.786 Y90.488
X104.835 Y90.651
X104.876 Y90.822
X104.91 Y91.004
X104.935 Y91.2
X104.95 Y91.408
X104.954 Y91.623
X104.946 Y91.845
X104.926 Y92.075
X104.892 Y92.313
X104.843 Y92.555
X104.78 Y92.801
X104.701 Y93.049
X104.609 Y93.295
X104.5 Y93.541
X104.377 Y93.785
X104.239 Y94.024
X104.09 Y94.253
X103.941 Y94.456
X103.768 Y94.668
X103.597 Y94.856
X103.425 Y95.025
X103.229 Y95.198
X103.04 Y95.347
X102.85 Y95.481
X102.636 Y95.615
X102.435 Y95.726
X102.285 Y95.799
X101.885 Y95.951
X101.464 Y96.032
X101.036 Y96.039
X100.613 Y95.972
X100.208 Y95.832
X99.834 Y95.624
X99.501 Y95.354
X99.22 Y95.031
X98.332 Y93.808
G3 X98.716 Y92.018 I1.053 J-0.71
G1 X102.775 Y89.505
G3 X104.445 Y89.802 I0.669 J1.08
G1 X105.315 Y91.001
X105.397 Y91.127
X105.472 Y91.256
X105.539 Y91.391
X105.598 Y91.529
X105.651 Y91.678
X105.7 Y91.841
X105.741 Y92.013
X105.775 Y92.195
X105.8 Y92.391
X105.815 Y92.599
X105.819 Y92.814
X105.812 Y93.036
X105.791 Y93.265
X105.757 Y93.501
X105.709 Y93.742
X105.646 Y93.987
X105.568 Y94.234
X105.475 Y94.479
X105.368 Y94.724
X105.245 Y94.966
X105.108 Y95.203
X104.965 Y95.424
X104.799 Y95.65
X104.629 Y95.858
X104.464 Y96.039
X104.274 Y96.226
X104.084 Y96.393
X103.902 Y96.537
X103.694 Y96.684
X103.489 Y96.813
X103.294 Y96.921
X102.912 Y97.07
X102.511 Y97.16
X102.102 Y97.186
X101.693 Y97.149
X101.296 Y97.049
X100.918 Y96.889
X100.569 Y96.673
X100.258 Y96.405
X99.992 Y96.093
X99.22 Y95.031
G3 X99.598 Y93.245 I1.053 J-0.71
G1 X103.639 Y90.707
G3 X105.315 Y91.001 I0.675 J1.076
G1 X106.171 Y92.179
X106.262 Y92.318
X106.337 Y92.448
X106.404 Y92.582
X106.462 Y92.72
X106.515 Y92.869
X106.564 Y93.031
X106.605 Y93.203
X106.638 Y93.384
X106.664 Y93.579
X106.679 Y93.786
X106.683 Y94.001
X106.675 Y94.223
X106.655 Y94.453
X106.62 Y94.689
X106.572 Y94.932
X106.509 Y95.178
X106.431 Y95.424
X106.338 Y95.671
X106.23 Y95.917
X106.106 Y96.16
X105.973 Y96.391
X105.836 Y96.601
X105.676 Y96.82
X105.519 Y97.011
X105.351 Y97.196
X105.168 Y97.376
X104.993 Y97.53
X104.795 Y97.686
X104.597 Y97.826
X104.404 Y97.947
X104.186 Y98.067
X103.978 Y98.168
X103.564 Y98.302
X103.134 Y98.366
X102.699 Y98.356
X102.271 Y98.275
X101.864 Y98.123
X101.487 Y97.905
X101.152 Y97.628
X100.868 Y97.298
X99.992 Y96.093
G3 X100.402 Y94.288 I1.053 J-0.71
G1 X104.527 Y91.865
G3 X106.171 Y92.179 I0.643 J1.095
G1 X107.029 Y93.36
X107.125 Y93.507
X107.2 Y93.636
X107.267 Y93.771
X107.325 Y93.909
X107.379 Y94.058
X107.427 Y94.22
X107.468 Y94.392
X107.502 Y94.574
X107.527 Y94.769
X107.542 Y94.974
X107.546 Y95.188
X107.538 Y95.409
X107.518 Y95.635
X107.485 Y95.868
X107.437 Y96.107
X107.375 Y96.349
X107.298 Y96.592
X107.206 Y96.836
X107.099 Y97.078
X106.978 Y97.318
X106.841 Y97.554
X106.695 Y97.78
X106.548 Y97.981
X106.375 Y98.192
X106.204 Y98.379
X106.033 Y98.547
X105.836 Y98.72
X105.647 Y98.87
X105.457 Y99.004
X105.242 Y99.139
X105.039 Y99.251
X104.834 Y99.35
X104.42 Y99.484
X103.99 Y99.548
X103.556 Y99.538
X103.129 Y99.457
X102.722 Y99.305
X102.346 Y99.088
X102.011 Y98.811
X101.727 Y98.482
X100.868 Y97.298
G3 X101.271 Y95.497 I1.053 J-0.71
G1 X105.379 Y93.05
G3 X107.029 Y93.36 I0.65 J1.091
G1 X107.907 Y94.568
X107.989 Y94.694
X108.064 Y94.824
X108.13 Y94.958
X108.189 Y95.096
X108.241 Y95.244
X108.289 Y95.406
X108.33 Y95.577
X108.363 Y95.758
X108.388 Y95.952
X108.402 Y96.158
X108.406 Y96.371
X108.398 Y96.592
X108.377 Y96.819
X108.343 Y97.052
X108.295 Y97.291
X108.232 Y97.534
X108.154 Y97.779
X108.062 Y98.023
X107.954 Y98.266
X107.831 Y98.507
X107.694 Y98.744
X107.547 Y98.968
X107.4 Y99.169
X107.226 Y99.381
X107.056 Y99.566
X106.884 Y99.735
X106.687 Y99.908
X106.499 Y100.056
X106.307 Y100.191
X106.092 Y100.325
X105.889 Y100.436
X105.683 Y100.536
X105.589 Y100.575
X105.198 Y100.701
X104.791 Y100.76
X104.379 Y100.751
X103.976 Y100.673
X103.59 Y100.53
X103.234 Y100.324
X102.917 Y100.061
X102.649 Y99.75
X101.727 Y98.482
G3 X102.137 Y96.676 I1.053 J-0.71
G1 X106.264 Y94.255
G3 X107.907 Y94.568 I0.643 J1.095
G1 X108.737 Y95.71
X108.845 Y95.876
X108.921 Y96.006
X108.987 Y96.141
X109.045 Y96.279
X109.098 Y96.426
X109.146 Y96.588
X109.187 Y96.759
X109.22 Y96.939
X109.244 Y97.133
X109.259 Y97.339
X109.263 Y97.552
X109.255 Y97.772
X109.234 Y97.999
X109.2 Y98.233
X109.152 Y98.471
X109.089 Y98.715
X109.012 Y98.959
X108.919 Y99.203
X108.812 Y99.446
X108.69 Y99.687
X108.552 Y99.924
X108.402 Y100.154
X108.249 Y100.362
X108.072 Y100.578
X107.896 Y100.771
X107.722 Y100.941
X107.522 Y101.117
X107.33 Y101.268
X107.138 Y101.403
X106.923 Y101.537
X106.719 Y101.649
X106.514 Y101.749
X106.11 Y101.879
X105.691 Y101.94
X105.267 Y101.93
X104.851 Y101.85
X104.454 Y101.702
X104.087 Y101.49
X103.76 Y101.22
X103.483 Y100.899
X102.649 Y99.75
G3 X102.457 Y99.293 I1.053 J-0.71
X103.024 Y97.966 I1.244 J-0.253
G1 X107.058 Y95.418
G3 X108.737 Y95.71 I0.678 J1.074
G1 X109.613 Y96.916
X109.703 Y97.054
X109.778 Y97.184
X109.845 Y97.319
X109.903 Y97.457
X109.956 Y97.604
X110.004 Y97.766
X110.045 Y97.937
X110.078 Y98.118
X110.103 Y98.312
X110.118 Y98.518
X110.122 Y98.732
X110.114 Y98.953
X110.093 Y99.182
X110.058 Y99.418
X110.01 Y99.659
X109.946 Y99.905
X109.868 Y100.152
X109.775 Y100.398
X109.667 Y100.643
X109.543 Y100.886
X109.405 Y101.125
X109.256 Y101.354
X109.107 Y101.557
X108.933 Y101.769
X108.762 Y101.956
X108.59 Y102.125
X108.393 Y102.298
X108.204 Y102.447
X108.013 Y102.581
X107.799 Y102.715
X107.597 Y102.826
X107.392 Y102.925
X107.166 Y103.02
X106.792 Y103.12
X106.407 Y103.159
X106.02 Y103.136
X105.642 Y103.051
X105.282 Y102.907
X104.95 Y102.708
X104.654 Y102.458
X104.402 Y102.164
X103.483 Y100.899
G3 X103.874 Y99.105 I1.053 J-0.71
G1 X107.95 Y96.614
G3 X109.613 Y96.916 I0.662 J1.084
G1 X110.473 Y98.099
X110.563 Y98.237
X110.638 Y98.367
X110.704 Y98.501
X110.763 Y98.639
X110.816 Y98.788
X110.864 Y98.95
X110.905 Y99.121
X110.938 Y99.303
X110.963 Y99.498
X110.979 Y99.706
X110.983 Y99.92
X110.975 Y100.141
X110.954 Y100.37
X110.92 Y100.606
X110.872 Y100.846
X110.809 Y101.091
X110.731 Y101.337
X110.638 Y101.582
X110.531 Y101.826
X110.408 Y102.068
X110.271 Y102.306
X110.119 Y102.539
X109.955 Y102.763
X109.793 Y102.96
X109.608 Y103.163
X109.427 Y103.34
X109.243 Y103.502
X109.04 Y103.662
X108.848 Y103.797
X108.643 Y103.926
X108.43 Y104.043
X108.231 Y104.14
X108.203 Y104.152
X107.809 Y104.279
X107.4 Y104.339
X106.986 Y104.33
X106.58 Y104.252
X106.192 Y104.108
X105.834 Y103.901
X105.516 Y103.637
X105.245 Y103.324
X104.402 Y102.164
G3 X104.77 Y100.384 I1.053 J-0.71
G1 X108.787 Y97.812
G3 X110.097 Y97.776 I0.685 J1.07
X110.473 Y98.099 I-0.625 J1.105
G1 X111.328 Y99.276
X111.424 Y99.424
X111.499 Y99.554
X111.566 Y99.688
X111.624 Y99.826
X111.677 Y99.975
X111.726 Y100.137
X111.767 Y100.308
X111.8 Y100.489
X111.825 Y100.684
X111.84 Y100.892
X111.844 Y101.107
X111.836 Y101.33
X111.816 Y101.559
X111.781 Y101.797
X111.733 Y102.041
X111.669 Y102.287
X111.591 Y102.534
X111.497 Y102.782
X111.389 Y103.028
X111.265 Y103.272
X111.127 Y103.512
X110.976 Y103.743
X110.826 Y103.948
X110.651 Y104.162
X110.478 Y104.351
X110.305 Y104.521
X110.108 Y104.695
X109.918 Y104.844
X109.727 Y104.978
X109.514 Y105.112
X109.313 Y105.223
X109.235 Y105.261
X108.822 Y105.418
X108.389 Y105.501
X107.948 Y105.508
X107.512 Y105.438
X107.095 Y105.294
X106.71 Y105.08
X106.367 Y104.802
X106.077 Y104.469
X105.245 Y103.324
G3 X105.618 Y101.541 I1.053 J-0.71
G1 X109.647 Y98.986
G3 X111.328 Y99.276 I0.68 J1.072
G1 X112.173 Y100.439
X112.286 Y100.613
X112.361 Y100.743
X112.428 Y100.878
X112.486 Y101.016
X112.54 Y101.165
X112.589 Y101.327
X112.63 Y101.499
X112.663 Y101.681
X112.689 Y101.877
X112.704 Y102.085
X112.708 Y102.301
X112.7 Y102.522
X112.68 Y102.752
X112.645 Y102.99
X112.597 Y103.231
X112.534 Y103.477
X112.456 Y103.724
X112.363 Y103.971
X112.255 Y104.216
X112.132 Y104.459
X111.996 Y104.695
X111.857 Y104.909
X111.693 Y105.132
X111.527 Y105.336
X111.364 Y105.514
X111.176 Y105.699
X110.988 Y105.864
X110.807 Y106.007
X110.6 Y106.153
X110.395 Y106.281
X110.201 Y106.389
X110.14 Y106.419
X109.766 Y106.565
X109.373 Y106.653
X108.972 Y106.679
X108.572 Y106.642
X108.182 Y106.544
X107.812 Y106.388
X107.47 Y106.176
X107.165 Y105.914
X106.905 Y105.608
X106.077 Y104.469
G3 X106.455 Y102.683 I1.053 J-0.71
G1 X110.497 Y100.146
G3 X111.797 Y100.116 I0.675 J1.076
X112.173 Y100.439 I-0.625 J1.105
G1 X113.06 Y101.66
X113.152 Y101.801
X113.227 Y101.931
X113.293 Y102.065
X113.352 Y102.203
X113.405 Y102.352
X113.454 Y102.515
X113.495 Y102.687
X113.529 Y102.869
X113.554 Y103.064
X113.569 Y103.271
X113.574 Y103.486
X113.566 Y103.707
X113.546 Y103.936
X113.512 Y104.171
X113.464 Y104.412
X113.401 Y104.657
X113.323 Y104.902
X113.231 Y105.147
X113.123 Y105.392
X113.001 Y105.634
X112.867 Y105.867
X112.728 Y106.08
X112.565 Y106.303
X112.406 Y106.498
X112.236 Y106.683
X112.051 Y106.865
X111.875 Y107.021
X111.677 Y107.178
X111.477 Y107.318
X111.284 Y107.439
X111.066 Y107.56
X110.858 Y107.661
X110.447 Y107.794
X110.02 Y107.857
X109.588 Y107.848
X109.163 Y107.767
X108.759 Y107.616
X108.384 Y107.4
X108.052 Y107.125
X107.769 Y106.798
X106.905 Y105.608
G3 X107.305 Y103.808 I1.053 J-0.71
G1 X111.407 Y101.352
G3 X113.06 Y101.66 I0.652 J1.09
G1 X113.936 Y102.866
X114.018 Y102.992
X114.093 Y103.122
X114.159 Y103.256
X114.218 Y103.394
X114.271 Y103.543
X114.319 Y103.705
X114.36 Y103.877
X114.393 Y104.059
X114.418 Y104.253
X114.433 Y104.459
X114.437 Y104.674
X114.429 Y104.895
X114.408 Y105.122
X114.374 Y105.355
X114.326 Y105.595
X114.263 Y105.838
X114.186 Y106.083
X114.093 Y106.327
X113.986 Y106.57
X113.864 Y106.811
X113.726 Y107.048
X113.579 Y107.274
X113.431 Y107.476
X113.257 Y107.688
X113.087 Y107.874
X112.915 Y108.042
X112.718 Y108.216
X112.53 Y108.364
X112.338 Y108.499
X112.123 Y108.633
X111.921 Y108.745
X111.715 Y108.844
X111.304 Y108.977
X110.877 Y109.039
X110.445 Y109.03
X110.021 Y108.948
X109.616 Y108.797
X109.242 Y108.581
X108.909 Y108.306
X108.627 Y107.979
X107.769 Y106.798
G3 X108.174 Y104.995 I1.053 J-0.71
G1 X112.287 Y102.556
G3 X113.936 Y102.866 I0.648 J1.092
G1 X114.766 Y104.008
X114.877 Y104.179
X114.952 Y104.309
X115.019 Y104.443
X115.077 Y104.581
X115.13 Y104.729
X115.178 Y104.89
X115.219 Y105.061
X115.252 Y105.242
X115.277 Y105.436
X115.292 Y105.642
X115.295 Y105.856
X115.287 Y106.076
X115.267 Y106.303
X115.233 Y106.538
X115.185 Y106.776
X115.122 Y107.02
X115.044 Y107.265
X114.952 Y107.509
X114.844 Y107.752
X114.722 Y107.994
X114.585 Y108.231
X114.437 Y108.457
X114.29 Y108.658
X114.116 Y108.869
X113.946 Y109.056
X113.775 Y109.224
X113.577 Y109.397
X113.389 Y109.546
X113.198 Y109.68
X112.983 Y109.814
X112.78 Y109.926
X112.575 Y110.025
X112.542 Y110.039
X112.138 Y110.17
X111.718 Y110.231
X111.293 Y110.222
X110.876 Y110.142
X110.478 Y109.993
X110.111 Y109.781
X109.784 Y109.51
X109.506 Y109.188
X108.627 Y107.979
G3 X109.021 Y106.183 I1.053 J-0.71
G1 X113.106 Y103.704
G3 X114.39 Y103.685 I0.659 J1.086
X114.766 Y104.008 I-0.625 J1.105
G1 X115.651 Y105.227
X115.736 Y105.357
X115.812 Y105.487
X115.878 Y105.622
X115.936 Y105.76
X115.989 Y105.908
X116.037 Y106.069
X116.078 Y106.241
X116.112 Y106.421
X116.136 Y106.616
X116.151 Y106.822
X116.155 Y107.036
X116.147 Y107.256
X116.127 Y107.483
X116.093 Y107.718
X116.045 Y107.957
X115.982 Y108.2
X115.904 Y108.445
X115.812 Y108.689
X115.705 Y108.933
X115.582 Y109.174
X115.445 Y109.411
X115.297 Y109.639
X115.147 Y109.843
X114.973 Y110.056
X114.8 Y110.244
X114.628 Y110.413
X114.43 Y110.587
X114.24 Y110.737
X114.049 Y110.872
X113.834 Y111.006
X113.631 Y111.118
X113.426 Y111.217
X113.017 Y111.349
X112.592 Y111.412
X112.163 Y111.402
X111.741 Y111.321
X111.339 Y111.171
X110.967 Y110.956
X110.636 Y110.682
X110.355 Y110.357
X109.506 Y109.188
G3 X109.903 Y107.391 I1.053 J-0.71
G1 X113.995 Y104.922
G3 X115.651 Y105.227 I0.656 J1.087
G1 X116.481 Y106.369
X116.595 Y106.544
X116.67 Y106.673
X116.737 Y106.808
X116.795 Y106.946
X116.848 Y107.093
X116.896 Y107.255
X116.937 Y107.426
X116.97 Y107.607
X116.994 Y107.801
X117.009 Y108.007
X117.013 Y108.221
X117.005 Y108.441
X116.985 Y108.669
X116.95 Y108.904
X116.902 Y109.143
X116.839 Y109.388
X116.761 Y109.633
X116.669 Y109.878
X116.561 Y110.122
X116.438 Y110.364
X116.301 Y110.602
X116.153 Y110.828
X116.005 Y111.03
X115.831 Y111.242
X115.661 Y111.428
X115.489 Y111.596
X115.292 Y111.77
X115.103 Y111.918
X114.912 Y112.053
X114.698 Y112.187
X114.495 Y112.298
X114.29 Y112.398
X113.88 Y112.53
X113.454 Y112.592
X113.023 Y112.583
X112.6 Y112.501
X112.197 Y112.351
X111.824 Y112.135
X111.492 Y111.861
X111.211 Y111.535
X110.355 Y110.357
G3 X110.745 Y108.564 I1.053 J-0.71
G1 X114.817 Y106.068
G3 X116.106 Y106.046 I0.664 J1.083
X116.481 Y106.369 I-0.625 J1.105
G1 X117.37 Y107.593
X117.454 Y107.722
X117.53 Y107.852
X117.596 Y107.986
X117.654 Y108.124
X117.707 Y108.272
X117.756 Y108.434
X117.797 Y108.606
X117.83 Y108.787
X117.855 Y108.982
X117.87 Y109.188
X117.874 Y109.402
X117.866 Y109.623
X117.845 Y109.851
X117.811 Y110.085
X117.763 Y110.325
X117.7 Y110.569
X117.623 Y110.814
X117.53 Y111.059
X117.423 Y111.302
X117.3 Y111.544
X117.163 Y111.781
X117.016 Y112.008
X116.868 Y112.209
X116.695 Y112.421
X116.524 Y112.607
X116.353 Y112.776
X116.156 Y112.949
X115.967 Y113.098
X115.776 Y113.232
X115.561 Y113.366
X115.359 Y113.478
X115.154 Y113.578
X114.927 Y113.673
X114.549 Y113.774
X114.16 Y113.813
X113.77 Y113.79
X113.388 Y113.705
X113.025 Y113.56
X112.69 Y113.358
X112.391 Y113.106
X112.137 Y112.809
X111.211 Y111.535
G3 X111.613 Y109.734 I1.053 J-0.71
G1 X115.718 Y107.284
G3 X117.37 Y107.593 I0.651 J1.091
G1 X118.211 Y108.75
X118.314 Y108.909
X118.389 Y109.038
X118.456 Y109.173
X118.514 Y109.311
X118.567 Y109.459
X118.615 Y109.62
X118.656 Y109.792
X118.69 Y109.973
X118.714 Y110.167
X118.729 Y110.373
X118.733 Y110.587
X118.725 Y110.807
X118.705 Y111.035
X118.671 Y111.269
X118.623 Y111.508
X118.56 Y111.752
X118.482 Y111.997
X118.39 Y112.242
X118.282 Y112.485
X118.16 Y112.726
X118.023 Y112.964
X117.871 Y113.196
X117.708 Y113.419
X117.546 Y113.616
X117.361 Y113.819
X117.181 Y113.995
X116.996 Y114.158
X116.793 Y114.318
X116.602 Y114.453
X116.395 Y114.582
X116.183 Y114.699
X115.983 Y114.796
X115.946 Y114.811
X115.553 Y114.938
X115.143 Y114.998
X114.73 Y114.989
X114.324 Y114.911
X113.936 Y114.767
X113.578 Y114.56
X113.26 Y114.296
X112.99 Y113.983
X112.137 Y112.809
G3 X112.506 Y111.028 I1.053 J-0.71
G1 X116.527 Y108.461
G3 X118.211 Y108.75 I0.683 J1.07
G1 X119.096 Y109.968
X119.178 Y110.093
X119.252 Y110.224
X119.319 Y110.358
X119.377 Y110.496
X119.429 Y110.644
X119.477 Y110.807
X119.518 Y110.979
X119.551 Y111.16
X119.576 Y111.354
X119.59 Y111.562
X119.594 Y111.778
X119.585 Y112
X119.564 Y112.229
X119.529 Y112.466
X119.48 Y112.709
X119.416 Y112.955
X119.337 Y113.203
X119.243 Y113.45
X119.134 Y113.696
X119.01 Y113.939
X118.871 Y114.179
X118.721 Y114.408
X118.569 Y114.614
X118.393 Y114.828
X118.22 Y115.017
X118.046 Y115.186
X117.848 Y115.36
X117.659 Y115.509
X117.467 Y115.643
X117.253 Y115.777
X117.052 Y115.887
X116.98 Y115.922
X116.567 Y116.078
X116.133 Y116.16
X115.691 Y116.167
X115.255 Y116.096
X114.838 Y115.951
X114.452 Y115.737
X114.109 Y115.458
X113.819 Y115.125
X112.99 Y113.983
G3 X113.371 Y112.194 I1.053 J-0.71
G1 X117.424 Y109.672
G3 X119.096 Y109.968 I0.671 J1.078
G1 X119.952 Y111.147
X120.036 Y111.275
X120.111 Y111.405
X120.177 Y111.539
X120.236 Y111.677
X120.289 Y111.826
X120.338 Y111.989
X120.379 Y112.16
X120.412 Y112.342
X120.437 Y112.539
X120.453 Y112.746
X120.457 Y112.961
X120.449 Y113.183
X120.428 Y113.413
X120.394 Y113.65
X120.345 Y113.892
X120.282 Y114.138
X120.204 Y114.385
X120.111 Y114.631
X120.003 Y114.876
X119.88 Y115.119
X119.743 Y115.355
X119.604 Y115.569
X119.441 Y115.792
X119.274 Y115.996
X119.112 Y116.174
X118.923 Y116.359
X118.736 Y116.524
X118.555 Y116.667
X118.347 Y116.813
X118.142 Y116.941
X117.948 Y117.049
X117.727 Y117.156
X117.321 Y117.287
X116.898 Y117.349
X116.471 Y117.34
X116.052 Y117.26
X115.652 Y117.111
X115.282 Y116.897
X114.953 Y116.625
X114.674 Y116.301
X113.819 Y115.125
G3 X114.211 Y113.33 I1.053 J-0.71
G1 X118.291 Y110.844
G3 X119.952 Y111.147 I0.661 J1.084
G1 X120.782 Y112.289
X120.899 Y112.467
X120.974 Y112.597
X121.04 Y112.732
X121.099 Y112.87
X121.152 Y113.018
X121.2 Y113.181
X121.242 Y113.352
X121.275 Y113.534
X121.3 Y113.729
X121.315 Y113.936
X121.319 Y114.15
X121.312 Y114.372
X121.291 Y114.6
X121.257 Y114.834
X121.209 Y115.075
X121.146 Y115.32
X121.069 Y115.565
X120.976 Y115.81
X120.869 Y116.054
X120.746 Y116.296
X120.609 Y116.533
X120.461 Y116.761
X120.313 Y116.963
X120.139 Y117.175
X119.969 Y117.362
X119.797 Y117.531
X119.6 Y117.704
X119.411 Y117.853
X119.221 Y117.988
X119.007 Y118.122
X118.804 Y118.234
X118.599 Y118.333
X118.373 Y118.428
X117.997 Y118.529
X117.61 Y118.568
X117.221 Y118.546
X116.841 Y118.461
X116.48 Y118.316
X116.146 Y118.116
X115.848 Y117.864
X115.595 Y117.569
X114.674 Y116.301
G3 X115.056 Y114.513 I1.053 J-0.71
G1 X119.111 Y111.992
G3 X120.782 Y112.289 I0.671 J1.079
G1 X121.697 Y113.548
X121.779 Y113.674
X121.852 Y113.805
X121.917 Y113.94
X121.974 Y114.079
X122.026 Y114.228
X122.073 Y114.392
X122.113 Y114.567
X122.145 Y114.752
X122.168 Y114.947
X122.181 Y115.155
X122.183 Y115.372
X122.173 Y115.596
X122.15 Y115.826
X122.114 Y116.061
X122.063 Y116.3
X121.998 Y116.545
X121.917 Y116.791
X121.822 Y117.036
X121.711 Y117.281
X121.585 Y117.522
X121.445 Y117.76
X121.291 Y117.992
X121.128 Y118.21
X120.963 Y118.407
X120.777 Y118.607
X120.598 Y118.779
X120.408 Y118.943
X120.207 Y119.098
X120.017 Y119.229
X119.806 Y119.359
X119.596 Y119.472
X119.395 Y119.567
X119 Y119.691
X118.589 Y119.747
X118.175 Y119.736
X117.768 Y119.655
X117.38 Y119.509
X117.022 Y119.3
X116.703 Y119.036
X116.432 Y118.722
X115.595 Y117.569
G3 X115.975 Y115.781 I1.053 J-0.71
G1 X120.023 Y113.253
G3 X121.322 Y113.225 I0.673 J1.077
X121.697 Y113.548 I-0.625 J1.105
G1 X122.566 Y114.744
X122.648 Y114.87
