%
(1001)
(Z0 stock bottom)
(T1  D=12.7 CR=0 - ZMIN=20 - flat end mill)
G90 G94
G17
G21

(2D Contour7 5)
M9
T1 M6
S6000 M3
G54
M9
G0 X420.594 Y189.96
Z65
Z55
G1 Z54 F849.6
Z53.77
G19 G2 Y188.69 Z52.5 J-1.27
G1 Y187.42
G17 G3 X421.864 Y186.15 I1.27
G1 X579.363 Z47 F400.3
X1014.22 F849.6
G2 X1019.357 Y183.532 J-6.35
G1 X1149.847 Y3.932
G2 X1144.71 Y-6.15 I-5.137 J-3.732
G1 X596.234
G2 X590.439 Y2.796 J6.35
G1 X590.75 Y3.49
G2 X590.833 Y3.668 I5.795 J-2.596
G1 X591.157 Y4.335
G2 X591.236 Y4.494 I5.712 J-2.773
G1 X591.57 Y5.135
G2 X591.664 Y5.308 I5.633 J-2.932
G1 X592.01 Y5.925
G2 X592.097 Y6.076 I5.539 J-3.104
G1 X592.452 Y6.671
G2 X592.548 Y6.827 I5.452 J-3.255
G1 X592.913 Y7.4
G2 X593.009 Y7.546 I5.356 J-3.411
G1 X593.383 Y8.099
G2 X593.482 Y8.241 I5.26 J-3.558
G1 X593.865 Y8.776
G2 X594.008 Y8.966 I5.161 J-3.7
G1 X594.797 Y9.984
G2 X594.979 Y10.208 I5.018 J-3.891
G1 X595.795 Y11.167
G2 X595.961 Y11.355 I4.836 J-4.115
G1 X596.801 Y12.267
G2 X596.937 Y12.409 I4.67 J-4.303
G1 X597.795 Y13.284
G2 X597.934 Y13.421 I4.534 J-4.446
G1 X599.69 Y15.106
G2 X599.746 Y15.159 I4.396 J-4.583
G1 X601.493 Y16.794
X603.17 Y18.409
X603.927 Y19.178
X604.666 Y19.965
X605.373 Y20.766
X606.058 Y21.595
X606.728 Y22.463
X607.379 Y23.365
X608.009 Y24.302
X608.618 Y25.274
X609.201 Y26.277
X609.76 Y27.317
X610.296 Y28.395
X610.807 Y29.507
X611.289 Y30.648
X611.741 Y31.81
X612.158 Y32.987
X612.541 Y34.176
X612.884 Y35.364
X613.187 Y36.548
X613.448 Y37.724
X613.666 Y38.884
X613.839 Y40.019
X613.964 Y41.11
X614.038 Y42.145
X614.062 Y43.116
X614.032 Y44.072
X614.004 Y44.449
X613.959 Y44.858
X613.905 Y45.244
X613.838 Y45.613
X613.762 Y45.965
X613.676 Y46.294
X613.58 Y46.608
X613.477 Y46.901
X613.364 Y47.18
X613.244 Y47.441
X613.116 Y47.689
X612.978 Y47.925
X612.828 Y48.154
X612.663 Y48.381
X612.478 Y48.608
X612.275 Y48.835
X612.052 Y49.06
X611.797 Y49.293
X611.513 Y49.53
X611.2 Y49.766
X610.847 Y50.009
X610.456 Y50.255
X610.026 Y50.502
X609.552 Y50.75
X609.032 Y50.998
X608.467 Y51.244
X607.855 Y51.487
X607.194 Y51.726
X606.484 Y51.959
X605.723 Y52.187
X604.909 Y52.408
X604.042 Y52.622
X603.121 Y52.827
X602.149 Y53.023
X601.124 Y53.21
X600.046 Y53.386
X598.915 Y53.552
X597.732 Y53.707
X596.495 Y53.85
X595.206 Y53.982
X593.864 Y54.102
X592.468 Y54.209
X591.018 Y54.305
X589.515 Y54.388
X587.959 Y54.458
X586.347 Y54.516
X584.681 Y54.561
X582.963 Y54.593
X581.189 Y54.613
X579.363 Y54.619
X577.536 Y54.613
X575.763 Y54.593
X574.044 Y54.561
X572.378 Y54.516
X570.767 Y54.458
X569.209 Y54.388
X567.707 Y54.305
X566.258 Y54.209
X564.862 Y54.102
X563.52 Y53.982
X562.23 Y53.85
X560.994 Y53.707
X559.811 Y53.552
X558.68 Y53.386
X557.602 Y53.21
X556.577 Y53.023
X555.604 Y52.827
X554.685 Y52.622
X553.817 Y52.408
X553.003 Y52.187
X552.24 Y51.959
X551.53 Y51.725
X550.87 Y51.487
X550.258 Y51.244
X549.693 Y50.998
X549.173 Y50.75
X548.699 Y50.502
X548.269 Y50.255
X547.88 Y50.01
X547.528 Y49.768
X547.211 Y49.528
X546.928 Y49.293
X546.677 Y49.063
X546.448 Y48.832
X546.244 Y48.605
X546.065 Y48.384
X545.9 Y48.157
X545.748 Y47.925
X545.608 Y47.685
X545.479 Y47.437
X545.363 Y47.184
X545.251 Y46.906
X545.144 Y46.603
X545.05 Y46.294
X544.964 Y45.965
X544.887 Y45.613
X544.821 Y45.244
X544.766 Y44.858
X544.722 Y44.454
X544.694 Y44.072
X544.664 Y43.116
X544.688 Y42.145
X544.762 Y41.108
X544.887 Y40.017
X545.059 Y38.886
X545.278 Y37.724
X545.538 Y36.548
X545.841 Y35.364
X546.185 Y34.174
X546.567 Y32.989
X546.985 Y31.81
X547.436 Y30.648
X547.919 Y29.507
X548.43 Y28.394
X548.964 Y27.318
X549.524 Y26.279
X550.109 Y25.272
X550.716 Y24.302
X551.347 Y23.365
X551.997 Y22.463
X552.667 Y21.596
X553.354 Y20.764
X554.061 Y19.963
X554.796 Y19.179
X555.555 Y18.41
X557.234 Y16.793
X558.98 Y15.158
G2 X559.034 Y15.106 I-4.341 J-4.635
G1 X560.792 Y13.421
G2 X560.927 Y13.287 I-4.396 J-4.583
G1 X561.786 Y12.412
G2 X561.927 Y12.264 I-4.531 J-4.448
G1 X562.766 Y11.352
G2 X562.928 Y11.17 I-4.672 J-4.3
G1 X563.745 Y10.211
G2 X563.932 Y9.981 I-4.834 J-4.118
G1 X564.72 Y8.963
G2 X564.859 Y8.776 I-5.021 J-3.888
G1 X565.242 Y8.241
G2 X565.342 Y8.099 I-5.161 J-3.7
G1 X565.716 Y7.546
G2 X565.812 Y7.4 I-5.26 J-3.558
G1 X566.177 Y6.827
G2 X566.269 Y6.677 I-5.356 J-3.411
G1 X566.625 Y6.083
G2 X566.72 Y5.918 I-5.448 J-3.262
G1 X567.065 Y5.301
G2 X567.151 Y5.142 I-5.543 J-3.097
G1 X567.486 Y4.5
G2 X567.573 Y4.328 I-5.629 J-2.939
G1 X567.896 Y3.661
G2 X567.972 Y3.497 I-5.716 J-2.767
G1 X568.284 Y2.803
G2 X562.492 Y-6.15 I-5.792 J-2.603
G1 X14.017
G2 X8.879 Y3.932 J6.35
G1 X139.367 Y183.532
G2 X144.504 Y186.15 I5.137 J-3.732
G1 X579.363
X704.656 Z44 F400.3
X1014.22 F849.6
G2 X1019.357 Y183.532 J-6.35
G1 X1149.847 Y3.932
G2 X1144.71 Y-6.15 I-5.137 J-3.732
G1 X596.234
G2 X590.439 Y2.796 J6.35
G1 X590.75 Y3.49
G2 X590.833 Y3.668 I5.795 J-2.596
G1 X591.157 Y4.335
G2 X591.236 Y4.494 I5.712 J-2.773
G1 X591.57 Y5.135
G2 X591.664 Y5.308 I5.633 J-2.932
G1 X592.01 Y5.925
G2 X592.097 Y6.076 I5.539 J-3.104
G1 X592.452 Y6.671
G2 X592.548 Y6.827 I5.452 J-3.255
G1 X592.913 Y7.4
G2 X593.009 Y7.546 I5.356 J-3.411
G1 X593.383 Y8.099
G2 X593.482 Y8.241 I5.26 J-3.558
G1 X593.865 Y8.776
G2 X594.008 Y8.966 I5.161 J-3.7
G1 X594.797 Y9.984
G2 X594.979 Y10.208 I5.018 J-3.891
G1 X595.795 Y11.167
G2 X595.961 Y11.355 I4.836 J-4.115
G1 X596.801 Y12.267
G2 X596.937 Y12.409 I4.67 J-4.303
G1 X597.795 Y13.284
G2 X597.934 Y13.421 I4.534 J-4.446
G1 X599.69 Y15.106
G2 X599.746 Y15.159 I4.396 J-4.583
G1 X601.493 Y16.794
X603.17 Y18.409
X603.927 Y19.178
X604.666 Y19.965
X605.373 Y20.766
X606.058 Y21.595
X606.728 Y22.463
X607.379 Y23.365
X608.009 Y24.302
X608.618 Y25.274
X609.201 Y26.277
X609.76 Y27.317
X610.296 Y28.395
X610.807 Y29.507
X611.289 Y30.648
X611.741 Y31.81
X612.158 Y32.987
X612.541 Y34.176
X612.884 Y35.364
X613.187 Y36.548
X613.448 Y37.724
X613.666 Y38.884
X613.839 Y40.019
X613.964 Y41.11
X614.038 Y42.145
X614.062 Y43.116
X614.032 Y44.072
X614.004 Y44.449
X613.959 Y44.858
X613.905 Y45.244
X613.838 Y45.613
X613.762 Y45.965
X613.676 Y46.294
X613.58 Y46.608
X613.477 Y46.901
X613.364 Y47.18
X613.244 Y47.441
X613.116 Y47.689
X612.978 Y47.925
X612.828 Y48.154
X612.663 Y48.381
X612.478 Y48.608
X612.275 Y48.835
X612.052 Y49.06
X611.797 Y49.293
X611.513 Y49.53
X611.2 Y49.766
X610.847 Y50.009
X610.456 Y50.255
X610.026 Y50.502
X609.552 Y50.75
X609.032 Y50.998
X608.467 Y51.244
X607.855 Y51.487
X607.194 Y51.726
X606.484 Y51.959
X605.723 Y52.187
X604.909 Y52.408
X604.042 Y52.622
X603.121 Y52.827
X602.149 Y53.023
X601.124 Y53.21
X600.046 Y53.386
X598.915 Y53.552
X597.732 Y53.707
X596.495 Y53.85
X595.206 Y53.982
X593.864 Y54.102
X592.468 Y54.209
X591.018 Y54.305
X589.515 Y54.388
X587.959 Y54.458
X586.347 Y54.516
X584.681 Y54.561
X582.963 Y54.593
X581.189 Y54.613
X579.363 Y54.619
X577.536 Y54.613
X575.763 Y54.593
X574.044 Y54.561
X572.378 Y54.516
X570.767 Y54.458
X569.209 Y54.388
X567.707 Y54.305
X566.258 Y54.209
X564.862 Y54.102
X563.52 Y53.982
X562.23 Y53.85
X560.994 Y53.707
X559.811 Y53.552
X558.68 Y53.386
X557.602 Y53.21
X556.577 Y53.023
X555.604 Y52.827
X554.685 Y52.622
X553.817 Y52.408
X553.003 Y52.187
X552.24 Y51.959
X551.53 Y51.725
X550.87 Y51.487
X550.258 Y51.244
X549.693 Y50.998
X549.173 Y50.75
X548.699 Y50.502
X548.269 Y50.255
X547.88 Y50.01
X547.528 Y49.768
X547.211 Y49.528
X546.928 Y49.293
X546.677 Y49.063
X546.448 Y48.832
X546.244 Y48.605
X546.065 Y48.384
X545.9 Y48.157
X545.748 Y47.925
X545.608 Y47.685
X545.479 Y47.437
X545.363 Y47.184
X545.251 Y46.906
X545.144 Y46.603
X545.05 Y46.294
X544.964 Y45.965
X544.887 Y45.613
X544.821 Y45.244
X544.766 Y44.858
X544.722 Y44.454
X544.694 Y44.072
X544.664 Y43.116
X544.688 Y42.145
X544.762 Y41.108
X544.887 Y40.017
X545.059 Y38.886
X545.278 Y37.724
X545.538 Y36.548
X545.841 Y35.364
X546.185 Y34.174
X546.567 Y32.989
X546.985 Y31.81
X547.436 Y30.648
X547.919 Y29.507
X548.43 Y28.394
X548.964 Y27.318
X549.524 Y26.279
X550.109 Y25.272
X550.716 Y24.302
X551.347 Y23.365
X551.997 Y22.463
X552.667 Y21.596
X553.354 Y20.764
X554.061 Y19.963
X554.796 Y19.179
X555.555 Y18.41
X557.234 Y16.793
X558.98 Y15.158
G2 X559.034 Y15.106 I-4.341 J-4.635
G1 X560.792 Y13.421
G2 X560.927 Y13.287 I-4.396 J-4.583
G1 X561.786 Y12.412
G2 X561.927 Y12.264 I-4.531 J-4.448
G1 X562.766 Y11.352
G2 X562.928 Y11.17 I-4.672 J-4.3
G1 X563.745 Y10.211
G2 X563.932 Y9.981 I-4.834 J-4.118
G1 X564.72 Y8.963
G2 X564.859 Y8.776 I-5.021 J-3.888
G1 X565.242 Y8.241
G2 X565.342 Y8.099 I-5.161 J-3.7
G1 X565.716 Y7.546
G2 X565.812 Y7.4 I-5.26 J-3.558
G1 X566.177 Y6.827
G2 X566.269 Y6.677 I-5.356 J-3.411
G1 X566.625 Y6.083
G2 X566.72 Y5.918 I-5.448 J-3.262
G1 X567.065 Y5.301
G2 X567.151 Y5.142 I-5.543 J-3.097
G1 X567.486 Y4.5
G2 X567.573 Y4.328 I-5.629 J-2.939
G1 X567.896 Y3.661
G2 X567.972 Y3.497 I-5.716 J-2.767
G1 X568.284 Y2.803
G2 X562.492 Y-6.15 I-5.792 J-2.603
G1 X14.017
G2 X8.879 Y3.932 J6.35
G1 X139.367 Y183.532
G2 X144.504 Y186.15 I5.137 J-3.732
G1 X579.363
X704.656
X829.949 Z41 F400.3
X1014.22 F849.6
G2 X1019.357 Y183.532 J-6.35
G1 X1149.847 Y3.932
G2 X1144.71 Y-6.15 I-5.137 J-3.732
G1 X596.234
G2 X590.439 Y2.796 J6.35
G1 X590.75 Y3.49
G2 X590.833 Y3.668 I5.795 J-2.596
G1 X591.157 Y4.335
G2 X591.236 Y4.494 I5.712 J-2.773
G1 X591.57 Y5.135
G2 X591.664 Y5.308 I5.633 J-2.932
G1 X592.01 Y5.925
G2 X592.097 Y6.076 I5.539 J-3.104
G1 X592.452 Y6.671
G2 X592.548 Y6.827 I5.452 J-3.255
G1 X592.913 Y7.4
G2 X593.009 Y7.546 I5.356 J-3.411
G1 X593.383 Y8.099
G2 X593.482 Y8.241 I5.26 J-3.558
G1 X593.865 Y8.776
G2 X594.008 Y8.966 I5.161 J-3.7
G1 X594.797 Y9.984
G2 X594.979 Y10.208 I5.018 J-3.891
G1 X595.795 Y11.167
G2 X595.961 Y11.355 I4.836 J-4.115
G1 X596.801 Y12.267
G2 X596.937 Y12.409 I4.67 J-4.303
G1 X597.795 Y13.284
G2 X597.934 Y13.421 I4.534 J-4.446
G1 X599.69 Y15.106
G2 X599.746 Y15.159 I4.396 J-4.583
G1 X601.493 Y16.794
X603.17 Y18.409
X603.927 Y19.178
X604.666 Y19.965
X605.373 Y20.766
X606.058 Y21.595
X606.728 Y22.463
X607.379 Y23.365
X608.009 Y24.302
X608.618 Y25.274
X609.201 Y26.277
X609.76 Y27.317
X610.296 Y28.395
X610.807 Y29.507
X611.289 Y30.648
X611.741 Y31.81
X612.158 Y32.987
X612.541 Y34.176
X612.884 Y35.364
X613.187 Y36.548
X613.448 Y37.724
X613.666 Y38.884
X613.839 Y40.019
X613.964 Y41.11
X614.038 Y42.145
X614.062 Y43.116
X614.032 Y44.072
X614.004 Y44.449
X613.959 Y44.858
X613.905 Y45.244
X613.838 Y45.613
X613.762 Y45.965
X613.676 Y46.294
X613.58 Y46.608
X613.477 Y46.901
X613.364 Y47.18
X613.244 Y47.441
X613.116 Y47.689
X612.978 Y47.925
X612.828 Y48.154
X612.663 Y48.381
X612.478 Y48.608
X612.275 Y48.835
X612.052 Y49.06
X611.797 Y49.293
X611.513 Y49.53
X611.2 Y49.766
X610.847 Y50.009
X610.456 Y50.255
X610.026 Y50.502
X609.552 Y50.75
X609.032 Y50.998
X608.467 Y51.244
X607.855 Y51.487
X607.194 Y51.726
X606.484 Y51.959
X605.723 Y52.187
X604.909 Y52.408
X604.042 Y52.622
X603.121 Y52.827
X602.149 Y53.023
X601.124 Y53.21
X600.046 Y53.386
X598.915 Y53.552
X597.732 Y53.707
X596.495 Y53.85
X595.206 Y53.982
X593.864 Y54.102
X592.468 Y54.209
X591.018 Y54.305
X589.515 Y54.388
X587.959 Y54.458
X586.347 Y54.516
X584.681 Y54.561
X582.963 Y54.593
X581.189 Y54.613
X579.363 Y54.619
X577.536 Y54.613
X575.763 Y54.593
X574.044 Y54.561
X572.378 Y54.516
X570.767 Y54.458
X569.209 Y54.388
X567.707 Y54.305
X566.258 Y54.209
X564.862 Y54.102
X563.52 Y53.982
X562.23 Y53.85
X560.994 Y53.707
X559.811 Y53.552
X558.68 Y53.386
X557.602 Y53.21
X556.577 Y53.023
X555.604 Y52.827
X554.685 Y52.622
X553.817 Y52.408
X553.003 Y52.187
X552.24 Y51.959
X551.53 Y51.725
X550.87 Y51.487
X550.258 Y51.244
X549.693 Y50.998
X549.173 Y50.75
X548.699 Y50.502
X548.269 Y50.255
X547.88 Y50.01
X547.528 Y49.768
X547.211 Y49.528
X546.928 Y49.293
X546.677 Y49.063
X546.448 Y48.832
X546.244 Y48.605
X546.065 Y48.384
X545.9 Y48.157
X545.748 Y47.925
X545.608 Y47.685
X545.479 Y47.437
X545.363 Y47.184
X545.251 Y46.906
X545.144 Y46.603
X545.05 Y46.294
X544.964 Y45.965
X544.887 Y45.613
X544.821 Y45.244
X544.766 Y44.858
X544.722 Y44.454
X544.694 Y44.072
X544.664 Y43.116
X544.688 Y42.145
X544.762 Y41.108
X544.887 Y40.017
X545.059 Y38.886
X545.278 Y37.724
X545.538 Y36.548
X545.841 Y35.364
X546.185 Y34.174
X546.567 Y32.989
X546.985 Y31.81
X547.436 Y30.648
X547.919 Y29.507
X548.43 Y28.394
X548.964 Y27.318
X549.524 Y26.279
X550.109 Y25.272
X550.716 Y24.302
X551.347 Y23.365
X551.997 Y22.463
X552.667 Y21.596
X553.354 Y20.764
X554.061 Y19.963
X554.796 Y19.179
X555.555 Y18.41
X557.234 Y16.793
X558.98 Y15.158
G2 X559.034 Y15.106 I-4.341 J-4.635
G1 X560.792 Y13.421
G2 X560.927 Y13.287 I-4.396 J-4.583
G1 X561.786 Y12.412
G2 X561.927 Y12.264 I-4.531 J-4.448
G1 X562.766 Y11.352
G2 X562.928 Y11.17 I-4.672 J-4.3
G1 X563.745 Y10.211
G2 X563.932 Y9.981 I-4.834 J-4.118
G1 X564.72 Y8.963
G2 X564.859 Y8.776 I-5.021 J-3.888
G1 X565.242 Y8.241
G2 X565.342 Y8.099 I-5.161 J-3.7
G1 X565.716 Y7.546
G2 X565.812 Y7.4 I-5.26 J-3.558
G1 X566.177 Y6.827
G2 X566.269 Y6.677 I-5.356 J-3.411
G1 X566.625 Y6.083
G2 X566.72 Y5.918 I-5.448 J-3.262
G1 X567.065 Y5.301
G2 X567.151 Y5.142 I-5.543 J-3.097
G1 X567.486 Y4.5
G2 X567.573 Y4.328 I-5.629 J-2.939
G1 X567.896 Y3.661
G2 X567.972 Y3.497 I-5.716 J-2.767
G1 X568.284 Y2.803
G2 X562.492 Y-6.15 I-5.792 J-2.603
G1 X14.017
G2 X8.879 Y3.932 J6.35
G1 X139.367 Y183.532
G2 X144.504 Y186.15 I5.137 J-3.732
G1 X704.656
X829.949
X955.242 Z38 F400.3
X1014.22 F849.6
G2 X1019.357 Y183.532 J-6.35
G1 X1149.847 Y3.932
G2 X1144.71 Y-6.15 I-5.137 J-3.732
G1 X596.234
G2 X590.439 Y2.796 J6.35
G1 X590.75 Y3.49
G2 X590.833 Y3.668 I5.795 J-2.596
G1 X591.157 Y4.335
G2 X591.236 Y4.494 I5.712 J-2.773
G1 X591.57 Y5.135
G2 X591.664 Y5.308 I5.633 J-2.932
G1 X592.01 Y5.925
G2 X592.097 Y6.076 I5.539 J-3.104
G1 X592.452 Y6.671
G2 X592.548 Y6.827 I5.452 J-3.255
G1 X592.913 Y7.4
G2 X593.009 Y7.546 I5.356 J-3.411
G1 X593.383 Y8.099
G2 X593.482 Y8.241 I5.26 J-3.558
G1 X593.865 Y8.776
G2 X594.008 Y8.966 I5.161 J-3.7
G1 X594.797 Y9.984
G2 X594.979 Y10.208 I5.018 J-3.891
G1 X595.795 Y11.167
G2 X595.961 Y11.355 I4.836 J-4.115
G1 X596.801 Y12.267
G2 X596.937 Y12.409 I4.67 J-4.303
G1 X597.795 Y13.284
G2 X597.934 Y13.421 I4.534 J-4.446
G1 X599.69 Y15.106
G2 X599.746 Y15.159 I4.396 J-4.583
G1 X601.493 Y16.794
X603.17 Y18.409
X603.927 Y19.178
X604.666 Y19.965
X605.373 Y20.766
X606.058 Y21.595
X606.728 Y22.463
X607.379 Y23.365
X608.009 Y24.302
X608.618 Y25.274
X609.201 Y26.277
X609.76 Y27.317
X610.296 Y28.395
X610.807 Y29.507
X611.289 Y30.648
X611.741 Y31.81
X612.158 Y32.987
X612.541 Y34.176
X612.884 Y35.364
X613.187 Y36.548
X613.448 Y37.724
X613.666 Y38.884
X613.839 Y40.019
X613.964 Y41.11
X614.038 Y42.145
X614.062 Y43.116
X614.032 Y44.072
X614.004 Y44.449
X613.959 Y44.858
X613.905 Y45.244
X613.838 Y45.613
X613.762 Y45.965
X613.676 Y46.294
X613.58 Y46.608
X613.477 Y46.901
X613.364 Y47.18
X613.244 Y47.441
X613.116 Y47.689
X612.978 Y47.925
X612.828 Y48.154
X612.663 Y48.381
X612.478 Y48.608
X612.275 Y48.835
X612.052 Y49.06
X611.797 Y49.293
X611.513 Y49.53
X611.2 Y49.766
X610.847 Y50.009
X610.456 Y50.255
X610.026 Y50.502
X609.552 Y50.75
X609.032 Y50.998
X608.467 Y51.244
X607.855 Y51.487
X607.194 Y51.726
X606.484 Y51.959
X605.723 Y52.187
X604.909 Y52.408
X604.042 Y52.622
X603.121 Y52.827
X602.149 Y53.023
X601.124 Y53.21
X600.046 Y53.386
X598.915 Y53.552
X597.732 Y53.707
X596.495 Y53.85
X595.206 Y53.982
X593.864 Y54.102
X592.468 Y54.209
X591.018 Y54.305
X589.515 Y54.388
X587.959 Y54.458
X586.347 Y54.516
X584.681 Y54.561
X582.963 Y54.593
X581.189 Y54.613
X579.363 Y54.619
X577.536 Y54.613
X575.763 Y54.593
X574.044 Y54.561
X572.378 Y54.516
X570.767 Y54.458
X569.209 Y54.388
X567.707 Y54.305
X566.258 Y54.209
X564.862 Y54.102
X563.52 Y53.982
X562.23 Y53.85
X560.994 Y53.707
X559.811 Y53.552
X558.68 Y53.386
X557.602 Y53.21
X556.577 Y53.023
X555.604 Y52.827
X554.685 Y52.622
X553.817 Y52.408
X553.003 Y52.187
X552.24 Y51.959
X551.53 Y51.725
X550.87 Y51.487
X550.258 Y51.244
X549.693 Y50.998
X549.173 Y50.75
X548.699 Y50.502
X548.269 Y50.255
X547.88 Y50.01
X547.528 Y49.768
X547.211 Y49.528
X546.928 Y49.293
X546.677 Y49.063
X546.448 Y48.832
X546.244 Y48.605
X546.065 Y48.384
X545.9 Y48.157
X545.748 Y47.925
X545.608 Y47.685
X545.479 Y47.437
X545.363 Y47.184
X545.251 Y46.906
X545.144 Y46.603
X545.05 Y46.294
X544.964 Y45.965
X544.887 Y45.613
X544.821 Y45.244
X544.766 Y44.858
X544.722 Y44.454
X544.694 Y44.072
X544.664 Y43.116
X544.688 Y42.145
X544.762 Y41.108
X544.887 Y40.017
X545.059 Y38.886
X545.278 Y37.724
X545.538 Y36.548
X545.841 Y35.364
X546.185 Y34.174
X546.567 Y32.989
X546.985 Y31.81
X547.436 Y30.648
X547.919 Y29.507
X548.43 Y28.394
X548.964 Y27.318
X549.524 Y26.279
X550.109 Y25.272
X550.716 Y24.302
X551.347 Y23.365
X551.997 Y22.463
X552.667 Y21.596
X553.354 Y20.764
X554.061 Y19.963
X554.796 Y19.179
X555.555 Y18.41
X557.234 Y16.793
X558.98 Y15.158
G2 X559.034 Y15.106 I-4.341 J-4.635
G1 X560.792 Y13.421
G2 X560.927 Y13.287 I-4.396 J-4.583
G1 X561.786 Y12.412
G2 X561.927 Y12.264 I-4.531 J-4.448
G1 X562.766 Y11.352
G2 X562.928 Y11.17 I-4.672 J-4.3
G1 X563.745 Y10.211
G2 X563.932 Y9.981 I-4.834 J-4.118
G1 X564.72 Y8.963
G2 X564.859 Y8.776 I-5.021 J-3.888
G1 X565.242 Y8.241
G2 X565.342 Y8.099 I-5.161 J-3.7
G1 X565.716 Y7.546
G2 X565.812 Y7.4 I-5.26 J-3.558
G1 X566.177 Y6.827
G2 X566.269 Y6.677 I-5.356 J-3.411
G1 X566.625 Y6.083
G2 X566.72 Y5.918 I-5.448 J-3.262
G1 X567.065 Y5.301
G2 X567.151 Y5.142 I-5.543 J-3.097
G1 X567.486 Y4.5
G2 X567.573 Y4.328 I-5.629 J-2.939
G1 X567.896 Y3.661
G2 X567.972 Y3.497 I-5.716 J-2.767
G1 X568.284 Y2.803
G2 X562.492 Y-6.15 I-5.792 J-2.603
G1 X14.017
G2 X8.879 Y3.932 J6.35
G1 X139.367 Y183.532
G2 X144.504 Y186.15 I5.137 J-3.732
G1 X829.949
X955.242
X1014.22 Z36.588 F400.3
G2 X1019.357 Y183.532 Z36.445 J-6.35
G1 X1054.819 Y134.725 Z35
X1149.847 Y3.932 F849.6
G2 X1144.71 Y-6.15 I-5.137 J-3.732
G1 X596.234
G2 X590.439 Y2.796 J6.35
G1 X590.75 Y3.49
G2 X590.833 Y3.668 I5.795 J-2.596
G1 X591.157 Y4.335
G2 X591.236 Y4.494 I5.712 J-2.773
G1 X591.57 Y5.135
G2 X591.664 Y5.308 I5.633 J-2.932
G1 X592.01 Y5.925
G2 X592.097 Y6.076 I5.539 J-3.104
G1 X592.452 Y6.671
G2 X592.548 Y6.827 I5.452 J-3.255
G1 X592.913 Y7.4
G2 X593.009 Y7.546 I5.356 J-3.411
G1 X593.383 Y8.099
G2 X593.482 Y8.241 I5.26 J-3.558
G1 X593.865 Y8.776
G2 X594.008 Y8.966 I5.161 J-3.7
G1 X594.797 Y9.984
G2 X594.979 Y10.208 I5.018 J-3.891
G1 X595.795 Y11.167
G2 X595.961 Y11.355 I4.836 J-4.115
G1 X596.801 Y12.267
G2 X596.937 Y12.409 I4.67 J-4.303
G1 X597.795 Y13.284
G2 X597.934 Y13.421 I4.534 J-4.446
G1 X599.69 Y15.106
G2 X599.746 Y15.159 I4.396 J-4.583
G1 X601.493 Y16.794
X603.17 Y18.409
X603.927 Y19.178
X604.666 Y19.965
X605.373 Y20.766
X606.058 Y21.595
X606.728 Y22.463
X607.379 Y23.365
X608.009 Y24.302
X608.618 Y25.274
X609.201 Y26.277
X609.76 Y27.317
X610.296 Y28.395
X610.807 Y29.507
X611.289 Y30.648
X611.741 Y31.81
X612.158 Y32.987
X612.541 Y34.176
X612.884 Y35.364
X613.187 Y36.548
X613.448 Y37.724
X613.666 Y38.884
X613.839 Y40.019
X613.964 Y41.11
X614.038 Y42.145
X614.062 Y43.116
X614.032 Y44.072
X614.004 Y44.449
X613.959 Y44.858
X613.905 Y45.244
X613.838 Y45.613
X613.762 Y45.965
X613.676 Y46.294
X613.58 Y46.608
X613.477 Y46.901
X613.364 Y47.18
X613.244 Y47.441
X613.116 Y47.689
X612.978 Y47.925
X612.828 Y48.154
X612.663 Y48.381
X612.478 Y48.608
X612.275 Y48.835
X612.052 Y49.06
X611.797 Y49.293
X611.513 Y49.53
X611.2 Y49.766
X610.847 Y50.009
X610.456 Y50.255
X610.026 Y50.502
X609.552 Y50.75
X609.032 Y50.998
X608.467 Y51.244
X607.855 Y51.487
X607.194 Y51.726
X606.484 Y51.959
X605.723 Y52.187
X604.909 Y52.408
X604.042 Y52.622
X603.121 Y52.827
X602.149 Y53.023
X601.124 Y53.21
X600.046 Y53.386
X598.915 Y53.552
X597.732 Y53.707
X596.495 Y53.85
X595.206 Y53.982
X593.864 Y54.102
X592.468 Y54.209
X591.018 Y54.305
X589.515 Y54.388
X587.959 Y54.458
X586.347 Y54.516
X584.681 Y54.561
X582.963 Y54.593
X581.189 Y54.613
X579.363 Y54.619
X577.536 Y54.613
X575.763 Y54.593
X574.044 Y54.561
X572.378 Y54.516
X570.767 Y54.458
X569.209 Y54.388
X567.707 Y54.305
X566.258 Y54.209
X564.862 Y54.102
X563.52 Y53.982
X562.23 Y53.85
X560.994 Y53.707
X559.811 Y53.552
X558.68 Y53.386
X557.602 Y53.21
X556.577 Y53.023
X555.604 Y52.827
X554.685 Y52.622
X553.817 Y52.408
X553.003 Y52.187
X552.24 Y51.959
X551.53 Y51.725
X550.87 Y51.487
X550.258 Y51.244
X549.693 Y50.998
X549.173 Y50.75
X548.699 Y50.502
X548.269 Y50.255
X547.88 Y50.01
X547.528 Y49.768
X547.211 Y49.528
X546.928 Y49.293
X546.677 Y49.063
X546.448 Y48.832
X546.244 Y48.605
X546.065 Y48.384
X545.9 Y48.157
X545.748 Y47.925
X545.608 Y47.685
X545.479 Y47.437
X545.363 Y47.184
X545.251 Y46.906
X545.144 Y46.603
X545.05 Y46.294
X544.964 Y45.965
X544.887 Y45.613
X544.821 Y45.244
X544.766 Y44.858
X544.722 Y44.454
X544.694 Y44.072
X544.664 Y43.116
X544.688 Y42.145
X544.762 Y41.108
X544.887 Y40.017
X545.059 Y38.886
X545.278 Y37.724
X545.538 Y36.548
X545.841 Y35.364
X546.185 Y34.174
X546.567 Y32.989
X546.985 Y31.81
X547.436 Y30.648
X547.919 Y29.507
X548.43 Y28.394
X548.964 Y27.318
X549.524 Y26.279
X550.109 Y25.272
X550.716 Y24.302
X551.347 Y23.365
X551.997 Y22.463
X552.667 Y21.596
X553.354 Y20.764
X554.061 Y19.963
X554.796 Y19.179
X555.555 Y18.41
X557.234 Y16.793
X558.98 Y15.158
G2 X559.034 Y15.106 I-4.341 J-4.635
G1 X560.792 Y13.421
G2 X560.927 Y13.287 I-4.396 J-4.583
G1 X561.786 Y12.412
G2 X561.927 Y12.264 I-4.531 J-4.448
G1 X562.766 Y11.352
G2 X562.928 Y11.17 I-4.672 J-4.3
G1 X563.745 Y10.211
G2 X563.932 Y9.981 I-4.834 J-4.118
G1 X564.72 Y8.963
G2 X564.859 Y8.776 I-5.021 J-3.888
G1 X565.242 Y8.241
G2 X565.342 Y8.099 I-5.161 J-3.7
G1 X565.716 Y7.546
G2 X565.812 Y7.4 I-5.26 J-3.558
G1 X566.177 Y6.827
G2 X566.269 Y6.677 I-5.356 J-3.411
G1 X566.625 Y6.083
G2 X566.72 Y5.918 I-5.448 J-3.262
G1 X567.065 Y5.301
G2 X567.151 Y5.142 I-5.543 J-3.097
G1 X567.486 Y4.5
G2 X567.573 Y4.328 I-5.629 J-2.939
G1 X567.896 Y3.661
G2 X567.972 Y3.497 I-5.716 J-2.767
G1 X568.284 Y2.803
G2 X562.492 Y-6.15 I-5.792 J-2.603
G1 X14.017
G2 X8.879 Y3.932 J6.35
G1 X139.367 Y183.532
G2 X144.504 Y186.15 I5.137 J-3.732
G1 X955.242
X1014.22
G2 X1019.357 Y183.532 J-6.35
G1 X1054.819 Y134.725
X1128.465 Y33.362 Z32 F400.3
X1149.847 Y3.932 F849.6
G2 X1144.71 Y-6.15 I-5.137 J-3.732
G1 X596.234
G2 X590.439 Y2.796 J6.35
G1 X590.75 Y3.49
G2 X590.833 Y3.668 I5.795 J-2.596
G1 X591.157 Y4.335
G2 X591.236 Y4.494 I5.712 J-2.773
G1 X591.57 Y5.135
G2 X591.664 Y5.308 I5.633 J-2.932
G1 X592.01 Y5.925
G2 X592.097 Y6.076 I5.539 J-3.104
G1 X592.452 Y6.671
G2 X592.548 Y6.827 I5.452 J-3.255
G1 X592.913 Y7.4
G2 X593.009 Y7.546 I5.356 J-3.411
G1 X593.383 Y8.099
G2 X593.482 Y8.241 I5.26 J-3.558
G1 X593.865 Y8.776
G2 X594.008 Y8.966 I5.161 J-3.7
G1 X594.797 Y9.984
G2 X594.979 Y10.208 I5.018 J-3.891
G1 X595.795 Y11.167
G2 X595.961 Y11.355 I4.836 J-4.115
G1 X596.801 Y12.267
G2 X596.937 Y12.409 I4.67 J-4.303
G1 X597.795 Y13.284
G2 X597.934 Y13.421 I4.534 J-4.446
G1 X599.69 Y15.106
G2 X599.746 Y15.159 I4.396 J-4.583
G1 X601.493 Y16.794
X603.17 Y18.409
X603.927 Y19.178
X604.666 Y19.965
X605.373 Y20.766
X606.058 Y21.595
X606.728 Y22.463
X607.379 Y23.365
X608.009 Y24.302
X608.618 Y25.274
X609.201 Y26.277
X609.76 Y27.317
X610.296 Y28.395
X610.807 Y29.507
X611.289 Y30.648
X611.741 Y31.81
X612.158 Y32.987
X612.541 Y34.176
X612.884 Y35.364
X613.187 Y36.548
X613.448 Y37.724
X613.666 Y38.884
X613.839 Y40.019
X613.964 Y41.11
X614.038 Y42.145
X614.062 Y43.116
X614.032 Y44.072
X614.004 Y44.449
X613.959 Y44.858
X613.905 Y45.244
X613.838 Y45.613
X613.762 Y45.965
X613.676 Y46.294
X613.58 Y46.608
X613.477 Y46.901
X613.364 Y47.18
X613.244 Y47.441
X613.116 Y47.689
X612.978 Y47.925
X612.828 Y48.154
X612.663 Y48.381
X612.478 Y48.608
X612.275 Y48.835
X612.052 Y49.06
X611.797 Y49.293
X611.513 Y49.53
X611.2 Y49.766
X610.847 Y50.009
X610.456 Y50.255
X610.026 Y50.502
X609.552 Y50.75
X609.032 Y50.998
X608.467 Y51.244
X607.855 Y51.487
X607.194 Y51.726
X606.484 Y51.959
X605.723 Y52.187
X604.909 Y52.408
X604.042 Y52.622
X603.121 Y52.827
X602.149 Y53.023
X601.124 Y53.21
X600.046 Y53.386
X598.915 Y53.552
X597.732 Y53.707
X596.495 Y53.85
X595.206 Y53.982
X593.864 Y54.102
X592.468 Y54.209
X591.018 Y54.305
X589.515 Y54.388
X587.959 Y54.458
X586.347 Y54.516
X584.681 Y54.561
X582.963 Y54.593
X581.189 Y54.613
X579.363 Y54.619
X577.536 Y54.613
X575.763 Y54.593
X574.044 Y54.561
X572.378 Y54.516
X570.767 Y54.458
X569.209 Y54.388
X567.707 Y54.305
X566.258 Y54.209
X564.862 Y54.102
X563.52 Y53.982
X562.23 Y53.85
X560.994 Y53.707
X559.811 Y53.552
X558.68 Y53.386
X557.602 Y53.21
X556.577 Y53.023
X555.604 Y52.827
X554.685 Y52.622
X553.817 Y52.408
X553.003 Y52.187
X552.24 Y51.959
X551.53 Y51.725
X550.87 Y51.487
X550.258 Y51.244
X549.693 Y50.998
X549.173 Y50.75
X548.699 Y50.502
X548.269 Y50.255
X547.88 Y50.01
X547.528 Y49.768
X547.211 Y49.528
X546.928 Y49.293
X546.677 Y49.063
X546.448 Y48.832
X546.244 Y48.605
X546.065 Y48.384
X545.9 Y48.157
X545.748 Y47.925
X545.608 Y47.685
X545.479 Y47.437
X545.363 Y47.184
X545.251 Y46.906
X545.144 Y46.603
X545.05 Y46.294
X544.964 Y45.965
X544.887 Y45.613
X544.821 Y45.244
X544.766 Y44.858
X544.722 Y44.454
X544.694 Y44.072
X544.664 Y43.116
X544.688 Y42.145
X544.762 Y41.108
X544.887 Y40.017
X545.059 Y38.886
X545.278 Y37.724
X545.538 Y36.548
X545.841 Y35.364
X546.185 Y34.174
X546.567 Y32.989
X546.985 Y31.81
X547.436 Y30.648
X547.919 Y29.507
X548.43 Y28.394
X548.964 Y27.318
X549.524 Y26.279
X550.109 Y25.272
X550.716 Y24.302
X551.347 Y23.365
X551.997 Y22.463
X552.667 Y21.596
X553.354 Y20.764
X554.061 Y19.963
X554.796 Y19.179
X555.555 Y18.41
X557.234 Y16.793
X558.98 Y15.158
G2 X559.034 Y15.106 I-4.341 J-4.635
G1 X560.792 Y13.421
G2 X560.927 Y13.287 I-4.396 J-4.583
G1 X561.786 Y12.412
G2 X561.927 Y12.264 I-4.531 J-4.448
G1 X562.766 Y11.352
G2 X562.928 Y11.17 I-4.672 J-4.3
G1 X563.745 Y10.211
G2 X563.932 Y9.981 I-4.834 J-4.118
G1 X564.72 Y8.963
G2 X564.859 Y8.776 I-5.021 J-3.888
G1 X565.242 Y8.241
G2 X565.342 Y8.099 I-5.161 J-3.7
G1 X565.716 Y7.546
G2 X565.812 Y7.4 I-5.26 J-3.558
G1 X566.177 Y6.827
G2 X566.269 Y6.677 I-5.356 J-3.411
G1 X566.625 Y6.083
G2 X566.72 Y5.918 I-5.448 J-3.262
G1 X567.065 Y5.301
G2 X567.151 Y5.142 I-5.543 J-3.097
G1 X567.486 Y4.5
G2 X567.573 Y4.328 I-5.629 J-2.939
G1 X567.896 Y3.661
G2 X567.972 Y3.497 I-5.716 J-2.767
G1 X568.284 Y2.803
G2 X562.492 Y-6.15 I-5.792 J-2.603
G1 X14.017
G2 X8.879 Y3.932 J6.35
G1 X139.367 Y183.532
G2 X144.504 Y186.15 I5.137 J-3.732
G1 X1014.22
G2 X1019.357 Y183.532 J-6.35
G1 X1128.465 Y33.362
X1149.847 Y3.932 Z31.129 F400.3
G2 X1144.71 Y-6.15 Z30.795 I-5.137 J-3.732
G1 X1069.758 Z29
X596.234 F849.6
G2 X590.439 Y2.796 J6.35
G1 X590.75 Y3.49
G2 X590.833 Y3.668 I5.795 J-2.596
G1 X591.157 Y4.335
G2 X591.236 Y4.494 I5.712 J-2.773
G1 X591.57 Y5.135
G2 X591.664 Y5.308 I5.633 J-2.932
G1 X592.01 Y5.925
G2 X592.097 Y6.076 I5.539 J-3.104
G1 X592.452 Y6.671
G2 X592.548 Y6.827 I5.452 J-3.255
G1 X592.913 Y7.4
G2 X593.009 Y7.546 I5.356 J-3.411
G1 X593.383 Y8.099
G2 X593.482 Y8.241 I5.26 J-3.558
G1 X593.865 Y8.776
G2 X594.008 Y8.966 I5.161 J-3.7
G1 X594.797 Y9.984
G2 X594.979 Y10.208 I5.018 J-3.891
G1 X595.795 Y11.167
G2 X595.961 Y11.355 I4.836 J-4.115
G1 X596.801 Y12.267
G2 X596.937 Y12.409 I4.67 J-4.303
G1 X597.795 Y13.284
G2 X597.934 Y13.421 I4.534 J-4.446
G1 X599.69 Y15.106
G2 X599.746 Y15.159 I4.396 J-4.583
G1 X601.493 Y16.794
X603.17 Y18.409
X603.927 Y19.178
X604.666 Y19.965
X605.373 Y20.766
X606.058 Y21.595
X606.728 Y22.463
X607.379 Y23.365
X608.009 Y24.302
X608.618 Y25.274
X609.201 Y26.277
X609.76 Y27.317
X610.296 Y28.395
X610.807 Y29.507
X611.289 Y30.648
X611.741 Y31.81
X612.158 Y32.987
X612.541 Y34.176
X612.884 Y35.364
X613.187 Y36.548
X613.448 Y37.724
X613.666 Y38.884
X613.839 Y40.019
X613.964 Y41.11
X614.038 Y42.145
X614.062 Y43.116
X614.032 Y44.072
X614.004 Y44.449
X613.959 Y44.858
X613.905 Y45.244
X613.838 Y45.613
X613.762 Y45.965
X613.676 Y46.294
X613.58 Y46.608
X613.477 Y46.901
X613.364 Y47.18
X613.244 Y47.441
X613.116 Y47.689
X612.978 Y47.925
X612.828 Y48.154
X612.663 Y48.381
X612.478 Y48.608
X612.275 Y48.835
X612.052 Y49.06
X611.797 Y49.293
X611.513 Y49.53
X611.2 Y49.766
X610.847 Y50.009
X610.456 Y50.255
X610.026 Y50.502
X609.552 Y50.75
X609.032 Y50.998
X608.467 Y51.244
X607.855 Y51.487
X607.194 Y51.726
X606.484 Y51.959
X605.723 Y52.187
X604.909 Y52.408
X604.042 Y52.622
X603.121 Y52.827
X602.149 Y53.023
X601.124 Y53.21
X600.046 Y53.386
X598.915 Y53.552
X597.732 Y53.707
X596.495 Y53.85
X595.206 Y53.982
X593.864 Y54.102
X592.468 Y54.209
X591.018 Y54.305
X589.515 Y54.388
X587.959 Y54.458
X586.347 Y54.516
X584.681 Y54.561
X582.963 Y54.593
X581.189 Y54.613
X579.363 Y54.619
X577.536 Y54.613
X575.763 Y54.593
X574.044 Y54.561
X572.378 Y54.516
X570.767 Y54.458
X569.209 Y54.388
X567.707 Y54.305
X566.258 Y54.209
X564.862 Y54.102
X563.52 Y53.982
X562.23 Y53.85
X560.994 Y53.707
X559.811 Y53.552
X558.68 Y53.386
X557.602 Y53.21
X556.577 Y53.023
X555.604 Y52.827
X554.685 Y52.622
X553.817 Y52.408
X553.003 Y52.187
X552.24 Y51.959
X551.53 Y51.725
X550.87 Y51.487
X550.258 Y51.244
X549.693 Y50.998
X549.173 Y50.75
X548.699 Y50.502
X548.269 Y50.255
X547.88 Y50.01
X547.528 Y49.768
X547.211 Y49.528
X546.928 Y49.293
X546.677 Y49.063
X546.448 Y48.832
X546.244 Y48.605
X546.065 Y48.384
X545.9 Y48.157
X545.748 Y47.925
X545.608 Y47.685
X545.479 Y47.437
X545.363 Y47.184
X545.251 Y46.906
X545.144 Y46.603
X545.05 Y46.294
X544.964 Y45.965
X544.887 Y45.613
X544.821 Y45.244
X544.766 Y44.858
X544.722 Y44.454
X544.694 Y44.072
X544.664 Y43.116
X544.688 Y42.145
X544.762 Y41.108
X544.887 Y40.017
X545.059 Y38.886
X545.278 Y37.724
X545.538 Y36.548
X545.841 Y35.364
X546.185 Y34.174
X546.567 Y32.989
X546.985 Y31.81
X547.436 Y30.648
X547.919 Y29.507
X548.43 Y28.394
X548.964 Y27.318
X549.524 Y26.279
X550.109 Y25.272
X550.716 Y24.302
X551.347 Y23.365
X551.997 Y22.463
X552.667 Y21.596
X553.354 Y20.764
X554.061 Y19.963
X554.796 Y19.179
X555.555 Y18.41
X557.234 Y16.793
X558.98 Y15.158
G2 X559.034 Y15.106 I-4.341 J-4.635
G1 X560.792 Y13.421
G2 X560.927 Y13.287 I-4.396 J-4.583
G1 X561.786 Y12.412
G2 X561.927 Y12.264 I-4.531 J-4.448
G1 X562.766 Y11.352
G2 X562.928 Y11.17 I-4.672 J-4.3
G1 X563.745 Y10.211
G2 X563.932 Y9.981 I-4.834 J-4.118
G1 X564.72 Y8.963
G2 X564.859 Y8.776 I-5.021 J-3.888
G1 X565.242 Y8.241
G2 X565.342 Y8.099 I-5.161 J-3.7
G1 X565.716 Y7.546
G2 X565.812 Y7.4 I-5.26 J-3.558
G1 X566.177 Y6.827
G2 X566.269 Y6.677 I-5.356 J-3.411
G1 X566.625 Y6.083
G2 X566.72 Y5.918 I-5.448 J-3.262
G1 X567.065 Y5.301
G2 X567.151 Y5.142 I-5.543 J-3.097
G1 X567.486 Y4.5
G2 X567.573 Y4.328 I-5.629 J-2.939
G1 X567.896 Y3.661
G2 X567.972 Y3.497 I-5.716 J-2.767
G1 X568.284 Y2.803
G2 X562.492 Y-6.15 I-5.792 J-2.603
G1 X14.017
G2 X8.879 Y3.932 J6.35
G1 X139.367 Y183.532
G2 X144.504 Y186.15 I5.137 J-3.732
G1 X1014.22
G2 X1019.357 Y183.532 J-6.35
G1 X1128.465 Y33.362
X1149.847 Y3.932
G2 X1144.71 Y-6.15 I-5.137 J-3.732
G1 X1069.758
X944.465 Z26 F400.3
X596.234 F849.6
G2 X590.439 Y2.796 J6.35
G1 X590.75 Y3.49
G2 X590.833 Y3.668 I5.795 J-2.596
G1 X591.157 Y4.335
G2 X591.236 Y4.494 I5.712 J-2.773
G1 X591.57 Y5.135
G2 X591.664 Y5.308 I5.633 J-2.932
G1 X592.01 Y5.925
G2 X592.097 Y6.076 I5.539 J-3.104
G1 X592.452 Y6.671
G2 X592.548 Y6.827 I5.452 J-3.255
G1 X592.913 Y7.4
G2 X593.009 Y7.546 I5.356 J-3.411
G1 X593.383 Y8.099
G2 X593.482 Y8.241 I5.26 J-3.558
G1 X593.865 Y8.776
G2 X594.008 Y8.966 I5.161 J-3.7
G1 X594.797 Y9.984
G2 X594.979 Y10.208 I5.018 J-3.891
G1 X595.795 Y11.167
G2 X595.961 Y11.355 I4.836 J-4.115
G1 X596.801 Y12.267
G2 X596.937 Y12.409 I4.67 J-4.303
G1 X597.795 Y13.284
G2 X597.934 Y13.421 I4.534 J-4.446
G1 X599.69 Y15.106
G2 X599.746 Y15.159 I4.396 J-4.583
G1 X601.493 Y16.794
X603.17 Y18.409
X603.927 Y19.178
X604.666 Y19.965
X605.373 Y20.766
X606.058 Y21.595
X606.728 Y22.463
X607.379 Y23.365
X608.009 Y24.302
X608.618 Y25.274
X609.201 Y26.277
X609.76 Y27.317
X610.296 Y28.395
X610.807 Y29.507
X611.289 Y30.648
X611.741 Y31.81
X612.158 Y32.987
X612.541 Y34.176
X612.884 Y35.364
X613.187 Y36.548
X613.448 Y37.724
X613.666 Y38.884
X613.839 Y40.019
X613.964 Y41.11
X614.038 Y42.145
X614.062 Y43.116
X614.032 Y44.072
X614.004 Y44.449
X613.959 Y44.858
X613.905 Y45.244
X613.838 Y45.613
X613.762 Y45.965
X613.676 Y46.294
X613.58 Y46.608
X613.477 Y46.901
X613.364 Y47.18
X613.244 Y47.441
X613.116 Y47.689
X612.978 Y47.925
X612.828 Y48.154
X612.663 Y48.381
X612.478 Y48.608
X612.275 Y48.835
X612.052 Y49.06
X611.797 Y49.293
X611.513 Y49.53
X611.2 Y49.766
X610.847 Y50.009
X610.456 Y50.255
X610.026 Y50.502
X609.552 Y50.75
X609.032 Y50.998
X608.467 Y51.244
X607.855 Y51.487
X607.194 Y51.726
X606.484 Y51.959
X605.723 Y52.187
X604.909 Y52.408
X604.042 Y52.622
X603.121 Y52.827
X602.149 Y53.023
X601.124 Y53.21
X600.046 Y53.386
X598.915 Y53.552
X597.732 Y53.707
X596.495 Y53.85
X595.206 Y53.982
X593.864 Y54.102
X592.468 Y54.209
X591.018 Y54.305
X589.515 Y54.388
X587.959 Y54.458
X586.347 Y54.516
X584.681 Y54.561
X582.963 Y54.593
X581.189 Y54.613
X579.363 Y54.619
X577.536 Y54.613
X575.763 Y54.593
X574.044 Y54.561
X572.378 Y54.516
X570.767 Y54.458
X569.209 Y54.388
X567.707 Y54.305
X566.258 Y54.209
X564.862 Y54.102
X563.52 Y53.982
X562.23 Y53.85
X560.994 Y53.707
X559.811 Y53.552
X558.68 Y53.386
X557.602 Y53.21
X556.577 Y53.023
X555.604 Y52.827
X554.685 Y52.622
X553.817 Y52.408
X553.003 Y52.187
X552.24 Y51.959
X551.53 Y51.725
X550.87 Y51.487
X550.258 Y51.244
X549.693 Y50.998
X549.173 Y50.75
X548.699 Y50.502
X548.269 Y50.255
X547.88 Y50.01
X547.528 Y49.768
X547.211 Y49.528
X546.928 Y49.293
X546.677 Y49.063
X546.448 Y48.832
X546.244 Y48.605
X546.065 Y48.384
X545.9 Y48.157
X545.748 Y47.925
X545.608 Y47.685
X545.479 Y47.437
X545.363 Y47.184
X545.251 Y46.906
X545.144 Y46.603
X545.05 Y46.294
X544.964 Y45.965
X544.887 Y45.613
X544.821 Y45.244
X544.766 Y44.858
X544.722 Y44.454
X544.694 Y44.072
X544.664 Y43.116
X544.688 Y42.145
X544.762 Y41.108
X544.887 Y40.017
X545.059 Y38.886
X545.278 Y37.724
X545.538 Y36.548
X545.841 Y35.364
X546.185 Y34.174
X546.567 Y32.989
X546.985 Y31.81
X547.436 Y30.648
X547.919 Y29.507
X548.43 Y28.394
X548.964 Y27.318
X549.524 Y26.279
X550.109 Y25.272
X550.716 Y24.302
X551.347 Y23.365
X551.997 Y22.463
X552.667 Y21.596
X553.354 Y20.764
X554.061 Y19.963
X554.796 Y19.179
X555.555 Y18.41
X557.234 Y16.793
X558.98 Y15.158
G2 X559.034 Y15.106 I-4.341 J-4.635
G1 X560.792 Y13.421
G2 X560.927 Y13.287 I-4.396 J-4.583
G1 X561.786 Y12.412
G2 X561.927 Y12.264 I-4.531 J-4.448
G1 X562.766 Y11.352
G2 X562.928 Y11.17 I-4.672 J-4.3
G1 X563.745 Y10.211
G2 X563.932 Y9.981 I-4.834 J-4.118
G1 X564.72 Y8.963
G2 X564.859 Y8.776 I-5.021 J-3.888
G1 X565.242 Y8.241
G2 X565.342 Y8.099 I-5.161 J-3.7
G1 X565.716 Y7.546
G2 X565.812 Y7.4 I-5.26 J-3.558
G1 X566.177 Y6.827
G2 X566.269 Y6.677 I-5.356 J-3.411
G1 X566.625 Y6.083
G2 X566.72 Y5.918 I-5.448 J-3.262
G1 X567.065 Y5.301
G2 X567.151 Y5.142 I-5.543 J-3.097
G1 X567.486 Y4.5
G2 X567.573 Y4.328 I-5.629 J-2.939
G1 X567.896 Y3.661
G2 X567.972 Y3.497 I-5.716 J-2.767
G1 X568.284 Y2.803
G2 X562.492 Y-6.15 I-5.792 J-2.603
G1 X14.017
G2 X8.879 Y3.932 J6.35
G1 X139.367 Y183.532
G2 X144.504 Y186.15 I5.137 J-3.732
G1 X1014.22
G2 X1019.357 Y183.532 J-6.35
G1 X1149.847 Y3.932
G2 X1144.71 Y-6.15 I-5.137 J-3.732
G1 X944.465
X819.173 Z23 F400.3
X596.234 F849.6
G2 X590.439 Y2.796 J6.35
G1 X590.75 Y3.49
G2 X590.833 Y3.668 I5.795 J-2.596
G1 X591.157 Y4.335
G2 X591.236 Y4.494 I5.712 J-2.773
G1 X591.57 Y5.135
G2 X591.664 Y5.308 I5.633 J-2.932
G1 X592.01 Y5.925
G2 X592.097 Y6.076 I5.539 J-3.104
G1 X592.452 Y6.671
G2 X592.548 Y6.827 I5.452 J-3.255
G1 X592.913 Y7.4
G2 X593.009 Y7.546 I5.356 J-3.411
G1 X593.383 Y8.099
G2 X593.482 Y8.241 I5.26 J-3.558
G1 X593.865 Y8.776
G2 X594.008 Y8.966 I5.161 J-3.7
G1 X594.797 Y9.984
G2 X594.979 Y10.208 I5.018 J-3.891
G1 X595.795 Y11.167
G2 X595.961 Y11.355 I4.836 J-4.115
G1 X596.801 Y12.267
G2 X596.937 Y12.409 I4.67 J-4.303
G1 X597.795 Y13.284
G2 X597.934 Y13.421 I4.534 J-4.446
G1 X599.69 Y15.106
G2 X599.746 Y15.159 I4.396 J-4.583
G1 X601.493 Y16.794
X603.17 Y18.409
X603.927 Y19.178
X604.666 Y19.965
X605.373 Y20.766
X606.058 Y21.595
X606.728 Y22.463
X607.379 Y23.365
X608.009 Y24.302
X608.618 Y25.274
X609.201 Y26.277
X609.76 Y27.317
X610.296 Y28.395
X610.807 Y29.507
X611.289 Y30.648
X611.741 Y31.81
X612.158 Y32.987
X612.541 Y34.176
X612.884 Y35.364
X613.187 Y36.548
X613.448 Y37.724
X613.666 Y38.884
X613.839 Y40.019
X613.964 Y41.11
X614.038 Y42.145
X614.062 Y43.116
X614.032 Y44.072
X614.004 Y44.449
X613.959 Y44.858
X613.905 Y45.244
X613.838 Y45.613
X613.762 Y45.965
X613.676 Y46.294
X613.58 Y46.608
X613.477 Y46.901
X613.364 Y47.18
X613.244 Y47.441
X613.116 Y47.689
X612.978 Y47.925
X612.828 Y48.154
X612.663 Y48.381
X612.478 Y48.608
X612.275 Y48.835
X612.052 Y49.06
X611.797 Y49.293
X611.513 Y49.53
X611.2 Y49.766
X610.847 Y50.009
X610.456 Y50.255
X610.026 Y50.502
X609.552 Y50.75
X609.032 Y50.998
X608.467 Y51.244
X607.855 Y51.487
X607.194 Y51.726
X606.484 Y51.959
X605.723 Y52.187
X604.909 Y52.408
X604.042 Y52.622
X603.121 Y52.827
X602.149 Y53.023
X601.124 Y53.21
X600.046 Y53.386
X598.915 Y53.552
X597.732 Y53.707
X596.495 Y53.85
X595.206 Y53.982
X593.864 Y54.102
X592.468 Y54.209
X591.018 Y54.305
X589.515 Y54.388
X587.959 Y54.458
X586.347 Y54.516
X584.681 Y54.561
X582.963 Y54.593
X581.189 Y54.613
X579.363 Y54.619
X577.536 Y54.613
X575.763 Y54.593
X574.044 Y54.561
X572.378 Y54.516
X570.767 Y54.458
X569.209 Y54.388
X567.707 Y54.305
X566.258 Y54.209
X564.862 Y54.102
X563.52 Y53.982
X562.23 Y53.85
X560.994 Y53.707
X559.811 Y53.552
X558.68 Y53.386
X557.602 Y53.21
X556.577 Y53.023
X555.604 Y52.827
X554.685 Y52.622
X553.817 Y52.408
X553.003 Y52.187
X552.24 Y51.959
X551.53 Y51.725
X550.87 Y51.487
X550.258 Y51.244
X549.693 Y50.998
X549.173 Y50.75
X548.699 Y50.502
X548.269 Y50.255
X547.88 Y50.01
X547.528 Y49.768
X547.211 Y49.528
X546.928 Y49.293
X546.677 Y49.063
X546.448 Y48.832
X546.244 Y48.605
X546.065 Y48.384
X545.9 Y48.157
X545.748 Y47.925
X545.608 Y47.685
X545.479 Y47.437
X545.363 Y47.184
X545.251 Y46.906
X545.144 Y46.603
X545.05 Y46.294
X544.964 Y45.965
X544.887 Y45.613
X544.821 Y45.244
X544.766 Y44.858
X544.722 Y44.454
X544.694 Y44.072
X544.664 Y43.116
X544.688 Y42.145
X544.762 Y41.108
X544.887 Y40.017
X545.059 Y38.886
X545.278 Y37.724
X545.538 Y36.548
X545.841 Y35.364
X546.185 Y34.174
X546.567 Y32.989
X546.985 Y31.81
X547.436 Y30.648
X547.919 Y29.507
X548.43 Y28.394
X548.964 Y27.318
X549.524 Y26.279
X550.109 Y25.272
X550.716 Y24.302
X551.347 Y23.365
X551.997 Y22.463
X552.667 Y21.596
X553.354 Y20.764
X554.061 Y19.963
X554.796 Y19.179
X555.555 Y18.41
X557.234 Y16.793
X558.98 Y15.158
G2 X559.034 Y15.106 I-4.341 J-4.635
G1 X560.792 Y13.421
G2 X560.927 Y13.287 I-4.396 J-4.583
G1 X561.786 Y12.412
G2 X561.927 Y12.264 I-4.531 J-4.448
G1 X562.766 Y11.352
G2 X562.928 Y11.17 I-4.672 J-4.3
G1 X563.745 Y10.211
G2 X563.932 Y9.981 I-4.834 J-4.118
G1 X564.72 Y8.963
G2 X564.859 Y8.776 I-5.021 J-3.888
G1 X565.242 Y8.241
G2 X565.342 Y8.099 I-5.161 J-3.7
G1 X565.716 Y7.546
G2 X565.812 Y7.4 I-5.26 J-3.558
G1 X566.177 Y6.827
G2 X566.269 Y6.677 I-5.356 J-3.411
G1 X566.625 Y6.083
G2 X566.72 Y5.918 I-5.448 J-3.262
G1 X567.065 Y5.301
G2 X567.151 Y5.142 I-5.543 J-3.097
G1 X567.486 Y4.5
G2 X567.573 Y4.328 I-5.629 J-2.939
G1 X567.896 Y3.661
G2 X567.972 Y3.497 I-5.716 J-2.767
G1 X568.284 Y2.803
G2 X562.492 Y-6.15 I-5.792 J-2.603
G1 X14.017
G2 X8.879 Y3.932 J6.35
G1 X139.367 Y183.532
G2 X144.504 Y186.15 I5.137 J-3.732
G1 X1014.22
G2 X1019.357 Y183.532 J-6.35
G1 X1149.847 Y3.932
G2 X1144.71 Y-6.15 I-5.137 J-3.732
G1 X944.465
X819.173
X693.88 Z20 F400.3
X596.234 F849.6
G2 X590.439 Y2.796 J6.35
G1 X590.75 Y3.49
G2 X590.833 Y3.668 I5.795 J-2.596
G1 X591.157 Y4.335
G2 X591.236 Y4.494 I5.712 J-2.773
G1 X591.57 Y5.135
G2 X591.664 Y5.308 I5.633 J-2.932
G1 X592.01 Y5.925
G2 X592.097 Y6.076 I5.539 J-3.104
G1 X592.452 Y6.671
G2 X592.548 Y6.827 I5.452 J-3.255
G1 X592.913 Y7.4
G2 X593.009 Y7.546 I5.356 J-3.411
G1 X593.383 Y8.099
G2 X593.482 Y8.241 I5.26 J-3.558
G1 X593.865 Y8.776
G2 X594.008 Y8.966 I5.161 J-3.7
G1 X594.797 Y9.984
G2 X594.979 Y10.208 I5.018 J-3.891
G1 X595.795 Y11.167
G2 X595.961 Y11.355 I4.836 J-4.115
G1 X596.801 Y12.267
G2 X596.937 Y12.409 I4.67 J-4.303
G1 X597.795 Y13.284
G2 X597.934 Y13.421 I4.534 J-4.446
G1 X599.69 Y15.106
G2 X599.746 Y15.159 I4.396 J-4.583
G1 X601.493 Y16.794
X603.17 Y18.409
X603.927 Y19.178
X604.666 Y19.965
X605.373 Y20.766
X606.058 Y21.595
X606.728 Y22.463
X607.379 Y23.365
X608.009 Y24.302
X608.618 Y25.274
X609.201 Y26.277
X609.76 Y27.317
X610.296 Y28.395
X610.807 Y29.507
X611.289 Y30.648
X611.741 Y31.81
X612.158 Y32.987
X612.541 Y34.176
X612.884 Y35.364
X613.187 Y36.548
X613.448 Y37.724
X613.666 Y38.884
X613.839 Y40.019
X613.964 Y41.11
X614.038 Y42.145
X614.062 Y43.116
X614.032 Y44.072
X614.004 Y44.449
X613.959 Y44.858
X613.905 Y45.244
X613.838 Y45.613
X613.762 Y45.965
X613.676 Y46.294
X613.58 Y46.608
X613.477 Y46.901
X613.364 Y47.18
X613.244 Y47.441
X613.116 Y47.689
X612.978 Y47.925
X612.828 Y48.154
X612.663 Y48.381
X612.478 Y48.608
X612.275 Y48.835
X612.052 Y49.06
X611.797 Y49.293
X611.513 Y49.53
X611.2 Y49.766
X610.847 Y50.009
X610.456 Y50.255
X610.026 Y50.502
X609.552 Y50.75
X609.032 Y50.998
X608.467 Y51.244
X607.855 Y51.487
X607.194 Y51.726
X606.484 Y51.959
X605.723 Y52.187
X604.909 Y52.408
X604.042 Y52.622
X603.121 Y52.827
X602.149 Y53.023
X601.124 Y53.21
X600.046 Y53.386
X598.915 Y53.552
X597.732 Y53.707
X596.495 Y53.85
X595.206 Y53.982
X593.864 Y54.102
X592.468 Y54.209
X591.018 Y54.305
X589.515 Y54.388
X587.959 Y54.458
X586.347 Y54.516
X584.681 Y54.561
X582.963 Y54.593
X581.189 Y54.613
X579.363 Y54.619
X577.536 Y54.613
X575.763 Y54.593
X574.044 Y54.561
X572.378 Y54.516
X570.767 Y54.458
X569.209 Y54.388
X567.707 Y54.305
X566.258 Y54.209
X564.862 Y54.102
X563.52 Y53.982
X562.23 Y53.85
X560.994 Y53.707
X559.811 Y53.552
X558.68 Y53.386
X557.602 Y53.21
X556.577 Y53.023
X555.604 Y52.827
X554.685 Y52.622
X553.817 Y52.408
X553.003 Y52.187
X552.24 Y51.959
X551.53 Y51.725
X550.87 Y51.487
X550.258 Y51.244
X549.693 Y50.998
X549.173 Y50.75
X548.699 Y50.502
X548.269 Y50.255
X547.88 Y50.01
X547.528 Y49.768
X547.211 Y49.528
X546.928 Y49.293
X546.677 Y49.063
X546.448 Y48.832
X546.244 Y48.605
X546.065 Y48.384
X545.9 Y48.157
X545.748 Y47.925
X545.608 Y47.685
X545.479 Y47.437
X545.363 Y47.184
X545.251 Y46.906
X545.144 Y46.603
X545.05 Y46.294
X544.964 Y45.965
X544.887 Y45.613
X544.821 Y45.244
X544.766 Y44.858
X544.722 Y44.454
X544.694 Y44.072
X544.664 Y43.116
X544.688 Y42.145
X544.762 Y41.108
X544.887 Y40.017
X545.059 Y38.886
X545.278 Y37.724
X545.538 Y36.548
X545.841 Y35.364
X546.185 Y34.174
X546.567 Y32.989
X546.985 Y31.81
X547.436 Y30.648
X547.919 Y29.507
X548.43 Y28.394
X548.964 Y27.318
X549.524 Y26.279
X550.109 Y25.272
X550.716 Y24.302
X551.347 Y23.365
X551.997 Y22.463
X552.667 Y21.596
X553.354 Y20.764
X554.061 Y19.963
X554.796 Y19.179
X555.555 Y18.41
X557.234 Y16.793
X558.98 Y15.158
G2 X559.034 Y15.106 I-4.341 J-4.635
G1 X560.792 Y13.421
G2 X560.927 Y13.287 I-4.396 J-4.583
G1 X561.786 Y12.412
G2 X561.927 Y12.264 I-4.531 J-4.448
G1 X562.766 Y11.352
G2 X562.928 Y11.17 I-4.672 J-4.3
G1 X563.745 Y10.211
G2 X563.932 Y9.981 I-4.834 J-4.118
G1 X564.72 Y8.963
G2 X564.859 Y8.776 I-5.021 J-3.888
G1 X565.242 Y8.241
G2 X565.342 Y8.099 I-5.161 J-3.7
G1 X565.716 Y7.546
G2 X565.812 Y7.4 I-5.26 J-3.558
G1 X566.177 Y6.827
G2 X566.269 Y6.677 I-5.356 J-3.411
G1 X566.625 Y6.083
G2 X566.72 Y5.918 I-5.448 J-3.262
G1 X567.065 Y5.301
G2 X567.151 Y5.142 I-5.543 J-3.097
G1 X567.486 Y4.5
G2 X567.573 Y4.328 I-5.629 J-2.939
G1 X567.896 Y3.661
G2 X567.972 Y3.497 I-5.716 J-2.767
G1 X568.284 Y2.803
G2 X562.492 Y-6.15 I-5.792 J-2.603
G1 X14.017
G2 X8.879 Y3.932 J6.35
G1 X139.367 Y183.532
G2 X144.504 Y186.15 I5.137 J-3.732
G1 X1014.22
G2 X1019.357 Y183.532 J-6.35
G1 X1149.847 Y3.932
G2 X1144.71 Y-6.15 I-5.137 J-3.732
G1 X819.173
X693.88
G3 X692.61 Y-7.42 J-1.27
G1 Y-8.69
G19 G2 Y-9.96 Z21.27 K1.27
G0 Z65
G17

(2D Adaptive15 5)
M9
G0 X85.916 Y40.604
Z65
Z55
Z53.77
G1 Z52.5 F849.6
G3 X79.991 Y39.658 Z52.171 I-2.963 J-0.473 F400.3
X85.916 Y40.604 Z51.842 I2.963 J0.473
X79.991 Y39.658 Z51.513 I-2.963 J-0.473
X85.916 Y40.604 Z51.184 I2.963 J0.473
X79.991 Y39.658 Z50.854 I-2.963 J-0.473
X85.916 Y40.604 Z50.525 I2.963 J0.473
X79.991 Y39.658 Z50.196 I-2.963 J-0.473
X85.916 Y40.604 Z49.867 I2.963 J0.473
X79.991 Y39.658 Z49.538 I-2.963 J-0.473
X85.916 Y40.604 Z49.209 I2.963 J0.473
X79.991 Y39.658 Z48.88 I-2.963 J-0.473
X85.916 Y40.604 Z48.551 I2.963 J0.473
X79.991 Y39.658 Z48.221 I-2.963 J-0.473
X85.916 Y40.604 Z47.892 I2.963 J0.473
X79.991 Y39.658 Z47.563 I-2.963 J-0.473
X85.916 Y40.604 Z47.234 I2.963 J0.473
X79.991 Y39.658 Z46.905 I-2.963 J-0.473
X85.916 Y40.604 Z46.576 I2.963 J0.473
X79.991 Y39.658 Z46.247 I-2.963 J-0.473
X85.916 Y40.604 Z45.918 I2.963 J0.473
X79.991 Y39.658 Z45.588 I-2.963 J-0.473
X85.916 Y40.604 Z45.259 I2.963 J0.473
X79.991 Y39.658 Z44.93 I-2.963 J-0.473
X85.916 Y40.604 Z44.601 I2.963 J0.473
X79.991 Y39.658 Z44.272 I-2.963 J-0.473
X85.916 Y40.604 Z43.943 I2.963 J0.473
X79.991 Y39.658 Z43.614 I-2.963 J-0.473
X85.916 Y40.604 Z43.285 I2.963 J0.473
X79.991 Y39.658 Z42.956 I-2.963 J-0.473
X85.916 Y40.604 Z42.626 I2.963 J0.473
X79.991 Y39.658 Z42.297 I-2.963 J-0.473
X85.916 Y40.604 Z41.968 I2.963 J0.473
X79.991 Y39.658 Z41.639 I-2.963 J-0.473
X85.916 Y40.604 Z41.31 I2.963 J0.473
X79.991 Y39.658 Z40.981 I-2.963 J-0.473
X85.916 Y40.604 Z40.652 I2.963 J0.473
X79.991 Y39.658 Z40.323 I-2.963 J-0.473
X85.953 Y40.131 Z40.01 I2.963 J0.473
X79.953 I-3
X85.849 Y39.348 I3
X85.953 Y40.131 I-2.896 J0.783
G1 X85.974 Y41.423 F849.6
X85.982 Y41.503
X85.988 Y41.653
X85.981 Y41.803
X85.961 Y41.952
X85.93 Y42.098
X85.888 Y42.243
X85.838 Y42.384
X85.778 Y42.521
X85.711 Y42.655
X85.636 Y42.785
X85.552 Y42.912
X85.46 Y43.038
X85.358 Y43.162
X85.246 Y43.283
X85.125 Y43.401
X84.995 Y43.515
X84.857 Y43.624
X84.709 Y43.727
X84.554 Y43.824
X84.39 Y43.914
X84.219 Y43.996
X84.042 Y44.07
X83.857 Y44.135
X83.668 Y44.191
X83.224 Y44.256
X82.776 Y44.247
X82.335 Y44.164
X81.915 Y44.008
X81.527 Y43.783
X81.181 Y43.498
X80.888 Y43.158
X79.518 Y41.273
X79.42 Y41.122
X79.345 Y40.992
X79.278 Y40.858
X79.218 Y40.72
X79.165 Y40.577
X79.119 Y40.427
X79.08 Y40.27
X79.049 Y40.107
X79.026 Y39.939
X79.012 Y39.766
X79.007 Y39.589
X79.012 Y39.408
X79.026 Y39.225
X79.053 Y39.032
X79.183 Y38.552
X79.383 Y38.098
X79.65 Y37.679
X79.976 Y37.305
X80.354 Y36.983
G3 X82.304 Y38.312 I0.71 J1.053
G1 X81.759 Y40.767
G3 X79.518 Y41.273 I-1.24 J-0.275
G1 X78.689 Y40.131
X78.607 Y40.005
X78.476 Y39.706
X78.409 Y39.387
X78.408 Y39.06
X78.473 Y38.74
X78.602 Y38.44
X78.789 Y38.173
X79.026 Y37.949
G3 X81.34 Y38.684 I0.881 J1.236
X78.689 Y40.131 I-1.445 J0.505
G1 X78.649 Y40.076
X78.427 Y39.75
X78.343 Y39.56
X78.293 Y39.37
X78.273 Y39.179
X78.282 Y38.989
X78.32 Y38.799
X78.391 Y38.608
X78.495 Y38.425
X78.565 Y38.333
X78.649 Y38.241
X78.662 Y38.228
X79.03 Y37.946
X80.934 Y36.562
X81.104 Y36.451
X81.277 Y36.351
X81.457 Y36.26
X81.644 Y36.177
X81.838 Y36.104
X82.036 Y36.041
X82.071 Y36.032
X82.478 Y35.959
X82.891 Y35.947
X83.302 Y35.997
X83.7 Y36.107
X84.078 Y36.275
X84.426 Y36.498
X84.738 Y36.77
X85.005 Y37.086
G3 X83.82 Y39.059 I-1.053 J0.71
G1 X81.585 Y38.826
G3 X80.934 Y36.562 I0.132 J-1.263
G1 X82.205 Y35.639
X82.237 Y35.616
X82.277 Y35.587
X82.402 Y35.505
X82.541 Y35.435
X82.639 Y35.398
X82.738 Y35.365
X82.839 Y35.336
G3 X83.94 Y36.001 I0.073 J1.123
X81.953 Y36.886 I-0.994 J0.442
X82.277 Y35.587 I0.994 J-0.442
G1 X82.31 Y35.563
X82.458 Y35.469
X82.649 Y35.386
X82.839 Y35.336
X83.03 Y35.317
X83.22 Y35.327
X83.411 Y35.366
X83.601 Y35.436
X83.71 Y35.492
X83.82 Y35.563
X83.982 Y35.702
X84.175 Y35.944
X86.531 Y39.187
X86.699 Y39.444
X86.807 Y39.63
X86.902 Y39.818
X86.987 Y40.009
X87.06 Y40.204
X87.123 Y40.401
X87.174 Y40.6
X87.215 Y40.801
X87.244 Y41.004
X87.263 Y41.21
X87.27 Y41.417
X87.267 Y41.626
X87.251 Y41.836
X87.224 Y42.047
X87.186 Y42.259
X87.135 Y42.47
X87.073 Y42.68
X86.998 Y42.89
X86.91 Y43.097
X86.811 Y43.302
X86.699 Y43.504
X86.574 Y43.703
X86.438 Y43.896
X86.289 Y44.084
X86.139 Y44.254
X85.982 Y44.413
X85.802 Y44.578
X85.629 Y44.72
X85.451 Y44.849
X85.249 Y44.981
X85.057 Y45.091
X84.864 Y45.189
X84.452 Y45.329
X84.022 Y45.398
X83.587 Y45.394
X83.159 Y45.316
X82.75 Y45.168
X82.372 Y44.952
X82.036 Y44.675
X81.751 Y44.346
X80.888 Y43.158
G3 X80.697 Y42.701 I1.053 J-0.71
X81.219 Y41.403 I1.244 J-0.253
G1 X84.809 Y38.924
G3 X86.531 Y39.187 I0.722 J1.045
G1 X87.646 Y40.721
X87.734 Y40.856
X87.809 Y40.986
X87.876 Y41.12
X87.935 Y41.259
X87.986 Y41.402
X88.032 Y41.555
X88.072 Y41.72
X88.104 Y41.896
X88.128 Y42.079
X88.142 Y42.27
X88.146 Y42.469
X88.139 Y42.676
X88.12 Y42.89
X88.088 Y43.108
X88.044 Y43.331
X87.986 Y43.556
X87.914 Y43.782
X87.829 Y44.008
X87.73 Y44.235
X87.616 Y44.46
X87.488 Y44.681
X87.361 Y44.877
X87.214 Y45.078
X87.058 Y45.27
X86.906 Y45.436
X86.733 Y45.606
X86.553 Y45.765
X86.381 Y45.901
X86.188 Y46.037
X85.989 Y46.162
X85.801 Y46.266
X85.793 Y46.27
X85.419 Y46.417
X85.027 Y46.504
X84.626 Y46.53
X84.226 Y46.494
X83.837 Y46.396
X83.467 Y46.24
X83.126 Y46.028
X82.821 Y45.766
X82.561 Y45.46
X81.751 Y44.346
G3 X82.188 Y42.526 I1.053 J-0.71
G1 X86.029 Y40.393
G3 X87.646 Y40.721 I0.617 J1.11
G1 X88.507 Y41.906
X88.589 Y42.032
X88.662 Y42.163
X88.726 Y42.298
X88.782 Y42.438
X88.831 Y42.582
X88.873 Y42.736
X88.91 Y42.902
X88.939 Y43.081
X88.959 Y43.268
X88.97 Y43.462
Y43.664
X88.958 Y43.875
X88.934 Y44.092
X88.897 Y44.315
X88.847 Y44.541
X88.784 Y44.768
X88.707 Y44.997
X88.615 Y45.225
X88.509 Y45.454
X88.39 Y45.678
X88.269 Y45.878
X88.126 Y46.088
X87.98 Y46.28
X87.832 Y46.453
X87.661 Y46.634
X87.494 Y46.791
X87.32 Y46.939
X87.128 Y47.084
X86.946 Y47.207
X86.747 Y47.326
X86.543 Y47.434
X86.129 Y47.583
X85.696 Y47.659
X85.256 Y47.66
X84.823 Y47.585
X84.409 Y47.438
X84.026 Y47.222
X83.685 Y46.944
X83.397 Y46.612
X82.561 Y45.46
G3 X83.019 Y43.628 I1.053 J-0.71
G1 X86.912 Y41.566
G3 X88.507 Y41.906 I0.595 J1.122
G1 X89.316 Y43.019
X89.398 Y43.145
X89.472 Y43.275
X89.538 Y43.41
X89.595 Y43.548
X89.644 Y43.691
X89.689 Y43.846
X89.727 Y44.011
X89.757 Y44.185
X89.778 Y44.369
X89.79 Y44.564
X89.791 Y44.767
X89.782 Y44.976
X89.76 Y45.19
X89.726 Y45.41
X89.678 Y45.634
X89.617 Y45.861
X89.541 Y46.091
X89.451 Y46.32
X89.348 Y46.549
X89.23 Y46.775
X89.104 Y46.987
X88.974 Y47.182
X88.819 Y47.388
X88.667 Y47.57
X88.512 Y47.735
X88.332 Y47.908
X88.157 Y48.059
X87.983 Y48.193
X87.782 Y48.331
X87.589 Y48.449
X87.4 Y48.55
X87.184 Y48.652
X86.795 Y48.773
X86.392 Y48.829
X85.985 Y48.817
X85.586 Y48.737
X85.205 Y48.593
X84.854 Y48.389
X84.541 Y48.128
X84.275 Y47.82
X83.397 Y46.612
G3 X83.844 Y44.786 I1.053 J-0.71
G1 X87.708 Y42.685
G3 X89.316 Y43.019 I0.607 J1.116
G1 X90.133 Y44.144
X90.215 Y44.27
X90.29 Y44.4
X90.356 Y44.535
X90.414 Y44.673
X90.463 Y44.815
X90.508 Y44.969
X90.546 Y45.135
X90.576 Y45.309
X90.598 Y45.492
X90.61 Y45.685
X90.612 Y45.889
X90.603 Y46.099
X90.582 Y46.314
X90.548 Y46.534
X90.501 Y46.758
X90.44 Y46.985
X90.365 Y47.214
X90.276 Y47.445
X90.172 Y47.674
X90.054 Y47.901
X89.923 Y48.125
X89.785 Y48.332
X89.641 Y48.525
X89.476 Y48.723
X89.316 Y48.894
X89.147 Y49.057
X88.961 Y49.218
X88.784 Y49.355
X88.594 Y49.486
X88.393 Y49.61
X88.203 Y49.712
X87.998 Y49.809
X87.614 Y49.93
X87.216 Y49.985
X86.815 Y49.974
X86.421 Y49.896
X86.045 Y49.754
X85.698 Y49.552
X85.388 Y49.296
X85.126 Y48.991
X84.275 Y47.82
G3 X84.696 Y46.009 I1.053 J-0.71
G1 X88.5 Y43.824
G3 X90.133 Y44.144 I0.632 J1.101
G1 X90.977 Y45.306
X91.059 Y45.431
X91.132 Y45.563
X91.195 Y45.698
X91.25 Y45.838
X91.298 Y45.982
X91.341 Y46.137
X91.377 Y46.307
X91.406 Y46.486
X91.426 Y46.674
X91.436 Y46.87
X91.435 Y47.075
X91.422 Y47.289
X91.397 Y47.509
X91.36 Y47.733
X91.309 Y47.96
X91.244 Y48.19
X91.165 Y48.421
X91.072 Y48.652
X90.963 Y48.883
X90.841 Y49.111
X90.705 Y49.336
X90.567 Y49.536
X90.415 Y49.735
X90.251 Y49.925
X90.093 Y50.091
X89.915 Y50.258
X89.732 Y50.411
X89.557 Y50.543
X89.359 Y50.676
X89.162 Y50.793
X89.145 Y50.802
X88.773 Y50.961
X88.38 Y51.059
X87.977 Y51.094
X87.573 Y51.065
X87.179 Y50.972
X86.804 Y50.819
X86.458 Y50.609
X86.15 Y50.346
X85.887 Y50.039
X85.126 Y48.991
G3 X85.544 Y47.182 I1.053 J-0.71
G1 X89.341 Y44.988
G3 X90.977 Y45.306 I0.635 J1.1
G1 X91.795 Y46.431
X91.877 Y46.557
X91.95 Y46.688
X92.015 Y46.823
X92.071 Y46.962
X92.12 Y47.107
X92.164 Y47.265
X92.201 Y47.433
X92.23 Y47.609
X92.251 Y47.798
X92.261 Y47.997
X92.262 Y48.204
X92.25 Y48.417
X92.226 Y48.636
X92.19 Y48.86
X92.14 Y49.088
X92.075 Y49.32
X91.997 Y49.553
X91.904 Y49.786
X91.797 Y50.017
X91.682 Y50.234
X91.558 Y50.44
X91.415 Y50.651
X91.275 Y50.836
X91.119 Y51.019
X90.952 Y51.195
X90.791 Y51.347
X90.608 Y51.503
X90.423 Y51.643
X90.244 Y51.765
X90.039 Y51.888
X89.841 Y51.992
X89.43 Y52.141
X89 Y52.217
X88.563 Y52.218
X88.132 Y52.145
X87.72 Y51.999
X87.339 Y51.784
X87.001 Y51.508
X86.715 Y51.178
X85.887 Y50.039
G3 X86.329 Y48.215 I1.053 J-0.71
G1 X90.183 Y46.1
G3 X91.795 Y46.431 I0.611 J1.113
G1 X92.622 Y47.57
X92.704 Y47.695
X92.777 Y47.826
X92.842 Y47.962
X92.898 Y48.101
X92.947 Y48.245
X92.992 Y48.404
X93.029 Y48.572
X93.059 Y48.748
X93.079 Y48.934
X93.09 Y49.131
X93.091 Y49.337
X93.08 Y49.548
X93.057 Y49.765
X93.021 Y49.986
X92.972 Y50.211
X92.909 Y50.439
X92.832 Y50.67
X92.74 Y50.9
X92.635 Y51.129
X92.515 Y51.356
X92.389 Y51.565
X92.256 Y51.762
X92.101 Y51.967
X91.95 Y52.145
X91.792 Y52.312
X91.612 Y52.483
X91.439 Y52.631
X91.262 Y52.765
X91.061 Y52.902
X90.87 Y53.017
X90.679 Y53.118
X90.665 Y53.125
X90.255 Y53.274
X89.824 Y53.35
X89.387 Y53.352
X88.957 Y53.279
X88.545 Y53.133
X88.164 Y52.919
X87.826 Y52.643
X87.539 Y52.313
X86.715 Y51.178
G3 X86.523 Y50.721 I1.053 J-0.71
X87.156 Y49.354 I1.244 J-0.253
G1 X91.01 Y47.238
G3 X92.622 Y47.57 I0.611 J1.113
G1 X93.414 Y48.66
X93.517 Y48.817
X93.592 Y48.947
X93.658 Y49.082
X93.716 Y49.22
X93.765 Y49.363
X93.81 Y49.518
X93.848 Y49.683
X93.879 Y49.857
X93.901 Y50.042
X93.913 Y50.237
X93.915 Y50.441
X93.906 Y50.651
X93.885 Y50.866
X93.851 Y51.085
X93.804 Y51.31
X93.743 Y51.539
X93.668 Y51.769
X93.578 Y52
X93.475 Y52.229
X93.357 Y52.456
X93.232 Y52.668
X93.102 Y52.864
X92.948 Y53.071
X92.796 Y53.253
X92.642 Y53.419
X92.462 Y53.593
X92.287 Y53.744
X92.114 Y53.878
X91.913 Y54.017
X91.721 Y54.135
X91.533 Y54.237
X91.497 Y54.254
X91.087 Y54.406
X90.657 Y54.485
X90.22 Y54.49
X89.789 Y54.418
X89.376 Y54.274
X88.995 Y54.061
X88.656 Y53.785
X88.369 Y53.455
X87.539 Y52.313
G3 X87.967 Y50.497 I1.053 J-0.71
G1 X91.789 Y48.337
G3 X93.414 Y48.66 I0.625 J1.106
G1 X94.268 Y49.836
X94.35 Y49.961
X94.424 Y50.092
X94.489 Y50.227
X94.546 Y50.366
X94.595 Y50.508
X94.639 Y50.663
X94.676 Y50.831
X94.706 Y51.008
X94.727 Y51.192
X94.739 Y51.386
X94.74 Y51.591
X94.729 Y51.803
X94.707 Y52.019
X94.672 Y52.24
X94.623 Y52.465
X94.561 Y52.693
X94.485 Y52.922
X94.395 Y53.153
X94.289 Y53.383
X94.17 Y53.609
X94.046 Y53.818
X93.911 Y54.019
X93.756 Y54.224
X93.606 Y54.403
X93.446 Y54.573
X93.266 Y54.745
X93.094 Y54.892
X92.916 Y55.029
X92.715 Y55.166
X92.525 Y55.281
X92.334 Y55.384
X92.118 Y55.484
X91.734 Y55.603
X91.335 Y55.657
X90.933 Y55.644
X90.539 Y55.566
X90.162 Y55.423
X89.815 Y55.22
X89.506 Y54.963
X89.243 Y54.658
X88.369 Y53.455
G3 X88.807 Y51.633 I1.053 J-0.71
G1 X92.653 Y49.506
G3 X94.268 Y49.836 I0.615 J1.111
G1 X95.093 Y50.971
X95.175 Y51.097
X95.249 Y51.227
X95.314 Y51.362
X95.371 Y51.501
X95.419 Y51.643
X95.463 Y51.799
X95.501 Y51.967
X95.531 Y52.143
X95.552 Y52.327
X95.563 Y52.522
X95.564 Y52.728
X95.553 Y52.939
X95.531 Y53.156
X95.495 Y53.377
X95.447 Y53.602
X95.384 Y53.83
X95.308 Y54.06
X95.217 Y54.291
X95.111 Y54.521
X94.992 Y54.748
X94.858 Y54.972
X94.719 Y55.179
X94.573 Y55.372
X94.408 Y55.569
X94.248 Y55.739
X94.076 Y55.902
X93.891 Y56.061
X93.714 Y56.196
X93.522 Y56.327
X93.321 Y56.449
X93.186 Y56.521
X92.786 Y56.691
X92.362 Y56.786
X91.928 Y56.805
X91.498 Y56.746
X91.085 Y56.611
X90.703 Y56.405
X90.363 Y56.134
X90.078 Y55.806
X89.243 Y54.658
G3 X89.661 Y52.849 I1.053 J-0.71
G1 X93.457 Y50.653
G3 X95.093 Y50.971 I0.636 J1.099
G1 X95.876 Y52.048
X95.989 Y52.221
X96.064 Y52.351
X96.13 Y52.486
X96.187 Y52.624
X96.237 Y52.766
X96.281 Y52.921
X96.32 Y53.087
X96.35 Y53.261
X96.372 Y53.446
X96.385 Y53.643
X96.387 Y53.847
X96.377 Y54.059
X96.356 Y54.276
X96.322 Y54.498
X96.274 Y54.725
X96.212 Y54.956
X96.137 Y55.188
X96.047 Y55.421
X95.942 Y55.652
X95.825 Y55.878
X95.702 Y56.087
X95.554 Y56.309
X95.405 Y56.51
X95.258 Y56.686
X95.085 Y56.872
X94.912 Y57.039
X94.745 Y57.183
X94.554 Y57.331
X94.361 Y57.464
X94.179 Y57.577
X93.976 Y57.686
X93.569 Y57.838
X93.141 Y57.916
X92.706 Y57.92
X92.278 Y57.85
X91.867 Y57.706
X91.488 Y57.494
X91.151 Y57.22
X90.866 Y56.891
X90.078 Y55.806
G3 X90.473 Y54.01 I1.053 J-0.71
G1 X94.217 Y51.743
G3 X95.5 Y51.724 I0.658 J1.086
X95.876 Y52.048 I-0.625 J1.105
G1 X96.705 Y53.189
X96.813 Y53.355
X96.888 Y53.485
X96.954 Y53.62
X97.012 Y53.758
X97.062 Y53.9
X97.107 Y54.056
X97.146 Y54.222
X97.176 Y54.397
X97.199 Y54.581
X97.212 Y54.778
X97.214 Y54.984
X97.205 Y55.196
X97.184 Y55.413
X97.15 Y55.636
X97.103 Y55.863
X97.042 Y56.093
X96.966 Y56.325
X96.876 Y56.559
X96.773 Y56.79
X96.654 Y57.019
X96.53 Y57.23
X96.399 Y57.428
X96.245 Y57.635
X96.095 Y57.816
X95.94 Y57.984
X95.761 Y58.157
X95.589 Y58.306
X95.414 Y58.442
X95.215 Y58.58
X95.025 Y58.697
X94.836 Y58.8
X94.802 Y58.816
X94.394 Y58.968
X93.967 Y59.048
X93.531 Y59.052
X93.102 Y58.982
X92.691 Y58.838
X92.311 Y58.626
X91.973 Y58.352
X91.688 Y58.023
X90.866 Y56.891
G3 X91.278 Y55.084 I1.053 J-0.71
G1 X95.064 Y52.874
G3 X96.705 Y53.189 I0.64 J1.097
G1 X97.586 Y54.402
X97.668 Y54.528
X97.74 Y54.66
X97.804 Y54.796
X97.859 Y54.935
X97.907 Y55.081
X97.95 Y55.238
X97.987 Y55.409
X98.016 Y55.59
X98.036 Y55.778
X98.045 Y55.974
X98.044 Y56.18
X98.032 Y56.395
X98.007 Y56.614
X97.969 Y56.838
X97.918 Y57.065
X97.853 Y57.294
X97.775 Y57.523
X97.682 Y57.754
X97.574 Y57.984
X97.453 Y58.21
X97.328 Y58.415
X97.187 Y58.62
X97.034 Y58.82
X96.884 Y58.994
X96.718 Y59.167
X96.54 Y59.335
X96.369 Y59.478
X96.185 Y59.616
X95.987 Y59.749
X95.799 Y59.861
X95.602 Y59.964
X95.584 Y59.972
X95.18 Y60.116
X94.758 Y60.189
X94.329 Y60.188
X93.907 Y60.115
X93.503 Y59.971
X93.13 Y59.76
X92.798 Y59.489
X92.518 Y59.165
X91.688 Y58.023
G3 X92.126 Y56.202 I1.053 J-0.71
G1 X95.97 Y54.073
G3 X97.586 Y54.402 I0.615 J1.111
G1 X98.379 Y55.493
X98.472 Y55.637
X98.547 Y55.766
X98.613 Y55.901
X98.671 Y56.04
X98.721 Y56.184
X98.766 Y56.339
X98.804 Y56.503
X98.835 Y56.678
X98.857 Y56.864
X98.87 Y57.06
X98.872 Y57.264
X98.862 Y57.473
X98.841 Y57.688
X98.807 Y57.91
X98.76 Y58.137
X98.699 Y58.366
X98.623 Y58.597
X98.534 Y58.827
X98.431 Y59.057
X98.313 Y59.284
X98.186 Y59.5
X98.056 Y59.696
X97.901 Y59.904
X97.747 Y60.089
X97.593 Y60.255
X97.413 Y60.428
X97.237 Y60.581
X97.064 Y60.715
X96.864 Y60.853
X96.671 Y60.972
X96.484 Y61.073
X96.436 Y61.096
X96.031 Y61.246
X95.607 Y61.325
X95.175 Y61.329
X94.749 Y61.258
X94.342 Y61.116
X93.965 Y60.905
X93.63 Y60.633
X93.347 Y60.307
X92.518 Y59.165
G3 X92.94 Y57.353 I1.053 J-0.71
G1 X96.747 Y55.173
G3 X98.003 Y55.17 I0.631 J1.102
X98.379 Y55.493 I-0.625 J1.105
G1 X99.221 Y56.652
X99.303 Y56.778
X99.377 Y56.908
X99.443 Y57.043
X99.5 Y57.182
X99.549 Y57.323
X99.594 Y57.479
X99.632 Y57.646
X99.662 Y57.822
X99.684 Y58.007
X99.696 Y58.201
X99.698 Y58.406
X99.688 Y58.619
X99.666 Y58.835
X99.632 Y59.057
X99.584 Y59.282
X99.522 Y59.511
X99.447 Y59.74
X99.357 Y59.972
X99.252 Y60.203
X99.133 Y60.431
X99.008 Y60.642
X98.875 Y60.843
X98.719 Y61.05
X98.567 Y61.232
X98.409 Y61.401
X98.229 Y61.574
X98.056 Y61.723
X97.879 Y61.86
X97.679 Y61.997
X97.489 Y62.114
X97.299 Y62.216
X97.083 Y62.317
X96.7 Y62.437
X96.302 Y62.492
X95.9 Y62.48
X95.506 Y62.402
X95.131 Y62.26
X94.783 Y62.058
X94.474 Y61.801
X94.212 Y61.497
X93.347 Y60.307
G3 X93.775 Y58.492 I1.053 J-0.71
G1 X97.594 Y56.329
G3 X99.221 Y56.652 I0.626 J1.105
G1 X100.054 Y57.798
X100.136 Y57.924
X100.209 Y58.055
X100.274 Y58.19
X100.331 Y58.329
X100.379 Y58.471
X100.423 Y58.627
X100.461 Y58.796
X100.491 Y58.973
X100.512 Y59.158
X100.523 Y59.353
X100.524 Y59.559
X100.513 Y59.772
X100.49 Y59.989
X100.454 Y60.211
X100.406 Y60.437
X100.343 Y60.666
X100.266 Y60.896
X100.175 Y61.128
X100.069 Y61.359
X99.949 Y61.586
X99.815 Y61.811
X99.677 Y62.016
X99.53 Y62.211
X99.364 Y62.406
X99.205 Y62.576
X99.032 Y62.74
X98.848 Y62.898
X98.672 Y63.032
X98.478 Y63.164
X98.279 Y63.285
X98.091 Y63.385
X98.049 Y63.405
X97.652 Y63.549
X97.237 Y63.624
X96.815 Y63.626
X96.399 Y63.556
X96.001 Y63.415
X95.634 Y63.208
X95.307 Y62.942
X95.03 Y62.623
X94.212 Y61.497
G3 X94.626 Y59.69 I1.053 J-0.71
G1 X98.413 Y57.483
G3 X99.678 Y57.475 I0.639 J1.097
X100.054 Y57.798 I-0.625 J1.105
G1 X100.853 Y58.899
X100.95 Y59.047
X101.025 Y59.177
X101.091 Y59.312
X101.149 Y59.45
X101.198 Y59.592
X101.243 Y59.748
X101.282 Y59.914
X101.312 Y60.088
X101.334 Y60.274
X101.347 Y60.471
X101.349 Y60.676
X101.34 Y60.888
X101.319 Y61.106
X101.285 Y61.328
X101.237 Y61.555
X101.175 Y61.787
X101.099 Y62.019
X101.009 Y62.252
X100.905 Y62.484
X100.787 Y62.713
X100.659 Y62.929
X100.527 Y63.128
X100.371 Y63.338
X100.217 Y63.523
X100.061 Y63.69
X99.881 Y63.864
X99.706 Y64.016
X99.532 Y64.151
X99.332 Y64.289
X99.141 Y64.407
X98.953 Y64.508
X98.925 Y64.522
X98.52 Y64.672
X98.096 Y64.751
X97.664 Y64.755
X97.239 Y64.684
X96.831 Y64.542
X96.454 Y64.331
X96.12 Y64.059
X95.837 Y63.733
X95.03 Y62.623
G3 X95.436 Y60.82 I1.053 J-0.71
G1 X99.206 Y58.588
G3 X100.853 Y58.899 I0.647 J1.093
G1 X101.683 Y60.041
X101.776 Y60.184
X101.851 Y60.314
X101.917 Y60.448
X101.975 Y60.587
X102.025 Y60.729
X102.07 Y60.885
X102.109 Y61.052
X102.14 Y61.227
X102.163 Y61.412
X102.175 Y61.607
X102.178 Y61.814
X102.169 Y62.026
X102.148 Y62.243
X102.114 Y62.465
X102.067 Y62.691
X102.006 Y62.922
X101.931 Y63.153
X101.841 Y63.386
X101.738 Y63.617
X101.62 Y63.846
X101.495 Y64.058
X101.364 Y64.257
X101.209 Y64.465
X101.058 Y64.647
X100.902 Y64.816
X100.723 Y64.989
X100.55 Y65.14
X100.375 Y65.275
X100.175 Y65.414
X99.985 Y65.531
X99.797 Y65.634
X99.744 Y65.659
X99.342 Y65.809
X98.919 Y65.888
X98.488 Y65.892
X98.064 Y65.823
X97.658 Y65.681
X97.282 Y65.471
X96.948 Y65.2
X96.666 Y64.875
X95.837 Y63.733
G3 X96.252 Y61.924 I1.053 J-0.71
G1 X100.045 Y59.725
G3 X101.683 Y60.041 I0.637 J1.099
G1 X102.55 Y61.235
X102.632 Y61.361
X102.704 Y61.492
X102.768 Y61.628
X102.823 Y61.768
X102.871 Y61.914
X102.914 Y62.071
X102.951 Y62.241
X102.979 Y62.422
X102.999 Y62.611
X103.009 Y62.807
X103.008 Y63.013
X102.995 Y63.228
X102.97 Y63.447
X102.932 Y63.672
X102.881 Y63.899
X102.816 Y64.128
X102.737 Y64.358
X102.643 Y64.589
X102.536 Y64.819
X102.414 Y65.045
X102.288 Y65.252
X102.146 Y65.458
X101.991 Y65.66
X101.841 Y65.835
X101.675 Y66.008
X101.496 Y66.176
X101.325 Y66.319
X101.14 Y66.458
X100.941 Y66.591
X100.754 Y66.702
X100.556 Y66.805
X100.531 Y66.817
X100.131 Y66.959
X99.713 Y67.031
X99.289 Y67.03
X98.871 Y66.958
X98.471 Y66.815
X98.102 Y66.606
X97.774 Y66.338
X97.496 Y66.017
X96.666 Y64.875
G3 X97.098 Y63.057 I1.053 J-0.71
G1 X100.928 Y60.909
G3 X102.175 Y60.912 I0.621 J1.108
X102.55 Y61.235 I-0.625 J1.105
G1 X103.343 Y62.326
X103.436 Y62.468
X103.511 Y62.598
X103.577 Y62.732
X103.634 Y62.871
X103.685 Y63.015
X103.729 Y63.17
X103.767 Y63.335
X103.798 Y63.509
X103.82 Y63.696
X103.833 Y63.892
X103.835 Y64.096
X103.826 Y64.306
X103.805 Y64.522
X103.771 Y64.744
X103.723 Y64.971
X103.662 Y65.201
X103.586 Y65.432
X103.497 Y65.664
X103.393 Y65.894
X103.275 Y66.121
X103.147 Y66.339
X103.017 Y66.536
X102.861 Y66.744
X102.706 Y66.93
X102.552 Y67.096
X102.372 Y67.27
X102.196 Y67.423
X102.023 Y67.557
X101.823 Y67.695
X101.63 Y67.814
X101.443 Y67.915
X101.388 Y67.941
X100.987 Y68.09
X100.566 Y68.168
X100.138 Y68.172
X99.716 Y68.102
X99.312 Y67.961
X98.938 Y67.752
X98.606 Y67.482
X98.326 Y67.159
X97.496 Y66.017
G3 X97.912 Y64.208 I1.053 J-0.71
G1 X101.705 Y62.009
G3 X102.967 Y62.002 I0.637 J1.099
X103.343 Y62.326 I-0.625 J1.105
G1 X104.173 Y63.469
X104.261 Y63.604
X104.336 Y63.733
X104.402 Y63.868
X104.46 Y64.007
X104.51 Y64.148
X104.555 Y64.304
X104.594 Y64.47
X104.624 Y64.645
X104.647 Y64.83
X104.659 Y65.024
X104.662 Y65.23
X104.653 Y65.441
X104.632 Y65.658
X104.598 Y65.879
X104.551 Y66.105
X104.49 Y66.334
X104.415 Y66.565
X104.326 Y66.798
X104.222 Y67.029
X104.104 Y67.257
X103.978 Y67.471
X103.846 Y67.671
X103.69 Y67.88
X103.538 Y68.064
X103.381 Y68.233
X103.201 Y68.407
X103.027 Y68.558
X102.852 Y68.694
X102.652 Y68.833
X102.461 Y68.95
X102.272 Y69.053
X102.058 Y69.155
X101.674 Y69.276
X101.276 Y69.332
X100.874 Y69.321
X100.479 Y69.244
X100.103 Y69.102
X99.755 Y68.9
X99.445 Y68.643
X99.183 Y68.338
X98.326 Y67.159
G3 X98.742 Y65.35 I1.053 J-0.71
G1 X102.536 Y63.152
G3 X103.798 Y63.145 I0.637 J1.099
X104.173 Y63.469 I-0.625 J1.105
G1 X105.014 Y64.626
X105.096 Y64.751
X105.17 Y64.882
X105.235 Y65.017
X105.292 Y65.156
X105.341 Y65.298
X105.386 Y65.453
X105.424 Y65.621
X105.454 Y65.798
X105.476 Y65.983
X105.488 Y66.178
X105.489 Y66.384
X105.479 Y66.597
X105.457 Y66.815
X105.422 Y67.037
X105.374 Y67.263
X105.312 Y67.492
X105.236 Y67.722
X105.145 Y67.955
X105.04 Y68.186
X104.921 Y68.414
X104.788 Y68.639
X104.65 Y68.845
X104.503 Y69.04
X104.339 Y69.236
X104.18 Y69.406
X104.008 Y69.571
X103.824 Y69.729
X103.648 Y69.864
X103.456 Y69.996
X103.257 Y70.118
X103.069 Y70.219
X103.045 Y70.23
X102.643 Y70.378
X102.223 Y70.454
X101.795 Y70.457
X101.373 Y70.387
X100.97 Y70.245
X100.597 Y70.036
X100.266 Y69.766
X99.985 Y69.443
X99.183 Y68.338
G3 X99.592 Y66.533 I1.053 J-0.71
G1 X103.37 Y64.313
G3 X104.639 Y64.302 I0.644 J1.095
X105.014 Y64.626 I-0.625 J1.105
G1 X105.832 Y65.752
X105.916 Y65.881
X105.991 Y66.011
X106.057 Y66.145
X106.115 Y66.284
X106.165 Y66.426
X106.21 Y66.582
X106.248 Y66.748
X106.279 Y66.923
X106.301 Y67.108
X106.314 Y67.305
X106.317 Y67.511
X106.307 Y67.723
X106.286 Y67.941
X106.252 Y68.163
X106.205 Y68.391
X106.143 Y68.622
X106.068 Y68.855
X105.978 Y69.088
X105.873 Y69.32
X105.755 Y69.549
X105.629 Y69.763
X105.498 Y69.962
X105.343 Y70.17
X105.19 Y70.353
X105.035 Y70.521
X104.855 Y70.695
X104.681 Y70.845
X104.507 Y70.98
X104.308 Y71.119
X104.117 Y71.236
X103.929 Y71.338
X103.873 Y71.365
X103.472 Y71.514
X103.052 Y71.592
X102.625 Y71.596
X102.203 Y71.527
X101.8 Y71.386
X101.427 Y71.178
X101.095 Y70.908
X100.815 Y70.585
X99.985 Y69.443
G3 X100.401 Y67.635 I1.053 J-0.71
G1 X104.194 Y65.435
G3 X105.832 Y65.752 I0.637 J1.099
G1 X106.657 Y66.888
X106.744 Y67.02
X106.819 Y67.15
X106.885 Y67.285
X106.943 Y67.423
X106.993 Y67.565
X107.038 Y67.721
X107.077 Y67.888
X107.108 Y68.064
X107.13 Y68.249
X107.143 Y68.444
X107.146 Y68.65
X107.137 Y68.862
X107.116 Y69.079
X107.083 Y69.3
X107.036 Y69.526
X106.975 Y69.756
X106.9 Y69.986
X106.81 Y70.219
X106.707 Y70.45
X106.589 Y70.678
X106.464 Y70.893
X106.331 Y71.093
X106.176 Y71.302
X106.023 Y71.486
X105.867 Y71.655
X105.687 Y71.829
X105.513 Y71.98
X105.338 Y72.116
X105.138 Y72.255
X104.948 Y72.373
X104.759 Y72.475
X104.698 Y72.504
X104.299 Y72.654
X103.879 Y72.732
X103.452 Y72.736
X103.031 Y72.667
X102.628 Y72.527
X102.256 Y72.319
X101.925 Y72.05
X101.645 Y71.727
X100.815 Y70.585
G3 X101.229 Y68.778 I1.053 J-0.71
G1 X105.018 Y66.572
G3 X106.657 Y66.888 I0.639 J1.098
G1 X107.515 Y68.068
X107.597 Y68.193
X107.669 Y68.325
X107.733 Y68.461
X107.788 Y68.6
X107.837 Y68.745
X107.88 Y68.901
X107.917 Y69.072
X107.946 Y69.252
X107.965 Y69.44
X107.975 Y69.636
Y69.842
X107.963 Y70.057
X107.938 Y70.276
X107.9 Y70.501
X107.85 Y70.728
X107.785 Y70.958
X107.707 Y71.188
X107.614 Y71.419
X107.506 Y71.65
X107.385 Y71.877
X107.258 Y72.086
X107.117 Y72.292
X106.961 Y72.495
X106.81 Y72.672
X106.645 Y72.845
X106.465 Y73.014
X106.294 Y73.158
X106.11 Y73.297
X105.912 Y73.43
X105.724 Y73.542
X105.528 Y73.645
X105.492 Y73.661
X105.095 Y73.803
X104.679 Y73.876
X104.257
X103.842 Y73.804
X103.445 Y73.662
X103.077 Y73.455
X102.751 Y73.188
X102.475 Y72.869
X101.645 Y71.727
G3 X102.07 Y69.913 I1.053 J-0.71
G1 X105.887 Y67.745
G3 X107.515 Y68.068 I0.627 J1.104
G1 X108.307 Y69.158
X108.403 Y69.305
X108.478 Y69.435
X108.544 Y69.569
X108.601 Y69.708
X108.651 Y69.852
X108.697 Y70.007
X108.735 Y70.172
X108.765 Y70.347
X108.787 Y70.533
X108.8 Y70.73
X108.802 Y70.934
X108.793 Y71.145
X108.772 Y71.361
X108.738 Y71.583
X108.69 Y71.811
X108.629 Y72.042
X108.553 Y72.273
X108.464 Y72.505
X108.36 Y72.735
X108.242 Y72.963
X108.114 Y73.181
X107.982 Y73.379
X107.827 Y73.588
X107.672 Y73.774
X107.517 Y73.941
X107.337 Y74.115
X107.161 Y74.267
X106.987 Y74.402
X106.788 Y74.54
X106.595 Y74.658
X106.408 Y74.76
X106.347 Y74.788
X105.948 Y74.936
X105.53 Y75.014
X105.105 Y75.018
X104.686 Y74.949
X104.284 Y74.808
X103.913 Y74.601
X103.583 Y74.333
X103.304 Y74.011
X102.475 Y72.869
G3 X102.884 Y71.064 I1.053 J-0.71
G1 X106.663 Y68.845
G3 X108.307 Y69.158 I0.643 J1.095
G1 X109.126 Y70.286
X109.229 Y70.443
X109.304 Y70.573
X109.37 Y70.707
X109.428 Y70.846
X109.477 Y70.987
X109.522 Y71.143
X109.561 Y71.31
X109.592 Y71.485
X109.614 Y71.669
X109.627 Y71.864
X109.63 Y72.07
X109.62 Y72.282
X109.599 Y72.499
X109.566 Y72.72
X109.519 Y72.946
X109.458 Y73.176
X109.383 Y73.407
X109.293 Y73.64
X109.189 Y73.871
X109.071 Y74.099
X108.945 Y74.315
X108.812 Y74.515
X108.656 Y74.725
X108.504 Y74.909
X108.347 Y75.078
X108.166 Y75.252
X107.993 Y75.403
X107.818 Y75.539
X107.618 Y75.678
X107.427 Y75.795
X107.239 Y75.898
X107.024 Y76
X106.642 Y76.121
X106.245 Y76.176
X105.844 Y76.166
X105.45 Y76.089
X105.075 Y75.948
X104.728 Y75.746
X104.42 Y75.49
X104.158 Y75.186
X103.304 Y74.011
G3 X103.71 Y72.209 I1.053 J-0.71
G1 X107.478 Y69.975
G3 X108.751 Y69.962 I0.648 J1.092
X109.126 Y70.286 I-0.625 J1.105
G1 X109.981 Y71.462
X110.063 Y71.587
X110.137 Y71.718
X110.202 Y71.853
X110.26 Y71.991
X110.309 Y72.133
X110.354 Y72.289
X110.392 Y72.457
X110.423 Y72.634
X110.444 Y72.819
X110.457 Y73.014
X110.458 Y73.22
X110.448 Y73.433
X110.427 Y73.651
X110.392 Y73.873
X110.344 Y74.1
X110.282 Y74.329
X110.207 Y74.56
X110.116 Y74.793
X110.011 Y75.024
X109.892 Y75.253
X109.759 Y75.478
X109.621 Y75.684
X109.476 Y75.879
X109.311 Y76.076
X109.152 Y76.247
X108.981 Y76.411
X108.796 Y76.57
X108.621 Y76.706
X108.429 Y76.838
X108.23 Y76.959
X108.042 Y77.061
X108.009 Y77.076
X107.61 Y77.224
X107.191 Y77.301
X106.765 Y77.304
X106.346 Y77.234
X105.944 Y77.093
X105.573 Y76.886
X105.243 Y76.617
X104.964 Y76.296
X104.158 Y75.186
G3 X104.564 Y73.383 I1.053 J-0.71
G1 X108.333 Y71.151
G3 X109.981 Y71.462 I0.647 J1.093
G1 X110.81 Y72.604
X110.892 Y72.73
X110.967 Y72.86
X111.032 Y72.995
X111.089 Y73.134
X111.138 Y73.276
X111.183 Y73.432
X111.221 Y73.6
X111.252 Y73.777
X111.273 Y73.963
X111.285 Y74.16
X111.287 Y74.367
X111.277 Y74.581
X111.255 Y74.8
X111.22 Y75.023
X111.171 Y75.25
X111.109 Y75.481
X111.032 Y75.714
X110.941 Y75.947
X110.836 Y76.18
X110.716 Y76.409
X110.59 Y76.622
X110.456 Y76.822
X110.3 Y77.03
X110.148 Y77.211
X109.991 Y77.38
X109.81 Y77.553
X109.637 Y77.701
X109.461 Y77.837
X109.261 Y77.974
X109.072 Y78.09
X108.882 Y78.192
X108.828 Y78.217
X108.43 Y78.364
X108.013 Y78.44
X107.589 Y78.443
X107.17 Y78.374
X106.77 Y78.233
X106.4 Y78.026
X106.072 Y77.758
X105.794 Y77.438
X104.964 Y76.296
G3 X105.38 Y74.487 I1.053 J-0.71
G1 X109.172 Y72.287
G3 X110.81 Y72.604 I0.637 J1.099
G1 X111.628 Y73.729
X111.715 Y73.862
X111.79 Y73.992
X111.856 Y74.127
X111.914 Y74.265
X111.964 Y74.408
X112.009 Y74.565
X112.048 Y74.731
X112.079 Y74.907
X112.101 Y75.092
X112.114 Y75.288
X112.117 Y75.494
X112.108 Y75.706
X112.087 Y75.923
X112.053 Y76.144
X112.006 Y76.372
X111.945 Y76.602
X111.87 Y76.833
X111.78 Y77.066
X111.676 Y77.297
X111.559 Y77.525
X111.432 Y77.741
X111.3 Y77.94
X111.144 Y78.15
X110.991 Y78.335
X110.835 Y78.503
X110.654 Y78.678
X110.48 Y78.829
X110.306 Y78.965
X110.106 Y79.103
X109.915 Y79.221
X109.727 Y79.323
X109.663 Y79.354
X109.265 Y79.502
X108.847 Y79.58
X108.423 Y79.584
X108.003 Y79.516
X107.602 Y79.375
X107.231 Y79.168
X106.902 Y78.9
X106.623 Y78.58
X105.794 Y77.438
G3 X106.204 Y75.632 I1.053 J-0.71
G1 X109.985 Y73.415
G3 X111.628 Y73.729 I0.642 J1.096
G1 X112.479 Y74.9
X112.561 Y75.026
X112.634 Y75.157
X112.698 Y75.292
X112.755 Y75.432
X112.803 Y75.575
X112.847 Y75.732
X112.885 Y75.901
X112.914 Y76.08
X112.935 Y76.267
X112.946 Y76.462
Y76.669
X112.935 Y76.884
X112.912 Y77.103
X112.875 Y77.326
X112.826 Y77.553
X112.762 Y77.783
X112.685 Y78.013
X112.593 Y78.246
X112.486 Y78.477
X112.366 Y78.705
X112.239 Y78.916
X112.101 Y79.12
X111.944 Y79.326
X111.792 Y79.506
X111.63 Y79.677
X111.45 Y79.848
X111.278 Y79.995
X111.097 Y80.132
X110.898 Y80.267
X110.709 Y80.381
X110.516 Y80.484
X110.468 Y80.506
X110.072 Y80.649
X109.657 Y80.723
X109.236 Y80.724
X108.82 Y80.654
X108.423 Y80.513
X108.056 Y80.307
X107.729 Y80.04
X107.453 Y79.722
X106.623 Y78.58
G3 X107.043 Y76.769 I1.053 J-0.71
G1 X110.845 Y74.581
G3 X112.479 Y74.9 I0.633 J1.101
G1 X113.317 Y76.053
X113.399 Y76.179
X113.471 Y76.311
X113.534 Y76.446
X113.59 Y76.586
X113.638 Y76.731
X113.681 Y76.889
X113.718 Y77.06
X113.747 Y77.239
X113.766 Y77.426
X113.776 Y77.624
X113.775 Y77.832
X113.763 Y78.047
X113.738 Y78.266
X113.7 Y78.49
X113.649 Y78.717
X113.584 Y78.947
X113.505 Y79.178
X113.411 Y79.411
X113.303 Y79.642
X113.181 Y79.87
X113.052 Y80.082
X112.914 Y80.282
X112.756 Y80.488
X112.603 Y80.667
X112.441 Y80.836
X112.26 Y81.006
X112.086 Y81.152
X111.905 Y81.288
X111.705 Y81.422
X111.516 Y81.534
X111.322 Y81.636
X111.284 Y81.653
X110.889 Y81.794
X110.475 Y81.866
X110.056 Y81.865
X109.643 Y81.794
X109.247 Y81.653
X108.882 Y81.446
X108.558 Y81.181
X108.283 Y80.864
X107.453 Y79.722
G3 X107.876 Y77.909 I1.053 J-0.71
G1 X111.686 Y75.733
G3 X113.317 Y76.053 I0.63 J1.103
G1 X114.119 Y77.158
X114.204 Y77.288
X114.279 Y77.417
X114.345 Y77.552
X114.402 Y77.691
X114.453 Y77.835
X114.498 Y77.991
X114.536 Y78.155
X114.567 Y78.33
X114.589 Y78.518
X114.602 Y78.715
X114.604 Y78.919
X114.595 Y79.13
X114.574 Y79.346
X114.539 Y79.569
X114.492 Y79.797
X114.43 Y80.028
X114.355 Y80.26
X114.265 Y80.492
X114.161 Y80.722
X114.043 Y80.95
X113.914 Y81.169
X113.783 Y81.367
X113.627 Y81.576
X113.472 Y81.763
X113.317 Y81.93
X113.137 Y82.104
X112.96 Y82.257
X112.787 Y82.391
X112.588 Y82.529
X112.395 Y82.648
X112.242 Y82.73
X111.888 Y82.887
X111.514 Y82.985
X111.128 Y83.023
X110.742 Y82.999
X110.364 Y82.913
X110.005 Y82.769
X109.673 Y82.569
X109.378 Y82.318
X109.126 Y82.024
X108.283 Y80.864
G3 X108.694 Y79.057 I1.053 J-0.71
G1 X112.477 Y76.844
G3 X114.119 Y77.158 I0.641 J1.096
G1 X114.959 Y78.314
X115.041 Y78.44
X115.115 Y78.57
X115.18 Y78.705
X115.237 Y78.844
X115.286 Y78.987
X115.33 Y79.143
X115.368 Y79.312
X115.398 Y79.489
X115.42 Y79.675
X115.431 Y79.871
X115.433 Y80.077
X115.422 Y80.291
X115.4 Y80.51
X115.364 Y80.732
X115.316 Y80.959
X115.253 Y81.189
X115.177 Y81.42
X115.085 Y81.653
X114.98 Y81.884
X114.862 Y82.11
X114.734 Y82.324
X114.587 Y82.544
X114.442 Y82.736
X114.284 Y82.924
X114.115 Y83.104
X113.952 Y83.26
X113.767 Y83.419
X113.582 Y83.56
X113.402 Y83.684
X113.198 Y83.808
X113.002 Y83.913
X112.969 Y83.928
X112.572 Y84.074
X112.155 Y84.149
X111.732 Y84.152
X111.315 Y84.082
X110.916 Y83.941
X110.547 Y83.734
X110.219 Y83.467
X109.942 Y83.148
X109.126 Y82.024
G3 X109.536 Y80.219 I1.053 J-0.71
G1 X113.315 Y78.001
G3 X114.584 Y77.991 I0.643 J1.095
X114.959 Y78.314 I-0.625 J1.105
G1 X115.789 Y79.456
X115.871 Y79.582
X115.945 Y79.712
X116.01 Y79.847
X116.066 Y79.986
X116.115 Y80.129
X116.16 Y80.287
X116.198 Y80.455
X116.228 Y80.632
X116.249 Y80.818
X116.261 Y81.016
X116.262 Y81.223
X116.251 Y81.436
X116.228 Y81.655
X116.193 Y81.879
X116.144 Y82.105
X116.081 Y82.336
X116.003 Y82.57
X115.912 Y82.802
X115.806 Y83.034
X115.686 Y83.263
X115.558 Y83.477
X115.424 Y83.677
X115.267 Y83.885
X115.114 Y84.066
X114.956 Y84.235
X114.775 Y84.407
X114.602 Y84.556
X114.425 Y84.691
X114.225 Y84.828
X114.035 Y84.943
X113.845 Y85.045
X113.792 Y85.07
X113.395 Y85.215
X112.98 Y85.29
X112.558 Y85.292
X112.142 Y85.222
X111.744 Y85.082
X111.376 Y84.875
X111.049 Y84.609
X110.772 Y84.29
X109.942 Y83.148
G3 X110.358 Y81.339 I1.053 J-0.71
G1 X114.151 Y79.139
G3 X115.789 Y79.456 I0.637 J1.099
G1 X116.598 Y80.571
X116.689 Y80.71
X116.765 Y80.84
X116.831 Y80.975
X116.888 Y81.113
X116.938 Y81.256
X116.984 Y81.413
X117.022 Y81.579
X117.053 Y81.754
X117.076 Y81.94
X117.089 Y82.136
X117.091 Y82.342
X117.082 Y82.554
X117.061 Y82.771
X117.027 Y82.992
X116.98 Y83.22
X116.918 Y83.45
X116.843 Y83.682
X116.753 Y83.915
X116.649 Y84.146
X116.532 Y84.374
X116.404 Y84.591
X116.272 Y84.79
X116.116 Y85
X115.962 Y85.185
X115.807 Y85.353
X115.626 Y85.528
X115.451 Y85.679
X115.277 Y85.815
X115.077 Y85.953
X114.886 Y86.071
X114.698 Y86.173
X114.633 Y86.204
X114.236 Y86.352
X113.819 Y86.429
X113.396 Y86.434
X112.978 Y86.365
X112.578 Y86.225
X112.208 Y86.019
X111.879 Y85.752
X111.602 Y85.432
X110.772 Y84.29
G3 X111.179 Y82.486 I1.053 J-0.71
G1 X114.952 Y80.259
G3 X116.598 Y80.571 I0.646 J1.094
G1 X117.443 Y81.733
X117.525 Y81.859
X117.599 Y81.989
X117.665 Y82.124
X117.722 Y82.263
X117.771 Y82.405
X117.816 Y82.561
X117.854 Y82.729
X117.885 Y82.906
X117.907 Y83.092
X117.919 Y83.287
X117.921 Y83.493
X117.911 Y83.707
X117.889 Y83.925
X117.854 Y84.147
X117.806 Y84.374
X117.744 Y84.604
X117.668 Y84.835
X117.578 Y85.068
X117.472 Y85.299
X117.354 Y85.528
X117.227 Y85.742
X117.092 Y85.944
X116.936 Y86.153
X116.783 Y86.335
X116.624 Y86.505
X116.444 Y86.679
X116.27 Y86.828
X116.093 Y86.965
X115.894 Y87.102
X115.704 Y87.218
X115.514 Y87.321
X115.453 Y87.349
X115.057 Y87.495
X114.641 Y87.571
X114.219 Y87.575
X113.803 Y87.506
X113.404 Y87.366
X113.036 Y87.159
X112.708 Y86.893
X112.431 Y86.574
X111.602 Y85.432
G3 X112.015 Y83.624 I1.053 J-0.71
G1 X115.803 Y81.418
G3 X117.068 Y81.41 I0.639 J1.097
X117.443 Y81.733 I-0.625 J1.105
G1 X118.269 Y82.87
X118.351 Y82.996
X118.426 Y83.126
X118.492 Y83.261
X118.549 Y83.399
X118.599 Y83.541
X118.644 Y83.698
X118.682 Y83.865
X118.713 Y84.041
X118.735 Y84.226
X118.747 Y84.422
X118.75 Y84.628
X118.74 Y84.841
X118.719 Y85.058
X118.684 Y85.28
X118.637 Y85.507
X118.575 Y85.737
X118.499 Y85.969
X118.409 Y86.202
X118.305 Y86.433
X118.186 Y86.662
X118.059 Y86.877
X117.926 Y87.078
X117.769 Y87.288
X117.616 Y87.472
X117.459 Y87.641
X117.278 Y87.815
X117.104 Y87.965
X116.928 Y88.101
X116.728 Y88.239
X116.538 Y88.356
X116.349 Y88.459
X116.135 Y88.56
X115.754 Y88.679
X115.36 Y88.734
X114.961 Y88.723
X114.57 Y88.646
X114.196 Y88.505
X113.852 Y88.305
X113.545 Y88.05
X113.285 Y87.748
X112.431 Y86.574
G3 X112.844 Y84.767 I1.053 J-0.71
G1 X116.627 Y82.556
G3 X118.269 Y82.87 I0.641 J1.096
G1 X119.113 Y84.031
X119.195 Y84.157
X119.268 Y84.288
X119.332 Y84.423
X119.388 Y84.562
X119.436 Y84.706
X119.48 Y84.863
X119.518 Y85.033
X119.547 Y85.212
X119.568 Y85.399
X119.578 Y85.595
X119.579 Y85.802
X119.567 Y86.017
X119.543 Y86.236
X119.507 Y86.46
X119.457 Y86.687
X119.393 Y86.917
X119.315 Y87.148
X119.223 Y87.38
X119.116 Y87.612
X118.995 Y87.84
X118.859 Y88.065
X118.721 Y88.269
X118.572 Y88.466
X118.407 Y88.659
X118.248 Y88.827
X118.073 Y88.993
X117.89 Y89.148
X117.714 Y89.281
X117.519 Y89.414
X117.321 Y89.533
X117.134 Y89.632
X117.108 Y89.644
X116.711 Y89.787
X116.296 Y89.861
X115.874 Y89.862
X115.459 Y89.791
X115.061 Y89.65
X114.694 Y89.443
X114.367 Y89.177
X114.091 Y88.858
X113.285 Y87.748
G3 X113.693 Y85.944 I1.053 J-0.71
G1 X117.467 Y83.719
G3 X119.113 Y84.031 I0.645 J1.094
G1 X119.937 Y85.166
X120.019 Y85.292
X120.093 Y85.423
X120.158 Y85.558
X120.214 Y85.697
X120.263 Y85.841
X120.308 Y85.999
X120.345 Y86.167
X120.375 Y86.344
X120.396 Y86.532
X120.407 Y86.731
X120.408 Y86.938
X120.397 Y87.152
X120.374 Y87.372
X120.338 Y87.595
X120.288 Y87.823
X120.224 Y88.056
X120.147 Y88.289
X120.054 Y88.522
X119.948 Y88.754
X119.827 Y88.983
X119.699 Y89.197
X119.565 Y89.395
X119.408 Y89.603
X119.255 Y89.784
X119.097 Y89.952
X118.916 Y90.124
X118.742 Y90.272
X118.566 Y90.407
X118.366 Y90.543
X118.176 Y90.658
X117.986 Y90.759
X117.936 Y90.782
X117.54 Y90.926
X117.125 Y91
X116.704 Y91.002
X116.288 Y90.932
X115.891 Y90.791
X115.523 Y90.585
X115.197 Y90.318
X114.921 Y90
X114.091 Y88.858
G3 X114.507 Y87.049 I1.053 J-0.71
G1 X118.3 Y84.85
G3 X119.937 Y85.166 I0.637 J1.099
G1 X120.76 Y86.298
X120.842 Y86.424
X120.916 Y86.554
X120.982 Y86.689
X121.039 Y86.828
X121.089 Y86.972
X121.134 Y87.129
X121.173 Y87.296
X121.203 Y87.472
X121.225 Y87.659
X121.237 Y87.856
X121.239 Y88.063
X121.229 Y88.275
X121.207 Y88.493
X121.173 Y88.715
X121.125 Y88.943
X121.063 Y89.173
X120.986 Y89.405
X120.896 Y89.638
X120.791 Y89.869
X120.672 Y90.097
X120.545 Y90.313
X120.412 Y90.512
X120.256 Y90.721
X120.101 Y90.906
X119.945 Y91.073
X119.764 Y91.247
X119.589 Y91.398
X119.414 Y91.533
X119.214 Y91.67
X119.023 Y91.787
X118.835 Y91.889
X118.774 Y91.918
X118.378 Y92.064
X117.962 Y92.14
X117.54 Y92.144
X117.123 Y92.074
X116.724 Y91.934
X116.355 Y91.728
X116.027 Y91.461
X115.75 Y91.142
X114.921 Y90
G3 X115.333 Y88.193 I1.053 J-0.71
G1 X119.119 Y85.983
G3 X120.76 Y86.298 I0.64 J1.097
G1 X121.569 Y87.412
X121.667 Y87.561
X121.742 Y87.691
X121.808 Y87.826
X121.865 Y87.964
X121.915 Y88.106
X121.961 Y88.263
X121.999 Y88.429
X122.03 Y88.605
X122.053 Y88.79
X122.066 Y88.985
X122.068 Y89.191
X122.059 Y89.403
X122.038 Y89.621
X122.004 Y89.842
X121.957 Y90.069
X121.896 Y90.299
X121.821 Y90.531
X121.731 Y90.764
X121.627 Y90.995
X121.509 Y91.223
X121.383 Y91.439
X121.25 Y91.639
X121.094 Y91.85
X120.94 Y92.035
X120.784 Y92.203
X120.604 Y92.378
X120.429 Y92.529
X120.255 Y92.665
X120.055 Y92.804
X119.864 Y92.921
X119.676 Y93.023
X119.609 Y93.055
X119.212 Y93.203
X118.796 Y93.281
X118.373 Y93.285
X117.955 Y93.217
X117.556 Y93.077
X117.186 Y92.871
X116.858 Y92.604
X116.58 Y92.284
X115.75 Y91.142
G3 X116.154 Y89.34 I1.053 J-0.71
G1 X119.919 Y87.102
G3 X121.569 Y87.412 I0.649 J1.092
G1 X122.407 Y88.566
X122.495 Y88.701
X122.571 Y88.831
X122.637 Y88.965
X122.694 Y89.104
X122.744 Y89.245
X122.789 Y89.401
X122.828 Y89.568
X122.859 Y89.744
X122.882 Y89.928
X122.895 Y90.123
X122.897 Y90.33
X122.888 Y90.542
X122.867 Y90.759
X122.834 Y90.981
X122.787 Y91.207
X122.726 Y91.438
X122.651 Y91.669
X122.561 Y91.902
X122.457 Y92.134
X122.339 Y92.362
X122.213 Y92.578
X122.08 Y92.779
X121.924 Y92.989
X121.77 Y93.174
X121.614 Y93.343
X121.433 Y93.518
X121.259 Y93.669
X121.084 Y93.805
X120.884 Y93.944
X120.694 Y94.061
X120.506 Y94.164
X120.292 Y94.266
X119.91 Y94.387
X119.514 Y94.442
X119.114 Y94.432
X118.721 Y94.355
X118.346 Y94.214
X118 Y94.013
X117.692 Y93.758
X117.431 Y93.455
X116.58 Y92.284
G3 X116.988 Y90.48 I1.053 J-0.71
G1 X120.761 Y88.254
G3 X122.407 Y88.566 I0.645 J1.094
G1 X123.222 Y89.687
X123.324 Y89.843
X123.399 Y89.973
X123.465 Y90.108
X123.523 Y90.246
X123.573 Y90.388
X123.618 Y90.543
X123.657 Y90.71
X123.688 Y90.886
X123.71 Y91.071
X123.723 Y91.266
X123.725 Y91.472
X123.716 Y91.684
X123.695 Y91.901
X123.662 Y92.123
X123.615 Y92.35
X123.554 Y92.58
X123.479 Y92.811
X123.389 Y93.044
X123.285 Y93.276
X123.167 Y93.504
X123.035 Y93.729
X122.897 Y93.938
X122.753 Y94.132
X122.588 Y94.33
X122.429 Y94.502
X122.26 Y94.666
X122.075 Y94.826
X121.899 Y94.963
X121.709 Y95.095
X121.51 Y95.218
X121.35 Y95.305
X120.955 Y95.476
X120.536 Y95.573
X120.106 Y95.594
X119.679 Y95.537
X119.269 Y95.405
X118.889 Y95.201
X118.553 Y94.933
X118.269 Y94.609
X117.431 Y93.455
G3 X117.823 Y91.66 I1.053 J-0.71
G1 X121.56 Y89.384
G3 X122.846 Y89.363 I0.661 J1.085
X123.222 Y89.687 I-0.625 J1.105
G1 X124.086 Y90.877
X124.168 Y91.002
X124.241 Y91.133
X124.306 Y91.268
X124.362 Y91.407
X124.411 Y91.551
X124.455 Y91.707
X124.493 Y91.877
X124.523 Y92.056
X124.544 Y92.243
X124.555 Y92.44
Y92.647
X124.544 Y92.863
X124.521 Y93.083
X124.485 Y93.307
X124.435 Y93.535
X124.372 Y93.766
X124.294 Y93.998
X124.202 Y94.231
X124.095 Y94.463
X123.975 Y94.69
X123.848 Y94.902
X123.698 Y95.125
X123.549 Y95.321
X123.399 Y95.499
X123.223 Y95.685
X123.052 Y95.847
X122.884 Y95.991
X122.689 Y96.14
X122.499 Y96.269
X122.317 Y96.378
X122.109 Y96.489
X122.096 Y96.495
X121.698 Y96.64
X121.282 Y96.714
X120.859 Y96.716
X120.442 Y96.645
X120.043 Y96.504
X119.674 Y96.297
X119.347 Y96.03
X119.069 Y95.71
X118.269 Y94.609
G3 X118.672 Y92.807 I1.053 J-0.71
G1 X122.436 Y90.567
G3 X124.086 Y90.877 I0.65 J1.091
G1 X124.916 Y92.019
X124.998 Y92.144
X125.071 Y92.275
X125.136 Y92.41
X125.192 Y92.549
X125.242 Y92.693
X125.286 Y92.852
X125.324 Y93.021
X125.354 Y93.198
X125.375 Y93.385
X125.386 Y93.584
X125.387 Y93.793
X125.376 Y94.007
X125.352 Y94.226
X125.316 Y94.45
X125.267 Y94.679
X125.203 Y94.91
X125.125 Y95.144
X125.032 Y95.378
X124.926 Y95.61
X124.805 Y95.839
X124.678 Y96.052
X124.544 Y96.251
X124.387 Y96.458
X124.235 Y96.638
X124.076 Y96.806
X123.896 Y96.978
X123.723 Y97.125
X123.546 Y97.261
X123.346 Y97.397
X123.156 Y97.511
X122.966 Y97.612
X122.918 Y97.635
X122.521 Y97.779
X122.106 Y97.853
X121.684 Y97.855
X121.268 Y97.785
X120.87 Y97.644
X120.503 Y97.438
X120.176 Y97.171
X119.899 Y96.852
X119.069 Y95.71
G3 X119.485 Y93.901 I1.053 J-0.71
G1 X123.278 Y91.702
G3 X124.916 Y92.019 I0.637 J1.099
G1 X125.73 Y93.14
X125.816 Y93.27
X125.891 Y93.4
X125.957 Y93.535
X126.015 Y93.673
X126.065 Y93.817
X126.111 Y93.974
X126.149 Y94.14
X126.18 Y94.316
X126.203 Y94.502
X126.216 Y94.7
X126.218 Y94.905
X126.209 Y95.117
X126.188 Y95.334
X126.154 Y95.555
X126.107 Y95.783
X126.046 Y96.014
X125.97 Y96.246
X125.881 Y96.478
X125.777 Y96.709
X125.659 Y96.938
X125.532 Y97.154
X125.401 Y97.353
X125.245 Y97.563
X125.09 Y97.748
X124.935 Y97.916
X124.755 Y98.09
X124.58 Y98.242
X124.406 Y98.377
X124.206 Y98.516
X124.015 Y98.634
X123.827 Y98.736
X123.762 Y98.767
X123.365 Y98.915
X122.948 Y98.992
X122.524 Y98.997
X122.106 Y98.928
X121.706 Y98.788
X121.336 Y98.582
X121.007 Y98.314
X120.729 Y97.994
X119.899 Y96.852
G3 X120.308 Y95.047 I1.053 J-0.71
G1 X124.086 Y92.827
G3 X125.355 Y92.816 I0.644 J1.095
X125.73 Y93.14 I-0.625 J1.105
G1 X126.579 Y94.308
X126.661 Y94.433
X126.734 Y94.564
X126.799 Y94.699
X126.855 Y94.839
X126.904 Y94.982
X126.948 Y95.139
X126.986 Y95.308
X127.016 Y95.487
X127.037 Y95.674
X127.048 Y95.869
Y96.076
X127.037 Y96.29
X127.014 Y96.509
X126.978 Y96.733
X126.929 Y96.96
X126.866 Y97.19
X126.788 Y97.42
X126.697 Y97.653
X126.59 Y97.884
X126.47 Y98.112
X126.343 Y98.325
X126.206 Y98.528
X126.049 Y98.735
X125.897 Y98.915
X125.735 Y99.086
X125.555 Y99.257
X125.382 Y99.404
X125.203 Y99.542
X125.003 Y99.677
X124.814 Y99.791
X124.622 Y99.894
X124.571 Y99.918
X124.175 Y100.061
X123.761 Y100.135
X123.34 Y100.137
X122.925 Y100.067
X122.528 Y99.927
X122.161 Y99.72
X121.834 Y99.454
X121.559 Y99.136
X120.729 Y97.994
G3 X121.146 Y96.185 I1.053 J-0.71
G1 X124.943 Y93.99
G3 X126.579 Y94.308 I0.636 J1.1
G1 X127.412 Y95.455
X127.494 Y95.58
X127.567 Y95.711
X127.632 Y95.847
X127.688 Y95.986
X127.736 Y96.13
X127.78 Y96.288
X127.817 Y96.458
X127.847 Y96.636
X127.867 Y96.823
X127.878 Y97.02
Y97.228
X127.866 Y97.442
X127.842 Y97.661
X127.806 Y97.884
X127.756 Y98.111
X127.692 Y98.341
X127.613 Y98.573
X127.52 Y98.806
X127.413 Y99.037
X127.292 Y99.265
X127.164 Y99.478
X127.028 Y99.678
X126.87 Y99.886
X126.716 Y100.066
X126.556 Y100.235
X126.375 Y100.407
X126.201 Y100.554
X126.022 Y100.69
X125.822 Y100.825
X125.632 Y100.939
X125.44 Y101.04
X125.393 Y101.062
X124.998 Y101.205
X124.584 Y101.278
X124.164 Y101.279
X123.751 Y101.208
X123.355 Y101.067
X122.989 Y100.861
X122.663 Y100.596
X122.388 Y100.278
X121.559 Y99.136
G3 X121.977 Y97.326 I1.053 J-0.71
G1 X125.777 Y95.136
G3 X127.037 Y95.131 I0.634 J1.1
X127.412 Y95.455 I-0.625 J1.105
G1 X128.216 Y96.561
X128.306 Y96.698
X128.381 Y96.828
X128.447 Y96.963
X128.505 Y97.101
X128.555 Y97.245
X128.6 Y97.401
X128.638 Y97.567
X128.669 Y97.741
X128.691 Y97.928
X128.704 Y98.125
X128.706 Y98.33
X128.697 Y98.541
X128.676 Y98.758
X128.642 Y98.98
X128.594 Y99.208
X128.533 Y99.439
X128.457 Y99.671
X128.368 Y99.903
X128.264 Y100.134
X128.146 Y100.362
X128.018 Y100.58
X127.886 Y100.779
X127.73 Y100.988
X127.575 Y101.175
X127.419 Y101.342
X127.239 Y101.516
X127.063 Y101.669
X126.889 Y101.803
X126.69 Y101.942
X126.498 Y102.06
X126.358 Y102.135
X126.002 Y102.293
X125.625 Y102.392
X125.237 Y102.43
X124.848 Y102.406
X124.468 Y102.32
X124.106 Y102.174
X123.773 Y101.973
X123.475 Y101.721
X123.222 Y101.425
X122.388 Y100.278
G3 X122.796 Y98.474 I1.053 J-0.71
G1 X126.571 Y96.249
G3 X127.841 Y96.238 I0.645 J1.094
X128.216 Y96.561 I-0.625 J1.105
G1 X129.065 Y97.729
X129.147 Y97.854
X129.22 Y97.985
X129.285 Y98.12
X129.341 Y98.259
X129.39 Y98.402
X129.434 Y98.559
X129.472 Y98.728
X129.502 Y98.906
X129.523 Y99.093
X129.535 Y99.288
X129.536 Y99.495
X129.525 Y99.709
X129.502 Y99.928
X129.466 Y100.151
X129.417 Y100.378
X129.354 Y100.608
X129.277 Y100.839
X129.185 Y101.072
X129.079 Y101.303
X128.961 Y101.528
X128.833 Y101.742
X128.686 Y101.96
X128.543 Y102.15
X128.383 Y102.339
X128.215 Y102.517
X128.053 Y102.672
X127.867 Y102.831
X127.683 Y102.972
X127.503 Y103.095
X127.298 Y103.218
X127.103 Y103.323
X127.061 Y103.342
X126.665 Y103.487
X126.251 Y103.561
X125.83 Y103.563
X125.414 Y103.493
X125.017 Y103.353
X124.65 Y103.147
X124.324 Y102.881
X124.048 Y102.562
X123.222 Y101.425
G3 X123.636 Y99.617 I1.053 J-0.71
G1 X127.425 Y97.413
G3 X129.065 Y97.729 I0.639 J1.098
G1 X129.892 Y98.867
X129.974 Y98.993
X130.048 Y99.124
X130.113 Y99.259
X130.169 Y99.398
X130.219 Y99.541
X130.263 Y99.699
X130.301 Y99.867
X130.331 Y100.043
X130.352 Y100.229
X130.364 Y100.427
X130.365 Y100.634
X130.354 Y100.847
X130.331 Y101.066
X130.296 Y101.289
X130.247 Y101.515
X130.184 Y101.746
X130.107 Y101.979
X130.015 Y102.212
X129.909 Y102.443
X129.789 Y102.672
X129.661 Y102.887
X129.527 Y103.086
X129.37 Y103.295
X129.216 Y103.478
X129.058 Y103.646
X128.877 Y103.819
X128.703 Y103.968
X128.526 Y104.103
X128.326 Y104.24
X128.136 Y104.355
X127.946 Y104.457
X127.89 Y104.483
X127.495 Y104.627
X127.08 Y104.702
X126.659 Y104.704
X126.244 Y104.635
X125.847 Y104.495
X125.48 Y104.289
X125.153 Y104.023
X124.878 Y103.704
X124.048 Y102.562
G3 X124.463 Y100.754 I1.053 J-0.71
G1 X128.253 Y98.551
G3 X129.892 Y98.867 I0.638 J1.098
G1 X130.701 Y99.981
X130.792 Y100.121
X130.867 Y100.251
X130.934 Y100.386
X130.991 Y100.524
X131.041 Y100.667
X131.087 Y100.824
X131.125 Y100.99
X131.156 Y101.165
X131.178 Y101.35
X131.191 Y101.547
X131.194 Y101.753
X131.185 Y101.965
X131.163 Y102.182
X131.13 Y102.403
X131.082 Y102.631
X131.021 Y102.861
X130.945 Y103.093
X130.856 Y103.326
X130.752 Y103.557
X130.634 Y103.786
X130.506 Y104.003
X130.374 Y104.202
X130.218 Y104.412
X130.064 Y104.598
X129.908 Y104.766
X129.727 Y104.94
X129.552 Y105.092
X129.378 Y105.227
X129.178 Y105.366
X128.987 Y105.484
X128.799 Y105.586
X128.732 Y105.617
X128.336 Y105.765
X127.92 Y105.842
X127.498 Y105.847
X127.081 Y105.778
X126.681 Y105.639
X126.312 Y105.432
X125.984 Y105.166
X125.707 Y104.847
X124.878 Y103.704
G3 X124.686 Y103.247 I1.053 J-0.71
X125.284 Y101.901 I1.245 J-0.253
G1 X129.053 Y99.67
G3 X130.701 Y99.981 I0.647 J1.093
G1 X131.543 Y101.14
X131.625 Y101.266
X131.7 Y101.396
X131.765 Y101.531
X131.823 Y101.669
X131.872 Y101.811
X131.917 Y101.968
X131.956 Y102.135
X131.987 Y102.312
X132.009 Y102.497
X132.021 Y102.692
X132.023 Y102.899
X132.014 Y103.112
X131.992 Y103.33
X131.958 Y103.552
X131.91 Y103.778
X131.848 Y104.009
X131.773 Y104.24
X131.683 Y104.473
X131.578 Y104.705
X131.459 Y104.933
X131.333 Y105.148
X131.199 Y105.35
X131.042 Y105.56
X130.889 Y105.743
X130.731 Y105.913
X130.55 Y106.087
X130.377 Y106.237
X130.201 Y106.373
X130.001 Y106.511
X129.811 Y106.628
X129.622 Y106.73
X129.557 Y106.761
X129.161 Y106.908
X128.746 Y106.984
X128.324 Y106.988
X127.908 Y106.919
X127.509 Y106.78
X127.141 Y106.574
X126.814 Y106.307
X126.537 Y105.989
X125.707 Y104.847
G3 X126.119 Y103.04 I1.053 J-0.71
G1 X129.901 Y100.826
G3 X131.168 Y100.817 I0.642 J1.096
X131.543 Y101.14 I-0.625 J1.105
G1 X132.365 Y102.271
X132.451 Y102.403
X132.526 Y102.532
X132.592 Y102.667
X132.65 Y102.806
X132.699 Y102.947
X132.745 Y103.104
X132.783 Y103.27
X132.814 Y103.446
X132.837 Y103.63
X132.85 Y103.826
X132.852 Y104.032
X132.843 Y104.244
X132.822 Y104.462
X132.788 Y104.683
X132.741 Y104.91
X132.68 Y105.141
X132.605 Y105.372
X132.515 Y105.606
X132.411 Y105.837
X132.293 Y106.066
X132.166 Y106.282
X132.034 Y106.482
X131.877 Y106.693
X131.724 Y106.878
X131.567 Y107.047
X131.386 Y107.222
X131.212 Y107.373
X131.037 Y107.509
X130.838 Y107.648
X130.647 Y107.765
X130.459 Y107.867
X130.245 Y107.969
X129.864 Y108.09
X129.468 Y108.145
X129.068 Y108.135
X128.676 Y108.058
X128.302 Y107.917
X127.956 Y107.717
X127.648 Y107.461
X127.387 Y107.158
X126.537 Y105.989
G3 X126.945 Y104.184 I1.053 J-0.71
G1 X130.719 Y101.959
G3 X132.365 Y102.271 I0.645 J1.094
G1 X133.213 Y103.439
X133.295 Y103.565
X133.368 Y103.695
X133.433 Y103.831
X133.489 Y103.97
X133.538 Y104.114
X133.582 Y104.27
X133.62 Y104.44
X133.649 Y104.619
X133.67 Y104.806
X133.681 Y105.001
Y105.208
X133.67 Y105.423
X133.647 Y105.642
X133.611 Y105.866
X133.561 Y106.093
X133.498 Y106.323
X133.42 Y106.554
X133.328 Y106.786
X133.222 Y107.018
X133.101 Y107.246
X132.966 Y107.471
X132.828 Y107.675
X132.679 Y107.872
X132.515 Y108.066
X132.356 Y108.234
X132.181 Y108.4
X131.998 Y108.556
X131.823 Y108.689
X131.628 Y108.822
X131.43 Y108.941
X131.243 Y109.041
X131.21 Y109.056
X130.814 Y109.199
X130.4 Y109.273
X129.978 Y109.275
X129.563 Y109.204
X129.166 Y109.064
X128.799 Y108.857
X128.473 Y108.591
X128.197 Y108.273
X127.387 Y107.158
G3 X127.794 Y105.355 I1.053 J-0.71
G1 X131.567 Y103.127
G3 X133.213 Y103.439 I0.646 J1.094
G1 X134.043 Y104.581
X134.125 Y104.707
X134.198 Y104.837
X134.263 Y104.973
X134.319 Y105.112
X134.368 Y105.256
X134.412 Y105.414
X134.45 Y105.583
X134.479 Y105.761
X134.5 Y105.949
X134.511 Y106.147
Y106.355
X134.5 Y106.57
X134.476 Y106.789
X134.44 Y107.013
X134.39 Y107.241
X134.326 Y107.473
X134.248 Y107.706
X134.155 Y107.94
X134.048 Y108.172
X133.927 Y108.401
X133.799 Y108.614
X133.664 Y108.813
X133.507 Y109.02
X133.354 Y109.201
X133.195 Y109.369
X133.014 Y109.54
X132.84 Y109.688
X132.663 Y109.823
X132.463 Y109.959
X132.273 Y110.073
X132.082 Y110.174
X132.034 Y110.197
X131.638 Y110.34
X131.225 Y110.413
X130.804 Y110.415
X130.39 Y110.344
X129.994 Y110.204
X129.627 Y109.998
X129.302 Y109.732
X129.026 Y109.415
X128.197 Y108.273
G3 X128.005 Y107.816 I1.053 J-0.71
X128.612 Y106.464 I1.245 J-0.253
G1 X132.405 Y104.264
G3 X134.043 Y104.581 I0.637 J1.099
G1 X134.862 Y105.709
X134.944 Y105.834
X135.019 Y105.965
X135.085 Y106.099
X135.142 Y106.238
X135.192 Y106.382
X135.237 Y106.54
X135.276 Y106.707
X135.306 Y106.882
X135.328 Y107.069
X135.34 Y107.267
X135.342 Y107.473
X135.333 Y107.685
X135.311 Y107.903
X135.276 Y108.125
X135.228 Y108.353
X135.166 Y108.584
X135.09 Y108.816
X135 Y109.049
X134.895 Y109.28
X134.776 Y109.508
X134.649 Y109.724
X134.516 Y109.923
X134.359 Y110.133
X134.205 Y110.317
X134.049 Y110.485
X133.868 Y110.659
X133.693 Y110.81
X133.518 Y110.945
X133.318 Y111.083
X133.127 Y111.2
X132.939 Y111.301
X132.876 Y111.331
X132.481 Y111.477
X132.065 Y111.553
X131.643 Y111.557
X131.227 Y111.488
X130.828 Y111.348
X130.46 Y111.142
X130.133 Y110.875
X129.856 Y110.557
X129.026 Y109.415
G3 X128.835 Y108.958 I1.053 J-0.71
X129.438 Y107.608 I1.245 J-0.253
G1 X133.22 Y105.395
G3 X134.862 Y105.709 I0.641 J1.096
G1 X135.672 Y106.823
X135.77 Y106.973
X135.845 Y107.103
X135.911 Y107.237
X135.969 Y107.376
X136.019 Y107.518
X136.064 Y107.674
X136.103 Y107.841
X136.134 Y108.016
X136.156 Y108.201
X136.169 Y108.397
X136.171 Y108.603
X136.162 Y108.815
X136.141 Y109.032
X136.108 Y109.254
X136.06 Y109.481
X135.999 Y109.711
X135.924 Y109.943
X135.834 Y110.176
X135.73 Y110.407
X135.613 Y110.636
X135.486 Y110.852
X135.353 Y111.052
X135.197 Y111.263
X135.043 Y111.447
X134.887 Y111.616
X134.707 Y111.791
X134.532 Y111.942
X134.358 Y112.078
X134.158 Y112.217
X133.967 Y112.334
X133.779 Y112.437
X133.711 Y112.469
X133.315 Y112.617
X132.899 Y112.694
X132.476 Y112.699
X132.059 Y112.63
X131.66 Y112.491
X131.291 Y112.285
X130.963 Y112.018
X130.686 Y111.699
X129.856 Y110.557
G3 X129.664 Y110.1 I1.053 J-0.71
X130.259 Y108.756 I1.245 J-0.253
G1 X134.021 Y106.514
G3 X135.296 Y106.499 I0.65 J1.091
X135.672 Y106.823 I-0.625 J1.105
G1 X136.507 Y107.973
X136.599 Y108.113
X136.674 Y108.243
X136.74 Y108.378
X136.798 Y108.516
X136.847 Y108.657
X136.893 Y108.813
X136.932 Y108.98
X136.963 Y109.156
X136.985 Y109.341
X136.998 Y109.536
X137.001 Y109.742
X136.992 Y109.954
X136.971 Y110.172
X136.937 Y110.393
X136.89 Y110.62
X136.829 Y110.85
X136.754 Y111.082
X136.664 Y111.315
X136.56 Y111.546
X136.443 Y111.775
X136.316 Y111.991
X136.183 Y112.192
X136.027 Y112.403
X135.874 Y112.587
X135.717 Y112.756
X135.536 Y112.931
X135.362 Y113.082
X135.187 Y113.219
X134.987 Y113.357
X134.797 Y113.475
X134.609 Y113.577
X134.395 Y113.679
X134.013 Y113.8
X133.617 Y113.856
X133.218 Y113.845
X132.825 Y113.768
X132.451 Y113.628
X132.105 Y113.427
X131.797 Y113.171
X131.536 Y112.868
X130.686 Y111.699
G3 X130.494 Y111.242 I1.053 J-0.71
X131.091 Y109.896 I1.245 J-0.253
G1 X134.859 Y107.662
G3 X136.507 Y107.973 I0.648 J1.092
G1 X137.317 Y109.088
X137.427 Y109.256
X137.502 Y109.386
X137.569 Y109.521
X137.626 Y109.659
X137.676 Y109.801
X137.721 Y109.956
X137.76 Y110.123
X137.791 Y110.299
X137.813 Y110.483
X137.826 Y110.678
X137.829 Y110.885
X137.82 Y111.097
X137.799 Y111.314
X137.765 Y111.536
X137.718 Y111.763
X137.657 Y111.993
X137.582 Y112.224
X137.492 Y112.457
X137.388 Y112.689
X137.27 Y112.917
X137.138 Y113.143
X137 Y113.351
X136.856 Y113.545
X136.692 Y113.743
X136.532 Y113.915
X136.363 Y114.079
X136.178 Y114.24
X136.002 Y114.376
X135.813 Y114.508
X135.613 Y114.631
X135.467 Y114.71
X135.115 Y114.867
X134.742 Y114.965
X134.359 Y115.003
X133.974 Y114.979
X133.598 Y114.894
X133.24 Y114.751
X132.91 Y114.552
X132.616 Y114.303
X132.365 Y114.01
X131.536 Y112.868
G3 X131.344 Y112.411 I1.053 J-0.71
X131.924 Y111.076 I1.245 J-0.253
G1 X135.652 Y108.787
G3 X137.317 Y109.088 I0.664 J1.082
G1 X138.192 Y110.291
X138.274 Y110.417
X138.347 Y110.548
X138.411 Y110.683
X138.467 Y110.822
X138.516 Y110.966
X138.56 Y111.123
X138.597 Y111.293
X138.627 Y111.472
X138.648 Y111.66
X138.659 Y111.857
Y112.064
X138.648 Y112.28
X138.624 Y112.5
X138.588 Y112.725
X138.538 Y112.953
X138.474 Y113.184
X138.396 Y113.416
X138.304 Y113.649
X138.196 Y113.881
X138.077 Y114.106
X137.947 Y114.323
X137.8 Y114.54
X137.656 Y114.73
X137.495 Y114.92
X137.327 Y115.097
X137.164 Y115.252
X136.977 Y115.411
X136.794 Y115.55
X136.613 Y115.673
X136.409 Y115.796
X136.214 Y115.899
X136.192 Y115.91
X135.795 Y116.053
X135.38 Y116.127
X134.959 Y116.128
X134.543 Y116.058
X134.145 Y115.917
X133.778 Y115.71
X133.451 Y115.443
X133.175 Y115.125
X132.365 Y114.01
G3 X132.173 Y113.553 I1.053 J-0.71
X132.772 Y112.206 I1.245 J-0.253
G1 X136.545 Y109.979
G3 X137.816 Y109.968 I0.645 J1.094
X138.192 Y110.291 I-0.625 J1.105
G1 X139.021 Y111.433
X139.103 Y111.559
X139.177 Y111.69
X139.241 Y111.825
X139.298 Y111.964
X139.347 Y112.109
X139.391 Y112.268
X139.429 Y112.436
X139.458 Y112.614
X139.479 Y112.801
X139.49 Y113.001
X139.491 Y113.209
X139.479 Y113.423
X139.456 Y113.642
X139.42 Y113.866
X139.37 Y114.094
X139.306 Y114.326
X139.228 Y114.56
X139.135 Y114.792
X139.029 Y115.024
X138.907 Y115.253
X138.78 Y115.467
X138.645 Y115.666
X138.488 Y115.873
X138.335 Y116.053
X138.176 Y116.221
X137.996 Y116.393
X137.822 Y116.541
X137.645 Y116.676
X137.445 Y116.811
X137.255 Y116.926
X137.065 Y117.027
X137.016 Y117.049
X136.621 Y117.193
X136.206 Y117.267
X135.785 Y117.268
X135.37 Y117.198
X134.974 Y117.057
X134.607 Y116.851
X134.281 Y116.585
X134.005 Y116.267
X133.175 Y115.125
G3 X132.983 Y114.668 I1.053 J-0.71
X133.591 Y113.316 I1.244 J-0.253
G1 X137.383 Y111.116
G3 X139.021 Y111.433 I0.637 J1.099
G1 X139.833 Y112.55
X139.92 Y112.683
X139.995 Y112.813
X140.061 Y112.948
X140.119 Y113.086
X140.169 Y113.23
X140.214 Y113.387
X140.253 Y113.553
X140.284 Y113.728
X140.306 Y113.915
X140.319 Y114.112
X140.322 Y114.317
X140.313 Y114.529
X140.292 Y114.746
X140.258 Y114.968
X140.21 Y115.196
X140.149 Y115.427
X140.074 Y115.659
X139.984 Y115.891
X139.88 Y116.122
X139.762 Y116.35
X139.635 Y116.568
X139.503 Y116.766
X139.347 Y116.976
X139.193 Y117.162
X139.038 Y117.329
X138.857 Y117.504
X138.682 Y117.656
X138.508 Y117.791
X138.309 Y117.929
X138.117 Y118.047
X137.93 Y118.149
X137.863 Y118.181
X137.467 Y118.329
X137.051 Y118.406
X136.627 Y118.41
X136.21 Y118.342
X135.81 Y118.202
X135.44 Y117.996
X135.112 Y117.729
X134.835 Y117.409
X134.005 Y116.267
G3 X133.813 Y115.81 I1.053 J-0.71
X134.413 Y114.463 I1.245 J-0.253
G1 X138.187 Y112.238
G3 X139.458 Y112.227 I0.645 J1.094
X139.833 Y112.55 I-0.625 J1.105
G1 X140.679 Y113.715
X140.761 Y113.84
X140.835 Y113.971
X140.9 Y114.106
X140.956 Y114.245
X141.005 Y114.388
X141.05 Y114.545
X141.088 Y114.714
X141.118 Y114.892
X141.139 Y115.078
X141.151 Y115.273
X141.152 Y115.48
X141.141 Y115.694
X141.119 Y115.913
X141.083 Y116.136
X141.034 Y116.363
X140.972 Y116.593
X140.895 Y116.824
X140.804 Y117.056
X140.698 Y117.288
X140.578 Y117.516
X140.451 Y117.73
X140.315 Y117.932
X140.158 Y118.14
X140.006 Y118.321
X139.846 Y118.492
X139.665 Y118.664
X139.492 Y118.812
X139.313 Y118.949
X139.114 Y119.086
X138.925 Y119.2
X138.733 Y119.303
X138.677 Y119.329
X138.282 Y119.474
X137.867 Y119.548
X137.446 Y119.551
X137.031 Y119.481
X136.634 Y119.341
X136.267 Y119.135
X135.94 Y118.869
X135.664 Y118.551
