%
(1001)
(Z0 stock bottom)
(T1  D=12.7 CR=0 - ZMIN=10 - flat end mill)
G90 G94
G17
G21

(2D Contour7 4)
M9
T1 M6
S6000 M3
G54
M9
G0 X878.861 Y-9.96
Z65
Z55
G1 Z54 F849.6
Z53.77
G19 G3 Y-8.69 Z52.5 J1.27
G1 Y-7.42
G17 G3 X877.591 Y-6.15 I-1.27
G1 X720.091 Z47 F400.3
X36.139 F849.6
G2 X32.406 Y-4.937 J6.35
G1 X5.421 Y14.669
G2 X4.016 Y23.539 I3.732 J5.137
G1 X120.258 Y183.532
G2 X125.395 Y186.15 I5.137 J-3.732
G1 X703.223
G2 X709.015 Y177.196 J-6.35
G1 X708.703 Y176.502
G2 X708.628 Y176.342 I-5.792 J2.604
G1 X708.305 Y175.674
G2 X708.216 Y175.497 I-5.717 J2.764
G1 X707.881 Y174.856
G2 X707.798 Y174.702 I-5.628 J2.941
G1 X707.453 Y174.084
G2 X707.355 Y173.915 I-5.544 J3.095
G1 X706.999 Y173.321
G2 X706.908 Y173.173 I-5.447 J3.264
G1 X706.543 Y172.6
G2 X706.447 Y172.455 I-5.356 J3.412
G1 X706.073 Y171.902
G2 X705.973 Y171.758 I-5.26 J3.557
G1 X705.59 Y171.224
G2 X705.451 Y171.038 I-5.16 J3.701
G1 X704.663 Y170.02
G2 X704.476 Y169.789 I-5.021 J3.887
G1 X703.659 Y168.83
G2 X703.496 Y168.646 I-4.834 J4.118
G1 X702.657 Y167.735
G2 X702.517 Y167.588 I-4.671 J4.302
G1 X701.658 Y166.713
G2 X701.524 Y166.58 I-4.531 J4.449
G1 X699.767 Y164.894
G2 X699.71 Y164.841 I-4.397 J4.582
G1 X697.965 Y163.207
X696.285 Y161.589
X695.527 Y160.821
X694.792 Y160.037
X694.085 Y159.235
X693.398 Y158.404
X692.729 Y157.538
X692.077 Y156.634
X691.447 Y155.698
X690.84 Y154.728
X690.255 Y153.721
X689.695 Y152.682
X689.161 Y151.606
X688.65 Y150.492
X688.167 Y149.352
X687.716 Y148.19
X687.297 Y147.011
X686.916 Y145.826
X686.573 Y144.636
X686.269 Y143.45
X686.008 Y142.275
X685.79 Y141.116
X685.617 Y139.981
X685.492 Y138.892
X685.419 Y137.858
X685.395 Y136.884
X685.425 Y135.928
X685.453 Y135.546
X685.497 Y135.142
X685.552 Y134.756
X685.618 Y134.387
X685.695 Y134.035
X685.781 Y133.706
X685.875 Y133.397
X685.982 Y133.094
X686.094 Y132.814
X686.21 Y132.562
X686.339 Y132.315
X686.478 Y132.077
X686.63 Y131.844
X686.797 Y131.616
X686.975 Y131.395
X687.18 Y131.168
X687.409 Y130.937
X687.659 Y130.707
X687.941 Y130.473
X688.258 Y130.233
X688.611 Y129.99
X689.002 Y129.744
X689.428 Y129.5
X689.905 Y129.25
X690.426 Y129.001
X690.989 Y128.756
X691.6 Y128.514
X692.259 Y128.276
X692.974 Y128.04
X693.735 Y127.812
X694.547 Y127.592
X695.416 Y127.378
X696.336 Y127.173
X697.308 Y126.976
X698.334 Y126.789
X699.41 Y126.613
X700.54 Y126.448
X701.726 Y126.293
X702.962 Y126.15
X704.251 Y126.018
X705.593 Y125.898
X706.988 Y125.791
X708.439 Y125.695
X709.941 Y125.612
X711.498 Y125.542
X713.108 Y125.484
X714.773 Y125.439
X716.494 Y125.407
X718.268 Y125.388
X720.094 Y125.381
X721.919 Y125.388
X723.694 Y125.407
X725.414 Y125.439
X727.079 Y125.484
X728.69 Y125.542
X730.246 Y125.612
X731.748 Y125.695
X733.199 Y125.791
X734.595 Y125.898
X735.937 Y126.018
X737.225 Y126.15
X738.462 Y126.293
X739.648 Y126.448
X740.778 Y126.613
X741.854 Y126.789
X742.879 Y126.976
X743.852 Y127.173
X744.773 Y127.378
X745.641 Y127.592
X746.453 Y127.812
X747.213 Y128.04
X747.927 Y128.275
X748.587 Y128.514
X749.198 Y128.756
X749.761 Y129.001
X750.282 Y129.25
X750.759 Y129.5
X751.185 Y129.744
X751.578 Y129.991
X751.932 Y130.234
X752.244 Y130.471
X752.528 Y130.707
X752.782 Y130.939
X753.006 Y131.165
X753.209 Y131.392
X753.393 Y131.619
X753.56 Y131.848
X753.71 Y132.077
X753.847 Y132.311
X753.975 Y132.558
X754.095 Y132.818
X754.208 Y133.099
X754.311 Y133.393
X754.407 Y133.706
X754.493 Y134.035
X754.569 Y134.387
X754.636 Y134.756
X754.69 Y135.142
X754.735 Y135.551
X754.763 Y135.928
X754.793 Y136.884
X754.769 Y137.855
X754.695 Y138.89
X754.57 Y139.981
X754.397 Y141.116
X754.179 Y142.275
X753.918 Y143.452
X753.615 Y144.636
X753.272 Y145.824
X752.889 Y147.013
X752.472 Y148.19
X752.02 Y149.352
X751.538 Y150.492
X751.027 Y151.605
X750.491 Y152.684
X749.932 Y153.723
X749.349 Y154.726
X748.74 Y155.698
X748.111 Y156.634
X747.458 Y157.538
X746.789 Y158.405
X746.105 Y159.233
X745.396 Y160.035
X744.659 Y160.822
X743.901 Y161.59
X742.224 Y163.206
X740.478 Y164.84
G2 X740.42 Y164.894 I4.339 J4.636
G1 X738.663 Y166.58
G2 X738.526 Y166.716 I4.397 J4.582
G1 X737.668 Y167.591
G2 X737.534 Y167.732 I4.534 J4.446
G1 X736.694 Y168.643
G2 X736.526 Y168.833 I4.668 J4.305
G1 X735.71 Y169.792
G2 X735.527 Y170.017 I4.836 J4.115
G1 X734.738 Y171.035
G2 X734.597 Y171.224 I5.019 J3.89
G1 X734.214 Y171.758
G2 X734.114 Y171.902 I5.16 J3.701
G1 X733.74 Y172.455
G2 X733.644 Y172.6 I5.26 J3.557
G1 X733.279 Y173.173
G2 X733.184 Y173.327 I5.356 J3.412
G1 X732.829 Y173.921
G2 X732.739 Y174.077 I5.451 J3.258
G1 X732.393 Y174.695
G2 X732.303 Y174.863 I5.541 J3.102
G1 X731.969 Y175.504
G2 X731.887 Y175.667 I5.631 J2.934
G1 X731.563 Y176.335
G2 X731.481 Y176.509 I5.713 J2.771
G1 X731.17 Y177.203
G2 X736.965 Y186.15 I5.795 J2.597
G1 X1314.79
G2 X1319.927 Y183.532 J-6.35
G1 X1436.167 Y23.539
G2 X1434.763 Y14.669 I-5.137 J-3.732
G1 X1407.783 Y-4.937
G2 X1404.05 Y-6.15 I-3.733 J5.137
G1 X720.091
X567.627 Z44 F400.3
X36.139 F849.6
G2 X32.406 Y-4.937 J6.35
G1 X5.421 Y14.669
G2 X4.016 Y23.539 I3.732 J5.137
G1 X120.258 Y183.532
G2 X125.395 Y186.15 I5.137 J-3.732
G1 X703.223
G2 X709.015 Y177.196 J-6.35
G1 X708.703 Y176.502
G2 X708.628 Y176.342 I-5.792 J2.604
G1 X708.305 Y175.674
G2 X708.216 Y175.497 I-5.717 J2.764
G1 X707.881 Y174.856
G2 X707.798 Y174.702 I-5.628 J2.941
G1 X707.453 Y174.084
G2 X707.355 Y173.915 I-5.544 J3.095
G1 X706.999 Y173.321
G2 X706.908 Y173.173 I-5.447 J3.264
G1 X706.543 Y172.6
G2 X706.447 Y172.455 I-5.356 J3.412
G1 X706.073 Y171.902
G2 X705.973 Y171.758 I-5.26 J3.557
G1 X705.59 Y171.224
G2 X705.451 Y171.038 I-5.16 J3.701
G1 X704.663 Y170.02
G2 X704.476 Y169.789 I-5.021 J3.887
G1 X703.659 Y168.83
G2 X703.496 Y168.646 I-4.834 J4.118
G1 X702.657 Y167.735
G2 X702.517 Y167.588 I-4.671 J4.302
G1 X701.658 Y166.713
G2 X701.524 Y166.58 I-4.531 J4.449
G1 X699.767 Y164.894
G2 X699.71 Y164.841 I-4.397 J4.582
G1 X697.965 Y163.207
X696.285 Y161.589
X695.527 Y160.821
X694.792 Y160.037
X694.085 Y159.235
X693.398 Y158.404
X692.729 Y157.538
X692.077 Y156.634
X691.447 Y155.698
X690.84 Y154.728
X690.255 Y153.721
X689.695 Y152.682
X689.161 Y151.606
X688.65 Y150.492
X688.167 Y149.352
X687.716 Y148.19
X687.297 Y147.011
X686.916 Y145.826
X686.573 Y144.636
X686.269 Y143.45
X686.008 Y142.275
X685.79 Y141.116
X685.617 Y139.981
X685.492 Y138.892
X685.419 Y137.858
X685.395 Y136.884
X685.425 Y135.928
X685.453 Y135.546
X685.497 Y135.142
X685.552 Y134.756
X685.618 Y134.387
X685.695 Y134.035
X685.781 Y133.706
X685.875 Y133.397
X685.982 Y133.094
X686.094 Y132.814
X686.21 Y132.562
X686.339 Y132.315
X686.478 Y132.077
X686.63 Y131.844
X686.797 Y131.616
X686.975 Y131.395
X687.18 Y131.168
X687.409 Y130.937
X687.659 Y130.707
X687.941 Y130.473
X688.258 Y130.233
X688.611 Y129.99
X689.002 Y129.744
X689.428 Y129.5
X689.905 Y129.25
X690.426 Y129.001
X690.989 Y128.756
X691.6 Y128.514
X692.259 Y128.276
X692.974 Y128.04
X693.735 Y127.812
X694.547 Y127.592
X695.416 Y127.378
X696.336 Y127.173
X697.308 Y126.976
X698.334 Y126.789
X699.41 Y126.613
X700.54 Y126.448
X701.726 Y126.293
X702.962 Y126.15
X704.251 Y126.018
X705.593 Y125.898
X706.988 Y125.791
X708.439 Y125.695
X709.941 Y125.612
X711.498 Y125.542
X713.108 Y125.484
X714.773 Y125.439
X716.494 Y125.407
X718.268 Y125.388
X720.094 Y125.381
X721.919 Y125.388
X723.694 Y125.407
X725.414 Y125.439
X727.079 Y125.484
X728.69 Y125.542
X730.246 Y125.612
X731.748 Y125.695
X733.199 Y125.791
X734.595 Y125.898
X735.937 Y126.018
X737.225 Y126.15
X738.462 Y126.293
X739.648 Y126.448
X740.778 Y126.613
X741.854 Y126.789
X742.879 Y126.976
X743.852 Y127.173
X744.773 Y127.378
X745.641 Y127.592
X746.453 Y127.812
X747.213 Y128.04
X747.927 Y128.275
X748.587 Y128.514
X749.198 Y128.756
X749.761 Y129.001
X750.282 Y129.25
X750.759 Y129.5
X751.185 Y129.744
X751.578 Y129.991
X751.932 Y130.234
X752.244 Y130.471
X752.528 Y130.707
X752.782 Y130.939
X753.006 Y131.165
X753.209 Y131.392
X753.393 Y131.619
X753.56 Y131.848
X753.71 Y132.077
X753.847 Y132.311
X753.975 Y132.558
X754.095 Y132.818
X754.208 Y133.099
X754.311 Y133.393
X754.407 Y133.706
X754.493 Y134.035
X754.569 Y134.387
X754.636 Y134.756
X754.69 Y135.142
X754.735 Y135.551
X754.763 Y135.928
X754.793 Y136.884
X754.769 Y137.855
X754.695 Y138.89
X754.57 Y139.981
X754.397 Y141.116
X754.179 Y142.275
X753.918 Y143.452
X753.615 Y144.636
X753.272 Y145.824
X752.889 Y147.013
X752.472 Y148.19
X752.02 Y149.352
X751.538 Y150.492
X751.027 Y151.605
X750.491 Y152.684
X749.932 Y153.723
X749.349 Y154.726
X748.74 Y155.698
X748.111 Y156.634
X747.458 Y157.538
X746.789 Y158.405
X746.105 Y159.233
X745.396 Y160.035
X744.659 Y160.822
X743.901 Y161.59
X742.224 Y163.206
X740.478 Y164.84
G2 X740.42 Y164.894 I4.339 J4.636
G1 X738.663 Y166.58
G2 X738.526 Y166.716 I4.397 J4.582
G1 X737.668 Y167.591
G2 X737.534 Y167.732 I4.534 J4.446
G1 X736.694 Y168.643
G2 X736.526 Y168.833 I4.668 J4.305
G1 X735.71 Y169.792
G2 X735.527 Y170.017 I4.836 J4.115
G1 X734.738 Y171.035
G2 X734.597 Y171.224 I5.019 J3.89
G1 X734.214 Y171.758
G2 X734.114 Y171.902 I5.16 J3.701
G1 X733.74 Y172.455
G2 X733.644 Y172.6 I5.26 J3.557
G1 X733.279 Y173.173
G2 X733.184 Y173.327 I5.356 J3.412
G1 X732.829 Y173.921
G2 X732.739 Y174.077 I5.451 J3.258
G1 X732.393 Y174.695
G2 X732.303 Y174.863 I5.541 J3.102
G1 X731.969 Y175.504
G2 X731.887 Y175.667 I5.631 J2.934
G1 X731.563 Y176.335
G2 X731.481 Y176.509 I5.713 J2.771
G1 X731.17 Y177.203
G2 X736.965 Y186.15 I5.795 J2.597
G1 X1314.79
G2 X1319.927 Y183.532 J-6.35
G1 X1436.167 Y23.539
G2 X1434.763 Y14.669 I-5.137 J-3.732
G1 X1407.783 Y-4.937
G2 X1404.05 Y-6.15 I-3.733 J5.137
G1 X720.091
X567.627
X415.163 Z41 F400.3
X36.139 F849.6
G2 X32.406 Y-4.937 J6.35
G1 X5.421 Y14.669
G2 X4.016 Y23.539 I3.732 J5.137
G1 X120.258 Y183.532
G2 X125.395 Y186.15 I5.137 J-3.732
G1 X703.223
G2 X709.015 Y177.196 J-6.35
G1 X708.703 Y176.502
G2 X708.628 Y176.342 I-5.792 J2.604
G1 X708.305 Y175.674
G2 X708.216 Y175.497 I-5.717 J2.764
G1 X707.881 Y174.856
G2 X707.798 Y174.702 I-5.628 J2.941
G1 X707.453 Y174.084
G2 X707.355 Y173.915 I-5.544 J3.095
G1 X706.999 Y173.321
G2 X706.908 Y173.173 I-5.447 J3.264
G1 X706.543 Y172.6
G2 X706.447 Y172.455 I-5.356 J3.412
G1 X706.073 Y171.902
G2 X705.973 Y171.758 I-5.26 J3.557
G1 X705.59 Y171.224
G2 X705.451 Y171.038 I-5.16 J3.701
G1 X704.663 Y170.02
G2 X704.476 Y169.789 I-5.021 J3.887
G1 X703.659 Y168.83
G2 X703.496 Y168.646 I-4.834 J4.118
G1 X702.657 Y167.735
G2 X702.517 Y167.588 I-4.671 J4.302
G1 X701.658 Y166.713
G2 X701.524 Y166.58 I-4.531 J4.449
G1 X699.767 Y164.894
G2 X699.71 Y164.841 I-4.397 J4.582
G1 X697.965 Y163.207
X696.285 Y161.589
X695.527 Y160.821
X694.792 Y160.037
X694.085 Y159.235
X693.398 Y158.404
X692.729 Y157.538
X692.077 Y156.634
X691.447 Y155.698
X690.84 Y154.728
X690.255 Y153.721
X689.695 Y152.682
X689.161 Y151.606
X688.65 Y150.492
X688.167 Y149.352
X687.716 Y148.19
X687.297 Y147.011
X686.916 Y145.826
X686.573 Y144.636
X686.269 Y143.45
X686.008 Y142.275
X685.79 Y141.116
X685.617 Y139.981
X685.492 Y138.892
X685.419 Y137.858
X685.395 Y136.884
X685.425 Y135.928
X685.453 Y135.546
X685.497 Y135.142
X685.552 Y134.756
X685.618 Y134.387
X685.695 Y134.035
X685.781 Y133.706
X685.875 Y133.397
X685.982 Y133.094
X686.094 Y132.814
X686.21 Y132.562
X686.339 Y132.315
X686.478 Y132.077
X686.63 Y131.844
X686.797 Y131.616
X686.975 Y131.395
X687.18 Y131.168
X687.409 Y130.937
X687.659 Y130.707
X687.941 Y130.473
X688.258 Y130.233
X688.611 Y129.99
X689.002 Y129.744
X689.428 Y129.5
X689.905 Y129.25
X690.426 Y129.001
X690.989 Y128.756
X691.6 Y128.514
X692.259 Y128.276
X692.974 Y128.04
X693.735 Y127.812
X694.547 Y127.592
X695.416 Y127.378
X696.336 Y127.173
X697.308 Y126.976
X698.334 Y126.789
X699.41 Y126.613
X700.54 Y126.448
X701.726 Y126.293
X702.962 Y126.15
X704.251 Y126.018
X705.593 Y125.898
X706.988 Y125.791
X708.439 Y125.695
X709.941 Y125.612
X711.498 Y125.542
X713.108 Y125.484
X714.773 Y125.439
X716.494 Y125.407
X718.268 Y125.388
X720.094 Y125.381
X721.919 Y125.388
X723.694 Y125.407
X725.414 Y125.439
X727.079 Y125.484
X728.69 Y125.542
X730.246 Y125.612
X731.748 Y125.695
X733.199 Y125.791
X734.595 Y125.898
X735.937 Y126.018
X737.225 Y126.15
X738.462 Y126.293
X739.648 Y126.448
X740.778 Y126.613
X741.854 Y126.789
X742.879 Y126.976
X743.852 Y127.173
X744.773 Y127.378
X745.641 Y127.592
X746.453 Y127.812
X747.213 Y128.04
X747.927 Y128.275
X748.587 Y128.514
X749.198 Y128.756
X749.761 Y129.001
X750.282 Y129.25
X750.759 Y129.5
X751.185 Y129.744
X751.578 Y129.991
X751.932 Y130.234
X752.244 Y130.471
X752.528 Y130.707
X752.782 Y130.939
X753.006 Y131.165
X753.209 Y131.392
X753.393 Y131.619
X753.56 Y131.848
X753.71 Y132.077
X753.847 Y132.311
X753.975 Y132.558
X754.095 Y132.818
X754.208 Y133.099
X754.311 Y133.393
X754.407 Y133.706
X754.493 Y134.035
X754.569 Y134.387
X754.636 Y134.756
X754.69 Y135.142
X754.735 Y135.551
X754.763 Y135.928
X754.793 Y136.884
X754.769 Y137.855
X754.695 Y138.89
X754.57 Y139.981
X754.397 Y141.116
X754.179 Y142.275
X753.918 Y143.452
X753.615 Y144.636
X753.272 Y145.824
X752.889 Y147.013
X752.472 Y148.19
X752.02 Y149.352
X751.538 Y150.492
X751.027 Y151.605
X750.491 Y152.684
X749.932 Y153.723
X749.349 Y154.726
X748.74 Y155.698
X748.111 Y156.634
X747.458 Y157.538
X746.789 Y158.405
X746.105 Y159.233
X745.396 Y160.035
X744.659 Y160.822
X743.901 Y161.59
X742.224 Y163.206
X740.478 Y164.84
G2 X740.42 Y164.894 I4.339 J4.636
G1 X738.663 Y166.58
G2 X738.526 Y166.716 I4.397 J4.582
G1 X737.668 Y167.591
G2 X737.534 Y167.732 I4.534 J4.446
G1 X736.694 Y168.643
G2 X736.526 Y168.833 I4.668 J4.305
G1 X735.71 Y169.792
G2 X735.527 Y170.017 I4.836 J4.115
G1 X734.738 Y171.035
G2 X734.597 Y171.224 I5.019 J3.89
G1 X734.214 Y171.758
G2 X734.114 Y171.902 I5.16 J3.701
G1 X733.74 Y172.455
G2 X733.644 Y172.6 I5.26 J3.557
G1 X733.279 Y173.173
G2 X733.184 Y173.327 I5.356 J3.412
G1 X732.829 Y173.921
G2 X732.739 Y174.077 I5.451 J3.258
G1 X732.393 Y174.695
G2 X732.303 Y174.863 I5.541 J3.102
G1 X731.969 Y175.504
G2 X731.887 Y175.667 I5.631 J2.934
G1 X731.563 Y176.335
G2 X731.481 Y176.509 I5.713 J2.771
G1 X731.17 Y177.203
G2 X736.965 Y186.15 I5.795 J2.597
G1 X1314.79
G2 X1319.927 Y183.532 J-6.35
G1 X1436.167 Y23.539
G2 X1434.763 Y14.669 I-5.137 J-3.732
G1 X1407.783 Y-4.937
G2 X1404.05 Y-6.15 I-3.733 J5.137
G1 X567.627
X415.163
X262.698 Z38 F400.3
X36.139 F849.6
G2 X32.406 Y-4.937 J6.35
G1 X5.421 Y14.669
G2 X4.016 Y23.539 I3.732 J5.137
G1 X120.258 Y183.532
G2 X125.395 Y186.15 I5.137 J-3.732
G1 X703.223
G2 X709.015 Y177.196 J-6.35
G1 X708.703 Y176.502
G2 X708.628 Y176.342 I-5.792 J2.604
G1 X708.305 Y175.674
G2 X708.216 Y175.497 I-5.717 J2.764
G1 X707.881 Y174.856
G2 X707.798 Y174.702 I-5.628 J2.941
G1 X707.453 Y174.084
G2 X707.355 Y173.915 I-5.544 J3.095
G1 X706.999 Y173.321
G2 X706.908 Y173.173 I-5.447 J3.264
G1 X706.543 Y172.6
G2 X706.447 Y172.455 I-5.356 J3.412
G1 X706.073 Y171.902
G2 X705.973 Y171.758 I-5.26 J3.557
G1 X705.59 Y171.224
G2 X705.451 Y171.038 I-5.16 J3.701
G1 X704.663 Y170.02
G2 X704.476 Y169.789 I-5.021 J3.887
G1 X703.659 Y168.83
G2 X703.496 Y168.646 I-4.834 J4.118
G1 X702.657 Y167.735
G2 X702.517 Y167.588 I-4.671 J4.302
G1 X701.658 Y166.713
G2 X701.524 Y166.58 I-4.531 J4.449
G1 X699.767 Y164.894
G2 X699.71 Y164.841 I-4.397 J4.582
G1 X697.965 Y163.207
X696.285 Y161.589
X695.527 Y160.821
X694.792 Y160.037
X694.085 Y159.235
X693.398 Y158.404
X692.729 Y157.538
X692.077 Y156.634
X691.447 Y155.698
X690.84 Y154.728
X690.255 Y153.721
X689.695 Y152.682
X689.161 Y151.606
X688.65 Y150.492
X688.167 Y149.352
X687.716 Y148.19
X687.297 Y147.011
X686.916 Y145.826
X686.573 Y144.636
X686.269 Y143.45
X686.008 Y142.275
X685.79 Y141.116
X685.617 Y139.981
X685.492 Y138.892
X685.419 Y137.858
X685.395 Y136.884
X685.425 Y135.928
X685.453 Y135.546
X685.497 Y135.142
X685.552 Y134.756
X685.618 Y134.387
X685.695 Y134.035
X685.781 Y133.706
X685.875 Y133.397
X685.982 Y133.094
X686.094 Y132.814
X686.21 Y132.562
X686.339 Y132.315
X686.478 Y132.077
X686.63 Y131.844
X686.797 Y131.616
X686.975 Y131.395
X687.18 Y131.168
X687.409 Y130.937
X687.659 Y130.707
X687.941 Y130.473
X688.258 Y130.233
X688.611 Y129.99
X689.002 Y129.744
X689.428 Y129.5
X689.905 Y129.25
X690.426 Y129.001
X690.989 Y128.756
X691.6 Y128.514
X692.259 Y128.276
X692.974 Y128.04
X693.735 Y127.812
X694.547 Y127.592
X695.416 Y127.378
X696.336 Y127.173
X697.308 Y126.976
X698.334 Y126.789
X699.41 Y126.613
X700.54 Y126.448
X701.726 Y126.293
X702.962 Y126.15
X704.251 Y126.018
X705.593 Y125.898
X706.988 Y125.791
X708.439 Y125.695
X709.941 Y125.612
X711.498 Y125.542
X713.108 Y125.484
X714.773 Y125.439
X716.494 Y125.407
X718.268 Y125.388
X720.094 Y125.381
X721.919 Y125.388
X723.694 Y125.407
X725.414 Y125.439
X727.079 Y125.484
X728.69 Y125.542
X730.246 Y125.612
X731.748 Y125.695
X733.199 Y125.791
X734.595 Y125.898
X735.937 Y126.018
X737.225 Y126.15
X738.462 Y126.293
X739.648 Y126.448
X740.778 Y126.613
X741.854 Y126.789
X742.879 Y126.976
X743.852 Y127.173
X744.773 Y127.378
X745.641 Y127.592
X746.453 Y127.812
X747.213 Y128.04
X747.927 Y128.275
X748.587 Y128.514
X749.198 Y128.756
X749.761 Y129.001
X750.282 Y129.25
X750.759 Y129.5
X751.185 Y129.744
X751.578 Y129.991
X751.932 Y130.234
X752.244 Y130.471
X752.528 Y130.707
X752.782 Y130.939
X753.006 Y131.165
X753.209 Y131.392
X753.393 Y131.619
X753.56 Y131.848
X753.71 Y132.077
X753.847 Y132.311
X753.975 Y132.558
X754.095 Y132.818
X754.208 Y133.099
X754.311 Y133.393
X754.407 Y133.706
X754.493 Y134.035
X754.569 Y134.387
X754.636 Y134.756
X754.69 Y135.142
X754.735 Y135.551
X754.763 Y135.928
X754.793 Y136.884
X754.769 Y137.855
X754.695 Y138.89
X754.57 Y139.981
X754.397 Y141.116
X754.179 Y142.275
X753.918 Y143.452
X753.615 Y144.636
X753.272 Y145.824
X752.889 Y147.013
X752.472 Y148.19
X752.02 Y149.352
X751.538 Y150.492
X751.027 Y151.605
X750.491 Y152.684
X749.932 Y153.723
X749.349 Y154.726
X748.74 Y155.698
X748.111 Y156.634
X747.458 Y157.538
X746.789 Y158.405
X746.105 Y159.233
X745.396 Y160.035
X744.659 Y160.822
X743.901 Y161.59
X742.224 Y163.206
X740.478 Y164.84
G2 X740.42 Y164.894 I4.339 J4.636
G1 X738.663 Y166.58
G2 X738.526 Y166.716 I4.397 J4.582
G1 X737.668 Y167.591
G2 X737.534 Y167.732 I4.534 J4.446
G1 X736.694 Y168.643
G2 X736.526 Y168.833 I4.668 J4.305
G1 X735.71 Y169.792
G2 X735.527 Y170.017 I4.836 J4.115
G1 X734.738 Y171.035
G2 X734.597 Y171.224 I5.019 J3.89
G1 X734.214 Y171.758
G2 X734.114 Y171.902 I5.16 J3.701
G1 X733.74 Y172.455
G2 X733.644 Y172.6 I5.26 J3.557
G1 X733.279 Y173.173
G2 X733.184 Y173.327 I5.356 J3.412
G1 X732.829 Y173.921
G2 X732.739 Y174.077 I5.451 J3.258
G1 X732.393 Y174.695
G2 X732.303 Y174.863 I5.541 J3.102
G1 X731.969 Y175.504
G2 X731.887 Y175.667 I5.631 J2.934
G1 X731.563 Y176.335
G2 X731.481 Y176.509 I5.713 J2.771
G1 X731.17 Y177.203
G2 X736.965 Y186.15 I5.795 J2.597
G1 X1314.79
G2 X1319.927 Y183.532 J-6.35
G1 X1436.167 Y23.539
G2 X1434.763 Y14.669 I-5.137 J-3.732
G1 X1407.783 Y-4.937
G2 X1404.05 Y-6.15 I-3.733 J5.137
G1 X415.163
X262.698
X110.234 Z35 F400.3
X36.139 F849.6
G2 X32.406 Y-4.937 J6.35
G1 X5.421 Y14.669
G2 X4.016 Y23.539 I3.732 J5.137
G1 X120.258 Y183.532
G2 X125.395 Y186.15 I5.137 J-3.732
G1 X703.223
G2 X709.015 Y177.196 J-6.35
G1 X708.703 Y176.502
G2 X708.628 Y176.342 I-5.792 J2.604
G1 X708.305 Y175.674
G2 X708.216 Y175.497 I-5.717 J2.764
G1 X707.881 Y174.856
G2 X707.798 Y174.702 I-5.628 J2.941
G1 X707.453 Y174.084
G2 X707.355 Y173.915 I-5.544 J3.095
G1 X706.999 Y173.321
G2 X706.908 Y173.173 I-5.447 J3.264
G1 X706.543 Y172.6
G2 X706.447 Y172.455 I-5.356 J3.412
G1 X706.073 Y171.902
G2 X705.973 Y171.758 I-5.26 J3.557
G1 X705.59 Y171.224
G2 X705.451 Y171.038 I-5.16 J3.701
G1 X704.663 Y170.02
G2 X704.476 Y169.789 I-5.021 J3.887
G1 X703.659 Y168.83
G2 X703.496 Y168.646 I-4.834 J4.118
G1 X702.657 Y167.735
G2 X702.517 Y167.588 I-4.671 J4.302
G1 X701.658 Y166.713
G2 X701.524 Y166.58 I-4.531 J4.449
G1 X699.767 Y164.894
G2 X699.71 Y164.841 I-4.397 J4.582
G1 X697.965 Y163.207
X696.285 Y161.589
X695.527 Y160.821
X694.792 Y160.037
X694.085 Y159.235
X693.398 Y158.404
X692.729 Y157.538
X692.077 Y156.634
X691.447 Y155.698
X690.84 Y154.728
X690.255 Y153.721
X689.695 Y152.682
X689.161 Y151.606
X688.65 Y150.492
X688.167 Y149.352
X687.716 Y148.19
X687.297 Y147.011
X686.916 Y145.826
X686.573 Y144.636
X686.269 Y143.45
X686.008 Y142.275
X685.79 Y141.116
X685.617 Y139.981
X685.492 Y138.892
X685.419 Y137.858
X685.395 Y136.884
X685.425 Y135.928
X685.453 Y135.546
X685.497 Y135.142
X685.552 Y134.756
X685.618 Y134.387
X685.695 Y134.035
X685.781 Y133.706
X685.875 Y133.397
X685.982 Y133.094
X686.094 Y132.814
X686.21 Y132.562
X686.339 Y132.315
X686.478 Y132.077
X686.63 Y131.844
X686.797 Y131.616
X686.975 Y131.395
X687.18 Y131.168
X687.409 Y130.937
X687.659 Y130.707
X687.941 Y130.473
X688.258 Y130.233
X688.611 Y129.99
X689.002 Y129.744
X689.428 Y129.5
X689.905 Y129.25
X690.426 Y129.001
X690.989 Y128.756
X691.6 Y128.514
X692.259 Y128.276
X692.974 Y128.04
X693.735 Y127.812
X694.547 Y127.592
X695.416 Y127.378
X696.336 Y127.173
X697.308 Y126.976
X698.334 Y126.789
X699.41 Y126.613
X700.54 Y126.448
X701.726 Y126.293
X702.962 Y126.15
X704.251 Y126.018
X705.593 Y125.898
X706.988 Y125.791
X708.439 Y125.695
X709.941 Y125.612
X711.498 Y125.542
X713.108 Y125.484
X714.773 Y125.439
X716.494 Y125.407
X718.268 Y125.388
X720.094 Y125.381
X721.919 Y125.388
X723.694 Y125.407
X725.414 Y125.439
X727.079 Y125.484
X728.69 Y125.542
X730.246 Y125.612
X731.748 Y125.695
X733.199 Y125.791
X734.595 Y125.898
X735.937 Y126.018
X737.225 Y126.15
X738.462 Y126.293
X739.648 Y126.448
X740.778 Y126.613
X741.854 Y126.789
X742.879 Y126.976
X743.852 Y127.173
X744.773 Y127.378
X745.641 Y127.592
X746.453 Y127.812
X747.213 Y128.04
X747.927 Y128.275
X748.587 Y128.514
X749.198 Y128.756
X749.761 Y129.001
X750.282 Y129.25
X750.759 Y129.5
X751.185 Y129.744
X751.578 Y129.991
X751.932 Y130.234
X752.244 Y130.471
X752.528 Y130.707
X752.782 Y130.939
X753.006 Y131.165
X753.209 Y131.392
X753.393 Y131.619
X753.56 Y131.848
X753.71 Y132.077
X753.847 Y132.311
X753.975 Y132.558
X754.095 Y132.818
X754.208 Y133.099
X754.311 Y133.393
X754.407 Y133.706
X754.493 Y134.035
X754.569 Y134.387
X754.636 Y134.756
X754.69 Y135.142
X754.735 Y135.551
X754.763 Y135.928
X754.793 Y136.884
X754.769 Y137.855
X754.695 Y138.89
X754.57 Y139.981
X754.397 Y141.116
X754.179 Y142.275
X753.918 Y143.452
X753.615 Y144.636
X753.272 Y145.824
X752.889 Y147.013
X752.472 Y148.19
X752.02 Y149.352
X751.538 Y150.492
X751.027 Y151.605
X750.491 Y152.684
X749.932 Y153.723
X749.349 Y154.726
X748.74 Y155.698
X748.111 Y156.634
X747.458 Y157.538
X746.789 Y158.405
X746.105 Y159.233
X745.396 Y160.035
X744.659 Y160.822
X743.901 Y161.59
X742.224 Y163.206
X740.478 Y164.84
G2 X740.42 Y164.894 I4.339 J4.636
G1 X738.663 Y166.58
G2 X738.526 Y166.716 I4.397 J4.582
G1 X737.668 Y167.591
G2 X737.534 Y167.732 I4.534 J4.446
G1 X736.694 Y168.643
G2 X736.526 Y168.833 I4.668 J4.305
G1 X735.71 Y169.792
G2 X735.527 Y170.017 I4.836 J4.115
G1 X734.738 Y171.035
G2 X734.597 Y171.224 I5.019 J3.89
G1 X734.214 Y171.758
G2 X734.114 Y171.902 I5.16 J3.701
G1 X733.74 Y172.455
G2 X733.644 Y172.6 I5.26 J3.557
G1 X733.279 Y173.173
G2 X733.184 Y173.327 I5.356 J3.412
G1 X732.829 Y173.921
G2 X732.739 Y174.077 I5.451 J3.258
G1 X732.393 Y174.695
G2 X732.303 Y174.863 I5.541 J3.102
G1 X731.969 Y175.504
G2 X731.887 Y175.667 I5.631 J2.934
G1 X731.563 Y176.335
G2 X731.481 Y176.509 I5.713 J2.771
G1 X731.17 Y177.203
G2 X736.965 Y186.15 I5.795 J2.597
G1 X1314.79
G2 X1319.927 Y183.532 J-6.35
G1 X1436.167 Y23.539
G2 X1434.763 Y14.669 I-5.137 J-3.732
G1 X1407.783 Y-4.937
G2 X1404.05 Y-6.15 I-3.733 J5.137
G1 X262.698
X110.234
X36.139 Z33.542 F400.3
G2 X32.406 Y-4.937 Z33.464 J6.35
G1 X5.421 Y14.669 Z32.807
G2 X4.016 Y23.539 Z32.611 I3.732 J5.137
G1 X22.266 Y48.658 Z32
X120.258 Y183.532 F849.6
G2 X125.395 Y186.15 I5.137 J-3.732
G1 X703.223
G2 X709.015 Y177.196 J-6.35
G1 X708.703 Y176.502
G2 X708.628 Y176.342 I-5.792 J2.604
G1 X708.305 Y175.674
G2 X708.216 Y175.497 I-5.717 J2.764
G1 X707.881 Y174.856
G2 X707.798 Y174.702 I-5.628 J2.941
G1 X707.453 Y174.084
G2 X707.355 Y173.915 I-5.544 J3.095
G1 X706.999 Y173.321
G2 X706.908 Y173.173 I-5.447 J3.264
G1 X706.543 Y172.6
G2 X706.447 Y172.455 I-5.356 J3.412
G1 X706.073 Y171.902
G2 X705.973 Y171.758 I-5.26 J3.557
G1 X705.59 Y171.224
G2 X705.451 Y171.038 I-5.16 J3.701
G1 X704.663 Y170.02
G2 X704.476 Y169.789 I-5.021 J3.887
G1 X703.659 Y168.83
G2 X703.496 Y168.646 I-4.834 J4.118
G1 X702.657 Y167.735
G2 X702.517 Y167.588 I-4.671 J4.302
G1 X701.658 Y166.713
G2 X701.524 Y166.58 I-4.531 J4.449
G1 X699.767 Y164.894
G2 X699.71 Y164.841 I-4.397 J4.582
G1 X697.965 Y163.207
X696.285 Y161.589
X695.527 Y160.821
X694.792 Y160.037
X694.085 Y159.235
X693.398 Y158.404
X692.729 Y157.538
X692.077 Y156.634
X691.447 Y155.698
X690.84 Y154.728
X690.255 Y153.721
X689.695 Y152.682
X689.161 Y151.606
X688.65 Y150.492
X688.167 Y149.352
X687.716 Y148.19
X687.297 Y147.011
X686.916 Y145.826
X686.573 Y144.636
X686.269 Y143.45
X686.008 Y142.275
X685.79 Y141.116
X685.617 Y139.981
X685.492 Y138.892
X685.419 Y137.858
X685.395 Y136.884
X685.425 Y135.928
X685.453 Y135.546
X685.497 Y135.142
X685.552 Y134.756
X685.618 Y134.387
X685.695 Y134.035
X685.781 Y133.706
X685.875 Y133.397
X685.982 Y133.094
X686.094 Y132.814
X686.21 Y132.562
X686.339 Y132.315
X686.478 Y132.077
X686.63 Y131.844
X686.797 Y131.616
X686.975 Y131.395
X687.18 Y131.168
X687.409 Y130.937
X687.659 Y130.707
X687.941 Y130.473
X688.258 Y130.233
X688.611 Y129.99
X689.002 Y129.744
X689.428 Y129.5
X689.905 Y129.25
X690.426 Y129.001
X690.989 Y128.756
X691.6 Y128.514
X692.259 Y128.276
X692.974 Y128.04
X693.735 Y127.812
X694.547 Y127.592
X695.416 Y127.378
X696.336 Y127.173
X697.308 Y126.976
X698.334 Y126.789
X699.41 Y126.613
X700.54 Y126.448
X701.726 Y126.293
X702.962 Y126.15
X704.251 Y126.018
X705.593 Y125.898
X706.988 Y125.791
X708.439 Y125.695
X709.941 Y125.612
X711.498 Y125.542
X713.108 Y125.484
X714.773 Y125.439
X716.494 Y125.407
X718.268 Y125.388
X720.094 Y125.381
X721.919 Y125.388
X723.694 Y125.407
X725.414 Y125.439
X727.079 Y125.484
X728.69 Y125.542
X730.246 Y125.612
X731.748 Y125.695
X733.199 Y125.791
X734.595 Y125.898
X735.937 Y126.018
X737.225 Y126.15
X738.462 Y126.293
X739.648 Y126.448
X740.778 Y126.613
X741.854 Y126.789
X742.879 Y126.976
X743.852 Y127.173
X744.773 Y127.378
X745.641 Y127.592
X746.453 Y127.812
X747.213 Y128.04
X747.927 Y128.275
X748.587 Y128.514
X749.198 Y128.756
X749.761 Y129.001
X750.282 Y129.25
X750.759 Y129.5
X751.185 Y129.744
X751.578 Y129.991
X751.932 Y130.234
X752.244 Y130.471
X752.528 Y130.707
X752.782 Y130.939
X753.006 Y131.165
X753.209 Y131.392
X753.393 Y131.619
X753.56 Y131.848
X753.71 Y132.077
X753.847 Y132.311
X753.975 Y132.558
X754.095 Y132.818
X754.208 Y133.099
X754.311 Y133.393
X754.407 Y133.706
X754.493 Y134.035
X754.569 Y134.387
X754.636 Y134.756
X754.69 Y135.142
X754.735 Y135.551
X754.763 Y135.928
X754.793 Y136.884
X754.769 Y137.855
X754.695 Y138.89
X754.57 Y139.981
X754.397 Y141.116
X754.179 Y142.275
X753.918 Y143.452
X753.615 Y144.636
X753.272 Y145.824
X752.889 Y147.013
X752.472 Y148.19
X752.02 Y149.352
X751.538 Y150.492
X751.027 Y151.605
X750.491 Y152.684
X749.932 Y153.723
X749.349 Y154.726
X748.74 Y155.698
X748.111 Y156.634
X747.458 Y157.538
X746.789 Y158.405
X746.105 Y159.233
X745.396 Y160.035
X744.659 Y160.822
X743.901 Y161.59
X742.224 Y163.206
X740.478 Y164.84
G2 X740.42 Y164.894 I4.339 J4.636
G1 X738.663 Y166.58
G2 X738.526 Y166.716 I4.397 J4.582
G1 X737.668 Y167.591
G2 X737.534 Y167.732 I4.534 J4.446
G1 X736.694 Y168.643
G2 X736.526 Y168.833 I4.668 J4.305
G1 X735.71 Y169.792
G2 X735.527 Y170.017 I4.836 J4.115
G1 X734.738 Y171.035
G2 X734.597 Y171.224 I5.019 J3.89
G1 X734.214 Y171.758
G2 X734.114 Y171.902 I5.16 J3.701
G1 X733.74 Y172.455
G2 X733.644 Y172.6 I5.26 J3.557
G1 X733.279 Y173.173
G2 X733.184 Y173.327 I5.356 J3.412
G1 X732.829 Y173.921
G2 X732.739 Y174.077 I5.451 J3.258
G1 X732.393 Y174.695
G2 X732.303 Y174.863 I5.541 J3.102
G1 X731.969 Y175.504
G2 X731.887 Y175.667 I5.631 J2.934
G1 X731.563 Y176.335
G2 X731.481 Y176.509 I5.713 J2.771
G1 X731.17 Y177.203
G2 X736.965 Y186.15 I5.795 J2.597
G1 X1314.79
G2 X1319.927 Y183.532 J-6.35
G1 X1436.167 Y23.539
G2 X1434.763 Y14.669 I-5.137 J-3.732
G1 X1407.783 Y-4.937
G2 X1404.05 Y-6.15 I-3.733 J5.137
G1 X110.234
X36.139
G2 X32.406 Y-4.937 J6.35
G1 X5.421 Y14.669
G2 X4.016 Y23.539 I3.732 J5.137
G1 X22.266 Y48.658
X111.882 Y172.004 Z29 F400.3
X120.258 Y183.532 F849.6
G2 X125.395 Y186.15 I5.137 J-3.732
G1 X703.223
G2 X709.015 Y177.196 J-6.35
G1 X708.703 Y176.502
G2 X708.628 Y176.342 I-5.792 J2.604
G1 X708.305 Y175.674
G2 X708.216 Y175.497 I-5.717 J2.764
G1 X707.881 Y174.856
G2 X707.798 Y174.702 I-5.628 J2.941
G1 X707.453 Y174.084
G2 X707.355 Y173.915 I-5.544 J3.095
G1 X706.999 Y173.321
G2 X706.908 Y173.173 I-5.447 J3.264
G1 X706.543 Y172.6
G2 X706.447 Y172.455 I-5.356 J3.412
G1 X706.073 Y171.902
G2 X705.973 Y171.758 I-5.26 J3.557
G1 X705.59 Y171.224
G2 X705.451 Y171.038 I-5.16 J3.701
G1 X704.663 Y170.02
G2 X704.476 Y169.789 I-5.021 J3.887
G1 X703.659 Y168.83
G2 X703.496 Y168.646 I-4.834 J4.118
G1 X702.657 Y167.735
G2 X702.517 Y167.588 I-4.671 J4.302
G1 X701.658 Y166.713
G2 X701.524 Y166.58 I-4.531 J4.449
G1 X699.767 Y164.894
G2 X699.71 Y164.841 I-4.397 J4.582
G1 X697.965 Y163.207
X696.285 Y161.589
X695.527 Y160.821
X694.792 Y160.037
X694.085 Y159.235
X693.398 Y158.404
X692.729 Y157.538
X692.077 Y156.634
X691.447 Y155.698
X690.84 Y154.728
X690.255 Y153.721
X689.695 Y152.682
X689.161 Y151.606
X688.65 Y150.492
X688.167 Y149.352
X687.716 Y148.19
X687.297 Y147.011
X686.916 Y145.826
X686.573 Y144.636
X686.269 Y143.45
X686.008 Y142.275
X685.79 Y141.116
X685.617 Y139.981
X685.492 Y138.892
X685.419 Y137.858
X685.395 Y136.884
X685.425 Y135.928
X685.453 Y135.546
X685.497 Y135.142
X685.552 Y134.756
X685.618 Y134.387
X685.695 Y134.035
X685.781 Y133.706
X685.875 Y133.397
X685.982 Y133.094
X686.094 Y132.814
X686.21 Y132.562
X686.339 Y132.315
X686.478 Y132.077
X686.63 Y131.844
X686.797 Y131.616
X686.975 Y131.395
X687.18 Y131.168
X687.409 Y130.937
X687.659 Y130.707
X687.941 Y130.473
X688.258 Y130.233
X688.611 Y129.99
X689.002 Y129.744
X689.428 Y129.5
X689.905 Y129.25
X690.426 Y129.001
X690.989 Y128.756
X691.6 Y128.514
X692.259 Y128.276
X692.974 Y128.04
X693.735 Y127.812
X694.547 Y127.592
X695.416 Y127.378
X696.336 Y127.173
X697.308 Y126.976
X698.334 Y126.789
X699.41 Y126.613
X700.54 Y126.448
X701.726 Y126.293
X702.962 Y126.15
X704.251 Y126.018
X705.593 Y125.898
X706.988 Y125.791
X708.439 Y125.695
X709.941 Y125.612
X711.498 Y125.542
X713.108 Y125.484
X714.773 Y125.439
X716.494 Y125.407
X718.268 Y125.388
X720.094 Y125.381
X721.919 Y125.388
X723.694 Y125.407
X725.414 Y125.439
X727.079 Y125.484
X728.69 Y125.542
X730.246 Y125.612
X731.748 Y125.695
X733.199 Y125.791
X734.595 Y125.898
X735.937 Y126.018
X737.225 Y126.15
X738.462 Y126.293
X739.648 Y126.448
X740.778 Y126.613
X741.854 Y126.789
X742.879 Y126.976
X743.852 Y127.173
X744.773 Y127.378
X745.641 Y127.592
X746.453 Y127.812
X747.213 Y128.04
X747.927 Y128.275
X748.587 Y128.514
X749.198 Y128.756
X749.761 Y129.001
X750.282 Y129.25
X750.759 Y129.5
X751.185 Y129.744
X751.578 Y129.991
X751.932 Y130.234
X752.244 Y130.471
X752.528 Y130.707
X752.782 Y130.939
X753.006 Y131.165
X753.209 Y131.392
X753.393 Y131.619
X753.56 Y131.848
X753.71 Y132.077
X753.847 Y132.311
X753.975 Y132.558
X754.095 Y132.818
X754.208 Y133.099
X754.311 Y133.393
X754.407 Y133.706
X754.493 Y134.035
X754.569 Y134.387
X754.636 Y134.756
X754.69 Y135.142
X754.735 Y135.551
X754.763 Y135.928
X754.793 Y136.884
X754.769 Y137.855
X754.695 Y138.89
X754.57 Y139.981
X754.397 Y141.116
X754.179 Y142.275
X753.918 Y143.452
X753.615 Y144.636
X753.272 Y145.824
X752.889 Y147.013
X752.472 Y148.19
X752.02 Y149.352
X751.538 Y150.492
X751.027 Y151.605
X750.491 Y152.684
X749.932 Y153.723
X749.349 Y154.726
X748.74 Y155.698
X748.111 Y156.634
X747.458 Y157.538
X746.789 Y158.405
X746.105 Y159.233
X745.396 Y160.035
X744.659 Y160.822
X743.901 Y161.59
X742.224 Y163.206
X740.478 Y164.84
G2 X740.42 Y164.894 I4.339 J4.636
G1 X738.663 Y166.58
G2 X738.526 Y166.716 I4.397 J4.582
G1 X737.668 Y167.591
G2 X737.534 Y167.732 I4.534 J4.446
G1 X736.694 Y168.643
G2 X736.526 Y168.833 I4.668 J4.305
G1 X735.71 Y169.792
G2 X735.527 Y170.017 I4.836 J4.115
G1 X734.738 Y171.035
G2 X734.597 Y171.224 I5.019 J3.89
G1 X734.214 Y171.758
G2 X734.114 Y171.902 I5.16 J3.701
G1 X733.74 Y172.455
G2 X733.644 Y172.6 I5.26 J3.557
G1 X733.279 Y173.173
G2 X733.184 Y173.327 I5.356 J3.412
G1 X732.829 Y173.921
G2 X732.739 Y174.077 I5.451 J3.258
G1 X732.393 Y174.695
G2 X732.303 Y174.863 I5.541 J3.102
G1 X731.969 Y175.504
G2 X731.887 Y175.667 I5.631 J2.934
G1 X731.563 Y176.335
G2 X731.481 Y176.509 I5.713 J2.771
G1 X731.17 Y177.203
G2 X736.965 Y186.15 I5.795 J2.597
G1 X1314.79
G2 X1319.927 Y183.532 J-6.35
G1 X1436.167 Y23.539
G2 X1434.763 Y14.669 I-5.137 J-3.732
G1 X1407.783 Y-4.937
G2 X1404.05 Y-6.15 I-3.733 J5.137
G1 X36.139
G2 X32.406 Y-4.937 J6.35
G1 X5.421 Y14.669
G2 X4.016 Y23.539 I3.732 J5.137
G1 X111.882 Y172.004
X120.258 Y183.532 Z28.72 F400.3
G2 X125.395 Y186.15 Z28.602 I5.137 J-3.732
G1 X257.625 Z26
X703.223 F849.6
G2 X709.015 Y177.196 J-6.35
G1 X708.703 Y176.502
G2 X708.628 Y176.342 I-5.792 J2.604
G1 X708.305 Y175.674
G2 X708.216 Y175.497 I-5.717 J2.764
G1 X707.881 Y174.856
G2 X707.798 Y174.702 I-5.628 J2.941
G1 X707.453 Y174.084
G2 X707.355 Y173.915 I-5.544 J3.095
G1 X706.999 Y173.321
G2 X706.908 Y173.173 I-5.447 J3.264
G1 X706.543 Y172.6
G2 X706.447 Y172.455 I-5.356 J3.412
G1 X706.073 Y171.902
G2 X705.973 Y171.758 I-5.26 J3.557
G1 X705.59 Y171.224
G2 X705.451 Y171.038 I-5.16 J3.701
G1 X704.663 Y170.02
G2 X704.476 Y169.789 I-5.021 J3.887
G1 X703.659 Y168.83
G2 X703.496 Y168.646 I-4.834 J4.118
G1 X702.657 Y167.735
G2 X702.517 Y167.588 I-4.671 J4.302
G1 X701.658 Y166.713
G2 X701.524 Y166.58 I-4.531 J4.449
G1 X699.767 Y164.894
G2 X699.71 Y164.841 I-4.397 J4.582
G1 X697.965 Y163.207
X696.285 Y161.589
X695.527 Y160.821
X694.792 Y160.037
X694.085 Y159.235
X693.398 Y158.404
X692.729 Y157.538
X692.077 Y156.634
X691.447 Y155.698
X690.84 Y154.728
X690.255 Y153.721
X689.695 Y152.682
X689.161 Y151.606
X688.65 Y150.492
X688.167 Y149.352
X687.716 Y148.19
X687.297 Y147.011
X686.916 Y145.826
X686.573 Y144.636
X686.269 Y143.45
X686.008 Y142.275
X685.79 Y141.116
X685.617 Y139.981
X685.492 Y138.892
X685.419 Y137.858
X685.395 Y136.884
X685.425 Y135.928
X685.453 Y135.546
X685.497 Y135.142
X685.552 Y134.756
X685.618 Y134.387
X685.695 Y134.035
X685.781 Y133.706
X685.875 Y133.397
X685.982 Y133.094
X686.094 Y132.814
X686.21 Y132.562
X686.339 Y132.315
X686.478 Y132.077
X686.63 Y131.844
X686.797 Y131.616
X686.975 Y131.395
X687.18 Y131.168
X687.409 Y130.937
X687.659 Y130.707
X687.941 Y130.473
X688.258 Y130.233
X688.611 Y129.99
X689.002 Y129.744
X689.428 Y129.5
X689.905 Y129.25
X690.426 Y129.001
X690.989 Y128.756
X691.6 Y128.514
X692.259 Y128.276
X692.974 Y128.04
X693.735 Y127.812
X694.547 Y127.592
X695.416 Y127.378
X696.336 Y127.173
X697.308 Y126.976
X698.334 Y126.789
X699.41 Y126.613
X700.54 Y126.448
X701.726 Y126.293
X702.962 Y126.15
X704.251 Y126.018
X705.593 Y125.898
X706.988 Y125.791
X708.439 Y125.695
X709.941 Y125.612
X711.498 Y125.542
X713.108 Y125.484
X714.773 Y125.439
X716.494 Y125.407
X718.268 Y125.388
X720.094 Y125.381
X721.919 Y125.388
X723.694 Y125.407
X725.414 Y125.439
X727.079 Y125.484
X728.69 Y125.542
X730.246 Y125.612
X731.748 Y125.695
X733.199 Y125.791
X734.595 Y125.898
X735.937 Y126.018
X737.225 Y126.15
X738.462 Y126.293
X739.648 Y126.448
X740.778 Y126.613
X741.854 Y126.789
X742.879 Y126.976
X743.852 Y127.173
X744.773 Y127.378
X745.641 Y127.592
X746.453 Y127.812
X747.213 Y128.04
X747.927 Y128.275
X748.587 Y128.514
X749.198 Y128.756
X749.761 Y129.001
X750.282 Y129.25
X750.759 Y129.5
X751.185 Y129.744
X751.578 Y129.991
X751.932 Y130.234
X752.244 Y130.471
X752.528 Y130.707
X752.782 Y130.939
X753.006 Y131.165
X753.209 Y131.392
X753.393 Y131.619
X753.56 Y131.848
X753.71 Y132.077
X753.847 Y132.311
X753.975 Y132.558
X754.095 Y132.818
X754.208 Y133.099
X754.311 Y133.393
X754.407 Y133.706
X754.493 Y134.035
X754.569 Y134.387
X754.636 Y134.756
X754.69 Y135.142
X754.735 Y135.551
X754.763 Y135.928
X754.793 Y136.884
X754.769 Y137.855
X754.695 Y138.89
X754.57 Y139.981
X754.397 Y141.116
X754.179 Y142.275
X753.918 Y143.452
X753.615 Y144.636
X753.272 Y145.824
X752.889 Y147.013
X752.472 Y148.19
X752.02 Y149.352
X751.538 Y150.492
X751.027 Y151.605
X750.491 Y152.684
X749.932 Y153.723
X749.349 Y154.726
X748.74 Y155.698
X748.111 Y156.634
X747.458 Y157.538
X746.789 Y158.405
X746.105 Y159.233
X745.396 Y160.035
X744.659 Y160.822
X743.901 Y161.59
X742.224 Y163.206
X740.478 Y164.84
G2 X740.42 Y164.894 I4.339 J4.636
G1 X738.663 Y166.58
G2 X738.526 Y166.716 I4.397 J4.582
G1 X737.668 Y167.591
G2 X737.534 Y167.732 I4.534 J4.446
G1 X736.694 Y168.643
G2 X736.526 Y168.833 I4.668 J4.305
G1 X735.71 Y169.792
G2 X735.527 Y170.017 I4.836 J4.115
G1 X734.738 Y171.035
G2 X734.597 Y171.224 I5.019 J3.89
G1 X734.214 Y171.758
G2 X734.114 Y171.902 I5.16 J3.701
G1 X733.74 Y172.455
G2 X733.644 Y172.6 I5.26 J3.557
G1 X733.279 Y173.173
G2 X733.184 Y173.327 I5.356 J3.412
G1 X732.829 Y173.921
G2 X732.739 Y174.077 I5.451 J3.258
G1 X732.393 Y174.695
G2 X732.303 Y174.863 I5.541 J3.102
G1 X731.969 Y175.504
G2 X731.887 Y175.667 I5.631 J2.934
G1 X731.563 Y176.335
G2 X731.481 Y176.509 I5.713 J2.771
G1 X731.17 Y177.203
G2 X736.965 Y186.15 I5.795 J2.597
G1 X1314.79
G2 X1319.927 Y183.532 J-6.35
G1 X1436.167 Y23.539
G2 X1434.763 Y14.669 I-5.137 J-3.732
G1 X1407.783 Y-4.937
G2 X1404.05 Y-6.15 I-3.733 J5.137
G1 X36.139
G2 X32.406 Y-4.937 J6.35
G1 X5.421 Y14.669
G2 X4.016 Y23.539 I3.732 J5.137
G1 X111.882 Y172.004
X120.258 Y183.532
G2 X125.395 Y186.15 I5.137 J-3.732
G1 X257.625
X410.089 Z23 F400.3
X703.223 F849.6
G2 X709.015 Y177.196 J-6.35
G1 X708.703 Y176.502
G2 X708.628 Y176.342 I-5.792 J2.604
G1 X708.305 Y175.674
G2 X708.216 Y175.497 I-5.717 J2.764
G1 X707.881 Y174.856
G2 X707.798 Y174.702 I-5.628 J2.941
G1 X707.453 Y174.084
G2 X707.355 Y173.915 I-5.544 J3.095
G1 X706.999 Y173.321
G2 X706.908 Y173.173 I-5.447 J3.264
G1 X706.543 Y172.6
G2 X706.447 Y172.455 I-5.356 J3.412
G1 X706.073 Y171.902
G2 X705.973 Y171.758 I-5.26 J3.557
G1 X705.59 Y171.224
G2 X705.451 Y171.038 I-5.16 J3.701
G1 X704.663 Y170.02
G2 X704.476 Y169.789 I-5.021 J3.887
G1 X703.659 Y168.83
G2 X703.496 Y168.646 I-4.834 J4.118
G1 X702.657 Y167.735
G2 X702.517 Y167.588 I-4.671 J4.302
G1 X701.658 Y166.713
G2 X701.524 Y166.58 I-4.531 J4.449
G1 X699.767 Y164.894
G2 X699.71 Y164.841 I-4.397 J4.582
G1 X697.965 Y163.207
X696.285 Y161.589
X695.527 Y160.821
X694.792 Y160.037
X694.085 Y159.235
X693.398 Y158.404
X692.729 Y157.538
X692.077 Y156.634
X691.447 Y155.698
X690.84 Y154.728
X690.255 Y153.721
X689.695 Y152.682
X689.161 Y151.606
X688.65 Y150.492
X688.167 Y149.352
X687.716 Y148.19
X687.297 Y147.011
X686.916 Y145.826
X686.573 Y144.636
X686.269 Y143.45
X686.008 Y142.275
X685.79 Y141.116
X685.617 Y139.981
X685.492 Y138.892
X685.419 Y137.858
X685.395 Y136.884
X685.425 Y135.928
X685.453 Y135.546
X685.497 Y135.142
X685.552 Y134.756
X685.618 Y134.387
X685.695 Y134.035
X685.781 Y133.706
X685.875 Y133.397
X685.982 Y133.094
X686.094 Y132.814
X686.21 Y132.562
X686.339 Y132.315
X686.478 Y132.077
X686.63 Y131.844
X686.797 Y131.616
X686.975 Y131.395
X687.18 Y131.168
X687.409 Y130.937
X687.659 Y130.707
X687.941 Y130.473
X688.258 Y130.233
X688.611 Y129.99
X689.002 Y129.744
X689.428 Y129.5
X689.905 Y129.25
X690.426 Y129.001
X690.989 Y128.756
X691.6 Y128.514
X692.259 Y128.276
X692.974 Y128.04
X693.735 Y127.812
X694.547 Y127.592
X695.416 Y127.378
X696.336 Y127.173
X697.308 Y126.976
X698.334 Y126.789
X699.41 Y126.613
X700.54 Y126.448
X701.726 Y126.293
X702.962 Y126.15
X704.251 Y126.018
X705.593 Y125.898
X706.988 Y125.791
X708.439 Y125.695
X709.941 Y125.612
X711.498 Y125.542
X713.108 Y125.484
X714.773 Y125.439
X716.494 Y125.407
X718.268 Y125.388
X720.094 Y125.381
X721.919 Y125.388
X723.694 Y125.407
X725.414 Y125.439
X727.079 Y125.484
X728.69 Y125.542
X730.246 Y125.612
X731.748 Y125.695
X733.199 Y125.791
X734.595 Y125.898
X735.937 Y126.018
X737.225 Y126.15
X738.462 Y126.293
X739.648 Y126.448
X740.778 Y126.613
X741.854 Y126.789
X742.879 Y126.976
X743.852 Y127.173
X744.773 Y127.378
X745.641 Y127.592
X746.453 Y127.812
X747.213 Y128.04
X747.927 Y128.275
X748.587 Y128.514
X749.198 Y128.756
X749.761 Y129.001
X750.282 Y129.25
X750.759 Y129.5
X751.185 Y129.744
X751.578 Y129.991
X751.932 Y130.234
X752.244 Y130.471
X752.528 Y130.707
X752.782 Y130.939
X753.006 Y131.165
X753.209 Y131.392
X753.393 Y131.619
X753.56 Y131.848
X753.71 Y132.077
X753.847 Y132.311
X753.975 Y132.558
X754.095 Y132.818
X754.208 Y133.099
X754.311 Y133.393
X754.407 Y133.706
X754.493 Y134.035
X754.569 Y134.387
X754.636 Y134.756
X754.69 Y135.142
X754.735 Y135.551
X754.763 Y135.928
X754.793 Y136.884
X754.769 Y137.855
X754.695 Y138.89
X754.57 Y139.981
X754.397 Y141.116
X754.179 Y142.275
X753.918 Y143.452
X753.615 Y144.636
X753.272 Y145.824
X752.889 Y147.013
X752.472 Y148.19
X752.02 Y149.352
X751.538 Y150.492
X751.027 Y151.605
X750.491 Y152.684
X749.932 Y153.723
X749.349 Y154.726
X748.74 Y155.698
X748.111 Y156.634
X747.458 Y157.538
X746.789 Y158.405
X746.105 Y159.233
X745.396 Y160.035
X744.659 Y160.822
X743.901 Y161.59
X742.224 Y163.206
X740.478 Y164.84
G2 X740.42 Y164.894 I4.339 J4.636
G1 X738.663 Y166.58
G2 X738.526 Y166.716 I4.397 J4.582
G1 X737.668 Y167.591
G2 X737.534 Y167.732 I4.534 J4.446
G1 X736.694 Y168.643
G2 X736.526 Y168.833 I4.668 J4.305
G1 X735.71 Y169.792
G2 X735.527 Y170.017 I4.836 J4.115
G1 X734.738 Y171.035
G2 X734.597 Y171.224 I5.019 J3.89
G1 X734.214 Y171.758
G2 X734.114 Y171.902 I5.16 J3.701
G1 X733.74 Y172.455
G2 X733.644 Y172.6 I5.26 J3.557
G1 X733.279 Y173.173
G2 X733.184 Y173.327 I5.356 J3.412
G1 X732.829 Y173.921
G2 X732.739 Y174.077 I5.451 J3.258
G1 X732.393 Y174.695
G2 X732.303 Y174.863 I5.541 J3.102
G1 X731.969 Y175.504
G2 X731.887 Y175.667 I5.631 J2.934
G1 X731.563 Y176.335
G2 X731.481 Y176.509 I5.713 J2.771
G1 X731.17 Y177.203
G2 X736.965 Y186.15 I5.795 J2.597
G1 X1314.79
G2 X1319.927 Y183.532 J-6.35
G1 X1436.167 Y23.539
G2 X1434.763 Y14.669 I-5.137 J-3.732
G1 X1407.783 Y-4.937
G2 X1404.05 Y-6.15 I-3.733 J5.137
G1 X36.139
G2 X32.406 Y-4.937 J6.35
G1 X5.421 Y14.669
G2 X4.016 Y23.539 I3.732 J5.137
G1 X120.258 Y183.532
G2 X125.395 Y186.15 I5.137 J-3.732
G1 X410.089
X562.554 Z20 F400.3
X703.223 F849.6
G2 X709.015 Y177.196 J-6.35
G1 X708.703 Y176.502
G2 X708.628 Y176.342 I-5.792 J2.604
G1 X708.305 Y175.674
G2 X708.216 Y175.497 I-5.717 J2.764
G1 X707.881 Y174.856
G2 X707.798 Y174.702 I-5.628 J2.941
G1 X707.453 Y174.084
G2 X707.355 Y173.915 I-5.544 J3.095
G1 X706.999 Y173.321
G2 X706.908 Y173.173 I-5.447 J3.264
G1 X706.543 Y172.6
G2 X706.447 Y172.455 I-5.356 J3.412
G1 X706.073 Y171.902
G2 X705.973 Y171.758 I-5.26 J3.557
G1 X705.59 Y171.224
G2 X705.451 Y171.038 I-5.16 J3.701
G1 X704.663 Y170.02
G2 X704.476 Y169.789 I-5.021 J3.887
G1 X703.659 Y168.83
G2 X703.496 Y168.646 I-4.834 J4.118
G1 X702.657 Y167.735
G2 X702.517 Y167.588 I-4.671 J4.302
G1 X701.658 Y166.713
G2 X701.524 Y166.58 I-4.531 J4.449
G1 X699.767 Y164.894
G2 X699.71 Y164.841 I-4.397 J4.582
G1 X697.965 Y163.207
X696.285 Y161.589
X695.527 Y160.821
X694.792 Y160.037
X694.085 Y159.235
X693.398 Y158.404
X692.729 Y157.538
X692.077 Y156.634
X691.447 Y155.698
X690.84 Y154.728
X690.255 Y153.721
X689.695 Y152.682
X689.161 Y151.606
X688.65 Y150.492
X688.167 Y149.352
X687.716 Y148.19
X687.297 Y147.011
X686.916 Y145.826
X686.573 Y144.636
X686.269 Y143.45
X686.008 Y142.275
X685.79 Y141.116
X685.617 Y139.981
X685.492 Y138.892
X685.419 Y137.858
X685.395 Y136.884
X685.425 Y135.928
X685.453 Y135.546
X685.497 Y135.142
X685.552 Y134.756
X685.618 Y134.387
X685.695 Y134.035
X685.781 Y133.706
X685.875 Y133.397
X685.982 Y133.094
X686.094 Y132.814
X686.21 Y132.562
X686.339 Y132.315
X686.478 Y132.077
X686.63 Y131.844
X686.797 Y131.616
X686.975 Y131.395
X687.18 Y131.168
X687.409 Y130.937
X687.659 Y130.707
X687.941 Y130.473
X688.258 Y130.233
X688.611 Y129.99
X689.002 Y129.744
X689.428 Y129.5
X689.905 Y129.25
X690.426 Y129.001
X690.989 Y128.756
X691.6 Y128.514
X692.259 Y128.276
X692.974 Y128.04
X693.735 Y127.812
X694.547 Y127.592
X695.416 Y127.378
X696.336 Y127.173
X697.308 Y126.976
X698.334 Y126.789
X699.41 Y126.613
X700.54 Y126.448
X701.726 Y126.293
X702.962 Y126.15
X704.251 Y126.018
X705.593 Y125.898
X706.988 Y125.791
X708.439 Y125.695
X709.941 Y125.612
X711.498 Y125.542
X713.108 Y125.484
X714.773 Y125.439
X716.494 Y125.407
X718.268 Y125.388
X720.094 Y125.381
X721.919 Y125.388
X723.694 Y125.407
X725.414 Y125.439
X727.079 Y125.484
X728.69 Y125.542
X730.246 Y125.612
X731.748 Y125.695
X733.199 Y125.791
X734.595 Y125.898
X735.937 Y126.018
X737.225 Y126.15
X738.462 Y126.293
X739.648 Y126.448
X740.778 Y126.613
X741.854 Y126.789
X742.879 Y126.976
X743.852 Y127.173
X744.773 Y127.378
X745.641 Y127.592
X746.453 Y127.812
X747.213 Y128.04
X747.927 Y128.275
X748.587 Y128.514
X749.198 Y128.756
X749.761 Y129.001
X750.282 Y129.25
X750.759 Y129.5
X751.185 Y129.744
X751.578 Y129.991
X751.932 Y130.234
X752.244 Y130.471
X752.528 Y130.707
X752.782 Y130.939
X753.006 Y131.165
X753.209 Y131.392
X753.393 Y131.619
X753.56 Y131.848
X753.71 Y132.077
X753.847 Y132.311
X753.975 Y132.558
X754.095 Y132.818
X754.208 Y133.099
X754.311 Y133.393
X754.407 Y133.706
X754.493 Y134.035
X754.569 Y134.387
X754.636 Y134.756
X754.69 Y135.142
X754.735 Y135.551
X754.763 Y135.928
X754.793 Y136.884
X754.769 Y137.855
X754.695 Y138.89
X754.57 Y139.981
X754.397 Y141.116
X754.179 Y142.275
X753.918 Y143.452
X753.615 Y144.636
X753.272 Y145.824
X752.889 Y147.013
X752.472 Y148.19
X752.02 Y149.352
X751.538 Y150.492
X751.027 Y151.605
X750.491 Y152.684
X749.932 Y153.723
X749.349 Y154.726
X748.74 Y155.698
X748.111 Y156.634
X747.458 Y157.538
X746.789 Y158.405
X746.105 Y159.233
X745.396 Y160.035
X744.659 Y160.822
X743.901 Y161.59
X742.224 Y163.206
X740.478 Y164.84
G2 X740.42 Y164.894 I4.339 J4.636
G1 X738.663 Y166.58
G2 X738.526 Y166.716 I4.397 J4.582
G1 X737.668 Y167.591
G2 X737.534 Y167.732 I4.534 J4.446
G1 X736.694 Y168.643
G2 X736.526 Y168.833 I4.668 J4.305
G1 X735.71 Y169.792
G2 X735.527 Y170.017 I4.836 J4.115
G1 X734.738 Y171.035
G2 X734.597 Y171.224 I5.019 J3.89
G1 X734.214 Y171.758
G2 X734.114 Y171.902 I5.16 J3.701
G1 X733.74 Y172.455
G2 X733.644 Y172.6 I5.26 J3.557
G1 X733.279 Y173.173
G2 X733.184 Y173.327 I5.356 J3.412
G1 X732.829 Y173.921
G2 X732.739 Y174.077 I5.451 J3.258
G1 X732.393 Y174.695
G2 X732.303 Y174.863 I5.541 J3.102
G1 X731.969 Y175.504
G2 X731.887 Y175.667 I5.631 J2.934
G1 X731.563 Y176.335
G2 X731.481 Y176.509 I5.713 J2.771
G1 X731.17 Y177.203
G2 X736.965 Y186.15 I5.795 J2.597
G1 X1314.79
G2 X1319.927 Y183.532 J-6.35
G1 X1436.167 Y23.539
G2 X1434.763 Y14.669 I-5.137 J-3.732
G1 X1407.783 Y-4.937
G2 X1404.05 Y-6.15 I-3.733 J5.137
G1 X36.139
G2 X32.406 Y-4.937 J6.35
G1 X5.421 Y14.669
G2 X4.016 Y23.539 I3.732 J5.137
G1 X120.258 Y183.532
G2 X125.395 Y186.15 I5.137 J-3.732
G1 X410.089
X562.554
G3 X563.824 Y187.42 J1.27
G1 Y188.69
G19 G3 Y189.96 Z21.27 K1.27
G0 Z65
G17

(2D Adaptive15 4)
M9
G0 X133.191 Y131.973
Z65
Z55
Z53.77
G1 Z52.5 F849.6
G3 X127.266 Y131.028 Z52.171 I-2.963 J-0.473 F400.3
X133.191 Y131.973 Z51.842 I2.963 J0.473
X127.266 Y131.028 Z51.513 I-2.963 J-0.473
X133.191 Y131.973 Z51.184 I2.963 J0.473
X127.266 Y131.028 Z50.854 I-2.963 J-0.473
X133.191 Y131.973 Z50.525 I2.963 J0.473
X127.266 Y131.028 Z50.196 I-2.963 J-0.473
X133.191 Y131.973 Z49.867 I2.963 J0.473
X127.266 Y131.028 Z49.538 I-2.963 J-0.473
X133.191 Y131.973 Z49.209 I2.963 J0.473
X127.266 Y131.028 Z48.88 I-2.963 J-0.473
X133.191 Y131.973 Z48.551 I2.963 J0.473
X127.266 Y131.028 Z48.221 I-2.963 J-0.473
X133.191 Y131.973 Z47.892 I2.963 J0.473
X127.266 Y131.028 Z47.563 I-2.963 J-0.473
X133.191 Y131.973 Z47.234 I2.963 J0.473
X127.266 Y131.028 Z46.905 I-2.963 J-0.473
X133.191 Y131.973 Z46.576 I2.963 J0.473
X127.266 Y131.028 Z46.247 I-2.963 J-0.473
X133.191 Y131.973 Z45.918 I2.963 J0.473
X127.266 Y131.028 Z45.588 I-2.963 J-0.473
X133.191 Y131.973 Z45.259 I2.963 J0.473
X127.266 Y131.028 Z44.93 I-2.963 J-0.473
X133.191 Y131.973 Z44.601 I2.963 J0.473
X127.266 Y131.028 Z44.272 I-2.963 J-0.473
X133.191 Y131.973 Z43.943 I2.963 J0.473
X127.266 Y131.028 Z43.614 I-2.963 J-0.473
X133.191 Y131.973 Z43.285 I2.963 J0.473
X127.266 Y131.028 Z42.956 I-2.963 J-0.473
X133.191 Y131.973 Z42.626 I2.963 J0.473
X127.266 Y131.028 Z42.297 I-2.963 J-0.473
X133.191 Y131.973 Z41.968 I2.963 J0.473
X127.266 Y131.028 Z41.639 I-2.963 J-0.473
X133.191 Y131.973 Z41.31 I2.963 J0.473
X127.265 Y131.028 Z40.981 I-2.963 J-0.473
X133.191 Y131.973 Z40.652 I2.963 J0.473
X127.265 Y131.028 Z40.323 I-2.963 J-0.473
X133.228 Y131.5 Z40.01 I2.963 J0.473
X127.228 I-3
X133.124 Y130.717 I3
X133.228 Y131.5 I-2.896 J0.783
G1 X133.249 Y132.792 F849.6
X133.257 Y132.873
X133.263 Y133.022
X133.256 Y133.172
X133.236 Y133.321
X133.205 Y133.468
X133.163 Y133.612
X133.113 Y133.753
X133.053 Y133.891
X132.986 Y134.025
X132.91 Y134.154
X132.827 Y134.281
X132.735 Y134.407
X132.633 Y134.531
X132.521 Y134.652
X132.4 Y134.77
X132.27 Y134.884
X132.132 Y134.993
X131.984 Y135.096
X131.829 Y135.193
X131.665 Y135.283
X131.494 Y135.365
X131.316 Y135.439
X131.132 Y135.504
X130.943 Y135.56
X130.748 Y135.606
X130.548 Y135.641
X130.345 Y135.667
X129.885 Y135.665
X129.429 Y135.597
X128.989 Y135.464
X128.572 Y135.27
X128.187 Y135.017
X127.843 Y134.712
X127.547 Y134.36
X126.739 Y133.248
X126.594 Y133.026
X126.506 Y132.875
X126.426 Y132.715
X126.352 Y132.549
X126.287 Y132.376
X126.23 Y132.196
X126.182 Y132.011
X126.143 Y131.821
X126.115 Y131.626
X126.097 Y131.428
X126.09 Y131.226
X126.094 Y131.022
X126.109 Y130.817
X126.135 Y130.61
X126.173 Y130.404
X126.222 Y130.198
X126.283 Y129.993
X126.355 Y129.791
X126.439 Y129.591
X126.534 Y129.395
X126.64 Y129.203
X126.758 Y129.017
X126.885 Y128.836
X127.023 Y128.661
X127.171 Y128.494
X127.329 Y128.334
X127.495 Y128.182
X127.67 Y128.039
X127.854 Y127.905
X128.044 Y127.781
X128.242 Y127.667
X128.447 Y127.564
X128.657 Y127.471
X128.872 Y127.391
X129.092 Y127.321
X129.315 Y127.264
X129.542 Y127.219
X129.772 Y127.186
X130.003 Y127.165
X130.04 Y127.164
X130.5 Y127.18
X130.953 Y127.26
X131.391 Y127.403
X131.804 Y127.604
X132.186 Y127.862
X132.528 Y128.17
X132.823 Y128.522
X133.752 Y129.8
X134.011 Y130.198
X134.151 Y130.44
X134.273 Y130.679
X134.377 Y130.916
X134.466 Y131.152
X134.541 Y131.388
X134.602 Y131.623
X134.656 Y132.082
X134.635 Y132.544
X134.539 Y132.997
X134.371 Y133.428
X134.135 Y133.825
X133.838 Y134.18
X133.487 Y134.481
G3 X131.507 Y133.44 I-0.71 J-1.053
G1 X131.481 Y130.594
G3 X133.376 Y129.477 I1.27 J-0.012
X133.752 Y129.8 I-0.625 J1.105
G1 X134.982 Y131.494
X135.075 Y131.637
X135.204 Y131.924
X135.271 Y132.232
X135.273 Y132.547
X135.211 Y132.855
X135.087 Y133.145
X134.905 Y133.402
X134.675 Y133.617
G3 X134.227 Y133.831 I-0.859 J-1.222
X133.602 Y133.874 I-0.412 J-1.436
X134.009 Y130.937 I0.212 J-1.467
X134.616 Y131.16 I-0.195 J1.47
X134.982 Y131.494 I-0.801 J1.247
G1 X135.031 Y131.56
X135.239 Y131.875
X135.317 Y132.065
X135.364 Y132.255
X135.38 Y132.446
X135.368 Y132.636
X135.326 Y132.826
X135.251 Y133.017
X135.159 Y133.175
X135.031 Y133.334
X134.966 Y133.397
X134.65 Y133.637
X131.311 Y136.062
X131.091 Y136.206
X130.76 Y136.359
X130.408 Y136.448
X130.044 Y136.472
X129.682 Y136.43
X129.335 Y136.322
X129.012 Y136.152
X128.726 Y135.927
X128.486 Y135.653
G3 X128.261 Y135.209 I1.673 J-1.128
X128.162 Y134.235 I1.898 J-0.685
X132.045 Y134.798 I1.942 J0.281
X131.311 Y136.062 I-1.942 J-0.281
G1 X130.787 Y136.443
X130.623 Y136.559
X130.459 Y136.647
X130.269 Y136.714
X130.078 Y136.749
X129.888 Y136.754
X129.697 Y136.733
X129.507 Y136.681
X129.316 Y136.595
X129.208 Y136.527
X129.1 Y136.443
X129.01 Y136.356
X128.935 Y136.27
X128.783 Y136.062
X127.547 Y134.36
X127.541 Y134.349
G2 X127.398 Y134.075 I-3.207 J1.495
X127.326 Y133.964 I-1.1 J0.635
G1 X127.299 Y133.928
X127.073 Y133.616
X127.047 Y133.58
G2 X126.963 Y133.477 I-1.027 J0.746
X126.747 Y133.257 I-2.63 J2.368
G1 X126.739 Y133.248
X125.741 Y131.875
X125.643 Y131.725
X125.568 Y131.595
X125.502 Y131.461
X125.444 Y131.322
X125.395 Y131.181
X125.351 Y131.031
X125.314 Y130.873
X125.284 Y130.705
X125.263 Y130.526
X125.25 Y130.34
X125.248 Y130.148
X125.256 Y129.95
X125.276 Y129.746
X125.308 Y129.537
X125.352 Y129.323
X125.41 Y129.105
X125.481 Y128.886
X125.565 Y128.666
X125.664 Y128.447
X125.776 Y128.229
X125.902 Y128.014
X126.042 Y127.802
X126.197 Y127.593
X126.366 Y127.39
X126.548 Y127.193
X126.744 Y127.003
X126.952 Y126.823
X127.172 Y126.651
X127.39 Y126.5
X127.621 Y126.357
X127.866 Y126.224
X128.098 Y126.114
X128.359 Y126.006
X128.606 Y125.92
X128.861 Y125.846
X129.303 Y125.782
X129.75 Y125.792
X130.189 Y125.877
X130.608 Y126.033
X130.995 Y126.257
X131.339 Y126.542
X131.631 Y126.881
X132.823 Y128.522
G3 X133.015 Y128.979 I-1.053 J0.71
X132.211 Y130.423 I-1.245 J0.253
G1 X127.183 Y132.284
G3 X126.117 Y132.198 I-0.441 J-1.191
X125.741 Y131.875 I0.625 J-1.105
G1 X124.911 Y130.733
X124.829 Y130.607
X124.755 Y130.477
X124.69 Y130.342
X124.633 Y130.203
X124.585 Y130.061
X124.543 Y129.912
X124.508 Y129.751
X124.479 Y129.578
X124.459 Y129.397
X124.449 Y129.207
X124.448 Y129.008
X124.459 Y128.798
X124.483 Y128.58
X124.519 Y128.357
X124.569 Y128.129
X124.634 Y127.895
X124.714 Y127.655
X124.811 Y127.413
X124.923 Y127.17
X125.051 Y126.929
X125.195 Y126.689
X125.354 Y126.454
X125.53 Y126.222
X125.722 Y125.996
X125.928 Y125.778
X126.125 Y125.591
X126.348 Y125.402
X126.568 Y125.234
X126.779 Y125.091
X127.02 Y124.946
X127.248 Y124.825
X127.471 Y124.722
X127.722 Y124.622
X128.123 Y124.521
X128.536 Y124.485
X128.949 Y124.515
X129.352 Y124.609
X129.736 Y124.766
X130.089 Y124.981
X130.405 Y125.249
X130.674 Y125.564
X131.631 Y126.881
G3 X131.822 Y127.338 I-1.053 J0.71
X131.151 Y128.724 I-1.245 J0.253
G1 X126.485 Y131.084
G3 X125.287 Y131.056 I-0.573 J-1.133
X124.911 Y130.733 I0.625 J-1.105
G1 X124.138 Y129.668
X124.029 Y129.502
X123.954 Y129.372
X123.888 Y129.237
X123.831 Y129.099
X123.781 Y128.956
X123.736 Y128.799
X123.698 Y128.632
X123.667 Y128.456
X123.645 Y128.266
X123.632 Y128.063
X123.63 Y127.852
X123.64 Y127.633
X123.663 Y127.403
X123.7 Y127.162
X123.752 Y126.917
X123.818 Y126.668
X123.901 Y126.416
X124 Y126.162
X124.114 Y125.908
X124.246 Y125.654
X124.395 Y125.403
X124.558 Y125.157
X124.738 Y124.916
X124.917 Y124.702
X125.11 Y124.494
X125.313 Y124.299
X125.507 Y124.132
X125.727 Y123.962
X125.94 Y123.815
X126.15 Y123.686
X126.385 Y123.559
X126.603 Y123.456
X126.831 Y123.363
X127.226 Y123.261
X127.632 Y123.223
X128.039 Y123.25
X128.437 Y123.341
X128.815 Y123.494
X129.164 Y123.705
X129.475 Y123.968
X129.74 Y124.278
X130.674 Y125.564
G3 X130.26 Y127.372 I-1.053 J0.71
G1 X125.778 Y129.983
G3 X124.138 Y129.668 I-0.639 J-1.097
G1 X123.308 Y128.526
X123.195 Y128.353
X123.12 Y128.224
X123.054 Y128.089
X122.996 Y127.951
X122.942 Y127.801
X122.895 Y127.64
X122.854 Y127.469
X122.82 Y127.284
X122.795 Y127.085
X122.78 Y126.876
X122.777 Y126.659
X122.785 Y126.43
X122.807 Y126.191
X122.843 Y125.945
X122.894 Y125.695
X122.96 Y125.441
X123.041 Y125.185
X123.139 Y124.928
X123.253 Y124.67
X123.383 Y124.415
X123.53 Y124.162
X123.692 Y123.914
X123.869 Y123.674
X124.044 Y123.46
X124.235 Y123.252
X124.434 Y123.058
X124.625 Y122.89
X124.841 Y122.72
X125.05 Y122.573
X125.258 Y122.444
X125.489 Y122.317
X125.704 Y122.213
X126.128 Y122.077
X126.569 Y122.013
X127.015 Y122.023
X127.452 Y122.107
X127.87 Y122.263
X128.255 Y122.486
X128.599 Y122.771
X128.89 Y123.108
X129.74 Y124.278
G3 X129.932 Y124.735 I-1.053 J0.71
X129.363 Y126.063 I-1.245 J0.253
G1 X124.985 Y128.819
G3 X123.308 Y128.526 I-0.676 J-1.075
G1 X122.422 Y127.307
X122.33 Y127.165
X122.254 Y127.035
X122.188 Y126.9
X122.129 Y126.762
X122.074 Y126.609
X122.024 Y126.445
X121.982 Y126.272
X121.947 Y126.083
X121.92 Y125.881
X121.904 Y125.669
X121.899 Y125.449
X121.907 Y125.217
X121.928 Y124.975
X121.963 Y124.726
X122.013 Y124.473
X122.079 Y124.217
X122.159 Y123.959
X122.256 Y123.7
X122.369 Y123.44
X122.499 Y123.184
X122.644 Y122.93
X122.805 Y122.682
X122.964 Y122.463
X123.142 Y122.245
X123.329 Y122.039
X123.508 Y121.862
X123.713 Y121.68
X123.917 Y121.518
X124.114 Y121.379
X124.338 Y121.237
X124.556 Y121.116
X124.765 Y121.014
X125.002 Y120.914
X125.402 Y120.805
X125.813 Y120.762
X126.227 Y120.786
X126.631 Y120.875
X127.015 Y121.029
X127.37 Y121.241
X127.686 Y121.508
X127.956 Y121.822
X128.89 Y123.108
G3 X129.081 Y123.565 I-1.053 J0.71
X128.501 Y124.901 I-1.245 J0.253
G1 X124.087 Y127.607
G3 X122.422 Y127.307 I-0.664 J-1.083
G1 X121.509 Y126.049
X121.427 Y125.924
X121.354 Y125.793
X121.289 Y125.657
X121.231 Y125.517
X121.177 Y125.361
X121.127 Y125.191
X121.085 Y125.011
X121.052 Y124.82
X121.027 Y124.615
X121.013 Y124.397
X121.01 Y124.171
X121.02 Y123.939
X121.044 Y123.698
X121.082 Y123.448
X121.135 Y123.195
X121.203 Y122.937
X121.287 Y122.679
X121.387 Y122.421
X121.502 Y122.165
X121.633 Y121.911
X121.78 Y121.66
X121.942 Y121.416
X122.118 Y121.18
X122.289 Y120.974
X122.486 Y120.762
X122.678 Y120.577
X122.871 Y120.409
X123.087 Y120.241
X123.29 Y120.101
X123.505 Y119.968
X123.73 Y119.846
X123.941 Y119.746
X124.173 Y119.651
X124.56 Y119.55
X124.959 Y119.512
X125.358 Y119.537
X125.749 Y119.626
X126.12 Y119.776
X126.462 Y119.983
X126.768 Y120.242
X127.028 Y120.546
X127.956 Y121.822
G3 X127.574 Y123.611 I-1.053 J0.71
G1 X123.181 Y126.346
G3 X121.509 Y126.049 I-0.671 J-1.078
G1 X120.648 Y124.865
X120.556 Y124.724
X120.481 Y124.594
X120.414 Y124.46
X120.354 Y124.319
X120.298 Y124.165
X120.249 Y124.001
X120.205 Y123.825
X120.169 Y123.633
X120.143 Y123.43
X120.126 Y123.219
X120.121 Y122.997
X120.128 Y122.763
X120.149 Y122.52
X120.184 Y122.272
X120.233 Y122.019
X120.298 Y121.763
X120.379 Y121.505
X120.476 Y121.245
X120.589 Y120.986
X120.718 Y120.728
X120.863 Y120.474
X121.022 Y120.227
X121.197 Y119.985
X121.373 Y119.769
X121.561 Y119.562
X121.759 Y119.365
X121.949 Y119.197
X122.163 Y119.027
X122.371 Y118.878
X122.576 Y118.749
X122.805 Y118.621
X123.019 Y118.516
X123.24 Y118.423
X123.63 Y118.316
X124.033 Y118.274
X124.438 Y118.296
X124.833 Y118.384
X125.209 Y118.533
X125.557 Y118.741
X125.866 Y119.002
X126.13 Y119.31
X127.028 Y120.546
G3 X126.67 Y122.319 I-1.053 J0.71
G1 X122.343 Y125.146
G3 X120.648 Y124.865 I-0.695 J-1.063
G1 X119.751 Y123.63
X119.666 Y123.5
X119.591 Y123.37
X119.524 Y123.236
X119.465 Y123.097
X119.409 Y122.943
X119.358 Y122.777
X119.315 Y122.601
X119.279 Y122.411
X119.252 Y122.207
X119.235 Y121.993
X119.229 Y121.77
X119.236 Y121.537
X119.257 Y121.293
X119.292 Y121.042
X119.342 Y120.787
X119.407 Y120.529
X119.487 Y120.27
X119.584 Y120.009
X119.697 Y119.749
X119.825 Y119.491
X119.971 Y119.237
X120.131 Y118.988
X120.306 Y118.746
X120.477 Y118.534
X120.669 Y118.322
X120.863 Y118.129
X121.052 Y117.961
X121.266 Y117.79
X121.471 Y117.644
X121.678 Y117.513
X121.905 Y117.386
X122.117 Y117.282
X122.34 Y117.187
X122.731 Y117.08
X123.134 Y117.037
X123.538 Y117.059
X123.934 Y117.146
X124.31 Y117.296
X124.658 Y117.504
X124.967 Y117.765
X125.231 Y118.072
X126.13 Y119.31
G3 X126.322 Y119.767 I-1.053 J0.71
X125.772 Y121.083 I-1.245 J0.253
G1 X121.447 Y123.911
G3 X119.751 Y123.63 I-0.695 J-1.063
G1 X118.868 Y122.414
X118.774 Y122.27
X118.699 Y122.14
X118.632 Y122.006
X118.572 Y121.867
X118.516 Y121.712
X118.465 Y121.546
X118.422 Y121.369
X118.385 Y121.179
X118.358 Y120.974
X118.341 Y120.759
X118.335 Y120.536
X118.342 Y120.302
X118.363 Y120.058
X118.398 Y119.807
X118.447 Y119.551
X118.512 Y119.293
X118.593 Y119.033
X118.689 Y118.773
X118.802 Y118.513
X118.93 Y118.255
X119.075 Y118.001
X119.235 Y117.752
X119.41 Y117.51
X119.581 Y117.299
X119.773 Y117.086
X119.967 Y116.894
X120.155 Y116.726
X120.369 Y116.555
X120.574 Y116.409
X120.781 Y116.277
X121.008 Y116.15
X121.219 Y116.046
X121.273 Y116.023
X121.683 Y115.888
X122.111 Y115.823
X122.543 Y115.831
X122.968 Y115.911
X123.373 Y116.061
X123.748 Y116.276
X124.081 Y116.551
X124.364 Y116.879
X125.231 Y118.072
G3 X125.423 Y118.529 I-1.053 J0.71
X124.879 Y119.842 I-1.244 J0.253
G1 X120.569 Y122.692
G3 X118.868 Y122.414 I-0.701 J-1.059
G1 X117.997 Y121.216
X117.879 Y121.035
X117.804 Y120.905
X117.737 Y120.771
X117.678 Y120.632
X117.621 Y120.477
X117.57 Y120.31
X117.527 Y120.134
X117.49 Y119.943
X117.463 Y119.738
X117.446 Y119.523
X117.44 Y119.3
X117.447 Y119.066
X117.467 Y118.822
X117.502 Y118.571
X117.552 Y118.315
X117.617 Y118.057
X117.697 Y117.797
X117.794 Y117.536
X117.907 Y117.276
X118.035 Y117.019
X118.18 Y116.765
X118.34 Y116.516
X118.501 Y116.293
X118.681 Y116.07
X118.869 Y115.862
X119.049 Y115.683
X119.255 Y115.5
X119.459 Y115.337
X119.655 Y115.197
X119.879 Y115.055
X120.094 Y114.934
X120.303 Y114.831
X120.539 Y114.731
X120.932 Y114.623
X121.338 Y114.579
X121.745 Y114.602
X122.144 Y114.689
X122.523 Y114.84
X122.873 Y115.049
X123.185 Y115.312
X123.451 Y115.622
X124.364 Y116.879
G3 X124.555 Y117.335 I-1.053 J0.71
X124.01 Y118.649 I-1.245 J0.253
G1 X119.697 Y121.494
G3 X117.997 Y121.216 I-0.699 J-1.06
G1 X117.054 Y119.918
X116.972 Y119.793
X116.898 Y119.662
X116.832 Y119.528
X116.773 Y119.387
X116.717 Y119.231
X116.667 Y119.061
X116.624 Y118.882
X116.588 Y118.691
X116.562 Y118.485
X116.546 Y118.267
X116.542 Y118.042
X116.55 Y117.809
X116.572 Y117.566
X116.608 Y117.314
X116.659 Y117.059
X116.726 Y116.801
X116.808 Y116.541
X116.906 Y116.281
X117.019 Y116.024
X117.149 Y115.767
X117.295 Y115.515
X117.456 Y115.268
X117.631 Y115.028
X117.802 Y114.82
X117.996 Y114.607
X118.189 Y114.418
X118.38 Y114.25
X118.594 Y114.08
X118.798 Y113.937
X119.009 Y113.805
X119.234 Y113.68
X119.445 Y113.578
X119.672 Y113.483
X120.061 Y113.378
X120.461 Y113.338
X120.862 Y113.361
X121.254 Y113.449
X121.628 Y113.598
X121.972 Y113.805
X122.279 Y114.065
X122.541 Y114.37
X123.451 Y115.622
G3 X123.642 Y116.079 I-1.053 J0.71
X123.087 Y117.399 I-1.244 J0.253
G1 X118.744 Y120.203
G3 X117.054 Y119.918 I-0.689 J-1.067
G1 X116.185 Y118.722
X116.085 Y118.569
X116.01 Y118.439
X115.943 Y118.305
X115.883 Y118.164
X115.827 Y118.009
X115.776 Y117.843
X115.733 Y117.667
X115.697 Y117.475
X115.669 Y117.271
X115.652 Y117.057
X115.647 Y116.835
X115.654 Y116.6
X115.675 Y116.356
X115.709 Y116.106
X115.759 Y115.851
X115.824 Y115.593
X115.904 Y115.335
X116.001 Y115.074
X116.114 Y114.814
X116.243 Y114.556
X116.388 Y114.302
X116.548 Y114.053
X116.723 Y113.811
X116.896 Y113.598
X117.086 Y113.388
X117.281 Y113.194
X117.47 Y113.025
X117.684 Y112.855
X117.89 Y112.708
X118.096 Y112.577
X118.323 Y112.45
X118.536 Y112.346
X118.554 Y112.338
X118.972 Y112.2
X119.406 Y112.135
X119.846 Y112.143
X120.278 Y112.224
X120.69 Y112.376
X121.071 Y112.596
X121.41 Y112.875
X121.697 Y113.208
X122.541 Y114.37
G3 X122.191 Y116.138 I-1.053 J0.71
G1 X117.889 Y118.998
G3 X116.185 Y118.722 I-0.703 J-1.058
G1 X115.287 Y117.486
X115.19 Y117.338
X115.115 Y117.208
X115.048 Y117.074
X114.989 Y116.934
X114.932 Y116.779
X114.881 Y116.613
X114.838 Y116.436
X114.802 Y116.246
X114.774 Y116.041
X114.757 Y115.826
X114.752 Y115.603
X114.758 Y115.369
X114.779 Y115.125
X114.814 Y114.873
X114.863 Y114.618
X114.928 Y114.359
X115.009 Y114.1
X115.105 Y113.839
X115.218 Y113.578
X115.347 Y113.321
X115.492 Y113.066
X115.652 Y112.817
X115.811 Y112.598
X115.99 Y112.376
X116.175 Y112.17
X116.354 Y111.992
X116.559 Y111.81
X116.762 Y111.648
X116.958 Y111.508
X117.182 Y111.366
X117.397 Y111.245
X117.606 Y111.143
X118.036 Y111.001
X118.485 Y110.933
X118.938 Y110.941
X119.384 Y111.024
X119.809 Y111.182
X120.202 Y111.408
X120.552 Y111.696
X120.848 Y112.04
X121.697 Y113.208
G3 X121.328 Y114.988 I-1.053 J0.71
G1 X116.972 Y117.774
G3 X115.287 Y117.486 I-0.684 J-1.07
G1 X114.401 Y116.267
X114.295 Y116.104
X114.22 Y115.974
X114.153 Y115.84
X114.093 Y115.7
X114.037 Y115.545
X113.986 Y115.378
X113.942 Y115.202
X113.906 Y115.011
X113.878 Y114.806
X113.861 Y114.591
X113.856 Y114.367
X113.862 Y114.136
X113.883 Y113.893
X113.917 Y113.643
X113.967 Y113.389
X114.031 Y113.133
X114.111 Y112.874
X114.207 Y112.616
X114.318 Y112.359
X114.446 Y112.103
X114.59 Y111.85
X114.748 Y111.604
X114.903 Y111.39
X115.081 Y111.169
X115.264 Y110.966
X115.441 Y110.79
X115.646 Y110.607
X115.848 Y110.446
X116.043 Y110.307
X116.267 Y110.164
X116.484 Y110.043
X116.693 Y109.94
X116.93 Y109.839
X117.333 Y109.728
X117.748 Y109.684
X118.166 Y109.707
X118.574 Y109.796
X118.962 Y109.95
X119.32 Y110.165
X119.64 Y110.434
X119.912 Y110.751
X120.848 Y112.04
G3 X121.04 Y112.497 I-1.053 J0.71
X120.466 Y113.828 I-1.244 J0.253
G1 X116.074 Y116.563
G3 X114.401 Y116.267 I-0.671 J-1.078
G1 X113.494 Y115.018
X113.399 Y114.872
X113.324 Y114.742
X113.257 Y114.608
X113.197 Y114.469
X113.141 Y114.314
X113.09 Y114.148
X113.047 Y113.972
X113.011 Y113.782
X112.983 Y113.577
X112.966 Y113.363
X112.961 Y113.141
X112.967 Y112.911
X112.987 Y112.67
X113.022 Y112.422
X113.071 Y112.17
X113.135 Y111.915
X113.215 Y111.658
X113.31 Y111.401
X113.42 Y111.146
X113.547 Y110.891
X113.69 Y110.64
X113.848 Y110.395
X114.021 Y110.155
X114.191 Y109.946
X114.382 Y109.733
X114.575 Y109.542
X114.764 Y109.374
X114.978 Y109.202
X115.184 Y109.056
X115.391 Y108.924
X115.619 Y108.796
X115.833 Y108.691
X116.057 Y108.596
X116.455 Y108.486
X116.865 Y108.443
X117.276 Y108.465
X117.679 Y108.554
X118.062 Y108.706
X118.416 Y108.917
X118.732 Y109.183
X119 Y109.496
X119.912 Y110.751
G3 X120.103 Y111.208 I-1.053 J0.71
X119.54 Y112.533 I-1.245 J0.253
G1 X115.177 Y115.308
G3 X113.87 Y115.342 I-0.682 J-1.072
X113.494 Y115.018 I0.625 J-1.105
G1 X112.592 Y113.776
X112.505 Y113.644
X112.43 Y113.514
X112.363 Y113.38
X112.304 Y113.241
X112.248 Y113.087
X112.198 Y112.921
X112.154 Y112.746
X112.119 Y112.557
X112.091 Y112.354
X112.075 Y112.14
X112.069 Y111.919
X112.076 Y111.687
X112.096 Y111.446
X112.131 Y111.197
X112.18 Y110.943
X112.245 Y110.686
X112.325 Y110.428
X112.421 Y110.169
X112.533 Y109.911
X112.661 Y109.656
X112.805 Y109.402
X112.964 Y109.155
X113.139 Y108.914
X113.309 Y108.704
X113.501 Y108.491
X113.694 Y108.299
X113.883 Y108.131
X114.097 Y107.96
X114.302 Y107.814
X114.51 Y107.682
X114.738 Y107.554
X114.95 Y107.45
X115.025 Y107.418
X115.435 Y107.283
X115.861 Y107.219
X116.293 Y107.226
X116.717 Y107.306
X117.122 Y107.456
X117.496 Y107.671
X117.829 Y107.946
X118.111 Y108.273
X119 Y109.496
G3 X118.632 Y111.276 I-1.053 J0.71
G1 X114.277 Y114.064
G3 X112.967 Y114.1 I-0.685 J-1.07
X112.592 Y113.776 I0.625 J-1.105
G1 X111.706 Y112.557
X111.615 Y112.417
X111.54 Y112.287
X111.473 Y112.153
X111.414 Y112.015
X111.357 Y111.86
X111.307 Y111.694
X111.264 Y111.519
X111.228 Y111.329
X111.2 Y111.125
X111.184 Y110.911
X111.178 Y110.689
X111.185 Y110.456
X111.205 Y110.214
X111.24 Y109.964
X111.29 Y109.709
X111.355 Y109.452
X111.435 Y109.193
X111.531 Y108.933
X111.643 Y108.674
X111.772 Y108.418
X111.916 Y108.164
X112.076 Y107.916
X112.239 Y107.691
X112.419 Y107.468
X112.608 Y107.259
X112.79 Y107.078
X112.996 Y106.895
X113.201 Y106.731
X113.398 Y106.591
X113.623 Y106.448
X113.839 Y106.327
X114.048 Y106.224
X114.284 Y106.124
X114.678 Y106.016
X115.084 Y105.973
X115.492 Y105.995
X115.89 Y106.083
X116.27 Y106.234
X116.62 Y106.443
X116.933 Y106.706
X117.198 Y107.016
X118.111 Y108.273
G3 X117.744 Y110.052 I-1.053 J0.71
G1 X113.393 Y112.844
G3 X111.706 Y112.557 I-0.686 J-1.069
G1 X110.806 Y111.318
X110.722 Y111.19
X110.647 Y111.06
X110.581 Y110.926
X110.521 Y110.787
X110.465 Y110.632
X110.414 Y110.466
X110.37 Y110.29
X110.334 Y110.1
X110.307 Y109.895
X110.29 Y109.681
X110.285 Y109.458
X110.291 Y109.227
X110.312 Y108.984
X110.346 Y108.733
X110.396 Y108.48
X110.46 Y108.223
X110.541 Y107.964
X110.637 Y107.704
X110.749 Y107.446
X110.877 Y107.189
X111.021 Y106.936
X111.181 Y106.688
X111.355 Y106.446
X111.526 Y106.235
X111.718 Y106.023
X111.912 Y105.83
X112.101 Y105.662
X112.315 Y105.49
X112.521 Y105.344
X112.728 Y105.213
X112.955 Y105.085
X113.167 Y104.981
X113.391 Y104.886
X113.784 Y104.778
X114.188 Y104.735
X114.595 Y104.757
X114.993 Y104.845
X115.371 Y104.995
X115.72 Y105.204
X116.032 Y105.466
X116.297 Y105.775
X117.198 Y107.016
G3 X116.836 Y108.793 I-1.053 J0.71
G1 X112.497 Y111.602
G3 X110.806 Y111.318 I-0.69 J-1.066
G1 X109.927 Y110.109
X109.829 Y109.958
X109.754 Y109.828
X109.687 Y109.694
X109.628 Y109.556
X109.571 Y109.401
X109.521 Y109.234
X109.477 Y109.059
X109.441 Y108.869
X109.414 Y108.664
X109.397 Y108.45
X109.391 Y108.227
X109.398 Y107.994
X109.419 Y107.751
X109.454 Y107.5
X109.503 Y107.245
X109.568 Y106.987
X109.648 Y106.728
X109.745 Y106.468
X109.857 Y106.209
X109.986 Y105.952
X110.13 Y105.697
X110.29 Y105.449
X110.465 Y105.207
X110.636 Y104.996
X110.827 Y104.784
X111.021 Y104.592
X111.21 Y104.423
X111.424 Y104.252
X111.629 Y104.106
X111.836 Y103.975
X112.063 Y103.848
X112.274 Y103.744
X112.498 Y103.648
X112.89 Y103.541
X113.293 Y103.498
X113.699 Y103.52
X114.095 Y103.607
X114.473 Y103.757
X114.821 Y103.966
X115.132 Y104.227
X115.396 Y104.536
X116.297 Y105.775
G3 X115.942 Y107.546 I-1.053 J0.71
G1 X111.626 Y110.387
G3 X110.303 Y110.432 I-0.698 J-1.061
X109.927 Y110.109 I0.625 J-1.105
G1 X109.048 Y108.898
X108.936 Y108.727
X108.861 Y108.597
X108.794 Y108.462
X108.734 Y108.324
X108.678 Y108.169
X108.627 Y108.002
X108.584 Y107.826
X108.547 Y107.636
X108.52 Y107.431
X108.503 Y107.216
X108.497 Y106.993
X108.504 Y106.76
X108.525 Y106.516
X108.56 Y106.265
X108.609 Y106.01
X108.674 Y105.752
X108.754 Y105.492
X108.851 Y105.232
X108.963 Y104.972
X109.092 Y104.715
X109.237 Y104.461
X109.396 Y104.212
X109.571 Y103.971
X109.742 Y103.759
X109.933 Y103.547
X110.127 Y103.355
X110.316 Y103.187
X110.53 Y103.016
X110.735 Y102.87
X110.942 Y102.738
X111.168 Y102.611
X111.38 Y102.507
X111.603 Y102.412
X111.994 Y102.305
X112.397 Y102.262
X112.802 Y102.284
X113.198 Y102.371
X113.575 Y102.521
X113.923 Y102.729
X114.233 Y102.99
X114.497 Y103.298
X115.396 Y104.536
G3 X115.049 Y106.302 I-1.053 J0.71
G1 X110.754 Y109.172
G3 X109.048 Y108.898 I-0.706 J-1.056
G1 X108.165 Y107.683
X108.041 Y107.494
X107.966 Y107.364
X107.899 Y107.229
X107.84 Y107.09
X107.783 Y106.935
X107.732 Y106.769
X107.689 Y106.592
X107.653 Y106.402
X107.625 Y106.197
X107.608 Y105.982
X107.602 Y105.759
X107.609 Y105.525
X107.63 Y105.282
X107.664 Y105.03
X107.714 Y104.775
X107.779 Y104.516
X107.859 Y104.257
X107.956 Y103.996
X108.068 Y103.737
X108.197 Y103.479
X108.342 Y103.225
X108.501 Y102.977
X108.676 Y102.735
X108.847 Y102.524
X109.038 Y102.311
X109.232 Y102.119
X109.421 Y101.951
X109.635 Y101.78
X109.839 Y101.634
X110.046 Y101.503
X110.272 Y101.376
X110.484 Y101.272
X110.906 Y101.132
X111.346 Y101.066
X111.79 Y101.073
X112.227 Y101.156
X112.645 Y101.31
X113.03 Y101.531
X113.373 Y101.815
X113.664 Y102.151
X114.497 Y103.298
G3 X114.688 Y103.755 I-1.053 J0.71
X114.155 Y105.06 I-1.244 J0.253
G1 X109.877 Y107.953
G3 X108.165 Y107.683 I-0.711 J-1.052
G1 X107.22 Y106.383
X107.138 Y106.257
X107.064 Y106.127
X106.998 Y105.992
X106.938 Y105.852
X106.882 Y105.696
X106.831 Y105.528
X106.788 Y105.35
X106.752 Y105.159
X106.725 Y104.953
X106.709 Y104.736
X106.704 Y104.512
X106.712 Y104.277
X106.733 Y104.034
X106.769 Y103.781
X106.82 Y103.525
X106.886 Y103.266
X106.968 Y103.006
X107.065 Y102.744
X107.179 Y102.485
X107.308 Y102.228
X107.454 Y101.974
X107.614 Y101.727
X107.771 Y101.511
X107.952 Y101.289
X108.136 Y101.087
X108.314 Y100.911
X108.52 Y100.729
X108.721 Y100.569
X108.918 Y100.43
X109.142 Y100.289
X109.357 Y100.169
X109.566 Y100.067
X109.997 Y99.927
X110.445 Y99.86
X110.898 Y99.869
X111.343 Y99.954
X111.767 Y100.111
X112.16 Y100.338
X112.509 Y100.626
X112.805 Y100.969
X113.664 Y102.151
G3 X113.283 Y103.939 I-1.053 J0.71
G1 X108.893 Y106.678
G3 X107.22 Y106.383 I-0.672 J-1.077
G1 X106.335 Y105.164
X106.247 Y105.029
X106.172 Y104.899
X106.105 Y104.765
X106.045 Y104.625
X105.988 Y104.469
X105.937 Y104.303
X105.894 Y104.126
X105.857 Y103.934
X105.83 Y103.729
X105.813 Y103.515
X105.807 Y103.292
X105.814 Y103.059
X105.835 Y102.816
X105.869 Y102.567
X105.918 Y102.314
X105.983 Y102.058
X106.063 Y101.8
X106.158 Y101.542
X106.27 Y101.286
X106.397 Y101.03
X106.541 Y100.777
X106.699 Y100.531
X106.855 Y100.316
X107.032 Y100.097
X107.216 Y99.893
X107.394 Y99.717
X107.598 Y99.535
X107.801 Y99.373
X107.996 Y99.233
X108.22 Y99.091
X108.437 Y98.97
X108.646 Y98.867
X108.884 Y98.766
X109.287 Y98.655
X109.703 Y98.611
X110.12 Y98.634
X110.528 Y98.724
X110.917 Y98.878
X111.276 Y99.092
X111.595 Y99.362
X111.868 Y99.679
X112.805 Y100.969
G3 X112.415 Y102.762 I-1.053 J0.71
G1 X107.998 Y105.465
G3 X106.335 Y105.164 I-0.663 J-1.083
G1 X105.421 Y103.907
X105.339 Y103.781
X105.266 Y103.651
X105.2 Y103.516
X105.141 Y103.376
X105.086 Y103.22
X105.035 Y103.051
X104.993 Y102.873
X104.958 Y102.683
X104.932 Y102.478
X104.916 Y102.261
X104.912 Y102.037
X104.921 Y101.806
X104.943 Y101.566
X104.979 Y101.317
X105.03 Y101.064
X105.096 Y100.808
X105.178 Y100.551
X105.275 Y100.294
X105.388 Y100.038
X105.517 Y99.785
X105.662 Y99.534
X105.822 Y99.29
X105.996 Y99.053
X106.166 Y98.846
X106.36 Y98.633
X106.552 Y98.446
X106.743 Y98.278
X106.958 Y98.108
X107.162 Y97.965
X107.374 Y97.833
X107.601 Y97.708
X107.813 Y97.605
X108.042 Y97.51
X108.435 Y97.405
X108.84 Y97.364
X109.246 Y97.388
X109.643 Y97.477
X110.021 Y97.628
X110.37 Y97.838
X110.681 Y98.101
X110.945 Y98.41
X111.868 Y99.679
G3 X111.486 Y101.467 I-1.053 J0.71
G1 X107.094 Y104.203
G3 X105.421 Y103.907 I-0.671 J-1.078
G1 X104.554 Y102.712
X104.458 Y102.566
X104.383 Y102.436
X104.316 Y102.301
X104.256 Y102.162
X104.2 Y102.007
X104.15 Y101.843
X104.107 Y101.668
X104.071 Y101.478
X104.044 Y101.274
X104.028 Y101.062
X104.023 Y100.841
X104.03 Y100.608
X104.05 Y100.366
X104.085 Y100.117
X104.135 Y99.864
X104.199 Y99.608
X104.279 Y99.351
X104.376 Y99.092
X104.488 Y98.834
X104.617 Y98.577
X104.761 Y98.324
X104.921 Y98.076
X105.096 Y97.835
X105.268 Y97.622
X105.458 Y97.412
X105.654 Y97.218
X105.843 Y97.05
X106.058 Y96.879
X106.265 Y96.732
X106.471 Y96.601
X106.699 Y96.474
X106.913 Y96.369
X106.938 Y96.359
X107.356 Y96.221
X107.792 Y96.155
X108.233 Y96.163
X108.667 Y96.245
X109.08 Y96.398
X109.462 Y96.618
X109.802 Y96.899
X110.09 Y97.233
X110.945 Y98.41
G3 X110.583 Y100.186 I-1.053 J0.71
G1 X106.245 Y102.996
G3 X104.929 Y103.036 I-0.691 J-1.066
X104.554 Y102.712 I0.625 J-1.105
G1 X103.651 Y101.47
X103.568 Y101.343
X103.493 Y101.213
X103.426 Y101.079
X103.367 Y100.94
X103.311 Y100.786
X103.26 Y100.62
X103.217 Y100.444
X103.181 Y100.255
X103.154 Y100.051
X103.137 Y99.837
X103.131 Y99.615
X103.138 Y99.382
X103.159 Y99.139
X103.194 Y98.889
X103.243 Y98.634
X103.308 Y98.376
X103.389 Y98.117
X103.485 Y97.857
X103.598 Y97.598
X103.726 Y97.341
X103.871 Y97.086
X104.031 Y96.838
X104.19 Y96.618
X104.369 Y96.397
X104.556 Y96.19
X104.735 Y96.012
X104.94 Y95.83
X105.144 Y95.667
X105.34 Y95.527
X105.564 Y95.385
X105.781 Y95.264
X105.989 Y95.162
X106.226 Y95.061
X106.623 Y94.952
X107.033 Y94.908
X107.445 Y94.931
X107.847 Y95.02
X108.23 Y95.172
X108.583 Y95.383
X108.898 Y95.649
X109.167 Y95.962
X110.09 Y97.233
G3 X109.711 Y99.02 I-1.053 J0.71
G1 X105.325 Y101.764
G3 X103.651 Y101.47 I-0.674 J-1.077
G1 X102.785 Y100.278
X102.677 Y100.112
X102.602 Y99.982
X102.535 Y99.848
X102.475 Y99.709
X102.419 Y99.555
X102.368 Y99.388
X102.325 Y99.212
X102.289 Y99.022
X102.262 Y98.818
X102.245 Y98.603
X102.239 Y98.381
X102.246 Y98.149
X102.266 Y97.908
X102.301 Y97.658
X102.35 Y97.405
X102.415 Y97.149
X102.495 Y96.891
X102.59 Y96.632
X102.702 Y96.376
X102.83 Y96.12
X102.973 Y95.867
X103.132 Y95.621
X103.306 Y95.38
X103.476 Y95.17
X103.668 Y94.958
X103.861 Y94.765
X104.05 Y94.597
X104.265 Y94.426
X104.47 Y94.28
X104.677 Y94.148
X104.905 Y94.021
X105.117 Y93.916
X105.341 Y93.821
X105.736 Y93.713
X106.142 Y93.669
X106.551 Y93.692
X106.95 Y93.78
X107.331 Y93.93
X107.682 Y94.14
X107.994 Y94.404
X108.261 Y94.715
X109.167 Y95.962
G3 X108.808 Y97.735 I-1.053 J0.71
G1 X104.48 Y100.56
G3 X102.785 Y100.278 I-0.694 J-1.064
G1 X101.887 Y99.042
X101.783 Y98.884
X101.708 Y98.754
X101.642 Y98.619
X101.582 Y98.481
X101.526 Y98.326
X101.475 Y98.16
X101.432 Y97.984
X101.396 Y97.795
X101.369 Y97.591
X101.352 Y97.377
X101.346 Y97.155
X101.353 Y96.922
X101.373 Y96.68
X101.408 Y96.43
X101.458 Y96.175
X101.522 Y95.918
X101.603 Y95.659
X101.699 Y95.4
X101.811 Y95.141
X101.939 Y94.884
X102.084 Y94.63
X102.243 Y94.382
X102.418 Y94.141
X102.588 Y93.93
X102.78 Y93.718
X102.974 Y93.526
X103.162 Y93.358
X103.377 Y93.187
X103.582 Y93.041
X103.789 Y92.909
X104.016 Y92.782
X104.228 Y92.678
X104.452 Y92.582
X104.845 Y92.475
X105.249 Y92.431
X105.656 Y92.454
X106.054 Y92.541
X106.432 Y92.691
X106.781 Y92.9
X107.093 Y93.163
X107.358 Y93.472
X108.261 Y94.715
G3 X107.905 Y96.486 I-1.053 J0.71
G1 X103.584 Y99.322
G3 X101.887 Y99.042 I-0.697 J-1.062
G1 X100.973 Y97.784
X100.89 Y97.657
X100.815 Y97.527
X100.748 Y97.393
X100.689 Y97.254
X100.632 Y97.099
X100.582 Y96.933
X100.538 Y96.757
X100.502 Y96.567
X100.475 Y96.362
X100.458 Y96.148
X100.452 Y95.925
X100.459 Y95.691
X100.479 Y95.449
X100.514 Y95.198
X100.564 Y94.942
X100.629 Y94.684
X100.709 Y94.425
X100.805 Y94.165
X100.918 Y93.906
X101.046 Y93.649
X101.191 Y93.394
X101.351 Y93.146
X101.525 Y92.904
X101.696 Y92.693
X101.888 Y92.481
X102.081 Y92.289
X102.27 Y92.12
X102.484 Y91.949
X102.689 Y91.803
X102.896 Y91.672
X103.123 Y91.545
X103.335 Y91.44
X103.558 Y91.345
X103.95 Y91.238
X104.354 Y91.195
X104.76 Y91.217
X105.156 Y91.304
X105.534 Y91.454
X105.882 Y91.662
X106.193 Y91.924
X106.457 Y92.232
X107.358 Y93.472
G3 X106.998 Y95.246 I-1.053 J0.71
G1 X102.667 Y98.067
G3 X100.973 Y97.784 I-0.693 J-1.064
G1 X100.075 Y96.549
X99.993 Y96.423
X99.919 Y96.293
X99.852 Y96.159
X99.793 Y96.019
X99.736 Y95.864
X99.685 Y95.697
X99.642 Y95.52
X99.606 Y95.33
X99.579 Y95.124
X99.562 Y94.909
X99.557 Y94.686
X99.564 Y94.452
X99.585 Y94.209
X99.62 Y93.957
X99.67 Y93.701
X99.735 Y93.443
X99.816 Y93.183
X99.913 Y92.923
X100.026 Y92.663
X100.155 Y92.406
X100.3 Y92.152
X100.46 Y91.903
X100.635 Y91.662
X100.806 Y91.451
X100.998 Y91.239
X101.192 Y91.047
X101.381 Y90.879
X101.595 Y90.708
X101.8 Y90.563
X102.008 Y90.431
X102.234 Y90.305
X102.445 Y90.202
X102.867 Y90.063
X103.307 Y89.997
X103.751 Y90.005
X104.187 Y90.088
X104.604 Y90.242
X104.989 Y90.464
X105.332 Y90.747
X105.622 Y91.083
X106.457 Y92.232
G3 X106.098 Y94.006 I-1.053 J0.71
G1 X101.77 Y96.83
G3 X100.075 Y96.549 I-0.694 J-1.064
G1 X99.22 Y95.371
X99.101 Y95.189
X99.026 Y95.059
X98.959 Y94.925
X98.9 Y94.786
X98.843 Y94.63
X98.792 Y94.464
X98.749 Y94.288
X98.713 Y94.097
X98.685 Y93.892
X98.668 Y93.678
X98.663 Y93.455
X98.67 Y93.22
X98.69 Y92.977
X98.725 Y92.726
X98.775 Y92.47
X98.839 Y92.212
X98.92 Y91.953
X99.016 Y91.692
X99.129 Y91.432
X99.258 Y91.175
X99.402 Y90.92
X99.562 Y90.672
X99.719 Y90.455
X99.898 Y90.235
X100.082 Y90.03
X100.26 Y89.853
X100.465 Y89.671
X100.667 Y89.509
X100.863 Y89.37
X101.086 Y89.228
X101.302 Y89.107
X101.51 Y89.005
X101.747 Y88.904
X102.145 Y88.795
X102.556 Y88.751
X102.968 Y88.774
X103.372 Y88.862
X103.756 Y89.015
X104.11 Y89.227
X104.426 Y89.493
X104.695 Y89.807
X105.622 Y91.083
G3 X105.814 Y91.54 I-1.053 J0.71
X105.256 Y92.861 I-1.244 J0.253
G1 X100.908 Y95.658
G3 X99.22 Y95.371 I-0.687 J-1.068
G1 X98.276 Y94.072
X98.194 Y93.947
X98.12 Y93.816
X98.054 Y93.681
X97.995 Y93.541
X97.939 Y93.385
X97.889 Y93.215
X97.846 Y93.036
X97.811 Y92.845
X97.785 Y92.639
X97.769 Y92.421
X97.765 Y92.196
X97.773 Y91.964
X97.795 Y91.721
X97.831 Y91.471
X97.882 Y91.217
X97.948 Y90.96
X98.03 Y90.701
X98.128 Y90.443
X98.241 Y90.186
X98.37 Y89.932
X98.515 Y89.68
X98.675 Y89.435
X98.85 Y89.197
X99.02 Y88.989
X99.214 Y88.776
X99.406 Y88.588
X99.597 Y88.42
X99.812 Y88.251
X100.016 Y88.107
X100.227 Y87.975
X100.453 Y87.85
X100.664 Y87.748
X100.892 Y87.653
X101.283 Y87.548
X101.686 Y87.507
X102.09 Y87.531
X102.484 Y87.619
X102.86 Y87.769
X103.207 Y87.978
X103.516 Y88.239
X103.779 Y88.546
X104.695 Y89.807
G3 X104.323 Y91.589 I-1.053 J0.71
G1 X99.958 Y94.362
G3 X98.276 Y94.072 I-0.681 J-1.072
G1 X97.412 Y92.883
X97.308 Y92.724
X97.233 Y92.594
X97.167 Y92.46
X97.107 Y92.32
X97.05 Y92.165
X97 Y92
X96.957 Y91.824
X96.921 Y91.633
X96.894 Y91.429
X96.877 Y91.216
X96.871 Y90.994
X96.879 Y90.76
X96.899 Y90.518
X96.934 Y90.268
X96.983 Y90.014
X97.048 Y89.757
X97.128 Y89.499
X97.225 Y89.239
X97.337 Y88.98
X97.466 Y88.723
X97.611 Y88.469
X97.771 Y88.221
X97.946 Y87.98
X98.118 Y87.767
X98.308 Y87.556
X98.504 Y87.362
X98.693 Y87.194
X98.907 Y87.023
X99.113 Y86.876
X99.319 Y86.746
X99.547 Y86.618
X99.76 Y86.514
X99.829 Y86.485
X100.237 Y86.35
X100.662 Y86.286
X101.091 Y86.294
X101.513 Y86.374
X101.915 Y86.523
X102.288 Y86.737
X102.619 Y87.01
X102.899 Y87.335
X103.779 Y88.546
G3 X103.971 Y89.003 I-1.053 J0.71
X103.425 Y90.316 I-1.244 J0.253
G1 X99.112 Y93.161
G3 X97.412 Y92.883 I-0.699 J-1.06
G1 X96.482 Y91.603
X96.4 Y91.477
X96.327 Y91.346
X96.261 Y91.211
X96.203 Y91.071
X96.148 Y90.915
X96.098 Y90.745
X96.055 Y90.565
X96.021 Y90.375
X95.995 Y90.169
X95.98 Y89.951
X95.977 Y89.725
X95.986 Y89.49
X96.009 Y89.247
X96.046 Y88.995
X96.099 Y88.738
X96.167 Y88.479
X96.25 Y88.218
X96.35 Y87.957
X96.465 Y87.698
X96.596 Y87.442
X96.744 Y87.189
X96.906 Y86.942
X97.068 Y86.721
X97.254 Y86.497
X97.442 Y86.293
X97.624 Y86.115
X97.834 Y85.932
X98.037 Y85.773
X98.236 Y85.634
X98.462 Y85.493
X98.675 Y85.376
X98.888 Y85.275
X99.309 Y85.14
X99.747 Y85.077
X100.189 Y85.088
X100.623 Y85.172
X101.038 Y85.327
X101.42 Y85.549
X101.761 Y85.831
X102.05 Y86.166
X102.899 Y87.335
G3 X102.528 Y89.117 I-1.053 J0.71
G1 X98.165 Y91.893
G3 X96.858 Y91.926 I-0.682 J-1.072
X96.482 Y91.603 I0.625 J-1.105
G1 X95.594 Y90.381
X95.512 Y90.255
X95.438 Y90.125
X95.372 Y89.99
X95.312 Y89.848
X95.256 Y89.691
X95.206 Y89.524
X95.163 Y89.346
X95.128 Y89.153
X95.101 Y88.947
X95.086 Y88.732
X95.081 Y88.508
X95.09 Y88.274
X95.112 Y88.029
X95.148 Y87.778
X95.199 Y87.524
X95.265 Y87.267
X95.347 Y87.007
X95.445 Y86.747
X95.559 Y86.489
X95.69 Y86.231
X95.836 Y85.978
X95.997 Y85.731
X96.155 Y85.514
X96.334 Y85.296
X96.52 Y85.092
X96.7 Y84.916
X96.905 Y84.735
X97.108 Y84.574
X97.305 Y84.436
X97.529 Y84.296
X97.745 Y84.176
X97.955 Y84.075
X98.053 Y84.033
X98.462 Y83.901
X98.887 Y83.839
X99.316 Y83.848
X99.738 Y83.929
X100.141 Y84.079
X100.513 Y84.294
X100.844 Y84.568
X101.125 Y84.893
X102.05 Y86.166
G3 X102.242 Y86.623 I-1.053 J0.71
X101.665 Y87.956 I-1.244 J0.253
G1 X97.263 Y90.679
G3 X95.594 Y90.381 I-0.668 J-1.08
G1 X94.701 Y89.151
X94.619 Y89.025
X94.544 Y88.895
X94.478 Y88.76
X94.419 Y88.62
X94.362 Y88.464
X94.312 Y88.297
X94.269 Y88.12
X94.234 Y87.928
X94.207 Y87.722
X94.191 Y87.507
X94.186 Y87.283
X94.194 Y87.051
X94.215 Y86.808
X94.251 Y86.558
X94.302 Y86.305
X94.367 Y86.049
X94.448 Y85.791
X94.545 Y85.533
X94.657 Y85.277
X94.786 Y85.022
X94.931 Y84.77
X95.091 Y84.524
X95.256 Y84.298
X95.436 Y84.077
X95.627 Y83.867
X95.81 Y83.687
X96.017 Y83.504
X96.223 Y83.341
X96.421 Y83.201
X96.647 Y83.059
X96.864 Y82.939
X97.074 Y82.837
X97.311 Y82.737
X97.703 Y82.631
X98.106 Y82.589
X98.512 Y82.613
X98.908 Y82.701
X99.285 Y82.851
X99.633 Y83.06
X99.943 Y83.322
X100.208 Y83.63
X101.125 Y84.893
G3 X100.751 Y86.676 I-1.053 J0.71
G1 X96.381 Y89.442
G3 X94.701 Y89.151 I-0.679 J-1.073
G1 X93.817 Y87.935
X93.73 Y87.802
X93.655 Y87.672
X93.589 Y87.538
X93.529 Y87.398
X93.473 Y87.244
X93.422 Y87.078
X93.379 Y86.903
X93.343 Y86.712
X93.316 Y86.508
X93.299 Y86.295
X93.294 Y86.073
X93.301 Y85.842
X93.321 Y85.599
X93.356 Y85.349
X93.406 Y85.096
X93.47 Y84.84
X93.55 Y84.581
X93.647 Y84.322
X93.759 Y84.064
X93.887 Y83.806
X94.032 Y83.553
X94.191 Y83.305
X94.367 Y83.063
X94.539 Y82.85
X94.73 Y82.639
X94.925 Y82.445
X95.114 Y82.277
X95.329 Y82.106
X95.535 Y81.959
X95.742 Y81.828
X95.969 Y81.701
X96.182 Y81.596
X96.405 Y81.501
X96.797 Y81.394
X97.202 Y81.351
X97.608 Y81.374
X98.005 Y81.461
X98.382 Y81.611
X98.731 Y81.82
X99.042 Y82.082
X99.307 Y82.39
X100.208 Y83.63
G3 X100.399 Y84.087 I-1.053 J0.71
X99.846 Y85.406 I-1.244 J0.253
G1 X95.509 Y88.219
G3 X93.817 Y87.935 I-0.691 J-1.065
G1 X92.953 Y86.745
X92.84 Y86.572
X92.764 Y86.442
X92.698 Y86.307
X92.638 Y86.169
X92.582 Y86.015
X92.532 Y85.849
X92.488 Y85.673
X92.452 Y85.483
X92.425 Y85.279
X92.408 Y85.065
X92.403 Y84.843
X92.41 Y84.609
X92.43 Y84.367
X92.465 Y84.116
X92.515 Y83.861
X92.58 Y83.603
X92.66 Y83.344
X92.757 Y83.084
X92.869 Y82.824
X92.998 Y82.567
X93.143 Y82.313
X93.302 Y82.064
X93.477 Y81.823
X93.648 Y81.612
X93.84 Y81.399
X94.034 Y81.207
X94.223 Y81.039
X94.437 Y80.868
X94.642 Y80.722
X94.849 Y80.59
X95.076 Y80.463
X95.287 Y80.36
X95.309 Y80.35
X95.727 Y80.213
X96.162 Y80.147
X96.603 Y80.155
X97.036 Y80.236
X97.449 Y80.389
X97.831 Y80.609
X98.17 Y80.889
X98.458 Y81.222
X99.307 Y82.39
G3 X98.958 Y84.158 I-1.053 J0.71
G1 X94.657 Y87.02
G3 X93.328 Y87.069 I-0.704 J-1.057
X92.953 Y86.745 I0.625 J-1.105
G1 X92.055 Y85.509
X91.947 Y85.344
X91.872 Y85.214
X91.805 Y85.08
X91.746 Y84.941
X91.689 Y84.786
X91.638 Y84.619
X91.595 Y84.443
X91.559 Y84.253
X91.531 Y84.048
X91.514 Y83.833
X91.509 Y83.611
X91.515 Y83.377
X91.536 Y83.133
X91.571 Y82.882
X91.62 Y82.627
X91.685 Y82.369
X91.766 Y82.109
X91.862 Y81.849
X91.975 Y81.589
X92.103 Y81.332
X92.248 Y81.077
X92.408 Y80.829
X92.566 Y80.61
X92.745 Y80.388
X92.931 Y80.182
X93.11 Y80.004
X93.315 Y79.822
X93.518 Y79.66
X93.714 Y79.52
X93.938 Y79.378
X94.154 Y79.257
X94.362 Y79.154
X94.793 Y79.012
X95.242 Y78.944
X95.696 Y78.952
X96.142 Y79.036
X96.568 Y79.194
X96.961 Y79.42
X97.311 Y79.709
X97.608 Y80.052
X98.458 Y81.222
G3 X98.092 Y83.001 I-1.053 J0.71
G1 X93.742 Y85.796
G3 X92.055 Y85.509 I-0.686 J-1.069
G1 X91.169 Y84.29
X91.052 Y84.111
X90.977 Y83.981
X90.91 Y83.847
X90.851 Y83.708
X90.794 Y83.553
X90.743 Y83.386
X90.7 Y83.21
X90.664 Y83.019
X90.636 Y82.814
X90.619 Y82.599
X90.613 Y82.376
X90.62 Y82.145
X90.64 Y81.902
X90.675 Y81.652
X90.724 Y81.399
X90.789 Y81.143
X90.869 Y80.885
X90.964 Y80.626
X91.076 Y80.369
X91.203 Y80.113
X91.347 Y79.861
X91.505 Y79.615
X91.66 Y79.401
X91.838 Y79.18
X92.021 Y78.977
X92.199 Y78.801
X92.403 Y78.619
X92.605 Y78.457
X92.801 Y78.318
X93.025 Y78.176
X93.241 Y78.054
X93.45 Y77.951
X93.688 Y77.85
X94.091 Y77.74
X94.507 Y77.695
X94.924 Y77.718
X95.332 Y77.808
X95.721 Y77.962
X96.079 Y78.176
X96.399 Y78.446
X96.671 Y78.763
X97.608 Y80.052
G3 X97.229 Y81.839 I-1.053 J0.71
G1 X92.844 Y84.584
G3 X91.544 Y84.613 I-0.674 J-1.076
X91.169 Y84.29 I0.625 J-1.105
G1 X90.26 Y83.039
X90.157 Y82.881
X90.082 Y82.751
X90.015 Y82.617
X89.955 Y82.478
X89.899 Y82.323
X89.848 Y82.157
X89.805 Y81.981
X89.769 Y81.791
X89.741 Y81.587
X89.724 Y81.373
X89.719 Y81.151
X89.726 Y80.921
X89.746 Y80.68
X89.78 Y80.432
X89.829 Y80.18
X89.893 Y79.925
X89.973 Y79.669
X90.068 Y79.412
X90.178 Y79.157
X90.306 Y78.902
X90.448 Y78.651
X90.606 Y78.406
X90.78 Y78.166
X90.949 Y77.957
X91.14 Y77.745
X91.333 Y77.553
X91.522 Y77.385
X91.736 Y77.213
X91.942 Y77.067
X92.149 Y76.935
X92.378 Y76.807
X92.591 Y76.702
X92.815 Y76.607
X93.213 Y76.498
X93.623 Y76.454
X94.035 Y76.476
X94.438 Y76.565
X94.821 Y76.717
X95.175 Y76.929
X95.491 Y77.195
X95.759 Y77.508
X96.671 Y78.763
G3 X96.302 Y80.543 I-1.053 J0.71
G1 X91.944 Y83.327
G3 X90.26 Y83.039 I-0.684 J-1.07
G1 X89.354 Y81.792
X89.264 Y81.654
X89.189 Y81.524
X89.122 Y81.389
X89.063 Y81.251
X89.007 Y81.097
X88.956 Y80.931
X88.913 Y80.756
X88.877 Y80.568
X88.85 Y80.364
X88.833 Y80.151
X88.828 Y79.929
X88.835 Y79.697
X88.855 Y79.457
X88.89 Y79.207
X88.939 Y78.953
X89.004 Y78.697
X89.084 Y78.439
X89.18 Y78.18
X89.292 Y77.922
X89.419 Y77.666
X89.564 Y77.413
X89.723 Y77.166
X89.897 Y76.925
X90.067 Y76.715
X90.259 Y76.502
X90.452 Y76.31
X90.641 Y76.142
X90.856 Y75.971
X91.061 Y75.825
X91.269 Y75.693
X91.496 Y75.565
X91.709 Y75.461
X91.77 Y75.435
X92.183 Y75.299
X92.613 Y75.234
X93.047 Y75.242
X93.475 Y75.322
X93.882 Y75.473
X94.259 Y75.69
X94.594 Y75.967
X94.879 Y76.296
X95.759 Y77.508
G3 X95.951 Y77.965 I-1.053 J0.71
X95.392 Y79.287 I-1.244 J0.253
G1 X91.041 Y82.079
G3 X89.354 Y81.792 I-0.686 J-1.069
G1 X88.471 Y80.576
X88.373 Y80.427
X88.298 Y80.297
X88.232 Y80.163
X88.172 Y80.025
X88.116 Y79.87
X88.066 Y79.704
X88.022 Y79.529
X87.987 Y79.34
X87.959 Y79.135
X87.942 Y78.921
X87.937 Y78.699
X87.944 Y78.467
X87.964 Y78.225
X87.999 Y77.974
X88.049 Y77.719
X88.113 Y77.462
X88.194 Y77.204
X88.29 Y76.944
X88.402 Y76.685
X88.53 Y76.429
X88.675 Y76.175
X88.835 Y75.927
X88.996 Y75.703
X89.176 Y75.481
X89.365 Y75.272
X89.546 Y75.093
X89.751 Y74.909
X89.956 Y74.746
X90.153 Y74.606
X90.377 Y74.464
X90.594 Y74.342
X90.803 Y74.24
X91.039 Y74.139
X91.434 Y74.031
X91.841 Y73.988
X92.25 Y74.01
X92.65 Y74.098
X93.031 Y74.249
X93.382 Y74.46
X93.696 Y74.724
X93.962 Y75.034
X94.879 Y76.296
G3 X94.511 Y78.075 I-1.053 J0.71
G1 X90.156 Y80.864
G3 X88.846 Y80.899 I-0.685 J-1.07
X88.471 Y80.576 I0.625 J-1.105
G1 X87.573 Y79.341
X87.481 Y79.2
X87.406 Y79.07
X87.34 Y78.936
X87.28 Y78.797
X87.224 Y78.642
X87.173 Y78.476
X87.13 Y78.3
X87.094 Y78.11
X87.066 Y77.906
X87.049 Y77.691
X87.044 Y77.469
X87.05 Y77.237
X87.071 Y76.995
X87.106 Y76.745
X87.155 Y76.491
X87.219 Y76.234
X87.3 Y75.976
X87.396 Y75.716
X87.507 Y75.459
X87.636 Y75.202
X87.78 Y74.949
X87.939 Y74.702
X88.113 Y74.461
X88.284 Y74.25
X88.475 Y74.037
X88.669 Y73.845
X88.858 Y73.676
X89.073 Y73.505
X89.278 Y73.359
X89.485 Y73.227
X89.713 Y73.1
X89.925 Y72.996
X90.149 Y72.9
X90.542 Y72.792
X90.947 Y72.749
X91.355 Y72.772
X91.753 Y72.859
X92.132 Y73.01
X92.482 Y73.219
X92.794 Y73.482
X93.059 Y73.791
X93.962 Y75.034
G3 X93.601 Y76.81 I-1.053 J0.71
G1 X89.266 Y79.624
G3 X87.573 Y79.341 I-0.692 J-1.065
G1 X86.648 Y78.068
X86.566 Y77.942
X86.493 Y77.811
X86.429 Y77.676
X86.37 Y77.534
X86.316 Y77.378
X86.266 Y77.207
X86.224 Y77.026
X86.191 Y76.834
X86.166 Y76.629
X86.152 Y76.41
X86.149 Y76.182
X86.159 Y75.947
X86.183 Y75.705
X86.221 Y75.454
X86.275 Y75.196
X86.344 Y74.937
X86.429 Y74.676
X86.53 Y74.415
X86.646 Y74.156
X86.778 Y73.901
X86.926 Y73.648
X87.09 Y73.402
X87.265 Y73.166
X87.437 Y72.959
X87.634 Y72.747
X87.825 Y72.562
X88.02 Y72.394
X88.234 Y72.228
X88.436 Y72.088
X88.652 Y71.955
X88.875 Y71.834
X89.084 Y71.734
X89.316 Y71.639
X89.699 Y71.54
X90.093 Y71.502
X90.488 Y71.527
X90.874 Y71.615
X91.241 Y71.763
X91.579 Y71.968
X91.881 Y72.224
X92.139 Y72.524
X93.059 Y73.791
G3 X92.69 Y75.572 I-1.053 J0.71
G1 X88.333 Y78.356
G3 X86.648 Y78.068 I-0.684 J-1.07
G1 X85.811 Y76.915
X85.694 Y76.736
X85.619 Y76.606
X85.552 Y76.471
X85.491 Y76.329
X85.435 Y76.175
X85.385 Y76.011
X85.342 Y75.833
X85.305 Y75.64
X85.278 Y75.437
X85.262 Y75.225
X85.257 Y75.001
X85.264 Y74.765
X85.284 Y74.521
X85.319 Y74.272
X85.369 Y74.018
X85.434 Y73.761
X85.515 Y73.502
X85.612 Y73.24
X85.725 Y72.98
X85.854 Y72.722
X86 Y72.467
X86.16 Y72.219
X86.335 Y71.978
X86.511 Y71.761
X86.698 Y71.553
X86.897 Y71.356
X87.086 Y71.188
X87.3 Y71.018
X87.508 Y70.87
X87.712 Y70.74
X87.94 Y70.613
X88.154 Y70.508
X88.374 Y70.415
X88.762 Y70.309
X89.162 Y70.266
X89.564 Y70.289
X89.957 Y70.376
X90.331 Y70.524
X90.676 Y70.731
X90.984 Y70.99
X91.246 Y71.296
X92.139 Y72.524
G3 X91.799 Y74.286 I-1.053 J0.71
G1 X87.525 Y77.184
G3 X86.186 Y77.239 I-0.713 J-1.051
X85.811 Y76.915 I0.625 J-1.105
G1 X84.864 Y75.611
X84.782 Y75.486
X84.708 Y75.355
X84.643 Y75.22
X84.585 Y75.078
X84.529 Y74.922
X84.479 Y74.751
X84.437 Y74.57
X84.403 Y74.379
X84.377 Y74.172
X84.362 Y73.953
X84.359 Y73.726
X84.369 Y73.491
X84.392 Y73.246
X84.43 Y72.994
X84.483 Y72.735
X84.552 Y72.475
X84.636 Y72.214
X84.736 Y71.952
X84.852 Y71.692
X84.984 Y71.435
X85.132 Y71.181
X85.295 Y70.934
X85.472 Y70.695
X85.644 Y70.487
X85.84 Y70.275
X86.032 Y70.088
X86.225 Y69.92
X86.439 Y69.752
X86.642 Y69.611
X86.856 Y69.479
X87.079 Y69.357
X87.288 Y69.257
X87.703 Y69.125
X88.135 Y69.064
X88.571 Y69.075
X88.999 Y69.158
X89.407 Y69.311
X89.785 Y69.53
X90.12 Y69.808
X90.405 Y70.138
X91.246 Y71.296
G3 X91.438 Y71.753 I-1.053 J0.71
X90.887 Y73.07 I-1.244 J0.253
G1 X86.558 Y75.893
G3 X84.864 Y75.611 I-0.694 J-1.064
G1 X83.982 Y74.397
X83.9 Y74.272
X83.825 Y74.142
X83.758 Y74.007
X83.697 Y73.865
X83.641 Y73.709
X83.591 Y73.544
X83.547 Y73.365
X83.511 Y73.172
X83.484 Y72.967
X83.467 Y72.753
X83.462 Y72.529
X83.47 Y72.291
X83.491 Y72.046
X83.526 Y71.795
X83.576 Y71.54
X83.642 Y71.282
X83.723 Y71.022
X83.821 Y70.759
X83.934 Y70.499
X84.064 Y70.24
X84.21 Y69.985
X84.371 Y69.736
X84.531 Y69.516
X84.707 Y69.299
X84.895 Y69.092
X85.074 Y68.914
X85.277 Y68.734
X85.482 Y68.571
X85.677 Y68.432
X85.9 Y68.292
X86.116 Y68.171
X86.324 Y68.069
X86.56 Y67.969
X86.955 Y67.862
X87.362 Y67.819
X87.771 Y67.842
X88.17 Y67.93
X88.551 Y68.082
X88.902 Y68.292
X89.215 Y68.556
X89.481 Y68.867
X90.405 Y70.138
G3 X90.032 Y71.921 I-1.053 J0.71
G1 X85.662 Y74.688
G3 X83.982 Y74.397 I-0.679 J-1.073
G1 X83.102 Y73.187
X83.005 Y73.038
X82.93 Y72.908
X82.863 Y72.774
X82.803 Y72.634
X82.746 Y72.478
X82.695 Y72.312
X82.652 Y72.135
X82.615 Y71.943
X82.588 Y71.737
X82.571 Y71.523
X82.565 Y71.299
X82.572 Y71.066
X82.592 Y70.823
X82.627 Y70.573
X82.676 Y70.319
X82.741 Y70.063
X82.821 Y69.805
X82.917 Y69.546
X83.028 Y69.289
X83.156 Y69.032
X83.3 Y68.779
X83.459 Y68.533
X83.633 Y68.292
X83.804 Y68.081
X83.994 Y67.869
X84.188 Y67.677
X84.377 Y67.508
X84.591 Y67.337
X84.797 Y67.191
X85.003 Y67.06
X85.231 Y66.932
X85.443 Y66.828
X85.666 Y66.733
X86.06 Y66.625
X86.465 Y66.581
X86.873 Y66.604
X87.271 Y66.691
X87.65 Y66.842
X88.001 Y67.051
X88.312 Y67.314
X88.578 Y67.624
X89.481 Y68.867
G3 X89.123 Y70.64 I-1.053 J0.71
G1 X84.798 Y73.468
G3 X83.478 Y73.51 I-0.695 J-1.063
X83.102 Y73.187 I0.625 J-1.105
G1 X82.185 Y71.925
X82.103 Y71.799
X82.029 Y71.669
X81.962 Y71.535
X81.903 Y71.395
X81.847 Y71.24
X81.796 Y71.072
X81.753 Y70.895
X81.718 Y70.705
X81.691 Y70.5
X81.674 Y70.285
X81.669 Y70.061
X81.677 Y69.828
X81.698 Y69.586
X81.733 Y69.334
X81.783 Y69.079
X81.849 Y68.821
X81.93 Y68.561
X82.027 Y68.301
X82.14 Y68.042
X82.269 Y67.786
X82.415 Y67.532
X82.575 Y67.284
X82.75 Y67.043
X82.921 Y66.833
X83.113 Y66.621
X83.306 Y66.43
X83.496 Y66.262
X83.711 Y66.091
X83.915 Y65.947
X84.124 Y65.815
X84.35 Y65.689
X84.561 Y65.586
X84.643 Y65.551
X85.047 Y65.419
X85.469 Y65.356
X85.894 Y65.364
X86.313 Y65.443
X86.712 Y65.592
X87.081 Y65.804
X87.409 Y66.076
X87.687 Y66.398
X88.578 Y67.624
G3 X88.77 Y68.081 I-1.053 J0.71
X88.215 Y69.4 I-1.244 J0.253
G1 X83.877 Y72.209
G3 X82.185 Y71.925 I-0.69 J-1.066
G1 X81.315 Y70.727
X81.213 Y70.571
X81.138 Y70.441
X81.071 Y70.307
X81.012 Y70.168
X80.955 Y70.012
X80.905 Y69.846
X80.861 Y69.67
X80.825 Y69.48
X80.798 Y69.275
X80.781 Y69.06
X80.775 Y68.838
X80.782 Y68.604
X80.803 Y68.36
X80.838 Y68.109
X80.887 Y67.854
X80.952 Y67.596
X81.032 Y67.337
X81.129 Y67.077
X81.242 Y66.817
X81.37 Y66.56
X81.515 Y66.305
X81.675 Y66.057
X81.839 Y65.83
X82.019 Y65.608
X82.21 Y65.397
X82.392 Y65.216
X82.597 Y65.033
X82.803 Y64.869
X83 Y64.728
X83.224 Y64.586
X83.44 Y64.465
X83.649 Y64.363
X84.074 Y64.222
X84.517 Y64.155
X84.966 Y64.163
X85.406 Y64.246
X85.826 Y64.402
X86.215 Y64.625
X86.56 Y64.91
X86.853 Y65.25
X87.687 Y66.398
G3 X87.332 Y68.17 I-1.053 J0.71
G1 X83.013 Y71.006
G3 X81.315 Y70.727 I-0.697 J-1.062
G1 X80.382 Y69.443
X80.3 Y69.318
X80.227 Y69.187
X80.162 Y69.052
X80.103 Y68.91
X80.048 Y68.754
X79.998 Y68.583
X79.956 Y68.402
X79.922 Y68.211
X79.896 Y68.004
X79.881 Y67.785
X79.878 Y67.559
X79.888 Y67.325
X79.911 Y67.082
X79.949 Y66.83
X80.001 Y66.573
X80.07 Y66.314
X80.154 Y66.053
X80.254 Y65.792
X80.369 Y65.534
X80.501 Y65.278
X80.648 Y65.025
X80.808 Y64.783
X80.965 Y64.57
X81.149 Y64.348
X81.331 Y64.151
X81.512 Y63.975
X81.72 Y63.794
X81.919 Y63.638
X82.119 Y63.499
X82.344 Y63.36
X82.557 Y63.243
X82.77 Y63.141
X83.008 Y63.043
X83.401 Y62.94
X83.806 Y62.9
X84.212 Y62.926
X84.608 Y63.016
X84.985 Y63.167
X85.333 Y63.377
X85.644 Y63.64
X85.908 Y63.949
X86.853 Y65.25
G3 X86.463 Y67.043 I-1.053 J0.71
G1 X82.046 Y69.745
G3 X80.382 Y69.443 I-0.663 J-1.083
G1 X79.509 Y68.242
X79.422 Y68.107
X79.346 Y67.977
X79.28 Y67.843
X79.219 Y67.701
X79.163 Y67.546
X79.113 Y67.381
X79.069 Y67.204
X79.032 Y67.011
X79.005 Y66.807
X78.989 Y66.595
X78.983 Y66.371
X78.99 Y66.138
X79.011 Y65.895
X79.046 Y65.647
X79.095 Y65.395
X79.159 Y65.141
X79.239 Y64.884
X79.335 Y64.626
X79.446 Y64.369
X79.574 Y64.113
X79.718 Y63.861
X79.877 Y63.614
X80.051 Y63.374
X80.224 Y63.16
X80.413 Y62.952
X80.61 Y62.756
X80.799 Y62.588
X81.012 Y62.417
X81.221 Y62.269
X81.426 Y62.139
X81.655 Y62.011
X81.869 Y61.906
X82.09 Y61.812
X82.484 Y61.704
X82.89 Y61.661
X83.298 Y61.684
X83.697 Y61.772
X84.076 Y61.922
X84.427 Y62.132
X84.739 Y62.395
X85.005 Y62.705
X85.908 Y63.949
G3 X85.543 Y65.726 I-1.053 J0.71
G1 X81.198 Y68.527
G3 X79.509 Y68.242 I-0.688 J-1.067
G1 X78.648 Y67.056
X78.528 Y66.873
X78.453 Y66.743
X78.386 Y66.609
X78.327 Y66.47
X78.271 Y66.316
X78.221 Y66.15
X78.177 Y65.975
X78.142 Y65.786
X78.114 Y65.582
X78.097 Y65.368
X78.092 Y65.146
X78.099 Y64.914
X78.119 Y64.672
X78.154 Y64.422
X78.204 Y64.167
X78.269 Y63.91
X78.349 Y63.651
X78.445 Y63.392
X78.558 Y63.132
X78.686 Y62.876
X78.831 Y62.622
X78.99 Y62.374
X79.165 Y62.132
X79.336 Y61.921
X79.527 Y61.709
X79.721 Y61.517
X79.91 Y61.349
X80.124 Y61.178
X80.329 Y61.032
X80.537 Y60.9
X80.763 Y60.773
X80.975 Y60.669
X81.199 Y60.574
X81.592 Y60.466
X81.996 Y60.423
X82.402 Y60.446
X82.799 Y60.533
X83.177 Y60.683
X83.526 Y60.892
X83.837 Y61.154
X84.102 Y61.463
X85.005 Y62.705
G3 X84.655 Y64.473 I-1.053 J0.71
G1 X80.352 Y67.332
G3 X78.648 Y67.056 I-0.703 J-1.058
G1 X77.738 Y65.803
X77.636 Y65.648
X77.561 Y65.518
X77.495 Y65.384
X77.435 Y65.245
X77.379 Y65.09
X77.328 Y64.924
X77.285 Y64.748
X77.249 Y64.558
X77.221 Y64.353
X77.204 Y64.139
X77.199 Y63.916
X77.206 Y63.683
X77.226 Y63.44
X77.261 Y63.189
X77.31 Y62.934
X77.375 Y62.676
X77.456 Y62.417
X77.552 Y62.157
X77.665 Y61.897
X77.793 Y61.64
X77.938 Y61.386
X78.097 Y61.137
X78.272 Y60.896
X78.443 Y60.685
X78.634 Y60.473
X78.828 Y60.28
X79.017 Y60.112
X79.231 Y59.941
X79.436 Y59.795
X79.643 Y59.663
X79.87 Y59.536
X80.081 Y59.432
X80.156 Y59.401
X80.563 Y59.266
X80.987 Y59.202
X81.415 Y59.21
X81.836 Y59.289
X82.238 Y59.438
X82.609 Y59.651
X82.94 Y59.924
X83.22 Y60.248
X84.102 Y61.463
G3 X83.749 Y63.233 I-1.053 J0.71
G1 X79.439 Y66.081
G3 X77.738 Y65.803 I-0.7 J-1.06
G1 X76.843 Y64.572
X76.742 Y64.418
X76.667 Y64.288
X76.6 Y64.154
X76.541 Y64.015
X76.484 Y63.859
X76.433 Y63.693
X76.39 Y63.517
X76.354 Y63.326
X76.326 Y63.121
X76.309 Y62.907
X76.304 Y62.684
X76.311 Y62.45
X76.331 Y62.206
X76.366 Y61.955
X76.415 Y61.7
X76.48 Y61.441
X76.561 Y61.182
X76.657 Y60.922
X76.77 Y60.662
X76.898 Y60.405
X77.043 Y60.15
X77.203 Y59.902
X77.366 Y59.676
X77.546 Y59.453
X77.735 Y59.243
X77.917 Y59.063
X78.123 Y58.879
X78.327 Y58.716
X78.524 Y58.575
X78.748 Y58.433
X78.964 Y58.312
X79.173 Y58.21
X79.599 Y58.069
X80.043 Y58.002
X80.492 Y58.01
X80.933 Y58.092
X81.355 Y58.248
X81.744 Y58.472
X82.09 Y58.758
X82.384 Y59.098
X83.22 Y60.248
G3 X83.411 Y60.705 I-1.053 J0.71
X82.863 Y62.021 I-1.244 J0.253
G1 X78.539 Y64.852
G3 X76.843 Y64.572 I-0.696 J-1.062
G1 X75.957 Y63.352
X75.847 Y63.184
X75.772 Y63.054
X75.705 Y62.92
X75.646 Y62.781
X75.589 Y62.626
X75.538 Y62.459
X75.495 Y62.283
X75.458 Y62.092
X75.431 Y61.887
X75.414 Y61.672
X75.408 Y61.449
X75.415 Y61.217
X75.435 Y60.974
X75.47 Y60.723
X75.52 Y60.468
X75.584 Y60.211
X75.665 Y59.951
X75.761 Y59.692
X75.873 Y59.433
X76.001 Y59.176
X76.146 Y58.922
X76.304 Y58.675
X76.46 Y58.46
X76.639 Y58.239
X76.822 Y58.035
X77 Y57.859
X77.205 Y57.676
X77.407 Y57.515
X77.602 Y57.375
X77.826 Y57.233
X78.042 Y57.112
X78.25 Y57.01
X78.487 Y56.908
X78.888 Y56.799
X79.301 Y56.754
X79.716 Y56.777
X80.121 Y56.866
X80.508 Y57.019
X80.864 Y57.233
X81.182 Y57.5
X81.452 Y57.816
X82.384 Y59.098
G3 X82.009 Y60.882 I-1.053 J0.71
G1 X77.636 Y63.644
G3 X76.333 Y63.676 I-0.678 J-1.074
X75.957 Y63.352 I0.625 J-1.105
G1 X75.044 Y62.095
X74.951 Y61.954
X74.876 Y61.824
X74.809 Y61.689
X74.75 Y61.55
X74.693 Y61.395
X74.642 Y61.229
X74.599 Y61.052
X74.562 Y60.862
X74.535 Y60.657
X74.518 Y60.442
X74.512 Y60.219
X74.519 Y59.988
X74.539 Y59.747
X74.574 Y59.498
X74.623 Y59.245
X74.687 Y58.99
X74.767 Y58.732
X74.862 Y58.475
X74.973 Y58.219
X75.1 Y57.964
X75.243 Y57.712
X75.401 Y57.466
X75.575 Y57.226
X75.744 Y57.016
X75.936 Y56.804
X76.129 Y56.612
X76.318 Y56.444
X76.532 Y56.273
X76.737 Y56.127
X76.945 Y55.995
X77.172 Y55.867
X77.385 Y55.762
X77.609 Y55.667
X78.006 Y55.558
X78.414 Y55.514
X78.825 Y55.537
X79.226 Y55.625
X79.608 Y55.777
X79.961 Y55.988
X80.275 Y56.252
X80.543 Y56.564
X81.452 Y57.816
G3 X81.084 Y59.595 I-1.053 J0.71
G1 X76.729 Y62.383
G3 X75.419 Y62.419 I-0.685 J-1.07
X75.044 Y62.095 I0.625 J-1.105
G1 X74.176 Y60.901
X74.057 Y60.719
X73.982 Y60.589
X73.915 Y60.455
X73.856 Y60.317
X73.8 Y60.163
X73.749 Y59.996
X73.706 Y59.821
X73.67 Y59.632
X73.643 Y59.429
X73.626 Y59.215
X73.621 Y58.993
X73.628 Y58.761
X73.648 Y58.52
X73.683 Y58.27
X73.732 Y58.016
X73.797 Y57.759
X73.877 Y57.501
X73.973 Y57.242
X74.085 Y56.983
X74.213 Y56.727
X74.357 Y56.474
X74.517 Y56.226
X74.691 Y55.985
X74.861 Y55.775
X75.053 Y55.563
X75.246 Y55.371
X75.435 Y55.203
X75.649 Y55.031
X75.854 Y54.885
X76.062 Y54.754
X76.289 Y54.626
X76.501 Y54.522
X76.558 Y54.498
