%
(1001)
(Z0 stock bottom)
(T1  D=12.7 CR=0 - ZMIN=15 - flat end mill)
G90 G94
G17
G21

(2D Contour7 11)
M9
T1 M6
S6500 M3
G54
M9
G0 X620.596 Y160.16
Z65
Z55
G1 Z54 F849.6
Z53.77
G19 G2 Y158.89 Z52.5 J-1.27
G1 Y157.62
G17 G3 X621.866 Y156.35 I1.27
G1 X743.751 Z48.244 F400.3
Y180 Z47.418
G2 X749.705 Y186.338 Z47.083 I6.35
X750.101 Y186.35 I0.396 J-6.338 F849.6
G1 X880.101
G2 X886.451 Y180 J-6.35
G1 Y156.35
X900
G2 X906.35 Y150 J-6.35
G1 Y20
G2 X880 Y-6.35 I-26.35
G1 X865
G2 X838.65 Y20 J26.35
G1 Y60
G3 X825 Y73.65 I-13.65
G1 X540
G3 X526.35 Y60 J-13.65
G1 Y20
G2 X500 Y-6.35 I-26.35
G1 X485
G2 X458.65 Y20 J26.35
G1 Y150
G2 X465 Y156.35 I6.35
G1 X475.856
Y180
G2 X482.206 Y186.35 I6.35
G1 X612.206
G2 X618.556 Y180 J-6.35
G1 Y156.35
X743.751
Y180
G2 X749.705 Y186.338 I6.35
X750.101 Y186.35 Z47.069 I0.396 J-6.338 F400.3
G1 X833.227 Z44.167
X880.101 F849.6
G2 X886.451 Y180 J-6.35
G1 Y156.35
X900
G2 X906.35 Y150 J-6.35
G1 Y20
G2 X880 Y-6.35 I-26.35
G1 X865
G2 X838.65 Y20 J26.35
G1 Y60
G3 X825 Y73.65 I-13.65
G1 X540
G3 X526.35 Y60 J-13.65
G1 Y20
G2 X500 Y-6.35 I-26.35
G1 X485
G2 X458.65 Y20 J26.35
G1 Y150
G2 X465 Y156.35 I6.35
G1 X475.856
Y180
G2 X482.206 Y186.35 I6.35
G1 X612.206
G2 X618.556 Y180 J-6.35
G1 Y156.35
X743.751
Y180
G2 X750.101 Y186.35 I6.35
G1 X833.227
X880.101 Z42.53 F400.3
G2 X886.451 Y180 Z42.181 J-6.35
G1 Y156.35 Z41.356
X889.475 Z41.25
X900 F849.6
G2 X906.35 Y150 J-6.35
G1 Y20
G2 X880 Y-6.35 I-26.35
G1 X865
G2 X838.65 Y20 J26.35
G1 Y60
G3 X825 Y73.65 I-13.65
G1 X540
G3 X526.35 Y60 J-13.65
G1 Y20
G2 X500 Y-6.35 I-26.35
G1 X485
G2 X458.65 Y20 J26.35
G1 Y150
G2 X465 Y156.35 I6.35
G1 X475.856
Y180
G2 X482.206 Y186.35 I6.35
G1 X612.206
G2 X618.556 Y180 J-6.35
G1 Y156.35
X743.751
Y180
G2 X750.101 Y186.35 I6.35
G1 X833.227
X880.101
G2 X886.451 Y180 J-6.35
G1 Y156.35
X889.475
X900 Z40.882 F400.3
G2 X906.35 Y150 Z40.534 J-6.35
G1 Y86.977 Z38.333
Y20 F849.6
G2 X880 Y-6.35 I-26.35
G1 X865
G2 X838.65 Y20 J26.35
G1 Y60
G3 X825 Y73.65 I-13.65
G1 X540
G3 X526.35 Y60 J-13.65
G1 Y20
G2 X500 Y-6.35 I-26.35
G1 X485
G2 X458.65 Y20 J26.35
G1 Y150
G2 X465 Y156.35 I6.35
G1 X475.856
Y180
G2 X482.206 Y186.35 I6.35
G1 X612.206
G2 X618.556 Y180 J-6.35
G1 Y156.35
X743.751
Y180
G2 X750.101 Y186.35 I6.35
G1 X880.101
G2 X886.451 Y180 J-6.35
G1 Y156.35
X900
G2 X906.35 Y150 J-6.35
G1 Y86.977
Y20 Z35.994 F400.3
G2 X901.324 Y4.521 Z35.417 I-26.35
X880 Y-6.35 I-21.324 J15.479 F849.6
G1 X865
G2 X838.65 Y20 J26.35
G1 Y60
G3 X825 Y73.65 I-13.65
G1 X540
G3 X526.35 Y60 J-13.65
G1 Y20
G2 X500 Y-6.35 I-26.35
G1 X485
G2 X458.65 Y20 J26.35
G1 Y150
G2 X465 Y156.35 I6.35
G1 X475.856
Y180
G2 X482.206 Y186.35 I6.35
G1 X612.206
G2 X618.556 Y180 J-6.35
G1 Y156.35
X743.751
Y180
G2 X750.101 Y186.35 I6.35
G1 X880.101
G2 X886.451 Y180 J-6.35
G1 Y156.35
X900
G2 X906.35 Y150 J-6.35
G1 Y20
G2 X901.324 Y4.521 I-26.35
X880 Y-6.35 Z34.549 I-21.324 J15.479 F400.3
G1 X865 Z34.025
G2 X838.65 Y20 Z32.58 J26.35
G1 Y22.287 Z32.5
Y60 F849.6
G3 X825 Y73.65 I-13.65
G1 X540
G3 X526.35 Y60 J-13.65
G1 Y20
G2 X500 Y-6.35 I-26.35
G1 X485
G2 X458.65 Y20 J26.35
G1 Y150
G2 X465 Y156.35 I6.35
G1 X475.856
Y180
G2 X482.206 Y186.35 I6.35
G1 X612.206
G2 X618.556 Y180 J-6.35
G1 Y156.35
X743.751
Y180
G2 X750.101 Y186.35 I6.35
G1 X880.101
G2 X886.451 Y180 J-6.35
G1 Y156.35
X900
G2 X906.35 Y150 J-6.35
G1 Y20
G2 X880 Y-6.35 I-26.35
G1 X865
G2 X838.65 Y20 J26.35
G1 Y22.287
Y60 Z31.183 F400.3
G3 X825 Y73.65 Z30.434 I-13.65
G1 X800.632 Z29.583
X540 F849.6
G3 X526.35 Y60 J-13.65
G1 Y20
G2 X500 Y-6.35 I-26.35
G1 X485
G2 X458.65 Y20 J26.35
G1 Y150
G2 X465 Y156.35 I6.35
G1 X475.856
Y180
G2 X482.206 Y186.35 I6.35
G1 X612.206
G2 X618.556 Y180 J-6.35
G1 Y156.35
X743.751
Y180
G2 X750.101 Y186.35 I6.35
G1 X880.101
G2 X886.451 Y180 J-6.35
G1 Y156.35
X900
G2 X906.35 Y150 J-6.35
G1 Y20
G2 X880 Y-6.35 I-26.35
G1 X865
G2 X838.65 Y20 J26.35
G1 Y60
G3 X825 Y73.65 I-13.65
G1 X800.632
X717.11 Z26.667 F400.3
X540 F849.6
G3 X526.35 Y60 J-13.65
G1 Y20
G2 X500 Y-6.35 I-26.35
G1 X485
G2 X458.65 Y20 J26.35
G1 Y150
G2 X465 Y156.35 I6.35
G1 X475.856
Y180
G2 X482.206 Y186.35 I6.35
G1 X612.206
G2 X618.556 Y180 J-6.35
G1 Y156.35
X743.751
Y180
G2 X750.101 Y186.35 I6.35
G1 X880.101
G2 X886.451 Y180 J-6.35
G1 Y156.35
X900
G2 X906.35 Y150 J-6.35
G1 Y20
G2 X880 Y-6.35 I-26.35
G1 X865
G2 X838.65 Y20 J26.35
G1 Y60
G3 X825 Y73.65 I-13.65
G1 X717.11
X633.588 Z23.75 F400.3
X540 F849.6
G3 X526.35 Y60 J-13.65
G1 Y20
G2 X500 Y-6.35 I-26.35
G1 X485
G2 X458.65 Y20 J26.35
G1 Y150
G2 X465 Y156.35 I6.35
G1 X475.856
Y180
G2 X482.206 Y186.35 I6.35
G1 X612.206
G2 X618.556 Y180 J-6.35
G1 Y156.35
X743.751
Y180
G2 X750.101 Y186.35 I6.35
G1 X880.101
G2 X886.451 Y180 J-6.35
G1 Y156.35
X900
G2 X906.35 Y150 J-6.35
G1 Y20
G2 X880 Y-6.35 I-26.35
G1 X865
G2 X838.65 Y20 J26.35
G1 Y60
G3 X825 Y73.65 I-13.65
G1 X717.11
X633.588
X550.065 Z20.833 F400.3
X540 F849.6
G3 X526.35 Y60 J-13.65
G1 Y20
G2 X500 Y-6.35 I-26.35
G1 X485
G2 X458.65 Y20 J26.35
G1 Y150
G2 X465 Y156.35 I6.35
G1 X475.856
Y180
G2 X482.206 Y186.35 I6.35
G1 X612.206
G2 X618.556 Y180 J-6.35
G1 Y156.35
X743.751
Y180
G2 X750.101 Y186.35 I6.35
G1 X880.101
G2 X886.451 Y180 J-6.35
G1 Y156.35
X900
G2 X906.35 Y150 J-6.35
G1 Y20
G2 X880 Y-6.35 I-26.35
G1 X865
G2 X838.65 Y20 J26.35
G1 Y60
G3 X825 Y73.65 I-13.65
G1 X633.588
X550.065
X540 Z20.482 F400.3
G3 X526.35 Y60 Z19.733 J-13.65
G1 Y20 Z18.336
G2 X523.657 Y8.396 Z17.917 I-26.35
X500 Y-6.35 I-23.657 J11.604 F849.6
G1 X485
G2 X458.65 Y20 J26.35
G1 Y150
G2 X465 Y156.35 I6.35
G1 X475.856
Y180
G2 X482.206 Y186.35 I6.35
G1 X612.206
G2 X618.556 Y180 J-6.35
G1 Y156.35
X743.751
Y180
G2 X750.101 Y186.35 I6.35
G1 X880.101
G2 X886.451 Y180 J-6.35
G1 Y156.35
X900
G2 X906.35 Y150 J-6.35
G1 Y20
G2 X880 Y-6.35 I-26.35
G1 X865
G2 X838.65 Y20 J26.35
G1 Y60
G3 X825 Y73.65 I-13.65
G1 X550.065
X540
G3 X526.35 Y60 J-13.65
G1 Y20
G2 X523.657 Y8.396 I-26.35
X500 Y-6.35 Z16.891 I-23.657 J11.604 F400.3
G1 X485 Z16.367
G2 X458.745 Y17.76 Z15 J26.35
X458.65 Y20 I26.255 J2.24 F849.6
G1 Y150
G2 X465 Y156.35 I6.35
G1 X475.856
Y180
G2 X482.206 Y186.35 I6.35
G1 X612.206
G2 X618.556 Y180 J-6.35
G1 Y156.35
X743.751
Y180
G2 X750.101 Y186.35 I6.35
G1 X880.101
G2 X886.451 Y180 J-6.35
G1 Y156.35
X900
G2 X906.35 Y150 J-6.35
G1 Y20
G2 X880 Y-6.35 I-26.35
G1 X865
G2 X838.65 Y20 J26.35
G1 Y60
G3 X825 Y73.65 I-13.65
G1 X540
G3 X526.35 Y60 J-13.65
G1 Y20
G2 X500 Y-6.35 I-26.35
G1 X485
G2 X458.745 Y17.76 J26.35
G3 X457.372 Y18.917 I-1.265 J-0.108
G1 X456.107 Y18.809
X455.965 Y18.797 Z15.008
X455.825 Y18.785 Z15.032
X455.689 Y18.774 Z15.071
X455.558 Y18.763 Z15.126
X455.433 Y18.752 Z15.195
X455.318 Y18.742 Z15.277
X455.212 Y18.733 Z15.372
X455.117 Y18.725 Z15.478
X455.035 Y18.718 Z15.594
X454.967 Y18.712 Z15.719
X454.912 Y18.708 Z15.851
X454.873 Y18.704 Z15.987
X454.849 Y18.702 Z16.128
X454.841 Y18.701 Z16.27
G0 Z65

(2D Adaptive15 11)
M9
X591.588 Y162.649
Z65
Z55
Z53.77
G1 Z52.5 F849.6
G3 X601.22 Y160.554 Z52.097 I5.556 J2.351 F400.3
X593.067 Y169.446 Z51.435 I-4.077 J4.446
X601.22 Y160.554 Z50.773 I4.077 J-4.446
X593.067 Y169.446 Z50.112 I-4.077 J4.446
X601.22 Y160.554 Z49.45 I4.077 J-4.446
X593.067 Y169.446 Z48.788 I-4.077 J4.446
X592.44 Y161.223 Z48.471 I4.077 J-4.446
X602.278 Y161.834 Z48.068 I4.704 J3.777
X592.009 Y168.166 Z47.406 I-5.135 J3.166
X591.163 Y164.212 Z47.262 I5.135 J-3.166
X599.891 Y159.629 Z46.859 I5.981 J0.788
X594.396 Y170.371 Z46.198 I-2.747 J5.371
X596.706 Y158.983 Z45.651 I2.747 J-5.371
X602.959 Y166.604 Z45.248 I0.438 J6.017
X593.683 Y169.941 Z44.845 I-5.815 J-1.604
X593.648 Y160.083 Z44.442 I3.461 J-4.941
X602.947 Y163.355 Z44.039 I3.495 J4.917
X596.748 Y171.02 Z43.636 I-5.804 J1.645
X597.539 Y158.98 Z42.974 I0.395 J-6.02
X599.929 Y170.351 Z42.427 I-0.395 J6.02
X591.168 Y165.831 Z42.025 I-2.785 J-5.351
X598.364 Y159.092 Z41.622 I5.975 J-0.831
X602.301 Y168.13 Z41.219 I-1.22 J5.908
X592.466 Y168.81 Z40.816 I-5.157 J-3.13
X601.821 Y161.19 Z40.154 I4.677 J-3.81
X603.176 Y165 Z40.01 I-4.677 J3.81
X599.598 Y170.511 I-6.032
X594.689 Y159.489 I-2.455 J-5.511
X597.837 Y159.007 I2.455 J5.511
X602.9 Y163.195 I-0.693 J5.993
X603.176 Y165 I-5.756 J1.805
G1 X603.18 Y165.323 F849.6
X603.299 Y166.61
X603.323 Y166.687
X603.362 Y166.831
X603.392 Y166.979
X603.412 Y167.127
X603.426 Y167.289
X603.431 Y167.463
X603.426 Y167.65
X603.411 Y167.848
X603.383 Y168.057
X603.341 Y168.275
X603.285 Y168.502
X603.214 Y168.737
X603.125 Y168.978
X603.02 Y169.224
X602.897 Y169.474
X602.756 Y169.725
X602.595 Y169.976
X602.416 Y170.226
X602.218 Y170.473
X602.002 Y170.715
X601.766 Y170.951
X601.513 Y171.179
X601.242 Y171.397
X600.954 Y171.605
X600.65 Y171.799
X600.331 Y171.98
X599.998 Y172.146
X599.652 Y172.295
X599.293 Y172.427
X598.924 Y172.541
X598.546 Y172.636
X598.159 Y172.71
X597.766 Y172.764
X597.367 Y172.797
X596.964 Y172.808
X596.559 Y172.797
X596.153 Y172.764
X595.747 Y172.709
X595.343 Y172.631
X594.942 Y172.532
X594.546 Y172.41
X594.155 Y172.267
X593.772 Y172.102
X593.397 Y171.916
X593.032 Y171.709
X592.678 Y171.483
X592.336 Y171.237
X592.007 Y170.973
X591.693 Y170.691
X591.394 Y170.391
X591.111 Y170.076
X590.846 Y169.745
X590.598 Y169.4
X590.37 Y169.042
X590.161 Y168.672
X589.972 Y168.29
X589.804 Y167.899
X589.657 Y167.499
X589.532 Y167.091
X589.43 Y166.677
X589.35 Y166.258
X589.293 Y165.835
X589.259 Y165.409
X589.248 Y164.982
X589.26 Y164.555
X589.295 Y164.129
X589.353 Y163.705
X589.435 Y163.285
X589.538 Y162.871
X589.665 Y162.462
X589.813 Y162.061
X589.983 Y161.668
X590.173 Y161.285
X590.385 Y160.913
X590.616 Y160.553
X590.866 Y160.206
X591.135 Y159.872
X591.422 Y159.554
X591.725 Y159.252
X592.044 Y158.967
X592.379 Y158.7
X592.727 Y158.451
X593.088 Y158.221
X593.462 Y158.011
X593.846 Y157.822
X594.24 Y157.654
X594.642 Y157.507
X595.052 Y157.383
X595.468 Y157.28
X595.888 Y157.201
X596.313 Y157.144
X596.74 Y157.111
X597.168 Y157.1
X597.596 Y157.113
X598.023 Y157.149
X598.447 Y157.209
X598.867 Y157.291
X599.283 Y157.396
X599.692 Y157.523
X600.093 Y157.672
X600.486 Y157.842
X600.869 Y158.034
X601.241 Y158.246
X601.601 Y158.478
X601.948 Y158.729
X602.281 Y158.999
X602.599 Y159.286
X602.9 Y159.59
X603.185 Y159.91
X603.452 Y160.245
X603.7 Y160.594
X603.93 Y160.956
X604.139 Y161.33
X604.378 Y161.817
X604.756 Y162.707
X605.012 Y163.414
X605.197 Y164.026
X605.332 Y164.578
X605.429 Y165.098
X605.494 Y165.595
X605.531 Y166.07
X605.541 Y166.53
X605.527 Y166.98
X605.489 Y167.421
X605.427 Y167.855
X605.343 Y168.281
X605.237 Y168.7
X605.108 Y169.113
X604.957 Y169.518
X604.783 Y169.915
X604.588 Y170.304
X604.37 Y170.684
X604.131 Y171.054
X603.87 Y171.413
X603.587 Y171.761
X603.284 Y172.095
X602.96 Y172.415
X602.616 Y172.72
X602.253 Y173.008
X602.207 Y173.042
X601.861 Y173.256
X601.491 Y173.426
X601.104 Y173.55
X600.703 Y173.625
X600.297 Y173.65
X594.648
X594.361 Y173.636
X594.057 Y173.604
X593.734 Y173.552
X593.401 Y173.48
X593.062 Y173.388
X592.717 Y173.273
X592.364 Y173.134
X592.004 Y172.969
X591.643 Y172.779
X591.285 Y172.565
X590.932 Y172.328
X590.584 Y172.066
X590.244 Y171.778
X589.912 Y171.466
X589.591 Y171.129
X589.284 Y170.77
X588.992 Y170.389
X588.718 Y169.987
X588.463 Y169.566
X588.229 Y169.129
X588.018 Y168.675
X587.829 Y168.207
X587.666 Y167.725
X587.528 Y167.233
X587.416 Y166.731
X587.331 Y166.22
X587.273 Y165.704
X587.243 Y165.183
X587.242 Y164.659
X587.269 Y164.134
X587.325 Y163.609
X587.41 Y163.087
X587.522 Y162.57
X587.663 Y162.058
X587.832 Y161.553
X588.028 Y161.057
X588.252 Y160.573
X588.501 Y160.1
X588.776 Y159.641
X589.076 Y159.197
X589.399 Y158.77
X589.746 Y158.361
X590.115 Y157.97
X590.504 Y157.6
X590.913 Y157.252
X591.347 Y156.921
X591.774 Y156.675
X592.232 Y156.496
X592.712 Y156.387
X593.203 Y156.35
X599.429
X599.988 Y156.378
X600.283 Y156.409
X600.598 Y156.459
X600.926 Y156.53
X601.259 Y156.621
X601.598 Y156.734
X601.947 Y156.871
X602.303 Y157.034
X602.66 Y157.222
X603.015 Y157.434
X603.366 Y157.67
X603.711 Y157.931
X604.061 Y158.226
X604.427 Y158.571
X604.797 Y158.958
X605.177 Y159.403
X605.416 Y159.761
X605.606 Y160.148
X605.744 Y160.556
X605.828 Y160.978
X605.856 Y161.408
G3 X605.742 Y161.891 I-1.269 J-0.044
X603.836 Y162.389 I-1.156 J-0.527
G1 X598.723 Y158.644
G3 X598.947 Y156.464 I0.75 J-1.025
X599.429 Y156.35 I0.527 J1.156
G1 X602.477
X602.687 Y156.361
X602.903 Y156.383
X603.134 Y156.42
X603.391 Y156.475
X603.652 Y156.547
X603.942 Y156.644
X604.049 Y156.686
X604.432 Y156.871
X604.784 Y157.111
X605.096 Y157.401
X605.361 Y157.734
X605.574 Y158.103
X605.73 Y158.5
X605.824 Y158.915
X605.856 Y159.34
G3 X605.742 Y159.822 I-1.269 J-0.044
X603.786 Y160.282 I-1.156 J-0.527
G1 X601.721 Y158.605
G3 X601.995 Y156.464 I0.8 J-0.986
X602.477 Y156.35 I0.527 J1.156
G1 X604.305
X604.463 Y156.358
X604.781 Y156.425
X605.078 Y156.558
X605.341 Y156.749
X605.559 Y156.99
X605.721 Y157.272
X605.822 Y157.581
X605.856 Y157.905
G3 X603.978 Y159.304 I-1.499 J-0.052
X603.818 Y156.449 I0.379 J-1.453
X604.305 Y156.35 I0.539 J1.402
G1 X604.382
X604.763 Y156.364
X604.953 Y156.409
X605.144 Y156.486
X605.282 Y156.567
X605.419 Y156.674
X605.525 Y156.779
X605.634 Y156.917
X605.716 Y157.055
X605.795 Y157.246
X605.84 Y157.436
X605.856 Y157.817
Y169.622
X605.84 Y169.934
X605.813 Y170.194
X605.769 Y170.47
X605.708 Y170.753
X605.626 Y171.054
X605.521 Y171.369
X605.395 Y171.688
X605.249 Y172.007
X604.995 Y172.411
X604.682 Y172.77
X604.317 Y173.076
X603.91 Y173.323
X603.469 Y173.503
X603.005 Y173.613
X602.53 Y173.65
G3 X602.048 Y173.536 I0.044 J-1.269
X601.554 Y171.624 I0.527 J-1.156
G1 X603.567 Y168.91
G3 X605.742 Y169.139 I1.02 J0.756
X605.856 Y169.622 I-1.156 J0.527
G1 Y171.907
X605.849 Y172.056
X605.783 Y172.376
X605.66 Y172.679
X605.485 Y172.954
X605.262 Y173.193
X605 Y173.388
X604.707 Y173.532
X604.392 Y173.62
X604.067 Y173.65
G3 X602.502 Y171.491 I0.059 J-1.689
X605.767 Y171.418 I1.644 J0.475
X605.856 Y171.907 I-1.621 J0.549
G1 Y172.287
X605.851 Y172.478
X605.82 Y172.668
X605.757 Y172.859
X605.657 Y173.049
X605.525 Y173.222
X605.406 Y173.338
X605.286 Y173.43
X605.144 Y173.514
X604.953 Y173.591
X604.763 Y173.636
X604.728 Y173.637
X604.229
X595.147 Y173.649
X594.648 Y173.65
X591.81
X591.712 Y173.645
X591.509 Y173.629
X591.282 Y173.599
X591.046 Y173.555
X590.795 Y173.494
X590.524 Y173.411
X590.249 Y173.311
X589.961 Y173.189
X589.658 Y173.04
X589.351 Y172.868
X589.043 Y172.672
X588.727 Y172.446
X588.405 Y172.19
X588.088 Y171.907
X587.779 Y171.6
X587.474 Y171.262
X587.175 Y170.893
X586.887 Y170.493
X586.613 Y170.067
X586.357 Y169.618
X586.122 Y169.147
X585.907 Y168.652
X585.716 Y168.135
X585.549 Y167.596
X585.409 Y167.039
X585.297 Y166.466
X585.216 Y165.88
X585.166 Y165.283
X585.148 Y164.677
X585.164 Y164.066
X585.212 Y163.451
X585.295 Y162.836
X585.411 Y162.222
X585.562 Y161.612
X585.746 Y161.007
X585.964 Y160.411
X586.215 Y159.825
X586.498 Y159.251
X586.814 Y158.691
X587.16 Y158.148
X587.496 Y157.679
X587.57 Y157.586
X587.905 Y157.226
X588.29 Y156.92
X588.717 Y156.675
X589.175 Y156.496
X589.654 Y156.387
X590.145 Y156.35
X593.203
G3 X593.685 Y156.464 I-0.044 J1.269
X594.423 Y157.739 I-0.527 J1.156
G1 X593.03 Y172.5
G3 X592.292 Y173.536 I-1.264 J-0.119
X591.81 Y173.65 I-0.527 J-1.156
G1 X589.524
X589.425 Y173.645
X589.244 Y173.632
X589.04 Y173.605
X588.828 Y173.567
X588.601 Y173.512
X588.354 Y173.438
X588.103 Y173.348
X587.834 Y173.234
X587.552 Y173.097
X587.27 Y172.94
X586.973 Y172.753
X586.666 Y172.536
X586.364 Y172.297
X586.059 Y172.027
X585.748 Y171.72
X585.441 Y171.382
X585.145 Y171.02
X584.857 Y170.624
X584.577 Y170.191
X584.308 Y169.723
X584.058 Y169.227
X583.83 Y168.706
X583.625 Y168.159
X583.444 Y167.582
X583.29 Y166.979
X583.165 Y166.352
X583.073 Y165.704
X583.015 Y165.039
X582.993 Y164.36
X583.007 Y163.672
X583.06 Y162.977
X583.151 Y162.278
X583.281 Y161.577
X583.451 Y160.877
X583.661 Y160.18
X583.89 Y159.547
X584.13 Y158.979
X584.359 Y158.511
X584.611 Y158.061
X584.72 Y157.887
X585.002 Y157.506
X585.335 Y157.168
X585.714 Y156.882
X586.129 Y156.653
X586.573 Y156.486
X587.037 Y156.384
X587.51 Y156.35
X590.145
G3 X590.627 Y156.464 I-0.044 J1.269
X591.369 Y157.673 I-0.527 J1.156
G1 X590.749 Y172.434
G3 X590.006 Y173.536 I-1.269 J-0.053
X589.524 Y173.65 I-0.527 J-1.156
G1 X587.41
X587.173 Y173.638
X586.982 Y173.618
X586.785 Y173.587
X586.569 Y173.54
X586.336 Y173.476
X586.098 Y173.397
X585.839 Y173.295
X585.571 Y173.172
X585.297 Y173.028
X585.004 Y172.853
X584.708 Y172.655
X584.409 Y172.429
X584.099 Y172.167
X583.787 Y171.874
X583.484 Y171.555
X583.178 Y171.198
X582.873 Y170.799
X582.579 Y170.368
X582.301 Y169.91
X582.035 Y169.412
X581.784 Y168.873
X581.552 Y168.295
X581.346 Y167.69
X581.169 Y167.061
X581.022 Y166.402
X580.908 Y165.713
X580.828 Y164.998
X580.786 Y164.259
X580.784 Y163.502
X580.824 Y162.74
X580.904 Y161.984
X581.023 Y161.251
X581.177 Y160.543
X581.346 Y159.929
X581.531 Y159.376
X581.724 Y158.89
X581.922 Y158.459
X582.134 Y158.056
X582.234 Y157.891
X582.502 Y157.509
X582.824 Y157.171
X583.191 Y156.884
X583.597 Y156.654
X584.032 Y156.487
X584.487 Y156.384
X584.953 Y156.35
X587.51
G3 X587.992 Y156.464 I-0.044 J1.269
X588.736 Y157.628 I-0.527 J1.156
G1 X588.635 Y172.389
G3 X587.892 Y173.536 I-1.27 J-0.009
X587.41 Y173.65 I-0.527 J-1.156
G1 X585.333
X585.054 Y173.636
X584.873 Y173.617
X584.67 Y173.585
X584.458 Y173.539
X584.231 Y173.477
X583.984 Y173.395
X583.733 Y173.296
X583.463 Y173.172
X583.18 Y173.023
X582.896 Y172.854
X582.594 Y172.651
X582.286 Y172.418
X581.981 Y172.16
X581.663 Y171.861
X581.342 Y171.525
X581.033 Y171.163
X580.724 Y170.759
X580.417 Y170.31
X580.122 Y169.823
X579.848 Y169.309
X579.587 Y168.75
X579.344 Y168.146
X579.124 Y167.498
X578.934 Y166.82
X578.777 Y166.118
X578.655 Y165.385
X578.57 Y164.626
X578.526 Y163.849
X578.525 Y163.074
X578.564 Y162.311
X578.643 Y161.573
X578.756 Y160.873
X578.891 Y160.251
X579.052 Y159.668
X579.212 Y159.19
X579.397 Y158.723
X579.576 Y158.332
X579.783 Y157.942
X580.06 Y157.548
X580.392 Y157.199
X580.772 Y156.902
X581.191 Y156.665
X581.641 Y156.491
X582.111 Y156.385
X582.592 Y156.35
X584.953
G3 X585.435 Y156.464 I-0.044 J1.269
X586.178 Y157.586 I-0.527 J1.156
G1 X586.559 Y172.348
G3 X585.816 Y173.536 I-1.27 J0.033
X585.333 Y173.65 I-0.527 J-1.156
G1 X583.219
X582.942 Y173.636
X582.761 Y173.617
X582.555 Y173.584
X582.342 Y173.538
X582.112 Y173.475
X581.863 Y173.392
X581.609 Y173.293
X581.333 Y173.166
X581.05 Y173.017
X580.758 Y172.843
X580.448 Y172.634
X580.138 Y172.401
X579.823 Y172.135
X579.494 Y171.825
X579.171 Y171.486
X578.85 Y171.111
X578.526 Y170.687
X578.207 Y170.22
X577.907 Y169.725
X577.618 Y169.183
X577.342 Y168.592
X577.085 Y167.953
X576.858 Y167.285
X576.662 Y166.588
X576.5 Y165.857
X576.373 Y165.099
X576.287 Y164.325
X576.243 Y163.549
X576.241 Y162.781
X576.28 Y162.038
X576.355 Y161.329
X576.464 Y160.657
X576.586 Y160.095
X576.734 Y159.559
X576.885 Y159.107
X577.058 Y158.669
X577.232 Y158.292
X577.431 Y157.915
X577.703 Y157.528
X578.03 Y157.185
X578.404 Y156.893
X578.816 Y156.659
X579.258 Y156.489
X579.721 Y156.385
X580.193 Y156.35
X582.592
G3 X583.074 Y156.464 I-0.044 J1.269
X583.816 Y157.565 I-0.527 J1.156
G1 X584.444 Y172.327
G3 X583.701 Y173.536 I-1.269 J0.054
X583.219 Y173.65 I-0.527 J-1.156
G1 X581.028
X580.814 Y173.639
X580.629 Y173.62
X580.42 Y173.587
X580.206 Y173.54
X579.969 Y173.476
X579.718 Y173.392
X579.459 Y173.29
X579.175 Y173.16
X578.889 Y173.01
X578.588 Y172.83
X578.271 Y172.616
X577.957 Y172.38
X577.628 Y172.102
X577.29 Y171.784
X576.961 Y171.439
X576.626 Y171.047
X576.289 Y170.606
X575.966 Y170.133
X575.655 Y169.621
X575.353 Y169.055
X575.067 Y168.44
X574.805 Y167.789
X574.574 Y167.11
X574.374 Y166.396
X574.208 Y165.652
X574.08 Y164.888
X573.994 Y164.112
X573.951 Y163.347
X573.949 Y162.595
X573.986 Y161.877
X574.059 Y161.195
X574.164 Y160.546
X574.282 Y160
X574.424 Y159.486
X574.573 Y159.041
X574.741 Y158.617
X574.912 Y158.245
X575.105 Y157.879
X575.372 Y157.5
X575.691 Y157.165
X576.056 Y156.88
X576.458 Y156.652
X576.89 Y156.485
X577.342 Y156.384
X577.804 Y156.35
X580.193
G3 X580.676 Y156.464 I-0.044 J1.269
X581.417 Y157.548 I-0.527 J1.156
G1 X582.251 Y172.309
G3 X581.51 Y173.536 I-1.268 J0.072
X581.028 Y173.65 I-0.527 J-1.156
G1 X578.857
X578.756 Y173.645
X578.568 Y173.631
X578.374 Y173.606
X578.158 Y173.566
X577.928 Y173.511
X577.686 Y173.438
X577.419 Y173.342
X577.15 Y173.229
X576.858 Y173.086
X576.554 Y172.918
X576.247 Y172.724
X575.919 Y172.492
X575.589 Y172.23
X575.255 Y171.935
X574.907 Y171.591
X574.563 Y171.213
X574.227 Y170.8
X573.888 Y170.334
X573.554 Y169.818
X573.24 Y169.272
X572.944 Y168.684
X572.665 Y168.047
X572.411 Y167.367
X572.187 Y166.653
X571.999 Y165.914
X571.849 Y165.16
X571.741 Y164.395
X571.674 Y163.636
X571.65 Y162.893
X571.665 Y162.174
X571.718 Y161.478
X571.805 Y160.813
X571.914 Y160.229
X572.045 Y159.69
X572.181 Y159.238
X572.342 Y158.792
X572.503 Y158.413
X572.688 Y158.035
X572.752 Y157.921
X573.008 Y157.533
X573.321 Y157.19
X573.681 Y156.897
X574.081 Y156.662
X574.513 Y156.49
X574.965 Y156.385
X575.428 Y156.35
X577.804
G3 X578.286 Y156.464 I-0.044 J1.269
X579.026 Y157.529 I-0.527 J1.156
G1 X580.08 Y172.29
G3 X578.857 Y173.65 I-1.267 J0.09
G1 X576.743
X576.46 Y173.636
X576.263 Y173.615
X576.057 Y173.582
X575.825 Y173.532
X575.588 Y173.467
X575.328 Y173.381
X575.054 Y173.273
X574.771 Y173.143
X574.462 Y172.981
X574.155 Y172.797
X573.83 Y172.579
X573.49 Y172.322
X573.156 Y172.041
X572.809 Y171.714
X572.453 Y171.341
X572.11 Y170.94
X571.766 Y170.49
X571.422 Y169.987
X571.091 Y169.441
X570.784 Y168.865
X570.494 Y168.243
X570.227 Y167.577
X569.988 Y166.876
X569.784 Y166.147
X569.617 Y165.398
X569.49 Y164.637
X569.405 Y163.878
X569.363 Y163.129
X569.361 Y162.403
X569.397 Y161.699
X569.469 Y161.027
X569.567 Y160.423
X569.688 Y159.865
X569.818 Y159.393
X569.971 Y158.936
X570.126 Y158.544
X570.302 Y158.161
X570.379 Y158.016
X570.637 Y157.607
X570.956 Y157.243
X571.327 Y156.932
X571.741 Y156.682
X572.189 Y156.499
X572.66 Y156.387
X573.143 Y156.35
X575.428
G3 X575.911 Y156.464 I-0.044 J1.269
X576.649 Y157.507 I-0.527 J1.156
G1 X577.963 Y172.268
G3 X577.225 Y173.536 I-1.265 J0.113
X576.743 Y173.65 I-0.527 J-1.156
G1 X574.457
X574.247 Y173.639
X574.049 Y173.619
X573.835 Y173.585
X573.608 Y173.536
X573.357 Y173.467
X573.102 Y173.382
X572.821 Y173.271
X572.53 Y173.138
X572.228 Y172.979
X571.902 Y172.785
X571.579 Y172.567
X571.24 Y172.312
X570.888 Y172.014
X570.543 Y171.69
X570.19 Y171.32
X569.83 Y170.898
X569.482 Y170.444
X569.144 Y169.949
X568.812 Y169.401
X568.493 Y168.804
X568.197 Y168.169
X567.931 Y167.506
X567.694 Y166.81
X567.49 Y166.084
X567.323 Y165.335
X567.196 Y164.573
X567.112 Y163.811
X567.069 Y163.058
X567.067 Y162.333
X567.103 Y161.641
X567.173 Y160.981
X567.267 Y160.401
X567.388 Y159.843
X567.514 Y159.386
X567.667 Y158.929
X567.818 Y158.548
X567.997 Y158.16
X568.063 Y158.035
X568.324 Y157.621
X568.646 Y157.253
X569.021 Y156.938
X569.44 Y156.686
X569.893 Y156.501
X570.369 Y156.388
X570.857 Y156.35
X573.143
G3 X574.363 Y157.507 I-0.044 J1.269
G1 X575.678 Y172.268
G3 X574.939 Y173.536 I-1.265 J0.113
X574.457 Y173.65 I-0.527 J-1.156
G1 X572.171
X572.09 Y173.646
X571.895 Y173.63
X571.693 Y173.603
X571.463 Y173.559
X571.227 Y173.501
X570.968 Y173.421
X570.692 Y173.32
X570.41 Y173.199
X570.101 Y173.046
X569.791 Y172.871
X569.464 Y172.662
X569.119 Y172.415
X568.78 Y172.142
X568.426 Y171.824
X568.062 Y171.461
X567.71 Y171.069
X567.358 Y170.631
X567.005 Y170.14
X566.663 Y169.604
X566.343 Y169.038
X566.04 Y168.427
X565.758 Y167.771
X565.503 Y167.076
X565.281 Y166.352
X565.096 Y165.608
X564.951 Y164.852
X564.849 Y164.098
X564.789 Y163.349
X564.769 Y162.623
X564.789 Y161.916
X564.845 Y161.241
X564.928 Y160.629
X565.037 Y160.065
X565.158 Y159.581
X565.3 Y159.12
X565.45 Y158.713
X565.615 Y158.33
X565.797 Y157.966
X566.065 Y157.567
X566.389 Y157.213
X566.763 Y156.912
X567.178 Y156.67
X567.624 Y156.494
X568.092 Y156.386
X568.571 Y156.35
X570.857
G3 X571.339 Y156.464 I-0.044 J1.269
X572.078 Y157.507 I-0.527 J1.156
G1 X573.392 Y172.268
G3 X572.654 Y173.536 I-1.265 J0.113
X572.171 Y173.65 I-0.527 J-1.156
G1 X569.885
X569.736 Y173.643
X569.539 Y173.621
X569.318 Y173.585
X569.083 Y173.533
X568.835 Y173.464
X568.561 Y173.371
X568.285 Y173.261
X567.983 Y173.121
X567.672 Y172.955
X567.351 Y172.762
X567.008 Y172.529
X566.668 Y172.27
X566.318 Y171.973
X565.954 Y171.627
X565.597 Y171.249
X565.243 Y170.831
X564.885 Y170.359
X564.534 Y169.838
X564.203 Y169.287
X563.89 Y168.694
X563.595 Y168.054
X563.326 Y167.375
X563.088 Y166.664
X562.885 Y165.93
X562.721 Y165.179
X562.599 Y164.424
X562.519 Y163.674
X562.481 Y162.942
X562.482 Y162.229
X562.521 Y161.541
X562.594 Y160.886
X562.687 Y160.324
X562.807 Y159.787
X562.932 Y159.34
X563.084 Y158.894
X563.235 Y158.516
X563.412 Y158.137
X563.461 Y158.044
X563.727 Y157.628
X564.053 Y157.257
X564.432 Y156.941
X564.855 Y156.687
X565.313 Y156.501
X565.793 Y156.388
X566.285 Y156.35
X568.571
G3 X569.792 Y157.507 I-0.044 J1.269
G1 X571.106 Y172.268
G3 X570.368 Y173.536 I-1.265 J0.113
X569.885 Y173.65 I-0.527 J-1.156
G1 X567.694
X567.484 Y173.639
X567.278 Y173.618
X567.065 Y173.584
X566.829 Y173.533
X566.578 Y173.464
X566.315 Y173.377
X566.026 Y173.263
X565.736 Y173.13
X565.42 Y172.964
X565.093 Y172.769
X564.763 Y172.547
X564.412 Y172.282
X564.06 Y171.985
X563.707 Y171.652
X563.341 Y171.269
X562.977 Y170.843
X562.627 Y170.386
X562.279 Y169.877
X561.94 Y169.316
X561.617 Y168.712
X561.322 Y168.078
X561.054 Y167.411
X560.815 Y166.709
X560.61 Y165.979
X560.443 Y165.231
X560.317 Y164.471
X560.233 Y163.719
X560.191 Y162.977
X560.189 Y162.266
X560.224 Y161.586
X560.293 Y160.937
X560.384 Y160.376
X560.503 Y159.831
X560.626 Y159.382
X560.777 Y158.931
X560.927 Y158.554
X561.104 Y158.168
X561.16 Y158.062
X561.426 Y157.642
X561.753 Y157.267
X562.134 Y156.948
X562.56 Y156.691
X563.02 Y156.503
X563.504 Y156.389
X563.999 Y156.35
X566.285
G3 X566.768 Y156.464 I-0.044 J1.269
X567.505 Y157.499 I-0.527 J1.156
G1 X568.914 Y172.26
G3 X568.176 Y173.536 I-1.264 J0.121
X567.694 Y173.65 I-0.527 J-1.156
G1 X565.408
X565.309 Y173.645
X565.116 Y173.631
X564.911 Y173.604
X564.68 Y173.561
X564.444 Y173.504
X564.179 Y173.424
X563.907 Y173.326
X563.618 Y173.204
X563.307 Y173.052
X562.996 Y172.879
X562.661 Y172.667
X562.317 Y172.423
X561.972 Y172.149
X561.609 Y171.827
X561.245 Y171.468
X560.89 Y171.076
X560.53 Y170.633
X560.17 Y170.138
X559.828 Y169.609
X559.504 Y169.043
X559.194 Y168.427
X558.907 Y167.768
X558.648 Y167.073
X558.422 Y166.352
X558.234 Y165.612
X558.086 Y164.861
X557.981 Y164.113
X557.917 Y163.373
X557.894 Y162.654
X557.909 Y161.954
X557.961 Y161.283
X558.041 Y160.671
X558.146 Y160.113
X558.265 Y159.625
X558.403 Y159.168
X558.552 Y158.756
X558.714 Y158.377
X558.892 Y158.012
X558.899 Y158
X559.169 Y157.593
X559.498 Y157.232
X559.877 Y156.924
X560.298 Y156.677
X560.751 Y156.497
X561.227 Y156.387
X561.714 Y156.35
X563.999
G3 X565.219 Y157.499 I-0.044 J1.269
G1 X566.628 Y172.26
G3 X565.89 Y173.536 I-1.264 J0.121
X565.408 Y173.65 I-0.527 J-1.156
G1 X563.122
X563.025 Y173.645
X562.835 Y173.631
X562.62 Y173.602
X562.399 Y173.561
X562.15 Y173.5
X561.895 Y173.423
X561.618 Y173.323
X561.322 Y173.197
X561.022 Y173.05
X560.695 Y172.867
X560.366 Y172.659
X560.027 Y172.417
X559.668 Y172.131
X559.315 Y171.818
X558.956 Y171.461
X558.587 Y171.053
X558.225 Y170.607
X557.877 Y170.126
X557.533 Y169.592
X557.2 Y169.008
X556.887 Y168.384
X556.603 Y167.729
X556.349 Y167.045
X556.127 Y166.332
X555.941 Y165.595
X555.794 Y164.843
X555.688 Y164.088
X555.625 Y163.341
X555.603 Y162.62
X555.62 Y161.929
X555.672 Y161.267
X555.755 Y160.639
X555.856 Y160.103
X555.979 Y159.602
X556.113 Y159.162
X556.267 Y158.74
X556.424 Y158.372
X556.607 Y158.001
X556.878 Y157.594
X557.207 Y157.232
X557.587 Y156.924
X558.009 Y156.677
X558.464 Y156.497
X558.94 Y156.387
X559.428 Y156.35
X561.714
G3 X562.934 Y157.499 I-0.044 J1.269
G1 X564.342 Y172.26
G3 X563.605 Y173.536 I-1.264 J0.121
X563.122 Y173.65 I-0.527 J-1.156
G1 X560.836
X560.74 Y173.645
X560.549 Y173.63
X560.335 Y173.602
X560.114 Y173.561
X559.863 Y173.5
X559.608 Y173.422
X559.329 Y173.321
X559.034 Y173.196
X558.733 Y173.048
X558.406 Y172.864
X558.078 Y172.657
X557.736 Y172.413
X557.375 Y172.125
X557.022 Y171.811
X556.661 Y171.452
X556.291 Y171.043
X555.931 Y170.598
X555.583 Y170.116
X555.239 Y169.582
X554.907 Y168.999
X554.594 Y168.374
X554.31 Y167.72
X554.056 Y167.035
X553.834 Y166.32
X553.649 Y165.582
X553.502 Y164.831
X553.397 Y164.075
X553.334 Y163.33
X553.313 Y162.609
X553.33 Y161.918
X553.382 Y161.259
X553.466 Y160.631
X553.567 Y160.098
X553.689 Y159.598
X553.823 Y159.159
X553.977 Y158.738
X554.134 Y158.37
X554.316 Y158.001
X554.588 Y157.594
X554.917 Y157.232
X555.298 Y156.924
X555.72 Y156.677
X556.174 Y156.497
X556.651 Y156.387
X557.139 Y156.35
X559.428
G3 X560.648 Y157.499 I-0.044 J1.269
G1 X562.056 Y172.26
G3 X561.319 Y173.536 I-1.264 J0.121
X560.836 Y173.65 I-0.527 J-1.156
G1 X558.551
X558.455 Y173.645
X558.263 Y173.63
X558.049 Y173.602
X557.826 Y173.56
X557.576 Y173.499
X557.32 Y173.422
X557.04 Y173.32
X556.746 Y173.195
X556.444 Y173.047
X556.116 Y172.863
X555.789 Y172.655
X555.446 Y172.411
X555.085 Y172.123
X554.733 Y171.809
X554.371 Y171.45
X554.001 Y171.04
X553.641 Y170.595
X553.292 Y170.113
X552.948 Y169.578
X552.615 Y168.994
X552.303 Y168.369
X552.019 Y167.715
X551.766 Y167.03
X551.543 Y166.314
X551.358 Y165.577
X551.212 Y164.826
X551.106 Y164.069
X551.044 Y163.325
X551.023 Y162.605
X551.04 Y161.915
X551.092 Y161.256
X551.175 Y160.629
X551.276 Y160.096
X551.399 Y159.597
X551.533 Y159.158
X551.687 Y158.737
X551.844 Y158.37
X552.026 Y158
X552.298 Y157.593
X552.627 Y157.232
X553.007 Y156.924
X553.43 Y156.677
X553.884 Y156.497
X554.361 Y156.387
X554.848 Y156.35
X557.139
G3 X557.621 Y156.464 I-0.044 J1.269
X558.359 Y157.498 I-0.527 J1.156
G1 X559.771 Y172.26
G3 X559.033 Y173.536 I-1.264 J0.121
X558.551 Y173.65 I-0.527 J-1.156
G1 X556.265
X556.168 Y173.645
X555.976 Y173.63
X555.762 Y173.602
X555.539 Y173.561
X555.289 Y173.499
X555.033 Y173.422
X554.753 Y173.32
X554.459 Y173.195
X554.157 Y173.047
X553.829 Y172.863
X553.501 Y172.656
X553.158 Y172.411
X552.798 Y172.124
X552.445 Y171.809
X552.083 Y171.45
X551.713 Y171.04
X551.353 Y170.596
X551.004 Y170.114
X550.659 Y169.579
X550.326 Y168.994
X550.014 Y168.37
X549.731 Y167.716
X549.476 Y167.031
X549.254 Y166.315
X549.068 Y165.578
X548.922 Y164.827
X548.817 Y164.071
X548.754 Y163.327
X548.733 Y162.607
X548.749 Y161.917
X548.801 Y161.258
X548.885 Y160.631
X548.986 Y160.098
X549.109 Y159.599
X549.242 Y159.16
X549.396 Y158.739
X549.553 Y158.371
X549.735 Y158.001
X550.007 Y157.594
X550.336 Y157.232
X550.717 Y156.925
X551.139 Y156.678
X551.594 Y156.497
X552.071 Y156.387
X552.559 Y156.35
X554.848
G3 X555.331 Y156.464 I-0.044 J1.269
X556.068 Y157.498 I-0.527 J1.156
G1 X557.485 Y172.259
G3 X556.265 Y173.65 I-1.264 J0.121
G1 X553.979
X553.881 Y173.645
X553.689 Y173.63
X553.475 Y173.602
X553.253 Y173.561
X553.002 Y173.5
X552.746 Y173.422
X552.466 Y173.321
X552.172 Y173.196
X551.87 Y173.048
X551.542 Y172.864
X551.215 Y172.657
X550.871 Y172.412
X550.511 Y172.125
X550.158 Y171.811
X549.796 Y171.452
X549.425 Y171.042
X549.066 Y170.598
X548.716 Y170.116
X548.372 Y169.581
X548.039 Y168.997
X547.726 Y168.373
X547.443 Y167.72
X547.188 Y167.035
X546.966 Y166.319
X546.78 Y165.582
X546.633 Y164.831
X546.527 Y164.075
X546.464 Y163.331
X546.443 Y162.611
X546.459 Y161.921
X546.511 Y161.262
X546.594 Y160.635
X546.695 Y160.102
X546.818 Y159.602
X546.951 Y159.163
X547.105 Y158.742
X547.262 Y158.374
X547.444 Y158.004
X547.716 Y157.596
X548.046 Y157.234
X548.426 Y156.926
X548.849 Y156.678
X549.305 Y156.497
X549.782 Y156.387
X550.271 Y156.35
X552.559
G3 X553.041 Y156.464 I-0.044 J1.269
X553.779 Y157.498 I-0.527 J1.156
G1 X555.199 Y172.259
G3 X554.461 Y173.536 I-1.264 J0.122
X553.979 Y173.65 I-0.527 J-1.156
G1 X551.693
X551.593 Y173.645
X551.401 Y173.63
X551.188 Y173.602
X550.965 Y173.561
X550.715 Y173.5
X550.459 Y173.423
X550.179 Y173.322
X549.885 Y173.197
X549.583 Y173.049
X549.255 Y172.866
X548.928 Y172.659
X548.585 Y172.414
X548.224 Y172.127
X547.871 Y171.814
X547.509 Y171.455
X547.139 Y171.046
X546.779 Y170.602
X546.43 Y170.12
X546.085 Y169.586
X545.752 Y169.002
X545.439 Y168.378
X545.155 Y167.725
X544.9 Y167.041
X544.677 Y166.325
X544.491 Y165.588
X544.344 Y164.837
X544.238 Y164.081
X544.175 Y163.337
X544.153 Y162.617
X544.169 Y161.926
X544.22 Y161.267
X544.304 Y160.64
X544.404 Y160.107
X544.527 Y159.607
X544.66 Y159.168
X544.813 Y158.746
X544.97 Y158.378
X545.152 Y158.007
X545.424 Y157.599
X545.755 Y157.236
X546.136 Y156.927
X546.56 Y156.679
X547.016 Y156.498
X547.494 Y156.387
X547.984 Y156.35
X550.271
G3 X550.753 Y156.464 I-0.044 J1.269
X551.49 Y157.497 I-0.527 J1.156
G1 X552.913 Y172.259
G3 X552.176 Y173.536 I-1.264 J0.122
X551.693 Y173.65 I-0.527 J-1.156
G1 X549.407
X549.306 Y173.645
X549.114 Y173.63
X548.9 Y173.603
X548.678 Y173.561
X548.428 Y173.5
X548.173 Y173.424
X547.893 Y173.323
X547.599 Y173.198
X547.297 Y173.05
X546.969 Y172.867
X546.642 Y172.661
X546.298 Y172.417
X545.938 Y172.13
X545.585 Y171.817
X545.223 Y171.458
X544.853 Y171.049
X544.493 Y170.606
X544.143 Y170.125
X543.798 Y169.591
X543.465 Y169.007
X543.152 Y168.384
X542.868 Y167.731
X542.613 Y167.047
X542.39 Y166.332
X542.203 Y165.595
X542.056 Y164.844
X541.949 Y164.089
X541.885 Y163.345
X541.863 Y162.624
X541.879 Y161.933
X541.93 Y161.274
X542.013 Y160.646
X542.113 Y160.113
X542.235 Y159.612
X542.368 Y159.174
X542.522 Y158.751
X542.678 Y158.383
X542.861 Y158.012
X543.133 Y157.602
X543.464 Y157.238
X543.846 Y156.928
X544.271 Y156.68
X544.728 Y156.498
X545.207 Y156.387
X545.698 Y156.35
X547.984
G3 X549.203 Y157.497 I-0.044 J1.269
G1 X550.627 Y172.259
G3 X549.89 Y173.536 I-1.264 J0.122
X549.407 Y173.65 I-0.527 J-1.156
G1 X547.122
X547.018 Y173.645
X546.827 Y173.63
X546.613 Y173.603
X546.391 Y173.562
X546.141 Y173.501
X545.886 Y173.424
X545.606 Y173.324
X545.312 Y173.199
X545.011 Y173.052
X544.683 Y172.869
X544.356 Y172.663
X544.012 Y172.419
X543.652 Y172.133
X543.299 Y171.82
X542.937 Y171.462
X542.567 Y171.054
X542.207 Y170.611
X541.857 Y170.13
X541.512 Y169.596
X541.179 Y169.014
X540.865 Y168.391
X540.581 Y167.738
X540.326 Y167.054
X540.102 Y166.339
X539.915 Y165.602
X539.767 Y164.852
X539.66 Y164.097
X539.596 Y163.353
X539.573 Y162.632
X539.589 Y161.941
X539.639 Y161.282
X539.722 Y160.654
X539.822 Y160.12
X539.944 Y159.619
X540.077 Y159.18
X540.23 Y158.757
X540.386 Y158.389
X540.569 Y158.017
X540.842 Y157.606
X541.173 Y157.241
X541.556 Y156.93
X541.982 Y156.681
X542.44 Y156.498
X542.921 Y156.387
X543.413 Y156.35
X545.698
G3 X546.18 Y156.464 I-0.044 J1.269
X546.918 Y157.497 I-0.527 J1.156
G1 X548.341 Y172.259
G3 X547.122 Y173.65 I-1.264 J0.122
G1 X544.836
X544.625 Y173.639
X544.427 Y173.619
X544.206 Y173.583
X543.969 Y173.532
X543.718 Y173.464
X543.443 Y173.372
X543.164 Y173.262
X542.859 Y173.122
X542.545 Y172.958
X542.222 Y172.765
X541.875 Y172.531
X541.532 Y172.272
X541.176 Y171.972
X540.807 Y171.625
X540.446 Y171.247
X540.088 Y170.827
X539.727 Y170.355
X539.371 Y169.835
X539.038 Y169.284
X538.721 Y168.692
X538.424 Y168.053
X538.151 Y167.375
X537.91 Y166.666
X537.705 Y165.935
X537.539 Y165.19
X537.414 Y164.438
X537.331 Y163.696
X537.29 Y162.967
X537.288 Y162.26
X537.323 Y161.576
X537.392 Y160.926
X537.482 Y160.371
X537.599 Y159.834
X537.722 Y159.388
X537.872 Y158.94
X538.022 Y158.561
X538.197 Y158.18
X538.24 Y158.1
X538.474 Y157.721
X538.756 Y157.378
X539.083 Y157.076
X539.447 Y156.821
X539.843 Y156.618
X540.262 Y156.47
X540.698 Y156.38
X541.141 Y156.35
X543.413
G3 X543.895 Y156.464 I-0.044 J1.269
X544.633 Y157.497 I-0.527 J1.156
G1 X546.056 Y172.259
G3 X545.318 Y173.536 I-1.264 J0.122
X544.836 Y173.65 I-0.527 J-1.156
G1 X542.55
X542.34 Y173.639
X542.132 Y173.618
X541.917 Y173.583
X541.679 Y173.532
X541.424 Y173.462
X541.16 Y173.374
X540.867 Y173.259
X540.574 Y173.124
X540.256 Y172.958
X539.924 Y172.76
X539.592 Y172.536
X539.239 Y172.269
X538.881 Y171.968
X538.526 Y171.634
X538.159 Y171.249
X537.791 Y170.818
X537.439 Y170.358
X537.09 Y169.847
X536.75 Y169.286
X536.426 Y168.679
X536.128 Y168.039
X535.859 Y167.371
X535.621 Y166.671
X535.417 Y165.944
X535.251 Y165.198
X535.125 Y164.442
X535.041 Y163.694
X535 Y162.96
X534.998 Y162.256
X535.033 Y161.584
X535.102 Y160.937
X535.193 Y160.374
X535.306 Y159.853
X535.436 Y159.383
X535.577 Y158.962
X535.737 Y158.557
X535.902 Y158.197
X535.954 Y158.1
X536.188 Y157.721
X536.47 Y157.378
X536.797 Y157.076
X537.161 Y156.821
X537.557 Y156.618
X537.976 Y156.47
X538.412 Y156.38
X538.856 Y156.35
X541.141
G3 X541.624 Y156.464 I-0.044 J1.269
X542.361 Y157.499 I-0.527 J1.156
G1 X543.77 Y172.26
G3 X542.55 Y173.65 I-1.264 J0.121
G1 X540.264
X540.049 Y173.639
X539.842 Y173.618
X539.628 Y173.583
X539.39 Y173.532
X539.135 Y173.462
X538.869 Y173.374
X538.577 Y173.259
X538.284 Y173.124
X537.967 Y172.958
X537.636 Y172.76
X537.304 Y172.537
X536.949 Y172.269
X536.591 Y171.967
X536.235 Y171.632
X535.868 Y171.247
X535.5 Y170.816
X535.148 Y170.356
X534.8 Y169.847
X534.461 Y169.287
X534.137 Y168.68
X533.839 Y168.041
X533.57 Y167.372
X533.331 Y166.67
X533.127 Y165.943
X532.961 Y165.199
X532.836 Y164.444
X532.752 Y163.696
X532.711 Y162.964
X532.709 Y162.262
X532.744 Y161.588
X532.813 Y160.943
X532.904 Y160.379
X533.017 Y159.857
X533.147 Y159.386
X533.288 Y158.964
X533.449 Y158.559
X533.615 Y158.199
X533.666 Y158.101
X533.9 Y157.722
X534.183 Y157.379
X534.51 Y157.077
X534.875 Y156.822
X535.27 Y156.618
X535.69 Y156.47
X536.126 Y156.38
X536.57 Y156.35
X538.856
G3 X540.076 Y157.499 I-0.044 J1.269
G1 X541.484 Y172.26
G3 X540.747 Y173.536 I-1.264 J0.121
X540.264 Y173.65 I-0.527 J-1.156
G1 X537.979
X537.76 Y173.639
X537.553 Y173.617
X537.338 Y173.583
X537.1 Y173.532
X536.845 Y173.462
X536.579 Y173.374
X536.287 Y173.258
X535.993 Y173.124
X535.677 Y172.958
X535.346 Y172.76
X535.014 Y172.537
X534.659 Y172.269
X534.301 Y171.967
X533.946 Y171.632
X533.578 Y171.247
X533.21 Y170.817
X532.858 Y170.357
X532.51 Y169.847
X532.171 Y169.287
X531.847 Y168.68
X531.549 Y168.041
X531.28 Y167.372
X531.042 Y166.672
X530.838 Y165.945
X530.672 Y165.201
X530.547 Y164.447
X530.464 Y163.699
X530.422 Y162.968
X530.42 Y162.265
X530.455 Y161.591
X530.524 Y160.946
X530.615 Y160.382
X530.729 Y159.859
X530.858 Y159.388
X531 Y158.965
X531.16 Y158.56
X531.326 Y158.2
X531.378 Y158.102
X531.612 Y157.723
X531.895 Y157.38
X532.222 Y157.077
X532.587 Y156.822
X532.983 Y156.618
X533.403 Y156.47
X533.84 Y156.38
X534.284 Y156.35
X536.57
G3 X537.052 Y156.464 I-0.044 J1.269
X537.79 Y157.499 I-0.527 J1.156
G1 X539.198 Y172.26
G3 X537.979 Y173.65 I-1.264 J0.121
G1 X535.693
X535.47 Y173.639
X535.263 Y173.617
X535.048 Y173.583
X534.81 Y173.531
X534.555 Y173.462
X534.289 Y173.373
X533.997 Y173.258
X533.704 Y173.124
X533.387 Y172.957
X533.056 Y172.76
X532.724 Y172.536
X532.37 Y172.269
X532.012 Y171.967
X531.656 Y171.632
X531.289 Y171.247
X530.921 Y170.817
X530.569 Y170.357
X530.221 Y169.848
X529.882 Y169.287
X529.558 Y168.681
X529.26 Y168.042
X528.992 Y167.374
X528.753 Y166.673
X528.55 Y165.947
X528.384 Y165.203
X528.258 Y164.45
X528.175 Y163.702
X528.133 Y162.97
X528.132 Y162.267
X528.167 Y161.593
X528.235 Y160.948
X528.327 Y160.383
X528.44 Y159.86
X528.57 Y159.39
X528.711 Y158.967
X528.872 Y158.562
X529.038 Y158.201
X529.089 Y158.104
X529.323 Y157.725
X529.607 Y157.381
X529.934 Y157.078
X530.3 Y156.822
X530.696 Y156.619
X531.117 Y156.47
X531.553 Y156.38
X531.998 Y156.35
X534.284
G3 X535.504 Y157.499 I-0.044 J1.269
G1 X536.913 Y172.26
G3 X536.175 Y173.536 I-1.264 J0.121
X535.693 Y173.65 I-0.527 J-1.156
G1 X533.313
X533.163 Y173.643
X532.955 Y173.619
X532.735 Y173.583
X532.497 Y173.53
X532.238 Y173.457
X531.971 Y173.367
X531.677 Y173.249
X531.38 Y173.11
X531.064 Y172.941
X530.729 Y172.738
X530.396 Y172.511
X530.042 Y172.241
X529.68 Y171.931
X529.325 Y171.593
X528.959 Y171.205
X528.59 Y170.767
X528.236 Y170.298
X527.892 Y169.787
X527.556 Y169.225
X527.235 Y168.615
X526.938 Y167.966
X526.671 Y167.289
X526.437 Y166.586
X526.238 Y165.859
X526.077 Y165.114
X525.956 Y164.361
X525.878 Y163.616
X525.842 Y162.89
X525.845 Y162.193
X525.884 Y161.52
X525.956 Y160.879
X526.051 Y160.317
X526.165 Y159.809
X526.298 Y159.337
X526.439 Y158.923
X526.603 Y158.517
X526.769 Y158.163
X526.809 Y158.088
X527.045 Y157.712
X527.329 Y157.371
X527.656 Y157.071
X528.021 Y156.818
X528.416 Y156.616
X528.835 Y156.469
X529.27 Y156.38
X529.712 Y156.35
X531.998
G3 X532.481 Y156.464 I-0.044 J1.269
X533.219 Y157.507 I-0.527 J1.156
G1 X534.533 Y172.268
G3 X533.795 Y173.536 I-1.265 J0.113
X533.313 Y173.65 I-0.527 J-1.156
G1 X531.027
X530.877 Y173.643
X530.668 Y173.62
X530.453 Y173.584
X530.211 Y173.531
X529.958 Y173.46
X529.688 Y173.369
X529.396 Y173.252
X529.101 Y173.116
X528.781 Y172.946
X528.452 Y172.747
X528.117 Y172.52
X527.761 Y172.248
X527.406 Y171.946
X527.048 Y171.606
X526.679 Y171.215
X526.313 Y170.783
X525.962 Y170.32
X525.613 Y169.804
X525.275 Y169.239
X524.953 Y168.63
X524.658 Y167.99
X524.392 Y167.32
X524.157 Y166.617
X523.956 Y165.889
X523.794 Y165.144
X523.672 Y164.391
X523.592 Y163.643
X523.554 Y162.913
X523.556 Y162.211
X523.594 Y161.54
X523.665 Y160.898
X523.758 Y160.339
X523.873 Y159.822
X524.004 Y159.354
X524.147 Y158.935
X524.309 Y158.531
X524.475 Y158.174
X524.517 Y158.095
X524.753 Y157.717
X525.037 Y157.375
X525.365 Y157.074
X525.73 Y156.82
X526.127 Y156.617
X526.547 Y156.47
X526.983 Y156.38
X527.427 Y156.35
X529.712
G3 X530.195 Y156.464 I-0.044 J1.269
X530.933 Y157.507 I-0.527 J1.156
G1 X532.247 Y172.268
G3 X531.509 Y173.536 I-1.265 J0.113
X531.027 Y173.65 I-0.527 J-1.156
G1 X528.741
X528.591 Y173.643
X528.383 Y173.62
X528.168 Y173.585
X527.927 Y173.532
X527.673 Y173.462
X527.405 Y173.371
X527.112 Y173.255
X526.818 Y173.119
X526.499 Y172.95
X526.17 Y172.752
X525.835 Y172.525
X525.479 Y172.254
X525.123 Y171.952
X524.766 Y171.614
X524.398 Y171.225
X524.032 Y170.794
X523.681 Y170.332
X523.333 Y169.819
X522.994 Y169.255
X522.672 Y168.647
X522.377 Y168.008
X522.11 Y167.338
X521.874 Y166.635
X521.672 Y165.907
X521.509 Y165.162
X521.386 Y164.408
X521.305 Y163.661
X521.266 Y162.93
X521.267 Y162.228
X521.304 Y161.556
X521.375 Y160.913
X521.467 Y160.353
X521.582 Y159.834
X521.712 Y159.366
X521.855 Y158.945
X522.016 Y158.541
X522.183 Y158.183
X522.227 Y158.1
X522.462 Y157.721
X522.747 Y157.378
X523.075 Y157.076
X523.441 Y156.821
X523.838 Y156.618
X524.258 Y156.47
X524.695 Y156.38
X525.14 Y156.35
X527.427
G3 X527.909 Y156.464 I-0.044 J1.269
X528.647 Y157.507 I-0.527 J1.156
G1 X529.962 Y172.268
G3 X529.223 Y173.536 I-1.265 J0.113
X528.741 Y173.65 I-0.527 J-1.156
G1 X526.455
X526.305 Y173.643
X526.097 Y173.62
X525.883 Y173.585
X525.643 Y173.533
X525.389 Y173.463
X525.121 Y173.373
X524.829 Y173.258
X524.535 Y173.122
X524.217 Y172.954
X523.887 Y172.756
X523.554 Y172.531
X523.198 Y172.261
X522.842 Y171.96
X522.486 Y171.623
X522.118 Y171.235
X521.751 Y170.804
X521.4 Y170.343
X521.052 Y169.832
X520.713 Y169.269
X520.391 Y168.662
X520.094 Y168.023
X519.827 Y167.354
X519.59 Y166.652
X519.388 Y165.924
X519.223 Y165.18
X519.099 Y164.426
X519.018 Y163.679
X518.978 Y162.947
Y162.245
X519.014 Y161.572
X519.084 Y160.928
X519.176 Y160.367
X519.291 Y159.846
X519.421 Y159.377
X519.563 Y158.955
X519.724 Y158.551
X519.891 Y158.191
X519.937 Y158.103
X520.173 Y157.724
X520.457 Y157.38
X520.785 Y157.078
X521.151 Y156.822
X521.549 Y156.618
X521.97 Y156.47
X522.407 Y156.38
X522.852 Y156.35
X525.14
G3 X526.361 Y157.507 I-0.044 J1.269
G1 X527.676 Y172.268
G3 X526.938 Y173.536 I-1.265 J0.113
X526.455 Y173.65 I-0.527 J-1.156
G1 X524.169
X524.02 Y173.643
X523.812 Y173.621
X523.597 Y173.586
X523.358 Y173.534
X523.105 Y173.464
X522.838 Y173.375
X522.546 Y173.26
X522.252 Y173.125
X521.935 Y172.958
X521.605 Y172.76
X521.272 Y172.536
X520.916 Y172.267
X520.56 Y171.966
X520.204 Y171.63
X519.836 Y171.244
X519.469 Y170.813
X519.118 Y170.353
X518.77 Y169.843
X518.431 Y169.282
X518.108 Y168.675
X517.811 Y168.036
X517.544 Y167.368
X517.306 Y166.667
X517.103 Y165.94
X516.938 Y165.195
X516.813 Y164.442
X516.731 Y163.694
X516.69 Y162.962
X516.689 Y162.259
X516.725 Y161.586
X516.794 Y160.941
X516.885 Y160.379
X517 Y159.856
X517.13 Y159.387
X517.272 Y158.964
X517.432 Y158.559
X517.599 Y158.198
X517.648 Y158.107
X517.883 Y157.727
X518.167 Y157.382
X518.496 Y157.079
X518.862 Y156.823
X519.259 Y156.619
X519.681 Y156.47
X520.119 Y156.38
X520.564 Y156.35
X522.852
G3 X523.335 Y156.464 I-0.044 J1.269
X524.073 Y157.506 I-0.527 J1.156
G1 X525.39 Y172.268
G3 X524.652 Y173.536 I-1.265 J0.113
X524.169 Y173.65 I-0.527 J-1.156
G1 X521.884
X521.734 Y173.643
X521.527 Y173.621
X521.312 Y173.586
X521.074 Y173.535
X520.82 Y173.465
X520.554 Y173.377
X520.262 Y173.262
X519.968 Y173.127
X519.652 Y172.961
X519.321 Y172.764
X518.989 Y172.54
X518.634 Y172.272
X518.278 Y171.971
X517.922 Y171.636
X517.554 Y171.251
X517.187 Y170.821
X516.836 Y170.362
X516.488 Y169.852
X516.149 Y169.292
X515.825 Y168.686
X515.528 Y168.048
X515.26 Y167.38
X515.021 Y166.68
X514.818 Y165.953
X514.652 Y165.209
X514.526 Y164.456
X514.443 Y163.708
X514.402 Y162.976
X514.4 Y162.272
X514.435 Y161.598
X514.504 Y160.953
X514.595 Y160.389
X514.709 Y159.865
X514.839 Y159.395
X514.981 Y158.971
X515.141 Y158.566
X515.308 Y158.205
X515.358 Y158.109
X515.593 Y157.729
X515.878 Y157.384
X516.206 Y157.08
X516.573 Y156.824
X516.97 Y156.619
X517.392 Y156.471
X517.83 Y156.38
X518.276 Y156.35
X520.564
G3 X521.047 Y156.464 I-0.044 J1.269
X521.785 Y157.506 I-0.527 J1.156
G1 X523.104 Y172.268
G3 X522.366 Y173.536 I-1.265 J0.113
X521.884 Y173.65 I-0.527 J-1.156
G1 X519.598
X519.522 Y173.646
X519.324 Y173.63
X519.117 Y173.602
X518.882 Y173.556
X518.642 Y173.497
X518.374 Y173.414
X518.097 Y173.312
X517.806 Y173.187
X517.491 Y173.03
X517.176 Y172.852
X516.84 Y172.636
X516.49 Y172.385
X516.144 Y172.106
X515.781 Y171.779
X515.413 Y171.41
X515.056 Y171.012
X514.697 Y170.564
X514.339 Y170.063
X513.994 Y169.522
X513.672 Y168.95
X513.366 Y168.332
X513.084 Y167.672
X512.83 Y166.977
X512.61 Y166.256
X512.427 Y165.517
X512.285 Y164.767
X512.185 Y164.022
X512.127 Y163.286
X512.109 Y162.569
X512.129 Y161.875
X512.185 Y161.211
X512.266 Y160.625
X512.374 Y160.067
X512.492 Y159.597
X512.635 Y159.137
X512.782 Y158.738
X512.952 Y158.347
X513.124 Y158.003
X513.398 Y157.595
X513.731 Y157.233
X514.114 Y156.925
X514.539 Y156.678
X514.996 Y156.497
X515.476 Y156.387
X515.966 Y156.35
X518.276
G3 X518.759 Y156.464 I-0.044 J1.269
X519.497 Y157.506 I-0.527 J1.156
G1 X520.818 Y172.268
G3 X520.08 Y173.536 I-1.265 J0.113
X519.598 Y173.65 I-0.527 J-1.156
G1 X517.312
X517.232 Y173.646
X517.037 Y173.63
X516.822 Y173.6
X516.597 Y173.557
X516.345 Y173.494
X516.089 Y173.415
X515.807 Y173.311
X515.513 Y173.184
X515.207 Y173.032
X514.877 Y172.845
X514.549 Y172.635
X514.205 Y172.387
X513.845 Y172.097
X513.493 Y171.78
X513.131 Y171.417
X512.761 Y171.003
X512.403 Y170.556
X512.054 Y170.069
X511.711 Y169.529
X511.38 Y168.941
X511.07 Y168.314
X510.789 Y167.658
X510.539 Y166.972
X510.321 Y166.256
X510.139 Y165.518
X509.997 Y164.767
X509.896 Y164.016
X509.838 Y163.275
X509.82 Y162.56
X509.84 Y161.875
X509.896 Y161.216
X509.982 Y160.596
X510.085 Y160.066
X510.209 Y159.572
X510.345 Y159.133
X510.5 Y158.716
X510.659 Y158.348
X510.843 Y157.98
X511.114 Y157.578
X511.443 Y157.221
X511.821 Y156.917
X512.24 Y156.673
X512.691 Y156.495
X513.164 Y156.386
X513.648 Y156.35
X515.966
G3 X516.448 Y156.464 I-0.044 J1.269
X517.186 Y157.504 I-0.527 J1.156
G1 X518.532 Y172.265
G3 X517.794 Y173.536 I-1.265 J0.115
X517.312 Y173.65 I-0.527 J-1.156
G1 X515.026
X514.945 Y173.646
X514.75 Y173.63
X514.536 Y173.601
X514.311 Y173.558
X514.059 Y173.495
X513.803 Y173.416
X513.52 Y173.312
X513.227 Y173.185
X512.922 Y173.034
X512.593 Y172.847
X512.266 Y172.638
X511.92 Y172.389
X511.56 Y172.099
X511.207 Y171.782
X510.844 Y171.418
X510.474 Y171.005
X510.117 Y170.559
X509.768 Y170.072
X509.425 Y169.533
X509.094 Y168.946
X508.784 Y168.32
X508.504 Y167.665
X508.253 Y166.978
X508.034 Y166.261
X507.852 Y165.524
X507.71 Y164.774
X507.608 Y164.02
X507.549 Y163.278
X507.531 Y162.56
X507.551 Y161.872
X507.606 Y161.216
X507.693 Y160.591
X507.796 Y160.059
X507.921 Y159.563
X508.056 Y159.124
X508.211 Y158.706
X508.37 Y158.339
X508.553 Y157.972
X508.823 Y157.572
X509.149 Y157.216
X509.525 Y156.914
X509.942 Y156.672
X510.391 Y156.494
X510.861 Y156.386
X511.342 Y156.35
X513.648
G3 X514.868 Y157.501 I-0.044 J1.269
G1 X516.246 Y172.263
G3 X515.509 Y173.536 I-1.264 J0.118
X515.026 Y173.65 I-0.527 J-1.156
G1 X512.74
X512.658 Y173.646
X512.463 Y173.63
X512.249 Y173.601
X512.025 Y173.558
X511.772 Y173.495
X511.516 Y173.416
X511.233 Y173.312
X510.94 Y173.186
X510.635 Y173.035
X510.306 Y172.848
X509.979 Y172.639
X509.634 Y172.391
X509.273 Y172.1
X508.921 Y171.784
X508.558 Y171.42
X508.188 Y171.007
X507.83 Y170.561
X507.482 Y170.075
X507.139 Y169.537
X506.807 Y168.95
X506.498 Y168.323
X506.217 Y167.668
X505.965 Y166.981
X505.746 Y166.264
X505.564 Y165.526
X505.421 Y164.775
X505.319 Y164.02
X505.26 Y163.276
X505.242 Y162.557
X505.262 Y161.868
X505.316 Y161.211
X505.403 Y160.585
X505.506 Y160.053
X505.63 Y159.557
X505.766 Y159.118
X505.92 Y158.701
X506.079 Y158.334
X506.262 Y157.968
X506.53 Y157.569
X506.855 Y157.214
X507.23 Y156.913
X507.646 Y156.671
X508.093 Y156.494
X508.562 Y156.386
X509.042 Y156.35
X511.342
G3 X511.824 Y156.464 I-0.044 J1.269
X512.562 Y157.499 I-0.527 J1.156
G1 X513.96 Y172.261
G3 X513.223 Y173.536 I-1.264 J0.12
X512.74 Y173.65 I-0.527 J-1.156
G1 X510.455
X510.371 Y173.646
X510.176 Y173.63
X509.962 Y173.601
X509.738 Y173.558
X509.486 Y173.495
X509.229 Y173.417
X508.947 Y173.313
X508.654 Y173.187
X508.349 Y173.036
X508.02 Y172.85
X507.693 Y172.64
X507.348 Y172.392
X506.988 Y172.103
X506.635 Y171.786
X506.272 Y171.423
X505.902 Y171.01
X505.544 Y170.564
X505.196 Y170.078
X504.852 Y169.54
X504.521 Y168.953
X504.211 Y168.327
X503.929 Y167.671
X503.678 Y166.984
X503.458 Y166.266
X503.275 Y165.528
X503.132 Y164.776
X503.03 Y164.02
X502.97 Y163.275
X502.951 Y162.555
X502.971 Y161.866
X503.025 Y161.208
X503.112 Y160.583
X503.215 Y160.051
X503.339 Y159.555
X503.474 Y159.116
X503.628 Y158.699
X503.787 Y158.332
X503.969 Y157.966
X504.237 Y157.568
X504.562 Y157.214
X504.936 Y156.912
X505.351 Y156.67
X505.798 Y156.494
X506.267 Y156.386
X506.746 Y156.35
X509.042
G3 X509.524 Y156.464 I-0.044 J1.269
X510.262 Y157.498 I-0.527 J1.156
G1 X511.675 Y172.26
G3 X510.455 Y173.65 I-1.264 J0.121
G1 X508.169
X508.084 Y173.646
X507.889 Y173.63
X507.675 Y173.601
X507.451 Y173.558
X507.199 Y173.496
X506.943 Y173.417
X506.661 Y173.314
X506.367 Y173.187
X506.063 Y173.037
X505.734 Y172.851
X505.407 Y172.642
X505.062 Y172.394
X504.701 Y172.104
X504.349 Y171.788
X503.986 Y171.425
X503.616 Y171.013
X503.258 Y170.567
X502.909 Y170.081
X502.565 Y169.543
X502.233 Y168.956
X501.923 Y168.329
X501.641 Y167.674
X501.389 Y166.986
X501.169 Y166.268
X500.986 Y165.529
X500.842 Y164.777
X500.74 Y164.02
X500.68 Y163.276
X500.661 Y162.555
X500.68 Y161.866
X500.734 Y161.208
X500.82 Y160.582
X500.923 Y160.05
X501.047 Y159.554
X501.182 Y159.116
X501.336 Y158.699
X501.494 Y158.333
X501.676 Y157.967
X501.944 Y157.568
X502.269 Y157.214
X502.643 Y156.912
X503.058 Y156.671
X503.505 Y156.494
X503.973 Y156.386
X504.452 Y156.35
X506.746
G3 X507.966 Y157.497 I-0.044 J1.269
G1 X509.389 Y172.259
G3 X508.651 Y173.536 I-1.264 J0.122
X508.169 Y173.65 I-0.527 J-1.156
G1 X505.883
X505.797 Y173.646
X505.603 Y173.63
X505.388 Y173.601
X505.164 Y173.558
X504.912 Y173.496
X504.656 Y173.418
X504.374 Y173.314
X504.081 Y173.188
X503.777 Y173.038
X503.448 Y172.852
X503.12 Y172.643
X502.776 Y172.396
X502.415 Y172.106
X502.062 Y171.79
X501.7 Y171.428
X501.329 Y171.015
X500.971 Y170.569
X500.622 Y170.084
X500.278 Y169.545
X499.946 Y168.958
X499.635 Y168.332
X499.353 Y167.676
X499.1 Y166.989
X498.88 Y166.27
X498.696 Y165.531
X498.552 Y164.779
X498.449 Y164.022
X498.389 Y163.277
X498.37 Y162.557
X498.389 Y161.867
X498.443 Y161.209
X498.528 Y160.584
X498.631 Y160.052
X498.755 Y159.556
X498.89 Y159.118
X499.043 Y158.701
X499.201 Y158.334
X499.383 Y157.968
X499.651 Y157.569
X499.976 Y157.215
X500.35 Y156.913
X500.766 Y156.671
X501.213 Y156.494
X501.681 Y156.386
X502.161 Y156.35
X504.452
G3 X504.935 Y156.464 I-0.044 J1.269
X505.672 Y157.497 I-0.527 J1.156
G1 X507.103 Y172.258
G3 X505.883 Y173.65 I-1.264 J0.123
G1 X503.597
X503.509 Y173.646
X503.315 Y173.63
X503.101 Y173.601
X502.877 Y173.559
X502.626 Y173.496
X502.37 Y173.418
X502.087 Y173.315
X501.794 Y173.189
X501.49 Y173.039
X501.161 Y172.853
X500.834 Y172.645
X500.489 Y172.397
X500.128 Y172.108
X499.776 Y171.792
X499.413 Y171.43
X499.042 Y171.017
X498.684 Y170.572
X498.334 Y170.087
X497.99 Y169.548
X497.658 Y168.961
X497.347 Y168.335
X497.064 Y167.68
X496.812 Y166.992
X496.591 Y166.274
X496.407 Y165.534
X496.262 Y164.782
X496.159 Y164.025
X496.098 Y163.28
X496.079 Y162.56
X496.098 Y161.87
X496.151 Y161.212
X496.237 Y160.587
X496.339 Y160.055
X496.462 Y159.559
X496.597 Y159.12
X496.751 Y158.703
X496.909 Y158.337
X497.09 Y157.971
X497.358 Y157.571
X497.684 Y157.216
X498.058 Y156.914
X498.474 Y156.671
X498.921 Y156.494
X499.391 Y156.386
X499.87 Y156.35
X502.161
G3 X502.643 Y156.464 I-0.044 J1.269
X503.38 Y157.496 I-0.527 J1.156
G1 X504.817 Y172.258
G3 X503.597 Y173.65 I-1.264 J0.123
G1 X501.311
X501.222 Y173.646
X501.028 Y173.63
X500.814 Y173.601
X500.59 Y173.559
X500.339 Y173.497
X500.083 Y173.419
X499.801 Y173.316
X499.507 Y173.19
X499.203 Y173.04
X498.875 Y172.855
X498.547 Y172.646
X498.202 Y172.399
X497.842 Y172.11
X497.489 Y171.795
X497.126 Y171.433
X496.755 Y171.02
X496.397 Y170.575
X496.047 Y170.09
X495.702 Y169.552
X495.37 Y168.965
X495.059 Y168.339
X494.776 Y167.684
X494.523 Y166.996
X494.302 Y166.278
X494.117 Y165.539
X493.972 Y164.787
X493.869 Y164.03
X493.808 Y163.285
X493.788 Y162.564
X493.806 Y161.875
X493.86 Y161.217
X493.945 Y160.591
X494.047 Y160.059
X494.17 Y159.563
X494.305 Y159.125
X494.458 Y158.707
X494.616 Y158.34
X494.798 Y157.974
X495.066 Y157.573
X495.391 Y157.218
X495.766 Y156.915
X496.183 Y156.672
X496.631 Y156.495
X497.101 Y156.386
X497.582 Y156.35
X499.87
G3 X501.09 Y157.496 I-0.044 J1.269
G1 X502.531 Y172.257
G3 X501.311 Y173.65 I-1.264 J0.123
G1 X499.026
X498.934 Y173.645
X498.741 Y173.63
X498.526 Y173.602
X498.303 Y173.559
X498.051 Y173.497
X497.796 Y173.419
X497.514 Y173.317
X497.22 Y173.191
X496.917 Y173.042
X496.588 Y172.857
X496.261 Y172.648
X495.916 Y172.402
X495.555 Y172.113
X495.202 Y171.798
X494.839 Y171.436
X494.468 Y171.024
X494.11 Y170.579
X493.76 Y170.094
X493.415 Y169.557
X493.082 Y168.97
X492.771 Y168.345
X492.488 Y167.69
X492.234 Y167.002
X492.013 Y166.284
X491.828 Y165.545
X491.683 Y164.793
X491.579 Y164.036
X491.517 Y163.292
X491.497 Y162.571
X491.515 Y161.881
X491.568 Y161.223
X491.653 Y160.597
X491.755 Y160.065
X491.878 Y159.568
X492.012 Y159.13
X492.165 Y158.712
X492.323 Y158.345
X492.505 Y157.978
X492.773 Y157.577
X493.099 Y157.22
X493.475 Y156.917
X493.892 Y156.673
X494.342 Y156.495
X494.813 Y156.386
X495.294 Y156.35
X497.582
G3 X498.064 Y156.464 I-0.044 J1.269
X498.801 Y157.496 I-0.527 J1.156
G1 X500.245 Y172.257
G3 X499.026 Y173.65 I-1.264 J0.124
G1 X496.74
X496.646 Y173.645
X496.453 Y173.63
X496.239 Y173.602
X496.016 Y173.56
X495.764 Y173.498
X495.509 Y173.42
X495.227 Y173.318
X494.934 Y173.193
X494.63 Y173.043
X494.301 Y172.859
X493.974 Y172.65
X493.629 Y172.404
X493.269 Y172.116
X492.916 Y171.801
X492.553 Y171.44
X492.182 Y171.028
X491.823 Y170.584
X491.473 Y170.099
X491.128 Y169.562
X490.795 Y168.976
X490.483 Y168.351
X490.2 Y167.696
X489.946 Y167.009
X489.724 Y166.292
X489.539 Y165.553
X489.393 Y164.801
X489.289 Y164.044
X489.227 Y163.3
X489.206 Y162.579
X489.224 Y161.889
X489.277 Y161.231
X489.361 Y160.604
X489.462 Y160.072
X489.585 Y159.575
X489.719 Y159.136
X489.873 Y158.718
X490.03 Y158.351
X490.212 Y157.983
X490.481 Y157.581
X490.807 Y157.223
X491.184 Y156.918
X491.603 Y156.674
X492.053 Y156.495
X492.525 Y156.387
X493.008 Y156.35
X495.294
G3 X496.514 Y157.495 I-0.044 J1.269
G1 X497.96 Y172.257
G3 X496.74 Y173.65 I-1.264 J0.124
G1 X494.454
X494.358 Y173.645
X494.165 Y173.63
X493.951 Y173.602
X493.728 Y173.56
X493.477 Y173.499
X493.222 Y173.421
X492.94 Y173.319
X492.647 Y173.194
X492.344 Y173.045
X492.015 Y172.861
X491.688 Y172.653
X491.343 Y172.407
X490.982 Y172.119
X490.63 Y171.805
X490.267 Y171.444
X489.896 Y171.033
X489.537 Y170.589
X489.187 Y170.105
X489.081 Y169.94
X488.855 Y169.527
X488.69 Y169.085
X488.59 Y168.625
X488.556 Y168.155
G3 X488.67 Y167.673 I1.269 J0.044
X490.681 Y167.261 I1.156 J0.527
G1 X495.266 Y171.442
G3 X494.454 Y173.65 I-0.856 J0.938
G1 X492.168
X492.07 Y173.645
X491.878 Y173.63
X491.664 Y173.602
X491.441 Y173.56
X491.19 Y173.499
X490.934 Y173.422
X490.654 Y173.32
X490.36 Y173.195
X490.286 Y173.159
X489.914 Y172.943
X489.575 Y172.677
X489.276 Y172.367
X489.024 Y172.019
X488.822 Y171.638
X488.675 Y171.234
X488.586 Y170.813
X488.556 Y170.383
G3 X488.67 Y169.901 I1.269 J0.044
X490.648 Y169.46 I1.156 J0.527
G1 X492.946 Y171.413
G3 X492.168 Y173.65 I-0.822 J0.968
G1 X490.263
X490.179 Y173.646
X489.857 Y173.594
X489.55 Y173.483
X489.27 Y173.317
X489.025 Y173.101
X488.826 Y172.843
X488.678 Y172.552
X488.587 Y172.239
X488.556 Y171.914
G3 X488.648 Y171.426 I1.653 J0.058
X490.651 Y170.379 I1.561 J0.546
X490.263 Y173.65 I-0.446 J1.606
G1 X490.092
X489.711 Y173.643
X489.521 Y173.609
X489.33 Y173.543
X489.228 Y173.492
X489.127 Y173.43
X488.949 Y173.285
X488.84 Y173.167
X488.755 Y173.049
X488.655 Y172.859
X488.592 Y172.668
X488.568 Y172.542
X488.556 Y172.287
Y159.34
X488.573 Y159
X488.597 Y158.773
X488.634 Y158.539
X488.68 Y158.326
X488.689 Y158.293
X488.836 Y157.889
X489.046 Y157.515
X489.314 Y157.179
X489.634 Y156.891
X489.995 Y156.659
X490.39 Y156.489
X490.807 Y156.385
X491.235 Y156.35
G3 X491.717 Y156.464 I-0.044 J1.269
X492.175 Y158.421 I-0.527 J1.156
G1 X490.81 Y160.098
G3 X488.67 Y159.822 I-0.985 J-0.802
X488.556 Y159.34 I1.156 J-0.527
G1 Y157.817
X488.563 Y157.62
X488.564 Y157.571
X488.565 Y157.537
X488.574 Y157.46
X488.586 Y157.382
X488.603 Y157.306
G3 X490.429 Y157.748 I0.906 J0.25
X488.689 Y158.015 I-0.92 J-0.193
X488.626 Y157.878 I0.82 J-0.46
X488.565 Y157.537 I0.935 J-0.342
G1 X488.568 Y157.459
X488.572 Y157.436
X488.617 Y157.246
X488.696 Y157.055
X488.8 Y156.885
X488.868 Y156.801
X488.949 Y156.716
X488.994 Y156.674
X489.162 Y156.547
X489.33 Y156.457
X489.521 Y156.391
X489.711 Y156.357
X490.092 Y156.35
X493.008
X493.093 Y156.364 Z40.018
X493.175 Y156.377 Z40.04
X493.252 Y156.389 Z40.076
X493.321 Y156.401 Z40.125
X493.38 Y156.422 Z40.186
X493.427 Y156.44 Z40.258
X493.462 Y156.453 Z40.337
X493.483 Y156.461 Z40.421
X493.49 Y156.464 Z40.509
G0 Z55
X591.588 Y162.649
Z43.78
G1 Z42.51 F849.6
G3 X601.22 Y160.554 Z42.107 I5.556 J2.351 F400.3
X593.067 Y169.446 Z41.445 I-4.077 J4.446
X601.22 Y160.554 Z40.783 I4.077 J-4.446
X593.067 Y169.446 Z40.122 I-4.077 J4.446
X601.22 Y160.554 Z39.46 I4.077 J-4.446
X593.067 Y169.446 Z38.798 I-4.077 J4.446
X592.44 Y161.223 Z38.481 I4.077 J-4.446
X602.278 Y161.834 Z38.078 I4.704 J3.777
X592.009 Y168.166 Z37.416 I-5.135 J3.166
X591.163 Y164.212 Z37.272 I5.135 J-3.166
X599.891 Y159.629 Z36.869 I5.981 J0.788
X594.396 Y170.371 Z36.208 I-2.747 J5.371
X596.706 Y158.983 Z35.661 I2.747 J-5.371
X602.959 Y166.604 Z35.258 I0.438 J6.017
X593.683 Y169.941 Z34.855 I-5.815 J-1.604
X593.648 Y160.083 Z34.452 I3.461 J-4.941
X602.947 Y163.355 Z34.049 I3.495 J4.917
X596.748 Y171.02 Z33.646 I-5.804 J1.645
X597.539 Y158.98 Z32.984 I0.395 J-6.02
X599.929 Y170.351 Z32.437 I-0.395 J6.02
X591.168 Y165.831 Z32.035 I-2.785 J-5.351
X598.364 Y159.092 Z31.632 I5.975 J-0.831
X602.301 Y168.13 Z31.229 I-1.22 J5.908
X592.466 Y168.81 Z30.826 I-5.157 J-3.13
X601.821 Y161.19 Z30.164 I4.677 J-3.81
X603.176 Y165 Z30.02 I-4.677 J3.81
X599.598 Y170.511 I-6.032
X594.689 Y159.489 I-2.455 J-5.511
X597.837 Y159.007 I2.455 J5.511
X602.9 Y163.195 I-0.693 J5.993
X603.176 Y165 I-5.756 J1.805
G1 X603.18 Y165.323 F849.6
X603.299 Y166.61
X603.323 Y166.687
X603.362 Y166.831
X603.392 Y166.979
X603.412 Y167.127
X603.426 Y167.289
X603.431 Y167.463
X603.426 Y167.65
X603.411 Y167.848
X603.383 Y168.057
X603.341 Y168.275
X603.285 Y168.502
X603.214 Y168.737
X603.125 Y168.978
X603.02 Y169.224
X602.897 Y169.474
X602.756 Y169.725
X602.595 Y169.976
X602.416 Y170.226
X602.218 Y170.473
X602.002 Y170.715
X601.766 Y170.951
X601.513 Y171.179
X601.242 Y171.397
X600.954 Y171.605
X600.65 Y171.799
X600.331 Y171.98
X599.998 Y172.146
X599.652 Y172.295
X599.293 Y172.427
X598.924 Y172.541
X598.546 Y172.636
X598.159 Y172.71
X597.766 Y172.764
X597.367 Y172.797
X596.964 Y172.808
X596.559 Y172.797
X596.153 Y172.764
X595.747 Y172.709
X595.343 Y172.631
X594.942 Y172.532
X594.546 Y172.41
X594.155 Y172.267
X593.772 Y172.102
X593.397 Y171.916
X593.032 Y171.709
X592.678 Y171.483
X592.336 Y171.237
X592.007 Y170.973
X591.693 Y170.691
X591.394 Y170.391
X591.111 Y170.076
X590.846 Y169.745
X590.598 Y169.4
X590.37 Y169.042
X590.161 Y168.672
X589.972 Y168.29
X589.804 Y167.899
X589.657 Y167.499
X589.532 Y167.091
X589.43 Y166.677
X589.35 Y166.258
X589.293 Y165.835
X589.259 Y165.409
X589.248 Y164.982
X589.26 Y164.555
X589.295 Y164.129
X589.353 Y163.705
X589.435 Y163.285
X589.538 Y162.871
X589.665 Y162.462
X589.813 Y162.061
X589.983 Y161.668
X590.173 Y161.285
X590.385 Y160.913
X590.616 Y160.553
X590.866 Y160.206
X591.135 Y159.872
X591.422 Y159.554
X591.725 Y159.252
X592.044 Y158.967
X592.379 Y158.7
X592.727 Y158.451
X593.088 Y158.221
X593.462 Y158.011
X593.846 Y157.822
X594.24 Y157.654
X594.642 Y157.507
X595.052 Y157.383
X595.468 Y157.28
X595.888 Y157.201
X596.313 Y157.144
X596.74 Y157.111
X597.168 Y157.1
X597.596 Y157.113
X598.023 Y157.149
X598.447 Y157.209
X598.867 Y157.291
X599.283 Y157.396
X599.692 Y157.523
X600.093 Y157.672
X600.486 Y157.842
X600.869 Y158.034
X601.241 Y158.246
X601.601 Y158.478
X601.948 Y158.729
X602.281 Y158.999
X602.599 Y159.286
X602.9 Y159.59
X603.185 Y159.91
X603.452 Y160.245
X603.7 Y160.594
X603.93 Y160.956
X604.139 Y161.33
X604.378 Y161.817
X604.756 Y162.707
X605.012 Y163.414
X605.197 Y164.026
X605.332 Y164.578
X605.429 Y165.098
X605.494 Y165.595
X605.531 Y166.07
X605.541 Y166.53
X605.527 Y166.98
X605.489 Y167.421
X605.427 Y167.855
X605.343 Y168.281
X605.237 Y168.7
X605.108 Y169.113
X604.957 Y169.518
X604.783 Y169.915
X604.588 Y170.304
X604.37 Y170.684
X604.131 Y171.054
X603.87 Y171.413
X603.587 Y171.761
X603.284 Y172.095
X602.96 Y172.415
X602.616 Y172.72
X602.253 Y173.008
X602.207 Y173.042
X601.861 Y173.256
X601.491 Y173.426
X601.104 Y173.55
X600.703 Y173.625
X600.297 Y173.65
X594.648
X594.361 Y173.636
X594.057 Y173.604
X593.734 Y173.552
X593.401 Y173.48
X593.062 Y173.388
X592.717 Y173.273
X592.364 Y173.134
X592.004 Y172.969
X591.643 Y172.779
X591.285 Y172.565
X590.932 Y172.328
X590.584 Y172.066
X590.244 Y171.778
X589.912 Y171.466
X589.591 Y171.129
X589.284 Y170.77
X588.992 Y170.389
X588.718 Y169.987
X588.463 Y169.566
X588.229 Y169.129
X588.018 Y168.675
X587.829 Y168.207
X587.666 Y167.725
X587.528 Y167.233
X587.416 Y166.731
X587.331 Y166.22
X587.273 Y165.704
X587.243 Y165.183
X587.242 Y164.659
X587.269 Y164.134
X587.325 Y163.609
X587.41 Y163.087
X587.522 Y162.57
X587.663 Y162.058
X587.832 Y161.553
X588.028 Y161.057
X588.252 Y160.573
X588.501 Y160.1
X588.776 Y159.641
X589.076 Y159.197
X589.399 Y158.77
X589.746 Y158.361
X590.115 Y157.97
X590.504 Y157.6
X590.913 Y157.252
X591.347 Y156.921
X591.774 Y156.675
X592.232 Y156.496
X592.712 Y156.387
X593.203 Y156.35
X599.429
X599.988 Y156.378
X600.283 Y156.409
X600.598 Y156.459
X600.926 Y156.53
X601.259 Y156.621
X601.598 Y156.734
X601.947 Y156.871
X602.303 Y157.034
X602.66 Y157.222
X603.015 Y157.434
X603.366 Y157.67
X603.711 Y157.931
X604.061 Y158.226
X604.427 Y158.571
X604.797 Y158.958
X605.177 Y159.403
X605.416 Y159.761
X605.606 Y160.148
X605.744 Y160.556
X605.828 Y160.978
X605.856 Y161.408
G3 X605.742 Y161.891 I-1.269 J-0.044
X603.836 Y162.389 I-1.156 J-0.527
G1 X598.723 Y158.644
G3 X598.947 Y156.464 I0.75 J-1.025
X599.429 Y156.35 I0.527 J1.156
G1 X602.477
X602.687 Y156.361
X602.903 Y156.383
X603.134 Y156.42
X603.391 Y156.475
X603.652 Y156.547
X603.942 Y156.644
X604.049 Y156.686
X604.432 Y156.871
X604.784 Y157.111
X605.096 Y157.401
X605.361 Y157.734
X605.574 Y158.103
X605.73 Y158.5
X605.824 Y158.915
X605.856 Y159.34
G3 X605.742 Y159.822 I-1.269 J-0.044
X603.786 Y160.282 I-1.156 J-0.527
G1 X601.721 Y158.605
G3 X601.995 Y156.464 I0.8 J-0.986
X602.477 Y156.35 I0.527 J1.156
G1 X604.305
X604.463 Y156.358
X604.781 Y156.425
X605.078 Y156.558
X605.341 Y156.749
X605.559 Y156.99
X605.721 Y157.272
X605.822 Y157.581
X605.856 Y157.905
G3 X603.978 Y159.304 I-1.499 J-0.052
X603.818 Y156.449 I0.379 J-1.453
X604.305 Y156.35 I0.539 J1.402
G1 X604.382
X604.763 Y156.364
X604.953 Y156.409
X605.144 Y156.486
X605.282 Y156.567
X605.419 Y156.674
X605.525 Y156.779
X605.634 Y156.917
X605.716 Y157.055
X605.795 Y157.246
X605.84 Y157.436
X605.856 Y157.817
Y169.622
X605.84 Y169.934
X605.813 Y170.194
X605.769 Y170.47
X605.708 Y170.753
X605.626 Y171.054
X605.521 Y171.369
X605.395 Y171.688
X605.249 Y172.007
X604.995 Y172.411
X604.682 Y172.77
X604.317 Y173.076
X603.91 Y173.323
X603.469 Y173.503
X603.005 Y173.613
X602.53 Y173.65
G3 X602.048 Y173.536 I0.044 J-1.269
X601.554 Y171.624 I0.527 J-1.156
G1 X603.567 Y168.91
G3 X605.742 Y169.139 I1.02 J0.756
X605.856 Y169.622 I-1.156 J0.527
G1 Y171.907
X605.849 Y172.056
X605.783 Y172.376
X605.66 Y172.679
X605.485 Y172.954
X605.262 Y173.193
X605 Y173.388
X604.707 Y173.532
X604.392 Y173.62
X604.067 Y173.65
G3 X602.502 Y171.491 I0.059 J-1.689
X605.767 Y171.418 I1.644 J0.475
X605.856 Y171.907 I-1.621 J0.549
G1 Y172.287
X605.851 Y172.478
X605.82 Y172.668
X605.757 Y172.859
X605.657 Y173.049
X605.525 Y173.222
X605.406 Y173.338
X605.286 Y173.43
X605.144 Y173.514
X604.953 Y173.591
X604.763 Y173.636
X604.728 Y173.637
X604.229
X595.147 Y173.649
X594.648 Y173.65
X591.81
X591.712 Y173.645
X591.509 Y173.629
X591.282 Y173.599
X591.046 Y173.555
X590.795 Y173.494
X590.524 Y173.411
X590.249 Y173.311
X589.961 Y173.189
X589.658 Y173.04
X589.351 Y172.868
X589.043 Y172.672
X588.727 Y172.446
X588.405 Y172.19
X588.088 Y171.907
X587.779 Y171.6
X587.474 Y171.262
X587.175 Y170.893
X586.887 Y170.493
X586.613 Y170.067
X586.357 Y169.618
X586.122 Y169.147
X585.907 Y168.652
X585.716 Y168.135
X585.549 Y167.596
X585.409 Y167.039
X585.297 Y166.466
X585.216 Y165.88
X585.166 Y165.283
X585.148 Y164.677
X585.164 Y164.066
X585.212 Y163.451
X585.295 Y162.836
X585.411 Y162.222
X585.562 Y161.612
X585.746 Y161.007
X585.964 Y160.411
X586.215 Y159.825
X586.498 Y159.251
X586.814 Y158.691
X587.16 Y158.148
X587.496 Y157.679
X587.57 Y157.586
X587.905 Y157.226
X588.29 Y156.92
X588.717 Y156.675
X589.175 Y156.496
X589.654 Y156.387
X590.145 Y156.35
X593.203
G3 X593.685 Y156.464 I-0.044 J1.269
X594.423 Y157.739 I-0.527 J1.156
G1 X593.03 Y172.5
G3 X592.292 Y173.536 I-1.264 J-0.119
X591.81 Y173.65 I-0.527 J-1.156
G1 X589.524
X589.425 Y173.645
X589.244 Y173.632
X589.04 Y173.605
X588.828 Y173.567
X588.601 Y173.512
X588.354 Y173.438
X588.103 Y173.348
X587.834 Y173.234
X587.552 Y173.097
X587.27 Y172.94
X586.973 Y172.753
X586.666 Y172.536
X586.364 Y172.297
X586.059 Y172.027
X585.748 Y171.72
X585.441 Y171.382
X585.145 Y171.02
X584.857 Y170.624
X584.577 Y170.191
X584.308 Y169.723
X584.058 Y169.227
X583.83 Y168.706
X583.625 Y168.159
X583.444 Y167.582
X583.29 Y166.979
X583.165 Y166.352
X583.073 Y165.704
X583.015 Y165.039
X582.993 Y164.36
X583.007 Y163.672
X583.06 Y162.977
X583.151 Y162.278
X583.281 Y161.577
X583.451 Y160.877
X583.661 Y160.18
X583.89 Y159.547
X584.13 Y158.979
X584.359 Y158.511
X584.611 Y158.061
X584.72 Y157.887
X585.002 Y157.506
X585.335 Y157.168
X585.714 Y156.882
X586.129 Y156.653
X586.573 Y156.486
X587.037 Y156.384
X587.51 Y156.35
X590.145
G3 X590.627 Y156.464 I-0.044 J1.269
X591.369 Y157.673 I-0.527 J1.156
G1 X590.749 Y172.434
G3 X590.006 Y173.536 I-1.269 J-0.053
X589.524 Y173.65 I-0.527 J-1.156
G1 X587.41
X587.173 Y173.638
X586.982 Y173.618
X586.785 Y173.587
X586.569 Y173.54
X586.336 Y173.476
X586.098 Y173.397
X585.839 Y173.295
X585.571 Y173.172
X585.297 Y173.028
X585.004 Y172.853
X584.708 Y172.655
X584.409 Y172.429
X584.099 Y172.167
X583.787 Y171.874
X583.484 Y171.555
X583.178 Y171.198
X582.873 Y170.799
X582.579 Y170.368
X582.301 Y169.91
X582.035 Y169.412
X581.784 Y168.873
X581.552 Y168.295
X581.346 Y167.69
X581.169 Y167.061
X581.022 Y166.402
X580.908 Y165.713
X580.828 Y164.998
X580.786 Y164.259
X580.784 Y163.502
X580.824 Y162.74
X580.904 Y161.984
X581.023 Y161.251
X581.177 Y160.543
X581.346 Y159.929
X581.531 Y159.376
X581.724 Y158.89
X581.922 Y158.459
X582.134 Y158.056
X582.234 Y157.891
X582.502 Y157.509
X582.824 Y157.171
X583.191 Y156.884
X583.597 Y156.654
X584.032 Y156.487
X584.487 Y156.384
X584.953 Y156.35
X587.51
G3 X587.992 Y156.464 I-0.044 J1.269
X588.736 Y157.628 I-0.527 J1.156
G1 X588.635 Y172.389
G3 X587.892 Y173.536 I-1.27 J-0.009
X587.41 Y173.65 I-0.527 J-1.156
G1 X585.333
X585.054 Y173.636
X584.873 Y173.617
X584.67 Y173.585
X584.458 Y173.539
X584.231 Y173.477
X583.984 Y173.395
X583.733 Y173.296
X583.463 Y173.172
X583.18 Y173.023
X582.896 Y172.854
X582.594 Y172.651
X582.286 Y172.418
X581.981 Y172.16
X581.663 Y171.861
X581.342 Y171.525
X581.033 Y171.163
X580.724 Y170.759
X580.417 Y170.31
X580.122 Y169.823
X579.848 Y169.309
X579.587 Y168.75
X579.344 Y168.146
X579.124 Y167.498
X578.934 Y166.82
X578.777 Y166.118
X578.655 Y165.385
X578.57 Y164.626
X578.526 Y163.849
X578.525 Y163.074
X578.564 Y162.311
X578.643 Y161.573
X578.756 Y160.873
X578.891 Y160.251
X579.052 Y159.668
X579.212 Y159.19
X579.397 Y158.723
X579.576 Y158.332
X579.783 Y157.942
X580.06 Y157.548
X580.392 Y157.199
X580.772 Y156.902
X581.191 Y156.665
X581.641 Y156.491
X582.111 Y156.385
X582.592 Y156.35
X584.953
G3 X585.435 Y156.464 I-0.044 J1.269
X586.178 Y157.586 I-0.527 J1.156
G1 X586.559 Y172.348
G3 X585.816 Y173.536 I-1.27 J0.033
X585.333 Y173.65 I-0.527 J-1.156
G1 X583.219
X582.942 Y173.636
X582.761 Y173.617
X582.555 Y173.584
X582.342 Y173.538
X582.112 Y173.475
X581.863 Y173.392
X581.609 Y173.293
X581.333 Y173.166
X581.05 Y173.017
X580.758 Y172.843
X580.448 Y172.634
X580.138 Y172.401
X579.823 Y172.135
X579.494 Y171.825
X579.171 Y171.486
X578.85 Y171.111
X578.526 Y170.687
X578.207 Y170.22
X577.907 Y169.725
X577.618 Y169.183
X577.342 Y168.592
X577.085 Y167.953
X576.858 Y167.285
X576.662 Y166.588
X576.5 Y165.857
X576.373 Y165.099
X576.287 Y164.325
X576.243 Y163.549
X576.241 Y162.781
X576.28 Y162.038
X576.355 Y161.329
X576.464 Y160.657
X576.586 Y160.095
X576.734 Y159.559
X576.885 Y159.107
X577.058 Y158.669
X577.232 Y158.292
X577.431 Y157.915
X577.703 Y157.528
X578.03 Y157.185
X578.404 Y156.893
X578.816 Y156.659
X579.258 Y156.489
X579.721 Y156.385
X580.193 Y156.35
X582.592
G3 X583.074 Y156.464 I-0.044 J1.269
X583.816 Y157.565 I-0.527 J1.156
G1 X584.444 Y172.327
G3 X583.701 Y173.536 I-1.269 J0.054
X583.219 Y173.65 I-0.527 J-1.156
G1 X581.028
X580.814 Y173.639
X580.629 Y173.62
X580.42 Y173.587
X580.206 Y173.54
X579.969 Y173.476
X579.718 Y173.392
X579.459 Y173.29
X579.175 Y173.16
X578.889 Y173.01
X578.588 Y172.83
X578.271 Y172.616
X577.957 Y172.38
X577.628 Y172.102
X577.29 Y171.784
X576.961 Y171.439
X576.626 Y171.047
X576.289 Y170.606
X575.966 Y170.133
X575.655 Y169.621
X575.353 Y169.055
X575.067 Y168.44
X574.805 Y167.789
X574.574 Y167.11
X574.374 Y166.396
X574.208 Y165.652
X574.08 Y164.888
X573.994 Y164.112
X573.951 Y163.347
X573.949 Y162.595
X573.986 Y161.877
X574.059 Y161.195
X574.164 Y160.546
X574.282 Y160
X574.424 Y159.486
X574.573 Y159.041
X574.741 Y158.617
X574.912 Y158.245
X575.105 Y157.879
X575.372 Y157.5
X575.691 Y157.165
X576.056 Y156.88
X576.458 Y156.652
X576.89 Y156.485
X577.342 Y156.384
X577.804 Y156.35
X580.193
G3 X580.676 Y156.464 I-0.044 J1.269
X581.417 Y157.548 I-0.527 J1.156
G1 X582.251 Y172.309
G3 X581.51 Y173.536 I-1.268 J0.072
X581.028 Y173.65 I-0.527 J-1.156
G1 X578.857
X578.756 Y173.645
X578.568 Y173.631
X578.374 Y173.606
X578.158 Y173.566
X577.928 Y173.511
X577.686 Y173.438
X577.419 Y173.342
X577.15 Y173.229
X576.858 Y173.086
X576.554 Y172.918
X576.247 Y172.724
X575.919 Y172.492
X575.589 Y172.23
X575.255 Y171.935
X574.907 Y171.591
X574.563 Y171.213
X574.227 Y170.8
X573.888 Y170.334
X573.554 Y169.818
X573.24 Y169.272
X572.944 Y168.684
X572.665 Y168.047
X572.411 Y167.367
X572.187 Y166.653
X571.999 Y165.914
X571.849 Y165.16
X571.741 Y164.395
X571.674 Y163.636
X571.65 Y162.893
X571.665 Y162.174
X571.718 Y161.478
X571.805 Y160.813
X571.914 Y160.229
X572.045 Y159.69
X572.181 Y159.238
X572.342 Y158.792
X572.503 Y158.413
X572.688 Y158.035
X572.752 Y157.921
X573.008 Y157.533
X573.321 Y157.19
X573.681 Y156.897
X574.081 Y156.662
X574.513 Y156.49
X574.965 Y156.385
X575.428 Y156.35
X577.804
G3 X578.286 Y156.464 I-0.044 J1.269
X579.026 Y157.529 I-0.527 J1.156
G1 X580.08 Y172.29
G3 X578.857 Y173.65 I-1.267 J0.09
G1 X576.743
X576.46 Y173.636
X576.263 Y173.615
X576.057 Y173.582
X575.825 Y173.532
X575.588 Y173.467
X575.328 Y173.381
X575.054 Y173.273
X574.771 Y173.143
X574.462 Y172.981
X574.155 Y172.797
X573.83 Y172.579
X573.49 Y172.322
X573.156 Y172.041
X572.809 Y171.714
X572.453 Y171.341
X572.11 Y170.94
X571.766 Y170.49
X571.422 Y169.987
X571.091 Y169.441
X570.784 Y168.865
X570.494 Y168.243
X570.227 Y167.577
X569.988 Y166.876
X569.784 Y166.147
X569.617 Y165.398
X569.49 Y164.637
X569.405 Y163.878
X569.363 Y163.129
X569.361 Y162.403
X569.397 Y161.699
X569.469 Y161.027
X569.567 Y160.423
X569.688 Y159.865
X569.818 Y159.393
X569.971 Y158.936
X570.126 Y158.544
X570.302 Y158.161
X570.379 Y158.016
X570.637 Y157.607
X570.956 Y157.243
X571.327 Y156.932
X571.741 Y156.682
X572.189 Y156.499
X572.66 Y156.387
X573.143 Y156.35
X575.428
G3 X575.911 Y156.464 I-0.044 J1.269
X576.649 Y157.507 I-0.527 J1.156
G1 X577.963 Y172.268
G3 X577.225 Y173.536 I-1.265 J0.113
X576.743 Y173.65 I-0.527 J-1.156
G1 X574.457
X574.247 Y173.639
X574.049 Y173.619
X573.835 Y173.585
X573.608 Y173.536
X573.357 Y173.467
X573.102 Y173.382
X572.821 Y173.271
X572.53 Y173.138
X572.228 Y172.979
X571.902 Y172.785
X571.579 Y172.567
X571.24 Y172.312
X570.888 Y172.014
X570.543 Y171.69
X570.19 Y171.32
X569.83 Y170.898
X569.482 Y170.444
X569.144 Y169.949
X568.812 Y169.401
X568.493 Y168.804
X568.197 Y168.169
X567.931 Y167.506
X567.694 Y166.81
X567.49 Y166.084
X567.323 Y165.335
X567.196 Y164.573
X567.112 Y163.811
X567.069 Y163.058
X567.067 Y162.333
X567.103 Y161.641
X567.173 Y160.981
X567.267 Y160.401
X567.388 Y159.843
X567.514 Y159.386
X567.667 Y158.929
X567.818 Y158.548
X567.997 Y158.16
X568.063 Y158.035
X568.324 Y157.621
X568.646 Y157.253
X569.021 Y156.938
X569.44 Y156.686
X569.893 Y156.501
X570.369 Y156.388
X570.857 Y156.35
X573.143
G3 X574.363 Y157.507 I-0.044 J1.269
G1 X575.678 Y172.268
G3 X574.939 Y173.536 I-1.265 J0.113
X574.457 Y173.65 I-0.527 J-1.156
G1 X572.171
X572.09 Y173.646
X571.895 Y173.63
X571.693 Y173.603
X571.463 Y173.559
X571.227 Y173.501
X570.968 Y173.421
X570.692 Y173.32
X570.41 Y173.199
X570.101 Y173.046
X569.791 Y172.871
X569.464 Y172.662
X569.119 Y172.415
X568.78 Y172.142
X568.426 Y171.824
X568.062 Y171.461
X567.71 Y171.069
X567.358 Y170.631
X567.005 Y170.14
X566.663 Y169.604
X566.343 Y169.038
X566.04 Y168.427
X565.758 Y167.771
X565.503 Y167.076
X565.281 Y166.352
X565.096 Y165.608
X564.951 Y164.852
X564.849 Y164.098
X564.789 Y163.349
X564.769 Y162.623
X564.789 Y161.916
X564.845 Y161.241
X564.928 Y160.629
X565.037 Y160.065
X565.158 Y159.581
X565.3 Y159.12
X565.45 Y158.713
X565.615 Y158.33
X565.797 Y157.966
X566.065 Y157.567
X566.389 Y157.213
X566.763 Y156.912
X567.178 Y156.67
X567.624 Y156.494
X568.092 Y156.386
X568.571 Y156.35
X570.857
G3 X571.339 Y156.464 I-0.044 J1.269
X572.078 Y157.507 I-0.527 J1.156
G1 X573.392 Y172.268
G3 X572.654 Y173.536 I-1.265 J0.113
X572.171 Y173.65 I-0.527 J-1.156
G1 X569.885
X569.736 Y173.643
X569.539 Y173.621
X569.318 Y173.585
X569.083 Y173.533
X568.835 Y173.464
X568.561 Y173.371
X568.285 Y173.261
X567.983 Y173.121
X567.672 Y172.955
X567.351 Y172.762
X567.008 Y172.529
X566.668 Y172.27
X566.318 Y171.973
X565.954 Y171.627
X565.597 Y171.249
X565.243 Y170.831
X564.885 Y170.359
X564.534 Y169.838
X564.203 Y169.287
X563.89 Y168.694
X563.595 Y168.054
X563.326 Y167.375
X563.088 Y166.664
X562.885 Y165.93
X562.721 Y165.179
X562.599 Y164.424
X562.519 Y163.674
X562.481 Y162.942
X562.482 Y162.229
X562.521 Y161.541
X562.594 Y160.886
X562.687 Y160.324
X562.807 Y159.787
X562.932 Y159.34
X563.084 Y158.894
X563.235 Y158.516
X563.412 Y158.137
X563.461 Y158.044
X563.727 Y157.628
X564.053 Y157.257
X564.432 Y156.941
X564.855 Y156.687
X565.313 Y156.501
X565.793 Y156.388
X566.285 Y156.35
X568.571
G3 X569.792 Y157.507 I-0.044 J1.269
G1 X571.106 Y172.268
G3 X570.368 Y173.536 I-1.265 J0.113
X569.885 Y173.65 I-0.527 J-1.156
G1 X567.694
X567.484 Y173.639
X567.278 Y173.618
X567.065 Y173.584
X566.829 Y173.533
X566.578 Y173.464
X566.315 Y173.377
X566.026 Y173.263
X565.736 Y173.13
X565.42 Y172.964
X565.093 Y172.769
X564.763 Y172.547
X564.412 Y172.282
X564.06 Y171.985
X563.707 Y171.652
X563.341 Y171.269
X562.977 Y170.843
X562.627 Y170.386
X562.279 Y169.877
X561.94 Y169.316
X561.617 Y168.712
X561.322 Y168.078
X561.054 Y167.411
X560.815 Y166.709
X560.61 Y165.979
X560.443 Y165.231
X560.317 Y164.471
X560.233 Y163.719
X560.191 Y162.977
X560.189 Y162.266
X560.224 Y161.586
X560.293 Y160.937
X560.384 Y160.376
X560.503 Y159.831
X560.626 Y159.382
X560.777 Y158.931
X560.927 Y158.554
X561.104 Y158.168
X561.16 Y158.062
X561.426 Y157.642
X561.753 Y157.267
X562.134 Y156.948
X562.56 Y156.691
X563.02 Y156.503
X563.504 Y156.389
X563.999 Y156.35
X566.285
G3 X566.768 Y156.464 I-0.044 J1.269
X567.505 Y157.499 I-0.527 J1.156
G1 X568.914 Y172.26
G3 X568.176 Y173.536 I-1.264 J0.121
X567.694 Y173.65 I-0.527 J-1.156
G1 X565.408
X565.309 Y173.645
X565.116 Y173.631
X564.911 Y173.604
X564.68 Y173.561
X564.444 Y173.504
X564.179 Y173.424
X563.907 Y173.326
X563.618 Y173.204
X563.307 Y173.052
X562.996 Y172.879
X562.661 Y172.667
X562.317 Y172.423
X561.972 Y172.149
X561.609 Y171.827
X561.245 Y171.468
X560.89 Y171.076
X560.53 Y170.633
X560.17 Y170.138
X559.828 Y169.609
X559.504 Y169.043
X559.194 Y168.427
X558.907 Y167.768
X558.648 Y167.073
X558.422 Y166.352
X558.234 Y165.612
X558.086 Y164.861
X557.981 Y164.113
X557.917 Y163.373
X557.894 Y162.654
X557.909 Y161.954
X557.961 Y161.283
X558.041 Y160.671
X558.146 Y160.113
X558.265 Y159.625
X558.403 Y159.168
X558.552 Y158.756
X558.714 Y158.377
X558.892 Y158.012
X558.899 Y158
X559.169 Y157.593
X559.498 Y157.232
X559.877 Y156.924
X560.298 Y156.677
X560.751 Y156.497
X561.227 Y156.387
X561.714 Y156.35
X563.999
G3 X565.219 Y157.499 I-0.044 J1.269
G1 X566.628 Y172.26
G3 X565.89 Y173.536 I-1.264 J0.121
X565.408 Y173.65 I-0.527 J-1.156
G1 X563.122
X563.025 Y173.645
X562.835 Y173.631
X562.62 Y173.602
X562.399 Y173.561
X562.15 Y173.5
X561.895 Y173.423
X561.618 Y173.323
X561.322 Y173.197
X561.022 Y173.05
X560.695 Y172.867
X560.366 Y172.659
X560.027 Y172.417
X559.668 Y172.131
X559.315 Y171.818
X558.956 Y171.461
X558.587 Y171.053
X558.225 Y170.607
X557.877 Y170.126
X557.533 Y169.592
X557.2 Y169.008
X556.887 Y168.384
X556.603 Y167.729
X556.349 Y167.045
X556.127 Y166.332
X555.941 Y165.595
X555.794 Y164.843
X555.688 Y164.088
X555.625 Y163.341
X555.603 Y162.62
X555.62 Y161.929
X555.672 Y161.267
X555.755 Y160.639
X555.856 Y160.103
X555.979 Y159.602
X556.113 Y159.162
X556.267 Y158.74
X556.424 Y158.372
X556.607 Y158.001
X556.878 Y157.594
X557.207 Y157.232
X557.587 Y156.924
X558.009 Y156.677
X558.464 Y156.497
X558.94 Y156.387
X559.428 Y156.35
X561.714
G3 X562.934 Y157.499 I-0.044 J1.269
G1 X564.342 Y172.26
G3 X563.605 Y173.536 I-1.264 J0.121
X563.122 Y173.65 I-0.527 J-1.156
G1 X560.836
X560.74 Y173.645
X560.549 Y173.63
X560.335 Y173.602
X560.114 Y173.561
X559.863 Y173.5
X559.608 Y173.422
X559.329 Y173.321
X559.034 Y173.196
X558.733 Y173.048
X558.406 Y172.864
X558.078 Y172.657
X557.736 Y172.413
X557.375 Y172.125
X557.022 Y171.811
X556.661 Y171.452
X556.291 Y171.043
X555.931 Y170.598
X555.583 Y170.116
X555.239 Y169.582
X554.907 Y168.999
X554.594 Y168.374
X554.31 Y167.72
X554.056 Y167.035
X553.834 Y166.32
X553.649 Y165.582
X553.502 Y164.831
X553.397 Y164.075
X553.334 Y163.33
X553.313 Y162.609
X553.33 Y161.918
X553.382 Y161.259
X553.466 Y160.631
X553.567 Y160.098
X553.689 Y159.598
X553.823 Y159.159
X553.977 Y158.738
X554.134 Y158.37
X554.316 Y158.001
X554.588 Y157.594
X554.917 Y157.232
X555.298 Y156.924
X555.72 Y156.677
X556.174 Y156.497
X556.651 Y156.387
X557.139 Y156.35
X559.428
G3 X560.648 Y157.499 I-0.044 J1.269
G1 X562.056 Y172.26
G3 X561.319 Y173.536 I-1.264 J0.121
X560.836 Y173.65 I-0.527 J-1.156
G1 X558.551
X558.455 Y173.645
X558.263 Y173.63
X558.049 Y173.602
X557.826 Y173.56
X557.576 Y173.499
X557.32 Y173.422
X557.04 Y173.32
X556.746 Y173.195
X556.444 Y173.047
X556.116 Y172.863
X555.789 Y172.655
X555.446 Y172.411
X555.085 Y172.123
X554.733 Y171.809
X554.371 Y171.45
X554.001 Y171.04
X553.641 Y170.595
X553.292 Y170.113
X552.948 Y169.578
X552.615 Y168.994
X552.303 Y168.369
X552.019 Y167.715
X551.766 Y167.03
X551.543 Y166.314
X551.358 Y165.577
X551.212 Y164.826
X551.106 Y164.069
X551.044 Y163.325
X551.023 Y162.605
X551.04 Y161.915
X551.092 Y161.256
X551.175 Y160.629
X551.276 Y160.096
X551.399 Y159.597
X551.533 Y159.158
X551.687 Y158.737
X551.844 Y158.37
X552.026 Y158
X552.298 Y157.593
X552.627 Y157.232
X553.007 Y156.924
X553.43 Y156.677
X553.884 Y156.497
X554.361 Y156.387
X554.848 Y156.35
X557.139
G3 X557.621 Y156.464 I-0.044 J1.269
X558.359 Y157.498 I-0.527 J1.156
G1 X559.771 Y172.26
G3 X559.033 Y173.536 I-1.264 J0.121
X558.551 Y173.65 I-0.527 J-1.156
G1 X556.265
X556.168 Y173.645
X555.976 Y173.63
X555.762 Y173.602
X555.539 Y173.561
X555.289 Y173.499
X555.033 Y173.422
X554.753 Y173.32
X554.459 Y173.195
X554.157 Y173.047
X553.829 Y172.863
X553.501 Y172.656
X553.158 Y172.411
X552.798 Y172.124
X552.445 Y171.809
X552.083 Y171.45
X551.713 Y171.04
X551.353 Y170.596
X551.004 Y170.114
X550.659 Y169.579
X550.326 Y168.994
X550.014 Y168.37
X549.731 Y167.716
X549.476 Y167.031
X549.254 Y166.315
X549.068 Y165.578
X548.922 Y164.827
X548.817 Y164.071
X548.754 Y163.327
X548.733 Y162.607
X548.749 Y161.917
X548.801 Y161.258
X548.885 Y160.631
X548.986 Y160.098
X549.109 Y159.599
X549.242 Y159.16
X549.396 Y158.739
X549.553 Y158.371
X549.735 Y158.001
X550.007 Y157.594
X550.336 Y157.232
X550.717 Y156.925
X551.139 Y156.678
X551.594 Y156.497
X552.071 Y156.387
X552.559 Y156.35
X554.848
G3 X555.331 Y156.464 I-0.044 J1.269
X556.068 Y157.498 I-0.527 J1.156
G1 X557.485 Y172.259
G3 X556.265 Y173.65 I-1.264 J0.121
G1 X553.979
X553.881 Y173.645
X553.689 Y173.63
X553.475 Y173.602
X553.253 Y173.561
X553.002 Y173.5
X552.746 Y173.422
X552.466 Y173.321
X552.172 Y173.196
X551.87 Y173.048
X551.542 Y172.864
X551.215 Y172.657
X550.871 Y172.412
X550.511 Y172.125
X550.158 Y171.811
X549.796 Y171.452
X549.425 Y171.042
X549.066 Y170.598
X548.716 Y170.116
X548.372 Y169.581
X548.039 Y168.997
X547.726 Y168.373
X547.443 Y167.72
X547.188 Y167.035
X546.966 Y166.319
X546.78 Y165.582
X546.633 Y164.831
X546.527 Y164.075
X546.464 Y163.331
X546.443 Y162.611
X546.459 Y161.921
X546.511 Y161.262
X546.594 Y160.635
X546.695 Y160.102
X546.818 Y159.602
X546.951 Y159.163
X547.105 Y158.742
X547.262 Y158.374
X547.444 Y158.004
X547.716 Y157.596
X548.046 Y157.234
X548.426 Y156.926
X548.849 Y156.678
X549.305 Y156.497
X549.782 Y156.387
X550.271 Y156.35
X552.559
G3 X553.041 Y156.464 I-0.044 J1.269
X553.779 Y157.498 I-0.527 J1.156
G1 X555.199 Y172.259
G3 X554.461 Y173.536 I-1.264 J0.122
X553.979 Y173.65 I-0.527 J-1.156
G1 X551.693
X551.593 Y173.645
X551.401 Y173.63
X551.188 Y173.602
X550.965 Y173.561
X550.715 Y173.5
X550.459 Y173.423
X550.179 Y173.322
X549.885 Y173.197
X549.583 Y173.049
X549.255 Y172.866
X548.928 Y172.659
X548.585 Y172.414
X548.224 Y172.127
X547.871 Y171.814
X547.509 Y171.455
X547.139 Y171.046
X546.779 Y170.602
X546.43 Y170.12
X546.085 Y169.586
X545.752 Y169.002
X545.439 Y168.378
X545.155 Y167.725
X544.9 Y167.041
X544.677 Y166.325
X544.491 Y165.588
X544.344 Y164.837
X544.238 Y164.081
X544.175 Y163.337
X544.153 Y162.617
X544.169 Y161.926
X544.22 Y161.267
X544.304 Y160.64
X544.404 Y160.107
X544.527 Y159.607
X544.66 Y159.168
X544.813 Y158.746
X544.97 Y158.378
X545.152 Y158.007
X545.424 Y157.599
X545.755 Y157.236
X546.136 Y156.927
X546.56 Y156.679
X547.016 Y156.498
X547.494 Y156.387
X547.984 Y156.35
X550.271
G3 X550.753 Y156.464 I-0.044 J1.269
X551.49 Y157.497 I-0.527 J1.156
G1 X552.913 Y172.259
G3 X552.176 Y173.536 I-1.264 J0.122
X551.693 Y173.65 I-0.527 J-1.156
G1 X549.407
X549.306 Y173.645
X549.114 Y173.63
X548.9 Y173.603
X548.678 Y173.561
X548.428 Y173.5
X548.173 Y173.424
X547.893 Y173.323
X547.599 Y173.198
X547.297 Y173.05
X546.969 Y172.867
X546.642 Y172.661
X546.298 Y172.417
X545.938 Y172.13
X545.585 Y171.817
X545.223 Y171.458
X544.853 Y171.049
X544.493 Y170.606
X544.143 Y170.125
X543.798 Y169.591
X543.465 Y169.007
X543.152 Y168.384
X542.868 Y167.731
X542.613 Y167.047
X542.39 Y166.332
X542.203 Y165.595
X542.056 Y164.844
X541.949 Y164.089
X541.885 Y163.345
X541.863 Y162.624
X541.879 Y161.933
X541.93 Y161.274
X542.013 Y160.646
X542.113 Y160.113
X542.235 Y159.612
X542.368 Y159.174
X542.522 Y158.751
X542.678 Y158.383
X542.861 Y158.012
X543.133 Y157.602
X543.464 Y157.238
X543.846 Y156.928
X544.271 Y156.68
X544.728 Y156.498
X545.207 Y156.387
X545.698 Y156.35
X547.984
G3 X549.203 Y157.497 I-0.044 J1.269
G1 X550.627 Y172.259
G3 X549.89 Y173.536 I-1.264 J0.122
X549.407 Y173.65 I-0.527 J-1.156
G1 X547.122
X547.018 Y173.645
X546.827 Y173.63
X546.613 Y173.603
X546.391 Y173.562
X546.141 Y173.501
X545.886 Y173.424
X545.606 Y173.324
X545.312 Y173.199
X545.011 Y173.052
X544.683 Y172.869
X544.356 Y172.663
X544.012 Y172.419
X543.652 Y172.133
X543.299 Y171.82
X542.937 Y171.462
X542.567 Y171.054
X542.207 Y170.611
X541.857 Y170.13
X541.512 Y169.596
X541.179 Y169.014
X540.865 Y168.391
X540.581 Y167.738
X540.326 Y167.054
X540.102 Y166.339
X539.915 Y165.602
X539.767 Y164.852
X539.66 Y164.097
X539.596 Y163.353
X539.573 Y162.632
X539.589 Y161.941
X539.639 Y161.282
X539.722 Y160.654
X539.822 Y160.12
X539.944 Y159.619
X540.077 Y159.18
X540.23 Y158.757
X540.386 Y158.389
X540.569 Y158.017
X540.842 Y157.606
X541.173 Y157.241
X541.556 Y156.93
X541.982 Y156.681
X542.44 Y156.498
X542.921 Y156.387
X543.413 Y156.35
X545.698
G3 X546.18 Y156.464 I-0.044 J1.269
X546.918 Y157.497 I-0.527 J1.156
G1 X548.341 Y172.259
G3 X547.122 Y173.65 I-1.264 J0.122
G1 X544.836
X544.625 Y173.639
X544.427 Y173.619
X544.206 Y173.583
X543.969 Y173.532
X543.718 Y173.464
X543.443 Y173.372
X543.164 Y173.262
X542.859 Y173.122
X542.545 Y172.958
X542.222 Y172.765
X541.875 Y172.531
X541.532 Y172.272
X541.176 Y171.972
X540.807 Y171.625
X540.446 Y171.247
X540.088 Y170.827
X539.727 Y170.355
X539.371 Y169.835
X539.038 Y169.284
X538.721 Y168.692
X538.424 Y168.053
X538.151 Y167.375
X537.91 Y166.666
X537.705 Y165.935
X537.539 Y165.19
X537.414 Y164.438
X537.331 Y163.696
X537.29 Y162.967
X537.288 Y162.26
X537.323 Y161.576
X537.392 Y160.926
X537.482 Y160.371
X537.599 Y159.834
X537.722 Y159.388
X537.872 Y158.94
X538.022 Y158.561
X538.197 Y158.18
X538.24 Y158.1
X538.474 Y157.721
X538.756 Y157.378
X539.083 Y157.076
X539.447 Y156.821
X539.843 Y156.618
X540.262 Y156.47
X540.698 Y156.38
X541.141 Y156.35
X543.413
G3 X543.895 Y156.464 I-0.044 J1.269
X544.633 Y157.497 I-0.527 J1.156
G1 X546.056 Y172.259
G3 X545.318 Y173.536 I-1.264 J0.122
X544.836 Y173.65 I-0.527 J-1.156
G1 X542.55
X542.34 Y173.639
X542.132 Y173.618
X541.917 Y173.583
X541.679 Y173.532
X541.424 Y173.462
X541.16 Y173.374
X540.867 Y173.259
X540.574 Y173.124
X540.256 Y172.958
X539.924 Y172.76
X539.592 Y172.536
X539.239 Y172.269
X538.881 Y171.968
X538.526 Y171.634
X538.159 Y171.249
X537.791 Y170.818
X537.439 Y170.358
X537.09 Y169.847
X536.75 Y169.286
X536.426 Y168.679
X536.128 Y168.039
X535.859 Y167.371
X535.621 Y166.671
X535.417 Y165.944
X535.251 Y165.198
X535.125 Y164.442
X535.041 Y163.694
X535 Y162.96
X534.998 Y162.256
X535.033 Y161.584
X535.102 Y160.937
X535.193 Y160.374
X535.306 Y159.853
X535.436 Y159.383
X535.577 Y158.962
X535.737 Y158.557
X535.902 Y158.197
X535.954 Y158.1
X536.188 Y157.721
X536.47 Y157.378
X536.797 Y157.076
X537.161 Y156.821
X537.557 Y156.618
X537.976 Y156.47
X538.412 Y156.38
X538.856 Y156.35
X541.141
G3 X541.624 Y156.464 I-0.044 J1.269
X542.361 Y157.499 I-0.527 J1.156
G1 X543.77 Y172.26
G3 X542.55 Y173.65 I-1.264 J0.121
G1 X540.264
X540.049 Y173.639
X539.842 Y173.618
X539.628 Y173.583
X539.39 Y173.532
X539.135 Y173.462
X538.869 Y173.374
X538.577 Y173.259
X538.284 Y173.124
X537.967 Y172.958
X537.636 Y172.76
X537.304 Y172.537
X536.949 Y172.269
X536.591 Y171.967
X536.235 Y171.632
X535.868 Y171.247
X535.5 Y170.816
X535.148 Y170.356
X534.8 Y169.847
X534.461 Y169.287
X534.137 Y168.68
X533.839 Y168.041
X533.57 Y167.372
X533.331 Y166.67
X533.127 Y165.943
X532.961 Y165.199
X532.836 Y164.444
X532.752 Y163.696
X532.711 Y162.964
X532.709 Y162.262
X532.744 Y161.588
X532.813 Y160.943
X532.904 Y160.379
X533.017 Y159.857
X533.147 Y159.386
X533.288 Y158.964
X533.449 Y158.559
X533.615 Y158.199
X533.666 Y158.101
X533.9 Y157.722
X534.183 Y157.379
X534.51 Y157.077
X534.875 Y156.822
X535.27 Y156.618
X535.69 Y156.47
X536.126 Y156.38
X536.57 Y156.35
X538.856
G3 X540.076 Y157.499 I-0.044 J1.269
G1 X541.484 Y172.26
G3 X540.747 Y173.536 I-1.264 J0.121
X540.264 Y173.65 I-0.527 J-1.156
G1 X537.979
X537.76 Y173.639
X537.553 Y173.617
X537.338 Y173.583
X537.1 Y173.532
X536.845 Y173.462
X536.579 Y173.374
X536.287 Y173.258
X535.993 Y173.124
X535.677 Y172.958
X535.346 Y172.76
X535.014 Y172.537
X534.659 Y172.269
X534.301 Y171.967
X533.946 Y171.632
X533.578 Y171.247
X533.21 Y170.817
X532.858 Y170.357
X532.51 Y169.847
X532.171 Y169.287
X531.847 Y168.68
X531.549 Y168.041
X531.28 Y167.372
X531.042 Y166.672
X530.838 Y165.945
X530.672 Y165.201
X530.547 Y164.447
X530.464 Y163.699
X530.422 Y162.968
X530.42 Y162.265
X530.455 Y161.591
X530.524 Y160.946
X530.615 Y160.382
X530.729 Y159.859
X530.858 Y159.388
X531 Y158.965
X531.16 Y158.56
X531.326 Y158.2
X531.378 Y158.102
X531.612 Y157.723
X531.895 Y157.38
X532.222 Y157.077
X532.587 Y156.822
X532.983 Y156.618
X533.403 Y156.47
X533.84 Y156.38
X534.284 Y156.35
X536.57
G3 X537.052 Y156.464 I-0.044 J1.269
X537.79 Y157.499 I-0.527 J1.156
G1 X539.198 Y172.26
G3 X537.979 Y173.65 I-1.264 J0.121
G1 X535.693
X535.47 Y173.639
X535.263 Y173.617
X535.048 Y173.583
X534.81 Y173.531
X534.555 Y173.462
X534.289 Y173.373
X533.997 Y173.258
X533.704 Y173.124
X533.387 Y172.957
X533.056 Y172.76
X532.724 Y172.536
X532.37 Y172.269
X532.012 Y171.967
X531.656 Y171.632
X531.289 Y171.247
X530.921 Y170.817
X530.569 Y170.357
X530.221 Y169.848
X529.882 Y169.287
X529.558 Y168.681
X529.26 Y168.042
X528.992 Y167.374
X528.753 Y166.673
X528.55 Y165.947
X528.384 Y165.203
X528.258 Y164.45
X528.175 Y163.702
X528.133 Y162.97
X528.132 Y162.267
X528.167 Y161.593
X528.235 Y160.948
X528.327 Y160.383
X528.44 Y159.86
X528.57 Y159.39
X528.711 Y158.967
X528.872 Y158.562
X529.038 Y158.201
X529.089 Y158.104
X529.323 Y157.725
X529.607 Y157.381
X529.934 Y157.078
X530.3 Y156.822
X530.696 Y156.619
X531.117 Y156.47
X531.553 Y156.38
X531.998 Y156.35
X534.284
G3 X535.504 Y157.499 I-0.044 J1.269
G1 X536.913 Y172.26
G3 X536.175 Y173.536 I-1.264 J0.121
X535.693 Y173.65 I-0.527 J-1.156
G1 X533.313
X533.163 Y173.643
X532.955 Y173.619
X532.735 Y173.583
X532.497 Y173.53
X532.238 Y173.457
X531.971 Y173.367
X531.677 Y173.249
X531.38 Y173.11
X531.064 Y172.941
X530.729 Y172.738
X530.396 Y172.511
X530.042 Y172.241
X529.68 Y171.931
X529.325 Y171.593
X528.959 Y171.205
X528.59 Y170.767
X528.236 Y170.298
X527.892 Y169.787
X527.556 Y169.225
X527.235 Y168.615
X526.938 Y167.966
X526.671 Y167.289
X526.437 Y166.586
X526.238 Y165.859
X526.077 Y165.114
X525.956 Y164.361
X525.878 Y163.616
X525.842 Y162.89
X525.845 Y162.193
X525.884 Y161.52
X525.956 Y160.879
X526.051 Y160.317
X526.165 Y159.809
X526.298 Y159.337
X526.439 Y158.923
X526.603 Y158.517
X526.769 Y158.163
X526.809 Y158.088
X527.045 Y157.712
X527.329 Y157.371
X527.656 Y157.071
X528.021 Y156.818
X528.416 Y156.616
X528.835 Y156.469
X529.27 Y156.38
X529.712 Y156.35
X531.998
G3 X532.481 Y156.464 I-0.044 J1.269
X533.219 Y157.507 I-0.527 J1.156
G1 X534.533 Y172.268
G3 X533.795 Y173.536 I-1.265 J0.113
X533.313 Y173.65 I-0.527 J-1.156
G1 X531.027
X530.877 Y173.643
X530.668 Y173.62
X530.453 Y173.584
X530.211 Y173.531
X529.958 Y173.46
X529.688 Y173.369
X529.396 Y173.252
X529.101 Y173.116
X528.781 Y172.946
X528.452 Y172.747
X528.117 Y172.52
X527.761 Y172.248
X527.406 Y171.946
X527.048 Y171.606
X526.679 Y171.215
X526.313 Y170.783
X525.962 Y170.32
X525.613 Y169.804
X525.275 Y169.239
X524.953 Y168.63
X524.658 Y167.99
X524.392 Y167.32
X524.157 Y166.617
X523.956 Y165.889
X523.794 Y165.144
X523.672 Y164.391
X523.592 Y163.643
X523.554 Y162.913
X523.556 Y162.211
X523.594 Y161.54
X523.665 Y160.898
X523.758 Y160.339
X523.873 Y159.822
X524.004 Y159.354
X524.147 Y158.935
X524.309 Y158.531
X524.475 Y158.174
X524.517 Y158.095
X524.753 Y157.717
X525.037 Y157.375
X525.365 Y157.074
X525.73 Y156.82
X526.127 Y156.617
X526.547 Y156.47
X526.983 Y156.38
X527.427 Y156.35
X529.712
G3 X530.195 Y156.464 I-0.044 J1.269
X530.933 Y157.507 I-0.527 J1.156
G1 X532.247 Y172.268
G3 X531.509 Y173.536 I-1.265 J0.113
X531.027 Y173.65 I-0.527 J-1.156
G1 X528.741
X528.591 Y173.643
X528.383 Y173.62
X528.168 Y173.585
X527.927 Y173.532
X527.673 Y173.462
X527.405 Y173.371
X527.112 Y173.255
X526.818 Y173.119
X526.499 Y172.95
X526.17 Y172.752
X525.835 Y172.525
X525.479 Y172.254
X525.123 Y171.952
X524.766 Y171.614
X524.398 Y171.225
X524.032 Y170.794
X523.681 Y170.332
X523.333 Y169.819
X522.994 Y169.255
X522.672 Y168.647
X522.377 Y168.008
X522.11 Y167.338
X521.874 Y166.635
X521.672 Y165.907
X521.509 Y165.162
X521.386 Y164.408
X521.305 Y163.661
X521.266 Y162.93
X521.267 Y162.228
X521.304 Y161.556
X521.375 Y160.913
X521.467 Y160.353
X521.582 Y159.834
X521.712 Y159.366
X521.855 Y158.945
X522.016 Y158.541
X522.183 Y158.183
X522.227 Y158.1
X522.462 Y157.721
X522.747 Y157.378
X523.075 Y157.076
X523.441 Y156.821
X523.838 Y156.618
X524.258 Y156.47
X524.695 Y156.38
X525.14 Y156.35
X527.427
G3 X527.909 Y156.464 I-0.044 J1.269
X528.647 Y157.507 I-0.527 J1.156
G1 X529.962 Y172.268
G3 X529.223 Y173.536 I-1.265 J0.113
X528.741 Y173.65 I-0.527 J-1.156
G1 X526.455
X526.305 Y173.643
X526.097 Y173.62
X525.883 Y173.585
X525.643 Y173.533
X525.389 Y173.463
X525.121 Y173.373
X524.829 Y173.258
X524.535 Y173.122
X524.217 Y172.954
X523.887 Y172.756
X523.554 Y172.531
X523.198 Y172.261
X522.842 Y171.96
X522.486 Y171.623
X522.118 Y171.235
X521.751 Y170.804
X521.4 Y170.343
X521.052 Y169.832
X520.713 Y169.269
X520.391 Y168.662
X520.094 Y168.023
X519.827 Y167.354
X519.59 Y166.652
X519.388 Y165.924
X519.223 Y165.18
X519.099 Y164.426
X519.018 Y163.679
X518.978 Y162.947
Y162.245
X519.014 Y161.572
X519.084 Y160.928
X519.176 Y160.367
X519.291 Y159.846
X519.421 Y159.377
X519.563 Y158.955
X519.724 Y158.551
X519.891 Y158.191
X519.937 Y158.103
X520.173 Y157.724
X520.457 Y157.38
X520.785 Y157.078
X521.151 Y156.822
X521.549 Y156.618
X521.97 Y156.47
X522.407 Y156.38
X522.852 Y156.35
X525.14
G3 X526.361 Y157.507 I-0.044 J1.269
G1 X527.676 Y172.268
G3 X526.938 Y173.536 I-1.265 J0.113
X526.455 Y173.65 I-0.527 J-1.156
G1 X524.169
X524.02 Y173.643
X523.812 Y173.621
X523.597 Y173.586
X523.358 Y173.534
X523.105 Y173.464
X522.838 Y173.375
X522.546 Y173.26
X522.252 Y173.125
X521.935 Y172.958
X521.605 Y172.76
X521.272 Y172.536
X520.916 Y172.267
X520.56 Y171.966
X520.204 Y171.63
X519.836 Y171.244
X519.469 Y170.813
X519.118 Y170.353
X518.77 Y169.843
X518.431 Y169.282
X518.108 Y168.675
X517.811 Y168.036
X517.544 Y167.368
X517.306 Y166.667
X517.103 Y165.94
X516.938 Y165.195
X516.813 Y164.442
X516.731 Y163.694
X516.69 Y162.962
X516.689 Y162.259
X516.725 Y161.586
X516.794 Y160.941
X516.885 Y160.379
X517 Y159.856
X517.13 Y159.387
X517.272 Y158.964
X517.432 Y158.559
X517.599 Y158.198
X517.648 Y158.107
X517.883 Y157.727
X518.167 Y157.382
X518.496 Y157.079
X518.862 Y156.823
X519.259 Y156.619
X519.681 Y156.47
X520.119 Y156.38
X520.564 Y156.35
X522.852
G3 X523.335 Y156.464 I-0.044 J1.269
X524.073 Y157.506 I-0.527 J1.156
G1 X525.39 Y172.268
G3 X524.652 Y173.536 I-1.265 J0.113
X524.169 Y173.65 I-0.527 J-1.156
G1 X521.884
X521.734 Y173.643
X521.527 Y173.621
X521.312 Y173.586
X521.074 Y173.535
X520.82 Y173.465
X520.554 Y173.377
X520.262 Y173.262
X519.968 Y173.127
X519.652 Y172.961
X519.321 Y172.764
X518.989 Y172.54
X518.634 Y172.272
X518.278 Y171.971
X517.922 Y171.636
X517.554 Y171.251
X517.187 Y170.821
X516.836 Y170.362
X516.488 Y169.852
X516.149 Y169.292
X515.825 Y168.686
X515.528 Y168.048
X515.26 Y167.38
X515.021 Y166.68
X514.818 Y165.953
X514.652 Y165.209
X514.526 Y164.456
X514.443 Y163.708
X514.402 Y162.976
X514.4 Y162.272
X514.435 Y161.598
X514.504 Y160.953
X514.595 Y160.389
X514.709 Y159.865
X514.839 Y159.395
X514.981 Y158.971
X515.141 Y158.566
X515.308 Y158.205
X515.358 Y158.109
X515.593 Y157.729
X515.878 Y157.384
X516.206 Y157.08
X516.573 Y156.824
X516.97 Y156.619
X517.392 Y156.471
X517.83 Y156.38
X518.276 Y156.35
X520.564
G3 X521.047 Y156.464 I-0.044 J1.269
X521.785 Y157.506 I-0.527 J1.156
G1 X523.104 Y172.268
G3 X522.366 Y173.536 I-1.265 J0.113
X521.884 Y173.65 I-0.527 J-1.156
G1 X519.598
X519.522 Y173.646
X519.324 Y173.63
X519.117 Y173.602
X518.882 Y173.556
X518.642 Y173.497
X518.374 Y173.414
X518.097 Y173.312
X517.806 Y173.187
X517.491 Y173.03
X517.176 Y172.852
X516.84 Y172.636
X516.49 Y172.385
X516.144 Y172.106
X515.781 Y171.779
X515.413 Y171.41
X515.056 Y171.012
X514.697 Y170.564
X514.339 Y170.063
X513.994 Y169.522
X513.672 Y168.95
X513.366 Y168.332
X513.084 Y167.672
X512.83 Y166.977
X512.61 Y166.256
X512.427 Y165.517
X512.285 Y164.767
X512.185 Y164.022
X512.127 Y163.286
X512.109 Y162.569
X512.129 Y161.875
X512.185 Y161.211
X512.266 Y160.625
X512.374 Y160.067
X512.492 Y159.597
X512.635 Y159.137
X512.782 Y158.738
X512.952 Y158.347
X513.124 Y158.003
X513.398 Y157.595
X513.731 Y157.233
X514.114 Y156.925
X514.539 Y156.678
X514.996 Y156.497
X515.476 Y156.387
X515.966 Y156.35
X518.276
G3 X518.759 Y156.464 I-0.044 J1.269
X519.497 Y157.506 I-0.527 J1.156
G1 X520.818 Y172.268
G3 X520.08 Y173.536 I-1.265 J0.113
X519.598 Y173.65 I-0.527 J-1.156
G1 X517.312
X517.232 Y173.646
X517.037 Y173.63
X516.822 Y173.6
X516.597 Y173.557
X516.345 Y173.494
X516.089 Y173.415
X515.807 Y173.311
X515.513 Y173.184
X515.207 Y173.032
X514.877 Y172.845
X514.549 Y172.635
X514.205 Y172.387
X513.845 Y172.097
X513.493 Y171.78
X513.131 Y171.417
X512.761 Y171.003
X512.403 Y170.556
X512.054 Y170.069
X511.711 Y169.529
X511.38 Y168.941
X511.07 Y168.314
X510.789 Y167.658
X510.539 Y166.972
X510.321 Y166.256
X510.139 Y165.518
X509.997 Y164.767
X509.896 Y164.016
X509.838 Y163.275
X509.82 Y162.56
X509.84 Y161.875
X509.896 Y161.216
X509.982 Y160.596
X510.085 Y160.066
X510.209 Y159.572
X510.345 Y159.133
X510.5 Y158.716
X510.659 Y158.348
X510.843 Y157.98
X511.114 Y157.578
X511.443 Y157.221
X511.821 Y156.917
X512.24 Y156.673
X512.691 Y156.495
X513.164 Y156.386
X513.648 Y156.35
X515.966
G3 X516.448 Y156.464 I-0.044 J1.269
X517.186 Y157.504 I-0.527 J1.156
G1 X518.532 Y172.265
G3 X517.794 Y173.536 I-1.265 J0.115
X517.312 Y173.65 I-0.527 J-1.156
G1 X515.026
X514.945 Y173.646
X514.75 Y173.63
X514.536 Y173.601
X514.311 Y173.558
X514.059 Y173.495
X513.803 Y173.416
X513.52 Y173.312
X513.227 Y173.185
X512.922 Y173.034
X512.593 Y172.847
X512.266 Y172.638
X511.92 Y172.389
X511.56 Y172.099
X511.207 Y171.782
X510.844 Y171.418
X510.474 Y171.005
X510.117 Y170.559
X509.768 Y170.072
X509.425 Y169.533
X509.094 Y168.946
X508.784 Y168.32
X508.504 Y167.665
X508.253 Y166.978
X508.034 Y166.261
X507.852 Y165.524
X507.71 Y164.774
X507.608 Y164.02
X507.549 Y163.278
X507.531 Y162.56
X507.551 Y161.872
X507.606 Y161.216
X507.693 Y160.591
X507.796 Y160.059
X507.921 Y159.563
X508.056 Y159.124
X508.211 Y158.706
X508.37 Y158.339
X508.553 Y157.972
X508.823 Y157.572
X509.149 Y157.216
X509.525 Y156.914
X509.942 Y156.672
X510.391 Y156.494
X510.861 Y156.386
X511.342 Y156.35
X513.648
G3 X514.868 Y157.501 I-0.044 J1.269
G1 X516.246 Y172.263
G3 X515.509 Y173.536 I-1.264 J0.118
X515.026 Y173.65 I-0.527 J-1.156
G1 X512.74
X512.658 Y173.646
X512.463 Y173.63
X512.249 Y173.601
X512.025 Y173.558
X511.772 Y173.495
X511.516 Y173.416
X511.233 Y173.312
X510.94 Y173.186
X510.635 Y173.035
X510.306 Y172.848
X509.979 Y172.639
X509.634 Y172.391
X509.273 Y172.1
X508.921 Y171.784
X508.558 Y171.42
X508.188 Y171.007
X507.83 Y170.561
X507.482 Y170.075
X507.139 Y169.537
X506.807 Y168.95
X506.498 Y168.323
X506.217 Y167.668
X505.965 Y166.981
X505.746 Y166.264
X505.564 Y165.526
X505.421 Y164.775
X505.319 Y164.02
X505.26 Y163.276
X505.242 Y162.557
X505.262 Y161.868
X505.316 Y161.211
X505.403 Y160.585
X505.506 Y160.053
X505.63 Y159.557
X505.766 Y159.118
X505.92 Y158.701
X506.079 Y158.334
X506.262 Y157.968
X506.53 Y157.569
X506.855 Y157.214
X507.23 Y156.913
