%
(1001)
(Z0 corner model bottom)
(T1  D=12.7 CR=0 - ZMIN=10 - flat end mill)
G90 G94
G17
G21

(2D Contour7 6)
M9
T1 M6
S6000 M3
G54
M9
G0 X865.898 Y-29.722
Z65
Z45
G1 Z44 F849.6
Z43.77
G19 G3 Y-28.452 Z42.5 J1.27
G1 Y-27.182
G17 G3 X864.628 Y-25.912 I-1.27
G1 X711.22 Z37.143 F400.3
X27.265 F849.6
G2 X23.533 Y-24.699 J6.35
G1 X-3.453 Y-5.093
G2 X-4.858 Y3.777 I3.732 J5.137
G1 X111.385 Y163.77
G2 X116.522 Y166.388 I5.137 J-3.732
G1 X694.349
G2 X700.141 Y157.434 J-6.35
G1 X699.829 Y156.74
G2 X699.754 Y156.58 I-5.792 J2.604
G1 X699.431 Y155.912
G2 X699.342 Y155.735 I-5.717 J2.764
G1 X699.007 Y155.094
G2 X698.924 Y154.94 I-5.628 J2.941
G1 X698.579 Y154.322
G2 X698.485 Y154.159 I-5.545 J3.095
G1 X698.13 Y153.565
G2 X698.035 Y153.411 I-5.451 J3.258
G1 X697.67 Y152.838
G2 X697.57 Y152.686 I-5.356 J3.412
G1 X697.195 Y152.133
G2 X697.104 Y152.002 I-5.256 J3.564
G1 X696.722 Y151.468
G2 X696.576 Y151.273 I-5.165 J3.695
G1 X695.787 Y150.255
G2 X695.604 Y150.03 I-5.019 J3.89
G1 X694.788 Y149.071
G2 X694.62 Y148.881 I-4.836 J4.115
G1 X693.78 Y147.97
G2 X693.643 Y147.826 I-4.668 J4.305
G1 X692.784 Y146.951
G2 X692.651 Y146.82 I-4.531 J4.449
G1 X690.895 Y145.133
G2 X690.836 Y145.078 I-4.398 J4.581
G1 X689.09 Y143.444
X687.413 Y141.828
X686.655 Y141.06
X685.918 Y140.273
X685.209 Y139.471
X684.525 Y138.643
X683.856 Y137.776
X683.203 Y136.872
X682.574 Y135.936
X681.965 Y134.964
X681.382 Y133.961
X680.823 Y132.922
X680.287 Y131.843
X679.776 Y130.73
X679.294 Y129.59
X678.841 Y128.426
X678.424 Y127.251
X678.043 Y126.064
X677.699 Y124.874
X677.396 Y123.69
X677.134 Y122.511
X676.916 Y121.352
X676.744 Y120.222
X676.619 Y119.13
X676.545 Y118.093
X676.521 Y117.122
X676.551 Y116.166
X676.579 Y115.789
X676.624 Y115.38
X676.679 Y114.989
X676.744 Y114.625
X676.82 Y114.278
X676.907 Y113.944
X677.003 Y113.631
X677.106 Y113.337
X677.219 Y113.056
X677.339 Y112.796
X677.467 Y112.549
X677.604 Y112.315
X677.754 Y112.086
X677.921 Y111.857
X678.105 Y111.63
X678.308 Y111.403
X678.535 Y111.175
X678.785 Y110.945
X679.067 Y110.711
X679.382 Y110.472
X679.736 Y110.229
X680.129 Y109.982
X680.56 Y109.735
X681.033 Y109.487
X681.547 Y109.241
X682.114 Y108.995
X682.727 Y108.752
X683.387 Y108.513
X684.101 Y108.278
X684.862 Y108.05
X685.673 Y107.83
X686.541 Y107.616
X687.462 Y107.411
X688.435 Y107.214
X689.46 Y107.027
X690.536 Y106.851
X691.666 Y106.686
X692.852 Y106.531
X694.089 Y106.388
X695.377 Y106.256
X696.719 Y106.136
X698.115 Y106.029
X699.564 Y105.934
X701.068 Y105.85
X702.624 Y105.78
X704.236 Y105.722
X705.901 Y105.677
X707.62 Y105.645
X709.394 Y105.625
X711.22 Y105.619
X713.047 Y105.625
X714.82 Y105.645
X716.54 Y105.677
X718.205 Y105.722
X719.816 Y105.78
X721.373 Y105.85
X722.875 Y105.933
X724.326 Y106.029
X725.721 Y106.136
X727.064 Y106.256
X728.352 Y106.388
X729.588 Y106.531
X730.774 Y106.686
X731.904 Y106.851
X732.98 Y107.027
X734.006 Y107.214
X734.978 Y107.411
X735.898 Y107.616
X736.767 Y107.83
X737.578 Y108.05
X738.34 Y108.279
X739.055 Y108.514
X739.714 Y108.752
X740.325 Y108.994
X740.891 Y109.241
X741.407 Y109.487
X741.882 Y109.736
X742.314 Y109.983
X742.703 Y110.228
X743.056 Y110.471
X743.373 Y110.711
X743.655 Y110.945
X743.905 Y111.175
X744.134 Y111.406
X744.339 Y111.633
X744.518 Y111.854
X744.684 Y112.082
X744.836 Y112.315
X744.975 Y112.553
X745.102 Y112.796
X745.219 Y113.052
X745.334 Y113.337
X745.439 Y113.635
X745.533 Y113.944
X745.619 Y114.273
X745.696 Y114.625
X745.762 Y114.994
X745.817 Y115.38
X745.86 Y115.784
X745.889 Y116.166
X745.919 Y117.122
X745.895 Y118.093
X745.821 Y119.13
X745.696 Y120.222
X745.524 Y121.352
X745.306 Y122.511
X745.044 Y123.69
X744.741 Y124.876
X744.398 Y126.064
X744.017 Y127.249
X743.598 Y128.428
X743.147 Y129.59
X742.664 Y130.73
X742.153 Y131.844
X741.619 Y132.92
X741.059 Y133.959
X740.474 Y134.966
X739.867 Y135.936
X739.237 Y136.872
X738.585 Y137.776
X737.916 Y138.642
X737.229 Y139.473
X736.523 Y140.273
X735.786 Y141.059
X735.027 Y141.828
X733.349 Y143.445
X731.604 Y145.079
G2 X731.547 Y145.132 I4.34 J4.635
G1 X729.79 Y146.818
G2 X729.656 Y146.951 I4.397 J4.582
G1 X728.797 Y147.826
G2 X728.66 Y147.97 I4.531 J4.449
G1 X727.82 Y148.881
G2 X727.652 Y149.071 I4.668 J4.305
G1 X726.836 Y150.03
G2 X726.653 Y150.255 I4.836 J4.115
G1 X725.864 Y151.273
G2 X725.718 Y151.468 I5.019 J3.89
G1 X725.336 Y152.002
G2 X725.241 Y152.14 I5.165 J3.695
G1 X724.867 Y152.693
G2 X724.771 Y152.838 I5.26 J3.557
G1 X724.406 Y153.411
G2 X724.315 Y153.559 I5.356 J3.412
G1 X723.959 Y154.153
G2 X723.861 Y154.322 I5.447 J3.264
G1 X723.516 Y154.94
G2 X723.433 Y155.094 I5.544 J3.095
G1 X723.098 Y155.735
G2 X723.009 Y155.912 I5.628 J2.941
G1 X722.686 Y156.58
G2 X722.611 Y156.74 I5.717 J2.764
G1 X722.299 Y157.434
G2 X728.091 Y166.388 I5.792 J2.604
G1 X1305.92
G2 X1311.057 Y163.77 J-6.35
G1 X1427.297 Y3.777
G2 X1425.893 Y-5.093 I-5.137 J-3.732
G1 X1398.913 Y-24.699
G2 X1395.18 Y-25.912 I-3.733 J5.137
G1 X711.22
X566.015 Z34.286 F400.3
X27.265 F849.6
G2 X23.533 Y-24.699 J6.35
G1 X-3.453 Y-5.093
G2 X-4.858 Y3.777 I3.732 J5.137
G1 X111.385 Y163.77
G2 X116.522 Y166.388 I5.137 J-3.732
G1 X694.349
G2 X700.141 Y157.434 J-6.35
G1 X699.829 Y156.74
G2 X699.754 Y156.58 I-5.792 J2.604
G1 X699.431 Y155.912
G2 X699.342 Y155.735 I-5.717 J2.764
G1 X699.007 Y155.094
G2 X698.924 Y154.94 I-5.628 J2.941
G1 X698.579 Y154.322
G2 X698.485 Y154.159 I-5.545 J3.095
G1 X698.13 Y153.565
G2 X698.035 Y153.411 I-5.451 J3.258
G1 X697.67 Y152.838
G2 X697.57 Y152.686 I-5.356 J3.412
G1 X697.195 Y152.133
G2 X697.104 Y152.002 I-5.256 J3.564
G1 X696.722 Y151.468
G2 X696.576 Y151.273 I-5.165 J3.695
G1 X695.787 Y150.255
G2 X695.604 Y150.03 I-5.019 J3.89
G1 X694.788 Y149.071
G2 X694.62 Y148.881 I-4.836 J4.115
G1 X693.78 Y147.97
G2 X693.643 Y147.826 I-4.668 J4.305
G1 X692.784 Y146.951
G2 X692.651 Y146.82 I-4.531 J4.449
G1 X690.895 Y145.133
G2 X690.836 Y145.078 I-4.398 J4.581
G1 X689.09 Y143.444
X687.413 Y141.828
X686.655 Y141.06
X685.918 Y140.273
X685.209 Y139.471
X684.525 Y138.643
X683.856 Y137.776
X683.203 Y136.872
X682.574 Y135.936
X681.965 Y134.964
X681.382 Y133.961
X680.823 Y132.922
X680.287 Y131.843
X679.776 Y130.73
X679.294 Y129.59
X678.841 Y128.426
X678.424 Y127.251
X678.043 Y126.064
X677.699 Y124.874
X677.396 Y123.69
X677.134 Y122.511
X676.916 Y121.352
X676.744 Y120.222
X676.619 Y119.13
X676.545 Y118.093
X676.521 Y117.122
X676.551 Y116.166
X676.579 Y115.789
X676.624 Y115.38
X676.679 Y114.989
X676.744 Y114.625
X676.82 Y114.278
X676.907 Y113.944
X677.003 Y113.631
X677.106 Y113.337
X677.219 Y113.056
X677.339 Y112.796
X677.467 Y112.549
X677.604 Y112.315
X677.754 Y112.086
X677.921 Y111.857
X678.105 Y111.63
X678.308 Y111.403
X678.535 Y111.175
X678.785 Y110.945
X679.067 Y110.711
X679.382 Y110.472
X679.736 Y110.229
X680.129 Y109.982
X680.56 Y109.735
X681.033 Y109.487
X681.547 Y109.241
X682.114 Y108.995
X682.727 Y108.752
X683.387 Y108.513
X684.101 Y108.278
X684.862 Y108.05
X685.673 Y107.83
X686.541 Y107.616
X687.462 Y107.411
X688.435 Y107.214
X689.46 Y107.027
X690.536 Y106.851
X691.666 Y106.686
X692.852 Y106.531
X694.089 Y106.388
X695.377 Y106.256
X696.719 Y106.136
X698.115 Y106.029
X699.564 Y105.934
X701.068 Y105.85
X702.624 Y105.78
X704.236 Y105.722
X705.901 Y105.677
X707.62 Y105.645
X709.394 Y105.625
X711.22 Y105.619
X713.047 Y105.625
X714.82 Y105.645
X716.54 Y105.677
X718.205 Y105.722
X719.816 Y105.78
X721.373 Y105.85
X722.875 Y105.933
X724.326 Y106.029
X725.721 Y106.136
X727.064 Y106.256
X728.352 Y106.388
X729.588 Y106.531
X730.774 Y106.686
X731.904 Y106.851
X732.98 Y107.027
X734.006 Y107.214
X734.978 Y107.411
X735.898 Y107.616
X736.767 Y107.83
X737.578 Y108.05
X738.34 Y108.279
X739.055 Y108.514
X739.714 Y108.752
X740.325 Y108.994
X740.891 Y109.241
X741.407 Y109.487
X741.882 Y109.736
X742.314 Y109.983
X742.703 Y110.228
X743.056 Y110.471
X743.373 Y110.711
X743.655 Y110.945
X743.905 Y111.175
X744.134 Y111.406
X744.339 Y111.633
X744.518 Y111.854
X744.684 Y112.082
X744.836 Y112.315
X744.975 Y112.553
X745.102 Y112.796
X745.219 Y113.052
X745.334 Y113.337
X745.439 Y113.635
X745.533 Y113.944
X745.619 Y114.273
X745.696 Y114.625
X745.762 Y114.994
X745.817 Y115.38
X745.86 Y115.784
X745.889 Y116.166
X745.919 Y117.122
X745.895 Y118.093
X745.821 Y119.13
X745.696 Y120.222
X745.524 Y121.352
X745.306 Y122.511
X745.044 Y123.69
X744.741 Y124.876
X744.398 Y126.064
X744.017 Y127.249
X743.598 Y128.428
X743.147 Y129.59
X742.664 Y130.73
X742.153 Y131.844
X741.619 Y132.92
X741.059 Y133.959
X740.474 Y134.966
X739.867 Y135.936
X739.237 Y136.872
X738.585 Y137.776
X737.916 Y138.642
X737.229 Y139.473
X736.523 Y140.273
X735.786 Y141.059
X735.027 Y141.828
X733.349 Y143.445
X731.604 Y145.079
G2 X731.547 Y145.132 I4.34 J4.635
G1 X729.79 Y146.818
G2 X729.656 Y146.951 I4.397 J4.582
G1 X728.797 Y147.826
G2 X728.66 Y147.97 I4.531 J4.449
G1 X727.82 Y148.881
G2 X727.652 Y149.071 I4.668 J4.305
G1 X726.836 Y150.03
G2 X726.653 Y150.255 I4.836 J4.115
G1 X725.864 Y151.273
G2 X725.718 Y151.468 I5.019 J3.89
G1 X725.336 Y152.002
G2 X725.241 Y152.14 I5.165 J3.695
G1 X724.867 Y152.693
G2 X724.771 Y152.838 I5.26 J3.557
G1 X724.406 Y153.411
G2 X724.315 Y153.559 I5.356 J3.412
G1 X723.959 Y154.153
G2 X723.861 Y154.322 I5.447 J3.264
G1 X723.516 Y154.94
G2 X723.433 Y155.094 I5.544 J3.095
G1 X723.098 Y155.735
G2 X723.009 Y155.912 I5.628 J2.941
G1 X722.686 Y156.58
G2 X722.611 Y156.74 I5.717 J2.764
G1 X722.299 Y157.434
G2 X728.091 Y166.388 I5.792 J2.604
G1 X1305.92
G2 X1311.057 Y163.77 J-6.35
G1 X1427.297 Y3.777
G2 X1425.893 Y-5.093 I-5.137 J-3.732
G1 X1398.913 Y-24.699
G2 X1395.18 Y-25.912 I-3.733 J5.137
G1 X711.22
X566.015
X420.811 Z31.429 F400.3
X27.265 F849.6
G2 X23.533 Y-24.699 J6.35
G1 X-3.453 Y-5.093
G2 X-4.858 Y3.777 I3.732 J5.137
G1 X111.385 Y163.77
G2 X116.522 Y166.388 I5.137 J-3.732
G1 X694.349
G2 X700.141 Y157.434 J-6.35
G1 X699.829 Y156.74
G2 X699.754 Y156.58 I-5.792 J2.604
G1 X699.431 Y155.912
G2 X699.342 Y155.735 I-5.717 J2.764
G1 X699.007 Y155.094
G2 X698.924 Y154.94 I-5.628 J2.941
G1 X698.579 Y154.322
G2 X698.485 Y154.159 I-5.545 J3.095
G1 X698.13 Y153.565
G2 X698.035 Y153.411 I-5.451 J3.258
G1 X697.67 Y152.838
G2 X697.57 Y152.686 I-5.356 J3.412
G1 X697.195 Y152.133
G2 X697.104 Y152.002 I-5.256 J3.564
G1 X696.722 Y151.468
G2 X696.576 Y151.273 I-5.165 J3.695
G1 X695.787 Y150.255
G2 X695.604 Y150.03 I-5.019 J3.89
G1 X694.788 Y149.071
G2 X694.62 Y148.881 I-4.836 J4.115
G1 X693.78 Y147.97
G2 X693.643 Y147.826 I-4.668 J4.305
G1 X692.784 Y146.951
G2 X692.651 Y146.82 I-4.531 J4.449
G1 X690.895 Y145.133
G2 X690.836 Y145.078 I-4.398 J4.581
G1 X689.09 Y143.444
X687.413 Y141.828
X686.655 Y141.06
X685.918 Y140.273
X685.209 Y139.471
X684.525 Y138.643
X683.856 Y137.776
X683.203 Y136.872
X682.574 Y135.936
X681.965 Y134.964
X681.382 Y133.961
X680.823 Y132.922
X680.287 Y131.843
X679.776 Y130.73
X679.294 Y129.59
X678.841 Y128.426
X678.424 Y127.251
X678.043 Y126.064
X677.699 Y124.874
X677.396 Y123.69
X677.134 Y122.511
X676.916 Y121.352
X676.744 Y120.222
X676.619 Y119.13
X676.545 Y118.093
X676.521 Y117.122
X676.551 Y116.166
X676.579 Y115.789
X676.624 Y115.38
X676.679 Y114.989
X676.744 Y114.625
X676.82 Y114.278
X676.907 Y113.944
X677.003 Y113.631
X677.106 Y113.337
X677.219 Y113.056
X677.339 Y112.796
X677.467 Y112.549
X677.604 Y112.315
X677.754 Y112.086
X677.921 Y111.857
X678.105 Y111.63
X678.308 Y111.403
X678.535 Y111.175
X678.785 Y110.945
X679.067 Y110.711
X679.382 Y110.472
X679.736 Y110.229
X680.129 Y109.982
X680.56 Y109.735
X681.033 Y109.487
X681.547 Y109.241
X682.114 Y108.995
X682.727 Y108.752
X683.387 Y108.513
X684.101 Y108.278
X684.862 Y108.05
X685.673 Y107.83
X686.541 Y107.616
X687.462 Y107.411
X688.435 Y107.214
X689.46 Y107.027
X690.536 Y106.851
X691.666 Y106.686
X692.852 Y106.531
X694.089 Y106.388
X695.377 Y106.256
X696.719 Y106.136
X698.115 Y106.029
X699.564 Y105.934
X701.068 Y105.85
X702.624 Y105.78
X704.236 Y105.722
X705.901 Y105.677
X707.62 Y105.645
X709.394 Y105.625
X711.22 Y105.619
X713.047 Y105.625
X714.82 Y105.645
X716.54 Y105.677
X718.205 Y105.722
X719.816 Y105.78
X721.373 Y105.85
X722.875 Y105.933
X724.326 Y106.029
X725.721 Y106.136
X727.064 Y106.256
X728.352 Y106.388
X729.588 Y106.531
X730.774 Y106.686
X731.904 Y106.851
X732.98 Y107.027
X734.006 Y107.214
X734.978 Y107.411
X735.898 Y107.616
X736.767 Y107.83
X737.578 Y108.05
X738.34 Y108.279
X739.055 Y108.514
X739.714 Y108.752
X740.325 Y108.994
X740.891 Y109.241
X741.407 Y109.487
X741.882 Y109.736
X742.314 Y109.983
X742.703 Y110.228
X743.056 Y110.471
X743.373 Y110.711
X743.655 Y110.945
X743.905 Y111.175
X744.134 Y111.406
X744.339 Y111.633
X744.518 Y111.854
X744.684 Y112.082
X744.836 Y112.315
X744.975 Y112.553
X745.102 Y112.796
X745.219 Y113.052
X745.334 Y113.337
X745.439 Y113.635
X745.533 Y113.944
X745.619 Y114.273
X745.696 Y114.625
X745.762 Y114.994
X745.817 Y115.38
X745.86 Y115.784
X745.889 Y116.166
X745.919 Y117.122
X745.895 Y118.093
X745.821 Y119.13
X745.696 Y120.222
X745.524 Y121.352
X745.306 Y122.511
X745.044 Y123.69
X744.741 Y124.876
X744.398 Y126.064
X744.017 Y127.249
X743.598 Y128.428
X743.147 Y129.59
X742.664 Y130.73
X742.153 Y131.844
X741.619 Y132.92
X741.059 Y133.959
X740.474 Y134.966
X739.867 Y135.936
X739.237 Y136.872
X738.585 Y137.776
X737.916 Y138.642
X737.229 Y139.473
X736.523 Y140.273
X735.786 Y141.059
X735.027 Y141.828
X733.349 Y143.445
X731.604 Y145.079
G2 X731.547 Y145.132 I4.34 J4.635
G1 X729.79 Y146.818
G2 X729.656 Y146.951 I4.397 J4.582
G1 X728.797 Y147.826
G2 X728.66 Y147.97 I4.531 J4.449
G1 X727.82 Y148.881
G2 X727.652 Y149.071 I4.668 J4.305
G1 X726.836 Y150.03
G2 X726.653 Y150.255 I4.836 J4.115
G1 X725.864 Y151.273
G2 X725.718 Y151.468 I5.019 J3.89
G1 X725.336 Y152.002
G2 X725.241 Y152.14 I5.165 J3.695
G1 X724.867 Y152.693
G2 X724.771 Y152.838 I5.26 J3.557
G1 X724.406 Y153.411
G2 X724.315 Y153.559 I5.356 J3.412
G1 X723.959 Y154.153
G2 X723.861 Y154.322 I5.447 J3.264
G1 X723.516 Y154.94
G2 X723.433 Y155.094 I5.544 J3.095
G1 X723.098 Y155.735
G2 X723.009 Y155.912 I5.628 J2.941
G1 X722.686 Y156.58
G2 X722.611 Y156.74 I5.717 J2.764
G1 X722.299 Y157.434
G2 X728.091 Y166.388 I5.792 J2.604
G1 X1305.92
G2 X1311.057 Y163.77 J-6.35
G1 X1427.297 Y3.777
G2 X1425.893 Y-5.093 I-5.137 J-3.732
G1 X1398.913 Y-24.699
G2 X1395.18 Y-25.912 I-3.733 J5.137
G1 X566.015
X420.811
X275.606 Z28.571 F400.3
X27.265 F849.6
G2 X23.533 Y-24.699 J6.35
G1 X-3.453 Y-5.093
G2 X-4.858 Y3.777 I3.732 J5.137
G1 X111.385 Y163.77
G2 X116.522 Y166.388 I5.137 J-3.732
G1 X694.349
G2 X700.141 Y157.434 J-6.35
G1 X699.829 Y156.74
G2 X699.754 Y156.58 I-5.792 J2.604
G1 X699.431 Y155.912
G2 X699.342 Y155.735 I-5.717 J2.764
G1 X699.007 Y155.094
G2 X698.924 Y154.94 I-5.628 J2.941
G1 X698.579 Y154.322
G2 X698.485 Y154.159 I-5.545 J3.095
G1 X698.13 Y153.565
G2 X698.035 Y153.411 I-5.451 J3.258
G1 X697.67 Y152.838
G2 X697.57 Y152.686 I-5.356 J3.412
G1 X697.195 Y152.133
G2 X697.104 Y152.002 I-5.256 J3.564
G1 X696.722 Y151.468
G2 X696.576 Y151.273 I-5.165 J3.695
G1 X695.787 Y150.255
G2 X695.604 Y150.03 I-5.019 J3.89
G1 X694.788 Y149.071
G2 X694.62 Y148.881 I-4.836 J4.115
G1 X693.78 Y147.97
G2 X693.643 Y147.826 I-4.668 J4.305
G1 X692.784 Y146.951
G2 X692.651 Y146.82 I-4.531 J4.449
G1 X690.895 Y145.133
G2 X690.836 Y145.078 I-4.398 J4.581
G1 X689.09 Y143.444
X687.413 Y141.828
X686.655 Y141.06
X685.918 Y140.273
X685.209 Y139.471
X684.525 Y138.643
X683.856 Y137.776
X683.203 Y136.872
X682.574 Y135.936
X681.965 Y134.964
X681.382 Y133.961
X680.823 Y132.922
X680.287 Y131.843
X679.776 Y130.73
X679.294 Y129.59
X678.841 Y128.426
X678.424 Y127.251
X678.043 Y126.064
X677.699 Y124.874
X677.396 Y123.69
X677.134 Y122.511
X676.916 Y121.352
X676.744 Y120.222
X676.619 Y119.13
X676.545 Y118.093
X676.521 Y117.122
X676.551 Y116.166
X676.579 Y115.789
X676.624 Y115.38
X676.679 Y114.989
X676.744 Y114.625
X676.82 Y114.278
X676.907 Y113.944
X677.003 Y113.631
X677.106 Y113.337
X677.219 Y113.056
X677.339 Y112.796
X677.467 Y112.549
X677.604 Y112.315
X677.754 Y112.086
X677.921 Y111.857
X678.105 Y111.63
X678.308 Y111.403
X678.535 Y111.175
X678.785 Y110.945
X679.067 Y110.711
X679.382 Y110.472
X679.736 Y110.229
X680.129 Y109.982
X680.56 Y109.735
X681.033 Y109.487
X681.547 Y109.241
X682.114 Y108.995
X682.727 Y108.752
X683.387 Y108.513
X684.101 Y108.278
X684.862 Y108.05
X685.673 Y107.83
X686.541 Y107.616
X687.462 Y107.411
X688.435 Y107.214
X689.46 Y107.027
X690.536 Y106.851
X691.666 Y106.686
X692.852 Y106.531
X694.089 Y106.388
X695.377 Y106.256
X696.719 Y106.136
X698.115 Y106.029
X699.564 Y105.934
X701.068 Y105.85
X702.624 Y105.78
X704.236 Y105.722
X705.901 Y105.677
X707.62 Y105.645
X709.394 Y105.625
X711.22 Y105.619
X713.047 Y105.625
X714.82 Y105.645
X716.54 Y105.677
X718.205 Y105.722
X719.816 Y105.78
X721.373 Y105.85
X722.875 Y105.933
X724.326 Y106.029
X725.721 Y106.136
X727.064 Y106.256
X728.352 Y106.388
X729.588 Y106.531
X730.774 Y106.686
X731.904 Y106.851
X732.98 Y107.027
X734.006 Y107.214
X734.978 Y107.411
X735.898 Y107.616
X736.767 Y107.83
X737.578 Y108.05
X738.34 Y108.279
X739.055 Y108.514
X739.714 Y108.752
X740.325 Y108.994
X740.891 Y109.241
X741.407 Y109.487
X741.882 Y109.736
X742.314 Y109.983
X742.703 Y110.228
X743.056 Y110.471
X743.373 Y110.711
X743.655 Y110.945
X743.905 Y111.175
X744.134 Y111.406
X744.339 Y111.633
X744.518 Y111.854
X744.684 Y112.082
X744.836 Y112.315
X744.975 Y112.553
X745.102 Y112.796
X745.219 Y113.052
X745.334 Y113.337
X745.439 Y113.635
X745.533 Y113.944
X745.619 Y114.273
X745.696 Y114.625
X745.762 Y114.994
X745.817 Y115.38
X745.86 Y115.784
X745.889 Y116.166
X745.919 Y117.122
X745.895 Y118.093
X745.821 Y119.13
X745.696 Y120.222
X745.524 Y121.352
X745.306 Y122.511
X745.044 Y123.69
X744.741 Y124.876
X744.398 Y126.064
X744.017 Y127.249
X743.598 Y128.428
X743.147 Y129.59
X742.664 Y130.73
X742.153 Y131.844
X741.619 Y132.92
X741.059 Y133.959
X740.474 Y134.966
X739.867 Y135.936
X739.237 Y136.872
X738.585 Y137.776
X737.916 Y138.642
X737.229 Y139.473
X736.523 Y140.273
X735.786 Y141.059
X735.027 Y141.828
X733.349 Y143.445
X731.604 Y145.079
G2 X731.547 Y145.132 I4.34 J4.635
G1 X729.79 Y146.818
G2 X729.656 Y146.951 I4.397 J4.582
G1 X728.797 Y147.826
G2 X728.66 Y147.97 I4.531 J4.449
G1 X727.82 Y148.881
G2 X727.652 Y149.071 I4.668 J4.305
G1 X726.836 Y150.03
G2 X726.653 Y150.255 I4.836 J4.115
G1 X725.864 Y151.273
G2 X725.718 Y151.468 I5.019 J3.89
G1 X725.336 Y152.002
G2 X725.241 Y152.14 I5.165 J3.695
G1 X724.867 Y152.693
G2 X724.771 Y152.838 I5.26 J3.557
G1 X724.406 Y153.411
G2 X724.315 Y153.559 I5.356 J3.412
G1 X723.959 Y154.153
G2 X723.861 Y154.322 I5.447 J3.264
G1 X723.516 Y154.94
G2 X723.433 Y155.094 I5.544 J3.095
G1 X723.098 Y155.735
G2 X723.009 Y155.912 I5.628 J2.941
G1 X722.686 Y156.58
G2 X722.611 Y156.74 I5.717 J2.764
G1 X722.299 Y157.434
G2 X728.091 Y166.388 I5.792 J2.604
G1 X1305.92
G2 X1311.057 Y163.77 J-6.35
G1 X1427.297 Y3.777
G2 X1425.893 Y-5.093 I-5.137 J-3.732
G1 X1398.913 Y-24.699
G2 X1395.18 Y-25.912 I-3.733 J5.137
G1 X420.811
X275.606
X130.402 Z25.714 F400.3
X27.265 F849.6
G2 X23.533 Y-24.699 J6.35
G1 X-3.453 Y-5.093
G2 X-4.858 Y3.777 I3.732 J5.137
G1 X111.385 Y163.77
G2 X116.522 Y166.388 I5.137 J-3.732
G1 X694.349
G2 X700.141 Y157.434 J-6.35
G1 X699.829 Y156.74
G2 X699.754 Y156.58 I-5.792 J2.604
G1 X699.431 Y155.912
G2 X699.342 Y155.735 I-5.717 J2.764
G1 X699.007 Y155.094
G2 X698.924 Y154.94 I-5.628 J2.941
G1 X698.579 Y154.322
G2 X698.485 Y154.159 I-5.545 J3.095
G1 X698.13 Y153.565
G2 X698.035 Y153.411 I-5.451 J3.258
G1 X697.67 Y152.838
G2 X697.57 Y152.686 I-5.356 J3.412
G1 X697.195 Y152.133
G2 X697.104 Y152.002 I-5.256 J3.564
G1 X696.722 Y151.468
G2 X696.576 Y151.273 I-5.165 J3.695
G1 X695.787 Y150.255
G2 X695.604 Y150.03 I-5.019 J3.89
G1 X694.788 Y149.071
G2 X694.62 Y148.881 I-4.836 J4.115
G1 X693.78 Y147.97
G2 X693.643 Y147.826 I-4.668 J4.305
G1 X692.784 Y146.951
G2 X692.651 Y146.82 I-4.531 J4.449
G1 X690.895 Y145.133
G2 X690.836 Y145.078 I-4.398 J4.581
G1 X689.09 Y143.444
X687.413 Y141.828
X686.655 Y141.06
X685.918 Y140.273
X685.209 Y139.471
X684.525 Y138.643
X683.856 Y137.776
X683.203 Y136.872
X682.574 Y135.936
X681.965 Y134.964
X681.382 Y133.961
X680.823 Y132.922
X680.287 Y131.843
X679.776 Y130.73
X679.294 Y129.59
X678.841 Y128.426
X678.424 Y127.251
X678.043 Y126.064
X677.699 Y124.874
X677.396 Y123.69
X677.134 Y122.511
X676.916 Y121.352
X676.744 Y120.222
X676.619 Y119.13
X676.545 Y118.093
X676.521 Y117.122
X676.551 Y116.166
X676.579 Y115.789
X676.624 Y115.38
X676.679 Y114.989
X676.744 Y114.625
X676.82 Y114.278
X676.907 Y113.944
X677.003 Y113.631
X677.106 Y113.337
X677.219 Y113.056
X677.339 Y112.796
X677.467 Y112.549
X677.604 Y112.315
X677.754 Y112.086
X677.921 Y111.857
X678.105 Y111.63
X678.308 Y111.403
X678.535 Y111.175
X678.785 Y110.945
X679.067 Y110.711
X679.382 Y110.472
X679.736 Y110.229
X680.129 Y109.982
X680.56 Y109.735
X681.033 Y109.487
X681.547 Y109.241
X682.114 Y108.995
X682.727 Y108.752
X683.387 Y108.513
X684.101 Y108.278
X684.862 Y108.05
X685.673 Y107.83
X686.541 Y107.616
X687.462 Y107.411
X688.435 Y107.214
X689.46 Y107.027
X690.536 Y106.851
X691.666 Y106.686
X692.852 Y106.531
X694.089 Y106.388
X695.377 Y106.256
X696.719 Y106.136
X698.115 Y106.029
X699.564 Y105.934
X701.068 Y105.85
X702.624 Y105.78
X704.236 Y105.722
X705.901 Y105.677
X707.62 Y105.645
X709.394 Y105.625
X711.22 Y105.619
X713.047 Y105.625
X714.82 Y105.645
X716.54 Y105.677
X718.205 Y105.722
X719.816 Y105.78
X721.373 Y105.85
X722.875 Y105.933
X724.326 Y106.029
X725.721 Y106.136
X727.064 Y106.256
X728.352 Y106.388
X729.588 Y106.531
X730.774 Y106.686
X731.904 Y106.851
X732.98 Y107.027
X734.006 Y107.214
X734.978 Y107.411
X735.898 Y107.616
X736.767 Y107.83
X737.578 Y108.05
X738.34 Y108.279
X739.055 Y108.514
X739.714 Y108.752
X740.325 Y108.994
X740.891 Y109.241
X741.407 Y109.487
X741.882 Y109.736
X742.314 Y109.983
X742.703 Y110.228
X743.056 Y110.471
X743.373 Y110.711
X743.655 Y110.945
X743.905 Y111.175
X744.134 Y111.406
X744.339 Y111.633
X744.518 Y111.854
X744.684 Y112.082
X744.836 Y112.315
X744.975 Y112.553
X745.102 Y112.796
X745.219 Y113.052
X745.334 Y113.337
X745.439 Y113.635
X745.533 Y113.944
X745.619 Y114.273
X745.696 Y114.625
X745.762 Y114.994
X745.817 Y115.38
X745.86 Y115.784
X745.889 Y116.166
X745.919 Y117.122
X745.895 Y118.093
X745.821 Y119.13
X745.696 Y120.222
X745.524 Y121.352
X745.306 Y122.511
X745.044 Y123.69
X744.741 Y124.876
X744.398 Y126.064
X744.017 Y127.249
X743.598 Y128.428
X743.147 Y129.59
X742.664 Y130.73
X742.153 Y131.844
X741.619 Y132.92
X741.059 Y133.959
X740.474 Y134.966
X739.867 Y135.936
X739.237 Y136.872
X738.585 Y137.776
X737.916 Y138.642
X737.229 Y139.473
X736.523 Y140.273
X735.786 Y141.059
X735.027 Y141.828
X733.349 Y143.445
X731.604 Y145.079
G2 X731.547 Y145.132 I4.34 J4.635
G1 X729.79 Y146.818
G2 X729.656 Y146.951 I4.397 J4.582
G1 X728.797 Y147.826
G2 X728.66 Y147.97 I4.531 J4.449
G1 X727.82 Y148.881
G2 X727.652 Y149.071 I4.668 J4.305
G1 X726.836 Y150.03
G2 X726.653 Y150.255 I4.836 J4.115
G1 X725.864 Y151.273
G2 X725.718 Y151.468 I5.019 J3.89
G1 X725.336 Y152.002
G2 X725.241 Y152.14 I5.165 J3.695
G1 X724.867 Y152.693
G2 X724.771 Y152.838 I5.26 J3.557
G1 X724.406 Y153.411
G2 X724.315 Y153.559 I5.356 J3.412
G1 X723.959 Y154.153
G2 X723.861 Y154.322 I5.447 J3.264
G1 X723.516 Y154.94
G2 X723.433 Y155.094 I5.544 J3.095
G1 X723.098 Y155.735
G2 X723.009 Y155.912 I5.628 J2.941
G1 X722.686 Y156.58
G2 X722.611 Y156.74 I5.717 J2.764
G1 X722.299 Y157.434
G2 X728.091 Y166.388 I5.792 J2.604
G1 X1305.92
G2 X1311.057 Y163.77 J-6.35
G1 X1427.297 Y3.777
G2 X1425.893 Y-5.093 I-5.137 J-3.732
G1 X1398.913 Y-24.699
G2 X1395.18 Y-25.912 I-3.733 J5.137
G1 X275.606
X130.402
X27.265 Z23.685 F400.3
G2 X23.533 Y-24.699 Z23.606 J6.35
G1 X-3.453 Y-5.093 Z22.95
G2 X-5.946 Y-1.21 Z22.857 I3.732 J5.137
X-4.858 Y3.777 I6.225 J1.254 F849.6
G1 X111.385 Y163.77
G2 X116.522 Y166.388 I5.137 J-3.732
G1 X694.349
G2 X700.141 Y157.434 J-6.35
G1 X699.829 Y156.74
G2 X699.754 Y156.58 I-5.792 J2.604
G1 X699.431 Y155.912
G2 X699.342 Y155.735 I-5.717 J2.764
G1 X699.007 Y155.094
G2 X698.924 Y154.94 I-5.628 J2.941
G1 X698.579 Y154.322
G2 X698.485 Y154.159 I-5.545 J3.095
G1 X698.13 Y153.565
G2 X698.035 Y153.411 I-5.451 J3.258
G1 X697.67 Y152.838
G2 X697.57 Y152.686 I-5.356 J3.412
G1 X697.195 Y152.133
G2 X697.104 Y152.002 I-5.256 J3.564
G1 X696.722 Y151.468
G2 X696.576 Y151.273 I-5.165 J3.695
G1 X695.787 Y150.255
G2 X695.604 Y150.03 I-5.019 J3.89
G1 X694.788 Y149.071
G2 X694.62 Y148.881 I-4.836 J4.115
G1 X693.78 Y147.97
G2 X693.643 Y147.826 I-4.668 J4.305
G1 X692.784 Y146.951
G2 X692.651 Y146.82 I-4.531 J4.449
G1 X690.895 Y145.133
G2 X690.836 Y145.078 I-4.398 J4.581
G1 X689.09 Y143.444
X687.413 Y141.828
X686.655 Y141.06
X685.918 Y140.273
X685.209 Y139.471
X684.525 Y138.643
X683.856 Y137.776
X683.203 Y136.872
X682.574 Y135.936
X681.965 Y134.964
X681.382 Y133.961
X680.823 Y132.922
X680.287 Y131.843
X679.776 Y130.73
X679.294 Y129.59
X678.841 Y128.426
X678.424 Y127.251
X678.043 Y126.064
X677.699 Y124.874
X677.396 Y123.69
X677.134 Y122.511
X676.916 Y121.352
X676.744 Y120.222
X676.619 Y119.13
X676.545 Y118.093
X676.521 Y117.122
X676.551 Y116.166
X676.579 Y115.789
X676.624 Y115.38
X676.679 Y114.989
X676.744 Y114.625
X676.82 Y114.278
X676.907 Y113.944
X677.003 Y113.631
X677.106 Y113.337
X677.219 Y113.056
X677.339 Y112.796
X677.467 Y112.549
X677.604 Y112.315
X677.754 Y112.086
X677.921 Y111.857
X678.105 Y111.63
X678.308 Y111.403
X678.535 Y111.175
X678.785 Y110.945
X679.067 Y110.711
X679.382 Y110.472
X679.736 Y110.229
X680.129 Y109.982
X680.56 Y109.735
X681.033 Y109.487
X681.547 Y109.241
X682.114 Y108.995
X682.727 Y108.752
X683.387 Y108.513
X684.101 Y108.278
X684.862 Y108.05
X685.673 Y107.83
X686.541 Y107.616
X687.462 Y107.411
X688.435 Y107.214
X689.46 Y107.027
X690.536 Y106.851
X691.666 Y106.686
X692.852 Y106.531
X694.089 Y106.388
X695.377 Y106.256
X696.719 Y106.136
X698.115 Y106.029
X699.564 Y105.934
X701.068 Y105.85
X702.624 Y105.78
X704.236 Y105.722
X705.901 Y105.677
X707.62 Y105.645
X709.394 Y105.625
X711.22 Y105.619
X713.047 Y105.625
X714.82 Y105.645
X716.54 Y105.677
X718.205 Y105.722
X719.816 Y105.78
X721.373 Y105.85
X722.875 Y105.933
X724.326 Y106.029
X725.721 Y106.136
X727.064 Y106.256
X728.352 Y106.388
X729.588 Y106.531
X730.774 Y106.686
X731.904 Y106.851
X732.98 Y107.027
X734.006 Y107.214
X734.978 Y107.411
X735.898 Y107.616
X736.767 Y107.83
X737.578 Y108.05
X738.34 Y108.279
X739.055 Y108.514
X739.714 Y108.752
X740.325 Y108.994
X740.891 Y109.241
X741.407 Y109.487
X741.882 Y109.736
X742.314 Y109.983
X742.703 Y110.228
X743.056 Y110.471
X743.373 Y110.711
X743.655 Y110.945
X743.905 Y111.175
X744.134 Y111.406
X744.339 Y111.633
X744.518 Y111.854
X744.684 Y112.082
X744.836 Y112.315
X744.975 Y112.553
X745.102 Y112.796
X745.219 Y113.052
X745.334 Y113.337
X745.439 Y113.635
X745.533 Y113.944
X745.619 Y114.273
X745.696 Y114.625
X745.762 Y114.994
X745.817 Y115.38
X745.86 Y115.784
X745.889 Y116.166
X745.919 Y117.122
X745.895 Y118.093
X745.821 Y119.13
X745.696 Y120.222
X745.524 Y121.352
X745.306 Y122.511
X745.044 Y123.69
X744.741 Y124.876
X744.398 Y126.064
X744.017 Y127.249
X743.598 Y128.428
X743.147 Y129.59
X742.664 Y130.73
X742.153 Y131.844
X741.619 Y132.92
X741.059 Y133.959
X740.474 Y134.966
X739.867 Y135.936
X739.237 Y136.872
X738.585 Y137.776
X737.916 Y138.642
X737.229 Y139.473
X736.523 Y140.273
X735.786 Y141.059
X735.027 Y141.828
X733.349 Y143.445
X731.604 Y145.079
G2 X731.547 Y145.132 I4.34 J4.635
G1 X729.79 Y146.818
G2 X729.656 Y146.951 I4.397 J4.582
G1 X728.797 Y147.826
G2 X728.66 Y147.97 I4.531 J4.449
G1 X727.82 Y148.881
G2 X727.652 Y149.071 I4.668 J4.305
G1 X726.836 Y150.03
G2 X726.653 Y150.255 I4.836 J4.115
G1 X725.864 Y151.273
G2 X725.718 Y151.468 I5.019 J3.89
G1 X725.336 Y152.002
G2 X725.241 Y152.14 I5.165 J3.695
G1 X724.867 Y152.693
G2 X724.771 Y152.838 I5.26 J3.557
G1 X724.406 Y153.411
G2 X724.315 Y153.559 I5.356 J3.412
G1 X723.959 Y154.153
G2 X723.861 Y154.322 I5.447 J3.264
G1 X723.516 Y154.94
G2 X723.433 Y155.094 I5.544 J3.095
G1 X723.098 Y155.735
G2 X723.009 Y155.912 I5.628 J2.941
G1 X722.686 Y156.58
G2 X722.611 Y156.74 I5.717 J2.764
G1 X722.299 Y157.434
G2 X728.091 Y166.388 I5.792 J2.604
G1 X1305.92
G2 X1311.057 Y163.77 J-6.35
G1 X1427.297 Y3.777
G2 X1425.893 Y-5.093 I-5.137 J-3.732
G1 X1398.913 Y-24.699
G2 X1395.18 Y-25.912 I-3.733 J5.137
G1 X130.402
X27.265
G2 X23.533 Y-24.699 J6.35
G1 X-3.453 Y-5.093
G2 X-5.946 Y-1.21 I3.732 J5.137
X-4.858 Y3.777 Z22.754 I6.225 J1.254 F400.3
G1 X77.404 Y117 Z20
X111.385 Y163.77 F849.6
G2 X116.522 Y166.388 I5.137 J-3.732
G1 X694.349
G2 X700.141 Y157.434 J-6.35
G1 X699.829 Y156.74
G2 X699.754 Y156.58 I-5.792 J2.604
G1 X699.431 Y155.912
G2 X699.342 Y155.735 I-5.717 J2.764
G1 X699.007 Y155.094
G2 X698.924 Y154.94 I-5.628 J2.941
G1 X698.579 Y154.322
G2 X698.485 Y154.159 I-5.545 J3.095
G1 X698.13 Y153.565
G2 X698.035 Y153.411 I-5.451 J3.258
G1 X697.67 Y152.838
G2 X697.57 Y152.686 I-5.356 J3.412
G1 X697.195 Y152.133
G2 X697.104 Y152.002 I-5.256 J3.564
G1 X696.722 Y151.468
G2 X696.576 Y151.273 I-5.165 J3.695
G1 X695.787 Y150.255
G2 X695.604 Y150.03 I-5.019 J3.89
G1 X694.788 Y149.071
G2 X694.62 Y148.881 I-4.836 J4.115
G1 X693.78 Y147.97
G2 X693.643 Y147.826 I-4.668 J4.305
G1 X692.784 Y146.951
G2 X692.651 Y146.82 I-4.531 J4.449
G1 X690.895 Y145.133
G2 X690.836 Y145.078 I-4.398 J4.581
G1 X689.09 Y143.444
X687.413 Y141.828
X686.655 Y141.06
X685.918 Y140.273
X685.209 Y139.471
X684.525 Y138.643
X683.856 Y137.776
X683.203 Y136.872
X682.574 Y135.936
X681.965 Y134.964
X681.382 Y133.961
X680.823 Y132.922
X680.287 Y131.843
X679.776 Y130.73
X679.294 Y129.59
X678.841 Y128.426
X678.424 Y127.251
X678.043 Y126.064
X677.699 Y124.874
X677.396 Y123.69
X677.134 Y122.511
X676.916 Y121.352
X676.744 Y120.222
X676.619 Y119.13
X676.545 Y118.093
X676.521 Y117.122
X676.551 Y116.166
X676.579 Y115.789
X676.624 Y115.38
X676.679 Y114.989
X676.744 Y114.625
X676.82 Y114.278
X676.907 Y113.944
X677.003 Y113.631
X677.106 Y113.337
X677.219 Y113.056
X677.339 Y112.796
X677.467 Y112.549
X677.604 Y112.315
X677.754 Y112.086
X677.921 Y111.857
X678.105 Y111.63
X678.308 Y111.403
X678.535 Y111.175
X678.785 Y110.945
X679.067 Y110.711
X679.382 Y110.472
X679.736 Y110.229
X680.129 Y109.982
X680.56 Y109.735
X681.033 Y109.487
X681.547 Y109.241
X682.114 Y108.995
X682.727 Y108.752
X683.387 Y108.513
X684.101 Y108.278
X684.862 Y108.05
X685.673 Y107.83
X686.541 Y107.616
X687.462 Y107.411
X688.435 Y107.214
X689.46 Y107.027
X690.536 Y106.851
X691.666 Y106.686
X692.852 Y106.531
X694.089 Y106.388
X695.377 Y106.256
X696.719 Y106.136
X698.115 Y106.029
X699.564 Y105.934
X701.068 Y105.85
X702.624 Y105.78
X704.236 Y105.722
X705.901 Y105.677
X707.62 Y105.645
X709.394 Y105.625
X711.22 Y105.619
X713.047 Y105.625
X714.82 Y105.645
X716.54 Y105.677
X718.205 Y105.722
X719.816 Y105.78
X721.373 Y105.85
X722.875 Y105.933
X724.326 Y106.029
X725.721 Y106.136
X727.064 Y106.256
X728.352 Y106.388
X729.588 Y106.531
X730.774 Y106.686
X731.904 Y106.851
X732.98 Y107.027
X734.006 Y107.214
X734.978 Y107.411
X735.898 Y107.616
X736.767 Y107.83
X737.578 Y108.05
X738.34 Y108.279
X739.055 Y108.514
X739.714 Y108.752
X740.325 Y108.994
X740.891 Y109.241
X741.407 Y109.487
X741.882 Y109.736
X742.314 Y109.983
X742.703 Y110.228
X743.056 Y110.471
X743.373 Y110.711
X743.655 Y110.945
X743.905 Y111.175
X744.134 Y111.406
X744.339 Y111.633
X744.518 Y111.854
X744.684 Y112.082
X744.836 Y112.315
X744.975 Y112.553
X745.102 Y112.796
X745.219 Y113.052
X745.334 Y113.337
X745.439 Y113.635
X745.533 Y113.944
X745.619 Y114.273
X745.696 Y114.625
X745.762 Y114.994
X745.817 Y115.38
X745.86 Y115.784
X745.889 Y116.166
X745.919 Y117.122
X745.895 Y118.093
X745.821 Y119.13
X745.696 Y120.222
X745.524 Y121.352
X745.306 Y122.511
X745.044 Y123.69
X744.741 Y124.876
X744.398 Y126.064
X744.017 Y127.249
X743.598 Y128.428
X743.147 Y129.59
X742.664 Y130.73
X742.153 Y131.844
X741.619 Y132.92
X741.059 Y133.959
X740.474 Y134.966
X739.867 Y135.936
X739.237 Y136.872
X738.585 Y137.776
X737.916 Y138.642
X737.229 Y139.473
X736.523 Y140.273
X735.786 Y141.059
X735.027 Y141.828
X733.349 Y143.445
X731.604 Y145.079
G2 X731.547 Y145.132 I4.34 J4.635
G1 X729.79 Y146.818
G2 X729.656 Y146.951 I4.397 J4.582
G1 X728.797 Y147.826
G2 X728.66 Y147.97 I4.531 J4.449
G1 X727.82 Y148.881
G2 X727.652 Y149.071 I4.668 J4.305
G1 X726.836 Y150.03
G2 X726.653 Y150.255 I4.836 J4.115
G1 X725.864 Y151.273
G2 X725.718 Y151.468 I5.019 J3.89
G1 X725.336 Y152.002
G2 X725.241 Y152.14 I5.165 J3.695
G1 X724.867 Y152.693
G2 X724.771 Y152.838 I5.26 J3.557
G1 X724.406 Y153.411
G2 X724.315 Y153.559 I5.356 J3.412
G1 X723.959 Y154.153
G2 X723.861 Y154.322 I5.447 J3.264
G1 X723.516 Y154.94
G2 X723.433 Y155.094 I5.544 J3.095
G1 X723.098 Y155.735
G2 X723.009 Y155.912 I5.628 J2.941
G1 X722.686 Y156.58
G2 X722.611 Y156.74 I5.717 J2.764
G1 X722.299 Y157.434
G2 X728.091 Y166.388 I5.792 J2.604
G1 X1305.92
G2 X1311.057 Y163.77 J-6.35
G1 X1427.297 Y3.777
G2 X1425.893 Y-5.093 I-5.137 J-3.732
G1 X1398.913 Y-24.699
G2 X1395.18 Y-25.912 I-3.733 J5.137
G1 X27.265
G2 X23.533 Y-24.699 J6.35
G1 X-3.453 Y-5.093
G2 X-4.858 Y3.777 I3.732 J5.137
G1 X77.404 Y117
G3 X77.123 Y118.774 I-1.027 J0.746
G1 X76.096 Y119.521
X75.981 Y119.604 Z20.008
X75.867 Y119.687 Z20.032
X75.756 Y119.767 Z20.071
X75.65 Y119.845 Z20.126
X75.549 Y119.918 Z20.195
X75.455 Y119.986 Z20.277
X75.369 Y120.048 Z20.372
X75.292 Y120.104 Z20.478
X75.226 Y120.153 Z20.594
X75.17 Y120.193 Z20.719
X75.126 Y120.225 Z20.851
X75.094 Y120.248 Z20.987
X75.075 Y120.262 Z21.128
X75.068 Y120.267 Z21.27
G0 Z65

(2D Adaptive15 6)
M9
X124.313 Y112.205
Z65
Z55
Z53.77
G1 Z52.5 F849.6
G3 X118.388 Y111.259 Z52.171 I-2.963 J-0.473 F400.3
X124.313 Y112.205 Z51.842 I2.963 J0.473
X118.388 Y111.259 Z51.513 I-2.963 J-0.473
X124.313 Y112.205 Z51.184 I2.963 J0.473
X118.388 Y111.259 Z50.854 I-2.963 J-0.473
X124.313 Y112.205 Z50.525 I2.963 J0.473
X118.388 Y111.259 Z50.196 I-2.963 J-0.473
X124.313 Y112.205 Z49.867 I2.963 J0.473
X118.388 Y111.259 Z49.538 I-2.963 J-0.473
X124.313 Y112.205 Z49.209 I2.963 J0.473
X118.388 Y111.259 Z48.88 I-2.963 J-0.473
X124.313 Y112.205 Z48.551 I2.963 J0.473
X118.388 Y111.259 Z48.221 I-2.963 J-0.473
X124.313 Y112.205 Z47.892 I2.963 J0.473
X118.388 Y111.259 Z47.563 I-2.963 J-0.473
X124.313 Y112.205 Z47.234 I2.963 J0.473
X118.388 Y111.259 Z46.905 I-2.963 J-0.473
X124.313 Y112.205 Z46.576 I2.963 J0.473
X118.388 Y111.259 Z46.247 I-2.963 J-0.473
X124.313 Y112.205 Z45.918 I2.963 J0.473
X118.388 Y111.259 Z45.588 I-2.963 J-0.473
X124.313 Y112.205 Z45.259 I2.963 J0.473
X118.388 Y111.259 Z44.93 I-2.963 J-0.473
X124.313 Y112.205 Z44.601 I2.963 J0.473
X118.388 Y111.259 Z44.272 I-2.963 J-0.473
X124.313 Y112.205 Z43.943 I2.963 J0.473
X118.388 Y111.259 Z43.614 I-2.963 J-0.473
X124.313 Y112.205 Z43.285 I2.963 J0.473
X118.388 Y111.259 Z42.956 I-2.963 J-0.473
X124.313 Y112.205 Z42.626 I2.963 J0.473
X118.388 Y111.259 Z42.297 I-2.963 J-0.473
X124.313 Y112.205 Z41.968 I2.963 J0.473
X118.388 Y111.259 Z41.639 I-2.963 J-0.473
X124.313 Y112.205 Z41.31 I2.963 J0.473
X118.388 Y111.259 Z40.981 I-2.963 J-0.473
X124.313 Y112.205 Z40.652 I2.963 J0.473
X118.388 Y111.259 Z40.323 I-2.963 J-0.473
X124.35 Y111.732 Z40.01 I2.963 J0.473
X118.35 I-3
X124.246 Y110.949 I3
X124.35 Y111.732 I-2.896 J0.783
G1 X124.372 Y113.024 F849.6
X124.379 Y113.104
X124.386 Y113.254
X124.378 Y113.404
X124.358 Y113.553
X124.327 Y113.699
X124.286 Y113.844
X124.235 Y113.985
X124.176 Y114.123
X124.108 Y114.256
X124.033 Y114.386
X123.95 Y114.513
X123.857 Y114.639
X123.755 Y114.763
X123.644 Y114.884
X123.523 Y115.002
X123.393 Y115.116
X123.254 Y115.225
X123.107 Y115.328
X122.951 Y115.425
X122.788 Y115.515
X122.617 Y115.597
X122.439 Y115.671
X122.255 Y115.736
X122.065 Y115.792
X121.87 Y115.838
X121.67 Y115.873
X121.467 Y115.898
X121.007 Y115.897
X120.552 Y115.829
X120.111 Y115.696
X119.694 Y115.501
X119.31 Y115.249
X118.966 Y114.943
X118.669 Y114.592
X117.865 Y113.485
X117.716 Y113.257
X117.629 Y113.106
X117.548 Y112.947
X117.475 Y112.78
X117.409 Y112.607
X117.352 Y112.428
X117.304 Y112.242
X117.266 Y112.052
X117.238 Y111.858
X117.22 Y111.659
X117.213 Y111.458
X117.216 Y111.254
X117.231 Y111.048
X117.257 Y110.842
X117.295 Y110.635
X117.345 Y110.429
X117.405 Y110.225
X117.478 Y110.022
X117.562 Y109.823
X117.657 Y109.627
X117.763 Y109.435
X117.88 Y109.249
X118.008 Y109.068
X118.146 Y108.893
X118.294 Y108.725
X118.451 Y108.565
X118.618 Y108.414
X118.793 Y108.271
X118.976 Y108.137
X119.167 Y108.013
X119.365 Y107.899
X119.569 Y107.796
X119.779 Y107.703
X119.994 Y107.622
X120.214 Y107.553
X120.438 Y107.496
X120.665 Y107.45
X120.894 Y107.417
X121.125 Y107.397
X121.163 Y107.396
X121.623 Y107.412
X122.076 Y107.492
X122.513 Y107.634
X122.927 Y107.836
X123.308 Y108.094
X123.65 Y108.402
X123.946 Y108.754
X124.879 Y110.038
X125.134 Y110.429
X125.274 Y110.672
X125.395 Y110.911
X125.5 Y111.147
X125.589 Y111.383
X125.664 Y111.619
X125.725 Y111.855
X125.779 Y112.316
X125.758 Y112.78
X125.661 Y113.235
X125.493 Y113.668
X125.256 Y114.067
X124.957 Y114.423
X124.605 Y114.726
G3 X122.625 Y113.681 I-0.71 J-1.053
G1 X122.608 Y110.827
G3 X124.879 Y110.038 I1.27 J-0.007
G1 X126.109 Y111.732
X126.199 Y111.87
X126.33 Y112.162
X126.396 Y112.476
X126.397 Y112.797
X126.33 Y113.11
X126.2 Y113.403
X126.011 Y113.663
X125.773 Y113.878
G3 X125.321 Y114.083 I-0.833 J-1.235
X124.709 Y114.114 I-0.381 J-1.441
X125.169 Y111.179 I0.23 J-1.468
X126.109 Y111.732 I-0.23 J1.468
G1 X126.157 Y111.798
X126.365 Y112.113
X126.444 Y112.303
X126.491 Y112.493
X126.507 Y112.684
X126.495 Y112.874
X126.453 Y113.064
X126.378 Y113.255
X126.286 Y113.413
X126.157 Y113.572
X126.093 Y113.635
X125.776 Y113.875
X122.438 Y116.3
X122.224 Y116.44
X121.892 Y116.593
X121.538 Y116.683
X121.173 Y116.707
X120.81 Y116.664
X120.46 Y116.556
X120.137 Y116.386
X119.85 Y116.16
X119.608 Y115.885
G3 X119.286 Y114.467 I1.668 J-1.125
X123.172 Y115.038 I1.943 J0.285
X122.438 Y116.3 I-1.943 J-0.285
G1 X121.914 Y116.681
X121.75 Y116.797
X121.586 Y116.885
X121.395 Y116.952
X121.205 Y116.987
X121.014 Y116.992
X120.824 Y116.971
X120.633 Y116.919
X120.443 Y116.832
X120.335 Y116.765
X120.227 Y116.681
X120.137 Y116.594
X120.062 Y116.507
X119.91 Y116.3
X118.669 Y114.592
X118.663 Y114.581
G2 X118.521 Y114.309 I-3.189 J1.487
X118.449 Y114.197 I-1.1 J0.635
G1 X118.422 Y114.16
X118.2 Y113.854
X118.173 Y113.817
G2 X118.089 Y113.713 I-1.027 J0.746
X117.874 Y113.494 I-2.615 J2.355
G1 X117.865 Y113.485
X116.868 Y112.113
X116.766 Y111.957
X116.691 Y111.827
X116.625 Y111.692
X116.567 Y111.554
X116.517 Y111.412
X116.474 Y111.262
X116.437 Y111.104
X116.407 Y110.936
X116.386 Y110.758
X116.373 Y110.572
X116.371 Y110.38
X116.379 Y110.181
X116.399 Y109.978
X116.43 Y109.769
X116.475 Y109.554
X116.533 Y109.337
X116.603 Y109.118
X116.688 Y108.898
X116.786 Y108.679
X116.898 Y108.461
X117.025 Y108.246
X117.165 Y108.033
X117.32 Y107.825
X117.488 Y107.622
X117.671 Y107.425
X117.866 Y107.235
X118.074 Y107.054
X118.294 Y106.883
X118.512 Y106.732
X118.744 Y106.589
X118.989 Y106.456
X119.22 Y106.345
X119.481 Y106.238
X119.729 Y106.152
X119.983 Y106.078
X120.426 Y106.014
X120.873 Y106.024
X121.311 Y106.109
X121.73 Y106.265
X122.117 Y106.489
X122.461 Y106.774
X122.753 Y107.113
X123.946 Y108.754
G3 X123.335 Y110.655 I-1.053 J0.71
G1 X118.311 Y112.521
G3 X116.868 Y112.113 I-0.442 J-1.19
G1 X116.038 Y110.971
X115.956 Y110.845
X115.881 Y110.715
X115.816 Y110.58
X115.759 Y110.442
X115.71 Y110.3
X115.668 Y110.152
X115.632 Y109.991
X115.603 Y109.818
X115.583 Y109.638
X115.572 Y109.449
X115.571 Y109.25
X115.581 Y109.04
X115.604 Y108.823
X115.64 Y108.6
X115.689 Y108.372
X115.753 Y108.138
X115.833 Y107.899
X115.928 Y107.657
X116.039 Y107.414
X116.167 Y107.172
X116.31 Y106.933
X116.468 Y106.698
X116.644 Y106.465
X116.835 Y106.238
X117.041 Y106.02
X117.238 Y105.832
X117.459 Y105.642
X117.68 Y105.474
X117.891 Y105.33
X118.131 Y105.185
X118.36 Y105.062
X118.582 Y104.959
X118.832 Y104.858
X119.236 Y104.756
X119.65 Y104.719
X120.065 Y104.748
X120.471 Y104.842
X120.856 Y104.999
X121.212 Y105.215
X121.53 Y105.485
X121.8 Y105.801
X122.753 Y107.113
G3 X122.275 Y108.955 I-1.053 J0.71
G1 X117.614 Y111.321
G3 X116.038 Y110.971 I-0.575 J-1.132
G1 X115.209 Y109.829
X115.127 Y109.703
X115.054 Y109.572
X114.991 Y109.436
X114.936 Y109.296
X114.888 Y109.151
X114.845 Y108.993
X114.808 Y108.82
X114.78 Y108.638
X114.76 Y108.448
X114.75 Y108.243
X114.751 Y108.026
X114.765 Y107.802
X114.791 Y107.571
X114.832 Y107.331
X114.888 Y107.084
X114.96 Y106.832
X115.048 Y106.577
X115.151 Y106.322
X115.271 Y106.068
X115.406 Y105.816
X115.559 Y105.567
X115.726 Y105.324
X115.909 Y105.086
X116.086 Y104.88
X116.289 Y104.67
X116.487 Y104.484
X116.686 Y104.318
X116.907 Y104.152
X117.116 Y104.012
X117.337 Y103.882
X117.567 Y103.762
X117.782 Y103.664
X118.02 Y103.571
X118.405 Y103.478
X118.8 Y103.445
X119.195 Y103.476
X119.58 Y103.567
X119.946 Y103.718
X120.284 Y103.925
X120.585 Y104.182
X120.843 Y104.483
X121.8 Y105.801
G3 X121.367 Y107.62 I-1.053 J0.71
G1 X116.829 Y110.155
G3 X115.209 Y109.829 I-0.62 J-1.109
G1 X114.379 Y108.687
X114.297 Y108.561
X114.224 Y108.43
X114.159 Y108.295
X114.103 Y108.156
X114.05 Y108.002
X114.004 Y107.84
X113.965 Y107.666
X113.933 Y107.477
X113.91 Y107.275
X113.898 Y107.065
X113.896 Y106.846
X113.908 Y106.614
X113.933 Y106.373
X113.972 Y106.126
X114.026 Y105.875
X114.095 Y105.62
X114.18 Y105.364
X114.282 Y105.106
X114.399 Y104.848
X114.533 Y104.593
X114.683 Y104.341
X114.848 Y104.095
X115.028 Y103.856
X115.209 Y103.642
X115.402 Y103.436
X115.604 Y103.243
X115.798 Y103.077
X116.016 Y102.91
X116.227 Y102.766
X116.437 Y102.638
X116.667 Y102.515
X116.882 Y102.414
X117.298 Y102.286
X117.728 Y102.227
X118.162 Y102.241
X118.588 Y102.326
X118.995 Y102.48
X119.37 Y102.699
X119.704 Y102.977
X119.988 Y103.306
X120.843 Y104.483
G3 X120.455 Y106.275 I-1.053 J0.71
G1 X116.045 Y108.987
G3 X114.754 Y109.01 I-0.665 J-1.082
X114.379 Y108.687 I0.625 J-1.105
G1 X113.549 Y107.545
X113.45 Y107.392
X113.375 Y107.262
X113.308 Y107.128
X113.249 Y106.989
X113.194 Y106.837
X113.145 Y106.675
X113.103 Y106.5
X113.068 Y106.31
X113.041 Y106.109
X113.026 Y105.899
X113.021 Y105.678
X113.029 Y105.444
X113.05 Y105.201
X113.085 Y104.954
X113.135 Y104.702
X113.2 Y104.445
X113.282 Y104.186
X113.38 Y103.924
X113.494 Y103.663
X113.624 Y103.406
X113.77 Y103.151
X113.931 Y102.903
X114.095 Y102.678
X114.268 Y102.465
X114.46 Y102.254
X114.642 Y102.075
X114.843 Y101.897
X115.051 Y101.732
X115.248 Y101.592
X115.47 Y101.453
X115.689 Y101.331
X115.898 Y101.229
X116.134 Y101.13
X116.53 Y101.022
X116.938 Y100.98
X117.347 Y101.003
X117.748 Y101.092
X118.129 Y101.244
X118.481 Y101.455
X118.794 Y101.72
X119.061 Y102.031
X119.988 Y103.306
G3 X119.609 Y105.093 I-1.053 J0.71
G1 X115.224 Y107.839
G3 X113.549 Y107.545 I-0.674 J-1.076
G1 X112.636 Y106.287
X112.554 Y106.162
X112.48 Y106.031
X112.415 Y105.896
X112.357 Y105.756
X112.302 Y105.601
X112.252 Y105.431
X112.21 Y105.253
X112.175 Y105.062
X112.15 Y104.856
X112.135 Y104.639
X112.132 Y104.414
X112.141 Y104.181
X112.164 Y103.94
X112.201 Y103.689
X112.253 Y103.434
X112.32 Y103.177
X112.404 Y102.918
X112.502 Y102.66
X112.617 Y102.403
X112.747 Y102.148
X112.894 Y101.896
X113.055 Y101.651
X113.231 Y101.413
X113.402 Y101.205
X113.598 Y100.993
X113.791 Y100.805
X113.983 Y100.638
X114.198 Y100.469
X114.402 Y100.327
X114.615 Y100.195
X114.841 Y100.071
X115.052 Y99.97
X115.281 Y99.875
X115.669 Y99.773
X116.068 Y99.733
X116.468 Y99.758
X116.86 Y99.846
X117.232 Y99.996
X117.575 Y100.203
X117.882 Y100.462
X118.143 Y100.767
X119.061 Y102.031
G3 X118.687 Y103.815 I-1.053 J0.71
G1 X114.315 Y106.579
G3 X112.636 Y106.287 I-0.679 J-1.073
G1 X111.775 Y105.102
X111.677 Y104.952
X111.602 Y104.822
X111.535 Y104.688
X111.475 Y104.548
X111.419 Y104.393
X111.369 Y104.229
X111.326 Y104.053
X111.29 Y103.861
X111.263 Y103.658
X111.246 Y103.445
X111.241 Y103.223
X111.248 Y102.989
X111.269 Y102.746
X111.304 Y102.496
X111.353 Y102.243
X111.418 Y101.986
X111.498 Y101.728
X111.595 Y101.467
X111.708 Y101.208
X111.837 Y100.95
X111.983 Y100.696
X112.142 Y100.448
X112.318 Y100.206
X112.492 Y99.992
X112.681 Y99.783
X112.878 Y99.587
X113.067 Y99.419
X113.281 Y99.249
X113.489 Y99.101
X113.694 Y98.971
X113.922 Y98.844
X114.136 Y98.739
X114.214 Y98.706
X114.618 Y98.573
X115.04 Y98.51
X115.465 Y98.517
X115.884 Y98.596
X116.283 Y98.744
X116.652 Y98.957
X116.98 Y99.228
X117.259 Y99.55
X118.143 Y100.767
G3 X117.789 Y102.537 I-1.053 J0.71
G1 X113.474 Y105.381
G3 X112.15 Y105.426 I-0.699 J-1.06
X111.775 Y105.102 I0.625 J-1.105
G1 X110.878 Y103.868
X110.785 Y103.726
X110.71 Y103.596
X110.643 Y103.462
X110.584 Y103.323
X110.528 Y103.169
X110.477 Y103.002
X110.434 Y102.826
X110.398 Y102.636
X110.37 Y102.431
X110.353 Y102.217
X110.348 Y101.994
X110.355 Y101.761
X110.375 Y101.517
X110.41 Y101.266
X110.46 Y101.01
X110.525 Y100.752
X110.605 Y100.493
X110.702 Y100.232
X110.815 Y99.972
X110.944 Y99.714
X111.089 Y99.459
X111.249 Y99.211
X111.413 Y98.984
X111.593 Y98.761
X111.783 Y98.55
X111.966 Y98.37
X112.171 Y98.186
X112.377 Y98.022
X112.574 Y97.882
X112.798 Y97.74
X113.014 Y97.619
X113.222 Y97.516
X113.458 Y97.416
X113.849 Y97.309
X114.252 Y97.266
X114.657 Y97.288
X115.053 Y97.375
X115.43 Y97.525
X115.778 Y97.733
X116.088 Y97.995
X116.352 Y98.302
X117.259 Y99.55
G3 X116.9 Y101.324 I-1.053 J0.71
G1 X112.573 Y104.149
G3 X110.878 Y103.868 I-0.694 J-1.063
G1 X109.954 Y102.596
X109.872 Y102.47
X109.799 Y102.339
X109.734 Y102.204
X109.675 Y102.062
X109.62 Y101.906
X109.57 Y101.734
X109.528 Y101.553
X109.494 Y101.362
X109.469 Y101.155
X109.454 Y100.935
X109.451 Y100.708
X109.461 Y100.474
X109.484 Y100.231
X109.523 Y99.979
X109.576 Y99.722
X109.644 Y99.462
X109.729 Y99.201
X109.829 Y98.941
X109.945 Y98.682
X110.077 Y98.426
X110.225 Y98.173
X110.387 Y97.928
X110.564 Y97.69
X110.736 Y97.482
X110.932 Y97.27
X111.124 Y97.084
X111.318 Y96.915
X111.532 Y96.748
X111.735 Y96.608
X111.95 Y96.475
X112.173 Y96.353
X112.382 Y96.254
X112.408 Y96.243
X112.819 Y96.113
X113.246 Y96.052
X113.677 Y96.064
X114.1 Y96.146
X114.504 Y96.298
X114.877 Y96.514
X115.209 Y96.79
X115.49 Y97.116
X116.352 Y98.302
G3 X115.987 Y100.08 I-1.053 J0.71
G1 X111.643 Y102.881
G3 X110.329 Y102.919 I-0.688 J-1.067
X109.954 Y102.596 I0.625 J-1.105
G1 X109.063 Y101.371
X108.981 Y101.245
X108.908 Y101.114
X108.842 Y100.979
X108.782 Y100.837
X108.726 Y100.679
X108.677 Y100.511
X108.635 Y100.333
X108.6 Y100.139
X108.574 Y99.932
X108.559 Y99.716
X108.555 Y99.492
X108.564 Y99.255
X108.587 Y99.01
X108.624 Y98.758
X108.676 Y98.502
X108.744 Y98.243
X108.827 Y97.984
X108.926 Y97.722
X109.042 Y97.463
X109.173 Y97.205
X109.321 Y96.951
X109.483 Y96.704
X109.645 Y96.483
X109.826 Y96.264
X110.015 Y96.059
X110.196 Y95.882
X110.402 Y95.702
X110.606 Y95.541
X110.804 Y95.403
X111.029 Y95.264
X111.244 Y95.145
X111.454 Y95.044
X111.69 Y94.946
X112.08 Y94.843
X112.48 Y94.803
X112.882 Y94.828
X113.275 Y94.916
X113.648 Y95.066
X113.993 Y95.274
X114.301 Y95.534
X114.563 Y95.839
X115.49 Y97.116
G3 X115.116 Y98.9 I-1.053 J0.71
G1 X110.742 Y101.662
G3 X109.063 Y101.371 I-0.678 J-1.074
G1 X108.181 Y100.156
X108.098 Y100.029
X108.023 Y99.899
X107.956 Y99.765
X107.896 Y99.623
X107.839 Y99.468
X107.789 Y99.303
X107.745 Y99.126
X107.709 Y98.933
X107.682 Y98.728
X107.665 Y98.515
X107.659 Y98.291
X107.666 Y98.057
X107.687 Y97.813
X107.722 Y97.564
X107.771 Y97.31
X107.836 Y97.054
X107.916 Y96.796
X108.012 Y96.536
X108.125 Y96.277
X108.253 Y96.02
X108.398 Y95.767
X108.557 Y95.519
X108.732 Y95.278
X108.905 Y95.063
X109.094 Y94.854
X109.291 Y94.659
X109.48 Y94.491
X109.694 Y94.32
X109.901 Y94.173
X110.107 Y94.043
X110.335 Y93.915
X110.548 Y93.81
X110.769 Y93.716
X111.161 Y93.609
X111.564 Y93.566
X111.969 Y93.589
X112.365 Y93.676
X112.742 Y93.825
X113.09 Y94.034
X113.4 Y94.295
X113.664 Y94.603
X114.563 Y95.839
G3 X114.204 Y97.613 I-1.053 J0.71
G1 X109.876 Y100.438
G3 X108.557 Y100.48 I-0.694 J-1.064
X108.181 Y100.156 I0.625 J-1.105
G1 X107.312 Y98.96
X107.203 Y98.793
X107.128 Y98.664
X107.061 Y98.529
X107.002 Y98.391
X106.945 Y98.236
X106.895 Y98.069
X106.851 Y97.893
X106.815 Y97.703
X106.788 Y97.499
X106.771 Y97.284
X106.766 Y97.062
X106.772 Y96.828
X106.793 Y96.585
X106.828 Y96.334
X106.877 Y96.079
X106.942 Y95.821
X107.023 Y95.562
X107.119 Y95.301
X107.232 Y95.041
X107.36 Y94.784
X107.505 Y94.529
X107.665 Y94.28
X107.84 Y94.039
X108.011 Y93.827
X108.203 Y93.615
X108.396 Y93.423
X108.585 Y93.254
X108.799 Y93.084
X109.004 Y92.938
X109.211 Y92.806
X109.438 Y92.679
X109.649 Y92.575
X109.66 Y92.571
X110.08 Y92.432
X110.518 Y92.366
X110.96 Y92.374
X111.395 Y92.455
X111.81 Y92.609
X112.193 Y92.829
X112.534 Y93.111
X112.824 Y93.446
X113.664 Y94.603
G3 X113.316 Y96.37 I-1.053 J0.71
G1 X109.017 Y99.235
G3 X107.312 Y98.96 I-0.704 J-1.057
G1 X106.414 Y97.724
X106.309 Y97.563
X106.234 Y97.434
X106.167 Y97.299
X106.108 Y97.16
X106.051 Y97.005
X106 Y96.838
X105.957 Y96.662
X105.92 Y96.472
X105.893 Y96.266
X105.876 Y96.052
X105.87 Y95.829
X105.877 Y95.594
X105.898 Y95.351
X105.932 Y95.099
X105.982 Y94.844
X106.047 Y94.586
X106.127 Y94.326
X106.224 Y94.065
X106.337 Y93.805
X106.465 Y93.548
X106.61 Y93.293
X106.77 Y93.045
X106.927 Y92.827
X107.106 Y92.606
X107.291 Y92.401
X107.47 Y92.223
X107.675 Y92.041
X107.877 Y91.879
X108.073 Y91.739
X108.296 Y91.597
X108.512 Y91.476
X108.72 Y91.374
X109.152 Y91.231
X109.602 Y91.163
X110.056 Y91.171
X110.503 Y91.255
X110.93 Y91.413
X111.324 Y91.639
X111.674 Y91.929
X111.972 Y92.273
X112.824 Y93.446
G3 X112.455 Y95.226 I-1.053 J0.71
G1 X108.099 Y98.012
G3 X106.414 Y97.724 I-0.684 J-1.07
G1 X105.528 Y96.505
X105.414 Y96.329
X105.339 Y96.199
X105.272 Y96.065
X105.212 Y95.926
X105.155 Y95.771
X105.104 Y95.604
X105.061 Y95.428
X105.025 Y95.237
X104.997 Y95.032
X104.98 Y94.817
X104.974 Y94.594
X104.981 Y94.362
X105.001 Y94.12
X105.036 Y93.87
X105.085 Y93.617
X105.15 Y93.361
X105.23 Y93.102
X105.325 Y92.844
X105.436 Y92.588
X105.564 Y92.332
X105.707 Y92.079
X105.865 Y91.834
X106.02 Y91.62
X106.198 Y91.399
X106.381 Y91.196
X106.559 Y91.02
X106.763 Y90.838
X106.965 Y90.676
X107.161 Y90.537
X107.385 Y90.395
X107.601 Y90.273
X107.81 Y90.17
X108.048 Y90.069
X108.451 Y89.958
X108.867 Y89.914
X109.285 Y89.937
X109.694 Y90.027
X110.083 Y90.181
X110.442 Y90.395
X110.762 Y90.665
X111.034 Y90.983
X111.972 Y92.273
G3 X111.591 Y94.061 I-1.053 J0.71
G1 X107.201 Y96.8
G3 X105.528 Y96.505 I-0.672 J-1.077
G1 X104.621 Y95.256
X104.518 Y95.098
X104.443 Y94.968
X104.376 Y94.834
X104.317 Y94.695
X104.26 Y94.541
X104.209 Y94.374
X104.166 Y94.198
X104.13 Y94.009
X104.103 Y93.804
X104.086 Y93.59
X104.08 Y93.368
X104.087 Y93.138
X104.107 Y92.898
X104.141 Y92.65
X104.19 Y92.398
X104.254 Y92.143
X104.334 Y91.887
X104.429 Y91.63
X104.539 Y91.375
X104.666 Y91.121
X104.809 Y90.87
X104.967 Y90.624
X105.14 Y90.385
X105.309 Y90.175
X105.501 Y89.963
X105.694 Y89.772
X105.882 Y89.603
X106.097 Y89.432
X106.302 Y89.286
X106.51 Y89.154
X106.738 Y89.026
X106.952 Y88.921
X107.176 Y88.825
X107.574 Y88.716
X107.984 Y88.672
X108.396 Y88.695
X108.8 Y88.784
X109.183 Y88.936
X109.537 Y89.148
X109.853 Y89.414
X110.122 Y89.727
X111.034 Y90.983
G3 X110.664 Y92.763 I-1.053 J0.71
G1 X106.305 Y95.545
G3 X104.621 Y95.256 I-0.683 J-1.071
G1 X103.719 Y94.014
X103.625 Y93.871
X103.55 Y93.741
X103.483 Y93.607
X103.424 Y93.469
X103.368 Y93.315
X103.317 Y93.149
X103.274 Y92.973
X103.239 Y92.785
X103.211 Y92.582
X103.195 Y92.368
X103.189 Y92.147
X103.196 Y91.915
X103.216 Y91.675
X103.251 Y91.425
X103.3 Y91.171
X103.365 Y90.915
X103.445 Y90.657
X103.541 Y90.398
X103.653 Y90.14
X103.781 Y89.885
X103.925 Y89.631
X104.084 Y89.384
X104.258 Y89.143
X104.428 Y88.933
X104.62 Y88.721
X104.814 Y88.529
X105.002 Y88.361
X105.217 Y88.189
X105.422 Y88.043
X105.63 Y87.911
X105.857 Y87.784
X106.07 Y87.68
X106.135 Y87.652
X106.548 Y87.516
X106.977 Y87.451
X107.41 Y87.459
X107.837 Y87.539
X108.244 Y87.69
X108.62 Y87.906
X108.954 Y88.182
X109.238 Y88.511
X110.122 Y89.727
G3 X109.755 Y91.505 I-1.053 J0.71
G1 X105.406 Y94.301
G3 X104.094 Y94.338 I-0.687 J-1.068
X103.719 Y94.014 I0.625 J-1.105
G1 X102.833 Y92.795
X102.735 Y92.645
X102.66 Y92.515
X102.593 Y92.381
X102.534 Y92.243
X102.478 Y92.088
X102.427 Y91.922
X102.384 Y91.747
X102.348 Y91.557
X102.321 Y91.353
X102.304 Y91.139
X102.298 Y90.917
X102.305 Y90.685
X102.326 Y90.443
X102.361 Y90.192
X102.41 Y89.938
X102.475 Y89.681
X102.555 Y89.422
X102.651 Y89.162
X102.764 Y88.903
X102.892 Y88.647
X103.037 Y88.393
X103.196 Y88.145
X103.358 Y87.921
X103.538 Y87.699
X103.727 Y87.49
X103.908 Y87.31
X104.114 Y87.127
X104.319 Y86.963
X104.516 Y86.823
X104.74 Y86.681
X104.956 Y86.559
X105.165 Y86.457
X105.402 Y86.356
X105.797 Y86.248
X106.203 Y86.205
X106.612 Y86.227
X107.012 Y86.315
X107.392 Y86.466
X107.743 Y86.676
X108.056 Y86.94
X108.323 Y87.251
X109.238 Y88.511
G3 X108.871 Y90.29 I-1.053 J0.71
G1 X104.519 Y93.082
G3 X102.833 Y92.795 I-0.686 J-1.069
G1 X101.933 Y91.556
X101.843 Y91.418
X101.768 Y91.289
X101.701 Y91.154
X101.642 Y91.016
X101.585 Y90.861
X101.534 Y90.694
X101.491 Y90.518
X101.455 Y90.329
X101.428 Y90.124
X101.411 Y89.91
X101.405 Y89.687
X101.412 Y89.455
X101.432 Y89.213
X101.467 Y88.963
X101.516 Y88.709
X101.581 Y88.452
X101.661 Y88.194
X101.757 Y87.934
X101.869 Y87.677
X101.997 Y87.42
X102.141 Y87.167
X102.3 Y86.92
X102.475 Y86.678
X102.646 Y86.467
X102.837 Y86.255
X103.031 Y86.062
X103.22 Y85.894
X103.435 Y85.722
X103.64 Y85.576
X103.847 Y85.445
X104.075 Y85.317
X104.287 Y85.213
X104.511 Y85.118
X104.904 Y85.01
X105.309 Y84.967
X105.716 Y84.989
X106.114 Y85.076
X106.493 Y85.227
X106.843 Y85.436
X107.154 Y85.699
X107.42 Y86.008
X108.323 Y87.251
G3 X107.961 Y89.026 I-1.053 J0.71
G1 X103.625 Y91.84
G3 X101.933 Y91.556 I-0.691 J-1.065
G1 X101.014 Y90.291
X100.932 Y90.166
X100.859 Y90.035
X100.793 Y89.899
X100.735 Y89.758
X100.68 Y89.603
X100.63 Y89.432
X100.588 Y89.252
X100.554 Y89.061
X100.529 Y88.856
X100.514 Y88.637
X100.511 Y88.411
X100.52 Y88.177
X100.543 Y87.934
X100.581 Y87.683
X100.634 Y87.426
X100.702 Y87.167
X100.786 Y86.906
X100.886 Y86.645
X101.002 Y86.386
X101.133 Y86.13
X101.281 Y85.878
X101.443 Y85.631
X101.619 Y85.394
X101.791 Y85.186
X101.987 Y84.974
X102.178 Y84.788
X102.371 Y84.62
X102.586 Y84.452
X102.789 Y84.311
X103.003 Y84.178
X103.227 Y84.056
X103.436 Y83.956
X103.667 Y83.861
X104.051 Y83.76
X104.447 Y83.721
X104.844 Y83.746
X105.232 Y83.834
X105.601 Y83.982
X105.941 Y84.188
X106.244 Y84.444
X106.503 Y84.746
X107.42 Y86.008
G3 X107.052 Y87.787 I-1.053 J0.71
G1 X102.7 Y90.578
G3 X101.014 Y90.291 I-0.686 J-1.069
G1 X100.175 Y89.136
X100.055 Y88.954
X99.98 Y88.824
X99.914 Y88.689
X99.853 Y88.548
X99.797 Y88.393
X99.747 Y88.229
X99.703 Y88.052
X99.667 Y87.859
X99.64 Y87.655
X99.623 Y87.443
X99.618 Y87.22
X99.625 Y86.984
X99.646 Y86.74
X99.681 Y86.49
X99.731 Y86.236
X99.796 Y85.979
X99.876 Y85.72
X99.973 Y85.458
X100.086 Y85.198
X100.216 Y84.94
X100.361 Y84.685
X100.521 Y84.437
X100.696 Y84.196
X100.871 Y83.98
X101.059 Y83.771
X101.257 Y83.576
X101.446 Y83.407
X101.66 Y83.237
X101.867 Y83.089
X102.072 Y82.96
X102.3 Y82.832
X102.513 Y82.728
X102.734 Y82.634
X103.122 Y82.528
X103.523 Y82.486
X103.925 Y82.508
X104.319 Y82.595
X104.693 Y82.743
X105.039 Y82.95
X105.347 Y83.21
X105.609 Y83.516
X106.503 Y84.746
G3 X106.163 Y86.508 I-1.053 J0.71
G1 X101.888 Y89.406
G3 X100.175 Y89.136 I-0.713 J-1.051
G1 X99.223 Y87.826
X99.141 Y87.701
X99.068 Y87.57
X99.003 Y87.434
X98.944 Y87.293
X98.889 Y87.136
X98.839 Y86.965
X98.797 Y86.784
X98.763 Y86.592
X98.738 Y86.385
X98.723 Y86.166
X98.721 Y85.938
X98.73 Y85.703
X98.754 Y85.458
X98.792 Y85.206
X98.846 Y84.947
X98.915 Y84.687
X98.999 Y84.425
X99.1 Y84.164
X99.217 Y83.904
X99.349 Y83.647
X99.497 Y83.394
X99.661 Y83.146
X99.837 Y82.908
X100.009 Y82.701
X100.206 Y82.489
X100.397 Y82.303
X100.591 Y82.135
X100.805 Y81.968
X101.007 Y81.827
X101.222 Y81.695
X101.445 Y81.573
X101.654 Y81.474
X102.069 Y81.342
X102.5 Y81.281
X102.935 Y81.293
X103.363 Y81.376
X103.77 Y81.529
X104.147 Y81.748
X104.482 Y82.026
X104.766 Y82.356
X105.609 Y83.516
G3 X105.249 Y85.291 I-1.053 J0.71
G1 X100.916 Y88.109
G3 X99.223 Y87.826 I-0.693 J-1.065
G1 X98.347 Y86.621
X98.263 Y86.492
X98.188 Y86.362
X98.121 Y86.228
X98.06 Y86.086
X98.004 Y85.931
X97.954 Y85.766
X97.91 Y85.588
X97.873 Y85.394
X97.846 Y85.19
X97.829 Y84.977
X97.824 Y84.753
X97.831 Y84.515
X97.852 Y84.271
X97.887 Y84.021
X97.936 Y83.766
X98.001 Y83.508
X98.082 Y83.247
X98.179 Y82.985
X98.293 Y82.724
X98.422 Y82.465
X98.568 Y82.21
X98.728 Y81.961
X98.889 Y81.739
X99.063 Y81.524
X99.251 Y81.315
X99.431 Y81.137
X99.633 Y80.957
X99.838 Y80.793
X100.034 Y80.654
X100.255 Y80.514
X100.473 Y80.392
X100.68 Y80.29
X100.915 Y80.19
X101.311 Y80.082
X101.719 Y80.038
X102.129 Y80.061
X102.53 Y80.149
X102.912 Y80.301
X103.264 Y80.511
X103.577 Y80.776
X103.845 Y81.087
X104.766 Y82.356
G3 X104.394 Y84.138 I-1.053 J0.71
G1 X100.029 Y86.911
G3 X98.347 Y86.621 I-0.681 J-1.072
G1 X97.461 Y85.402
X97.367 Y85.256
X97.291 Y85.127
X97.225 Y84.992
X97.165 Y84.853
X97.108 Y84.697
X97.057 Y84.53
X97.013 Y84.354
X96.977 Y84.162
X96.949 Y83.957
X96.932 Y83.742
X96.927 Y83.518
X96.934 Y83.285
X96.954 Y83.043
X96.989 Y82.792
X97.038 Y82.538
X97.102 Y82.282
X97.182 Y82.023
X97.278 Y81.765
X97.39 Y81.507
X97.517 Y81.251
X97.661 Y80.998
X97.82 Y80.752
X97.994 Y80.511
X98.164 Y80.3
X98.355 Y80.088
X98.549 Y79.896
X98.737 Y79.728
X98.952 Y79.557
X99.157 Y79.41
X99.364 Y79.279
X99.591 Y79.151
X99.803 Y79.047
X100.027 Y78.952
X100.421 Y78.844
X100.826 Y78.8
X101.234 Y78.823
X101.633 Y78.91
X102.012 Y79.061
X102.363 Y79.27
X102.675 Y79.533
X102.941 Y79.843
X103.845 Y81.087
G3 X103.485 Y82.861 I-1.053 J0.71
G1 X99.156 Y85.684
G3 X97.461 Y85.402 I-0.694 J-1.064
G1 X96.548 Y84.145
X96.466 Y84.019
X96.391 Y83.889
X96.325 Y83.755
X96.266 Y83.615
X96.209 Y83.46
X96.159 Y83.293
X96.115 Y83.116
X96.08 Y82.926
X96.053 Y82.721
X96.036 Y82.506
X96.031 Y82.283
X96.038 Y82.049
X96.059 Y81.807
X96.094 Y81.556
X96.144 Y81.3
X96.21 Y81.042
X96.291 Y80.783
X96.387 Y80.523
X96.5 Y80.264
X96.629 Y80.008
X96.774 Y79.754
X96.934 Y79.506
X97.109 Y79.265
X97.28 Y79.055
X97.472 Y78.842
X97.665 Y78.651
X97.855 Y78.483
X98.069 Y78.312
X98.274 Y78.167
X98.482 Y78.036
X98.708 Y77.909
X98.92 Y77.806
X99.007 Y77.769
X99.411 Y77.636
X99.831 Y77.573
X100.257 Y77.581
X100.674 Y77.66
X101.073 Y77.808
X101.441 Y78.02
X101.769 Y78.291
X102.047 Y78.613
X102.941 Y79.843
G3 X102.578 Y81.62 I-1.053 J0.71
G1 X98.239 Y84.429
G3 X96.548 Y84.145 I-0.69 J-1.066
G1 X95.68 Y82.95
X95.575 Y82.789
X95.5 Y82.659
X95.433 Y82.525
X95.374 Y82.386
X95.317 Y82.231
X95.266 Y82.065
X95.223 Y81.888
X95.187 Y81.698
X95.16 Y81.493
X95.143 Y81.279
X95.137 Y81.056
X95.144 Y80.822
X95.164 Y80.579
X95.199 Y80.328
X95.249 Y80.073
X95.314 Y79.815
X95.394 Y79.556
X95.491 Y79.296
X95.603 Y79.036
X95.732 Y78.779
X95.877 Y78.524
X96.037 Y78.276
X96.201 Y78.048
X96.381 Y77.826
X96.572 Y77.615
X96.754 Y77.434
X96.96 Y77.251
X97.166 Y77.086
X97.363 Y76.946
X97.587 Y76.804
X97.803 Y76.683
X98.012 Y76.58
X98.437 Y76.44
X98.88 Y76.373
X99.327 Y76.381
X99.768 Y76.464
X100.188 Y76.619
X100.576 Y76.842
X100.921 Y77.127
X101.214 Y77.466
X102.047 Y78.613
G3 X101.693 Y80.383 I-1.053 J0.71
G1 X97.38 Y83.228
G3 X96.056 Y83.274 I-0.699 J-1.06
X95.68 Y82.95 I0.625 J-1.105
G1 X94.742 Y81.658
X94.66 Y81.533
X94.587 Y81.402
X94.522 Y81.266
X94.463 Y81.125
X94.408 Y80.968
X94.358 Y80.797
X94.316 Y80.615
X94.282 Y80.424
X94.257 Y80.217
X94.243 Y79.998
X94.24 Y79.77
X94.25 Y79.536
X94.273 Y79.293
X94.312 Y79.041
X94.365 Y78.784
X94.434 Y78.525
X94.518 Y78.263
X94.619 Y78.003
X94.735 Y77.744
X94.867 Y77.488
X95.015 Y77.235
X95.175 Y76.994
X95.332 Y76.781
X95.517 Y76.559
X95.699 Y76.363
X95.88 Y76.188
X96.088 Y76.007
X96.287 Y75.851
X96.487 Y75.713
X96.713 Y75.573
X96.926 Y75.458
X97.139 Y75.356
X97.377 Y75.258
X97.769 Y75.156
X98.172 Y75.117
X98.577 Y75.143
X98.972 Y75.233
X99.347 Y75.384
X99.694 Y75.593
X100.003 Y75.855
X100.267 Y76.163
X101.214 Y77.466
G3 X100.823 Y79.26 I-1.053 J0.71
G1 X96.405 Y81.96
G3 X94.742 Y81.658 I-0.662 J-1.084
G1 X93.871 Y80.46
X93.783 Y80.326
X93.708 Y80.196
X93.641 Y80.061
X93.581 Y79.919
X93.524 Y79.764
X93.474 Y79.6
X93.431 Y79.422
X93.394 Y79.229
X93.367 Y79.025
X93.35 Y78.813
X93.345 Y78.59
X93.352 Y78.356
X93.373 Y78.113
X93.407 Y77.865
X93.456 Y77.613
X93.52 Y77.359
X93.6 Y77.102
X93.696 Y76.843
X93.808 Y76.586
X93.936 Y76.33
X94.08 Y76.078
X94.239 Y75.832
X94.413 Y75.591
X94.587 Y75.376
X94.775 Y75.169
X94.972 Y74.973
X95.162 Y74.804
X95.375 Y74.634
X95.584 Y74.486
X95.789 Y74.356
X96.017 Y74.228
X96.232 Y74.122
X96.453 Y74.029
X96.846 Y73.921
X97.252 Y73.878
X97.659 Y73.901
X98.058 Y73.988
X98.437 Y74.139
X98.787 Y74.349
X99.099 Y74.612
X99.365 Y74.921
X100.267 Y76.163
G3 X99.903 Y77.94 I-1.053 J0.71
G1 X95.56 Y80.744
G3 X94.246 Y80.783 I-0.689 J-1.067
X93.871 Y80.46 I0.625 J-1.105
G1 X93.013 Y79.28
X92.89 Y79.091
X92.815 Y78.961
X92.748 Y78.826
X92.689 Y78.688
X92.633 Y78.534
X92.582 Y78.368
X92.539 Y78.193
X92.503 Y78.003
X92.476 Y77.8
X92.459 Y77.586
X92.454 Y77.364
X92.461 Y77.132
X92.481 Y76.889
X92.516 Y76.639
X92.566 Y76.385
X92.63 Y76.127
X92.711 Y75.869
X92.807 Y75.609
X92.92 Y75.349
X93.048 Y75.093
X93.193 Y74.839
X93.353 Y74.59
X93.527 Y74.349
X93.698 Y74.138
X93.889 Y73.926
X94.083 Y73.734
X94.272 Y73.566
X94.486 Y73.395
X94.691 Y73.249
X94.899 Y73.117
X95.126 Y72.99
X95.337 Y72.886
X95.561 Y72.791
X95.953 Y72.683
X96.358 Y72.64
X96.763 Y72.663
X97.16 Y72.75
X97.538 Y72.9
X97.887 Y73.109
X98.198 Y73.371
X98.463 Y73.68
X99.365 Y74.921
G3 X99.017 Y76.688 I-1.053 J0.71
G1 X94.719 Y79.554
G3 X93.013 Y79.28 I-0.705 J-1.057
G1 X92.1 Y78.022
X91.998 Y77.866
X91.923 Y77.736
X91.856 Y77.602
X91.797 Y77.463
X91.74 Y77.308
X91.689 Y77.142
X91.646 Y76.966
X91.61 Y76.776
X91.583 Y76.571
X91.566 Y76.357
X91.56 Y76.134
X91.567 Y75.901
X91.587 Y75.658
X91.622 Y75.406
X91.672 Y75.151
X91.737 Y74.893
X91.817 Y74.634
X91.914 Y74.374
X92.026 Y74.114
X92.154 Y73.857
X92.299 Y73.603
X92.459 Y73.355
X92.634 Y73.113
X92.805 Y72.902
X92.996 Y72.69
X93.19 Y72.497
X93.379 Y72.329
X93.593 Y72.158
X93.798 Y72.012
X94.005 Y71.881
X94.231 Y71.753
X94.443 Y71.649
X94.51 Y71.621
X94.918 Y71.486
X95.344 Y71.422
X95.774 Y71.429
X96.196 Y71.509
X96.6 Y71.658
X96.972 Y71.873
X97.304 Y72.146
X97.585 Y72.472
X98.463 Y73.68
G3 X98.11 Y75.449 I-1.053 J0.71
G1 X93.801 Y78.3
G3 X92.1 Y78.022 I-0.701 J-1.059
G1 X91.202 Y76.787
X91.104 Y76.636
X91.029 Y76.506
X90.962 Y76.372
X90.902 Y76.233
X90.846 Y76.077
X90.795 Y75.911
X90.751 Y75.735
X90.715 Y75.544
X90.688 Y75.339
X90.671 Y75.124
X90.665 Y74.901
X90.672 Y74.667
X90.692 Y74.424
X90.727 Y74.173
X90.777 Y73.917
X90.841 Y73.659
X90.922 Y73.4
X91.018 Y73.139
X91.131 Y72.879
X91.259 Y72.622
X91.404 Y72.367
X91.564 Y72.119
X91.726 Y71.894
X91.906 Y71.672
X92.095 Y71.462
X92.276 Y71.282
X92.482 Y71.099
X92.687 Y70.935
X92.883 Y70.795
X93.107 Y70.653
X93.323 Y70.532
X93.532 Y70.429
X93.959 Y70.288
X94.403 Y70.221
X94.853 Y70.229
X95.295 Y70.312
X95.717 Y70.468
X96.107 Y70.692
X96.453 Y70.978
X96.747 Y71.319
X97.585 Y72.472
G3 X97.226 Y74.246 I-1.053 J0.71
G1 X92.897 Y77.069
G3 X91.202 Y76.787 I-0.694 J-1.064
G1 X90.316 Y75.568
X90.208 Y75.402
X90.133 Y75.272
X90.066 Y75.138
X90.007 Y74.999
X89.95 Y74.844
X89.899 Y74.677
X89.856 Y74.5
X89.82 Y74.31
X89.792 Y74.105
X89.775 Y73.89
X89.769 Y73.667
X89.776 Y73.434
X89.796 Y73.192
X89.831 Y72.941
X89.881 Y72.686
X89.945 Y72.429
X90.025 Y72.17
X90.122 Y71.91
X90.233 Y71.652
X90.362 Y71.395
X90.506 Y71.141
X90.665 Y70.894
X90.82 Y70.679
X90.999 Y70.458
X91.183 Y70.254
X91.36 Y70.078
X91.565 Y69.896
X91.767 Y69.734
X91.962 Y69.595
X92.186 Y69.453
X92.402 Y69.331
X92.611 Y69.229
X92.848 Y69.128
X93.249 Y69.018
X93.662 Y68.973
X94.077 Y68.996
X94.483 Y69.085
X94.87 Y69.239
X95.227 Y69.452
X95.544 Y69.72
X95.815 Y70.036
X96.747 Y71.319
G3 X96.371 Y73.104 I-1.053 J0.71
G1 X91.994 Y75.86
G3 X90.316 Y75.568 I-0.677 J-1.075
G1 X89.403 Y74.31
X89.312 Y74.171
X89.237 Y74.041
X89.17 Y73.907
X89.111 Y73.768
X89.054 Y73.613
X89.003 Y73.446
X88.96 Y73.27
X88.924 Y73.08
X88.896 Y72.875
X88.879 Y72.66
X88.873 Y72.438
X88.88 Y72.207
X88.9 Y71.965
X88.935 Y71.716
X88.984 Y71.464
X89.048 Y71.208
X89.128 Y70.951
X89.223 Y70.694
X89.334 Y70.438
X89.461 Y70.183
X89.604 Y69.931
X89.762 Y69.686
X89.936 Y69.445
X90.105 Y69.236
X90.297 Y69.024
X90.49 Y68.832
X90.678 Y68.663
X90.893 Y68.492
X91.098 Y68.346
X91.305 Y68.214
X91.533 Y68.086
X91.746 Y67.981
X91.97 Y67.886
X92.367 Y67.777
X92.776 Y67.733
X93.187 Y67.756
X93.588 Y67.844
X93.971 Y67.996
X94.323 Y68.207
X94.638 Y68.472
X94.906 Y68.784
X95.815 Y70.036
G3 X95.446 Y71.816 I-1.053 J0.71
G1 X91.087 Y74.599
G3 X89.403 Y74.31 I-0.683 J-1.07
G1 X88.539 Y73.121
X88.419 Y72.937
X88.344 Y72.807
X88.277 Y72.673
X88.218 Y72.534
X88.161 Y72.38
X88.111 Y72.214
X88.068 Y72.039
X88.032 Y71.85
X88.005 Y71.647
X87.988 Y71.433
X87.982 Y71.211
X87.989 Y70.979
X88.009 Y70.738
X88.044 Y70.488
X88.094 Y70.234
X88.158 Y69.977
X88.238 Y69.719
X88.334 Y69.46
X88.446 Y69.202
X88.574 Y68.946
X88.719 Y68.693
X88.878 Y68.445
X89.052 Y68.204
X89.222 Y67.994
X89.414 Y67.782
X89.607 Y67.59
X89.796 Y67.421
X90.011 Y67.25
X90.215 Y67.104
X90.423 Y66.973
X90.65 Y66.845
X90.862 Y66.741
X90.924 Y66.715
X91.336 Y66.579
X91.765 Y66.514
X92.199 Y66.522
X92.625 Y66.602
X93.032 Y66.752
X93.408 Y66.969
X93.743 Y67.245
X94.026 Y67.573
X94.906 Y68.784
G3 X94.552 Y70.554 I-1.053 J0.71
G1 X90.239 Y73.399
G3 X88.914 Y73.444 I-0.699 J-1.06
X88.539 Y73.121 I0.625 J-1.105
G1 X87.609 Y71.841
X87.526 Y71.715
X87.451 Y71.585
X87.384 Y71.451
X87.325 Y71.312
X87.269 Y71.157
X87.218 Y70.991
X87.175 Y70.815
X87.139 Y70.625
X87.111 Y70.421
X87.094 Y70.207
X87.089 Y69.984
X87.096 Y69.751
X87.116 Y69.509
X87.151 Y69.258
X87.2 Y69.003
X87.265 Y68.745
X87.345 Y68.487
X87.442 Y68.227
X87.554 Y67.967
X87.682 Y67.711
X87.827 Y67.457
X87.987 Y67.208
X88.148 Y66.985
X88.328 Y66.762
X88.517 Y66.553
X88.698 Y66.374
X88.904 Y66.19
X89.108 Y66.027
X89.305 Y65.887
X89.529 Y65.744
X89.745 Y65.623
X89.954 Y65.521
X90.191 Y65.42
X90.585 Y65.312
X90.992 Y65.268
X91.401 Y65.291
X91.8 Y65.379
X92.181 Y65.53
X92.532 Y65.74
X92.845 Y66.003
X93.111 Y66.314
X94.026 Y67.573
G3 X93.655 Y69.355 I-1.053 J0.71
G1 X89.291 Y72.131
G3 X87.609 Y71.841 I-0.682 J-1.072
G1 X86.721 Y70.619
X86.633 Y70.484
X86.558 Y70.354
X86.491 Y70.22
X86.432 Y70.081
X86.375 Y69.926
X86.324 Y69.76
X86.281 Y69.584
X86.245 Y69.394
X86.217 Y69.189
X86.2 Y68.974
X86.195 Y68.752
X86.202 Y68.52
X86.222 Y68.277
X86.257 Y68.027
X86.306 Y67.773
X86.371 Y67.516
X86.451 Y67.258
X86.547 Y66.998
X86.659 Y66.741
X86.787 Y66.484
X86.931 Y66.231
X87.09 Y65.983
X87.265 Y65.742
X87.435 Y65.531
X87.627 Y65.318
X87.821 Y65.126
X88.01 Y64.958
X88.224 Y64.786
X88.429 Y64.64
X88.637 Y64.508
X88.864 Y64.381
X89.076 Y64.277
X89.3 Y64.181
X89.693 Y64.074
X90.098 Y64.03
X90.505 Y64.053
X90.903 Y64.14
X91.282 Y64.29
X91.632 Y64.5
X91.943 Y64.762
X92.209 Y65.072
X93.111 Y66.314
G3 X92.749 Y68.09 I-1.053 J0.71
G1 X88.413 Y70.902
G3 X86.721 Y70.619 I-0.691 J-1.066
G1 X85.827 Y69.389
X85.739 Y69.254
X85.664 Y69.124
X85.597 Y68.989
X85.538 Y68.851
X85.481 Y68.696
X85.43 Y68.529
X85.387 Y68.353
X85.351 Y68.164
X85.324 Y67.959
X85.307 Y67.745
X85.301 Y67.522
X85.308 Y67.289
X85.328 Y67.047
X85.363 Y66.796
X85.413 Y66.54
X85.478 Y66.283
X85.558 Y66.024
X85.654 Y65.763
X85.767 Y65.504
X85.895 Y65.247
X86.04 Y64.993
X86.199 Y64.745
X86.374 Y64.503
X86.545 Y64.292
X86.736 Y64.08
X86.93 Y63.887
X87.119 Y63.719
X87.333 Y63.548
X87.538 Y63.402
X87.745 Y63.27
X87.972 Y63.143
X88.184 Y63.039
X88.407 Y62.944
X88.799 Y62.836
X89.203 Y62.793
X89.609 Y62.816
X90.006 Y62.903
X90.384 Y63.053
X90.732 Y63.261
X91.043 Y63.523
X91.308 Y63.832
X92.209 Y65.072
G3 X91.85 Y66.845 I-1.053 J0.71
G1 X87.522 Y69.67
G3 X85.827 Y69.389 I-0.694 J-1.063
G1 X84.944 Y68.173
X84.845 Y68.022
X84.77 Y67.892
X84.703 Y67.758
X84.644 Y67.619
X84.587 Y67.464
X84.537 Y67.297
X84.493 Y67.121
X84.457 Y66.931
X84.43 Y66.726
X84.413 Y66.512
X84.407 Y66.289
X84.414 Y66.055
X84.434 Y65.812
X84.469 Y65.561
X84.519 Y65.305
X84.584 Y65.047
X84.664 Y64.788
X84.76 Y64.527
X84.873 Y64.268
X85.001 Y64.011
X85.146 Y63.756
X85.306 Y63.508
X85.481 Y63.266
X85.651 Y63.055
X85.843 Y62.843
X86.036 Y62.65
X86.225 Y62.482
X86.439 Y62.311
X86.644 Y62.165
X86.851 Y62.034
X87.078 Y61.907
X87.289 Y61.803
X87.513 Y61.707
X87.904 Y61.6
X88.307 Y61.557
X88.712 Y61.579
X89.109 Y61.666
X89.486 Y61.816
X89.834 Y62.024
X90.144 Y62.286
X90.408 Y62.593
X91.308 Y63.832
G3 X90.955 Y65.601 I-1.053 J0.71
G1 X86.645 Y68.451
G3 X84.944 Y68.173 I-0.7 J-1.059
G1 X84.011 Y66.889
X83.929 Y66.763
X83.856 Y66.632
X83.791 Y66.497
X83.733 Y66.355
X83.678 Y66.198
X83.628 Y66.027
X83.586 Y65.845
X83.552 Y65.654
X83.527 Y65.447
X83.513 Y65.227
X83.51 Y65
X83.52 Y64.764
X83.543 Y64.521
X83.582 Y64.269
X83.635 Y64.011
X83.704 Y63.751
X83.789 Y63.489
X83.89 Y63.228
X84.006 Y62.969
X84.138 Y62.713
X84.287 Y62.46
X84.45 Y62.213
X84.626 Y61.976
X84.798 Y61.77
X84.994 Y61.557
X85.186 Y61.372
X85.38 Y61.204
X85.594 Y61.037
X85.796 Y60.897
X86.011 Y60.764
X86.234 Y60.643
X86.443 Y60.544
X86.859 Y60.412
X87.291 Y60.351
X87.727 Y60.363
X88.155 Y60.447
X88.564 Y60.6
X88.941 Y60.82
X89.277 Y61.098
X89.562 Y61.429
X90.408 Y62.593
G3 X90.044 Y64.371 I-1.053 J0.71
G1 X85.701 Y67.174
G3 X84.386 Y67.212 I-0.689 J-1.067
X84.011 Y66.889 I0.625 J-1.105
G1 X83.125 Y65.67
X83.043 Y65.544
X82.969 Y65.414
X82.903 Y65.279
X82.843 Y65.136
X82.787 Y64.979
X82.737 Y64.812
X82.695 Y64.634
X82.659 Y64.439
X82.633 Y64.233
X82.617 Y64.019
X82.613 Y63.794
X82.622 Y63.557
X82.644 Y63.312
X82.68 Y63.06
X82.732 Y62.805
X82.799 Y62.546
X82.881 Y62.287
X82.98 Y62.025
X83.095 Y61.765
X83.226 Y61.507
X83.373 Y61.253
X83.534 Y61.005
X83.695 Y60.786
X83.873 Y60.569
X84.06 Y60.364
X84.24 Y60.188
X84.445 Y60.008
X84.649 Y59.847
X84.845 Y59.709
X85.069 Y59.569
X85.285 Y59.449
X85.494 Y59.348
X85.922 Y59.21
X86.366 Y59.146
X86.815 Y59.156
X87.255 Y59.24
X87.676 Y59.397
X88.065 Y59.622
X88.41 Y59.908
X88.704 Y60.248
X89.562 Y61.429
G3 X89.184 Y63.215 I-1.053 J0.71
G1 X84.801 Y65.964
G3 X83.125 Y65.67 I-0.675 J-1.076
G1 X82.25 Y64.464
X82.156 Y64.321
X82.081 Y64.191
X82.014 Y64.057
X81.954 Y63.916
X81.897 Y63.761
X81.847 Y63.595
X81.803 Y63.418
X81.767 Y63.226
X81.739 Y63.021
X81.723 Y62.807
X81.717 Y62.584
X81.724 Y62.35
X81.745 Y62.107
X81.779 Y61.857
X81.829 Y61.604
X81.893 Y61.348
X81.973 Y61.09
X82.069 Y60.831
X82.181 Y60.574
X82.309 Y60.317
X82.453 Y60.064
X82.612 Y59.818
X82.769 Y59.601
X82.945 Y59.383
X83.131 Y59.178
X83.309 Y59.001
X83.512 Y58.82
X83.716 Y58.657
X83.911 Y58.518
X84.135 Y58.377
X84.352 Y58.255
X84.561 Y58.152
X84.798 Y58.052
X85.199 Y57.942
X85.613 Y57.898
X86.029 Y57.921
X86.436 Y58.01
X86.823 Y58.164
X87.18 Y58.377
X87.498 Y58.646
X87.77 Y58.962
X88.704 Y60.248
G3 X88.319 Y62.038 I-1.053 J0.71
G1 X83.919 Y64.762
G3 X82.25 Y64.464 I-0.669 J-1.08
G1 X81.322 Y63.187
X81.24 Y63.062
X81.167 Y62.931
X81.102 Y62.795
X81.043 Y62.654
X80.989 Y62.497
X80.939 Y62.326
X80.897 Y62.146
X80.863 Y61.954
X80.838 Y61.749
X80.824 Y61.53
X80.821 Y61.304
X80.831 Y61.071
X80.855 Y60.83
X80.892 Y60.581
X80.945 Y60.328
X81.013 Y60.07
X81.097 Y59.812
X81.197 Y59.554
X81.312 Y59.298
X81.443 Y59.044
X81.589 Y58.794
X81.75 Y58.551
X81.925 Y58.316
X82.096 Y58.11
X82.292 Y57.898
X82.483 Y57.713
X82.677 Y57.545
X82.892 Y57.378
X83.095 Y57.237
X83.31 Y57.104
X83.535 Y56.982
X83.746 Y56.882
X83.978 Y56.787
X84.366 Y56.685
X84.766 Y56.647
X85.166 Y56.673
X85.558 Y56.762
X85.93 Y56.912
X86.273 Y57.119
X86.58 Y57.379
X86.841 Y57.683
X87.77 Y58.962
G3 X87.387 Y60.751 I-1.053 J0.71
G1 X82.993 Y63.484
G3 X81.697 Y63.511 I-0.671 J-1.078
X81.322 Y63.187 I0.625 J-1.105
G1 X80.442 Y61.976
X80.36 Y61.851
X80.285 Y61.72
X80.219 Y61.586
X80.159 Y61.444
X80.104 Y61.289
X80.054 Y61.123
X80.011 Y60.947
X79.976 Y60.754
X79.95 Y60.55
X79.934 Y60.337
X79.93 Y60.115
X79.938 Y59.881
X79.96 Y59.638
X79.996 Y59.388
X80.046 Y59.135
X80.112 Y58.879
X80.193 Y58.621
X80.291 Y58.361
X80.405 Y58.102
X80.535 Y57.846
X80.681 Y57.592
X80.842 Y57.345
X81.018 Y57.104
X81.193 Y56.891
X81.383 Y56.682
X81.58 Y56.488
X81.77 Y56.321
X81.985 Y56.151
X82.193 Y56.004
X82.4 Y55.875
X82.628 Y55.748
X82.841 Y55.645
X83.262 Y55.508
X83.699 Y55.444
X84.141 Y55.454
X84.575 Y55.537
X84.989 Y55.691
X85.372 Y55.912
X85.712 Y56.193
X86.001 Y56.528
X86.841 Y57.683
G3 X86.476 Y59.461 I-1.053 J0.71
G1 X82.13 Y62.262
G3 X80.442 Y61.976 I-0.688 J-1.067
G1 X79.597 Y60.814
X79.476 Y60.628
X79.401 Y60.498
X79.334 Y60.364
X79.275 Y60.225
X79.218 Y60.07
X79.168 Y59.905
X79.125 Y59.73
X79.089 Y59.539
X79.062 Y59.335
X79.045 Y59.122
X79.04 Y58.9
X79.047 Y58.666
X79.068 Y58.422
X79.103 Y58.172
X79.153 Y57.917
X79.218 Y57.66
X79.298 Y57.401
X79.395 Y57.14
X79.508 Y56.88
X79.637 Y56.622
X79.782 Y56.368
X79.943 Y56.119
X80.101 Y55.9
X80.279 Y55.681
X80.465 Y55.475
X80.644 Y55.298
X80.848 Y55.117
X81.052 Y54.954
X81.247 Y54.815
X81.471 Y54.674
X81.687 Y54.553
X81.896 Y54.45
X82.132 Y54.35
X82.53 Y54.241
X82.94 Y54.198
X83.351 Y54.221
X83.754 Y54.309
X84.137 Y54.462
X84.491 Y54.673
X84.806 Y54.939
X85.074 Y55.252
X86.001 Y56.528
G3 X85.635 Y58.307 I-1.053 J0.71
G1 X81.284 Y61.101
G3 X79.597 Y60.814 I-0.686 J-1.069
G1 X78.7 Y59.579
X78.585 Y59.402
X78.509 Y59.272
X78.443 Y59.138
X78.383 Y58.999
X78.327 Y58.844
X78.276 Y58.678
X78.232 Y58.501
X78.196 Y58.311
X78.169 Y58.106
X78.152 Y57.891
X78.146 Y57.668
X78.153 Y57.437
X78.174 Y57.195
X78.208 Y56.945
X78.257 Y56.692
X78.322 Y56.436
X78.402 Y56.179
X78.497 Y55.92
X78.609 Y55.664
X78.736 Y55.408
X78.88 Y55.156
X79.038 Y54.91
X79.212 Y54.669
X79.382 Y54.459
X79.574 Y54.247
X79.767 Y54.055
X79.956 Y53.887
X80.17 Y53.715
X80.376 Y53.569
X80.583 Y53.438
X80.81 Y53.31
X81.023 Y53.206
X81.247 Y53.11
X81.641 Y53.002
X82.048 Y52.959
X82.457 Y52.981
X82.857 Y53.069
X83.237 Y53.22
X83.588 Y53.43
X83.901 Y53.694
X84.168 Y54.005
X85.074 Y55.252
G3 X84.718 Y57.024 I-1.053 J0.71
G1 X80.398 Y59.859
G3 X79.075 Y59.902 I-0.697 J-1.062
X78.7 Y59.579 I0.625 J-1.105
G1 X77.775 Y58.306
X77.69 Y58.175
X77.615 Y58.045
X77.548 Y57.911
X77.488 Y57.772
X77.432 Y57.617
X77.381 Y57.451
X77.338 Y57.275
X77.302 Y57.086
X77.274 Y56.882
X77.257 Y56.668
X77.252 Y56.445
X77.259 Y56.213
X77.279 Y55.971
X77.314 Y55.72
X77.363 Y55.465
X77.428 Y55.208
X77.508 Y54.95
X77.604 Y54.69
X77.717 Y54.431
X77.845 Y54.175
X77.989 Y53.921
X78.149 Y53.673
X78.323 Y53.431
X78.494 Y53.22
X78.685 Y53.008
X78.879 Y52.816
X79.068 Y52.648
X79.282 Y52.477
X79.487 Y52.33
X79.694 Y52.199
X79.921 Y52.071
X80.133 Y51.967
X80.357 Y51.872
X80.75 Y51.764
X81.155 Y51.721
X81.562 Y51.743
X81.96 Y51.831
X82.339 Y51.981
X82.688 Y52.19
X83 Y52.453
X83.265 Y52.762
X84.168 Y54.005
G3 X83.805 Y55.781 I-1.053 J0.71
G1 X79.466 Y58.59
G3 X77.775 Y58.306 I-0.69 J-1.066
G1 X76.876 Y57.068
X76.794 Y56.943
X76.719 Y56.813
X76.653 Y56.678
X76.593 Y56.54
X76.537 Y56.384
X76.486 Y56.218
X76.443 Y56.041
X76.407 Y55.851
X76.38 Y55.646
X76.363 Y55.431
X76.358 Y55.208
X76.365 Y54.974
X76.386 Y54.732
X76.421 Y54.48
X76.471 Y54.225
X76.536 Y53.967
X76.617 Y53.708
X76.714 Y53.447
X76.827 Y53.188
X76.956 Y52.931
X77.101 Y52.677
X77.261 Y52.429
X77.436 Y52.188
X77.606 Y51.977
X77.799 Y51.765
X77.992 Y51.574
X78.181 Y51.405
X78.396 Y51.235
X78.6 Y51.089
X78.808 Y50.958
X79.035 Y50.831
X79.246 Y50.727
X79.471 Y50.632
X79.861 Y50.525
X80.264 Y50.483
X80.669 Y50.506
X81.065 Y50.593
X81.441 Y50.742
X81.789 Y50.951
X82.098 Y51.212
X82.362 Y51.519
X83.265 Y52.762
G3 X82.904 Y54.537 I-1.053 J0.71
G1 X78.568 Y57.352
G3 X76.876 Y57.068 I-0.692 J-1.065
G1 X75.99 Y55.849
X75.902 Y55.714
X75.827 Y55.584
X75.76 Y55.45
X75.7 Y55.311
X75.644 Y55.155
X75.593 Y54.989
X75.55 Y54.813
X75.513 Y54.622
X75.486 Y54.417
X75.469 Y54.203
X75.463 Y53.98
X75.47 Y53.746
X75.491 Y53.503
X75.526 Y53.251
X75.575 Y52.996
X75.64 Y52.738
X75.721 Y52.479
X75.817 Y52.218
X75.93 Y51.958
X76.058 Y51.701
X76.203 Y51.446
X76.363 Y51.198
X76.538 Y50.956
X76.709 Y50.744
X76.9 Y50.533
X77.094 Y50.34
X77.283 Y50.172
X77.497 Y50.001
X77.702 Y49.854
X77.909 Y49.723
X78.136 Y49.596
X78.348 Y49.492
X78.77 Y49.353
X79.21 Y49.286
X79.655 Y49.294
X80.092 Y49.376
X80.509 Y49.53
X80.895 Y49.752
X81.238 Y50.035
X81.529 Y50.372
X82.362 Y51.519
G3 X82.007 Y53.291 I-1.053 J0.71
G1 X77.688 Y56.129
G3 X75.99 Y55.849 I-0.697 J-1.061
G1 X75.108 Y54.635
X75.007 Y54.481
X74.932 Y54.351
X74.865 Y54.216
X74.806 Y54.077
X74.749 Y53.922
X74.698 Y53.755
X74.655 Y53.579
X74.618 Y53.389
X74.591 Y53.183
X74.574 Y52.969
X74.568 Y52.746
X74.575 Y52.512
X74.596 Y52.268
X74.63 Y52.017
X74.68 Y51.761
X74.745 Y51.503
X74.825 Y51.243
X74.922 Y50.982
X75.035 Y50.722
X75.163 Y50.465
X75.308 Y50.21
X75.467 Y49.962
X75.624 Y49.745
X75.803 Y49.524
X75.987 Y49.32
X76.165 Y49.143
X76.37 Y48.961
X76.572 Y48.799
X76.768 Y48.66
X76.991 Y48.518
X77.207 Y48.397
X77.415 Y48.294
X77.652 Y48.193
X78.05 Y48.084
X78.461 Y48.04
X78.874 Y48.063
X79.278 Y48.151
X79.662 Y48.304
X80.016 Y48.516
X80.332 Y48.782
X80.601 Y49.096
X81.529 Y50.372
G3 X81.156 Y52.155 I-1.053 J0.71
G1 X76.789 Y54.926
G3 X75.108 Y54.635 I-0.68 J-1.072
G1 X74.191 Y53.373
X74.109 Y53.247
X74.034 Y53.117
X73.967 Y52.983
X73.908 Y52.843
X73.851 Y52.688
X73.8 Y52.521
X73.757 Y52.344
X73.721 Y52.153
X73.693 Y51.947
X73.676 Y51.732
X73.671 Y51.508
X73.678 Y51.277
X73.699 Y51.034
X73.733 Y50.784
X73.783 Y50.531
X73.848 Y50.275
X73.928 Y50.017
X74.024 Y49.758
X74.135 Y49.502
X74.263 Y49.247
X74.407 Y48.995
X74.565 Y48.749
X74.739 Y48.508
X74.909 Y48.299
X75.101 Y48.086
X75.294 Y47.895
X75.483 Y47.727
X75.697 Y47.556
X75.902 Y47.41
X76.11 Y47.278
X76.337 Y47.151
X76.55 Y47.047
X76.774 Y46.951
X77.169 Y46.843
X77.575 Y46.8
X77.984 Y46.823
X78.383 Y46.911
X78.763 Y47.062
X79.114 Y47.272
X79.427 Y47.536
X79.693 Y47.846
X80.601 Y49.096
G3 X80.233 Y50.876 I-1.053 J0.71
G1 X75.876 Y53.661
G3 X74.191 Y53.373 I-0.684 J-1.07
G1 X73.312 Y52.163
X73.215 Y52.014
X73.14 Y51.885
X73.073 Y51.75
X73.014 Y51.612
X72.957 Y51.457
X72.907 Y51.291
X72.863 Y51.115
X72.827 Y50.925
X72.8 Y50.721
X72.783 Y50.507
X72.778 Y50.285
X72.785 Y50.053
X72.805 Y49.811
X72.84 Y49.56
X72.889 Y49.306
X72.954 Y49.049
X73.034 Y48.79
X73.13 Y48.531
X73.242 Y48.272
X73.37 Y48.015
X73.515 Y47.762
X73.674 Y47.514
X73.849 Y47.272
X74.02 Y47.062
X74.211 Y46.85
X74.405 Y46.657
X74.594 Y46.489
X74.808 Y46.318
X75.013 Y46.172
X75.22 Y46.04
X75.447 Y45.913
X75.66 Y45.808
X75.724 Y45.781
X76.135 Y45.646
X76.562 Y45.581
X76.994 Y45.589
X77.419 Y45.668
X77.824 Y45.818
X78.198 Y46.034
X78.532 Y46.309
X78.814 Y46.636
X79.693 Y47.846
G3 X79.335 Y49.62 I-1.053 J0.71
G1 X75.007 Y52.445
G3 X73.312 Y52.163 I-0.694 J-1.063
G1 X72.441 Y50.965
X72.323 Y50.783
X72.248 Y50.653
X72.181 Y50.519
X72.122 Y50.38
X72.065 Y50.226
X72.014 Y50.059
X71.971 Y49.883
X71.935 Y49.694
X71.908 Y49.489
X71.891 Y49.275
X71.885 Y49.053
X71.892 Y48.819
X71.913 Y48.577
X71.947 Y48.326
X71.997 Y48.071
X72.062 Y47.813
X72.142 Y47.554
X72.239 Y47.294
X72.351 Y47.035
X72.479 Y46.778
X72.624 Y46.524
X72.784 Y46.276
X72.946 Y46.051
X73.126 Y45.829
X73.315 Y45.62
X73.495 Y45.44
X73.701 Y45.257
X73.906 Y45.094
X74.103 Y44.953
X74.327 Y44.811
X74.543 Y44.69
X74.752 Y44.588
X74.988 Y44.487
X75.381 Y44.379
X75.787 Y44.336
X76.195 Y44.358
X76.593 Y44.446
X76.973 Y44.597
X77.323 Y44.806
X77.635 Y45.069
X77.901 Y45.379
X78.814 Y46.636
G3 X78.458 Y48.408 I-1.053 J0.71
G1 X74.139 Y51.244
G3 X72.441 Y50.965 I-0.697 J-1.062
G1 X71.509 Y49.681
X71.427 Y49.556
X71.352 Y49.426
X71.285 Y49.291
X71.226 Y49.152
X71.169 Y48.997
X71.118 Y48.83
X71.075 Y48.653
X71.039 Y48.463
X71.012 Y48.257
X70.995 Y48.042
X70.989 Y47.819
X70.996 Y47.587
X71.017 Y47.344
X71.052 Y47.093
X71.101 Y46.839
X71.166 Y46.582
X71.247 Y46.323
X71.343 Y46.063
X71.455 Y45.806
X71.584 Y45.548
X71.728 Y45.295
X71.887 Y45.048
X72.062 Y44.806
X72.233 Y44.596
X72.425 Y44.383
X72.619 Y44.191
X72.808 Y44.023
X73.022 Y43.852
X73.227 Y43.706
X73.435 Y43.574
X73.662 Y43.447
X73.874 Y43.343
X74.098 Y43.248
X74.49 Y43.141
X74.894 Y43.098
X75.3 Y43.12
X75.697 Y43.208
X76.074 Y43.358
X76.423 Y43.566
X76.734 Y43.828
X76.998 Y44.137
X77.901 Y45.379
G3 X77.539 Y47.155 I-1.053 J0.71
G1 X73.2 Y49.965
G3 X71.509 Y49.681 I-0.69 J-1.066
G1 X70.601 Y48.431
X70.519 Y48.306
X70.445 Y48.175
X70.38 Y48.04
X70.321 Y47.899
X70.266 Y47.743
X70.216 Y47.574
X70.173 Y47.394
X70.139 Y47.203
X70.113 Y46.997
X70.098 Y46.78
X70.094 Y46.554
X70.103 Y46.32
X70.126 Y46.077
X70.163 Y45.825
X70.215 Y45.568
X70.283 Y45.309
X70.366 Y45.049
X70.465 Y44.788
X70.58 Y44.529
X70.711 Y44.273
X70.858 Y44.02
X71.02 Y43.773
X71.196 Y43.534
X71.368 Y43.326
X71.563 Y43.113
X71.755 Y42.926
X71.947 Y42.758
X72.162 Y42.589
X72.365 Y42.447
X72.578 Y42.315
X72.802 Y42.192
X73.012 Y42.091
X73.241 Y41.996
X73.626 Y41.894
X74.023 Y41.854
X74.421 Y41.879
X74.81 Y41.966
X75.18 Y42.115
X75.522 Y42.32
X75.826 Y42.578
X76.086 Y42.881
X76.998 Y44.137
G3 X76.634 Y45.914 I-1.053 J0.71
G1 X72.29 Y48.717
G3 X70.601 Y48.431 I-0.689 J-1.067
G1 X69.714 Y47.21
X69.632 Y47.085
X69.557 Y46.954
X69.491 Y46.82
X69.431 Y46.678
X69.375 Y46.522
X69.325 Y46.355
X69.282 Y46.178
X69.246 Y45.985
X69.219 Y45.779
X69.203 Y45.565
X69.199 Y45.341
X69.207 Y45.105
X69.228 Y44.861
X69.264 Y44.609
X69.315 Y44.354
X69.381 Y44.096
X69.463 Y43.837
X69.561 Y43.575
X69.675 Y43.315
X69.805 Y43.058
X69.951 Y42.803
X70.113 Y42.555
X70.289 Y42.314
X70.463 Y42.101
X70.654 Y41.891
X70.85 Y41.698
X71.04 Y41.53
X71.254 Y41.36
X71.46 Y41.215
X71.668 Y41.084
X71.894 Y40.959
X72.106 Y40.855
X72.33 Y40.761
X72.716 Y40.657
X73.115 Y40.616
X73.514 Y40.639
X73.905 Y40.726
X74.277 Y40.875
X74.62 Y41.08
X74.926 Y41.339
X75.186 Y41.643
X76.086 Y42.881
G3 X75.73 Y44.652 I-1.053 J0.71
G1 X71.412 Y47.49
G3 X69.714 Y47.21 I-0.697 J-1.061
G1 X68.864 Y46.041
X68.743 Y45.855
X68.668 Y45.725
X68.601 Y45.591
X68.541 Y45.451
X68.485 Y45.296
X68.434 Y45.13
X68.391 Y44.954
X68.354 Y44.762
X68.327 Y44.557
X68.31 Y44.343
X68.305 Y44.12
X68.312 Y43.885
X68.332 Y43.641
X68.367 Y43.389
X68.417 Y43.134
X68.482 Y42.875
X68.563 Y42.616
X68.66 Y42.354
X68.773 Y42.094
X68.902 Y41.836
X69.047 Y41.581
X69.208 Y41.332
X69.383 Y41.089
X69.555 Y40.876
X69.746 Y40.665
X69.941 Y40.472
X70.13 Y40.304
X70.344 Y40.133
X70.549 Y39.986
X70.756 Y39.856
X70.982 Y39.729
X71.194 Y39.625
X71.21 Y39.618
X71.627 Y39.481
X72.06 Y39.415
X72.499 Y39.423
X72.93 Y39.504
X73.341 Y39.656
X73.721 Y39.875
X74.06 Y40.154
X74.346 Y40.486
X75.186 Y41.643
G3 X74.848 Y43.402 I-1.053 J0.71
G1 X70.58 Y46.309
G3 X68.864 Y46.041 I-0.715 J-1.05
G1 X67.913 Y44.732
X67.831 Y44.607
X67.758 Y44.476
X67.693 Y44.341
X67.634 Y44.2
X67.578 Y44.043
X67.528 Y43.872
X67.485 Y43.692
X67.45 Y43.5
X67.425 Y43.293
X67.409 Y43.075
X67.406 Y42.848
X67.415 Y42.612
X67.438 Y42.368
X67.475 Y42.115
X67.528 Y41.857
X67.596 Y41.597
X67.68 Y41.335
X67.779 Y41.074
X67.895 Y40.814
X68.026 Y40.557
X68.174 Y40.303
X68.335 Y40.057
X68.494 Y39.842
X68.678 Y39.619
X68.862 Y39.418
X69.043 Y39.242
X69.251 Y39.06
X69.451 Y38.903
X69.65 Y38.764
X69.875 Y38.624
X70.088 Y38.507
X70.3 Y38.406
X70.724 Y38.27
X71.166 Y38.206
X71.611 Y38.217
X72.049 Y38.302
X72.466 Y38.458
X72.852 Y38.681
X73.195 Y38.966
X73.487 Y39.303
X74.346 Y40.486
G3 X73.969 Y42.272 I-1.053 J0.71
G1 X69.59 Y45.026
G3 X67.913 Y44.732 I-0.676 J-1.075
G1 X67.038 Y43.527
X66.948 Y43.39
X66.873 Y43.26
X66.806 Y43.126
X66.745 Y42.984
X66.689 Y42.828
X66.638 Y42.663
X66.595 Y42.485
X66.558 Y42.292
X66.531 Y42.087
X66.514 Y41.874
X66.508 Y41.65
X66.515 Y41.416
X66.536 Y41.172
X66.571 Y40.922
X66.62 Y40.669
X66.684 Y40.414
X66.764 Y40.155
X66.861 Y39.896
X66.973 Y39.638
X67.101 Y39.381
X67.245 Y39.128
X67.404 Y38.881
X67.562 Y38.662
X67.738 Y38.446
X67.924 Y38.239
X68.103 Y38.062
X68.305 Y37.882
X68.51 Y37.718
X68.705 Y37.579
X68.928 Y37.438
X69.146 Y37.316
X69.354 Y37.214
X69.59 Y37.113
X69.991 Y37.003
X70.404 Y36.959
X70.819 Y36.982
X71.224 Y37.072
X71.611 Y37.225
X71.967 Y37.438
X72.285 Y37.706
X72.555 Y38.021
X73.487 Y39.303
G3 X73.104 Y41.092 I-1.053 J0.71
G1 X68.709 Y43.824
G3 X67.038 Y43.527 I-0.67 J-1.079
G1 X66.17 Y42.333
X66.052 Y42.152
X65.977 Y42.022
X65.91 Y41.888
X65.851 Y41.749
X65.794 Y41.594
X65.744 Y41.428
X65.7 Y41.252
X65.664 Y41.062
X65.637 Y40.858
X65.62 Y40.644
X65.614 Y40.421
X65.621 Y40.19
X65.641 Y39.949
X65.676 Y39.7
X65.725 Y39.448
X65.789 Y39.193
X65.869 Y38.936
X65.964 Y38.678
X66.075 Y38.423
X66.202 Y38.168
X66.346 Y37.916
X66.504 Y37.67
X66.677 Y37.43
X66.847 Y37.22
X67.038 Y37.008
X67.232 Y36.817
X67.42 Y36.648
X67.635 Y36.477
X67.84 Y36.331
X68.047 Y36.199
X68.275 Y36.071
X68.488 Y35.967
X68.712 Y35.871
X69.109 Y35.763
X69.517 Y35.719
X69.928 Y35.742
X70.329 Y35.83
X70.711 Y35.981
X71.064 Y36.192
X71.378 Y36.457
X71.646 Y36.769
X72.555 Y38.021
G3 X72.195 Y39.796 I-1.053 J0.71
G1 X67.864 Y42.616
G3 X66.17 Y42.333 I-0.693 J-1.064
G1 X65.248 Y41.064
X65.158 Y40.926
X65.083 Y40.797
X65.016 Y40.662
X64.957 Y40.524
X64.901 Y40.37
X64.85 Y40.203
X64.807 Y40.028
X64.771 Y39.839
X64.744 Y39.635
X64.727 Y39.421
X64.721 Y39.199
X64.728 Y38.967
X64.749 Y38.726
X64.783 Y38.476
X64.833 Y38.222
X64.897 Y37.965
X64.977 Y37.707
X65.074 Y37.448
X65.186 Y37.189
X65.314 Y36.933
X65.458 Y36.68
X65.617 Y36.432
X65.792 Y36.191
X65.962 Y35.98
X66.154 Y35.768
X66.347 Y35.576
X66.536 Y35.408
X66.75 Y35.236
X66.955 Y35.09
X67.163 Y34.959
X67.39 Y34.831
X67.602 Y34.727
X67.622 Y34.719
X68.043 Y34.58
X68.482 Y34.513
X68.925 Y34.521
X69.361 Y34.603
X69.777 Y34.757
X70.161 Y34.978
X70.503 Y35.261
X70.793 Y35.596
X71.646 Y36.769
G3 X71.281 Y38.547 I-1.053 J0.71
G1 X66.937 Y41.349
G3 X65.248 Y41.064 I-0.688 J-1.067
G1 X64.373 Y39.86
X64.267 Y39.697
X64.192 Y39.567
X64.125 Y39.433
X64.066 Y39.294
X64.009 Y39.14
X63.959 Y38.974
X63.916 Y38.798
X63.88 Y38.609
X63.852 Y38.404
X63.835 Y38.19
X63.83 Y37.968
X63.837 Y37.735
X63.857 Y37.493
X63.892 Y37.242
X63.942 Y36.987
X64.006 Y36.73
X64.087 Y36.471
X64.183 Y36.211
X64.295 Y35.952
X64.424 Y35.695
X64.568 Y35.441
X64.728 Y35.194
X64.886 Y34.975
X65.065 Y34.753
X65.251 Y34.548
X65.43 Y34.37
X65.635 Y34.188
X65.838 Y34.026
X66.034 Y33.886
X66.258 Y33.744
X66.474 Y33.623
X66.683 Y33.52
X66.92 Y33.419
X67.318 Y33.31
X67.729 Y33.266
X68.141 Y33.289
X68.544 Y33.378
X68.928 Y33.53
X69.283 Y33.742
X69.598 Y34.008
X69.867 Y34.322
X70.793 Y35.596
G3 X70.421 Y37.379 I-1.053 J0.71
G1 X66.055 Y40.15
G3 X64.373 Y39.86 I-0.681 J-1.072
G1 X63.488 Y38.642
X63.375 Y38.468
X63.299 Y38.338
X63.233 Y38.203
X63.173 Y38.065
X63.117 Y37.91
X63.066 Y37.743
X63.023 Y37.567
X62.987 Y37.377
X62.959 Y37.173
X62.942 Y36.958
X62.937 Y36.736
X62.943 Y36.505
X62.964 Y36.263
X62.998 Y36.013
X63.047 Y35.761
X63.112 Y35.505
X63.192 Y35.247
X63.287 Y34.989
X63.398 Y34.732
X63.526 Y34.477
X63.67 Y34.225
X63.828 Y33.978
X64.002 Y33.738
X64.172 Y33.528
X64.364 Y33.316
X64.557 Y33.123
X64.746 Y32.955
X64.96 Y32.784
X65.165 Y32.638
X65.373 Y32.506
X65.6 Y32.378
X65.813 Y32.274
X66.037 Y32.179
X66.432 Y32.07
X66.839 Y32.027
X67.248 Y32.049
X67.648 Y32.137
X68.029 Y32.288
X68.381 Y32.499
X68.694 Y32.763
X68.96 Y33.073
X69.867 Y34.322
G3 X69.509 Y36.095 I-1.053 J0.71
G1 X65.184 Y38.923
G3 X63.488 Y38.642 I-0.695 J-1.063
G1 X62.591 Y37.407
X62.481 Y37.238
X62.406 Y37.108
X62.339 Y36.974
X62.28 Y36.836
X62.223 Y36.681
X62.173 Y36.515
X62.13 Y36.339
X62.094 Y36.15
X62.066 Y35.946
X62.049 Y35.732
X62.044 Y35.51
X62.051 Y35.278
X62.071 Y35.036
X62.106 Y34.786
X62.155 Y34.531
X62.22 Y34.274
X62.3 Y34.016
X62.396 Y33.756
X62.509 Y33.498
X62.637 Y33.241
X62.781 Y32.988
X62.941 Y32.74
X63.115 Y32.498
X63.285 Y32.288
X63.477 Y32.076
X63.671 Y31.883
X63.859 Y31.715
X64.074 Y31.544
X64.279 Y31.398
X64.486 Y31.267
X64.713 Y31.139
X64.925 Y31.035
X65.149 Y30.94
X65.542 Y30.832
X65.947 Y30.789
X66.354 Y30.811
X66.752 Y30.899
X67.131 Y31.049
X67.48 Y31.258
X67.792 Y31.521
X68.057 Y31.83
X68.96 Y33.073
G3 X69.152 Y33.53 I-1.053 J0.71
X68.606 Y34.844 I-1.244 J0.253
G1 X64.29 Y37.686
G3 X62.591 Y37.407 I-0.698 J-1.061
G1 X61.652 Y36.115
X61.57 Y35.989
X61.497 Y35.858
X61.432 Y35.723
X61.373 Y35.582
X61.318 Y35.426
X61.268 Y35.255
X61.226 Y35.075
X61.192 Y34.884
X61.167 Y34.678
X61.152 Y34.46
X61.149 Y34.233
X61.159 Y33.999
X61.182 Y33.756
X61.22 Y33.504
X61.273 Y33.247
X61.341 Y32.988
X61.425 Y32.727
X61.525 Y32.467
X61.641 Y32.208
X61.772 Y31.952
X61.92 Y31.699
X62.082 Y31.453
X62.258 Y31.215
X62.429 Y31.008
X62.626 Y30.796
X62.817 Y30.61
X63.01 Y30.441
X63.225 Y30.274
X63.427 Y30.133
X63.642 Y30
X63.865 Y29.878
X64.075 Y29.778
X64.305 Y29.683
X64.69 Y29.582
X65.085 Y29.543
X65.482 Y29.568
X65.869 Y29.656
X66.238 Y29.805
X66.578 Y30.01
X66.882 Y30.267
X67.14 Y30.568
X68.057 Y31.83
G3 X67.69 Y33.609 I-1.053 J0.71
G1 X63.339 Y36.401
G3 X61.652 Y36.115 I-0.686 J-1.069
G1 X60.778 Y34.912
X60.693 Y34.781
X60.618 Y34.651
X60.551 Y34.516
X60.49 Y34.375
X60.434 Y34.22
X60.384 Y34.055
X60.34 Y33.878
X60.304 Y33.685
X60.277 Y33.481
X60.26 Y33.269
X60.255 Y33.045
X60.262 Y32.809
X60.282 Y32.565
X60.317 Y32.315
X60.367 Y32.061
X60.432 Y31.803
X60.513 Y31.544
X60.61 Y31.282
X60.723 Y31.022
X60.852 Y30.764
X60.997 Y30.509
X61.157 Y30.261
X61.332 Y30.019
X61.508 Y29.803
X61.696 Y29.595
X61.893 Y29.399
X62.083 Y29.23
X62.296 Y29.06
X62.504 Y28.912
X62.709 Y28.782
X62.936 Y28.655
X63.15 Y28.55
X63.57 Y28.412
X64.007 Y28.346
X64.449 Y28.354
X64.883 Y28.436
X65.298 Y28.59
X65.681 Y28.81
X66.022 Y29.092
X66.311 Y29.426
X67.14 Y30.568
G3 X66.788 Y32.338 I-1.053 J0.71
G1 X62.48 Y35.189
G3 X60.778 Y34.912 I-0.701 J-1.059
G1 X59.893 Y33.693
X59.798 Y33.548
X59.723 Y33.418
X59.656 Y33.284
X59.597 Y33.145
X59.54 Y32.99
X59.489 Y32.823
X59.446 Y32.647
X59.41 Y32.456
X59.382 Y32.251
X59.365 Y32.036
X59.359 Y31.813
X59.366 Y31.578
X59.387 Y31.334
X59.422 Y31.082
X59.471 Y30.827
X59.537 Y30.568
X59.617 Y30.308
X59.714 Y30.047
X59.827 Y29.786
X59.956 Y29.528
X60.101 Y29.273
X60.261 Y29.024
X60.418 Y28.806
X60.597 Y28.585
X60.782 Y28.38
X60.96 Y28.203
X61.165 Y28.021
X61.367 Y27.859
X61.563 Y27.72
X61.786 Y27.578
X62.002 Y27.457
X62.21 Y27.355
X62.446 Y27.254
X62.844 Y27.145
X63.253 Y27.101
X63.664 Y27.124
X64.067 Y27.212
X64.45 Y27.364
X64.803 Y27.576
X65.118 Y27.841
X65.386 Y28.154
X66.311 Y29.426
G3 X65.939 Y31.208 I-1.053 J0.71
G1 X61.575 Y33.983
G3 X59.893 Y33.693 I-0.681 J-1.072
G1 X58.979 Y32.436
X58.897 Y32.31
X58.823 Y32.18
X58.756 Y32.045
X58.697 Y31.905
X58.64 Y31.749
X58.589 Y31.581
X58.546 Y31.404
X58.51 Y31.212
X58.483 Y31.006
X58.467 Y30.79
X58.462 Y30.566
X58.469 Y30.333
X58.49 Y30.091
X58.526 Y29.84
X58.576 Y29.586
X58.641 Y29.329
X58.722 Y29.071
X58.818 Y28.812
X58.93 Y28.556
X59.059 Y28.3
X59.203 Y28.048
X59.362 Y27.802
X59.537 Y27.562
X59.707 Y27.353
X59.9 Y27.141
X60.092 Y26.95
X60.282 Y26.782
X60.497 Y26.611
X60.701 Y26.467
X60.91 Y26.335
X61.137 Y26.208
X61.348 Y26.105
X61.574 Y26.01
X61.967 Y25.903
X62.371 Y25.861
X62.777 Y25.884
X63.174 Y25.972
X63.552 Y26.122
X63.901 Y26.331
X64.212 Y26.593
X64.477 Y26.902
X65.386 Y28.154
G3 X65.018 Y29.933 I-1.053 J0.71
G1 X60.665 Y32.723
G3 X58.979 Y32.436 I-0.685 J-1.069
G1 X58.086 Y31.206
X58.004 Y31.08
X57.929 Y30.95
X57.862 Y30.816
X57.802 Y30.676
X57.746 Y30.521
X57.695 Y30.354
X57.652 Y30.178
X57.616 Y29.988
X57.589 Y29.783
X57.572 Y29.569
X57.567 Y29.347
X57.574 Y29.113
X57.595 Y28.871
X57.63 Y28.62
X57.679 Y28.365
X57.744 Y28.108
X57.825 Y27.85
X57.921 Y27.589
X58.034 Y27.33
X58.163 Y27.074
X58.308 Y26.82
X58.467 Y26.572
X58.642 Y26.33
X58.814 Y26.119
X59.005 Y25.907
X59.199 Y25.715
X59.388 Y25.547
X59.603 Y25.376
X59.808 Y25.23
X60.015 Y25.098
X60.242 Y24.971
X60.455 Y24.867
X60.514 Y24.842
X60.924 Y24.707
X61.351 Y24.643
X61.783 Y24.651
X62.207 Y24.731
X62.613 Y24.881
X62.987 Y25.096
X63.32 Y25.372
X63.602 Y25.698
X64.477 Y26.902
G3 X64.115 Y28.678 I-1.053 J0.71
G1 X59.777 Y31.489
G3 X58.086 Y31.206 I-0.691 J-1.066
G1 X57.203 Y29.991
X57.111 Y29.85
X57.036 Y29.72
X56.969 Y29.586
X56.91 Y29.447
X56.853 Y29.292
X56.803 Y29.126
X56.759 Y28.95
X56.723 Y28.76
X56.696 Y28.555
X56.679 Y28.341
X56.673 Y28.118
X56.68 Y27.884
X56.701 Y27.641
X56.735 Y27.39
X56.785 Y27.135
X56.85 Y26.877
X56.93 Y26.618
X57.027 Y26.357
X57.14 Y26.097
X57.268 Y25.84
X57.413 Y25.586
X57.573 Y25.337
X57.735 Y25.113
X57.914 Y24.891
X58.103 Y24.682
X58.284 Y24.502
X58.49 Y24.319
X58.694 Y24.156
X58.891 Y24.016
X59.115 Y23.874
X59.331 Y23.753
X59.54 Y23.65
X59.967 Y23.509
X60.413 Y23.441
X60.864 Y23.449
X61.306 Y23.533
X61.729 Y23.689
X62.12 Y23.914
X62.467 Y24.201
X62.762 Y24.542
X63.602 Y25.698
G3 X63.237 Y27.476 I-1.053 J0.71
G1 X58.891 Y30.276
G3 X57.203 Y29.991 I-0.688 J-1.068
G1 X56.297 Y28.744
X56.215 Y28.618
X56.14 Y28.488
X56.073 Y28.354
X56.014 Y28.215
X55.957 Y28.059
X55.907 Y27.892
X55.863 Y27.716
X55.827 Y27.525
X55.8 Y27.32
X55.783 Y27.105
X55.778 Y26.881
X55.785 Y26.649
X55.805 Y26.406
X55.84 Y26.155
X55.89 Y25.901
X55.955 Y25.644
X56.035 Y25.385
X56.132 Y25.125
X56.244 Y24.867
X56.372 Y24.61
X56.517 Y24.357
X56.676 Y24.111
X56.831 Y23.895
X57.01 Y23.674
X57.194 Y23.471
X57.372 Y23.295
X57.577 Y23.113
X57.779 Y22.952
X57.974 Y22.812
X58.199 Y22.67
X58.414 Y22.55
X58.623 Y22.447
X58.861 Y22.346
X59.262 Y22.236
X59.675 Y22.193
X60.09 Y22.216
X60.496 Y22.305
X60.882 Y22.458
X61.239 Y22.672
X61.556 Y22.94
X61.827 Y23.255
X62.762 Y24.542
G3 X62.374 Y26.334 I-1.053 J0.71
G1 X57.963 Y29.044
G3 X56.297 Y28.744 I-0.665 J-1.082
G1 X55.416 Y27.531
X55.321 Y27.386
X55.246 Y27.257
X55.18 Y27.122
X55.12 Y26.983
X55.063 Y26.828
X55.013 Y26.662
X54.969 Y26.486
X54.933 Y26.296
X54.906 Y26.091
X54.889 Y25.877
X54.883 Y25.654
X54.89 Y25.424
X54.91 Y25.182
X54.945 Y24.933
X54.994 Y24.681
X55.058 Y24.426
X55.138 Y24.169
X55.233 Y23.912
X55.344 Y23.656
X55.471 Y23.401
X55.615 Y23.15
X55.772 Y22.904
X55.946 Y22.664
X56.116 Y22.454
X56.307 Y22.242
X56.501 Y22.05
X56.689 Y21.882
X56.904 Y21.711
X57.109 Y21.564
X57.317 Y21.433
X57.545 Y21.305
X57.758 Y21.2
X57.982 Y21.104
X58.378 Y20.996
X58.787 Y20.952
X59.198 Y20.975
X59.6 Y21.063
X59.982 Y21.215
X60.335 Y21.426
X60.649 Y21.691
X60.917 Y22.003
X61.827 Y23.255
G3 X61.458 Y25.036 I-1.053 J0.71
G1 X57.101 Y27.82
G3 X55.416 Y27.531 I-0.684 J-1.07
G1 X54.536 Y26.32
X54.428 Y26.155
X54.353 Y26.025
X54.287 Y25.891
X54.227 Y25.753
X54.171 Y25.599
X54.121 Y25.433
X54.077 Y25.257
X54.042 Y25.069
X54.015 Y24.865
X53.998 Y24.652
X53.992 Y24.43
X53.999 Y24.198
X54.019 Y23.957
X54.054 Y23.707
X54.104 Y23.453
X54.168 Y23.196
X54.248 Y22.938
X54.344 Y22.679
X54.456 Y22.421
X54.584 Y22.165
X54.729 Y21.912
X54.888 Y21.664
X55.062 Y21.423
X55.233 Y21.213
X55.424 Y21
X55.618 Y20.808
X55.807 Y20.64
X56.021 Y20.469
X56.226 Y20.323
X56.434 Y20.191
X56.661 Y20.064
X56.873 Y19.96
X57.097 Y19.864
X57.491 Y19.756
X57.897 Y19.713
X58.305 Y19.736
X58.704 Y19.823
X59.083 Y19.974
X59.434 Y20.184
X59.746 Y20.447
X60.012 Y20.757
X60.917 Y22.003
G3 X60.559 Y23.777 I-1.053 J0.71
G1 X56.231 Y26.602
G3 X54.536 Y26.32 I-0.694 J-1.063
G1 X53.641 Y25.088
X53.537 Y24.93
X53.462 Y24.8
X53.396 Y24.665
X53.336 Y24.527
X53.28 Y24.373
X53.229 Y24.206
X53.186 Y24.031
X53.15 Y23.841
X53.123 Y23.637
X53.106 Y23.423
X53.1 Y23.2
X53.107 Y22.967
X53.128 Y22.725
X53.162 Y22.475
X53.212 Y22.22
X53.277 Y21.962
X53.357 Y21.704
X53.365 Y21.684
X53.566 Y21.243
X53.829 Y20.837
X54.149 Y20.474
X54.519 Y20.161
G3 X56.477 Y21.451 I0.71 J1.053
G1 X55.889 Y24.543
G3 X53.641 Y25.088 I-1.248 J-0.237
G1 X52.758 Y23.872
X52.645 Y23.7
X52.494 Y23.373
X52.406 Y23.024
X52.382 Y22.665
X52.424 Y22.308
X52.531 Y21.964
X52.698 Y21.646
X52.921 Y21.363
X53.192 Y21.126
G3 X54.553 Y20.824 I1.064 J1.577
X53.959 Y24.58 I-0.297 J1.878
X52.758 Y23.872 I0.297 J-1.878
G1 X52.425 Y23.414
X52.25 Y23.147
X52.2 Y23.034
X52.142 Y22.843
X52.115 Y22.653
X52.117 Y22.463
X52.146 Y22.272
X52.188 Y22.128
X52.25 Y21.984
X52.302 Y21.892
X52.362 Y21.802
X52.435 Y21.712
X52.533 Y21.613
X52.631 Y21.533
X55.805 Y19.227
X56.099 Y19.035
X56.264 Y18.94
X56.645 Y18.786
X57.048 Y18.703
X57.459 Y18.691
X57.866 Y18.752
X58.255 Y18.883
X58.616 Y19.08
X58.936 Y19.338
X59.206 Y19.648
G3 X58.048 Y21.624 I-1.053 J0.71
G1 X56.481 Y21.493
G3 X55.805 Y19.227 I0.106 J-1.266
G1 X56.822 Y18.488
X56.856 Y18.466
X57.029 Y18.371
X57.203 Y18.308
X57.393 Y18.27
X57.584 Y18.261
X57.774 Y18.281
X57.965 Y18.331
X58.102 Y18.388
X58.24 Y18.466
X58.346 Y18.542
X58.504 Y18.694
X58.624 Y18.846
X60.012 Y20.757
X60.05 Y20.833 Z40.018
X60.088 Y20.907 Z40.04
X60.123 Y20.977 Z40.076
X60.155 Y21.04 Z40.125
X60.172 Y21.1 Z40.186
X60.185 Y21.149 Z40.258
X60.195 Y21.184 Z40.337
X60.201 Y21.206 Z40.421
X60.203 Y21.214 Z40.509
G0 Z55
X124.313 Y112.205
Z43.78
G1 Z42.51 F849.6
G3 X118.388 Y111.259 Z42.181 I-2.963 J-0.473 F400.3
X124.313 Y112.205 Z41.852 I2.963 J0.473
X118.388 Y111.259 Z41.523 I-2.963 J-0.473
X124.313 Y112.205 Z41.194 I2.963 J0.473
X118.388 Y111.259 Z40.864 I-2.963 J-0.473
X124.313 Y112.205 Z40.535 I2.963 J0.473
X118.388 Y111.259 Z40.206 I-2.963 J-0.473
X124.313 Y112.205 Z39.877 I2.963 J0.473
X118.388 Y111.259 Z39.548 I-2.963 J-0.473
X124.313 Y112.205 Z39.219 I2.963 J0.473
X118.388 Y111.259 Z38.89 I-2.963 J-0.473
X124.313 Y112.205 Z38.561 I2.963 J0.473
X118.388 Y111.259 Z38.231 I-2.963 J-0.473
X124.313 Y112.205 Z37.902 I2.963 J0.473
X118.388 Y111.259 Z37.573 I-2.963 J-0.473
X124.313 Y112.205 Z37.244 I2.963 J0.473
X118.388 Y111.259 Z36.915 I-2.963 J-0.473
X124.313 Y112.205 Z36.586 I2.963 J0.473
X118.388 Y111.259 Z36.257 I-2.963 J-0.473
X124.313 Y112.205 Z35.928 I2.963 J0.473
X118.388 Y111.259 Z35.598 I-2.963 J-0.473
X124.313 Y112.205 Z35.269 I2.963 J0.473
X118.388 Y111.259 Z34.94 I-2.963 J-0.473
X124.313 Y112.205 Z34.611 I2.963 J0.473
X118.388 Y111.259 Z34.282 I-2.963 J-0.473
X124.313 Y112.205 Z33.953 I2.963 J0.473
X118.388 Y111.259 Z33.624 I-2.963 J-0.473
X124.313 Y112.205 Z33.295 I2.963 J0.473
X118.388 Y111.259 Z32.966 I-2.963 J-0.473
X124.313 Y112.205 Z32.636 I2.963 J0.473
X118.388 Y111.259 Z32.307 I-2.963 J-0.473
X124.313 Y112.205 Z31.978 I2.963 J0.473
X118.388 Y111.259 Z31.649 I-2.963 J-0.473
X124.313 Y112.205 Z31.32 I2.963 J0.473
X118.388 Y111.259 Z30.991 I-2.963 J-0.473
X124.313 Y112.205 Z30.662 I2.963 J0.473
X118.388 Y111.259 Z30.333 I-2.963 J-0.473
X124.35 Y111.732 Z30.02 I2.963 J0.473
X118.35 I-3
X124.246 Y110.949 I3
X124.35 Y111.732 I-2.896 J0.783
G1 X124.372 Y113.024 F849.6
X124.379 Y113.104
X124.386 Y113.254
X124.378 Y113.404
X124.358 Y113.553
X124.327 Y113.699
X124.286 Y113.844
X124.235 Y113.985
X124.176 Y114.123
X124.108 Y114.256
X124.033 Y114.386
X123.95 Y114.513
X123.857 Y114.639
X123.755 Y114.763
X123.644 Y114.884
X123.523 Y115.002
X123.393 Y115.116
X123.254 Y115.225
X123.107 Y115.328
X122.951 Y115.425
X122.788 Y115.515
X122.617 Y115.597
X122.439 Y115.671
X122.255 Y115.736
X122.065 Y115.792
X121.87 Y115.838
X121.67 Y115.873
X121.467 Y115.898
X121.007 Y115.897
X120.552 Y115.829
X120.111 Y115.696
X119.694 Y115.501
X119.31 Y115.249
X118.966 Y114.943
X118.669 Y114.592
X117.865 Y113.485
X117.716 Y113.257
X117.629 Y113.106
X117.548 Y112.947
X117.475 Y112.78
X117.409 Y112.607
X117.352 Y112.428
X117.304 Y112.242
X117.266 Y112.052
X117.238 Y111.858
X117.22 Y111.659
X117.213 Y111.458
X117.216 Y111.254
X117.231 Y111.048
X117.257 Y110.842
X117.295 Y110.635
X117.345 Y110.429
X117.405 Y110.225
X117.478 Y110.022
X117.562 Y109.823
X117.657 Y109.627
X117.763 Y109.435
X117.88 Y109.249
X118.008 Y109.068
X118.146 Y108.893
X118.294 Y108.725
X118.451 Y108.565
X118.618 Y108.414
X118.793 Y108.271
X118.976 Y108.137
X119.167 Y108.013
X119.365 Y107.899
X119.569 Y107.796
X119.779 Y107.703
X119.994 Y107.622
X120.214 Y107.553
X120.438 Y107.496
X120.665 Y107.45
X120.894 Y107.417
X121.125 Y107.397
X121.163 Y107.396
X121.623 Y107.412
X122.076 Y107.492
X122.513 Y107.634
X122.927 Y107.836
X123.308 Y108.094
X123.65 Y108.402
X123.946 Y108.754
X124.879 Y110.038
X125.134 Y110.429
X125.274 Y110.672
X125.395 Y110.911
X125.5 Y111.147
X125.589 Y111.383
X125.664 Y111.619
X125.725 Y111.855
X125.779 Y112.316
X125.758 Y112.78
X125.661 Y113.235
X125.493 Y113.668
X125.256 Y114.067
X124.957 Y114.423
X124.605 Y114.726
G3 X122.625 Y113.681 I-0.71 J-1.053
G1 X122.608 Y110.827
G3 X124.879 Y110.038 I1.27 J-0.007
G1 X126.109 Y111.732
X126.199 Y111.87
X126.33 Y112.162
X126.396 Y112.476
X126.397 Y112.797
X126.33 Y113.11
X126.2 Y113.403
X126.011 Y113.663
X125.773 Y113.878
G3 X125.321 Y114.083 I-0.833 J-1.235
X124.709 Y114.114 I-0.381 J-1.441
X125.169 Y111.179 I0.23 J-1.468
X126.109 Y111.732 I-0.23 J1.468
G1 X126.157 Y111.798
X126.365 Y112.113
X126.444 Y112.303
X126.491 Y112.493
X126.507 Y112.684
X126.495 Y112.874
X126.453 Y113.064
X126.378 Y113.255
X126.286 Y113.413
X126.157 Y113.572
X126.093 Y113.635
X125.776 Y113.875
X122.438 Y116.3
X122.224 Y116.44
X121.892 Y116.593
X121.538 Y116.683
X121.173 Y116.707
X120.81 Y116.664
X120.46 Y116.556
X120.137 Y116.386
X119.85 Y116.16
X119.608 Y115.885
G3 X119.286 Y114.467 I1.668 J-1.125
X123.172 Y115.038 I1.943 J0.285
X122.438 Y116.3 I-1.943 J-0.285
G1 X121.914 Y116.681
X121.75 Y116.797
X121.586 Y116.885
X121.395 Y116.952
X121.205 Y116.987
X121.014 Y116.992
X120.824 Y116.971
X120.633 Y116.919
