%
(1001)
(Z0 stock bottom)
(T1  D=12.7 CR=0 - ZMIN=10 - flat end mill)
G90 G94
G17
G21

(2D Contour7 5)
M9
T1 M6
S6000 M3
G54
M9
G0 X420.594 Y189.96
Z65
Z55
G1 Z54 F849.6
Z53.77
G19 G2 Y188.69 Z52.5 J-1.27
G1 Y187.42
G17 G3 X421.864 Y186.15 I1.27
G1 X579.363 Z47 F400.3
X1014.22 F849.6
G2 X1019.357 Y183.532 J-6.35
G1 X1149.847 Y3.932
G2 X1144.71 Y-6.15 I-5.137 J-3.732
G1 X596.234
G2 X590.439 Y2.796 J6.35
G1 X590.75 Y3.49
G2 X590.833 Y3.668 I5.795 J-2.596
G1 X591.157 Y4.335
G2 X591.236 Y4.494 I5.712 J-2.773
G1 X591.57 Y5.135
G2 X591.664 Y5.308 I5.633 J-2.932
G1 X592.01 Y5.925
G2 X592.097 Y6.076 I5.539 J-3.104
G1 X592.452 Y6.671
G2 X592.548 Y6.827 I5.452 J-3.255
G1 X592.913 Y7.4
G2 X593.009 Y7.546 I5.356 J-3.411
G1 X593.383 Y8.099
G2 X593.482 Y8.241 I5.26 J-3.558
G1 X593.865 Y8.776
G2 X594.008 Y8.966 I5.161 J-3.7
G1 X594.797 Y9.984
G2 X594.979 Y10.208 I5.018 J-3.891
G1 X595.795 Y11.167
G2 X595.961 Y11.355 I4.836 J-4.115
G1 X596.801 Y12.267
G2 X596.937 Y12.409 I4.67 J-4.303
G1 X597.795 Y13.284
G2 X597.934 Y13.421 I4.534 J-4.446
G1 X599.69 Y15.106
G2 X599.746 Y15.159 I4.396 J-4.583
G1 X601.493 Y16.794
X603.17 Y18.409
X603.927 Y19.178
X604.666 Y19.965
X605.373 Y20.766
X606.058 Y21.595
X606.728 Y22.463
X607.379 Y23.365
X608.009 Y24.302
X608.618 Y25.274
X609.201 Y26.277
X609.76 Y27.317
X610.296 Y28.395
X610.807 Y29.507
X611.289 Y30.648
X611.741 Y31.81
X612.158 Y32.987
X612.541 Y34.176
X612.884 Y35.364
X613.187 Y36.548
X613.448 Y37.724
X613.666 Y38.884
X613.839 Y40.019
X613.964 Y41.11
X614.038 Y42.145
X614.062 Y43.116
X614.032 Y44.072
X614.004 Y44.449
X613.959 Y44.858
X613.905 Y45.244
X613.838 Y45.613
X613.762 Y45.965
X613.676 Y46.294
X613.58 Y46.608
X613.477 Y46.901
X613.364 Y47.18
X613.244 Y47.441
X613.116 Y47.689
X612.978 Y47.925
X612.828 Y48.154
X612.663 Y48.381
X612.478 Y48.608
X612.275 Y48.835
X612.052 Y49.06
X611.797 Y49.293
X611.513 Y49.53
X611.2 Y49.766
X610.847 Y50.009
X610.456 Y50.255
X610.026 Y50.502
X609.552 Y50.75
X609.032 Y50.998
X608.467 Y51.244
X607.855 Y51.487
X607.194 Y51.726
X606.484 Y51.959
X605.723 Y52.187
X604.909 Y52.408
X604.042 Y52.622
X603.121 Y52.827
X602.149 Y53.023
X601.124 Y53.21
X600.046 Y53.386
X598.915 Y53.552
X597.732 Y53.707
X596.495 Y53.85
X595.206 Y53.982
X593.864 Y54.102
X592.468 Y54.209
X591.018 Y54.305
X589.515 Y54.388
X587.959 Y54.458
X586.347 Y54.516
X584.681 Y54.561
X582.963 Y54.593
X581.189 Y54.613
X579.363 Y54.619
X577.536 Y54.613
X575.763 Y54.593
X574.044 Y54.561
X572.378 Y54.516
X570.767 Y54.458
X569.209 Y54.388
X567.707 Y54.305
X566.258 Y54.209
X564.862 Y54.102
X563.52 Y53.982
X562.23 Y53.85
X560.994 Y53.707
X559.811 Y53.552
X558.68 Y53.386
X557.602 Y53.21
X556.577 Y53.023
X555.604 Y52.827
X554.685 Y52.622
X553.817 Y52.408
X553.003 Y52.187
X552.24 Y51.959
X551.53 Y51.725
X550.87 Y51.487
X550.258 Y51.244
X549.693 Y50.998
X549.173 Y50.75
X548.699 Y50.502
X548.269 Y50.255
X547.88 Y50.01
X547.528 Y49.768
X547.211 Y49.528
X546.928 Y49.293
X546.677 Y49.063
X546.448 Y48.832
X546.244 Y48.605
X546.065 Y48.384
X545.9 Y48.157
X545.748 Y47.925
X545.608 Y47.685
X545.479 Y47.437
X545.363 Y47.184
X545.251 Y46.906
X545.144 Y46.603
X545.05 Y46.294
X544.964 Y45.965
X544.887 Y45.613
X544.821 Y45.244
X544.766 Y44.858
X544.722 Y44.454
X544.694 Y44.072
X544.664 Y43.116
X544.688 Y42.145
X544.762 Y41.108
X544.887 Y40.017
X545.059 Y38.886
X545.278 Y37.724
X545.538 Y36.548
X545.841 Y35.364
X546.185 Y34.174
X546.567 Y32.989
X546.985 Y31.81
X547.436 Y30.648
X547.919 Y29.507
X548.43 Y28.394
X548.964 Y27.318
X549.524 Y26.279
X550.109 Y25.272
X550.716 Y24.302
X551.347 Y23.365
X551.997 Y22.463
X552.667 Y21.596
X553.354 Y20.764
X554.061 Y19.963
X554.796 Y19.179
X555.555 Y18.41
X557.234 Y16.793
X558.98 Y15.158
G2 X559.034 Y15.106 I-4.341 J-4.635
G1 X560.792 Y13.421
G2 X560.927 Y13.287 I-4.396 J-4.583
G1 X561.786 Y12.412
G2 X561.927 Y12.264 I-4.531 J-4.448
G1 X562.766 Y11.352
G2 X562.928 Y11.17 I-4.672 J-4.3
G1 X563.745 Y10.211
G2 X563.932 Y9.981 I-4.834 J-4.118
G1 X564.72 Y8.963
G2 X564.859 Y8.776 I-5.021 J-3.888
G1 X565.242 Y8.241
G2 X565.342 Y8.099 I-5.161 J-3.7
G1 X565.716 Y7.546
G2 X565.812 Y7.4 I-5.26 J-3.558
G1 X566.177 Y6.827
G2 X566.269 Y6.677 I-5.356 J-3.411
G1 X566.625 Y6.083
G2 X566.72 Y5.918 I-5.448 J-3.262
G1 X567.065 Y5.301
G2 X567.151 Y5.142 I-5.543 J-3.097
G1 X567.486 Y4.5
G2 X567.573 Y4.328 I-5.629 J-2.939
G1 X567.896 Y3.661
G2 X567.972 Y3.497 I-5.716 J-2.767
G1 X568.284 Y2.803
G2 X562.492 Y-6.15 I-5.792 J-2.603
G1 X14.017
G2 X8.879 Y3.932 J6.35
G1 X139.367 Y183.532
G2 X144.504 Y186.15 I5.137 J-3.732
G1 X579.363
X704.656 Z44 F400.3
X1014.22 F849.6
G2 X1019.357 Y183.532 J-6.35
G1 X1149.847 Y3.932
G2 X1144.71 Y-6.15 I-5.137 J-3.732
G1 X596.234
G2 X590.439 Y2.796 J6.35
G1 X590.75 Y3.49
G2 X590.833 Y3.668 I5.795 J-2.596
G1 X591.157 Y4.335
G2 X591.236 Y4.494 I5.712 J-2.773
G1 X591.57 Y5.135
G2 X591.664 Y5.308 I5.633 J-2.932
G1 X592.01 Y5.925
G2 X592.097 Y6.076 I5.539 J-3.104
G1 X592.452 Y6.671
G2 X592.548 Y6.827 I5.452 J-3.255
G1 X592.913 Y7.4
G2 X593.009 Y7.546 I5.356 J-3.411
G1 X593.383 Y8.099
G2 X593.482 Y8.241 I5.26 J-3.558
G1 X593.865 Y8.776
G2 X594.008 Y8.966 I5.161 J-3.7
G1 X594.797 Y9.984
G2 X594.979 Y10.208 I5.018 J-3.891
G1 X595.795 Y11.167
G2 X595.961 Y11.355 I4.836 J-4.115
G1 X596.801 Y12.267
G2 X596.937 Y12.409 I4.67 J-4.303
G1 X597.795 Y13.284
G2 X597.934 Y13.421 I4.534 J-4.446
G1 X599.69 Y15.106
G2 X599.746 Y15.159 I4.396 J-4.583
G1 X601.493 Y16.794
X603.17 Y18.409
X603.927 Y19.178
X604.666 Y19.965
X605.373 Y20.766
X606.058 Y21.595
X606.728 Y22.463
X607.379 Y23.365
X608.009 Y24.302
X608.618 Y25.274
X609.201 Y26.277
X609.76 Y27.317
X610.296 Y28.395
X610.807 Y29.507
X611.289 Y30.648
X611.741 Y31.81
X612.158 Y32.987
X612.541 Y34.176
X612.884 Y35.364
X613.187 Y36.548
X613.448 Y37.724
X613.666 Y38.884
X613.839 Y40.019
X613.964 Y41.11
X614.038 Y42.145
X614.062 Y43.116
X614.032 Y44.072
X614.004 Y44.449
X613.959 Y44.858
X613.905 Y45.244
X613.838 Y45.613
X613.762 Y45.965
X613.676 Y46.294
X613.58 Y46.608
X613.477 Y46.901
X613.364 Y47.18
X613.244 Y47.441
X613.116 Y47.689
X612.978 Y47.925
X612.828 Y48.154
X612.663 Y48.381
X612.478 Y48.608
X612.275 Y48.835
X612.052 Y49.06
X611.797 Y49.293
X611.513 Y49.53
X611.2 Y49.766
X610.847 Y50.009
X610.456 Y50.255
X610.026 Y50.502
X609.552 Y50.75
X609.032 Y50.998
X608.467 Y51.244
X607.855 Y51.487
X607.194 Y51.726
X606.484 Y51.959
X605.723 Y52.187
X604.909 Y52.408
X604.042 Y52.622
X603.121 Y52.827
X602.149 Y53.023
X601.124 Y53.21
X600.046 Y53.386
X598.915 Y53.552
X597.732 Y53.707
X596.495 Y53.85
X595.206 Y53.982
X593.864 Y54.102
X592.468 Y54.209
X591.018 Y54.305
X589.515 Y54.388
X587.959 Y54.458
X586.347 Y54.516
X584.681 Y54.561
X582.963 Y54.593
X581.189 Y54.613
X579.363 Y54.619
X577.536 Y54.613
X575.763 Y54.593
X574.044 Y54.561
X572.378 Y54.516
X570.767 Y54.458
X569.209 Y54.388
X567.707 Y54.305
X566.258 Y54.209
X564.862 Y54.102
X563.52 Y53.982
X562.23 Y53.85
X560.994 Y53.707
X559.811 Y53.552
X558.68 Y53.386
X557.602 Y53.21
X556.577 Y53.023
X555.604 Y52.827
X554.685 Y52.622
X553.817 Y52.408
X553.003 Y52.187
X552.24 Y51.959
X551.53 Y51.725
X550.87 Y51.487
X550.258 Y51.244
X549.693 Y50.998
X549.173 Y50.75
X548.699 Y50.502
X548.269 Y50.255
X547.88 Y50.01
X547.528 Y49.768
X547.211 Y49.528
X546.928 Y49.293
X546.677 Y49.063
X546.448 Y48.832
X546.244 Y48.605
X546.065 Y48.384
X545.9 Y48.157
X545.748 Y47.925
X545.608 Y47.685
X545.479 Y47.437
X545.363 Y47.184
X545.251 Y46.906
X545.144 Y46.603
X545.05 Y46.294
X544.964 Y45.965
X544.887 Y45.613
X544.821 Y45.244
X544.766 Y44.858
X544.722 Y44.454
X544.694 Y44.072
X544.664 Y43.116
X544.688 Y42.145
X544.762 Y41.108
X544.887 Y40.017
X545.059 Y38.886
X545.278 Y37.724
X545.538 Y36.548
X545.841 Y35.364
X546.185 Y34.174
X546.567 Y32.989
X546.985 Y31.81
X547.436 Y30.648
X547.919 Y29.507
X548.43 Y28.394
X548.964 Y27.318
X549.524 Y26.279
X550.109 Y25.272
X550.716 Y24.302
X551.347 Y23.365
X551.997 Y22.463
X552.667 Y21.596
X553.354 Y20.764
X554.061 Y19.963
X554.796 Y19.179
X555.555 Y18.41
X557.234 Y16.793
X558.98 Y15.158
G2 X559.034 Y15.106 I-4.341 J-4.635
G1 X560.792 Y13.421
G2 X560.927 Y13.287 I-4.396 J-4.583
G1 X561.786 Y12.412
G2 X561.927 Y12.264 I-4.531 J-4.448
G1 X562.766 Y11.352
G2 X562.928 Y11.17 I-4.672 J-4.3
G1 X563.745 Y10.211
G2 X563.932 Y9.981 I-4.834 J-4.118
G1 X564.72 Y8.963
G2 X564.859 Y8.776 I-5.021 J-3.888
G1 X565.242 Y8.241
G2 X565.342 Y8.099 I-5.161 J-3.7
G1 X565.716 Y7.546
G2 X565.812 Y7.4 I-5.26 J-3.558
G1 X566.177 Y6.827
G2 X566.269 Y6.677 I-5.356 J-3.411
G1 X566.625 Y6.083
G2 X566.72 Y5.918 I-5.448 J-3.262
G1 X567.065 Y5.301
G2 X567.151 Y5.142 I-5.543 J-3.097
G1 X567.486 Y4.5
G2 X567.573 Y4.328 I-5.629 J-2.939
G1 X567.896 Y3.661
G2 X567.972 Y3.497 I-5.716 J-2.767
G1 X568.284 Y2.803
G2 X562.492 Y-6.15 I-5.792 J-2.603
G1 X14.017
G2 X8.879 Y3.932 J6.35
G1 X139.367 Y183.532
G2 X144.504 Y186.15 I5.137 J-3.732
G1 X579.363
X704.656
X829.949 Z41 F400.3
X1014.22 F849.6
G2 X1019.357 Y183.532 J-6.35
G1 X1149.847 Y3.932
G2 X1144.71 Y-6.15 I-5.137 J-3.732
G1 X596.234
G2 X590.439 Y2.796 J6.35
G1 X590.75 Y3.49
G2 X590.833 Y3.668 I5.795 J-2.596
G1 X591.157 Y4.335
G2 X591.236 Y4.494 I5.712 J-2.773
G1 X591.57 Y5.135
G2 X591.664 Y5.308 I5.633 J-2.932
G1 X592.01 Y5.925
G2 X592.097 Y6.076 I5.539 J-3.104
G1 X592.452 Y6.671
G2 X592.548 Y6.827 I5.452 J-3.255
G1 X592.913 Y7.4
G2 X593.009 Y7.546 I5.356 J-3.411
G1 X593.383 Y8.099
G2 X593.482 Y8.241 I5.26 J-3.558
G1 X593.865 Y8.776
G2 X594.008 Y8.966 I5.161 J-3.7
G1 X594.797 Y9.984
G2 X594.979 Y10.208 I5.018 J-3.891
G1 X595.795 Y11.167
G2 X595.961 Y11.355 I4.836 J-4.115
G1 X596.801 Y12.267
G2 X596.937 Y12.409 I4.67 J-4.303
G1 X597.795 Y13.284
G2 X597.934 Y13.421 I4.534 J-4.446
G1 X599.69 Y15.106
G2 X599.746 Y15.159 I4.396 J-4.583
G1 X601.493 Y16.794
X603.17 Y18.409
X603.927 Y19.178
X604.666 Y19.965
X605.373 Y20.766
X606.058 Y21.595
X606.728 Y22.463
X607.379 Y23.365
X608.009 Y24.302
X608.618 Y25.274
X609.201 Y26.277
X609.76 Y27.317
X610.296 Y28.395
X610.807 Y29.507
X611.289 Y30.648
X611.741 Y31.81
X612.158 Y32.987
X612.541 Y34.176
X612.884 Y35.364
X613.187 Y36.548
X613.448 Y37.724
X613.666 Y38.884
X613.839 Y40.019
X613.964 Y41.11
X614.038 Y42.145
X614.062 Y43.116
X614.032 Y44.072
X614.004 Y44.449
X613.959 Y44.858
X613.905 Y45.244
X613.838 Y45.613
X613.762 Y45.965
X613.676 Y46.294
X613.58 Y46.608
X613.477 Y46.901
X613.364 Y47.18
X613.244 Y47.441
X613.116 Y47.689
X612.978 Y47.925
X612.828 Y48.154
X612.663 Y48.381
X612.478 Y48.608
X612.275 Y48.835
X612.052 Y49.06
X611.797 Y49.293
X611.513 Y49.53
X611.2 Y49.766
X610.847 Y50.009
X610.456 Y50.255
X610.026 Y50.502
X609.552 Y50.75
X609.032 Y50.998
X608.467 Y51.244
X607.855 Y51.487
X607.194 Y51.726
X606.484 Y51.959
X605.723 Y52.187
X604.909 Y52.408
X604.042 Y52.622
X603.121 Y52.827
X602.149 Y53.023
X601.124 Y53.21
X600.046 Y53.386
X598.915 Y53.552
X597.732 Y53.707
X596.495 Y53.85
X595.206 Y53.982
X593.864 Y54.102
X592.468 Y54.209
X591.018 Y54.305
X589.515 Y54.388
X587.959 Y54.458
X586.347 Y54.516
X584.681 Y54.561
X582.963 Y54.593
X581.189 Y54.613
X579.363 Y54.619
X577.536 Y54.613
X575.763 Y54.593
X574.044 Y54.561
X572.378 Y54.516
X570.767 Y54.458
X569.209 Y54.388
X567.707 Y54.305
X566.258 Y54.209
X564.862 Y54.102
X563.52 Y53.982
X562.23 Y53.85
X560.994 Y53.707
X559.811 Y53.552
X558.68 Y53.386
X557.602 Y53.21
X556.577 Y53.023
X555.604 Y52.827
X554.685 Y52.622
X553.817 Y52.408
X553.003 Y52.187
X552.24 Y51.959
X551.53 Y51.725
X550.87 Y51.487
X550.258 Y51.244
X549.693 Y50.998
X549.173 Y50.75
X548.699 Y50.502
X548.269 Y50.255
X547.88 Y50.01
X547.528 Y49.768
X547.211 Y49.528
X546.928 Y49.293
X546.677 Y49.063
X546.448 Y48.832
X546.244 Y48.605
X546.065 Y48.384
X545.9 Y48.157
X545.748 Y47.925
X545.608 Y47.685
X545.479 Y47.437
X545.363 Y47.184
X545.251 Y46.906
X545.144 Y46.603
X545.05 Y46.294
X544.964 Y45.965
X544.887 Y45.613
X544.821 Y45.244
X544.766 Y44.858
X544.722 Y44.454
X544.694 Y44.072
X544.664 Y43.116
X544.688 Y42.145
X544.762 Y41.108
X544.887 Y40.017
X545.059 Y38.886
X545.278 Y37.724
X545.538 Y36.548
X545.841 Y35.364
X546.185 Y34.174
X546.567 Y32.989
X546.985 Y31.81
X547.436 Y30.648
X547.919 Y29.507
X548.43 Y28.394
X548.964 Y27.318
X549.524 Y26.279
X550.109 Y25.272
X550.716 Y24.302
X551.347 Y23.365
X551.997 Y22.463
X552.667 Y21.596
X553.354 Y20.764
X554.061 Y19.963
X554.796 Y19.179
X555.555 Y18.41
X557.234 Y16.793
X558.98 Y15.158
G2 X559.034 Y15.106 I-4.341 J-4.635
G1 X560.792 Y13.421
G2 X560.927 Y13.287 I-4.396 J-4.583
G1 X561.786 Y12.412
G2 X561.927 Y12.264 I-4.531 J-4.448
G1 X562.766 Y11.352
G2 X562.928 Y11.17 I-4.672 J-4.3
G1 X563.745 Y10.211
G2 X563.932 Y9.981 I-4.834 J-4.118
G1 X564.72 Y8.963
G2 X564.859 Y8.776 I-5.021 J-3.888
G1 X565.242 Y8.241
G2 X565.342 Y8.099 I-5.161 J-3.7
G1 X565.716 Y7.546
G2 X565.812 Y7.4 I-5.26 J-3.558
G1 X566.177 Y6.827
G2 X566.269 Y6.677 I-5.356 J-3.411
G1 X566.625 Y6.083
G2 X566.72 Y5.918 I-5.448 J-3.262
G1 X567.065 Y5.301
G2 X567.151 Y5.142 I-5.543 J-3.097
G1 X567.486 Y4.5
G2 X567.573 Y4.328 I-5.629 J-2.939
G1 X567.896 Y3.661
G2 X567.972 Y3.497 I-5.716 J-2.767
G1 X568.284 Y2.803
G2 X562.492 Y-6.15 I-5.792 J-2.603
G1 X14.017
G2 X8.879 Y3.932 J6.35
G1 X139.367 Y183.532
G2 X144.504 Y186.15 I5.137 J-3.732
G1 X704.656
X829.949
X955.242 Z38 F400.3
X1014.22 F849.6
G2 X1019.357 Y183.532 J-6.35
G1 X1149.847 Y3.932
G2 X1144.71 Y-6.15 I-5.137 J-3.732
G1 X596.234
G2 X590.439 Y2.796 J6.35
G1 X590.75 Y3.49
G2 X590.833 Y3.668 I5.795 J-2.596
G1 X591.157 Y4.335
G2 X591.236 Y4.494 I5.712 J-2.773
G1 X591.57 Y5.135
G2 X591.664 Y5.308 I5.633 J-2.932
G1 X592.01 Y5.925
G2 X592.097 Y6.076 I5.539 J-3.104
G1 X592.452 Y6.671
G2 X592.548 Y6.827 I5.452 J-3.255
G1 X592.913 Y7.4
G2 X593.009 Y7.546 I5.356 J-3.411
G1 X593.383 Y8.099
G2 X593.482 Y8.241 I5.26 J-3.558
G1 X593.865 Y8.776
G2 X594.008 Y8.966 I5.161 J-3.7
G1 X594.797 Y9.984
G2 X594.979 Y10.208 I5.018 J-3.891
G1 X595.795 Y11.167
G2 X595.961 Y11.355 I4.836 J-4.115
G1 X596.801 Y12.267
G2 X596.937 Y12.409 I4.67 J-4.303
G1 X597.795 Y13.284
G2 X597.934 Y13.421 I4.534 J-4.446
G1 X599.69 Y15.106
G2 X599.746 Y15.159 I4.396 J-4.583
G1 X601.493 Y16.794
X603.17 Y18.409
X603.927 Y19.178
X604.666 Y19.965
X605.373 Y20.766
X606.058 Y21.595
X606.728 Y22.463
X607.379 Y23.365
X608.009 Y24.302
X608.618 Y25.274
X609.201 Y26.277
X609.76 Y27.317
X610.296 Y28.395
X610.807 Y29.507
X611.289 Y30.648
X611.741 Y31.81
X612.158 Y32.987
X612.541 Y34.176
X612.884 Y35.364
X613.187 Y36.548
X613.448 Y37.724
X613.666 Y38.884
X613.839 Y40.019
X613.964 Y41.11
X614.038 Y42.145
X614.062 Y43.116
X614.032 Y44.072
X614.004 Y44.449
X613.959 Y44.858
X613.905 Y45.244
X613.838 Y45.613
X613.762 Y45.965
X613.676 Y46.294
X613.58 Y46.608
X613.477 Y46.901
X613.364 Y47.18
X613.244 Y47.441
X613.116 Y47.689
X612.978 Y47.925
X612.828 Y48.154
X612.663 Y48.381
X612.478 Y48.608
X612.275 Y48.835
X612.052 Y49.06
X611.797 Y49.293
X611.513 Y49.53
X611.2 Y49.766
X610.847 Y50.009
X610.456 Y50.255
X610.026 Y50.502
X609.552 Y50.75
X609.032 Y50.998
X608.467 Y51.244
X607.855 Y51.487
X607.194 Y51.726
X606.484 Y51.959
X605.723 Y52.187
X604.909 Y52.408
X604.042 Y52.622
X603.121 Y52.827
X602.149 Y53.023
X601.124 Y53.21
X600.046 Y53.386
X598.915 Y53.552
X597.732 Y53.707
X596.495 Y53.85
X595.206 Y53.982
X593.864 Y54.102
X592.468 Y54.209
X591.018 Y54.305
X589.515 Y54.388
X587.959 Y54.458
X586.347 Y54.516
X584.681 Y54.561
X582.963 Y54.593
X581.189 Y54.613
X579.363 Y54.619
X577.536 Y54.613
X575.763 Y54.593
X574.044 Y54.561
X572.378 Y54.516
X570.767 Y54.458
X569.209 Y54.388
X567.707 Y54.305
X566.258 Y54.209
X564.862 Y54.102
X563.52 Y53.982
X562.23 Y53.85
X560.994 Y53.707
X559.811 Y53.552
X558.68 Y53.386
X557.602 Y53.21
X556.577 Y53.023
X555.604 Y52.827
X554.685 Y52.622
X553.817 Y52.408
X553.003 Y52.187
X552.24 Y51.959
X551.53 Y51.725
X550.87 Y51.487
X550.258 Y51.244
X549.693 Y50.998
X549.173 Y50.75
X548.699 Y50.502
X548.269 Y50.255
X547.88 Y50.01
X547.528 Y49.768
X547.211 Y49.528
X546.928 Y49.293
X546.677 Y49.063
X546.448 Y48.832
X546.244 Y48.605
X546.065 Y48.384
X545.9 Y48.157
X545.748 Y47.925
X545.608 Y47.685
X545.479 Y47.437
X545.363 Y47.184
X545.251 Y46.906
X545.144 Y46.603
X545.05 Y46.294
X544.964 Y45.965
X544.887 Y45.613
X544.821 Y45.244
X544.766 Y44.858
X544.722 Y44.454
X544.694 Y44.072
X544.664 Y43.116
X544.688 Y42.145
X544.762 Y41.108
X544.887 Y40.017
X545.059 Y38.886
X545.278 Y37.724
X545.538 Y36.548
X545.841 Y35.364
X546.185 Y34.174
X546.567 Y32.989
X546.985 Y31.81
X547.436 Y30.648
X547.919 Y29.507
X548.43 Y28.394
X548.964 Y27.318
X549.524 Y26.279
X550.109 Y25.272
X550.716 Y24.302
X551.347 Y23.365
X551.997 Y22.463
X552.667 Y21.596
X553.354 Y20.764
X554.061 Y19.963
X554.796 Y19.179
X555.555 Y18.41
X557.234 Y16.793
X558.98 Y15.158
G2 X559.034 Y15.106 I-4.341 J-4.635
G1 X560.792 Y13.421
G2 X560.927 Y13.287 I-4.396 J-4.583
G1 X561.786 Y12.412
G2 X561.927 Y12.264 I-4.531 J-4.448
G1 X562.766 Y11.352
G2 X562.928 Y11.17 I-4.672 J-4.3
G1 X563.745 Y10.211
G2 X563.932 Y9.981 I-4.834 J-4.118
G1 X564.72 Y8.963
G2 X564.859 Y8.776 I-5.021 J-3.888
G1 X565.242 Y8.241
G2 X565.342 Y8.099 I-5.161 J-3.7
G1 X565.716 Y7.546
G2 X565.812 Y7.4 I-5.26 J-3.558
G1 X566.177 Y6.827
G2 X566.269 Y6.677 I-5.356 J-3.411
G1 X566.625 Y6.083
G2 X566.72 Y5.918 I-5.448 J-3.262
G1 X567.065 Y5.301
G2 X567.151 Y5.142 I-5.543 J-3.097
G1 X567.486 Y4.5
G2 X567.573 Y4.328 I-5.629 J-2.939
G1 X567.896 Y3.661
G2 X567.972 Y3.497 I-5.716 J-2.767
G1 X568.284 Y2.803
G2 X562.492 Y-6.15 I-5.792 J-2.603
G1 X14.017
G2 X8.879 Y3.932 J6.35
G1 X139.367 Y183.532
G2 X144.504 Y186.15 I5.137 J-3.732
G1 X829.949
X955.242
X1014.22 Z36.588 F400.3
G2 X1019.357 Y183.532 Z36.445 J-6.35
G1 X1054.819 Y134.725 Z35
X1149.847 Y3.932 F849.6
G2 X1144.71 Y-6.15 I-5.137 J-3.732
G1 X596.234
G2 X590.439 Y2.796 J6.35
G1 X590.75 Y3.49
G2 X590.833 Y3.668 I5.795 J-2.596
G1 X591.157 Y4.335
G2 X591.236 Y4.494 I5.712 J-2.773
G1 X591.57 Y5.135
G2 X591.664 Y5.308 I5.633 J-2.932
G1 X592.01 Y5.925
G2 X592.097 Y6.076 I5.539 J-3.104
G1 X592.452 Y6.671
G2 X592.548 Y6.827 I5.452 J-3.255
G1 X592.913 Y7.4
G2 X593.009 Y7.546 I5.356 J-3.411
G1 X593.383 Y8.099
G2 X593.482 Y8.241 I5.26 J-3.558
G1 X593.865 Y8.776
G2 X594.008 Y8.966 I5.161 J-3.7
G1 X594.797 Y9.984
G2 X594.979 Y10.208 I5.018 J-3.891
G1 X595.795 Y11.167
G2 X595.961 Y11.355 I4.836 J-4.115
G1 X596.801 Y12.267
G2 X596.937 Y12.409 I4.67 J-4.303
G1 X597.795 Y13.284
G2 X597.934 Y13.421 I4.534 J-4.446
G1 X599.69 Y15.106
G2 X599.746 Y15.159 I4.396 J-4.583
G1 X601.493 Y16.794
X603.17 Y18.409
X603.927 Y19.178
X604.666 Y19.965
X605.373 Y20.766
X606.058 Y21.595
X606.728 Y22.463
X607.379 Y23.365
X608.009 Y24.302
X608.618 Y25.274
X609.201 Y26.277
X609.76 Y27.317
X610.296 Y28.395
X610.807 Y29.507
X611.289 Y30.648
X611.741 Y31.81
X612.158 Y32.987
X612.541 Y34.176
X612.884 Y35.364
X613.187 Y36.548
X613.448 Y37.724
X613.666 Y38.884
X613.839 Y40.019
X613.964 Y41.11
X614.038 Y42.145
X614.062 Y43.116
X614.032 Y44.072
X614.004 Y44.449
X613.959 Y44.858
X613.905 Y45.244
X613.838 Y45.613
X613.762 Y45.965
X613.676 Y46.294
X613.58 Y46.608
X613.477 Y46.901
X613.364 Y47.18
X613.244 Y47.441
X613.116 Y47.689
X612.978 Y47.925
X612.828 Y48.154
X612.663 Y48.381
X612.478 Y48.608
X612.275 Y48.835
X612.052 Y49.06
X611.797 Y49.293
X611.513 Y49.53
X611.2 Y49.766
X610.847 Y50.009
X610.456 Y50.255
X610.026 Y50.502
X609.552 Y50.75
X609.032 Y50.998
X608.467 Y51.244
X607.855 Y51.487
X607.194 Y51.726
X606.484 Y51.959
X605.723 Y52.187
X604.909 Y52.408
X604.042 Y52.622
X603.121 Y52.827
X602.149 Y53.023
X601.124 Y53.21
X600.046 Y53.386
X598.915 Y53.552
X597.732 Y53.707
X596.495 Y53.85
X595.206 Y53.982
X593.864 Y54.102
X592.468 Y54.209
X591.018 Y54.305
X589.515 Y54.388
X587.959 Y54.458
X586.347 Y54.516
X584.681 Y54.561
X582.963 Y54.593
X581.189 Y54.613
X579.363 Y54.619
X577.536 Y54.613
X575.763 Y54.593
X574.044 Y54.561
X572.378 Y54.516
X570.767 Y54.458
X569.209 Y54.388
X567.707 Y54.305
X566.258 Y54.209
X564.862 Y54.102
X563.52 Y53.982
X562.23 Y53.85
X560.994 Y53.707
X559.811 Y53.552
X558.68 Y53.386
X557.602 Y53.21
X556.577 Y53.023
X555.604 Y52.827
X554.685 Y52.622
X553.817 Y52.408
X553.003 Y52.187
X552.24 Y51.959
X551.53 Y51.725
X550.87 Y51.487
X550.258 Y51.244
X549.693 Y50.998
X549.173 Y50.75
X548.699 Y50.502
X548.269 Y50.255
X547.88 Y50.01
X547.528 Y49.768
X547.211 Y49.528
X546.928 Y49.293
X546.677 Y49.063
X546.448 Y48.832
X546.244 Y48.605
X546.065 Y48.384
X545.9 Y48.157
X545.748 Y47.925
X545.608 Y47.685
X545.479 Y47.437
X545.363 Y47.184
X545.251 Y46.906
X545.144 Y46.603
X545.05 Y46.294
X544.964 Y45.965
X544.887 Y45.613
X544.821 Y45.244
X544.766 Y44.858
X544.722 Y44.454
X544.694 Y44.072
X544.664 Y43.116
X544.688 Y42.145
X544.762 Y41.108
X544.887 Y40.017
X545.059 Y38.886
X545.278 Y37.724
X545.538 Y36.548
X545.841 Y35.364
X546.185 Y34.174
X546.567 Y32.989
X546.985 Y31.81
X547.436 Y30.648
X547.919 Y29.507
X548.43 Y28.394
X548.964 Y27.318
X549.524 Y26.279
X550.109 Y25.272
X550.716 Y24.302
X551.347 Y23.365
X551.997 Y22.463
X552.667 Y21.596
X553.354 Y20.764
X554.061 Y19.963
X554.796 Y19.179
X555.555 Y18.41
X557.234 Y16.793
X558.98 Y15.158
G2 X559.034 Y15.106 I-4.341 J-4.635
G1 X560.792 Y13.421
G2 X560.927 Y13.287 I-4.396 J-4.583
G1 X561.786 Y12.412
G2 X561.927 Y12.264 I-4.531 J-4.448
G1 X562.766 Y11.352
G2 X562.928 Y11.17 I-4.672 J-4.3
G1 X563.745 Y10.211
G2 X563.932 Y9.981 I-4.834 J-4.118
G1 X564.72 Y8.963
G2 X564.859 Y8.776 I-5.021 J-3.888
G1 X565.242 Y8.241
G2 X565.342 Y8.099 I-5.161 J-3.7
G1 X565.716 Y7.546
G2 X565.812 Y7.4 I-5.26 J-3.558
G1 X566.177 Y6.827
G2 X566.269 Y6.677 I-5.356 J-3.411
G1 X566.625 Y6.083
G2 X566.72 Y5.918 I-5.448 J-3.262
G1 X567.065 Y5.301
G2 X567.151 Y5.142 I-5.543 J-3.097
G1 X567.486 Y4.5
G2 X567.573 Y4.328 I-5.629 J-2.939
G1 X567.896 Y3.661
G2 X567.972 Y3.497 I-5.716 J-2.767
G1 X568.284 Y2.803
G2 X562.492 Y-6.15 I-5.792 J-2.603
G1 X14.017
G2 X8.879 Y3.932 J6.35
G1 X139.367 Y183.532
G2 X144.504 Y186.15 I5.137 J-3.732
G1 X955.242
X1014.22
G2 X1019.357 Y183.532 J-6.35
G1 X1054.819 Y134.725
X1128.465 Y33.362 Z32 F400.3
X1149.847 Y3.932 F849.6
G2 X1144.71 Y-6.15 I-5.137 J-3.732
G1 X596.234
G2 X590.439 Y2.796 J6.35
G1 X590.75 Y3.49
G2 X590.833 Y3.668 I5.795 J-2.596
G1 X591.157 Y4.335
G2 X591.236 Y4.494 I5.712 J-2.773
G1 X591.57 Y5.135
G2 X591.664 Y5.308 I5.633 J-2.932
G1 X592.01 Y5.925
G2 X592.097 Y6.076 I5.539 J-3.104
G1 X592.452 Y6.671
G2 X592.548 Y6.827 I5.452 J-3.255
G1 X592.913 Y7.4
G2 X593.009 Y7.546 I5.356 J-3.411
G1 X593.383 Y8.099
G2 X593.482 Y8.241 I5.26 J-3.558
G1 X593.865 Y8.776
G2 X594.008 Y8.966 I5.161 J-3.7
G1 X594.797 Y9.984
G2 X594.979 Y10.208 I5.018 J-3.891
G1 X595.795 Y11.167
G2 X595.961 Y11.355 I4.836 J-4.115
G1 X596.801 Y12.267
G2 X596.937 Y12.409 I4.67 J-4.303
G1 X597.795 Y13.284
G2 X597.934 Y13.421 I4.534 J-4.446
G1 X599.69 Y15.106
G2 X599.746 Y15.159 I4.396 J-4.583
G1 X601.493 Y16.794
X603.17 Y18.409
X603.927 Y19.178
X604.666 Y19.965
X605.373 Y20.766
X606.058 Y21.595
X606.728 Y22.463
X607.379 Y23.365
X608.009 Y24.302
X608.618 Y25.274
X609.201 Y26.277
X609.76 Y27.317
X610.296 Y28.395
X610.807 Y29.507
X611.289 Y30.648
X611.741 Y31.81
X612.158 Y32.987
X612.541 Y34.176
X612.884 Y35.364
X613.187 Y36.548
X613.448 Y37.724
X613.666 Y38.884
X613.839 Y40.019
X613.964 Y41.11
X614.038 Y42.145
X614.062 Y43.116
X614.032 Y44.072
X614.004 Y44.449
X613.959 Y44.858
X613.905 Y45.244
X613.838 Y45.613
X613.762 Y45.965
X613.676 Y46.294
X613.58 Y46.608
X613.477 Y46.901
X613.364 Y47.18
X613.244 Y47.441
X613.116 Y47.689
X612.978 Y47.925
X612.828 Y48.154
X612.663 Y48.381
X612.478 Y48.608
X612.275 Y48.835
X612.052 Y49.06
X611.797 Y49.293
X611.513 Y49.53
X611.2 Y49.766
X610.847 Y50.009
X610.456 Y50.255
X610.026 Y50.502
X609.552 Y50.75
X609.032 Y50.998
X608.467 Y51.244
X607.855 Y51.487
X607.194 Y51.726
X606.484 Y51.959
X605.723 Y52.187
X604.909 Y52.408
X604.042 Y52.622
X603.121 Y52.827
X602.149 Y53.023
X601.124 Y53.21
X600.046 Y53.386
X598.915 Y53.552
X597.732 Y53.707
X596.495 Y53.85
X595.206 Y53.982
X593.864 Y54.102
X592.468 Y54.209
X591.018 Y54.305
X589.515 Y54.388
X587.959 Y54.458
X586.347 Y54.516
X584.681 Y54.561
X582.963 Y54.593
X581.189 Y54.613
X579.363 Y54.619
X577.536 Y54.613
X575.763 Y54.593
X574.044 Y54.561
X572.378 Y54.516
X570.767 Y54.458
X569.209 Y54.388
X567.707 Y54.305
X566.258 Y54.209
X564.862 Y54.102
X563.52 Y53.982
X562.23 Y53.85
X560.994 Y53.707
X559.811 Y53.552
X558.68 Y53.386
X557.602 Y53.21
X556.577 Y53.023
X555.604 Y52.827
X554.685 Y52.622
X553.817 Y52.408
X553.003 Y52.187
X552.24 Y51.959
X551.53 Y51.725
X550.87 Y51.487
X550.258 Y51.244
X549.693 Y50.998
X549.173 Y50.75
X548.699 Y50.502
X548.269 Y50.255
X547.88 Y50.01
X547.528 Y49.768
X547.211 Y49.528
X546.928 Y49.293
X546.677 Y49.063
X546.448 Y48.832
X546.244 Y48.605
X546.065 Y48.384
X545.9 Y48.157
X545.748 Y47.925
X545.608 Y47.685
X545.479 Y47.437
X545.363 Y47.184
X545.251 Y46.906
X545.144 Y46.603
X545.05 Y46.294
X544.964 Y45.965
X544.887 Y45.613
X544.821 Y45.244
X544.766 Y44.858
X544.722 Y44.454
X544.694 Y44.072
X544.664 Y43.116
X544.688 Y42.145
X544.762 Y41.108
X544.887 Y40.017
X545.059 Y38.886
X545.278 Y37.724
X545.538 Y36.548
X545.841 Y35.364
X546.185 Y34.174
X546.567 Y32.989
X546.985 Y31.81
X547.436 Y30.648
X547.919 Y29.507
X548.43 Y28.394
X548.964 Y27.318
X549.524 Y26.279
X550.109 Y25.272
X550.716 Y24.302
X551.347 Y23.365
X551.997 Y22.463
X552.667 Y21.596
X553.354 Y20.764
X554.061 Y19.963
X554.796 Y19.179
X555.555 Y18.41
X557.234 Y16.793
X558.98 Y15.158
G2 X559.034 Y15.106 I-4.341 J-4.635
G1 X560.792 Y13.421
G2 X560.927 Y13.287 I-4.396 J-4.583
G1 X561.786 Y12.412
G2 X561.927 Y12.264 I-4.531 J-4.448
G1 X562.766 Y11.352
G2 X562.928 Y11.17 I-4.672 J-4.3
G1 X563.745 Y10.211
G2 X563.932 Y9.981 I-4.834 J-4.118
G1 X564.72 Y8.963
G2 X564.859 Y8.776 I-5.021 J-3.888
G1 X565.242 Y8.241
G2 X565.342 Y8.099 I-5.161 J-3.7
G1 X565.716 Y7.546
G2 X565.812 Y7.4 I-5.26 J-3.558
G1 X566.177 Y6.827
G2 X566.269 Y6.677 I-5.356 J-3.411
G1 X566.625 Y6.083
G2 X566.72 Y5.918 I-5.448 J-3.262
G1 X567.065 Y5.301
G2 X567.151 Y5.142 I-5.543 J-3.097
G1 X567.486 Y4.5
G2 X567.573 Y4.328 I-5.629 J-2.939
G1 X567.896 Y3.661
G2 X567.972 Y3.497 I-5.716 J-2.767
G1 X568.284 Y2.803
G2 X562.492 Y-6.15 I-5.792 J-2.603
G1 X14.017
G2 X8.879 Y3.932 J6.35
G1 X139.367 Y183.532
G2 X144.504 Y186.15 I5.137 J-3.732
G1 X1014.22
G2 X1019.357 Y183.532 J-6.35
G1 X1128.465 Y33.362
X1149.847 Y3.932 Z31.129 F400.3
G2 X1144.71 Y-6.15 Z30.795 I-5.137 J-3.732
G1 X1069.758 Z29
X596.234 F849.6
G2 X590.439 Y2.796 J6.35
G1 X590.75 Y3.49
G2 X590.833 Y3.668 I5.795 J-2.596
G1 X591.157 Y4.335
G2 X591.236 Y4.494 I5.712 J-2.773
G1 X591.57 Y5.135
G2 X591.664 Y5.308 I5.633 J-2.932
G1 X592.01 Y5.925
G2 X592.097 Y6.076 I5.539 J-3.104
G1 X592.452 Y6.671
G2 X592.548 Y6.827 I5.452 J-3.255
G1 X592.913 Y7.4
G2 X593.009 Y7.546 I5.356 J-3.411
G1 X593.383 Y8.099
G2 X593.482 Y8.241 I5.26 J-3.558
G1 X593.865 Y8.776
G2 X594.008 Y8.966 I5.161 J-3.7
G1 X594.797 Y9.984
G2 X594.979 Y10.208 I5.018 J-3.891
G1 X595.795 Y11.167
G2 X595.961 Y11.355 I4.836 J-4.115
G1 X596.801 Y12.267
G2 X596.937 Y12.409 I4.67 J-4.303
G1 X597.795 Y13.284
G2 X597.934 Y13.421 I4.534 J-4.446
G1 X599.69 Y15.106
G2 X599.746 Y15.159 I4.396 J-4.583
G1 X601.493 Y16.794
X603.17 Y18.409
X603.927 Y19.178
X604.666 Y19.965
X605.373 Y20.766
X606.058 Y21.595
X606.728 Y22.463
X607.379 Y23.365
X608.009 Y24.302
X608.618 Y25.274
X609.201 Y26.277
X609.76 Y27.317
X610.296 Y28.395
X610.807 Y29.507
X611.289 Y30.648
X611.741 Y31.81
X612.158 Y32.987
X612.541 Y34.176
X612.884 Y35.364
X613.187 Y36.548
X613.448 Y37.724
X613.666 Y38.884
X613.839 Y40.019
X613.964 Y41.11
X614.038 Y42.145
X614.062 Y43.116
X614.032 Y44.072
X614.004 Y44.449
X613.959 Y44.858
X613.905 Y45.244
X613.838 Y45.613
X613.762 Y45.965
X613.676 Y46.294
X613.58 Y46.608
X613.477 Y46.901
X613.364 Y47.18
X613.244 Y47.441
X613.116 Y47.689
X612.978 Y47.925
X612.828 Y48.154
X612.663 Y48.381
X612.478 Y48.608
X612.275 Y48.835
X612.052 Y49.06
X611.797 Y49.293
X611.513 Y49.53
X611.2 Y49.766
X610.847 Y50.009
X610.456 Y50.255
X610.026 Y50.502
X609.552 Y50.75
X609.032 Y50.998
X608.467 Y51.244
X607.855 Y51.487
X607.194 Y51.726
X606.484 Y51.959
X605.723 Y52.187
X604.909 Y52.408
X604.042 Y52.622
X603.121 Y52.827
X602.149 Y53.023
X601.124 Y53.21
X600.046 Y53.386
X598.915 Y53.552
X597.732 Y53.707
X596.495 Y53.85
X595.206 Y53.982
X593.864 Y54.102
X592.468 Y54.209
X591.018 Y54.305
X589.515 Y54.388
X587.959 Y54.458
X586.347 Y54.516
X584.681 Y54.561
X582.963 Y54.593
X581.189 Y54.613
X579.363 Y54.619
X577.536 Y54.613
X575.763 Y54.593
X574.044 Y54.561
X572.378 Y54.516
X570.767 Y54.458
X569.209 Y54.388
X567.707 Y54.305
X566.258 Y54.209
X564.862 Y54.102
X563.52 Y53.982
X562.23 Y53.85
X560.994 Y53.707
X559.811 Y53.552
X558.68 Y53.386
X557.602 Y53.21
X556.577 Y53.023
X555.604 Y52.827
X554.685 Y52.622
X553.817 Y52.408
X553.003 Y52.187
X552.24 Y51.959
X551.53 Y51.725
X550.87 Y51.487
X550.258 Y51.244
X549.693 Y50.998
X549.173 Y50.75
X548.699 Y50.502
X548.269 Y50.255
X547.88 Y50.01
X547.528 Y49.768
X547.211 Y49.528
X546.928 Y49.293
X546.677 Y49.063
X546.448 Y48.832
X546.244 Y48.605
X546.065 Y48.384
X545.9 Y48.157
X545.748 Y47.925
X545.608 Y47.685
X545.479 Y47.437
X545.363 Y47.184
X545.251 Y46.906
X545.144 Y46.603
X545.05 Y46.294
X544.964 Y45.965
X544.887 Y45.613
X544.821 Y45.244
X544.766 Y44.858
X544.722 Y44.454
X544.694 Y44.072
X544.664 Y43.116
X544.688 Y42.145
X544.762 Y41.108
X544.887 Y40.017
X545.059 Y38.886
X545.278 Y37.724
X545.538 Y36.548
X545.841 Y35.364
X546.185 Y34.174
X546.567 Y32.989
X546.985 Y31.81
X547.436 Y30.648
X547.919 Y29.507
X548.43 Y28.394
X548.964 Y27.318
X549.524 Y26.279
X550.109 Y25.272
X550.716 Y24.302
X551.347 Y23.365
X551.997 Y22.463
X552.667 Y21.596
X553.354 Y20.764
X554.061 Y19.963
X554.796 Y19.179
X555.555 Y18.41
X557.234 Y16.793
X558.98 Y15.158
G2 X559.034 Y15.106 I-4.341 J-4.635
G1 X560.792 Y13.421
G2 X560.927 Y13.287 I-4.396 J-4.583
G1 X561.786 Y12.412
G2 X561.927 Y12.264 I-4.531 J-4.448
G1 X562.766 Y11.352
G2 X562.928 Y11.17 I-4.672 J-4.3
G1 X563.745 Y10.211
G2 X563.932 Y9.981 I-4.834 J-4.118
G1 X564.72 Y8.963
G2 X564.859 Y8.776 I-5.021 J-3.888
G1 X565.242 Y8.241
G2 X565.342 Y8.099 I-5.161 J-3.7
G1 X565.716 Y7.546
G2 X565.812 Y7.4 I-5.26 J-3.558
G1 X566.177 Y6.827
G2 X566.269 Y6.677 I-5.356 J-3.411
G1 X566.625 Y6.083
G2 X566.72 Y5.918 I-5.448 J-3.262
G1 X567.065 Y5.301
G2 X567.151 Y5.142 I-5.543 J-3.097
G1 X567.486 Y4.5
G2 X567.573 Y4.328 I-5.629 J-2.939
G1 X567.896 Y3.661
G2 X567.972 Y3.497 I-5.716 J-2.767
G1 X568.284 Y2.803
G2 X562.492 Y-6.15 I-5.792 J-2.603
G1 X14.017
G2 X8.879 Y3.932 J6.35
G1 X139.367 Y183.532
G2 X144.504 Y186.15 I5.137 J-3.732
G1 X1014.22
G2 X1019.357 Y183.532 J-6.35
G1 X1128.465 Y33.362
X1149.847 Y3.932
G2 X1144.71 Y-6.15 I-5.137 J-3.732
G1 X1069.758
X944.465 Z26 F400.3
X596.234 F849.6
G2 X590.439 Y2.796 J6.35
G1 X590.75 Y3.49
G2 X590.833 Y3.668 I5.795 J-2.596
G1 X591.157 Y4.335
G2 X591.236 Y4.494 I5.712 J-2.773
G1 X591.57 Y5.135
G2 X591.664 Y5.308 I5.633 J-2.932
G1 X592.01 Y5.925
G2 X592.097 Y6.076 I5.539 J-3.104
G1 X592.452 Y6.671
G2 X592.548 Y6.827 I5.452 J-3.255
G1 X592.913 Y7.4
G2 X593.009 Y7.546 I5.356 J-3.411
G1 X593.383 Y8.099
G2 X593.482 Y8.241 I5.26 J-3.558
G1 X593.865 Y8.776
G2 X594.008 Y8.966 I5.161 J-3.7
G1 X594.797 Y9.984
G2 X594.979 Y10.208 I5.018 J-3.891
G1 X595.795 Y11.167
G2 X595.961 Y11.355 I4.836 J-4.115
G1 X596.801 Y12.267
G2 X596.937 Y12.409 I4.67 J-4.303
G1 X597.795 Y13.284
G2 X597.934 Y13.421 I4.534 J-4.446
G1 X599.69 Y15.106
G2 X599.746 Y15.159 I4.396 J-4.583
G1 X601.493 Y16.794
X603.17 Y18.409
X603.927 Y19.178
X604.666 Y19.965
X605.373 Y20.766
X606.058 Y21.595
X606.728 Y22.463
X607.379 Y23.365
X608.009 Y24.302
X608.618 Y25.274
X609.201 Y26.277
X609.76 Y27.317
X610.296 Y28.395
X610.807 Y29.507
X611.289 Y30.648
X611.741 Y31.81
X612.158 Y32.987
X612.541 Y34.176
X612.884 Y35.364
X613.187 Y36.548
X613.448 Y37.724
X613.666 Y38.884
X613.839 Y40.019
X613.964 Y41.11
X614.038 Y42.145
X614.062 Y43.116
X614.032 Y44.072
X614.004 Y44.449
X613.959 Y44.858
X613.905 Y45.244
X613.838 Y45.613
X613.762 Y45.965
X613.676 Y46.294
X613.58 Y46.608
X613.477 Y46.901
X613.364 Y47.18
X613.244 Y47.441
X613.116 Y47.689
X612.978 Y47.925
X612.828 Y48.154
X612.663 Y48.381
X612.478 Y48.608
X612.275 Y48.835
X612.052 Y49.06
X611.797 Y49.293
X611.513 Y49.53
X611.2 Y49.766
X610.847 Y50.009
X610.456 Y50.255
X610.026 Y50.502
X609.552 Y50.75
X609.032 Y50.998
X608.467 Y51.244
X607.855 Y51.487
X607.194 Y51.726
X606.484 Y51.959
X605.723 Y52.187
X604.909 Y52.408
X604.042 Y52.622
X603.121 Y52.827
X602.149 Y53.023
X601.124 Y53.21
X600.046 Y53.386
X598.915 Y53.552
X597.732 Y53.707
X596.495 Y53.85
X595.206 Y53.982
X593.864 Y54.102
X592.468 Y54.209
X591.018 Y54.305
X589.515 Y54.388
X587.959 Y54.458
X586.347 Y54.516
X584.681 Y54.561
X582.963 Y54.593
X581.189 Y54.613
X579.363 Y54.619
X577.536 Y54.613
X575.763 Y54.593
X574.044 Y54.561
X572.378 Y54.516
X570.767 Y54.458
X569.209 Y54.388
X567.707 Y54.305
X566.258 Y54.209
X564.862 Y54.102
X563.52 Y53.982
X562.23 Y53.85
X560.994 Y53.707
X559.811 Y53.552
X558.68 Y53.386
X557.602 Y53.21
X556.577 Y53.023
X555.604 Y52.827
X554.685 Y52.622
X553.817 Y52.408
X553.003 Y52.187
X552.24 Y51.959
X551.53 Y51.725
X550.87 Y51.487
X550.258 Y51.244
X549.693 Y50.998
X549.173 Y50.75
X548.699 Y50.502
X548.269 Y50.255
X547.88 Y50.01
X547.528 Y49.768
X547.211 Y49.528
X546.928 Y49.293
X546.677 Y49.063
X546.448 Y48.832
X546.244 Y48.605
X546.065 Y48.384
X545.9 Y48.157
X545.748 Y47.925
X545.608 Y47.685
X545.479 Y47.437
X545.363 Y47.184
X545.251 Y46.906
X545.144 Y46.603
X545.05 Y46.294
X544.964 Y45.965
X544.887 Y45.613
X544.821 Y45.244
X544.766 Y44.858
X544.722 Y44.454
X544.694 Y44.072
X544.664 Y43.116
X544.688 Y42.145
X544.762 Y41.108
X544.887 Y40.017
X545.059 Y38.886
X545.278 Y37.724
X545.538 Y36.548
X545.841 Y35.364
X546.185 Y34.174
X546.567 Y32.989
X546.985 Y31.81
X547.436 Y30.648
X547.919 Y29.507
X548.43 Y28.394
X548.964 Y27.318
X549.524 Y26.279
X550.109 Y25.272
X550.716 Y24.302
X551.347 Y23.365
X551.997 Y22.463
X552.667 Y21.596
X553.354 Y20.764
X554.061 Y19.963
X554.796 Y19.179
X555.555 Y18.41
X557.234 Y16.793
X558.98 Y15.158
G2 X559.034 Y15.106 I-4.341 J-4.635
G1 X560.792 Y13.421
G2 X560.927 Y13.287 I-4.396 J-4.583
G1 X561.786 Y12.412
G2 X561.927 Y12.264 I-4.531 J-4.448
G1 X562.766 Y11.352
G2 X562.928 Y11.17 I-4.672 J-4.3
G1 X563.745 Y10.211
G2 X563.932 Y9.981 I-4.834 J-4.118
G1 X564.72 Y8.963
G2 X564.859 Y8.776 I-5.021 J-3.888
G1 X565.242 Y8.241
G2 X565.342 Y8.099 I-5.161 J-3.7
G1 X565.716 Y7.546
G2 X565.812 Y7.4 I-5.26 J-3.558
G1 X566.177 Y6.827
G2 X566.269 Y6.677 I-5.356 J-3.411
G1 X566.625 Y6.083
G2 X566.72 Y5.918 I-5.448 J-3.262
G1 X567.065 Y5.301
G2 X567.151 Y5.142 I-5.543 J-3.097
G1 X567.486 Y4.5
G2 X567.573 Y4.328 I-5.629 J-2.939
G1 X567.896 Y3.661
G2 X567.972 Y3.497 I-5.716 J-2.767
G1 X568.284 Y2.803
G2 X562.492 Y-6.15 I-5.792 J-2.603
G1 X14.017
G2 X8.879 Y3.932 J6.35
G1 X139.367 Y183.532
G2 X144.504 Y186.15 I5.137 J-3.732
G1 X1014.22
G2 X1019.357 Y183.532 J-6.35
G1 X1149.847 Y3.932
G2 X1144.71 Y-6.15 I-5.137 J-3.732
G1 X944.465
X819.173 Z23 F400.3
X596.234 F849.6
G2 X590.439 Y2.796 J6.35
G1 X590.75 Y3.49
G2 X590.833 Y3.668 I5.795 J-2.596
G1 X591.157 Y4.335
G2 X591.236 Y4.494 I5.712 J-2.773
G1 X591.57 Y5.135
G2 X591.664 Y5.308 I5.633 J-2.932
G1 X592.01 Y5.925
G2 X592.097 Y6.076 I5.539 J-3.104
G1 X592.452 Y6.671
G2 X592.548 Y6.827 I5.452 J-3.255
G1 X592.913 Y7.4
G2 X593.009 Y7.546 I5.356 J-3.411
G1 X593.383 Y8.099
G2 X593.482 Y8.241 I5.26 J-3.558
G1 X593.865 Y8.776
G2 X594.008 Y8.966 I5.161 J-3.7
G1 X594.797 Y9.984
G2 X594.979 Y10.208 I5.018 J-3.891
G1 X595.795 Y11.167
G2 X595.961 Y11.355 I4.836 J-4.115
G1 X596.801 Y12.267
G2 X596.937 Y12.409 I4.67 J-4.303
G1 X597.795 Y13.284
G2 X597.934 Y13.421 I4.534 J-4.446
G1 X599.69 Y15.106
G2 X599.746 Y15.159 I4.396 J-4.583
G1 X601.493 Y16.794
X603.17 Y18.409
X603.927 Y19.178
X604.666 Y19.965
X605.373 Y20.766
X606.058 Y21.595
X606.728 Y22.463
X607.379 Y23.365
X608.009 Y24.302
X608.618 Y25.274
X609.201 Y26.277
X609.76 Y27.317
X610.296 Y28.395
X610.807 Y29.507
X611.289 Y30.648
X611.741 Y31.81
X612.158 Y32.987
X612.541 Y34.176
X612.884 Y35.364
X613.187 Y36.548
X613.448 Y37.724
X613.666 Y38.884
X613.839 Y40.019
X613.964 Y41.11
X614.038 Y42.145
X614.062 Y43.116
X614.032 Y44.072
X614.004 Y44.449
X613.959 Y44.858
X613.905 Y45.244
X613.838 Y45.613
X613.762 Y45.965
X613.676 Y46.294
X613.58 Y46.608
X613.477 Y46.901
X613.364 Y47.18
X613.244 Y47.441
X613.116 Y47.689
X612.978 Y47.925
X612.828 Y48.154
X612.663 Y48.381
X612.478 Y48.608
X612.275 Y48.835
X612.052 Y49.06
X611.797 Y49.293
X611.513 Y49.53
X611.2 Y49.766
X610.847 Y50.009
X610.456 Y50.255
X610.026 Y50.502
X609.552 Y50.75
X609.032 Y50.998
X608.467 Y51.244
X607.855 Y51.487
X607.194 Y51.726
X606.484 Y51.959
X605.723 Y52.187
X604.909 Y52.408
X604.042 Y52.622
X603.121 Y52.827
X602.149 Y53.023
X601.124 Y53.21
X600.046 Y53.386
X598.915 Y53.552
X597.732 Y53.707
X596.495 Y53.85
X595.206 Y53.982
X593.864 Y54.102
X592.468 Y54.209
X591.018 Y54.305
X589.515 Y54.388
X587.959 Y54.458
X586.347 Y54.516
X584.681 Y54.561
X582.963 Y54.593
X581.189 Y54.613
X579.363 Y54.619
X577.536 Y54.613
X575.763 Y54.593
X574.044 Y54.561
X572.378 Y54.516
X570.767 Y54.458
X569.209 Y54.388
X567.707 Y54.305
X566.258 Y54.209
X564.862 Y54.102
X563.52 Y53.982
X562.23 Y53.85
X560.994 Y53.707
X559.811 Y53.552
X558.68 Y53.386
X557.602 Y53.21
X556.577 Y53.023
X555.604 Y52.827
X554.685 Y52.622
X553.817 Y52.408
X553.003 Y52.187
X552.24 Y51.959
X551.53 Y51.725
X550.87 Y51.487
X550.258 Y51.244
X549.693 Y50.998
X549.173 Y50.75
X548.699 Y50.502
X548.269 Y50.255
X547.88 Y50.01
X547.528 Y49.768
X547.211 Y49.528
X546.928 Y49.293
X546.677 Y49.063
X546.448 Y48.832
X546.244 Y48.605
X546.065 Y48.384
X545.9 Y48.157
X545.748 Y47.925
X545.608 Y47.685
X545.479 Y47.437
X545.363 Y47.184
X545.251 Y46.906
X545.144 Y46.603
X545.05 Y46.294
X544.964 Y45.965
X544.887 Y45.613
X544.821 Y45.244
X544.766 Y44.858
X544.722 Y44.454
X544.694 Y44.072
X544.664 Y43.116
X544.688 Y42.145
X544.762 Y41.108
X544.887 Y40.017
X545.059 Y38.886
X545.278 Y37.724
X545.538 Y36.548
X545.841 Y35.364
X546.185 Y34.174
X546.567 Y32.989
X546.985 Y31.81
X547.436 Y30.648
X547.919 Y29.507
X548.43 Y28.394
X548.964 Y27.318
X549.524 Y26.279
X550.109 Y25.272
X550.716 Y24.302
X551.347 Y23.365
X551.997 Y22.463
X552.667 Y21.596
X553.354 Y20.764
X554.061 Y19.963
X554.796 Y19.179
X555.555 Y18.41
X557.234 Y16.793
X558.98 Y15.158
G2 X559.034 Y15.106 I-4.341 J-4.635
G1 X560.792 Y13.421
G2 X560.927 Y13.287 I-4.396 J-4.583
G1 X561.786 Y12.412
G2 X561.927 Y12.264 I-4.531 J-4.448
G1 X562.766 Y11.352
G2 X562.928 Y11.17 I-4.672 J-4.3
G1 X563.745 Y10.211
G2 X563.932 Y9.981 I-4.834 J-4.118
G1 X564.72 Y8.963
G2 X564.859 Y8.776 I-5.021 J-3.888
G1 X565.242 Y8.241
G2 X565.342 Y8.099 I-5.161 J-3.7
G1 X565.716 Y7.546
G2 X565.812 Y7.4 I-5.26 J-3.558
G1 X566.177 Y6.827
G2 X566.269 Y6.677 I-5.356 J-3.411
G1 X566.625 Y6.083
G2 X566.72 Y5.918 I-5.448 J-3.262
G1 X567.065 Y5.301
G2 X567.151 Y5.142 I-5.543 J-3.097
G1 X567.486 Y4.5
G2 X567.573 Y4.328 I-5.629 J-2.939
G1 X567.896 Y3.661
G2 X567.972 Y3.497 I-5.716 J-2.767
G1 X568.284 Y2.803
G2 X562.492 Y-6.15 I-5.792 J-2.603
G1 X14.017
G2 X8.879 Y3.932 J6.35
G1 X139.367 Y183.532
G2 X144.504 Y186.15 I5.137 J-3.732
G1 X1014.22
G2 X1019.357 Y183.532 J-6.35
G1 X1149.847 Y3.932
G2 X1144.71 Y-6.15 I-5.137 J-3.732
G1 X944.465
X819.173
X693.88 Z20 F400.3
X596.234 F849.6
G2 X590.439 Y2.796 J6.35
G1 X590.75 Y3.49
G2 X590.833 Y3.668 I5.795 J-2.596
G1 X591.157 Y4.335
G2 X591.236 Y4.494 I5.712 J-2.773
G1 X591.57 Y5.135
G2 X591.664 Y5.308 I5.633 J-2.932
G1 X592.01 Y5.925
G2 X592.097 Y6.076 I5.539 J-3.104
G1 X592.452 Y6.671
G2 X592.548 Y6.827 I5.452 J-3.255
G1 X592.913 Y7.4
G2 X593.009 Y7.546 I5.356 J-3.411
G1 X593.383 Y8.099
G2 X593.482 Y8.241 I5.26 J-3.558
G1 X593.865 Y8.776
G2 X594.008 Y8.966 I5.161 J-3.7
G1 X594.797 Y9.984
G2 X594.979 Y10.208 I5.018 J-3.891
G1 X595.795 Y11.167
G2 X595.961 Y11.355 I4.836 J-4.115
G1 X596.801 Y12.267
G2 X596.937 Y12.409 I4.67 J-4.303
G1 X597.795 Y13.284
G2 X597.934 Y13.421 I4.534 J-4.446
G1 X599.69 Y15.106
G2 X599.746 Y15.159 I4.396 J-4.583
G1 X601.493 Y16.794
X603.17 Y18.409
X603.927 Y19.178
X604.666 Y19.965
X605.373 Y20.766
X606.058 Y21.595
X606.728 Y22.463
X607.379 Y23.365
X608.009 Y24.302
X608.618 Y25.274
X609.201 Y26.277
X609.76 Y27.317
X610.296 Y28.395
X610.807 Y29.507
X611.289 Y30.648
X611.741 Y31.81
X612.158 Y32.987
X612.541 Y34.176
X612.884 Y35.364
X613.187 Y36.548
X613.448 Y37.724
X613.666 Y38.884
X613.839 Y40.019
X613.964 Y41.11
X614.038 Y42.145
X614.062 Y43.116
X614.032 Y44.072
X614.004 Y44.449
X613.959 Y44.858
X613.905 Y45.244
X613.838 Y45.613
X613.762 Y45.965
X613.676 Y46.294
X613.58 Y46.608
X613.477 Y46.901
X613.364 Y47.18
X613.244 Y47.441
X613.116 Y47.689
X612.978 Y47.925
X612.828 Y48.154
X612.663 Y48.381
X612.478 Y48.608
X612.275 Y48.835
X612.052 Y49.06
X611.797 Y49.293
X611.513 Y49.53
X611.2 Y49.766
X610.847 Y50.009
X610.456 Y50.255
X610.026 Y50.502
X609.552 Y50.75
X609.032 Y50.998
X608.467 Y51.244
X607.855 Y51.487
X607.194 Y51.726
X606.484 Y51.959
X605.723 Y52.187
X604.909 Y52.408
X604.042 Y52.622
X603.121 Y52.827
X602.149 Y53.023
X601.124 Y53.21
X600.046 Y53.386
X598.915 Y53.552
X597.732 Y53.707
X596.495 Y53.85
X595.206 Y53.982
X593.864 Y54.102
X592.468 Y54.209
X591.018 Y54.305
X589.515 Y54.388
X587.959 Y54.458
X586.347 Y54.516
X584.681 Y54.561
X582.963 Y54.593
X581.189 Y54.613
X579.363 Y54.619
X577.536 Y54.613
X575.763 Y54.593
X574.044 Y54.561
X572.378 Y54.516
X570.767 Y54.458
X569.209 Y54.388
X567.707 Y54.305
X566.258 Y54.209
X564.862 Y54.102
X563.52 Y53.982
X562.23 Y53.85
X560.994 Y53.707
X559.811 Y53.552
X558.68 Y53.386
X557.602 Y53.21
X556.577 Y53.023
X555.604 Y52.827
X554.685 Y52.622
X553.817 Y52.408
X553.003 Y52.187
X552.24 Y51.959
X551.53 Y51.725
X550.87 Y51.487
X550.258 Y51.244
X549.693 Y50.998
X549.173 Y50.75
X548.699 Y50.502
X548.269 Y50.255
X547.88 Y50.01
X547.528 Y49.768
X547.211 Y49.528
X546.928 Y49.293
X546.677 Y49.063
X546.448 Y48.832
X546.244 Y48.605
X546.065 Y48.384
X545.9 Y48.157
X545.748 Y47.925
X545.608 Y47.685
X545.479 Y47.437
X545.363 Y47.184
X545.251 Y46.906
X545.144 Y46.603
X545.05 Y46.294
X544.964 Y45.965
X544.887 Y45.613
X544.821 Y45.244
X544.766 Y44.858
X544.722 Y44.454
X544.694 Y44.072
X544.664 Y43.116
X544.688 Y42.145
X544.762 Y41.108
X544.887 Y40.017
X545.059 Y38.886
X545.278 Y37.724
X545.538 Y36.548
X545.841 Y35.364
X546.185 Y34.174
X546.567 Y32.989
X546.985 Y31.81
X547.436 Y30.648
X547.919 Y29.507
X548.43 Y28.394
X548.964 Y27.318
X549.524 Y26.279
X550.109 Y25.272
X550.716 Y24.302
X551.347 Y23.365
X551.997 Y22.463
X552.667 Y21.596
X553.354 Y20.764
X554.061 Y19.963
X554.796 Y19.179
X555.555 Y18.41
X557.234 Y16.793
X558.98 Y15.158
G2 X559.034 Y15.106 I-4.341 J-4.635
G1 X560.792 Y13.421
G2 X560.927 Y13.287 I-4.396 J-4.583
G1 X561.786 Y12.412
G2 X561.927 Y12.264 I-4.531 J-4.448
G1 X562.766 Y11.352
G2 X562.928 Y11.17 I-4.672 J-4.3
G1 X563.745 Y10.211
G2 X563.932 Y9.981 I-4.834 J-4.118
G1 X564.72 Y8.963
G2 X564.859 Y8.776 I-5.021 J-3.888
G1 X565.242 Y8.241
G2 X565.342 Y8.099 I-5.161 J-3.7
G1 X565.716 Y7.546
G2 X565.812 Y7.4 I-5.26 J-3.558
G1 X566.177 Y6.827
G2 X566.269 Y6.677 I-5.356 J-3.411
G1 X566.625 Y6.083
G2 X566.72 Y5.918 I-5.448 J-3.262
G1 X567.065 Y5.301
G2 X567.151 Y5.142 I-5.543 J-3.097
G1 X567.486 Y4.5
G2 X567.573 Y4.328 I-5.629 J-2.939
G1 X567.896 Y3.661
G2 X567.972 Y3.497 I-5.716 J-2.767
G1 X568.284 Y2.803
G2 X562.492 Y-6.15 I-5.792 J-2.603
G1 X14.017
G2 X8.879 Y3.932 J6.35
G1 X139.367 Y183.532
G2 X144.504 Y186.15 I5.137 J-3.732
G1 X1014.22
G2 X1019.357 Y183.532 J-6.35
G1 X1149.847 Y3.932
G2 X1144.71 Y-6.15 I-5.137 J-3.732
G1 X819.173
X693.88
G3 X692.61 Y-7.42 J-1.27
G1 Y-8.69
G19 G2 Y-9.96 Z21.27 K1.27
G0 Z65
G17

(2D Adaptive15 5)
M9
G0 X85.916 Y40.604
Z65
Z55
Z53.77
G1 Z52.5 F849.6
G3 X79.991 Y39.658 Z52.171 I-2.963 J-0.473 F400.3
X85.916 Y40.604 Z51.842 I2.963 J0.473
X79.991 Y39.658 Z51.513 I-2.963 J-0.473
X85.916 Y40.604 Z51.184 I2.963 J0.473
X79.991 Y39.658 Z50.854 I-2.963 J-0.473
X85.916 Y40.604 Z50.525 I2.963 J0.473
X79.991 Y39.658 Z50.196 I-2.963 J-0.473
X85.916 Y40.604 Z49.867 I2.963 J0.473
X79.991 Y39.658 Z49.538 I-2.963 J-0.473
X85.916 Y40.604 Z49.209 I2.963 J0.473
X79.991 Y39.658 Z48.88 I-2.963 J-0.473
X85.916 Y40.604 Z48.551 I2.963 J0.473
X79.991 Y39.658 Z48.221 I-2.963 J-0.473
X85.916 Y40.604 Z47.892 I2.963 J0.473
X79.991 Y39.658 Z47.563 I-2.963 J-0.473
X85.916 Y40.604 Z47.234 I2.963 J0.473
X79.991 Y39.658 Z46.905 I-2.963 J-0.473
X85.916 Y40.604 Z46.576 I2.963 J0.473
X79.991 Y39.658 Z46.247 I-2.963 J-0.473
X85.916 Y40.604 Z45.918 I2.963 J0.473
X79.991 Y39.658 Z45.588 I-2.963 J-0.473
X85.916 Y40.604 Z45.259 I2.963 J0.473
X79.991 Y39.658 Z44.93 I-2.963 J-0.473
X85.916 Y40.604 Z44.601 I2.963 J0.473
X79.991 Y39.658 Z44.272 I-2.963 J-0.473
X85.916 Y40.604 Z43.943 I2.963 J0.473
X79.991 Y39.658 Z43.614 I-2.963 J-0.473
X85.916 Y40.604 Z43.285 I2.963 J0.473
X79.991 Y39.658 Z42.956 I-2.963 J-0.473
X85.916 Y40.604 Z42.626 I2.963 J0.473
X79.991 Y39.658 Z42.297 I-2.963 J-0.473
X85.916 Y40.604 Z41.968 I2.963 J0.473
X79.991 Y39.658 Z41.639 I-2.963 J-0.473
X85.916 Y40.604 Z41.31 I2.963 J0.473
X79.991 Y39.658 Z40.981 I-2.963 J-0.473
X85.916 Y40.604 Z40.652 I2.963 J0.473
X79.991 Y39.658 Z40.323 I-2.963 J-0.473
X85.953 Y40.131 Z40.01 I2.963 J0.473
X79.953 I-3
X85.849 Y39.348 I3
X85.953 Y40.131 I-2.896 J0.783
G1 X85.974 Y41.423 F849.6
X85.982 Y41.503
X85.988 Y41.653
X85.981 Y41.803
X85.961 Y41.952
X85.93 Y42.098
X85.888 Y42.243
X85.838 Y42.384
X85.778 Y42.521
X85.711 Y42.655
X85.636 Y42.785
X85.552 Y42.912
X85.46 Y43.038
X85.358 Y43.162
X85.246 Y43.283
X85.125 Y43.401
X84.996 Y43.515
X84.857 Y43.624
X84.709 Y43.727
X84.554 Y43.824
X84.39 Y43.914
X84.219 Y43.996
X84.042 Y44.07
X83.857 Y44.135
X83.668 Y44.191
X83.473 Y44.236
X83.273 Y44.272
X83.07 Y44.297
X82.61 Y44.296
X82.155 Y44.228
X81.714 Y44.095
X81.297 Y43.9
X80.913 Y43.648
X80.569 Y43.342
X80.272 Y42.991
X79.411 Y41.805
X79.318 Y41.663
X79.23 Y41.511
X79.149 Y41.352
X79.076 Y41.185
X79.01 Y41.011
X78.953 Y40.831
X78.905 Y40.646
X78.867 Y40.455
X78.838 Y40.26
X78.82 Y40.061
X78.813 Y39.859
X78.817 Y39.655
X78.831 Y39.449
X78.858 Y39.243
X78.896 Y39.036
X78.945 Y38.83
X79.006 Y38.625
X79.078 Y38.423
X79.162 Y38.223
X79.258 Y38.027
X79.364 Y37.835
X79.481 Y37.648
X79.609 Y37.467
X79.747 Y37.292
X79.895 Y37.125
X80.053 Y36.965
X80.219 Y36.813
X80.394 Y36.669
X80.578 Y36.536
X80.769 Y36.412
X80.966 Y36.298
X81.171 Y36.194
X81.381 Y36.102
X81.596 Y36.021
X81.816 Y35.952
X82.04 Y35.894
X82.267 Y35.849
X82.496 Y35.816
X82.728 Y35.796
X82.765 Y35.794
X83.225 Y35.811
X83.678 Y35.891
X84.116 Y36.033
X84.529 Y36.235
X84.91 Y36.492
X85.252 Y36.8
X85.548 Y37.153
X86.481 Y38.437
X86.736 Y38.828
X86.877 Y39.071
X86.998 Y39.31
X87.102 Y39.546
X87.192 Y39.782
X87.266 Y40.018
X87.327 Y40.254
X87.375 Y40.488
X87.409 Y40.723
X87.43 Y40.957
X87.438 Y41.19
X87.434 Y41.423
X87.417 Y41.656
X87.388 Y41.888
X87.345 Y42.118
X87.291 Y42.347
X87.223 Y42.574
X87.143 Y42.798
X87.05 Y43.019
X86.945 Y43.237
X86.827 Y43.449
X86.696 Y43.657
X86.554 Y43.859
X86.399 Y44.055
X86.232 Y44.244
X86.054 Y44.425
X85.865 Y44.597
X85.67 Y44.757
X85.477 Y44.897
X85.256 Y45.041
X85.045 Y45.163
X84.825 Y45.274
X84.587 Y45.379
X84.365 Y45.462
X83.951 Y45.558
X83.528 Y45.588
X83.105 Y45.552
X82.694 Y45.451
X82.302 Y45.287
X81.941 Y45.065
X81.619 Y44.789
X81.344 Y44.466
X80.272 Y42.991
G3 X80.572 Y41.258 I1.053 J-0.71
G1 X84.727 Y38.196
G3 X86.481 Y38.437 I0.753 J1.022
G1 X87.851 Y40.323
X87.95 Y40.475
X88.025 Y40.605
X88.093 Y40.738
X88.157 Y40.884
X88.216 Y41.043
X88.269 Y41.212
X88.314 Y41.389
X88.351 Y41.576
X88.379 Y41.775
X88.397 Y41.984
X88.404 Y42.2
X88.4 Y42.422
X88.382 Y42.65
X88.351 Y42.885
X88.306 Y43.126
X88.247 Y43.371
X88.172 Y43.619
X88.083 Y43.866
X87.978 Y44.113
X87.857 Y44.359
X87.722 Y44.602
X87.571 Y44.84
X87.404 Y45.075
X87.224 Y45.3
X87.049 Y45.497
X86.848 Y45.7
X86.652 Y45.877
X86.454 Y46.038
X86.233 Y46.198
X86.025 Y46.332
X85.802 Y46.46
X85.573 Y46.575
X85.357 Y46.669
X85.116 Y46.758
X84.736 Y46.845
X84.347 Y46.871
X83.958 Y46.838
X83.58 Y46.744
X83.221 Y46.593
X82.889 Y46.388
X82.593 Y46.134
X82.34 Y45.837
X81.344 Y44.466
G3 X81.152 Y44.009 I1.053 J-0.71
X81.747 Y42.664 I1.244 J-0.253
G1 X86.201 Y40.013
G3 X87.476 Y39.999 I0.65 J1.091
X87.851 Y40.323 I-0.625 J1.105
G1 X88.765 Y41.58
X88.856 Y41.719
X88.931 Y41.849
X88.997 Y41.984
X89.056 Y42.122
X89.11 Y42.27
X89.159 Y42.433
X89.202 Y42.608
X89.237 Y42.792
X89.262 Y42.987
X89.279 Y43.197
X89.284 Y43.416
X89.276 Y43.644
X89.256 Y43.878
X89.222 Y44.12
X89.173 Y44.369
X89.109 Y44.623
X89.029 Y44.879
X88.934 Y45.135
X88.822 Y45.39
X88.695 Y45.643
X88.552 Y45.893
X88.394 Y46.138
X88.22 Y46.377
X88.032 Y46.608
X87.85 Y46.809
X87.645 Y47.013
X87.445 Y47.19
X87.241 Y47.352
X87.021 Y47.508
X86.815 Y47.638
X86.589 Y47.765
X86.365 Y47.874
X86.296 Y47.903
X85.887 Y48.037
X85.462 Y48.101
X85.032 Y48.093
X84.609 Y48.013
X84.206 Y47.863
X83.833 Y47.648
X83.501 Y47.374
X83.22 Y47.049
X82.34 Y45.837
G3 X82.714 Y44.054 I1.053 J-0.71
G1 X87.085 Y41.289
G3 X88.765 Y41.58 I0.679 J1.073
G1 X89.648 Y42.796
X89.732 Y42.924
X89.807 Y43.054
X89.873 Y43.188
X89.932 Y43.326
X89.987 Y43.478
X90.037 Y43.643
X90.08 Y43.817
X90.114 Y44.004
X90.141 Y44.205
X90.157 Y44.417
X90.162 Y44.638
X90.155 Y44.867
X90.134 Y45.109
X90.099 Y45.357
X90.048 Y45.612
X89.983 Y45.869
X89.902 Y46.128
X89.805 Y46.387
X89.692 Y46.647
X89.563 Y46.904
X89.417 Y47.159
X89.256 Y47.408
X89.091 Y47.634
X88.91 Y47.857
X88.72 Y48.067
X88.537 Y48.247
X88.33 Y48.431
X88.124 Y48.594
X87.926 Y48.735
X87.701 Y48.877
X87.485 Y48.997
X87.275 Y49.1
X86.848 Y49.24
X86.403 Y49.306
X85.954 Y49.297
X85.512 Y49.214
X85.091 Y49.057
X84.702 Y48.833
X84.355 Y48.547
X84.061 Y48.206
X83.22 Y47.049
G3 X83.595 Y45.264 I1.053 J-0.71
G1 X87.969 Y42.504
G3 X89.648 Y42.796 I0.678 J1.074
G1 X90.524 Y44.001
X90.614 Y44.139
X90.689 Y44.269
X90.756 Y44.403
X90.815 Y44.541
X90.871 Y44.695
X90.921 Y44.861
X90.964 Y45.036
X91 Y45.226
X91.027 Y45.43
X91.044 Y45.644
X91.049 Y45.866
X91.042 Y46.098
X91.021 Y46.34
X90.986 Y46.59
X90.937 Y46.844
X90.872 Y47.101
X90.792 Y47.359
X90.695 Y47.619
X90.583 Y47.877
X90.454 Y48.134
X90.31 Y48.388
X90.15 Y48.635
X89.994 Y48.851
X89.815 Y49.071
X89.631 Y49.275
X89.453 Y49.452
X89.248 Y49.634
X89.045 Y49.796
X88.849 Y49.935
X88.625 Y50.077
X88.408 Y50.198
X88.199 Y50.301
X87.962 Y50.402
X87.561 Y50.511
X87.148 Y50.555
X86.733 Y50.532
X86.327 Y50.442
X85.941 Y50.289
X85.584 Y50.076
X85.266 Y49.808
X84.996 Y49.492
X84.061 Y48.206
G3 X84.449 Y46.415 I1.053 J-0.71
G1 X88.857 Y43.701
G3 X90.148 Y43.678 I0.666 J1.082
X90.524 Y44.001 I-0.625 J1.105
G1 X91.391 Y45.195
X91.503 Y45.367
X91.578 Y45.497
X91.645 Y45.631
X91.704 Y45.769
X91.761 Y45.924
X91.811 Y46.09
X91.855 Y46.266
X91.89 Y46.455
X91.918 Y46.66
X91.935 Y46.874
X91.94 Y47.096
X91.933 Y47.326
X91.913 Y47.567
X91.878 Y47.816
X91.829 Y48.068
X91.765 Y48.323
X91.685 Y48.58
X91.59 Y48.837
X91.479 Y49.093
X91.351 Y49.348
X91.208 Y49.599
X91.05 Y49.845
X90.876 Y50.085
X90.707 Y50.295
X90.515 Y50.507
X90.322 Y50.699
X90.133 Y50.867
X89.918 Y51.038
X89.713 Y51.184
X89.506 Y51.316
X89.277 Y51.444
X89.064 Y51.549
X88.84 Y51.644
X88.444 Y51.752
X88.035 Y51.796
X87.624 Y51.773
X87.223 Y51.685
X86.841 Y51.533
X86.488 Y51.322
X86.174 Y51.057
X85.906 Y50.745
X84.996 Y49.492
G3 X85.359 Y47.715 I1.053 J-0.71
G1 X89.701 Y44.91
G3 X91.016 Y44.872 I0.689 J1.067
X91.391 Y45.195 I-0.625 J1.105
G1 X92.318 Y46.47
X92.4 Y46.596
X92.474 Y46.726
X92.541 Y46.86
X92.6 Y46.999
X92.656 Y47.154
X92.706 Y47.321
X92.749 Y47.497
X92.784 Y47.686
X92.811 Y47.89
X92.827 Y48.105
X92.832 Y48.327
X92.825 Y48.559
X92.804 Y48.8
X92.769 Y49.051
X92.718 Y49.305
X92.653 Y49.562
X92.572 Y49.821
X92.475 Y50.08
X92.362 Y50.338
X92.234 Y50.594
X92.089 Y50.847
X91.929 Y51.094
X91.754 Y51.335
X91.583 Y51.544
X91.391 Y51.757
X91.197 Y51.948
X91.008 Y52.116
X90.793 Y52.286
X90.588 Y52.431
X90.379 Y52.563
X90.153 Y52.689
X89.941 Y52.793
X89.91 Y52.806
X89.492 Y52.942
X89.058 Y53.007
X88.618 Y52.999
X88.187 Y52.917
X87.775 Y52.764
X87.394 Y52.545
X87.055 Y52.265
X86.768 Y51.932
X85.906 Y50.745
G3 X86.275 Y48.965 I1.053 J-0.71
G1 X90.633 Y46.182
G3 X92.318 Y46.47 I0.684 J1.07
G1 X93.19 Y47.671
X93.287 Y47.819
X93.362 Y47.949
X93.429 Y48.083
X93.488 Y48.222
X93.544 Y48.377
X93.595 Y48.543
X93.638 Y48.718
X93.674 Y48.908
X93.701 Y49.113
X93.718 Y49.326
X93.723 Y49.548
X93.716 Y49.782
X93.696 Y50.024
X93.661 Y50.275
X93.611 Y50.53
X93.547 Y50.787
X93.466 Y51.045
X93.37 Y51.305
X93.257 Y51.565
X93.129 Y51.821
X92.984 Y52.075
X92.824 Y52.323
X92.664 Y52.544
X92.486 Y52.765
X92.299 Y52.972
X92.119 Y53.15
X91.914 Y53.333
X91.71 Y53.496
X91.514 Y53.635
X91.29 Y53.777
X91.073 Y53.899
X90.864 Y54.001
X90.628 Y54.102
X90.231 Y54.21
X89.822 Y54.254
X89.411 Y54.231
X89.009 Y54.143
X88.626 Y53.991
X88.273 Y53.779
X87.959 Y53.514
X87.691 Y53.202
X86.768 Y51.932
G3 X87.141 Y50.149 I1.053 J-0.71
G1 X91.51 Y47.381
G3 X93.19 Y47.671 I0.68 J1.073
G1 X94.073 Y48.887
X94.179 Y49.048
X94.254 Y49.178
X94.321 Y49.312
X94.38 Y49.451
X94.437 Y49.606
X94.487 Y49.772
X94.531 Y49.948
X94.567 Y50.138
X94.594 Y50.343
X94.611 Y50.557
X94.617 Y50.78
X94.61 Y51.011
X94.589 Y51.253
X94.555 Y51.503
X94.505 Y51.756
X94.441 Y52.012
X94.361 Y52.271
X94.265 Y52.529
X94.154 Y52.786
X94.026 Y53.042
X93.882 Y53.294
X93.724 Y53.541
X93.549 Y53.782
X93.379 Y53.992
X93.188 Y54.204
X92.994 Y54.397
X92.805 Y54.565
X92.591 Y54.736
X92.385 Y54.883
X92.178 Y55.014
X91.951 Y55.142
X91.738 Y55.246
X91.514 Y55.341
X91.12 Y55.45
X90.713 Y55.493
X90.305 Y55.47
X89.906 Y55.383
X89.526 Y55.232
X89.175 Y55.022
X88.862 Y54.758
X88.596 Y54.448
X87.691 Y53.202
G3 X88.05 Y51.428 I1.053 J-0.71
G1 X92.379 Y48.605
G3 X94.073 Y48.887 I0.694 J1.064
G1 X94.973 Y50.125
X95.072 Y50.277
X95.147 Y50.407
X95.214 Y50.541
X95.273 Y50.68
X95.33 Y50.834
X95.381 Y51.001
X95.424 Y51.176
X95.46 Y51.366
X95.487 Y51.57
X95.504 Y51.784
X95.51 Y52.006
X95.503 Y52.239
X95.482 Y52.481
X95.448 Y52.731
X95.398 Y52.986
X95.333 Y53.244
X95.253 Y53.502
X95.157 Y53.762
X95.045 Y54.021
X94.916 Y54.277
X94.772 Y54.531
X94.612 Y54.779
X94.438 Y55.021
X94.267 Y55.232
X94.076 Y55.444
X93.882 Y55.636
X93.693 Y55.804
X93.479 Y55.975
X93.274 Y56.121
X93.067 Y56.253
X92.84 Y56.38
X92.628 Y56.484
X92.404 Y56.58
X92.011 Y56.687
X91.607 Y56.731
X91.2 Y56.708
X90.803 Y56.621
X90.424 Y56.471
X90.075 Y56.262
X89.764 Y55.999
X89.499 Y55.69
X88.596 Y54.448
G3 X88.953 Y52.676 I1.053 J-0.71
G1 X93.276 Y49.844
G3 X94.973 Y50.125 I0.696 J1.062
G1 X95.858 Y51.343
X95.965 Y51.507
X96.04 Y51.637
X96.107 Y51.771
X96.166 Y51.91
X96.223 Y52.065
X96.273 Y52.231
X96.317 Y52.407
X96.353 Y52.597
X96.38 Y52.801
X96.397 Y53.016
X96.403 Y53.239
X96.396 Y53.472
X96.375 Y53.715
X96.341 Y53.966
X96.291 Y54.221
X96.226 Y54.479
X96.146 Y54.738
X96.049 Y54.998
X95.937 Y55.257
X95.809 Y55.514
X95.664 Y55.768
X95.504 Y56.017
X95.33 Y56.258
X95.159 Y56.469
X94.967 Y56.681
X94.774 Y56.874
X94.585 Y57.042
X94.371 Y57.213
X94.166 Y57.359
X93.959 Y57.49
X93.732 Y57.618
X93.521 Y57.722
X93.297 Y57.817
X92.905 Y57.924
X92.502 Y57.967
X92.096 Y57.945
X91.7 Y57.858
X91.322 Y57.708
X90.974 Y57.5
X90.664 Y57.238
X90.399 Y56.93
X89.499 Y55.69
G3 X89.85 Y53.922 I1.053 J-0.71
G1 X94.155 Y51.066
G3 X95.858 Y51.343 I0.702 J1.058
G1 X96.783 Y52.616
X96.865 Y52.742
X96.939 Y52.872
X97.006 Y53.007
X97.065 Y53.146
X97.121 Y53.302
X97.172 Y53.47
X97.215 Y53.647
X97.251 Y53.838
X97.278 Y54.044
X97.294 Y54.26
X97.299 Y54.484
X97.291 Y54.718
X97.27 Y54.961
X97.234 Y55.213
X97.184 Y55.469
X97.118 Y55.728
X97.036 Y55.988
X96.939 Y56.249
X96.825 Y56.508
X96.696 Y56.765
X96.55 Y57.019
X96.39 Y57.267
X96.214 Y57.508
X96.044 Y57.718
X95.85 Y57.93
X95.657 Y58.121
X95.468 Y58.289
X95.253 Y58.459
X95.049 Y58.603
X94.84 Y58.735
X94.614 Y58.861
X94.404 Y58.963
X93.983 Y59.101
X93.544 Y59.166
X93.101 Y59.157
X92.666 Y59.075
X92.251 Y58.921
X91.867 Y58.699
X91.526 Y58.417
X91.236 Y58.082
X90.399 Y56.93
G3 X90.759 Y55.156 I1.053 J-0.71
G1 X95.089 Y52.334
G3 X96.783 Y52.616 I0.693 J1.064
G1 X97.669 Y53.835
X97.756 Y53.969
X97.831 Y54.099
X97.898 Y54.233
X97.958 Y54.373
X98.014 Y54.528
X98.065 Y54.695
X98.108 Y54.871
X98.145 Y55.062
X98.172 Y55.268
X98.189 Y55.482
X98.195 Y55.705
X98.188 Y55.94
X98.167 Y56.184
X98.132 Y56.435
X98.083 Y56.69
X98.018 Y56.949
X97.937 Y57.208
X97.841 Y57.469
X97.728 Y57.729
X97.599 Y57.987
X97.454 Y58.241
X97.294 Y58.49
X97.137 Y58.708
X96.959 Y58.928
X96.773 Y59.133
X96.595 Y59.31
X96.391 Y59.492
X96.188 Y59.654
X95.993 Y59.793
X95.769 Y59.935
X95.553 Y60.056
X95.345 Y60.158
X95.109 Y60.259
X94.711 Y60.368
X94.3 Y60.412
X93.888 Y60.389
X93.485 Y60.3
X93.101 Y60.148
X92.747 Y59.936
X92.431 Y59.67
X92.163 Y59.357
X91.236 Y58.082
G3 X91.613 Y56.296 I1.053 J-0.71
G1 X95.992 Y53.542
G3 X97.293 Y53.512 I0.676 J1.075
X97.669 Y53.835 I-0.625 J1.105
G1 X98.582 Y55.093
X98.664 Y55.218
X98.738 Y55.349
X98.804 Y55.484
X98.863 Y55.624
X98.918 Y55.781
X98.969 Y55.95
X99.011 Y56.13
X99.046 Y56.321
X99.072 Y56.528
X99.088 Y56.745
X99.092 Y56.971
X99.083 Y57.203
X99.061 Y57.446
X99.025 Y57.696
X98.973 Y57.95
X98.906 Y58.208
X98.824 Y58.467
X98.726 Y58.725
X98.613 Y58.982
X98.483 Y59.236
X98.338 Y59.488
X98.177 Y59.733
X98.002 Y59.971
X97.832 Y60.178
X97.637 Y60.391
X97.446 Y60.578
X97.254 Y60.746
X97.039 Y60.915
X96.836 Y61.058
X96.624 Y61.191
X96.398 Y61.315
X96.187 Y61.417
X95.959 Y61.512
X95.569 Y61.616
X95.167 Y61.656
X94.765 Y61.632
X94.371 Y61.544
X93.996 Y61.394
X93.651 Y61.186
X93.342 Y60.926
X93.08 Y60.619
X92.163 Y59.357
G3 X92.535 Y57.575 I1.053 J-0.71
G1 X96.901 Y54.802
G3 X98.582 Y55.093 I0.681 J1.072
G1 X99.479 Y56.327
X99.561 Y56.452
X99.634 Y56.583
X99.7 Y56.718
X99.759 Y56.859
X99.815 Y57.016
X99.865 Y57.184
X99.907 Y57.362
X99.942 Y57.553
X99.968 Y57.76
X99.983 Y57.975
X99.987 Y58.199
X99.978 Y58.433
X99.955 Y58.676
X99.918 Y58.928
X99.866 Y59.183
X99.799 Y59.441
X99.717 Y59.7
X99.618 Y59.959
X99.503 Y60.218
X99.373 Y60.474
X99.226 Y60.727
X99.064 Y60.974
X98.887 Y61.215
X98.715 Y61.424
X98.521 Y61.636
X98.326 Y61.826
X98.135 Y61.993
X97.92 Y62.162
X97.715 Y62.306
X97.505 Y62.437
X97.278 Y62.561
X97.067 Y62.663
X97.009 Y62.687
X96.603 Y62.817
X96.18 Y62.879
X95.754 Y62.869
X95.335 Y62.788
X94.936 Y62.638
X94.566 Y62.425
X94.238 Y62.153
X93.959 Y61.83
X93.08 Y60.619
G3 X93.445 Y58.841 I1.053 J-0.71
G1 X97.79 Y56.041
G3 X99.479 Y56.327 I0.688 J1.067
G1 X100.364 Y57.545
X100.446 Y57.67
X100.52 Y57.8
X100.587 Y57.935
X100.647 Y58.076
X100.703 Y58.231
X100.753 Y58.397
X100.796 Y58.574
X100.832 Y58.766
X100.859 Y58.971
X100.875 Y59.185
X100.88 Y59.408
X100.872 Y59.643
X100.851 Y59.887
X100.816 Y60.138
X100.765 Y60.393
X100.7 Y60.651
X100.618 Y60.91
X100.521 Y61.171
X100.407 Y61.432
X100.277 Y61.689
X100.131 Y61.944
X99.971 Y62.192
X99.806 Y62.418
X99.628 Y62.638
X99.437 Y62.848
X99.255 Y63.028
X99.05 Y63.21
X98.844 Y63.373
X98.646 Y63.513
X98.423 Y63.654
X98.206 Y63.774
X97.997 Y63.876
X97.572 Y64.015
X97.13 Y64.081
X96.683 Y64.072
X96.243 Y63.989
X95.824 Y63.833
X95.437 Y63.61
X95.092 Y63.325
X94.8 Y62.986
X93.959 Y61.83
G3 X94.326 Y60.051 I1.053 J-0.71
G1 X98.677 Y57.258
G3 X100.364 Y57.545 I0.686 J1.069
G1 X101.264 Y58.784
X101.346 Y58.91
X101.42 Y59.04
X101.486 Y59.175
X101.545 Y59.315
X101.601 Y59.472
X101.651 Y59.641
X101.694 Y59.819
X101.729 Y60.01
X101.756 Y60.217
X101.771 Y60.434
X101.775 Y60.658
X101.767 Y60.892
X101.745 Y61.135
X101.708 Y61.387
X101.657 Y61.642
X101.59 Y61.9
X101.508 Y62.16
X101.41 Y62.42
X101.296 Y62.678
X101.166 Y62.935
X101.02 Y63.188
X100.859 Y63.434
X100.703 Y63.648
X100.521 Y63.869
X100.338 Y64.07
X100.159 Y64.245
X99.952 Y64.427
X99.751 Y64.586
X99.554 Y64.724
X99.328 Y64.865
X99.114 Y64.984
X98.903 Y65.086
X98.665 Y65.185
X98.269 Y65.291
X97.861 Y65.333
X97.452 Y65.308
X97.051 Y65.219
X96.671 Y65.066
X96.319 Y64.855
X96.006 Y64.59
X95.739 Y64.279
X94.8 Y62.986
G3 X95.188 Y61.194 I1.053 J-0.71
G1 X99.599 Y58.484
G3 X101.264 Y58.784 I0.665 J1.082
G1 X102.147 Y59.999
X102.232 Y60.13
X102.307 Y60.259
X102.374 Y60.394
X102.434 Y60.534
X102.491 Y60.69
X102.541 Y60.855
X102.584 Y61.032
X102.621 Y61.223
X102.648 Y61.428
X102.665 Y61.642
X102.67 Y61.864
X102.663 Y62.096
X102.643 Y62.339
X102.608 Y62.588
X102.559 Y62.84
X102.495 Y63.095
X102.415 Y63.352
X102.319 Y63.61
X102.208 Y63.866
X102.08 Y64.122
X101.936 Y64.374
X101.778 Y64.62
X101.604 Y64.861
X101.432 Y65.073
X101.242 Y65.283
X101.047 Y65.476
X100.858 Y65.644
X100.644 Y65.815
X100.437 Y65.963
X100.231 Y66.093
X100.002 Y66.221
X99.788 Y66.326
X99.566 Y66.421
X99.171 Y66.529
X98.764 Y66.572
X98.356 Y66.55
X97.956 Y66.462
X97.575 Y66.311
X97.224 Y66.1
X96.911 Y65.836
X96.645 Y65.526
X95.739 Y64.279
G3 X96.107 Y62.499 I1.053 J-0.71
G1 X100.461 Y59.711
G3 X102.147 Y59.999 I0.685 J1.07
G1 X103.03 Y61.215
X103.126 Y61.361
X103.201 Y61.491
X103.268 Y61.625
X103.327 Y61.764
X103.383 Y61.918
X103.434 Y62.084
X103.477 Y62.259
X103.513 Y62.449
X103.54 Y62.652
X103.557 Y62.866
X103.562 Y63.088
X103.555 Y63.32
X103.535 Y63.562
X103.5 Y63.812
X103.451 Y64.067
X103.386 Y64.324
X103.306 Y64.582
X103.21 Y64.842
X103.097 Y65.101
X102.969 Y65.357
X102.824 Y65.611
X102.665 Y65.859
X102.49 Y66.101
X102.32 Y66.311
X102.128 Y66.524
X101.934 Y66.716
X101.746 Y66.884
X101.531 Y67.055
X101.326 Y67.201
X101.119 Y67.333
X100.892 Y67.46
X100.679 Y67.564
X100.456 Y67.66
X100.063 Y67.767
X99.658 Y67.81
X99.251 Y67.788
X98.853 Y67.7
X98.474 Y67.55
X98.125 Y67.341
X97.813 Y67.078
X97.548 Y66.769
X96.645 Y65.526
G3 X97.005 Y63.751 I1.053 J-0.71
G1 X101.337 Y60.933
G3 X102.655 Y60.892 I0.693 J1.065
X103.03 Y61.215 I-0.625 J1.105
G1 X103.923 Y62.444
X104.017 Y62.588
X104.092 Y62.718
X104.159 Y62.852
X104.219 Y62.991
X104.275 Y63.146
X104.326 Y63.312
X104.369 Y63.488
X104.405 Y63.678
X104.432 Y63.882
X104.449 Y64.097
X104.455 Y64.319
X104.448 Y64.552
X104.428 Y64.795
X104.393 Y65.046
X104.343 Y65.301
X104.278 Y65.559
X104.198 Y65.818
X104.102 Y66.078
X103.989 Y66.337
X103.861 Y66.594
X103.716 Y66.848
X103.556 Y67.097
X103.382 Y67.338
X103.211 Y67.549
X103.019 Y67.761
X102.826 Y67.954
X102.637 Y68.122
X102.423 Y68.293
X102.218 Y68.439
X102.01 Y68.571
X101.784 Y68.698
X101.572 Y68.802
X101.348 Y68.897
X100.957 Y69.004
X100.553 Y69.047
X100.147 Y69.025
X99.75 Y68.938
X99.373 Y68.788
X99.024 Y68.579
X98.714 Y68.318
X98.449 Y68.009
X97.548 Y66.769
G3 X97.905 Y64.997 I1.053 J-0.71
G1 X102.226 Y62.164
G3 X103.923 Y62.444 I0.696 J1.062
G1 X104.804 Y63.656
X104.911 Y63.82
X104.986 Y63.949
X105.052 Y64.084
X105.112 Y64.223
X105.169 Y64.378
X105.219 Y64.544
X105.263 Y64.72
X105.299 Y64.91
X105.326 Y65.115
X105.343 Y65.33
X105.349 Y65.553
X105.342 Y65.786
X105.322 Y66.029
X105.287 Y66.281
X105.237 Y66.536
X105.172 Y66.794
X105.092 Y67.053
X104.995 Y67.314
X104.883 Y67.573
X104.754 Y67.83
X104.61 Y68.085
X104.45 Y68.333
X104.275 Y68.575
X104.104 Y68.786
X103.913 Y68.998
X103.719 Y69.19
X103.531 Y69.359
X103.316 Y69.53
X103.112 Y69.676
X102.905 Y69.807
X102.678 Y69.934
X102.467 Y70.038
X102.044 Y70.178
X101.604 Y70.244
X101.159 Y70.236
X100.721 Y70.154
X100.303 Y70
X99.918 Y69.778
X99.574 Y69.494
X99.283 Y69.157
X98.449 Y68.009
G3 X98.799 Y66.242 I1.053 J-0.71
G1 X103.1 Y63.381
G3 X104.804 Y63.656 I0.703 J1.057
G1 X105.69 Y64.875
X105.805 Y65.052
X105.88 Y65.182
X105.947 Y65.316
X106.007 Y65.455
X106.063 Y65.61
X106.114 Y65.777
X106.158 Y65.953
X106.194 Y66.144
X106.221 Y66.349
X106.238 Y66.564
X106.244 Y66.787
X106.237 Y67.021
X106.217 Y67.264
X106.182 Y67.515
X106.132 Y67.771
X106.067 Y68.029
X105.987 Y68.288
X105.89 Y68.549
X105.778 Y68.809
X105.649 Y69.066
X105.505 Y69.321
X105.345 Y69.569
X105.188 Y69.785
X105.01 Y70.006
X104.825 Y70.211
X104.648 Y70.387
X104.443 Y70.57
X104.241 Y70.731
X104.045 Y70.871
X103.822 Y71.013
X103.606 Y71.134
X103.398 Y71.236
X103.161 Y71.337
X102.762 Y71.446
X102.351 Y71.49
X101.939 Y71.468
X101.535 Y71.379
X101.151 Y71.226
X100.796 Y71.014
X100.48 Y70.748
X100.211 Y70.434
X99.283 Y69.157
G3 X99.651 Y67.378 I1.053 J-0.71
G1 X104.003 Y64.588
G3 X105.69 Y64.875 I0.685 J1.069
G1 X106.603 Y66.132
X106.701 Y66.283
X106.776 Y66.413
X106.843 Y66.547
X106.903 Y66.686
X106.96 Y66.842
X107.01 Y67.008
X107.054 Y67.185
X107.09 Y67.376
X107.118 Y67.581
X107.135 Y67.796
X107.141 Y68.019
X107.134 Y68.251
X107.114 Y68.493
X107.079 Y68.742
X107.03 Y68.995
X106.966 Y69.251
X106.886 Y69.509
X106.79 Y69.767
X106.679 Y70.024
X106.552 Y70.279
X106.409 Y70.531
X106.25 Y70.777
X106.077 Y71.018
X105.907 Y71.228
X105.716 Y71.44
X105.522 Y71.632
X105.334 Y71.8
X105.119 Y71.971
X104.914 Y72.118
X104.707 Y72.249
X104.48 Y72.377
X104.267 Y72.482
X104.043 Y72.577
X103.648 Y72.686
X103.24 Y72.729
X102.831 Y72.707
X102.431 Y72.619
X102.05 Y72.468
X101.698 Y72.257
X101.384 Y71.993
X101.118 Y71.682
X100.211 Y70.434
G3 X100.573 Y68.658 I1.053 J-0.71
G1 X104.912 Y65.848
G3 X106.603 Y66.132 I0.69 J1.066
G1 X107.488 Y67.351
X107.597 Y67.517
X107.672 Y67.647
X107.739 Y67.781
X107.798 Y67.92
X107.854 Y68.074
X107.905 Y68.24
X107.948 Y68.416
X107.984 Y68.605
X108.012 Y68.81
X108.029 Y69.024
X108.034 Y69.246
X108.027 Y69.478
X108.007 Y69.72
X107.972 Y69.97
X107.923 Y70.225
X107.858 Y70.482
X107.778 Y70.74
X107.682 Y71
X107.57 Y71.258
X107.442 Y71.515
X107.297 Y71.768
X107.138 Y72.016
X106.963 Y72.257
X106.793 Y72.468
X106.602 Y72.68
X106.408 Y72.872
X106.22 Y73.04
X106.005 Y73.212
X105.8 Y73.358
X105.593 Y73.489
X105.366 Y73.616
X105.154 Y73.721
X105.116 Y73.737
X104.699 Y73.874
X104.266 Y73.94
X103.827 Y73.932
X103.396 Y73.851
X102.985 Y73.699
X102.605 Y73.481
X102.267 Y73.201
X101.98 Y72.869
X101.118 Y71.682
G3 X101.473 Y69.911 I1.053 J-0.71
G1 X105.79 Y67.072
G3 X107.488 Y67.351 I0.698 J1.061
G1 X108.414 Y68.625
X108.496 Y68.751
X108.571 Y68.881
X108.637 Y69.016
X108.696 Y69.155
X108.752 Y69.311
X108.803 Y69.478
X108.846 Y69.656
X108.881 Y69.846
X108.908 Y70.051
X108.924 Y70.267
X108.929 Y70.491
X108.921 Y70.725
X108.9 Y70.967
X108.864 Y71.219
X108.813 Y71.475
X108.747 Y71.733
X108.666 Y71.992
X108.568 Y72.253
X108.455 Y72.512
X108.325 Y72.768
X108.18 Y73.022
X108.019 Y73.269
X107.86 Y73.488
X107.678 Y73.711
X107.492 Y73.916
X107.312 Y74.094
X107.105 Y74.277
X106.902 Y74.437
X106.705 Y74.577
X106.48 Y74.718
X106.265 Y74.838
X106.055 Y74.94
X105.818 Y75.04
X105.424 Y75.147
X105.018 Y75.189
X104.61 Y75.165
X104.212 Y75.077
X103.833 Y74.926
X103.483 Y74.716
X103.171 Y74.452
X102.905 Y74.143
X101.98 Y72.869
G3 X102.357 Y71.084 I1.053 J-0.71
G1 X106.738 Y68.332
G3 X108.414 Y68.625 I0.676 J1.075
G1 X109.285 Y69.824
X109.385 Y69.976
X109.46 Y70.106
X109.526 Y70.241
X109.586 Y70.38
X109.643 Y70.536
X109.693 Y70.702
X109.737 Y70.878
X109.773 Y71.069
X109.8 Y71.274
X109.817 Y71.488
X109.823 Y71.71
X109.816 Y71.942
X109.795 Y72.185
X109.76 Y72.435
X109.711 Y72.688
X109.647 Y72.944
X109.567 Y73.202
X109.471 Y73.461
X109.359 Y73.718
X109.231 Y73.975
X109.087 Y74.228
X108.928 Y74.475
X108.753 Y74.716
X108.582 Y74.928
X108.391 Y75.139
X108.196 Y75.332
X108.007 Y75.5
X107.793 Y75.671
X107.587 Y75.818
X107.381 Y75.949
X107.153 Y76.077
X106.94 Y76.181
X106.717 Y76.276
X106.324 Y76.384
X105.919 Y76.427
X105.512 Y76.405
X105.114 Y76.317
X104.735 Y76.167
X104.385 Y75.957
X104.073 Y75.695
X103.808 Y75.385
X102.905 Y74.143
G3 X103.263 Y72.369 I1.053 J-0.71
G1 X107.59 Y69.543
G3 X109.285 Y69.824 I0.695 J1.063
G1 X110.2 Y71.083
X110.282 Y71.208
X110.356 Y71.338
X110.423 Y71.473
X110.482 Y71.612
X110.539 Y71.767
X110.589 Y71.934
X110.632 Y72.11
X110.668 Y72.3
X110.695 Y72.505
X110.712 Y72.719
X110.717 Y72.942
X110.71 Y73.175
X110.689 Y73.418
X110.654 Y73.669
X110.604 Y73.924
X110.538 Y74.182
X110.458 Y74.441
X110.361 Y74.701
X110.248 Y74.961
X110.119 Y75.217
X109.974 Y75.471
X109.814 Y75.719
X109.639 Y75.961
X109.468 Y76.171
X109.276 Y76.383
X109.082 Y76.575
X108.893 Y76.743
X108.679 Y76.914
X108.474 Y77.059
X108.266 Y77.191
X108.039 Y77.317
X107.828 Y77.421
X107.603 Y77.516
X107.212 Y77.623
X106.809 Y77.665
X106.405 Y77.643
X106.009 Y77.555
X105.633 Y77.406
X105.285 Y77.197
X104.975 Y76.936
X104.711 Y76.629
X103.808 Y75.385
G3 X104.17 Y73.609 I1.053 J-0.71
G1 X108.508 Y70.799
G3 X110.2 Y71.083 I0.691 J1.066
G1 X111.088 Y72.306
X111.173 Y72.435
X111.248 Y72.565
X111.315 Y72.7
X111.374 Y72.839
X111.431 Y72.994
X111.482 Y73.16
X111.525 Y73.336
X111.561 Y73.527
X111.589 Y73.732
X111.606 Y73.946
X111.611 Y74.169
X111.604 Y74.403
X111.584 Y74.646
X111.549 Y74.898
X111.499 Y75.153
X111.434 Y75.411
X111.354 Y75.67
X111.257 Y75.93
X111.145 Y76.19
X111.016 Y76.447
X110.871 Y76.702
X110.711 Y76.95
X110.537 Y77.192
X110.365 Y77.404
X110.174 Y77.616
X109.98 Y77.809
X109.791 Y77.977
X109.577 Y78.148
X109.372 Y78.294
X109.165 Y78.425
X108.938 Y78.552
X108.726 Y78.656
X108.503 Y78.752
X108.112 Y78.859
X107.709 Y78.902
X107.305 Y78.879
X106.909 Y78.792
X106.532 Y78.643
X106.184 Y78.435
X105.874 Y78.174
X105.61 Y77.866
X104.711 Y76.629
G3 X105.069 Y74.856 I1.053 J-0.71
G1 X109.392 Y72.025
G3 X111.088 Y72.306 I0.696 J1.063
G1 X111.999 Y73.559
X112.081 Y73.684
X112.154 Y73.815
X112.22 Y73.95
X112.279 Y74.09
X112.334 Y74.247
X112.385 Y74.416
X112.427 Y74.596
X112.462 Y74.787
X112.488 Y74.993
X112.503 Y75.211
X112.507 Y75.437
X112.499 Y75.671
X112.476 Y75.915
X112.439 Y76.167
X112.387 Y76.425
X112.32 Y76.684
X112.236 Y76.944
X112.137 Y77.206
X112.022 Y77.465
X111.892 Y77.721
X111.745 Y77.975
X111.583 Y78.222
X111.407 Y78.462
X111.236 Y78.67
X111.041 Y78.883
X110.849 Y79.07
X110.657 Y79.238
X110.442 Y79.407
X110.239 Y79.549
X110.027 Y79.682
X109.803 Y79.805
X109.593 Y79.906
X109.581 Y79.911
X109.165 Y80.045
X108.733 Y80.108
X108.296 Y80.097
X107.868 Y80.015
X107.459 Y79.862
X107.081 Y79.643
X106.744 Y79.365
X106.459 Y79.034
X105.61 Y77.866
G3 X105.972 Y76.091 I1.053 J-0.71
G1 X110.306 Y73.276
G3 X111.999 Y73.559 I0.692 J1.065
G1 X112.881 Y74.773
X112.964 Y74.901
X113.039 Y75.031
X113.106 Y75.165
X113.167 Y75.307
X113.223 Y75.462
X113.274 Y75.628
X113.317 Y75.805
X113.354 Y75.997
X113.381 Y76.202
X113.398 Y76.416
X113.403 Y76.639
X113.396 Y76.875
X113.376 Y77.119
X113.341 Y77.37
X113.291 Y77.625
X113.226 Y77.883
X113.146 Y78.142
X113.049 Y78.404
X112.935 Y78.665
X112.806 Y78.923
X112.661 Y79.178
X112.501 Y79.426
X112.341 Y79.648
X112.164 Y79.865
X111.977 Y80.073
X111.797 Y80.252
X111.594 Y80.432
X111.389 Y80.596
X111.194 Y80.735
X110.971 Y80.876
X110.754 Y80.998
X110.546 Y81.1
X110.311 Y81.2
X109.915 Y81.308
X109.506 Y81.352
X109.096 Y81.329
X108.696 Y81.241
X108.314 Y81.089
X107.962 Y80.879
X107.648 Y80.614
X107.381 Y80.302
X106.459 Y79.034
G3 X106.832 Y77.251 I1.053 J-0.71
G1 X111.2 Y74.482
G3 X112.881 Y74.773 I0.68 J1.073
G1 X113.794 Y76.03
X113.876 Y76.156
X113.949 Y76.286
X114.015 Y76.421
X114.074 Y76.562
X114.129 Y76.719
X114.179 Y76.89
X114.222 Y77.07
X114.256 Y77.261
X114.282 Y77.468
X114.297 Y77.687
X114.301 Y77.913
X114.292 Y78.146
X114.269 Y78.389
X114.232 Y78.64
X114.18 Y78.895
X114.112 Y79.153
X114.029 Y79.412
X113.93 Y79.672
X113.816 Y79.929
X113.686 Y80.184
X113.539 Y80.435
X113.378 Y80.68
X113.203 Y80.918
X113.032 Y81.125
X112.837 Y81.338
X112.645 Y81.525
X112.453 Y81.693
X112.238 Y81.861
X112.035 Y82.003
X111.822 Y82.136
X111.597 Y82.259
X111.387 Y82.36
X111.157 Y82.455
X110.77 Y82.558
X110.371 Y82.597
X109.971 Y82.573
X109.58 Y82.484
X109.208 Y82.335
X108.865 Y82.128
X108.559 Y81.87
X108.298 Y81.565
X107.381 Y80.302
G3 X107.189 Y79.845 I1.053 J-0.71
X107.751 Y78.521 I1.244 J-0.253
G1 X112.11 Y75.741
G3 X113.794 Y76.03 I0.683 J1.071
G1 X114.692 Y77.266
X114.774 Y77.392
X114.847 Y77.523
X114.913 Y77.658
X114.972 Y77.8
X115.027 Y77.958
X115.077 Y78.126
X115.119 Y78.305
X115.153 Y78.498
X115.179 Y78.705
X115.193 Y78.921
X115.196 Y79.146
X115.187 Y79.381
X115.164 Y79.625
X115.126 Y79.877
X115.073 Y80.133
X115.005 Y80.391
X114.922 Y80.65
X114.822 Y80.911
X114.706 Y81.169
X114.575 Y81.426
X114.427 Y81.679
X114.264 Y81.926
X114.087 Y82.166
X113.913 Y82.375
X113.719 Y82.586
X113.524 Y82.775
X113.332 Y82.942
X113.117 Y83.111
X112.912 Y83.253
X112.701 Y83.384
X112.475 Y83.507
X112.264 Y83.608
X112.216 Y83.628
X111.81 Y83.757
X111.389 Y83.817
X110.963 Y83.806
X110.545 Y83.725
X110.146 Y83.575
X109.777 Y83.362
X109.449 Y83.09
X109.171 Y82.767
X108.298 Y81.565
G3 X108.661 Y79.789 I1.053 J-0.71
G1 X113.002 Y76.982
G3 X114.692 Y77.266 I0.69 J1.066
G1 X115.555 Y78.454
X115.652 Y78.603
X115.727 Y78.733
X115.794 Y78.867
X115.854 Y79.008
X115.911 Y79.163
X115.961 Y79.328
X116.004 Y79.505
X116.041 Y79.697
X116.068 Y79.901
X116.084 Y80.113
X116.09 Y80.337
X116.082 Y80.573
X116.062 Y80.817
X116.027 Y81.067
X115.977 Y81.322
X115.912 Y81.579
X115.831 Y81.839
X115.734 Y82.101
X115.621 Y82.362
X115.491 Y82.62
X115.346 Y82.875
X115.185 Y83.124
X115.021 Y83.351
X114.845 Y83.568
X114.654 Y83.78
X114.471 Y83.961
X114.268 Y84.141
X114.062 Y84.306
X113.865 Y84.446
X113.643 Y84.587
X113.425 Y84.708
X113.217 Y84.81
X112.791 Y84.95
X112.347 Y85.017
X111.899 Y85.009
X111.458 Y84.926
X111.038 Y84.77
X110.649 Y84.546
X110.303 Y84.261
X110.01 Y83.921
X109.171 Y82.767
G3 X109.531 Y80.993 I1.053 J-0.71
G1 X113.861 Y78.172
G3 X115.555 Y78.454 I0.693 J1.064
G1 X116.476 Y79.722
X116.558 Y79.847
X116.632 Y79.978
X116.698 Y80.113
X116.757 Y80.253
X116.812 Y80.41
X116.863 Y80.579
X116.906 Y80.758
X116.94 Y80.949
X116.967 Y81.156
X116.982 Y81.374
X116.986 Y81.599
X116.978 Y81.833
X116.956 Y82.076
X116.919 Y82.328
X116.867 Y82.584
X116.8 Y82.842
X116.718 Y83.102
X116.619 Y83.362
X116.505 Y83.62
X116.375 Y83.877
X116.228 Y84.13
X116.069 Y84.374
X115.912 Y84.587
X115.73 Y84.809
X115.547 Y85.009
X115.368 Y85.184
X115.161 Y85.366
X114.96 Y85.524
X114.763 Y85.663
X114.538 Y85.803
X114.324 Y85.921
X114.112 Y86.023
X113.875 Y86.123
X113.479 Y86.228
X113.071 Y86.27
X112.662 Y86.245
X112.262 Y86.155
X111.882 Y86.003
X111.53 Y85.792
X111.217 Y85.527
X110.951 Y85.216
X110.01 Y83.921
G3 X110.399 Y82.129 I1.053 J-0.71
G1 X114.811 Y79.421
G3 X116.101 Y79.398 I0.664 J1.082
X116.476 Y79.722 I-0.625 J1.105
G1 X117.367 Y80.948
X117.449 Y81.073
X117.523 Y81.203
X117.59 Y81.338
X117.649 Y81.479
X117.706 Y81.635
X117.756 Y81.802
X117.799 Y81.979
X117.835 Y82.172
X117.861 Y82.377
X117.877 Y82.592
X117.882 Y82.815
X117.874 Y83.047
X117.853 Y83.29
X117.818 Y83.54
X117.767 Y83.792
X117.702 Y84.047
X117.621 Y84.305
X117.525 Y84.562
X117.413 Y84.818
X117.284 Y85.074
X117.139 Y85.325
X116.98 Y85.571
X116.805 Y85.811
X116.633 Y86.022
X116.442 Y86.232
X116.247 Y86.424
X116.057 Y86.592
X115.842 Y86.762
X115.636 Y86.908
X115.429 Y87.039
X115.2 Y87.165
X114.987 Y87.269
X114.763 Y87.364
X114.37 Y87.47
X113.966 Y87.512
X113.56 Y87.488
X113.163 Y87.4
X112.785 Y87.25
X112.437 Y87.04
X112.126 Y86.778
X111.861 Y86.469
X110.951 Y85.216
G3 X111.322 Y83.435 I1.053 J-0.71
G1 X115.684 Y80.658
G3 X117.367 Y80.948 I0.682 J1.071
G1 X118.269 Y82.19
X118.351 Y82.315
X118.425 Y82.446
X118.49 Y82.581
X118.549 Y82.721
X118.604 Y82.877
X118.654 Y83.046
X118.696 Y83.224
X118.731 Y83.414
X118.756 Y83.62
X118.772 Y83.836
X118.775 Y84.06
X118.766 Y84.293
X118.744 Y84.536
X118.707 Y84.787
X118.655 Y85.043
X118.587 Y85.301
X118.504 Y85.56
X118.406 Y85.82
X118.291 Y86.078
X118.16 Y86.334
X118.013 Y86.587
X117.851 Y86.834
X117.675 Y87.074
X117.503 Y87.282
X117.308 Y87.494
X117.115 Y87.683
X116.924 Y87.85
X116.708 Y88.019
X116.504 Y88.162
X116.293 Y88.294
X116.067 Y88.418
X115.856 Y88.519
X115.761 Y88.559
X115.362 Y88.686
X114.947 Y88.746
X114.529 Y88.736
X114.118 Y88.657
X113.725 Y88.51
X113.363 Y88.3
X113.04 Y88.033
X112.767 Y87.716
X111.861 Y86.469
G3 X112.229 Y84.69 I1.053 J-0.71
G1 X116.584 Y81.902
G3 X118.269 Y82.19 I0.685 J1.07
G1 X119.147 Y83.398
X119.231 Y83.526
X119.306 Y83.656
X119.372 Y83.79
X119.432 Y83.931
X119.489 Y84.086
X119.539 Y84.251
X119.582 Y84.427
X119.618 Y84.619
X119.646 Y84.823
X119.662 Y85.036
X119.668 Y85.258
X119.66 Y85.493
X119.64 Y85.737
X119.605 Y85.987
X119.555 Y86.242
X119.49 Y86.499
X119.41 Y86.758
X119.313 Y87.019
X119.199 Y87.279
X119.07 Y87.537
X118.925 Y87.792
X118.765 Y88.04
X118.598 Y88.271
X118.42 Y88.49
X118.226 Y88.705
X118.042 Y88.887
X117.838 Y89.069
X117.63 Y89.235
X117.432 Y89.375
X117.209 Y89.517
X116.991 Y89.638
X116.783 Y89.741
X116.548 Y89.84
X116.159 Y89.947
X115.758 Y89.989
X115.355 Y89.967
X114.961 Y89.88
X114.586 Y89.731
X114.24 Y89.524
X113.931 Y89.264
X113.669 Y88.957
X112.767 Y87.716
G3 X113.125 Y85.942 I1.053 J-0.71
G1 X117.452 Y83.116
G3 X118.772 Y83.074 I0.695 J1.063
X119.147 Y83.398 I-0.625 J1.105
G1 X120.016 Y84.593
X120.123 Y84.758
X120.198 Y84.888
X120.265 Y85.022
X120.324 Y85.161
X120.381 Y85.316
X120.432 Y85.482
X120.475 Y85.659
X120.511 Y85.849
X120.539 Y86.054
X120.556 Y86.269
X120.561 Y86.491
X120.554 Y86.724
X120.534 Y86.967
X120.499 Y87.219
X120.449 Y87.474
X120.384 Y87.732
X120.304 Y87.992
X120.207 Y88.252
X120.095 Y88.511
X119.966 Y88.77
X119.821 Y89.024
X119.661 Y89.272
X119.486 Y89.515
X119.314 Y89.727
X119.123 Y89.939
X118.928 Y90.132
X118.739 Y90.301
X118.525 Y90.472
X118.32 Y90.618
X118.113 Y90.749
X117.886 Y90.876
X117.675 Y90.98
X117.253 Y91.119
X116.814 Y91.186
X116.37 Y91.178
X115.934 Y91.096
X115.517 Y90.942
X115.133 Y90.72
X114.79 Y90.438
X114.5 Y90.102
X113.669 Y88.957
G3 X114.016 Y87.192 I1.053 J-0.71
G1 X118.309 Y84.32
G3 X120.016 Y84.593 I0.706 J1.056
G1 X120.901 Y85.813
X121.017 Y85.99
X121.092 Y86.12
X121.159 Y86.254
X121.219 Y86.393
X121.275 Y86.548
X121.326 Y86.715
X121.37 Y86.891
X121.406 Y87.082
X121.433 Y87.287
X121.45 Y87.502
X121.456 Y87.725
X121.449 Y87.959
X121.429 Y88.202
X121.394 Y88.454
X121.344 Y88.71
X121.279 Y88.968
X121.199 Y89.228
X121.102 Y89.489
X120.989 Y89.749
X120.861 Y90.007
X120.716 Y90.261
X120.556 Y90.51
X120.399 Y90.727
X120.22 Y90.948
X120.036 Y91.152
X119.858 Y91.329
X119.653 Y91.511
X119.451 Y91.673
X119.256 Y91.812
X119.032 Y91.954
X118.817 Y92.075
X118.609 Y92.177
X118.372 Y92.278
X117.974 Y92.387
X117.564 Y92.431
X117.152 Y92.409
X116.749 Y92.32
X116.365 Y92.168
X116.011 Y91.956
X115.695 Y91.69
X115.427 Y91.377
X114.5 Y90.102
G3 X114.866 Y88.323 I1.053 J-0.71
G1 X119.213 Y85.526
G3 X120.901 Y85.813 I0.687 J1.068
G1 X121.815 Y87.07
X121.913 Y87.221
X121.988 Y87.351
X122.055 Y87.485
X122.115 Y87.624
X122.172 Y87.78
X122.223 Y87.947
X122.266 Y88.123
X122.303 Y88.314
X122.33 Y88.52
X122.347 Y88.735
X122.353 Y88.958
X122.346 Y89.19
X122.326 Y89.432
X122.292 Y89.682
X122.242 Y89.935
X122.178 Y90.191
X122.098 Y90.449
X122.003 Y90.708
X121.892 Y90.964
X121.764 Y91.22
X121.621 Y91.472
X121.462 Y91.718
X121.289 Y91.959
X121.119 Y92.169
X120.927 Y92.381
X120.734 Y92.573
X120.546 Y92.741
X120.331 Y92.912
X120.126 Y93.059
X119.919 Y93.19
X119.692 Y93.318
X119.479 Y93.422
X119.256 Y93.518
X118.861 Y93.626
X118.453 Y93.67
X118.044 Y93.647
X117.644 Y93.56
X117.264 Y93.409
X116.912 Y93.198
X116.599 Y92.935
X116.333 Y92.624
X115.427 Y91.377
G3 X115.788 Y89.601 I1.053 J-0.71
G1 X120.122 Y86.786
G3 X121.439 Y86.746 I0.692 J1.065
X121.815 Y87.07 I-0.625 J1.105
G1 X122.713 Y88.306
X122.81 Y88.454
X122.885 Y88.584
X122.952 Y88.718
X123.011 Y88.857
X123.068 Y89.012
X123.118 Y89.178
X123.162 Y89.354
X123.198 Y89.543
X123.225 Y89.748
X123.242 Y89.962
X123.248 Y90.184
X123.241 Y90.417
X123.22 Y90.659
X123.186 Y90.909
X123.136 Y91.164
X123.072 Y91.421
X122.991 Y91.679
X122.895 Y91.939
X122.783 Y92.198
X122.655 Y92.454
X122.511 Y92.708
X122.351 Y92.956
X122.177 Y93.198
X122.006 Y93.408
X121.815 Y93.62
X121.622 Y93.812
X121.433 Y93.981
X121.218 Y94.152
X121.014 Y94.298
X120.806 Y94.43
X120.579 Y94.557
X120.367 Y94.661
X120.333 Y94.676
X119.916 Y94.813
X119.482 Y94.879
X119.042 Y94.871
X118.611 Y94.79
X118.199 Y94.638
X117.818 Y94.419
X117.479 Y94.139
X117.192 Y93.807
X116.333 Y92.624
G3 X116.691 Y90.85 I1.053 J-0.71
G1 X121.018 Y88.025
G3 X122.713 Y88.306 I0.694 J1.063
G1 X123.603 Y89.531
X123.703 Y89.684
X123.778 Y89.814
X123.845 Y89.949
X123.904 Y90.087
X123.961 Y90.242
X124.012 Y90.408
X124.055 Y90.584
X124.091 Y90.774
X124.118 Y90.979
X124.135 Y91.193
X124.141 Y91.416
X124.134 Y91.649
X124.114 Y91.892
X124.079 Y92.143
X124.029 Y92.398
X123.965 Y92.656
X123.884 Y92.915
X123.788 Y93.175
X123.675 Y93.434
X123.547 Y93.691
X123.402 Y93.945
X123.243 Y94.194
X123.084 Y94.414
X122.904 Y94.636
X122.718 Y94.842
X122.538 Y95.021
X122.333 Y95.204
X122.129 Y95.366
X121.933 Y95.506
X121.709 Y95.648
X121.493 Y95.769
X121.284 Y95.872
X120.854 Y96.014
X120.405 Y96.082
X119.951 Y96.074
X119.506 Y95.99
X119.08 Y95.833
X118.687 Y95.607
X118.337 Y95.318
X118.04 Y94.974
X117.192 Y93.807
G3 X117.561 Y92.026 I1.053 J-0.71
G1 X121.918 Y89.242
G3 X123.603 Y89.531 I0.684 J1.07
G1 X124.497 Y90.761
X124.597 Y90.915
X124.672 Y91.045
X124.739 Y91.179
X124.799 Y91.318
X124.855 Y91.473
X124.906 Y91.64
X124.95 Y91.816
X124.986 Y92.006
X125.013 Y92.211
X125.03 Y92.426
X125.036 Y92.649
X125.029 Y92.88
X125.009 Y93.122
X124.974 Y93.372
X124.925 Y93.626
X124.86 Y93.882
X124.78 Y94.14
X124.684 Y94.399
X124.573 Y94.656
X124.445 Y94.912
X124.301 Y95.165
X124.143 Y95.411
X123.988 Y95.625
X123.81 Y95.846
X123.627 Y96.049
X123.449 Y96.225
X123.245 Y96.408
X123.042 Y96.569
X122.847 Y96.709
X122.623 Y96.851
X122.406 Y96.972
X122.197 Y97.075
X121.96 Y97.176
X121.557 Y97.287
X121.141 Y97.331
X120.724 Y97.308
X120.316 Y97.219
X119.927 Y97.065
X119.569 Y96.85
X119.249 Y96.581
X118.977 Y96.264
X118.04 Y94.974
G3 X118.426 Y93.184 I1.053 J-0.71
G1 X122.828 Y90.463
G3 X124.497 Y90.761 I0.668 J1.08
G1 X125.426 Y92.04
X125.508 Y92.166
X125.581 Y92.297
X125.647 Y92.432
X125.705 Y92.573
X125.76 Y92.728
X125.81 Y92.898
X125.853 Y93.078
X125.887 Y93.269
X125.912 Y93.474
X125.927 Y93.692
X125.931 Y93.917
X125.922 Y94.149
X125.899 Y94.389
X125.862 Y94.638
X125.81 Y94.891
X125.743 Y95.147
X125.66 Y95.405
X125.562 Y95.663
X125.448 Y95.918
X125.318 Y96.172
X125.172 Y96.422
X125.012 Y96.665
X124.838 Y96.901
X124.668 Y97.108
X124.472 Y97.32
X124.281 Y97.506
X124.088 Y97.674
X123.873 Y97.843
X123.67 Y97.984
X123.456 Y98.117
X123.23 Y98.241
X123.019 Y98.342
X122.788 Y98.437
X122.397 Y98.541
X121.995 Y98.58
X121.591 Y98.555
X121.197 Y98.466
X120.822 Y98.315
X120.475 Y98.107
X120.166 Y97.846
X119.903 Y97.538
X118.977 Y96.264
G3 X119.36 Y94.475 I1.053 J-0.71
G1 X123.755 Y91.744
G3 X125.426 Y92.04 I0.67 J1.079
G1 X126.269 Y93.201
X126.385 Y93.378
X126.46 Y93.508
X126.527 Y93.642
X126.587 Y93.782
X126.643 Y93.937
X126.692 Y94.101
X126.735 Y94.276
X126.771 Y94.467
X126.798 Y94.67
X126.815 Y94.882
X126.82 Y95.103
X126.813 Y95.336
X126.792 Y95.578
X126.757 Y95.827
X126.708 Y96.08
X126.643 Y96.335
X126.563 Y96.592
X126.466 Y96.852
X126.354 Y97.11
X126.225 Y97.367
X126.08 Y97.62
X125.921 Y97.868
X125.746 Y98.109
X125.572 Y98.323
X125.383 Y98.532
X125.186 Y98.727
X124.997 Y98.895
X124.783 Y99.066
X124.575 Y99.213
X124.369 Y99.343
X124.141 Y99.471
X123.927 Y99.576
X123.854 Y99.607
X123.447 Y99.74
X123.023 Y99.804
X122.594 Y99.796
X122.172 Y99.716
X121.77 Y99.567
X121.399 Y99.353
X121.068 Y99.08
X120.788 Y98.756
X119.903 Y97.538
G3 X120.257 Y95.768 I1.053 J-0.71
G1 X124.569 Y92.923
G3 X126.269 Y93.201 I0.699 J1.06
G1 X127.159 Y94.425
X127.274 Y94.602
X127.349 Y94.732
X127.416 Y94.866
X127.475 Y95.004
X127.531 Y95.159
X127.582 Y95.324
X127.625 Y95.5
X127.661 Y95.689
X127.688 Y95.894
X127.705 Y96.107
X127.71 Y96.329
X127.703 Y96.562
X127.683 Y96.805
X127.648 Y97.056
X127.598 Y97.311
X127.533 Y97.568
X127.453 Y97.827
X127.356 Y98.087
X127.244 Y98.347
X127.115 Y98.604
X126.97 Y98.858
X126.81 Y99.106
X126.647 Y99.332
X126.467 Y99.555
X126.277 Y99.765
X126.095 Y99.945
X125.889 Y100.128
X125.684 Y100.292
X125.487 Y100.433
X125.263 Y100.575
X125.047 Y100.696
X124.838 Y100.798
X124.602 Y100.898
X124.209 Y101.006
X123.805 Y101.049
X123.399 Y101.026
X123.001 Y100.939
X122.623 Y100.789
X122.274 Y100.58
X121.963 Y100.318
X121.698 Y100.009
X120.788 Y98.756
G3 X121.143 Y96.984 I1.053 J-0.71
G1 X125.46 Y94.146
G3 X127.159 Y94.425 I0.698 J1.061
G1 X128.092 Y95.71
X128.174 Y95.836
X128.249 Y95.966
X128.315 Y96.101
X128.374 Y96.241
X128.43 Y96.396
X128.48 Y96.565
X128.523 Y96.743
X128.558 Y96.933
X128.585 Y97.139
X128.601 Y97.355
X128.605 Y97.58
X128.597 Y97.812
X128.576 Y98.055
X128.54 Y98.307
X128.489 Y98.562
X128.423 Y98.82
X128.341 Y99.08
X128.243 Y99.34
X128.13 Y99.598
X128 Y99.855
X127.854 Y100.108
X127.694 Y100.354
X127.518 Y100.595
X127.347 Y100.805
X127.153 Y101.017
X126.96 Y101.207
X126.769 Y101.375
X126.554 Y101.545
X126.35 Y101.689
X126.14 Y101.821
X125.914 Y101.946
X125.704 Y102.049
X125.282 Y102.185
X124.844 Y102.25
X124.402 Y102.241
X123.967 Y102.158
X123.552 Y102.003
X123.168 Y101.782
X122.827 Y101.5
X122.538 Y101.164
X121.698 Y100.009
G3 X121.507 Y99.552 I1.053 J-0.71
X122.061 Y98.232 I1.244 J-0.253
G1 X126.402 Y95.426
G3 X128.092 Y95.71 I0.69 J1.066
G1 X128.936 Y96.872
X129.061 Y97.062
X129.136 Y97.192
X129.203 Y97.326
X129.262 Y97.466
X129.319 Y97.622
X129.369 Y97.787
X129.413 Y97.963
X129.449 Y98.154
X129.476 Y98.359
X129.493 Y98.572
X129.498 Y98.795
X129.491 Y99.029
X129.471 Y99.273
X129.436 Y99.523
X129.386 Y99.778
X129.321 Y100.036
X129.241 Y100.294
X129.144 Y100.555
X129.031 Y100.815
X128.902 Y101.072
X128.757 Y101.327
X128.597 Y101.575
X128.439 Y101.793
X128.262 Y102.013
X128.076 Y102.218
X127.898 Y102.395
X127.694 Y102.577
X127.49 Y102.739
X127.295 Y102.878
X127.071 Y103.02
X126.855 Y103.141
X126.647 Y103.243
X126.41 Y103.343
X126.012 Y103.452
X125.602 Y103.496
X125.19 Y103.473
X124.787 Y103.384
X124.403 Y103.232
X124.049 Y103.02
X123.734 Y102.754
X123.465 Y102.441
X122.538 Y101.164
G3 X122.903 Y99.387 I1.053 J-0.71
G1 X127.247 Y96.586
G3 X128.936 Y96.872 I0.688 J1.067
G1 X129.836 Y98.109
X129.954 Y98.292
X130.03 Y98.422
X130.096 Y98.556
X130.156 Y98.695
X130.213 Y98.85
X130.263 Y99.017
X130.307 Y99.193
X130.343 Y99.383
X130.371 Y99.588
X130.388 Y99.803
X130.393 Y100.026
X130.386 Y100.258
X130.366 Y100.5
X130.331 Y100.749
X130.282 Y101.002
X130.218 Y101.258
X130.138 Y101.516
X130.042 Y101.774
X129.931 Y102.03
X129.804 Y102.286
X129.66 Y102.538
X129.502 Y102.784
X129.328 Y103.025
X129.158 Y103.235
X128.967 Y103.446
X128.774 Y103.639
X128.585 Y103.807
X128.371 Y103.978
X128.165 Y104.124
X127.958 Y104.256
X127.731 Y104.383
X127.518 Y104.488
X127.294 Y104.583
X126.899 Y104.692
X126.492 Y104.735
X126.083 Y104.713
X125.683 Y104.625
X125.303 Y104.474
X124.951 Y104.263
X124.638 Y103.999
X124.372 Y103.689
X123.465 Y102.441
G3 X123.82 Y100.67 I1.053 J-0.71
G1 X128.137 Y97.83
G3 X129.836 Y98.109 I0.698 J1.061
G1 X130.788 Y99.421
X130.87 Y99.547
X130.943 Y99.678
X131.008 Y99.813
X131.067 Y99.955
X131.121 Y100.111
X131.171 Y100.281
X131.213 Y100.462
X131.247 Y100.653
X131.272 Y100.859
X131.286 Y101.077
X131.289 Y101.304
X131.279 Y101.538
X131.255 Y101.78
X131.217 Y102.031
X131.164 Y102.288
X131.095 Y102.546
X131.011 Y102.807
X130.911 Y103.067
X130.795 Y103.326
X130.663 Y103.581
X130.515 Y103.833
X130.352 Y104.079
X130.177 Y104.315
X130.005 Y104.522
X129.809 Y104.734
X129.618 Y104.919
X129.424 Y105.088
X129.209 Y105.254
X129.007 Y105.395
X128.791 Y105.528
X128.568 Y105.649
X128.358 Y105.749
X127.94 Y105.881
X127.505 Y105.942
X127.067 Y105.931
X126.636 Y105.846
X126.226 Y105.692
X125.846 Y105.472
X125.509 Y105.192
X125.222 Y104.859
X124.372 Y103.689
G3 X124.743 Y101.907 I1.053 J-0.71
G1 X129.106 Y99.131
G3 X130.788 Y99.421 I0.682 J1.072
G1 X131.65 Y100.606
X131.744 Y100.752
X131.82 Y100.882
X131.886 Y101.016
X131.947 Y101.158
X132.003 Y101.312
X132.053 Y101.476
X132.096 Y101.654
X132.133 Y101.846
X132.16 Y102.05
X132.176 Y102.262
X132.182 Y102.485
X132.174 Y102.721
X132.154 Y102.965
X132.119 Y103.214
X132.069 Y103.468
X132.004 Y103.724
X131.924 Y103.983
X131.827 Y104.245
X131.713 Y104.505
X131.584 Y104.763
X131.439 Y105.017
X131.279 Y105.265
X131.119 Y105.487
X130.944 Y105.702
X130.756 Y105.91
X130.576 Y106.089
X130.374 Y106.268
X130.169 Y106.432
X129.973 Y106.571
X129.751 Y106.712
X129.533 Y106.834
X129.325 Y106.936
X129.089 Y107.036
X128.692 Y107.144
X128.282 Y107.188
X127.87 Y107.165
X127.468 Y107.076
X127.085 Y106.924
X126.731 Y106.712
X126.416 Y106.446
X126.148 Y106.134
X125.222 Y104.859
G3 X125.031 Y104.402 I1.053 J-0.71
X125.597 Y103.075 I1.244 J-0.253
G1 X129.971 Y100.314
G3 X131.65 Y100.606 I0.678 J1.074
G1 X132.518 Y101.801
X132.637 Y101.984
X132.712 Y102.114
X132.779 Y102.248
X132.838 Y102.387
X132.895 Y102.542
X132.946 Y102.708
X132.989 Y102.884
X133.025 Y103.075
X133.053 Y103.28
X133.07 Y103.494
X133.075 Y103.717
X133.068 Y103.949
X133.048 Y104.191
X133.013 Y104.441
X132.964 Y104.694
X132.899 Y104.949
X132.82 Y105.207
X132.724 Y105.465
X132.613 Y105.722
X132.485 Y105.978
X132.341 Y106.23
X132.183 Y106.476
X132.009 Y106.717
X131.839 Y106.927
X131.647 Y107.139
X131.454 Y107.331
X131.265 Y107.499
X131.051 Y107.67
X130.845 Y107.817
X130.638 Y107.948
X130.411 Y108.076
X130.198 Y108.18
X129.974 Y108.275
X129.58 Y108.383
X129.173 Y108.427
X128.764 Y108.404
X128.365 Y108.316
X127.985 Y108.165
X127.634 Y107.955
X127.321 Y107.692
X127.055 Y107.381
X126.148 Y106.134
G3 X126.503 Y104.363 I1.053 J-0.71
G1 X130.819 Y101.522
G3 X132.518 Y101.801 I0.698 J1.061
G1 X133.436 Y103.065
X133.531 Y103.211
X133.606 Y103.341
X133.673 Y103.475
X133.733 Y103.614
X133.789 Y103.769
X133.84 Y103.935
X133.883 Y104.111
X133.919 Y104.3
X133.947 Y104.505
X133.963 Y104.719
X133.969 Y104.941
X133.962 Y105.174
X133.942 Y105.415
X133.907 Y105.666
X133.858 Y105.921
X133.793 Y106.178
X133.713 Y106.436
X133.617 Y106.696
X133.504 Y106.955
X133.376 Y107.211
X133.232 Y107.465
X133.072 Y107.713
X132.898 Y107.955
X132.727 Y108.165
X132.536 Y108.377
X132.342 Y108.57
X132.153 Y108.738
X131.939 Y108.909
X131.734 Y109.055
X131.527 Y109.187
X131.3 Y109.314
X131.088 Y109.418
X130.864 Y109.513
X130.471 Y109.621
X130.066 Y109.664
X129.66 Y109.642
X129.262 Y109.555
X128.883 Y109.404
X128.534 Y109.195
X128.222 Y108.933
X127.957 Y108.624
X127.055 Y107.381
G3 X127.413 Y105.608 I1.053 J-0.71
G1 X131.741 Y102.783
G3 X133.06 Y102.741 I0.694 J1.063
X133.436 Y103.065 I-0.625 J1.105
G1 X134.325 Y104.289
X134.424 Y104.441
X134.5 Y104.571
X134.566 Y104.705
X134.626 Y104.844
X134.682 Y104.999
X134.733 Y105.165
X134.776 Y105.341
X134.812 Y105.531
X134.84 Y105.736
X134.857 Y105.95
X134.862 Y106.173
X134.855 Y106.406
X134.835 Y106.649
X134.8 Y106.9
X134.751 Y107.155
X134.686 Y107.413
X134.606 Y107.672
X134.509 Y107.932
X134.397 Y108.191
X134.268 Y108.448
X134.124 Y108.702
X133.964 Y108.951
X133.789 Y109.192
X133.619 Y109.403
X133.427 Y109.615
X133.234 Y109.808
X133.045 Y109.976
X132.831 Y110.147
X132.626 Y110.293
X132.419 Y110.424
X132.192 Y110.551
X131.98 Y110.655
X131.757 Y110.751
X131.365 Y110.858
X130.961 Y110.901
X130.556 Y110.879
X130.159 Y110.792
X129.781 Y110.642
X129.433 Y110.433
X129.122 Y110.172
X128.858 Y109.863
X127.957 Y108.624
G3 X127.766 Y108.167 I1.053 J-0.71
X128.311 Y106.853 I1.245 J-0.253
G1 X132.626 Y104.011
G3 X134.325 Y104.289 I0.699 J1.061
G1 X135.232 Y105.538
X135.319 Y105.67
X135.394 Y105.8
X135.461 Y105.934
X135.52 Y106.073
X135.577 Y106.228
X135.628 Y106.395
X135.671 Y106.571
X135.707 Y106.762
X135.735 Y106.967
X135.752 Y107.181
X135.758 Y107.404
X135.751 Y107.638
X135.73 Y107.881
X135.696 Y108.133
X135.646 Y108.388
X135.581 Y108.646
X135.501 Y108.906
X135.404 Y109.166
X135.292 Y109.426
X135.163 Y109.683
X135.019 Y109.938
X134.859 Y110.186
X134.684 Y110.428
X134.513 Y110.639
X134.322 Y110.851
X134.128 Y111.044
X133.939 Y111.212
X133.725 Y111.383
X133.521 Y111.529
X133.313 Y111.661
X133.087 Y111.788
X132.875 Y111.892
X132.866 Y111.896
X132.445 Y112.035
X132.007 Y112.101
X131.564 Y112.093
X131.129 Y112.012
X130.713 Y111.858
X130.329 Y111.637
X129.988 Y111.355
X129.698 Y111.02
X128.858 Y109.863
G3 X128.666 Y109.406 I1.053 J-0.71
X129.214 Y108.091 I1.245 J-0.253
G1 X133.535 Y105.258
G3 X135.232 Y105.538 I0.696 J1.062
G1 X136.113 Y106.75
X136.214 Y106.904
X136.289 Y107.034
X136.356 Y107.168
X136.415 Y107.308
X136.472 Y107.463
X136.523 Y107.629
X136.567 Y107.806
X136.603 Y107.996
X136.63 Y108.201
X136.647 Y108.416
X136.653 Y108.639
X136.646 Y108.873
X136.626 Y109.117
X136.591 Y109.368
X136.541 Y109.624
X136.476 Y109.882
X136.396 Y110.141
X136.299 Y110.402
X136.187 Y110.662
X136.058 Y110.919
X135.914 Y111.174
X135.754 Y111.422
X135.597 Y111.64
X135.418 Y111.861
X135.233 Y112.066
X135.054 Y112.244
X134.849 Y112.426
X134.647 Y112.588
X134.451 Y112.728
X134.228 Y112.87
X134.012 Y112.99
X133.804 Y113.093
X133.567 Y113.194
X133.169 Y113.303
X132.759 Y113.347
X132.347 Y113.324
X131.944 Y113.236
X131.561 Y113.084
X131.207 Y112.872
X130.892 Y112.606
X130.623 Y112.293
X129.698 Y111.02
G3 X129.506 Y110.563 I1.053 J-0.71
X130.069 Y109.238 I1.245 J-0.253
G1 X134.43 Y106.461
G3 X136.113 Y106.75 I0.682 J1.071
G1 X137.027 Y108.007
X137.11 Y108.135
X137.185 Y108.265
X137.252 Y108.399
X137.312 Y108.539
X137.369 Y108.694
X137.42 Y108.861
X137.463 Y109.038
X137.5 Y109.228
X137.527 Y109.434
X137.544 Y109.649
X137.55 Y109.872
X137.543 Y110.104
X137.523 Y110.346
X137.488 Y110.596
X137.439 Y110.849
X137.375 Y111.105
X137.295 Y111.364
X137.199 Y111.622
X137.088 Y111.879
X136.961 Y112.134
X136.817 Y112.387
X136.659 Y112.633
X136.485 Y112.874
X136.315 Y113.084
X136.124 Y113.296
X135.93 Y113.488
X135.742 Y113.657
X135.527 Y113.828
X135.322 Y113.974
X135.115 Y114.106
X134.888 Y114.234
X134.675 Y114.338
X134.451 Y114.433
X134.056 Y114.542
X133.649 Y114.586
X133.24 Y114.563
X132.84 Y114.475
X132.46 Y114.324
X132.108 Y114.114
X131.795 Y113.85
X131.529 Y113.54
X130.623 Y112.293
G3 X130.431 Y111.836 I1.053 J-0.71
X130.99 Y110.514 I1.244 J-0.253
G1 X135.339 Y107.72
G3 X136.651 Y107.684 I0.686 J1.069
X137.027 Y108.007 I-0.625 J1.105
G1 X137.925 Y109.243
X138.007 Y109.369
X138.082 Y109.499
X138.149 Y109.633
X138.208 Y109.772
X138.264 Y109.927
X138.315 Y110.093
X138.359 Y110.269
X138.394 Y110.459
X138.422 Y110.663
X138.439 Y110.877
X138.444 Y111.099
X138.437 Y111.332
X138.417 Y111.574
X138.382 Y111.825
X138.333 Y112.08
X138.268 Y112.337
X138.188 Y112.595
X138.092 Y112.855
X137.979 Y113.114
X137.851 Y113.371
X137.707 Y113.624
X137.547 Y113.872
X137.373 Y114.114
X137.202 Y114.324
X137.01 Y114.537
X136.817 Y114.729
X136.628 Y114.897
X136.414 Y115.068
X136.209 Y115.214
X136.002 Y115.346
X135.775 Y115.473
X135.563 Y115.577
X135.504 Y115.602
X135.092 Y115.738
X134.664 Y115.803
X134.23 Y115.795
X133.804 Y115.715
X133.397 Y115.565
X133.022 Y115.348
X132.687 Y115.072
X132.404 Y114.744
X131.529 Y113.54
G3 X131.337 Y113.083 I1.053 J-0.71
X131.893 Y111.762 I1.245 J-0.253
G1 X136.235 Y108.958
G3 X137.925 Y109.243 I0.689 J1.067
G1 X138.793 Y110.438
X138.899 Y110.601
X138.974 Y110.731
X139.041 Y110.865
X139.101 Y111.004
X139.157 Y111.159
X139.208 Y111.325
X139.251 Y111.501
X139.287 Y111.691
X139.315 Y111.895
X139.331 Y112.11
X139.337 Y112.332
X139.33 Y112.566
X139.31 Y112.808
X139.275 Y113.059
X139.225 Y113.314
X139.16 Y113.572
X139.08 Y113.831
X138.984 Y114.091
X138.871 Y114.351
X138.743 Y114.607
X138.598 Y114.862
X138.439 Y115.11
X138.277 Y115.333
X138.097 Y115.556
X137.909 Y115.764
X137.728 Y115.943
X137.523 Y116.127
X137.318 Y116.29
X137.122 Y116.43
X136.898 Y116.572
X136.682 Y116.693
X136.473 Y116.796
X136.044 Y116.937
X135.598 Y117.005
X135.147 Y116.997
X134.703 Y116.913
X134.28 Y116.757
X133.889 Y116.532
X133.541 Y116.245
X133.246 Y115.903
X132.404 Y114.744
G3 X132.212 Y114.287 I1.053 J-0.71
X132.765 Y112.969 I1.245 J-0.253
G1 X137.101 Y110.155
G3 X138.793 Y110.438 I0.691 J1.065
G1 X139.709 Y111.699
X139.794 Y111.829
X139.869 Y111.959
X139.936 Y112.093
X139.995 Y112.232
X140.052 Y112.387
X140.103 Y112.554
X140.146 Y112.73
X140.182 Y112.921
X140.21 Y113.126
X140.227 Y113.34
X140.232 Y113.563
X140.226 Y113.795
X140.205 Y114.038
X140.171 Y114.288
X140.121 Y114.542
X140.057 Y114.799
X139.977 Y115.058
X139.881 Y115.317
X139.769 Y115.575
X139.641 Y115.832
X139.497 Y116.085
X139.338 Y116.332
X139.182 Y116.547
X139.004 Y116.768
X138.82 Y116.971
X138.643 Y117.148
X138.438 Y117.33
X138.236 Y117.492
X138.041 Y117.631
X137.816 Y117.773
X137.6 Y117.895
X137.391 Y117.997
X137.154 Y118.099
X136.752 Y118.209
X136.338 Y118.253
X135.922 Y118.23
X135.515 Y118.141
X135.127 Y117.987
X134.77 Y117.773
X134.451 Y117.505
X134.18 Y117.189
X133.246 Y115.903
G3 X133.054 Y115.446 I1.053 J-0.71
X133.633 Y114.111 I1.245 J-0.253
G1 X138.042 Y111.399
G3 X139.709 Y111.699 I0.665 J1.082
G1 X140.601 Y112.927
X140.689 Y113.061
X140.764 Y113.191
X140.831 Y113.325
X140.89 Y113.464
X140.947 Y113.619
X140.997 Y113.785
X141.041 Y113.961
X141.077 Y114.151
X141.104 Y114.356
X141.121 Y114.57
X141.127 Y114.793
X141.12 Y115.023
X141.1 Y115.264
X141.065 Y115.513
X141.016 Y115.765
X140.952 Y116.02
X140.872 Y116.277
X140.777 Y116.535
X140.667 Y116.79
X140.539 Y117.045
X140.396 Y117.296
X140.238 Y117.542
X140.065 Y117.782
X139.895 Y117.992
X139.704 Y118.204
X139.511 Y118.395
X139.322 Y118.564
X139.107 Y118.735
X138.902 Y118.881
X138.695 Y119.013
X138.467 Y119.141
X138.253 Y119.246
X138.029 Y119.341
X137.632 Y119.45
X137.223 Y119.494
X136.812 Y119.471
X136.41 Y119.383
X136.027 Y119.231
X135.674 Y119.02
X135.359 Y118.754
X135.091 Y118.442
X134.18 Y117.189
G3 X133.988 Y116.732 I1.053 J-0.71
X134.553 Y115.406 I1.245 J-0.253
G1 X138.92 Y112.637
G3 X140.226 Y112.604 I0.68 J1.073
X140.601 Y112.927 I-0.625 J1.105
G1 X141.508 Y114.175
X141.59 Y114.301
X141.664 Y114.431
X141.73 Y114.566
X141.789 Y114.705
X141.845 Y114.86
X141.895 Y115.028
X141.938 Y115.205
X141.972 Y115.394
X141.999 Y115.598
X142.015 Y115.814
X142.019 Y116.037
X142.011 Y116.27
X141.989 Y116.511
X141.953 Y116.761
X141.902 Y117.016
X141.836 Y117.273
X141.755 Y117.532
X141.657 Y117.791
X141.543 Y118.049
X141.414 Y118.304
X141.269 Y118.557
X141.108 Y118.804
X140.933 Y119.044
X140.763 Y119.252
X140.569 Y119.464
X140.376 Y119.654
X140.186 Y119.822
X139.97 Y119.992
X139.767 Y120.135
X139.556 Y120.267
X139.33 Y120.393
X139.119 Y120.495
X139.019 Y120.537
X138.617 Y120.667
X138.199 Y120.729
X137.777 Y120.72
X137.362 Y120.64
X136.967 Y120.493
X136.601 Y120.282
X136.276 Y120.013
X136 Y119.693
X135.091 Y118.442
G3 X134.899 Y117.985 I1.053 J-0.71
X135.462 Y116.66 I1.244 J-0.253
G1 X139.826 Y113.886
G3 X141.508 Y114.175 I0.681 J1.072
G1 X142.382 Y115.379
X142.474 Y115.518
X142.549 Y115.648
X142.615 Y115.783
X142.675 Y115.922
X142.731 Y116.077
X142.782 Y116.242
X142.825 Y116.418
X142.861 Y116.609
X142.888 Y116.813
X142.905 Y117.026
X142.91 Y117.248
X142.903 Y117.482
X142.882 Y117.725
X142.848 Y117.975
X142.798 Y118.229
X142.733 Y118.486
X142.653 Y118.745
X142.556 Y119.005
X142.443 Y119.264
X142.315 Y119.521
X142.17 Y119.775
X142.01 Y120.023
X141.844 Y120.253
X141.665 Y120.474
X141.472 Y120.687
X141.288 Y120.869
X141.083 Y121.052
X140.876 Y121.217
X140.678 Y121.358
X140.454 Y121.5
X140.237 Y121.621
X140.028 Y121.724
X139.793 Y121.824
X139.402 Y121.93
X139 Y121.973
X138.596 Y121.951
X138.201 Y121.863
X137.824 Y121.714
X137.477 Y121.506
X137.168 Y121.245
X136.904 Y120.938
X136 Y119.693
G3 X135.808 Y119.236 I1.053 J-0.71
X136.359 Y117.919 I1.244 J-0.253
G1 X140.688 Y115.097
G3 X142.007 Y115.055 I0.694 J1.064
X142.382 Y115.379 I-0.625 J1.105
G1 X143.304 Y116.648
X143.386 Y116.773
X143.459 Y116.904
X143.524 Y117.04
X143.582 Y117.181
X143.637 Y117.337
X143.687 Y117.508
X143.729 Y117.689
X143.763 Y117.88
X143.788 Y118.087
X143.802 Y118.306
X143.805 Y118.533
X143.795 Y118.767
X143.771 Y119.009
X143.733 Y119.261
X143.679 Y119.518
X143.611 Y119.778
X143.526 Y120.039
X143.425 Y120.3
X143.309 Y120.558
X143.177 Y120.815
X143.029 Y121.068
X142.866 Y121.314
X142.689 Y121.552
X142.517 Y121.759
X142.32 Y121.971
X142.128 Y122.157
X141.934 Y122.326
X141.719 Y122.493
X141.517 Y122.633
X141.301 Y122.766
X141.078 Y122.887
X140.869 Y122.987
X140.453 Y123.118
X140.021 Y123.179
X139.584 Y123.167
X139.156 Y123.084
X138.748 Y122.93
X138.37 Y122.711
X138.035 Y122.432
X137.75 Y122.102
X136.904 Y120.938
G3 X136.713 Y120.481 I1.053 J-0.71
X137.27 Y119.16 I1.245 J-0.253
G1 X141.616 Y116.362
G3 X143.304 Y116.648 I0.688 J1.068
G1 X144.175 Y117.846
X144.261 Y117.978
X144.336 Y118.108
X144.403 Y118.242
X144.463 Y118.384
X144.52 Y118.539
X144.57 Y118.703
X144.613 Y118.881
X144.65 Y119.074
X144.677 Y119.278
X144.694 Y119.49
X144.699 Y119.714
X144.692 Y119.95
X144.671 Y120.194
X144.636 Y120.444
X144.586 Y120.698
X144.521 Y120.956
X144.441 Y121.216
X144.343 Y121.478
X144.23 Y121.739
X144.101 Y121.997
X143.955 Y122.252
X143.795 Y122.5
X143.634 Y122.723
X143.46 Y122.938
X143.271 Y123.146
X143.091 Y123.325
X142.889 Y123.504
X142.684 Y123.668
X142.488 Y123.807
X142.266 Y123.948
X142.049 Y124.07
X141.841 Y124.172
X141.606 Y124.272
X141.209 Y124.38
X140.801 Y124.423
X140.39 Y124.4
X139.989 Y124.312
X139.607 Y124.16
X139.254 Y123.949
X138.94 Y123.684
X138.673 Y123.372
X137.75 Y122.102
G3 X137.558 Y121.645 I1.053 J-0.71
X138.124 Y120.318 I1.244 J-0.253
G1 X142.495 Y117.554
G3 X143.799 Y117.522 I0.679 J1.073
X144.175 Y117.846 I-0.625 J1.105
G1 X145.047 Y119.047
X145.155 Y119.212
X145.23 Y119.342
X145.297 Y119.476
X145.357 Y119.615
X145.413 Y119.77
X145.464 Y119.937
X145.508 Y120.113
X145.544 Y120.304
X145.571 Y120.51
