%
(1001)
(z0 botom machine -5-5)
(T1  D=6.35 CR=0 - ZMIN=0 - flat end mill)
G90 G94
G17
G21

(bore_clean_16_2mm)
M9
T1 M6
S10000 M3
G54
M9
G0 X-163.52 Y-201.02
Z27
Z17
G1 Z0 F850
G3 X-163.202 Y-200.702 J0.318
G1 Y-196.413
G3 X-163.52 Y-196.095 I-0.318
Y-205.945 J-4.925
Y-196.095 J4.925
Y-205.945 J-4.925
Y-196.095 J4.925
X-164.155 Y-196.73 J-0.635 F750
G1 Y-197.365
G19 G2 Y-198 Z0.635 K0.635
G0 Z17
X-105.51 Y-173.01
G1 Z0 F850
G17 G3 X-105.192 Y-173.327 I0.318
G1 X-100.902
G3 X-100.585 Y-173.01 J0.318
X-105.51 Y-168.085 I-4.925
Y-177.935 J-4.925
Y-168.085 J4.925
Y-177.935 J-4.925
X-100.585 Y-173.01 J4.925
X-101.22 Y-172.375 I-0.635 F750
G1 X-101.855
G18 G3 X-102.49 Z0.635 K0.635
G0 Z17
X-42.5 Y-192.5
G1 Z0 F850
G17 G3 X-42.182 Y-192.818 I0.318
G1 X-37.893
G3 X-37.575 Y-192.5 J0.318
X-47.425 I-4.925
X-37.575 I4.925
X-47.425 I-4.925
X-37.575 I4.925
X-38.21 Y-191.865 I-0.635 F750
G1 X-38.845
G18 G3 X-39.48 Z0.635 K0.635
G0 Z17
X-42.5 Y-243.01
G1 Z0 F850
G17 G3 X-42.182 Y-243.327 I0.318
G1 X-37.893
G3 X-37.575 Y-243.01 J0.318
X-42.5 Y-238.085 I-4.925
Y-247.935 J-4.925
Y-238.085 J4.925
Y-247.935 J-4.925
X-37.575 Y-243.01 J4.925
X-38.21 Y-242.375 I-0.635 F750
G1 X-38.845
G18 G3 X-39.48 Z0.635 K0.635
G0 Z17
X-105.51 Y-248.01
G1 Z0 F850
G17 G3 X-105.827 Y-248.327 J-0.318
G1 Y-252.617
G3 X-105.51 Y-252.935 I0.317
Y-243.085 J4.925
Y-252.935 J-4.925
Y-243.085 J4.925
Y-252.935 J-4.925
X-104.875 Y-252.3 J0.635 F750
G1 Y-251.665
G19 G3 Y-251.03 Z0.635 K0.635
G0 Z17
X-42.5 Y-318.01
G1 Z0 F850
G17 G3 X-42.182 Y-318.328 I0.318
G1 X-37.893
G3 X-37.575 Y-318.01 J0.318
X-42.5 Y-313.085 I-4.925
Y-322.935 J-4.925
Y-313.085 J4.925
Y-322.935 J-4.925
X-37.575 Y-318.01 J4.925
X-38.21 Y-317.375 I-0.635 F750
G1 X-38.845
G18 G3 X-39.48 Z0.635 K0.635
G0 Z17
X-42.5 Y-117.5
G1 Z0 F850
G17 G3 X-42.818 Y-117.817 J-0.317
G1 Y-122.107
G3 X-42.5 Y-122.425 I0.318
Y-112.575 J4.925
Y-122.425 J-4.925
Y-112.575 J4.925
Y-122.425 J-4.925
X-41.865 Y-121.79 J0.635 F750
G1 Y-121.155
G19 G3 Y-120.52 Z0.635 K0.635
G0 Z17
X-105.51 Y-98.01
G1 Z0 F850
G17 G3 X-105.827 Y-97.692 I-0.317
G1 X-110.118
G3 X-110.435 Y-98.01 J-0.318
X-100.585 I4.925
X-110.435 I-4.925
X-100.585 I4.925
X-110.435 I-4.925
X-109.8 Y-98.645 I0.635 F750
G1 X-109.165
G18 G2 X-108.53 Z0.635 K0.635
G0 Z17
X-161.02 Y-100.51
G1 Z0 F850
G17 G3 X-160.702 Y-100.827 I0.318
G1 X-156.413
G3 X-156.095 Y-100.51 J0.317
X-165.945 I-4.925
X-156.095 I4.925
X-165.945 I-4.925
X-156.095 I4.925
X-156.73 Y-99.875 I-0.635 F750
G1 X-157.365
G18 G3 X-158 Z0.635 K0.635
G0 Z17
X-163.52 Y-126.02
G1 Z0 F850
G17 G3 X-163.837 Y-126.338 J-0.318
G1 Y-130.628
G3 X-163.52 Y-130.945 I0.317
Y-121.095 J4.925
Y-130.945 J-4.925
Y-121.095 J4.925
Y-130.945 J-4.925
X-162.885 Y-130.31 J0.635 F750
G1 Y-129.675
G19 G3 Y-129.04 Z0.635 K0.635
G0 Z17
X-189.03 Y-128.52
G1 Z0 F850
G17 G3 X-189.348 Y-128.837 J-0.317
G1 Y-133.128
G3 X-189.03 Y-133.445 I0.318
Y-123.595 J4.925
Y-133.445 J-4.925
Y-123.595 J4.925
Y-133.445 J-4.925
X-188.395 Y-132.81 J0.635 F750
G1 Y-132.175
G19 G3 Y-131.54 Z0.635 K0.635
G0 Z17
X-236.02 Y-100.51
G1 Z0 F850
G17 G3 X-236.337 Y-100.827 J-0.317
G1 Y-105.118
G3 X-236.02 Y-105.435 I0.317
Y-95.585 J4.925
Y-105.435 J-4.925
Y-95.585 J4.925
Y-105.435 J-4.925
X-235.385 Y-104.8 J0.635 F750
G1 Y-104.165
G19 G3 Y-103.53 Z0.635 K0.635
G0 Z17
X-264.03 Y-128.52
G1 Z0 F850
G17 G3 X-264.348 Y-128.202 I-0.318
G1 X-268.638
G3 X-268.955 Y-128.52 J-0.318
X-259.105 I4.925
X-268.955 I-4.925
X-259.105 I4.925
X-268.955 I-4.925
X-268.32 Y-129.155 I0.635 F750
G1 X-267.685
G18 G2 X-267.05 Z0.635 K0.635
G0 Z17
X-311.02 Y-100.51
G1 Z0 F850
G17 G3 X-311.337 Y-100.827 J-0.317
G1 Y-105.118
G3 X-311.02 Y-105.435 I0.318
Y-95.585 J4.925
Y-105.435 J-4.925
Y-95.585 J4.925
Y-105.435 J-4.925
X-310.385 Y-104.8 J0.635 F750
G1 Y-104.165
G19 G3 Y-103.53 Z0.635 K0.635
G0 Z17
X-318.01 Y-42.5
G1 Z0 F850
G17 G3 X-318.328 Y-42.818 J-0.318
G1 Y-47.107
G3 X-318.01 Y-47.425 I0.318
X-313.085 Y-42.5 J4.925
X-322.935 I-4.925
X-313.085 I4.925
X-322.935 I-4.925
X-318.01 Y-47.425 I4.925
X-317.375 Y-46.79 J0.635 F750
G1 Y-46.155
G19 G3 Y-45.52 Z0.635 K0.635
G0 Z17
X-243.01 Y-42.5
G1 Z0 F850
G17 G3 X-243.327 Y-42.818 J-0.318
G1 Y-47.107
G3 X-243.01 Y-47.425 I0.318
X-238.085 Y-42.5 J4.925
X-247.935 I-4.925
X-238.085 I4.925
X-247.935 I-4.925
X-243.01 Y-47.425 I4.925
X-242.375 Y-46.79 J0.635 F750
G1 Y-46.155
G19 G3 Y-45.52 Z0.635 K0.635
G0 Z17
X-192.5 Y-42.5
G1 Z0 F850
G17 G3 X-192.182 Y-42.818 I0.318
G1 X-187.893
G3 X-187.575 Y-42.5 J0.318
X-197.425 I-4.925
X-187.575 I4.925
X-197.425 I-4.925
X-187.575 I4.925
X-188.21 Y-41.865 I-0.635 F750
G1 X-188.845
G18 G3 X-189.48 Z0.635 K0.635
G0 Z17
X-117.5 Y-42.5
G1 Z0 F850
G17 G3 X-117.817 Y-42.818 J-0.318
G1 Y-47.107
G3 X-117.5 Y-47.425 I0.317
Y-37.575 J4.925
Y-47.425 J-4.925
Y-37.575 J4.925
Y-47.425 J-4.925
X-116.865 Y-46.79 J0.635 F750
G1 Y-46.155
G19 G3 Y-45.52 Z0.635 K0.635
G0 Z17
X-42.5 Y-42.5
G1 Z0 F850
G17 G3 X-42.182 Y-42.818 I0.318
G1 X-37.893
G3 X-37.575 Y-42.5 J0.318
X-47.425 I-4.925
X-37.575 I4.925
X-47.425 I-4.925
X-37.575 I4.925
X-38.21 Y-41.865 I-0.635 F750
G1 X-38.845
G18 G3 X-39.48 Z0.635 K0.635
G0 Z27
G17
M9
M30
%
