%
(1001)
(z0 botom machine -5-5)
(T1  D=6.35 CR=0 - ZMIN=0 - flat end mill)
G90 G94
G17
G21

(bore_clean_16mm)
M9
T1 M6
S10000 M3
G54
M9
G0 X-163.52 Y-201.02
Z27
Z17
G1 Z0 F850
G3 X-163.202 Y-200.702 J0.318
G1 Y-196.512
G3 X-163.52 Y-196.195 I-0.318
Y-205.845 J-4.825
Y-196.195 J4.825
Y-205.845 J-4.825
Y-196.195 J4.825
X-164.155 Y-196.83 J-0.635 F750
G1 Y-197.465
G19 G2 Y-198.1 Z0.635 K0.635
G0 Z17
X-105.51 Y-173.01
G1 Z0 F850
G17 G3 X-105.192 Y-173.327 I0.318
G1 X-101.003
G3 X-100.685 Y-173.01 J0.318
X-110.335 I-4.825
X-105.51 Y-177.835 I4.825
Y-168.185 J4.825
X-110.335 Y-173.01 J-4.825
X-105.51 Y-177.835 I4.825
X-100.685 Y-173.01 J4.825
X-101.32 Y-172.375 I-0.635 F750
G1 X-101.955
G18 G3 X-102.59 Z0.635 K0.635
G0 Z17
X-42.5 Y-192.5
G1 Z0 F850
G17 G3 X-42.182 Y-192.818 I0.318
G1 X-37.993
G3 X-37.675 Y-192.5 J0.318
X-47.325 I-4.825
X-37.675 I4.825
X-47.325 I-4.825
X-37.675 I4.825
X-38.31 Y-191.865 I-0.635 F750
G1 X-38.945
G18 G3 X-39.58 Z0.635 K0.635
G0 Z17
X-42.5 Y-243.01
G1 Z0 F850
G17 G3 X-42.182 Y-243.327 I0.318
G1 X-37.993
G3 X-37.675 Y-243.01 J0.318
X-47.325 I-4.825
X-37.675 I4.825
X-47.325 I-4.825
X-37.675 I4.825
X-38.31 Y-242.375 I-0.635 F750
G1 X-38.945
G18 G3 X-39.58 Z0.635 K0.635
G0 Z17
X-105.51 Y-248.01
G1 Z0 F850
G17 G3 X-105.827 Y-248.327 J-0.318
G1 Y-252.518
G3 X-105.51 Y-252.835 I0.317
Y-243.185 J4.825
Y-252.835 J-4.825
Y-243.185 J4.825
X-110.335 Y-248.01 J-4.825
X-105.51 Y-252.835 I4.825
X-104.875 Y-252.2 J0.635 F750
G1 Y-251.565
G19 G3 Y-250.93 Z0.635 K0.635
G0 Z17
X-42.5 Y-318.01
G1 Z0 F850
G17 G3 X-42.182 Y-318.328 I0.318
G1 X-37.993
G3 X-37.675 Y-318.01 J0.318
X-42.5 Y-313.185 I-4.825
Y-322.835 J-4.825
Y-313.185 J4.825
Y-322.835 J-4.825
X-37.675 Y-318.01 J4.825
X-38.31 Y-317.375 I-0.635 F750
G1 X-38.945
G18 G3 X-39.58 Z0.635 K0.635
G0 Z17
X-42.5 Y-117.5
G1 Z0 F850
G17 G3 X-42.818 Y-117.817 J-0.317
G1 Y-122.007
G3 X-42.5 Y-122.325 I0.318
Y-112.675 J4.825
Y-122.325 J-4.825
Y-112.675 J4.825
Y-122.325 J-4.825
X-41.865 Y-121.69 J0.635 F750
G1 Y-121.055
G19 G3 Y-120.42 Z0.635 K0.635
G0 Z17
X-105.51 Y-98.01
G1 Z0 F850
G17 G3 X-105.827 Y-97.692 I-0.317
G1 X-110.018
G3 X-110.335 Y-98.01 J-0.318
X-100.685 I4.825
X-110.335 I-4.825
X-100.685 I4.825
X-110.335 I-4.825
X-109.7 Y-98.645 I0.635 F750
G1 X-109.065
G18 G2 X-108.43 Z0.635 K0.635
G0 Z17
X-161.02 Y-100.51
G1 Z0 F850
G17 G3 X-160.702 Y-100.827 I0.318
G1 X-156.512
G3 X-156.195 Y-100.51 J0.317
X-165.845 I-4.825
X-156.195 I4.825
X-165.845 I-4.825
X-156.195 I4.825
X-156.83 Y-99.875 I-0.635 F750
G1 X-157.465
G18 G3 X-158.1 Z0.635 K0.635
G0 Z17
X-163.52 Y-126.02
G1 Z0 F850
G17 G3 X-163.837 Y-126.338 J-0.318
G1 Y-130.527
G3 X-163.52 Y-130.845 I0.317
Y-121.195 J4.825
Y-130.845 J-4.825
Y-121.195 J4.825
Y-130.845 J-4.825
X-162.885 Y-130.21 J0.635 F750
G1 Y-129.575
G19 G3 Y-128.94 Z0.635 K0.635
G0 Z17
X-189.03 Y-128.52
G1 Z0 F850
G17 G3 X-189.348 Y-128.837 J-0.317
G1 Y-133.027
G3 X-189.03 Y-133.345 I0.318
Y-123.695 J4.825
Y-133.345 J-4.825
Y-123.695 J4.825
Y-133.345 J-4.825
X-188.395 Y-132.71 J0.635 F750
G1 Y-132.075
G19 G3 Y-131.44 Z0.635 K0.635
G0 Z17
X-236.02 Y-100.51
G1 Z0 F850
G17 G3 X-236.337 Y-100.827 J-0.317
G1 Y-105.018
G3 X-236.02 Y-105.335 I0.317
Y-95.685 J4.825
Y-105.335 J-4.825
Y-95.685 J4.825
Y-105.335 J-4.825
X-235.385 Y-104.7 J0.635 F750
G1 Y-104.065
G19 G3 Y-103.43 Z0.635 K0.635
G0 Z17
X-264.03 Y-128.52
G1 Z0 F850
G17 G3 X-264.348 Y-128.202 I-0.318
G1 X-268.538
G3 X-268.855 Y-128.52 J-0.318
X-259.205 I4.825
X-268.175 Y-126.049 I-4.825
X-264.03 Y-133.345 I4.145 J-2.471
Y-123.695 J4.825
X-268.855 Y-128.52 J-4.825
X-268.22 Y-129.155 I0.635 F750
G1 X-267.585
G18 G2 X-266.95 Z0.635 K0.635
G0 Z17
X-311.02 Y-100.51
G1 Z0 F850
G17 G3 X-310.703 Y-100.827 I0.317
G1 X-306.513
G3 X-306.195 Y-100.51 J0.317
X-315.845 I-4.825
X-306.195 I4.825
X-315.845 I-4.825
X-306.195 I4.825
X-306.83 Y-99.875 I-0.635 F750
G1 X-307.465
G18 G3 X-308.1 Z0.635 K0.635
G0 Z17
X-318.01 Y-42.5
G1 Z0 F850
G17 G3 X-318.328 Y-42.818 J-0.318
G1 Y-47.007
G3 X-318.01 Y-47.325 I0.318
X-313.185 Y-42.5 J4.825
X-322.835 I-4.825
X-313.185 I4.825
X-322.835 I-4.825
X-318.01 Y-47.325 I4.825
X-317.375 Y-46.69 J0.635 F750
G1 Y-46.055
G19 G3 Y-45.42 Z0.635 K0.635
G0 Z17
X-243.01 Y-42.5
G1 Z0 F850
G17 G3 X-243.327 Y-42.818 J-0.318
G1 Y-47.007
G3 X-243.01 Y-47.325 I0.318
Y-37.675 J4.825
Y-47.325 J-4.825
Y-37.675 J4.825
Y-47.325 J-4.825
X-242.375 Y-46.69 J0.635 F750
G1 Y-46.055
G19 G3 Y-45.42 Z0.635 K0.635
G0 Z17
X-192.5 Y-42.5
G1 Z0 F850
G17 G3 X-192.182 Y-42.818 I0.318
G1 X-187.992
G3 X-187.675 Y-42.5 J0.318
X-197.325 I-4.825
X-187.675 I4.825
X-197.325 I-4.825
X-187.675 I4.825
X-188.31 Y-41.865 I-0.635 F750
G1 X-188.945
G18 G3 X-189.58 Z0.635 K0.635
G0 Z17
X-117.5 Y-42.5
G1 Z0 F850
G17 G3 X-117.817 Y-42.818 J-0.318
G1 Y-47.007
G3 X-117.5 Y-47.325 I0.317
Y-37.675 J4.825
Y-47.325 J-4.825
Y-37.675 J4.825
Y-47.325 J-4.825
X-116.865 Y-46.69 J0.635 F750
G1 Y-46.055
G19 G3 Y-45.42 Z0.635 K0.635
G0 Z17
X-42.5 Y-42.5
G1 Z0 F850
G17 G3 X-42.182 Y-42.818 I0.318
G1 X-37.993
G3 X-37.675 Y-42.5 J0.318
X-47.325 I-4.825
X-37.675 I4.825
X-47.325 I-4.825
X-37.675 I4.825
X-38.31 Y-41.865 I-0.635 F750
G1 X-38.945
G18 G3 X-39.58 Z0.635 K0.635
G0 Z27
G17
M9
M30
%
