%
(bore_finish_15_6mm)
(z0 botom machine -5-5)
(T1  D=6.35 CR=0 - ZMIN=0 - flat end mill)
G90 G94
G17
G21

(bore_clean_15_6mm)
M9
T1 M6
S10000 M3
G54
M9
G0 X-163.52 Y-201.02
Z27
Z17
G1 Z0 F850
G3 X-163.202 Y-200.702 J0.318
G1 Y-196.712
G3 X-163.52 Y-196.395 I-0.318
Y-205.645 J-4.625
Y-196.395 J4.625
Y-205.645 J-4.625
Y-196.395 J4.625
X-164.155 Y-197.03 J-0.635 F750
G1 Y-197.665
G19 G2 Y-198.3 Z0.635 K0.635
G0 Z17
X-105.51 Y-173.01
G1 Z0 F850
G17 G3 X-105.192 Y-173.327 I0.318
G1 X-101.202
G3 X-100.885 Y-173.01 J0.318
X-110.135 I-4.625
X-100.885 I4.625
X-110.135 I-4.625
X-100.885 I4.625
X-101.52 Y-172.375 I-0.635 F750
G1 X-102.155
G18 G3 X-102.79 Z0.635 K0.635
G0 Z17
X-42.5 Y-192.5
G1 Z0 F850
G17 G3 X-42.182 Y-192.818 I0.318
G1 X-38.193
G3 X-37.875 Y-192.5 J0.318
X-47.125 I-4.625
X-37.875 I4.625
X-47.125 I-4.625
X-37.875 I4.625
X-38.51 Y-191.865 I-0.635 F750
G1 X-39.145
G18 G3 X-39.78 Z0.635 K0.635
G0 Z17
X-42.5 Y-243.01
G1 Z0 F850
G17 G3 X-42.182 Y-243.327 I0.318
G1 X-38.193
G3 X-37.875 Y-243.01 J0.318
X-47.125 I-4.625
X-37.875 I4.625
X-47.125 I-4.625
X-37.875 I4.625
X-38.51 Y-242.375 I-0.635 F750
G1 X-39.145
G18 G3 X-39.78 Z0.635 K0.635
G0 Z17
X-105.51 Y-248.01
G1 Z0 F850
G17 G3 X-105.827 Y-248.327 J-0.318
G1 Y-252.318
G3 X-105.51 Y-252.635 I0.317
Y-243.385 J4.625
Y-252.635 J-4.625
Y-243.385 J4.625
Y-252.635 J-4.625
X-104.875 Y-252 J0.635 F750
G1 Y-251.365
G19 G3 Y-250.73 Z0.635 K0.635
G0 Z17
X-42.5 Y-318.01
G1 Z0 F850
G17 G3 X-42.182 Y-318.328 I0.318
G1 X-38.193
G3 X-37.875 Y-318.01 J0.318
X-47.125 I-4.625
X-37.875 I4.625
X-47.125 I-4.625
X-37.875 I4.625
X-38.51 Y-317.375 I-0.635 F750
G1 X-39.145
G18 G3 X-39.78 Z0.635 K0.635
G0 Z17
X-42.5 Y-117.5
G1 Z0 F850
G17 G3 X-42.818 Y-117.817 J-0.317
G1 Y-121.808
G3 X-42.5 Y-122.125 I0.318
Y-112.875 J4.625
Y-122.125 J-4.625
Y-112.875 J4.625
Y-122.125 J-4.625
X-41.865 Y-121.49 J0.635 F750
G1 Y-120.855
G19 G3 Y-120.22 Z0.635 K0.635
G0 Z17
X-105.51 Y-98.01
G1 Z0 F850
G17 G3 X-105.827 Y-97.692 I-0.317
G1 X-109.817
G3 X-110.135 Y-98.01 J-0.318
X-100.885 I4.625
X-110.135 I-4.625
X-100.885 I4.625
X-110.135 I-4.625
X-109.5 Y-98.645 I0.635 F750
G1 X-108.865
G18 G2 X-108.23 Z0.635 K0.635
G0 Z17
X-161.02 Y-100.51
G1 Z0 F850
G17 G3 X-160.702 Y-100.827 I0.318
G1 X-156.712
G3 X-156.395 Y-100.51 J0.317
X-165.645 I-4.625
X-156.395 I4.625
X-165.645 I-4.625
X-156.395 I4.625
X-157.03 Y-99.875 I-0.635 F750
G1 X-157.665
G18 G3 X-158.3 Z0.635 K0.635
G0 Z17
X-163.52 Y-126.02
G1 Z0 F850
G17 G3 X-163.837 Y-126.338 J-0.318
G1 Y-130.327
G3 X-163.52 Y-130.645 I0.317
Y-121.395 J4.625
Y-130.645 J-4.625
Y-121.395 J4.625
Y-130.645 J-4.625
X-162.885 Y-130.01 J0.635 F750
G1 Y-129.375
G19 G3 Y-128.74 Z0.635 K0.635
G0 Z17
X-189.03 Y-128.52
G1 Z0 F850
G17 G3 X-189.348 Y-128.837 J-0.317
G1 Y-132.827
G3 X-189.03 Y-133.145 I0.318
Y-123.895 J4.625
Y-133.145 J-4.625
Y-123.895 J4.625
Y-133.145 J-4.625
X-188.395 Y-132.51 J0.635 F750
G1 Y-131.875
G19 G3 Y-131.24 Z0.635 K0.635
G0 Z17
X-236.02 Y-100.51
G1 Z0 F850
G17 G3 X-236.337 Y-100.827 J-0.317
G1 Y-104.817
G3 X-236.02 Y-105.135 I0.317
Y-95.885 J4.625
Y-105.135 J-4.625
Y-95.885 J4.625
Y-105.135 J-4.625
X-235.385 Y-104.5 J0.635 F750
G1 Y-103.865
G19 G3 Y-103.23 Z0.635 K0.635
G0 Z17
X-264.03 Y-128.52
G1 Z0 F850
G17 G3 X-264.348 Y-128.202 I-0.318
G1 X-268.337
G3 X-268.655 Y-128.52 J-0.318
X-259.405 I4.625
X-268.655 I-4.625
X-259.405 I4.625
X-268.655 I-4.625
X-268.02 Y-129.155 I0.635 F750
G1 X-267.385
G18 G2 X-266.75 Z0.635 K0.635
G0 Z17
X-311.02 Y-100.51
G1 Z0 F850
G17 G3 X-311.337 Y-100.827 J-0.317
G1 Y-104.817
G3 X-311.02 Y-105.135 I0.318
Y-95.885 J4.625
Y-105.135 J-4.625
Y-95.885 J4.625
Y-105.135 J-4.625
X-310.385 Y-104.5 J0.635 F750
G1 Y-103.865
G19 G3 Y-103.23 Z0.635 K0.635
G0 Z17
X-318.01 Y-42.5
G1 Z0 F850
G17 G3 X-318.328 Y-42.818 J-0.318
G1 Y-46.807
G3 X-318.01 Y-47.125 I0.318
Y-37.875 J4.625
Y-47.125 J-4.625
Y-37.875 J4.625
Y-47.125 J-4.625
X-317.375 Y-46.49 J0.635 F750
G1 Y-45.855
G19 G3 Y-45.22 Z0.635 K0.635
G0 Z17
X-243.01 Y-42.5
G1 Z0 F850
G17 G3 X-243.327 Y-42.818 J-0.318
G1 Y-46.807
G3 X-243.01 Y-47.125 I0.318
Y-37.875 J4.625
Y-47.125 J-4.625
Y-37.875 J4.625
Y-47.125 J-4.625
X-242.375 Y-46.49 J0.635 F750
G1 Y-45.855
G19 G3 Y-45.22 Z0.635 K0.635
G0 Z17
X-192.5 Y-42.5
G1 Z0 F850
G17 G3 X-192.182 Y-42.818 I0.318
G1 X-188.193
G3 X-187.875 Y-42.5 J0.318
X-197.125 I-4.625
X-187.875 I4.625
X-197.125 I-4.625
X-187.875 I4.625
X-188.51 Y-41.865 I-0.635 F750
G1 X-189.145
G18 G3 X-189.78 Z0.635 K0.635
G0 Z17
X-117.5 Y-42.5
G1 Z0 F850
G17 G3 X-117.817 Y-42.818 J-0.318
G1 Y-46.807
G3 X-117.5 Y-47.125 I0.317
Y-37.875 J4.625
Y-47.125 J-4.625
Y-37.875 J4.625
Y-47.125 J-4.625
X-116.865 Y-46.49 J0.635 F750
G1 Y-45.855
G19 G3 Y-45.22 Z0.635 K0.635
G0 Z17
X-42.5 Y-42.5
G1 Z0 F850
G17 G3 X-42.182 Y-42.818 I0.318
G1 X-38.193
G3 X-37.875 Y-42.5 J0.318
X-47.125 I-4.625
X-37.875 I4.625
X-47.125 I-4.625
X-37.875 I4.625
X-38.51 Y-41.865 I-0.635 F750
G1 X-39.145
G18 G3 X-39.78 Z0.635 K0.635
G0 Z27
G17
M9
M30
%
