%
(bore_finish_15_8mm)
(z0 botom machine -5-5)
(T1  D=6.35 CR=0 - ZMIN=0 - flat end mill)
G90 G94
G17
G21

(bore_clean_15_8mm)
M9
T1 M6
S10000 M3
G54
M9
G0 X-163.52 Y-201.02
Z27
Z17
G1 Z0 F850
G3 X-163.202 Y-200.702 J0.318
G1 Y-196.613
G3 X-163.52 Y-196.295 I-0.318
Y-205.745 J-4.725
X-158.795 Y-201.02 J4.725
X-168.245 I-4.725
X-163.52 Y-205.745 I4.725
Y-196.295 J4.725
X-164.155 Y-196.93 J-0.635 F750
G1 Y-197.565
G19 G2 Y-198.2 Z0.635 K0.635
G0 Z17
X-105.51 Y-173.01
G1 Z0 F850
G17 G3 X-105.192 Y-173.327 I0.318
G1 X-101.103
G3 X-100.785 Y-173.01 J0.318
X-110.235 I-4.725
X-100.785 I4.725
X-110.235 I-4.725
X-100.785 I4.725
X-101.42 Y-172.375 I-0.635 F750
G1 X-102.055
G18 G3 X-102.69 Z0.635 K0.635
G0 Z17
X-42.5 Y-192.5
G1 Z0 F850
G17 G3 X-42.182 Y-192.818 I0.318
G1 X-38.092
G3 X-37.775 Y-192.5 J0.318
X-47.225 I-4.725
X-37.775 I4.725
X-47.225 I-4.725
X-37.775 I4.725
X-38.41 Y-191.865 I-0.635 F750
G1 X-39.045
G18 G3 X-39.68 Z0.635 K0.635
G0 Z17
X-42.5 Y-243.01
G1 Z0 F850
G17 G3 X-42.182 Y-243.327 I0.318
G1 X-38.092
G3 X-37.775 Y-243.01 J0.318
X-47.225 I-4.725
X-37.775 I4.725
X-47.225 I-4.725
X-37.775 I4.725
X-38.41 Y-242.375 I-0.635 F750
G1 X-39.045
G18 G3 X-39.68 Z0.635 K0.635
G0 Z17
X-105.51 Y-248.01
G1 Z0 F850
G17 G3 X-105.827 Y-248.327 J-0.318
G1 Y-252.417
G3 X-105.51 Y-252.735 I0.317
Y-243.285 J4.725
Y-252.735 J-4.725
Y-243.285 J4.725
Y-252.735 J-4.725
X-104.875 Y-252.1 J0.635 F750
G1 Y-251.465
G19 G3 Y-250.83 Z0.635 K0.635
G0 Z17
X-42.5 Y-318.01
G1 Z0 F850
G17 G3 X-42.182 Y-318.328 I0.318
G1 X-38.092
G3 X-37.775 Y-318.01 J0.318
X-47.225 I-4.725
X-42.5 Y-322.735 I4.725
Y-313.285 J4.725
Y-322.735 J-4.725
X-37.775 Y-318.01 J4.725
X-38.41 Y-317.375 I-0.635 F750
G1 X-39.045
G18 G3 X-39.68 Z0.635 K0.635
G0 Z17
X-42.5 Y-117.5
G1 Z0 F850
G17 G3 X-42.818 Y-117.817 J-0.317
G1 Y-121.908
G3 X-42.5 Y-122.225 I0.318
Y-112.775 J4.725
Y-122.225 J-4.725
Y-112.775 J4.725
Y-122.225 J-4.725
X-41.865 Y-121.59 J0.635 F750
G1 Y-120.955
G19 G3 Y-120.32 Z0.635 K0.635
G0 Z17
X-105.51 Y-98.01
G1 Z0 F850
G17 G3 X-105.827 Y-97.692 I-0.317
G1 X-109.918
G3 X-110.235 Y-98.01 J-0.318
X-100.785 I4.725
X-110.235 I-4.725
X-100.785 I4.725
X-110.235 I-4.725
X-109.6 Y-98.645 I0.635 F750
G1 X-108.965
G18 G2 X-108.33 Z0.635 K0.635
G0 Z17
X-161.02 Y-100.51
G1 Z0 F850
G17 G3 X-160.702 Y-100.827 I0.318
G1 X-156.613
G3 X-156.295 Y-100.51 J0.317
X-165.745 I-4.725
X-156.295 I4.725
X-165.745 I-4.725
X-156.295 I4.725
X-156.93 Y-99.875 I-0.635 F750
G1 X-157.565
G18 G3 X-158.2 Z0.635 K0.635
G0 Z17
X-163.52 Y-126.02
G1 Z0 F850
G17 G3 X-163.837 Y-126.338 J-0.318
G1 Y-130.428
G3 X-163.52 Y-130.745 I0.317
Y-121.295 J4.725
Y-130.745 J-4.725
Y-121.295 J4.725
Y-130.745 J-4.725
X-162.885 Y-130.11 J0.635 F750
G1 Y-129.475
G19 G3 Y-128.84 Z0.635 K0.635
G0 Z17
X-189.03 Y-128.52
G1 Z0 F850
G17 G3 X-189.348 Y-128.837 J-0.317
G1 Y-132.928
G3 X-189.03 Y-133.245 I0.318
Y-123.795 J4.725
Y-133.245 J-4.725
Y-123.795 J4.725
X-193.089 Y-126.101 J-4.725
X-189.03 Y-133.245 I4.059 J-2.419
X-188.395 Y-132.61 J0.635 F750
G1 Y-131.975
G19 G3 Y-131.34 Z0.635 K0.635
G0 Z17
X-236.02 Y-100.51
G1 Z0 F850
G17 G3 X-236.337 Y-100.827 J-0.317
G1 Y-104.918
G3 X-236.02 Y-105.235 I0.317
Y-95.785 J4.725
Y-105.235 J-4.725
Y-95.785 J4.725
Y-105.235 J-4.725
X-235.385 Y-104.6 J0.635 F750
G1 Y-103.965
G19 G3 Y-103.33 Z0.635 K0.635
G0 Z17
X-264.03 Y-128.52
G1 Z0 F850
G17 G3 X-264.348 Y-128.202 I-0.318
G1 X-268.438
G3 X-268.755 Y-128.52 J-0.318
X-259.305 I4.725
X-268.755 I-4.725
X-259.305 I4.725
X-268.755 I-4.725
X-268.12 Y-129.155 I0.635 F750
G1 X-267.485
G18 G2 X-266.85 Z0.635 K0.635
G0 Z17
X-311.02 Y-100.51
G1 Z0 F850
G17 G3 X-311.337 Y-100.827 J-0.317
G1 Y-104.918
G3 X-311.02 Y-105.235 I0.318
Y-95.785 J4.725
Y-105.235 J-4.725
Y-95.785 J4.725
Y-105.235 J-4.725
X-310.385 Y-104.6 J0.635 F750
G1 Y-103.965
G19 G3 Y-103.33 Z0.635 K0.635
G0 Z17
X-318.01 Y-42.5
G1 Z0 F850
G17 G3 X-318.328 Y-42.818 J-0.318
G1 Y-46.908
G3 X-318.01 Y-47.225 I0.318
Y-37.775 J4.725
X-322.735 Y-42.5 J-4.725
X-313.285 I4.725
X-322.735 I-4.725
X-318.01 Y-47.225 I4.725
X-317.375 Y-46.59 J0.635 F750
G1 Y-45.955
G19 G3 Y-45.32 Z0.635 K0.635
G0 Z17
X-243.01 Y-42.5
G1 Z0 F850
G17 G3 X-243.327 Y-42.818 J-0.318
G1 Y-46.908
G3 X-243.01 Y-47.225 I0.318
Y-37.775 J4.725
Y-47.225 J-4.725
Y-37.775 J4.725
Y-47.225 J-4.725
X-242.375 Y-46.59 J0.635 F750
G1 Y-45.955
G19 G3 Y-45.32 Z0.635 K0.635
G0 Z17
X-192.5 Y-42.5
G1 Z0 F850
G17 G3 X-192.182 Y-42.818 I0.318
G1 X-188.092
G3 X-187.775 Y-42.5 J0.318
X-197.225 I-4.725
X-187.775 I4.725
X-197.225 I-4.725
X-187.775 I4.725
X-188.41 Y-41.865 I-0.635 F750
G1 X-189.045
G18 G3 X-189.68 Z0.635 K0.635
G0 Z17
X-117.5 Y-42.5
G1 Z0 F850
G17 G3 X-117.817 Y-42.818 J-0.318
G1 Y-46.908
G3 X-117.5 Y-47.225 I0.317
Y-37.775 J4.725
Y-47.225 J-4.725
Y-37.775 J4.725
Y-47.225 J-4.725
X-116.865 Y-46.59 J0.635 F750
G1 Y-45.955
G19 G3 Y-45.32 Z0.635 K0.635
G0 Z17
X-42.5 Y-42.5
G1 Z0 F850
G17 G3 X-42.182 Y-42.818 I0.318
G1 X-38.092
G3 X-37.775 Y-42.5 J0.318
X-47.225 I-4.725
X-37.775 I4.725
X-47.225 I-4.725
X-37.775 I4.725
X-38.41 Y-41.865 I-0.635 F750
G1 X-39.045
G18 G3 X-39.68 Z0.635 K0.635
G0 Z27
G17
M9
M30
%
