%
(1001)
(z0 botom machine -5-5)
(T1  D=6.35 CR=0 - ZMIN=0 - flat end mill)
G90 G94
G17
G21

(Bore)
M9
T1 M6
S7500 M3
G54
M9
G0 X-279.3 Y-200
Z27
Z17
Z12.685
G1 Z12.05 F750
Z0
X-279.313 Y-200.036 F850
X-279.286 Y-200.062
X-279.25 Y-200.052
X-279.226 Y-200.023
X-279.22 Y-199.986
X-279.232 Y-199.951
X-279.259 Y-199.925
X-279.295 Y-199.913
X-279.332 Y-199.919
X-279.364 Y-199.939
X-279.384 Y-199.971
X-279.39 Y-200.008
X-279.387 Y-200.045
X-279.372 Y-200.079
X-279.346 Y-200.106
X-279.313 Y-200.124
X-279.276 Y-200.129
X-279.238 Y-200.124
X-279.205 Y-200.108
X-279.176 Y-200.084
X-279.134 Y-200.022
X-279.128 Y-199.947
X-279.156 Y-199.877
X-279.211 Y-199.826
X-279.281 Y-199.8
X-279.356 Y-199.804
X-279.425 Y-199.834
X-279.479 Y-199.886
X-279.513 Y-199.953
X-279.524 Y-200.027
X-279.512 Y-200.101
X-279.478 Y-200.168
X-279.425 Y-200.222
X-279.359 Y-200.258
X-279.286 Y-200.274
X-279.137 Y-200.265
X-279.011 Y-200.183
X-278.937 Y-200.052
X-278.925 Y-199.903
X-278.974 Y-199.761
X-279.074 Y-199.649
X-279.208 Y-199.582
X-279.357 Y-199.566
X-279.503 Y-199.601
X-279.629 Y-199.682
X-279.722 Y-199.8
X-279.775 Y-199.94
X-279.783 Y-200.09
X-279.746 Y-200.235
X-279.668 Y-200.363
X-279.558 Y-200.465
X-279.426 Y-200.537
X-279.28 Y-200.57
X-279.13 Y-200.567
X-278.986 Y-200.525
X-278.856 Y-200.449
X-278.748 Y-200.345
X-278.669 Y-200.218
X-278.619 Y-200.077
X-278.604 Y-199.927
X-278.62 Y-199.778
X-278.669 Y-199.636
X-278.746 Y-199.508
X-278.848 Y-199.398
X-278.97 Y-199.311
X-279.107 Y-199.25
X-279.254 Y-199.218
X-279.404 Y-199.214
X-279.552 Y-199.238
X-279.693 Y-199.29
X-279.822 Y-199.366
X-279.934 Y-199.465
X-280.028 Y-199.582
X-280.099 Y-199.714
X-280.146 Y-199.857
X-280.169 Y-200.005
X-280.164 Y-200.155
X-280.136 Y-200.302
X-280.084 Y-200.443
X-280.009 Y-200.573
X-279.916 Y-200.69
X-279.804 Y-200.791
X-279.679 Y-200.873
X-279.542 Y-200.935
X-279.398 Y-200.975
X-279.249 Y-200.994
X-279.099 Y-200.99
X-278.951 Y-200.964
X-278.809 Y-200.917
X-278.675 Y-200.849
X-278.552 Y-200.764
X-278.442 Y-200.661
X-278.348 Y-200.545
X-278.27 Y-200.417
X-278.211 Y-200.279
X-278.171 Y-200.134
X-278.15 Y-199.986
Y-199.836
X-278.169 Y-199.687
X-278.207 Y-199.542
X-278.264 Y-199.403
X-278.337 Y-199.272
X-278.427 Y-199.152
X-278.531 Y-199.044
X-278.647 Y-198.949
X-278.775 Y-198.87
X-278.911 Y-198.807
X-279.053 Y-198.76
X-279.201 Y-198.731
X-279.35 Y-198.719
X-279.5 Y-198.726
X-279.648 Y-198.75
X-279.793 Y-198.79
X-279.931 Y-198.847
X-280.063 Y-198.919
X-280.185 Y-199.006
X-280.297 Y-199.106
X-280.397 Y-199.218
X-280.484 Y-199.34
X-280.557 Y-199.471
X-280.615 Y-199.609
X-280.658 Y-199.753
X-280.685 Y-199.9
X-280.697 Y-200.05
X-280.692 Y-200.2
X-280.672 Y-200.349
X-280.636 Y-200.494
X-280.586 Y-200.636
X-280.521 Y-200.771
X-280.443 Y-200.899
X-280.353 Y-201.019
X-280.25 Y-201.128
X-280.138 Y-201.227
X-280.016 Y-201.315
X-279.886 Y-201.389
X-279.749 Y-201.451
X-279.607 Y-201.499
X-279.461 Y-201.533
X-279.312 Y-201.553
X-279.162 Y-201.559
X-279.013 Y-201.55
X-278.864 Y-201.527
X-278.719 Y-201.491
X-278.578 Y-201.44
X-278.441 Y-201.377
X-278.312 Y-201.302
X-278.19 Y-201.215
X-278.076 Y-201.117
X-277.971 Y-201.01
X-277.877 Y-200.893
X-277.794 Y-200.768
X-277.722 Y-200.636
X-277.662 Y-200.499
X-277.615 Y-200.357
X-277.58 Y-200.211
X-277.558 Y-200.062
X-277.549 Y-199.913
X-277.553 Y-199.763
X-277.57 Y-199.614
X-277.599 Y-199.467
X-277.641 Y-199.323
X-277.695 Y-199.183
X-277.761 Y-199.048
X-277.837 Y-198.919
X-277.924 Y-198.797
X-278.021 Y-198.682
X-278.127 Y-198.576
X-278.242 Y-198.479
X-278.363 Y-198.392
X-278.492 Y-198.314
X-278.626 Y-198.248
X-278.766 Y-198.192
X-278.909 Y-198.148
X-279.056 Y-198.115
X-279.204 Y-198.095
X-279.354 Y-198.085
X-279.504 Y-198.088
X-279.653 Y-198.103
X-279.801 Y-198.129
X-279.946 Y-198.166
X-280.088 Y-198.215
X-280.226 Y-198.274
X-280.359 Y-198.344
X-280.486 Y-198.423
X-280.606 Y-198.513
X-280.72 Y-198.61
X-280.826 Y-198.717
X-280.923 Y-198.831
X-281.012 Y-198.952
X-281.092 Y-199.079
X-281.162 Y-199.211
X-281.222 Y-199.349
X-281.272 Y-199.49
X-281.311 Y-199.635
X-281.34 Y-199.782
X-281.358 Y-199.931
X-281.365 Y-200.081
X-281.361 Y-200.231
X-281.347 Y-200.38
X-281.322 Y-200.528
X-281.286 Y-200.674
X-281.24 Y-200.817
X-281.185 Y-200.956
X-281.119 Y-201.091
X-281.045 Y-201.221
X-280.962 Y-201.346
X-280.87 Y-201.465
X-280.77 Y-201.577
X-280.663 Y-201.682
X-280.548 Y-201.779
X-280.428 Y-201.868
X-280.301 Y-201.949
X-280.17 Y-202.021
X-280.034 Y-202.084
X-279.894 Y-202.137
X-279.75 Y-202.181
X-279.604 Y-202.216
X-279.456 Y-202.24
X-279.307 Y-202.255
X-279.157 Y-202.26
X-279.007 Y-202.255
X-278.858 Y-202.24
X-278.71 Y-202.215
X-278.564 Y-202.181
X-278.42 Y-202.137
X-278.28 Y-202.085
X-278.143 Y-202.023
X-278.011 Y-201.952
X-277.883 Y-201.873
X-277.761 Y-201.787
X-277.645 Y-201.692
X-277.534 Y-201.59
X-277.431 Y-201.482
X-277.334 Y-201.367
X-277.245 Y-201.246
X-277.164 Y-201.12
X-277.09 Y-200.99
X-277.025 Y-200.854
X-276.969 Y-200.716
X-276.921 Y-200.573
X-276.882 Y-200.429
X-276.852 Y-200.282
X-276.831 Y-200.133
X-276.819 Y-199.984
X-276.816 Y-199.834
X-276.822 Y-199.684
X-276.838 Y-199.534
X-276.862 Y-199.386
X-276.896 Y-199.24
X-276.937 Y-199.096
X-276.988 Y-198.955
X-277.047 Y-198.817
X-277.114 Y-198.683
X-277.188 Y-198.553
X-277.271 Y-198.427
X-277.36 Y-198.307
X-277.457 Y-198.192
X-277.56 Y-198.083
X-277.669 Y-197.98
X-277.784 Y-197.884
X-277.904 Y-197.794
X-278.029 Y-197.712
X-278.159 Y-197.637
X-278.293 Y-197.57
X-278.431 Y-197.51
X-278.572 Y-197.458
X-278.715 Y-197.415
X-278.861 Y-197.379
X-279.009 Y-197.352
X-279.158 Y-197.334
X-279.307 Y-197.324
X-279.457 Y-197.322
X-279.607 Y-197.328
X-279.756 Y-197.344
X-279.904 Y-197.367
X-280.051 Y-197.399
X-280.196 Y-197.438
X-280.338 Y-197.486
X-280.477 Y-197.541
X-280.614 Y-197.604
X-280.746 Y-197.675
X-280.875 Y-197.753
X-280.999 Y-197.837
X-281.118 Y-197.928
X-281.232 Y-198.026
X-281.342 Y-198.131
X-281.445 Y-198.24
X-281.542 Y-198.355
X-281.634 Y-198.477
X-281.719 Y-198.604
X-281.797 Y-198.734
X-281.867 Y-198.868
X-281.931 Y-199.008
X-281.988 Y-199.152
X-282.036 Y-199.297
X-282.077 Y-199.444
X-282.109 Y-199.596
X-282.134 Y-199.751
X-282.15 Y-199.905
X-282.158 Y-200.059
X-282.157 Y-200.216
X-282.148 Y-200.374
X-282.13 Y-200.53
X-282.104 Y-200.684
X-282.07 Y-200.837
X-282.026 Y-200.991
X-281.974 Y-201.142
X-281.915 Y-201.289
X-281.848 Y-201.432
X-281.772 Y-201.573
X-281.688 Y-201.711
X-281.597 Y-201.844
X-281.499 Y-201.971
X-281.395 Y-202.092
X-281.283 Y-202.21
X-281.163 Y-202.322
X-281.038 Y-202.426
X-280.909 Y-202.524
X-280.774 Y-202.614
X-280.633 Y-202.698
X-280.486 Y-202.775
X-280.335 Y-202.843
X-280.182 Y-202.903
X-280.026 Y-202.955
X-279.866 Y-202.998
X-279.703 Y-203.033
X-279.537 Y-203.059
X-279.37 Y-203.077
X-279.204 Y-203.084
X-279.037 Y-203.083
X-278.869 Y-203.073
X-278.7 Y-203.054
X-278.533 Y-203.025
X-278.367 Y-202.988
X-278.204 Y-202.941
X-278.044 Y-202.886
X-277.886 Y-202.822
X-277.731 Y-202.749
X-277.578 Y-202.667
X-277.431 Y-202.576
X-277.289 Y-202.479
X-277.152 Y-202.373
X-277.022 Y-202.261
X-276.897 Y-202.141
X-276.777 Y-202.013
X-276.665 Y-201.879
X-276.559 Y-201.738
X-276.462 Y-201.591
X-276.372 Y-201.44
X-276.291 Y-201.284
X-276.218 Y-201.124
X-276.154 Y-200.959
X-276.099 Y-200.791
X-276.052 Y-200.618
X-276.015 Y-200.443
X-275.988 Y-200.265
X-275.97 Y-200.087
X-275.961 Y-199.907
X-275.963 Y-199.727
X-275.974 Y-199.547
X-275.995 Y-199.368
X-276.026 Y-199.19
X-276.066 Y-199.012
X-276.117 Y-198.837
X-276.177 Y-198.664
X-276.246 Y-198.493
X-276.325 Y-198.327
X-276.413 Y-198.165
X-276.509 Y-198.007
X-276.614 Y-197.855
X-276.728 Y-197.709
X-276.849 Y-197.568
X-276.978 Y-197.435
X-277.114 Y-197.308
X-277.258 Y-197.188
X-277.408 Y-197.076
X-277.565 Y-196.972
X-277.727 Y-196.876
X-277.895 Y-196.789
X-278.068 Y-196.711
X-278.245 Y-196.643
X-278.425 Y-196.584
X-278.61 Y-196.534
X-278.797 Y-196.495
X-278.986 Y-196.466
X-279.177 Y-196.447
X-279.37 Y-196.438
X-279.563 Y-196.44
X-279.755 Y-196.453
X-279.948 Y-196.475
X-280.139 Y-196.509
X-280.328 Y-196.552
X-280.515 Y-196.606
X-280.7 Y-196.671
X-280.881 Y-196.745
X-281.058 Y-196.829
X-281.231 Y-196.923
X-281.399 Y-197.027
X-281.561 Y-197.139
X-281.717 Y-197.261
X-281.867 Y-197.391
X-282.01 Y-197.529
X-282.146 Y-197.675
X-282.274 Y-197.829
X-282.393 Y-197.99
X-282.504 Y-198.157
X-282.606 Y-198.331
X-282.698 Y-198.51
X-282.781 Y-198.694
X-282.854 Y-198.883
X-282.916 Y-199.076
X-282.969 Y-199.273
X-283.01 Y-199.472
X-283.041 Y-199.674
X-283.061 Y-199.878
X-283.07 Y-200.083
X-283.068 Y-200.2
X-283.066 Y-200.273
X-283.062 Y-200.346
X-283.055 Y-200.418
X-283.029 Y-200.648
X-282.996 Y-200.871
X-282.92 Y-201.094
X-282.763 Y-201.54
X-282.72 Y-201.651
X-282.654 Y-201.763
X-282.303 Y-202.32
X-282.262 Y-202.376
X-282.211 Y-202.432
X-281.737 Y-202.906
X-281.681 Y-202.958
X-281.625 Y-203
X-281.068 Y-203.351
X-280.956 Y-203.417
X-280.845 Y-203.462
X-280.399 Y-203.618
X-280.176 Y-203.695
X-279.953 Y-203.728
X-279.507 Y-203.778
X-279.284 Y-203.798
X-279.017 Y-203.77
X-278.504 Y-203.712
X-278.393 Y-203.685
X-277.724 Y-203.451
X-277.612 Y-203.4
X-277.055 Y-203.051
X-276.945 Y-202.979
X-276.832 Y-202.875
X-276.386 Y-202.429
X-276.336 Y-202.374
X-276.296 Y-202.319
X-275.94 Y-201.754
X-275.878 Y-201.647
X-275.837 Y-201.54
X-275.68 Y-201.094
X-275.604 Y-200.871
X-275.571 Y-200.648
X-275.521 Y-200.202
X-275.503 Y-199.979
X-275.526 Y-199.756
X-275.576 Y-199.31
X-275.589 Y-199.198
X-275.601 Y-199.143
X-275.617 Y-199.087
X-275.851 Y-198.418
X-275.89 Y-198.332
X-275.94 Y-198.246
X-276.253 Y-197.749
X-276.311 Y-197.66
X-276.386 Y-197.571
X-276.877 Y-197.08
X-276.922 Y-197.04
X-276.966 Y-197.007
X-277.055 Y-196.949
X-277.556 Y-196.634
X-277.64 Y-196.585
X-277.724 Y-196.549
X-278.393 Y-196.315
X-278.504 Y-196.288
X-279.061 Y-196.225
X-279.284 Y-196.203
X-279.507 Y-196.222
X-279.953 Y-196.272
X-280.176 Y-196.305
X-280.481 Y-196.411
X-280.845 Y-196.538
X-280.944 Y-196.577
X-281.044 Y-196.634
X-281.618 Y-196.995
X-281.67 Y-197.033
X-281.723 Y-197.08
X-282.182 Y-197.54
X-282.278 Y-197.644
X-282.347 Y-197.749
X-282.628 Y-198.197
X-282.697 Y-198.307
X-282.749 Y-198.418
X-282.983 Y-199.087
X-282.999 Y-199.143
X-283.011 Y-199.198
X-283.024 Y-199.31
X-283.074 Y-199.756
X-283.097 Y-199.979
X-283.079 Y-200.202
X-283.055 Y-200.418
X-283.037 Y-200.471 Z0.006 F750
X-283.02 Y-200.52 Z0.025
X-283.005 Y-200.565 Z0.055
X-282.993 Y-200.602 Z0.094
X-282.984 Y-200.63 Z0.141
X-282.974 Y-200.646 Z0.194
X-282.971 Y-200.652 Z0.249
G0 Z17
X-279.3 Y-125
Z12.685
G1 Z12.05 F750
Z0
X-279.312 Y-124.964 F850
X-279.35 Y-124.96
X-279.372 Y-124.991
Y-125.028
X-279.354 Y-125.061
X-279.322 Y-125.081
X-279.285 Y-125.084
X-279.25 Y-125.071
X-279.224 Y-125.043
X-279.212 Y-125.008
X-279.216 Y-124.971
X-279.234 Y-124.938
X-279.26 Y-124.911
X-279.293 Y-124.893
X-279.331 Y-124.888
X-279.367 Y-124.895
X-279.4 Y-124.914
X-279.426 Y-124.941
X-279.442 Y-124.975
X-279.449 Y-125.012
X-279.443 Y-125.087
X-279.401 Y-125.149
X-279.336 Y-125.185
X-279.261 Y-125.192
X-279.19 Y-125.168
X-279.134 Y-125.118
X-279.099 Y-125.052
X-279.089 Y-124.977
X-279.104 Y-124.904
X-279.142 Y-124.839
X-279.198 Y-124.789
X-279.266 Y-124.758
X-279.34 Y-124.749
X-279.414 Y-124.762
X-279.482 Y-124.795
X-279.593 Y-124.895
X-279.64 Y-125.037
X-279.617 Y-125.186
X-279.532 Y-125.31
X-279.406 Y-125.39
X-279.258 Y-125.415
X-279.111 Y-125.384
X-278.984 Y-125.304
X-278.893 Y-125.185
X-278.845 Y-125.043
Y-124.893
X-278.891 Y-124.75
X-278.979 Y-124.629
X-279.098 Y-124.538
X-279.239 Y-124.486
X-279.389 Y-124.475
X-279.536 Y-124.502
X-279.671 Y-124.567
X-279.786 Y-124.663
X-279.873 Y-124.786
X-279.927 Y-124.926
X-279.946 Y-125.074
X-279.929 Y-125.224
X-279.88 Y-125.365
X-279.799 Y-125.491
X-279.693 Y-125.598
X-279.566 Y-125.678
X-279.426 Y-125.731
X-279.278 Y-125.753
X-279.128 Y-125.744
X-278.983 Y-125.706
X-278.848 Y-125.64
X-278.728 Y-125.55
X-278.628 Y-125.438
X-278.55 Y-125.31
X-278.497 Y-125.17
X-278.471 Y-125.022
X-278.47 Y-124.872
X-278.497 Y-124.725
X-278.549 Y-124.584
X-278.624 Y-124.454
X-278.721 Y-124.34
X-278.836 Y-124.242
X-278.964 Y-124.165
X-279.103 Y-124.109
X-279.25 Y-124.076
X-279.399 Y-124.067
X-279.549 Y-124.081
X-279.694 Y-124.118
X-279.832 Y-124.177
X-279.96 Y-124.255
X-280.075 Y-124.352
X-280.174 Y-124.464
X-280.256 Y-124.59
X-280.318 Y-124.726
X-280.361 Y-124.87
X-280.383 Y-125.019
X-280.384 Y-125.169
X-280.365 Y-125.317
X-280.325 Y-125.462
X-280.266 Y-125.6
X-280.19 Y-125.729
X-280.096 Y-125.846
X-279.989 Y-125.951
X-279.868 Y-126.04
X-279.737 Y-126.113
X-279.598 Y-126.17
X-279.453 Y-126.207
X-279.304 Y-126.227
X-279.154 Y-126.228
X-279.005 Y-126.211
X-278.859 Y-126.175
X-278.719 Y-126.123
X-278.586 Y-126.054
X-278.462 Y-125.969
X-278.349 Y-125.871
X-278.248 Y-125.76
X-278.16 Y-125.638
X-278.087 Y-125.507
X-278.03 Y-125.369
X-277.988 Y-125.225
X-277.963 Y-125.077
X-277.955 Y-124.927
X-277.963 Y-124.777
X-277.988 Y-124.629
X-278.029 Y-124.485
X-278.085 Y-124.346
X-278.156 Y-124.214
X-278.24 Y-124.089
X-278.337 Y-123.975
X-278.446 Y-123.872
X-278.564 Y-123.78
X-278.692 Y-123.701
X-278.827 Y-123.636
X-278.968 Y-123.584
X-279.113 Y-123.547
X-279.261 Y-123.525
X-279.411 Y-123.518
X-279.561 Y-123.526
X-279.709 Y-123.549
X-279.855 Y-123.586
X-279.996 Y-123.637
X-280.131 Y-123.701
X-280.26 Y-123.778
X-280.38 Y-123.868
X-280.492 Y-123.968
X-280.594 Y-124.078
X-280.684 Y-124.198
X-280.763 Y-124.325
X-280.83 Y-124.459
X-280.885 Y-124.599
X-280.926 Y-124.743
X-280.954 Y-124.891
X-280.968 Y-125.04
X-280.969 Y-125.19
X-280.956 Y-125.34
X-280.93 Y-125.487
X-280.891 Y-125.632
X-280.84 Y-125.773
X-280.776 Y-125.909
X-280.7 Y-126.038
X-280.614 Y-126.161
X-280.517 Y-126.276
X-280.411 Y-126.382
X-280.296 Y-126.478
X-280.174 Y-126.565
X-280.044 Y-126.64
X-279.909 Y-126.705
X-279.768 Y-126.758
X-279.624 Y-126.799
X-279.477 Y-126.828
X-279.328 Y-126.845
X-279.178 Y-126.849
X-279.028 Y-126.841
X-278.879 Y-126.822
X-278.733 Y-126.79
X-278.589 Y-126.746
X-278.45 Y-126.691
X-278.315 Y-126.625
X-278.186 Y-126.549
X-278.063 Y-126.462
X-277.948 Y-126.367
X-277.84 Y-126.262
X-277.741 Y-126.15
X-277.651 Y-126.03
X-277.57 Y-125.903
X-277.5 Y-125.771
X-277.439 Y-125.634
X-277.39 Y-125.492
X-277.351 Y-125.347
X-277.323 Y-125.2
X-277.307 Y-125.051
X-277.302 Y-124.901
X-277.308 Y-124.751
X-277.325 Y-124.602
X-277.353 Y-124.455
X-277.392 Y-124.31
X-277.441 Y-124.168
X-277.501 Y-124.03
X-277.57 Y-123.897
X-277.649 Y-123.77
X-277.737 Y-123.648
X-277.834 Y-123.534
X-277.938 Y-123.426
X-278.05 Y-123.326
X-278.169 Y-123.234
X-278.293 Y-123.151
X-278.424 Y-123.077
X-278.559 Y-123.012
X-278.699 Y-122.957
X-278.841 Y-122.911
X-278.987 Y-122.876
X-279.135 Y-122.851
X-279.284 Y-122.836
X-279.434 Y-122.831
X-279.584 Y-122.837
X-279.733 Y-122.852
X-279.881 Y-122.878
X-280.027 Y-122.914
X-280.17 Y-122.959
X-280.309 Y-123.014
X-280.445 Y-123.079
X-280.576 Y-123.152
X-280.702 Y-123.233
X-280.822 Y-123.323
X-280.936 Y-123.421
X-281.043 Y-123.525
X-281.143 Y-123.637
X-281.236 Y-123.755
X-281.321 Y-123.879
X-281.398 Y-124.007
X-281.466 Y-124.141
X-281.525 Y-124.279
X-281.576 Y-124.42
X-281.617 Y-124.564
X-281.649 Y-124.711
X-281.672 Y-124.859
X-281.685 Y-125.008
X-281.689 Y-125.158
X-281.684 Y-125.308
X-281.669 Y-125.458
X-281.644 Y-125.606
X-281.611 Y-125.752
X-281.568 Y-125.896
X-281.517 Y-126.037
X-281.457 Y-126.174
X-281.389 Y-126.308
X-281.313 Y-126.437
X-281.229 Y-126.561
X-281.137 Y-126.68
X-281.039 Y-126.793
X-280.934 Y-126.9
X-280.822 Y-127.001
X-280.705 Y-127.094
X-280.582 Y-127.18
X-280.455 Y-127.259
X-280.323 Y-127.33
X-280.187 Y-127.394
X-280.047 Y-127.449
X-279.904 Y-127.495
X-279.759 Y-127.533
X-279.612 Y-127.563
X-279.464 Y-127.584
X-279.314 Y-127.596
X-279.164 Y-127.6
X-279.014 Y-127.595
X-278.865 Y-127.581
X-278.717 Y-127.558
X-278.57 Y-127.527
X-278.425 Y-127.488
X-278.283 Y-127.441
X-278.144 Y-127.385
X-278.008 Y-127.322
X-277.875 Y-127.251
X-277.748 Y-127.172
X-277.624 Y-127.087
X-277.506 Y-126.995
X-277.393 Y-126.896
X-277.286 Y-126.791
X-277.185 Y-126.68
X-277.09 Y-126.564
X-277.001 Y-126.443
X-276.92 Y-126.317
X-276.846 Y-126.187
X-276.779 Y-126.053
X-276.719 Y-125.915
X-276.667 Y-125.773
X-276.623 Y-125.63
X-276.586 Y-125.485
X-276.558 Y-125.337
X-276.538 Y-125.186
X-276.525 Y-125.037
X-276.521 Y-124.887
X-276.526 Y-124.734
X-276.538 Y-124.581
X-276.559 Y-124.431
X-276.587 Y-124.283
X-276.625 Y-124.133
X-276.67 Y-123.985
X-276.723 Y-123.842
X-276.784 Y-123.702
X-276.853 Y-123.562
X-276.93 Y-123.426
X-277.014 Y-123.296
X-277.104 Y-123.171
X-277.202 Y-123.049
X-277.308 Y-122.931
X-277.419 Y-122.82
X-277.535 Y-122.716
X-277.658 Y-122.618
X-277.788 Y-122.525
X-277.923 Y-122.439
X-278.061 Y-122.361
X-278.202 Y-122.291
X-278.35 Y-122.228
X-278.502 Y-122.173
X-278.656 Y-122.126
X-278.811 Y-122.088
X-278.969 Y-122.058
X-279.13 Y-122.036
X-279.293 Y-122.023
X-279.456 Y-122.019
X-279.618 Y-122.024
X-279.78 Y-122.037
X-279.942 Y-122.06
X-280.105 Y-122.092
X-280.265 Y-122.132
X-280.423 Y-122.181
X-280.576 Y-122.238
X-280.728 Y-122.304
X-280.878 Y-122.378
X-281.024 Y-122.461
X-281.165 Y-122.552
X-281.3 Y-122.65
X-281.43 Y-122.755
X-281.554 Y-122.867
X-281.674 Y-122.988
X-281.787 Y-123.115
X-281.893 Y-123.248
X-281.992 Y-123.386
X-282.083 Y-123.529
X-282.166 Y-123.677
X-282.242 Y-123.831
X-282.309 Y-123.99
X-282.368 Y-124.153
X-282.418 Y-124.318
X-282.459 Y-124.485
X-282.491 Y-124.655
X-282.514 Y-124.827
X-282.527 Y-125.001
X-282.531 Y-125.176
X-282.526 Y-125.352
X-282.511 Y-125.527
X-282.487 Y-125.701
X-282.453 Y-125.874
X-282.409 Y-126.045
X-282.357 Y-126.213
X-282.295 Y-126.38
X-282.224 Y-126.543
X-282.143 Y-126.704
X-282.054 Y-126.86
X-281.957 Y-127.011
X-281.851 Y-127.156
X-281.738 Y-127.296
X-281.617 Y-127.429
X-281.489 Y-127.556
X-281.353 Y-127.676
X-281.211 Y-127.79
X-281.062 Y-127.895
X-280.907 Y-127.993
X-280.746 Y-128.083
X-280.581 Y-128.164
X-280.411 Y-128.236
X-280.237 Y-128.299
X-280.06 Y-128.352
X-279.88 Y-128.396
X-279.698 Y-128.43
X-279.514 Y-128.454
X-279.328 Y-128.468
X-279.141 Y-128.472
X-278.954 Y-128.465
X-278.767 Y-128.449
X-278.58 Y-128.423
X-278.395 Y-128.386
X-278.211 Y-128.339
X-278.03 Y-128.282
X-277.852 Y-128.215
X-277.677 Y-128.139
X-277.506 Y-128.053
X-277.34 Y-127.957
X-277.179 Y-127.853
X-277.023 Y-127.74
X-276.874 Y-127.618
X-276.731 Y-127.488
X-276.595 Y-127.35
X-276.466 Y-127.205
X-276.345 Y-127.053
X-276.233 Y-126.893
X-276.129 Y-126.728
X-276.034 Y-126.557
X-275.948 Y-126.381
X-275.871 Y-126.199
X-275.805 Y-126.014
X-275.748 Y-125.825
X-275.702 Y-125.632
X-275.666 Y-125.437
X-275.64 Y-125.24
X-275.625 Y-125.041
X-275.622 Y-124.841
X-275.629 Y-124.641
X-275.646 Y-124.441
X-275.675 Y-124.242
X-275.715 Y-124.044
X-275.765 Y-123.849
X-275.826 Y-123.655
X-275.897 Y-123.465
X-275.979 Y-123.279
X-276.071 Y-123.097
X-276.173 Y-122.92
X-276.285 Y-122.749
X-276.406 Y-122.583
X-276.48 Y-122.492
X-276.527 Y-122.437
X-276.576 Y-122.383
X-276.626 Y-122.331
X-276.804 Y-122.153
X-276.832 Y-122.125
X-276.944 Y-122.023
X-277.055 Y-121.949
X-277.562 Y-121.631
X-277.612 Y-121.6
X-277.724 Y-121.549
X-278.393 Y-121.315
X-278.504 Y-121.288
X-279.061 Y-121.225
X-279.284 Y-121.203
X-279.507 Y-121.222
X-279.953 Y-121.272
X-280.176 Y-121.305
X-280.399 Y-121.382
X-280.845 Y-121.538
X-280.956 Y-121.583
X-281.068 Y-121.649
X-281.626 Y-122
X-281.681 Y-122.042
X-281.737 Y-122.094
X-282.182 Y-122.54
X-282.241 Y-122.599
X-282.286 Y-122.655
X-282.323 Y-122.711
X-282.673 Y-123.268
X-282.733 Y-123.38
X-282.774 Y-123.491
X-282.931 Y-123.937
X-283.003 Y-124.16
X-283.032 Y-124.383
X-283.095 Y-124.941
Y-125.052
X-283.021 Y-125.721
X-283.005 Y-125.833
X-282.972 Y-125.944
X-282.816 Y-126.39
X-282.736 Y-126.613
X-282.628 Y-126.803
X-282.328 Y-127.282
X-282.265 Y-127.371
X-282.182 Y-127.46
X-281.737 Y-127.906
X-281.688 Y-127.951
X-281.514 Y-128.071
X-280.993 Y-128.397
X-280.919 Y-128.434
X-280.845 Y-128.462
X-280.392 Y-128.62
X-280.176 Y-128.695
X-279.953 Y-128.728
X-279.507 Y-128.778
X-279.284 Y-128.797
X-279.061 Y-128.775
X-278.504 Y-128.712
X-278.393 Y-128.685
X-277.724 Y-128.451
X-277.665 Y-128.427
X-277.607 Y-128.397
X-277.055 Y-128.051
X-276.911 Y-127.951
X-276.832 Y-127.875
X-276.386 Y-127.429
X-276.323 Y-127.356
X-276.272 Y-127.282
X-275.94 Y-126.754
X-275.897 Y-126.683
X-275.864 Y-126.613
X-275.784 Y-126.39
X-275.628 Y-125.944
X-275.595 Y-125.833
X-275.579 Y-125.721
X-275.505 Y-125.052
Y-124.941
X-275.568 Y-124.383
X-275.597 Y-124.16
X-275.669 Y-123.937
X-275.826 Y-123.491
X-275.866 Y-123.38
X-275.927 Y-123.268
X-276.277 Y-122.711
X-276.313 Y-122.655
X-276.359 Y-122.599
X-276.386 Y-122.571
X-276.626 Y-122.331
X-276.673 Y-122.301 Z0.006 F750
X-276.717 Y-122.273 Z0.025
X-276.756 Y-122.247 Z0.055
X-276.789 Y-122.226 Z0.094
X-276.814 Y-122.21 Z0.141
X-276.831 Y-122.203 Z0.194
X-276.837 Y-122.201 Z0.249
G0 Z17
X-279.299 Y-95
Z12.685
G1 Z12.05 F750
Z0
X-279.264 Y-95.012 F850
X-279.238 Y-94.985
X-279.249 Y-94.949
X-279.278 Y-94.926
X-279.315 Y-94.92
X-279.35 Y-94.933
X-279.376 Y-94.96
X-279.387 Y-94.996
X-279.381 Y-95.033
X-279.36 Y-95.065
X-279.328 Y-95.084
X-279.291 Y-95.09
X-279.254 Y-95.086
X-279.22 Y-95.071
X-279.193 Y-95.044
X-279.176 Y-95.011
X-279.171 Y-94.974
X-279.176 Y-94.937
X-279.193 Y-94.903
X-279.218 Y-94.875
X-279.28 Y-94.834
X-279.355 Y-94.829
X-279.424 Y-94.858
X-279.475 Y-94.913
X-279.5 Y-94.984
X-279.496 Y-95.059
X-279.464 Y-95.127
X-279.411 Y-95.18
X-279.344 Y-95.214
X-279.27 Y-95.224
X-279.196 Y-95.211
X-279.13 Y-95.176
X-279.077 Y-95.122
X-279.042 Y-95.056
X-279.026 Y-94.983
X-279.037 Y-94.833
X-279.121 Y-94.709
X-279.252 Y-94.636
X-279.402 Y-94.626
X-279.543 Y-94.677
X-279.654 Y-94.778
X-279.72 Y-94.913
X-279.734 Y-95.062
X-279.696 Y-95.208
X-279.613 Y-95.333
X-279.495 Y-95.425
X-279.354 Y-95.476
X-279.204 Y-95.482
X-279.059 Y-95.443
X-278.932 Y-95.363
X-278.831 Y-95.252
X-278.761 Y-95.119
X-278.73 Y-94.973
X-278.736 Y-94.823
X-278.779 Y-94.679
X-278.856 Y-94.551
X-278.962 Y-94.444
X-279.09 Y-94.366
X-279.232 Y-94.318
X-279.381 Y-94.305
X-279.53 Y-94.323
X-279.672 Y-94.373
X-279.799 Y-94.452
X-279.908 Y-94.555
X-279.993 Y-94.679
X-280.052 Y-94.817
X-280.083 Y-94.964
X-280.085 Y-95.114
X-280.059 Y-95.261
X-280.005 Y-95.402
X-279.927 Y-95.53
X-279.827 Y-95.641
X-279.708 Y-95.733
X-279.576 Y-95.803
X-279.432 Y-95.848
X-279.284 Y-95.868
X-279.134 Y-95.862
X-278.987 Y-95.832
X-278.847 Y-95.778
X-278.718 Y-95.702
X-278.602 Y-95.607
X-278.503 Y-95.494
X-278.422 Y-95.368
X-278.362 Y-95.23
X-278.323 Y-95.085
X-278.307 Y-94.936
X-278.313 Y-94.786
X-278.341 Y-94.639
X-278.389 Y-94.497
X-278.459 Y-94.364
X-278.546 Y-94.242
X-278.649 Y-94.134
X-278.767 Y-94.041
X-278.897 Y-93.965
X-279.035 Y-93.907
X-279.18 Y-93.869
X-279.329 Y-93.85
X-279.479 Y-93.852
X-279.628 Y-93.873
X-279.772 Y-93.913
X-279.91 Y-93.971
X-280.04 Y-94.047
X-280.159 Y-94.138
X-280.266 Y-94.243
X-280.359 Y-94.361
X-280.436 Y-94.489
X-280.498 Y-94.626
X-280.543 Y-94.769
X-280.57 Y-94.917
X-280.58 Y-95.066
X-280.572 Y-95.216
X-280.546 Y-95.364
X-280.504 Y-95.508
X-280.445 Y-95.646
X-280.371 Y-95.776
X-280.283 Y-95.898
X-280.181 Y-96.008
X-280.068 Y-96.107
X-279.945 Y-96.192
X-279.813 Y-96.263
X-279.674 Y-96.32
X-279.53 Y-96.361
X-279.382 Y-96.386
X-279.232 Y-96.396
X-279.082 Y-96.39
X-278.934 Y-96.367
X-278.789 Y-96.33
X-278.648 Y-96.278
X-278.514 Y-96.211
X-278.386 Y-96.132
X-278.268 Y-96.04
X-278.16 Y-95.936
X-278.062 Y-95.822
X-277.976 Y-95.699
X-277.903 Y-95.568
X-277.843 Y-95.431
X-277.797 Y-95.288
X-277.765 Y-95.141
X-277.747 Y-94.993
X-277.743 Y-94.843
X-277.754 Y-94.693
X-277.778 Y-94.545
X-277.817 Y-94.4
X-277.869 Y-94.259
X-277.934 Y-94.124
X-278.011 Y-93.995
X-278.099 Y-93.874
X-278.198 Y-93.762
X-278.307 Y-93.659
X-278.425 Y-93.566
X-278.551 Y-93.484
X-278.684 Y-93.414
X-278.822 Y-93.356
X-278.965 Y-93.31
X-279.111 Y-93.277
X-279.26 Y-93.257
X-279.41 Y-93.25
X-279.559 Y-93.256
X-279.708 Y-93.275
X-279.855 Y-93.306
X-279.998 Y-93.35
X-280.138 Y-93.406
X-280.272 Y-93.473
X-280.4 Y-93.551
X-280.521 Y-93.64
X-280.634 Y-93.738
X-280.739 Y-93.845
X-280.834 Y-93.961
X-280.92 Y-94.084
X-280.996 Y-94.213
X-281.061 Y-94.349
X-281.114 Y-94.489
X-281.157 Y-94.633
X-281.188 Y-94.78
X-281.206 Y-94.928
X-281.214 Y-95.078
X-281.209 Y-95.228
X-281.193 Y-95.377
X-281.165 Y-95.525
X-281.126 Y-95.669
X-281.075 Y-95.811
X-281.014 Y-95.948
X-280.943 Y-96.08
X-280.861 Y-96.206
X-280.771 Y-96.325
X-280.671 Y-96.438
X-280.564 Y-96.542
X-280.449 Y-96.638
X-280.327 Y-96.725
X-280.199 Y-96.803
X-280.065 Y-96.872
X-279.927 Y-96.93
X-279.785 Y-96.978
X-279.639 Y-97.015
X-279.492 Y-97.042
X-279.343 Y-97.058
X-279.193 Y-97.063
X-279.043 Y-97.058
X-278.894 Y-97.042
X-278.746 Y-97.015
X-278.601 Y-96.977
X-278.459 Y-96.93
X-278.32 Y-96.873
X-278.186 Y-96.806
X-278.057 Y-96.729
X-277.933 Y-96.644
X-277.816 Y-96.551
X-277.705 Y-96.45
X-277.601 Y-96.341
X-277.506 Y-96.226
X-277.418 Y-96.104
X-277.339 Y-95.977
X-277.268 Y-95.844
X-277.207 Y-95.707
X-277.155 Y-95.566
X-277.113 Y-95.423
X-277.08 Y-95.276
X-277.058 Y-95.128
X-277.045 Y-94.978
X-277.042 Y-94.828
X-277.049 Y-94.679
X-277.066 Y-94.53
X-277.092 Y-94.382
X-277.128 Y-94.236
X-277.174 Y-94.093
X-277.229 Y-93.954
X-277.292 Y-93.818
X-277.364 Y-93.686
X-277.445 Y-93.56
X-277.533 Y-93.439
X-277.629 Y-93.323
X-277.732 Y-93.214
X-277.842 Y-93.112
X-277.958 Y-93.017
X-278.08 Y-92.929
X-278.207 Y-92.85
X-278.338 Y-92.778
X-278.474 Y-92.714
X-278.614 Y-92.66
X-278.757 Y-92.614
X-278.902 Y-92.576
X-279.049 Y-92.548
X-279.198 Y-92.529
X-279.348 Y-92.519
X-279.498 Y-92.518
X-279.648 Y-92.527
X-279.797 Y-92.544
X-279.944 Y-92.57
X-280.09 Y-92.605
X-280.234 Y-92.649
X-280.374 Y-92.701
X-280.511 Y-92.762
X-280.645 Y-92.831
X-280.774 Y-92.907
X-280.898 Y-92.991
X-281.018 Y-93.082
X-281.131 Y-93.18
X-281.239 Y-93.284
X-281.34 Y-93.395
X-281.435 Y-93.511
X-281.523 Y-93.632
X-281.604 Y-93.759
X-281.677 Y-93.889
X-281.743 Y-94.024
X-281.801 Y-94.163
X-281.851 Y-94.304
X-281.893 Y-94.448
X-281.926 Y-94.594
X-281.951 Y-94.742
X-281.968 Y-94.891
X-281.976 Y-95.041
Y-95.191
X-281.967 Y-95.341
X-281.95 Y-95.49
X-281.925 Y-95.638
X-281.892 Y-95.784
X-281.85 Y-95.928
X-281.801 Y-96.07
X-281.744 Y-96.208
X-281.679 Y-96.344
X-281.607 Y-96.475
X-281.527 Y-96.603
X-281.441 Y-96.726
X-281.349 Y-96.844
X-281.25 Y-96.957
X-281.143 Y-97.066
X-281.033 Y-97.168
X-280.917 Y-97.263
X-280.794 Y-97.353
X-280.665 Y-97.437
X-280.534 Y-97.513
X-280.4 Y-97.581
X-280.259 Y-97.644
X-280.114 Y-97.699
X-279.968 Y-97.745
X-279.821 Y-97.783
X-279.668 Y-97.814
X-279.513 Y-97.837
X-279.359 Y-97.851
X-279.205 Y-97.857
X-279.048 Y-97.854
X-278.89 Y-97.843
X-278.734 Y-97.823
X-278.581 Y-97.795
X-278.428 Y-97.759
X-278.275 Y-97.713
X-278.124 Y-97.66
X-277.978 Y-97.599
X-277.836 Y-97.53
X-277.696 Y-97.452
X-277.559 Y-97.366
X-277.427 Y-97.273
X-277.302 Y-97.174
X-277.181 Y-97.068
X-277.065 Y-96.954
X-276.955 Y-96.834
X-276.852 Y-96.708
X-276.756 Y-96.577
X-276.667 Y-96.441
X-276.585 Y-96.298
X-276.51 Y-96.151
X-276.444 Y-95.999
X-276.386 Y-95.845
X-276.336 Y-95.689
X-276.295 Y-95.528
X-276.262 Y-95.364
X-276.238 Y-95.198
X-276.223 Y-95.031
X-276.217 Y-94.865
X-276.22 Y-94.698
X-276.232 Y-94.53
X-276.254 Y-94.362
X-276.285 Y-94.194
X-276.324 Y-94.029
X-276.373 Y-93.866
X-276.43 Y-93.707
X-276.496 Y-93.55
X-276.571 Y-93.396
X-276.655 Y-93.245
X-276.747 Y-93.098
X-276.847 Y-92.957
X-276.954 Y-92.822
X-277.068 Y-92.693
X-277.19 Y-92.57
X-277.319 Y-92.452
X-277.455 Y-92.341
X-277.597 Y-92.238
X-277.745 Y-92.142
X-277.897 Y-92.054
X-278.054 Y-91.975
X-278.215 Y-91.904
X-278.381 Y-91.842
X-278.55 Y-91.789
X-278.723 Y-91.745
X-278.899 Y-91.71
X-279.077 Y-91.684
X-279.256 Y-91.669
X-279.435 Y-91.663
X-279.615 Y-91.666
X-279.795 Y-91.68
X-279.974 Y-91.703
X-280.152 Y-91.736
X-280.329 Y-91.779
X-280.504 Y-91.832
X-280.676 Y-91.894
X-280.845 Y-91.965
X-281.011 Y-92.046
X-281.172 Y-92.136
X-281.328 Y-92.235
X-281.479 Y-92.342
X-281.624 Y-92.457
X-281.763 Y-92.58
X-281.895 Y-92.711
X-282.02 Y-92.849
X-282.138 Y-92.994
X-282.248 Y-93.145
X-282.35 Y-93.303
X-282.443 Y-93.467
X-282.528 Y-93.636
X-282.604 Y-93.809
X-282.67 Y-93.987
X-282.727 Y-94.169
X-282.774 Y-94.354
X-282.811 Y-94.542
X-282.838 Y-94.731
X-282.854 Y-94.923
X-282.861 Y-95.115
X-282.856 Y-95.308
X-282.841 Y-95.5
X-282.816 Y-95.692
X-282.78 Y-95.883
X-282.734 Y-96.072
X-282.678 Y-96.258
X-282.611 Y-96.442
X-282.535 Y-96.622
X-282.448 Y-96.798
X-282.352 Y-96.97
X-282.247 Y-97.136
X-282.132 Y-97.297
X-282.009 Y-97.452
X-281.877 Y-97.6
X-281.736 Y-97.742
X-281.588 Y-97.875
X-281.433 Y-98.001
X-281.271 Y-98.118
X-281.102 Y-98.227
X-280.927 Y-98.327
X-280.747 Y-98.417
X-280.562 Y-98.497
X-280.372 Y-98.568
X-280.178 Y-98.628
X-279.981 Y-98.678
X-279.781 Y-98.717
X-279.578 Y-98.745
X-279.374 Y-98.762
X-279.169 Y-98.768
X-279.052 Y-98.765
X-278.988 Y-98.763
X-278.924 Y-98.758
X-278.861 Y-98.752
X-278.74 Y-98.739
X-278.504 Y-98.712
X-278.393 Y-98.685
X-277.724 Y-98.451
X-277.612 Y-98.4
X-277.44 Y-98.293
X-277.055 Y-98.051
X-276.944 Y-97.977
X-276.832 Y-97.875
X-276.386 Y-97.429
X-276.359 Y-97.401
X-276.313 Y-97.345
X-276.277 Y-97.289
X-275.927 Y-96.732
X-275.866 Y-96.62
X-275.826 Y-96.509
X-275.669 Y-96.063
X-275.597 Y-95.84
X-275.568 Y-95.617
X-275.505 Y-95.059
Y-94.948
X-275.579 Y-94.279
X-275.595 Y-94.167
X-275.628 Y-94.056
X-275.784 Y-93.61
X-275.864 Y-93.387
X-275.897 Y-93.317
X-275.992 Y-93.164
X-276.272 Y-92.718
X-276.323 Y-92.644
X-276.386 Y-92.571
X-276.832 Y-92.125
X-276.911 Y-92.049
X-277.055 Y-91.949
X-277.607 Y-91.603
X-277.665 Y-91.573
X-277.724 Y-91.549
X-278.393 Y-91.315
X-278.504 Y-91.288
X-279.061 Y-91.225
X-279.284 Y-91.203
X-279.507 Y-91.222
X-279.953 Y-91.272
X-280.176 Y-91.305
X-280.399 Y-91.382
X-280.845 Y-91.538
X-280.919 Y-91.566
X-280.993 Y-91.603
X-281.514 Y-91.929
X-281.688 Y-92.049
X-281.737 Y-92.094
X-282.182 Y-92.54
X-282.265 Y-92.629
X-282.328 Y-92.718
X-282.628 Y-93.196
X-282.736 Y-93.387
X-282.851 Y-93.711
X-282.972 Y-94.056
X-283.005 Y-94.167
X-283.021 Y-94.279
X-283.095 Y-94.948
Y-95.059
X-283.032 Y-95.617
X-283.003 Y-95.84
X-282.93 Y-96.063
X-282.774 Y-96.509
X-282.733 Y-96.62
X-282.673 Y-96.732
X-282.323 Y-97.289
X-282.286 Y-97.345
X-282.241 Y-97.401
X-282.182 Y-97.46
X-281.737 Y-97.906
X-281.681 Y-97.958
X-281.626 Y-98
X-281.068 Y-98.351
X-280.956 Y-98.417
X-280.845 Y-98.462
X-280.399 Y-98.618
X-280.176 Y-98.695
X-279.953 Y-98.728
X-279.507 Y-98.778
X-279.284 Y-98.797
X-279.061 Y-98.775
X-278.861 Y-98.752
X-278.809 Y-98.735 Z0.006 F750
X-278.759 Y-98.718 Z0.025
X-278.714 Y-98.703 Z0.055
X-278.677 Y-98.691 Z0.094
X-278.649 Y-98.681 Z0.141
X-278.633 Y-98.672 Z0.194
X-278.628 Y-98.669 Z0.249
G0 Z17
X-279.3 Y-20
Z12.685
G1 Z12.05 F750
Z0
X-279.336 Y-20.012 F850
X-279.34 Y-20.05
X-279.309 Y-20.072
X-279.272
X-279.239 Y-20.054
X-279.219 Y-20.022
X-279.216 Y-19.985
X-279.229 Y-19.95
X-279.257 Y-19.924
X-279.292 Y-19.912
X-279.329 Y-19.916
X-279.362 Y-19.934
X-279.389 Y-19.96
X-279.407 Y-19.993
X-279.412 Y-20.031
X-279.405 Y-20.067
X-279.386 Y-20.1
X-279.359 Y-20.126
X-279.325 Y-20.142
X-279.288 Y-20.149
X-279.213 Y-20.143
X-279.151 Y-20.101
X-279.115 Y-20.036
X-279.108 Y-19.961
X-279.132 Y-19.89
X-279.182 Y-19.834
X-279.248 Y-19.799
X-279.323 Y-19.789
X-279.396 Y-19.804
X-279.461 Y-19.842
X-279.511 Y-19.898
X-279.542 Y-19.966
X-279.551 Y-20.04
X-279.539 Y-20.114
X-279.505 Y-20.182
X-279.405 Y-20.293
X-279.263 Y-20.34
X-279.114 Y-20.317
X-278.99 Y-20.233
X-278.91 Y-20.106
X-278.885 Y-19.958
X-278.916 Y-19.811
X-278.996 Y-19.685
X-279.115 Y-19.593
X-279.257 Y-19.545
X-279.407
X-279.55 Y-19.591
X-279.671 Y-19.679
X-279.762 Y-19.798
X-279.814 Y-19.939
X-279.825 Y-20.089
X-279.798 Y-20.236
X-279.733 Y-20.371
X-279.637 Y-20.486
X-279.514 Y-20.573
X-279.374 Y-20.627
X-279.226 Y-20.646
X-279.077 Y-20.629
X-278.935 Y-20.58
X-278.809 Y-20.499
X-278.702 Y-20.393
X-278.622 Y-20.267
X-278.569 Y-20.126
X-278.547 Y-19.978
X-278.556 Y-19.828
X-278.594 Y-19.683
X-278.66 Y-19.548
X-278.75 Y-19.428
X-278.862 Y-19.328
X-278.99 Y-19.25
X-279.13 Y-19.197
X-279.278 Y-19.171
X-279.428 Y-19.17
X-279.575 Y-19.197
X-279.716 Y-19.249
X-279.846 Y-19.324
X-279.96 Y-19.421
X-280.058 Y-19.535
X-280.135 Y-19.664
X-280.191 Y-19.803
X-280.224 Y-19.95
X-280.233 Y-20.099
X-280.219 Y-20.249
X-280.182 Y-20.394
X-280.123 Y-20.532
X-280.045 Y-20.66
X-279.948 Y-20.775
X-279.836 Y-20.874
X-279.71 Y-20.956
X-279.574 Y-21.018
X-279.43 Y-21.061
X-279.282 Y-21.083
X-279.132 Y-21.084
X-278.983 Y-21.065
X-278.838 Y-21.025
X-278.7 Y-20.966
X-278.571 Y-20.89
X-278.454 Y-20.796
X-278.349 Y-20.689
X-278.26 Y-20.568
X-278.187 Y-20.437
X-278.13 Y-20.298
X-278.093 Y-20.153
X-278.073 Y-20.004
X-278.072 Y-19.854
X-278.089 Y-19.705
X-278.125 Y-19.56
X-278.177 Y-19.419
X-278.246 Y-19.286
X-278.33 Y-19.162
X-278.429 Y-19.049
X-278.54 Y-18.948
X-278.662 Y-18.86
X-278.793 Y-18.787
X-278.931 Y-18.73
X-279.075 Y-18.688
X-279.223 Y-18.663
X-279.373 Y-18.655
X-279.523 Y-18.663
X-279.671 Y-18.688
X-279.815 Y-18.729
X-279.954 Y-18.785
X-280.086 Y-18.856
X-280.21 Y-18.94
X-280.325 Y-19.037
X-280.428 Y-19.145
X-280.52 Y-19.264
X-280.599 Y-19.391
X-280.664 Y-19.527
X-280.716 Y-19.667
X-280.753 Y-19.813
X-280.775 Y-19.961
X-280.782 Y-20.111
X-280.774 Y-20.261
X-280.751 Y-20.409
X-280.714 Y-20.555
X-280.663 Y-20.696
X-280.599 Y-20.831
X-280.522 Y-20.96
X-280.433 Y-21.08
X-280.332 Y-21.192
X-280.222 Y-21.293
X-280.102 Y-21.384
X-279.975 Y-21.463
X-279.841 Y-21.53
X-279.701 Y-21.585
X-279.557 Y-21.626
X-279.409 Y-21.654
X-279.26 Y-21.668
X-279.11 Y-21.669
X-278.961 Y-21.656
X-278.813 Y-21.63
X-278.668 Y-21.591
X-278.527 Y-21.54
X-278.391 Y-21.476
X-278.262 Y-21.4
X-278.139 Y-21.314
X-278.024 Y-21.217
X-277.919 Y-21.111
X-277.822 Y-20.996
X-277.735 Y-20.874
X-277.66 Y-20.744
X-277.595 Y-20.609
X-277.542 Y-20.469
X-277.501 Y-20.324
X-277.472 Y-20.177
X-277.455 Y-20.028
X-277.451 Y-19.878
X-277.459 Y-19.728
X-277.478 Y-19.58
X-277.51 Y-19.433
X-277.554 Y-19.29
X-277.609 Y-19.15
X-277.675 Y-19.015
X-277.751 Y-18.886
X-277.837 Y-18.763
X-277.933 Y-18.648
X-278.038 Y-18.54
X-278.15 Y-18.441
X-278.27 Y-18.351
X-278.396 Y-18.27
X-278.529 Y-18.2
X-278.666 Y-18.139
X-278.808 Y-18.09
X-278.953 Y-18.051
X-279.1 Y-18.023
X-279.249 Y-18.007
X-279.399 Y-18.002
X-279.549 Y-18.008
X-279.698 Y-18.025
X-279.845 Y-18.053
X-279.99 Y-18.092
X-280.132 Y-18.141
X-280.269 Y-18.201
X-280.402 Y-18.27
X-280.53 Y-18.349
X-280.651 Y-18.437
X-280.766 Y-18.534
X-280.874 Y-18.638
X-280.974 Y-18.75
X-281.066 Y-18.868
X-281.149 Y-18.993
X-281.223 Y-19.124
X-281.288 Y-19.259
X-281.343 Y-19.398
X-281.389 Y-19.541
X-281.424 Y-19.687
X-281.449 Y-19.835
X-281.464 Y-19.984
X-281.469 Y-20.134
X-281.463 Y-20.284
X-281.448 Y-20.433
X-281.422 Y-20.581
X-281.386 Y-20.727
X-281.341 Y-20.87
X-281.286 Y-21.009
X-281.221 Y-21.145
X-281.148 Y-21.276
X-281.067 Y-21.402
X-280.977 Y-21.522
X-280.879 Y-21.636
X-280.775 Y-21.743
X-280.663 Y-21.843
X-280.545 Y-21.936
X-280.422 Y-22.021
X-280.293 Y-22.098
X-280.159 Y-22.166
X-280.021 Y-22.225
X-279.88 Y-22.276
X-279.736 Y-22.317
X-279.59 Y-22.349
X-279.441 Y-22.372
X-279.292 Y-22.385
X-279.142 Y-22.389
X-278.992 Y-22.384
X-278.843 Y-22.369
X-278.695 Y-22.344
X-278.548 Y-22.311
X-278.405 Y-22.268
X-278.264 Y-22.217
X-278.126 Y-22.157
X-277.993 Y-22.089
X-277.863 Y-22.013
X-277.739 Y-21.929
X-277.62 Y-21.837
X-277.507 Y-21.739
X-277.4 Y-21.634
X-277.3 Y-21.522
X-277.206 Y-21.405
X-277.12 Y-21.282
X-277.041 Y-21.155
X-276.97 Y-21.023
X-276.907 Y-20.887
X-276.851 Y-20.747
X-276.805 Y-20.605
X-276.767 Y-20.46
X-276.737 Y-20.313
X-276.716 Y-20.164
X-276.704 Y-20.015
X-276.7 Y-19.865
X-276.705 Y-19.715
X-276.719 Y-19.565
X-276.742 Y-19.417
X-276.773 Y-19.27
X-276.812 Y-19.125
X-276.859 Y-18.983
X-276.915 Y-18.844
X-276.978 Y-18.708
X-277.049 Y-18.576
X-277.127 Y-18.448
X-277.213 Y-18.325
X-277.305 Y-18.206
X-277.404 Y-18.093
X-277.509 Y-17.986
X-277.619 Y-17.885
X-277.736 Y-17.79
X-277.857 Y-17.702
X-277.983 Y-17.62
X-278.113 Y-17.546
X-278.247 Y-17.479
X-278.385 Y-17.419
X-278.526 Y-17.367
X-278.67 Y-17.323
X-278.815 Y-17.286
X-278.963 Y-17.258
X-279.113 Y-17.238
X-279.263 Y-17.225
X-279.413 Y-17.221
X-279.566 Y-17.226
X-279.718 Y-17.238
X-279.868 Y-17.259
X-280.017 Y-17.287
X-280.166 Y-17.325
X-280.314 Y-17.37
X-280.458 Y-17.423
X-280.598 Y-17.483
X-280.737 Y-17.553
X-280.874 Y-17.63
X-281.004 Y-17.713
X-281.129 Y-17.803
X-281.251 Y-17.902
X-281.369 Y-18.008
X-281.48 Y-18.119
X-281.584 Y-18.235
X-281.682 Y-18.358
X-281.775 Y-18.488
X-281.861 Y-18.622
X-281.939 Y-18.76
X-282.008 Y-18.902
X-282.072 Y-19.049
X-282.127 Y-19.201
X-282.174 Y-19.355
X-282.212 Y-19.511
X-282.242 Y-19.668
X-282.264 Y-19.829
X-282.277 Y-19.992
X-282.281 Y-20.155
X-282.276 Y-20.317
X-282.263 Y-20.479
X-282.24 Y-20.642
X-282.208 Y-20.804
X-282.168 Y-20.965
X-282.119 Y-21.122
X-282.062 Y-21.276
X-281.997 Y-21.428
X-281.922 Y-21.578
X-281.839 Y-21.724
X-281.748 Y-21.864
X-281.651 Y-22
X-281.546 Y-22.129
X-281.433 Y-22.254
X-281.312 Y-22.374
X-281.185 Y-22.487
X-281.053 Y-22.593
X-280.914 Y-22.692
X-280.772 Y-22.782
X-280.623 Y-22.866
X-280.469 Y-22.941
X-280.31 Y-23.009
X-280.147 Y-23.068
X-279.982 Y-23.118
X-279.815 Y-23.159
X-279.645 Y-23.191
X-279.474 Y-23.214
X-279.3 Y-23.227
X-279.124 Y-23.231
X-278.948 Y-23.226
X-278.773 Y-23.211
X-278.599 Y-23.187
X-278.426 Y-23.153
X-278.256 Y-23.11
X-278.087 Y-23.057
X-277.921 Y-22.995
X-277.757 Y-22.924
X-277.597 Y-22.843
X-277.441 Y-22.754
X-277.29 Y-22.657
X-277.144 Y-22.551
X-277.005 Y-22.438
X-276.871 Y-22.317
X-276.744 Y-22.189
X-276.624 Y-22.053
X-276.511 Y-21.911
X-276.405 Y-21.762
X-276.307 Y-21.607
X-276.217 Y-21.447
X-276.136 Y-21.281
X-276.064 Y-21.111
X-276.001 Y-20.938
X-275.948 Y-20.761
X-275.904 Y-20.581
X-275.87 Y-20.398
X-275.846 Y-20.214
X-275.832 Y-20.028
X-275.828 Y-19.841
X-275.834 Y-19.654
X-275.851 Y-19.467
X-275.877 Y-19.28
X-275.914 Y-19.095
X-275.961 Y-18.911
X-276.018 Y-18.73
X-276.084 Y-18.552
X-276.161 Y-18.377
X-276.247 Y-18.206
X-276.342 Y-18.04
X-276.447 Y-17.879
X-276.56 Y-17.723
X-276.682 Y-17.574
X-276.812 Y-17.431
X-276.95 Y-17.295
X-277.095 Y-17.166
X-277.247 Y-17.046
X-277.406 Y-16.933
X-277.572 Y-16.829
X-277.743 Y-16.734
X-277.919 Y-16.648
X-278.1 Y-16.571
X-278.286 Y-16.505
X-278.475 Y-16.448
X-278.667 Y-16.402
X-278.863 Y-16.366
X-279.06 Y-16.34
X-279.259 Y-16.326
X-279.458 Y-16.322
X-279.659 Y-16.329
X-279.859 Y-16.346
X-280.058 Y-16.375
X-280.255 Y-16.414
X-280.451 Y-16.465
X-280.644 Y-16.526
X-280.834 Y-16.597
X-281.02 Y-16.679
X-281.202 Y-16.771
X-281.379 Y-16.873
X-281.551 Y-16.985
X-281.717 Y-17.106
X-281.807 Y-17.18
X-281.863 Y-17.227
X-281.916 Y-17.275
X-281.968 Y-17.326
X-282.095 Y-17.452
X-282.211 Y-17.568
X-282.262 Y-17.624
X-282.303 Y-17.68
X-282.654 Y-18.237
X-282.72 Y-18.349
X-282.763 Y-18.46
X-282.92 Y-18.906
X-282.996 Y-19.129
X-283.029 Y-19.352
X-283.079 Y-19.798
X-283.097 Y-20.021
X-283.074 Y-20.245
X-283.024 Y-20.69
X-283.011 Y-20.802
X-282.999 Y-20.857
X-282.983 Y-20.913
X-282.749 Y-21.582
X-282.697 Y-21.693
X-282.627 Y-21.805
X-282.347 Y-22.251
X-282.278 Y-22.356
X-282.182 Y-22.46
X-281.722 Y-22.92
X-281.67 Y-22.967
X-281.618 Y-23.005
X-281.044 Y-23.366
X-280.944 Y-23.423
X-280.845 Y-23.462
X-280.399 Y-23.618
X-280.176 Y-23.695
X-279.953 Y-23.728
X-279.507 Y-23.778
X-279.284 Y-23.797
X-279.061 Y-23.775
X-278.504 Y-23.712
X-278.393 Y-23.685
X-277.724 Y-23.451
X-277.64 Y-23.415
X-277.556 Y-23.366
X-277.055 Y-23.051
X-276.966 Y-22.993
X-276.877 Y-22.92
X-276.386 Y-22.429
X-276.311 Y-22.34
X-276.253 Y-22.251
X-275.94 Y-21.754
X-275.89 Y-21.668
X-275.851 Y-21.582
X-275.617 Y-20.913
X-275.601 Y-20.857
X-275.589 Y-20.802
X-275.576 Y-20.69
X-275.526 Y-20.244
X-275.503 Y-20.021
X-275.521 Y-19.798
X-275.571 Y-19.352
X-275.604 Y-19.129
X-275.68 Y-18.906
X-275.837 Y-18.46
X-275.878 Y-18.353
X-275.946 Y-18.237
X-276.296 Y-17.681
X-276.336 Y-17.626
X-276.389 Y-17.568
X-276.835 Y-17.122
X-276.945 Y-17.021
X-277.055 Y-16.949
X-277.612 Y-16.599
X-277.724 Y-16.549
X-278.393 Y-16.315
X-278.504 Y-16.288
X-279.061 Y-16.225
X-279.284 Y-16.202
X-279.507 Y-16.222
X-279.953 Y-16.272
X-280.176 Y-16.305
X-280.399 Y-16.382
X-280.845 Y-16.538
X-280.956 Y-16.583
X-281.068 Y-16.649
X-281.625 Y-17
X-281.681 Y-17.043
X-281.737 Y-17.094
X-281.968 Y-17.326
X-281.998 Y-17.372 Z0.006 F750
X-282.027 Y-17.416 Z0.025
X-282.052 Y-17.455 Z0.055
X-282.073 Y-17.488 Z0.094
X-282.09 Y-17.513 Z0.141
X-282.096 Y-17.53 Z0.194
X-282.099 Y-17.536 Z0.249
G0 Z17
X-247.94 Y-185
Z12.685
G1 Z12.05 F750
Z0
X-247.976 Y-185.013 F850
X-247.979 Y-185.05
X-247.949 Y-185.072
X-247.912
X-247.879 Y-185.054
X-247.859 Y-185.022
X-247.856 Y-184.984
X-247.87 Y-184.949
X-247.897 Y-184.924
X-247.933 Y-184.912
X-247.97 Y-184.916
X-248.003 Y-184.935
X-248.029 Y-184.961
X-248.047 Y-184.994
X-248.052 Y-185.031
X-248.044 Y-185.068
X-248.025 Y-185.1
X-247.998 Y-185.126
X-247.964 Y-185.142
X-247.927 Y-185.149
X-247.853 Y-185.143
X-247.791 Y-185.1
X-247.754 Y-185.035
X-247.749 Y-184.96
X-247.773 Y-184.889
X-247.823 Y-184.833
X-247.889 Y-184.799
X-247.964 Y-184.79
X-248.037 Y-184.805
X-248.102 Y-184.843
X-248.152 Y-184.899
X-248.182 Y-184.967
X-248.191 Y-185.042
X-248.178 Y-185.115
X-248.145 Y-185.183
X-248.044 Y-185.294
X-247.901 Y-185.34
X-247.753 Y-185.316
X-247.629 Y-185.231
X-247.55 Y-185.104
X-247.525 Y-184.956
X-247.556 Y-184.809
X-247.638 Y-184.683
X-247.757 Y-184.592
X-247.899 Y-184.545
X-248.049
X-248.192 Y-184.592
X-248.313 Y-184.68
X-248.403 Y-184.801
X-248.454 Y-184.942
X-248.464 Y-185.091
X-248.437 Y-185.239
X-248.371 Y-185.374
X-248.274 Y-185.488
X-248.151 Y-185.574
X-248.011 Y-185.627
X-247.862 Y-185.646
X-247.713 Y-185.628
X-247.572 Y-185.578
X-247.446 Y-185.496
X-247.34 Y-185.39
X-247.261 Y-185.263
X-247.209 Y-185.122
X-247.187 Y-184.974
X-247.197 Y-184.824
X-247.235 Y-184.679
X-247.302 Y-184.545
X-247.393 Y-184.426
X-247.505 Y-184.326
X-247.634 Y-184.249
X-247.774 Y-184.196
X-247.922 Y-184.171
X-248.072
X-248.219 Y-184.199
X-248.36 Y-184.251
X-248.489 Y-184.327
X-248.603 Y-184.425
X-248.7 Y-184.539
X-248.777 Y-184.668
X-248.832 Y-184.808
X-248.864 Y-184.954
X-248.872 Y-185.104
X-248.858 Y-185.253
X-248.82 Y-185.399
X-248.761 Y-185.536
X-248.682 Y-185.664
X-248.584 Y-185.778
X-248.471 Y-185.877
X-248.345 Y-185.958
X-248.209 Y-186.02
X-248.065 Y-186.062
X-247.916 Y-186.083
X-247.766
X-247.618 Y-186.063
X-247.473 Y-186.023
X-247.335 Y-185.963
X-247.207 Y-185.886
X-247.09 Y-185.792
X-246.986 Y-185.684
X-246.897 Y-185.563
X-246.825 Y-185.432
X-246.769 Y-185.292
X-246.732 Y-185.147
X-246.713 Y-184.998
Y-184.848
X-246.731 Y-184.699
X-246.767 Y-184.554
X-246.82 Y-184.414
X-246.89 Y-184.281
X-246.975 Y-184.157
X-247.074 Y-184.044
X-247.185 Y-183.944
X-247.307 Y-183.857
X-247.439 Y-183.785
X-247.577 Y-183.728
X-247.722 Y-183.687
X-247.87 Y-183.663
X-248.02 Y-183.655
X-248.169 Y-183.664
X-248.317 Y-183.69
X-248.461 Y-183.731
X-248.6 Y-183.788
X-248.732 Y-183.859
X-248.856 Y-183.944
X-248.97 Y-184.042
X-249.073 Y-184.151
X-249.164 Y-184.27
X-249.242 Y-184.398
X-249.307 Y-184.533
X-249.358 Y-184.674
X-249.394 Y-184.82
X-249.415 Y-184.969
X-249.421 Y-185.118
X-249.413 Y-185.268
X-249.389 Y-185.416
X-249.352 Y-185.561
X-249.3 Y-185.702
X-249.235 Y-185.837
X-249.157 Y-185.966
X-249.067 Y-186.086
X-248.966 Y-186.197
X-248.855 Y-186.298
X-248.736 Y-186.388
X-248.608 Y-186.466
X-248.473 Y-186.533
X-248.333 Y-186.587
X-248.189 Y-186.627
X-248.041 Y-186.654
X-247.892 Y-186.668
X-247.742
X-247.592 Y-186.655
X-247.445 Y-186.628
X-247.3 Y-186.588
X-247.16 Y-186.536
X-247.024 Y-186.471
X-246.895 Y-186.395
X-246.773 Y-186.308
X-246.658 Y-186.211
X-246.553 Y-186.104
X-246.457 Y-185.989
X-246.371 Y-185.866
X-246.296 Y-185.736
X-246.232 Y-185.6
X-246.18 Y-185.46
X-246.14 Y-185.315
X-246.111 Y-185.168
X-246.095 Y-185.019
X-246.092 Y-184.869
X-246.1 Y-184.719
X-246.121 Y-184.571
X-246.153 Y-184.424
X-246.198 Y-184.281
X-246.253 Y-184.142
X-246.32 Y-184.007
X-246.397 Y-183.879
X-246.484 Y-183.756
X-246.58 Y-183.641
X-246.685 Y-183.534
X-246.798 Y-183.435
X-246.918 Y-183.346
X-247.045 Y-183.266
X-247.178 Y-183.196
X-247.315 Y-183.136
X-247.457 Y-183.087
X-247.602 Y-183.049
X-247.75 Y-183.022
X-247.899 Y-183.007
X-248.049 Y-183.002
X-248.199 Y-183.009
X-248.348 Y-183.027
X-248.495 Y-183.056
X-248.64 Y-183.095
X-248.781 Y-183.145
X-248.918 Y-183.206
X-249.051 Y-183.276
X-249.178 Y-183.355
X-249.299 Y-183.444
X-249.414 Y-183.541
X-249.521 Y-183.646
X-249.62 Y-183.758
X-249.711 Y-183.877
X-249.794 Y-184.002
X-249.868 Y-184.133
X-249.932 Y-184.269
X-249.986 Y-184.408
X-250.031 Y-184.552
X-250.066 Y-184.698
X-250.09 Y-184.846
X-250.104 Y-184.995
X-250.108 Y-185.145
X-250.102 Y-185.295
X-250.086 Y-185.444
X-250.059 Y-185.591
X-250.022 Y-185.737
X-249.976 Y-185.88
X-249.921 Y-186.019
X-249.856 Y-186.154
X-249.782 Y-186.285
X-249.7 Y-186.41
X-249.61 Y-186.53
X-249.511 Y-186.643
X-249.406 Y-186.75
X-249.294 Y-186.85
X-249.176 Y-186.942
X-249.052 Y-187.026
X-248.922 Y-187.103
X-248.788 Y-187.17
X-248.65 Y-187.229
X-248.509 Y-187.279
X-248.365 Y-187.319
X-248.218 Y-187.351
X-248.069 Y-187.373
X-247.92 Y-187.385
X-247.77 Y-187.388
X-247.62 Y-187.382
X-247.471 Y-187.366
X-247.323 Y-187.341
X-247.177 Y-187.307
X-247.033 Y-187.264
X-246.893 Y-187.212
X-246.755 Y-187.152
X-246.622 Y-187.083
X-246.493 Y-187.006
X-246.37 Y-186.921
X-246.251 Y-186.829
X-246.138 Y-186.73
X-246.032 Y-186.624
X-245.932 Y-186.512
X-245.839 Y-186.395
X-245.753 Y-186.272
X-245.675 Y-186.144
X-245.605 Y-186.011
X-245.542 Y-185.875
X-245.488 Y-185.735
X-245.442 Y-185.592
X-245.404 Y-185.447
X-245.376 Y-185.3
X-245.355 Y-185.151
X-245.344 Y-185.002
X-245.341 Y-184.852
X-245.347 Y-184.702
X-245.361 Y-184.553
X-245.385 Y-184.404
X-245.416 Y-184.258
X-245.456 Y-184.113
X-245.504 Y-183.971
X-245.561 Y-183.832
X-245.625 Y-183.696
X-245.696 Y-183.565
X-245.775 Y-183.437
X-245.861 Y-183.314
X-245.954 Y-183.196
X-246.053 Y-183.084
X-246.159 Y-182.977
X-246.27 Y-182.877
X-246.387 Y-182.782
X-246.508 Y-182.695
X-246.635 Y-182.614
X-246.765 Y-182.54
X-246.9 Y-182.474
X-247.038 Y-182.415
X-247.179 Y-182.363
X-247.323 Y-182.32
X-247.469 Y-182.284
X-247.616 Y-182.256
X-247.767 Y-182.237
X-247.917 Y-182.225
X-248.067 Y-182.222
X-248.219 Y-182.227
X-248.372 Y-182.24
X-248.522 Y-182.261
X-248.67 Y-182.291
X-248.82 Y-182.329
X-248.967 Y-182.375
X-249.11 Y-182.429
X-249.25 Y-182.49
X-249.389 Y-182.56
X-249.525 Y-182.638
X-249.655 Y-182.722
X-249.78 Y-182.813
X-249.901 Y-182.911
X-250.019 Y-183.018
X-250.129 Y-183.13
X-250.232 Y-183.246
X-250.33 Y-183.37
X-250.423 Y-183.5
X-250.508 Y-183.635
X-250.585 Y-183.773
X-250.654 Y-183.915
X-250.716 Y-184.063
X-250.771 Y-184.215
X-250.817 Y-184.369
X-250.855 Y-184.525
X-250.884 Y-184.683
X-250.905 Y-184.844
X-250.917 Y-185.007
X-250.92 Y-185.17
X-250.915 Y-185.332
X-250.9 Y-185.494
X-250.877 Y-185.656
X-250.844 Y-185.819
X-250.803 Y-185.979
X-250.754 Y-186.136
X-250.696 Y-186.29
X-250.63 Y-186.441
X-250.554 Y-186.591
X-250.47 Y-186.736
X-250.379 Y-186.877
X-250.281 Y-187.011
X-250.175 Y-187.14
X-250.062 Y-187.265
X-249.941 Y-187.384
X-249.813 Y-187.497
X-249.68 Y-187.602
X-249.541 Y-187.7
X-249.398 Y-187.79
X-249.249 Y-187.872
X-249.094 Y-187.947
X-248.935 Y-188.014
X-248.772 Y-188.073
X-248.607 Y-188.122
X-248.439 Y-188.162
X-248.27 Y-188.193
X-248.098 Y-188.215
X-247.924 Y-188.227
X-247.748 Y-188.231
X-247.572 Y-188.224
X-247.397 Y-188.208
X-247.223 Y-188.183
X-247.051 Y-188.148
X-246.88 Y-188.104
X-246.712 Y-188.051
X-246.546 Y-187.988
X-246.383 Y-187.916
X-246.223 Y-187.835
X-246.067 Y-187.745
X-245.917 Y-187.647
X-245.772 Y-187.541
X-245.633 Y-187.426
X-245.5 Y-187.305
X-245.373 Y-187.176
X-245.254 Y-187.04
X-245.141 Y-186.897
X-245.036 Y-186.748
X-244.939 Y-186.592
X-244.85 Y-186.431
X-244.77 Y-186.266
X-244.699 Y-186.095
X-244.637 Y-185.921
X-244.584 Y-185.744
X-244.542 Y-185.564
X-244.509 Y-185.381
X-244.485 Y-185.197
X-244.472 Y-185.011
X-244.469 Y-184.824
X-244.476 Y-184.637
X-244.493 Y-184.45
X-244.521 Y-184.263
X-244.559 Y-184.078
X-244.606 Y-183.895
X-244.664 Y-183.714
X-244.732 Y-183.536
X-244.809 Y-183.362
X-244.896 Y-183.191
X-244.992 Y-183.026
X-245.097 Y-182.865
X-245.211 Y-182.71
X-245.334 Y-182.561
X-245.464 Y-182.419
X-245.603 Y-182.283
X-245.749 Y-182.155
X-245.902 Y-182.035
X-246.061 Y-181.924
X-246.227 Y-181.82
X-246.399 Y-181.726
X-246.576 Y-181.641
X-246.757 Y-181.565
X-246.943 Y-181.5
X-247.133 Y-181.444
X-247.325 Y-181.399
X-247.521 Y-181.364
X-247.718 Y-181.339
X-247.917 Y-181.325
X-248.117 Y-181.322
X-248.317 Y-181.33
X-248.517 Y-181.349
X-248.716 Y-181.379
X-248.913 Y-181.419
X-249.108 Y-181.471
X-249.301 Y-181.532
X-249.491 Y-181.605
X-249.677 Y-181.688
X-249.858 Y-181.781
X-250.035 Y-181.883
X-250.206 Y-181.996
X-250.371 Y-182.118
X-250.461 Y-182.193
X-250.514 Y-182.237
X-250.565 Y-182.284
X-250.615 Y-182.332
X-250.749 Y-182.466
X-250.868 Y-182.585
X-250.926 Y-182.655
X-250.972 Y-182.724
X-251.305 Y-183.254
X-251.368 Y-183.366
X-251.418 Y-183.501
X-251.566 Y-183.923
X-251.641 Y-184.148
X-251.671 Y-184.369
X-251.721 Y-184.815
X-251.736 Y-185.038
X-251.712 Y-185.261
X-251.662 Y-185.707
X-251.641 Y-185.854
X-251.617 Y-185.93
X-251.382 Y-186.599
X-251.327 Y-186.711
X-250.972 Y-187.276
X-250.896 Y-187.383
X-250.792 Y-187.491
X-250.526 Y-187.757
X-250.344 Y-187.937
X-250.303 Y-187.971
X-250.08 Y-188.117
X-249.634 Y-188.397
X-249.578 Y-188.426
X-249.523 Y-188.448
X-248.965 Y-188.644
X-248.742 Y-188.711
X-248.297 Y-188.762
X-248.074 Y-188.787
X-247.962 Y-188.797
X-247.851 Y-188.792
X-247.182 Y-188.716
X-247.07 Y-188.696
X-246.959 Y-188.659
X-246.513 Y-188.503
X-246.29 Y-188.42
X-246.224 Y-188.383
X-245.621 Y-188.004
X-245.535 Y-187.937
X-245.088 Y-187.491
X-244.952 Y-187.343
X-244.903 Y-187.268
X-244.623 Y-186.822
X-244.507 Y-186.62
X-244.498 Y-186.599
X-244.263 Y-185.93
X-244.233 Y-185.819
X-244.218 Y-185.707
X-244.168 Y-185.261
X-244.144 Y-185.038
X-244.159 Y-184.815
X-244.209 Y-184.369
X-244.24 Y-184.146
X-244.284 Y-184.011
X-244.471 Y-183.477
X-244.507 Y-183.379
X-244.575 Y-183.254
X-244.855 Y-182.808
X-244.952 Y-182.658
X-245.012 Y-182.585
X-245.458 Y-182.139
X-245.54 Y-182.06
X-245.621 Y-181.996
X-246.102 Y-181.693
X-246.29 Y-181.58
X-246.513 Y-181.497
X-246.959 Y-181.341
X-247.07 Y-181.304
X-247.182 Y-181.284
X-247.851 Y-181.208
X-247.962 Y-181.203
X-248.074 Y-181.213
X-248.519 Y-181.264
X-248.742 Y-181.289
X-248.965 Y-181.356
X-249.523 Y-181.552
X-249.578 Y-181.574
X-249.634 Y-181.603
X-250.133 Y-181.916
X-250.303 Y-182.027
X-250.422 Y-182.139
X-250.615 Y-182.332
X-250.644 Y-182.378 Z0.006 F750
X-250.673 Y-182.422 Z0.025
X-250.698 Y-182.461 Z0.055
X-250.72 Y-182.494 Z0.094
X-250.736 Y-182.519 Z0.141
X-250.743 Y-182.537 Z0.194
X-250.745 Y-182.542 Z0.249
G0 Z17
X-247.94 Y-110
Z12.685
G1 Z12.05 F750
Z0
X-247.904 Y-110.012 F850
X-247.878 Y-109.986
X-247.888 Y-109.95
X-247.917 Y-109.926
X-247.954 Y-109.92
X-247.989 Y-109.932
X-248.015 Y-109.96
X-248.027 Y-109.995
X-248.021 Y-110.033
X-248.001 Y-110.064
X-247.969 Y-110.084
X-247.932 Y-110.09
X-247.895 Y-110.087
X-247.86 Y-110.072
X-247.833 Y-110.045
X-247.816 Y-110.012
X-247.811 Y-109.975
X-247.816 Y-109.938
X-247.832 Y-109.904
X-247.856 Y-109.876
X-247.919 Y-109.834
X-247.994 Y-109.828
X-248.063 Y-109.857
X-248.114 Y-109.912
X-248.14 Y-109.982
X-248.136 Y-110.057
X-248.105 Y-110.125
X-248.053 Y-110.179
X-247.986 Y-110.213
X-247.912 Y-110.224
X-247.838 Y-110.212
X-247.771 Y-110.177
X-247.718 Y-110.124
X-247.682 Y-110.059
X-247.666 Y-109.985
X-247.676 Y-109.836
X-247.758 Y-109.71
X-247.889 Y-109.637
X-248.038 Y-109.625
X-248.18 Y-109.675
X-248.292 Y-109.775
X-248.359 Y-109.909
X-248.374 Y-110.058
X-248.338 Y-110.204
X-248.257 Y-110.33
X-248.139 Y-110.423
X-247.998 Y-110.475
X-247.849 Y-110.483
X-247.703 Y-110.445
X-247.575 Y-110.367
X-247.474 Y-110.256
X-247.403 Y-110.124
X-247.37 Y-109.978
X-247.374 Y-109.828
X-247.416 Y-109.684
X-247.492 Y-109.555
X-247.597 Y-109.447
X-247.724 Y-109.368
X-247.866 Y-109.319
X-248.015 Y-109.304
X-248.164 Y-109.321
X-248.306 Y-109.37
X-248.434 Y-109.447
X-248.544 Y-109.55
X-248.63 Y-109.673
X-248.69 Y-109.81
X-248.722 Y-109.957
X-248.726 Y-110.106
X-248.701 Y-110.254
X-248.649 Y-110.395
X-248.572 Y-110.524
X-248.473 Y-110.636
X-248.355 Y-110.729
X-248.223 Y-110.8
X-248.08 Y-110.847
X-247.932 Y-110.869
X-247.782 Y-110.864
X-247.635 Y-110.835
X-247.494 Y-110.782
X-247.364 Y-110.707
X-247.248 Y-110.613
X-247.148 Y-110.501
X-247.065 Y-110.376
X-247.004 Y-110.239
X-246.964 Y-110.094
X-246.946 Y-109.946
X-246.951 Y-109.796
X-246.977 Y-109.648
X-247.025 Y-109.506
X-247.093 Y-109.372
X-247.179 Y-109.249
X-247.281 Y-109.14
X-247.398 Y-109.046
X-247.527 Y-108.968
X-247.665 Y-108.91
X-247.81 Y-108.87
X-247.958 Y-108.85
X-248.108
X-248.257 Y-108.87
X-248.402 Y-108.908
X-248.541 Y-108.966
X-248.671 Y-109.04
X-248.791 Y-109.13
X-248.899 Y-109.234
X-248.993 Y-109.351
X-249.072 Y-109.479
X-249.135 Y-109.615
X-249.181 Y-109.758
X-249.209 Y-109.905
X-249.22 Y-110.054
X-249.214 Y-110.204
X-249.189 Y-110.352
X-249.148 Y-110.497
X-249.091 Y-110.635
X-249.018 Y-110.766
X-248.931 Y-110.888
X-248.831 Y-111
X-248.719 Y-111.1
X-248.596 Y-111.186
X-248.465 Y-111.258
X-248.326 Y-111.316
X-248.182 Y-111.359
X-248.035 Y-111.385
X-247.885 Y-111.396
X-247.735 Y-111.392
X-247.587 Y-111.371
X-247.441 Y-111.335
X-247.3 Y-111.284
X-247.165 Y-111.219
X-247.037 Y-111.14
X-246.918 Y-111.049
X-246.809 Y-110.946
X-246.71 Y-110.834
X-246.623 Y-110.711
X-246.549 Y-110.581
X-246.487 Y-110.444
X-246.439 Y-110.302
X-246.406 Y-110.156
X-246.387 Y-110.007
X-246.381 Y-109.857
X-246.391 Y-109.707
X-246.414 Y-109.559
X-246.451 Y-109.414
X-246.502 Y-109.273
X-246.566 Y-109.137
X-246.641 Y-109.007
X-246.729 Y-108.886
X-246.827 Y-108.772
X-246.935 Y-108.668
X-247.052 Y-108.574
X-247.177 Y-108.491
X-247.309 Y-108.42
X-247.447 Y-108.36
X-247.589 Y-108.313
X-247.735 Y-108.279
X-247.884 Y-108.258
X-248.033 Y-108.249
X-248.183 Y-108.253
X-248.332 Y-108.271
X-248.479 Y-108.301
X-248.623 Y-108.343
X-248.763 Y-108.398
X-248.898 Y-108.464
X-249.026 Y-108.541
X-249.148 Y-108.628
X-249.262 Y-108.726
X-249.368 Y-108.832
X-249.465 Y-108.947
X-249.552 Y-109.069
X-249.629 Y-109.198
X-249.695 Y-109.332
X-249.749 Y-109.472
X-249.793 Y-109.615
X-249.825 Y-109.762
X-249.846 Y-109.911
X-249.854 Y-110.06
X-249.851 Y-110.21
X-249.836 Y-110.36
X-249.81 Y-110.507
X-249.772 Y-110.652
X-249.723 Y-110.794
X-249.663 Y-110.932
X-249.593 Y-111.064
X-249.512 Y-111.191
X-249.423 Y-111.311
X-249.325 Y-111.425
X-249.218 Y-111.53
X-249.104 Y-111.627
X-248.983 Y-111.716
X-248.855 Y-111.795
X-248.722 Y-111.864
X-248.585 Y-111.924
X-248.443 Y-111.973
X-248.298 Y-112.012
X-248.151 Y-112.04
X-248.002 Y-112.058
X-247.852 Y-112.064
X-247.702 Y-112.06
X-247.553 Y-112.045
X-247.405 Y-112.02
X-247.259 Y-111.984
X-247.117 Y-111.938
X-246.977 Y-111.882
X-246.843 Y-111.816
X-246.713 Y-111.741
X-246.588 Y-111.657
X-246.47 Y-111.565
X-246.358 Y-111.465
X-246.254 Y-111.357
X-246.157 Y-111.242
X-246.068 Y-111.121
X-245.988 Y-110.995
X-245.916 Y-110.863
X-245.854 Y-110.727
X-245.801 Y-110.586
X-245.757 Y-110.443
X-245.723 Y-110.297
X-245.699 Y-110.149
X-245.685 Y-109.999
X-245.68 Y-109.849
X-245.686 Y-109.699
X-245.702 Y-109.55
X-245.727 Y-109.402
X-245.761 Y-109.256
X-245.806 Y-109.113
X-245.859 Y-108.973
X-245.921 Y-108.836
X-245.992 Y-108.704
X-246.072 Y-108.577
X-246.159 Y-108.455
X-246.254 Y-108.339
X-246.356 Y-108.229
X-246.465 Y-108.126
X-246.58 Y-108.029
X-246.701 Y-107.941
X-246.827 Y-107.86
X-246.958 Y-107.787
X-247.093 Y-107.722
X-247.232 Y-107.666
X-247.375 Y-107.619
X-247.52 Y-107.58
X-247.667 Y-107.551
X-247.815 Y-107.53
X-247.965 Y-107.519
X-248.115 Y-107.517
X-248.265 Y-107.524
X-248.414 Y-107.539
X-248.562 Y-107.564
X-248.708 Y-107.598
X-248.852 Y-107.641
X-248.993 Y-107.691
X-249.131 Y-107.751
X-249.265 Y-107.818
X-249.395 Y-107.893
X-249.52 Y-107.976
X-249.64 Y-108.066
X-249.754 Y-108.163
X-249.863 Y-108.266
X-249.965 Y-108.376
X-250.061 Y-108.491
X-250.15 Y-108.612
X-250.232 Y-108.737
X-250.307 Y-108.867
X-250.374 Y-109.002
X-250.433 Y-109.14
X-250.484 Y-109.281
X-250.527 Y-109.424
X-250.562 Y-109.57
X-250.589 Y-109.718
X-250.607 Y-109.867
X-250.616 Y-110.016
X-250.618 Y-110.166
X-250.61 Y-110.316
X-250.595 Y-110.465
X-250.571 Y-110.613
X-250.539 Y-110.76
X-250.499 Y-110.905
X-250.451 Y-111.047
X-250.395 Y-111.186
X-250.331 Y-111.322
X-250.26 Y-111.454
X-250.182 Y-111.583
X-250.097 Y-111.706
X-250.006 Y-111.825
X-249.908 Y-111.939
X-249.802 Y-112.049
X-249.693 Y-112.151
X-249.578 Y-112.248
X-249.455 Y-112.339
X-249.328 Y-112.424
X-249.198 Y-112.501
X-249.064 Y-112.571
X-248.923 Y-112.635
X-248.779 Y-112.691
X-248.634 Y-112.739
X-248.486 Y-112.778
X-248.334 Y-112.811
X-248.179 Y-112.835
X-248.025 Y-112.85
X-247.871 Y-112.858
X-247.715 Y-112.856
X-247.556 Y-112.846
X-247.4 Y-112.828
X-247.247 Y-112.802
X-247.094 Y-112.767
X-246.94 Y-112.723
X-246.789 Y-112.67
X-246.643 Y-112.611
X-246.5 Y-112.543
X-246.359 Y-112.467
X-246.221 Y-112.382
X-246.088 Y-112.291
X-245.962 Y-112.193
X-245.84 Y-112.088
X-245.723 Y-111.975
X-245.612 Y-111.855
X-245.508 Y-111.73
X-245.411 Y-111.6
X-245.321 Y-111.465
X-245.237 Y-111.323
X-245.161 Y-111.176
X-245.093 Y-111.026
X-245.034 Y-110.872
X-244.983 Y-110.716
X-244.94 Y-110.556
X-244.905 Y-110.392
X-244.88 Y-110.226
X-244.863 Y-110.06
X-244.856 Y-109.893
X-244.857 Y-109.727
X-244.868 Y-109.559
X-244.888 Y-109.39
X-244.917 Y-109.222
X-244.956 Y-109.057
X-245.003 Y-108.894
X-245.058 Y-108.734
X-245.123 Y-108.576
X-245.197 Y-108.421
X-245.279 Y-108.269
X-245.37 Y-108.122
X-245.468 Y-107.98
X-245.574 Y-107.844
X-245.687 Y-107.714
X-245.807 Y-107.589
X-245.935 Y-107.471
X-246.07 Y-107.359
X-246.212 Y-107.253
X-246.358 Y-107.156
X-246.51 Y-107.067
X-246.666 Y-106.987
X-246.826 Y-106.915
X-246.991 Y-106.851
X-247.16 Y-106.796
X-247.333 Y-106.75
X-247.508 Y-106.714
X-247.686 Y-106.687
X-247.865 Y-106.669
X-248.044 Y-106.662
X-248.224 Y-106.664
X-248.404 Y-106.675
X-248.583 Y-106.697
X-248.761 Y-106.728
X-248.939 Y-106.77
X-249.114 Y-106.821
X-249.287 Y-106.881
X-249.457 Y-106.951
X-249.623 Y-107.031
X-249.785 Y-107.119
X-249.942 Y-107.216
X-250.094 Y-107.322
X-250.24 Y-107.436
X-250.38 Y-107.557
X-250.513 Y-107.687
X-250.64 Y-107.824
X-250.759 Y-107.968
X-250.871 Y-108.118
X-250.974 Y-108.275
X-251.069 Y-108.438
X-251.156 Y-108.606
X-251.233 Y-108.779
X-251.301 Y-108.956
X-251.359 Y-109.137
X-251.408 Y-109.322
X-251.447 Y-109.509
X-251.475 Y-109.698
X-251.494 Y-109.89
X-251.501 Y-110.082
X-251.499 Y-110.275
X-251.486 Y-110.467
X-251.462 Y-110.66
X-251.428 Y-110.851
X-251.384 Y-111.04
X-251.329 Y-111.227
X-251.264 Y-111.411
X-251.19 Y-111.592
X-251.105 Y-111.769
X-251.01 Y-111.941
X-250.906 Y-112.109
X-250.793 Y-112.271
X-250.671 Y-112.427
X-250.541 Y-112.576
X-250.402 Y-112.719
X-250.255 Y-112.854
X-250.101 Y-112.981
X-249.94 Y-113.1
X-249.772 Y-113.21
X-249.598 Y-113.311
X-249.419 Y-113.403
X-249.234 Y-113.485
X-249.045 Y-113.558
X-248.852 Y-113.62
X-248.655 Y-113.671
X-248.455 Y-113.712
X-248.253 Y-113.742
X-248.049 Y-113.761
X-247.844 Y-113.769
X-247.727 Y-113.767
X-247.657 Y-113.765
X-247.587 Y-113.761
X-247.516 Y-113.754
X-247.405 Y-113.741
X-247.182 Y-113.716
X-247.099 Y-113.703
X-247.017 Y-113.679
X-246.38 Y-113.456
X-246.29 Y-113.42
X-246.067 Y-113.285
X-245.621 Y-113.004
X-245.566 Y-112.962
X-245.51 Y-112.913
X-245.162 Y-112.564
X-244.951 Y-112.341
X-244.809 Y-112.118
X-244.669 Y-111.895
X-244.532 Y-111.672
X-244.507 Y-111.621
X-244.445 Y-111.449
X-244.284 Y-110.989
X-244.248 Y-110.885
X-244.226 Y-110.78
X-244.151 Y-110.111
X-244.142 Y-110
X-244.151 Y-109.889
X-244.226 Y-109.22
X-244.248 Y-109.115
X-244.289 Y-108.997
X-244.445 Y-108.551
X-244.507 Y-108.379
X-244.532 Y-108.328
X-244.669 Y-108.105
X-244.809 Y-107.882
X-244.952 Y-107.657
X-245.162 Y-107.436
X-245.51 Y-107.087
X-245.566 Y-107.038
X-245.621 Y-106.996
X-246.067 Y-106.715
X-246.29 Y-106.58
X-246.38 Y-106.544
X-247.017 Y-106.321
X-247.099 Y-106.297
X-247.182 Y-106.284
X-247.851 Y-106.208
X-247.962 Y-106.203
X-248.074 Y-106.213
X-248.519 Y-106.264
X-248.742 Y-106.289
X-248.863 Y-106.321
X-249.5 Y-106.544
X-249.567 Y-106.569
X-249.634 Y-106.603
X-250.25 Y-106.99
X-250.303 Y-107.027
X-250.495 Y-107.213
X-250.749 Y-107.466
X-250.929 Y-107.659
X-250.972 Y-107.724
X-251.211 Y-108.105
X-251.348 Y-108.328
X-251.418 Y-108.501
X-251.591 Y-108.997
X-251.641 Y-109.148
X-251.654 Y-109.22
X-251.729 Y-109.889
X-251.738 Y-110
X-251.729 Y-110.111
X-251.654 Y-110.78
X-251.641 Y-110.852
X-251.591 Y-111.003
X-251.418 Y-111.499
X-251.348 Y-111.672
X-251.195 Y-111.921
X-250.972 Y-112.276
X-250.929 Y-112.341
X-250.749 Y-112.534
X-250.495 Y-112.787
X-250.303 Y-112.973
X-250.25 Y-113.01
X-249.634 Y-113.397
X-249.567 Y-113.431
X-249.5 Y-113.456
X-248.863 Y-113.679
X-248.742 Y-113.711
X-248.297 Y-113.762
X-248.074 Y-113.787
X-247.962 Y-113.797
X-247.851 Y-113.792
X-247.516 Y-113.754
X-247.464 Y-113.736 Z0.006 F750
X-247.414 Y-113.72 Z0.025
X-247.37 Y-113.705 Z0.055
X-247.333 Y-113.692 Z0.094
X-247.305 Y-113.683 Z0.141
X-247.289 Y-113.674 Z0.194
X-247.283 Y-113.671 Z0.249
G0 Z17
X-247.94 Y-35
Z12.685
G1 Z12.05 F750
Z0
X-247.904 Y-34.988 F850
X-247.9 Y-34.95
X-247.931 Y-34.928
X-247.968
X-248.001 Y-34.946
X-248.021 Y-34.978
X-248.024 Y-35.015
X-248.011 Y-35.05
X-247.983 Y-35.076
X-247.948 Y-35.088
X-247.911 Y-35.084
X-247.878 Y-35.066
X-247.851 Y-35.04
X-247.833 Y-35.007
X-247.828 Y-34.969
X-247.835 Y-34.933
X-247.854 Y-34.9
X-247.881 Y-34.874
X-247.915 Y-34.858
X-247.952 Y-34.851
X-248.027 Y-34.857
X-248.089 Y-34.899
X-248.125 Y-34.964
X-248.132 Y-35.039
X-248.108 Y-35.11
X-248.058 Y-35.167
X-247.991 Y-35.201
X-247.917 Y-35.211
X-247.844 Y-35.196
X-247.779 Y-35.158
X-247.729 Y-35.102
X-247.698 Y-35.034
X-247.689 Y-34.959
X-247.702 Y-34.886
X-247.735 Y-34.818
X-247.835 Y-34.707
X-247.978 Y-34.66
X-248.126 Y-34.684
X-248.25 Y-34.768
X-248.33 Y-34.895
X-248.355 Y-35.042
X-248.324 Y-35.189
X-248.244 Y-35.316
X-248.125 Y-35.407
X-247.983 Y-35.455
X-247.833
X-247.69 Y-35.409
X-247.568 Y-35.321
X-247.478 Y-35.201
X-247.426 Y-35.061
X-247.415 Y-34.911
X-247.442 Y-34.763
X-247.507 Y-34.628
X-247.604 Y-34.513
X-247.726 Y-34.427
X-247.866 Y-34.373
X-248.015 Y-34.354
X-248.164 Y-34.371
X-248.305 Y-34.42
X-248.431 Y-34.502
X-248.538 Y-34.607
X-248.618 Y-34.734
X-248.671 Y-34.874
X-248.693 Y-35.023
X-248.684 Y-35.172
X-248.646 Y-35.318
X-248.58 Y-35.452
X-248.489 Y-35.572
X-248.378 Y-35.673
X-248.25 Y-35.75
X-248.109 Y-35.803
X-247.962 Y-35.829
X-247.812
X-247.664 Y-35.803
X-247.523 Y-35.751
X-247.394 Y-35.675
X-247.279 Y-35.578
X-247.182 Y-35.464
X-247.105 Y-35.336
X-247.049 Y-35.196
X-247.016 Y-35.05
X-247.008 Y-34.9
X-247.021 Y-34.751
X-247.058 Y-34.605
X-247.117 Y-34.467
X-247.195 Y-34.339
X-247.292 Y-34.225
X-247.405 Y-34.126
X-247.531 Y-34.044
X-247.667 Y-33.982
X-247.811 Y-33.939
X-247.959 Y-33.917
X-248.109 Y-33.916
X-248.258 Y-33.935
X-248.402 Y-33.975
X-248.54 Y-34.034
X-248.669 Y-34.111
X-248.787 Y-34.204
X-248.891 Y-34.312
X-248.981 Y-34.432
X-249.053 Y-34.563
X-249.11 Y-34.702
X-249.147 Y-34.848
X-249.167 Y-34.996
X-249.168 Y-35.146
X-249.15 Y-35.295
X-249.115 Y-35.441
X-249.063 Y-35.582
X-248.993 Y-35.715
X-248.909 Y-35.839
X-248.811 Y-35.952
X-248.699 Y-36.053
X-248.578 Y-36.14
X-248.447 Y-36.213
X-248.308 Y-36.271
X-248.164 Y-36.312
X-248.016 Y-36.337
X-247.866 Y-36.345
X-247.716 Y-36.337
X-247.569 Y-36.312
X-247.424 Y-36.271
X-247.285 Y-36.215
X-247.153 Y-36.144
X-247.029 Y-36.06
X-246.914 Y-35.963
X-246.811 Y-35.854
X-246.719 Y-35.735
X-246.64 Y-35.608
X-246.575 Y-35.473
X-246.524 Y-35.332
X-246.487 Y-35.186
X-246.465 Y-35.038
X-246.458 Y-34.888
X-246.466 Y-34.738
X-246.489 Y-34.59
X-246.526 Y-34.445
X-246.577 Y-34.304
X-246.642 Y-34.168
X-246.719 Y-34.04
X-246.808 Y-33.919
X-246.909 Y-33.808
X-247.019 Y-33.706
X-247.138 Y-33.615
X-247.266 Y-33.536
X-247.4 Y-33.469
X-247.54 Y-33.415
X-247.684 Y-33.374
X-247.832 Y-33.346
X-247.981 Y-33.332
X-248.131 Y-33.331
X-248.28 Y-33.344
X-248.428 Y-33.37
X-248.573 Y-33.409
X-248.714 Y-33.461
X-248.85 Y-33.525
X-248.979 Y-33.6
X-249.102 Y-33.687
X-249.216 Y-33.783
X-249.322 Y-33.89
X-249.419 Y-34.005
X-249.505 Y-34.127
X-249.581 Y-34.257
X-249.645 Y-34.392
X-249.698 Y-34.533
X-249.739 Y-34.677
X-249.768 Y-34.824
X-249.785 Y-34.973
X-249.789 Y-35.123
X-249.781 Y-35.273
X-249.761 Y-35.421
X-249.729 Y-35.568
X-249.686 Y-35.712
X-249.631 Y-35.851
X-249.565 Y-35.986
X-249.488 Y-36.115
X-249.402 Y-36.237
X-249.306 Y-36.353
X-249.201 Y-36.46
X-249.089 Y-36.56
X-248.969 Y-36.65
X-248.842 Y-36.73
X-248.71 Y-36.801
X-248.573 Y-36.861
X-248.431 Y-36.911
X-248.286 Y-36.949
X-248.139 Y-36.977
X-247.99 Y-36.993
X-247.84 Y-36.998
X-247.69 Y-36.992
X-247.541 Y-36.975
X-247.393 Y-36.947
X-247.249 Y-36.908
X-247.107 Y-36.858
X-246.969 Y-36.799
X-246.837 Y-36.729
X-246.709 Y-36.65
X-246.588 Y-36.562
X-246.473 Y-36.465
X-246.365 Y-36.361
X-246.265 Y-36.249
X-246.174 Y-36.13
X-246.09 Y-36.006
X-246.016 Y-35.875
X-245.952 Y-35.74
X-245.896 Y-35.6
X-245.851 Y-35.457
X-245.816 Y-35.312
X-245.791 Y-35.164
X-245.776 Y-35.014
X-245.771 Y-34.865
X-245.777 Y-34.715
X-245.793 Y-34.565
X-245.818 Y-34.418
X-245.854 Y-34.272
X-245.9 Y-34.129
X-245.955 Y-33.99
X-246.019 Y-33.854
X-246.092 Y-33.723
X-246.174 Y-33.597
X-246.264 Y-33.477
X-246.362 Y-33.363
X-246.466 Y-33.256
X-246.578 Y-33.156
X-246.696 Y-33.063
X-246.82 Y-32.978
X-246.949 Y-32.902
X-247.082 Y-32.834
X-247.22 Y-32.774
X-247.361 Y-32.724
X-247.505 Y-32.682
X-247.652 Y-32.65
X-247.8 Y-32.628
X-247.95 Y-32.615
X-248.1 Y-32.611
X-248.25 Y-32.617
X-248.399 Y-32.632
X-248.547 Y-32.656
X-248.693 Y-32.69
X-248.837 Y-32.732
X-248.978 Y-32.783
X-249.115 Y-32.843
X-249.249 Y-32.912
X-249.378 Y-32.988
X-249.502 Y-33.072
X-249.621 Y-33.164
X-249.734 Y-33.262
X-249.841 Y-33.367
X-249.941 Y-33.479
X-250.035 Y-33.596
X-250.121 Y-33.719
X-250.2 Y-33.847
X-250.271 Y-33.979
X-250.334 Y-34.115
X-250.389 Y-34.254
X-250.436 Y-34.397
X-250.474 Y-34.542
X-250.503 Y-34.689
X-250.524 Y-34.838
X-250.536 Y-34.987
X-250.54 Y-35.137
X-250.534 Y-35.287
X-250.521 Y-35.436
X-250.498 Y-35.585
X-250.467 Y-35.731
X-250.428 Y-35.876
X-250.38 Y-36.018
X-250.324 Y-36.158
X-250.261 Y-36.294
X-250.19 Y-36.426
X-250.112 Y-36.554
X-250.026 Y-36.677
X-249.934 Y-36.795
X-249.835 Y-36.908
X-249.73 Y-37.015
X-249.619 Y-37.116
X-249.503 Y-37.211
X-249.382 Y-37.299
X-249.256 Y-37.381
X-249.125 Y-37.455
X-248.991 Y-37.522
X-248.853 Y-37.581
X-248.712 Y-37.634
X-248.569 Y-37.678
X-248.423 Y-37.714
X-248.275 Y-37.742
X-248.125 Y-37.763
X-247.975 Y-37.775
X-247.825 Y-37.779
X-247.673 Y-37.774
X-247.52 Y-37.762
X-247.37 Y-37.741
X-247.222 Y-37.712
X-247.072 Y-37.675
X-246.924 Y-37.629
X-246.781 Y-37.576
X-246.64 Y-37.516
X-246.501 Y-37.446
X-246.365 Y-37.369
X-246.235 Y-37.286
X-246.11 Y-37.195
X-245.988 Y-37.097
X-245.87 Y-36.991
X-245.759 Y-36.88
X-245.655 Y-36.763
X-245.557 Y-36.641
X-245.464 Y-36.511
X-245.378 Y-36.376
X-245.301 Y-36.238
X-245.231 Y-36.096
X-245.168 Y-35.949
X-245.112 Y-35.797
X-245.066 Y-35.643
X-245.027 Y-35.487
X-244.997 Y-35.33
X-244.976 Y-35.169
X-244.963 Y-35.006
X-244.959 Y-34.843
X-244.964 Y-34.681
X-244.978 Y-34.519
X-245 Y-34.356
X-245.032 Y-34.194
X-245.072 Y-34.033
X-245.121 Y-33.876
X-245.178 Y-33.722
X-245.244 Y-33.57
X-245.319 Y-33.421
X-245.402 Y-33.275
X-245.493 Y-33.134
X-245.591 Y-32.999
X-245.696 Y-32.869
X-245.809 Y-32.744
X-245.929 Y-32.625
X-246.056 Y-32.512
X-246.189 Y-32.406
X-246.327 Y-32.307
X-246.47 Y-32.217
X-246.619 Y-32.133
X-246.773 Y-32.058
X-246.932 Y-31.99
X-247.095 Y-31.931
X-247.26 Y-31.881
X-247.427 Y-31.84
X-247.597 Y-31.809
X-247.769 Y-31.786
X-247.942 Y-31.773
X-248.118 Y-31.769
X-248.294 Y-31.774
X-248.469 Y-31.789
X-248.643 Y-31.814
X-248.816 Y-31.848
X-248.986 Y-31.891
X-249.155 Y-31.944
X-249.321 Y-32.006
X-249.485 Y-32.077
X-249.645 Y-32.158
X-249.801 Y-32.247
X-249.952 Y-32.345
X-250.097 Y-32.45
X-250.237 Y-32.564
X-250.37 Y-32.685
X-250.497 Y-32.813
X-250.617 Y-32.948
X-250.731 Y-33.091
X-250.836 Y-33.24
X-250.934 Y-33.395
X-251.024 Y-33.555
X-251.105 Y-33.721
X-251.177 Y-33.891
X-251.239 Y-34.064
X-251.292 Y-34.241
X-251.336 Y-34.422
X-251.37 Y-34.604
X-251.394 Y-34.788
X-251.408 Y-34.974
X-251.412 Y-35.161
X-251.405 Y-35.348
X-251.389 Y-35.535
X-251.362 Y-35.722
X-251.325 Y-35.907
X-251.278 Y-36.091
X-251.221 Y-36.272
X-251.155 Y-36.45
X-251.078 Y-36.625
X-250.992 Y-36.796
X-250.896 Y-36.962
X-250.792 Y-37.123
X-250.678 Y-37.278
X-250.557 Y-37.428
X-250.427 Y-37.571
X-250.289 Y-37.707
X-250.143 Y-37.835
X-249.991 Y-37.956
X-249.832 Y-38.068
X-249.666 Y-38.172
X-249.495 Y-38.267
X-249.319 Y-38.353
X-249.138 Y-38.429
X-248.952 Y-38.496
X-248.763 Y-38.553
X-248.57 Y-38.599
X-248.375 Y-38.635
X-248.178 Y-38.66
X-247.979 Y-38.675
X-247.779 Y-38.678
X-247.579 Y-38.671
X-247.379 Y-38.653
X-247.18 Y-38.625
X-246.982 Y-38.585
X-246.787 Y-38.534
X-246.594 Y-38.473
X-246.404 Y-38.402
X-246.217 Y-38.32
X-246.036 Y-38.228
X-245.859 Y-38.126
X-245.687 Y-38.014
X-245.521 Y-37.893
X-245.431 Y-37.818
X-245.376 Y-37.772
X-245.323 Y-37.724
X-245.271 Y-37.674
X-245.175 Y-37.578
X-245.012 Y-37.415
X-244.952 Y-37.343
X-244.855 Y-37.192
X-244.575 Y-36.746
X-244.507 Y-36.622
X-244.471 Y-36.523
X-244.284 Y-35.989
X-244.24 Y-35.854
X-244.209 Y-35.631
X-244.159 Y-35.185
X-244.144 Y-34.962
X-244.168 Y-34.739
X-244.218 Y-34.293
X-244.233 Y-34.181
X-244.263 Y-34.07
X-244.498 Y-33.401
X-244.507 Y-33.38
X-244.623 Y-33.178
X-244.903 Y-32.732
X-244.952 Y-32.657
X-245.088 Y-32.509
X-245.535 Y-32.063
X-245.621 Y-31.996
X-246.224 Y-31.617
X-246.29 Y-31.58
X-246.513 Y-31.497
X-246.959 Y-31.341
X-247.07 Y-31.304
X-247.182 Y-31.284
X-247.851 Y-31.208
X-247.962 Y-31.203
X-248.074 Y-31.213
X-248.519 Y-31.264
X-248.742 Y-31.289
X-248.965 Y-31.356
X-249.523 Y-31.551
X-249.578 Y-31.574
X-249.634 Y-31.603
X-250.08 Y-31.883
X-250.303 Y-32.029
X-250.344 Y-32.063
X-250.569 Y-32.286
X-250.792 Y-32.509
X-250.896 Y-32.616
X-250.977 Y-32.732
X-251.327 Y-33.289
X-251.382 Y-33.401
X-251.617 Y-34.07
X-251.641 Y-34.147
X-251.662 Y-34.293
X-251.712 Y-34.739
X-251.736 Y-34.962
X-251.721 Y-35.185
X-251.671 Y-35.631
X-251.64 Y-35.854
X-251.566 Y-36.077
X-251.409 Y-36.523
X-251.368 Y-36.634
X-251.305 Y-36.746
X-250.972 Y-37.276
X-250.926 Y-37.345
X-250.868 Y-37.415
X-250.422 Y-37.861
X-250.303 Y-37.973
X-250.133 Y-38.084
X-249.634 Y-38.397
X-249.578 Y-38.426
X-249.523 Y-38.449
X-248.965 Y-38.644
X-248.742 Y-38.711
X-248.297 Y-38.762
X-248.074 Y-38.787
X-247.962 Y-38.797
X-247.851 Y-38.792
X-247.182 Y-38.716
X-247.07 Y-38.696
X-246.959 Y-38.659
X-246.513 Y-38.503
X-246.29 Y-38.42
X-246.102 Y-38.307
X-245.621 Y-38.004
X-245.54 Y-37.94
X-245.458 Y-37.861
X-245.271 Y-37.674
X-245.241 Y-37.627 Z0.006 F750
X-245.213 Y-37.583 Z0.025
X-245.187 Y-37.544 Z0.055
X-245.166 Y-37.511 Z0.094
X-245.15 Y-37.486 Z0.141
X-245.143 Y-37.469 Z0.194
X-245.141 Y-37.463 Z0.249
G0 Z17
X-206.58 Y-200
Z12.685
G1 Z12.05 F750
Z0
X-206.544 Y-200.012 F850
X-206.518 Y-199.985
X-206.528 Y-199.949
X-206.557 Y-199.926
X-206.595 Y-199.92
X-206.63 Y-199.933
X-206.655 Y-199.96
X-206.667 Y-199.996
X-206.661 Y-200.033
X-206.64 Y-200.064
X-206.609 Y-200.084
X-206.572 Y-200.09
X-206.534 Y-200.086
X-206.5 Y-200.071
X-206.473 Y-200.045
X-206.456 Y-200.011
X-206.451 Y-199.974
X-206.456 Y-199.937
X-206.473 Y-199.904
X-206.497 Y-199.875
X-206.56 Y-199.834
X-206.635 Y-199.829
X-206.704 Y-199.858
X-206.755 Y-199.913
X-206.78 Y-199.983
X-206.776 Y-200.058
X-206.745 Y-200.126
X-206.692 Y-200.18
X-206.625 Y-200.213
X-206.551 Y-200.224
X-206.477 Y-200.211
X-206.41 Y-200.176
X-206.357 Y-200.123
X-206.322 Y-200.057
X-206.306 Y-199.984
X-206.316 Y-199.834
X-206.4 Y-199.709
X-206.531 Y-199.636
X-206.68 Y-199.626
X-206.822 Y-199.676
X-206.933 Y-199.777
X-206.999 Y-199.912
X-207.014 Y-200.061
X-206.977 Y-200.206
X-206.895 Y-200.332
X-206.777 Y-200.424
X-206.636 Y-200.476
X-206.486 Y-200.482
X-206.341 Y-200.444
X-206.213 Y-200.365
X-206.112 Y-200.254
X-206.042 Y-200.121
X-206.01 Y-199.975
X-206.015 Y-199.825
X-206.058 Y-199.681
X-206.135 Y-199.552
X-206.24 Y-199.445
X-206.368 Y-199.367
X-206.509 Y-199.318
X-206.659 Y-199.304
X-206.808 Y-199.322
X-206.949 Y-199.372
X-207.077 Y-199.45
X-207.186 Y-199.553
X-207.271 Y-199.677
X-207.332 Y-199.814
X-207.362 Y-199.961
X-207.365 Y-200.111
X-207.34 Y-200.259
X-207.287 Y-200.399
X-207.209 Y-200.527
X-207.109 Y-200.639
X-206.991 Y-200.732
X-206.859 Y-200.802
X-206.716 Y-200.848
X-206.567 Y-200.868
X-206.417 Y-200.863
X-206.27 Y-200.833
X-206.13 Y-200.78
X-206 Y-200.704
X-205.884 Y-200.609
X-205.785 Y-200.497
X-205.703 Y-200.371
X-205.643 Y-200.234
X-205.604 Y-200.089
X-205.586 Y-199.94
X-205.592 Y-199.79
X-205.619 Y-199.643
X-205.668 Y-199.501
X-205.737 Y-199.367
X-205.823 Y-199.245
X-205.926 Y-199.136
X-206.044 Y-199.043
X-206.173 Y-198.966
X-206.311 Y-198.908
X-206.456 Y-198.87
X-206.605 Y-198.85
X-206.755 Y-198.851
X-206.903 Y-198.871
X-207.048 Y-198.911
X-207.186 Y-198.969
X-207.316 Y-199.044
X-207.436 Y-199.135
X-207.543 Y-199.24
X-207.636 Y-199.357
X-207.715 Y-199.485
X-207.777 Y-199.621
X-207.822 Y-199.764
X-207.85 Y-199.912
X-207.86 Y-200.062
X-207.853 Y-200.211
X-207.827 Y-200.359
X-207.786 Y-200.503
X-207.728 Y-200.642
X-207.654 Y-200.772
X-207.566 Y-200.894
X-207.465 Y-201.005
X-207.352 Y-201.104
X-207.23 Y-201.19
X-207.098 Y-201.261
X-206.959 Y-201.318
X-206.815 Y-201.36
X-206.667 Y-201.386
X-206.517 Y-201.396
X-206.368 Y-201.39
X-206.219 Y-201.369
X-206.074 Y-201.332
X-205.933 Y-201.28
X-205.798 Y-201.214
X-205.671 Y-201.135
X-205.552 Y-201.044
X-205.443 Y-200.94
X-205.345 Y-200.827
X-205.259 Y-200.704
X-205.185 Y-200.573
X-205.125 Y-200.436
X-205.078 Y-200.294
X-205.045 Y-200.147
X-205.027 Y-199.998
X-205.022 Y-199.848
X-205.032 Y-199.699
X-205.057 Y-199.551
X-205.095 Y-199.406
X-205.146 Y-199.265
X-205.21 Y-199.129
X-205.287 Y-199
X-205.375 Y-198.879
X-205.474 Y-198.766
X-205.582 Y-198.662
X-205.7 Y-198.569
X-205.825 Y-198.487
X-205.958 Y-198.416
X-206.096 Y-198.358
X-206.238 Y-198.311
X-206.385 Y-198.278
X-206.533 Y-198.257
X-206.683 Y-198.25
X-206.833 Y-198.255
X-206.982 Y-198.273
X-207.129 Y-198.304
X-207.272 Y-198.347
X-207.412 Y-198.402
X-207.546 Y-198.469
X-207.674 Y-198.547
X-207.796 Y-198.635
X-207.909 Y-198.733
X-208.015 Y-198.84
X-208.111 Y-198.955
X-208.197 Y-199.078
X-208.273 Y-199.207
X-208.338 Y-199.342
X-208.392 Y-199.482
X-208.435 Y-199.626
X-208.467 Y-199.772
X-208.486 Y-199.921
X-208.494 Y-200.071
X-208.49 Y-200.221
X-208.474 Y-200.37
X-208.447 Y-200.518
X-208.408 Y-200.663
X-208.358 Y-200.804
X-208.298 Y-200.941
X-208.227 Y-201.073
X-208.146 Y-201.2
X-208.056 Y-201.32
X-207.957 Y-201.432
X-207.85 Y-201.537
X-207.735 Y-201.634
X-207.613 Y-201.722
X-207.485 Y-201.8
X-207.352 Y-201.869
X-207.214 Y-201.928
X-207.072 Y-201.976
X-206.927 Y-202.014
X-206.779 Y-202.041
X-206.63 Y-202.058
X-206.48 Y-202.064
X-206.331 Y-202.059
X-206.181 Y-202.043
X-206.034 Y-202.017
X-205.888 Y-201.98
X-205.746 Y-201.933
X-205.607 Y-201.876
X-205.473 Y-201.81
X-205.343 Y-201.734
X-205.219 Y-201.65
X-205.101 Y-201.557
X-204.99 Y-201.456
X-204.886 Y-201.348
X-204.79 Y-201.232
X-204.702 Y-201.111
X-204.622 Y-200.984
X-204.552 Y-200.852
X-204.49 Y-200.715
X-204.438 Y-200.574
X-204.395 Y-200.431
X-204.362 Y-200.284
X-204.338 Y-200.136
X-204.325 Y-199.987
X-204.321 Y-199.837
X-204.328 Y-199.687
X-204.344 Y-199.538
X-204.37 Y-199.39
X-204.406 Y-199.244
X-204.451 Y-199.101
X-204.505 Y-198.961
X-204.568 Y-198.825
X-204.639 Y-198.694
X-204.719 Y-198.567
X-204.807 Y-198.445
X-204.903 Y-198.33
X-205.006 Y-198.22
X-205.115 Y-198.118
X-205.231 Y-198.022
X-205.352 Y-197.934
X-205.479 Y-197.854
X-205.61 Y-197.781
X-205.746 Y-197.718
X-205.885 Y-197.662
X-206.028 Y-197.616
X-206.173 Y-197.578
X-206.32 Y-197.549
X-206.469 Y-197.53
X-206.619 Y-197.519
X-206.769 Y-197.518
X-206.918 Y-197.525
X-207.068 Y-197.542
X-207.215 Y-197.568
X-207.361 Y-197.602
X-207.505 Y-197.646
X-207.646 Y-197.697
X-207.783 Y-197.757
X-207.917 Y-197.826
X-208.046 Y-197.901
X-208.171 Y-197.985
X-208.29 Y-198.075
X-208.404 Y-198.173
X-208.513 Y-198.277
X-208.614 Y-198.387
X-208.71 Y-198.503
X-208.798 Y-198.624
X-208.879 Y-198.75
X-208.953 Y-198.881
X-209.019 Y-199.015
X-209.078 Y-199.153
X-209.128 Y-199.295
X-209.17 Y-199.439
X-209.204 Y-199.585
X-209.23 Y-199.732
X-209.247 Y-199.881
X-209.256 Y-200.031
X-209.257 Y-200.181
X-209.249 Y-200.331
X-209.232 Y-200.48
X-209.207 Y-200.628
X-209.175 Y-200.774
X-209.134 Y-200.919
X-209.085 Y-201.06
X-209.028 Y-201.199
X-208.964 Y-201.335
X-208.892 Y-201.467
X-208.813 Y-201.595
X-208.728 Y-201.718
X-208.636 Y-201.837
X-208.537 Y-201.95
X-208.431 Y-202.059
X-208.321 Y-202.161
X-208.205 Y-202.257
X-208.082 Y-202.347
X-207.955 Y-202.432
X-207.824 Y-202.508
X-207.689 Y-202.577
X-207.549 Y-202.64
X-207.404 Y-202.696
X-207.259 Y-202.743
X-207.111 Y-202.781
X-206.958 Y-202.813
X-206.804 Y-202.836
X-206.649 Y-202.851
X-206.495 Y-202.857
X-206.339 Y-202.855
X-206.181 Y-202.844
X-206.025 Y-202.825
X-205.871 Y-202.798
X-205.718 Y-202.762
X-205.565 Y-202.717
X-205.414 Y-202.664
X-205.268 Y-202.603
X-205.126 Y-202.535
X-204.985 Y-202.458
X-204.848 Y-202.373
X-204.716 Y-202.28
X-204.59 Y-202.182
X-204.469 Y-202.076
X-204.353 Y-201.963
X-204.242 Y-201.842
X-204.138 Y-201.717
X-204.042 Y-201.586
X-203.953 Y-201.45
X-203.87 Y-201.308
X-203.795 Y-201.161
X-203.727 Y-201.01
X-203.669 Y-200.856
X-203.619 Y-200.7
X-203.577 Y-200.54
X-203.543 Y-200.376
X-203.519 Y-200.209
X-203.503 Y-200.043
X-203.496 Y-199.876
X-203.499 Y-199.71
X-203.511 Y-199.542
X-203.532 Y-199.373
X-203.562 Y-199.205
X-203.601 Y-199.04
X-203.649 Y-198.877
X-203.705 Y-198.718
X-203.771 Y-198.561
X-203.845 Y-198.406
X-203.929 Y-198.255
X-204.02 Y-198.108
X-204.119 Y-197.967
X-204.226 Y-197.831
X-204.34 Y-197.701
X-204.461 Y-197.577
X-204.589 Y-197.46
X-204.725 Y-197.348
X-204.867 Y-197.244
X-205.014 Y-197.148
X-205.166 Y-197.059
X-205.323 Y-196.98
X-205.484 Y-196.908
X-205.649 Y-196.846
X-205.818 Y-196.792
X-205.991 Y-196.747
X-206.167 Y-196.711
X-206.344 Y-196.685
X-206.523 Y-196.669
X-206.703 Y-196.662
X-206.883 Y-196.665
X-207.062 Y-196.678
X-207.241 Y-196.701
X-207.419 Y-196.733
X-207.597 Y-196.775
X-207.772 Y-196.827
X-207.944 Y-196.889
X-208.114 Y-196.96
X-208.28 Y-197.04
X-208.441 Y-197.129
X-208.598 Y-197.227
X-208.749 Y-197.334
X-208.894 Y-197.448
X-209.034 Y-197.571
X-209.166 Y-197.701
X-209.292 Y-197.839
X-209.41 Y-197.983
X-209.521 Y-198.134
X-209.624 Y-198.292
X-209.718 Y-198.455
X-209.803 Y-198.624
X-209.88 Y-198.797
X-209.947 Y-198.975
X-210.004 Y-199.156
X-210.052 Y-199.341
X-210.089 Y-199.528
X-210.117 Y-199.718
X-210.134 Y-199.909
X-210.141 Y-200.102
X-210.137 Y-200.294
X-210.123 Y-200.487
X-210.099 Y-200.679
X-210.064 Y-200.87
X-210.018 Y-201.059
X-209.963 Y-201.246
X-209.897 Y-201.43
X-209.821 Y-201.61
X-209.735 Y-201.786
X-209.639 Y-201.958
X-209.535 Y-202.125
X-209.421 Y-202.287
X-209.298 Y-202.442
X-209.166 Y-202.591
X-209.027 Y-202.732
X-208.879 Y-202.867
X-208.724 Y-202.993
X-208.563 Y-203.111
X-208.394 Y-203.22
X-208.22 Y-203.321
X-208.04 Y-203.411
X-207.855 Y-203.492
X-207.665 Y-203.564
X-207.472 Y-203.625
X-207.275 Y-203.675
X-207.075 Y-203.715
X-206.872 Y-203.744
X-206.668 Y-203.762
X-206.486 Y-203.768
X-206.38 Y-203.769
X-206.274 Y-203.765
X-206.169 Y-203.755
X-205.939 Y-203.73
X-205.716 Y-203.698
X-205.493 Y-203.622
X-205.047 Y-203.466
X-204.936 Y-203.423
X-204.824 Y-203.358
X-204.267 Y-203.008
X-204.211 Y-202.968
X-204.156 Y-202.918
X-203.669 Y-202.432
X-203.618 Y-202.376
X-203.577 Y-202.32
X-203.264 Y-201.823
X-203.226 Y-201.763
X-203.161 Y-201.651
X-203.117 Y-201.54
X-202.96 Y-201.094
X-202.884 Y-200.871
X-202.851 Y-200.648
X-202.801 Y-200.202
X-202.783 Y-199.979
X-202.806 Y-199.756
X-202.856 Y-199.31
X-202.869 Y-199.198
X-202.881 Y-199.143
X-202.897 Y-199.087
X-203.132 Y-198.418
X-203.183 Y-198.306
X-203.533 Y-197.749
X-203.606 Y-197.638
X-203.711 Y-197.526
X-204.157 Y-197.08
X-204.213 Y-197.032
X-204.268 Y-196.991
X-204.836 Y-196.634
X-204.942 Y-196.575
X-205.047 Y-196.534
X-205.493 Y-196.378
X-205.716 Y-196.302
X-205.939 Y-196.27
X-206.385 Y-196.22
X-206.608 Y-196.203
X-206.831 Y-196.226
X-207.277 Y-196.277
X-207.388 Y-196.29
X-207.5 Y-196.319
X-208.168 Y-196.554
X-208.246 Y-196.589
X-208.324 Y-196.634
X-208.837 Y-196.957
X-208.92 Y-197.011
X-209.003 Y-197.08
X-209.506 Y-197.583
X-209.574 Y-197.666
X-209.627 Y-197.749
X-209.952 Y-198.266
X-209.996 Y-198.342
X-210.029 Y-198.418
X-210.263 Y-199.087
X-210.279 Y-199.143
X-210.291 Y-199.198
X-210.304 Y-199.31
X-210.354 Y-199.756
X-210.377 Y-199.979
X-210.359 Y-200.202
X-210.309 Y-200.648
X-210.276 Y-200.871
X-210.175 Y-201.165
X-210.043 Y-201.54
X-210.006 Y-201.637
X-209.952 Y-201.734
X-209.588 Y-202.313
X-209.551 Y-202.365
X-209.506 Y-202.417
X-209.045 Y-202.878
X-208.941 Y-202.974
X-208.837 Y-203.043
X-208.279 Y-203.393
X-208.168 Y-203.446
X-207.5 Y-203.681
X-207.388 Y-203.71
X-207.277 Y-203.723
X-206.831 Y-203.774
X-206.608 Y-203.797
X-206.385 Y-203.78
X-206.169 Y-203.755
X-206.117 Y-203.738 Z0.006 F750
X-206.067 Y-203.721 Z0.025
X-206.022 Y-203.706 Z0.055
X-205.985 Y-203.694 Z0.094
X-205.957 Y-203.684 Z0.141
X-205.941 Y-203.675 Z0.194
X-205.936 Y-203.672 Z0.249
G0 Z17
X-206.579 Y-125
Z12.685
G1 Z12.05 F750
Z0
X-206.544 Y-124.987 F850
X-206.541 Y-124.95
X-206.571 Y-124.928
X-206.609
X-206.641 Y-124.947
X-206.661 Y-124.979
X-206.664 Y-125.016
X-206.65 Y-125.051
X-206.623 Y-125.076
X-206.587 Y-125.088
X-206.55 Y-125.083
X-206.517 Y-125.065
X-206.49 Y-125.039
X-206.473 Y-125.006
X-206.469 Y-124.968
X-206.476 Y-124.932
X-206.495 Y-124.899
X-206.522 Y-124.874
X-206.556 Y-124.858
X-206.593 Y-124.851
X-206.668 Y-124.858
X-206.729 Y-124.9
X-206.766 Y-124.966
X-206.771 Y-125.041
X-206.747 Y-125.112
X-206.697 Y-125.168
X-206.63 Y-125.201
X-206.555 Y-125.21
X-206.482 Y-125.195
X-206.417 Y-125.157
X-206.368 Y-125.101
X-206.338 Y-125.032
X-206.329 Y-124.957
X-206.343 Y-124.884
X-206.376 Y-124.817
X-206.477 Y-124.706
X-206.62 Y-124.66
X-206.768 Y-124.685
X-206.892 Y-124.77
X-206.971 Y-124.898
X-206.995 Y-125.046
X-206.963 Y-125.192
X-206.881 Y-125.318
X-206.762 Y-125.409
X-206.619 Y-125.455
X-206.469 Y-125.454
X-206.327 Y-125.407
X-206.206 Y-125.318
X-206.116 Y-125.198
X-206.066 Y-125.056
X-206.056 Y-124.907
X-206.084 Y-124.759
X-206.15 Y-124.625
X-206.248 Y-124.511
X-206.371 Y-124.425
X-206.511 Y-124.372
X-206.66 Y-124.354
X-206.809 Y-124.373
X-206.95 Y-124.423
X-207.076 Y-124.506
X-207.181 Y-124.612
X-207.26 Y-124.739
X-207.312 Y-124.88
X-207.333 Y-125.029
X-207.322 Y-125.179
X-207.283 Y-125.323
X-207.216 Y-125.457
X-207.125 Y-125.577
X-207.013 Y-125.676
X-206.883 Y-125.753
X-206.743 Y-125.805
X-206.595 Y-125.829
X-206.445 Y-125.828
X-206.298 Y-125.8
X-206.157 Y-125.747
X-206.028 Y-125.671
X-205.915 Y-125.573
X-205.818 Y-125.458
X-205.742 Y-125.329
X-205.688 Y-125.189
X-205.656 Y-125.042
X-205.648 Y-124.892
X-205.663 Y-124.743
X-205.701 Y-124.598
X-205.761 Y-124.461
X-205.841 Y-124.333
X-205.939 Y-124.22
X-206.052 Y-124.121
X-206.178 Y-124.041
X-206.315 Y-123.979
X-206.459 Y-123.938
X-206.608 Y-123.917
X-206.758
X-206.907 Y-123.938
X-207.051 Y-123.979
X-207.188 Y-124.039
X-207.317 Y-124.117
X-207.433 Y-124.211
X-207.537 Y-124.32
X-207.625 Y-124.441
X-207.697 Y-124.573
X-207.752 Y-124.712
X-207.789 Y-124.858
X-207.807 Y-125.006
Y-125.156
X-207.788 Y-125.305
X-207.752 Y-125.451
X-207.698 Y-125.591
X-207.627 Y-125.723
X-207.542 Y-125.847
X-207.443 Y-125.959
X-207.331 Y-126.059
X-207.208 Y-126.146
X-207.077 Y-126.217
X-206.938 Y-126.273
X-206.793 Y-126.314
X-206.645 Y-126.337
X-206.495 Y-126.345
X-206.345 Y-126.335
X-206.198 Y-126.309
X-206.054 Y-126.267
X-205.915 Y-126.21
X-205.784 Y-126.137
X-205.66 Y-126.052
X-205.547 Y-125.954
X-205.444 Y-125.845
X-205.353 Y-125.725
X-205.275 Y-125.597
X-205.211 Y-125.461
X-205.161 Y-125.32
X-205.126 Y-125.174
X-205.105 Y-125.026
X-205.099 Y-124.876
X-205.108 Y-124.726
X-205.132 Y-124.578
X-205.171 Y-124.433
X-205.223 Y-124.292
X-205.289 Y-124.158
X-205.367 Y-124.03
X-205.457 Y-123.91
X-205.558 Y-123.799
X-205.67 Y-123.698
X-205.79 Y-123.609
X-205.918 Y-123.531
X-206.053 Y-123.465
X-206.193 Y-123.412
X-206.338 Y-123.372
X-206.485 Y-123.345
X-206.635 Y-123.332
X-206.785 Y-123.333
X-206.934 Y-123.347
X-207.082 Y-123.374
X-207.226 Y-123.414
X-207.366 Y-123.467
X-207.502 Y-123.532
X-207.631 Y-123.609
X-207.752 Y-123.696
X-207.866 Y-123.794
X-207.971 Y-123.901
X-208.067 Y-124.017
X-208.152 Y-124.14
X-208.227 Y-124.27
X-208.29 Y-124.406
X-208.342 Y-124.547
X-208.382 Y-124.692
X-208.409 Y-124.839
X-208.425 Y-124.988
X-208.428 Y-125.138
X-208.419 Y-125.288
X-208.398 Y-125.436
X-208.365 Y-125.583
X-208.32 Y-125.726
X-208.264 Y-125.865
X-208.197 Y-125.999
X-208.119 Y-126.127
X-208.032 Y-126.249
X-207.935 Y-126.364
X-207.829 Y-126.471
X-207.716 Y-126.569
X-207.595 Y-126.658
X-207.468 Y-126.738
X-207.335 Y-126.807
X-207.197 Y-126.866
X-207.055 Y-126.914
X-206.91 Y-126.952
X-206.763 Y-126.978
X-206.613 Y-126.993
X-206.463 Y-126.997
X-206.313 Y-126.99
X-206.165 Y-126.972
X-206.018 Y-126.942
X-205.873 Y-126.902
X-205.732 Y-126.851
X-205.595 Y-126.791
X-205.462 Y-126.72
X-205.336 Y-126.64
X-205.215 Y-126.551
X-205.101 Y-126.453
X-204.994 Y-126.348
X-204.895 Y-126.235
X-204.804 Y-126.116
X-204.722 Y-125.99
X-204.649 Y-125.859
X-204.586 Y-125.724
X-204.532 Y-125.584
X-204.487 Y-125.44
X-204.453 Y-125.294
X-204.429 Y-125.146
X-204.416 Y-124.997
X-204.412 Y-124.847
X-204.419 Y-124.697
X-204.436 Y-124.548
X-204.463 Y-124.4
X-204.5 Y-124.255
X-204.547 Y-124.112
X-204.603 Y-123.973
X-204.669 Y-123.838
X-204.743 Y-123.708
X-204.826 Y-123.583
X-204.916 Y-123.464
X-205.015 Y-123.35
X-205.121 Y-123.244
X-205.233 Y-123.145
X-205.352 Y-123.053
X-205.476 Y-122.969
X-205.606 Y-122.894
X-205.74 Y-122.827
X-205.878 Y-122.768
X-206.02 Y-122.719
X-206.164 Y-122.679
X-206.311 Y-122.648
X-206.46 Y-122.627
X-206.609 Y-122.615
X-206.759 Y-122.612
X-206.909 Y-122.619
X-207.058 Y-122.635
X-207.206 Y-122.661
X-207.352 Y-122.696
X-207.495 Y-122.74
X-207.636 Y-122.792
X-207.773 Y-122.853
X-207.906 Y-122.923
X-208.034 Y-123
X-208.158 Y-123.085
X-208.276 Y-123.178
X-208.388 Y-123.277
X-208.494 Y-123.383
X-208.594 Y-123.495
X-208.686 Y-123.613
X-208.772 Y-123.737
X-208.849 Y-123.865
X-208.919 Y-123.998
X-208.981 Y-124.134
X-209.035 Y-124.274
X-209.081 Y-124.417
X-209.117 Y-124.563
X-209.146 Y-124.71
X-209.165 Y-124.859
X-209.176 Y-125.008
X-209.178 Y-125.158
X-209.172 Y-125.308
X-209.157 Y-125.457
X-209.133 Y-125.606
X-209.101 Y-125.752
X-209.06 Y-125.896
X-209.012 Y-126.038
X-208.955 Y-126.177
X-208.89 Y-126.313
X-208.818 Y-126.444
X-208.739 Y-126.571
X-208.652 Y-126.694
X-208.559 Y-126.811
X-208.459 Y-126.923
X-208.353 Y-127.03
X-208.242 Y-127.13
X-208.125 Y-127.224
X-208.003 Y-127.311
X-207.876 Y-127.391
X-207.745 Y-127.465
X-207.61 Y-127.53
X-207.472 Y-127.589
X-207.33 Y-127.64
X-207.187 Y-127.683
X-207.041 Y-127.718
X-206.893 Y-127.745
X-206.742 Y-127.764
X-206.592 Y-127.775
X-206.442 Y-127.778
X-206.29 Y-127.772
X-206.137 Y-127.758
X-205.987 Y-127.736
X-205.839 Y-127.706
X-205.69 Y-127.668
X-205.542 Y-127.621
X-205.4 Y-127.567
X-205.26 Y-127.505
X-205.121 Y-127.435
X-204.985 Y-127.356
X-204.856 Y-127.271
X-204.732 Y-127.18
X-204.611 Y-127.081
X-204.494 Y-126.974
X-204.384 Y-126.862
X-204.281 Y-126.745
X-204.184 Y-126.621
X-204.092 Y-126.49
X-204.007 Y-126.355
X-203.931 Y-126.216
X-203.862 Y-126.074
X-203.8 Y-125.926
X-203.746 Y-125.774
X-203.7 Y-125.619
X-203.663 Y-125.464
X-203.635 Y-125.306
X-203.615 Y-125.145
X-203.603 Y-124.981
X-203.601 Y-124.818
X-203.607 Y-124.656
X-203.622 Y-124.495
X-203.646 Y-124.332
X-203.679 Y-124.17
X-203.72 Y-124.01
X-203.771 Y-123.853
X-203.829 Y-123.7
X-203.896 Y-123.548
X-203.972 Y-123.399
X-204.057 Y-123.254
X-204.148 Y-123.114
X-204.247 Y-122.98
X-204.353 Y-122.851
X-204.467 Y-122.727
X-204.589 Y-122.608
X-204.717 Y-122.496
X-204.85 Y-122.391
X-204.989 Y-122.294
X-205.133 Y-122.205
X-205.282 Y-122.123
X-205.437 Y-122.048
X-205.597 Y-121.982
X-205.76 Y-121.924
X-205.925 Y-121.876
X-206.093 Y-121.836
X-206.263 Y-121.806
X-206.435 Y-121.785
X-206.609 Y-121.773
X-206.784 Y-121.77
X-206.96 Y-121.777
X-207.135 Y-121.794
X-207.309 Y-121.82
X-207.481 Y-121.855
X-207.652 Y-121.9
X-207.82 Y-121.954
X-207.986 Y-122.017
X-208.149 Y-122.09
X-208.308 Y-122.172
X-208.464 Y-122.262
X-208.614 Y-122.361
X-208.758 Y-122.468
X-208.897 Y-122.583
X-209.029 Y-122.705
X-209.155 Y-122.834
X-209.274 Y-122.97
X-209.386 Y-123.114
X-209.491 Y-123.264
X-209.587 Y-123.419
X-209.675 Y-123.581
X-209.755 Y-123.747
X-209.826 Y-123.917
X-209.887 Y-124.091
X-209.938 Y-124.269
X-209.981 Y-124.449
X-210.013 Y-124.632
X-210.035 Y-124.816
X-210.048 Y-125.002
X-210.05 Y-125.189
X-210.042 Y-125.376
X-210.024 Y-125.563
X-209.996 Y-125.75
X-209.958 Y-125.935
X-209.909 Y-126.118
X-209.851 Y-126.299
X-209.783 Y-126.476
X-209.705 Y-126.651
X-209.617 Y-126.821
X-209.52 Y-126.986
X-209.414 Y-127.146
X-209.3 Y-127.301
X-209.177 Y-127.449
X-209.046 Y-127.591
X-208.906 Y-127.726
X-208.76 Y-127.853
X-208.607 Y-127.972
X-208.447 Y-128.084
X-208.28 Y-128.186
X-208.108 Y-128.28
X-207.931 Y-128.364
X-207.749 Y-128.439
X-207.563 Y-128.504
X-207.374 Y-128.559
X-207.181 Y-128.604
X-206.985 Y-128.638
X-206.788 Y-128.662
X-206.589 Y-128.675
X-206.389 Y-128.677
X-206.189 Y-128.668
X-205.989 Y-128.649
X-205.79 Y-128.618
X-205.593 Y-128.577
X-205.398 Y-128.525
X-205.205 Y-128.462
X-205.016 Y-128.389
X-204.83 Y-128.306
X-204.649 Y-128.212
X-204.473 Y-128.108
X-204.302 Y-127.995
X-204.138 Y-127.873
X-204.047 Y-127.797
X-203.997 Y-127.754
X-203.948 Y-127.71
X-203.901 Y-127.664
X-203.742 Y-127.505
X-203.71 Y-127.472
X-203.619 Y-127.377
X-203.552 Y-127.282
X-203.198 Y-126.718
X-203.168 Y-126.666
X-203.144 Y-126.613
X-203.041 Y-126.324
X-202.908 Y-125.944
X-202.875 Y-125.833
X-202.859 Y-125.721
X-202.785 Y-125.052
Y-124.941
X-202.848 Y-124.383
X-202.877 Y-124.16
X-202.949 Y-123.937
X-203.106 Y-123.491
X-203.147 Y-123.38
X-203.207 Y-123.268
X-203.487 Y-122.822
X-203.639 Y-122.599
X-203.71 Y-122.528
X-204.156 Y-122.082
X-204.208 Y-122.035
X-204.26 Y-121.996
X-204.824 Y-121.642
X-204.936 Y-121.577
X-205.047 Y-121.534
X-205.493 Y-121.378
X-205.716 Y-121.302
X-205.939 Y-121.27
X-206.385 Y-121.22
X-206.608 Y-121.203
X-206.831 Y-121.226
X-207.277 Y-121.277
X-207.388 Y-121.29
X-207.5 Y-121.319
X-208.168 Y-121.554
X-208.224 Y-121.577
X-208.28 Y-121.607
X-208.837 Y-121.957
X-208.949 Y-122.033
X-209.06 Y-122.137
X-209.506 Y-122.583
X-209.521 Y-122.599
X-209.566 Y-122.655
X-209.603 Y-122.711
X-209.953 Y-123.268
X-210.013 Y-123.38
X-210.054 Y-123.491
X-210.21 Y-123.937
X-210.283 Y-124.16
X-210.312 Y-124.383
X-210.375 Y-124.941
Y-125.052
X-210.301 Y-125.721
X-210.285 Y-125.833
X-210.252 Y-125.944
X-210.096 Y-126.39
X-210.016 Y-126.613
X-209.988 Y-126.674
X-209.952 Y-126.734
X-209.608 Y-127.282
X-209.563 Y-127.349
X-209.506 Y-127.416
X-209.06 Y-127.863
X-208.969 Y-127.951
X-208.837 Y-128.043
X-208.273 Y-128.397
X-208.168 Y-128.446
X-207.5 Y-128.681
X-207.388 Y-128.71
X-207.277 Y-128.723
X-206.831 Y-128.774
X-206.608 Y-128.797
X-206.385 Y-128.78
X-205.939 Y-128.73
X-205.716 Y-128.698
X-205.488 Y-128.62
X-205.047 Y-128.466
X-204.967 Y-128.436
X-204.887 Y-128.397
X-204.379 Y-128.078
X-204.192 Y-127.951
X-204.156 Y-127.918
X-203.901 Y-127.664
X-203.871 Y-127.617 Z0.006 F750
X-203.843 Y-127.573 Z0.025
X-203.817 Y-127.534 Z0.055
X-203.796 Y-127.501 Z0.094
X-203.78 Y-127.476 Z0.141
X-203.773 Y-127.459 Z0.194
X-203.77 Y-127.453 Z0.249
G0 Z17
X-206.58 Y-95
Z12.685
G1 Z12.05 F750
Z0
X-206.567 Y-95.036 F850
X-206.53 Y-95.039
X-206.508 Y-95.009
Y-94.971
X-206.526 Y-94.939
X-206.558 Y-94.919
X-206.596 Y-94.916
X-206.631 Y-94.93
X-206.656 Y-94.957
X-206.668 Y-94.993
X-206.664 Y-95.03
X-206.645 Y-95.063
X-206.619 Y-95.09
X-206.586 Y-95.107
X-206.549 Y-95.112
X-206.512 Y-95.104
X-206.48 Y-95.085
X-206.454 Y-95.058
X-206.438 Y-95.024
X-206.431 Y-94.987
X-206.437 Y-94.912
X-206.48 Y-94.851
X-206.545 Y-94.814
X-206.62 Y-94.809
X-206.691 Y-94.833
X-206.747 Y-94.883
X-206.781 Y-94.95
X-206.79 Y-95.024
X-206.775 Y-95.098
X-206.737 Y-95.162
X-206.681 Y-95.212
X-206.612 Y-95.242
X-206.538 Y-95.251
X-206.464 Y-95.238
X-206.397 Y-95.204
X-206.286 Y-95.103
X-206.24 Y-94.96
X-206.265 Y-94.812
X-206.35 Y-94.689
X-206.477 Y-94.609
X-206.625 Y-94.585
X-206.772 Y-94.617
X-206.898 Y-94.698
X-206.989 Y-94.817
X-207.035 Y-94.96
Y-95.11
X-206.987 Y-95.252
X-206.899 Y-95.374
X-206.779 Y-95.463
X-206.637 Y-95.514
X-206.488 Y-95.524
X-206.34 Y-95.497
X-206.206 Y-95.431
X-206.091 Y-95.334
X-206.006 Y-95.21
X-205.952 Y-95.07
X-205.934 Y-94.921
X-205.952 Y-94.772
X-206.002 Y-94.631
X-206.085 Y-94.506
X-206.191 Y-94.4
X-206.318 Y-94.32
X-206.459 Y-94.269
X-206.607 Y-94.247
X-206.757 Y-94.257
X-206.902 Y-94.296
X-207.036 Y-94.363
X-207.155 Y-94.454
X-207.255 Y-94.566
X-207.332 Y-94.695
X-207.384 Y-94.835
X-207.409 Y-94.983
Y-95.133
X-207.381 Y-95.281
X-207.328 Y-95.421
X-207.252 Y-95.55
X-207.154 Y-95.664
X-207.039 Y-95.761
X-206.911 Y-95.837
X-206.771 Y-95.892
X-206.624 Y-95.924
X-206.474 Y-95.932
X-206.325 Y-95.917
X-206.18 Y-95.879
X-206.042 Y-95.82
X-205.915 Y-95.741
X-205.801 Y-95.643
X-205.702 Y-95.53
X-205.621 Y-95.404
X-205.56 Y-95.267
X-205.518 Y-95.123
X-205.497 Y-94.974
Y-94.824
X-205.517 Y-94.676
X-205.558 Y-94.531
X-205.618 Y-94.394
X-205.695 Y-94.265
X-205.789 Y-94.149
X-205.898 Y-94.045
X-206.019 Y-93.956
X-206.15 Y-93.884
X-206.29 Y-93.829
X-206.435 Y-93.792
X-206.584 Y-93.773
X-206.734
X-206.883 Y-93.791
X-207.028 Y-93.827
X-207.168 Y-93.881
X-207.301 Y-93.951
X-207.425 Y-94.036
X-207.537 Y-94.135
X-207.637 Y-94.247
X-207.724 Y-94.369
X-207.796 Y-94.501
X-207.853 Y-94.64
X-207.893 Y-94.784
X-207.917 Y-94.932
X-207.925 Y-95.082
X-207.916 Y-95.232
X-207.89 Y-95.379
X-207.848 Y-95.524
X-207.791 Y-95.662
X-207.719 Y-95.794
X-207.634 Y-95.917
X-207.536 Y-96.031
X-207.427 Y-96.134
X-207.308 Y-96.225
X-207.18 Y-96.303
X-207.044 Y-96.368
X-206.903 Y-96.418
X-206.757 Y-96.454
X-206.609 Y-96.475
X-206.459 Y-96.481
X-206.309 Y-96.472
X-206.161 Y-96.448
X-206.016 Y-96.411
X-205.875 Y-96.359
X-205.74 Y-96.293
X-205.612 Y-96.215
X-205.492 Y-96.125
X-205.381 Y-96.024
X-205.28 Y-95.913
X-205.191 Y-95.793
X-205.112 Y-95.665
X-205.046 Y-95.531
X-204.993 Y-95.39
X-204.953 Y-95.246
X-204.926 Y-95.098
X-204.912 Y-94.949
X-204.913 Y-94.799
X-204.926 Y-94.65
X-204.953 Y-94.502
X-204.993 Y-94.357
X-205.045 Y-94.217
X-205.11 Y-94.082
X-205.187 Y-93.952
X-205.274 Y-93.83
X-205.371 Y-93.716
X-205.478 Y-93.611
X-205.593 Y-93.515
X-205.717 Y-93.43
X-205.847 Y-93.355
X-205.983 Y-93.291
X-206.123 Y-93.239
X-206.268 Y-93.199
X-206.415 Y-93.171
X-206.564 Y-93.155
X-206.714 Y-93.152
X-206.864 Y-93.161
X-207.012 Y-93.181
X-207.159 Y-93.214
X-207.302 Y-93.259
X-207.441 Y-93.315
X-207.576 Y-93.381
X-207.704 Y-93.459
X-207.826 Y-93.546
X-207.941 Y-93.642
X-208.048 Y-93.747
X-208.147 Y-93.861
X-208.236 Y-93.981
X-208.316 Y-94.108
X-208.385 Y-94.241
X-208.445 Y-94.379
X-208.493 Y-94.52
X-208.531 Y-94.666
X-208.558 Y-94.813
X-208.573 Y-94.962
X-208.577 Y-95.112
X-208.571 Y-95.262
X-208.553 Y-95.411
X-208.523 Y-95.558
X-208.484 Y-95.703
X-208.433 Y-95.844
X-208.373 Y-95.981
X-208.302 Y-96.114
X-208.223 Y-96.241
X-208.134 Y-96.362
X-208.037 Y-96.476
X-207.932 Y-96.583
X-207.819 Y-96.682
X-207.7 Y-96.773
X-207.574 Y-96.856
X-207.444 Y-96.929
X-207.308 Y-96.993
X-207.168 Y-97.047
X-207.025 Y-97.092
X-206.879 Y-97.126
X-206.731 Y-97.15
X-206.581 Y-97.164
X-206.431 Y-97.168
X-206.282 Y-97.161
X-206.132 Y-97.145
X-205.985 Y-97.118
X-205.839 Y-97.081
X-205.697 Y-97.035
X-205.558 Y-96.979
X-205.423 Y-96.914
X-205.292 Y-96.84
X-205.167 Y-96.757
X-205.047 Y-96.667
X-204.934 Y-96.569
X-204.827 Y-96.463
X-204.728 Y-96.351
X-204.636 Y-96.232
X-204.552 Y-96.108
X-204.476 Y-95.979
X-204.408 Y-95.845
X-204.35 Y-95.707
X-204.3 Y-95.565
X-204.26 Y-95.421
X-204.229 Y-95.274
X-204.207 Y-95.125
X-204.195 Y-94.976
X-204.192 Y-94.826
X-204.199 Y-94.676
X-204.214 Y-94.527
X-204.24 Y-94.379
X-204.274 Y-94.233
X-204.318 Y-94.089
X-204.37 Y-93.949
X-204.431 Y-93.812
X-204.5 Y-93.679
X-204.577 Y-93.55
X-204.662 Y-93.426
X-204.754 Y-93.308
X-204.853 Y-93.195
X-204.959 Y-93.089
X-205.071 Y-92.989
X-205.189 Y-92.897
X-205.312 Y-92.811
X-205.44 Y-92.733
X-205.573 Y-92.663
X-205.709 Y-92.601
X-205.849 Y-92.547
X-205.992 Y-92.501
X-206.137 Y-92.464
X-206.285 Y-92.435
X-206.433 Y-92.415
X-206.583 Y-92.404
X-206.733 Y-92.401
X-206.883 Y-92.407
X-207.032 Y-92.422
X-207.18 Y-92.446
X-207.327 Y-92.477
X-207.471 Y-92.518
X-207.613 Y-92.566
X-207.752 Y-92.623
X-207.888 Y-92.687
X-208.019 Y-92.759
X-208.147 Y-92.838
X-208.269 Y-92.924
X-208.387 Y-93.017
X-208.499 Y-93.117
X-208.606 Y-93.222
X-208.706 Y-93.334
X-208.8 Y-93.45
X-208.888 Y-93.572
X-208.969 Y-93.699
X-209.042 Y-93.83
X-209.108 Y-93.964
X-209.167 Y-94.102
X-209.218 Y-94.244
X-209.261 Y-94.388
X-209.297 Y-94.533
X-209.324 Y-94.681
X-209.344 Y-94.832
X-209.355 Y-94.982
X-209.358 Y-95.132
X-209.353 Y-95.284
X-209.339 Y-95.437
X-209.318 Y-95.587
X-209.288 Y-95.735
X-209.25 Y-95.884
X-209.203 Y-96.032
X-209.149 Y-96.175
X-209.088 Y-96.315
X-209.018 Y-96.454
X-208.94 Y-96.589
X-208.855 Y-96.719
X-208.764 Y-96.844
X-208.665 Y-96.965
X-208.558 Y-97.082
X-208.446 Y-97.192
X-208.33 Y-97.295
X-208.206 Y-97.393
X-208.076 Y-97.485
X-207.94 Y-97.57
X-207.802 Y-97.647
X-207.66 Y-97.716
X-207.512 Y-97.778
X-207.36 Y-97.832
X-207.206 Y-97.878
X-207.05 Y-97.916
X-206.892 Y-97.944
X-206.731 Y-97.965
X-206.568 Y-97.977
X-206.405 Y-97.98
X-206.243 Y-97.974
X-206.081 Y-97.959
X-205.918 Y-97.936
X-205.756 Y-97.903
X-205.596 Y-97.862
X-205.439 Y-97.812
X-205.286 Y-97.754
X-205.134 Y-97.687
X-204.985 Y-97.611
X-204.839 Y-97.527
X-204.699 Y-97.436
X-204.565 Y-97.337
X-204.436 Y-97.231
X-204.312 Y-97.118
X-204.193 Y-96.996
X-204.08 Y-96.869
X-203.975 Y-96.735
X-203.878 Y-96.596
X-203.788 Y-96.453
X-203.705 Y-96.304
X-203.631 Y-96.149
X-203.564 Y-95.99
X-203.506 Y-95.827
X-203.457 Y-95.661
X-203.417 Y-95.494
X-203.387 Y-95.324
X-203.365 Y-95.152
X-203.353 Y-94.978
X-203.35 Y-94.803
X-203.356 Y-94.627
X-203.373 Y-94.451
X-203.398 Y-94.278
X-203.433 Y-94.105
X-203.477 Y-93.935
X-203.531 Y-93.767
X-203.594 Y-93.601
X-203.667 Y-93.437
X-203.748 Y-93.278
X-203.838 Y-93.122
X-203.937 Y-92.972
X-204.043 Y-92.827
X-204.158 Y-92.688
X-204.279 Y-92.556
X-204.408 Y-92.43
X-204.545 Y-92.31
X-204.688 Y-92.198
X-204.837 Y-92.093
X-204.993 Y-91.996
X-205.154 Y-91.908
X-205.32 Y-91.828
X-205.49 Y-91.757
X-205.664 Y-91.695
X-205.842 Y-91.643
X-206.022 Y-91.601
X-206.205 Y-91.568
X-206.389 Y-91.545
X-206.575 Y-91.532
X-206.762 Y-91.529
X-206.949 Y-91.537
X-207.136 Y-91.554
X-207.322 Y-91.582
X-207.508 Y-91.62
X-207.691 Y-91.668
X-207.872 Y-91.726
X-208.049 Y-91.794
X-208.224 Y-91.872
X-208.394 Y-91.959
X-208.56 Y-92.055
X-208.72 Y-92.161
X-208.875 Y-92.275
X-209.024 Y-92.398
X-209.166 Y-92.529
X-209.301 Y-92.668
X-209.428 Y-92.814
X-209.548 Y-92.967
X-209.66 Y-93.127
X-209.763 Y-93.293
X-209.857 Y-93.464
X-209.941 Y-93.641
X-210.017 Y-93.823
X-210.082 Y-94.009
X-210.137 Y-94.199
X-210.183 Y-94.391
X-210.217 Y-94.587
X-210.241 Y-94.784
X-210.255 Y-94.983
X-210.257 Y-95.183
X-210.249 Y-95.383
X-210.23 Y-95.583
X-210.2 Y-95.782
X-210.159 Y-95.979
X-210.107 Y-96.175
X-210.045 Y-96.367
X-209.972 Y-96.557
X-209.889 Y-96.743
X-209.796 Y-96.924
X-209.693 Y-97.1
X-209.58 Y-97.271
X-209.458 Y-97.436
X-209.382 Y-97.527
X-209.338 Y-97.578
X-209.293 Y-97.629
X-209.246 Y-97.677
X-209.076 Y-97.847
X-209.06 Y-97.863
X-208.949 Y-97.967
X-208.837 Y-98.043
X-208.28 Y-98.393
X-208.224 Y-98.423
X-208.168 Y-98.446
X-207.5 Y-98.681
X-207.388 Y-98.71
X-207.277 Y-98.723
X-206.831 Y-98.774
X-206.608 Y-98.797
X-206.385 Y-98.78
X-205.939 Y-98.73
X-205.716 Y-98.698
X-205.493 Y-98.622
X-205.047 Y-98.466
X-204.936 Y-98.423
X-204.824 Y-98.358
X-204.26 Y-98.004
X-204.208 Y-97.965
X-204.156 Y-97.918
X-203.71 Y-97.473
X-203.639 Y-97.401
X-203.487 Y-97.178
X-203.207 Y-96.732
X-203.147 Y-96.62
X-203.106 Y-96.509
X-202.95 Y-96.063
X-202.877 Y-95.84
X-202.848 Y-95.617
X-202.785 Y-95.059
Y-94.948
X-202.859 Y-94.279
X-202.875 Y-94.167
X-202.908 Y-94.056
X-203.064 Y-93.61
X-203.144 Y-93.387
X-203.168 Y-93.334
X-203.198 Y-93.282
X-203.552 Y-92.718
X-203.619 Y-92.623
X-203.71 Y-92.527
X-204.156 Y-92.082
X-204.192 Y-92.049
X-204.379 Y-91.922
X-204.887 Y-91.603
X-204.967 Y-91.563
X-205.047 Y-91.534
X-205.493 Y-91.378
X-205.716 Y-91.302
X-205.939 Y-91.27
X-206.385 Y-91.22
X-206.608 Y-91.203
X-206.831 Y-91.226
X-207.277 Y-91.277
X-207.388 Y-91.29
X-207.5 Y-91.319
X-208.168 Y-91.554
X-208.273 Y-91.603
X-208.837 Y-91.957
X-208.969 Y-92.049
X-209.06 Y-92.137
X-209.506 Y-92.584
X-209.563 Y-92.651
X-209.608 Y-92.718
X-209.952 Y-93.266
X-209.988 Y-93.326
X-210.016 Y-93.387
X-210.096 Y-93.61
X-210.252 Y-94.056
X-210.285 Y-94.167
X-210.301 Y-94.279
X-210.375 Y-94.948
Y-95.059
X-210.312 Y-95.617
X-210.283 Y-95.84
X-210.21 Y-96.063
X-210.054 Y-96.509
X-210.013 Y-96.62
X-209.952 Y-96.734
X-209.603 Y-97.289
X-209.566 Y-97.345
X-209.521 Y-97.401
X-209.506 Y-97.417
X-209.246 Y-97.677
X-209.199 Y-97.707 Z0.006 F750
