%
(1001)
(z0 botom machine -5-5)
(T1  D=6.35 CR=0 - ZMIN=0 - flat end mill)
G90 G94
G17
G21

(bore_clean_16_4mm)
M9
T1 M6
S10000 M3
G54
M9
G0 X-163.52 Y-201.02
Z27
Z17
G1 Z0 F850
G3 X-163.202 Y-200.702 J0.318
G1 Y-196.313
G3 X-163.52 Y-195.995 I-0.318
Y-206.045 J-5.025
X-158.495 Y-201.02 J5.025
X-168.545 I-5.025
X-163.52 Y-206.045 I5.025
Y-195.995 J5.025
X-164.155 Y-196.63 J-0.635 F750
G1 Y-197.265
G19 G2 Y-197.9 Z0.635 K0.635
G0 Z17
X-105.51 Y-173.01
G1 Z0 F850
G17 G3 X-105.192 Y-173.327 I0.318
G1 X-100.802
G3 X-100.485 Y-173.01 J0.318
X-110.535 I-5.025
X-100.485 I5.025
X-110.535 I-5.025
X-100.485 I5.025
X-101.12 Y-172.375 I-0.635 F750
G1 X-101.755
G18 G3 X-102.39 Z0.635 K0.635
G0 Z17
X-42.5 Y-192.5
G1 Z0 F850
G17 G3 X-42.182 Y-192.818 I0.318
G1 X-37.792
G3 X-37.475 Y-192.5 J0.318
X-47.525 I-5.025
X-37.475 I5.025
X-47.525 I-5.025
X-37.475 I5.025
X-38.11 Y-191.865 I-0.635 F750
G1 X-38.745
G18 G3 X-39.38 Z0.635 K0.635
G0 Z17
X-42.5 Y-243.01
G1 Z0 F850
G17 G3 X-42.182 Y-243.327 I0.318
G1 X-37.792
G3 X-37.475 Y-243.01 J0.318
X-47.525 I-5.025
X-37.475 I5.025
X-47.525 I-5.025
X-37.475 I5.025
X-38.11 Y-242.375 I-0.635 F750
G1 X-38.745
G18 G3 X-39.38 Z0.635 K0.635
G0 Z17
X-105.51 Y-248.01
G1 Z0 F850
G17 G3 X-105.827 Y-248.327 J-0.318
G1 Y-252.717
G3 X-105.51 Y-253.035 I0.317
Y-242.985 J5.025
Y-253.035 J-5.025
Y-242.985 J5.025
Y-253.035 J-5.025
X-104.875 Y-252.4 J0.635 F750
G1 Y-251.765
G19 G3 Y-251.13 Z0.635 K0.635
G0 Z17
X-42.5 Y-318.01
G1 Z0 F850
G17 G3 X-42.182 Y-318.328 I0.318
G1 X-37.792
G3 X-37.475 Y-318.01 J0.318
X-42.5 Y-312.985 I-5.025
Y-323.035 J-5.025
Y-312.985 J5.025
Y-323.035 J-5.025
X-37.475 Y-318.01 J5.025
X-38.11 Y-317.375 I-0.635 F750
G1 X-38.745
G18 G3 X-39.38 Z0.635 K0.635
G0 Z17
X-42.5 Y-117.5
G1 Z0 F850
G17 G3 X-42.818 Y-117.817 J-0.317
G1 Y-122.207
G3 X-42.5 Y-122.525 I0.318
Y-112.475 J5.025
Y-122.525 J-5.025
Y-112.475 J5.025
Y-122.525 J-5.025
X-41.865 Y-121.89 J0.635 F750
G1 Y-121.255
G19 G3 Y-120.62 Z0.635 K0.635
G0 Z17
X-105.51 Y-98.01
G1 Z0 F850
G17 G3 X-105.827 Y-97.692 I-0.317
G1 X-110.217
G3 X-110.535 Y-98.01 J-0.318
X-100.485 I5.025
X-110.535 I-5.025
X-100.485 I5.025
X-110.535 I-5.025
X-109.9 Y-98.645 I0.635 F750
G1 X-109.265
G18 G2 X-108.63 Z0.635 K0.635
G0 Z17
X-161.02 Y-100.51
G1 Z0 F850
G17 G3 X-160.702 Y-100.827 I0.318
G1 X-156.313
G3 X-155.995 Y-100.51 J0.317
X-166.045 I-5.025
X-155.995 I5.025
X-166.045 I-5.025
X-155.995 I5.025
X-156.63 Y-99.875 I-0.635 F750
G1 X-157.265
G18 G3 X-157.9 Z0.635 K0.635
G0 Z17
X-163.52 Y-126.02
G1 Z0 F850
G17 G3 X-163.837 Y-126.338 J-0.318
G1 Y-130.727
G3 X-163.52 Y-131.045 I0.317
Y-120.995 J5.025
Y-131.045 J-5.025
Y-120.995 J5.025
Y-131.045 J-5.025
X-162.885 Y-130.41 J0.635 F750
G1 Y-129.775
G19 G3 Y-129.14 Z0.635 K0.635
G0 Z17
X-189.03 Y-128.52
G1 Z0 F850
G17 G3 X-189.348 Y-128.837 J-0.317
G1 Y-133.227
G3 X-189.03 Y-133.545 I0.318
Y-123.495 J5.025
Y-133.545 J-5.025
Y-123.495 J5.025
Y-133.545 J-5.025
X-188.395 Y-132.91 J0.635 F750
G1 Y-132.275
G19 G3 Y-131.64 Z0.635 K0.635
G0 Z17
X-236.02 Y-100.51
G1 Z0 F850
G17 G3 X-236.337 Y-100.827 J-0.317
G1 Y-105.217
G3 X-236.02 Y-105.535 I0.317
Y-95.485 J5.025
Y-105.535 J-5.025
Y-95.485 J5.025
Y-105.535 J-5.025
X-235.385 Y-104.9 J0.635 F750
G1 Y-104.265
G19 G3 Y-103.63 Z0.635 K0.635
G0 Z17
X-264.03 Y-128.52
G1 Z0 F850
G17 G3 X-264.348 Y-128.202 I-0.318
G1 X-268.737
G3 X-269.055 Y-128.52 J-0.318
X-259.005 I5.025
X-269.055 I-5.025
X-259.005 I5.025
X-269.055 I-5.025
X-268.42 Y-129.155 I0.635 F750
G1 X-267.785
G18 G2 X-267.15 Z0.635 K0.635
G0 Z17
X-311.02 Y-100.51
G1 Z0 F850
G17 G3 X-310.703 Y-100.827 I0.317
G1 X-306.313
G3 X-305.995 Y-100.51 J0.317
X-316.045 I-5.025
X-305.995 I5.025
X-316.045 I-5.025
X-305.995 I5.025
X-306.63 Y-99.875 I-0.635 F750
G1 X-307.265
G18 G3 X-307.9 Z0.635 K0.635
G0 Z17
X-318.01 Y-42.5
G1 Z0 F850
G17 G3 X-318.328 Y-42.818 J-0.318
G1 Y-47.208
G3 X-318.01 Y-47.525 I0.318
X-312.985 Y-42.5 J5.025
X-323.035 I-5.025
X-312.985 I5.025
X-323.035 I-5.025
X-318.01 Y-47.525 I5.025
X-317.375 Y-46.89 J0.635 F750
G1 Y-46.255
G19 G3 Y-45.62 Z0.635 K0.635
G0 Z17
X-243.01 Y-42.5
G1 Z0 F850
G17 G3 X-243.327 Y-42.818 J-0.318
G1 Y-47.208
G3 X-243.01 Y-47.525 I0.318
Y-37.475 J5.025
Y-47.525 J-5.025
Y-37.475 J5.025
Y-47.525 J-5.025
X-242.375 Y-46.89 J0.635 F750
G1 Y-46.255
G19 G3 Y-45.62 Z0.635 K0.635
G0 Z17
X-192.5 Y-42.5
G1 Z0 F850
G17 G3 X-192.182 Y-42.818 I0.318
G1 X-187.792
G3 X-187.475 Y-42.5 J0.318
X-197.525 I-5.025
X-187.475 I5.025
X-197.525 I-5.025
X-187.475 I5.025
X-188.11 Y-41.865 I-0.635 F750
G1 X-188.745
G18 G3 X-189.38 Z0.635 K0.635
G0 Z17
X-117.5 Y-42.5
G1 Z0 F850
G17 G3 X-117.817 Y-42.818 J-0.318
G1 Y-47.208
G3 X-117.5 Y-47.525 I0.317
Y-37.475 J5.025
Y-47.525 J-5.025
Y-37.475 J5.025
Y-47.525 J-5.025
X-116.865 Y-46.89 J0.635 F750
G1 Y-46.255
G19 G3 Y-45.62 Z0.635 K0.635
G0 Z17
X-42.5 Y-42.5
G1 Z0 F850
G17 G3 X-42.182 Y-42.818 I0.318
G1 X-37.792
G3 X-37.475 Y-42.5 J0.318
X-47.525 I-5.025
X-37.475 I5.025
X-47.525 I-5.025
X-37.475 I5.025
X-38.11 Y-41.865 I-0.635 F750
G1 X-38.745
G18 G3 X-39.38 Z0.635 K0.635
G0 Z27
G17
M9
M30
%
