%
(1001)
(z0 botom machine -5-5)
(T1  D=6.35 CR=0 - ZMIN=0 - flat end mill)
G90 G94
G17
G21

(2D Contour1)
M9
T1 M6
S7500 M3
G54
M9
G0 X-139.545 Y-124.982
Z27
Z17
G1 Z14.5 F250
Y-210 Z11.531
G2 X-142.72 Y-213.175 Z11.357 I-3.175
G1 X-167.26 Z10.5
X-182.72 F850
G2 X-185.895 Y-210 J3.175
G1 Y-10
G2 X-182.72 Y-6.825 I3.175
G1 X-142.72
G2 X-139.545 Y-10 J-3.175
G1 Y-210
G2 X-142.72 Y-213.175 I-3.175
G1 X-167.26
X-182.72 Z9.96 F250
G2 X-185.895 Y-210 Z9.786 J3.175
G1 Y-187.493 Z9
Y-10 F850
G2 X-182.72 Y-6.825 I3.175
G1 X-142.72
G2 X-139.545 Y-10 J-3.175
G1 Y-210
G2 X-142.72 Y-213.175 I-3.175
G1 X-167.26
X-182.72
G2 X-185.895 Y-210 J3.175
G1 Y-187.493
Y-144.539 Z7.5 F250
Y-10 F850
G2 X-182.72 Y-6.825 I3.175
G1 X-142.72
G2 X-139.545 Y-10 J-3.175
G1 Y-210
G2 X-142.72 Y-213.175 I-3.175
G1 X-182.72
G2 X-185.895 Y-210 J3.175
G1 Y-144.539
Y-101.584 Z6 F250
Y-10 F850
G2 X-182.72 Y-6.825 I3.175
G1 X-142.72
G2 X-139.545 Y-10 J-3.175
G1 Y-210
G2 X-142.72 Y-213.175 I-3.175
G1 X-182.72
G2 X-185.895 Y-210 J3.175
G1 Y-144.539
Y-101.584
Y-68.175 Z4.833 F250
Z5
Y-58.63
Y-51.825 F850
Z4.5 F250
Y-10 F850
G2 X-182.72 Y-6.825 I3.175
G1 X-142.72
G2 X-139.545 Y-10 J-3.175
G1 Y-51.825
Z5
Y-68.175
Z4.5 F250
Y-151.825 F850
Z5
Y-168.175
Z4.5 F250
Y-210 F850
G2 X-142.72 Y-213.175 I-3.175
G1 X-182.72
G2 X-185.895 Y-210 J3.175
G1 Y-168.175
Z5
Y-151.825
Z4.5 F250
Y-68.175 F850
Z5
Y-58.63
Y-51.825 F250
Z4.262
Y-15.675 Z3
Y-10 F850
G2 X-182.72 Y-6.825 I3.175
G1 X-142.72
G2 X-139.545 Y-10 J-3.175
G1 Y-51.825
Z5
Y-68.175
Z3 F250
Y-151.825 F850
Z5
Y-168.175
Z3 F250
Y-210 F850
G2 X-142.72 Y-213.175 I-3.175
G1 X-182.72
G2 X-185.895 Y-210 J3.175
G1 Y-168.175
Z5
Y-151.825
Z3 F250
Y-68.175 F850
Z5
Y-51.825
Z3 F250
Y-15.675 F850
Y-10 Z2.802 F250
G2 X-182.72 Y-6.825 Z2.628 I3.175
G1 X-150.428 Z1.5
X-142.72 F850
G2 X-139.545 Y-10 J-3.175
G1 Y-51.825
Z5
Y-68.175
Z1.5 F250
Y-151.825 F850
Z5
Y-168.175
Z1.5 F250
Y-210 F850
G2 X-142.72 Y-213.175 I-3.175
G1 X-182.72
G2 X-185.895 Y-210 J3.175
G1 Y-168.175
Z5
Y-151.825
Z1.5 F250
Y-68.175 F850
Z5
Y-51.825
Z1.5 F250
Y-10 F850
G2 X-182.72 Y-6.825 I3.175
G1 X-150.428
X-142.72 Z1.231 F250
G2 X-139.545 Y-10 Z1.057 J-3.175
G1 Y-40.259 Z0
Y-51.825 F850
Z5
Y-68.175
Z0 F250
Y-151.825 F850
Z5
Y-168.175
Z0 F250
Y-210 F850
G2 X-142.72 Y-213.175 I-3.175
G1 X-182.72
G2 X-185.895 Y-210 J3.175
G1 Y-168.175
Z5
Y-151.825
Z0 F250
Y-68.175 F850
Z5
Y-51.825
Z0 F250
Y-10 F850
G2 X-182.72 Y-6.825 I3.175
G1 X-142.72
G2 X-139.545 Y-10 J-3.175
G1 Y-40.259
G0 Z17
X-73.175 Y-119.779
G1 Z14.5 F250
Y-10 Z10.666
G2 X-70.221 Y-6.833 Z10.5 I3.175
X-70 Y-6.825 I0.221 J-3.167 F850
G1 X-10
G2 X-6.825 Y-10 J-3.175
G1 Y-210
G2 X-10 Y-213.175 I-3.175
G1 X-70
G2 X-73.175 Y-210 J3.175
G1 Y-10
G2 X-70.221 Y-6.833 I3.175
X-70 Y-6.825 Z10.492 I0.221 J-3.167 F250
G1 X-27.266 Z9
X-10 F850
G2 X-6.825 Y-10 J-3.175
G1 Y-210
G2 X-10 Y-213.175 I-3.175
G1 X-70
G2 X-73.175 Y-210 J3.175
G1 Y-10
G2 X-70 Y-6.825 I3.175
G1 X-27.266
X-10 Z8.397 F250
G2 X-6.825 Y-10 Z8.223 J-3.175
G1 Y-30.701 Z7.5
Y-210 F850
G2 X-10 Y-213.175 I-3.175
G1 X-70
G2 X-73.175 Y-210 J3.175
G1 Y-10
G2 X-70 Y-6.825 I3.175
G1 X-27.266
X-10
G2 X-6.825 Y-10 J-3.175
G1 Y-30.701
Y-73.655 Z6 F250
Y-210 F850
G2 X-10 Y-213.175 I-3.175
G1 X-70
G2 X-73.175 Y-210 J3.175
G1 Y-10
G2 X-70 Y-6.825 I3.175
G1 X-10
G2 X-6.825 Y-10 J-3.175
G1 Y-73.655
Y-116.609 Z4.5 F250
Y-151.825 F850
Z5
Y-168.175
Z4.5 F250
Y-210 F850
G2 X-10 Y-213.175 I-3.175
G1 X-70
G2 X-73.175 Y-210 J3.175
G1 Y-168.175
Z5
Y-151.825
Z4.5 F250
Y-68.175 F850
Z5
Y-51.825
Z4.5 F250
Y-10 F850
G2 X-70 Y-6.825 I3.175
G1 X-10
G2 X-6.825 Y-10 J-3.175
G1 Y-51.825
Z5
Y-68.175
Z4.5 F250
Y-116.609 F850
Y-151.825 Z3.27 F250
Z5
Y-159.564
Y-168.175 F850
Z3 F250
Y-210 F850
G2 X-10 Y-213.175 I-3.175
G1 X-70
G2 X-73.175 Y-210 J3.175
G1 Y-168.175
Z5
Y-151.825
Z3 F250
Y-68.175 F850
Z5
Y-51.825
Z3 F250
Y-10 F850
G2 X-70 Y-6.825 I3.175
G1 X-10
G2 X-6.825 Y-10 J-3.175
G1 Y-51.825
Z5
Y-68.175
Z3 F250
Y-151.825 F850
Z5
Y-159.564
Y-168.175 F250
Z2.699
Y-202.518 Z1.5
Y-210 F850
G2 X-10 Y-213.175 I-3.175
G1 X-70
G2 X-73.175 Y-210 J3.175
G1 Y-168.175
Z5
Y-151.825
Z1.5 F250
Y-68.175 F850
Z5
Y-51.825
Z1.5 F250
Y-10 F850
G2 X-70 Y-6.825 I3.175
G1 X-10
G2 X-6.825 Y-10 J-3.175
G1 Y-51.825
Z5
Y-68.175
Z1.5 F250
Y-151.825 F850
Z5
Y-168.175
Z1.5 F250
Y-202.518 F850
Y-210 Z1.239 F250
G2 X-10 Y-213.175 Z1.065 I-3.175
G1 X-40.485 Z0
X-70 F850
G2 X-73.175 Y-210 J3.175
G1 Y-168.175
Z5
Y-151.825
Z0 F250
Y-68.175 F850
Z5
Y-51.825
Z0 F250
Y-10 F850
G2 X-70 Y-6.825 I3.175
G1 X-10
G2 X-6.825 Y-10 J-3.175
G1 Y-51.825
Z5
Y-68.175
Z0 F250
Y-151.825 F850
Z5
Y-168.175
Z0 F250
Y-210 F850
G2 X-10 Y-213.175 I-3.175
G1 X-40.485
G0 Z17
X-232.265 Y-100.294
G1 Z14.5 F250
Y-210 Z10.669
G2 X-235.292 Y-213.172 Z10.5 I-3.175
X-235.44 Y-213.175 I-0.148 J3.172 F850
G1 X-260.44
G2 X-263.615 Y-210 J3.175
G1 Y-10
G2 X-260.44 Y-6.825 I3.175
G1 X-235.44
G2 X-232.265 Y-10 J-3.175
G1 Y-210
G2 X-235.292 Y-213.172 I-3.175
X-235.44 Y-213.175 Z10.495 I-0.148 J3.172 F250
G1 X-260.44 Z9.622
G2 X-263.615 Y-210 Z9.448 J3.175
G1 Y-197.181 Z9
Y-10 F850
G2 X-260.44 Y-6.825 I3.175
G1 X-235.44
G2 X-232.265 Y-10 J-3.175
G1 Y-210
G2 X-235.44 Y-213.175 I-3.175
G1 X-260.44
G2 X-263.615 Y-210 J3.175
G1 Y-197.181
Y-154.227 Z7.5 F250
Y-10 F850
G2 X-260.44 Y-6.825 I3.175
G1 X-235.44
G2 X-232.265 Y-10 J-3.175
G1 Y-210
G2 X-235.44 Y-213.175 I-3.175
G1 X-260.44
G2 X-263.615 Y-210 J3.175
G1 Y-154.227
Y-111.273 Z6 F250
Y-10 F850
G2 X-260.44 Y-6.825 I3.175
G1 X-235.44
G2 X-232.265 Y-10 J-3.175
G1 Y-210
G2 X-235.44 Y-213.175 I-3.175
G1 X-260.44
G2 X-263.615 Y-210 J3.175
G1 Y-154.227
Y-111.273
Y-68.318 Z4.5 F250
Y-68.175 F850
Z5
Y-51.825
Z4.5 F250
Y-10 F850
G2 X-260.44 Y-6.825 I3.175
G1 X-235.44
G2 X-232.265 Y-10 J-3.175
G1 Y-51.825
Z5
Y-68.175
Z4.5 F250
Y-151.825 F850
Z5
Y-168.175
Z4.5 F250
Y-210 F850
G2 X-235.44 Y-213.175 I-3.175
G1 X-260.44
G2 X-263.615 Y-210 J3.175
G1 Y-168.175
Z5
Y-151.825
Z4.5 F250
Y-68.318 F850
Y-68.175 Z4.495 F250
Z5
Y-51.825
Z3.924
Y-25.364 Z3
Y-10 F850
G2 X-260.44 Y-6.825 I3.175
G1 X-235.44
G2 X-232.265 Y-10 J-3.175
G1 Y-51.825
Z5
Y-68.175
Z3 F250
Y-151.825 F850
Z5
Y-168.175
Z3 F250
Y-210 F850
G2 X-235.44 Y-213.175 I-3.175
G1 X-260.44
G2 X-263.615 Y-210 J3.175
G1 Y-168.175
Z5
Y-151.825
Z3 F250
Y-68.175 F850
Z5
Y-51.825
Z3 F250
Y-25.364 F850
Y-10 Z2.463 F250
G2 X-260.44 Y-6.825 Z2.289 I3.175
G1 X-237.837 Z1.5
X-235.44 F850
G2 X-232.265 Y-10 J-3.175
G1 Y-51.825
Z5
Y-68.175
Z1.5 F250
Y-151.825 F850
Z5
Y-168.175
Z1.5 F250
Y-210 F850
G2 X-235.44 Y-213.175 I-3.175
G1 X-260.44
G2 X-263.615 Y-210 J3.175
G1 Y-168.175
Z5
Y-151.825
Z1.5 F250
Y-68.175 F850
Z5
Y-51.825
Z1.5 F250
Y-10 F850
G2 X-260.44 Y-6.825 I3.175
G1 X-237.837
X-235.44 Z1.416 F250
G2 X-232.265 Y-10 Z1.242 J-3.175
G1 Y-45.57 Z0
Y-51.825 F850
Z5
Y-68.175
Z0 F250
Y-151.825 F850
Z5
Y-168.175
Z0 F250
Y-210 F850
G2 X-235.44 Y-213.175 I-3.175
G1 X-260.44
G2 X-263.615 Y-210 J3.175
G1 Y-168.175
Z5
Y-151.825
Z0 F250
Y-68.175 F850
Z5
Y-51.825
Z0 F250
Y-10 F850
G2 X-260.44 Y-6.825 I3.175
G1 X-235.44
G2 X-232.265 Y-10 J-3.175
G1 Y-45.57
G0 Z17
X-294.985 Y-100.302
G1 Z14.5 F250
Y-210 Z10.669
G2 X-298.02 Y-213.172 Z10.5 I-3.175
X-298.16 Y-213.175 I-0.14 J3.172 F850
G1 X-308.16
G2 X-311.335 Y-210 J3.175
G1 Y-10
G2 X-308.16 Y-6.825 I3.175
G1 X-298.16
G2 X-294.985 Y-10 J-3.175
G1 Y-210
G2 X-298.02 Y-213.172 I-3.175
X-298.16 Y-213.175 Z10.495 I-0.14 J3.172 F250
G1 X-308.16 Z10.146
G2 X-311.335 Y-210 Z9.972 J3.175
G1 Y-182.173 Z9
Y-10 F850
G2 X-308.16 Y-6.825 I3.175
G1 X-298.16
G2 X-294.985 Y-10 J-3.175
G1 Y-210
G2 X-298.16 Y-213.175 I-3.175
G1 X-308.16
G2 X-311.335 Y-210 J3.175
G1 Y-182.173
Y-139.219 Z7.5 F250
Y-10 F850
G2 X-308.16 Y-6.825 I3.175
G1 X-298.16
G2 X-294.985 Y-10 J-3.175
G1 Y-210
G2 X-298.16 Y-213.175 I-3.175
G1 X-308.16
G2 X-311.335 Y-210 J3.175
G1 Y-139.219
Y-96.265 Z6 F250
Y-10 F850
G2 X-308.16 Y-6.825 I3.175
G1 X-298.16
G2 X-294.985 Y-10 J-3.175
G1 Y-210
G2 X-298.16 Y-213.175 I-3.175
G1 X-308.16
G2 X-311.335 Y-210 J3.175
G1 Y-139.219
Y-96.265
Y-67.628 Z5 F250
Y-53.31
Y-49.325 F850
Z4.5 F250
Y-10 F850
G2 X-308.16 Y-6.825 I3.175
G1 X-298.16
G2 X-294.985 Y-10 J-3.175
G1 Y-51.825
Z5
Y-68.175
Z4.5 F250
Y-151.825 F850
Z5
Y-168.175
Z4.5 F250
Y-210 F850
G2 X-298.16 Y-213.175 I-3.175
G1 X-308.16
G2 X-311.335 Y-210 J3.175
G1 Y-170.675
Z5
Y-151.825
Z4.5 F250
Y-68.175 F850
Z5
Y-53.31
Y-49.325 F250
Z4.361
Y-10.356 Z3
Y-10 F850
G2 X-308.16 Y-6.825 I3.175
G1 X-298.16
G2 X-294.985 Y-10 J-3.175
G1 Y-51.825
Z5
Y-68.175
Z3 F250
Y-151.825 F850
Z5
Y-168.175
Z3 F250
Y-210 F850
G2 X-298.16 Y-213.175 I-3.175
G1 X-308.16
G2 X-311.335 Y-210 J3.175
G1 Y-170.675
Z5
Y-151.825
Z3 F250
Y-68.175 F850
Z5
Y-49.325
Z3 F250
Y-10.356 F850
Y-10 Z2.988 F250
G2 X-308.16 Y-6.825 Z2.813 I3.175
G1 X-298.16 Z2.464
G2 X-294.985 Y-10 Z2.29 J-3.175
G1 Y-32.624 Z1.5
Y-51.825 F850
Z5
Y-68.175
Z1.5 F250
Y-151.825 F850
Z5
Y-168.175
Z1.5 F250
Y-210 F850
G2 X-298.16 Y-213.175 I-3.175
G1 X-308.16
G2 X-311.335 Y-210 J3.175
G1 Y-170.675
Z5
Y-151.825
Z1.5 F250
Y-68.175 F850
Z5
Y-49.325
Z1.5 F250
Y-10 F850
G2 X-308.16 Y-6.825 I3.175
G1 X-298.16
G2 X-294.985 Y-10 J-3.175
G1 Y-32.624
Y-51.825 Z0.829 F250
Z5
Y-68.175
Z0.259
Y-75.578 Z0
Y-151.825 F850
Z5
Y-168.175
Z0 F250
Y-210 F850
G2 X-298.16 Y-213.175 I-3.175
G1 X-308.16
G2 X-311.335 Y-210 J3.175
G1 Y-170.675
Z5
Y-151.825
Z0 F250
Y-68.175 F850
Z5
Y-49.325
Z0 F250
Y-10 F850
G2 X-308.16 Y-6.825 I3.175
G1 X-298.16
G2 X-294.985 Y-10 J-3.175
G1 Y-51.825
Z5
Y-68.175
Z0 F250
Y-75.578 F850
G0 Z17
X-324.975 Y-108.142
G1 Z14.5 F250
G2 X-327.695 Y-105 Z14.342 I0.455 J3.142
G1 Y-10 Z11.024
G2 X-324.52 Y-6.825 Z10.85 I3.175
G1 X-314.52 Z10.501
G2 X-314.493 Z10.5 J-3.175
X-311.345 Y-10 I-0.027 J-3.175 F850
G1 Y-105
G2 X-314.52 Y-108.175 I-3.175
G1 X-324.52
G2 X-327.695 Y-105 J3.175
G1 Y-10
G2 X-324.52 Y-6.825 I3.175
G1 X-314.52
G2 X-314.493 J-3.175
X-311.345 Y-10 Z10.327 I-0.027 J-3.175 F250
G1 Y-47.994 Z9
Y-105 F850
G2 X-314.52 Y-108.175 I-3.175
G1 X-324.52
G2 X-327.695 Y-105 J3.175
G1 Y-10
G2 X-324.52 Y-6.825 I3.175
G1 X-314.52
G2 X-311.345 Y-10 J-3.175
G1 Y-47.994
Y-90.949 Z7.5 F250
Y-105 F850
G2 X-314.52 Y-108.175 I-3.175
G1 X-324.52
G2 X-327.695 Y-105 J3.175
G1 Y-10
G2 X-324.52 Y-6.825 I3.175
G1 X-314.52
G2 X-311.345 Y-10 J-3.175
G1 Y-90.949
Y-105 Z7.009 F250
G2 X-314.52 Y-108.175 Z6.835 I-3.175
G1 X-324.52 Z6.486
G2 X-327.695 Y-105 Z6.312 J3.175
G1 Y-96.072 Z6
Y-10 F850
G2 X-324.52 Y-6.825 I3.175
G1 X-314.52
G2 X-311.345 Y-10 J-3.175
G1 Y-90.949
Y-105
G2 X-314.52 Y-108.175 I-3.175
G1 X-324.52
G2 X-327.695 Y-105 J3.175
G1 Y-96.072
Y-65.675 Z4.939 F250
Z5
Y-53.117
Y-49.325 F850
Z4.5 F250
Y-10 F850
G2 X-324.52 Y-6.825 I3.175
G1 X-314.52
G2 X-311.345 Y-10 J-3.175
G1 Y-49.325
Z5
Y-68.175
Z4.5 F250
Y-105 F850
G2 X-314.52 Y-108.175 I-3.175
G1 X-324.52
G2 X-327.695 Y-105 J3.175
G1 Y-65.675
Z5
Y-53.117
Y-49.325 F250
Z4.368
Y-10.163 Z3
Y-10 F850
G2 X-324.52 Y-6.825 I3.175
G1 X-314.52
G2 X-311.345 Y-10 J-3.175
G1 Y-49.325
Z5
Y-68.175
Z3 F250
Y-105 F850
G2 X-314.52 Y-108.175 I-3.175
G1 X-324.52
G2 X-327.695 Y-105 J3.175
G1 Y-65.675
Z5
Y-49.325
Z3 F250
Y-10.163 F850
Y-10 Z2.994 F250
G2 X-324.52 Y-6.825 Z2.82 I3.175
G1 X-314.52 Z2.471
G2 X-311.345 Y-10 Z2.297 J-3.175
G1 Y-32.817 Z1.5
Y-49.325 F850
Z5
Y-68.175
Z1.5 F250
Y-105 F850
G2 X-314.52 Y-108.175 I-3.175
G1 X-324.52
G2 X-327.695 Y-105 J3.175
G1 Y-65.675
Z5
Y-49.325
Z1.5 F250
Y-10 F850
G2 X-324.52 Y-6.825 I3.175
G1 X-314.52
G2 X-311.345 Y-10 J-3.175
G1 Y-32.817
Y-49.325 Z0.924 F250
Z5
Y-68.175
Z0.265
Y-75.771 Z0
Y-105 F850
G2 X-314.52 Y-108.175 I-3.175
G1 X-324.52
G2 X-327.695 Y-105 J3.175
G1 Y-65.675
Z5
Y-49.325
Z0 F250
Y-10 F850
G2 X-324.52 Y-6.825 I3.175
G1 X-314.52
G2 X-311.345 Y-10 J-3.175
G1 Y-49.325
Z5
Y-68.175
Z0 F250
Y-75.771 F850
G0 Z17
X-324.118 Y-111.825
G1 Z14.5 F250
X-314.52 Z14.165
G2 X-311.345 Y-115 Z13.991 J-3.175
G1 Y-210 Z10.673
G2 X-314.493 Y-213.175 Z10.5 I-3.175
X-314.52 I-0.027 J3.175 F850
G1 X-324.52
G2 X-327.695 Y-210 J3.175
G1 Y-115
G2 X-324.52 Y-111.825 I3.175
G1 X-314.52
G2 X-311.345 Y-115 J-3.175
G1 Y-210
G2 X-314.493 Y-213.175 I-3.175
X-314.52 Z10.499 I-0.027 J3.175 F250
G1 X-324.52 Z10.15
G2 X-327.695 Y-210 Z9.976 J3.175
G1 Y-182.06 Z9
Y-115 F850
G2 X-324.52 Y-111.825 I3.175
G1 X-314.52
G2 X-311.345 Y-115 J-3.175
G1 Y-210
G2 X-314.52 Y-213.175 I-3.175
G1 X-324.52
G2 X-327.695 Y-210 J3.175
G1 Y-182.06
Y-139.106 Z7.5 F250
Y-115 F850
G2 X-324.52 Y-111.825 I3.175
G1 X-314.52
G2 X-311.345 Y-115 J-3.175
G1 Y-210
G2 X-314.52 Y-213.175 I-3.175
G1 X-324.52
G2 X-327.695 Y-210 J3.175
G1 Y-139.106
Y-115 Z6.658 F250
G2 X-324.52 Y-111.825 Z6.484 I3.175
G1 X-314.52 Z6.135
G2 X-311.543 Y-113.898 Z6 J-3.175
X-311.345 Y-115 I-2.977 J-1.102 F850
G1 Y-210
G2 X-314.52 Y-213.175 I-3.175
G1 X-324.52
G2 X-327.695 Y-210 J3.175
G1 Y-139.106
Y-115
G2 X-324.52 Y-111.825 I3.175
G1 X-314.52
G2 X-311.543 Y-113.898 J-3.175
X-311.345 Y-115 Z5.961 I-2.977 J-1.102 F250
G1 Y-151.825 Z4.675
Z5
Y-156.829
Y-170.675 F850
Z4.5 F250
Y-210 F850
G2 X-314.52 Y-213.175 I-3.175
G1 X-324.52
G2 X-327.695 Y-210 J3.175
G1 Y-170.675
Z5
Y-154.325
Z4.5 F250
Y-115 F850
G2 X-324.52 Y-111.825 I3.175
G1 X-314.52
G2 X-311.345 Y-115 J-3.175
G1 Y-151.825
Z5
Y-156.829
Y-170.675 F250
Z4.016
Y-199.783 Z3
Y-210 F850
G2 X-314.52 Y-213.175 I-3.175
G1 X-324.52
G2 X-327.695 Y-210 J3.175
G1 Y-170.675
Z5
Y-154.325
Z3 F250
Y-115 F850
G2 X-324.52 Y-111.825 I3.175
G1 X-314.52
G2 X-311.345 Y-115 J-3.175
G1 Y-151.825
Z5
Y-170.675
Z3 F250
Y-199.783 F850
Y-210 Z2.643 F250
G2 X-314.52 Y-213.175 Z2.469 I-3.175
G1 X-324.52 Z2.12
G2 X-327.695 Y-210 Z1.946 J3.175
G1 Y-197.237 Z1.5
Y-170.675 F850
Z5
Y-154.325
Z1.5 F250
Y-115 F850
G2 X-324.52 Y-111.825 I3.175
G1 X-314.52
G2 X-311.345 Y-115 J-3.175
G1 Y-151.825
Z5
Y-170.675
Z1.5 F250
Y-210 F850
G2 X-314.52 Y-213.175 I-3.175
G1 X-324.52
G2 X-327.695 Y-210 J3.175
G1 Y-197.237
Y-170.675 Z0.572 F250
Z5
Y-154.325
Z0.001
Y-154.283 Z0
Y-115 F850
G2 X-324.52 Y-111.825 I3.175
G1 X-314.52
G2 X-311.345 Y-115 J-3.175
G1 Y-151.825
Z5
Y-170.675
Z0 F250
Y-210 F850
G2 X-314.52 Y-213.175 I-3.175
G1 X-324.52
G2 X-327.695 Y-210 J3.175
G1 Y-170.675
Z5
Y-154.325
Z0 F250
Y-154.283 F850
G0 Z27
M9
M30
%
