%
(1001)
(z0 botom machine -5-5)
(T1  D=3 CR=0 - ZMIN=5 - flat end mill)
G90 G94
G17
G21

(2D Contour5)
M9
T1 M6
S10000 M3
G54
M9
G0 X-298.095 Y-152.475
Z27
Z17
G1 Z14.5 F283.3
X-313.71 Y-136.861 Z10.606
G2 X-313.735 Y-136.835 Z10.6 I1.061 J1.061
X-313.71 Y-134.739 I1.086 J1.035 F850
G1 X-306.639 Y-127.668
G2 X-304.517 I1.061 J-1.061
G1 X-163.095 Y-269.089
G2 Y-271.211 I-1.061 J-1.061
G1 X-170.166 Y-278.283
G2 X-172.288 I-1.061 J1.061
G1 X-313.71 Y-136.861
G2 X-313.735 Y-136.835 I1.061 J1.061
G0 Z17
X-315.231 Y-114.51
G1 Z14.5 F283.3
X-336.02 Z10.834
G2 X-337.182 Y-113.959 Z10.6 J1.5
X-337.52 Y-113.01 I1.162 J0.949 F850
G1 Y-73.01
G2 X-336.02 Y-71.51 I1.5
G1 X-136.02
G2 X-134.52 Y-73.01 J-1.5
G1 Y-113.01
G2 X-136.02 Y-114.51 I-1.5
G1 X-336.02
G2 X-337.182 Y-113.959 J1.5
G0 Z17
X-408.42 Y-39.445
G1 Z14.5 F283.3
X-423.537 Y-24.328 Z10.73
G2 X-423.912 Y-23.7 Z10.6 I1.061 J1.061
X-423.537 Y-22.207 I1.436 J0.432 F850
G1 X-416.466 Y-15.136
G2 X-414.344 I1.061 J-1.061
G1 X-347.168 Y-82.311
G2 Y-84.432 I-1.061 J-1.061
G1 X-354.24 Y-91.503
G2 X-356.362 I-1.061 J1.061
G1 X-423.537 Y-24.328
G2 X-423.912 Y-23.7 I1.061 J1.061
G0 Z17
X-398.242 Y-12.839
G1 Z14.5 F283.3
X-405.144 Y-5.936 Z12.779
G3 X-407.266 Z12.363 I-1.061 J-1.061
G1 X-414.337 Y-13.007 Z10.6
X-407.266 Y-5.936 F850
G2 X-405.144 I1.061 J-1.061
G1 X-337.969 Y-73.112
G2 Y-75.233 I-1.061 J-1.061
G1 X-345.04 Y-82.304
X-337.969 Y-75.233 Z10.483 F283.3
G3 Y-73.112 Z10.455 I-1.061 J1.061
G1 X-405.144 Y-5.936 Z9.345
G3 X-407.266 Z9.317 I-1.061 J-1.061
G1 X-414.337 Y-13.007 Z9.2
X-407.266 Y-5.936 F850
G2 X-405.144 I1.061 J-1.061
G1 X-337.969 Y-73.112
G2 Y-75.233 I-1.061 J-1.061
G1 X-345.04 Y-82.304
G0 Z17
X-408.42 Y-39.445
G1 Z13.1 F283.3
X-423.537 Y-24.328 Z9.33
G2 X-423.912 Y-23.7 Z9.2 I1.061 J1.061
X-423.537 Y-22.207 I1.436 J0.432 F850
G1 X-416.466 Y-15.136
G2 X-414.344 I1.061 J-1.061
G1 X-347.168 Y-82.311
G2 Y-84.432 I-1.061 J-1.061
G1 X-354.24 Y-91.503
G2 X-356.362 I-1.061 J1.061
G1 X-423.537 Y-24.328
G2 X-423.912 Y-23.7 I1.061 J1.061
X-423.537 Y-22.207 Z9.112 I1.436 J0.432 F283.3
G1 X-416.466 Y-15.136 Z8.565
G2 X-414.344 Z8.436 I1.061 J-1.061
G1 X-406.123 Y-23.357 Z7.8
X-347.168 Y-82.311 F850
G2 Y-84.432 I-1.061 J-1.061
G1 X-354.24 Y-91.503
G2 X-356.362 I-1.061 J1.061
G1 X-423.537 Y-24.328
G2 Y-22.207 I1.061 J1.061
G1 X-416.466 Y-15.136
G2 X-414.344 I1.061 J-1.061
G1 X-406.123 Y-23.357
G0 Z17
X-329.51 Y-47.882
G1 Z14.5 F283.3
Y-70 Z10.6
Y-10 F850
G2 X-328.01 Y-8.5 I1.5
G1 X-233.01
G0 Z17
X-231.5 Y-47.882
G1 Z14.5 F283.3
Y-70 Z10.6
Y-10 F850
G2 X-230 Y-8.5 I1.5
G1 X-10
G2 X-8.5 Y-10 J-1.5
G1 Y-230
G0 Z17
X-29.762 Y-231.51
G1 Z14.5 F283.3
X-10 Z11.015
G2 X-8.5 Y-233.01 Z10.6 J-1.5
G1 Y-328.01 F850
G2 X-10 Y-329.51 I-1.5
G1 X-70
G2 X-71.5 Y-328.01 J1.5
G1 Y-233.01
G2 X-70 Y-231.51 I1.5
G1 X-10
G2 X-8.5 Y-233.01 J-1.5
G1 Y-270.276 Z9.2 F283.3
Y-328.01 F850
G2 X-10 Y-329.51 I-1.5
G1 X-70
G2 X-71.5 Y-328.01 J1.5
G1 Y-233.01
G2 X-70 Y-231.51 I1.5
G1 X-10
G2 X-8.5 Y-233.01 J-1.5
G1 Y-270.276
G0 Z17
X-134.51 Y-92.843
G1 Z14.5 F283.3
Y-73.01 Z11.003
G2 X-133.082 Y-71.512 Z10.6 I1.5
X-133.01 Y-71.51 I0.072 J-1.498 F850
G1 X-73.01
G2 X-71.51 Y-73.01 J-1.5
G1 Y-273.01
G2 X-73.01 Y-274.51 I-1.5
G1 X-133.01
G2 X-134.51 Y-273.01 J1.5
G1 Y-73.01
G2 X-133.082 Y-71.512 I1.5
G0 Z17
X-65.634 Y-62.707
G1 Z14.5 F283.3
G2 X-70 Y-78.5 Z10.6 I-4.366 J-7.293
G3 Y-61.5 J8.5 F850
X-78.5 Y-70 J-8.5
G2 X-61.5 Z9.667 I8.5 F283.3
X-70 Y-78.5 Z9.2 I-8.5
G3 Y-61.5 J8.5 F850
X-78.5 Y-70 J-8.5
G0 Z17
X-201.148 Y-157.52
G1 Z14.5 F283.3
X-179.03 Z10.6
X-274.03 F850
G2 X-275.53 Y-156.02 J1.5
G1 Y-116.02
G0 Z17
X-231.5 Y-47.882
G1 Z13.1 F283.3
Y-70 Z9.2
Y-10 F850
G2 X-230 Y-8.5 I1.5
G1 X-10
G2 X-8.5 Y-10 J-1.5
G1 Y-230
G0 Z17
X-29.762 Y-231.51
G1 Z11.7 F283.3
X-10 Z8.215
G2 X-8.5 Y-233.01 Z7.8 J-1.5
G1 Y-328.01 F850
G2 X-10 Y-329.51 I-1.5
G1 X-70
G2 X-71.5 Y-328.01 J1.5
G1 Y-233.01
G2 X-70 Y-231.51 I1.5
G1 X-10
G2 X-8.5 Y-233.01 J-1.5
G0 Z17
X-12.118 Y-407.333
G1 Z14.5 F283.3
X-26.617 Y-421.832 Z10.885
G2 X-28.107 Y-422.208 Z10.6 I-1.061 J1.061
X-28.738 Y-421.832 I0.43 J1.437 F850
G1 X-170.16 Y-280.411
G2 Y-278.289 I1.061 J1.061
G1 X-152.482 Y-260.611
G2 X-150.36 I1.061 J-1.061
G1 X-8.939 Y-402.033
G2 Y-404.155 I-1.061 J-1.061
G1 X-26.617 Y-421.832
G2 X-28.107 Y-422.208 I-1.061 J1.061
G0 Z17
X-158.138 Y-212.52
G1 Z14.5 F283.3
X-136.02 Z10.6
X-176.02 F850
G2 X-177.52 Y-211.02 J1.5
G1 Y-116.02
G0 Z17
X-315.231 Y-114.51
G1 Z13.1 F283.3
X-336.02 Z9.434
G2 X-337.182 Y-113.959 Z9.2 J1.5
X-337.52 Y-113.01 I1.162 J0.949 F850
G1 Y-73.01
G2 X-336.02 Y-71.51 I1.5
G1 X-136.02
G2 X-134.52 Y-73.01 J-1.5
G1 Y-113.01
G2 X-136.02 Y-114.51 I-1.5
G1 X-336.02
G2 X-337.182 Y-113.959 J1.5
G0 Z17
X-329.51 Y-47.882
G1 Z13.1 F283.3
Y-70 Z9.2
Y-10 F850
G2 X-328.01 Y-8.5 I1.5
G1 X-233.01
X-328.01 Z8.355 F283.3
G3 X-329.51 Y-10 Z8.334 J-1.5
G1 Y-70 Z7.8
Y-10 F850
G2 X-328.01 Y-8.5 I1.5
G1 X-233.01
G0 Z17
X-231.5 Y-47.882
G1 Z11.7 F283.3
Y-70 Z7.8
Y-10 F850
G2 X-230 Y-8.5 I1.5
G1 X-10
G2 X-8.5 Y-10 J-1.5
G1 Y-230
G0 Z17
X-29.762 Y-231.51
G1 Z10.3 F283.3
X-10 Z6.815
G2 X-8.5 Y-233.01 Z6.4 J-1.5
G1 Y-328.01 F850
G2 X-10 Y-329.51 I-1.5
G1 X-70
G2 X-71.5 Y-328.01 J1.5
G1 Y-233.01
G2 X-70 Y-231.51 I1.5
G1 X-10
G2 X-8.5 Y-233.01 J-1.5
G0 Z17
X-134.51 Y-92.843
G1 Z13.1 F283.3
Y-73.01 Z9.603
G2 X-133.082 Y-71.512 Z9.2 I1.5
X-133.01 Y-71.51 I0.072 J-1.498 F850
G1 X-73.01
G2 X-71.51 Y-73.01 J-1.5
G1 Y-273.01
G2 X-73.01 Y-274.51 I-1.5
G1 X-133.01
G2 X-134.51 Y-273.01 J1.5
G1 Y-73.01
G2 X-133.082 Y-71.512 I1.5
G0 Z17
X-65.634 Y-62.707
G1 Z11.7 F283.3
G2 X-70 Y-78.5 Z7.8 I-4.366 J-7.293
G3 Y-61.5 J8.5 F850
X-78.5 Y-70 J-8.5
G0 Z17
X-201.148 Y-157.52
G1 Z13.1 F283.3
X-179.03 Z9.2
X-274.03 F850
G2 X-275.53 Y-156.02 J1.5
G1 Y-116.02
G0 Z17
X-214.624 Y-184.147
G1 Z14.5 F283.3
X-230.264 Y-199.786 Z10.6
X-212.586 Y-182.108 F850
G2 X-210.464 I1.061 J-1.061
G1 X-143.289 Y-249.283
G2 Y-251.405 I-1.061 J-1.061
G1 X-160.967 Y-269.083
G0 Z17
X-12.118 Y-407.333
G1 Z13.1 F283.3
X-26.617 Y-421.832 Z9.485
G2 X-28.107 Y-422.208 Z9.2 I-1.061 J1.061
X-28.738 Y-421.832 I0.43 J1.437 F850
G1 X-170.16 Y-280.411
G2 Y-278.289 I1.061 J1.061
G1 X-152.482 Y-260.611
G2 X-150.36 I1.061 J-1.061
G1 X-8.939 Y-402.033
G2 Y-404.155 I-1.061 J-1.061
G1 X-26.617 Y-421.832
G2 X-28.107 Y-422.208 I-1.061 J1.061
G0 Z17
X-298.095 Y-152.475
G1 Z13.1 F283.3
X-313.71 Y-136.861 Z9.206
G2 X-313.735 Y-136.835 Z9.2 I1.061 J1.061
X-313.71 Y-134.739 I1.086 J1.035 F850
G1 X-306.639 Y-127.668
G2 X-304.517 I1.061 J-1.061
G1 X-163.095 Y-269.089
G2 Y-271.211 I-1.061 J-1.061
G1 X-170.166 Y-278.283
G2 X-172.288 I-1.061 J1.061
G1 X-313.71 Y-136.861
G2 X-313.735 Y-136.835 I1.061 J1.061
G0 Z17
X-214.624 Y-184.147
G1 Z13.1 F283.3
X-230.264 Y-199.786 Z9.2
X-212.586 Y-182.108 F850
G2 X-210.464 I1.061 J-1.061
G1 X-143.289 Y-249.283
G2 Y-251.405 I-1.061 J-1.061
G1 X-160.967 Y-269.083
G0 Z17
X-12.118 Y-407.333
G1 Z11.7 F283.3
X-26.617 Y-421.832 Z8.085
G2 X-28.107 Y-422.208 Z7.8 I-1.061 J1.061
X-28.738 Y-421.832 I0.43 J1.437 F850
G1 X-170.16 Y-280.411
G2 Y-278.289 I1.061 J1.061
G1 X-152.482 Y-260.611
G2 X-150.36 I1.061 J-1.061
G1 X-8.939 Y-402.033
G2 Y-404.155 I-1.061 J-1.061
G1 X-26.617 Y-421.832
G2 X-28.107 Y-422.208 I-1.061 J1.061
G0 Z17
X-298.095 Y-152.475
G1 Z11.7 F283.3
X-313.71 Y-136.861 Z7.806
G2 X-313.735 Y-136.835 Z7.8 I1.061 J1.061
X-313.71 Y-134.739 I1.086 J1.035 F850
G1 X-306.639 Y-127.668
G2 X-304.517 I1.061 J-1.061
G1 X-163.095 Y-269.089
G2 Y-271.211 I-1.061 J-1.061
G1 X-170.166 Y-278.283
G2 X-172.288 I-1.061 J1.061
G1 X-313.71 Y-136.861
G2 X-313.735 Y-136.835 I1.061 J1.061
G0 Z17
X-398.242 Y-12.839
G1 Z11.7 F283.3
X-405.144 Y-5.936 Z9.979
G3 X-407.266 Z9.563 I-1.061 J-1.061
G1 X-414.337 Y-13.007 Z7.8
X-407.266 Y-5.936 F850
G2 X-405.144 I1.061 J-1.061
G1 X-337.969 Y-73.112
G2 Y-75.233 I-1.061 J-1.061
G1 X-345.04 Y-82.304
G0 Z17
X-408.42 Y-39.445
G1 Z10.3 F283.3
X-423.537 Y-24.328 Z6.53
G2 X-423.912 Y-23.7 Z6.4 I1.061 J1.061
X-423.537 Y-22.207 I1.436 J0.432 F850
G1 X-416.466 Y-15.136
G2 X-414.344 I1.061 J-1.061
G1 X-347.168 Y-82.311
G2 Y-84.432 I-1.061 J-1.061
G1 X-354.24 Y-91.503
G2 X-356.362 I-1.061 J1.061
G1 X-423.537 Y-24.328
G2 X-423.912 Y-23.7 I1.061 J1.061
G0 Z17
X-158.138 Y-212.52
G1 Z13.1 F283.3
X-136.02 Z9.2
X-176.02 F850
G2 X-177.52 Y-211.02 J1.5
G1 Y-116.02
G0 Z17
X-315.231 Y-114.51
G1 Z11.7 F283.3
X-336.02 Z8.034
G2 X-337.182 Y-113.959 Z7.8 J1.5
X-337.52 Y-113.01 I1.162 J0.949 F850
G1 Y-73.01
G2 X-336.02 Y-71.51 I1.5
G1 X-136.02
G2 X-134.52 Y-73.01 J-1.5
G1 Y-113.01
G2 X-136.02 Y-114.51 I-1.5
G1 X-336.02
G2 X-337.182 Y-113.959 J1.5
G0 Z17
X-329.51 Y-47.882
G1 Z10.3 F283.3
Y-70 Z6.4
Y-10 F850
G2 X-328.01 Y-8.5 I1.5
G1 X-233.01
G0 Z17
X-231.5 Y-47.882
G1 Z10.3 F283.3
Y-70 Z6.4
Y-10 F850
G2 X-230 Y-8.5 I1.5
G1 X-10
G2 X-8.5 Y-10 J-1.5
G1 Y-230
G0 Z17
X-29.762 Y-231.51
G1 Z8.9 F283.3
X-10 Z5.415
G2 X-8.5 Y-233.01 Z5 J-1.5
G1 Y-328.01 F850
G2 X-10 Y-329.51 I-1.5
G1 X-70
G2 X-71.5 Y-328.01 J1.5
G1 Y-233.01
G2 X-70 Y-231.51 I1.5
G1 X-10
G2 X-8.5 Y-233.01 J-1.5
G0 Z17
X-134.51 Y-92.843
G1 Z11.7 F283.3
Y-73.01 Z8.203
G2 X-133.082 Y-71.512 Z7.8 I1.5
X-133.01 Y-71.51 I0.072 J-1.498 F850
G1 X-73.01
G2 X-71.51 Y-73.01 J-1.5
G1 Y-273.01
G2 X-73.01 Y-274.51 I-1.5
G1 X-133.01
G2 X-134.51 Y-273.01 J1.5
G1 Y-73.01
G2 X-133.082 Y-71.512 I1.5
G0 Z17
X-65.634 Y-62.707
G1 Z10.3 F283.3
G2 X-70 Y-78.5 Z6.4 I-4.366 J-7.293
G3 Y-61.5 J8.5 F850
X-78.5 Y-70 J-8.5
G0 Z17
X-201.148 Y-157.52
G1 Z11.7 F283.3
X-179.03 Z7.8
X-274.03 F850
G2 X-275.53 Y-156.02 J1.5
G1 Y-116.02
G0 Z17
X-214.624 Y-184.147
G1 Z11.7 F283.3
X-230.264 Y-199.786 Z7.8
X-212.586 Y-182.108 F850
G2 X-210.464 I1.061 J-1.061
G1 X-143.289 Y-249.283
G2 Y-251.405 I-1.061 J-1.061
G1 X-160.967 Y-269.083
G0 Z17
X-12.118 Y-407.333
G1 Z10.3 F283.3
X-26.617 Y-421.832 Z6.685
G2 X-28.107 Y-422.208 Z6.4 I-1.061 J1.061
X-28.738 Y-421.832 I0.43 J1.437 F850
G1 X-170.16 Y-280.411
G2 Y-278.289 I1.061 J1.061
G1 X-152.482 Y-260.611
G2 X-150.36 I1.061 J-1.061
G1 X-8.939 Y-402.033
G2 Y-404.155 I-1.061 J-1.061
G1 X-26.617 Y-421.832
G2 X-28.107 Y-422.208 I-1.061 J1.061
G0 Z17
X-298.095 Y-152.475
G1 Z10.3 F283.3
X-313.71 Y-136.861 Z6.406
G2 X-313.735 Y-136.835 Z6.4 I1.061 J1.061
X-313.71 Y-134.739 I1.086 J1.035 F850
G1 X-306.639 Y-127.668
G2 X-304.517 I1.061 J-1.061
G1 X-163.095 Y-269.089
G2 Y-271.211 I-1.061 J-1.061
G1 X-170.166 Y-278.283
G2 X-172.288 I-1.061 J1.061
G1 X-313.71 Y-136.861
G2 X-313.735 Y-136.835 I1.061 J1.061
G0 Z17
X-398.242 Y-12.839
G1 Z10.3 F283.3
X-405.144 Y-5.936 Z8.579
G3 X-407.266 Z8.163 I-1.061 J-1.061
G1 X-414.337 Y-13.007 Z6.4
X-407.266 Y-5.936 F850
G2 X-405.144 I1.061 J-1.061
G1 X-337.969 Y-73.112
G2 Y-75.233 I-1.061 J-1.061
G1 X-345.04 Y-82.304
G0 Z17
X-408.42 Y-39.445
G1 Z8.9 F283.3
X-423.537 Y-24.328 Z5.13
G2 X-423.912 Y-23.7 Z5 I1.061 J1.061
X-423.537 Y-22.207 I1.436 J0.432 F850
G1 X-416.466 Y-15.136
G2 X-414.344 I1.061 J-1.061
G1 X-347.168 Y-82.311
G2 Y-84.432 I-1.061 J-1.061
G1 X-354.24 Y-91.503
G2 X-356.362 I-1.061 J1.061
G1 X-423.537 Y-24.328
G2 X-423.912 Y-23.7 I1.061 J1.061
G0 Z17
X-158.138 Y-212.52
G1 Z11.7 F283.3
X-136.02 Z7.8
X-176.02 F850
G2 X-177.52 Y-211.02 J1.5
G1 Y-116.02
G0 Z17
X-315.231 Y-114.51
G1 Z10.3 F283.3
X-336.02 Z6.634
G2 X-337.182 Y-113.959 Z6.4 J1.5
X-337.52 Y-113.01 I1.162 J0.949 F850
G1 Y-73.01
G2 X-336.02 Y-71.51 I1.5
G1 X-136.02
G2 X-134.52 Y-73.01 J-1.5
G1 Y-113.01
G2 X-136.02 Y-114.51 I-1.5
G1 X-336.02
G2 X-337.182 Y-113.959 J1.5
G0 Z17
X-329.51 Y-47.882
G1 Z8.9 F283.3
Y-70 Z5
Y-10 F850
G2 X-328.01 Y-8.5 I1.5
G1 X-233.01
G0 Z17
X-231.5 Y-47.882
G1 Z8.9 F283.3
Y-70 Z5
Y-10 F850
G2 X-230 Y-8.5 I1.5
G1 X-10
G2 X-8.5 Y-10 J-1.5
G1 Y-230
G0 Z17
X-134.51 Y-92.843
G1 Z10.3 F283.3
Y-73.01 Z6.803
G2 X-133.082 Y-71.512 Z6.4 I1.5
X-133.01 Y-71.51 I0.072 J-1.498 F850
G1 X-73.01
G2 X-71.51 Y-73.01 J-1.5
G1 Y-273.01
G2 X-73.01 Y-274.51 I-1.5
G1 X-133.01
G2 X-134.51 Y-273.01 J1.5
G1 Y-73.01
G2 X-133.082 Y-71.512 I1.5
G0 Z17
X-65.634 Y-62.707
G1 Z8.9 F283.3
G2 X-63.99 Y-63.99 Z8.531 I-4.366 J-7.293
X-70 Y-78.5 Z5 I-6.01 J-6.01
G3 Y-61.5 J8.5 F850
X-78.5 Y-70 J-8.5
G0 Z17
X-201.148 Y-157.52
G1 Z10.3 F283.3
X-179.03 Z6.4
X-274.03 F850
G2 X-275.53 Y-156.02 J1.5
G1 Y-116.02
G0 Z17
X-214.624 Y-184.147
G1 Z10.3 F283.3
X-230.264 Y-199.786 Z6.4
X-212.586 Y-182.108 F850
G2 X-210.464 I1.061 J-1.061
G1 X-143.289 Y-249.283
G2 Y-251.405 I-1.061 J-1.061
G1 X-160.967 Y-269.083
G0 Z17
X-12.118 Y-407.333
G1 Z8.9 F283.3
X-26.617 Y-421.832 Z5.285
G2 X-28.107 Y-422.208 Z5 I-1.061 J1.061
X-28.738 Y-421.832 I0.43 J1.437 F850
G1 X-170.16 Y-280.411
G2 Y-278.289 I1.061 J1.061
G1 X-152.482 Y-260.611
G2 X-150.36 I1.061 J-1.061
G1 X-8.939 Y-402.033
G2 Y-404.155 I-1.061 J-1.061
G1 X-26.617 Y-421.832
G2 X-28.107 Y-422.208 I-1.061 J1.061
G0 Z17
X-298.095 Y-152.475
G1 Z8.9 F283.3
X-313.71 Y-136.861 Z5.006
G2 X-313.735 Y-136.835 Z5 I1.061 J1.061
X-313.71 Y-134.739 I1.086 J1.035 F850
G1 X-306.639 Y-127.668
G2 X-304.517 I1.061 J-1.061
G1 X-163.095 Y-269.089
G2 Y-271.211 I-1.061 J-1.061
G1 X-170.166 Y-278.283
G2 X-172.288 I-1.061 J1.061
G1 X-313.71 Y-136.861
G2 X-313.735 Y-136.835 I1.061 J1.061
G0 Z17
X-398.242 Y-12.839
G1 Z8.9 F283.3
X-405.144 Y-5.936 Z7.179
G3 X-407.266 Z6.763 I-1.061 J-1.061
G1 X-414.337 Y-13.007 Z5
X-407.266 Y-5.936 F850
G2 X-405.144 I1.061 J-1.061
G1 X-337.969 Y-73.112
G2 Y-75.233 I-1.061 J-1.061
G1 X-345.04 Y-82.304
G0 Z17
X-158.138 Y-212.52
G1 Z10.3 F283.3
X-136.02 Z6.4
X-176.02 F850
G2 X-177.52 Y-211.02 J1.5
G1 Y-116.02
G0 Z17
X-315.231 Y-114.51
G1 Z8.9 F283.3
X-336.02 Z5.234
G2 X-337.182 Y-113.959 Z5 J1.5
X-337.52 Y-113.01 I1.162 J0.949 F850
G1 Y-73.01
G2 X-336.02 Y-71.51 I1.5
G1 X-136.02
G2 X-134.52 Y-73.01 J-1.5
G1 Y-113.01
G2 X-136.02 Y-114.51 I-1.5
G1 X-336.02
G2 X-337.182 Y-113.959 J1.5
G0 Z17
X-214.624 Y-184.147
G1 Z8.9 F283.3
X-230.264 Y-199.786 Z5
X-212.586 Y-182.108 F850
G2 X-210.464 I1.061 J-1.061
G1 X-143.289 Y-249.283
G2 Y-251.405 I-1.061 J-1.061
G1 X-160.967 Y-269.083
G0 Z17
X-134.51 Y-92.843
G1 Z8.9 F283.3
Y-73.01 Z5.403
G2 X-133.082 Y-71.512 Z5 I1.5
X-133.01 Y-71.51 I0.072 J-1.498 F850
G1 X-73.01
G2 X-71.51 Y-73.01 J-1.5
G1 Y-273.01
G2 X-73.01 Y-274.51 I-1.5
G1 X-133.01
G2 X-134.51 Y-273.01 J1.5
G1 Y-73.01
G2 X-133.082 Y-71.512 I1.5
G0 Z17
X-201.148 Y-157.52
G1 Z8.9 F283.3
X-179.03 Z5
X-274.03 F850
G2 X-275.53 Y-156.02 J1.5
G1 Y-116.02
G0 Z17
X-158.138 Y-212.52
G1 Z8.9 F283.3
X-136.02 Z5
X-176.02 F850
G2 X-177.52 Y-211.02 J1.5
G1 Y-116.02
G0 Z27
M9
M30
%
