%
(hole_bore_15_4mm)
(z0 botom machine -5-5)
(T1  D=6.35 CR=0 - ZMIN=0 - flat end mill)
G90 G94
G17
G21

(2D Adaptive2)
M9
T1 M6
S7500 M3
G54
M9
G0 X-318.01 Y-42.5
Z27
Z17
Z12.685
G1 Z12.05 F750
Z0
X-318.046 Y-42.488 F850
X-318.072 Y-42.514
X-318.062 Y-42.551
X-318.033 Y-42.574
X-317.996 Y-42.58
X-317.96 Y-42.567
X-317.935 Y-42.54
X-317.923 Y-42.504
X-317.929 Y-42.467
X-317.949 Y-42.436
X-317.981 Y-42.416
X-318.018 Y-42.41
X-318.056 Y-42.414
X-318.09 Y-42.429
X-318.117 Y-42.455
X-318.134 Y-42.488
X-318.139 Y-42.525
X-318.134 Y-42.562
X-318.118 Y-42.596
X-318.093 Y-42.625
X-318.031 Y-42.666
X-317.956 Y-42.671
X-317.887 Y-42.643
X-317.835 Y-42.588
X-317.81 Y-42.517
X-317.814 Y-42.442
X-317.845 Y-42.374
X-317.898 Y-42.321
X-317.964 Y-42.287
X-318.039 Y-42.276
X-318.113 Y-42.289
X-318.179 Y-42.323
X-318.232 Y-42.376
X-318.268 Y-42.442
X-318.284 Y-42.515
X-318.274 Y-42.665
X-318.191 Y-42.79
X-318.06 Y-42.863
X-317.911 Y-42.874
X-317.769 Y-42.824
X-317.658 Y-42.724
X-317.591 Y-42.59
X-317.576 Y-42.441
X-317.612 Y-42.295
X-317.694 Y-42.169
X-317.812 Y-42.076
X-317.953 Y-42.024
X-318.103 Y-42.018
X-318.248 Y-42.056
X-318.376 Y-42.134
X-318.477 Y-42.245
X-318.548 Y-42.377
X-318.58 Y-42.523
X-318.576 Y-42.673
X-318.533 Y-42.817
X-318.457 Y-42.946
X-318.352 Y-43.054
X-318.224 Y-43.133
X-318.083 Y-43.182
X-317.933 Y-43.196
X-317.784 Y-43.179
X-317.643 Y-43.129
X-317.514 Y-43.051
X-317.405 Y-42.949
X-317.32 Y-42.826
X-317.259 Y-42.688
X-317.228 Y-42.542
X-317.224 Y-42.392
X-317.249 Y-42.244
X-317.302 Y-42.103
X-317.379 Y-41.975
X-317.479 Y-41.863
X-317.597 Y-41.77
X-317.729 Y-41.699
X-317.872 Y-41.653
X-318.02 Y-41.631
X-318.17 Y-41.637
X-318.317 Y-41.666
X-318.458 Y-41.719
X-318.587 Y-41.794
X-318.704 Y-41.888
X-318.804 Y-42
X-318.885 Y-42.126
X-318.947 Y-42.263
X-318.986 Y-42.408
X-319.004 Y-42.557
X-318.999 Y-42.707
X-318.972 Y-42.854
X-318.924 Y-42.996
X-318.855 Y-43.13
X-318.769 Y-43.253
X-318.666 Y-43.362
X-318.549 Y-43.455
X-318.421 Y-43.533
X-318.282 Y-43.591
X-318.138 Y-43.63
X-317.989 Y-43.65
X-317.839 Y-43.649
X-317.69 Y-43.63
X-317.545 Y-43.59
X-317.407 Y-43.533
X-317.277 Y-43.458
X-317.157 Y-43.368
X-317.049 Y-43.263
X-316.956 Y-43.146
X-316.877 Y-43.019
X-316.814 Y-42.882
X-316.769 Y-42.739
X-316.741 Y-42.592
X-316.73 Y-42.442
X-316.737 Y-42.293
X-316.762 Y-42.145
X-316.803 Y-42
X-316.861 Y-41.862
X-316.934 Y-41.731
X-317.021 Y-41.609
X-317.122 Y-41.498
X-317.234 Y-41.399
X-317.357 Y-41.312
X-317.488 Y-41.24
X-317.627 Y-41.183
X-317.771 Y-41.141
X-317.919 Y-41.114
X-318.068 Y-41.104
X-318.218 Y-41.109
X-318.367 Y-41.13
X-318.512 Y-41.167
X-318.653 Y-41.218
X-318.788 Y-41.283
X-318.916 Y-41.362
X-319.035 Y-41.453
X-319.144 Y-41.556
X-319.242 Y-41.669
X-319.329 Y-41.792
X-319.403 Y-41.922
X-319.464 Y-42.059
X-319.511 Y-42.202
X-319.544 Y-42.348
X-319.564 Y-42.497
X-319.568 Y-42.647
X-319.558 Y-42.796
X-319.535 Y-42.945
X-319.497 Y-43.09
X-319.446 Y-43.231
X-319.382 Y-43.367
X-319.306 Y-43.496
X-319.218 Y-43.617
X-319.12 Y-43.731
X-319.012 Y-43.834
X-318.894 Y-43.928
X-318.769 Y-44.011
X-318.637 Y-44.082
X-318.499 Y-44.141
X-318.357 Y-44.188
X-318.211 Y-44.222
X-318.062 Y-44.242
X-317.912 Y-44.251
X-317.763 Y-44.246
X-317.614 Y-44.228
X-317.467 Y-44.198
X-317.323 Y-44.155
X-317.183 Y-44.1
X-317.049 Y-44.034
X-316.92 Y-43.957
X-316.799 Y-43.869
X-316.685 Y-43.771
X-316.579 Y-43.665
X-316.483 Y-43.55
X-316.396 Y-43.427
X-316.32 Y-43.298
X-316.254 Y-43.163
X-316.199 Y-43.024
X-316.156 Y-42.88
X-316.124 Y-42.733
X-316.104 Y-42.585
X-316.096 Y-42.435
X-316.099 Y-42.285
X-316.115 Y-42.136
X-316.142 Y-41.988
X-316.18 Y-41.843
X-316.229 Y-41.702
X-316.289 Y-41.564
X-316.36 Y-41.432
X-316.44 Y-41.305
X-316.53 Y-41.185
X-316.629 Y-41.072
X-316.736 Y-40.967
X-316.85 Y-40.87
X-316.971 Y-40.782
X-317.099 Y-40.703
X-317.232 Y-40.634
X-317.37 Y-40.574
X-317.512 Y-40.525
X-317.657 Y-40.487
X-317.804 Y-40.459
X-317.953 Y-40.442
X-318.103 Y-40.436
X-318.253 Y-40.441
X-318.402 Y-40.456
X-318.55 Y-40.482
X-318.696 Y-40.518
X-318.838 Y-40.564
X-318.977 Y-40.621
X-319.112 Y-40.687
X-319.242 Y-40.762
X-319.366 Y-40.846
X-319.484 Y-40.939
X-319.595 Y-41.039
X-319.699 Y-41.147
X-319.796 Y-41.262
X-319.884 Y-41.383
X-319.964 Y-41.51
X-320.036 Y-41.642
X-320.098 Y-41.778
X-320.151 Y-41.919
X-320.194 Y-42.062
X-320.228 Y-42.209
X-320.251 Y-42.357
X-320.265 Y-42.506
X-320.269 Y-42.656
X-320.263 Y-42.806
X-320.247 Y-42.955
X-320.222 Y-43.103
X-320.187 Y-43.249
X-320.142 Y-43.392
X-320.089 Y-43.532
X-320.026 Y-43.668
X-319.955 Y-43.8
X-319.875 Y-43.927
X-319.788 Y-44.049
X-319.692 Y-44.165
X-319.59 Y-44.275
X-319.481 Y-44.378
X-319.366 Y-44.474
X-319.244 Y-44.562
X-319.118 Y-44.643
X-318.987 Y-44.716
X-318.851 Y-44.78
X-318.712 Y-44.836
X-318.57 Y-44.883
X-318.424 Y-44.921
X-318.277 Y-44.95
X-318.129 Y-44.97
X-317.979 Y-44.981
X-317.829 Y-44.983
X-317.679 Y-44.976
X-317.53 Y-44.959
X-317.382 Y-44.934
X-317.236 Y-44.9
X-317.092 Y-44.857
X-316.952 Y-44.806
X-316.814 Y-44.746
X-316.68 Y-44.679
X-316.55 Y-44.603
X-316.425 Y-44.52
X-316.306 Y-44.43
X-316.191 Y-44.333
X-316.083 Y-44.229
X-315.981 Y-44.119
X-315.885 Y-44.004
X-315.796 Y-43.883
X-315.715 Y-43.757
X-315.64 Y-43.627
X-315.574 Y-43.492
X-315.515 Y-43.354
X-315.464 Y-43.213
X-315.421 Y-43.07
X-315.387 Y-42.924
X-315.361 Y-42.776
X-315.343 Y-42.627
X-315.334 Y-42.477
X-315.333 Y-42.327
X-315.34 Y-42.177
X-315.356 Y-42.028
X-315.381 Y-41.88
X-315.413 Y-41.734
X-315.453 Y-41.589
X-315.502 Y-41.447
X-315.558 Y-41.308
X-315.622 Y-41.173
X-315.693 Y-41.04
X-315.772 Y-40.912
X-315.857 Y-40.788
X-315.949 Y-40.67
X-316.047 Y-40.556
X-316.153 Y-40.447
X-316.263 Y-40.344
X-316.378 Y-40.248
X-316.5 Y-40.157
X-316.628 Y-40.072
X-316.758 Y-39.996
X-316.893 Y-39.926
X-317.033 Y-39.863
X-317.178 Y-39.807
X-317.323 Y-39.76
X-317.47 Y-39.72
X-317.623 Y-39.688
X-317.778 Y-39.665
X-317.932 Y-39.649
X-318.086 Y-39.643
X-318.242 Y-39.644
X-318.4 Y-39.654
X-318.556 Y-39.673
X-318.71 Y-39.7
X-318.863 Y-39.735
X-319.017 Y-39.78
X-319.167 Y-39.832
X-319.314 Y-39.892
X-319.456 Y-39.96
X-319.597 Y-40.037
X-319.735 Y-40.122
X-319.867 Y-40.214
X-319.994 Y-40.312
X-320.115 Y-40.417
X-320.231 Y-40.53
X-320.343 Y-40.65
X-320.447 Y-40.776
X-320.543 Y-40.906
X-320.633 Y-41.041
X-320.716 Y-41.183
X-320.792 Y-41.33
X-320.859 Y-41.481
X-320.919 Y-41.635
X-320.969 Y-41.791
X-321.012 Y-41.951
X-321.046 Y-42.115
X-321.071 Y-42.281
X-321.087 Y-42.448
X-321.094 Y-42.614
X-321.092 Y-42.781
X-321.081 Y-42.949
X-321.06 Y-43.118
X-321.031 Y-43.285
X-320.992 Y-43.45
X-320.945 Y-43.613
X-320.889 Y-43.773
X-320.824 Y-43.931
X-320.75 Y-44.085
X-320.667 Y-44.237
X-320.576 Y-44.384
X-320.477 Y-44.526
X-320.371 Y-44.662
X-320.258 Y-44.792
X-320.137 Y-44.916
X-320.009 Y-45.034
X-319.873 Y-45.146
X-319.732 Y-45.251
X-319.585 Y-45.348
X-319.433 Y-45.436
X-319.277 Y-45.516
X-319.116 Y-45.588
X-318.951 Y-45.651
X-318.782 Y-45.706
X-318.609 Y-45.751
X-318.434 Y-45.787
X-318.256 Y-45.814
X-318.077 Y-45.831
X-317.898 Y-45.838
X-317.718 Y-45.836
X-317.538 Y-45.823
X-317.359 Y-45.801
X-317.181 Y-45.77
X-317.004 Y-45.728
X-316.828 Y-45.677
X-316.655 Y-45.616
X-316.486 Y-45.545
X-316.32 Y-45.465
X-316.158 Y-45.377
X-316.001 Y-45.279
X-315.85 Y-45.173
X-315.704 Y-45.059
X-315.564 Y-44.937
X-315.431 Y-44.807
X-315.305 Y-44.67
X-315.186 Y-44.526
X-315.075 Y-44.375
X-314.972 Y-44.218
X-314.877 Y-44.055
X-314.791 Y-43.886
X-314.714 Y-43.713
X-314.647 Y-43.536
X-314.589 Y-43.355
X-314.54 Y-43.17
X-314.502 Y-42.982
X-314.474 Y-42.793
X-314.456 Y-42.602
X-314.449 Y-42.409
X-314.452 Y-42.217
X-314.465 Y-42.024
X-314.489 Y-41.832
X-314.524 Y-41.641
X-314.568 Y-41.452
X-314.624 Y-41.265
X-314.689 Y-41.081
X-314.764 Y-40.9
X-314.85 Y-40.723
X-314.944 Y-40.551
X-315.049 Y-40.384
X-315.162 Y-40.222
X-315.285 Y-40.067
X-315.416 Y-39.917
X-315.555 Y-39.775
X-315.702 Y-39.641
X-315.856 Y-39.514
X-316.018 Y-39.395
X-316.186 Y-39.285
X-316.36 Y-39.185
X-316.539 Y-39.093
X-316.724 Y-39.012
X-316.914 Y-38.94
X-317.107 Y-38.878
X-317.304 Y-38.827
X-317.504 Y-38.787
X-317.706 Y-38.757
X-317.91 Y-38.739
X-318.115 Y-38.731
X-318.232 Y-38.733
X-318.301 Y-38.735
X-318.369 Y-38.74
X-318.438 Y-38.746
X-318.58 Y-38.762
X-318.788 Y-38.786
X-318.899 Y-38.809
X-319.569 Y-39.043
X-319.68 Y-39.09
X-319.792 Y-39.158
X-320.238 Y-39.438
X-320.349 Y-39.51
X-320.461 Y-39.608
X-320.907 Y-40.054
X-320.952 Y-40.101
X-321.104 Y-40.324
X-321.384 Y-40.77
X-321.444 Y-40.881
X-321.485 Y-40.993
X-321.641 Y-41.439
X-321.714 Y-41.662
X-321.742 Y-41.885
X-321.799 Y-42.386
X-321.807 Y-42.47
X-321.805 Y-42.554
X-321.73 Y-43.223
X-321.714 Y-43.335
X-321.681 Y-43.446
X-321.525 Y-43.892
X-321.445 Y-44.115
X-321.353 Y-44.281
X-321.036 Y-44.785
X-320.981 Y-44.865
X-320.907 Y-44.946
X-320.461 Y-45.392
X-320.395 Y-45.454
X-320.238 Y-45.562
X-319.792 Y-45.842
X-319.698 Y-45.9
X-319.569 Y-45.957
X-318.899 Y-46.191
X-318.788 Y-46.214
X-318.23 Y-46.277
X-318.007 Y-46.298
X-317.784 Y-46.276
X-317.227 Y-46.213
X-317.115 Y-46.189
X-316.446 Y-45.955
X-316.383 Y-45.931
X-316.321 Y-45.9
X-315.777 Y-45.558
X-315.626 Y-45.454
X-315.554 Y-45.386
X-315.108 Y-44.941
X-315.037 Y-44.863
X-314.984 Y-44.785
X-314.662 Y-44.272
X-314.574 Y-44.115
X-314.417 Y-43.669
X-314.339 Y-43.446
X-314.306 Y-43.335
X-314.29 Y-43.223
X-314.215 Y-42.554
X-314.216 Y-42.437
X-314.278 Y-41.885
X-314.306 Y-41.662
X-314.379 Y-41.439
X-314.535 Y-40.993
X-314.576 Y-40.881
X-314.636 Y-40.77
X-314.916 Y-40.324
X-315.069 Y-40.101
X-315.108 Y-40.059
X-315.554 Y-39.614
X-315.665 Y-39.514
X-315.793 Y-39.432
X-316.223 Y-39.161
X-316.334 Y-39.093
X-316.446 Y-39.045
X-317.115 Y-38.811
X-317.227 Y-38.787
X-317.784 Y-38.724
X-318.007 Y-38.702
X-318.23 Y-38.723
X-318.438 Y-38.746
X-318.49 Y-38.764 Z0.006 F750
X-318.539 Y-38.781 Z0.025
X-318.584 Y-38.796 Z0.055
X-318.621 Y-38.808 Z0.094
X-318.649 Y-38.817 Z0.141
X-318.665 Y-38.827 Z0.194
X-318.671 Y-38.83 Z0.249
G0 Z17
X-311.02 Y-100.51
Z12.685
G1 Z12.05 F750
Z0
X-311.056 Y-100.498 F850
X-311.082 Y-100.525
X-311.072 Y-100.561
X-311.043 Y-100.584
X-311.005 Y-100.59
X-310.97 Y-100.577
X-310.945 Y-100.55
X-310.933 Y-100.514
X-310.939 Y-100.477
X-310.96 Y-100.446
X-310.991 Y-100.426
X-311.029 Y-100.42
X-311.066 Y-100.424
X-311.1 Y-100.439
X-311.127 Y-100.465
X-311.144 Y-100.499
X-311.149 Y-100.536
X-311.144 Y-100.573
X-311.127 Y-100.606
X-311.103 Y-100.635
X-311.04 Y-100.676
X-310.965 Y-100.681
X-310.896 Y-100.652
X-310.845 Y-100.597
X-310.82 Y-100.527
X-310.824 Y-100.452
X-310.855 Y-100.384
X-310.908 Y-100.33
X-310.975 Y-100.297
X-311.049 Y-100.286
X-311.123 Y-100.299
X-311.19 Y-100.334
X-311.243 Y-100.387
X-311.278 Y-100.453
X-311.294 Y-100.526
X-311.284 Y-100.676
X-311.2 Y-100.801
X-311.069 Y-100.874
X-310.92 Y-100.884
X-310.778 Y-100.834
X-310.667 Y-100.733
X-310.601 Y-100.598
X-310.586 Y-100.449
X-310.623 Y-100.304
X-310.705 Y-100.178
X-310.823 Y-100.086
X-310.964 Y-100.034
X-311.114 Y-100.028
X-311.259 Y-100.066
X-311.387 Y-100.145
X-311.488 Y-100.256
X-311.558 Y-100.389
X-311.59 Y-100.535
X-311.585 Y-100.685
X-311.542 Y-100.829
X-311.465 Y-100.958
X-311.36 Y-101.065
X-311.232 Y-101.143
X-311.09 Y-101.192
X-310.941 Y-101.205
X-310.792 Y-101.188
X-310.651 Y-101.138
X-310.523 Y-101.06
X-310.414 Y-100.957
X-310.329 Y-100.833
X-310.268 Y-100.696
X-310.238 Y-100.549
X-310.235 Y-100.399
X-310.26 Y-100.251
X-310.313 Y-100.111
X-310.391 Y-99.982
X-310.491 Y-99.871
X-310.609 Y-99.778
X-310.742 Y-99.708
X-310.884 Y-99.662
X-311.033 Y-99.642
X-311.183 Y-99.647
X-311.33 Y-99.677
X-311.47 Y-99.73
X-311.6 Y-99.806
X-311.716 Y-99.901
X-311.815 Y-100.013
X-311.897 Y-100.139
X-311.957 Y-100.276
X-311.996 Y-100.421
X-312.014 Y-100.57
X-312.008 Y-100.72
X-311.981 Y-100.867
X-311.932 Y-101.009
X-311.863 Y-101.143
X-311.777 Y-101.265
X-311.674 Y-101.374
X-311.556 Y-101.467
X-311.427 Y-101.544
X-311.289 Y-101.602
X-311.144 Y-101.64
X-310.995 Y-101.66
X-310.845 Y-101.659
X-310.696 Y-101.638
X-310.552 Y-101.599
X-310.413 Y-101.541
X-310.283 Y-101.466
X-310.164 Y-101.375
X-310.057 Y-101.27
X-309.963 Y-101.153
X-309.885 Y-101.025
X-309.823 Y-100.888
X-309.778 Y-100.745
X-309.75 Y-100.598
X-309.74 Y-100.448
X-309.747 Y-100.298
X-309.773 Y-100.151
X-309.814 Y-100.007
X-309.873 Y-99.868
X-309.946 Y-99.738
X-310.034 Y-99.616
X-310.135 Y-99.505
X-310.248 Y-99.406
X-310.371 Y-99.32
X-310.503 Y-99.249
X-310.641 Y-99.192
X-310.785 Y-99.15
X-310.933 Y-99.124
X-311.083 Y-99.114
X-311.233 Y-99.12
X-311.381 Y-99.141
X-311.526 Y-99.178
X-311.667 Y-99.23
X-311.802 Y-99.296
X-311.929 Y-99.375
X-312.048 Y-99.467
X-312.157 Y-99.57
X-312.255 Y-99.683
X-312.341 Y-99.806
X-312.415 Y-99.937
X-312.475 Y-100.074
X-312.522 Y-100.217
X-312.555 Y-100.363
X-312.573 Y-100.512
X-312.578 Y-100.662
X-312.567 Y-100.811
X-312.543 Y-100.96
X-312.505 Y-101.105
X-312.454 Y-101.245
X-312.39 Y-101.381
X-312.313 Y-101.51
X-312.225 Y-101.631
X-312.126 Y-101.744
X-312.017 Y-101.848
X-311.9 Y-101.941
X-311.774 Y-102.023
X-311.642 Y-102.094
X-311.504 Y-102.152
X-311.361 Y-102.199
X-311.215 Y-102.232
X-311.066 Y-102.253
X-310.917 Y-102.26
X-310.767 Y-102.255
X-310.618 Y-102.237
X-310.471 Y-102.206
X-310.327 Y-102.163
X-310.188 Y-102.107
X-310.054 Y-102.041
X-309.925 Y-101.963
X-309.804 Y-101.875
X-309.69 Y-101.777
X-309.585 Y-101.67
X-309.489 Y-101.555
X-309.403 Y-101.432
X-309.327 Y-101.303
X-309.262 Y-101.168
X-309.208 Y-101.028
X-309.165 Y-100.884
X-309.133 Y-100.737
X-309.114 Y-100.589
X-309.106 Y-100.439
X-309.11 Y-100.289
X-309.126 Y-100.14
X-309.153 Y-99.992
X-309.192 Y-99.847
X-309.242 Y-99.706
X-309.303 Y-99.569
X-309.373 Y-99.436
X-309.454 Y-99.31
X-309.545 Y-99.19
X-309.643 Y-99.077
X-309.751 Y-98.973
X-309.866 Y-98.876
X-309.987 Y-98.788
X-310.115 Y-98.71
X-310.248 Y-98.641
X-310.386 Y-98.582
X-310.528 Y-98.534
X-310.673 Y-98.496
X-310.821 Y-98.469
X-310.97 Y-98.452
X-311.12 Y-98.446
X-311.27 Y-98.451
X-311.419 Y-98.467
X-311.567 Y-98.493
X-311.712 Y-98.53
X-311.854 Y-98.577
X-311.993 Y-98.634
X-312.128 Y-98.701
X-312.257 Y-98.776
X-312.381 Y-98.861
X-312.499 Y-98.954
X-312.61 Y-99.054
X-312.714 Y-99.163
X-312.81 Y-99.278
X-312.898 Y-99.399
X-312.978 Y-99.526
X-313.049 Y-99.659
X-313.11 Y-99.795
X-313.163 Y-99.936
X-313.205 Y-100.08
X-313.238 Y-100.226
X-313.262 Y-100.374
X-313.275 Y-100.524
X-313.279 Y-100.673
X-313.272 Y-100.823
X-313.256 Y-100.972
X-313.23 Y-101.12
X-313.194 Y-101.266
X-313.149 Y-101.409
X-313.095 Y-101.549
X-313.032 Y-101.685
X-312.96 Y-101.817
X-312.88 Y-101.944
X-312.792 Y-102.065
X-312.697 Y-102.181
X-312.594 Y-102.29
X-312.485 Y-102.393
X-312.369 Y-102.488
X-312.248 Y-102.576
X-312.121 Y-102.657
X-311.99 Y-102.729
X-311.854 Y-102.793
X-311.714 Y-102.848
X-311.572 Y-102.894
X-311.427 Y-102.932
X-311.279 Y-102.961
X-311.131 Y-102.98
X-310.981 Y-102.991
X-310.831 Y-102.992
X-310.681 Y-102.985
X-310.532 Y-102.968
X-310.384 Y-102.942
X-310.238 Y-102.907
X-310.095 Y-102.864
X-309.954 Y-102.813
X-309.817 Y-102.752
X-309.683 Y-102.684
X-309.554 Y-102.608
X-309.429 Y-102.525
X-309.309 Y-102.434
X-309.195 Y-102.337
X-309.087 Y-102.233
X-308.985 Y-102.123
X-308.89 Y-102.007
X-308.802 Y-101.886
X-308.72 Y-101.76
X-308.647 Y-101.629
X-308.58 Y-101.494
X-308.522 Y-101.356
X-308.472 Y-101.215
X-308.429 Y-101.071
X-308.395 Y-100.925
X-308.37 Y-100.777
X-308.353 Y-100.628
X-308.344 Y-100.478
X-308.343 Y-100.328
X-308.351 Y-100.179
X-308.368 Y-100.03
X-308.393 Y-99.882
X-308.425 Y-99.735
X-308.466 Y-99.591
X-308.515 Y-99.449
X-308.572 Y-99.31
X-308.636 Y-99.175
X-308.708 Y-99.043
X-308.787 Y-98.915
X-308.873 Y-98.791
X-308.965 Y-98.673
X-309.063 Y-98.56
X-309.169 Y-98.451
X-309.28 Y-98.349
X-309.395 Y-98.253
X-309.518 Y-98.162
X-309.646 Y-98.078
X-309.777 Y-98.002
X-309.911 Y-97.933
X-310.052 Y-97.87
X-310.196 Y-97.814
X-310.342 Y-97.767
X-310.49 Y-97.728
X-310.642 Y-97.697
X-310.797 Y-97.674
X-310.951 Y-97.659
X-311.105 Y-97.653
X-311.262 Y-97.655
X-311.42 Y-97.666
X-311.576 Y-97.685
X-311.729 Y-97.712
X-311.882 Y-97.748
X-312.036 Y-97.793
X-312.186 Y-97.846
X-312.332 Y-97.907
X-312.475 Y-97.975
X-312.615 Y-98.052
X-312.753 Y-98.138
X-312.885 Y-98.23
X-313.011 Y-98.329
X-313.131 Y-98.434
X-313.248 Y-98.548
X-313.359 Y-98.668
X-313.462 Y-98.794
X-313.558 Y-98.924
X-313.648 Y-99.06
X-313.73 Y-99.202
X-313.806 Y-99.349
X-313.873 Y-99.5
X-313.931 Y-99.654
X-313.981 Y-99.811
X-314.023 Y-99.971
X-314.057 Y-100.135
X-314.081 Y-100.301
X-314.097 Y-100.468
X-314.103 Y-100.634
X-314.101 Y-100.801
X-314.089 Y-100.969
X-314.068 Y-101.137
X-314.038 Y-101.305
X-313.999 Y-101.47
X-313.951 Y-101.633
X-313.894 Y-101.793
X-313.829 Y-101.95
X-313.754 Y-102.104
X-313.671 Y-102.256
X-313.579 Y-102.403
X-313.48 Y-102.544
X-313.374 Y-102.679
X-313.26 Y-102.809
X-313.139 Y-102.933
X-313.01 Y-103.051
X-312.875 Y-103.162
X-312.733 Y-103.266
X-312.586 Y-103.363
X-312.434 Y-103.451
X-312.277 Y-103.53
X-312.116 Y-103.602
X-311.951 Y-103.664
X-311.781 Y-103.718
X-311.609 Y-103.763
X-311.433 Y-103.799
X-311.255 Y-103.825
X-311.076 Y-103.841
X-310.897 Y-103.848
X-310.717 Y-103.845
X-310.537 Y-103.832
X-310.358 Y-103.809
X-310.18 Y-103.777
X-310.003 Y-103.735
X-309.828 Y-103.683
X-309.655 Y-103.621
X-309.486 Y-103.55
X-309.32 Y-103.47
X-309.158 Y-103.381
X-309.002 Y-103.283
X-308.851 Y-103.176
X-308.705 Y-103.061
X-308.566 Y-102.939
X-308.434 Y-102.809
X-308.308 Y-102.671
X-308.189 Y-102.526
X-308.079 Y-102.375
X-307.976 Y-102.218
X-307.882 Y-102.055
X-307.797 Y-101.886
X-307.72 Y-101.713
X-307.653 Y-101.535
X-307.596 Y-101.353
X-307.548 Y-101.169
X-307.51 Y-100.981
X-307.483 Y-100.792
X-307.466 Y-100.6
X-307.459 Y-100.408
X-307.463 Y-100.215
X-307.477 Y-100.023
X-307.501 Y-99.83
X-307.537 Y-99.64
X-307.582 Y-99.451
X-307.638 Y-99.264
X-307.704 Y-99.08
X-307.78 Y-98.9
X-307.865 Y-98.723
X-307.961 Y-98.551
X-308.066 Y-98.384
X-308.18 Y-98.223
X-308.303 Y-98.068
X-308.434 Y-97.919
X-308.574 Y-97.777
X-308.721 Y-97.643
X-308.876 Y-97.517
X-309.038 Y-97.399
X-309.206 Y-97.289
X-309.381 Y-97.189
X-309.561 Y-97.098
X-309.746 Y-97.017
X-309.935 Y-96.946
X-310.129 Y-96.885
X-310.326 Y-96.835
X-310.526 Y-96.795
X-310.728 Y-96.766
X-310.932 Y-96.748
X-311.137 Y-96.741
X-311.254 Y-96.744
X-311.321 Y-96.746
X-311.387 Y-96.751
X-311.453 Y-96.757
X-311.539 Y-96.767
X-311.762 Y-96.792
X-311.874 Y-96.81
X-311.985 Y-96.845
X-312.431 Y-97.001
X-312.654 Y-97.083
X-312.851 Y-97.199
X-313.323 Y-97.496
X-313.41 Y-97.56
X-313.497 Y-97.645
X-313.943 Y-98.091
X-313.993 Y-98.147
X-314.102 Y-98.314
X-314.382 Y-98.76
X-314.439 Y-98.857
X-314.488 Y-98.983
X-314.662 Y-99.479
X-314.719 Y-99.652
X-314.75 Y-99.875
X-314.801 Y-100.321
X-314.817 Y-100.544
X-314.793 Y-100.767
X-314.743 Y-101.213
X-314.728 Y-101.325
X-314.698 Y-101.436
X-314.464 Y-102.106
X-314.439 Y-102.163
X-314.339 Y-102.329
X-314.059 Y-102.775
X-313.993 Y-102.873
X-313.875 Y-102.998
X-313.429 Y-103.444
X-313.376 Y-103.488
X-313.323 Y-103.524
X-312.741 Y-103.89
X-312.654 Y-103.937
X-312.431 Y-104.018
X-311.985 Y-104.175
X-311.874 Y-104.21
X-311.762 Y-104.228
X-311.093 Y-104.303
X-310.982 Y-104.306
X-310.87 Y-104.295
X-310.424 Y-104.245
X-310.201 Y-104.218
X-309.978 Y-104.148
X-309.42 Y-103.952
X-309.309 Y-103.896
X-308.863 Y-103.616
X-308.64 Y-103.468
X-308.612 Y-103.444
X-308.388 Y-103.221
X-308.165 Y-102.998
X-308.059 Y-102.886
X-307.981 Y-102.775
X-307.631 Y-102.217
X-307.601 Y-102.161
X-307.576 Y-102.106
X-307.342 Y-101.436
X-307.315 Y-101.342
X-307.301 Y-101.248
X-307.247 Y-100.767
X-307.223 Y-100.544
X-307.24 Y-100.321
X-307.301 Y-99.772
X-307.321 Y-99.652
X-307.396 Y-99.429
X-307.552 Y-98.983
X-307.594 Y-98.871
X-307.658 Y-98.76
X-307.97 Y-98.262
X-308.026 Y-98.177
X-308.097 Y-98.091
X-308.543 Y-97.645
X-308.64 Y-97.552
X-308.834 Y-97.422
X-309.309 Y-97.124
X-309.42 Y-97.068
X-309.978 Y-96.872
X-310.201 Y-96.802
X-310.424 Y-96.775
X-310.87 Y-96.725
X-310.982 Y-96.714
X-311.093 Y-96.717
X-311.453 Y-96.757
X-311.505 Y-96.775 Z0.006 F750
X-311.555 Y-96.791 Z0.025
X-311.599 Y-96.806 Z0.055
X-311.637 Y-96.819 Z0.094
X-311.665 Y-96.828 Z0.141
X-311.681 Y-96.837 Z0.194
X-311.686 Y-96.84 Z0.249
G0 Z17
X-264.03 Y-128.52
Z12.685
G1 Z12.05 F750
Z0
X-264.042 Y-128.484 F850
X-264.08 Y-128.48
X-264.102 Y-128.511
Y-128.548
X-264.084 Y-128.581
X-264.052 Y-128.601
X-264.015 Y-128.604
X-263.98 Y-128.591
X-263.954 Y-128.563
X-263.942 Y-128.528
X-263.946 Y-128.491
X-263.964 Y-128.458
X-263.99 Y-128.431
X-264.023 Y-128.413
X-264.061 Y-128.408
X-264.098 Y-128.415
X-264.13 Y-128.434
X-264.156 Y-128.461
X-264.172 Y-128.495
X-264.179 Y-128.532
X-264.173 Y-128.607
X-264.131 Y-128.669
X-264.066 Y-128.705
X-263.991 Y-128.712
X-263.92 Y-128.687
X-263.863 Y-128.638
X-263.829 Y-128.571
X-263.819 Y-128.497
X-263.834 Y-128.423
X-263.872 Y-128.359
X-263.928 Y-128.308
X-263.996 Y-128.278
X-264.071 Y-128.269
X-264.145 Y-128.282
X-264.212 Y-128.315
X-264.323 Y-128.415
X-264.37 Y-128.558
X-264.346 Y-128.706
X-264.262 Y-128.83
X-264.135 Y-128.91
X-263.987 Y-128.935
X-263.841 Y-128.904
X-263.714 Y-128.824
X-263.623 Y-128.705
X-263.575 Y-128.563
Y-128.413
X-263.621 Y-128.27
X-263.709 Y-128.148
X-263.829 Y-128.058
X-263.97 Y-128.006
X-264.119 Y-127.995
X-264.267 Y-128.022
X-264.402 Y-128.087
X-264.517 Y-128.184
X-264.603 Y-128.306
X-264.657 Y-128.446
X-264.676 Y-128.595
X-264.659 Y-128.744
X-264.61 Y-128.886
X-264.528 Y-129.012
X-264.422 Y-129.118
X-264.296 Y-129.198
X-264.155 Y-129.251
X-264.007 Y-129.273
X-263.857 Y-129.263
X-263.712 Y-129.226
X-263.577 Y-129.159
X-263.458 Y-129.069
X-263.357 Y-128.958
X-263.28 Y-128.829
X-263.227 Y-128.689
X-263.201 Y-128.541
Y-128.391
X-263.227 Y-128.244
X-263.28 Y-128.103
X-263.355 Y-127.973
X-263.452 Y-127.859
X-263.566 Y-127.762
X-263.695 Y-127.684
X-263.834 Y-127.629
X-263.981 Y-127.596
X-264.13 Y-127.588
X-264.28 Y-127.601
X-264.425 Y-127.638
X-264.563 Y-127.697
X-264.691 Y-127.776
X-264.805 Y-127.873
X-264.905 Y-127.985
X-264.986 Y-128.111
X-265.048 Y-128.247
X-265.091 Y-128.391
X-265.113 Y-128.54
X-265.114 Y-128.69
X-265.095 Y-128.838
X-265.054 Y-128.983
X-264.996 Y-129.121
X-264.919 Y-129.25
X-264.825 Y-129.367
X-264.718 Y-129.471
X-264.597 Y-129.561
X-264.466 Y-129.634
X-264.327 Y-129.69
X-264.182 Y-129.728
X-264.033 Y-129.747
X-263.883 Y-129.748
X-263.734 Y-129.73
X-263.588 Y-129.695
X-263.448 Y-129.642
X-263.315 Y-129.573
X-263.191 Y-129.489
X-263.078 Y-129.39
X-262.977 Y-129.279
X-262.889 Y-129.157
X-262.817 Y-129.026
X-262.759 Y-128.887
X-262.718 Y-128.743
X-262.693 Y-128.595
X-262.685 Y-128.446
X-262.693 Y-128.296
X-262.718 Y-128.148
X-262.759 Y-128.004
X-262.815 Y-127.864
X-262.886 Y-127.732
X-262.971 Y-127.608
X-263.068 Y-127.494
X-263.177 Y-127.391
X-263.295 Y-127.299
X-263.423 Y-127.22
X-263.558 Y-127.155
X-263.699 Y-127.104
X-263.844 Y-127.067
X-263.993 Y-127.045
X-264.143 Y-127.038
X-264.293 Y-127.046
X-264.441 Y-127.069
X-264.586 Y-127.106
X-264.727 Y-127.157
X-264.862 Y-127.222
X-264.991 Y-127.299
X-265.112 Y-127.389
X-265.223 Y-127.489
X-265.324 Y-127.6
X-265.415 Y-127.719
X-265.494 Y-127.847
X-265.561 Y-127.981
X-265.615 Y-128.121
X-265.656 Y-128.265
X-265.684 Y-128.412
X-265.698 Y-128.562
X-265.699 Y-128.712
X-265.686 Y-128.861
X-265.66 Y-129.009
X-265.62 Y-129.154
X-265.569 Y-129.295
X-265.505 Y-129.43
X-265.429 Y-129.56
X-265.343 Y-129.682
X-265.246 Y-129.797
X-265.14 Y-129.903
X-265.025 Y-129.999
X-264.902 Y-130.086
X-264.772 Y-130.161
X-264.637 Y-130.225
X-264.497 Y-130.278
X-264.352 Y-130.319
X-264.205 Y-130.348
X-264.056 Y-130.365
X-263.906 Y-130.369
X-263.756 Y-130.361
X-263.608 Y-130.341
X-263.461 Y-130.309
X-263.318 Y-130.265
X-263.178 Y-130.21
X-263.043 Y-130.144
X-262.914 Y-130.068
X-262.792 Y-129.981
X-262.676 Y-129.885
X-262.569 Y-129.781
X-262.47 Y-129.668
X-262.38 Y-129.548
X-262.299 Y-129.422
X-262.229 Y-129.289
X-262.169 Y-129.152
X-262.119 Y-129.01
X-262.081 Y-128.865
X-262.053 Y-128.718
X-262.037 Y-128.569
X-262.032 Y-128.419
X-262.038 Y-128.269
X-262.055 Y-128.12
X-262.084 Y-127.973
X-262.123 Y-127.828
X-262.172 Y-127.686
X-262.232 Y-127.549
X-262.302 Y-127.416
X-262.381 Y-127.288
X-262.469 Y-127.167
X-262.565 Y-127.052
X-262.67 Y-126.944
X-262.782 Y-126.845
X-262.9 Y-126.753
X-263.025 Y-126.67
X-263.156 Y-126.596
X-263.291 Y-126.531
X-263.431 Y-126.476
X-263.574 Y-126.431
X-263.719 Y-126.396
X-263.867 Y-126.371
X-264.017 Y-126.356
X-264.167 Y-126.351
X-264.316 Y-126.357
X-264.466 Y-126.373
X-264.613 Y-126.399
X-264.759 Y-126.435
X-264.902 Y-126.48
X-265.041 Y-126.535
X-265.177 Y-126.6
X-265.308 Y-126.673
X-265.434 Y-126.755
X-265.554 Y-126.845
X-265.667 Y-126.942
X-265.775 Y-127.047
X-265.875 Y-127.159
X-265.967 Y-127.277
X-266.052 Y-127.401
X-266.129 Y-127.53
X-266.197 Y-127.663
X-266.256 Y-127.801
X-266.306 Y-127.942
X-266.348 Y-128.087
X-266.38 Y-128.233
X-266.402 Y-128.381
X-266.415 Y-128.531
X-266.419 Y-128.681
X-266.413 Y-128.831
X-266.398 Y-128.98
X-266.374 Y-129.128
X-266.34 Y-129.274
X-266.297 Y-129.418
X-266.246 Y-129.559
X-266.186 Y-129.696
X-266.118 Y-129.83
X-266.041 Y-129.959
X-265.957 Y-130.083
X-265.866 Y-130.202
X-265.767 Y-130.315
X-265.662 Y-130.422
X-265.55 Y-130.522
X-265.433 Y-130.615
X-265.31 Y-130.702
X-265.182 Y-130.781
X-265.05 Y-130.852
X-264.914 Y-130.914
X-264.775 Y-130.969
X-264.632 Y-131.016
X-264.487 Y-131.054
X-264.34 Y-131.083
X-264.191 Y-131.104
X-264.042 Y-131.116
X-263.892 Y-131.12
X-263.742 Y-131.114
X-263.592 Y-131.1
X-263.444 Y-131.078
X-263.297 Y-131.047
X-263.153 Y-131.007
X-263.01 Y-130.96
X-262.871 Y-130.904
X-262.735 Y-130.84
X-262.603 Y-130.769
X-262.475 Y-130.691
X-262.352 Y-130.605
X-262.234 Y-130.513
X-262.121 Y-130.414
X-262.014 Y-130.309
X-261.913 Y-130.198
X-261.818 Y-130.082
X-261.73 Y-129.961
X-261.649 Y-129.835
X-261.575 Y-129.704
X-261.508 Y-129.57
X-261.448 Y-129.432
X-261.396 Y-129.291
X-261.352 Y-129.147
X-261.316 Y-129.002
X-261.288 Y-128.854
X-261.267 Y-128.704
X-261.255 Y-128.554
X-261.251 Y-128.404
X-261.256 Y-128.251
X-261.269 Y-128.099
X-261.289 Y-127.949
X-261.318 Y-127.8
X-261.355 Y-127.651
X-261.401 Y-127.503
X-261.454 Y-127.359
X-261.515 Y-127.219
X-261.584 Y-127.08
X-261.662 Y-126.944
X-261.745 Y-126.813
X-261.835 Y-126.689
X-261.934 Y-126.567
X-262.04 Y-126.449
X-262.151 Y-126.338
X-262.268 Y-126.234
X-262.39 Y-126.136
X-262.521 Y-126.043
X-262.655 Y-125.958
X-262.793 Y-125.88
X-262.935 Y-125.81
X-263.082 Y-125.747
X-263.235 Y-125.692
X-263.388 Y-125.645
X-263.544 Y-125.607
X-263.701 Y-125.577
X-263.863 Y-125.556
X-264.026 Y-125.543
X-264.189 Y-125.539
X-264.351 Y-125.544
X-264.513 Y-125.558
X-264.675 Y-125.581
X-264.838 Y-125.612
X-264.998 Y-125.653
X-265.155 Y-125.702
X-265.309 Y-125.759
X-265.461 Y-125.825
X-265.611 Y-125.9
X-265.757 Y-125.983
X-265.897 Y-126.074
X-266.032 Y-126.172
X-266.162 Y-126.277
X-266.287 Y-126.39
X-266.406 Y-126.51
X-266.519 Y-126.637
X-266.625 Y-126.77
X-266.724 Y-126.909
X-266.814 Y-127.052
X-266.897 Y-127.2
X-266.973 Y-127.354
X-267.04 Y-127.514
X-267.099 Y-127.676
X-267.149 Y-127.841
X-267.19 Y-128.009
X-267.222 Y-128.178
X-267.244 Y-128.35
X-267.257 Y-128.524
X-267.261 Y-128.699
X-267.256 Y-128.875
X-267.24 Y-129.051
X-267.216 Y-129.225
X-267.182 Y-129.397
X-267.138 Y-129.568
X-267.086 Y-129.736
X-267.023 Y-129.903
X-266.952 Y-130.066
X-266.871 Y-130.227
X-266.782 Y-130.383
X-266.685 Y-130.533
X-266.579 Y-130.678
X-266.465 Y-130.818
X-266.344 Y-130.952
X-266.216 Y-131.078
X-266.08 Y-131.198
X-265.938 Y-131.312
X-265.789 Y-131.417
X-265.634 Y-131.515
X-265.473 Y-131.604
X-265.308 Y-131.685
X-265.138 Y-131.757
X-264.964 Y-131.82
X-264.787 Y-131.873
X-264.607 Y-131.916
X-264.424 Y-131.95
X-264.24 Y-131.974
X-264.054 Y-131.988
X-263.867 Y-131.992
X-263.68 Y-131.985
X-263.493 Y-131.969
X-263.307 Y-131.942
X-263.121 Y-131.905
X-262.938 Y-131.858
X-262.757 Y-131.801
X-262.578 Y-131.734
X-262.404 Y-131.657
X-262.233 Y-131.571
X-262.067 Y-131.476
X-261.906 Y-131.371
X-261.75 Y-131.257
X-261.601 Y-131.135
X-261.458 Y-131.005
X-261.322 Y-130.867
X-261.194 Y-130.722
X-261.073 Y-130.57
X-260.961 Y-130.41
X-260.857 Y-130.245
X-260.762 Y-130.074
X-260.676 Y-129.897
X-260.6 Y-129.716
X-260.534 Y-129.53
X-260.477 Y-129.341
X-260.431 Y-129.149
X-260.395 Y-128.953
X-260.37 Y-128.756
X-260.355 Y-128.557
X-260.352 Y-128.357
X-260.359 Y-128.157
X-260.377 Y-127.957
X-260.406 Y-127.758
X-260.446 Y-127.561
X-260.496 Y-127.365
X-260.557 Y-127.172
X-260.629 Y-126.982
X-260.711 Y-126.796
X-260.803 Y-126.614
X-260.905 Y-126.437
X-261.017 Y-126.266
X-261.139 Y-126.1
X-261.213 Y-126.009
X-261.259 Y-125.955
X-261.307 Y-125.901
X-261.357 Y-125.85
X-261.46 Y-125.748
X-261.578 Y-125.629
X-261.638 Y-125.571
X-261.697 Y-125.525
X-262.247 Y-125.178
X-262.338 Y-125.122
X-262.429 Y-125.079
X-263.064 Y-124.856
X-263.14 Y-124.83
X-263.251 Y-124.806
X-263.809 Y-124.743
X-264.032 Y-124.722
X-264.255 Y-124.744
X-264.812 Y-124.806
X-264.924 Y-124.831
X-265.147 Y-124.909
X-265.632 Y-125.079
X-265.724 Y-125.123
X-266.262 Y-125.461
X-266.361 Y-125.525
X-266.485 Y-125.632
X-266.931 Y-126.079
X-266.985 Y-126.136
X-267.029 Y-126.194
X-267.377 Y-126.747
X-267.447 Y-126.863
X-267.53 Y-127.086
X-267.687 Y-127.532
X-267.724 Y-127.644
X-267.746 Y-127.755
X-267.823 Y-128.446
X-267.828 Y-128.52
X-267.823 Y-128.593
X-267.741 Y-129.316
X-267.715 Y-129.428
X-267.48 Y-130.097
X-267.43 Y-130.208
X-267.15 Y-130.655
X-267.007 Y-130.878
X-266.931 Y-130.961
X-266.485 Y-131.408
X-266.4 Y-131.487
X-266.314 Y-131.547
X-265.816 Y-131.859
X-265.705 Y-131.927
X-265.593 Y-131.975
X-264.924 Y-132.209
X-264.9 Y-132.216
X-264.701 Y-132.246
X-264.255 Y-132.296
X-264.032 Y-132.318
X-263.809 Y-132.297
X-263.363 Y-132.247
X-263.159 Y-132.216
X-263.14 Y-132.21
X-262.471 Y-131.977
X-262.359 Y-131.929
X-262.247 Y-131.862
X-261.746 Y-131.547
X-261.662 Y-131.489
X-261.578 Y-131.411
X-261.132 Y-130.965
X-261.053 Y-130.878
X-260.909 Y-130.654
X-260.63 Y-130.208
X-260.602 Y-130.153
X-260.58 Y-130.097
X-260.345 Y-129.428
X-260.319 Y-129.316
X-260.24 Y-128.626
X-260.232 Y-128.525
X-260.24 Y-128.414
X-260.314 Y-127.755
X-260.336 Y-127.644
X-260.373 Y-127.532
X-260.53 Y-127.086
X-260.613 Y-126.863
X-260.686 Y-126.741
X-261.031 Y-126.194
X-261.077 Y-126.134
X-261.132 Y-126.075
X-261.357 Y-125.85
X-261.404 Y-125.82 Z0.006 F750
X-261.448 Y-125.792 Z0.025
X-261.487 Y-125.766 Z0.055
X-261.52 Y-125.745 Z0.094
X-261.545 Y-125.729 Z0.141
X-261.562 Y-125.722 Z0.194
X-261.568 Y-125.719 Z0.249
G0 Z17
X-243.01 Y-42.5
Z12.685
G1 Z12.05 F750
Z0
X-242.99 Y-42.468 F850
X-243.01 Y-42.436
X-243.048 Y-42.438
X-243.077 Y-42.461
X-243.091 Y-42.496
X-243.087 Y-42.533
X-243.066 Y-42.565
X-243.033 Y-42.583
X-242.996 Y-42.586
X-242.961 Y-42.573
X-242.935 Y-42.547
X-242.92 Y-42.512
X-242.916 Y-42.475
X-242.923 Y-42.438
X-242.942 Y-42.406
X-242.971 Y-42.382
X-243.006 Y-42.368
X-243.043 Y-42.365
X-243.08 Y-42.374
X-243.113 Y-42.391
X-243.167 Y-42.443
X-243.189 Y-42.515
X-243.177 Y-42.589
X-243.135 Y-42.651
X-243.071 Y-42.691
X-242.997 Y-42.704
X-242.924 Y-42.689
X-242.86 Y-42.65
X-242.812 Y-42.592
X-242.785 Y-42.522
X-242.781 Y-42.447
X-242.8 Y-42.374
X-242.84 Y-42.311
X-242.896 Y-42.261
X-242.964 Y-42.23
X-243.112 Y-42.206
X-243.253 Y-42.259
X-243.353 Y-42.37
X-243.397 Y-42.514
X-243.38 Y-42.663
X-243.307 Y-42.794
X-243.191 Y-42.888
X-243.048 Y-42.936
X-242.898 Y-42.933
X-242.758 Y-42.881
X-242.641 Y-42.787
X-242.559 Y-42.661
X-242.519 Y-42.517
X-242.524 Y-42.367
X-242.572 Y-42.225
X-242.657 Y-42.102
X-242.771 Y-42.003
X-242.906 Y-41.939
X-243.053 Y-41.91
X-243.203 Y-41.92
X-243.346 Y-41.965
X-243.474 Y-42.044
X-243.579 Y-42.15
X-243.658 Y-42.278
X-243.705 Y-42.42
X-243.722 Y-42.569
X-243.705 Y-42.718
X-243.658 Y-42.861
X-243.582 Y-42.99
X-243.481 Y-43.101
X-243.36 Y-43.19
X-243.224 Y-43.253
X-243.079 Y-43.29
X-242.929 Y-43.299
X-242.78 Y-43.278
X-242.638 Y-43.232
X-242.507 Y-43.159
X-242.39 Y-43.065
X-242.292 Y-42.952
X-242.215 Y-42.823
X-242.161 Y-42.683
X-242.133 Y-42.536
X-242.129 Y-42.386
X-242.149 Y-42.237
X-242.193 Y-42.094
X-242.26 Y-41.959
X-242.347 Y-41.837
X-242.451 Y-41.729
X-242.571 Y-41.639
X-242.703 Y-41.569
X-242.845 Y-41.518
X-242.992 Y-41.49
X-243.142 Y-41.483
X-243.291 Y-41.499
X-243.436 Y-41.536
X-243.575 Y-41.592
X-243.705 Y-41.668
X-243.822 Y-41.762
X-243.926 Y-41.87
X-244.013 Y-41.992
X-244.084 Y-42.125
X-244.136 Y-42.265
X-244.168 Y-42.412
X-244.182 Y-42.561
X-244.176 Y-42.711
X-244.151 Y-42.859
X-244.107 Y-43.002
X-244.046 Y-43.139
X-243.968 Y-43.267
X-243.874 Y-43.385
X-243.767 Y-43.489
X-243.648 Y-43.581
X-243.519 Y-43.657
X-243.382 Y-43.717
X-243.238 Y-43.761
X-243.091 Y-43.787
X-242.941 Y-43.796
X-242.791 Y-43.788
X-242.643 Y-43.763
X-242.499 Y-43.72
X-242.361 Y-43.662
X-242.23 Y-43.589
X-242.108 Y-43.501
X-241.997 Y-43.401
X-241.898 Y-43.288
X-241.811 Y-43.166
X-241.738 Y-43.035
X-241.679 Y-42.897
X-241.636 Y-42.753
X-241.607 Y-42.606
X-241.595 Y-42.457
X-241.598 Y-42.307
X-241.617 Y-42.158
X-241.651 Y-42.012
X-241.699 Y-41.87
X-241.762 Y-41.733
X-241.838 Y-41.604
X-241.926 Y-41.483
X-242.027 Y-41.371
X-242.137 Y-41.27
X-242.257 Y-41.18
X-242.386 Y-41.103
X-242.521 Y-41.038
X-242.662 Y-40.986
X-242.807 Y-40.948
X-242.955 Y-40.924
X-243.105 Y-40.914
X-243.255 Y-40.919
X-243.403 Y-40.937
X-243.55 Y-40.969
X-243.693 Y-41.015
X-243.831 Y-41.074
X-243.963 Y-41.144
X-244.089 Y-41.227
X-244.206 Y-41.321
X-244.314 Y-41.424
X-244.413 Y-41.537
X-244.501 Y-41.658
X-244.578 Y-41.787
X-244.644 Y-41.922
X-244.697 Y-42.062
X-244.739 Y-42.206
X-244.767 Y-42.353
X-244.783 Y-42.503
X-244.786 Y-42.653
X-244.776 Y-42.802
X-244.754 Y-42.951
X-244.719 Y-43.097
X-244.672 Y-43.239
X-244.614 Y-43.377
X-244.544 Y-43.51
X-244.463 Y-43.636
X-244.373 Y-43.756
X-244.272 Y-43.868
X-244.164 Y-43.971
X-244.047 Y-44.065
X-243.923 Y-44.149
X-243.792 Y-44.223
X-243.657 Y-44.287
X-243.516 Y-44.339
X-243.372 Y-44.381
X-243.225 Y-44.411
X-243.076 Y-44.429
X-242.926 Y-44.435
X-242.776 Y-44.43
X-242.627 Y-44.413
X-242.48 Y-44.385
X-242.335 Y-44.346
X-242.194 Y-44.296
X-242.057 Y-44.235
X-241.924 Y-44.164
X-241.798 Y-44.083
X-241.678 Y-43.993
X-241.565 Y-43.894
X-241.46 Y-43.787
X-241.363 Y-43.673
X-241.275 Y-43.552
X-241.195 Y-43.424
X-241.126 Y-43.292
X-241.066 Y-43.154
X-241.016 Y-43.012
X-240.977 Y-42.868
X-240.948 Y-42.721
X-240.93 Y-42.572
X-240.922 Y-42.422
X-240.925 Y-42.272
X-240.939 Y-42.122
X-240.963 Y-41.974
X-240.997 Y-41.828
X-241.042 Y-41.685
X-241.096 Y-41.545
X-241.16 Y-41.41
X-241.234 Y-41.279
X-241.316 Y-41.153
X-241.406 Y-41.034
X-241.505 Y-40.921
X-241.611 Y-40.814
X-241.723 Y-40.715
X-241.843 Y-40.625
X-241.968 Y-40.542
X-242.098 Y-40.468
X-242.233 Y-40.403
X-242.373 Y-40.347
X-242.515 Y-40.3
X-242.66 Y-40.263
X-242.808 Y-40.235
X-242.957 Y-40.217
X-243.107 Y-40.209
X-243.257 Y-40.211
X-243.406 Y-40.223
X-243.555 Y-40.244
X-243.701 Y-40.275
X-243.846 Y-40.315
X-243.988 Y-40.364
X-244.126 Y-40.423
X-244.26 Y-40.49
X-244.39 Y-40.565
X-244.514 Y-40.649
X-244.633 Y-40.74
X-244.746 Y-40.838
X-244.853 Y-40.944
X-244.953 Y-41.055
X-245.046 Y-41.173
X-245.131 Y-41.297
X-245.209 Y-41.425
X-245.278 Y-41.558
X-245.339 Y-41.695
X-245.392 Y-41.836
X-245.436 Y-41.979
X-245.471 Y-42.125
X-245.497 Y-42.273
X-245.515 Y-42.422
X-245.523 Y-42.571
X-245.522 Y-42.721
X-245.512 Y-42.871
X-245.494 Y-43.02
X-245.466 Y-43.167
X-245.43 Y-43.313
X-245.385 Y-43.456
X-245.332 Y-43.596
X-245.27 Y-43.733
X-245.201 Y-43.866
X-245.124 Y-43.995
X-245.04 Y-44.119
X-244.948 Y-44.238
X-244.85 Y-44.351
X-244.746 Y-44.459
X-244.635 Y-44.56
X-244.519 Y-44.655
X-244.397 Y-44.743
X-244.271 Y-44.824
X-244.14 Y-44.898
X-244.006 Y-44.964
X-243.867 Y-45.022
X-243.726 Y-45.072
X-243.582 Y-45.115
X-243.436 Y-45.149
X-243.288 Y-45.175
X-243.139 Y-45.192
X-242.99 Y-45.201
X-242.84 Y-45.202
X-242.69 Y-45.195
X-242.541 Y-45.179
X-242.393 Y-45.155
X-242.246 Y-45.123
X-242.102 Y-45.083
X-241.959 Y-45.035
X-241.819 Y-44.979
X-241.683 Y-44.916
X-241.551 Y-44.846
X-241.421 Y-44.767
X-241.296 Y-44.683
X-241.177 Y-44.592
X-241.061 Y-44.492
X-240.95 Y-44.387
X-240.846 Y-44.277
X-240.749 Y-44.161
X-240.656 Y-44.038
X-240.569 Y-43.91
X-240.491 Y-43.779
X-240.42 Y-43.644
X-240.355 Y-43.502
X-240.297 Y-43.356
X-240.248 Y-43.21
X-240.207 Y-43.061
X-240.174 Y-42.908
X-240.149 Y-42.751
X-240.132 Y-42.595
X-240.124 Y-42.44
X-240.125 Y-42.282
X-240.134 Y-42.123
X-240.152 Y-41.964
X-240.178 Y-41.808
X-240.213 Y-41.654
X-240.256 Y-41.5
X-240.308 Y-41.346
X-240.368 Y-41.197
X-240.436 Y-41.052
X-240.512 Y-40.911
X-240.596 Y-40.772
X-240.689 Y-40.637
X-240.788 Y-40.507
X-240.893 Y-40.384
X-241.005 Y-40.267
X-241.125 Y-40.154
X-241.252 Y-40.048
X-241.384 Y-39.948
X-241.52 Y-39.856
X-241.661 Y-39.772
X-241.808 Y-39.695
X-241.96 Y-39.626
X-242.117 Y-39.564
X-242.275 Y-39.512
X-242.436 Y-39.468
X-242.599 Y-39.433
X-242.766 Y-39.406
X-242.935 Y-39.389
X-243.105 Y-39.38
X-243.274 Y-39.381
X-243.444 Y-39.391
X-243.612 Y-39.41
X-243.78 Y-39.439
X-243.947 Y-39.477
X-244.114 Y-39.524
X-244.277 Y-39.58
X-244.437 Y-39.645
X-244.593 Y-39.718
X-244.745 Y-39.8
X-244.893 Y-39.89
X-245.037 Y-39.988
X-245.176 Y-40.095
X-245.309 Y-40.21
X-245.437 Y-40.332
X-245.557 Y-40.46
X-245.67 Y-40.595
X-245.775 Y-40.736
X-245.874 Y-40.882
X-245.964 Y-41.035
X-246.047 Y-41.193
X-246.121 Y-41.357
X-246.187 Y-41.524
X-246.243 Y-41.695
X-246.29 Y-41.868
X-246.327 Y-42.044
X-246.355 Y-42.222
X-246.374 Y-42.401
X-246.382 Y-42.582
X-246.381 Y-42.764
X-246.37 Y-42.947
X-246.349 Y-43.129
X-246.318 Y-43.31
X-246.277 Y-43.49
X-246.226 Y-43.667
X-246.166 Y-43.841
X-246.096 Y-44.013
X-246.017 Y-44.18
X-245.929 Y-44.344
X-245.832 Y-44.502
X-245.727 Y-44.656
X-245.612 Y-44.803
X-245.49 Y-44.945
X-245.36 Y-45.081
X-245.222 Y-45.209
X-245.077 Y-45.331
X-244.925 Y-45.444
X-244.767 Y-45.549
X-244.603 Y-45.646
X-244.434 Y-45.734
X-244.26 Y-45.813
X-244.081 Y-45.883
X-243.899 Y-45.942
X-243.713 Y-45.992
X-243.524 Y-46.032
X-243.333 Y-46.062
X-243.141 Y-46.081
X-242.947 Y-46.09
X-242.753 Y-46.088
X-242.558 Y-46.076
X-242.364 Y-46.053
X-242.171 Y-46.02
X-241.98 Y-45.976
X-241.791 Y-45.922
X-241.604 Y-45.857
X-241.422 Y-45.782
X-241.243 Y-45.698
X-241.068 Y-45.603
X-240.899 Y-45.499
X-240.735 Y-45.386
X-240.577 Y-45.263
X-240.425 Y-45.132
X-240.281 Y-44.993
X-240.144 Y-44.845
X-240.015 Y-44.691
X-239.894 Y-44.529
X-239.782 Y-44.36
X-239.679 Y-44.185
X-239.586 Y-44.004
X-239.502 Y-43.819
X-239.428 Y-43.628
X-239.365 Y-43.433
X-239.312 Y-43.235
X-239.288 Y-43.12
X-239.275 Y-43.053
X-239.264 Y-42.986
X-239.255 Y-42.918
X-239.239 Y-42.777
X-239.215 Y-42.554
X-239.212 Y-42.498
X-239.215 Y-42.443
X-239.278 Y-41.885
X-239.306 Y-41.662
X-239.379 Y-41.439
X-239.535 Y-40.993
X-239.576 Y-40.881
X-239.636 Y-40.77
X-239.944 Y-40.279
X-240.068 Y-40.101
X-240.29 Y-39.878
X-240.513 Y-39.655
X-240.613 Y-39.556
X-240.658 Y-39.519
X-240.703 Y-39.488
X-241.282 Y-39.124
X-241.393 Y-39.065
X-241.505 Y-39.024
X-241.951 Y-38.868
X-242.174 Y-38.796
X-242.397 Y-38.767
X-242.955 Y-38.705
X-243.066
X-243.735 Y-38.78
X-243.847 Y-38.796
X-243.958 Y-38.829
X-244.405 Y-38.986
X-244.627 Y-39.066
X-244.85 Y-39.195
X-245.297 Y-39.475
X-245.402 Y-39.551
X-245.52 Y-39.667
X-245.743 Y-39.89
X-245.952 Y-40.101
X-245.966 Y-40.117
X-246.104 Y-40.324
X-246.384 Y-40.77
X-246.412 Y-40.816
X-246.485 Y-40.993
X-246.641 Y-41.439
X-246.714 Y-41.662
X-246.742 Y-41.885
X-246.805 Y-42.443
Y-42.554
X-246.73 Y-43.223
X-246.714 Y-43.335
X-246.681 Y-43.446
X-246.525 Y-43.892
X-246.445 Y-44.115
X-246.412 Y-44.185
X-246.189 Y-44.542
X-246.036 Y-44.785
X-245.966 Y-44.884
X-245.845 Y-45.008
X-245.52 Y-45.333
X-245.396 Y-45.454
X-245.297 Y-45.525
X-244.699 Y-45.9
X-244.627 Y-45.935
X-244.404 Y-46.015
X-243.958 Y-46.171
X-243.847 Y-46.204
X-243.735 Y-46.22
X-243.066 Y-46.295
X-242.955
X-242.397 Y-46.233
X-242.174 Y-46.204
X-241.951 Y-46.132
X-241.505 Y-45.976
X-241.322 Y-45.9
X-241.282 Y-45.876
X-240.836 Y-45.595
X-240.625 Y-45.454
X-240.613 Y-45.443
X-240.39 Y-45.222
X-240.167 Y-44.999
X-240.062 Y-44.892
X-239.984 Y-44.785
X-239.704 Y-44.338
X-239.574 Y-44.115
X-239.495 Y-43.892
X-239.339 Y-43.446
X-239.306 Y-43.335
X-239.29 Y-43.223
X-239.255 Y-42.918
X-239.253 Y-42.869 Z0.005 F750
X-239.262 Y-42.815 Z0.023
X-239.27 Y-42.767 Z0.052
X-239.276 Y-42.727 Z0.092
X-239.281 Y-42.697 Z0.139
X-239.284 Y-42.678 Z0.193
X-239.285 Y-42.672 Z0.249
G0 Z17
X-236.02 Y-100.51
Z12.685
G1 Z12.05 F750
Z0
X-236.056 Y-100.523 F850
X-236.059 Y-100.56
X-236.029 Y-100.582
X-235.991
X-235.959 Y-100.563
X-235.939 Y-100.532
X-235.936 Y-100.494
X-235.95 Y-100.459
X-235.977 Y-100.434
X-236.013 Y-100.422
X-236.05 Y-100.427
X-236.083 Y-100.445
X-236.11 Y-100.471
X-236.127 Y-100.504
X-236.131 Y-100.541
X-236.124 Y-100.578
X-236.105 Y-100.611
X-236.078 Y-100.636
X-236.044 Y-100.652
X-236.007 Y-100.659
X-235.932 Y-100.653
X-235.871 Y-100.61
X-235.834 Y-100.544
X-235.829 Y-100.47
X-235.853 Y-100.399
X-235.903 Y-100.343
X-235.97 Y-100.309
X-236.044 Y-100.3
X-236.118 Y-100.315
X-236.182 Y-100.353
X-236.232 Y-100.409
X-236.262 Y-100.478
X-236.271 Y-100.552
X-236.258 Y-100.626
X-236.224 Y-100.693
X-236.123 Y-100.804
X-235.98 Y-100.85
X-235.832 Y-100.825
X-235.708 Y-100.74
X-235.629 Y-100.613
X-235.605 Y-100.465
X-235.637 Y-100.318
X-235.719 Y-100.192
X-235.838 Y-100.101
X-235.98 Y-100.055
X-236.13 Y-100.056
X-236.273 Y-100.103
X-236.394 Y-100.192
X-236.483 Y-100.312
X-236.534 Y-100.453
X-236.544 Y-100.603
X-236.517 Y-100.75
X-236.45 Y-100.885
X-236.353 Y-100.999
X-236.23 Y-101.084
X-236.089 Y-101.138
X-235.941 Y-101.156
X-235.792 Y-101.138
X-235.65 Y-101.087
X-235.525 Y-101.005
X-235.419 Y-100.899
X-235.34 Y-100.771
X-235.289 Y-100.63
X-235.267 Y-100.482
X-235.278 Y-100.332
X-235.316 Y-100.187
X-235.384 Y-100.053
X-235.475 Y-99.934
X-235.587 Y-99.834
X-235.716 Y-99.758
X-235.856 Y-99.705
X-236.004 Y-99.681
X-236.154
X-236.302 Y-99.709
X-236.442 Y-99.762
X-236.571 Y-99.839
X-236.685 Y-99.937
X-236.781 Y-100.051
X-236.858 Y-100.18
X-236.912 Y-100.32
X-236.944 Y-100.467
X-236.952 Y-100.617
X-236.937 Y-100.766
X-236.899 Y-100.911
X-236.839 Y-101.048
X-236.76 Y-101.176
X-236.662 Y-101.29
X-236.549 Y-101.388
X-236.423 Y-101.469
X-236.286 Y-101.53
X-236.142 Y-101.572
X-235.993 Y-101.593
X-235.843
X-235.695 Y-101.572
X-235.55 Y-101.531
X-235.413 Y-101.472
X-235.284 Y-101.394
X-235.168 Y-101.3
X-235.064 Y-101.191
X-234.975 Y-101.07
X-234.904 Y-100.939
X-234.848 Y-100.799
X-234.811 Y-100.654
X-234.793 Y-100.505
Y-100.355
X-234.812 Y-100.206
X-234.848 Y-100.061
X-234.902 Y-99.92
X-234.972 Y-99.788
X-235.057 Y-99.664
X-235.156 Y-99.552
X-235.268 Y-99.452
X-235.39 Y-99.365
X-235.522 Y-99.293
X-235.661 Y-99.237
X-235.805 Y-99.196
X-235.954 Y-99.173
X-236.103 Y-99.165
X-236.253 Y-99.175
X-236.401 Y-99.201
X-236.545 Y-99.243
X-236.684 Y-99.3
X-236.815 Y-99.372
X-236.939 Y-99.457
X-237.052 Y-99.555
X-237.155 Y-99.664
X-237.246 Y-99.783
X-237.324 Y-99.912
X-237.388 Y-100.047
X-237.438 Y-100.188
X-237.474 Y-100.334
X-237.495 Y-100.483
X-237.501 Y-100.632
X-237.492 Y-100.782
X-237.468 Y-100.93
X-237.43 Y-101.075
X-237.378 Y-101.216
X-237.312 Y-101.351
X-237.234 Y-101.479
X-237.144 Y-101.599
X-237.043 Y-101.71
X-236.932 Y-101.81
X-236.812 Y-101.9
X-236.684 Y-101.978
X-236.549 Y-102.044
X-236.409 Y-102.098
X-236.264 Y-102.138
X-236.117 Y-102.164
X-235.967 Y-102.178
X-235.817 Y-102.177
X-235.668 Y-102.164
X-235.52 Y-102.137
X-235.376 Y-102.096
X-235.235 Y-102.044
X-235.1 Y-101.979
X-234.971 Y-101.902
X-234.849 Y-101.815
X-234.735 Y-101.718
X-234.63 Y-101.611
X-234.534 Y-101.495
X-234.449 Y-101.372
X-234.374 Y-101.242
X-234.311 Y-101.106
X-234.259 Y-100.965
X-234.219 Y-100.82
X-234.191 Y-100.673
X-234.175 Y-100.524
X-234.172 Y-100.374
X-234.181 Y-100.224
X-234.202 Y-100.076
X-234.235 Y-99.929
X-234.28 Y-99.786
X-234.335 Y-99.647
X-234.402 Y-99.513
X-234.48 Y-99.384
X-234.567 Y-99.262
X-234.664 Y-99.147
X-234.769 Y-99.041
X-234.882 Y-98.942
X-235.003 Y-98.853
X-235.13 Y-98.773
X-235.263 Y-98.704
X-235.4 Y-98.644
X-235.542 Y-98.596
X-235.688 Y-98.558
X-235.835 Y-98.532
X-235.984 Y-98.517
X-236.134 Y-98.513
X-236.284 Y-98.52
X-236.433 Y-98.538
X-236.58 Y-98.567
X-236.725 Y-98.607
X-236.866 Y-98.658
X-237.003 Y-98.718
X-237.136 Y-98.789
X-237.263 Y-98.869
X-237.383 Y-98.958
X-237.498 Y-99.055
X-237.605 Y-99.16
X-237.704 Y-99.273
X-237.794 Y-99.392
X-237.877 Y-99.518
X-237.95 Y-99.648
X-238.014 Y-99.784
X-238.068 Y-99.924
X-238.112 Y-100.067
X-238.146 Y-100.213
X-238.17 Y-100.361
X-238.184 Y-100.511
X-238.188 Y-100.661
X-238.181 Y-100.811
X-238.164 Y-100.96
X-238.137 Y-101.107
X-238.1 Y-101.253
X-238.054 Y-101.395
X-237.998 Y-101.534
X-237.933 Y-101.669
X-237.858 Y-101.8
X-237.776 Y-101.925
X-237.685 Y-102.045
X-237.587 Y-102.158
X-237.481 Y-102.264
X-237.369 Y-102.364
X-237.25 Y-102.456
X-237.126 Y-102.539
X-236.997 Y-102.615
X-236.862 Y-102.682
X-236.724 Y-102.741
X-236.583 Y-102.79
X-236.438 Y-102.831
X-236.291 Y-102.861
X-236.143 Y-102.883
X-235.993 Y-102.895
X-235.843 Y-102.898
X-235.694 Y-102.891
X-235.544 Y-102.875
X-235.397 Y-102.85
X-235.251 Y-102.815
X-235.107 Y-102.771
X-234.967 Y-102.719
X-234.83 Y-102.658
X-234.696 Y-102.589
X-234.568 Y-102.512
X-234.444 Y-102.427
X-234.326 Y-102.334
X-234.214 Y-102.235
X-234.108 Y-102.129
X-234.008 Y-102.017
X-233.915 Y-101.899
X-233.83 Y-101.776
X-233.752 Y-101.648
X-233.682 Y-101.515
X-233.62 Y-101.378
X-233.566 Y-101.238
X-233.52 Y-101.095
X-233.483 Y-100.95
X-233.455 Y-100.803
X-233.435 Y-100.654
X-233.424 Y-100.505
X-233.421 Y-100.355
X-233.428 Y-100.205
X-233.443 Y-100.055
X-233.466 Y-99.907
X-233.498 Y-99.761
X-233.539 Y-99.616
X-233.587 Y-99.474
X-233.644 Y-99.336
X-233.708 Y-99.2
X-233.78 Y-99.068
X-233.859 Y-98.941
X-233.946 Y-98.819
X-234.039 Y-98.701
X-234.139 Y-98.589
X-234.244 Y-98.482
X-234.356 Y-98.382
X-234.473 Y-98.288
X-234.595 Y-98.201
X-234.721 Y-98.12
X-234.852 Y-98.047
X-234.987 Y-97.981
X-235.125 Y-97.922
X-235.267 Y-97.871
X-235.41 Y-97.828
X-235.556 Y-97.793
X-235.704 Y-97.766
X-235.855 Y-97.746
X-236.005 Y-97.735
X-236.154 Y-97.732
X-236.307 Y-97.738
X-236.46 Y-97.751
X-236.609 Y-97.773
X-236.758 Y-97.803
X-236.907 Y-97.841
X-237.055 Y-97.888
X-237.198 Y-97.942
X-237.337 Y-98.003
X-237.476 Y-98.074
X-237.612 Y-98.152
X-237.742 Y-98.237
X-237.866 Y-98.328
X-237.987 Y-98.427
X-238.104 Y-98.534
X-238.214 Y-98.646
X-238.317 Y-98.763
X-238.415 Y-98.886
X-238.507 Y-99.017
X-238.591 Y-99.152
X-238.668 Y-99.291
X-238.737 Y-99.433
X-238.799 Y-99.581
X-238.853 Y-99.733
X-238.899 Y-99.887
X-238.936 Y-100.043
X-238.965 Y-100.201
X-238.985 Y-100.362
X-238.997 Y-100.525
X-239 Y-100.688
X-238.994 Y-100.85
X-238.979 Y-101.012
X-238.955 Y-101.175
X-238.922 Y-101.337
X-238.881 Y-101.497
X-238.831 Y-101.654
X-238.773 Y-101.807
X-238.706 Y-101.959
X-238.63 Y-102.108
X-238.545 Y-102.253
X-238.454 Y-102.393
X-238.355 Y-102.528
X-238.249 Y-102.656
X-238.135 Y-102.781
X-238.014 Y-102.899
X-237.886 Y-103.012
X-237.753 Y-103.117
X-237.614 Y-103.214
X-237.47 Y-103.304
X-237.321 Y-103.386
X-237.166 Y-103.46
X-237.007 Y-103.527
X-236.844 Y-103.585
X-236.678 Y-103.634
X-236.511 Y-103.673
X-236.341 Y-103.704
X-236.169 Y-103.725
X-235.995 Y-103.737
X-235.819 Y-103.74
X-235.643 Y-103.733
X-235.468 Y-103.717
X-235.294 Y-103.691
X-235.122 Y-103.656
X-234.952 Y-103.611
X-234.784 Y-103.558
X-234.618 Y-103.494
X-234.455 Y-103.422
X-234.295 Y-103.34
X-234.139 Y-103.25
X-233.989 Y-103.151
X-233.845 Y-103.045
X-233.706 Y-102.93
X-233.573 Y-102.808
X-233.447 Y-102.679
X-233.328 Y-102.543
X-233.216 Y-102.399
X-233.111 Y-102.25
X-233.015 Y-102.094
X-232.926 Y-101.933
X-232.846 Y-101.767
X-232.776 Y-101.596
X-232.714 Y-101.422
X-232.662 Y-101.245
X-232.62 Y-101.064
X-232.587 Y-100.882
X-232.565 Y-100.697
X-232.552 Y-100.512
X-232.55 Y-100.325
X-232.557 Y-100.137
X-232.575 Y-99.95
X-232.603 Y-99.764
X-232.641 Y-99.579
X-232.689 Y-99.396
X-232.748 Y-99.215
X-232.816 Y-99.037
X-232.894 Y-98.863
X-232.981 Y-98.693
X-233.077 Y-98.527
X-233.183 Y-98.367
X-233.298 Y-98.212
X-233.421 Y-98.064
X-233.552 Y-97.922
X-233.69 Y-97.787
X-233.837 Y-97.659
X-233.99 Y-97.54
X-234.15 Y-97.428
X-234.316 Y-97.326
X-234.488 Y-97.232
X-234.665 Y-97.147
X-234.847 Y-97.072
X-235.033 Y-97.007
X-235.222 Y-96.952
X-235.415 Y-96.907
X-235.611 Y-96.872
X-235.808 Y-96.848
X-236.007 Y-96.835
X-236.207 Y-96.833
X-236.407 Y-96.841
X-236.607 Y-96.861
X-236.806 Y-96.891
X-237.003 Y-96.932
X-237.198 Y-96.984
X-237.391 Y-97.046
X-237.58 Y-97.119
X-237.766 Y-97.202
X-237.947 Y-97.296
X-238.123 Y-97.399
X-238.294 Y-97.512
X-238.459 Y-97.635
X-238.549 Y-97.709
X-238.6 Y-97.753
X-238.649 Y-97.798
X-238.697 Y-97.844
X-238.828 Y-97.976
X-238.944 Y-98.091
X-239.004 Y-98.162
X-239.051 Y-98.234
X-239.382 Y-98.76
X-239.446 Y-98.871
X-239.488 Y-98.983
X-239.644 Y-99.429
X-239.721 Y-99.658
X-239.75 Y-99.875
X-239.8 Y-100.321
X-239.817 Y-100.544
X-239.793 Y-100.767
X-239.743 Y-101.213
X-239.721 Y-101.363
X-239.698 Y-101.436
X-239.464 Y-102.106
X-239.439 Y-102.161
X-239.409 Y-102.217
X-239.051 Y-102.786
X-238.978 Y-102.892
X-238.875 Y-102.998
X-238.428 Y-103.444
X-238.382 Y-103.483
X-238.159 Y-103.627
X-237.741 Y-103.89
X-237.713 Y-103.907
X-237.657 Y-103.936
X-237.602 Y-103.959
X-237.044 Y-104.154
X-236.821 Y-104.221
X-236.375 Y-104.272
X-236.152 Y-104.297
X-236.04 Y-104.307
X-235.929 Y-104.301
X-235.26 Y-104.226
X-235.148 Y-104.205
X-235.037 Y-104.168
X-234.591 Y-104.012
X-234.368 Y-103.929
X-234.299 Y-103.89
X-233.699 Y-103.513
X-233.612 Y-103.444
X-233.165 Y-102.998
X-233.029 Y-102.848
X-232.981 Y-102.775
X-232.701 Y-102.329
X-232.583 Y-102.122
X-232.577 Y-102.106
X-232.342 Y-101.436
X-232.312 Y-101.325
X-232.297 Y-101.213
X-232.247 Y-100.767
X-232.223 Y-100.544
X-232.24 Y-100.321
X-232.29 Y-99.875
X-232.321 Y-99.652
X-232.36 Y-99.531
X-232.552 Y-98.983
X-232.583 Y-98.898
X-232.658 Y-98.76
X-232.938 Y-98.314
X-233.029 Y-98.171
X-233.097 Y-98.091
X-233.543 Y-97.645
X-233.621 Y-97.568
X-233.699 Y-97.508
X-234.189 Y-97.199
X-234.368 Y-97.091
X-234.591 Y-97.008
X-235.037 Y-96.852
X-235.148 Y-96.814
X-235.26 Y-96.794
X-235.929 Y-96.718
X-236.04 Y-96.713
X-236.152 Y-96.723
X-236.598 Y-96.773
X-236.821 Y-96.799
X-237.044 Y-96.866
X-237.602 Y-97.061
X-237.657 Y-97.084
X-237.713 Y-97.113
X-238.206 Y-97.422
X-238.382 Y-97.537
X-238.497 Y-97.645
X-238.697 Y-97.844
X-238.727 Y-97.891 Z0.006 F750
X-238.756 Y-97.935 Z0.025
X-238.781 Y-97.974 Z0.055
X-238.802 Y-98.007 Z0.094
X-238.818 Y-98.032 Z0.141
X-238.825 Y-98.049 Z0.194
X-238.828 Y-98.055 Z0.249
G0 Z17
X-192.5 Y-42.5
Z12.685
G1 Z12.05 F750
Z0
X-192.52 Y-42.468 F850
X-192.557 Y-42.472
X-192.572 Y-42.507
X-192.564 Y-42.544
X-192.539 Y-42.571
X-192.504 Y-42.584
X-192.467 Y-42.579
X-192.435 Y-42.558
X-192.416 Y-42.525
X-192.413 Y-42.488
X-192.425 Y-42.453
X-192.45 Y-42.425
X-192.481 Y-42.404
X-192.517 Y-42.394
X-192.555 Y-42.398
X-192.589 Y-42.413
X-192.616 Y-42.439
X-192.636 Y-42.471
X-192.644 Y-42.507
X-192.643 Y-42.545
X-192.62 Y-42.616
X-192.566 Y-42.667
X-192.494 Y-42.689
X-192.419 Y-42.678
X-192.355 Y-42.639
X-192.311 Y-42.578
X-192.293 Y-42.506
X-192.3 Y-42.431
X-192.331 Y-42.363
X-192.382 Y-42.308
X-192.447 Y-42.271
X-192.521 Y-42.256
X-192.595 Y-42.264
X-192.664 Y-42.293
X-192.723 Y-42.34
X-192.809 Y-42.463
X-192.823 Y-42.612
X-192.767 Y-42.751
X-192.658 Y-42.854
X-192.516 Y-42.904
X-192.367 Y-42.895
X-192.23 Y-42.833
X-192.125 Y-42.726
X-192.062 Y-42.59
X-192.047 Y-42.441
X-192.08 Y-42.294
X-192.157 Y-42.166
X-192.269 Y-42.066
X-192.406 Y-42.005
X-192.555 Y-41.986
X-192.703 Y-42.008
X-192.841 Y-42.067
X-192.958 Y-42.16
X-193.049 Y-42.28
X-193.106 Y-42.419
X-193.128 Y-42.567
X-193.114 Y-42.716
X-193.064 Y-42.858
X-192.984 Y-42.985
X-192.877 Y-43.09
X-192.75 Y-43.17
X-192.609 Y-43.22
X-192.46 Y-43.24
X-192.311 Y-43.229
X-192.167 Y-43.187
X-192.034 Y-43.118
X-191.917 Y-43.023
X-191.82 Y-42.909
X-191.747 Y-42.778
X-191.7 Y-42.636
X-191.679 Y-42.487
X-191.687 Y-42.337
X-191.72 Y-42.191
X-191.779 Y-42.053
X-191.861 Y-41.927
X-191.963 Y-41.817
X-192.083 Y-41.728
X-192.216 Y-41.658
X-192.358 Y-41.611
X-192.506 Y-41.588
X-192.656
X-192.804 Y-41.613
X-192.947 Y-41.66
X-193.081 Y-41.728
X-193.202 Y-41.816
X-193.309 Y-41.921
X-193.399 Y-42.04
X-193.471 Y-42.172
X-193.523 Y-42.313
X-193.554 Y-42.46
X-193.564 Y-42.609
X-193.552 Y-42.759
X-193.519 Y-42.905
X-193.468 Y-43.046
X-193.397 Y-43.178
X-193.309 Y-43.3
X-193.205 Y-43.408
X-193.088 Y-43.502
X-192.96 Y-43.58
X-192.823 Y-43.641
X-192.679 Y-43.683
X-192.531 Y-43.707
X-192.381 Y-43.711
X-192.231 Y-43.697
X-192.085 Y-43.665
X-191.943 Y-43.615
X-191.809 Y-43.548
X-191.684 Y-43.466
X-191.57 Y-43.368
X-191.467 Y-43.259
X-191.379 Y-43.138
X-191.305 Y-43.007
X-191.247 Y-42.869
X-191.205 Y-42.725
X-191.18 Y-42.577
X-191.171 Y-42.427
X-191.18 Y-42.277
X-191.205 Y-42.13
X-191.246 Y-41.985
X-191.303 Y-41.847
X-191.375 Y-41.715
X-191.461 Y-41.592
X-191.559 Y-41.479
X-191.669 Y-41.377
X-191.789 Y-41.286
X-191.918 Y-41.21
X-192.054 Y-41.147
X-192.196 Y-41.098
X-192.342 Y-41.064
X-192.491 Y-41.046
X-192.641 Y-41.042
X-192.79 Y-41.054
X-192.938 Y-41.08
X-193.082 Y-41.121
X-193.222 Y-41.176
X-193.355 Y-41.244
X-193.481 Y-41.326
X-193.599 Y-41.419
X-193.707 Y-41.522
X-193.805 Y-41.636
X-193.891 Y-41.759
X-193.966 Y-41.889
X-194.028 Y-42.026
X-194.077 Y-42.167
X-194.112 Y-42.313
X-194.134 Y-42.462
X-194.142 Y-42.611
X-194.137 Y-42.761
X-194.117 Y-42.91
X-194.085 Y-43.056
X-194.039 Y-43.199
X-193.981 Y-43.338
X-193.911 Y-43.47
X-193.829 Y-43.596
X-193.737 Y-43.714
X-193.634 Y-43.824
X-193.523 Y-43.924
X-193.403 Y-44.015
X-193.276 Y-44.094
X-193.143 Y-44.163
X-193.004 Y-44.22
X-192.861 Y-44.265
X-192.714 Y-44.297
X-192.566 Y-44.318
X-192.416 Y-44.326
X-192.266 Y-44.321
X-192.117 Y-44.305
X-191.97 Y-44.276
X-191.826 Y-44.235
X-191.685 Y-44.182
X-191.549 Y-44.119
X-191.419 Y-44.044
X-191.295 Y-43.96
X-191.178 Y-43.865
X-191.07 Y-43.762
X-190.969 Y-43.651
X-190.878 Y-43.532
X-190.796 Y-43.406
X-190.724 Y-43.274
X-190.663 Y-43.137
X-190.613 Y-42.996
X-190.573 Y-42.851
X-190.545 Y-42.704
X-190.528 Y-42.555
X-190.523 Y-42.405
X-190.528 Y-42.255
X-190.546 Y-42.106
X-190.574 Y-41.959
X-190.613 Y-41.814
X-190.663 Y-41.673
X-190.723 Y-41.535
X-190.793 Y-41.403
X-190.873 Y-41.275
X-190.962 Y-41.155
X-191.059 Y-41.04
X-191.164 Y-40.934
X-191.277 Y-40.835
X-191.397 Y-40.744
X-191.522 Y-40.662
X-191.654 Y-40.59
X-191.79 Y-40.527
X-191.93 Y-40.473
X-192.073 Y-40.43
X-192.22 Y-40.397
X-192.368 Y-40.374
X-192.517 Y-40.362
X-192.667 Y-40.36
X-192.817 Y-40.368
X-192.966 Y-40.386
X-193.113 Y-40.415
X-193.258 Y-40.454
X-193.4 Y-40.503
X-193.538 Y-40.561
X-193.672 Y-40.628
X-193.802 Y-40.704
X-193.926 Y-40.789
X-194.043 Y-40.881
X-194.155 Y-40.982
X-194.259 Y-41.089
X-194.357 Y-41.204
X-194.446 Y-41.324
X-194.527 Y-41.45
X-194.6 Y-41.581
X-194.665 Y-41.717
X-194.72 Y-41.856
X-194.766 Y-41.999
X-194.803 Y-42.144
X-194.83 Y-42.292
X-194.848 Y-42.441
X-194.856 Y-42.59
X-194.855 Y-42.74
X-194.844 Y-42.89
X-194.824 Y-43.039
X-194.794 Y-43.186
X-194.755 Y-43.331
X-194.708 Y-43.473
X-194.651 Y-43.612
X-194.586 Y-43.747
X-194.512 Y-43.878
X-194.431 Y-44.004
X-194.342 Y-44.124
X-194.246 Y-44.239
X-194.143 Y-44.348
X-194.033 Y-44.451
X-193.918 Y-44.546
X-193.796 Y-44.635
X-193.67 Y-44.716
X-193.539 Y-44.789
X-193.404 Y-44.854
X-193.265 Y-44.911
X-193.123 Y-44.96
X-192.979 Y-45
X-192.832 Y-45.031
X-192.684 Y-45.053
X-192.534 Y-45.067
X-192.384 Y-45.072
X-192.235 Y-45.068
X-192.085 Y-45.056
X-191.937 Y-45.034
X-191.79 Y-45.004
X-191.645 Y-44.966
X-191.502 Y-44.919
X-191.362 Y-44.865
X-191.226 Y-44.802
X-191.094 Y-44.731
X-190.966 Y-44.653
X-190.842 Y-44.568
X-190.724 Y-44.476
X-190.611 Y-44.378
X-190.503 Y-44.273
X-190.402 Y-44.162
X-190.307 Y-44.046
X-190.219 Y-43.924
X-190.138 Y-43.798
X-190.064 Y-43.668
X-189.997 Y-43.534
X-189.938 Y-43.396
X-189.887 Y-43.255
X-189.843 Y-43.111
X-189.808 Y-42.965
X-189.78 Y-42.818
X-189.761 Y-42.669
X-189.75 Y-42.519
X-189.747 Y-42.369
X-189.752 Y-42.219
X-189.765 Y-42.067
X-189.787 Y-41.919
X-189.816 Y-41.772
X-189.854 Y-41.624
X-189.9 Y-41.478
X-189.954 Y-41.336
X-190.015 Y-41.198
X-190.084 Y-41.06
X-190.162 Y-40.926
X-190.245 Y-40.798
X-190.335 Y-40.675
X-190.434 Y-40.554
X-190.539 Y-40.438
X-190.65 Y-40.33
X-190.765 Y-40.228
X-190.888 Y-40.131
X-191.018 Y-40.04
X-191.151 Y-39.956
X-191.287 Y-39.881
X-191.429 Y-39.812
X-191.576 Y-39.75
X-191.727 Y-39.697
X-191.878 Y-39.652
X-192.032 Y-39.615
X-192.19 Y-39.586
X-192.35 Y-39.566
X-192.511 Y-39.555
X-192.671 Y-39.552
X-192.831 Y-39.558
X-192.993 Y-39.572
X-193.155 Y-39.596
X-193.315 Y-39.628
X-193.472 Y-39.669
X-193.626 Y-39.718
X-193.78 Y-39.776
X-193.931 Y-39.843
X-194.079 Y-39.918
X-194.221 Y-40.001
X-194.359 Y-40.091
X-194.492 Y-40.189
X-194.621 Y-40.295
X-194.745 Y-40.408
X-194.862 Y-40.528
X-194.972 Y-40.653
X-195.076 Y-40.784
X-195.172 Y-40.922
X-195.262 Y-41.066
X-195.344 Y-41.215
X-195.418 Y-41.368
X-195.483 Y-41.525
X-195.54 Y-41.684
X-195.588 Y-41.848
X-195.628 Y-42.015
X-195.659 Y-42.185
X-195.68 Y-42.357
X-195.692 Y-42.529
X-195.695 Y-42.701
X-195.688 Y-42.873
X-195.672 Y-43.046
X-195.646 Y-43.218
X-195.611 Y-43.39
X-195.567 Y-43.561
X-195.513 Y-43.728
X-195.451 Y-43.892
X-195.379 Y-44.053
X-195.299 Y-44.21
X-195.21 Y-44.363
X-195.113 Y-44.511
X-195.007 Y-44.655
X-194.893 Y-44.793
X-194.771 Y-44.926
X-194.643 Y-45.051
X-194.508 Y-45.169
X-194.366 Y-45.28
X-194.218 Y-45.384
X-194.065 Y-45.479
X-193.907 Y-45.566
X-193.742 Y-45.645
X-193.574 Y-45.715
X-193.401 Y-45.776
X-193.225 Y-45.827
X-193.045 Y-45.87
X-192.864 Y-45.902
X-192.68 Y-45.924
X-192.496 Y-45.937
X-192.311 Y-45.94
X-192.125 Y-45.932
X-191.94 Y-45.915
X-191.756 Y-45.887
X-191.573 Y-45.849
X-191.392 Y-45.802
X-191.213 Y-45.744
X-191.037 Y-45.677
X-190.864 Y-45.6
X-190.696 Y-45.513
X-190.532 Y-45.418
X-190.373 Y-45.313
X-190.219 Y-45.199
X-190.072 Y-45.077
X-189.931 Y-44.948
X-189.797 Y-44.81
X-189.671 Y-44.665
X-189.552 Y-44.513
X-189.442 Y-44.354
X-189.34 Y-44.19
X-189.247 Y-44.019
X-189.163 Y-43.844
X-189.089 Y-43.664
X-189.024 Y-43.48
X-188.969 Y-43.292
X-188.925 Y-43.101
X-188.89 Y-42.907
X-188.867 Y-42.711
X-188.853 Y-42.514
X-188.851 Y-42.316
X-188.859 Y-42.118
X-188.879 Y-41.92
X-188.908 Y-41.723
X-188.949 Y-41.527
X-189 Y-41.334
X-189.062 Y-41.142
X-189.134 Y-40.955
X-189.217 Y-40.771
X-189.309 Y-40.591
X-189.412 Y-40.417
X-189.524 Y-40.247
X-189.645 Y-40.084
X-189.775 Y-39.927
X-189.914 Y-39.777
X-190.061 Y-39.635
X-190.216 Y-39.5
X-190.308 Y-39.429
X-190.366 Y-39.385
X-190.425 Y-39.344
X-190.486 Y-39.304
X-190.638 Y-39.209
X-190.875 Y-39.069
X-191.105 Y-38.986
X-191.544 Y-38.832
X-191.656 Y-38.798
X-191.767 Y-38.781
X-192.436 Y-38.706
X-192.548 Y-38.704
X-192.882 Y-38.741
X-193.105 Y-38.766
X-193.328 Y-38.794
X-193.552 Y-38.865
X-193.998 Y-39.022
X-194.109 Y-39.061
X-194.221 Y-39.12
X-194.717 Y-39.432
X-194.89 Y-39.55
X-194.997 Y-39.655
X-195.336 Y-39.993
X-195.442 Y-40.101
X-195.506 Y-40.184
X-195.874 Y-40.77
X-195.934 Y-40.881
X-195.975 Y-40.993
X-196.131 Y-41.439
X-196.204 Y-41.662
X-196.228 Y-41.845
X-196.295 Y-42.443
Y-42.554
X-196.22 Y-43.223
X-196.204 Y-43.335
X-196.171 Y-43.446
X-196.005 Y-43.921
X-195.936 Y-44.115
X-195.806 Y-44.338
X-195.526 Y-44.785
X-195.445 Y-44.896
X-195.335 Y-45.008
X-195.112 Y-45.231
X-194.885 Y-45.454
X-194.667 Y-45.6
X-194.221 Y-45.88
X-194.189 Y-45.9
X-194.093 Y-45.945
X-193.552 Y-46.135
X-193.328 Y-46.206
X-193.105 Y-46.234
X-192.659 Y-46.284
X-192.548 Y-46.296
X-192.436 Y-46.294
X-191.767 Y-46.219
X-191.656 Y-46.202
X-191.544 Y-46.168
X-191.098 Y-46.012
X-190.875 Y-45.931
X-190.811 Y-45.9
X-190.206 Y-45.52
X-190.115 Y-45.454
X-189.983 Y-45.326
X-189.665 Y-45.008
X-189.537 Y-44.875
X-189.474 Y-44.785
X-189.194 Y-44.338
X-189.091 Y-44.172
X-189.064 Y-44.115
X-188.907 Y-43.669
X-188.829 Y-43.446
X-188.796 Y-43.335
X-188.78 Y-43.223
X-188.705 Y-42.554
Y-42.443
X-188.768 Y-41.885
X-188.796 Y-41.662
X-188.869 Y-41.439
X-189.025 Y-40.993
X-189.091 Y-40.83
X-189.126 Y-40.77
X-189.406 Y-40.324
X-189.537 Y-40.126
X-189.558 Y-40.101
X-189.78 Y-39.878
X-190.003 Y-39.655
X-190.104 Y-39.555
X-190.206 Y-39.48
X-190.486 Y-39.304
X-190.538 Y-39.285 Z0.006 F750
X-190.587 Y-39.267 Z0.025
X-190.631 Y-39.251 Z0.055
X-190.668 Y-39.238 Z0.094
X-190.696 Y-39.228 Z0.141
X-190.714 Y-39.225 Z0.194
X-190.72 Y-39.224 Z0.249
G0 Z17
X-189.03 Y-128.52
Z12.685
G1 Z12.05 F750
Z0
X-189.018 Y-128.556 F850
X-188.98 Y-128.559
X-188.958 Y-128.529
Y-128.492
X-188.976 Y-128.459
X-189.008 Y-128.439
X-189.045 Y-128.436
X-189.08 Y-128.45
X-189.106 Y-128.477
X-189.118 Y-128.512
X-189.114 Y-128.55
X-189.096 Y-128.582
X-189.069 Y-128.609
X-189.036 Y-128.627
X-188.999 Y-128.632
X-188.962 Y-128.624
X-188.93 Y-128.606
X-188.904 Y-128.578
X-188.888 Y-128.545
X-188.881 Y-128.508
X-188.887 Y-128.433
X-188.929 Y-128.371
X-188.995 Y-128.335
X-189.07 Y-128.329
X-189.141 Y-128.353
X-189.197 Y-128.402
X-189.231 Y-128.469
X-189.24 Y-128.543
X-189.225 Y-128.617
X-189.188 Y-128.682
X-189.132 Y-128.732
X-189.063 Y-128.762
X-188.989 Y-128.771
X-188.915 Y-128.758
X-188.848 Y-128.725
X-188.737 Y-128.624
X-188.69 Y-128.482
X-188.714 Y-128.334
X-188.798 Y-128.21
X-188.925 Y-128.13
X-189.073 Y-128.105
X-189.22 Y-128.136
X-189.346 Y-128.217
X-189.438 Y-128.336
X-189.485 Y-128.478
Y-128.628
X-189.438 Y-128.771
X-189.35 Y-128.892
X-189.23 Y-128.982
X-189.089 Y-129.034
X-188.94 Y-129.044
X-188.792 Y-129.018
X-188.657 Y-128.952
X-188.543 Y-128.855
X-188.457 Y-128.733
X-188.403 Y-128.593
X-188.384 Y-128.444
X-188.401 Y-128.295
X-188.451 Y-128.153
X-188.533 Y-128.027
X-188.639 Y-127.921
X-188.765 Y-127.841
X-188.906 Y-127.789
X-189.054 Y-127.767
X-189.204 Y-127.777
X-189.349 Y-127.815
X-189.484 Y-127.881
X-189.603 Y-127.972
X-189.703 Y-128.083
X-189.781 Y-128.212
X-189.834 Y-128.352
X-189.859 Y-128.5
Y-128.65
X-189.832 Y-128.798
X-189.78 Y-128.938
X-189.704 Y-129.068
X-189.607 Y-129.182
X-189.492 Y-129.279
X-189.364 Y-129.356
X-189.224 Y-129.411
X-189.078 Y-129.444
X-188.928 Y-129.452
X-188.779 Y-129.438
X-188.633 Y-129.401
X-188.496 Y-129.342
X-188.368 Y-129.263
X-188.254 Y-129.166
X-188.155 Y-129.053
X-188.073 Y-128.927
X-188.011 Y-128.791
X-187.968 Y-128.647
X-187.947 Y-128.499
X-187.946 Y-128.349
X-187.966 Y-128.2
X-188.006 Y-128.055
X-188.065 Y-127.918
X-188.142 Y-127.789
X-188.236 Y-127.672
X-188.344 Y-127.567
X-188.465 Y-127.478
X-188.596 Y-127.406
X-188.735 Y-127.35
X-188.88 Y-127.312
X-189.029 Y-127.293
X-189.179 Y-127.292
X-189.328 Y-127.31
X-189.474 Y-127.346
X-189.614 Y-127.399
X-189.747 Y-127.468
X-189.871 Y-127.553
X-189.984 Y-127.651
X-190.084 Y-127.763
X-190.172 Y-127.885
X-190.244 Y-128.016
X-190.301 Y-128.155
X-190.343 Y-128.299
X-190.367 Y-128.447
X-190.375 Y-128.597
X-190.366 Y-128.746
X-190.341 Y-128.894
X-190.3 Y-129.039
X-190.244 Y-129.178
X-190.172 Y-129.31
X-190.088 Y-129.433
X-189.99 Y-129.548
X-189.881 Y-129.651
X-189.763 Y-129.742
X-189.635 Y-129.821
X-189.5 Y-129.886
X-189.359 Y-129.937
X-189.213 Y-129.973
X-189.065 Y-129.995
X-188.915 Y-130.002
X-188.765 Y-129.993
X-188.617 Y-129.97
X-188.472 Y-129.933
X-188.331 Y-129.881
X-188.195 Y-129.816
X-188.067 Y-129.739
X-187.947 Y-129.65
X-187.835 Y-129.549
X-187.734 Y-129.438
X-187.644 Y-129.319
X-187.565 Y-129.191
X-187.498 Y-129.057
X-187.444 Y-128.917
X-187.404 Y-128.772
X-187.376 Y-128.625
X-187.362 Y-128.475
Y-128.325
X-187.375 Y-128.176
X-187.401 Y-128.028
X-187.441 Y-127.884
X-187.492 Y-127.743
X-187.557 Y-127.607
X-187.633 Y-127.478
X-187.719 Y-127.355
X-187.816 Y-127.241
X-187.923 Y-127.135
X-188.038 Y-127.039
X-188.161 Y-126.953
X-188.29 Y-126.878
X-188.426 Y-126.814
X-188.566 Y-126.761
X-188.711 Y-126.72
X-188.858 Y-126.692
X-189.007 Y-126.675
X-189.157 Y-126.671
X-189.307 Y-126.679
X-189.455 Y-126.7
X-189.602 Y-126.732
X-189.745 Y-126.776
X-189.885 Y-126.831
X-190.019 Y-126.897
X-190.148 Y-126.974
X-190.271 Y-127.061
X-190.386 Y-127.157
X-190.493 Y-127.262
X-190.592 Y-127.374
X-190.682 Y-127.495
X-190.762 Y-127.621
X-190.832 Y-127.754
X-190.892 Y-127.891
X-190.942 Y-128.033
X-190.98 Y-128.178
X-191.007 Y-128.326
X-191.023 Y-128.475
X-191.028 Y-128.625
X-191.022 Y-128.774
X-191.004 Y-128.923
X-190.976 Y-129.071
X-190.936 Y-129.215
X-190.887 Y-129.357
X-190.826 Y-129.494
X-190.757 Y-129.627
X-190.677 Y-129.755
X-190.589 Y-129.876
X-190.492 Y-129.99
X-190.388 Y-130.098
X-190.276 Y-130.198
X-190.157 Y-130.289
X-190.032 Y-130.372
X-189.901 Y-130.446
X-189.766 Y-130.51
X-189.626 Y-130.565
X-189.483 Y-130.61
X-189.337 Y-130.645
X-189.189 Y-130.67
X-189.04 Y-130.684
X-188.89 Y-130.689
X-188.74 Y-130.683
X-188.591 Y-130.666
X-188.443 Y-130.64
X-188.298 Y-130.604
X-188.155 Y-130.558
X-188.015 Y-130.503
X-187.88 Y-130.438
X-187.749 Y-130.365
X-187.624 Y-130.283
X-187.504 Y-130.193
X-187.39 Y-130.095
X-187.283 Y-129.99
X-187.183 Y-129.878
X-187.09 Y-129.76
X-187.006 Y-129.636
X-186.93 Y-129.507
X-186.862 Y-129.373
X-186.803 Y-129.235
X-186.753 Y-129.094
X-186.712 Y-128.95
X-186.68 Y-128.803
X-186.658 Y-128.655
X-186.645 Y-128.505
X-186.641 Y-128.355
X-186.647 Y-128.205
X-186.663 Y-128.056
X-186.687 Y-127.908
X-186.721 Y-127.762
X-186.764 Y-127.618
X-186.816 Y-127.477
X-186.876 Y-127.34
X-186.945 Y-127.207
X-187.021 Y-127.078
X-187.105 Y-126.954
X-187.197 Y-126.835
X-187.296 Y-126.722
X-187.402 Y-126.615
X-187.513 Y-126.515
X-187.631 Y-126.422
X-187.754 Y-126.336
X-187.881 Y-126.258
X-188.014 Y-126.187
X-188.15 Y-126.124
X-188.29 Y-126.069
X-188.432 Y-126.023
X-188.577 Y-125.985
X-188.725 Y-125.956
X-188.873 Y-125.936
X-189.023 Y-125.924
X-189.173 Y-125.921
X-189.323 Y-125.926
X-189.472 Y-125.94
X-189.62 Y-125.963
X-189.767 Y-125.995
X-189.911 Y-126.034
X-190.054 Y-126.082
X-190.193 Y-126.138
X-190.329 Y-126.202
X-190.461 Y-126.273
X-190.588 Y-126.352
X-190.711 Y-126.438
X-190.829 Y-126.53
X-190.942 Y-126.629
X-191.049 Y-126.734
X-191.15 Y-126.845
X-191.244 Y-126.962
X-191.332 Y-127.083
X-191.413 Y-127.209
X-191.487 Y-127.34
X-191.554 Y-127.474
X-191.613 Y-127.612
X-191.665 Y-127.754
X-191.709 Y-127.897
X-191.745 Y-128.043
X-191.773 Y-128.19
X-191.793 Y-128.341
X-191.805 Y-128.491
X-191.808 Y-128.641
X-191.804 Y-128.793
X-191.791 Y-128.946
X-191.77 Y-129.096
X-191.741 Y-129.244
X-191.703 Y-129.394
X-191.657 Y-129.542
X-191.604 Y-129.685
X-191.543 Y-129.825
X-191.473 Y-129.964
X-191.396 Y-130.1
X-191.312 Y-130.23
X-191.221 Y-130.355
X-191.123 Y-130.477
X-191.016 Y-130.594
X-190.905 Y-130.705
X-190.789 Y-130.809
X-190.666 Y-130.907
X-190.535 Y-130.999
X-190.4 Y-131.085
X-190.262 Y-131.162
X-190.121 Y-131.232
X-189.973 Y-131.294
X-189.821 Y-131.349
X-189.667 Y-131.396
X-189.511 Y-131.434
X-189.354 Y-131.463
X-189.192 Y-131.484
X-189.029 Y-131.497
X-188.866 Y-131.5
X-188.704 Y-131.495
X-188.543 Y-131.481
X-188.38 Y-131.458
X-188.217 Y-131.426
X-188.057 Y-131.385
X-187.9 Y-131.336
X-187.746 Y-131.279
X-187.595 Y-131.213
X-187.445 Y-131.137
X-187.299 Y-131.054
X-187.159 Y-130.963
X-187.024 Y-130.865
X-186.895 Y-130.76
X-186.77 Y-130.647
X-186.65 Y-130.526
X-186.538 Y-130.398
X-186.432 Y-130.265
X-186.334 Y-130.127
X-186.243 Y-129.984
X-186.161 Y-129.835
X-186.085 Y-129.681
X-186.018 Y-129.521
X-185.959 Y-129.359
X-185.91 Y-129.194
X-185.869 Y-129.026
X-185.838 Y-128.856
X-185.816 Y-128.685
X-185.803 Y-128.511
X-185.799 Y-128.335
X-185.805 Y-128.159
X-185.82 Y-127.984
X-185.845 Y-127.81
X-185.88 Y-127.638
X-185.923 Y-127.467
X-185.976 Y-127.299
X-186.039 Y-127.132
X-186.111 Y-126.969
X-186.191 Y-126.809
X-186.281 Y-126.653
X-186.379 Y-126.502
X-186.485 Y-126.357
X-186.599 Y-126.218
X-186.72 Y-126.085
X-186.848 Y-125.958
X-186.984 Y-125.838
X-187.127 Y-125.725
X-187.276 Y-125.62
X-187.431 Y-125.522
X-187.592 Y-125.433
X-187.758 Y-125.353
X-187.928 Y-125.281
X-188.101 Y-125.219
X-188.279 Y-125.166
X-188.459 Y-125.123
X-188.641 Y-125.089
X-188.826 Y-125.066
X-189.011 Y-125.052
X-189.198 Y-125.049
X-189.386 Y-125.055
X-189.573 Y-125.072
X-189.759 Y-125.099
X-189.945 Y-125.137
X-190.128 Y-125.184
X-190.309 Y-125.241
X-190.487 Y-125.308
X-190.662 Y-125.386
X-190.832 Y-125.472
X-190.998 Y-125.568
X-191.159 Y-125.673
X-191.314 Y-125.786
X-191.463 Y-125.909
X-191.606 Y-126.039
X-191.742 Y-126.177
X-191.87 Y-126.323
X-191.99 Y-126.475
X-192.102 Y-126.635
X-192.206 Y-126.8
X-192.301 Y-126.972
X-192.386 Y-127.148
X-192.462 Y-127.33
X-192.528 Y-127.516
X-192.584 Y-127.705
X-192.63 Y-127.897
X-192.666 Y-128.093
X-192.69 Y-128.29
X-192.705 Y-128.489
X-192.708 Y-128.689
X-192.7 Y-128.889
X-192.682 Y-129.089
X-192.653 Y-129.288
X-192.613 Y-129.485
X-192.562 Y-129.681
X-192.5 Y-129.874
X-192.428 Y-130.064
X-192.346 Y-130.25
X-192.254 Y-130.431
X-192.151 Y-130.608
X-192.039 Y-130.779
X-191.917 Y-130.945
X-191.843 Y-131.035
X-191.797 Y-131.089
X-191.75 Y-131.141
X-191.701 Y-131.192
X-191.569 Y-131.324
X-191.433 Y-131.459
X-191.321 Y-131.542
X-190.875 Y-131.822
X-190.652 Y-131.952
X-190.543 Y-131.993
X-189.983 Y-132.189
X-189.901 Y-132.216
X-189.76 Y-132.24
X-189.091 Y-132.315
X-188.979
X-188.422 Y-132.253
X-188.199 Y-132.225
X-188.158 Y-132.216
X-187.976 Y-132.153
X-187.517 Y-131.993
X-187.412 Y-131.955
X-187.306 Y-131.899
X-186.746 Y-131.547
X-186.637 Y-131.468
X-186.414 Y-131.247
X-186.191 Y-131.024
X-186.054 Y-130.878
X-185.968 Y-130.748
X-185.745 Y-130.393
X-185.631 Y-130.208
X-185.54 Y-129.985
X-185.345 Y-129.428
X-185.319 Y-129.316
X-185.268 Y-128.87
X-185.243 Y-128.647
X-185.233 Y-128.536
X-185.239 Y-128.424
X-185.314 Y-127.755
X-185.336 Y-127.644
X-185.373 Y-127.532
X-185.53 Y-127.086
X-185.613 Y-126.863
X-185.75 Y-126.64
X-185.968 Y-126.292
X-186.031 Y-126.194
X-186.063 Y-126.149
X-186.102 Y-126.105
X-186.46 Y-125.748
X-186.637 Y-125.572
X-186.698 Y-125.525
X-187.083 Y-125.282
X-187.306 Y-125.141
X-187.368 Y-125.106
X-187.429 Y-125.079
X-188.064 Y-124.856
X-188.199 Y-124.815
X-188.422 Y-124.787
X-188.979 Y-124.724
X-189.091 Y-124.725
X-189.76 Y-124.8
X-189.871 Y-124.817
X-189.996 Y-124.856
X-190.631 Y-125.079
X-190.652 Y-125.087
X-190.875 Y-125.218
X-191.321 Y-125.498
X-191.362 Y-125.525
X-191.544 Y-125.691
X-191.823 Y-125.971
X-191.99 Y-126.143
X-192.029 Y-126.194
X-192.31 Y-126.64
X-192.436 Y-126.843
X-192.447 Y-126.863
X-192.53 Y-127.086
X-192.687 Y-127.532
X-192.724 Y-127.644
X-192.746 Y-127.755
X-192.821 Y-128.424
X-192.827 Y-128.536
X-192.817 Y-128.647
X-192.741 Y-129.316
X-192.715 Y-129.428
X-192.52 Y-129.985
X-192.436 Y-130.196
X-192.429 Y-130.208
X-192.15 Y-130.655
X-192.006 Y-130.878
X-191.99 Y-130.898
X-191.767 Y-131.126
X-191.701 Y-131.192
X-191.654 Y-131.222 Z0.006 F750
X-191.61 Y-131.25 Z0.025
X-191.571 Y-131.276 Z0.055
X-191.538 Y-131.297 Z0.094
X-191.513 Y-131.313 Z0.141
X-191.496 Y-131.32 Z0.194
X-191.49 Y-131.322 Z0.249
G0 Z17
X-163.52 Y-201.02
Z12.685
G1 Z12.05 F750
Z0
X-163.484 Y-201.033 F850
X-163.458 Y-201.006
X-163.468 Y-200.969
X-163.497 Y-200.946
X-163.534 Y-200.94
X-163.57 Y-200.953
X-163.595 Y-200.98
X-163.607 Y-201.016
X-163.601 Y-201.053
X-163.581 Y-201.084
X-163.549 Y-201.104
X-163.512 Y-201.11
X-163.475 Y-201.106
X-163.44 Y-201.091
X-163.413 Y-201.065
X-163.396 Y-201.032
X-163.391 Y-200.995
X-163.396 Y-200.958
X-163.412 Y-200.924
X-163.437 Y-200.895
X-163.499 Y-200.854
X-163.574 Y-200.849
X-163.643 Y-200.877
X-163.695 Y-200.932
X-163.72 Y-201.003
X-163.716 Y-201.077
X-163.685 Y-201.146
X-163.632 Y-201.199
X-163.566 Y-201.233
X-163.491 Y-201.244
X-163.417 Y-201.231
X-163.351 Y-201.197
X-163.298 Y-201.144
X-163.262 Y-201.078
X-163.246 Y-201.005
X-163.256 Y-200.855
X-163.339 Y-200.73
X-163.47 Y-200.657
X-163.619 Y-200.646
X-163.761 Y-200.696
X-163.872 Y-200.796
X-163.939 Y-200.93
X-163.954 Y-201.079
X-163.918 Y-201.225
X-163.836 Y-201.351
X-163.718 Y-201.444
X-163.577 Y-201.496
X-163.427 Y-201.502
X-163.282 Y-201.464
X-163.154 Y-201.386
X-163.053 Y-201.275
X-162.982 Y-201.143
X-162.95 Y-200.997
X-162.954 Y-200.847
X-162.997 Y-200.703
X-163.073 Y-200.574
X-163.178 Y-200.466
X-163.306 Y-200.387
X-163.447 Y-200.338
X-163.597 Y-200.324
X-163.746 Y-200.341
X-163.887 Y-200.391
X-164.015 Y-200.469
X-164.125 Y-200.571
X-164.21 Y-200.694
X-164.271 Y-200.832
X-164.302 Y-200.978
X-164.306 Y-201.128
X-164.281 Y-201.276
X-164.228 Y-201.417
X-164.151 Y-201.545
X-164.051 Y-201.657
X-163.933 Y-201.75
X-163.801 Y-201.821
X-163.658 Y-201.867
X-163.51 Y-201.889
X-163.36 Y-201.883
X-163.213 Y-201.854
X-163.072 Y-201.801
X-162.943 Y-201.726
X-162.826 Y-201.632
X-162.726 Y-201.52
X-162.645 Y-201.394
X-162.583 Y-201.257
X-162.544 Y-201.112
X-162.526 Y-200.963
X-162.531 Y-200.813
X-162.558 Y-200.666
X-162.606 Y-200.524
X-162.674 Y-200.39
X-162.761 Y-200.267
X-162.863 Y-200.158
X-162.981 Y-200.065
X-163.109 Y-199.988
X-163.248 Y-199.929
X-163.392 Y-199.89
X-163.541 Y-199.87
X-163.691 Y-199.871
X-163.84 Y-199.89
X-163.985 Y-199.93
X-164.123 Y-199.987
X-164.253 Y-200.061
X-164.373 Y-200.152
X-164.48 Y-200.257
X-164.574 Y-200.374
X-164.653 Y-200.501
X-164.716 Y-200.638
X-164.761 Y-200.781
X-164.789 Y-200.928
X-164.8 Y-201.077
X-164.793 Y-201.227
X-164.768 Y-201.375
X-164.727 Y-201.519
X-164.67 Y-201.658
X-164.596 Y-201.789
X-164.509 Y-201.911
X-164.408 Y-202.022
X-164.296 Y-202.121
X-164.173 Y-202.208
X-164.042 Y-202.28
X-163.903 Y-202.337
X-163.759 Y-202.379
X-163.612 Y-202.406
X-163.462 Y-202.416
X-163.312 Y-202.411
X-163.164 Y-202.39
X-163.018 Y-202.354
X-162.877 Y-202.302
X-162.742 Y-202.237
X-162.614 Y-202.158
X-162.495 Y-202.067
X-162.386 Y-201.964
X-162.288 Y-201.851
X-162.201 Y-201.728
X-162.127 Y-201.598
X-162.066 Y-201.461
X-162.019 Y-201.318
X-161.986 Y-201.172
X-161.967 Y-201.023
X-161.962 Y-200.873
X-161.972 Y-200.724
X-161.995 Y-200.576
X-162.033 Y-200.43
X-162.084 Y-200.289
X-162.148 Y-200.154
X-162.224 Y-200.024
X-162.312 Y-199.903
X-162.41 Y-199.789
X-162.518 Y-199.686
X-162.636 Y-199.592
X-162.761 Y-199.509
X-162.893 Y-199.438
X-163.031 Y-199.379
X-163.173 Y-199.332
X-163.319 Y-199.298
X-163.468 Y-199.278
X-163.617 Y-199.269
X-163.767 Y-199.274
X-163.916 Y-199.292
X-164.063 Y-199.322
X-164.207 Y-199.365
X-164.347 Y-199.42
X-164.481 Y-199.486
X-164.61 Y-199.563
X-164.731 Y-199.651
X-164.845 Y-199.749
X-164.951 Y-199.855
X-165.047 Y-199.97
X-165.134 Y-200.093
X-165.21 Y-200.222
X-165.276 Y-200.357
X-165.331 Y-200.496
X-165.374 Y-200.64
X-165.406 Y-200.786
X-165.426 Y-200.935
X-165.434 Y-201.085
X-165.431 Y-201.235
X-165.415 Y-201.384
X-165.388 Y-201.532
X-165.35 Y-201.677
X-165.301 Y-201.818
X-165.241 Y-201.956
X-165.17 Y-202.088
X-165.09 Y-202.215
X-165 Y-202.335
X-164.901 Y-202.448
X-164.794 Y-202.553
X-164.68 Y-202.65
X-164.559 Y-202.738
X-164.431 Y-202.817
X-164.298 Y-202.886
X-164.16 Y-202.946
X-164.018 Y-202.995
X-163.873 Y-203.033
X-163.726 Y-203.061
X-163.577 Y-203.078
X-163.427 Y-203.084
X-163.277 Y-203.079
X-163.128 Y-203.064
X-162.98 Y-203.038
X-162.835 Y-203.002
X-162.692 Y-202.956
X-162.553 Y-202.899
X-162.418 Y-202.833
X-162.289 Y-202.758
X-162.164 Y-202.674
X-162.046 Y-202.581
X-161.935 Y-202.481
X-161.831 Y-202.373
X-161.734 Y-202.258
X-161.646 Y-202.137
X-161.566 Y-202.01
X-161.494 Y-201.878
X-161.432 Y-201.742
X-161.379 Y-201.601
X-161.336 Y-201.458
X-161.302 Y-201.311
X-161.279 Y-201.163
X-161.265 Y-201.014
X-161.261 Y-200.864
X-161.267 Y-200.714
X-161.283 Y-200.565
X-161.308 Y-200.417
X-161.343 Y-200.271
X-161.388 Y-200.128
X-161.441 Y-199.988
X-161.504 Y-199.852
X-161.575 Y-199.72
X-161.655 Y-199.593
X-161.742 Y-199.471
X-161.838 Y-199.355
X-161.94 Y-199.245
X-162.049 Y-199.142
X-162.164 Y-199.046
X-162.285 Y-198.958
X-162.412 Y-198.877
X-162.543 Y-198.804
X-162.679 Y-198.74
X-162.818 Y-198.685
X-162.96 Y-198.637
X-163.105 Y-198.599
X-163.253 Y-198.57
X-163.401 Y-198.55
X-163.551 Y-198.539
X-163.701 Y-198.537
X-163.851 Y-198.544
X-164 Y-198.561
X-164.148 Y-198.586
X-164.294 Y-198.62
X-164.437 Y-198.663
X-164.578 Y-198.714
X-164.716 Y-198.774
X-164.85 Y-198.841
X-164.979 Y-198.917
X-165.104 Y-199
X-165.224 Y-199.09
X-165.339 Y-199.187
X-165.447 Y-199.291
X-165.549 Y-199.4
X-165.645 Y-199.516
X-165.734 Y-199.637
X-165.815 Y-199.763
X-165.89 Y-199.893
X-165.956 Y-200.027
X-166.015 Y-200.165
X-166.066 Y-200.307
X-166.109 Y-200.45
X-166.143 Y-200.596
X-166.169 Y-200.744
X-166.187 Y-200.893
X-166.196 Y-201.043
X-166.197 Y-201.193
X-166.19 Y-201.342
X-166.174 Y-201.492
X-166.149 Y-201.64
X-166.117 Y-201.786
X-166.077 Y-201.931
X-166.028 Y-202.072
X-165.972 Y-202.212
X-165.908 Y-202.347
X-165.837 Y-202.479
X-165.758 Y-202.608
X-165.673 Y-202.731
X-165.581 Y-202.85
X-165.483 Y-202.964
X-165.378 Y-203.073
X-165.267 Y-203.175
X-165.152 Y-203.272
X-165.03 Y-203.363
X-164.902 Y-203.447
X-164.772 Y-203.524
X-164.638 Y-203.594
X-164.497 Y-203.657
X-164.353 Y-203.713
X-164.207 Y-203.76
X-164.06 Y-203.8
X-163.907 Y-203.832
X-163.753 Y-203.855
X-163.599 Y-203.871
X-163.445 Y-203.877
X-163.288 Y-203.876
X-163.13 Y-203.866
X-162.974 Y-203.847
X-162.82 Y-203.82
X-162.667 Y-203.785
X-162.513 Y-203.74
X-162.363 Y-203.688
X-162.216 Y-203.628
X-162.074 Y-203.56
X-161.933 Y-203.483
X-161.795 Y-203.398
X-161.663 Y-203.306
X-161.537 Y-203.208
X-161.416 Y-203.103
X-161.299 Y-202.99
X-161.188 Y-202.87
X-161.084 Y-202.744
X-160.987 Y-202.614
X-160.897 Y-202.479
X-160.814 Y-202.337
X-160.738 Y-202.19
X-160.671 Y-202.039
X-160.611 Y-201.885
X-160.561 Y-201.729
X-160.519 Y-201.569
X-160.484 Y-201.405
X-160.459 Y-201.239
X-160.443 Y-201.073
X-160.436 Y-200.906
X-160.438 Y-200.739
X-160.449 Y-200.571
X-160.47 Y-200.403
X-160.499 Y-200.235
X-160.538 Y-200.07
X-160.585 Y-199.907
X-160.641 Y-199.747
X-160.706 Y-199.59
X-160.78 Y-199.435
X-160.863 Y-199.283
X-160.954 Y-199.136
X-161.053 Y-198.994
X-161.159 Y-198.859
X-161.272 Y-198.729
X-161.393 Y-198.604
X-161.521 Y-198.486
X-161.656 Y-198.374
X-161.798 Y-198.269
X-161.945 Y-198.173
X-162.097 Y-198.084
X-162.253 Y-198.004
X-162.414 Y-197.932
X-162.579 Y-197.869
X-162.748 Y-197.814
X-162.92 Y-197.769
X-163.096 Y-197.733
X-163.274 Y-197.706
X-163.453 Y-197.689
X-163.632 Y-197.682
X-163.812 Y-197.684
X-163.992 Y-197.697
X-164.171 Y-197.719
X-164.349 Y-197.75
X-164.526 Y-197.792
X-164.702 Y-197.843
X-164.874 Y-197.904
X-165.044 Y-197.975
X-165.21 Y-198.055
X-165.372 Y-198.143
X-165.529 Y-198.241
X-165.68 Y-198.347
X-165.826 Y-198.461
X-165.966 Y-198.583
X-166.099 Y-198.713
X-166.225 Y-198.85
X-166.344 Y-198.994
X-166.455 Y-199.145
X-166.558 Y-199.302
X-166.653 Y-199.465
X-166.739 Y-199.633
X-166.816 Y-199.807
X-166.883 Y-199.984
X-166.941 Y-200.165
X-166.99 Y-200.35
X-167.028 Y-200.537
X-167.056 Y-200.727
X-167.074 Y-200.918
X-167.081 Y-201.11
X-167.078 Y-201.303
X-167.065 Y-201.496
X-167.041 Y-201.688
X-167.006 Y-201.879
X-166.962 Y-202.068
X-166.906 Y-202.255
X-166.841 Y-202.439
X-166.766 Y-202.62
X-166.681 Y-202.796
X-166.586 Y-202.969
X-166.481 Y-203.136
X-166.368 Y-203.298
X-166.245 Y-203.453
X-166.114 Y-203.602
X-165.975 Y-203.745
X-165.828 Y-203.879
X-165.674 Y-204.006
X-165.513 Y-204.125
X-165.344 Y-204.234
X-165.17 Y-204.335
X-164.991 Y-204.427
X-164.806 Y-204.508
X-164.617 Y-204.58
X-164.423 Y-204.642
X-164.226 Y-204.693
X-164.027 Y-204.733
X-163.824 Y-204.763
X-163.62 Y-204.781
X-163.415 Y-204.789
X-163.298 Y-204.787
X-163.23 Y-204.785
X-163.161 Y-204.78
X-163.093 Y-204.774
X-162.995 Y-204.763
X-162.772 Y-204.738
X-162.69 Y-204.725
X-162.609 Y-204.703
X-161.972 Y-204.48
X-161.88 Y-204.445
X-161.657 Y-204.311
X-161.211 Y-204.031
X-161.155 Y-203.991
X-161.099 Y-203.942
X-160.745 Y-203.588
X-160.542 Y-203.375
X-160.534 Y-203.365
X-160.392 Y-203.142
X-160.252 Y-202.919
X-160.114 Y-202.696
X-160.096 Y-202.661
X-160.026 Y-202.473
X-159.831 Y-201.915
X-159.807 Y-201.804
X-159.731 Y-201.135
X-159.722 Y-201.023
X-159.73 Y-200.912
X-159.806 Y-200.243
X-159.829 Y-200.131
X-159.873 Y-200.005
X-160.024 Y-199.574
X-160.096 Y-199.379
X-160.11 Y-199.351
X-160.248 Y-199.127
X-160.388 Y-198.904
X-160.529 Y-198.681
X-160.542 Y-198.664
X-160.739 Y-198.458
X-161.097 Y-198.1
X-161.152 Y-198.052
X-161.211 Y-198.009
X-161.657 Y-197.729
X-161.88 Y-197.595
X-161.953 Y-197.566
X-162.59 Y-197.343
X-162.681 Y-197.317
X-162.772 Y-197.302
X-163.441 Y-197.227
X-163.553 Y-197.223
X-163.664 Y-197.234
X-164.11 Y-197.285
X-164.333 Y-197.311
X-164.45 Y-197.343
X-165.087 Y-197.566
X-165.156 Y-197.593
X-165.226 Y-197.63
X-165.834 Y-198.012
X-165.895 Y-198.056
X-166.078 Y-198.235
X-166.341 Y-198.498
X-166.511 Y-198.681
X-166.564 Y-198.763
X-166.792 Y-199.127
X-166.93 Y-199.351
X-167.01 Y-199.556
X-167.209 Y-200.127
X-167.233 Y-200.234
X-167.31 Y-200.912
X-167.318 Y-201.023
X-167.309 Y-201.135
X-167.233 Y-201.806
X-167.208 Y-201.917
X-167.01 Y-202.484
X-166.926 Y-202.696
X-166.787 Y-202.921
X-166.564 Y-203.277
X-166.506 Y-203.365
X-166.341 Y-203.542
X-166.071 Y-203.811
X-165.895 Y-203.984
X-165.823 Y-204.034
X-165.226 Y-204.41
X-165.147 Y-204.451
X-165.068 Y-204.48
X-164.431 Y-204.703
X-164.333 Y-204.729
X-164.11 Y-204.755
X-163.664 Y-204.806
X-163.553 Y-204.817
X-163.441 Y-204.813
X-163.093 Y-204.774
X-163.04 Y-204.756 Z0.006 F750
X-162.991 Y-204.739 Z0.025
X-162.946 Y-204.724 Z0.055
X-162.909 Y-204.712 Z0.094
X-162.881 Y-204.703 Z0.141
X-162.865 Y-204.693 Z0.194
X-162.859 Y-204.69 Z0.249
G0 Z17
X-163.52 Y-126.02
Z12.685
G1 Z12.05 F750
Z0
X-163.484 Y-126.032 F850
X-163.458 Y-126.006
X-163.468 Y-125.97
X-163.497 Y-125.946
X-163.534 Y-125.94
X-163.569 Y-125.952
X-163.595 Y-125.979
X-163.607 Y-126.015
X-163.601 Y-126.052
X-163.581 Y-126.084
X-163.549 Y-126.104
X-163.512 Y-126.11
X-163.475 Y-126.107
X-163.44 Y-126.092
X-163.414 Y-126.066
X-163.396 Y-126.032
X-163.391 Y-125.995
X-163.396 Y-125.958
X-163.412 Y-125.924
X-163.436 Y-125.896
X-163.498 Y-125.854
X-163.573 Y-125.848
X-163.643 Y-125.877
X-163.694 Y-125.931
X-163.72 Y-126.002
X-163.716 Y-126.077
X-163.686 Y-126.145
X-163.633 Y-126.199
X-163.567 Y-126.233
X-163.492 Y-126.244
X-163.418 Y-126.232
X-163.352 Y-126.198
X-163.298 Y-126.145
X-163.262 Y-126.079
X-163.246 Y-126.006
X-163.255 Y-125.856
X-163.337 Y-125.731
X-163.468 Y-125.657
X-163.617 Y-125.645
X-163.759 Y-125.694
X-163.871 Y-125.794
X-163.938 Y-125.928
X-163.954 Y-126.077
X-163.919 Y-126.223
X-163.837 Y-126.349
X-163.72 Y-126.443
X-163.58 Y-126.495
X-163.43 Y-126.503
X-163.284 Y-126.466
X-163.156 Y-126.388
X-163.054 Y-126.278
X-162.983 Y-126.146
X-162.95 Y-125.999
X-162.954 Y-125.849
X-162.996 Y-125.705
X-163.071 Y-125.576
X-163.175 Y-125.468
X-163.303 Y-125.388
X-163.444 Y-125.339
X-163.593 Y-125.324
X-163.742 Y-125.34
X-163.884 Y-125.389
X-164.013 Y-125.466
X-164.123 Y-125.568
X-164.209 Y-125.691
X-164.27 Y-125.828
X-164.302 Y-125.975
X-164.306 Y-126.125
X-164.282 Y-126.273
X-164.23 Y-126.413
X-164.153 Y-126.542
X-164.054 Y-126.655
X-163.937 Y-126.748
X-163.805 Y-126.82
X-163.662 Y-126.866
X-163.514 Y-126.889
X-163.364 Y-126.884
X-163.217 Y-126.855
X-163.076 Y-126.803
X-162.946 Y-126.729
X-162.829 Y-126.635
X-162.729 Y-126.523
X-162.646 Y-126.398
X-162.584 Y-126.261
X-162.545 Y-126.117
X-162.526 Y-125.968
X-162.53 Y-125.818
X-162.556 Y-125.67
X-162.604 Y-125.528
X-162.672 Y-125.394
X-162.757 Y-125.271
X-162.859 Y-125.161
X-162.976 Y-125.067
X-163.104 Y-124.989
X-163.242 Y-124.931
X-163.387 Y-124.891
X-163.536 Y-124.87
X-163.686
X-163.834 Y-124.889
X-163.979 Y-124.927
X-164.118 Y-124.984
X-164.249 Y-125.058
X-164.369 Y-125.148
X-164.477 Y-125.252
X-164.571 Y-125.369
X-164.65 Y-125.496
X-164.714 Y-125.632
X-164.76 Y-125.775
X-164.789 Y-125.922
X-164.801 Y-126.071
X-164.794 Y-126.221
X-164.77 Y-126.369
X-164.73 Y-126.514
X-164.673 Y-126.652
X-164.6 Y-126.784
X-164.513 Y-126.906
X-164.413 Y-127.018
X-164.301 Y-127.118
X-164.179 Y-127.205
X-164.048 Y-127.277
X-163.909 Y-127.335
X-163.766 Y-127.378
X-163.618 Y-127.405
X-163.469 Y-127.416
X-163.319 Y-127.412
X-163.17 Y-127.391
X-163.024 Y-127.356
X-162.883 Y-127.305
X-162.748 Y-127.24
X-162.62 Y-127.162
X-162.5 Y-127.072
X-162.391 Y-126.969
X-162.292 Y-126.856
X-162.205 Y-126.734
X-162.13 Y-126.604
X-162.068 Y-126.468
X-162.02 Y-126.326
X-161.986 Y-126.179
X-161.967 Y-126.031
X-161.961 Y-125.881
X-161.97 Y-125.731
X-161.993 Y-125.583
X-162.03 Y-125.437
X-162.08 Y-125.296
X-162.143 Y-125.16
X-162.219 Y-125.03
X-162.306 Y-124.908
X-162.404 Y-124.795
X-162.512 Y-124.69
X-162.629 Y-124.596
X-162.753 Y-124.513
X-162.885 Y-124.441
X-163.023 Y-124.382
X-163.165 Y-124.334
X-163.311 Y-124.299
X-163.459 Y-124.278
X-163.609 Y-124.269
X-163.759 Y-124.273
X-163.908 Y-124.29
X-164.055 Y-124.32
X-164.199 Y-124.362
X-164.339 Y-124.416
X-164.474 Y-124.482
X-164.603 Y-124.558
X-164.725 Y-124.646
X-164.839 Y-124.743
X-164.945 Y-124.849
X-165.042 Y-124.963
X-165.129 Y-125.085
X-165.207 Y-125.214
X-165.273 Y-125.348
X-165.328 Y-125.488
X-165.372 Y-125.631
X-165.405 Y-125.777
X-165.425 Y-125.926
X-165.434 Y-126.076
X-165.432 Y-126.226
X-165.417 Y-126.375
X-165.391 Y-126.523
X-165.353 Y-126.668
X-165.304 Y-126.81
X-165.245 Y-126.948
X-165.175 Y-127.08
X-165.095 Y-127.207
X-165.006 Y-127.328
X-164.908 Y-127.441
X-164.802 Y-127.547
X-164.688 Y-127.645
X-164.567 Y-127.733
X-164.44 Y-127.813
X-164.307 Y-127.883
X-164.169 Y-127.943
X-164.028 Y-127.992
X-163.883 Y-128.031
X-163.736 Y-128.06
X-163.587 Y-128.078
X-163.437 Y-128.084
X-163.287 Y-128.081
X-163.138 Y-128.066
X-162.99 Y-128.041
X-162.844 Y-128.005
X-162.701 Y-127.96
X-162.562 Y-127.904
X-162.427 Y-127.838
X-162.297 Y-127.764
X-162.172 Y-127.68
X-162.054 Y-127.588
X-161.942 Y-127.488
X-161.837 Y-127.381
X-161.74 Y-127.267
X-161.651 Y-127.146
X-161.57 Y-127.019
X-161.498 Y-126.888
X-161.436 Y-126.752
X-161.382 Y-126.611
X-161.338 Y-126.468
X-161.304 Y-126.322
X-161.279 Y-126.174
X-161.265 Y-126.025
X-161.26 Y-125.875
X-161.265 Y-125.725
X-161.28 Y-125.576
X-161.305 Y-125.428
X-161.34 Y-125.282
X-161.383 Y-125.138
X-161.436 Y-124.998
X-161.498 Y-124.861
X-161.569 Y-124.729
X-161.648 Y-124.602
X-161.735 Y-124.479
X-161.83 Y-124.363
X-161.932 Y-124.253
X-162.04 Y-124.149
X-162.155 Y-124.053
X-162.276 Y-123.964
X-162.402 Y-123.882
X-162.533 Y-123.809
X-162.668 Y-123.744
X-162.807 Y-123.688
X-162.949 Y-123.64
X-163.094 Y-123.601
X-163.241 Y-123.571
X-163.389 Y-123.551
X-163.539 Y-123.539
X-163.689 Y-123.536
X-163.839 Y-123.543
X-163.988 Y-123.558
X-164.136 Y-123.583
X-164.282 Y-123.616
X-164.426 Y-123.658
X-164.567 Y-123.709
X-164.705 Y-123.768
X-164.839 Y-123.835
X-164.969 Y-123.91
X-165.095 Y-123.992
X-165.215 Y-124.082
X-165.33 Y-124.178
X-165.439 Y-124.282
X-165.542 Y-124.391
X-165.638 Y-124.506
X-165.727 Y-124.626
X-165.809 Y-124.752
X-165.884 Y-124.882
X-165.952 Y-125.016
X-166.011 Y-125.154
X-166.063 Y-125.294
X-166.106 Y-125.438
X-166.141 Y-125.584
X-166.168 Y-125.731
X-166.186 Y-125.88
X-166.196 Y-126.03
X-166.198 Y-126.18
X-166.191 Y-126.33
X-166.176 Y-126.479
X-166.152 Y-126.627
X-166.121 Y-126.774
X-166.081 Y-126.918
X-166.033 Y-127.061
X-165.978 Y-127.2
X-165.914 Y-127.336
X-165.844 Y-127.468
X-165.766 Y-127.597
X-165.681 Y-127.721
X-165.59 Y-127.84
X-165.492 Y-127.954
X-165.387 Y-128.064
X-165.278 Y-128.167
X-165.163 Y-128.264
X-165.041 Y-128.355
X-164.914 Y-128.441
X-164.784 Y-128.518
X-164.65 Y-128.588
X-164.509 Y-128.652
X-164.365 Y-128.709
X-164.22 Y-128.757
X-164.073 Y-128.797
X-163.921 Y-128.83
X-163.766 Y-128.854
X-163.612 Y-128.87
X-163.458 Y-128.878
X-163.302 Y-128.877
X-163.143 Y-128.867
X-162.987 Y-128.849
X-162.834 Y-128.823
X-162.68 Y-128.789
X-162.526 Y-128.745
X-162.375 Y-128.693
X-162.229 Y-128.634
X-162.086 Y-128.567
X-161.945 Y-128.491
X-161.806 Y-128.406
X-161.674 Y-128.315
X-161.547 Y-128.217
X-161.426 Y-128.113
X-161.308 Y-128
X-161.196 Y-127.881
X-161.092 Y-127.756
X-160.994 Y-127.626
X-160.904 Y-127.491
X-160.821 Y-127.35
X-160.744 Y-127.203
X-160.676 Y-127.053
X-160.616 Y-126.899
X-160.564 Y-126.743
X-160.521 Y-126.583
X-160.486 Y-126.42
X-160.46 Y-126.254
X-160.443 Y-126.087
X-160.436 Y-125.921
X-160.437 Y-125.754
X-160.447 Y-125.586
X-160.467 Y-125.417
X-160.496 Y-125.249
X-160.533 Y-125.084
X-160.58 Y-124.921
X-160.635 Y-124.761
X-160.7 Y-124.603
X-160.773 Y-124.448
X-160.855 Y-124.296
X-160.945 Y-124.148
X-161.043 Y-124.006
X-161.149 Y-123.87
X-161.261 Y-123.739
X-161.382 Y-123.614
X-161.509 Y-123.495
X-161.644 Y-123.383
X-161.785 Y-123.278
X-161.931 Y-123.18
X-162.083 Y-123.091
X-162.239 Y-123.01
X-162.399 Y-122.937
X-162.564 Y-122.873
X-162.733 Y-122.818
X-162.905 Y-122.772
X-163.081 Y-122.735
X-163.258 Y-122.707
X-163.437 Y-122.689
X-163.616 Y-122.681
X-163.796 Y-122.683
X-163.976 Y-122.694
X-164.155 Y-122.716
X-164.334 Y-122.746
X-164.511 Y-122.787
X-164.687 Y-122.838
X-164.86 Y-122.898
X-165.03 Y-122.968
X-165.196 Y-123.047
X-165.358 Y-123.135
X-165.516 Y-123.231
X-165.668 Y-123.336
X-165.814 Y-123.45
X-165.954 Y-123.572
X-166.088 Y-123.701
X-166.215 Y-123.837
X-166.334 Y-123.981
X-166.446 Y-124.131
X-166.55 Y-124.288
X-166.645 Y-124.45
X-166.732 Y-124.618
X-166.81 Y-124.791
X-166.878 Y-124.968
X-166.937 Y-125.149
X-166.986 Y-125.333
X-167.026 Y-125.521
X-167.055 Y-125.71
X-167.073 Y-125.901
X-167.082 Y-126.093
X-167.08 Y-126.286
X-167.067 Y-126.479
X-167.044 Y-126.671
X-167.01 Y-126.862
X-166.967 Y-127.052
X-166.912 Y-127.239
X-166.848 Y-127.423
X-166.773 Y-127.604
X-166.689 Y-127.781
X-166.595 Y-127.954
X-166.491 Y-128.122
X-166.379 Y-128.284
X-166.257 Y-128.44
X-166.127 Y-128.59
X-165.988 Y-128.733
X-165.842 Y-128.868
X-165.688 Y-128.996
X-165.527 Y-129.115
X-165.36 Y-129.226
X-165.186 Y-129.327
X-165.007 Y-129.42
X-164.823 Y-129.502
X-164.633 Y-129.575
X-164.44 Y-129.637
X-164.244 Y-129.689
X-164.044 Y-129.731
X-163.842 Y-129.761
X-163.638 Y-129.781
X-163.433 Y-129.789
X-163.316 Y-129.788
X-163.244 Y-129.786
X-163.172 Y-129.781
X-163.1 Y-129.774
X-162.995 Y-129.763
X-162.772 Y-129.738
X-162.661 Y-129.719
X-162.549 Y-129.683
X-162.103 Y-129.526
X-161.88 Y-129.445
X-161.657 Y-129.311
X-161.211 Y-129.031
X-161.119 Y-128.961
X-160.988 Y-128.831
X-160.583 Y-128.424
X-160.542 Y-128.376
X-160.429 Y-128.201
X-160.149 Y-127.755
X-160.096 Y-127.661
X-160.047 Y-127.532
X-159.873 Y-127.035
X-159.817 Y-126.863
X-159.788 Y-126.64
X-159.725 Y-126.082
Y-125.971
X-159.774 Y-125.525
X-159.799 Y-125.302
X-159.815 Y-125.19
X-159.847 Y-125.079
X-160.003 Y-124.632
X-160.082 Y-124.409
X-160.096 Y-124.38
X-160.211 Y-124.186
X-160.491 Y-123.74
X-160.542 Y-123.665
X-160.68 Y-123.517
X-160.988 Y-123.209
X-161.129 Y-123.071
X-161.211 Y-123.009
X-161.824 Y-122.625
X-161.88 Y-122.595
X-162.103 Y-122.514
X-162.549 Y-122.357
X-162.661 Y-122.321
X-162.772 Y-122.302
X-163.441 Y-122.227
X-163.553 Y-122.223
X-163.664 Y-122.234
X-164.11 Y-122.285
X-164.333 Y-122.311
X-164.556 Y-122.38
X-165.109 Y-122.574
X-165.216 Y-122.625
X-165.672 Y-122.91
X-165.895 Y-123.058
X-165.911 Y-123.071
X-166.137 Y-123.294
X-166.36 Y-123.517
X-166.469 Y-123.629
X-166.549 Y-123.74
X-166.899 Y-124.298
X-166.932 Y-124.354
X-166.957 Y-124.409
X-167.037 Y-124.632
X-167.193 Y-125.079
X-167.218 Y-125.156
X-167.233 Y-125.234
X-167.291 Y-125.748
X-167.315 Y-125.971
Y-126.082
X-167.233 Y-126.807
X-167.223 Y-126.863
X-167.149 Y-127.086
X-166.993 Y-127.532
X-166.952 Y-127.644
X-166.891 Y-127.755
X-166.564 Y-128.277
X-166.516 Y-128.35
X-166.458 Y-128.424
X-166.118 Y-128.765
X-166.013 Y-128.87
X-165.895 Y-128.983
X-165.73 Y-129.093
X-165.226 Y-129.41
X-165.17 Y-129.44
X-165.114 Y-129.464
X-164.556 Y-129.66
X-164.333 Y-129.729
X-164.047 Y-129.762
X-163.664 Y-129.806
X-163.553 Y-129.817
X-163.441 Y-129.813
X-163.1 Y-129.774
X-163.048 Y-129.757 Z0.006 F750
X-162.998 Y-129.74 Z0.025
X-162.954 Y-129.725 Z0.055
X-162.917 Y-129.713 Z0.094
X-162.888 Y-129.703 Z0.141
X-162.872 Y-129.694 Z0.194
X-162.867 Y-129.691 Z0.249
G0 Z17
X-161.02 Y-100.51
Z12.685
G1 Z12.05 F750
Z0
X-160.984 Y-100.522 F850
X-160.958 Y-100.496
X-160.968 Y-100.46
X-160.997 Y-100.436
X-161.034 Y-100.43
X-161.069 Y-100.442
X-161.095 Y-100.469
X-161.107 Y-100.505
X-161.101 Y-100.542
X-161.081 Y-100.574
X-161.049 Y-100.594
X-161.012 Y-100.6
X-160.975 Y-100.597
X-160.94 Y-100.582
X-160.914 Y-100.556
X-160.896 Y-100.522
X-160.891 Y-100.485
X-160.896 Y-100.448
X-160.912 Y-100.414
X-160.936 Y-100.386
X-160.998 Y-100.344
X-161.073 Y-100.338
X-161.143 Y-100.367
X-161.194 Y-100.421
X-161.22 Y-100.492
X-161.216 Y-100.567
X-161.186 Y-100.635
X-161.133 Y-100.689
X-161.067 Y-100.723
X-160.992 Y-100.734
X-160.918 Y-100.722
X-160.852 Y-100.687
X-160.798 Y-100.635
X-160.762 Y-100.569
X-160.746 Y-100.496
X-160.755 Y-100.346
X-160.838 Y-100.221
X-160.968 Y-100.147
X-161.118 Y-100.135
X-161.259 Y-100.184
X-161.371 Y-100.284
X-161.438 Y-100.418
X-161.454 Y-100.568
X-161.419 Y-100.713
X-161.337 Y-100.839
X-161.22 Y-100.933
X-161.079 Y-100.985
X-160.93 Y-100.993
X-160.784 Y-100.955
X-160.656 Y-100.878
X-160.554 Y-100.767
X-160.483 Y-100.635
X-160.45 Y-100.489
X-160.454 Y-100.339
X-160.496 Y-100.195
X-160.571 Y-100.066
X-160.676 Y-99.958
X-160.803 Y-99.878
X-160.944 Y-99.829
X-161.094 Y-99.814
X-161.243 Y-99.83
X-161.384 Y-99.879
X-161.513 Y-99.956
X-161.623 Y-100.058
X-161.709 Y-100.181
X-161.77 Y-100.318
X-161.802 Y-100.465
X-161.806 Y-100.615
X-161.782 Y-100.763
X-161.73 Y-100.904
X-161.653 Y-101.033
X-161.554 Y-101.145
X-161.437 Y-101.239
X-161.305 Y-101.31
X-161.162 Y-101.357
X-161.014 Y-101.379
X-160.864 Y-101.374
X-160.717 Y-101.345
X-160.576 Y-101.293
X-160.446 Y-101.219
X-160.329 Y-101.125
X-160.229 Y-101.013
X-160.146 Y-100.888
X-160.084 Y-100.751
X-160.045 Y-100.606
X-160.026 Y-100.458
X-160.03 Y-100.308
X-160.057 Y-100.16
X-160.104 Y-100.018
X-160.172 Y-99.884
X-160.257 Y-99.761
X-160.36 Y-99.651
X-160.477 Y-99.557
X-160.605 Y-99.479
X-160.743 Y-99.421
X-160.887 Y-99.381
X-161.036 Y-99.36
X-161.186
X-161.335 Y-99.379
X-161.48 Y-99.418
X-161.619 Y-99.475
X-161.749 Y-99.548
X-161.869 Y-99.638
X-161.977 Y-99.742
X-162.072 Y-99.859
X-162.151 Y-99.986
X-162.214 Y-100.122
X-162.26 Y-100.265
X-162.289 Y-100.412
X-162.301 Y-100.562
X-162.294 Y-100.712
X-162.27 Y-100.86
X-162.229 Y-101.004
X-162.172 Y-101.143
X-162.1 Y-101.274
X-162.013 Y-101.396
X-161.913 Y-101.508
X-161.801 Y-101.608
X-161.679 Y-101.695
X-161.547 Y-101.767
X-161.409 Y-101.825
X-161.265 Y-101.868
X-161.118 Y-101.895
X-160.968 Y-101.906
X-160.818 Y-101.902
X-160.67 Y-101.881
X-160.524 Y-101.846
X-160.383 Y-101.795
X-160.247 Y-101.73
X-160.119 Y-101.652
X-160 Y-101.561
X-159.891 Y-101.459
X-159.792 Y-101.346
X-159.704 Y-101.224
X-159.63 Y-101.094
X-159.568 Y-100.957
X-159.52 Y-100.815
X-159.486 Y-100.669
X-159.467 Y-100.52
X-159.461 Y-100.37
X-159.47 Y-100.221
X-159.493 Y-100.072
X-159.53 Y-99.927
X-159.581 Y-99.786
X-159.644 Y-99.65
X-159.719 Y-99.52
X-159.807 Y-99.398
X-159.904 Y-99.284
X-160.012 Y-99.18
X-160.129 Y-99.086
X-160.254 Y-99.003
X-160.386 Y-98.931
X-160.523 Y-98.872
X-160.666 Y-98.824
X-160.812 Y-98.789
X-160.96 Y-98.768
X-161.11 Y-98.759
X-161.26 Y-98.763
X-161.409 Y-98.78
X-161.556 Y-98.81
X-161.7 Y-98.852
X-161.84 Y-98.906
X-161.974 Y-98.972
X-162.103 Y-99.049
X-162.225 Y-99.136
X-162.34 Y-99.233
X-162.446 Y-99.339
X-162.543 Y-99.454
X-162.63 Y-99.576
X-162.707 Y-99.704
X-162.773 Y-99.839
X-162.828 Y-99.978
X-162.872 Y-100.122
X-162.905 Y-100.268
X-162.925 Y-100.417
X-162.934 Y-100.566
X-162.932 Y-100.716
X-162.917 Y-100.866
X-162.891 Y-101.013
X-162.853 Y-101.159
X-162.804 Y-101.3
X-162.745 Y-101.438
X-162.675 Y-101.571
X-162.595 Y-101.698
X-162.506 Y-101.818
X-162.408 Y-101.932
X-162.301 Y-102.038
X-162.187 Y-102.135
X-162.066 Y-102.224
X-161.939 Y-102.303
X-161.806 Y-102.373
X-161.669 Y-102.433
X-161.527 Y-102.482
X-161.382 Y-102.521
X-161.235 Y-102.55
X-161.086 Y-102.568
X-160.936 Y-102.574
X-160.786 Y-102.571
X-160.637 Y-102.556
X-160.489 Y-102.531
X-160.343 Y-102.495
X-160.201 Y-102.449
X-160.061 Y-102.394
X-159.926 Y-102.328
X-159.796 Y-102.253
X-159.672 Y-102.17
X-159.553 Y-102.078
X-159.441 Y-101.978
X-159.337 Y-101.87
X-159.24 Y-101.756
X-159.151 Y-101.635
X-159.07 Y-101.509
X-158.998 Y-101.377
X-158.935 Y-101.241
X-158.882 Y-101.101
X-158.838 Y-100.957
X-158.804 Y-100.811
X-158.779 Y-100.663
X-158.765 Y-100.514
X-158.76 Y-100.364
X-158.766 Y-100.214
X-158.781 Y-100.065
X-158.805 Y-99.917
X-158.84 Y-99.771
X-158.884 Y-99.628
X-158.937 Y-99.487
X-158.999 Y-99.351
X-159.07 Y-99.218
X-159.149 Y-99.091
X-159.236 Y-98.969
X-159.33 Y-98.852
X-159.432 Y-98.742
X-159.541 Y-98.639
X-159.656 Y-98.542
X-159.776 Y-98.453
X-159.902 Y-98.372
X-160.033 Y-98.299
X-160.169 Y-98.234
X-160.308 Y-98.178
X-160.45 Y-98.13
X-160.595 Y-98.091
X-160.742 Y-98.061
X-160.89 Y-98.04
X-161.04 Y-98.029
X-161.19 Y-98.026
X-161.34 Y-98.033
X-161.489 Y-98.048
X-161.637 Y-98.073
X-161.783 Y-98.107
X-161.927 Y-98.149
X-162.068 Y-98.199
X-162.206 Y-98.258
X-162.34 Y-98.325
X-162.47 Y-98.4
X-162.596 Y-98.483
X-162.716 Y-98.573
X-162.83 Y-98.669
X-162.939 Y-98.772
X-163.042 Y-98.882
X-163.138 Y-98.997
X-163.228 Y-99.117
X-163.31 Y-99.243
X-163.385 Y-99.373
X-163.452 Y-99.507
X-163.511 Y-99.644
X-163.563 Y-99.785
X-163.606 Y-99.929
X-163.641 Y-100.075
X-163.668 Y-100.222
X-163.686 Y-100.371
X-163.696 Y-100.521
X-163.698 Y-100.671
X-163.691 Y-100.821
X-163.676 Y-100.97
X-163.652 Y-101.118
X-163.62 Y-101.265
X-163.581 Y-101.409
X-163.533 Y-101.551
X-163.477 Y-101.691
X-163.414 Y-101.827
X-163.343 Y-101.959
X-163.265 Y-102.088
X-163.181 Y-102.212
X-163.089 Y-102.331
X-162.992 Y-102.445
X-162.887 Y-102.555
X-162.777 Y-102.658
X-162.662 Y-102.754
X-162.54 Y-102.846
X-162.413 Y-102.931
X-162.283 Y-103.009
X-162.149 Y-103.079
X-162.009 Y-103.143
X-161.864 Y-103.199
X-161.719 Y-103.247
X-161.572 Y-103.287
X-161.42 Y-103.32
X-161.265 Y-103.344
X-161.111 Y-103.36
X-160.957 Y-103.368
X-160.801 Y-103.367
X-160.642 Y-103.357
X-160.486 Y-103.339
X-160.333 Y-103.313
X-160.179 Y-103.278
X-160.025 Y-103.235
X-159.875 Y-103.183
X-159.728 Y-103.123
X-159.585 Y-103.056
X-159.444 Y-102.98
X-159.306 Y-102.896
X-159.173 Y-102.805
X-159.046 Y-102.707
X-158.925 Y-102.602
X-158.808 Y-102.49
X-158.696 Y-102.37
X-158.591 Y-102.245
X-158.494 Y-102.115
X-158.404 Y-101.98
X-158.32 Y-101.839
X-158.244 Y-101.692
X-158.175 Y-101.542
X-158.115 Y-101.388
X-158.064 Y-101.232
X-158.021 Y-101.072
X-157.986 Y-100.909
X-157.96 Y-100.743
X-157.943 Y-100.576
X-157.936 Y-100.41
X-157.937 Y-100.243
X-157.947 Y-100.075
X-157.967 Y-99.906
X-157.996 Y-99.738
X-158.034 Y-99.573
X-158.08 Y-99.41
X-158.136 Y-99.25
X-158.2 Y-99.092
X-158.273 Y-98.937
X-158.356 Y-98.785
X-158.446 Y-98.637
X-158.544 Y-98.495
X-158.649 Y-98.359
X-158.762 Y-98.228
X-158.882 Y-98.104
X-159.01 Y-97.985
X-159.145 Y-97.872
X-159.286 Y-97.767
X-159.432 Y-97.67
X-159.584 Y-97.58
X-159.74 Y-97.499
X-159.9 Y-97.427
X-160.065 Y-97.363
X-160.234 Y-97.308
X-160.406 Y-97.262
X-160.582 Y-97.225
X-160.759 Y-97.197
X-160.938 Y-97.179
X-161.117 Y-97.171
X-161.297 Y-97.173
X-161.477 Y-97.185
X-161.656 Y-97.206
X-161.835 Y-97.237
X-162.012 Y-97.278
X-162.188 Y-97.328
X-162.361 Y-97.388
X-162.531 Y-97.458
X-162.697 Y-97.537
X-162.859 Y-97.625
X-163.016 Y-97.722
X-163.168 Y-97.827
X-163.315 Y-97.941
X-163.455 Y-98.062
X-163.589 Y-98.191
X-163.715 Y-98.328
X-163.835 Y-98.472
X-163.947 Y-98.622
X-164.05 Y-98.779
X-164.146 Y-98.941
X-164.233 Y-99.109
X-164.31 Y-99.282
X-164.379 Y-99.459
X-164.438 Y-99.64
X-164.487 Y-99.825
X-164.526 Y-100.012
X-164.555 Y-100.201
X-164.573 Y-100.392
X-164.582 Y-100.585
X-164.579 Y-100.777
X-164.567 Y-100.97
X-164.544 Y-101.162
X-164.51 Y-101.353
X-164.466 Y-101.543
X-164.412 Y-101.73
X-164.347 Y-101.914
X-164.273 Y-102.095
X-164.188 Y-102.272
X-164.094 Y-102.445
X-163.991 Y-102.613
X-163.878 Y-102.775
X-163.756 Y-102.931
X-163.626 Y-103.081
X-163.487 Y-103.224
X-163.341 Y-103.359
X-163.187 Y-103.486
X-163.026 Y-103.606
X-162.859 Y-103.716
X-162.685 Y-103.818
X-162.506 Y-103.91
X-162.321 Y-103.993
X-162.132 Y-104.065
X-161.939 Y-104.128
X-161.742 Y-104.18
X-161.543 Y-104.221
X-161.341 Y-104.251
X-161.137 Y-104.271
X-160.932 Y-104.279
X-160.815 Y-104.278
X-160.743 Y-104.276
X-160.671 Y-104.271
X-160.6 Y-104.264
X-160.542 Y-104.258
X-160.319 Y-104.233
X-160.207 Y-104.219
X-160.096 Y-104.189
X-159.427 Y-103.954
X-159.363 Y-103.926
X-159.299 Y-103.89
X-158.757 Y-103.55
X-158.685 Y-103.503
X-158.612 Y-103.444
X-158.388 Y-103.221
X-158.088 Y-102.921
X-158.029 Y-102.848
X-157.981 Y-102.775
X-157.642 Y-102.235
X-157.605 Y-102.17
X-157.576 Y-102.106
X-157.342 Y-101.436
X-157.312 Y-101.325
X-157.297 Y-101.213
X-157.247 Y-100.767
X-157.223 Y-100.544
X-157.24 Y-100.321
X-157.29 Y-99.875
X-157.321 Y-99.652
X-157.396 Y-99.429
X-157.552 Y-98.983
X-157.589 Y-98.884
X-157.642 Y-98.785
X-158.005 Y-98.207
X-158.043 Y-98.153
X-158.088 Y-98.099
X-158.543 Y-97.645
X-158.65 Y-97.544
X-158.757 Y-97.47
X-159.315 Y-97.12
X-159.371 Y-97.09
X-159.427 Y-97.065
X-160.096 Y-96.831
X-160.207 Y-96.801
X-160.319 Y-96.787
X-160.765 Y-96.737
X-160.988 Y-96.714
X-161.211 Y-96.73
X-161.657 Y-96.78
X-161.88 Y-96.811
X-162.103 Y-96.886
X-162.549 Y-97.043
X-162.661 Y-97.085
X-162.772 Y-97.149
X-163.33 Y-97.5
X-163.385 Y-97.541
X-163.441 Y-97.589
X-163.943 Y-98.091
X-163.992 Y-98.147
X-164.032 Y-98.202
X-164.382 Y-98.76
X-164.446 Y-98.871
X-164.488 Y-98.983
X-164.644 Y-99.429
X-164.719 Y-99.652
X-164.75 Y-99.875
X-164.8 Y-100.321
X-164.817 Y-100.544
X-164.779 Y-100.885
X-164.743 Y-101.213
X-164.728 Y-101.325
X-164.698 Y-101.436
X-164.464 Y-102.106
X-164.439 Y-102.161
X-164.409 Y-102.217
X-164.059 Y-102.775
X-163.987 Y-102.88
X-163.875 Y-102.998
X-163.441 Y-103.431
X-163.428 Y-103.444
X-163.375 Y-103.488
X-163.323 Y-103.525
X-162.741 Y-103.89
X-162.645 Y-103.941
X-162.549 Y-103.977
X-162.103 Y-104.133
X-161.88 Y-104.209
X-161.657 Y-104.24
