%
(1001)
(z0 botom machine -5-5)
(T1  D=6 CR=0 TAPER=118deg - ZMIN=0 - drill)
G90 G94
G17
G21

(Pilots)
M9
T1 M6
S4000 M3
G54
M9
G0 X-32.5 Y-185
Z27
Z17
Z14
G1 Z6 F400
G0 Z6.12
G1 Z0 F400
G0 Z17
X-52.5
Z14
G1 Z6 F400
G0 Z6.12
G1 Z0 F400
G0 Z17
X-98.86 Y-200
Z14
G1 Z6 F400
G0 Z6.12
G1 Z0 F400
G0 Z17
X-118.86
Z14
G1 Z6 F400
G0 Z6.12
G1 Z0 F400
G0 Z17
X-160.22 Y-185
Z14
G1 Z6 F400
G0 Z6.12
G1 Z0 F400
G0 Z17
X-206.58 Y-200
Z14
G1 Z6 F400
G0 Z6.12
G1 Z0 F400
G0 Z17
X-247.94 Y-185
Z14
G1 Z6 F400
G0 Z6.12
G1 Z0 F400
G0 Z17
X-279.3 Y-200
Z14
G1 Z6 F400
G0 Z6.12
G1 Z0 F400
G0 Z17
Y-125
Z14
G1 Z6 F400
G0 Z6.12
G1 Z0 F400
G0 Z17
Y-95
Z14
G1 Z6 F400
G0 Z6.12
G1 Z0 F400
G0 Z17
X-247.94 Y-110
Z14
G1 Z6 F400
G0 Z6.12
G1 Z0 F400
G0 Z17
X-206.58 Y-95
Z14
G1 Z6 F400
G0 Z6.12
G1 Z0 F400
G0 Z17
Y-125
Z14
G1 Z6 F400
G0 Z6.12
G1 Z0 F400
G0 Z17
X-160.22 Y-110
Z14
G1 Z6 F400
G0 Z6.12
G1 Z0 F400
G0 Z17
X-118.86 Y-95
Z14
G1 Z6 F400
G0 Z6.12
G1 Z0 F400
G0 Z17
X-98.86
Z14
G1 Z6 F400
G0 Z6.12
G1 Z0 F400
G0 Z17
Y-125
Z14
G1 Z6 F400
G0 Z6.12
G1 Z0 F400
G0 Z17
X-118.86
Z14
G1 Z6 F400
G0 Z6.12
G1 Z0 F400
G0 Z17
X-52.5 Y-110
Z14
G1 Z6 F400
G0 Z6.12
G1 Z0 F400
G0 Z17
X-32.5
Z14
G1 Z6 F400
G0 Z6.12
G1 Z0 F400
G0 Z17
Y-35
Z14
G1 Z6 F400
G0 Z6.12
G1 Z0 F400
G0 Z17
X-52.5
Z14
G1 Z6 F400
G0 Z6.12
G1 Z0 F400
G0 Z17
X-98.86 Y-20
Z14
G1 Z6 F400
G0 Z6.12
G1 Z0 F400
G0 Z17
X-118.86
Z14
G1 Z6 F400
G0 Z6.12
G1 Z0 F400
G0 Z17
X-160.22 Y-35
Z14
G1 Z6 F400
G0 Z6.12
G1 Z0 F400
G0 Z17
X-206.58 Y-20
Z14
G1 Z6 F400
G0 Z6.12
G1 Z0 F400
G0 Z17
X-247.94 Y-35
Z14
G1 Z6 F400
G0 Z6.12
G1 Z0 F400
G0 Z17
X-279.3 Y-20
Z14
G1 Z6 F400
G0 Z6.12
G1 Z0 F400
G0 Z17
Z27
M9
M30
%
