%
(pilot_holes_6mm)
(z0 botom machine -5-5)
(T1  D=6 CR=0 TAPER=118deg - ZMIN=0 - drill)
G90 G94
G17
G21

(Drill2)
M9
T1 M6
S4000 M3
G54
M9
G0 X-42.5 Y-318.01
Z27
Z17
Z14
G1 Z7 F400
G0 Z7.12
G1 Z2 F400
G0 Z2.12
G1 Z0 F400
G0 Z17
X-105.51 Y-248.01
Z14
G1 Z7 F400
G0 Z7.12
G1 Z2 F400
G0 Z2.12
G1 Z0 F400
G0 Z17
X-42.5 Y-243.01
Z14
G1 Z7 F400
G0 Z7.12
G1 Z2 F400
G0 Z2.12
G1 Z0 F400
G0 Z17
Y-192.5
Z14
G1 Z7 F400
G0 Z7.12
G1 Z2 F400
G0 Z2.12
G1 Z0 F400
G0 Z17
X-105.51 Y-173.01
Z14
G1 Z7 F400
G0 Z7.12
G1 Z2 F400
G0 Z2.12
G1 Z0 F400
G0 Z17
X-163.52 Y-201.02
Z14
G1 Z7 F400
G0 Z7.12
G1 Z2 F400
G0 Z2.12
G1 Z0 F400
G0 Z17
X-42.5 Y-117.5
Z14
G1 Z7 F400
G0 Z7.12
G1 Z2 F400
G0 Z2.12
G1 Z0 F400
G0 Z17
Y-42.5
Z14
G1 Z7 F400
G0 Z7.12
G1 Z2 F400
G0 Z2.12
G1 Z0 F400
G0 Z17
X-117.5
Z14
G1 Z7 F400
G0 Z7.12
G1 Z2 F400
G0 Z2.12
G1 Z0 F400
G0 Z17
X-105.51 Y-98.01
Z14
G1 Z7 F400
G0 Z7.12
G1 Z2 F400
G0 Z2.12
G1 Z0 F400
G0 Z17
X-161.02 Y-100.51
Z14
G1 Z7 F400
G0 Z7.12
G1 Z2 F400
G0 Z2.12
G1 Z0 F400
G0 Z17
X-163.52 Y-126.02
Z14
G1 Z7 F400
G0 Z7.12
G1 Z2 F400
G0 Z2.12
G1 Z0 F400
G0 Z17
X-189.03 Y-128.52
Z14
G1 Z7 F400
G0 Z7.12
G1 Z2 F400
G0 Z2.12
G1 Z0 F400
G0 Z17
X-236.02 Y-100.51
Z14
G1 Z7 F400
G0 Z7.12
G1 Z2 F400
G0 Z2.12
G1 Z0 F400
G0 Z17
X-264.03 Y-128.52
Z14
G1 Z7 F400
G0 Z7.12
G1 Z2 F400
G0 Z2.12
G1 Z0 F400
G0 Z17
X-311.02 Y-100.51
Z14
G1 Z7 F400
G0 Z7.12
G1 Z2 F400
G0 Z2.12
G1 Z0 F400
G0 Z17
X-318.01 Y-42.5
Z14
G1 Z7 F400
G0 Z7.12
G1 Z2 F400
G0 Z2.12
G1 Z0 F400
G0 Z17
X-243.01
Z14
G1 Z7 F400
G0 Z7.12
G1 Z2 F400
G0 Z2.12
G1 Z0 F400
G0 Z17
X-192.5
Z14
G1 Z7 F400
G0 Z7.12
G1 Z2 F400
G0 Z2.12
G1 Z0 F400
G0 Z17
Z27
M9
M30
%
