%
(1001)
(origin stock top)
(T1  D=12.7 CR=0 TAPER=30deg - ZMIN=-6.329 - chamfer mill)
G90 G94
G17
G21

(Engrave1)
M9
T1 M6
S9000 M3
G54
G0 X-207.321 Y-49.778
Z15
Z5
G1 Z0 F849.6
X-207.266 Y-49.786 Z-0.015
X-207.088 Y-49.818 Z-0.071
X-206.994 Y-49.837 Z-0.103
X-206.808 Y-49.879 Z-0.176
X-206.71 Y-49.904 Z-0.218
X-206.525 Y-49.954 Z-0.305
X-206.338 Y-50.009 Z-0.401
X-206.157 Y-50.066 Z-0.5
X-205.814 Y-50.179 Z-0.695
X-205.755 Y-50.2 Z-0.732
X-205.696 Y-50.223 Z-0.772
X-205.427 Y-50.336 Z-0.966
X-205.015 Y-50.509 Z-1.267
X-204.729 Y-50.633 Z-1.481
X-204.437 Y-50.762 Z-1.705
X-204.14 Y-50.898 Z-1.941
X-203.832 Y-51.044 Z-2.193
X-203.533 Y-51.19 Z-2.446
X-203.233 Y-51.339 Z-2.704
X-201.447 Y-52.254 Z-4.289
X-201.261 Y-52.005 Z-3.857
X-201.013 Y-51.684 Z-3.301
X-200.841 Y-51.465 Z-2.923
X-200.73 Y-51.328 Z-2.686
X-200.619 Y-51.199 Z-2.463
X-200.508 Y-51.078 Z-2.253
X-200.397 Y-50.965 Z-2.056
X-200.286 Y-50.859 Z-1.872
X-200.175 Y-50.76 Z-1.702
X-200.064 Y-50.67 Z-1.545
X-199.953 Y-50.587 Z-1.402
X-199.721 Y-50.424 Z-1.12
X-199.597 Y-50.34 Z-0.974
X-199.493 Y-50.272 Z-0.856
X-199.39 Y-50.208 Z-0.745
X-199.276 Y-50.141 Z-0.629
X-199.155 Y-50.075 Z-0.515
X-199.052 Y-50.023 Z-0.426
X-198.929 Y-49.968 Z-0.329
X-198.825 Y-49.926 Z-0.257
X-198.72 Y-49.889 Z-0.192
X-198.629 Y-49.86 Z-0.142
X-198.537 Y-49.833 Z-0.096
X-198.449 Y-49.811 Z-0.058
X-198.364 Y-49.792 Z-0.025
X-198.292 Y-49.778 Z0
X-198.364 Y-49.792 Z-0.025
X-198.449 Y-49.811 Z-0.058
X-198.537 Y-49.833 Z-0.096
X-198.629 Y-49.86 Z-0.142
X-198.72 Y-49.889 Z-0.192
X-198.825 Y-49.926 Z-0.257
X-198.929 Y-49.968 Z-0.329
X-199.052 Y-50.023 Z-0.426
X-199.155 Y-50.075 Z-0.515
X-199.276 Y-50.141 Z-0.629
X-199.39 Y-50.208 Z-0.745
X-199.493 Y-50.272 Z-0.856
X-199.597 Y-50.34 Z-0.974
X-199.721 Y-50.424 Z-1.12
X-199.953 Y-50.587 Z-1.402
X-200.064 Y-50.67 Z-1.545
X-200.175 Y-50.76 Z-1.702
X-200.286 Y-50.859 Z-1.872
X-200.397 Y-50.965 Z-2.056
X-200.508 Y-51.078 Z-2.253
X-200.619 Y-51.199 Z-2.463
X-200.73 Y-51.328 Z-2.686
X-200.841 Y-51.465 Z-2.923
X-201.013 Y-51.684 Z-3.301
X-201.261 Y-52.005 Z-3.857
X-201.447 Y-52.254 Z-4.289
X-201.357 Y-52.43 Z-4.237
X-201.282 Y-52.572 Z-4.199
X-201.206 Y-52.711 Z-4.167
X-201.127 Y-52.849 Z-4.138
X-201.047 Y-52.984 Z-4.115
X-200.939 Y-53.158 Z-4.09
X-200.858 Y-53.285 Z-4.076
X-200.734 Y-53.473 Z-4.061
X-200.608 Y-53.658 Z-4.053
X-200.458 Y-53.869 Z-4.05
X-200.333 Y-54.042
X-197.386 Y-58.204 Z-3.994
X-197.277 Y-58.367 Z-4
X-197.173 Y-58.534 Z-4.019
X-197.075 Y-58.706 Z-4.05
X-196.983 Y-58.881 Z-4.093
X-196.897 Y-59.061 Z-4.149
X-196.816 Y-59.244 Z-4.217
X-196.742 Y-59.432 Z-4.297
X-196.673 Y-59.624 Z-4.39
X-196.611 Y-59.819 Z-4.495
X-196.554 Y-60.019 Z-4.613
X-196.503 Y-60.223 Z-4.743
X-196.457 Y-60.431 Z-4.885
X-196.418 Y-60.644 Z-5.039
X-196.465 Y-60.679 Z-4.978
X-196.608 Y-60.785 Z-4.798
X-196.753 Y-60.888 Z-4.625
X-196.906 Y-60.991 Z-4.452
X-197.059 Y-61.09 Z-4.29
X-197.216 Y-61.186 Z-4.134
X-197.378 Y-61.281 Z-3.987
X-197.538 Y-61.369 Z-3.854
X-197.706 Y-61.456 Z-3.729
X-197.871 Y-61.537 Z-3.62
X-198.04 Y-61.615 Z-3.523
X-198.215 Y-61.69 Z-3.44
X-198.388 Y-61.758 Z-3.374
X-198.557 Y-61.82 Z-3.326
X-198.725 Y-61.876 Z-3.293
X-198.876 Y-61.923 Z-3.277
X-199.035 Y-61.966 Z-3.272
X-199.183 Y-62.004 Z-3.277
X-199.463 Y-62.077 Z-3.292
X-199.853 Y-62.182 Z-3.316
X-200.009 Y-62.229 Z-3.33
X-200.112 Y-62.263 Z-3.344
X-200.216 Y-62.301 Z-3.363
X-200.316 Y-62.34 Z-3.384
X-200.465 Y-62.405 Z-3.423
X-200.732 Y-62.529 Z-3.499
X-200.885 Y-62.604 Z-3.541
X-201.052 Y-62.691 Z-3.588
X-201.161 Y-62.75 Z-3.619
X-201.34 Y-62.853 Z-3.67
X-201.42 Y-62.902 Z-3.693
X-201.539 Y-62.979 Z-3.728
X-201.706 Y-63.096 Z-3.775
X-201.837 Y-63.196 Z-3.814
X-201.928 Y-63.269 Z-3.842
X-202.06 Y-63.381 Z-3.885
X-202.198 Y-63.506 Z-3.932
X-202.36 Y-63.664 Z-3.996
X-202.488 Y-63.796 Z-4.054
X-202.635 Y-63.956 Z-4.126
X-202.78 Y-64.128 Z-4.211
X-202.832 Y-64.191 Z-4.243
X-202.903 Y-64.312 Z-4.266
X-203.011 Y-64.508 Z-4.309
X-203.052 Y-64.589 Z-4.328
X-203.104 Y-64.693 Z-4.353
X-203.166 Y-64.826 Z-4.385
X-203.213 Y-64.934 Z-4.411
X-203.266 Y-65.065 Z-4.44
X-203.306 Y-65.176 Z-4.462
X-203.325 Y-65.234 Z-4.471
X-203.362 Y-65.372 Z-4.487
X-203.379 Y-65.448 Z-4.491
X-203.418 Y-65.657 Z-4.498
X-203.443 Y-65.827 Z-4.499
X-203.466 Y-66.026
X-203.485 Y-66.221 Z-4.498
X-203.51 Y-66.544 Z-4.494
X-203.52 Y-66.794 Z-4.502
X-203.521 Y-66.824 Z-4.504
X-203.512 Y-66.986 Z-4.5
X-203.492 Y-67.285 Z-4.497
X-203.468 Y-67.559 Z-4.496
X-203.44 Y-67.807 Z-4.498
X-203.413 Y-68.001 Z-4.503
X-203.374 Y-68.226 Z-4.509
X-203.353 Y-68.326 Z-4.511
X-203.307 Y-68.52 Z-4.514
X-203.281 Y-68.613
X-203.252 Y-68.703 Z-4.512
X-203.218 Y-68.798 Z-4.507
X-203.183 Y-68.885 Z-4.498
X-203.165 Y-68.923 Z-4.492
X-203.121 Y-69.013 Z-4.475
X-203.049 Y-69.143 Z-4.445
X-202.987 Y-69.245 Z-4.418
X-202.884 Y-69.403 Z-4.375
X-202.804 Y-69.513 Z-4.345
X-202.705 Y-69.645 Z-4.309
X-202.544 Y-69.846 Z-4.259
X-202.396 Y-70.017 Z-4.222
X-202.328 Y-70.092 Z-4.207
X-202.2 Y-70.229 Z-4.183
X-202.087 Y-70.322 Z-4.138
X-201.896 Y-70.471 Z-4.067
X-201.74 Y-70.587 Z-4.011
X-201.587 Y-70.693 Z-3.955
X-201.477 Y-70.765 Z-3.912
X-201.355 Y-70.84 Z-3.861
X-201.2 Y-70.927 Z-3.8
X-201.116 Y-70.97 Z-3.769
X-201.023 Y-71.015 Z-3.737
X-200.923 Y-71.06 Z-3.707
X-200.821 Y-71.103 Z-3.679
X-200.715 Y-71.144 Z-3.654
X-200.599 Y-71.185 Z-3.631
X-200.466 Y-71.229 Z-3.611
X-200.03 Y-71.344 Z-3.516
X-199.677 Y-71.431 Z-3.443
X-199.453 Y-71.483 Z-3.402
X-199.273 Y-71.521 Z-3.37
X-199.09 Y-71.558 Z-3.34
X-198.878 Y-71.596 Z-3.31
X-198.662 Y-71.63 Z-3.282
X-198.394 Y-71.666 Z-3.253
X-198.215 Y-71.685 Z-3.236
X-198.035 Y-71.702 Z-3.221
X-197.853 Y-71.717 Z-3.209
X-197.664 Y-71.729 Z-3.198
X-197.335 Y-71.744 Z-3.185
X-197.102 Y-71.751 Z-3.179
X-196.788 Y-71.757 Z-3.175
X-196.318 Y-71.76
X-196.126
X-187.297
X-187.111 Y-71.756 Z-3.182
X-186.925 Y-71.744 Z-3.202
X-186.739 Y-71.725 Z-3.236
X-186.554 Y-71.698 Z-3.283
X-186.368 Y-71.663 Z-3.343
X-186.182 Y-71.621 Z-3.417
X-185.996 Y-71.57 Z-3.504
X-185.81 Y-71.512 Z-3.605
X-185.624 Y-71.446 Z-3.719
X-185.439 Y-71.373 Z-3.846
X-185.253 Y-71.291 Z-3.987
X-185.067 Y-71.202 Z-4.141
X-184.881 Y-71.106 Z-4.309
X-184.695 Y-71.001 Z-4.49
X-184.509 Y-70.889 Z-4.684
X-183.509 Y-71.886 Z-2.957
X-183.24 Y-72.142 Z-2.514
X-183.061 Y-72.303 Z-2.235
X-182.905 Y-72.438 Z-2.002
X-182.792 Y-72.531 Z-1.84
X-182.669 Y-72.628 Z-1.672
X-182.561 Y-72.709 Z-1.531
X-182.458 Y-72.783 Z-1.404
X-182.329 Y-72.87 Z-1.252
X-182.192 Y-72.958 Z-1.1
X-182.054 Y-73.041 Z-0.956
X-181.922 Y-73.117 Z-0.826
X-181.764 Y-73.204 Z-0.674
X-181.689 Y-73.243 Z-0.607
X-181.614 Y-73.277 Z-0.548
X-181.489 Y-73.325 Z-0.465
X-181.314 Y-73.388 Z-0.356
X-181.182 Y-73.433 Z-0.277
X-181.053 Y-73.474 Z-0.206
X-180.923 Y-73.513 Z-0.14
X-180.793 Y-73.546 Z-0.082
X-180.668 Y-73.575 Z-0.032
X-180.578 Y-73.593 Z0
X-180.668 Y-73.575 Z-0.032
X-180.793 Y-73.546 Z-0.082
X-180.923 Y-73.513 Z-0.14
X-181.053 Y-73.474 Z-0.206
X-181.182 Y-73.433 Z-0.277
X-181.314 Y-73.388 Z-0.356
X-181.489 Y-73.325 Z-0.465
X-181.614 Y-73.277 Z-0.548
X-181.689 Y-73.243 Z-0.607
X-181.764 Y-73.204 Z-0.674
X-181.922 Y-73.117 Z-0.826
X-182.054 Y-73.041 Z-0.956
X-182.192 Y-72.958 Z-1.1
X-182.329 Y-72.87 Z-1.252
X-182.458 Y-72.783 Z-1.404
X-182.561 Y-72.709 Z-1.531
X-182.669 Y-72.628 Z-1.672
X-182.792 Y-72.531 Z-1.84
X-182.905 Y-72.438 Z-2.002
X-183.061 Y-72.303 Z-2.235
X-183.24 Y-72.142 Z-2.514
X-183.509 Y-71.886 Z-2.957
X-184.509 Y-70.889 Z-4.684
X-184.468 Y-70.695 Z-4.612
X-184.433 Y-70.501 Z-4.551
X-184.404 Y-70.306 Z-4.501
X-184.381 Y-70.112 Z-4.463
X-184.365 Y-69.918 Z-4.435
X-184.356 Y-69.724 Z-4.418
X-184.352 Y-69.53 Z-4.413
Y-63.949
X-184.356 Y-63.746 Z-4.419
X-184.366 Y-63.543 Z-4.437
X-184.384 Y-63.34 Z-4.467
X-184.408 Y-63.138 Z-4.509
X-184.44 Y-62.935 Z-4.564
X-184.478 Y-62.732 Z-4.63
X-184.524 Y-62.529 Z-4.709
X-184.576 Y-62.327 Z-4.799
X-184.635 Y-62.124 Z-4.902
X-184.702 Y-61.921 Z-5.017
X-184.775 Y-61.718 Z-5.144
X-184.951 Z-4.919
X-185.123 Z-4.707
X-185.292 Z-4.507
X-185.458 Z-4.319
X-185.621 Z-4.145
X-185.781 Z-3.983
X-185.939 Z-3.835
X-186.096 Z-3.7
X-186.25 Z-3.58
X-186.326 Z-3.526
X-186.402 Z-3.475
X-186.478 Z-3.428
X-186.554 Z-3.384
X-186.629 Z-3.345
X-186.704 Z-3.31
X-186.778 Z-3.279
X-186.853 Z-3.251
X-186.927 Z-3.228
X-187.001 Z-3.209
X-187.075 Z-3.194
X-187.149 Z-3.184
X-187.223 Z-3.178
X-193.192 Z-3.175
X-193.371 Y-61.715 Z-3.182
X-193.55 Y-61.704 Z-3.2
X-193.729 Y-61.686 Z-3.231
X-193.907 Y-61.661 Z-3.275
X-194.086 Y-61.629 Z-3.331
X-194.265 Y-61.589 Z-3.399
X-194.444 Y-61.543 Z-3.48
X-194.623 Y-61.489 Z-3.573
X-194.802 Y-61.428 Z-3.678
X-194.98 Y-61.36 Z-3.796
X-195.159 Y-61.285 Z-3.927
X-195.338 Y-61.202 Z-4.07
X-195.517 Y-61.112 Z-4.225
X-196.174 Y-60.77 Z-4.818
X-196.418 Y-60.644 Z-5.039
X-196.174 Y-60.77 Z-4.818
X-195.517 Y-61.112 Z-4.225
X-195.338 Y-61.202 Z-4.07
X-195.159 Y-61.285 Z-3.927
X-194.98 Y-61.36 Z-3.796
X-194.802 Y-61.428 Z-3.678
X-194.623 Y-61.489 Z-3.573
X-194.444 Y-61.543 Z-3.48
X-194.265 Y-61.589 Z-3.399
X-194.086 Y-61.629 Z-3.331
X-193.907 Y-61.661 Z-3.275
X-193.729 Y-61.686 Z-3.231
X-193.55 Y-61.704 Z-3.2
X-193.371 Y-61.715 Z-3.182
X-193.192 Y-61.718 Z-3.175
X-187.223 Z-3.178
X-187.149 Z-3.184
X-187.075 Z-3.194
X-187.001 Z-3.209
X-186.927 Z-3.228
X-186.853 Z-3.251
X-186.778 Z-3.279
X-186.704 Z-3.31
X-186.629 Z-3.345
X-186.554 Z-3.384
X-186.478 Z-3.428
X-186.402 Z-3.475
X-186.326 Z-3.526
X-186.25 Z-3.58
X-186.096 Z-3.7
X-185.939 Z-3.835
X-185.781 Z-3.983
X-185.621 Z-4.145
X-185.458 Z-4.319
X-185.292 Z-4.507
X-185.123 Z-4.707
X-184.951 Z-4.919
X-184.775 Z-5.144
X-184.702 Y-61.516 Z-5.017
X-184.635 Y-61.313 Z-4.902
X-184.576 Y-61.11 Z-4.799
X-184.524 Y-60.907 Z-4.709
X-184.478 Y-60.705 Z-4.63
X-184.44 Y-60.502 Z-4.564
X-184.408 Y-60.299 Z-4.509
X-184.384 Y-60.096 Z-4.467
X-184.366 Y-59.894 Z-4.437
X-184.356 Y-59.691 Z-4.419
X-184.352 Y-59.488 Z-4.413
Y-52.325
X-183.51 Y-51.486 Z-2.959
X-183.285 Y-51.272 Z-2.589
X-183.066 Y-51.074 Z-2.245
X-182.936 Y-50.961 Z-2.05
X-182.787 Y-50.838 Z-1.836
X-182.678 Y-50.751 Z-1.686
X-182.554 Y-50.657 Z-1.524
X-182.396 Y-50.546 Z-1.33
X-182.254 Y-50.452 Z-1.168
X-182.141 Y-50.381 Z-1.045
X-181.976 Y-50.284 Z-0.877
X-181.829 Y-50.201 Z-0.734
X-181.676 Y-50.119 Z-0.59
X-181.603 Y-50.085 Z-0.532
X-181.48 Y-50.037 Z-0.45
X-181.307 Y-49.973 Z-0.339
X-181.174 Y-49.927 Z-0.259
X-181.05 Y-49.887 Z-0.189
X-180.926 Y-49.85 Z-0.126
X-180.842 Y-49.828 Z-0.087
X-180.714 Y-49.798 Z-0.035
X-180.617 Y-49.778 Z0
X-180.714 Y-49.798 Z-0.035
X-180.842 Y-49.828 Z-0.087
X-180.926 Y-49.85 Z-0.126
X-181.05 Y-49.887 Z-0.189
X-181.174 Y-49.927 Z-0.259
X-181.307 Y-49.973 Z-0.339
X-181.48 Y-50.037 Z-0.45
X-181.603 Y-50.085 Z-0.532
X-181.676 Y-50.119 Z-0.59
X-181.829 Y-50.201 Z-0.734
X-181.976 Y-50.284 Z-0.877
X-182.141 Y-50.381 Z-1.045
X-182.254 Y-50.452 Z-1.168
X-182.396 Y-50.546 Z-1.33
X-182.554 Y-50.657 Z-1.524
X-182.678 Y-50.751 Z-1.686
X-182.787 Y-50.838 Z-1.836
X-182.936 Y-50.961 Z-2.05
X-183.066 Y-51.074 Z-2.245
X-183.285 Y-51.272 Z-2.589
X-183.51 Y-51.486 Z-2.959
X-184.352 Y-52.325 Z-4.413
X-185.132 Y-51.548 Z-3.066
X-185.45 Y-51.246 Z-2.543
X-185.63 Y-51.083 Z-2.261
X-185.749 Y-50.979 Z-2.081
X-185.913 Y-50.844 Z-1.846
X-186.087 Y-50.709 Z-1.612
X-186.191 Y-50.632 Z-1.48
X-186.311 Y-50.548 Z-1.335
X-186.435 Y-50.467 Z-1.193
X-186.573 Y-50.381 Z-1.045
X-186.712 Y-50.299 Z-0.903
X-186.839 Y-50.227 Z-0.778
X-186.933 Y-50.175 Z-0.689
X-187.005 Y-50.138 Z-0.624
X-187.076 Y-50.104 Z-0.566
X-187.203 Y-50.055 Z-0.48
X-187.382 Y-49.989 Z-0.366
X-187.508 Y-49.945 Z-0.29
X-187.644 Y-49.9 Z-0.212
X-187.777 Y-49.861 Z-0.145
X-187.91 Y-49.826 Z-0.084
X-188.036 Y-49.797 Z-0.033
X-188.129 Y-49.778 Z0
G0 Z5
X-79.833 Y-60.573
G1 Z-4.476 F849.6
X-79.883 Y-61.068 Z-4.485
X-79.907 Y-61.33 Z-4.49
X-79.921 Y-61.507 Z-4.497
X-79.911 Y-61.711 Z-4.483
X-79.906 Y-61.779 Z-4.481
X-79.858 Y-62.356 Z-4.469
X-79.83 Y-62.662 Z-4.463
X-79.787 Y-63.075 Z-4.457
X-79.759 Y-63.302 Z-4.452
X-79.724 Y-63.568 Z-4.449
X-79.714 Y-63.636 Z-4.448
X-79.659 Y-63.981 Z-4.445
X-79.593 Y-64.336 Z-4.443
X-79.513 Y-64.698 Z-4.441
X-79.442 Y-64.978 Z-4.439
X-79.415 Y-65.07 Z-4.436
X-79.339 Y-65.32 Z-4.433
X-79.296 Y-65.446 Z-4.428
X-79.247 Y-65.587 Z-4.426
X-79.207 Y-65.691 Z-4.42
X-79.139 Y-65.86 Z-4.413
X-79.02 Y-66.125 Z-4.394
X-78.985 Y-66.195 Z-4.387
X-78.865 Y-66.426 Z-4.365
X-78.801 Y-66.54 Z-4.352
X-78.723 Y-66.676 Z-4.339
X-78.607 Y-66.864 Z-4.314
X-78.541 Y-66.968 Z-4.303
X-78.407 Y-67.169 Z-4.274
X-78.337 Y-67.271 Z-4.263
X-78.205 Y-67.454 Z-4.236
X-78.11 Y-67.583 Z-4.221
X-78.001 Y-67.726 Z-4.199
X-77.798 Y-67.983 Z-4.165
X-77.594 Y-68.232 Z-4.132
X-77.308 Y-68.568 Z-4.087
X-77.02 Y-68.897 Z-4.043
X-76.838 Y-69.101 Z-4.014
X-76.764 Y-69.182 Z-4.005
X-76.689 Y-69.262 Z-3.999
X-76.568 Y-69.383 Z-3.997
X-76.471 Y-69.455 Z-3.978
X-76.374 Y-69.524 Z-3.962
X-75.867 Y-69.874 Z-3.894
X-75.6 Y-70.054 Z-3.858
X-75.324 Y-70.235 Z-3.823
X-75.036 Y-70.419 Z-3.787
X-74.737 Y-70.602 Z-3.752
X-74.426 Y-70.783 Z-3.717
X-74.102 Y-70.959 Z-3.683
X-73.763 Y-71.128 Z-3.649
X-73.509 Y-71.246 Z-3.626
X-73.41 Y-71.288 Z-3.615
X-73.152 Y-71.395 Z-3.591
X-73.042 Y-71.436 Z-3.58
X-72.906 Y-71.486 Z-3.57
X-72.779 Y-71.53 Z-3.556
X-72.59 Y-71.591 Z-3.541
X-72.295 Y-71.677 Z-3.513
X-72.261 Y-71.687 Z-3.511
X-71.918 Y-71.773 Z-3.483
X-71.563 Y-71.849 Z-3.457
X-71.195 Y-71.916 Z-3.433
X-70.816 Y-71.975 Z-3.412
X-70.538 Y-72.011 Z-3.397
X-70.425 Y-72.025 Z-3.393
X-70.207 Y-72.05 Z-3.383
X-69.886 Y-72.082 Z-3.372
X-69.571 Y-72.11 Z-3.363
X-68.965 Y-72.156 Z-3.347
X-68.606 Y-72.181 Z-3.34
X-68.47 Y-72.186 Z-3.343
X-68.306 Y-72.178 Z-3.34
X-67.699 Y-72.134 Z-3.345
X-67.337 Y-72.105 Z-3.349
X-66.93 Y-72.067 Z-3.357
X-66.726 Y-72.045 Z-3.361
X-66.385 Y-72.005 Z-3.371
X-66.037 Y-71.956 Z-3.384
X-65.681 Y-71.898 Z-3.401
X-65.318 Y-71.828 Z-3.422
X-64.947 Y-71.744 Z-3.447
X-64.677 Y-71.674 Z-3.469
X-64.57 Y-71.644 Z-3.477
X-64.378 Y-71.586 Z-3.495
X-64.304 Y-71.563 Z-3.5
X-64.188 Y-71.524 Z-3.51
X-64.061 Y-71.48 Z-3.524
X-63.926 Y-71.43 Z-3.535
X-63.754 Y-71.364 Z-3.553
X-63.455 Y-71.237 Z-3.581
X-63.448 Y-71.234 Z-3.582
X-63.113 Y-71.076 Z-3.616
X-62.785 Y-70.906 Z-3.651
X-62.471 Y-70.732 Z-3.688
X-62.17 Y-70.554 Z-3.726
X-61.863 Y-70.364 Z-3.766
X-61.534 Y-70.15 Z-3.813
X-61.2 Y-69.925 Z-3.862
X-60.827 Y-69.669 Z-3.917
X-60.515 Y-69.449 Z-3.966
X-60.407 Y-69.368 Z-3.988
X-60.286 Y-69.249 Z-3.992
X-60.144 Y-69.097 Z-4.01
X-59.765 Y-68.673 Z-4.074
X-59.567 Y-68.447 Z-4.108
X-59.364 Y-68.211 Z-4.144
X-59.122 Y-67.918 Z-4.189
X-58.951 Y-67.701 Z-4.221
X-58.876 Y-67.604 Z-4.237
X-58.743 Y-67.425 Z-4.262
X-58.652 Y-67.3 Z-4.282
X-58.535 Y-67.133 Z-4.304
X-58.45 Y-67.006 Z-4.324
X-58.332 Y-66.822 Z-4.347
X-58.27 Y-66.722 Z-4.362
X-58.137 Y-66.492 Z-4.388
X-58.113 Y-66.45 Z-4.394
X-57.977 Y-66.19 Z-4.418
X-57.848 Y-65.907 Z-4.438
X-57.753 Y-65.673 Z-4.45
X-57.702 Y-65.532 Z-4.452
X-57.653 Y-65.391 Z-4.457
X-57.548 Y-65.043 Z-4.461
X-57.456 Y-64.689 Z-4.462
X-57.381 Y-64.341
X-57.318 Y-64.004 Z-4.463
X-57.261 Y-63.643 Z-4.465
X-57.222 Y-63.357 Z-4.466
X-57.19 Y-63.094 Z-4.468
X-57.152 Y-62.75 Z-4.473
X-57.099 Y-62.184 Z-4.482
X-57.073 Y-61.89 Z-4.486
X-57.061 Y-61.689 Z-4.496
X-57.077 Y-61.451 Z-4.485
X-57.128 Y-60.886 Z-4.475
X-57.158 Y-60.581 Z-4.47
X-57.208 Y-60.151 Z-4.465
X-57.233 Y-59.958 Z-4.461
X-57.28 Y-59.629 Z-4.459
X-57.337 Y-59.289 Z-4.458
X-57.405 Y-58.94 Z-4.457
X-57.488 Y-58.583 Z-4.456
X-57.564 Y-58.296 Z-4.454
X-57.588 Y-58.217 Z-4.453
X-57.665 Y-57.973 Z-4.45
X-57.709 Y-57.846 Z-4.445
X-57.76 Y-57.708 Z-4.443
X-57.8 Y-57.607 Z-4.437
X-57.867 Y-57.445 Z-4.431
X-57.985 Y-57.189 Z-4.411
X-58.023 Y-57.115 Z-4.404
X-58.144 Y-56.889 Z-4.382
X-58.206 Y-56.78 Z-4.369
X-58.282 Y-56.652 Z-4.356
X-58.398 Y-56.466 Z-4.33
X-58.462 Y-56.367 Z-4.319
X-58.596 Y-56.171 Z-4.291
X-58.666 Y-56.071 Z-4.278
X-58.796 Y-55.892 Z-4.251
X-58.891 Y-55.765 Z-4.235
X-58.997 Y-55.628 Z-4.213
X-59.197 Y-55.378 Z-4.178
X-59.403 Y-55.129 Z-4.143
X-59.687 Y-54.8 Z-4.096
X-59.986 Y-54.463 Z-4.046
X-60.22 Y-54.204 Z-4.009
X-60.3 Y-54.12 Z-4.003
X-60.429 Y-53.993 Z-4.001
X-60.572 Y-53.888 Z-3.975
X-61.079 Y-53.532 Z-3.901
X-61.346 Y-53.348 Z-3.862
X-61.623 Y-53.161 Z-3.824
X-61.912 Y-52.972 Z-3.786
X-62.212 Y-52.785 Z-3.748
X-62.532 Y-52.596 Z-3.711
X-62.851 Y-52.419 Z-3.675
X-63.192 Y-52.246 Z-3.64
X-63.465 Y-52.117 Z-3.613
X-63.548 Y-52.082 Z-3.604
X-63.806 Y-51.974 Z-3.58
X-63.921 Y-51.93 Z-3.568
X-64.073 Y-51.874 Z-3.556
X-64.183 Y-51.836 Z-3.544
X-64.387 Y-51.769 Z-3.527
X-64.677 Y-51.684 Z-3.5
X-64.715 Y-51.674 Z-3.498
X-65.055 Y-51.588 Z-3.47
X-65.409 Y-51.513 Z-3.444
X-65.775 Y-51.446 Z-3.421
X-66.152 Y-51.389 Z-3.401
X-66.452 Y-51.35 Z-3.387
X-66.542 Y-51.339 Z-3.385
X-66.785 Y-51.313 Z-3.375
X-67.109 Y-51.282 Z-3.365
X-67.426 Y-51.255 Z-3.358
X-68.036 Y-51.211 Z-3.346
X-68.377 Y-51.189 Z-3.341
X-68.502 Y-51.184 Z-3.344
X-68.678 Y-51.192 Z-3.341
X-69.287 Y-51.233 Z-3.353
X-69.655 Y-51.261 Z-3.361
X-70.064 Y-51.298 Z-3.372
X-70.264 Y-51.318 Z-3.378
X-70.605 Y-51.358 Z-3.391
X-70.955 Y-51.405 Z-3.408
X-71.313 Y-51.462 Z-3.428
X-71.677 Y-51.531 Z-3.452
X-71.952 Y-51.591 Z-3.474
X-72.051 Y-51.615 Z-3.481
X-72.321 Y-51.685 Z-3.504
X-72.43 Y-51.716 Z-3.513
X-72.616 Y-51.772 Z-3.532
X-72.696 Y-51.797 Z-3.537
X-72.814 Y-51.837 Z-3.548
X-72.93 Y-51.877 Z-3.562
X-73.076 Y-51.931 Z-3.574
X-73.234 Y-51.992 Z-3.591
X-73.549 Y-52.127 Z-3.621
X-73.894 Y-52.291 Z-3.656
X-74.221 Y-52.462 Z-3.691
X-74.536 Y-52.639 Z-3.726
X-74.836 Y-52.819 Z-3.763
X-75.127 Y-53.002 Z-3.801
X-75.442 Y-53.209 Z-3.844
X-75.645 Y-53.346 Z-3.872
X-75.929 Y-53.543 Z-3.913
X-76.462 Y-53.918 Z-3.992
X-76.574 Y-54.003 Z-4.015
X-76.587 Y-54.014
X-76.701 Y-54.127 Z-4.019
X-76.833 Y-54.267 Z-4.034
X-77.208 Y-54.682 Z-4.093
X-77.404 Y-54.903 Z-4.124
X-77.604 Y-55.135 Z-4.158
X-77.85 Y-55.429 Z-4.2
X-78.014 Y-55.634 Z-4.229
X-78.093 Y-55.736 Z-4.245
X-78.22 Y-55.905 Z-4.267
X-78.316 Y-56.035 Z-4.287
X-78.426 Y-56.192 Z-4.307
X-78.517 Y-56.324 Z-4.327
X-78.629 Y-56.496 Z-4.348
X-78.696 Y-56.603 Z-4.363
X-78.824 Y-56.82 Z-4.387
X-78.853 Y-56.87 Z-4.394
X-78.989 Y-57.126 Z-4.418
X-79.115 Y-57.393 Z-4.438
X-79.172 Y-57.529 Z-4.443
X-79.213 Y-57.63 Z-4.45
X-79.262 Y-57.763 Z-4.452
X-79.313 Y-57.904 Z-4.457
X-79.421 Y-58.25 Z-4.46
X-79.51 Y-58.586 Z-4.462
X-79.589 Y-58.931
X-79.656 Y-59.277 Z-4.463
X-79.71 Y-59.604 Z-4.465
X-79.767 Y-60.007 Z-4.469
X-79.793 Y-60.218 Z-4.47
X-79.827 Y-60.512 Z-4.475
X-79.833 Y-60.573 Z-4.476
G0 Z5
X-198.882 Y-122.684
G1 Z0 F849.6
X-198.78 Y-122.667 Z-0.029
X-198.6 Y-122.633 Z-0.088
X-198.415 Y-122.594 Z-0.156
X-198.318 Y-122.572 Z-0.195
X-198.13 Y-122.524 Z-0.278
X-198.031 Y-122.496 Z-0.326
X-197.838 Y-122.439 Z-0.425
X-197.577 Y-122.357 Z-0.567
X-197.315 Y-122.271 Z-0.715
X-197.254 Y-122.25 Z-0.752
X-196.812 Y-122.068 Z-1.067
X-196.413 Y-121.901 Z-1.357
X-196.006 Y-121.724 Z-1.664
X-195.706 Y-121.588 Z-1.899
X-195.536 Y-121.509 Z-2.035
X-195.138 Y-121.319 Z-2.364
X-194.844 Y-121.175 Z-2.614
X-194.441 Y-120.974 Z-2.962
X-193.087 Y-120.285 Z-4.155
X-193.032 Y-120.359 Z-4.028
X-192.904 Y-120.527 Z-3.735
X-192.775 Y-120.688 Z-3.458
X-192.647 Y-120.839 Z-3.195
X-192.519 Y-120.983 Z-2.947
X-192.391 Y-121.117 Z-2.714
X-192.262 Y-121.243 Z-2.496
X-192.134 Y-121.361 Z-2.292
X-192.006 Y-121.47 Z-2.103
X-191.877 Y-121.571 Z-1.929
X-191.663 Y-121.729 Z-1.654
X-191.45 Y-121.883 Z-1.387
X-191.283 Y-121.997 Z-1.189
X-191.15 Y-122.084 Z-1.039
X-191.021 Y-122.164 Z-0.9
X-190.876 Y-122.249 Z-0.754
X-190.733 Y-122.325 Z-0.622
X-190.597 Y-122.391 Z-0.508
X-190.454 Y-122.453 Z-0.401
X-190.338 Y-122.497 Z-0.324
X-190.21 Y-122.541 Z-0.248
X-190.103 Y-122.574 Z-0.191
X-189.991 Y-122.605 Z-0.138
X-189.888 Y-122.63 Z-0.094
X-189.784 Y-122.653 Z-0.054
X-189.684 Y-122.673 Z-0.019
X-189.625 Y-122.684 Z0
X-189.684 Y-122.673 Z-0.019
X-189.784 Y-122.653 Z-0.054
X-189.888 Y-122.63 Z-0.094
X-189.991 Y-122.605 Z-0.138
X-190.103 Y-122.574 Z-0.191
X-190.21 Y-122.541 Z-0.248
X-190.338 Y-122.497 Z-0.324
X-190.454 Y-122.453 Z-0.401
X-190.597 Y-122.391 Z-0.508
X-190.733 Y-122.325 Z-0.622
X-190.876 Y-122.249 Z-0.754
X-191.021 Y-122.164 Z-0.9
X-191.15 Y-122.084 Z-1.039
X-191.283 Y-121.997 Z-1.189
X-191.45 Y-121.883 Z-1.387
X-191.663 Y-121.729 Z-1.654
X-191.877 Y-121.571 Z-1.929
X-192.006 Y-121.47 Z-2.103
X-192.134 Y-121.361 Z-2.292
X-192.262 Y-121.243 Z-2.496
X-192.391 Y-121.117 Z-2.714
X-192.519 Y-120.983 Z-2.947
X-192.647 Y-120.839 Z-3.195
X-192.775 Y-120.688 Z-3.458
X-192.904 Y-120.527 Z-3.735
X-193.032 Y-120.359 Z-4.028
X-193.087 Y-120.285 Z-4.155
X-193.001 Y-120.114 Z-4.102
X-192.88 Y-119.88 Z-4.031
X-192.749 Y-119.633 Z-3.964
X-192.641 Y-119.437 Z-3.916
X-192.549 Y-119.278 Z-3.883
X-192.436 Y-119.088 Z-3.848
X-192.354 Y-118.956 Z-3.828
X-192.271 Y-118.824 Z-3.811
X-192.149 Y-118.638 Z-3.792
X-192.049 Y-118.489 Z-3.78
X-191.961 Y-118.362 Z-3.773
X-191.765 Y-118.084 Z-3.765
X-191.565 Y-117.808 Z-3.764
X-191.482 Y-117.694 Z-3.765
X-187.948 Y-112.759 Z-3.689
X-187.834 Y-112.607 Z-3.695
X-187.713 Y-112.46 Z-3.713
X-187.586 Y-112.316 Z-3.745
X-187.454 Y-112.177 Z-3.788
X-187.316 Y-112.042 Z-3.844
X-187.172 Y-111.911 Z-3.912
X-187.022 Y-111.784 Z-3.993
X-186.867 Y-111.662 Z-4.086
X-186.705 Y-111.544 Z-4.192
X-186.538 Y-111.43 Z-4.31
X-186.365 Y-111.32 Z-4.441
X-186.186 Y-111.215 Z-4.584
X-186.002 Y-111.113 Z-4.739
X-185.904 Y-111.062 Z-4.826
X-185.804 Y-111.009 Z-4.921
X-185.701 Y-110.954 Z-5.023
X-185.592 Y-110.897 Z-5.137
Y-110.786 Z-5.047
Y-110.677 Z-4.963
Y-110.569 Z-4.886
Y-110.464 Z-4.814
Y-110.359 Z-4.749
Y-110.256 Z-4.69
Y-110.154 Z-4.636
Y-110.054 Z-4.589
Y-109.954 Z-4.547
Y-109.855 Z-4.511
Y-109.756 Z-4.481
Y-109.659 Z-4.456
Y-109.561 Z-4.436
Y-109.464 Z-4.423
Y-109.368 Z-4.414
Y-109.271 Z-4.412
Y-101.416
X-186.293 Y-100.715 Z-3.198
X-186.574 Y-100.443 Z-2.727
X-186.752 Y-100.278 Z-2.44
X-186.92 Y-100.128 Z-2.181
X-187.085 Y-99.987 Z-1.937
X-187.195 Y-99.898 Z-1.782
X-187.342 Y-99.783 Z-1.585
X-187.44 Y-99.712 Z-1.46
X-187.544 Y-99.639 Z-1.334
X-187.657 Y-99.564 Z-1.204
X-187.753 Y-99.502 Z-1.098
X-187.891 Y-99.419 Z-0.953
X-188.12 Y-99.288 Z-0.727
X-188.252 Y-99.217 Z-0.603
X-188.323 Y-99.184 Z-0.546
X-188.394 Y-99.155 Z-0.497
X-188.502 Y-99.115 Z-0.427
X-188.681 Y-99.05 Z-0.314
X-188.816 Y-99.004 Z-0.234
X-188.942 Y-98.964 Z-0.166
X-189.073 Y-98.927 Z-0.101
X-189.202 Y-98.894 Z-0.045
X-189.317 Y-98.869 Z0
X-189.202 Y-98.894 Z-0.045
X-189.073 Y-98.927 Z-0.101
X-188.942 Y-98.964 Z-0.166
X-188.816 Y-99.004 Z-0.234
X-188.681 Y-99.05 Z-0.314
X-188.502 Y-99.115 Z-0.427
X-188.394 Y-99.155 Z-0.497
X-188.323 Y-99.184 Z-0.546
X-188.252 Y-99.217 Z-0.603
X-188.12 Y-99.288 Z-0.727
X-187.891 Y-99.419 Z-0.953
X-187.753 Y-99.502 Z-1.098
X-187.657 Y-99.564 Z-1.204
X-187.544 Y-99.639 Z-1.334
X-187.44 Y-99.712 Z-1.46
X-187.342 Y-99.783 Z-1.585
X-187.195 Y-99.898 Z-1.782
X-187.085 Y-99.987 Z-1.937
X-186.92 Y-100.128 Z-2.181
X-186.752 Y-100.278 Z-2.44
X-186.574 Y-100.443 Z-2.727
X-186.293 Y-100.715 Z-3.198
X-185.592 Y-101.416 Z-4.412
X-184.774 Y-100.601 Z-3
X-184.615 Y-100.448 Z-2.735
X-184.394 Y-100.242 Z-2.378
X-184.225 Y-100.091 Z-2.118
X-184.099 Y-99.984 Z-1.932
X-183.953 Y-99.866 Z-1.727
X-183.844 Y-99.781 Z-1.58
X-183.699 Y-99.676 Z-1.398
X-183.572 Y-99.588 Z-1.246
X-183.432 Y-99.497 Z-1.089
X-183.323 Y-99.43 Z-0.973
X-183.109 Y-99.306 Z-0.758
X-182.998 Y-99.244 Z-0.65
X-182.924 Y-99.205 Z-0.583
X-182.851 Y-99.171 Z-0.523
X-182.723 Y-99.121 Z-0.437
X-182.545 Y-99.056 Z-0.325
X-182.419 Y-99.012 Z-0.249
X-182.29 Y-98.971 Z-0.177
X-182.17 Y-98.935 Z-0.115
X-182.086 Y-98.913 Z-0.077
X-181.956 Y-98.882 Z-0.023
X-181.893 Y-98.869 Z0
X-181.956 Y-98.882 Z-0.023
X-182.086 Y-98.913 Z-0.077
X-182.17 Y-98.935 Z-0.115
X-182.29 Y-98.971 Z-0.177
X-182.419 Y-99.012 Z-0.249
X-182.545 Y-99.056 Z-0.325
X-182.723 Y-99.121 Z-0.437
X-182.851 Y-99.171 Z-0.523
X-182.924 Y-99.205 Z-0.583
X-182.998 Y-99.244 Z-0.65
X-183.109 Y-99.306 Z-0.758
X-183.323 Y-99.43 Z-0.973
X-183.432 Y-99.497 Z-1.089
X-183.572 Y-99.588 Z-1.246
X-183.699 Y-99.676 Z-1.398
X-183.844 Y-99.781 Z-1.58
X-183.953 Y-99.866 Z-1.727
X-184.099 Y-99.984 Z-1.932
X-184.225 Y-100.091 Z-2.118
X-184.394 Y-100.242 Z-2.378
X-184.615 Y-100.448 Z-2.735
X-184.774 Y-100.601 Z-3
X-185.592 Y-101.416 Z-4.412
Y-109.271
Y-109.368 Z-4.414
Y-109.464 Z-4.423
Y-109.561 Z-4.436
Y-109.659 Z-4.456
Y-109.756 Z-4.481
Y-109.855 Z-4.511
Y-109.954 Z-4.547
Y-110.054 Z-4.589
Y-110.154 Z-4.636
Y-110.256 Z-4.69
Y-110.359 Z-4.749
Y-110.464 Z-4.814
Y-110.569 Z-4.886
Y-110.677 Z-4.963
Y-110.786 Z-5.047
Y-110.897 Z-5.137
X-185.493 Y-110.961 Z-5.045
X-185.399 Y-111.023 Z-4.962
X-185.309 Y-111.082 Z-4.887
X-185.219 Y-111.141 Z-4.819
X-185.034 Y-111.266 Z-4.688
X-184.855 Y-111.397 Z-4.57
X-184.683 Y-111.532 Z-4.466
X-184.517 Y-111.672 Z-4.376
X-184.357 Y-111.817 Z-4.3
X-184.204 Y-111.966 Z-4.238
X-184.058 Y-112.12 Z-4.189
X-183.918 Y-112.279 Z-4.155
X-183.784 Y-112.442 Z-4.134
X-183.657 Y-112.61 Z-4.127
X-180.089 Y-117.536 Z-4.146
X-179.997 Y-117.66 Z-4.143
X-179.74 Y-118.014
X-179.595 Y-118.218 Z-4.148
X-179.481 Y-118.384 Z-4.157
X-179.35 Y-118.58 Z-4.173
X-179.239 Y-118.75 Z-4.191
X-179.153 Y-118.886 Z-4.209
X-179.069 Y-119.023 Z-4.231
X-178.986 Y-119.162 Z-4.256
X-178.884 Y-119.338 Z-4.293
X-178.78 Y-119.525 Z-4.338
X-178.702 Y-119.67 Z-4.376
X-178.626 Y-119.815 Z-4.417
X-178.487 Y-120.087 Z-4.499
X-178.635 Y-120.289 Z-4.148
X-178.769 Y-120.467 Z-3.841
X-178.902 Y-120.635 Z-3.549
X-179.036 Y-120.795 Z-3.273
X-179.169 Y-120.945 Z-3.013
X-179.303 Y-121.086 Z-2.768
X-179.437 Y-121.218 Z-2.54
X-179.57 Y-121.34 Z-2.327
X-179.704 Y-121.454 Z-2.131
X-179.838 Y-121.558 Z-1.95
X-180.167 Y-121.803 Z-1.527
X-180.376 Y-121.95 Z-1.271
X-180.517 Y-122.044 Z-1.108
X-180.634 Y-122.12 Z-0.977
X-180.703 Y-122.162 Z-0.904
X-180.83 Y-122.236 Z-0.776
X-180.913 Y-122.283 Z-0.695
X-180.984 Y-122.32 Z-0.631
X-181.128 Y-122.39 Z-0.51
X-181.265 Y-122.45 Z-0.406
X-181.393 Y-122.499 Z-0.32
X-181.516 Y-122.541 Z-0.248
X-181.63 Y-122.576 Z-0.188
X-181.742 Y-122.606 Z-0.135
X-181.847 Y-122.632 Z-0.091
X-181.954 Y-122.655 Z-0.05
X-182.056 Y-122.675 Z-0.015
X-182.103 Y-122.684 Z0
X-182.056 Y-122.675 Z-0.015
X-181.954 Y-122.655 Z-0.05
X-181.847 Y-122.632 Z-0.091
X-181.742 Y-122.606 Z-0.135
X-181.63 Y-122.576 Z-0.188
X-181.516 Y-122.541 Z-0.248
X-181.393 Y-122.499 Z-0.32
X-181.265 Y-122.45 Z-0.406
X-181.128 Y-122.39 Z-0.51
X-180.984 Y-122.32 Z-0.631
X-180.913 Y-122.283 Z-0.695
X-180.83 Y-122.236 Z-0.776
X-180.703 Y-122.162 Z-0.904
X-180.634 Y-122.12 Z-0.977
X-180.517 Y-122.044 Z-1.108
X-180.376 Y-121.95 Z-1.271
X-180.167 Y-121.803 Z-1.527
X-179.838 Y-121.558 Z-1.95
X-179.704 Y-121.454 Z-2.131
X-179.57 Y-121.34 Z-2.327
X-179.437 Y-121.218 Z-2.54
X-179.303 Y-121.086 Z-2.768
X-179.169 Y-120.945 Z-3.013
X-179.036 Y-120.795 Z-3.273
X-178.902 Y-120.635 Z-3.549
X-178.769 Y-120.467 Z-3.841
X-178.635 Y-120.289 Z-4.148
X-178.487 Y-120.087 Z-4.499
X-176.743 Y-120.974 Z-2.962
X-176.34 Y-121.175 Z-2.614
X-176.046 Y-121.319 Z-2.364
X-175.648 Y-121.509 Z-2.035
X-175.478 Y-121.588 Z-1.899
X-175.186 Y-121.72 Z-1.67
X-174.91 Y-121.84 Z-1.461
X-174.638 Y-121.957 Z-1.26
X-174.24 Y-122.123 Z-0.972
X-173.93 Y-122.25 Z-0.752
X-173.869 Y-122.271 Z-0.715
X-173.603 Y-122.358 Z-0.564
X-173.339 Y-122.441 Z-0.421
X-173.153 Y-122.496 Z-0.326
X-172.976 Y-122.544 Z-0.242
X-172.866 Y-122.572 Z-0.195
X-172.691 Y-122.612 Z-0.126
X-172.584 Y-122.633 Z-0.088
X-172.404 Y-122.667 Z-0.029
X-172.302 Y-122.684 Z0
G0 Z5
X-175.892 Y-54.641
G1 Z0 F849.6
X-175.869 Y-54.529 Z-0.04
X-175.851 Y-54.449 Z-0.072
X-175.819 Y-54.326 Z-0.126
X-175.782 Y-54.198 Z-0.191
X-175.738 Y-54.061 Z-0.267
X-175.693 Y-53.932 Z-0.345
X-175.626 Y-53.749 Z-0.461
X-175.577 Y-53.624 Z-0.546
X-175.544 Y-53.552 Z-0.603
X-175.506 Y-53.48 Z-0.668
X-175.474 Y-53.422 Z-0.724
X-175.353 Y-53.211 Z-0.934
X-175.269 Y-53.072 Z-1.08
X-175.199 Y-52.963 Z-1.2
X-175.114 Y-52.835 Z-1.348
X-175.044 Y-52.736 Z-1.469
X-174.933 Y-52.587 Z-1.662
X-174.814 Y-52.437 Z-1.868
X-174.698 Y-52.299 Z-2.068
X-174.583 Y-52.167 Z-2.268
X-174.427 Y-51.996 Z-2.537
X-174.274 Y-51.833 Z-2.803
X-174.059 Y-51.611 Z-3.175
X-174.243 Y-51.421 Z-2.856
X-174.445 Y-51.205 Z-2.506
X-174.597 Y-51.037 Z-2.243
X-174.716 Y-50.899 Z-2.036
X-174.835 Y-50.757 Z-1.832
X-174.951 Y-50.608 Z-1.629
X-175.023 Y-50.512 Z-1.506
X-175.126 Y-50.365 Z-1.327
X-175.217 Y-50.228 Z-1.169
X-175.286 Y-50.117 Z-1.049
X-175.364 Y-49.987 Z-0.915
X-175.46 Y-49.817 Z-0.748
X-175.516 Y-49.715 Z-0.651
X-175.567 Y-49.613 Z-0.562
X-175.61 Y-49.512 Z-0.488
X-175.677 Y-49.332 Z-0.372
X-175.741 Y-49.15 Z-0.261
X-175.785 Y-49.015 Z-0.185
X-175.822 Y-48.888 Z-0.121
X-175.854 Y-48.767 Z-0.067
X-175.872 Y-48.687 Z-0.035
X-175.892 Y-48.589 Z0
X-175.872 Y-48.687 Z-0.035
X-175.854 Y-48.767 Z-0.067
X-175.822 Y-48.888 Z-0.121
X-175.785 Y-49.015 Z-0.185
X-175.741 Y-49.15 Z-0.261
X-175.677 Y-49.332 Z-0.372
X-175.61 Y-49.512 Z-0.488
X-175.567 Y-49.613 Z-0.562
X-175.516 Y-49.715 Z-0.651
X-175.46 Y-49.817 Z-0.748
X-175.364 Y-49.987 Z-0.915
X-175.286 Y-50.117 Z-1.049
X-175.217 Y-50.228 Z-1.169
X-175.126 Y-50.365 Z-1.327
X-175.023 Y-50.512 Z-1.506
X-174.951 Y-50.608 Z-1.629
X-174.835 Y-50.757 Z-1.832
X-174.716 Y-50.899 Z-2.036
X-174.597 Y-51.037 Z-2.243
X-174.445 Y-51.205 Z-2.506
X-174.243 Y-51.421 Z-2.856
X-174.059 Y-51.611 Z-3.175
X-158.425
X-158.239 Y-51.615 Z-3.182
X-158.053 Y-51.626 Z-3.202
X-157.867 Y-51.646 Z-3.236
X-157.682 Y-51.673 Z-3.283
X-157.496 Y-51.708 Z-3.343
X-157.31 Y-51.75 Z-3.417
X-157.124 Y-51.801 Z-3.504
X-156.938 Y-51.859 Z-3.605
X-156.752 Y-51.925 Z-3.719
X-156.567 Y-51.998 Z-3.846
X-156.381 Y-52.079 Z-3.987
X-156.195 Y-52.169 Z-4.141
X-156.009 Y-52.265 Z-4.309
X-155.823 Y-52.37 Z-4.49
X-155.637 Y-52.482 Z-4.684
X-154.638 Y-51.486 Z-2.959
X-154.413 Y-51.272 Z-2.589
X-154.194 Y-51.074 Z-2.245
X-154.064 Y-50.961 Z-2.05
X-153.915 Y-50.838 Z-1.836
X-153.806 Y-50.751 Z-1.686
X-153.682 Y-50.657 Z-1.524
X-153.524 Y-50.546 Z-1.33
X-153.382 Y-50.452 Z-1.168
X-153.269 Y-50.381 Z-1.045
X-153.104 Y-50.284 Z-0.877
X-152.971 Y-50.209 Z-0.747
X-152.876 Y-50.157 Z-0.657
X-152.804 Y-50.119 Z-0.59
X-152.731 Y-50.085 Z-0.532
X-152.608 Y-50.037 Z-0.45
X-152.428 Y-49.971 Z-0.334
X-152.241 Y-49.907 Z-0.224
X-152.106 Y-49.865 Z-0.151
X-151.97 Y-49.828 Z-0.087
X-151.842 Y-49.798 Z-0.035
X-151.745 Y-49.778 Z0
X-151.842 Y-49.798 Z-0.035
X-151.97 Y-49.828 Z-0.087
X-152.106 Y-49.865 Z-0.151
X-152.241 Y-49.907 Z-0.224
X-152.428 Y-49.971 Z-0.334
X-152.608 Y-50.037 Z-0.45
X-152.731 Y-50.085 Z-0.532
X-152.804 Y-50.119 Z-0.59
X-152.876 Y-50.157 Z-0.657
X-152.971 Y-50.209 Z-0.747
X-153.104 Y-50.284 Z-0.877
X-153.269 Y-50.381 Z-1.045
X-153.382 Y-50.452 Z-1.168
X-153.524 Y-50.546 Z-1.33
X-153.682 Y-50.657 Z-1.524
X-153.806 Y-50.751 Z-1.686
X-153.915 Y-50.838 Z-1.836
X-154.064 Y-50.961 Z-2.05
X-154.194 Y-51.074 Z-2.245
X-154.413 Y-51.272 Z-2.589
X-154.638 Y-51.486 Z-2.959
X-155.637 Y-52.482 Z-4.684
X-155.596 Y-52.676 Z-4.612
X-155.561 Y-52.87 Z-4.551
X-155.532 Y-53.065 Z-4.501
X-155.509 Y-53.259 Z-4.463
X-155.493 Y-53.453 Z-4.435
X-155.484 Y-53.647 Z-4.418
X-155.48 Y-53.841 Z-4.413
Y-59.84
X-155.484 Y-60.054 Z-4.419
X-155.496 Y-60.268 Z-4.44
X-155.516 Y-60.482 Z-4.473
X-155.543 Y-60.697 Z-4.521
X-155.578 Y-60.911 Z-4.581
X-155.621 Y-61.125 Z-4.656
X-155.671 Y-61.339 Z-4.743
X-155.73 Y-61.554 Z-4.845
X-155.796 Y-61.768 Z-4.959
X-155.87 Y-61.982 Z-5.088
X-156.049 Z-4.854
X-156.224 Z-4.632
X-156.396 Z-4.424
X-156.564 Z-4.228
X-156.729 Z-4.045
X-156.892 Z-3.875
X-157.052 Z-3.72
X-157.21 Z-3.578
X-157.366 Z-3.452
X-157.444 Z-3.394
X-157.521 Z-3.34
X-157.597 Z-3.291
X-157.673 Z-3.245
X-157.749 Z-3.203
X-157.825 Z-3.166
X-157.901 Z-3.133
X-157.976 Z-3.104
X-158.051 Z-3.079
X-158.126 Z-3.059
X-158.201 Z-3.043
X-158.276 Z-3.032
X-158.35 Z-3.025
X-167.698 Z-3.023
X-167.795 Z-3.027
X-168.013 Y-61.754 Z-2.648
X-168.161 Y-61.594 Z-2.392
X-168.278 Y-61.464 Z-2.19
X-168.398 Y-61.325 Z-1.982
X-168.517 Y-61.179 Z-1.775
X-168.631 Y-61.033 Z-1.578
X-168.713 Y-60.92 Z-1.435
X-168.803 Y-60.791 Z-1.28
X-168.889 Y-60.66 Z-1.131
X-168.981 Y-60.511 Z-0.973
X-169.084 Y-60.333 Z-0.793
X-169.174 Y-60.171 Z-0.637
X-169.211 Y-60.1 Z-0.574
X-169.243 Y-60.03 Z-0.518
X-169.289 Y-59.911 Z-0.438
X-169.35 Y-59.744 Z-0.333
X-169.398 Y-59.606 Z-0.25
X-169.439 Y-59.479 Z-0.179
X-169.475 Y-59.356 Z-0.116
X-169.497 Y-59.274 Z-0.078
X-169.527 Y-59.151 Z-0.027
X-169.542 Y-59.078 Z0
X-169.527 Y-59.151 Z-0.027
X-169.497 Y-59.274 Z-0.078
X-169.475 Y-59.356 Z-0.116
X-169.439 Y-59.479 Z-0.179
X-169.398 Y-59.606 Z-0.25
X-169.35 Y-59.744 Z-0.333
X-169.289 Y-59.911 Z-0.438
X-169.243 Y-60.03 Z-0.518
X-169.211 Y-60.1 Z-0.574
X-169.174 Y-60.171 Z-0.637
X-169.084 Y-60.333 Z-0.793
X-168.981 Y-60.511 Z-0.973
X-168.889 Y-60.66 Z-1.131
X-168.803 Y-60.791 Z-1.28
X-168.713 Y-60.92 Z-1.435
X-168.631 Y-61.033 Z-1.578
X-168.517 Y-61.179 Z-1.775
X-168.398 Y-61.325 Z-1.982
X-168.278 Y-61.464 Z-2.19
X-168.161 Y-61.594 Z-2.392
X-168.013 Y-61.754 Z-2.648
X-167.795 Y-61.982 Z-3.027
X-168.012 Y-62.209 Z-2.651
X-168.159 Y-62.368 Z-2.396
X-168.316 Y-62.545 Z-2.124
X-168.433 Y-62.684 Z-1.921
X-168.55 Y-62.829 Z-1.719
X-168.656 Y-62.968 Z-1.535
X-168.732 Y-63.075 Z-1.402
X-168.824 Y-63.21 Z-1.243
X-168.907 Y-63.338 Z-1.1
X-168.97 Y-63.441 Z-0.991
X-169.071 Y-63.616 Z-0.816
X-169.159 Y-63.773 Z-0.664
X-169.195 Y-63.843 Z-0.601
X-169.228 Y-63.913 Z-0.545
X-169.276 Y-64.037 Z-0.461
X-169.344 Y-64.22 Z-0.344
X-169.41 Y-64.413 Z-0.228
X-169.45 Y-64.541 Z-0.159
X-169.488 Y-64.677 Z-0.093
X-169.519 Y-64.801 Z-0.04
X-169.542 Y-64.907 Z0
X-169.519 Y-64.801 Z-0.04
X-169.488 Y-64.677 Z-0.093
X-169.45 Y-64.541 Z-0.159
X-169.41 Y-64.413 Z-0.228
X-169.344 Y-64.22 Z-0.344
X-169.276 Y-64.037 Z-0.461
X-169.228 Y-63.913 Z-0.545
X-169.195 Y-63.843 Z-0.601
X-169.159 Y-63.773 Z-0.664
X-169.071 Y-63.616 Z-0.816
X-168.97 Y-63.441 Z-0.991
X-168.907 Y-63.338 Z-1.1
X-168.824 Y-63.21 Z-1.243
X-168.732 Y-63.075 Z-1.402
X-168.656 Y-62.968 Z-1.535
X-168.55 Y-62.829 Z-1.719
X-168.433 Y-62.684 Z-1.921
X-168.316 Y-62.545 Z-2.124
X-168.159 Y-62.368 Z-2.396
X-168.012 Y-62.209 Z-2.651
X-167.795 Y-61.982 Z-3.027
X-167.698 Z-3.023
X-158.35 Z-3.025
X-158.276 Z-3.032
X-158.201 Z-3.043
X-158.126 Z-3.059
X-158.051 Z-3.079
X-157.976 Z-3.104
X-157.901 Z-3.133
X-157.825 Z-3.166
X-157.749 Z-3.203
X-157.673 Z-3.245
X-157.597 Z-3.291
X-157.521 Z-3.34
X-157.444 Z-3.394
X-157.366 Z-3.452
X-157.21 Z-3.578
X-157.052 Z-3.72
X-156.892 Z-3.875
X-156.729 Z-4.045
X-156.564 Z-4.228
X-156.396 Z-4.424
X-156.224 Z-4.632
X-156.049 Z-4.854
X-155.87 Z-5.088
X-155.796 Y-62.196 Z-4.959
X-155.73 Y-62.411 Z-4.845
X-155.671 Y-62.625 Z-4.743
X-155.621 Y-62.839 Z-4.656
X-155.578 Y-63.053 Z-4.581
X-155.543 Y-63.267 Z-4.521
X-155.516 Y-63.482 Z-4.473
X-155.496 Y-63.696 Z-4.44
X-155.484 Y-63.91 Z-4.419
X-155.48 Y-64.124 Z-4.413
Y-69.53
X-155.484 Y-69.724 Z-4.418
X-155.493 Y-69.918 Z-4.435
X-155.509 Y-70.112 Z-4.463
X-155.532 Y-70.306 Z-4.501
X-155.561 Y-70.501 Z-4.551
X-155.596 Y-70.695 Z-4.612
X-155.637 Y-70.889 Z-4.684
X-154.637 Y-71.886 Z-2.957
X-154.368 Y-72.142 Z-2.514
X-154.189 Y-72.303 Z-2.235
X-154.033 Y-72.438 Z-2.002
X-153.92 Y-72.531 Z-1.84
X-153.797 Y-72.628 Z-1.672
X-153.689 Y-72.709 Z-1.531
X-153.586 Y-72.783 Z-1.404
X-153.457 Y-72.87 Z-1.252
X-153.32 Y-72.958 Z-1.1
X-153.182 Y-73.041 Z-0.956
X-153.05 Y-73.117 Z-0.826
X-152.892 Y-73.204 Z-0.674
X-152.817 Y-73.243 Z-0.607
X-152.742 Y-73.277 Z-0.548
X-152.617 Y-73.325 Z-0.465
X-152.442 Y-73.388 Z-0.356
X-152.316 Y-73.431 Z-0.281
X-152.181 Y-73.474 Z-0.206
X-152.051 Y-73.513 Z-0.14
X-151.921 Y-73.546 Z-0.082
X-151.796 Y-73.575 Z-0.032
X-151.706 Y-73.593 Z0
X-151.796 Y-73.575 Z-0.032
X-151.921 Y-73.546 Z-0.082
X-152.051 Y-73.513 Z-0.14
X-152.181 Y-73.474 Z-0.206
X-152.316 Y-73.431 Z-0.281
X-152.442 Y-73.388 Z-0.356
X-152.617 Y-73.325 Z-0.465
X-152.742 Y-73.277 Z-0.548
X-152.817 Y-73.243 Z-0.607
X-152.892 Y-73.204 Z-0.674
X-153.05 Y-73.117 Z-0.826
X-153.182 Y-73.041 Z-0.956
X-153.32 Y-72.958 Z-1.1
X-153.457 Y-72.87 Z-1.252
X-153.586 Y-72.783 Z-1.404
X-153.689 Y-72.709 Z-1.531
X-153.797 Y-72.628 Z-1.672
X-153.92 Y-72.531 Z-1.84
X-154.033 Y-72.438 Z-2.002
X-154.189 Y-72.303 Z-2.235
X-154.368 Y-72.142 Z-2.514
X-154.637 Y-71.886 Z-2.957
X-155.637 Y-70.889 Z-4.684
X-155.823 Y-71.001 Z-4.49
X-156.009 Y-71.106 Z-4.309
X-156.195 Y-71.202 Z-4.141
X-156.381 Y-71.291 Z-3.987
X-156.567 Y-71.373 Z-3.846
X-156.752 Y-71.446 Z-3.719
X-156.938 Y-71.512 Z-3.605
X-157.124 Y-71.57 Z-3.504
X-157.31 Y-71.621 Z-3.417
X-157.496 Y-71.663 Z-3.343
X-157.682 Y-71.698 Z-3.283
X-157.867 Y-71.725 Z-3.236
X-158.053 Y-71.744 Z-3.202
X-158.239 Y-71.756 Z-3.182
X-158.425 Y-71.76 Z-3.175
X-173.367
X-173.378 Z-3.176
X-173.59 Y-71.541 Z-2.808
X-173.747 Y-71.375 Z-2.536
X-173.902 Y-71.206 Z-2.268
X-174.02 Y-71.071 Z-2.063
X-174.132 Y-70.937 Z-1.868
X-174.253 Y-70.787 Z-1.66
X-174.366 Y-70.636 Z-1.464
X-174.436 Y-70.538 Z-1.343
X-174.523 Y-70.409 Z-1.192
X-174.595 Y-70.296 Z-1.067
X-174.673 Y-70.168 Z-0.932
X-174.747 Y-70.043 Z-0.805
X-174.831 Y-69.893 Z-0.658
X-174.872 Y-69.818 Z-0.588
X-174.907 Y-69.742 Z-0.527
X-174.958 Y-69.614 Z-0.439
X-175.043 Y-69.378 Z-0.291
X-175.09 Y-69.239 Z-0.21
X-175.129 Y-69.111 Z-0.142
X-175.152 Y-69.032 Z-0.103
X-175.185 Y-68.899 Z-0.045
X-175.211 Y-68.782 Z0
X-175.185 Y-68.899 Z-0.045
X-175.152 Y-69.032 Z-0.103
X-175.129 Y-69.111 Z-0.142
X-175.09 Y-69.239 Z-0.21
X-175.043 Y-69.378 Z-0.291
X-174.958 Y-69.614 Z-0.439
X-174.907 Y-69.742 Z-0.527
X-174.872 Y-69.818 Z-0.588
X-174.831 Y-69.893 Z-0.658
X-174.747 Y-70.043 Z-0.805
X-174.673 Y-70.168 Z-0.932
X-174.595 Y-70.296 Z-1.067
X-174.523 Y-70.409 Z-1.192
X-174.436 Y-70.538 Z-1.343
X-174.366 Y-70.636 Z-1.464
X-174.253 Y-70.787 Z-1.66
X-174.132 Y-70.937 Z-1.868
X-174.02 Y-71.071 Z-2.063
X-173.902 Y-71.206 Z-2.268
X-173.747 Y-71.375 Z-2.536
X-173.59 Y-71.541 Z-2.808
X-173.378 Y-71.76 Z-3.176
X-173.59 Y-71.979 Z-2.808
X-173.751 Y-72.149 Z-2.529
X-173.901 Y-72.314 Z-2.269
X-174.024 Y-72.454 Z-2.057
X-174.144 Y-72.597 Z-1.849
X-174.255 Y-72.737 Z-1.656
X-174.328 Y-72.834 Z-1.529
X-174.433 Y-72.98 Z-1.348
X-174.503 Y-73.083 Z-1.226
X-174.604 Y-73.241 Z-1.051
X-174.711 Y-73.419 Z-0.867
X-174.813 Y-73.599 Z-0.689
X-174.839 Y-73.646 Z-0.644
X-174.876 Y-73.716 Z-0.58
X-174.909 Y-73.786 Z-0.524
X-174.957 Y-73.909 Z-0.44
X-175.024 Y-74.093 Z-0.324
X-175.068 Y-74.221 Z-0.247
X-175.109 Y-74.348 Z-0.176
X-175.145 Y-74.471 Z-0.114
X-175.167 Y-74.553 Z-0.076
X-175.197 Y-74.677 Z-0.025
X-175.211 Y-74.744 Z0
G0 Z5
X-169.485 Y-97.68
G1 Z0 F849.6
X-169.465 Y-97.778 Z-0.035
X-169.436 Y-97.901 Z-0.085
X-169.412 Y-97.991 Z-0.127
X-169.375 Y-98.114 Z-0.19
X-169.334 Y-98.242 Z-0.261
X-169.27 Y-98.424 Z-0.373
X-169.225 Y-98.546 Z-0.451
X-169.178 Y-98.664 Z-0.531
X-169.146 Y-98.735 Z-0.587
X-169.109 Y-98.805 Z-0.651
X-169.082 Y-98.854 Z-0.698
X-168.962 Y-99.069 Z-0.907
X-168.901 Y-99.171 Z-1.011
X-168.81 Y-99.319 Z-1.169
X-168.721 Y-99.454 Z-1.324
X-168.614 Y-99.605 Z-1.509
X-168.539 Y-99.706 Z-1.639
X-168.436 Y-99.838 Z-1.818
X-168.307 Y-99.994 Z-2.041
X-168.193 Y-100.125 Z-2.238
X-168.037 Y-100.297 Z-2.508
X-167.836 Y-100.511 Z-2.856
X-167.652 Y-100.702 Z-3.175
X-167.907 Y-100.966 Z-2.734
X-168.119 Y-101.194 Z-2.367
X-168.261 Y-101.355 Z-2.12
X-168.394 Y-101.513 Z-1.89
X-168.492 Y-101.634 Z-1.721
X-168.598 Y-101.773 Z-1.537
X-168.698 Y-101.914 Z-1.363
X-168.775 Y-102.028 Z-1.23
X-168.865 Y-102.169 Z-1.073
X-168.949 Y-102.307 Z-0.929
X-169.069 Y-102.517 Z-0.721
X-169.091 Y-102.557 Z-0.683
X-169.132 Y-102.633 Z-0.612
X-169.167 Y-102.709 Z-0.55
X-169.218 Y-102.838 Z-0.462
X-169.284 Y-103.019 Z-0.348
X-169.331 Y-103.152 Z-0.268
X-169.371 Y-103.278 Z-0.197
X-169.406 Y-103.396 Z-0.137
X-169.428 Y-103.48 Z-0.098
X-169.447 Y-103.555 Z-0.066
X-169.475 Y-103.68 Z-0.018
X-169.485 Y-103.733 Z0
X-169.475 Y-103.68 Z-0.018
X-169.447 Y-103.555 Z-0.066
X-169.428 Y-103.48 Z-0.098
X-169.406 Y-103.396 Z-0.137
X-169.371 Y-103.278 Z-0.197
X-169.331 Y-103.152 Z-0.268
X-169.284 Y-103.019 Z-0.348
X-169.218 Y-102.838 Z-0.462
X-169.167 Y-102.709 Z-0.55
X-169.132 Y-102.633 Z-0.612
X-169.091 Y-102.557 Z-0.683
X-169.069 Y-102.517 Z-0.721
X-168.949 Y-102.307 Z-0.929
X-168.865 Y-102.169 Z-1.073
X-168.775 Y-102.028 Z-1.23
X-168.698 Y-101.914 Z-1.363
X-168.598 Y-101.773 Z-1.537
X-168.492 Y-101.634 Z-1.721
X-168.394 Y-101.513 Z-1.89
X-168.261 Y-101.355 Z-2.12
X-168.119 Y-101.194 Z-2.367
X-167.907 Y-100.966 Z-2.734
X-167.652 Y-100.702 Z-3.175
X-167.64
X-152.018
X-151.832 Y-100.706 Z-3.182
X-151.646 Y-100.717 Z-3.202
X-151.46 Y-100.737 Z-3.236
X-151.275 Y-100.764 Z-3.283
X-151.089 Y-100.799 Z-3.343
X-150.903 Y-100.841 Z-3.417
X-150.717 Y-100.892 Z-3.504
X-150.531 Y-100.95 Z-3.605
X-150.345 Y-101.015 Z-3.719
X-150.16 Y-101.089 Z-3.846
X-149.974 Y-101.17 Z-3.987
X-149.788 Y-101.259 Z-4.141
X-149.602 Y-101.356 Z-4.309
X-149.416 Y-101.461 Z-4.49
X-149.23 Y-101.573 Z-4.684
X-148.279 Y-100.623 Z-3.039
X-147.997 Y-100.356 Z-2.576
X-147.826 Y-100.199 Z-2.305
X-147.658 Y-100.052 Z-2.05
X-147.508 Y-99.929 Z-1.837
X-147.404 Y-99.846 Z-1.693
X-147.269 Y-99.744 Z-1.516
X-147.153 Y-99.661 Z-1.373
X-147.025 Y-99.575 Z-1.223
X-146.93 Y-99.515 Z-1.119
X-146.793 Y-99.431 Z-0.973
X-146.613 Y-99.328 Z-0.795
X-146.469 Y-99.248 Z-0.657
X-146.396 Y-99.209 Z-0.59
X-146.323 Y-99.176 Z-0.532
X-146.196 Y-99.126 Z-0.446
X-145.961 Y-99.041 Z-0.299
X-145.833 Y-98.998 Z-0.224
X-145.703 Y-98.957 Z-0.154
X-145.629 Y-98.936 Z-0.118
X-145.5 Y-98.904 Z-0.061
X-145.374 Y-98.876 Z-0.013
X-145.337 Y-98.869 Z0
X-145.374 Y-98.876 Z-0.013
X-145.5 Y-98.904 Z-0.061
X-145.629 Y-98.936 Z-0.118
X-145.703 Y-98.957 Z-0.154
X-145.833 Y-98.998 Z-0.224
X-145.961 Y-99.041 Z-0.299
X-146.196 Y-99.126 Z-0.446
X-146.323 Y-99.176 Z-0.532
X-146.396 Y-99.209 Z-0.59
X-146.469 Y-99.248 Z-0.657
X-146.613 Y-99.328 Z-0.795
X-146.793 Y-99.431 Z-0.973
X-146.93 Y-99.515 Z-1.119
X-147.025 Y-99.575 Z-1.223
X-147.153 Y-99.661 Z-1.373
X-147.269 Y-99.744 Z-1.516
X-147.404 Y-99.846 Z-1.693
X-147.508 Y-99.929 Z-1.837
X-147.658 Y-100.052 Z-2.05
X-147.826 Y-100.199 Z-2.305
X-147.997 Y-100.356 Z-2.576
X-148.279 Y-100.623 Z-3.039
X-149.23 Y-101.573 Z-4.684
X-149.189 Y-101.767 Z-4.612
X-149.154 Y-101.961 Z-4.551
X-149.125 Y-102.155 Z-4.501
X-149.102 Y-102.35 Z-4.463
X-149.086 Y-102.544 Z-4.435
X-149.077 Y-102.738 Z-4.418
X-149.074 Y-102.932 Z-4.413
Y-108.931
X-149.077 Y-109.145 Z-4.419
X-149.089 Y-109.359 Z-4.44
X-149.109 Y-109.574 Z-4.473
X-149.136 Y-109.788 Z-4.521
X-149.171 Y-110.002 Z-4.581
X-149.214 Y-110.216 Z-4.656
X-149.264 Y-110.43 Z-4.743
X-149.323 Y-110.645 Z-4.844
X-149.389 Y-110.859 Z-4.959
X-149.463 Y-111.073 Z-5.087
X-149.642 Z-4.854
X-149.817 Z-4.632
X-149.989 Z-4.423
X-150.157 Z-4.227
X-150.322 Z-4.045
X-150.485 Z-3.875
X-150.645 Z-3.719
X-150.803 Z-3.578
X-150.959 Z-3.451
X-151.037 Z-3.394
X-151.114 Z-3.34
X-151.19 Z-3.29
X-151.266 Z-3.244
X-151.342 Z-3.203
X-151.418 Z-3.165
X-151.494 Z-3.132
X-151.569 Z-3.103
X-151.644 Z-3.079
X-151.719 Z-3.059
X-151.794 Z-3.043
X-151.869 Z-3.032
X-151.943 Z-3.025
X-152.018 Z-3.023
X-161.29
X-161.388 Z-3.026
X-161.681 Y-111.382 Z-2.519
X-161.841 Y-111.558 Z-2.242
X-161.98 Y-111.72 Z-2.001
X-162.076 Y-111.836 Z-1.835
X-162.171 Y-111.957 Z-1.67
X-162.249 Y-112.059 Z-1.535
X-162.358 Y-112.214 Z-1.345
X-162.447 Y-112.347 Z-1.192
X-162.516 Y-112.456 Z-1.072
X-162.593 Y-112.584 Z-0.939
X-162.677 Y-112.729 Z-0.794
X-162.786 Y-112.93 Z-0.604
X-162.82 Y-113.002 Z-0.547
X-162.868 Y-113.126 Z-0.462
X-162.933 Y-113.302 Z-0.35
X-162.982 Y-113.44 Z-0.266
X-163.039 Y-113.617 Z-0.167
X-163.064 Y-113.705 Z-0.123
X-163.096 Y-113.828 Z-0.067
X-163.128 Y-113.961 Z-0.013
X-163.135 Y-113.997 Z0
X-163.128 Y-113.961 Z-0.013
X-163.096 Y-113.828 Z-0.067
X-163.064 Y-113.705 Z-0.123
X-163.039 Y-113.617 Z-0.167
X-162.982 Y-113.44 Z-0.266
X-162.933 Y-113.302 Z-0.35
X-162.868 Y-113.126 Z-0.462
X-162.82 Y-113.002 Z-0.547
X-162.786 Y-112.93 Z-0.604
X-162.677 Y-112.729 Z-0.794
X-162.593 Y-112.584 Z-0.939
X-162.516 Y-112.456 Z-1.072
X-162.447 Y-112.347 Z-1.192
X-162.358 Y-112.214 Z-1.345
X-162.249 Y-112.059 Z-1.535
X-162.171 Y-111.957 Z-1.67
X-162.076 Y-111.836 Z-1.835
X-161.98 Y-111.72 Z-2.001
X-161.841 Y-111.558 Z-2.242
X-161.681 Y-111.382 Z-2.519
X-161.388 Y-111.073 Z-3.026
X-161.686 Y-110.759 Z-2.509
X-161.849 Y-110.58 Z-2.228
X-161.954 Y-110.459 Z-2.045
X-162.091 Y-110.294 Z-1.809
X-162.224 Y-110.124 Z-1.579
X-162.329 Y-109.98 Z-1.396
X-162.43 Y-109.832 Z-1.222
X-162.509 Y-109.709 Z-1.085
X-162.578 Y-109.595 Z-0.965
X-162.678 Y-109.422 Z-0.791
X-162.759 Y-109.277 Z-0.652
X-162.799 Y-109.201 Z-0.582
X-162.834 Y-109.125 Z-0.521
X-162.884 Y-108.997 Z-0.435
X-162.966 Y-108.77 Z-0.293
X-163.013 Y-108.63 Z-0.212
X-163.054 Y-108.497 Z-0.141
X-163.09 Y-108.363 Z-0.077
X-163.12 Y-108.242 Z-0.027
X-163.135 Y-108.168 Z0
X-163.12 Y-108.242 Z-0.027
X-163.09 Y-108.363 Z-0.077
X-163.054 Y-108.497 Z-0.141
X-163.013 Y-108.63 Z-0.212
X-162.966 Y-108.77 Z-0.293
X-162.884 Y-108.997 Z-0.435
X-162.834 Y-109.125 Z-0.521
X-162.799 Y-109.201 Z-0.582
X-162.759 Y-109.277 Z-0.652
X-162.678 Y-109.422 Z-0.791
X-162.578 Y-109.595 Z-0.965
X-162.509 Y-109.709 Z-1.085
X-162.43 Y-109.832 Z-1.222
X-162.329 Y-109.98 Z-1.396
X-162.224 Y-110.124 Z-1.579
X-162.091 Y-110.294 Z-1.809
X-161.954 Y-110.459 Z-2.045
X-161.849 Y-110.58 Z-2.228
X-161.686 Y-110.759 Z-2.509
X-161.388 Y-111.073 Z-3.026
X-161.29 Z-3.023
X-152.018
X-151.943 Z-3.025
X-151.869 Z-3.032
X-151.794 Z-3.043
X-151.719 Z-3.059
X-151.644 Z-3.079
X-151.569 Z-3.103
X-151.494 Z-3.132
X-151.418 Z-3.165
X-151.342 Z-3.203
X-151.266 Z-3.244
X-151.19 Z-3.29
X-151.114 Z-3.34
X-151.037 Z-3.394
X-150.959 Z-3.451
X-150.803 Z-3.578
X-150.645 Z-3.719
X-150.485 Z-3.875
X-150.322 Z-4.045
X-150.157 Z-4.227
X-149.989 Z-4.423
X-149.817 Z-4.632
X-149.642 Z-4.854
X-149.463 Z-5.087
X-149.389 Y-111.287 Z-4.959
X-149.323 Y-111.501 Z-4.844
X-149.264 Y-111.716 Z-4.743
X-149.214 Y-111.93 Z-4.656
X-149.171 Y-112.144 Z-4.581
X-149.136 Y-112.358 Z-4.521
X-149.109 Y-112.572 Z-4.473
X-149.089 Y-112.787 Z-4.44
X-149.077 Y-113.001 Z-4.419
X-149.074 Y-113.215 Z-4.413
Y-118.621
X-149.077 Y-118.815 Z-4.418
X-149.086 Y-119.009 Z-4.435
X-149.102 Y-119.203 Z-4.462
X-149.125 Y-119.397 Z-4.501
X-149.153 Y-119.592 Z-4.551
X-149.189 Y-119.786 Z-4.612
X-149.23 Y-119.98 Z-4.684
X-148.229 Y-120.978 Z-2.955
X-147.961 Y-121.232 Z-2.515
X-147.781 Y-121.395 Z-2.233
X-147.623 Y-121.531 Z-1.997
X-147.513 Y-121.621 Z-1.841
X-147.392 Y-121.717 Z-1.675
X-147.282 Y-121.8 Z-1.532
X-147.176 Y-121.876 Z-1.399
X-147.048 Y-121.963 Z-1.25
X-146.914 Y-122.048 Z-1.102
X-146.812 Y-122.11 Z-0.994
X-146.621 Y-122.22 Z-0.804
X-146.423 Y-122.327 Z-0.618
X-146.34 Y-122.366 Z-0.551
X-146.208 Y-122.416 Z-0.464
X-146.037 Y-122.478 Z-0.357
X-145.908 Y-122.522 Z-0.28
X-145.781 Y-122.563 Z-0.209
X-145.656 Y-122.6 Z-0.146
X-145.579 Y-122.621 Z-0.11
X-145.448 Y-122.653 Z-0.054
X-145.326 Y-122.679 Z-0.009
X-145.3 Y-122.684 Z0
X-145.326 Y-122.679 Z-0.009
X-145.448 Y-122.653 Z-0.054
X-145.579 Y-122.621 Z-0.11
X-145.656 Y-122.6 Z-0.146
X-145.781 Y-122.563 Z-0.209
X-145.908 Y-122.522 Z-0.28
X-146.037 Y-122.478 Z-0.357
X-146.208 Y-122.416 Z-0.464
X-146.34 Y-122.366 Z-0.551
X-146.423 Y-122.327 Z-0.618
X-146.621 Y-122.22 Z-0.804
X-146.812 Y-122.11 Z-0.994
X-146.914 Y-122.048 Z-1.102
X-147.048 Y-121.963 Z-1.25
X-147.176 Y-121.876 Z-1.399
X-147.282 Y-121.8 Z-1.532
X-147.392 Y-121.717 Z-1.675
X-147.513 Y-121.621 Z-1.841
X-147.623 Y-121.531 Z-1.997
X-147.781 Y-121.395 Z-2.233
X-147.961 Y-121.232 Z-2.515
X-148.229 Y-120.978 Z-2.955
X-149.23 Y-119.98 Z-4.684
X-149.416 Y-120.092 Z-4.49
X-149.602 Y-120.197 Z-4.309
X-149.788 Y-120.293 Z-4.141
X-149.974 Y-120.382 Z-3.987
X-150.16 Y-120.464 Z-3.846
X-150.345 Y-120.537 Z-3.718
X-150.531 Y-120.603 Z-3.604
X-150.717 Y-120.661 Z-3.504
X-150.903 Y-120.712 Z-3.417
X-151.089 Y-120.754 Z-3.343
X-151.275 Y-120.789 Z-3.282
X-151.46 Y-120.816 Z-3.235
X-151.646 Y-120.836 Z-3.202
X-151.832 Y-120.847 Z-3.182
X-152.018 Y-120.851 Z-3.175
X-166.97
X-167.229 Y-120.583 Z-2.727
X-167.436 Y-120.361 Z-2.369
X-167.581 Y-120.197 Z-2.116
X-167.72 Y-120.033 Z-1.876
X-167.806 Y-119.927 Z-1.727
X-167.92 Y-119.779 Z-1.529
X-168.013 Y-119.649 Z-1.368
X-168.089 Y-119.539 Z-1.236
X-168.171 Y-119.413 Z-1.095
X-168.235 Y-119.309 Z-0.984
X-168.338 Y-119.135 Z-0.806
X-168.419 Y-118.992 Z-0.665
X-168.461 Y-118.914 Z-0.592
X-168.498 Y-118.837 Z-0.529
X-168.53 Y-118.759 Z-0.474
X-168.598 Y-118.574 Z-0.355
X-168.679 Y-118.342 Z-0.216
X-168.718 Y-118.216 Z-0.148
X-168.742 Y-118.13 Z-0.106
X-168.773 Y-118.007 Z-0.052
X-168.801 Y-117.885 Z-0.003
X-168.803 Y-117.876 Z0
X-168.801 Y-117.885 Z-0.003
X-168.773 Y-118.007 Z-0.052
X-168.742 Y-118.13 Z-0.106
X-168.718 Y-118.216 Z-0.148
X-168.679 Y-118.342 Z-0.216
X-168.598 Y-118.574 Z-0.355
X-168.53 Y-118.759 Z-0.474
X-168.498 Y-118.837 Z-0.529
X-168.461 Y-118.914 Z-0.592
X-168.419 Y-118.992 Z-0.665
X-168.338 Y-119.135 Z-0.806
X-168.235 Y-119.309 Z-0.984
X-168.171 Y-119.413 Z-1.095
X-168.089 Y-119.539 Z-1.236
X-168.013 Y-119.649 Z-1.368
X-167.92 Y-119.779 Z-1.529
X-167.806 Y-119.927 Z-1.727
X-167.72 Y-120.033 Z-1.876
X-167.581 Y-120.197 Z-2.116
X-167.436 Y-120.361 Z-2.369
X-167.229 Y-120.583 Z-2.727
X-166.97 Y-120.851 Z-3.175
X-167.234 Y-121.123 Z-2.718
X-167.398 Y-121.299 Z-2.434
X-167.517 Y-121.431 Z-2.228
X-167.65 Y-121.585 Z-1.996
X-167.746 Y-121.701 Z-1.83
X-167.843 Y-121.823 Z-1.663
X-167.926 Y-121.932 Z-1.519
X-167.997 Y-122.03 Z-1.396
X-168.083 Y-122.156 Z-1.247
X-168.148 Y-122.254 Z-1.136
X-168.229 Y-122.385 Z-0.994
X-168.284 Y-122.476 Z-0.899
X-168.427 Y-122.729 Z-0.651
X-168.467 Y-122.805 Z-0.581
X-168.503 Y-122.881 Z-0.52
X-168.551 Y-123.005 Z-0.437
X-168.597 Y-123.131 Z-0.356
X-168.678 Y-123.364 Z-0.217
X-168.717 Y-123.49 Z-0.149
X-168.741 Y-123.574 Z-0.107
X-168.773 Y-123.697 Z-0.053
X-168.791 Y-123.777 Z-0.02
X-168.803 Y-123.835 Z0
G0 Z5
X-146.249 Y-49.778
G1 Z0 F849.6
X-146.155 Y-49.797 Z-0.034
X-146.031 Y-49.826 Z-0.084
X-145.896 Y-49.861 Z-0.145
X-145.764 Y-49.901 Z-0.213
X-145.628 Y-49.945 Z-0.29
X-145.502 Y-49.989 Z-0.367
X-145.322 Y-50.056 Z-0.481
X-145.195 Y-50.105 Z-0.567
X-145.124 Y-50.138 Z-0.625
X-145.052 Y-50.176 Z-0.69
X-144.877 Y-50.274 Z-0.859
X-144.715 Y-50.368 Z-1.023
X-144.577 Y-50.453 Z-1.17
X-144.43 Y-50.549 Z-1.337
X-144.31 Y-50.633 Z-1.482
X-144.205 Y-50.71 Z-1.616
X-144.031 Y-50.845 Z-1.849
X-143.906 Y-50.949 Z-2.029
X-143.739 Y-51.093 Z-2.279
X-143.568 Y-51.248 Z-2.546
X-143.25 Y-51.55 Z-3.069
X-141.932 Y-52.866 Z-5.349
X-141.798 Y-52.644 Z-4.965
X-141.69 Y-52.472 Z-4.667
X-141.51 Y-52.197 Z-4.191
X-141.375 Y-52 Z-3.849
X-141.251 Y-51.825 Z-3.546
X-141.169 Y-51.714 Z-3.354
X-141.022 Y-51.524 Z-3.025
X-140.886 Y-51.354 Z-2.73
X-140.726 Y-51.164 Z-2.4
X-140.607 Y-51.027 Z-2.163
X-140.506 Y-50.914 Z-1.968
X-140.405 Y-50.809 Z-1.786
X-140.304 Y-50.711 Z-1.616
X-140.202 Y-50.62 Z-1.459
X-140.101 Y-50.536 Z-1.314
X-139.938 Y-50.415 Z-1.104
X-139.779 Y-50.302 Z-0.908
X-139.618 Y-50.193 Z-0.72
X-139.512 Y-50.126 Z-0.603
X-139.419 Y-50.071 Z-0.507
X-139.315 Y-50.013 Z-0.407
X-139.213 Y-49.962 Z-0.319
X-139.112 Y-49.916 Z-0.24
X-139.01 Y-49.875 Z-0.169
X-138.923 Y-49.845 Z-0.117
X-138.834 Y-49.818 Z-0.07
X-138.757 Y-49.798 Z-0.034
X-138.679 Y-49.779 Z-0.003
X-138.672 Y-49.778 Z0
X-138.679 Y-49.779 Z-0.003
X-138.757 Y-49.798 Z-0.034
X-138.834 Y-49.818 Z-0.07
X-138.923 Y-49.845 Z-0.117
X-139.01 Y-49.875 Z-0.169
X-139.112 Y-49.916 Z-0.24
X-139.213 Y-49.962 Z-0.319
X-139.315 Y-50.013 Z-0.407
X-139.419 Y-50.071 Z-0.507
X-139.512 Y-50.126 Z-0.603
X-139.618 Y-50.193 Z-0.72
X-139.779 Y-50.302 Z-0.908
X-139.938 Y-50.415 Z-1.104
X-140.101 Y-50.536 Z-1.314
X-140.202 Y-50.62 Z-1.459
X-140.304 Y-50.711 Z-1.616
X-140.405 Y-50.809 Z-1.786
X-140.506 Y-50.914 Z-1.968
X-140.607 Y-51.027 Z-2.163
X-140.726 Y-51.164 Z-2.4
X-140.886 Y-51.354 Z-2.73
X-141.022 Y-51.524 Z-3.025
X-141.169 Y-51.714 Z-3.354
X-141.251 Y-51.825 Z-3.546
X-141.375 Y-52 Z-3.849
X-141.51 Y-52.197 Z-4.191
X-141.69 Y-52.472 Z-4.667
X-141.798 Y-52.644 Z-4.965
X-141.932 Y-52.866 Z-5.349
X-141.907 Y-52.963 Z-5.392
X-141.849 Y-53.172 Z-5.493
X-141.761 Y-53.459 Z-5.645
X-141.711 Y-53.612 Z-5.731
X-141.649 Y-53.797 Z-5.839
X-141.581 Y-53.981 Z-5.956
X-141.413 Y-54.425 Z-6.248
X-141.549 Y-54.623 Z-6.013
X-141.677 Y-54.821 Z-5.791
X-141.798 Y-55.019 Z-5.581
X-141.912 Y-55.218 Z-5.384
X-142.018 Y-55.416 Z-5.2
X-142.117 Y-55.614 Z-5.029
X-142.209 Y-55.813 Z-4.87
X-142.293 Y-56.011 Z-4.724
X-142.37 Y-56.209 Z-4.59
X-142.44 Y-56.407 Z-4.47
X-142.502 Y-56.606 Z-4.362
X-142.557 Y-56.804 Z-4.267
X-142.605 Y-57.002 Z-4.184
X-142.645 Y-57.2 Z-4.114
X-142.678 Y-57.399 Z-4.057
X-142.704 Y-57.597 Z-4.013
X-142.722 Y-57.795 Z-3.981
X-142.733 Y-57.994 Z-3.962
X-142.736 Y-58.192 Z-3.955
Y-71.31
X-142.18 Y-71.864 Z-2.996
X-142.021 Y-72.016 Z-2.731
X-141.801 Y-72.22 Z-2.378
X-141.633 Y-72.369 Z-2.121
X-141.506 Y-72.477 Z-1.934
X-141.36 Y-72.594 Z-1.73
X-141.226 Y-72.697 Z-1.553
X-141.074 Y-72.805 Z-1.365
X-140.955 Y-72.886 Z-1.225
X-140.815 Y-72.975 Z-1.071
X-140.68 Y-73.056 Z-0.931
X-140.504 Y-73.157 Z-0.757
X-140.409 Y-73.209 Z-0.666
X-140.337 Y-73.246 Z-0.601
X-140.266 Y-73.279 Z-0.544
X-140.138 Y-73.329 Z-0.458
X-139.96 Y-73.394 Z-0.345
X-139.834 Y-73.438 Z-0.27
X-139.704 Y-73.48 Z-0.197
X-139.567 Y-73.52 Z-0.127
X-139.436 Y-73.553 Z-0.069
X-139.31 Y-73.581 Z-0.021
X-139.25 Y-73.593 Z0
X-139.31 Y-73.581 Z-0.021
X-139.436 Y-73.553 Z-0.069
X-139.567 Y-73.52 Z-0.127
X-139.704 Y-73.48 Z-0.197
X-139.834 Y-73.438 Z-0.27
X-139.96 Y-73.394 Z-0.345
X-140.138 Y-73.329 Z-0.458
X-140.266 Y-73.279 Z-0.544
X-140.337 Y-73.246 Z-0.601
X-140.409 Y-73.209 Z-0.666
X-140.504 Y-73.157 Z-0.757
X-140.68 Y-73.056 Z-0.931
X-140.815 Y-72.975 Z-1.071
X-140.955 Y-72.886 Z-1.225
X-141.074 Y-72.805 Z-1.365
X-141.226 Y-72.697 Z-1.553
X-141.36 Y-72.594 Z-1.73
X-141.506 Y-72.477 Z-1.934
X-141.633 Y-72.369 Z-2.121
X-141.801 Y-72.22 Z-2.378
X-142.021 Y-72.016 Z-2.731
X-142.18 Y-71.864 Z-2.996
X-142.736 Y-71.31 Z-3.955
X-143.27 Y-71.842 Z-3.034
X-143.588 Y-72.144 Z-2.511
X-143.759 Y-72.297 Z-2.245
X-143.852 Y-72.379 Z-2.103
X-144.004 Y-72.507 Z-1.882
X-144.049 Y-72.544 Z-1.818
X-144.221 Y-72.677 Z-1.586
X-144.325 Y-72.753 Z-1.455
X-144.445 Y-72.838 Z-1.309
X-144.59 Y-72.932 Z-1.145
X-144.727 Y-73.017 Z-0.999
X-144.889 Y-73.111 Z-0.835
X-145.064 Y-73.209 Z-0.665
X-145.136 Y-73.247 Z-0.6
X-145.208 Y-73.28 Z-0.542
X-145.334 Y-73.329 Z-0.458
X-145.513 Y-73.394 Z-0.345
X-145.639 Y-73.438 Z-0.269
X-145.769 Y-73.48 Z-0.196
X-145.889 Y-73.515 Z-0.135
X-145.974 Y-73.538 Z-0.096
X-146.105 Y-73.569 Z-0.042
X-146.221 Y-73.593 Z0
X-146.105 Y-73.569 Z-0.042
X-145.974 Y-73.538 Z-0.096
X-145.889 Y-73.515 Z-0.135
X-145.769 Y-73.48 Z-0.196
X-145.639 Y-73.438 Z-0.269
X-145.513 Y-73.394 Z-0.345
X-145.334 Y-73.329 Z-0.458
X-145.208 Y-73.28 Z-0.542
X-145.136 Y-73.247 Z-0.6
X-145.064 Y-73.209 Z-0.665
X-144.889 Y-73.111 Z-0.835
X-144.727 Y-73.017 Z-0.999
X-144.59 Y-72.932 Z-1.145
X-144.445 Y-72.838 Z-1.309
X-144.325 Y-72.753 Z-1.455
X-144.221 Y-72.677 Z-1.586
X-144.049 Y-72.544 Z-1.818
X-144.004 Y-72.507 Z-1.882
X-143.852 Y-72.379 Z-2.103
X-143.759 Y-72.297 Z-2.245
X-143.588 Y-72.144 Z-2.511
X-143.27 Y-71.842 Z-3.034
X-142.736 Y-71.31 Z-3.955
Y-58.192
X-142.733 Y-57.994 Z-3.962
X-142.722 Y-57.795 Z-3.981
X-142.704 Y-57.597 Z-4.013
X-142.678 Y-57.399 Z-4.057
X-142.645 Y-57.2 Z-4.114
X-142.605 Y-57.002 Z-4.184
X-142.557 Y-56.804 Z-4.267
X-142.502 Y-56.606 Z-4.362
X-142.44 Y-56.407 Z-4.47
X-142.37 Y-56.209 Z-4.59
X-142.293 Y-56.011 Z-4.724
X-142.209 Y-55.813 Z-4.87
X-142.117 Y-55.614 Z-5.029
X-142.018 Y-55.416 Z-5.2
X-141.912 Y-55.218 Z-5.384
X-141.798 Y-55.019 Z-5.581
X-141.677 Y-54.821 Z-5.791
X-141.549 Y-54.623 Z-6.013
X-141.413 Y-54.425 Z-6.248
X-141.344 Y-54.442 Z-6.179
X-141.155 Y-54.493 Z-5.996
X-140.985 Y-54.541 Z-5.837
X-140.844 Y-54.584 Z-5.709
X-140.67 Y-54.639 Z-5.557
X-140.51 Y-54.694 Z-5.422
X-140.387 Y-54.738 Z-5.322
X-140.228 Y-54.798 Z-5.199
X-140.077 Y-54.859 Z-5.085
X-139.927 Y-54.923 Z-4.979
X-139.812 Y-54.975 Z-4.9
X-139.56 Y-55.096 Z-4.743
X-139.373 Y-55.194 Z-4.637
X-139.192 Y-55.298 Z-4.544
X-139.015 Y-55.406 Z-4.463
X-138.843 Y-55.52 Z-4.395
X-138.676 Y-55.639 Z-4.339
X-138.515 Y-55.763 Z-4.295
X-138.358 Y-55.892 Z-4.264
X-138.206 Y-56.026 Z-4.245
X-138.06 Y-56.166 Z-4.239
X-126.449 Y-67.643 Z-4.288
X-126.299 Y-67.786 Z-4.295
X-126.144 Y-67.924 Z-4.315
X-125.983 Y-68.056 Z-4.348
X-125.817 Y-68.183 Z-4.394
X-125.646 Y-68.305 Z-4.453
X-125.47 Y-68.422 Z-4.525
X-125.289 Y-68.533 Z-4.61
X-125.102 Y-68.639 Z-4.707
X-124.91 Y-68.739 Z-4.818
X-124.712 Y-68.834 Z-4.941
X-124.51 Y-68.924 Z-5.078
X-124.5 Y-68.928 Z-5.085
X-124.338 Y-68.996 Z-5.202
X-124.193 Y-69.053 Z-5.314
X-124.027 Y-69.116 Z-5.45
X-123.874 Y-69.173 Z-5.582
X-123.676 Y-69.243 Z-5.763
X-123.524 Y-69.296 Z-5.911
X-123.301 Y-69.371 Z-6.139
X-123.123 Y-69.43 Z-6.329
X-123.058 Y-69.642 Z-6.217
X-123.041 Y-69.701 Z-6.187
X-122.966 Y-69.972 Z-6.058
X-122.925 Y-70.137 Z-5.986
X-121.173 Y-71.886 Z-2.957
X-120.943 Y-72.104 Z-2.579
X-120.818 Y-72.22 Z-2.379
X-120.64 Y-72.377 Z-2.107
X-120.487 Y-72.505 Z-1.885
X-120.348 Y-72.616 Z-1.693
X-120.224 Y-72.709 Z-1.531
X-120.091 Y-72.804 Z-1.367
X-119.971 Y-72.885 Z-1.227
X-119.812 Y-72.985 Z-1.054
X-119.631 Y-73.091 Z-0.871
X-119.427 Y-73.204 Z-0.674
X-119.354 Y-73.242 Z-0.609
X-119.282 Y-73.275 Z-0.552
X-119.156 Y-73.324 Z-0.467
X-118.978 Y-73.388 Z-0.356
X-118.852 Y-73.431 Z-0.281
X-118.722 Y-73.473 Z-0.209
X-118.587 Y-73.513 Z-0.14
X-118.454 Y-73.547 Z-0.08
X-118.329 Y-73.575 Z-0.031
X-118.242 Y-73.593 Z0
X-118.329 Y-73.575 Z-0.031
X-118.454 Y-73.547 Z-0.08
X-118.587 Y-73.513 Z-0.14
X-118.722 Y-73.473 Z-0.209
X-118.852 Y-73.431 Z-0.281
X-118.978 Y-73.388 Z-0.356
X-119.156 Y-73.324 Z-0.467
X-119.282 Y-73.275 Z-0.552
X-119.354 Y-73.242 Z-0.609
X-119.427 Y-73.204 Z-0.674
X-119.631 Y-73.091 Z-0.871
X-119.812 Y-72.985 Z-1.054
X-119.971 Y-72.885 Z-1.227
X-120.091 Y-72.804 Z-1.367
X-120.224 Y-72.709 Z-1.531
X-120.348 Y-72.616 Z-1.693
X-120.487 Y-72.505 Z-1.885
X-120.64 Y-72.377 Z-2.107
X-120.818 Y-72.22 Z-2.379
X-120.943 Y-72.104 Z-2.579
X-121.173 Y-71.886 Z-2.957
X-122.925 Y-70.137 Z-5.986
X-122.969 Y-70.21 Z-5.861
X-123.177 Y-70.542 Z-5.284
X-123.365 Y-70.829 Z-4.788
X-123.588 Y-71.152 Z-4.228
X-123.759 Y-71.389 Z-3.817
X-123.905 Y-71.587 Z-3.476
X-124.105 Y-71.845 Z-3.027
X-124.292 Y-72.082 Z-2.618
X-124.405 Y-72.22 Z-2.378
X-124.518 Y-72.35 Z-2.153
X-124.632 Y-72.471 Z-1.944
X-124.745 Y-72.584 Z-1.749
X-124.858 Y-72.687 Z-1.569
X-124.972 Y-72.782 Z-1.404
X-125.138 Y-72.907 Z-1.189
X-125.292 Y-73.018 Z-0.996
X-125.447 Y-73.125 Z-0.811
X-125.579 Y-73.21 Z-0.664
X-125.673 Y-73.267 Z-0.565
X-125.778 Y-73.326 Z-0.463
X-125.882 Y-73.38 Z-0.37
X-125.984 Y-73.427 Z-0.288
X-126.081 Y-73.468 Z-0.218
X-126.18 Y-73.504 Z-0.155
X-126.263 Y-73.531 Z-0.109
X-126.347 Y-73.555 Z-0.067
X-126.424 Y-73.575 Z-0.032
X-126.5 Y-73.592 Z-0.002
X-126.506 Y-73.593 Z0
X-126.5 Y-73.592 Z-0.002
X-126.424 Y-73.575 Z-0.032
X-126.347 Y-73.555 Z-0.067
X-126.263 Y-73.531 Z-0.109
X-126.18 Y-73.504 Z-0.155
X-126.081 Y-73.468 Z-0.218
X-125.984 Y-73.427 Z-0.288
X-125.882 Y-73.38 Z-0.37
X-125.778 Y-73.326 Z-0.463
X-125.673 Y-73.267 Z-0.565
X-125.579 Y-73.21 Z-0.664
X-125.447 Y-73.125 Z-0.811
X-125.292 Y-73.018 Z-0.996
X-125.138 Y-72.907 Z-1.189
X-124.972 Y-72.782 Z-1.404
X-124.858 Y-72.687 Z-1.569
X-124.745 Y-72.584 Z-1.749
X-124.632 Y-72.471 Z-1.944
X-124.518 Y-72.35 Z-2.153
X-124.405 Y-72.22 Z-2.378
X-124.292 Y-72.082 Z-2.618
X-124.105 Y-71.845 Z-3.027
X-123.905 Y-71.587 Z-3.476
X-123.759 Y-71.389 Z-3.817
X-123.588 Y-71.152 Z-4.228
X-123.365 Y-70.829 Z-4.788
X-123.177 Y-70.542 Z-5.284
X-122.969 Y-70.21 Z-5.861
X-122.925 Y-70.137 Z-5.986
X-122.966 Y-69.972 Z-6.058
X-123.041 Y-69.701 Z-6.187
X-123.058 Y-69.642 Z-6.217
X-123.123 Y-69.43 Z-6.329
X-122.983 Y-69.228 Z-6.086
X-122.85 Y-69.026 Z-5.856
X-122.724 Y-68.825 Z-5.639
X-122.607 Y-68.623 Z-5.435
X-122.497 Y-68.421 Z-5.244
X-122.394 Y-68.219 Z-5.067
X-122.299 Y-68.018 Z-4.902
X-122.212 Y-67.816 Z-4.751
X-122.132 Y-67.614 Z-4.613
X-122.06 Y-67.412 Z-4.488
X-121.995 Y-67.211 Z-4.376
X-121.939 Y-67.009 Z-4.278
X-121.889 Y-66.807 Z-4.192
X-121.847 Y-66.605 Z-4.12
X-121.813 Y-66.404 Z-4.061
X-121.787 Y-66.202 Z-4.015
X-121.768 Y-66 Z-3.982
X-121.756 Y-65.798 Z-3.962
X-121.753 Y-65.597 Z-3.955
Y-52.061
X-121.221 Y-51.532 Z-3.038
X-120.941 Y-51.265 Z-2.577
X-120.767 Y-51.107 Z-2.302
X-120.6 Y-50.961 Z-2.05
X-120.451 Y-50.838 Z-1.836
X-120.342 Y-50.751 Z-1.686
X-120.236 Y-50.672 Z-1.548
X-120.115 Y-50.584 Z-1.396
X-120.014 Y-50.515 Z-1.276
X-119.873 Y-50.424 Z-1.119
X-119.736 Y-50.34 Z-0.973
X-119.555 Y-50.236 Z-0.794
X-119.398 Y-50.149 Z-0.644
X-119.3 Y-50.1 Z-0.558
X-119.202 Y-50.059 Z-0.487
X-118.976 Y-49.975 Z-0.342
X-118.844 Y-49.929 Z-0.263
X-118.709 Y-49.885 Z-0.186
X-118.573 Y-49.846 Z-0.118
X-118.442 Y-49.812 Z-0.06
X-118.314 Y-49.784 Z-0.011
X-118.28 Y-49.778 Z0
X-118.314 Y-49.784 Z-0.011
X-118.442 Y-49.812 Z-0.06
X-118.573 Y-49.846 Z-0.118
X-118.709 Y-49.885 Z-0.186
X-118.844 Y-49.929 Z-0.263
X-118.976 Y-49.975 Z-0.342
X-119.202 Y-50.059 Z-0.487
X-119.3 Y-50.1 Z-0.558
X-119.398 Y-50.149 Z-0.644
X-119.555 Y-50.236 Z-0.794
X-119.736 Y-50.34 Z-0.973
X-119.873 Y-50.424 Z-1.119
X-120.014 Y-50.515 Z-1.276
X-120.115 Y-50.584 Z-1.396
X-120.236 Y-50.672 Z-1.548
X-120.342 Y-50.751 Z-1.686
X-120.451 Y-50.838 Z-1.836
X-120.6 Y-50.961 Z-2.05
X-120.767 Y-51.107 Z-2.302
X-120.941 Y-51.265 Z-2.577
X-121.221 Y-51.532 Z-3.038
X-121.753 Y-52.061 Z-3.955
X-122.265 Y-51.551 Z-3.071
X-122.539 Y-51.29 Z-2.62
X-122.759 Y-51.091 Z-2.275
X-122.889 Y-50.978 Z-2.079
X-123.039 Y-50.854 Z-1.864
X-123.148 Y-50.767 Z-1.714
X-123.274 Y-50.673 Z-1.55
X-123.432 Y-50.561 Z-1.356
X-123.574 Y-50.467 Z-1.193
X-123.69 Y-50.394 Z-1.068
X-123.856 Y-50.297 Z-0.899
X-124.001 Y-50.215 Z-0.757
X-124.156 Y-50.132 Z-0.614
X-124.228 Y-50.098 Z-0.555
X-124.35 Y-50.05 Z-0.472
X-124.532 Y-49.983 Z-0.356
X-124.719 Y-49.918 Z-0.244
X-124.849 Y-49.877 Z-0.173
X-124.974 Y-49.842 Z-0.111
X-125.053 Y-49.822 Z-0.077
X-125.181 Y-49.792 Z-0.026
X-125.253 Y-49.778 Z0
G0 Z5
X-141.799 Y-103.705
G1 Z0 F849.6
X-141.794 Y-103.679 Z-0.01
X-141.766 Y-103.556 Z-0.057
X-141.745 Y-103.474 Z-0.093
X-141.711 Y-103.349 Z-0.153
X-141.672 Y-103.223 Z-0.22
X-141.63 Y-103.096 Z-0.294
X-141.542 Y-102.852 Z-0.445
X-141.492 Y-102.722 Z-0.532
X-141.457 Y-102.646 Z-0.593
X-141.342 Y-102.437 Z-0.792
X-141.253 Y-102.284 Z-0.946
X-141.167 Y-102.143 Z-1.094
X-141.08 Y-102.009 Z-1.245
X-141.011 Y-101.908 Z-1.365
X-140.917 Y-101.777 Z-1.527
X-140.84 Y-101.674 Z-1.661
X-140.75 Y-101.562 Z-1.816
X-140.642 Y-101.431 Z-2.004
X-140.509 Y-101.278 Z-2.234
X-140.355 Y-101.108 Z-2.501
X-140.228 Y-100.972 Z-2.722
X-139.966 Y-100.702 Z-3.175
X-140.179 Y-100.482 Z-2.805
X-140.34 Y-100.312 Z-2.528
X-140.494 Y-100.143 Z-2.261
X-140.608 Y-100.012 Z-2.063
X-140.726 Y-99.871 Z-1.858
X-140.844 Y-99.724 Z-1.655
X-140.958 Y-99.571 Z-1.457
X-141.028 Y-99.473 Z-1.336
X-141.116 Y-99.342 Z-1.183
X-141.186 Y-99.231 Z-1.061
X-141.27 Y-99.092 Z-0.916
X-141.368 Y-98.923 Z-0.747
X-141.423 Y-98.824 Z-0.651
X-141.464 Y-98.748 Z-0.581
X-141.499 Y-98.671 Z-0.52
X-141.549 Y-98.543 Z-0.434
X-141.634 Y-98.305 Z-0.285
X-141.677 Y-98.178 Z-0.212
X-141.717 Y-98.05 Z-0.143
X-141.739 Y-97.971 Z-0.104
X-141.773 Y-97.839 Z-0.046
X-141.799 Y-97.72 Z0
X-141.773 Y-97.839 Z-0.046
X-141.739 Y-97.971 Z-0.104
X-141.717 Y-98.05 Z-0.143
X-141.677 Y-98.178 Z-0.212
X-141.634 Y-98.305 Z-0.285
X-141.549 Y-98.543 Z-0.434
X-141.499 Y-98.671 Z-0.52
X-141.464 Y-98.748 Z-0.581
X-141.423 Y-98.824 Z-0.651
X-141.368 Y-98.923 Z-0.747
X-141.27 Y-99.092 Z-0.916
X-141.186 Y-99.231 Z-1.061
X-141.116 Y-99.342 Z-1.183
X-141.028 Y-99.473 Z-1.336
X-140.958 Y-99.571 Z-1.457
X-140.844 Y-99.724 Z-1.655
X-140.726 Y-99.871 Z-1.858
X-140.608 Y-100.012 Z-2.063
X-140.494 Y-100.143 Z-2.261
X-140.34 Y-100.312 Z-2.528
X-140.179 Y-100.482 Z-2.805
X-139.966 Y-100.702 Z-3.175
X-126.178
X-125.992 Y-100.706 Z-3.182
X-125.806 Y-100.717 Z-3.202
X-125.62 Y-100.737 Z-3.236
X-125.435 Y-100.764 Z-3.283
X-125.249 Y-100.799 Z-3.343
X-125.063 Y-100.841 Z-3.417
X-124.877 Y-100.892 Z-3.504
X-124.691 Y-100.95 Z-3.605
X-124.505 Y-101.015 Z-3.719
X-124.32 Y-101.089 Z-3.846
X-124.134 Y-101.17 Z-3.987
X-123.948 Y-101.259 Z-4.141
X-123.762 Y-101.356 Z-4.309
X-123.576 Y-101.461 Z-4.49
X-123.39 Y-101.573 Z-4.684
X-122.39 Y-100.576 Z-2.957
X-122.165 Y-100.363 Z-2.588
X-121.945 Y-100.163 Z-2.242
X-121.818 Y-100.052 Z-2.05
X-121.668 Y-99.929 Z-1.837
X-121.564 Y-99.846 Z-1.693
X-121.429 Y-99.744 Z-1.516
X-121.313 Y-99.661 Z-1.373
X-121.185 Y-99.575 Z-1.223
X-121.064 Y-99.498 Z-1.09
X-120.953 Y-99.431 Z-0.973
X-120.773 Y-99.328 Z-0.795
X-120.629 Y-99.248 Z-0.657
X-120.556 Y-99.209 Z-0.59
X-120.483 Y-99.176 Z-0.532
X-120.361 Y-99.128 Z-0.449
X-120.18 Y-99.061 Z-0.334
X-119.993 Y-98.998 Z-0.224
X-119.863 Y-98.957 Z-0.154
X-119.743 Y-98.924 Z-0.096
X-119.66 Y-98.904 Z-0.061
X-119.534 Y-98.876 Z-0.013
X-119.497 Y-98.869 Z0
X-119.534 Y-98.876 Z-0.013
X-119.66 Y-98.904 Z-0.061
X-119.743 Y-98.924 Z-0.096
X-119.863 Y-98.957 Z-0.154
X-119.993 Y-98.998 Z-0.224
X-120.18 Y-99.061 Z-0.334
X-120.361 Y-99.128 Z-0.449
X-120.483 Y-99.176 Z-0.532
X-120.556 Y-99.209 Z-0.59
X-120.629 Y-99.248 Z-0.657
X-120.773 Y-99.328 Z-0.795
X-120.953 Y-99.431 Z-0.973
X-121.064 Y-99.498 Z-1.09
X-121.185 Y-99.575 Z-1.223
X-121.313 Y-99.661 Z-1.373
X-121.429 Y-99.744 Z-1.516
X-121.564 Y-99.846 Z-1.693
X-121.668 Y-99.929 Z-1.837
X-121.818 Y-100.052 Z-2.05
X-121.945 Y-100.163 Z-2.242
X-122.165 Y-100.363 Z-2.588
X-122.39 Y-100.576 Z-2.957
X-123.39 Y-101.573 Z-4.684
X-123.349 Y-101.767 Z-4.612
X-123.313 Y-101.961 Z-4.551
X-123.285 Y-102.155 Z-4.501
X-123.262 Y-102.35 Z-4.463
X-123.246 Y-102.544 Z-4.435
X-123.237 Y-102.738 Z-4.418
X-123.233 Y-102.932 Z-4.413
Y-120.136
X-124.055 Y-120.955 Z-2.995
X-124.215 Y-121.109 Z-2.728
X-124.434 Y-121.311 Z-2.378
X-124.602 Y-121.461 Z-2.119
X-124.727 Y-121.567 Z-1.935
X-124.874 Y-121.685 Z-1.73
X-124.919 Y-121.721 Z-1.668
X-125.057 Y-121.823 Z-1.491
X-125.186 Y-121.915 Z-1.333
X-125.322 Y-122.005 Z-1.177
X-125.418 Y-122.065 Z-1.072
X-125.557 Y-122.149 Z-0.927
X-125.728 Y-122.246 Z-0.758
X-125.823 Y-122.299 Z-0.668
X-125.897 Y-122.338 Z-0.6
X-125.972 Y-122.372 Z-0.541
X-126.099 Y-122.421 Z-0.456
X-126.334 Y-122.506 Z-0.308
X-126.468 Y-122.551 Z-0.231
X-126.593 Y-122.59 Z-0.164
X-126.673 Y-122.613 Z-0.124
X-126.804 Y-122.646 Z-0.067
X-126.928 Y-122.673 Z-0.019
X-126.984 Y-122.684 Z0
X-126.928 Y-122.673 Z-0.019
X-126.804 Y-122.646 Z-0.067
X-126.673 Y-122.613 Z-0.124
X-126.593 Y-122.59 Z-0.164
X-126.468 Y-122.551 Z-0.231
X-126.334 Y-122.506 Z-0.308
X-126.099 Y-122.421 Z-0.456
X-125.972 Y-122.372 Z-0.541
X-125.897 Y-122.338 Z-0.6
X-125.823 Y-122.299 Z-0.668
X-125.728 Y-122.246 Z-0.758
X-125.557 Y-122.149 Z-0.927
X-125.418 Y-122.065 Z-1.072
X-125.322 Y-122.005 Z-1.177
X-125.186 Y-121.915 Z-1.333
X-125.057 Y-121.823 Z-1.491
X-124.919 Y-121.721 Z-1.668
X-124.874 Y-121.685 Z-1.73
X-124.727 Y-121.567 Z-1.935
X-124.602 Y-121.461 Z-2.119
X-124.434 Y-121.311 Z-2.378
X-124.215 Y-121.109 Z-2.728
X-124.055 Y-120.955 Z-2.995
X-123.233 Y-120.136 Z-4.413
X-122.389 Y-120.978 Z-2.955
X-122.121 Y-121.232 Z-2.515
X-121.941 Y-121.395 Z-2.233
X-121.783 Y-121.531 Z-1.997
X-121.673 Y-121.621 Z-1.841
X-121.552 Y-121.717 Z-1.675
X-121.442 Y-121.8 Z-1.532
X-121.336 Y-121.876 Z-1.399
X-121.208 Y-121.963 Z-1.25
X-121.074 Y-122.048 Z-1.102
X-120.944 Y-122.127 Z-0.965
X-120.781 Y-122.22 Z-0.804
X-120.574 Y-122.332 Z-0.61
X-120.496 Y-122.368 Z-0.548
X-120.368 Y-122.416 Z-0.464
X-120.197 Y-122.478 Z-0.357
X-120.068 Y-122.522 Z-0.28
X-119.94 Y-122.563 Z-0.209
X-119.816 Y-122.6 Z-0.146
X-119.739 Y-122.621 Z-0.11
X-119.605 Y-122.654 Z-0.053
X-119.486 Y-122.679 Z-0.009
X-119.46 Y-122.684 Z0
G0 Z5
X-115.959 Y-103.705
G1 Z0 F849.6
X-115.954 Y-103.679 Z-0.01
X-115.926 Y-103.556 Z-0.057
X-115.905 Y-103.474 Z-0.093
X-115.871 Y-103.349 Z-0.153
X-115.832 Y-103.223 Z-0.22
X-115.79 Y-103.096 Z-0.294
X-115.702 Y-102.852 Z-0.445
X-115.653 Y-102.725 Z-0.529
X-115.619 Y-102.651 Z-0.588
X-115.502 Y-102.437 Z-0.792
X-115.414 Y-102.285 Z-0.945
X-115.327 Y-102.143 Z-1.094
X-115.24 Y-102.009 Z-1.245
X-115.171 Y-101.908 Z-1.365
X-115.077 Y-101.777 Z-1.527
X-115 Y-101.674 Z-1.661
X-114.91 Y-101.562 Z-1.816
X-114.802 Y-101.431 Z-2.004
X-114.673 Y-101.282 Z-2.228
X-114.515 Y-101.108 Z-2.501
X-114.388 Y-100.972 Z-2.722
X-114.126 Y-100.702 Z-3.175
X-114.339 Y-100.482 Z-2.807
X-114.5 Y-100.312 Z-2.528
X-114.654 Y-100.143 Z-2.261
X-114.768 Y-100.012 Z-2.063
X-114.892 Y-99.864 Z-1.848
X-115.004 Y-99.724 Z-1.655
X-115.118 Y-99.571 Z-1.457
X-115.188 Y-99.473 Z-1.336
X-115.276 Y-99.342 Z-1.183
X-115.346 Y-99.231 Z-1.061
X-115.425 Y-99.101 Z-0.926
X-115.503 Y-98.966 Z-0.79
X-115.583 Y-98.824 Z-0.651
X-115.624 Y-98.748 Z-0.581
X-115.659 Y-98.671 Z-0.52
X-115.707 Y-98.547 Z-0.437
X-115.752 Y-98.424 Z-0.358
X-115.816 Y-98.242 Z-0.248
X-115.86 Y-98.105 Z-0.171
X-115.897 Y-97.978 Z-0.107
X-115.928 Y-97.857 Z-0.053
X-115.947 Y-97.778 Z-0.021
X-115.959 Y-97.719 Z0
X-115.947 Y-97.778 Z-0.021
X-115.928 Y-97.857 Z-0.053
X-115.897 Y-97.978 Z-0.107
X-115.86 Y-98.105 Z-0.171
X-115.816 Y-98.242 Z-0.248
X-115.752 Y-98.424 Z-0.358
X-115.707 Y-98.547 Z-0.437
X-115.659 Y-98.671 Z-0.52
X-115.624 Y-98.748 Z-0.581
X-115.583 Y-98.824 Z-0.651
X-115.503 Y-98.966 Z-0.79
X-115.425 Y-99.101 Z-0.926
X-115.346 Y-99.231 Z-1.061
X-115.276 Y-99.342 Z-1.183
X-115.188 Y-99.473 Z-1.336
X-115.118 Y-99.571 Z-1.457
X-115.004 Y-99.724 Z-1.655
X-114.892 Y-99.864 Z-1.848
X-114.768 Y-100.012 Z-2.063
X-114.654 Y-100.143 Z-2.261
X-114.5 Y-100.312 Z-2.528
X-114.339 Y-100.482 Z-2.807
X-114.126 Y-100.702 Z-3.175
X-114.115
X-100.338
X-100.152 Y-100.706 Z-3.182
X-99.966 Y-100.717 Z-3.202
X-99.781 Y-100.737 Z-3.236
X-99.595 Y-100.764 Z-3.283
X-99.409 Y-100.799 Z-3.343
X-99.223 Y-100.841 Z-3.417
X-99.037 Y-100.892 Z-3.504
X-98.851 Y-100.95 Z-3.604
X-98.666 Y-101.015 Z-3.718
X-98.48 Y-101.089 Z-3.846
X-98.294 Y-101.17 Z-3.987
X-98.108 Y-101.259 Z-4.141
X-97.922 Y-101.356 Z-4.308
X-97.736 Y-101.461 Z-4.489
X-97.551 Y-101.573 Z-4.684
X-96.608 Y-100.632 Z-3.054
X-96.349 Y-100.385 Z-2.626
X-96.193 Y-100.242 Z-2.378
X-96.056 Y-100.119 Z-2.166
X-95.915 Y-100 Z-1.96
X-95.78 Y-99.89 Z-1.768
X-95.683 Y-99.814 Z-1.638
X-95.532 Y-99.703 Z-1.445
X-95.424 Y-99.628 Z-1.315
X-95.3 Y-99.546 Z-1.174
X-95.189 Y-99.476 Z-1.053
X-95.053 Y-99.395 Z-0.913
X-94.88 Y-99.298 Z-0.743
X-94.784 Y-99.245 Z-0.651
X-94.714 Y-99.208 Z-0.588
X-94.644 Y-99.176 Z-0.532
X-94.52 Y-99.128 Z-0.449
X-94.344 Y-99.063 Z-0.337
X-94.22 Y-99.02 Z-0.261
X-94.088 Y-98.977 Z-0.188
X-93.952 Y-98.937 Z-0.119
X-93.82 Y-98.903 Z-0.06
X-93.693 Y-98.875 Z-0.012
X-93.658 Y-98.869 Z0
X-93.693 Y-98.875 Z-0.012
X-93.82 Y-98.903 Z-0.06
X-93.952 Y-98.937 Z-0.119
X-94.088 Y-98.977 Z-0.188
X-94.22 Y-99.02 Z-0.261
X-94.344 Y-99.063 Z-0.337
X-94.52 Y-99.128 Z-0.449
X-94.644 Y-99.176 Z-0.532
X-94.714 Y-99.208 Z-0.588
X-94.784 Y-99.245 Z-0.651
X-94.88 Y-99.298 Z-0.743
X-95.053 Y-99.395 Z-0.913
X-95.189 Y-99.476 Z-1.053
X-95.3 Y-99.546 Z-1.174
X-95.424 Y-99.628 Z-1.315
X-95.532 Y-99.703 Z-1.445
X-95.683 Y-99.814 Z-1.638
X-95.78 Y-99.89 Z-1.768
X-95.915 Y-100 Z-1.96
X-96.056 Y-100.119 Z-2.166
X-96.193 Y-100.242 Z-2.378
X-96.349 Y-100.385 Z-2.626
X-96.608 Y-100.632 Z-3.054
X-97.551 Y-101.573 Z-4.684
X-97.509 Y-101.767 Z-4.612
X-97.474 Y-101.961 Z-4.551
X-97.445 Y-102.155 Z-4.501
X-97.423 Y-102.349 Z-4.462
X-97.407 Y-102.544 Z-4.434
X-97.397 Y-102.738 Z-4.418
X-97.394 Y-102.932 Z-4.412
Y-120.137
X-98.19 Y-120.931 Z-3.036
X-98.509 Y-121.234 Z-2.512
X-98.686 Y-121.394 Z-2.234
X-98.808 Y-121.5 Z-2.051
X-98.966 Y-121.631 Z-1.824
X-99.109 Y-121.743 Z-1.63
X-99.243 Y-121.842 Z-1.458
X-99.368 Y-121.929 Z-1.308
X-99.492 Y-122.011 Z-1.166
X-99.624 Y-122.093 Z-1.023
X-99.764 Y-122.175 Z-0.881
X-99.888 Y-122.246 Z-0.758
X-99.983 Y-122.299 Z-0.668
X-100.057 Y-122.338 Z-0.6
X-100.132 Y-122.372 Z-0.541
X-100.259 Y-122.421 Z-0.456
X-100.494 Y-122.506 Z-0.308
X-100.628 Y-122.551 Z-0.231
X-100.753 Y-122.59 Z-0.164
X-100.833 Y-122.613 Z-0.124
X-100.964 Y-122.646 Z-0.067
X-101.089 Y-122.673 Z-0.019
X-101.145 Y-122.684 Z0
X-101.089 Y-122.673 Z-0.019
X-100.964 Y-122.646 Z-0.067
X-100.833 Y-122.613 Z-0.124
X-100.753 Y-122.59 Z-0.164
X-100.628 Y-122.551 Z-0.231
X-100.494 Y-122.506 Z-0.308
X-100.259 Y-122.421 Z-0.456
X-100.132 Y-122.372 Z-0.541
X-100.057 Y-122.338 Z-0.6
X-99.983 Y-122.299 Z-0.668
X-99.888 Y-122.246 Z-0.758
X-99.764 Y-122.175 Z-0.881
X-99.624 Y-122.093 Z-1.023
X-99.492 Y-122.011 Z-1.166
X-99.368 Y-121.929 Z-1.308
X-99.243 Y-121.842 Z-1.458
X-99.109 Y-121.743 Z-1.63
X-98.966 Y-121.631 Z-1.824
X-98.808 Y-121.5 Z-2.051
X-98.686 Y-121.394 Z-2.234
X-98.509 Y-121.234 Z-2.512
X-98.19 Y-120.931 Z-3.036
X-97.394 Y-120.137 Z-4.412
X-96.562 Y-120.965 Z-2.977
X-96.321 Y-121.195 Z-2.58
X-96.165 Y-121.337 Z-2.332
X-96.035 Y-121.452 Z-2.134
X-95.891 Y-121.574 Z-1.923
X-95.749 Y-121.688 Z-1.725
X-95.602 Y-121.8 Z-1.532
X-95.453 Y-121.905 Z-1.349
X-95.314 Y-121.998 Z-1.189
X-95.202 Y-122.068 Z-1.068
X-95.065 Y-122.149 Z-0.926
X-94.9 Y-122.243 Z-0.765
X-94.736 Y-122.331 Z-0.612
X-94.659 Y-122.366 Z-0.551
X-94.529 Y-122.416 Z-0.464
X-94.291 Y-122.501 Z-0.317
X-94.163 Y-122.544 Z-0.243
X-94.026 Y-122.586 Z-0.17
X-93.9 Y-122.62 Z-0.11
X-93.768 Y-122.653 Z-0.054
X-93.645 Y-122.679 Z-0.008
X-93.621 Y-122.684 Z0
G0 Z5
X-114.003 Y-49.778
G1 Z0 F849.6
X-113.948 Y-49.786 Z-0.015
X-113.769 Y-49.819 Z-0.071
X-113.662 Y-49.84 Z-0.108
X-113.49 Y-49.879 Z-0.176
X-113.392 Y-49.904 Z-0.218
X-113.207 Y-49.954 Z-0.305
X-113.02 Y-50.009 Z-0.401
X-112.835 Y-50.068 Z-0.502
X-112.496 Y-50.179 Z-0.695
X-112.437 Y-50.2 Z-0.732
X-112.378 Y-50.223 Z-0.772
X-112.107 Y-50.336 Z-0.967
X-111.697 Y-50.509 Z-1.267
X-111.411 Y-50.633 Z-1.481
X-111.119 Y-50.762 Z-1.705
X-110.822 Y-50.898 Z-1.941
X-110.514 Y-51.044 Z-2.193
X-110.215 Y-51.19 Z-2.446
X-109.915 Y-51.339 Z-2.704
X-108.129 Y-52.254 Z-4.289
X-107.943 Y-52.005 Z-3.857
X-107.695 Y-51.684 Z-3.301
X-107.523 Y-51.465 Z-2.923
X-107.412 Y-51.328 Z-2.686
X-107.301 Y-51.199 Z-2.463
X-107.19 Y-51.078 Z-2.253
X-107.079 Y-50.965 Z-2.056
X-106.968 Y-50.859 Z-1.872
X-106.857 Y-50.76 Z-1.702
X-106.746 Y-50.67 Z-1.545
X-106.635 Y-50.587 Z-1.402
X-106.403 Y-50.424 Z-1.12
X-106.279 Y-50.34 Z-0.974
X-106.175 Y-50.272 Z-0.856
X-106.072 Y-50.208 Z-0.745
X-105.958 Y-50.141 Z-0.629
X-105.846 Y-50.079 Z-0.523
X-105.727 Y-50.02 Z-0.419
X-105.611 Y-49.968 Z-0.329
X-105.507 Y-49.926 Z-0.257
X-105.402 Y-49.889 Z-0.192
X-105.311 Y-49.86 Z-0.142
X-105.219 Y-49.833 Z-0.096
X-105.131 Y-49.811 Z-0.058
X-105.046 Y-49.792 Z-0.025
X-104.974 Y-49.778 Z0
X-105.046 Y-49.792 Z-0.025
X-105.131 Y-49.811 Z-0.058
X-105.219 Y-49.833 Z-0.096
X-105.311 Y-49.86 Z-0.142
X-105.402 Y-49.889 Z-0.192
X-105.507 Y-49.926 Z-0.257
X-105.611 Y-49.968 Z-0.329
X-105.727 Y-50.02 Z-0.419
X-105.846 Y-50.079 Z-0.523
X-105.958 Y-50.141 Z-0.629
X-106.072 Y-50.208 Z-0.745
X-106.175 Y-50.272 Z-0.856
X-106.279 Y-50.34 Z-0.974
X-106.403 Y-50.424 Z-1.12
X-106.635 Y-50.587 Z-1.402
X-106.746 Y-50.67 Z-1.545
X-106.857 Y-50.76 Z-1.702
X-106.968 Y-50.859 Z-1.872
X-107.079 Y-50.965 Z-2.056
X-107.19 Y-51.078 Z-2.253
X-107.301 Y-51.199 Z-2.463
X-107.412 Y-51.328 Z-2.686
X-107.523 Y-51.465 Z-2.923
X-107.695 Y-51.684 Z-3.301
X-107.943 Y-52.005 Z-3.857
X-108.129 Y-52.254 Z-4.289
X-108.039 Y-52.43 Z-4.237
X-107.964 Y-52.572 Z-4.199
X-107.888 Y-52.711 Z-4.167
X-107.809 Y-52.849 Z-4.138
X-107.729 Y-52.984 Z-4.115
X-107.621 Y-53.158 Z-4.09
X-107.522 Y-53.313 Z-4.073
X-107.416 Y-53.473 Z-4.061
X-107.29 Y-53.658 Z-4.053
X-107.14 Y-53.869 Z-4.05
X-107.015 Y-54.043
X-104.068 Y-58.204 Z-3.994
X-103.959 Y-58.367 Z-4
X-103.855 Y-58.534 Z-4.019
X-103.757 Y-58.706 Z-4.05
X-103.665 Y-58.881 Z-4.093
X-103.579 Y-59.06 Z-4.149
X-103.498 Y-59.244 Z-4.217
X-103.424 Y-59.432 Z-4.297
X-103.355 Y-59.623 Z-4.39
X-103.293 Y-59.819 Z-4.495
X-103.236 Y-60.019 Z-4.613
X-103.185 Y-60.223 Z-4.743
X-103.139 Y-60.431 Z-4.885
X-103.1 Y-60.644 Z-5.04
X-103.147 Y-60.679 Z-4.978
X-103.29 Y-60.785 Z-4.798
X-103.435 Y-60.888 Z-4.625
X-103.588 Y-60.991 Z-4.452
X-103.741 Y-61.09 Z-4.29
X-103.898 Y-61.186 Z-4.134
X-104.06 Y-61.281 Z-3.987
X-104.22 Y-61.369 Z-3.854
X-104.388 Y-61.456 Z-3.729
X-104.553 Y-61.537 Z-3.62
X-104.722 Y-61.615 Z-3.523
X-104.897 Y-61.69 Z-3.44
X-105.07 Y-61.758 Z-3.374
X-105.239 Y-61.82 Z-3.326
X-105.403 Y-61.875 Z-3.294
X-105.563 Y-61.924 Z-3.276
X-105.717 Y-61.966 Z-3.272
X-105.865 Y-62.004 Z-3.277
X-106.145 Y-62.077 Z-3.292
X-106.531 Y-62.181 Z-3.316
X-106.691 Y-62.228 Z-3.33
X-106.795 Y-62.263 Z-3.344
X-106.898 Y-62.301 Z-3.362
X-106.998 Y-62.34 Z-3.383
X-107.158 Y-62.409 Z-3.426
X-107.414 Y-62.529 Z-3.499
X-107.567 Y-62.604 Z-3.541
X-107.734 Y-62.691 Z-3.588
X-107.843 Y-62.75 Z-3.619
X-108.022 Y-62.853 Z-3.67
X-108.102 Y-62.902 Z-3.693
X-108.221 Y-62.979 Z-3.728
X-108.388 Y-63.096 Z-3.775
X-108.519 Y-63.196 Z-3.814
X-108.61 Y-63.269 Z-3.842
X-108.742 Y-63.381 Z-3.885
X-108.883 Y-63.508 Z-3.933
X-109.029 Y-63.65 Z-3.991
X-109.184 Y-63.811 Z-4.059
X-109.317 Y-63.956 Z-4.126
X-109.462 Y-64.128 Z-4.211
X-109.514 Y-64.191 Z-4.243
X-109.585 Y-64.312 Z-4.266
X-109.693 Y-64.508 Z-4.309
X-109.734 Y-64.589 Z-4.328
X-109.786 Y-64.693 Z-4.353
X-109.848 Y-64.826 Z-4.385
X-109.895 Y-64.934 Z-4.411
X-109.948 Y-65.065 Z-4.44
X-109.988 Y-65.176 Z-4.462
X-110.007 Y-65.234 Z-4.471
X-110.044 Y-65.372 Z-4.486
X-110.062 Y-65.448 Z-4.49
X-110.1 Y-65.657 Z-4.498
X-110.125 Y-65.827 Z-4.499
X-110.148 Y-66.026
X-110.167 Y-66.221 Z-4.498
X-110.192 Y-66.544 Z-4.494
X-110.202 Y-66.794 Z-4.502
X-110.203 Y-66.83 Z-4.504
X-110.185 Y-67.121 Z-4.498
X-110.165 Y-67.4 Z-4.497
X-110.145 Y-67.613
X-110.122 Y-67.807 Z-4.498
X-110.095 Y-68.001 Z-4.503
X-110.056 Y-68.226 Z-4.509
X-110.035 Y-68.326 Z-4.511
X-109.989 Y-68.52 Z-4.514
X-109.963 Y-68.613
X-109.921 Y-68.744 Z-4.511
X-109.894 Y-68.817 Z-4.506
X-109.868 Y-68.881 Z-4.498
X-109.836 Y-68.949 Z-4.488
X-109.79 Y-69.038 Z-4.47
X-109.731 Y-69.143 Z-4.445
X-109.669 Y-69.245 Z-4.418
X-109.566 Y-69.403 Z-4.375
X-109.486 Y-69.513 Z-4.345
X-109.387 Y-69.645 Z-4.309
X-109.226 Y-69.846 Z-4.259
X-109.078 Y-70.017 Z-4.222
X-109.01 Y-70.092 Z-4.207
X-108.882 Y-70.229 Z-4.183
X-108.746 Y-70.34 Z-4.129
X-108.622 Y-70.438 Z-4.082
X-108.499 Y-70.53 Z-4.039
X-108.355 Y-70.634 Z-3.987
X-108.228 Y-70.72 Z-3.94
X-108.067 Y-70.822 Z-3.874
X-107.962 Y-70.883 Z-3.831
X-107.882 Y-70.927 Z-3.8
X-107.795 Y-70.972 Z-3.768
X-107.706 Y-71.015 Z-3.738
X-107.607 Y-71.059 Z-3.707
X-107.503 Y-71.103 Z-3.679
X-107.397 Y-71.144 Z-3.654
X-107.281 Y-71.185 Z-3.631
X-107.148 Y-71.229 Z-3.611
X-106.689 Y-71.35 Z-3.511
X-106.394 Y-71.423 Z-3.45
X-106.135 Y-71.483 Z-3.401
X-105.956 Y-71.521 Z-3.37
X-105.772 Y-71.558 Z-3.341
X-105.56 Y-71.596 Z-3.31
X-105.344 Y-71.63 Z-3.282
X-105.076 Y-71.666 Z-3.253
X-104.897 Y-71.685 Z-3.236
X-104.717 Y-71.702 Z-3.221
X-104.535 Y-71.717 Z-3.209
X-104.346 Y-71.729 Z-3.198
X-104.017 Y-71.744 Z-3.185
X-103.785 Y-71.751 Z-3.179
X-103.47 Y-71.757 Z-3.175
X-103 Y-71.76
X-102.808
X-93.979
X-93.793 Y-71.756 Z-3.182
X-93.608 Y-71.744 Z-3.202
X-93.422 Y-71.725 Z-3.236
X-93.236 Y-71.698 Z-3.283
X-93.05 Y-71.663 Z-3.343
X-92.864 Y-71.621 Z-3.417
X-92.678 Y-71.57 Z-3.504
X-92.493 Y-71.512 Z-3.605
X-92.307 Y-71.446 Z-3.719
X-92.121 Y-71.373 Z-3.846
X-91.935 Y-71.292 Z-3.987
X-91.749 Y-71.203 Z-4.141
X-91.563 Y-71.106 Z-4.309
X-91.378 Y-71.001 Z-4.49
X-91.192 Y-70.889 Z-4.684
X-90.205 Y-71.873 Z-2.98
X-90.009 Y-72.06 Z-2.655
X-89.852 Y-72.206 Z-2.403
X-89.717 Y-72.326 Z-2.195
X-89.58 Y-72.443 Z-1.992
X-89.442 Y-72.557 Z-1.795
X-89.288 Y-72.676 Z-1.589
X-89.185 Y-72.751 Z-1.459
X-89.047 Y-72.846 Z-1.294
X-88.923 Y-72.927 Z-1.154
X-88.778 Y-73.016 Z-1
X-88.607 Y-73.115 Z-0.829
X-88.447 Y-73.204 Z-0.675
X-88.373 Y-73.242 Z-0.609
X-88.3 Y-73.276 Z-0.55
X-88.17 Y-73.325 Z-0.464
X-87.943 Y-73.406 Z-0.324
X-87.805 Y-73.453 Z-0.244
X-87.673 Y-73.493 Z-0.174
X-87.539 Y-73.53 Z-0.109
X-87.41 Y-73.562 Z-0.055
X-87.286 Y-73.588 Z-0.009
X-87.261 Y-73.593 Z0
X-87.286 Y-73.588 Z-0.009
X-87.41 Y-73.562 Z-0.055
X-87.539 Y-73.53 Z-0.109
X-87.673 Y-73.493 Z-0.174
X-87.805 Y-73.453 Z-0.244
X-87.943 Y-73.406 Z-0.324
X-88.17 Y-73.325 Z-0.464
X-88.3 Y-73.276 Z-0.55
X-88.373 Y-73.242 Z-0.609
X-88.447 Y-73.204 Z-0.675
X-88.607 Y-73.115 Z-0.829
X-88.778 Y-73.016 Z-1
X-88.923 Y-72.927 Z-1.154
X-89.047 Y-72.846 Z-1.294
X-89.185 Y-72.751 Z-1.459
X-89.288 Y-72.676 Z-1.589
X-89.442 Y-72.557 Z-1.795
X-89.58 Y-72.443 Z-1.992
X-89.717 Y-72.326 Z-2.195
X-89.852 Y-72.206 Z-2.403
X-90.009 Y-72.06 Z-2.655
X-90.205 Y-71.873 Z-2.98
X-91.192 Y-70.889 Z-4.684
X-91.15 Y-70.695 Z-4.612
X-91.115 Y-70.501 Z-4.551
X-91.086 Y-70.306 Z-4.501
X-91.064 Y-70.112 Z-4.462
X-91.048 Y-69.918 Z-4.435
X-91.038 Y-69.724 Z-4.418
X-91.035 Y-69.53 Z-4.412
Y-63.949
X-91.038 Y-63.746 Z-4.418
X-91.049 Y-63.543 Z-4.437
X-91.066 Y-63.34 Z-4.467
X-91.091 Y-63.138 Z-4.509
X-91.122 Y-62.935 Z-4.563
X-91.161 Y-62.732 Z-4.63
X-91.206 Y-62.529 Z-4.709
X-91.258 Y-62.327 Z-4.799
X-91.318 Y-62.124 Z-4.902
X-91.384 Y-61.921 Z-5.017
X-91.457 Y-61.718 Z-5.144
X-91.633 Z-4.919
X-91.805 Z-4.707
X-91.974 Z-4.507
X-92.14 Z-4.319
X-92.303 Z-4.145
X-92.464 Z-3.983
X-92.622 Z-3.835
X-92.778 Z-3.7
X-92.932 Z-3.58
X-93.009 Z-3.525
X-93.085 Z-3.475
X-93.16 Z-3.428
X-93.236 Z-3.384
X-93.311 Z-3.345
X-93.386 Z-3.31
X-93.461 Z-3.279
X-93.535 Z-3.251
X-93.609 Z-3.228
X-93.684 Z-3.209
X-93.758 Z-3.194
X-93.832 Z-3.184
X-93.905 Z-3.178
X-93.979 Z-3.175
X-99.874
X-100.053 Y-61.715 Z-3.182
X-100.231 Y-61.704 Z-3.2
X-100.41 Y-61.686 Z-3.231
X-100.589 Y-61.661 Z-3.275
X-100.768 Y-61.629 Z-3.331
X-100.947 Y-61.589 Z-3.399
X-101.126 Y-61.543 Z-3.48
X-101.305 Y-61.489 Z-3.573
X-101.483 Y-61.428 Z-3.678
X-101.662 Y-61.36 Z-3.796
X-101.841 Y-61.285 Z-3.927
X-102.02 Y-61.202 Z-4.07
X-102.199 Y-61.112 Z-4.225
X-103.1 Y-60.644 Z-5.04
X-102.199 Y-61.112 Z-4.225
X-102.02 Y-61.202 Z-4.07
X-101.841 Y-61.285 Z-3.927
X-101.662 Y-61.36 Z-3.796
X-101.483 Y-61.428 Z-3.678
X-101.305 Y-61.489 Z-3.573
X-101.126 Y-61.543 Z-3.48
X-100.947 Y-61.589 Z-3.399
X-100.768 Y-61.629 Z-3.331
X-100.589 Y-61.661 Z-3.275
X-100.41 Y-61.686 Z-3.231
X-100.231 Y-61.704 Z-3.2
X-100.053 Y-61.715 Z-3.182
X-99.874 Y-61.718 Z-3.175
X-93.979
X-93.905 Z-3.178
X-93.832 Z-3.184
X-93.758 Z-3.194
X-93.684 Z-3.209
X-93.609 Z-3.228
X-93.535 Z-3.251
X-93.461 Z-3.279
X-93.386 Z-3.31
X-93.311 Z-3.345
X-93.236 Z-3.384
X-93.16 Z-3.428
X-93.085 Z-3.475
X-93.009 Z-3.525
X-92.932 Z-3.58
X-92.778 Z-3.7
X-92.622 Z-3.835
X-92.464 Z-3.983
X-92.303 Z-4.145
X-92.14 Z-4.319
X-91.974 Z-4.507
X-91.805 Z-4.707
X-91.633 Z-4.919
X-91.457 Z-5.144
X-91.384 Y-61.516 Z-5.017
X-91.318 Y-61.313 Z-4.902
X-91.258 Y-61.11 Z-4.799
X-91.206 Y-60.907 Z-4.709
X-91.161 Y-60.705 Z-4.63
X-91.122 Y-60.502 Z-4.563
X-91.091 Y-60.299 Z-4.509
X-91.066 Y-60.096 Z-4.467
X-91.049 Y-59.894 Z-4.437
X-91.038 Y-59.691 Z-4.418
X-91.035 Y-59.488 Z-4.412
Y-52.325
X-90.249 Y-51.54 Z-3.053
X-89.995 Y-51.298 Z-2.634
X-89.832 Y-51.149 Z-2.375
X-89.658 Y-50.995 Z-2.109
X-89.516 Y-50.876 Z-1.902
X-89.369 Y-50.758 Z-1.698
X-89.266 Y-50.679 Z-1.562
X-89.121 Y-50.575 Z-1.381
X-88.985 Y-50.483 Z-1.222
X-88.857 Y-50.402 Z-1.082
X-88.713 Y-50.315 Z-0.931
X-88.575 Y-50.237 Z-0.795
X-88.425 Y-50.154 Z-0.651
X-88.355 Y-50.117 Z-0.589
X-88.286 Y-50.085 Z-0.533
X-88.161 Y-50.037 Z-0.448
X-87.986 Y-49.972 Z-0.337
X-87.861 Y-49.929 Z-0.261
X-87.729 Y-49.886 Z-0.187
X-87.594 Y-49.846 Z-0.119
X-87.476 Y-49.816 Z-0.066
X-87.397 Y-49.798 Z-0.035
X-87.299 Y-49.778 Z0
X-87.397 Y-49.798 Z-0.035
X-87.476 Y-49.816 Z-0.066
X-87.594 Y-49.846 Z-0.119
X-87.729 Y-49.886 Z-0.187
X-87.861 Y-49.929 Z-0.261
X-87.986 Y-49.972 Z-0.337
X-88.161 Y-50.037 Z-0.448
X-88.286 Y-50.085 Z-0.533
X-88.355 Y-50.117 Z-0.589
X-88.425 Y-50.154 Z-0.651
X-88.575 Y-50.237 Z-0.795
X-88.713 Y-50.315 Z-0.931
X-88.857 Y-50.402 Z-1.082
X-88.985 Y-50.483 Z-1.222
X-89.121 Y-50.575 Z-1.381
X-89.266 Y-50.679 Z-1.562
X-89.369 Y-50.758 Z-1.698
X-89.516 Y-50.876 Z-1.902
X-89.658 Y-50.995 Z-2.109
X-89.832 Y-51.149 Z-2.375
X-89.995 Y-51.298 Z-2.634
X-90.249 Y-51.54 Z-3.053
X-91.035 Y-52.325 Z-4.412
X-91.843 Y-51.52 Z-3.018
X-92.049 Y-51.324 Z-2.678
X-92.207 Y-51.177 Z-2.424
X-92.382 Y-51.022 Z-2.155
X-92.524 Y-50.902 Z-1.947
X-92.67 Y-50.784 Z-1.744
X-92.814 Y-50.675 Z-1.554
X-92.965 Y-50.568 Z-1.368
X-93.099 Y-50.479 Z-1.214
X-93.21 Y-50.409 Z-1.093
X-93.345 Y-50.328 Z-0.953
X-93.515 Y-50.231 Z-0.784
X-93.61 Y-50.178 Z-0.693
X-93.684 Y-50.139 Z-0.626
X-93.758 Y-50.105 Z-0.566
X-93.887 Y-50.054 Z-0.479
X-94.064 Y-49.989 Z-0.366
X-94.19 Y-49.945 Z-0.29
X-94.323 Y-49.902 Z-0.214
X-94.458 Y-49.861 Z-0.145
X-94.591 Y-49.826 Z-0.084
X-94.718 Y-49.797 Z-0.033
X-94.811 Y-49.778 Z0
G0 Z5
X-78.975 Y-100.863
G1 Z-3.532 F849.6
X-79.175 Y-100.928 Z-3.549
X-79.289 Y-100.968 Z-3.562
X-79.437 Y-101.023 Z-3.574
X-79.545 Y-101.064 Z-3.585
X-79.803 Y-101.171 Z-3.61
X-79.896 Y-101.212 Z-3.62
X-80.161 Y-101.336 Z-3.646
X-80.505 Y-101.512 Z-3.683
X-80.828 Y-101.691 Z-3.719
X-81.139 Y-101.875 Z-3.756
X-81.438 Y-102.063 Z-3.794
X-81.727 Y-102.251 Z-3.833
X-82.006 Y-102.439 Z-3.873
X-82.27 Y-102.621 Z-3.911
X-82.777 Y-102.979 Z-3.986
X-82.934 Y-103.094 Z-4.015
X-83.06 Y-103.219 Z-4.019
X-83.189 Y-103.355 Z-4.034
X-83.365 Y-103.549 Z-4.062
X-83.666 Y-103.885 Z-4.11
X-83.933 Y-104.191 Z-4.153
X-84.13 Y-104.426 Z-4.186
X-84.326 Y-104.666 Z-4.22
X-84.452 Y-104.827 Z-4.245
X-84.532 Y-104.933 Z-4.258
X-84.675 Y-105.125 Z-4.287
X-84.73 Y-105.203 Z-4.296
X-84.876 Y-105.415 Z-4.327
X-84.926 Y-105.492 Z-4.335
X-85.055 Y-105.694 Z-4.363
X-85.12 Y-105.803 Z-4.374
X-85.212 Y-105.962 Z-4.394
X-85.304 Y-106.133 Z-4.409
X-85.349 Y-106.218 Z-4.418
X-85.466 Y-106.467 Z-4.437
X-85.531 Y-106.62 Z-4.443
X-85.572 Y-106.721 Z-4.45
X-85.621 Y-106.854 Z-4.452
X-85.668 Y-106.984 Z-4.457
X-85.745 Y-107.225 Z-4.459
X-85.766 Y-107.29 Z-4.461
X-85.847 Y-107.585 Z-4.462
X-85.93 Y-107.94 Z-4.463
X-86 Y-108.286
X-86.057 Y-108.62 Z-4.464
X-86.106 Y-108.947 Z-4.466
X-86.147 Y-109.263 Z-4.469
X-86.177 Y-109.519 Z-4.474
X-86.213 Y-109.862 Z-4.479
X-86.265 Y-110.41 Z-4.489
X-86.28 Y-110.598 Z-4.497
X-86.27 Y-110.802 Z-4.483
X-86.243 Y-111.142 Z-4.476
X-86.192 Y-111.718 Z-4.464
X-86.161 Y-112.023 Z-4.458
X-86.125 Y-112.335 Z-4.453
X-86.093 Y-112.587 Z-4.451
X-86.033 Y-112.989 Z-4.447
X-85.971 Y-113.334 Z-4.444
X-85.896 Y-113.685 Z-4.442
X-85.807 Y-114.043 Z-4.439
X-85.707 Y-114.384 Z-4.434
X-85.655 Y-114.536 Z-4.428
X-85.605 Y-114.677 Z-4.426
X-85.565 Y-114.781 Z-4.42
X-85.512 Y-114.917 Z-4.414
X-85.378 Y-115.216 Z-4.394
X-85.241 Y-115.486 Z-4.37
X-85.16 Y-115.632 Z-4.352
X-85.082 Y-115.766 Z-4.339
X-85.026 Y-115.858 Z-4.326
X-84.9 Y-116.059 Z-4.303
X-84.822 Y-116.176 Z-4.286
X-84.696 Y-116.362 Z-4.263
X-84.615 Y-116.475 Z-4.246
X-84.47 Y-116.673 Z-4.221
X-84.404 Y-116.759 Z-4.207
X-84.22 Y-116.996 Z-4.176
X-83.986 Y-117.284 Z-4.137
X-83.783 Y-117.524 Z-4.104
X-83.58 Y-117.758 Z-4.073
X-83.198 Y-118.191 Z-4.015
X-83.124 Y-118.273 Z-4.005
X-83.048 Y-118.353 Z-3.999
X-82.964 Y-118.437 Z-3.997
X-82.926 Y-118.474 Z-3.998
X-82.831 Y-118.545 Z-3.978
X-82.496 Y-118.78 Z-3.93
X-82.137 Y-119.025 Z-3.883
X-81.801 Y-119.25 Z-3.839
X-81.47 Y-119.463 Z-3.797
X-81.152 Y-119.659 Z-3.759
X-80.85 Y-119.836 Z-3.725
X-80.536 Y-120.01 Z-3.692
X-80.208 Y-120.178 Z-3.659
X-79.879 Y-120.332 Z-3.627
X-79.868 Y-120.337 Z-3.626
X-79.572 Y-120.461 Z-3.599
X-79.512 Y-120.485 Z-3.591
X-79.264 Y-120.577 Z-3.57
X-79.142 Y-120.619 Z-3.556
X-79.026 Y-120.658 Z-3.546
X-78.949 Y-120.682 Z-3.54
X-78.759 Y-120.739 Z-3.521
X-78.651 Y-120.769 Z-3.512
X-78.38 Y-120.838 Z-3.489
X-78.015 Y-120.92 Z-3.462
X-77.649 Y-120.99 Z-3.438
X-77.298 Y-121.047 Z-3.417
X-76.946 Y-121.096 Z-3.4
X-76.618 Y-121.135 Z-3.385
X-76.385 Y-121.159 Z-3.378
X-75.973 Y-121.197 Z-3.364
X-75.644 Y-121.224 Z-3.355
X-75.127 Y-121.261 Z-3.343
X-74.96 Y-121.272 Z-3.34
X-74.831 Y-121.277 Z-3.343
X-74.689 Y-121.27 Z-3.339
X-74.111 Y-121.229 Z-3.344
X-73.769 Y-121.202 Z-3.347
X-73.447 Y-121.173 Z-3.353
X-73.135 Y-121.142 Z-3.359
X-72.893 Y-121.115 Z-3.367
X-72.801 Y-121.103 Z-3.369
X-72.505 Y-121.063 Z-3.38
X-72.128 Y-121.005 Z-3.397
X-71.763 Y-120.937 Z-3.417
X-71.406 Y-120.86 Z-3.441
X-71.065 Y-120.773 Z-3.467
X-71.034 Y-120.765 Z-3.469
X-70.737 Y-120.677 Z-3.495
X-70.66 Y-120.652 Z-3.501
X-70.418 Y-120.57 Z-3.525
X-70.29 Y-120.524 Z-3.534
X-70.168 Y-120.477 Z-3.546
X-69.911 Y-120.37 Z-3.571
X-69.814 Y-120.328 Z-3.582
X-69.561 Y-120.21 Z-3.607
X-69.224 Y-120.04 Z-3.642
X-68.894 Y-119.86 Z-3.68
X-68.583 Y-119.678 Z-3.719
X-68.29 Y-119.497 Z-3.756
X-67.995 Y-119.307 Z-3.797
X-67.721 Y-119.126 Z-3.837
X-67.45 Y-118.942 Z-3.877
X-66.948 Y-118.593 Z-3.953
X-66.874 Y-118.54 Z-3.966
X-66.77 Y-118.463 Z-3.988
X-66.644 Y-118.338 Z-3.992
X-66.505 Y-118.189 Z-4.009
X-66.329 Y-117.996 Z-4.04
X-66.031 Y-117.66 Z-4.091
X-65.751 Y-117.335 Z-4.14
X-65.555 Y-117.1 Z-4.174
X-65.35 Y-116.844 Z-4.213
X-65.236 Y-116.696 Z-4.237
X-65.15 Y-116.581 Z-4.252
X-65.011 Y-116.391 Z-4.282
X-64.952 Y-116.307 Z-4.292
X-64.808 Y-116.096 Z-4.324
X-64.751 Y-116.007 Z-4.334
X-64.629 Y-115.812 Z-4.362
X-64.557 Y-115.69 Z-4.375
X-64.497 Y-115.585 Z-4.388
X-64.376 Y-115.359 Z-4.41
X-64.336 Y-115.281 Z-4.418
X-64.219 Y-115.026 Z-4.437
X-64.151 Y-114.862 Z-4.444
X-64.112 Y-114.764 Z-4.45
X-64.061 Y-114.622 Z-4.452
X-64.017 Y-114.496 Z-4.456
X-63.94 Y-114.251 Z-4.459
X-63.918 Y-114.178 Z-4.461
X-63.84 Y-113.883 Z-4.462
X-63.759 Y-113.526
X-63.691 Y-113.176 Z-4.463
X-63.635 Y-112.836
X-63.588 Y-112.503 Z-4.465
X-63.565 Y-112.322 Z-4.468
X-63.516 Y-111.89 Z-4.473
X-63.485 Y-111.575 Z-4.477
X-63.434 Y-111.006 Z-4.486
X-63.42 Y-110.78 Z-4.496
X-63.432 Y-110.582 Z-4.485
X-63.459 Y-110.276 Z-4.48
X-63.513 Y-109.712 Z-4.47
X-63.552 Y-109.368 Z-4.465
X-63.584 Y-109.106 Z-4.462
X-63.622 Y-108.83 Z-4.461
X-63.681 Y-108.463 Z-4.458
X-63.745 Y-108.124 Z-4.457
X-63.821 Y-107.778 Z-4.456
X-63.912 Y-107.426 Z-4.454
X-64.018 Y-107.081 Z-4.451
X-64.068 Y-106.938 Z-4.445
X-64.118 Y-106.8 Z-4.443
X-64.214 Y-106.564 Z-4.431
X-64.345 Y-106.279 Z-4.411
X-64.482 Y-106.017 Z-4.387
X-64.504 Y-105.977 Z-4.382
X-64.64 Y-105.743 Z-4.356
X-64.696 Y-105.653 Z-4.343
X-64.822 Y-105.457 Z-4.319
X-64.9 Y-105.341 Z-4.301
X-65.024 Y-105.162 Z-4.279
X-65.105 Y-105.051 Z-4.261
X-65.25 Y-104.856 Z-4.235
X-65.313 Y-104.774 Z-4.221
X-65.497 Y-104.541 Z-4.189
X-65.723 Y-104.267 Z-4.149
X-65.925 Y-104.03 Z-4.114
X-66.125 Y-103.8 Z-4.082
X-66.502 Y-103.378 Z-4.021
X-66.579 Y-103.294 Z-4.01
X-66.659 Y-103.212 Z-4.004
X-66.754 Y-103.117 Z-4.001
X-66.787 Y-103.085
X-66.897 Y-103.004 Z-3.98
X-67.245 Y-102.758 Z-3.929
X-67.586 Y-102.52 Z-3.88
X-67.917 Y-102.295 Z-3.834
X-68.225 Y-102.093 Z-3.792
X-68.516 Y-101.91 Z-3.755
X-68.812 Y-101.733 Z-3.719
X-69.132 Y-101.553 Z-3.683
X-69.459 Y-101.382 Z-3.649
X-69.806 Y-101.216 Z-3.615
X-70.128 Y-101.08 Z-3.585
X-70.169 Y-101.063 Z-3.58
X-70.432 Y-100.965 Z-3.556
X-70.539 Y-100.927 Z-3.544
X-70.664 Y-100.886 Z-3.533
X-70.746 Y-100.86 Z-3.527
X-70.931 Y-100.805 Z-3.509
X-71.031 Y-100.777 Z-3.501
X-71.302 Y-100.706 Z-3.477
X-71.409 Y-100.681 Z-3.47
X-71.684 Y-100.621 Z-3.449
X-72.042 Y-100.553 Z-3.426
X-72.402 Y-100.495 Z-3.406
X-72.755 Y-100.448 Z-3.389
X-72.814 Y-100.44 Z-3.387
X-73.143 Y-100.404 Z-3.375
X-73.472 Y-100.372 Z-3.365
X-74.07 Y-100.324 Z-3.352
X-74.694 Y-100.283 Z-3.342
X-74.861 Y-100.275 Z-3.344
X-74.986 Y-100.28 Z-3.341
X-75.327 Y-100.302 Z-3.347
X-75.933 Y-100.346 Z-3.358
X-76.255 Y-100.373 Z-3.367
X-76.575 Y-100.404 Z-3.376
X-76.821 Y-100.431 Z-3.387
X-77.21 Y-100.481 Z-3.404
X-77.588 Y-100.539 Z-3.424
X-77.943 Y-100.603 Z-3.446
X-78.307 Y-100.681 Z-3.473
X-78.648 Y-100.767 Z-3.502
X-78.684 Y-100.777 Z-3.504
X-78.975 Y-100.863 Z-3.532
G0 Z5
X-56.444 Y-102.656
G1 Z0 F849.6
X-56.394 Y-102.711 Z-0.02
X-56.312 Y-102.797 Z-0.055
X-56.256 Y-102.853 Z-0.081
X-56.169 Y-102.936 Z-0.127
X-56.105 Y-102.993 Z-0.164
X-56.01 Y-103.074 Z-0.223
X-55.899 Y-103.161 Z-0.299
X-55.793 Y-103.241 Z-0.376
X-55.627 Y-103.359 Z-0.501
X-55.504 Y-103.44 Z-0.6
X-55.42 Y-103.487 Z-0.675
X-55.332 Y-103.531 Z-0.76
X-55.238 Y-103.572 Z-0.856
X-55.139 Y-103.609 Z-0.963
X-54.883 Y-103.698 Z-1.245
X-54.484 Y-103.833 Z-1.691
X-54.18 Y-103.932 Z-2.034
X-53.86 Y-104.029 Z-2.401
X-53.527 Y-104.124 Z-2.789
X-53.179 Y-104.217 Z-3.2
X-52.85 Y-104.3 Z-3.594
X-52.891 Y-104.577 Z-3.269
X-52.951 Y-104.998 Z-2.779
X-52.972 Y-105.15 Z-2.602
X-52.992 Y-105.314 Z-2.416
X-53.01 Y-105.554 Z-2.157
X-53.026 Y-105.835 Z-1.864
X-53.036 Y-106.063 Z-1.632
X-53.039 Y-106.281 Z-1.418
X-53.037 Y-106.454 Z-1.255
X-53.03 Y-106.622 Z-1.102
X-53.021 Y-106.747 Z-0.994
X-53.005 Y-106.914 Z-0.858
X-52.986 Y-107.056 Z-0.748
X-52.961 Y-107.208 Z-0.638
X-52.942 Y-107.312 Z-0.566
X-52.911 Y-107.458 Z-0.469
X-52.867 Y-107.654 Z-0.344
X-52.853 Y-107.714 Z-0.307
X-52.821 Y-107.827 Z-0.244
X-52.755 Y-108.031 Z-0.143
X-52.716 Y-108.145 Z-0.09
X-52.661 Y-108.17 Z-0.001
X-52.716 Y-108.145 Z-0.09
X-52.729 Y-108.218 Z0
X-52.716 Y-108.145 Z-0.09
X-52.755 Y-108.031 Z-0.143
X-52.821 Y-107.827 Z-0.244
X-52.853 Y-107.714 Z-0.307
X-52.867 Y-107.654 Z-0.344
X-52.911 Y-107.458 Z-0.469
X-52.942 Y-107.312 Z-0.566
X-52.961 Y-107.208 Z-0.638
X-52.986 Y-107.056 Z-0.748
X-53.005 Y-106.914 Z-0.858
X-53.021 Y-106.747 Z-0.994
X-53.03 Y-106.622 Z-1.102
X-53.037 Y-106.454 Z-1.255
X-53.039 Y-106.281 Z-1.418
X-53.036 Y-106.063 Z-1.632
X-53.026 Y-105.835 Z-1.864
X-53.01 Y-105.554 Z-2.157
X-52.992 Y-105.314 Z-2.416
X-52.972 Y-105.15 Z-2.602
X-52.951 Y-104.998 Z-2.779
X-52.891 Y-104.577 Z-3.269
X-52.85 Y-104.3 Z-3.594
X-52.74 Y-104.227 Z-3.574
X-52.526 Y-104.085 Z-3.543
X-52.33 Y-103.956 Z-3.523
X-52.206 Y-103.875 Z-3.514
X-52.039 Y-103.769 Z-3.506
X-51.82 Y-103.635 Z-3.497
X-51.534 Y-103.467 Z-3.487
X-51.236 Y-103.298 Z-3.483
X-50.939 Y-103.131 Z-3.48
X-50.524 Y-102.915 Z-3.496
X-50.031 Y-102.664 Z-3.515
X-49.55 Y-102.428 Z-3.53
X-49.162 Y-102.245 Z-3.537
X-48.835 Y-102.097 Z-3.544
X-48.765 Y-102.066
X-48.435 Y-101.925 Z-3.548
X-48.113 Y-101.793 Z-3.553
X-47.679 Y-101.624 Z-3.559
X-47.352 Y-101.505 Z-3.568
X-46.894 Y-101.345 Z-3.586
X-46.481 Y-101.211 Z-3.612
X-46.135 Y-101.105 Z-3.643
X-46.063 Y-101.088 Z-3.642
X-45.646 Y-100.993 Z-3.646
X-45.292 Y-100.918 Z-3.656
X-44.822 Y-100.828 Z-3.674
X-44.408 Y-100.758 Z-3.693
X-44.146 Y-100.718 Z-3.705
X-44.01 Y-100.699 Z-3.709
X-43.714 Y-100.661 Z-3.72
X-43.61 Y-100.649 Z-3.722
X-43.285 Y-100.615 Z-3.728
X-43.216 Y-100.608 Z-3.729
X-42.841 Y-100.576 Z-3.73
X-42.438 Y-100.548 Z-3.727
X-41.906 Y-100.518 Z-3.717
X-41.663 Y-100.506 Z-3.71
X-41.416 Y-100.503 Z-3.716
X-40.739 Y-100.512 Z-3.757
X-40.309 Y-100.534 Z-3.76
X-39.886 Y-100.558 Z-3.767
X-39.483 Y-100.586 Z-3.776
X-39.303 Y-100.599 Z-3.782
X-39.024 Y-100.622 Z-3.79
X-38.66 Y-100.657 Z-3.805
X-38.335 Y-100.692 Z-3.822
X-38.24 Y-100.703 Z-3.826
X-37.868 Y-100.751 Z-3.849
X-37.815 Y-100.758 Z-3.852
X-37.413 Y-100.821 Z-3.882
X-37.376 Y-100.827 Z-3.884
X-36.97 Y-100.901 Z-3.918
X-36.932 Y-100.909 Z-3.921
X-36.541 Y-100.993 Z-3.959
X-36.475 Y-101.009 Z-3.964
X-36.126 Y-101.097 Z-4.002
X-36.027 Y-101.123 Z-4.01
X-35.726 Y-101.211 Z-4.045
X-35.569 Y-101.261 Z-4.06
X-35.341 Y-101.336 Z-4.088
X-35.123 Y-101.415 Z-4.109
X-35.025 Y-101.451 Z-4.12
X-34.69 Y-101.585 Z-4.155
X-34.614 Y-101.616 Z-4.164
X-34.282 Y-101.762 Z-4.195
X-33.881 Y-101.952 Z-4.232
X-33.497 Y-102.147 Z-4.265
X-33.124 Y-102.346 Z-4.296
X-32.761 Y-102.55 Z-4.325
X-32.419 Y-102.747 Z-4.35
X-32.067 Y-102.955 Z-4.375
X-31.75 Y-103.145 Z-4.396
X-31.586 Y-103.248 Z-4.412
X-31.425 Y-103.357 Z-4.438
X-31.306 Y-103.443 Z-4.465
X-31.189 Y-103.533 Z-4.497
X-30.805 Y-103.833 Z-4.615
X-30.412 Y-104.199 Z-4.671
X-30.059 Y-104.537 Z-4.722
X-29.992 Y-104.603 Z-4.731
X-29.741 Y-104.854 Z-4.768
X-29.687 Y-104.91 Z-4.774
X-29.452 Y-105.159 Z-4.806
X-29.381 Y-105.237 Z-4.813
X-29.197 Y-105.447 Z-4.834
X-29.082 Y-105.583 Z-4.842
X-29.017 Y-105.664 Z-4.847
X-28.852 Y-105.876 Z-4.857
X-28.792 Y-105.955
X-28.616 Y-106.199 Z-4.864
X-28.496 Y-106.372 Z-4.866
X-28.252 Y-106.75 Z-4.875
X-28.155 Y-106.906 Z-4.879
X-28.002 Y-107.165 Z-4.892
X-27.883 Y-107.371 Z-4.905
X-27.716 Y-107.676 Z-4.932
X-27.669 Y-107.779 Z-4.931
X-27.491 Y-108.185 Z-4.938
X-27.425 Y-108.343 Z-4.945
X-27.319 Y-108.61 Z-4.96
X-27.237 Y-108.825 Z-4.974
X-27.129 Y-109.127 Z-4.999
X-27.07 Y-109.3 Z-5.013
X-26.97 Y-109.615 Z-5.042
X-26.926 Y-109.766 Z-5.054
X-26.843 Y-110.069 Z-5.079
X-26.804 Y-110.227 Z-5.09
X-26.743 Y-110.493 Z-5.106
X-26.705 Y-110.679 Z-5.113
X-26.661 Y-110.924 Z-5.121
X-26.641 Y-111.047 Z-5.122
X-26.59 Y-111.394 Z-5.125
X-26.577 Y-111.493 Z-5.124
X-26.528 Y-111.904 Z-5.121
X-26.501 Y-112.174 Z-5.117
X-26.475 Y-112.453 Z-5.11
X-26.428 Y-113.038 Z-5.094
X-26.411 Y-113.281 Z-5.088
X-26.403 Y-113.45 Z-5.092
X-26.414 Y-113.665 Z-5.084
X-26.418 Y-113.717 Z-5.083
X-26.484 Y-114.476 Z-5.095
X-26.522 Y-114.863 Z-5.099
X-26.564 Y-115.237 Z-5.103
X-26.581 Y-115.383
X-26.609 Y-115.596 Z-5.105
X-26.642 Y-115.83 Z-5.104
X-26.711 Y-116.256
X-26.774 Y-116.586 Z-5.101
X-26.823 Y-116.816 Z-5.094
X-26.909 Y-117.171 Z-5.083
X-26.985 Y-117.442 Z-5.071
X-27.067 Y-117.707 Z-5.05
X-27.164 Y-117.981 Z-5.028
X-27.215 Y-118.116 Z-5.013
X-27.273 Y-118.265 Z-4.999
X-27.397 Y-118.56 Z-4.97
X-27.486 Y-118.755 Z-4.949
X-27.537 Y-118.864 Z-4.94
X-27.642 Y-119.08 Z-4.918
X-27.69 Y-119.176 Z-4.91
X-27.86 Y-119.495 Z-4.887
X-27.983 Y-119.713 Z-4.871
X-28.166 Y-120.024 Z-4.857
X-28.246 Y-120.155 Z-4.854
X-28.461 Y-120.493 Z-4.85
X-28.709 Y-120.866 Z-4.859
X-29.05 Y-121.248 Z-4.774
X-29.361 Y-121.582 Z-4.712
X-29.692 Y-121.926 Z-4.653
X-30.009 Y-122.243 Z-4.605
X-30.267 Y-122.496 Z-4.569
X-30.32 Y-122.546 Z-4.561
X-30.642 Y-122.85 Z-4.517
X-31.157 Y-123.323 Z-4.44
X-31.338 Y-123.48 Z-4.411
X-31.457 Y-123.578 Z-4.4
X-31.579 Y-123.672 Z-4.397
X-31.666 Y-123.734 Z-4.396
X-32.057 Y-123.997 Z-4.408
X-32.508 Y-124.285 Z-4.409
X-32.71 Y-124.407 Z-4.4
X-32.946 Y-124.547 Z-4.393
X-33.377 Y-124.784 Z-4.362
X-33.8 Y-124.996 Z-4.317
X-34.192 Y-125.173 Z-4.266
X-34.266 Y-125.206 Z-4.257
X-34.603 Y-125.342 Z-4.206
X-34.758 Y-125.403 Z-4.186
X-35.019 Y-125.497 Z-4.143
X-35.27 Y-125.583 Z-4.109
X-35.461 Y-125.644 Z-4.078
X-35.809 Y-125.748 Z-4.032
X-35.914 Y-125.776 Z-4.015
X-36.37 Y-125.893 Z-3.959
X-36.836 Y-125.994 Z-3.906
X-36.935 Y-126.014 Z-3.897
X-37.289 Y-126.079 Z-3.864
X-37.572 Y-126.125 Z-3.844
X-37.735 Y-126.15 Z-3.83
X-38.169 Y-126.21 Z-3.804
X-38.604 Y-126.26 Z-3.782
X-39.032 Y-126.303 Z-3.769
X-39.441 Y-126.338 Z-3.76
X-39.858 Y-126.369 Z-3.755
X-40.255 Y-126.395 Z-3.753
X-40.779 Y-126.425 Z-3.755
X-41.423 Y-126.434 Z-3.717
X-41.608 Y-126.433 Z-3.711
X-41.921 Y-126.418 Z-3.718
X-42.395 Y-126.392 Z-3.728
X-42.853 Y-126.361 Z-3.733
X-43.187 Y-126.333 Z-3.731
X-43.51 Y-126.301 Z-3.728
X-43.574 Y-126.294 Z-3.726
X-43.934 Y-126.251 Z-3.717
X-44.364 Y-126.189 Z-3.7
X-44.593 Y-126.152 Z-3.691
X-44.761 Y-126.123 Z-3.682
X-45.055 Y-126.069 Z-3.671
X-45.168 Y-126.047 Z-3.666
X-45.531 Y-125.973 Z-3.655
X-45.986 Y-125.873 Z-3.648
X-46.124 Y-125.84 Z-3.649
X-46.405 Y-125.755 Z-3.623
X-46.811 Y-125.624 Z-3.596
X-47.224 Y-125.483 Z-3.576
X-47.598 Y-125.348 Z-3.565
X-48.012 Y-125.189 Z-3.557
X-48.351 Y-125.053 Z-3.553
X-48.435 Y-125.018 Z-3.551
X-48.764 Y-124.877 Z-3.547
X-49.063 Y-124.743 Z-3.541
X-49.304 Y-124.631 Z-3.536
X-49.786 Y-124.4 Z-3.523
X-50.173 Y-124.207 Z-3.51
X-50.771 Y-123.902 Z-3.485
X-50.936 Y-123.814 Z-3.48
X-51.018 Y-123.769
X-51.325 Y-123.597 Z-3.483
X-51.534 Y-123.477 Z-3.486
X-51.911 Y-123.256 Z-3.499
X-52.037 Y-123.179 Z-3.506
X-52.241 Y-123.05 Z-3.518
X-52.411 Y-122.94 Z-3.533
X-52.587 Y-122.825 Z-3.555
X-52.737 Y-122.727 Z-3.579
X-52.843 Y-122.657 Z-3.598
X-53.176 Y-122.742 Z-3.201
X-53.529 Y-122.838 Z-2.785
X-53.836 Y-122.926 Z-2.427
X-54.051 Y-122.992 Z-2.179
X-54.359 Y-123.09 Z-1.831
X-54.773 Y-123.23 Z-1.368
X-55.148 Y-123.362 Z-0.954
X-55.245 Y-123.399 Z-0.85
X-55.337 Y-123.439 Z-0.757
X-55.424 Y-123.482 Z-0.673
X-55.506 Y-123.529 Z-0.6
X-55.627 Y-123.609 Z-0.502
X-55.793 Y-123.728 Z-0.377
X-55.899 Y-123.807 Z-0.3
X-56.01 Y-123.895 Z-0.224
X-56.098 Y-123.969 Z-0.168
X-56.169 Y-124.032 Z-0.128
X-56.256 Y-124.116 Z-0.082
X-56.341 Y-124.202 Z-0.042
X-56.423 Y-124.289 Z-0.008
X-56.444 Y-124.312 Z0
X-56.423 Y-124.289 Z-0.008
X-56.341 Y-124.202 Z-0.042
X-56.256 Y-124.116 Z-0.082
X-56.169 Y-124.032 Z-0.128
X-56.098 Y-123.969 Z-0.168
X-56.01 Y-123.895 Z-0.224
X-55.899 Y-123.807 Z-0.3
X-55.793 Y-123.728 Z-0.377
X-55.627 Y-123.609 Z-0.502
X-55.506 Y-123.529 Z-0.6
X-55.424 Y-123.482 Z-0.673
X-55.337 Y-123.439 Z-0.757
X-55.245 Y-123.399 Z-0.85
X-55.148 Y-123.362 Z-0.954
X-54.773 Y-123.23 Z-1.368
X-54.359 Y-123.09 Z-1.831
X-54.051 Y-122.992 Z-2.179
X-53.836 Y-122.926 Z-2.427
X-53.529 Y-122.838 Z-2.785
X-53.176 Y-122.742 Z-3.201
X-52.843 Y-122.657 Z-3.598
X-52.931 Y-122.06 Z-2.898
X-52.965 Y-121.814 Z-2.614
X-52.987 Y-121.64 Z-2.415
X-53.006 Y-121.395 Z-2.151
X-53.023 Y-121.113 Z-1.856
X-53.032 Y-120.902 Z-1.641
X-53.035 Y-120.715 Z-1.457
Y-120.564 Z-1.312
