%
(1001)
(origin stock top)
(T1  D=12.7 CR=0 TAPER=30deg - ZMIN=-6.329 - chamfer mill)
G90 G94
G17
G21

(Engrave1)
M9
T1 M6
S9000 M3
G54
G0 X-207.321 Y-44.823
Z15
Z5
G1 Z0 F849.6
X-207.266 Y-44.832 Z-0.015
X-207.088 Y-44.864 Z-0.07
X-206.98 Y-44.886 Z-0.108
X-206.808 Y-44.925 Z-0.176
X-206.71 Y-44.949 Z-0.218
X-206.525 Y-44.999 Z-0.305
X-206.338 Y-45.055 Z-0.401
X-206.157 Y-45.111 Z-0.499
X-205.813 Y-45.225 Z-0.696
X-205.755 Y-45.246 Z-0.732
X-205.696 Y-45.269 Z-0.772
X-205.427 Y-45.381 Z-0.966
X-205.015 Y-45.555 Z-1.267
X-204.729 Y-45.678 Z-1.481
X-204.437 Y-45.808 Z-1.705
X-204.14 Y-45.943 Z-1.94
X-203.832 Y-46.089 Z-2.193
X-203.533 Y-46.235 Z-2.446
X-203.234 Y-46.384 Z-2.703
X-201.448 Y-47.299 Z-4.289
X-201.262 Y-47.051 Z-3.86
X-201.013 Y-46.729 Z-3.302
X-200.842 Y-46.512 Z-2.925
X-200.73 Y-46.375 Z-2.688
X-200.619 Y-46.246 Z-2.464
X-200.508 Y-46.124 Z-2.254
X-200.397 Y-46.01 Z-2.057
X-200.286 Y-45.904 Z-1.873
X-200.175 Y-45.806 Z-1.703
X-200.064 Y-45.715 Z-1.546
X-199.953 Y-45.633 Z-1.402
X-199.721 Y-45.47 Z-1.12
X-199.596 Y-45.385 Z-0.973
X-199.493 Y-45.318 Z-0.857
X-199.39 Y-45.253 Z-0.745
X-199.277 Y-45.187 Z-0.63
X-199.155 Y-45.12 Z-0.515
X-199.051 Y-45.069 Z-0.425
X-198.929 Y-45.013 Z-0.329
X-198.825 Y-44.971 Z-0.257
X-198.72 Y-44.934 Z-0.192
X-198.629 Y-44.905 Z-0.142
X-198.537 Y-44.879 Z-0.097
X-198.448 Y-44.856 Z-0.058
X-198.364 Y-44.837 Z-0.025
X-198.291 Y-44.823 Z0
X-198.364 Y-44.837 Z-0.025
X-198.448 Y-44.856 Z-0.058
X-198.537 Y-44.879 Z-0.097
X-198.629 Y-44.905 Z-0.142
X-198.72 Y-44.934 Z-0.192
X-198.825 Y-44.971 Z-0.257
X-198.929 Y-45.013 Z-0.329
X-199.051 Y-45.069 Z-0.425
X-199.155 Y-45.12 Z-0.515
X-199.277 Y-45.187 Z-0.63
X-199.39 Y-45.253 Z-0.745
X-199.493 Y-45.318 Z-0.857
X-199.596 Y-45.385 Z-0.973
X-199.721 Y-45.47 Z-1.12
X-199.953 Y-45.633 Z-1.402
X-200.064 Y-45.715 Z-1.546
X-200.175 Y-45.806 Z-1.703
X-200.286 Y-45.904 Z-1.873
X-200.397 Y-46.01 Z-2.057
X-200.508 Y-46.124 Z-2.254
X-200.619 Y-46.246 Z-2.464
X-200.73 Y-46.375 Z-2.688
X-200.842 Y-46.512 Z-2.925
X-201.013 Y-46.729 Z-3.302
X-201.262 Y-47.051 Z-3.86
X-201.448 Y-47.299 Z-4.289
X-201.357 Y-47.477 Z-4.237
X-201.283 Y-47.617 Z-4.2
X-201.206 Y-47.757 Z-4.167
X-201.127 Y-47.895 Z-4.138
X-201.046 Y-48.031 Z-4.115
X-200.939 Y-48.204 Z-4.09
X-200.858 Y-48.331 Z-4.076
X-200.733 Y-48.521 Z-4.061
X-200.608 Y-48.703 Z-4.053
X-200.46 Y-48.912 Z-4.05
X-200.334 Y-49.087
X-197.386 Y-53.249 Z-3.994
X-197.277 Y-53.413 Z-4
X-197.173 Y-53.58 Z-4.019
X-197.075 Y-53.751 Z-4.05
X-196.983 Y-53.926 Z-4.093
X-196.897 Y-54.106 Z-4.149
X-196.816 Y-54.29 Z-4.217
X-196.742 Y-54.477 Z-4.297
X-196.673 Y-54.669 Z-4.39
X-196.611 Y-54.865 Z-4.495
X-196.554 Y-55.065 Z-4.613
X-196.503 Y-55.269 Z-4.743
X-196.457 Y-55.477 Z-4.885
X-196.418 Y-55.689 Z-5.039
X-196.591 Y-55.818 Z-4.819
X-196.732 Y-55.918 Z-4.65
X-196.88 Y-56.02 Z-4.48
X-197.028 Y-56.116 Z-4.322
X-197.183 Y-56.212 Z-4.166
X-197.341 Y-56.305 Z-4.02
X-197.5 Y-56.394 Z-3.885
X-197.659 Y-56.478 Z-3.762
X-197.826 Y-56.561 Z-3.648
X-197.991 Y-56.638 Z-3.55
X-198.16 Y-56.712 Z-3.464
X-198.334 Y-56.783 Z-3.393
X-198.507 Y-56.848 Z-3.339
X-198.678 Y-56.907 Z-3.301
X-198.845 Y-56.959 Z-3.279
X-198.998 Y-57.002 Z-3.272
X-199.156 Y-57.042 Z-3.276
X-199.455 Y-57.12 Z-3.291
X-199.792 Y-57.211 Z-3.313
X-200.009 Y-57.274 Z-3.33
X-200.112 Y-57.309 Z-3.344
X-200.216 Y-57.346 Z-3.363
X-200.316 Y-57.386 Z-3.384
X-200.415 Y-57.428 Z-3.409
X-200.465 Y-57.45 Z-3.423
X-200.711 Y-57.564 Z-3.493
X-200.845 Y-57.63 Z-3.53
X-201.052 Y-57.736 Z-3.588
X-201.234 Y-57.836 Z-3.64
X-201.338 Y-57.898 Z-3.669
X-201.522 Y-58.014 Z-3.723
X-201.609 Y-58.073 Z-3.747
X-201.793 Y-58.207 Z-3.8
X-201.925 Y-58.312 Z-3.841
X-202.037 Y-58.406 Z-3.877
X-202.199 Y-58.551 Z-3.932
X-202.34 Y-58.689 Z-3.988
X-202.487 Y-58.84 Z-4.053
X-202.635 Y-59.002 Z-4.126
X-202.732 Y-59.115 Z-4.181
X-202.832 Y-59.237 Z-4.243
X-202.837 Y-59.245 Z-4.244
X-202.959 Y-59.459 Z-4.288
X-203.052 Y-59.634 Z-4.328
X-203.146 Y-59.827 Z-4.375
X-203.213 Y-59.98 Z-4.411
X-203.266 Y-60.111 Z-4.44
X-203.277 Y-60.141 Z-4.447
X-203.325 Y-60.28 Z-4.471
X-203.345 Y-60.353 Z-4.48
X-203.374 Y-60.47 Z-4.49
X-203.391 Y-60.552 Z-4.494
X-203.413 Y-60.672 Z-4.497
X-203.425 Y-60.75 Z-4.498
X-203.455 Y-60.966 Z-4.5
X-203.485 Y-61.267 Z-4.498
X-203.501 Y-61.459 Z-4.496
X-203.514 Y-61.645 Z-4.495
X-203.521 Y-61.87 Z-4.504
X-203.51 Y-62.06 Z-4.5
X-203.492 Y-62.331 Z-4.497
X-203.468 Y-62.605 Z-4.496
X-203.451 Y-62.763 Z-4.497
X-203.427 Y-62.955 Z-4.5
X-203.396 Y-63.148 Z-4.505
X-203.353 Y-63.37 Z-4.511
X-203.331 Y-63.469 Z-4.513
X-203.303 Y-63.579 Z-4.515
X-203.271 Y-63.691 Z-4.514
X-203.24 Y-63.784 Z-4.511
X-203.21 Y-63.867 Z-4.505
X-203.165 Y-63.969 Z-4.492
X-203.152 Y-63.996 Z-4.488
X-203.107 Y-64.085 Z-4.47
X-203.039 Y-64.205 Z-4.44
X-202.975 Y-64.31 Z-4.413
X-202.863 Y-64.478 Z-4.367
X-202.776 Y-64.598 Z-4.334
X-202.643 Y-64.77 Z-4.289
X-202.478 Y-64.968 Z-4.242
X-202.328 Y-65.138 Z-4.207
X-202.2 Y-65.275 Z-4.183
X-202.087 Y-65.367 Z-4.138
X-201.955 Y-65.472 Z-4.088
X-201.817 Y-65.576 Z-4.039
X-201.673 Y-65.68 Z-3.987
X-201.546 Y-65.765 Z-3.939
X-201.419 Y-65.847 Z-3.888
X-201.281 Y-65.928 Z-3.831
X-201.2 Y-65.973 Z-3.8
X-201.115 Y-66.016 Z-3.769
X-201.023 Y-66.061 Z-3.737
X-200.924 Y-66.105 Z-3.707
X-200.821 Y-66.148 Z-3.679
X-200.715 Y-66.189 Z-3.654
X-200.599 Y-66.231 Z-3.631
X-200.467 Y-66.274 Z-3.611
X-200.03 Y-66.389 Z-3.516
X-199.677 Y-66.477 Z-3.443
X-199.453 Y-66.528 Z-3.402
X-199.273 Y-66.567 Z-3.37
X-199.09 Y-66.603 Z-3.34
X-198.878 Y-66.642 Z-3.31
X-198.662 Y-66.676 Z-3.282
X-198.394 Y-66.711 Z-3.253
X-198.215 Y-66.731 Z-3.236
X-198.035 Y-66.748 Z-3.221
X-197.853 Y-66.762 Z-3.209
X-197.664 Y-66.775 Z-3.198
X-197.335 Y-66.79 Z-3.185
X-197.103 Y-66.797 Z-3.179
X-196.787 Y-66.803 Z-3.175
X-196.318 Y-66.805
X-196.127
X-187.297
X-187.111 Y-66.802 Z-3.182
X-186.925 Y-66.79 Z-3.202
X-186.739 Y-66.771 Z-3.236
X-186.554 Y-66.743 Z-3.283
X-186.368 Y-66.709 Z-3.343
X-186.182 Y-66.666 Z-3.417
X-185.996 Y-66.616 Z-3.504
X-185.81 Y-66.558 Z-3.605
X-185.624 Y-66.492 Z-3.719
X-185.439 Y-66.418 Z-3.846
X-185.253 Y-66.337 Z-3.987
X-185.067 Y-66.248 Z-4.141
X-184.881 Y-66.151 Z-4.309
X-184.695 Y-66.047 Z-4.49
X-184.509 Y-65.934 Z-4.684
X-183.649 Y-66.794 Z-3.194
X-183.555 Y-66.887 Z-3.034
X-183.327 Y-67.105 Z-2.656
X-183.154 Y-67.265 Z-2.379
X-182.987 Y-67.413 Z-2.123
X-182.86 Y-67.521 Z-1.936
X-182.747 Y-67.612 Z-1.778
X-182.606 Y-67.721 Z-1.59
X-182.503 Y-67.797 Z-1.459
X-182.402 Y-67.867 Z-1.337
X-182.285 Y-67.945 Z-1.202
X-182.167 Y-68.019 Z-1.074
X-182.033 Y-68.099 Z-0.935
X-181.81 Y-68.224 Z-0.718
X-181.689 Y-68.288 Z-0.607
X-181.614 Y-68.323 Z-0.548
X-181.44 Y-68.388 Z-0.434
X-181.261 Y-68.452 Z-0.324
X-181.129 Y-68.496 Z-0.248
X-181.002 Y-68.535 Z-0.179
X-180.871 Y-68.572 Z-0.116
X-180.741 Y-68.604 Z-0.06
X-180.616 Y-68.631 Z-0.013
X-180.578 Y-68.639 Z0
X-180.616 Y-68.631 Z-0.013
X-180.741 Y-68.604 Z-0.06
X-180.871 Y-68.572 Z-0.116
X-181.002 Y-68.535 Z-0.179
X-181.129 Y-68.496 Z-0.248
X-181.261 Y-68.452 Z-0.324
X-181.44 Y-68.388 Z-0.434
X-181.614 Y-68.323 Z-0.548
X-181.689 Y-68.288 Z-0.607
X-181.81 Y-68.224 Z-0.718
X-182.033 Y-68.099 Z-0.935
X-182.167 Y-68.019 Z-1.074
X-182.285 Y-67.945 Z-1.202
X-182.402 Y-67.867 Z-1.337
X-182.503 Y-67.797 Z-1.459
X-182.606 Y-67.721 Z-1.59
X-182.747 Y-67.612 Z-1.778
X-182.86 Y-67.521 Z-1.936
X-182.987 Y-67.413 Z-2.123
X-183.154 Y-67.265 Z-2.379
X-183.327 Y-67.105 Z-2.656
X-183.555 Y-66.887 Z-3.034
X-183.649 Y-66.794 Z-3.194
X-184.509 Y-65.934 Z-4.684
X-184.468 Y-65.74 Z-4.612
X-184.433 Y-65.546 Z-4.551
X-184.404 Y-65.352 Z-4.501
X-184.381 Y-65.158 Z-4.463
X-184.365 Y-64.964 Z-4.435
X-184.356 Y-64.769 Z-4.418
X-184.352 Y-64.575 Z-4.413
Y-58.994
X-184.356 Y-58.791 Z-4.419
X-184.366 Y-58.589 Z-4.437
X-184.384 Y-58.386 Z-4.467
X-184.408 Y-58.183 Z-4.509
X-184.44 Y-57.98 Z-4.564
X-184.478 Y-57.778 Z-4.63
X-184.524 Y-57.575 Z-4.709
X-184.576 Y-57.372 Z-4.799
X-184.635 Y-57.169 Z-4.902
X-184.702 Y-56.967 Z-5.017
X-184.775 Y-56.764 Z-5.144
X-184.951 Z-4.919
X-185.123 Z-4.707
X-185.292 Z-4.507
X-185.458 Z-4.319
X-185.621 Z-4.145
X-185.781 Z-3.983
X-185.939 Z-3.835
X-186.096 Z-3.7
X-186.25 Z-3.58
X-186.326 Z-3.526
X-186.402 Z-3.475
X-186.478 Z-3.428
X-186.554 Z-3.384
X-186.629 Z-3.345
X-186.704 Z-3.31
X-186.778 Z-3.279
X-186.853 Z-3.251
X-186.927 Z-3.228
X-187.001 Z-3.209
X-187.075 Z-3.194
X-187.149 Z-3.184
X-187.223 Z-3.178
X-187.297 Z-3.175
X-193.192
X-193.371 Y-56.76 Z-3.182
X-193.55 Y-56.75 Z-3.2
X-193.729 Y-56.732 Z-3.231
X-193.907 Y-56.707 Z-3.275
X-194.086 Y-56.674 Z-3.331
X-194.265 Y-56.635 Z-3.399
X-194.444 Y-56.588 Z-3.48
X-194.623 Y-56.534 Z-3.573
X-194.802 Y-56.473 Z-3.678
X-194.98 Y-56.405 Z-3.796
X-195.159 Y-56.33 Z-3.927
X-195.338 Y-56.248 Z-4.07
X-195.517 Y-56.158 Z-4.225
X-196.418 Y-55.689 Z-5.039
X-195.517 Y-56.158 Z-4.225
X-195.338 Y-56.248 Z-4.07
X-195.159 Y-56.33 Z-3.927
X-194.98 Y-56.405 Z-3.796
X-194.802 Y-56.473 Z-3.678
X-194.623 Y-56.534 Z-3.573
X-194.444 Y-56.588 Z-3.48
X-194.265 Y-56.635 Z-3.399
X-194.086 Y-56.674 Z-3.331
X-193.907 Y-56.707 Z-3.275
X-193.729 Y-56.732 Z-3.231
X-193.55 Y-56.75 Z-3.2
X-193.371 Y-56.76 Z-3.182
X-193.192 Y-56.764 Z-3.175
X-187.297
X-187.223 Z-3.178
X-187.149 Z-3.184
X-187.075 Z-3.194
X-187.001 Z-3.209
X-186.927 Z-3.228
X-186.853 Z-3.251
X-186.778 Z-3.279
X-186.704 Z-3.31
X-186.629 Z-3.345
X-186.554 Z-3.384
X-186.478 Z-3.428
X-186.402 Z-3.475
X-186.326 Z-3.526
X-186.25 Z-3.58
X-186.096 Z-3.7
X-185.939 Z-3.835
X-185.781 Z-3.983
X-185.621 Z-4.145
X-185.458 Z-4.319
X-185.292 Z-4.507
X-185.123 Z-4.707
X-184.951 Z-4.919
X-184.775 Z-5.144
X-184.702 Y-56.561 Z-5.017
X-184.635 Y-56.358 Z-4.902
X-184.576 Y-56.156 Z-4.799
X-184.524 Y-55.953 Z-4.709
X-184.478 Y-55.75 Z-4.63
X-184.44 Y-55.547 Z-4.564
X-184.408 Y-55.345 Z-4.509
X-184.384 Y-55.142 Z-4.467
X-184.366 Y-54.939 Z-4.437
X-184.356 Y-54.736 Z-4.419
X-184.352 Y-54.534 Z-4.413
Y-47.371
X-183.51 Y-46.532 Z-2.959
X-183.284 Y-46.317 Z-2.588
X-183.066 Y-46.119 Z-2.244
X-182.936 Y-46.007 Z-2.05
X-182.787 Y-45.883 Z-1.836
X-182.678 Y-45.797 Z-1.687
X-182.554 Y-45.703 Z-1.524
X-182.396 Y-45.591 Z-1.33
X-182.255 Y-45.498 Z-1.169
X-182.14 Y-45.426 Z-1.044
X-181.975 Y-45.329 Z-0.876
X-181.83 Y-45.247 Z-0.735
X-181.675 Y-45.164 Z-0.59
X-181.603 Y-45.13 Z-0.532
X-181.48 Y-45.083 Z-0.45
X-181.306 Y-45.018 Z-0.338
X-181.174 Y-44.972 Z-0.258
X-181.05 Y-44.932 Z-0.189
X-180.926 Y-44.896 Z-0.126
X-180.842 Y-44.873 Z-0.087
X-180.714 Y-44.843 Z-0.035
X-180.617 Y-44.823 Z0
X-180.714 Y-44.843 Z-0.035
X-180.842 Y-44.873 Z-0.087
X-180.926 Y-44.896 Z-0.126
X-181.05 Y-44.932 Z-0.189
X-181.174 Y-44.972 Z-0.258
X-181.306 Y-45.018 Z-0.338
X-181.48 Y-45.083 Z-0.45
X-181.603 Y-45.13 Z-0.532
X-181.675 Y-45.164 Z-0.59
X-181.83 Y-45.247 Z-0.735
X-181.975 Y-45.329 Z-0.876
X-182.14 Y-45.426 Z-1.044
X-182.255 Y-45.498 Z-1.169
X-182.396 Y-45.591 Z-1.33
X-182.554 Y-45.703 Z-1.524
X-182.678 Y-45.797 Z-1.687
X-182.787 Y-45.883 Z-1.836
X-182.936 Y-46.007 Z-2.05
X-183.066 Y-46.119 Z-2.244
X-183.284 Y-46.317 Z-2.588
X-183.51 Y-46.532 Z-2.959
X-184.352 Y-47.371 Z-4.413
X-185.132 Y-46.594 Z-3.067
X-185.45 Y-46.291 Z-2.543
X-185.63 Y-46.129 Z-2.261
X-185.75 Y-46.024 Z-2.081
X-185.914 Y-45.889 Z-1.846
X-186.087 Y-45.754 Z-1.613
X-186.191 Y-45.678 Z-1.48
X-186.311 Y-45.594 Z-1.335
X-186.436 Y-45.512 Z-1.192
X-186.573 Y-45.426 Z-1.045
X-186.711 Y-45.345 Z-0.904
X-186.839 Y-45.273 Z-0.778
X-186.934 Y-45.22 Z-0.688
X-187.005 Y-45.183 Z-0.623
X-187.077 Y-45.15 Z-0.566
X-187.202 Y-45.101 Z-0.481
X-187.382 Y-45.034 Z-0.366
X-187.509 Y-44.99 Z-0.289
X-187.644 Y-44.946 Z-0.213
X-187.777 Y-44.907 Z-0.145
X-187.911 Y-44.871 Z-0.083
X-188.036 Y-44.842 Z-0.033
X-188.129 Y-44.823 Z0
G0 Z5
X-198.883 Y-127.639
G1 Z0 F849.6
X-198.78 Y-127.622 Z-0.03
X-198.681 Y-127.604 Z-0.061
X-198.507 Y-127.569 Z-0.121
X-198.399 Y-127.546 Z-0.162
X-198.223 Y-127.503 Z-0.236
X-198.03 Y-127.45 Z-0.327
X-197.845 Y-127.396 Z-0.421
X-197.663 Y-127.339 Z-0.519
X-197.315 Y-127.226 Z-0.716
X-197.256 Y-127.205 Z-0.752
X-197.198 Y-127.182 Z-0.792
X-196.553 Y-126.915 Z-1.255
X-196.273 Y-126.795 Z-1.462
X-195.999 Y-126.675 Z-1.67
X-195.706 Y-126.543 Z-1.899
X-195.544 Y-126.467 Z-2.03
X-195.137 Y-126.273 Z-2.366
X-194.853 Y-126.134 Z-2.607
X-194.441 Y-125.928 Z-2.963
X-193.087 Y-125.24 Z-4.156
X-193.033 Y-125.312 Z-4.03
X-192.905 Y-125.481 Z-3.738
X-192.777 Y-125.641 Z-3.46
X-192.648 Y-125.793 Z-3.197
X-192.52 Y-125.936 Z-2.949
X-192.392 Y-126.071 Z-2.716
X-192.263 Y-126.197 Z-2.497
X-192.135 Y-126.315 Z-2.293
X-192.006 Y-126.424 Z-2.104
X-191.878 Y-126.525 Z-1.93
X-191.663 Y-126.684 Z-1.654
X-191.45 Y-126.838 Z-1.387
X-191.283 Y-126.952 Z-1.189
X-191.15 Y-127.039 Z-1.039
X-191.015 Y-127.123 Z-0.895
X-190.882 Y-127.2 Z-0.76
X-190.733 Y-127.28 Z-0.622
X-190.591 Y-127.348 Z-0.504
X-190.46 Y-127.405 Z-0.406
X-190.333 Y-127.454 Z-0.321
X-190.216 Y-127.494 Z-0.251
X-190.097 Y-127.53 Z-0.189
X-189.996 Y-127.558 Z-0.141
X-189.888 Y-127.585 Z-0.094
X-189.784 Y-127.608 Z-0.054
X-189.684 Y-127.628 Z-0.019
X-189.624 Y-127.639 Z0
X-189.684 Y-127.628 Z-0.019
X-189.784 Y-127.608 Z-0.054
X-189.888 Y-127.585 Z-0.094
X-189.996 Y-127.558 Z-0.141
X-190.097 Y-127.53 Z-0.189
X-190.216 Y-127.494 Z-0.251
X-190.333 Y-127.454 Z-0.321
X-190.46 Y-127.405 Z-0.406
X-190.591 Y-127.348 Z-0.504
X-190.733 Y-127.28 Z-0.622
X-190.882 Y-127.2 Z-0.76
X-191.015 Y-127.123 Z-0.895
X-191.15 Y-127.039 Z-1.039
X-191.283 Y-126.952 Z-1.189
X-191.45 Y-126.838 Z-1.387
X-191.663 Y-126.684 Z-1.654
X-191.878 Y-126.525 Z-1.93
X-192.006 Y-126.424 Z-2.104
X-192.135 Y-126.315 Z-2.293
X-192.263 Y-126.197 Z-2.497
X-192.392 Y-126.071 Z-2.716
X-192.52 Y-125.936 Z-2.949
X-192.648 Y-125.793 Z-3.197
X-192.777 Y-125.641 Z-3.46
X-192.905 Y-125.481 Z-3.738
X-193.033 Y-125.312 Z-4.03
X-193.087 Y-125.24 Z-4.156
X-192.997 Y-125.06 Z-4.099
X-192.841 Y-124.76 Z-4.011
X-192.749 Y-124.588 Z-3.964
X-192.641 Y-124.392 Z-3.917
X-192.549 Y-124.232 Z-3.883
X-192.436 Y-124.043 Z-3.849
X-192.354 Y-123.91 Z-3.828
X-192.271 Y-123.779 Z-3.811
X-192.156 Y-123.604 Z-3.793
X-192.049 Y-123.444 Z-3.781
X-191.917 Y-123.252 Z-3.771
X-191.765 Y-123.038 Z-3.765
X-191.578 Y-122.78 Z-3.764
X-191.487 Y-122.655 Z-3.765
X-187.948 Y-117.713 Z-3.688
X-187.833 Y-117.561 Z-3.694
X-187.713 Y-117.414 Z-3.713
X-187.586 Y-117.27 Z-3.744
X-187.454 Y-117.131 Z-3.788
X-187.316 Y-116.996 Z-3.843
X-187.172 Y-116.865 Z-3.912
X-187.022 Y-116.739 Z-3.993
X-186.867 Y-116.617 Z-4.086
X-186.706 Y-116.498 Z-4.191
X-186.539 Y-116.385 Z-4.309
X-186.366 Y-116.275 Z-4.44
X-186.187 Y-116.169 Z-4.583
X-186.003 Y-116.068 Z-4.738
X-185.904 Y-116.016 Z-4.825
X-185.804 Y-115.963 Z-4.92
X-185.701 Y-115.909 Z-5.023
X-185.592 Y-115.851 Z-5.137
Y-115.74 Z-5.047
Y-115.631 Z-4.963
Y-115.524 Z-4.885
Y-115.418 Z-4.814
Y-115.314 Z-4.749
Y-115.211 Z-4.689
Y-115.109 Z-4.636
Y-115.008 Z-4.589
Y-114.908 Z-4.547
Y-114.809 Z-4.511
Y-114.711 Z-4.481
Y-114.613 Z-4.456
Y-114.516 Z-4.436
Y-114.419 Z-4.423
Y-114.323 Z-4.414
Y-114.226 Z-4.412
Y-106.37
X-186.386 Y-105.578 Z-3.039
X-186.705 Y-105.275 Z-2.515
X-186.879 Y-105.118 Z-2.244
X-187.04 Y-104.979 Z-2.003
X-187.156 Y-104.883 Z-1.836
X-187.277 Y-104.788 Z-1.671
X-187.379 Y-104.71 Z-1.537
X-187.534 Y-104.6 Z-1.346
X-187.658 Y-104.517 Z-1.203
X-187.776 Y-104.443 Z-1.073
X-187.915 Y-104.359 Z-0.929
X-188.118 Y-104.243 Z-0.728
X-188.18 Y-104.209 Z-0.669
X-188.251 Y-104.172 Z-0.604
X-188.323 Y-104.138 Z-0.547
X-188.447 Y-104.09 Z-0.462
X-188.676 Y-104.006 Z-0.317
X-188.813 Y-103.959 Z-0.236
X-188.893 Y-103.933 Z-0.191
X-189.018 Y-103.897 Z-0.128
X-189.142 Y-103.864 Z-0.07
X-189.265 Y-103.834 Z-0.02
X-189.319 Y-103.823 Z0
X-189.265 Y-103.834 Z-0.02
X-189.142 Y-103.864 Z-0.07
X-189.018 Y-103.897 Z-0.128
X-188.893 Y-103.933 Z-0.191
X-188.813 Y-103.959 Z-0.236
X-188.676 Y-104.006 Z-0.317
X-188.447 Y-104.09 Z-0.462
X-188.323 Y-104.138 Z-0.547
X-188.251 Y-104.172 Z-0.604
X-188.18 Y-104.209 Z-0.669
X-188.118 Y-104.243 Z-0.728
X-187.915 Y-104.359 Z-0.929
X-187.776 Y-104.443 Z-1.073
X-187.658 Y-104.517 Z-1.203
X-187.534 Y-104.6 Z-1.346
X-187.379 Y-104.71 Z-1.537
X-187.277 Y-104.788 Z-1.671
X-187.156 Y-104.883 Z-1.836
X-187.04 Y-104.979 Z-2.003
X-186.879 Y-105.118 Z-2.244
X-186.705 Y-105.275 Z-2.515
X-186.386 Y-105.578 Z-3.039
X-185.592 Y-106.37 Z-4.412
X-184.774 Y-105.555 Z-2.999
X-184.616 Y-105.403 Z-2.736
X-184.394 Y-105.196 Z-2.378
X-184.225 Y-105.045 Z-2.117
X-184.099 Y-104.938 Z-1.931
X-183.954 Y-104.821 Z-1.728
X-183.805 Y-104.707 Z-1.531
X-183.652 Y-104.597 Z-1.341
X-183.519 Y-104.507 Z-1.185
X-183.4 Y-104.432 Z-1.054
X-183.27 Y-104.353 Z-0.919
X-183.096 Y-104.253 Z-0.746
X-183 Y-104.199 Z-0.652
X-182.924 Y-104.159 Z-0.582
X-182.848 Y-104.124 Z-0.521
X-182.72 Y-104.074 Z-0.435
X-182.484 Y-103.989 Z-0.288
X-182.351 Y-103.944 Z-0.21
X-182.227 Y-103.906 Z-0.144
X-182.103 Y-103.871 Z-0.084
X-182.025 Y-103.852 Z-0.05
X-181.952 Y-103.835 Z-0.021
X-181.892 Y-103.823 Z0
X-181.952 Y-103.835 Z-0.021
X-182.025 Y-103.852 Z-0.05
X-182.103 Y-103.871 Z-0.084
X-182.227 Y-103.906 Z-0.144
X-182.351 Y-103.944 Z-0.21
X-182.484 Y-103.989 Z-0.288
X-182.72 Y-104.074 Z-0.435
X-182.848 Y-104.124 Z-0.521
X-182.924 Y-104.159 Z-0.582
X-183 Y-104.199 Z-0.652
X-183.096 Y-104.253 Z-0.746
X-183.27 Y-104.353 Z-0.919
X-183.4 Y-104.432 Z-1.054
X-183.519 Y-104.507 Z-1.185
X-183.652 Y-104.597 Z-1.341
X-183.805 Y-104.707 Z-1.531
X-183.954 Y-104.821 Z-1.728
X-184.099 Y-104.938 Z-1.931
X-184.225 Y-105.045 Z-2.117
X-184.394 Y-105.196 Z-2.378
X-184.616 Y-105.403 Z-2.736
X-184.774 Y-105.555 Z-2.999
X-185.592 Y-106.37 Z-4.412
Y-114.226
Y-114.323 Z-4.414
Y-114.419 Z-4.423
Y-114.516 Z-4.436
Y-114.613 Z-4.456
Y-114.711 Z-4.481
Y-114.809 Z-4.511
Y-114.908 Z-4.547
Y-115.008 Z-4.589
Y-115.109 Z-4.636
Y-115.211 Z-4.689
Y-115.314 Z-4.749
Y-115.418 Z-4.814
Y-115.524 Z-4.885
Y-115.631 Z-4.963
Y-115.74 Z-5.047
Y-115.851 Z-5.137
X-185.493 Y-115.916 Z-5.044
X-185.399 Y-115.977 Z-4.961
X-185.308 Y-116.037 Z-4.886
X-185.219 Y-116.095 Z-4.818
X-185.034 Y-116.221 Z-4.687
X-184.855 Y-116.352 Z-4.569
X-184.683 Y-116.487 Z-4.465
X-184.517 Y-116.627 Z-4.376
X-184.357 Y-116.771 Z-4.3
X-184.204 Y-116.92 Z-4.237
X-184.058 Y-117.074 Z-4.189
X-183.918 Y-117.233 Z-4.154
X-183.784 Y-117.396 Z-4.134
X-183.657 Y-117.564 Z-4.127
X-180.089 Y-122.49 Z-4.146
X-179.986 Y-122.629 Z-4.143
X-179.74 Y-122.968
X-179.585 Y-123.187 Z-4.149
X-179.438 Y-123.401 Z-4.161
X-179.341 Y-123.548 Z-4.174
X-179.239 Y-123.705 Z-4.191
X-179.153 Y-123.841 Z-4.21
X-179.069 Y-123.978 Z-4.231
X-178.986 Y-124.117 Z-4.257
X-178.89 Y-124.282 Z-4.291
X-178.78 Y-124.479 Z-4.338
X-178.702 Y-124.624 Z-4.376
X-178.612 Y-124.797 Z-4.425
X-178.486 Y-125.042 Z-4.499
X-178.624 Y-125.23 Z-4.172
X-178.759 Y-125.409 Z-3.862
X-178.893 Y-125.579 Z-3.568
X-179.027 Y-125.74 Z-3.29
X-179.161 Y-125.891 Z-3.028
X-179.296 Y-126.033 Z-2.782
X-179.43 Y-126.166 Z-2.552
X-179.564 Y-126.289 Z-2.338
X-179.698 Y-126.404 Z-2.139
X-179.832 Y-126.509 Z-1.957
X-180.13 Y-126.731 Z-1.573
X-180.291 Y-126.846 Z-1.373
X-180.425 Y-126.938 Z-1.214
X-180.548 Y-127.02 Z-1.073
X-180.703 Y-127.117 Z-0.904
X-180.835 Y-127.194 Z-0.771
X-180.978 Y-127.272 Z-0.637
X-181.06 Y-127.313 Z-0.565
X-181.133 Y-127.347 Z-0.505
X-181.265 Y-127.404 Z-0.407
X-181.393 Y-127.454 Z-0.321
X-181.516 Y-127.496 Z-0.249
X-181.625 Y-127.529 Z-0.191
X-181.747 Y-127.562 Z-0.133
X-181.847 Y-127.586 Z-0.092
X-181.954 Y-127.61 Z-0.051
X-182.056 Y-127.63 Z-0.016
X-182.108 Y-127.639 Z0
X-182.056 Y-127.63 Z-0.016
X-181.954 Y-127.61 Z-0.051
X-181.847 Y-127.586 Z-0.092
X-181.747 Y-127.562 Z-0.133
X-181.625 Y-127.529 Z-0.191
X-181.516 Y-127.496 Z-0.249
X-181.393 Y-127.454 Z-0.321
X-181.265 Y-127.404 Z-0.407
X-181.133 Y-127.347 Z-0.505
X-181.06 Y-127.313 Z-0.565
X-180.978 Y-127.272 Z-0.637
X-180.835 Y-127.194 Z-0.771
X-180.703 Y-127.117 Z-0.904
X-180.548 Y-127.02 Z-1.073
X-180.425 Y-126.938 Z-1.214
X-180.291 Y-126.846 Z-1.373
X-180.13 Y-126.731 Z-1.573
X-179.832 Y-126.509 Z-1.957
X-179.698 Y-126.404 Z-2.139
X-179.564 Y-126.289 Z-2.338
X-179.43 Y-126.166 Z-2.552
X-179.296 Y-126.033 Z-2.782
X-179.161 Y-125.891 Z-3.028
X-179.027 Y-125.74 Z-3.29
X-178.893 Y-125.579 Z-3.568
X-178.759 Y-125.409 Z-3.862
X-178.624 Y-125.23 Z-4.172
X-178.486 Y-125.042 Z-4.499
X-176.743 Y-125.928 Z-2.963
X-176.331 Y-126.134 Z-2.607
X-176.047 Y-126.273 Z-2.366
X-175.64 Y-126.467 Z-2.03
X-175.478 Y-126.543 Z-1.899
X-175.193 Y-126.671 Z-1.676
X-175.037 Y-126.74 Z-1.557
X-174.631 Y-126.915 Z-1.255
X-173.986 Y-127.182 Z-0.792
X-173.928 Y-127.205 Z-0.752
X-173.869 Y-127.226 Z-0.716
X-173.521 Y-127.339 Z-0.519
X-173.339 Y-127.396 Z-0.421
X-173.154 Y-127.45 Z-0.327
X-172.958 Y-127.504 Z-0.235
X-172.772 Y-127.549 Z-0.157
X-172.676 Y-127.57 Z-0.12
X-172.492 Y-127.606 Z-0.057
X-172.316 Y-127.637 Z-0.004
X-172.302 Y-127.639 Z0
G0 Z5
X-175.892 Y-49.687
G1 Z0 F849.6
X-175.869 Y-49.574 Z-0.04
X-175.851 Y-49.494 Z-0.072
X-175.819 Y-49.371 Z-0.126
X-175.782 Y-49.244 Z-0.191
X-175.738 Y-49.107 Z-0.267
X-175.693 Y-48.978 Z-0.344
X-175.626 Y-48.794 Z-0.461
X-175.577 Y-48.669 Z-0.546
X-175.544 Y-48.598 Z-0.603
X-175.506 Y-48.526 Z-0.668
X-175.474 Y-48.468 Z-0.724
X-175.352 Y-48.255 Z-0.936
X-175.269 Y-48.118 Z-1.08
X-175.198 Y-48.006 Z-1.203
X-175.114 Y-47.881 Z-1.348
X-175.044 Y-47.782 Z-1.469
X-174.93 Y-47.63 Z-1.666
X-174.814 Y-47.483 Z-1.868
X-174.701 Y-47.348 Z-2.063
X-174.58 Y-47.209 Z-2.273
X-174.427 Y-47.041 Z-2.537
X-174.274 Y-46.879 Z-2.803
X-174.059 Y-46.656 Z-3.176
X-174.239 Y-46.47 Z-2.864
X-174.416 Y-46.282 Z-2.556
X-174.564 Y-46.12 Z-2.3
X-174.714 Y-45.948 Z-2.041
X-174.835 Y-45.802 Z-1.832
X-174.951 Y-45.653 Z-1.629
X-175.023 Y-45.557 Z-1.506
X-175.126 Y-45.411 Z-1.327
X-175.218 Y-45.271 Z-1.167
X-175.287 Y-45.161 Z-1.047
X-175.363 Y-45.034 Z-0.917
X-175.434 Y-44.909 Z-0.794
X-175.517 Y-44.759 Z-0.65
X-175.568 Y-44.658 Z-0.562
X-175.61 Y-44.558 Z-0.488
X-175.677 Y-44.377 Z-0.372
X-175.741 Y-44.196 Z-0.261
X-175.785 Y-44.06 Z-0.185
X-175.822 Y-43.934 Z-0.121
X-175.854 Y-43.812 Z-0.067
X-175.872 Y-43.733 Z-0.035
X-175.892 Y-43.634 Z0
X-175.872 Y-43.733 Z-0.035
X-175.854 Y-43.812 Z-0.067
X-175.822 Y-43.934 Z-0.121
X-175.785 Y-44.06 Z-0.185
X-175.741 Y-44.196 Z-0.261
X-175.677 Y-44.377 Z-0.372
X-175.61 Y-44.558 Z-0.488
X-175.568 Y-44.658 Z-0.562
X-175.517 Y-44.759 Z-0.65
X-175.434 Y-44.909 Z-0.794
X-175.363 Y-45.034 Z-0.917
X-175.287 Y-45.161 Z-1.047
X-175.218 Y-45.271 Z-1.167
X-175.126 Y-45.411 Z-1.327
X-175.023 Y-45.557 Z-1.506
X-174.951 Y-45.653 Z-1.629
X-174.835 Y-45.802 Z-1.832
X-174.714 Y-45.948 Z-2.041
X-174.564 Y-46.12 Z-2.3
X-174.416 Y-46.282 Z-2.556
X-174.239 Y-46.47 Z-2.864
X-174.059 Y-46.656 Z-3.176
X-158.425 Z-3.175
X-158.239 Y-46.66 Z-3.182
X-158.053 Y-46.672 Z-3.202
X-157.867 Y-46.691 Z-3.236
X-157.682 Y-46.718 Z-3.283
X-157.496 Y-46.753 Z-3.343
X-157.31 Y-46.796 Z-3.417
X-157.124 Y-46.846 Z-3.504
X-156.938 Y-46.904 Z-3.605
X-156.752 Y-46.97 Z-3.719
X-156.567 Y-47.044 Z-3.846
X-156.381 Y-47.125 Z-3.987
X-156.195 Y-47.214 Z-4.141
X-156.009 Y-47.311 Z-4.309
X-155.823 Y-47.415 Z-4.49
X-155.637 Y-47.528 Z-4.684
X-154.638 Y-46.532 Z-2.959
X-154.412 Y-46.317 Z-2.588
X-154.194 Y-46.119 Z-2.244
X-154.064 Y-46.007 Z-2.05
X-153.915 Y-45.883 Z-1.836
X-153.806 Y-45.797 Z-1.687
X-153.682 Y-45.703 Z-1.524
X-153.524 Y-45.591 Z-1.33
X-153.383 Y-45.498 Z-1.169
X-153.268 Y-45.426 Z-1.044
X-153.103 Y-45.329 Z-0.876
X-152.923 Y-45.228 Z-0.701
X-152.876 Y-45.202 Z-0.656
X-152.803 Y-45.164 Z-0.59
X-152.731 Y-45.13 Z-0.532
X-152.608 Y-45.083 Z-0.45
X-152.427 Y-45.016 Z-0.334
X-152.241 Y-44.953 Z-0.224
X-152.106 Y-44.911 Z-0.151
X-151.97 Y-44.873 Z-0.087
X-151.842 Y-44.843 Z-0.035
X-151.745 Y-44.823 Z0
X-151.842 Y-44.843 Z-0.035
X-151.97 Y-44.873 Z-0.087
X-152.106 Y-44.911 Z-0.151
X-152.241 Y-44.953 Z-0.224
X-152.427 Y-45.016 Z-0.334
X-152.608 Y-45.083 Z-0.45
X-152.731 Y-45.13 Z-0.532
X-152.803 Y-45.164 Z-0.59
X-152.876 Y-45.202 Z-0.656
X-152.923 Y-45.228 Z-0.701
X-153.103 Y-45.329 Z-0.876
X-153.268 Y-45.426 Z-1.044
X-153.383 Y-45.498 Z-1.169
X-153.524 Y-45.591 Z-1.33
X-153.682 Y-45.703 Z-1.524
X-153.806 Y-45.797 Z-1.687
X-153.915 Y-45.883 Z-1.836
X-154.064 Y-46.007 Z-2.05
X-154.194 Y-46.119 Z-2.244
X-154.412 Y-46.317 Z-2.588
X-154.638 Y-46.532 Z-2.959
X-155.637 Y-47.528 Z-4.684
X-155.596 Y-47.722 Z-4.612
X-155.561 Y-47.916 Z-4.551
X-155.532 Y-48.11 Z-4.501
X-155.509 Y-48.304 Z-4.463
X-155.493 Y-48.498 Z-4.435
X-155.484 Y-48.693 Z-4.418
X-155.48 Y-48.887 Z-4.413
Y-54.885
X-155.484 Y-55.099 Z-4.419
X-155.496 Y-55.314 Z-4.44
X-155.516 Y-55.528 Z-4.473
X-155.543 Y-55.742 Z-4.521
X-155.578 Y-55.956 Z-4.581
X-155.621 Y-56.171 Z-4.656
X-155.671 Y-56.385 Z-4.743
X-155.73 Y-56.599 Z-4.845
X-155.796 Y-56.813 Z-4.959
X-155.87 Y-57.028 Z-5.088
X-156.049 Z-4.854
X-156.224 Z-4.632
X-156.396 Z-4.424
X-156.564 Z-4.228
X-156.729 Z-4.045
X-156.892 Z-3.876
X-157.052 Z-3.72
X-157.21 Z-3.578
X-157.366 Z-3.452
X-157.444 Z-3.394
X-157.521 Z-3.34
X-157.597 Z-3.291
X-157.673 Z-3.245
X-157.749 Z-3.203
X-157.825 Z-3.166
X-157.901 Z-3.133
X-157.976 Z-3.104
X-158.051 Z-3.079
X-158.126 Z-3.059
X-158.201 Z-3.043
X-158.276 Z-3.032
X-158.35 Z-3.026
X-167.698 Z-3.023
X-167.795 Z-3.027
X-168.012 Y-57.255 Z-2.651
X-168.159 Y-57.414 Z-2.396
X-168.316 Y-57.591 Z-2.124
X-168.43 Y-57.726 Z-1.925
X-168.55 Y-57.874 Z-1.719
X-168.658 Y-58.016 Z-1.532
X-168.732 Y-58.12 Z-1.402
X-168.823 Y-58.253 Z-1.246
X-168.908 Y-58.386 Z-1.098
X-168.97 Y-58.487 Z-0.991
X-169.071 Y-58.662 Z-0.816
X-169.159 Y-58.818 Z-0.664
X-169.195 Y-58.888 Z-0.601
X-169.228 Y-58.959 Z-0.545
X-169.276 Y-59.082 Z-0.461
X-169.344 Y-59.266 Z-0.343
X-169.41 Y-59.459 Z-0.228
X-169.45 Y-59.587 Z-0.159
X-169.488 Y-59.722 Z-0.093
X-169.519 Y-59.847 Z-0.04
X-169.542 Y-59.952 Z0
X-169.519 Y-59.847 Z-0.04
X-169.488 Y-59.722 Z-0.093
X-169.45 Y-59.587 Z-0.159
X-169.41 Y-59.459 Z-0.228
X-169.344 Y-59.266 Z-0.343
X-169.276 Y-59.082 Z-0.461
X-169.228 Y-58.959 Z-0.545
X-169.195 Y-58.888 Z-0.601
X-169.159 Y-58.818 Z-0.664
X-169.071 Y-58.662 Z-0.816
X-168.97 Y-58.487 Z-0.991
X-168.908 Y-58.386 Z-1.098
X-168.823 Y-58.253 Z-1.246
X-168.732 Y-58.12 Z-1.402
X-168.658 Y-58.016 Z-1.532
X-168.55 Y-57.874 Z-1.719
X-168.43 Y-57.726 Z-1.925
X-168.316 Y-57.591 Z-2.124
X-168.159 Y-57.414 Z-2.396
X-168.012 Y-57.255 Z-2.651
X-167.795 Y-57.028 Z-3.027
X-168.013 Y-56.799 Z-2.648
X-168.161 Y-56.64 Z-2.392
X-168.278 Y-56.509 Z-2.19
X-168.398 Y-56.37 Z-1.982
X-168.517 Y-56.224 Z-1.775
X-168.631 Y-56.078 Z-1.578
X-168.713 Y-55.966 Z-1.435
X-168.803 Y-55.837 Z-1.28
X-168.89 Y-55.704 Z-1.129
X-168.981 Y-55.557 Z-0.973
X-169.084 Y-55.378 Z-0.793
X-169.173 Y-55.218 Z-0.639
X-169.21 Y-55.147 Z-0.575
X-169.243 Y-55.076 Z-0.518
X-169.289 Y-54.956 Z-0.438
X-169.35 Y-54.79 Z-0.333
X-169.398 Y-54.652 Z-0.25
X-169.439 Y-54.525 Z-0.179
X-169.475 Y-54.401 Z-0.116
X-169.497 Y-54.32 Z-0.078
X-169.527 Y-54.196 Z-0.027
X-169.542 Y-54.123 Z0
X-169.527 Y-54.196 Z-0.027
X-169.497 Y-54.32 Z-0.078
X-169.475 Y-54.401 Z-0.116
X-169.439 Y-54.525 Z-0.179
X-169.398 Y-54.652 Z-0.25
X-169.35 Y-54.79 Z-0.333
X-169.289 Y-54.956 Z-0.438
X-169.243 Y-55.076 Z-0.518
X-169.21 Y-55.147 Z-0.575
X-169.173 Y-55.218 Z-0.639
X-169.084 Y-55.378 Z-0.793
X-168.981 Y-55.557 Z-0.973
X-168.89 Y-55.704 Z-1.129
X-168.803 Y-55.837 Z-1.28
X-168.713 Y-55.966 Z-1.435
X-168.631 Y-56.078 Z-1.578
X-168.517 Y-56.224 Z-1.775
X-168.398 Y-56.37 Z-1.982
X-168.278 Y-56.509 Z-2.19
X-168.161 Y-56.64 Z-2.392
X-168.013 Y-56.799 Z-2.648
X-167.795 Y-57.028 Z-3.027
X-167.698 Z-3.023
X-158.35 Z-3.026
X-158.276 Z-3.032
X-158.201 Z-3.043
X-158.126 Z-3.059
X-158.051 Z-3.079
X-157.976 Z-3.104
X-157.901 Z-3.133
X-157.825 Z-3.166
X-157.749 Z-3.203
X-157.673 Z-3.245
X-157.597 Z-3.291
X-157.521 Z-3.34
X-157.444 Z-3.394
X-157.366 Z-3.452
X-157.21 Z-3.578
X-157.052 Z-3.72
X-156.892 Z-3.876
X-156.729 Z-4.045
X-156.564 Z-4.228
X-156.396 Z-4.424
X-156.224 Z-4.632
X-156.049 Z-4.854
X-155.87 Z-5.088
X-155.796 Y-57.242 Z-4.959
X-155.73 Y-57.456 Z-4.845
X-155.671 Y-57.67 Z-4.743
X-155.621 Y-57.884 Z-4.656
X-155.578 Y-58.099 Z-4.581
X-155.543 Y-58.313 Z-4.521
X-155.516 Y-58.527 Z-4.473
X-155.496 Y-58.741 Z-4.44
X-155.484 Y-58.956 Z-4.419
X-155.48 Y-59.17 Z-4.413
Y-64.575
X-155.484 Y-64.769 Z-4.418
X-155.493 Y-64.964 Z-4.435
X-155.509 Y-65.158 Z-4.463
X-155.532 Y-65.352 Z-4.501
X-155.561 Y-65.546 Z-4.551
X-155.596 Y-65.74 Z-4.612
X-155.637 Y-65.934 Z-4.684
X-154.637 Y-66.931 Z-2.957
X-154.368 Y-67.187 Z-2.514
X-154.189 Y-67.348 Z-2.235
X-154.033 Y-67.483 Z-2.002
X-153.92 Y-67.576 Z-1.84
X-153.796 Y-67.674 Z-1.671
X-153.69 Y-67.754 Z-1.532
X-153.586 Y-67.828 Z-1.403
X-153.458 Y-67.915 Z-1.253
X-153.32 Y-68.004 Z-1.1
X-153.181 Y-68.087 Z-0.955
X-153.049 Y-68.163 Z-0.825
X-152.892 Y-68.25 Z-0.674
X-152.817 Y-68.288 Z-0.607
X-152.742 Y-68.323 Z-0.548
X-152.617 Y-68.37 Z-0.465
X-152.442 Y-68.433 Z-0.356
X-152.316 Y-68.477 Z-0.281
X-152.182 Y-68.52 Z-0.206
X-152.051 Y-68.558 Z-0.14
X-151.921 Y-68.592 Z-0.081
X-151.795 Y-68.62 Z-0.032
X-151.706 Y-68.639 Z0
X-151.795 Y-68.62 Z-0.032
X-151.921 Y-68.592 Z-0.081
X-152.051 Y-68.558 Z-0.14
X-152.182 Y-68.52 Z-0.206
X-152.316 Y-68.477 Z-0.281
X-152.442 Y-68.433 Z-0.356
X-152.617 Y-68.37 Z-0.465
X-152.742 Y-68.323 Z-0.548
X-152.817 Y-68.288 Z-0.607
X-152.892 Y-68.25 Z-0.674
X-153.049 Y-68.163 Z-0.825
X-153.181 Y-68.087 Z-0.955
X-153.32 Y-68.004 Z-1.1
X-153.458 Y-67.915 Z-1.253
X-153.586 Y-67.828 Z-1.403
X-153.69 Y-67.754 Z-1.532
X-153.796 Y-67.674 Z-1.671
X-153.92 Y-67.576 Z-1.84
X-154.033 Y-67.483 Z-2.002
X-154.189 Y-67.348 Z-2.235
X-154.368 Y-67.187 Z-2.514
X-154.637 Y-66.931 Z-2.957
X-155.637 Y-65.934 Z-4.684
X-155.823 Y-66.047 Z-4.49
X-156.009 Y-66.151 Z-4.309
X-156.195 Y-66.248 Z-4.141
X-156.381 Y-66.337 Z-3.987
X-156.567 Y-66.418 Z-3.846
X-156.752 Y-66.492 Z-3.719
X-156.938 Y-66.558 Z-3.605
X-157.124 Y-66.616 Z-3.504
X-157.31 Y-66.666 Z-3.417
X-157.496 Y-66.709 Z-3.343
X-157.682 Y-66.743 Z-3.283
X-157.867 Y-66.771 Z-3.236
X-158.053 Y-66.79 Z-3.202
X-158.239 Y-66.802 Z-3.182
X-158.425 Y-66.805 Z-3.175
X-173.378
X-173.608 Y-66.568 Z-2.777
X-173.791 Y-66.373 Z-2.46
X-173.943 Y-66.205 Z-2.197
X-174.057 Y-66.073 Z-1.999
X-174.171 Y-65.936 Z-1.802
X-174.253 Y-65.832 Z-1.66
X-174.366 Y-65.682 Z-1.464
X-174.436 Y-65.583 Z-1.343
X-174.523 Y-65.454 Z-1.192
X-174.594 Y-65.343 Z-1.069
X-174.673 Y-65.214 Z-0.932
X-174.747 Y-65.088 Z-0.805
X-174.831 Y-64.938 Z-0.658
X-174.872 Y-64.863 Z-0.588
X-174.907 Y-64.788 Z-0.527
X-174.958 Y-64.659 Z-0.439
X-175.043 Y-64.424 Z-0.291
X-175.086 Y-64.296 Z-0.216
X-175.126 Y-64.168 Z-0.148
X-175.152 Y-64.077 Z-0.102
X-175.185 Y-63.944 Z-0.045
X-175.211 Y-63.828 Z0
X-175.185 Y-63.944 Z-0.045
X-175.152 Y-64.077 Z-0.102
X-175.126 Y-64.168 Z-0.148
X-175.086 Y-64.296 Z-0.216
X-175.043 Y-64.424 Z-0.291
X-174.958 Y-64.659 Z-0.439
X-174.907 Y-64.788 Z-0.527
X-174.872 Y-64.863 Z-0.588
X-174.831 Y-64.938 Z-0.658
X-174.747 Y-65.088 Z-0.805
X-174.673 Y-65.214 Z-0.932
X-174.594 Y-65.343 Z-1.069
X-174.523 Y-65.454 Z-1.192
X-174.436 Y-65.583 Z-1.343
X-174.366 Y-65.682 Z-1.464
X-174.253 Y-65.832 Z-1.66
X-174.171 Y-65.936 Z-1.802
X-174.057 Y-66.073 Z-1.999
X-173.943 Y-66.205 Z-2.197
X-173.791 Y-66.373 Z-2.46
X-173.608 Y-66.568 Z-2.777
X-173.378 Y-66.805 Z-3.175
X-173.594 Y-67.028 Z-2.801
X-173.751 Y-67.194 Z-2.529
X-173.901 Y-67.359 Z-2.269
X-174.024 Y-67.499 Z-2.057
X-174.144 Y-67.643 Z-1.849
X-174.257 Y-67.785 Z-1.653
X-174.328 Y-67.879 Z-1.529
X-174.435 Y-68.027 Z-1.345
X-174.503 Y-68.129 Z-1.226
X-174.605 Y-68.288 Z-1.049
X-174.711 Y-68.464 Z-0.867
X-174.812 Y-68.643 Z-0.691
X-174.839 Y-68.69 Z-0.645
X-174.876 Y-68.761 Z-0.581
X-174.909 Y-68.831 Z-0.524
X-174.957 Y-68.955 Z-0.44
X-175.024 Y-69.138 Z-0.325
X-175.068 Y-69.266 Z-0.248
X-175.109 Y-69.393 Z-0.177
X-175.145 Y-69.517 Z-0.114
X-175.167 Y-69.599 Z-0.076
X-175.197 Y-69.722 Z-0.025
X-175.211 Y-69.789 Z0
G0 Z5
X-169.485 Y-102.634
G1 Z0 F849.6
X-169.465 Y-102.732 Z-0.035
X-169.436 Y-102.856 Z-0.086
X-169.411 Y-102.948 Z-0.128
X-169.374 Y-103.073 Z-0.192
X-169.334 Y-103.198 Z-0.263
X-169.27 Y-103.378 Z-0.373
X-169.224 Y-103.501 Z-0.452
X-169.179 Y-103.618 Z-0.53
X-169.145 Y-103.692 Z-0.589
X-169.106 Y-103.766 Z-0.656
X-169.028 Y-103.907 Z-0.792
X-168.956 Y-104.034 Z-0.917
X-168.843 Y-104.22 Z-1.111
X-168.782 Y-104.318 Z-1.219
X-168.714 Y-104.418 Z-1.335
X-168.604 Y-104.574 Z-1.526
X-168.543 Y-104.655 Z-1.632
X-168.431 Y-104.798 Z-1.826
X-168.301 Y-104.955 Z-2.051
X-168.19 Y-105.083 Z-2.243
X-168.034 Y-105.256 Z-2.514
X-167.869 Y-105.432 Z-2.8
X-167.651 Y-105.657 Z-3.176
X-167.822 Y-105.831 Z-2.881
X-168.034 Y-106.056 Z-2.513
X-168.194 Y-106.233 Z-2.236
X-168.329 Y-106.389 Z-2.003
X-168.419 Y-106.498 Z-1.846
X-168.526 Y-106.633 Z-1.661
X-168.598 Y-106.728 Z-1.537
X-168.698 Y-106.869 Z-1.363
X-168.791 Y-107.006 Z-1.203
X-168.882 Y-107.15 Z-1.045
X-168.949 Y-107.262 Z-0.929
X-169.073 Y-107.479 Z-0.714
X-169.099 Y-107.526 Z-0.669
X-169.136 Y-107.597 Z-0.604
X-169.17 Y-107.669 Z-0.547
X-169.218 Y-107.793 Z-0.462
X-169.302 Y-108.022 Z-0.318
X-169.331 Y-108.107 Z-0.268
X-169.373 Y-108.238 Z-0.194
X-169.414 Y-108.379 Z-0.123
X-169.448 Y-108.513 Z-0.064
X-169.475 Y-108.637 Z-0.017
X-169.485 Y-108.688 Z0
X-169.475 Y-108.637 Z-0.017
X-169.448 Y-108.513 Z-0.064
X-169.414 Y-108.379 Z-0.123
X-169.373 Y-108.238 Z-0.194
X-169.331 Y-108.107 Z-0.268
X-169.302 Y-108.022 Z-0.318
X-169.218 Y-107.793 Z-0.462
X-169.17 Y-107.669 Z-0.547
X-169.136 Y-107.597 Z-0.604
X-169.099 Y-107.526 Z-0.669
X-169.073 Y-107.479 Z-0.714
X-168.949 Y-107.262 Z-0.929
X-168.882 Y-107.15 Z-1.045
X-168.791 Y-107.006 Z-1.203
X-168.698 Y-106.869 Z-1.363
X-168.598 Y-106.728 Z-1.537
X-168.526 Y-106.633 Z-1.661
X-168.419 Y-106.498 Z-1.846
X-168.329 Y-106.389 Z-2.003
X-168.194 Y-106.233 Z-2.236
X-168.034 Y-106.056 Z-2.513
X-167.822 Y-105.831 Z-2.881
X-167.651 Y-105.657 Z-3.176
X-167.64
X-152.018
X-151.832 Y-105.66 Z-3.183
X-151.646 Y-105.672 Z-3.203
X-151.46 Y-105.691 Z-3.236
X-151.275 Y-105.718 Z-3.283
X-151.089 Y-105.753 Z-3.344
X-150.903 Y-105.796 Z-3.417
X-150.717 Y-105.846 Z-3.504
X-150.531 Y-105.904 Z-3.605
X-150.345 Y-105.97 Z-3.719
X-150.16 Y-106.044 Z-3.846
X-149.974 Y-106.125 Z-3.987
X-149.788 Y-106.214 Z-4.141
X-149.602 Y-106.311 Z-4.309
X-149.416 Y-106.415 Z-4.49
X-149.23 Y-106.527 Z-4.684
X-148.277 Y-105.576 Z-3.036
X-148 Y-105.312 Z-2.58
X-147.826 Y-105.154 Z-2.306
X-147.658 Y-105.007 Z-2.051
X-147.508 Y-104.883 Z-1.836
X-147.396 Y-104.794 Z-1.682
X-147.277 Y-104.704 Z-1.526
X-147.121 Y-104.594 Z-1.335
X-147.021 Y-104.526 Z-1.219
X-146.877 Y-104.436 Z-1.061
X-146.747 Y-104.358 Z-0.927
X-146.563 Y-104.254 Z-0.747
X-146.469 Y-104.202 Z-0.656
X-146.398 Y-104.165 Z-0.592
X-146.328 Y-104.132 Z-0.535
X-146.204 Y-104.083 Z-0.451
X-146.022 Y-104.017 Z-0.336
X-145.849 Y-103.957 Z-0.233
X-145.762 Y-103.929 Z-0.184
X-145.634 Y-103.892 Z-0.12
X-145.516 Y-103.862 Z-0.067
X-145.435 Y-103.843 Z-0.035
X-145.337 Y-103.823 Z0
X-145.435 Y-103.843 Z-0.035
X-145.516 Y-103.862 Z-0.067
X-145.634 Y-103.892 Z-0.12
X-145.762 Y-103.929 Z-0.184
X-145.849 Y-103.957 Z-0.233
X-146.022 Y-104.017 Z-0.336
X-146.204 Y-104.083 Z-0.451
X-146.328 Y-104.132 Z-0.535
X-146.398 Y-104.165 Z-0.592
X-146.469 Y-104.202 Z-0.656
X-146.563 Y-104.254 Z-0.747
X-146.747 Y-104.358 Z-0.927
X-146.877 Y-104.436 Z-1.061
X-147.021 Y-104.526 Z-1.219
X-147.121 Y-104.594 Z-1.335
X-147.277 Y-104.704 Z-1.526
X-147.396 Y-104.794 Z-1.682
X-147.508 Y-104.883 Z-1.836
X-147.658 Y-105.007 Z-2.051
X-147.826 Y-105.154 Z-2.306
X-148 Y-105.312 Z-2.58
X-148.277 Y-105.576 Z-3.036
X-149.23 Y-106.527 Z-4.684
X-149.189 Y-106.722 Z-4.612
X-149.154 Y-106.916 Z-4.551
X-149.125 Y-107.11 Z-4.501
X-149.102 Y-107.304 Z-4.463
X-149.086 Y-107.499 Z-4.435
X-149.077 Y-107.693 Z-4.418
X-149.074 Y-107.887 Z-4.413
Y-113.885
X-149.077 Y-114.099 Z-4.419
X-149.089 Y-114.313 Z-4.44
X-149.109 Y-114.528 Z-4.473
X-149.136 Y-114.742 Z-4.521
X-149.171 Y-114.956 Z-4.581
X-149.214 Y-115.171 Z-4.656
X-149.264 Y-115.385 Z-4.743
X-149.323 Y-115.599 Z-4.845
X-149.389 Y-115.813 Z-4.959
X-149.463 Y-116.027 Z-5.088
X-149.642 Z-4.854
X-149.817 Z-4.633
X-149.989 Z-4.424
X-150.157 Z-4.228
X-150.322 Z-4.045
X-150.485 Z-3.876
X-150.645 Z-3.72
X-150.803 Z-3.579
X-150.959 Z-3.452
X-151.037 Z-3.394
X-151.114 Z-3.341
X-151.19 Z-3.291
X-151.266 Z-3.245
X-151.342 Z-3.204
X-151.418 Z-3.166
X-151.494 Z-3.133
X-151.569 Z-3.104
X-151.644 Z-3.08
X-151.719 Z-3.059
X-151.794 Z-3.044
X-151.869 Z-3.033
X-151.943 Z-3.026
X-152.018 Z-3.024
X-161.335
X-161.388 Y-116.028 Z-3.027
X-161.681 Y-116.337 Z-2.519
X-161.841 Y-116.512 Z-2.242
X-161.98 Y-116.674 Z-2.001
X-162.076 Y-116.79 Z-1.835
X-162.171 Y-116.911 Z-1.67
X-162.249 Y-117.013 Z-1.535
X-162.358 Y-117.168 Z-1.345
X-162.447 Y-117.301 Z-1.192
X-162.516 Y-117.41 Z-1.072
X-162.593 Y-117.538 Z-0.939
X-162.668 Y-117.668 Z-0.809
X-162.749 Y-117.814 Z-0.669
X-162.786 Y-117.885 Z-0.604
X-162.82 Y-117.957 Z-0.547
X-162.868 Y-118.081 Z-0.462
X-162.933 Y-118.257 Z-0.35
X-162.982 Y-118.394 Z-0.266
X-163.037 Y-118.566 Z-0.17
X-163.064 Y-118.659 Z-0.123
X-163.097 Y-118.786 Z-0.066
X-163.128 Y-118.916 Z-0.013
X-163.135 Y-118.953 Z0
X-163.128 Y-118.916 Z-0.013
X-163.097 Y-118.786 Z-0.066
X-163.064 Y-118.659 Z-0.123
X-163.037 Y-118.566 Z-0.17
X-162.982 Y-118.394 Z-0.266
X-162.933 Y-118.257 Z-0.35
X-162.868 Y-118.081 Z-0.462
X-162.82 Y-117.957 Z-0.547
X-162.786 Y-117.885 Z-0.604
X-162.749 Y-117.814 Z-0.669
X-162.668 Y-117.668 Z-0.809
X-162.593 Y-117.538 Z-0.939
X-162.516 Y-117.41 Z-1.072
X-162.447 Y-117.301 Z-1.192
X-162.358 Y-117.168 Z-1.345
X-162.249 Y-117.013 Z-1.535
X-162.171 Y-116.911 Z-1.67
X-162.076 Y-116.79 Z-1.835
X-161.98 Y-116.674 Z-2.001
X-161.841 Y-116.512 Z-2.242
X-161.681 Y-116.337 Z-2.519
X-161.388 Y-116.028 Z-3.027
X-161.602 Y-115.804 Z-2.655
X-161.764 Y-115.629 Z-2.375
X-161.914 Y-115.459 Z-2.114
X-162.022 Y-115.333 Z-1.928
X-162.139 Y-115.188 Z-1.726
X-162.244 Y-115.052 Z-1.544
X-162.329 Y-114.934 Z-1.396
X-162.43 Y-114.786 Z-1.222
X-162.521 Y-114.643 Z-1.064
X-162.578 Y-114.55 Z-0.965
X-162.678 Y-114.376 Z-0.791
X-162.759 Y-114.232 Z-0.652
X-162.799 Y-114.156 Z-0.582
X-162.834 Y-114.08 Z-0.521
X-162.884 Y-113.952 Z-0.435
X-162.95 Y-113.769 Z-0.32
X-163.011 Y-113.59 Z-0.215
X-163.054 Y-113.452 Z-0.141
X-163.089 Y-113.321 Z-0.079
X-163.12 Y-113.196 Z-0.027
X-163.135 Y-113.123 Z0
X-163.12 Y-113.196 Z-0.027
X-163.089 Y-113.321 Z-0.079
X-163.054 Y-113.452 Z-0.141
X-163.011 Y-113.59 Z-0.215
X-162.95 Y-113.769 Z-0.32
X-162.884 Y-113.952 Z-0.435
X-162.834 Y-114.08 Z-0.521
X-162.799 Y-114.156 Z-0.582
X-162.759 Y-114.232 Z-0.652
X-162.678 Y-114.376 Z-0.791
X-162.578 Y-114.55 Z-0.965
X-162.521 Y-114.643 Z-1.064
X-162.43 Y-114.786 Z-1.222
X-162.329 Y-114.934 Z-1.396
X-162.244 Y-115.052 Z-1.544
X-162.139 Y-115.188 Z-1.726
X-162.022 Y-115.333 Z-1.928
X-161.914 Y-115.459 Z-2.114
X-161.764 Y-115.629 Z-2.375
X-161.602 Y-115.804 Z-2.655
X-161.388 Y-116.028 Z-3.027
X-161.335 Y-116.027 Z-3.024
X-152.018
X-151.943 Z-3.026
X-151.869 Z-3.033
X-151.794 Z-3.044
X-151.719 Z-3.059
X-151.644 Z-3.08
X-151.569 Z-3.104
X-151.494 Z-3.133
X-151.418 Z-3.166
X-151.342 Z-3.204
X-151.266 Z-3.245
X-151.19 Z-3.291
X-151.114 Z-3.341
X-151.037 Z-3.394
X-150.959 Z-3.452
X-150.803 Z-3.579
X-150.645 Z-3.72
X-150.485 Z-3.876
X-150.322 Z-4.045
X-150.157 Z-4.228
X-149.989 Z-4.424
X-149.817 Z-4.633
X-149.642 Z-4.854
X-149.463 Z-5.088
X-149.389 Y-116.242 Z-4.959
X-149.323 Y-116.456 Z-4.845
X-149.264 Y-116.67 Z-4.743
X-149.214 Y-116.884 Z-4.656
X-149.171 Y-117.099 Z-4.581
X-149.136 Y-117.313 Z-4.521
X-149.109 Y-117.527 Z-4.473
X-149.089 Y-117.742 Z-4.44
X-149.077 Y-117.956 Z-4.419
X-149.074 Y-118.17 Z-4.413
Y-123.575
X-149.077 Y-123.769 Z-4.418
X-149.086 Y-123.963 Z-4.435
X-149.102 Y-124.158 Z-4.463
X-149.125 Y-124.352 Z-4.501
X-149.154 Y-124.546 Z-4.551
X-149.189 Y-124.74 Z-4.612
X-149.23 Y-124.935 Z-4.684
X-148.232 Y-125.931 Z-2.959
X-148.004 Y-126.147 Z-2.584
X-147.827 Y-126.309 Z-2.304
X-147.709 Y-126.413 Z-2.125
X-147.584 Y-126.519 Z-1.941
X-147.43 Y-126.642 Z-1.726
X-147.328 Y-126.721 Z-1.591
X-147.185 Y-126.825 Z-1.41
X-147.048 Y-126.918 Z-1.25
X-146.914 Y-127.003 Z-1.102
X-146.802 Y-127.071 Z-0.984
X-146.584 Y-127.195 Z-0.77
X-146.418 Y-127.285 Z-0.614
X-146.338 Y-127.321 Z-0.55
X-146.209 Y-127.371 Z-0.465
X-146.028 Y-127.436 Z-0.352
X-145.841 Y-127.499 Z-0.243
X-145.716 Y-127.538 Z-0.176
X-145.591 Y-127.572 Z-0.116
X-145.508 Y-127.593 Z-0.079
X-145.385 Y-127.621 Z-0.031
X-145.297 Y-127.639 Z0
X-145.385 Y-127.621 Z-0.031
X-145.508 Y-127.593 Z-0.079
X-145.591 Y-127.572 Z-0.116
X-145.716 Y-127.538 Z-0.176
X-145.841 Y-127.499 Z-0.243
X-146.028 Y-127.436 Z-0.352
X-146.209 Y-127.371 Z-0.465
X-146.338 Y-127.321 Z-0.55
X-146.418 Y-127.285 Z-0.614
X-146.584 Y-127.195 Z-0.77
X-146.802 Y-127.071 Z-0.984
X-146.914 Y-127.003 Z-1.102
X-147.048 Y-126.918 Z-1.25
X-147.185 Y-126.825 Z-1.41
X-147.328 Y-126.721 Z-1.591
X-147.43 Y-126.642 Z-1.726
X-147.584 Y-126.519 Z-1.941
X-147.709 Y-126.413 Z-2.125
X-147.827 Y-126.309 Z-2.304
X-148.004 Y-126.147 Z-2.584
X-148.232 Y-125.931 Z-2.959
X-149.23 Y-124.935 Z-4.684
X-149.416 Y-125.047 Z-4.49
X-149.602 Y-125.151 Z-4.309
X-149.788 Y-125.248 Z-4.141
X-149.974 Y-125.337 Z-3.987
X-150.16 Y-125.418 Z-3.846
X-150.345 Y-125.492 Z-3.719
X-150.531 Y-125.558 Z-3.605
X-150.717 Y-125.616 Z-3.504
X-150.903 Y-125.666 Z-3.417
X-151.089 Y-125.709 Z-3.344
X-151.275 Y-125.744 Z-3.283
X-151.46 Y-125.771 Z-3.236
X-151.646 Y-125.79 Z-3.203
X-151.832 Y-125.802 Z-3.183
X-152.018 Y-125.805 Z-3.176
X-166.959
X-166.969
X-167.141 Y-125.629 Z-2.879
X-167.351 Y-125.408 Z-2.516
X-167.506 Y-125.238 Z-2.247
X-167.65 Y-125.072 Z-1.998
X-167.746 Y-124.957 Z-1.832
X-167.842 Y-124.835 Z-1.664
X-167.952 Y-124.69 Z-1.475
X-168.03 Y-124.581 Z-1.34
X-168.127 Y-124.435 Z-1.17
X-168.189 Y-124.339 Z-1.064
X-168.273 Y-124.2 Z-0.918
X-168.392 Y-123.994 Z-0.712
X-168.427 Y-123.932 Z-0.651
X-168.466 Y-123.859 Z-0.584
X-168.5 Y-123.786 Z-0.525
X-168.55 Y-123.66 Z-0.439
X-168.617 Y-123.477 Z-0.323
X-168.661 Y-123.348 Z-0.246
X-168.704 Y-123.217 Z-0.173
X-168.742 Y-123.085 Z-0.106
X-168.773 Y-122.962 Z-0.052
X-168.79 Y-122.889 Z-0.022
X-168.803 Y-122.828 Z0
X-168.79 Y-122.889 Z-0.022
X-168.773 Y-122.962 Z-0.052
X-168.742 Y-123.085 Z-0.106
X-168.704 Y-123.217 Z-0.173
X-168.661 Y-123.348 Z-0.246
X-168.617 Y-123.477 Z-0.323
X-168.55 Y-123.66 Z-0.439
X-168.5 Y-123.786 Z-0.525
X-168.466 Y-123.859 Z-0.584
X-168.427 Y-123.932 Z-0.651
X-168.392 Y-123.994 Z-0.712
X-168.273 Y-124.2 Z-0.918
X-168.189 Y-124.339 Z-1.064
X-168.127 Y-124.435 Z-1.17
X-168.03 Y-124.581 Z-1.34
X-167.952 Y-124.69 Z-1.475
X-167.842 Y-124.835 Z-1.664
X-167.746 Y-124.957 Z-1.832
X-167.65 Y-125.072 Z-1.998
X-167.506 Y-125.238 Z-2.247
X-167.351 Y-125.408 Z-2.516
X-167.141 Y-125.629 Z-2.879
X-166.969 Y-125.805 Z-3.176
X-167.141 Y-125.982 Z-2.879
X-167.354 Y-126.207 Z-2.509
X-167.506 Y-126.374 Z-2.246
X-167.65 Y-126.54 Z-1.996
X-167.759 Y-126.671 Z-1.809
X-167.892 Y-126.841 Z-1.579
X-167.997 Y-126.985 Z-1.396
X-168.052 Y-127.064 Z-1.301
X-168.148 Y-127.209 Z-1.136
X-168.229 Y-127.34 Z-0.994
X-168.311 Y-127.478 Z-0.852
X-168.427 Y-127.683 Z-0.651
X-168.467 Y-127.759 Z-0.581
X-168.503 Y-127.835 Z-0.52
X-168.551 Y-127.959 Z-0.437
X-168.595 Y-128.079 Z-0.361
X-168.661 Y-128.267 Z-0.246
X-168.701 Y-128.392 Z-0.176
X-168.738 Y-128.516 Z-0.113
X-168.76 Y-128.599 Z-0.075
X-168.791 Y-128.729 Z-0.022
X-168.803 Y-128.788 Z0
G0 Z5
X-146.25 Y-44.823
G1 Z0 F849.6
X-146.156 Y-44.842 Z-0.033
X-146.03 Y-44.872 Z-0.084
X-145.896 Y-44.907 Z-0.145
X-145.763 Y-44.946 Z-0.213
X-145.629 Y-44.99 Z-0.29
X-145.502 Y-45.035 Z-0.367
X-145.322 Y-45.101 Z-0.481
X-145.196 Y-45.15 Z-0.567
X-145.124 Y-45.184 Z-0.625
X-145.052 Y-45.221 Z-0.69
X-144.877 Y-45.319 Z-0.859
X-144.714 Y-45.414 Z-1.024
X-144.576 Y-45.5 Z-1.172
X-144.43 Y-45.595 Z-1.337
X-144.309 Y-45.679 Z-1.483
X-144.205 Y-45.756 Z-1.616
X-144.032 Y-45.89 Z-1.849
X-143.905 Y-45.995 Z-2.03
X-143.739 Y-46.139 Z-2.279
X-143.568 Y-46.293 Z-2.546
X-143.25 Y-46.595 Z-3.07
X-141.932 Y-47.911 Z-5.349
X-141.798 Y-47.69 Z-4.965
X-141.69 Y-47.518 Z-4.667
X-141.51 Y-47.243 Z-4.191
X-141.375 Y-47.045 Z-3.849
X-141.251 Y-46.871 Z-3.547
X-141.169 Y-46.76 Z-3.355
X-141.022 Y-46.57 Z-3.025
X-140.884 Y-46.398 Z-2.727
X-140.725 Y-46.208 Z-2.399
X-140.607 Y-46.071 Z-2.162
X-140.506 Y-45.959 Z-1.967
X-140.404 Y-45.854 Z-1.785
X-140.303 Y-45.755 Z-1.615
X-140.202 Y-45.665 Z-1.458
X-140.101 Y-45.581 Z-1.313
X-139.938 Y-45.461 Z-1.104
X-139.78 Y-45.348 Z-0.909
X-139.618 Y-45.239 Z-0.72
X-139.512 Y-45.171 Z-0.603
X-139.418 Y-45.116 Z-0.507
X-139.315 Y-45.058 Z-0.408
X-139.213 Y-45.007 Z-0.319
X-139.112 Y-44.961 Z-0.24
X-139.01 Y-44.921 Z-0.169
X-138.924 Y-44.891 Z-0.118
X-138.834 Y-44.863 Z-0.07
X-138.758 Y-44.843 Z-0.035
X-138.679 Y-44.824 Z-0.002
X-138.673 Y-44.823 Z0
X-138.679 Y-44.824 Z-0.002
X-138.758 Y-44.843 Z-0.035
X-138.834 Y-44.863 Z-0.07
X-138.924 Y-44.891 Z-0.118
X-139.01 Y-44.921 Z-0.169
X-139.112 Y-44.961 Z-0.24
X-139.213 Y-45.007 Z-0.319
X-139.315 Y-45.058 Z-0.408
X-139.418 Y-45.116 Z-0.507
X-139.512 Y-45.171 Z-0.603
X-139.618 Y-45.239 Z-0.72
X-139.78 Y-45.348 Z-0.909
X-139.938 Y-45.461 Z-1.104
X-140.101 Y-45.581 Z-1.313
X-140.202 Y-45.665 Z-1.458
X-140.303 Y-45.755 Z-1.615
X-140.404 Y-45.854 Z-1.785
X-140.506 Y-45.959 Z-1.967
X-140.607 Y-46.071 Z-2.162
X-140.725 Y-46.208 Z-2.399
X-140.884 Y-46.398 Z-2.727
X-141.022 Y-46.57 Z-3.025
X-141.169 Y-46.76 Z-3.355
X-141.251 Y-46.871 Z-3.547
X-141.375 Y-47.045 Z-3.849
X-141.51 Y-47.243 Z-4.191
X-141.69 Y-47.518 Z-4.667
X-141.798 Y-47.69 Z-4.965
X-141.932 Y-47.911 Z-5.349
X-141.928 Y-47.927 Z-5.356
X-141.849 Y-48.217 Z-5.493
X-141.787 Y-48.424 Z-5.601
X-141.711 Y-48.658 Z-5.731
X-141.648 Y-48.844 Z-5.84
X-141.58 Y-49.03 Z-5.958
X-141.413 Y-49.47 Z-6.248
X-141.549 Y-49.668 Z-6.013
X-141.677 Y-49.867 Z-5.791
X-141.798 Y-50.065 Z-5.581
X-141.912 Y-50.263 Z-5.384
X-142.018 Y-50.461 Z-5.2
X-142.117 Y-50.66 Z-5.029
X-142.209 Y-50.858 Z-4.87
X-142.293 Y-51.056 Z-4.724
X-142.37 Y-51.255 Z-4.59
X-142.44 Y-51.453 Z-4.47
X-142.502 Y-51.651 Z-4.362
X-142.557 Y-51.849 Z-4.267
X-142.605 Y-52.048 Z-4.184
X-142.645 Y-52.246 Z-4.114
X-142.678 Y-52.444 Z-4.057
X-142.704 Y-52.642 Z-4.013
X-142.722 Y-52.841 Z-3.981
X-142.733 Y-53.039 Z-3.962
X-142.736 Y-53.237 Z-3.955
Y-66.355
X-142.179 Y-66.909 Z-2.996
X-142.021 Y-67.061 Z-2.732
X-141.8 Y-67.266 Z-2.378
X-141.634 Y-67.414 Z-2.122
X-141.506 Y-67.522 Z-1.934
X-141.359 Y-67.64 Z-1.729
X-141.227 Y-67.742 Z-1.554
X-141.073 Y-67.851 Z-1.364
X-140.956 Y-67.931 Z-1.226
X-140.815 Y-68.02 Z-1.071
X-140.68 Y-68.101 Z-0.931
X-140.504 Y-68.202 Z-0.756
X-140.409 Y-68.254 Z-0.666
X-140.337 Y-68.292 Z-0.601
X-140.265 Y-68.325 Z-0.543
X-140.139 Y-68.374 Z-0.458
X-139.961 Y-68.439 Z-0.346
X-139.834 Y-68.483 Z-0.269
X-139.704 Y-68.525 Z-0.197
X-139.583 Y-68.561 Z-0.135
X-139.499 Y-68.583 Z-0.096
X-139.368 Y-68.614 Z-0.042
X-139.253 Y-68.638 Z0
X-139.368 Y-68.614 Z-0.042
X-139.499 Y-68.583 Z-0.096
X-139.583 Y-68.561 Z-0.135
X-139.704 Y-68.525 Z-0.197
X-139.834 Y-68.483 Z-0.269
X-139.961 Y-68.439 Z-0.346
X-140.139 Y-68.374 Z-0.458
X-140.265 Y-68.325 Z-0.543
X-140.337 Y-68.292 Z-0.601
X-140.409 Y-68.254 Z-0.666
X-140.504 Y-68.202 Z-0.756
X-140.68 Y-68.101 Z-0.931
X-140.815 Y-68.02 Z-1.071
X-140.956 Y-67.931 Z-1.226
X-141.073 Y-67.851 Z-1.364
X-141.227 Y-67.742 Z-1.554
X-141.359 Y-67.64 Z-1.729
X-141.506 Y-67.522 Z-1.934
X-141.634 Y-67.414 Z-2.122
X-141.8 Y-67.266 Z-2.378
X-142.021 Y-67.061 Z-2.732
X-142.179 Y-66.909 Z-2.996
X-142.736 Y-66.355 Z-3.955
X-143.27 Y-66.887 Z-3.034
X-143.588 Y-67.189 Z-2.512
X-143.758 Y-67.342 Z-2.245
X-143.852 Y-67.425 Z-2.103
X-144.004 Y-67.552 Z-1.882
X-144.049 Y-67.589 Z-1.818
X-144.222 Y-67.723 Z-1.586
X-144.325 Y-67.799 Z-1.455
X-144.445 Y-67.883 Z-1.309
X-144.59 Y-67.978 Z-1.145
X-144.728 Y-68.063 Z-0.997
X-144.89 Y-68.157 Z-0.834
X-145.064 Y-68.255 Z-0.665
X-145.136 Y-68.292 Z-0.6
X-145.208 Y-68.326 Z-0.542
X-145.335 Y-68.375 Z-0.457
X-145.513 Y-68.44 Z-0.344
X-145.639 Y-68.483 Z-0.269
X-145.769 Y-68.525 Z-0.196
X-145.89 Y-68.561 Z-0.135
X-145.974 Y-68.583 Z-0.096
X-146.106 Y-68.615 Z-0.042
X-146.221 Y-68.639 Z0
X-146.106 Y-68.615 Z-0.042
X-145.974 Y-68.583 Z-0.096
X-145.89 Y-68.561 Z-0.135
X-145.769 Y-68.525 Z-0.196
X-145.639 Y-68.483 Z-0.269
X-145.513 Y-68.44 Z-0.344
X-145.335 Y-68.375 Z-0.457
X-145.208 Y-68.326 Z-0.542
X-145.136 Y-68.292 Z-0.6
X-145.064 Y-68.255 Z-0.665
X-144.89 Y-68.157 Z-0.834
X-144.728 Y-68.063 Z-0.997
X-144.59 Y-67.978 Z-1.145
X-144.445 Y-67.883 Z-1.309
X-144.325 Y-67.799 Z-1.455
X-144.222 Y-67.723 Z-1.586
X-144.049 Y-67.589 Z-1.818
X-144.004 Y-67.552 Z-1.882
X-143.852 Y-67.425 Z-2.103
X-143.758 Y-67.342 Z-2.245
X-143.588 Y-67.189 Z-2.512
X-143.27 Y-66.887 Z-3.034
X-142.736 Y-66.355 Z-3.955
Y-53.237
X-142.733 Y-53.039 Z-3.962
X-142.722 Y-52.841 Z-3.981
X-142.704 Y-52.642 Z-4.013
X-142.678 Y-52.444 Z-4.057
X-142.645 Y-52.246 Z-4.114
X-142.605 Y-52.048 Z-4.184
X-142.557 Y-51.849 Z-4.267
X-142.502 Y-51.651 Z-4.362
X-142.44 Y-51.453 Z-4.47
X-142.37 Y-51.255 Z-4.59
X-142.293 Y-51.056 Z-4.724
X-142.209 Y-50.858 Z-4.87
X-142.117 Y-50.66 Z-5.029
X-142.018 Y-50.461 Z-5.2
X-141.912 Y-50.263 Z-5.384
X-141.798 Y-50.065 Z-5.581
X-141.677 Y-49.867 Z-5.791
X-141.549 Y-49.668 Z-6.013
X-141.413 Y-49.47 Z-6.248
X-141.275 Y-49.505 Z-6.112
X-141.075 Y-49.56 Z-5.921
X-140.973 Y-49.59 Z-5.827
X-140.781 Y-49.649 Z-5.654
X-140.67 Y-49.685 Z-5.557
X-140.502 Y-49.742 Z-5.416
X-140.326 Y-49.806 Z-5.274
X-140.168 Y-49.867 Z-5.153
X-140.003 Y-49.935 Z-5.032
X-139.869 Y-49.994 Z-4.939
X-139.752 Y-50.048 Z-4.861
X-139.56 Y-50.142 Z-4.743
X-139.373 Y-50.24 Z-4.637
X-139.192 Y-50.343 Z-4.544
X-139.015 Y-50.452 Z-4.463
X-138.843 Y-50.566 Z-4.395
X-138.676 Y-50.685 Z-4.339
X-138.515 Y-50.808 Z-4.295
X-138.358 Y-50.938 Z-4.264
X-138.206 Y-51.072 Z-4.245
X-138.053 Y-51.218 Z-4.239
X-126.449 Y-62.689 Z-4.288
X-126.299 Y-62.832 Z-4.295
X-126.144 Y-62.969 Z-4.315
X-125.983 Y-63.102 Z-4.348
X-125.817 Y-63.229 Z-4.394
X-125.646 Y-63.351 Z-4.453
X-125.47 Y-63.467 Z-4.525
X-125.289 Y-63.578 Z-4.61
X-125.102 Y-63.684 Z-4.707
X-124.91 Y-63.785 Z-4.818
X-124.712 Y-63.88 Z-4.941
X-124.442 Y-63.998 Z-5.126
X-124.289 Y-64.061 Z-5.239
X-124.193 Y-64.099 Z-5.314
X-124.011 Y-64.168 Z-5.464
X-123.87 Y-64.22 Z-5.586
X-123.804 Y-64.243 Z-5.645
X-123.614 Y-64.31 Z-5.822
X-123.456 Y-64.365 Z-5.978
X-123.227 Y-64.441 Z-6.217
X-123.123 Y-64.476 Z-6.329
X-123.058 Y-64.687 Z-6.217
X-123.041 Y-64.746 Z-6.187
X-122.966 Y-65.018 Z-6.058
X-122.925 Y-65.183 Z-5.986
X-122.969 Y-65.255 Z-5.86
X-123.178 Y-65.588 Z-5.284
X-123.365 Y-65.875 Z-4.788
X-123.588 Y-66.198 Z-4.228
X-123.759 Y-66.435 Z-3.817
X-123.904 Y-66.631 Z-3.478
X-124.106 Y-66.892 Z-3.026
X-124.292 Y-67.127 Z-2.618
X-124.405 Y-67.266 Z-2.378
X-124.519 Y-67.396 Z-2.153
X-124.632 Y-67.517 Z-1.943
X-124.745 Y-67.629 Z-1.749
X-124.858 Y-67.733 Z-1.569
X-124.972 Y-67.828 Z-1.404
X-125.138 Y-67.953 Z-1.188
X-125.293 Y-68.064 Z-0.995
X-125.447 Y-68.17 Z-0.812
X-125.578 Y-68.255 Z-0.665
X-125.673 Y-68.313 Z-0.565
X-125.778 Y-68.372 Z-0.462
X-125.882 Y-68.425 Z-0.37
X-125.984 Y-68.473 Z-0.288
X-126.082 Y-68.513 Z-0.217
X-126.179 Y-68.549 Z-0.155
X-126.263 Y-68.576 Z-0.108
X-126.347 Y-68.6 Z-0.066
X-126.425 Y-68.62 Z-0.032
X-126.499 Y-68.637 Z-0.002
X-126.506 Y-68.639 Z0
X-126.499 Y-68.637 Z-0.002
X-126.425 Y-68.62 Z-0.032
X-126.347 Y-68.6 Z-0.066
X-126.263 Y-68.576 Z-0.108
X-126.179 Y-68.549 Z-0.155
X-126.082 Y-68.513 Z-0.217
X-125.984 Y-68.473 Z-0.288
X-125.882 Y-68.425 Z-0.37
X-125.778 Y-68.372 Z-0.462
X-125.673 Y-68.313 Z-0.565
X-125.578 Y-68.255 Z-0.665
X-125.447 Y-68.17 Z-0.812
X-125.293 Y-68.064 Z-0.995
X-125.138 Y-67.953 Z-1.188
X-124.972 Y-67.828 Z-1.404
X-124.858 Y-67.733 Z-1.569
X-124.745 Y-67.629 Z-1.749
X-124.632 Y-67.517 Z-1.943
X-124.519 Y-67.396 Z-2.153
X-124.405 Y-67.266 Z-2.378
X-124.292 Y-67.127 Z-2.618
X-124.106 Y-66.892 Z-3.026
X-123.904 Y-66.631 Z-3.478
X-123.759 Y-66.435 Z-3.817
X-123.588 Y-66.198 Z-4.228
X-123.365 Y-65.875 Z-4.788
X-123.178 Y-65.588 Z-5.284
X-122.969 Y-65.255 Z-5.86
X-122.925 Y-65.183 Z-5.986
X-121.173 Y-66.931 Z-2.957
X-120.943 Y-67.15 Z-2.579
X-120.818 Y-67.265 Z-2.379
X-120.641 Y-67.422 Z-2.108
X-120.487 Y-67.551 Z-1.885
X-120.442 Y-67.587 Z-1.821
X-120.269 Y-67.721 Z-1.59
X-120.166 Y-67.797 Z-1.459
X-120.045 Y-67.881 Z-1.312
X-119.921 Y-67.962 Z-1.172
X-119.812 Y-68.03 Z-1.054
X-119.63 Y-68.137 Z-0.87
X-119.427 Y-68.25 Z-0.674
X-119.354 Y-68.287 Z-0.609
X-119.282 Y-68.32 Z-0.552
X-119.157 Y-68.369 Z-0.468
X-118.978 Y-68.433 Z-0.356
X-118.852 Y-68.477 Z-0.281
X-118.723 Y-68.518 Z-0.209
X-118.587 Y-68.558 Z-0.14
X-118.453 Y-68.593 Z-0.08
X-118.328 Y-68.621 Z-0.031
X-118.243 Y-68.639 Z0
X-118.328 Y-68.621 Z-0.031
X-118.453 Y-68.593 Z-0.08
X-118.587 Y-68.558 Z-0.14
X-118.723 Y-68.518 Z-0.209
X-118.852 Y-68.477 Z-0.281
X-118.978 Y-68.433 Z-0.356
X-119.157 Y-68.369 Z-0.468
X-119.282 Y-68.32 Z-0.552
X-119.354 Y-68.287 Z-0.609
X-119.427 Y-68.25 Z-0.674
X-119.63 Y-68.137 Z-0.87
X-119.812 Y-68.03 Z-1.054
X-119.921 Y-67.962 Z-1.172
X-120.045 Y-67.881 Z-1.312
X-120.166 Y-67.797 Z-1.459
X-120.269 Y-67.721 Z-1.59
X-120.442 Y-67.587 Z-1.821
X-120.487 Y-67.551 Z-1.885
X-120.641 Y-67.422 Z-2.108
X-120.818 Y-67.265 Z-2.379
X-120.943 Y-67.15 Z-2.579
X-121.173 Y-66.931 Z-2.957
X-122.925 Y-65.183 Z-5.986
X-122.966 Y-65.018 Z-6.058
X-123.041 Y-64.746 Z-6.187
X-123.058 Y-64.687 Z-6.217
X-123.123 Y-64.476 Z-6.329
X-122.983 Y-64.274 Z-6.086
X-122.85 Y-64.072 Z-5.856
X-122.724 Y-63.87 Z-5.639
X-122.607 Y-63.668 Z-5.435
X-122.497 Y-63.467 Z-5.244
X-122.394 Y-63.265 Z-5.067
X-122.299 Y-63.063 Z-4.902
X-122.212 Y-62.861 Z-4.751
X-122.132 Y-62.66 Z-4.613
X-122.06 Y-62.458 Z-4.488
X-121.995 Y-62.256 Z-4.376
X-121.939 Y-62.054 Z-4.278
X-121.889 Y-61.853 Z-4.192
X-121.847 Y-61.651 Z-4.12
X-121.813 Y-61.449 Z-4.061
X-121.787 Y-61.247 Z-4.015
X-121.768 Y-61.046 Z-3.982
X-121.756 Y-60.844 Z-3.962
X-121.753 Y-60.642 Z-3.955
Y-47.107
X-121.221 Y-46.577 Z-3.038
X-120.941 Y-46.311 Z-2.576
X-120.768 Y-46.153 Z-2.303
X-120.6 Y-46.007 Z-2.05
X-120.451 Y-45.883 Z-1.836
X-120.342 Y-45.797 Z-1.687
X-120.237 Y-45.717 Z-1.548
X-120.115 Y-45.629 Z-1.396
X-120.014 Y-45.56 Z-1.276
X-119.873 Y-45.469 Z-1.119
X-119.737 Y-45.386 Z-0.975
X-119.573 Y-45.291 Z-0.811
X-119.397 Y-45.194 Z-0.643
X-119.299 Y-45.145 Z-0.558
X-119.202 Y-45.104 Z-0.487
X-118.976 Y-45.021 Z-0.342
X-118.843 Y-44.974 Z-0.262
X-118.709 Y-44.931 Z-0.187
X-118.573 Y-44.891 Z-0.118
X-118.442 Y-44.858 Z-0.06
X-118.315 Y-44.83 Z-0.012
X-118.28 Y-44.823 Z0
X-118.315 Y-44.83 Z-0.012
X-118.442 Y-44.858 Z-0.06
X-118.573 Y-44.891 Z-0.118
X-118.709 Y-44.931 Z-0.187
X-118.843 Y-44.974 Z-0.262
X-118.976 Y-45.021 Z-0.342
X-119.202 Y-45.104 Z-0.487
X-119.299 Y-45.145 Z-0.558
X-119.397 Y-45.194 Z-0.643
X-119.573 Y-45.291 Z-0.811
X-119.737 Y-45.386 Z-0.975
X-119.873 Y-45.469 Z-1.119
X-120.014 Y-45.56 Z-1.276
X-120.115 Y-45.629 Z-1.396
X-120.237 Y-45.717 Z-1.548
X-120.342 Y-45.797 Z-1.687
X-120.451 Y-45.883 Z-1.836
X-120.6 Y-46.007 Z-2.05
X-120.768 Y-46.153 Z-2.303
X-120.941 Y-46.311 Z-2.576
X-121.221 Y-46.577 Z-3.038
X-121.753 Y-47.107 Z-3.955
X-122.265 Y-46.596 Z-3.07
X-122.54 Y-46.335 Z-2.619
X-122.759 Y-46.137 Z-2.275
X-122.889 Y-46.024 Z-2.079
X-123.039 Y-45.899 Z-1.864
X-123.148 Y-45.813 Z-1.714
X-123.273 Y-45.719 Z-1.551
X-123.432 Y-45.606 Z-1.356
X-123.574 Y-45.512 Z-1.193
X-123.69 Y-45.44 Z-1.068
X-123.855 Y-45.343 Z-0.9
X-124.002 Y-45.26 Z-0.756
X-124.155 Y-45.178 Z-0.614
X-124.228 Y-45.144 Z-0.556
X-124.35 Y-45.096 Z-0.472
X-124.532 Y-45.028 Z-0.356
X-124.719 Y-44.964 Z-0.244
X-124.849 Y-44.923 Z-0.173
X-124.923 Y-44.901 Z-0.135
X-125.053 Y-44.867 Z-0.077
X-125.181 Y-44.838 Z-0.026
X-125.254 Y-44.823 Z0
G0 Z5
X-141.799 Y-108.66
G1 Z0 F849.6
X-141.778 Y-108.563 Z-0.036
X-141.748 Y-108.44 Z-0.088
X-141.712 Y-108.308 Z-0.151
X-141.672 Y-108.178 Z-0.22
X-141.627 Y-108.044 Z-0.298
X-141.542 Y-107.807 Z-0.445
X-141.492 Y-107.677 Z-0.532
X-141.457 Y-107.601 Z-0.593
X-141.416 Y-107.524 Z-0.664
X-141.359 Y-107.423 Z-0.762
X-141.263 Y-107.256 Z-0.928
X-141.186 Y-107.127 Z-1.063
X-141.125 Y-107.031 Z-1.168
X-141.028 Y-106.885 Z-1.336
X-140.943 Y-106.766 Z-1.483
X-140.84 Y-106.629 Z-1.661
X-140.738 Y-106.501 Z-1.838
X-140.642 Y-106.385 Z-2.004
X-140.499 Y-106.221 Z-2.252
X-140.348 Y-106.054 Z-2.514
X-140.141 Y-105.836 Z-2.872
X-139.965 Y-105.657 Z-3.176
X-140.138 Y-105.479 Z-2.876
X-140.35 Y-105.255 Z-2.509
X-140.507 Y-105.083 Z-2.239
X-140.651 Y-104.916 Z-1.988
X-140.774 Y-104.766 Z-1.775
X-140.888 Y-104.621 Z-1.579
X-140.993 Y-104.477 Z-1.396
X-141.079 Y-104.351 Z-1.247
X-141.144 Y-104.253 Z-1.136
X-141.231 Y-104.112 Z-0.984
X-141.306 Y-103.985 Z-0.853
X-141.423 Y-103.779 Z-0.651
X-141.463 Y-103.703 Z-0.581
X-141.499 Y-103.627 Z-0.52
X-141.548 Y-103.498 Z-0.434
X-141.636 Y-103.257 Z-0.283
X-141.693 Y-103.084 Z-0.184
X-141.717 Y-103.004 Z-0.143
X-141.739 Y-102.925 Z-0.104
X-141.773 Y-102.792 Z-0.045
X-141.799 Y-102.672 Z0
X-141.773 Y-102.792 Z-0.045
X-141.739 Y-102.925 Z-0.104
X-141.717 Y-103.004 Z-0.143
X-141.693 Y-103.084 Z-0.184
X-141.636 Y-103.257 Z-0.283
X-141.548 Y-103.498 Z-0.434
X-141.499 Y-103.627 Z-0.52
X-141.463 Y-103.703 Z-0.581
X-141.423 Y-103.779 Z-0.651
X-141.306 Y-103.985 Z-0.853
X-141.231 Y-104.112 Z-0.984
X-141.144 Y-104.253 Z-1.136
X-141.079 Y-104.351 Z-1.247
X-140.993 Y-104.477 Z-1.396
X-140.888 Y-104.621 Z-1.579
X-140.774 Y-104.766 Z-1.775
X-140.651 Y-104.916 Z-1.988
X-140.507 Y-105.083 Z-2.239
X-140.35 Y-105.255 Z-2.509
X-140.138 Y-105.479 Z-2.876
X-139.965 Y-105.657 Z-3.176
X-126.178
X-125.992 Y-105.66 Z-3.183
X-125.806 Y-105.672 Z-3.203
X-125.62 Y-105.691 Z-3.236
X-125.435 Y-105.718 Z-3.283
X-125.249 Y-105.753 Z-3.344
X-125.063 Y-105.796 Z-3.417
X-124.877 Y-105.846 Z-3.504
X-124.691 Y-105.904 Z-3.605
X-124.505 Y-105.97 Z-3.719
X-124.32 Y-106.044 Z-3.846
X-124.134 Y-106.125 Z-3.987
X-123.948 Y-106.214 Z-4.141
X-123.762 Y-106.311 Z-4.309
X-123.576 Y-106.415 Z-4.49
X-123.39 Y-106.527 Z-4.684
X-122.392 Y-105.532 Z-2.961
X-122.169 Y-105.321 Z-2.594
X-121.986 Y-105.154 Z-2.306
X-121.818 Y-105.007 Z-2.051
X-121.668 Y-104.883 Z-1.836
X-121.556 Y-104.794 Z-1.682
X-121.437 Y-104.704 Z-1.526
X-121.281 Y-104.594 Z-1.335
X-121.181 Y-104.526 Z-1.219
X-121.067 Y-104.454 Z-1.093
X-120.954 Y-104.386 Z-0.975
X-120.78 Y-104.286 Z-0.801
X-120.629 Y-104.202 Z-0.656
X-120.558 Y-104.165 Z-0.592
X-120.488 Y-104.132 Z-0.535
X-120.363 Y-104.083 Z-0.45
X-120.182 Y-104.017 Z-0.336
X-120.003 Y-103.955 Z-0.229
X-119.922 Y-103.929 Z-0.184
X-119.799 Y-103.894 Z-0.122
X-119.724 Y-103.873 Z-0.087
X-119.595 Y-103.843 Z-0.035
X-119.498 Y-103.823 Z0
X-119.595 Y-103.843 Z-0.035
X-119.724 Y-103.873 Z-0.087
X-119.799 Y-103.894 Z-0.122
X-119.922 Y-103.929 Z-0.184
X-120.003 Y-103.955 Z-0.229
X-120.182 Y-104.017 Z-0.336
X-120.363 Y-104.083 Z-0.45
X-120.488 Y-104.132 Z-0.535
X-120.558 Y-104.165 Z-0.592
X-120.629 Y-104.202 Z-0.656
X-120.78 Y-104.286 Z-0.801
X-120.954 Y-104.386 Z-0.975
X-121.067 Y-104.454 Z-1.093
X-121.181 Y-104.526 Z-1.219
X-121.281 Y-104.594 Z-1.335
X-121.437 Y-104.704 Z-1.526
X-121.556 Y-104.794 Z-1.682
X-121.668 Y-104.883 Z-1.836
X-121.818 Y-105.007 Z-2.051
X-121.986 Y-105.154 Z-2.306
X-122.169 Y-105.321 Z-2.594
X-122.392 Y-105.532 Z-2.961
X-123.39 Y-106.527 Z-4.684
X-123.349 Y-106.722 Z-4.612
X-123.314 Y-106.916 Z-4.551
X-123.285 Y-107.11 Z-4.501
X-123.262 Y-107.304 Z-4.463
X-123.246 Y-107.499 Z-4.435
X-123.237 Y-107.693 Z-4.418
X-123.233 Y-107.887 Z-4.413
Y-125.091
X-124.054 Y-125.909 Z-2.997
X-124.212 Y-126.061 Z-2.734
X-124.434 Y-126.266 Z-2.378
X-124.602 Y-126.416 Z-2.119
X-124.727 Y-126.522 Z-1.935
X-124.873 Y-126.64 Z-1.731
X-125.003 Y-126.738 Z-1.56
X-125.11 Y-126.817 Z-1.425
X-125.222 Y-126.894 Z-1.291
X-125.368 Y-126.989 Z-1.127
X-125.493 Y-127.066 Z-0.993
X-125.666 Y-127.166 Z-0.819
X-125.822 Y-127.253 Z-0.669
X-125.893 Y-127.29 Z-0.604
X-125.965 Y-127.324 Z-0.547
X-126.089 Y-127.372 Z-0.462
X-126.273 Y-127.44 Z-0.346
X-126.401 Y-127.484 Z-0.269
X-126.528 Y-127.525 Z-0.198
X-126.653 Y-127.561 Z-0.135
X-126.737 Y-127.584 Z-0.096
X-126.866 Y-127.615 Z-0.042
X-126.983 Y-127.639 Z0
X-126.866 Y-127.615 Z-0.042
X-126.737 Y-127.584 Z-0.096
X-126.653 Y-127.561 Z-0.135
X-126.528 Y-127.525 Z-0.198
X-126.401 Y-127.484 Z-0.269
X-126.273 Y-127.44 Z-0.346
X-126.089 Y-127.372 Z-0.462
X-125.965 Y-127.324 Z-0.547
X-125.893 Y-127.29 Z-0.604
X-125.822 Y-127.253 Z-0.669
X-125.666 Y-127.166 Z-0.819
X-125.493 Y-127.066 Z-0.993
X-125.368 Y-126.989 Z-1.127
X-125.222 Y-126.894 Z-1.291
X-125.11 Y-126.817 Z-1.425
X-125.003 Y-126.738 Z-1.56
X-124.873 Y-126.64 Z-1.731
X-124.727 Y-126.522 Z-1.935
X-124.602 Y-126.416 Z-2.119
X-124.434 Y-126.266 Z-2.378
X-124.212 Y-126.061 Z-2.734
X-124.054 Y-125.909 Z-2.997
X-123.233 Y-125.091 Z-4.413
X-122.392 Y-125.931 Z-2.959
X-122.164 Y-126.147 Z-2.584
X-121.987 Y-126.309 Z-2.304
X-121.869 Y-126.413 Z-2.125
X-121.744 Y-126.519 Z-1.941
X-121.59 Y-126.642 Z-1.726
X-121.488 Y-126.721 Z-1.591
X-121.345 Y-126.825 Z-1.41
X-121.208 Y-126.918 Z-1.25
X-121.074 Y-127.003 Z-1.102
X-120.934 Y-127.087 Z-0.956
X-120.791 Y-127.169 Z-0.815
X-120.643 Y-127.251 Z-0.673
X-120.568 Y-127.289 Z-0.606
X-120.493 Y-127.323 Z-0.547
X-120.369 Y-127.371 Z-0.465
X-120.188 Y-127.436 Z-0.352
X-120.001 Y-127.499 Z-0.243
X-119.876 Y-127.538 Z-0.176
X-119.751 Y-127.572 Z-0.116
X-119.671 Y-127.593 Z-0.081
X-119.545 Y-127.621 Z-0.031
X-119.457 Y-127.639 Z0
G0 Z5
X-115.959 Y-108.66
G1 Z0 F849.6
X-115.938 Y-108.563 Z-0.036
X-115.908 Y-108.44 Z-0.088
X-115.872 Y-108.308 Z-0.151
X-115.832 Y-108.178 Z-0.22
X-115.787 Y-108.044 Z-0.298
X-115.702 Y-107.807 Z-0.445
X-115.653 Y-107.68 Z-0.529
X-115.619 Y-107.606 Z-0.588
X-115.581 Y-107.533 Z-0.655
X-115.555 Y-107.485 Z-0.7
X-115.43 Y-107.266 Z-0.917
X-115.369 Y-107.164 Z-1.023
X-115.285 Y-107.031 Z-1.168
X-115.188 Y-106.885 Z-1.336
X-115.103 Y-106.766 Z-1.483
X-115 Y-106.629 Z-1.661
X-114.898 Y-106.501 Z-1.838
X-114.802 Y-106.385 Z-2.004
X-114.664 Y-106.226 Z-2.243
X-114.508 Y-106.054 Z-2.514
X-114.301 Y-105.836 Z-2.872
X-114.125 Y-105.657 Z-3.176
X-114.297 Y-105.48 Z-2.879
X-114.51 Y-105.255 Z-2.509
X-114.667 Y-105.083 Z-2.239
X-114.806 Y-104.922 Z-1.996
X-114.902 Y-104.806 Z-1.83
X-114.999 Y-104.684 Z-1.663
X-115.082 Y-104.575 Z-1.519
X-115.153 Y-104.477 Z-1.396
X-115.239 Y-104.351 Z-1.247
X-115.304 Y-104.253 Z-1.136
X-115.391 Y-104.112 Z-0.984
X-115.494 Y-103.937 Z-0.805
X-115.583 Y-103.779 Z-0.651
X-115.623 Y-103.703 Z-0.581
X-115.659 Y-103.627 Z-0.52
X-115.708 Y-103.499 Z-0.435
X-115.788 Y-103.278 Z-0.296
X-115.816 Y-103.196 Z-0.247
X-115.861 Y-103.057 Z-0.169
X-115.911 Y-102.881 Z-0.083
X-115.931 Y-102.8 Z-0.048
X-115.959 Y-102.675 Z0
X-115.931 Y-102.8 Z-0.048
X-115.911 Y-102.881 Z-0.083
X-115.861 Y-103.057 Z-0.169
X-115.816 Y-103.196 Z-0.247
X-115.788 Y-103.278 Z-0.296
X-115.708 Y-103.499 Z-0.435
X-115.659 Y-103.627 Z-0.52
X-115.623 Y-103.703 Z-0.581
X-115.583 Y-103.779 Z-0.651
X-115.494 Y-103.937 Z-0.805
X-115.391 Y-104.112 Z-0.984
X-115.304 Y-104.253 Z-1.136
X-115.239 Y-104.351 Z-1.247
X-115.153 Y-104.477 Z-1.396
X-115.082 Y-104.575 Z-1.519
X-114.999 Y-104.684 Z-1.663
X-114.902 Y-104.806 Z-1.83
X-114.806 Y-104.922 Z-1.996
X-114.667 Y-105.083 Z-2.239
X-114.51 Y-105.255 Z-2.509
X-114.297 Y-105.48 Z-2.879
X-114.125 Y-105.657 Z-3.176
X-114.115
X-100.338
X-100.152 Y-105.66 Z-3.183
X-99.966 Y-105.672 Z-3.203
X-99.781 Y-105.691 Z-3.236
X-99.595 Y-105.718 Z-3.283
X-99.409 Y-105.753 Z-3.344
X-99.223 Y-105.796 Z-3.417
X-99.037 Y-105.846 Z-3.504
X-98.851 Y-105.904 Z-3.605
X-98.666 Y-105.97 Z-3.719
X-98.48 Y-106.043 Z-3.846
X-98.294 Y-106.125 Z-3.987
X-98.108 Y-106.214 Z-4.141
X-97.922 Y-106.311 Z-4.309
X-97.737 Y-106.415 Z-4.49
X-97.551 Y-106.527 Z-4.684
X-96.606 Y-105.584 Z-3.051
X-96.352 Y-105.343 Z-2.632
X-96.194 Y-105.197 Z-2.38
X-96.056 Y-105.074 Z-2.168
X-95.922 Y-104.96 Z-1.969
X-95.779 Y-104.844 Z-1.768
X-95.626 Y-104.726 Z-1.564
X-95.523 Y-104.651 Z-1.434
X-95.388 Y-104.558 Z-1.273
X-95.266 Y-104.478 Z-1.135
X-95.119 Y-104.389 Z-0.98
X-94.997 Y-104.318 Z-0.857
X-94.831 Y-104.225 Z-0.696
X-94.783 Y-104.199 Z-0.651
X-94.682 Y-104.148 Z-0.562
X-94.581 Y-104.105 Z-0.488
X-94.401 Y-104.038 Z-0.373
X-94.22 Y-103.974 Z-0.261
X-94.083 Y-103.93 Z-0.185
X-93.957 Y-103.893 Z-0.121
X-93.836 Y-103.861 Z-0.067
X-93.756 Y-103.843 Z-0.035
X-93.658 Y-103.823 Z0
X-93.756 Y-103.843 Z-0.035
X-93.836 Y-103.861 Z-0.067
X-93.957 Y-103.893 Z-0.121
X-94.083 Y-103.93 Z-0.185
X-94.22 Y-103.974 Z-0.261
X-94.401 Y-104.038 Z-0.373
X-94.581 Y-104.105 Z-0.488
X-94.682 Y-104.148 Z-0.562
X-94.783 Y-104.199 Z-0.651
X-94.831 Y-104.225 Z-0.696
X-94.997 Y-104.318 Z-0.857
X-95.119 Y-104.389 Z-0.98
X-95.266 Y-104.478 Z-1.135
X-95.388 Y-104.558 Z-1.273
X-95.523 Y-104.651 Z-1.434
X-95.626 Y-104.726 Z-1.564
X-95.779 Y-104.844 Z-1.768
X-95.922 Y-104.96 Z-1.969
X-96.056 Y-105.074 Z-2.168
X-96.194 Y-105.197 Z-2.38
X-96.352 Y-105.343 Z-2.632
X-96.606 Y-105.584 Z-3.051
X-97.551 Y-106.527 Z-4.684
X-97.509 Y-106.721 Z-4.612
X-97.474 Y-106.916 Z-4.551
X-97.445 Y-107.11 Z-4.501
X-97.423 Y-107.304 Z-4.462
X-97.407 Y-107.498 Z-4.434
X-97.397 Y-107.693 Z-4.418
X-97.394 Y-107.887 Z-4.412
Y-125.092
X-98.189 Y-125.885 Z-3.037
X-98.505 Y-126.185 Z-2.519
X-98.686 Y-126.349 Z-2.234
X-98.808 Y-126.455 Z-2.051
X-98.972 Y-126.591 Z-1.816
X-99.136 Y-126.718 Z-1.595
X-99.252 Y-126.804 Z-1.447
X-99.359 Y-126.878 Z-1.319
X-99.528 Y-126.989 Z-1.127
X-99.624 Y-127.048 Z-1.023
X-99.81 Y-127.157 Z-0.835
X-99.939 Y-127.229 Z-0.71
X-99.982 Y-127.253 Z-0.669
X-100.053 Y-127.29 Z-0.604
X-100.125 Y-127.324 Z-0.547
X-100.249 Y-127.372 Z-0.462
X-100.433 Y-127.44 Z-0.346
X-100.561 Y-127.484 Z-0.269
X-100.688 Y-127.525 Z-0.198
X-100.813 Y-127.561 Z-0.135
X-100.897 Y-127.584 Z-0.096
X-101.029 Y-127.615 Z-0.041
X-101.146 Y-127.639 Z0
X-101.029 Y-127.615 Z-0.041
X-100.897 Y-127.584 Z-0.096
X-100.813 Y-127.561 Z-0.135
X-100.688 Y-127.525 Z-0.198
X-100.561 Y-127.484 Z-0.269
X-100.433 Y-127.44 Z-0.346
X-100.249 Y-127.372 Z-0.462
X-100.125 Y-127.324 Z-0.547
X-100.053 Y-127.29 Z-0.604
X-99.982 Y-127.253 Z-0.669
X-99.939 Y-127.229 Z-0.71
X-99.81 Y-127.157 Z-0.835
X-99.624 Y-127.048 Z-1.023
X-99.528 Y-126.989 Z-1.127
X-99.359 Y-126.878 Z-1.319
X-99.252 Y-126.804 Z-1.447
X-99.136 Y-126.718 Z-1.595
X-98.972 Y-126.591 Z-1.816
X-98.808 Y-126.455 Z-2.051
X-98.686 Y-126.349 Z-2.234
X-98.505 Y-126.185 Z-2.519
X-98.189 Y-125.885 Z-3.037
X-97.394 Y-125.092 Z-4.412
X-96.565 Y-125.918 Z-2.982
X-96.371 Y-126.103 Z-2.66
X-96.212 Y-126.25 Z-2.406
X-96.076 Y-126.372 Z-2.195
X-95.943 Y-126.486 Z-1.997
X-95.801 Y-126.603 Z-1.795
X-95.648 Y-126.721 Z-1.591
X-95.504 Y-126.825 Z-1.41
X-95.359 Y-126.924 Z-1.239
X-95.239 Y-127 Z-1.106
X-95.136 Y-127.062 Z-0.999
X-95.005 Y-127.139 Z-0.867
X-94.804 Y-127.25 Z-0.674
X-94.731 Y-127.288 Z-0.608
X-94.657 Y-127.322 Z-0.549
X-94.529 Y-127.371 Z-0.465
X-94.292 Y-127.456 Z-0.318
X-94.163 Y-127.498 Z-0.244
X-94.035 Y-127.538 Z-0.175
X-93.911 Y-127.572 Z-0.116
X-93.829 Y-127.593 Z-0.08
X-93.706 Y-127.621 Z-0.031
X-93.618 Y-127.639 Z0
G0 Z5
X-114.003 Y-44.823
G1 Z0 F849.6
X-113.948 Y-44.832 Z-0.015
X-113.769 Y-44.864 Z-0.071
X-113.662 Y-44.886 Z-0.108
X-113.49 Y-44.925 Z-0.176
X-113.392 Y-44.949 Z-0.218
X-113.207 Y-44.999 Z-0.305
X-113.02 Y-45.055 Z-0.401
X-112.835 Y-45.113 Z-0.502
X-112.495 Y-45.225 Z-0.696
X-112.437 Y-45.246 Z-0.732
X-112.378 Y-45.269 Z-0.772
X-112.107 Y-45.382 Z-0.968
X-111.697 Y-45.555 Z-1.267
X-111.411 Y-45.678 Z-1.481
X-111.119 Y-45.808 Z-1.705
X-110.822 Y-45.943 Z-1.94
X-110.514 Y-46.089 Z-2.193
X-110.215 Y-46.235 Z-2.446
X-109.916 Y-46.384 Z-2.703
X-108.13 Y-47.299 Z-4.289
X-107.944 Y-47.051 Z-3.86
X-107.695 Y-46.729 Z-3.302
X-107.524 Y-46.512 Z-2.925
X-107.412 Y-46.375 Z-2.688
X-107.301 Y-46.246 Z-2.464
X-107.19 Y-46.124 Z-2.254
X-107.079 Y-46.01 Z-2.057
X-106.968 Y-45.904 Z-1.873
X-106.857 Y-45.806 Z-1.703
X-106.746 Y-45.715 Z-1.546
X-106.635 Y-45.633 Z-1.402
X-106.403 Y-45.47 Z-1.12
X-106.278 Y-45.385 Z-0.973
X-106.175 Y-45.318 Z-0.857
X-106.072 Y-45.253 Z-0.745
X-105.959 Y-45.187 Z-0.63
X-105.846 Y-45.125 Z-0.523
X-105.727 Y-45.065 Z-0.419
X-105.611 Y-45.013 Z-0.329
X-105.507 Y-44.971 Z-0.257
X-105.402 Y-44.934 Z-0.192
X-105.311 Y-44.905 Z-0.142
X-105.219 Y-44.879 Z-0.097
X-105.13 Y-44.856 Z-0.058
X-105.046 Y-44.837 Z-0.025
X-104.973 Y-44.823 Z0
X-105.046 Y-44.837 Z-0.025
X-105.13 Y-44.856 Z-0.058
X-105.219 Y-44.879 Z-0.097
X-105.311 Y-44.905 Z-0.142
X-105.402 Y-44.934 Z-0.192
X-105.507 Y-44.971 Z-0.257
X-105.611 Y-45.013 Z-0.329
X-105.727 Y-45.065 Z-0.419
X-105.846 Y-45.125 Z-0.523
X-105.959 Y-45.187 Z-0.63
X-106.072 Y-45.253 Z-0.745
X-106.175 Y-45.318 Z-0.857
X-106.278 Y-45.385 Z-0.973
X-106.403 Y-45.47 Z-1.12
X-106.635 Y-45.633 Z-1.402
X-106.746 Y-45.715 Z-1.546
X-106.857 Y-45.806 Z-1.703
X-106.968 Y-45.904 Z-1.873
X-107.079 Y-46.01 Z-2.057
X-107.19 Y-46.124 Z-2.254
X-107.301 Y-46.246 Z-2.464
X-107.412 Y-46.375 Z-2.688
X-107.524 Y-46.512 Z-2.925
X-107.695 Y-46.729 Z-3.302
X-107.944 Y-47.051 Z-3.86
X-108.13 Y-47.299 Z-4.289
X-108.039 Y-47.477 Z-4.237
X-107.965 Y-47.617 Z-4.2
X-107.888 Y-47.757 Z-4.167
X-107.809 Y-47.895 Z-4.138
X-107.728 Y-48.031 Z-4.115
X-107.621 Y-48.204 Z-4.09
X-107.522 Y-48.359 Z-4.073
X-107.415 Y-48.521 Z-4.061
X-107.29 Y-48.703 Z-4.053
X-107.142 Y-48.912 Z-4.05
X-107.016 Y-49.087
X-104.068 Y-53.249 Z-3.994
X-103.959 Y-53.412 Z-4
X-103.855 Y-53.58 Z-4.019
X-103.757 Y-53.751 Z-4.05
X-103.665 Y-53.926 Z-4.093
X-103.579 Y-54.106 Z-4.149
X-103.498 Y-54.289 Z-4.217
X-103.424 Y-54.477 Z-4.297
X-103.355 Y-54.669 Z-4.39
X-103.293 Y-54.865 Z-4.495
X-103.236 Y-55.065 Z-4.613
X-103.185 Y-55.269 Z-4.743
X-103.139 Y-55.477 Z-4.885
X-103.1 Y-55.689 Z-5.04
X-103.273 Y-55.818 Z-4.819
X-103.414 Y-55.918 Z-4.65
X-103.562 Y-56.02 Z-4.48
X-103.71 Y-56.116 Z-4.322
X-103.865 Y-56.212 Z-4.166
X-104.023 Y-56.305 Z-4.02
X-104.182 Y-56.394 Z-3.885
X-104.341 Y-56.478 Z-3.762
X-104.508 Y-56.561 Z-3.648
X-104.673 Y-56.638 Z-3.55
X-104.842 Y-56.712 Z-3.464
X-105.016 Y-56.783 Z-3.393
X-105.189 Y-56.848 Z-3.339
X-105.36 Y-56.907 Z-3.301
X-105.524 Y-56.958 Z-3.28
X-105.685 Y-57.003 Z-3.272
X-105.715 Y-57.011
X-105.988 Y-57.081 Z-3.283
X-106.473 Y-57.211 Z-3.312
X-106.691 Y-57.274 Z-3.33
X-106.795 Y-57.309 Z-3.344
X-106.898 Y-57.346 Z-3.362
X-106.998 Y-57.385 Z-3.383
X-107.097 Y-57.427 Z-3.409
X-107.158 Y-57.455 Z-3.426
X-107.393 Y-57.564 Z-3.493
X-107.527 Y-57.63 Z-3.53
X-107.734 Y-57.736 Z-3.588
X-107.916 Y-57.836 Z-3.64
X-108.02 Y-57.898 Z-3.669
X-108.204 Y-58.014 Z-3.723
X-108.291 Y-58.073 Z-3.747
X-108.476 Y-58.207 Z-3.801
X-108.605 Y-58.31 Z-3.841
X-108.719 Y-58.406 Z-3.877
X-108.883 Y-58.553 Z-3.933
X-109.023 Y-58.689 Z-3.989
X-109.168 Y-58.839 Z-4.052
X-109.317 Y-59.002 Z-4.126
X-109.414 Y-59.115 Z-4.181
X-109.514 Y-59.237 Z-4.243
X-109.585 Y-59.358 Z-4.267
X-109.693 Y-59.553 Z-4.309
X-109.734 Y-59.634 Z-4.328
X-109.786 Y-59.739 Z-4.353
X-109.848 Y-59.871 Z-4.385
X-109.895 Y-59.98 Z-4.411
X-109.948 Y-60.111 Z-4.44
X-109.988 Y-60.221 Z-4.462
X-110.007 Y-60.28 Z-4.471
X-110.044 Y-60.418 Z-4.486
X-110.062 Y-60.494 Z-4.49
X-110.1 Y-60.702 Z-4.498
X-110.125 Y-60.872 Z-4.499
X-110.148 Y-61.072
X-110.167 Y-61.267 Z-4.498
X-110.192 Y-61.59 Z-4.494
X-110.202 Y-61.839 Z-4.502
X-110.203 Y-61.875 Z-4.504
X-110.185 Y-62.166 Z-4.498
X-110.165 Y-62.445 Z-4.497
X-110.145 Y-62.659
X-110.122 Y-62.853 Z-4.498
X-110.095 Y-63.047 Z-4.503
X-110.056 Y-63.271 Z-4.509
X-110.035 Y-63.37 Z-4.511
X-109.989 Y-63.566 Z-4.514
X-109.963 Y-63.658
X-109.921 Y-63.789 Z-4.511
X-109.894 Y-63.862 Z-4.506
X-109.868 Y-63.926 Z-4.498
X-109.836 Y-63.994 Z-4.488
X-109.79 Y-64.083 Z-4.47
X-109.731 Y-64.188 Z-4.445
X-109.669 Y-64.29 Z-4.418
X-109.566 Y-64.448 Z-4.375
X-109.486 Y-64.559 Z-4.345
X-109.387 Y-64.691 Z-4.309
X-109.226 Y-64.891 Z-4.259
X-109.078 Y-65.062 Z-4.222
X-109.01 Y-65.138 Z-4.207
X-108.882 Y-65.275 Z-4.183
X-108.785 Y-65.355 Z-4.144
X-108.622 Y-65.483 Z-4.082
X-108.499 Y-65.576 Z-4.039
X-108.355 Y-65.68 Z-3.987
X-108.228 Y-65.765 Z-3.94
X-108.101 Y-65.847 Z-3.888
X-107.963 Y-65.928 Z-3.831
X-107.882 Y-65.973 Z-3.8
X-107.794 Y-66.018 Z-3.768
X-107.706 Y-66.06 Z-3.738
X-107.608 Y-66.104 Z-3.708
X-107.503 Y-66.148 Z-3.679
X-107.397 Y-66.189 Z-3.654
X-107.281 Y-66.231 Z-3.631
X-107.149 Y-66.274 Z-3.611
X-106.713 Y-66.389 Z-3.515
X-106.394 Y-66.468 Z-3.45
X-106.135 Y-66.528 Z-3.401
X-105.955 Y-66.567 Z-3.37
X-105.772 Y-66.603 Z-3.341
X-105.56 Y-66.642 Z-3.31
X-105.344 Y-66.676 Z-3.282
X-105.076 Y-66.711 Z-3.253
X-104.897 Y-66.731 Z-3.236
X-104.717 Y-66.748 Z-3.221
X-104.535 Y-66.762 Z-3.209
X-104.346 Y-66.775 Z-3.198
X-104.017 Y-66.79 Z-3.185
X-103.785 Y-66.797 Z-3.179
X-103.469 Y-66.803 Z-3.175
X-103 Y-66.805
X-102.809
X-93.979
X-93.793 Y-66.802 Z-3.182
X-93.608 Y-66.79 Z-3.202
X-93.422 Y-66.771 Z-3.236
X-93.236 Y-66.743 Z-3.283
X-93.05 Y-66.709 Z-3.343
X-92.864 Y-66.666 Z-3.417
X-92.678 Y-66.616 Z-3.504
X-92.493 Y-66.558 Z-3.605
X-92.307 Y-66.492 Z-3.719
X-92.121 Y-66.418 Z-3.846
X-91.935 Y-66.337 Z-3.987
X-91.749 Y-66.248 Z-4.141
X-91.563 Y-66.151 Z-4.309
X-91.378 Y-66.047 Z-4.49
X-91.192 Y-65.934 Z-4.684
X-90.205 Y-66.918 Z-2.98
X-90.009 Y-67.105 Z-2.656
X-89.851 Y-67.252 Z-2.403
X-89.717 Y-67.371 Z-2.195
X-89.58 Y-67.489 Z-1.992
X-89.442 Y-67.602 Z-1.795
X-89.288 Y-67.721 Z-1.59
X-89.185 Y-67.797 Z-1.459
X-89.046 Y-67.892 Z-1.293
X-88.923 Y-67.973 Z-1.153
X-88.777 Y-68.062 Z-0.998
X-88.606 Y-68.161 Z-0.828
X-88.447 Y-68.249 Z-0.675
X-88.373 Y-68.287 Z-0.609
X-88.3 Y-68.321 Z-0.55
X-88.171 Y-68.37 Z-0.465
X-87.995 Y-68.434 Z-0.355
X-87.87 Y-68.477 Z-0.281
X-87.739 Y-68.519 Z-0.208
X-87.605 Y-68.558 Z-0.14
X-87.473 Y-68.592 Z-0.081
X-87.347 Y-68.621 Z-0.031
X-87.26 Y-68.639 Z0
X-87.347 Y-68.621 Z-0.031
X-87.473 Y-68.592 Z-0.081
X-87.605 Y-68.558 Z-0.14
X-87.739 Y-68.519 Z-0.208
X-87.87 Y-68.477 Z-0.281
X-87.995 Y-68.434 Z-0.355
X-88.171 Y-68.37 Z-0.465
X-88.3 Y-68.321 Z-0.55
X-88.373 Y-68.287 Z-0.609
X-88.447 Y-68.249 Z-0.675
X-88.606 Y-68.161 Z-0.828
X-88.777 Y-68.062 Z-0.998
X-88.923 Y-67.973 Z-1.153
X-89.046 Y-67.892 Z-1.293
X-89.185 Y-67.797 Z-1.459
X-89.288 Y-67.721 Z-1.59
X-89.442 Y-67.602 Z-1.795
X-89.58 Y-67.489 Z-1.992
X-89.717 Y-67.371 Z-2.195
X-89.851 Y-67.252 Z-2.403
X-90.009 Y-67.105 Z-2.656
X-90.205 Y-66.918 Z-2.98
X-91.192 Y-65.934 Z-4.684
X-91.15 Y-65.74 Z-4.612
X-91.115 Y-65.546 Z-4.551
X-91.086 Y-65.352 Z-4.501
X-91.064 Y-65.158 Z-4.462
X-91.048 Y-64.964 Z-4.435
X-91.038 Y-64.769 Z-4.418
X-91.035 Y-64.575 Z-4.412
Y-58.994
X-91.038 Y-58.791 Z-4.418
X-91.049 Y-58.589 Z-4.437
X-91.066 Y-58.386 Z-4.467
X-91.091 Y-58.183 Z-4.509
X-91.122 Y-57.98 Z-4.563
X-91.161 Y-57.778 Z-4.63
X-91.206 Y-57.575 Z-4.709
X-91.258 Y-57.372 Z-4.799
X-91.318 Y-57.169 Z-4.902
X-91.384 Y-56.967 Z-5.017
X-91.457 Y-56.764 Z-5.144
X-91.633 Z-4.919
X-91.805 Z-4.707
X-91.974 Z-4.507
X-92.14 Z-4.319
X-92.303 Z-4.145
X-92.464 Z-3.983
X-92.622 Z-3.835
X-92.778 Z-3.7
X-92.932 Z-3.58
X-93.009 Z-3.525
X-93.085 Z-3.475
X-93.16 Z-3.428
X-93.236 Z-3.384
X-93.311 Z-3.345
X-93.386 Z-3.31
X-93.461 Z-3.279
X-93.535 Z-3.251
X-93.609 Z-3.228
X-93.684 Z-3.209
X-93.758 Z-3.194
X-93.832 Z-3.184
X-93.905 Z-3.178
X-99.874 Z-3.175
X-100.053 Y-56.76 Z-3.182
X-100.231 Y-56.75 Z-3.2
X-100.41 Y-56.732 Z-3.231
X-100.589 Y-56.707 Z-3.275
X-100.768 Y-56.674 Z-3.331
X-100.947 Y-56.635 Z-3.399
X-101.126 Y-56.588 Z-3.48
X-101.305 Y-56.534 Z-3.573
X-101.483 Y-56.473 Z-3.678
X-101.662 Y-56.405 Z-3.796
X-101.841 Y-56.33 Z-3.927
X-102.02 Y-56.248 Z-4.07
X-102.199 Y-56.158 Z-4.225
X-102.856 Y-55.815 Z-4.818
X-103.1 Y-55.689 Z-5.04
X-102.856 Y-55.815 Z-4.818
X-102.199 Y-56.158 Z-4.225
X-102.02 Y-56.248 Z-4.07
X-101.841 Y-56.33 Z-3.927
X-101.662 Y-56.405 Z-3.796
X-101.483 Y-56.473 Z-3.678
X-101.305 Y-56.534 Z-3.573
X-101.126 Y-56.588 Z-3.48
X-100.947 Y-56.635 Z-3.399
X-100.768 Y-56.674 Z-3.331
X-100.589 Y-56.707 Z-3.275
X-100.41 Y-56.732 Z-3.231
X-100.231 Y-56.75 Z-3.2
X-100.053 Y-56.76 Z-3.182
X-99.874 Y-56.764 Z-3.175
X-93.905 Z-3.178
X-93.832 Z-3.184
X-93.758 Z-3.194
X-93.684 Z-3.209
X-93.609 Z-3.228
X-93.535 Z-3.251
X-93.461 Z-3.279
X-93.386 Z-3.31
X-93.311 Z-3.345
X-93.236 Z-3.384
X-93.16 Z-3.428
X-93.085 Z-3.475
X-93.009 Z-3.525
X-92.932 Z-3.58
X-92.778 Z-3.7
X-92.622 Z-3.835
X-92.464 Z-3.983
X-92.303 Z-4.145
X-92.14 Z-4.319
X-91.974 Z-4.507
X-91.805 Z-4.707
X-91.633 Z-4.919
X-91.457 Z-5.144
X-91.384 Y-56.561 Z-5.017
X-91.318 Y-56.358 Z-4.902
X-91.258 Y-56.156 Z-4.799
X-91.206 Y-55.953 Z-4.709
X-91.161 Y-55.75 Z-4.63
X-91.122 Y-55.547 Z-4.563
X-91.091 Y-55.345 Z-4.509
X-91.066 Y-55.142 Z-4.467
X-91.049 Y-54.939 Z-4.437
X-91.038 Y-54.736 Z-4.418
X-91.035 Y-54.534 Z-4.412
Y-47.371
X-90.249 Y-46.586 Z-3.053
X-89.994 Y-46.343 Z-2.633
X-89.833 Y-46.195 Z-2.376
X-89.658 Y-46.041 Z-2.109
X-89.516 Y-45.921 Z-1.902
X-89.369 Y-45.803 Z-1.698
X-89.266 Y-45.725 Z-1.562
X-89.121 Y-45.62 Z-1.381
X-88.986 Y-45.529 Z-1.223
X-88.857 Y-45.448 Z-1.082
X-88.714 Y-45.361 Z-0.932
X-88.575 Y-45.282 Z-0.796
X-88.424 Y-45.199 Z-0.651
X-88.355 Y-45.163 Z-0.588
X-88.286 Y-45.131 Z-0.533
X-88.161 Y-45.082 Z-0.449
X-87.985 Y-45.017 Z-0.337
X-87.86 Y-44.974 Z-0.261
X-87.729 Y-44.931 Z-0.187
X-87.594 Y-44.892 Z-0.119
X-87.476 Y-44.861 Z-0.066
X-87.397 Y-44.843 Z-0.035
X-87.299 Y-44.823 Z0
X-87.397 Y-44.843 Z-0.035
X-87.476 Y-44.861 Z-0.066
X-87.594 Y-44.892 Z-0.119
X-87.729 Y-44.931 Z-0.187
X-87.86 Y-44.974 Z-0.261
X-87.985 Y-45.017 Z-0.337
X-88.161 Y-45.082 Z-0.449
X-88.286 Y-45.131 Z-0.533
X-88.355 Y-45.163 Z-0.588
X-88.424 Y-45.199 Z-0.651
X-88.575 Y-45.282 Z-0.796
X-88.714 Y-45.361 Z-0.932
X-88.857 Y-45.448 Z-1.082
X-88.986 Y-45.529 Z-1.223
X-89.121 Y-45.62 Z-1.381
X-89.266 Y-45.725 Z-1.562
X-89.369 Y-45.803 Z-1.698
X-89.516 Y-45.921 Z-1.902
X-89.658 Y-46.041 Z-2.109
X-89.833 Y-46.195 Z-2.376
X-89.994 Y-46.343 Z-2.633
X-90.249 Y-46.586 Z-3.053
X-91.035 Y-47.371 Z-4.412
X-91.842 Y-46.566 Z-3.019
X-92.049 Y-46.369 Z-2.678
X-92.207 Y-46.223 Z-2.425
X-92.383 Y-46.067 Z-2.154
X-92.524 Y-45.948 Z-1.948
X-92.67 Y-45.83 Z-1.744
X-92.814 Y-45.72 Z-1.554
X-92.965 Y-45.613 Z-1.368
X-93.098 Y-45.525 Z-1.215
X-93.209 Y-45.454 Z-1.093
X-93.345 Y-45.373 Z-0.953
X-93.515 Y-45.276 Z-0.784
X-93.611 Y-45.223 Z-0.692
X-93.685 Y-45.184 Z-0.625
X-93.758 Y-45.15 Z-0.566
X-93.886 Y-45.1 Z-0.48
X-94.064 Y-45.034 Z-0.366
X-94.191 Y-44.99 Z-0.289
X-94.322 Y-44.947 Z-0.215
X-94.458 Y-44.907 Z-0.145
X-94.592 Y-44.872 Z-0.084
X-94.718 Y-44.842 Z-0.033
X-94.811 Y-44.823 Z0
G0 Z5
X-78.646 Y-105.721
G1 Z-3.502 F849.6
X-78.684 Y-105.731 Z-3.504
X-78.974 Y-105.817 Z-3.532
X-79.058 Y-105.844 Z-3.538
X-79.289 Y-105.922 Z-3.562
X-79.43 Y-105.974 Z-3.573
X-79.553 Y-106.021 Z-3.585
X-79.81 Y-106.129 Z-3.611
X-79.897 Y-106.167 Z-3.62
X-80.161 Y-106.291 Z-3.646
X-80.505 Y-106.467 Z-3.683
X-80.828 Y-106.646 Z-3.719
X-81.139 Y-106.83 Z-3.757
X-81.439 Y-107.017 Z-3.795
X-81.727 Y-107.206 Z-3.833
X-82 Y-107.389 Z-3.871
X-82.135 Y-107.482 Z-3.891
X-82.771 Y-107.928 Z-3.985
X-82.932 Y-108.047 Z-4.015
X-83.06 Y-108.173 Z-4.019
X-83.193 Y-108.314 Z-4.034
X-83.37 Y-108.508 Z-4.063
X-83.665 Y-108.837 Z-4.109
X-83.933 Y-109.145 Z-4.153
X-84.13 Y-109.38 Z-4.185
X-84.33 Y-109.626 Z-4.221
X-84.453 Y-109.782 Z-4.245
X-84.528 Y-109.882 Z-4.258
X-84.675 Y-110.079 Z-4.287
X-84.73 Y-110.157 Z-4.296
X-84.876 Y-110.369 Z-4.327
X-84.93 Y-110.451 Z-4.336
X-85.055 Y-110.648 Z-4.364
X-85.12 Y-110.758 Z-4.375
X-85.211 Y-110.914 Z-4.394
X-85.304 Y-111.088 Z-4.41
X-85.348 Y-111.172 Z-4.418
X-85.466 Y-111.422 Z-4.437
X-85.531 Y-111.575 Z-4.443
X-85.572 Y-111.676 Z-4.45
X-85.621 Y-111.809 Z-4.452
X-85.667 Y-111.936 Z-4.456
X-85.744 Y-112.175 Z-4.459
X-85.766 Y-112.245 Z-4.46
X-85.846 Y-112.539 Z-4.462
X-85.93 Y-112.894 Z-4.463
X-86 Y-113.24
X-86.057 Y-113.577 Z-4.464
X-86.106 Y-113.902 Z-4.466
X-86.147 Y-114.218 Z-4.469
X-86.177 Y-114.474 Z-4.474
X-86.213 Y-114.818 Z-4.479
X-86.265 Y-115.364 Z-4.489
X-86.28 Y-115.552 Z-4.497
X-86.27 Y-115.757 Z-4.483
X-86.243 Y-116.096 Z-4.476
X-86.192 Y-116.672 Z-4.464
X-86.161 Y-116.978 Z-4.458
X-86.125 Y-117.29 Z-4.453
X-86.093 Y-117.542 Z-4.451
X-86.033 Y-117.944 Z-4.447
X-85.97 Y-118.29 Z-4.444
X-85.896 Y-118.639 Z-4.442
X-85.807 Y-118.997 Z-4.439
X-85.706 Y-119.339 Z-4.434
X-85.655 Y-119.491 Z-4.428
X-85.605 Y-119.633 Z-4.426
X-85.565 Y-119.736 Z-4.42
X-85.51 Y-119.876 Z-4.414
X-85.378 Y-120.171 Z-4.394
X-85.241 Y-120.441 Z-4.37
X-85.159 Y-120.586 Z-4.352
X-85.082 Y-120.721 Z-4.339
X-85.026 Y-120.813 Z-4.326
X-84.9 Y-121.014 Z-4.303
X-84.822 Y-121.131 Z-4.285
X-84.696 Y-121.316 Z-4.263
X-84.615 Y-121.43 Z-4.246
X-84.468 Y-121.629 Z-4.221
X-84.401 Y-121.718 Z-4.207
X-84.221 Y-121.949 Z-4.177
X-83.985 Y-122.238 Z-4.137
X-83.762 Y-122.502 Z-4.101
X-83.385 Y-122.935 Z-4.044
X-83.198 Y-123.146 Z-4.015
X-83.124 Y-123.228 Z-4.005
X-83.048 Y-123.308 Z-3.999
X-82.964 Y-123.392 Z-3.997
X-82.928 Y-123.427 Z-3.998
X-82.831 Y-123.5 Z-3.978
X-82.729 Y-123.572 Z-3.962
X-82.247 Y-123.905 Z-3.897
X-82.139 Y-123.978 Z-3.883
X-81.801 Y-124.204 Z-3.838
X-81.467 Y-124.42 Z-3.797
X-81.438 Y-124.438 Z-3.793
X-81.152 Y-124.614 Z-3.759
X-80.85 Y-124.791 Z-3.725
X-80.536 Y-124.965 Z-3.691
X-80.208 Y-125.133 Z-3.658
X-79.879 Y-125.287 Z-3.627
X-79.868 Y-125.292 Z-3.626
X-79.572 Y-125.416 Z-3.599
X-79.397 Y-125.483 Z-3.58
X-79.266 Y-125.531 Z-3.57
X-79.134 Y-125.576 Z-3.556
X-78.949 Y-125.636 Z-3.541
X-78.759 Y-125.693 Z-3.522
X-78.659 Y-125.721 Z-3.514
X-78.388 Y-125.791 Z-3.49
X-78.282 Y-125.817 Z-3.483
X-78.007 Y-125.877 Z-3.462
X-77.658 Y-125.944 Z-3.438
X-77.29 Y-126.003 Z-3.417
X-76.954 Y-126.049 Z-3.4
X-76.895 Y-126.057 Z-3.397
X-76.567 Y-126.095 Z-3.384
X-76.247 Y-126.127 Z-3.372
X-75.926 Y-126.156 Z-3.363
X-75.127 Y-126.216 Z-3.343
X-74.966 Y-126.226 Z-3.339
X-74.828 Y-126.232 Z-3.343
X-74.689 Y-126.225 Z-3.339
X-74.373 Y-126.203 Z-3.342
X-73.768 Y-126.156 Z-3.348
X-73.456 Y-126.129 Z-3.353
X-73.127 Y-126.095 Z-3.36
X-72.891 Y-126.068 Z-3.367
X-72.8 Y-126.057 Z-3.369
X-72.505 Y-126.018 Z-3.381
X-72.128 Y-125.959 Z-3.397
X-71.763 Y-125.892 Z-3.418
X-71.408 Y-125.815 Z-3.441
X-71.064 Y-125.728 Z-3.467
X-70.926 Y-125.689 Z-3.477
X-70.735 Y-125.631 Z-3.496
X-70.545 Y-125.569 Z-3.511
X-70.421 Y-125.526 Z-3.525
X-70.283 Y-125.475 Z-3.535
X-70.176 Y-125.434 Z-3.546
X-69.918 Y-125.328 Z-3.57
X-69.814 Y-125.283 Z-3.581
X-69.561 Y-125.165 Z-3.606
X-69.217 Y-124.991 Z-3.644
X-68.901 Y-124.818 Z-3.68
X-68.583 Y-124.632 Z-3.718
X-68.283 Y-124.448 Z-3.758
X-68.001 Y-124.266 Z-3.796
X-67.894 Y-124.196 Z-3.812
X-67.457 Y-123.901 Z-3.876
X-66.948 Y-123.548 Z-3.953
X-66.874 Y-123.495 Z-3.966
X-66.77 Y-123.418 Z-3.988
X-66.646 Y-123.295 Z-3.992
X-66.572 Y-123.218 Z-3.999
X-66.501 Y-123.14 Z-4.01
X-66.142 Y-122.739 Z-4.071
X-66.031 Y-122.614 Z-4.091
X-65.751 Y-122.289 Z-4.14
X-65.555 Y-122.054 Z-4.174
X-65.354 Y-121.803 Z-4.212
X-65.235 Y-121.65 Z-4.237
X-65.15 Y-121.536 Z-4.252
X-65.011 Y-121.346 Z-4.282
X-64.948 Y-121.257 Z-4.293
X-64.809 Y-121.052 Z-4.324
X-64.75 Y-120.961 Z-4.334
X-64.63 Y-120.768 Z-4.362
X-64.56 Y-120.649 Z-4.374
X-64.495 Y-120.536 Z-4.388
X-64.374 Y-120.308 Z-4.411
X-64.336 Y-120.235 Z-4.418
X-64.219 Y-119.981 Z-4.438
X-64.152 Y-119.82 Z-4.444
X-64.113 Y-119.72 Z-4.45
X-64.062 Y-119.58 Z-4.452
X-64.017 Y-119.451 Z-4.456
X-63.94 Y-119.205 Z-4.459
X-63.918 Y-119.131 Z-4.46
X-63.84 Y-118.838 Z-4.462
X-63.759 Y-118.481
X-63.691 Y-118.128 Z-4.463
X-63.635 Y-117.79
X-63.588 Y-117.46 Z-4.465
X-63.565 Y-117.276 Z-4.468
X-63.516 Y-116.845 Z-4.473
X-63.485 Y-116.53 Z-4.477
X-63.435 Y-115.962 Z-4.486
X-63.42 Y-115.735 Z-4.496
X-63.432 Y-115.535 Z-4.486
X-63.459 Y-115.231 Z-4.48
X-63.513 Y-114.667 Z-4.47
X-63.551 Y-114.324 Z-4.465
X-63.584 Y-114.061 Z-4.462
X-63.622 Y-113.784 Z-4.461
X-63.681 Y-113.416 Z-4.458
X-63.745 Y-113.079 Z-4.457
X-63.821 Y-112.735 Z-4.456
X-63.912 Y-112.38 Z-4.454
X-64.017 Y-112.037 Z-4.451
X-64.068 Y-111.893 Z-4.445
X-64.119 Y-111.753 Z-4.443
X-64.214 Y-111.519 Z-4.431
X-64.344 Y-111.235 Z-4.411
X-64.482 Y-110.971 Z-4.387
X-64.566 Y-110.824 Z-4.369
X-64.642 Y-110.696 Z-4.356
X-64.699 Y-110.604 Z-4.342
X-64.821 Y-110.413 Z-4.32
X-64.899 Y-110.296 Z-4.302
X-65.024 Y-110.117 Z-4.279
X-65.105 Y-110.006 Z-4.261
X-65.25 Y-109.81 Z-4.235
X-65.313 Y-109.729 Z-4.222
X-65.495 Y-109.497 Z-4.189
X-65.726 Y-109.217 Z-4.148
X-65.925 Y-108.985 Z-4.114
X-66.121 Y-108.759 Z-4.082
X-66.502 Y-108.333 Z-4.02
X-66.58 Y-108.248 Z-4.009
X-66.66 Y-108.165 Z-4.003
X-66.751 Y-108.074 Z-4
X-66.789 Y-108.038 Z-4.001
X-66.897 Y-107.958 Z-3.98
X-67.17 Y-107.765 Z-3.94
X-67.583 Y-107.476 Z-3.88
X-67.919 Y-107.248 Z-3.833
X-68.225 Y-107.047 Z-3.791
X-68.516 Y-106.864 Z-3.754
X-68.818 Y-106.684 Z-3.718
X-69.132 Y-106.507 Z-3.683
X-69.459 Y-106.337 Z-3.649
X-69.806 Y-106.171 Z-3.615
X-70.128 Y-106.034 Z-3.584
X-70.284 Y-105.974 Z-3.568
X-70.432 Y-105.919 Z-3.556
X-70.547 Y-105.88 Z-3.543
X-70.656 Y-105.843 Z-3.533
X-70.747 Y-105.815 Z-3.527
X-70.923 Y-105.762 Z-3.509
X-71.039 Y-105.729 Z-3.5
X-71.31 Y-105.659 Z-3.477
X-71.401 Y-105.637 Z-3.471
X-71.676 Y-105.577 Z-3.45
X-72.05 Y-105.506 Z-3.426
X-72.402 Y-105.45 Z-3.406
X-72.755 Y-105.402 Z-3.39
X-73.1 Y-105.363 Z-3.377
X-73.3 Y-105.343 Z-3.371
X-73.71 Y-105.306 Z-3.36
X-74.078 Y-105.278 Z-3.352
X-74.686 Y-105.237 Z-3.342
X-74.861 Y-105.23 Z-3.344
X-74.983 Y-105.234 Z-3.341
X-75.595 Y-105.275 Z-3.352
X-75.941 Y-105.301 Z-3.359
X-76.255 Y-105.328 Z-3.367
X-76.575 Y-105.359 Z-3.377
X-76.822 Y-105.386 Z-3.386
X-76.903 Y-105.395 Z-3.389
X-77.211 Y-105.435 Z-3.403
X-77.587 Y-105.493 Z-3.424
X-77.951 Y-105.559 Z-3.447
X-78.306 Y-105.635 Z-3.473
X-78.646 Y-105.721 Z-3.502
G0 Z5
X-71.293 Y-66.944
G1 Z-3.438 F849.6
X-70.938 Y-67.002 Z-3.417
X-70.592 Y-67.05 Z-3.4
X-70.253 Y-67.09 Z-3.385
X-70.025 Y-67.114 Z-3.378
X-69.614 Y-67.152 Z-3.365
X-69.281 Y-67.179 Z-3.355
X-68.768 Y-67.216 Z-3.343
X-68.606 Y-67.226 Z-3.34
X-68.47 Y-67.232 Z-3.343
X-68.331 Y-67.225 Z-3.34
X-68.015 Y-67.203 Z-3.342
X-67.41 Y-67.156 Z-3.348
X-67.094 Y-67.128 Z-3.353
X-66.771 Y-67.096 Z-3.359
X-66.533 Y-67.069 Z-3.367
X-66.441 Y-67.057 Z-3.369
X-66.145 Y-67.018 Z-3.38
X-65.768 Y-66.959 Z-3.397
X-65.404 Y-66.892 Z-3.417
X-65.048 Y-66.815 Z-3.441
X-64.706 Y-66.728 Z-3.467
X-64.676 Y-66.72 Z-3.469
X-64.377 Y-66.631 Z-3.495
X-64.188 Y-66.57 Z-3.51
X-64.061 Y-66.526 Z-3.524
X-63.926 Y-66.476 Z-3.535
X-63.814 Y-66.433 Z-3.546
X-63.556 Y-66.326 Z-3.57
X-63.455 Y-66.283 Z-3.581
X-63.202 Y-66.164 Z-3.606
X-62.863 Y-65.993 Z-3.643
X-62.537 Y-65.815 Z-3.68
X-62.226 Y-65.633 Z-3.718
X-61.926 Y-65.449 Z-3.757
X-61.638 Y-65.264 Z-3.797
X-61.361 Y-65.08 Z-3.837
X-61.094 Y-64.898 Z-3.877
X-60.588 Y-64.547 Z-3.953
X-60.515 Y-64.495 Z-3.966
X-60.411 Y-64.418 Z-3.988
X-60.286 Y-64.294 Z-3.992
X-60.144 Y-64.143 Z-4.01
X-59.971 Y-63.951 Z-4.04
X-59.672 Y-63.614 Z-4.091
X-59.393 Y-63.29 Z-4.139
X-59.195 Y-63.053 Z-4.175
X-58.994 Y-62.802 Z-4.212
X-58.876 Y-62.65 Z-4.237
X-58.791 Y-62.537 Z-4.252
X-58.652 Y-62.346 Z-4.282
X-58.591 Y-62.259 Z-4.293
X-58.45 Y-62.051 Z-4.324
X-58.392 Y-61.962 Z-4.334
X-58.27 Y-61.767 Z-4.362
X-58.199 Y-61.647 Z-4.374
X-58.137 Y-61.537 Z-4.388
X-58.016 Y-61.31 Z-4.41
X-57.977 Y-61.235 Z-4.418
X-57.86 Y-60.981 Z-4.437
X-57.793 Y-60.818 Z-4.444
X-57.753 Y-60.718 Z-4.45
X-57.702 Y-60.578 Z-4.452
X-57.658 Y-60.45 Z-4.456
X-57.581 Y-60.204 Z-4.459
X-57.559 Y-60.132 Z-4.461
X-57.482 Y-59.839 Z-4.462
X-57.4 Y-59.481
X-57.332 Y-59.13 Z-4.463
X-57.276 Y-58.791
X-57.229 Y-58.459 Z-4.465
X-57.206 Y-58.276 Z-4.468
X-57.157 Y-57.845 Z-4.473
X-57.126 Y-57.53 Z-4.477
X-57.076 Y-56.963 Z-4.486
X-57.061 Y-56.735 Z-4.496
X-57.073 Y-56.536 Z-4.486
X-57.1 Y-56.23 Z-4.48
X-57.154 Y-55.666 Z-4.47
X-57.193 Y-55.323 Z-4.465
X-57.225 Y-55.061 Z-4.462
X-57.263 Y-54.784 Z-4.461
X-57.322 Y-54.416 Z-4.458
X-57.386 Y-54.079 Z-4.457
X-57.462 Y-53.733 Z-4.456
X-57.554 Y-53.38 Z-4.454
X-57.659 Y-53.036 Z-4.451
X-57.71 Y-52.891 Z-4.445
X-57.76 Y-52.754 Z-4.443
X-57.855 Y-52.518 Z-4.431
X-57.985 Y-52.234 Z-4.411
X-58.123 Y-51.971 Z-4.387
X-58.206 Y-51.826 Z-4.369
X-58.282 Y-51.697 Z-4.356
X-58.339 Y-51.605 Z-4.342
X-58.462 Y-51.412 Z-4.319
X-58.541 Y-51.296 Z-4.301
X-58.666 Y-51.116 Z-4.278
X-58.747 Y-51.005 Z-4.261
X-58.891 Y-50.811 Z-4.235
X-58.954 Y-50.729 Z-4.222
X-59.137 Y-50.497 Z-4.189
X-59.366 Y-50.22 Z-4.149
X-59.567 Y-49.984 Z-4.114
X-59.764 Y-49.758 Z-4.082
X-60.141 Y-49.335 Z-4.02
X-60.22 Y-49.249 Z-4.009
X-60.3 Y-49.165 Z-4.003
X-60.393 Y-49.073 Z-4
X-60.429 Y-49.039 Z-4.001
X-60.539 Y-48.958 Z-3.98
X-60.812 Y-48.764 Z-3.94
X-61.225 Y-48.476 Z-3.88
X-61.559 Y-48.249 Z-3.833
X-61.866 Y-48.048 Z-3.792
X-62.156 Y-47.866 Z-3.755
X-62.458 Y-47.685 Z-3.718
X-62.773 Y-47.508 Z-3.683
X-63.102 Y-47.336 Z-3.649
X-63.446 Y-47.172 Z-3.615
X-63.769 Y-47.034 Z-3.585
X-63.92 Y-46.976 Z-3.569
X-64.073 Y-46.919 Z-3.556
X-64.183 Y-46.881 Z-3.544
X-64.301 Y-46.842 Z-3.533
X-64.387 Y-46.814 Z-3.527
X-64.568 Y-46.761 Z-3.509
X-64.677 Y-46.73 Z-3.5
X-64.948 Y-46.66 Z-3.477
X-65.046 Y-46.636 Z-3.47
X-65.321 Y-46.576 Z-3.449
X-65.688 Y-46.507 Z-3.426
X-66.046 Y-46.45 Z-3.406
X-66.396 Y-46.402 Z-3.39
X-66.738 Y-46.363 Z-3.377
X-66.941 Y-46.343 Z-3.371
X-67.349 Y-46.306 Z-3.36
X-67.717 Y-46.279 Z-3.352
X-68.328 Y-46.238 Z-3.341
X-68.502 Y-46.23 Z-3.344
X-68.627 Y-46.235 Z-3.341
X-68.969 Y-46.257 Z-3.346
X-69.577 Y-46.301 Z-3.359
X-69.893 Y-46.328 Z-3.366
X-70.217 Y-46.359 Z-3.376
X-70.463 Y-46.386 Z-3.386
X-70.549 Y-46.396 Z-3.389
X-70.851 Y-46.435 Z-3.404
X-71.229 Y-46.493 Z-3.424
X-71.589 Y-46.559 Z-3.447
X-71.948 Y-46.636 Z-3.473
X-72.289 Y-46.722 Z-3.502
X-72.321 Y-46.73 Z-3.504
X-72.616 Y-46.817 Z-3.532
X-72.814 Y-46.882 Z-3.548
X-72.93 Y-46.922 Z-3.562
X-73.076 Y-46.976 Z-3.574
X-73.19 Y-47.02 Z-3.585
X-73.448 Y-47.128 Z-3.61
X-73.537 Y-47.166 Z-3.62
X-73.803 Y-47.291 Z-3.646
X-74.143 Y-47.465 Z-3.683
X-74.469 Y-47.646 Z-3.719
X-74.78 Y-47.83 Z-3.756
X-75.08 Y-48.018 Z-3.794
X-75.368 Y-48.205 Z-3.833
X-75.644 Y-48.391 Z-3.872
X-75.912 Y-48.576 Z-3.911
X-76.415 Y-48.931 Z-3.985
X-76.574 Y-49.048 Z-4.015
X-76.701 Y-49.173 Z-4.019
X-76.833 Y-49.313 Z-4.034
X-77.01 Y-49.507 Z-4.062
X-77.307 Y-49.838 Z-4.11
X-77.575 Y-50.146 Z-4.153
X-77.771 Y-50.379 Z-4.185
X-77.97 Y-50.625 Z-4.221
X-78.093 Y-50.782 Z-4.245
X-78.17 Y-50.883 Z-4.258
X-78.316 Y-51.08 Z-4.287
X-78.371 Y-51.158 Z-4.297
X-78.517 Y-51.369 Z-4.327
X-78.568 Y-51.448 Z-4.336
X-78.696 Y-51.648 Z-4.363
X-78.761 Y-51.758 Z-4.374
X-78.853 Y-51.916 Z-4.394
X-78.945 Y-52.087 Z-4.409
X-78.989 Y-52.172 Z-4.418
X-79.107 Y-52.421 Z-4.437
X-79.172 Y-52.575 Z-4.443
X-79.213 Y-52.676 Z-4.45
X-79.262 Y-52.809 Z-4.452
X-79.309 Y-52.938 Z-4.456
X-79.386 Y-53.178 Z-4.459
X-79.407 Y-53.245 Z-4.461
X-79.488 Y-53.539 Z-4.462
X-79.572 Y-53.895 Z-4.463
X-79.641 Y-54.24
X-79.698 Y-54.576 Z-4.464
X-79.747 Y-54.902 Z-4.466
X-79.788 Y-55.218 Z-4.47
X-79.818 Y-55.473 Z-4.474
X-79.854 Y-55.818 Z-4.479
X-79.906 Y-56.365 Z-4.489
X-79.921 Y-56.552 Z-4.497
X-79.911 Y-56.756 Z-4.483
X-79.884 Y-57.097 Z-4.476
X-79.834 Y-57.673 Z-4.464
X-79.802 Y-57.977 Z-4.458
X-79.766 Y-58.289 Z-4.453
X-79.734 Y-58.542 Z-4.451
X-79.674 Y-58.944 Z-4.447
X-79.612 Y-59.288 Z-4.444
X-79.537 Y-59.64 Z-4.442
X-79.448 Y-59.998 Z-4.439
X-79.348 Y-60.339 Z-4.434
X-79.296 Y-60.492 Z-4.428
X-79.247 Y-60.632 Z-4.426
X-79.206 Y-60.737 Z-4.42
X-79.152 Y-60.873 Z-4.414
X-79.02 Y-61.171 Z-4.394
X-78.882 Y-61.44 Z-4.37
X-78.801 Y-61.585 Z-4.352
X-78.723 Y-61.721 Z-4.339
X-78.668 Y-61.811 Z-4.326
X-78.541 Y-62.014 Z-4.303
X-78.464 Y-62.131 Z-4.285
X-78.337 Y-62.316 Z-4.263
X-78.255 Y-62.431 Z-4.246
X-78.11 Y-62.628 Z-4.221
X-78.045 Y-62.714 Z-4.207
X-77.862 Y-62.949 Z-4.177
X-77.627 Y-63.237 Z-4.137
X-77.422 Y-63.48 Z-4.104
X-77.222 Y-63.712 Z-4.073
X-76.838 Y-64.146 Z-4.014
X-76.764 Y-64.228 Z-4.005
X-76.689 Y-64.307 Z-3.999
X-76.606 Y-64.391 Z-3.997
X-76.568 Y-64.428
X-76.472 Y-64.5 Z-3.978
X-76.134 Y-64.736 Z-3.93
X-75.78 Y-64.979 Z-3.883
X-75.442 Y-65.204 Z-3.839
X-75.11 Y-65.418 Z-3.797
X-75.081 Y-65.437 Z-3.793
X-74.792 Y-65.615 Z-3.759
X-74.491 Y-65.791 Z-3.725
X-74.177 Y-65.964 Z-3.691
X-73.85 Y-66.132 Z-3.658
X-73.519 Y-66.287 Z-3.627
X-73.51 Y-66.291 Z-3.626
X-73.213 Y-66.416 Z-3.599
X-73.042 Y-66.482 Z-3.58
X-72.906 Y-66.532 Z-3.57
X-72.779 Y-66.575 Z-3.556
X-72.666 Y-66.612 Z-3.546
X-72.59 Y-66.637 Z-3.541
X-72.399 Y-66.693 Z-3.521
X-72.295 Y-66.723 Z-3.513
X-72.024 Y-66.792 Z-3.49
X-71.929 Y-66.815 Z-3.483
X-71.655 Y-66.875 Z-3.462
X-71.293 Y-66.944 Z-3.438
G0 Z5
X-56.444 Y-129.267
G1 Z0 F849.6
X-56.393 Y-129.212 Z-0.02
X-56.312 Y-129.126 Z-0.055
X-56.256 Y-129.07 Z-0.081
X-56.169 Y-128.987 Z-0.127
X-56.067 Y-128.897 Z-0.187
X-55.991 Y-128.833 Z-0.236
X-55.888 Y-128.753 Z-0.307
X-55.782 Y-128.675 Z-0.385
X-55.595 Y-128.542 Z-0.526
X-55.514 Y-128.489 Z-0.592
X-55.428 Y-128.439 Z-0.668
X-55.337 Y-128.393 Z-0.756
X-55.24 Y-128.351 Z-0.855
X-55.138 Y-128.313 Z-0.965
X-55.017 Y-128.27 Z-1.099
X-54.622 Y-128.133 Z-1.536
X-54.216 Y-127.998 Z-1.992
X-53.882 Y-127.895 Z-2.374
X-53.552 Y-127.799 Z-2.758
X-53.208 Y-127.705 Z-3.163
X-52.843 Y-127.611 Z-3.598
X-52.889 Y-127.306 Z-3.239
X-52.965 Y-126.769 Z-2.614
X-52.987 Y-126.595 Z-2.415
X-53.006 Y-126.353 Z-2.154
X-53.023 Y-126.067 Z-1.856
X-53.031 Y-125.856 Z-1.641
X-53.035 Y-125.686 Z-1.472
X-53.034 Y-125.518 Z-1.311
X-53.029 Y-125.335 Z-1.143
X-53.023 Y-125.219 Z-1.041
X-53.013 Y-125.103 Z-0.943
X-53.002 Y-124.992 Z-0.853
X-52.983 Y-124.85 Z-0.743
X-52.959 Y-124.699 Z-0.633
X-52.94 Y-124.596 Z-0.562
X-52.909 Y-124.448 Z-0.464
X-52.865 Y-124.255 Z-0.341
X-52.852 Y-124.196 Z-0.304
X-52.819 Y-124.081 Z-0.241
X-52.743 Y-123.848 Z-0.126
X-52.71 Y-123.75 Z-0.081
X-52.723 Y-123.686 Z0
X-52.71 Y-123.75 Z-0.081
X-52.661 Y-123.727 Z-0.001
X-52.71 Y-123.75 Z-0.081
X-52.743 Y-123.848 Z-0.126
X-52.819 Y-124.081 Z-0.241
X-52.852 Y-124.196 Z-0.304
X-52.865 Y-124.255 Z-0.341
X-52.909 Y-124.448 Z-0.464
X-52.94 Y-124.596 Z-0.562
X-52.959 Y-124.699 Z-0.633
X-52.983 Y-124.85 Z-0.743
X-53.002 Y-124.992 Z-0.853
X-53.013 Y-125.103 Z-0.943
X-53.023 Y-125.219 Z-1.041
X-53.029 Y-125.335 Z-1.143
X-53.034 Y-125.518 Z-1.311
X-53.035 Y-125.686 Z-1.472
X-53.031 Y-125.856 Z-1.641
X-53.023 Y-126.067 Z-1.856
X-53.006 Y-126.353 Z-2.154
X-52.987 Y-126.595 Z-2.415
X-52.965 Y-126.769 Z-2.614
X-52.889 Y-127.306 Z-3.239
X-52.843 Y-127.611 Z-3.598
X-52.695 Y-127.709 Z-3.572
X-52.478 Y-127.852 Z-3.541
X-52.283 Y-127.978 Z-3.521
X-52.145 Y-128.065 Z-3.512
X-51.928 Y-128.2 Z-3.501
X-51.709 Y-128.33 Z-3.491
X-51.422 Y-128.496 Z-3.484
X-51.139 Y-128.656 Z-3.481
X-50.943 Y-128.766 Z-3.479
X-50.768 Y-128.858 Z-3.486
X-50.274 Y-129.111 Z-3.506
X-49.844 Y-129.326 Z-3.521
X-49.507 Y-129.49 Z-3.531
X-49.13 Y-129.667 Z-3.54
X-49.067 Y-129.696 Z-3.542
X-48.758 Y-129.834 Z-3.546
X-48.429 Y-129.974 Z-3.551
X-48.102 Y-130.109 Z-3.556
X-48.012 Y-130.144 Z-3.557
X-47.602 Y-130.302 Z-3.565
X-47.224 Y-130.438 Z-3.576
X-46.815 Y-130.577 Z-3.596
X-46.405 Y-130.709 Z-3.623
X-46.124 Y-130.794 Z-3.649
X-45.992 Y-130.825 Z-3.648
X-45.527 Y-130.929 Z-3.655
X-45.168 Y-131.002 Z-3.665
X-44.76 Y-131.078 Z-3.682
X-44.357 Y-131.145 Z-3.7
X-44.002 Y-131.196 Z-3.714
X-43.72 Y-131.232 Z-3.724
X-43.51 Y-131.256 Z-3.729
X-43.194 Y-131.287 Z-3.732
X-43.079 Y-131.297 Z-3.733
X-42.627 Y-131.332 Z-3.732
X-42.069 Y-131.365 Z-3.722
X-41.608 Y-131.387 Z-3.71
X-41.416 Y-131.389 Z-3.717
X-40.779 Y-131.379 Z-3.755
X-40.262 Y-131.349 Z-3.753
X-39.851 Y-131.323 Z-3.754
X-39.448 Y-131.293 Z-3.76
X-39.025 Y-131.257 Z-3.768
X-38.662 Y-131.22 Z-3.78
X-38.604 Y-131.214 Z-3.782
X-38.176 Y-131.165 Z-3.803
X-37.728 Y-131.104 Z-3.83
X-37.572 Y-131.08 Z-3.843
X-37.289 Y-131.033 Z-3.864
X-36.935 Y-130.968 Z-3.897
X-36.836 Y-130.948 Z-3.906
X-36.372 Y-130.848 Z-3.959
X-36.029 Y-130.762 Z-3.999
X-35.807 Y-130.702 Z-4.032
X-35.461 Y-130.598 Z-4.079
X-35.27 Y-130.538 Z-4.11
X-35.026 Y-130.454 Z-4.143
X-34.76 Y-130.358 Z-4.186
X-34.596 Y-130.294 Z-4.207
X-34.26 Y-130.157 Z-4.258
X-34.198 Y-130.13 Z-4.265
X-33.794 Y-129.948 Z-4.318
X-33.379 Y-129.739 Z-4.362
X-32.946 Y-129.501 Z-4.393
X-32.716 Y-129.364 Z-4.4
X-32.508 Y-129.239 Z-4.408
X-32.376 Y-129.156 Z-4.407
X-32.059 Y-128.953 Z-4.408
X-31.666 Y-128.689 Z-4.395
X-31.579 Y-128.626 Z-4.396
X-31.456 Y-128.531 Z-4.399
X-31.336 Y-128.433 Z-4.41
X-31.156 Y-128.276 Z-4.439
X-30.645 Y-127.809 Z-4.516
X-30.32 Y-127.5 Z-4.562
X-30.269 Y-127.452 Z-4.57
X-30.013 Y-127.201 Z-4.604
X-29.693 Y-126.88 Z-4.653
X-29.36 Y-126.535 Z-4.711
X-29.051 Y-126.202 Z-4.774
X-28.71 Y-125.822 Z-4.858
X-28.441 Y-125.417 Z-4.85
X-28.246 Y-125.109 Z-4.854
X-28.164 Y-124.975 Z-4.857
X-27.98 Y-124.663 Z-4.872
X-27.861 Y-124.45 Z-4.886
X-27.69 Y-124.13 Z-4.91
X-27.642 Y-124.034 Z-4.918
X-27.536 Y-123.817 Z-4.941
X-27.486 Y-123.709 Z-4.949
X-27.397 Y-123.513 Z-4.97
X-27.273 Y-123.219 Z-5
X-27.216 Y-123.073 Z-5.013
X-27.165 Y-122.937 Z-5.028
X-27.068 Y-122.663 Z-5.05
X-26.985 Y-122.396 Z-5.07
X-26.909 Y-122.125 Z-5.083
X-26.822 Y-121.768 Z-5.094
X-26.774 Y-121.54 Z-5.101
X-26.711 Y-121.21 Z-5.104
X-26.642 Y-120.782
X-26.609 Y-120.551 Z-5.105
X-26.581 Y-120.338 Z-5.103
X-26.563 Y-120.191
X-26.522 Y-119.818 Z-5.099
X-26.484 Y-119.43 Z-5.094
X-26.418 Y-118.672 Z-5.083
X-26.414 Y-118.62 Z-5.084
X-26.403 Y-118.405 Z-5.092
X-26.411 Y-118.236 Z-5.088
X-26.428 Y-117.992 Z-5.094
X-26.475 Y-117.407 Z-5.11
X-26.501 Y-117.128 Z-5.117
X-26.528 Y-116.858 Z-5.121
X-26.577 Y-116.448 Z-5.124
X-26.59 Y-116.349 Z-5.125
X-26.641 Y-116.002 Z-5.122
X-26.661 Y-115.88 Z-5.121
X-26.705 Y-115.634 Z-5.113
X-26.743 Y-115.448 Z-5.106
X-26.804 Y-115.182 Z-5.09
X-26.843 Y-115.023 Z-5.079
X-26.925 Y-114.722 Z-5.054
X-26.97 Y-114.569 Z-5.042
X-27.07 Y-114.254 Z-5.013
X-27.129 Y-114.081 Z-4.999
X-27.237 Y-113.779 Z-4.974
X-27.318 Y-113.567 Z-4.96
X-27.426 Y-113.296 Z-4.944
X-27.492 Y-113.139 Z-4.938
X-27.67 Y-112.729 Z-4.931
X-27.715 Y-112.632 Z-4.932
X-27.885 Y-112.323 Z-4.905
X-28.003 Y-112.116 Z-4.892
X-28.153 Y-111.864 Z-4.879
X-28.25 Y-111.707 Z-4.874
X-28.496 Y-111.327 Z-4.866
X-28.616 Y-111.154 Z-4.864
X-28.792 Y-110.909 Z-4.857
X-28.852 Y-110.83 Z-4.856
X-29.017 Y-110.618 Z-4.846
X-29.082 Y-110.537 Z-4.842
X-29.196 Y-110.402 Z-4.833
X-29.385 Y-110.187 Z-4.812
X-29.452 Y-110.114 Z-4.805
X-29.687 Y-109.865 Z-4.774
X-29.741 Y-109.809 Z-4.768
X-30.062 Y-109.488 Z-4.722
X-30.411 Y-109.154 Z-4.671
X-30.787 Y-108.804 Z-4.617
X-30.807 Y-108.786 Z-4.614
X-31.193 Y-108.484 Z-4.497
X-31.308 Y-108.396 Z-4.465
X-31.425 Y-108.311 Z-4.439
X-31.586 Y-108.203 Z-4.412
X-31.749 Y-108.1 Z-4.397
X-32.067 Y-107.909 Z-4.376
X-32.413 Y-107.705 Z-4.351
X-32.767 Y-107.5 Z-4.324
X-33.124 Y-107.301 Z-4.296
X-33.497 Y-107.101 Z-4.265
X-33.881 Y-106.907 Z-4.232
X-34.276 Y-106.719 Z-4.196
X-34.608 Y-106.573 Z-4.164
X-34.696 Y-106.536 Z-4.154
X-34.968 Y-106.427 Z-4.129
X-35.123 Y-106.369 Z-4.11
X-35.341 Y-106.291 Z-4.088
X-35.569 Y-106.215 Z-4.061
X-35.726 Y-106.166 Z-4.046
X-36.02 Y-106.08 Z-4.011
X-36.125 Y-106.052 Z-4.002
X-36.482 Y-105.961 Z-3.963
X-36.543 Y-105.947 Z-3.958
X-36.932 Y-105.863 Z-3.921
X-36.97 Y-105.856 Z-3.919
X-37.376 Y-105.782 Z-3.884
X-37.411 Y-105.776 Z-3.882
X-37.808 Y-105.714 Z-3.852
X-37.869 Y-105.706 Z-3.849
X-38.241 Y-105.657 Z-3.826
X-38.336 Y-105.646 Z-3.822
X-38.668 Y-105.61 Z-3.804
X-39.031 Y-105.576 Z-3.79
X-39.303 Y-105.554 Z-3.782
X-39.49 Y-105.539 Z-3.775
X-39.886 Y-105.513 Z-3.767
X-40.308 Y-105.488 Z-3.761
X-40.739 Y-105.466 Z-3.757
X-41.423 Y-105.457 Z-3.716
X-41.663 Y-105.461 Z-3.71
X-42.076 Y-105.481 Z-3.72
X-42.145 Y-105.485 Z-3.722
X-42.617 Y-105.515 Z-3.729
X-42.84 Y-105.531 Z-3.731
X-43.285 Y-105.569 Z-3.728
X-43.718 Y-105.616 Z-3.72
X-44.003 Y-105.652 Z-3.71
X-44.146 Y-105.673 Z-3.705
X-44.415 Y-105.713 Z-3.692
X-44.819 Y-105.782 Z-3.675
X-45.293 Y-105.873 Z-3.656
X-45.646 Y-105.947 Z-3.646
X-46.063 Y-106.042 Z-3.642
X-46.132 Y-106.059
X-46.487 Y-106.167 Z-3.611
X-46.887 Y-106.298 Z-3.587
X-47.352 Y-106.459 Z-3.568
X-47.685 Y-106.581 Z-3.559
X-48.116 Y-106.749 Z-3.553
X-48.441 Y-106.881 Z-3.548
X-48.838 Y-107.053 Z-3.544
X-49.156 Y-107.197 Z-3.538
X-49.513 Y-107.365 Z-3.529
X-49.547 Y-107.381
X-50.034 Y-107.621 Z-3.515
X-50.524 Y-107.869 Z-3.497
X-50.836 Y-108.031 Z-3.483
X-51.015 Y-108.128 Z-3.481
X-51.443 Y-108.37 Z-3.485
X-51.819 Y-108.589 Z-3.496
X-52.039 Y-108.723 Z-3.507
X-52.173 Y-108.809 Z-3.513
X-52.4 Y-108.956 Z-3.529
X-52.52 Y-109.035 Z-3.543
X-52.631 Y-109.109 Z-3.557
X-52.85 Y-109.255 Z-3.594
X-53.146 Y-109.18 Z-3.24
X-53.473 Y-109.093 Z-2.853
X-53.684 Y-109.035 Z-2.605
X-53.988 Y-108.946 Z-2.253
X-54.18 Y-108.886 Z-2.033
X-54.484 Y-108.788 Z-1.69
X-54.761 Y-108.695 Z-1.381
X-55.128 Y-108.568 Z-0.974
X-55.233 Y-108.529 Z-0.861
X-55.332 Y-108.486 Z-0.759
X-55.425 Y-108.44 Z-0.67
X-55.513 Y-108.389 Z-0.592
X-55.595 Y-108.335 Z-0.525
X-55.787 Y-108.199 Z-0.38
X-55.888 Y-108.124 Z-0.306
X-55.991 Y-108.044 Z-0.235
X-56.067 Y-107.981 Z-0.186
X-56.16 Y-107.899 Z-0.132
X-56.215 Y-107.847 Z-0.102
X-56.269 Y-107.794 Z-0.074
X-56.353 Y-107.708 Z-0.036
X-56.433 Y-107.622 Z-0.004
X-56.442 Y-107.612 Z0
X-56.433 Y-107.622 Z-0.004
X-56.353 Y-107.708 Z-0.036
X-56.269 Y-107.794 Z-0.074
X-56.215 Y-107.847 Z-0.102
X-56.16 Y-107.899 Z-0.132
X-56.067 Y-107.981 Z-0.186
X-55.991 Y-108.044 Z-0.235
X-55.888 Y-108.124 Z-0.306
X-55.787 Y-108.199 Z-0.38
