%
(1001)
(origin stock top)
(T1  D=12.7 CR=0 - ZMIN=-32 - flat end mill)
G90 G94
G17
G21

(2D Adaptive1)
M9
T1 M6
S6000 M3
G54
G0 X-117.888 Y-2.967
Z15
Z5
Z2.5
G3 X-113.554 Y-0.474 Z1.675 I2.167 J1.247 F283.3
X-117.888 Y-2.967 Z0.849 I-2.167 J-1.247
X-113.554 Y-0.474 Z0.024 I2.167 J1.247
X-117.888 Y-2.967 Z-0.802 I-2.167 J-1.247
X-113.554 Y-0.474 Z-1.627 I2.167 J1.247
X-117.888 Y-2.967 Z-2.453 I-2.167 J-1.247
X-113.554 Y-0.474 Z-3.278 I2.167 J1.247
X-117.888 Y-2.967 Z-4.104 I-2.167 J-1.247
X-113.554 Y-0.474 Z-4.929 I2.167 J1.247
X-117.888 Y-2.967 Z-5.755 I-2.167 J-1.247
X-113.554 Y-0.474 Z-6.58 I2.167 J1.247
X-117.888 Y-2.967 Z-7.406 I-2.167 J-1.247
X-113.554 Y-0.474 Z-8.231 I2.167 J1.247
X-117.888 Y-2.967 Z-9.057 I-2.167 J-1.247
X-113.554 Y-0.474 Z-9.882 I2.167 J1.247
X-117.888 Y-2.967 Z-10.708 I-2.167 J-1.247
X-113.554 Y-0.474 Z-11.533 I2.167 J1.247
X-117.888 Y-2.967 Z-12.359 I-2.167 J-1.247
X-113.554 Y-0.474 Z-13.184 I2.167 J1.247
X-117.888 Y-2.967 Z-14.01 I-2.167 J-1.247
X-113.554 Y-0.474 Z-14.835 I2.167 J1.247
X-117.888 Y-2.967 Z-15.661 I-2.167 J-1.247
X-113.554 Y-0.474 Z-16.486 I2.167 J1.247
X-117.888 Y-2.967 Z-17.312 I-2.167 J-1.247
X-113.221 Y-1.72 Z-18 I2.167 J1.247
X-118.221 I-2.5
X-113.221 I2.5
G1 X-113.214 Y-1.379 F849.6
X-113.185 Y-1.038
X-113.135 Y-0.7
X-113.063 Y-0.366
X-112.97 Y-0.038
X-112.857 Y0.285
X-112.746 Y0.638
X-112.706 Y1.006
X-112.74 Y1.375
X-112.845 Y1.73
X-113.017 Y2.057
X-113.251 Y2.344
X-113.536 Y2.58
X-113.862 Y2.756
X-114.216 Y2.864
X-114.585 Y2.9
G3 X-114.845 Y2.873 J-1.27
G1 X-114.91 Y2.861
X-115.362 Y2.791
X-117.142 Y2.515
G2 X-117.985 Y2.679 I-0.195 J1.255
G3 X-118.739 Y2.9 I-0.809 J-1.36
G1 X-120.074
X-120.116 Y2.898
X-119.991 Y1.537
X-119.934 Y0.856
X-119.866 Y0.184
X-119.8 Y-0.292
X-119.733 Y-0.677
X-119.664 Y-1.004
X-119.592 Y-1.292
X-119.518 Y-1.551
X-119.441 Y-1.786
X-119.362 Y-2.002
X-119.281 Y-2.202
X-119.197 Y-2.389
X-119.112 Y-2.563
X-119.024 Y-2.726
X-118.934 Y-2.88
X-118.842 Y-3.025
X-118.749 Y-3.162
X-118.654 Y-3.292
X-118.557 Y-3.414
X-118.458 Y-3.53
X-118.357 Y-3.641
X-118.251 Y-3.748
X-118.142 Y-3.851
X-118.029 Y-3.95
X-117.913 Y-4.044
X-117.793 Y-4.134
X-117.669 Y-4.219
X-117.542 Y-4.299
X-117.412 Y-4.373
X-117.279 Y-4.442
X-117.143 Y-4.506
X-117.004 Y-4.563
X-116.863 Y-4.614
X-116.72 Y-4.66
X-116.576 Y-4.698
X-116.429 Y-4.731
X-116.281 Y-4.756
X-116.132 Y-4.775
X-115.983 Y-4.787
X-115.833 Y-4.792
X-115.683 Y-4.79
X-115.533 Y-4.782
X-115.384 Y-4.766
X-115.236 Y-4.743
X-115.089 Y-4.713
X-114.943 Y-4.676
X-114.8 Y-4.632
X-114.659 Y-4.582
X-114.52 Y-4.525
X-114.384 Y-4.461
X-114.252 Y-4.391
X-114.123 Y-4.314
X-113.998 Y-4.231
X-113.877 Y-4.142
X-113.76 Y-4.048
X-113.649 Y-3.948
X-113.542 Y-3.842
X-113.44 Y-3.732
X-113.345 Y-3.617
X-113.254 Y-3.497
X-113.17 Y-3.373
X-113.092 Y-3.244
X-112.886 Y-2.865
X-112.638 Y-2.366
X-112.484 Y-2.028
X-111.963 Y-0.765
X-111.642 Y-0.275
X-111.408 Y0.143
X-111.238 Y0.591
X-111.135 Y1.059
X-111.1 Y1.537
G3 X-112.347 Y2.762 I-1.269 J-0.045
G1 X-119.288 Y2.886
X-120.074 Y2.9
X-121.482
X-121.525 Y2.898
X-121.442 Y1.902
X-121.355 Y1.168
X-121.263 Y0.57
X-121.166 Y0.066
X-121.065 Y-0.374
X-120.96 Y-0.77
X-120.852 Y-1.126
X-120.74 Y-1.45
X-120.624 Y-1.751
X-120.507 Y-2.028
X-120.387 Y-2.284
X-120.263 Y-2.526
X-120.137 Y-2.752
X-120.008 Y-2.964
X-119.878 Y-3.163
X-119.746 Y-3.349
X-119.612 Y-3.525
X-119.476 Y-3.691
X-119.339 Y-3.847
X-119.2 Y-3.994
X-119.06 Y-4.132
X-118.918 Y-4.262
X-118.776 Y-4.384
X-118.632 Y-4.498
X-118.488 Y-4.604
X-118.342 Y-4.704
X-118.195 Y-4.797
X-118.047 Y-4.884
X-117.899 Y-4.963
X-117.751 Y-5.036
X-117.603 Y-5.102
X-117.454 Y-5.163
X-117.304 Y-5.218
X-117.154 Y-5.267
X-117.006 Y-5.31
X-116.858 Y-5.347
X-116.709 Y-5.378
X-116.56 Y-5.405
X-116.411 Y-5.425
X-116.262 Y-5.441
X-116.112 Y-5.451
X-115.962 Y-5.455
X-115.812 Y-5.454
X-115.662 Y-5.447
X-115.513 Y-5.435
X-115.364 Y-5.418
X-115.216 Y-5.394
X-115.069 Y-5.365
X-114.923 Y-5.331
X-114.778 Y-5.291
X-114.635 Y-5.245
X-114.494 Y-5.194
X-114.355 Y-5.138
X-114.218 Y-5.076
X-114.084 Y-5.009
X-113.953 Y-4.937
X-113.825 Y-4.859
X-113.699 Y-4.776
X-113.577 Y-4.689
X-113.452 Y-4.592
X-113.321 Y-4.483
X-113.176 Y-4.352
X-113.028 Y-4.209
X-112.879 Y-4.055
X-112.713 Y-3.871
X-112.312 Y-3.392
X-111.933 Y-2.905
X-111.689 Y-2.567
X-111.659 Y-2.523
X-111.418 Y-2.1
X-111.243 Y-1.646
X-111.136 Y-1.171
X-111.1 Y-0.685
Y-0.056
G3 X-112.133 Y1.147 I-1.269 J-0.044
G1 X-120.708 Y2.769
X-121.29 Y2.879
X-121.386 Y2.893
X-121.482 Y2.9
X-122.834
X-122.877 Y2.898
X-122.796 Y2.11
X-122.702 Y1.436
X-122.596 Y0.831
X-122.483 Y0.299
X-122.36 Y-0.193
X-122.233 Y-0.636
X-122.099 Y-1.044
X-121.959 Y-1.427
X-121.815 Y-1.78
X-121.669 Y-2.106
X-121.517 Y-2.415
X-121.36 Y-2.705
X-121.202 Y-2.977
X-121.159 Y-3.045
X-120.863 Y-3.443
X-120.511 Y-3.791
X-120.111 Y-4.084
X-119.959 Y-4.178
X-119.578 Y-4.453
X-119.151 Y-4.833
X-119.095 Y-4.887
X-118.872 Y-5.079
X-118.748 Y-5.178
X-118.62 Y-5.274
X-118.488 Y-5.366
X-118.351 Y-5.453
X-118.21 Y-5.536
X-118.066 Y-5.615
X-117.919 Y-5.688
X-117.769 Y-5.757
X-117.616 Y-5.82
X-117.46 Y-5.878
X-117.302 Y-5.93
X-117.143 Y-5.977
X-116.982 Y-6.018
X-116.819 Y-6.053
X-116.656 Y-6.083
X-116.492 Y-6.106
X-116.328 Y-6.124
X-116.163 Y-6.136
X-115.999 Y-6.142
X-115.835
X-115.671 Y-6.137
X-115.508 Y-6.125
X-115.346 Y-6.108
X-115.184 Y-6.085
X-115.024 Y-6.056
X-114.864 Y-6.022
X-114.706 Y-5.982
X-114.547 Y-5.936
X-114.387 Y-5.883
X-114.225 Y-5.823
X-114.062 Y-5.756
X-113.896 Y-5.681
X-113.726 Y-5.597
X-113.546 Y-5.499
X-113.345 Y-5.381
X-113.136 Y-5.247
X-112.909 Y-5.091
X-112.674 Y-4.917
X-112.464 Y-4.749
X-112.277 Y-4.588
X-112.163 Y-4.483
X-111.851 Y-4.153
X-111.588 Y-3.783
X-111.377 Y-3.381
X-111.224 Y-2.954
X-111.131 Y-2.51
X-111.1 Y-2.057
Y-0.685
G3 X-112.991 Y0.378 I-1.269 J-0.044
G1 X-118.81 Y-2.891
G3 X-119.095 Y-4.887 I0.622 J-1.107
G1 X-118.816 Y-5.153
X-118.759 Y-5.214
X-118.458 Y-5.595
X-118.361 Y-5.709
X-118.259 Y-5.819
X-118.149 Y-5.922
X-118.034 Y-6.018
X-117.914 Y-6.107
X-117.789 Y-6.191
X-117.66 Y-6.268
X-117.528 Y-6.339
X-117.393 Y-6.405
X-117.256 Y-6.464
X-117.116 Y-6.519
X-116.974 Y-6.567
X-116.831 Y-6.611
X-116.685 Y-6.649
X-116.539 Y-6.681
X-116.389 Y-6.709
X-116.236 Y-6.732
X-116.079 Y-6.75
X-115.92 Y-6.763
X-115.757 Y-6.769
X-115.591 Y-6.771
X-115.421 Y-6.766
X-115.248 Y-6.755
X-115.071 Y-6.737
X-114.89 Y-6.712
X-114.705 Y-6.68
X-114.516 Y-6.641
X-114.318 Y-6.592
X-114.113 Y-6.533
X-113.904 Y-6.465
X-113.693 Y-6.389
X-113.484 Y-6.305
X-113.295 Y-6.22
X-113.092 Y-6.121
X-112.899 Y-6.018
X-112.737 Y-5.923
X-112.574 Y-5.821
X-112.544 Y-5.801
X-112.184 Y-5.517
X-111.866 Y-5.186
X-111.598 Y-4.814
X-111.383 Y-4.409
X-111.227 Y-3.978
X-111.132 Y-3.529
X-111.1 Y-3.072
Y-2.057
G3 X-112.977 Y-0.986 I-1.269 J-0.044
G1 X-118.032 Y-3.743
G3 X-118.458 Y-5.595 I0.608 J-1.115
G1 X-118.054 Y-6.121
X-118.033 Y-6.16
X-117.953 Y-6.288
X-117.86 Y-6.405
X-117.758 Y-6.514
X-117.647 Y-6.616
X-117.53 Y-6.71
X-117.408 Y-6.796
X-117.281 Y-6.876
X-117.15 Y-6.95
X-117.016 Y-7.017
X-116.879 Y-7.078
X-116.739 Y-7.133
X-116.597 Y-7.182
X-116.454 Y-7.225
X-116.309 Y-7.263
X-116.161 Y-7.296
X-116.009 Y-7.324
X-115.851 Y-7.347
X-115.687 Y-7.366
X-115.517 Y-7.379
X-115.34 Y-7.386
X-115.156 Y-7.387
X-114.969 Y-7.381
X-114.778 Y-7.369
X-114.584 Y-7.349
X-114.387 Y-7.322
X-114.19 Y-7.287
X-113.997 Y-7.247
X-113.826 Y-7.204
X-113.639 Y-7.151
X-113.453 Y-7.09
X-113.292 Y-7.032
X-113.14 Y-6.97
X-112.967 Y-6.892
X-112.812 Y-6.816
X-112.677 Y-6.744
X-112.534 Y-6.66
X-112.178 Y-6.398
X-111.863 Y-6.087
X-111.596 Y-5.734
X-111.382 Y-5.346
X-111.227 Y-4.932
X-111.132 Y-4.5
X-111.1 Y-4.058
Y-3.072
G3 X-112.977 Y-2.001 I-1.269 J-0.044
G1 X-117.508 Y-4.468
G3 X-118.033 Y-6.16 I0.607 J-1.115
G1 X-117.924 Y-6.356
X-117.735 Y-6.702
X-117.656 Y-6.83
X-117.569 Y-6.952
X-117.47 Y-7.065
X-117.363 Y-7.17
X-117.25 Y-7.268
X-117.13 Y-7.359
X-117.006 Y-7.442
X-116.877 Y-7.52
X-116.745 Y-7.591
X-116.61 Y-7.656
X-116.472 Y-7.715
X-116.332 Y-7.768
X-116.19 Y-7.816
X-116.046 Y-7.858
X-115.896 Y-7.897
X-115.742 Y-7.93
X-115.583 Y-7.959
X-115.42 Y-7.983
X-115.253 Y-8.001
X-115.08 Y-8.014
X-114.906 Y-8.021
X-114.73
X-114.55 Y-8.015
X-114.37 Y-8.003
X-114.19 Y-7.984
X-114.01 Y-7.959
X-113.849 Y-7.93
X-113.692 Y-7.897
X-113.516 Y-7.852
X-113.357 Y-7.806
X-113.215 Y-7.759
X-113.066 Y-7.705
X-112.909 Y-7.64
X-112.771 Y-7.578
X-112.362 Y-7.333
X-111.997 Y-7.027
X-111.685 Y-6.667
X-111.434 Y-6.262
X-111.25 Y-5.823
X-111.138 Y-5.36
X-111.1 Y-4.885
Y-4.058
G3 X-112.918 Y-2.958 I-1.269 J-0.044
G1 X-117.149 Y-4.987
G3 X-117.735 Y-6.702 I0.549 J-1.145
G1 X-117.673 Y-6.814
X-117.52 Y-7.117
X-117.507 Y-7.152
X-117.446 Y-7.29
X-117.371 Y-7.42
X-117.283 Y-7.541
X-117.185 Y-7.655
X-117.079 Y-7.761
X-116.967 Y-7.86
X-116.849 Y-7.952
X-116.726 Y-8.038
X-116.599 Y-8.118
X-116.468 Y-8.192
X-116.334 Y-8.259
X-116.198 Y-8.321
X-116.059 Y-8.378
X-115.918 Y-8.429
X-115.775 Y-8.474
X-115.63 Y-8.515
X-115.482 Y-8.55
X-115.329 Y-8.581
X-115.172 Y-8.608
X-115.012 Y-8.629
X-114.849 Y-8.644
X-114.686 Y-8.654
X-114.52 Y-8.658
X-114.352 Y-8.655
X-114.196 Y-8.648
X-114.046 Y-8.636
X-113.883 Y-8.616
X-113.719 Y-8.59
X-113.571 Y-8.561
X-113.425 Y-8.527
X-113.277 Y-8.487
X-113.124 Y-8.439
X-112.982 Y-8.389
X-112.843 Y-8.334
X-112.47 Y-8.136
X-112.13 Y-7.886
X-111.829 Y-7.589
X-111.574 Y-7.253
X-111.37 Y-6.883
X-111.221 Y-6.488
X-111.13 Y-6.076
X-111.1 Y-5.655
Y-4.885
G3 X-112.901 Y-3.776 I-1.269 J-0.044
G1 X-116.836 Y-5.589
G3 X-117.507 Y-7.152 I0.531 J-1.153
G1 X-117.293 Y-7.714
X-117.232 Y-7.852
X-117.158 Y-7.982
X-117.072 Y-8.105
X-116.977 Y-8.221
X-116.874 Y-8.33
X-116.764 Y-8.432
X-116.649 Y-8.528
X-116.528 Y-8.617
X-116.403 Y-8.701
X-116.275 Y-8.778
X-116.143 Y-8.85
X-116.008 Y-8.916
X-115.871 Y-8.976
X-115.731 Y-9.031
X-115.59 Y-9.08
X-115.446 Y-9.124
X-115.301 Y-9.162
X-115.155 Y-9.195
X-115.008 Y-9.223
X-114.858 Y-9.246
X-114.705 Y-9.264
X-114.55 Y-9.276
X-114.394 Y-9.283
X-114.244 Y-9.284
X-114.094 Y-9.28
X-113.937 Y-9.27
X-113.788 Y-9.254
X-113.639 Y-9.233
X-113.492 Y-9.207
X-113.342 Y-9.173
X-113.197 Y-9.136
X-113.053 Y-9.093
X-112.911 Y-9.043
X-112.527 Y-8.859
X-112.175 Y-8.619
X-111.862 Y-8.33
X-111.596 Y-7.997
X-111.383 Y-7.628
X-111.227 Y-7.231
X-111.132 Y-6.816
X-111.1 Y-6.391
Y-5.655
G3 X-112.872 Y-4.533 I-1.269 J-0.044
G1 X-116.594 Y-6.138
G3 X-117.293 Y-7.714 I0.503 J-1.166
G1 X-117.23 Y-7.879
X-117.162 Y-8.14
X-117.117 Y-8.283
X-117.058 Y-8.421
X-116.984 Y-8.552
X-116.9 Y-8.676
X-116.807 Y-8.794
X-116.706 Y-8.905
X-116.599 Y-9.01
X-116.486 Y-9.108
X-116.368 Y-9.2
X-116.245 Y-9.286
X-116.118 Y-9.367
X-115.988 Y-9.441
X-115.855 Y-9.51
X-115.719 Y-9.573
X-115.58 Y-9.631
X-115.439 Y-9.682
X-115.297 Y-9.729
X-115.152 Y-9.769
X-115.006 Y-9.804
X-114.859 Y-9.834
X-114.711 Y-9.858
X-114.562 Y-9.877
X-114.413 Y-9.89
X-114.263 Y-9.898
X-114.113 Y-9.9
X-113.961 Y-9.895
X-113.811 Y-9.886
X-113.662 Y-9.87
X-113.513 Y-9.848
X-113.366 Y-9.821
X-113.22 Y-9.788
X-113.075 Y-9.749
X-112.932 Y-9.703
X-112.914 Y-9.697
X-112.531 Y-9.525
X-112.179 Y-9.297
X-111.866 Y-9.018
X-111.599 Y-8.694
X-111.385 Y-8.334
X-111.228 Y-7.944
X-111.132 Y-7.536
X-111.1 Y-7.117
Y-6.391
G3 X-112.842 Y-5.257 I-1.269 J-0.044
G1 X-116.396 Y-6.683
G3 X-117.162 Y-8.14 I0.473 J-1.179
G1 X-117.13 Y-8.259
X-117.041 Y-8.64
X-117.036 Y-8.675
X-117.005 Y-8.822
X-116.948 Y-8.96
X-116.878 Y-9.093
X-116.797 Y-9.219
X-116.707 Y-9.34
X-116.61 Y-9.454
X-116.505 Y-9.561
X-116.395 Y-9.663
X-116.28 Y-9.759
X-116.16 Y-9.849
X-116.035 Y-9.933
X-115.907 Y-10.011
X-115.776 Y-10.083
X-115.641 Y-10.15
X-115.504 Y-10.211
X-115.365 Y-10.266
X-115.223 Y-10.315
X-115.08 Y-10.359
X-114.935 Y-10.397
X-114.788 Y-10.429
X-114.641 Y-10.456
X-114.492 Y-10.477
X-114.343 Y-10.493
X-114.193 Y-10.502
X-114.043 Y-10.506
X-113.893 Y-10.503
X-113.743 Y-10.495
X-113.594 Y-10.481
X-113.446 Y-10.46
X-113.298 Y-10.434
X-113.151 Y-10.401
X-113.007 Y-10.362
X-112.863 Y-10.317
X-112.722 Y-10.267
X-112.33 Y-10.066
X-111.977 Y-9.803
X-111.674 Y-9.484
X-111.428 Y-9.119
X-111.248 Y-8.717
X-111.137 Y-8.291
X-111.1 Y-7.852
Y-7.117
G3 X-112.84 Y-5.982 I-1.269 J-0.044
G1 X-116.246 Y-7.34
G3 X-117.036 Y-8.675 I0.47 J-1.18
G1 X-116.981 Y-9.021
X-116.974 Y-9.084
X-116.95 Y-9.232
X-116.911 Y-9.377
X-116.856 Y-9.516
X-116.787 Y-9.65
X-116.709 Y-9.778
X-116.621 Y-9.9
X-116.526 Y-10.015
X-116.424 Y-10.125
X-116.316 Y-10.229
X-116.202 Y-10.327
X-116.084 Y-10.42
X-115.961 Y-10.506
X-115.835 Y-10.586
X-115.705 Y-10.661
X-115.571 Y-10.73
X-115.435 Y-10.793
X-115.297 Y-10.85
X-115.156 Y-10.902
X-115.013 Y-10.948
X-114.868 Y-10.988
X-114.722 Y-11.022
X-114.575 Y-11.051
X-114.427 Y-11.074
X-114.278 Y-11.091
X-114.128 Y-11.102
X-113.978 Y-11.107
X-113.828 Y-11.106
X-113.679 Y-11.099
X-113.529 Y-11.086
X-113.38 Y-11.067
X-113.233 Y-11.041
X-113.086 Y-11.009
X-112.941 Y-10.971
X-112.556 Y-10.818
X-112.2 Y-10.606
X-111.882 Y-10.34
X-111.61 Y-10.027
X-111.391 Y-9.676
X-111.231 Y-9.293
X-111.133 Y-8.891
X-111.1 Y-8.478
Y-7.852
G3 X-112.765 Y-6.69 I-1.269 J-0.044
G1 X-116.103 Y-7.784
G3 X-116.974 Y-9.084 I0.395 J-1.207
G1 X-116.914 Y-9.632
X-116.891 Y-9.78
X-116.852 Y-9.925
X-116.797 Y-10.065
X-116.731 Y-10.199
X-116.655 Y-10.328
X-116.569 Y-10.452
X-116.476 Y-10.569
X-116.376 Y-10.681
X-116.27 Y-10.787
X-116.158 Y-10.888
X-116.042 Y-10.982
X-115.921 Y-11.071
X-115.796 Y-11.154
X-115.667 Y-11.231
X-115.535 Y-11.302
X-115.401 Y-11.368
X-115.263 Y-11.428
X-115.123 Y-11.482
X-114.981 Y-11.53
X-114.837 Y-11.573
X-114.692 Y-11.61
X-114.545 Y-11.641
X-114.397 Y-11.666
X-114.249 Y-11.685
X-114.099 Y-11.698
X-113.949 Y-11.704
X-113.799 Y-11.705
X-113.649 Y-11.699
X-113.5 Y-11.686
X-113.351 Y-11.668
X-113.203 Y-11.643
X-113.057 Y-11.611
X-112.651 Y-11.467
X-112.273 Y-11.258
X-111.936 Y-10.991
X-111.646 Y-10.672
X-111.412 Y-10.31
X-111.24 Y-9.914
X-111.135 Y-9.496
X-111.1 Y-9.067
Y-8.478
G3 X-112.745 Y-7.309 I-1.269 J-0.044
G1 X-116.024 Y-8.325
G3 X-116.914 Y-9.632 I0.376 J-1.213
G1 X-116.912 Y-9.655
X-116.908 Y-9.782
X-116.905 Y-10.043
X-116.896 Y-10.193
X-116.871 Y-10.341
X-116.829 Y-10.485
X-116.773 Y-10.624
X-116.706 Y-10.759
X-116.63 Y-10.888
X-116.546 Y-11.012
X-116.454 Y-11.13
X-116.355 Y-11.243
X-116.25 Y-11.35
X-116.14 Y-11.452
X-116.024 Y-11.548
X-115.905 Y-11.638
X-115.781 Y-11.723
X-115.654 Y-11.802
X-115.523 Y-11.876
X-115.389 Y-11.943
X-115.252 Y-12.005
X-115.113 Y-12.062
X-114.972 Y-12.112
X-114.829 Y-12.157
X-114.684 Y-12.195
X-114.538 Y-12.228
X-114.39 Y-12.255
X-114.241 Y-12.275
X-114.092 Y-12.289
X-113.942 Y-12.297
X-113.792 Y-12.298
X-113.642 Y-12.292
X-113.493 Y-12.28
X-113.344 Y-12.262
X-113.196 Y-12.237
X-113.049 Y-12.205
X-112.904 Y-12.166
X-112.527 Y-12.016
X-112.178 Y-11.807
X-111.866 Y-11.546
X-111.6 Y-11.239
X-111.385 Y-10.894
X-111.228 Y-10.519
X-111.132 Y-10.124
X-111.1 Y-9.719
Y-9.067
G3 X-112.729 Y-7.893 I-1.269 J-0.044
G1 X-115.996 Y-8.859
G3 X-116.905 Y-10.043 I0.36 J-1.218
G1 X-116.901 Y-10.578
X-116.893 Y-10.728
X-116.868 Y-10.876
X-116.828 Y-11.02
X-116.774 Y-11.161
X-116.71 Y-11.296
X-116.636 Y-11.427
X-116.554 Y-11.552
X-116.464 Y-11.672
X-116.368 Y-11.787
X-116.265 Y-11.896
X-116.157 Y-12
X-116.044 Y-12.099
X-115.926 Y-12.192
X-115.804 Y-12.279
X-115.678 Y-12.361
X-115.549 Y-12.437
X-115.416 Y-12.507
X-115.281 Y-12.571
X-115.143 Y-12.63
X-115.002 Y-12.683
X-114.86 Y-12.73
X-114.716 Y-12.771
X-114.57 Y-12.806
X-114.423 Y-12.835
X-114.274 Y-12.858
X-114.125 Y-12.875
X-113.976 Y-12.885
X-113.826 Y-12.889
X-113.676 Y-12.887
X-113.526 Y-12.878
X-113.377 Y-12.862
X-113.228 Y-12.841
X-113.081 Y-12.812
X-112.936 Y-12.776
X-112.553 Y-12.631
X-112.198 Y-12.426
X-111.881 Y-12.167
X-111.61 Y-11.861
X-111.391 Y-11.515
X-111.231 Y-11.138
X-111.133 Y-10.741
X-111.1 Y-10.333
Y-9.719
G3 X-112.692 Y-8.535 I-1.269 J-0.044
G1 X-115.954 Y-9.391
G3 X-116.901 Y-10.578 I0.322 J-1.228
G1 X-116.9 Y-11.133
X-116.893 Y-11.283
X-116.868 Y-11.431
X-116.829 Y-11.576
X-116.777 Y-11.717
X-116.714 Y-11.853
X-116.641 Y-11.984
X-116.56 Y-12.11
X-116.472 Y-12.232
X-116.377 Y-12.348
X-116.275 Y-12.458
X-116.168 Y-12.563
X-116.056 Y-12.663
X-115.94 Y-12.757
X-115.819 Y-12.846
X-115.694 Y-12.929
X-115.566 Y-13.007
X-115.434 Y-13.079
X-115.299 Y-13.145
X-115.162 Y-13.205
X-115.022 Y-13.26
X-114.88 Y-13.309
X-114.737 Y-13.351
X-114.591 Y-13.389
X-114.445 Y-13.42
X-114.297 Y-13.445
X-114.148 Y-13.464
X-113.998 Y-13.476
X-113.848 Y-13.482
X-113.698 Y-13.481
X-113.549 Y-13.474
X-113.399 Y-13.46
X-113.251 Y-13.44
X-113.103 Y-13.413
X-113.067 Y-13.405
X-112.662 Y-13.273
X-112.283 Y-13.076
X-111.944 Y-12.818
X-111.652 Y-12.507
X-111.415 Y-12.152
X-111.242 Y-11.762
X-111.136 Y-11.349
X-111.1 Y-10.924
Y-10.333
G3 X-112.672 Y-9.144 I-1.269 J-0.044
G1 X-115.934 Y-9.944
G3 X-116.9 Y-11.133 I0.303 J-1.233
G1 Y-11.685
X-116.893 Y-11.835
X-116.871 Y-11.984
X-116.834 Y-12.129
X-116.783 Y-12.27
X-116.722 Y-12.407
X-116.652 Y-12.54
X-116.572 Y-12.667
X-116.486 Y-12.789
X-116.392 Y-12.907
X-116.292 Y-13.019
X-116.187 Y-13.125
X-116.076 Y-13.226
X-115.961 Y-13.322
X-115.841 Y-13.412
X-115.717 Y-13.497
X-115.59 Y-13.576
X-115.459 Y-13.65
X-115.325 Y-13.718
X-115.189 Y-13.78
X-115.05 Y-13.836
X-114.908 Y-13.887
X-114.765 Y-13.932
X-114.62 Y-13.971
X-114.474 Y-14.004
X-114.326 Y-14.03
X-114.178 Y-14.05
X-114.028 Y-14.064
X-113.879 Y-14.072
X-113.729 Y-14.073
X-113.579 Y-14.067
X-113.429 Y-14.055
X-113.28 Y-14.036
X-113.133 Y-14.01
X-112.986 Y-13.978
X-112.595 Y-13.838
X-112.231 Y-13.637
X-111.905 Y-13.379
X-111.626 Y-13.071
X-111.401 Y-12.722
X-111.235 Y-12.341
X-111.134 Y-11.938
X-111.1 Y-11.524
Y-10.924
G3 X-112.658 Y-9.732 I-1.269 J-0.044
G1 X-115.919 Y-10.493
G3 X-116.9 Y-11.685 I0.289 J-1.237
G1 Y-12.275
X-116.893 Y-12.425
X-116.869 Y-12.573
X-116.831 Y-12.718
X-116.78 Y-12.86
X-116.718 Y-12.996
X-116.647 Y-13.128
X-116.568 Y-13.256
X-116.481 Y-13.378
X-116.387 Y-13.495
X-116.287 Y-13.607
X-116.182 Y-13.714
X-116.071 Y-13.815
X-115.956 Y-13.911
X-115.836 Y-14.001
X-115.713 Y-14.086
X-115.585 Y-14.165
X-115.455 Y-14.239
X-115.321 Y-14.307
X-115.184 Y-14.369
X-115.046 Y-14.426
X-114.904 Y-14.477
X-114.761 Y-14.522
X-114.616 Y-14.561
X-114.47 Y-14.593
X-114.323 Y-14.621
X-114.174 Y-14.641
X-114.025 Y-14.655
X-113.875 Y-14.663
X-113.725 Y-14.664
X-113.575 Y-14.658
X-113.425 Y-14.646
X-113.276 Y-14.627
X-113.129 Y-14.602
X-112.711 Y-14.471
X-112.322 Y-14.272
X-111.971 Y-14.01
X-111.67 Y-13.693
X-111.426 Y-13.33
X-111.247 Y-12.931
X-111.137 Y-12.507
X-111.1 Y-12.071
Y-11.524
G3 X-112.654 Y-10.331 I-1.269 J-0.044
G1 X-115.916 Y-11.082
G3 X-116.9 Y-12.275 I0.285 J-1.238
G1 Y-12.827
X-116.893 Y-12.977
X-116.873 Y-13.126
X-116.838 Y-13.272
X-116.79 Y-13.414
X-116.731 Y-13.552
X-116.662 Y-13.685
X-116.585 Y-13.814
X-116.5 Y-13.937
X-116.407 Y-14.055
X-116.309 Y-14.169
X-116.205 Y-14.277
X-116.096 Y-14.379
X-115.982 Y-14.477
X-115.863 Y-14.569
X-115.74 Y-14.655
X-115.614 Y-14.736
X-115.484 Y-14.811
X-115.351 Y-14.881
X-115.216 Y-14.944
X-115.077 Y-15.002
X-114.937 Y-15.055
X-114.794 Y-15.101
X-114.65 Y-15.142
X-114.504 Y-15.176
X-114.356 Y-15.204
X-114.208 Y-15.226
X-114.059 Y-15.241
X-113.909 Y-15.25
X-113.759 Y-15.252
X-113.609 Y-15.247
X-113.459 Y-15.236
X-113.31 Y-15.218
X-113.163 Y-15.193
X-113.016 Y-15.161
X-112.871 Y-15.123
X-112.5 Y-14.974
X-112.158 Y-14.769
X-111.852 Y-14.512
X-111.59 Y-14.21
X-111.38 Y-13.871
X-111.226 Y-13.502
X-111.132 Y-13.114
X-111.1 Y-12.716
Y-12.071
G3 X-112.656 Y-10.878 I-1.269 J-0.044
G1 X-115.918 Y-11.635
G3 X-116.9 Y-12.827 I0.287 J-1.237
G1 Y-13.417
X-116.893 Y-13.567
X-116.872 Y-13.716
X-116.837 Y-13.862
X-116.788 Y-14.004
X-116.729 Y-14.141
X-116.66 Y-14.275
X-116.583 Y-14.403
X-116.498 Y-14.527
X-116.406 Y-14.645
X-116.307 Y-14.758
X-116.203 Y-14.866
X-116.094 Y-14.969
X-115.98 Y-15.066
X-115.861 Y-15.158
X-115.738 Y-15.245
X-115.612 Y-15.325
X-115.482 Y-15.4
X-115.349 Y-15.47
X-115.213 Y-15.534
X-115.075 Y-15.591
X-114.934 Y-15.643
X-114.792 Y-15.69
X-114.647 Y-15.73
X-114.501 Y-15.764
X-114.354 Y-15.792
X-114.205 Y-15.815
X-114.056 Y-15.83
X-113.906 Y-15.839
X-113.757 Y-15.842
X-113.607 Y-15.839
X-113.457 Y-15.828
X-113.308 Y-15.811
X-113.16 Y-15.787
X-113.013 Y-15.757
X-112.616 Y-15.619
X-112.248 Y-15.418
X-111.918 Y-15.159
X-111.634 Y-14.849
X-111.405 Y-14.497
X-111.237 Y-14.113
X-111.135 Y-13.706
X-111.1 Y-13.287
Y-12.716
G3 X-112.636 Y-11.519 I-1.269 J-0.044
G1 X-115.898 Y-12.22
G3 X-116.9 Y-13.417 I0.267 J-1.242
G1 Y-14.033
X-116.893 Y-14.183
X-116.869 Y-14.331
X-116.831 Y-14.476
X-116.78 Y-14.617
X-116.719 Y-14.754
X-116.648 Y-14.886
X-116.569 Y-15.014
X-116.483 Y-15.136
X-116.389 Y-15.254
X-116.29 Y-15.366
X-116.185 Y-15.473
X-116.075 Y-15.575
X-115.96 Y-15.671
X-115.84 Y-15.762
X-115.717 Y-15.847
X-115.59 Y-15.927
X-115.459 Y-16.001
X-115.326 Y-16.07
X-115.19 Y-16.133
X-115.051 Y-16.19
X-114.91 Y-16.241
X-114.767 Y-16.287
X-114.623 Y-16.326
X-114.476 Y-16.36
X-114.329 Y-16.388
X-114.18 Y-16.408
X-114.031 Y-16.423
X-113.881 Y-16.431
X-113.731 Y-16.433
X-113.581 Y-16.428
X-113.432 Y-16.416
X-113.283 Y-16.398
X-113.135 Y-16.372
X-112.989 Y-16.34
X-112.844 Y-16.302
X-112.479 Y-16.154
X-112.141 Y-15.951
X-111.84 Y-15.698
X-111.583 Y-15.4
X-111.376 Y-15.065
X-111.224 Y-14.702
X-111.131 Y-14.319
X-111.1 Y-13.926
Y-13.287
G3 X-112.652 Y-12.094 I-1.269 J-0.044
G1 X-115.914 Y-12.839
G3 X-116.9 Y-14.033 I0.283 J-1.238
G1 Y-14.611
X-116.893 Y-14.761
X-116.87 Y-14.909
X-116.833 Y-15.055
X-116.783 Y-15.196
X-116.723 Y-15.333
X-116.653 Y-15.466
X-116.574 Y-15.594
X-116.488 Y-15.717
X-116.395 Y-15.835
X-116.296 Y-15.947
X-116.192 Y-16.055
X-116.082 Y-16.157
X-115.967 Y-16.254
X-115.848 Y-16.345
X-115.725 Y-16.431
X-115.599 Y-16.511
X-115.468 Y-16.586
X-115.335 Y-16.655
X-115.199 Y-16.718
X-115.061 Y-16.776
X-114.92 Y-16.828
X-114.777 Y-16.874
X-114.633 Y-16.914
X-114.487 Y-16.948
X-114.339 Y-16.976
X-114.191 Y-16.998
X-114.042 Y-17.014
X-113.892 Y-17.023
X-113.742 Y-17.026
X-113.592 Y-17.022
X-113.442 Y-17.011
X-113.293 Y-16.994
X-113.145 Y-16.971
X-112.998 Y-16.94
X-112.605 Y-16.803
X-112.239 Y-16.604
X-111.911 Y-16.347
X-111.63 Y-16.04
X-111.403 Y-15.69
X-111.236 Y-15.309
X-111.134 Y-14.905
X-111.1 Y-14.49
Y-13.926
G3 X-112.63 Y-12.728 I-1.269 J-0.044
G1 X-115.892 Y-13.413
G3 X-116.9 Y-14.611 I0.261 J-1.243
G1 Y-15.175
X-116.893 Y-15.325
X-116.873 Y-15.473
X-116.839 Y-15.619
X-116.791 Y-15.761
X-116.732 Y-15.9
X-116.664 Y-16.033
X-116.587 Y-16.162
X-116.502 Y-16.286
X-116.411 Y-16.404
X-116.313 Y-16.518
X-116.209 Y-16.626
X-116.1 Y-16.73
X-115.986 Y-16.827
X-115.868 Y-16.92
X-115.746 Y-17.007
X-115.62 Y-17.088
X-115.49 Y-17.164
X-115.358 Y-17.234
X-115.222 Y-17.298
X-115.084 Y-17.357
X-114.944 Y-17.41
X-114.802 Y-17.458
X-114.658 Y-17.499
X-114.512 Y-17.535
X-114.365 Y-17.564
X-114.217 Y-17.587
X-114.068 Y-17.604
X-113.918 Y-17.614
X-113.768 Y-17.618
X-113.618 Y-17.615
X-113.468 Y-17.605
X-113.319 Y-17.589
X-113.171 Y-17.566
X-113.024 Y-17.536
X-112.879 Y-17.499
X-112.507 Y-17.355
X-112.164 Y-17.154
X-111.856 Y-16.9
X-111.594 Y-16.601
X-111.382 Y-16.264
X-111.227 Y-15.897
X-111.132 Y-15.51
X-111.1 Y-15.113
Y-14.49
G3 X-112.63 Y-13.291 I-1.269 J-0.044
G1 X-115.892 Y-13.976
G3 X-116.9 Y-15.175 I0.261 J-1.243
G1 Y-15.796
X-116.893 Y-15.946
X-116.869 Y-16.094
X-116.831 Y-16.239
X-116.781 Y-16.38
X-116.72 Y-16.517
X-116.65 Y-16.65
X-116.571 Y-16.777
X-116.485 Y-16.9
X-116.392 Y-17.018
X-116.293 Y-17.131
X-116.188 Y-17.238
X-116.078 Y-17.34
X-115.964 Y-17.437
X-115.845 Y-17.528
X-115.722 Y-17.614
X-115.595 Y-17.694
X-115.465 Y-17.769
X-115.332 Y-17.838
X-115.196 Y-17.902
X-115.057 Y-17.959
X-114.917 Y-18.011
X-114.774 Y-18.057
X-114.63 Y-18.098
X-114.484 Y-18.132
X-114.336 Y-18.16
X-114.188 Y-18.183
X-114.039 Y-18.198
X-113.889 Y-18.207
X-113.739 Y-18.21
X-113.589 Y-18.207
X-113.439 Y-18.196
X-113.29 Y-18.179
X-113.142 Y-18.156
X-112.995 Y-18.125
X-112.603 Y-17.989
X-112.238 Y-17.79
X-111.91 Y-17.533
X-111.629 Y-17.227
X-111.403 Y-16.878
X-111.236 Y-16.497
X-111.134 Y-16.094
X-111.1 Y-15.68
Y-15.113
G3 X-112.629 Y-13.915 I-1.269 J-0.044
G1 X-115.891 Y-14.597
G3 X-116.9 Y-15.796 I0.26 J-1.243
G1 Y-16.369
X-116.893 Y-16.518
X-116.872 Y-16.667
X-116.835 Y-16.813
X-116.786 Y-16.954
X-116.727 Y-17.092
X-116.658 Y-17.225
X-116.58 Y-17.353
X-116.495 Y-17.477
X-116.403 Y-17.595
X-116.304 Y-17.709
X-116.2 Y-17.817
X-116.091 Y-17.919
X-115.977 Y-18.017
X-115.859 Y-18.109
X-115.736 Y-18.195
X-115.61 Y-18.276
X-115.48 Y-18.352
X-115.348 Y-18.422
X-115.212 Y-18.486
X-115.074 Y-18.545
X-114.934 Y-18.598
X-114.791 Y-18.645
X-114.647 Y-18.686
X-114.501 Y-18.721
X-114.354 Y-18.75
X-114.206 Y-18.773
X-114.057 Y-18.789
X-113.907 Y-18.799
X-113.757 Y-18.803
X-113.607 Y-18.799
X-113.457 Y-18.789
X-113.308 Y-18.773
X-113.16 Y-18.749
X-113.122 Y-18.741
X-112.707 Y-18.617
X-112.319 Y-18.424
X-111.97 Y-18.168
X-111.669 Y-17.856
X-111.426 Y-17.498
X-111.247 Y-17.104
X-111.137 Y-16.685
X-111.1 Y-16.253
Y-15.68
G3 X-112.632 Y-14.482 I-1.269 J-0.044
G1 X-115.893 Y-15.17
G3 X-116.9 Y-16.369 I0.262 J-1.243
G1 Y-16.98
X-116.893 Y-17.13
X-116.869 Y-17.278
X-116.831 Y-17.423
X-116.78 Y-17.564
X-116.719 Y-17.701
X-116.649 Y-17.834
X-116.57 Y-17.961
X-116.484 Y-18.084
X-116.391 Y-18.202
X-116.292 Y-18.315
X-116.187 Y-18.422
X-116.077 Y-18.524
X-115.962 Y-18.621
X-115.843 Y-18.712
X-115.72 Y-18.798
X-115.594 Y-18.878
X-115.464 Y-18.953
X-115.331 Y-19.022
X-115.195 Y-19.086
X-115.056 Y-19.144
X-114.916 Y-19.196
X-114.773 Y-19.242
X-114.628 Y-19.282
X-114.482 Y-19.316
X-114.335 Y-19.344
X-114.186 Y-19.365
X-114.037 Y-19.38
X-113.888 Y-19.389
X-113.738 Y-19.391
X-113.588 Y-19.386
X-113.438 Y-19.375
X-113.289 Y-19.357
X-113.141 Y-19.332
X-112.995 Y-19.301
X-112.602 Y-19.163
X-112.237 Y-18.963
X-111.91 Y-18.706
X-111.629 Y-18.399
X-111.402 Y-18.05
X-111.236 Y-17.669
X-111.134 Y-17.265
X-111.1 Y-16.85
Y-16.253
G3 X-112.645 Y-15.058 I-1.269 J-0.044
G1 X-115.907 Y-15.785
G3 X-116.9 Y-16.98 I0.276 J-1.24
G1 Y-17.555
X-116.893 Y-17.705
X-116.871 Y-17.853
X-116.835 Y-17.999
X-116.785 Y-18.14
X-116.726 Y-18.278
X-116.656 Y-18.411
X-116.578 Y-18.539
X-116.493 Y-18.662
X-116.401 Y-18.781
X-116.302 Y-18.894
X-116.198 Y-19.002
X-116.089 Y-19.105
X-115.975 Y-19.202
X-115.856 Y-19.294
X-115.734 Y-19.38
X-115.608 Y-19.461
X-115.478 Y-19.537
X-115.345 Y-19.606
X-115.209 Y-19.67
X-115.071 Y-19.729
X-114.931 Y-19.781
X-114.788 Y-19.827
X-114.644 Y-19.868
X-114.498 Y-19.903
X-114.35 Y-19.931
X-114.202 Y-19.954
X-114.053 Y-19.969
X-113.903 Y-19.978
X-113.753 Y-19.982
X-113.603 Y-19.977
X-113.454 Y-19.967
X-113.305 Y-19.95
X-113.149 Y-19.925
X-112.729 Y-19.797
X-112.335 Y-19.6
X-111.981 Y-19.34
X-111.677 Y-19.023
X-111.43 Y-18.659
X-111.248 Y-18.259
X-111.137 Y-17.833
X-111.1 Y-17.395
Y-16.85
G3 X-112.637 Y-15.653 I-1.269 J-0.044
G1 X-115.899 Y-16.358
G3 X-116.9 Y-17.555 I0.268 J-1.241
G1 Y-18.157
X-116.893 Y-18.307
X-116.87 Y-18.455
X-116.832 Y-18.6
X-116.782 Y-18.742
X-116.722 Y-18.879
X-116.652 Y-19.011
X-116.573 Y-19.139
X-116.487 Y-19.262
X-116.395 Y-19.38
X-116.296 Y-19.493
X-116.191 Y-19.601
X-116.081 Y-19.703
X-115.967 Y-19.8
X-115.848 Y-19.891
X-115.725 Y-19.977
X-115.598 Y-20.057
X-115.468 Y-20.132
X-115.335 Y-20.201
X-115.2 Y-20.265
X-115.061 Y-20.323
X-114.92 Y-20.375
X-114.778 Y-20.421
X-114.633 Y-20.461
X-114.487 Y-20.495
X-114.34 Y-20.523
X-114.191 Y-20.544
X-114.042 Y-20.559
X-113.892 Y-20.567
X-113.742 Y-20.568
X-113.592 Y-20.563
X-113.443 Y-20.551
X-113.294 Y-20.533
X-113.146 Y-20.507
X-112.999 Y-20.475
X-112.854 Y-20.437
X-112.487 Y-20.287
X-112.147 Y-20.082
X-111.844 Y-19.825
X-111.585 Y-19.524
X-111.377 Y-19.187
X-111.224 Y-18.82
X-111.131 Y-18.434
X-111.1 Y-18.039
Y-17.395
G3 X-112.658 Y-16.203 I-1.269 J-0.044
G1 X-115.919 Y-16.964
G3 X-116.9 Y-18.157 I0.289 J-1.237
G1 Y-18.747
X-116.893 Y-18.897
X-116.87 Y-19.045
X-116.833 Y-19.19
X-116.783 Y-19.332
X-116.722 Y-19.469
X-116.652 Y-19.602
X-116.574 Y-19.729
X-116.488 Y-19.852
X-116.395 Y-19.97
X-116.296 Y-20.083
X-116.192 Y-20.191
X-116.082 Y-20.293
X-115.967 Y-20.39
X-115.849 Y-20.481
X-115.726 Y-20.567
X-115.599 Y-20.648
X-115.469 Y-20.722
X-115.336 Y-20.791
X-115.2 Y-20.855
X-115.061 Y-20.912
X-114.92 Y-20.964
X-114.777 Y-21.009
X-114.633 Y-21.049
X-114.487 Y-21.083
X-114.339 Y-21.111
X-114.191 Y-21.133
X-114.042 Y-21.148
X-113.892 Y-21.157
X-113.742 Y-21.159
X-113.592 Y-21.155
X-113.442 Y-21.144
X-113.293 Y-21.126
X-113.145 Y-21.102
X-112.725 Y-20.976
X-112.333 Y-20.78
X-111.98 Y-20.52
X-111.676 Y-20.204
X-111.429 Y-19.842
X-111.248 Y-19.442
X-111.137 Y-19.018
X-111.1 Y-18.581
Y-18.039
G3 X-112.639 Y-16.842 I-1.269 J-0.044
G1 X-115.9 Y-17.55
G3 X-116.9 Y-18.747 I0.269 J-1.241
G1 Y-19.334
X-116.893 Y-19.483
X-116.87 Y-19.632
X-116.833 Y-19.777
X-116.784 Y-19.919
X-116.724 Y-20.056
X-116.654 Y-20.189
X-116.575 Y-20.317
X-116.49 Y-20.44
X-116.397 Y-20.558
X-116.298 Y-20.671
X-116.194 Y-20.778
X-116.084 Y-20.881
X-115.97 Y-20.977
X-115.851 Y-21.069
X-115.728 Y-21.155
X-115.601 Y-21.235
X-115.471 Y-21.31
X-115.338 Y-21.379
X-115.202 Y-21.443
X-115.064 Y-21.501
X-114.923 Y-21.553
X-114.78 Y-21.599
X-114.636 Y-21.639
X-114.49 Y-21.673
X-114.342 Y-21.701
X-114.194 Y-21.722
X-114.045 Y-21.737
X-113.895 Y-21.746
X-113.745 Y-21.747
X-113.595 Y-21.742
X-113.445 Y-21.731
X-113.296 Y-21.713
X-113.149 Y-21.687
X-113.002 Y-21.655
X-112.857 Y-21.617
X-112.489 Y-21.468
X-112.149 Y-21.263
X-111.846 Y-21.007
X-111.586 Y-20.707
X-111.378 Y-20.369
X-111.225 Y-20.002
X-111.131 Y-19.617
X-111.1 Y-19.221
Y-18.581
G3 X-112.655 Y-17.388 I-1.269 J-0.044
G1 X-115.916 Y-18.14
G3 X-116.9 Y-19.334 I0.286 J-1.237
G1 Y-19.917
X-116.893 Y-20.067
X-116.871 Y-20.216
X-116.835 Y-20.361
X-116.786 Y-20.503
X-116.726 Y-20.64
X-116.656 Y-20.773
X-116.578 Y-20.901
X-116.493 Y-21.025
X-116.401 Y-21.143
X-116.302 Y-21.256
X-116.198 Y-21.364
X-116.088 Y-21.466
X-115.974 Y-21.564
X-115.855 Y-21.655
X-115.732 Y-21.742
X-115.606 Y-21.822
X-115.476 Y-21.897
X-115.343 Y-21.967
X-115.207 Y-22.03
X-115.069 Y-22.088
X-114.928 Y-22.14
X-114.785 Y-22.186
X-114.641 Y-22.226
X-114.495 Y-22.26
X-114.348 Y-22.289
X-114.199 Y-22.311
X-114.05 Y-22.327
X-113.9 Y-22.336
X-113.75 Y-22.338
X-113.6 Y-22.335
X-113.451 Y-22.324
X-113.302 Y-22.307
X-113.154 Y-22.284
X-113.007 Y-22.253
X-112.612 Y-22.115
X-112.244 Y-21.915
X-111.915 Y-21.657
X-111.632 Y-21.348
X-111.404 Y-20.997
X-111.237 Y-20.613
X-111.134 Y-20.208
X-111.1 Y-19.791
Y-19.221
G3 X-112.634 Y-18.023 I-1.269 J-0.044
G1 X-115.896 Y-18.72
G3 X-116.9 Y-19.917 I0.265 J-1.242
G1 Y-20.504
X-116.893 Y-20.654
X-116.872 Y-20.802
X-116.835 Y-20.948
X-116.786 Y-21.09
X-116.727 Y-21.227
X-116.657 Y-21.36
X-116.58 Y-21.489
X-116.494 Y-21.612
X-116.402 Y-21.73
X-116.304 Y-21.844
X-116.2 Y-21.951
X-116.09 Y-22.054
X-115.976 Y-22.151
X-115.857 Y-22.243
X-115.734 Y-22.329
X-115.608 Y-22.41
X-115.478 Y-22.485
X-115.345 Y-22.555
X-115.21 Y-22.619
X-115.071 Y-22.677
X-114.931 Y-22.729
X-114.788 Y-22.776
X-114.644 Y-22.816
X-114.498 Y-22.851
X-114.351 Y-22.88
X-114.202 Y-22.902
X-114.053 Y-22.917
X-113.903 Y-22.927
X-113.753 Y-22.93
X-113.603 Y-22.926
X-113.454 Y-22.915
X-113.305 Y-22.898
X-113.157 Y-22.874
X-113.01 Y-22.843
X-112.865 Y-22.806
X-112.496 Y-22.66
X-112.155 Y-22.458
X-111.85 Y-22.204
X-111.589 Y-21.905
X-111.379 Y-21.569
X-111.225 Y-21.203
X-111.132 Y-20.818
X-111.1 Y-20.422
Y-19.791
G3 X-112.641 Y-18.594 I-1.269 J-0.044
G1 X-115.902 Y-19.308
G3 X-116.9 Y-20.504 I0.271 J-1.241
G1 Y-21.083
X-116.893 Y-21.232
X-116.873 Y-21.381
X-116.838 Y-21.527
X-116.79 Y-21.669
X-116.731 Y-21.807
X-116.662 Y-21.94
X-116.585 Y-22.069
X-116.5 Y-22.193
X-116.409 Y-22.311
X-116.311 Y-22.425
X-116.207 Y-22.533
X-116.098 Y-22.636
X-115.984 Y-22.734
X-115.866 Y-22.826
X-115.743 Y-22.913
X-115.617 Y-22.994
X-115.488 Y-23.07
X-115.355 Y-23.14
X-115.22 Y-23.205
X-115.082 Y-23.263
X-114.941 Y-23.316
X-114.799 Y-23.363
X-114.654 Y-23.404
X-114.509 Y-23.439
X-114.361 Y-23.468
X-114.213 Y-23.491
X-114.064 Y-23.508
X-113.915 Y-23.518
X-113.765 Y-23.522
X-113.615 Y-23.52
X-113.465 Y-23.51
X-113.316 Y-23.494
X-113.167 Y-23.471
X-113.02 Y-23.442
X-112.623 Y-23.307
X-112.253 Y-23.107
X-111.922 Y-22.85
X-111.637 Y-22.541
X-111.407 Y-22.19
X-111.238 Y-21.806
X-111.135 Y-21.399
X-111.1 Y-20.98
Y-20.422
G3 X-112.621 Y-19.222 I-1.269 J-0.044
G1 X-115.883 Y-19.882
G3 X-116.9 Y-21.083 I0.252 J-1.245
G1 Y-21.698
X-116.893 Y-21.848
X-116.87 Y-21.996
X-116.832 Y-22.141
X-116.782 Y-22.283
X-116.721 Y-22.42
X-116.651 Y-22.552
X-116.572 Y-22.68
X-116.486 Y-22.803
X-116.394 Y-22.921
X-116.295 Y-23.034
X-116.19 Y-23.141
X-116.08 Y-23.243
X-115.965 Y-23.34
X-115.846 Y-23.431
X-115.723 Y-23.517
X-115.597 Y-23.597
X-115.467 Y-23.672
X-115.334 Y-23.741
X-115.198 Y-23.805
X-115.059 Y-23.863
X-114.919 Y-23.915
X-114.776 Y-23.961
X-114.632 Y-24.002
X-114.486 Y-24.036
X-114.338 Y-24.065
X-114.19 Y-24.087
X-114.041 Y-24.102
X-113.891 Y-24.111
X-113.741 Y-24.114
X-113.591 Y-24.109
X-113.442 Y-24.098
X-113.293 Y-24.081
X-113.145 Y-24.056
X-112.988 Y-24.022
X-112.597 Y-23.886
X-112.233 Y-23.687
X-111.907 Y-23.431
X-111.627 Y-23.125
X-111.401 Y-22.778
X-111.235 Y-22.398
X-111.134 Y-21.996
X-111.1 Y-21.583
Y-20.98
G3 X-112.642 Y-19.784 I-1.269 J-0.044
G1 X-115.904 Y-20.502
G3 X-116.9 Y-21.698 I0.273 J-1.24
G1 Y-22.267
X-116.893 Y-22.417
X-116.872 Y-22.565
X-116.837 Y-22.711
X-116.788 Y-22.853
X-116.729 Y-22.991
X-116.66 Y-23.124
X-116.583 Y-23.253
X-116.498 Y-23.376
X-116.406 Y-23.495
X-116.308 Y-23.609
X-116.204 Y-23.717
X-116.095 Y-23.82
X-115.981 Y-23.917
X-115.863 Y-24.01
X-115.741 Y-24.097
X-115.615 Y-24.178
X-115.485 Y-24.254
X-115.353 Y-24.324
X-115.217 Y-24.388
X-115.079 Y-24.447
X-114.939 Y-24.499
X-114.796 Y-24.546
X-114.652 Y-24.588
X-114.506 Y-24.623
X-114.359 Y-24.652
X-114.211 Y-24.675
X-114.062 Y-24.691
X-113.912 Y-24.701
X-113.762 Y-24.704
X-113.612 Y-24.701
X-113.462 Y-24.691
X-113.313 Y-24.675
X-113.165 Y-24.651
X-113.018 Y-24.621
X-112.621 Y-24.485
X-112.252 Y-24.286
X-111.921 Y-24.029
X-111.636 Y-23.72
X-111.407 Y-23.369
X-111.238 Y-22.985
X-111.135 Y-22.578
X-111.1 Y-22.16
Y-21.583
G3 X-112.63 Y-20.384 I-1.269 J-0.044
G1 X-115.892 Y-21.068
G3 X-116.9 Y-22.267 I0.261 J-1.243
G1 Y-22.884
X-116.893 Y-23.034
X-116.869 Y-23.182
X-116.831 Y-23.327
X-116.78 Y-23.468
X-116.719 Y-23.605
X-116.649 Y-23.738
X-116.57 Y-23.865
X-116.484 Y-23.988
X-116.391 Y-24.106
X-116.292 Y-24.219
X-116.187 Y-24.326
X-116.077 Y-24.428
X-115.962 Y-24.525
X-115.843 Y-24.616
X-115.72 Y-24.702
X-115.594 Y-24.782
X-115.463 Y-24.857
X-115.33 Y-24.926
X-115.194 Y-24.989
X-115.056 Y-25.047
X-114.915 Y-25.099
X-114.772 Y-25.145
X-114.628 Y-25.185
X-114.482 Y-25.219
X-114.334 Y-25.247
X-114.186 Y-25.268
X-114.037 Y-25.283
X-113.887 Y-25.292
X-113.737 Y-25.295
X-113.587 Y-25.29
X-113.438 Y-25.278
X-113.289 Y-25.261
X-113.141 Y-25.236
X-113.122 Y-25.232
X-112.706 Y-25.104
X-112.318 Y-24.908
X-111.969 Y-24.649
X-111.668 Y-24.335
X-111.425 Y-23.975
X-111.246 Y-23.579
X-111.137 Y-23.158
X-111.1 Y-22.725
Y-22.16
G3 X-112.644 Y-20.965 I-1.269 J-0.044
G1 X-115.906 Y-21.689
G3 X-116.9 Y-22.884 I0.275 J-1.24
G1 Y-23.451
X-116.893 Y-23.601
X-116.872 Y-23.75
X-116.836 Y-23.896
X-116.788 Y-24.037
X-116.728 Y-24.175
X-116.659 Y-24.308
X-116.582 Y-24.437
X-116.497 Y-24.56
X-116.405 Y-24.679
X-116.307 Y-24.792
X-116.203 Y-24.901
X-116.094 Y-25.003
X-115.98 Y-25.101
X-115.862 Y-25.193
X-115.739 Y-25.28
X-115.613 Y-25.361
X-115.483 Y-25.437
X-115.351 Y-25.507
X-115.215 Y-25.571
X-115.077 Y-25.629
X-114.937 Y-25.682
X-114.794 Y-25.729
X-114.65 Y-25.77
X-114.504 Y-25.805
X-114.357 Y-25.833
X-114.208 Y-25.855
X-114.059 Y-25.87
X-113.909 Y-25.88
X-113.759 Y-25.882
X-113.609 Y-25.878
X-113.46 Y-25.867
X-113.311 Y-25.85
X-113.163 Y-25.826
X-113.016 Y-25.794
X-112.871 Y-25.757
X-112.5 Y-25.61
X-112.158 Y-25.406
X-111.852 Y-25.15
X-111.591 Y-24.85
X-111.38 Y-24.511
X-111.226 Y-24.144
X-111.132 Y-23.757
X-111.1 Y-23.359
Y-22.725
G3 X-112.645 Y-21.529 I-1.269 J-0.044
G1 X-115.907 Y-22.256
G3 X-116.9 Y-23.451 I0.276 J-1.24
G1 Y-24.062
X-116.893 Y-24.212
X-116.87 Y-24.36
X-116.832 Y-24.505
X-116.782 Y-24.647
X-116.721 Y-24.784
X-116.65 Y-24.916
X-116.572 Y-25.044
X-116.486 Y-25.167
X-116.393 Y-25.285
X-116.294 Y-25.398
X-116.19 Y-25.505
X-116.08 Y-25.607
X-115.965 Y-25.704
X-115.846 Y-25.795
X-115.723 Y-25.881
X-115.596 Y-25.962
X-115.466 Y-26.036
X-115.333 Y-26.105
X-115.197 Y-26.168
X-115.059 Y-26.226
X-114.918 Y-26.278
X-114.775 Y-26.323
X-114.63 Y-26.363
X-114.484 Y-26.397
X-114.337 Y-26.425
X-114.188 Y-26.447
X-114.039 Y-26.462
X-113.889 Y-26.471
X-113.739 Y-26.474
X-113.59 Y-26.47
X-113.44 Y-26.458
X-113.291 Y-26.441
X-113.143 Y-26.417
X-112.724 Y-26.29
X-112.332 Y-26.094
X-111.979 Y-25.835
X-111.675 Y-25.519
X-111.429 Y-25.157
X-111.248 Y-24.758
X-111.137 Y-24.334
X-111.1 Y-23.898
Y-23.359
G3 X-112.637 Y-22.162 I-1.269 J-0.044
G1 X-115.898 Y-22.865
G3 X-116.9 Y-24.062 I0.268 J-1.241
G1 Y-24.628
X-116.893 Y-24.778
X-116.873 Y-24.927
X-116.838 Y-25.072
X-116.789 Y-25.214
X-116.73 Y-25.352
X-116.662 Y-25.486
X-116.584 Y-25.614
X-116.5 Y-25.738
X-116.408 Y-25.857
X-116.31 Y-25.97
X-116.206 Y-26.078
X-116.097 Y-26.181
X-115.983 Y-26.279
X-115.865 Y-26.371
X-115.742 Y-26.458
X-115.616 Y-26.539
X-115.487 Y-26.615
X-115.354 Y-26.685
X-115.218 Y-26.749
X-115.08 Y-26.808
X-114.94 Y-26.86
X-114.797 Y-26.907
X-114.653 Y-26.948
X-114.507 Y-26.984
X-114.36 Y-27.012
X-114.212 Y-27.034
X-114.063 Y-27.05
X-113.913 Y-27.06
X-113.763 Y-27.062
X-113.613 Y-27.058
X-113.463 Y-27.047
X-113.314 Y-27.03
X-113.166 Y-27.005
X-113.02 Y-26.974
X-112.874 Y-26.937
X-112.503 Y-26.79
X-112.16 Y-26.585
X-111.854 Y-26.329
X-111.592 Y-26.028
X-111.381 Y-25.688
X-111.226 Y-25.32
X-111.132 Y-24.932
X-111.1 Y-24.534
Y-23.898
G3 X-112.647 Y-22.703 I-1.269 J-0.044
G1 X-115.908 Y-23.433
G3 X-116.9 Y-24.628 I0.278 J-1.239
G1 Y-25.218
X-116.893 Y-25.368
X-116.873 Y-25.517
X-116.837 Y-25.662
X-116.789 Y-25.804
X-116.73 Y-25.942
X-116.661 Y-26.076
X-116.584 Y-26.204
X-116.499 Y-26.328
X-116.408 Y-26.447
X-116.31 Y-26.56
X-116.206 Y-26.669
X-116.097 Y-26.772
X-115.983 Y-26.869
X-115.865 Y-26.961
X-115.742 Y-27.048
X-115.616 Y-27.129
X-115.486 Y-27.205
X-115.354 Y-27.275
X-115.218 Y-27.339
X-115.08 Y-27.397
X-114.939 Y-27.45
X-114.797 Y-27.496
X-114.653 Y-27.537
X-114.507 Y-27.572
X-114.359 Y-27.601
X-114.211 Y-27.623
X-114.062 Y-27.64
X-113.912 Y-27.649
X-113.762 Y-27.653
X-113.612 Y-27.65
X-113.463 Y-27.639
X-113.314 Y-27.623
X-113.165 Y-27.6
X-113.018 Y-27.57
X-112.621 Y-27.433
X-112.252 Y-27.233
X-111.92 Y-26.974
X-111.636 Y-26.665
X-111.406 Y-26.313
X-111.238 Y-25.928
X-111.135 Y-25.52
X-111.1 Y-25.102
Y-24.534
G3 X-112.63 Y-23.335 I-1.269 J-0.044
G1 X-115.892 Y-24.02
G3 X-116.9 Y-25.218 I0.261 J-1.243
G1 Y-25.833
X-116.893 Y-25.983
X-116.87 Y-26.131
X-116.832 Y-26.277
X-116.781 Y-26.418
X-116.72 Y-26.555
X-116.65 Y-26.688
X-116.572 Y-26.815
X-116.486 Y-26.938
X-116.393 Y-27.056
X-116.294 Y-27.169
X-116.189 Y-27.276
X-116.079 Y-27.378
X-115.964 Y-27.474
X-115.845 Y-27.566
X-115.722 Y-27.651
X-115.595 Y-27.732
X-115.465 Y-27.806
X-115.332 Y-27.875
X-115.196 Y-27.938
X-115.057 Y-27.996
X-114.916 Y-28.048
X-114.774 Y-28.094
X-114.629 Y-28.134
X-114.483 Y-28.168
X-114.336 Y-28.196
X-114.187 Y-28.218
X-114.038 Y-28.232
X-113.888 Y-28.241
X-113.738 Y-28.244
X-113.588 Y-28.239
X-113.439 Y-28.227
X-113.29 Y-28.21
X-113.142 Y-28.185
X-112.995 Y-28.153
X-112.85 Y-28.115
X-112.484 Y-27.968
X-112.145 Y-27.766
X-111.843 Y-27.512
X-111.585 Y-27.214
X-111.377 Y-26.879
X-111.224 Y-26.515
X-111.131 Y-26.131
X-111.1 Y-25.738
Y-25.102
G3 X-112.647 Y-23.907 I-1.269 J-0.044
G1 X-115.909 Y-24.639
G3 X-116.9 Y-25.833 I0.278 J-1.239
G1 Y-26.412
X-116.893 Y-26.562
X-116.871 Y-26.71
X-116.834 Y-26.856
X-116.785 Y-26.997
X-116.725 Y-27.135
X-116.655 Y-27.268
X-116.577 Y-27.396
X-116.492 Y-27.519
X-116.399 Y-27.637
X-116.301 Y-27.75
X-116.196 Y-27.858
X-116.087 Y-27.96
X-115.973 Y-28.058
X-115.854 Y-28.149
X-115.731 Y-28.236
X-115.605 Y-28.316
X-115.475 Y-28.391
X-115.342 Y-28.461
X-115.206 Y-28.525
X-115.068 Y-28.583
X-114.927 Y-28.635
X-114.785 Y-28.681
X-114.64 Y-28.722
X-114.494 Y-28.756
X-114.347 Y-28.785
X-114.199 Y-28.807
X-114.049 Y-28.823
X-113.9 Y-28.833
X-113.75 Y-28.836
X-113.6 Y-28.833
X-113.45 Y-28.823
X-113.301 Y-28.806
X-113.153 Y-28.783
X-113.006 Y-28.753
X-112.611 Y-28.616
X-112.244 Y-28.417
X-111.915 Y-28.16
X-111.632 Y-27.852
X-111.404 Y-27.503
X-111.237 Y-27.12
X-111.134 Y-26.715
X-111.1 Y-26.299
Y-25.738
G3 X-112.626 Y-24.538 I-1.269 J-0.044
G1 X-115.888 Y-25.213
G3 X-116.9 Y-26.412 I0.257 J-1.244
G1 Y-27.004
X-116.893 Y-27.154
X-116.871 Y-27.303
X-116.834 Y-27.448
X-116.784 Y-27.59
X-116.724 Y-27.727
X-116.654 Y-27.86
X-116.576 Y-27.988
X-116.49 Y-28.111
X-116.398 Y-28.229
X-116.299 Y-28.342
X-116.195 Y-28.45
X-116.085 Y-28.552
X-115.971 Y-28.649
X-115.852 Y-28.741
X-115.729 Y-28.827
X-115.603 Y-28.908
X-115.473 Y-28.983
X-115.34 Y-29.052
X-115.204 Y-29.116
X-115.066 Y-29.174
X-114.926 Y-29.227
X-114.783 Y-29.273
X-114.639 Y-29.314
X-114.493 Y-29.349
X-114.345 Y-29.378
X-114.197 Y-29.4
X-114.048 Y-29.415
X-113.898 Y-29.425
X-113.748 Y-29.428
X-113.598 Y-29.424
X-113.449 Y-29.413
X-113.3 Y-29.396
X-113.152 Y-29.373
X-113.005 Y-29.341
X-112.98 Y-29.335
X-112.591 Y-29.2
X-112.229 Y-29.003
X-111.904 Y-28.749
X-111.625 Y-28.446
X-111.4 Y-28.1
X-111.235 Y-27.723
X-111.134 Y-27.323
X-111.1 Y-26.912
Y-26.299
G3 X-112.638 Y-25.102 I-1.269 J-0.044
G1 X-115.899 Y-25.808
G3 X-116.9 Y-27.004 I0.269 J-1.241
G1 Y-27.596
X-116.893 Y-27.746
X-116.87 Y-27.895
X-116.833 Y-28.04
X-116.784 Y-28.181
X-116.723 Y-28.319
X-116.653 Y-28.451
X-116.575 Y-28.58
X-116.49 Y-28.703
X-116.397 Y-28.821
X-116.298 Y-28.934
X-116.194 Y-29.041
X-116.084 Y-29.144
X-115.97 Y-29.241
X-115.851 Y-29.333
X-115.729 Y-29.419
X-115.602 Y-29.5
X-115.472 Y-29.575
X-115.34 Y-29.644
X-115.204 Y-29.708
X-115.066 Y-29.766
X-114.925 Y-29.819
X-114.782 Y-29.865
X-114.638 Y-29.906
X-114.492 Y-29.94
X-114.345 Y-29.969
X-114.196 Y-29.991
X-114.047 Y-30.006
X-113.897 Y-30.016
X-113.748 Y-30.019
X-113.598 Y-30.015
X-113.448 Y-30.005
X-113.299 Y-29.988
X-113.151 Y-29.965
X-113.004 Y-29.934
X-112.61 Y-29.799
X-112.243 Y-29.6
X-111.914 Y-29.344
X-111.632 Y-29.037
X-111.404 Y-28.688
X-111.237 Y-28.306
X-111.134 Y-27.902
X-111.1 Y-27.487
Y-26.912
G3 X-112.63 Y-25.713 I-1.269 J-0.044
G1 X-115.892 Y-26.398
G3 X-116.9 Y-27.596 I0.261 J-1.243
G1 Y-28.169
X-116.893 Y-28.319
X-116.873 Y-28.468
X-116.837 Y-28.614
X-116.789 Y-28.756
X-116.73 Y-28.893
X-116.662 Y-29.027
X-116.584 Y-29.156
X-116.5 Y-29.279
X-116.408 Y-29.398
X-116.31 Y-29.512
X-116.206 Y-29.62
X-116.097 Y-29.723
X-115.984 Y-29.821
X-115.865 Y-29.913
X-115.743 Y-30
X-115.617 Y-30.082
X-115.488 Y-30.157
X-115.355 Y-30.228
X-115.22 Y-30.292
X-115.082 Y-30.351
X-114.942 Y-30.404
X-114.799 Y-30.451
X-114.655 Y-30.492
X-114.509 Y-30.528
X-114.362 Y-30.557
X-114.214 Y-30.58
X-114.065 Y-30.596
X-113.915 Y-30.607
X-113.765 Y-30.611
X-113.615 Y-30.607
X-113.466 Y-30.597
X-113.316 Y-30.581
X-113.168 Y-30.558
X-113.134 Y-30.551
X-112.717 Y-30.427
X-112.327 Y-30.234
X-111.975 Y-29.977
X-111.673 Y-29.664
X-111.428 Y-29.305
X-111.247 Y-28.909
X-111.137 Y-28.488
X-111.1 Y-28.054
Y-27.487
G3 X-112.629 Y-26.288 I-1.269 J-0.044
G1 X-115.891 Y-26.971
G3 X-116.9 Y-28.169 I0.26 J-1.243
G1 Y-28.781
X-116.893 Y-28.931
X-116.87 Y-29.079
X-116.833 Y-29.224
X-116.783 Y-29.366
X-116.722 Y-29.503
X-116.652 Y-29.636
X-116.574 Y-29.764
X-116.489 Y-29.887
X-116.396 Y-30.005
X-116.297 Y-30.118
X-116.193 Y-30.225
X-116.083 Y-30.328
X-115.969 Y-30.425
X-115.85 Y-30.516
X-115.727 Y-30.602
X-115.601 Y-30.683
X-115.471 Y-30.758
X-115.338 Y-30.828
X-115.202 Y-30.891
X-115.064 Y-30.949
X-114.923 Y-31.002
X-114.781 Y-31.048
X-114.636 Y-31.089
X-114.49 Y-31.123
X-114.343 Y-31.151
X-114.194 Y-31.172
X-114.045 Y-31.188
X-113.895 Y-31.197
X-113.745 Y-31.199
X-113.595 Y-31.194
X-113.446 Y-31.183
X-113.297 Y-31.166
X-113.149 Y-31.141
X-113.002 Y-31.109
X-112.608 Y-30.972
X-112.242 Y-30.772
X-111.913 Y-30.514
X-111.631 Y-30.206
X-111.404 Y-29.856
X-111.236 Y-29.473
X-111.134 Y-29.069
X-111.1 Y-28.652
Y-28.054
G3 X-112.645 Y-26.859 I-1.269 J-0.044
G1 X-115.907 Y-27.585
G3 X-116.9 Y-28.781 I0.276 J-1.24
G1 Y-29.355
X-116.893 Y-29.505
X-116.872 Y-29.654
X-116.837 Y-29.8
X-116.788 Y-29.942
X-116.729 Y-30.079
X-116.66 Y-30.213
X-116.583 Y-30.341
X-116.498 Y-30.465
X-116.406 Y-30.583
X-116.308 Y-30.697
X-116.204 Y-30.805
X-116.095 Y-30.908
X-115.981 Y-31.006
X-115.863 Y-31.098
X-115.74 Y-31.185
X-115.614 Y-31.266
X-115.485 Y-31.341
X-115.352 Y-31.411
X-115.216 Y-31.475
X-115.078 Y-31.534
X-114.938 Y-31.586
X-114.795 Y-31.633
X-114.651 Y-31.674
X-114.505 Y-31.709
X-114.358 Y-31.738
X-114.209 Y-31.76
X-114.06 Y-31.776
X-113.91 Y-31.785
X-113.761 Y-31.789
X-113.611 Y-31.785
X-113.461 Y-31.774
X-113.312 Y-31.758
X-113.158 Y-31.733
X-112.736 Y-31.606
X-112.341 Y-31.409
X-111.985 Y-31.147
X-111.679 Y-30.83
X-111.431 Y-30.464
X-111.249 Y-30.063
X-111.138 Y-29.636
X-111.1 Y-29.196
Y-28.652
G3 X-112.637 Y-27.455 I-1.269 J-0.044
G1 X-115.898 Y-28.158
G3 X-116.9 Y-29.355 I0.268 J-1.241
G1 Y-29.957
X-116.893 Y-30.107
X-116.871 Y-30.256
X-116.834 Y-30.401
X-116.785 Y-30.543
X-116.725 Y-30.68
X-116.655 Y-30.813
X-116.577 Y-30.941
X-116.492 Y-31.064
X-116.399 Y-31.183
X-116.301 Y-31.296
X-116.196 Y-31.404
X-116.087 Y-31.506
X-115.972 Y-31.603
X-115.854 Y-31.695
X-115.731 Y-31.781
X-115.605 Y-31.862
X-115.475 Y-31.937
X-115.342 Y-32.006
X-115.206 Y-32.07
X-115.068 Y-32.128
X-114.927 Y-32.18
X-114.784 Y-32.226
X-114.64 Y-32.267
X-114.494 Y-32.301
X-114.346 Y-32.329
X-114.198 Y-32.35
X-114.049 Y-32.365
X-113.899 Y-32.374
X-113.749 Y-32.375
X-113.599 Y-32.37
X-113.449 Y-32.358
X-113.301 Y-32.34
X-113.153 Y-32.314
X-113.006 Y-32.282
X-112.861 Y-32.244
X-112.492 Y-32.095
X-112.151 Y-31.889
X-111.847 Y-31.632
X-111.587 Y-31.33
X-111.378 Y-30.992
X-111.225 Y-30.624
X-111.131 Y-30.237
X-111.1 Y-29.84
Y-29.196
G3 X-112.658 Y-28.004 I-1.269 J-0.044
G1 X-115.919 Y-28.765
G3 X-116.9 Y-29.957 I0.289 J-1.237
G1 Y-30.547
X-116.893 Y-30.697
X-116.871 Y-30.846
X-116.834 Y-30.991
X-116.785 Y-31.133
X-116.725 Y-31.27
X-116.655 Y-31.403
X-116.577 Y-31.531
X-116.492 Y-31.655
X-116.399 Y-31.773
X-116.301 Y-31.886
X-116.196 Y-31.994
X-116.087 Y-32.096
X-115.973 Y-32.193
X-115.854 Y-32.285
X-115.731 Y-32.371
X-115.605 Y-32.452
X-115.475 Y-32.526
X-115.342 Y-32.596
X-115.206 Y-32.659
X-115.067 Y-32.717
X-114.926 Y-32.769
X-114.784 Y-32.815
X-114.639 Y-32.854
X-114.493 Y-32.888
X-114.346 Y-32.916
X-114.197 Y-32.939
X-114.048 Y-32.954
X-113.898 Y-32.963
X-113.748 Y-32.965
X-113.598 Y-32.962
X-113.449 Y-32.951
X-113.3 Y-32.933
X-113.152 Y-32.909
X-113.005 Y-32.879
X-112.61 Y-32.74
X-112.243 Y-32.539
X-111.914 Y-32.28
X-111.632 Y-31.972
X-111.404 Y-31.621
X-111.237 Y-31.237
X-111.134 Y-30.831
X-111.1 Y-30.414
Y-29.84
G3 X-112.638 Y-28.644 I-1.269 J-0.044
G1 X-115.9 Y-29.351
G3 X-116.9 Y-30.547 I0.269 J-1.241
G1 Y-31.134
X-116.893 Y-31.284
X-116.871 Y-31.433
X-116.835 Y-31.578
X-116.786 Y-31.72
X-116.726 Y-31.857
X-116.657 Y-31.99
X-116.579 Y-32.119
X-116.493 Y-32.242
X-116.401 Y-32.36
X-116.303 Y-32.473
X-116.198 Y-32.581
X-116.089 Y-32.684
X-115.974 Y-32.781
X-115.856 Y-32.872
X-115.733 Y-32.958
X-115.606 Y-33.039
X-115.477 Y-33.114
X-115.344 Y-33.183
X-115.208 Y-33.247
X-115.069 Y-33.305
X-114.929 Y-33.357
X-114.786 Y-33.404
X-114.642 Y-33.444
X-114.496 Y-33.479
X-114.348 Y-33.507
X-114.2 Y-33.529
X-114.051 Y-33.544
X-113.901 Y-33.554
X-113.751 Y-33.557
X-113.601 Y-33.552
X-113.452 Y-33.541
X-113.303 Y-33.524
X-113.155 Y-33.5
X-113.008 Y-33.469
X-112.863 Y-33.431
X-112.494 Y-33.285
X-112.153 Y-33.083
X-111.849 Y-32.829
X-111.589 Y-32.53
X-111.379 Y-32.193
X-111.225 Y-31.828
X-111.132 Y-31.443
X-111.1 Y-31.047
Y-30.414
G3 X-112.643 Y-29.218 I-1.269 J-0.044
G1 X-115.905 Y-29.938
G3 X-116.9 Y-31.134 I0.274 J-1.24
G1 Y-31.741
X-116.893 Y-31.891
X-116.869 Y-32.039
X-116.831 Y-32.184
X-116.781 Y-32.326
X-116.719 Y-32.463
X-116.649 Y-32.595
X-116.57 Y-32.723
X-116.484 Y-32.845
X-116.391 Y-32.963
X-116.291 Y-33.075
X-116.186 Y-33.182
X-116.076 Y-33.284
X-115.961 Y-33.381
X-115.842 Y-33.472
X-115.719 Y-33.558
X-115.592 Y-33.638
X-115.462 Y-33.712
X-115.329 Y-33.781
X-115.193 Y-33.844
X-115.054 Y-33.901
X-114.913 Y-33.953
X-114.77 Y-33.999
X-114.626 Y-34.039
X-114.48 Y-34.072
X-114.332 Y-34.1
X-114.184 Y-34.122
X-114.035 Y-34.137
X-113.885 Y-34.146
X-113.735 Y-34.149
X-113.585 Y-34.145
X-113.435 Y-34.134
X-113.286 Y-34.116
X-113.138 Y-34.093
X-112.991 Y-34.062
X-112.599 Y-33.924
X-112.235 Y-33.725
X-111.908 Y-33.468
X-111.628 Y-33.161
X-111.402 Y-32.813
X-111.236 Y-32.432
X-111.134 Y-32.029
X-111.1 Y-31.615
Y-31.047
G3 X-112.633 Y-29.85 I-1.269 J-0.044
G1 X-115.895 Y-30.543
G3 X-116.9 Y-31.741 I0.264 J-1.242
G1 Y-32.305
X-116.893 Y-32.455
X-116.872 Y-32.603
X-116.837 Y-32.749
X-116.789 Y-32.891
X-116.729 Y-33.029
X-116.66 Y-33.162
X-116.583 Y-33.29
X-116.498 Y-33.414
X-116.406 Y-33.533
X-116.308 Y-33.646
X-116.204 Y-33.754
X-116.095 Y-33.857
X-115.981 Y-33.955
X-115.863 Y-34.047
X-115.74 Y-34.133
X-115.614 Y-34.214
X-115.484 Y-34.29
X-115.352 Y-34.36
X-115.216 Y-34.424
X-115.078 Y-34.483
X-114.938 Y-34.536
X-114.795 Y-34.583
X-114.651 Y-34.624
X-114.505 Y-34.659
X-114.358 Y-34.688
X-114.21 Y-34.711
X-114.061 Y-34.727
X-113.911 Y-34.737
X-113.761 Y-34.741
X-113.611 Y-34.738
X-113.461 Y-34.728
X-113.312 Y-34.711
X-113.164 Y-34.688
X-113.017 Y-34.658
X-112.872 Y-34.621
X-112.502 Y-34.477
X-112.159 Y-34.275
X-111.853 Y-34.022
X-111.592 Y-33.724
X-111.381 Y-33.387
X-111.226 Y-33.021
X-111.132 Y-32.635
X-111.1 Y-32.239
Y-31.615
G3 X-112.632 Y-30.417 I-1.269 J-0.044
G1 X-115.893 Y-31.107
G3 X-116.9 Y-32.305 I0.263 J-1.243
G1 Y-32.919
X-116.893 Y-33.069
X-116.869 Y-33.217
X-116.831 Y-33.362
X-116.781 Y-33.504
X-116.72 Y-33.641
X-116.649 Y-33.773
X-116.571 Y-33.901
X-116.484 Y-34.024
X-116.392 Y-34.141
X-116.292 Y-34.254
X-116.188 Y-34.361
X-116.078 Y-34.463
X-115.963 Y-34.56
X-115.844 Y-34.651
X-115.721 Y-34.737
X-115.594 Y-34.818
X-115.464 Y-34.892
X-115.331 Y-34.962
X-115.195 Y-35.025
X-115.057 Y-35.083
X-114.916 Y-35.135
X-114.773 Y-35.181
X-114.629 Y-35.221
X-114.483 Y-35.255
X-114.336 Y-35.284
X-114.187 Y-35.306
X-114.038 Y-35.322
X-113.888 Y-35.331
X-113.738 Y-35.334
X-113.588 Y-35.33
X-113.439 Y-35.32
X-113.29 Y-35.303
X-113.142 Y-35.279
X-112.995 Y-35.249
X-112.602 Y-35.112
X-112.237 Y-34.913
X-111.91 Y-34.657
X-111.629 Y-34.351
X-111.402 Y-34.002
X-111.236 Y-33.622
X-111.134 Y-33.219
X-111.1 Y-32.804
Y-32.239
G3 X-112.628 Y-31.04 I-1.269 J-0.044
G1 X-115.89 Y-31.72
G3 X-116.9 Y-32.919 I0.259 J-1.243
G1 Y-33.499
X-116.893 Y-33.648
X-116.871 Y-33.797
X-116.834 Y-33.942
X-116.784 Y-34.084
X-116.724 Y-34.221
X-116.655 Y-34.354
X-116.576 Y-34.482
X-116.491 Y-34.605
X-116.399 Y-34.724
X-116.3 Y-34.837
X-116.196 Y-34.944
X-116.086 Y-35.047
X-115.972 Y-35.144
X-115.853 Y-35.236
X-115.731 Y-35.322
X-115.604 Y-35.403
X-115.475 Y-35.478
X-115.342 Y-35.548
X-115.206 Y-35.612
X-115.068 Y-35.67
X-114.927 Y-35.723
X-114.785 Y-35.77
X-114.641 Y-35.811
X-114.495 Y-35.846
X-114.348 Y-35.875
X-114.199 Y-35.897
X-114.05 Y-35.913
X-113.9 Y-35.923
X-113.75 Y-35.926
X-113.6 Y-35.922
X-113.451 Y-35.912
X-113.302 Y-35.895
X-113.154 Y-35.872
X-113.111 Y-35.863
X-112.699 Y-35.738
X-112.313 Y-35.546
X-111.965 Y-35.29
X-111.666 Y-34.98
X-111.424 Y-34.623
X-111.246 Y-34.23
X-111.137 Y-33.813
X-111.1 Y-33.383
Y-32.804
G3 X-112.634 Y-31.607 I-1.269 J-0.044
G1 X-115.895 Y-32.301
G3 X-116.9 Y-33.499 I0.264 J-1.242
G1 Y-34.068
X-116.893 Y-34.217
X-116.873 Y-34.366
X-116.839 Y-34.512
X-116.791 Y-34.654
X-116.733 Y-34.793
X-116.664 Y-34.926
X-116.588 Y-35.055
X-116.503 Y-35.179
X-116.412 Y-35.298
X-116.314 Y-35.412
X-116.211 Y-35.52
X-116.102 Y-35.624
X-115.989 Y-35.722
X-115.871 Y-35.815
X-115.749 Y-35.902
X-115.623 Y-35.984
X-115.494 Y-36.06
X-115.361 Y-36.13
X-115.226 Y-36.195
X-115.088 Y-36.254
X-114.948 Y-36.308
X-114.806 Y-36.355
X-114.661 Y-36.397
X-114.516 Y-36.432
X-114.369 Y-36.462
X-114.22 Y-36.484
X-114.071 Y-36.501
X-113.922 Y-36.512
X-113.772 Y-36.515
X-113.622 Y-36.512
X-113.472 Y-36.502
X-113.323 Y-36.486
X-113.175 Y-36.463
X-113.028 Y-36.433
X-112.629 Y-36.298
X-112.258 Y-36.099
X-111.925 Y-35.842
X-111.639 Y-35.533
X-111.408 Y-35.181
X-111.239 Y-34.796
X-111.135 Y-34.388
X-111.1 Y-33.968
Y-33.383
G3 X-112.63 Y-32.185 I-1.269 J-0.044
G1 X-115.892 Y-32.869
G3 X-116.9 Y-34.068 I0.261 J-1.243
G1 Y-34.685
X-116.893 Y-34.835
X-116.87 Y-34.983
X-116.833 Y-35.128
X-116.783 Y-35.27
X-116.723 Y-35.407
X-116.653 Y-35.54
X-116.575 Y-35.668
X-116.489 Y-35.791
X-116.397 Y-35.909
X-116.298 Y-36.022
X-116.194 Y-36.13
X-116.084 Y-36.232
X-115.97 Y-36.329
X-115.851 Y-36.421
X-115.728 Y-36.507
X-115.602 Y-36.588
X-115.472 Y-36.663
X-115.339 Y-36.732
X-115.203 Y-36.796
X-115.065 Y-36.854
X-114.924 Y-36.906
X-114.782 Y-36.953
X-114.637 Y-36.993
X-114.491 Y-37.028
X-114.344 Y-37.056
X-114.195 Y-37.078
X-114.046 Y-37.093
X-113.897 Y-37.102
X-113.747 Y-37.105
X-113.597 Y-37.1
X-113.447 Y-37.089
X-113.298 Y-37.072
X-113.15 Y-37.048
X-113.136 Y-37.045
X-112.718 Y-36.917
X-112.327 Y-36.721
X-111.976 Y-36.461
X-111.673 Y-36.145
X-111.428 Y-35.783
X-111.247 Y-35.384
X-111.137 Y-34.961
X-111.1 Y-34.525
Y-33.968
G3 X-112.642 Y-32.772 I-1.269 J-0.044
G1 X-115.903 Y-33.489
G3 X-116.9 Y-34.685 I0.272 J-1.24
G1 Y-35.287
X-116.893 Y-35.437
X-116.869 Y-35.585
X-116.831 Y-35.73
X-116.78 Y-35.871
X-116.719 Y-36.008
X-116.649 Y-36.14
X-116.57 Y-36.268
X-116.484 Y-36.391
X-116.391 Y-36.508
X-116.291 Y-36.621
X-116.187 Y-36.728
X-116.077 Y-36.83
X-115.962 Y-36.927
X-115.843 Y-37.018
X-115.72 Y-37.104
X-115.593 Y-37.184
X-115.463 Y-37.259
X-115.33 Y-37.328
X-115.194 Y-37.391
X-115.055 Y-37.449
X-114.914 Y-37.5
X-114.772 Y-37.546
X-114.627 Y-37.586
X-114.481 Y-37.62
X-114.333 Y-37.647
X-114.185 Y-37.668
X-114.035 Y-37.682
X-113.886 Y-37.691
X-113.736 Y-37.692
X-113.586 Y-37.686
X-113.436 Y-37.674
X-113.287 Y-37.656
X-113.14 Y-37.63
X-112.993 Y-37.598
X-112.6 Y-37.458
X-112.235 Y-37.256
X-111.908 Y-36.998
X-111.628 Y-36.689
X-111.402 Y-36.339
X-111.236 Y-35.956
X-111.134 Y-35.552
X-111.1 Y-35.136
Y-34.525
G3 X-112.658 Y-33.333 I-1.269 J-0.044
G1 X-115.919 Y-34.094
G3 X-116.9 Y-35.287 I0.289 J-1.237
G1 Y-35.877
X-116.893 Y-36.027
X-116.869 Y-36.175
X-116.831 Y-36.32
X-116.781 Y-36.461
X-116.72 Y-36.598
X-116.649 Y-36.731
X-116.57 Y-36.858
X-116.484 Y-36.981
X-116.391 Y-37.099
X-116.292 Y-37.211
X-116.187 Y-37.319
X-116.077 Y-37.421
X-115.963 Y-37.517
X-115.844 Y-37.608
X-115.72 Y-37.694
X-115.594 Y-37.774
X-115.463 Y-37.849
X-115.33 Y-37.918
X-115.194 Y-37.981
X-115.055 Y-38.038
X-114.914 Y-38.089
X-114.772 Y-38.135
X-114.627 Y-38.174
X-114.481 Y-38.208
X-114.333 Y-38.236
X-114.185 Y-38.257
X-114.035 Y-38.271
X-113.886 Y-38.279
X-113.736 Y-38.281
X-113.586 Y-38.276
X-113.436 Y-38.264
X-113.287 Y-38.246
X-113.139 Y-38.221
X-112.72 Y-38.091
X-112.328 Y-37.892
X-111.976 Y-37.629
X-111.673 Y-37.311
X-111.428 Y-36.947
X-111.247 Y-36.547
X-111.137 Y-36.122
X-111.1 Y-35.684
Y-35.136
G3 X-112.65 Y-33.942 I-1.269 J-0.044
G1 X-115.912 Y-34.683
G3 X-116.9 Y-35.877 I0.281 J-1.238
G1 Y-36.464
X-116.893 Y-36.613
X-116.87 Y-36.762
X-116.832 Y-36.907
X-116.782 Y-37.048
X-116.721 Y-37.185
X-116.651 Y-37.318
X-116.572 Y-37.446
X-116.486 Y-37.569
X-116.393 Y-37.686
X-116.294 Y-37.799
X-116.19 Y-37.906
X-116.08 Y-38.008
X-115.965 Y-38.105
X-115.846 Y-38.196
X-115.723 Y-38.282
X-115.596 Y-38.362
X-115.466 Y-38.437
X-115.332 Y-38.505
X-115.196 Y-38.569
X-115.058 Y-38.626
X-114.917 Y-38.678
X-114.774 Y-38.723
X-114.629 Y-38.763
X-114.483 Y-38.797
X-114.336 Y-38.824
X-114.187 Y-38.844
X-114.038 Y-38.859
X-113.888 Y-38.867
X-113.738
X-113.588 Y-38.862
X-113.439 Y-38.85
X-113.29 Y-38.831
X-113.142 Y-38.804
X-112.996 Y-38.772
X-112.851 Y-38.733
X-112.484 Y-38.583
X-112.145 Y-38.377
X-111.843 Y-38.12
X-111.584 Y-37.819
X-111.376 Y-37.481
X-111.224 Y-37.114
X-111.131 Y-36.729
X-111.1 Y-36.333
Y-35.684
G3 X-112.664 Y-34.493 I-1.269 J-0.044
G1 X-115.926 Y-35.273
G3 X-116.9 Y-36.464 I0.295 J-1.235
G1 Y-37.047
X-116.893 Y-37.197
X-116.87 Y-37.345
X-116.833 Y-37.491
X-116.784 Y-37.632
X-116.723 Y-37.77
X-116.654 Y-37.902
X-116.575 Y-38.03
X-116.489 Y-38.153
X-116.397 Y-38.271
X-116.298 Y-38.384
X-116.193 Y-38.492
X-116.084 Y-38.594
X-115.969 Y-38.691
X-115.85 Y-38.782
X-115.727 Y-38.868
X-115.6 Y-38.948
X-115.47 Y-39.023
X-115.337 Y-39.092
X-115.201 Y-39.155
X-115.062 Y-39.212
X-114.922 Y-39.264
X-114.779 Y-39.31
X-114.634 Y-39.349
X-114.488 Y-39.383
X-114.34 Y-39.41
X-114.192 Y-39.432
X-114.043 Y-39.447
X-113.893 Y-39.456
X-113.743 Y-39.458
X-113.593 Y-39.454
X-113.443 Y-39.443
X-113.295 Y-39.425
X-113.146 Y-39.401
X-113 Y-39.37
X-112.606 Y-39.231
X-112.24 Y-39.03
X-111.912 Y-38.771
X-111.63 Y-38.463
X-111.403 Y-38.112
X-111.236 Y-37.729
X-111.134 Y-37.324
X-111.1 Y-36.908
Y-36.333
G3 X-112.641 Y-35.137 I-1.269 J-0.044
G1 X-115.902 Y-35.851
G3 X-116.9 Y-37.047 I0.272 J-1.241
G1 Y-37.634
X-116.893 Y-37.784
X-116.871 Y-37.932
X-116.834 Y-38.078
X-116.784 Y-38.219
X-116.724 Y-38.357
X-116.655 Y-38.49
X-116.576 Y-38.618
X-116.491 Y-38.741
X-116.398 Y-38.859
X-116.299 Y-38.972
X-116.195 Y-39.079
X-116.085 Y-39.181
X-115.97 Y-39.278
X-115.851 Y-39.369
X-115.728 Y-39.455
X-115.602 Y-39.536
X-115.472 Y-39.61
X-115.339 Y-39.68
X-115.203 Y-39.743
X-115.064 Y-39.801
X-114.923 Y-39.853
X-114.781 Y-39.899
X-114.636 Y-39.939
X-114.49 Y-39.973
X-114.343 Y-40.001
X-114.194 Y-40.023
X-114.045 Y-40.038
X-113.895 Y-40.047
X-113.745 Y-40.05
X-113.596 Y-40.045
X-113.446 Y-40.034
X-113.297 Y-40.016
X-113.149 Y-39.992
X-113.002 Y-39.96
X-112.857 Y-39.923
X-112.49 Y-39.776
X-112.15 Y-39.574
X-111.846 Y-39.32
X-111.587 Y-39.021
X-111.378 Y-38.686
X-111.225 Y-38.321
X-111.131 Y-37.936
X-111.1 Y-37.542
Y-36.908
G3 X-112.645 Y-35.712 I-1.269 J-0.044
G1 X-115.907 Y-36.439
G3 X-116.9 Y-37.634 I0.276 J-1.24
G1 Y-38.213
X-116.893 Y-38.362
X-116.872 Y-38.511
X-116.836 Y-38.657
X-116.788 Y-38.799
X-116.728 Y-38.936
X-116.659 Y-39.069
X-116.581 Y-39.198
X-116.496 Y-39.321
X-116.404 Y-39.44
X-116.306 Y-39.553
X-116.201 Y-39.661
X-116.092 Y-39.763
X-115.978 Y-39.861
X-115.859 Y-39.953
X-115.737 Y-40.039
X-115.61 Y-40.12
X-115.481 Y-40.195
X-115.348 Y-40.265
X-115.212 Y-40.329
X-115.074 Y-40.387
X-114.933 Y-40.439
X-114.791 Y-40.486
X-114.646 Y-40.526
X-114.5 Y-40.561
X-114.353 Y-40.59
X-114.205 Y-40.613
X-114.056 Y-40.629
X-113.906 Y-40.638
X-113.756 Y-40.642
X-113.606 Y-40.639
X-113.457 Y-40.629
X-113.307 Y-40.613
X-113.159 Y-40.59
X-113.012 Y-40.56
X-112.616 Y-40.424
X-112.248 Y-40.224
X-111.918 Y-39.967
X-111.634 Y-39.659
X-111.405 Y-39.309
X-111.237 Y-38.925
X-111.135 Y-38.519
X-111.1 Y-38.102
Y-37.542
G3 X-112.625 Y-36.342 I-1.269 J-0.044
G1 X-115.887 Y-37.013
G3 X-116.9 Y-38.213 I0.256 J-1.244
G1 Y-38.828
X-116.893 Y-38.978
X-116.869 Y-39.126
X-116.83 Y-39.271
X-116.779 Y-39.412
X-116.718 Y-39.549
X-116.647 Y-39.681
X-116.568 Y-39.809
X-116.482 Y-39.931
X-116.389 Y-40.049
X-116.289 Y-40.161
X-116.184 Y-40.268
X-116.074 Y-40.37
X-115.959 Y-40.466
X-115.84 Y-40.557
X-115.716 Y-40.643
X-115.59 Y-40.723
X-115.459 Y-40.797
X-115.326 Y-40.866
X-115.19 Y-40.929
X-115.052 Y-40.987
X-114.911 Y-41.038
X-114.768 Y-41.084
X-114.623 Y-41.124
X-114.477 Y-41.159
X-114.33 Y-41.187
X-114.181 Y-41.208
X-114.032 Y-41.223
X-113.882 Y-41.232
X-113.733 Y-41.234
X-113.583 Y-41.229
X-113.433 Y-41.218
X-113.284 Y-41.2
X-113.136 Y-41.175
X-112.99 Y-41.143
X-112.973 Y-41.139
X-112.585 Y-41.003
X-112.224 Y-40.804
X-111.9 Y-40.55
X-111.623 Y-40.245
X-111.399 Y-39.9
X-111.234 Y-39.522
X-111.134 Y-39.123
X-111.1 Y-38.713
Y-38.102
G3 X-112.645 Y-36.907 I-1.269 J-0.044
G1 X-115.907 Y-37.633
G3 X-116.9 Y-38.828 I0.276 J-1.24
G1 Y-39.397
X-116.893 Y-39.547
X-116.871 Y-39.695
X-116.835 Y-39.841
X-116.786 Y-39.983
X-116.726 Y-40.12
X-116.657 Y-40.253
X-116.579 Y-40.381
X-116.493 Y-40.505
X-116.401 Y-40.623
X-116.303 Y-40.736
X-116.198 Y-40.844
X-116.089 Y-40.947
X-115.975 Y-41.044
X-115.856 Y-41.136
X-115.734 Y-41.222
X-115.607 Y-41.303
X-115.478 Y-41.379
X-115.345 Y-41.448
X-115.209 Y-41.512
X-115.071 Y-41.571
X-114.93 Y-41.623
X-114.788 Y-41.67
X-114.644 Y-41.71
X-114.498 Y-41.745
X-114.35 Y-41.774
X-114.202 Y-41.796
X-114.053 Y-41.812
X-113.903 Y-41.822
X-113.753 Y-41.825
X-113.603 Y-41.822
X-113.454 Y-41.811
X-113.305 Y-41.795
X-113.156 Y-41.771
X-113.01 Y-41.741
X-112.614 Y-41.605
X-112.247 Y-41.406
X-111.917 Y-41.15
X-111.634 Y-40.842
X-111.405 Y-40.492
X-111.237 Y-40.109
X-111.135 Y-39.704
X-111.1 Y-39.288
Y-38.713
G3 X-112.63 Y-37.514 I-1.269 J-0.044
G1 X-115.892 Y-38.198
G3 X-116.9 Y-39.397 I0.261 J-1.243
G1 Y-39.97
X-116.893 Y-40.12
X-116.873 Y-40.269
X-116.839 Y-40.414
X-116.791 Y-40.557
X-116.733 Y-40.695
X-116.664 Y-40.828
X-116.587 Y-40.957
X-116.503 Y-41.081
X-116.412 Y-41.2
X-116.314 Y-41.314
X-116.21 Y-41.423
X-116.102 Y-41.526
X-115.988 Y-41.624
X-115.87 Y-41.716
X-115.748 Y-41.803
X-115.622 Y-41.885
X-115.493 Y-41.961
X-115.36 Y-42.031
X-115.225 Y-42.096
X-115.087 Y-42.155
X-114.947 Y-42.208
X-114.804 Y-42.256
X-114.66 Y-42.297
X-114.515 Y-42.333
X-114.368 Y-42.362
X-114.219 Y-42.385
X-114.07 Y-42.402
X-113.921 Y-42.412
X-113.771 Y-42.416
X-113.621 Y-42.413
X-113.471 Y-42.403
X-113.322 Y-42.387
X-113.174 Y-42.364
X-113.14 Y-42.358
X-112.722 Y-42.234
X-112.331 Y-42.04
X-111.978 Y-41.783
X-111.675 Y-41.469
X-111.429 Y-41.109
X-111.248 Y-40.712
X-111.137 Y-40.29
X-111.1 Y-39.855
Y-39.288
G3 X-112.629 Y-38.089 I-1.269 J-0.044
G1 X-115.891 Y-38.771
G3 X-116.9 Y-39.97 I0.26 J-1.243
G1 Y-40.581
X-116.893 Y-40.731
X-116.871 Y-40.88
X-116.834 Y-41.025
X-116.785 Y-41.167
X-116.725 Y-41.304
X-116.655 Y-41.437
X-116.577 Y-41.565
X-116.492 Y-41.688
X-116.399 Y-41.807
X-116.301 Y-41.92
X-116.197 Y-42.028
X-116.087 Y-42.13
X-115.973 Y-42.227
X-115.854 Y-42.319
X-115.732 Y-42.406
X-115.605 Y-42.486
X-115.475 Y-42.562
X-115.343 Y-42.631
X-115.207 Y-42.695
X-115.069 Y-42.753
X-114.928 Y-42.806
X-114.785 Y-42.852
X-114.641 Y-42.893
X-114.495 Y-42.928
X-114.348 Y-42.956
X-114.199 Y-42.977
X-114.05 Y-42.993
X-113.9 Y-43.002
X-113.75 Y-43.004
X-113.6 Y-42.999
X-113.451 Y-42.989
X-113.302 Y-42.971
X-113.154 Y-42.946
X-113.007 Y-42.915
X-112.612 Y-42.778
X-112.245 Y-42.577
X-111.915 Y-42.319
X-111.633 Y-42.011
X-111.404 Y-41.66
X-111.237 Y-41.277
X-111.134 Y-40.871
X-111.1 Y-40.454
Y-39.855
G3 X-112.645 Y-38.659 I-1.269 J-0.044
G1 X-115.907 Y-39.386
G3 X-116.9 Y-40.581 I0.276 J-1.24
G1 Y-41.156
X-116.893 Y-41.306
X-116.873 Y-41.455
X-116.838 Y-41.6
X-116.79 Y-41.743
X-116.731 Y-41.88
X-116.662 Y-42.014
X-116.585 Y-42.143
X-116.501 Y-42.266
X-116.409 Y-42.385
X-116.311 Y-42.499
X-116.208 Y-42.607
X-116.099 Y-42.711
X-115.985 Y-42.808
X-115.867 Y-42.901
X-115.744 Y-42.988
X-115.618 Y-43.069
X-115.489 Y-43.145
X-115.356 Y-43.215
X-115.221 Y-43.279
X-115.083 Y-43.338
X-114.942 Y-43.39
X-114.8 Y-43.437
X-114.655 Y-43.478
X-114.51 Y-43.513
X-114.362 Y-43.542
X-114.214 Y-43.565
X-114.065 Y-43.58
X-113.915 Y-43.59
X-113.765 Y-43.594
X-113.615 Y-43.59
X-113.466 Y-43.579
X-113.317 Y-43.563
X-113.164 Y-43.539
X-112.741 Y-43.411
X-112.345 Y-43.214
X-111.988 Y-42.952
X-111.681 Y-42.634
X-111.432 Y-42.268
X-111.25 Y-41.865
X-111.138 Y-41.437
X-111.1 Y-40.997
Y-40.454
G3 X-112.637 Y-39.257 I-1.269 J-0.044
G1 X-115.898 Y-39.959
G3 X-116.9 Y-41.156 I0.267 J-1.242
G1 Y-41.758
X-116.893 Y-41.908
X-116.871 Y-42.056
X-116.835 Y-42.202
X-116.786 Y-42.344
X-116.727 Y-42.481
X-116.657 Y-42.614
X-116.58 Y-42.743
X-116.494 Y-42.866
X-116.402 Y-42.985
X-116.304 Y-43.098
X-116.2 Y-43.206
X-116.09 Y-43.308
X-115.976 Y-43.406
X-115.858 Y-43.497
X-115.735 Y-43.584
X-115.609 Y-43.665
X-115.479 Y-43.74
X-115.346 Y-43.809
X-115.21 Y-43.873
X-115.072 Y-43.931
X-114.931 Y-43.984
X-114.789 Y-44.03
X-114.644 Y-44.071
X-114.498 Y-44.105
X-114.351 Y-44.133
X-114.202 Y-44.154
X-114.053 Y-44.169
X-113.903 Y-44.178
X-113.753 Y-44.179
X-113.603 Y-44.174
X-113.454 Y-44.163
X-113.305 Y-44.145
X-113.157 Y-44.119
X-113.011 Y-44.088
X-112.865 Y-44.049
X-112.496 Y-43.9
X-112.154 Y-43.694
X-111.849 Y-43.437
X-111.589 Y-43.135
X-111.379 Y-42.795
X-111.225 Y-42.427
X-111.132 Y-42.039
X-111.1 Y-41.642
Y-40.997
G3 X-112.658 Y-39.804 I-1.269 J-0.044
G1 X-115.919 Y-40.566
G3 X-116.9 Y-41.758 I0.289 J-1.237
G1 Y-42.348
X-116.893 Y-42.498
X-116.872 Y-42.646
X-116.835 Y-42.792
X-116.786 Y-42.934
X-116.727 Y-43.071
X-116.657 Y-43.204
X-116.58 Y-43.333
X-116.494 Y-43.456
X-116.402 Y-43.574
X-116.304 Y-43.688
X-116.2 Y-43.796
X-116.09 Y-43.898
X-115.976 Y-43.996
X-115.857 Y-44.087
X-115.735 Y-44.174
X-115.608 Y-44.254
X-115.478 Y-44.329
X-115.345 Y-44.399
X-115.21 Y-44.462
X-115.071 Y-44.52
X-114.93 Y-44.572
X-114.788 Y-44.618
X-114.643 Y-44.658
X-114.497 Y-44.692
X-114.35 Y-44.72
X-114.201 Y-44.743
X-114.052 Y-44.758
X-113.902 Y-44.767
X-113.752 Y-44.77
X-113.602 Y-44.766
X-113.453 Y-44.755
X-113.304 Y-44.738
X-113.156 Y-44.714
X-113.009 Y-44.683
X-112.613 Y-44.545
X-112.246 Y-44.344
X-111.916 Y-44.085
X-111.633 Y-43.776
X-111.405 Y-43.424
X-111.237 Y-43.04
X-111.134 Y-42.633
X-111.1 Y-42.216
Y-41.642
G3 X-112.638 Y-40.445 I-1.269 J-0.044
G1 X-115.9 Y-41.151
G3 X-116.9 Y-42.348 I0.269 J-1.241
G1 Y-42.935
X-116.893 Y-43.085
X-116.872 Y-43.233
X-116.836 Y-43.379
X-116.787 Y-43.521
X-116.728 Y-43.659
X-116.659 Y-43.792
X-116.581 Y-43.92
X-116.496 Y-44.043
X-116.404 Y-44.162
X-116.305 Y-44.275
X-116.201 Y-44.383
X-116.092 Y-44.486
X-115.978 Y-44.583
X-115.859 Y-44.675
X-115.736 Y-44.761
X-115.61 Y-44.842
X-115.48 Y-44.917
X-115.347 Y-44.986
X-115.211 Y-45.05
X-115.073 Y-45.108
X-114.932 Y-45.161
X-114.79 Y-45.207
X-114.645 Y-45.248
X-114.5 Y-45.282
X-114.352 Y-45.311
X-114.204 Y-45.333
X-114.055 Y-45.348
X-113.905 Y-45.358
X-113.755 Y-45.361
X-113.605 Y-45.356
X-113.455 Y-45.345
X-113.306 Y-45.328
X-113.158 Y-45.304
X-113.012 Y-45.273
X-112.866 Y-45.236
X-112.497 Y-45.09
X-112.156 Y-44.887
X-111.851 Y-44.633
X-111.59 Y-44.334
X-111.38 Y-43.997
X-111.226 Y-43.631
X-111.132 Y-43.245
X-111.1 Y-42.849
Y-42.216
G3 X-112.643 Y-41.02 I-1.269 J-0.044
G1 X-115.904 Y-41.739
G3 X-116.9 Y-42.935 I0.274 J-1.24
G1 Y-43.542
X-116.893 Y-43.692
X-116.87 Y-43.84
X-116.832 Y-43.985
X-116.782 Y-44.127
X-116.721 Y-44.264
X-116.651 Y-44.396
X-116.572 Y-44.524
X-116.486 Y-44.647
X-116.393 Y-44.764
X-116.294 Y-44.877
X-116.189 Y-44.984
X-116.079 Y-45.086
X-115.964 Y-45.183
X-115.845 Y-45.274
X-115.722 Y-45.36
X-115.595 Y-45.44
X-115.465 Y-45.515
X-115.332 Y-45.584
X-115.196 Y-45.647
X-115.058 Y-45.704
X-114.917 Y-45.756
X-114.774 Y-45.802
X-114.629 Y-45.842
X-114.483 Y-45.876
X-114.336 Y-45.904
X-114.187 Y-45.926
X-114.038 Y-45.941
X-113.888 Y-45.95
X-113.738 Y-45.953
X-113.589 Y-45.949
X-113.439 Y-45.938
X-113.29 Y-45.921
X-113.142 Y-45.897
X-112.995 Y-45.866
X-112.602 Y-45.729
X-112.237 Y-45.529
X-111.91 Y-45.272
X-111.629 Y-44.965
X-111.402 Y-44.616
X-111.236 Y-44.235
X-111.134 Y-43.832
X-111.1 Y-43.417
Y-42.849
G3 X-112.633 Y-41.651 I-1.269 J-0.044
G1 X-115.895 Y-42.344
G3 X-116.9 Y-43.542 I0.264 J-1.242
G1 Y-44.105
X-116.893 Y-44.255
X-116.873 Y-44.404
X-116.838 Y-44.55
X-116.79 Y-44.692
X-116.731 Y-44.83
X-116.662 Y-44.963
X-116.585 Y-45.092
X-116.5 Y-45.215
X-116.408 Y-45.334
X-116.31 Y-45.448
X-116.207 Y-45.556
X-116.098 Y-45.659
X-115.984 Y-45.757
X-115.865 Y-45.849
X-115.743 Y-45.936
X-115.617 Y-46.017
X-115.487 Y-46.093
X-115.355 Y-46.163
X-115.219 Y-46.227
X-115.081 Y-46.286
X-114.941 Y-46.339
X-114.799 Y-46.386
X-114.654 Y-46.427
X-114.509 Y-46.462
X-114.361 Y-46.492
X-114.213 Y-46.515
X-114.064 Y-46.531
X-113.914 Y-46.541
X-113.764 Y-46.545
X-113.615 Y-46.542
X-113.465 Y-46.531
X-113.316 Y-46.515
X-113.168 Y-46.492
X-113.021 Y-46.462
X-112.875 Y-46.425
X-112.504 Y-46.281
X-112.161 Y-46.08
X-111.855 Y-45.826
X-111.593 Y-45.527
X-111.381 Y-45.19
X-111.226 Y-44.824
X-111.132 Y-44.438
X-111.1 Y-44.041
Y-43.417
G3 X-112.632 Y-42.219 I-1.269 J-0.044
G1 X-115.893 Y-42.907
G3 X-116.9 Y-44.105 I0.262 J-1.243
G1 Y-44.726
X-116.893 Y-44.876
X-116.869 Y-45.024
X-116.831 Y-45.169
X-116.78 Y-45.31
X-116.719 Y-45.447
X-116.648 Y-45.58
X-116.569 Y-45.707
X-116.483 Y-45.83
X-116.39 Y-45.948
X-116.291 Y-46.06
X-116.186 Y-46.167
X-116.076 Y-46.269
X-115.961 Y-46.366
X-115.842 Y-46.457
X-115.719 Y-46.543
X-115.592 Y-46.623
X-115.462 Y-46.698
X-115.329 Y-46.767
X-115.193 Y-46.83
X-115.054 Y-46.888
X-114.914 Y-46.939
X-114.771 Y-46.985
X-114.626 Y-47.026
X-114.48 Y-47.06
X-114.333 Y-47.088
X-114.185 Y-47.11
X-114.035 Y-47.126
X-113.886 Y-47.134
X-113.736 Y-47.137
X-113.586 Y-47.134
X-113.436 Y-47.123
X-113.287 Y-47.106
X-113.139 Y-47.082
X-112.992 Y-47.051
X-112.6 Y-46.915
X-112.236 Y-46.716
X-111.909 Y-46.459
X-111.628 Y-46.153
X-111.402 Y-45.805
X-111.236 Y-45.425
X-111.134 Y-45.022
X-111.1 Y-44.608
Y-44.041
G3 X-112.63 Y-42.842 I-1.269 J-0.044
G1 X-115.892 Y-43.528
G3 X-116.9 Y-44.726 I0.261 J-1.243
G1 Y-45.299
X-116.893 Y-45.449
X-116.871 Y-45.598
X-116.835 Y-45.743
X-116.785 Y-45.885
X-116.726 Y-46.022
X-116.656 Y-46.155
X-116.578 Y-46.283
X-116.493 Y-46.407
X-116.401 Y-46.525
X-116.302 Y-46.638
X-116.198 Y-46.746
X-116.089 Y-46.849
X-115.974 Y-46.946
X-115.856 Y-47.038
X-115.733 Y-47.124
X-115.607 Y-47.205
X-115.477 Y-47.281
X-115.345 Y-47.351
X-115.209 Y-47.415
X-115.071 Y-47.473
X-114.93 Y-47.526
X-114.788 Y-47.573
X-114.644 Y-47.614
X-114.498 Y-47.649
X-114.351 Y-47.678
X-114.202 Y-47.701
X-114.053 Y-47.716
X-113.904 Y-47.726
X-113.754 Y-47.73
X-113.604 Y-47.726
X-113.454 Y-47.716
X-113.305 Y-47.699
X-113.157 Y-47.676
X-113.117 Y-47.667
X-112.703 Y-47.543
X-112.316 Y-47.35
X-111.968 Y-47.095
X-111.668 Y-46.784
X-111.425 Y-46.426
X-111.246 Y-46.033
X-111.137 Y-45.615
X-111.1 Y-45.184
Y-44.608
G3 X-112.632 Y-43.41 I-1.269 J-0.044
G1 X-115.894 Y-44.101
G3 X-116.9 Y-45.299 I0.263 J-1.242
G1 Y-45.911
X-116.893 Y-46.061
X-116.869 Y-46.209
X-116.83 Y-46.354
X-116.779 Y-46.495
X-116.718 Y-46.632
X-116.647 Y-46.764
X-116.568 Y-46.891
X-116.482 Y-47.014
X-116.389 Y-47.132
X-116.289 Y-47.244
X-116.185 Y-47.351
X-116.075 Y-47.453
X-115.96 Y-47.55
X-115.841 Y-47.641
X-115.718 Y-47.727
X-115.591 Y-47.807
X-115.461 Y-47.882
X-115.328 Y-47.951
X-115.192 Y-48.014
X-115.053 Y-48.072
X-114.913 Y-48.124
X-114.77 Y-48.17
X-114.625 Y-48.21
X-114.479 Y-48.244
X-114.332 Y-48.272
X-114.183 Y-48.293
X-114.034 Y-48.308
X-113.884 Y-48.317
X-113.734 Y-48.318
X-113.584 Y-48.314
X-113.435 Y-48.302
X-113.286 Y-48.285
X-113.138 Y-48.259
X-112.991 Y-48.228
X-112.599 Y-48.09
X-112.235 Y-47.89
X-111.908 Y-47.634
X-111.628 Y-47.327
X-111.402 Y-46.978
X-111.236 Y-46.597
X-111.134 Y-46.194
X-111.1 Y-45.78
Y-45.184
G3 X-112.645 Y-43.989 I-1.269 J-0.044
G1 X-115.907 Y-44.715
G3 X-116.9 Y-45.911 I0.276 J-1.24
G1 Y-46.485
X-116.893 Y-46.635
X-116.871 Y-46.784
X-116.834 Y-46.929
X-116.784 Y-47.071
X-116.724 Y-47.208
X-116.655 Y-47.341
X-116.577 Y-47.469
X-116.491 Y-47.592
X-116.399 Y-47.711
X-116.3 Y-47.824
X-116.196 Y-47.932
X-116.087 Y-48.034
X-115.972 Y-48.131
X-115.854 Y-48.223
X-115.731 Y-48.31
X-115.605 Y-48.39
X-115.475 Y-48.466
X-115.342 Y-48.535
X-115.206 Y-48.599
X-115.068 Y-48.657
X-114.928 Y-48.709
X-114.785 Y-48.756
X-114.64 Y-48.796
X-114.494 Y-48.831
X-114.347 Y-48.859
X-114.199 Y-48.881
X-114.05 Y-48.897
X-113.9 Y-48.906
X-113.75 Y-48.909
X-113.6 Y-48.905
X-113.45 Y-48.894
X-113.301 Y-48.877
X-113.145 Y-48.852
X-112.725 Y-48.724
X-112.333 Y-48.528
X-111.98 Y-48.267
X-111.675 Y-47.951
X-111.429 Y-47.588
X-111.248 Y-47.188
X-111.137 Y-46.763
X-111.1 Y-46.326
Y-45.78
G3 X-112.638 Y-44.583 I-1.269 J-0.044
G1 X-115.899 Y-45.288
G3 X-116.9 Y-46.485 I0.268 J-1.241
G1 Y-47.087
X-116.893 Y-47.237
X-116.869 Y-47.385
X-116.831 Y-47.531
X-116.781 Y-47.672
X-116.72 Y-47.809
X-116.65 Y-47.942
X-116.572 Y-48.069
X-116.486 Y-48.192
X-116.393 Y-48.31
X-116.294 Y-48.423
X-116.189 Y-48.53
X-116.079 Y-48.632
X-115.965 Y-48.729
X-115.846 Y-48.82
X-115.723 Y-48.906
X-115.596 Y-48.986
X-115.466 Y-49.061
X-115.333 Y-49.13
X-115.197 Y-49.194
X-115.058 Y-49.251
X-114.917 Y-49.303
X-114.775 Y-49.349
X-114.63 Y-49.389
X-114.484 Y-49.424
X-114.337 Y-49.451
X-114.188 Y-49.472
X-114.039 Y-49.487
X-113.889 Y-49.495
X-113.739 Y-49.496
X-113.589 Y-49.491
X-113.44 Y-49.479
X-113.291 Y-49.46
X-113.143 Y-49.435
X-112.996 Y-49.402
X-112.851 Y-49.364
X-112.484 Y-49.215
X-112.145 Y-49.009
X-111.843 Y-48.753
X-111.585 Y-48.453
X-111.377 Y-48.115
X-111.224 Y-47.749
X-111.131 Y-47.364
X-111.1 Y-46.969
Y-46.326
G3 X-112.658 Y-45.134 I-1.269 J-0.044
G1 X-115.919 Y-45.895
G3 X-116.9 Y-47.087 I0.289 J-1.237
G1 Y-47.677
X-116.893 Y-47.827
X-116.87 Y-47.976
X-116.832 Y-48.121
X-116.782 Y-48.262
X-116.721 Y-48.399
X-116.651 Y-48.532
X-116.572 Y-48.659
X-116.486 Y-48.782
X-116.393 Y-48.9
X-116.294 Y-49.013
X-116.19 Y-49.12
X-116.08 Y-49.222
X-115.965 Y-49.319
X-115.846 Y-49.411
X-115.723 Y-49.496
X-115.596 Y-49.577
X-115.466 Y-49.651
X-115.333 Y-49.72
X-115.197 Y-49.783
X-115.058 Y-49.841
X-114.918 Y-49.892
X-114.775 Y-49.938
X-114.63 Y-49.978
X-114.484 Y-50.011
X-114.336 Y-50.039
X-114.188 Y-50.061
X-114.039 Y-50.076
X-113.889 Y-50.085
X-113.739 Y-50.087
X-113.589 Y-50.083
X-113.44 Y-50.072
X-113.291 Y-50.054
X-113.143 Y-50.03
X-112.723 Y-49.904
X-112.331 Y-49.708
X-111.979 Y-49.448
X-111.675 Y-49.133
X-111.429 Y-48.77
X-111.248 Y-48.371
X-111.137 Y-47.947
X-111.1 Y-47.511
Y-46.969
G3 X-112.639 Y-45.772 I-1.269 J-0.044
G1 X-115.9 Y-46.481
G3 X-116.9 Y-47.677 I0.27 J-1.241
G1 Y-48.264
X-116.893 Y-48.414
X-116.87 Y-48.562
X-116.833 Y-48.708
X-116.783 Y-48.849
X-116.722 Y-48.986
X-116.652 Y-49.119
X-116.574 Y-49.247
X-116.488 Y-49.37
X-116.395 Y-49.488
X-116.296 Y-49.601
X-116.192 Y-49.708
X-116.082 Y-49.81
X-115.967 Y-49.907
X-115.848 Y-49.998
X-115.725 Y-50.084
X-115.599 Y-50.164
X-115.469 Y-50.239
X-115.336 Y-50.308
X-115.2 Y-50.372
X-115.061 Y-50.43
X-114.92 Y-50.481
X-114.778 Y-50.528
X-114.633 Y-50.568
X-114.487 Y-50.602
X-114.34 Y-50.629
X-114.191 Y-50.65
X-114.042 Y-50.666
X-113.892 Y-50.674
X-113.742 Y-50.675
X-113.592 Y-50.67
X-113.443 Y-50.659
X-113.294 Y-50.641
X-113.146 Y-50.615
X-112.999 Y-50.583
X-112.854 Y-50.545
X-112.487 Y-50.396
X-112.147 Y-50.191
X-111.844 Y-49.935
X-111.586 Y-49.635
X-111.377 Y-49.297
X-111.224 Y-48.931
X-111.131 Y-48.546
X-111.1 Y-48.151
Y-47.511
G3 X-112.655 Y-46.318 I-1.269 J-0.044
G1 X-115.917 Y-47.071
G3 X-116.9 Y-48.264 I0.286 J-1.237
G1 Y-48.848
X-116.893 Y-48.998
X-116.871 Y-49.146
X-116.834 Y-49.292
X-116.785 Y-49.433
X-116.725 Y-49.571
X-116.655 Y-49.704
X-116.577 Y-49.832
X-116.491 Y-49.955
X-116.399 Y-50.073
X-116.3 Y-50.186
X-116.196 Y-50.294
X-116.086 Y-50.396
X-115.972 Y-50.493
X-115.853 Y-50.585
X-115.73 Y-50.671
X-115.604 Y-50.751
X-115.474 Y-50.826
X-115.341 Y-50.896
X-115.205 Y-50.959
X-115.066 Y-51.017
X-114.926 Y-51.069
X-114.783 Y-51.115
X-114.638 Y-51.155
X-114.492 Y-51.189
X-114.345 Y-51.217
X-114.197 Y-51.239
X-114.048 Y-51.255
X-113.898 Y-51.264
X-113.748 Y-51.267
X-113.598 Y-51.263
X-113.448 Y-51.252
X-113.299 Y-51.235
X-113.151 Y-51.212
X-113.004 Y-51.181
X-112.61 Y-51.043
X-112.243 Y-50.843
X-111.914 Y-50.585
X-111.632 Y-50.276
X-111.404 Y-49.926
X-111.237 Y-49.542
X-111.134 Y-49.137
X-111.1 Y-48.72
Y-48.151
G3 X-112.635 Y-46.953 I-1.269 J-0.044
G1 X-115.896 Y-47.65
G3 X-116.9 Y-48.848 I0.266 J-1.242
G1 Y-49.435
X-116.893 Y-49.585
X-116.871 Y-49.733
X-116.835 Y-49.879
X-116.786 Y-50.02
X-116.726 Y-50.158
X-116.656 Y-50.291
X-116.578 Y-50.419
X-116.493 Y-50.542
X-116.401 Y-50.66
X-116.302 Y-50.774
X-116.198 Y-50.881
X-116.088 Y-50.984
X-115.974 Y-51.081
X-115.855 Y-51.173
X-115.732 Y-51.259
X-115.606 Y-51.339
X-115.476 Y-51.414
X-115.343 Y-51.484
X-115.207 Y-51.548
X-115.069 Y-51.606
X-114.928 Y-51.658
X-114.786 Y-51.705
X-114.641 Y-51.745
X-114.495 Y-51.78
X-114.348 Y-51.809
X-114.2 Y-51.831
X-114.051 Y-51.846
X-113.901 Y-51.855
X-113.751 Y-51.858
X-113.601 Y-51.854
X-113.451 Y-51.843
X-113.302 Y-51.826
X-113.154 Y-51.802
X-113.008 Y-51.771
X-112.862 Y-51.734
X-112.494 Y-51.588
X-112.153 Y-51.386
X-111.849 Y-51.132
X-111.589 Y-50.833
X-111.379 Y-50.497
X-111.225 Y-50.132
X-111.132 Y-49.747
X-111.1 Y-49.352
Y-48.72
G3 X-112.641 Y-47.524 I-1.269 J-0.044
G1 X-115.902 Y-48.238
G3 X-116.9 Y-49.435 I0.272 J-1.241
G1 Y-50.013
X-116.893 Y-50.163
X-116.873 Y-50.312
X-116.837 Y-50.458
X-116.789 Y-50.6
X-116.73 Y-50.737
X-116.661 Y-50.871
X-116.584 Y-50.999
X-116.499 Y-51.123
X-116.407 Y-51.242
X-116.309 Y-51.355
X-116.205 Y-51.463
X-116.096 Y-51.566
X-115.982 Y-51.664
X-115.864 Y-51.756
X-115.741 Y-51.843
X-115.615 Y-51.924
X-115.486 Y-52
X-115.353 Y-52.069
X-115.218 Y-52.134
X-115.079 Y-52.192
X-114.939 Y-52.245
X-114.796 Y-52.292
X-114.652 Y-52.333
X-114.506 Y-52.368
X-114.359 Y-52.397
X-114.211 Y-52.42
X-114.062 Y-52.437
X-113.912 Y-52.447
X-113.762 Y-52.451
X-113.612 Y-52.448
X-113.463 Y-52.438
X-113.314 Y-52.422
X-113.165 Y-52.4
X-113.018 Y-52.37
X-112.621 Y-52.235
X-112.252 Y-52.036
X-111.921 Y-51.778
X-111.636 Y-51.47
X-111.407 Y-51.119
X-111.238 Y-50.735
X-111.135 Y-50.328
X-111.1 Y-49.91
Y-49.352
G3 X-112.622 Y-48.152 I-1.269 J-0.044
G1 X-115.883 Y-48.813
G3 X-116.9 Y-50.013 I0.252 J-1.245
G1 Y-50.629
X-116.893 Y-50.778
X-116.869 Y-50.927
X-116.831 Y-51.072
X-116.781 Y-51.213
X-116.72 Y-51.35
X-116.65 Y-51.483
X-116.571 Y-51.61
X-116.485 Y-51.733
X-116.392 Y-51.851
X-116.293 Y-51.963
X-116.188 Y-52.071
X-116.078 Y-52.173
X-115.964 Y-52.27
X-115.845 Y-52.361
X-115.722 Y-52.447
X-115.595 Y-52.527
X-115.465 Y-52.602
X-115.332 Y-52.671
X-115.196 Y-52.734
X-115.057 Y-52.792
X-114.917 Y-52.844
X-114.774 Y-52.89
X-114.63 Y-52.931
X-114.484 Y-52.965
X-114.336 Y-52.994
X-114.188 Y-53.015
X-114.039 Y-53.031
X-113.889 Y-53.04
X-113.739 Y-53.042
X-113.589 Y-53.038
X-113.439 Y-53.027
X-113.29 Y-53.009
X-113.142 Y-52.985
X-112.986 Y-52.951
X-112.595 Y-52.814
X-112.232 Y-52.615
X-111.906 Y-52.36
X-111.626 Y-52.054
X-111.401 Y-51.707
X-111.235 Y-51.328
X-111.134 Y-50.926
X-111.1 Y-50.513
Y-49.91
G3 X-112.642 Y-48.714 I-1.269 J-0.044
G1 X-115.904 Y-49.433
G3 X-116.9 Y-50.629 I0.273 J-1.24
G1 Y-51.198
X-116.893 Y-51.347
X-116.872 Y-51.496
X-116.836 Y-51.642
X-116.788 Y-51.784
X-116.728 Y-51.921
X-116.659 Y-52.055
X-116.582 Y-52.183
X-116.497 Y-52.307
X-116.405 Y-52.425
X-116.307 Y-52.539
X-116.203 Y-52.647
X-116.094 Y-52.75
X-115.98 Y-52.847
X-115.861 Y-52.939
X-115.739 Y-53.026
X-115.613 Y-53.107
X-115.483 Y-53.183
X-115.351 Y-53.253
X-115.215 Y-53.317
X-115.077 Y-53.376
X-114.937 Y-53.429
X-114.794 Y-53.476
X-114.65 Y-53.517
X-114.504 Y-53.552
X-114.357 Y-53.581
X-114.209 Y-53.604
X-114.06 Y-53.619
X-113.91 Y-53.629
X-113.76 Y-53.633
X-113.61 Y-53.63
X-113.46 Y-53.619
X-113.311 Y-53.603
X-113.163 Y-53.58
X-113.016 Y-53.549
X-112.62 Y-53.414
X-112.251 Y-53.215
X-111.92 Y-52.958
X-111.636 Y-52.649
X-111.406 Y-52.299
X-111.238 Y-51.915
X-111.135 Y-51.508
X-111.1 Y-51.091
Y-50.513
G3 X-112.63 Y-49.315 I-1.269 J-0.044
G1 X-115.892 Y-49.999
G3 X-116.9 Y-51.198 I0.261 J-1.243
G1 Y-51.815
X-116.893 Y-51.965
X-116.869 Y-52.113
X-116.83 Y-52.258
X-116.78 Y-52.399
X-116.718 Y-52.536
X-116.648 Y-52.668
X-116.569 Y-52.796
X-116.483 Y-52.918
X-116.39 Y-53.036
X-116.29 Y-53.149
X-116.186 Y-53.256
X-116.076 Y-53.358
X-115.961 Y-53.454
X-115.842 Y-53.546
X-115.719 Y-53.631
X-115.592 Y-53.712
X-115.462 Y-53.786
X-115.329 Y-53.855
X-115.193 Y-53.918
X-115.054 Y-53.976
X-114.913 Y-54.028
X-114.771 Y-54.074
X-114.626 Y-54.114
X-114.48 Y-54.148
X-114.333 Y-54.176
X-114.184 Y-54.198
X-114.035 Y-54.212
X-113.885 Y-54.221
X-113.735 Y-54.224
X-113.585 Y-54.219
X-113.436 Y-54.207
X-113.287 Y-54.19
X-113.139 Y-54.165
X-113.119 Y-54.161
X-112.704 Y-54.033
X-112.317 Y-53.837
X-111.968 Y-53.578
X-111.668 Y-53.264
X-111.425 Y-52.904
X-111.246 Y-52.508
X-111.137 Y-52.088
X-111.1 Y-51.655
Y-51.091
G3 X-112.644 Y-49.895 I-1.269 J-0.044
G1 X-115.906 Y-50.619
G3 X-116.9 Y-51.815 I0.275 J-1.24
G1 Y-52.382
X-116.893 Y-52.532
X-116.872 Y-52.68
X-116.836 Y-52.826
X-116.787 Y-52.968
X-116.728 Y-53.106
X-116.659 Y-53.239
X-116.581 Y-53.367
X-116.496 Y-53.491
X-116.404 Y-53.609
X-116.306 Y-53.722
X-116.202 Y-53.831
X-116.092 Y-53.933
X-115.978 Y-54.031
X-115.86 Y-54.123
X-115.738 Y-54.21
X-115.611 Y-54.291
X-115.482 Y-54.366
X-115.349 Y-54.436
X-115.213 Y-54.5
X-115.075 Y-54.559
X-114.935 Y-54.611
X-114.792 Y-54.658
X-114.648 Y-54.699
X-114.502 Y-54.734
X-114.355 Y-54.762
X-114.206 Y-54.784
X-114.057 Y-54.8
X-113.908 Y-54.809
X-113.758 Y-54.811
X-113.608 Y-54.807
X-113.458 Y-54.796
X-113.309 Y-54.779
X-113.161 Y-54.754
X-113.014 Y-54.723
X-112.869 Y-54.686
X-112.499 Y-54.539
X-112.157 Y-54.335
X-111.851 Y-54.08
X-111.59 Y-53.779
X-111.38 Y-53.441
X-111.226 Y-53.074
X-111.132 Y-52.687
X-111.1 Y-52.29
Y-51.655
G3 X-112.645 Y-50.46 I-1.269 J-0.044
G1 X-115.907 Y-51.187
G3 X-116.9 Y-52.382 I0.276 J-1.24
G1 Y-52.993
X-116.893 Y-53.143
X-116.869 Y-53.291
X-116.831 Y-53.436
X-116.781 Y-53.577
X-116.72 Y-53.714
X-116.65 Y-53.847
X-116.571 Y-53.975
X-116.485 Y-54.097
X-116.392 Y-54.215
X-116.293 Y-54.328
X-116.188 Y-54.435
X-116.078 Y-54.537
X-115.964 Y-54.634
X-115.845 Y-54.725
X-115.722 Y-54.811
X-115.595 Y-54.891
X-115.465 Y-54.966
X-115.332 Y-55.035
X-115.196 Y-55.098
X-115.057 Y-55.156
X-114.916 Y-55.207
X-114.773 Y-55.253
X-114.629 Y-55.293
X-114.483 Y-55.327
X-114.335 Y-55.354
X-114.187 Y-55.376
X-114.038 Y-55.392
X-113.888 Y-55.4
X-113.738 Y-55.403
X-113.588 Y-55.399
X-113.438 Y-55.387
X-113.289 Y-55.37
X-113.141 Y-55.346
X-112.722 Y-55.219
X-112.331 Y-55.023
X-111.978 Y-54.764
X-111.674 Y-54.449
X-111.429 Y-54.086
X-111.248 Y-53.688
X-111.137 Y-53.264
X-111.1 Y-52.828
Y-52.29
G3 X-112.637 Y-51.092 I-1.269 J-0.044
G1 X-115.898 Y-51.796
G3 X-116.9 Y-52.993 I0.268 J-1.241
G1 Y-53.559
X-116.893 Y-53.709
X-116.873 Y-53.857
X-116.837 Y-54.003
X-116.789 Y-54.145
X-116.73 Y-54.283
X-116.661 Y-54.416
X-116.584 Y-54.545
X-116.499 Y-54.668
X-116.407 Y-54.787
X-116.309 Y-54.9
X-116.205 Y-55.009
X-116.096 Y-55.112
X-115.982 Y-55.209
X-115.863 Y-55.301
X-115.741 Y-55.388
X-115.615 Y-55.469
X-115.485 Y-55.544
X-115.352 Y-55.614
X-115.217 Y-55.679
X-115.079 Y-55.737
X-114.938 Y-55.79
X-114.796 Y-55.837
X-114.652 Y-55.878
X-114.506 Y-55.913
X-114.359 Y-55.942
X-114.21 Y-55.963
X-114.061 Y-55.979
X-113.911 Y-55.989
X-113.761 Y-55.991
X-113.611 Y-55.987
X-113.462 Y-55.976
X-113.313 Y-55.959
X-113.165 Y-55.934
X-113.018 Y-55.903
X-112.873 Y-55.866
X-112.502 Y-55.718
X-112.159 Y-55.514
X-111.853 Y-55.258
X-111.591 Y-54.957
X-111.38 Y-54.618
X-111.226 Y-54.25
X-111.132 Y-53.862
X-111.1 Y-53.464
Y-52.828
G3 X-112.647 Y-51.633 I-1.269 J-0.044
G1 X-115.908 Y-52.364
G3 X-116.9 Y-53.559 I0.278 J-1.239
G1 Y-54.149
X-116.893 Y-54.299
X-116.872 Y-54.447
X-116.837 Y-54.593
X-116.789 Y-54.735
X-116.729 Y-54.873
X-116.661 Y-55.006
X-116.583 Y-55.135
X-116.498 Y-55.258
X-116.407 Y-55.377
X-116.309 Y-55.49
X-116.205 Y-55.599
X-116.096 Y-55.702
X-115.982 Y-55.799
X-115.863 Y-55.891
X-115.741 Y-55.978
X-115.615 Y-56.059
X-115.485 Y-56.135
X-115.352 Y-56.204
X-115.217 Y-56.269
X-115.079 Y-56.327
X-114.938 Y-56.379
X-114.795 Y-56.426
X-114.651 Y-56.467
X-114.505 Y-56.501
X-114.358 Y-56.53
X-114.21 Y-56.553
X-114.061 Y-56.569
X-113.911 Y-56.578
X-113.761 Y-56.582
X-113.611 Y-56.579
X-113.461 Y-56.569
X-113.312 Y-56.552
X-113.164 Y-56.529
X-113.017 Y-56.499
X-112.62 Y-56.362
X-112.251 Y-56.162
X-111.92 Y-55.903
X-111.636 Y-55.594
X-111.406 Y-55.242
X-111.238 Y-54.857
X-111.135 Y-54.45
X-111.1 Y-54.032
Y-53.464
G3 X-112.63 Y-52.266 I-1.269 J-0.044
G1 X-115.892 Y-52.95
G3 X-116.9 Y-54.149 I0.261 J-1.243
G1 Y-54.764
X-116.893 Y-54.914
X-116.869 Y-55.062
X-116.831 Y-55.207
X-116.781 Y-55.348
X-116.72 Y-55.485
X-116.649 Y-55.618
X-116.571 Y-55.746
X-116.485 Y-55.868
X-116.392 Y-55.986
X-116.293 Y-56.099
X-116.188 Y-56.206
X-116.078 Y-56.308
X-115.963 Y-56.405
X-115.844 Y-56.496
X-115.721 Y-56.581
X-115.594 Y-56.661
X-115.464 Y-56.736
X-115.33 Y-56.805
X-115.194 Y-56.868
X-115.056 Y-56.926
X-114.915 Y-56.978
X-114.772 Y-57.023
X-114.628 Y-57.064
X-114.482 Y-57.098
X-114.334 Y-57.126
X-114.186 Y-57.147
X-114.037 Y-57.162
X-113.887 Y-57.171
X-113.737 Y-57.173
X-113.587 Y-57.168
X-113.437 Y-57.156
X-113.289 Y-57.139
X-113.141 Y-57.114
X-112.994 Y-57.082
X-112.849 Y-57.044
X-112.483 Y-56.897
X-112.145 Y-56.695
X-111.843 Y-56.441
X-111.584 Y-56.143
X-111.377 Y-55.808
X-111.224 Y-55.444
X-111.131 Y-55.061
X-111.1 Y-54.668
Y-54.032
G3 X-112.647 Y-52.837 I-1.269 J-0.044
G1 X-115.909 Y-53.569
G3 X-116.9 Y-54.764 I0.278 J-1.239
G1 Y-55.343
X-116.893 Y-55.492
X-116.871 Y-55.641
X-116.834 Y-55.786
X-116.785 Y-55.928
X-116.724 Y-56.065
X-116.655 Y-56.198
X-116.577 Y-56.326
X-116.491 Y-56.449
X-116.398 Y-56.567
X-116.3 Y-56.68
X-116.195 Y-56.788
X-116.086 Y-56.891
X-115.971 Y-56.988
X-115.853 Y-57.079
X-115.73 Y-57.166
X-115.604 Y-57.246
X-115.474 Y-57.321
X-115.341 Y-57.391
X-115.205 Y-57.454
X-115.067 Y-57.512
X-114.926 Y-57.565
X-114.783 Y-57.611
X-114.639 Y-57.651
X-114.493 Y-57.686
X-114.346 Y-57.714
X-114.197 Y-57.737
X-114.048 Y-57.753
X-113.898 Y-57.762
X-113.748 Y-57.765
X-113.598 Y-57.762
X-113.449 Y-57.752
X-113.3 Y-57.735
X-113.152 Y-57.712
X-113.005 Y-57.682
X-112.61 Y-57.546
X-112.243 Y-57.346
X-111.914 Y-57.089
X-111.632 Y-56.782
X-111.404 Y-56.432
X-111.237 Y-56.05
X-111.134 Y-55.645
X-111.1 Y-55.229
Y-54.668
G3 X-112.626 Y-53.469 I-1.269 J-0.044
G1 X-115.888 Y-54.143
G3 X-116.9 Y-55.343 I0.257 J-1.244
G1 Y-55.935
X-116.893 Y-56.085
X-116.87 Y-56.233
X-116.833 Y-56.379
X-116.784 Y-56.52
X-116.723 Y-56.658
X-116.654 Y-56.79
X-116.575 Y-56.918
X-116.49 Y-57.041
X-116.397 Y-57.159
X-116.298 Y-57.272
X-116.194 Y-57.38
X-116.084 Y-57.482
X-115.97 Y-57.579
X-115.851 Y-57.671
X-115.728 Y-57.757
X-115.602 Y-57.838
X-115.472 Y-57.913
X-115.339 Y-57.982
X-115.203 Y-58.046
X-115.065 Y-58.104
X-114.924 Y-58.157
X-114.782 Y-58.203
X-114.637 Y-58.244
X-114.491 Y-58.278
X-114.344 Y-58.307
X-114.196 Y-58.33
X-114.047 Y-58.345
X-113.897 Y-58.355
X-113.747 Y-58.358
X-113.597 Y-58.353
X-113.448 Y-58.343
X-113.298 Y-58.326
X-113.15 Y-58.302
X-113.004 Y-58.271
X-112.979 Y-58.264
X-112.59 Y-58.129
X-112.228 Y-57.932
X-111.903 Y-57.679
X-111.625 Y-57.375
X-111.4 Y-57.03
X-111.235 Y-56.653
X-111.134 Y-56.253
X-111.1 Y-55.843
Y-55.229
G3 X-112.638 Y-54.032 I-1.269 J-0.044
G1 X-115.899 Y-54.738
G3 X-116.9 Y-55.935 I0.269 J-1.241
G1 Y-56.527
X-116.893 Y-56.677
X-116.87 Y-56.825
X-116.833 Y-56.97
X-116.783 Y-57.112
X-116.723 Y-57.249
X-116.653 Y-57.382
X-116.575 Y-57.51
X-116.489 Y-57.633
X-116.396 Y-57.751
X-116.298 Y-57.864
X-116.193 Y-57.972
X-116.084 Y-58.074
X-115.969 Y-58.171
X-115.85 Y-58.263
X-115.728 Y-58.349
X-115.601 Y-58.43
X-115.471 Y-58.505
X-115.339 Y-58.574
X-115.203 Y-58.638
X-115.064 Y-58.696
X-114.924 Y-58.748
X-114.781 Y-58.795
X-114.637 Y-58.835
X-114.491 Y-58.87
X-114.344 Y-58.899
X-114.195 Y-58.921
X-114.046 Y-58.936
X-113.896 Y-58.946
X-113.746 Y-58.949
X-113.596 Y-58.945
X-113.447 Y-58.934
X-113.298 Y-58.918
X-113.15 Y-58.894
X-113.003 Y-58.863
X-112.609 Y-58.728
X-112.242 Y-58.529
X-111.914 Y-58.273
X-111.632 Y-57.967
X-111.404 Y-57.618
X-111.237 Y-57.236
X-111.134 Y-56.832
X-111.1 Y-56.417
Y-55.843
G3 X-112.63 Y-54.644 I-1.269 J-0.044
G1 X-115.892 Y-55.328
G3 X-116.9 Y-56.527 I0.261 J-1.243
G1 Y-57.1
X-116.893 Y-57.25
X-116.872 Y-57.398
X-116.837 Y-57.544
X-116.789 Y-57.686
X-116.73 Y-57.824
X-116.661 Y-57.957
X-116.584 Y-58.086
X-116.499 Y-58.21
X-116.407 Y-58.328
X-116.309 Y-58.442
X-116.206 Y-58.55
X-116.097 Y-58.653
X-115.983 Y-58.751
X-115.865 Y-58.843
X-115.742 Y-58.93
X-115.616 Y-59.012
X-115.487 Y-59.087
X-115.354 Y-59.158
X-115.219 Y-59.222
X-115.081 Y-59.281
X-114.94 Y-59.334
X-114.798 Y-59.381
X-114.654 Y-59.422
X-114.508 Y-59.458
X-114.361 Y-59.487
X-114.213 Y-59.51
X-114.064 Y-59.526
X-113.914 Y-59.536
X-113.764 Y-59.54
X-113.614 Y-59.537
X-113.464 Y-59.527
X-113.315 Y-59.511
X-113.167 Y-59.488
X-113.132 Y-59.481
X-112.716 Y-59.357
X-112.326 Y-59.163
X-111.975 Y-58.907
X-111.672 Y-58.594
X-111.428 Y-58.235
X-111.247 Y-57.839
X-111.137 Y-57.418
X-111.1 Y-56.985
Y-56.417
G3 X-112.629 Y-55.218 I-1.269 J-0.044
G1 X-115.891 Y-55.901
G3 X-116.9 Y-57.1 I0.26 J-1.243
G1 Y-57.711
X-116.893 Y-57.861
X-116.87 Y-58.009
X-116.832 Y-58.155
X-116.783 Y-58.296
X-116.722 Y-58.433
X-116.652 Y-58.566
X-116.574 Y-58.694
X-116.488 Y-58.817
X-116.395 Y-58.935
X-116.296 Y-59.048
X-116.192 Y-59.156
X-116.082 Y-59.258
X-115.968 Y-59.355
X-115.849 Y-59.446
X-115.726 Y-59.533
X-115.6 Y-59.613
X-115.47 Y-59.688
X-115.337 Y-59.758
X-115.201 Y-59.821
X-115.063 Y-59.879
X-114.922 Y-59.932
X-114.78 Y-59.978
X-114.635 Y-60.018
X-114.489 Y-60.053
X-114.342 Y-60.081
X-114.193 Y-60.102
X-114.044 Y-60.118
X-113.894 Y-60.127
X-113.744 Y-60.128
X-113.594 Y-60.124
X-113.445 Y-60.113
X-113.296 Y-60.095
X-113.148 Y-60.07
X-113.001 Y-60.039
X-112.607 Y-59.901
X-112.241 Y-59.701
X-111.913 Y-59.444
X-111.631 Y-59.136
X-111.403 Y-58.786
X-111.236 Y-58.403
X-111.134 Y-57.999
X-111.1 Y-57.583
Y-56.985
G3 X-112.645 Y-55.789 I-1.269 J-0.044
G1 X-115.907 Y-56.516
G3 X-116.9 Y-57.711 I0.276 J-1.24
G1 Y-58.286
X-116.893 Y-58.436
X-116.872 Y-58.584
X-116.836 Y-58.73
X-116.788 Y-58.872
X-116.728 Y-59.01
X-116.659 Y-59.143
X-116.582 Y-59.272
X-116.497 Y-59.395
X-116.405 Y-59.514
X-116.307 Y-59.627
X-116.203 Y-59.735
X-116.094 Y-59.838
X-115.98 Y-59.936
X-115.862 Y-60.028
X-115.739 Y-60.115
X-115.613 Y-60.196
X-115.484 Y-60.271
X-115.351 Y-60.341
X-115.215 Y-60.406
X-115.077 Y-60.464
X-114.937 Y-60.516
X-114.794 Y-60.563
X-114.65 Y-60.604
X-114.504 Y-60.639
X-114.357 Y-60.668
X-114.208 Y-60.69
X-114.059 Y-60.706
X-113.91 Y-60.715
X-113.76 Y-60.719
X-113.61 Y-60.715
X-113.46 Y-60.704
X-113.311 Y-60.687
X-113.157 Y-60.663
X-112.735 Y-60.535
X-112.34 Y-60.338
X-111.985 Y-60.077
X-111.679 Y-59.759
X-111.431 Y-59.395
X-111.249 Y-58.993
X-111.138 Y-58.566
X-111.1 Y-58.127
Y-57.583
G3 X-112.637 Y-56.386 I-1.269 J-0.044
G1 X-115.898 Y-57.089
G3 X-116.9 Y-58.286 I0.268 J-1.241
G1 Y-58.888
X-116.893 Y-59.038
X-116.871 Y-59.186
X-116.834 Y-59.332
X-116.784 Y-59.473
X-116.724 Y-59.611
X-116.655 Y-59.744
X-116.577 Y-59.872
X-116.491 Y-59.995
X-116.399 Y-60.113
X-116.3 Y-60.226
X-116.196 Y-60.334
X-116.086 Y-60.436
X-115.972 Y-60.533
X-115.853 Y-60.625
X-115.73 Y-60.711
X-115.604 Y-60.792
X-115.474 Y-60.867
X-115.341 Y-60.936
X-115.205 Y-61
X-115.067 Y-61.058
X-114.926 Y-61.11
X-114.783 Y-61.156
X-114.639 Y-61.197
X-114.493 Y-61.231
X-114.346 Y-61.259
X-114.197 Y-61.28
X-114.048 Y-61.295
X-113.898 Y-61.303
X-113.748 Y-61.305
X-113.598 Y-61.299
X-113.449 Y-61.288
X-113.3 Y-61.27
X-113.152 Y-61.244
X-113.005 Y-61.212
X-112.86 Y-61.174
X-112.491 Y-61.024
X-112.151 Y-60.819
X-111.847 Y-60.562
X-111.587 Y-60.26
X-111.378 Y-59.922
X-111.225 Y-59.554
X-111.131 Y-59.168
X-111.1 Y-58.771
Y-58.127
G3 X-112.658 Y-56.934 I-1.269 J-0.044
G1 X-115.919 Y-57.696
G3 X-116.9 Y-58.888 I0.289 J-1.237
G1 Y-59.478
X-116.893 Y-59.628
X-116.871 Y-59.776
X-116.834 Y-59.922
X-116.785 Y-60.063
X-116.724 Y-60.201
X-116.655 Y-60.334
X-116.577 Y-60.462
X-116.491 Y-60.585
X-116.399 Y-60.703
X-116.3 Y-60.816
X-116.196 Y-60.924
X-116.086 Y-61.026
X-115.972 Y-61.123
X-115.853 Y-61.215
X-115.73 Y-61.301
X-115.604 Y-61.382
X-115.474 Y-61.457
X-115.341 Y-61.526
X-115.205 Y-61.589
X-115.066 Y-61.647
X-114.926 Y-61.699
X-114.783 Y-61.745
X-114.638 Y-61.785
X-114.492 Y-61.818
X-114.345 Y-61.846
X-114.196 Y-61.869
X-114.047 Y-61.884
X-113.897 Y-61.893
X-113.747 Y-61.895
X-113.597 Y-61.891
X-113.448 Y-61.88
X-113.299 Y-61.863
X-113.151 Y-61.839
X-113.004 Y-61.808
X-112.609 Y-61.67
X-112.242 Y-61.469
X-111.914 Y-61.21
X-111.631 Y-60.901
X-111.404 Y-60.551
X-111.237 Y-60.167
X-111.134 Y-59.761
X-111.1 Y-59.345
Y-58.771
G3 X-112.638 Y-57.574 I-1.269 J-0.044
G1 X-115.9 Y-58.281
G3 X-116.9 Y-59.478 I0.269 J-1.241
G1 Y-60.065
X-116.893 Y-60.215
X-116.871 Y-60.363
X-116.835 Y-60.509
X-116.786 Y-60.65
X-116.726 Y-60.788
X-116.656 Y-60.921
X-116.578 Y-61.049
X-116.493 Y-61.172
X-116.401 Y-61.291
X-116.302 Y-61.404
X-116.198 Y-61.511
X-116.088 Y-61.614
X-115.974 Y-61.711
X-115.855 Y-61.803
X-115.732 Y-61.889
X-115.606 Y-61.969
X-115.476 Y-62.044
X-115.343 Y-62.114
X-115.207 Y-62.177
X-115.069 Y-62.235
X-114.928 Y-62.287
X-114.785 Y-62.334
X-114.641 Y-62.374
X-114.495 Y-62.409
X-114.348 Y-62.437
X-114.199 Y-62.459
X-114.05 Y-62.474
X-113.9 Y-62.484
X-113.75 Y-62.487
X-113.6 Y-62.482
X-113.451 Y-62.471
X-113.302 Y-62.454
X-113.154 Y-62.43
X-113.007 Y-62.398
X-112.862 Y-62.361
X-112.493 Y-62.215
X-112.153 Y-62.012
X-111.848 Y-61.759
X-111.588 Y-61.46
X-111.379 Y-61.123
X-111.225 Y-60.758
X-111.132 Y-60.373
X-111.1 Y-59.978
Y-59.345
G3 X-112.643 Y-58.149 I-1.269 J-0.044
G1 X-115.905 Y-58.869
G3 X-116.9 Y-60.065 I0.274 J-1.24
G1 Y-60.672
X-116.893 Y-60.822
X-116.869 Y-60.97
X-116.831 Y-61.115
X-116.78 Y-61.256
X-116.719 Y-61.393
X-116.648 Y-61.525
X-116.57 Y-61.653
X-116.483 Y-61.776
X-116.39 Y-61.893
X-116.291 Y-62.006
X-116.186 Y-62.113
X-116.076 Y-62.215
X-115.961 Y-62.311
X-115.842 Y-62.402
X-115.718 Y-62.488
X-115.592 Y-62.568
X-115.461 Y-62.642
X-115.328 Y-62.711
X-115.192 Y-62.774
X-115.053 Y-62.832
X-114.913 Y-62.883
X-114.77 Y-62.929
X-114.625 Y-62.969
X-114.479 Y-63.002
X-114.332 Y-63.03
X-114.183 Y-63.052
X-114.034 Y-63.067
X-113.884 Y-63.076
X-113.734 Y-63.079
X-113.584 Y-63.075
X-113.435 Y-63.064
X-113.286 Y-63.046
X-113.138 Y-63.023
X-112.991 Y-62.992
X-112.599 Y-62.854
X-112.235 Y-62.655
X-111.908 Y-62.398
X-111.628 Y-62.091
X-111.402 Y-61.743
X-111.236 Y-61.362
X-111.134 Y-60.96
X-111.1 Y-60.546
Y-59.978
G3 X-112.634 Y-58.78 I-1.269 J-0.044
G1 X-115.895 Y-59.474
G3 X-116.9 Y-60.672 I0.264 J-1.242
G1 Y-61.235
X-116.893 Y-61.385
X-116.872 Y-61.534
X-116.837 Y-61.68
X-116.788 Y-61.822
X-116.729 Y-61.959
X-116.66 Y-62.093
X-116.583 Y-62.221
X-116.498 Y-62.345
X-116.406 Y-62.463
X-116.307 Y-62.576
X-116.204 Y-62.685
X-116.094 Y-62.787
X-115.98 Y-62.885
X-115.862 Y-62.977
X-115.739 Y-63.064
X-115.613 Y-63.145
X-115.484 Y-63.22
X-115.351 Y-63.29
X-115.215 Y-63.355
X-115.077 Y-63.413
X-114.937 Y-63.466
X-114.795 Y-63.513
X-114.65 Y-63.554
X-114.504 Y-63.589
X-114.357 Y-63.619
X-114.209 Y-63.641
X-114.06 Y-63.657
X-113.91 Y-63.667
X-113.76 Y-63.671
X-113.61 Y-63.668
X-113.461 Y-63.658
X-113.312 Y-63.641
X-113.163 Y-63.618
X-113.017 Y-63.587
X-112.871 Y-63.551
X-112.501 Y-63.407
X-112.159 Y-63.205
X-111.853 Y-62.952
X-111.591 Y-62.654
X-111.381 Y-62.317
X-111.226 Y-61.951
X-111.132 Y-61.566
X-111.1 Y-61.17
Y-60.546
G3 X-112.632 Y-59.348 I-1.269 J-0.044
G1 X-115.894 Y-60.037
G3 X-116.9 Y-61.235 I0.263 J-1.243
G1 Y-61.85
X-116.893 Y-62
X-116.869 Y-62.148
X-116.831 Y-62.293
X-116.781 Y-62.434
X-116.719 Y-62.571
X-116.649 Y-62.704
X-116.57 Y-62.831
X-116.484 Y-62.954
X-116.391 Y-63.072
X-116.292 Y-63.184
X-116.187 Y-63.292
X-116.077 Y-63.394
X-115.963 Y-63.491
X-115.843 Y-63.582
X-115.72 Y-63.668
X-115.594 Y-63.748
X-115.464 Y-63.823
X-115.331 Y-63.892
X-115.195 Y-63.955
X-115.056 Y-64.013
X-114.916 Y-64.065
X-114.773 Y-64.111
X-114.628 Y-64.151
X-114.482 Y-64.185
X-114.335 Y-64.214
X-114.187 Y-64.236
X-114.037 Y-64.252
X-113.888 Y-64.261
X-113.738 Y-64.264
X-113.588 Y-64.26
X-113.438 Y-64.25
X-113.289 Y-64.233
X-113.141 Y-64.209
X-112.994 Y-64.179
X-112.602 Y-64.042
X-112.237 Y-63.843
X-111.91 Y-63.587
X-111.629 Y-63.281
X-111.402 Y-62.933
X-111.236 Y-62.552
X-111.134 Y-62.149
X-111.1 Y-61.735
Y-61.17
G3 X-112.629 Y-59.971 I-1.269 J-0.044
G1 X-115.89 Y-60.651
G3 X-116.9 Y-61.85 I0.259 J-1.243
G1 Y-62.429
X-116.893 Y-62.579
X-116.871 Y-62.727
X-116.834 Y-62.873
X-116.784 Y-63.014
X-116.724 Y-63.152
X-116.654 Y-63.285
X-116.576 Y-63.413
X-116.491 Y-63.536
X-116.398 Y-63.654
X-116.3 Y-63.767
X-116.195 Y-63.875
X-116.086 Y-63.977
X-115.971 Y-64.075
X-115.853 Y-64.166
X-115.73 Y-64.253
X-115.604 Y-64.333
X-115.474 Y-64.409
X-115.341 Y-64.478
X-115.205 Y-64.542
X-115.067 Y-64.601
X-114.927 Y-64.653
X-114.784 Y-64.7
X-114.64 Y-64.741
X-114.494 Y-64.776
X-114.347 Y-64.805
X-114.199 Y-64.827
X-114.049 Y-64.843
X-113.9 Y-64.853
X-113.75 Y-64.856
X-113.6 Y-64.852
X-113.45 Y-64.842
X-113.301 Y-64.825
X-113.153 Y-64.802
X-113.111 Y-64.793
X-112.698 Y-64.668
X-112.312 Y-64.476
X-111.965 Y-64.22
X-111.666 Y-63.91
X-111.424 Y-63.553
X-111.246 Y-63.161
X-111.137 Y-62.744
X-111.1 Y-62.314
Y-61.735
G3 X-112.634 Y-60.537 I-1.269 J-0.044
G1 X-115.895 Y-61.231
G3 X-116.9 Y-62.429 I0.264 J-1.242
G1 Y-62.998
X-116.893 Y-63.148
X-116.873 Y-63.297
X-116.839 Y-63.443
X-116.791 Y-63.585
X-116.732 Y-63.723
X-116.664 Y-63.857
X-116.587 Y-63.985
X-116.503 Y-64.109
X-116.411 Y-64.228
X-116.314 Y-64.342
X-116.21 Y-64.451
X-116.102 Y-64.554
X-115.988 Y-64.652
X-115.87 Y-64.745
X-115.748 Y-64.832
X-115.622 Y-64.914
X-115.493 Y-64.99
X-115.361 Y-65.061
X-115.225 Y-65.125
X-115.088 Y-65.185
X-114.947 Y-65.238
X-114.805 Y-65.285
X-114.661 Y-65.327
X-114.515 Y-65.363
X-114.368 Y-65.392
X-114.22 Y-65.414
X-114.071 Y-65.431
X-113.921 Y-65.442
X-113.771 Y-65.445
X-113.621 Y-65.442
X-113.472 Y-65.432
X-113.322 Y-65.416
X-113.174 Y-65.393
X-113.027 Y-65.363
X-112.629 Y-65.228
X-112.258 Y-65.029
X-111.925 Y-64.772
X-111.639 Y-64.463
X-111.408 Y-64.111
X-111.239 Y-63.726
X-111.135 Y-63.318
X-111.1 Y-62.899
Y-62.314
G3 X-112.63 Y-61.115 I-1.269 J-0.044
G1 X-115.892 Y-61.8
G3 X-116.9 Y-62.998 I0.261 J-1.243
G1 Y-63.615
X-116.893 Y-63.765
X-116.87 Y-63.914
X-116.833 Y-64.059
X-116.783 Y-64.2
X-116.722 Y-64.338
X-116.653 Y-64.47
X-116.574 Y-64.598
X-116.489 Y-64.721
X-116.396 Y-64.84
X-116.298 Y-64.953
X-116.193 Y-65.06
X-116.084 Y-65.163
X-115.969 Y-65.26
X-115.851 Y-65.351
X-115.728 Y-65.438
X-115.601 Y-65.518
X-115.471 Y-65.593
X-115.338 Y-65.663
X-115.203 Y-65.726
X-115.064 Y-65.784
X-114.924 Y-65.837
X-114.781 Y-65.883
X-114.637 Y-65.923
X-114.491 Y-65.958
X-114.343 Y-65.986
X-114.195 Y-66.008
X-114.046 Y-66.023
X-113.896 Y-66.032
X-113.746 Y-66.035
X-113.596 Y-66.03
X-113.446 Y-66.02
X-113.297 Y-66.002
X-113.149 Y-65.978
X-113.136 Y-65.975
X-112.718 Y-65.847
X-112.327 Y-65.651
X-111.975 Y-65.391
X-111.673 Y-65.075
X-111.428 Y-64.713
X-111.247 Y-64.315
X-111.137 Y-63.892
X-111.1 Y-63.456
Y-62.899
G3 X-112.642 Y-61.703 I-1.269 J-0.044
G1 X-115.903 Y-62.419
G3 X-116.9 Y-63.615 I0.272 J-1.24
G1 Y-64.217
X-116.893 Y-64.367
X-116.869 Y-64.515
X-116.831 Y-64.66
X-116.78 Y-64.802
X-116.719 Y-64.939
X-116.648 Y-65.071
X-116.569 Y-65.199
X-116.483 Y-65.321
X-116.39 Y-65.439
X-116.291 Y-65.552
X-116.186 Y-65.659
X-116.076 Y-65.761
X-115.962 Y-65.857
X-115.842 Y-65.949
X-115.719 Y-66.034
X-115.593 Y-66.115
X-115.462 Y-66.189
X-115.329 Y-66.258
X-115.193 Y-66.321
X-115.055 Y-66.379
X-114.914 Y-66.431
X-114.771 Y-66.476
X-114.626 Y-66.516
X-114.48 Y-66.55
X-114.333 Y-66.577
X-114.184 Y-66.598
X-114.035 Y-66.613
X-113.885 Y-66.621
X-113.735 Y-66.622
X-113.585 Y-66.616
X-113.436 Y-66.605
X-113.287 Y-66.586
X-113.139 Y-66.56
X-112.993 Y-66.528
X-112.6 Y-66.388
X-112.235 Y-66.186
X-111.908 Y-65.928
X-111.628 Y-65.619
X-111.402 Y-65.269
X-111.236 Y-64.887
X-111.134 Y-64.482
X-111.1 Y-64.067
Y-63.456
G3 X-112.658 Y-62.264 I-1.269 J-0.044
G1 X-115.919 Y-63.025
G3 X-116.9 Y-64.217 I0.289 J-1.237
G1 Y-64.807
X-116.893 Y-64.957
X-116.869 Y-65.105
X-116.831 Y-65.25
X-116.78 Y-65.392
X-116.719 Y-65.529
X-116.649 Y-65.661
X-116.57 Y-65.789
X-116.484 Y-65.912
X-116.391 Y-66.029
X-116.292 Y-66.142
X-116.187 Y-66.249
X-116.077 Y-66.351
X-115.962 Y-66.448
X-115.843 Y-66.539
X-115.72 Y-66.625
X-115.593 Y-66.705
X-115.463 Y-66.779
X-115.33 Y-66.848
X-115.194 Y-66.911
X-115.055 Y-66.968
X-114.914 Y-67.02
X-114.771 Y-67.065
X-114.626 Y-67.105
X-114.48 Y-67.138
X-114.333 Y-67.166
X-114.184 Y-67.187
X-114.035 Y-67.201
X-113.885 Y-67.209
X-113.735 Y-67.211
X-113.585 Y-67.206
X-113.436 Y-67.194
X-113.287 Y-67.176
X-113.139 Y-67.151
X-112.72 Y-67.021
X-112.328 Y-66.822
X-111.976 Y-66.559
X-111.673 Y-66.242
X-111.428 Y-65.877
X-111.247 Y-65.477
X-111.137 Y-65.052
X-111.1 Y-64.615
Y-64.067
G3 X-112.65 Y-62.873 I-1.269 J-0.044
G1 X-115.912 Y-63.613
G3 X-116.9 Y-64.807 I0.281 J-1.238
G1 Y-65.394
X-116.893 Y-65.544
X-116.87 Y-65.692
X-116.832 Y-65.837
X-116.782 Y-65.979
X-116.721 Y-66.116
X-116.651 Y-66.248
X-116.572 Y-66.376
X-116.486 Y-66.499
X-116.393 Y-66.617
X-116.294 Y-66.729
X-116.189 Y-66.837
X-116.079 Y-66.939
X-115.965 Y-67.035
X-115.845 Y-67.127
X-115.722 Y-67.212
X-115.596 Y-67.292
X-115.465 Y-67.367
X-115.332 Y-67.436
X-115.196 Y-67.499
X-115.057 Y-67.556
X-114.917 Y-67.608
X-114.774 Y-67.654
X-114.629 Y-67.693
X-114.483 Y-67.727
X-114.335 Y-67.754
X-114.187 Y-67.775
X-114.037 Y-67.789
X-113.888 Y-67.797
X-113.738 Y-67.798
X-113.588 Y-67.792
X-113.438 Y-67.78
X-113.289 Y-67.761
X-113.142 Y-67.735
X-112.995 Y-67.702
X-112.85 Y-67.663
X-112.483 Y-67.513
X-112.145 Y-67.307
X-111.842 Y-67.05
X-111.584 Y-66.749
X-111.376 Y-66.411
X-111.224 Y-66.045
X-111.131 Y-65.659
X-111.1 Y-65.264
Y-64.615
G3 X-112.665 Y-63.424 I-1.269 J-0.044
G1 X-115.926 Y-64.203
G3 X-116.9 Y-65.394 I0.295 J-1.235
G1 Y-65.978
X-116.893 Y-66.128
X-116.87 Y-66.276
X-116.833 Y-66.421
X-116.784 Y-66.563
X-116.723 Y-66.7
X-116.653 Y-66.833
