%
(1001)
(origin stock top)
(T1  D=12.7 CR=0 TAPER=30deg - ZMIN=-6.329 - chamfer mill)
G90 G94
G17
G21

(Engrave1)
M9
T1 M6
S9000 M3
G54
G0 X-331.321 Y-54.823
Z15
Z5
G1 Z0 F849.6
X-331.266 Y-54.832 Z-0.015
X-331.088 Y-54.864 Z-0.07
X-330.98 Y-54.886 Z-0.108
X-330.808 Y-54.925 Z-0.176
X-330.71 Y-54.949 Z-0.218
X-330.525 Y-54.999 Z-0.305
X-330.338 Y-55.055 Z-0.401
X-330.157 Y-55.111 Z-0.499
X-329.813 Y-55.225 Z-0.696
X-329.755 Y-55.246 Z-0.732
X-329.696 Y-55.269 Z-0.772
X-329.427 Y-55.381 Z-0.966
X-329.015 Y-55.555 Z-1.267
X-328.729 Y-55.678 Z-1.481
X-328.437 Y-55.808 Z-1.705
X-328.14 Y-55.943 Z-1.94
X-327.832 Y-56.089 Z-2.193
X-327.533 Y-56.235 Z-2.446
X-327.234 Y-56.384 Z-2.703
X-325.448 Y-57.299 Z-4.289
X-325.262 Y-57.051 Z-3.86
X-325.013 Y-56.729 Z-3.302
X-324.842 Y-56.512 Z-2.925
X-324.73 Y-56.375 Z-2.688
X-324.619 Y-56.246 Z-2.464
X-324.508 Y-56.124 Z-2.254
X-324.397 Y-56.01 Z-2.057
X-324.286 Y-55.904 Z-1.873
X-324.175 Y-55.806 Z-1.703
X-324.064 Y-55.715 Z-1.546
X-323.953 Y-55.633 Z-1.402
X-323.721 Y-55.47 Z-1.12
X-323.596 Y-55.385 Z-0.973
X-323.493 Y-55.318 Z-0.857
X-323.39 Y-55.253 Z-0.745
X-323.277 Y-55.187 Z-0.63
X-323.155 Y-55.12 Z-0.515
X-323.051 Y-55.069 Z-0.425
X-322.929 Y-55.013 Z-0.329
X-322.825 Y-54.971 Z-0.257
X-322.72 Y-54.934 Z-0.192
X-322.629 Y-54.905 Z-0.142
X-322.537 Y-54.879 Z-0.097
X-322.448 Y-54.856 Z-0.058
X-322.364 Y-54.837 Z-0.025
X-322.291 Y-54.823 Z0
X-322.364 Y-54.837 Z-0.025
X-322.448 Y-54.856 Z-0.058
X-322.537 Y-54.879 Z-0.097
X-322.629 Y-54.905 Z-0.142
X-322.72 Y-54.934 Z-0.192
X-322.825 Y-54.971 Z-0.257
X-322.929 Y-55.013 Z-0.329
X-323.051 Y-55.069 Z-0.425
X-323.155 Y-55.12 Z-0.515
X-323.277 Y-55.187 Z-0.63
X-323.39 Y-55.253 Z-0.745
X-323.493 Y-55.318 Z-0.857
X-323.596 Y-55.385 Z-0.973
X-323.721 Y-55.47 Z-1.12
X-323.953 Y-55.633 Z-1.402
X-324.064 Y-55.715 Z-1.546
X-324.175 Y-55.806 Z-1.703
X-324.286 Y-55.904 Z-1.873
X-324.397 Y-56.01 Z-2.057
X-324.508 Y-56.124 Z-2.254
X-324.619 Y-56.246 Z-2.464
X-324.73 Y-56.375 Z-2.688
X-324.842 Y-56.512 Z-2.925
X-325.013 Y-56.729 Z-3.302
X-325.262 Y-57.051 Z-3.86
X-325.448 Y-57.299 Z-4.289
X-325.411 Y-57.371 Z-4.267
X-325.315 Y-57.556 Z-4.215
X-325.239 Y-57.697 Z-4.18
X-325.161 Y-57.836 Z-4.15
X-325.081 Y-57.973 Z-4.124
X-325.002 Y-58.102 Z-4.104
X-324.903 Y-58.262 Z-4.083
X-324.777 Y-58.455 Z-4.065
X-324.671 Y-58.612 Z-4.056
X-324.545 Y-58.792 Z-4.051
X-324.398 Y-58.998 Z-4.05
X-321.406 Y-63.221 Z-3.994
X-321.277 Y-63.413 Z-4
X-321.173 Y-63.58 Z-4.019
X-321.075 Y-63.751 Z-4.05
X-320.983 Y-63.926 Z-4.093
X-320.897 Y-64.106 Z-4.149
X-320.816 Y-64.29 Z-4.217
X-320.742 Y-64.477 Z-4.297
X-320.673 Y-64.669 Z-4.39
X-320.611 Y-64.865 Z-4.495
X-320.554 Y-65.065 Z-4.613
X-320.503 Y-65.269 Z-4.743
X-320.457 Y-65.477 Z-4.885
X-320.418 Y-65.689 Z-5.039
X-320.174 Y-65.815 Z-4.818
X-319.517 Y-66.158 Z-4.225
X-319.338 Y-66.248 Z-4.07
X-319.159 Y-66.33 Z-3.927
X-318.98 Y-66.405 Z-3.796
X-318.802 Y-66.473 Z-3.678
X-318.623 Y-66.534 Z-3.573
X-318.444 Y-66.588 Z-3.48
X-318.265 Y-66.635 Z-3.399
X-318.086 Y-66.674 Z-3.331
X-317.907 Y-66.707 Z-3.275
X-317.729 Y-66.732 Z-3.231
X-317.55 Y-66.75 Z-3.2
X-317.371 Y-66.76 Z-3.182
X-317.192 Y-66.764 Z-3.175
X-311.223 Z-3.178
X-311.149 Z-3.184
X-311.075 Z-3.194
X-311.001 Z-3.209
X-310.927 Z-3.228
X-310.853 Z-3.251
X-310.778 Z-3.279
X-310.704 Z-3.31
X-310.629 Z-3.345
X-310.554 Z-3.384
X-310.478 Z-3.428
X-310.402 Z-3.475
X-310.326 Z-3.526
X-310.25 Z-3.58
X-310.096 Z-3.7
X-309.939 Z-3.835
X-309.781 Z-3.983
X-309.621 Z-4.145
X-309.458 Z-4.319
X-309.292 Z-4.507
X-309.123 Z-4.707
X-308.951 Z-4.919
X-308.775 Z-5.144
X-308.702 Y-66.561 Z-5.017
X-308.635 Y-66.358 Z-4.902
X-308.576 Y-66.156 Z-4.799
X-308.523 Y-65.953 Z-4.709
X-308.478 Y-65.75 Z-4.63
X-308.44 Y-65.547 Z-4.564
X-308.408 Y-65.345 Z-4.509
X-308.384 Y-65.142 Z-4.467
X-308.366 Y-64.939 Z-4.437
X-308.356 Y-64.736 Z-4.419
X-308.353 Y-64.534 Z-4.413
Y-57.371
X-307.51 Y-56.532 Z-2.959
X-307.284 Y-56.317 Z-2.588
X-307.066 Y-56.119 Z-2.244
X-306.936 Y-56.007 Z-2.05
X-306.787 Y-55.883 Z-1.836
X-306.678 Y-55.797 Z-1.687
X-306.554 Y-55.703 Z-1.524
X-306.396 Y-55.591 Z-1.33
X-306.255 Y-55.498 Z-1.169
X-306.14 Y-55.426 Z-1.044
X-305.975 Y-55.329 Z-0.876
X-305.83 Y-55.247 Z-0.735
X-305.675 Y-55.164 Z-0.59
X-305.603 Y-55.13 Z-0.532
X-305.48 Y-55.083 Z-0.45
X-305.306 Y-55.018 Z-0.338
X-305.174 Y-54.972 Z-0.258
X-305.05 Y-54.932 Z-0.189
X-304.926 Y-54.896 Z-0.126
X-304.842 Y-54.873 Z-0.087
X-304.714 Y-54.843 Z-0.035
X-304.617 Y-54.823 Z0
X-304.714 Y-54.843 Z-0.035
X-304.842 Y-54.873 Z-0.087
X-304.926 Y-54.896 Z-0.126
X-305.05 Y-54.932 Z-0.189
X-305.174 Y-54.972 Z-0.258
X-305.306 Y-55.018 Z-0.338
X-305.48 Y-55.083 Z-0.45
X-305.603 Y-55.13 Z-0.532
X-305.675 Y-55.164 Z-0.59
X-305.83 Y-55.247 Z-0.735
X-305.975 Y-55.329 Z-0.876
X-306.14 Y-55.426 Z-1.044
X-306.255 Y-55.498 Z-1.169
X-306.396 Y-55.591 Z-1.33
X-306.554 Y-55.703 Z-1.524
X-306.678 Y-55.797 Z-1.687
X-306.787 Y-55.883 Z-1.836
X-306.936 Y-56.007 Z-2.05
X-307.066 Y-56.119 Z-2.244
X-307.284 Y-56.317 Z-2.588
X-307.51 Y-56.532 Z-2.959
X-308.353 Y-57.371 Z-4.413
X-309.132 Y-56.594 Z-3.067
X-309.45 Y-56.291 Z-2.543
X-309.63 Y-56.129 Z-2.261
X-309.75 Y-56.024 Z-2.081
X-309.914 Y-55.889 Z-1.846
X-310.087 Y-55.754 Z-1.613
X-310.191 Y-55.678 Z-1.48
X-310.311 Y-55.594 Z-1.335
X-310.436 Y-55.512 Z-1.192
X-310.573 Y-55.426 Z-1.045
X-310.711 Y-55.345 Z-0.904
X-310.839 Y-55.273 Z-0.778
X-310.934 Y-55.22 Z-0.688
X-311.005 Y-55.183 Z-0.623
X-311.077 Y-55.15 Z-0.566
X-311.202 Y-55.101 Z-0.481
X-311.382 Y-55.034 Z-0.366
X-311.509 Y-54.99 Z-0.289
X-311.644 Y-54.946 Z-0.213
X-311.776 Y-54.907 Z-0.145
X-311.911 Y-54.871 Z-0.083
X-312.036 Y-54.842 Z-0.033
X-312.129 Y-54.823 Z0
X-312.036 Y-54.842 Z-0.033
X-311.911 Y-54.871 Z-0.083
X-311.776 Y-54.907 Z-0.145
X-311.644 Y-54.946 Z-0.213
X-311.509 Y-54.99 Z-0.289
X-311.382 Y-55.034 Z-0.366
X-311.202 Y-55.101 Z-0.481
X-311.077 Y-55.15 Z-0.566
X-311.005 Y-55.183 Z-0.623
X-310.934 Y-55.22 Z-0.688
X-310.839 Y-55.273 Z-0.778
X-310.711 Y-55.345 Z-0.904
X-310.573 Y-55.426 Z-1.045
X-310.436 Y-55.512 Z-1.192
X-310.311 Y-55.594 Z-1.335
X-310.191 Y-55.678 Z-1.48
X-310.087 Y-55.754 Z-1.613
X-309.914 Y-55.889 Z-1.846
X-309.75 Y-56.024 Z-2.081
X-309.63 Y-56.129 Z-2.261
X-309.45 Y-56.291 Z-2.543
X-309.132 Y-56.594 Z-3.067
X-308.353 Y-57.371 Z-4.413
Y-64.534
X-308.356 Y-64.736 Z-4.419
X-308.366 Y-64.939 Z-4.437
X-308.384 Y-65.142 Z-4.467
X-308.408 Y-65.345 Z-4.509
X-308.44 Y-65.547 Z-4.564
X-308.478 Y-65.75 Z-4.63
X-308.523 Y-65.953 Z-4.709
X-308.576 Y-66.156 Z-4.799
X-308.635 Y-66.358 Z-4.902
X-308.702 Y-66.561 Z-5.017
X-308.775 Y-66.764 Z-5.144
X-308.702 Y-66.967 Z-5.017
X-308.635 Y-67.169 Z-4.902
X-308.576 Y-67.372 Z-4.799
X-308.523 Y-67.575 Z-4.709
X-308.478 Y-67.778 Z-4.63
X-308.44 Y-67.98 Z-4.564
X-308.408 Y-68.183 Z-4.509
X-308.384 Y-68.386 Z-4.467
X-308.366 Y-68.589 Z-4.437
X-308.356 Y-68.791 Z-4.419
X-308.353 Y-68.994 Z-4.413
Y-74.575
X-308.356 Y-74.769 Z-4.418
X-308.365 Y-74.964 Z-4.435
X-308.381 Y-75.158 Z-4.463
X-308.404 Y-75.352 Z-4.501
X-308.433 Y-75.546 Z-4.551
X-308.468 Y-75.74 Z-4.612
X-308.509 Y-75.934 Z-4.684
X-307.509 Y-76.931 Z-2.957
X-307.24 Y-77.187 Z-2.514
X-307.061 Y-77.348 Z-2.235
X-306.905 Y-77.483 Z-2.002
X-306.792 Y-77.576 Z-1.84
X-306.668 Y-77.674 Z-1.671
X-306.562 Y-77.754 Z-1.532
X-306.458 Y-77.828 Z-1.403
X-306.33 Y-77.915 Z-1.253
X-306.191 Y-78.004 Z-1.1
X-306.053 Y-78.087 Z-0.955
X-305.921 Y-78.163 Z-0.825
X-305.764 Y-78.25 Z-0.674
X-305.689 Y-78.288 Z-0.607
X-305.614 Y-78.323 Z-0.548
X-305.489 Y-78.37 Z-0.465
X-305.314 Y-78.433 Z-0.356
X-305.182 Y-78.479 Z-0.277
X-305.054 Y-78.52 Z-0.206
X-304.923 Y-78.558 Z-0.14
X-304.793 Y-78.592 Z-0.081
X-304.667 Y-78.62 Z-0.032
X-304.578 Y-78.639 Z0
X-304.667 Y-78.62 Z-0.032
X-304.793 Y-78.592 Z-0.081
X-304.923 Y-78.558 Z-0.14
X-305.054 Y-78.52 Z-0.206
X-305.182 Y-78.479 Z-0.277
X-305.314 Y-78.433 Z-0.356
X-305.489 Y-78.37 Z-0.465
X-305.614 Y-78.323 Z-0.548
X-305.689 Y-78.288 Z-0.607
X-305.764 Y-78.25 Z-0.674
X-305.921 Y-78.163 Z-0.825
X-306.053 Y-78.087 Z-0.955
X-306.191 Y-78.004 Z-1.1
X-306.33 Y-77.915 Z-1.253
X-306.458 Y-77.828 Z-1.403
X-306.562 Y-77.754 Z-1.532
X-306.668 Y-77.674 Z-1.671
X-306.792 Y-77.576 Z-1.84
X-306.905 Y-77.483 Z-2.002
X-307.061 Y-77.348 Z-2.235
X-307.24 Y-77.187 Z-2.514
X-307.509 Y-76.931 Z-2.957
X-308.509 Y-75.934 Z-4.684
X-308.695 Y-76.047 Z-4.49
X-308.881 Y-76.151 Z-4.309
X-309.067 Y-76.248 Z-4.141
X-309.253 Y-76.337 Z-3.987
X-309.439 Y-76.418 Z-3.846
X-309.624 Y-76.492 Z-3.719
X-309.81 Y-76.558 Z-3.605
X-309.996 Y-76.616 Z-3.504
X-310.182 Y-76.666 Z-3.417
X-310.368 Y-76.709 Z-3.343
X-310.554 Y-76.743 Z-3.283
X-310.739 Y-76.771 Z-3.236
X-310.925 Y-76.79 Z-3.202
X-311.111 Y-76.802 Z-3.182
X-311.297 Y-76.805 Z-3.175
X-320.127
X-320.318
X-320.787 Y-76.803
X-321.103 Y-76.797 Z-3.179
X-321.335 Y-76.79 Z-3.185
X-321.664 Y-76.775 Z-3.198
X-321.853 Y-76.762 Z-3.209
X-322.035 Y-76.748 Z-3.221
X-322.215 Y-76.731 Z-3.236
X-322.394 Y-76.711 Z-3.253
X-322.662 Y-76.676 Z-3.282
X-322.878 Y-76.642 Z-3.31
X-323.09 Y-76.603 Z-3.34
X-323.273 Y-76.567 Z-3.37
X-323.453 Y-76.528 Z-3.402
X-323.677 Y-76.477 Z-3.443
X-324.03 Y-76.389 Z-3.516
X-324.467 Y-76.274 Z-3.611
X-324.599 Y-76.231 Z-3.631
X-324.715 Y-76.189 Z-3.654
X-324.821 Y-76.148 Z-3.679
X-324.924 Y-76.105 Z-3.707
X-325.023 Y-76.061 Z-3.737
X-325.115 Y-76.016 Z-3.769
X-325.2 Y-75.973 Z-3.8
X-325.281 Y-75.928 Z-3.831
X-325.419 Y-75.847 Z-3.888
X-325.546 Y-75.765 Z-3.939
X-325.673 Y-75.68 Z-3.987
X-325.817 Y-75.576 Z-4.039
X-325.955 Y-75.472 Z-4.088
X-326.087 Y-75.367 Z-4.138
X-326.2 Y-75.275 Z-4.183
X-326.328 Y-75.138 Z-4.207
X-326.396 Y-75.062 Z-4.222
X-326.544 Y-74.891 Z-4.259
X-326.705 Y-74.691 Z-4.309
X-326.804 Y-74.559 Z-4.345
X-326.884 Y-74.448 Z-4.375
X-326.987 Y-74.29 Z-4.418
X-327.049 Y-74.188 Z-4.445
X-327.121 Y-74.058 Z-4.475
X-327.165 Y-73.969 Z-4.492
X-327.183 Y-73.931 Z-4.498
X-327.219 Y-73.842 Z-4.507
X-327.252 Y-73.748 Z-4.512
X-327.281 Y-73.658 Z-4.514
X-327.307 Y-73.566
X-327.353 Y-73.37 Z-4.511
X-327.374 Y-73.271 Z-4.509
X-327.413 Y-73.047 Z-4.503
X-327.44 Y-72.853 Z-4.498
X-327.468 Y-72.605 Z-4.496
X-327.492 Y-72.331 Z-4.497
X-327.512 Y-72.031 Z-4.5
X-327.521 Y-71.87 Z-4.504
X-327.52 Y-71.839 Z-4.502
X-327.51 Y-71.59 Z-4.494
X-327.485 Y-71.267 Z-4.498
X-327.466 Y-71.072 Z-4.499
X-327.443 Y-70.872
X-327.418 Y-70.702 Z-4.498
X-327.379 Y-70.494 Z-4.491
X-327.362 Y-70.418 Z-4.487
X-327.325 Y-70.28 Z-4.471
X-327.306 Y-70.221 Z-4.462
X-327.266 Y-70.111 Z-4.44
X-327.213 Y-69.98 Z-4.411
X-327.166 Y-69.871 Z-4.385
X-327.104 Y-69.739 Z-4.353
X-327.052 Y-69.634 Z-4.328
X-327.011 Y-69.553 Z-4.309
X-326.903 Y-69.358 Z-4.267
X-326.832 Y-69.237 Z-4.243
X-326.732 Y-69.115 Z-4.181
X-326.635 Y-69.002 Z-4.126
X-326.487 Y-68.84 Z-4.053
X-326.34 Y-68.689 Z-3.988
X-326.199 Y-68.551 Z-3.932
X-326.037 Y-68.406 Z-3.877
X-325.925 Y-68.312 Z-3.841
X-325.793 Y-68.207 Z-3.8
X-325.609 Y-68.073 Z-3.747
X-325.522 Y-68.014 Z-3.723
X-325.338 Y-67.898 Z-3.669
X-325.234 Y-67.836 Z-3.64
X-325.052 Y-67.736 Z-3.588
X-324.845 Y-67.63 Z-3.53
X-324.711 Y-67.564 Z-3.493
X-324.465 Y-67.45 Z-3.423
X-324.415 Y-67.428 Z-3.409
X-324.316 Y-67.386 Z-3.384
X-324.216 Y-67.346 Z-3.363
X-324.112 Y-67.309 Z-3.344
X-324.009 Y-67.274 Z-3.33
X-323.792 Y-67.211 Z-3.313
X-323.455 Y-67.12 Z-3.291
X-323.156 Y-67.042 Z-3.276
X-322.998 Y-67.002 Z-3.272
X-322.845 Y-66.959 Z-3.279
X-322.678 Y-66.907 Z-3.301
X-322.507 Y-66.848 Z-3.339
X-322.334 Y-66.783 Z-3.393
X-322.16 Y-66.712 Z-3.464
X-321.991 Y-66.638 Z-3.55
X-321.826 Y-66.561 Z-3.648
X-321.659 Y-66.478 Z-3.762
X-321.5 Y-66.394 Z-3.885
X-321.341 Y-66.305 Z-4.02
X-321.183 Y-66.212 Z-4.166
X-321.028 Y-66.116 Z-4.322
X-320.88 Y-66.02 Z-4.48
X-320.732 Y-65.918 Z-4.65
X-320.591 Y-65.818 Z-4.819
X-320.418 Y-65.689 Z-5.039
G0 Z5
X-203.921 Y-66.55
G1 Z-4.496 F849.6
X-203.911 Y-66.757 Z-4.483
X-203.906 Y-66.829 Z-4.481
X-203.858 Y-67.395 Z-4.47
X-203.83 Y-67.711 Z-4.463
X-203.787 Y-68.119 Z-4.457
X-203.76 Y-68.34 Z-4.452
X-203.725 Y-68.606 Z-4.449
X-203.713 Y-68.685 Z-4.448
X-203.659 Y-69.03 Z-4.445
X-203.595 Y-69.373 Z-4.443
X-203.512 Y-69.747 Z-4.44
X-203.442 Y-70.023 Z-4.439
X-203.414 Y-70.117 Z-4.436
X-203.338 Y-70.367 Z-4.433
X-203.295 Y-70.494 Z-4.428
X-203.246 Y-70.633 Z-4.427
X-203.206 Y-70.739 Z-4.42
X-203.139 Y-70.905 Z-4.413
X-203.019 Y-71.172 Z-4.394
X-202.869 Y-71.465 Z-4.366
X-202.799 Y-71.589 Z-4.351
X-202.724 Y-71.72 Z-4.339
X-202.609 Y-71.906 Z-4.314
X-202.54 Y-72.015 Z-4.302
X-202.408 Y-72.213 Z-4.274
X-202.337 Y-72.317 Z-4.263
X-202.203 Y-72.502 Z-4.236
X-202.111 Y-72.628 Z-4.22
X-202.002 Y-72.77 Z-4.199
X-201.797 Y-73.031 Z-4.164
X-201.595 Y-73.277 Z-4.132
X-201.308 Y-73.614 Z-4.087
X-201.205 Y-73.732 Z-4.07
X-200.842 Y-74.143 Z-4.014
X-200.766 Y-74.226 Z-4.005
X-200.689 Y-74.307 Z-3.999
X-200.568 Y-74.428 Z-3.997
X-200.471 Y-74.501 Z-3.977
X-200.373 Y-74.57 Z-3.962
X-199.869 Y-74.918 Z-3.894
X-199.599 Y-75.1 Z-3.858
X-199.325 Y-75.28 Z-3.823
X-199.035 Y-75.466 Z-3.787
X-198.739 Y-75.647 Z-3.752
X-198.424 Y-75.829 Z-3.717
X-198.102 Y-76.004 Z-3.683
X-197.764 Y-76.173 Z-3.65
X-197.51 Y-76.291 Z-3.626
X-197.412 Y-76.333 Z-3.616
X-197.154 Y-76.439 Z-3.591
X-197.041 Y-76.482 Z-3.58
X-196.906 Y-76.532 Z-3.57
X-196.778 Y-76.576 Z-3.556
X-196.59 Y-76.637 Z-3.541
X-196.293 Y-76.723 Z-3.513
X-196.261 Y-76.732 Z-3.511
X-195.918 Y-76.818 Z-3.483
X-195.563 Y-76.894 Z-3.457
X-195.196 Y-76.962 Z-3.433
X-194.816 Y-77.02 Z-3.412
X-194.538 Y-77.057 Z-3.397
X-194.425 Y-77.071 Z-3.393
X-194.207 Y-77.095 Z-3.383
X-193.885 Y-77.128 Z-3.372
X-193.571 Y-77.156 Z-3.363
X-192.965 Y-77.202 Z-3.348
X-192.606 Y-77.226 Z-3.34
X-192.47 Y-77.232 Z-3.343
X-192.306 Y-77.223 Z-3.34
X-191.698 Y-77.18 Z-3.345
X-191.338 Y-77.15 Z-3.349
X-190.931 Y-77.112 Z-3.357
X-190.725 Y-77.091 Z-3.361
X-190.385 Y-77.05 Z-3.371
X-190.103 Y-77.012 Z-3.381
X-190.036 Y-77.002 Z-3.384
X-189.682 Y-76.944 Z-3.401
X-189.318 Y-76.874 Z-3.422
X-189.044 Y-76.814 Z-3.441
X-188.945 Y-76.789 Z-3.447
X-188.676 Y-76.719 Z-3.469
X-188.571 Y-76.689 Z-3.477
X-188.378 Y-76.632 Z-3.495
X-188.305 Y-76.608 Z-3.5
X-188.19 Y-76.57 Z-3.51
X-188.062 Y-76.526 Z-3.524
X-187.927 Y-76.476 Z-3.534
X-187.754 Y-76.409 Z-3.553
X-187.456 Y-76.283 Z-3.581
X-187.449 Y-76.28 Z-3.582
X-187.111 Y-76.12 Z-3.616
X-186.786 Y-75.952 Z-3.651
X-186.473 Y-75.778 Z-3.688
X-186.171 Y-75.6 Z-3.725
X-185.862 Y-75.409 Z-3.766
X-185.534 Y-75.196 Z-3.813
X-185.2 Y-74.971 Z-3.862
X-184.823 Y-74.711 Z-3.918
X-184.515 Y-74.495 Z-3.966
X-184.408 Y-74.414 Z-3.988
X-184.286 Y-74.293 Z-3.993
X-184.148 Y-74.146 Z-4.009
X-183.777 Y-73.732 Z-4.073
X-183.565 Y-73.491 Z-4.108
X-183.364 Y-73.255 Z-4.145
X-183.123 Y-72.964 Z-4.189
X-182.952 Y-72.747 Z-4.221
X-182.877 Y-72.651 Z-4.237
X-182.745 Y-72.473 Z-4.261
X-182.651 Y-72.344 Z-4.282
X-182.533 Y-72.175 Z-4.305
X-182.449 Y-72.05 Z-4.325
X-182.332 Y-71.867 Z-4.347
X-182.272 Y-71.769 Z-4.362
X-182.138 Y-71.539 Z-4.387
X-182.113 Y-71.494 Z-4.394
X-181.977 Y-71.235 Z-4.418
X-181.85 Y-70.957 Z-4.437
X-181.754 Y-70.718 Z-4.45
X-181.658 Y-70.451 Z-4.456
X-181.654 Y-70.437 Z-4.457
X-181.55 Y-70.098 Z-4.461
X-181.455 Y-69.731
X-181.38 Y-69.383 Z-4.462
X-181.319 Y-69.055 Z-4.463
X-181.261 Y-68.688 Z-4.464
X-181.205 Y-68.273 Z-4.468
X-181.183 Y-68.087 Z-4.469
X-181.152 Y-67.799 Z-4.474
X-181.098 Y-67.221 Z-4.482
X-181.073 Y-66.934 Z-4.487
X-181.061 Y-66.737 Z-4.497
X-181.076 Y-66.507 Z-4.485
X-181.128 Y-65.93 Z-4.474
X-181.158 Y-65.627 Z-4.47
X-181.207 Y-65.198 Z-4.465
X-181.233 Y-65 Z-4.461
X-181.279 Y-64.681 Z-4.459
X-181.338 Y-64.329 Z-4.458
X-181.404 Y-63.99 Z-4.457
X-181.487 Y-63.631 Z-4.456
X-181.563 Y-63.344 Z-4.454
X-181.588 Y-63.264 Z-4.452
X-181.664 Y-63.019 Z-4.449
X-181.71 Y-62.89 Z-4.445
X-181.76 Y-62.753 Z-4.443
X-181.8 Y-62.651 Z-4.437
X-181.866 Y-62.492 Z-4.43
X-181.986 Y-62.233 Z-4.411
X-182.024 Y-62.16 Z-4.404
X-182.145 Y-61.933 Z-4.382
X-182.206 Y-61.826 Z-4.369
X-182.282 Y-61.698 Z-4.356
X-182.397 Y-61.514 Z-4.331
X-182.463 Y-61.412 Z-4.319
X-182.598 Y-61.212 Z-4.29
X-182.666 Y-61.116 Z-4.279
X-182.793 Y-60.942 Z-4.252
X-182.891 Y-60.811 Z-4.235
X-182.998 Y-60.672 Z-4.213
X-183.197 Y-60.423 Z-4.178
X-183.403 Y-60.175 Z-4.143
X-183.686 Y-59.846 Z-4.096
X-183.985 Y-59.509 Z-4.046
X-184.222 Y-59.247 Z-4.009
X-184.301 Y-59.166 Z-4.003
X-184.431 Y-59.038 Z-4.001
X-184.572 Y-58.934 Z-3.975
X-185.075 Y-58.58 Z-3.901
X-185.345 Y-58.393 Z-3.862
X-185.623 Y-58.206 Z-3.824
X-185.914 Y-58.017 Z-3.785
X-186.212 Y-57.831 Z-3.748
X-186.532 Y-57.642 Z-3.711
X-186.85 Y-57.465 Z-3.676
X-187.19 Y-57.292 Z-3.64
X-187.465 Y-57.163 Z-3.613
X-187.547 Y-57.127 Z-3.605
X-187.805 Y-57.019 Z-3.58
X-187.922 Y-56.975 Z-3.568
X-188.073 Y-56.919 Z-3.556
X-188.185 Y-56.88 Z-3.543
X-188.388 Y-56.814 Z-3.527
X-188.676 Y-56.73 Z-3.5
X-188.714 Y-56.72 Z-3.498
X-189.056 Y-56.634 Z-3.47
X-189.409 Y-56.558 Z-3.444
X-189.776 Y-56.492 Z-3.421
X-190.152 Y-56.434 Z-3.402
X-190.452 Y-56.395 Z-3.387
X-190.541 Y-56.385 Z-3.385
X-190.785 Y-56.358 Z-3.375
X-191.109 Y-56.327 Z-3.365
X-191.426 Y-56.3 Z-3.358
X-192.036 Y-56.257 Z-3.346
X-192.377 Y-56.235 Z-3.341
X-192.502 Y-56.23 Z-3.344
X-192.678 Y-56.238 Z-3.341
X-193.288 Y-56.279 Z-3.353
X-193.655 Y-56.307 Z-3.361
X-194.063 Y-56.343 Z-3.372
X-194.264 Y-56.364 Z-3.378
X-194.605 Y-56.403 Z-3.391
X-194.954 Y-56.45 Z-3.408
X-195.312 Y-56.508 Z-3.428
X-195.679 Y-56.577 Z-3.452
X-195.953 Y-56.637 Z-3.474
X-196.052 Y-56.661 Z-3.481
X-196.322 Y-56.731 Z-3.504
X-196.429 Y-56.761 Z-3.513
X-196.616 Y-56.817 Z-3.532
X-196.696 Y-56.843 Z-3.537
X-196.815 Y-56.882 Z-3.549
X-196.93 Y-56.922 Z-3.562
X-197.077 Y-56.977 Z-3.574
X-197.235 Y-57.038 Z-3.591
X-197.552 Y-57.173 Z-3.622
X-197.89 Y-57.334 Z-3.655
X-198.225 Y-57.509 Z-3.691
X-198.532 Y-57.683 Z-3.726
X-198.84 Y-57.867 Z-3.763
X-199.127 Y-58.048 Z-3.801
X-199.443 Y-58.255 Z-3.844
X-199.776 Y-58.482 Z-3.892
X-200.174 Y-58.76 Z-3.949
X-200.461 Y-58.963 Z-3.992
X-200.574 Y-59.048 Z-4.014
X-200.585 Y-59.058
X-200.701 Y-59.173 Z-4.019
X-200.835 Y-59.315 Z-4.034
X-201.209 Y-59.728 Z-4.093
X-201.404 Y-59.95 Z-4.124
X-201.604 Y-60.181 Z-4.158
X-201.85 Y-60.475 Z-4.201
X-202.014 Y-60.68 Z-4.228
X-202.093 Y-60.781 Z-4.244
X-202.221 Y-60.951 Z-4.267
X-202.317 Y-61.081 Z-4.287
X-202.426 Y-61.237 Z-4.307
X-202.517 Y-61.369 Z-4.327
X-202.629 Y-61.541 Z-4.348
X-202.694 Y-61.646 Z-4.363
X-202.761 Y-61.757 Z-4.374
X-202.853 Y-61.917 Z-4.394
X-203.007 Y-62.209 Z-4.421
X-203.114 Y-62.437 Z-4.437
X-203.172 Y-62.577 Z-4.444
X-203.213 Y-62.677 Z-4.45
X-203.263 Y-62.811 Z-4.452
X-203.313 Y-62.95 Z-4.457
X-203.416 Y-63.276 Z-4.46
X-203.494 Y-63.563 Z-4.463
X-203.513 Y-63.645 Z-4.462
X-203.591 Y-63.989
X-203.654 Y-64.313 Z-4.463
X-203.71 Y-64.65 Z-4.464
X-203.767 Y-65.053 Z-4.468
X-203.792 Y-65.258 Z-4.47
X-203.828 Y-65.564 Z-4.474
X-203.883 Y-66.109 Z-4.485
X-203.907 Y-66.371 Z-4.489
X-203.921 Y-66.55 Z-4.496
G0 Z5
X-199.941 Y-115.301
G1 Z-3.359 F849.6
X-199.595 Y-115.275 Z-3.352
X-198.983 Y-115.234 Z-3.341
X-198.861 Y-115.23 Z-3.344
X-198.686 Y-115.237 Z-3.342
X-198.078 Y-115.278 Z-3.352
X-197.709 Y-115.306 Z-3.36
X-197.3 Y-115.343 Z-3.371
X-197.1 Y-115.363 Z-3.377
X-196.755 Y-115.402 Z-3.389
X-196.401 Y-115.45 Z-3.406
X-196.051 Y-115.506 Z-3.426
X-195.676 Y-115.577 Z-3.45
X-195.401 Y-115.637 Z-3.471
X-195.311 Y-115.659 Z-3.477
X-195.04 Y-115.728 Z-3.5
X-194.921 Y-115.762 Z-3.509
X-194.746 Y-115.815 Z-3.527
X-194.549 Y-115.879 Z-3.543
X-194.431 Y-115.919 Z-3.557
X-194.286 Y-115.973 Z-3.568
X-194.128 Y-116.034 Z-3.584
X-193.804 Y-116.172 Z-3.615
X-193.462 Y-116.335 Z-3.649
X-193.13 Y-116.509 Z-3.683
X-192.818 Y-116.685 Z-3.718
X-192.519 Y-116.863 Z-3.754
X-192.225 Y-117.047 Z-3.791
X-191.918 Y-117.249 Z-3.833
X-191.583 Y-117.476 Z-3.88
X-191.173 Y-117.762 Z-3.939
X-190.896 Y-117.958 Z-3.98
X-190.788 Y-118.038 Z-4.001
X-190.751 Y-118.074 Z-4
X-190.66 Y-118.164 Z-4.003
X-190.58 Y-118.248 Z-4.009
X-190.501 Y-118.334 Z-4.02
X-190.121 Y-118.76 Z-4.082
X-189.946 Y-118.961 Z-4.111
X-189.727 Y-119.217 Z-4.148
X-189.495 Y-119.498 Z-4.19
X-189.314 Y-119.727 Z-4.222
X-189.25 Y-119.81 Z-4.235
X-189.102 Y-120.01 Z-4.262
X-189.024 Y-120.116 Z-4.278
X-188.898 Y-120.299 Z-4.302
X-188.821 Y-120.412 Z-4.32
X-188.699 Y-120.604 Z-4.343
X-188.642 Y-120.696 Z-4.356
X-188.567 Y-120.824 Z-4.369
X-188.483 Y-120.971 Z-4.387
X-188.345 Y-121.233 Z-4.411
X-188.216 Y-121.514 Z-4.431
X-188.159 Y-121.653 Z-4.437
X-188.118 Y-121.756 Z-4.443
X-188.068 Y-121.892 Z-4.445
X-188.018 Y-122.036 Z-4.451
X-187.912 Y-122.382 Z-4.454
X-187.82 Y-122.739 Z-4.456
X-187.746 Y-123.074 Z-4.457
X-187.68 Y-123.423 Z-4.458
X-187.623 Y-123.784 Z-4.461
X-187.584 Y-124.059 Z-4.462
X-187.552 Y-124.322 Z-4.465
X-187.513 Y-124.665 Z-4.47
X-187.459 Y-125.23 Z-4.48
X-187.432 Y-125.534 Z-4.485
X-187.419 Y-125.737 Z-4.496
X-187.434 Y-125.965 Z-4.486
X-187.486 Y-126.533 Z-4.477
X-187.516 Y-126.847 Z-4.473
X-187.549 Y-127.144 Z-4.468
X-187.581 Y-127.407 Z-4.466
X-187.623 Y-127.715 Z-4.464
X-187.636 Y-127.796 Z-4.463
X-187.69 Y-128.125
X-187.758 Y-128.479
X-187.84 Y-128.837 Z-4.462
X-187.917 Y-129.13 Z-4.46
X-187.94 Y-129.205 Z-4.459
X-188.017 Y-129.451 Z-4.455
X-188.063 Y-129.582 Z-4.451
X-188.114 Y-129.722 Z-4.45
X-188.153 Y-129.822 Z-4.443
X-188.219 Y-129.982 Z-4.438
X-188.335 Y-130.232 Z-4.419
X-188.375 Y-130.31 Z-4.411
X-188.496 Y-130.538 Z-4.387
X-188.559 Y-130.648 Z-4.374
X-188.631 Y-130.77 Z-4.362
X-188.749 Y-130.958 Z-4.335
X-188.81 Y-131.053 Z-4.324
X-188.95 Y-131.259 Z-4.293
X-189.01 Y-131.344 Z-4.283
X-189.151 Y-131.538 Z-4.252
X-189.235 Y-131.649 Z-4.237
X-189.355 Y-131.803 Z-4.212
X-189.555 Y-132.053 Z-4.175
X-189.749 Y-132.287 Z-4.14
X-190.031 Y-132.614 Z-4.091
X-190.144 Y-132.742 Z-4.07
X-190.331 Y-132.951 Z-4.04
X-190.571 Y-133.217 Z-3.999
X-190.646 Y-133.296 Z-3.992
X-190.771 Y-133.419 Z-3.987
X-190.873 Y-133.495 Z-3.966
X-190.948 Y-133.548 Z-3.953
X-191.456 Y-133.9 Z-3.876
X-191.895 Y-134.196 Z-3.812
X-191.998 Y-134.265 Z-3.797
X-192.284 Y-134.448 Z-3.758
X-192.585 Y-134.633 Z-3.718
X-192.902 Y-134.819 Z-3.68
X-193.215 Y-134.99 Z-3.644
X-193.562 Y-135.165 Z-3.606
X-193.815 Y-135.283 Z-3.582
X-193.917 Y-135.327 Z-3.57
X-194.174 Y-135.433 Z-3.546
X-194.284 Y-135.476 Z-3.535
X-194.421 Y-135.526 Z-3.525
X-194.546 Y-135.57 Z-3.511
X-194.734 Y-135.631 Z-3.496
X-194.924 Y-135.688 Z-3.477
X-195.065 Y-135.728 Z-3.467
X-195.409 Y-135.815 Z-3.441
X-195.764 Y-135.892 Z-3.418
X-196.128 Y-135.959 Z-3.397
X-196.505 Y-136.018 Z-3.381
X-196.8 Y-136.057 Z-3.369
X-196.891 Y-136.068 Z-3.367
X-197.127 Y-136.095 Z-3.36
X-197.455 Y-136.128 Z-3.353
X-197.768 Y-136.156 Z-3.348
X-198.373 Y-136.203 Z-3.342
X-198.69 Y-136.225 Z-3.339
X-198.828 Y-136.232 Z-3.343
X-198.966 Y-136.226 Z-3.339
X-199.126 Y-136.216 Z-3.343
X-199.926 Y-136.156 Z-3.363
X-200.247 Y-136.127 Z-3.372
X-200.568 Y-136.095 Z-3.383
X-200.895 Y-136.057 Z-3.397
X-200.955 Y-136.049 Z-3.4
X-201.289 Y-136.003 Z-3.417
X-201.658 Y-135.944 Z-3.438
X-202.008 Y-135.877 Z-3.462
X-202.282 Y-135.817 Z-3.483
X-202.388 Y-135.791 Z-3.49
X-202.659 Y-135.721 Z-3.514
X-202.757 Y-135.693 Z-3.522
X-202.95 Y-135.636 Z-3.541
X-203.025 Y-135.612 Z-3.546
X-203.136 Y-135.576 Z-3.556
X-203.266 Y-135.531 Z-3.57
X-203.398 Y-135.483 Z-3.58
X-203.572 Y-135.416 Z-3.599
X-203.868 Y-135.292 Z-3.626
X-203.878 Y-135.287 Z-3.627
X-204.209 Y-135.132 Z-3.659
X-204.533 Y-134.966 Z-3.691
X-204.852 Y-134.791 Z-3.725
X-205.151 Y-134.615 Z-3.759
X-205.467 Y-134.42 Z-3.797
X-205.801 Y-134.204 Z-3.838
X-206.14 Y-133.978 Z-3.883
X-206.249 Y-133.904 Z-3.897
X-206.728 Y-133.573 Z-3.962
X-206.83 Y-133.5 Z-3.978
X-206.928 Y-133.427 Z-3.998
X-206.964 Y-133.392 Z-3.997
X-207.048 Y-133.307 Z-3.999
X-207.123 Y-133.228 Z-4.005
X-207.195 Y-133.148 Z-4.014
X-207.388 Y-132.933 Z-4.044
X-207.78 Y-132.482 Z-4.104
X-207.989 Y-132.234 Z-4.137
X-208.221 Y-131.949 Z-4.177
X-208.405 Y-131.713 Z-4.208
X-208.469 Y-131.629 Z-4.221
X-208.61 Y-131.437 Z-4.245
X-208.696 Y-131.317 Z-4.263
X-208.824 Y-131.128 Z-4.285
X-208.899 Y-131.016 Z-4.302
X-209.025 Y-130.815 Z-4.325
X-209.082 Y-130.721 Z-4.338
X-209.158 Y-130.589 Z-4.351
X-209.241 Y-130.44 Z-4.369
X-209.379 Y-130.17 Z-4.394
X-209.509 Y-129.878 Z-4.414
X-209.565 Y-129.737 Z-4.42
X-209.605 Y-129.633 Z-4.427
X-209.655 Y-129.492 Z-4.428
X-209.706 Y-129.341 Z-4.434
X-209.806 Y-129 Z-4.439
X-209.898 Y-128.632 Z-4.441
X-209.97 Y-128.292 Z-4.444
X-210.033 Y-127.944 Z-4.447
X-210.084 Y-127.606 Z-4.449
X-210.093 Y-127.542 Z-4.451
X-210.124 Y-127.294 Z-4.453
X-210.161 Y-126.981 Z-4.458
X-210.193 Y-126.666 Z-4.464
X-210.243 Y-126.09 Z-4.476
X-210.269 Y-125.757 Z-4.484
X-210.279 Y-125.553 Z-4.497
X-210.265 Y-125.364 Z-4.489
X-210.214 Y-124.825 Z-4.48
X-210.177 Y-124.476 Z-4.474
X-210.126 Y-124.053 Z-4.468
X-210.104 Y-123.894 Z-4.465
X-210.057 Y-123.579 Z-4.464
X-210 Y-123.24 Z-4.463
X-209.93 Y-122.893
X-209.848 Y-122.546
X-209.766 Y-122.245 Z-4.461
X-209.743 Y-122.17 Z-4.459
X-209.665 Y-121.93 Z-4.456
X-209.622 Y-121.811 Z-4.452
X-209.572 Y-121.677 Z-4.45
X-209.531 Y-121.577 Z-4.444
X-209.466 Y-121.421 Z-4.437
X-209.348 Y-121.172 Z-4.419
X-209.303 Y-121.086 Z-4.41
X-209.211 Y-120.916 Z-4.395
X-209.125 Y-120.766 Z-4.376
X-209.055 Y-120.648 Z-4.364
X-208.93 Y-120.451 Z-4.336
X-208.875 Y-120.368 Z-4.327
X-208.73 Y-120.157 Z-4.296
X-208.674 Y-120.079 Z-4.287
X-208.524 Y-119.875 Z-4.256
X-208.453 Y-119.782 Z-4.245
X-208.33 Y-119.626 Z-4.221
X-208.131 Y-119.381 Z-4.186
X-207.933 Y-119.146 Z-4.153
X-207.664 Y-118.837 Z-4.109
X-207.366 Y-118.504 Z-4.062
X-207.188 Y-118.309 Z-4.034
X-207.061 Y-118.174 Z-4.019
X-206.933 Y-118.048 Z-4.015
X-206.773 Y-117.93 Z-3.985
X-206.269 Y-117.575 Z-3.91
X-206.001 Y-117.39 Z-3.871
X-205.728 Y-117.206 Z-3.833
X-205.436 Y-117.016 Z-3.794
X-205.14 Y-116.831 Z-3.757
X-204.828 Y-116.646 Z-3.719
X-204.503 Y-116.465 Z-3.683
X-204.163 Y-116.292 Z-3.647
X-203.897 Y-116.167 Z-3.62
X-203.808 Y-116.128 Z-3.61
X-203.55 Y-116.02 Z-3.585
X-203.431 Y-115.974 Z-3.573
X-203.289 Y-115.922 Z-3.562
X-203.169 Y-115.881 Z-3.548
X-202.974 Y-115.817 Z-3.532
X-202.685 Y-115.732 Z-3.504
X-202.646 Y-115.721 Z-3.502
X-202.307 Y-115.635 Z-3.473
X-201.952 Y-115.56 Z-3.447
X-201.587 Y-115.493 Z-3.424
X-201.211 Y-115.435 Z-3.403
X-200.903 Y-115.395 Z-3.389
X-200.822 Y-115.386 Z-3.386
X-200.575 Y-115.359 Z-3.377
X-200.255 Y-115.328 Z-3.367
X-199.941 Y-115.301 Z-3.359
G0 Z5
X-270.25 Y-54.823
G1 Z0 F849.6
X-270.156 Y-54.842 Z-0.033
X-270.03 Y-54.872 Z-0.084
X-269.896 Y-54.907 Z-0.145
X-269.763 Y-54.946 Z-0.213
X-269.629 Y-54.99 Z-0.29
X-269.502 Y-55.035 Z-0.367
X-269.322 Y-55.101 Z-0.481
X-269.196 Y-55.15 Z-0.567
X-269.124 Y-55.184 Z-0.625
X-269.052 Y-55.221 Z-0.69
X-268.877 Y-55.319 Z-0.859
X-268.714 Y-55.414 Z-1.024
X-268.576 Y-55.5 Z-1.172
X-268.43 Y-55.595 Z-1.337
X-268.309 Y-55.679 Z-1.483
X-268.205 Y-55.756 Z-1.616
X-268.032 Y-55.89 Z-1.849
X-267.905 Y-55.995 Z-2.03
X-267.739 Y-56.139 Z-2.279
X-267.568 Y-56.293 Z-2.546
X-267.25 Y-56.595 Z-3.07
X-265.932 Y-57.911 Z-5.349
X-265.798 Y-57.69 Z-4.965
X-265.69 Y-57.518 Z-4.667
X-265.51 Y-57.243 Z-4.191
X-265.375 Y-57.045 Z-3.849
X-265.251 Y-56.871 Z-3.547
X-265.169 Y-56.76 Z-3.355
X-265.022 Y-56.57 Z-3.025
X-264.884 Y-56.398 Z-2.727
X-264.725 Y-56.208 Z-2.399
X-264.607 Y-56.071 Z-2.162
X-264.506 Y-55.959 Z-1.967
X-264.404 Y-55.854 Z-1.785
X-264.303 Y-55.755 Z-1.615
X-264.202 Y-55.665 Z-1.458
X-264.101 Y-55.581 Z-1.313
X-263.938 Y-55.461 Z-1.104
X-263.78 Y-55.348 Z-0.909
X-263.618 Y-55.239 Z-0.72
X-263.512 Y-55.171 Z-0.603
X-263.418 Y-55.116 Z-0.507
X-263.315 Y-55.058 Z-0.408
X-263.213 Y-55.007 Z-0.319
X-263.112 Y-54.961 Z-0.24
X-263.01 Y-54.921 Z-0.169
X-262.924 Y-54.891 Z-0.118
X-262.834 Y-54.863 Z-0.07
X-262.758 Y-54.843 Z-0.035
X-262.679 Y-54.824 Z-0.002
X-262.673 Y-54.823 Z0
X-262.679 Y-54.824 Z-0.002
X-262.758 Y-54.843 Z-0.035
X-262.834 Y-54.863 Z-0.07
X-262.924 Y-54.891 Z-0.118
X-263.01 Y-54.921 Z-0.169
X-263.112 Y-54.961 Z-0.24
X-263.213 Y-55.007 Z-0.319
X-263.315 Y-55.058 Z-0.408
X-263.418 Y-55.116 Z-0.507
X-263.512 Y-55.171 Z-0.603
X-263.618 Y-55.239 Z-0.72
X-263.78 Y-55.348 Z-0.909
X-263.938 Y-55.461 Z-1.104
X-264.101 Y-55.581 Z-1.313
X-264.202 Y-55.665 Z-1.458
X-264.303 Y-55.755 Z-1.615
X-264.404 Y-55.854 Z-1.785
X-264.506 Y-55.959 Z-1.967
X-264.607 Y-56.071 Z-2.162
X-264.725 Y-56.208 Z-2.399
X-264.884 Y-56.398 Z-2.727
X-265.022 Y-56.57 Z-3.025
X-265.169 Y-56.76 Z-3.355
X-265.251 Y-56.871 Z-3.547
X-265.375 Y-57.045 Z-3.849
X-265.51 Y-57.243 Z-4.191
X-265.69 Y-57.518 Z-4.667
X-265.798 Y-57.69 Z-4.965
X-265.932 Y-57.911 Z-5.349
X-265.928 Y-57.927 Z-5.356
X-265.849 Y-58.217 Z-5.493
X-265.761 Y-58.504 Z-5.645
X-265.711 Y-58.658 Z-5.731
X-265.648 Y-58.844 Z-5.84
X-265.58 Y-59.03 Z-5.958
X-265.413 Y-59.47 Z-6.248
X-265.549 Y-59.668 Z-6.013
X-265.677 Y-59.867 Z-5.791
X-265.798 Y-60.065 Z-5.581
X-265.912 Y-60.263 Z-5.384
X-266.018 Y-60.461 Z-5.2
X-266.117 Y-60.66 Z-5.029
X-266.209 Y-60.858 Z-4.87
X-266.293 Y-61.056 Z-4.724
X-266.37 Y-61.255 Z-4.59
X-266.44 Y-61.453 Z-4.47
X-266.502 Y-61.651 Z-4.362
X-266.557 Y-61.849 Z-4.267
X-266.605 Y-62.048 Z-4.184
X-266.645 Y-62.246 Z-4.114
X-266.678 Y-62.444 Z-4.057
X-266.703 Y-62.642 Z-4.013
X-266.722 Y-62.841 Z-3.981
X-266.733 Y-63.039 Z-3.962
X-266.737 Y-63.237 Z-3.955
Y-76.355
X-266.179 Y-76.909 Z-2.996
X-266.021 Y-77.061 Z-2.732
X-265.8 Y-77.266 Z-2.378
X-265.634 Y-77.414 Z-2.122
X-265.506 Y-77.522 Z-1.934
X-265.359 Y-77.64 Z-1.729
X-265.227 Y-77.742 Z-1.554
X-265.073 Y-77.851 Z-1.364
X-264.956 Y-77.931 Z-1.226
X-264.815 Y-78.02 Z-1.071
X-264.68 Y-78.101 Z-0.931
X-264.504 Y-78.202 Z-0.756
X-264.409 Y-78.254 Z-0.666
X-264.337 Y-78.292 Z-0.601
X-264.265 Y-78.325 Z-0.543
X-264.139 Y-78.374 Z-0.458
X-263.961 Y-78.439 Z-0.346
X-263.834 Y-78.483 Z-0.269
X-263.704 Y-78.525 Z-0.197
X-263.583 Y-78.561 Z-0.135
X-263.499 Y-78.583 Z-0.096
X-263.368 Y-78.614 Z-0.042
X-263.253 Y-78.638 Z0
X-263.368 Y-78.614 Z-0.042
X-263.499 Y-78.583 Z-0.096
X-263.583 Y-78.561 Z-0.135
X-263.704 Y-78.525 Z-0.197
X-263.834 Y-78.483 Z-0.269
X-263.961 Y-78.439 Z-0.346
X-264.139 Y-78.374 Z-0.458
X-264.265 Y-78.325 Z-0.543
X-264.337 Y-78.292 Z-0.601
X-264.409 Y-78.254 Z-0.666
X-264.504 Y-78.202 Z-0.756
X-264.68 Y-78.101 Z-0.931
X-264.815 Y-78.02 Z-1.071
X-264.956 Y-77.931 Z-1.226
X-265.073 Y-77.851 Z-1.364
X-265.227 Y-77.742 Z-1.554
X-265.359 Y-77.64 Z-1.729
X-265.506 Y-77.522 Z-1.934
X-265.634 Y-77.414 Z-2.122
X-265.8 Y-77.266 Z-2.378
X-266.021 Y-77.061 Z-2.732
X-266.179 Y-76.909 Z-2.996
X-266.737 Y-76.355 Z-3.955
X-267.27 Y-76.887 Z-3.034
X-267.588 Y-77.189 Z-2.512
X-267.758 Y-77.342 Z-2.245
X-267.852 Y-77.425 Z-2.103
X-268.004 Y-77.552 Z-1.882
X-268.049 Y-77.589 Z-1.818
X-268.222 Y-77.723 Z-1.586
X-268.325 Y-77.799 Z-1.455
X-268.445 Y-77.883 Z-1.309
X-268.59 Y-77.978 Z-1.145
X-268.728 Y-78.063 Z-0.997
X-268.89 Y-78.157 Z-0.834
X-269.064 Y-78.255 Z-0.665
X-269.136 Y-78.292 Z-0.6
X-269.208 Y-78.326 Z-0.542
X-269.335 Y-78.375 Z-0.457
X-269.513 Y-78.44 Z-0.344
X-269.639 Y-78.483 Z-0.269
X-269.769 Y-78.525 Z-0.196
X-269.89 Y-78.561 Z-0.135
X-269.974 Y-78.583 Z-0.096
X-270.106 Y-78.615 Z-0.042
X-270.221 Y-78.639 Z0
X-270.106 Y-78.615 Z-0.042
X-269.974 Y-78.583 Z-0.096
X-269.89 Y-78.561 Z-0.135
X-269.769 Y-78.525 Z-0.196
X-269.639 Y-78.483 Z-0.269
X-269.513 Y-78.44 Z-0.344
X-269.335 Y-78.375 Z-0.457
X-269.208 Y-78.326 Z-0.542
X-269.136 Y-78.292 Z-0.6
X-269.064 Y-78.255 Z-0.665
X-268.89 Y-78.157 Z-0.834
X-268.728 Y-78.063 Z-0.997
X-268.59 Y-77.978 Z-1.145
X-268.445 Y-77.883 Z-1.309
X-268.325 Y-77.799 Z-1.455
X-268.222 Y-77.723 Z-1.586
X-268.049 Y-77.589 Z-1.818
X-268.004 Y-77.552 Z-1.882
X-267.852 Y-77.425 Z-2.103
X-267.758 Y-77.342 Z-2.245
X-267.588 Y-77.189 Z-2.512
X-267.27 Y-76.887 Z-3.034
X-266.737 Y-76.355 Z-3.955
Y-63.237
X-266.733 Y-63.039 Z-3.962
X-266.722 Y-62.841 Z-3.981
X-266.703 Y-62.642 Z-4.013
X-266.678 Y-62.444 Z-4.057
X-266.645 Y-62.246 Z-4.114
X-266.605 Y-62.048 Z-4.184
X-266.557 Y-61.849 Z-4.267
X-266.502 Y-61.651 Z-4.362
X-266.44 Y-61.453 Z-4.47
X-266.37 Y-61.255 Z-4.59
X-266.293 Y-61.056 Z-4.724
X-266.209 Y-60.858 Z-4.87
X-266.117 Y-60.66 Z-5.029
X-266.018 Y-60.461 Z-5.2
X-265.912 Y-60.263 Z-5.384
X-265.798 Y-60.065 Z-5.581
X-265.677 Y-59.867 Z-5.791
X-265.549 Y-59.668 Z-6.013
X-265.413 Y-59.47 Z-6.248
X-265.275 Y-59.505 Z-6.112
X-265.075 Y-59.56 Z-5.921
X-264.892 Y-59.615 Z-5.752
X-264.781 Y-59.649 Z-5.654
X-264.591 Y-59.711 Z-5.49
X-264.425 Y-59.77 Z-5.353
X-264.326 Y-59.806 Z-5.274
X-264.168 Y-59.867 Z-5.153
X-264.003 Y-59.935 Z-5.032
X-263.869 Y-59.994 Z-4.939
X-263.752 Y-60.048 Z-4.861
X-263.56 Y-60.142 Z-4.743
X-263.373 Y-60.24 Z-4.637
X-263.192 Y-60.343 Z-4.544
X-263.015 Y-60.452 Z-4.463
X-262.843 Y-60.566 Z-4.395
X-262.676 Y-60.685 Z-4.339
X-262.515 Y-60.808 Z-4.295
X-262.358 Y-60.938 Z-4.264
X-262.206 Y-61.072 Z-4.245
X-262.06 Y-61.211 Z-4.239
X-250.449 Y-72.689 Z-4.288
X-250.299 Y-72.832 Z-4.295
X-250.144 Y-72.969 Z-4.315
X-249.983 Y-73.102 Z-4.348
X-249.817 Y-73.229 Z-4.394
X-249.646 Y-73.351 Z-4.453
X-249.47 Y-73.467 Z-4.525
X-249.289 Y-73.578 Z-4.61
X-249.102 Y-73.684 Z-4.707
X-248.91 Y-73.785 Z-4.818
X-248.712 Y-73.88 Z-4.941
X-248.51 Y-73.97 Z-5.078
X-248.442 Y-73.998 Z-5.126
X-248.334 Y-74.043 Z-5.205
X-248.193 Y-74.099 Z-5.314
X-248.027 Y-74.162 Z-5.45
X-247.87 Y-74.22 Z-5.586
X-247.681 Y-74.287 Z-5.759
X-247.524 Y-74.341 Z-5.911
X-247.296 Y-74.418 Z-6.143
X-247.123 Y-74.476 Z-6.329
X-247.058 Y-74.687 Z-6.217
X-247.041 Y-74.746 Z-6.187
X-246.966 Y-75.018 Z-6.058
X-246.925 Y-75.183 Z-5.986
X-246.969 Y-75.255 Z-5.86
X-247.178 Y-75.588 Z-5.284
X-247.365 Y-75.875 Z-4.788
X-247.588 Y-76.198 Z-4.228
X-247.759 Y-76.435 Z-3.817
X-247.904 Y-76.631 Z-3.478
X-248.106 Y-76.892 Z-3.026
X-248.292 Y-77.127 Z-2.618
X-248.405 Y-77.266 Z-2.378
X-248.519 Y-77.396 Z-2.153
X-248.632 Y-77.517 Z-1.943
X-248.745 Y-77.629 Z-1.749
X-248.858 Y-77.733 Z-1.569
X-248.972 Y-77.828 Z-1.404
X-249.138 Y-77.953 Z-1.188
X-249.293 Y-78.064 Z-0.995
X-249.447 Y-78.17 Z-0.812
X-249.578 Y-78.255 Z-0.665
X-249.673 Y-78.313 Z-0.565
X-249.778 Y-78.372 Z-0.462
X-249.882 Y-78.425 Z-0.37
X-249.984 Y-78.473 Z-0.288
X-250.082 Y-78.513 Z-0.217
X-250.179 Y-78.549 Z-0.155
X-250.263 Y-78.576 Z-0.108
X-250.347 Y-78.6 Z-0.066
X-250.425 Y-78.62 Z-0.032
X-250.499 Y-78.637 Z-0.002
X-250.506 Y-78.639 Z0
X-250.499 Y-78.637 Z-0.002
X-250.425 Y-78.62 Z-0.032
X-250.347 Y-78.6 Z-0.066
X-250.263 Y-78.576 Z-0.108
X-250.179 Y-78.549 Z-0.155
X-250.082 Y-78.513 Z-0.217
X-249.984 Y-78.473 Z-0.288
X-249.882 Y-78.425 Z-0.37
X-249.778 Y-78.372 Z-0.462
X-249.673 Y-78.313 Z-0.565
X-249.578 Y-78.255 Z-0.665
X-249.447 Y-78.17 Z-0.812
X-249.293 Y-78.064 Z-0.995
X-249.138 Y-77.953 Z-1.188
X-248.972 Y-77.828 Z-1.404
X-248.858 Y-77.733 Z-1.569
X-248.745 Y-77.629 Z-1.749
X-248.632 Y-77.517 Z-1.943
X-248.519 Y-77.396 Z-2.153
X-248.405 Y-77.266 Z-2.378
X-248.292 Y-77.127 Z-2.618
X-248.106 Y-76.892 Z-3.026
X-247.904 Y-76.631 Z-3.478
X-247.759 Y-76.435 Z-3.817
X-247.588 Y-76.198 Z-4.228
X-247.365 Y-75.875 Z-4.788
X-247.178 Y-75.588 Z-5.284
X-246.969 Y-75.255 Z-5.86
X-246.925 Y-75.183 Z-5.986
X-245.173 Y-76.931 Z-2.957
X-244.943 Y-77.15 Z-2.579
X-244.818 Y-77.265 Z-2.379
X-244.641 Y-77.422 Z-2.108
X-244.487 Y-77.551 Z-1.885
X-244.442 Y-77.587 Z-1.821
X-244.269 Y-77.721 Z-1.59
X-244.166 Y-77.797 Z-1.459
X-244.045 Y-77.881 Z-1.312
X-243.921 Y-77.962 Z-1.172
X-243.812 Y-78.03 Z-1.054
X-243.63 Y-78.137 Z-0.87
X-243.427 Y-78.25 Z-0.674
X-243.354 Y-78.287 Z-0.609
X-243.282 Y-78.32 Z-0.552
X-243.157 Y-78.369 Z-0.468
X-242.978 Y-78.433 Z-0.356
X-242.852 Y-78.477 Z-0.281
X-242.723 Y-78.518 Z-0.209
X-242.587 Y-78.558 Z-0.14
X-242.453 Y-78.593 Z-0.08
X-242.328 Y-78.621 Z-0.031
X-242.243 Y-78.639 Z0
X-242.328 Y-78.621 Z-0.031
X-242.453 Y-78.593 Z-0.08
X-242.587 Y-78.558 Z-0.14
X-242.723 Y-78.518 Z-0.209
X-242.852 Y-78.477 Z-0.281
X-242.978 Y-78.433 Z-0.356
X-243.157 Y-78.369 Z-0.468
X-243.282 Y-78.32 Z-0.552
X-243.354 Y-78.287 Z-0.609
X-243.427 Y-78.25 Z-0.674
X-243.63 Y-78.137 Z-0.87
X-243.812 Y-78.03 Z-1.054
X-243.921 Y-77.962 Z-1.172
X-244.045 Y-77.881 Z-1.312
X-244.166 Y-77.797 Z-1.459
X-244.269 Y-77.721 Z-1.59
X-244.442 Y-77.587 Z-1.821
X-244.487 Y-77.551 Z-1.885
X-244.641 Y-77.422 Z-2.108
X-244.818 Y-77.265 Z-2.379
X-244.943 Y-77.15 Z-2.579
X-245.173 Y-76.931 Z-2.957
X-246.925 Y-75.183 Z-5.986
X-246.966 Y-75.018 Z-6.058
X-247.041 Y-74.746 Z-6.187
X-247.058 Y-74.687 Z-6.217
X-247.123 Y-74.476 Z-6.329
X-246.983 Y-74.274 Z-6.086
X-246.85 Y-74.072 Z-5.856
X-246.724 Y-73.87 Z-5.639
X-246.607 Y-73.668 Z-5.435
X-246.497 Y-73.467 Z-5.244
X-246.394 Y-73.265 Z-5.067
X-246.299 Y-73.063 Z-4.902
X-246.212 Y-72.861 Z-4.751
X-246.132 Y-72.66 Z-4.613
X-246.06 Y-72.458 Z-4.488
X-245.995 Y-72.256 Z-4.376
X-245.939 Y-72.054 Z-4.278
X-245.889 Y-71.853 Z-4.192
X-245.847 Y-71.651 Z-4.12
X-245.813 Y-71.449 Z-4.061
X-245.787 Y-71.247 Z-4.015
X-245.768 Y-71.046 Z-3.982
X-245.756 Y-70.844 Z-3.962
X-245.753 Y-70.642 Z-3.955
Y-57.107
X-245.221 Y-56.577 Z-3.038
X-244.941 Y-56.311 Z-2.576
X-244.768 Y-56.153 Z-2.303
X-244.6 Y-56.007 Z-2.05
X-244.451 Y-55.883 Z-1.836
X-244.342 Y-55.797 Z-1.687
X-244.237 Y-55.717 Z-1.548
X-244.115 Y-55.629 Z-1.396
X-244.014 Y-55.56 Z-1.276
X-243.873 Y-55.469 Z-1.119
X-243.737 Y-55.386 Z-0.975
X-243.573 Y-55.291 Z-0.811
X-243.397 Y-55.194 Z-0.643
X-243.299 Y-55.145 Z-0.558
X-243.202 Y-55.104 Z-0.487
X-242.976 Y-55.021 Z-0.342
X-242.843 Y-54.974 Z-0.262
X-242.709 Y-54.931 Z-0.187
X-242.573 Y-54.891 Z-0.118
X-242.442 Y-54.858 Z-0.06
X-242.315 Y-54.83 Z-0.012
X-242.28 Y-54.823 Z0
X-242.315 Y-54.83 Z-0.012
X-242.442 Y-54.858 Z-0.06
X-242.573 Y-54.891 Z-0.118
X-242.709 Y-54.931 Z-0.187
X-242.843 Y-54.974 Z-0.262
X-242.976 Y-55.021 Z-0.342
X-243.202 Y-55.104 Z-0.487
X-243.299 Y-55.145 Z-0.558
X-243.397 Y-55.194 Z-0.643
X-243.573 Y-55.291 Z-0.811
X-243.737 Y-55.386 Z-0.975
X-243.873 Y-55.469 Z-1.119
X-244.014 Y-55.56 Z-1.276
X-244.115 Y-55.629 Z-1.396
X-244.237 Y-55.717 Z-1.548
X-244.342 Y-55.797 Z-1.687
X-244.451 Y-55.883 Z-1.836
X-244.6 Y-56.007 Z-2.05
X-244.768 Y-56.153 Z-2.303
X-244.941 Y-56.311 Z-2.576
X-245.221 Y-56.577 Z-3.038
X-245.753 Y-57.107 Z-3.955
X-246.265 Y-56.596 Z-3.07
X-246.54 Y-56.335 Z-2.619
X-246.759 Y-56.137 Z-2.275
X-246.889 Y-56.024 Z-2.079
X-247.039 Y-55.899 Z-1.864
X-247.148 Y-55.813 Z-1.714
X-247.273 Y-55.719 Z-1.551
X-247.432 Y-55.606 Z-1.356
X-247.574 Y-55.512 Z-1.193
X-247.69 Y-55.44 Z-1.068
X-247.855 Y-55.343 Z-0.9
X-248.002 Y-55.26 Z-0.756
X-248.155 Y-55.178 Z-0.614
X-248.228 Y-55.144 Z-0.556
X-248.35 Y-55.096 Z-0.472
X-248.532 Y-55.028 Z-0.356
X-248.719 Y-54.964 Z-0.244
X-248.849 Y-54.923 Z-0.173
X-248.923 Y-54.901 Z-0.135
X-249.053 Y-54.867 Z-0.077
X-249.181 Y-54.838 Z-0.026
X-249.254 Y-54.823 Z0
G0 Z5
X-299.892 Y-59.687
G1 Z0 F849.6
X-299.869 Y-59.574 Z-0.04
X-299.851 Y-59.494 Z-0.072
X-299.819 Y-59.371 Z-0.126
X-299.782 Y-59.244 Z-0.191
X-299.738 Y-59.107 Z-0.267
X-299.693 Y-58.978 Z-0.344
X-299.626 Y-58.794 Z-0.461
X-299.577 Y-58.669 Z-0.546
X-299.544 Y-58.598 Z-0.603
X-299.506 Y-58.526 Z-0.668
X-299.474 Y-58.468 Z-0.724
X-299.352 Y-58.255 Z-0.936
X-299.269 Y-58.118 Z-1.08
X-299.198 Y-58.006 Z-1.203
X-299.114 Y-57.881 Z-1.348
X-299.044 Y-57.782 Z-1.469
X-298.93 Y-57.63 Z-1.666
X-298.814 Y-57.483 Z-1.868
X-298.701 Y-57.348 Z-2.063
X-298.58 Y-57.209 Z-2.273
X-298.427 Y-57.041 Z-2.537
X-298.274 Y-56.879 Z-2.803
X-298.059 Y-56.657 Z-3.175
X-298.239 Y-56.47 Z-2.864
X-298.416 Y-56.282 Z-2.556
X-298.564 Y-56.12 Z-2.3
X-298.714 Y-55.948 Z-2.041
X-298.835 Y-55.802 Z-1.832
X-298.951 Y-55.653 Z-1.629
X-299.023 Y-55.557 Z-1.506
X-299.126 Y-55.411 Z-1.327
X-299.218 Y-55.271 Z-1.167
X-299.288 Y-55.161 Z-1.047
X-299.363 Y-55.034 Z-0.917
X-299.434 Y-54.909 Z-0.794
X-299.517 Y-54.759 Z-0.65
X-299.568 Y-54.658 Z-0.562
X-299.61 Y-54.558 Z-0.488
X-299.677 Y-54.377 Z-0.372
X-299.741 Y-54.196 Z-0.261
X-299.785 Y-54.06 Z-0.185
X-299.822 Y-53.934 Z-0.121
X-299.854 Y-53.812 Z-0.067
X-299.872 Y-53.733 Z-0.035
X-299.892 Y-53.634 Z0
X-299.872 Y-53.733 Z-0.035
X-299.854 Y-53.812 Z-0.067
X-299.822 Y-53.934 Z-0.121
X-299.785 Y-54.06 Z-0.185
X-299.741 Y-54.196 Z-0.261
X-299.677 Y-54.377 Z-0.372
X-299.61 Y-54.558 Z-0.488
X-299.568 Y-54.658 Z-0.562
X-299.517 Y-54.759 Z-0.65
X-299.434 Y-54.909 Z-0.794
X-299.363 Y-55.034 Z-0.917
X-299.288 Y-55.161 Z-1.047
X-299.218 Y-55.271 Z-1.167
X-299.126 Y-55.411 Z-1.327
X-299.023 Y-55.557 Z-1.506
X-298.951 Y-55.653 Z-1.629
X-298.835 Y-55.802 Z-1.832
X-298.714 Y-55.948 Z-2.041
X-298.564 Y-56.12 Z-2.3
X-298.416 Y-56.282 Z-2.556
X-298.239 Y-56.47 Z-2.864
X-298.059 Y-56.657 Z-3.175
X-282.425 Y-56.656
X-282.239 Y-56.66 Z-3.182
X-282.053 Y-56.672 Z-3.202
X-281.867 Y-56.691 Z-3.236
X-281.682 Y-56.718 Z-3.283
X-281.496 Y-56.753 Z-3.343
X-281.31 Y-56.796 Z-3.417
X-281.124 Y-56.846 Z-3.504
X-280.938 Y-56.904 Z-3.605
X-280.752 Y-56.97 Z-3.719
X-280.567 Y-57.044 Z-3.846
X-280.381 Y-57.125 Z-3.987
X-280.195 Y-57.214 Z-4.141
X-280.009 Y-57.311 Z-4.309
X-279.823 Y-57.415 Z-4.49
X-279.637 Y-57.528 Z-4.684
X-278.638 Y-56.532 Z-2.959
X-278.412 Y-56.317 Z-2.588
X-278.194 Y-56.119 Z-2.244
X-278.064 Y-56.007 Z-2.05
X-277.915 Y-55.883 Z-1.836
X-277.806 Y-55.797 Z-1.687
X-277.682 Y-55.703 Z-1.524
X-277.524 Y-55.591 Z-1.33
X-277.383 Y-55.498 Z-1.169
X-277.268 Y-55.426 Z-1.044
X-277.103 Y-55.329 Z-0.876
X-276.923 Y-55.228 Z-0.701
X-276.876 Y-55.202 Z-0.656
X-276.803 Y-55.164 Z-0.59
X-276.731 Y-55.13 Z-0.532
X-276.608 Y-55.083 Z-0.45
X-276.427 Y-55.016 Z-0.334
X-276.241 Y-54.953 Z-0.224
X-276.106 Y-54.911 Z-0.151
X-275.97 Y-54.873 Z-0.087
X-275.842 Y-54.843 Z-0.035
X-275.745 Y-54.823 Z0
X-275.842 Y-54.843 Z-0.035
X-275.97 Y-54.873 Z-0.087
X-276.106 Y-54.911 Z-0.151
X-276.241 Y-54.953 Z-0.224
X-276.427 Y-55.016 Z-0.334
X-276.608 Y-55.083 Z-0.45
X-276.731 Y-55.13 Z-0.532
X-276.803 Y-55.164 Z-0.59
X-276.876 Y-55.202 Z-0.656
X-276.923 Y-55.228 Z-0.701
X-277.103 Y-55.329 Z-0.876
X-277.268 Y-55.426 Z-1.044
X-277.383 Y-55.498 Z-1.169
X-277.524 Y-55.591 Z-1.33
X-277.682 Y-55.703 Z-1.524
X-277.806 Y-55.797 Z-1.687
X-277.915 Y-55.883 Z-1.836
X-278.064 Y-56.007 Z-2.05
X-278.194 Y-56.119 Z-2.244
X-278.412 Y-56.317 Z-2.588
X-278.638 Y-56.532 Z-2.959
X-279.637 Y-57.528 Z-4.684
X-279.596 Y-57.722 Z-4.612
X-279.561 Y-57.916 Z-4.551
X-279.532 Y-58.11 Z-4.501
X-279.509 Y-58.304 Z-4.463
X-279.493 Y-58.498 Z-4.435
X-279.484 Y-58.693 Z-4.418
X-279.48 Y-58.887 Z-4.413
Y-64.885
X-279.484 Y-65.099 Z-4.419
X-279.496 Y-65.314 Z-4.44
X-279.516 Y-65.528 Z-4.473
X-279.543 Y-65.742 Z-4.521
X-279.578 Y-65.956 Z-4.581
X-279.621 Y-66.171 Z-4.656
X-279.671 Y-66.385 Z-4.743
X-279.73 Y-66.599 Z-4.845
X-279.796 Y-66.813 Z-4.959
X-279.87 Y-67.028 Z-5.088
X-280.049 Z-4.854
X-280.224 Z-4.632
X-280.396 Z-4.424
X-280.564 Z-4.228
X-280.729 Z-4.045
X-280.892 Z-3.876
X-281.052 Z-3.72
X-281.21 Z-3.578
X-281.366 Z-3.452
X-281.444 Z-3.394
X-281.521 Z-3.34
X-281.597 Z-3.291
X-281.673 Z-3.245
X-281.749 Z-3.203
X-281.825 Z-3.166
X-281.901 Z-3.133
X-281.976 Z-3.104
X-282.051 Z-3.079
X-282.126 Z-3.059
X-282.201 Z-3.043
X-282.276 Z-3.032
X-282.35 Z-3.026
X-291.698 Z-3.023
X-291.795 Z-3.027
X-292.013 Y-66.799 Z-2.648
X-292.161 Y-66.64 Z-2.392
X-292.278 Y-66.509 Z-2.19
X-292.398 Y-66.37 Z-1.982
X-292.517 Y-66.224 Z-1.775
X-292.631 Y-66.078 Z-1.578
X-292.713 Y-65.966 Z-1.435
X-292.803 Y-65.837 Z-1.28
X-292.89 Y-65.704 Z-1.129
X-292.981 Y-65.557 Z-0.973
X-293.084 Y-65.378 Z-0.793
X-293.173 Y-65.218 Z-0.639
X-293.21 Y-65.147 Z-0.575
X-293.243 Y-65.076 Z-0.518
X-293.289 Y-64.956 Z-0.438
X-293.35 Y-64.79 Z-0.333
X-293.398 Y-64.652 Z-0.25
X-293.439 Y-64.525 Z-0.179
X-293.475 Y-64.401 Z-0.116
X-293.497 Y-64.32 Z-0.078
X-293.527 Y-64.196 Z-0.027
X-293.542 Y-64.123 Z0
X-293.527 Y-64.196 Z-0.027
X-293.497 Y-64.32 Z-0.078
X-293.475 Y-64.401 Z-0.116
X-293.439 Y-64.525 Z-0.179
X-293.398 Y-64.652 Z-0.25
X-293.35 Y-64.79 Z-0.333
X-293.289 Y-64.956 Z-0.438
X-293.243 Y-65.076 Z-0.518
X-293.21 Y-65.147 Z-0.575
X-293.173 Y-65.218 Z-0.639
X-293.084 Y-65.378 Z-0.793
X-292.981 Y-65.557 Z-0.973
X-292.89 Y-65.704 Z-1.129
X-292.803 Y-65.837 Z-1.28
X-292.713 Y-65.966 Z-1.435
X-292.631 Y-66.078 Z-1.578
X-292.517 Y-66.224 Z-1.775
X-292.398 Y-66.37 Z-1.982
X-292.278 Y-66.509 Z-2.19
X-292.161 Y-66.64 Z-2.392
X-292.013 Y-66.799 Z-2.648
X-291.795 Y-67.028 Z-3.027
X-292.012 Y-67.255 Z-2.651
X-292.159 Y-67.414 Z-2.396
X-292.316 Y-67.591 Z-2.124
X-292.43 Y-67.726 Z-1.925
X-292.55 Y-67.874 Z-1.719
X-292.658 Y-68.016 Z-1.532
X-292.732 Y-68.12 Z-1.402
X-292.823 Y-68.253 Z-1.246
X-292.908 Y-68.386 Z-1.098
X-292.97 Y-68.487 Z-0.991
X-293.071 Y-68.662 Z-0.816
X-293.159 Y-68.818 Z-0.664
X-293.195 Y-68.888 Z-0.601
X-293.228 Y-68.959 Z-0.545
X-293.276 Y-69.082 Z-0.461
X-293.344 Y-69.266 Z-0.343
X-293.41 Y-69.459 Z-0.228
X-293.45 Y-69.587 Z-0.159
X-293.488 Y-69.722 Z-0.093
X-293.519 Y-69.847 Z-0.04
X-293.542 Y-69.952 Z0
X-293.519 Y-69.847 Z-0.04
X-293.488 Y-69.722 Z-0.093
X-293.45 Y-69.587 Z-0.159
X-293.41 Y-69.459 Z-0.228
X-293.344 Y-69.266 Z-0.343
X-293.276 Y-69.082 Z-0.461
X-293.228 Y-68.959 Z-0.545
X-293.195 Y-68.888 Z-0.601
X-293.159 Y-68.818 Z-0.664
X-293.071 Y-68.662 Z-0.816
X-292.97 Y-68.487 Z-0.991
X-292.908 Y-68.386 Z-1.098
X-292.823 Y-68.253 Z-1.246
X-292.732 Y-68.12 Z-1.402
X-292.658 Y-68.016 Z-1.532
X-292.55 Y-67.874 Z-1.719
X-292.43 Y-67.726 Z-1.925
X-292.316 Y-67.591 Z-2.124
X-292.159 Y-67.414 Z-2.396
X-292.012 Y-67.255 Z-2.651
X-291.795 Y-67.028 Z-3.027
X-291.698 Z-3.023
X-282.35 Z-3.026
X-282.276 Z-3.032
X-282.201 Z-3.043
X-282.126 Z-3.059
X-282.051 Z-3.079
X-281.976 Z-3.104
X-281.901 Z-3.133
X-281.825 Z-3.166
X-281.749 Z-3.203
X-281.673 Z-3.245
X-281.597 Z-3.291
X-281.521 Z-3.34
X-281.444 Z-3.394
X-281.366 Z-3.452
X-281.21 Z-3.578
X-281.052 Z-3.72
X-280.892 Z-3.876
X-280.729 Z-4.045
X-280.564 Z-4.228
X-280.396 Z-4.424
X-280.224 Z-4.632
X-280.049 Z-4.854
X-279.87 Z-5.088
X-279.796 Y-67.242 Z-4.959
X-279.73 Y-67.456 Z-4.845
X-279.671 Y-67.67 Z-4.743
X-279.621 Y-67.884 Z-4.656
X-279.578 Y-68.099 Z-4.581
X-279.543 Y-68.313 Z-4.521
X-279.516 Y-68.527 Z-4.473
X-279.496 Y-68.741 Z-4.44
X-279.484 Y-68.956 Z-4.419
X-279.48 Y-69.17 Z-4.413
Y-74.575
X-279.484 Y-74.769 Z-4.418
X-279.493 Y-74.964 Z-4.435
X-279.509 Y-75.158 Z-4.463
X-279.532 Y-75.352 Z-4.501
X-279.561 Y-75.546 Z-4.551
X-279.596 Y-75.74 Z-4.612
X-279.637 Y-75.934 Z-4.684
X-278.637 Y-76.931 Z-2.957
X-278.368 Y-77.187 Z-2.514
X-278.189 Y-77.348 Z-2.235
X-278.033 Y-77.483 Z-2.002
X-277.92 Y-77.576 Z-1.84
X-277.796 Y-77.674 Z-1.671
X-277.69 Y-77.754 Z-1.532
X-277.586 Y-77.828 Z-1.403
X-277.458 Y-77.915 Z-1.253
X-277.319 Y-78.004 Z-1.1
X-277.181 Y-78.087 Z-0.955
X-277.049 Y-78.163 Z-0.825
X-276.892 Y-78.25 Z-0.674
X-276.817 Y-78.288 Z-0.607
X-276.742 Y-78.323 Z-0.548
X-276.617 Y-78.37 Z-0.465
X-276.442 Y-78.433 Z-0.356
X-276.316 Y-78.477 Z-0.281
X-276.182 Y-78.52 Z-0.206
X-276.051 Y-78.558 Z-0.14
X-275.921 Y-78.592 Z-0.081
X-275.795 Y-78.62 Z-0.032
X-275.706 Y-78.639 Z0
X-275.795 Y-78.62 Z-0.032
X-275.921 Y-78.592 Z-0.081
X-276.051 Y-78.558 Z-0.14
X-276.182 Y-78.52 Z-0.206
X-276.316 Y-78.477 Z-0.281
X-276.442 Y-78.433 Z-0.356
X-276.617 Y-78.37 Z-0.465
X-276.742 Y-78.323 Z-0.548
X-276.817 Y-78.288 Z-0.607
X-276.892 Y-78.25 Z-0.674
X-277.049 Y-78.163 Z-0.825
X-277.181 Y-78.087 Z-0.955
X-277.319 Y-78.004 Z-1.1
X-277.458 Y-77.915 Z-1.253
X-277.586 Y-77.828 Z-1.403
X-277.69 Y-77.754 Z-1.532
X-277.796 Y-77.674 Z-1.671
X-277.92 Y-77.576 Z-1.84
X-278.033 Y-77.483 Z-2.002
X-278.189 Y-77.348 Z-2.235
X-278.368 Y-77.187 Z-2.514
X-278.637 Y-76.931 Z-2.957
X-279.637 Y-75.934 Z-4.684
X-279.823 Y-76.047 Z-4.49
X-280.009 Y-76.151 Z-4.309
X-280.195 Y-76.248 Z-4.141
X-280.381 Y-76.337 Z-3.987
X-280.567 Y-76.418 Z-3.846
X-280.752 Y-76.492 Z-3.719
X-280.938 Y-76.558 Z-3.605
X-281.124 Y-76.616 Z-3.504
X-281.31 Y-76.666 Z-3.417
X-281.496 Y-76.709 Z-3.343
X-281.682 Y-76.743 Z-3.283
X-281.867 Y-76.771 Z-3.236
X-282.053 Y-76.79 Z-3.202
X-282.239 Y-76.802 Z-3.182
X-282.425 Y-76.805 Z-3.175
X-297.367
X-297.378
X-297.608 Y-76.568 Z-2.777
X-297.791 Y-76.373 Z-2.46
X-297.943 Y-76.205 Z-2.197
X-298.057 Y-76.073 Z-1.999
X-298.171 Y-75.936 Z-1.802
X-298.253 Y-75.832 Z-1.66
X-298.366 Y-75.682 Z-1.464
X-298.436 Y-75.583 Z-1.343
X-298.523 Y-75.454 Z-1.192
X-298.594 Y-75.343 Z-1.069
X-298.673 Y-75.214 Z-0.932
X-298.747 Y-75.088 Z-0.805
X-298.832 Y-74.938 Z-0.658
X-298.872 Y-74.863 Z-0.588
X-298.907 Y-74.788 Z-0.527
X-298.958 Y-74.659 Z-0.439
X-299.043 Y-74.424 Z-0.291
X-299.086 Y-74.296 Z-0.216
X-299.126 Y-74.168 Z-0.148
X-299.152 Y-74.077 Z-0.102
X-299.185 Y-73.944 Z-0.045
X-299.211 Y-73.828 Z0
X-299.185 Y-73.944 Z-0.045
X-299.152 Y-74.077 Z-0.102
X-299.126 Y-74.168 Z-0.148
X-299.086 Y-74.296 Z-0.216
X-299.043 Y-74.424 Z-0.291
X-298.958 Y-74.659 Z-0.439
X-298.907 Y-74.788 Z-0.527
X-298.872 Y-74.863 Z-0.588
X-298.832 Y-74.938 Z-0.658
X-298.747 Y-75.088 Z-0.805
X-298.673 Y-75.214 Z-0.932
X-298.594 Y-75.343 Z-1.069
X-298.523 Y-75.454 Z-1.192
X-298.436 Y-75.583 Z-1.343
X-298.366 Y-75.682 Z-1.464
X-298.253 Y-75.832 Z-1.66
X-298.171 Y-75.936 Z-1.802
X-298.057 Y-76.073 Z-1.999
X-297.943 Y-76.205 Z-2.197
X-297.791 Y-76.373 Z-2.46
X-297.608 Y-76.568 Z-2.777
X-297.378 Y-76.805 Z-3.175
X-297.594 Y-77.028 Z-2.801
X-297.751 Y-77.194 Z-2.529
X-297.901 Y-77.359 Z-2.269
X-298.024 Y-77.499 Z-2.057
X-298.144 Y-77.643 Z-1.849
X-298.257 Y-77.785 Z-1.653
X-298.328 Y-77.879 Z-1.529
X-298.435 Y-78.027 Z-1.345
X-298.503 Y-78.129 Z-1.226
X-298.605 Y-78.288 Z-1.049
X-298.711 Y-78.464 Z-0.867
X-298.812 Y-78.643 Z-0.691
X-298.839 Y-78.69 Z-0.645
X-298.876 Y-78.761 Z-0.581
X-298.909 Y-78.831 Z-0.524
X-298.957 Y-78.955 Z-0.44
X-299.024 Y-79.138 Z-0.325
X-299.068 Y-79.266 Z-0.248
X-299.109 Y-79.393 Z-0.177
X-299.145 Y-79.517 Z-0.114
X-299.167 Y-79.599 Z-0.076
X-299.197 Y-79.722 Z-0.025
X-299.211 Y-79.789 Z0
G0 Z5
X-293.485 Y-112.634
G1 Z0 F849.6
X-293.465 Y-112.732 Z-0.035
X-293.436 Y-112.856 Z-0.086
X-293.411 Y-112.948 Z-0.128
X-293.374 Y-113.073 Z-0.192
X-293.333 Y-113.198 Z-0.263
X-293.27 Y-113.378 Z-0.373
X-293.224 Y-113.501 Z-0.452
X-293.179 Y-113.618 Z-0.53
X-293.145 Y-113.692 Z-0.589
X-293.106 Y-113.766 Z-0.656
X-293.028 Y-113.907 Z-0.792
X-292.956 Y-114.034 Z-0.917
X-292.843 Y-114.22 Z-1.111
X-292.782 Y-114.318 Z-1.219
X-292.714 Y-114.418 Z-1.335
X-292.604 Y-114.574 Z-1.526
X-292.543 Y-114.655 Z-1.632
X-292.431 Y-114.798 Z-1.826
X-292.301 Y-114.955 Z-2.051
X-292.19 Y-115.083 Z-2.243
X-292.034 Y-115.256 Z-2.514
X-291.869 Y-115.432 Z-2.8
X-291.651 Y-115.657 Z-3.176
X-291.822 Y-115.831 Z-2.881
X-292.034 Y-116.056 Z-2.513
X-292.194 Y-116.233 Z-2.236
X-292.329 Y-116.389 Z-2.003
X-292.419 Y-116.498 Z-1.846
X-292.526 Y-116.633 Z-1.661
X-292.598 Y-116.728 Z-1.537
X-292.698 Y-116.869 Z-1.363
X-292.791 Y-117.006 Z-1.203
X-292.882 Y-117.15 Z-1.045
X-292.949 Y-117.262 Z-0.929
X-293.073 Y-117.479 Z-0.714
X-293.099 Y-117.526 Z-0.669
X-293.136 Y-117.597 Z-0.604
X-293.17 Y-117.669 Z-0.547
X-293.218 Y-117.793 Z-0.462
X-293.302 Y-118.022 Z-0.318
X-293.331 Y-118.107 Z-0.268
X-293.373 Y-118.238 Z-0.194
X-293.414 Y-118.379 Z-0.123
X-293.448 Y-118.513 Z-0.064
X-293.475 Y-118.637 Z-0.017
X-293.485 Y-118.688 Z0
X-293.475 Y-118.637 Z-0.017
X-293.448 Y-118.513 Z-0.064
X-293.414 Y-118.379 Z-0.123
X-293.373 Y-118.238 Z-0.194
X-293.331 Y-118.107 Z-0.268
X-293.302 Y-118.022 Z-0.318
X-293.218 Y-117.793 Z-0.462
X-293.17 Y-117.669 Z-0.547
X-293.136 Y-117.597 Z-0.604
X-293.099 Y-117.526 Z-0.669
X-293.073 Y-117.479 Z-0.714
X-292.949 Y-117.262 Z-0.929
X-292.882 Y-117.15 Z-1.045
X-292.791 Y-117.006 Z-1.203
X-292.698 Y-116.869 Z-1.363
X-292.598 Y-116.728 Z-1.537
X-292.526 Y-116.633 Z-1.661
X-292.419 Y-116.498 Z-1.846
X-292.329 Y-116.389 Z-2.003
X-292.194 Y-116.233 Z-2.236
X-292.034 Y-116.056 Z-2.513
X-291.822 Y-115.831 Z-2.881
X-291.651 Y-115.657 Z-3.176
X-291.64
X-276.018
X-275.832 Y-115.66 Z-3.183
X-275.646 Y-115.672 Z-3.203
X-275.46 Y-115.691 Z-3.236
X-275.275 Y-115.718 Z-3.283
X-275.089 Y-115.753 Z-3.344
X-274.903 Y-115.796 Z-3.417
X-274.717 Y-115.846 Z-3.504
X-274.531 Y-115.904 Z-3.605
X-274.345 Y-115.97 Z-3.719
X-274.16 Y-116.044 Z-3.846
X-273.974 Y-116.125 Z-3.987
X-273.788 Y-116.214 Z-4.141
X-273.602 Y-116.311 Z-4.309
X-273.416 Y-116.415 Z-4.49
X-273.23 Y-116.527 Z-4.684
X-272.277 Y-115.576 Z-3.036
X-272 Y-115.312 Z-2.58
X-271.826 Y-115.154 Z-2.306
X-271.658 Y-115.007 Z-2.051
X-271.508 Y-114.883 Z-1.836
X-271.396 Y-114.794 Z-1.682
X-271.277 Y-114.704 Z-1.526
X-271.121 Y-114.594 Z-1.335
X-271.021 Y-114.526 Z-1.219
X-270.877 Y-114.436 Z-1.061
X-270.747 Y-114.358 Z-0.927
X-270.563 Y-114.254 Z-0.747
X-270.469 Y-114.202 Z-0.656
X-270.398 Y-114.165 Z-0.592
X-270.328 Y-114.132 Z-0.535
X-270.204 Y-114.083 Z-0.451
X-270.022 Y-114.017 Z-0.336
X-269.849 Y-113.957 Z-0.233
X-269.762 Y-113.929 Z-0.184
X-269.634 Y-113.892 Z-0.12
X-269.516 Y-113.862 Z-0.067
X-269.435 Y-113.843 Z-0.035
X-269.337 Y-113.823 Z0
X-269.435 Y-113.843 Z-0.035
X-269.516 Y-113.862 Z-0.067
X-269.634 Y-113.892 Z-0.12
X-269.762 Y-113.929 Z-0.184
X-269.849 Y-113.957 Z-0.233
X-270.022 Y-114.017 Z-0.336
X-270.204 Y-114.083 Z-0.451
X-270.328 Y-114.132 Z-0.535
X-270.398 Y-114.165 Z-0.592
X-270.469 Y-114.202 Z-0.656
X-270.563 Y-114.254 Z-0.747
X-270.747 Y-114.358 Z-0.927
X-270.877 Y-114.436 Z-1.061
X-271.021 Y-114.526 Z-1.219
X-271.121 Y-114.594 Z-1.335
X-271.277 Y-114.704 Z-1.526
X-271.396 Y-114.794 Z-1.682
X-271.508 Y-114.883 Z-1.836
X-271.658 Y-115.007 Z-2.051
X-271.826 Y-115.154 Z-2.306
X-272 Y-115.312 Z-2.58
X-272.277 Y-115.576 Z-3.036
X-273.23 Y-116.527 Z-4.684
X-273.189 Y-116.722 Z-4.612
X-273.154 Y-116.916 Z-4.551
X-273.125 Y-117.11 Z-4.501
X-273.102 Y-117.304 Z-4.463
X-273.086 Y-117.499 Z-4.435
X-273.077 Y-117.693 Z-4.418
X-273.073 Y-117.887 Z-4.413
Y-123.885
X-273.077 Y-124.099 Z-4.419
X-273.089 Y-124.313 Z-4.44
X-273.109 Y-124.528 Z-4.473
X-273.136 Y-124.742 Z-4.521
X-273.171 Y-124.956 Z-4.581
X-273.214 Y-125.171 Z-4.656
X-273.264 Y-125.385 Z-4.743
X-273.323 Y-125.599 Z-4.845
X-273.389 Y-125.813 Z-4.959
X-273.463 Y-126.027 Z-5.088
X-273.642 Z-4.854
X-273.817 Z-4.633
X-273.989 Z-4.424
X-274.157 Z-4.228
X-274.322 Z-4.045
X-274.485 Z-3.876
X-274.645 Z-3.72
X-274.803 Z-3.579
X-274.959 Z-3.452
X-275.037 Z-3.394
X-275.114 Z-3.341
X-275.19 Z-3.291
X-275.266 Z-3.245
X-275.342 Z-3.204
X-275.418 Z-3.166
X-275.494 Z-3.133
X-275.569 Z-3.104
X-275.644 Z-3.08
X-275.719 Z-3.059
X-275.794 Z-3.044
X-275.869 Z-3.033
X-275.943 Z-3.026
X-276.018 Z-3.024
X-285.335
X-285.388 Y-126.028 Z-3.027
X-285.602 Y-125.804 Z-2.655
X-285.764 Y-125.629 Z-2.375
X-285.914 Y-125.459 Z-2.114
X-286.022 Y-125.333 Z-1.928
X-286.139 Y-125.188 Z-1.726
X-286.244 Y-125.052 Z-1.544
X-286.329 Y-124.934 Z-1.396
X-286.43 Y-124.786 Z-1.222
X-286.521 Y-124.643 Z-1.064
X-286.578 Y-124.55 Z-0.965
X-286.678 Y-124.376 Z-0.791
X-286.759 Y-124.232 Z-0.652
X-286.799 Y-124.156 Z-0.582
X-286.834 Y-124.08 Z-0.521
X-286.884 Y-123.952 Z-0.435
X-286.95 Y-123.769 Z-0.32
X-287.011 Y-123.59 Z-0.215
X-287.054 Y-123.452 Z-0.141
X-287.089 Y-123.321 Z-0.079
X-287.12 Y-123.196 Z-0.027
X-287.135 Y-123.123 Z0
X-287.12 Y-123.196 Z-0.027
X-287.089 Y-123.321 Z-0.079
X-287.054 Y-123.452 Z-0.141
X-287.011 Y-123.59 Z-0.215
X-286.95 Y-123.769 Z-0.32
X-286.884 Y-123.952 Z-0.435
X-286.834 Y-124.08 Z-0.521
X-286.799 Y-124.156 Z-0.582
X-286.759 Y-124.232 Z-0.652
X-286.678 Y-124.376 Z-0.791
X-286.578 Y-124.55 Z-0.965
X-286.521 Y-124.643 Z-1.064
X-286.43 Y-124.786 Z-1.222
X-286.329 Y-124.934 Z-1.396
X-286.244 Y-125.052 Z-1.544
X-286.139 Y-125.188 Z-1.726
X-286.022 Y-125.333 Z-1.928
X-285.914 Y-125.459 Z-2.114
X-285.764 Y-125.629 Z-2.375
X-285.602 Y-125.804 Z-2.655
X-285.388 Y-126.028 Z-3.027
X-285.681 Y-126.337 Z-2.519
X-285.841 Y-126.512 Z-2.242
X-285.98 Y-126.674 Z-2.001
X-286.076 Y-126.79 Z-1.835
X-286.171 Y-126.911 Z-1.67
X-286.249 Y-127.013 Z-1.535
X-286.358 Y-127.168 Z-1.345
X-286.447 Y-127.301 Z-1.192
X-286.516 Y-127.41 Z-1.072
X-286.593 Y-127.538 Z-0.939
X-286.668 Y-127.668 Z-0.809
X-286.749 Y-127.814 Z-0.669
X-286.786 Y-127.885 Z-0.604
X-286.82 Y-127.957 Z-0.547
X-286.868 Y-128.081 Z-0.462
X-286.933 Y-128.257 Z-0.35
X-286.982 Y-128.394 Z-0.266
X-287.037 Y-128.566 Z-0.17
X-287.064 Y-128.659 Z-0.123
X-287.097 Y-128.786 Z-0.066
X-287.128 Y-128.916 Z-0.013
X-287.135 Y-128.953 Z0
X-287.128 Y-128.916 Z-0.013
X-287.097 Y-128.786 Z-0.066
X-287.064 Y-128.659 Z-0.123
X-287.037 Y-128.566 Z-0.17
X-286.982 Y-128.394 Z-0.266
X-286.933 Y-128.257 Z-0.35
X-286.868 Y-128.081 Z-0.462
X-286.82 Y-127.957 Z-0.547
X-286.786 Y-127.885 Z-0.604
X-286.749 Y-127.814 Z-0.669
X-286.668 Y-127.668 Z-0.809
X-286.593 Y-127.538 Z-0.939
X-286.516 Y-127.41 Z-1.072
X-286.447 Y-127.301 Z-1.192
X-286.358 Y-127.168 Z-1.345
X-286.249 Y-127.013 Z-1.535
X-286.171 Y-126.911 Z-1.67
X-286.076 Y-126.79 Z-1.835
X-285.98 Y-126.674 Z-2.001
X-285.841 Y-126.512 Z-2.242
X-285.681 Y-126.337 Z-2.519
X-285.388 Y-126.028 Z-3.027
X-285.335 Y-126.027 Z-3.024
X-276.018
X-275.943 Z-3.026
X-275.869 Z-3.033
X-275.794 Z-3.044
X-275.719 Z-3.059
X-275.644 Z-3.08
X-275.569 Z-3.104
X-275.494 Z-3.133
X-275.418 Z-3.166
X-275.342 Z-3.204
X-275.266 Z-3.245
X-275.19 Z-3.291
X-275.114 Z-3.341
X-275.037 Z-3.394
X-274.959 Z-3.452
X-274.803 Z-3.579
X-274.645 Z-3.72
X-274.485 Z-3.876
X-274.322 Z-4.045
X-274.157 Z-4.228
X-273.989 Z-4.424
X-273.817 Z-4.633
X-273.642 Z-4.854
X-273.463 Z-5.088
X-273.389 Y-126.242 Z-4.959
X-273.323 Y-126.456 Z-4.845
X-273.264 Y-126.67 Z-4.743
X-273.214 Y-126.884 Z-4.656
X-273.171 Y-127.099 Z-4.581
X-273.136 Y-127.313 Z-4.521
X-273.109 Y-127.527 Z-4.473
X-273.089 Y-127.742 Z-4.44
X-273.077 Y-127.956 Z-4.419
X-273.073 Y-128.17 Z-4.413
Y-133.575
X-273.077 Y-133.769 Z-4.418
X-273.086 Y-133.963 Z-4.435
X-273.102 Y-134.158 Z-4.463
X-273.125 Y-134.352 Z-4.501
X-273.154 Y-134.546 Z-4.551
X-273.189 Y-134.74 Z-4.612
X-273.23 Y-134.935 Z-4.684
X-272.232 Y-135.931 Z-2.959
X-272.004 Y-136.147 Z-2.584
X-271.827 Y-136.309 Z-2.304
X-271.709 Y-136.413 Z-2.125
X-271.584 Y-136.519 Z-1.941
X-271.43 Y-136.642 Z-1.726
X-271.328 Y-136.721 Z-1.591
X-271.185 Y-136.825 Z-1.41
X-271.048 Y-136.918 Z-1.25
X-270.914 Y-137.003 Z-1.102
X-270.802 Y-137.071 Z-0.984
X-270.584 Y-137.195 Z-0.77
X-270.418 Y-137.285 Z-0.614
X-270.338 Y-137.321 Z-0.55
X-270.209 Y-137.371 Z-0.465
X-270.028 Y-137.436 Z-0.352
X-269.841 Y-137.499 Z-0.243
X-269.716 Y-137.538 Z-0.176
X-269.591 Y-137.572 Z-0.116
X-269.508 Y-137.593 Z-0.079
X-269.385 Y-137.621 Z-0.031
X-269.297 Y-137.639 Z0
X-269.385 Y-137.621 Z-0.031
X-269.508 Y-137.593 Z-0.079
X-269.591 Y-137.572 Z-0.116
X-269.716 Y-137.538 Z-0.176
X-269.841 Y-137.499 Z-0.243
X-270.028 Y-137.436 Z-0.352
X-270.209 Y-137.371 Z-0.465
X-270.338 Y-137.321 Z-0.55
X-270.418 Y-137.285 Z-0.614
X-270.584 Y-137.195 Z-0.77
X-270.802 Y-137.071 Z-0.984
X-270.914 Y-137.003 Z-1.102
X-271.048 Y-136.918 Z-1.25
X-271.185 Y-136.825 Z-1.41
X-271.328 Y-136.721 Z-1.591
X-271.43 Y-136.642 Z-1.726
X-271.584 Y-136.519 Z-1.941
X-271.709 Y-136.413 Z-2.125
X-271.827 Y-136.309 Z-2.304
X-272.004 Y-136.147 Z-2.584
X-272.232 Y-135.931 Z-2.959
X-273.23 Y-134.935 Z-4.684
X-273.416 Y-135.047 Z-4.49
X-273.602 Y-135.151 Z-4.309
X-273.788 Y-135.248 Z-4.141
X-273.974 Y-135.337 Z-3.987
X-274.16 Y-135.418 Z-3.846
X-274.345 Y-135.492 Z-3.719
X-274.531 Y-135.558 Z-3.605
X-274.717 Y-135.616 Z-3.504
X-274.903 Y-135.666 Z-3.417
X-275.089 Y-135.709 Z-3.344
X-275.275 Y-135.744 Z-3.283
X-275.46 Y-135.771 Z-3.236
X-275.646 Y-135.79 Z-3.203
X-275.832 Y-135.802 Z-3.183
X-276.018 Y-135.805 Z-3.176
X-290.969
X-291.141 Y-135.629 Z-2.879
X-291.351 Y-135.408 Z-2.516
X-291.506 Y-135.238 Z-2.247
X-291.65 Y-135.072 Z-1.998
X-291.746 Y-134.957 Z-1.832
X-291.842 Y-134.835 Z-1.664
X-291.952 Y-134.69 Z-1.475
X-292.03 Y-134.581 Z-1.34
X-292.127 Y-134.435 Z-1.17
X-292.189 Y-134.339 Z-1.064
X-292.273 Y-134.2 Z-0.918
X-292.392 Y-133.994 Z-0.712
X-292.427 Y-133.932 Z-0.651
X-292.466 Y-133.859 Z-0.584
X-292.5 Y-133.786 Z-0.525
X-292.55 Y-133.66 Z-0.439
X-292.617 Y-133.477 Z-0.323
X-292.661 Y-133.348 Z-0.246
X-292.704 Y-133.217 Z-0.173
X-292.742 Y-133.085 Z-0.106
X-292.773 Y-132.962 Z-0.052
X-292.79 Y-132.889 Z-0.022
X-292.803 Y-132.827 Z0
X-292.79 Y-132.889 Z-0.022
X-292.773 Y-132.962 Z-0.052
X-292.742 Y-133.085 Z-0.106
X-292.704 Y-133.217 Z-0.173
X-292.661 Y-133.348 Z-0.246
X-292.617 Y-133.477 Z-0.323
X-292.55 Y-133.66 Z-0.439
X-292.5 Y-133.786 Z-0.525
X-292.466 Y-133.859 Z-0.584
X-292.427 Y-133.932 Z-0.651
X-292.392 Y-133.994 Z-0.712
X-292.273 Y-134.2 Z-0.918
X-292.189 Y-134.339 Z-1.064
X-292.127 Y-134.435 Z-1.17
X-292.03 Y-134.581 Z-1.34
X-291.952 Y-134.69 Z-1.475
X-291.842 Y-134.835 Z-1.664
X-291.746 Y-134.957 Z-1.832
X-291.65 Y-135.072 Z-1.998
X-291.506 Y-135.238 Z-2.247
X-291.351 Y-135.408 Z-2.516
X-291.141 Y-135.629 Z-2.879
X-290.969 Y-135.805 Z-3.176
X-291.141 Y-135.982 Z-2.879
X-291.354 Y-136.207 Z-2.509
X-291.506 Y-136.374 Z-2.246
X-291.65 Y-136.54 Z-1.996
X-291.759 Y-136.671 Z-1.809
X-291.892 Y-136.841 Z-1.579
X-291.997 Y-136.985 Z-1.396
X-292.052 Y-137.064 Z-1.301
X-292.147 Y-137.209 Z-1.136
X-292.229 Y-137.34 Z-0.994
X-292.311 Y-137.478 Z-0.852
X-292.427 Y-137.683 Z-0.651
X-292.467 Y-137.759 Z-0.581
X-292.503 Y-137.835 Z-0.52
X-292.551 Y-137.959 Z-0.437
X-292.595 Y-138.079 Z-0.361
X-292.661 Y-138.267 Z-0.246
X-292.701 Y-138.392 Z-0.176
X-292.738 Y-138.516 Z-0.113
X-292.76 Y-138.599 Z-0.075
X-292.791 Y-138.729 Z-0.022
X-292.803 Y-138.788 Z0
G0 Z5
X-265.799 Y-118.66
G1 Z0 F849.6
X-265.778 Y-118.563 Z-0.036
X-265.748 Y-118.44 Z-0.088
X-265.712 Y-118.308 Z-0.151
X-265.672 Y-118.178 Z-0.22
X-265.627 Y-118.044 Z-0.298
X-265.542 Y-117.807 Z-0.445
X-265.492 Y-117.677 Z-0.532
X-265.457 Y-117.601 Z-0.593
X-265.416 Y-117.524 Z-0.664
X-265.359 Y-117.423 Z-0.762
X-265.263 Y-117.256 Z-0.928
X-265.186 Y-117.127 Z-1.063
X-265.125 Y-117.031 Z-1.168
X-265.028 Y-116.885 Z-1.336
X-264.943 Y-116.766 Z-1.483
X-264.84 Y-116.629 Z-1.661
X-264.738 Y-116.501 Z-1.838
X-264.642 Y-116.385 Z-2.004
X-264.499 Y-116.221 Z-2.252
X-264.348 Y-116.054 Z-2.514
X-264.141 Y-115.836 Z-2.872
X-263.965 Y-115.657 Z-3.176
X-264.138 Y-115.479 Z-2.876
X-264.35 Y-115.255 Z-2.509
X-264.507 Y-115.083 Z-2.239
X-264.651 Y-114.916 Z-1.988
X-264.774 Y-114.766 Z-1.775
X-264.888 Y-114.621 Z-1.579
X-264.993 Y-114.477 Z-1.396
X-265.079 Y-114.351 Z-1.247
X-265.143 Y-114.253 Z-1.136
X-265.231 Y-114.112 Z-0.984
X-265.306 Y-113.985 Z-0.853
X-265.423 Y-113.779 Z-0.651
X-265.463 Y-113.703 Z-0.581
X-265.499 Y-113.627 Z-0.52
X-265.548 Y-113.498 Z-0.434
X-265.636 Y-113.257 Z-0.283
X-265.693 Y-113.084 Z-0.184
X-265.717 Y-113.004 Z-0.143
X-265.739 Y-112.925 Z-0.104
X-265.773 Y-112.792 Z-0.045
X-265.799 Y-112.672 Z0
X-265.773 Y-112.792 Z-0.045
X-265.739 Y-112.925 Z-0.104
X-265.717 Y-113.004 Z-0.143
X-265.693 Y-113.084 Z-0.184
X-265.636 Y-113.257 Z-0.283
X-265.548 Y-113.498 Z-0.434
X-265.499 Y-113.627 Z-0.52
X-265.463 Y-113.703 Z-0.581
X-265.423 Y-113.779 Z-0.651
X-265.306 Y-113.985 Z-0.853
X-265.231 Y-114.112 Z-0.984
X-265.143 Y-114.253 Z-1.136
X-265.079 Y-114.351 Z-1.247
X-264.993 Y-114.477 Z-1.396
X-264.888 Y-114.621 Z-1.579
X-264.774 Y-114.766 Z-1.775
X-264.651 Y-114.916 Z-1.988
X-264.507 Y-115.083 Z-2.239
X-264.35 Y-115.255 Z-2.509
X-264.138 Y-115.479 Z-2.876
X-263.965 Y-115.657 Z-3.176
X-250.178
X-249.992 Y-115.66 Z-3.183
X-249.806 Y-115.672 Z-3.203
X-249.62 Y-115.691 Z-3.236
X-249.435 Y-115.718 Z-3.283
X-249.249 Y-115.753 Z-3.344
X-249.063 Y-115.796 Z-3.417
X-248.877 Y-115.846 Z-3.504
X-248.691 Y-115.904 Z-3.605
X-248.505 Y-115.97 Z-3.719
X-248.32 Y-116.044 Z-3.846
X-248.134 Y-116.125 Z-3.987
X-247.948 Y-116.214 Z-4.141
X-247.762 Y-116.311 Z-4.309
X-247.576 Y-116.415 Z-4.49
X-247.39 Y-116.527 Z-4.684
X-246.392 Y-115.532 Z-2.961
X-246.169 Y-115.321 Z-2.594
X-245.986 Y-115.154 Z-2.306
X-245.818 Y-115.007 Z-2.051
X-245.668 Y-114.883 Z-1.836
X-245.556 Y-114.794 Z-1.682
X-245.437 Y-114.704 Z-1.526
X-245.281 Y-114.594 Z-1.335
X-245.181 Y-114.526 Z-1.219
X-245.067 Y-114.454 Z-1.093
X-244.954 Y-114.386 Z-0.975
X-244.78 Y-114.286 Z-0.801
X-244.629 Y-114.202 Z-0.656
X-244.558 Y-114.165 Z-0.592
X-244.488 Y-114.132 Z-0.535
X-244.363 Y-114.083 Z-0.45
X-244.182 Y-114.017 Z-0.336
X-244.003 Y-113.955 Z-0.229
X-243.922 Y-113.929 Z-0.184
X-243.799 Y-113.894 Z-0.122
X-243.724 Y-113.873 Z-0.087
X-243.595 Y-113.843 Z-0.035
X-243.498 Y-113.823 Z0
X-243.595 Y-113.843 Z-0.035
X-243.724 Y-113.873 Z-0.087
X-243.799 Y-113.894 Z-0.122
X-243.922 Y-113.929 Z-0.184
X-244.003 Y-113.955 Z-0.229
X-244.182 Y-114.017 Z-0.336
X-244.363 Y-114.083 Z-0.45
X-244.488 Y-114.132 Z-0.535
X-244.558 Y-114.165 Z-0.592
X-244.629 Y-114.202 Z-0.656
X-244.78 Y-114.286 Z-0.801
X-244.954 Y-114.386 Z-0.975
X-245.067 Y-114.454 Z-1.093
X-245.181 Y-114.526 Z-1.219
X-245.281 Y-114.594 Z-1.335
X-245.437 Y-114.704 Z-1.526
X-245.556 Y-114.794 Z-1.682
X-245.668 Y-114.883 Z-1.836
X-245.818 Y-115.007 Z-2.051
X-245.986 Y-115.154 Z-2.306
X-246.169 Y-115.321 Z-2.594
X-246.392 Y-115.532 Z-2.961
X-247.39 Y-116.527 Z-4.684
X-247.349 Y-116.722 Z-4.612
X-247.314 Y-116.916 Z-4.551
X-247.285 Y-117.11 Z-4.501
X-247.262 Y-117.304 Z-4.463
X-247.246 Y-117.499 Z-4.435
X-247.237 Y-117.693 Z-4.418
X-247.234 Y-117.887 Z-4.413
Y-135.092
X-248.054 Y-135.909 Z-2.997
X-248.212 Y-136.061 Z-2.734
X-248.434 Y-136.266 Z-2.378
X-248.602 Y-136.416 Z-2.119
X-248.727 Y-136.522 Z-1.935
X-248.873 Y-136.64 Z-1.731
X-249.003 Y-136.738 Z-1.56
X-249.11 Y-136.817 Z-1.425
X-249.222 Y-136.894 Z-1.291
X-249.368 Y-136.989 Z-1.127
X-249.493 Y-137.066 Z-0.993
X-249.666 Y-137.166 Z-0.819
X-249.822 Y-137.253 Z-0.669
X-249.893 Y-137.29 Z-0.604
X-249.965 Y-137.324 Z-0.547
X-250.089 Y-137.372 Z-0.462
X-250.273 Y-137.44 Z-0.346
X-250.401 Y-137.484 Z-0.269
X-250.528 Y-137.525 Z-0.198
X-250.653 Y-137.561 Z-0.135
X-250.737 Y-137.584 Z-0.096
X-250.866 Y-137.615 Z-0.042
X-250.983 Y-137.639 Z0
X-250.866 Y-137.615 Z-0.042
X-250.737 Y-137.584 Z-0.096
X-250.653 Y-137.561 Z-0.135
X-250.528 Y-137.525 Z-0.198
X-250.401 Y-137.484 Z-0.269
X-250.273 Y-137.44 Z-0.346
X-250.089 Y-137.372 Z-0.462
X-249.965 Y-137.324 Z-0.547
X-249.893 Y-137.29 Z-0.604
X-249.822 Y-137.253 Z-0.669
X-249.666 Y-137.166 Z-0.819
X-249.493 Y-137.066 Z-0.993
X-249.368 Y-136.989 Z-1.127
X-249.222 Y-136.894 Z-1.291
X-249.11 Y-136.817 Z-1.425
X-249.003 Y-136.738 Z-1.56
X-248.873 Y-136.64 Z-1.731
X-248.727 Y-136.522 Z-1.935
X-248.602 Y-136.416 Z-2.119
X-248.434 Y-136.266 Z-2.378
X-248.212 Y-136.061 Z-2.734
X-248.054 Y-135.909 Z-2.997
X-247.234 Y-135.092 Z-4.413
X-246.392 Y-135.931 Z-2.959
X-246.164 Y-136.147 Z-2.584
X-245.987 Y-136.309 Z-2.304
X-245.869 Y-136.413 Z-2.125
X-245.744 Y-136.519 Z-1.941
X-245.59 Y-136.642 Z-1.726
X-245.488 Y-136.721 Z-1.591
X-245.345 Y-136.825 Z-1.41
X-245.208 Y-136.918 Z-1.25
X-245.074 Y-137.003 Z-1.102
X-244.934 Y-137.087 Z-0.956
X-244.791 Y-137.169 Z-0.815
X-244.643 Y-137.251 Z-0.673
X-244.568 Y-137.289 Z-0.606
X-244.493 Y-137.323 Z-0.547
X-244.369 Y-137.371 Z-0.465
X-244.188 Y-137.436 Z-0.352
X-244.001 Y-137.499 Z-0.243
X-243.876 Y-137.538 Z-0.176
X-243.751 Y-137.572 Z-0.116
X-243.671 Y-137.593 Z-0.081
X-243.545 Y-137.621 Z-0.031
X-243.457 Y-137.639 Z0
G0 Z5
X-239.959 Y-118.66
G1 Z0 F849.6
X-239.938 Y-118.563 Z-0.036
X-239.908 Y-118.44 Z-0.088
X-239.872 Y-118.308 Z-0.151
X-239.832 Y-118.178 Z-0.22
X-239.787 Y-118.044 Z-0.298
X-239.702 Y-117.807 Z-0.445
X-239.653 Y-117.68 Z-0.529
X-239.619 Y-117.606 Z-0.588
X-239.581 Y-117.533 Z-0.655
X-239.555 Y-117.485 Z-0.7
X-239.43 Y-117.266 Z-0.917
X-239.369 Y-117.164 Z-1.023
X-239.285 Y-117.031 Z-1.168
X-239.188 Y-116.885 Z-1.336
X-239.103 Y-116.766 Z-1.483
X-239 Y-116.629 Z-1.661
X-238.898 Y-116.501 Z-1.838
X-238.802 Y-116.385 Z-2.004
X-238.664 Y-116.226 Z-2.243
X-238.508 Y-116.054 Z-2.514
X-238.301 Y-115.836 Z-2.872
X-238.125 Y-115.657 Z-3.176
X-238.297 Y-115.48 Z-2.879
X-238.51 Y-115.255 Z-2.509
X-238.667 Y-115.083 Z-2.239
X-238.806 Y-114.922 Z-1.996
X-238.902 Y-114.806 Z-1.83
X-238.999 Y-114.684 Z-1.663
X-239.082 Y-114.575 Z-1.519
X-239.153 Y-114.477 Z-1.396
X-239.239 Y-114.351 Z-1.247
X-239.303 Y-114.253 Z-1.136
X-239.391 Y-114.112 Z-0.984
X-239.494 Y-113.937 Z-0.805
X-239.583 Y-113.779 Z-0.651
X-239.623 Y-113.703 Z-0.581
X-239.659 Y-113.627 Z-0.52
X-239.708 Y-113.499 Z-0.435
X-239.788 Y-113.278 Z-0.296
X-239.816 Y-113.196 Z-0.247
X-239.861 Y-113.057 Z-0.169
X-239.911 Y-112.881 Z-0.083
X-239.931 Y-112.8 Z-0.048
X-239.959 Y-112.675 Z0
X-239.931 Y-112.8 Z-0.048
X-239.911 Y-112.881 Z-0.083
X-239.861 Y-113.057 Z-0.169
X-239.816 Y-113.196 Z-0.247
X-239.788 Y-113.278 Z-0.296
X-239.708 Y-113.499 Z-0.435
X-239.659 Y-113.627 Z-0.52
X-239.623 Y-113.703 Z-0.581
X-239.583 Y-113.779 Z-0.651
X-239.494 Y-113.937 Z-0.805
X-239.391 Y-114.112 Z-0.984
X-239.303 Y-114.253 Z-1.136
X-239.239 Y-114.351 Z-1.247
X-239.153 Y-114.477 Z-1.396
X-239.082 Y-114.575 Z-1.519
X-238.999 Y-114.684 Z-1.663
X-238.902 Y-114.806 Z-1.83
X-238.806 Y-114.922 Z-1.996
X-238.667 Y-115.083 Z-2.239
X-238.51 Y-115.255 Z-2.509
X-238.297 Y-115.48 Z-2.879
X-238.125 Y-115.657 Z-3.176
X-238.115
X-224.338
X-224.152 Y-115.66 Z-3.183
X-223.966 Y-115.672 Z-3.203
X-223.781 Y-115.691 Z-3.236
X-223.595 Y-115.718 Z-3.283
X-223.409 Y-115.753 Z-3.343
X-223.223 Y-115.796 Z-3.417
X-223.037 Y-115.846 Z-3.504
X-222.852 Y-115.904 Z-3.605
X-222.666 Y-115.97 Z-3.719
X-222.48 Y-116.043 Z-3.846
X-222.294 Y-116.125 Z-3.987
X-222.108 Y-116.214 Z-4.141
X-221.923 Y-116.31 Z-4.308
X-221.737 Y-116.415 Z-4.489
X-221.551 Y-116.527 Z-4.684
X-220.598 Y-115.576 Z-3.036
X-220.329 Y-115.321 Z-2.594
X-220.146 Y-115.154 Z-2.306
X-219.978 Y-115.007 Z-2.051
X-219.828 Y-114.883 Z-1.836
X-219.716 Y-114.794 Z-1.682
X-219.597 Y-114.704 Z-1.526
X-219.441 Y-114.594 Z-1.335
X-219.341 Y-114.526 Z-1.219
X-219.227 Y-114.454 Z-1.093
X-219.114 Y-114.386 Z-0.975
X-218.943 Y-114.287 Z-0.804
X-218.789 Y-114.202 Z-0.656
X-218.718 Y-114.165 Z-0.592
X-218.648 Y-114.132 Z-0.535
X-218.523 Y-114.083 Z-0.45
X-218.35 Y-114.019 Z-0.34
X-218.215 Y-113.972 Z-0.259
X-218.087 Y-113.931 Z-0.187
X-217.959 Y-113.894 Z-0.122
X-217.884 Y-113.873 Z-0.087
X-217.755 Y-113.843 Z-0.035
X-217.658 Y-113.823 Z0
X-217.755 Y-113.843 Z-0.035
X-217.884 Y-113.873 Z-0.087
X-217.959 Y-113.894 Z-0.122
X-218.087 Y-113.931 Z-0.187
X-218.215 Y-113.972 Z-0.259
X-218.35 Y-114.019 Z-0.34
X-218.523 Y-114.083 Z-0.45
X-218.648 Y-114.132 Z-0.535
X-218.718 Y-114.165 Z-0.592
X-218.789 Y-114.202 Z-0.656
X-218.943 Y-114.287 Z-0.804
X-219.114 Y-114.386 Z-0.975
X-219.227 Y-114.454 Z-1.093
X-219.341 Y-114.526 Z-1.219
X-219.441 Y-114.594 Z-1.335
X-219.597 Y-114.704 Z-1.526
X-219.716 Y-114.794 Z-1.682
X-219.828 Y-114.883 Z-1.836
X-219.978 Y-115.007 Z-2.051
X-220.146 Y-115.154 Z-2.306
X-220.329 Y-115.321 Z-2.594
X-220.598 Y-115.576 Z-3.036
X-221.551 Y-116.527 Z-4.684
X-221.509 Y-116.721 Z-4.612
X-221.474 Y-116.916 Z-4.551
X-221.445 Y-117.11 Z-4.501
X-221.423 Y-117.304 Z-4.462
X-221.407 Y-117.498 Z-4.434
X-221.397 Y-117.693 Z-4.417
X-221.394 Y-117.887 Z-4.412
Y-135.092
X-222.189 Y-135.885 Z-3.037
X-222.505 Y-136.185 Z-2.519
X-222.686 Y-136.349 Z-2.234
X-222.808 Y-136.455 Z-2.051
X-222.972 Y-136.591 Z-1.816
X-223.136 Y-136.718 Z-1.595
X-223.252 Y-136.804 Z-1.447
X-223.359 Y-136.878 Z-1.319
X-223.528 Y-136.989 Z-1.127
X-223.624 Y-137.048 Z-1.023
X-223.81 Y-137.157 Z-0.835
X-223.939 Y-137.229 Z-0.71
X-223.982 Y-137.253 Z-0.669
X-224.053 Y-137.29 Z-0.604
X-224.125 Y-137.324 Z-0.547
X-224.249 Y-137.372 Z-0.462
X-224.433 Y-137.44 Z-0.346
X-224.561 Y-137.484 Z-0.269
X-224.688 Y-137.525 Z-0.198
X-224.813 Y-137.561 Z-0.135
X-224.897 Y-137.584 Z-0.096
X-225.029 Y-137.615 Z-0.041
X-225.146 Y-137.639 Z0
X-225.029 Y-137.615 Z-0.041
X-224.897 Y-137.584 Z-0.096
X-224.813 Y-137.561 Z-0.135
X-224.688 Y-137.525 Z-0.198
X-224.561 Y-137.484 Z-0.269
X-224.433 Y-137.44 Z-0.346
X-224.249 Y-137.372 Z-0.462
X-224.125 Y-137.324 Z-0.547
X-224.053 Y-137.29 Z-0.604
X-223.982 Y-137.253 Z-0.669
X-223.939 Y-137.229 Z-0.71
X-223.81 Y-137.157 Z-0.835
X-223.624 Y-137.048 Z-1.023
X-223.528 Y-136.989 Z-1.127
X-223.359 Y-136.878 Z-1.319
X-223.252 Y-136.804 Z-1.447
X-223.136 Y-136.718 Z-1.595
X-222.972 Y-136.591 Z-1.816
X-222.808 Y-136.455 Z-2.051
X-222.686 Y-136.349 Z-2.234
X-222.505 Y-136.185 Z-2.519
X-222.189 Y-135.885 Z-3.037
X-221.394 Y-135.092 Z-4.412
X-220.599 Y-135.885 Z-3.037
X-220.324 Y-136.147 Z-2.584
X-220.147 Y-136.309 Z-2.304
X-220.029 Y-136.413 Z-2.125
X-219.904 Y-136.519 Z-1.941
X-219.75 Y-136.642 Z-1.726
X-219.648 Y-136.721 Z-1.591
X-219.505 Y-136.825 Z-1.41
X-219.368 Y-136.918 Z-1.25
X-219.234 Y-137.003 Z-1.102
X-219.094 Y-137.087 Z-0.956
X-218.958 Y-137.165 Z-0.821
X-218.803 Y-137.251 Z-0.673
X-218.728 Y-137.289 Z-0.606
X-218.653 Y-137.323 Z-0.547
X-218.529 Y-137.371 Z-0.465
X-218.348 Y-137.436 Z-0.352
X-218.167 Y-137.497 Z-0.247
X-218.036 Y-137.538 Z-0.176
X-217.911 Y-137.572 Z-0.116
X-217.831 Y-137.593 Z-0.081
X-217.709 Y-137.62 Z-0.032
X-217.617 Y-137.639 Z0
G0 Z5
X-238.003 Y-54.823
G1 Z0 F849.6
X-237.948 Y-54.832 Z-0.015
X-237.769 Y-54.864 Z-0.071
X-237.662 Y-54.886 Z-0.108
X-237.49 Y-54.925 Z-0.176
X-237.392 Y-54.949 Z-0.218
X-237.207 Y-54.999 Z-0.305
X-237.02 Y-55.055 Z-0.401
X-236.835 Y-55.113 Z-0.502
X-236.495 Y-55.225 Z-0.696
X-236.437 Y-55.246 Z-0.732
X-236.378 Y-55.269 Z-0.772
X-236.107 Y-55.382 Z-0.968
X-235.697 Y-55.555 Z-1.267
X-235.411 Y-55.678 Z-1.481
X-235.119 Y-55.808 Z-1.705
X-234.822 Y-55.943 Z-1.94
X-234.514 Y-56.089 Z-2.193
X-234.215 Y-56.235 Z-2.446
X-233.916 Y-56.384 Z-2.703
X-232.13 Y-57.299 Z-4.289
X-231.944 Y-57.051 Z-3.86
X-231.695 Y-56.729 Z-3.302
X-231.524 Y-56.512 Z-2.925
X-231.412 Y-56.375 Z-2.688
X-231.301 Y-56.246 Z-2.464
X-231.19 Y-56.124 Z-2.254
X-231.079 Y-56.01 Z-2.057
X-230.968 Y-55.904 Z-1.873
X-230.857 Y-55.806 Z-1.703
X-230.746 Y-55.715 Z-1.546
X-230.635 Y-55.633 Z-1.402
X-230.403 Y-55.47 Z-1.12
X-230.278 Y-55.385 Z-0.973
X-230.175 Y-55.318 Z-0.857
X-230.072 Y-55.253 Z-0.745
X-229.959 Y-55.187 Z-0.63
X-229.846 Y-55.125 Z-0.523
X-229.727 Y-55.065 Z-0.419
X-229.611 Y-55.013 Z-0.329
X-229.507 Y-54.971 Z-0.257
X-229.402 Y-54.934 Z-0.192
X-229.311 Y-54.905 Z-0.142
X-229.219 Y-54.879 Z-0.097
X-229.13 Y-54.856 Z-0.058
X-229.046 Y-54.837 Z-0.025
X-228.973 Y-54.823 Z0
X-229.046 Y-54.837 Z-0.025
X-229.13 Y-54.856 Z-0.058
X-229.219 Y-54.879 Z-0.097
X-229.311 Y-54.905 Z-0.142
X-229.402 Y-54.934 Z-0.192
X-229.507 Y-54.971 Z-0.257
X-229.611 Y-55.013 Z-0.329
X-229.727 Y-55.065 Z-0.419
X-229.846 Y-55.125 Z-0.523
X-229.959 Y-55.187 Z-0.63
X-230.072 Y-55.253 Z-0.745
X-230.175 Y-55.318 Z-0.857
X-230.278 Y-55.385 Z-0.973
X-230.403 Y-55.47 Z-1.12
X-230.635 Y-55.633 Z-1.402
X-230.746 Y-55.715 Z-1.546
X-230.857 Y-55.806 Z-1.703
X-230.968 Y-55.904 Z-1.873
X-231.079 Y-56.01 Z-2.057
X-231.19 Y-56.124 Z-2.254
X-231.301 Y-56.246 Z-2.464
X-231.412 Y-56.375 Z-2.688
X-231.524 Y-56.512 Z-2.925
X-231.695 Y-56.729 Z-3.302
X-231.944 Y-57.051 Z-3.86
X-232.13 Y-57.299 Z-4.289
X-232.039 Y-57.477 Z-4.237
X-231.965 Y-57.617 Z-4.2
X-231.888 Y-57.757 Z-4.167
X-231.809 Y-57.895 Z-4.138
X-231.728 Y-58.031 Z-4.115
X-231.621 Y-58.204 Z-4.09
X-231.522 Y-58.359 Z-4.073
X-231.415 Y-58.521 Z-4.061
X-231.29 Y-58.703 Z-4.053
X-231.142 Y-58.912 Z-4.05
X-231.016 Y-59.087
X-228.068 Y-63.249 Z-3.994
X-227.959 Y-63.413 Z-4
X-227.855 Y-63.58 Z-4.019
X-227.757 Y-63.751 Z-4.05
X-227.665 Y-63.926 Z-4.093
X-227.579 Y-64.106 Z-4.149
X-227.498 Y-64.29 Z-4.217
X-227.424 Y-64.477 Z-4.297
X-227.355 Y-64.669 Z-4.39
X-227.293 Y-64.865 Z-4.495
X-227.236 Y-65.065 Z-4.613
X-227.185 Y-65.269 Z-4.743
X-227.139 Y-65.477 Z-4.885
X-227.1 Y-65.689 Z-5.039
X-227.147 Y-65.725 Z-4.978
X-227.288 Y-65.829 Z-4.801
X-227.437 Y-65.935 Z-4.622
X-227.585 Y-66.035 Z-4.455
X-227.741 Y-66.135 Z-4.29
X-227.9 Y-66.233 Z-4.132
X-228.06 Y-66.326 Z-3.987
X-228.22 Y-66.415 Z-3.854
X-228.388 Y-66.502 Z-3.729
X-228.553 Y-66.583 Z-3.62
X-228.722 Y-66.661 Z-3.523
X-228.897 Y-66.735 Z-3.44
X-229.069 Y-66.803 Z-3.375
X-229.24 Y-66.866 Z-3.326
X-229.403 Y-66.92 Z-3.294
X-229.563 Y-66.969 Z-3.276
X-229.715 Y-67.011 Z-3.272
X-229.865 Y-67.049 Z-3.277
X-230.145 Y-67.122 Z-3.292
X-230.531 Y-67.227 Z-3.316
X-230.691 Y-67.274 Z-3.33
X-230.795 Y-67.309 Z-3.344
X-230.898 Y-67.346 Z-3.362
X-230.998 Y-67.385 Z-3.383
X-231.158 Y-67.455 Z-3.426
X-231.414 Y-67.575 Z-3.499
X-231.567 Y-67.65 Z-3.541
X-231.734 Y-67.736 Z-3.588
X-231.843 Y-67.795 Z-3.619
X-232.02 Y-67.898 Z-3.669
X-232.103 Y-67.949 Z-3.694
X-232.221 Y-68.024 Z-3.728
X-232.388 Y-68.142 Z-3.775
X-232.519 Y-68.241 Z-3.814
X-232.61 Y-68.314 Z-3.842
X-232.742 Y-68.426 Z-3.885
X-232.883 Y-68.553 Z-3.933
X-233.028 Y-68.695 Z-3.991
X-233.184 Y-68.856 Z-4.059
X-233.317 Y-69.002 Z-4.126
X-233.462 Y-69.173 Z-4.211
X-233.514 Y-69.237 Z-4.243
X-233.519 Y-69.245 Z-4.244
X-233.641 Y-69.459 Z-4.288
X-233.734 Y-69.634 Z-4.328
X-233.828 Y-69.827 Z-4.375
X-233.895 Y-69.98 Z-4.411
X-233.948 Y-70.111 Z-4.44
X-233.959 Y-70.141 Z-4.447
X-234.007 Y-70.28 Z-4.471
X-234.025 Y-70.345 Z-4.479
X-234.051 Y-70.447 Z-4.488
X-234.062 Y-70.494 Z-4.49
X-234.081 Y-70.593 Z-4.495
X-234.107 Y-70.75 Z-4.498
X-234.137 Y-70.966 Z-4.5
X-234.167 Y-71.267 Z-4.498
X-234.183 Y-71.459 Z-4.496
X-234.196 Y-71.645 Z-4.495
X-234.203 Y-71.875 Z-4.504
X-234.192 Y-72.06 Z-4.5
X-234.174 Y-72.331 Z-4.497
X-234.152 Y-72.594 Z-4.496
X-234.133 Y-72.764 Z-4.497
X-234.109 Y-72.955 Z-4.5
X-234.078 Y-73.148 Z-4.505
X-234.035 Y-73.37 Z-4.511
X-234.013 Y-73.469 Z-4.513
X-233.985 Y-73.579 Z-4.515
X-233.944 Y-73.721 Z-4.513
X-233.912 Y-73.815 Z-4.509
X-233.894 Y-73.862 Z-4.506
X-233.868 Y-73.926 Z-4.498
X-233.835 Y-73.996 Z-4.488
X-233.789 Y-74.085 Z-4.47
X-233.721 Y-74.205 Z-4.44
X-233.657 Y-74.31 Z-4.413
X-233.545 Y-74.478 Z-4.367
X-233.458 Y-74.598 Z-4.334
X-233.325 Y-74.77 Z-4.289
X-233.16 Y-74.968 Z-4.242
X-233.01 Y-75.138 Z-4.207
X-232.882 Y-75.275 Z-4.183
X-232.785 Y-75.355 Z-4.144
X-232.622 Y-75.483 Z-4.082
X-232.499 Y-75.576 Z-4.039
X-232.355 Y-75.68 Z-3.987
X-232.228 Y-75.765 Z-3.94
X-232.101 Y-75.847 Z-3.888
X-231.963 Y-75.928 Z-3.831
X-231.882 Y-75.973 Z-3.8
X-231.794 Y-76.018 Z-3.768
X-231.706 Y-76.06 Z-3.738
X-231.608 Y-76.104 Z-3.708
X-231.503 Y-76.148 Z-3.679
X-231.397 Y-76.189 Z-3.654
X-231.281 Y-76.231 Z-3.631
X-231.149 Y-76.274 Z-3.611
X-230.713 Y-76.389 Z-3.515
X-230.394 Y-76.468 Z-3.45
X-230.135 Y-76.528 Z-3.401
X-229.955 Y-76.567 Z-3.37
X-229.772 Y-76.603 Z-3.341
X-229.56 Y-76.642 Z-3.31
X-229.344 Y-76.676 Z-3.282
X-229.076 Y-76.711 Z-3.253
X-228.897 Y-76.731 Z-3.236
X-228.717 Y-76.748 Z-3.221
X-228.535 Y-76.762 Z-3.209
X-228.346 Y-76.775 Z-3.198
X-228.017 Y-76.79 Z-3.185
X-227.785 Y-76.797 Z-3.179
X-227.469 Y-76.803 Z-3.175
X-227 Y-76.805
X-226.809
X-217.979
X-217.793 Y-76.802 Z-3.182
X-217.607 Y-76.79 Z-3.202
X-217.422 Y-76.771 Z-3.236
X-217.236 Y-76.743 Z-3.283
X-217.05 Y-76.709 Z-3.343
X-216.864 Y-76.666 Z-3.417
X-216.678 Y-76.616 Z-3.504
X-216.493 Y-76.558 Z-3.604
X-216.307 Y-76.492 Z-3.718
X-216.121 Y-76.418 Z-3.846
X-215.935 Y-76.337 Z-3.986
X-215.749 Y-76.248 Z-4.141
X-215.564 Y-76.151 Z-4.308
X-215.378 Y-76.047 Z-4.489
X-215.192 Y-75.935 Z-4.684
X-214.238 Y-76.887 Z-3.035
X-213.922 Y-77.187 Z-2.514
X-213.752 Y-77.341 Z-2.248
X-213.587 Y-77.483 Z-2.002
X-213.474 Y-77.576 Z-1.84
X-213.35 Y-77.674 Z-1.671
X-213.244 Y-77.754 Z-1.532
X-213.14 Y-77.828 Z-1.403
X-213.012 Y-77.915 Z-1.253
X-212.874 Y-78.004 Z-1.1
X-212.735 Y-78.087 Z-0.955
X-212.602 Y-78.163 Z-0.824
X-212.446 Y-78.25 Z-0.674
X-212.373 Y-78.287 Z-0.609
X-212.301 Y-78.32 Z-0.552
X-212.177 Y-78.368 Z-0.468
X-211.989 Y-78.436 Z-0.352
X-211.809 Y-78.496 Z-0.246
X-211.684 Y-78.535 Z-0.179
X-211.605 Y-78.558 Z-0.14
X-211.475 Y-78.592 Z-0.081
X-211.347 Y-78.621 Z-0.031
X-211.26 Y-78.639 Z0
X-211.347 Y-78.621 Z-0.031
X-211.475 Y-78.592 Z-0.081
X-211.605 Y-78.558 Z-0.14
X-211.684 Y-78.535 Z-0.179
X-211.809 Y-78.496 Z-0.246
X-211.989 Y-78.436 Z-0.352
X-212.177 Y-78.368 Z-0.468
X-212.301 Y-78.32 Z-0.552
X-212.373 Y-78.287 Z-0.609
X-212.446 Y-78.25 Z-0.674
X-212.602 Y-78.163 Z-0.824
X-212.735 Y-78.087 Z-0.955
X-212.874 Y-78.004 Z-1.1
X-213.012 Y-77.915 Z-1.253
X-213.14 Y-77.828 Z-1.403
X-213.244 Y-77.754 Z-1.532
X-213.35 Y-77.674 Z-1.671
X-213.474 Y-77.576 Z-1.84
X-213.587 Y-77.483 Z-2.002
X-213.752 Y-77.341 Z-2.248
X-213.922 Y-77.187 Z-2.514
X-214.238 Y-76.887 Z-3.035
X-215.192 Y-75.935 Z-4.684
X-215.15 Y-75.74 Z-4.611
X-215.115 Y-75.546 Z-4.55
X-215.086 Y-75.352 Z-4.501
X-215.064 Y-75.158 Z-4.462
X-215.048 Y-74.964 Z-4.434
X-215.038 Y-74.769 Z-4.417
X-215.035 Y-74.575 Z-4.412
Y-68.994
X-215.038 Y-68.791 Z-4.418
X-215.049 Y-68.589 Z-4.436
X-215.066 Y-68.386 Z-4.466
X-215.091 Y-68.183 Z-4.508
X-215.122 Y-67.98 Z-4.563
X-215.161 Y-67.778 Z-4.629
X-215.206 Y-67.575 Z-4.708
X-215.258 Y-67.372 Z-4.799
X-215.318 Y-67.169 Z-4.901
X-215.384 Y-66.967 Z-5.016
X-215.457 Y-66.764 Z-5.143
X-215.633 Z-4.919
X-215.806 Z-4.706
X-215.974 Z-4.506
X-216.14 Z-4.319
X-216.303 Z-4.144
X-216.464 Z-3.983
X-216.622 Z-3.834
X-216.778 Z-3.7
X-216.932 Z-3.58
X-217.008 Z-3.525
X-217.085 Z-3.475
X-217.16 Z-3.427
X-217.236 Z-3.384
X-217.311 Z-3.345
X-217.386 Z-3.31
X-217.46 Z-3.278
X-217.535 Z-3.251
X-217.609 Z-3.228
X-217.683 Z-3.209
X-217.757 Z-3.194
X-217.831 Z-3.184
X-217.905 Z-3.178
X-217.979 Z-3.175
X-223.874
X-224.053 Y-66.76 Z-3.182
X-224.232 Y-66.75 Z-3.2
X-224.411 Y-66.732 Z-3.231
X-224.589 Y-66.707 Z-3.275
X-224.768 Y-66.674 Z-3.331
X-224.947 Y-66.635 Z-3.399
X-225.126 Y-66.588 Z-3.48
X-225.305 Y-66.534 Z-3.573
X-225.484 Y-66.473 Z-3.678
X-225.662 Y-66.405 Z-3.796
X-225.841 Y-66.33 Z-3.927
X-226.02 Y-66.248 Z-4.07
X-226.199 Y-66.158 Z-4.225
X-227.1 Y-65.689 Z-5.039
X-226.199 Y-66.158 Z-4.225
X-226.02 Y-66.248 Z-4.07
X-225.841 Y-66.33 Z-3.927
X-225.662 Y-66.405 Z-3.796
X-225.484 Y-66.473 Z-3.678
X-225.305 Y-66.534 Z-3.573
X-225.126 Y-66.588 Z-3.48
X-224.947 Y-66.635 Z-3.399
X-224.768 Y-66.674 Z-3.331
X-224.589 Y-66.707 Z-3.275
X-224.411 Y-66.732 Z-3.231
X-224.232 Y-66.75 Z-3.2
X-224.053 Y-66.76 Z-3.182
X-223.874 Y-66.764 Z-3.175
X-217.979
X-217.905 Z-3.178
X-217.831 Z-3.184
X-217.757 Z-3.194
X-217.683 Z-3.209
X-217.609 Z-3.228
X-217.535 Z-3.251
X-217.46 Z-3.278
X-217.386 Z-3.31
X-217.311 Z-3.345
X-217.236 Z-3.384
X-217.16 Z-3.427
X-217.085 Z-3.475
X-217.008 Z-3.525
X-216.932 Z-3.58
X-216.778 Z-3.7
X-216.622 Z-3.834
X-216.464 Z-3.983
X-216.303 Z-4.144
X-216.14 Z-4.319
X-215.974 Z-4.506
X-215.806 Z-4.706
X-215.633 Z-4.919
X-215.457 Z-5.143
X-215.384 Y-66.561 Z-5.016
X-215.318 Y-66.358 Z-4.901
X-215.258 Y-66.156 Z-4.799
X-215.206 Y-65.953 Z-4.708
X-215.161 Y-65.75 Z-4.629
X-215.122 Y-65.547 Z-4.563
X-215.091 Y-65.345 Z-4.508
X-215.066 Y-65.142 Z-4.466
X-215.049 Y-64.939 Z-4.436
X-215.038 Y-64.736 Z-4.418
X-215.035 Y-64.534 Z-4.412
Y-57.37
X-214.24 Y-56.577 Z-3.038
X-213.966 Y-56.317 Z-2.588
X-213.748 Y-56.119 Z-2.244
X-213.618 Y-56.007 Z-2.05
X-213.469 Y-55.883 Z-1.836
X-213.344 Y-55.784 Z-1.664
X-213.21 Y-55.683 Z-1.49
X-213.078 Y-55.591 Z-1.33
X-212.937 Y-55.498 Z-1.169
X-212.822 Y-55.426 Z-1.044
X-212.639 Y-55.318 Z-0.857
X-212.512 Y-55.247 Z-0.735
X-212.36 Y-55.165 Z-0.593
X-212.29 Y-55.133 Z-0.536
X-212.169 Y-55.085 Z-0.453
X-211.988 Y-55.018 Z-0.338
X-211.856 Y-54.972 Z-0.258
X-211.732 Y-54.932 Z-0.189
X-211.608 Y-54.896 Z-0.126
X-211.528 Y-54.874 Z-0.089
X-211.406 Y-54.845 Z-0.039
X-211.334 Y-54.83 Z-0.012
X-211.299 Y-54.823 Z0
X-211.334 Y-54.83 Z-0.012
X-211.406 Y-54.845 Z-0.039
X-211.528 Y-54.874 Z-0.089
X-211.608 Y-54.896 Z-0.126
X-211.732 Y-54.932 Z-0.189
X-211.856 Y-54.972 Z-0.258
X-211.988 Y-55.018 Z-0.338
X-212.169 Y-55.085 Z-0.453
X-212.29 Y-55.133 Z-0.536
X-212.36 Y-55.165 Z-0.593
X-212.512 Y-55.247 Z-0.735
X-212.639 Y-55.318 Z-0.857
X-212.822 Y-55.426 Z-1.044
X-212.937 Y-55.498 Z-1.169
X-213.078 Y-55.591 Z-1.33
X-213.21 Y-55.683 Z-1.49
X-213.344 Y-55.784 Z-1.664
X-213.469 Y-55.883 Z-1.836
X-213.618 Y-56.007 Z-2.05
X-213.748 Y-56.119 Z-2.244
X-213.966 Y-56.317 Z-2.588
X-214.24 Y-56.577 Z-3.038
X-215.035 Y-57.37 Z-4.412
X-215.814 Y-56.594 Z-3.067
X-216.132 Y-56.291 Z-2.543
X-216.303 Y-56.137 Z-2.275
X-216.469 Y-55.994 Z-2.028
X-216.596 Y-55.889 Z-1.846
X-216.769 Y-55.754 Z-1.613
X-216.873 Y-55.678 Z-1.48
X-216.973 Y-55.608 Z-1.36
X-217.092 Y-55.529 Z-1.223
X-217.21 Y-55.454 Z-1.093
X-217.345 Y-55.373 Z-0.953
X-217.514 Y-55.277 Z-0.786
X-217.616 Y-55.22 Z-0.688
X-217.687 Y-55.183 Z-0.623
X-217.759 Y-55.15 Z-0.566
X-217.884 Y-55.101 Z-0.481
X-218.064 Y-55.034 Z-0.366
X-218.191 Y-54.99 Z-0.289
X-218.326 Y-54.946 Z-0.213
X-218.459 Y-54.907 Z-0.145
X-218.59 Y-54.872 Z-0.085
X-218.718 Y-54.842 Z-0.033
X-218.811 Y-54.823 Z0
G0 Z5
X-174.085 Y-58.61
G1 Z0 F849.6
X-174.032 Y-58.669 Z-0.02
X-173.949 Y-58.756 Z-0.056
X-173.896 Y-58.809 Z-0.081
X-173.811 Y-58.889 Z-0.126
X-173.743 Y-58.951 Z-0.165
X-173.649 Y-59.03 Z-0.224
X-173.541 Y-59.115 Z-0.298
X-173.422 Y-59.204 Z-0.384
X-173.233 Y-59.338 Z-0.528
X-173.151 Y-59.391 Z-0.594
X-173.065 Y-59.44 Z-0.671
X-172.973 Y-59.486 Z-0.759
X-172.875 Y-59.528 Z-0.859
X-172.772 Y-59.567 Z-0.97
X-172.395 Y-59.697 Z-1.388
X-172.119 Y-59.79 Z-1.696
X-171.822 Y-59.886 Z-2.032
X-171.506 Y-59.982 Z-2.395
X-171.161 Y-60.08 Z-2.797
X-170.807 Y-60.175 Z-3.216
X-170.491 Y-60.255 Z-3.594
X-170.557 Y-60.704 Z-3.067
X-170.611 Y-61.09 Z-2.618
X-170.632 Y-61.262 Z-2.422
X-170.651 Y-61.503 Z-2.163
X-170.668 Y-61.789 Z-1.865
X-170.677 Y-62.017 Z-1.632
X-170.679 Y-62.22 Z-1.433
X-170.678 Y-62.405 Z-1.257
X-170.671 Y-62.57 Z-1.108
X-170.662 Y-62.7 Z-0.996
X-170.646 Y-62.867 Z-0.859
X-170.633 Y-62.968 Z-0.78
X-170.613 Y-63.098 Z-0.683
X-170.586 Y-63.249 Z-0.577
X-170.566 Y-63.351 Z-0.509
X-170.507 Y-63.613 Z-0.341
X-170.493 Y-63.673 Z-0.304
X-170.459 Y-63.79 Z-0.239
X-170.4 Y-63.974 Z-0.148
X-170.356 Y-64.1 Z-0.09
X-170.302 Y-64.125 Z0
X-170.356 Y-64.1 Z-0.09
X-170.37 Y-64.172 Z0
X-170.356 Y-64.1 Z-0.09
X-170.4 Y-63.974 Z-0.148
X-170.459 Y-63.79 Z-0.239
X-170.493 Y-63.673 Z-0.304
X-170.507 Y-63.613 Z-0.341
X-170.566 Y-63.351 Z-0.509
X-170.586 Y-63.249 Z-0.577
X-170.613 Y-63.098 Z-0.683
X-170.633 Y-62.968 Z-0.78
X-170.646 Y-62.867 Z-0.859
X-170.662 Y-62.7 Z-0.996
X-170.671 Y-62.57 Z-1.108
X-170.678 Y-62.405 Z-1.257
X-170.679 Y-62.22 Z-1.433
X-170.677 Y-62.017 Z-1.632
X-170.668 Y-61.789 Z-1.865
X-170.651 Y-61.503 Z-2.163
X-170.632 Y-61.262 Z-2.422
X-170.611 Y-61.09 Z-2.618
X-170.557 Y-60.704 Z-3.067
X-170.491 Y-60.255 Z-3.594
X-170.452 Y-60.229 Z-3.587
X-170.257 Y-60.099 Z-3.555
X-170.059 Y-59.968 Z-3.531
X-169.824 Y-59.815 Z-3.513
X-169.68 Y-59.723 Z-3.507
X-169.495 Y-59.61 Z-3.498
X-169.176 Y-59.423 Z-3.487
X-168.906 Y-59.268 Z-3.483
X-168.583 Y-59.087 Z-3.48
X-168.163 Y-58.868 Z-3.496
X-167.826 Y-58.697 Z-3.509
X-167.431 Y-58.5 Z-3.522
X-167.127 Y-58.352 Z-3.53
X-166.8 Y-58.198 Z-3.538
X-166.476 Y-58.051 Z-3.544
X-166.444 Y-58.037
X-166.077 Y-57.88 Z-3.548
X-165.754 Y-57.747 Z-3.553
X-165.323 Y-57.58 Z-3.559
X-164.994 Y-57.459 Z-3.568
X-164.532 Y-57.299 Z-3.586
X-164.123 Y-57.166 Z-3.612
X-163.776 Y-57.059 Z-3.642
X-163.709 Y-57.043 Z-3.641
X-163.285 Y-56.947 Z-3.646
X-162.933 Y-56.873 Z-3.656
X-162.463 Y-56.783 Z-3.674
X-162.052 Y-56.713 Z-3.692
X-161.788 Y-56.673 Z-3.705
X-161.65 Y-56.653 Z-3.709
X-161.356 Y-56.615 Z-3.72
X-161.251 Y-56.603 Z-3.722
X-160.926 Y-56.569 Z-3.728
X-160.858 Y-56.563 Z-3.729
X-160.482 Y-56.531 Z-3.73
X-160.078 Y-56.503 Z-3.727
X-159.709 Y-56.481 Z-3.72
X-159.304 Y-56.461 Z-3.71
X-159.06 Y-56.457 Z-3.716
X-158.381 Y-56.466 Z-3.757
X-157.95 Y-56.488 Z-3.761
X-157.529 Y-56.513 Z-3.767
X-157.129 Y-56.54 Z-3.775
X-156.944 Y-56.554 Z-3.781
X-156.669 Y-56.576 Z-3.79
X-156.305 Y-56.61 Z-3.804
X-155.976 Y-56.646 Z-3.822
X-155.882 Y-56.657 Z-3.826
X-155.509 Y-56.706 Z-3.849
X-155.453 Y-56.714 Z-3.852
X-155.053 Y-56.775 Z-3.882
X-155.017 Y-56.781 Z-3.884
X-154.612 Y-56.856 Z-3.918
X-154.572 Y-56.864 Z-3.921
X-154.181 Y-56.948 Z-3.959
X-154.121 Y-56.962 Z-3.963
X-153.767 Y-57.051 Z-4.002
X-153.665 Y-57.079 Z-4.01
X-153.368 Y-57.166 Z-4.045
X-153.209 Y-57.216 Z-4.06
X-152.982 Y-57.291 Z-4.088
X-152.764 Y-57.369 Z-4.11
X-152.67 Y-57.404 Z-4.12
X-152.334 Y-57.538 Z-4.155
X-152.251 Y-57.572 Z-4.164
X-151.92 Y-57.718 Z-4.195
X-151.522 Y-57.907 Z-4.232
X-151.139 Y-58.101 Z-4.265
X-150.764 Y-58.302 Z-4.296
X-150.407 Y-58.501 Z-4.324
X-150.056 Y-58.704 Z-4.351
X-149.719 Y-58.903 Z-4.375
X-149.394 Y-59.098 Z-4.396
X-149.228 Y-59.202 Z-4.412
X-149.065 Y-59.312 Z-4.439
X-148.948 Y-59.397 Z-4.465
X-148.832 Y-59.485 Z-4.497
X-148.447 Y-59.787 Z-4.615
X-148.429 Y-59.803 Z-4.618
X-148.052 Y-60.154 Z-4.671
X-147.702 Y-60.49 Z-4.723
X-147.632 Y-60.559 Z-4.732
X-147.384 Y-60.808 Z-4.767
X-147.329 Y-60.864 Z-4.774
X-147.091 Y-61.117 Z-4.806
X-147.024 Y-61.189 Z-4.813
X-146.839 Y-61.4 Z-4.834
X-146.723 Y-61.538 Z-4.842
X-146.658 Y-61.618 Z-4.846
X-146.491 Y-61.833 Z-4.857
X-146.433 Y-61.909 Z-4.858
X-146.26 Y-62.15 Z-4.864
X-146.151 Y-62.308 Z-4.865
X-146.076 Y-62.42 Z-4.867
X-145.895 Y-62.701 Z-4.875
X-145.794 Y-62.865 Z-4.879
X-145.642 Y-63.122 Z-4.892
X-145.526 Y-63.322 Z-4.905
X-145.358 Y-63.629 Z-4.932
X-145.308 Y-63.738 Z-4.93
X-145.132 Y-64.14 Z-4.938
X-145.067 Y-64.296 Z-4.945
X-144.961 Y-64.564 Z-4.96
X-144.878 Y-64.78 Z-4.974
X-144.77 Y-65.081 Z-4.999
X-144.712 Y-65.253 Z-5.013
X-144.611 Y-65.571 Z-5.041
X-144.566 Y-65.724 Z-5.054
X-144.485 Y-66.022 Z-5.079
X-144.447 Y-66.174 Z-5.089
X-144.383 Y-66.451 Z-5.107
X-144.345 Y-66.639 Z-5.113
X-144.302 Y-66.88 Z-5.121
X-144.281 Y-67.007 Z-5.122
X-144.231 Y-67.346 Z-5.125
X-144.218 Y-67.446 Z-5.124
X-144.169 Y-67.86 Z-5.121
X-144.161 Y-67.932 Z-5.119
X-144.116 Y-68.407 Z-5.111
X-144.069 Y-68.99 Z-5.094
X-144.052 Y-69.235 Z-5.088
X-144.044 Y-69.407 Z-5.092
X-144.055 Y-69.619 Z-5.084
X-144.059 Y-69.671 Z-5.083
X-144.098 Y-70.135 Z-5.09
X-144.163 Y-70.818 Z-5.099
X-144.204 Y-71.19 Z-5.103
X-144.223 Y-71.342
X-144.25 Y-71.551 Z-5.105
X-144.283 Y-71.782 Z-5.104
X-144.351 Y-72.205 Z-5.103
X-144.415 Y-72.542 Z-5.101
X-144.463 Y-72.767 Z-5.095
X-144.549 Y-73.123 Z-5.084
X-144.626 Y-73.394 Z-5.07
X-144.709 Y-73.663 Z-5.05
X-144.806 Y-73.938 Z-5.028
X-144.857 Y-74.072 Z-5.013
X-144.914 Y-74.22 Z-5
X-145.038 Y-74.514 Z-4.971
X-145.126 Y-74.708 Z-4.95
X-145.177 Y-74.816 Z-4.941
X-145.283 Y-75.033 Z-4.918
X-145.331 Y-75.129 Z-4.91
X-145.503 Y-75.451 Z-4.887
X-145.621 Y-75.663 Z-4.872
X-145.805 Y-75.974 Z-4.857
X-145.887 Y-76.11 Z-4.853
X-146.084 Y-76.42 Z-4.851
X-146.351 Y-76.822 Z-4.858
X-146.691 Y-77.202 Z-4.774
X-147.001 Y-77.535 Z-4.711
X-147.336 Y-77.882 Z-4.653
X-147.651 Y-78.198 Z-4.605
X-147.909 Y-78.451 Z-4.57
X-148.266 Y-78.789 Z-4.518
X-148.797 Y-79.276 Z-4.44
X-148.979 Y-79.434 Z-4.411
X-149.1 Y-79.533 Z-4.4
X-149.223 Y-79.628 Z-4.396
X-149.305 Y-79.687 Z-4.395
X-149.701 Y-79.954 Z-4.409
X-150.02 Y-80.157 Z-4.408
X-150.148 Y-80.239 Z-4.409
X-150.354 Y-80.362 Z-4.4
X-150.587 Y-80.501 Z-4.393
X-151.019 Y-80.739 Z-4.362
X-151.442 Y-80.951 Z-4.317
X-151.833 Y-81.128 Z-4.266
X-151.904 Y-81.159 Z-4.257
X-152.24 Y-81.296 Z-4.207
X-152.399 Y-81.358 Z-4.186
X-152.664 Y-81.453 Z-4.143
X-152.912 Y-81.538 Z-4.11
X-153.102 Y-81.598 Z-4.078
X-153.449 Y-81.702 Z-4.032
X-153.554 Y-81.731 Z-4.016
X-154.014 Y-81.848 Z-3.958
X-154.476 Y-81.948 Z-3.906
X-154.574 Y-81.968 Z-3.897
X-154.928 Y-82.033 Z-3.864
X-155.213 Y-82.08 Z-3.844
X-155.377 Y-82.105 Z-3.83
X-155.813 Y-82.165 Z-3.804
X-156.246 Y-82.214 Z-3.783
X-156.306 Y-82.221 Z-3.78
X-156.67 Y-82.257 Z-3.769
X-157.086 Y-82.293 Z-3.76
X-157.496 Y-82.323 Z-3.754
X-157.914 Y-82.35 Z-3.753
X-158.421 Y-82.38 Z-3.755
X-159.06 Y-82.389 Z-3.717
X-159.249 Y-82.387 Z-3.711
X-159.322 Y-82.384 Z-3.712
X-159.803 Y-82.36 Z-3.724
X-160.268 Y-82.331 Z-3.731
X-160.717 Y-82.297 Z-3.733
X-160.831 Y-82.287 Z-3.732
X-161.151 Y-82.256 Z-3.728
X-161.216 Y-82.249 Z-3.726
X-161.576 Y-82.205 Z-3.717
X-161.607 Y-82.201 Z-3.715
X-162.002 Y-82.144 Z-3.7
X-162.236 Y-82.106 Z-3.69
X-162.457 Y-82.068 Z-3.68
X-162.808 Y-82.002 Z-3.666
X-163.17 Y-81.928 Z-3.655
X-163.63 Y-81.826 Z-3.648
X-163.765 Y-81.794 Z-3.649
X-164.047 Y-81.709 Z-3.623
X-164.454 Y-81.578 Z-3.596
X-164.866 Y-81.437 Z-3.576
X-165.242 Y-81.301 Z-3.565
X-165.653 Y-81.144 Z-3.557
X-165.992 Y-81.007 Z-3.553
X-166.077 Y-80.972 Z-3.551
X-166.406 Y-80.831 Z-3.546
X-166.705 Y-80.697 Z-3.541
X-166.946 Y-80.585 Z-3.536
X-167.427 Y-80.354 Z-3.523
X-167.813 Y-80.163 Z-3.51
X-168.411 Y-79.857 Z-3.485
X-168.58 Y-79.768 Z-3.48
X-168.658 Y-79.724
X-169.057 Y-79.499 Z-3.484
X-169.355 Y-79.327 Z-3.491
X-169.564 Y-79.203 Z-3.5
X-169.789 Y-79.064 Z-3.512
X-170.008 Y-78.924 Z-3.529
X-170.156 Y-78.828 Z-3.545
X-170.352 Y-78.698 Z-3.574
X-170.484 Y-78.611 Z-3.598
X-170.838 Y-78.702 Z-3.176
X-171.175 Y-78.794 Z-2.779
X-171.487 Y-78.884 Z-2.416
X-171.686 Y-78.945 Z-2.186
X-171.998 Y-79.044 Z-1.833
X-172.275 Y-79.137 Z-1.522
X-172.659 Y-79.27 Z-1.097
X-172.78 Y-79.313 Z-0.963
X-172.881 Y-79.351 Z-0.854
X-172.977 Y-79.393 Z-0.757
X-173.068 Y-79.439 Z-0.67
X-173.153 Y-79.487 Z-0.594
X-173.233 Y-79.54 Z-0.529
X-173.382 Y-79.645 Z-0.415
X-173.527 Y-79.751 Z-0.309
X-173.596 Y-79.805 Z-0.26
X-173.705 Y-79.894 Z-0.189
X-173.797 Y-79.975 Z-0.134
X-173.86 Y-80.034 Z-0.1
X-173.949 Y-80.122 Z-0.057
X-174.035 Y-80.212 Z-0.019
X-174.085 Y-80.267 Z0
X-174.035 Y-80.212 Z-0.019
X-173.949 Y-80.122 Z-0.057
X-173.86 Y-80.034 Z-0.1
X-173.797 Y-79.975 Z-0.134
X-173.705 Y-79.894 Z-0.189
X-173.596 Y-79.805 Z-0.26
X-173.527 Y-79.751 Z-0.309
X-173.382 Y-79.645 Z-0.415
X-173.233 Y-79.54 Z-0.529
X-173.153 Y-79.487 Z-0.594
X-173.068 Y-79.439 Z-0.67
X-172.977 Y-79.393 Z-0.757
X-172.881 Y-79.351 Z-0.854
X-172.78 Y-79.313 Z-0.963
X-172.659 Y-79.27 Z-1.097
X-172.275 Y-79.137 Z-1.522
X-171.998 Y-79.044 Z-1.833
X-171.686 Y-78.945 Z-2.186
X-171.487 Y-78.884 Z-2.416
X-171.175 Y-78.794 Z-2.779
X-170.838 Y-78.702 Z-3.176
X-170.484 Y-78.611 Z-3.598
X-170.529 Y-78.313 Z-3.247
X-170.606 Y-77.768 Z-2.612
X-170.627 Y-77.596 Z-2.417
X-170.647 Y-77.357 Z-2.159
X-170.663 Y-77.074 Z-1.863
X-170.672 Y-76.868 Z-1.652
X-170.676 Y-76.674 Z-1.46
Y-76.522 Z-1.315
X-170.672 Y-76.384 Z-1.187
X-170.664 Y-76.228 Z-1.048
X-170.654 Y-76.099 Z-0.939
X-170.643 Y-75.995 Z-0.855
X-170.625 Y-75.858 Z-0.749
X-170.601 Y-75.704 Z-0.637
X-170.581 Y-75.598 Z-0.563
X-170.551 Y-75.452 Z-0.466
X-170.505 Y-75.25 Z-0.338
X-170.491 Y-75.191 Z-0.301
X-170.457 Y-75.071 Z-0.236
X-170.411 Y-74.928 Z-0.165
X-170.364 Y-74.788 Z-0.098
X-170.351 Y-74.75 Z-0.08
X-170.302 Y-74.727 Z-0.001
X-170.351 Y-74.75 Z-0.08
X-170.364 Y-74.686 Z0
G0 Z5
X-180.444 Y-139.268
G1 Z0 F849.6
X-180.383 Y-139.201 Z-0.024
X-180.3 Y-139.114 Z-0.06
X-180.217 Y-139.032 Z-0.101
X-180.153 Y-138.972 Z-0.136
X-180.067 Y-138.896 Z-0.187
X-179.992 Y-138.835 Z-0.235
X-179.888 Y-138.753 Z-0.307
X-179.781 Y-138.675 Z-0.385
X-179.638 Y-138.572 Z-0.494
X-179.515 Y-138.489 Z-0.591
X-179.429 Y-138.44 Z-0.667
X-179.338 Y-138.394 Z-0.755
X-179.241 Y-138.352 Z-0.854
X-179.138 Y-138.313 Z-0.964
X-178.893 Y-138.227 Z-1.235
X-178.5 Y-138.092 Z-1.671
X-178.212 Y-137.997 Z-1.996
X-177.882 Y-137.895 Z-2.374
X-177.554 Y-137.8 Z-2.755
X-177.202 Y-137.704 Z-3.17
X-176.843 Y-137.611 Z-3.598
X-176.889 Y-137.302 Z-3.234
X-176.964 Y-136.774 Z-2.619
X-176.988 Y-136.587 Z-2.405
X-177.007 Y-136.335 Z-2.136
X-177.026 Y-136.001 Z-1.787
X-177.033 Y-135.796 Z-1.581
X-177.035 Y-135.632 Z-1.419
X-177.034 Y-135.501 Z-1.295
X-177.029 Y-135.339 Z-1.147
X-177.023 Y-135.226 Z-1.047
X-177.013 Y-135.099 Z-0.94
X-177.002 Y-134.995 Z-0.855
X-176.984 Y-134.858 Z-0.749
X-176.967 Y-134.748 Z-0.668
X-176.937 Y-134.585 Z-0.555
X-176.894 Y-134.38 Z-0.42
X-176.851 Y-134.192 Z-0.302
X-176.816 Y-134.071 Z-0.236
X-176.77 Y-133.928 Z-0.165
X-176.723 Y-133.788 Z-0.098
X-176.71 Y-133.75 Z-0.08
X-176.661 Y-133.727 Z-0.001
X-176.71 Y-133.75 Z-0.08
X-176.723 Y-133.686 Z0
X-176.71 Y-133.75 Z-0.08
X-176.723 Y-133.788 Z-0.098
X-176.77 Y-133.928 Z-0.165
X-176.816 Y-134.071 Z-0.236
X-176.851 Y-134.192 Z-0.302
X-176.894 Y-134.38 Z-0.42
X-176.937 Y-134.585 Z-0.555
X-176.967 Y-134.748 Z-0.668
X-176.984 Y-134.858 Z-0.749
X-177.002 Y-134.995 Z-0.855
X-177.013 Y-135.099 Z-0.94
X-177.023 Y-135.226 Z-1.047
X-177.029 Y-135.339 Z-1.147
X-177.034 Y-135.501 Z-1.295
X-177.035 Y-135.632 Z-1.419
X-177.033 Y-135.796 Z-1.581
X-177.026 Y-136.001 Z-1.787
X-177.007 Y-136.335 Z-2.136
X-176.988 Y-136.587 Z-2.405
X-176.964 Y-136.774 Z-2.619
X-176.889 Y-137.302 Z-3.234
X-176.843 Y-137.611 Z-3.598
X-176.699 Y-137.706 Z-3.572
X-176.476 Y-137.853 Z-3.54
X-176.28 Y-137.979 Z-3.521
X-176.146 Y-138.065 Z-3.512
X-175.925 Y-138.202 Z-3.5
X-175.708 Y-138.33 Z-3.491
X-175.422 Y-138.496 Z-3.484
X-175.138 Y-138.656 Z-3.481
X-174.943 Y-138.766 Z-3.48
X-174.769 Y-138.858 Z-3.486
X-174.185 Y-139.156 Z-3.509
X-173.831 Y-139.332 Z-3.522
X-173.506 Y-139.49 Z-3.531
X-173.13 Y-139.666 Z-3.54
X-173.066 Y-139.696 Z-3.542
X-172.76 Y-139.833 Z-3.546
X-172.395 Y-139.989 Z-3.551
X-172.347 Y-140.008 Z-3.553
X-172.013 Y-140.144 Z-3.557
X-171.602 Y-140.301 Z-3.565
X-171.224 Y-140.438 Z-3.576
X-170.816 Y-140.577 Z-3.596
X-170.404 Y-140.709 Z-3.623
X-170.124 Y-140.794 Z-3.649
X-169.993 Y-140.825 Z-3.648
X-169.528 Y-140.929 Z-3.655
X-169.169 Y-141.002 Z-3.665
X-168.761 Y-141.078 Z-3.682
X-168.358 Y-141.145 Z-3.7
X-168.003 Y-141.196 Z-3.714
X-167.719 Y-141.232 Z-3.724
X-167.509 Y-141.256 Z-3.729
X-167.194 Y-141.287 Z-3.732
X-167.079 Y-141.297 Z-3.733
X-166.627 Y-141.332 Z-3.732
X-166.069 Y-141.365 Z-3.722
X-165.608 Y-141.387 Z-3.71
X-165.415 Y-141.389 Z-3.717
X-164.779 Y-141.379 Z-3.755
X-164.263 Y-141.349 Z-3.753
X-163.851 Y-141.323 Z-3.754
X-163.447 Y-141.293 Z-3.76
X-163.026 Y-141.257 Z-3.768
X-162.663 Y-141.22 Z-3.78
X-162.604 Y-141.214 Z-3.782
X-162.176 Y-141.165 Z-3.803
X-161.728 Y-141.103 Z-3.83
X-161.572 Y-141.08 Z-3.843
X-161.288 Y-141.032 Z-3.864
X-160.935 Y-140.968 Z-3.897
X-160.836 Y-140.948 Z-3.906
X-160.372 Y-140.848 Z-3.959
X-160.029 Y-140.762 Z-3.999
X-159.807 Y-140.702 Z-4.033
X-159.461 Y-140.598 Z-4.079
X-159.27 Y-140.538 Z-4.11
X-159.026 Y-140.454 Z-4.143
X-158.76 Y-140.359 Z-4.186
X-158.595 Y-140.294 Z-4.207
X-158.259 Y-140.157 Z-4.258
X-158.201 Y-140.131 Z-4.265
X-157.791 Y-139.946 Z-4.318
X-157.379 Y-139.739 Z-4.362
X-156.946 Y-139.501 Z-4.393
X-156.716 Y-139.364 Z-4.4
X-156.507 Y-139.239 Z-4.408
X-156.379 Y-139.157
X-156.059 Y-138.953
X-155.667 Y-138.689 Z-4.395
X-155.579 Y-138.626 Z-4.396
X-155.456 Y-138.531 Z-4.4
X-155.335 Y-138.432 Z-4.411
X-155.156 Y-138.277 Z-4.44
X-154.648 Y-137.811 Z-4.516
X-154.318 Y-137.499 Z-4.562
X-154.269 Y-137.452 Z-4.57
X-154.013 Y-137.201 Z-4.604
X-153.693 Y-136.881 Z-4.653
X-153.359 Y-136.534 Z-4.711
X-153.051 Y-136.203 Z-4.774
X-152.71 Y-135.822 Z-4.859
X-152.443 Y-135.42 Z-4.85
X-152.245 Y-135.108 Z-4.854
X-152.162 Y-134.972 Z-4.858
X-151.979 Y-134.66 Z-4.872
X-151.863 Y-134.452 Z-4.887
X-151.69 Y-134.129 Z-4.91
X-151.645 Y-134.04 Z-4.918
X-151.536 Y-133.816 Z-4.941
X-151.488 Y-133.715 Z-4.948
X-151.397 Y-133.513 Z-4.97
X-151.27 Y-133.212 Z-5.001
X-151.216 Y-133.073 Z-5.013
X-151.166 Y-132.939 Z-5.028
X-151.068 Y-132.663 Z-5.05
X-150.985 Y-132.394 Z-5.07
X-150.908 Y-132.123 Z-5.084
X-150.822 Y-131.766 Z-5.095
X-150.774 Y-131.541 Z-5.101
X-150.71 Y-131.205 Z-5.104
X-150.65 Y-130.836 Z-5.105
X-150.609 Y-130.551
X-150.582 Y-130.342 Z-5.102
X-150.563 Y-130.189 Z-5.103
X-150.522 Y-129.818 Z-5.099
X-150.455 Y-129.118 Z-5.09
X-150.414 Y-128.619 Z-5.084
X-150.403 Y-128.408 Z-5.092
X-150.411 Y-128.235 Z-5.088
X-150.428 Y-127.99 Z-5.094
X-150.475 Y-127.407 Z-5.111
X-150.52 Y-126.932 Z-5.119
X-150.528 Y-126.86 Z-5.121
X-150.577 Y-126.447 Z-5.124
X-150.59 Y-126.346 Z-5.125
X-150.64 Y-126.007 Z-5.122
X-150.661 Y-125.88 Z-5.121
X-150.704 Y-125.639 Z-5.113
X-150.743 Y-125.447 Z-5.106
X-150.805 Y-125.175 Z-5.09
X-150.843 Y-125.025 Z-5.08
X-150.925 Y-124.724 Z-5.054
X-150.97 Y-124.571 Z-5.042
X-151.071 Y-124.253 Z-5.013
X-151.129 Y-124.08 Z-4.999
X-151.237 Y-123.779 Z-4.974
X-151.319 Y-123.565 Z-4.961
X-151.424 Y-123.3 Z-4.944
X-151.494 Y-123.133 Z-4.937
X-151.672 Y-122.726 Z-4.931
X-151.714 Y-122.634 Z-4.932
X-151.886 Y-122.321 Z-4.905
X-152.004 Y-122.116 Z-4.892
X-152.151 Y-121.867 Z-4.88
X-152.249 Y-121.708 Z-4.875
X-152.495 Y-121.329 Z-4.866
X-152.616 Y-121.155 Z-4.864
X-152.793 Y-120.908 Z-4.857
X-152.85 Y-120.833 Z-4.856
X-153.018 Y-120.617 Z-4.846
X-153.083 Y-120.537 Z-4.842
X-153.198 Y-120.4 Z-4.834
X-153.385 Y-120.187 Z-4.812
X-153.452 Y-120.114 Z-4.805
X-153.687 Y-119.865 Z-4.774
X-153.741 Y-119.81 Z-4.768
X-154.063 Y-119.488 Z-4.723
X-154.411 Y-119.154 Z-4.671
X-154.598 Y-118.979 Z-4.644
X-154.806 Y-118.786 Z-4.615
X-155.192 Y-118.484 Z-4.497
X-155.308 Y-118.396 Z-4.465
X-155.426 Y-118.311 Z-4.439
X-155.585 Y-118.204 Z-4.413
X-155.747 Y-118.102 Z-4.398
X-155.839 Y-118.046 Z-4.392
X-156.401 Y-117.712 Z-4.352
X-156.765 Y-117.501 Z-4.325
X-157.126 Y-117.3 Z-4.296
X-157.495 Y-117.102 Z-4.266
X-157.883 Y-116.906 Z-4.232
X-158.275 Y-116.72 Z-4.196
X-158.606 Y-116.573 Z-4.164
X-158.696 Y-116.536 Z-4.154
X-158.968 Y-116.427 Z-4.128
X-159.123 Y-116.369 Z-4.11
X-159.341 Y-116.291 Z-4.088
X-159.57 Y-116.215 Z-4.06
X-159.726 Y-116.166 Z-4.046
X-160.02 Y-116.08 Z-4.011
X-160.124 Y-116.052 Z-4.002
X-160.482 Y-115.961 Z-3.963
X-160.543 Y-115.947 Z-3.958
X-160.931 Y-115.863 Z-3.921
X-160.97 Y-115.856 Z-3.919
X-161.376 Y-115.782 Z-3.884
X-161.41 Y-115.776 Z-3.882
X-161.808 Y-115.714 Z-3.852
X-161.868 Y-115.706 Z-3.849
X-162.241 Y-115.657 Z-3.826
X-162.336 Y-115.646 Z-3.822
X-162.668 Y-115.61 Z-3.804
X-163.032 Y-115.576 Z-3.79
X-163.439 Y-115.543 Z-3.777
