%
(1001)
(origin stock top)
(T1  D=12.7 CR=0 - ZMIN=-16 - flat end mill)
G90 G94
G17
G21

(2D Adaptive2)
M9
T1 M6
S6000 M3
G54
G0 X-95.232 Y-86.644
Z15
Z5
Z2.55
G3 X-85.207 Y-93.356 Z0.892 I5.013 J-3.356 F283.3
X-95.232 Y-86.644 Z-0.766 I-5.013 J3.356
X-85.207 Y-93.356 Z-2.424 I5.013 J-3.356
X-95.232 Y-86.644 Z-4.082 I-5.013 J3.356
X-85.207 Y-93.356 Z-5.74 I5.013 J-3.356
X-95.232 Y-86.644 Z-7.398 I-5.013 J3.356
X-85.207 Y-93.356 Z-9.056 I5.013 J-3.356
X-95.232 Y-86.644 Z-10.714 I-5.013 J3.356
X-85.207 Y-93.356 Z-12.372 I5.013 J-3.356
X-95.232 Y-86.644 Z-14.031 I-5.013 J3.356
X-85.207 Y-93.356 Z-15.689 I5.013 J-3.356
X-84.187 Y-90 Z-16 I-5.013 J3.356
X-96.252 I-6.033
X-84.187 I6.033
G1 X-84.172 Y-88.708 F849.6
X-84.157 Y-88.629
X-84.137 Y-88.48
X-84.127 Y-88.33
X-84.125 Y-88.18
X-84.132 Y-88.03
X-84.146 Y-87.881
X-84.166 Y-87.733
X-84.192 Y-87.585
X-84.225 Y-87.438
X-84.262 Y-87.293
X-84.307 Y-87.145
X-84.358 Y-86.992
X-84.417 Y-86.837
X-84.483 Y-86.679
X-84.557 Y-86.519
X-84.638 Y-86.357
X-84.728 Y-86.194
X-84.825 Y-86.031
X-84.931 Y-85.868
X-85.044 Y-85.706
X-85.165 Y-85.545
X-85.294 Y-85.386
X-85.43 Y-85.229
X-85.574 Y-85.075
X-85.726 Y-84.924
X-85.884 Y-84.777
X-86.05 Y-84.634
X-86.222 Y-84.496
X-86.4 Y-84.363
X-86.585 Y-84.235
X-86.775 Y-84.112
X-86.971 Y-83.996
X-87.173 Y-83.886
X-87.379 Y-83.783
X-87.59 Y-83.687
X-87.805 Y-83.598
X-88.024 Y-83.516
X-88.247 Y-83.441
X-88.474 Y-83.375
X-88.703 Y-83.316
X-88.935 Y-83.266
X-89.169 Y-83.223
X-89.405 Y-83.189
X-89.642 Y-83.163
X-89.881 Y-83.145
X-90.121 Y-83.136
X-90.362
X-90.602 Y-83.144
X-90.843 Y-83.161
X-91.083 Y-83.186
X-91.322 Y-83.22
X-91.56 Y-83.262
X-91.797 Y-83.313
X-92.032 Y-83.372
X-92.265 Y-83.439
X-92.496 Y-83.515
X-92.723 Y-83.599
X-92.948 Y-83.691
X-93.17 Y-83.791
X-93.388 Y-83.899
X-93.602 Y-84.015
X-93.812 Y-84.138
X-94.017 Y-84.269
X-94.218 Y-84.407
X-94.414 Y-84.552
X-94.604 Y-84.704
X-94.79 Y-84.862
X-94.969 Y-85.028
X-95.142 Y-85.199
X-95.31 Y-85.377
X-95.471 Y-85.56
X-95.625 Y-85.749
X-95.772 Y-85.943
X-95.913 Y-86.143
X-96.046 Y-86.347
X-96.172 Y-86.556
X-96.291 Y-86.77
X-96.402 Y-86.987
X-96.505 Y-87.209
X-96.6 Y-87.434
X-96.687 Y-87.662
X-96.766 Y-87.893
X-96.837 Y-88.127
X-96.899 Y-88.363
X-96.953 Y-88.601
X-96.999 Y-88.841
X-97.036 Y-89.082
X-97.064 Y-89.325
X-97.083 Y-89.568
X-97.095 Y-89.812
X-97.097 Y-90.057
X-97.091 Y-90.301
X-97.076 Y-90.545
X-97.052 Y-90.788
X-97.02 Y-91.03
X-96.979 Y-91.271
X-96.929 Y-91.51
X-96.871 Y-91.748
X-96.805 Y-91.983
X-96.731 Y-92.215
X-96.648 Y-92.445
X-96.557 Y-92.672
X-96.458 Y-92.895
X-96.351 Y-93.115
X-96.237 Y-93.331
X-96.115 Y-93.543
X-95.985 Y-93.75
X-95.848 Y-93.952
X-95.704 Y-94.15
X-95.554 Y-94.342
X-95.396 Y-94.529
X-95.232 Y-94.71
X-95.061 Y-94.885
X-94.885 Y-95.053
X-94.702 Y-95.216
X-94.514 Y-95.372
X-94.321 Y-95.521
X-94.122 Y-95.663
X-93.918 Y-95.798
X-93.71 Y-95.926
X-93.497 Y-96.046
X-93.281 Y-96.159
X-93.06 Y-96.264
X-92.836 Y-96.361
X-92.608 Y-96.45
X-92.377 Y-96.53
X-92.144 Y-96.603
X-91.908 Y-96.667
X-91.671 Y-96.723
X-91.431 Y-96.77
X-91.19 Y-96.809
X-90.947 Y-96.839
X-90.704 Y-96.861
X-90.46 Y-96.873
X-90.215 Y-96.878
X-89.971 Y-96.873
X-89.727 Y-96.86
X-89.484 Y-96.838
X-89.241 Y-96.808
X-89 Y-96.769
X-88.761 Y-96.721
X-88.523 Y-96.665
X-88.287 Y-96.601
X-88.054 Y-96.528
X-87.823 Y-96.447
X-87.596 Y-96.358
X-87.372 Y-96.26
X-87.151 Y-96.155
X-86.934 Y-96.042
X-86.722 Y-95.922
X-86.514 Y-95.794
X-86.31 Y-95.659
X-86.112 Y-95.516
X-85.918 Y-95.367
X-85.73 Y-95.211
X-85.548 Y-95.048
X-85.372 Y-94.879
X-85.202 Y-94.703
X-85.038 Y-94.522
X-84.88 Y-94.335
X-84.73 Y-94.143
X-84.586 Y-93.945
X-84.449 Y-93.743
X-84.32 Y-93.535
X-84.198 Y-93.324
X-84.084 Y-93.108
X-83.978 Y-92.888
X-83.879 Y-92.664
X-83.788 Y-92.437
X-83.701 Y-92.193
X-83.604 Y-91.892
X-83.459 Y-91.374
X-83.356 Y-90.948
X-83.281 Y-90.584
X-83.226 Y-90.255
X-83.186 Y-89.953
X-83.159 Y-89.671
X-83.143 Y-89.403
X-83.136 Y-89.144
X-83.139 Y-88.892
X-83.15 Y-88.646
X-83.17 Y-88.406
X-83.198 Y-88.171
X-83.234 Y-87.939
X-83.277 Y-87.71
X-83.329 Y-87.484
X-83.388 Y-87.261
X-83.455 Y-87.04
X-83.53 Y-86.821
X-83.613 Y-86.605
X-83.704 Y-86.391
X-83.803 Y-86.179
X-83.91 Y-85.971
X-84.024 Y-85.765
X-84.147 Y-85.562
X-84.277 Y-85.363
X-84.415 Y-85.167
X-84.561 Y-84.975
X-84.715 Y-84.787
X-84.876 Y-84.604
X-85.045 Y-84.426
X-85.22 Y-84.252
X-85.403 Y-84.084
X-85.593 Y-83.922
X-85.79 Y-83.765
X-85.994 Y-83.615
X-86.203 Y-83.471
X-86.419 Y-83.334
X-86.641 Y-83.205
X-86.868 Y-83.082
X-87.101 Y-82.967
X-87.338 Y-82.86
X-87.58 Y-82.762
X-87.826 Y-82.671
X-88.077 Y-82.589
X-88.33 Y-82.516
X-88.588 Y-82.451
X-88.848 Y-82.396
X-89.11 Y-82.35
X-89.375 Y-82.313
X-89.641 Y-82.285
X-89.909 Y-82.267
X-90.178 Y-82.258
X-90.447 Y-82.259
X-90.717 Y-82.27
X-90.987 Y-82.29
X-91.256 Y-82.319
X-91.525 Y-82.359
X-91.792 Y-82.407
X-92.058 Y-82.466
X-92.321 Y-82.534
X-92.583 Y-82.611
X-92.842 Y-82.698
X-93.097 Y-82.793
X-93.35 Y-82.898
X-93.599 Y-83.012
X-93.843 Y-83.135
X-94.084 Y-83.267
X-94.319 Y-83.407
X-94.55 Y-83.555
X-94.775 Y-83.712
X-94.995 Y-83.876
X-95.209 Y-84.049
X-95.417 Y-84.228
X-95.618 Y-84.416
X-95.813 Y-84.61
X-96 Y-84.811
X-96.181 Y-85.019
X-96.354 Y-85.233
X-96.519 Y-85.453
X-96.676 Y-85.679
X-96.826 Y-85.911
X-96.967 Y-86.148
X-97.099 Y-86.389
X-97.223 Y-86.635
X-97.338 Y-86.886
X-97.444 Y-87.14
X-97.541 Y-87.398
X-97.629 Y-87.66
X-97.708 Y-87.924
X-97.777 Y-88.191
X-97.836 Y-88.46
X-97.886 Y-88.732
X-97.926 Y-89.005
X-97.957 Y-89.279
X-97.978 Y-89.554
X-97.989 Y-89.83
X-97.99 Y-90.106
X-97.981 Y-90.381
X-97.963 Y-90.657
X-97.935 Y-90.931
X-97.897 Y-91.205
X-97.849 Y-91.476
X-97.792 Y-91.746
X-97.725 Y-92.014
X-97.649 Y-92.28
X-97.563 Y-92.542
X-97.469 Y-92.801
X-97.365 Y-93.057
X-97.251 Y-93.309
X-97.13 Y-93.556
X-96.999 Y-93.799
X-96.86 Y-94.038
X-96.712 Y-94.271
X-96.556 Y-94.499
X-96.393 Y-94.721
X-96.221 Y-94.938
X-96.042 Y-95.148
X-95.855 Y-95.351
X-95.662 Y-95.548
X-95.461 Y-95.738
X-95.254 Y-95.92
X-95.041 Y-96.095
X-94.821 Y-96.263
X-94.596 Y-96.422
X-94.365 Y-96.574
X-94.129 Y-96.717
X-93.888 Y-96.851
X-93.642 Y-96.977
X-93.392 Y-97.095
X-93.138 Y-97.203
X-92.88 Y-97.302
X-92.619 Y-97.392
X-92.355 Y-97.472
X-92.089 Y-97.543
X-91.819 Y-97.605
X-91.548 Y-97.657
X-91.276 Y-97.7
X-91.001 Y-97.732
X-90.726 Y-97.755
X-90.45 Y-97.768
X-90.174 Y-97.771
X-89.898 Y-97.765
X-89.623 Y-97.749
X-89.348 Y-97.723
X-89.074 Y-97.687
X-88.802 Y-97.641
X-88.531 Y-97.586
X-88.263 Y-97.521
X-87.997 Y-97.447
X-87.734 Y-97.363
X-87.474 Y-97.27
X-87.217 Y-97.168
X-86.965 Y-97.057
X-86.716 Y-96.937
X-86.472 Y-96.808
X-86.232 Y-96.671
X-85.998 Y-96.525
X-85.769 Y-96.371
X-85.545 Y-96.209
X-85.328 Y-96.039
X-85.116 Y-95.861
X-84.911 Y-95.676
X-84.713 Y-95.484
X-84.522 Y-95.285
X-84.338 Y-95.079
X-84.161 Y-94.867
X-83.991 Y-94.648
X-83.826 Y-94.418
X-83.665 Y-94.177
X-83.499 Y-93.907
X-83.333 Y-93.616
X-83.174 Y-93.312
X-83.026 Y-93.001
X-82.888 Y-92.684
X-82.762 Y-92.364
X-82.649 Y-92.045
X-82.55 Y-91.727
X-82.463 Y-91.411
X-82.389 Y-91.098
X-82.327 Y-90.788
X-82.277 Y-90.481
X-82.238 Y-90.177
X-82.211 Y-89.877
X-82.194 Y-89.58
X-82.189 Y-89.288
X-82.193 Y-88.999
X-82.208 Y-88.713
X-82.233 Y-88.43
X-82.267 Y-88.151
X-82.311 Y-87.875
X-82.365 Y-87.602
X-82.428 Y-87.332
X-82.5 Y-87.065
X-82.582 Y-86.801
X-82.672 Y-86.541
X-82.772 Y-86.285
X-82.881 Y-86.032
X-82.999 Y-85.783
X-83.126 Y-85.538
X-83.262 Y-85.297
X-83.406 Y-85.061
X-83.56 Y-84.829
X-83.721 Y-84.603
X-83.891 Y-84.381
X-84.07 Y-84.166
X-84.256 Y-83.956
X-84.451 Y-83.752
X-84.653 Y-83.555
X-84.863 Y-83.364
X-85.08 Y-83.18
X-85.305 Y-83.004
X-85.536 Y-82.834
X-85.774 Y-82.673
X-86.019 Y-82.52
X-86.269 Y-82.375
X-86.526 Y-82.238
X-86.788 Y-82.111
X-87.055 Y-81.992
X-87.327 Y-81.883
X-87.604 Y-81.783
X-87.884 Y-81.692
X-88.169 Y-81.612
X-88.457 Y-81.541
X-88.748 Y-81.481
X-89.042 Y-81.431
X-89.338 Y-81.391
X-89.636 Y-81.361
X-89.935 Y-81.343
X-90.235 Y-81.334
X-90.537 Y-81.337
X-90.838 Y-81.35
X-91.139 Y-81.374
X-91.44 Y-81.409
X-91.74 Y-81.454
X-92.038 Y-81.511
X-92.334 Y-81.577
X-92.629 Y-81.655
X-92.921 Y-81.743
X-93.209 Y-81.841
X-93.495 Y-81.95
X-93.776 Y-82.068
X-94.054 Y-82.197
X-94.327 Y-82.336
X-94.595 Y-82.484
X-94.857 Y-82.642
X-95.114 Y-82.81
X-95.366 Y-82.986
X-95.611 Y-83.172
X-95.849 Y-83.366
X-96.08 Y-83.568
X-96.304 Y-83.779
X-96.521 Y-83.997
X-96.73 Y-84.224
X-96.931 Y-84.457
X-97.123 Y-84.698
X-97.307 Y-84.946
X-97.482 Y-85.2
X-97.647 Y-85.46
X-97.804 Y-85.725
X-97.951 Y-85.997
X-98.088 Y-86.273
X-98.216 Y-86.554
X-98.333 Y-86.84
X-98.44 Y-87.129
X-98.537 Y-87.423
X-98.623 Y-87.719
X-98.699 Y-88.019
X-98.764 Y-88.321
X-98.819 Y-88.625
X-98.862 Y-88.931
X-98.895 Y-89.238
X-98.916 Y-89.547
X-98.927 Y-89.855
Y-90.165
X-98.916 Y-90.474
X-98.893 Y-90.782
X-98.86 Y-91.089
X-98.816 Y-91.396
X-98.761 Y-91.7
X-98.696 Y-92.002
X-98.619 Y-92.302
X-98.532 Y-92.599
X-98.435 Y-92.892
X-98.327 Y-93.182
X-98.209 Y-93.468
X-98.081 Y-93.749
X-97.943 Y-94.026
X-97.795 Y-94.298
X-97.637 Y-94.564
X-97.471 Y-94.825
X-97.295 Y-95.079
X-97.11 Y-95.327
X-96.916 Y-95.569
X-96.714 Y-95.803
X-96.504 Y-96.03
X-96.286 Y-96.25
X-96.06 Y-96.461
X-95.827 Y-96.664
X-95.587 Y-96.859
X-95.34 Y-97.046
X-95.086 Y-97.223
X-94.827 Y-97.391
X-94.561 Y-97.55
X-94.29 Y-97.7
X-94.014 Y-97.84
X-93.734 Y-97.969
X-93.448 Y-98.089
X-93.159 Y-98.199
X-92.866 Y-98.298
X-92.569 Y-98.387
X-92.27 Y-98.465
X-91.968 Y-98.533
X-91.664 Y-98.589
X-91.358 Y-98.635
X-91.051 Y-98.67
X-90.742 Y-98.694
X-90.433 Y-98.707
X-90.123 Y-98.709
X-89.814 Y-98.7
X-89.505 Y-98.681
X-89.198 Y-98.65
X-88.891 Y-98.608
X-88.586 Y-98.555
X-88.283 Y-98.492
X-87.983 Y-98.418
X-87.685 Y-98.333
X-87.391 Y-98.238
X-87.1 Y-98.132
X-86.813 Y-98.016
X-86.531 Y-97.89
X-86.253 Y-97.754
X-85.98 Y-97.608
X-85.712 Y-97.453
X-85.45 Y-97.288
X-85.194 Y-97.114
X-84.945 Y-96.931
X-84.701 Y-96.739
X-84.463 Y-96.537
X-84.23 Y-96.324
X-83.999 Y-96.098
X-83.773 Y-95.86
X-83.551 Y-95.61
X-83.336 Y-95.348
X-83.127 Y-95.076
X-82.926 Y-94.794
X-82.734 Y-94.502
X-82.552 Y-94.203
X-82.379 Y-93.896
X-82.218 Y-93.583
X-82.068 Y-93.264
X-81.929 Y-92.942
X-81.803 Y-92.616
X-81.689 Y-92.288
X-81.588 Y-91.958
X-81.499 Y-91.627
X-81.422 Y-91.296
X-81.358 Y-90.965
X-81.305 Y-90.634
X-81.265 Y-90.305
X-81.237 Y-89.976
X-81.221 Y-89.648
X-81.216 Y-89.323
X-81.223 Y-88.999
X-81.241 Y-88.677
X-81.271 Y-88.357
X-81.312 Y-88.04
X-81.363 Y-87.726
X-81.426 Y-87.415
X-81.5 Y-87.107
X-81.584 Y-86.803
X-81.679 Y-86.502
X-81.784 Y-86.205
X-81.9 Y-85.913
X-82.026 Y-85.625
X-82.162 Y-85.341
X-82.308 Y-85.063
X-82.464 Y-84.789
X-82.63 Y-84.521
X-82.805 Y-84.259
X-82.99 Y-84.003
X-83.184 Y-83.753
X-83.387 Y-83.51
X-83.599 Y-83.274
X-83.82 Y-83.045
X-84.05 Y-82.823
X-84.287 Y-82.61
X-84.533 Y-82.404
X-84.786 Y-82.207
X-85.047 Y-82.018
X-85.315 Y-81.839
X-85.59 Y-81.668
X-85.872 Y-81.507
X-86.159 Y-81.356
X-86.453 Y-81.215
X-86.752 Y-81.084
X-87.057 Y-80.963
X-87.366 Y-80.853
X-87.68 Y-80.754
X-87.997 Y-80.666
X-88.319 Y-80.589
X-88.643 Y-80.523
X-88.971 Y-80.469
X-89.3 Y-80.427
X-89.632 Y-80.396
X-89.965 Y-80.377
X-90.299 Y-80.369
X-90.634 Y-80.374
X-90.969 Y-80.39
X-91.303 Y-80.419
X-91.637 Y-80.459
X-91.97 Y-80.511
X-92.301 Y-80.575
X-92.63 Y-80.651
X-92.957 Y-80.739
X-93.28 Y-80.838
X-93.6 Y-80.949
X-93.917 Y-81.072
X-94.229 Y-81.205
X-94.536 Y-81.35
X-94.838 Y-81.505
X-95.135 Y-81.672
X-95.426 Y-81.849
X-95.711 Y-82.036
X-95.989 Y-82.234
X-96.26 Y-82.441
X-96.524 Y-82.658
X-96.779 Y-82.885
X-97.027 Y-83.12
X-97.267 Y-83.364
X-97.498 Y-83.617
X-97.719 Y-83.878
X-97.932 Y-84.146
X-98.134 Y-84.422
X-98.327 Y-84.706
X-98.51 Y-84.996
X-98.682 Y-85.292
X-98.844 Y-85.594
X-98.995 Y-85.903
X-99.135 Y-86.216
X-99.264 Y-86.534
X-99.382 Y-86.857
X-99.488 Y-87.183
X-99.582 Y-87.514
X-99.665 Y-87.847
X-99.735 Y-88.183
X-99.794 Y-88.522
X-99.84 Y-88.862
X-99.875 Y-89.204
X-99.897 Y-89.547
X-99.907 Y-89.891
X-99.905 Y-90.235
X-99.891 Y-90.578
X-99.865 Y-90.921
X-99.826 Y-91.263
X-99.775 Y-91.603
X-99.712 Y-91.941
X-99.637 Y-92.277
X-99.551 Y-92.61
X-99.452 Y-92.94
X-99.342 Y-93.266
X-99.221 Y-93.588
X-99.088 Y-93.905
X-98.943 Y-94.217
X-98.788 Y-94.525
X-98.622 Y-94.826
X-98.446 Y-95.121
X-98.259 Y-95.41
X-98.061 Y-95.692
X-97.854 Y-95.967
X-97.638 Y-96.235
X-97.412 Y-96.494
X-97.176 Y-96.745
X-96.932 Y-96.988
X-96.68 Y-97.222
X-96.42 Y-97.447
X-96.151 Y-97.663
X-95.875 Y-97.869
X-95.592 Y-98.064
X-95.302 Y-98.25
X-95.006 Y-98.426
X-94.704 Y-98.59
X-94.396 Y-98.744
X-94.083 Y-98.887
X-93.765 Y-99.019
X-93.442 Y-99.139
X-93.116 Y-99.247
X-92.785 Y-99.344
X-92.452 Y-99.43
X-92.115 Y-99.503
X-91.777 Y-99.564
X-91.436 Y-99.614
X-91.094 Y-99.651
X-90.75 Y-99.676
X-90.406 Y-99.689
X-90.062
X-89.718 Y-99.677
X-89.375 Y-99.653
X-89.032 Y-99.617
X-88.691 Y-99.569
X-88.353 Y-99.509
X-88.016 Y-99.437
X-87.682 Y-99.352
X-87.352 Y-99.256
X-87.025 Y-99.149
X-86.702 Y-99.029
X-86.383 Y-98.899
X-86.069 Y-98.757
X-85.76 Y-98.603
X-85.455 Y-98.438
X-85.155 Y-98.262
X-84.86 Y-98.074
X-84.57 Y-97.875
X-84.285 Y-97.663
X-84.005 Y-97.44
X-83.731 Y-97.205
X-83.464 Y-96.959
X-83.204 Y-96.701
X-82.951 Y-96.433
X-82.706 Y-96.153
X-82.47 Y-95.864
X-82.243 Y-95.565
X-82.026 Y-95.257
X-81.82 Y-94.94
X-81.625 Y-94.617
X-81.442 Y-94.286
X-81.27 Y-93.949
X-81.111 Y-93.607
X-80.965 Y-93.261
X-80.831 Y-92.91
X-80.71 Y-92.556
X-80.602 Y-92.199
X-80.508 Y-91.84
X-80.426 Y-91.479
X-80.358 Y-91.117
X-80.303 Y-90.755
X-80.26 Y-90.392
X-80.231 Y-90.029
X-80.215 Y-89.667
X-80.212 Y-89.306
X-80.221 Y-88.947
X-80.244 Y-88.589
X-80.278 Y-88.233
X-80.326 Y-87.88
X-80.385 Y-87.529
X-80.457 Y-87.182
X-80.541 Y-86.838
X-80.637 Y-86.497
X-80.745 Y-86.161
X-80.865 Y-85.829
X-80.996 Y-85.501
X-81.139 Y-85.179
X-81.294 Y-84.862
X-81.459 Y-84.551
X-81.635 Y-84.245
X-81.823 Y-83.946
X-82.021 Y-83.654
X-82.229 Y-83.368
X-82.448 Y-83.09
X-82.676 Y-82.819
X-82.915 Y-82.556
X-83.163 Y-82.302
X-83.42 Y-82.056
X-83.686 Y-81.819
X-83.961 Y-81.591
X-84.245 Y-81.373
X-84.536 Y-81.165
X-84.835 Y-80.966
X-85.142 Y-80.779
X-85.456 Y-80.601
X-85.776 Y-80.435
X-86.103 Y-80.28
X-86.436 Y-80.136
X-86.774 Y-80.004
X-87.117 Y-79.884
X-87.466 Y-79.776
X-87.818 Y-79.681
X-88.174 Y-79.597
X-88.534 Y-79.526
X-88.896 Y-79.468
X-89.261 Y-79.423
X-89.628 Y-79.391
X-89.997 Y-79.372
X-90.366 Y-79.365
X-90.736 Y-79.372
X-91.106 Y-79.393
X-91.476 Y-79.426
X-91.845 Y-79.472
X-92.212 Y-79.532
X-92.577 Y-79.605
X-92.94 Y-79.69
X-93.301 Y-79.789
X-93.657 Y-79.901
X-94.01 Y-80.025
X-94.359 Y-80.162
X-94.703 Y-80.311
X-95.041 Y-80.473
X-95.374 Y-80.646
X-95.701 Y-80.832
X-96.021 Y-81.029
X-96.335 Y-81.238
X-96.641 Y-81.457
X-96.939 Y-81.688
X-97.228 Y-81.929
X-97.51 Y-82.18
X-97.782 Y-82.442
X-98.045 Y-82.713
X-98.298 Y-82.993
X-98.542 Y-83.282
X-98.775 Y-83.58
X-98.997 Y-83.886
X-99.208 Y-84.2
X-99.409 Y-84.522
X-99.597 Y-84.85
X-99.774 Y-85.185
X-99.939 Y-85.526
X-100.092 Y-85.873
X-100.233 Y-86.225
X-100.361 Y-86.582
X-100.476 Y-86.943
X-100.578 Y-87.309
X-100.667 Y-87.677
X-100.743 Y-88.049
X-100.806 Y-88.424
X-100.856 Y-88.8
X-100.892 Y-89.178
X-100.915 Y-89.557
X-100.924 Y-89.937
X-100.919 Y-90.316
X-100.902 Y-90.696
X-100.87 Y-91.074
X-100.826 Y-91.452
X-100.768 Y-91.827
X-100.696 Y-92.2
X-100.612 Y-92.571
X-100.514 Y-92.938
X-100.403 Y-93.302
X-100.28 Y-93.661
X-100.144 Y-94.016
X-99.995 Y-94.366
X-99.834 Y-94.71
X-99.661 Y-95.049
X-99.475 Y-95.381
X-99.279 Y-95.706
X-99.07 Y-96.024
X-98.851 Y-96.335
X-98.621 Y-96.637
X-98.38 Y-96.931
X-98.128 Y-97.217
X-97.867 Y-97.493
X-97.596 Y-97.76
X-97.316 Y-98.017
X-97.027 Y-98.264
X-96.729 Y-98.501
X-96.423 Y-98.727
X-96.109 Y-98.941
X-95.788 Y-99.145
X-95.46 Y-99.337
X-95.125 Y-99.517
X-94.784 Y-99.685
X-94.437 Y-99.841
X-94.085 Y-99.985
X-93.728 Y-100.116
X-93.366 Y-100.234
X-93.001 Y-100.339
X-92.632 Y-100.432
X-92.26 Y-100.511
X-91.885 Y-100.577
X-91.508 Y-100.629
X-91.13 Y-100.668
X-90.75 Y-100.694
X-90.37 Y-100.706
X-89.99 Y-100.705
X-89.61 Y-100.69
X-89.23 Y-100.661
X-88.852 Y-100.619
X-88.476 Y-100.564
X-88.102 Y-100.496
X-87.73 Y-100.414
X-87.362 Y-100.319
X-86.996 Y-100.21
X-86.634 Y-100.089
X-86.276 Y-99.955
X-85.921 Y-99.807
X-85.571 Y-99.646
X-85.226 Y-99.473
X-84.885 Y-99.286
X-84.55 Y-99.087
X-84.22 Y-98.875
X-83.897 Y-98.65
X-83.58 Y-98.412
X-83.269 Y-98.162
X-82.967 Y-97.9
X-82.673 Y-97.626
X-82.387 Y-97.34
X-82.111 Y-97.044
X-81.845 Y-96.737
X-81.589 Y-96.42
X-81.344 Y-96.093
X-81.111 Y-95.758
X-80.889 Y-95.414
X-80.68 Y-95.062
X-80.484 Y-94.704
X-80.3 Y-94.338
X-80.13 Y-93.967
X-79.973 Y-93.591
X-79.83 Y-93.21
X-79.701 Y-92.825
X-79.585 Y-92.436
X-79.484 Y-92.044
X-79.397 Y-91.651
X-79.325 Y-91.255
X-79.266 Y-90.858
X-79.222 Y-90.46
X-79.192 Y-90.062
X-79.177 Y-89.664
X-79.175 Y-89.266
X-79.188 Y-88.87
X-79.214 Y-88.475
X-79.255 Y-88.083
X-79.309 Y-87.692
X-79.377 Y-87.305
X-79.459 Y-86.92
X-79.554 Y-86.54
X-79.662 Y-86.163
X-79.784 Y-85.791
X-79.919 Y-85.423
X-80.066 Y-85.061
X-80.227 Y-84.704
X-80.4 Y-84.353
X-80.585 Y-84.009
X-80.782 Y-83.671
X-80.992 Y-83.34
X-81.213 Y-83.017
X-81.445 Y-82.702
X-81.689 Y-82.395
X-81.944 Y-82.096
X-82.21 Y-81.807
X-82.486 Y-81.527
X-82.772 Y-81.256
X-83.067 Y-80.995
X-83.373 Y-80.745
X-83.687 Y-80.506
X-84.011 Y-80.277
X-84.342 Y-80.06
X-84.682 Y-79.854
X-85.029 Y-79.661
X-85.384 Y-79.479
X-85.745 Y-79.31
X-86.113 Y-79.153
X-86.486 Y-79.01
X-86.865 Y-78.879
X-87.25 Y-78.762
X-87.638 Y-78.659
X-88.031 Y-78.569
X-88.427 Y-78.493
X-88.826 Y-78.432
X-89.228 Y-78.384
X-89.632 Y-78.351
X-90.037 Y-78.332
X-90.443 Y-78.327
X-90.85 Y-78.337
X-91.256 Y-78.361
X-91.662 Y-78.4
X-92.067 Y-78.453
X-92.47 Y-78.52
X-92.871 Y-78.602
X-93.269 Y-78.699
X-93.664 Y-78.809
X-94.055 Y-78.934
X-94.442 Y-79.072
X-94.824 Y-79.224
X-95.201 Y-79.39
X-95.572 Y-79.57
X-95.936 Y-79.762
X-96.294 Y-79.968
X-96.644 Y-80.186
X-96.987 Y-80.417
X-97.322 Y-80.66
X-97.648 Y-80.914
X-97.964 Y-81.181
X-98.272 Y-81.458
X-98.569 Y-81.747
X-98.856 Y-82.046
X-99.133 Y-82.355
X-99.398 Y-82.674
X-99.652 Y-83.002
X-99.895 Y-83.339
X-100.125 Y-83.685
X-100.343 Y-84.039
X-100.548 Y-84.401
X-100.74 Y-84.769
X-100.92 Y-85.145
X-101.085 Y-85.526
X-101.238 Y-85.914
X-101.376 Y-86.306
X-101.5 Y-86.704
X-101.611 Y-87.105
X-101.706 Y-87.511
X-101.788 Y-87.92
X-101.855 Y-88.331
X-101.907 Y-88.744
X-101.944 Y-89.16
X-101.967 Y-89.576
X-101.975 Y-89.993
X-101.968 Y-90.41
X-101.947 Y-90.826
X-101.91 Y-91.242
X-101.859 Y-91.656
X-101.793 Y-92.068
X-101.713 Y-92.477
X-101.618 Y-92.884
X-101.508 Y-93.286
X-101.385 Y-93.685
X-101.247 Y-94.079
X-101.095 Y-94.468
X-100.93 Y-94.851
X-100.751 Y-95.229
X-100.559 Y-95.599
X-100.354 Y-95.963
X-100.136 Y-96.319
X-99.905 Y-96.667
X-99.662 Y-97.007
X-99.408 Y-97.338
X-99.141 Y-97.659
X-98.864 Y-97.971
X-98.575 Y-98.273
X-98.276 Y-98.565
X-97.967 Y-98.845
X-97.648 Y-99.115
X-97.32 Y-99.373
X-96.982 Y-99.619
X-96.636 Y-99.854
X-96.283 Y-100.075
X-95.921 Y-100.284
X-95.552 Y-100.48
X-95.176 Y-100.663
X-94.795 Y-100.832
X-94.407 Y-100.988
X-94.014 Y-101.13
X-93.616 Y-101.258
X-93.214 Y-101.371
X-92.809 Y-101.47
X-92.4 Y-101.555
X-91.988 Y-101.625
X-91.574 Y-101.681
X-91.158 Y-101.722
X-90.741 Y-101.747
X-90.324 Y-101.759
X-89.906 Y-101.755
X-89.488 Y-101.736
X-89.072 Y-101.703
X-88.656 Y-101.655
X-88.242 Y-101.592
X-87.83 Y-101.514
X-87.421 Y-101.422
X-87.014 Y-101.315
X-86.611 Y-101.193
X-86.211 Y-101.056
X-85.816 Y-100.906
X-85.424 Y-100.74
X-85.038 Y-100.561
X-84.657 Y-100.367
X-84.282 Y-100.159
X-83.913 Y-99.937
X-83.551 Y-99.701
X-83.196 Y-99.452
X-82.85 Y-99.189
X-82.511 Y-98.913
X-82.182 Y-98.625
X-81.862 Y-98.324
X-81.553 Y-98.011
X-81.254 Y-97.687
X-80.966 Y-97.351
X-80.689 Y-97.005
X-80.425 Y-96.649
X-80.174 Y-96.284
X-79.936 Y-95.909
X-79.711 Y-95.527
X-79.499 Y-95.136
X-79.302 Y-94.739
X-79.119 Y-94.335
X-78.951 Y-93.925
X-78.798 Y-93.511
X-78.66 Y-93.091
X-78.536 Y-92.667
X-78.429 Y-92.241
X-78.336 Y-91.811
X-78.259 Y-91.379
X-78.198 Y-90.945
X-78.152 Y-90.51
X-78.121 Y-90.075
X-78.106 Y-89.639
X-78.107 Y-89.204
X-78.123 Y-88.77
X-78.154 Y-88.338
X-78.201 Y-87.907
X-78.263 Y-87.479
X-78.34 Y-87.054
X-78.432 Y-86.632
X-78.538 Y-86.214
X-78.66 Y-85.801
X-78.796 Y-85.392
X-78.946 Y-84.989
X-79.11 Y-84.591
X-79.289 Y-84.2
X-79.481 Y-83.815
X-79.687 Y-83.437
X-79.906 Y-83.067
X-80.138 Y-82.704
X-80.383 Y-82.35
X-80.641 Y-82.005
X-80.91 Y-81.669
X-81.192 Y-81.342
X-81.486 Y-81.025
X-81.79 Y-80.719
X-82.106 Y-80.423
X-82.433 Y-80.139
X-82.769 Y-79.866
X-83.116 Y-79.605
X-83.472 Y-79.356
X-83.837 Y-79.119
X-84.211 Y-78.896
X-84.593 Y-78.685
X-84.983 Y-78.488
X-85.38 Y-78.305
X-85.783 Y-78.136
X-86.194 Y-77.98
X-86.609 Y-77.84
X-87.031 Y-77.714
X-87.457 Y-77.603
X-87.887 Y-77.507
X-88.321 Y-77.426
X-88.758 Y-77.361
X-89.198 Y-77.311
X-89.639 Y-77.277
X-90.083 Y-77.258
X-90.527 Y-77.256
X-90.971 Y-77.269
X-91.416 Y-77.297
X-91.859 Y-77.342
X-92.301 Y-77.402
X-92.741 Y-77.479
X-93.179 Y-77.57
X-93.613 Y-77.678
X-94.044 Y-77.801
X-94.471 Y-77.939
X-94.893 Y-78.093
X-95.309 Y-78.261
X-95.719 Y-78.444
X-96.124 Y-78.642
X-96.521 Y-78.855
X-96.91 Y-79.081
X-97.292 Y-79.322
X-97.665 Y-79.575
X-98.028 Y-79.843
X-98.383 Y-80.123
X-98.727 Y-80.415
X-99.061 Y-80.72
X-99.384 Y-81.037
X-99.696 Y-81.365
X-99.996 Y-81.704
X-100.284 Y-82.054
X-100.56 Y-82.414
X-100.823 Y-82.783
X-101.072 Y-83.162
X-101.308 Y-83.55
X-101.53 Y-83.946
X-101.738 Y-84.349
X-101.931 Y-84.76
X-102.11 Y-85.178
X-102.274 Y-85.602
X-102.423 Y-86.031
X-102.557 Y-86.466
X-102.675 Y-86.905
X-102.777 Y-87.348
X-102.864 Y-87.795
X-102.934 Y-88.244
X-102.989 Y-88.696
X-103.028 Y-89.15
X-103.05 Y-89.605
X-103.056 Y-90.06
X-103.046 Y-90.515
X-103.02 Y-90.97
X-102.978 Y-91.423
X-102.92 Y-91.875
X-102.846 Y-92.325
X-102.755 Y-92.771
X-102.649 Y-93.214
X-102.528 Y-93.653
X-102.391 Y-94.088
X-102.238 Y-94.518
X-102.07 Y-94.941
X-101.887 Y-95.359
X-101.69 Y-95.77
X-101.478 Y-96.173
X-101.252 Y-96.569
X-101.012 Y-96.957
X-100.758 Y-97.336
X-100.491 Y-97.705
X-100.211 Y-98.065
X-99.918 Y-98.415
X-99.614 Y-98.754
X-99.297 Y-99.082
X-98.969 Y-99.399
X-98.629 Y-99.704
X-98.28 Y-99.996
X-97.919 Y-100.276
X-97.55 Y-100.543
X-97.171 Y-100.797
X-96.783 Y-101.037
X-96.387 Y-101.263
X-95.983 Y-101.475
X-95.572 Y-101.672
X-95.154 Y-101.855
X-94.73 Y-102.023
X-94.3 Y-102.176
X-93.865 Y-102.313
X-93.425 Y-102.435
X-92.982 Y-102.541
X-92.534 Y-102.631
X-92.084 Y-102.705
X-91.632 Y-102.763
X-91.177 Y-102.805
X-90.722 Y-102.831
X-90.265 Y-102.841
X-89.809 Y-102.835
X-89.352 Y-102.812
X-88.896 Y-102.773
X-88.441 Y-102.718
X-87.988 Y-102.647
X-87.538 Y-102.559
X-87.089 Y-102.455
X-86.644 Y-102.336
X-86.203 Y-102.2
X-85.765 Y-102.048
X-85.332 Y-101.881
X-84.905 Y-101.697
X-84.483 Y-101.498
X-84.067 Y-101.284
X-83.658 Y-101.055
X-83.256 Y-100.81
X-82.862 Y-100.55
X-82.477 Y-100.276
X-82.101 Y-99.988
X-81.734 Y-99.686
X-81.377 Y-99.37
X-81.032 Y-99.042
X-80.697 Y-98.7
X-80.374 Y-98.346
X-80.064 Y-97.981
X-79.767 Y-97.605
X-79.483 Y-97.217
X-79.213 Y-96.82
X-78.956 Y-96.414
X-78.715 Y-95.998
X-78.488 Y-95.574
X-78.277 Y-95.143
X-78.082 Y-94.704
X-77.902 Y-94.26
X-77.738 Y-93.809
X-77.59 Y-93.353
X-77.459 Y-92.893
X-77.345 Y-92.429
X-77.247 Y-91.962
X-77.165 Y-91.492
X-77.101 Y-91.021
X-77.054 Y-90.548
X-77.023 Y-90.074
X-77.009 Y-89.6
X-77.012 Y-89.126
X-77.032 Y-88.653
X-77.069 Y-88.182
X-77.122 Y-87.712
X-77.192 Y-87.246
X-77.278 Y-86.782
X-77.381 Y-86.323
X-77.5 Y-85.867
X-77.635 Y-85.416
X-77.785 Y-84.971
X-77.952 Y-84.531
X-78.134 Y-84.098
X-78.331 Y-83.671
X-78.543 Y-83.252
X-78.77 Y-82.84
X-79.011 Y-82.437
X-79.267 Y-82.042
X-79.537 Y-81.657
X-79.82 Y-81.281
X-80.117 Y-80.915
X-80.426 Y-80.56
X-80.749 Y-80.216
X-81.083 Y-79.884
X-81.429 Y-79.563
X-81.787 Y-79.254
X-82.156 Y-78.958
X-82.536 Y-78.675
X-82.926 Y-78.406
X-83.325 Y-78.15
X-83.734 Y-77.908
X-84.152 Y-77.681
X-84.578 Y-77.468
X-85.012 Y-77.271
X-85.453 Y-77.088
X-85.9 Y-76.922
X-86.354 Y-76.771
X-86.814 Y-76.636
X-87.278 Y-76.518
X-87.747 Y-76.416
X-88.22 Y-76.33
X-88.696 Y-76.262
X-89.175 Y-76.21
X-89.656 Y-76.175
X-90.138 Y-76.157
X-90.621
X-91.105 Y-76.174
X-91.588 Y-76.207
X-92.07 Y-76.258
X-92.55 Y-76.327
X-93.028 Y-76.412
X-93.504 Y-76.514
X-93.975 Y-76.634
X-94.443 Y-76.77
X-94.906 Y-76.922
X-95.363 Y-77.092
X-95.815 Y-77.277
X-96.26 Y-77.479
X-96.698 Y-77.696
X-97.128 Y-77.929
X-97.55 Y-78.177
X-97.963 Y-78.441
X-98.367 Y-78.719
X-98.761 Y-79.011
X-99.144 Y-79.317
X-99.517 Y-79.637
X-99.878 Y-79.97
X-100.227 Y-80.316
X-100.564 Y-80.674
X-100.888 Y-81.044
X-101.199 Y-81.426
X-101.496 Y-81.819
X-101.78 Y-82.222
X-102.049 Y-82.635
X-102.303 Y-83.057
X-102.542 Y-83.488
X-102.765 Y-83.928
X-102.973 Y-84.375
X-103.165 Y-84.83
X-103.341 Y-85.291
X-103.5 Y-85.759
X-103.643 Y-86.232
X-103.768 Y-86.709
X-103.877 Y-87.191
X-103.969 Y-87.677
X-104.043 Y-88.166
X-104.1 Y-88.657
X-104.139 Y-89.15
X-104.161 Y-89.644
X-104.165 Y-90.138
X-104.152 Y-90.633
X-104.121 Y-91.127
X-104.073 Y-91.619
X-104.007 Y-92.11
X-103.923 Y-92.598
X-103.823 Y-93.082
X-103.705 Y-93.563
X-103.57 Y-94.039
X-103.419 Y-94.511
X-103.251 Y-94.976
X-103.066 Y-95.436
X-102.865 Y-95.888
X-102.648 Y-96.334
X-102.416 Y-96.771
X-102.168 Y-97.2
X-101.905 Y-97.619
X-101.627 Y-98.03
X-101.335 Y-98.43
X-101.029 Y-98.819
X-100.709 Y-99.197
X-100.376 Y-99.564
X-100.03 Y-99.919
X-99.671 Y-100.261
X-99.301 Y-100.59
X-98.919 Y-100.906
X-98.527 Y-101.208
X-98.123 Y-101.496
X-97.71 Y-101.769
X-97.288 Y-102.028
X-96.856 Y-102.271
X-96.416 Y-102.499
X-95.968 Y-102.712
X-95.513 Y-102.908
X-95.051 Y-103.088
X-94.583 Y-103.251
X-94.11 Y-103.398
X-93.632 Y-103.527
X-93.149 Y-103.64
X-92.663 Y-103.736
X-92.173 Y-103.814
X-91.68 Y-103.875
X-91.186 Y-103.918
X-90.69 Y-103.944
X-90.193 Y-103.952
X-89.696 Y-103.942
X-89.199 Y-103.915
X-88.703 Y-103.87
X-88.208 Y-103.807
X-87.715 Y-103.727
X-87.224 Y-103.629
X-86.737 Y-103.513
X-86.253 Y-103.38
X-85.772 Y-103.23
X-85.297 Y-103.062
X-84.827 Y-102.878
X-84.363 Y-102.676
X-83.905 Y-102.457
X-83.454 Y-102.222
X-83.011 Y-101.97
X-82.576 Y-101.702
X-82.15 Y-101.418
X-81.734 Y-101.119
X-81.328 Y-100.805
X-80.933 Y-100.475
X-80.549 Y-100.132
X-80.176 Y-99.774
X-79.817 Y-99.403
X-79.47 Y-99.019
X-79.137 Y-98.623
X-78.818 Y-98.215
X-78.513 Y-97.795
X-78.224 Y-97.365
X-77.95 Y-96.924
X-77.691 Y-96.474
X-77.449 Y-96.015
X-77.224 Y-95.549
X-77.015 Y-95.074
X-76.823 Y-94.593
X-76.649 Y-94.105
X-76.492 Y-93.612
X-76.353 Y-93.114
X-76.231 Y-92.611
X-76.128 Y-92.106
X-76.043 Y-91.597
X-75.976 Y-91.086
X-75.927 Y-90.573
X-75.897 Y-90.06
X-75.884 Y-89.546
X-75.89 Y-89.032
X-75.915 Y-88.52
X-75.957 Y-88.009
X-76.017 Y-87.5
X-76.096 Y-86.994
X-76.192 Y-86.492
X-76.306 Y-85.993
X-76.438 Y-85.499
X-76.587 Y-85.011
X-76.753 Y-84.528
X-76.936 Y-84.051
X-77.136 Y-83.581
X-77.353 Y-83.119
X-77.586 Y-82.664
X-77.835 Y-82.218
X-78.099 Y-81.782
X-78.379 Y-81.354
X-78.675 Y-80.937
X-78.985 Y-80.53
X-79.309 Y-80.135
X-79.647 Y-79.751
X-79.999 Y-79.379
X-80.364 Y-79.02
X-80.742 Y-78.673
X-81.133 Y-78.34
X-81.535 Y-78.021
X-81.949 Y-77.716
X-82.373 Y-77.425
X-82.808 Y-77.15
X-83.253 Y-76.89
X-83.708 Y-76.646
X-84.171 Y-76.418
X-84.642 Y-76.206
X-85.122 Y-76.011
X-85.608 Y-75.833
X-86.101 Y-75.672
X-86.6 Y-75.528
X-87.104 Y-75.402
X-87.612 Y-75.294
X-88.125 Y-75.205
X-88.642 Y-75.133
X-89.16 Y-75.08
X-89.682 Y-75.045
X-90.204 Y-75.028
X-90.727 Y-75.03
X-91.251 Y-75.051
X-91.773 Y-75.091
X-92.295 Y-75.149
X-92.814 Y-75.225
X-93.331 Y-75.32
X-93.845 Y-75.434
X-94.355 Y-75.565
X-94.86 Y-75.715
X-95.36 Y-75.883
X-95.854 Y-76.069
X-96.342 Y-76.272
X-96.822 Y-76.493
X-97.295 Y-76.73
X-97.759 Y-76.985
X-98.214 Y-77.256
X-98.659 Y-77.543
X-99.094 Y-77.846
X-99.519 Y-78.164
X-99.932 Y-78.498
X-100.333 Y-78.846
X-100.722 Y-79.208
X-101.098 Y-79.584
X-101.46 Y-79.973
X-101.808 Y-80.376
X-102.142 Y-80.79
X-102.462 Y-81.216
X-102.766 Y-81.654
X-103.054 Y-82.102
X-103.327 Y-82.56
X-103.583 Y-83.028
X-103.822 Y-83.505
X-104.044 Y-83.99
X-104.249 Y-84.482
X-104.437 Y-84.982
X-104.606 Y-85.489
X-104.758 Y-86.001
X-104.891 Y-86.518
X-105.006 Y-87.04
X-105.102 Y-87.566
X-105.18 Y-88.095
X-105.238 Y-88.626
X-105.278 Y-89.16
X-105.299 Y-89.694
X-105.301 Y-90.229
X-105.284 Y-90.764
X-105.248 Y-91.297
X-105.192 Y-91.83
X-105.118 Y-92.36
X-105.026 Y-92.887
X-104.914 Y-93.411
X-104.784 Y-93.93
X-104.636 Y-94.444
X-104.469 Y-94.953
X-104.285 Y-95.456
X-104.082 Y-95.952
X-103.863 Y-96.44
X-103.626 Y-96.92
X-103.372 Y-97.392
X-103.101 Y-97.854
X-102.814 Y-98.307
X-102.512 Y-98.749
X-102.193 Y-99.18
X-101.86 Y-99.599
X-101.512 Y-100.006
X-101.15 Y-100.401
X-100.773 Y-100.783
X-100.384 Y-101.151
X-99.982 Y-101.505
X-99.567 Y-101.844
X-99.141 Y-102.169
X-98.703 Y-102.478
X-98.254 Y-102.771
X-97.796 Y-103.048
X-97.328 Y-103.309
X-96.851 Y-103.553
X-96.365 Y-103.78
X-95.872 Y-103.99
X-95.371 Y-104.182
X-94.864 Y-104.356
X-94.351 Y-104.512
X-93.833 Y-104.65
X-93.31 Y-104.769
X-92.783 Y-104.87
X-92.252 Y-104.952
X-91.719 Y-105.015
X-91.184 Y-105.059
X-90.646 Y-105.084
X-90.108 Y-105.09
X-89.57 Y-105.076
X-89.032 Y-105.044
X-88.494 Y-104.992
X-87.959 Y-104.922
X-87.425 Y-104.832
X-86.894 Y-104.723
X-86.367 Y-104.595
X-85.843 Y-104.449
X-85.324 Y-104.283
X-84.811 Y-104.099
X-84.303 Y-103.897
X-83.802 Y-103.676
X-83.309 Y-103.437
X-82.823 Y-103.18
X-82.346 Y-102.905
X-81.878 Y-102.614
X-81.42 Y-102.305
X-80.973 Y-101.98
X-80.536 Y-101.639
X-80.112 Y-101.281
X-79.7 Y-100.909
X-79.301 Y-100.521
X-78.915 Y-100.12
X-78.544 Y-99.704
X-78.188 Y-99.275
X-77.846 Y-98.834
X-77.521 Y-98.38
X-77.212 Y-97.916
X-76.919 Y-97.44
X-76.643 Y-96.954
X-76.385 Y-96.459
X-76.145 Y-95.955
X-75.923 Y-95.442
X-75.719 Y-94.923
X-75.534 Y-94.397
X-75.368 Y-93.865
X-75.22 Y-93.327
X-75.092 Y-92.785
X-74.984 Y-92.239
X-74.895 Y-91.69
X-74.826 Y-91.139
X-74.776 Y-90.586
X-74.746 Y-90.031
X-74.736 Y-89.477
X-74.745 Y-88.923
X-74.774 Y-88.37
X-74.823 Y-87.818
X-74.891 Y-87.269
X-74.978 Y-86.723
X-75.085 Y-86.181
X-75.211 Y-85.643
X-75.356 Y-85.11
X-75.52 Y-84.583
X-75.702 Y-84.062
X-75.903 Y-83.548
X-76.122 Y-83.041
X-76.359 Y-82.543
X-76.613 Y-82.053
X-76.884 Y-81.572
X-77.173 Y-81.102
X-77.478 Y-80.642
X-77.799 Y-80.192
X-78.136 Y-79.755
X-78.489 Y-79.329
X-78.857 Y-78.916
X-79.239 Y-78.516
X-79.636 Y-78.13
X-80.046 Y-77.758
X-80.47 Y-77.4
X-80.906 Y-77.057
X-81.355 Y-76.73
X-81.815 Y-76.419
X-82.286 Y-76.124
X-82.768 Y-75.846
X-83.26 Y-75.585
X-83.762 Y-75.341
X-84.272 Y-75.115
X-84.79 Y-74.907
X-85.316 Y-74.718
X-85.849 Y-74.547
X-86.388 Y-74.395
X-86.932 Y-74.262
X-87.482 Y-74.148
X-88.036 Y-74.054
X-88.593 Y-73.98
X-89.153 Y-73.925
X-89.715 Y-73.891
X-90.278 Y-73.876
X-90.843 Y-73.881
X-91.407 Y-73.906
X-91.97 Y-73.952
X-92.532 Y-74.017
X-93.092 Y-74.103
X-93.648 Y-74.208
X-94.201 Y-74.333
X-94.75 Y-74.478
X-95.294 Y-74.642
X-95.831 Y-74.826
X-96.363 Y-75.029
X-96.887 Y-75.251
X-97.403 Y-75.491
X-97.911 Y-75.75
X-98.409 Y-76.026
X-98.898 Y-76.321
X-99.376 Y-76.633
X-99.843 Y-76.961
X-100.299 Y-77.307
X-100.742 Y-77.668
X-101.172 Y-78.045
X-101.588 Y-78.438
X-101.991 Y-78.845
X-102.379 Y-79.266
X-102.752 Y-79.701
X-103.11 Y-80.149
X-103.451 Y-80.61
X-103.776 Y-81.083
X-104.084 Y-81.567
X-104.375 Y-82.062
X-104.648 Y-82.568
X-104.903 Y-83.082
X-105.14 Y-83.606
X-105.358 Y-84.138
X-105.557 Y-84.677
X-105.737 Y-85.223
X-105.897 Y-85.776
X-106.037 Y-86.334
X-106.158 Y-86.896
X-106.259 Y-87.463
X-106.339 Y-88.033
X-106.4 Y-88.605
X-106.439 Y-89.18
X-106.459 Y-89.755
X-106.458 Y-90.331
X-106.436 Y-90.907
X-106.394 Y-91.482
X-106.332 Y-92.055
X-106.249 Y-92.625
X-106.147 Y-93.192
X-106.024 Y-93.755
X-105.881 Y-94.314
X-105.718 Y-94.867
X-105.536 Y-95.414
X-105.334 Y-95.954
X-105.114 Y-96.487
X-104.874 Y-97.011
X-104.616 Y-97.527
X-104.34 Y-98.034
X-104.046 Y-98.53
X-103.735 Y-99.015
X-103.407 Y-99.49
X-103.061 Y-99.952
X-102.7 Y-100.402
X-102.323 Y-100.838
X-101.931 Y-101.261
X-101.523 Y-101.67
X-101.102 Y-102.064
X-100.667 Y-102.443
X-100.218 Y-102.806
X-99.757 Y-103.153
X-99.284 Y-103.484
X-98.8 Y-103.797
X-98.305 Y-104.093
X-97.799 Y-104.372
X-97.284 Y-104.632
X-96.76 Y-104.874
X-96.227 Y-105.097
X-95.687 Y-105.3
X-95.14 Y-105.485
X-94.586 Y-105.65
X-94.027 Y-105.796
X-93.463 Y-105.921
X-92.895 Y-106.027
X-92.322 Y-106.112
X-91.747 Y-106.177
X-91.17 Y-106.221
X-90.591 Y-106.245
X-90.011 Y-106.249
X-89.43 Y-106.231
X-88.85 Y-106.194
X-88.271 Y-106.135
X-87.694 Y-106.056
X-87.12 Y-105.956
X-86.548 Y-105.836
X-85.98 Y-105.695
X-85.417 Y-105.534
X-84.859 Y-105.353
X-84.307 Y-105.152
X-83.762 Y-104.931
X-83.224 Y-104.69
X-82.694 Y-104.43
X-82.173 Y-104.151
X-81.662 Y-103.854
X-81.16 Y-103.537
X-80.67 Y-103.203
X-80.191 Y-102.851
X-79.724 Y-102.482
X-79.27 Y-102.096
X-78.83 Y-101.694
X-78.404 Y-101.276
X-77.992 Y-100.842
X-77.596 Y-100.394
X-77.216 Y-99.932
X-76.852 Y-99.457
X-76.506 Y-98.968
X-76.176 Y-98.468
X-75.865 Y-97.956
X-75.572 Y-97.433
X-75.298 Y-96.9
X-75.043 Y-96.358
X-74.808 Y-95.807
X-74.592 Y-95.249
X-74.396 Y-94.683
X-74.221 Y-94.111
X-74.066 Y-93.533
X-73.931 Y-92.951
X-73.818 Y-92.364
X-73.725 Y-91.774
X-73.654 Y-91.181
X-73.604 Y-90.587
X-73.574 Y-89.991
X-73.566 Y-89.395
X-73.58 Y-88.799
X-73.614 Y-88.205
X-73.669 Y-87.613
X-73.746 Y-87.023
X-73.843 Y-86.436
X-73.961 Y-85.853
X-74.1 Y-85.276
X-74.258 Y-84.703
X-74.438 Y-84.137
X-74.637 Y-83.577
X-74.856 Y-83.025
X-75.094 Y-82.482
X-75.351 Y-81.946
X-75.628 Y-81.421
X-75.922 Y-80.905
X-76.236 Y-80.401
X-76.566 Y-79.907
X-76.915 Y-79.426
X-77.28 Y-78.956
X-77.662 Y-78.501
X-78.06 Y-78.058
X-78.473 Y-77.63
X-78.902 Y-77.217
X-79.346 Y-76.819
X-79.803 Y-76.436
X-80.274 Y-76.07
X-80.759 Y-75.721
X-81.255 Y-75.389
X-81.764 Y-75.074
X-82.284 Y-74.778
X-82.814 Y-74.5
X-83.355 Y-74.241
X-83.904 Y-74.001
X-84.463 Y-73.78
X-85.029 Y-73.579
X-85.602 Y-73.399
X-86.182 Y-73.238
X-86.768 Y-73.099
X-87.359 Y-72.98
X-87.955 Y-72.882
X-88.554 Y-72.805
X-89.155 Y-72.749
X-89.759 Y-72.715
X-90.365 Y-72.703
X-90.97 Y-72.711
X-91.576 Y-72.742
X-92.181 Y-72.794
X-92.784 Y-72.867
X-93.384 Y-72.962
X-93.981 Y-73.078
X-94.574 Y-73.216
X-95.162 Y-73.374
X-95.745 Y-73.554
X-96.321 Y-73.754
X-96.89 Y-73.974
X-97.451 Y-74.215
X-98.004 Y-74.476
X-98.547 Y-74.756
X-99.081 Y-75.056
X-99.603 Y-75.375
X-100.115 Y-75.712
X-100.614 Y-76.067
X-101.101 Y-76.441
X-101.574 Y-76.831
X-102.033 Y-77.238
X-102.478 Y-77.661
X-102.908 Y-78.1
X-103.322 Y-78.554
X-103.719 Y-79.023
X-104.1 Y-79.506
X-104.464 Y-80.002
X-104.81 Y-80.511
X-105.138 Y-81.032
X-105.447 Y-81.565
X-105.737 Y-82.109
X-106.008 Y-82.662
X-106.259 Y-83.225
X-106.49 Y-83.797
X-106.7 Y-84.376
X-106.89 Y-84.963
X-107.059 Y-85.557
X-107.207 Y-86.156
X-107.333 Y-86.76
X-107.438 Y-87.368
X-107.521 Y-87.98
X-107.582 Y-88.595
X-107.622 Y-89.211
X-107.639 Y-89.829
X-107.635 Y-90.447
X-107.609 Y-91.064
X-107.561 Y-91.68
X-107.491 Y-92.294
X-107.399 Y-92.905
X-107.285 Y-93.513
X-107.15 Y-94.116
X-106.994 Y-94.715
X-106.816 Y-95.307
X-106.618 Y-95.893
X-106.399 Y-96.471
X-106.159 Y-97.041
X-105.899 Y-97.603
X-105.62 Y-98.155
X-105.321 Y-98.696
X-105.003 Y-99.227
X-104.666 Y-99.746
X-104.311 Y-100.253
X-103.938 Y-100.747
X-103.548 Y-101.227
X-103.141 Y-101.693
X-102.718 Y-102.145
X-102.279 Y-102.581
X-101.825 Y-103.001
X-101.356 Y-103.405
X-100.873 Y-103.792
X-100.377 Y-104.162
X-99.867 Y-104.514
X-99.346 Y-104.847
X-98.813 Y-105.162
X-98.269 Y-105.458
X-97.715 Y-105.734
X-97.151 Y-105.991
X-96.578 Y-106.227
X-95.998 Y-106.443
X-95.409 Y-106.638
X-94.815 Y-106.812
X-94.214 Y-106.965
X-93.607 Y-107.097
X-92.997 Y-107.207
X-92.382 Y-107.295
X-91.764 Y-107.361
X-91.144 Y-107.406
X-90.522 Y-107.428
X-89.899 Y-107.429
X-89.277 Y-107.407
X-88.654 Y-107.363
X-88.033 Y-107.297
X-87.414 Y-107.209
X-86.798 Y-107.098
X-86.185 Y-106.966
X-85.577 Y-106.812
X-84.974 Y-106.636
X-84.376 Y-106.439
X-83.785 Y-106.22
X-83.202 Y-105.98
X-82.627 Y-105.719
X-82.06 Y-105.438
X-81.503 Y-105.136
X-80.957 Y-104.814
X-80.422 Y-104.472
X-79.898 Y-104.112
X-79.387 Y-103.732
X-78.89 Y-103.334
X-78.406 Y-102.919
X-77.937 Y-102.486
X-77.484 Y-102.036
X-77.046 Y-101.57
X-76.625 Y-101.089
X-76.221 Y-100.593
X-75.835 Y-100.082
X-75.467 Y-99.558
X-75.118 Y-99.021
X-74.788 Y-98.472
X-74.477 Y-97.911
X-74.187 Y-97.34
X-73.918 Y-96.759
X-73.669 Y-96.169
X-73.441 Y-95.57
X-73.235 Y-94.964
X-73.05 Y-94.351
X-72.888 Y-93.732
X-72.747 Y-93.108
X-72.629 Y-92.479
X-72.534 Y-91.847
X-72.46 Y-91.213
X-72.41 Y-90.576
X-72.382 Y-89.938
X-72.377 Y-89.3
X-72.394 Y-88.662
X-72.434 Y-88.026
X-72.497 Y-87.391
X-72.582 Y-86.76
X-72.689 Y-86.132
X-72.819 Y-85.509
X-72.971 Y-84.89
X-73.144 Y-84.278
X-73.339 Y-83.672
X-73.556 Y-83.073
X-73.794 Y-82.483
X-74.052 Y-81.901
X-74.331 Y-81.329
X-74.63 Y-80.768
X-74.949 Y-80.217
X-75.287 Y-79.677
X-75.645 Y-79.15
X-76.021 Y-78.636
X-76.415 Y-78.135
X-76.827 Y-77.649
X-77.256 Y-77.177
X-77.701 Y-76.72
X-78.163 Y-76.28
X-78.641 Y-75.856
X-79.133 Y-75.449
X-79.64 Y-75.059
X-80.161 Y-74.688
X-80.695 Y-74.334
X-81.241 Y-74
X-81.8 Y-73.686
X-82.37 Y-73.391
X-82.95 Y-73.116
X-83.54 Y-72.862
X-84.139 Y-72.629
X-84.746 Y-72.417
X-85.362 Y-72.227
X-85.984 Y-72.059
X-86.612 Y-71.912
X-87.245 Y-71.788
X-87.883 Y-71.687
X-88.524 Y-71.608
X-89.169 Y-71.552
X-89.815 Y-71.519
X-90.463 Y-71.508
X-91.111 Y-71.521
X-91.759 Y-71.557
X-92.406 Y-71.616
X-93.05 Y-71.698
X-93.692 Y-71.803
X-94.33 Y-71.93
X-94.964 Y-72.081
X-95.592 Y-72.254
X-96.214 Y-72.449
X-96.829 Y-72.666
X-97.436 Y-72.905
X-98.035 Y-73.166
X-98.625 Y-73.448
X-99.204 Y-73.751
X-99.773 Y-74.074
X-100.33 Y-74.418
X-100.875 Y-74.781
X-101.407 Y-75.164
X-101.925 Y-75.566
X-102.429 Y-75.986
X-102.918 Y-76.424
X-103.391 Y-76.879
X-103.848 Y-77.35
X-104.288 Y-77.838
X-104.711 Y-78.342
X-105.115 Y-78.86
X-105.502 Y-79.393
X-105.869 Y-79.939
X-106.216 Y-80.498
X-106.544 Y-81.069
X-106.851 Y-81.651
X-107.137 Y-82.244
X-107.402 Y-82.848
X-107.646 Y-83.46
X-107.867 Y-84.081
X-108.067 Y-84.709
X-108.244 Y-85.345
X-108.399 Y-85.986
X-108.531 Y-86.632
X-108.639 Y-87.283
X-108.725 Y-87.938
X-108.787 Y-88.595
X-108.826 Y-89.254
X-108.841 Y-89.914
X-108.833 Y-90.575
X-108.802 Y-91.234
X-108.747 Y-91.893
X-108.668 Y-92.549
X-108.567 Y-93.202
X-108.442 Y-93.851
X-108.294 Y-94.495
X-108.124 Y-95.133
X-107.931 Y-95.766
X-107.715 Y-96.391
X-107.478 Y-97.007
X-107.218 Y-97.616
X-106.938 Y-98.214
X-106.636 Y-98.803
X-106.313 Y-99.38
X-105.97 Y-99.945
X-105.608 Y-100.498
X-105.225 Y-101.038
X-104.824 Y-101.564
X-104.404 Y-102.075
X-103.967 Y-102.571
X-103.512 Y-103.052
X-103.04 Y-103.516
X-102.552 Y-103.962
X-102.049 Y-104.392
X-101.53 Y-104.803
X-100.998 Y-105.195
X-100.451 Y-105.568
X-99.892 Y-105.922
X-99.32 Y-106.256
X-98.737 Y-106.569
X-98.143 Y-106.861
X-97.539 Y-107.132
X-96.925 Y-107.382
X-96.303 Y-107.609
X-95.673 Y-107.815
X-95.036 Y-107.997
X-94.392 Y-108.158
X-93.743 Y-108.295
X-93.089 Y-108.409
X-92.431 Y-108.5
X-91.77 Y-108.568
X-91.106 Y-108.612
X-90.441 Y-108.633
X-89.775 Y-108.63
X-89.109 Y-108.603
X-88.444 Y-108.552
X-87.78 Y-108.478
X-87.118 Y-108.381
X-86.46 Y-108.259
X-85.806 Y-108.114
X-85.156 Y-107.946
X-84.513 Y-107.755
X-83.875 Y-107.541
X-83.245 Y-107.304
X-82.623 Y-107.044
X-82.01 Y-106.762
X-81.407 Y-106.458
X-80.814 Y-106.133
X-80.232 Y-105.786
X-79.663 Y-105.419
X-79.106 Y-105.031
X-78.563 Y-104.623
X-78.035 Y-104.196
X-77.521 Y-103.75
X-77.024 Y-103.285
X-76.542 Y-102.803
X-76.078 Y-102.304
X-75.632 Y-101.789
X-75.204 Y-101.257
X-74.795 Y-100.711
X-74.405 Y-100.15
X-74.036 Y-99.575
X-73.687 Y-98.988
X-73.36 Y-98.389
X-73.053 Y-97.778
X-72.769 Y-97.157
X-72.507 Y-96.526
X-72.267 Y-95.886
X-72.051 Y-95.239
X-71.857 Y-94.584
X-71.688 Y-93.923
X-71.541 Y-93.256
X-71.419 Y-92.585
X-71.32 Y-91.91
X-71.246 Y-91.233
X-71.195 Y-90.553
X-71.169 Y-89.872
X-71.167 Y-89.191
X-71.189 Y-88.511
X-71.235 Y-87.831
X-71.306 Y-87.155
X-71.4 Y-86.481
X-71.518 Y-85.811
X-71.66 Y-85.146
X-71.826 Y-84.487
X-72.014 Y-83.833
X-72.226 Y-83.188
X-72.461 Y-82.55
X-72.718 Y-81.92
X-72.997 Y-81.301
X-73.298 Y-80.691
X-73.621 Y-80.093
X-73.964 Y-79.506
X-74.329 Y-78.932
X-74.713 Y-78.371
X-75.118 Y-77.824
X-75.542 Y-77.291
X-75.984 Y-76.774
X-76.445 Y-76.273
X-76.924 Y-75.788
X-77.419 Y-75.32
X-77.931 Y-74.869
X-78.46 Y-74.437
X-79.003 Y-74.024
X-79.561 Y-73.63
X-80.133 Y-73.256
X-80.719 Y-72.903
X-81.316 Y-72.57
X-81.926 Y-72.258
X-82.547 Y-71.969
X-83.178 Y-71.701
X-83.819 Y-71.455
X-84.468 Y-71.233
X-85.126 Y-71.033
X-85.791 Y-70.857
X-86.462 Y-70.704
X-87.138 Y-70.575
X-87.819 Y-70.471
X-88.504 Y-70.39
X-89.192 Y-70.334
X-89.881 Y-70.302
X-90.572 Y-70.295
X-91.264 Y-70.312
X-91.954 Y-70.354
X-92.644 Y-70.42
X-93.331 Y-70.511
X-94.014 Y-70.626
X-94.694 Y-70.766
X-95.369 Y-70.93
X-96.037 Y-71.118
X-96.7 Y-71.329
X-97.354 Y-71.564
X-98 Y-71.823
X-98.637 Y-72.104
X-99.264 Y-72.408
X-99.881 Y-72.734
X-100.485 Y-73.082
X-101.077 Y-73.451
X-101.656 Y-73.842
X-102.221 Y-74.253
X-102.771 Y-74.684
X-103.305 Y-75.134
X-103.824 Y-75.603
X-104.326 Y-76.091
X-104.81 Y-76.596
X-105.276 Y-77.119
X-105.724 Y-77.657
X-106.152 Y-78.212
X-106.561 Y-78.782
X-106.949 Y-79.366
X-107.316 Y-79.963
X-107.662 Y-80.574
X-107.986 Y-81.196
X-108.288 Y-81.83
X-108.567 Y-82.474
X-108.823 Y-83.128
X-109.056 Y-83.791
X-109.265 Y-84.462
X-109.45 Y-85.139
X-109.611 Y-85.824
X-109.748 Y-86.513
X-109.86 Y-87.207
X-109.948 Y-87.905
X-110.01 Y-88.606
X-110.048 Y-89.308
X-110.061 Y-90.012
X-110.049 Y-90.715
X-110.011 Y-91.418
X-109.949 Y-92.119
X-109.862 Y-92.818
X-109.75 Y-93.513
X-109.614 Y-94.204
X-109.453 Y-94.889
X-109.268 Y-95.569
X-109.058 Y-96.241
X-108.825 Y-96.906
X-108.569 Y-97.562
X-108.289 Y-98.209
X-107.987 Y-98.845
X-107.662 Y-99.47
X-107.315 Y-100.083
X-106.946 Y-100.684
X-106.557 Y-101.271
X-106.146 Y-101.844
X-105.716 Y-102.402
X-105.266 Y-102.945
X-104.797 Y-103.471
X-104.31 Y-103.98
X-103.805 Y-104.472
X-103.282 Y-104.945
X-102.743 Y-105.4
X-102.189 Y-105.835
X-101.619 Y-106.25
X-101.034 Y-106.645
X-100.436 Y-107.018
X-99.825 Y-107.371
X-99.202 Y-107.701
X-98.567 Y-108.009
X-97.922 Y-108.295
X-97.267 Y-108.557
X-96.602 Y-108.796
X-95.93 Y-109.012
X-95.25 Y-109.203
X-94.563 Y-109.37
X-93.87 Y-109.513
X-93.173 Y-109.631
X-92.471 Y-109.725
X-91.766 Y-109.793
X-91.058 Y-109.837
X-90.349 Y-109.855
X-89.639 Y-109.848
X-88.929 Y-109.816
X-88.221 Y-109.758
X-87.514 Y-109.675
X-86.809 Y-109.568
X-86.109 Y-109.435
X-85.413 Y-109.277
X-84.722 Y-109.094
X-84.037 Y-108.887
X-83.36 Y-108.655
X-82.69 Y-108.399
X-82.029 Y-108.119
X-81.378 Y-107.816
X-80.738 Y-107.489
X-80.108 Y-107.139
X-79.491 Y-106.767
X-78.888 Y-106.373
X-78.297 Y-105.957
X-77.722 Y-105.52
X-77.162 Y-105.063
X-76.618 Y-104.586
X-76.092 Y-104.089
X-75.582 Y-103.574
X-75.092 Y-103.04
X-74.62 Y-102.49
X-74.168 Y-101.922
X-73.736 Y-101.339
X-73.325 Y-100.74
X-72.935 Y-100.128
X-72.568 Y-99.501
X-72.223 Y-98.862
X-71.901 Y-98.211
X-71.602 Y-97.549
X-71.327 Y-96.877
X-71.076 Y-96.195
X-70.849 Y-95.506
X-70.647 Y-94.808
X-70.47 Y-94.104
X-70.318 Y-93.395
X-70.191 Y-92.68
X-70.09 Y-91.962
X-70.015 Y-91.241
X-69.965 Y-90.517
X-69.941 Y-89.793
X-69.942 Y-89.068
X-69.97 Y-88.344
X-70.023 Y-87.622
X-70.101 Y-86.902
X-70.206 Y-86.186
X-70.335 Y-85.474
X-70.49 Y-84.767
X-70.669 Y-84.066
X-70.874 Y-83.372
X-71.103 Y-82.686
X-71.356 Y-82.008
X-71.633 Y-81.34
X-71.934 Y-80.682
X-72.258 Y-80.035
X-72.604 Y-79.399
X-72.974 Y-78.777
X-73.365 Y-78.168
X-73.777 Y-77.573
X-74.211 Y-76.993
X-74.665 Y-76.428
X-75.138 Y-75.88
X-75.632 Y-75.349
X-76.144 Y-74.835
X-76.674 Y-74.34
X-77.221 Y-73.864
X-77.786 Y-73.407
X-78.367 Y-72.97
X-78.963 Y-72.554
X-79.573 Y-72.159
X-80.198 Y-71.786
X-80.836 Y-71.435
X-81.487 Y-71.107
X-82.149 Y-70.802
X-82.822 Y-70.521
X-83.505 Y-70.263
X-84.197 Y-70.03
X-84.898 Y-69.821
X-85.605 Y-69.638
X-86.32 Y-69.479
X-87.04 Y-69.346
X-87.765 Y-69.238
X-88.494 Y-69.156
X-89.225 Y-69.1
X-89.959 Y-69.07
X-90.694 Y-69.066
X-91.429 Y-69.089
X-92.163 Y-69.137
X-92.895 Y-69.211
X-93.625 Y-69.312
X-94.351 Y-69.438
X-95.073 Y-69.59
X-95.789 Y-69.768
X-96.499 Y-69.972
X-97.201 Y-70.2
X-97.896 Y-70.454
X-98.581 Y-70.732
X-99.257 Y-71.034
X-99.921 Y-71.36
X-100.574 Y-71.71
X-101.215 Y-72.084
X-101.842 Y-72.479
X-102.454 Y-72.898
X-103.052 Y-73.337
X-103.634 Y-73.798
X-104.2 Y-74.28
X-104.748 Y-74.781
X-105.279 Y-75.302
X-105.791 Y-75.842
X-106.283 Y-76.399
X-106.756 Y-76.974
X-107.207 Y-77.566
X-107.638 Y-78.173
X-108.047 Y-78.796
X-108.434 Y-79.433
X-108.798 Y-80.083
X-109.139 Y-80.746
X-109.456 Y-81.421
X-109.749 Y-82.107
X-110.018 Y-82.803
X-110.261 Y-83.508
X-110.48 Y-84.222
X-110.673 Y-84.943
X-110.84 Y-85.671
X-110.982 Y-86.404
X-111.097 Y-87.142
X-111.186 Y-87.884
X-111.249 Y-88.628
X-111.285 Y-89.375
X-111.294 Y-90.122
X-111.278 Y-90.869
X-111.234 Y-91.616
X-111.164 Y-92.36
X-111.068 Y-93.102
X-110.945 Y-93.839
X-110.796 Y-94.572
X-110.622 Y-95.3
X-110.421 Y-96.02
X-110.195 Y-96.734
X-109.944 Y-97.438
X-109.668 Y-98.134
X-109.367 Y-98.819
X-109.042 Y-99.493
X-108.694 Y-100.155
X-108.322 Y-100.805
X-107.927 Y-101.441
X-107.51 Y-102.062
X-107.071 Y-102.669
X-106.611 Y-103.259
X-106.13 Y-103.833
X-105.629 Y-104.389
X-105.108 Y-104.927
X-104.569 Y-105.447
X-104.012 Y-105.947
X-103.437 Y-106.426
X-102.845 Y-106.886
X-102.237 Y-107.324
X-101.614 Y-107.74
X-100.977 Y-108.133
X-100.326 Y-108.504
X-99.662 Y-108.852
X-98.986 Y-109.176
X-98.299 Y-109.476
X-97.601 Y-109.751
X-96.894 Y-110.001
X-96.178 Y-110.226
X-95.454 Y-110.426
X-94.724 Y-110.6
X-93.987 Y-110.748
X-93.245 Y-110.869
X-92.499 Y-110.965
X-91.75 Y-111.033
X-90.998 Y-111.076
X-90.244 Y-111.091
X-89.49 Y-111.08
X-88.736 Y-111.042
X-87.983 Y-110.977
X-87.233 Y-110.885
X-86.486 Y-110.766
X-85.742 Y-110.621
X-85.004 Y-110.45
X-84.271 Y-110.252
X-83.545 Y-110.028
X-82.827 Y-109.778
X-82.118 Y-109.503
X-81.418 Y-109.202
X-80.729 Y-108.876
X-80.051 Y-108.526
X-79.385 Y-108.152
X-78.732 Y-107.753
X-78.094 Y-107.332
X-77.47 Y-106.887
X-76.862 Y-106.421
X-76.271 Y-105.933
X-75.697 Y-105.423
X-75.141 Y-104.894
X-74.604 Y-104.345
X-74.086 Y-103.776
X-73.589 Y-103.19
X-73.113 Y-102.586
X-72.658 Y-101.965
X-72.226 Y-101.328
X-71.816 Y-100.676
X-71.43 Y-100.01
X-71.068 Y-99.331
X-70.73 Y-98.639
X-70.417 Y-97.935
X-70.129 Y-97.221
X-69.866 Y-96.497
X-69.63 Y-95.764
X-69.419 Y-95.024
X-69.235 Y-94.276
X-69.078 Y-93.523
X-68.948 Y-92.765
X-68.845 Y-92.002
X-68.769 Y-91.237
X-68.72 Y-90.469
X-68.698 Y-89.701
X-68.704 Y-88.932
X-68.737 Y-88.165
X-68.797 Y-87.399
X-68.885 Y-86.635
X-68.999 Y-85.876
X-69.14 Y-85.121
X-69.309 Y-84.372
X-69.503 Y-83.629
X-69.724 Y-82.894
X-69.971 Y-82.167
X-70.243 Y-81.449
X-70.541 Y-80.741
X-70.864 Y-80.045
X-71.211 Y-79.36
X-71.582 Y-78.688
X-71.977 Y-78.029
X-72.396 Y-77.385
X-72.837 Y-76.756
X-73.3 Y-76.142
X-73.785 Y-75.546
X-74.291 Y-74.967
X-74.817 Y-74.406
X-75.363 Y-73.864
X-75.929 Y-73.341
X-76.512 Y-72.839
X-77.114 Y-72.357
X-77.732 Y-71.897
X-78.367 Y-71.459
X-79.017 Y-71.043
X-79.682 Y-70.651
X-80.361 Y-70.282
X-81.053 Y-69.938
X-81.757 Y-69.618
X-82.472 Y-69.323
X-83.198 Y-69.054
X-83.934 Y-68.81
X-84.678 Y-68.593
X-85.429 Y-68.402
X-86.188 Y-68.238
X-86.952 Y-68.1
X-87.722 Y-67.99
X-88.495 Y-67.907
X-89.271 Y-67.852
X-90.049 Y-67.824
X-90.828
X-91.607 Y-67.852
X-92.385 Y-67.907
X-93.161 Y-67.99
X-93.934 Y-68.101
X-94.703 Y-68.239
X-95.467 Y-68.404
X-96.225 Y-68.596
X-96.977 Y-68.816
X-97.72 Y-69.062
X-98.455 Y-69.334
X-99.179 Y-69.633
X-99.893 Y-69.957
X-100.596 Y-70.307
X-101.286 Y-70.681
X-101.962 Y-71.08
X-102.625 Y-71.503
X-103.272 Y-71.949
X-103.903 Y-72.419
X-104.517 Y-72.91
X-105.114 Y-73.423
X-105.692 Y-73.958
X-106.251 Y-74.513
X-106.79 Y-75.087
X-107.309 Y-75.681
X-107.806 Y-76.292
X-108.282 Y-76.921
X-108.735 Y-77.567
X-109.165 Y-78.229
X-109.571 Y-78.906
X-109.953 Y-79.597
X-110.311 Y-80.301
X-110.643 Y-81.018
X-110.949 Y-81.746
X-111.23 Y-82.485
X-111.484 Y-83.234
X-111.712 Y-83.991
X-111.912 Y-84.756
X-112.086 Y-85.528
X-112.231 Y-86.305
X-112.349 Y-87.088
X-112.44 Y-87.874
X-112.502 Y-88.663
X-112.536 Y-89.454
X-112.542 Y-90.245
X-112.52 Y-91.037
X-112.47 Y-91.827
X-112.392 Y-92.615
X-112.286 Y-93.4
X-112.152 Y-94.181
X-111.99 Y-94.957
X-111.801 Y-95.726
X-111.585 Y-96.488
X-111.341 Y-97.243
X-111.071 Y-97.988
X-110.775 Y-98.723
X-110.453 Y-99.447
X-110.105 Y-100.159
X-109.732 Y-100.859
X-109.335 Y-101.545
X-108.913 Y-102.216
X-108.468 Y-102.872
X-107.999 Y-103.512
X-107.509 Y-104.135
X-106.996 Y-104.74
X-106.462 Y-105.327
X-105.908 Y-105.894
X-105.334 Y-106.441
X-104.74 Y-106.967
X-104.129 Y-107.473
X-103.499 Y-107.956
X-102.853 Y-108.416
X-102.191 Y-108.854
X-101.514 Y-109.267
X-100.822 Y-109.657
X-100.117 Y-110.021
X-99.399 Y-110.361
X-98.669 Y-110.674
X-97.928 Y-110.962
X-97.178 Y-111.224
X-96.418 Y-111.458
X-95.65 Y-111.666
X-94.875 Y-111.846
X-94.093 Y-111.998
X-93.307 Y-112.123
X-92.516 Y-112.22
X-91.721 Y-112.289
X-90.924 Y-112.329
X-90.126 Y-112.342
X-89.327 Y-112.325
X-88.529 Y-112.281
X-87.732 Y-112.208
X-86.937 Y-112.107
X-86.146 Y-111.977
X-85.36 Y-111.819
X-84.579 Y-111.633
X-83.804 Y-111.42
X-83.037 Y-111.179
X-82.278 Y-110.91
X-81.528 Y-110.615
X-80.789 Y-110.293
X-80.061 Y-109.944
X-79.346 Y-109.57
X-78.643 Y-109.17
X-77.955 Y-108.745
X-77.282 Y-108.295
X-76.624 Y-107.821
X-75.984 Y-107.325
X-75.361 Y-106.805
X-74.756 Y-106.263
X-74.171 Y-105.7
X-73.606 Y-105.116
X-73.062 Y-104.512
X-72.539 Y-103.889
X-72.039 Y-103.247
X-71.562 Y-102.588
X-71.108 Y-101.913
X-70.679 Y-101.221
X-70.274 Y-100.515
X-69.894 Y-99.794
X-69.541 Y-99.06
X-69.213 Y-98.315
X-68.913 Y-97.558
X-68.639 Y-96.791
X-68.393 Y-96.015
X-68.175 Y-95.23
X-67.984 Y-94.439
X-67.822 Y-93.641
X-67.689 Y-92.838
X-67.584 Y-92.031
X-67.507 Y-91.221
X-67.46 Y-90.409
X-67.441 Y-89.596
X-67.452 Y-88.783
X-67.491 Y-87.971
X-67.559 Y-87.16
X-67.656 Y-86.353
X-67.781 Y-85.55
X-67.935 Y-84.752
X-68.117 Y-83.96
X-68.327 Y-83.175
X-68.564 Y-82.398
X-68.829 Y-81.63
X-69.122 Y-80.872
X-69.441 Y-80.125
X-69.786 Y-79.389
X-70.157 Y-78.667
X-70.554 Y-77.957
X-70.976 Y-77.262
X-71.422 Y-76.583
X-71.893 Y-75.919
X-72.386 Y-75.273
X-72.903 Y-74.644
X-73.441 Y-74.034
X-74.002 Y-73.443
X-74.583 Y-72.873
X-75.184 Y-72.323
X-75.804 Y-71.794
X-76.443 Y-71.288
X-77.1 Y-70.804
X-77.774 Y-70.344
X-78.465 Y-69.908
X-79.17 Y-69.497
X-79.891 Y-69.111
X-80.625 Y-68.75
X-81.371 Y-68.416
X-82.13 Y-68.108
X-82.899 Y-67.827
X-83.678 Y-67.573
X-84.467 Y-67.347
X-85.263 Y-67.149
X-86.066 Y-66.98
X-86.875 Y-66.839
X-87.689 Y-66.726
X-88.508 Y-66.643
X-89.329 Y-66.589
X-90.152 Y-66.564
X-90.975 Y-66.568
X-91.799 Y-66.601
X-92.621 Y-66.664
X-93.441 Y-66.756
X-94.258 Y-66.877
X-95.07 Y-67.027
X-95.877 Y-67.206
X-96.678 Y-67.414
X-97.471 Y-67.65
X-98.255 Y-67.914
X-99.031 Y-68.206
X-99.795 Y-68.526
X-100.548 Y-68.873
X-101.289 Y-69.246
X-102.016 Y-69.646
X-102.729 Y-70.071
X-103.426 Y-70.522
X-104.108 Y-70.997
X-104.772 Y-71.497
X-105.419 Y-72.019
X-106.047 Y-72.565
X-106.655 Y-73.133
X-107.243 Y-73.723
X-107.809 Y-74.333
X-108.354 Y-74.963
X-108.876 Y-75.612
X-109.376 Y-76.279
X-109.851 Y-76.965
X-110.301 Y-77.666
X-110.727 Y-78.384
X-111.127 Y-79.116
X-111.501 Y-79.862
X-111.848 Y-80.621
X-112.168 Y-81.393
X-112.46 Y-82.175
X-112.725 Y-82.967
X-112.961 Y-83.769
X-113.169 Y-84.578
X-113.348 Y-85.395
X-113.497 Y-86.217
X-113.618 Y-87.044
X-113.709 Y-87.876
X-113.77 Y-88.71
X-113.802 Y-89.545
X-113.804 Y-90.382
X-113.776 Y-91.218
X-113.719 Y-92.053
X-113.632 Y-92.885
X-113.516 Y-93.714
X-113.37 Y-94.538
X-113.195 Y-95.357
X-112.991 Y-96.169
X-112.758 Y-96.973
X-112.497 Y-97.769
X-112.207 Y-98.554
X-111.89 Y-99.33
X-111.546 Y-100.093
X-111.174 Y-100.844
X-110.776 Y-101.581
X-110.353 Y-102.303
X-109.903 Y-103.01
X-109.429 Y-103.701
X-108.931 Y-104.375
X-108.409 Y-105.03
X-107.864 Y-105.667
X-107.297 Y-106.283
X-106.708 Y-106.88
X-106.098 Y-107.455
X-105.468 Y-108.008
X-104.819 Y-108.538
X-104.152 Y-109.045
X-103.466 Y-109.528
X-102.764 Y-109.987
X-102.046 Y-110.42
X-101.313 Y-110.828
X-100.565 Y-111.209
X-99.805 Y-111.564
X-99.032 Y-111.892
X-98.248 Y-112.192
X-97.453 Y-112.464
X-96.649 Y-112.707
X-95.836 Y-112.923
X-95.016 Y-113.109
X-94.189 Y-113.266
X-93.357 Y-113.393
X-92.521 Y-113.491
X-91.681 Y-113.56
X-90.838 Y-113.598
X-89.995 Y-113.606
X-89.15 Y-113.585
X-88.307 Y-113.533
X-87.466 Y-113.452
X-86.627 Y-113.341
X-85.792 Y-113.199
X-84.962 Y-113.028
X-84.138 Y-112.828
X-83.321 Y-112.598
X-82.511 Y-112.339
X-81.711 Y-112.051
X-80.922 Y-111.735
X-80.143 Y-111.391
X-79.376 Y-111.019
X-78.623 Y-110.62
X-77.883 Y-110.193
X-77.159 Y-109.741
X-76.451 Y-109.263
X-75.759 Y-108.759
X-75.086 Y-108.231
X-74.431 Y-107.679
X-73.797 Y-107.104
X-73.182 Y-106.507
X-72.589 Y-105.887
X-72.018 Y-105.247
X-71.471 Y-104.587
X-70.946 Y-103.907
X-70.446 Y-103.209
X-69.971 Y-102.494
X-69.522 Y-101.762
X-69.099 Y-101.014
X-68.702 Y-100.252
X-68.333 Y-99.476
X-67.992 Y-98.688
X-67.679 Y-97.887
X-67.395 Y-97.077
X-67.139 Y-96.256
X-66.913 Y-95.427
X-66.717 Y-94.591
X-66.55 Y-93.748
X-66.413 Y-92.901
X-66.307 Y-92.048
X-66.231 Y-91.193
X-66.185 Y-90.336
X-66.17 Y-89.477
X-66.185 Y-88.619
X-66.231 Y-87.762
X-66.308 Y-86.907
X-66.414 Y-86.056
X-66.551 Y-85.209
X-66.717 Y-84.368
X-66.914 Y-83.533
X-67.14 Y-82.705
X-67.395 Y-81.886
X-67.679 Y-81.077
X-67.992 Y-80.278
X-68.333 Y-79.491
X-68.702 Y-78.716
X-69.098 Y-77.955
X-69.521 Y-77.208
X-69.97 Y-76.477
X-70.445 Y-75.762
X-70.945 Y-75.064
X-71.47 Y-74.384
X-72.018 Y-73.723
X-72.59 Y-73.082
X-73.185 Y-72.461
X-73.801 Y-71.862
X-74.439 Y-71.285
X-75.097 Y-70.73
X-75.775 Y-70.199
X-76.471 Y-69.693
X-77.185 Y-69.211
X-77.916 Y-68.754
X-78.663 Y-68.324
X-79.425 Y-67.92
X-80.202 Y-67.544
X-80.992 Y-67.195
X-81.794 Y-66.874
X-82.608 Y-66.581
X-83.431 Y-66.318
X-84.265 Y-66.084
X-85.106 Y-65.88
X-85.954 Y-65.705
X-86.809 Y-65.561
X-87.669 Y-65.447
X-88.532 Y-65.363
X-89.399 Y-65.311
X-90.267 Y-65.289
X-91.136 Y-65.298
X-92.005 Y-65.338
X-92.872 Y-65.408
X-93.737 Y-65.51
X-94.598 Y-65.642
X-95.454 Y-65.805
X-96.304 Y-65.998
X-97.147 Y-66.222
X-97.982 Y-66.475
X-98.808 Y-66.758
X-99.624 Y-67.07
X-100.429 Y-67.411
X-101.221 Y-67.781
X-102 Y-68.179
X-102.765 Y-68.604
X-103.514 Y-69.057
X-104.247 Y-69.536
X-104.963 Y-70.041
X-105.661 Y-70.571
X-106.34 Y-71.126
X-106.999 Y-71.705
X-107.637 Y-72.307
X-108.254 Y-72.932
X-108.848 Y-73.579
X-109.419 Y-74.246
X-109.966 Y-74.933
X-110.489 Y-75.64
X-110.986 Y-76.365
X-111.457 Y-77.107
X-111.902 Y-77.866
X-112.32 Y-78.64
X-112.709 Y-79.429
X-113.071 Y-80.231
X-113.404 Y-81.046
X-113.708 Y-81.872
X-113.983 Y-82.709
X-114.228 Y-83.555
X-114.442 Y-84.41
X-114.626 Y-85.272
X-114.78 Y-86.139
X-114.902 Y-87.012
X-114.993 Y-87.889
X-115.054 Y-88.769
X-115.082 Y-89.65
X-115.08 Y-90.532
X-115.046 Y-91.413
X-114.981 Y-92.293
X-114.885 Y-93.17
X-114.758 Y-94.043
X-114.599 Y-94.911
X-114.41 Y-95.773
X-114.191 Y-96.628
X-113.941 Y-97.475
X-113.661 Y-98.312
X-113.352 Y-99.139
X-113.013 Y-99.954
X-112.646 Y-100.757
X-112.25 Y-101.546
X-111.827 Y-102.321
X-111.376 Y-103.081
X-110.899 Y-103.824
X-110.395 Y-104.549
X-109.866 Y-105.257
X-109.312 Y-105.945
X-108.734 Y-106.613
X-108.133 Y-107.26
X-107.509 Y-107.885
X-106.863 Y-108.488
X-106.196 Y-109.068
X-105.508 Y-109.623
X-104.802 Y-110.154
X-104.076 Y-110.66
X-103.334 Y-111.139
X-102.574 Y-111.592
X-101.799 Y-112.018
X-101.009 Y-112.416
X-100.205 Y-112.786
X-99.388 Y-113.127
X-98.559 Y-113.439
X-97.72 Y-113.722
X-96.871 Y-113.974
X-96.013 Y-114.197
X-95.147 Y-114.388
X-94.274 Y-114.549
X-93.396 Y-114.679
X-92.514 Y-114.778
X-91.628 Y-114.846
X-90.739 Y-114.881
X-89.85 Y-114.886
X-88.96 Y-114.858
X-88.071 Y-114.799
X-87.185 Y-114.709
X-86.301 Y-114.587
X-85.422 Y-114.433
X-84.548 Y-114.249
X-83.681 Y-114.033
X-82.821 Y-113.786
X-81.97 Y-113.509
X-81.128 Y-113.201
X-80.298 Y-112.864
X-79.479 Y-112.497
X-78.673 Y-112.101
X-77.882 Y-111.676
X-77.105 Y-111.223
X-76.345 Y-110.742
X-75.602 Y-110.235
X-74.876 Y-109.701
X-74.17 Y-109.141
X-73.484 Y-108.556
X-72.818 Y-107.947
X-72.175 Y-107.315
X-71.554 Y-106.659
X-70.956 Y-105.982
X-70.383 Y-105.284
X-69.835 Y-104.565
X-69.312 Y-103.828
X-68.816 Y-103.072
X-68.347 Y-102.299
X-67.905 Y-101.509
X-67.492 Y-100.705
X-67.108 Y-99.886
X-66.753 Y-99.054
X-66.428 Y-98.209
X-66.133 Y-97.354
X-65.868 Y-96.489
X-65.635 Y-95.615
X-65.433 Y-94.733
X-65.262 Y-93.845
X-65.122 Y-92.951
X-65.015 Y-92.054
X-64.94 Y-91.152
X-64.896 Y-90.249
X-64.885 Y-89.345
X-64.906 Y-88.442
X-64.959 Y-87.539
X-65.044 Y-86.64
X-65.161 Y-85.743
X-65.309 Y-84.852
X-65.49 Y-83.967
X-65.701 Y-83.088
X-65.944 Y-82.218
X-66.217 Y-81.356
X-66.521 Y-80.505
X-66.855 Y-79.666
X-67.218 Y-78.838
X-67.611 Y-78.024
X-68.032 Y-77.225
X-68.482 Y-76.441
X-68.959 Y-75.673
X-69.463 Y-74.922
X-69.994 Y-74.19
X-70.55 Y-73.476
X-71.132 Y-72.783
X-71.738 Y-72.111
X-72.368 Y-71.461
X-73.02 Y-70.833
X-73.695 Y-70.228
X-74.391 Y-69.648
X-75.108 Y-69.092
X-75.844 Y-68.562
X-76.599 Y-68.059
X-77.371 Y-67.582
X-78.16 Y-67.133
X-78.965 Y-66.712
X-79.785 Y-66.319
X-80.619 Y-65.956
X-81.465 Y-65.623
X-82.324 Y-65.319
X-83.193 Y-65.047
X-84.071 Y-64.805
X-84.958 Y-64.594
X-85.852 Y-64.415
X-86.753 Y-64.268
X-87.659 Y-64.152
X-88.568 Y-64.069
X-89.481 Y-64.019
X-90.395 Y-64
X-91.31 Y-64.015
X-92.224 Y-64.061
X-93.137 Y-64.14
X-94.046 Y-64.252
X-94.952 Y-64.396
X-95.852 Y-64.572
X-96.746 Y-64.78
X-97.632 Y-65.02
X-98.509 Y-65.291
X-99.377 Y-65.593
X-100.234 Y-65.927
X-101.079 Y-66.29
X-101.91 Y-66.684
X-102.728 Y-67.106
X-103.53 Y-67.558
X-104.317 Y-68.039
X-105.085 Y-68.547
X-105.836 Y-69.082
X-106.568 Y-69.644
X-107.279 Y-70.232
X-107.969 Y-70.844
X-108.637 Y-71.481
X-109.282 Y-72.142
X-109.904 Y-72.826
X-110.501 Y-73.531
X-111.073 Y-74.257
X-111.619 Y-75.003
X-112.138 Y-75.769
X-112.63 Y-76.552
X-113.094 Y-77.353
X-113.529 Y-78.17
X-113.935 Y-79.002
X-114.311 Y-79.848
X-114.657 Y-80.707
X-114.972 Y-81.578
X-115.256 Y-82.46
X-115.509 Y-83.351
X-115.73 Y-84.251
X-115.919 Y-85.159
X-116.076 Y-86.073
X-116.2 Y-86.992
X-116.291 Y-87.915
X-116.35 Y-88.84
X-116.375 Y-89.768
X-116.368 Y-90.695
X-116.327 Y-91.622
X-116.254 Y-92.547
X-116.148 Y-93.469
X-116.009 Y-94.387
X-115.838 Y-95.3
X-115.634 Y-96.205
X-115.399 Y-97.103
X-115.131 Y-97.993
X-114.832 Y-98.872
X-114.503 Y-99.74
X-114.142 Y-100.596
X-113.751 Y-101.438
X-113.331 Y-102.266
X-112.881 Y-103.079
X-112.403 Y-103.876
X-111.896 Y-104.655
X-111.363 Y-105.415
X-110.802 Y-106.156
X-110.216 Y-106.877
X-109.604 Y-107.576
X-108.968 Y-108.254
X-108.308 Y-108.908
X-107.625 Y-109.539
X-106.92 Y-110.145
X-106.194 Y-110.726
X-105.448 Y-111.281
X-104.682 Y-111.809
X-103.898 Y-112.309
X-103.096 Y-112.781
X-102.279 Y-113.225
X-101.445 Y-113.639
X-100.597 Y-114.024
X-99.736 Y-114.379
X-98.863 Y-114.702
X-97.978 Y-114.995
X-97.083 Y-115.256
X-96.179 Y-115.485
X-95.268 Y-115.682
X-94.349 Y-115.847
X-93.425 Y-115.979
X-92.496 Y-116.078
X-91.563 Y-116.144
X-90.629 Y-116.176
X-89.693
X-88.757 Y-116.142
X-87.823 Y-116.076
X-86.891 Y-115.976
X-85.962 Y-115.842
X-85.038 Y-115.676
X-84.12 Y-115.477
X-83.209 Y-115.245
X-82.307 Y-114.981
X-81.413 Y-114.685
X-80.53 Y-114.357
X-79.659 Y-113.998
X-78.8 Y-113.607
X-77.956 Y-113.187
X-77.126 Y-112.736
X-76.312 Y-112.255
X-75.515 Y-111.746
X-74.737 Y-111.208
X-73.978 Y-110.643
X-73.239 Y-110.051
X-72.521 Y-109.433
X-71.825 Y-108.789
X-71.152 Y-108.121
X-70.503 Y-107.429
X-69.879 Y-106.714
X-69.28 Y-105.977
X-68.708 Y-105.219
X-68.163 Y-104.441
X-67.646 Y-103.644
X-67.157 Y-102.829
X-66.698 Y-101.998
X-66.268 Y-101.15
X-65.869 Y-100.287
X-65.5 Y-99.411
X-65.163 Y-98.522
X-64.858 Y-97.622
X-64.585 Y-96.711
X-64.344 Y-95.792
X-64.136 Y-94.864
X-63.962 Y-93.93
X-63.82 Y-92.99
X-63.712 Y-92.046
X-63.638 Y-91.099
X-63.597 Y-90.15
X-63.591 Y-89.2
X-63.617 Y-88.25
X-63.678 Y-87.302
X-63.772 Y-86.357
X-63.9 Y-85.416
X-64.061 Y-84.48
X-64.255 Y-83.55
X-64.482 Y-82.628
X-64.742 Y-81.714
X-65.034 Y-80.811
X-65.358 Y-79.918
X-65.714 Y-79.037
X-66.1 Y-78.17
X-66.517 Y-77.316
X-66.964 Y-76.478
X-67.441 Y-75.656
X-67.947 Y-74.852
X-68.481 Y-74.066
X-69.043 Y-73.299
X-69.632 Y-72.552
X-70.247 Y-71.827
X-70.887 Y-71.124
X-71.553 Y-70.444
X-72.242 Y-69.787
X-72.955 Y-69.156
X-73.689 Y-68.549
X-74.445 Y-67.97
X-75.222 Y-67.417
X-76.018 Y-66.892
X-76.832 Y-66.395
X-77.664 Y-65.927
X-78.512 Y-65.489
X-79.376 Y-65.081
X-80.254 Y-64.704
X-81.145 Y-64.359
X-82.049 Y-64.044
X-82.963 Y-63.763
X-83.888 Y-63.513
X-84.821 Y-63.297
X-85.761 Y-63.114
X-86.708 Y-62.964
X-87.66 Y-62.848
X-88.616 Y-62.765
X-89.575 Y-62.717
X-90.536 Y-62.703
X-91.497 Y-62.723
X-92.457 Y-62.777
X-93.415 Y-62.865
X-94.369 Y-62.987
X-95.32 Y-63.143
X-96.264 Y-63.333
X-97.202 Y-63.557
X-98.131 Y-63.813
X-99.051 Y-64.103
X-99.961 Y-64.425
X-100.859 Y-64.78
X-101.744 Y-65.166
X-102.615 Y-65.584
X-103.472 Y-66.032
X-104.312 Y-66.511
X-105.135 Y-67.02
X-105.939 Y-67.558
X-106.725 Y-68.124
X-107.489 Y-68.718
X-108.233 Y-69.339
X-108.954 Y-69.986
X-109.652 Y-70.659
X-110.326 Y-71.356
X-110.975 Y-72.077
X-111.598 Y-72.82
X-112.195 Y-73.586
X-112.764 Y-74.373
X-113.305 Y-75.179
X-113.817 Y-76.004
X-114.299 Y-76.847
X-114.752 Y-77.707
X-115.173 Y-78.583
X-115.564 Y-79.473
X-115.922 Y-80.377
X-116.248 Y-81.293
X-116.542 Y-82.221
X-116.802 Y-83.158
X-117.029 Y-84.104
X-117.223 Y-85.058
X-117.382 Y-86.018
X-117.507 Y-86.983
X-117.598 Y-87.953
X-117.655 Y-88.925
X-117.676 Y-89.898
X-117.664 Y-90.872
X-117.616 Y-91.845
X-117.534 Y-92.816
X-117.418 Y-93.783
X-117.267 Y-94.746
X-117.082 Y-95.703
X-116.864 Y-96.652
X-116.611 Y-97.594
X-116.326 Y-98.526
X-116.007 Y-99.447
X-115.656 Y-100.356
X-115.273 Y-101.253
X-114.858 Y-102.135
X-114.412 Y-103.002
X-113.936 Y-103.853
X-113.429 Y-104.686
X-112.893 Y-105.501
X-112.329 Y-106.297
X-111.737 Y-107.072
X-111.117 Y-107.825
X-110.471 Y-108.556
X-109.8 Y-109.264
X-109.103 Y-109.947
X-108.383 Y-110.605
X-107.64 Y-111.238
X-106.874 Y-111.843
X-106.088 Y-112.422
X-105.281 Y-112.972
X-104.455 Y-113.493
X-103.611 Y-113.984
X-102.75 Y-114.445
X-101.873 Y-114.876
X-100.981 Y-115.275
X-100.075 Y-115.642
X-99.156 Y-115.978
X-98.226 Y-116.28
X-97.285 Y-116.549
X-96.335 Y-116.785
X-95.377 Y-116.986
X-94.412 Y-117.154
X-93.441 Y-117.288
X-92.465 Y-117.386
X-91.486 Y-117.451
X-90.505 Y-117.48
X-89.523 Y-117.475
X-88.541 Y-117.434
X-87.56 Y-117.359
X-86.583 Y-117.249
X-85.609 Y-117.104
X-84.64 Y-116.924
X-83.678 Y-116.711
X-82.723 Y-116.462
X-81.777 Y-116.18
X-80.842 Y-115.865
X-79.917 Y-115.516
X-79.005 Y-115.134
X-78.106 Y-114.72
X-77.222 Y-114.274
X-76.354 Y-113.796
X-75.503 Y-113.288
X-74.67 Y-112.749
X-73.857 Y-112.181
X-73.063 Y-111.584
X-72.291 Y-110.959
X-71.542 Y-110.307
X-70.815 Y-109.628
X-70.113 Y-108.923
X-69.437 Y-108.194
X-68.786 Y-107.441
X-68.162 Y-106.665
X-67.566 Y-105.867
X-66.999 Y-105.048
X-66.461 Y-104.21
X-65.953 Y-103.353
X-65.476 Y-102.478
X-65.03 Y-101.586
X-64.616 Y-100.68
X-64.234 Y-99.759
X-63.886 Y-98.825
X-63.571 Y-97.879
X-63.289 Y-96.923
X-63.042 Y-95.957
X-62.829 Y-94.984
X-62.651 Y-94.003
X-62.508 Y-93.017
X-62.4 Y-92.026
X-62.327 Y-91.032
X-62.29 Y-90.036
X-62.288 Y-89.04
X-62.321 Y-88.044
X-62.39 Y-87.05
X-62.494 Y-86.06
X-62.633 Y-85.073
X-62.807 Y-84.092
X-63.016 Y-83.118
X-63.259 Y-82.153
X-63.537 Y-81.196
X-63.848 Y-80.25
X-64.192 Y-79.315
X-64.57 Y-78.393
X-64.98 Y-77.485
X-65.422 Y-76.592
X-65.896 Y-75.716
X-66.401 Y-74.856
X-66.936 Y-74.015
X-67.5 Y-73.194
X-68.094 Y-72.392
X-68.715 Y-71.612
X-69.364 Y-70.855
X-70.04 Y-70.121
X-70.742 Y-69.411
X-71.469 Y-68.726
X-72.219 Y-68.068
X-72.993 Y-67.436
X-73.789 Y-66.832
X-74.607 Y-66.257
X-75.444 Y-65.71
X-76.301 Y-65.194
X-77.176 Y-64.708
X-78.068 Y-64.253
X-78.976 Y-63.83
X-79.899 Y-63.439
X-80.835 Y-63.082
X-81.784 Y-62.757
X-82.745 Y-62.467
X-83.715 Y-62.21
X-84.695 Y-61.989
X-85.682 Y-61.802
X-86.676 Y-61.65
X-87.675 Y-61.533
X-88.677 Y-61.452
X-89.683 Y-61.407
X-90.69 Y-61.397
X-91.697 Y-61.423
X-92.703 Y-61.485
X-93.707 Y-61.583
X-94.707 Y-61.716
X-95.702 Y-61.885
X-96.691 Y-62.089
X-97.673 Y-62.328
X-98.646 Y-62.603
X-99.609 Y-62.911
X-100.56 Y-63.254
X-101.5 Y-63.63
X-102.425 Y-64.04
X-103.336 Y-64.483
X-104.231 Y-64.958
X-105.109 Y-65.464
X-105.969 Y-66.002
X-106.809 Y-66.57
X-107.629 Y-67.167
X-108.427 Y-67.794
X-109.203 Y-68.449
X-109.955 Y-69.131
X-110.683 Y-69.84
X-111.386 Y-70.574
X-112.062 Y-71.333
X-112.711 Y-72.116
X-113.331 Y-72.921
X-113.923 Y-73.748
X-114.486 Y-74.596
X-115.018 Y-75.464
X-115.519 Y-76.35
X-115.988 Y-77.254
X-116.425 Y-78.173
X-116.829 Y-79.108
X-117.2 Y-80.057
X-117.537 Y-81.019
X-117.839 Y-81.992
X-118.107 Y-82.976
X-118.34 Y-83.968
X-118.537 Y-84.969
X-118.699 Y-85.976
X-118.825 Y-86.988
X-118.915 Y-88.004
X-118.968 Y-89.023
X-118.986 Y-90.043
X-118.967 Y-91.063
X-118.912 Y-92.082
X-118.821 Y-93.099
X-118.694 Y-94.112
X-118.531 Y-95.119
X-118.332 Y-96.121
X-118.098 Y-97.115
X-117.828 Y-98.099
X-117.524 Y-99.074
X-117.185 Y-100.038
X-116.812 Y-100.989
X-116.406 Y-101.926
X-115.966 Y-102.848
X-115.494 Y-103.754
X-114.991 Y-104.643
X-114.455 Y-105.513
X-113.89 Y-106.364
X-113.294 Y-107.194
X-112.669 Y-108.003
X-112.016 Y-108.789
X-111.335 Y-109.551
X-110.628 Y-110.289
X-109.894 Y-111.001
X-109.136 Y-111.687
X-108.354 Y-112.345
X-107.549 Y-112.976
X-106.721 Y-113.577
X-105.873 Y-114.149
X-105.005 Y-114.691
X-104.118 Y-115.201
X-103.213 Y-115.68
X-102.292 Y-116.126
X-101.355 Y-116.539
X-100.404 Y-116.919
X-99.44 Y-117.265
X-98.463 Y-117.577
X-97.476 Y-117.854
X-96.479 Y-118.095
X-95.474 Y-118.302
X-94.462 Y-118.472
X-93.444 Y-118.607
X-92.421 Y-118.705
X-91.395 Y-118.767
X-90.367 Y-118.792
X-89.338 Y-118.781
X-88.31 Y-118.733
X-87.283 Y-118.649
X-86.26 Y-118.529
X-85.24 Y-118.371
X-84.227 Y-118.178
X-83.22 Y-117.949
X-82.222 Y-117.684
X-81.233 Y-117.383
X-80.254 Y-117.048
X-79.288 Y-116.677
X-78.335 Y-116.272
X-77.396 Y-115.834
X-76.473 Y-115.362
X-75.567 Y-114.857
X-74.678 Y-114.32
X-73.809 Y-113.751
X-72.961 Y-113.152
X-72.133 Y-112.523
X-71.328 Y-111.864
X-70.547 Y-111.177
X-69.791 Y-110.463
X-69.06 Y-109.721
X-68.355 Y-108.954
X-67.678 Y-108.162
X-67.03 Y-107.347
X-66.41 Y-106.508
X-65.821 Y-105.648
X-65.262 Y-104.768
X-64.735 Y-103.868
X-64.241 Y-102.95
X-63.779 Y-102.014
X-63.35 Y-101.063
X-62.956 Y-100.097
X-62.596 Y-99.118
X-62.272 Y-98.126
X-61.982 Y-97.124
X-61.729 Y-96.112
X-61.511 Y-95.091
X-61.33 Y-94.064
X-61.186 Y-93.031
X-61.078 Y-91.993
X-61.007 Y-90.952
X-60.974 Y-89.91
X-60.977 Y-88.867
X-61.017 Y-87.824
X-61.095 Y-86.784
X-61.209 Y-85.748
X-61.36 Y-84.716
X-61.548 Y-83.69
X-61.772 Y-82.672
X-62.031 Y-81.662
X-62.327 Y-80.662
X-62.658 Y-79.673
X-63.024 Y-78.696
X-63.424 Y-77.733
X-63.859 Y-76.785
X-64.327 Y-75.852
X-64.827 Y-74.937
X-65.36 Y-74.04
X-65.925 Y-73.163
X-66.52 Y-72.305
X-67.146 Y-71.47
X-67.801 Y-70.657
X-68.485 Y-69.867
X-69.196 Y-69.102
X-69.935 Y-68.363
X-70.699 Y-67.65
X-71.489 Y-66.965
X-72.302 Y-66.308
X-73.139 Y-65.68
X-73.998 Y-65.082
X-74.878 Y-64.514
X-75.777 Y-63.978
X-76.696 Y-63.475
X-77.632 Y-63.003
X-78.585 Y-62.566
X-79.553 Y-62.162
X-80.535 Y-61.793
X-81.53 Y-61.458
X-82.537 Y-61.159
X-83.554 Y-60.896
X-84.58 Y-60.669
X-85.615 Y-60.479
X-86.656 Y-60.326
X-87.702 Y-60.209
X-88.752 Y-60.13
X-89.804 Y-60.088
X-90.858 Y-60.083
X-91.912 Y-60.116
X-92.964 Y-60.186
X-94.014 Y-60.294
X-95.06 Y-60.439
X-96.1 Y-60.621
X-97.134 Y-60.84
X-98.16 Y-61.096
X-99.176 Y-61.388
X-100.182 Y-61.716
X-101.176 Y-62.08
X-102.156 Y-62.479
X-103.123 Y-62.913
X-104.073 Y-63.381
X-105.007 Y-63.882
X-105.922 Y-64.417
X-106.819 Y-64.984
X-107.695 Y-65.583
X-108.549 Y-66.212
X-109.381 Y-66.872
X-110.189 Y-67.561
X-110.972 Y-68.279
X-111.73 Y-69.024
X-112.46 Y-69.796
X-113.163 Y-70.594
X-113.838 Y-71.416
X-114.483 Y-72.262
X-115.098 Y-73.13
X-115.681 Y-74.021
X-116.233 Y-74.931
X-116.752 Y-75.86
X-117.238 Y-76.808
X-117.69 Y-77.773
X-118.108 Y-78.753
X-118.49 Y-79.747
X-118.837 Y-80.755
X-119.148 Y-81.775
X-119.423 Y-82.805
X-119.661 Y-83.844
X-119.862 Y-84.892
X-120.026 Y-85.945
X-120.152 Y-87.005
X-120.241 Y-88.068
X-120.291 Y-89.134
X-120.304 Y-90.201
X-120.279 Y-91.268
X-120.216 Y-92.333
X-120.115 Y-93.396
X-119.976 Y-94.455
X-119.8 Y-95.508
X-119.587 Y-96.554
X-119.336 Y-97.592
X-119.049 Y-98.621
X-118.725 Y-99.639
X-118.366 Y-100.644
X-117.971 Y-101.637
X-117.541 Y-102.615
X-117.076 Y-103.577
X-116.578 Y-104.522
X-116.046 Y-105.448
X-115.481 Y-106.356
X-114.885 Y-107.242
X-114.257 Y-108.108
X-113.6 Y-108.95
X-112.912 Y-109.768
X-112.196 Y-110.562
X-111.452 Y-111.33
X-110.681 Y-112.071
X-109.884 Y-112.784
X-109.063 Y-113.468
X-108.217 Y-114.123
X-107.349 Y-114.748
X-106.458 Y-115.341
X-105.548 Y-115.903
X-104.617 Y-116.432
X-103.668 Y-116.927
X-102.702 Y-117.389
X-101.72 Y-117.816
X-100.723 Y-118.209
X-99.713 Y-118.565
X-98.69 Y-118.886
X-97.656 Y-119.17
X-96.612 Y-119.417
X-95.56 Y-119.628
X-94.5 Y-119.8
X-93.435 Y-119.935
X-92.364 Y-120.033
X-91.291 Y-120.092
X-90.216 Y-120.113
X-89.14 Y-120.096
X-88.065 Y-120.04
X-86.992 Y-119.946
X-85.922 Y-119.815
X-84.857 Y-119.645
X-83.798 Y-119.437
X-82.747 Y-119.192
X-81.705 Y-118.909
X-80.672 Y-118.59
X-79.651 Y-118.234
X-78.643 Y-117.841
X-77.649 Y-117.413
X-76.67 Y-116.949
X-75.707 Y-116.451
X-74.763 Y-115.918
X-73.837 Y-115.352
X-72.932 Y-114.753
X-72.048 Y-114.122
X-71.187 Y-113.46
X-70.35 Y-112.767
X-69.537 Y-112.045
X-68.75 Y-111.294
X-67.99 Y-110.516
X-67.258 Y-109.71
X-66.555 Y-108.879
X-65.882 Y-108.023
X-65.239 Y-107.144
X-64.628 Y-106.242
X-64.049 Y-105.319
X-63.504 Y-104.375
X-62.992 Y-103.413
X-62.514 Y-102.433
X-62.072 Y-101.437
X-61.665 Y-100.426
X-61.294 Y-99.4
X-60.96 Y-98.362
X-60.664 Y-97.313
X-60.404 Y-96.254
X-60.182 Y-95.187
X-59.999 Y-94.112
X-59.853 Y-93.032
X-59.747 Y-91.947
X-59.678 Y-90.859
X-59.649 Y-89.769
X-59.658 Y-88.679
X-59.706 Y-87.59
X-59.792 Y-86.504
X-59.918 Y-85.421
X-60.081 Y-84.344
X-60.283 Y-83.273
X-60.522 Y-82.209
X-60.799 Y-81.155
X-61.114 Y-80.112
X-61.465 Y-79.08
X-61.853 Y-78.061
X-62.276 Y-77.057
X-62.736 Y-76.068
X-63.23 Y-75.096
X-63.758 Y-74.143
X-64.32 Y-73.208
X-64.915 Y-72.294
X-65.542 Y-71.401
X-66.2 Y-70.531
X-66.889 Y-69.685
X-67.608 Y-68.864
X-68.356 Y-68.068
X-69.132 Y-67.3
X-69.935 Y-66.559
X-70.763 Y-65.847
X-71.617 Y-65.164
X-72.495 Y-64.513
X-73.396 Y-63.892
X-74.318 Y-63.304
X-75.261 Y-62.749
X-76.224 Y-62.227
X-77.205 Y-61.74
X-78.203 Y-61.288
X-79.217 Y-60.871
X-80.245 Y-60.491
X-81.287 Y-60.147
X-82.34 Y-59.84
X-83.404 Y-59.571
X-84.478 Y-59.339
X-85.56 Y-59.146
X-86.648 Y-58.991
X-87.741 Y-58.875
X-88.839 Y-58.798
X-89.939 Y-58.76
X-91.04 Y-58.761
X-92.141 Y-58.801
X-93.24 Y-58.88
X-94.336 Y-58.998
X-95.427 Y-59.155
X-96.513 Y-59.351
X-97.592 Y-59.586
X-98.662 Y-59.858
X-99.722 Y-60.169
X-100.771 Y-60.517
X-101.807 Y-60.903
X-102.829 Y-61.325
X-103.836 Y-61.783
X-104.826 Y-62.277
X-105.798 Y-62.806
X-106.752 Y-63.37
X-107.685 Y-63.967
X-108.596 Y-64.597
X-109.485 Y-65.259
X-110.35 Y-65.953
X-111.191 Y-66.677
X-112.005 Y-67.431
X-112.792 Y-68.213
X-113.551 Y-69.023
X-114.281 Y-69.86
X-114.98 Y-70.722
X-115.649 Y-71.609
X-116.287 Y-72.519
X-116.891 Y-73.452
X-117.462 Y-74.406
X-117.999 Y-75.379
X-118.502 Y-76.371
X-118.968 Y-77.381
X-119.399 Y-78.407
X-119.793 Y-79.447
X-120.15 Y-80.502
X-120.47 Y-81.568
X-120.751 Y-82.645
X-120.994 Y-83.732
X-121.198 Y-84.826
X-121.363 Y-85.928
X-121.489 Y-87.035
X-121.576 Y-88.145
X-121.623 Y-89.259
X-121.63 Y-90.373
X-121.598 Y-91.487
X-121.526 Y-92.599
X-121.415 Y-93.708
X-121.265 Y-94.813
X-121.075 Y-95.911
X-120.847 Y-97.003
X-120.58 Y-98.085
X-120.274 Y-99.158
X-119.931 Y-100.219
X-119.55 Y-101.267
X-119.132 Y-102.301
X-118.677 Y-103.32
X-118.187 Y-104.322
X-117.661 Y-105.306
X-117.101 Y-106.27
X-116.507 Y-107.215
X-115.879 Y-108.137
X-115.219 Y-109.037
X-114.528 Y-109.913
X-113.806 Y-110.764
X-113.053 Y-111.589
X-112.272 Y-112.386
X-111.464 Y-113.156
X-110.628 Y-113.896
X-109.766 Y-114.606
X-108.879 Y-115.286
X-107.969 Y-115.933
X-107.036 Y-116.548
X-106.082 Y-117.129
X-105.108 Y-117.677
X-104.114 Y-118.189
X-103.103 Y-118.666
X-102.075 Y-119.107
X-101.032 Y-119.511
X-99.975 Y-119.878
X-98.905 Y-120.207
X-97.824 Y-120.498
X-96.733 Y-120.751
X-95.633 Y-120.964
X-94.526 Y-121.139
X-93.412 Y-121.274
X-92.295 Y-121.37
X-91.174 Y-121.426
X-90.051 Y-121.442
X-88.928 Y-121.418
X-87.805 Y-121.354
X-86.686 Y-121.251
X-85.57 Y-121.107
X-84.459 Y-120.924
X-83.355 Y-120.702
X-82.259 Y-120.44
X-81.172 Y-120.139
X-80.096 Y-119.8
X-79.032 Y-119.423
X-77.982 Y-119.007
X-76.947 Y-118.555
X-75.928 Y-118.066
X-74.926 Y-117.54
X-73.943 Y-116.979
X-72.98 Y-116.384
X-72.039 Y-115.754
X-71.12 Y-115.091
X-70.225 Y-114.395
X-69.355 Y-113.668
X-68.511 Y-112.91
X-67.694 Y-112.122
X-66.906 Y-111.305
X-66.146 Y-110.461
X-65.417 Y-109.59
X-64.719 Y-108.693
X-64.054 Y-107.772
X-63.421 Y-106.828
X-62.822 Y-105.862
X-62.258 Y-104.875
X-61.729 Y-103.868
X-61.236 Y-102.843
X-60.78 Y-101.801
X-60.361 Y-100.744
X-59.98 Y-99.672
X-59.637 Y-98.588
X-59.333 Y-97.492
X-59.068 Y-96.385
X-58.843 Y-95.27
X-58.657 Y-94.148
X-58.511 Y-93.02
X-58.406 Y-91.888
X-58.341 Y-90.752
X-58.316 Y-89.615
X-58.331 Y-88.478
X-58.387 Y-87.342
X-58.483 Y-86.209
X-58.62 Y-85.08
X-58.796 Y-83.956
X-59.012 Y-82.84
X-59.268 Y-81.732
X-59.563 Y-80.633
X-59.897 Y-79.546
X-60.269 Y-78.471
X-60.679 Y-77.41
X-61.127 Y-76.365
X-61.611 Y-75.336
X-62.132 Y-74.324
X-62.688 Y-73.332
X-63.28 Y-72.359
X-63.905 Y-71.409
X-64.565 Y-70.481
X-65.257 Y-69.576
X-65.98 Y-68.697
X-66.735 Y-67.844
X-67.519 Y-67.018
X-68.333 Y-66.22
X-69.175 Y-65.452
X-70.043 Y-64.713
X-70.938 Y-64.006
X-71.858 Y-63.331
X-72.801 Y-62.688
X-73.766 Y-62.08
X-74.754 Y-61.506
X-75.761 Y-60.967
X-76.787 Y-60.464
X-77.83 Y-59.997
X-78.89 Y-59.568
X-79.965 Y-59.177
X-81.054 Y-58.823
X-82.155 Y-58.509
X-83.266 Y-58.234
X-84.388 Y-57.998
X-85.517 Y-57.803
X-86.653 Y-57.647
X-87.794 Y-57.532
X-88.94 Y-57.457
X-90.087 Y-57.424
X-91.236 Y-57.43
X-92.384 Y-57.478
X-93.53 Y-57.567
X-94.672 Y-57.696
X-95.81 Y-57.866
X-96.941 Y-58.076
X-98.065 Y-58.326
X-99.18 Y-58.617
X-100.283 Y-58.946
X-101.375 Y-59.315
X-102.454 Y-59.723
X-103.517 Y-60.169
X-104.565 Y-60.652
X-105.595 Y-61.173
X-106.606 Y-61.73
X-107.597 Y-62.322
X-108.567 Y-62.95
X-109.514 Y-63.612
X-110.438 Y-64.308
X-111.336 Y-65.036
X-112.208 Y-65.795
X-113.053 Y-66.586
X-113.869 Y-67.406
X-114.656 Y-68.255
X-115.413 Y-69.131
X-116.138 Y-70.034
X-116.831 Y-70.963
X-117.49 Y-71.915
X-118.115 Y-72.891
X-118.706 Y-73.888
X-119.261 Y-74.906
X-119.779 Y-75.944
X-120.26 Y-76.999
X-120.704 Y-78.071
X-121.109 Y-79.158
X-121.475 Y-80.259
X-121.802 Y-81.372
X-122.09 Y-82.497
X-122.337 Y-83.631
X-122.544 Y-84.774
X-122.71 Y-85.923
X-122.836 Y-87.078
X-122.92 Y-88.236
X-122.963 Y-89.397
X-122.965 Y-90.559
X-122.925 Y-91.72
X-122.844 Y-92.879
X-122.723 Y-94.035
X-122.56 Y-95.186
X-122.356 Y-96.33
X-122.112 Y-97.466
X-121.827 Y-98.594
X-121.503 Y-99.71
X-121.139 Y-100.814
X-120.737 Y-101.905
X-120.295 Y-102.981
X-119.816 Y-104.041
X-119.299 Y-105.083
X-118.746 Y-106.106
X-118.156 Y-107.108
X-117.532 Y-108.09
X-116.872 Y-109.048
X-116.18 Y-109.983
X-115.454 Y-110.892
X-114.696 Y-111.776
X-113.908 Y-112.631
X-113.089 Y-113.459
X-112.241 Y-114.257
X-111.366 Y-115.024
X-110.464 Y-115.76
X-109.536 Y-116.463
X-108.583 Y-117.133
X-107.607 Y-117.769
X-106.609 Y-118.37
X-105.59 Y-118.935
X-104.552 Y-119.464
X-103.495 Y-119.956
X-102.421 Y-120.41
X-101.331 Y-120.826
X-100.227 Y-121.202
X-99.11 Y-121.54
X-97.981 Y-121.837
X-96.842 Y-122.095
X-95.694 Y-122.312
X-94.538 Y-122.488
X-93.377 Y-122.623
X-92.211 Y-122.716
X-91.042 Y-122.769
X-89.872 Y-122.779
X-88.701 Y-122.748
X-87.531 Y-122.676
X-86.365 Y-122.562
X-85.202 Y-122.406
X-84.045 Y-122.209
X-82.896 Y-121.971
X-81.755 Y-121.693
X-80.624 Y-121.373
X-79.504 Y-121.014
X-78.398 Y-120.615
X-77.305 Y-120.176
X-76.229 Y-119.699
X-75.169 Y-119.184
X-74.128 Y-118.631
X-73.107 Y-118.041
X-72.107 Y-117.415
X-71.13 Y-116.754
X-70.176 Y-116.058
X-69.247 Y-115.328
X-68.344 Y-114.565
X-67.469 Y-113.771
X-66.622 Y-112.946
X-65.805 Y-112.091
X-65.019 Y-111.207
X-64.264 Y-110.296
X-63.542 Y-109.358
X-62.853 Y-108.395
X-62.199 Y-107.407
X-61.58 Y-106.398
X-60.998 Y-105.366
X-60.453 Y-104.315
X-59.945 Y-103.244
X-59.475 Y-102.156
X-59.044 Y-101.052
X-58.653 Y-99.934
X-58.302 Y-98.802
X-57.991 Y-97.659
X-57.721 Y-96.505
X-57.492 Y-95.342
X-57.305 Y-94.172
X-57.159 Y-92.996
X-57.055 Y-91.815
X-56.994 Y-90.632
X-56.974 Y-89.447
X-56.996 Y-88.262
X-57.061 Y-87.079
X-57.167 Y-85.899
X-57.315 Y-84.723
X-57.505 Y-83.554
X-57.736 Y-82.391
X-58.009 Y-81.238
X-58.322 Y-80.095
X-58.676 Y-78.964
X-59.069 Y-77.847
X-59.503 Y-76.743
X-59.975 Y-75.656
X-60.485 Y-74.586
X-61.033 Y-73.535
X-61.618 Y-72.504
X-62.24 Y-71.495
X-62.897 Y-70.507
X-63.589 Y-69.544
X-64.315 Y-68.606
X-65.074 Y-67.693
X-65.865 Y-66.808
X-66.687 Y-65.952
X-67.539 Y-65.125
X-68.42 Y-64.329
X-69.329 Y-63.564
X-70.265 Y-62.832
X-71.227 Y-62.134
X-72.213 Y-61.47
X-73.222 Y-60.841
X-74.254 Y-60.248
X-75.306 Y-59.692
X-76.378 Y-59.173
X-77.467 Y-58.693
X-78.574 Y-58.252
X-79.696 Y-57.85
X-80.832 Y-57.488
X-81.98 Y-57.166
X-83.14 Y-56.886
X-84.309 Y-56.646
X-85.487 Y-56.449
X-86.671 Y-56.293
X-87.861 Y-56.179
X-89.054 Y-56.108
X-90.249 Y-56.079
X-91.446 Y-56.092
X-92.641 Y-56.148
X-93.834 Y-56.246
X-95.024 Y-56.387
X-96.208 Y-56.57
X-97.385 Y-56.795
X-98.554 Y-57.062
X-99.713 Y-57.371
X-100.861 Y-57.72
X-101.996 Y-58.11
X-103.117 Y-58.54
X-104.222 Y-59.01
X-105.311 Y-59.52
X-106.38 Y-60.067
X-107.431 Y-60.653
X-108.459 Y-61.275
X-109.466 Y-61.934
X-110.449 Y-62.629
X-111.406 Y-63.358
X-112.338 Y-64.121
X-113.242 Y-64.917
X-114.117 Y-65.744
X-114.963 Y-66.603
X-115.778 Y-67.491
X-116.561 Y-68.408
X-117.311 Y-69.352
X-118.027 Y-70.322
X-118.709 Y-71.318
X-119.354 Y-72.337
X-119.964 Y-73.379
X-120.536 Y-74.442
X-121.07 Y-75.525
X-121.565 Y-76.626
X-122.021 Y-77.745
X-122.437 Y-78.879
X-122.813 Y-80.027
X-123.147 Y-81.188
X-123.44 Y-82.361
X-123.692 Y-83.543
X-123.901 Y-84.733
X-124.068 Y-85.931
X-124.192 Y-87.134
X-124.273 Y-88.34
X-124.312 Y-89.549
X-124.307 Y-90.759
X-124.26 Y-91.967
X-124.17 Y-93.174
X-124.036 Y-94.377
X-123.861 Y-95.574
X-123.642 Y-96.764
X-123.382 Y-97.946
X-123.08 Y-99.118
X-122.736 Y-100.279
X-122.351 Y-101.426
X-121.926 Y-102.56
X-121.461 Y-103.678
X-120.956 Y-104.778
X-120.412 Y-105.86
X-119.831 Y-106.922
X-119.212 Y-107.963
X-118.556 Y-108.981
X-117.864 Y-109.976
X-117.138 Y-110.945
X-116.377 Y-111.888
X-115.584 Y-112.803
X-114.758 Y-113.69
X-113.901 Y-114.547
X-113.014 Y-115.373
X-112.099 Y-116.167
X-111.155 Y-116.928
X-110.185 Y-117.656
X-109.19 Y-118.348
X-108.171 Y-119.005
X-107.128 Y-119.625
X-106.064 Y-120.208
X-104.98 Y-120.753
X-103.877 Y-121.26
X-102.756 Y-121.726
X-101.619 Y-122.153
X-100.468 Y-122.54
X-99.303 Y-122.885
X-98.126 Y-123.189
X-96.938 Y-123.45
X-95.742 Y-123.67
X-94.538 Y-123.847
X-93.329 Y-123.981
X-92.114 Y-124.072
X-90.897 Y-124.12
X-89.679 Y-124.125
X-88.46 Y-124.087
X-87.243 Y-124.005
X-86.029 Y-123.88
X-84.82 Y-123.711
X-83.617 Y-123.5
X-82.421 Y-123.246
X-81.235 Y-122.95
X-80.06 Y-122.612
X-78.896 Y-122.231
X-77.747 Y-121.81
X-76.612 Y-121.348
X-75.494 Y-120.845
X-74.395 Y-120.303
X-73.314 Y-119.722
X-72.255 Y-119.103
X-71.218 Y-118.446
X-70.204 Y-117.752
X-69.215 Y-117.023
X-68.253 Y-116.259
X-67.318 Y-115.46
X-66.411 Y-114.629
X-65.535 Y-113.766
X-64.689 Y-112.872
X-63.876 Y-111.948
X-63.095 Y-110.995
X-62.349 Y-110.016
X-61.638 Y-109.01
X-60.963 Y-107.979
X-60.325 Y-106.925
X-59.724 Y-105.849
X-59.162 Y-104.752
X-58.64 Y-103.636
X-58.157 Y-102.501
X-57.715 Y-101.351
X-57.314 Y-100.185
X-56.955 Y-99.005
X-56.638 Y-97.814
X-56.363 Y-96.612
X-56.131 Y-95.401
X-55.943 Y-94.182
X-55.797 Y-92.958
X-55.696 Y-91.729
X-55.638 Y-90.498
X-55.624 Y-89.265
X-55.653 Y-88.032
X-55.727 Y-86.801
X-55.844 Y-85.574
X-56.004 Y-84.352
X-56.208 Y-83.136
X-56.455 Y-81.928
X-56.745 Y-80.729
X-57.077 Y-79.542
X-57.451 Y-78.367
X-57.867 Y-77.206
X-58.324 Y-76.06
X-58.821 Y-74.932
X-59.358 Y-73.821
X-59.934 Y-72.73
X-60.548 Y-71.661
X-61.201 Y-70.613
X-61.89 Y-69.59
X-62.615 Y-68.591
X-63.375 Y-67.618
X-64.17 Y-66.673
X-64.998 Y-65.757
X-65.858 Y-64.87
X-66.749 Y-64.014
X-67.67 Y-63.191
X-68.62 Y-62.4
X-69.598 Y-61.643
X-70.602 Y-60.922
X-71.632 Y-60.236
X-72.686 Y-59.587
X-73.762 Y-58.976
X-74.86 Y-58.403
X-75.978 Y-57.869
X-77.114 Y-57.376
X-78.268 Y-56.923
X-79.437 Y-56.51
X-80.621 Y-56.14
X-81.818 Y-55.812
X-83.026 Y-55.526
X-84.243 Y-55.283
X-85.469 Y-55.084
X-86.702 Y-54.928
X-87.94 Y-54.817
X-89.182 Y-54.749
X-90.426 Y-54.725
X-91.67 Y-54.746
X-92.913 Y-54.81
X-94.154 Y-54.919
X-95.39 Y-55.072
X-96.621 Y-55.269
X-97.844 Y-55.509
X-99.058 Y-55.793
X-100.262 Y-56.12
X-101.454 Y-56.49
X-102.633 Y-56.902
X-103.796 Y-57.355
X-104.943 Y-57.85
X-106.072 Y-58.386
X-107.182 Y-58.961
X-108.271 Y-59.576
X-109.338 Y-60.229
X-110.381 Y-60.919
X-111.399 Y-61.647
X-112.391 Y-62.411
X-113.356 Y-63.209
X-114.292 Y-64.042
X-115.197 Y-64.907
X-116.072 Y-65.804
X-116.915 Y-66.732
X-117.724 Y-67.69
X-118.499 Y-68.676
X-119.238 Y-69.689
X-119.942 Y-70.728
X-120.608 Y-71.791
X-121.236 Y-72.878
X-121.825 Y-73.986
X-122.374 Y-75.115
X-122.883 Y-76.263
X-123.351 Y-77.428
X-123.778 Y-78.61
X-124.162 Y-79.806
X-124.504 Y-81.015
X-124.802 Y-82.236
X-125.057 Y-83.467
X-125.268 Y-84.706
X-125.435 Y-85.952
X-125.558 Y-87.203
X-125.636 Y-88.458
X-125.669 Y-89.715
X-125.658 Y-90.973
X-125.602 Y-92.23
X-125.502 Y-93.484
X-125.357 Y-94.733
X-125.168 Y-95.977
X-124.934 Y-97.214
X-124.657 Y-98.441
X-124.337 Y-99.658
X-123.973 Y-100.863
X-123.567 Y-102.054
X-123.118 Y-103.231
X-122.628 Y-104.39
X-122.098 Y-105.532
X-121.526 Y-106.654
X-120.916 Y-107.755
X-120.267 Y-108.834
X-119.579 Y-109.889
X-118.855 Y-110.919
X-118.094 Y-111.923
X-117.298 Y-112.9
X-116.468 Y-113.847
X-115.605 Y-114.765
X-114.709 Y-115.651
X-113.783 Y-116.505
X-112.826 Y-117.326
X-111.841 Y-118.112
X-110.829 Y-118.863
X-109.79 Y-119.578
X-108.726 Y-120.256
X-107.639 Y-120.895
X-106.53 Y-121.495
X-105.399 Y-122.056
X-104.25 Y-122.576
X-103.082 Y-123.056
X-101.897 Y-123.493
X-100.698 Y-123.889
X-99.485 Y-124.242
X-98.259 Y-124.551
X-97.023 Y-124.817
X-95.778 Y-125.039
X-94.526 Y-125.216
X-93.267 Y-125.349
X-92.004 Y-125.437
X-90.738 Y-125.481
X-89.471 Y-125.479
X-88.205 Y-125.432
X-86.94 Y-125.341
X-85.678 Y-125.204
X-84.422 Y-125.023
X-83.173 Y-124.797
X-81.931 Y-124.526
X-80.7 Y-124.212
X-79.48 Y-123.854
X-78.273 Y-123.452
X-77.08 Y-123.008
X-75.903 Y-122.521
X-74.744 Y-121.993
X-73.604 Y-121.424
X-72.484 Y-120.814
X-71.387 Y-120.164
X-70.312 Y-119.476
X-69.263 Y-118.75
X-68.239 Y-117.986
X-67.243 Y-117.187
X-66.276 Y-116.352
X-65.338 Y-115.483
X-64.432 Y-114.581
X-63.558 Y-113.648
X-62.717 Y-112.683
X-61.912 Y-111.69
X-61.142 Y-110.667
X-60.408 Y-109.619
X-59.712 Y-108.544
X-59.055 Y-107.445
X-58.437 Y-106.324
X-57.859 Y-105.181
X-57.322 Y-104.018
X-56.826 Y-102.837
X-56.373 Y-101.638
X-55.963 Y-100.425
X-55.596 Y-99.197
X-55.273 Y-97.957
X-54.994 Y-96.707
X-54.76 Y-95.447
X-54.57 Y-94.18
X-54.426 Y-92.907
X-54.327 Y-91.63
X-54.274 Y-90.349
X-54.266 Y-89.068
X-54.303 Y-87.787
X-54.386 Y-86.509
X-54.514 Y-85.234
X-54.688 Y-83.965
X-54.906 Y-82.702
X-55.17 Y-81.448
X-55.477 Y-80.204
X-55.829 Y-78.972
X-56.224 Y-77.753
X-56.662 Y-76.549
X-57.143 Y-75.361
X-57.666 Y-74.191
X-58.23 Y-73.04
X-58.834 Y-71.909
X-59.479 Y-70.801
X-60.162 Y-69.716
X-60.884 Y-68.656
X-61.643 Y-67.622
X-62.438 Y-66.615
X-63.269 Y-65.637
X-64.134 Y-64.69
X-65.033 Y-63.773
X-65.964 Y-62.888
X-66.925 Y-62.037
X-67.917 Y-61.221
X-68.937 Y-60.44
X-69.985 Y-59.695
X-71.058 Y-58.988
X-72.157 Y-58.32
X-73.279 Y-57.691
X-74.423 Y-57.101
X-75.587 Y-56.553
X-76.771 Y-56.046
X-77.972 Y-55.581
X-79.189 Y-55.159
X-80.421 Y-54.781
X-81.666 Y-54.446
X-82.923 Y-54.156
X-84.189 Y-53.911
X-85.464 Y-53.71
X-86.746 Y-53.555
X-88.033 Y-53.446
X-89.323 Y-53.382
X-90.615 Y-53.364
X-91.907 Y-53.392
X-93.197 Y-53.466
X-94.483 Y-53.585
X-95.765 Y-53.75
X-97.039 Y-53.961
X-98.306 Y-54.216
X-99.563 Y-54.517
X-100.808 Y-54.861
X-102.04 Y-55.25
X-103.258 Y-55.681
X-104.46 Y-56.156
X-105.644 Y-56.673
X-106.809 Y-57.231
X-107.954 Y-57.831
X-109.077 Y-58.47
X-110.176 Y-59.148
X-111.251 Y-59.866
X-112.3 Y-60.62
X-113.321 Y-61.411
X-114.314 Y-62.238
X-115.277 Y-63.099
X-116.21 Y-63.994
X-117.11 Y-64.921
X-117.976 Y-65.879
X-118.809 Y-66.867
X-119.606 Y-67.884
X-120.367 Y-68.928
X-121.09 Y-69.999
X-121.776 Y-71.094
X-122.422 Y-72.213
X-123.029 Y-73.354
X-123.595 Y-74.515
X-124.12 Y-75.696
X-124.603 Y-76.894
X-125.043 Y-78.109
X-125.441 Y-79.338
X-125.795 Y-80.581
X-126.105 Y-81.835
X-126.37 Y-83.099
X-126.592 Y-84.372
X-126.768 Y-85.652
X-126.899 Y-86.938
X-126.985 Y-88.227
X-127.025 Y-89.518
X-127.021 Y-90.81
X-126.97 Y-92.102
X-126.875 Y-93.39
X-126.734 Y-94.674
X-126.548 Y-95.953
X-126.318 Y-97.224
X-126.042 Y-98.487
X-125.723 Y-99.739
X-125.36 Y-100.979
X-124.954 Y-102.205
X-124.505 Y-103.417
X-124.013 Y-104.612
X-123.48 Y-105.789
X-122.906 Y-106.946
X-122.292 Y-108.083
X-121.638 Y-109.197
X-120.945 Y-110.288
X-120.215 Y-111.354
X-119.447 Y-112.393
X-118.644 Y-113.405
X-117.806 Y-114.388
X-116.933 Y-115.341
X-116.028 Y-116.263
X-115.091 Y-117.153
X-114.123 Y-118.009
X-113.126 Y-118.831
X-112.101 Y-119.617
X-111.049 Y-120.367
X-109.971 Y-121.079
X-108.869 Y-121.754
X-107.744 Y-122.389
X-106.597 Y-122.984
X-105.43 Y-123.539
X-104.245 Y-124.053
X-103.042 Y-124.525
X-101.823 Y-124.954
X-100.59 Y-125.341
X-99.345 Y-125.684
X-98.088 Y-125.984
X-96.821 Y-126.239
X-95.547 Y-126.45
X-94.265 Y-126.617
X-92.979 Y-126.738
X-91.689 Y-126.815
X-90.398 Y-126.846
X-89.106 Y-126.833
X-87.815 Y-126.774
X-86.527 Y-126.67
X-85.243 Y-126.522
X-83.966 Y-126.329
X-82.696 Y-126.091
X-81.435 Y-125.809
X-80.185 Y-125.484
X-78.946 Y-125.115
X-77.722 Y-124.703
X-76.512 Y-124.249
X-75.319 Y-123.753
X-74.144 Y-123.216
X-72.988 Y-122.638
X-71.853 Y-122.021
X-70.74 Y-121.364
X-69.651 Y-120.67
X-68.586 Y-119.938
X-67.547 Y-119.17
X-66.535 Y-118.366
X-65.552 Y-117.528
X-64.598 Y-116.656
X-63.675 Y-115.752
X-62.784 Y-114.817
X-61.926 Y-113.851
X-61.101 Y-112.856
X-60.312 Y-111.833
X-59.558 Y-110.784
X-58.841 Y-109.709
X-58.161 Y-108.61
X-57.52 Y-107.489
X-56.918 Y-106.345
X-56.355 Y-105.182
X-55.834 Y-104
X-55.353 Y-102.801
X-54.914 Y-101.586
X-54.517 Y-100.356
X-54.162 Y-99.114
X-53.851 Y-97.86
X-53.583 Y-96.596
X-53.359 Y-95.323
X-53.179 Y-94.044
X-53.043 Y-92.759
X-52.952 Y-91.47
X-52.905 Y-90.179
X-52.904 Y-88.887
X-52.947 Y-87.596
X-53.035 Y-86.307
X-53.167 Y-85.021
X-53.344 Y-83.741
X-53.564 Y-82.468
X-53.829 Y-81.204
X-54.137 Y-79.949
X-54.488 Y-78.705
X-54.881 Y-77.475
X-55.317 Y-76.258
X-55.795 Y-75.058
X-56.314 Y-73.874
X-56.873 Y-72.71
X-57.472 Y-71.565
X-58.11 Y-70.441
X-58.786 Y-69.341
X-59.5 Y-68.264
X-60.251 Y-67.212
X-61.037 Y-66.187
X-61.858 Y-65.189
X-62.714 Y-64.221
X-63.602 Y-63.282
X-64.521 Y-62.375
X-65.472 Y-61.499
X-66.452 Y-60.657
X-67.46 Y-59.849
X-68.495 Y-59.077
X-69.557 Y-58.34
X-70.643 Y-57.64
X-71.753 Y-56.978
X-72.884 Y-56.355
X-74.037 Y-55.771
X-75.209 Y-55.227
X-76.399 Y-54.724
X-77.606 Y-54.263
X-78.828 Y-53.843
X-80.064 Y-53.465
X-81.311 Y-53.13
X-82.57 Y-52.838
X-83.838 Y-52.59
X-85.114 Y-52.385
X-86.396 Y-52.223
X-87.682 Y-52.106
X-88.972 Y-52.033
X-90.264 Y-52.004
X-91.556 Y-52.019
X-92.847 Y-52.078
X-94.135 Y-52.181
X-95.418 Y-52.329
X-96.696 Y-52.52
X-97.967 Y-52.754
X-99.229 Y-53.032
X-100.48 Y-53.352
X-101.72 Y-53.715
X-102.947 Y-54.12
X-104.16 Y-54.567
X-105.356 Y-55.054
X-106.535 Y-55.582
X-107.696 Y-56.15
X-108.836 Y-56.758
X-109.955 Y-57.404
X-111.051 Y-58.088
X-112.123 Y-58.809
X-113.17 Y-59.567
X-114.19 Y-60.359
X-115.183 Y-61.186
X-116.147 Y-62.047
X-117.081 Y-62.939
X-117.985 Y-63.863
X-118.856 Y-64.817
X-119.695 Y-65.8
X-120.5 Y-66.81
X-121.27 Y-67.848
X-122.004 Y-68.911
X-122.702 Y-69.998
X-123.363 Y-71.109
X-123.985 Y-72.241
X-124.569 Y-73.394
X-125.113 Y-74.565
X-125.618 Y-75.755
X-126.082 Y-76.961
X-126.505 Y-78.182
X-126.886 Y-79.416
X-127.225 Y-80.663
X-127.522 Y-81.92
X-127.776 Y-83.187
X-127.987 Y-84.462
X-128.154 Y-85.743
X-128.277 Y-87.029
X-128.357 Y-88.319
X-128.393 Y-89.611
X-128.384 Y-90.903
X-128.332 Y-92.194
X-128.236 Y-93.482
X-128.097 Y-94.767
X-127.914 Y-96.046
X-127.688 Y-97.318
X-127.419 Y-98.582
X-127.108 Y-99.835
X-126.754 Y-101.078
X-126.359 Y-102.308
X-125.922 Y-103.524
X-125.444 Y-104.725
X-124.926 Y-105.908
X-124.369 Y-107.074
X-123.772 Y-108.22
X-123.137 Y-109.345
X-122.464 Y-110.448
X-121.754 Y-111.528
X-121.008 Y-112.583
X-120.227 Y-113.612
X-119.412 Y-114.614
X-118.563 Y-115.589
X-117.682 Y-116.534
X-116.769 Y-117.448
X-115.826 Y-118.331
X-114.854 Y-119.182
X-113.853 Y-119.999
X-112.824 Y-120.781
X-111.77 Y-121.528
X-110.691 Y-122.239
X-109.589 Y-122.913
X-108.465 Y-123.55
X-107.319 Y-124.148
X-106.155 Y-124.707
X-104.972 Y-125.227
X-103.772 Y-125.706
X-102.557 Y-126.145
X-101.327 Y-126.542
X-100.085 Y-126.898
X-98.832 Y-127.212
X-97.569 Y-127.484
X-96.297 Y-127.712
X-95.018 Y-127.898
X-93.734 Y-128.041
X-92.446 Y-128.141
X-91.155 Y-128.197
X-89.863 Y-128.21
X-88.571 Y-128.179
X-87.281 Y-128.105
X-85.995 Y-127.988
X-84.713 Y-127.828
X-83.437 Y-127.624
X-82.168 Y-127.378
X-80.909 Y-127.088
X-79.66 Y-126.757
X-78.424 Y-126.383
X-77.2 Y-125.968
X-75.991 Y-125.512
X-74.798 Y-125.015
X-73.623 Y-124.479
X-72.466 Y-123.905
X-71.328 Y-123.291
X-70.212 Y-122.64
X-69.119 Y-121.952
X-68.048 Y-121.228
X-67.003 Y-120.469
X-65.984 Y-119.675
X-64.991 Y-118.848
X-64.027 Y-117.988
X-63.092 Y-117.096
X-62.187 Y-116.174
X-61.313 Y-115.222
X-60.471 Y-114.242
X-59.663 Y-113.234
X-58.888 Y-112.2
X-58.149 Y-111.141
X-57.445 Y-110.057
X-56.777 Y-108.951
X-56.146 Y-107.823
X-55.554 Y-106.675
X-55 Y-105.508
X-54.485 Y-104.323
X-54.011 Y-103.121
X-53.577 Y-101.904
X-53.183 Y-100.673
X-52.831 Y-99.43
X-52.521 Y-98.176
X-52.252 Y-96.912
X-52.026 Y-95.64
X-51.843 Y-94.361
X-51.701 Y-93.077
X-51.603 Y-91.788
X-51.548 Y-90.497
X-51.536 Y-89.205
X-51.568 Y-87.914
X-51.642 Y-86.624
X-51.759 Y-85.337
X-51.919 Y-84.055
X-52.121 Y-82.779
X-52.366 Y-81.51
X-52.652 Y-80.25
X-52.981 Y-79.001
X-53.351 Y-77.763
X-53.761 Y-76.538
X-54.213 Y-75.327
X-54.704 Y-74.132
X-55.234 Y-72.954
X-55.804 Y-71.794
X-56.412 Y-70.654
X-57.057 Y-69.535
X-57.74 Y-68.438
X-58.459 Y-67.364
X-59.213 Y-66.315
X-60.002 Y-65.292
X-60.824 Y-64.295
X-61.679 Y-63.327
X-62.566 Y-62.387
X-63.484 Y-61.477
X-64.431 Y-60.598
X-65.407 Y-59.752
X-66.41 Y-58.937
X-67.44 Y-58.157
X-68.495 Y-57.411
X-69.574 Y-56.701
X-70.676 Y-56.026
X-71.8 Y-55.389
X-72.945 Y-54.79
X-74.108 Y-54.228
X-75.29 Y-53.706
X-76.489 Y-53.223
X-77.702 Y-52.781
X-78.93 Y-52.378
X-80.171 Y-52.017
X-81.423 Y-51.697
X-82.684 Y-51.418
X-83.954 Y-51.181
X-85.232 Y-50.987
X-86.515 Y-50.834
X-87.802 Y-50.725
X-89.092 Y-50.658
X-90.384 Y-50.634
X-91.676 Y-50.653
X-92.967 Y-50.715
X-94.255 Y-50.819
X-95.538 Y-50.965
X-96.817 Y-51.154
X-98.088 Y-51.385
X-99.351 Y-51.657
X-100.604 Y-51.971
X-101.847 Y-52.325
X-103.077 Y-52.721
X-104.293 Y-53.156
X-105.495 Y-53.631
X-106.68 Y-54.146
X-107.848 Y-54.699
X-108.996 Y-55.29
X-110.125 Y-55.919
X-111.232 Y-56.585
X-112.317 Y-57.287
X-113.378 Y-58.025
X-114.414 Y-58.796
X-115.424 Y-59.602
X-116.408 Y-60.44
X-117.363 Y-61.31
X-118.289 Y-62.211
X-119.186 Y-63.141
X-120.051 Y-64.101
X-120.884 Y-65.089
X-121.684 Y-66.103
X-122.45 Y-67.144
X-123.182 Y-68.209
X-123.878 Y-69.297
X-124.538 Y-70.408
X-125.162 Y-71.539
X-125.748 Y-72.691
X-126.296 Y-73.861
X-126.806 Y-75.048
X-127.277 Y-76.251
X-127.708 Y-77.469
X-128.099 Y-78.701
X-128.45 Y-79.944
X-128.76 Y-81.198
X-129.028 Y-82.462
X-129.256 Y-83.734
X-129.441 Y-85.013
X-129.584 Y-86.297
X-129.685 Y-87.585
X-129.744 Y-88.876
X-129.761 Y-90.168
X-129.735 Y-91.459
X-129.667 Y-92.75
X-129.557 Y-94.037
X-129.405 Y-95.32
X-129.211 Y-96.598
X-128.976 Y-97.868
X-128.699 Y-99.13
X-128.38 Y-100.382
X-128.021 Y-101.623
X-127.621 Y-102.852
X-127.181 Y-104.067
X-126.702 Y-105.267
X-126.184 Y-106.45
X-125.627 Y-107.616
X-125.033 Y-108.764
X-124.402 Y-109.891
X-123.734 Y-110.997
X-123.03 Y-112.081
X-122.292 Y-113.141
X-121.519 Y-114.177
X-120.714 Y-115.187
X-119.875 Y-116.17
X-119.005 Y-117.125
X-118.104 Y-118.051
X-117.174 Y-118.948
X-116.215 Y-119.813
X-115.227 Y-120.647
X-114.213 Y-121.448
X-113.174 Y-122.215
X-112.11 Y-122.948
X-111.022 Y-123.646
X-109.913 Y-124.308
X-108.782 Y-124.933
X-107.632 Y-125.522
X-106.463 Y-126.072
X-105.277 Y-126.584
X-104.075 Y-127.057
X-102.857 Y-127.491
X-101.627 Y-127.884
X-100.384 Y-128.237
X-99.13 Y-128.549
X-97.867 Y-128.82
X-96.595 Y-129.051
X-95.317 Y-129.239
X-94.033 Y-129.387
X-92.746 Y-129.492
X-91.455 Y-129.556
X-90.163 Y-129.578
X-88.871 Y-129.558
X-87.581 Y-129.496
X-86.293 Y-129.392
X-85.009 Y-129.247
X-83.731 Y-129.06
X-82.459 Y-128.831
X-81.195 Y-128.562
X-79.941 Y-128.251
X-78.698 Y-127.899
X-77.467 Y-127.508
X-76.249 Y-127.076
X-75.045 Y-126.606
X-73.858 Y-126.097
X-72.688 Y-125.549
X-71.535 Y-124.965
X-70.403 Y-124.343
X-69.291 Y-123.685
X-68.201 Y-122.991
X-67.134 Y-122.262
X-66.091 Y-121.499
X-65.074 Y-120.703
X-64.082 Y-119.875
X-63.118 Y-119.014
X-62.182 Y-118.124
X-61.275 Y-117.203
X-60.398 Y-116.254
X-59.553 Y-115.278
X-58.739 Y-114.274
X-57.957 Y-113.245
X-57.209 Y-112.192
X-56.495 Y-111.115
X-55.816 Y-110.016
X-55.173 Y-108.895
X-54.566 Y-107.755
X-53.996 Y-106.595
X-53.464 Y-105.418
X-52.97 Y-104.224
X-52.515 Y-103.015
X-52.099 Y-101.791
X-51.722 Y-100.555
X-51.385 Y-99.308
X-51.089 Y-98.05
X-50.833 Y-96.784
X-50.618 Y-95.51
X-50.445 Y-94.229
X-50.312 Y-92.944
X-50.221 Y-91.655
X-50.173 Y-90.364
X-50.166 Y-89.072
X-50.2 Y-87.781
X-50.276 Y-86.491
X-50.394 Y-85.204
X-50.553 Y-83.922
X-50.754 Y-82.645
X-50.995 Y-81.376
X-51.276 Y-80.115
X-51.598 Y-78.864
X-51.96 Y-77.623
X-52.362 Y-76.395
X-52.802 Y-75.181
X-53.282 Y-73.981
X-53.799 Y-72.797
X-54.355 Y-71.63
X-54.947 Y-70.482
X-55.576 Y-69.354
X-56.242 Y-68.246
X-56.942 Y-67.16
X-57.677 Y-66.098
X-58.446 Y-65.059
X-59.248 Y-64.046
X-60.082 Y-63.059
X-60.947 Y-62.1
X-61.842 Y-61.168
X-62.767 Y-60.266
X-63.72 Y-59.394
X-64.701 Y-58.553
X-65.708 Y-57.743
X-66.741 Y-56.967
X-67.799 Y-56.225
X-68.879 Y-55.517
X-69.982 Y-54.843
X-71.106 Y-54.206
X-72.25 Y-53.605
X-73.412 Y-53.041
X-74.592 Y-52.515
X-75.788 Y-52.026
X-77 Y-51.576
X-78.225 Y-51.165
X-79.462 Y-50.794
X-80.711 Y-50.462
X-81.969 Y-50.17
X-83.237 Y-49.918
X-84.511 Y-49.707
X-85.792 Y-49.537
X-87.078 Y-49.408
X-88.367 Y-49.32
X-89.658 Y-49.273
X-90.95 Y-49.268
X-92.242 Y-49.304
X-93.531 Y-49.381
X-94.818 Y-49.499
X-96.1 Y-49.657
X-97.377 Y-49.857
X-98.646 Y-50.097
X-99.908 Y-50.377
X-101.159 Y-50.698
X-102.4 Y-51.058
X-103.629 Y-51.458
X-104.844 Y-51.896
X-106.045 Y-52.373
X-107.23 Y-52.889
X-108.398 Y-53.441
X-109.548 Y-54.031
X-110.678 Y-54.656
X-111.788 Y-55.318
X-112.876 Y-56.014
X-113.942 Y-56.744
X-114.984 Y-57.508
X-116.001 Y-58.305
X-116.993 Y-59.133
X-117.958 Y-59.993
X-118.895 Y-60.882
X-119.803 Y-61.801
X-120.682 Y-62.748
X-121.53 Y-63.723
X-122.347 Y-64.724
X-123.132 Y-65.75
X-123.883 Y-66.801
X-124.602 Y-67.875
X-125.285 Y-68.972
X-125.934 Y-70.089
X-126.547 Y-71.226
X-127.124 Y-72.382
X-127.664 Y-73.556
X-128.167 Y-74.747
X-128.631 Y-75.952
X-129.058 Y-77.172
X-129.445 Y-78.405
X-129.793 Y-79.649
X-130.101 Y-80.904
X-130.369 Y-82.168
X-130.598 Y-83.439
X-130.786 Y-84.718
X-130.933 Y-86.001
X-131.04 Y-87.289
X-131.106 Y-88.579
X-131.131 Y-89.871
X-131.115 Y-91.163
X-131.059 Y-92.454
X-130.962 Y-93.742
X-130.824 Y-95.027
X-130.646 Y-96.307
X-130.427 Y-97.58
X-130.169 Y-98.846
X-129.87 Y-100.103
X-129.532 Y-101.35
X-129.154 Y-102.586
X-128.738 Y-103.809
X-128.283 Y-105.018
X-127.79 Y-106.213
X-127.26 Y-107.391
X-126.693 Y-108.552
X-126.09 Y-109.695
X-125.451 Y-110.818
X-124.777 Y-111.92
X-124.068 Y-113
X-123.326 Y-114.057
X-122.55 Y-115.091
X-121.742 Y-116.099
X-120.903 Y-117.081
X-120.033 Y-118.036
X-119.133 Y-118.964
X-118.204 Y-119.862
X-117.248 Y-120.731
X-116.265 Y-121.569
X-115.255 Y-122.376
X-114.221 Y-123.15
X-113.163 Y-123.891
X-112.082 Y-124.599
X-110.979 Y-125.272
X-109.856 Y-125.911
X-108.713 Y-126.513
X-107.551 Y-127.08
X-106.373 Y-127.609
X-105.178 Y-128.101
X-103.968 Y-128.555
X-102.745 Y-128.971
X-101.509 Y-129.348
X-100.262 Y-129.686
X-99.005 Y-129.984
X-97.739 Y-130.243
X-96.466 Y-130.462
X-95.186 Y-130.641
X-93.902 Y-130.78
X-92.613 Y-130.878
X-91.323 Y-130.936
X-90.031 Y-130.953
X-88.739 Y-130.929
X-87.448 Y-130.865
X-86.161 Y-130.76
X-84.877 Y-130.615
X-83.598 Y-130.429
X-82.326 Y-130.204
X-81.061 Y-129.938
X-79.806 Y-129.633
X-78.56 Y-129.289
X-77.327 Y-128.906
X-76.105 Y-128.484
X-74.898 Y-128.025
X-73.705 Y-127.528
X-72.528 Y-126.994
X-71.369 Y-126.423
X-70.228 Y-125.817
X-69.107 Y-125.175
X-68.006 Y-124.499
X-66.927 Y-123.788
X-65.871 Y-123.044
X-64.838 Y-122.267
X-63.83 Y-121.459
X-62.848 Y-120.62
X-61.892 Y-119.75
X-60.964 Y-118.851
X-60.064 Y-117.924
X-59.194 Y-116.969
X-58.353 Y-115.988
X-57.544 Y-114.981
X-56.766 Y-113.949
X-56.021 Y-112.893
X-55.31 Y-111.815
X-54.632 Y-110.715
X-53.989 Y-109.594
X-53.381 Y-108.454
X-52.808 Y-107.296
X-52.272 Y-106.12
X-51.773 Y-104.928
X-51.311 Y-103.722
X-50.887 Y-102.501
X-50.501 Y-101.268
X-50.153 Y-100.024
X-49.845 Y-98.769
X-49.575 Y-97.506
X-49.345 Y-96.234
X-49.154 Y-94.956
X-49.003 Y-93.673
X-48.893 Y-92.386
X-48.823 Y-91.096
X-48.793 Y-89.804
X-48.803 Y-88.512
X-48.853 Y-87.221
X-48.944 Y-85.932
X-49.075 Y-84.647
X-49.245 Y-83.366
X-49.455 Y-82.091
X-49.705 Y-80.823
X-49.994 Y-79.564
X-50.322 Y-78.314
X-50.689 Y-77.075
X-51.095 Y-75.849
X-51.538 Y-74.635
X-52.019 Y-73.436
X-52.537 Y-72.252
X-53.091 Y-71.085
X-53.681 Y-69.936
X-54.307 Y-68.805
X-54.968 Y-67.695
X-55.663 Y-66.606
X-56.391 Y-65.538
X-57.152 Y-64.494
X-57.945 Y-63.474
X-58.77 Y-62.479
X-59.624 Y-61.51
X-60.509 Y-60.568
X-61.422 Y-59.654
X-62.363 Y-58.769
X-63.331 Y-57.913
X-64.325 Y-57.088
X-65.344 Y-56.294
X-66.388 Y-55.532
X-67.455 Y-54.803
X-68.543 Y-54.107
X-69.653 Y-53.446
X-70.783 Y-52.819
X-71.931 Y-52.227
X-73.098 Y-51.671
X-74.281 Y-51.152
X-75.48 Y-50.67
X-76.693 Y-50.225
X-77.919 Y-49.818
X-79.157 Y-49.449
X-80.407 Y-49.119
X-81.665 Y-48.828
X-82.933 Y-48.576
X-84.207 Y-48.363
X-85.487 Y-48.189
X-86.772 Y-48.055
X-88.061 Y-47.961
X-89.352 Y-47.907
X-90.644 Y-47.892
X-91.936 Y-47.918
X-93.226 Y-47.983
X-94.514 Y-48.088
X-95.798 Y-48.232
X-97.077 Y-48.415
X-98.35 Y-48.638
X-99.615 Y-48.9
X-100.871 Y-49.201
X-102.118 Y-49.541
X-103.354 Y-49.919
X-104.577 Y-50.334
X-105.787 Y-50.787
X-106.982 Y-51.277
X-108.162 Y-51.804
X-109.325 Y-52.366
X-110.471 Y-52.964
X-111.597 Y-53.598
X-112.703 Y-54.265
X-113.789 Y-54.966
X-114.851 Y-55.701
X-115.891 Y-56.468
X-116.907 Y-57.266
X-117.898 Y-58.096
X-118.862 Y-58.955
X-119.8 Y-59.844
X-120.711 Y-60.761
X-121.592 Y-61.705
X-122.445 Y-62.676
X-123.267 Y-63.673
X-124.058 Y-64.694
X-124.818 Y-65.74
X-125.545 Y-66.808
X-126.239 Y-67.897
X-126.9 Y-69.008
X-127.526 Y-70.138
X-128.118 Y-71.286
X-128.674 Y-72.453
X-129.194 Y-73.635
X-129.678 Y-74.833
X-130.125 Y-76.046
X-130.534 Y-77.271
X-130.906 Y-78.509
X-131.24 Y-79.757
X-131.535 Y-81.015
X-131.792 Y-82.281
X-132.01 Y-83.555
X-132.189 Y-84.834
X-132.328 Y-86.119
X-132.428 Y-87.407
X-132.488 Y-88.698
X-132.509 Y-89.989
X-132.49 Y-91.281
X-132.432 Y-92.572
X-132.334 Y-93.86
X-132.196 Y-95.145
X-132.02 Y-96.425
X-131.804 Y-97.699
X-131.55 Y-98.966
X-131.257 Y-100.224
X-130.926 Y-101.473
X-130.557 Y-102.711
X-130.15 Y-103.938
X-129.706 Y-105.151
X-129.225 Y-106.35
X-128.708 Y-107.534
X-128.155 Y-108.702
X-127.566 Y-109.852
X-126.943 Y-110.984
X-126.285 Y-112.096
X-125.594 Y-113.188
X-124.87 Y-114.258
X-124.114 Y-115.305
X-123.325 Y-116.329
X-122.506 Y-117.328
X-121.657 Y-118.302
X-120.779 Y-119.25
X-119.872 Y-120.17
X-118.937 Y-121.062
X-117.975 Y-121.925
X-116.988 Y-122.758
X-115.975 Y-123.561
X-114.938 Y-124.332
X-113.879 Y-125.071
X-112.797 Y-125.777
X-111.694 Y-126.45
X-110.571 Y-127.089
X-109.429 Y-127.693
X-108.269 Y-128.263
X-107.092 Y-128.796
X-105.9 Y-129.294
X-104.693 Y-129.755
X-103.472 Y-130.179
X-102.24 Y-130.566
X-100.996 Y-130.915
X-99.742 Y-131.226
X-98.479 Y-131.499
X-97.208 Y-131.734
X-95.931 Y-131.93
X-94.649 Y-132.087
X-93.362 Y-132.205
X-92.072 Y-132.283
X-90.781 Y-132.323
X-89.489
X-88.197 Y-132.284
X-86.908 Y-132.206
X-85.621 Y-132.088
X-84.338 Y-131.932
X-83.061 Y-131.737
X-81.79 Y-131.503
X-80.527 Y-131.23
X-79.273 Y-130.919
X-78.029 Y-130.57
X-76.797 Y-130.183
X-75.576 Y-129.759
X-74.369 Y-129.298
X-73.177 Y-128.801
X-72 Y-128.267
X-70.839 Y-127.699
X-69.697 Y-127.096
X-68.573 Y-126.458
X-67.469 Y-125.787
X-66.386 Y-125.083
X-65.324 Y-124.346
X-64.285 Y-123.578
X-63.27 Y-122.778
X-62.28 Y-121.949
X-61.314 Y-121.09
X-60.375 Y-120.203
X-59.464 Y-119.287
X-58.58 Y-118.345
X-57.725 Y-117.376
X-56.899 Y-116.382
X-56.104 Y-115.364
X-55.34 Y-114.322
X-54.607 Y-113.258
X-53.907 Y-112.172
X-53.24 Y-111.065
X-52.607 Y-109.939
X-52.007 Y-108.794
X-51.443 Y-107.632
X-50.913 Y-106.454
X-50.42 Y-105.259
X-49.963 Y-104.051
X-49.542 Y-102.829
X-49.159 Y-101.595
X-48.813 Y-100.35
X-48.505 Y-99.096
X-48.235 Y-97.832
X-48.002 Y-96.561
X-47.809 Y-95.284
X-47.653 Y-94.001
X-47.537 Y-92.714
X-47.459 Y-91.425
X-47.421 Y-90.133
Y-88.841
X-47.46 Y-87.55
X-47.538 Y-86.26
X-47.654 Y-84.973
X-47.81 Y-83.69
X-48.003 Y-82.413
X-48.235 Y-81.142
X-48.506 Y-79.878
X-48.814 Y-78.624
X-49.159 Y-77.379
X-49.542 Y-76.145
X-49.962 Y-74.923
X-50.419 Y-73.714
X-50.912 Y-72.52
X-51.44 Y-71.341
X-52.003 Y-70.178
X-52.602 Y-69.033
X-53.234 Y-67.906
X-53.9 Y-66.799
X-54.599 Y-65.712
X-55.331 Y-64.648
X-56.095 Y-63.605
X-56.889 Y-62.586
X-57.714 Y-61.592
X-58.569 Y-60.623
