%
(1001)
(z0 slate machine -5-5)
(T1  D=6 CR=0 - ZMIN=0.5 - flat end mill)
G90 G94
G17
G21

(2D Adaptive3)
M9
T1 M6
S6000 M3
G54
M9
G0 X-1356.834 Y-511.336
Z30
Z20
Z18.15
G1 Z17.55 F850
G3 X-1353.898 Y-507.468 Z17.347 I0.28 J2.836 F283.3
X-1358.675 Y-506.595 Z17.144 I-2.657 J-1.031
X-1357.296 Y-511.252 Z16.941 I2.12 J-1.904
X-1353.764 Y-507.918 Z16.738 I0.741 J2.752
X-1358.334 Y-506.273 Z16.535 I-2.79 J-0.582
X-1357.737 Y-511.093 Z16.332 I1.779 J-2.226
X-1355.372 Y-505.907 Z16.019 I1.183 J2.593
X-1357.944 Y-506.012 Z15.926 I-1.183 J-2.593
X-1358.146 Y-510.864 Z15.723 I1.39 J-2.488
X-1354.962 Y-506.136 Z15.411 I1.592 J2.364
X-1357.517 Y-505.817 Z15.317 I-1.592 J-2.364
X-1358.513 Y-510.571 Z15.114 I0.963 J-2.682
X-1353.822 Y-509.312 Z14.911 I1.958 J2.071
X-1357.064 Y-505.696 Z14.708 I-2.732 J0.812
X-1356.044 Y-511.304 Z14.396 I0.51 J-2.804
X-1356.597 Y-505.65 Z14.099 I-0.51 J2.804
X-1359.077 Y-509.825 Z13.896 I0.043 J-2.85
X-1354.232 Y-510.152 Z13.693 I2.523 J1.326
X-1358.877 Y-506.848 Z13.381 I-2.322 J1.652
X-1359.261 Y-509.394 Z13.288 I2.322 J-1.652
X-1354.535 Y-510.511 Z13.085 I2.706 J0.894
X-1355.673 Y-505.79 Z12.882 I-2.02 J2.011
X-1359.371 Y-508.937 Z12.679 I-0.882 J-2.71
X-1354.892 Y-510.815 Z12.476 I2.816 J0.438
X-1355.24 Y-505.971 Z12.273 I-1.662 J2.315
X-1359.404 Y-508.47 Z12.07 I-1.314 J-2.529
X-1353.704 Y-508.53 Z11.757 I2.85 J-0.03
X-1354.843 Y-506.221 Z11.664 I-2.85 J0.03
X-1359.361 Y-508.003 Z11.461 I-1.711 J-2.279
X-1353.748 Y-508.997 Z11.148 I2.806 J-0.497
X-1354.492 Y-506.532 Z11.055 I-2.806 J0.497
X-1359.241 Y-507.549 Z10.852 I-2.062 J-1.967
X-1353.868 Y-509.451 Z10.539 I2.687 J-0.951
X-1359.241 Y-507.549 Z10.226 I-2.687 J0.951
X-1353.868 Y-509.451 Z9.914 I2.687 J-0.951
X-1353.967 Y-507.306 Z9.837 I-2.687 J0.951
X-1358.789 Y-506.731 Z9.634 I-2.588 J-1.194
X-1357.124 Y-511.292 Z9.431 I2.234 J-1.769
X-1353.806 Y-507.746 Z9.228 I0.569 J2.793
X-1358.468 Y-506.388 Z9.025 I-2.749 J-0.753
X-1357.574 Y-511.161 Z8.822 I1.914 J-2.112
X-1353.719 Y-508.207 Z8.619 I1.02 J2.661
X-1358.096 Y-506.103 Z8.416 I-2.835 J-0.292
X-1357.997 Y-510.958 Z8.213 I1.542 J-2.397
X-1353.71 Y-508.676 Z8.01 I1.443 J2.458
X-1357.682 Y-505.882 Z7.807 I-2.844 J0.177
X-1358.38 Y-510.688 Z7.604 I1.127 J-2.618
X-1353.777 Y-509.141 Z7.401 I1.826 J2.188
X-1357.237 Y-505.733 Z7.198 I-2.777 J0.641
X-1358.715 Y-510.359 Z6.995 I0.683 J-2.767
X-1354.394 Y-506.641 Z6.683 I2.16 J1.859
X-1356.774 Y-505.658 Z6.589 I-2.16 J-1.859
X-1358.99 Y-509.979 Z6.386 I0.219 J-2.842
X-1354.118 Y-507.021 Z6.074 I2.436 J1.479
X-1356.305 Y-505.661 Z5.98 I-2.436 J-1.479
X-1359.2 Y-509.56 Z5.777 I-0.25 J-2.839
X-1354.414 Y-510.382 Z5.574 I2.646 J1.06
X-1355.842 Y-505.74 Z5.371 I-2.14 J1.882
X-1359.338 Y-509.111 Z5.168 I-0.712 J-2.76
X-1354.752 Y-510.707 Z4.965 I2.784 J0.611
X-1355.399 Y-505.894 Z4.762 I-1.803 J2.207
X-1359.401 Y-508.646 Z4.56 I-1.155 J-2.605
X-1355.138 Y-510.973 Z4.357 I2.846 J0.146
X-1354.988 Y-506.119 Z4.154 I-1.416 J2.473
X-1359.386 Y-508.177 Z3.951 I-1.567 J-2.381
X-1355.563 Y-511.172 Z3.748 I2.832 J-0.322
X-1354.618 Y-506.408 Z3.545 I-0.991 J2.672
X-1359.295 Y-507.717 Z3.342 I-1.936 J-2.091
X-1353.814 Y-509.282 Z3.029 I2.74 J-0.783
X-1354.301 Y-506.754 Z2.936 I-2.74 J0.783
X-1359.129 Y-507.278 Z2.733 I-2.253 J-1.745
X-1356.481 Y-511.349 Z2.53 I2.575 J-1.222
X-1354.046 Y-507.148 Z2.327 I-0.073 J2.849
X-1358.894 Y-506.872 Z2.124 I-2.509 J-1.352
X-1356.949 Y-511.322 Z1.921 I2.34 J-1.627
X-1353.858 Y-507.577 Z1.718 I0.395 J2.822
X-1358.595 Y-506.511 Z1.515 I-2.697 J-0.922
X-1357.407 Y-511.219 Z1.312 I2.041 J-1.989
X-1353.743 Y-508.032 Z1.109 I0.853 J2.719
X-1358.241 Y-506.203 Z0.906 I-2.811 J-0.468
X-1357.842 Y-511.043 Z0.703 I1.687 J-2.297
X-1353.704 Y-508.5 Z0.5 I1.287 J2.543
X-1355.904 Y-505.725 I-2.85
X-1359.182 Y-507.396 I-0.65 J-2.775
X-1358.081 Y-510.907 I2.628 J-1.104
X-1353.704 Y-508.5 I1.527 J2.407
G1 X-1353.691 Y-507.542 F850
X-1353.661 Y-507.426
X-1353.641 Y-507.278
X-1353.639 Y-507.128
X-1353.652 Y-506.978
X-1353.679 Y-506.831
X-1353.718 Y-506.686
X-1353.767 Y-506.544
X-1353.826 Y-506.406
X-1353.894 Y-506.272
X-1353.971 Y-506.143
X-1354.055 Y-506.019
X-1354.146 Y-505.899
X-1354.248 Y-505.782
X-1354.358 Y-505.666
X-1354.479 Y-505.555
X-1354.608 Y-505.448
X-1354.746 Y-505.346
X-1354.893 Y-505.25
X-1355.047 Y-505.16
X-1355.209 Y-505.079
X-1355.378 Y-505.005
X-1355.554 Y-504.94
X-1355.735 Y-504.885
X-1355.921 Y-504.839
X-1356.112 Y-504.803
X-1356.306 Y-504.778
X-1356.503 Y-504.763
X-1356.702 Y-504.76
X-1356.902 Y-504.768
X-1357.103 Y-504.788
X-1357.303 Y-504.818
X-1357.503 Y-504.861
X-1357.701 Y-504.915
X-1357.896 Y-504.98
X-1358.088 Y-505.056
X-1358.276 Y-505.143
X-1358.46 Y-505.241
X-1358.638 Y-505.35
X-1358.81 Y-505.468
X-1358.976 Y-505.597
X-1359.134 Y-505.735
X-1359.285 Y-505.882
X-1359.427 Y-506.037
X-1359.561 Y-506.2
X-1359.686 Y-506.371
X-1359.8 Y-506.549
X-1359.905 Y-506.733
X-1359.999 Y-506.923
X-1360.083 Y-507.118
X-1360.155 Y-507.318
X-1360.216 Y-507.521
X-1360.266 Y-507.728
X-1360.304 Y-507.937
X-1360.33 Y-508.148
X-1360.344 Y-508.361
X-1360.346 Y-508.574
X-1360.336 Y-508.787
X-1360.314 Y-508.999
X-1360.28 Y-509.209
X-1360.235 Y-509.418
X-1360.177 Y-509.623
X-1360.109 Y-509.825
X-1360.029 Y-510.023
X-1359.938 Y-510.216
X-1359.836 Y-510.404
X-1359.724 Y-510.585
X-1359.601 Y-510.76
X-1359.469 Y-510.928
X-1359.328 Y-511.088
X-1359.178 Y-511.24
X-1359.02 Y-511.384
X-1358.854 Y-511.518
X-1358.68 Y-511.643
X-1358.5 Y-511.757
X-1358.313 Y-511.862
X-1358.122 Y-511.955
X-1357.925 Y-512.038
X-1357.723 Y-512.11
X-1357.518 Y-512.17
X-1357.31 Y-512.218
X-1357.1 Y-512.255
X-1356.887 Y-512.28
X-1356.674 Y-512.292
X-1356.46 Y-512.293
X-1356.247 Y-512.282
X-1356.035 Y-512.259
X-1355.824 Y-512.223
X-1355.615 Y-512.176
X-1355.41 Y-512.118
X-1355.208 Y-512.047
X-1355.01 Y-511.966
X-1354.818 Y-511.874
X-1354.63 Y-511.771
X-1354.449 Y-511.657
X-1354.275 Y-511.534
X-1354.108 Y-511.4
X-1353.948 Y-511.258
X-1353.797 Y-511.107
X-1353.655 Y-510.948
X-1353.522 Y-510.781
X-1353.398 Y-510.606
X-1353.285 Y-510.425
X-1353.181 Y-510.238
X-1353.077 Y-510.021
X-1352.948 Y-509.709
X-1352.797 Y-509.273
X-1352.699 Y-508.931
X-1352.632 Y-508.634
X-1352.586 Y-508.362
X-1352.558 Y-508.107
X-1352.551 Y-507.979
X-1352.554 Y-507.722
X-1352.59 Y-507.467
X-1352.658 Y-507.218
X-1352.81 Y-506.781
X-1352.831 Y-506.727
X-1352.857 Y-506.672
X-1352.965 Y-506.498
X-1353.197 Y-506.128
X-1353.344 Y-505.91
X-1353.401 Y-505.852
X-1353.836 Y-505.42
X-1354.012 Y-505.258
X-1354.054 Y-505.23
X-1354.706 Y-504.82
X-1354.761 Y-504.789
X-1354.815 Y-504.765
X-1355.577 Y-504.496
X-1355.686 Y-504.47
X-1356.23 Y-504.408
X-1356.448 Y-504.384
X-1356.556 Y-504.376
X-1356.665 Y-504.385
X-1357.318 Y-504.458
X-1357.427 Y-504.471
X-1357.536 Y-504.497
X-1358.297 Y-504.766
X-1358.352 Y-504.79
X-1358.407 Y-504.822
X-1359.059 Y-505.232
X-1359.098 Y-505.258
X-1359.277 Y-505.422
X-1359.712 Y-505.854
X-1359.766 Y-505.91
X-1359.913 Y-506.128
X-1360.186 Y-506.563
X-1360.253 Y-506.672
X-1360.3 Y-506.781
X-1360.526 Y-507.434
X-1360.562 Y-507.538
X-1360.583 Y-507.643
X-1360.656 Y-508.304
X-1360.674 Y-508.522
X-1360.651 Y-508.739
X-1360.583 Y-509.358
X-1360.578 Y-509.392
X-1360.511 Y-509.61
X-1360.36 Y-510.045
X-1360.284 Y-510.263
X-1360.258 Y-510.317
X-1360.226 Y-510.372
X-1359.817 Y-511.024
X-1359.775 Y-511.079
X-1359.724 Y-511.133
X-1359.168 Y-511.685
X-1359.114 Y-511.731
X-1359.059 Y-511.768
X-1358.406 Y-512.178
X-1358.328 Y-512.221
X-1358.189 Y-512.273
X-1357.536 Y-512.503
X-1357.427 Y-512.529
X-1357.1 Y-512.566
X-1356.665 Y-512.615
X-1356.556 Y-512.624
X-1356.448 Y-512.616
X-1355.795 Y-512.542
X-1355.686 Y-512.53
X-1355.577 Y-512.504
X-1354.924 Y-512.274
X-1354.783 Y-512.221
X-1354.706 Y-512.18
X-1354.054 Y-511.77
X-1353.999 Y-511.733
X-1353.945 Y-511.687
X-1353.824 Y-511.569
X-1353.386 Y-511.133
X-1353.335 Y-511.079
X-1353.294 Y-511.024
X-1352.884 Y-510.372
X-1352.852 Y-510.317
X-1352.826 Y-510.263
X-1352.748 Y-510.04
X-1352.599 Y-509.61
X-1352.53 Y-509.39
X-1352.503 Y-509.175
X-1352.452 Y-508.739
X-1352.429 Y-508.522
X-1352.447 Y-508.304
X-1352.524 Y-507.651
X-1352.53 Y-507.612
X-1352.584 Y-507.434
X-1352.658 Y-507.218
G3 X-1352.784 Y-507.02 I-0.56 J-0.216
G1 X-1352.848 Y-506.953 Z0.507
X-1352.912 Y-506.886 Z0.529
X-1352.972 Y-506.823 Z0.565
X-1353.027 Y-506.765 Z0.615
X-1353.076 Y-506.713 Z0.676
X-1353.118 Y-506.669 Z0.747
X-1353.152 Y-506.633 Z0.828
X-1353.177 Y-506.607 Z0.915
X-1353.192 Y-506.591 Z1.006
X-1353.198 Y-506.586 Z1.1
G0 Z30

(2D Contour3)
S8000 M3
M9
X-1356.55 Y-508.5
Z30
Z20
G1 Z0.5 F850
G3 X-1356.25 Y-508.8 I0.3
G1 X-1352.2
G3 X-1351.9 Y-508.5 J0.3
X-1359.34 Y-504.78 I-4.65
Y-512.22 I2.79 J-3.72
X-1351.9 Y-508.5 I2.79 J3.72
X-1359.34 Y-504.78 I-4.65
Y-512.22 I2.79 J-3.72
X-1351.9 Y-508.5 I2.79 J3.72
X-1352.5 Y-507.9 I-0.6
G1 X-1353.1
G18 G3 X-1353.7 Z1.1 K0.6
G0 Z30
G17

(2D Adaptive3)
S6000 M3
M9
G0 X-1356.834 Y-219.336
Z30
Z20
Z18.15
G1 Z17.55 F850
G3 X-1353.898 Y-215.468 Z17.347 I0.28 J2.836 F283.3
X-1358.675 Y-214.595 Z17.144 I-2.657 J-1.031
X-1357.296 Y-219.252 Z16.941 I2.12 J-1.904
X-1353.764 Y-215.918 Z16.738 I0.741 J2.752
X-1358.334 Y-214.273 Z16.535 I-2.79 J-0.582
X-1357.737 Y-219.093 Z16.332 I1.779 J-2.226
X-1355.372 Y-213.907 Z16.019 I1.183 J2.593
X-1357.944 Y-214.012 Z15.926 I-1.183 J-2.593
X-1358.146 Y-218.864 Z15.723 I1.39 J-2.488
X-1354.962 Y-214.136 Z15.411 I1.592 J2.364
X-1357.517 Y-213.817 Z15.317 I-1.592 J-2.364
X-1358.513 Y-218.571 Z15.114 I0.963 J-2.682
X-1353.822 Y-217.312 Z14.911 I1.958 J2.071
X-1357.064 Y-213.696 Z14.708 I-2.732 J0.812
X-1356.044 Y-219.304 Z14.396 I0.51 J-2.804
X-1356.597 Y-213.65 Z14.099 I-0.51 J2.804
X-1359.077 Y-217.825 Z13.896 I0.043 J-2.85
X-1354.232 Y-218.152 Z13.693 I2.523 J1.326
X-1358.877 Y-214.848 Z13.381 I-2.322 J1.652
X-1359.261 Y-217.394 Z13.288 I2.322 J-1.652
X-1354.535 Y-218.511 Z13.085 I2.706 J0.894
X-1355.673 Y-213.79 Z12.882 I-2.02 J2.011
X-1359.371 Y-216.937 Z12.679 I-0.882 J-2.71
X-1354.892 Y-218.815 Z12.476 I2.816 J0.438
X-1355.24 Y-213.971 Z12.273 I-1.662 J2.315
X-1359.404 Y-216.47 Z12.07 I-1.314 J-2.529
X-1353.704 Y-216.53 Z11.757 I2.85 J-0.03
X-1354.843 Y-214.221 Z11.664 I-2.85 J0.03
X-1359.361 Y-216.003 Z11.461 I-1.711 J-2.279
X-1353.748 Y-216.997 Z11.148 I2.806 J-0.497
X-1354.492 Y-214.532 Z11.055 I-2.806 J0.497
X-1359.241 Y-215.549 Z10.852 I-2.062 J-1.967
X-1353.868 Y-217.451 Z10.539 I2.687 J-0.951
X-1359.241 Y-215.549 Z10.226 I-2.687 J0.951
X-1353.868 Y-217.451 Z9.914 I2.687 J-0.951
X-1353.967 Y-215.306 Z9.837 I-2.687 J0.951
X-1358.789 Y-214.731 Z9.634 I-2.588 J-1.194
X-1357.124 Y-219.292 Z9.431 I2.234 J-1.769
X-1353.806 Y-215.746 Z9.228 I0.569 J2.793
X-1358.468 Y-214.388 Z9.025 I-2.749 J-0.753
X-1357.574 Y-219.161 Z8.822 I1.914 J-2.112
X-1353.719 Y-216.207 Z8.619 I1.02 J2.661
X-1358.096 Y-214.103 Z8.416 I-2.835 J-0.292
X-1357.997 Y-218.958 Z8.213 I1.542 J-2.397
X-1353.71 Y-216.676 Z8.01 I1.443 J2.458
X-1357.682 Y-213.882 Z7.807 I-2.844 J0.177
X-1358.38 Y-218.688 Z7.604 I1.127 J-2.618
X-1353.777 Y-217.141 Z7.401 I1.826 J2.188
X-1357.237 Y-213.733 Z7.198 I-2.777 J0.641
X-1358.715 Y-218.359 Z6.995 I0.683 J-2.767
X-1354.394 Y-214.641 Z6.683 I2.16 J1.859
X-1356.774 Y-213.658 Z6.589 I-2.16 J-1.859
X-1358.99 Y-217.979 Z6.386 I0.219 J-2.842
X-1354.118 Y-215.021 Z6.074 I2.436 J1.479
X-1356.305 Y-213.661 Z5.98 I-2.436 J-1.479
X-1359.2 Y-217.56 Z5.777 I-0.25 J-2.839
X-1354.414 Y-218.382 Z5.574 I2.646 J1.06
X-1355.842 Y-213.74 Z5.371 I-2.14 J1.882
X-1359.338 Y-217.111 Z5.168 I-0.712 J-2.76
X-1354.752 Y-218.707 Z4.965 I2.784 J0.611
X-1355.399 Y-213.894 Z4.762 I-1.803 J2.207
X-1359.401 Y-216.646 Z4.56 I-1.155 J-2.605
X-1355.138 Y-218.973 Z4.357 I2.846 J0.146
X-1354.988 Y-214.119 Z4.154 I-1.416 J2.473
X-1359.386 Y-216.177 Z3.951 I-1.567 J-2.381
X-1355.563 Y-219.172 Z3.748 I2.832 J-0.322
X-1354.618 Y-214.408 Z3.545 I-0.991 J2.672
X-1359.295 Y-215.717 Z3.342 I-1.936 J-2.091
X-1353.814 Y-217.282 Z3.029 I2.74 J-0.783
X-1354.301 Y-214.754 Z2.936 I-2.74 J0.783
X-1359.129 Y-215.278 Z2.733 I-2.253 J-1.745
X-1356.481 Y-219.349 Z2.53 I2.575 J-1.222
X-1354.046 Y-215.148 Z2.327 I-0.073 J2.849
X-1358.894 Y-214.872 Z2.124 I-2.509 J-1.352
X-1356.949 Y-219.322 Z1.921 I2.34 J-1.627
X-1353.858 Y-215.577 Z1.718 I0.395 J2.822
X-1358.595 Y-214.511 Z1.515 I-2.697 J-0.922
X-1357.407 Y-219.219 Z1.312 I2.041 J-1.989
X-1353.743 Y-216.032 Z1.109 I0.853 J2.719
X-1358.241 Y-214.203 Z0.906 I-2.811 J-0.468
X-1357.842 Y-219.043 Z0.703 I1.687 J-2.297
X-1353.704 Y-216.5 Z0.5 I1.287 J2.543
X-1355.904 Y-213.725 I-2.85
X-1359.182 Y-215.396 I-0.65 J-2.775
X-1358.081 Y-218.907 I2.628 J-1.104
X-1353.704 Y-216.5 I1.527 J2.407
G1 X-1353.691 Y-215.542 F850
X-1353.661 Y-215.426
X-1353.641 Y-215.278
X-1353.639 Y-215.128
X-1353.652 Y-214.978
X-1353.679 Y-214.831
X-1353.718 Y-214.686
X-1353.767 Y-214.544
X-1353.826 Y-214.406
X-1353.894 Y-214.272
X-1353.971 Y-214.143
X-1354.055 Y-214.019
X-1354.146 Y-213.899
X-1354.248 Y-213.782
X-1354.358 Y-213.666
X-1354.479 Y-213.555
X-1354.608 Y-213.448
X-1354.746 Y-213.346
X-1354.893 Y-213.25
X-1355.047 Y-213.16
X-1355.209 Y-213.079
X-1355.378 Y-213.005
X-1355.554 Y-212.94
X-1355.735 Y-212.885
X-1355.921 Y-212.839
X-1356.112 Y-212.803
X-1356.306 Y-212.778
X-1356.503 Y-212.763
X-1356.702 Y-212.76
X-1356.902 Y-212.768
X-1357.103 Y-212.788
X-1357.303 Y-212.818
X-1357.503 Y-212.861
X-1357.701 Y-212.915
X-1357.896 Y-212.98
X-1358.088 Y-213.056
X-1358.276 Y-213.143
X-1358.46 Y-213.241
X-1358.638 Y-213.35
X-1358.81 Y-213.468
X-1358.976 Y-213.597
X-1359.134 Y-213.735
X-1359.285 Y-213.882
X-1359.427 Y-214.037
X-1359.561 Y-214.2
X-1359.686 Y-214.371
X-1359.8 Y-214.549
X-1359.905 Y-214.733
X-1359.999 Y-214.923
X-1360.083 Y-215.118
X-1360.155 Y-215.318
X-1360.216 Y-215.521
X-1360.266 Y-215.728
X-1360.304 Y-215.937
X-1360.33 Y-216.148
X-1360.344 Y-216.361
X-1360.346 Y-216.574
X-1360.336 Y-216.787
X-1360.314 Y-216.999
X-1360.28 Y-217.209
X-1360.235 Y-217.418
X-1360.177 Y-217.623
X-1360.109 Y-217.825
X-1360.029 Y-218.023
X-1359.938 Y-218.216
X-1359.836 Y-218.404
X-1359.724 Y-218.585
X-1359.601 Y-218.76
X-1359.469 Y-218.928
X-1359.328 Y-219.088
X-1359.178 Y-219.24
X-1359.02 Y-219.384
X-1358.854 Y-219.518
X-1358.68 Y-219.643
X-1358.5 Y-219.757
X-1358.313 Y-219.862
X-1358.122 Y-219.955
X-1357.925 Y-220.038
X-1357.723 Y-220.11
X-1357.518 Y-220.17
X-1357.31 Y-220.218
X-1357.1 Y-220.255
X-1356.887 Y-220.28
X-1356.674 Y-220.292
X-1356.46 Y-220.293
X-1356.247 Y-220.282
X-1356.035 Y-220.259
X-1355.824 Y-220.223
X-1355.615 Y-220.176
X-1355.41 Y-220.118
X-1355.208 Y-220.047
X-1355.01 Y-219.966
X-1354.818 Y-219.874
X-1354.63 Y-219.771
X-1354.449 Y-219.657
X-1354.275 Y-219.534
X-1354.108 Y-219.4
X-1353.948 Y-219.258
X-1353.797 Y-219.107
X-1353.655 Y-218.948
X-1353.522 Y-218.781
X-1353.398 Y-218.606
X-1353.285 Y-218.425
X-1353.181 Y-218.238
X-1353.077 Y-218.021
X-1352.948 Y-217.709
X-1352.797 Y-217.273
X-1352.699 Y-216.931
X-1352.632 Y-216.634
X-1352.586 Y-216.362
X-1352.558 Y-216.107
X-1352.551 Y-215.979
X-1352.554 Y-215.722
X-1352.59 Y-215.467
X-1352.658 Y-215.218
X-1352.81 Y-214.781
X-1352.831 Y-214.727
X-1352.857 Y-214.672
X-1352.965 Y-214.498
X-1353.197 Y-214.128
X-1353.344 Y-213.91
X-1353.401 Y-213.852
X-1353.836 Y-213.42
X-1354.012 Y-213.258
X-1354.054 Y-213.23
X-1354.706 Y-212.82
X-1354.761 Y-212.789
X-1354.815 Y-212.765
X-1355.577 Y-212.496
X-1355.686 Y-212.47
X-1356.23 Y-212.408
X-1356.448 Y-212.384
X-1356.556 Y-212.376
X-1356.665 Y-212.385
X-1357.318 Y-212.458
X-1357.427 Y-212.471
X-1357.536 Y-212.497
X-1358.297 Y-212.766
X-1358.352 Y-212.79
X-1358.407 Y-212.822
X-1359.059 Y-213.232
X-1359.098 Y-213.258
X-1359.277 Y-213.422
X-1359.712 Y-213.854
X-1359.766 Y-213.91
X-1359.913 Y-214.128
X-1360.186 Y-214.563
X-1360.253 Y-214.672
X-1360.3 Y-214.781
X-1360.526 Y-215.434
X-1360.562 Y-215.538
X-1360.583 Y-215.643
X-1360.656 Y-216.304
X-1360.674 Y-216.522
X-1360.651 Y-216.739
X-1360.583 Y-217.358
X-1360.578 Y-217.392
X-1360.511 Y-217.61
X-1360.36 Y-218.045
X-1360.284 Y-218.263
X-1360.258 Y-218.317
X-1360.226 Y-218.372
X-1359.817 Y-219.024
X-1359.775 Y-219.079
X-1359.724 Y-219.133
X-1359.168 Y-219.685
X-1359.114 Y-219.731
X-1359.059 Y-219.768
X-1358.406 Y-220.178
X-1358.328 Y-220.221
X-1358.189 Y-220.273
X-1357.536 Y-220.503
X-1357.427 Y-220.529
X-1357.1 Y-220.566
X-1356.665 Y-220.615
X-1356.556 Y-220.624
X-1356.448 Y-220.616
X-1355.795 Y-220.542
X-1355.686 Y-220.53
X-1355.577 Y-220.504
X-1354.924 Y-220.274
X-1354.783 Y-220.221
X-1354.706 Y-220.18
X-1354.054 Y-219.77
X-1353.999 Y-219.733
X-1353.945 Y-219.687
X-1353.824 Y-219.569
X-1353.386 Y-219.133
X-1353.335 Y-219.079
X-1353.294 Y-219.024
X-1352.884 Y-218.372
X-1352.852 Y-218.317
X-1352.826 Y-218.263
X-1352.748 Y-218.04
X-1352.599 Y-217.61
X-1352.53 Y-217.39
X-1352.503 Y-217.175
X-1352.452 Y-216.739
X-1352.429 Y-216.522
X-1352.447 Y-216.304
X-1352.524 Y-215.651
X-1352.53 Y-215.612
X-1352.584 Y-215.434
X-1352.658 Y-215.218
G3 X-1352.784 Y-215.02 I-0.56 J-0.216
G1 X-1352.848 Y-214.953 Z0.507
X-1352.912 Y-214.886 Z0.529
X-1352.972 Y-214.823 Z0.565
X-1353.027 Y-214.765 Z0.615
X-1353.076 Y-214.713 Z0.676
X-1353.118 Y-214.669 Z0.747
X-1353.152 Y-214.633 Z0.828
X-1353.177 Y-214.607 Z0.915
X-1353.192 Y-214.591 Z1.006
X-1353.198 Y-214.586 Z1.1
G0 Z30

(2D Contour3)
S8000 M3
M9
X-1356.55 Y-216.5
Z30
Z20
G1 Z0.5 F850
G3 X-1356.25 Y-216.8 I0.3
G1 X-1352.2
G3 X-1351.9 Y-216.5 J0.3
X-1359.34 Y-212.78 I-4.65
Y-220.22 I2.79 J-3.72
X-1351.9 Y-216.5 I2.79 J3.72
X-1359.34 Y-212.78 I-4.65
Y-220.22 I2.79 J-3.72
X-1351.9 Y-216.5 I2.79 J3.72
X-1352.5 Y-215.9 I-0.6
G1 X-1353.1
G18 G3 X-1353.7 Z1.1 K0.6
G0 Z30
G17

(2D Adaptive3)
S6000 M3
M9
G0 X-1304.184 Y-56.686
Z30
Z20
Z18.15
G1 Z17.55 F850
G3 X-1301.248 Y-52.818 Z17.347 I0.28 J2.836 F283.3
X-1306.025 Y-51.945 Z17.144 I-2.657 J-1.031
X-1304.646 Y-56.602 Z16.941 I2.12 J-1.904
X-1301.114 Y-53.268 Z16.738 I0.741 J2.752
X-1305.684 Y-51.623 Z16.535 I-2.79 J-0.582
X-1305.087 Y-56.443 Z16.332 I1.779 J-2.226
X-1302.722 Y-51.257 Z16.019 I1.183 J2.593
X-1305.294 Y-51.362 Z15.926 I-1.183 J-2.593
X-1305.496 Y-56.214 Z15.723 I1.39 J-2.488
X-1302.312 Y-51.486 Z15.411 I1.592 J2.364
X-1304.867 Y-51.167 Z15.317 I-1.592 J-2.364
X-1305.863 Y-55.921 Z15.114 I0.963 J-2.682
X-1301.172 Y-54.662 Z14.911 I1.958 J2.071
X-1304.414 Y-51.046 Z14.708 I-2.732 J0.812
X-1303.394 Y-56.654 Z14.396 I0.51 J-2.804
X-1303.947 Y-51 Z14.099 I-0.51 J2.804
X-1306.427 Y-55.175 Z13.896 I0.043 J-2.85
X-1301.582 Y-55.502 Z13.693 I2.523 J1.326
X-1306.226 Y-52.198 Z13.381 I-2.322 J1.652
X-1306.611 Y-54.743 Z13.288 I2.322 J-1.652
X-1301.885 Y-55.861 Z13.085 I2.706 J0.894
X-1303.023 Y-51.14 Z12.882 I-2.02 J2.011
X-1306.721 Y-54.287 Z12.679 I-0.882 J-2.71
X-1302.242 Y-56.165 Z12.476 I2.816 J0.438
X-1302.59 Y-51.321 Z12.273 I-1.662 J2.315
X-1306.754 Y-53.82 Z12.07 I-1.314 J-2.529
X-1301.054 Y-53.88 Z11.757 I2.85 J-0.03
X-1302.193 Y-51.571 Z11.664 I-2.85 J0.03
X-1306.711 Y-53.352 Z11.461 I-1.711 J-2.279
X-1301.098 Y-54.347 Z11.148 I2.806 J-0.497
X-1301.842 Y-51.882 Z11.055 I-2.806 J0.497
X-1306.591 Y-52.899 Z10.852 I-2.062 J-1.967
X-1301.218 Y-54.801 Z10.539 I2.687 J-0.951
X-1306.591 Y-52.899 Z10.226 I-2.687 J0.951
X-1301.218 Y-54.801 Z9.914 I2.687 J-0.951
X-1301.317 Y-52.656 Z9.837 I-2.687 J0.951
X-1306.139 Y-52.081 Z9.634 I-2.588 J-1.194
X-1304.474 Y-56.642 Z9.431 I2.234 J-1.769
X-1301.156 Y-53.096 Z9.228 I0.569 J2.793
X-1305.818 Y-51.738 Z9.025 I-2.749 J-0.753
X-1304.924 Y-56.511 Z8.822 I1.914 J-2.112
X-1301.069 Y-53.557 Z8.619 I1.02 J2.661
X-1305.446 Y-51.453 Z8.416 I-2.835 J-0.292
X-1305.347 Y-56.308 Z8.213 I1.542 J-2.397
X-1301.06 Y-54.026 Z8.01 I1.443 J2.458
X-1305.032 Y-51.232 Z7.807 I-2.844 J0.177
X-1305.73 Y-56.038 Z7.604 I1.127 J-2.618
X-1301.127 Y-54.491 Z7.401 I1.826 J2.188
X-1304.587 Y-51.083 Z7.198 I-2.777 J0.641
X-1306.065 Y-55.709 Z6.995 I0.683 J-2.767
X-1301.744 Y-51.991 Z6.683 I2.16 J1.859
X-1304.124 Y-51.008 Z6.589 I-2.16 J-1.859
X-1306.34 Y-55.329 Z6.386 I0.219 J-2.842
X-1301.468 Y-52.37 Z6.074 I2.436 J1.479
X-1303.655 Y-51.011 Z5.98 I-2.436 J-1.479
X-1306.55 Y-54.91 Z5.777 I-0.25 J-2.839
X-1301.764 Y-55.732 Z5.574 I2.646 J1.06
X-1303.192 Y-51.09 Z5.371 I-2.14 J1.882
X-1306.688 Y-54.461 Z5.168 I-0.712 J-2.76
X-1302.102 Y-56.057 Z4.965 I2.784 J0.611
X-1302.749 Y-51.244 Z4.762 I-1.803 J2.207
X-1306.751 Y-53.996 Z4.56 I-1.155 J-2.605
X-1302.488 Y-56.323 Z4.357 I2.846 J0.146
X-1302.338 Y-51.469 Z4.154 I-1.416 J2.473
X-1306.736 Y-53.527 Z3.951 I-1.567 J-2.381
X-1302.913 Y-56.522 Z3.748 I2.832 J-0.322
X-1301.968 Y-51.758 Z3.545 I-0.991 J2.672
X-1306.645 Y-53.067 Z3.342 I-1.936 J-2.091
X-1301.164 Y-54.632 Z3.029 I2.74 J-0.783
X-1301.651 Y-52.104 Z2.936 I-2.74 J0.783
X-1306.479 Y-52.628 Z2.733 I-2.253 J-1.745
X-1303.831 Y-56.699 Z2.53 I2.575 J-1.222
X-1301.396 Y-52.498 Z2.327 I-0.073 J2.849
X-1306.244 Y-52.222 Z2.124 I-2.509 J-1.352
X-1304.299 Y-56.672 Z1.921 I2.34 J-1.627
X-1301.208 Y-52.927 Z1.718 I0.395 J2.822
X-1305.945 Y-51.861 Z1.515 I-2.697 J-0.922
X-1304.757 Y-56.569 Z1.312 I2.041 J-1.989
X-1301.093 Y-53.382 Z1.109 I0.853 J2.719
X-1305.591 Y-51.553 Z0.906 I-2.811 J-0.468
X-1305.192 Y-56.393 Z0.703 I1.687 J-2.297
X-1301.054 Y-53.85 Z0.5 I1.287 J2.543
X-1303.254 Y-51.075 I-2.85
X-1306.532 Y-52.746 I-0.65 J-2.775
X-1305.431 Y-56.257 I2.628 J-1.104
X-1301.054 Y-53.85 I1.527 J2.407
G1 X-1301.041 Y-52.892 F850
X-1301.011 Y-52.776
X-1300.991 Y-52.628
X-1300.989 Y-52.478
X-1301.002 Y-52.328
X-1301.029 Y-52.181
X-1301.068 Y-52.036
X-1301.117 Y-51.894
X-1301.176 Y-51.756
X-1301.244 Y-51.622
X-1301.321 Y-51.493
X-1301.405 Y-51.369
X-1301.496 Y-51.249
X-1301.598 Y-51.132
X-1301.708 Y-51.016
X-1301.828 Y-50.905
X-1301.958 Y-50.798
X-1302.096 Y-50.696
X-1302.243 Y-50.6
X-1302.397 Y-50.51
X-1302.559 Y-50.429
X-1302.728 Y-50.355
X-1302.904 Y-50.29
X-1303.085 Y-50.234
X-1303.271 Y-50.189
X-1303.462 Y-50.153
X-1303.656 Y-50.128
X-1303.853 Y-50.113
X-1304.052 Y-50.11
X-1304.252 Y-50.118
X-1304.453 Y-50.138
X-1304.653 Y-50.168
X-1304.853 Y-50.211
X-1305.051 Y-50.265
X-1305.246 Y-50.33
X-1305.438 Y-50.406
X-1305.626 Y-50.493
X-1305.81 Y-50.591
X-1305.988 Y-50.7
X-1306.16 Y-50.818
X-1306.326 Y-50.947
X-1306.484 Y-51.085
X-1306.635 Y-51.232
X-1306.777 Y-51.387
X-1306.911 Y-51.55
X-1307.036 Y-51.721
X-1307.15 Y-51.899
X-1307.255 Y-52.083
X-1307.349 Y-52.273
X-1307.433 Y-52.468
X-1307.505 Y-52.668
X-1307.566 Y-52.871
X-1307.616 Y-53.078
X-1307.654 Y-53.287
X-1307.68 Y-53.498
X-1307.694 Y-53.711
X-1307.696 Y-53.924
X-1307.686 Y-54.137
X-1307.664 Y-54.349
X-1307.63 Y-54.559
X-1307.585 Y-54.768
X-1307.527 Y-54.973
X-1307.459 Y-55.175
X-1307.379 Y-55.373
X-1307.287 Y-55.566
X-1307.186 Y-55.754
X-1307.073 Y-55.935
X-1306.951 Y-56.11
X-1306.819 Y-56.278
X-1306.678 Y-56.438
X-1306.528 Y-56.59
X-1306.37 Y-56.734
X-1306.204 Y-56.868
X-1306.03 Y-56.993
X-1305.85 Y-57.107
X-1305.663 Y-57.212
X-1305.472 Y-57.305
X-1305.275 Y-57.388
X-1305.073 Y-57.46
X-1304.868 Y-57.52
X-1304.66 Y-57.568
X-1304.45 Y-57.605
X-1304.237 Y-57.63
X-1304.024 Y-57.642
X-1303.81 Y-57.643
X-1303.597 Y-57.632
X-1303.385 Y-57.609
X-1303.174 Y-57.573
X-1302.965 Y-57.526
X-1302.76 Y-57.468
X-1302.558 Y-57.397
X-1302.36 Y-57.316
X-1302.168 Y-57.224
X-1301.98 Y-57.12
X-1301.799 Y-57.007
X-1301.625 Y-56.884
X-1301.458 Y-56.75
X-1301.298 Y-56.608
X-1301.147 Y-56.457
X-1301.005 Y-56.298
X-1300.872 Y-56.13
X-1300.748 Y-55.956
X-1300.635 Y-55.775
X-1300.531 Y-55.588
X-1300.427 Y-55.371
X-1300.298 Y-55.059
X-1300.147 Y-54.623
X-1300.049 Y-54.281
X-1299.982 Y-53.984
X-1299.936 Y-53.712
X-1299.908 Y-53.457
X-1299.901 Y-53.329
X-1299.904 Y-53.072
X-1299.94 Y-52.817
X-1300.008 Y-52.568
X-1300.16 Y-52.131
X-1300.181 Y-52.076
X-1300.207 Y-52.022
X-1300.315 Y-51.848
X-1300.547 Y-51.478
X-1300.694 Y-51.26
X-1300.751 Y-51.202
X-1301.186 Y-50.77
X-1301.362 Y-50.608
X-1301.404 Y-50.58
X-1302.056 Y-50.17
X-1302.111 Y-50.139
X-1302.165 Y-50.115
X-1302.927 Y-49.846
X-1303.036 Y-49.82
X-1303.58 Y-49.758
X-1303.797 Y-49.734
X-1303.906 Y-49.726
X-1304.015 Y-49.735
X-1304.668 Y-49.808
X-1304.777 Y-49.821
X-1304.886 Y-49.847
X-1305.647 Y-50.116
X-1305.702 Y-50.14
X-1305.757 Y-50.172
X-1306.409 Y-50.582
X-1306.448 Y-50.608
X-1306.627 Y-50.772
X-1307.062 Y-51.204
X-1307.116 Y-51.26
X-1307.263 Y-51.478
X-1307.536 Y-51.913
X-1307.603 Y-52.022
X-1307.65 Y-52.131
X-1307.876 Y-52.784
X-1307.911 Y-52.888
X-1307.932 Y-52.993
X-1308.006 Y-53.654
X-1308.024 Y-53.872
X-1308.001 Y-54.089
X-1307.932 Y-54.708
X-1307.927 Y-54.742
X-1307.861 Y-54.96
X-1307.71 Y-55.395
X-1307.634 Y-55.613
X-1307.608 Y-55.667
X-1307.576 Y-55.722
X-1307.167 Y-56.374
X-1307.125 Y-56.429
X-1307.074 Y-56.483
X-1306.518 Y-57.035
X-1306.464 Y-57.081
X-1306.409 Y-57.118
X-1305.756 Y-57.528
X-1305.677 Y-57.571
X-1305.539 Y-57.623
X-1304.886 Y-57.853
X-1304.777 Y-57.879
X-1304.45 Y-57.916
X-1304.015 Y-57.965
X-1303.906 Y-57.974
X-1303.797 Y-57.966
X-1303.145 Y-57.892
X-1303.036 Y-57.88
X-1302.927 Y-57.854
X-1302.274 Y-57.624
X-1302.133 Y-57.571
X-1302.056 Y-57.53
X-1301.404 Y-57.12
X-1301.349 Y-57.083
X-1301.295 Y-57.037
X-1301.174 Y-56.918
X-1300.736 Y-56.483
X-1300.685 Y-56.429
X-1300.644 Y-56.374
X-1300.234 Y-55.722
X-1300.202 Y-55.667
X-1300.176 Y-55.613
X-1300.098 Y-55.39
X-1299.949 Y-54.96
X-1299.88 Y-54.74
X-1299.853 Y-54.525
X-1299.802 Y-54.089
X-1299.779 Y-53.872
X-1299.797 Y-53.654
X-1299.874 Y-53.001
X-1299.88 Y-52.962
X-1299.934 Y-52.784
X-1300.008 Y-52.568
G3 X-1300.134 Y-52.37 I-0.56 J-0.216
G1 X-1300.198 Y-52.302 Z0.507
X-1300.262 Y-52.236 Z0.529
X-1300.322 Y-52.173 Z0.565
X-1300.377 Y-52.115 Z0.615
X-1300.426 Y-52.063 Z0.676
X-1300.468 Y-52.019 Z0.747
X-1300.502 Y-51.983 Z0.828
X-1300.527 Y-51.957 Z0.915
X-1300.542 Y-51.941 Z1.006
X-1300.547 Y-51.936 Z1.1
G0 Z30

(2D Contour3)
S8000 M3
M9
X-1303.9 Y-53.85
Z30
Z20
G1 Z0.5 F850
G3 X-1303.6 Y-54.15 I0.3
G1 X-1299.55
G3 X-1299.25 Y-53.85 J0.3
X-1306.69 Y-50.13 I-4.65
Y-57.57 I2.79 J-3.72
X-1299.25 Y-53.85 I2.79 J3.72
X-1306.69 Y-50.13 I-4.65
Y-57.57 I2.79 J-3.72
X-1299.25 Y-53.85 I2.79 J3.72
X-1299.85 Y-53.25 I-0.6
G1 X-1300.45
G18 G3 X-1301.05 Z1.1 K0.6
G0 Z30
G17

(2D Adaptive3)
S6000 M3
M9
G0 X-174.184 Y-56.686
Z30
Z20
Z18.15
G1 Z17.55 F850
G3 X-171.248 Y-52.818 Z17.347 I0.28 J2.836 F283.3
X-176.025 Y-51.945 Z17.144 I-2.657 J-1.031
X-174.646 Y-56.602 Z16.941 I2.12 J-1.904
X-171.115 Y-53.268 Z16.738 I0.741 J2.752
X-175.684 Y-51.623 Z16.535 I-2.79 J-0.582
X-175.087 Y-56.443 Z16.332 I1.779 J-2.226
X-172.722 Y-51.257 Z16.019 I1.183 J2.593
X-175.294 Y-51.362 Z15.926 I-1.183 J-2.593
X-175.496 Y-56.214 Z15.723 I1.39 J-2.488
X-172.312 Y-51.486 Z15.411 I1.592 J2.364
X-174.867 Y-51.167 Z15.317 I-1.592 J-2.364
X-175.863 Y-55.921 Z15.114 I0.963 J-2.682
X-171.172 Y-54.662 Z14.911 I1.958 J2.071
X-174.414 Y-51.046 Z14.708 I-2.732 J0.812
X-173.395 Y-56.654 Z14.396 I0.51 J-2.804
X-173.947 Y-51 Z14.099 I-0.51 J2.804
X-176.427 Y-55.175 Z13.896 I0.043 J-2.85
X-171.582 Y-55.502 Z13.693 I2.523 J1.326
X-176.227 Y-52.198 Z13.381 I-2.322 J1.652
X-176.611 Y-54.743 Z13.288 I2.322 J-1.652
X-171.885 Y-55.861 Z13.085 I2.706 J0.894
X-173.023 Y-51.14 Z12.882 I-2.02 J2.011
X-176.721 Y-54.287 Z12.679 I-0.882 J-2.71
X-172.242 Y-56.165 Z12.476 I2.816 J0.438
X-172.59 Y-51.321 Z12.273 I-1.662 J2.315
X-176.754 Y-53.82 Z12.07 I-1.314 J-2.529
X-171.055 Y-53.88 Z11.757 I2.85 J-0.03
X-172.193 Y-51.571 Z11.664 I-2.85 J0.03
X-176.711 Y-53.352 Z11.461 I-1.711 J-2.279
X-171.098 Y-54.347 Z11.148 I2.806 J-0.497
X-171.842 Y-51.882 Z11.055 I-2.806 J0.497
X-176.591 Y-52.899 Z10.852 I-2.062 J-1.967
X-171.218 Y-54.801 Z10.539 I2.687 J-0.951
X-176.591 Y-52.899 Z10.226 I-2.687 J0.951
X-171.218 Y-54.801 Z9.914 I2.687 J-0.951
X-171.317 Y-52.656 Z9.837 I-2.687 J0.951
X-176.139 Y-52.081 Z9.634 I-2.588 J-1.194
X-174.474 Y-56.642 Z9.431 I2.234 J-1.769
X-171.156 Y-53.096 Z9.228 I0.569 J2.793
X-175.818 Y-51.738 Z9.025 I-2.749 J-0.753
X-174.924 Y-56.511 Z8.822 I1.914 J-2.112
X-171.069 Y-53.557 Z8.619 I1.02 J2.661
X-175.446 Y-51.453 Z8.416 I-2.835 J-0.292
X-175.347 Y-56.308 Z8.213 I1.542 J-2.397
X-171.06 Y-54.026 Z8.01 I1.443 J2.458
X-175.032 Y-51.232 Z7.807 I-2.844 J0.177
X-175.731 Y-56.038 Z7.604 I1.127 J-2.618
X-171.127 Y-54.491 Z7.401 I1.826 J2.188
X-174.587 Y-51.083 Z7.198 I-2.777 J0.641
X-176.065 Y-55.709 Z6.995 I0.683 J-2.767
X-171.744 Y-51.991 Z6.683 I2.16 J1.859
X-174.124 Y-51.008 Z6.589 I-2.16 J-1.859
X-176.34 Y-55.329 Z6.386 I0.219 J-2.842
X-171.468 Y-52.37 Z6.074 I2.436 J1.479
X-173.655 Y-51.011 Z5.98 I-2.436 J-1.479
X-176.55 Y-54.91 Z5.777 I-0.25 J-2.839
X-171.764 Y-55.732 Z5.574 I2.646 J1.06
X-173.193 Y-51.09 Z5.371 I-2.14 J1.882
X-176.688 Y-54.461 Z5.168 I-0.712 J-2.76
X-172.102 Y-56.057 Z4.965 I2.784 J0.611
X-172.749 Y-51.244 Z4.762 I-1.803 J2.207
X-176.751 Y-53.996 Z4.56 I-1.155 J-2.605
X-172.488 Y-56.323 Z4.357 I2.846 J0.146
X-172.338 Y-51.469 Z4.154 I-1.416 J2.473
X-176.736 Y-53.527 Z3.951 I-1.567 J-2.381
X-172.913 Y-56.522 Z3.748 I2.832 J-0.322
X-171.968 Y-51.758 Z3.545 I-0.991 J2.672
X-176.645 Y-53.067 Z3.342 I-1.936 J-2.091
X-171.164 Y-54.632 Z3.029 I2.74 J-0.783
X-171.651 Y-52.104 Z2.936 I-2.74 J0.783
X-176.479 Y-52.628 Z2.733 I-2.253 J-1.745
X-173.831 Y-56.699 Z2.53 I2.575 J-1.222
X-171.396 Y-52.498 Z2.327 I-0.073 J2.849
X-176.244 Y-52.222 Z2.124 I-2.509 J-1.352
X-174.3 Y-56.672 Z1.921 I2.34 J-1.627
X-171.208 Y-52.927 Z1.718 I0.395 J2.822
X-175.945 Y-51.861 Z1.515 I-2.697 J-0.922
X-174.757 Y-56.569 Z1.312 I2.041 J-1.989
X-171.093 Y-53.382 Z1.109 I0.853 J2.719
X-175.591 Y-51.553 Z0.906 I-2.811 J-0.468
X-175.192 Y-56.393 Z0.703 I1.687 J-2.297
X-171.054 Y-53.85 Z0.5 I1.287 J2.543
X-173.255 Y-51.075 I-2.85
X-176.532 Y-52.746 I-0.65 J-2.775
X-175.431 Y-56.257 I2.628 J-1.104
X-171.054 Y-53.85 I1.527 J2.407
G1 X-171.041 Y-52.892 F850
X-171.011 Y-52.776
X-170.991 Y-52.628
X-170.989 Y-52.478
X-171.003 Y-52.328
X-171.029 Y-52.181
X-171.068 Y-52.036
X-171.117 Y-51.894
X-171.176 Y-51.756
X-171.244 Y-51.622
X-171.321 Y-51.493
X-171.405 Y-51.369
X-171.496 Y-51.249
X-171.598 Y-51.132
X-171.708 Y-51.016
X-171.829 Y-50.905
X-171.958 Y-50.798
X-172.096 Y-50.696
X-172.243 Y-50.6
X-172.397 Y-50.51
X-172.559 Y-50.429
X-172.729 Y-50.355
X-172.904 Y-50.29
X-173.085 Y-50.234
X-173.271 Y-50.189
X-173.462 Y-50.153
X-173.656 Y-50.128
X-173.853 Y-50.113
X-174.052 Y-50.11
X-174.252 Y-50.118
X-174.453 Y-50.138
X-174.654 Y-50.168
X-174.853 Y-50.211
X-175.051 Y-50.265
X-175.246 Y-50.33
X-175.438 Y-50.406
X-175.626 Y-50.493
X-175.81 Y-50.591
X-175.988 Y-50.7
X-176.16 Y-50.818
X-176.326 Y-50.947
X-176.484 Y-51.085
X-176.635 Y-51.232
X-176.778 Y-51.387
X-176.911 Y-51.55
X-177.036 Y-51.721
X-177.151 Y-51.899
X-177.255 Y-52.083
X-177.349 Y-52.273
X-177.433 Y-52.468
X-177.505 Y-52.668
X-177.566 Y-52.871
X-177.616 Y-53.078
X-177.654 Y-53.287
X-177.68 Y-53.498
X-177.694 Y-53.711
X-177.696 Y-53.924
X-177.686 Y-54.137
X-177.664 Y-54.349
X-177.63 Y-54.559
X-177.585 Y-54.768
X-177.527 Y-54.973
X-177.459 Y-55.175
X-177.379 Y-55.373
X-177.288 Y-55.566
X-177.186 Y-55.754
X-177.074 Y-55.935
X-176.951 Y-56.11
X-176.819 Y-56.278
X-176.678 Y-56.438
X-176.528 Y-56.59
X-176.37 Y-56.734
X-176.204 Y-56.868
X-176.03 Y-56.993
X-175.85 Y-57.107
X-175.664 Y-57.212
X-175.472 Y-57.305
X-175.275 Y-57.388
X-175.073 Y-57.46
X-174.868 Y-57.52
X-174.66 Y-57.568
X-174.45 Y-57.605
X-174.237 Y-57.63
X-174.024 Y-57.642
X-173.81 Y-57.643
X-173.597 Y-57.632
X-173.385 Y-57.609
X-173.174 Y-57.573
X-172.965 Y-57.526
X-172.76 Y-57.468
X-172.558 Y-57.397
X-172.36 Y-57.316
X-172.168 Y-57.224
X-171.981 Y-57.12
X-171.8 Y-57.007
X-171.625 Y-56.884
X-171.458 Y-56.75
X-171.299 Y-56.608
X-171.147 Y-56.457
X-171.005 Y-56.298
X-170.872 Y-56.13
X-170.748 Y-55.956
X-170.635 Y-55.775
X-170.531 Y-55.588
X-170.427 Y-55.371
X-170.298 Y-55.059
X-170.147 Y-54.623
X-170.049 Y-54.281
X-169.982 Y-53.984
X-169.936 Y-53.712
X-169.908 Y-53.457
X-169.901 Y-53.329
X-169.904 Y-53.072
X-169.94 Y-52.817
X-170.009 Y-52.568
X-170.16 Y-52.131
X-170.181 Y-52.076
X-170.208 Y-52.022
X-170.316 Y-51.848
X-170.547 Y-51.478
X-170.694 Y-51.26
X-170.751 Y-51.202
X-171.186 Y-50.77
X-171.363 Y-50.608
X-171.404 Y-50.58
X-172.057 Y-50.17
X-172.111 Y-50.139
X-172.165 Y-50.115
X-172.927 Y-49.846
X-173.036 Y-49.82
X-173.58 Y-49.758
X-173.798 Y-49.734
X-173.906 Y-49.726
X-174.015 Y-49.735
X-174.668 Y-49.808
X-174.777 Y-49.821
X-174.886 Y-49.847
X-175.647 Y-50.116
X-175.702 Y-50.14
X-175.757 Y-50.172
X-176.409 Y-50.582
X-176.448 Y-50.608
X-176.627 Y-50.772
X-177.062 Y-51.204
X-177.116 Y-51.26
X-177.263 Y-51.478
X-177.536 Y-51.913
X-177.603 Y-52.022
X-177.65 Y-52.131
X-177.876 Y-52.784
X-177.912 Y-52.888
X-177.933 Y-52.993
X-178.006 Y-53.654
X-178.024 Y-53.872
X-178.002 Y-54.089
X-177.933 Y-54.708
X-177.928 Y-54.742
X-177.861 Y-54.96
X-177.71 Y-55.395
X-177.634 Y-55.613
X-177.609 Y-55.667
X-177.576 Y-55.722
X-177.167 Y-56.374
X-177.125 Y-56.429
X-177.074 Y-56.483
X-176.518 Y-57.035
X-176.464 Y-57.081
X-176.409 Y-57.118
X-175.756 Y-57.528
X-175.678 Y-57.571
X-175.539 Y-57.623
X-174.886 Y-57.853
X-174.777 Y-57.879
X-174.451 Y-57.916
X-174.015 Y-57.965
X-173.906 Y-57.974
X-173.798 Y-57.966
X-173.145 Y-57.892
X-173.036 Y-57.88
X-172.927 Y-57.854
X-172.274 Y-57.624
X-172.133 Y-57.571
X-172.057 Y-57.53
X-171.404 Y-57.12
X-171.349 Y-57.083
X-171.295 Y-57.037
X-171.174 Y-56.918
X-170.736 Y-56.483
X-170.685 Y-56.429
X-170.644 Y-56.374
X-170.234 Y-55.722
X-170.202 Y-55.667
X-170.176 Y-55.613
X-170.098 Y-55.39
X-169.949 Y-54.96
X-169.88 Y-54.74
X-169.854 Y-54.525
X-169.802 Y-54.089
X-169.779 Y-53.872
X-169.797 Y-53.654
X-169.874 Y-53.001
X-169.88 Y-52.962
X-169.934 Y-52.784
X-170.009 Y-52.568
G3 X-170.134 Y-52.37 I-0.56 J-0.216
G1 X-170.199 Y-52.302 Z0.507
X-170.262 Y-52.236 Z0.529
X-170.322 Y-52.173 Z0.565
X-170.377 Y-52.115 Z0.615
X-170.426 Y-52.063 Z0.676
X-170.469 Y-52.019 Z0.747
X-170.502 Y-51.983 Z0.828
X-170.527 Y-51.957 Z0.915
X-170.543 Y-51.941 Z1.006
X-170.548 Y-51.936 Z1.1
G0 Z30

(2D Contour3)
S8000 M3
M9
X-173.9 Y-53.85
Z30
Z20
G1 Z0.5 F850
G3 X-173.6 Y-54.15 I0.3
G1 X-169.55
G3 X-169.25 Y-53.85 J0.3
X-176.69 Y-50.13 I-4.65
Y-57.57 I2.79 J-3.72
X-169.25 Y-53.85 I2.79 J3.72
X-176.69 Y-50.13 I-4.65
Y-57.57 I2.79 J-3.72
X-169.25 Y-53.85 I2.79 J3.72
X-169.85 Y-53.25 I-0.6
G1 X-170.45
G18 G3 X-171.05 Z1.1 K0.6
G0 Z30
G17

(2D Adaptive2)
S6000 M3
M9
G0 X-1334.475 Y-74.245
Z30
Z20
Z18.1
G1 Z17.5 F850
G3 X-1336.788 Y-73.352 Z17.396 I-1.427 J-0.255 F283.3
X-1336.512 Y-75.816 Z17.292 I0.885 J-1.148
X-1334.454 Y-74.432 Z17.188 I0.609 J1.316
X-1336.632 Y-73.247 Z17.085 I-1.448 J-0.068
X-1336.677 Y-75.726 Z16.981 I0.73 J-1.253
X-1334.458 Y-74.62 Z16.877 I0.774 J1.226
X-1336.464 Y-73.163 Z16.773 I-1.445 J0.12
X-1336.829 Y-75.616 Z16.669 I0.562 J-1.337
X-1334.485 Y-74.806 Z16.565 I0.926 J1.116
X-1336.287 Y-73.102 Z16.461 I-1.417 J0.306
X-1336.965 Y-75.487 Z16.358 I0.384 J-1.398
X-1334.537 Y-74.986 Z16.254 I1.063 J0.987
X-1336.103 Y-73.064 Z16.15 I-1.366 J0.486
X-1337.084 Y-75.341 Z16.046 I0.2 J-1.436
X-1334.611 Y-75.159 Z15.942 I1.181 J0.841
X-1335.915 Y-73.05 Z15.838 I-1.292 J0.659
X-1337.183 Y-75.181 Z15.734 I0.013 J-1.45
X-1334.707 Y-75.32 Z15.63 I1.28 J0.681
X-1337.098 Y-73.68 Z15.471 I-1.196 J0.82
X-1337.26 Y-75.01 Z15.423 I1.196 J-0.82
X-1334.823 Y-75.468 Z15.319 I1.357 J0.51
X-1335.543 Y-73.095 Z15.215 I-1.08 J0.968
X-1337.315 Y-74.83 Z15.111 I-0.36 J-1.405
X-1334.957 Y-75.6 Z15.007 I1.412 J0.33
X-1335.364 Y-73.154 Z14.903 I-0.945 J1.1
X-1337.345 Y-74.645 Z14.8 I-0.538 J-1.346
X-1335.108 Y-75.713 Z14.696 I1.443 J0.145
X-1335.195 Y-73.235 Z14.592 I-0.795 J1.213
X-1337.352 Y-74.457 Z14.488 I-0.708 J-1.265
X-1334.453 Y-74.543 Z14.329 I1.449 J-0.043
X-1335.037 Y-73.337 Z14.28 I-1.449 J0.043
X-1337.334 Y-74.27 Z14.176 I-0.866 J-1.163
X-1335.445 Y-75.876 Z14.073 I1.432 J-0.23
X-1334.894 Y-73.458 Z13.969 I-0.458 J1.376
X-1337.293 Y-74.087 Z13.865 I-1.009 J-1.042
X-1335.627 Y-75.924 Z13.761 I1.39 J-0.413
X-1334.768 Y-73.598 Z13.657 I-0.276 J1.424
X-1337.227 Y-73.911 Z13.553 I-1.135 J-0.902
X-1335.813 Y-75.947 Z13.449 I1.325 J-0.589
X-1335.992 Y-73.053 Z13.29 I-0.09 J1.447
X-1337.14 Y-73.744 Z13.242 I0.09 J-1.447
X-1336.001 Y-75.947 Z13.138 I1.237 J-0.756
X-1334.574 Y-73.919 Z13.034 I0.098 J1.447
X-1337.032 Y-73.591 Z12.93 I-1.328 J-0.581
X-1336.187 Y-75.922 Z12.826 I1.129 J-0.909
X-1334.51 Y-74.095 Z12.722 I0.285 J1.422
X-1336.905 Y-73.452 Z12.619 I-1.392 J-0.405
X-1336.369 Y-75.873 Z12.515 I1.002 J-1.048
X-1334.47 Y-74.279 Z12.411 I0.466 J1.373
X-1336.761 Y-73.331 Z12.307 I-1.433 J-0.221
X-1336.542 Y-75.801 Z12.203 I0.858 J-1.169
X-1334.453 Y-74.466 Z12.099 I0.64 J1.301
X-1336.603 Y-73.23 Z11.995 I-1.45 J-0.034
X-1336.705 Y-75.708 Z11.891 I0.7 J-1.27
X-1334.461 Y-74.654 Z11.788 I0.802 J1.208
X-1336.433 Y-73.15 Z11.684 I-1.442 J0.154
X-1336.855 Y-75.594 Z11.58 I0.53 J-1.35
X-1334.493 Y-74.839 Z11.476 I0.952 J1.094
X-1336.254 Y-73.093 Z11.372 I-1.41 J0.339
X-1336.988 Y-75.461 Z11.268 I0.351 J-1.407
X-1334.548 Y-75.018 Z11.164 I1.085 J0.961
X-1337.257 Y-73.982 Z11.005 I-1.354 J0.518
X-1337.103 Y-75.313 Z10.957 I1.354 J-0.518
X-1334.627 Y-75.189 Z10.853 I1.201 J0.813
X-1335.881 Y-73.05 Z10.749 I-1.276 J0.689
X-1337.198 Y-75.151 Z10.645 I-0.021 J-1.45
X-1334.607 Y-73.849 Z10.486 I1.296 J0.651
X-1335.694 Y-73.065 Z10.437 I-1.296 J-0.651
X-1337.272 Y-74.978 Z10.334 I-0.209 J-1.435
X-1334.846 Y-75.493 Z10.23 I1.369 J0.478
X-1335.51 Y-73.104 Z10.126 I-1.057 J0.993
X-1337.322 Y-74.797 Z10.022 I-0.393 J-1.396
X-1334.984 Y-75.621 Z9.918 I1.419 J0.297
X-1335.333 Y-73.167 Z9.814 I-0.919 J1.121
X-1337.348 Y-74.611 Z9.71 I-0.57 J-1.333
X-1335.136 Y-75.731 Z9.607 I1.446 J0.111
X-1335.165 Y-73.251 Z9.503 I-0.766 J1.231
X-1337.351 Y-74.423 Z9.399 I-0.737 J-1.249
X-1335.302 Y-75.82 Z9.295 I1.448 J-0.077
X-1335.01 Y-73.357 Z9.191 I-0.601 J1.32
X-1337.328 Y-74.236 Z9.087 I-0.893 J-1.143
X-1335.477 Y-75.886 Z8.983 I1.426 J-0.264
X-1334.87 Y-73.482 Z8.88 I-0.425 J1.386
X-1337.282 Y-74.054 Z8.776 I-1.033 J-1.018
X-1335.66 Y-75.93 Z8.672 I1.38 J-0.446
X-1334.747 Y-73.624 Z8.568 I-0.242 J1.43
X-1337.213 Y-73.88 Z8.464 I-1.156 J-0.876
X-1335.847 Y-75.949 Z8.36 I1.311 J-0.62
X-1334.643 Y-73.781 Z8.256 I-0.056 J1.449
X-1337.122 Y-73.715 Z8.152 I-1.259 J-0.719
X-1334.683 Y-75.285 Z7.993 I1.219 J-0.785
X-1334.561 Y-73.95 Z7.945 I-1.219 J0.785
X-1337.01 Y-73.564 Z7.841 I-1.342 J-0.55
X-1336.221 Y-75.915 Z7.737 I1.108 J-0.936
X-1334.501 Y-74.128 Z7.633 I0.318 J1.415
X-1336.88 Y-73.429 Z7.529 I-1.402 J-0.372
X-1336.401 Y-75.862 Z7.425 I0.977 J-1.071
X-1334.465 Y-74.313 Z7.322 I0.498 J1.362
X-1336.733 Y-73.312 Z7.218 I-1.438 J-0.187
X-1336.573 Y-75.786 Z7.114 I0.831 J-1.188
X-1334.453 Y-74.5 Z7.01 I0.67 J1.286
X-1336.24 Y-73.09 I-1.45
X-1337.195 Y-75.157 I0.338 J-1.41
X-1335.246 Y-75.793 I1.293 J0.657
X-1334.453 Y-74.5 I-0.657 J1.293
G1 X-1334.44 Y-74.25 F850
X-1334.428 Y-74.127
X-1334.44 Y-74.004
X-1334.476 Y-73.885
X-1334.485 Y-73.863
X-1334.504 Y-73.822
X-1334.583 Y-73.662
X-1334.705 Y-73.509
X-1334.819 Y-73.378
X-1334.906 Y-73.296
X-1334.96 Y-73.259
X-1335.108 Y-73.164
X-1335.206 Y-73.102
X-1335.255 Y-73.077
X-1335.309 Y-73.056
X-1335.611 Y-72.967
X-1335.712 Y-72.95
X-1335.913 Y-72.947
X-1336.115 Y-72.952
X-1336.316 Y-73.001
X-1336.504 Y-73.058
X-1336.517 Y-73.062
X-1336.618 Y-73.11
X-1336.85 Y-73.259
X-1336.92 Y-73.311
X-1337.058 Y-73.46
X-1337.121 Y-73.534
X-1337.221 Y-73.662
X-1337.323 Y-73.87
X-1337.404 Y-74.064
X-1337.439 Y-74.266
X-1337.464 Y-74.467
X-1337.461 Y-74.568
X-1337.42 Y-74.87
X-1337.394 Y-74.97
X-1337.35 Y-75.071
X-1337.257 Y-75.272
X-1337.201 Y-75.369
X-1337.115 Y-75.474
X-1336.936 Y-75.675
X-1336.92 Y-75.689
X-1336.719 Y-75.825
X-1336.639 Y-75.877
X-1336.578 Y-75.911
X-1336.517 Y-75.938
X-1336.316 Y-75.999
X-1336.115 Y-76.048
X-1335.913 Y-76.053
X-1335.712 Y-76.05
X-1335.611 Y-76.033
X-1335.309 Y-75.944
X-1335.24 Y-75.916
X-1335.171 Y-75.877
X-1335.108 Y-75.836
X-1334.906 Y-75.703
X-1334.872 Y-75.675
X-1334.69 Y-75.474
X-1334.605 Y-75.373
X-1334.573 Y-75.323
X-1334.547 Y-75.272
X-1334.455 Y-75.071
X-1334.412 Y-74.97
X-1334.386 Y-74.87
X-1334.342 Y-74.568
X-1334.339 Y-74.467
X-1334.366 Y-74.266
X-1334.401 Y-74.064
X-1334.476 Y-73.885
X-1334.507 Y-73.84 Z7.017
X-1334.537 Y-73.798 Z7.036
X-1334.563 Y-73.76 Z7.067
X-1334.585 Y-73.73 Z7.108
X-1334.6 Y-73.708 Z7.157
X-1334.61 Y-73.699 Z7.2
X-1334.613 Y-73.696 Z7.246
G0 Z20
X-1335.917 Y-73.05
Z10.11
G1 Z9.51 F850
G3 X-1337.199 Y-75.149 Z9.407 I0.015 J-1.45 F283.3
X-1334.751 Y-75.381 Z9.305 I1.297 J0.649
X-1335.617 Y-73.078 Z9.202 I-1.152 J0.881
X-1337.306 Y-74.867 Z9.1 I-0.286 J-1.422
X-1334.958 Y-75.6 Z8.997 I1.403 J0.367
X-1335.329 Y-73.168 Z8.895 I-0.945 J1.1
X-1337.351 Y-74.568 Z8.792 I-0.574 J-1.332
X-1335.206 Y-75.772 Z8.69 I1.448 J0.068
X-1335.065 Y-73.316 Z8.587 I-0.697 J1.272
X-1337.334 Y-74.267 Z8.485 I-0.837 J-1.184
X-1335.484 Y-75.888 Z8.382 I1.431 J-0.233
X-1334.838 Y-73.515 Z8.28 I-0.418 J1.388
X-1337.255 Y-73.976 Z8.177 I-1.064 J-0.985
X-1334.551 Y-75.024 Z8.018 I1.352 J-0.524
X-1334.658 Y-73.757 Z7.972 I-1.352 J0.524
X-1337.117 Y-73.707 Z7.87 I-1.245 J-0.743
X-1334.689 Y-75.293 Z7.71 I1.214 J-0.793
X-1334.531 Y-74.031 Z7.664 I-1.214 J0.793
X-1336.926 Y-73.473 Z7.562 I-1.372 J-0.469
X-1336.377 Y-75.87 Z7.459 I1.023 J-1.027
X-1334.463 Y-74.325 Z7.357 I0.474 J1.37
X-1336.691 Y-73.283 Z7.254 I-1.439 J-0.175
X-1336.65 Y-75.743 Z7.152 I0.789 J-1.217
X-1334.458 Y-74.627 Z7.049 I0.747 J1.242
X-1336.422 Y-73.146 Z6.947 I-1.444 J0.127
X-1336.891 Y-75.561 Z6.844 I0.52 J-1.354
X-1334.516 Y-74.923 Z6.742 I0.988 J1.061
X-1337.29 Y-74.077 Z6.583 I-1.387 J0.423
X-1337.089 Y-75.333 Z6.537 I1.387 J-0.423
X-1334.633 Y-75.201 Z6.434 I1.187 J0.833
X-1337.172 Y-73.799 Z6.275 I-1.269 J0.701
X-1334.633 Y-75.201 Z6.116 I1.269 J-0.701
X-1335.531 Y-73.098 Z6.024 I-1.269 J0.701
X-1337.325 Y-74.781 Z5.921 I-0.371 J-1.402
X-1335.026 Y-75.655 Z5.819 I1.422 J0.281
X-1335.249 Y-73.206 Z5.716 I-0.877 J1.155
X-1337.353 Y-74.48 Z5.614 I-0.654 J-1.294
X-1334.453 Y-74.52 Z5.455 I1.45 J-0.02
X-1334.995 Y-73.369 Z5.409 I-1.45 J0.02
X-1337.317 Y-74.181 Z5.306 I-0.907 J-1.131
X-1335.569 Y-75.911 Z5.204 I1.414 J-0.319
X-1334.781 Y-73.581 Z5.101 I-0.333 J1.411
X-1337.22 Y-73.895 Z4.999 I-1.122 J-0.919
X-1335.869 Y-75.95 Z4.896 I1.318 J-0.605
X-1334.615 Y-73.834 Z4.794 I-0.034 J1.45
X-1337.067 Y-73.635 Z4.691 I-1.288 J-0.666
X-1336.169 Y-75.925 Z4.589 I1.164 J-0.865
X-1334.505 Y-74.115 Z4.486 I0.267 J1.425
X-1336.862 Y-73.413 Z4.383 I-1.398 J-0.385
X-1336.459 Y-75.839 Z4.281 I0.959 J-1.087
X-1334.455 Y-74.412 Z4.178 I0.556 J1.339
X-1336.616 Y-73.238 Z4.076 I-1.447 J-0.088
X-1336.724 Y-75.695 Z3.973 I0.714 J-1.262
X-1334.469 Y-74.714 Z3.871 I0.821 J1.195
X-1337.337 Y-74.286 Z3.712 I-1.434 J0.214
X-1336.953 Y-75.499 Z3.666 I1.434 J-0.214
X-1334.544 Y-75.006 Z3.563 I1.051 J0.999
X-1337.261 Y-73.994 Z3.404 I-1.359 J0.506
X-1337.138 Y-75.26 Z3.358 I1.359 J-0.506
X-1334.678 Y-75.276 Z3.256 I1.235 J0.76
X-1337.127 Y-73.724 Z3.097 I-1.225 J0.776
X-1337.268 Y-74.988 Z3.051 I1.225 J-0.776
X-1334.865 Y-75.513 Z2.948 I1.365 J0.488
X-1336.94 Y-73.487 Z2.789 I-1.037 J1.013
X-1337.34 Y-74.694 Z2.743 I1.037 J-1.013
X-1335.098 Y-75.706 Z2.64 I1.437 J0.194
X-1335.172 Y-73.248 Z2.538 I-0.805 J1.206
X-1337.349 Y-74.393 Z2.435 I-0.731 J-1.252
X-1335.365 Y-75.847 Z2.333 I1.446 J-0.107
X-1334.929 Y-73.426 Z2.23 I-0.538 J1.347
X-1337.295 Y-74.096 Z2.128 I-0.974 J-1.074
X-1335.655 Y-75.929 Z2.025 I1.392 J-0.404
X-1334.727 Y-73.651 Z1.923 I-0.248 J1.429
X-1337.181 Y-73.816 Z1.82 I-1.175 J-0.849
X-1335.956 Y-75.949 Z1.718 I1.279 J-0.684
X-1334.577 Y-73.913 Z1.615 I0.054 J1.449
X-1337.012 Y-73.566 Z1.513 I-1.326 J-0.587
X-1336.255 Y-75.907 Z1.41 I1.109 J-0.934
X-1334.484 Y-74.2 Z1.308 I0.352 J1.407
X-1336.795 Y-73.357 Z1.205 I-1.419 J-0.3
X-1336.539 Y-75.803 Z1.103 I0.892 J-1.143
X-1334.453 Y-74.5 Z1 I0.636 J1.303
X-1336.24 Y-73.09 I-1.45
X-1337.195 Y-75.157 I0.338 J-1.41
X-1335.246 Y-75.793 I1.293 J0.657
X-1334.453 Y-74.5 I-0.657 J1.293
G1 X-1334.44 Y-74.25 F850
X-1334.428 Y-74.127
X-1334.44 Y-74.004
X-1334.476 Y-73.885
X-1334.485 Y-73.863
X-1334.504 Y-73.822
X-1334.583 Y-73.662
X-1334.705 Y-73.509
X-1334.819 Y-73.378
X-1334.906 Y-73.296
X-1334.96 Y-73.259
X-1335.108 Y-73.164
X-1335.206 Y-73.102
X-1335.255 Y-73.077
X-1335.309 Y-73.056
X-1335.611 Y-72.967
X-1335.712 Y-72.95
X-1335.913 Y-72.947
X-1336.115 Y-72.952
X-1336.316 Y-73.001
X-1336.504 Y-73.058
X-1336.517 Y-73.062
X-1336.618 Y-73.11
X-1336.85 Y-73.259
X-1336.92 Y-73.311
X-1337.058 Y-73.46
X-1337.121 Y-73.534
X-1337.221 Y-73.662
X-1337.323 Y-73.87
X-1337.404 Y-74.064
X-1337.439 Y-74.266
X-1337.464 Y-74.467
X-1337.461 Y-74.568
X-1337.42 Y-74.87
X-1337.394 Y-74.97
X-1337.35 Y-75.071
X-1337.257 Y-75.272
X-1337.201 Y-75.369
X-1337.115 Y-75.474
X-1336.936 Y-75.675
X-1336.92 Y-75.689
X-1336.719 Y-75.825
X-1336.639 Y-75.877
X-1336.578 Y-75.911
X-1336.517 Y-75.938
X-1336.316 Y-75.999
X-1336.115 Y-76.048
X-1335.913 Y-76.053
X-1335.712 Y-76.05
X-1335.611 Y-76.033
X-1335.309 Y-75.944
X-1335.24 Y-75.916
X-1335.171 Y-75.877
X-1335.108 Y-75.836
X-1334.906 Y-75.703
X-1334.872 Y-75.675
X-1334.69 Y-75.474
X-1334.605 Y-75.373
X-1334.573 Y-75.323
X-1334.547 Y-75.272
X-1334.455 Y-75.071
X-1334.412 Y-74.97
X-1334.386 Y-74.87
X-1334.342 Y-74.568
X-1334.339 Y-74.467
X-1334.366 Y-74.266
X-1334.401 Y-74.064
X-1334.476 Y-73.885
G3 X-1334.613 Y-73.696 I-0.546 J-0.249
G1 X-1334.682 Y-73.632 Z1.007
X-1334.749 Y-73.569 Z1.029
X-1334.812 Y-73.51 Z1.065
X-1334.871 Y-73.455 Z1.115
X-1334.924 Y-73.407 Z1.176
X-1334.968 Y-73.365 Z1.247
X-1335.004 Y-73.331 Z1.328
X-1335.031 Y-73.307 Z1.415
X-1335.047 Y-73.292 Z1.506
X-1335.052 Y-73.287 Z1.6
G0 Z30

(2D Adaptive2)
M9
X-1334.475 Y-266.245
Z30
Z20
Z18.1
G1 Z17.5 F850
G3 X-1336.788 Y-265.352 Z17.396 I-1.427 J-0.255 F283.3
X-1336.512 Y-267.816 Z17.292 I0.885 J-1.148
X-1334.454 Y-266.432 Z17.188 I0.609 J1.316
X-1336.632 Y-265.247 Z17.085 I-1.448 J-0.068
X-1336.677 Y-267.726 Z16.981 I0.73 J-1.253
X-1334.458 Y-266.62 Z16.877 I0.774 J1.226
X-1336.464 Y-265.163 Z16.773 I-1.445 J0.12
X-1336.829 Y-267.616 Z16.669 I0.562 J-1.337
X-1334.485 Y-266.806 Z16.565 I0.926 J1.116
X-1336.287 Y-265.102 Z16.461 I-1.417 J0.306
X-1336.965 Y-267.487 Z16.358 I0.384 J-1.398
X-1334.537 Y-266.986 Z16.254 I1.063 J0.987
X-1336.103 Y-265.064 Z16.15 I-1.366 J0.486
X-1337.084 Y-267.341 Z16.046 I0.2 J-1.436
X-1334.611 Y-267.159 Z15.942 I1.181 J0.841
X-1335.915 Y-265.05 Z15.838 I-1.292 J0.659
X-1337.183 Y-267.181 Z15.734 I0.013 J-1.45
X-1334.707 Y-267.32 Z15.63 I1.28 J0.681
X-1337.098 Y-265.68 Z15.471 I-1.196 J0.82
X-1337.26 Y-267.01 Z15.423 I1.196 J-0.82
X-1334.823 Y-267.468 Z15.319 I1.357 J0.51
X-1335.543 Y-265.095 Z15.215 I-1.08 J0.968
X-1337.315 Y-266.83 Z15.111 I-0.36 J-1.405
X-1334.957 Y-267.6 Z15.007 I1.412 J0.33
X-1335.364 Y-265.154 Z14.903 I-0.945 J1.1
X-1337.345 Y-266.645 Z14.8 I-0.538 J-1.346
X-1335.108 Y-267.713 Z14.696 I1.443 J0.145
X-1335.195 Y-265.235 Z14.592 I-0.795 J1.213
X-1337.352 Y-266.457 Z14.488 I-0.708 J-1.265
X-1334.453 Y-266.543 Z14.329 I1.449 J-0.043
X-1335.037 Y-265.337 Z14.28 I-1.449 J0.043
X-1337.334 Y-266.27 Z14.176 I-0.866 J-1.163
X-1335.445 Y-267.876 Z14.073 I1.432 J-0.23
X-1334.894 Y-265.458 Z13.969 I-0.458 J1.376
X-1337.293 Y-266.087 Z13.865 I-1.009 J-1.042
X-1335.627 Y-267.924 Z13.761 I1.39 J-0.413
X-1334.768 Y-265.598 Z13.657 I-0.276 J1.424
X-1337.227 Y-265.911 Z13.553 I-1.135 J-0.902
X-1335.813 Y-267.947 Z13.449 I1.325 J-0.589
X-1335.992 Y-265.053 Z13.29 I-0.09 J1.447
X-1337.14 Y-265.744 Z13.242 I0.09 J-1.447
X-1336.001 Y-267.947 Z13.138 I1.237 J-0.756
X-1334.574 Y-265.919 Z13.034 I0.098 J1.447
X-1337.032 Y-265.591 Z12.93 I-1.328 J-0.581
X-1336.187 Y-267.922 Z12.826 I1.129 J-0.909
X-1334.51 Y-266.095 Z12.722 I0.285 J1.422
X-1336.905 Y-265.452 Z12.619 I-1.392 J-0.405
X-1336.369 Y-267.873 Z12.515 I1.002 J-1.048
X-1334.47 Y-266.279 Z12.411 I0.466 J1.373
X-1336.761 Y-265.331 Z12.307 I-1.433 J-0.221
X-1336.542 Y-267.801 Z12.203 I0.858 J-1.169
X-1334.453 Y-266.466 Z12.099 I0.64 J1.301
X-1336.603 Y-265.23 Z11.995 I-1.45 J-0.034
X-1336.705 Y-267.708 Z11.891 I0.7 J-1.27
X-1334.461 Y-266.654 Z11.788 I0.802 J1.208
X-1336.433 Y-265.15 Z11.684 I-1.442 J0.154
X-1336.855 Y-267.594 Z11.58 I0.53 J-1.35
X-1334.493 Y-266.839 Z11.476 I0.952 J1.094
X-1336.254 Y-265.093 Z11.372 I-1.41 J0.339
X-1336.988 Y-267.461 Z11.268 I0.351 J-1.407
X-1334.548 Y-267.018 Z11.164 I1.085 J0.961
X-1337.257 Y-265.982 Z11.005 I-1.354 J0.518
X-1337.103 Y-267.313 Z10.957 I1.354 J-0.518
X-1334.627 Y-267.189 Z10.853 I1.201 J0.813
X-1335.881 Y-265.05 Z10.749 I-1.276 J0.689
X-1337.198 Y-267.151 Z10.645 I-0.021 J-1.45
X-1334.607 Y-265.849 Z10.486 I1.296 J0.651
X-1335.694 Y-265.065 Z10.437 I-1.296 J-0.651
X-1337.272 Y-266.978 Z10.334 I-0.209 J-1.435
X-1334.846 Y-267.493 Z10.23 I1.369 J0.478
X-1335.51 Y-265.104 Z10.126 I-1.057 J0.993
X-1337.322 Y-266.797 Z10.022 I-0.393 J-1.396
X-1334.984 Y-267.621 Z9.918 I1.419 J0.297
X-1335.333 Y-265.167 Z9.814 I-0.919 J1.121
X-1337.348 Y-266.611 Z9.71 I-0.57 J-1.333
X-1335.136 Y-267.731 Z9.607 I1.446 J0.111
X-1335.165 Y-265.251 Z9.503 I-0.766 J1.231
X-1337.351 Y-266.423 Z9.399 I-0.737 J-1.249
X-1335.302 Y-267.82 Z9.295 I1.448 J-0.077
X-1335.01 Y-265.357 Z9.191 I-0.601 J1.32
X-1337.328 Y-266.236 Z9.087 I-0.893 J-1.143
X-1335.477 Y-267.886 Z8.983 I1.426 J-0.264
X-1334.87 Y-265.482 Z8.88 I-0.425 J1.386
X-1337.282 Y-266.054 Z8.776 I-1.033 J-1.018
X-1335.66 Y-267.93 Z8.672 I1.38 J-0.446
X-1334.747 Y-265.624 Z8.568 I-0.242 J1.43
X-1337.213 Y-265.88 Z8.464 I-1.156 J-0.876
X-1335.847 Y-267.949 Z8.36 I1.311 J-0.62
X-1334.643 Y-265.781 Z8.256 I-0.056 J1.449
X-1337.122 Y-265.715 Z8.152 I-1.259 J-0.719
X-1334.683 Y-267.285 Z7.993 I1.219 J-0.785
X-1334.561 Y-265.95 Z7.945 I-1.219 J0.785
X-1337.01 Y-265.564 Z7.841 I-1.342 J-0.55
X-1336.221 Y-267.915 Z7.737 I1.108 J-0.936
X-1334.501 Y-266.128 Z7.633 I0.318 J1.415
X-1336.88 Y-265.429 Z7.529 I-1.402 J-0.372
X-1336.401 Y-267.862 Z7.425 I0.977 J-1.071
X-1334.465 Y-266.313 Z7.322 I0.498 J1.362
X-1336.733 Y-265.312 Z7.218 I-1.438 J-0.187
X-1336.573 Y-267.786 Z7.114 I0.831 J-1.188
X-1334.453 Y-266.5 Z7.01 I0.67 J1.286
X-1336.24 Y-265.09 I-1.45
X-1337.195 Y-267.157 I0.338 J-1.41
X-1335.246 Y-267.793 I1.293 J0.657
X-1334.453 Y-266.5 I-0.657 J1.293
G1 X-1334.44 Y-266.25 F850
X-1334.428 Y-266.127
X-1334.44 Y-266.004
X-1334.476 Y-265.885
X-1334.485 Y-265.863
X-1334.504 Y-265.822
X-1334.583 Y-265.662
X-1334.705 Y-265.509
X-1334.819 Y-265.378
X-1334.906 Y-265.296
X-1334.96 Y-265.259
X-1335.108 Y-265.164
X-1335.206 Y-265.102
X-1335.255 Y-265.077
X-1335.309 Y-265.056
X-1335.611 Y-264.967
X-1335.712 Y-264.95
X-1335.913 Y-264.947
X-1336.115 Y-264.952
X-1336.316 Y-265.001
X-1336.504 Y-265.058
X-1336.517 Y-265.062
X-1336.618 Y-265.11
X-1336.85 Y-265.259
X-1336.92 Y-265.311
X-1337.058 Y-265.46
X-1337.121 Y-265.534
X-1337.221 Y-265.662
X-1337.323 Y-265.87
X-1337.404 Y-266.064
X-1337.439 Y-266.266
X-1337.464 Y-266.467
X-1337.461 Y-266.568
X-1337.42 Y-266.87
X-1337.394 Y-266.97
X-1337.35 Y-267.071
X-1337.257 Y-267.272
X-1337.201 Y-267.369
X-1337.115 Y-267.474
X-1336.936 Y-267.675
X-1336.92 Y-267.689
X-1336.719 Y-267.825
X-1336.639 Y-267.877
X-1336.578 Y-267.911
X-1336.517 Y-267.938
X-1336.316 Y-267.999
X-1336.115 Y-268.048
X-1335.913 Y-268.053
X-1335.712 Y-268.05
X-1335.611 Y-268.033
X-1335.309 Y-267.944
X-1335.24 Y-267.916
X-1335.171 Y-267.877
X-1335.108 Y-267.836
X-1334.906 Y-267.703
X-1334.872 Y-267.675
X-1334.69 Y-267.474
X-1334.605 Y-267.373
X-1334.573 Y-267.323
X-1334.547 Y-267.272
X-1334.455 Y-267.071
X-1334.412 Y-266.97
X-1334.386 Y-266.87
X-1334.342 Y-266.568
X-1334.339 Y-266.467
X-1334.366 Y-266.266
X-1334.401 Y-266.064
X-1334.476 Y-265.885
X-1334.507 Y-265.84 Z7.017
X-1334.537 Y-265.798 Z7.036
X-1334.563 Y-265.76 Z7.067
X-1334.585 Y-265.73 Z7.108
X-1334.6 Y-265.708 Z7.157
X-1334.61 Y-265.699 Z7.2
X-1334.613 Y-265.696 Z7.246
G0 Z20
X-1335.917 Y-265.05
Z10.11
G1 Z9.51 F850
G3 X-1337.199 Y-267.149 Z9.407 I0.015 J-1.45 F283.3
X-1334.751 Y-267.381 Z9.305 I1.297 J0.649
X-1335.617 Y-265.078 Z9.202 I-1.152 J0.881
X-1337.306 Y-266.867 Z9.1 I-0.286 J-1.422
X-1334.958 Y-267.6 Z8.997 I1.403 J0.367
X-1335.329 Y-265.168 Z8.895 I-0.945 J1.1
X-1337.351 Y-266.568 Z8.792 I-0.574 J-1.332
X-1335.206 Y-267.772 Z8.69 I1.448 J0.068
X-1335.065 Y-265.316 Z8.587 I-0.697 J1.272
X-1337.334 Y-266.267 Z8.485 I-0.837 J-1.184
X-1335.484 Y-267.888 Z8.382 I1.431 J-0.233
X-1334.838 Y-265.515 Z8.28 I-0.418 J1.388
X-1337.255 Y-265.976 Z8.177 I-1.064 J-0.985
X-1334.551 Y-267.024 Z8.018 I1.352 J-0.524
X-1334.658 Y-265.757 Z7.972 I-1.352 J0.524
X-1337.117 Y-265.707 Z7.87 I-1.245 J-0.743
X-1334.689 Y-267.293 Z7.71 I1.214 J-0.793
X-1334.531 Y-266.031 Z7.664 I-1.214 J0.793
X-1336.926 Y-265.473 Z7.562 I-1.372 J-0.469
X-1336.377 Y-267.87 Z7.459 I1.023 J-1.027
X-1334.463 Y-266.325 Z7.357 I0.474 J1.37
X-1336.691 Y-265.283 Z7.254 I-1.439 J-0.175
X-1336.65 Y-267.743 Z7.152 I0.789 J-1.217
X-1334.458 Y-266.627 Z7.049 I0.747 J1.242
X-1336.422 Y-265.146 Z6.947 I-1.444 J0.127
X-1336.891 Y-267.561 Z6.844 I0.52 J-1.354
X-1334.516 Y-266.923 Z6.742 I0.988 J1.061
X-1337.29 Y-266.077 Z6.583 I-1.387 J0.423
X-1337.089 Y-267.333 Z6.537 I1.387 J-0.423
X-1334.633 Y-267.201 Z6.434 I1.187 J0.833
X-1337.172 Y-265.799 Z6.275 I-1.269 J0.701
X-1334.633 Y-267.201 Z6.116 I1.269 J-0.701
X-1335.531 Y-265.098 Z6.024 I-1.269 J0.701
X-1337.325 Y-266.781 Z5.921 I-0.371 J-1.402
X-1335.026 Y-267.655 Z5.819 I1.422 J0.281
X-1335.249 Y-265.206 Z5.716 I-0.877 J1.155
X-1337.353 Y-266.48 Z5.614 I-0.654 J-1.294
X-1334.453 Y-266.52 Z5.455 I1.45 J-0.02
X-1334.995 Y-265.369 Z5.409 I-1.45 J0.02
X-1337.317 Y-266.181 Z5.306 I-0.907 J-1.131
X-1335.569 Y-267.911 Z5.204 I1.414 J-0.319
X-1334.781 Y-265.581 Z5.101 I-0.333 J1.411
X-1337.22 Y-265.895 Z4.999 I-1.122 J-0.919
X-1335.869 Y-267.95 Z4.896 I1.318 J-0.605
X-1334.615 Y-265.834 Z4.794 I-0.034 J1.45
X-1337.067 Y-265.635 Z4.691 I-1.288 J-0.666
X-1336.169 Y-267.925 Z4.589 I1.164 J-0.865
X-1334.505 Y-266.115 Z4.486 I0.267 J1.425
X-1336.862 Y-265.413 Z4.383 I-1.398 J-0.385
X-1336.459 Y-267.839 Z4.281 I0.959 J-1.087
X-1334.455 Y-266.412 Z4.178 I0.556 J1.339
X-1336.616 Y-265.238 Z4.076 I-1.447 J-0.088
X-1336.724 Y-267.695 Z3.973 I0.714 J-1.262
X-1334.469 Y-266.714 Z3.871 I0.821 J1.195
X-1337.337 Y-266.286 Z3.712 I-1.434 J0.214
X-1336.953 Y-267.499 Z3.666 I1.434 J-0.214
X-1334.544 Y-267.006 Z3.563 I1.051 J0.999
X-1337.261 Y-265.994 Z3.404 I-1.359 J0.506
X-1337.138 Y-267.26 Z3.358 I1.359 J-0.506
X-1334.678 Y-267.276 Z3.256 I1.235 J0.76
X-1337.127 Y-265.724 Z3.097 I-1.225 J0.776
X-1337.268 Y-266.988 Z3.051 I1.225 J-0.776
X-1334.865 Y-267.513 Z2.948 I1.365 J0.488
X-1336.94 Y-265.487 Z2.789 I-1.037 J1.013
X-1337.34 Y-266.694 Z2.743 I1.037 J-1.013
X-1335.098 Y-267.706 Z2.64 I1.437 J0.194
X-1335.172 Y-265.248 Z2.538 I-0.805 J1.206
X-1337.349 Y-266.393 Z2.435 I-0.731 J-1.252
X-1335.365 Y-267.847 Z2.333 I1.446 J-0.107
X-1334.929 Y-265.426 Z2.23 I-0.538 J1.347
X-1337.295 Y-266.096 Z2.128 I-0.974 J-1.074
X-1335.655 Y-267.929 Z2.025 I1.392 J-0.404
X-1334.727 Y-265.651 Z1.923 I-0.248 J1.429
X-1337.181 Y-265.816 Z1.82 I-1.175 J-0.849
X-1335.956 Y-267.949 Z1.718 I1.279 J-0.684
X-1334.577 Y-265.913 Z1.615 I0.054 J1.449
X-1337.012 Y-265.566 Z1.513 I-1.326 J-0.587
X-1336.255 Y-267.907 Z1.41 I1.109 J-0.934
X-1334.484 Y-266.2 Z1.308 I0.352 J1.407
X-1336.795 Y-265.357 Z1.205 I-1.419 J-0.3
X-1336.539 Y-267.803 Z1.103 I0.892 J-1.143
X-1334.453 Y-266.5 Z1 I0.636 J1.303
X-1336.24 Y-265.09 I-1.45
X-1337.195 Y-267.157 I0.338 J-1.41
X-1335.246 Y-267.793 I1.293 J0.657
X-1334.453 Y-266.5 I-0.657 J1.293
G1 X-1334.44 Y-266.25 F850
X-1334.428 Y-266.127
X-1334.44 Y-266.004
X-1334.476 Y-265.885
X-1334.485 Y-265.863
X-1334.504 Y-265.822
X-1334.583 Y-265.662
X-1334.705 Y-265.509
X-1334.819 Y-265.378
X-1334.906 Y-265.296
X-1334.96 Y-265.259
X-1335.108 Y-265.164
X-1335.206 Y-265.102
X-1335.255 Y-265.077
X-1335.309 Y-265.056
X-1335.611 Y-264.967
X-1335.712 Y-264.95
X-1335.913 Y-264.947
X-1336.115 Y-264.952
X-1336.316 Y-265.001
X-1336.504 Y-265.058
X-1336.517 Y-265.062
X-1336.618 Y-265.11
X-1336.85 Y-265.259
X-1336.92 Y-265.311
X-1337.058 Y-265.46
X-1337.121 Y-265.534
X-1337.221 Y-265.662
X-1337.323 Y-265.87
X-1337.404 Y-266.064
X-1337.439 Y-266.266
X-1337.464 Y-266.467
X-1337.461 Y-266.568
X-1337.42 Y-266.87
X-1337.394 Y-266.97
X-1337.35 Y-267.071
X-1337.257 Y-267.272
X-1337.201 Y-267.369
X-1337.115 Y-267.474
X-1336.936 Y-267.675
X-1336.92 Y-267.689
X-1336.719 Y-267.825
X-1336.639 Y-267.877
X-1336.578 Y-267.911
X-1336.517 Y-267.938
X-1336.316 Y-267.999
X-1336.115 Y-268.048
X-1335.913 Y-268.053
X-1335.712 Y-268.05
X-1335.611 Y-268.033
X-1335.309 Y-267.944
X-1335.24 Y-267.916
X-1335.171 Y-267.877
X-1335.108 Y-267.836
X-1334.906 Y-267.703
X-1334.872 Y-267.675
X-1334.69 Y-267.474
X-1334.605 Y-267.373
X-1334.573 Y-267.323
X-1334.547 Y-267.272
X-1334.455 Y-267.071
X-1334.412 Y-266.97
X-1334.386 Y-266.87
X-1334.342 Y-266.568
X-1334.339 Y-266.467
X-1334.366 Y-266.266
X-1334.401 Y-266.064
X-1334.476 Y-265.885
G3 X-1334.613 Y-265.696 I-0.546 J-0.249
G1 X-1334.682 Y-265.632 Z1.007
X-1334.749 Y-265.569 Z1.029
X-1334.812 Y-265.51 Z1.065
X-1334.871 Y-265.455 Z1.115
X-1334.924 Y-265.407 Z1.176
X-1334.968 Y-265.365 Z1.247
X-1335.004 Y-265.331 Z1.328
X-1335.031 Y-265.307 Z1.415
X-1335.047 Y-265.292 Z1.506
X-1335.052 Y-265.287 Z1.6
G0 Z30

(2D Adaptive2)
M9
X-1334.475 Y-458.245
Z30
Z20
Z18.1
G1 Z17.5 F850
G3 X-1336.788 Y-457.352 Z17.396 I-1.427 J-0.255 F283.3
X-1336.512 Y-459.816 Z17.292 I0.885 J-1.148
X-1334.454 Y-458.432 Z17.188 I0.609 J1.316
X-1336.632 Y-457.247 Z17.085 I-1.448 J-0.068
X-1336.677 Y-459.726 Z16.981 I0.73 J-1.253
X-1334.458 Y-458.62 Z16.877 I0.774 J1.226
X-1336.464 Y-457.163 Z16.773 I-1.445 J0.12
X-1336.829 Y-459.616 Z16.669 I0.562 J-1.337
X-1334.485 Y-458.806 Z16.565 I0.926 J1.116
X-1336.287 Y-457.102 Z16.461 I-1.417 J0.306
X-1336.965 Y-459.487 Z16.358 I0.384 J-1.398
X-1334.537 Y-458.986 Z16.254 I1.063 J0.987
X-1336.103 Y-457.064 Z16.15 I-1.366 J0.486
X-1337.084 Y-459.341 Z16.046 I0.2 J-1.436
X-1334.611 Y-459.159 Z15.942 I1.181 J0.841
X-1335.915 Y-457.05 Z15.838 I-1.292 J0.659
X-1337.183 Y-459.181 Z15.734 I0.013 J-1.45
X-1334.707 Y-459.32 Z15.63 I1.28 J0.681
X-1337.098 Y-457.68 Z15.471 I-1.196 J0.82
X-1337.26 Y-459.01 Z15.423 I1.196 J-0.82
X-1334.823 Y-459.468 Z15.319 I1.357 J0.51
X-1335.543 Y-457.095 Z15.215 I-1.08 J0.968
X-1337.315 Y-458.83 Z15.111 I-0.36 J-1.405
X-1334.957 Y-459.6 Z15.007 I1.412 J0.33
X-1335.364 Y-457.154 Z14.903 I-0.945 J1.1
X-1337.345 Y-458.645 Z14.8 I-0.538 J-1.346
X-1335.108 Y-459.713 Z14.696 I1.443 J0.145
X-1335.195 Y-457.235 Z14.592 I-0.795 J1.213
X-1337.352 Y-458.457 Z14.488 I-0.708 J-1.265
X-1334.453 Y-458.543 Z14.329 I1.449 J-0.043
X-1335.037 Y-457.337 Z14.28 I-1.449 J0.043
X-1337.334 Y-458.27 Z14.176 I-0.866 J-1.163
X-1335.445 Y-459.876 Z14.073 I1.432 J-0.23
X-1334.894 Y-457.458 Z13.969 I-0.458 J1.376
X-1337.293 Y-458.087 Z13.865 I-1.009 J-1.042
X-1335.627 Y-459.924 Z13.761 I1.39 J-0.413
X-1334.768 Y-457.598 Z13.657 I-0.276 J1.424
X-1337.227 Y-457.911 Z13.553 I-1.135 J-0.902
X-1335.813 Y-459.947 Z13.449 I1.325 J-0.589
X-1335.992 Y-457.053 Z13.29 I-0.09 J1.447
X-1337.14 Y-457.744 Z13.242 I0.09 J-1.447
X-1336.001 Y-459.947 Z13.138 I1.237 J-0.756
X-1334.574 Y-457.919 Z13.034 I0.098 J1.447
X-1337.032 Y-457.591 Z12.93 I-1.328 J-0.581
X-1336.187 Y-459.922 Z12.826 I1.129 J-0.909
X-1334.51 Y-458.095 Z12.722 I0.285 J1.422
X-1336.905 Y-457.452 Z12.619 I-1.392 J-0.405
X-1336.369 Y-459.873 Z12.515 I1.002 J-1.048
X-1334.47 Y-458.279 Z12.411 I0.466 J1.373
X-1336.761 Y-457.331 Z12.307 I-1.433 J-0.221
X-1336.542 Y-459.801 Z12.203 I0.858 J-1.169
X-1334.453 Y-458.466 Z12.099 I0.64 J1.301
X-1336.603 Y-457.23 Z11.995 I-1.45 J-0.034
X-1336.705 Y-459.708 Z11.891 I0.7 J-1.27
X-1334.461 Y-458.654 Z11.788 I0.802 J1.208
X-1336.433 Y-457.15 Z11.684 I-1.442 J0.154
X-1336.855 Y-459.594 Z11.58 I0.53 J-1.35
X-1334.493 Y-458.839 Z11.476 I0.952 J1.094
X-1336.254 Y-457.093 Z11.372 I-1.41 J0.339
X-1336.988 Y-459.461 Z11.268 I0.351 J-1.407
X-1334.548 Y-459.018 Z11.164 I1.085 J0.961
X-1337.257 Y-457.982 Z11.005 I-1.354 J0.518
X-1337.103 Y-459.313 Z10.957 I1.354 J-0.518
X-1334.627 Y-459.189 Z10.853 I1.201 J0.813
X-1335.881 Y-457.05 Z10.749 I-1.276 J0.689
X-1337.198 Y-459.151 Z10.645 I-0.021 J-1.45
X-1334.607 Y-457.849 Z10.486 I1.296 J0.651
X-1335.694 Y-457.065 Z10.437 I-1.296 J-0.651
X-1337.272 Y-458.978 Z10.334 I-0.209 J-1.435
X-1334.846 Y-459.493 Z10.23 I1.369 J0.478
X-1335.51 Y-457.104 Z10.126 I-1.057 J0.993
X-1337.322 Y-458.797 Z10.022 I-0.393 J-1.396
X-1334.984 Y-459.621 Z9.918 I1.419 J0.297
X-1335.333 Y-457.167 Z9.814 I-0.919 J1.121
X-1337.348 Y-458.611 Z9.71 I-0.57 J-1.333
X-1335.136 Y-459.731 Z9.607 I1.446 J0.111
X-1335.165 Y-457.251 Z9.503 I-0.766 J1.231
X-1337.351 Y-458.423 Z9.399 I-0.737 J-1.249
X-1335.302 Y-459.82 Z9.295 I1.448 J-0.077
X-1335.01 Y-457.357 Z9.191 I-0.601 J1.32
X-1337.328 Y-458.236 Z9.087 I-0.893 J-1.143
X-1335.477 Y-459.886 Z8.983 I1.426 J-0.264
X-1334.87 Y-457.482 Z8.88 I-0.425 J1.386
X-1337.282 Y-458.054 Z8.776 I-1.033 J-1.018
X-1335.66 Y-459.93 Z8.672 I1.38 J-0.446
X-1334.747 Y-457.624 Z8.568 I-0.242 J1.43
X-1337.213 Y-457.88 Z8.464 I-1.156 J-0.876
X-1335.847 Y-459.949 Z8.36 I1.311 J-0.62
X-1334.643 Y-457.781 Z8.256 I-0.056 J1.449
X-1337.122 Y-457.715 Z8.152 I-1.259 J-0.719
X-1334.683 Y-459.285 Z7.993 I1.219 J-0.785
X-1334.561 Y-457.95 Z7.945 I-1.219 J0.785
X-1337.01 Y-457.564 Z7.841 I-1.342 J-0.55
X-1336.221 Y-459.915 Z7.737 I1.108 J-0.936
X-1334.501 Y-458.128 Z7.633 I0.318 J1.415
X-1336.88 Y-457.429 Z7.529 I-1.402 J-0.372
X-1336.401 Y-459.862 Z7.425 I0.977 J-1.071
X-1334.465 Y-458.313 Z7.322 I0.498 J1.362
X-1336.733 Y-457.312 Z7.218 I-1.438 J-0.187
X-1336.573 Y-459.786 Z7.114 I0.831 J-1.188
X-1334.453 Y-458.5 Z7.01 I0.67 J1.286
X-1336.24 Y-457.09 I-1.45
X-1337.195 Y-459.157 I0.338 J-1.41
X-1335.246 Y-459.793 I1.293 J0.657
X-1334.453 Y-458.5 I-0.657 J1.293
G1 X-1334.44 Y-458.25 F850
X-1334.428 Y-458.127
X-1334.44 Y-458.004
X-1334.476 Y-457.885
X-1334.485 Y-457.863
X-1334.504 Y-457.822
X-1334.583 Y-457.662
X-1334.705 Y-457.509
X-1334.819 Y-457.378
X-1334.906 Y-457.296
X-1334.96 Y-457.259
X-1335.108 Y-457.164
X-1335.206 Y-457.102
X-1335.255 Y-457.077
X-1335.309 Y-457.056
X-1335.611 Y-456.967
X-1335.712 Y-456.95
X-1335.913 Y-456.947
X-1336.115 Y-456.952
X-1336.316 Y-457.001
X-1336.504 Y-457.058
X-1336.517 Y-457.062
X-1336.618 Y-457.11
X-1336.85 Y-457.259
X-1336.92 Y-457.311
X-1337.058 Y-457.46
X-1337.121 Y-457.534
X-1337.221 Y-457.662
X-1337.323 Y-457.87
X-1337.404 Y-458.064
X-1337.439 Y-458.266
X-1337.464 Y-458.467
X-1337.461 Y-458.568
X-1337.42 Y-458.87
X-1337.394 Y-458.97
X-1337.35 Y-459.071
X-1337.257 Y-459.272
X-1337.201 Y-459.369
X-1337.115 Y-459.474
X-1336.936 Y-459.675
X-1336.92 Y-459.689
X-1336.719 Y-459.825
X-1336.639 Y-459.877
X-1336.578 Y-459.911
X-1336.517 Y-459.938
X-1336.316 Y-459.999
X-1336.115 Y-460.048
X-1335.913 Y-460.053
X-1335.712 Y-460.05
X-1335.611 Y-460.033
X-1335.309 Y-459.944
X-1335.24 Y-459.916
X-1335.171 Y-459.877
X-1335.108 Y-459.836
X-1334.906 Y-459.703
X-1334.872 Y-459.675
X-1334.69 Y-459.474
X-1334.605 Y-459.373
X-1334.573 Y-459.323
X-1334.547 Y-459.272
X-1334.455 Y-459.071
X-1334.412 Y-458.97
X-1334.386 Y-458.87
X-1334.342 Y-458.568
X-1334.339 Y-458.467
X-1334.366 Y-458.266
X-1334.401 Y-458.064
X-1334.476 Y-457.885
X-1334.507 Y-457.84 Z7.017
X-1334.537 Y-457.798 Z7.036
X-1334.563 Y-457.76 Z7.067
X-1334.585 Y-457.73 Z7.108
X-1334.6 Y-457.708 Z7.157
X-1334.61 Y-457.699 Z7.2
X-1334.613 Y-457.696 Z7.246
G0 Z20
X-1335.917 Y-457.05
Z10.11
G1 Z9.51 F850
G3 X-1337.199 Y-459.149 Z9.407 I0.015 J-1.45 F283.3
X-1334.751 Y-459.381 Z9.305 I1.297 J0.649
X-1335.617 Y-457.078 Z9.202 I-1.152 J0.881
X-1337.306 Y-458.867 Z9.1 I-0.286 J-1.422
X-1334.958 Y-459.6 Z8.997 I1.403 J0.367
X-1335.329 Y-457.168 Z8.895 I-0.945 J1.1
X-1337.351 Y-458.568 Z8.792 I-0.574 J-1.332
X-1335.206 Y-459.772 Z8.69 I1.448 J0.068
X-1335.065 Y-457.316 Z8.587 I-0.697 J1.272
X-1337.334 Y-458.267 Z8.485 I-0.837 J-1.184
X-1335.484 Y-459.888 Z8.382 I1.431 J-0.233
X-1334.838 Y-457.515 Z8.28 I-0.418 J1.388
X-1337.255 Y-457.976 Z8.177 I-1.064 J-0.985
X-1334.551 Y-459.024 Z8.018 I1.352 J-0.524
X-1334.658 Y-457.757 Z7.972 I-1.352 J0.524
X-1337.117 Y-457.707 Z7.87 I-1.245 J-0.743
X-1334.689 Y-459.293 Z7.71 I1.214 J-0.793
X-1334.531 Y-458.031 Z7.664 I-1.214 J0.793
X-1336.926 Y-457.473 Z7.562 I-1.372 J-0.469
X-1336.377 Y-459.87 Z7.459 I1.023 J-1.027
X-1334.463 Y-458.325 Z7.357 I0.474 J1.37
X-1336.691 Y-457.283 Z7.254 I-1.439 J-0.175
X-1336.65 Y-459.743 Z7.152 I0.789 J-1.217
X-1334.458 Y-458.627 Z7.049 I0.747 J1.242
X-1336.422 Y-457.146 Z6.947 I-1.444 J0.127
X-1336.891 Y-459.561 Z6.844 I0.52 J-1.354
X-1334.516 Y-458.923 Z6.742 I0.988 J1.061
X-1337.29 Y-458.077 Z6.583 I-1.387 J0.423
X-1337.089 Y-459.333 Z6.537 I1.387 J-0.423
X-1334.633 Y-459.201 Z6.434 I1.187 J0.833
X-1337.172 Y-457.799 Z6.275 I-1.269 J0.701
X-1334.633 Y-459.201 Z6.116 I1.269 J-0.701
X-1335.531 Y-457.098 Z6.024 I-1.269 J0.701
X-1337.325 Y-458.781 Z5.921 I-0.371 J-1.402
X-1335.026 Y-459.655 Z5.819 I1.422 J0.281
X-1335.249 Y-457.206 Z5.716 I-0.877 J1.155
X-1337.353 Y-458.48 Z5.614 I-0.654 J-1.294
X-1334.453 Y-458.52 Z5.455 I1.45 J-0.02
X-1334.995 Y-457.369 Z5.409 I-1.45 J0.02
X-1337.317 Y-458.181 Z5.306 I-0.907 J-1.131
X-1335.569 Y-459.911 Z5.204 I1.414 J-0.319
X-1334.781 Y-457.581 Z5.101 I-0.333 J1.411
X-1337.22 Y-457.895 Z4.999 I-1.122 J-0.919
X-1335.869 Y-459.95 Z4.896 I1.318 J-0.605
X-1334.615 Y-457.834 Z4.794 I-0.034 J1.45
X-1337.067 Y-457.635 Z4.691 I-1.288 J-0.666
X-1336.169 Y-459.925 Z4.589 I1.164 J-0.865
X-1334.505 Y-458.115 Z4.486 I0.267 J1.425
X-1336.862 Y-457.413 Z4.383 I-1.398 J-0.385
X-1336.459 Y-459.839 Z4.281 I0.959 J-1.087
X-1334.455 Y-458.412 Z4.178 I0.556 J1.339
X-1336.616 Y-457.238 Z4.076 I-1.447 J-0.088
X-1336.724 Y-459.695 Z3.973 I0.714 J-1.262
X-1334.469 Y-458.714 Z3.871 I0.821 J1.195
X-1337.337 Y-458.286 Z3.712 I-1.434 J0.214
X-1336.953 Y-459.499 Z3.666 I1.434 J-0.214
X-1334.544 Y-459.006 Z3.563 I1.051 J0.999
X-1337.261 Y-457.994 Z3.404 I-1.359 J0.506
X-1337.138 Y-459.26 Z3.358 I1.359 J-0.506
X-1334.678 Y-459.276 Z3.256 I1.235 J0.76
X-1337.127 Y-457.724 Z3.097 I-1.225 J0.776
X-1337.268 Y-458.988 Z3.051 I1.225 J-0.776
X-1334.865 Y-459.513 Z2.948 I1.365 J0.488
X-1336.94 Y-457.487 Z2.789 I-1.037 J1.013
X-1337.34 Y-458.694 Z2.743 I1.037 J-1.013
X-1335.098 Y-459.706 Z2.64 I1.437 J0.194
X-1335.172 Y-457.248 Z2.538 I-0.805 J1.206
X-1337.349 Y-458.393 Z2.435 I-0.731 J-1.252
X-1335.365 Y-459.847 Z2.333 I1.446 J-0.107
X-1334.929 Y-457.426 Z2.23 I-0.538 J1.347
X-1337.295 Y-458.096 Z2.128 I-0.974 J-1.074
X-1335.655 Y-459.929 Z2.025 I1.392 J-0.404
X-1334.727 Y-457.651 Z1.923 I-0.248 J1.429
X-1337.181 Y-457.816 Z1.82 I-1.175 J-0.849
X-1335.956 Y-459.949 Z1.718 I1.279 J-0.684
X-1334.577 Y-457.913 Z1.615 I0.054 J1.449
X-1337.012 Y-457.566 Z1.513 I-1.326 J-0.587
X-1336.255 Y-459.907 Z1.41 I1.109 J-0.934
X-1334.484 Y-458.2 Z1.308 I0.352 J1.407
X-1336.795 Y-457.357 Z1.205 I-1.419 J-0.3
X-1336.539 Y-459.803 Z1.103 I0.892 J-1.143
X-1334.453 Y-458.5 Z1 I0.636 J1.303
X-1336.24 Y-457.09 I-1.45
X-1337.195 Y-459.157 I0.338 J-1.41
X-1335.246 Y-459.793 I1.293 J0.657
X-1334.453 Y-458.5 I-0.657 J1.293
G1 X-1334.44 Y-458.25 F850
X-1334.428 Y-458.127
X-1334.44 Y-458.004
X-1334.476 Y-457.885
X-1334.485 Y-457.863
X-1334.504 Y-457.822
X-1334.583 Y-457.662
X-1334.705 Y-457.509
X-1334.819 Y-457.378
X-1334.906 Y-457.296
X-1334.96 Y-457.259
X-1335.108 Y-457.164
X-1335.206 Y-457.102
X-1335.255 Y-457.077
X-1335.309 Y-457.056
X-1335.611 Y-456.967
X-1335.712 Y-456.95
X-1335.913 Y-456.947
X-1336.115 Y-456.952
X-1336.316 Y-457.001
X-1336.504 Y-457.058
X-1336.517 Y-457.062
X-1336.618 Y-457.11
X-1336.85 Y-457.259
X-1336.92 Y-457.311
X-1337.058 Y-457.46
X-1337.121 Y-457.534
X-1337.221 Y-457.662
X-1337.323 Y-457.87
X-1337.404 Y-458.064
X-1337.439 Y-458.266
X-1337.464 Y-458.467
X-1337.461 Y-458.568
X-1337.42 Y-458.87
X-1337.394 Y-458.97
X-1337.35 Y-459.071
X-1337.257 Y-459.272
X-1337.201 Y-459.369
X-1337.115 Y-459.474
X-1336.936 Y-459.675
X-1336.92 Y-459.689
X-1336.719 Y-459.825
X-1336.639 Y-459.877
X-1336.578 Y-459.911
X-1336.517 Y-459.938
X-1336.316 Y-459.999
X-1336.115 Y-460.048
X-1335.913 Y-460.053
X-1335.712 Y-460.05
X-1335.611 Y-460.033
X-1335.309 Y-459.944
X-1335.24 Y-459.916
X-1335.171 Y-459.877
X-1335.108 Y-459.836
X-1334.906 Y-459.703
X-1334.872 Y-459.675
X-1334.69 Y-459.474
X-1334.605 Y-459.373
X-1334.573 Y-459.323
X-1334.547 Y-459.272
X-1334.455 Y-459.071
X-1334.412 Y-458.97
X-1334.386 Y-458.87
X-1334.342 Y-458.568
X-1334.339 Y-458.467
X-1334.366 Y-458.266
X-1334.401 Y-458.064
X-1334.476 Y-457.885
G3 X-1334.613 Y-457.696 I-0.546 J-0.249
G1 X-1334.682 Y-457.632 Z1.007
X-1334.749 Y-457.569 Z1.029
X-1334.812 Y-457.51 Z1.065
X-1334.871 Y-457.455 Z1.115
X-1334.924 Y-457.407 Z1.176
X-1334.968 Y-457.365 Z1.247
X-1335.004 Y-457.331 Z1.328
X-1335.031 Y-457.307 Z1.415
X-1335.047 Y-457.292 Z1.506
X-1335.052 Y-457.287 Z1.6
G0 Z30

(2D Adaptive2)
M9
X-1334.475 Y-650.245
Z30
Z20
Z18.1
G1 Z17.5 F850
G3 X-1336.788 Y-649.352 Z17.396 I-1.427 J-0.255 F283.3
X-1336.512 Y-651.816 Z17.292 I0.885 J-1.148
X-1334.454 Y-650.432 Z17.188 I0.609 J1.316
X-1336.632 Y-649.247 Z17.085 I-1.448 J-0.068
X-1336.677 Y-651.726 Z16.981 I0.73 J-1.253
X-1334.458 Y-650.62 Z16.877 I0.774 J1.226
X-1336.464 Y-649.163 Z16.773 I-1.445 J0.12
X-1336.829 Y-651.616 Z16.669 I0.562 J-1.337
X-1334.485 Y-650.806 Z16.565 I0.926 J1.116
X-1336.287 Y-649.102 Z16.461 I-1.417 J0.306
X-1336.965 Y-651.487 Z16.358 I0.384 J-1.398
X-1334.537 Y-650.986 Z16.254 I1.063 J0.987
X-1336.103 Y-649.064 Z16.15 I-1.366 J0.486
X-1337.084 Y-651.341 Z16.046 I0.2 J-1.436
X-1334.611 Y-651.159 Z15.942 I1.181 J0.841
X-1335.915 Y-649.05 Z15.838 I-1.292 J0.659
X-1337.183 Y-651.181 Z15.734 I0.013 J-1.45
X-1334.707 Y-651.32 Z15.63 I1.28 J0.681
X-1337.098 Y-649.68 Z15.471 I-1.196 J0.82
X-1337.26 Y-651.01 Z15.423 I1.196 J-0.82
X-1334.823 Y-651.468 Z15.319 I1.357 J0.51
X-1335.543 Y-649.095 Z15.215 I-1.08 J0.968
X-1337.315 Y-650.83 Z15.111 I-0.36 J-1.405
X-1334.957 Y-651.6 Z15.007 I1.412 J0.33
X-1335.364 Y-649.154 Z14.903 I-0.945 J1.1
X-1337.345 Y-650.645 Z14.8 I-0.538 J-1.346
X-1335.108 Y-651.713 Z14.696 I1.443 J0.145
X-1335.195 Y-649.235 Z14.592 I-0.795 J1.213
X-1337.352 Y-650.457 Z14.488 I-0.708 J-1.265
X-1334.453 Y-650.543 Z14.329 I1.449 J-0.043
X-1335.037 Y-649.337 Z14.28 I-1.449 J0.043
X-1337.334 Y-650.27 Z14.176 I-0.866 J-1.163
X-1335.445 Y-651.876 Z14.073 I1.432 J-0.23
X-1334.894 Y-649.458 Z13.969 I-0.458 J1.376
X-1337.293 Y-650.087 Z13.865 I-1.009 J-1.042
X-1335.627 Y-651.924 Z13.761 I1.39 J-0.413
X-1334.768 Y-649.598 Z13.657 I-0.276 J1.424
X-1337.227 Y-649.911 Z13.553 I-1.135 J-0.902
X-1335.813 Y-651.947 Z13.449 I1.325 J-0.589
X-1335.992 Y-649.053 Z13.29 I-0.09 J1.447
X-1337.14 Y-649.744 Z13.242 I0.09 J-1.447
X-1336.001 Y-651.947 Z13.138 I1.237 J-0.756
X-1334.574 Y-649.919 Z13.034 I0.098 J1.447
X-1337.032 Y-649.591 Z12.93 I-1.328 J-0.581
X-1336.187 Y-651.922 Z12.826 I1.129 J-0.909
X-1334.51 Y-650.095 Z12.722 I0.285 J1.422
X-1336.905 Y-649.452 Z12.619 I-1.392 J-0.405
X-1336.369 Y-651.873 Z12.515 I1.002 J-1.048
X-1334.47 Y-650.279 Z12.411 I0.466 J1.373
X-1336.761 Y-649.331 Z12.307 I-1.433 J-0.221
X-1336.542 Y-651.801 Z12.203 I0.858 J-1.169
X-1334.453 Y-650.466 Z12.099 I0.64 J1.301
X-1336.603 Y-649.23 Z11.995 I-1.45 J-0.034
X-1336.705 Y-651.708 Z11.891 I0.7 J-1.27
X-1334.461 Y-650.654 Z11.788 I0.802 J1.208
X-1336.433 Y-649.15 Z11.684 I-1.442 J0.154
X-1336.855 Y-651.594 Z11.58 I0.53 J-1.35
X-1334.493 Y-650.839 Z11.476 I0.952 J1.094
X-1336.254 Y-649.093 Z11.372 I-1.41 J0.339
X-1336.988 Y-651.461 Z11.268 I0.351 J-1.407
X-1334.548 Y-651.018 Z11.164 I1.085 J0.961
X-1337.257 Y-649.982 Z11.005 I-1.354 J0.518
X-1337.103 Y-651.313 Z10.957 I1.354 J-0.518
X-1334.627 Y-651.189 Z10.853 I1.201 J0.813
X-1335.881 Y-649.05 Z10.749 I-1.276 J0.689
X-1337.198 Y-651.151 Z10.645 I-0.021 J-1.45
X-1334.607 Y-649.849 Z10.486 I1.296 J0.651
X-1335.694 Y-649.065 Z10.437 I-1.296 J-0.651
X-1337.272 Y-650.978 Z10.334 I-0.209 J-1.435
X-1334.846 Y-651.493 Z10.23 I1.369 J0.478
X-1335.51 Y-649.104 Z10.126 I-1.057 J0.993
X-1337.322 Y-650.797 Z10.022 I-0.393 J-1.396
X-1334.984 Y-651.621 Z9.918 I1.419 J0.297
X-1335.333 Y-649.167 Z9.814 I-0.919 J1.121
X-1337.348 Y-650.611 Z9.71 I-0.57 J-1.333
X-1335.136 Y-651.731 Z9.607 I1.446 J0.111
X-1335.165 Y-649.251 Z9.503 I-0.766 J1.231
X-1337.351 Y-650.423 Z9.399 I-0.737 J-1.249
X-1335.302 Y-651.82 Z9.295 I1.448 J-0.077
X-1335.01 Y-649.357 Z9.191 I-0.601 J1.32
X-1337.328 Y-650.236 Z9.087 I-0.893 J-1.143
X-1335.477 Y-651.886 Z8.983 I1.426 J-0.264
X-1334.87 Y-649.482 Z8.88 I-0.425 J1.386
X-1337.282 Y-650.054 Z8.776 I-1.033 J-1.018
X-1335.66 Y-651.93 Z8.672 I1.38 J-0.446
X-1334.747 Y-649.624 Z8.568 I-0.242 J1.43
X-1337.213 Y-649.88 Z8.464 I-1.156 J-0.876
X-1335.847 Y-651.949 Z8.36 I1.311 J-0.62
X-1334.643 Y-649.781 Z8.256 I-0.056 J1.449
X-1337.122 Y-649.715 Z8.152 I-1.259 J-0.719
X-1334.683 Y-651.285 Z7.993 I1.219 J-0.785
X-1334.561 Y-649.95 Z7.945 I-1.219 J0.785
X-1337.01 Y-649.564 Z7.841 I-1.342 J-0.55
X-1336.221 Y-651.915 Z7.737 I1.108 J-0.936
X-1334.501 Y-650.128 Z7.633 I0.318 J1.415
X-1336.88 Y-649.429 Z7.529 I-1.402 J-0.372
X-1336.401 Y-651.862 Z7.425 I0.977 J-1.071
X-1334.465 Y-650.313 Z7.322 I0.498 J1.362
X-1336.733 Y-649.312 Z7.218 I-1.438 J-0.187
X-1336.573 Y-651.786 Z7.114 I0.831 J-1.188
X-1334.453 Y-650.5 Z7.01 I0.67 J1.286
X-1336.24 Y-649.09 I-1.45
X-1337.195 Y-651.157 I0.338 J-1.41
X-1335.246 Y-651.793 I1.293 J0.657
X-1334.453 Y-650.5 I-0.657 J1.293
G1 X-1334.44 Y-650.25 F850
X-1334.428 Y-650.127
X-1334.44 Y-650.004
X-1334.476 Y-649.885
X-1334.485 Y-649.863
X-1334.504 Y-649.822
X-1334.583 Y-649.662
X-1334.705 Y-649.509
X-1334.819 Y-649.378
X-1334.906 Y-649.296
X-1334.96 Y-649.259
X-1335.108 Y-649.164
X-1335.206 Y-649.102
X-1335.255 Y-649.077
X-1335.309 Y-649.056
X-1335.611 Y-648.967
X-1335.712 Y-648.95
X-1335.913 Y-648.947
X-1336.115 Y-648.952
X-1336.316 Y-649.001
X-1336.504 Y-649.058
X-1336.517 Y-649.062
X-1336.618 Y-649.11
X-1336.85 Y-649.259
X-1336.92 Y-649.311
X-1337.058 Y-649.46
X-1337.121 Y-649.534
X-1337.221 Y-649.662
X-1337.323 Y-649.87
X-1337.404 Y-650.064
X-1337.439 Y-650.266
X-1337.464 Y-650.467
X-1337.461 Y-650.568
X-1337.42 Y-650.87
X-1337.394 Y-650.97
X-1337.35 Y-651.071
X-1337.257 Y-651.272
X-1337.201 Y-651.369
X-1337.115 Y-651.474
X-1336.936 Y-651.675
X-1336.92 Y-651.689
X-1336.719 Y-651.825
X-1336.639 Y-651.877
X-1336.578 Y-651.911
X-1336.517 Y-651.938
X-1336.316 Y-651.999
X-1336.115 Y-652.048
X-1335.913 Y-652.053
X-1335.712 Y-652.05
X-1335.611 Y-652.033
X-1335.309 Y-651.944
X-1335.24 Y-651.916
X-1335.171 Y-651.877
X-1335.108 Y-651.836
X-1334.906 Y-651.703
X-1334.872 Y-651.675
X-1334.69 Y-651.474
X-1334.605 Y-651.373
X-1334.573 Y-651.323
X-1334.547 Y-651.272
X-1334.455 Y-651.071
X-1334.412 Y-650.97
X-1334.386 Y-650.87
X-1334.342 Y-650.568
X-1334.339 Y-650.467
X-1334.366 Y-650.266
X-1334.401 Y-650.064
X-1334.476 Y-649.885
X-1334.507 Y-649.84 Z7.017
X-1334.537 Y-649.798 Z7.036
X-1334.563 Y-649.76 Z7.067
X-1334.585 Y-649.73 Z7.108
X-1334.6 Y-649.708 Z7.157
X-1334.61 Y-649.699 Z7.2
X-1334.613 Y-649.696 Z7.246
G0 Z20
X-1335.917 Y-649.05
Z10.11
G1 Z9.51 F850
G3 X-1337.199 Y-651.149 Z9.407 I0.015 J-1.45 F283.3
X-1334.751 Y-651.381 Z9.305 I1.297 J0.649
X-1335.617 Y-649.078 Z9.202 I-1.152 J0.881
X-1337.306 Y-650.867 Z9.1 I-0.286 J-1.422
X-1334.958 Y-651.6 Z8.997 I1.403 J0.367
X-1335.329 Y-649.168 Z8.895 I-0.945 J1.1
X-1337.351 Y-650.568 Z8.792 I-0.574 J-1.332
X-1335.206 Y-651.772 Z8.69 I1.448 J0.068
X-1335.065 Y-649.316 Z8.587 I-0.697 J1.272
X-1337.334 Y-650.267 Z8.485 I-0.837 J-1.184
X-1335.484 Y-651.888 Z8.382 I1.431 J-0.233
X-1334.838 Y-649.515 Z8.28 I-0.418 J1.388
X-1337.255 Y-649.976 Z8.177 I-1.064 J-0.985
X-1334.551 Y-651.024 Z8.018 I1.352 J-0.524
X-1334.658 Y-649.757 Z7.972 I-1.352 J0.524
X-1337.117 Y-649.707 Z7.87 I-1.245 J-0.743
X-1334.689 Y-651.293 Z7.71 I1.214 J-0.793
X-1334.531 Y-650.031 Z7.664 I-1.214 J0.793
X-1336.926 Y-649.473 Z7.562 I-1.372 J-0.469
X-1336.377 Y-651.87 Z7.459 I1.023 J-1.027
X-1334.463 Y-650.325 Z7.357 I0.474 J1.37
X-1336.691 Y-649.283 Z7.254 I-1.439 J-0.175
X-1336.65 Y-651.743 Z7.152 I0.789 J-1.217
X-1334.458 Y-650.627 Z7.049 I0.747 J1.242
X-1336.422 Y-649.146 Z6.947 I-1.444 J0.127
X-1336.891 Y-651.561 Z6.844 I0.52 J-1.354
X-1334.516 Y-650.923 Z6.742 I0.988 J1.061
X-1337.29 Y-650.077 Z6.583 I-1.387 J0.423
X-1337.089 Y-651.333 Z6.537 I1.387 J-0.423
X-1334.633 Y-651.201 Z6.434 I1.187 J0.833
X-1337.172 Y-649.799 Z6.275 I-1.269 J0.701
X-1334.633 Y-651.201 Z6.116 I1.269 J-0.701
X-1335.531 Y-649.098 Z6.024 I-1.269 J0.701
X-1337.325 Y-650.781 Z5.921 I-0.371 J-1.402
X-1335.026 Y-651.655 Z5.819 I1.422 J0.281
X-1335.249 Y-649.206 Z5.716 I-0.877 J1.155
X-1337.353 Y-650.48 Z5.614 I-0.654 J-1.294
X-1334.453 Y-650.52 Z5.455 I1.45 J-0.02
X-1334.995 Y-649.369 Z5.409 I-1.45 J0.02
X-1337.317 Y-650.181 Z5.306 I-0.907 J-1.131
X-1335.569 Y-651.911 Z5.204 I1.414 J-0.319
X-1334.781 Y-649.581 Z5.101 I-0.333 J1.411
X-1337.22 Y-649.895 Z4.999 I-1.122 J-0.919
X-1335.869 Y-651.95 Z4.896 I1.318 J-0.605
X-1334.615 Y-649.834 Z4.794 I-0.034 J1.45
X-1337.067 Y-649.635 Z4.691 I-1.288 J-0.666
X-1336.169 Y-651.925 Z4.589 I1.164 J-0.865
X-1334.505 Y-650.115 Z4.486 I0.267 J1.425
X-1336.862 Y-649.413 Z4.383 I-1.398 J-0.385
X-1336.459 Y-651.839 Z4.281 I0.959 J-1.087
X-1334.455 Y-650.412 Z4.178 I0.556 J1.339
X-1336.616 Y-649.238 Z4.076 I-1.447 J-0.088
X-1336.724 Y-651.695 Z3.973 I0.714 J-1.262
X-1334.469 Y-650.714 Z3.871 I0.821 J1.195
X-1337.337 Y-650.286 Z3.712 I-1.434 J0.214
X-1336.953 Y-651.499 Z3.666 I1.434 J-0.214
X-1334.544 Y-651.006 Z3.563 I1.051 J0.999
X-1337.261 Y-649.994 Z3.404 I-1.359 J0.506
X-1337.138 Y-651.26 Z3.358 I1.359 J-0.506
X-1334.678 Y-651.276 Z3.256 I1.235 J0.76
X-1337.127 Y-649.724 Z3.097 I-1.225 J0.776
X-1337.268 Y-650.988 Z3.051 I1.225 J-0.776
X-1334.865 Y-651.513 Z2.948 I1.365 J0.488
X-1336.94 Y-649.487 Z2.789 I-1.037 J1.013
X-1337.34 Y-650.694 Z2.743 I1.037 J-1.013
X-1335.098 Y-651.706 Z2.64 I1.437 J0.194
X-1335.172 Y-649.248 Z2.538 I-0.805 J1.206
X-1337.349 Y-650.393 Z2.435 I-0.731 J-1.252
X-1335.365 Y-651.847 Z2.333 I1.446 J-0.107
X-1334.929 Y-649.426 Z2.23 I-0.538 J1.347
X-1337.295 Y-650.096 Z2.128 I-0.974 J-1.074
X-1335.655 Y-651.929 Z2.025 I1.392 J-0.404
X-1334.727 Y-649.651 Z1.923 I-0.248 J1.429
X-1337.181 Y-649.816 Z1.82 I-1.175 J-0.849
X-1335.956 Y-651.949 Z1.718 I1.279 J-0.684
X-1334.577 Y-649.913 Z1.615 I0.054 J1.449
X-1337.012 Y-649.566 Z1.513 I-1.326 J-0.587
X-1336.255 Y-651.907 Z1.41 I1.109 J-0.934
X-1334.484 Y-650.2 Z1.308 I0.352 J1.407
X-1336.795 Y-649.357 Z1.205 I-1.419 J-0.3
X-1336.539 Y-651.803 Z1.103 I0.892 J-1.143
X-1334.453 Y-650.5 Z1 I0.636 J1.303
X-1336.24 Y-649.09 I-1.45
X-1337.195 Y-651.157 I0.338 J-1.41
X-1335.246 Y-651.793 I1.293 J0.657
X-1334.453 Y-650.5 I-0.657 J1.293
G1 X-1334.44 Y-650.25 F850
X-1334.428 Y-650.127
X-1334.44 Y-650.004
X-1334.476 Y-649.885
X-1334.485 Y-649.863
X-1334.504 Y-649.822
X-1334.583 Y-649.662
X-1334.705 Y-649.509
X-1334.819 Y-649.378
X-1334.906 Y-649.296
X-1334.96 Y-649.259
X-1335.108 Y-649.164
X-1335.206 Y-649.102
X-1335.255 Y-649.077
X-1335.309 Y-649.056
X-1335.611 Y-648.967
X-1335.712 Y-648.95
X-1335.913 Y-648.947
X-1336.115 Y-648.952
X-1336.316 Y-649.001
X-1336.504 Y-649.058
X-1336.517 Y-649.062
X-1336.618 Y-649.11
X-1336.85 Y-649.259
X-1336.92 Y-649.311
X-1337.058 Y-649.46
X-1337.121 Y-649.534
X-1337.221 Y-649.662
X-1337.323 Y-649.87
X-1337.404 Y-650.064
X-1337.439 Y-650.266
X-1337.464 Y-650.467
X-1337.461 Y-650.568
X-1337.42 Y-650.87
X-1337.394 Y-650.97
X-1337.35 Y-651.071
X-1337.257 Y-651.272
X-1337.201 Y-651.369
X-1337.115 Y-651.474
X-1336.936 Y-651.675
X-1336.92 Y-651.689
X-1336.719 Y-651.825
X-1336.639 Y-651.877
X-1336.578 Y-651.911
X-1336.517 Y-651.938
X-1336.316 Y-651.999
X-1336.115 Y-652.048
X-1335.913 Y-652.053
X-1335.712 Y-652.05
X-1335.611 Y-652.033
X-1335.309 Y-651.944
X-1335.24 Y-651.916
X-1335.171 Y-651.877
X-1335.108 Y-651.836
X-1334.906 Y-651.703
X-1334.872 Y-651.675
X-1334.69 Y-651.474
X-1334.605 Y-651.373
X-1334.573 Y-651.323
X-1334.547 Y-651.272
X-1334.455 Y-651.071
X-1334.412 Y-650.97
X-1334.386 Y-650.87
X-1334.342 Y-650.568
X-1334.339 Y-650.467
X-1334.366 Y-650.266
X-1334.401 Y-650.064
X-1334.476 Y-649.885
G3 X-1334.613 Y-649.696 I-0.546 J-0.249
G1 X-1334.682 Y-649.632 Z1.007
X-1334.749 Y-649.569 Z1.029
X-1334.812 Y-649.51 Z1.065
X-1334.871 Y-649.455 Z1.115
X-1334.924 Y-649.407 Z1.176
X-1334.968 Y-649.365 Z1.247
X-1335.004 Y-649.331 Z1.328
X-1335.031 Y-649.307 Z1.415
X-1335.047 Y-649.292 Z1.506
X-1335.052 Y-649.287 Z1.6
G0 Z30

(2D Adaptive2)
M9
X-936.475 Y-650.245
Z30
Z20
Z18.1
G1 Z17.5 F850
G3 X-938.788 Y-649.352 Z17.396 I-1.427 J-0.255 F283.3
X-938.512 Y-651.816 Z17.292 I0.885 J-1.148
X-936.454 Y-650.432 Z17.188 I0.609 J1.316
X-938.632 Y-649.247 Z17.085 I-1.448 J-0.068
X-938.677 Y-651.726 Z16.981 I0.73 J-1.253
X-936.458 Y-650.62 Z16.877 I0.774 J1.226
X-938.464 Y-649.163 Z16.773 I-1.445 J0.12
X-938.829 Y-651.616 Z16.669 I0.562 J-1.337
X-936.485 Y-650.806 Z16.565 I0.926 J1.116
X-938.287 Y-649.102 Z16.461 I-1.417 J0.306
X-938.965 Y-651.487 Z16.358 I0.384 J-1.398
X-936.537 Y-650.986 Z16.254 I1.063 J0.987
X-938.103 Y-649.064 Z16.15 I-1.366 J0.486
X-939.084 Y-651.341 Z16.046 I0.2 J-1.436
X-936.611 Y-651.159 Z15.942 I1.181 J0.841
X-937.915 Y-649.05 Z15.838 I-1.292 J0.659
X-939.183 Y-651.181 Z15.734 I0.013 J-1.45
X-936.707 Y-651.32 Z15.63 I1.28 J0.681
X-939.098 Y-649.68 Z15.471 I-1.196 J0.82
X-939.26 Y-651.01 Z15.423 I1.196 J-0.82
X-936.823 Y-651.468 Z15.319 I1.357 J0.51
X-937.543 Y-649.095 Z15.215 I-1.08 J0.968
X-939.315 Y-650.83 Z15.111 I-0.36 J-1.405
X-936.957 Y-651.6 Z15.007 I1.412 J0.33
X-937.364 Y-649.154 Z14.903 I-0.945 J1.1
X-939.345 Y-650.645 Z14.8 I-0.538 J-1.346
X-937.108 Y-651.713 Z14.696 I1.443 J0.145
X-937.195 Y-649.235 Z14.592 I-0.795 J1.213
X-939.352 Y-650.457 Z14.488 I-0.708 J-1.265
X-936.453 Y-650.543 Z14.329 I1.449 J-0.043
X-937.037 Y-649.337 Z14.28 I-1.449 J0.043
X-939.334 Y-650.27 Z14.176 I-0.866 J-1.163
X-937.445 Y-651.876 Z14.073 I1.432 J-0.23
X-936.894 Y-649.458 Z13.969 I-0.458 J1.376
X-939.293 Y-650.087 Z13.865 I-1.009 J-1.042
X-937.627 Y-651.924 Z13.761 I1.39 J-0.413
X-936.768 Y-649.598 Z13.657 I-0.276 J1.424
X-939.227 Y-649.911 Z13.553 I-1.135 J-0.902
X-937.813 Y-651.947 Z13.449 I1.325 J-0.589
X-937.992 Y-649.053 Z13.29 I-0.09 J1.447
X-939.14 Y-649.744 Z13.242 I0.09 J-1.447
X-938.001 Y-651.947 Z13.138 I1.237 J-0.756
X-936.574 Y-649.919 Z13.034 I0.098 J1.447
X-939.032 Y-649.591 Z12.93 I-1.328 J-0.581
X-938.187 Y-651.922 Z12.826 I1.129 J-0.909
X-936.51 Y-650.095 Z12.722 I0.285 J1.422
X-938.905 Y-649.452 Z12.619 I-1.392 J-0.405
X-938.369 Y-651.873 Z12.515 I1.002 J-1.048
X-936.47 Y-650.279 Z12.411 I0.466 J1.373
X-938.761 Y-649.331 Z12.307 I-1.433 J-0.221
X-938.542 Y-651.801 Z12.203 I0.858 J-1.169
X-936.453 Y-650.466 Z12.099 I0.64 J1.301
X-938.603 Y-649.23 Z11.995 I-1.45 J-0.034
X-938.705 Y-651.708 Z11.891 I0.7 J-1.27
X-936.461 Y-650.654 Z11.788 I0.802 J1.208
X-938.433 Y-649.15 Z11.684 I-1.442 J0.154
X-938.855 Y-651.594 Z11.58 I0.53 J-1.35
X-936.493 Y-650.839 Z11.476 I0.952 J1.094
X-938.254 Y-649.093 Z11.372 I-1.41 J0.339
X-938.988 Y-651.461 Z11.268 I0.351 J-1.407
X-936.548 Y-651.018 Z11.164 I1.085 J0.961
X-939.257 Y-649.982 Z11.005 I-1.354 J0.518
X-939.103 Y-651.313 Z10.957 I1.354 J-0.518
X-936.627 Y-651.189 Z10.853 I1.201 J0.813
X-937.881 Y-649.05 Z10.749 I-1.276 J0.689
X-939.198 Y-651.151 Z10.645 I-0.021 J-1.45
X-936.607 Y-649.849 Z10.486 I1.296 J0.651
X-937.694 Y-649.065 Z10.437 I-1.296 J-0.651
X-939.272 Y-650.978 Z10.334 I-0.209 J-1.435
X-936.846 Y-651.493 Z10.23 I1.369 J0.478
X-937.51 Y-649.104 Z10.126 I-1.057 J0.993
X-939.322 Y-650.797 Z10.022 I-0.393 J-1.396
X-936.984 Y-651.621 Z9.918 I1.419 J0.297
X-937.333 Y-649.167 Z9.814 I-0.919 J1.121
X-939.348 Y-650.611 Z9.71 I-0.57 J-1.333
X-937.136 Y-651.731 Z9.607 I1.446 J0.111
X-937.165 Y-649.251 Z9.503 I-0.766 J1.231
X-939.351 Y-650.423 Z9.399 I-0.737 J-1.249
X-937.302 Y-651.82 Z9.295 I1.448 J-0.077
X-937.01 Y-649.357 Z9.191 I-0.601 J1.32
X-939.328 Y-650.236 Z9.087 I-0.893 J-1.143
X-937.477 Y-651.886 Z8.983 I1.426 J-0.264
X-936.87 Y-649.482 Z8.88 I-0.425 J1.386
X-939.282 Y-650.054 Z8.776 I-1.033 J-1.018
X-937.66 Y-651.93 Z8.672 I1.38 J-0.446
X-936.747 Y-649.624 Z8.568 I-0.242 J1.43
X-939.213 Y-649.88 Z8.464 I-1.156 J-0.876
X-937.847 Y-651.949 Z8.36 I1.311 J-0.62
X-936.643 Y-649.781 Z8.256 I-0.056 J1.449
X-939.122 Y-649.715 Z8.152 I-1.259 J-0.719
X-936.683 Y-651.285 Z7.993 I1.219 J-0.785
X-936.561 Y-649.95 Z7.945 I-1.219 J0.785
X-939.01 Y-649.564 Z7.841 I-1.342 J-0.55
X-938.221 Y-651.915 Z7.737 I1.108 J-0.936
X-936.501 Y-650.128 Z7.633 I0.318 J1.415
X-938.88 Y-649.429 Z7.529 I-1.402 J-0.372
X-938.401 Y-651.862 Z7.425 I0.977 J-1.071
X-936.465 Y-650.313 Z7.322 I0.498 J1.362
X-938.733 Y-649.312 Z7.218 I-1.438 J-0.187
X-938.573 Y-651.786 Z7.114 I0.831 J-1.188
X-936.453 Y-650.5 Z7.01 I0.67 J1.286
X-938.24 Y-649.09 I-1.45
X-939.195 Y-651.157 I0.338 J-1.41
X-937.246 Y-651.793 I1.293 J0.657
X-936.453 Y-650.5 I-0.657 J1.293
G1 X-936.44 Y-650.25 F850
X-936.428 Y-650.127
X-936.44 Y-650.004
X-936.476 Y-649.885
X-936.485 Y-649.863
X-936.504 Y-649.822
X-936.583 Y-649.662
X-936.705 Y-649.509
X-936.819 Y-649.378
X-936.906 Y-649.296
X-936.96 Y-649.259
X-937.108 Y-649.164
X-937.206 Y-649.102
X-937.255 Y-649.077
X-937.309 Y-649.056
X-937.611 Y-648.967
X-937.712 Y-648.95
X-937.913 Y-648.947
X-938.115 Y-648.952
X-938.316 Y-649.001
X-938.504 Y-649.058
X-938.517 Y-649.062
X-938.618 Y-649.11
X-938.85 Y-649.259
X-938.92 Y-649.311
X-939.058 Y-649.46
X-939.121 Y-649.534
X-939.221 Y-649.662
X-939.323 Y-649.87
X-939.404 Y-650.064
X-939.439 Y-650.266
X-939.464 Y-650.467
X-939.461 Y-650.568
X-939.42 Y-650.87
X-939.394 Y-650.97
X-939.35 Y-651.071
X-939.257 Y-651.272
X-939.201 Y-651.369
X-939.115 Y-651.474
X-938.936 Y-651.675
X-938.92 Y-651.689
X-938.719 Y-651.825
X-938.639 Y-651.877
X-938.578 Y-651.911
X-938.517 Y-651.938
X-938.316 Y-651.999
X-938.115 Y-652.048
X-937.913 Y-652.053
X-937.712 Y-652.05
X-937.611 Y-652.033
X-937.309 Y-651.944
X-937.24 Y-651.916
X-937.171 Y-651.877
X-937.108 Y-651.836
X-936.906 Y-651.703
X-936.872 Y-651.675
X-936.69 Y-651.474
X-936.605 Y-651.373
X-936.573 Y-651.323
X-936.547 Y-651.272
X-936.455 Y-651.071
X-936.412 Y-650.97
X-936.386 Y-650.87
X-936.342 Y-650.568
X-936.339 Y-650.467
X-936.366 Y-650.266
X-936.401 Y-650.064
X-936.476 Y-649.885
X-936.507 Y-649.84 Z7.017
X-936.537 Y-649.798 Z7.036
X-936.563 Y-649.76 Z7.067
X-936.585 Y-649.73 Z7.108
X-936.6 Y-649.708 Z7.157
X-936.61 Y-649.699 Z7.2
X-936.613 Y-649.696 Z7.246
G0 Z20
X-937.917 Y-649.05
Z10.11
G1 Z9.51 F850
G3 X-939.199 Y-651.149 Z9.407 I0.015 J-1.45 F283.3
X-936.751 Y-651.381 Z9.305 I1.297 J0.649
X-937.617 Y-649.078 Z9.202 I-1.152 J0.881
X-939.306 Y-650.867 Z9.1 I-0.286 J-1.422
X-936.958 Y-651.6 Z8.997 I1.403 J0.367
X-937.329 Y-649.168 Z8.895 I-0.945 J1.1
X-939.351 Y-650.568 Z8.792 I-0.574 J-1.332
X-937.206 Y-651.772 Z8.69 I1.448 J0.068
X-937.065 Y-649.316 Z8.587 I-0.697 J1.272
X-939.334 Y-650.267 Z8.485 I-0.837 J-1.184
X-937.484 Y-651.888 Z8.382 I1.431 J-0.233
X-936.838 Y-649.515 Z8.28 I-0.418 J1.388
X-939.255 Y-649.976 Z8.177 I-1.064 J-0.985
X-936.551 Y-651.024 Z8.018 I1.352 J-0.524
X-936.658 Y-649.757 Z7.972 I-1.352 J0.524
X-939.117 Y-649.707 Z7.87 I-1.245 J-0.743
X-936.689 Y-651.293 Z7.71 I1.214 J-0.793
X-936.531 Y-650.031 Z7.664 I-1.214 J0.793
X-938.926 Y-649.473 Z7.562 I-1.372 J-0.469
X-938.377 Y-651.87 Z7.459 I1.023 J-1.027
X-936.463 Y-650.325 Z7.357 I0.474 J1.37
X-938.691 Y-649.283 Z7.254 I-1.439 J-0.175
X-938.65 Y-651.743 Z7.152 I0.789 J-1.217
X-936.458 Y-650.627 Z7.049 I0.747 J1.242
X-938.422 Y-649.146 Z6.947 I-1.444 J0.127
X-938.891 Y-651.561 Z6.844 I0.52 J-1.354
X-936.516 Y-650.923 Z6.742 I0.988 J1.061
X-939.29 Y-650.077 Z6.583 I-1.387 J0.423
X-939.089 Y-651.333 Z6.537 I1.387 J-0.423
X-936.633 Y-651.201 Z6.434 I1.187 J0.833
X-939.172 Y-649.799 Z6.275 I-1.269 J0.701
X-936.633 Y-651.201 Z6.116 I1.269 J-0.701
X-937.531 Y-649.098 Z6.024 I-1.269 J0.701
X-939.325 Y-650.781 Z5.921 I-0.371 J-1.402
X-937.026 Y-651.655 Z5.819 I1.422 J0.281
X-937.249 Y-649.206 Z5.716 I-0.877 J1.155
X-939.353 Y-650.48 Z5.614 I-0.654 J-1.294
X-936.453 Y-650.52 Z5.455 I1.45 J-0.02
X-936.995 Y-649.369 Z5.409 I-1.45 J0.02
X-939.317 Y-650.181 Z5.306 I-0.907 J-1.131
X-937.569 Y-651.911 Z5.204 I1.414 J-0.319
X-936.781 Y-649.581 Z5.101 I-0.333 J1.411
X-939.22 Y-649.895 Z4.999 I-1.122 J-0.919
X-937.869 Y-651.95 Z4.896 I1.318 J-0.605
X-936.615 Y-649.834 Z4.794 I-0.034 J1.45
X-939.067 Y-649.635 Z4.691 I-1.288 J-0.666
X-938.169 Y-651.925 Z4.589 I1.164 J-0.865
X-936.505 Y-650.115 Z4.486 I0.267 J1.425
X-938.862 Y-649.413 Z4.383 I-1.398 J-0.385
X-938.459 Y-651.839 Z4.281 I0.959 J-1.087
X-936.455 Y-650.412 Z4.178 I0.556 J1.339
X-938.616 Y-649.238 Z4.076 I-1.447 J-0.088
X-938.724 Y-651.695 Z3.973 I0.714 J-1.262
X-936.469 Y-650.714 Z3.871 I0.821 J1.195
X-939.337 Y-650.286 Z3.712 I-1.434 J0.214
X-938.953 Y-651.499 Z3.666 I1.434 J-0.214
X-936.544 Y-651.006 Z3.563 I1.051 J0.999
X-939.261 Y-649.994 Z3.404 I-1.359 J0.506
X-939.138 Y-651.26 Z3.358 I1.359 J-0.506
X-936.678 Y-651.276 Z3.256 I1.235 J0.76
X-939.127 Y-649.724 Z3.097 I-1.225 J0.776
X-939.268 Y-650.988 Z3.051 I1.225 J-0.776
X-936.865 Y-651.513 Z2.948 I1.365 J0.488
X-938.94 Y-649.487 Z2.789 I-1.037 J1.013
X-939.34 Y-650.694 Z2.743 I1.037 J-1.013
X-937.098 Y-651.706 Z2.64 I1.437 J0.194
X-937.172 Y-649.248 Z2.538 I-0.805 J1.206
X-939.349 Y-650.393 Z2.435 I-0.731 J-1.252
X-937.365 Y-651.847 Z2.333 I1.446 J-0.107
X-936.929 Y-649.426 Z2.23 I-0.538 J1.347
X-939.295 Y-650.096 Z2.128 I-0.974 J-1.074
X-937.655 Y-651.929 Z2.025 I1.392 J-0.404
X-936.727 Y-649.651 Z1.923 I-0.248 J1.429
X-939.181 Y-649.816 Z1.82 I-1.175 J-0.849
X-937.956 Y-651.949 Z1.718 I1.279 J-0.684
X-936.577 Y-649.913 Z1.615 I0.054 J1.449
X-939.012 Y-649.566 Z1.513 I-1.326 J-0.587
X-938.255 Y-651.907 Z1.41 I1.109 J-0.934
X-936.484 Y-650.2 Z1.308 I0.352 J1.407
X-938.795 Y-649.357 Z1.205 I-1.419 J-0.3
X-938.539 Y-651.803 Z1.103 I0.892 J-1.143
X-936.453 Y-650.5 Z1 I0.636 J1.303
X-938.24 Y-649.09 I-1.45
X-939.195 Y-651.157 I0.338 J-1.41
X-937.246 Y-651.793 I1.293 J0.657
X-936.453 Y-650.5 I-0.657 J1.293
G1 X-936.44 Y-650.25 F850
X-936.428 Y-650.127
X-936.44 Y-650.004
X-936.476 Y-649.885
X-936.485 Y-649.863
X-936.504 Y-649.822
X-936.583 Y-649.662
X-936.705 Y-649.509
X-936.819 Y-649.378
X-936.906 Y-649.296
X-936.96 Y-649.259
X-937.108 Y-649.164
X-937.206 Y-649.102
X-937.255 Y-649.077
X-937.309 Y-649.056
X-937.611 Y-648.967
X-937.712 Y-648.95
X-937.913 Y-648.947
X-938.115 Y-648.952
X-938.316 Y-649.001
X-938.504 Y-649.058
X-938.517 Y-649.062
X-938.618 Y-649.11
X-938.85 Y-649.259
X-938.92 Y-649.311
X-939.058 Y-649.46
X-939.121 Y-649.534
X-939.221 Y-649.662
X-939.323 Y-649.87
X-939.404 Y-650.064
X-939.439 Y-650.266
X-939.464 Y-650.467
X-939.461 Y-650.568
X-939.42 Y-650.87
X-939.394 Y-650.97
X-939.35 Y-651.071
X-939.257 Y-651.272
X-939.201 Y-651.369
X-939.115 Y-651.474
X-938.936 Y-651.675
X-938.92 Y-651.689
X-938.719 Y-651.825
X-938.639 Y-651.877
X-938.578 Y-651.911
X-938.517 Y-651.938
X-938.316 Y-651.999
X-938.115 Y-652.048
X-937.913 Y-652.053
X-937.712 Y-652.05
X-937.611 Y-652.033
X-937.309 Y-651.944
X-937.24 Y-651.916
X-937.171 Y-651.877
X-937.108 Y-651.836
X-936.906 Y-651.703
X-936.872 Y-651.675
X-936.69 Y-651.474
X-936.605 Y-651.373
X-936.573 Y-651.323
X-936.547 Y-651.272
X-936.455 Y-651.071
X-936.412 Y-650.97
X-936.386 Y-650.87
X-936.342 Y-650.568
X-936.339 Y-650.467
X-936.366 Y-650.266
X-936.401 Y-650.064
X-936.476 Y-649.885
G3 X-936.613 Y-649.696 I-0.546 J-0.249
G1 X-936.682 Y-649.632 Z1.007
X-936.749 Y-649.569 Z1.029
X-936.812 Y-649.51 Z1.065
X-936.871 Y-649.455 Z1.115
X-936.924 Y-649.407 Z1.176
X-936.968 Y-649.365 Z1.247
X-937.004 Y-649.331 Z1.328
X-937.031 Y-649.307 Z1.415
X-937.047 Y-649.292 Z1.506
X-937.052 Y-649.287 Z1.6
G0 Z30

(2D Adaptive2)
M9
X-936.475 Y-458.245
Z30
Z20
Z18.1
G1 Z17.5 F850
G3 X-938.788 Y-457.352 Z17.396 I-1.427 J-0.255 F283.3
X-938.512 Y-459.816 Z17.292 I0.885 J-1.148
X-936.454 Y-458.432 Z17.188 I0.609 J1.316
X-938.632 Y-457.247 Z17.085 I-1.448 J-0.068
X-938.677 Y-459.726 Z16.981 I0.73 J-1.253
X-936.458 Y-458.62 Z16.877 I0.774 J1.226
X-938.464 Y-457.163 Z16.773 I-1.445 J0.12
X-938.829 Y-459.616 Z16.669 I0.562 J-1.337
X-936.485 Y-458.806 Z16.565 I0.926 J1.116
X-938.287 Y-457.102 Z16.461 I-1.417 J0.306
X-938.965 Y-459.487 Z16.358 I0.384 J-1.398
X-936.537 Y-458.986 Z16.254 I1.063 J0.987
X-938.103 Y-457.064 Z16.15 I-1.366 J0.486
X-939.084 Y-459.341 Z16.046 I0.2 J-1.436
X-936.611 Y-459.159 Z15.942 I1.181 J0.841
X-937.915 Y-457.05 Z15.838 I-1.292 J0.659
X-939.183 Y-459.181 Z15.734 I0.013 J-1.45
X-936.707 Y-459.32 Z15.63 I1.28 J0.681
X-939.098 Y-457.68 Z15.471 I-1.196 J0.82
X-939.26 Y-459.01 Z15.423 I1.196 J-0.82
X-936.823 Y-459.468 Z15.319 I1.357 J0.51
X-937.543 Y-457.095 Z15.215 I-1.08 J0.968
X-939.315 Y-458.83 Z15.111 I-0.36 J-1.405
X-936.957 Y-459.6 Z15.007 I1.412 J0.33
X-937.364 Y-457.154 Z14.903 I-0.945 J1.1
X-939.345 Y-458.645 Z14.8 I-0.538 J-1.346
X-937.108 Y-459.713 Z14.696 I1.443 J0.145
X-937.195 Y-457.235 Z14.592 I-0.795 J1.213
X-939.352 Y-458.457 Z14.488 I-0.708 J-1.265
X-936.453 Y-458.543 Z14.329 I1.449 J-0.043
X-937.037 Y-457.337 Z14.28 I-1.449 J0.043
X-939.334 Y-458.27 Z14.176 I-0.866 J-1.163
X-937.445 Y-459.876 Z14.073 I1.432 J-0.23
X-936.894 Y-457.458 Z13.969 I-0.458 J1.376
X-939.293 Y-458.087 Z13.865 I-1.009 J-1.042
X-937.627 Y-459.924 Z13.761 I1.39 J-0.413
X-936.768 Y-457.598 Z13.657 I-0.276 J1.424
X-939.227 Y-457.911 Z13.553 I-1.135 J-0.902
X-937.813 Y-459.947 Z13.449 I1.325 J-0.589
X-937.992 Y-457.053 Z13.29 I-0.09 J1.447
X-939.14 Y-457.744 Z13.242 I0.09 J-1.447
X-938.001 Y-459.947 Z13.138 I1.237 J-0.756
X-936.574 Y-457.919 Z13.034 I0.098 J1.447
X-939.032 Y-457.591 Z12.93 I-1.328 J-0.581
X-938.187 Y-459.922 Z12.826 I1.129 J-0.909
X-936.51 Y-458.095 Z12.722 I0.285 J1.422
X-938.905 Y-457.452 Z12.619 I-1.392 J-0.405
X-938.369 Y-459.873 Z12.515 I1.002 J-1.048
X-936.47 Y-458.279 Z12.411 I0.466 J1.373
X-938.761 Y-457.331 Z12.307 I-1.433 J-0.221
X-938.542 Y-459.801 Z12.203 I0.858 J-1.169
X-936.453 Y-458.466 Z12.099 I0.64 J1.301
X-938.603 Y-457.23 Z11.995 I-1.45 J-0.034
X-938.705 Y-459.708 Z11.891 I0.7 J-1.27
X-936.461 Y-458.654 Z11.788 I0.802 J1.208
X-938.433 Y-457.15 Z11.684 I-1.442 J0.154
X-938.855 Y-459.594 Z11.58 I0.53 J-1.35
X-936.493 Y-458.839 Z11.476 I0.952 J1.094
X-938.254 Y-457.093 Z11.372 I-1.41 J0.339
X-938.988 Y-459.461 Z11.268 I0.351 J-1.407
X-936.548 Y-459.018 Z11.164 I1.085 J0.961
X-939.257 Y-457.982 Z11.005 I-1.354 J0.518
X-939.103 Y-459.313 Z10.957 I1.354 J-0.518
X-936.627 Y-459.189 Z10.853 I1.201 J0.813
X-937.881 Y-457.05 Z10.749 I-1.276 J0.689
X-939.198 Y-459.151 Z10.645 I-0.021 J-1.45
X-936.607 Y-457.849 Z10.486 I1.296 J0.651
X-937.694 Y-457.065 Z10.437 I-1.296 J-0.651
X-939.272 Y-458.978 Z10.334 I-0.209 J-1.435
X-936.846 Y-459.493 Z10.23 I1.369 J0.478
X-937.51 Y-457.104 Z10.126 I-1.057 J0.993
X-939.322 Y-458.797 Z10.022 I-0.393 J-1.396
X-936.984 Y-459.621 Z9.918 I1.419 J0.297
X-937.333 Y-457.167 Z9.814 I-0.919 J1.121
X-939.348 Y-458.611 Z9.71 I-0.57 J-1.333
X-937.136 Y-459.731 Z9.607 I1.446 J0.111
X-937.165 Y-457.251 Z9.503 I-0.766 J1.231
X-939.351 Y-458.423 Z9.399 I-0.737 J-1.249
X-937.302 Y-459.82 Z9.295 I1.448 J-0.077
X-937.01 Y-457.357 Z9.191 I-0.601 J1.32
X-939.328 Y-458.236 Z9.087 I-0.893 J-1.143
X-937.477 Y-459.886 Z8.983 I1.426 J-0.264
X-936.87 Y-457.482 Z8.88 I-0.425 J1.386
X-939.282 Y-458.054 Z8.776 I-1.033 J-1.018
X-937.66 Y-459.93 Z8.672 I1.38 J-0.446
X-936.747 Y-457.624 Z8.568 I-0.242 J1.43
X-939.213 Y-457.88 Z8.464 I-1.156 J-0.876
X-937.847 Y-459.949 Z8.36 I1.311 J-0.62
X-936.643 Y-457.781 Z8.256 I-0.056 J1.449
X-939.122 Y-457.715 Z8.152 I-1.259 J-0.719
X-936.683 Y-459.285 Z7.993 I1.219 J-0.785
X-936.561 Y-457.95 Z7.945 I-1.219 J0.785
X-939.01 Y-457.564 Z7.841 I-1.342 J-0.55
X-938.221 Y-459.915 Z7.737 I1.108 J-0.936
X-936.501 Y-458.128 Z7.633 I0.318 J1.415
X-938.88 Y-457.429 Z7.529 I-1.402 J-0.372
X-938.401 Y-459.862 Z7.425 I0.977 J-1.071
X-936.465 Y-458.313 Z7.322 I0.498 J1.362
X-938.733 Y-457.312 Z7.218 I-1.438 J-0.187
X-938.573 Y-459.786 Z7.114 I0.831 J-1.188
X-936.453 Y-458.5 Z7.01 I0.67 J1.286
X-938.24 Y-457.09 I-1.45
X-939.195 Y-459.157 I0.338 J-1.41
X-937.246 Y-459.793 I1.293 J0.657
X-936.453 Y-458.5 I-0.657 J1.293
G1 X-936.44 Y-458.25 F850
X-936.428 Y-458.127
X-936.44 Y-458.004
X-936.476 Y-457.885
X-936.485 Y-457.863
X-936.504 Y-457.822
X-936.583 Y-457.662
X-936.705 Y-457.509
X-936.819 Y-457.378
X-936.906 Y-457.296
X-936.96 Y-457.259
X-937.108 Y-457.164
X-937.206 Y-457.102
X-937.255 Y-457.077
X-937.309 Y-457.056
X-937.611 Y-456.967
X-937.712 Y-456.95
X-937.913 Y-456.947
X-938.115 Y-456.952
X-938.316 Y-457.001
X-938.504 Y-457.058
X-938.517 Y-457.062
X-938.618 Y-457.11
X-938.85 Y-457.259
X-938.92 Y-457.311
X-939.058 Y-457.46
X-939.121 Y-457.534
X-939.221 Y-457.662
X-939.323 Y-457.87
X-939.404 Y-458.064
X-939.439 Y-458.266
X-939.464 Y-458.467
X-939.461 Y-458.568
X-939.42 Y-458.87
X-939.394 Y-458.97
X-939.35 Y-459.071
X-939.257 Y-459.272
X-939.201 Y-459.369
X-939.115 Y-459.474
X-938.936 Y-459.675
X-938.92 Y-459.689
X-938.719 Y-459.825
X-938.639 Y-459.877
X-938.578 Y-459.911
X-938.517 Y-459.938
X-938.316 Y-459.999
X-938.115 Y-460.048
X-937.913 Y-460.053
X-937.712 Y-460.05
X-937.611 Y-460.033
X-937.309 Y-459.944
X-937.24 Y-459.916
X-937.171 Y-459.877
X-937.108 Y-459.836
X-936.906 Y-459.703
X-936.872 Y-459.675
X-936.69 Y-459.474
X-936.605 Y-459.373
X-936.573 Y-459.323
X-936.547 Y-459.272
X-936.455 Y-459.071
X-936.412 Y-458.97
X-936.386 Y-458.87
X-936.342 Y-458.568
X-936.339 Y-458.467
X-936.366 Y-458.266
X-936.401 Y-458.064
X-936.476 Y-457.885
X-936.507 Y-457.84 Z7.017
X-936.537 Y-457.798 Z7.036
X-936.563 Y-457.76 Z7.067
X-936.585 Y-457.73 Z7.108
X-936.6 Y-457.708 Z7.157
X-936.61 Y-457.699 Z7.2
X-936.613 Y-457.696 Z7.246
G0 Z20
X-937.917 Y-457.05
Z10.11
G1 Z9.51 F850
G3 X-939.199 Y-459.149 Z9.407 I0.015 J-1.45 F283.3
X-936.751 Y-459.381 Z9.305 I1.297 J0.649
X-937.617 Y-457.078 Z9.202 I-1.152 J0.881
X-939.306 Y-458.867 Z9.1 I-0.286 J-1.422
X-936.958 Y-459.6 Z8.997 I1.403 J0.367
X-937.329 Y-457.168 Z8.895 I-0.945 J1.1
X-939.351 Y-458.568 Z8.792 I-0.574 J-1.332
X-937.206 Y-459.772 Z8.69 I1.448 J0.068
X-937.065 Y-457.316 Z8.587 I-0.697 J1.272
X-939.334 Y-458.267 Z8.485 I-0.837 J-1.184
X-937.484 Y-459.888 Z8.382 I1.431 J-0.233
X-936.838 Y-457.515 Z8.28 I-0.418 J1.388
X-939.255 Y-457.976 Z8.177 I-1.064 J-0.985
X-936.551 Y-459.024 Z8.018 I1.352 J-0.524
X-936.658 Y-457.757 Z7.972 I-1.352 J0.524
X-939.117 Y-457.707 Z7.87 I-1.245 J-0.743
X-936.689 Y-459.293 Z7.71 I1.214 J-0.793
X-936.531 Y-458.031 Z7.664 I-1.214 J0.793
X-938.926 Y-457.473 Z7.562 I-1.372 J-0.469
X-938.377 Y-459.87 Z7.459 I1.023 J-1.027
X-936.463 Y-458.325 Z7.357 I0.474 J1.37
X-938.691 Y-457.283 Z7.254 I-1.439 J-0.175
X-938.65 Y-459.743 Z7.152 I0.789 J-1.217
X-936.458 Y-458.627 Z7.049 I0.747 J1.242
X-938.422 Y-457.146 Z6.947 I-1.444 J0.127
X-938.891 Y-459.561 Z6.844 I0.52 J-1.354
X-936.516 Y-458.923 Z6.742 I0.988 J1.061
X-939.29 Y-458.077 Z6.583 I-1.387 J0.423
X-939.089 Y-459.333 Z6.537 I1.387 J-0.423
X-936.633 Y-459.201 Z6.434 I1.187 J0.833
X-939.172 Y-457.799 Z6.275 I-1.269 J0.701
X-936.633 Y-459.201 Z6.116 I1.269 J-0.701
X-937.531 Y-457.098 Z6.024 I-1.269 J0.701
X-939.325 Y-458.781 Z5.921 I-0.371 J-1.402
X-937.026 Y-459.655 Z5.819 I1.422 J0.281
X-937.249 Y-457.206 Z5.716 I-0.877 J1.155
X-939.353 Y-458.48 Z5.614 I-0.654 J-1.294
X-936.453 Y-458.52 Z5.455 I1.45 J-0.02
X-936.995 Y-457.369 Z5.409 I-1.45 J0.02
X-939.317 Y-458.181 Z5.306 I-0.907 J-1.131
X-937.569 Y-459.911 Z5.204 I1.414 J-0.319
X-936.781 Y-457.581 Z5.101 I-0.333 J1.411
X-939.22 Y-457.895 Z4.999 I-1.122 J-0.919
X-937.869 Y-459.95 Z4.896 I1.318 J-0.605
X-936.615 Y-457.834 Z4.794 I-0.034 J1.45
X-939.067 Y-457.635 Z4.691 I-1.288 J-0.666
X-938.169 Y-459.925 Z4.589 I1.164 J-0.865
X-936.505 Y-458.115 Z4.486 I0.267 J1.425
X-938.862 Y-457.413 Z4.383 I-1.398 J-0.385
X-938.459 Y-459.839 Z4.281 I0.959 J-1.087
X-936.455 Y-458.412 Z4.178 I0.556 J1.339
X-938.616 Y-457.238 Z4.076 I-1.447 J-0.088
X-938.724 Y-459.695 Z3.973 I0.714 J-1.262
X-936.469 Y-458.714 Z3.871 I0.821 J1.195
X-939.337 Y-458.286 Z3.712 I-1.434 J0.214
X-938.953 Y-459.499 Z3.666 I1.434 J-0.214
X-936.544 Y-459.006 Z3.563 I1.051 J0.999
X-939.261 Y-457.994 Z3.404 I-1.359 J0.506
X-939.138 Y-459.26 Z3.358 I1.359 J-0.506
X-936.678 Y-459.276 Z3.256 I1.235 J0.76
X-939.127 Y-457.724 Z3.097 I-1.225 J0.776
X-939.268 Y-458.988 Z3.051 I1.225 J-0.776
X-936.865 Y-459.513 Z2.948 I1.365 J0.488
X-938.94 Y-457.487 Z2.789 I-1.037 J1.013
X-939.34 Y-458.694 Z2.743 I1.037 J-1.013
X-937.098 Y-459.706 Z2.64 I1.437 J0.194
X-937.172 Y-457.248 Z2.538 I-0.805 J1.206
X-939.349 Y-458.393 Z2.435 I-0.731 J-1.252
X-937.365 Y-459.847 Z2.333 I1.446 J-0.107
X-936.929 Y-457.426 Z2.23 I-0.538 J1.347
X-939.295 Y-458.096 Z2.128 I-0.974 J-1.074
