%
(1001)
(z0 slate machine -5-5)
(T1  D=6 CR=0 - ZMIN=3 - flat end mill)
G90 G94
G17
G21

(2D Adaptive5 5)
M9
T1 M6
S6000 M3
G54
M9
G0 X-181.266 Y-399.083
Z30
Z20
Z19.15
G1 Z18.55 F850
G3 X-183.334 Y-401.117 Z18.391 I-1.034 J-1.017 F283.3
X-181.266 Y-399.083 Z18.232 I1.034 J1.017
X-183.334 Y-401.117 Z18.073 I-1.034 J-1.017
X-181.266 Y-399.083 Z17.914 I1.034 J1.017
X-183.57 Y-399.4 Z17.819 I-1.034 J-1.017
X-182.319 Y-401.55 Z17.715 I1.27 J-0.7
X-181.012 Y-399.434 Z17.611 I0.019 J1.45
X-183.494 Y-399.277 Z17.506 I-1.288 J-0.666
X-182.464 Y-401.541 Z17.402 I1.194 J-0.823
X-180.952 Y-399.566 Z17.298 I0.164 J1.441
X-183.648 Y-400.634 Z17.139 I-1.348 J-0.534
X-180.952 Y-399.566 Z16.98 I1.348 J0.534
X-183.648 Y-400.634 Z16.82 I-1.348 J-0.534
X-180.873 Y-399.845 Z16.671 I1.348 J0.534
X-183.197 Y-398.961 Z16.567 I-1.427 J-0.255
X-181.403 Y-401.239 Z16.408 I0.897 J-1.139
X-180.854 Y-399.988 Z16.358 I-0.897 J1.139
X-183.079 Y-398.877 Z16.254 I-1.446 J-0.112
X-183.012 Y-401.363 Z16.15 I0.779 J-1.223
X-181.588 Y-398.837 Z15.991 I0.712 J1.263
X-182.953 Y-398.806 Z15.941 I-0.712 J-1.263
X-183.134 Y-401.286 Z15.837 I0.653 J-1.294
X-181.466 Y-398.914 Z15.678 I0.834 J1.186
X-182.821 Y-398.747 Z15.628 I-0.834 J-1.186
X-183.249 Y-401.197 Z15.523 I0.521 J-1.353
X-181.351 Y-399.003 Z15.364 I0.949 J1.097
X-182.683 Y-398.702 Z15.315 I-0.949 J-1.097
X-183.353 Y-401.097 Z15.21 I0.383 J-1.398
X-181.247 Y-399.103 Z15.051 I1.053 J0.997
X-183.448 Y-400.986 Z14.897 I-1.053 J-0.997
X-180.978 Y-400.695 Z14.793 I1.148 J0.886
X-182.398 Y-398.653 Z14.689 I-1.322 J0.595
X-182.202 Y-401.547 Z14.53 I0.098 J-1.447
X-181.044 Y-400.824 Z14.48 I-0.098 J1.447
X-182.253 Y-398.651 Z14.376 I-1.256 J0.724
X-182.347 Y-401.549 Z14.216 I-0.047 J-1.449
X-181.122 Y-400.946 Z14.167 I0.047 J1.449
X-183.478 Y-399.254 Z14.008 I-1.178 J0.846
X-183.658 Y-400.608 Z13.958 I1.178 J-0.846
X-181.213 Y-401.059 Z13.854 I1.358 J0.508
X-183.388 Y-399.141 Z13.695 I-1.087 J0.959
X-183.702 Y-400.47 Z13.645 I1.087 J-0.959
X-181.314 Y-401.163 Z13.541 I1.402 J0.37
X-181.827 Y-398.729 Z13.436 I-0.986 J1.063
X-182.773 Y-401.471 Z13.277 I-0.473 J-1.371
X-181.425 Y-401.256 Z13.228 I0.473 J1.371
X-181.692 Y-398.784 Z13.123 I-0.875 J1.156
X-182.908 Y-401.417 Z12.964 I-0.608 J-1.316
X-181.692 Y-398.784 Z12.805 I0.608 J1.316
X-183.749 Y-400.039 Z12.706 I-0.608 J-1.316
X-181.672 Y-401.407 Z12.601 I1.449 J-0.061
X-182.928 Y-398.793 Z12.442 I-0.628 J1.307
X-183.735 Y-399.895 Z12.393 I0.628 J-1.307
X-181.805 Y-401.463 Z12.288 I1.435 J-0.205
X-181.33 Y-399.022 Z12.184 I-0.495 J1.363
X-183.27 Y-401.178 Z12.025 I-0.97 J-1.078
X-181.944 Y-401.506 Z11.975 I0.97 J1.078
X-182.656 Y-398.694 Z11.816 I-0.356 J1.406
X-183.666 Y-399.614 Z11.766 I0.356 J-1.406
X-182.086 Y-401.534 Z11.662 I1.366 J-0.486
X-181.136 Y-399.236 Z11.558 I-0.214 J1.434
X-183.464 Y-400.964 Z11.399 I-1.164 J-0.864
X-181.136 Y-399.236 Z11.24 I1.164 J0.864
X-183.464 Y-400.964 Z11.08 I-1.164 J-0.864
X-181.136 Y-399.236 Z10.921 I1.164 J0.864
X-183.461 Y-399.232 Z10.827 I-1.164 J-0.864
X-182.519 Y-401.533 Z10.723 I1.161 J-0.868
X-182.081 Y-398.667 Z10.564 I0.219 J1.433
X-183.369 Y-399.12 Z10.514 I-0.219 J-1.433
X-181.231 Y-401.08 Z10.355 I1.069 J-0.98
X-180.891 Y-399.757 Z10.305 I-1.069 J0.98
X-183.266 Y-399.018 Z10.201 I-1.409 J-0.343
X-182.8 Y-401.461 Z10.097 I0.966 J-1.082
X-181.8 Y-398.739 Z9.938 I0.5 J1.361
X-182.8 Y-401.461 Z9.778 I-0.5 J-1.361
X-181.8 Y-398.739 Z9.619 I0.5 J1.361
X-183.032 Y-398.848 Z9.575 I-0.5 J-1.361
X-181.569 Y-401.352 Z9.416 I0.732 J-1.252
X-180.853 Y-400.189 Z9.366 I-0.732 J1.252
X-183.747 Y-400.011 Z9.207 I-1.447 J0.089
X-180.869 Y-400.333 Z9.053 I1.447 J-0.089
X-182.768 Y-398.728 Z8.949 I-1.431 J0.233
X-181.832 Y-401.472 Z8.79 I0.468 J-1.372
X-180.899 Y-400.475 Z8.74 I-0.468 J1.372
X-182.629 Y-398.688 Z8.636 I-1.401 J0.375
X-181.971 Y-401.512 Z8.476 I0.329 J-1.412
X-180.944 Y-400.613 Z8.427 I-0.329 J1.412
X-182.486 Y-398.662 Z8.322 I-1.356 J0.513
X-183.481 Y-400.942 Z8.218 I0.186 J-1.438
X-181.002 Y-400.746 Z8.114 I1.181 J0.842
X-182.342 Y-398.651 Z8.009 I-1.298 J0.646
X-182.258 Y-401.549 Z7.85 I0.042 J-1.449
X-181.073 Y-400.872 Z7.801 I-0.042 J1.449
X-182.197 Y-398.654 Z7.696 I-1.227 J0.772
X-182.403 Y-401.546 Z7.537 I-0.103 J-1.446
X-181.156 Y-400.991 Z7.488 I0.103 J1.446
X-182.053 Y-398.671 Z7.383 I-1.144 J0.891
X-183.677 Y-400.555 Z7.279 I-0.247 J-1.429
X-181.25 Y-401.1 Z7.174 I1.377 J0.455
X-183.35 Y-399.1 Z7.015 I-1.05 J1
X-183.715 Y-400.415 Z6.966 I1.05 J-1
X-181.355 Y-401.2 Z6.861 I1.415 J0.315
X-181.774 Y-398.749 Z6.757 I-0.945 J1.1
X-182.826 Y-401.451 Z6.598 I-0.526 J-1.351
X-181.47 Y-401.289 Z6.548 I0.526 J1.351
X-183.13 Y-398.911 Z6.389 I-0.83 J1.189
X-183.75 Y-400.128 Z6.34 I0.83 J-1.189
X-181.593 Y-401.366 Z6.235 I1.45 J0.028
X-183.007 Y-398.834 Z6.076 I-0.707 J1.266
X-183.745 Y-399.983 Z6.027 I0.707 J-1.266
X-181.723 Y-401.43 Z5.922 I1.445 J-0.117
X-182.877 Y-398.77 Z5.763 I-0.577 J1.33
X-181.723 Y-401.43 Z5.604 I0.577 J-1.33
X-182.877 Y-398.77 Z5.445 I-0.577 J1.33
X-183.693 Y-399.698 Z5.4 I0.577 J-1.33
X-181.998 Y-401.518 Z5.296 I1.393 J-0.402
X-182.602 Y-398.682 Z5.137 I-0.302 J1.418
X-183.646 Y-399.561 Z5.087 I0.302 J-1.418
X-182.141 Y-401.541 Z4.983 I1.346 J-0.539
X-182.459 Y-398.659 Z4.824 I-0.159 J1.441
X-183.586 Y-399.43 Z4.774 I0.159 J-1.441
X-182.286 Y-401.55 Z4.67 I1.286 J-0.67
X-182.314 Y-398.65 Z4.511 I-0.014 J1.45
X-183.512 Y-399.305 Z4.461 I0.014 J-1.45
X-181.088 Y-400.895 Z4.302 I1.212 J-0.795
X-180.964 Y-399.535 Z4.252 I-1.212 J0.795
X-183.427 Y-399.188 Z4.148 I-1.336 J-0.565
X-182.574 Y-401.524 Z4.044 I1.127 J-0.912
X-182.026 Y-398.676 Z3.885 I0.274 J1.424
X-183.33 Y-399.08 Z3.835 I-0.274 J-1.424
X-182.715 Y-401.489 Z3.731 I1.03 J-1.02
X-181.885 Y-398.711 Z3.571 I0.415 J1.389
X-183.223 Y-398.982 Z3.522 I-0.415 J-1.389
X-182.852 Y-401.441 Z3.417 I0.923 J-1.118
X-181.748 Y-398.759 Z3.258 I0.552 J1.341
X-183.107 Y-398.895 Z3.209 I-0.552 J-1.341
X-181.493 Y-401.305 Z3.05 I0.807 J-1.205
X-180.85 Y-400.1 Z3 I-0.807 J1.205
X-182.638 Y-398.69 I-1.45
X-183.661 Y-400.601 I0.338 J-1.41
X-181.643 Y-401.393 I1.361 J0.501
X-180.85 Y-400.1 I-0.657 J1.293
G1 X-180.849 Y-400.037 F850
X-180.852 Y-399.975
X-180.858 Y-399.912
X-180.867 Y-399.851
X-180.882 Y-399.75
X-180.909 Y-399.649
X-181.008 Y-399.428
X-181.052 Y-399.337
X-181.115 Y-399.247
X-181.29 Y-399.045
X-181.35 Y-398.988
X-181.411 Y-398.943
X-181.612 Y-398.814
X-181.713 Y-398.761
X-181.813 Y-398.728
X-182.015 Y-398.669
X-182.116 Y-398.65
X-182.216 Y-398.646
X-182.418
X-182.518 Y-398.654
X-182.619 Y-398.678
X-182.82 Y-398.738
X-182.921 Y-398.776
X-183.035 Y-398.844
X-183.223 Y-398.967
X-183.31 Y-399.045
X-183.485 Y-399.247
X-183.523 Y-399.297
X-183.554 Y-399.347
X-183.601 Y-399.448
X-183.691 Y-399.649
X-183.718 Y-399.75
X-183.733 Y-399.851
X-183.761 Y-400.052
X-183.76 Y-400.153
X-183.747 Y-400.253
X-183.717 Y-400.455
X-183.689 Y-400.555
X-183.645 Y-400.656
X-183.551 Y-400.857
X-183.496 Y-400.94
X-183.318 Y-401.146
X-183.271 Y-401.194
X-183.223 Y-401.233
X-183.184 Y-401.26
X-183.022 Y-401.365
X-182.923 Y-401.423
X-182.82 Y-401.462
X-182.619 Y-401.522
X-182.518 Y-401.546
X-182.418 Y-401.554
X-182.216
X-182.116 Y-401.551
X-182.015 Y-401.531
X-181.777 Y-401.461
X-181.694 Y-401.43
X-181.612 Y-401.386
X-181.411 Y-401.257
X-181.36 Y-401.219
X-181.31 Y-401.175
X-181.206 Y-401.059
X-181.119 Y-400.958
X-181.08 Y-400.908
X-181.049 Y-400.857
X-181.008 Y-400.772
X-180.955 Y-400.656
X-180.911 Y-400.555
X-180.883 Y-400.455
X-180.853 Y-400.253
X-180.84 Y-400.153
X-180.839 Y-400.052
X-180.858 Y-399.912
G3 X-180.942 Y-399.694 I-0.591 J-0.102
G1 X-180.992 Y-399.614 Z3.007
X-181.041 Y-399.537 Z3.029
X-181.088 Y-399.463 Z3.065
X-181.13 Y-399.395 Z3.115
X-181.169 Y-399.335 Z3.176
X-181.201 Y-399.283 Z3.247
X-181.228 Y-399.242 Z3.328
X-181.247 Y-399.211 Z3.415
X-181.259 Y-399.193 Z3.506
X-181.262 Y-399.186 Z3.6
G0 Z30

(2D Adaptive5 5)
M9
X-256.266 Y-399.083
Z30
Z20
Z19.15
G1 Z18.55 F850
G3 X-258.334 Y-401.117 Z18.391 I-1.034 J-1.017 F283.3
X-256.266 Y-399.083 Z18.232 I1.034 J1.017
X-258.334 Y-401.117 Z18.073 I-1.034 J-1.017
X-256.266 Y-399.083 Z17.914 I1.034 J1.017
X-258.57 Y-399.4 Z17.819 I-1.034 J-1.017
X-257.319 Y-401.55 Z17.715 I1.27 J-0.7
X-256.012 Y-399.434 Z17.611 I0.019 J1.45
X-258.494 Y-399.277 Z17.506 I-1.288 J-0.666
X-257.464 Y-401.541 Z17.402 I1.194 J-0.823
X-255.952 Y-399.566 Z17.298 I0.164 J1.441
X-258.648 Y-400.634 Z17.139 I-1.348 J-0.534
X-255.952 Y-399.566 Z16.98 I1.348 J0.534
X-258.648 Y-400.634 Z16.82 I-1.348 J-0.534
X-255.873 Y-399.845 Z16.671 I1.348 J0.534
X-258.197 Y-398.961 Z16.567 I-1.427 J-0.255
X-256.403 Y-401.239 Z16.408 I0.897 J-1.139
X-255.854 Y-399.988 Z16.358 I-0.897 J1.139
X-258.079 Y-398.877 Z16.254 I-1.446 J-0.112
X-258.012 Y-401.363 Z16.15 I0.779 J-1.223
X-256.588 Y-398.837 Z15.991 I0.712 J1.263
X-257.953 Y-398.806 Z15.941 I-0.712 J-1.263
X-258.134 Y-401.286 Z15.837 I0.653 J-1.294
X-256.466 Y-398.914 Z15.678 I0.834 J1.186
X-257.821 Y-398.747 Z15.628 I-0.834 J-1.186
X-258.249 Y-401.197 Z15.523 I0.521 J-1.353
X-256.351 Y-399.003 Z15.364 I0.949 J1.097
X-257.683 Y-398.702 Z15.315 I-0.949 J-1.097
X-258.353 Y-401.097 Z15.21 I0.383 J-1.398
X-256.247 Y-399.103 Z15.051 I1.053 J0.997
X-258.448 Y-400.986 Z14.897 I-1.053 J-0.997
X-255.978 Y-400.695 Z14.793 I1.148 J0.886
X-257.398 Y-398.653 Z14.689 I-1.322 J0.595
X-257.202 Y-401.547 Z14.53 I0.098 J-1.447
X-256.044 Y-400.824 Z14.48 I-0.098 J1.447
X-257.253 Y-398.651 Z14.376 I-1.256 J0.724
X-257.347 Y-401.549 Z14.216 I-0.047 J-1.449
X-256.122 Y-400.946 Z14.167 I0.047 J1.449
X-258.478 Y-399.254 Z14.008 I-1.178 J0.846
X-258.658 Y-400.608 Z13.958 I1.178 J-0.846
X-256.213 Y-401.059 Z13.854 I1.358 J0.508
X-258.388 Y-399.141 Z13.695 I-1.087 J0.959
X-258.702 Y-400.47 Z13.645 I1.087 J-0.959
X-256.314 Y-401.163 Z13.541 I1.402 J0.37
X-256.827 Y-398.729 Z13.436 I-0.986 J1.063
X-257.773 Y-401.471 Z13.277 I-0.473 J-1.371
X-256.425 Y-401.256 Z13.228 I0.473 J1.371
X-256.692 Y-398.784 Z13.123 I-0.875 J1.156
X-257.908 Y-401.417 Z12.964 I-0.608 J-1.316
X-256.692 Y-398.784 Z12.805 I0.608 J1.316
X-258.749 Y-400.039 Z12.706 I-0.608 J-1.316
X-256.672 Y-401.407 Z12.601 I1.449 J-0.061
X-257.928 Y-398.793 Z12.442 I-0.628 J1.307
X-258.735 Y-399.895 Z12.393 I0.628 J-1.307
X-256.805 Y-401.463 Z12.288 I1.435 J-0.205
X-256.33 Y-399.022 Z12.184 I-0.495 J1.363
X-258.27 Y-401.178 Z12.025 I-0.97 J-1.078
X-256.944 Y-401.506 Z11.975 I0.97 J1.078
X-257.656 Y-398.694 Z11.816 I-0.356 J1.406
X-258.666 Y-399.614 Z11.766 I0.356 J-1.406
X-257.086 Y-401.534 Z11.662 I1.366 J-0.486
X-256.136 Y-399.236 Z11.558 I-0.214 J1.434
X-258.464 Y-400.964 Z11.399 I-1.164 J-0.864
X-256.136 Y-399.236 Z11.24 I1.164 J0.864
X-258.464 Y-400.964 Z11.08 I-1.164 J-0.864
X-256.136 Y-399.236 Z10.921 I1.164 J0.864
X-258.461 Y-399.232 Z10.827 I-1.164 J-0.864
X-257.519 Y-401.533 Z10.723 I1.161 J-0.868
X-257.081 Y-398.667 Z10.564 I0.219 J1.433
X-258.369 Y-399.12 Z10.514 I-0.219 J-1.433
X-256.231 Y-401.08 Z10.355 I1.069 J-0.98
X-255.891 Y-399.757 Z10.305 I-1.069 J0.98
X-258.266 Y-399.018 Z10.201 I-1.409 J-0.343
X-257.8 Y-401.461 Z10.097 I0.966 J-1.082
X-256.8 Y-398.739 Z9.938 I0.5 J1.361
X-257.8 Y-401.461 Z9.778 I-0.5 J-1.361
X-256.8 Y-398.739 Z9.619 I0.5 J1.361
X-258.032 Y-398.848 Z9.575 I-0.5 J-1.361
X-256.569 Y-401.352 Z9.416 I0.732 J-1.252
X-255.853 Y-400.189 Z9.366 I-0.732 J1.252
X-258.747 Y-400.011 Z9.207 I-1.447 J0.089
X-255.869 Y-400.333 Z9.053 I1.447 J-0.089
X-257.768 Y-398.728 Z8.949 I-1.431 J0.233
X-256.832 Y-401.472 Z8.79 I0.468 J-1.372
X-255.899 Y-400.475 Z8.74 I-0.468 J1.372
X-257.629 Y-398.688 Z8.636 I-1.401 J0.375
X-256.971 Y-401.512 Z8.476 I0.329 J-1.412
X-255.944 Y-400.613 Z8.427 I-0.329 J1.412
X-257.486 Y-398.662 Z8.322 I-1.356 J0.513
X-258.481 Y-400.942 Z8.218 I0.186 J-1.438
X-256.002 Y-400.746 Z8.114 I1.181 J0.842
X-257.342 Y-398.651 Z8.009 I-1.298 J0.646
X-257.258 Y-401.549 Z7.85 I0.042 J-1.449
X-256.073 Y-400.872 Z7.801 I-0.042 J1.449
X-257.197 Y-398.654 Z7.696 I-1.227 J0.772
X-257.403 Y-401.546 Z7.537 I-0.103 J-1.446
X-256.156 Y-400.991 Z7.488 I0.103 J1.446
X-257.053 Y-398.671 Z7.383 I-1.144 J0.891
X-258.677 Y-400.555 Z7.279 I-0.247 J-1.429
X-256.25 Y-401.1 Z7.174 I1.377 J0.455
X-258.35 Y-399.1 Z7.015 I-1.05 J1
X-258.715 Y-400.415 Z6.966 I1.05 J-1
X-256.355 Y-401.2 Z6.861 I1.415 J0.315
X-256.774 Y-398.749 Z6.757 I-0.945 J1.1
X-257.826 Y-401.451 Z6.598 I-0.526 J-1.351
X-256.47 Y-401.289 Z6.548 I0.526 J1.351
X-258.13 Y-398.911 Z6.389 I-0.83 J1.189
X-258.75 Y-400.128 Z6.34 I0.83 J-1.189
X-256.593 Y-401.366 Z6.235 I1.45 J0.028
X-258.007 Y-398.834 Z6.076 I-0.707 J1.266
X-258.745 Y-399.983 Z6.027 I0.707 J-1.266
X-256.723 Y-401.43 Z5.922 I1.445 J-0.117
X-257.877 Y-398.77 Z5.763 I-0.577 J1.33
X-256.723 Y-401.43 Z5.604 I0.577 J-1.33
X-257.877 Y-398.77 Z5.445 I-0.577 J1.33
X-258.693 Y-399.698 Z5.4 I0.577 J-1.33
X-256.998 Y-401.518 Z5.296 I1.393 J-0.402
X-257.602 Y-398.682 Z5.137 I-0.302 J1.418
X-258.646 Y-399.561 Z5.087 I0.302 J-1.418
X-257.141 Y-401.541 Z4.983 I1.346 J-0.539
X-257.459 Y-398.659 Z4.824 I-0.159 J1.441
X-258.586 Y-399.43 Z4.774 I0.159 J-1.441
X-257.286 Y-401.55 Z4.67 I1.286 J-0.67
X-257.314 Y-398.65 Z4.511 I-0.014 J1.45
X-258.512 Y-399.305 Z4.461 I0.014 J-1.45
X-256.088 Y-400.895 Z4.302 I1.212 J-0.795
X-255.964 Y-399.535 Z4.252 I-1.212 J0.795
X-258.427 Y-399.188 Z4.148 I-1.336 J-0.565
X-257.574 Y-401.524 Z4.044 I1.127 J-0.912
X-257.026 Y-398.676 Z3.885 I0.274 J1.424
X-258.33 Y-399.08 Z3.835 I-0.274 J-1.424
X-257.715 Y-401.489 Z3.731 I1.03 J-1.02
X-256.885 Y-398.711 Z3.571 I0.415 J1.389
X-258.223 Y-398.982 Z3.522 I-0.415 J-1.389
X-257.852 Y-401.441 Z3.417 I0.923 J-1.118
X-256.748 Y-398.759 Z3.258 I0.552 J1.341
X-258.107 Y-398.895 Z3.209 I-0.552 J-1.341
X-256.493 Y-401.305 Z3.05 I0.807 J-1.205
X-255.85 Y-400.1 Z3 I-0.807 J1.205
X-257.638 Y-398.69 I-1.45
X-258.661 Y-400.601 I0.338 J-1.41
X-256.643 Y-401.393 I1.361 J0.501
X-255.85 Y-400.1 I-0.657 J1.293
G1 X-255.849 Y-400.037 F850
X-255.852 Y-399.975
X-255.858 Y-399.912
X-255.867 Y-399.851
X-255.882 Y-399.75
X-255.909 Y-399.649
X-256.008 Y-399.428
X-256.052 Y-399.337
X-256.115 Y-399.247
X-256.29 Y-399.045
X-256.35 Y-398.988
X-256.411 Y-398.943
X-256.612 Y-398.814
X-256.713 Y-398.761
X-256.813 Y-398.728
X-257.015 Y-398.669
X-257.116 Y-398.65
X-257.216 Y-398.646
X-257.418
X-257.518 Y-398.654
X-257.619 Y-398.678
X-257.82 Y-398.738
X-257.921 Y-398.776
X-258.035 Y-398.844
X-258.223 Y-398.967
X-258.31 Y-399.045
X-258.485 Y-399.247
X-258.523 Y-399.297
X-258.554 Y-399.347
X-258.601 Y-399.448
X-258.691 Y-399.649
X-258.718 Y-399.75
X-258.733 Y-399.851
X-258.761 Y-400.052
X-258.76 Y-400.153
X-258.747 Y-400.253
X-258.717 Y-400.455
X-258.689 Y-400.555
X-258.645 Y-400.656
X-258.551 Y-400.857
X-258.496 Y-400.94
X-258.318 Y-401.146
X-258.271 Y-401.194
X-258.223 Y-401.233
X-258.184 Y-401.26
X-258.022 Y-401.365
X-257.923 Y-401.423
X-257.82 Y-401.462
X-257.619 Y-401.522
X-257.518 Y-401.546
X-257.418 Y-401.554
X-257.216
X-257.116 Y-401.551
X-257.015 Y-401.531
X-256.777 Y-401.461
X-256.694 Y-401.43
X-256.612 Y-401.386
X-256.411 Y-401.257
X-256.36 Y-401.219
X-256.31 Y-401.175
X-256.206 Y-401.059
X-256.119 Y-400.958
X-256.08 Y-400.908
X-256.049 Y-400.857
X-256.008 Y-400.772
X-255.955 Y-400.656
X-255.911 Y-400.555
X-255.883 Y-400.455
X-255.853 Y-400.253
X-255.84 Y-400.153
X-255.839 Y-400.052
X-255.858 Y-399.912
G3 X-255.942 Y-399.694 I-0.591 J-0.102
G1 X-255.992 Y-399.614 Z3.007
X-256.041 Y-399.537 Z3.029
X-256.088 Y-399.463 Z3.065
X-256.13 Y-399.395 Z3.115
X-256.169 Y-399.335 Z3.176
X-256.201 Y-399.283 Z3.247
X-256.228 Y-399.242 Z3.328
X-256.247 Y-399.211 Z3.415
X-256.259 Y-399.193 Z3.506
X-256.262 Y-399.186 Z3.6
G0 Z30

(2D Adaptive5 5)
M9
X-331.266 Y-399.083
Z30
Z20
Z19.15
G1 Z18.55 F850
G3 X-333.334 Y-401.117 Z18.391 I-1.034 J-1.017 F283.3
X-331.266 Y-399.083 Z18.232 I1.034 J1.017
X-333.334 Y-401.117 Z18.073 I-1.034 J-1.017
X-331.266 Y-399.083 Z17.914 I1.034 J1.017
X-333.57 Y-399.4 Z17.819 I-1.034 J-1.017
X-332.319 Y-401.55 Z17.715 I1.27 J-0.7
X-331.012 Y-399.434 Z17.611 I0.019 J1.45
X-333.494 Y-399.277 Z17.506 I-1.288 J-0.666
X-332.464 Y-401.541 Z17.402 I1.194 J-0.823
X-330.952 Y-399.566 Z17.298 I0.164 J1.441
X-333.648 Y-400.634 Z17.139 I-1.348 J-0.534
X-330.952 Y-399.566 Z16.98 I1.348 J0.534
X-333.648 Y-400.634 Z16.82 I-1.348 J-0.534
X-330.873 Y-399.845 Z16.671 I1.348 J0.534
X-333.197 Y-398.961 Z16.567 I-1.427 J-0.255
X-331.403 Y-401.239 Z16.408 I0.897 J-1.139
X-330.854 Y-399.988 Z16.358 I-0.897 J1.139
X-333.079 Y-398.877 Z16.254 I-1.446 J-0.112
X-333.012 Y-401.363 Z16.15 I0.779 J-1.223
X-331.588 Y-398.837 Z15.991 I0.712 J1.263
X-332.953 Y-398.806 Z15.941 I-0.712 J-1.263
X-333.134 Y-401.286 Z15.837 I0.653 J-1.294
X-331.466 Y-398.914 Z15.678 I0.834 J1.186
X-332.821 Y-398.747 Z15.628 I-0.834 J-1.186
X-333.249 Y-401.197 Z15.523 I0.521 J-1.353
X-331.351 Y-399.003 Z15.364 I0.949 J1.097
X-332.683 Y-398.702 Z15.315 I-0.949 J-1.097
X-333.353 Y-401.097 Z15.21 I0.383 J-1.398
X-331.247 Y-399.103 Z15.051 I1.053 J0.997
X-333.448 Y-400.986 Z14.897 I-1.053 J-0.997
X-330.978 Y-400.695 Z14.793 I1.148 J0.886
X-332.398 Y-398.653 Z14.689 I-1.322 J0.595
X-332.202 Y-401.547 Z14.53 I0.098 J-1.447
X-331.044 Y-400.824 Z14.48 I-0.098 J1.447
X-332.253 Y-398.651 Z14.376 I-1.256 J0.724
X-332.347 Y-401.549 Z14.216 I-0.047 J-1.449
X-331.122 Y-400.946 Z14.167 I0.047 J1.449
X-333.478 Y-399.254 Z14.008 I-1.178 J0.846
X-333.658 Y-400.608 Z13.958 I1.178 J-0.846
X-331.213 Y-401.059 Z13.854 I1.358 J0.508
X-333.388 Y-399.141 Z13.695 I-1.087 J0.959
X-333.702 Y-400.47 Z13.645 I1.087 J-0.959
X-331.314 Y-401.163 Z13.541 I1.402 J0.37
X-331.827 Y-398.729 Z13.436 I-0.986 J1.063
X-332.773 Y-401.471 Z13.277 I-0.473 J-1.371
X-331.425 Y-401.256 Z13.228 I0.473 J1.371
X-331.692 Y-398.784 Z13.123 I-0.875 J1.156
X-332.908 Y-401.417 Z12.964 I-0.608 J-1.316
X-331.692 Y-398.784 Z12.805 I0.608 J1.316
X-333.749 Y-400.039 Z12.706 I-0.608 J-1.316
X-331.672 Y-401.407 Z12.601 I1.449 J-0.061
X-332.928 Y-398.793 Z12.442 I-0.628 J1.307
X-333.735 Y-399.895 Z12.393 I0.628 J-1.307
X-331.805 Y-401.463 Z12.288 I1.435 J-0.205
X-331.33 Y-399.022 Z12.184 I-0.495 J1.363
X-333.27 Y-401.178 Z12.025 I-0.97 J-1.078
X-331.944 Y-401.506 Z11.975 I0.97 J1.078
X-332.656 Y-398.694 Z11.816 I-0.356 J1.406
X-333.666 Y-399.614 Z11.766 I0.356 J-1.406
X-332.086 Y-401.534 Z11.662 I1.366 J-0.486
X-331.136 Y-399.236 Z11.558 I-0.214 J1.434
X-333.464 Y-400.964 Z11.399 I-1.164 J-0.864
X-331.136 Y-399.236 Z11.24 I1.164 J0.864
X-333.464 Y-400.964 Z11.08 I-1.164 J-0.864
X-331.136 Y-399.236 Z10.921 I1.164 J0.864
X-333.461 Y-399.232 Z10.827 I-1.164 J-0.864
X-332.519 Y-401.533 Z10.723 I1.161 J-0.868
X-332.081 Y-398.667 Z10.564 I0.219 J1.433
X-333.369 Y-399.12 Z10.514 I-0.219 J-1.433
X-331.231 Y-401.08 Z10.355 I1.069 J-0.98
X-330.891 Y-399.757 Z10.305 I-1.069 J0.98
X-333.266 Y-399.018 Z10.201 I-1.409 J-0.343
X-332.8 Y-401.461 Z10.097 I0.966 J-1.082
X-331.8 Y-398.739 Z9.938 I0.5 J1.361
X-332.8 Y-401.461 Z9.778 I-0.5 J-1.361
X-331.8 Y-398.739 Z9.619 I0.5 J1.361
X-333.032 Y-398.848 Z9.575 I-0.5 J-1.361
X-331.569 Y-401.352 Z9.416 I0.732 J-1.252
X-330.853 Y-400.189 Z9.366 I-0.732 J1.252
X-333.747 Y-400.011 Z9.207 I-1.447 J0.089
X-330.869 Y-400.333 Z9.053 I1.447 J-0.089
X-332.768 Y-398.728 Z8.949 I-1.431 J0.233
X-331.832 Y-401.472 Z8.79 I0.468 J-1.372
X-330.899 Y-400.475 Z8.74 I-0.468 J1.372
X-332.629 Y-398.688 Z8.636 I-1.401 J0.375
X-331.971 Y-401.512 Z8.476 I0.329 J-1.412
X-330.944 Y-400.613 Z8.427 I-0.329 J1.412
X-332.486 Y-398.662 Z8.322 I-1.356 J0.513
X-333.481 Y-400.942 Z8.218 I0.186 J-1.438
X-331.002 Y-400.746 Z8.114 I1.181 J0.842
X-332.342 Y-398.651 Z8.009 I-1.298 J0.646
X-332.258 Y-401.549 Z7.85 I0.042 J-1.449
X-331.073 Y-400.872 Z7.801 I-0.042 J1.449
X-332.197 Y-398.654 Z7.696 I-1.227 J0.772
X-332.403 Y-401.546 Z7.537 I-0.103 J-1.446
X-331.156 Y-400.991 Z7.488 I0.103 J1.446
X-332.053 Y-398.671 Z7.383 I-1.144 J0.891
X-333.677 Y-400.555 Z7.279 I-0.247 J-1.429
X-331.25 Y-401.1 Z7.174 I1.377 J0.455
X-333.35 Y-399.1 Z7.015 I-1.05 J1
X-333.715 Y-400.415 Z6.966 I1.05 J-1
X-331.355 Y-401.2 Z6.861 I1.415 J0.315
X-331.774 Y-398.749 Z6.757 I-0.945 J1.1
X-332.826 Y-401.451 Z6.598 I-0.526 J-1.351
X-331.47 Y-401.289 Z6.548 I0.526 J1.351
X-333.13 Y-398.911 Z6.389 I-0.83 J1.189
X-333.75 Y-400.128 Z6.34 I0.83 J-1.189
X-331.593 Y-401.366 Z6.235 I1.45 J0.028
X-333.007 Y-398.834 Z6.076 I-0.707 J1.266
X-333.745 Y-399.983 Z6.027 I0.707 J-1.266
X-331.723 Y-401.43 Z5.922 I1.445 J-0.117
X-332.877 Y-398.77 Z5.763 I-0.577 J1.33
X-331.723 Y-401.43 Z5.604 I0.577 J-1.33
X-332.877 Y-398.77 Z5.445 I-0.577 J1.33
X-333.693 Y-399.698 Z5.4 I0.577 J-1.33
X-331.998 Y-401.518 Z5.296 I1.393 J-0.402
X-332.602 Y-398.682 Z5.137 I-0.302 J1.418
X-333.646 Y-399.561 Z5.087 I0.302 J-1.418
X-332.141 Y-401.541 Z4.983 I1.346 J-0.539
X-332.459 Y-398.659 Z4.824 I-0.159 J1.441
X-333.586 Y-399.43 Z4.774 I0.159 J-1.441
X-332.286 Y-401.55 Z4.67 I1.286 J-0.67
X-332.314 Y-398.65 Z4.511 I-0.014 J1.45
X-333.512 Y-399.305 Z4.461 I0.014 J-1.45
X-331.088 Y-400.895 Z4.302 I1.212 J-0.795
X-330.964 Y-399.535 Z4.252 I-1.212 J0.795
X-333.427 Y-399.188 Z4.148 I-1.336 J-0.565
X-332.574 Y-401.524 Z4.044 I1.127 J-0.912
X-332.026 Y-398.676 Z3.885 I0.274 J1.424
X-333.33 Y-399.08 Z3.835 I-0.274 J-1.424
X-332.715 Y-401.489 Z3.731 I1.03 J-1.02
X-331.885 Y-398.711 Z3.571 I0.415 J1.389
X-333.223 Y-398.982 Z3.522 I-0.415 J-1.389
X-332.852 Y-401.441 Z3.417 I0.923 J-1.118
X-331.748 Y-398.759 Z3.258 I0.552 J1.341
X-333.107 Y-398.895 Z3.209 I-0.552 J-1.341
X-331.493 Y-401.305 Z3.05 I0.807 J-1.205
X-330.85 Y-400.1 Z3 I-0.807 J1.205
X-332.638 Y-398.69 I-1.45
X-333.661 Y-400.601 I0.338 J-1.41
X-331.643 Y-401.393 I1.361 J0.501
X-330.85 Y-400.1 I-0.657 J1.293
G1 X-330.849 Y-400.037 F850
X-330.852 Y-399.975
X-330.858 Y-399.912
X-330.867 Y-399.851
X-330.882 Y-399.75
X-330.909 Y-399.649
X-331.008 Y-399.428
X-331.052 Y-399.337
X-331.115 Y-399.247
X-331.29 Y-399.045
X-331.35 Y-398.988
X-331.411 Y-398.943
X-331.612 Y-398.814
X-331.713 Y-398.761
X-331.813 Y-398.728
X-332.015 Y-398.669
X-332.116 Y-398.65
X-332.216 Y-398.646
X-332.418
X-332.518 Y-398.654
X-332.619 Y-398.678
X-332.82 Y-398.738
X-332.921 Y-398.776
X-333.035 Y-398.844
X-333.223 Y-398.967
X-333.31 Y-399.045
X-333.485 Y-399.247
X-333.523 Y-399.297
X-333.554 Y-399.347
X-333.601 Y-399.448
X-333.691 Y-399.649
X-333.718 Y-399.75
X-333.733 Y-399.851
X-333.761 Y-400.052
X-333.76 Y-400.153
X-333.747 Y-400.253
X-333.717 Y-400.455
X-333.689 Y-400.555
X-333.645 Y-400.656
X-333.551 Y-400.857
X-333.496 Y-400.94
X-333.318 Y-401.146
X-333.271 Y-401.194
X-333.223 Y-401.233
X-333.184 Y-401.26
X-333.022 Y-401.365
X-332.923 Y-401.423
X-332.82 Y-401.462
X-332.619 Y-401.522
X-332.518 Y-401.546
X-332.418 Y-401.554
X-332.216
X-332.116 Y-401.551
X-332.015 Y-401.531
X-331.777 Y-401.461
X-331.694 Y-401.43
X-331.612 Y-401.386
X-331.411 Y-401.257
X-331.36 Y-401.219
X-331.31 Y-401.175
X-331.206 Y-401.059
X-331.119 Y-400.958
X-331.08 Y-400.908
X-331.049 Y-400.857
X-331.008 Y-400.772
X-330.955 Y-400.656
X-330.911 Y-400.555
X-330.883 Y-400.455
X-330.853 Y-400.253
X-330.84 Y-400.153
X-330.839 Y-400.052
X-330.858 Y-399.912
G3 X-330.942 Y-399.694 I-0.591 J-0.102
G1 X-330.992 Y-399.614 Z3.007
X-331.041 Y-399.537 Z3.029
X-331.088 Y-399.463 Z3.065
X-331.13 Y-399.395 Z3.115
X-331.169 Y-399.335 Z3.176
X-331.201 Y-399.283 Z3.247
X-331.228 Y-399.242 Z3.328
X-331.247 Y-399.211 Z3.415
X-331.259 Y-399.193 Z3.506
X-331.262 Y-399.186 Z3.6
G0 Z30

(2D Adaptive5 5)
M9
X-406.266 Y-399.083
Z30
Z20
Z19.15
G1 Z18.55 F850
G3 X-408.334 Y-401.117 Z18.391 I-1.034 J-1.017 F283.3
X-406.266 Y-399.083 Z18.232 I1.034 J1.017
X-408.334 Y-401.117 Z18.073 I-1.034 J-1.017
X-406.266 Y-399.083 Z17.914 I1.034 J1.017
X-408.57 Y-399.4 Z17.819 I-1.034 J-1.017
X-407.319 Y-401.55 Z17.715 I1.27 J-0.7
X-406.012 Y-399.434 Z17.611 I0.019 J1.45
X-408.494 Y-399.277 Z17.506 I-1.288 J-0.666
X-407.464 Y-401.541 Z17.402 I1.194 J-0.823
X-405.952 Y-399.566 Z17.298 I0.164 J1.441
X-408.648 Y-400.634 Z17.139 I-1.348 J-0.534
X-405.952 Y-399.566 Z16.98 I1.348 J0.534
X-408.648 Y-400.634 Z16.82 I-1.348 J-0.534
X-405.873 Y-399.845 Z16.671 I1.348 J0.534
X-408.197 Y-398.961 Z16.567 I-1.427 J-0.255
X-406.403 Y-401.239 Z16.408 I0.897 J-1.139
X-405.854 Y-399.988 Z16.358 I-0.897 J1.139
X-408.079 Y-398.877 Z16.254 I-1.446 J-0.112
X-408.012 Y-401.363 Z16.15 I0.779 J-1.223
X-406.588 Y-398.837 Z15.991 I0.712 J1.263
X-407.953 Y-398.806 Z15.941 I-0.712 J-1.263
X-408.134 Y-401.286 Z15.837 I0.653 J-1.294
X-406.466 Y-398.914 Z15.678 I0.834 J1.186
X-407.821 Y-398.747 Z15.628 I-0.834 J-1.186
X-408.249 Y-401.197 Z15.523 I0.521 J-1.353
X-406.351 Y-399.003 Z15.364 I0.949 J1.097
X-407.683 Y-398.702 Z15.315 I-0.949 J-1.097
X-408.353 Y-401.097 Z15.21 I0.383 J-1.398
X-406.247 Y-399.103 Z15.051 I1.053 J0.997
X-408.448 Y-400.986 Z14.897 I-1.053 J-0.997
X-405.978 Y-400.695 Z14.793 I1.148 J0.886
X-407.398 Y-398.653 Z14.689 I-1.322 J0.595
X-407.202 Y-401.547 Z14.53 I0.098 J-1.447
X-406.044 Y-400.824 Z14.48 I-0.098 J1.447
X-407.253 Y-398.651 Z14.376 I-1.256 J0.724
X-407.347 Y-401.549 Z14.216 I-0.047 J-1.449
X-406.122 Y-400.946 Z14.167 I0.047 J1.449
X-408.478 Y-399.254 Z14.008 I-1.178 J0.846
X-408.658 Y-400.608 Z13.958 I1.178 J-0.846
X-406.213 Y-401.059 Z13.854 I1.358 J0.508
X-408.388 Y-399.141 Z13.695 I-1.087 J0.959
X-408.702 Y-400.47 Z13.645 I1.087 J-0.959
X-406.314 Y-401.163 Z13.541 I1.402 J0.37
X-406.827 Y-398.729 Z13.436 I-0.986 J1.063
X-407.773 Y-401.471 Z13.277 I-0.473 J-1.371
X-406.425 Y-401.256 Z13.228 I0.473 J1.371
X-406.692 Y-398.784 Z13.123 I-0.875 J1.156
X-407.908 Y-401.417 Z12.964 I-0.608 J-1.316
X-406.692 Y-398.784 Z12.805 I0.608 J1.316
X-408.749 Y-400.039 Z12.706 I-0.608 J-1.316
X-406.672 Y-401.407 Z12.601 I1.449 J-0.061
X-407.928 Y-398.793 Z12.442 I-0.628 J1.307
X-408.735 Y-399.895 Z12.393 I0.628 J-1.307
X-406.805 Y-401.463 Z12.288 I1.435 J-0.205
X-406.33 Y-399.022 Z12.184 I-0.495 J1.363
X-408.27 Y-401.178 Z12.025 I-0.97 J-1.078
X-406.944 Y-401.506 Z11.975 I0.97 J1.078
X-407.656 Y-398.694 Z11.816 I-0.356 J1.406
X-408.666 Y-399.614 Z11.766 I0.356 J-1.406
X-407.086 Y-401.534 Z11.662 I1.366 J-0.486
X-406.136 Y-399.236 Z11.558 I-0.214 J1.434
X-408.464 Y-400.964 Z11.399 I-1.164 J-0.864
X-406.136 Y-399.236 Z11.24 I1.164 J0.864
X-408.464 Y-400.964 Z11.08 I-1.164 J-0.864
X-406.136 Y-399.236 Z10.921 I1.164 J0.864
X-408.461 Y-399.232 Z10.827 I-1.164 J-0.864
X-407.519 Y-401.533 Z10.723 I1.161 J-0.868
X-407.081 Y-398.667 Z10.564 I0.219 J1.433
X-408.369 Y-399.12 Z10.514 I-0.219 J-1.433
X-406.231 Y-401.08 Z10.355 I1.069 J-0.98
X-405.891 Y-399.757 Z10.305 I-1.069 J0.98
X-408.266 Y-399.018 Z10.201 I-1.409 J-0.343
X-407.8 Y-401.461 Z10.097 I0.966 J-1.082
X-406.8 Y-398.739 Z9.938 I0.5 J1.361
X-407.8 Y-401.461 Z9.778 I-0.5 J-1.361
X-406.8 Y-398.739 Z9.619 I0.5 J1.361
X-408.032 Y-398.848 Z9.575 I-0.5 J-1.361
X-406.569 Y-401.352 Z9.416 I0.732 J-1.252
X-405.853 Y-400.189 Z9.366 I-0.732 J1.252
X-408.747 Y-400.011 Z9.207 I-1.447 J0.089
X-405.869 Y-400.333 Z9.053 I1.447 J-0.089
X-407.768 Y-398.728 Z8.949 I-1.431 J0.233
X-406.832 Y-401.472 Z8.79 I0.468 J-1.372
X-405.899 Y-400.475 Z8.74 I-0.468 J1.372
X-407.629 Y-398.688 Z8.636 I-1.401 J0.375
X-406.971 Y-401.512 Z8.476 I0.329 J-1.412
X-405.944 Y-400.613 Z8.427 I-0.329 J1.412
X-407.486 Y-398.662 Z8.322 I-1.356 J0.513
X-408.481 Y-400.942 Z8.218 I0.186 J-1.438
X-406.002 Y-400.746 Z8.114 I1.181 J0.842
X-407.342 Y-398.651 Z8.009 I-1.298 J0.646
X-407.258 Y-401.549 Z7.85 I0.042 J-1.449
X-406.073 Y-400.872 Z7.801 I-0.042 J1.449
X-407.197 Y-398.654 Z7.696 I-1.227 J0.772
X-407.403 Y-401.546 Z7.537 I-0.103 J-1.446
X-406.156 Y-400.991 Z7.488 I0.103 J1.446
X-407.053 Y-398.671 Z7.383 I-1.144 J0.891
X-408.677 Y-400.555 Z7.279 I-0.247 J-1.429
X-406.25 Y-401.1 Z7.174 I1.377 J0.455
X-408.35 Y-399.1 Z7.015 I-1.05 J1
X-408.715 Y-400.415 Z6.966 I1.05 J-1
X-406.355 Y-401.2 Z6.861 I1.415 J0.315
X-406.774 Y-398.749 Z6.757 I-0.945 J1.1
X-407.826 Y-401.451 Z6.598 I-0.526 J-1.351
X-406.47 Y-401.289 Z6.548 I0.526 J1.351
X-408.13 Y-398.911 Z6.389 I-0.83 J1.189
X-408.75 Y-400.128 Z6.34 I0.83 J-1.189
X-406.593 Y-401.366 Z6.235 I1.45 J0.028
X-408.007 Y-398.834 Z6.076 I-0.707 J1.266
X-408.745 Y-399.983 Z6.027 I0.707 J-1.266
X-406.723 Y-401.43 Z5.922 I1.445 J-0.117
X-407.877 Y-398.77 Z5.763 I-0.577 J1.33
X-406.723 Y-401.43 Z5.604 I0.577 J-1.33
X-407.877 Y-398.77 Z5.445 I-0.577 J1.33
X-408.693 Y-399.698 Z5.4 I0.577 J-1.33
X-406.998 Y-401.518 Z5.296 I1.393 J-0.402
X-407.602 Y-398.682 Z5.137 I-0.302 J1.418
X-408.646 Y-399.561 Z5.087 I0.302 J-1.418
X-407.141 Y-401.541 Z4.983 I1.346 J-0.539
X-407.459 Y-398.659 Z4.824 I-0.159 J1.441
X-408.586 Y-399.43 Z4.774 I0.159 J-1.441
X-407.286 Y-401.55 Z4.67 I1.286 J-0.67
X-407.314 Y-398.65 Z4.511 I-0.014 J1.45
X-408.512 Y-399.305 Z4.461 I0.014 J-1.45
X-406.088 Y-400.895 Z4.302 I1.212 J-0.795
X-405.964 Y-399.535 Z4.252 I-1.212 J0.795
X-408.427 Y-399.188 Z4.148 I-1.336 J-0.565
X-407.574 Y-401.524 Z4.044 I1.127 J-0.912
X-407.026 Y-398.676 Z3.885 I0.274 J1.424
X-408.33 Y-399.08 Z3.835 I-0.274 J-1.424
X-407.715 Y-401.489 Z3.731 I1.03 J-1.02
X-406.885 Y-398.711 Z3.571 I0.415 J1.389
X-408.223 Y-398.982 Z3.522 I-0.415 J-1.389
X-407.852 Y-401.441 Z3.417 I0.923 J-1.118
X-406.748 Y-398.759 Z3.258 I0.552 J1.341
X-408.107 Y-398.895 Z3.209 I-0.552 J-1.341
X-406.493 Y-401.305 Z3.05 I0.807 J-1.205
X-405.85 Y-400.1 Z3 I-0.807 J1.205
X-407.638 Y-398.69 I-1.45
X-408.661 Y-400.601 I0.338 J-1.41
X-406.643 Y-401.393 I1.361 J0.501
X-405.85 Y-400.1 I-0.657 J1.293
G1 X-405.849 Y-400.037 F850
X-405.852 Y-399.975
X-405.858 Y-399.912
X-405.867 Y-399.851
X-405.882 Y-399.75
X-405.909 Y-399.649
X-406.008 Y-399.428
X-406.052 Y-399.337
X-406.115 Y-399.247
X-406.29 Y-399.045
X-406.35 Y-398.988
X-406.411 Y-398.943
X-406.612 Y-398.814
X-406.713 Y-398.761
X-406.813 Y-398.728
X-407.015 Y-398.669
X-407.116 Y-398.65
X-407.216 Y-398.646
X-407.418
X-407.518 Y-398.654
X-407.619 Y-398.678
X-407.82 Y-398.738
X-407.921 Y-398.776
X-408.035 Y-398.844
X-408.223 Y-398.967
X-408.31 Y-399.045
X-408.485 Y-399.247
X-408.523 Y-399.297
X-408.554 Y-399.347
X-408.601 Y-399.448
X-408.691 Y-399.649
X-408.718 Y-399.75
X-408.733 Y-399.851
X-408.761 Y-400.052
X-408.76 Y-400.153
X-408.747 Y-400.253
X-408.717 Y-400.455
X-408.689 Y-400.555
X-408.645 Y-400.656
X-408.551 Y-400.857
X-408.496 Y-400.94
X-408.318 Y-401.146
X-408.271 Y-401.194
X-408.223 Y-401.233
X-408.184 Y-401.26
X-408.022 Y-401.365
X-407.923 Y-401.423
X-407.82 Y-401.462
X-407.619 Y-401.522
X-407.518 Y-401.546
X-407.418 Y-401.554
X-407.216
X-407.116 Y-401.551
X-407.015 Y-401.531
X-406.777 Y-401.461
X-406.694 Y-401.43
X-406.612 Y-401.386
X-406.411 Y-401.257
X-406.36 Y-401.219
X-406.31 Y-401.175
X-406.206 Y-401.059
X-406.119 Y-400.958
X-406.08 Y-400.908
X-406.049 Y-400.857
X-406.008 Y-400.772
X-405.955 Y-400.656
X-405.911 Y-400.555
X-405.883 Y-400.455
X-405.853 Y-400.253
X-405.84 Y-400.153
X-405.839 Y-400.052
X-405.858 Y-399.912
G3 X-405.942 Y-399.694 I-0.591 J-0.102
G1 X-405.992 Y-399.614 Z3.007
X-406.041 Y-399.537 Z3.029
X-406.088 Y-399.463 Z3.065
X-406.13 Y-399.395 Z3.115
X-406.169 Y-399.335 Z3.176
X-406.201 Y-399.283 Z3.247
X-406.228 Y-399.242 Z3.328
X-406.247 Y-399.211 Z3.415
X-406.259 Y-399.193 Z3.506
X-406.262 Y-399.186 Z3.6
G0 Z30

(2D Adaptive5 5)
M9
X-481.266 Y-399.083
Z30
Z20
Z19.15
G1 Z18.55 F850
G3 X-483.334 Y-401.117 Z18.391 I-1.034 J-1.017 F283.3
X-481.266 Y-399.083 Z18.232 I1.034 J1.017
X-483.334 Y-401.117 Z18.073 I-1.034 J-1.017
X-481.266 Y-399.083 Z17.914 I1.034 J1.017
X-483.57 Y-399.4 Z17.819 I-1.034 J-1.017
X-482.319 Y-401.55 Z17.715 I1.27 J-0.7
X-481.012 Y-399.434 Z17.611 I0.019 J1.45
X-483.494 Y-399.277 Z17.506 I-1.288 J-0.666
X-482.464 Y-401.541 Z17.402 I1.194 J-0.823
X-480.952 Y-399.566 Z17.298 I0.164 J1.441
X-483.648 Y-400.634 Z17.139 I-1.348 J-0.534
X-480.952 Y-399.566 Z16.98 I1.348 J0.534
X-483.648 Y-400.634 Z16.82 I-1.348 J-0.534
X-480.873 Y-399.845 Z16.671 I1.348 J0.534
X-483.197 Y-398.961 Z16.567 I-1.427 J-0.255
X-481.403 Y-401.239 Z16.408 I0.897 J-1.139
X-480.854 Y-399.988 Z16.358 I-0.897 J1.139
X-483.079 Y-398.877 Z16.254 I-1.446 J-0.112
X-483.012 Y-401.363 Z16.15 I0.779 J-1.223
X-481.588 Y-398.837 Z15.991 I0.712 J1.263
X-482.953 Y-398.806 Z15.941 I-0.712 J-1.263
X-483.134 Y-401.286 Z15.837 I0.653 J-1.294
X-481.466 Y-398.914 Z15.678 I0.834 J1.186
X-482.821 Y-398.747 Z15.628 I-0.834 J-1.186
X-483.249 Y-401.197 Z15.523 I0.521 J-1.353
X-481.351 Y-399.003 Z15.364 I0.949 J1.097
X-482.683 Y-398.702 Z15.315 I-0.949 J-1.097
X-483.353 Y-401.097 Z15.21 I0.383 J-1.398
X-481.247 Y-399.103 Z15.051 I1.053 J0.997
X-483.448 Y-400.986 Z14.897 I-1.053 J-0.997
X-480.978 Y-400.695 Z14.793 I1.148 J0.886
X-482.398 Y-398.653 Z14.689 I-1.322 J0.595
X-482.202 Y-401.547 Z14.53 I0.098 J-1.447
X-481.044 Y-400.824 Z14.48 I-0.098 J1.447
X-482.253 Y-398.651 Z14.376 I-1.256 J0.724
X-482.347 Y-401.549 Z14.216 I-0.047 J-1.449
X-481.122 Y-400.946 Z14.167 I0.047 J1.449
X-483.478 Y-399.254 Z14.008 I-1.178 J0.846
X-483.658 Y-400.608 Z13.958 I1.178 J-0.846
X-481.213 Y-401.059 Z13.854 I1.358 J0.508
X-483.388 Y-399.141 Z13.695 I-1.087 J0.959
X-483.702 Y-400.47 Z13.645 I1.087 J-0.959
X-481.314 Y-401.163 Z13.541 I1.402 J0.37
X-481.827 Y-398.729 Z13.436 I-0.986 J1.063
X-482.773 Y-401.471 Z13.277 I-0.473 J-1.371
X-481.425 Y-401.256 Z13.228 I0.473 J1.371
X-481.692 Y-398.784 Z13.123 I-0.875 J1.156
X-482.908 Y-401.417 Z12.964 I-0.608 J-1.316
X-481.692 Y-398.784 Z12.805 I0.608 J1.316
X-483.749 Y-400.039 Z12.706 I-0.608 J-1.316
X-481.672 Y-401.407 Z12.601 I1.449 J-0.061
X-482.928 Y-398.793 Z12.442 I-0.628 J1.307
X-483.735 Y-399.895 Z12.393 I0.628 J-1.307
X-481.805 Y-401.463 Z12.288 I1.435 J-0.205
X-481.33 Y-399.022 Z12.184 I-0.495 J1.363
X-483.27 Y-401.178 Z12.025 I-0.97 J-1.078
X-481.944 Y-401.506 Z11.975 I0.97 J1.078
X-482.656 Y-398.694 Z11.816 I-0.356 J1.406
X-483.666 Y-399.614 Z11.766 I0.356 J-1.406
X-482.086 Y-401.534 Z11.662 I1.366 J-0.486
X-481.136 Y-399.236 Z11.558 I-0.214 J1.434
X-483.464 Y-400.964 Z11.399 I-1.164 J-0.864
X-481.136 Y-399.236 Z11.24 I1.164 J0.864
X-483.464 Y-400.964 Z11.08 I-1.164 J-0.864
X-481.136 Y-399.236 Z10.921 I1.164 J0.864
X-483.461 Y-399.232 Z10.827 I-1.164 J-0.864
X-482.519 Y-401.533 Z10.723 I1.161 J-0.868
X-482.081 Y-398.667 Z10.564 I0.219 J1.433
X-483.369 Y-399.12 Z10.514 I-0.219 J-1.433
X-481.231 Y-401.08 Z10.355 I1.069 J-0.98
X-480.891 Y-399.757 Z10.305 I-1.069 J0.98
X-483.266 Y-399.018 Z10.201 I-1.409 J-0.343
X-482.8 Y-401.461 Z10.097 I0.966 J-1.082
X-481.8 Y-398.739 Z9.938 I0.5 J1.361
X-482.8 Y-401.461 Z9.778 I-0.5 J-1.361
X-481.8 Y-398.739 Z9.619 I0.5 J1.361
X-483.032 Y-398.848 Z9.575 I-0.5 J-1.361
X-481.569 Y-401.352 Z9.416 I0.732 J-1.252
X-480.853 Y-400.189 Z9.366 I-0.732 J1.252
X-483.747 Y-400.011 Z9.207 I-1.447 J0.089
X-480.869 Y-400.333 Z9.053 I1.447 J-0.089
X-482.768 Y-398.728 Z8.949 I-1.431 J0.233
X-481.832 Y-401.472 Z8.79 I0.468 J-1.372
X-480.899 Y-400.475 Z8.74 I-0.468 J1.372
X-482.629 Y-398.688 Z8.636 I-1.401 J0.375
X-481.971 Y-401.512 Z8.476 I0.329 J-1.412
X-480.944 Y-400.613 Z8.427 I-0.329 J1.412
X-482.486 Y-398.662 Z8.322 I-1.356 J0.513
X-483.481 Y-400.942 Z8.218 I0.186 J-1.438
X-481.002 Y-400.746 Z8.114 I1.181 J0.842
X-482.342 Y-398.651 Z8.009 I-1.298 J0.646
X-482.258 Y-401.549 Z7.85 I0.042 J-1.449
X-481.073 Y-400.872 Z7.801 I-0.042 J1.449
X-482.197 Y-398.654 Z7.696 I-1.227 J0.772
X-482.403 Y-401.546 Z7.537 I-0.103 J-1.446
X-481.156 Y-400.991 Z7.488 I0.103 J1.446
X-482.053 Y-398.671 Z7.383 I-1.144 J0.891
X-483.677 Y-400.555 Z7.279 I-0.247 J-1.429
X-481.25 Y-401.1 Z7.174 I1.377 J0.455
X-483.35 Y-399.1 Z7.015 I-1.05 J1
X-483.715 Y-400.415 Z6.966 I1.05 J-1
X-481.355 Y-401.2 Z6.861 I1.415 J0.315
X-481.774 Y-398.749 Z6.757 I-0.945 J1.1
X-482.826 Y-401.451 Z6.598 I-0.526 J-1.351
X-481.47 Y-401.289 Z6.548 I0.526 J1.351
X-483.13 Y-398.911 Z6.389 I-0.83 J1.189
X-483.75 Y-400.128 Z6.34 I0.83 J-1.189
X-481.593 Y-401.366 Z6.235 I1.45 J0.028
X-483.007 Y-398.834 Z6.076 I-0.707 J1.266
X-483.745 Y-399.983 Z6.027 I0.707 J-1.266
X-481.723 Y-401.43 Z5.922 I1.445 J-0.117
X-482.877 Y-398.77 Z5.763 I-0.577 J1.33
X-481.723 Y-401.43 Z5.604 I0.577 J-1.33
X-482.877 Y-398.77 Z5.445 I-0.577 J1.33
X-483.693 Y-399.698 Z5.4 I0.577 J-1.33
X-481.998 Y-401.518 Z5.296 I1.393 J-0.402
X-482.602 Y-398.682 Z5.137 I-0.302 J1.418
X-483.646 Y-399.561 Z5.087 I0.302 J-1.418
X-482.141 Y-401.541 Z4.983 I1.346 J-0.539
X-482.459 Y-398.659 Z4.824 I-0.159 J1.441
X-483.586 Y-399.43 Z4.774 I0.159 J-1.441
X-482.286 Y-401.55 Z4.67 I1.286 J-0.67
X-482.314 Y-398.65 Z4.511 I-0.014 J1.45
X-483.512 Y-399.305 Z4.461 I0.014 J-1.45
X-481.088 Y-400.895 Z4.302 I1.212 J-0.795
X-480.964 Y-399.535 Z4.252 I-1.212 J0.795
X-483.427 Y-399.188 Z4.148 I-1.336 J-0.565
X-482.574 Y-401.524 Z4.044 I1.127 J-0.912
X-482.026 Y-398.676 Z3.885 I0.274 J1.424
X-483.33 Y-399.08 Z3.835 I-0.274 J-1.424
X-482.715 Y-401.489 Z3.731 I1.03 J-1.02
X-481.885 Y-398.711 Z3.571 I0.415 J1.389
X-483.223 Y-398.982 Z3.522 I-0.415 J-1.389
X-482.852 Y-401.441 Z3.417 I0.923 J-1.118
X-481.748 Y-398.759 Z3.258 I0.552 J1.341
X-483.107 Y-398.895 Z3.209 I-0.552 J-1.341
X-481.493 Y-401.305 Z3.05 I0.807 J-1.205
X-480.85 Y-400.1 Z3 I-0.807 J1.205
X-482.638 Y-398.69 I-1.45
X-483.661 Y-400.601 I0.338 J-1.41
X-481.643 Y-401.393 I1.361 J0.501
X-480.85 Y-400.1 I-0.657 J1.293
G1 X-480.849 Y-400.037 F850
X-480.852 Y-399.975
X-480.858 Y-399.912
X-480.867 Y-399.851
X-480.882 Y-399.75
X-480.909 Y-399.649
X-481.008 Y-399.428
X-481.052 Y-399.337
X-481.115 Y-399.247
X-481.29 Y-399.045
X-481.35 Y-398.988
X-481.411 Y-398.943
X-481.612 Y-398.814
X-481.713 Y-398.761
X-481.813 Y-398.728
X-482.015 Y-398.669
X-482.116 Y-398.65
X-482.216 Y-398.646
X-482.418
X-482.518 Y-398.654
X-482.619 Y-398.678
X-482.82 Y-398.738
X-482.921 Y-398.776
X-483.035 Y-398.844
X-483.223 Y-398.967
X-483.31 Y-399.045
X-483.485 Y-399.247
X-483.523 Y-399.297
X-483.554 Y-399.347
X-483.601 Y-399.448
X-483.691 Y-399.649
X-483.718 Y-399.75
X-483.733 Y-399.851
X-483.761 Y-400.052
X-483.76 Y-400.153
X-483.747 Y-400.253
X-483.717 Y-400.455
X-483.689 Y-400.555
X-483.645 Y-400.656
X-483.551 Y-400.857
X-483.496 Y-400.94
X-483.318 Y-401.146
X-483.271 Y-401.194
X-483.223 Y-401.233
X-483.184 Y-401.26
X-483.022 Y-401.365
X-482.923 Y-401.423
X-482.82 Y-401.462
X-482.619 Y-401.522
X-482.518 Y-401.546
X-482.418 Y-401.554
X-482.216
X-482.116 Y-401.551
X-482.015 Y-401.531
X-481.777 Y-401.461
X-481.694 Y-401.43
X-481.612 Y-401.386
X-481.411 Y-401.257
X-481.36 Y-401.219
X-481.31 Y-401.175
X-481.206 Y-401.059
X-481.119 Y-400.958
X-481.08 Y-400.908
X-481.049 Y-400.857
X-481.008 Y-400.772
X-480.955 Y-400.656
X-480.911 Y-400.555
X-480.883 Y-400.455
X-480.853 Y-400.253
X-480.84 Y-400.153
X-480.839 Y-400.052
X-480.858 Y-399.912
G3 X-480.942 Y-399.694 I-0.591 J-0.102
G1 X-480.992 Y-399.614 Z3.007
X-481.041 Y-399.537 Z3.029
X-481.088 Y-399.463 Z3.065
X-481.13 Y-399.395 Z3.115
X-481.169 Y-399.335 Z3.176
X-481.201 Y-399.283 Z3.247
X-481.228 Y-399.242 Z3.328
X-481.247 Y-399.211 Z3.415
X-481.259 Y-399.193 Z3.506
X-481.262 Y-399.186 Z3.6
G0 Z30

(2D Adaptive5 5)
M9
X-556.266 Y-399.083
Z30
Z20
Z19.15
G1 Z18.55 F850
G3 X-558.334 Y-401.117 Z18.391 I-1.034 J-1.017 F283.3
X-556.266 Y-399.083 Z18.232 I1.034 J1.017
X-558.334 Y-401.117 Z18.073 I-1.034 J-1.017
X-556.266 Y-399.083 Z17.914 I1.034 J1.017
X-558.57 Y-399.4 Z17.819 I-1.034 J-1.017
X-557.319 Y-401.55 Z17.715 I1.27 J-0.7
X-556.012 Y-399.434 Z17.611 I0.019 J1.45
X-558.494 Y-399.277 Z17.506 I-1.288 J-0.666
X-557.464 Y-401.541 Z17.402 I1.194 J-0.823
X-555.952 Y-399.566 Z17.298 I0.164 J1.441
X-558.648 Y-400.634 Z17.139 I-1.348 J-0.534
X-555.952 Y-399.566 Z16.98 I1.348 J0.534
X-558.648 Y-400.634 Z16.82 I-1.348 J-0.534
X-555.873 Y-399.845 Z16.671 I1.348 J0.534
X-558.197 Y-398.961 Z16.567 I-1.427 J-0.255
X-556.403 Y-401.239 Z16.408 I0.897 J-1.139
X-555.854 Y-399.988 Z16.358 I-0.897 J1.139
X-558.079 Y-398.877 Z16.254 I-1.446 J-0.112
X-558.012 Y-401.363 Z16.15 I0.779 J-1.223
X-556.588 Y-398.837 Z15.991 I0.712 J1.263
X-557.953 Y-398.806 Z15.941 I-0.712 J-1.263
X-558.134 Y-401.286 Z15.837 I0.653 J-1.294
X-556.466 Y-398.914 Z15.678 I0.834 J1.186
X-557.821 Y-398.747 Z15.628 I-0.834 J-1.186
X-558.249 Y-401.197 Z15.523 I0.521 J-1.353
X-556.351 Y-399.003 Z15.364 I0.949 J1.097
X-557.683 Y-398.702 Z15.315 I-0.949 J-1.097
X-558.353 Y-401.097 Z15.21 I0.383 J-1.398
X-556.247 Y-399.103 Z15.051 I1.053 J0.997
X-558.448 Y-400.986 Z14.897 I-1.053 J-0.997
X-555.978 Y-400.695 Z14.793 I1.148 J0.886
X-557.398 Y-398.653 Z14.689 I-1.322 J0.595
X-557.202 Y-401.547 Z14.53 I0.098 J-1.447
X-556.044 Y-400.824 Z14.48 I-0.098 J1.447
X-557.253 Y-398.651 Z14.376 I-1.256 J0.724
X-557.347 Y-401.549 Z14.216 I-0.047 J-1.449
X-556.122 Y-400.946 Z14.167 I0.047 J1.449
X-558.478 Y-399.254 Z14.008 I-1.178 J0.846
X-558.658 Y-400.608 Z13.958 I1.178 J-0.846
X-556.213 Y-401.059 Z13.854 I1.358 J0.508
X-558.388 Y-399.141 Z13.695 I-1.087 J0.959
X-558.702 Y-400.47 Z13.645 I1.087 J-0.959
X-556.314 Y-401.163 Z13.541 I1.402 J0.37
X-556.827 Y-398.729 Z13.436 I-0.986 J1.063
X-557.773 Y-401.471 Z13.277 I-0.473 J-1.371
X-556.425 Y-401.256 Z13.228 I0.473 J1.371
X-556.692 Y-398.784 Z13.123 I-0.875 J1.156
X-557.908 Y-401.417 Z12.964 I-0.608 J-1.316
X-556.692 Y-398.784 Z12.805 I0.608 J1.316
X-558.749 Y-400.039 Z12.706 I-0.608 J-1.316
X-556.672 Y-401.407 Z12.601 I1.449 J-0.061
X-557.928 Y-398.793 Z12.442 I-0.628 J1.307
X-558.735 Y-399.895 Z12.393 I0.628 J-1.307
X-556.805 Y-401.463 Z12.288 I1.435 J-0.205
X-556.33 Y-399.022 Z12.184 I-0.495 J1.363
X-558.27 Y-401.178 Z12.025 I-0.97 J-1.078
X-556.944 Y-401.506 Z11.975 I0.97 J1.078
X-557.656 Y-398.694 Z11.816 I-0.356 J1.406
X-558.666 Y-399.614 Z11.766 I0.356 J-1.406
X-557.086 Y-401.534 Z11.662 I1.366 J-0.486
X-556.136 Y-399.236 Z11.558 I-0.214 J1.434
X-558.464 Y-400.964 Z11.399 I-1.164 J-0.864
X-556.136 Y-399.236 Z11.24 I1.164 J0.864
X-558.464 Y-400.964 Z11.08 I-1.164 J-0.864
X-556.136 Y-399.236 Z10.921 I1.164 J0.864
X-558.461 Y-399.232 Z10.827 I-1.164 J-0.864
X-557.519 Y-401.533 Z10.723 I1.161 J-0.868
X-557.081 Y-398.667 Z10.564 I0.219 J1.433
X-558.369 Y-399.12 Z10.514 I-0.219 J-1.433
X-556.231 Y-401.08 Z10.355 I1.069 J-0.98
X-555.891 Y-399.757 Z10.305 I-1.069 J0.98
X-558.266 Y-399.018 Z10.201 I-1.409 J-0.343
X-557.8 Y-401.461 Z10.097 I0.966 J-1.082
X-556.8 Y-398.739 Z9.938 I0.5 J1.361
X-557.8 Y-401.461 Z9.778 I-0.5 J-1.361
X-556.8 Y-398.739 Z9.619 I0.5 J1.361
X-558.032 Y-398.848 Z9.575 I-0.5 J-1.361
X-556.569 Y-401.352 Z9.416 I0.732 J-1.252
X-555.853 Y-400.189 Z9.366 I-0.732 J1.252
X-558.747 Y-400.011 Z9.207 I-1.447 J0.089
X-555.869 Y-400.333 Z9.053 I1.447 J-0.089
X-557.768 Y-398.728 Z8.949 I-1.431 J0.233
X-556.832 Y-401.472 Z8.79 I0.468 J-1.372
X-555.899 Y-400.475 Z8.74 I-0.468 J1.372
X-557.629 Y-398.688 Z8.636 I-1.401 J0.375
X-556.971 Y-401.512 Z8.476 I0.329 J-1.412
X-555.944 Y-400.613 Z8.427 I-0.329 J1.412
X-557.486 Y-398.662 Z8.322 I-1.356 J0.513
X-558.481 Y-400.942 Z8.218 I0.186 J-1.438
X-556.002 Y-400.746 Z8.114 I1.181 J0.842
X-557.342 Y-398.651 Z8.009 I-1.298 J0.646
X-557.258 Y-401.549 Z7.85 I0.042 J-1.449
X-556.073 Y-400.872 Z7.801 I-0.042 J1.449
X-557.197 Y-398.654 Z7.696 I-1.227 J0.772
X-557.403 Y-401.546 Z7.537 I-0.103 J-1.446
X-556.156 Y-400.991 Z7.488 I0.103 J1.446
X-557.053 Y-398.671 Z7.383 I-1.144 J0.891
X-558.677 Y-400.555 Z7.279 I-0.247 J-1.429
X-556.25 Y-401.1 Z7.174 I1.377 J0.455
X-558.35 Y-399.1 Z7.015 I-1.05 J1
X-558.715 Y-400.415 Z6.966 I1.05 J-1
X-556.355 Y-401.2 Z6.861 I1.415 J0.315
X-556.774 Y-398.749 Z6.757 I-0.945 J1.1
X-557.826 Y-401.451 Z6.598 I-0.526 J-1.351
X-556.47 Y-401.289 Z6.548 I0.526 J1.351
X-558.13 Y-398.911 Z6.389 I-0.83 J1.189
X-558.75 Y-400.128 Z6.34 I0.83 J-1.189
X-556.593 Y-401.366 Z6.235 I1.45 J0.028
X-558.007 Y-398.834 Z6.076 I-0.707 J1.266
X-558.745 Y-399.983 Z6.027 I0.707 J-1.266
X-556.723 Y-401.43 Z5.922 I1.445 J-0.117
X-557.877 Y-398.77 Z5.763 I-0.577 J1.33
X-556.723 Y-401.43 Z5.604 I0.577 J-1.33
X-557.877 Y-398.77 Z5.445 I-0.577 J1.33
X-558.693 Y-399.698 Z5.4 I0.577 J-1.33
X-556.998 Y-401.518 Z5.296 I1.393 J-0.402
X-557.602 Y-398.682 Z5.137 I-0.302 J1.418
X-558.646 Y-399.561 Z5.087 I0.302 J-1.418
X-557.141 Y-401.541 Z4.983 I1.346 J-0.539
X-557.459 Y-398.659 Z4.824 I-0.159 J1.441
X-558.586 Y-399.43 Z4.774 I0.159 J-1.441
X-557.286 Y-401.55 Z4.67 I1.286 J-0.67
X-557.314 Y-398.65 Z4.511 I-0.014 J1.45
X-558.512 Y-399.305 Z4.461 I0.014 J-1.45
X-556.088 Y-400.895 Z4.302 I1.212 J-0.795
X-555.964 Y-399.535 Z4.252 I-1.212 J0.795
X-558.427 Y-399.188 Z4.148 I-1.336 J-0.565
X-557.574 Y-401.524 Z4.044 I1.127 J-0.912
X-557.026 Y-398.676 Z3.885 I0.274 J1.424
X-558.33 Y-399.08 Z3.835 I-0.274 J-1.424
X-557.715 Y-401.489 Z3.731 I1.03 J-1.02
X-556.885 Y-398.711 Z3.571 I0.415 J1.389
X-558.223 Y-398.982 Z3.522 I-0.415 J-1.389
X-557.852 Y-401.441 Z3.417 I0.923 J-1.118
X-556.748 Y-398.759 Z3.258 I0.552 J1.341
X-558.107 Y-398.895 Z3.209 I-0.552 J-1.341
X-556.493 Y-401.305 Z3.05 I0.807 J-1.205
X-555.85 Y-400.1 Z3 I-0.807 J1.205
X-557.638 Y-398.69 I-1.45
X-558.661 Y-400.601 I0.338 J-1.41
X-556.643 Y-401.393 I1.361 J0.501
X-555.85 Y-400.1 I-0.657 J1.293
G1 X-555.849 Y-400.037 F850
X-555.852 Y-399.975
X-555.858 Y-399.912
X-555.867 Y-399.851
X-555.882 Y-399.75
X-555.909 Y-399.649
X-556.008 Y-399.428
X-556.052 Y-399.337
X-556.115 Y-399.247
X-556.29 Y-399.045
X-556.35 Y-398.988
X-556.411 Y-398.943
X-556.612 Y-398.814
X-556.713 Y-398.761
X-556.813 Y-398.728
X-557.015 Y-398.669
X-557.116 Y-398.65
X-557.216 Y-398.646
X-557.418
X-557.518 Y-398.654
X-557.619 Y-398.678
X-557.82 Y-398.738
X-557.921 Y-398.776
X-558.035 Y-398.844
X-558.223 Y-398.967
X-558.31 Y-399.045
X-558.485 Y-399.247
X-558.523 Y-399.297
X-558.554 Y-399.347
X-558.601 Y-399.448
X-558.691 Y-399.649
X-558.718 Y-399.75
X-558.733 Y-399.851
X-558.761 Y-400.052
X-558.76 Y-400.153
X-558.747 Y-400.253
X-558.717 Y-400.455
X-558.689 Y-400.555
X-558.645 Y-400.656
X-558.551 Y-400.857
X-558.496 Y-400.94
X-558.318 Y-401.146
X-558.271 Y-401.194
X-558.223 Y-401.233
X-558.184 Y-401.26
X-558.022 Y-401.365
X-557.923 Y-401.423
X-557.82 Y-401.462
X-557.619 Y-401.522
X-557.518 Y-401.546
X-557.418 Y-401.554
X-557.216
X-557.116 Y-401.551
X-557.015 Y-401.531
X-556.777 Y-401.461
X-556.694 Y-401.43
X-556.612 Y-401.386
X-556.411 Y-401.257
X-556.36 Y-401.219
X-556.31 Y-401.175
X-556.206 Y-401.059
X-556.119 Y-400.958
X-556.08 Y-400.908
X-556.049 Y-400.857
X-556.008 Y-400.772
X-555.955 Y-400.656
X-555.911 Y-400.555
X-555.883 Y-400.455
X-555.853 Y-400.253
X-555.84 Y-400.153
X-555.839 Y-400.052
X-555.858 Y-399.912
G3 X-555.942 Y-399.694 I-0.591 J-0.102
G1 X-555.992 Y-399.614 Z3.007
X-556.041 Y-399.537 Z3.029
X-556.088 Y-399.463 Z3.065
X-556.13 Y-399.395 Z3.115
X-556.169 Y-399.335 Z3.176
X-556.201 Y-399.283 Z3.247
X-556.228 Y-399.242 Z3.328
X-556.247 Y-399.211 Z3.415
X-556.259 Y-399.193 Z3.506
X-556.262 Y-399.186 Z3.6
G0 Z30

(2D Adaptive5 5)
M9
X-631.266 Y-399.083
Z30
Z20
Z19.15
G1 Z18.55 F850
G3 X-633.334 Y-401.117 Z18.391 I-1.034 J-1.017 F283.3
X-631.266 Y-399.083 Z18.232 I1.034 J1.017
X-633.334 Y-401.117 Z18.073 I-1.034 J-1.017
X-631.266 Y-399.083 Z17.914 I1.034 J1.017
X-633.57 Y-399.4 Z17.819 I-1.034 J-1.017
X-632.319 Y-401.55 Z17.715 I1.27 J-0.7
X-631.012 Y-399.434 Z17.611 I0.019 J1.45
X-633.494 Y-399.277 Z17.506 I-1.288 J-0.666
X-632.464 Y-401.541 Z17.402 I1.194 J-0.823
X-630.952 Y-399.566 Z17.298 I0.164 J1.441
X-633.648 Y-400.634 Z17.139 I-1.348 J-0.534
X-630.952 Y-399.566 Z16.98 I1.348 J0.534
X-633.648 Y-400.634 Z16.82 I-1.348 J-0.534
X-630.873 Y-399.845 Z16.671 I1.348 J0.534
X-633.197 Y-398.961 Z16.567 I-1.427 J-0.255
X-631.403 Y-401.239 Z16.408 I0.897 J-1.139
X-630.854 Y-399.988 Z16.358 I-0.897 J1.139
X-633.079 Y-398.877 Z16.254 I-1.446 J-0.112
X-633.012 Y-401.363 Z16.15 I0.779 J-1.223
X-631.588 Y-398.837 Z15.991 I0.712 J1.263
X-632.953 Y-398.806 Z15.941 I-0.712 J-1.263
X-633.134 Y-401.286 Z15.837 I0.653 J-1.294
X-631.466 Y-398.914 Z15.678 I0.834 J1.186
X-632.821 Y-398.747 Z15.628 I-0.834 J-1.186
X-633.249 Y-401.197 Z15.523 I0.521 J-1.353
X-631.351 Y-399.003 Z15.364 I0.949 J1.097
X-632.683 Y-398.702 Z15.315 I-0.949 J-1.097
X-633.353 Y-401.097 Z15.21 I0.383 J-1.398
X-631.247 Y-399.103 Z15.051 I1.053 J0.997
X-633.448 Y-400.986 Z14.897 I-1.053 J-0.997
X-630.978 Y-400.695 Z14.793 I1.148 J0.886
X-632.398 Y-398.653 Z14.689 I-1.322 J0.595
X-632.202 Y-401.547 Z14.53 I0.098 J-1.447
X-631.044 Y-400.824 Z14.48 I-0.098 J1.447
X-632.253 Y-398.651 Z14.376 I-1.256 J0.724
X-632.347 Y-401.549 Z14.216 I-0.047 J-1.449
X-631.122 Y-400.946 Z14.167 I0.047 J1.449
X-633.478 Y-399.254 Z14.008 I-1.178 J0.846
X-633.658 Y-400.608 Z13.958 I1.178 J-0.846
X-631.213 Y-401.059 Z13.854 I1.358 J0.508
X-633.388 Y-399.141 Z13.695 I-1.087 J0.959
X-633.702 Y-400.47 Z13.645 I1.087 J-0.959
X-631.314 Y-401.163 Z13.541 I1.402 J0.37
X-631.827 Y-398.729 Z13.436 I-0.986 J1.063
X-632.773 Y-401.471 Z13.277 I-0.473 J-1.371
X-631.425 Y-401.256 Z13.228 I0.473 J1.371
X-631.692 Y-398.784 Z13.123 I-0.875 J1.156
X-632.908 Y-401.417 Z12.964 I-0.608 J-1.316
X-631.692 Y-398.784 Z12.805 I0.608 J1.316
X-633.749 Y-400.039 Z12.706 I-0.608 J-1.316
X-631.672 Y-401.407 Z12.601 I1.449 J-0.061
X-632.928 Y-398.793 Z12.442 I-0.628 J1.307
X-633.735 Y-399.895 Z12.393 I0.628 J-1.307
X-631.805 Y-401.463 Z12.288 I1.435 J-0.205
X-631.33 Y-399.022 Z12.184 I-0.495 J1.363
X-633.27 Y-401.178 Z12.025 I-0.97 J-1.078
X-631.944 Y-401.506 Z11.975 I0.97 J1.078
X-632.656 Y-398.694 Z11.816 I-0.356 J1.406
X-633.666 Y-399.614 Z11.766 I0.356 J-1.406
X-632.086 Y-401.534 Z11.662 I1.366 J-0.486
X-631.136 Y-399.236 Z11.558 I-0.214 J1.434
X-633.464 Y-400.964 Z11.399 I-1.164 J-0.864
X-631.136 Y-399.236 Z11.24 I1.164 J0.864
X-633.464 Y-400.964 Z11.08 I-1.164 J-0.864
X-631.136 Y-399.236 Z10.921 I1.164 J0.864
X-633.461 Y-399.232 Z10.827 I-1.164 J-0.864
X-632.519 Y-401.533 Z10.723 I1.161 J-0.868
X-632.081 Y-398.667 Z10.564 I0.219 J1.433
X-633.369 Y-399.12 Z10.514 I-0.219 J-1.433
X-631.231 Y-401.08 Z10.355 I1.069 J-0.98
X-630.891 Y-399.757 Z10.305 I-1.069 J0.98
X-633.266 Y-399.018 Z10.201 I-1.409 J-0.343
X-632.8 Y-401.461 Z10.097 I0.966 J-1.082
X-631.8 Y-398.739 Z9.938 I0.5 J1.361
X-632.8 Y-401.461 Z9.778 I-0.5 J-1.361
X-631.8 Y-398.739 Z9.619 I0.5 J1.361
X-633.032 Y-398.848 Z9.575 I-0.5 J-1.361
X-631.569 Y-401.352 Z9.416 I0.732 J-1.252
X-630.853 Y-400.189 Z9.366 I-0.732 J1.252
X-633.747 Y-400.011 Z9.207 I-1.447 J0.089
X-630.869 Y-400.333 Z9.053 I1.447 J-0.089
X-632.768 Y-398.728 Z8.949 I-1.431 J0.233
X-631.832 Y-401.472 Z8.79 I0.468 J-1.372
X-630.899 Y-400.475 Z8.74 I-0.468 J1.372
X-632.629 Y-398.688 Z8.636 I-1.401 J0.375
X-631.971 Y-401.512 Z8.476 I0.329 J-1.412
X-630.944 Y-400.613 Z8.427 I-0.329 J1.412
X-632.486 Y-398.662 Z8.322 I-1.356 J0.513
X-633.481 Y-400.942 Z8.218 I0.186 J-1.438
X-631.002 Y-400.746 Z8.114 I1.181 J0.842
X-632.342 Y-398.651 Z8.009 I-1.298 J0.646
X-632.258 Y-401.549 Z7.85 I0.042 J-1.449
X-631.073 Y-400.872 Z7.801 I-0.042 J1.449
X-632.197 Y-398.654 Z7.696 I-1.227 J0.772
X-632.403 Y-401.546 Z7.537 I-0.103 J-1.446
X-631.156 Y-400.991 Z7.488 I0.103 J1.446
X-632.053 Y-398.671 Z7.383 I-1.144 J0.891
X-633.677 Y-400.555 Z7.279 I-0.247 J-1.429
X-631.25 Y-401.1 Z7.174 I1.377 J0.455
X-633.35 Y-399.1 Z7.015 I-1.05 J1
X-633.715 Y-400.415 Z6.966 I1.05 J-1
X-631.355 Y-401.2 Z6.861 I1.415 J0.315
X-631.774 Y-398.749 Z6.757 I-0.945 J1.1
X-632.826 Y-401.451 Z6.598 I-0.526 J-1.351
X-631.47 Y-401.289 Z6.548 I0.526 J1.351
X-633.13 Y-398.911 Z6.389 I-0.83 J1.189
X-633.75 Y-400.128 Z6.34 I0.83 J-1.189
X-631.593 Y-401.366 Z6.235 I1.45 J0.028
X-633.007 Y-398.834 Z6.076 I-0.707 J1.266
X-633.745 Y-399.983 Z6.027 I0.707 J-1.266
X-631.723 Y-401.43 Z5.922 I1.445 J-0.117
X-632.877 Y-398.77 Z5.763 I-0.577 J1.33
X-631.723 Y-401.43 Z5.604 I0.577 J-1.33
X-632.877 Y-398.77 Z5.445 I-0.577 J1.33
X-633.693 Y-399.698 Z5.4 I0.577 J-1.33
X-631.998 Y-401.518 Z5.296 I1.393 J-0.402
X-632.602 Y-398.682 Z5.137 I-0.302 J1.418
X-633.646 Y-399.561 Z5.087 I0.302 J-1.418
X-632.141 Y-401.541 Z4.983 I1.346 J-0.539
X-632.459 Y-398.659 Z4.824 I-0.159 J1.441
X-633.586 Y-399.43 Z4.774 I0.159 J-1.441
X-632.286 Y-401.55 Z4.67 I1.286 J-0.67
X-632.314 Y-398.65 Z4.511 I-0.014 J1.45
X-633.512 Y-399.305 Z4.461 I0.014 J-1.45
X-631.088 Y-400.895 Z4.302 I1.212 J-0.795
X-630.964 Y-399.535 Z4.252 I-1.212 J0.795
X-633.427 Y-399.188 Z4.148 I-1.336 J-0.565
X-632.574 Y-401.524 Z4.044 I1.127 J-0.912
X-632.026 Y-398.676 Z3.885 I0.274 J1.424
X-633.33 Y-399.08 Z3.835 I-0.274 J-1.424
X-632.715 Y-401.489 Z3.731 I1.03 J-1.02
X-631.885 Y-398.711 Z3.571 I0.415 J1.389
X-633.223 Y-398.982 Z3.522 I-0.415 J-1.389
X-632.852 Y-401.441 Z3.417 I0.923 J-1.118
X-631.748 Y-398.759 Z3.258 I0.552 J1.341
X-633.107 Y-398.895 Z3.209 I-0.552 J-1.341
X-631.493 Y-401.305 Z3.05 I0.807 J-1.205
X-630.85 Y-400.1 Z3 I-0.807 J1.205
X-632.638 Y-398.69 I-1.45
X-633.661 Y-400.601 I0.338 J-1.41
X-631.643 Y-401.393 I1.361 J0.501
X-630.85 Y-400.1 I-0.657 J1.293
G1 X-630.849 Y-400.037 F850
X-630.852 Y-399.975
X-630.858 Y-399.912
X-630.867 Y-399.851
X-630.882 Y-399.75
X-630.909 Y-399.649
X-631.008 Y-399.428
X-631.052 Y-399.337
X-631.115 Y-399.247
X-631.29 Y-399.045
X-631.35 Y-398.988
X-631.411 Y-398.943
X-631.612 Y-398.814
X-631.713 Y-398.761
X-631.813 Y-398.728
X-632.015 Y-398.669
X-632.116 Y-398.65
X-632.216 Y-398.646
X-632.418
X-632.518 Y-398.654
X-632.619 Y-398.678
X-632.82 Y-398.738
X-632.921 Y-398.776
X-633.035 Y-398.844
X-633.223 Y-398.967
X-633.31 Y-399.045
X-633.485 Y-399.247
X-633.523 Y-399.297
X-633.554 Y-399.347
X-633.601 Y-399.448
X-633.691 Y-399.649
X-633.718 Y-399.75
X-633.733 Y-399.851
X-633.761 Y-400.052
X-633.76 Y-400.153
X-633.747 Y-400.253
X-633.717 Y-400.455
X-633.689 Y-400.555
X-633.645 Y-400.656
X-633.551 Y-400.857
X-633.496 Y-400.94
X-633.318 Y-401.146
X-633.271 Y-401.194
X-633.223 Y-401.233
X-633.184 Y-401.26
X-633.022 Y-401.365
X-632.923 Y-401.423
X-632.82 Y-401.462
X-632.619 Y-401.522
X-632.518 Y-401.546
X-632.418 Y-401.554
X-632.216
X-632.116 Y-401.551
X-632.015 Y-401.531
X-631.777 Y-401.461
X-631.694 Y-401.43
X-631.612 Y-401.386
X-631.411 Y-401.257
X-631.36 Y-401.219
X-631.31 Y-401.175
X-631.206 Y-401.059
X-631.119 Y-400.958
X-631.08 Y-400.908
X-631.049 Y-400.857
X-631.008 Y-400.772
X-630.955 Y-400.656
X-630.911 Y-400.555
X-630.883 Y-400.455
X-630.853 Y-400.253
X-630.84 Y-400.153
X-630.839 Y-400.052
X-630.858 Y-399.912
G3 X-630.942 Y-399.694 I-0.591 J-0.102
G1 X-630.992 Y-399.614 Z3.007
X-631.041 Y-399.537 Z3.029
X-631.088 Y-399.463 Z3.065
X-631.13 Y-399.395 Z3.115
X-631.169 Y-399.335 Z3.176
X-631.201 Y-399.283 Z3.247
X-631.228 Y-399.242 Z3.328
X-631.247 Y-399.211 Z3.415
X-631.259 Y-399.193 Z3.506
X-631.262 Y-399.186 Z3.6
G0 Z30

(2D Adaptive5 5)
M9
X-706.266 Y-399.083
Z30
Z20
Z19.15
G1 Z18.55 F850
G3 X-708.334 Y-401.117 Z18.391 I-1.034 J-1.017 F283.3
X-706.266 Y-399.083 Z18.232 I1.034 J1.017
X-708.334 Y-401.117 Z18.073 I-1.034 J-1.017
X-706.266 Y-399.083 Z17.914 I1.034 J1.017
X-708.57 Y-399.4 Z17.819 I-1.034 J-1.017
X-707.319 Y-401.55 Z17.715 I1.27 J-0.7
X-706.012 Y-399.434 Z17.611 I0.019 J1.45
X-708.494 Y-399.277 Z17.506 I-1.288 J-0.666
X-707.464 Y-401.541 Z17.402 I1.194 J-0.823
X-705.952 Y-399.566 Z17.298 I0.164 J1.441
X-708.648 Y-400.634 Z17.139 I-1.348 J-0.534
X-705.952 Y-399.566 Z16.98 I1.348 J0.534
X-708.648 Y-400.634 Z16.82 I-1.348 J-0.534
X-705.873 Y-399.845 Z16.671 I1.348 J0.534
X-708.197 Y-398.961 Z16.567 I-1.427 J-0.255
X-706.403 Y-401.239 Z16.408 I0.897 J-1.139
X-705.854 Y-399.988 Z16.358 I-0.897 J1.139
X-708.079 Y-398.877 Z16.254 I-1.446 J-0.112
X-708.012 Y-401.363 Z16.15 I0.779 J-1.223
X-706.588 Y-398.837 Z15.991 I0.712 J1.263
X-707.953 Y-398.806 Z15.941 I-0.712 J-1.263
X-708.134 Y-401.286 Z15.837 I0.653 J-1.294
X-706.466 Y-398.914 Z15.678 I0.834 J1.186
X-707.821 Y-398.747 Z15.628 I-0.834 J-1.186
X-708.249 Y-401.197 Z15.523 I0.521 J-1.353
X-706.351 Y-399.003 Z15.364 I0.949 J1.097
X-707.683 Y-398.702 Z15.315 I-0.949 J-1.097
X-708.353 Y-401.097 Z15.21 I0.383 J-1.398
X-706.247 Y-399.103 Z15.051 I1.053 J0.997
X-708.448 Y-400.986 Z14.897 I-1.053 J-0.997
X-705.978 Y-400.695 Z14.793 I1.148 J0.886
X-707.398 Y-398.653 Z14.689 I-1.322 J0.595
X-707.202 Y-401.547 Z14.53 I0.098 J-1.447
X-706.044 Y-400.824 Z14.48 I-0.098 J1.447
X-707.253 Y-398.651 Z14.376 I-1.256 J0.724
X-707.347 Y-401.549 Z14.216 I-0.047 J-1.449
X-706.122 Y-400.946 Z14.167 I0.047 J1.449
X-708.478 Y-399.254 Z14.008 I-1.178 J0.846
X-708.658 Y-400.608 Z13.958 I1.178 J-0.846
X-706.213 Y-401.059 Z13.854 I1.358 J0.508
X-708.388 Y-399.141 Z13.695 I-1.087 J0.959
X-708.702 Y-400.47 Z13.645 I1.087 J-0.959
X-706.314 Y-401.163 Z13.541 I1.402 J0.37
X-706.827 Y-398.729 Z13.436 I-0.986 J1.063
X-707.773 Y-401.471 Z13.277 I-0.473 J-1.371
X-706.425 Y-401.256 Z13.228 I0.473 J1.371
X-706.692 Y-398.784 Z13.123 I-0.875 J1.156
X-707.908 Y-401.417 Z12.964 I-0.608 J-1.316
X-706.692 Y-398.784 Z12.805 I0.608 J1.316
X-708.749 Y-400.039 Z12.706 I-0.608 J-1.316
X-706.672 Y-401.407 Z12.601 I1.449 J-0.061
X-707.928 Y-398.793 Z12.442 I-0.628 J1.307
X-708.735 Y-399.895 Z12.393 I0.628 J-1.307
X-706.805 Y-401.463 Z12.288 I1.435 J-0.205
X-706.33 Y-399.022 Z12.184 I-0.495 J1.363
X-708.27 Y-401.178 Z12.025 I-0.97 J-1.078
X-706.944 Y-401.506 Z11.975 I0.97 J1.078
X-707.656 Y-398.694 Z11.816 I-0.356 J1.406
X-708.666 Y-399.614 Z11.766 I0.356 J-1.406
X-707.086 Y-401.534 Z11.662 I1.366 J-0.486
X-706.136 Y-399.236 Z11.558 I-0.214 J1.434
X-708.464 Y-400.964 Z11.399 I-1.164 J-0.864
X-706.136 Y-399.236 Z11.24 I1.164 J0.864
X-708.464 Y-400.964 Z11.08 I-1.164 J-0.864
X-706.136 Y-399.236 Z10.921 I1.164 J0.864
X-708.461 Y-399.232 Z10.827 I-1.164 J-0.864
X-707.519 Y-401.533 Z10.723 I1.161 J-0.868
X-707.081 Y-398.667 Z10.564 I0.219 J1.433
X-708.369 Y-399.12 Z10.514 I-0.219 J-1.433
X-706.231 Y-401.08 Z10.355 I1.069 J-0.98
X-705.891 Y-399.757 Z10.305 I-1.069 J0.98
X-708.266 Y-399.018 Z10.201 I-1.409 J-0.343
X-707.8 Y-401.461 Z10.097 I0.966 J-1.082
X-706.8 Y-398.739 Z9.938 I0.5 J1.361
X-707.8 Y-401.461 Z9.778 I-0.5 J-1.361
X-706.8 Y-398.739 Z9.619 I0.5 J1.361
X-708.032 Y-398.848 Z9.575 I-0.5 J-1.361
X-706.569 Y-401.352 Z9.416 I0.732 J-1.252
X-705.853 Y-400.189 Z9.366 I-0.732 J1.252
X-708.747 Y-400.011 Z9.207 I-1.447 J0.089
X-705.869 Y-400.333 Z9.053 I1.447 J-0.089
X-707.768 Y-398.728 Z8.949 I-1.431 J0.233
X-706.832 Y-401.472 Z8.79 I0.468 J-1.372
X-705.899 Y-400.475 Z8.74 I-0.468 J1.372
X-707.629 Y-398.688 Z8.636 I-1.401 J0.375
X-706.971 Y-401.512 Z8.476 I0.329 J-1.412
X-705.944 Y-400.613 Z8.427 I-0.329 J1.412
X-707.486 Y-398.662 Z8.322 I-1.356 J0.513
X-708.481 Y-400.942 Z8.218 I0.186 J-1.438
X-706.002 Y-400.746 Z8.114 I1.181 J0.842
X-707.342 Y-398.651 Z8.009 I-1.298 J0.646
X-707.258 Y-401.549 Z7.85 I0.042 J-1.449
X-706.073 Y-400.872 Z7.801 I-0.042 J1.449
X-707.197 Y-398.654 Z7.696 I-1.227 J0.772
X-707.403 Y-401.546 Z7.537 I-0.103 J-1.446
X-706.156 Y-400.991 Z7.488 I0.103 J1.446
X-707.053 Y-398.671 Z7.383 I-1.144 J0.891
X-708.677 Y-400.555 Z7.279 I-0.247 J-1.429
X-706.25 Y-401.1 Z7.174 I1.377 J0.455
X-708.35 Y-399.1 Z7.015 I-1.05 J1
X-708.715 Y-400.415 Z6.966 I1.05 J-1
X-706.355 Y-401.2 Z6.861 I1.415 J0.315
X-706.774 Y-398.749 Z6.757 I-0.945 J1.1
X-707.826 Y-401.451 Z6.598 I-0.526 J-1.351
X-706.47 Y-401.289 Z6.548 I0.526 J1.351
X-708.13 Y-398.911 Z6.389 I-0.83 J1.189
X-708.75 Y-400.128 Z6.34 I0.83 J-1.189
X-706.593 Y-401.366 Z6.235 I1.45 J0.028
X-708.007 Y-398.834 Z6.076 I-0.707 J1.266
X-708.745 Y-399.983 Z6.027 I0.707 J-1.266
X-706.723 Y-401.43 Z5.922 I1.445 J-0.117
X-707.877 Y-398.77 Z5.763 I-0.577 J1.33
X-706.723 Y-401.43 Z5.604 I0.577 J-1.33
X-707.877 Y-398.77 Z5.445 I-0.577 J1.33
X-708.693 Y-399.698 Z5.4 I0.577 J-1.33
X-706.998 Y-401.518 Z5.296 I1.393 J-0.402
X-707.602 Y-398.682 Z5.137 I-0.302 J1.418
X-708.646 Y-399.561 Z5.087 I0.302 J-1.418
X-707.141 Y-401.541 Z4.983 I1.346 J-0.539
X-707.459 Y-398.659 Z4.824 I-0.159 J1.441
X-708.586 Y-399.43 Z4.774 I0.159 J-1.441
X-707.286 Y-401.55 Z4.67 I1.286 J-0.67
X-707.314 Y-398.65 Z4.511 I-0.014 J1.45
X-708.512 Y-399.305 Z4.461 I0.014 J-1.45
X-706.088 Y-400.895 Z4.302 I1.212 J-0.795
X-705.964 Y-399.535 Z4.252 I-1.212 J0.795
X-708.427 Y-399.188 Z4.148 I-1.336 J-0.565
X-707.574 Y-401.524 Z4.044 I1.127 J-0.912
X-707.026 Y-398.676 Z3.885 I0.274 J1.424
X-708.33 Y-399.08 Z3.835 I-0.274 J-1.424
X-707.715 Y-401.489 Z3.731 I1.03 J-1.02
X-706.885 Y-398.711 Z3.571 I0.415 J1.389
X-708.223 Y-398.982 Z3.522 I-0.415 J-1.389
X-707.852 Y-401.441 Z3.417 I0.923 J-1.118
X-706.748 Y-398.759 Z3.258 I0.552 J1.341
X-708.107 Y-398.895 Z3.209 I-0.552 J-1.341
X-706.493 Y-401.305 Z3.05 I0.807 J-1.205
X-705.85 Y-400.1 Z3 I-0.807 J1.205
X-707.638 Y-398.69 I-1.45
X-708.661 Y-400.601 I0.338 J-1.41
X-706.643 Y-401.393 I1.361 J0.501
X-705.85 Y-400.1 I-0.657 J1.293
G1 X-705.849 Y-400.037 F850
X-705.852 Y-399.975
X-705.858 Y-399.912
X-705.867 Y-399.851
X-705.882 Y-399.75
X-705.909 Y-399.649
X-706.008 Y-399.428
X-706.052 Y-399.337
X-706.115 Y-399.247
X-706.29 Y-399.045
X-706.35 Y-398.988
X-706.411 Y-398.943
X-706.612 Y-398.814
X-706.713 Y-398.761
X-706.813 Y-398.728
X-707.015 Y-398.669
X-707.116 Y-398.65
X-707.216 Y-398.646
X-707.418
X-707.518 Y-398.654
X-707.619 Y-398.678
X-707.82 Y-398.738
X-707.921 Y-398.776
X-708.035 Y-398.844
X-708.223 Y-398.967
X-708.31 Y-399.045
X-708.485 Y-399.247
X-708.523 Y-399.297
X-708.554 Y-399.347
X-708.601 Y-399.448
X-708.691 Y-399.649
X-708.718 Y-399.75
X-708.733 Y-399.851
X-708.761 Y-400.052
X-708.76 Y-400.153
X-708.747 Y-400.253
X-708.717 Y-400.455
X-708.689 Y-400.555
X-708.645 Y-400.656
X-708.551 Y-400.857
X-708.496 Y-400.94
X-708.318 Y-401.146
X-708.271 Y-401.194
X-708.223 Y-401.233
X-708.184 Y-401.26
X-708.022 Y-401.365
X-707.923 Y-401.423
X-707.82 Y-401.462
X-707.619 Y-401.522
X-707.518 Y-401.546
X-707.418 Y-401.554
X-707.216
X-707.116 Y-401.551
X-707.015 Y-401.531
X-706.777 Y-401.461
X-706.694 Y-401.43
X-706.612 Y-401.386
X-706.411 Y-401.257
X-706.36 Y-401.219
X-706.31 Y-401.175
X-706.206 Y-401.059
X-706.119 Y-400.958
X-706.08 Y-400.908
X-706.049 Y-400.857
X-706.008 Y-400.772
X-705.955 Y-400.656
X-705.911 Y-400.555
X-705.883 Y-400.455
X-705.853 Y-400.253
X-705.84 Y-400.153
X-705.839 Y-400.052
X-705.858 Y-399.912
G3 X-705.942 Y-399.694 I-0.591 J-0.102
G1 X-705.992 Y-399.614 Z3.007
X-706.041 Y-399.537 Z3.029
X-706.088 Y-399.463 Z3.065
X-706.13 Y-399.395 Z3.115
X-706.169 Y-399.335 Z3.176
X-706.201 Y-399.283 Z3.247
X-706.228 Y-399.242 Z3.328
X-706.247 Y-399.211 Z3.415
X-706.259 Y-399.193 Z3.506
X-706.262 Y-399.186 Z3.6
G0 Z30

(2D Adaptive5 5)
M9
X-781.266 Y-399.083
Z30
Z20
Z19.15
G1 Z18.55 F850
G3 X-783.334 Y-401.117 Z18.391 I-1.034 J-1.017 F283.3
X-781.266 Y-399.083 Z18.232 I1.034 J1.017
X-783.334 Y-401.117 Z18.073 I-1.034 J-1.017
X-781.266 Y-399.083 Z17.914 I1.034 J1.017
X-783.57 Y-399.4 Z17.819 I-1.034 J-1.017
X-782.319 Y-401.55 Z17.715 I1.27 J-0.7
X-781.012 Y-399.434 Z17.611 I0.019 J1.45
X-783.494 Y-399.277 Z17.506 I-1.288 J-0.666
X-782.464 Y-401.541 Z17.402 I1.194 J-0.823
X-780.952 Y-399.566 Z17.298 I0.164 J1.441
X-783.648 Y-400.634 Z17.139 I-1.348 J-0.534
X-780.952 Y-399.566 Z16.98 I1.348 J0.534
X-783.648 Y-400.634 Z16.82 I-1.348 J-0.534
X-780.873 Y-399.845 Z16.671 I1.348 J0.534
X-783.197 Y-398.961 Z16.567 I-1.427 J-0.255
X-781.403 Y-401.239 Z16.408 I0.897 J-1.139
X-780.854 Y-399.988 Z16.358 I-0.897 J1.139
X-783.079 Y-398.877 Z16.254 I-1.446 J-0.112
X-783.012 Y-401.363 Z16.15 I0.779 J-1.223
X-781.588 Y-398.837 Z15.991 I0.712 J1.263
X-782.953 Y-398.806 Z15.941 I-0.712 J-1.263
X-783.134 Y-401.286 Z15.837 I0.653 J-1.294
X-781.466 Y-398.914 Z15.678 I0.834 J1.186
X-782.821 Y-398.747 Z15.628 I-0.834 J-1.186
X-783.249 Y-401.197 Z15.523 I0.521 J-1.353
X-781.351 Y-399.003 Z15.364 I0.949 J1.097
X-782.683 Y-398.702 Z15.315 I-0.949 J-1.097
X-783.353 Y-401.097 Z15.21 I0.383 J-1.398
X-781.247 Y-399.103 Z15.051 I1.053 J0.997
X-783.448 Y-400.986 Z14.897 I-1.053 J-0.997
X-780.978 Y-400.695 Z14.793 I1.148 J0.886
X-782.398 Y-398.653 Z14.689 I-1.322 J0.595
X-782.202 Y-401.547 Z14.53 I0.098 J-1.447
X-781.044 Y-400.824 Z14.48 I-0.098 J1.447
X-782.253 Y-398.651 Z14.376 I-1.256 J0.724
X-782.347 Y-401.549 Z14.216 I-0.047 J-1.449
X-781.122 Y-400.946 Z14.167 I0.047 J1.449
X-783.478 Y-399.254 Z14.008 I-1.178 J0.846
X-783.658 Y-400.608 Z13.958 I1.178 J-0.846
X-781.213 Y-401.059 Z13.854 I1.358 J0.508
X-783.388 Y-399.141 Z13.695 I-1.087 J0.959
X-783.702 Y-400.47 Z13.645 I1.087 J-0.959
X-781.314 Y-401.163 Z13.541 I1.402 J0.37
X-781.827 Y-398.729 Z13.436 I-0.986 J1.063
X-782.773 Y-401.471 Z13.277 I-0.473 J-1.371
X-781.425 Y-401.256 Z13.228 I0.473 J1.371
X-781.692 Y-398.784 Z13.123 I-0.875 J1.156
X-782.908 Y-401.417 Z12.964 I-0.608 J-1.316
X-781.692 Y-398.784 Z12.805 I0.608 J1.316
X-783.749 Y-400.039 Z12.706 I-0.608 J-1.316
X-781.672 Y-401.407 Z12.601 I1.449 J-0.061
X-782.928 Y-398.793 Z12.442 I-0.628 J1.307
X-783.735 Y-399.895 Z12.393 I0.628 J-1.307
X-781.805 Y-401.463 Z12.288 I1.435 J-0.205
X-781.33 Y-399.022 Z12.184 I-0.495 J1.363
X-783.27 Y-401.178 Z12.025 I-0.97 J-1.078
X-781.944 Y-401.506 Z11.975 I0.97 J1.078
X-782.656 Y-398.694 Z11.816 I-0.356 J1.406
X-783.666 Y-399.614 Z11.766 I0.356 J-1.406
X-782.086 Y-401.534 Z11.662 I1.366 J-0.486
X-781.136 Y-399.236 Z11.558 I-0.214 J1.434
X-783.464 Y-400.964 Z11.399 I-1.164 J-0.864
X-781.136 Y-399.236 Z11.24 I1.164 J0.864
X-783.464 Y-400.964 Z11.08 I-1.164 J-0.864
X-781.136 Y-399.236 Z10.921 I1.164 J0.864
X-783.461 Y-399.232 Z10.827 I-1.164 J-0.864
X-782.519 Y-401.533 Z10.723 I1.161 J-0.868
X-782.081 Y-398.667 Z10.564 I0.219 J1.433
X-783.369 Y-399.12 Z10.514 I-0.219 J-1.433
X-781.231 Y-401.08 Z10.355 I1.069 J-0.98
X-780.891 Y-399.757 Z10.305 I-1.069 J0.98
X-783.266 Y-399.018 Z10.201 I-1.409 J-0.343
X-782.8 Y-401.461 Z10.097 I0.966 J-1.082
X-781.8 Y-398.739 Z9.938 I0.5 J1.361
X-782.8 Y-401.461 Z9.778 I-0.5 J-1.361
X-781.8 Y-398.739 Z9.619 I0.5 J1.361
X-783.032 Y-398.848 Z9.575 I-0.5 J-1.361
X-781.569 Y-401.352 Z9.416 I0.732 J-1.252
X-780.853 Y-400.189 Z9.366 I-0.732 J1.252
X-783.747 Y-400.011 Z9.207 I-1.447 J0.089
X-780.869 Y-400.333 Z9.053 I1.447 J-0.089
X-782.768 Y-398.728 Z8.949 I-1.431 J0.233
X-781.832 Y-401.472 Z8.79 I0.468 J-1.372
X-780.899 Y-400.475 Z8.74 I-0.468 J1.372
X-782.629 Y-398.688 Z8.636 I-1.401 J0.375
X-781.971 Y-401.512 Z8.476 I0.329 J-1.412
X-780.944 Y-400.613 Z8.427 I-0.329 J1.412
X-782.486 Y-398.662 Z8.322 I-1.356 J0.513
X-783.481 Y-400.942 Z8.218 I0.186 J-1.438
X-781.002 Y-400.746 Z8.114 I1.181 J0.842
X-782.342 Y-398.651 Z8.009 I-1.298 J0.646
X-782.258 Y-401.549 Z7.85 I0.042 J-1.449
X-781.073 Y-400.872 Z7.801 I-0.042 J1.449
X-782.197 Y-398.654 Z7.696 I-1.227 J0.772
X-782.403 Y-401.546 Z7.537 I-0.103 J-1.446
X-781.156 Y-400.991 Z7.488 I0.103 J1.446
X-782.053 Y-398.671 Z7.383 I-1.144 J0.891
X-783.677 Y-400.555 Z7.279 I-0.247 J-1.429
X-781.25 Y-401.1 Z7.174 I1.377 J0.455
X-783.35 Y-399.1 Z7.015 I-1.05 J1
X-783.715 Y-400.415 Z6.966 I1.05 J-1
X-781.355 Y-401.2 Z6.861 I1.415 J0.315
X-781.774 Y-398.749 Z6.757 I-0.945 J1.1
X-782.826 Y-401.451 Z6.598 I-0.526 J-1.351
X-781.47 Y-401.289 Z6.548 I0.526 J1.351
X-783.13 Y-398.911 Z6.389 I-0.83 J1.189
X-783.75 Y-400.128 Z6.34 I0.83 J-1.189
X-781.593 Y-401.366 Z6.235 I1.45 J0.028
X-783.007 Y-398.834 Z6.076 I-0.707 J1.266
X-783.745 Y-399.983 Z6.027 I0.707 J-1.266
X-781.723 Y-401.43 Z5.922 I1.445 J-0.117
X-782.877 Y-398.77 Z5.763 I-0.577 J1.33
X-781.723 Y-401.43 Z5.604 I0.577 J-1.33
X-782.877 Y-398.77 Z5.445 I-0.577 J1.33
X-783.693 Y-399.698 Z5.4 I0.577 J-1.33
X-781.998 Y-401.518 Z5.296 I1.393 J-0.402
X-782.602 Y-398.682 Z5.137 I-0.302 J1.418
X-783.646 Y-399.561 Z5.087 I0.302 J-1.418
X-782.141 Y-401.541 Z4.983 I1.346 J-0.539
X-782.459 Y-398.659 Z4.824 I-0.159 J1.441
X-783.586 Y-399.43 Z4.774 I0.159 J-1.441
X-782.286 Y-401.55 Z4.67 I1.286 J-0.67
X-782.314 Y-398.65 Z4.511 I-0.014 J1.45
X-783.512 Y-399.305 Z4.461 I0.014 J-1.45
X-781.088 Y-400.895 Z4.302 I1.212 J-0.795
X-780.964 Y-399.535 Z4.252 I-1.212 J0.795
X-783.427 Y-399.188 Z4.148 I-1.336 J-0.565
X-782.574 Y-401.524 Z4.044 I1.127 J-0.912
X-782.026 Y-398.676 Z3.885 I0.274 J1.424
X-783.33 Y-399.08 Z3.835 I-0.274 J-1.424
X-782.715 Y-401.489 Z3.731 I1.03 J-1.02
X-781.885 Y-398.711 Z3.571 I0.415 J1.389
X-783.223 Y-398.982 Z3.522 I-0.415 J-1.389
X-782.852 Y-401.441 Z3.417 I0.923 J-1.118
X-781.748 Y-398.759 Z3.258 I0.552 J1.341
X-783.107 Y-398.895 Z3.209 I-0.552 J-1.341
X-781.493 Y-401.305 Z3.05 I0.807 J-1.205
X-780.85 Y-400.1 Z3 I-0.807 J1.205
X-782.638 Y-398.69 I-1.45
X-783.661 Y-400.601 I0.338 J-1.41
X-781.643 Y-401.393 I1.361 J0.501
X-780.85 Y-400.1 I-0.657 J1.293
G1 X-780.849 Y-400.037 F850
X-780.852 Y-399.975
X-780.858 Y-399.912
X-780.867 Y-399.851
X-780.882 Y-399.75
X-780.909 Y-399.649
X-781.008 Y-399.428
X-781.052 Y-399.337
X-781.115 Y-399.247
X-781.29 Y-399.045
X-781.35 Y-398.988
X-781.411 Y-398.943
X-781.612 Y-398.814
X-781.713 Y-398.761
X-781.813 Y-398.728
X-782.015 Y-398.669
X-782.116 Y-398.65
X-782.216 Y-398.646
X-782.418
X-782.518 Y-398.654
X-782.619 Y-398.678
X-782.82 Y-398.738
X-782.921 Y-398.776
X-783.035 Y-398.844
X-783.223 Y-398.967
X-783.31 Y-399.045
X-783.485 Y-399.247
X-783.523 Y-399.297
X-783.554 Y-399.347
X-783.601 Y-399.448
X-783.691 Y-399.649
X-783.718 Y-399.75
X-783.733 Y-399.851
X-783.761 Y-400.052
X-783.76 Y-400.153
X-783.747 Y-400.253
X-783.717 Y-400.455
X-783.689 Y-400.555
X-783.645 Y-400.656
X-783.551 Y-400.857
X-783.496 Y-400.94
X-783.318 Y-401.146
X-783.271 Y-401.194
X-783.223 Y-401.233
X-783.184 Y-401.26
X-783.022 Y-401.365
X-782.923 Y-401.423
X-782.82 Y-401.462
X-782.619 Y-401.522
X-782.518 Y-401.546
X-782.418 Y-401.554
X-782.216
X-782.116 Y-401.551
X-782.015 Y-401.531
X-781.777 Y-401.461
X-781.694 Y-401.43
X-781.612 Y-401.386
X-781.411 Y-401.257
X-781.36 Y-401.219
X-781.31 Y-401.175
X-781.206 Y-401.059
X-781.119 Y-400.958
X-781.08 Y-400.908
X-781.049 Y-400.857
X-781.008 Y-400.772
X-780.955 Y-400.656
X-780.911 Y-400.555
X-780.883 Y-400.455
X-780.853 Y-400.253
X-780.84 Y-400.153
X-780.839 Y-400.052
X-780.858 Y-399.912
G3 X-780.942 Y-399.694 I-0.591 J-0.102
G1 X-780.992 Y-399.614 Z3.007
X-781.041 Y-399.537 Z3.029
X-781.088 Y-399.463 Z3.065
X-781.13 Y-399.395 Z3.115
X-781.169 Y-399.335 Z3.176
X-781.201 Y-399.283 Z3.247
X-781.228 Y-399.242 Z3.328
X-781.247 Y-399.211 Z3.415
X-781.259 Y-399.193 Z3.506
X-781.262 Y-399.186 Z3.6
G0 Z30

(2D Adaptive5 5)
M9
X-856.266 Y-399.083
Z30
Z20
Z19.15
G1 Z18.55 F850
G3 X-858.334 Y-401.117 Z18.391 I-1.034 J-1.017 F283.3
X-856.266 Y-399.083 Z18.232 I1.034 J1.017
X-858.334 Y-401.117 Z18.073 I-1.034 J-1.017
X-856.266 Y-399.083 Z17.914 I1.034 J1.017
X-858.57 Y-399.4 Z17.819 I-1.034 J-1.017
X-857.319 Y-401.55 Z17.715 I1.27 J-0.7
X-856.012 Y-399.434 Z17.611 I0.019 J1.45
X-858.494 Y-399.277 Z17.506 I-1.288 J-0.666
X-857.464 Y-401.541 Z17.402 I1.194 J-0.823
X-855.952 Y-399.566 Z17.298 I0.164 J1.441
X-858.648 Y-400.634 Z17.139 I-1.348 J-0.534
X-855.952 Y-399.566 Z16.98 I1.348 J0.534
X-858.648 Y-400.634 Z16.82 I-1.348 J-0.534
X-855.873 Y-399.845 Z16.671 I1.348 J0.534
X-858.197 Y-398.961 Z16.567 I-1.427 J-0.255
X-856.403 Y-401.239 Z16.408 I0.897 J-1.139
X-855.854 Y-399.988 Z16.358 I-0.897 J1.139
X-858.079 Y-398.877 Z16.254 I-1.446 J-0.112
X-858.012 Y-401.363 Z16.15 I0.779 J-1.223
X-856.588 Y-398.837 Z15.991 I0.712 J1.263
X-857.953 Y-398.806 Z15.941 I-0.712 J-1.263
X-858.134 Y-401.286 Z15.837 I0.653 J-1.294
X-856.466 Y-398.914 Z15.678 I0.834 J1.186
X-857.821 Y-398.747 Z15.628 I-0.834 J-1.186
X-858.249 Y-401.197 Z15.523 I0.521 J-1.353
X-856.351 Y-399.003 Z15.364 I0.949 J1.097
X-857.683 Y-398.702 Z15.315 I-0.949 J-1.097
X-858.353 Y-401.097 Z15.21 I0.383 J-1.398
X-856.247 Y-399.103 Z15.051 I1.053 J0.997
X-858.448 Y-400.986 Z14.897 I-1.053 J-0.997
X-855.978 Y-400.695 Z14.793 I1.148 J0.886
X-857.398 Y-398.653 Z14.689 I-1.322 J0.595
X-857.202 Y-401.547 Z14.53 I0.098 J-1.447
X-856.044 Y-400.824 Z14.48 I-0.098 J1.447
X-857.253 Y-398.651 Z14.376 I-1.256 J0.724
X-857.347 Y-401.549 Z14.216 I-0.047 J-1.449
X-856.122 Y-400.946 Z14.167 I0.047 J1.449
X-858.478 Y-399.254 Z14.008 I-1.178 J0.846
X-858.658 Y-400.608 Z13.958 I1.178 J-0.846
X-856.213 Y-401.059 Z13.854 I1.358 J0.508
X-858.388 Y-399.141 Z13.695 I-1.087 J0.959
X-858.702 Y-400.47 Z13.645 I1.087 J-0.959
X-856.314 Y-401.163 Z13.541 I1.402 J0.37
X-856.827 Y-398.729 Z13.436 I-0.986 J1.063
X-857.773 Y-401.471 Z13.277 I-0.473 J-1.371
X-856.425 Y-401.256 Z13.228 I0.473 J1.371
X-856.692 Y-398.784 Z13.123 I-0.875 J1.156
X-857.908 Y-401.417 Z12.964 I-0.608 J-1.316
X-856.692 Y-398.784 Z12.805 I0.608 J1.316
X-858.749 Y-400.039 Z12.706 I-0.608 J-1.316
X-856.672 Y-401.407 Z12.601 I1.449 J-0.061
X-857.928 Y-398.793 Z12.442 I-0.628 J1.307
X-858.735 Y-399.895 Z12.393 I0.628 J-1.307
X-856.805 Y-401.463 Z12.288 I1.435 J-0.205
X-856.33 Y-399.022 Z12.184 I-0.495 J1.363
X-858.27 Y-401.178 Z12.025 I-0.97 J-1.078
X-856.944 Y-401.506 Z11.975 I0.97 J1.078
X-857.656 Y-398.694 Z11.816 I-0.356 J1.406
X-858.666 Y-399.614 Z11.766 I0.356 J-1.406
X-857.086 Y-401.534 Z11.662 I1.366 J-0.486
X-856.136 Y-399.236 Z11.558 I-0.214 J1.434
X-858.464 Y-400.964 Z11.399 I-1.164 J-0.864
X-856.136 Y-399.236 Z11.24 I1.164 J0.864
X-858.464 Y-400.964 Z11.08 I-1.164 J-0.864
X-856.136 Y-399.236 Z10.921 I1.164 J0.864
X-858.461 Y-399.232 Z10.827 I-1.164 J-0.864
X-857.519 Y-401.533 Z10.723 I1.161 J-0.868
X-857.081 Y-398.667 Z10.564 I0.219 J1.433
X-858.369 Y-399.12 Z10.514 I-0.219 J-1.433
X-856.231 Y-401.08 Z10.355 I1.069 J-0.98
X-855.891 Y-399.757 Z10.305 I-1.069 J0.98
X-858.266 Y-399.018 Z10.201 I-1.409 J-0.343
X-857.8 Y-401.461 Z10.097 I0.966 J-1.082
X-856.8 Y-398.739 Z9.938 I0.5 J1.361
X-857.8 Y-401.461 Z9.778 I-0.5 J-1.361
X-856.8 Y-398.739 Z9.619 I0.5 J1.361
X-858.032 Y-398.848 Z9.575 I-0.5 J-1.361
X-856.569 Y-401.352 Z9.416 I0.732 J-1.252
X-855.853 Y-400.189 Z9.366 I-0.732 J1.252
X-858.747 Y-400.011 Z9.207 I-1.447 J0.089
X-855.869 Y-400.333 Z9.053 I1.447 J-0.089
X-857.768 Y-398.728 Z8.949 I-1.431 J0.233
X-856.832 Y-401.472 Z8.79 I0.468 J-1.372
X-855.899 Y-400.475 Z8.74 I-0.468 J1.372
X-857.629 Y-398.688 Z8.636 I-1.401 J0.375
X-856.971 Y-401.512 Z8.476 I0.329 J-1.412
X-855.944 Y-400.613 Z8.427 I-0.329 J1.412
X-857.486 Y-398.662 Z8.322 I-1.356 J0.513
X-858.481 Y-400.942 Z8.218 I0.186 J-1.438
X-856.002 Y-400.746 Z8.114 I1.181 J0.842
X-857.342 Y-398.651 Z8.009 I-1.298 J0.646
X-857.258 Y-401.549 Z7.85 I0.042 J-1.449
X-856.073 Y-400.872 Z7.801 I-0.042 J1.449
X-857.197 Y-398.654 Z7.696 I-1.227 J0.772
X-857.403 Y-401.546 Z7.537 I-0.103 J-1.446
X-856.156 Y-400.991 Z7.488 I0.103 J1.446
X-857.053 Y-398.671 Z7.383 I-1.144 J0.891
X-858.677 Y-400.555 Z7.279 I-0.247 J-1.429
X-856.25 Y-401.1 Z7.174 I1.377 J0.455
X-858.35 Y-399.1 Z7.015 I-1.05 J1
X-858.715 Y-400.415 Z6.966 I1.05 J-1
X-856.355 Y-401.2 Z6.861 I1.415 J0.315
X-856.774 Y-398.749 Z6.757 I-0.945 J1.1
X-857.826 Y-401.451 Z6.598 I-0.526 J-1.351
X-856.47 Y-401.289 Z6.548 I0.526 J1.351
X-858.13 Y-398.911 Z6.389 I-0.83 J1.189
X-858.75 Y-400.128 Z6.34 I0.83 J-1.189
X-856.593 Y-401.366 Z6.235 I1.45 J0.028
X-858.007 Y-398.834 Z6.076 I-0.707 J1.266
X-858.745 Y-399.983 Z6.027 I0.707 J-1.266
X-856.723 Y-401.43 Z5.922 I1.445 J-0.117
X-857.877 Y-398.77 Z5.763 I-0.577 J1.33
X-856.723 Y-401.43 Z5.604 I0.577 J-1.33
X-857.877 Y-398.77 Z5.445 I-0.577 J1.33
X-858.693 Y-399.698 Z5.4 I0.577 J-1.33
X-856.998 Y-401.518 Z5.296 I1.393 J-0.402
X-857.602 Y-398.682 Z5.137 I-0.302 J1.418
X-858.646 Y-399.561 Z5.087 I0.302 J-1.418
X-857.141 Y-401.541 Z4.983 I1.346 J-0.539
X-857.459 Y-398.659 Z4.824 I-0.159 J1.441
X-858.586 Y-399.43 Z4.774 I0.159 J-1.441
X-857.286 Y-401.55 Z4.67 I1.286 J-0.67
X-857.314 Y-398.65 Z4.511 I-0.014 J1.45
X-858.512 Y-399.305 Z4.461 I0.014 J-1.45
X-856.088 Y-400.895 Z4.302 I1.212 J-0.795
X-855.964 Y-399.535 Z4.252 I-1.212 J0.795
X-858.427 Y-399.188 Z4.148 I-1.336 J-0.565
X-857.574 Y-401.524 Z4.044 I1.127 J-0.912
X-857.026 Y-398.676 Z3.885 I0.274 J1.424
X-858.33 Y-399.08 Z3.835 I-0.274 J-1.424
X-857.715 Y-401.489 Z3.731 I1.03 J-1.02
X-856.885 Y-398.711 Z3.571 I0.415 J1.389
X-858.223 Y-398.982 Z3.522 I-0.415 J-1.389
X-857.852 Y-401.441 Z3.417 I0.923 J-1.118
X-856.748 Y-398.759 Z3.258 I0.552 J1.341
X-858.107 Y-398.895 Z3.209 I-0.552 J-1.341
X-856.493 Y-401.305 Z3.05 I0.807 J-1.205
X-855.85 Y-400.1 Z3 I-0.807 J1.205
X-857.638 Y-398.69 I-1.45
X-858.661 Y-400.601 I0.338 J-1.41
X-856.643 Y-401.393 I1.361 J0.501
X-855.85 Y-400.1 I-0.657 J1.293
G1 X-855.849 Y-400.037 F850
X-855.852 Y-399.975
X-855.858 Y-399.912
X-855.867 Y-399.851
X-855.882 Y-399.75
X-855.909 Y-399.649
X-856.008 Y-399.428
X-856.052 Y-399.337
X-856.115 Y-399.247
X-856.29 Y-399.045
X-856.35 Y-398.988
X-856.411 Y-398.943
X-856.612 Y-398.814
X-856.713 Y-398.761
X-856.813 Y-398.728
X-857.015 Y-398.669
X-857.116 Y-398.65
X-857.216 Y-398.646
X-857.418
X-857.518 Y-398.654
X-857.619 Y-398.678
X-857.82 Y-398.738
X-857.921 Y-398.776
X-858.035 Y-398.844
X-858.223 Y-398.967
X-858.31 Y-399.045
X-858.485 Y-399.247
X-858.523 Y-399.297
X-858.554 Y-399.347
X-858.601 Y-399.448
X-858.691 Y-399.649
X-858.718 Y-399.75
X-858.733 Y-399.851
X-858.761 Y-400.052
X-858.76 Y-400.153
X-858.747 Y-400.253
X-858.717 Y-400.455
X-858.689 Y-400.555
X-858.645 Y-400.656
X-858.551 Y-400.857
X-858.496 Y-400.94
X-858.318 Y-401.146
X-858.271 Y-401.194
X-858.223 Y-401.233
X-858.184 Y-401.26
X-858.022 Y-401.365
X-857.923 Y-401.423
X-857.82 Y-401.462
X-857.619 Y-401.522
X-857.518 Y-401.546
X-857.418 Y-401.554
X-857.216
X-857.116 Y-401.551
X-857.015 Y-401.531
X-856.777 Y-401.461
X-856.694 Y-401.43
X-856.612 Y-401.386
X-856.411 Y-401.257
X-856.36 Y-401.219
X-856.31 Y-401.175
X-856.206 Y-401.059
X-856.119 Y-400.958
X-856.08 Y-400.908
X-856.049 Y-400.857
X-856.008 Y-400.772
X-855.955 Y-400.656
X-855.911 Y-400.555
X-855.883 Y-400.455
X-855.853 Y-400.253
X-855.84 Y-400.153
X-855.839 Y-400.052
X-855.858 Y-399.912
G3 X-855.942 Y-399.694 I-0.591 J-0.102
G1 X-855.992 Y-399.614 Z3.007
X-856.041 Y-399.537 Z3.029
X-856.088 Y-399.463 Z3.065
X-856.13 Y-399.395 Z3.115
X-856.169 Y-399.335 Z3.176
X-856.201 Y-399.283 Z3.247
X-856.228 Y-399.242 Z3.328
X-856.247 Y-399.211 Z3.415
X-856.259 Y-399.193 Z3.506
X-856.262 Y-399.186 Z3.6
G0 Z30

(2D Adaptive5 5)
M9
X-931.266 Y-399.083
Z30
Z20
Z19.15
G1 Z18.55 F850
G3 X-933.334 Y-401.117 Z18.391 I-1.034 J-1.017 F283.3
X-931.266 Y-399.083 Z18.232 I1.034 J1.017
X-933.334 Y-401.117 Z18.073 I-1.034 J-1.017
X-931.266 Y-399.083 Z17.914 I1.034 J1.017
X-933.57 Y-399.4 Z17.819 I-1.034 J-1.017
X-932.319 Y-401.55 Z17.715 I1.27 J-0.7
X-931.012 Y-399.434 Z17.611 I0.019 J1.45
X-933.494 Y-399.277 Z17.506 I-1.288 J-0.666
X-932.464 Y-401.541 Z17.402 I1.194 J-0.823
X-930.952 Y-399.566 Z17.298 I0.164 J1.441
X-933.648 Y-400.634 Z17.139 I-1.348 J-0.534
X-930.952 Y-399.566 Z16.98 I1.348 J0.534
X-933.648 Y-400.634 Z16.82 I-1.348 J-0.534
X-930.873 Y-399.845 Z16.671 I1.348 J0.534
X-933.197 Y-398.961 Z16.567 I-1.427 J-0.255
X-931.403 Y-401.239 Z16.408 I0.897 J-1.139
X-930.854 Y-399.988 Z16.358 I-0.897 J1.139
X-933.079 Y-398.877 Z16.254 I-1.446 J-0.112
X-933.012 Y-401.363 Z16.15 I0.779 J-1.223
X-931.588 Y-398.837 Z15.991 I0.712 J1.263
X-932.953 Y-398.806 Z15.941 I-0.712 J-1.263
X-933.134 Y-401.286 Z15.837 I0.653 J-1.294
X-931.466 Y-398.914 Z15.678 I0.834 J1.186
X-932.821 Y-398.747 Z15.628 I-0.834 J-1.186
X-933.249 Y-401.197 Z15.523 I0.521 J-1.353
X-931.351 Y-399.003 Z15.364 I0.949 J1.097
X-932.683 Y-398.702 Z15.315 I-0.949 J-1.097
X-933.353 Y-401.097 Z15.21 I0.383 J-1.398
X-931.247 Y-399.103 Z15.051 I1.053 J0.997
X-933.448 Y-400.986 Z14.897 I-1.053 J-0.997
X-930.978 Y-400.695 Z14.793 I1.148 J0.886
X-932.398 Y-398.653 Z14.689 I-1.322 J0.595
X-932.202 Y-401.547 Z14.53 I0.098 J-1.447
X-931.044 Y-400.824 Z14.48 I-0.098 J1.447
X-932.253 Y-398.651 Z14.376 I-1.256 J0.724
X-932.347 Y-401.549 Z14.216 I-0.047 J-1.449
X-931.122 Y-400.946 Z14.167 I0.047 J1.449
X-933.478 Y-399.254 Z14.008 I-1.178 J0.846
X-933.658 Y-400.608 Z13.958 I1.178 J-0.846
X-931.213 Y-401.059 Z13.854 I1.358 J0.508
X-933.388 Y-399.141 Z13.695 I-1.087 J0.959
X-933.702 Y-400.47 Z13.645 I1.087 J-0.959
X-931.314 Y-401.163 Z13.541 I1.402 J0.37
X-931.827 Y-398.729 Z13.436 I-0.986 J1.063
X-932.773 Y-401.471 Z13.277 I-0.473 J-1.371
X-931.425 Y-401.256 Z13.228 I0.473 J1.371
X-931.692 Y-398.784 Z13.123 I-0.875 J1.156
X-932.908 Y-401.417 Z12.964 I-0.608 J-1.316
X-931.692 Y-398.784 Z12.805 I0.608 J1.316
X-933.749 Y-400.039 Z12.706 I-0.608 J-1.316
X-931.672 Y-401.407 Z12.601 I1.449 J-0.061
X-932.928 Y-398.793 Z12.442 I-0.628 J1.307
X-933.735 Y-399.895 Z12.393 I0.628 J-1.307
X-931.805 Y-401.463 Z12.288 I1.435 J-0.205
X-931.33 Y-399.022 Z12.184 I-0.495 J1.363
X-933.27 Y-401.178 Z12.025 I-0.97 J-1.078
X-931.944 Y-401.506 Z11.975 I0.97 J1.078
X-932.656 Y-398.694 Z11.816 I-0.356 J1.406
X-933.666 Y-399.614 Z11.766 I0.356 J-1.406
X-932.086 Y-401.534 Z11.662 I1.366 J-0.486
X-931.136 Y-399.236 Z11.558 I-0.214 J1.434
X-933.464 Y-400.964 Z11.399 I-1.164 J-0.864
X-931.136 Y-399.236 Z11.24 I1.164 J0.864
X-933.464 Y-400.964 Z11.08 I-1.164 J-0.864
X-931.136 Y-399.236 Z10.921 I1.164 J0.864
X-933.461 Y-399.232 Z10.827 I-1.164 J-0.864
X-932.519 Y-401.533 Z10.723 I1.161 J-0.868
X-932.081 Y-398.667 Z10.564 I0.219 J1.433
X-933.369 Y-399.12 Z10.514 I-0.219 J-1.433
X-931.231 Y-401.08 Z10.355 I1.069 J-0.98
X-930.891 Y-399.757 Z10.305 I-1.069 J0.98
X-933.266 Y-399.018 Z10.201 I-1.409 J-0.343
X-932.8 Y-401.461 Z10.097 I0.966 J-1.082
X-931.8 Y-398.739 Z9.938 I0.5 J1.361
X-932.8 Y-401.461 Z9.778 I-0.5 J-1.361
X-931.8 Y-398.739 Z9.619 I0.5 J1.361
X-933.032 Y-398.848 Z9.575 I-0.5 J-1.361
X-931.569 Y-401.352 Z9.416 I0.732 J-1.252
X-930.853 Y-400.189 Z9.366 I-0.732 J1.252
X-933.747 Y-400.011 Z9.207 I-1.447 J0.089
X-930.869 Y-400.333 Z9.053 I1.447 J-0.089
X-932.768 Y-398.728 Z8.949 I-1.431 J0.233
X-931.832 Y-401.472 Z8.79 I0.468 J-1.372
X-930.899 Y-400.475 Z8.74 I-0.468 J1.372
X-932.629 Y-398.688 Z8.636 I-1.401 J0.375
X-931.971 Y-401.512 Z8.476 I0.329 J-1.412
X-930.944 Y-400.613 Z8.427 I-0.329 J1.412
X-932.486 Y-398.662 Z8.322 I-1.356 J0.513
X-933.481 Y-400.942 Z8.218 I0.186 J-1.438
X-931.002 Y-400.746 Z8.114 I1.181 J0.842
X-932.342 Y-398.651 Z8.009 I-1.298 J0.646
X-932.258 Y-401.549 Z7.85 I0.042 J-1.449
X-931.073 Y-400.872 Z7.801 I-0.042 J1.449
X-932.197 Y-398.654 Z7.696 I-1.227 J0.772
X-932.403 Y-401.546 Z7.537 I-0.103 J-1.446
X-931.156 Y-400.991 Z7.488 I0.103 J1.446
X-932.053 Y-398.671 Z7.383 I-1.144 J0.891
X-933.677 Y-400.555 Z7.279 I-0.247 J-1.429
X-931.25 Y-401.1 Z7.174 I1.377 J0.455
X-933.35 Y-399.1 Z7.015 I-1.05 J1
X-933.715 Y-400.415 Z6.966 I1.05 J-1
X-931.355 Y-401.2 Z6.861 I1.415 J0.315
X-931.774 Y-398.749 Z6.757 I-0.945 J1.1
X-932.826 Y-401.451 Z6.598 I-0.526 J-1.351
X-931.47 Y-401.289 Z6.548 I0.526 J1.351
X-933.13 Y-398.911 Z6.389 I-0.83 J1.189
X-933.75 Y-400.128 Z6.34 I0.83 J-1.189
X-931.593 Y-401.366 Z6.235 I1.45 J0.028
X-933.007 Y-398.834 Z6.076 I-0.707 J1.266
X-933.745 Y-399.983 Z6.027 I0.707 J-1.266
X-931.723 Y-401.43 Z5.922 I1.445 J-0.117
X-932.877 Y-398.77 Z5.763 I-0.577 J1.33
X-931.723 Y-401.43 Z5.604 I0.577 J-1.33
X-932.877 Y-398.77 Z5.445 I-0.577 J1.33
X-933.693 Y-399.698 Z5.4 I0.577 J-1.33
X-931.998 Y-401.518 Z5.296 I1.393 J-0.402
X-932.602 Y-398.682 Z5.137 I-0.302 J1.418
X-933.646 Y-399.561 Z5.087 I0.302 J-1.418
X-932.141 Y-401.541 Z4.983 I1.346 J-0.539
X-932.459 Y-398.659 Z4.824 I-0.159 J1.441
X-933.586 Y-399.43 Z4.774 I0.159 J-1.441
X-932.286 Y-401.55 Z4.67 I1.286 J-0.67
X-932.314 Y-398.65 Z4.511 I-0.014 J1.45
X-933.512 Y-399.305 Z4.461 I0.014 J-1.45
X-931.088 Y-400.895 Z4.302 I1.212 J-0.795
X-930.964 Y-399.535 Z4.252 I-1.212 J0.795
X-933.427 Y-399.188 Z4.148 I-1.336 J-0.565
X-932.574 Y-401.524 Z4.044 I1.127 J-0.912
X-932.026 Y-398.676 Z3.885 I0.274 J1.424
X-933.33 Y-399.08 Z3.835 I-0.274 J-1.424
X-932.715 Y-401.489 Z3.731 I1.03 J-1.02
X-931.885 Y-398.711 Z3.571 I0.415 J1.389
X-933.223 Y-398.982 Z3.522 I-0.415 J-1.389
X-932.852 Y-401.441 Z3.417 I0.923 J-1.118
X-931.748 Y-398.759 Z3.258 I0.552 J1.341
X-933.107 Y-398.895 Z3.209 I-0.552 J-1.341
X-931.493 Y-401.305 Z3.05 I0.807 J-1.205
X-930.85 Y-400.1 Z3 I-0.807 J1.205
X-932.638 Y-398.69 I-1.45
X-933.661 Y-400.601 I0.338 J-1.41
X-931.643 Y-401.393 I1.361 J0.501
X-930.85 Y-400.1 I-0.657 J1.293
G1 X-930.849 Y-400.037 F850
X-930.852 Y-399.975
X-930.858 Y-399.912
X-930.867 Y-399.851
X-930.882 Y-399.75
X-930.909 Y-399.649
X-931.008 Y-399.428
X-931.052 Y-399.337
X-931.115 Y-399.247
X-931.29 Y-399.045
X-931.35 Y-398.988
X-931.411 Y-398.943
X-931.612 Y-398.814
X-931.713 Y-398.761
X-931.813 Y-398.728
X-932.015 Y-398.669
X-932.116 Y-398.65
X-932.216 Y-398.646
X-932.418
X-932.518 Y-398.654
X-932.619 Y-398.678
X-932.82 Y-398.738
X-932.921 Y-398.776
X-933.035 Y-398.844
X-933.223 Y-398.967
X-933.31 Y-399.045
X-933.485 Y-399.247
X-933.523 Y-399.297
X-933.554 Y-399.347
X-933.601 Y-399.448
X-933.691 Y-399.649
X-933.718 Y-399.75
X-933.733 Y-399.851
X-933.761 Y-400.052
X-933.76 Y-400.153
X-933.747 Y-400.253
X-933.717 Y-400.455
X-933.689 Y-400.555
X-933.645 Y-400.656
X-933.551 Y-400.857
X-933.496 Y-400.94
X-933.318 Y-401.146
X-933.271 Y-401.194
X-933.223 Y-401.233
X-933.184 Y-401.26
X-933.022 Y-401.365
X-932.923 Y-401.423
X-932.82 Y-401.462
X-932.619 Y-401.522
X-932.518 Y-401.546
X-932.418 Y-401.554
X-932.216
X-932.116 Y-401.551
X-932.015 Y-401.531
X-931.777 Y-401.461
X-931.694 Y-401.43
X-931.612 Y-401.386
X-931.411 Y-401.257
X-931.36 Y-401.219
X-931.31 Y-401.175
X-931.206 Y-401.059
X-931.119 Y-400.958
X-931.08 Y-400.908
X-931.049 Y-400.857
X-931.008 Y-400.772
X-930.955 Y-400.656
X-930.911 Y-400.555
X-930.883 Y-400.455
X-930.853 Y-400.253
X-930.84 Y-400.153
X-930.839 Y-400.052
X-930.858 Y-399.912
G3 X-930.942 Y-399.694 I-0.591 J-0.102
G1 X-930.992 Y-399.614 Z3.007
X-931.041 Y-399.537 Z3.029
X-931.088 Y-399.463 Z3.065
X-931.13 Y-399.395 Z3.115
X-931.169 Y-399.335 Z3.176
X-931.201 Y-399.283 Z3.247
X-931.228 Y-399.242 Z3.328
X-931.247 Y-399.211 Z3.415
X-931.259 Y-399.193 Z3.506
X-931.262 Y-399.186 Z3.6
G0 Z30

(2D Adaptive5 5)
M9
X-1006.266 Y-399.083
Z30
Z20
Z19.15
G1 Z18.55 F850
G3 X-1008.334 Y-401.117 Z18.391 I-1.034 J-1.017 F283.3
X-1006.266 Y-399.083 Z18.232 I1.034 J1.017
X-1008.334 Y-401.117 Z18.073 I-1.034 J-1.017
X-1006.266 Y-399.083 Z17.914 I1.034 J1.017
X-1008.57 Y-399.4 Z17.819 I-1.034 J-1.017
X-1007.319 Y-401.55 Z17.715 I1.27 J-0.7
X-1006.012 Y-399.434 Z17.611 I0.019 J1.45
X-1008.494 Y-399.277 Z17.506 I-1.288 J-0.666
X-1007.464 Y-401.541 Z17.402 I1.194 J-0.823
X-1005.952 Y-399.566 Z17.298 I0.164 J1.441
X-1008.648 Y-400.634 Z17.139 I-1.348 J-0.534
X-1005.952 Y-399.566 Z16.98 I1.348 J0.534
X-1008.648 Y-400.634 Z16.82 I-1.348 J-0.534
X-1005.873 Y-399.845 Z16.671 I1.348 J0.534
X-1008.197 Y-398.961 Z16.567 I-1.427 J-0.255
X-1006.403 Y-401.239 Z16.408 I0.897 J-1.139
X-1005.854 Y-399.988 Z16.358 I-0.897 J1.139
X-1008.079 Y-398.877 Z16.254 I-1.446 J-0.112
X-1008.012 Y-401.363 Z16.15 I0.779 J-1.223
X-1006.588 Y-398.837 Z15.991 I0.712 J1.263
X-1007.953 Y-398.806 Z15.941 I-0.712 J-1.263
X-1008.134 Y-401.286 Z15.837 I0.653 J-1.294
X-1006.466 Y-398.914 Z15.678 I0.834 J1.186
X-1007.821 Y-398.747 Z15.628 I-0.834 J-1.186
X-1008.249 Y-401.197 Z15.523 I0.521 J-1.353
X-1006.351 Y-399.003 Z15.364 I0.949 J1.097
X-1007.683 Y-398.702 Z15.315 I-0.949 J-1.097
X-1008.353 Y-401.097 Z15.21 I0.383 J-1.398
X-1006.247 Y-399.103 Z15.051 I1.053 J0.997
X-1008.448 Y-400.986 Z14.897 I-1.053 J-0.997
X-1005.978 Y-400.695 Z14.793 I1.148 J0.886
X-1007.398 Y-398.653 Z14.689 I-1.322 J0.595
X-1007.202 Y-401.547 Z14.53 I0.098 J-1.447
X-1006.044 Y-400.824 Z14.48 I-0.098 J1.447
X-1007.253 Y-398.651 Z14.376 I-1.256 J0.724
X-1007.347 Y-401.549 Z14.216 I-0.047 J-1.449
X-1006.122 Y-400.946 Z14.167 I0.047 J1.449
X-1008.478 Y-399.254 Z14.008 I-1.178 J0.846
X-1008.658 Y-400.608 Z13.958 I1.178 J-0.846
X-1006.213 Y-401.059 Z13.854 I1.358 J0.508
X-1008.388 Y-399.141 Z13.695 I-1.087 J0.959
X-1008.702 Y-400.47 Z13.645 I1.087 J-0.959
X-1006.314 Y-401.163 Z13.541 I1.402 J0.37
X-1006.827 Y-398.729 Z13.436 I-0.986 J1.063
X-1007.773 Y-401.471 Z13.277 I-0.473 J-1.371
X-1006.425 Y-401.256 Z13.228 I0.473 J1.371
X-1006.692 Y-398.784 Z13.123 I-0.875 J1.156
X-1007.908 Y-401.417 Z12.964 I-0.608 J-1.316
X-1006.692 Y-398.784 Z12.805 I0.608 J1.316
X-1008.749 Y-400.039 Z12.706 I-0.608 J-1.316
X-1006.672 Y-401.407 Z12.601 I1.449 J-0.061
X-1007.928 Y-398.793 Z12.442 I-0.628 J1.307
X-1008.735 Y-399.895 Z12.393 I0.628 J-1.307
X-1006.805 Y-401.463 Z12.288 I1.435 J-0.205
X-1006.33 Y-399.022 Z12.184 I-0.495 J1.363
X-1008.27 Y-401.178 Z12.025 I-0.97 J-1.078
X-1006.944 Y-401.506 Z11.975 I0.97 J1.078
X-1007.656 Y-398.694 Z11.816 I-0.356 J1.406
X-1008.666 Y-399.614 Z11.766 I0.356 J-1.406
X-1007.086 Y-401.534 Z11.662 I1.366 J-0.486
X-1006.136 Y-399.236 Z11.558 I-0.214 J1.434
X-1008.464 Y-400.964 Z11.399 I-1.164 J-0.864
X-1006.136 Y-399.236 Z11.24 I1.164 J0.864
X-1008.464 Y-400.964 Z11.08 I-1.164 J-0.864
X-1006.136 Y-399.236 Z10.921 I1.164 J0.864
X-1008.461 Y-399.232 Z10.827 I-1.164 J-0.864
X-1007.519 Y-401.533 Z10.723 I1.161 J-0.868
X-1007.081 Y-398.667 Z10.564 I0.219 J1.433
X-1008.369 Y-399.12 Z10.514 I-0.219 J-1.433
X-1006.231 Y-401.08 Z10.355 I1.069 J-0.98
X-1005.891 Y-399.757 Z10.305 I-1.069 J0.98
X-1008.266 Y-399.018 Z10.201 I-1.409 J-0.343
X-1007.8 Y-401.461 Z10.097 I0.966 J-1.082
X-1006.8 Y-398.739 Z9.938 I0.5 J1.361
X-1007.8 Y-401.461 Z9.778 I-0.5 J-1.361
X-1006.8 Y-398.739 Z9.619 I0.5 J1.361
X-1008.032 Y-398.848 Z9.575 I-0.5 J-1.361
X-1006.569 Y-401.352 Z9.416 I0.732 J-1.252
X-1005.853 Y-400.189 Z9.366 I-0.732 J1.252
X-1008.747 Y-400.011 Z9.207 I-1.447 J0.089
X-1005.869 Y-400.333 Z9.053 I1.447 J-0.089
X-1007.768 Y-398.728 Z8.949 I-1.431 J0.233
X-1006.832 Y-401.472 Z8.79 I0.468 J-1.372
X-1005.899 Y-400.475 Z8.74 I-0.468 J1.372
X-1007.629 Y-398.688 Z8.636 I-1.401 J0.375
X-1006.971 Y-401.512 Z8.476 I0.329 J-1.412
X-1005.944 Y-400.613 Z8.427 I-0.329 J1.412
X-1007.486 Y-398.662 Z8.322 I-1.356 J0.513
X-1008.481 Y-400.942 Z8.218 I0.186 J-1.438
X-1006.002 Y-400.746 Z8.114 I1.181 J0.842
X-1007.342 Y-398.651 Z8.009 I-1.298 J0.646
X-1007.258 Y-401.549 Z7.85 I0.042 J-1.449
X-1006.073 Y-400.872 Z7.801 I-0.042 J1.449
X-1007.197 Y-398.654 Z7.696 I-1.227 J0.772
X-1007.403 Y-401.546 Z7.537 I-0.103 J-1.446
X-1006.156 Y-400.991 Z7.488 I0.103 J1.446
X-1007.053 Y-398.671 Z7.383 I-1.144 J0.891
X-1008.677 Y-400.555 Z7.279 I-0.247 J-1.429
X-1006.25 Y-401.1 Z7.174 I1.377 J0.455
X-1008.35 Y-399.1 Z7.015 I-1.05 J1
X-1008.715 Y-400.415 Z6.966 I1.05 J-1
X-1006.355 Y-401.2 Z6.861 I1.415 J0.315
X-1006.774 Y-398.749 Z6.757 I-0.945 J1.1
X-1007.826 Y-401.451 Z6.598 I-0.526 J-1.351
X-1006.47 Y-401.289 Z6.548 I0.526 J1.351
X-1008.13 Y-398.911 Z6.389 I-0.83 J1.189
X-1008.75 Y-400.128 Z6.34 I0.83 J-1.189
X-1006.593 Y-401.366 Z6.235 I1.45 J0.028
X-1008.007 Y-398.834 Z6.076 I-0.707 J1.266
X-1008.745 Y-399.983 Z6.027 I0.707 J-1.266
X-1006.723 Y-401.43 Z5.922 I1.445 J-0.117
X-1007.877 Y-398.77 Z5.763 I-0.577 J1.33
X-1006.723 Y-401.43 Z5.604 I0.577 J-1.33
X-1007.877 Y-398.77 Z5.445 I-0.577 J1.33
X-1008.693 Y-399.698 Z5.4 I0.577 J-1.33
X-1006.998 Y-401.518 Z5.296 I1.393 J-0.402
X-1007.602 Y-398.682 Z5.137 I-0.302 J1.418
X-1008.646 Y-399.561 Z5.087 I0.302 J-1.418
X-1007.141 Y-401.541 Z4.983 I1.346 J-0.539
X-1007.459 Y-398.659 Z4.824 I-0.159 J1.441
X-1008.586 Y-399.43 Z4.774 I0.159 J-1.441
X-1007.286 Y-401.55 Z4.67 I1.286 J-0.67
X-1007.314 Y-398.65 Z4.511 I-0.014 J1.45
X-1008.512 Y-399.305 Z4.461 I0.014 J-1.45
X-1006.088 Y-400.895 Z4.302 I1.212 J-0.795
X-1005.964 Y-399.535 Z4.252 I-1.212 J0.795
X-1008.427 Y-399.188 Z4.148 I-1.336 J-0.565
X-1007.574 Y-401.524 Z4.044 I1.127 J-0.912
X-1007.026 Y-398.676 Z3.885 I0.274 J1.424
X-1008.33 Y-399.08 Z3.835 I-0.274 J-1.424
X-1007.715 Y-401.489 Z3.731 I1.03 J-1.02
X-1006.885 Y-398.711 Z3.571 I0.415 J1.389
X-1008.223 Y-398.982 Z3.522 I-0.415 J-1.389
X-1007.852 Y-401.441 Z3.417 I0.923 J-1.118
X-1006.748 Y-398.759 Z3.258 I0.552 J1.341
X-1008.107 Y-398.895 Z3.209 I-0.552 J-1.341
X-1006.493 Y-401.305 Z3.05 I0.807 J-1.205
X-1005.85 Y-400.1 Z3 I-0.807 J1.205
X-1007.638 Y-398.69 I-1.45
X-1008.661 Y-400.601 I0.338 J-1.41
X-1006.643 Y-401.393 I1.361 J0.501
X-1005.85 Y-400.1 I-0.657 J1.293
G1 X-1005.849 Y-400.037 F850
X-1005.852 Y-399.975
X-1005.858 Y-399.912
X-1005.867 Y-399.851
X-1005.882 Y-399.75
X-1005.909 Y-399.649
X-1006.008 Y-399.428
X-1006.052 Y-399.337
X-1006.115 Y-399.247
X-1006.29 Y-399.045
X-1006.35 Y-398.988
X-1006.411 Y-398.943
X-1006.612 Y-398.814
X-1006.713 Y-398.761
X-1006.813 Y-398.728
X-1007.015 Y-398.669
X-1007.116 Y-398.65
X-1007.216 Y-398.646
X-1007.418
X-1007.518 Y-398.654
X-1007.619 Y-398.678
X-1007.82 Y-398.738
X-1007.921 Y-398.776
X-1008.035 Y-398.844
X-1008.223 Y-398.967
X-1008.31 Y-399.045
X-1008.485 Y-399.247
X-1008.523 Y-399.297
X-1008.554 Y-399.347
X-1008.601 Y-399.448
X-1008.691 Y-399.649
X-1008.718 Y-399.75
X-1008.733 Y-399.851
X-1008.761 Y-400.052
X-1008.76 Y-400.153
X-1008.747 Y-400.253
X-1008.717 Y-400.455
X-1008.689 Y-400.555
X-1008.645 Y-400.656
X-1008.551 Y-400.857
X-1008.496 Y-400.94
X-1008.318 Y-401.146
X-1008.271 Y-401.194
X-1008.223 Y-401.233
X-1008.184 Y-401.26
X-1008.022 Y-401.365
X-1007.923 Y-401.423
X-1007.82 Y-401.462
X-1007.619 Y-401.522
X-1007.518 Y-401.546
X-1007.418 Y-401.554
X-1007.216
X-1007.116 Y-401.551
X-1007.015 Y-401.531
X-1006.777 Y-401.461
X-1006.694 Y-401.43
X-1006.612 Y-401.386
X-1006.411 Y-401.257
X-1006.36 Y-401.219
X-1006.31 Y-401.175
X-1006.206 Y-401.059
X-1006.119 Y-400.958
X-1006.08 Y-400.908
X-1006.049 Y-400.857
X-1006.008 Y-400.772
X-1005.955 Y-400.656
X-1005.911 Y-400.555
X-1005.883 Y-400.455
X-1005.853 Y-400.253
X-1005.84 Y-400.153
X-1005.839 Y-400.052
X-1005.858 Y-399.912
G3 X-1005.942 Y-399.694 I-0.591 J-0.102
G1 X-1005.992 Y-399.614 Z3.007
X-1006.041 Y-399.537 Z3.029
X-1006.088 Y-399.463 Z3.065
X-1006.13 Y-399.395 Z3.115
X-1006.169 Y-399.335 Z3.176
X-1006.201 Y-399.283 Z3.247
X-1006.228 Y-399.242 Z3.328
X-1006.247 Y-399.211 Z3.415
X-1006.259 Y-399.193 Z3.506
X-1006.262 Y-399.186 Z3.6
G0 Z30

(2D Adaptive5 5)
M9
X-1081.266 Y-399.083
Z30
Z20
Z19.15
G1 Z18.55 F850
G3 X-1083.334 Y-401.117 Z18.391 I-1.034 J-1.017 F283.3
X-1081.266 Y-399.083 Z18.232 I1.034 J1.017
X-1083.334 Y-401.117 Z18.073 I-1.034 J-1.017
X-1081.266 Y-399.083 Z17.914 I1.034 J1.017
X-1083.57 Y-399.4 Z17.819 I-1.034 J-1.017
X-1082.319 Y-401.55 Z17.715 I1.27 J-0.7
X-1081.012 Y-399.434 Z17.611 I0.019 J1.45
X-1083.494 Y-399.277 Z17.506 I-1.288 J-0.666
X-1082.464 Y-401.541 Z17.402 I1.194 J-0.823
X-1080.952 Y-399.566 Z17.298 I0.164 J1.441
X-1083.648 Y-400.634 Z17.139 I-1.348 J-0.534
X-1080.952 Y-399.566 Z16.98 I1.348 J0.534
X-1083.648 Y-400.634 Z16.82 I-1.348 J-0.534
X-1080.873 Y-399.845 Z16.671 I1.348 J0.534
X-1083.197 Y-398.961 Z16.567 I-1.427 J-0.255
X-1081.403 Y-401.239 Z16.408 I0.897 J-1.139
X-1080.854 Y-399.988 Z16.358 I-0.897 J1.139
X-1083.079 Y-398.877 Z16.254 I-1.446 J-0.112
X-1083.012 Y-401.363 Z16.15 I0.779 J-1.223
X-1081.588 Y-398.837 Z15.991 I0.712 J1.263
X-1082.953 Y-398.806 Z15.941 I-0.712 J-1.263
X-1083.134 Y-401.286 Z15.837 I0.653 J-1.294
X-1081.466 Y-398.914 Z15.678 I0.834 J1.186
X-1082.821 Y-398.747 Z15.628 I-0.834 J-1.186
X-1083.249 Y-401.197 Z15.523 I0.521 J-1.353
X-1081.351 Y-399.003 Z15.364 I0.949 J1.097
X-1082.683 Y-398.702 Z15.315 I-0.949 J-1.097
X-1083.353 Y-401.097 Z15.21 I0.383 J-1.398
X-1081.247 Y-399.103 Z15.051 I1.053 J0.997
X-1083.448 Y-400.986 Z14.897 I-1.053 J-0.997
X-1080.978 Y-400.695 Z14.793 I1.148 J0.886
X-1082.398 Y-398.653 Z14.689 I-1.322 J0.595
X-1082.202 Y-401.547 Z14.53 I0.098 J-1.447
X-1081.044 Y-400.824 Z14.48 I-0.098 J1.447
X-1082.253 Y-398.651 Z14.376 I-1.256 J0.724
X-1082.347 Y-401.549 Z14.216 I-0.047 J-1.449
X-1081.122 Y-400.946 Z14.167 I0.047 J1.449
X-1083.478 Y-399.254 Z14.008 I-1.178 J0.846
X-1083.658 Y-400.608 Z13.958 I1.178 J-0.846
X-1081.213 Y-401.059 Z13.854 I1.358 J0.508
X-1083.388 Y-399.141 Z13.695 I-1.087 J0.959
X-1083.702 Y-400.47 Z13.645 I1.087 J-0.959
X-1081.314 Y-401.163 Z13.541 I1.402 J0.37
X-1081.827 Y-398.729 Z13.436 I-0.986 J1.063
X-1082.773 Y-401.471 Z13.277 I-0.473 J-1.371
X-1081.425 Y-401.256 Z13.228 I0.473 J1.371
X-1081.692 Y-398.784 Z13.123 I-0.875 J1.156
X-1082.908 Y-401.417 Z12.964 I-0.608 J-1.316
X-1081.692 Y-398.784 Z12.805 I0.608 J1.316
X-1083.749 Y-400.039 Z12.706 I-0.608 J-1.316
X-1081.672 Y-401.407 Z12.601 I1.449 J-0.061
X-1082.928 Y-398.793 Z12.442 I-0.628 J1.307
X-1083.735 Y-399.895 Z12.393 I0.628 J-1.307
X-1081.805 Y-401.463 Z12.288 I1.435 J-0.205
X-1081.33 Y-399.022 Z12.184 I-0.495 J1.363
X-1083.27 Y-401.178 Z12.025 I-0.97 J-1.078
X-1081.944 Y-401.506 Z11.975 I0.97 J1.078
X-1082.656 Y-398.694 Z11.816 I-0.356 J1.406
X-1083.666 Y-399.614 Z11.766 I0.356 J-1.406
X-1082.086 Y-401.534 Z11.662 I1.366 J-0.486
X-1081.136 Y-399.236 Z11.558 I-0.214 J1.434
X-1083.464 Y-400.964 Z11.399 I-1.164 J-0.864
X-1081.136 Y-399.236 Z11.24 I1.164 J0.864
X-1083.464 Y-400.964 Z11.08 I-1.164 J-0.864
X-1081.136 Y-399.236 Z10.921 I1.164 J0.864
X-1083.461 Y-399.232 Z10.827 I-1.164 J-0.864
X-1082.519 Y-401.533 Z10.723 I1.161 J-0.868
X-1082.081 Y-398.667 Z10.564 I0.219 J1.433
X-1083.369 Y-399.12 Z10.514 I-0.219 J-1.433
X-1081.231 Y-401.08 Z10.355 I1.069 J-0.98
X-1080.891 Y-399.757 Z10.305 I-1.069 J0.98
X-1083.266 Y-399.018 Z10.201 I-1.409 J-0.343
X-1082.8 Y-401.461 Z10.097 I0.966 J-1.082
X-1081.8 Y-398.739 Z9.938 I0.5 J1.361
X-1082.8 Y-401.461 Z9.778 I-0.5 J-1.361
X-1081.8 Y-398.739 Z9.619 I0.5 J1.361
X-1083.032 Y-398.848 Z9.575 I-0.5 J-1.361
X-1081.569 Y-401.352 Z9.416 I0.732 J-1.252
X-1080.853 Y-400.189 Z9.366 I-0.732 J1.252
X-1083.747 Y-400.011 Z9.207 I-1.447 J0.089
X-1080.869 Y-400.333 Z9.053 I1.447 J-0.089
X-1082.768 Y-398.728 Z8.949 I-1.431 J0.233
X-1081.832 Y-401.472 Z8.79 I0.468 J-1.372
X-1080.899 Y-400.475 Z8.74 I-0.468 J1.372
X-1082.629 Y-398.688 Z8.636 I-1.401 J0.375
X-1081.971 Y-401.512 Z8.476 I0.329 J-1.412
X-1080.944 Y-400.613 Z8.427 I-0.329 J1.412
X-1082.486 Y-398.662 Z8.322 I-1.356 J0.513
X-1083.481 Y-400.942 Z8.218 I0.186 J-1.438
X-1081.002 Y-400.746 Z8.114 I1.181 J0.842
X-1082.342 Y-398.651 Z8.009 I-1.298 J0.646
X-1082.258 Y-401.549 Z7.85 I0.042 J-1.449
X-1081.073 Y-400.872 Z7.801 I-0.042 J1.449
X-1082.197 Y-398.654 Z7.696 I-1.227 J0.772
X-1082.403 Y-401.546 Z7.537 I-0.103 J-1.446
X-1081.156 Y-400.991 Z7.488 I0.103 J1.446
X-1082.053 Y-398.671 Z7.383 I-1.144 J0.891
X-1083.677 Y-400.555 Z7.279 I-0.247 J-1.429
X-1081.25 Y-401.1 Z7.174 I1.377 J0.455
X-1083.35 Y-399.1 Z7.015 I-1.05 J1
X-1083.715 Y-400.415 Z6.966 I1.05 J-1
X-1081.355 Y-401.2 Z6.861 I1.415 J0.315
X-1081.774 Y-398.749 Z6.757 I-0.945 J1.1
X-1082.826 Y-401.451 Z6.598 I-0.526 J-1.351
X-1081.47 Y-401.289 Z6.548 I0.526 J1.351
X-1083.13 Y-398.911 Z6.389 I-0.83 J1.189
X-1083.75 Y-400.128 Z6.34 I0.83 J-1.189
X-1081.593 Y-401.366 Z6.235 I1.45 J0.028
X-1083.007 Y-398.834 Z6.076 I-0.707 J1.266
X-1083.745 Y-399.983 Z6.027 I0.707 J-1.266
X-1081.723 Y-401.43 Z5.922 I1.445 J-0.117
X-1082.877 Y-398.77 Z5.763 I-0.577 J1.33
X-1081.723 Y-401.43 Z5.604 I0.577 J-1.33
X-1082.877 Y-398.77 Z5.445 I-0.577 J1.33
X-1083.693 Y-399.698 Z5.4 I0.577 J-1.33
X-1081.998 Y-401.518 Z5.296 I1.393 J-0.402
X-1082.602 Y-398.682 Z5.137 I-0.302 J1.418
X-1083.646 Y-399.561 Z5.087 I0.302 J-1.418
X-1082.141 Y-401.541 Z4.983 I1.346 J-0.539
X-1082.459 Y-398.659 Z4.824 I-0.159 J1.441
X-1083.586 Y-399.43 Z4.774 I0.159 J-1.441
X-1082.286 Y-401.55 Z4.67 I1.286 J-0.67
X-1082.314 Y-398.65 Z4.511 I-0.014 J1.45
X-1083.512 Y-399.305 Z4.461 I0.014 J-1.45
X-1081.088 Y-400.895 Z4.302 I1.212 J-0.795
X-1080.964 Y-399.535 Z4.252 I-1.212 J0.795
X-1083.427 Y-399.188 Z4.148 I-1.336 J-0.565
X-1082.574 Y-401.524 Z4.044 I1.127 J-0.912
X-1082.026 Y-398.676 Z3.885 I0.274 J1.424
X-1083.33 Y-399.08 Z3.835 I-0.274 J-1.424
X-1082.715 Y-401.489 Z3.731 I1.03 J-1.02
X-1081.885 Y-398.711 Z3.571 I0.415 J1.389
X-1083.223 Y-398.982 Z3.522 I-0.415 J-1.389
X-1082.852 Y-401.441 Z3.417 I0.923 J-1.118
X-1081.748 Y-398.759 Z3.258 I0.552 J1.341
X-1083.107 Y-398.895 Z3.209 I-0.552 J-1.341
X-1081.493 Y-401.305 Z3.05 I0.807 J-1.205
X-1080.85 Y-400.1 Z3 I-0.807 J1.205
X-1082.638 Y-398.69 I-1.45
X-1083.661 Y-400.601 I0.338 J-1.41
X-1081.643 Y-401.393 I1.361 J0.501
X-1080.85 Y-400.1 I-0.657 J1.293
G1 X-1080.849 Y-400.037 F850
X-1080.852 Y-399.975
X-1080.858 Y-399.912
X-1080.867 Y-399.851
X-1080.882 Y-399.75
X-1080.909 Y-399.649
X-1081.008 Y-399.428
X-1081.052 Y-399.337
X-1081.115 Y-399.247
X-1081.29 Y-399.045
X-1081.35 Y-398.988
X-1081.411 Y-398.943
X-1081.612 Y-398.814
X-1081.713 Y-398.761
X-1081.813 Y-398.728
X-1082.015 Y-398.669
X-1082.116 Y-398.65
X-1082.216 Y-398.646
X-1082.418
X-1082.518 Y-398.654
X-1082.619 Y-398.678
X-1082.82 Y-398.738
X-1082.921 Y-398.776
X-1083.035 Y-398.844
X-1083.223 Y-398.967
X-1083.31 Y-399.045
X-1083.485 Y-399.247
X-1083.523 Y-399.297
X-1083.554 Y-399.347
X-1083.601 Y-399.448
X-1083.691 Y-399.649
X-1083.718 Y-399.75
X-1083.733 Y-399.851
X-1083.761 Y-400.052
X-1083.76 Y-400.153
X-1083.747 Y-400.253
X-1083.717 Y-400.455
X-1083.689 Y-400.555
X-1083.645 Y-400.656
X-1083.551 Y-400.857
X-1083.496 Y-400.94
X-1083.318 Y-401.146
X-1083.271 Y-401.194
X-1083.223 Y-401.233
X-1083.184 Y-401.26
X-1083.022 Y-401.365
X-1082.923 Y-401.423
X-1082.82 Y-401.462
X-1082.619 Y-401.522
X-1082.518 Y-401.546
X-1082.418 Y-401.554
X-1082.216
X-1082.116 Y-401.551
