%
(1001)
(z0 slate machine -5-5)
(T1  D=6 CR=0 - ZMIN=3 - flat end mill)
G90 G94
G17
G21

(2D Adaptive5 2)
M9
T1 M6
S6000 M3
G54
M9
G0 X-1306.265 Y-174.083
Z30
Z20
Z19.15
G1 Z18.55 F850
G3 X-1308.682 Y-174.666 Z18.446 I-1.034 J-1.017 F283.3
X-1307.03 Y-176.525 Z18.341 I1.384 J-0.433
X-1306.169 Y-174.191 Z18.237 I-0.269 J1.425
X-1308.632 Y-174.53 Z18.133 I-1.13 J-0.908
X-1307.173 Y-176.544 Z18.028 I1.333 J-0.569
X-1306.084 Y-174.309 Z17.924 I-0.126 J1.445
X-1308.569 Y-174.4 Z17.819 I-1.215 J-0.791
X-1307.318 Y-176.55 Z17.715 I1.27 J-0.7
X-1306.011 Y-174.434 Z17.611 I0.019 J1.45
X-1308.493 Y-174.277 Z17.506 I-1.288 J-0.666
X-1306.105 Y-175.923 Z17.347 I1.194 J-0.823
X-1308.405 Y-174.162 Z17.193 I-1.194 J0.823
X-1307.606 Y-176.517 Z17.089 I1.106 J-0.938
X-1305.904 Y-174.703 Z16.985 I0.307 J1.417
X-1308.305 Y-174.056 Z16.88 I-1.395 J-0.397
X-1307.746 Y-176.479 Z16.776 I1.007 J-1.044
X-1305.871 Y-174.844 Z16.671 I0.447 J1.379
X-1308.726 Y-175.355 Z16.512 I-1.427 J-0.255
X-1307.881 Y-176.428 Z16.463 I1.427 J0.255
X-1305.853 Y-174.988 Z16.358 I0.582 J1.328
X-1308.078 Y-173.877 Z16.254 I-1.446 J-0.112
X-1308.011 Y-176.363 Z16.15 I0.779 J-1.223
X-1305.849 Y-175.133 Z16.045 I0.712 J1.263
X-1307.952 Y-173.805 Z15.941 I-1.45 J0.033
X-1308.133 Y-176.286 Z15.837 I0.653 J-1.294
X-1305.86 Y-175.278 Z15.732 I0.834 J1.186
X-1308.738 Y-174.922 Z15.573 I-1.439 J0.178
X-1308.247 Y-176.196 Z15.523 I1.439 J-0.178
X-1305.885 Y-175.42 Z15.419 I0.949 J1.097
X-1307.682 Y-173.701 Z15.315 I-1.414 J0.32
X-1308.352 Y-176.096 Z15.21 I0.383 J-1.398
X-1305.924 Y-175.56 Z15.106 I1.053 J0.996
X-1307.541 Y-173.67 Z15.002 I-1.375 J0.46
X-1308.446 Y-175.986 Z14.897 I0.242 J-1.43
X-1305.977 Y-175.695 Z14.793 I1.148 J0.886
X-1307.397 Y-173.653 Z14.689 I-1.322 J0.595
X-1308.529 Y-175.867 Z14.584 I0.098 J-1.447
X-1306.069 Y-174.332 Z14.425 I1.23 J0.767
X-1307.252 Y-173.651 Z14.376 I-1.23 J-0.767
X-1308.6 Y-175.741 Z14.271 I-0.047 J-1.449
X-1306.121 Y-175.946 Z14.167 I1.301 J0.641
X-1307.107 Y-173.662 Z14.062 I-1.178 J0.846
X-1307.49 Y-176.537 Z13.903 I-0.192 J-1.437
X-1306.211 Y-176.059 Z13.854 I0.192 J1.437
X-1306.965 Y-173.689 Z13.749 I-1.087 J0.959
X-1307.633 Y-176.511 Z13.59 I-0.334 J-1.411
X-1306.313 Y-176.163 Z13.541 I0.334 J1.411
X-1306.826 Y-173.729 Z13.436 I-0.986 J1.063
X-1308.731 Y-175.328 Z13.332 I-0.473 J-1.371
X-1306.424 Y-176.256 Z13.228 I1.432 J0.228
X-1306.691 Y-173.783 Z13.123 I-0.875 J1.156
X-1308.746 Y-175.184 Z13.019 I-0.608 J-1.317
X-1306.543 Y-176.337 Z12.914 I1.448 J0.084
X-1308.054 Y-173.862 Z12.755 I-0.755 J1.238
X-1308.748 Y-175.039 Z12.706 I0.756 J-1.238
X-1306.671 Y-176.407 Z12.601 I1.449 J-0.061
X-1306.442 Y-173.93 Z12.497 I-0.628 J1.307
X-1308.734 Y-174.894 Z12.393 I-0.857 J-1.17
X-1306.804 Y-176.463 Z12.288 I1.435 J-0.205
X-1306.329 Y-174.022 Z12.184 I-0.495 J1.363
X-1308.268 Y-176.178 Z12.025 I-0.97 J-1.078
X-1306.943 Y-176.505 Z11.975 I0.97 J1.078
X-1306.227 Y-174.124 Z11.871 I-0.356 J1.406
X-1308.665 Y-174.613 Z11.766 I-1.072 J-0.976
X-1307.085 Y-176.534 Z11.662 I1.366 J-0.486
X-1306.134 Y-174.236 Z11.558 I-0.214 J1.434
X-1308.609 Y-174.479 Z11.453 I-1.164 J-0.864
X-1305.988 Y-175.72 Z11.294 I1.311 J-0.62
X-1308.541 Y-174.352 Z11.14 I-1.311 J0.62
X-1307.374 Y-176.548 Z11.036 I1.242 J-0.748
X-1305.986 Y-174.484 Z10.932 I0.075 J1.448
X-1308.46 Y-174.231 Z10.827 I-1.313 J-0.616
X-1307.518 Y-176.533 Z10.723 I1.161 J-0.868
X-1305.931 Y-174.618 Z10.618 I0.219 J1.433
X-1308.368 Y-174.12 Z10.514 I-1.368 J-0.481
X-1307.66 Y-176.504 Z10.41 I1.069 J-0.98
X-1305.89 Y-174.757 Z10.305 I0.361 J1.404
X-1308.265 Y-174.018 Z10.201 I-1.409 J-0.343
X-1307.798 Y-176.461 Z10.097 I0.966 J-1.082
X-1305.863 Y-174.9 Z9.992 I0.5 J1.361
X-1308.152 Y-173.927 Z9.888 I-1.436 J-0.2
X-1306.446 Y-176.272 Z9.729 I0.853 J-1.173
X-1305.85 Y-175.044 Z9.679 I-0.853 J1.173
X-1308.03 Y-173.848 Z9.575 I-1.449 J-0.056
X-1306.567 Y-176.352 Z9.416 I0.732 J-1.252
X-1307.902 Y-173.781 Z9.262 I-0.732 J1.252
X-1308.178 Y-176.253 Z9.157 I0.603 J-1.319
X-1306.419 Y-173.947 Z8.998 I0.88 J1.153
X-1308.289 Y-176.159 Z8.844 I-0.88 J-1.153
X-1305.898 Y-175.475 Z8.74 I0.99 J1.059
X-1307.628 Y-173.688 Z8.636 I-1.401 J0.375
X-1306.97 Y-176.512 Z8.476 I0.329 J-1.412
X-1305.943 Y-175.612 Z8.427 I-0.329 J1.412
X-1307.485 Y-173.662 Z8.322 I-1.356 J0.513
X-1308.48 Y-175.941 Z8.218 I0.186 J-1.438
X-1306 Y-175.745 Z8.114 I1.181 J0.842
X-1307.341 Y-173.65 Z8.009 I-1.298 J0.646
X-1308.558 Y-175.819 Z7.905 I0.042 J-1.449
X-1306.071 Y-175.872 Z7.801 I1.259 J0.719
X-1307.196 Y-173.653 Z7.696 I-1.227 J0.772
X-1308.623 Y-175.69 Z7.592 I-0.103 J-1.446
X-1306.155 Y-175.99 Z7.488 I1.324 J0.59
X-1307.052 Y-173.671 Z7.383 I-1.144 J0.891
X-1308.676 Y-175.555 Z7.279 I-0.247 J-1.429
X-1306.249 Y-176.1 Z7.174 I1.377 J0.455
X-1308.349 Y-174.099 Z7.015 I-1.05 J1
X-1306.354 Y-176.2 Z6.861 I1.05 J-1
X-1306.773 Y-173.748 Z6.757 I-0.945 J1.1
X-1307.825 Y-176.451 Z6.598 I-0.526 J-1.351
X-1306.773 Y-173.748 Z6.439 I0.526 J1.351
X-1308.749 Y-175.128 Z6.34 I-0.526 J-1.351
X-1305.849 Y-175.072 Z6.181 I1.45 J0.028
X-1308.744 Y-174.983 Z6.027 I-1.45 J-0.028
X-1305.854 Y-175.217 Z5.867 I1.445 J-0.117
X-1306.397 Y-173.964 Z5.818 I-1.445 J0.117
X-1308.2 Y-176.235 Z5.659 I-0.901 J-1.136
X-1306.857 Y-176.481 Z5.609 I0.902 J1.136
X-1306.288 Y-174.06 Z5.505 I-0.442 J1.381
X-1308.692 Y-174.698 Z5.4 I-1.01 J-1.04
X-1306.997 Y-176.518 Z5.296 I1.393 J-0.402
X-1307.6 Y-173.682 Z5.137 I-0.302 J1.418
X-1308.645 Y-174.561 Z5.087 I0.302 J-1.418
X-1307.14 Y-176.541 Z4.983 I1.346 J-0.539
X-1306.102 Y-174.281 Z4.879 I-0.159 J1.441
X-1308.585 Y-174.429 Z4.774 I-1.197 J-0.819
X-1307.285 Y-176.55 Z4.67 I1.286 J-0.67
X-1306.026 Y-174.405 Z4.565 I-0.014 J1.45
X-1308.571 Y-175.795 Z4.406 I-1.273 J-0.695
X-1305.963 Y-174.535 Z4.252 I1.273 J0.695
X-1308.426 Y-174.187 Z4.148 I-1.336 J-0.565
X-1307.573 Y-176.524 Z4.044 I1.127 J-0.912
X-1305.914 Y-174.671 Z3.939 I0.274 J1.424
X-1308.329 Y-174.079 Z3.835 I-1.385 J-0.428
X-1307.714 Y-176.489 Z3.731 I1.03 J-1.02
X-1305.878 Y-174.812 Z3.626 I0.415 J1.389
X-1308.222 Y-173.982 Z3.522 I-1.421 J-0.288
X-1306.376 Y-176.218 Z3.363 I0.923 J-1.118
X-1308.222 Y-173.982 Z3.204 I-0.923 J1.118
X-1307.982 Y-176.379 Z3.104 I0.923 J-1.118
X-1305.849 Y-175.1 Z3 I0.683 J1.279
X-1307.636 Y-173.69 I-1.45
X-1308.592 Y-175.757 I0.338 J-1.41
X-1306.642 Y-176.393 I1.293 J0.657
X-1305.849 Y-175.1 I-0.657 J1.293
G1 X-1305.848 Y-175.034 F850
X-1305.851 Y-174.968
X-1305.858 Y-174.903
X-1305.882 Y-174.74
X-1305.908 Y-174.647
X-1305.954 Y-174.539
X-1306.049 Y-174.337
X-1306.076 Y-174.293
X-1306.109 Y-174.25
X-1306.207 Y-174.136
X-1306.311 Y-174.021
X-1306.366 Y-173.973
X-1306.422 Y-173.935
X-1306.613 Y-173.812
X-1306.713 Y-173.76
X-1306.794 Y-173.733
X-1307.015 Y-173.668
X-1307.116 Y-173.649
X-1307.318 Y-173.646
X-1307.519 Y-173.654
X-1307.72 Y-173.708
X-1307.806 Y-173.733
X-1307.922 Y-173.777
X-1308.123 Y-173.899
X-1308.178 Y-173.935
X-1308.251 Y-173.987
X-1308.324 Y-174.057
X-1308.393 Y-174.136
X-1308.526 Y-174.296
X-1308.551 Y-174.337
X-1308.646 Y-174.539
X-1308.689 Y-174.639
X-1308.718 Y-174.74
X-1308.727 Y-174.799
X-1308.747 Y-174.941
X-1308.761 Y-175.042
X-1308.762 Y-175.143
X-1308.727 Y-175.401
X-1308.715 Y-175.473
X-1308.695 Y-175.545
X-1308.607 Y-175.747
X-1308.526 Y-175.903
X-1308.493 Y-175.948
X-1308.318 Y-176.149
X-1308.269 Y-176.197
X-1308.221 Y-176.237
X-1308.123 Y-176.301
X-1308.045 Y-176.351
X-1307.922 Y-176.424
X-1307.72 Y-176.492
X-1307.519 Y-176.546
X-1307.468 Y-176.552
X-1307.318 Y-176.554
X-1307.133 Y-176.552
X-1307.116 Y-176.551
X-1307.015 Y-176.532
X-1306.915 Y-176.502
X-1306.713 Y-176.44
X-1306.634 Y-176.401
X-1306.411 Y-176.259
X-1306.361 Y-176.223
X-1306.311 Y-176.18
X-1306.282 Y-176.149
X-1306.108 Y-175.948
X-1306.041 Y-175.847
X-1305.993 Y-175.747
X-1305.908 Y-175.554
X-1305.905 Y-175.545
X-1305.879 Y-175.445
X-1305.865 Y-175.344
X-1305.838 Y-175.143
X-1305.839 Y-175.042
X-1305.858 Y-174.903
G3 X-1305.944 Y-174.685 I-0.59 J-0.107
G1 X-1305.995 Y-174.606 Z3.007
X-1306.044 Y-174.529 Z3.029
X-1306.092 Y-174.456 Z3.065
X-1306.135 Y-174.388 Z3.115
X-1306.174 Y-174.328 Z3.176
X-1306.207 Y-174.277 Z3.247
X-1306.234 Y-174.236 Z3.328
X-1306.253 Y-174.205 Z3.415
X-1306.265 Y-174.187 Z3.506
X-1306.269 Y-174.181 Z3.6
G0 Z30

(2D Adaptive5 2)
M9
X-1231.265 Y-174.083
Z30
Z20
Z19.15
G1 Z18.55 F850
G3 X-1233.682 Y-174.666 Z18.446 I-1.034 J-1.017 F283.3
X-1232.03 Y-176.525 Z18.341 I1.384 J-0.433
X-1231.169 Y-174.191 Z18.237 I-0.269 J1.425
X-1233.632 Y-174.53 Z18.133 I-1.13 J-0.908
X-1232.173 Y-176.544 Z18.028 I1.333 J-0.569
X-1231.084 Y-174.309 Z17.924 I-0.126 J1.445
X-1233.569 Y-174.4 Z17.819 I-1.215 J-0.791
X-1232.318 Y-176.55 Z17.715 I1.27 J-0.7
X-1231.011 Y-174.434 Z17.611 I0.019 J1.45
X-1233.493 Y-174.277 Z17.506 I-1.288 J-0.666
X-1231.105 Y-175.923 Z17.347 I1.194 J-0.823
X-1233.405 Y-174.162 Z17.193 I-1.194 J0.823
X-1232.606 Y-176.517 Z17.089 I1.106 J-0.938
X-1230.904 Y-174.703 Z16.985 I0.307 J1.417
X-1233.305 Y-174.056 Z16.88 I-1.395 J-0.397
X-1232.746 Y-176.479 Z16.776 I1.007 J-1.044
X-1230.871 Y-174.844 Z16.671 I0.447 J1.379
X-1233.726 Y-175.355 Z16.512 I-1.427 J-0.255
X-1232.881 Y-176.428 Z16.463 I1.427 J0.255
X-1230.853 Y-174.988 Z16.358 I0.582 J1.328
X-1233.078 Y-173.877 Z16.254 I-1.446 J-0.112
X-1233.011 Y-176.363 Z16.15 I0.779 J-1.223
X-1230.849 Y-175.133 Z16.045 I0.712 J1.263
X-1232.952 Y-173.805 Z15.941 I-1.45 J0.033
X-1233.133 Y-176.286 Z15.837 I0.653 J-1.294
X-1230.86 Y-175.278 Z15.732 I0.834 J1.186
X-1233.738 Y-174.922 Z15.573 I-1.439 J0.178
X-1233.247 Y-176.196 Z15.523 I1.439 J-0.178
X-1230.885 Y-175.42 Z15.419 I0.949 J1.097
X-1232.682 Y-173.701 Z15.315 I-1.414 J0.32
X-1233.352 Y-176.096 Z15.21 I0.383 J-1.398
X-1230.924 Y-175.56 Z15.106 I1.053 J0.996
X-1232.541 Y-173.67 Z15.002 I-1.375 J0.46
X-1233.446 Y-175.986 Z14.897 I0.242 J-1.43
X-1230.977 Y-175.695 Z14.793 I1.148 J0.886
X-1232.397 Y-173.653 Z14.689 I-1.322 J0.595
X-1233.529 Y-175.867 Z14.584 I0.098 J-1.447
X-1231.069 Y-174.332 Z14.425 I1.23 J0.767
X-1232.252 Y-173.651 Z14.376 I-1.23 J-0.767
X-1233.6 Y-175.741 Z14.271 I-0.047 J-1.449
X-1231.121 Y-175.946 Z14.167 I1.301 J0.641
X-1232.107 Y-173.662 Z14.062 I-1.178 J0.846
X-1232.49 Y-176.537 Z13.903 I-0.192 J-1.437
X-1231.211 Y-176.059 Z13.854 I0.192 J1.437
X-1231.965 Y-173.689 Z13.749 I-1.087 J0.959
X-1232.633 Y-176.511 Z13.59 I-0.334 J-1.411
X-1231.313 Y-176.163 Z13.541 I0.334 J1.411
X-1231.826 Y-173.729 Z13.436 I-0.986 J1.063
X-1233.731 Y-175.328 Z13.332 I-0.473 J-1.371
X-1231.424 Y-176.256 Z13.228 I1.432 J0.228
X-1231.691 Y-173.783 Z13.123 I-0.875 J1.156
X-1233.746 Y-175.184 Z13.019 I-0.608 J-1.317
X-1231.543 Y-176.337 Z12.914 I1.448 J0.084
X-1233.054 Y-173.862 Z12.755 I-0.755 J1.238
X-1233.748 Y-175.039 Z12.706 I0.756 J-1.238
X-1231.671 Y-176.407 Z12.601 I1.449 J-0.061
X-1231.442 Y-173.93 Z12.497 I-0.628 J1.307
X-1233.734 Y-174.894 Z12.393 I-0.857 J-1.17
X-1231.804 Y-176.463 Z12.288 I1.435 J-0.205
X-1231.329 Y-174.022 Z12.184 I-0.495 J1.363
X-1233.268 Y-176.178 Z12.025 I-0.97 J-1.078
X-1231.943 Y-176.505 Z11.975 I0.97 J1.078
X-1231.227 Y-174.124 Z11.871 I-0.356 J1.406
X-1233.665 Y-174.613 Z11.766 I-1.072 J-0.976
X-1232.085 Y-176.534 Z11.662 I1.366 J-0.486
X-1231.134 Y-174.236 Z11.558 I-0.214 J1.434
X-1233.609 Y-174.479 Z11.453 I-1.164 J-0.864
X-1230.988 Y-175.72 Z11.294 I1.311 J-0.62
X-1233.541 Y-174.352 Z11.14 I-1.311 J0.62
X-1232.374 Y-176.548 Z11.036 I1.242 J-0.748
X-1230.986 Y-174.484 Z10.932 I0.075 J1.448
X-1233.46 Y-174.231 Z10.827 I-1.313 J-0.616
X-1232.518 Y-176.533 Z10.723 I1.161 J-0.868
X-1230.931 Y-174.618 Z10.618 I0.219 J1.433
X-1233.368 Y-174.12 Z10.514 I-1.368 J-0.481
X-1232.66 Y-176.504 Z10.41 I1.069 J-0.98
X-1230.89 Y-174.757 Z10.305 I0.361 J1.404
X-1233.265 Y-174.018 Z10.201 I-1.409 J-0.343
X-1232.798 Y-176.461 Z10.097 I0.966 J-1.082
X-1230.863 Y-174.9 Z9.992 I0.5 J1.361
X-1233.152 Y-173.927 Z9.888 I-1.436 J-0.2
X-1231.446 Y-176.272 Z9.729 I0.853 J-1.173
X-1230.85 Y-175.044 Z9.679 I-0.853 J1.173
X-1233.03 Y-173.848 Z9.575 I-1.449 J-0.056
X-1231.567 Y-176.352 Z9.416 I0.732 J-1.252
X-1232.902 Y-173.781 Z9.262 I-0.732 J1.252
X-1233.178 Y-176.253 Z9.157 I0.603 J-1.319
X-1231.419 Y-173.947 Z8.998 I0.88 J1.153
X-1233.289 Y-176.159 Z8.844 I-0.88 J-1.153
X-1230.898 Y-175.475 Z8.74 I0.99 J1.059
X-1232.628 Y-173.688 Z8.636 I-1.401 J0.375
X-1231.97 Y-176.512 Z8.476 I0.329 J-1.412
X-1230.943 Y-175.612 Z8.427 I-0.329 J1.412
X-1232.485 Y-173.662 Z8.322 I-1.356 J0.513
X-1233.48 Y-175.941 Z8.218 I0.186 J-1.438
X-1231 Y-175.745 Z8.114 I1.181 J0.842
X-1232.341 Y-173.65 Z8.009 I-1.298 J0.646
X-1233.558 Y-175.819 Z7.905 I0.042 J-1.449
X-1231.071 Y-175.872 Z7.801 I1.259 J0.719
X-1232.196 Y-173.653 Z7.696 I-1.227 J0.772
X-1233.623 Y-175.69 Z7.592 I-0.103 J-1.446
X-1231.155 Y-175.99 Z7.488 I1.324 J0.59
X-1232.052 Y-173.671 Z7.383 I-1.144 J0.891
X-1233.676 Y-175.555 Z7.279 I-0.247 J-1.429
X-1231.249 Y-176.1 Z7.174 I1.377 J0.455
X-1233.349 Y-174.099 Z7.015 I-1.05 J1
X-1231.354 Y-176.2 Z6.861 I1.05 J-1
X-1231.773 Y-173.748 Z6.757 I-0.945 J1.1
X-1232.825 Y-176.451 Z6.598 I-0.526 J-1.351
X-1231.773 Y-173.748 Z6.439 I0.526 J1.351
X-1233.749 Y-175.128 Z6.34 I-0.526 J-1.351
X-1230.849 Y-175.072 Z6.181 I1.45 J0.028
X-1233.744 Y-174.983 Z6.027 I-1.45 J-0.028
X-1230.854 Y-175.217 Z5.867 I1.445 J-0.117
X-1231.397 Y-173.964 Z5.818 I-1.445 J0.117
X-1233.2 Y-176.235 Z5.659 I-0.901 J-1.136
X-1231.857 Y-176.481 Z5.609 I0.902 J1.136
X-1231.288 Y-174.06 Z5.505 I-0.442 J1.381
X-1233.692 Y-174.698 Z5.4 I-1.01 J-1.04
X-1231.997 Y-176.518 Z5.296 I1.393 J-0.402
X-1232.6 Y-173.682 Z5.137 I-0.302 J1.418
X-1233.645 Y-174.561 Z5.087 I0.302 J-1.418
X-1232.14 Y-176.541 Z4.983 I1.346 J-0.539
X-1231.102 Y-174.281 Z4.879 I-0.159 J1.441
X-1233.585 Y-174.429 Z4.774 I-1.197 J-0.819
X-1232.285 Y-176.55 Z4.67 I1.286 J-0.67
X-1231.026 Y-174.405 Z4.565 I-0.014 J1.45
X-1233.571 Y-175.795 Z4.406 I-1.273 J-0.695
X-1230.963 Y-174.535 Z4.252 I1.273 J0.695
X-1233.426 Y-174.187 Z4.148 I-1.336 J-0.565
X-1232.573 Y-176.524 Z4.044 I1.127 J-0.912
X-1230.914 Y-174.671 Z3.939 I0.274 J1.424
X-1233.329 Y-174.079 Z3.835 I-1.385 J-0.428
X-1232.714 Y-176.489 Z3.731 I1.03 J-1.02
X-1230.878 Y-174.812 Z3.626 I0.415 J1.389
X-1233.222 Y-173.982 Z3.522 I-1.421 J-0.288
X-1231.376 Y-176.218 Z3.363 I0.923 J-1.118
X-1233.222 Y-173.982 Z3.204 I-0.923 J1.118
X-1232.982 Y-176.379 Z3.104 I0.923 J-1.118
X-1230.849 Y-175.1 Z3 I0.683 J1.279
X-1232.636 Y-173.69 I-1.45
X-1233.592 Y-175.757 I0.338 J-1.41
X-1231.642 Y-176.393 I1.293 J0.657
X-1230.849 Y-175.1 I-0.657 J1.293
G1 X-1230.848 Y-175.034 F850
X-1230.851 Y-174.968
X-1230.858 Y-174.903
X-1230.882 Y-174.74
X-1230.908 Y-174.647
X-1230.954 Y-174.539
X-1231.049 Y-174.337
X-1231.076 Y-174.293
X-1231.109 Y-174.25
X-1231.207 Y-174.136
X-1231.311 Y-174.021
X-1231.366 Y-173.973
X-1231.422 Y-173.935
X-1231.613 Y-173.812
X-1231.713 Y-173.76
X-1231.794 Y-173.733
X-1232.015 Y-173.668
X-1232.116 Y-173.649
X-1232.318 Y-173.646
X-1232.519 Y-173.654
X-1232.72 Y-173.708
X-1232.806 Y-173.733
X-1232.922 Y-173.777
X-1233.123 Y-173.899
X-1233.178 Y-173.935
X-1233.251 Y-173.987
X-1233.324 Y-174.057
X-1233.393 Y-174.136
X-1233.526 Y-174.296
X-1233.551 Y-174.337
X-1233.646 Y-174.539
X-1233.689 Y-174.639
X-1233.718 Y-174.74
X-1233.727 Y-174.799
X-1233.747 Y-174.941
X-1233.761 Y-175.042
X-1233.762 Y-175.143
X-1233.727 Y-175.401
X-1233.715 Y-175.473
X-1233.695 Y-175.545
X-1233.607 Y-175.747
X-1233.526 Y-175.903
X-1233.493 Y-175.948
X-1233.318 Y-176.149
X-1233.269 Y-176.197
X-1233.221 Y-176.237
X-1233.123 Y-176.301
X-1233.045 Y-176.351
X-1232.922 Y-176.424
X-1232.72 Y-176.492
X-1232.519 Y-176.546
X-1232.468 Y-176.552
X-1232.318 Y-176.554
X-1232.133 Y-176.552
X-1232.116 Y-176.551
X-1232.015 Y-176.532
X-1231.915 Y-176.502
X-1231.713 Y-176.44
X-1231.634 Y-176.401
X-1231.411 Y-176.259
X-1231.361 Y-176.223
X-1231.311 Y-176.18
X-1231.282 Y-176.149
X-1231.108 Y-175.948
X-1231.041 Y-175.847
X-1230.993 Y-175.747
X-1230.908 Y-175.554
X-1230.905 Y-175.545
X-1230.879 Y-175.445
X-1230.865 Y-175.344
X-1230.838 Y-175.143
X-1230.839 Y-175.042
X-1230.858 Y-174.903
G3 X-1230.944 Y-174.685 I-0.59 J-0.107
G1 X-1230.995 Y-174.606 Z3.007
X-1231.044 Y-174.529 Z3.029
X-1231.092 Y-174.456 Z3.065
X-1231.135 Y-174.388 Z3.115
X-1231.174 Y-174.328 Z3.176
X-1231.207 Y-174.277 Z3.247
X-1231.234 Y-174.236 Z3.328
X-1231.253 Y-174.205 Z3.415
X-1231.265 Y-174.187 Z3.506
X-1231.269 Y-174.181 Z3.6
G0 Z30

(2D Adaptive5 2)
M9
X-1156.265 Y-174.083
Z30
Z20
Z19.15
G1 Z18.55 F850
G3 X-1158.682 Y-174.666 Z18.446 I-1.034 J-1.017 F283.3
X-1157.03 Y-176.525 Z18.341 I1.384 J-0.433
X-1156.169 Y-174.191 Z18.237 I-0.269 J1.425
X-1158.632 Y-174.53 Z18.133 I-1.13 J-0.908
X-1157.173 Y-176.544 Z18.028 I1.333 J-0.569
X-1156.084 Y-174.309 Z17.924 I-0.126 J1.445
X-1158.569 Y-174.4 Z17.819 I-1.215 J-0.791
X-1157.318 Y-176.55 Z17.715 I1.27 J-0.7
X-1156.011 Y-174.434 Z17.611 I0.019 J1.45
X-1158.493 Y-174.277 Z17.506 I-1.288 J-0.666
X-1156.105 Y-175.923 Z17.347 I1.194 J-0.823
X-1158.405 Y-174.162 Z17.193 I-1.194 J0.823
X-1157.606 Y-176.517 Z17.089 I1.106 J-0.938
X-1155.904 Y-174.703 Z16.985 I0.307 J1.417
X-1158.305 Y-174.056 Z16.88 I-1.395 J-0.397
X-1157.746 Y-176.479 Z16.776 I1.007 J-1.044
X-1155.871 Y-174.844 Z16.671 I0.447 J1.379
X-1158.726 Y-175.355 Z16.512 I-1.427 J-0.255
X-1157.881 Y-176.428 Z16.463 I1.427 J0.255
X-1155.853 Y-174.988 Z16.358 I0.582 J1.328
X-1158.078 Y-173.877 Z16.254 I-1.446 J-0.112
X-1158.011 Y-176.363 Z16.15 I0.779 J-1.223
X-1155.849 Y-175.133 Z16.045 I0.712 J1.263
X-1157.952 Y-173.805 Z15.941 I-1.45 J0.033
X-1158.133 Y-176.286 Z15.837 I0.653 J-1.294
X-1155.86 Y-175.278 Z15.732 I0.834 J1.186
X-1158.738 Y-174.922 Z15.573 I-1.439 J0.178
X-1158.247 Y-176.196 Z15.523 I1.439 J-0.178
X-1155.885 Y-175.42 Z15.419 I0.949 J1.097
X-1157.682 Y-173.701 Z15.315 I-1.414 J0.32
X-1158.352 Y-176.096 Z15.21 I0.383 J-1.398
X-1155.924 Y-175.56 Z15.106 I1.053 J0.996
X-1157.541 Y-173.67 Z15.002 I-1.375 J0.46
X-1158.446 Y-175.986 Z14.897 I0.242 J-1.43
X-1155.977 Y-175.695 Z14.793 I1.148 J0.886
X-1157.397 Y-173.653 Z14.689 I-1.322 J0.595
X-1158.529 Y-175.867 Z14.584 I0.098 J-1.447
X-1156.069 Y-174.332 Z14.425 I1.23 J0.767
X-1157.252 Y-173.651 Z14.376 I-1.23 J-0.767
X-1158.6 Y-175.741 Z14.271 I-0.047 J-1.449
X-1156.121 Y-175.946 Z14.167 I1.301 J0.641
X-1157.107 Y-173.662 Z14.062 I-1.178 J0.846
X-1157.49 Y-176.537 Z13.903 I-0.192 J-1.437
X-1156.211 Y-176.059 Z13.854 I0.192 J1.437
X-1156.965 Y-173.689 Z13.749 I-1.087 J0.959
X-1157.633 Y-176.511 Z13.59 I-0.334 J-1.411
X-1156.313 Y-176.163 Z13.541 I0.334 J1.411
X-1156.826 Y-173.729 Z13.436 I-0.986 J1.063
X-1158.731 Y-175.328 Z13.332 I-0.473 J-1.371
X-1156.424 Y-176.256 Z13.228 I1.432 J0.228
X-1156.691 Y-173.783 Z13.123 I-0.875 J1.156
X-1158.746 Y-175.184 Z13.019 I-0.608 J-1.317
X-1156.543 Y-176.337 Z12.914 I1.448 J0.084
X-1158.054 Y-173.862 Z12.755 I-0.755 J1.238
X-1158.748 Y-175.039 Z12.706 I0.756 J-1.238
X-1156.671 Y-176.407 Z12.601 I1.449 J-0.061
X-1156.442 Y-173.93 Z12.497 I-0.628 J1.307
X-1158.734 Y-174.894 Z12.393 I-0.857 J-1.17
X-1156.804 Y-176.463 Z12.288 I1.435 J-0.205
X-1156.329 Y-174.022 Z12.184 I-0.495 J1.363
X-1158.268 Y-176.178 Z12.025 I-0.97 J-1.078
X-1156.943 Y-176.505 Z11.975 I0.97 J1.078
X-1156.227 Y-174.124 Z11.871 I-0.356 J1.406
X-1158.665 Y-174.613 Z11.766 I-1.072 J-0.976
X-1157.085 Y-176.534 Z11.662 I1.366 J-0.486
X-1156.134 Y-174.236 Z11.558 I-0.214 J1.434
X-1158.609 Y-174.479 Z11.453 I-1.164 J-0.864
X-1155.988 Y-175.72 Z11.294 I1.311 J-0.62
X-1158.541 Y-174.352 Z11.14 I-1.311 J0.62
X-1157.374 Y-176.548 Z11.036 I1.242 J-0.748
X-1155.986 Y-174.484 Z10.932 I0.075 J1.448
X-1158.46 Y-174.231 Z10.827 I-1.313 J-0.616
X-1157.518 Y-176.533 Z10.723 I1.161 J-0.868
X-1155.931 Y-174.618 Z10.618 I0.219 J1.433
X-1158.368 Y-174.12 Z10.514 I-1.368 J-0.481
X-1157.66 Y-176.504 Z10.41 I1.069 J-0.98
X-1155.89 Y-174.757 Z10.305 I0.361 J1.404
X-1158.265 Y-174.018 Z10.201 I-1.409 J-0.343
X-1157.798 Y-176.461 Z10.097 I0.966 J-1.082
X-1155.863 Y-174.9 Z9.992 I0.5 J1.361
X-1158.152 Y-173.927 Z9.888 I-1.436 J-0.2
X-1156.446 Y-176.272 Z9.729 I0.853 J-1.173
X-1155.85 Y-175.044 Z9.679 I-0.853 J1.173
X-1158.03 Y-173.848 Z9.575 I-1.449 J-0.056
X-1156.567 Y-176.352 Z9.416 I0.732 J-1.252
X-1157.902 Y-173.781 Z9.262 I-0.732 J1.252
X-1158.178 Y-176.253 Z9.157 I0.603 J-1.319
X-1156.419 Y-173.947 Z8.998 I0.88 J1.153
X-1158.289 Y-176.159 Z8.844 I-0.88 J-1.153
X-1155.898 Y-175.475 Z8.74 I0.99 J1.059
X-1157.628 Y-173.688 Z8.636 I-1.401 J0.375
X-1156.97 Y-176.512 Z8.476 I0.329 J-1.412
X-1155.943 Y-175.612 Z8.427 I-0.329 J1.412
X-1157.485 Y-173.662 Z8.322 I-1.356 J0.513
X-1158.48 Y-175.941 Z8.218 I0.186 J-1.438
X-1156 Y-175.745 Z8.114 I1.181 J0.842
X-1157.341 Y-173.65 Z8.009 I-1.298 J0.646
X-1158.558 Y-175.819 Z7.905 I0.042 J-1.449
X-1156.071 Y-175.872 Z7.801 I1.259 J0.719
X-1157.196 Y-173.653 Z7.696 I-1.227 J0.772
X-1158.623 Y-175.69 Z7.592 I-0.103 J-1.446
X-1156.155 Y-175.99 Z7.488 I1.324 J0.59
X-1157.052 Y-173.671 Z7.383 I-1.144 J0.891
X-1158.676 Y-175.555 Z7.279 I-0.247 J-1.429
X-1156.249 Y-176.1 Z7.174 I1.377 J0.455
X-1158.349 Y-174.099 Z7.015 I-1.05 J1
X-1156.354 Y-176.2 Z6.861 I1.05 J-1
X-1156.773 Y-173.748 Z6.757 I-0.945 J1.1
X-1157.825 Y-176.451 Z6.598 I-0.526 J-1.351
X-1156.773 Y-173.748 Z6.439 I0.526 J1.351
X-1158.749 Y-175.128 Z6.34 I-0.526 J-1.351
X-1155.849 Y-175.072 Z6.181 I1.45 J0.028
X-1158.744 Y-174.983 Z6.027 I-1.45 J-0.028
X-1155.854 Y-175.217 Z5.867 I1.445 J-0.117
X-1156.397 Y-173.964 Z5.818 I-1.445 J0.117
X-1158.2 Y-176.235 Z5.659 I-0.901 J-1.136
X-1156.857 Y-176.481 Z5.609 I0.902 J1.136
X-1156.288 Y-174.06 Z5.505 I-0.442 J1.381
X-1158.692 Y-174.698 Z5.4 I-1.01 J-1.04
X-1156.997 Y-176.518 Z5.296 I1.393 J-0.402
X-1157.6 Y-173.682 Z5.137 I-0.302 J1.418
X-1158.645 Y-174.561 Z5.087 I0.302 J-1.418
X-1157.14 Y-176.541 Z4.983 I1.346 J-0.539
X-1156.102 Y-174.281 Z4.879 I-0.159 J1.441
X-1158.585 Y-174.429 Z4.774 I-1.197 J-0.819
X-1157.285 Y-176.55 Z4.67 I1.286 J-0.67
X-1156.026 Y-174.405 Z4.565 I-0.014 J1.45
X-1158.571 Y-175.795 Z4.406 I-1.273 J-0.695
X-1155.963 Y-174.535 Z4.252 I1.273 J0.695
X-1158.426 Y-174.187 Z4.148 I-1.336 J-0.565
X-1157.573 Y-176.524 Z4.044 I1.127 J-0.912
X-1155.914 Y-174.671 Z3.939 I0.274 J1.424
X-1158.329 Y-174.079 Z3.835 I-1.385 J-0.428
X-1157.714 Y-176.489 Z3.731 I1.03 J-1.02
X-1155.878 Y-174.812 Z3.626 I0.415 J1.389
X-1158.222 Y-173.982 Z3.522 I-1.421 J-0.288
X-1156.376 Y-176.218 Z3.363 I0.923 J-1.118
X-1158.222 Y-173.982 Z3.204 I-0.923 J1.118
X-1157.982 Y-176.379 Z3.104 I0.923 J-1.118
X-1155.849 Y-175.1 Z3 I0.683 J1.279
X-1157.636 Y-173.69 I-1.45
X-1158.592 Y-175.757 I0.338 J-1.41
X-1156.642 Y-176.393 I1.293 J0.657
X-1155.849 Y-175.1 I-0.657 J1.293
G1 X-1155.848 Y-175.034 F850
X-1155.851 Y-174.968
X-1155.858 Y-174.903
X-1155.882 Y-174.74
X-1155.908 Y-174.647
X-1155.954 Y-174.539
X-1156.049 Y-174.337
X-1156.076 Y-174.293
X-1156.109 Y-174.25
X-1156.207 Y-174.136
X-1156.311 Y-174.021
X-1156.366 Y-173.973
X-1156.422 Y-173.935
X-1156.613 Y-173.812
X-1156.713 Y-173.76
X-1156.794 Y-173.733
X-1157.015 Y-173.668
X-1157.116 Y-173.649
X-1157.318 Y-173.646
X-1157.519 Y-173.654
X-1157.72 Y-173.708
X-1157.806 Y-173.733
X-1157.922 Y-173.777
X-1158.123 Y-173.899
X-1158.178 Y-173.935
X-1158.251 Y-173.987
X-1158.324 Y-174.057
X-1158.393 Y-174.136
X-1158.526 Y-174.296
X-1158.551 Y-174.337
X-1158.646 Y-174.539
X-1158.689 Y-174.639
X-1158.718 Y-174.74
X-1158.727 Y-174.799
X-1158.747 Y-174.941
X-1158.761 Y-175.042
X-1158.762 Y-175.143
X-1158.727 Y-175.401
X-1158.715 Y-175.473
X-1158.695 Y-175.545
X-1158.607 Y-175.747
X-1158.526 Y-175.903
X-1158.493 Y-175.948
X-1158.318 Y-176.149
X-1158.269 Y-176.197
X-1158.221 Y-176.237
X-1158.123 Y-176.301
X-1158.045 Y-176.351
X-1157.922 Y-176.424
X-1157.72 Y-176.492
X-1157.519 Y-176.546
X-1157.468 Y-176.552
X-1157.318 Y-176.554
X-1157.133 Y-176.552
X-1157.116 Y-176.551
X-1157.015 Y-176.532
X-1156.915 Y-176.502
X-1156.713 Y-176.44
X-1156.634 Y-176.401
X-1156.411 Y-176.259
X-1156.361 Y-176.223
X-1156.311 Y-176.18
X-1156.282 Y-176.149
X-1156.108 Y-175.948
X-1156.041 Y-175.847
X-1155.993 Y-175.747
X-1155.908 Y-175.554
X-1155.905 Y-175.545
X-1155.879 Y-175.445
X-1155.865 Y-175.344
X-1155.838 Y-175.143
X-1155.839 Y-175.042
X-1155.858 Y-174.903
G3 X-1155.944 Y-174.685 I-0.59 J-0.107
G1 X-1155.995 Y-174.606 Z3.007
X-1156.044 Y-174.529 Z3.029
X-1156.092 Y-174.456 Z3.065
X-1156.135 Y-174.388 Z3.115
X-1156.174 Y-174.328 Z3.176
X-1156.207 Y-174.277 Z3.247
X-1156.234 Y-174.236 Z3.328
X-1156.253 Y-174.205 Z3.415
X-1156.265 Y-174.187 Z3.506
X-1156.269 Y-174.181 Z3.6
G0 Z30

(2D Adaptive5 2)
M9
X-1081.265 Y-174.083
Z30
Z20
Z19.15
G1 Z18.55 F850
G3 X-1083.682 Y-174.666 Z18.446 I-1.034 J-1.017 F283.3
X-1082.03 Y-176.525 Z18.341 I1.384 J-0.433
X-1081.169 Y-174.191 Z18.237 I-0.269 J1.425
X-1083.632 Y-174.53 Z18.133 I-1.13 J-0.908
X-1082.173 Y-176.544 Z18.028 I1.333 J-0.569
X-1081.084 Y-174.309 Z17.924 I-0.126 J1.445
X-1083.569 Y-174.4 Z17.819 I-1.215 J-0.791
X-1082.318 Y-176.55 Z17.715 I1.27 J-0.7
X-1081.011 Y-174.434 Z17.611 I0.019 J1.45
X-1083.493 Y-174.277 Z17.506 I-1.288 J-0.666
X-1081.105 Y-175.923 Z17.347 I1.194 J-0.823
X-1083.405 Y-174.162 Z17.193 I-1.194 J0.823
X-1082.606 Y-176.517 Z17.089 I1.106 J-0.938
X-1080.904 Y-174.703 Z16.985 I0.307 J1.417
X-1083.305 Y-174.056 Z16.88 I-1.395 J-0.397
X-1082.746 Y-176.479 Z16.776 I1.007 J-1.044
X-1080.871 Y-174.844 Z16.671 I0.447 J1.379
X-1083.726 Y-175.355 Z16.512 I-1.427 J-0.255
X-1082.881 Y-176.428 Z16.463 I1.427 J0.255
X-1080.853 Y-174.988 Z16.358 I0.582 J1.328
X-1083.078 Y-173.877 Z16.254 I-1.446 J-0.112
X-1083.011 Y-176.363 Z16.15 I0.779 J-1.223
X-1080.849 Y-175.133 Z16.045 I0.712 J1.263
X-1082.952 Y-173.805 Z15.941 I-1.45 J0.033
X-1083.133 Y-176.286 Z15.837 I0.653 J-1.294
X-1080.86 Y-175.278 Z15.732 I0.834 J1.186
X-1083.738 Y-174.922 Z15.573 I-1.439 J0.178
X-1083.247 Y-176.196 Z15.523 I1.439 J-0.178
X-1080.885 Y-175.42 Z15.419 I0.949 J1.097
X-1082.682 Y-173.701 Z15.315 I-1.414 J0.32
X-1083.352 Y-176.096 Z15.21 I0.383 J-1.398
X-1080.924 Y-175.56 Z15.106 I1.053 J0.996
X-1082.541 Y-173.67 Z15.002 I-1.375 J0.46
X-1083.446 Y-175.986 Z14.897 I0.242 J-1.43
X-1080.977 Y-175.695 Z14.793 I1.148 J0.886
X-1082.397 Y-173.653 Z14.689 I-1.322 J0.595
X-1083.529 Y-175.867 Z14.584 I0.098 J-1.447
X-1081.069 Y-174.332 Z14.425 I1.23 J0.767
X-1082.252 Y-173.651 Z14.376 I-1.23 J-0.767
X-1083.6 Y-175.741 Z14.271 I-0.047 J-1.449
X-1081.121 Y-175.946 Z14.167 I1.301 J0.641
X-1082.107 Y-173.662 Z14.062 I-1.178 J0.846
X-1082.49 Y-176.537 Z13.903 I-0.192 J-1.437
X-1081.211 Y-176.059 Z13.854 I0.192 J1.437
X-1081.965 Y-173.689 Z13.749 I-1.087 J0.959
X-1082.633 Y-176.511 Z13.59 I-0.334 J-1.411
X-1081.313 Y-176.163 Z13.541 I0.334 J1.411
X-1081.826 Y-173.729 Z13.436 I-0.986 J1.063
X-1083.731 Y-175.328 Z13.332 I-0.473 J-1.371
X-1081.424 Y-176.256 Z13.228 I1.432 J0.228
X-1081.691 Y-173.783 Z13.123 I-0.875 J1.156
X-1083.746 Y-175.184 Z13.019 I-0.608 J-1.317
X-1081.543 Y-176.337 Z12.914 I1.448 J0.084
X-1083.054 Y-173.862 Z12.755 I-0.755 J1.238
X-1083.748 Y-175.039 Z12.706 I0.756 J-1.238
X-1081.671 Y-176.407 Z12.601 I1.449 J-0.061
X-1081.442 Y-173.93 Z12.497 I-0.628 J1.307
X-1083.734 Y-174.894 Z12.393 I-0.857 J-1.17
X-1081.804 Y-176.463 Z12.288 I1.435 J-0.205
X-1081.329 Y-174.022 Z12.184 I-0.495 J1.363
X-1083.268 Y-176.178 Z12.025 I-0.97 J-1.078
X-1081.943 Y-176.505 Z11.975 I0.97 J1.078
X-1081.227 Y-174.124 Z11.871 I-0.356 J1.406
X-1083.665 Y-174.613 Z11.766 I-1.072 J-0.976
X-1082.085 Y-176.534 Z11.662 I1.366 J-0.486
X-1081.134 Y-174.236 Z11.558 I-0.214 J1.434
X-1083.609 Y-174.479 Z11.453 I-1.164 J-0.864
X-1080.988 Y-175.72 Z11.294 I1.311 J-0.62
X-1083.541 Y-174.352 Z11.14 I-1.311 J0.62
X-1082.374 Y-176.548 Z11.036 I1.242 J-0.748
X-1080.986 Y-174.484 Z10.932 I0.075 J1.448
X-1083.46 Y-174.231 Z10.827 I-1.313 J-0.616
X-1082.518 Y-176.533 Z10.723 I1.161 J-0.868
X-1080.931 Y-174.618 Z10.618 I0.219 J1.433
X-1083.368 Y-174.12 Z10.514 I-1.368 J-0.481
X-1082.66 Y-176.504 Z10.41 I1.069 J-0.98
X-1080.89 Y-174.757 Z10.305 I0.361 J1.404
X-1083.265 Y-174.018 Z10.201 I-1.409 J-0.343
X-1082.798 Y-176.461 Z10.097 I0.966 J-1.082
X-1080.863 Y-174.9 Z9.992 I0.5 J1.361
X-1083.152 Y-173.927 Z9.888 I-1.436 J-0.2
X-1081.446 Y-176.272 Z9.729 I0.853 J-1.173
X-1080.85 Y-175.044 Z9.679 I-0.853 J1.173
X-1083.03 Y-173.848 Z9.575 I-1.449 J-0.056
X-1081.567 Y-176.352 Z9.416 I0.732 J-1.252
X-1082.902 Y-173.781 Z9.262 I-0.732 J1.252
X-1083.178 Y-176.253 Z9.157 I0.603 J-1.319
X-1081.419 Y-173.947 Z8.998 I0.88 J1.153
X-1083.289 Y-176.159 Z8.844 I-0.88 J-1.153
X-1080.898 Y-175.475 Z8.74 I0.99 J1.059
X-1082.628 Y-173.688 Z8.636 I-1.401 J0.375
X-1081.97 Y-176.512 Z8.476 I0.329 J-1.412
X-1080.943 Y-175.612 Z8.427 I-0.329 J1.412
X-1082.485 Y-173.662 Z8.322 I-1.356 J0.513
X-1083.48 Y-175.941 Z8.218 I0.186 J-1.438
X-1081 Y-175.745 Z8.114 I1.181 J0.842
X-1082.341 Y-173.65 Z8.009 I-1.298 J0.646
X-1083.558 Y-175.819 Z7.905 I0.042 J-1.449
X-1081.071 Y-175.872 Z7.801 I1.259 J0.719
X-1082.196 Y-173.653 Z7.696 I-1.227 J0.772
X-1083.623 Y-175.69 Z7.592 I-0.103 J-1.446
X-1081.155 Y-175.99 Z7.488 I1.324 J0.59
X-1082.052 Y-173.671 Z7.383 I-1.144 J0.891
X-1083.676 Y-175.555 Z7.279 I-0.247 J-1.429
X-1081.249 Y-176.1 Z7.174 I1.377 J0.455
X-1083.349 Y-174.099 Z7.015 I-1.05 J1
X-1081.354 Y-176.2 Z6.861 I1.05 J-1
X-1081.773 Y-173.748 Z6.757 I-0.945 J1.1
X-1082.825 Y-176.451 Z6.598 I-0.526 J-1.351
X-1081.773 Y-173.748 Z6.439 I0.526 J1.351
X-1083.749 Y-175.128 Z6.34 I-0.526 J-1.351
X-1080.849 Y-175.072 Z6.181 I1.45 J0.028
X-1083.744 Y-174.983 Z6.027 I-1.45 J-0.028
X-1080.854 Y-175.217 Z5.867 I1.445 J-0.117
X-1081.397 Y-173.964 Z5.818 I-1.445 J0.117
X-1083.2 Y-176.235 Z5.659 I-0.901 J-1.136
X-1081.857 Y-176.481 Z5.609 I0.902 J1.136
X-1081.288 Y-174.06 Z5.505 I-0.442 J1.381
X-1083.692 Y-174.698 Z5.4 I-1.01 J-1.04
X-1081.997 Y-176.518 Z5.296 I1.393 J-0.402
X-1082.6 Y-173.682 Z5.137 I-0.302 J1.418
X-1083.645 Y-174.561 Z5.087 I0.302 J-1.418
X-1082.14 Y-176.541 Z4.983 I1.346 J-0.539
X-1081.102 Y-174.281 Z4.879 I-0.159 J1.441
X-1083.585 Y-174.429 Z4.774 I-1.197 J-0.819
X-1082.285 Y-176.55 Z4.67 I1.286 J-0.67
X-1081.026 Y-174.405 Z4.565 I-0.014 J1.45
X-1083.571 Y-175.795 Z4.406 I-1.273 J-0.695
X-1080.963 Y-174.535 Z4.252 I1.273 J0.695
X-1083.426 Y-174.187 Z4.148 I-1.336 J-0.565
X-1082.573 Y-176.524 Z4.044 I1.127 J-0.912
X-1080.914 Y-174.671 Z3.939 I0.274 J1.424
X-1083.329 Y-174.079 Z3.835 I-1.385 J-0.428
X-1082.714 Y-176.489 Z3.731 I1.03 J-1.02
X-1080.878 Y-174.812 Z3.626 I0.415 J1.389
X-1083.222 Y-173.982 Z3.522 I-1.421 J-0.288
X-1081.376 Y-176.218 Z3.363 I0.923 J-1.118
X-1083.222 Y-173.982 Z3.204 I-0.923 J1.118
X-1082.982 Y-176.379 Z3.104 I0.923 J-1.118
X-1080.849 Y-175.1 Z3 I0.683 J1.279
X-1082.636 Y-173.69 I-1.45
X-1083.592 Y-175.757 I0.338 J-1.41
X-1081.642 Y-176.393 I1.293 J0.657
X-1080.849 Y-175.1 I-0.657 J1.293
G1 X-1080.848 Y-175.034 F850
X-1080.851 Y-174.968
X-1080.858 Y-174.903
X-1080.882 Y-174.74
X-1080.908 Y-174.647
X-1080.954 Y-174.539
X-1081.049 Y-174.337
X-1081.076 Y-174.293
X-1081.109 Y-174.25
X-1081.207 Y-174.136
X-1081.311 Y-174.021
X-1081.366 Y-173.973
X-1081.422 Y-173.935
X-1081.613 Y-173.812
X-1081.713 Y-173.76
X-1081.794 Y-173.733
X-1082.015 Y-173.668
X-1082.116 Y-173.649
X-1082.318 Y-173.646
X-1082.519 Y-173.654
X-1082.72 Y-173.708
X-1082.806 Y-173.733
X-1082.922 Y-173.777
X-1083.123 Y-173.899
X-1083.178 Y-173.935
X-1083.251 Y-173.987
X-1083.324 Y-174.057
X-1083.393 Y-174.136
X-1083.526 Y-174.296
X-1083.551 Y-174.337
X-1083.646 Y-174.539
X-1083.689 Y-174.639
X-1083.718 Y-174.74
X-1083.727 Y-174.799
X-1083.747 Y-174.941
X-1083.761 Y-175.042
X-1083.762 Y-175.143
X-1083.727 Y-175.401
X-1083.715 Y-175.473
X-1083.695 Y-175.545
X-1083.607 Y-175.747
X-1083.526 Y-175.903
X-1083.493 Y-175.948
X-1083.318 Y-176.149
X-1083.269 Y-176.197
X-1083.221 Y-176.237
X-1083.123 Y-176.301
X-1083.045 Y-176.351
X-1082.922 Y-176.424
X-1082.72 Y-176.492
X-1082.519 Y-176.546
X-1082.468 Y-176.552
X-1082.318 Y-176.554
X-1082.133 Y-176.552
X-1082.116 Y-176.551
X-1082.015 Y-176.532
X-1081.915 Y-176.502
X-1081.713 Y-176.44
X-1081.634 Y-176.401
X-1081.411 Y-176.259
X-1081.361 Y-176.223
X-1081.311 Y-176.18
X-1081.282 Y-176.149
X-1081.108 Y-175.948
X-1081.041 Y-175.847
X-1080.993 Y-175.747
X-1080.908 Y-175.554
X-1080.905 Y-175.545
X-1080.879 Y-175.445
X-1080.865 Y-175.344
X-1080.838 Y-175.143
X-1080.839 Y-175.042
X-1080.858 Y-174.903
G3 X-1080.944 Y-174.685 I-0.59 J-0.107
G1 X-1080.995 Y-174.606 Z3.007
X-1081.044 Y-174.529 Z3.029
X-1081.092 Y-174.456 Z3.065
X-1081.135 Y-174.388 Z3.115
X-1081.174 Y-174.328 Z3.176
X-1081.207 Y-174.277 Z3.247
X-1081.234 Y-174.236 Z3.328
X-1081.253 Y-174.205 Z3.415
X-1081.265 Y-174.187 Z3.506
X-1081.269 Y-174.181 Z3.6
G0 Z30

(2D Adaptive5 2)
M9
X-1006.265 Y-174.083
Z30
Z20
Z19.15
G1 Z18.55 F850
G3 X-1008.682 Y-174.666 Z18.446 I-1.034 J-1.017 F283.3
X-1007.03 Y-176.525 Z18.341 I1.384 J-0.433
X-1006.169 Y-174.191 Z18.237 I-0.269 J1.425
X-1008.632 Y-174.53 Z18.133 I-1.13 J-0.908
X-1007.173 Y-176.544 Z18.028 I1.333 J-0.569
X-1006.084 Y-174.309 Z17.924 I-0.126 J1.445
X-1008.569 Y-174.4 Z17.819 I-1.215 J-0.791
X-1007.318 Y-176.55 Z17.715 I1.27 J-0.7
X-1006.011 Y-174.434 Z17.611 I0.019 J1.45
X-1008.493 Y-174.277 Z17.506 I-1.288 J-0.666
X-1006.105 Y-175.923 Z17.347 I1.194 J-0.823
X-1008.405 Y-174.162 Z17.193 I-1.194 J0.823
X-1007.606 Y-176.517 Z17.089 I1.106 J-0.938
X-1005.904 Y-174.703 Z16.985 I0.307 J1.417
X-1008.305 Y-174.056 Z16.88 I-1.395 J-0.397
X-1007.746 Y-176.479 Z16.776 I1.007 J-1.044
X-1005.871 Y-174.844 Z16.671 I0.447 J1.379
X-1008.726 Y-175.355 Z16.512 I-1.427 J-0.255
X-1007.881 Y-176.428 Z16.463 I1.427 J0.255
X-1005.853 Y-174.988 Z16.358 I0.582 J1.328
X-1008.078 Y-173.877 Z16.254 I-1.446 J-0.112
X-1008.011 Y-176.363 Z16.15 I0.779 J-1.223
X-1005.849 Y-175.133 Z16.045 I0.712 J1.263
X-1007.952 Y-173.805 Z15.941 I-1.45 J0.033
X-1008.133 Y-176.286 Z15.837 I0.653 J-1.294
X-1005.86 Y-175.278 Z15.732 I0.834 J1.186
X-1008.738 Y-174.922 Z15.573 I-1.439 J0.178
X-1008.247 Y-176.196 Z15.523 I1.439 J-0.178
X-1005.885 Y-175.42 Z15.419 I0.949 J1.097
X-1007.682 Y-173.701 Z15.315 I-1.414 J0.32
X-1008.352 Y-176.096 Z15.21 I0.383 J-1.398
X-1005.924 Y-175.56 Z15.106 I1.053 J0.996
X-1007.541 Y-173.67 Z15.002 I-1.375 J0.46
X-1008.446 Y-175.986 Z14.897 I0.242 J-1.43
X-1005.977 Y-175.695 Z14.793 I1.148 J0.886
X-1007.397 Y-173.653 Z14.689 I-1.322 J0.595
X-1008.529 Y-175.867 Z14.584 I0.098 J-1.447
X-1006.069 Y-174.332 Z14.425 I1.23 J0.767
X-1007.252 Y-173.651 Z14.376 I-1.23 J-0.767
X-1008.6 Y-175.741 Z14.271 I-0.047 J-1.449
X-1006.121 Y-175.946 Z14.167 I1.301 J0.641
X-1007.107 Y-173.662 Z14.062 I-1.178 J0.846
X-1007.49 Y-176.537 Z13.903 I-0.192 J-1.437
X-1006.211 Y-176.059 Z13.854 I0.192 J1.437
X-1006.965 Y-173.689 Z13.749 I-1.087 J0.959
X-1007.633 Y-176.511 Z13.59 I-0.334 J-1.411
X-1006.313 Y-176.163 Z13.541 I0.334 J1.411
X-1006.826 Y-173.729 Z13.436 I-0.986 J1.063
X-1008.731 Y-175.328 Z13.332 I-0.473 J-1.371
X-1006.424 Y-176.256 Z13.228 I1.432 J0.228
X-1006.691 Y-173.783 Z13.123 I-0.875 J1.156
X-1008.746 Y-175.184 Z13.019 I-0.608 J-1.317
X-1006.543 Y-176.337 Z12.914 I1.448 J0.084
X-1008.054 Y-173.862 Z12.755 I-0.755 J1.238
X-1008.748 Y-175.039 Z12.706 I0.756 J-1.238
X-1006.671 Y-176.407 Z12.601 I1.449 J-0.061
X-1006.442 Y-173.93 Z12.497 I-0.628 J1.307
X-1008.734 Y-174.894 Z12.393 I-0.857 J-1.17
X-1006.804 Y-176.463 Z12.288 I1.435 J-0.205
X-1006.329 Y-174.022 Z12.184 I-0.495 J1.363
X-1008.268 Y-176.178 Z12.025 I-0.97 J-1.078
X-1006.943 Y-176.505 Z11.975 I0.97 J1.078
X-1006.227 Y-174.124 Z11.871 I-0.356 J1.406
X-1008.665 Y-174.613 Z11.766 I-1.072 J-0.976
X-1007.085 Y-176.534 Z11.662 I1.366 J-0.486
X-1006.134 Y-174.236 Z11.558 I-0.214 J1.434
X-1008.609 Y-174.479 Z11.453 I-1.164 J-0.864
X-1005.988 Y-175.72 Z11.294 I1.311 J-0.62
X-1008.541 Y-174.352 Z11.14 I-1.311 J0.62
X-1007.374 Y-176.548 Z11.036 I1.242 J-0.748
X-1005.986 Y-174.484 Z10.932 I0.075 J1.448
X-1008.46 Y-174.231 Z10.827 I-1.313 J-0.616
X-1007.518 Y-176.533 Z10.723 I1.161 J-0.868
X-1005.931 Y-174.618 Z10.618 I0.219 J1.433
X-1008.368 Y-174.12 Z10.514 I-1.368 J-0.481
X-1007.66 Y-176.504 Z10.41 I1.069 J-0.98
X-1005.89 Y-174.757 Z10.305 I0.361 J1.404
X-1008.265 Y-174.018 Z10.201 I-1.409 J-0.343
X-1007.798 Y-176.461 Z10.097 I0.966 J-1.082
X-1005.863 Y-174.9 Z9.992 I0.5 J1.361
X-1008.152 Y-173.927 Z9.888 I-1.436 J-0.2
X-1006.446 Y-176.272 Z9.729 I0.853 J-1.173
X-1005.85 Y-175.044 Z9.679 I-0.853 J1.173
X-1008.03 Y-173.848 Z9.575 I-1.449 J-0.056
X-1006.567 Y-176.352 Z9.416 I0.732 J-1.252
X-1007.902 Y-173.781 Z9.262 I-0.732 J1.252
X-1008.178 Y-176.253 Z9.157 I0.603 J-1.319
X-1006.419 Y-173.947 Z8.998 I0.88 J1.153
X-1008.289 Y-176.159 Z8.844 I-0.88 J-1.153
X-1005.898 Y-175.475 Z8.74 I0.99 J1.059
X-1007.628 Y-173.688 Z8.636 I-1.401 J0.375
X-1006.97 Y-176.512 Z8.476 I0.329 J-1.412
X-1005.943 Y-175.612 Z8.427 I-0.329 J1.412
X-1007.485 Y-173.662 Z8.322 I-1.356 J0.513
X-1008.48 Y-175.941 Z8.218 I0.186 J-1.438
X-1006 Y-175.745 Z8.114 I1.181 J0.842
X-1007.341 Y-173.65 Z8.009 I-1.298 J0.646
X-1008.558 Y-175.819 Z7.905 I0.042 J-1.449
X-1006.071 Y-175.872 Z7.801 I1.259 J0.719
X-1007.196 Y-173.653 Z7.696 I-1.227 J0.772
X-1008.623 Y-175.69 Z7.592 I-0.103 J-1.446
X-1006.155 Y-175.99 Z7.488 I1.324 J0.59
X-1007.052 Y-173.671 Z7.383 I-1.144 J0.891
X-1008.676 Y-175.555 Z7.279 I-0.247 J-1.429
X-1006.249 Y-176.1 Z7.174 I1.377 J0.455
X-1008.349 Y-174.099 Z7.015 I-1.05 J1
X-1006.354 Y-176.2 Z6.861 I1.05 J-1
X-1006.773 Y-173.748 Z6.757 I-0.945 J1.1
X-1007.825 Y-176.451 Z6.598 I-0.526 J-1.351
X-1006.773 Y-173.748 Z6.439 I0.526 J1.351
X-1008.749 Y-175.128 Z6.34 I-0.526 J-1.351
X-1005.849 Y-175.072 Z6.181 I1.45 J0.028
X-1008.744 Y-174.983 Z6.027 I-1.45 J-0.028
X-1005.854 Y-175.217 Z5.867 I1.445 J-0.117
X-1006.397 Y-173.964 Z5.818 I-1.445 J0.117
X-1008.2 Y-176.235 Z5.659 I-0.901 J-1.136
X-1006.857 Y-176.481 Z5.609 I0.902 J1.136
X-1006.288 Y-174.06 Z5.505 I-0.442 J1.381
X-1008.692 Y-174.698 Z5.4 I-1.01 J-1.04
X-1006.997 Y-176.518 Z5.296 I1.393 J-0.402
X-1007.6 Y-173.682 Z5.137 I-0.302 J1.418
X-1008.645 Y-174.561 Z5.087 I0.302 J-1.418
X-1007.14 Y-176.541 Z4.983 I1.346 J-0.539
X-1006.102 Y-174.281 Z4.879 I-0.159 J1.441
X-1008.585 Y-174.429 Z4.774 I-1.197 J-0.819
X-1007.285 Y-176.55 Z4.67 I1.286 J-0.67
X-1006.026 Y-174.405 Z4.565 I-0.014 J1.45
X-1008.571 Y-175.795 Z4.406 I-1.273 J-0.695
X-1005.963 Y-174.535 Z4.252 I1.273 J0.695
X-1008.426 Y-174.187 Z4.148 I-1.336 J-0.565
X-1007.573 Y-176.524 Z4.044 I1.127 J-0.912
X-1005.914 Y-174.671 Z3.939 I0.274 J1.424
X-1008.329 Y-174.079 Z3.835 I-1.385 J-0.428
X-1007.714 Y-176.489 Z3.731 I1.03 J-1.02
X-1005.878 Y-174.812 Z3.626 I0.415 J1.389
X-1008.222 Y-173.982 Z3.522 I-1.421 J-0.288
X-1006.376 Y-176.218 Z3.363 I0.923 J-1.118
X-1008.222 Y-173.982 Z3.204 I-0.923 J1.118
X-1007.982 Y-176.379 Z3.104 I0.923 J-1.118
X-1005.849 Y-175.1 Z3 I0.683 J1.279
X-1007.636 Y-173.69 I-1.45
X-1008.592 Y-175.757 I0.338 J-1.41
X-1006.642 Y-176.393 I1.293 J0.657
X-1005.849 Y-175.1 I-0.657 J1.293
G1 X-1005.848 Y-175.034 F850
X-1005.851 Y-174.968
X-1005.858 Y-174.903
X-1005.882 Y-174.74
X-1005.908 Y-174.647
X-1005.954 Y-174.539
X-1006.049 Y-174.337
X-1006.076 Y-174.293
X-1006.109 Y-174.25
X-1006.207 Y-174.136
X-1006.311 Y-174.021
X-1006.366 Y-173.973
X-1006.422 Y-173.935
X-1006.613 Y-173.812
X-1006.713 Y-173.76
X-1006.794 Y-173.733
X-1007.015 Y-173.668
X-1007.116 Y-173.649
X-1007.318 Y-173.646
X-1007.519 Y-173.654
X-1007.72 Y-173.708
X-1007.806 Y-173.733
X-1007.922 Y-173.777
X-1008.123 Y-173.899
X-1008.178 Y-173.935
X-1008.251 Y-173.987
X-1008.324 Y-174.057
X-1008.393 Y-174.136
X-1008.526 Y-174.296
X-1008.551 Y-174.337
X-1008.646 Y-174.539
X-1008.689 Y-174.639
X-1008.718 Y-174.74
X-1008.727 Y-174.799
X-1008.747 Y-174.941
X-1008.761 Y-175.042
X-1008.762 Y-175.143
X-1008.727 Y-175.401
X-1008.715 Y-175.473
X-1008.695 Y-175.545
X-1008.607 Y-175.747
X-1008.526 Y-175.903
X-1008.493 Y-175.948
X-1008.318 Y-176.149
X-1008.269 Y-176.197
X-1008.221 Y-176.237
X-1008.123 Y-176.301
X-1008.045 Y-176.351
X-1007.922 Y-176.424
X-1007.72 Y-176.492
X-1007.519 Y-176.546
X-1007.468 Y-176.552
X-1007.318 Y-176.554
X-1007.133 Y-176.552
X-1007.116 Y-176.551
X-1007.015 Y-176.532
X-1006.915 Y-176.502
X-1006.713 Y-176.44
X-1006.634 Y-176.401
X-1006.411 Y-176.259
X-1006.361 Y-176.223
X-1006.311 Y-176.18
X-1006.282 Y-176.149
X-1006.108 Y-175.948
X-1006.041 Y-175.847
X-1005.993 Y-175.747
X-1005.908 Y-175.554
X-1005.905 Y-175.545
X-1005.879 Y-175.445
X-1005.865 Y-175.344
X-1005.838 Y-175.143
X-1005.839 Y-175.042
X-1005.858 Y-174.903
G3 X-1005.944 Y-174.685 I-0.59 J-0.107
G1 X-1005.995 Y-174.606 Z3.007
X-1006.044 Y-174.529 Z3.029
X-1006.092 Y-174.456 Z3.065
X-1006.135 Y-174.388 Z3.115
X-1006.174 Y-174.328 Z3.176
X-1006.207 Y-174.277 Z3.247
X-1006.234 Y-174.236 Z3.328
X-1006.253 Y-174.205 Z3.415
X-1006.265 Y-174.187 Z3.506
X-1006.269 Y-174.181 Z3.6
G0 Z30

(2D Adaptive5 2)
M9
X-931.265 Y-174.083
Z30
Z20
Z19.15
G1 Z18.55 F850
G3 X-933.682 Y-174.666 Z18.446 I-1.034 J-1.017 F283.3
X-932.03 Y-176.525 Z18.341 I1.384 J-0.433
X-931.169 Y-174.191 Z18.237 I-0.269 J1.425
X-933.632 Y-174.53 Z18.133 I-1.13 J-0.908
X-932.173 Y-176.544 Z18.028 I1.333 J-0.569
X-931.084 Y-174.309 Z17.924 I-0.126 J1.445
X-933.569 Y-174.4 Z17.819 I-1.215 J-0.791
X-932.318 Y-176.55 Z17.715 I1.27 J-0.7
X-931.011 Y-174.434 Z17.611 I0.019 J1.45
X-933.493 Y-174.277 Z17.506 I-1.288 J-0.666
X-931.105 Y-175.923 Z17.347 I1.194 J-0.823
X-933.405 Y-174.162 Z17.193 I-1.194 J0.823
X-932.606 Y-176.517 Z17.089 I1.106 J-0.938
X-930.904 Y-174.703 Z16.985 I0.307 J1.417
X-933.305 Y-174.056 Z16.88 I-1.395 J-0.397
X-932.746 Y-176.479 Z16.776 I1.007 J-1.044
X-930.871 Y-174.844 Z16.671 I0.447 J1.379
X-933.726 Y-175.355 Z16.512 I-1.427 J-0.255
X-932.881 Y-176.428 Z16.463 I1.427 J0.255
X-930.853 Y-174.988 Z16.358 I0.582 J1.328
X-933.078 Y-173.877 Z16.254 I-1.446 J-0.112
X-933.011 Y-176.363 Z16.15 I0.779 J-1.223
X-930.849 Y-175.133 Z16.045 I0.712 J1.263
X-932.952 Y-173.805 Z15.941 I-1.45 J0.033
X-933.133 Y-176.286 Z15.837 I0.653 J-1.294
X-930.86 Y-175.278 Z15.732 I0.834 J1.186
X-933.738 Y-174.922 Z15.573 I-1.439 J0.178
X-933.247 Y-176.196 Z15.523 I1.439 J-0.178
X-930.885 Y-175.42 Z15.419 I0.949 J1.097
X-932.682 Y-173.701 Z15.315 I-1.414 J0.32
X-933.352 Y-176.096 Z15.21 I0.383 J-1.398
X-930.924 Y-175.56 Z15.106 I1.053 J0.996
X-932.541 Y-173.67 Z15.002 I-1.375 J0.46
X-933.446 Y-175.986 Z14.897 I0.242 J-1.43
X-930.977 Y-175.695 Z14.793 I1.148 J0.886
X-932.397 Y-173.653 Z14.689 I-1.322 J0.595
X-933.529 Y-175.867 Z14.584 I0.098 J-1.447
X-931.069 Y-174.332 Z14.425 I1.23 J0.767
X-932.252 Y-173.651 Z14.376 I-1.23 J-0.767
X-933.6 Y-175.741 Z14.271 I-0.047 J-1.449
X-931.121 Y-175.946 Z14.167 I1.301 J0.641
X-932.107 Y-173.662 Z14.062 I-1.178 J0.846
X-932.49 Y-176.537 Z13.903 I-0.192 J-1.437
X-931.211 Y-176.059 Z13.854 I0.192 J1.437
X-931.965 Y-173.689 Z13.749 I-1.087 J0.959
X-932.633 Y-176.511 Z13.59 I-0.334 J-1.411
X-931.313 Y-176.163 Z13.541 I0.334 J1.411
X-931.826 Y-173.729 Z13.436 I-0.986 J1.063
X-933.731 Y-175.328 Z13.332 I-0.473 J-1.371
X-931.424 Y-176.256 Z13.228 I1.432 J0.228
X-931.691 Y-173.783 Z13.123 I-0.875 J1.156
X-933.746 Y-175.184 Z13.019 I-0.608 J-1.317
X-931.543 Y-176.337 Z12.914 I1.448 J0.084
X-933.054 Y-173.862 Z12.755 I-0.755 J1.238
X-933.748 Y-175.039 Z12.706 I0.756 J-1.238
X-931.671 Y-176.407 Z12.601 I1.449 J-0.061
X-931.442 Y-173.93 Z12.497 I-0.628 J1.307
X-933.734 Y-174.894 Z12.393 I-0.857 J-1.17
X-931.804 Y-176.463 Z12.288 I1.435 J-0.205
X-931.329 Y-174.022 Z12.184 I-0.495 J1.363
X-933.268 Y-176.178 Z12.025 I-0.97 J-1.078
X-931.943 Y-176.505 Z11.975 I0.97 J1.078
X-931.227 Y-174.124 Z11.871 I-0.356 J1.406
X-933.665 Y-174.613 Z11.766 I-1.072 J-0.976
X-932.085 Y-176.534 Z11.662 I1.366 J-0.486
X-931.134 Y-174.236 Z11.558 I-0.214 J1.434
X-933.609 Y-174.479 Z11.453 I-1.164 J-0.864
X-930.988 Y-175.72 Z11.294 I1.311 J-0.62
X-933.541 Y-174.352 Z11.14 I-1.311 J0.62
X-932.374 Y-176.548 Z11.036 I1.242 J-0.748
X-930.986 Y-174.484 Z10.932 I0.075 J1.448
X-933.46 Y-174.231 Z10.827 I-1.313 J-0.616
X-932.518 Y-176.533 Z10.723 I1.161 J-0.868
X-930.931 Y-174.618 Z10.618 I0.219 J1.433
X-933.368 Y-174.12 Z10.514 I-1.368 J-0.481
X-932.66 Y-176.504 Z10.41 I1.069 J-0.98
X-930.89 Y-174.757 Z10.305 I0.361 J1.404
X-933.265 Y-174.018 Z10.201 I-1.409 J-0.343
X-932.798 Y-176.461 Z10.097 I0.966 J-1.082
X-930.863 Y-174.9 Z9.992 I0.5 J1.361
X-933.152 Y-173.927 Z9.888 I-1.436 J-0.2
X-931.446 Y-176.272 Z9.729 I0.853 J-1.173
X-930.85 Y-175.044 Z9.679 I-0.853 J1.173
X-933.03 Y-173.848 Z9.575 I-1.449 J-0.056
X-931.567 Y-176.352 Z9.416 I0.732 J-1.252
X-932.902 Y-173.781 Z9.262 I-0.732 J1.252
X-933.178 Y-176.253 Z9.157 I0.603 J-1.319
X-931.419 Y-173.947 Z8.998 I0.88 J1.153
X-933.289 Y-176.159 Z8.844 I-0.88 J-1.153
X-930.898 Y-175.475 Z8.74 I0.99 J1.059
X-932.628 Y-173.688 Z8.636 I-1.401 J0.375
X-931.97 Y-176.512 Z8.476 I0.329 J-1.412
X-930.943 Y-175.612 Z8.427 I-0.329 J1.412
X-932.485 Y-173.662 Z8.322 I-1.356 J0.513
X-933.48 Y-175.941 Z8.218 I0.186 J-1.438
X-931 Y-175.745 Z8.114 I1.181 J0.842
X-932.341 Y-173.65 Z8.009 I-1.298 J0.646
X-933.558 Y-175.819 Z7.905 I0.042 J-1.449
X-931.071 Y-175.872 Z7.801 I1.259 J0.719
X-932.196 Y-173.653 Z7.696 I-1.227 J0.772
X-933.623 Y-175.69 Z7.592 I-0.103 J-1.446
X-931.155 Y-175.99 Z7.488 I1.324 J0.59
X-932.052 Y-173.671 Z7.383 I-1.144 J0.891
X-933.676 Y-175.555 Z7.279 I-0.247 J-1.429
X-931.249 Y-176.1 Z7.174 I1.377 J0.455
X-933.349 Y-174.099 Z7.015 I-1.05 J1
X-931.354 Y-176.2 Z6.861 I1.05 J-1
X-931.773 Y-173.748 Z6.757 I-0.945 J1.1
X-932.825 Y-176.451 Z6.598 I-0.526 J-1.351
X-931.773 Y-173.748 Z6.439 I0.526 J1.351
X-933.749 Y-175.128 Z6.34 I-0.526 J-1.351
X-930.849 Y-175.072 Z6.181 I1.45 J0.028
X-933.744 Y-174.983 Z6.027 I-1.45 J-0.028
X-930.854 Y-175.217 Z5.867 I1.445 J-0.117
X-931.397 Y-173.964 Z5.818 I-1.445 J0.117
X-933.2 Y-176.235 Z5.659 I-0.901 J-1.136
X-931.857 Y-176.481 Z5.609 I0.902 J1.136
X-931.288 Y-174.06 Z5.505 I-0.442 J1.381
X-933.692 Y-174.698 Z5.4 I-1.01 J-1.04
X-931.997 Y-176.518 Z5.296 I1.393 J-0.402
X-932.6 Y-173.682 Z5.137 I-0.302 J1.418
X-933.645 Y-174.561 Z5.087 I0.302 J-1.418
X-932.14 Y-176.541 Z4.983 I1.346 J-0.539
X-931.102 Y-174.281 Z4.879 I-0.159 J1.441
X-933.585 Y-174.429 Z4.774 I-1.197 J-0.819
X-932.285 Y-176.55 Z4.67 I1.286 J-0.67
X-931.026 Y-174.405 Z4.565 I-0.014 J1.45
X-933.571 Y-175.795 Z4.406 I-1.273 J-0.695
X-930.963 Y-174.535 Z4.252 I1.273 J0.695
X-933.426 Y-174.187 Z4.148 I-1.336 J-0.565
X-932.573 Y-176.524 Z4.044 I1.127 J-0.912
X-930.914 Y-174.671 Z3.939 I0.274 J1.424
X-933.329 Y-174.079 Z3.835 I-1.385 J-0.428
X-932.714 Y-176.489 Z3.731 I1.03 J-1.02
X-930.878 Y-174.812 Z3.626 I0.415 J1.389
X-933.222 Y-173.982 Z3.522 I-1.421 J-0.288
X-931.376 Y-176.218 Z3.363 I0.923 J-1.118
X-933.222 Y-173.982 Z3.204 I-0.923 J1.118
X-932.982 Y-176.379 Z3.104 I0.923 J-1.118
X-930.849 Y-175.1 Z3 I0.683 J1.279
X-932.636 Y-173.69 I-1.45
X-933.592 Y-175.757 I0.338 J-1.41
X-931.642 Y-176.393 I1.293 J0.657
X-930.849 Y-175.1 I-0.657 J1.293
G1 X-930.848 Y-175.034 F850
X-930.851 Y-174.968
X-930.858 Y-174.903
X-930.882 Y-174.74
X-930.908 Y-174.647
X-930.954 Y-174.539
X-931.049 Y-174.337
X-931.076 Y-174.293
X-931.109 Y-174.25
X-931.207 Y-174.136
X-931.311 Y-174.021
X-931.366 Y-173.973
X-931.422 Y-173.935
X-931.613 Y-173.812
X-931.713 Y-173.76
X-931.794 Y-173.733
X-932.015 Y-173.668
X-932.116 Y-173.649
X-932.318 Y-173.646
X-932.519 Y-173.654
X-932.72 Y-173.708
X-932.806 Y-173.733
X-932.922 Y-173.777
X-933.123 Y-173.899
X-933.178 Y-173.935
X-933.251 Y-173.987
X-933.324 Y-174.057
X-933.393 Y-174.136
X-933.526 Y-174.296
X-933.551 Y-174.337
X-933.646 Y-174.539
X-933.689 Y-174.639
X-933.718 Y-174.74
X-933.727 Y-174.799
X-933.747 Y-174.941
X-933.761 Y-175.042
X-933.762 Y-175.143
X-933.727 Y-175.401
X-933.715 Y-175.473
X-933.695 Y-175.545
X-933.607 Y-175.747
X-933.526 Y-175.903
X-933.493 Y-175.948
X-933.318 Y-176.149
X-933.269 Y-176.197
X-933.221 Y-176.237
X-933.123 Y-176.301
X-933.045 Y-176.351
X-932.922 Y-176.424
X-932.72 Y-176.492
X-932.519 Y-176.546
X-932.468 Y-176.552
X-932.318 Y-176.554
X-932.133 Y-176.552
X-932.116 Y-176.551
X-932.015 Y-176.532
X-931.915 Y-176.502
X-931.713 Y-176.44
X-931.634 Y-176.401
X-931.411 Y-176.259
X-931.361 Y-176.223
X-931.311 Y-176.18
X-931.282 Y-176.149
X-931.108 Y-175.948
X-931.041 Y-175.847
X-930.993 Y-175.747
X-930.908 Y-175.554
X-930.905 Y-175.545
X-930.879 Y-175.445
X-930.865 Y-175.344
X-930.838 Y-175.143
X-930.839 Y-175.042
X-930.858 Y-174.903
G3 X-930.944 Y-174.685 I-0.59 J-0.107
G1 X-930.995 Y-174.606 Z3.007
X-931.044 Y-174.529 Z3.029
X-931.092 Y-174.456 Z3.065
X-931.135 Y-174.388 Z3.115
X-931.174 Y-174.328 Z3.176
X-931.207 Y-174.277 Z3.247
X-931.234 Y-174.236 Z3.328
X-931.253 Y-174.205 Z3.415
X-931.265 Y-174.187 Z3.506
X-931.269 Y-174.181 Z3.6
G0 Z30

(2D Adaptive5 2)
M9
X-856.265 Y-174.083
Z30
Z20
Z19.15
G1 Z18.55 F850
G3 X-858.682 Y-174.666 Z18.446 I-1.034 J-1.017 F283.3
X-857.03 Y-176.525 Z18.341 I1.384 J-0.433
X-856.169 Y-174.191 Z18.237 I-0.269 J1.425
X-858.632 Y-174.53 Z18.133 I-1.13 J-0.908
X-857.173 Y-176.544 Z18.028 I1.333 J-0.569
X-856.084 Y-174.309 Z17.924 I-0.126 J1.445
X-858.569 Y-174.4 Z17.819 I-1.215 J-0.791
X-857.318 Y-176.55 Z17.715 I1.27 J-0.7
X-856.011 Y-174.434 Z17.611 I0.019 J1.45
X-858.493 Y-174.277 Z17.506 I-1.288 J-0.666
X-856.105 Y-175.923 Z17.347 I1.194 J-0.823
X-858.405 Y-174.162 Z17.193 I-1.194 J0.823
X-857.606 Y-176.517 Z17.089 I1.106 J-0.938
X-855.904 Y-174.703 Z16.985 I0.307 J1.417
X-858.305 Y-174.056 Z16.88 I-1.395 J-0.397
X-857.746 Y-176.479 Z16.776 I1.007 J-1.044
X-855.871 Y-174.844 Z16.671 I0.447 J1.379
X-858.726 Y-175.355 Z16.512 I-1.427 J-0.255
X-857.881 Y-176.428 Z16.463 I1.427 J0.255
X-855.853 Y-174.988 Z16.358 I0.582 J1.328
X-858.078 Y-173.877 Z16.254 I-1.446 J-0.112
X-858.011 Y-176.363 Z16.15 I0.779 J-1.223
X-855.849 Y-175.133 Z16.045 I0.712 J1.263
X-857.952 Y-173.805 Z15.941 I-1.45 J0.033
X-858.133 Y-176.286 Z15.837 I0.653 J-1.294
X-855.86 Y-175.278 Z15.732 I0.834 J1.186
X-858.738 Y-174.922 Z15.573 I-1.439 J0.178
X-858.247 Y-176.196 Z15.523 I1.439 J-0.178
X-855.885 Y-175.42 Z15.419 I0.949 J1.097
X-857.682 Y-173.701 Z15.315 I-1.414 J0.32
X-858.352 Y-176.096 Z15.21 I0.383 J-1.398
X-855.924 Y-175.56 Z15.106 I1.053 J0.996
X-857.541 Y-173.67 Z15.002 I-1.375 J0.46
X-858.446 Y-175.986 Z14.897 I0.242 J-1.43
X-855.977 Y-175.695 Z14.793 I1.148 J0.886
X-857.397 Y-173.653 Z14.689 I-1.322 J0.595
X-858.529 Y-175.867 Z14.584 I0.098 J-1.447
X-856.069 Y-174.332 Z14.425 I1.23 J0.767
X-857.252 Y-173.651 Z14.376 I-1.23 J-0.767
X-858.6 Y-175.741 Z14.271 I-0.047 J-1.449
X-856.121 Y-175.946 Z14.167 I1.301 J0.641
X-857.107 Y-173.662 Z14.062 I-1.178 J0.846
X-857.49 Y-176.537 Z13.903 I-0.192 J-1.437
X-856.211 Y-176.059 Z13.854 I0.192 J1.437
X-856.965 Y-173.689 Z13.749 I-1.087 J0.959
X-857.633 Y-176.511 Z13.59 I-0.334 J-1.411
X-856.313 Y-176.163 Z13.541 I0.334 J1.411
X-856.826 Y-173.729 Z13.436 I-0.986 J1.063
X-858.731 Y-175.328 Z13.332 I-0.473 J-1.371
X-856.424 Y-176.256 Z13.228 I1.432 J0.228
X-856.691 Y-173.783 Z13.123 I-0.875 J1.156
X-858.746 Y-175.184 Z13.019 I-0.608 J-1.317
X-856.543 Y-176.337 Z12.914 I1.448 J0.084
X-858.054 Y-173.862 Z12.755 I-0.755 J1.238
X-858.748 Y-175.039 Z12.706 I0.756 J-1.238
X-856.671 Y-176.407 Z12.601 I1.449 J-0.061
X-856.442 Y-173.93 Z12.497 I-0.628 J1.307
X-858.734 Y-174.894 Z12.393 I-0.857 J-1.17
X-856.804 Y-176.463 Z12.288 I1.435 J-0.205
X-856.329 Y-174.022 Z12.184 I-0.495 J1.363
X-858.268 Y-176.178 Z12.025 I-0.97 J-1.078
X-856.943 Y-176.505 Z11.975 I0.97 J1.078
X-856.227 Y-174.124 Z11.871 I-0.356 J1.406
X-858.665 Y-174.613 Z11.766 I-1.072 J-0.976
X-857.085 Y-176.534 Z11.662 I1.366 J-0.486
X-856.134 Y-174.236 Z11.558 I-0.214 J1.434
X-858.609 Y-174.479 Z11.453 I-1.164 J-0.864
X-855.988 Y-175.72 Z11.294 I1.311 J-0.62
X-858.541 Y-174.352 Z11.14 I-1.311 J0.62
X-857.374 Y-176.548 Z11.036 I1.242 J-0.748
X-855.986 Y-174.484 Z10.932 I0.075 J1.448
X-858.46 Y-174.231 Z10.827 I-1.313 J-0.616
X-857.518 Y-176.533 Z10.723 I1.161 J-0.868
X-855.931 Y-174.618 Z10.618 I0.219 J1.433
X-858.368 Y-174.12 Z10.514 I-1.368 J-0.481
X-857.66 Y-176.504 Z10.41 I1.069 J-0.98
X-855.89 Y-174.757 Z10.305 I0.361 J1.404
X-858.265 Y-174.018 Z10.201 I-1.409 J-0.343
X-857.798 Y-176.461 Z10.097 I0.966 J-1.082
X-855.863 Y-174.9 Z9.992 I0.5 J1.361
X-858.152 Y-173.927 Z9.888 I-1.436 J-0.2
X-856.446 Y-176.272 Z9.729 I0.853 J-1.173
X-855.85 Y-175.044 Z9.679 I-0.853 J1.173
X-858.03 Y-173.848 Z9.575 I-1.449 J-0.056
X-856.567 Y-176.352 Z9.416 I0.732 J-1.252
X-857.902 Y-173.781 Z9.262 I-0.732 J1.252
X-858.178 Y-176.253 Z9.157 I0.603 J-1.319
X-856.419 Y-173.947 Z8.998 I0.88 J1.153
X-858.289 Y-176.159 Z8.844 I-0.88 J-1.153
X-855.898 Y-175.475 Z8.74 I0.99 J1.059
X-857.628 Y-173.688 Z8.636 I-1.401 J0.375
X-856.97 Y-176.512 Z8.476 I0.329 J-1.412
X-855.943 Y-175.612 Z8.427 I-0.329 J1.412
X-857.485 Y-173.662 Z8.322 I-1.356 J0.513
X-858.48 Y-175.941 Z8.218 I0.186 J-1.438
X-856 Y-175.745 Z8.114 I1.181 J0.842
X-857.341 Y-173.65 Z8.009 I-1.298 J0.646
X-858.558 Y-175.819 Z7.905 I0.042 J-1.449
X-856.071 Y-175.872 Z7.801 I1.259 J0.719
X-857.196 Y-173.653 Z7.696 I-1.227 J0.772
X-858.623 Y-175.69 Z7.592 I-0.103 J-1.446
X-856.155 Y-175.99 Z7.488 I1.324 J0.59
X-857.052 Y-173.671 Z7.383 I-1.144 J0.891
X-858.676 Y-175.555 Z7.279 I-0.247 J-1.429
X-856.249 Y-176.1 Z7.174 I1.377 J0.455
X-858.349 Y-174.099 Z7.015 I-1.05 J1
X-856.354 Y-176.2 Z6.861 I1.05 J-1
X-856.773 Y-173.748 Z6.757 I-0.945 J1.1
X-857.825 Y-176.451 Z6.598 I-0.526 J-1.351
X-856.773 Y-173.748 Z6.439 I0.526 J1.351
X-858.749 Y-175.128 Z6.34 I-0.526 J-1.351
X-855.849 Y-175.072 Z6.181 I1.45 J0.028
X-858.744 Y-174.983 Z6.027 I-1.45 J-0.028
X-855.854 Y-175.217 Z5.867 I1.445 J-0.117
X-856.397 Y-173.964 Z5.818 I-1.445 J0.117
X-858.2 Y-176.235 Z5.659 I-0.901 J-1.136
X-856.857 Y-176.481 Z5.609 I0.902 J1.136
X-856.288 Y-174.06 Z5.505 I-0.442 J1.381
X-858.692 Y-174.698 Z5.4 I-1.01 J-1.04
X-856.997 Y-176.518 Z5.296 I1.393 J-0.402
X-857.6 Y-173.682 Z5.137 I-0.302 J1.418
X-858.645 Y-174.561 Z5.087 I0.302 J-1.418
X-857.14 Y-176.541 Z4.983 I1.346 J-0.539
X-856.102 Y-174.281 Z4.879 I-0.159 J1.441
X-858.585 Y-174.429 Z4.774 I-1.197 J-0.819
X-857.285 Y-176.55 Z4.67 I1.286 J-0.67
X-856.026 Y-174.405 Z4.565 I-0.014 J1.45
X-858.571 Y-175.795 Z4.406 I-1.273 J-0.695
X-855.963 Y-174.535 Z4.252 I1.273 J0.695
X-858.426 Y-174.187 Z4.148 I-1.336 J-0.565
X-857.573 Y-176.524 Z4.044 I1.127 J-0.912
X-855.914 Y-174.671 Z3.939 I0.274 J1.424
X-858.329 Y-174.079 Z3.835 I-1.385 J-0.428
X-857.714 Y-176.489 Z3.731 I1.03 J-1.02
X-855.878 Y-174.812 Z3.626 I0.415 J1.389
X-858.222 Y-173.982 Z3.522 I-1.421 J-0.288
X-856.376 Y-176.218 Z3.363 I0.923 J-1.118
X-858.222 Y-173.982 Z3.204 I-0.923 J1.118
X-857.982 Y-176.379 Z3.104 I0.923 J-1.118
X-855.849 Y-175.1 Z3 I0.683 J1.279
X-857.636 Y-173.69 I-1.45
X-858.592 Y-175.757 I0.338 J-1.41
X-856.642 Y-176.393 I1.293 J0.657
X-855.849 Y-175.1 I-0.657 J1.293
G1 X-855.848 Y-175.034 F850
X-855.851 Y-174.968
X-855.858 Y-174.903
X-855.882 Y-174.74
X-855.908 Y-174.647
X-855.954 Y-174.539
X-856.049 Y-174.337
X-856.076 Y-174.293
X-856.109 Y-174.25
X-856.207 Y-174.136
X-856.311 Y-174.021
X-856.366 Y-173.973
X-856.422 Y-173.935
X-856.613 Y-173.812
X-856.713 Y-173.76
X-856.794 Y-173.733
X-857.015 Y-173.668
X-857.116 Y-173.649
X-857.318 Y-173.646
X-857.519 Y-173.654
X-857.72 Y-173.708
X-857.806 Y-173.733
X-857.922 Y-173.777
X-858.123 Y-173.899
X-858.178 Y-173.935
X-858.251 Y-173.987
X-858.324 Y-174.057
X-858.393 Y-174.136
X-858.526 Y-174.296
X-858.551 Y-174.337
X-858.646 Y-174.539
X-858.689 Y-174.639
X-858.718 Y-174.74
X-858.727 Y-174.799
X-858.747 Y-174.941
X-858.761 Y-175.042
X-858.762 Y-175.143
X-858.727 Y-175.401
X-858.715 Y-175.473
X-858.695 Y-175.545
X-858.607 Y-175.747
X-858.526 Y-175.903
X-858.493 Y-175.948
X-858.318 Y-176.149
X-858.269 Y-176.197
X-858.221 Y-176.237
X-858.123 Y-176.301
X-858.045 Y-176.351
X-857.922 Y-176.424
X-857.72 Y-176.492
X-857.519 Y-176.546
X-857.468 Y-176.552
X-857.318 Y-176.554
X-857.133 Y-176.552
X-857.116 Y-176.551
X-857.015 Y-176.532
X-856.915 Y-176.502
X-856.713 Y-176.44
X-856.634 Y-176.401
X-856.411 Y-176.259
X-856.361 Y-176.223
X-856.311 Y-176.18
X-856.282 Y-176.149
X-856.108 Y-175.948
X-856.041 Y-175.847
X-855.993 Y-175.747
X-855.908 Y-175.554
X-855.905 Y-175.545
X-855.879 Y-175.445
X-855.865 Y-175.344
X-855.838 Y-175.143
X-855.839 Y-175.042
X-855.858 Y-174.903
G3 X-855.944 Y-174.685 I-0.59 J-0.107
G1 X-855.995 Y-174.606 Z3.007
X-856.044 Y-174.529 Z3.029
X-856.092 Y-174.456 Z3.065
X-856.135 Y-174.388 Z3.115
X-856.174 Y-174.328 Z3.176
X-856.207 Y-174.277 Z3.247
X-856.234 Y-174.236 Z3.328
X-856.253 Y-174.205 Z3.415
X-856.265 Y-174.187 Z3.506
X-856.269 Y-174.181 Z3.6
G0 Z30

(2D Adaptive5 2)
M9
X-781.265 Y-174.083
Z30
Z20
Z19.15
G1 Z18.55 F850
G3 X-783.682 Y-174.666 Z18.446 I-1.034 J-1.017 F283.3
X-782.03 Y-176.525 Z18.341 I1.384 J-0.433
X-781.169 Y-174.191 Z18.237 I-0.269 J1.425
X-783.632 Y-174.53 Z18.133 I-1.13 J-0.908
X-782.173 Y-176.544 Z18.028 I1.333 J-0.569
X-781.084 Y-174.309 Z17.924 I-0.126 J1.445
X-783.569 Y-174.4 Z17.819 I-1.215 J-0.791
X-782.318 Y-176.55 Z17.715 I1.27 J-0.7
X-781.011 Y-174.434 Z17.611 I0.019 J1.45
X-783.493 Y-174.277 Z17.506 I-1.288 J-0.666
X-781.105 Y-175.923 Z17.347 I1.194 J-0.823
X-783.405 Y-174.162 Z17.193 I-1.194 J0.823
X-782.606 Y-176.517 Z17.089 I1.106 J-0.938
X-780.904 Y-174.703 Z16.985 I0.307 J1.417
X-783.305 Y-174.056 Z16.88 I-1.395 J-0.397
X-782.746 Y-176.479 Z16.776 I1.007 J-1.044
X-780.871 Y-174.844 Z16.671 I0.447 J1.379
X-783.726 Y-175.355 Z16.512 I-1.427 J-0.255
X-782.881 Y-176.428 Z16.463 I1.427 J0.255
X-780.853 Y-174.988 Z16.358 I0.582 J1.328
X-783.078 Y-173.877 Z16.254 I-1.446 J-0.112
X-783.011 Y-176.363 Z16.15 I0.779 J-1.223
X-780.849 Y-175.133 Z16.045 I0.712 J1.263
X-782.952 Y-173.805 Z15.941 I-1.45 J0.033
X-783.133 Y-176.286 Z15.837 I0.653 J-1.294
X-780.86 Y-175.278 Z15.732 I0.834 J1.186
X-783.738 Y-174.922 Z15.573 I-1.439 J0.178
X-783.247 Y-176.196 Z15.523 I1.439 J-0.178
X-780.885 Y-175.42 Z15.419 I0.949 J1.097
X-782.682 Y-173.701 Z15.315 I-1.414 J0.32
X-783.352 Y-176.096 Z15.21 I0.383 J-1.398
X-780.924 Y-175.56 Z15.106 I1.053 J0.996
X-782.541 Y-173.67 Z15.002 I-1.375 J0.46
X-783.446 Y-175.986 Z14.897 I0.242 J-1.43
X-780.977 Y-175.695 Z14.793 I1.148 J0.886
X-782.397 Y-173.653 Z14.689 I-1.322 J0.595
X-783.529 Y-175.867 Z14.584 I0.098 J-1.447
X-781.069 Y-174.332 Z14.425 I1.23 J0.767
X-782.252 Y-173.651 Z14.376 I-1.23 J-0.767
X-783.6 Y-175.741 Z14.271 I-0.047 J-1.449
X-781.121 Y-175.946 Z14.167 I1.301 J0.641
X-782.107 Y-173.662 Z14.062 I-1.178 J0.846
X-782.49 Y-176.537 Z13.903 I-0.192 J-1.437
X-781.211 Y-176.059 Z13.854 I0.192 J1.437
X-781.965 Y-173.689 Z13.749 I-1.087 J0.959
X-782.633 Y-176.511 Z13.59 I-0.334 J-1.411
X-781.313 Y-176.163 Z13.541 I0.334 J1.411
X-781.826 Y-173.729 Z13.436 I-0.986 J1.063
X-783.731 Y-175.328 Z13.332 I-0.473 J-1.371
X-781.424 Y-176.256 Z13.228 I1.432 J0.228
X-781.691 Y-173.783 Z13.123 I-0.875 J1.156
X-783.746 Y-175.184 Z13.019 I-0.608 J-1.317
X-781.543 Y-176.337 Z12.914 I1.448 J0.084
X-783.054 Y-173.862 Z12.755 I-0.755 J1.238
X-783.748 Y-175.039 Z12.706 I0.756 J-1.238
X-781.671 Y-176.407 Z12.601 I1.449 J-0.061
X-781.442 Y-173.93 Z12.497 I-0.628 J1.307
X-783.734 Y-174.894 Z12.393 I-0.857 J-1.17
X-781.804 Y-176.463 Z12.288 I1.435 J-0.205
X-781.329 Y-174.022 Z12.184 I-0.495 J1.363
X-783.268 Y-176.178 Z12.025 I-0.97 J-1.078
X-781.943 Y-176.505 Z11.975 I0.97 J1.078
X-781.227 Y-174.124 Z11.871 I-0.356 J1.406
X-783.665 Y-174.613 Z11.766 I-1.072 J-0.976
X-782.085 Y-176.534 Z11.662 I1.366 J-0.486
X-781.134 Y-174.236 Z11.558 I-0.214 J1.434
X-783.609 Y-174.479 Z11.453 I-1.164 J-0.864
X-780.988 Y-175.72 Z11.294 I1.311 J-0.62
X-783.541 Y-174.352 Z11.14 I-1.311 J0.62
X-782.374 Y-176.548 Z11.036 I1.242 J-0.748
X-780.986 Y-174.484 Z10.932 I0.075 J1.448
X-783.46 Y-174.231 Z10.827 I-1.313 J-0.616
X-782.518 Y-176.533 Z10.723 I1.161 J-0.868
X-780.931 Y-174.618 Z10.618 I0.219 J1.433
X-783.368 Y-174.12 Z10.514 I-1.368 J-0.481
X-782.66 Y-176.504 Z10.41 I1.069 J-0.98
X-780.89 Y-174.757 Z10.305 I0.361 J1.404
X-783.265 Y-174.018 Z10.201 I-1.409 J-0.343
X-782.798 Y-176.461 Z10.097 I0.966 J-1.082
X-780.863 Y-174.9 Z9.992 I0.5 J1.361
X-783.152 Y-173.927 Z9.888 I-1.436 J-0.2
X-781.446 Y-176.272 Z9.729 I0.853 J-1.173
X-780.85 Y-175.044 Z9.679 I-0.853 J1.173
X-783.03 Y-173.848 Z9.575 I-1.449 J-0.056
X-781.567 Y-176.352 Z9.416 I0.732 J-1.252
X-782.902 Y-173.781 Z9.262 I-0.732 J1.252
X-783.178 Y-176.253 Z9.157 I0.603 J-1.319
X-781.419 Y-173.947 Z8.998 I0.88 J1.153
X-783.289 Y-176.159 Z8.844 I-0.88 J-1.153
X-780.898 Y-175.475 Z8.74 I0.99 J1.059
X-782.628 Y-173.688 Z8.636 I-1.401 J0.375
X-781.97 Y-176.512 Z8.476 I0.329 J-1.412
X-780.943 Y-175.612 Z8.427 I-0.329 J1.412
X-782.485 Y-173.662 Z8.322 I-1.356 J0.513
X-783.48 Y-175.941 Z8.218 I0.186 J-1.438
X-781 Y-175.745 Z8.114 I1.181 J0.842
X-782.341 Y-173.65 Z8.009 I-1.298 J0.646
X-783.558 Y-175.819 Z7.905 I0.042 J-1.449
X-781.071 Y-175.872 Z7.801 I1.259 J0.719
X-782.196 Y-173.653 Z7.696 I-1.227 J0.772
X-783.623 Y-175.69 Z7.592 I-0.103 J-1.446
X-781.155 Y-175.99 Z7.488 I1.324 J0.59
X-782.052 Y-173.671 Z7.383 I-1.144 J0.891
X-783.676 Y-175.555 Z7.279 I-0.247 J-1.429
X-781.249 Y-176.1 Z7.174 I1.377 J0.455
X-783.349 Y-174.099 Z7.015 I-1.05 J1
X-781.354 Y-176.2 Z6.861 I1.05 J-1
X-781.773 Y-173.748 Z6.757 I-0.945 J1.1
X-782.825 Y-176.451 Z6.598 I-0.526 J-1.351
X-781.773 Y-173.748 Z6.439 I0.526 J1.351
X-783.749 Y-175.128 Z6.34 I-0.526 J-1.351
X-780.849 Y-175.072 Z6.181 I1.45 J0.028
X-783.744 Y-174.983 Z6.027 I-1.45 J-0.028
X-780.854 Y-175.217 Z5.867 I1.445 J-0.117
X-781.397 Y-173.964 Z5.818 I-1.445 J0.117
X-783.2 Y-176.235 Z5.659 I-0.901 J-1.136
X-781.857 Y-176.481 Z5.609 I0.902 J1.136
X-781.288 Y-174.06 Z5.505 I-0.442 J1.381
X-783.692 Y-174.698 Z5.4 I-1.01 J-1.04
X-781.997 Y-176.518 Z5.296 I1.393 J-0.402
X-782.6 Y-173.682 Z5.137 I-0.302 J1.418
X-783.645 Y-174.561 Z5.087 I0.302 J-1.418
X-782.14 Y-176.541 Z4.983 I1.346 J-0.539
X-781.102 Y-174.281 Z4.879 I-0.159 J1.441
X-783.585 Y-174.429 Z4.774 I-1.197 J-0.819
X-782.285 Y-176.55 Z4.67 I1.286 J-0.67
X-781.026 Y-174.405 Z4.565 I-0.014 J1.45
X-783.571 Y-175.795 Z4.406 I-1.273 J-0.695
X-780.963 Y-174.535 Z4.252 I1.273 J0.695
X-783.426 Y-174.187 Z4.148 I-1.336 J-0.565
X-782.573 Y-176.524 Z4.044 I1.127 J-0.912
X-780.914 Y-174.671 Z3.939 I0.274 J1.424
X-783.329 Y-174.079 Z3.835 I-1.385 J-0.428
X-782.714 Y-176.489 Z3.731 I1.03 J-1.02
X-780.878 Y-174.812 Z3.626 I0.415 J1.389
X-783.222 Y-173.982 Z3.522 I-1.421 J-0.288
X-781.376 Y-176.218 Z3.363 I0.923 J-1.118
X-783.222 Y-173.982 Z3.204 I-0.923 J1.118
X-782.982 Y-176.379 Z3.104 I0.923 J-1.118
X-780.849 Y-175.1 Z3 I0.683 J1.279
X-782.636 Y-173.69 I-1.45
X-783.592 Y-175.757 I0.338 J-1.41
X-781.642 Y-176.393 I1.293 J0.657
X-780.849 Y-175.1 I-0.657 J1.293
G1 X-780.848 Y-175.034 F850
X-780.851 Y-174.968
X-780.858 Y-174.903
X-780.882 Y-174.74
X-780.908 Y-174.647
X-780.954 Y-174.539
X-781.049 Y-174.337
X-781.076 Y-174.293
X-781.109 Y-174.25
X-781.207 Y-174.136
X-781.311 Y-174.021
X-781.366 Y-173.973
X-781.422 Y-173.935
X-781.613 Y-173.812
X-781.713 Y-173.76
X-781.794 Y-173.733
X-782.015 Y-173.668
X-782.116 Y-173.649
X-782.318 Y-173.646
X-782.519 Y-173.654
X-782.72 Y-173.708
X-782.806 Y-173.733
X-782.922 Y-173.777
X-783.123 Y-173.899
X-783.178 Y-173.935
X-783.251 Y-173.987
X-783.324 Y-174.057
X-783.393 Y-174.136
X-783.526 Y-174.296
X-783.551 Y-174.337
X-783.646 Y-174.539
X-783.689 Y-174.639
X-783.718 Y-174.74
X-783.727 Y-174.799
X-783.747 Y-174.941
X-783.761 Y-175.042
X-783.762 Y-175.143
X-783.727 Y-175.401
X-783.715 Y-175.473
X-783.695 Y-175.545
X-783.607 Y-175.747
X-783.526 Y-175.903
X-783.493 Y-175.948
X-783.318 Y-176.149
X-783.269 Y-176.197
X-783.221 Y-176.237
X-783.123 Y-176.301
X-783.045 Y-176.351
X-782.922 Y-176.424
X-782.72 Y-176.492
X-782.519 Y-176.546
X-782.468 Y-176.552
X-782.318 Y-176.554
X-782.133 Y-176.552
X-782.116 Y-176.551
X-782.015 Y-176.532
X-781.915 Y-176.502
X-781.713 Y-176.44
X-781.634 Y-176.401
X-781.411 Y-176.259
X-781.361 Y-176.223
X-781.311 Y-176.18
X-781.282 Y-176.149
X-781.108 Y-175.948
X-781.041 Y-175.847
X-780.993 Y-175.747
X-780.908 Y-175.554
X-780.905 Y-175.545
X-780.879 Y-175.445
X-780.865 Y-175.344
X-780.838 Y-175.143
X-780.839 Y-175.042
X-780.858 Y-174.903
G3 X-780.944 Y-174.685 I-0.59 J-0.107
G1 X-780.995 Y-174.606 Z3.007
X-781.044 Y-174.529 Z3.029
X-781.092 Y-174.456 Z3.065
X-781.135 Y-174.388 Z3.115
X-781.174 Y-174.328 Z3.176
X-781.207 Y-174.277 Z3.247
X-781.234 Y-174.236 Z3.328
X-781.253 Y-174.205 Z3.415
X-781.265 Y-174.187 Z3.506
X-781.269 Y-174.181 Z3.6
G0 Z30

(2D Adaptive5 2)
M9
X-706.265 Y-174.083
Z30
Z20
Z19.15
G1 Z18.55 F850
G3 X-708.682 Y-174.666 Z18.446 I-1.034 J-1.017 F283.3
X-707.03 Y-176.525 Z18.341 I1.384 J-0.433
X-706.169 Y-174.191 Z18.237 I-0.269 J1.425
X-708.632 Y-174.53 Z18.133 I-1.13 J-0.908
X-707.173 Y-176.544 Z18.028 I1.333 J-0.569
X-706.084 Y-174.309 Z17.924 I-0.126 J1.445
X-708.569 Y-174.4 Z17.819 I-1.215 J-0.791
X-707.318 Y-176.55 Z17.715 I1.27 J-0.7
X-706.011 Y-174.434 Z17.611 I0.019 J1.45
X-708.493 Y-174.277 Z17.506 I-1.288 J-0.666
X-706.105 Y-175.923 Z17.347 I1.194 J-0.823
X-708.405 Y-174.162 Z17.193 I-1.194 J0.823
X-707.606 Y-176.517 Z17.089 I1.106 J-0.938
X-705.904 Y-174.703 Z16.985 I0.307 J1.417
X-708.305 Y-174.056 Z16.88 I-1.395 J-0.397
X-707.746 Y-176.479 Z16.776 I1.007 J-1.044
X-705.871 Y-174.844 Z16.671 I0.447 J1.379
X-708.726 Y-175.355 Z16.512 I-1.427 J-0.255
X-707.881 Y-176.428 Z16.463 I1.427 J0.255
X-705.853 Y-174.988 Z16.358 I0.582 J1.328
X-708.078 Y-173.877 Z16.254 I-1.446 J-0.112
X-708.011 Y-176.363 Z16.15 I0.779 J-1.223
X-705.849 Y-175.133 Z16.045 I0.712 J1.263
X-707.952 Y-173.805 Z15.941 I-1.45 J0.033
X-708.133 Y-176.286 Z15.837 I0.653 J-1.294
X-705.86 Y-175.278 Z15.732 I0.834 J1.186
X-708.738 Y-174.922 Z15.573 I-1.439 J0.178
X-708.247 Y-176.196 Z15.523 I1.439 J-0.178
X-705.885 Y-175.42 Z15.419 I0.949 J1.097
X-707.682 Y-173.701 Z15.315 I-1.414 J0.32
X-708.352 Y-176.096 Z15.21 I0.383 J-1.398
X-705.924 Y-175.56 Z15.106 I1.053 J0.996
X-707.541 Y-173.67 Z15.002 I-1.375 J0.46
X-708.446 Y-175.986 Z14.897 I0.242 J-1.43
X-705.977 Y-175.695 Z14.793 I1.148 J0.886
X-707.397 Y-173.653 Z14.689 I-1.322 J0.595
X-708.529 Y-175.867 Z14.584 I0.098 J-1.447
X-706.069 Y-174.332 Z14.425 I1.23 J0.767
X-707.252 Y-173.651 Z14.376 I-1.23 J-0.767
X-708.6 Y-175.741 Z14.271 I-0.047 J-1.449
X-706.121 Y-175.946 Z14.167 I1.301 J0.641
X-707.107 Y-173.662 Z14.062 I-1.178 J0.846
X-707.49 Y-176.537 Z13.903 I-0.192 J-1.437
X-706.211 Y-176.059 Z13.854 I0.192 J1.437
X-706.965 Y-173.689 Z13.749 I-1.087 J0.959
X-707.633 Y-176.511 Z13.59 I-0.334 J-1.411
X-706.313 Y-176.163 Z13.541 I0.334 J1.411
X-706.826 Y-173.729 Z13.436 I-0.986 J1.063
X-708.731 Y-175.328 Z13.332 I-0.473 J-1.371
X-706.424 Y-176.256 Z13.228 I1.432 J0.228
X-706.691 Y-173.783 Z13.123 I-0.875 J1.156
X-708.746 Y-175.184 Z13.019 I-0.608 J-1.317
X-706.543 Y-176.337 Z12.914 I1.448 J0.084
X-708.054 Y-173.862 Z12.755 I-0.755 J1.238
X-708.748 Y-175.039 Z12.706 I0.756 J-1.238
X-706.671 Y-176.407 Z12.601 I1.449 J-0.061
X-706.442 Y-173.93 Z12.497 I-0.628 J1.307
X-708.734 Y-174.894 Z12.393 I-0.857 J-1.17
X-706.804 Y-176.463 Z12.288 I1.435 J-0.205
X-706.329 Y-174.022 Z12.184 I-0.495 J1.363
X-708.268 Y-176.178 Z12.025 I-0.97 J-1.078
X-706.943 Y-176.505 Z11.975 I0.97 J1.078
X-706.227 Y-174.124 Z11.871 I-0.356 J1.406
X-708.665 Y-174.613 Z11.766 I-1.072 J-0.976
X-707.085 Y-176.534 Z11.662 I1.366 J-0.486
X-706.134 Y-174.236 Z11.558 I-0.214 J1.434
X-708.609 Y-174.479 Z11.453 I-1.164 J-0.864
X-705.988 Y-175.72 Z11.294 I1.311 J-0.62
X-708.541 Y-174.352 Z11.14 I-1.311 J0.62
X-707.374 Y-176.548 Z11.036 I1.242 J-0.748
X-705.986 Y-174.484 Z10.932 I0.075 J1.448
X-708.46 Y-174.231 Z10.827 I-1.313 J-0.616
X-707.518 Y-176.533 Z10.723 I1.161 J-0.868
X-705.931 Y-174.618 Z10.618 I0.219 J1.433
X-708.368 Y-174.12 Z10.514 I-1.368 J-0.481
X-707.66 Y-176.504 Z10.41 I1.069 J-0.98
X-705.89 Y-174.757 Z10.305 I0.361 J1.404
X-708.265 Y-174.018 Z10.201 I-1.409 J-0.343
X-707.798 Y-176.461 Z10.097 I0.966 J-1.082
X-705.863 Y-174.9 Z9.992 I0.5 J1.361
X-708.152 Y-173.927 Z9.888 I-1.436 J-0.2
X-706.446 Y-176.272 Z9.729 I0.853 J-1.173
X-705.85 Y-175.044 Z9.679 I-0.853 J1.173
X-708.03 Y-173.848 Z9.575 I-1.449 J-0.056
X-706.567 Y-176.352 Z9.416 I0.732 J-1.252
X-707.902 Y-173.781 Z9.262 I-0.732 J1.252
X-708.178 Y-176.253 Z9.157 I0.603 J-1.319
X-706.419 Y-173.947 Z8.998 I0.88 J1.153
X-708.289 Y-176.159 Z8.844 I-0.88 J-1.153
X-705.898 Y-175.475 Z8.74 I0.99 J1.059
X-707.628 Y-173.688 Z8.636 I-1.401 J0.375
X-706.97 Y-176.512 Z8.476 I0.329 J-1.412
X-705.943 Y-175.612 Z8.427 I-0.329 J1.412
X-707.485 Y-173.662 Z8.322 I-1.356 J0.513
X-708.48 Y-175.941 Z8.218 I0.186 J-1.438
X-706 Y-175.745 Z8.114 I1.181 J0.842
X-707.341 Y-173.65 Z8.009 I-1.298 J0.646
X-708.558 Y-175.819 Z7.905 I0.042 J-1.449
X-706.071 Y-175.872 Z7.801 I1.259 J0.719
X-707.196 Y-173.653 Z7.696 I-1.227 J0.772
X-708.623 Y-175.69 Z7.592 I-0.103 J-1.446
X-706.155 Y-175.99 Z7.488 I1.324 J0.59
X-707.052 Y-173.671 Z7.383 I-1.144 J0.891
X-708.676 Y-175.555 Z7.279 I-0.247 J-1.429
X-706.249 Y-176.1 Z7.174 I1.377 J0.455
X-708.349 Y-174.099 Z7.015 I-1.05 J1
X-706.354 Y-176.2 Z6.861 I1.05 J-1
X-706.773 Y-173.748 Z6.757 I-0.945 J1.1
X-707.825 Y-176.451 Z6.598 I-0.526 J-1.351
X-706.773 Y-173.748 Z6.439 I0.526 J1.351
X-708.749 Y-175.128 Z6.34 I-0.526 J-1.351
X-705.849 Y-175.072 Z6.181 I1.45 J0.028
X-708.744 Y-174.983 Z6.027 I-1.45 J-0.028
X-705.854 Y-175.217 Z5.867 I1.445 J-0.117
X-706.397 Y-173.964 Z5.818 I-1.445 J0.117
X-708.2 Y-176.235 Z5.659 I-0.901 J-1.136
X-706.857 Y-176.481 Z5.609 I0.902 J1.136
X-706.288 Y-174.06 Z5.505 I-0.442 J1.381
X-708.692 Y-174.698 Z5.4 I-1.01 J-1.04
X-706.997 Y-176.518 Z5.296 I1.393 J-0.402
X-707.6 Y-173.682 Z5.137 I-0.302 J1.418
X-708.645 Y-174.561 Z5.087 I0.302 J-1.418
X-707.14 Y-176.541 Z4.983 I1.346 J-0.539
X-706.102 Y-174.281 Z4.879 I-0.159 J1.441
X-708.585 Y-174.429 Z4.774 I-1.197 J-0.819
X-707.285 Y-176.55 Z4.67 I1.286 J-0.67
X-706.026 Y-174.405 Z4.565 I-0.014 J1.45
X-708.571 Y-175.795 Z4.406 I-1.273 J-0.695
X-705.963 Y-174.535 Z4.252 I1.273 J0.695
X-708.426 Y-174.187 Z4.148 I-1.336 J-0.565
X-707.573 Y-176.524 Z4.044 I1.127 J-0.912
X-705.914 Y-174.671 Z3.939 I0.274 J1.424
X-708.329 Y-174.079 Z3.835 I-1.385 J-0.428
X-707.714 Y-176.489 Z3.731 I1.03 J-1.02
X-705.878 Y-174.812 Z3.626 I0.415 J1.389
X-708.222 Y-173.982 Z3.522 I-1.421 J-0.288
X-706.376 Y-176.218 Z3.363 I0.923 J-1.118
X-708.222 Y-173.982 Z3.204 I-0.923 J1.118
X-707.982 Y-176.379 Z3.104 I0.923 J-1.118
X-705.849 Y-175.1 Z3 I0.683 J1.279
X-707.636 Y-173.69 I-1.45
X-708.592 Y-175.757 I0.338 J-1.41
X-706.642 Y-176.393 I1.293 J0.657
X-705.849 Y-175.1 I-0.657 J1.293
G1 X-705.848 Y-175.034 F850
X-705.851 Y-174.968
X-705.858 Y-174.903
X-705.882 Y-174.74
X-705.908 Y-174.647
X-705.954 Y-174.539
X-706.049 Y-174.337
X-706.076 Y-174.293
X-706.109 Y-174.25
X-706.207 Y-174.136
X-706.311 Y-174.021
X-706.366 Y-173.973
X-706.422 Y-173.935
X-706.613 Y-173.812
X-706.713 Y-173.76
X-706.794 Y-173.733
X-707.015 Y-173.668
X-707.116 Y-173.649
X-707.318 Y-173.646
X-707.519 Y-173.654
X-707.72 Y-173.708
X-707.806 Y-173.733
X-707.922 Y-173.777
X-708.123 Y-173.899
X-708.178 Y-173.935
X-708.251 Y-173.987
X-708.324 Y-174.057
X-708.393 Y-174.136
X-708.526 Y-174.296
X-708.551 Y-174.337
X-708.646 Y-174.539
X-708.689 Y-174.639
X-708.718 Y-174.74
X-708.727 Y-174.799
X-708.747 Y-174.941
X-708.761 Y-175.042
X-708.762 Y-175.143
X-708.727 Y-175.401
X-708.715 Y-175.473
X-708.695 Y-175.545
X-708.607 Y-175.747
X-708.526 Y-175.903
X-708.493 Y-175.948
X-708.318 Y-176.149
X-708.269 Y-176.197
X-708.221 Y-176.237
X-708.123 Y-176.301
X-708.045 Y-176.351
X-707.922 Y-176.424
X-707.72 Y-176.492
X-707.519 Y-176.546
X-707.468 Y-176.552
X-707.318 Y-176.554
X-707.133 Y-176.552
X-707.116 Y-176.551
X-707.015 Y-176.532
X-706.915 Y-176.502
X-706.713 Y-176.44
X-706.634 Y-176.401
X-706.411 Y-176.259
X-706.361 Y-176.223
X-706.311 Y-176.18
X-706.282 Y-176.149
X-706.108 Y-175.948
X-706.041 Y-175.847
X-705.993 Y-175.747
X-705.908 Y-175.554
X-705.905 Y-175.545
X-705.879 Y-175.445
X-705.865 Y-175.344
X-705.838 Y-175.143
X-705.839 Y-175.042
X-705.858 Y-174.903
G3 X-705.944 Y-174.685 I-0.59 J-0.107
G1 X-705.995 Y-174.606 Z3.007
X-706.044 Y-174.529 Z3.029
X-706.092 Y-174.456 Z3.065
X-706.135 Y-174.388 Z3.115
X-706.174 Y-174.328 Z3.176
X-706.207 Y-174.277 Z3.247
X-706.234 Y-174.236 Z3.328
X-706.253 Y-174.205 Z3.415
X-706.265 Y-174.187 Z3.506
X-706.269 Y-174.181 Z3.6
G0 Z30

(2D Adaptive5 2)
M9
X-631.265 Y-174.083
Z30
Z20
Z19.15
G1 Z18.55 F850
G3 X-633.682 Y-174.666 Z18.446 I-1.034 J-1.017 F283.3
X-632.03 Y-176.525 Z18.341 I1.384 J-0.433
X-631.169 Y-174.191 Z18.237 I-0.269 J1.425
X-633.632 Y-174.53 Z18.133 I-1.13 J-0.908
X-632.173 Y-176.544 Z18.028 I1.333 J-0.569
X-631.084 Y-174.309 Z17.924 I-0.126 J1.445
X-633.569 Y-174.4 Z17.819 I-1.215 J-0.791
X-632.318 Y-176.55 Z17.715 I1.27 J-0.7
X-631.011 Y-174.434 Z17.611 I0.019 J1.45
X-633.493 Y-174.277 Z17.506 I-1.288 J-0.666
X-631.105 Y-175.923 Z17.347 I1.194 J-0.823
X-633.405 Y-174.162 Z17.193 I-1.194 J0.823
X-632.606 Y-176.517 Z17.089 I1.106 J-0.938
X-630.904 Y-174.703 Z16.985 I0.307 J1.417
X-633.305 Y-174.056 Z16.88 I-1.395 J-0.397
X-632.746 Y-176.479 Z16.776 I1.007 J-1.044
X-630.871 Y-174.844 Z16.671 I0.447 J1.379
X-633.726 Y-175.355 Z16.512 I-1.427 J-0.255
X-632.881 Y-176.428 Z16.463 I1.427 J0.255
X-630.853 Y-174.988 Z16.358 I0.582 J1.328
X-633.078 Y-173.877 Z16.254 I-1.446 J-0.112
X-633.011 Y-176.363 Z16.15 I0.779 J-1.223
X-630.849 Y-175.133 Z16.045 I0.712 J1.263
X-632.952 Y-173.805 Z15.941 I-1.45 J0.033
X-633.133 Y-176.286 Z15.837 I0.653 J-1.294
X-630.86 Y-175.278 Z15.732 I0.834 J1.186
X-633.738 Y-174.922 Z15.573 I-1.439 J0.178
X-633.247 Y-176.196 Z15.523 I1.439 J-0.178
X-630.885 Y-175.42 Z15.419 I0.949 J1.097
X-632.682 Y-173.701 Z15.315 I-1.414 J0.32
X-633.352 Y-176.096 Z15.21 I0.383 J-1.398
X-630.924 Y-175.56 Z15.106 I1.053 J0.996
X-632.541 Y-173.67 Z15.002 I-1.375 J0.46
X-633.446 Y-175.986 Z14.897 I0.242 J-1.43
X-630.977 Y-175.695 Z14.793 I1.148 J0.886
X-632.397 Y-173.653 Z14.689 I-1.322 J0.595
X-633.529 Y-175.867 Z14.584 I0.098 J-1.447
X-631.069 Y-174.332 Z14.425 I1.23 J0.767
X-632.252 Y-173.651 Z14.376 I-1.23 J-0.767
X-633.6 Y-175.741 Z14.271 I-0.047 J-1.449
X-631.121 Y-175.946 Z14.167 I1.301 J0.641
X-632.107 Y-173.662 Z14.062 I-1.178 J0.846
X-632.49 Y-176.537 Z13.903 I-0.192 J-1.437
X-631.211 Y-176.059 Z13.854 I0.192 J1.437
X-631.965 Y-173.689 Z13.749 I-1.087 J0.959
X-632.633 Y-176.511 Z13.59 I-0.334 J-1.411
X-631.313 Y-176.163 Z13.541 I0.334 J1.411
X-631.826 Y-173.729 Z13.436 I-0.986 J1.063
X-633.731 Y-175.328 Z13.332 I-0.473 J-1.371
X-631.424 Y-176.256 Z13.228 I1.432 J0.228
X-631.691 Y-173.783 Z13.123 I-0.875 J1.156
X-633.746 Y-175.184 Z13.019 I-0.608 J-1.317
X-631.543 Y-176.337 Z12.914 I1.448 J0.084
X-633.054 Y-173.862 Z12.755 I-0.755 J1.238
X-633.748 Y-175.039 Z12.706 I0.756 J-1.238
X-631.671 Y-176.407 Z12.601 I1.449 J-0.061
X-631.442 Y-173.93 Z12.497 I-0.628 J1.307
X-633.734 Y-174.894 Z12.393 I-0.857 J-1.17
X-631.804 Y-176.463 Z12.288 I1.435 J-0.205
X-631.329 Y-174.022 Z12.184 I-0.495 J1.363
X-633.268 Y-176.178 Z12.025 I-0.97 J-1.078
X-631.943 Y-176.505 Z11.975 I0.97 J1.078
X-631.227 Y-174.124 Z11.871 I-0.356 J1.406
X-633.665 Y-174.613 Z11.766 I-1.072 J-0.976
X-632.085 Y-176.534 Z11.662 I1.366 J-0.486
X-631.134 Y-174.236 Z11.558 I-0.214 J1.434
X-633.609 Y-174.479 Z11.453 I-1.164 J-0.864
X-630.988 Y-175.72 Z11.294 I1.311 J-0.62
X-633.541 Y-174.352 Z11.14 I-1.311 J0.62
X-632.374 Y-176.548 Z11.036 I1.242 J-0.748
X-630.986 Y-174.484 Z10.932 I0.075 J1.448
X-633.46 Y-174.231 Z10.827 I-1.313 J-0.616
X-632.518 Y-176.533 Z10.723 I1.161 J-0.868
X-630.931 Y-174.618 Z10.618 I0.219 J1.433
X-633.368 Y-174.12 Z10.514 I-1.368 J-0.481
X-632.66 Y-176.504 Z10.41 I1.069 J-0.98
X-630.89 Y-174.757 Z10.305 I0.361 J1.404
X-633.265 Y-174.018 Z10.201 I-1.409 J-0.343
X-632.798 Y-176.461 Z10.097 I0.966 J-1.082
X-630.863 Y-174.9 Z9.992 I0.5 J1.361
X-633.152 Y-173.927 Z9.888 I-1.436 J-0.2
X-631.446 Y-176.272 Z9.729 I0.853 J-1.173
X-630.85 Y-175.044 Z9.679 I-0.853 J1.173
X-633.03 Y-173.848 Z9.575 I-1.449 J-0.056
X-631.567 Y-176.352 Z9.416 I0.732 J-1.252
X-632.902 Y-173.781 Z9.262 I-0.732 J1.252
X-633.178 Y-176.253 Z9.157 I0.603 J-1.319
X-631.419 Y-173.947 Z8.998 I0.88 J1.153
X-633.289 Y-176.159 Z8.844 I-0.88 J-1.153
X-630.898 Y-175.475 Z8.74 I0.99 J1.059
X-632.628 Y-173.688 Z8.636 I-1.401 J0.375
X-631.97 Y-176.512 Z8.476 I0.329 J-1.412
X-630.943 Y-175.612 Z8.427 I-0.329 J1.412
X-632.485 Y-173.662 Z8.322 I-1.356 J0.513
X-633.48 Y-175.941 Z8.218 I0.186 J-1.438
X-631 Y-175.745 Z8.114 I1.181 J0.842
X-632.341 Y-173.65 Z8.009 I-1.298 J0.646
X-633.558 Y-175.819 Z7.905 I0.042 J-1.449
X-631.071 Y-175.872 Z7.801 I1.259 J0.719
X-632.196 Y-173.653 Z7.696 I-1.227 J0.772
X-633.623 Y-175.69 Z7.592 I-0.103 J-1.446
X-631.155 Y-175.99 Z7.488 I1.324 J0.59
X-632.052 Y-173.671 Z7.383 I-1.144 J0.891
X-633.676 Y-175.555 Z7.279 I-0.247 J-1.429
X-631.249 Y-176.1 Z7.174 I1.377 J0.455
X-633.349 Y-174.099 Z7.015 I-1.05 J1
X-631.354 Y-176.2 Z6.861 I1.05 J-1
X-631.773 Y-173.748 Z6.757 I-0.945 J1.1
X-632.825 Y-176.451 Z6.598 I-0.526 J-1.351
X-631.773 Y-173.748 Z6.439 I0.526 J1.351
X-633.749 Y-175.128 Z6.34 I-0.526 J-1.351
X-630.849 Y-175.072 Z6.181 I1.45 J0.028
X-633.744 Y-174.983 Z6.027 I-1.45 J-0.028
X-630.854 Y-175.217 Z5.867 I1.445 J-0.117
X-631.397 Y-173.964 Z5.818 I-1.445 J0.117
X-633.2 Y-176.235 Z5.659 I-0.901 J-1.136
X-631.857 Y-176.481 Z5.609 I0.902 J1.136
X-631.288 Y-174.06 Z5.505 I-0.442 J1.381
X-633.692 Y-174.698 Z5.4 I-1.01 J-1.04
X-631.997 Y-176.518 Z5.296 I1.393 J-0.402
X-632.6 Y-173.682 Z5.137 I-0.302 J1.418
X-633.645 Y-174.561 Z5.087 I0.302 J-1.418
X-632.14 Y-176.541 Z4.983 I1.346 J-0.539
X-631.102 Y-174.281 Z4.879 I-0.159 J1.441
X-633.585 Y-174.429 Z4.774 I-1.197 J-0.819
X-632.285 Y-176.55 Z4.67 I1.286 J-0.67
X-631.026 Y-174.405 Z4.565 I-0.014 J1.45
X-633.571 Y-175.795 Z4.406 I-1.273 J-0.695
X-630.963 Y-174.535 Z4.252 I1.273 J0.695
X-633.426 Y-174.187 Z4.148 I-1.336 J-0.565
X-632.573 Y-176.524 Z4.044 I1.127 J-0.912
X-630.914 Y-174.671 Z3.939 I0.274 J1.424
X-633.329 Y-174.079 Z3.835 I-1.385 J-0.428
X-632.714 Y-176.489 Z3.731 I1.03 J-1.02
X-630.878 Y-174.812 Z3.626 I0.415 J1.389
X-633.222 Y-173.982 Z3.522 I-1.421 J-0.288
X-631.376 Y-176.218 Z3.363 I0.923 J-1.118
X-633.222 Y-173.982 Z3.204 I-0.923 J1.118
X-632.982 Y-176.379 Z3.104 I0.923 J-1.118
X-630.849 Y-175.1 Z3 I0.683 J1.279
X-632.636 Y-173.69 I-1.45
X-633.592 Y-175.757 I0.338 J-1.41
X-631.642 Y-176.393 I1.293 J0.657
X-630.849 Y-175.1 I-0.657 J1.293
G1 X-630.848 Y-175.034 F850
X-630.851 Y-174.968
X-630.858 Y-174.903
X-630.882 Y-174.74
X-630.908 Y-174.647
X-630.954 Y-174.539
X-631.049 Y-174.337
X-631.076 Y-174.293
X-631.109 Y-174.25
X-631.207 Y-174.136
X-631.311 Y-174.021
X-631.366 Y-173.973
X-631.422 Y-173.935
X-631.613 Y-173.812
X-631.713 Y-173.76
X-631.794 Y-173.733
X-632.015 Y-173.668
X-632.116 Y-173.649
X-632.318 Y-173.646
X-632.519 Y-173.654
X-632.72 Y-173.708
X-632.806 Y-173.733
X-632.922 Y-173.777
X-633.123 Y-173.899
X-633.178 Y-173.935
X-633.251 Y-173.987
X-633.324 Y-174.057
X-633.393 Y-174.136
X-633.526 Y-174.296
X-633.551 Y-174.337
X-633.646 Y-174.539
X-633.689 Y-174.639
X-633.718 Y-174.74
X-633.727 Y-174.799
X-633.747 Y-174.941
X-633.761 Y-175.042
X-633.762 Y-175.143
X-633.727 Y-175.401
X-633.715 Y-175.473
X-633.695 Y-175.545
X-633.607 Y-175.747
X-633.526 Y-175.903
X-633.493 Y-175.948
X-633.318 Y-176.149
X-633.269 Y-176.197
X-633.221 Y-176.237
X-633.123 Y-176.301
X-633.045 Y-176.351
X-632.922 Y-176.424
X-632.72 Y-176.492
X-632.519 Y-176.546
X-632.468 Y-176.552
X-632.318 Y-176.554
X-632.133 Y-176.552
X-632.116 Y-176.551
X-632.015 Y-176.532
X-631.915 Y-176.502
X-631.713 Y-176.44
X-631.634 Y-176.401
X-631.411 Y-176.259
X-631.361 Y-176.223
X-631.311 Y-176.18
X-631.282 Y-176.149
X-631.108 Y-175.948
X-631.041 Y-175.847
X-630.993 Y-175.747
X-630.908 Y-175.554
X-630.905 Y-175.545
X-630.879 Y-175.445
X-630.865 Y-175.344
X-630.838 Y-175.143
X-630.839 Y-175.042
X-630.858 Y-174.903
G3 X-630.944 Y-174.685 I-0.59 J-0.107
G1 X-630.995 Y-174.606 Z3.007
X-631.044 Y-174.529 Z3.029
X-631.092 Y-174.456 Z3.065
X-631.135 Y-174.388 Z3.115
X-631.174 Y-174.328 Z3.176
X-631.207 Y-174.277 Z3.247
X-631.234 Y-174.236 Z3.328
X-631.253 Y-174.205 Z3.415
X-631.265 Y-174.187 Z3.506
X-631.269 Y-174.181 Z3.6
G0 Z30

(2D Adaptive5 2)
M9
X-556.265 Y-174.083
Z30
Z20
Z19.15
G1 Z18.55 F850
G3 X-558.682 Y-174.666 Z18.446 I-1.034 J-1.017 F283.3
X-557.03 Y-176.525 Z18.341 I1.384 J-0.433
X-556.169 Y-174.191 Z18.237 I-0.269 J1.425
X-558.632 Y-174.53 Z18.133 I-1.13 J-0.908
X-557.173 Y-176.544 Z18.028 I1.333 J-0.569
X-556.084 Y-174.309 Z17.924 I-0.126 J1.445
X-558.569 Y-174.4 Z17.819 I-1.215 J-0.791
X-557.318 Y-176.55 Z17.715 I1.27 J-0.7
X-556.011 Y-174.434 Z17.611 I0.019 J1.45
X-558.493 Y-174.277 Z17.506 I-1.288 J-0.666
X-556.105 Y-175.923 Z17.347 I1.194 J-0.823
X-558.405 Y-174.162 Z17.193 I-1.194 J0.823
X-557.606 Y-176.517 Z17.089 I1.106 J-0.938
X-555.904 Y-174.703 Z16.985 I0.307 J1.417
X-558.305 Y-174.056 Z16.88 I-1.395 J-0.397
X-557.746 Y-176.479 Z16.776 I1.007 J-1.044
X-555.871 Y-174.844 Z16.671 I0.447 J1.379
X-558.726 Y-175.355 Z16.512 I-1.427 J-0.255
X-557.881 Y-176.428 Z16.463 I1.427 J0.255
X-555.853 Y-174.988 Z16.358 I0.582 J1.328
X-558.078 Y-173.877 Z16.254 I-1.446 J-0.112
X-558.011 Y-176.363 Z16.15 I0.779 J-1.223
X-555.849 Y-175.133 Z16.045 I0.712 J1.263
X-557.952 Y-173.805 Z15.941 I-1.45 J0.033
X-558.133 Y-176.286 Z15.837 I0.653 J-1.294
X-555.86 Y-175.278 Z15.732 I0.834 J1.186
X-558.738 Y-174.922 Z15.573 I-1.439 J0.178
X-558.247 Y-176.196 Z15.523 I1.439 J-0.178
X-555.885 Y-175.42 Z15.419 I0.949 J1.097
X-557.682 Y-173.701 Z15.315 I-1.414 J0.32
X-558.352 Y-176.096 Z15.21 I0.383 J-1.398
X-555.924 Y-175.56 Z15.106 I1.053 J0.996
X-557.541 Y-173.67 Z15.002 I-1.375 J0.46
X-558.446 Y-175.986 Z14.897 I0.242 J-1.43
X-555.977 Y-175.695 Z14.793 I1.148 J0.886
X-557.397 Y-173.653 Z14.689 I-1.322 J0.595
X-558.529 Y-175.867 Z14.584 I0.098 J-1.447
X-556.069 Y-174.332 Z14.425 I1.23 J0.767
X-557.252 Y-173.651 Z14.376 I-1.23 J-0.767
X-558.6 Y-175.741 Z14.271 I-0.047 J-1.449
X-556.121 Y-175.946 Z14.167 I1.301 J0.641
X-557.107 Y-173.662 Z14.062 I-1.178 J0.846
X-557.49 Y-176.537 Z13.903 I-0.192 J-1.437
X-556.211 Y-176.059 Z13.854 I0.192 J1.437
X-556.965 Y-173.689 Z13.749 I-1.087 J0.959
X-557.633 Y-176.511 Z13.59 I-0.334 J-1.411
X-556.313 Y-176.163 Z13.541 I0.334 J1.411
X-556.826 Y-173.729 Z13.436 I-0.986 J1.063
X-558.731 Y-175.328 Z13.332 I-0.473 J-1.371
X-556.424 Y-176.256 Z13.228 I1.432 J0.228
X-556.691 Y-173.783 Z13.123 I-0.875 J1.156
X-558.746 Y-175.184 Z13.019 I-0.608 J-1.317
X-556.543 Y-176.337 Z12.914 I1.448 J0.084
X-558.054 Y-173.862 Z12.755 I-0.755 J1.238
X-558.748 Y-175.039 Z12.706 I0.756 J-1.238
X-556.671 Y-176.407 Z12.601 I1.449 J-0.061
X-556.442 Y-173.93 Z12.497 I-0.628 J1.307
X-558.734 Y-174.894 Z12.393 I-0.857 J-1.17
X-556.804 Y-176.463 Z12.288 I1.435 J-0.205
X-556.329 Y-174.022 Z12.184 I-0.495 J1.363
X-558.268 Y-176.178 Z12.025 I-0.97 J-1.078
X-556.943 Y-176.505 Z11.975 I0.97 J1.078
X-556.227 Y-174.124 Z11.871 I-0.356 J1.406
X-558.665 Y-174.613 Z11.766 I-1.072 J-0.976
X-557.085 Y-176.534 Z11.662 I1.366 J-0.486
X-556.134 Y-174.236 Z11.558 I-0.214 J1.434
X-558.609 Y-174.479 Z11.453 I-1.164 J-0.864
X-555.988 Y-175.72 Z11.294 I1.311 J-0.62
X-558.541 Y-174.352 Z11.14 I-1.311 J0.62
X-557.374 Y-176.548 Z11.036 I1.242 J-0.748
X-555.986 Y-174.484 Z10.932 I0.075 J1.448
X-558.46 Y-174.231 Z10.827 I-1.313 J-0.616
X-557.518 Y-176.533 Z10.723 I1.161 J-0.868
X-555.931 Y-174.618 Z10.618 I0.219 J1.433
X-558.368 Y-174.12 Z10.514 I-1.368 J-0.481
X-557.66 Y-176.504 Z10.41 I1.069 J-0.98
X-555.89 Y-174.757 Z10.305 I0.361 J1.404
X-558.265 Y-174.018 Z10.201 I-1.409 J-0.343
X-557.798 Y-176.461 Z10.097 I0.966 J-1.082
X-555.863 Y-174.9 Z9.992 I0.5 J1.361
X-558.152 Y-173.927 Z9.888 I-1.436 J-0.2
X-556.446 Y-176.272 Z9.729 I0.853 J-1.173
X-555.85 Y-175.044 Z9.679 I-0.853 J1.173
X-558.03 Y-173.848 Z9.575 I-1.449 J-0.056
X-556.567 Y-176.352 Z9.416 I0.732 J-1.252
X-557.902 Y-173.781 Z9.262 I-0.732 J1.252
X-558.178 Y-176.253 Z9.157 I0.603 J-1.319
X-556.419 Y-173.947 Z8.998 I0.88 J1.153
X-558.289 Y-176.159 Z8.844 I-0.88 J-1.153
X-555.898 Y-175.475 Z8.74 I0.99 J1.059
X-557.628 Y-173.688 Z8.636 I-1.401 J0.375
X-556.97 Y-176.512 Z8.476 I0.329 J-1.412
X-555.943 Y-175.612 Z8.427 I-0.329 J1.412
X-557.485 Y-173.662 Z8.322 I-1.356 J0.513
X-558.48 Y-175.941 Z8.218 I0.186 J-1.438
X-556 Y-175.745 Z8.114 I1.181 J0.842
X-557.341 Y-173.65 Z8.009 I-1.298 J0.646
X-558.558 Y-175.819 Z7.905 I0.042 J-1.449
X-556.071 Y-175.872 Z7.801 I1.259 J0.719
X-557.196 Y-173.653 Z7.696 I-1.227 J0.772
X-558.623 Y-175.69 Z7.592 I-0.103 J-1.446
X-556.155 Y-175.99 Z7.488 I1.324 J0.59
X-557.052 Y-173.671 Z7.383 I-1.144 J0.891
X-558.676 Y-175.555 Z7.279 I-0.247 J-1.429
X-556.249 Y-176.1 Z7.174 I1.377 J0.455
X-558.349 Y-174.099 Z7.015 I-1.05 J1
X-556.354 Y-176.2 Z6.861 I1.05 J-1
X-556.773 Y-173.748 Z6.757 I-0.945 J1.1
X-557.825 Y-176.451 Z6.598 I-0.526 J-1.351
X-556.773 Y-173.748 Z6.439 I0.526 J1.351
X-558.749 Y-175.128 Z6.34 I-0.526 J-1.351
X-555.849 Y-175.072 Z6.181 I1.45 J0.028
X-558.744 Y-174.983 Z6.027 I-1.45 J-0.028
X-555.854 Y-175.217 Z5.867 I1.445 J-0.117
X-556.397 Y-173.964 Z5.818 I-1.445 J0.117
X-558.2 Y-176.235 Z5.659 I-0.901 J-1.136
X-556.857 Y-176.481 Z5.609 I0.902 J1.136
X-556.288 Y-174.06 Z5.505 I-0.442 J1.381
X-558.692 Y-174.698 Z5.4 I-1.01 J-1.04
X-556.997 Y-176.518 Z5.296 I1.393 J-0.402
X-557.6 Y-173.682 Z5.137 I-0.302 J1.418
X-558.645 Y-174.561 Z5.087 I0.302 J-1.418
X-557.14 Y-176.541 Z4.983 I1.346 J-0.539
X-556.102 Y-174.281 Z4.879 I-0.159 J1.441
X-558.585 Y-174.429 Z4.774 I-1.197 J-0.819
X-557.285 Y-176.55 Z4.67 I1.286 J-0.67
X-556.026 Y-174.405 Z4.565 I-0.014 J1.45
X-558.571 Y-175.795 Z4.406 I-1.273 J-0.695
X-555.963 Y-174.535 Z4.252 I1.273 J0.695
X-558.426 Y-174.187 Z4.148 I-1.336 J-0.565
X-557.573 Y-176.524 Z4.044 I1.127 J-0.912
X-555.914 Y-174.671 Z3.939 I0.274 J1.424
X-558.329 Y-174.079 Z3.835 I-1.385 J-0.428
X-557.714 Y-176.489 Z3.731 I1.03 J-1.02
X-555.878 Y-174.812 Z3.626 I0.415 J1.389
X-558.222 Y-173.982 Z3.522 I-1.421 J-0.288
X-556.376 Y-176.218 Z3.363 I0.923 J-1.118
X-558.222 Y-173.982 Z3.204 I-0.923 J1.118
X-557.982 Y-176.379 Z3.104 I0.923 J-1.118
X-555.849 Y-175.1 Z3 I0.683 J1.279
X-557.636 Y-173.69 I-1.45
X-558.592 Y-175.757 I0.338 J-1.41
X-556.642 Y-176.393 I1.293 J0.657
X-555.849 Y-175.1 I-0.657 J1.293
G1 X-555.848 Y-175.034 F850
X-555.851 Y-174.968
X-555.858 Y-174.903
X-555.882 Y-174.74
X-555.908 Y-174.647
X-555.954 Y-174.539
X-556.049 Y-174.337
X-556.076 Y-174.293
X-556.109 Y-174.25
X-556.207 Y-174.136
X-556.311 Y-174.021
X-556.366 Y-173.973
X-556.422 Y-173.935
X-556.613 Y-173.812
X-556.713 Y-173.76
X-556.794 Y-173.733
X-557.015 Y-173.668
X-557.116 Y-173.649
X-557.318 Y-173.646
X-557.519 Y-173.654
X-557.72 Y-173.708
X-557.806 Y-173.733
X-557.922 Y-173.777
X-558.123 Y-173.899
X-558.178 Y-173.935
X-558.251 Y-173.987
X-558.324 Y-174.057
X-558.393 Y-174.136
X-558.526 Y-174.296
X-558.551 Y-174.337
X-558.646 Y-174.539
X-558.689 Y-174.639
X-558.718 Y-174.74
X-558.727 Y-174.799
X-558.747 Y-174.941
X-558.761 Y-175.042
X-558.762 Y-175.143
X-558.727 Y-175.401
X-558.715 Y-175.473
X-558.695 Y-175.545
X-558.607 Y-175.747
X-558.526 Y-175.903
X-558.493 Y-175.948
X-558.318 Y-176.149
X-558.269 Y-176.197
X-558.221 Y-176.237
X-558.123 Y-176.301
X-558.045 Y-176.351
X-557.922 Y-176.424
X-557.72 Y-176.492
X-557.519 Y-176.546
X-557.468 Y-176.552
X-557.318 Y-176.554
X-557.133 Y-176.552
X-557.116 Y-176.551
X-557.015 Y-176.532
X-556.915 Y-176.502
X-556.713 Y-176.44
X-556.634 Y-176.401
X-556.411 Y-176.259
X-556.361 Y-176.223
X-556.311 Y-176.18
X-556.282 Y-176.149
X-556.108 Y-175.948
X-556.041 Y-175.847
X-555.993 Y-175.747
X-555.908 Y-175.554
X-555.905 Y-175.545
X-555.879 Y-175.445
X-555.865 Y-175.344
X-555.838 Y-175.143
X-555.839 Y-175.042
X-555.858 Y-174.903
G3 X-555.944 Y-174.685 I-0.59 J-0.107
G1 X-555.995 Y-174.606 Z3.007
X-556.044 Y-174.529 Z3.029
X-556.092 Y-174.456 Z3.065
X-556.135 Y-174.388 Z3.115
X-556.174 Y-174.328 Z3.176
X-556.207 Y-174.277 Z3.247
X-556.234 Y-174.236 Z3.328
X-556.253 Y-174.205 Z3.415
X-556.265 Y-174.187 Z3.506
X-556.269 Y-174.181 Z3.6
G0 Z30

(2D Adaptive5 2)
M9
X-481.265 Y-174.083
Z30
Z20
Z19.15
G1 Z18.55 F850
G3 X-483.682 Y-174.666 Z18.446 I-1.034 J-1.017 F283.3
X-482.03 Y-176.525 Z18.341 I1.384 J-0.433
X-481.169 Y-174.191 Z18.237 I-0.269 J1.425
X-483.632 Y-174.53 Z18.133 I-1.13 J-0.908
X-482.173 Y-176.544 Z18.028 I1.333 J-0.569
X-481.084 Y-174.309 Z17.924 I-0.126 J1.445
X-483.569 Y-174.4 Z17.819 I-1.215 J-0.791
X-482.318 Y-176.55 Z17.715 I1.27 J-0.7
X-481.011 Y-174.434 Z17.611 I0.019 J1.45
X-483.493 Y-174.277 Z17.506 I-1.288 J-0.666
X-481.105 Y-175.923 Z17.347 I1.194 J-0.823
X-483.405 Y-174.162 Z17.193 I-1.194 J0.823
X-482.606 Y-176.517 Z17.089 I1.106 J-0.938
X-480.904 Y-174.703 Z16.985 I0.307 J1.417
X-483.305 Y-174.056 Z16.88 I-1.395 J-0.397
X-482.746 Y-176.479 Z16.776 I1.007 J-1.044
X-480.871 Y-174.844 Z16.671 I0.447 J1.379
X-483.726 Y-175.355 Z16.512 I-1.427 J-0.255
X-482.881 Y-176.428 Z16.463 I1.427 J0.255
X-480.853 Y-174.988 Z16.358 I0.582 J1.328
X-483.078 Y-173.877 Z16.254 I-1.446 J-0.112
X-483.011 Y-176.363 Z16.15 I0.779 J-1.223
X-480.849 Y-175.133 Z16.045 I0.712 J1.263
X-482.952 Y-173.805 Z15.941 I-1.45 J0.033
X-483.133 Y-176.286 Z15.837 I0.653 J-1.294
X-480.86 Y-175.278 Z15.732 I0.834 J1.186
X-483.738 Y-174.922 Z15.573 I-1.439 J0.178
X-483.247 Y-176.196 Z15.523 I1.439 J-0.178
X-480.885 Y-175.42 Z15.419 I0.949 J1.097
X-482.682 Y-173.701 Z15.315 I-1.414 J0.32
X-483.352 Y-176.096 Z15.21 I0.383 J-1.398
X-480.924 Y-175.56 Z15.106 I1.053 J0.996
X-482.541 Y-173.67 Z15.002 I-1.375 J0.46
X-483.446 Y-175.986 Z14.897 I0.242 J-1.43
X-480.977 Y-175.695 Z14.793 I1.148 J0.886
X-482.397 Y-173.653 Z14.689 I-1.322 J0.595
X-483.529 Y-175.867 Z14.584 I0.098 J-1.447
X-481.069 Y-174.332 Z14.425 I1.23 J0.767
X-482.252 Y-173.651 Z14.376 I-1.23 J-0.767
X-483.6 Y-175.741 Z14.271 I-0.047 J-1.449
X-481.121 Y-175.946 Z14.167 I1.301 J0.641
X-482.107 Y-173.662 Z14.062 I-1.178 J0.846
X-482.49 Y-176.537 Z13.903 I-0.192 J-1.437
X-481.211 Y-176.059 Z13.854 I0.192 J1.437
X-481.965 Y-173.689 Z13.749 I-1.087 J0.959
X-482.633 Y-176.511 Z13.59 I-0.334 J-1.411
X-481.313 Y-176.163 Z13.541 I0.334 J1.411
X-481.826 Y-173.729 Z13.436 I-0.986 J1.063
X-483.731 Y-175.328 Z13.332 I-0.473 J-1.371
X-481.424 Y-176.256 Z13.228 I1.432 J0.228
X-481.691 Y-173.783 Z13.123 I-0.875 J1.156
X-483.746 Y-175.184 Z13.019 I-0.608 J-1.317
X-481.543 Y-176.337 Z12.914 I1.448 J0.084
X-483.054 Y-173.862 Z12.755 I-0.755 J1.238
X-483.748 Y-175.039 Z12.706 I0.756 J-1.238
X-481.671 Y-176.407 Z12.601 I1.449 J-0.061
X-481.442 Y-173.93 Z12.497 I-0.628 J1.307
X-483.734 Y-174.894 Z12.393 I-0.857 J-1.17
X-481.804 Y-176.463 Z12.288 I1.435 J-0.205
X-481.329 Y-174.022 Z12.184 I-0.495 J1.363
X-483.268 Y-176.178 Z12.025 I-0.97 J-1.078
X-481.943 Y-176.505 Z11.975 I0.97 J1.078
X-481.227 Y-174.124 Z11.871 I-0.356 J1.406
X-483.665 Y-174.613 Z11.766 I-1.072 J-0.976
X-482.085 Y-176.534 Z11.662 I1.366 J-0.486
X-481.134 Y-174.236 Z11.558 I-0.214 J1.434
X-483.609 Y-174.479 Z11.453 I-1.164 J-0.864
X-480.988 Y-175.72 Z11.294 I1.311 J-0.62
X-483.541 Y-174.352 Z11.14 I-1.311 J0.62
X-482.374 Y-176.548 Z11.036 I1.242 J-0.748
X-480.986 Y-174.484 Z10.932 I0.075 J1.448
X-483.46 Y-174.231 Z10.827 I-1.313 J-0.616
X-482.518 Y-176.533 Z10.723 I1.161 J-0.868
X-480.931 Y-174.618 Z10.618 I0.219 J1.433
X-483.368 Y-174.12 Z10.514 I-1.368 J-0.481
X-482.66 Y-176.504 Z10.41 I1.069 J-0.98
X-480.89 Y-174.757 Z10.305 I0.361 J1.404
X-483.265 Y-174.018 Z10.201 I-1.409 J-0.343
X-482.798 Y-176.461 Z10.097 I0.966 J-1.082
X-480.863 Y-174.9 Z9.992 I0.5 J1.361
X-483.152 Y-173.927 Z9.888 I-1.436 J-0.2
X-481.446 Y-176.272 Z9.729 I0.853 J-1.173
X-480.85 Y-175.044 Z9.679 I-0.853 J1.173
X-483.03 Y-173.848 Z9.575 I-1.449 J-0.056
X-481.567 Y-176.352 Z9.416 I0.732 J-1.252
X-482.902 Y-173.781 Z9.262 I-0.732 J1.252
X-483.178 Y-176.253 Z9.157 I0.603 J-1.319
X-481.419 Y-173.947 Z8.998 I0.88 J1.153
X-483.289 Y-176.159 Z8.844 I-0.88 J-1.153
X-480.898 Y-175.475 Z8.74 I0.99 J1.059
X-482.628 Y-173.688 Z8.636 I-1.401 J0.375
X-481.97 Y-176.512 Z8.476 I0.329 J-1.412
X-480.943 Y-175.612 Z8.427 I-0.329 J1.412
X-482.485 Y-173.662 Z8.322 I-1.356 J0.513
X-483.48 Y-175.941 Z8.218 I0.186 J-1.438
X-481 Y-175.745 Z8.114 I1.181 J0.842
X-482.341 Y-173.65 Z8.009 I-1.298 J0.646
X-483.558 Y-175.819 Z7.905 I0.042 J-1.449
X-481.071 Y-175.872 Z7.801 I1.259 J0.719
X-482.196 Y-173.653 Z7.696 I-1.227 J0.772
X-483.623 Y-175.69 Z7.592 I-0.103 J-1.446
X-481.155 Y-175.99 Z7.488 I1.324 J0.59
X-482.052 Y-173.671 Z7.383 I-1.144 J0.891
X-483.676 Y-175.555 Z7.279 I-0.247 J-1.429
X-481.249 Y-176.1 Z7.174 I1.377 J0.455
X-483.349 Y-174.099 Z7.015 I-1.05 J1
X-481.354 Y-176.2 Z6.861 I1.05 J-1
X-481.773 Y-173.748 Z6.757 I-0.945 J1.1
X-482.825 Y-176.451 Z6.598 I-0.526 J-1.351
X-481.773 Y-173.748 Z6.439 I0.526 J1.351
X-483.749 Y-175.128 Z6.34 I-0.526 J-1.351
X-480.849 Y-175.072 Z6.181 I1.45 J0.028
X-483.744 Y-174.983 Z6.027 I-1.45 J-0.028
X-480.854 Y-175.217 Z5.867 I1.445 J-0.117
X-481.397 Y-173.964 Z5.818 I-1.445 J0.117
X-483.2 Y-176.235 Z5.659 I-0.901 J-1.136
X-481.857 Y-176.481 Z5.609 I0.902 J1.136
X-481.288 Y-174.06 Z5.505 I-0.442 J1.381
X-483.692 Y-174.698 Z5.4 I-1.01 J-1.04
X-481.997 Y-176.518 Z5.296 I1.393 J-0.402
X-482.6 Y-173.682 Z5.137 I-0.302 J1.418
X-483.645 Y-174.561 Z5.087 I0.302 J-1.418
X-482.14 Y-176.541 Z4.983 I1.346 J-0.539
X-481.102 Y-174.281 Z4.879 I-0.159 J1.441
X-483.585 Y-174.429 Z4.774 I-1.197 J-0.819
X-482.285 Y-176.55 Z4.67 I1.286 J-0.67
X-481.026 Y-174.405 Z4.565 I-0.014 J1.45
X-483.571 Y-175.795 Z4.406 I-1.273 J-0.695
X-480.963 Y-174.535 Z4.252 I1.273 J0.695
X-483.426 Y-174.187 Z4.148 I-1.336 J-0.565
X-482.573 Y-176.524 Z4.044 I1.127 J-0.912
X-480.914 Y-174.671 Z3.939 I0.274 J1.424
X-483.329 Y-174.079 Z3.835 I-1.385 J-0.428
X-482.714 Y-176.489 Z3.731 I1.03 J-1.02
X-480.878 Y-174.812 Z3.626 I0.415 J1.389
X-483.222 Y-173.982 Z3.522 I-1.421 J-0.288
X-481.376 Y-176.218 Z3.363 I0.923 J-1.118
X-483.222 Y-173.982 Z3.204 I-0.923 J1.118
X-482.982 Y-176.379 Z3.104 I0.923 J-1.118
X-480.849 Y-175.1 Z3 I0.683 J1.279
X-482.636 Y-173.69 I-1.45
X-483.592 Y-175.757 I0.338 J-1.41
X-481.642 Y-176.393 I1.293 J0.657
X-480.849 Y-175.1 I-0.657 J1.293
G1 X-480.848 Y-175.034 F850
X-480.851 Y-174.968
X-480.858 Y-174.903
X-480.882 Y-174.74
X-480.908 Y-174.647
X-480.954 Y-174.539
X-481.049 Y-174.337
X-481.076 Y-174.293
X-481.109 Y-174.25
X-481.207 Y-174.136
X-481.311 Y-174.021
X-481.366 Y-173.973
X-481.422 Y-173.935
X-481.613 Y-173.812
X-481.713 Y-173.76
X-481.794 Y-173.733
X-482.015 Y-173.668
X-482.116 Y-173.649
X-482.318 Y-173.646
X-482.519 Y-173.654
X-482.72 Y-173.708
X-482.806 Y-173.733
X-482.922 Y-173.777
X-483.123 Y-173.899
X-483.178 Y-173.935
X-483.251 Y-173.987
X-483.324 Y-174.057
X-483.393 Y-174.136
X-483.526 Y-174.296
X-483.551 Y-174.337
X-483.646 Y-174.539
X-483.689 Y-174.639
X-483.718 Y-174.74
X-483.727 Y-174.799
X-483.747 Y-174.941
X-483.761 Y-175.042
X-483.762 Y-175.143
X-483.727 Y-175.401
X-483.715 Y-175.473
X-483.695 Y-175.545
X-483.607 Y-175.747
X-483.526 Y-175.903
X-483.493 Y-175.948
X-483.318 Y-176.149
X-483.269 Y-176.197
X-483.221 Y-176.237
X-483.123 Y-176.301
X-483.045 Y-176.351
X-482.922 Y-176.424
X-482.72 Y-176.492
X-482.519 Y-176.546
X-482.468 Y-176.552
X-482.318 Y-176.554
X-482.133 Y-176.552
X-482.116 Y-176.551
X-482.015 Y-176.532
X-481.915 Y-176.502
X-481.713 Y-176.44
X-481.634 Y-176.401
X-481.411 Y-176.259
X-481.361 Y-176.223
X-481.311 Y-176.18
X-481.282 Y-176.149
X-481.108 Y-175.948
X-481.041 Y-175.847
X-480.993 Y-175.747
X-480.908 Y-175.554
X-480.905 Y-175.545
X-480.879 Y-175.445
X-480.865 Y-175.344
X-480.838 Y-175.143
X-480.839 Y-175.042
X-480.858 Y-174.903
G3 X-480.944 Y-174.685 I-0.59 J-0.107
G1 X-480.995 Y-174.606 Z3.007
X-481.044 Y-174.529 Z3.029
X-481.092 Y-174.456 Z3.065
X-481.135 Y-174.388 Z3.115
X-481.174 Y-174.328 Z3.176
X-481.207 Y-174.277 Z3.247
X-481.234 Y-174.236 Z3.328
X-481.253 Y-174.205 Z3.415
X-481.265 Y-174.187 Z3.506
X-481.269 Y-174.181 Z3.6
G0 Z30

(2D Adaptive5 2)
M9
X-406.265 Y-174.083
Z30
Z20
Z19.15
G1 Z18.55 F850
G3 X-408.682 Y-174.666 Z18.446 I-1.034 J-1.017 F283.3
X-407.03 Y-176.525 Z18.341 I1.384 J-0.433
X-406.169 Y-174.191 Z18.237 I-0.269 J1.425
X-408.632 Y-174.53 Z18.133 I-1.13 J-0.908
X-407.173 Y-176.544 Z18.028 I1.333 J-0.569
X-406.084 Y-174.309 Z17.924 I-0.126 J1.445
X-408.569 Y-174.4 Z17.819 I-1.215 J-0.791
X-407.318 Y-176.55 Z17.715 I1.27 J-0.7
X-406.011 Y-174.434 Z17.611 I0.019 J1.45
X-408.493 Y-174.277 Z17.506 I-1.288 J-0.666
X-406.105 Y-175.923 Z17.347 I1.194 J-0.823
X-408.405 Y-174.162 Z17.193 I-1.194 J0.823
X-407.606 Y-176.517 Z17.089 I1.106 J-0.938
X-405.904 Y-174.703 Z16.985 I0.307 J1.417
X-408.305 Y-174.056 Z16.88 I-1.395 J-0.397
X-407.746 Y-176.479 Z16.776 I1.007 J-1.044
X-405.871 Y-174.844 Z16.671 I0.447 J1.379
X-408.726 Y-175.355 Z16.512 I-1.427 J-0.255
X-407.881 Y-176.428 Z16.463 I1.427 J0.255
X-405.853 Y-174.988 Z16.358 I0.582 J1.328
X-408.078 Y-173.877 Z16.254 I-1.446 J-0.112
X-408.011 Y-176.363 Z16.15 I0.779 J-1.223
X-405.849 Y-175.133 Z16.045 I0.712 J1.263
X-407.952 Y-173.805 Z15.941 I-1.45 J0.033
X-408.133 Y-176.286 Z15.837 I0.653 J-1.294
X-405.86 Y-175.278 Z15.732 I0.834 J1.186
X-408.738 Y-174.922 Z15.573 I-1.439 J0.178
X-408.247 Y-176.196 Z15.523 I1.439 J-0.178
X-405.885 Y-175.42 Z15.419 I0.949 J1.097
X-407.682 Y-173.701 Z15.315 I-1.414 J0.32
X-408.352 Y-176.096 Z15.21 I0.383 J-1.398
X-405.924 Y-175.56 Z15.106 I1.053 J0.996
X-407.541 Y-173.67 Z15.002 I-1.375 J0.46
X-408.446 Y-175.986 Z14.897 I0.242 J-1.43
X-405.977 Y-175.695 Z14.793 I1.148 J0.886
X-407.397 Y-173.653 Z14.689 I-1.322 J0.595
X-408.529 Y-175.867 Z14.584 I0.098 J-1.447
X-406.069 Y-174.332 Z14.425 I1.23 J0.767
X-407.252 Y-173.651 Z14.376 I-1.23 J-0.767
X-408.6 Y-175.741 Z14.271 I-0.047 J-1.449
X-406.121 Y-175.946 Z14.167 I1.301 J0.641
X-407.107 Y-173.662 Z14.062 I-1.178 J0.846
X-407.49 Y-176.537 Z13.903 I-0.192 J-1.437
X-406.211 Y-176.059 Z13.854 I0.192 J1.437
X-406.965 Y-173.689 Z13.749 I-1.087 J0.959
X-407.633 Y-176.511 Z13.59 I-0.334 J-1.411
X-406.313 Y-176.163 Z13.541 I0.334 J1.411
X-406.826 Y-173.729 Z13.436 I-0.986 J1.063
X-408.731 Y-175.328 Z13.332 I-0.473 J-1.371
X-406.424 Y-176.256 Z13.228 I1.432 J0.228
X-406.691 Y-173.783 Z13.123 I-0.875 J1.156
X-408.746 Y-175.184 Z13.019 I-0.608 J-1.317
X-406.543 Y-176.337 Z12.914 I1.448 J0.084
X-408.054 Y-173.862 Z12.755 I-0.755 J1.238
X-408.748 Y-175.039 Z12.706 I0.756 J-1.238
X-406.671 Y-176.407 Z12.601 I1.449 J-0.061
X-406.442 Y-173.93 Z12.497 I-0.628 J1.307
X-408.734 Y-174.894 Z12.393 I-0.857 J-1.17
X-406.804 Y-176.463 Z12.288 I1.435 J-0.205
X-406.329 Y-174.022 Z12.184 I-0.495 J1.363
X-408.268 Y-176.178 Z12.025 I-0.97 J-1.078
X-406.943 Y-176.505 Z11.975 I0.97 J1.078
X-406.227 Y-174.124 Z11.871 I-0.356 J1.406
X-408.665 Y-174.613 Z11.766 I-1.072 J-0.976
X-407.085 Y-176.534 Z11.662 I1.366 J-0.486
X-406.134 Y-174.236 Z11.558 I-0.214 J1.434
X-408.609 Y-174.479 Z11.453 I-1.164 J-0.864
X-405.988 Y-175.72 Z11.294 I1.311 J-0.62
X-408.541 Y-174.352 Z11.14 I-1.311 J0.62
X-407.374 Y-176.548 Z11.036 I1.242 J-0.748
X-405.986 Y-174.484 Z10.932 I0.075 J1.448
X-408.46 Y-174.231 Z10.827 I-1.313 J-0.616
X-407.518 Y-176.533 Z10.723 I1.161 J-0.868
X-405.931 Y-174.618 Z10.618 I0.219 J1.433
X-408.368 Y-174.12 Z10.514 I-1.368 J-0.481
X-407.66 Y-176.504 Z10.41 I1.069 J-0.98
X-405.89 Y-174.757 Z10.305 I0.361 J1.404
X-408.265 Y-174.018 Z10.201 I-1.409 J-0.343
X-407.798 Y-176.461 Z10.097 I0.966 J-1.082
X-405.863 Y-174.9 Z9.992 I0.5 J1.361
X-408.152 Y-173.927 Z9.888 I-1.436 J-0.2
X-406.446 Y-176.272 Z9.729 I0.853 J-1.173
X-405.85 Y-175.044 Z9.679 I-0.853 J1.173
X-408.03 Y-173.848 Z9.575 I-1.449 J-0.056
X-406.567 Y-176.352 Z9.416 I0.732 J-1.252
X-407.902 Y-173.781 Z9.262 I-0.732 J1.252
X-408.178 Y-176.253 Z9.157 I0.603 J-1.319
X-406.419 Y-173.947 Z8.998 I0.88 J1.153
X-408.289 Y-176.159 Z8.844 I-0.88 J-1.153
X-405.898 Y-175.475 Z8.74 I0.99 J1.059
X-407.628 Y-173.688 Z8.636 I-1.401 J0.375
X-406.97 Y-176.512 Z8.476 I0.329 J-1.412
X-405.943 Y-175.612 Z8.427 I-0.329 J1.412
X-407.485 Y-173.662 Z8.322 I-1.356 J0.513
X-408.48 Y-175.941 Z8.218 I0.186 J-1.438
X-406 Y-175.745 Z8.114 I1.181 J0.842
X-407.341 Y-173.65 Z8.009 I-1.298 J0.646
X-408.558 Y-175.819 Z7.905 I0.042 J-1.449
X-406.071 Y-175.872 Z7.801 I1.259 J0.719
X-407.196 Y-173.653 Z7.696 I-1.227 J0.772
X-408.623 Y-175.69 Z7.592 I-0.103 J-1.446
X-406.155 Y-175.99 Z7.488 I1.324 J0.59
X-407.052 Y-173.671 Z7.383 I-1.144 J0.891
X-408.676 Y-175.555 Z7.279 I-0.247 J-1.429
X-406.249 Y-176.1 Z7.174 I1.377 J0.455
X-408.349 Y-174.099 Z7.015 I-1.05 J1
X-406.354 Y-176.2 Z6.861 I1.05 J-1
X-406.773 Y-173.748 Z6.757 I-0.945 J1.1
X-407.825 Y-176.451 Z6.598 I-0.526 J-1.351
