%
(1001)
(z0 slate machine -5-5)
(T1  D=6 CR=0 - ZMIN=2 - flat end mill)
G90 G94
G17
G21

(2D Adaptive6)
M9
T1 M6
S6000 M3
G54
M9
G0 X-105.39 Y-22.984
Z30
Z20
Z18.15
G1 Z17.55 F850
G3 X-109.21 Y-27.214 Z17.237 I-1.91 J-2.115 F283.3
X-105.39 Y-22.984 Z16.925 I1.91 J2.115
X-109.21 Y-27.214 Z16.612 I-1.91 J-2.115
X-105.39 Y-22.984 Z16.299 I1.91 J2.115
X-109.21 Y-27.214 Z15.987 I-1.91 J-2.115
X-105.39 Y-22.984 Z15.674 I1.91 J2.115
X-109.21 Y-27.214 Z15.361 I-1.91 J-2.115
X-105.39 Y-22.984 Z15.049 I1.91 J2.115
X-109.21 Y-27.214 Z14.736 I-1.91 J-2.115
X-105.39 Y-22.984 Z14.423 I1.91 J2.115
X-109.21 Y-27.214 Z14.111 I-1.91 J-2.115
X-105.39 Y-22.984 Z13.798 I1.91 J2.115
X-109.21 Y-27.214 Z13.485 I-1.91 J-2.115
X-105.39 Y-22.984 Z13.173 I1.91 J2.115
X-109.21 Y-27.214 Z12.86 I-1.91 J-2.115
X-105.39 Y-22.984 Z12.547 I1.91 J2.115
X-109.21 Y-27.214 Z12.235 I-1.91 J-2.115
X-105.39 Y-22.984 Z11.922 I1.91 J2.115
X-109.21 Y-27.214 Z11.609 I-1.91 J-2.115
X-105.39 Y-22.984 Z11.297 I1.91 J2.115
X-109.21 Y-27.214 Z10.984 I-1.91 J-2.115
X-105.39 Y-22.984 Z10.671 I1.91 J2.115
X-109.21 Y-27.214 Z10.359 I-1.91 J-2.115
X-105.39 Y-22.984 Z10.046 I1.91 J2.115
X-109.21 Y-27.214 Z9.733 I-1.91 J-2.115
X-105.39 Y-22.984 Z9.421 I1.91 J2.115
X-109.21 Y-27.214 Z9.108 I-1.91 J-2.115
X-105.39 Y-22.984 Z8.795 I1.91 J2.115
X-109.21 Y-27.214 Z8.483 I-1.91 J-2.115
X-105.39 Y-22.984 Z8.17 I1.91 J2.115
X-109.21 Y-27.214 Z7.857 I-1.91 J-2.115
X-105.39 Y-22.984 Z7.545 I1.91 J2.115
X-109.21 Y-27.214 Z7.232 I-1.91 J-2.115
X-105.39 Y-22.984 Z6.919 I1.91 J2.115
X-109.21 Y-27.214 Z6.607 I-1.91 J-2.115
X-105.39 Y-22.984 Z6.294 I1.91 J2.115
X-109.21 Y-27.214 Z5.981 I-1.91 J-2.115
X-105.39 Y-22.984 Z5.669 I1.91 J2.115
X-109.21 Y-27.214 Z5.356 I-1.91 J-2.115
X-105.39 Y-22.984 Z5.043 I1.91 J2.115
X-109.21 Y-27.214 Z4.731 I-1.91 J-2.115
X-105.39 Y-22.984 Z4.418 I1.91 J2.115
X-109.21 Y-27.214 Z4.105 I-1.91 J-2.115
X-105.39 Y-22.984 Z3.793 I1.91 J2.115
X-109.21 Y-27.214 Z3.48 I-1.91 J-2.115
X-105.39 Y-22.984 Z3.167 I1.91 J2.115
X-109.21 Y-27.214 Z2.855 I-1.91 J-2.115
X-105.39 Y-22.984 Z2.542 I1.91 J2.115
X-109.21 Y-27.214 Z2.229 I-1.91 J-2.115
X-104.45 Y-25.099 Z2 I1.91 J2.115
X-110.15 I-2.85
X-104.45 I2.85
G1 X-104.436 Y-24.142 F850
X-104.407 Y-24.026
X-104.387 Y-23.877
X-104.385 Y-23.727
X-104.398 Y-23.578
X-104.425 Y-23.43
X-104.463 Y-23.285
X-104.513 Y-23.143
X-104.572 Y-23.006
X-104.64 Y-22.872
X-104.716 Y-22.743
X-104.801 Y-22.619
X-104.892 Y-22.499
X-104.993 Y-22.381
X-105.104 Y-22.266
X-105.224 Y-22.154
X-105.354 Y-22.047
X-105.492 Y-21.945
X-105.638 Y-21.849
X-105.793 Y-21.76
X-105.955 Y-21.678
X-106.124 Y-21.605
X-106.3 Y-21.54
X-106.481 Y-21.484
X-106.667 Y-21.438
X-106.858 Y-21.402
X-107.052 Y-21.377
X-107.249 Y-21.363
X-107.448 Y-21.36
X-107.648 Y-21.368
X-107.849 Y-21.387
X-108.049 Y-21.418
X-108.249 Y-21.46
X-108.447 Y-21.514
X-108.642 Y-21.579
X-108.834 Y-21.655
X-109.022 Y-21.743
X-109.206 Y-21.841
X-109.384 Y-21.949
X-109.556 Y-22.068
X-109.722 Y-22.196
X-109.88 Y-22.334
X-110.031 Y-22.481
X-110.173 Y-22.636
X-110.307 Y-22.8
X-110.431 Y-22.971
X-110.546 Y-23.148
X-110.651 Y-23.332
X-110.745 Y-23.522
X-110.829 Y-23.718
X-110.901 Y-23.917
X-110.962 Y-24.121
X-111.012 Y-24.327
X-111.049 Y-24.537
X-111.075 Y-24.748
X-111.089 Y-24.96
X-111.092 Y-25.173
X-111.082 Y-25.386
X-111.06 Y-25.598
X-111.026 Y-25.809
X-110.98 Y-26.017
X-110.923 Y-26.223
X-110.854 Y-26.425
X-110.774 Y-26.623
X-110.683 Y-26.816
X-110.582 Y-27.003
X-110.469 Y-27.185
X-110.347 Y-27.36
X-110.215 Y-27.528
X-110.074 Y-27.688
X-109.924 Y-27.84
X-109.766 Y-27.983
X-109.599 Y-28.117
X-109.426 Y-28.242
X-109.246 Y-28.357
X-109.059 Y-28.461
X-108.867 Y-28.555
X-108.67 Y-28.638
X-108.469 Y-28.709
X-108.264 Y-28.769
X-108.056 Y-28.818
X-107.845 Y-28.854
X-107.633 Y-28.879
X-107.42 Y-28.892
X-107.206 Y-28.893
X-106.993 Y-28.881
X-106.78 Y-28.858
X-106.57 Y-28.823
X-106.361 Y-28.776
X-106.156 Y-28.717
X-105.954 Y-28.647
X-105.756 Y-28.566
X-105.564 Y-28.473
X-105.376 Y-28.37
X-105.195 Y-28.257
X-105.021 Y-28.133
X-104.854 Y-28
X-104.694 Y-27.858
X-104.543 Y-27.707
X-104.401 Y-27.547
X-104.267 Y-27.38
X-104.144 Y-27.206
X-104.03 Y-27.025
X-103.927 Y-26.838
X-103.823 Y-26.621
X-103.694 Y-26.308
X-103.542 Y-25.873
X-103.445 Y-25.531
X-103.377 Y-25.233
X-103.332 Y-24.961
X-103.304 Y-24.706
X-103.297 Y-24.576
X-103.3 Y-24.316
X-103.337 Y-24.059
X-103.406 Y-23.809
X-103.541 Y-23.423
X-103.577 Y-23.328
X-103.629 Y-23.233
X-104.039 Y-22.58
X-104.107 Y-22.492
X-104.671 Y-21.927
X-104.759 Y-21.853
X-104.847 Y-21.797
X-105.332 Y-21.492
X-105.5 Y-21.391
X-105.718 Y-21.308
X-106.153 Y-21.156
X-106.371 Y-21.082
X-106.548 Y-21.057
X-107.241 Y-20.979
X-107.35 Y-20.978
X-108.112 Y-21.064
X-108.22 Y-21.081
X-108.329 Y-21.114
X-108.982 Y-21.343
X-109.091 Y-21.386
X-109.2 Y-21.449
X-109.635 Y-21.723
X-109.853 Y-21.862
X-109.929 Y-21.927
X-110.364 Y-22.363
X-110.506 Y-22.507
X-110.561 Y-22.58
X-110.971 Y-23.233
X-111.029 Y-23.342
X-111.068 Y-23.451
X-111.297 Y-24.104
X-111.326 Y-24.212
X-111.34 Y-24.321
X-111.414 Y-24.974
X-111.423 Y-25.083
X-111.417 Y-25.192
X-111.331 Y-25.953
X-111.308 Y-26.062
X-111.042 Y-26.824
X-111.02 Y-26.878
X-110.992 Y-26.933
X-110.583 Y-27.585
X-110.506 Y-27.693
X-110.398 Y-27.803
X-109.963 Y-28.238
X-109.853 Y-28.338
X-109.635 Y-28.477
X-109.2 Y-28.751
X-109.091 Y-28.814
X-108.982 Y-28.857
X-108.329 Y-29.086
X-108.261 Y-29.109
X-108.186 Y-29.127
X-108.112 Y-29.136
X-107.35 Y-29.222
X-107.296 Y-29.224
X-107.241 Y-29.221
X-106.588 Y-29.148
X-106.371 Y-29.118
X-106.339 Y-29.109
X-105.715 Y-28.891
X-105.5 Y-28.81
X-105.277 Y-28.674
X-104.847 Y-28.403
X-104.742 Y-28.334
X-104.63 Y-28.231
X-104.194 Y-27.795
X-104.092 Y-27.69
X-104.017 Y-27.585
X-103.608 Y-26.933
X-103.57 Y-26.855
X-103.52 Y-26.715
X-103.292 Y-26.062
X-103.268 Y-25.953
X-103.182 Y-25.192
X-103.177 Y-25.083
X-103.186 Y-24.974
X-103.26 Y-24.321
X-103.274 Y-24.212
X-103.303 Y-24.104
X-103.406 Y-23.809
G3 X-103.532 Y-23.611 I-0.559 J-0.218
G1 X-103.597 Y-23.543 Z2.007
X-103.661 Y-23.477 Z2.029
X-103.721 Y-23.415 Z2.065
X-103.776 Y-23.357 Z2.115
X-103.826 Y-23.305 Z2.176
X-103.868 Y-23.261 Z2.247
X-103.902 Y-23.225 Z2.328
X-103.927 Y-23.199 Z2.415
X-103.942 Y-23.184 Z2.506
X-103.948 Y-23.178 Z2.6
G0 Z30

(2D Contour5)
S8000 M3
M9
X-107.3 Y-25.1
Z30
Z20
G1 Z2 F850
G3 X-107 Y-25.4 I0.3
G1 X-102.95
G3 X-102.65 Y-25.1 J0.3
X-111.95 I-4.65
X-102.65 I4.65
X-111.95 I-4.65
X-102.65 I4.65
X-103.25 Y-24.5 I-0.6
G1 X-103.85
G18 G3 X-104.45 Z2.6 K0.6
G0 Z30
G17

(2D Adaptive6)
S6000 M3
M9
G0 X-180.39 Y-22.984
Z30
Z20
Z18.15
G1 Z17.55 F850
G3 X-184.21 Y-27.214 Z17.237 I-1.91 J-2.115 F283.3
X-180.39 Y-22.984 Z16.925 I1.91 J2.115
X-184.21 Y-27.214 Z16.612 I-1.91 J-2.115
X-180.39 Y-22.984 Z16.299 I1.91 J2.115
X-184.21 Y-27.214 Z15.987 I-1.91 J-2.115
X-180.39 Y-22.984 Z15.674 I1.91 J2.115
X-184.21 Y-27.214 Z15.361 I-1.91 J-2.115
X-180.39 Y-22.984 Z15.049 I1.91 J2.115
X-184.21 Y-27.214 Z14.736 I-1.91 J-2.115
X-180.39 Y-22.984 Z14.423 I1.91 J2.115
X-184.21 Y-27.214 Z14.111 I-1.91 J-2.115
X-180.39 Y-22.984 Z13.798 I1.91 J2.115
X-184.21 Y-27.214 Z13.485 I-1.91 J-2.115
X-180.39 Y-22.984 Z13.173 I1.91 J2.115
X-184.21 Y-27.214 Z12.86 I-1.91 J-2.115
X-180.39 Y-22.984 Z12.547 I1.91 J2.115
X-184.21 Y-27.214 Z12.235 I-1.91 J-2.115
X-180.39 Y-22.984 Z11.922 I1.91 J2.115
X-184.21 Y-27.214 Z11.609 I-1.91 J-2.115
X-180.39 Y-22.984 Z11.297 I1.91 J2.115
X-184.21 Y-27.214 Z10.984 I-1.91 J-2.115
X-180.39 Y-22.984 Z10.671 I1.91 J2.115
X-184.21 Y-27.214 Z10.359 I-1.91 J-2.115
X-180.39 Y-22.984 Z10.046 I1.91 J2.115
X-184.21 Y-27.214 Z9.733 I-1.91 J-2.115
X-180.39 Y-22.984 Z9.421 I1.91 J2.115
X-184.21 Y-27.214 Z9.108 I-1.91 J-2.115
X-180.39 Y-22.984 Z8.795 I1.91 J2.115
X-184.21 Y-27.214 Z8.483 I-1.91 J-2.115
X-180.39 Y-22.984 Z8.17 I1.91 J2.115
X-184.21 Y-27.214 Z7.857 I-1.91 J-2.115
X-180.39 Y-22.984 Z7.545 I1.91 J2.115
X-184.21 Y-27.214 Z7.232 I-1.91 J-2.115
X-180.39 Y-22.984 Z6.919 I1.91 J2.115
X-184.21 Y-27.214 Z6.607 I-1.91 J-2.115
X-180.39 Y-22.984 Z6.294 I1.91 J2.115
X-184.21 Y-27.214 Z5.981 I-1.91 J-2.115
X-180.39 Y-22.984 Z5.669 I1.91 J2.115
X-184.21 Y-27.214 Z5.356 I-1.91 J-2.115
X-180.39 Y-22.984 Z5.043 I1.91 J2.115
X-184.21 Y-27.214 Z4.731 I-1.91 J-2.115
X-180.39 Y-22.984 Z4.418 I1.91 J2.115
X-184.21 Y-27.214 Z4.105 I-1.91 J-2.115
X-180.39 Y-22.984 Z3.793 I1.91 J2.115
X-184.21 Y-27.214 Z3.48 I-1.91 J-2.115
X-180.39 Y-22.984 Z3.167 I1.91 J2.115
X-184.21 Y-27.214 Z2.855 I-1.91 J-2.115
X-180.39 Y-22.984 Z2.542 I1.91 J2.115
X-184.21 Y-27.214 Z2.229 I-1.91 J-2.115
X-179.45 Y-25.099 Z2 I1.91 J2.115
X-185.15 I-2.85
X-179.45 I2.85
G1 X-179.436 Y-24.142 F850
X-179.407 Y-24.026
X-179.387 Y-23.877
X-179.385 Y-23.727
X-179.398 Y-23.578
X-179.425 Y-23.43
X-179.463 Y-23.285
X-179.513 Y-23.143
X-179.572 Y-23.006
X-179.64 Y-22.872
X-179.716 Y-22.743
X-179.801 Y-22.619
X-179.892 Y-22.499
X-179.993 Y-22.381
X-180.104 Y-22.266
X-180.224 Y-22.154
X-180.354 Y-22.047
X-180.492 Y-21.945
X-180.638 Y-21.849
X-180.793 Y-21.76
X-180.955 Y-21.678
X-181.124 Y-21.605
X-181.3 Y-21.54
X-181.481 Y-21.484
X-181.667 Y-21.438
X-181.858 Y-21.402
X-182.052 Y-21.377
X-182.249 Y-21.363
X-182.448 Y-21.36
X-182.648 Y-21.368
X-182.849 Y-21.387
X-183.049 Y-21.418
X-183.249 Y-21.46
X-183.447 Y-21.514
X-183.642 Y-21.579
X-183.834 Y-21.655
X-184.022 Y-21.743
X-184.206 Y-21.841
X-184.384 Y-21.949
X-184.556 Y-22.068
X-184.722 Y-22.196
X-184.88 Y-22.334
X-185.031 Y-22.481
X-185.173 Y-22.636
X-185.307 Y-22.8
X-185.431 Y-22.971
X-185.546 Y-23.148
X-185.651 Y-23.332
X-185.745 Y-23.522
X-185.829 Y-23.718
X-185.901 Y-23.917
X-185.962 Y-24.121
X-186.012 Y-24.327
X-186.049 Y-24.537
X-186.075 Y-24.748
X-186.089 Y-24.96
X-186.092 Y-25.173
X-186.082 Y-25.386
X-186.06 Y-25.598
X-186.026 Y-25.809
X-185.98 Y-26.017
X-185.923 Y-26.223
X-185.854 Y-26.425
X-185.774 Y-26.623
X-185.683 Y-26.816
X-185.582 Y-27.003
X-185.469 Y-27.185
X-185.347 Y-27.36
X-185.215 Y-27.528
X-185.074 Y-27.688
X-184.924 Y-27.84
X-184.766 Y-27.983
X-184.599 Y-28.117
X-184.426 Y-28.242
X-184.246 Y-28.357
X-184.059 Y-28.461
X-183.867 Y-28.555
X-183.67 Y-28.638
X-183.469 Y-28.709
X-183.264 Y-28.769
X-183.056 Y-28.818
X-182.845 Y-28.854
X-182.633 Y-28.879
X-182.42 Y-28.892
X-182.206 Y-28.893
X-181.993 Y-28.881
X-181.78 Y-28.858
X-181.57 Y-28.823
X-181.361 Y-28.776
X-181.156 Y-28.717
X-180.954 Y-28.647
X-180.756 Y-28.566
X-180.564 Y-28.473
X-180.376 Y-28.37
X-180.195 Y-28.257
X-180.021 Y-28.133
X-179.854 Y-28
X-179.694 Y-27.858
X-179.543 Y-27.707
X-179.401 Y-27.547
X-179.267 Y-27.38
X-179.144 Y-27.206
X-179.03 Y-27.025
X-178.927 Y-26.838
X-178.823 Y-26.621
X-178.694 Y-26.308
X-178.542 Y-25.873
X-178.445 Y-25.531
X-178.377 Y-25.233
X-178.332 Y-24.961
X-178.304 Y-24.706
X-178.297 Y-24.576
X-178.3 Y-24.316
X-178.337 Y-24.059
X-178.406 Y-23.809
X-178.541 Y-23.423
X-178.577 Y-23.328
X-178.629 Y-23.233
X-179.039 Y-22.58
X-179.107 Y-22.492
X-179.671 Y-21.927
X-179.759 Y-21.853
X-179.847 Y-21.797
X-180.332 Y-21.492
X-180.5 Y-21.391
X-180.718 Y-21.308
X-181.153 Y-21.156
X-181.371 Y-21.082
X-181.548 Y-21.057
X-182.241 Y-20.979
X-182.35 Y-20.978
X-183.112 Y-21.064
X-183.22 Y-21.081
X-183.329 Y-21.114
X-183.982 Y-21.343
X-184.091 Y-21.386
X-184.2 Y-21.449
X-184.635 Y-21.723
X-184.853 Y-21.862
X-184.929 Y-21.927
X-185.364 Y-22.363
X-185.506 Y-22.507
X-185.561 Y-22.58
X-185.971 Y-23.233
X-186.029 Y-23.342
X-186.068 Y-23.451
X-186.297 Y-24.104
X-186.326 Y-24.212
X-186.34 Y-24.321
X-186.414 Y-24.974
X-186.423 Y-25.083
X-186.417 Y-25.192
X-186.331 Y-25.953
X-186.308 Y-26.062
X-186.042 Y-26.824
X-186.02 Y-26.878
X-185.992 Y-26.933
X-185.583 Y-27.585
X-185.506 Y-27.693
X-185.398 Y-27.803
X-184.963 Y-28.238
X-184.853 Y-28.338
X-184.635 Y-28.477
X-184.2 Y-28.751
X-184.091 Y-28.814
X-183.982 Y-28.857
X-183.329 Y-29.086
X-183.261 Y-29.109
X-183.186 Y-29.127
X-183.112 Y-29.136
X-182.35 Y-29.222
X-182.296 Y-29.224
X-182.241 Y-29.221
X-181.588 Y-29.148
X-181.371 Y-29.118
X-181.339 Y-29.109
X-180.715 Y-28.891
X-180.5 Y-28.81
X-180.277 Y-28.674
X-179.847 Y-28.403
X-179.742 Y-28.334
X-179.63 Y-28.231
X-179.194 Y-27.795
X-179.092 Y-27.69
X-179.017 Y-27.585
X-178.608 Y-26.933
X-178.57 Y-26.855
X-178.52 Y-26.715
X-178.292 Y-26.062
X-178.268 Y-25.953
X-178.182 Y-25.192
X-178.177 Y-25.083
X-178.186 Y-24.974
X-178.26 Y-24.321
X-178.274 Y-24.212
X-178.303 Y-24.104
X-178.406 Y-23.809
G3 X-178.532 Y-23.611 I-0.559 J-0.218
G1 X-178.597 Y-23.543 Z2.007
X-178.661 Y-23.477 Z2.029
X-178.721 Y-23.415 Z2.065
X-178.776 Y-23.357 Z2.115
X-178.826 Y-23.305 Z2.176
X-178.868 Y-23.261 Z2.247
X-178.902 Y-23.225 Z2.328
X-178.927 Y-23.199 Z2.415
X-178.942 Y-23.184 Z2.506
X-178.948 Y-23.178 Z2.6
G0 Z30

(2D Contour5)
S8000 M3
M9
X-182.3 Y-25.1
Z30
Z20
G1 Z2 F850
G3 X-182 Y-25.4 I0.3
G1 X-177.95
G3 X-177.65 Y-25.1 J0.3
X-186.95 I-4.65
X-177.65 I4.65
X-186.95 I-4.65
X-177.65 I4.65
X-178.25 Y-24.5 I-0.6
G1 X-178.85
G18 G3 X-179.45 Z2.6 K0.6
G0 Z30
G17

(2D Adaptive6)
S6000 M3
M9
G0 X-255.39 Y-22.984
Z30
Z20
Z18.15
G1 Z17.55 F850
G3 X-259.21 Y-27.214 Z17.237 I-1.91 J-2.115 F283.3
X-255.39 Y-22.984 Z16.925 I1.91 J2.115
X-259.21 Y-27.214 Z16.612 I-1.91 J-2.115
X-255.39 Y-22.984 Z16.299 I1.91 J2.115
X-259.21 Y-27.214 Z15.987 I-1.91 J-2.115
X-255.39 Y-22.984 Z15.674 I1.91 J2.115
X-259.21 Y-27.214 Z15.361 I-1.91 J-2.115
X-255.39 Y-22.984 Z15.049 I1.91 J2.115
X-259.21 Y-27.214 Z14.736 I-1.91 J-2.115
X-255.39 Y-22.984 Z14.423 I1.91 J2.115
X-259.21 Y-27.214 Z14.111 I-1.91 J-2.115
X-255.39 Y-22.984 Z13.798 I1.91 J2.115
X-259.21 Y-27.214 Z13.485 I-1.91 J-2.115
X-255.39 Y-22.984 Z13.173 I1.91 J2.115
X-259.21 Y-27.214 Z12.86 I-1.91 J-2.115
X-255.39 Y-22.984 Z12.547 I1.91 J2.115
X-259.21 Y-27.214 Z12.235 I-1.91 J-2.115
X-255.39 Y-22.984 Z11.922 I1.91 J2.115
X-259.21 Y-27.214 Z11.609 I-1.91 J-2.115
X-255.39 Y-22.984 Z11.297 I1.91 J2.115
X-259.21 Y-27.214 Z10.984 I-1.91 J-2.115
X-255.39 Y-22.984 Z10.671 I1.91 J2.115
X-259.21 Y-27.214 Z10.359 I-1.91 J-2.115
X-255.39 Y-22.984 Z10.046 I1.91 J2.115
X-259.21 Y-27.214 Z9.733 I-1.91 J-2.115
X-255.39 Y-22.984 Z9.421 I1.91 J2.115
X-259.21 Y-27.214 Z9.108 I-1.91 J-2.115
X-255.39 Y-22.984 Z8.795 I1.91 J2.115
X-259.21 Y-27.214 Z8.483 I-1.91 J-2.115
X-255.39 Y-22.984 Z8.17 I1.91 J2.115
X-259.21 Y-27.214 Z7.857 I-1.91 J-2.115
X-255.39 Y-22.984 Z7.545 I1.91 J2.115
X-259.21 Y-27.214 Z7.232 I-1.91 J-2.115
X-255.39 Y-22.984 Z6.919 I1.91 J2.115
X-259.21 Y-27.214 Z6.607 I-1.91 J-2.115
X-255.39 Y-22.984 Z6.294 I1.91 J2.115
X-259.21 Y-27.214 Z5.981 I-1.91 J-2.115
X-255.39 Y-22.984 Z5.669 I1.91 J2.115
X-259.21 Y-27.214 Z5.356 I-1.91 J-2.115
X-255.39 Y-22.984 Z5.043 I1.91 J2.115
X-259.21 Y-27.214 Z4.731 I-1.91 J-2.115
X-255.39 Y-22.984 Z4.418 I1.91 J2.115
X-259.21 Y-27.214 Z4.105 I-1.91 J-2.115
X-255.39 Y-22.984 Z3.793 I1.91 J2.115
X-259.21 Y-27.214 Z3.48 I-1.91 J-2.115
X-255.39 Y-22.984 Z3.167 I1.91 J2.115
X-259.21 Y-27.214 Z2.855 I-1.91 J-2.115
X-255.39 Y-22.984 Z2.542 I1.91 J2.115
X-259.21 Y-27.214 Z2.229 I-1.91 J-2.115
X-254.45 Y-25.099 Z2 I1.91 J2.115
X-260.15 I-2.85
X-254.45 I2.85
G1 X-254.436 Y-24.142 F850
X-254.407 Y-24.026
X-254.387 Y-23.877
X-254.385 Y-23.727
X-254.398 Y-23.578
X-254.425 Y-23.43
X-254.463 Y-23.285
X-254.513 Y-23.143
X-254.572 Y-23.006
X-254.64 Y-22.872
X-254.716 Y-22.743
X-254.801 Y-22.619
X-254.892 Y-22.499
X-254.993 Y-22.381
X-255.104 Y-22.266
X-255.224 Y-22.154
X-255.354 Y-22.047
X-255.492 Y-21.945
X-255.638 Y-21.849
X-255.793 Y-21.76
X-255.955 Y-21.678
X-256.124 Y-21.605
X-256.3 Y-21.54
X-256.481 Y-21.484
X-256.667 Y-21.438
X-256.858 Y-21.402
X-257.052 Y-21.377
X-257.249 Y-21.363
X-257.448 Y-21.36
X-257.648 Y-21.368
X-257.849 Y-21.387
X-258.049 Y-21.418
X-258.249 Y-21.46
X-258.447 Y-21.514
X-258.642 Y-21.579
X-258.834 Y-21.655
X-259.022 Y-21.743
X-259.206 Y-21.841
X-259.384 Y-21.949
X-259.556 Y-22.068
X-259.722 Y-22.196
X-259.88 Y-22.334
X-260.031 Y-22.481
X-260.173 Y-22.636
X-260.307 Y-22.8
X-260.431 Y-22.971
X-260.546 Y-23.148
X-260.651 Y-23.332
X-260.745 Y-23.522
X-260.829 Y-23.718
X-260.901 Y-23.917
X-260.962 Y-24.121
X-261.012 Y-24.327
X-261.049 Y-24.537
X-261.075 Y-24.748
X-261.089 Y-24.96
X-261.092 Y-25.173
X-261.082 Y-25.386
X-261.06 Y-25.598
X-261.026 Y-25.809
X-260.98 Y-26.017
X-260.923 Y-26.223
X-260.854 Y-26.425
X-260.774 Y-26.623
X-260.683 Y-26.816
X-260.582 Y-27.003
X-260.469 Y-27.185
X-260.347 Y-27.36
X-260.215 Y-27.528
X-260.074 Y-27.688
X-259.924 Y-27.84
X-259.766 Y-27.983
X-259.599 Y-28.117
X-259.426 Y-28.242
X-259.246 Y-28.357
X-259.059 Y-28.461
X-258.867 Y-28.555
X-258.67 Y-28.638
X-258.469 Y-28.709
X-258.264 Y-28.769
X-258.056 Y-28.818
X-257.845 Y-28.854
X-257.633 Y-28.879
X-257.42 Y-28.892
X-257.206 Y-28.893
X-256.993 Y-28.881
X-256.78 Y-28.858
X-256.57 Y-28.823
X-256.361 Y-28.776
X-256.156 Y-28.717
X-255.954 Y-28.647
X-255.756 Y-28.566
X-255.564 Y-28.473
X-255.376 Y-28.37
X-255.195 Y-28.257
X-255.021 Y-28.133
X-254.854 Y-28
X-254.694 Y-27.858
X-254.543 Y-27.707
X-254.401 Y-27.547
X-254.267 Y-27.38
X-254.144 Y-27.206
X-254.03 Y-27.025
X-253.927 Y-26.838
X-253.823 Y-26.621
X-253.694 Y-26.308
X-253.542 Y-25.873
X-253.445 Y-25.531
X-253.377 Y-25.233
X-253.332 Y-24.961
X-253.304 Y-24.706
X-253.297 Y-24.576
X-253.3 Y-24.316
X-253.337 Y-24.059
X-253.406 Y-23.809
X-253.541 Y-23.423
X-253.577 Y-23.328
X-253.629 Y-23.233
X-254.039 Y-22.58
X-254.107 Y-22.492
X-254.671 Y-21.927
X-254.759 Y-21.853
X-254.847 Y-21.797
X-255.332 Y-21.492
X-255.5 Y-21.391
X-255.718 Y-21.308
X-256.153 Y-21.156
X-256.371 Y-21.082
X-256.548 Y-21.057
X-257.241 Y-20.979
X-257.35 Y-20.978
X-258.112 Y-21.064
X-258.22 Y-21.081
X-258.329 Y-21.114
X-258.982 Y-21.343
X-259.091 Y-21.386
X-259.2 Y-21.449
X-259.635 Y-21.723
X-259.853 Y-21.862
X-259.929 Y-21.927
X-260.364 Y-22.363
X-260.506 Y-22.507
X-260.561 Y-22.58
X-260.971 Y-23.233
X-261.029 Y-23.342
X-261.068 Y-23.451
X-261.297 Y-24.104
X-261.326 Y-24.212
X-261.34 Y-24.321
X-261.414 Y-24.974
X-261.423 Y-25.083
X-261.417 Y-25.192
X-261.331 Y-25.953
X-261.308 Y-26.062
X-261.042 Y-26.824
X-261.02 Y-26.878
X-260.992 Y-26.933
X-260.583 Y-27.585
X-260.506 Y-27.693
X-260.398 Y-27.803
X-259.963 Y-28.238
X-259.853 Y-28.338
X-259.635 Y-28.477
X-259.2 Y-28.751
X-259.091 Y-28.814
X-258.982 Y-28.857
X-258.329 Y-29.086
X-258.261 Y-29.109
X-258.186 Y-29.127
X-258.112 Y-29.136
X-257.35 Y-29.222
X-257.296 Y-29.224
X-257.241 Y-29.221
X-256.588 Y-29.148
X-256.371 Y-29.118
X-256.339 Y-29.109
X-255.715 Y-28.891
X-255.5 Y-28.81
X-255.277 Y-28.674
X-254.847 Y-28.403
X-254.742 Y-28.334
X-254.63 Y-28.231
X-254.194 Y-27.795
X-254.092 Y-27.69
X-254.017 Y-27.585
X-253.608 Y-26.933
X-253.57 Y-26.855
X-253.52 Y-26.715
X-253.292 Y-26.062
X-253.268 Y-25.953
X-253.182 Y-25.192
X-253.177 Y-25.083
X-253.186 Y-24.974
X-253.26 Y-24.321
X-253.274 Y-24.212
X-253.303 Y-24.104
X-253.406 Y-23.809
G3 X-253.532 Y-23.611 I-0.559 J-0.218
G1 X-253.597 Y-23.543 Z2.007
X-253.661 Y-23.477 Z2.029
X-253.721 Y-23.415 Z2.065
X-253.776 Y-23.357 Z2.115
X-253.826 Y-23.305 Z2.176
X-253.868 Y-23.261 Z2.247
X-253.902 Y-23.225 Z2.328
X-253.927 Y-23.199 Z2.415
X-253.942 Y-23.184 Z2.506
X-253.948 Y-23.178 Z2.6
G0 Z30

(2D Contour5)
S8000 M3
M9
X-257.3 Y-25.1
Z30
Z20
G1 Z2 F850
G3 X-257 Y-25.4 I0.3
G1 X-252.95
G3 X-252.65 Y-25.1 J0.3
X-261.95 I-4.65
X-252.65 I4.65
X-261.95 I-4.65
X-252.65 I4.65
X-253.25 Y-24.5 I-0.6
G1 X-253.85
G18 G3 X-254.45 Z2.6 K0.6
G0 Z30
G17

(2D Adaptive6)
S6000 M3
M9
G0 X-330.39 Y-22.984
Z30
Z20
Z18.15
G1 Z17.55 F850
G3 X-334.21 Y-27.214 Z17.237 I-1.91 J-2.115 F283.3
X-330.39 Y-22.984 Z16.925 I1.91 J2.115
X-334.21 Y-27.214 Z16.612 I-1.91 J-2.115
X-330.39 Y-22.984 Z16.299 I1.91 J2.115
X-334.21 Y-27.214 Z15.987 I-1.91 J-2.115
X-330.39 Y-22.984 Z15.674 I1.91 J2.115
X-334.21 Y-27.214 Z15.361 I-1.91 J-2.115
X-330.39 Y-22.984 Z15.049 I1.91 J2.115
X-334.21 Y-27.214 Z14.736 I-1.91 J-2.115
X-330.39 Y-22.984 Z14.423 I1.91 J2.115
X-334.21 Y-27.214 Z14.111 I-1.91 J-2.115
X-330.39 Y-22.984 Z13.798 I1.91 J2.115
X-334.21 Y-27.214 Z13.485 I-1.91 J-2.115
X-330.39 Y-22.984 Z13.173 I1.91 J2.115
X-334.21 Y-27.214 Z12.86 I-1.91 J-2.115
X-330.39 Y-22.984 Z12.547 I1.91 J2.115
X-334.21 Y-27.214 Z12.235 I-1.91 J-2.115
X-330.39 Y-22.984 Z11.922 I1.91 J2.115
X-334.21 Y-27.214 Z11.609 I-1.91 J-2.115
X-330.39 Y-22.984 Z11.297 I1.91 J2.115
X-334.21 Y-27.214 Z10.984 I-1.91 J-2.115
X-330.39 Y-22.984 Z10.671 I1.91 J2.115
X-334.21 Y-27.214 Z10.359 I-1.91 J-2.115
X-330.39 Y-22.984 Z10.046 I1.91 J2.115
X-334.21 Y-27.214 Z9.733 I-1.91 J-2.115
X-330.39 Y-22.984 Z9.421 I1.91 J2.115
X-334.21 Y-27.214 Z9.108 I-1.91 J-2.115
X-330.39 Y-22.984 Z8.795 I1.91 J2.115
X-334.21 Y-27.214 Z8.483 I-1.91 J-2.115
X-330.39 Y-22.984 Z8.17 I1.91 J2.115
X-334.21 Y-27.214 Z7.857 I-1.91 J-2.115
X-330.39 Y-22.984 Z7.545 I1.91 J2.115
X-334.21 Y-27.214 Z7.232 I-1.91 J-2.115
X-330.39 Y-22.984 Z6.919 I1.91 J2.115
X-334.21 Y-27.214 Z6.607 I-1.91 J-2.115
X-330.39 Y-22.984 Z6.294 I1.91 J2.115
X-334.21 Y-27.214 Z5.981 I-1.91 J-2.115
X-330.39 Y-22.984 Z5.669 I1.91 J2.115
X-334.21 Y-27.214 Z5.356 I-1.91 J-2.115
X-330.39 Y-22.984 Z5.043 I1.91 J2.115
X-334.21 Y-27.214 Z4.731 I-1.91 J-2.115
X-330.39 Y-22.984 Z4.418 I1.91 J2.115
X-334.21 Y-27.214 Z4.105 I-1.91 J-2.115
X-330.39 Y-22.984 Z3.793 I1.91 J2.115
X-334.21 Y-27.214 Z3.48 I-1.91 J-2.115
X-330.39 Y-22.984 Z3.167 I1.91 J2.115
X-334.21 Y-27.214 Z2.855 I-1.91 J-2.115
X-330.39 Y-22.984 Z2.542 I1.91 J2.115
X-334.21 Y-27.214 Z2.229 I-1.91 J-2.115
X-329.45 Y-25.099 Z2 I1.91 J2.115
X-335.15 I-2.85
X-329.45 I2.85
G1 X-329.436 Y-24.142 F850
X-329.407 Y-24.026
X-329.387 Y-23.877
X-329.385 Y-23.727
X-329.398 Y-23.578
X-329.425 Y-23.43
X-329.463 Y-23.285
X-329.513 Y-23.143
X-329.572 Y-23.006
X-329.64 Y-22.872
X-329.716 Y-22.743
X-329.801 Y-22.619
X-329.892 Y-22.499
X-329.993 Y-22.381
X-330.104 Y-22.266
X-330.224 Y-22.154
X-330.354 Y-22.047
X-330.492 Y-21.945
X-330.638 Y-21.849
X-330.793 Y-21.76
X-330.955 Y-21.678
X-331.124 Y-21.605
X-331.3 Y-21.54
X-331.481 Y-21.484
X-331.667 Y-21.438
X-331.858 Y-21.402
X-332.052 Y-21.377
X-332.249 Y-21.363
X-332.448 Y-21.36
X-332.648 Y-21.368
X-332.849 Y-21.387
X-333.049 Y-21.418
X-333.249 Y-21.46
X-333.447 Y-21.514
X-333.642 Y-21.579
X-333.834 Y-21.655
X-334.022 Y-21.743
X-334.206 Y-21.841
X-334.384 Y-21.949
X-334.556 Y-22.068
X-334.722 Y-22.196
X-334.88 Y-22.334
X-335.031 Y-22.481
X-335.173 Y-22.636
X-335.307 Y-22.8
X-335.431 Y-22.971
X-335.546 Y-23.148
X-335.651 Y-23.332
X-335.745 Y-23.522
X-335.829 Y-23.718
X-335.901 Y-23.917
X-335.962 Y-24.121
X-336.012 Y-24.327
X-336.049 Y-24.537
X-336.075 Y-24.748
X-336.089 Y-24.96
X-336.092 Y-25.173
X-336.082 Y-25.386
X-336.06 Y-25.598
X-336.026 Y-25.809
X-335.98 Y-26.017
X-335.923 Y-26.223
X-335.854 Y-26.425
X-335.774 Y-26.623
X-335.683 Y-26.816
X-335.582 Y-27.003
X-335.469 Y-27.185
X-335.347 Y-27.36
X-335.215 Y-27.528
X-335.074 Y-27.688
X-334.924 Y-27.84
X-334.766 Y-27.983
X-334.599 Y-28.117
X-334.426 Y-28.242
X-334.246 Y-28.357
X-334.059 Y-28.461
X-333.867 Y-28.555
X-333.67 Y-28.638
X-333.469 Y-28.709
X-333.264 Y-28.769
X-333.056 Y-28.818
X-332.845 Y-28.854
X-332.633 Y-28.879
X-332.42 Y-28.892
X-332.206 Y-28.893
X-331.993 Y-28.881
X-331.78 Y-28.858
X-331.57 Y-28.823
X-331.361 Y-28.776
X-331.156 Y-28.717
X-330.954 Y-28.647
X-330.756 Y-28.566
X-330.564 Y-28.473
X-330.376 Y-28.37
X-330.195 Y-28.257
X-330.021 Y-28.133
X-329.854 Y-28
X-329.694 Y-27.858
X-329.543 Y-27.707
X-329.401 Y-27.547
X-329.267 Y-27.38
X-329.144 Y-27.206
X-329.03 Y-27.025
X-328.927 Y-26.838
X-328.823 Y-26.621
X-328.694 Y-26.308
X-328.542 Y-25.873
X-328.445 Y-25.531
X-328.377 Y-25.233
X-328.332 Y-24.961
X-328.304 Y-24.706
X-328.297 Y-24.576
X-328.3 Y-24.316
X-328.337 Y-24.059
X-328.406 Y-23.809
X-328.541 Y-23.423
X-328.577 Y-23.328
X-328.629 Y-23.233
X-329.039 Y-22.58
X-329.107 Y-22.492
X-329.671 Y-21.927
X-329.759 Y-21.853
X-329.847 Y-21.797
X-330.332 Y-21.492
X-330.5 Y-21.391
X-330.718 Y-21.308
X-331.153 Y-21.156
X-331.371 Y-21.082
X-331.548 Y-21.057
X-332.241 Y-20.979
X-332.35 Y-20.978
X-333.112 Y-21.064
X-333.22 Y-21.081
X-333.329 Y-21.114
X-333.982 Y-21.343
X-334.091 Y-21.386
X-334.2 Y-21.449
X-334.635 Y-21.723
X-334.853 Y-21.862
X-334.929 Y-21.927
X-335.364 Y-22.363
X-335.506 Y-22.507
X-335.561 Y-22.58
X-335.971 Y-23.233
X-336.029 Y-23.342
X-336.068 Y-23.451
X-336.297 Y-24.104
X-336.326 Y-24.212
X-336.34 Y-24.321
X-336.414 Y-24.974
X-336.423 Y-25.083
X-336.417 Y-25.192
X-336.331 Y-25.953
X-336.308 Y-26.062
X-336.042 Y-26.824
X-336.02 Y-26.878
X-335.992 Y-26.933
X-335.583 Y-27.585
X-335.506 Y-27.693
X-335.398 Y-27.803
X-334.963 Y-28.238
X-334.853 Y-28.338
X-334.635 Y-28.477
X-334.2 Y-28.751
X-334.091 Y-28.814
X-333.982 Y-28.857
X-333.329 Y-29.086
X-333.261 Y-29.109
X-333.186 Y-29.127
X-333.112 Y-29.136
X-332.35 Y-29.222
X-332.296 Y-29.224
X-332.241 Y-29.221
X-331.588 Y-29.148
X-331.371 Y-29.118
X-331.339 Y-29.109
X-330.715 Y-28.891
X-330.5 Y-28.81
X-330.277 Y-28.674
X-329.847 Y-28.403
X-329.742 Y-28.334
X-329.63 Y-28.231
X-329.194 Y-27.795
X-329.092 Y-27.69
X-329.017 Y-27.585
X-328.608 Y-26.933
X-328.57 Y-26.855
X-328.52 Y-26.715
X-328.292 Y-26.062
X-328.268 Y-25.953
X-328.182 Y-25.192
X-328.177 Y-25.083
X-328.186 Y-24.974
X-328.26 Y-24.321
X-328.274 Y-24.212
X-328.303 Y-24.104
X-328.406 Y-23.809
G3 X-328.532 Y-23.611 I-0.559 J-0.218
G1 X-328.597 Y-23.543 Z2.007
X-328.661 Y-23.477 Z2.029
X-328.721 Y-23.415 Z2.065
X-328.776 Y-23.357 Z2.115
X-328.826 Y-23.305 Z2.176
X-328.868 Y-23.261 Z2.247
X-328.902 Y-23.225 Z2.328
X-328.927 Y-23.199 Z2.415
X-328.942 Y-23.184 Z2.506
X-328.948 Y-23.178 Z2.6
G0 Z30

(2D Contour5)
S8000 M3
M9
X-332.3 Y-25.1
Z30
Z20
G1 Z2 F850
G3 X-332 Y-25.4 I0.3
G1 X-327.95
G3 X-327.65 Y-25.1 J0.3
X-336.95 I-4.65
X-327.65 I4.65
X-336.95 I-4.65
X-327.65 I4.65
X-328.25 Y-24.5 I-0.6
G1 X-328.85
G18 G3 X-329.45 Z2.6 K0.6
G0 Z30
G17

(2D Adaptive6)
S6000 M3
M9
G0 X-405.39 Y-22.984
Z30
Z20
Z18.15
G1 Z17.55 F850
G3 X-409.21 Y-27.214 Z17.237 I-1.91 J-2.115 F283.3
X-405.39 Y-22.984 Z16.925 I1.91 J2.115
X-409.21 Y-27.214 Z16.612 I-1.91 J-2.115
X-405.39 Y-22.984 Z16.299 I1.91 J2.115
X-409.21 Y-27.214 Z15.987 I-1.91 J-2.115
X-405.39 Y-22.984 Z15.674 I1.91 J2.115
X-409.21 Y-27.214 Z15.361 I-1.91 J-2.115
X-405.39 Y-22.984 Z15.049 I1.91 J2.115
X-409.21 Y-27.214 Z14.736 I-1.91 J-2.115
X-405.39 Y-22.984 Z14.423 I1.91 J2.115
X-409.21 Y-27.214 Z14.111 I-1.91 J-2.115
X-405.39 Y-22.984 Z13.798 I1.91 J2.115
X-409.21 Y-27.214 Z13.485 I-1.91 J-2.115
X-405.39 Y-22.984 Z13.173 I1.91 J2.115
X-409.21 Y-27.214 Z12.86 I-1.91 J-2.115
X-405.39 Y-22.984 Z12.547 I1.91 J2.115
X-409.21 Y-27.214 Z12.235 I-1.91 J-2.115
X-405.39 Y-22.984 Z11.922 I1.91 J2.115
X-409.21 Y-27.214 Z11.609 I-1.91 J-2.115
X-405.39 Y-22.984 Z11.297 I1.91 J2.115
X-409.21 Y-27.214 Z10.984 I-1.91 J-2.115
X-405.39 Y-22.984 Z10.671 I1.91 J2.115
X-409.21 Y-27.214 Z10.359 I-1.91 J-2.115
X-405.39 Y-22.984 Z10.046 I1.91 J2.115
X-409.21 Y-27.214 Z9.733 I-1.91 J-2.115
X-405.39 Y-22.984 Z9.421 I1.91 J2.115
X-409.21 Y-27.214 Z9.108 I-1.91 J-2.115
X-405.39 Y-22.984 Z8.795 I1.91 J2.115
X-409.21 Y-27.214 Z8.483 I-1.91 J-2.115
X-405.39 Y-22.984 Z8.17 I1.91 J2.115
X-409.21 Y-27.214 Z7.857 I-1.91 J-2.115
X-405.39 Y-22.984 Z7.545 I1.91 J2.115
X-409.21 Y-27.214 Z7.232 I-1.91 J-2.115
X-405.39 Y-22.984 Z6.919 I1.91 J2.115
X-409.21 Y-27.214 Z6.607 I-1.91 J-2.115
X-405.39 Y-22.984 Z6.294 I1.91 J2.115
X-409.21 Y-27.214 Z5.981 I-1.91 J-2.115
X-405.39 Y-22.984 Z5.669 I1.91 J2.115
X-409.21 Y-27.214 Z5.356 I-1.91 J-2.115
X-405.39 Y-22.984 Z5.043 I1.91 J2.115
X-409.21 Y-27.214 Z4.731 I-1.91 J-2.115
X-405.39 Y-22.984 Z4.418 I1.91 J2.115
X-409.21 Y-27.214 Z4.105 I-1.91 J-2.115
X-405.39 Y-22.984 Z3.793 I1.91 J2.115
X-409.21 Y-27.214 Z3.48 I-1.91 J-2.115
X-405.39 Y-22.984 Z3.167 I1.91 J2.115
X-409.21 Y-27.214 Z2.855 I-1.91 J-2.115
X-405.39 Y-22.984 Z2.542 I1.91 J2.115
X-409.21 Y-27.214 Z2.229 I-1.91 J-2.115
X-404.45 Y-25.099 Z2 I1.91 J2.115
X-410.15 I-2.85
X-404.45 I2.85
G1 X-404.436 Y-24.142 F850
X-404.407 Y-24.026
X-404.387 Y-23.877
X-404.385 Y-23.727
X-404.398 Y-23.578
X-404.425 Y-23.43
X-404.463 Y-23.285
X-404.513 Y-23.143
X-404.572 Y-23.006
X-404.64 Y-22.872
X-404.716 Y-22.743
X-404.801 Y-22.619
X-404.892 Y-22.499
X-404.993 Y-22.381
X-405.104 Y-22.266
X-405.224 Y-22.154
X-405.354 Y-22.047
X-405.492 Y-21.945
X-405.638 Y-21.849
X-405.793 Y-21.76
X-405.955 Y-21.678
X-406.124 Y-21.605
X-406.3 Y-21.54
X-406.481 Y-21.484
X-406.667 Y-21.438
X-406.858 Y-21.402
X-407.052 Y-21.377
X-407.249 Y-21.363
X-407.448 Y-21.36
X-407.648 Y-21.368
X-407.849 Y-21.387
X-408.049 Y-21.418
X-408.249 Y-21.46
X-408.447 Y-21.514
X-408.642 Y-21.579
X-408.834 Y-21.655
X-409.022 Y-21.743
X-409.206 Y-21.841
X-409.384 Y-21.949
X-409.556 Y-22.068
X-409.722 Y-22.196
X-409.88 Y-22.334
X-410.031 Y-22.481
X-410.173 Y-22.636
X-410.307 Y-22.8
X-410.431 Y-22.971
X-410.546 Y-23.148
X-410.651 Y-23.332
X-410.745 Y-23.522
X-410.829 Y-23.718
X-410.901 Y-23.917
X-410.962 Y-24.121
X-411.012 Y-24.327
X-411.049 Y-24.537
X-411.075 Y-24.748
X-411.089 Y-24.96
X-411.092 Y-25.173
X-411.082 Y-25.386
X-411.06 Y-25.598
X-411.026 Y-25.809
X-410.98 Y-26.017
X-410.923 Y-26.223
X-410.854 Y-26.425
X-410.774 Y-26.623
X-410.683 Y-26.816
X-410.582 Y-27.003
X-410.469 Y-27.185
X-410.347 Y-27.36
X-410.215 Y-27.528
X-410.074 Y-27.688
X-409.924 Y-27.84
X-409.766 Y-27.983
X-409.599 Y-28.117
X-409.426 Y-28.242
X-409.246 Y-28.357
X-409.059 Y-28.461
X-408.867 Y-28.555
X-408.67 Y-28.638
X-408.469 Y-28.709
X-408.264 Y-28.769
X-408.056 Y-28.818
X-407.845 Y-28.854
X-407.633 Y-28.879
X-407.42 Y-28.892
X-407.206 Y-28.893
X-406.993 Y-28.881
X-406.78 Y-28.858
X-406.57 Y-28.823
X-406.361 Y-28.776
X-406.156 Y-28.717
X-405.954 Y-28.647
X-405.756 Y-28.566
X-405.564 Y-28.473
X-405.376 Y-28.37
X-405.195 Y-28.257
X-405.021 Y-28.133
X-404.854 Y-28
X-404.694 Y-27.858
X-404.543 Y-27.707
X-404.401 Y-27.547
X-404.267 Y-27.38
X-404.144 Y-27.206
X-404.03 Y-27.025
X-403.927 Y-26.838
X-403.823 Y-26.621
X-403.694 Y-26.308
X-403.542 Y-25.873
X-403.445 Y-25.531
X-403.377 Y-25.233
X-403.332 Y-24.961
X-403.304 Y-24.706
X-403.297 Y-24.576
X-403.3 Y-24.316
X-403.337 Y-24.059
X-403.406 Y-23.809
X-403.541 Y-23.423
X-403.577 Y-23.328
X-403.629 Y-23.233
X-404.039 Y-22.58
X-404.107 Y-22.492
X-404.671 Y-21.927
X-404.759 Y-21.853
X-404.847 Y-21.797
X-405.332 Y-21.492
X-405.5 Y-21.391
X-405.718 Y-21.308
X-406.153 Y-21.156
X-406.371 Y-21.082
X-406.548 Y-21.057
X-407.241 Y-20.979
X-407.35 Y-20.978
X-408.112 Y-21.064
X-408.22 Y-21.081
X-408.329 Y-21.114
X-408.982 Y-21.343
X-409.091 Y-21.386
X-409.2 Y-21.449
X-409.635 Y-21.723
X-409.853 Y-21.862
X-409.929 Y-21.927
X-410.364 Y-22.363
X-410.506 Y-22.507
X-410.561 Y-22.58
X-410.971 Y-23.233
X-411.029 Y-23.342
X-411.068 Y-23.451
X-411.297 Y-24.104
X-411.326 Y-24.212
X-411.34 Y-24.321
X-411.414 Y-24.974
X-411.423 Y-25.083
X-411.417 Y-25.192
X-411.331 Y-25.953
X-411.308 Y-26.062
X-411.042 Y-26.824
X-411.02 Y-26.878
X-410.992 Y-26.933
X-410.583 Y-27.585
X-410.506 Y-27.693
X-410.398 Y-27.803
X-409.963 Y-28.238
X-409.853 Y-28.338
X-409.635 Y-28.477
X-409.2 Y-28.751
X-409.091 Y-28.814
X-408.982 Y-28.857
X-408.329 Y-29.086
X-408.261 Y-29.109
X-408.186 Y-29.127
X-408.112 Y-29.136
X-407.35 Y-29.222
X-407.296 Y-29.224
X-407.241 Y-29.221
X-406.588 Y-29.148
X-406.371 Y-29.118
X-406.339 Y-29.109
X-405.715 Y-28.891
X-405.5 Y-28.81
X-405.277 Y-28.674
X-404.847 Y-28.403
X-404.742 Y-28.334
X-404.63 Y-28.231
X-404.194 Y-27.795
X-404.092 Y-27.69
X-404.017 Y-27.585
X-403.608 Y-26.933
X-403.57 Y-26.855
X-403.52 Y-26.715
X-403.292 Y-26.062
X-403.268 Y-25.953
X-403.182 Y-25.192
X-403.177 Y-25.083
X-403.186 Y-24.974
X-403.26 Y-24.321
X-403.274 Y-24.212
X-403.303 Y-24.104
X-403.406 Y-23.809
G3 X-403.532 Y-23.611 I-0.559 J-0.218
G1 X-403.597 Y-23.543 Z2.007
X-403.661 Y-23.477 Z2.029
X-403.721 Y-23.415 Z2.065
X-403.776 Y-23.357 Z2.115
X-403.826 Y-23.305 Z2.176
X-403.868 Y-23.261 Z2.247
X-403.902 Y-23.225 Z2.328
X-403.927 Y-23.199 Z2.415
X-403.942 Y-23.184 Z2.506
X-403.948 Y-23.178 Z2.6
G0 Z30

(2D Contour5)
S8000 M3
M9
X-407.3 Y-25.1
Z30
Z20
G1 Z2 F850
G3 X-407 Y-25.4 I0.3
G1 X-402.95
G3 X-402.65 Y-25.1 J0.3
X-411.95 I-4.65
X-402.65 I4.65
X-411.95 I-4.65
X-402.65 I4.65
X-403.25 Y-24.5 I-0.6
G1 X-403.85
G18 G3 X-404.45 Z2.6 K0.6
G0 Z30
G17

(2D Adaptive6)
S6000 M3
M9
G0 X-480.39 Y-22.984
Z30
Z20
Z18.15
G1 Z17.55 F850
G3 X-484.21 Y-27.214 Z17.237 I-1.91 J-2.115 F283.3
X-480.39 Y-22.984 Z16.925 I1.91 J2.115
X-484.21 Y-27.214 Z16.612 I-1.91 J-2.115
X-480.39 Y-22.984 Z16.299 I1.91 J2.115
X-484.21 Y-27.214 Z15.987 I-1.91 J-2.115
X-480.39 Y-22.984 Z15.674 I1.91 J2.115
X-484.21 Y-27.214 Z15.361 I-1.91 J-2.115
X-480.39 Y-22.984 Z15.049 I1.91 J2.115
X-484.21 Y-27.214 Z14.736 I-1.91 J-2.115
X-480.39 Y-22.984 Z14.423 I1.91 J2.115
X-484.21 Y-27.214 Z14.111 I-1.91 J-2.115
X-480.39 Y-22.984 Z13.798 I1.91 J2.115
X-484.21 Y-27.214 Z13.485 I-1.91 J-2.115
X-480.39 Y-22.984 Z13.173 I1.91 J2.115
X-484.21 Y-27.214 Z12.86 I-1.91 J-2.115
X-480.39 Y-22.984 Z12.547 I1.91 J2.115
X-484.21 Y-27.214 Z12.235 I-1.91 J-2.115
X-480.39 Y-22.984 Z11.922 I1.91 J2.115
X-484.21 Y-27.214 Z11.609 I-1.91 J-2.115
X-480.39 Y-22.984 Z11.297 I1.91 J2.115
X-484.21 Y-27.214 Z10.984 I-1.91 J-2.115
X-480.39 Y-22.984 Z10.671 I1.91 J2.115
X-484.21 Y-27.214 Z10.359 I-1.91 J-2.115
X-480.39 Y-22.984 Z10.046 I1.91 J2.115
X-484.21 Y-27.214 Z9.733 I-1.91 J-2.115
X-480.39 Y-22.984 Z9.421 I1.91 J2.115
X-484.21 Y-27.214 Z9.108 I-1.91 J-2.115
X-480.39 Y-22.984 Z8.795 I1.91 J2.115
X-484.21 Y-27.214 Z8.483 I-1.91 J-2.115
X-480.39 Y-22.984 Z8.17 I1.91 J2.115
X-484.21 Y-27.214 Z7.857 I-1.91 J-2.115
X-480.39 Y-22.984 Z7.545 I1.91 J2.115
X-484.21 Y-27.214 Z7.232 I-1.91 J-2.115
X-480.39 Y-22.984 Z6.919 I1.91 J2.115
X-484.21 Y-27.214 Z6.607 I-1.91 J-2.115
X-480.39 Y-22.984 Z6.294 I1.91 J2.115
X-484.21 Y-27.214 Z5.981 I-1.91 J-2.115
X-480.39 Y-22.984 Z5.669 I1.91 J2.115
X-484.21 Y-27.214 Z5.356 I-1.91 J-2.115
X-480.39 Y-22.984 Z5.043 I1.91 J2.115
X-484.21 Y-27.214 Z4.731 I-1.91 J-2.115
X-480.39 Y-22.984 Z4.418 I1.91 J2.115
X-484.21 Y-27.214 Z4.105 I-1.91 J-2.115
X-480.39 Y-22.984 Z3.793 I1.91 J2.115
X-484.21 Y-27.214 Z3.48 I-1.91 J-2.115
X-480.39 Y-22.984 Z3.167 I1.91 J2.115
X-484.21 Y-27.214 Z2.855 I-1.91 J-2.115
X-480.39 Y-22.984 Z2.542 I1.91 J2.115
X-484.21 Y-27.214 Z2.229 I-1.91 J-2.115
X-479.45 Y-25.099 Z2 I1.91 J2.115
X-485.15 I-2.85
X-479.45 I2.85
G1 X-479.436 Y-24.142 F850
X-479.407 Y-24.026
X-479.387 Y-23.877
X-479.385 Y-23.727
X-479.398 Y-23.578
X-479.425 Y-23.43
X-479.463 Y-23.285
X-479.513 Y-23.143
X-479.572 Y-23.006
X-479.64 Y-22.872
X-479.716 Y-22.743
X-479.801 Y-22.619
X-479.892 Y-22.499
X-479.993 Y-22.381
X-480.104 Y-22.266
X-480.224 Y-22.154
X-480.354 Y-22.047
X-480.492 Y-21.945
X-480.638 Y-21.849
X-480.793 Y-21.76
X-480.955 Y-21.678
X-481.124 Y-21.605
X-481.3 Y-21.54
X-481.481 Y-21.484
X-481.667 Y-21.438
X-481.858 Y-21.402
X-482.052 Y-21.377
X-482.249 Y-21.363
X-482.448 Y-21.36
X-482.648 Y-21.368
X-482.849 Y-21.387
X-483.049 Y-21.418
X-483.249 Y-21.46
X-483.447 Y-21.514
X-483.642 Y-21.579
X-483.834 Y-21.655
X-484.022 Y-21.743
X-484.206 Y-21.841
X-484.384 Y-21.949
X-484.556 Y-22.068
X-484.722 Y-22.196
X-484.88 Y-22.334
X-485.031 Y-22.481
X-485.173 Y-22.636
X-485.307 Y-22.8
X-485.431 Y-22.971
X-485.546 Y-23.148
X-485.651 Y-23.332
X-485.745 Y-23.522
X-485.829 Y-23.718
X-485.901 Y-23.917
X-485.962 Y-24.121
X-486.012 Y-24.327
X-486.049 Y-24.537
X-486.075 Y-24.748
X-486.089 Y-24.96
X-486.092 Y-25.173
X-486.082 Y-25.386
X-486.06 Y-25.598
X-486.026 Y-25.809
X-485.98 Y-26.017
X-485.923 Y-26.223
X-485.854 Y-26.425
X-485.774 Y-26.623
X-485.683 Y-26.816
X-485.582 Y-27.003
X-485.469 Y-27.185
X-485.347 Y-27.36
X-485.215 Y-27.528
X-485.074 Y-27.688
X-484.924 Y-27.84
X-484.766 Y-27.983
X-484.599 Y-28.117
X-484.426 Y-28.242
X-484.246 Y-28.357
X-484.059 Y-28.461
X-483.867 Y-28.555
X-483.67 Y-28.638
X-483.469 Y-28.709
X-483.264 Y-28.769
X-483.056 Y-28.818
X-482.845 Y-28.854
X-482.633 Y-28.879
X-482.42 Y-28.892
X-482.206 Y-28.893
X-481.993 Y-28.881
X-481.78 Y-28.858
X-481.57 Y-28.823
X-481.361 Y-28.776
X-481.156 Y-28.717
X-480.954 Y-28.647
X-480.756 Y-28.566
X-480.564 Y-28.473
X-480.376 Y-28.37
X-480.195 Y-28.257
X-480.021 Y-28.133
X-479.854 Y-28
X-479.694 Y-27.858
X-479.543 Y-27.707
X-479.401 Y-27.547
X-479.267 Y-27.38
X-479.144 Y-27.206
X-479.03 Y-27.025
X-478.927 Y-26.838
X-478.823 Y-26.621
X-478.694 Y-26.308
X-478.542 Y-25.873
X-478.445 Y-25.531
X-478.377 Y-25.233
X-478.332 Y-24.961
X-478.304 Y-24.706
X-478.297 Y-24.576
X-478.3 Y-24.316
X-478.337 Y-24.059
X-478.406 Y-23.809
X-478.541 Y-23.423
X-478.577 Y-23.328
X-478.629 Y-23.233
X-479.039 Y-22.58
X-479.107 Y-22.492
X-479.671 Y-21.927
X-479.759 Y-21.853
X-479.847 Y-21.797
X-480.332 Y-21.492
X-480.5 Y-21.391
X-480.718 Y-21.308
X-481.153 Y-21.156
X-481.371 Y-21.082
X-481.548 Y-21.057
X-482.241 Y-20.979
X-482.35 Y-20.978
X-483.112 Y-21.064
X-483.22 Y-21.081
X-483.329 Y-21.114
X-483.982 Y-21.343
X-484.091 Y-21.386
X-484.2 Y-21.449
X-484.635 Y-21.723
X-484.853 Y-21.862
X-484.929 Y-21.927
X-485.364 Y-22.363
X-485.506 Y-22.507
X-485.561 Y-22.58
X-485.971 Y-23.233
X-486.029 Y-23.342
X-486.068 Y-23.451
X-486.297 Y-24.104
X-486.326 Y-24.212
X-486.34 Y-24.321
X-486.414 Y-24.974
X-486.423 Y-25.083
X-486.417 Y-25.192
X-486.331 Y-25.953
X-486.308 Y-26.062
X-486.042 Y-26.824
X-486.02 Y-26.878
X-485.992 Y-26.933
X-485.583 Y-27.585
X-485.506 Y-27.693
X-485.398 Y-27.803
X-484.963 Y-28.238
X-484.853 Y-28.338
X-484.635 Y-28.477
X-484.2 Y-28.751
X-484.091 Y-28.814
X-483.982 Y-28.857
X-483.329 Y-29.086
X-483.261 Y-29.109
X-483.186 Y-29.127
X-483.112 Y-29.136
X-482.35 Y-29.222
X-482.296 Y-29.224
X-482.241 Y-29.221
X-481.588 Y-29.148
X-481.371 Y-29.118
X-481.339 Y-29.109
X-480.715 Y-28.891
X-480.5 Y-28.81
X-480.277 Y-28.674
X-479.847 Y-28.403
X-479.742 Y-28.334
X-479.63 Y-28.231
X-479.194 Y-27.795
X-479.092 Y-27.69
X-479.017 Y-27.585
X-478.608 Y-26.933
X-478.57 Y-26.855
X-478.52 Y-26.715
X-478.292 Y-26.062
X-478.268 Y-25.953
X-478.182 Y-25.192
X-478.177 Y-25.083
X-478.186 Y-24.974
X-478.26 Y-24.321
X-478.274 Y-24.212
X-478.303 Y-24.104
X-478.406 Y-23.809
G3 X-478.532 Y-23.611 I-0.559 J-0.218
G1 X-478.597 Y-23.543 Z2.007
X-478.661 Y-23.477 Z2.029
X-478.721 Y-23.415 Z2.065
X-478.776 Y-23.357 Z2.115
X-478.826 Y-23.305 Z2.176
X-478.868 Y-23.261 Z2.247
X-478.902 Y-23.225 Z2.328
X-478.927 Y-23.199 Z2.415
X-478.942 Y-23.184 Z2.506
X-478.948 Y-23.178 Z2.6
G0 Z30

(2D Contour5)
S8000 M3
M9
X-482.3 Y-25.1
Z30
Z20
G1 Z2 F850
G3 X-482 Y-25.4 I0.3
G1 X-477.95
G3 X-477.65 Y-25.1 J0.3
X-486.95 I-4.65
X-477.65 I4.65
X-486.95 I-4.65
X-477.65 I4.65
X-478.25 Y-24.5 I-0.6
G1 X-478.85
G18 G3 X-479.45 Z2.6 K0.6
G0 Z30
G17

(2D Adaptive6)
S6000 M3
M9
G0 X-555.39 Y-22.984
Z30
Z20
Z18.15
G1 Z17.55 F850
G3 X-559.21 Y-27.214 Z17.237 I-1.91 J-2.115 F283.3
X-555.39 Y-22.984 Z16.925 I1.91 J2.115
X-559.21 Y-27.214 Z16.612 I-1.91 J-2.115
X-555.39 Y-22.984 Z16.299 I1.91 J2.115
X-559.21 Y-27.214 Z15.987 I-1.91 J-2.115
X-555.39 Y-22.984 Z15.674 I1.91 J2.115
X-559.21 Y-27.214 Z15.361 I-1.91 J-2.115
X-555.39 Y-22.984 Z15.049 I1.91 J2.115
X-559.21 Y-27.214 Z14.736 I-1.91 J-2.115
X-555.39 Y-22.984 Z14.423 I1.91 J2.115
X-559.21 Y-27.214 Z14.111 I-1.91 J-2.115
X-555.39 Y-22.984 Z13.798 I1.91 J2.115
X-559.21 Y-27.214 Z13.485 I-1.91 J-2.115
X-555.39 Y-22.984 Z13.173 I1.91 J2.115
X-559.21 Y-27.214 Z12.86 I-1.91 J-2.115
X-555.39 Y-22.984 Z12.547 I1.91 J2.115
X-559.21 Y-27.214 Z12.235 I-1.91 J-2.115
X-555.39 Y-22.984 Z11.922 I1.91 J2.115
X-559.21 Y-27.214 Z11.609 I-1.91 J-2.115
X-555.39 Y-22.984 Z11.297 I1.91 J2.115
X-559.21 Y-27.214 Z10.984 I-1.91 J-2.115
X-555.39 Y-22.984 Z10.671 I1.91 J2.115
X-559.21 Y-27.214 Z10.359 I-1.91 J-2.115
X-555.39 Y-22.984 Z10.046 I1.91 J2.115
X-559.21 Y-27.214 Z9.733 I-1.91 J-2.115
X-555.39 Y-22.984 Z9.421 I1.91 J2.115
X-559.21 Y-27.214 Z9.108 I-1.91 J-2.115
X-555.39 Y-22.984 Z8.795 I1.91 J2.115
X-559.21 Y-27.214 Z8.483 I-1.91 J-2.115
X-555.39 Y-22.984 Z8.17 I1.91 J2.115
X-559.21 Y-27.214 Z7.857 I-1.91 J-2.115
X-555.39 Y-22.984 Z7.545 I1.91 J2.115
X-559.21 Y-27.214 Z7.232 I-1.91 J-2.115
X-555.39 Y-22.984 Z6.919 I1.91 J2.115
X-559.21 Y-27.214 Z6.607 I-1.91 J-2.115
X-555.39 Y-22.984 Z6.294 I1.91 J2.115
X-559.21 Y-27.214 Z5.981 I-1.91 J-2.115
X-555.39 Y-22.984 Z5.669 I1.91 J2.115
X-559.21 Y-27.214 Z5.356 I-1.91 J-2.115
X-555.39 Y-22.984 Z5.043 I1.91 J2.115
X-559.21 Y-27.214 Z4.731 I-1.91 J-2.115
X-555.39 Y-22.984 Z4.418 I1.91 J2.115
X-559.21 Y-27.214 Z4.105 I-1.91 J-2.115
X-555.39 Y-22.984 Z3.793 I1.91 J2.115
X-559.21 Y-27.214 Z3.48 I-1.91 J-2.115
X-555.39 Y-22.984 Z3.167 I1.91 J2.115
X-559.21 Y-27.214 Z2.855 I-1.91 J-2.115
X-555.39 Y-22.984 Z2.542 I1.91 J2.115
X-559.21 Y-27.214 Z2.229 I-1.91 J-2.115
X-554.45 Y-25.099 Z2 I1.91 J2.115
X-560.15 I-2.85
X-554.45 I2.85
G1 X-554.436 Y-24.142 F850
X-554.407 Y-24.026
X-554.387 Y-23.877
X-554.385 Y-23.727
X-554.398 Y-23.578
X-554.425 Y-23.43
X-554.463 Y-23.285
X-554.513 Y-23.143
X-554.572 Y-23.006
X-554.64 Y-22.872
X-554.716 Y-22.743
X-554.801 Y-22.619
X-554.892 Y-22.499
X-554.993 Y-22.381
X-555.104 Y-22.266
X-555.224 Y-22.154
X-555.354 Y-22.047
X-555.492 Y-21.945
X-555.638 Y-21.849
X-555.793 Y-21.76
X-555.955 Y-21.678
X-556.124 Y-21.605
X-556.3 Y-21.54
X-556.481 Y-21.484
X-556.667 Y-21.438
X-556.858 Y-21.402
X-557.052 Y-21.377
X-557.249 Y-21.363
X-557.448 Y-21.36
X-557.648 Y-21.368
X-557.849 Y-21.387
X-558.049 Y-21.418
X-558.249 Y-21.46
X-558.447 Y-21.514
X-558.642 Y-21.579
X-558.834 Y-21.655
X-559.022 Y-21.743
X-559.206 Y-21.841
X-559.384 Y-21.949
X-559.556 Y-22.068
X-559.722 Y-22.196
X-559.88 Y-22.334
X-560.031 Y-22.481
X-560.173 Y-22.636
X-560.307 Y-22.8
X-560.431 Y-22.971
X-560.546 Y-23.148
X-560.651 Y-23.332
X-560.745 Y-23.522
X-560.829 Y-23.718
X-560.901 Y-23.917
X-560.962 Y-24.121
X-561.012 Y-24.327
X-561.049 Y-24.537
X-561.075 Y-24.748
X-561.089 Y-24.96
X-561.092 Y-25.173
X-561.082 Y-25.386
X-561.06 Y-25.598
X-561.026 Y-25.809
X-560.98 Y-26.017
X-560.923 Y-26.223
X-560.854 Y-26.425
X-560.774 Y-26.623
X-560.683 Y-26.816
X-560.582 Y-27.003
X-560.469 Y-27.185
X-560.347 Y-27.36
X-560.215 Y-27.528
X-560.074 Y-27.688
X-559.924 Y-27.84
X-559.766 Y-27.983
X-559.599 Y-28.117
X-559.426 Y-28.242
X-559.246 Y-28.357
X-559.059 Y-28.461
X-558.867 Y-28.555
X-558.67 Y-28.638
X-558.469 Y-28.709
X-558.264 Y-28.769
X-558.056 Y-28.818
X-557.845 Y-28.854
X-557.633 Y-28.879
X-557.42 Y-28.892
X-557.206 Y-28.893
X-556.993 Y-28.881
X-556.78 Y-28.858
X-556.57 Y-28.823
X-556.361 Y-28.776
X-556.156 Y-28.717
X-555.954 Y-28.647
X-555.756 Y-28.566
X-555.564 Y-28.473
X-555.376 Y-28.37
X-555.195 Y-28.257
X-555.021 Y-28.133
X-554.854 Y-28
X-554.694 Y-27.858
X-554.543 Y-27.707
X-554.401 Y-27.547
X-554.267 Y-27.38
X-554.144 Y-27.206
X-554.03 Y-27.025
X-553.927 Y-26.838
X-553.823 Y-26.621
X-553.694 Y-26.308
X-553.542 Y-25.873
X-553.445 Y-25.531
X-553.377 Y-25.233
X-553.332 Y-24.961
X-553.304 Y-24.706
X-553.297 Y-24.576
X-553.3 Y-24.316
X-553.337 Y-24.059
X-553.406 Y-23.809
X-553.541 Y-23.423
X-553.577 Y-23.328
X-553.629 Y-23.233
X-554.039 Y-22.58
X-554.107 Y-22.492
X-554.671 Y-21.927
X-554.759 Y-21.853
X-554.847 Y-21.797
X-555.332 Y-21.492
X-555.5 Y-21.391
X-555.718 Y-21.308
X-556.153 Y-21.156
X-556.371 Y-21.082
X-556.548 Y-21.057
X-557.241 Y-20.979
X-557.35 Y-20.978
X-558.112 Y-21.064
X-558.22 Y-21.081
X-558.329 Y-21.114
X-558.982 Y-21.343
X-559.091 Y-21.386
X-559.2 Y-21.449
X-559.635 Y-21.723
X-559.853 Y-21.862
X-559.929 Y-21.927
X-560.364 Y-22.363
X-560.506 Y-22.507
X-560.561 Y-22.58
X-560.971 Y-23.233
X-561.029 Y-23.342
X-561.068 Y-23.451
X-561.297 Y-24.104
X-561.326 Y-24.212
X-561.34 Y-24.321
X-561.414 Y-24.974
X-561.423 Y-25.083
X-561.417 Y-25.192
X-561.331 Y-25.953
X-561.308 Y-26.062
X-561.042 Y-26.824
X-561.02 Y-26.878
X-560.992 Y-26.933
X-560.583 Y-27.585
X-560.506 Y-27.693
X-560.398 Y-27.803
X-559.963 Y-28.238
X-559.853 Y-28.338
X-559.635 Y-28.477
X-559.2 Y-28.751
X-559.091 Y-28.814
X-558.982 Y-28.857
X-558.329 Y-29.086
X-558.261 Y-29.109
X-558.186 Y-29.127
X-558.112 Y-29.136
X-557.35 Y-29.222
X-557.296 Y-29.224
X-557.241 Y-29.221
X-556.588 Y-29.148
X-556.371 Y-29.118
X-556.339 Y-29.109
X-555.715 Y-28.891
X-555.5 Y-28.81
X-555.277 Y-28.674
X-554.847 Y-28.403
X-554.742 Y-28.334
X-554.63 Y-28.231
X-554.194 Y-27.795
X-554.092 Y-27.69
X-554.017 Y-27.585
X-553.608 Y-26.933
X-553.57 Y-26.855
X-553.52 Y-26.715
X-553.292 Y-26.062
X-553.268 Y-25.953
X-553.182 Y-25.192
X-553.177 Y-25.083
X-553.186 Y-24.974
X-553.26 Y-24.321
X-553.274 Y-24.212
X-553.303 Y-24.104
X-553.406 Y-23.809
G3 X-553.532 Y-23.611 I-0.559 J-0.218
G1 X-553.597 Y-23.543 Z2.007
X-553.661 Y-23.477 Z2.029
X-553.721 Y-23.415 Z2.065
X-553.776 Y-23.357 Z2.115
X-553.826 Y-23.305 Z2.176
X-553.868 Y-23.261 Z2.247
X-553.902 Y-23.225 Z2.328
X-553.927 Y-23.199 Z2.415
X-553.942 Y-23.184 Z2.506
X-553.948 Y-23.178 Z2.6
G0 Z30

(2D Contour5)
S8000 M3
M9
X-557.3 Y-25.1
Z30
Z20
G1 Z2 F850
G3 X-557 Y-25.4 I0.3
G1 X-552.95
G3 X-552.65 Y-25.1 J0.3
X-561.95 I-4.65
X-552.65 I4.65
X-561.95 I-4.65
X-552.65 I4.65
X-553.25 Y-24.5 I-0.6
G1 X-553.85
G18 G3 X-554.45 Z2.6 K0.6
G0 Z30
G17

(2D Adaptive6)
S6000 M3
M9
G0 X-630.39 Y-22.984
Z30
Z20
Z18.15
G1 Z17.55 F850
G3 X-634.21 Y-27.214 Z17.237 I-1.91 J-2.115 F283.3
X-630.39 Y-22.984 Z16.925 I1.91 J2.115
X-634.21 Y-27.214 Z16.612 I-1.91 J-2.115
X-630.39 Y-22.984 Z16.299 I1.91 J2.115
X-634.21 Y-27.214 Z15.987 I-1.91 J-2.115
X-630.39 Y-22.984 Z15.674 I1.91 J2.115
X-634.21 Y-27.214 Z15.361 I-1.91 J-2.115
X-630.39 Y-22.984 Z15.049 I1.91 J2.115
X-634.21 Y-27.214 Z14.736 I-1.91 J-2.115
X-630.39 Y-22.984 Z14.423 I1.91 J2.115
X-634.21 Y-27.214 Z14.111 I-1.91 J-2.115
X-630.39 Y-22.984 Z13.798 I1.91 J2.115
X-634.21 Y-27.214 Z13.485 I-1.91 J-2.115
X-630.39 Y-22.984 Z13.173 I1.91 J2.115
X-634.21 Y-27.214 Z12.86 I-1.91 J-2.115
X-630.39 Y-22.984 Z12.547 I1.91 J2.115
X-634.21 Y-27.214 Z12.235 I-1.91 J-2.115
X-630.39 Y-22.984 Z11.922 I1.91 J2.115
X-634.21 Y-27.214 Z11.609 I-1.91 J-2.115
X-630.39 Y-22.984 Z11.297 I1.91 J2.115
X-634.21 Y-27.214 Z10.984 I-1.91 J-2.115
X-630.39 Y-22.984 Z10.671 I1.91 J2.115
X-634.21 Y-27.214 Z10.359 I-1.91 J-2.115
X-630.39 Y-22.984 Z10.046 I1.91 J2.115
X-634.21 Y-27.214 Z9.733 I-1.91 J-2.115
X-630.39 Y-22.984 Z9.421 I1.91 J2.115
X-634.21 Y-27.214 Z9.108 I-1.91 J-2.115
X-630.39 Y-22.984 Z8.795 I1.91 J2.115
X-634.21 Y-27.214 Z8.483 I-1.91 J-2.115
X-630.39 Y-22.984 Z8.17 I1.91 J2.115
X-634.21 Y-27.214 Z7.857 I-1.91 J-2.115
X-630.39 Y-22.984 Z7.545 I1.91 J2.115
X-634.21 Y-27.214 Z7.232 I-1.91 J-2.115
X-630.39 Y-22.984 Z6.919 I1.91 J2.115
X-634.21 Y-27.214 Z6.607 I-1.91 J-2.115
X-630.39 Y-22.984 Z6.294 I1.91 J2.115
X-634.21 Y-27.214 Z5.981 I-1.91 J-2.115
X-630.39 Y-22.984 Z5.669 I1.91 J2.115
X-634.21 Y-27.214 Z5.356 I-1.91 J-2.115
X-630.39 Y-22.984 Z5.043 I1.91 J2.115
X-634.21 Y-27.214 Z4.731 I-1.91 J-2.115
X-630.39 Y-22.984 Z4.418 I1.91 J2.115
X-634.21 Y-27.214 Z4.105 I-1.91 J-2.115
X-630.39 Y-22.984 Z3.793 I1.91 J2.115
X-634.21 Y-27.214 Z3.48 I-1.91 J-2.115
X-630.39 Y-22.984 Z3.167 I1.91 J2.115
X-634.21 Y-27.214 Z2.855 I-1.91 J-2.115
X-630.39 Y-22.984 Z2.542 I1.91 J2.115
X-634.21 Y-27.214 Z2.229 I-1.91 J-2.115
X-629.45 Y-25.099 Z2 I1.91 J2.115
X-635.15 I-2.85
X-629.45 I2.85
G1 X-629.436 Y-24.142 F850
X-629.407 Y-24.026
X-629.387 Y-23.877
X-629.385 Y-23.727
X-629.398 Y-23.578
X-629.425 Y-23.43
X-629.463 Y-23.285
X-629.513 Y-23.143
X-629.572 Y-23.006
X-629.64 Y-22.872
X-629.716 Y-22.743
X-629.801 Y-22.619
X-629.892 Y-22.499
X-629.993 Y-22.381
X-630.104 Y-22.266
X-630.224 Y-22.154
X-630.354 Y-22.047
X-630.492 Y-21.945
X-630.638 Y-21.849
X-630.793 Y-21.76
X-630.955 Y-21.678
X-631.124 Y-21.605
X-631.3 Y-21.54
X-631.481 Y-21.484
X-631.667 Y-21.438
X-631.858 Y-21.402
X-632.052 Y-21.377
X-632.249 Y-21.363
X-632.448 Y-21.36
X-632.648 Y-21.368
X-632.849 Y-21.387
X-633.049 Y-21.418
X-633.249 Y-21.46
X-633.447 Y-21.514
X-633.642 Y-21.579
X-633.834 Y-21.655
X-634.022 Y-21.743
X-634.206 Y-21.841
X-634.384 Y-21.949
X-634.556 Y-22.068
X-634.722 Y-22.196
X-634.88 Y-22.334
X-635.031 Y-22.481
X-635.173 Y-22.636
X-635.307 Y-22.8
X-635.431 Y-22.971
X-635.546 Y-23.148
X-635.651 Y-23.332
X-635.745 Y-23.522
X-635.829 Y-23.718
X-635.901 Y-23.917
X-635.962 Y-24.121
X-636.012 Y-24.327
X-636.049 Y-24.537
X-636.075 Y-24.748
X-636.089 Y-24.96
X-636.092 Y-25.173
X-636.082 Y-25.386
X-636.06 Y-25.598
X-636.026 Y-25.809
X-635.98 Y-26.017
X-635.923 Y-26.223
X-635.854 Y-26.425
X-635.774 Y-26.623
X-635.683 Y-26.816
X-635.582 Y-27.003
X-635.469 Y-27.185
X-635.347 Y-27.36
X-635.215 Y-27.528
X-635.074 Y-27.688
X-634.924 Y-27.84
X-634.766 Y-27.983
X-634.599 Y-28.117
X-634.426 Y-28.242
X-634.246 Y-28.357
X-634.059 Y-28.461
X-633.867 Y-28.555
X-633.67 Y-28.638
X-633.469 Y-28.709
X-633.264 Y-28.769
X-633.056 Y-28.818
X-632.845 Y-28.854
X-632.633 Y-28.879
X-632.42 Y-28.892
X-632.206 Y-28.893
X-631.993 Y-28.881
X-631.78 Y-28.858
X-631.57 Y-28.823
X-631.361 Y-28.776
X-631.156 Y-28.717
X-630.954 Y-28.647
X-630.756 Y-28.566
X-630.564 Y-28.473
X-630.376 Y-28.37
X-630.195 Y-28.257
X-630.021 Y-28.133
X-629.854 Y-28
X-629.694 Y-27.858
X-629.543 Y-27.707
X-629.401 Y-27.547
X-629.267 Y-27.38
X-629.144 Y-27.206
X-629.03 Y-27.025
X-628.927 Y-26.838
X-628.823 Y-26.621
X-628.694 Y-26.308
X-628.542 Y-25.873
X-628.445 Y-25.531
X-628.377 Y-25.233
X-628.332 Y-24.961
X-628.304 Y-24.706
X-628.297 Y-24.576
X-628.3 Y-24.316
X-628.337 Y-24.059
X-628.406 Y-23.809
X-628.541 Y-23.423
X-628.577 Y-23.328
X-628.629 Y-23.233
X-629.039 Y-22.58
X-629.107 Y-22.492
X-629.671 Y-21.927
X-629.759 Y-21.853
X-629.847 Y-21.797
X-630.332 Y-21.492
X-630.5 Y-21.391
X-630.718 Y-21.308
X-631.153 Y-21.156
X-631.371 Y-21.082
X-631.548 Y-21.057
X-632.241 Y-20.979
X-632.35 Y-20.978
X-633.112 Y-21.064
X-633.22 Y-21.081
X-633.329 Y-21.114
X-633.982 Y-21.343
X-634.091 Y-21.386
X-634.2 Y-21.449
X-634.635 Y-21.723
X-634.853 Y-21.862
X-634.929 Y-21.927
X-635.364 Y-22.363
X-635.506 Y-22.507
X-635.561 Y-22.58
X-635.971 Y-23.233
X-636.029 Y-23.342
X-636.068 Y-23.451
X-636.297 Y-24.104
X-636.326 Y-24.212
X-636.34 Y-24.321
X-636.414 Y-24.974
X-636.423 Y-25.083
X-636.417 Y-25.192
X-636.331 Y-25.953
X-636.308 Y-26.062
X-636.042 Y-26.824
X-636.02 Y-26.878
X-635.992 Y-26.933
X-635.583 Y-27.585
X-635.506 Y-27.693
X-635.398 Y-27.803
X-634.963 Y-28.238
X-634.853 Y-28.338
X-634.635 Y-28.477
X-634.2 Y-28.751
X-634.091 Y-28.814
X-633.982 Y-28.857
X-633.329 Y-29.086
X-633.261 Y-29.109
X-633.186 Y-29.127
X-633.112 Y-29.136
X-632.35 Y-29.222
X-632.296 Y-29.224
X-632.241 Y-29.221
X-631.588 Y-29.148
X-631.371 Y-29.118
X-631.339 Y-29.109
X-630.715 Y-28.891
X-630.5 Y-28.81
X-630.277 Y-28.674
X-629.847 Y-28.403
X-629.742 Y-28.334
X-629.63 Y-28.231
X-629.194 Y-27.795
X-629.092 Y-27.69
X-629.017 Y-27.585
X-628.608 Y-26.933
X-628.57 Y-26.855
X-628.52 Y-26.715
X-628.292 Y-26.062
X-628.268 Y-25.953
X-628.182 Y-25.192
X-628.177 Y-25.083
X-628.186 Y-24.974
X-628.26 Y-24.321
X-628.274 Y-24.212
X-628.303 Y-24.104
X-628.406 Y-23.809
G3 X-628.532 Y-23.611 I-0.559 J-0.218
G1 X-628.597 Y-23.543 Z2.007
X-628.661 Y-23.477 Z2.029
X-628.721 Y-23.415 Z2.065
X-628.776 Y-23.357 Z2.115
X-628.826 Y-23.305 Z2.176
X-628.868 Y-23.261 Z2.247
X-628.902 Y-23.225 Z2.328
X-628.927 Y-23.199 Z2.415
X-628.942 Y-23.184 Z2.506
X-628.948 Y-23.178 Z2.6
G0 Z30

(2D Contour5)
S8000 M3
M9
X-632.3 Y-25.1
Z30
Z20
G1 Z2 F850
G3 X-632 Y-25.4 I0.3
G1 X-627.95
G3 X-627.65 Y-25.1 J0.3
X-636.95 I-4.65
X-627.65 I4.65
X-636.95 I-4.65
X-627.65 I4.65
X-628.25 Y-24.5 I-0.6
G1 X-628.85
G18 G3 X-629.45 Z2.6 K0.6
G0 Z30
G17

(2D Adaptive6)
S6000 M3
M9
G0 X-705.39 Y-22.984
Z30
Z20
Z18.15
G1 Z17.55 F850
G3 X-709.21 Y-27.214 Z17.237 I-1.91 J-2.115 F283.3
X-705.39 Y-22.984 Z16.925 I1.91 J2.115
X-709.21 Y-27.214 Z16.612 I-1.91 J-2.115
X-705.39 Y-22.984 Z16.299 I1.91 J2.115
X-709.21 Y-27.214 Z15.987 I-1.91 J-2.115
X-705.39 Y-22.984 Z15.674 I1.91 J2.115
X-709.21 Y-27.214 Z15.361 I-1.91 J-2.115
X-705.39 Y-22.984 Z15.049 I1.91 J2.115
X-709.21 Y-27.214 Z14.736 I-1.91 J-2.115
X-705.39 Y-22.984 Z14.423 I1.91 J2.115
X-709.21 Y-27.214 Z14.111 I-1.91 J-2.115
X-705.39 Y-22.984 Z13.798 I1.91 J2.115
X-709.21 Y-27.214 Z13.485 I-1.91 J-2.115
X-705.39 Y-22.984 Z13.173 I1.91 J2.115
X-709.21 Y-27.214 Z12.86 I-1.91 J-2.115
X-705.39 Y-22.984 Z12.547 I1.91 J2.115
X-709.21 Y-27.214 Z12.235 I-1.91 J-2.115
X-705.39 Y-22.984 Z11.922 I1.91 J2.115
X-709.21 Y-27.214 Z11.609 I-1.91 J-2.115
X-705.39 Y-22.984 Z11.297 I1.91 J2.115
X-709.21 Y-27.214 Z10.984 I-1.91 J-2.115
X-705.39 Y-22.984 Z10.671 I1.91 J2.115
X-709.21 Y-27.214 Z10.359 I-1.91 J-2.115
X-705.39 Y-22.984 Z10.046 I1.91 J2.115
X-709.21 Y-27.214 Z9.733 I-1.91 J-2.115
X-705.39 Y-22.984 Z9.421 I1.91 J2.115
X-709.21 Y-27.214 Z9.108 I-1.91 J-2.115
X-705.39 Y-22.984 Z8.795 I1.91 J2.115
X-709.21 Y-27.214 Z8.483 I-1.91 J-2.115
X-705.39 Y-22.984 Z8.17 I1.91 J2.115
X-709.21 Y-27.214 Z7.857 I-1.91 J-2.115
X-705.39 Y-22.984 Z7.545 I1.91 J2.115
X-709.21 Y-27.214 Z7.232 I-1.91 J-2.115
X-705.39 Y-22.984 Z6.919 I1.91 J2.115
X-709.21 Y-27.214 Z6.607 I-1.91 J-2.115
X-705.39 Y-22.984 Z6.294 I1.91 J2.115
X-709.21 Y-27.214 Z5.981 I-1.91 J-2.115
X-705.39 Y-22.984 Z5.669 I1.91 J2.115
X-709.21 Y-27.214 Z5.356 I-1.91 J-2.115
X-705.39 Y-22.984 Z5.043 I1.91 J2.115
X-709.21 Y-27.214 Z4.731 I-1.91 J-2.115
X-705.39 Y-22.984 Z4.418 I1.91 J2.115
X-709.21 Y-27.214 Z4.105 I-1.91 J-2.115
X-705.39 Y-22.984 Z3.793 I1.91 J2.115
X-709.21 Y-27.214 Z3.48 I-1.91 J-2.115
X-705.39 Y-22.984 Z3.167 I1.91 J2.115
X-709.21 Y-27.214 Z2.855 I-1.91 J-2.115
X-705.39 Y-22.984 Z2.542 I1.91 J2.115
X-709.21 Y-27.214 Z2.229 I-1.91 J-2.115
X-704.45 Y-25.099 Z2 I1.91 J2.115
X-710.15 I-2.85
X-704.45 I2.85
G1 X-704.436 Y-24.142 F850
X-704.407 Y-24.026
X-704.387 Y-23.877
X-704.385 Y-23.727
X-704.398 Y-23.578
X-704.425 Y-23.43
X-704.463 Y-23.285
X-704.513 Y-23.143
X-704.572 Y-23.006
X-704.64 Y-22.872
X-704.716 Y-22.743
X-704.801 Y-22.619
X-704.892 Y-22.499
X-704.993 Y-22.381
X-705.104 Y-22.266
X-705.224 Y-22.154
X-705.354 Y-22.047
X-705.492 Y-21.945
X-705.638 Y-21.849
X-705.793 Y-21.76
X-705.955 Y-21.678
X-706.124 Y-21.605
X-706.3 Y-21.54
X-706.481 Y-21.484
X-706.667 Y-21.438
X-706.858 Y-21.402
X-707.052 Y-21.377
X-707.249 Y-21.363
X-707.448 Y-21.36
X-707.648 Y-21.368
X-707.849 Y-21.387
X-708.049 Y-21.418
X-708.249 Y-21.46
X-708.447 Y-21.514
X-708.642 Y-21.579
X-708.834 Y-21.655
X-709.022 Y-21.743
X-709.206 Y-21.841
X-709.384 Y-21.949
X-709.556 Y-22.068
X-709.722 Y-22.196
X-709.88 Y-22.334
X-710.031 Y-22.481
X-710.173 Y-22.636
X-710.307 Y-22.8
X-710.431 Y-22.971
X-710.546 Y-23.148
X-710.651 Y-23.332
X-710.745 Y-23.522
X-710.829 Y-23.718
X-710.901 Y-23.917
X-710.962 Y-24.121
X-711.012 Y-24.327
X-711.049 Y-24.537
X-711.075 Y-24.748
X-711.089 Y-24.96
X-711.092 Y-25.173
X-711.082 Y-25.386
X-711.06 Y-25.598
X-711.026 Y-25.809
X-710.98 Y-26.017
X-710.923 Y-26.223
X-710.854 Y-26.425
X-710.774 Y-26.623
X-710.683 Y-26.816
X-710.582 Y-27.003
X-710.469 Y-27.185
X-710.347 Y-27.36
X-710.215 Y-27.528
X-710.074 Y-27.688
X-709.924 Y-27.84
X-709.766 Y-27.983
X-709.599 Y-28.117
X-709.426 Y-28.242
X-709.246 Y-28.357
X-709.059 Y-28.461
X-708.867 Y-28.555
X-708.67 Y-28.638
X-708.469 Y-28.709
X-708.264 Y-28.769
X-708.056 Y-28.818
X-707.845 Y-28.854
X-707.633 Y-28.879
X-707.42 Y-28.892
X-707.206 Y-28.893
X-706.993 Y-28.881
X-706.78 Y-28.858
X-706.57 Y-28.823
X-706.361 Y-28.776
X-706.156 Y-28.717
X-705.954 Y-28.647
X-705.756 Y-28.566
X-705.564 Y-28.473
X-705.376 Y-28.37
X-705.195 Y-28.257
X-705.021 Y-28.133
X-704.854 Y-28
X-704.694 Y-27.858
X-704.543 Y-27.707
X-704.401 Y-27.547
X-704.267 Y-27.38
X-704.144 Y-27.206
X-704.03 Y-27.025
X-703.927 Y-26.838
X-703.823 Y-26.621
X-703.694 Y-26.308
X-703.542 Y-25.873
X-703.445 Y-25.531
X-703.377 Y-25.233
X-703.332 Y-24.961
X-703.304 Y-24.706
X-703.297 Y-24.576
X-703.3 Y-24.316
X-703.337 Y-24.059
X-703.406 Y-23.809
X-703.541 Y-23.423
X-703.577 Y-23.328
X-703.629 Y-23.233
X-704.039 Y-22.58
X-704.107 Y-22.492
X-704.671 Y-21.927
X-704.759 Y-21.853
X-704.847 Y-21.797
X-705.332 Y-21.492
X-705.5 Y-21.391
X-705.718 Y-21.308
X-706.153 Y-21.156
X-706.371 Y-21.082
X-706.548 Y-21.057
X-707.241 Y-20.979
X-707.35 Y-20.978
X-708.112 Y-21.064
X-708.22 Y-21.081
X-708.329 Y-21.114
X-708.982 Y-21.343
X-709.091 Y-21.386
X-709.2 Y-21.449
X-709.635 Y-21.723
X-709.853 Y-21.862
X-709.929 Y-21.927
X-710.364 Y-22.363
X-710.506 Y-22.507
X-710.561 Y-22.58
X-710.971 Y-23.233
X-711.029 Y-23.342
X-711.068 Y-23.451
X-711.297 Y-24.104
X-711.326 Y-24.212
X-711.34 Y-24.321
X-711.414 Y-24.974
X-711.423 Y-25.083
X-711.417 Y-25.192
X-711.331 Y-25.953
X-711.308 Y-26.062
X-711.042 Y-26.824
X-711.02 Y-26.878
X-710.992 Y-26.933
X-710.583 Y-27.585
X-710.506 Y-27.693
X-710.398 Y-27.803
X-709.963 Y-28.238
X-709.853 Y-28.338
X-709.635 Y-28.477
X-709.2 Y-28.751
X-709.091 Y-28.814
X-708.982 Y-28.857
X-708.329 Y-29.086
X-708.261 Y-29.109
X-708.186 Y-29.127
X-708.112 Y-29.136
X-707.35 Y-29.222
X-707.296 Y-29.224
X-707.241 Y-29.221
X-706.588 Y-29.148
X-706.371 Y-29.118
X-706.339 Y-29.109
X-705.715 Y-28.891
X-705.5 Y-28.81
X-705.277 Y-28.674
X-704.847 Y-28.403
X-704.742 Y-28.334
X-704.63 Y-28.231
X-704.194 Y-27.795
X-704.092 Y-27.69
X-704.017 Y-27.585
X-703.608 Y-26.933
X-703.57 Y-26.855
X-703.52 Y-26.715
X-703.292 Y-26.062
X-703.268 Y-25.953
X-703.182 Y-25.192
X-703.177 Y-25.083
X-703.186 Y-24.974
X-703.26 Y-24.321
X-703.274 Y-24.212
X-703.303 Y-24.104
X-703.406 Y-23.809
G3 X-703.532 Y-23.611 I-0.559 J-0.218
G1 X-703.597 Y-23.543 Z2.007
X-703.661 Y-23.477 Z2.029
X-703.721 Y-23.415 Z2.065
X-703.776 Y-23.357 Z2.115
X-703.826 Y-23.305 Z2.176
X-703.868 Y-23.261 Z2.247
X-703.902 Y-23.225 Z2.328
X-703.927 Y-23.199 Z2.415
X-703.942 Y-23.184 Z2.506
X-703.948 Y-23.178 Z2.6
G0 Z30

(2D Contour5)
S8000 M3
M9
X-707.3 Y-25.1
Z30
Z20
G1 Z2 F850
G3 X-707 Y-25.4 I0.3
G1 X-702.95
G3 X-702.65 Y-25.1 J0.3
X-711.95 I-4.65
X-702.65 I4.65
X-711.95 I-4.65
X-702.65 I4.65
X-703.25 Y-24.5 I-0.6
G1 X-703.85
G18 G3 X-704.45 Z2.6 K0.6
G0 Z30
G17

(2D Adaptive6)
S6000 M3
M9
G0 X-780.39 Y-22.984
Z30
Z20
Z18.15
G1 Z17.55 F850
G3 X-784.21 Y-27.214 Z17.237 I-1.91 J-2.115 F283.3
X-780.39 Y-22.984 Z16.925 I1.91 J2.115
X-784.21 Y-27.214 Z16.612 I-1.91 J-2.115
X-780.39 Y-22.984 Z16.299 I1.91 J2.115
X-784.21 Y-27.214 Z15.987 I-1.91 J-2.115
X-780.39 Y-22.984 Z15.674 I1.91 J2.115
X-784.21 Y-27.214 Z15.361 I-1.91 J-2.115
X-780.39 Y-22.984 Z15.049 I1.91 J2.115
X-784.21 Y-27.214 Z14.736 I-1.91 J-2.115
X-780.39 Y-22.984 Z14.423 I1.91 J2.115
X-784.21 Y-27.214 Z14.111 I-1.91 J-2.115
X-780.39 Y-22.984 Z13.798 I1.91 J2.115
X-784.21 Y-27.214 Z13.485 I-1.91 J-2.115
X-780.39 Y-22.984 Z13.173 I1.91 J2.115
X-784.21 Y-27.214 Z12.86 I-1.91 J-2.115
X-780.39 Y-22.984 Z12.547 I1.91 J2.115
X-784.21 Y-27.214 Z12.235 I-1.91 J-2.115
X-780.39 Y-22.984 Z11.922 I1.91 J2.115
X-784.21 Y-27.214 Z11.609 I-1.91 J-2.115
X-780.39 Y-22.984 Z11.297 I1.91 J2.115
X-784.21 Y-27.214 Z10.984 I-1.91 J-2.115
X-780.39 Y-22.984 Z10.671 I1.91 J2.115
X-784.21 Y-27.214 Z10.359 I-1.91 J-2.115
X-780.39 Y-22.984 Z10.046 I1.91 J2.115
X-784.21 Y-27.214 Z9.733 I-1.91 J-2.115
X-780.39 Y-22.984 Z9.421 I1.91 J2.115
X-784.21 Y-27.214 Z9.108 I-1.91 J-2.115
X-780.39 Y-22.984 Z8.795 I1.91 J2.115
X-784.21 Y-27.214 Z8.483 I-1.91 J-2.115
X-780.39 Y-22.984 Z8.17 I1.91 J2.115
X-784.21 Y-27.214 Z7.857 I-1.91 J-2.115
X-780.39 Y-22.984 Z7.545 I1.91 J2.115
X-784.21 Y-27.214 Z7.232 I-1.91 J-2.115
X-780.39 Y-22.984 Z6.919 I1.91 J2.115
X-784.21 Y-27.214 Z6.607 I-1.91 J-2.115
X-780.39 Y-22.984 Z6.294 I1.91 J2.115
X-784.21 Y-27.214 Z5.981 I-1.91 J-2.115
X-780.39 Y-22.984 Z5.669 I1.91 J2.115
X-784.21 Y-27.214 Z5.356 I-1.91 J-2.115
X-780.39 Y-22.984 Z5.043 I1.91 J2.115
X-784.21 Y-27.214 Z4.731 I-1.91 J-2.115
X-780.39 Y-22.984 Z4.418 I1.91 J2.115
X-784.21 Y-27.214 Z4.105 I-1.91 J-2.115
X-780.39 Y-22.984 Z3.793 I1.91 J2.115
X-784.21 Y-27.214 Z3.48 I-1.91 J-2.115
X-780.39 Y-22.984 Z3.167 I1.91 J2.115
X-784.21 Y-27.214 Z2.855 I-1.91 J-2.115
X-780.39 Y-22.984 Z2.542 I1.91 J2.115
X-784.21 Y-27.214 Z2.229 I-1.91 J-2.115
X-779.45 Y-25.099 Z2 I1.91 J2.115
X-785.15 I-2.85
X-779.45 I2.85
G1 X-779.436 Y-24.142 F850
X-779.407 Y-24.026
X-779.387 Y-23.877
X-779.385 Y-23.727
X-779.398 Y-23.578
X-779.425 Y-23.43
X-779.463 Y-23.285
X-779.513 Y-23.143
X-779.572 Y-23.006
X-779.64 Y-22.872
X-779.716 Y-22.743
X-779.801 Y-22.619
X-779.892 Y-22.499
X-779.993 Y-22.381
X-780.104 Y-22.266
X-780.224 Y-22.154
X-780.354 Y-22.047
X-780.492 Y-21.945
X-780.638 Y-21.849
X-780.793 Y-21.76
X-780.955 Y-21.678
X-781.124 Y-21.605
X-781.3 Y-21.54
X-781.481 Y-21.484
X-781.667 Y-21.438
X-781.858 Y-21.402
X-782.052 Y-21.377
X-782.249 Y-21.363
X-782.448 Y-21.36
X-782.648 Y-21.368
X-782.849 Y-21.387
X-783.049 Y-21.418
X-783.249 Y-21.46
X-783.447 Y-21.514
X-783.642 Y-21.579
X-783.834 Y-21.655
X-784.022 Y-21.743
X-784.206 Y-21.841
X-784.384 Y-21.949
X-784.556 Y-22.068
X-784.722 Y-22.196
X-784.88 Y-22.334
X-785.031 Y-22.481
X-785.173 Y-22.636
X-785.307 Y-22.8
X-785.431 Y-22.971
X-785.546 Y-23.148
X-785.651 Y-23.332
X-785.745 Y-23.522
X-785.829 Y-23.718
X-785.901 Y-23.917
X-785.962 Y-24.121
X-786.012 Y-24.327
X-786.049 Y-24.537
X-786.075 Y-24.748
X-786.089 Y-24.96
X-786.092 Y-25.173
X-786.082 Y-25.386
X-786.06 Y-25.598
X-786.026 Y-25.809
X-785.98 Y-26.017
X-785.923 Y-26.223
X-785.854 Y-26.425
X-785.774 Y-26.623
X-785.683 Y-26.816
X-785.582 Y-27.003
X-785.469 Y-27.185
X-785.347 Y-27.36
X-785.215 Y-27.528
X-785.074 Y-27.688
X-784.924 Y-27.84
X-784.766 Y-27.983
X-784.599 Y-28.117
X-784.426 Y-28.242
X-784.246 Y-28.357
X-784.059 Y-28.461
X-783.867 Y-28.555
X-783.67 Y-28.638
X-783.469 Y-28.709
X-783.264 Y-28.769
X-783.056 Y-28.818
X-782.845 Y-28.854
X-782.633 Y-28.879
X-782.42 Y-28.892
X-782.206 Y-28.893
X-781.993 Y-28.881
X-781.78 Y-28.858
X-781.57 Y-28.823
X-781.361 Y-28.776
X-781.156 Y-28.717
X-780.954 Y-28.647
X-780.756 Y-28.566
X-780.564 Y-28.473
X-780.376 Y-28.37
X-780.195 Y-28.257
X-780.021 Y-28.133
X-779.854 Y-28
X-779.694 Y-27.858
X-779.543 Y-27.707
X-779.401 Y-27.547
X-779.267 Y-27.38
X-779.144 Y-27.206
X-779.03 Y-27.025
X-778.927 Y-26.838
X-778.823 Y-26.621
X-778.694 Y-26.308
X-778.542 Y-25.873
X-778.445 Y-25.531
X-778.377 Y-25.233
X-778.332 Y-24.961
X-778.304 Y-24.706
X-778.297 Y-24.576
X-778.3 Y-24.316
X-778.337 Y-24.059
X-778.406 Y-23.809
X-778.541 Y-23.423
X-778.577 Y-23.328
X-778.629 Y-23.233
X-779.039 Y-22.58
X-779.107 Y-22.492
X-779.671 Y-21.927
X-779.759 Y-21.853
X-779.847 Y-21.797
X-780.332 Y-21.492
X-780.5 Y-21.391
X-780.718 Y-21.308
X-781.153 Y-21.156
X-781.371 Y-21.082
X-781.548 Y-21.057
X-782.241 Y-20.979
X-782.35 Y-20.978
X-783.112 Y-21.064
X-783.22 Y-21.081
X-783.329 Y-21.114
X-783.982 Y-21.343
X-784.091 Y-21.386
X-784.2 Y-21.449
X-784.635 Y-21.723
X-784.853 Y-21.862
X-784.929 Y-21.927
X-785.364 Y-22.363
X-785.506 Y-22.507
X-785.561 Y-22.58
X-785.971 Y-23.233
X-786.029 Y-23.342
X-786.068 Y-23.451
X-786.297 Y-24.104
X-786.326 Y-24.212
X-786.34 Y-24.321
X-786.414 Y-24.974
X-786.423 Y-25.083
X-786.417 Y-25.192
X-786.331 Y-25.953
X-786.308 Y-26.062
X-786.042 Y-26.824
X-786.02 Y-26.878
X-785.992 Y-26.933
X-785.583 Y-27.585
X-785.506 Y-27.693
X-785.398 Y-27.803
X-784.963 Y-28.238
X-784.853 Y-28.338
X-784.635 Y-28.477
X-784.2 Y-28.751
X-784.091 Y-28.814
X-783.982 Y-28.857
X-783.329 Y-29.086
X-783.261 Y-29.109
X-783.186 Y-29.127
X-783.112 Y-29.136
X-782.35 Y-29.222
X-782.296 Y-29.224
X-782.241 Y-29.221
X-781.588 Y-29.148
X-781.371 Y-29.118
X-781.339 Y-29.109
X-780.715 Y-28.891
X-780.5 Y-28.81
X-780.277 Y-28.674
X-779.847 Y-28.403
X-779.742 Y-28.334
X-779.63 Y-28.231
X-779.194 Y-27.795
X-779.092 Y-27.69
X-779.017 Y-27.585
X-778.608 Y-26.933
X-778.57 Y-26.855
X-778.52 Y-26.715
X-778.292 Y-26.062
X-778.268 Y-25.953
X-778.182 Y-25.192
X-778.177 Y-25.083
X-778.186 Y-24.974
X-778.26 Y-24.321
X-778.274 Y-24.212
X-778.303 Y-24.104
X-778.406 Y-23.809
G3 X-778.532 Y-23.611 I-0.559 J-0.218
G1 X-778.597 Y-23.543 Z2.007
X-778.661 Y-23.477 Z2.029
X-778.721 Y-23.415 Z2.065
X-778.776 Y-23.357 Z2.115
X-778.826 Y-23.305 Z2.176
X-778.868 Y-23.261 Z2.247
X-778.902 Y-23.225 Z2.328
X-778.927 Y-23.199 Z2.415
X-778.942 Y-23.184 Z2.506
X-778.948 Y-23.178 Z2.6
G0 Z30

(2D Contour5)
S8000 M3
M9
X-782.3 Y-25.1
Z30
Z20
G1 Z2 F850
G3 X-782 Y-25.4 I0.3
G1 X-777.95
G3 X-777.65 Y-25.1 J0.3
X-786.95 I-4.65
X-777.65 I4.65
X-786.95 I-4.65
X-777.65 I4.65
X-778.25 Y-24.5 I-0.6
G1 X-778.85
G18 G3 X-779.45 Z2.6 K0.6
G0 Z30
G17

(2D Adaptive6)
S6000 M3
M9
G0 X-855.39 Y-22.984
Z30
Z20
Z18.15
G1 Z17.55 F850
G3 X-859.21 Y-27.214 Z17.237 I-1.91 J-2.115 F283.3
X-855.39 Y-22.984 Z16.925 I1.91 J2.115
X-859.21 Y-27.214 Z16.612 I-1.91 J-2.115
X-855.39 Y-22.984 Z16.299 I1.91 J2.115
X-859.21 Y-27.214 Z15.987 I-1.91 J-2.115
X-855.39 Y-22.984 Z15.674 I1.91 J2.115
X-859.21 Y-27.214 Z15.361 I-1.91 J-2.115
X-855.39 Y-22.984 Z15.049 I1.91 J2.115
X-859.21 Y-27.214 Z14.736 I-1.91 J-2.115
X-855.39 Y-22.984 Z14.423 I1.91 J2.115
X-859.21 Y-27.214 Z14.111 I-1.91 J-2.115
X-855.39 Y-22.984 Z13.798 I1.91 J2.115
X-859.21 Y-27.214 Z13.485 I-1.91 J-2.115
X-855.39 Y-22.984 Z13.173 I1.91 J2.115
X-859.21 Y-27.214 Z12.86 I-1.91 J-2.115
X-855.39 Y-22.984 Z12.547 I1.91 J2.115
X-859.21 Y-27.214 Z12.235 I-1.91 J-2.115
X-855.39 Y-22.984 Z11.922 I1.91 J2.115
X-859.21 Y-27.214 Z11.609 I-1.91 J-2.115
X-855.39 Y-22.984 Z11.297 I1.91 J2.115
X-859.21 Y-27.214 Z10.984 I-1.91 J-2.115
X-855.39 Y-22.984 Z10.671 I1.91 J2.115
X-859.21 Y-27.214 Z10.359 I-1.91 J-2.115
X-855.39 Y-22.984 Z10.046 I1.91 J2.115
X-859.21 Y-27.214 Z9.733 I-1.91 J-2.115
X-855.39 Y-22.984 Z9.421 I1.91 J2.115
X-859.21 Y-27.214 Z9.108 I-1.91 J-2.115
X-855.39 Y-22.984 Z8.795 I1.91 J2.115
X-859.21 Y-27.214 Z8.483 I-1.91 J-2.115
X-855.39 Y-22.984 Z8.17 I1.91 J2.115
X-859.21 Y-27.214 Z7.857 I-1.91 J-2.115
X-855.39 Y-22.984 Z7.545 I1.91 J2.115
X-859.21 Y-27.214 Z7.232 I-1.91 J-2.115
X-855.39 Y-22.984 Z6.919 I1.91 J2.115
X-859.21 Y-27.214 Z6.607 I-1.91 J-2.115
X-855.39 Y-22.984 Z6.294 I1.91 J2.115
X-859.21 Y-27.214 Z5.981 I-1.91 J-2.115
X-855.39 Y-22.984 Z5.669 I1.91 J2.115
X-859.21 Y-27.214 Z5.356 I-1.91 J-2.115
X-855.39 Y-22.984 Z5.043 I1.91 J2.115
X-859.21 Y-27.214 Z4.731 I-1.91 J-2.115
X-855.39 Y-22.984 Z4.418 I1.91 J2.115
X-859.21 Y-27.214 Z4.105 I-1.91 J-2.115
X-855.39 Y-22.984 Z3.793 I1.91 J2.115
X-859.21 Y-27.214 Z3.48 I-1.91 J-2.115
X-855.39 Y-22.984 Z3.167 I1.91 J2.115
X-859.21 Y-27.214 Z2.855 I-1.91 J-2.115
X-855.39 Y-22.984 Z2.542 I1.91 J2.115
X-859.21 Y-27.214 Z2.229 I-1.91 J-2.115
X-854.45 Y-25.099 Z2 I1.91 J2.115
X-860.15 I-2.85
X-854.45 I2.85
G1 X-854.436 Y-24.142 F850
X-854.407 Y-24.026
X-854.387 Y-23.877
X-854.385 Y-23.727
X-854.398 Y-23.578
X-854.425 Y-23.43
X-854.463 Y-23.285
X-854.513 Y-23.143
X-854.572 Y-23.006
X-854.64 Y-22.872
X-854.716 Y-22.743
X-854.801 Y-22.619
X-854.892 Y-22.499
X-854.993 Y-22.381
X-855.104 Y-22.266
X-855.224 Y-22.154
X-855.354 Y-22.047
X-855.492 Y-21.945
X-855.638 Y-21.849
X-855.793 Y-21.76
X-855.955 Y-21.678
X-856.124 Y-21.605
X-856.3 Y-21.54
X-856.481 Y-21.484
X-856.667 Y-21.438
X-856.858 Y-21.402
X-857.052 Y-21.377
X-857.249 Y-21.363
X-857.448 Y-21.36
X-857.648 Y-21.368
X-857.849 Y-21.387
X-858.049 Y-21.418
X-858.249 Y-21.46
X-858.447 Y-21.514
X-858.642 Y-21.579
X-858.834 Y-21.655
X-859.022 Y-21.743
X-859.206 Y-21.841
X-859.384 Y-21.949
X-859.556 Y-22.068
X-859.722 Y-22.196
X-859.88 Y-22.334
X-860.031 Y-22.481
X-860.173 Y-22.636
X-860.307 Y-22.8
X-860.431 Y-22.971
X-860.546 Y-23.148
X-860.651 Y-23.332
X-860.745 Y-23.522
X-860.829 Y-23.718
X-860.901 Y-23.917
X-860.962 Y-24.121
X-861.012 Y-24.327
X-861.049 Y-24.537
X-861.075 Y-24.748
X-861.089 Y-24.96
X-861.092 Y-25.173
X-861.082 Y-25.386
X-861.06 Y-25.598
X-861.026 Y-25.809
X-860.98 Y-26.017
X-860.923 Y-26.223
X-860.854 Y-26.425
X-860.774 Y-26.623
X-860.683 Y-26.816
X-860.582 Y-27.003
X-860.469 Y-27.185
X-860.347 Y-27.36
X-860.215 Y-27.528
X-860.074 Y-27.688
X-859.924 Y-27.84
X-859.766 Y-27.983
X-859.599 Y-28.117
X-859.426 Y-28.242
X-859.246 Y-28.357
X-859.059 Y-28.461
X-858.867 Y-28.555
X-858.67 Y-28.638
X-858.469 Y-28.709
X-858.264 Y-28.769
X-858.056 Y-28.818
X-857.845 Y-28.854
X-857.633 Y-28.879
X-857.42 Y-28.892
X-857.206 Y-28.893
X-856.993 Y-28.881
X-856.78 Y-28.858
X-856.57 Y-28.823
X-856.361 Y-28.776
X-856.156 Y-28.717
X-855.954 Y-28.647
X-855.756 Y-28.566
X-855.564 Y-28.473
X-855.376 Y-28.37
X-855.195 Y-28.257
X-855.021 Y-28.133
X-854.854 Y-28
X-854.694 Y-27.858
X-854.543 Y-27.707
X-854.401 Y-27.547
X-854.267 Y-27.38
X-854.144 Y-27.206
X-854.03 Y-27.025
X-853.927 Y-26.838
X-853.823 Y-26.621
X-853.694 Y-26.308
X-853.542 Y-25.873
X-853.445 Y-25.531
X-853.377 Y-25.233
X-853.332 Y-24.961
X-853.304 Y-24.706
X-853.297 Y-24.576
X-853.3 Y-24.316
X-853.337 Y-24.059
X-853.406 Y-23.809
X-853.541 Y-23.423
X-853.577 Y-23.328
X-853.629 Y-23.233
X-854.039 Y-22.58
X-854.107 Y-22.492
X-854.671 Y-21.927
X-854.759 Y-21.853
X-854.847 Y-21.797
X-855.332 Y-21.492
X-855.5 Y-21.391
X-855.718 Y-21.308
X-856.153 Y-21.156
X-856.371 Y-21.082
X-856.548 Y-21.057
X-857.241 Y-20.979
X-857.35 Y-20.978
X-858.112 Y-21.064
X-858.22 Y-21.081
X-858.329 Y-21.114
X-858.982 Y-21.343
X-859.091 Y-21.386
X-859.2 Y-21.449
X-859.635 Y-21.723
X-859.853 Y-21.862
X-859.929 Y-21.927
X-860.364 Y-22.363
X-860.506 Y-22.507
X-860.561 Y-22.58
X-860.971 Y-23.233
X-861.029 Y-23.342
X-861.068 Y-23.451
X-861.297 Y-24.104
X-861.326 Y-24.212
X-861.34 Y-24.321
X-861.414 Y-24.974
X-861.423 Y-25.083
X-861.417 Y-25.192
X-861.331 Y-25.953
X-861.308 Y-26.062
X-861.042 Y-26.824
X-861.02 Y-26.878
X-860.992 Y-26.933
X-860.583 Y-27.585
X-860.506 Y-27.693
X-860.398 Y-27.803
X-859.963 Y-28.238
X-859.853 Y-28.338
X-859.635 Y-28.477
X-859.2 Y-28.751
X-859.091 Y-28.814
X-858.982 Y-28.857
X-858.329 Y-29.086
X-858.261 Y-29.109
X-858.186 Y-29.127
X-858.112 Y-29.136
X-857.35 Y-29.222
X-857.296 Y-29.224
X-857.241 Y-29.221
X-856.588 Y-29.148
X-856.371 Y-29.118
X-856.339 Y-29.109
X-855.715 Y-28.891
X-855.5 Y-28.81
X-855.277 Y-28.674
X-854.847 Y-28.403
X-854.742 Y-28.334
X-854.63 Y-28.231
X-854.194 Y-27.795
X-854.092 Y-27.69
X-854.017 Y-27.585
X-853.608 Y-26.933
X-853.57 Y-26.855
X-853.52 Y-26.715
X-853.292 Y-26.062
X-853.268 Y-25.953
X-853.182 Y-25.192
X-853.177 Y-25.083
X-853.186 Y-24.974
X-853.26 Y-24.321
X-853.274 Y-24.212
X-853.303 Y-24.104
X-853.406 Y-23.809
G3 X-853.532 Y-23.611 I-0.559 J-0.218
G1 X-853.597 Y-23.543 Z2.007
X-853.661 Y-23.477 Z2.029
X-853.721 Y-23.415 Z2.065
X-853.776 Y-23.357 Z2.115
X-853.826 Y-23.305 Z2.176
X-853.868 Y-23.261 Z2.247
X-853.902 Y-23.225 Z2.328
X-853.927 Y-23.199 Z2.415
X-853.942 Y-23.184 Z2.506
X-853.948 Y-23.178 Z2.6
G0 Z30

(2D Contour5)
S8000 M3
M9
X-857.3 Y-25.1
Z30
Z20
G1 Z2 F850
G3 X-857 Y-25.4 I0.3
G1 X-852.95
G3 X-852.65 Y-25.1 J0.3
X-861.95 I-4.65
X-852.65 I4.65
X-861.95 I-4.65
X-852.65 I4.65
X-853.25 Y-24.5 I-0.6
G1 X-853.85
G18 G3 X-854.45 Z2.6 K0.6
G0 Z30
G17

(2D Adaptive6)
S6000 M3
M9
G0 X-930.39 Y-22.984
Z30
Z20
Z18.15
G1 Z17.55 F850
G3 X-934.21 Y-27.214 Z17.237 I-1.91 J-2.115 F283.3
X-930.39 Y-22.984 Z16.925 I1.91 J2.115
X-934.21 Y-27.214 Z16.612 I-1.91 J-2.115
X-930.39 Y-22.984 Z16.299 I1.91 J2.115
X-934.21 Y-27.214 Z15.987 I-1.91 J-2.115
X-930.39 Y-22.984 Z15.674 I1.91 J2.115
X-934.21 Y-27.214 Z15.361 I-1.91 J-2.115
X-930.39 Y-22.984 Z15.049 I1.91 J2.115
X-934.21 Y-27.214 Z14.736 I-1.91 J-2.115
X-930.39 Y-22.984 Z14.423 I1.91 J2.115
X-934.21 Y-27.214 Z14.111 I-1.91 J-2.115
X-930.39 Y-22.984 Z13.798 I1.91 J2.115
X-934.21 Y-27.214 Z13.485 I-1.91 J-2.115
X-930.39 Y-22.984 Z13.173 I1.91 J2.115
X-934.21 Y-27.214 Z12.86 I-1.91 J-2.115
X-930.39 Y-22.984 Z12.547 I1.91 J2.115
X-934.21 Y-27.214 Z12.235 I-1.91 J-2.115
X-930.39 Y-22.984 Z11.922 I1.91 J2.115
X-934.21 Y-27.214 Z11.609 I-1.91 J-2.115
X-930.39 Y-22.984 Z11.297 I1.91 J2.115
X-934.21 Y-27.214 Z10.984 I-1.91 J-2.115
X-930.39 Y-22.984 Z10.671 I1.91 J2.115
X-934.21 Y-27.214 Z10.359 I-1.91 J-2.115
X-930.39 Y-22.984 Z10.046 I1.91 J2.115
X-934.21 Y-27.214 Z9.733 I-1.91 J-2.115
X-930.39 Y-22.984 Z9.421 I1.91 J2.115
X-934.21 Y-27.214 Z9.108 I-1.91 J-2.115
X-930.39 Y-22.984 Z8.795 I1.91 J2.115
X-934.21 Y-27.214 Z8.483 I-1.91 J-2.115
X-930.39 Y-22.984 Z8.17 I1.91 J2.115
X-934.21 Y-27.214 Z7.857 I-1.91 J-2.115
X-930.39 Y-22.984 Z7.545 I1.91 J2.115
X-934.21 Y-27.214 Z7.232 I-1.91 J-2.115
X-930.39 Y-22.984 Z6.919 I1.91 J2.115
X-934.21 Y-27.214 Z6.607 I-1.91 J-2.115
X-930.39 Y-22.984 Z6.294 I1.91 J2.115
X-934.21 Y-27.214 Z5.981 I-1.91 J-2.115
X-930.39 Y-22.984 Z5.669 I1.91 J2.115
X-934.21 Y-27.214 Z5.356 I-1.91 J-2.115
X-930.39 Y-22.984 Z5.043 I1.91 J2.115
X-934.21 Y-27.214 Z4.731 I-1.91 J-2.115
X-930.39 Y-22.984 Z4.418 I1.91 J2.115
X-934.21 Y-27.214 Z4.105 I-1.91 J-2.115
X-930.39 Y-22.984 Z3.793 I1.91 J2.115
X-934.21 Y-27.214 Z3.48 I-1.91 J-2.115
X-930.39 Y-22.984 Z3.167 I1.91 J2.115
X-934.21 Y-27.214 Z2.855 I-1.91 J-2.115
X-930.39 Y-22.984 Z2.542 I1.91 J2.115
X-934.21 Y-27.214 Z2.229 I-1.91 J-2.115
X-929.45 Y-25.099 Z2 I1.91 J2.115
X-935.15 I-2.85
X-929.45 I2.85
G1 X-929.436 Y-24.142 F850
X-929.407 Y-24.026
X-929.387 Y-23.877
X-929.385 Y-23.727
X-929.398 Y-23.578
X-929.425 Y-23.43
X-929.463 Y-23.285
X-929.513 Y-23.143
X-929.572 Y-23.006
X-929.64 Y-22.872
X-929.716 Y-22.743
X-929.801 Y-22.619
X-929.892 Y-22.499
X-929.993 Y-22.381
X-930.104 Y-22.266
X-930.224 Y-22.154
X-930.354 Y-22.047
X-930.492 Y-21.945
X-930.638 Y-21.849
X-930.793 Y-21.76
X-930.955 Y-21.678
X-931.124 Y-21.605
X-931.3 Y-21.54
X-931.481 Y-21.484
X-931.667 Y-21.438
X-931.858 Y-21.402
X-932.052 Y-21.377
X-932.249 Y-21.363
X-932.448 Y-21.36
X-932.648 Y-21.368
X-932.849 Y-21.387
X-933.049 Y-21.418
X-933.249 Y-21.46
X-933.447 Y-21.514
X-933.642 Y-21.579
X-933.834 Y-21.655
X-934.022 Y-21.743
X-934.206 Y-21.841
X-934.384 Y-21.949
X-934.556 Y-22.068
X-934.722 Y-22.196
X-934.88 Y-22.334
X-935.031 Y-22.481
X-935.173 Y-22.636
X-935.307 Y-22.8
X-935.431 Y-22.971
X-935.546 Y-23.148
X-935.651 Y-23.332
X-935.745 Y-23.522
X-935.829 Y-23.718
X-935.901 Y-23.917
X-935.962 Y-24.121
X-936.012 Y-24.327
X-936.049 Y-24.537
X-936.075 Y-24.748
X-936.089 Y-24.96
X-936.092 Y-25.173
X-936.082 Y-25.386
X-936.06 Y-25.598
X-936.026 Y-25.809
X-935.98 Y-26.017
X-935.923 Y-26.223
X-935.854 Y-26.425
X-935.774 Y-26.623
X-935.683 Y-26.816
X-935.582 Y-27.003
X-935.469 Y-27.185
X-935.347 Y-27.36
X-935.215 Y-27.528
X-935.074 Y-27.688
X-934.924 Y-27.84
X-934.766 Y-27.983
X-934.599 Y-28.117
X-934.426 Y-28.242
X-934.246 Y-28.357
X-934.059 Y-28.461
X-933.867 Y-28.555
X-933.67 Y-28.638
X-933.469 Y-28.709
X-933.264 Y-28.769
X-933.056 Y-28.818
X-932.845 Y-28.854
X-932.633 Y-28.879
X-932.42 Y-28.892
X-932.206 Y-28.893
X-931.993 Y-28.881
X-931.78 Y-28.858
X-931.57 Y-28.823
X-931.361 Y-28.776
X-931.156 Y-28.717
X-930.954 Y-28.647
X-930.756 Y-28.566
X-930.564 Y-28.473
X-930.376 Y-28.37
X-930.195 Y-28.257
X-930.021 Y-28.133
X-929.854 Y-28
X-929.694 Y-27.858
X-929.543 Y-27.707
X-929.401 Y-27.547
X-929.267 Y-27.38
X-929.144 Y-27.206
X-929.03 Y-27.025
X-928.927 Y-26.838
X-928.823 Y-26.621
X-928.694 Y-26.308
X-928.542 Y-25.873
X-928.445 Y-25.531
X-928.377 Y-25.233
X-928.332 Y-24.961
X-928.304 Y-24.706
X-928.297 Y-24.576
X-928.3 Y-24.316
X-928.337 Y-24.059
X-928.406 Y-23.809
X-928.541 Y-23.423
X-928.577 Y-23.328
X-928.629 Y-23.233
X-929.039 Y-22.58
X-929.107 Y-22.492
X-929.671 Y-21.927
X-929.759 Y-21.853
X-929.847 Y-21.797
X-930.332 Y-21.492
X-930.5 Y-21.391
X-930.718 Y-21.308
X-931.153 Y-21.156
X-931.371 Y-21.082
X-931.548 Y-21.057
X-932.241 Y-20.979
X-932.35 Y-20.978
X-933.112 Y-21.064
X-933.22 Y-21.081
X-933.329 Y-21.114
X-933.982 Y-21.343
X-934.091 Y-21.386
X-934.2 Y-21.449
X-934.635 Y-21.723
X-934.853 Y-21.862
X-934.929 Y-21.927
X-935.364 Y-22.363
X-935.506 Y-22.507
X-935.561 Y-22.58
X-935.971 Y-23.233
X-936.029 Y-23.342
X-936.068 Y-23.451
X-936.297 Y-24.104
X-936.326 Y-24.212
X-936.34 Y-24.321
X-936.414 Y-24.974
X-936.423 Y-25.083
X-936.417 Y-25.192
X-936.331 Y-25.953
X-936.308 Y-26.062
X-936.042 Y-26.824
X-936.02 Y-26.878
X-935.992 Y-26.933
X-935.583 Y-27.585
X-935.506 Y-27.693
X-935.398 Y-27.803
X-934.963 Y-28.238
X-934.853 Y-28.338
X-934.635 Y-28.477
X-934.2 Y-28.751
X-934.091 Y-28.814
X-933.982 Y-28.857
X-933.329 Y-29.086
X-933.261 Y-29.109
X-933.186 Y-29.127
X-933.112 Y-29.136
X-932.35 Y-29.222
X-932.296 Y-29.224
X-932.241 Y-29.221
X-931.588 Y-29.148
X-931.371 Y-29.118
X-931.339 Y-29.109
X-930.715 Y-28.891
X-930.5 Y-28.81
X-930.277 Y-28.674
X-929.847 Y-28.403
X-929.742 Y-28.334
X-929.63 Y-28.231
X-929.194 Y-27.795
X-929.092 Y-27.69
X-929.017 Y-27.585
X-928.608 Y-26.933
X-928.57 Y-26.855
X-928.52 Y-26.715
X-928.292 Y-26.062
X-928.268 Y-25.953
X-928.182 Y-25.192
X-928.177 Y-25.083
X-928.186 Y-24.974
X-928.26 Y-24.321
X-928.274 Y-24.212
X-928.303 Y-24.104
X-928.406 Y-23.809
G3 X-928.532 Y-23.611 I-0.559 J-0.218
G1 X-928.597 Y-23.543 Z2.007
X-928.661 Y-23.477 Z2.029
X-928.721 Y-23.415 Z2.065
X-928.776 Y-23.357 Z2.115
X-928.826 Y-23.305 Z2.176
X-928.868 Y-23.261 Z2.247
X-928.902 Y-23.225 Z2.328
X-928.927 Y-23.199 Z2.415
X-928.942 Y-23.184 Z2.506
X-928.948 Y-23.178 Z2.6
G0 Z30

(2D Contour5)
S8000 M3
M9
X-932.3 Y-25.1
Z30
Z20
G1 Z2 F850
G3 X-932 Y-25.4 I0.3
G1 X-927.95
G3 X-927.65 Y-25.1 J0.3
X-936.95 I-4.65
X-927.65 I4.65
X-936.95 I-4.65
X-927.65 I4.65
X-928.25 Y-24.5 I-0.6
G1 X-928.85
G18 G3 X-929.45 Z2.6 K0.6
G0 Z30
G17

(2D Adaptive6)
S6000 M3
M9
G0 X-1005.39 Y-22.984
Z30
Z20
Z18.15
G1 Z17.55 F850
G3 X-1009.21 Y-27.214 Z17.237 I-1.91 J-2.115 F283.3
X-1005.39 Y-22.984 Z16.925 I1.91 J2.115
X-1009.21 Y-27.214 Z16.612 I-1.91 J-2.115
X-1005.39 Y-22.984 Z16.299 I1.91 J2.115
X-1009.21 Y-27.214 Z15.987 I-1.91 J-2.115
X-1005.39 Y-22.984 Z15.674 I1.91 J2.115
X-1009.21 Y-27.214 Z15.361 I-1.91 J-2.115
X-1005.39 Y-22.984 Z15.049 I1.91 J2.115
X-1009.21 Y-27.214 Z14.736 I-1.91 J-2.115
X-1005.39 Y-22.984 Z14.423 I1.91 J2.115
X-1009.21 Y-27.214 Z14.111 I-1.91 J-2.115
X-1005.39 Y-22.984 Z13.798 I1.91 J2.115
X-1009.21 Y-27.214 Z13.485 I-1.91 J-2.115
X-1005.39 Y-22.984 Z13.173 I1.91 J2.115
X-1009.21 Y-27.214 Z12.86 I-1.91 J-2.115
X-1005.39 Y-22.984 Z12.547 I1.91 J2.115
X-1009.21 Y-27.214 Z12.235 I-1.91 J-2.115
X-1005.39 Y-22.984 Z11.922 I1.91 J2.115
X-1009.21 Y-27.214 Z11.609 I-1.91 J-2.115
X-1005.39 Y-22.984 Z11.297 I1.91 J2.115
X-1009.21 Y-27.214 Z10.984 I-1.91 J-2.115
X-1005.39 Y-22.984 Z10.671 I1.91 J2.115
X-1009.21 Y-27.214 Z10.359 I-1.91 J-2.115
X-1005.39 Y-22.984 Z10.046 I1.91 J2.115
X-1009.21 Y-27.214 Z9.733 I-1.91 J-2.115
X-1005.39 Y-22.984 Z9.421 I1.91 J2.115
X-1009.21 Y-27.214 Z9.108 I-1.91 J-2.115
X-1005.39 Y-22.984 Z8.795 I1.91 J2.115
X-1009.21 Y-27.214 Z8.483 I-1.91 J-2.115
X-1005.39 Y-22.984 Z8.17 I1.91 J2.115
X-1009.21 Y-27.214 Z7.857 I-1.91 J-2.115
X-1005.39 Y-22.984 Z7.545 I1.91 J2.115
X-1009.21 Y-27.214 Z7.232 I-1.91 J-2.115
X-1005.39 Y-22.984 Z6.919 I1.91 J2.115
X-1009.21 Y-27.214 Z6.607 I-1.91 J-2.115
X-1005.39 Y-22.984 Z6.294 I1.91 J2.115
X-1009.21 Y-27.214 Z5.981 I-1.91 J-2.115
X-1005.39 Y-22.984 Z5.669 I1.91 J2.115
X-1009.21 Y-27.214 Z5.356 I-1.91 J-2.115
X-1005.39 Y-22.984 Z5.043 I1.91 J2.115
X-1009.21 Y-27.214 Z4.731 I-1.91 J-2.115
X-1005.39 Y-22.984 Z4.418 I1.91 J2.115
X-1009.21 Y-27.214 Z4.105 I-1.91 J-2.115
X-1005.39 Y-22.984 Z3.793 I1.91 J2.115
X-1009.21 Y-27.214 Z3.48 I-1.91 J-2.115
X-1005.39 Y-22.984 Z3.167 I1.91 J2.115
X-1009.21 Y-27.214 Z2.855 I-1.91 J-2.115
X-1005.39 Y-22.984 Z2.542 I1.91 J2.115
X-1009.21 Y-27.214 Z2.229 I-1.91 J-2.115
X-1004.45 Y-25.099 Z2 I1.91 J2.115
X-1010.15 I-2.85
X-1004.45 I2.85
G1 X-1004.436 Y-24.142 F850
X-1004.407 Y-24.026
X-1004.387 Y-23.877
X-1004.385 Y-23.727
X-1004.398 Y-23.578
X-1004.425 Y-23.43
X-1004.463 Y-23.285
X-1004.513 Y-23.143
X-1004.572 Y-23.006
X-1004.64 Y-22.872
X-1004.716 Y-22.743
X-1004.801 Y-22.619
X-1004.892 Y-22.499
X-1004.993 Y-22.381
X-1005.104 Y-22.266
X-1005.224 Y-22.154
X-1005.354 Y-22.047
X-1005.492 Y-21.945
X-1005.638 Y-21.849
X-1005.793 Y-21.76
X-1005.955 Y-21.678
X-1006.124 Y-21.605
X-1006.3 Y-21.54
X-1006.481 Y-21.484
X-1006.667 Y-21.438
X-1006.858 Y-21.402
X-1007.052 Y-21.377
X-1007.249 Y-21.363
X-1007.448 Y-21.36
X-1007.648 Y-21.368
X-1007.849 Y-21.387
X-1008.049 Y-21.418
X-1008.249 Y-21.46
X-1008.447 Y-21.514
X-1008.642 Y-21.579
X-1008.834 Y-21.655
X-1009.022 Y-21.743
X-1009.206 Y-21.841
X-1009.384 Y-21.949
X-1009.556 Y-22.068
X-1009.722 Y-22.196
X-1009.88 Y-22.334
X-1010.031 Y-22.481
X-1010.173 Y-22.636
X-1010.307 Y-22.8
X-1010.431 Y-22.971
X-1010.546 Y-23.148
X-1010.651 Y-23.332
X-1010.745 Y-23.522
X-1010.829 Y-23.718
X-1010.901 Y-23.917
X-1010.962 Y-24.121
X-1011.012 Y-24.327
X-1011.049 Y-24.537
X-1011.075 Y-24.748
X-1011.089 Y-24.96
X-1011.092 Y-25.173
X-1011.082 Y-25.386
X-1011.06 Y-25.598
X-1011.026 Y-25.809
X-1010.98 Y-26.017
X-1010.923 Y-26.223
X-1010.854 Y-26.425
X-1010.774 Y-26.623
X-1010.683 Y-26.816
X-1010.582 Y-27.003
X-1010.469 Y-27.185
X-1010.347 Y-27.36
X-1010.215 Y-27.528
X-1010.074 Y-27.688
X-1009.924 Y-27.84
X-1009.766 Y-27.983
X-1009.599 Y-28.117
X-1009.426 Y-28.242
X-1009.246 Y-28.357
X-1009.059 Y-28.461
X-1008.867 Y-28.555
X-1008.67 Y-28.638
X-1008.469 Y-28.709
X-1008.264 Y-28.769
X-1008.056 Y-28.818
X-1007.845 Y-28.854
X-1007.633 Y-28.879
X-1007.42 Y-28.892
X-1007.206 Y-28.893
X-1006.993 Y-28.881
X-1006.78 Y-28.858
X-1006.57 Y-28.823
X-1006.361 Y-28.776
X-1006.156 Y-28.717
X-1005.954 Y-28.647
X-1005.756 Y-28.566
X-1005.564 Y-28.473
X-1005.376 Y-28.37
X-1005.195 Y-28.257
X-1005.021 Y-28.133
X-1004.854 Y-28
X-1004.694 Y-27.858
X-1004.543 Y-27.707
X-1004.401 Y-27.547
X-1004.267 Y-27.38
X-1004.144 Y-27.206
X-1004.03 Y-27.025
X-1003.927 Y-26.838
X-1003.823 Y-26.621
X-1003.694 Y-26.308
X-1003.542 Y-25.873
X-1003.445 Y-25.531
X-1003.377 Y-25.233
X-1003.332 Y-24.961
X-1003.304 Y-24.706
X-1003.297 Y-24.576
X-1003.3 Y-24.316
X-1003.337 Y-24.059
X-1003.406 Y-23.809
X-1003.541 Y-23.423
X-1003.577 Y-23.328
X-1003.629 Y-23.233
X-1004.039 Y-22.58
X-1004.107 Y-22.492
X-1004.671 Y-21.927
X-1004.759 Y-21.853
X-1004.847 Y-21.797
X-1005.332 Y-21.492
X-1005.5 Y-21.391
X-1005.718 Y-21.308
X-1006.153 Y-21.156
X-1006.371 Y-21.082
X-1006.548 Y-21.057
X-1007.241 Y-20.979
X-1007.35 Y-20.978
X-1008.112 Y-21.064
X-1008.22 Y-21.081
X-1008.329 Y-21.114
X-1008.982 Y-21.343
X-1009.091 Y-21.386
X-1009.2 Y-21.449
X-1009.635 Y-21.723
X-1009.853 Y-21.862
X-1009.929 Y-21.927
X-1010.364 Y-22.363
X-1010.506 Y-22.507
X-1010.561 Y-22.58
X-1010.971 Y-23.233
X-1011.029 Y-23.342
X-1011.068 Y-23.451
X-1011.297 Y-24.104
X-1011.326 Y-24.212
X-1011.34 Y-24.321
X-1011.414 Y-24.974
X-1011.423 Y-25.083
X-1011.417 Y-25.192
X-1011.331 Y-25.953
X-1011.308 Y-26.062
X-1011.042 Y-26.824
X-1011.02 Y-26.878
X-1010.992 Y-26.933
X-1010.583 Y-27.585
X-1010.506 Y-27.693
X-1010.398 Y-27.803
X-1009.963 Y-28.238
X-1009.853 Y-28.338
X-1009.635 Y-28.477
X-1009.2 Y-28.751
X-1009.091 Y-28.814
X-1008.982 Y-28.857
X-1008.329 Y-29.086
X-1008.261 Y-29.109
X-1008.186 Y-29.127
X-1008.112 Y-29.136
X-1007.35 Y-29.222
X-1007.296 Y-29.224
X-1007.241 Y-29.221
X-1006.588 Y-29.148
X-1006.371 Y-29.118
X-1006.339 Y-29.109
X-1005.715 Y-28.891
X-1005.5 Y-28.81
X-1005.277 Y-28.674
X-1004.847 Y-28.403
X-1004.742 Y-28.334
X-1004.63 Y-28.231
X-1004.194 Y-27.795
X-1004.092 Y-27.69
X-1004.017 Y-27.585
X-1003.608 Y-26.933
X-1003.57 Y-26.855
X-1003.52 Y-26.715
X-1003.292 Y-26.062
X-1003.268 Y-25.953
X-1003.182 Y-25.192
X-1003.177 Y-25.083
X-1003.186 Y-24.974
X-1003.26 Y-24.321
X-1003.274 Y-24.212
X-1003.303 Y-24.104
X-1003.406 Y-23.809
G3 X-1003.532 Y-23.611 I-0.559 J-0.218
G1 X-1003.597 Y-23.543 Z2.007
X-1003.661 Y-23.477 Z2.029
X-1003.721 Y-23.415 Z2.065
X-1003.776 Y-23.357 Z2.115
X-1003.826 Y-23.305 Z2.176
X-1003.868 Y-23.261 Z2.247
X-1003.902 Y-23.225 Z2.328
X-1003.927 Y-23.199 Z2.415
X-1003.942 Y-23.184 Z2.506
X-1003.948 Y-23.178 Z2.6
G0 Z30

(2D Contour5)
S8000 M3
M9
X-1007.3 Y-25.1
Z30
Z20
G1 Z2 F850
G3 X-1007 Y-25.4 I0.3
G1 X-1002.95
G3 X-1002.65 Y-25.1 J0.3
X-1011.95 I-4.65
X-1002.65 I4.65
X-1011.95 I-4.65
X-1002.65 I4.65
X-1003.25 Y-24.5 I-0.6
G1 X-1003.85
G18 G3 X-1004.45 Z2.6 K0.6
G0 Z30
G17

(2D Adaptive6)
S6000 M3
M9
G0 X-1155.39 Y-22.984
Z30
Z20
Z18.15
G1 Z17.55 F850
G3 X-1159.21 Y-27.214 Z17.237 I-1.91 J-2.115 F283.3
X-1155.39 Y-22.984 Z16.925 I1.91 J2.115
X-1159.21 Y-27.214 Z16.612 I-1.91 J-2.115
X-1155.39 Y-22.984 Z16.299 I1.91 J2.115
X-1159.21 Y-27.214 Z15.987 I-1.91 J-2.115
X-1155.39 Y-22.984 Z15.674 I1.91 J2.115
X-1159.21 Y-27.214 Z15.361 I-1.91 J-2.115
X-1155.39 Y-22.984 Z15.049 I1.91 J2.115
X-1159.21 Y-27.214 Z14.736 I-1.91 J-2.115
X-1155.39 Y-22.984 Z14.423 I1.91 J2.115
X-1159.21 Y-27.214 Z14.111 I-1.91 J-2.115
X-1155.39 Y-22.984 Z13.798 I1.91 J2.115
X-1159.21 Y-27.214 Z13.485 I-1.91 J-2.115
X-1155.39 Y-22.984 Z13.173 I1.91 J2.115
X-1159.21 Y-27.214 Z12.86 I-1.91 J-2.115
X-1155.39 Y-22.984 Z12.547 I1.91 J2.115
X-1159.21 Y-27.214 Z12.235 I-1.91 J-2.115
X-1155.39 Y-22.984 Z11.922 I1.91 J2.115
X-1159.21 Y-27.214 Z11.609 I-1.91 J-2.115
X-1155.39 Y-22.984 Z11.297 I1.91 J2.115
X-1159.21 Y-27.214 Z10.984 I-1.91 J-2.115
X-1155.39 Y-22.984 Z10.671 I1.91 J2.115
X-1159.21 Y-27.214 Z10.359 I-1.91 J-2.115
X-1155.39 Y-22.984 Z10.046 I1.91 J2.115
X-1159.21 Y-27.214 Z9.733 I-1.91 J-2.115
X-1155.39 Y-22.984 Z9.421 I1.91 J2.115
X-1159.21 Y-27.214 Z9.108 I-1.91 J-2.115
X-1155.39 Y-22.984 Z8.795 I1.91 J2.115
X-1159.21 Y-27.214 Z8.483 I-1.91 J-2.115
X-1155.39 Y-22.984 Z8.17 I1.91 J2.115
X-1159.21 Y-27.214 Z7.857 I-1.91 J-2.115
X-1155.39 Y-22.984 Z7.545 I1.91 J2.115
X-1159.21 Y-27.214 Z7.232 I-1.91 J-2.115
X-1155.39 Y-22.984 Z6.919 I1.91 J2.115
X-1159.21 Y-27.214 Z6.607 I-1.91 J-2.115
X-1155.39 Y-22.984 Z6.294 I1.91 J2.115
X-1159.21 Y-27.214 Z5.981 I-1.91 J-2.115
X-1155.39 Y-22.984 Z5.669 I1.91 J2.115
X-1159.21 Y-27.214 Z5.356 I-1.91 J-2.115
X-1155.39 Y-22.984 Z5.043 I1.91 J2.115
X-1159.21 Y-27.214 Z4.731 I-1.91 J-2.115
X-1155.39 Y-22.984 Z4.418 I1.91 J2.115
X-1159.21 Y-27.214 Z4.105 I-1.91 J-2.115
X-1155.39 Y-22.984 Z3.793 I1.91 J2.115
X-1159.21 Y-27.214 Z3.48 I-1.91 J-2.115
X-1155.39 Y-22.984 Z3.167 I1.91 J2.115
X-1159.21 Y-27.214 Z2.855 I-1.91 J-2.115
X-1155.39 Y-22.984 Z2.542 I1.91 J2.115
X-1159.21 Y-27.214 Z2.229 I-1.91 J-2.115
X-1154.45 Y-25.099 Z2 I1.91 J2.115
X-1160.15 I-2.85
X-1154.45 I2.85
G1 X-1154.436 Y-24.142 F850
X-1154.407 Y-24.026
X-1154.387 Y-23.877
X-1154.385 Y-23.727
X-1154.398 Y-23.578
X-1154.425 Y-23.43
X-1154.463 Y-23.285
X-1154.513 Y-23.143
X-1154.572 Y-23.006
X-1154.64 Y-22.872
X-1154.716 Y-22.743
X-1154.801 Y-22.619
X-1154.892 Y-22.499
X-1154.993 Y-22.381
X-1155.104 Y-22.266
X-1155.224 Y-22.154
X-1155.354 Y-22.047
X-1155.492 Y-21.945
X-1155.638 Y-21.849
X-1155.793 Y-21.76
X-1155.955 Y-21.678
X-1156.124 Y-21.605
X-1156.3 Y-21.54
X-1156.481 Y-21.484
X-1156.667 Y-21.438
X-1156.858 Y-21.402
X-1157.052 Y-21.377
X-1157.249 Y-21.363
X-1157.448 Y-21.36
X-1157.648 Y-21.368
X-1157.849 Y-21.387
X-1158.049 Y-21.418
X-1158.249 Y-21.46
X-1158.447 Y-21.514
X-1158.642 Y-21.579
X-1158.834 Y-21.655
X-1159.022 Y-21.743
X-1159.206 Y-21.841
X-1159.384 Y-21.949
X-1159.556 Y-22.068
X-1159.722 Y-22.196
X-1159.88 Y-22.334
X-1160.031 Y-22.481
X-1160.173 Y-22.636
X-1160.307 Y-22.8
X-1160.431 Y-22.971
X-1160.546 Y-23.148
X-1160.651 Y-23.332
X-1160.745 Y-23.522
X-1160.829 Y-23.718
X-1160.901 Y-23.917
X-1160.962 Y-24.121
X-1161.012 Y-24.327
X-1161.049 Y-24.537
X-1161.075 Y-24.748
X-1161.089 Y-24.96
X-1161.092 Y-25.173
X-1161.082 Y-25.386
X-1161.06 Y-25.598
X-1161.026 Y-25.809
X-1160.98 Y-26.017
X-1160.923 Y-26.223
X-1160.854 Y-26.425
X-1160.774 Y-26.623
X-1160.683 Y-26.816
X-1160.582 Y-27.003
X-1160.469 Y-27.185
X-1160.347 Y-27.36
X-1160.215 Y-27.528
X-1160.074 Y-27.688
X-1159.924 Y-27.84
X-1159.766 Y-27.983
X-1159.599 Y-28.117
X-1159.426 Y-28.242
X-1159.246 Y-28.357
X-1159.059 Y-28.461
X-1158.867 Y-28.555
X-1158.67 Y-28.638
X-1158.469 Y-28.709
X-1158.264 Y-28.769
X-1158.056 Y-28.818
X-1157.845 Y-28.854
X-1157.633 Y-28.879
X-1157.42 Y-28.892
X-1157.206 Y-28.893
X-1156.993 Y-28.881
X-1156.78 Y-28.858
X-1156.57 Y-28.823
X-1156.361 Y-28.776
X-1156.156 Y-28.717
X-1155.954 Y-28.647
X-1155.756 Y-28.566
X-1155.564 Y-28.473
X-1155.376 Y-28.37
X-1155.195 Y-28.257
X-1155.021 Y-28.133
X-1154.854 Y-28
X-1154.694 Y-27.858
X-1154.543 Y-27.707
X-1154.401 Y-27.547
X-1154.267 Y-27.38
X-1154.144 Y-27.206
X-1154.03 Y-27.025
X-1153.927 Y-26.838
X-1153.823 Y-26.621
X-1153.694 Y-26.308
X-1153.542 Y-25.873
X-1153.445 Y-25.531
X-1153.377 Y-25.233
X-1153.332 Y-24.961
X-1153.304 Y-24.706
X-1153.297 Y-24.576
X-1153.3 Y-24.316
X-1153.337 Y-24.059
X-1153.406 Y-23.809
X-1153.541 Y-23.423
X-1153.577 Y-23.328
X-1153.629 Y-23.233
X-1154.039 Y-22.58
X-1154.107 Y-22.492
X-1154.671 Y-21.927
X-1154.759 Y-21.853
X-1154.847 Y-21.797
X-1155.332 Y-21.492
X-1155.5 Y-21.391
X-1155.718 Y-21.308
X-1156.153 Y-21.156
X-1156.371 Y-21.082
X-1156.548 Y-21.057
X-1157.241 Y-20.979
X-1157.35 Y-20.978
X-1158.112 Y-21.064
X-1158.22 Y-21.081
X-1158.329 Y-21.114
X-1158.982 Y-21.343
X-1159.091 Y-21.386
X-1159.2 Y-21.449
X-1159.635 Y-21.723
X-1159.853 Y-21.862
X-1159.929 Y-21.927
X-1160.364 Y-22.363
X-1160.506 Y-22.507
X-1160.561 Y-22.58
X-1160.971 Y-23.233
X-1161.029 Y-23.342
X-1161.068 Y-23.451
X-1161.297 Y-24.104
X-1161.326 Y-24.212
X-1161.34 Y-24.321
X-1161.414 Y-24.974
X-1161.423 Y-25.083
X-1161.417 Y-25.192
X-1161.331 Y-25.953
X-1161.308 Y-26.062
X-1161.042 Y-26.824
X-1161.02 Y-26.878
X-1160.992 Y-26.933
X-1160.583 Y-27.585
X-1160.506 Y-27.693
X-1160.398 Y-27.803
X-1159.963 Y-28.238
X-1159.853 Y-28.338
X-1159.635 Y-28.477
X-1159.2 Y-28.751
X-1159.091 Y-28.814
X-1158.982 Y-28.857
X-1158.329 Y-29.086
X-1158.261 Y-29.109
X-1158.186 Y-29.127
X-1158.112 Y-29.136
X-1157.35 Y-29.222
X-1157.296 Y-29.224
X-1157.241 Y-29.221
X-1156.588 Y-29.148
X-1156.371 Y-29.118
X-1156.339 Y-29.109
X-1155.715 Y-28.891
X-1155.5 Y-28.81
X-1155.277 Y-28.674
X-1154.847 Y-28.403
X-1154.742 Y-28.334
X-1154.63 Y-28.231
X-1154.194 Y-27.795
X-1154.092 Y-27.69
X-1154.017 Y-27.585
X-1153.608 Y-26.933
X-1153.57 Y-26.855
X-1153.52 Y-26.715
X-1153.292 Y-26.062
X-1153.268 Y-25.953
X-1153.182 Y-25.192
X-1153.177 Y-25.083
X-1153.186 Y-24.974
X-1153.26 Y-24.321
X-1153.274 Y-24.212
X-1153.303 Y-24.104
X-1153.406 Y-23.809
G3 X-1153.532 Y-23.611 I-0.559 J-0.218
G1 X-1153.597 Y-23.543 Z2.007
X-1153.661 Y-23.477 Z2.029
X-1153.721 Y-23.415 Z2.065
X-1153.776 Y-23.357 Z2.115
X-1153.826 Y-23.305 Z2.176
X-1153.868 Y-23.261 Z2.247
X-1153.902 Y-23.225 Z2.328
X-1153.927 Y-23.199 Z2.415
X-1153.942 Y-23.184 Z2.506
X-1153.948 Y-23.178 Z2.6
G0 Z30

(2D Contour5)
S8000 M3
M9
X-1157.3 Y-25.1
Z30
Z20
G1 Z2 F850
G3 X-1157 Y-25.4 I0.3
G1 X-1152.95
G3 X-1152.65 Y-25.1 J0.3
X-1161.95 I-4.65
X-1152.65 I4.65
X-1161.95 I-4.65
X-1152.65 I4.65
X-1153.25 Y-24.5 I-0.6
G1 X-1153.85
G18 G3 X-1154.45 Z2.6 K0.6
G0 Z30
G17

(2D Adaptive6)
S6000 M3
M9
G0 X-1230.39 Y-22.984
Z30
Z20
Z18.15
G1 Z17.55 F850
G3 X-1234.21 Y-27.214 Z17.237 I-1.91 J-2.115 F283.3
X-1230.39 Y-22.984 Z16.925 I1.91 J2.115
X-1234.21 Y-27.214 Z16.612 I-1.91 J-2.115
X-1230.39 Y-22.984 Z16.299 I1.91 J2.115
X-1234.21 Y-27.214 Z15.987 I-1.91 J-2.115
X-1230.39 Y-22.984 Z15.674 I1.91 J2.115
X-1234.21 Y-27.214 Z15.361 I-1.91 J-2.115
X-1230.39 Y-22.984 Z15.049 I1.91 J2.115
X-1234.21 Y-27.214 Z14.736 I-1.91 J-2.115
X-1230.39 Y-22.984 Z14.423 I1.91 J2.115
X-1234.21 Y-27.214 Z14.111 I-1.91 J-2.115
X-1230.39 Y-22.984 Z13.798 I1.91 J2.115
X-1234.21 Y-27.214 Z13.485 I-1.91 J-2.115
X-1230.39 Y-22.984 Z13.173 I1.91 J2.115
X-1234.21 Y-27.214 Z12.86 I-1.91 J-2.115
X-1230.39 Y-22.984 Z12.547 I1.91 J2.115
X-1234.21 Y-27.214 Z12.235 I-1.91 J-2.115
X-1230.39 Y-22.984 Z11.922 I1.91 J2.115
X-1234.21 Y-27.214 Z11.609 I-1.91 J-2.115
X-1230.39 Y-22.984 Z11.297 I1.91 J2.115
X-1234.21 Y-27.214 Z10.984 I-1.91 J-2.115
X-1230.39 Y-22.984 Z10.671 I1.91 J2.115
X-1234.21 Y-27.214 Z10.359 I-1.91 J-2.115
X-1230.39 Y-22.984 Z10.046 I1.91 J2.115
X-1234.21 Y-27.214 Z9.733 I-1.91 J-2.115
X-1230.39 Y-22.984 Z9.421 I1.91 J2.115
X-1234.21 Y-27.214 Z9.108 I-1.91 J-2.115
X-1230.39 Y-22.984 Z8.795 I1.91 J2.115
X-1234.21 Y-27.214 Z8.483 I-1.91 J-2.115
X-1230.39 Y-22.984 Z8.17 I1.91 J2.115
X-1234.21 Y-27.214 Z7.857 I-1.91 J-2.115
X-1230.39 Y-22.984 Z7.545 I1.91 J2.115
X-1234.21 Y-27.214 Z7.232 I-1.91 J-2.115
X-1230.39 Y-22.984 Z6.919 I1.91 J2.115
X-1234.21 Y-27.214 Z6.607 I-1.91 J-2.115
X-1230.39 Y-22.984 Z6.294 I1.91 J2.115
X-1234.21 Y-27.214 Z5.981 I-1.91 J-2.115
X-1230.39 Y-22.984 Z5.669 I1.91 J2.115
X-1234.21 Y-27.214 Z5.356 I-1.91 J-2.115
X-1230.39 Y-22.984 Z5.043 I1.91 J2.115
X-1234.21 Y-27.214 Z4.731 I-1.91 J-2.115
X-1230.39 Y-22.984 Z4.418 I1.91 J2.115
X-1234.21 Y-27.214 Z4.105 I-1.91 J-2.115
X-1230.39 Y-22.984 Z3.793 I1.91 J2.115
X-1234.21 Y-27.214 Z3.48 I-1.91 J-2.115
X-1230.39 Y-22.984 Z3.167 I1.91 J2.115
X-1234.21 Y-27.214 Z2.855 I-1.91 J-2.115
X-1230.39 Y-22.984 Z2.542 I1.91 J2.115
X-1234.21 Y-27.214 Z2.229 I-1.91 J-2.115
X-1229.45 Y-25.099 Z2 I1.91 J2.115
X-1235.15 I-2.85
X-1229.45 I2.85
G1 X-1229.436 Y-24.142 F850
X-1229.407 Y-24.026
X-1229.387 Y-23.877
X-1229.385 Y-23.727
X-1229.398 Y-23.578
X-1229.425 Y-23.43
X-1229.463 Y-23.285
X-1229.513 Y-23.143
X-1229.572 Y-23.006
X-1229.64 Y-22.872
X-1229.716 Y-22.743
X-1229.801 Y-22.619
X-1229.892 Y-22.499
X-1229.993 Y-22.381
X-1230.104 Y-22.266
X-1230.224 Y-22.154
X-1230.354 Y-22.047
X-1230.492 Y-21.945
X-1230.638 Y-21.849
X-1230.793 Y-21.76
X-1230.955 Y-21.678
X-1231.124 Y-21.605
X-1231.3 Y-21.54
X-1231.481 Y-21.484
X-1231.667 Y-21.438
X-1231.858 Y-21.402
X-1232.052 Y-21.377
X-1232.249 Y-21.363
X-1232.448 Y-21.36
X-1232.648 Y-21.368
X-1232.849 Y-21.387
X-1233.049 Y-21.418
X-1233.249 Y-21.46
X-1233.447 Y-21.514
X-1233.642 Y-21.579
X-1233.834 Y-21.655
X-1234.022 Y-21.743
X-1234.206 Y-21.841
X-1234.384 Y-21.949
X-1234.556 Y-22.068
X-1234.722 Y-22.196
X-1234.88 Y-22.334
X-1235.031 Y-22.481
X-1235.173 Y-22.636
X-1235.307 Y-22.8
X-1235.431 Y-22.971
X-1235.546 Y-23.148
X-1235.651 Y-23.332
X-1235.745 Y-23.522
X-1235.829 Y-23.718
X-1235.901 Y-23.917
X-1235.962 Y-24.121
X-1236.012 Y-24.327
X-1236.049 Y-24.537
X-1236.075 Y-24.748
X-1236.089 Y-24.96
X-1236.092 Y-25.173
X-1236.082 Y-25.386
X-1236.06 Y-25.598
X-1236.026 Y-25.809
X-1235.98 Y-26.017
X-1235.923 Y-26.223
X-1235.854 Y-26.425
X-1235.774 Y-26.623
X-1235.683 Y-26.816
X-1235.582 Y-27.003
X-1235.469 Y-27.185
X-1235.347 Y-27.36
X-1235.215 Y-27.528
X-1235.074 Y-27.688
X-1234.924 Y-27.84
X-1234.766 Y-27.983
X-1234.599 Y-28.117
X-1234.426 Y-28.242
X-1234.246 Y-28.357
X-1234.059 Y-28.461
X-1233.867 Y-28.555
X-1233.67 Y-28.638
X-1233.469 Y-28.709
X-1233.264 Y-28.769
X-1233.056 Y-28.818
X-1232.845 Y-28.854
X-1232.633 Y-28.879
X-1232.42 Y-28.892
X-1232.206 Y-28.893
X-1231.993 Y-28.881
X-1231.78 Y-28.858
X-1231.57 Y-28.823
X-1231.361 Y-28.776
X-1231.156 Y-28.717
X-1230.954 Y-28.647
X-1230.756 Y-28.566
X-1230.564 Y-28.473
X-1230.376 Y-28.37
X-1230.195 Y-28.257
X-1230.021 Y-28.133
X-1229.854 Y-28
X-1229.694 Y-27.858
X-1229.543 Y-27.707
X-1229.401 Y-27.547
X-1229.267 Y-27.38
X-1229.144 Y-27.206
X-1229.03 Y-27.025
X-1228.927 Y-26.838
X-1228.823 Y-26.621
X-1228.694 Y-26.308
X-1228.542 Y-25.873
X-1228.445 Y-25.531
X-1228.377 Y-25.233
X-1228.332 Y-24.961
X-1228.304 Y-24.706
X-1228.297 Y-24.576
X-1228.3 Y-24.316
X-1228.337 Y-24.059
X-1228.406 Y-23.809
X-1228.541 Y-23.423
X-1228.577 Y-23.328
X-1228.629 Y-23.233
X-1229.039 Y-22.58
X-1229.107 Y-22.492
X-1229.671 Y-21.927
X-1229.759 Y-21.853
X-1229.847 Y-21.797
X-1230.332 Y-21.492
X-1230.5 Y-21.391
X-1230.718 Y-21.308
X-1231.153 Y-21.156
X-1231.371 Y-21.082
X-1231.548 Y-21.057
X-1232.241 Y-20.979
X-1232.35 Y-20.978
X-1233.112 Y-21.064
X-1233.22 Y-21.081
X-1233.329 Y-21.114
X-1233.982 Y-21.343
X-1234.091 Y-21.386
X-1234.2 Y-21.449
X-1234.635 Y-21.723
X-1234.853 Y-21.862
X-1234.929 Y-21.927
X-1235.364 Y-22.363
X-1235.506 Y-22.507
X-1235.561 Y-22.58
X-1235.971 Y-23.233
X-1236.029 Y-23.342
X-1236.068 Y-23.451
X-1236.297 Y-24.104
X-1236.326 Y-24.212
X-1236.34 Y-24.321
X-1236.414 Y-24.974
X-1236.423 Y-25.083
X-1236.417 Y-25.192
X-1236.331 Y-25.953
X-1236.308 Y-26.062
X-1236.042 Y-26.824
X-1236.02 Y-26.878
X-1235.992 Y-26.933
X-1235.583 Y-27.585
X-1235.506 Y-27.693
X-1235.398 Y-27.803
X-1234.963 Y-28.238
X-1234.853 Y-28.338
X-1234.635 Y-28.477
X-1234.2 Y-28.751
X-1234.091 Y-28.814
X-1233.982 Y-28.857
X-1233.329 Y-29.086
X-1233.261 Y-29.109
X-1233.186 Y-29.127
X-1233.112 Y-29.136
X-1232.35 Y-29.222
X-1232.296 Y-29.224
X-1232.241 Y-29.221
X-1231.588 Y-29.148
X-1231.371 Y-29.118
X-1231.339 Y-29.109
X-1230.715 Y-28.891
X-1230.5 Y-28.81
X-1230.277 Y-28.674
X-1229.847 Y-28.403
X-1229.742 Y-28.334
X-1229.63 Y-28.231
X-1229.194 Y-27.795
X-1229.092 Y-27.69
X-1229.017 Y-27.585
X-1228.608 Y-26.933
X-1228.57 Y-26.855
X-1228.52 Y-26.715
X-1228.292 Y-26.062
X-1228.268 Y-25.953
X-1228.182 Y-25.192
X-1228.177 Y-25.083
X-1228.186 Y-24.974
X-1228.26 Y-24.321
X-1228.274 Y-24.212
X-1228.303 Y-24.104
X-1228.406 Y-23.809
G3 X-1228.532 Y-23.611 I-0.559 J-0.218
G1 X-1228.597 Y-23.543 Z2.007
X-1228.661 Y-23.477 Z2.029
X-1228.721 Y-23.415 Z2.065
X-1228.776 Y-23.357 Z2.115
X-1228.826 Y-23.305 Z2.176
X-1228.868 Y-23.261 Z2.247
X-1228.902 Y-23.225 Z2.328
X-1228.927 Y-23.199 Z2.415
X-1228.942 Y-23.184 Z2.506
X-1228.948 Y-23.178 Z2.6
G0 Z30

(2D Contour5)
S8000 M3
M9
X-1232.3 Y-25.1
Z30
Z20
G1 Z2 F850
G3 X-1232 Y-25.4 I0.3
G1 X-1227.95
G3 X-1227.65 Y-25.1 J0.3
X-1236.95 I-4.65
X-1227.65 I4.65
X-1236.95 I-4.65
X-1227.65 I4.65
X-1228.25 Y-24.5 I-0.6
G1 X-1228.85
G18 G3 X-1229.45 Z2.6 K0.6
G0 Z30
G17

(2D Adaptive6)
S6000 M3
M9
G0 X-1305.39 Y-22.984
Z30
Z20
Z18.15
G1 Z17.55 F850
G3 X-1309.21 Y-27.214 Z17.237 I-1.91 J-2.115 F283.3
X-1305.39 Y-22.984 Z16.925 I1.91 J2.115
X-1309.21 Y-27.214 Z16.612 I-1.91 J-2.115
X-1305.39 Y-22.984 Z16.299 I1.91 J2.115
X-1309.21 Y-27.214 Z15.987 I-1.91 J-2.115
X-1305.39 Y-22.984 Z15.674 I1.91 J2.115
X-1309.21 Y-27.214 Z15.361 I-1.91 J-2.115
X-1305.39 Y-22.984 Z15.049 I1.91 J2.115
X-1309.21 Y-27.214 Z14.736 I-1.91 J-2.115
X-1305.39 Y-22.984 Z14.423 I1.91 J2.115
X-1309.21 Y-27.214 Z14.111 I-1.91 J-2.115
X-1305.39 Y-22.984 Z13.798 I1.91 J2.115
X-1309.21 Y-27.214 Z13.485 I-1.91 J-2.115
X-1305.39 Y-22.984 Z13.173 I1.91 J2.115
X-1309.21 Y-27.214 Z12.86 I-1.91 J-2.115
X-1305.39 Y-22.984 Z12.547 I1.91 J2.115
X-1309.21 Y-27.214 Z12.235 I-1.91 J-2.115
X-1305.39 Y-22.984 Z11.922 I1.91 J2.115
X-1309.21 Y-27.214 Z11.609 I-1.91 J-2.115
X-1305.39 Y-22.984 Z11.297 I1.91 J2.115
X-1309.21 Y-27.214 Z10.984 I-1.91 J-2.115
X-1305.39 Y-22.984 Z10.671 I1.91 J2.115
X-1309.21 Y-27.214 Z10.359 I-1.91 J-2.115
X-1305.39 Y-22.984 Z10.046 I1.91 J2.115
X-1309.21 Y-27.214 Z9.733 I-1.91 J-2.115
X-1305.39 Y-22.984 Z9.421 I1.91 J2.115
X-1309.21 Y-27.214 Z9.108 I-1.91 J-2.115
X-1305.39 Y-22.984 Z8.795 I1.91 J2.115
X-1309.21 Y-27.214 Z8.483 I-1.91 J-2.115
X-1305.39 Y-22.984 Z8.17 I1.91 J2.115
X-1309.21 Y-27.214 Z7.857 I-1.91 J-2.115
X-1305.39 Y-22.984 Z7.545 I1.91 J2.115
X-1309.21 Y-27.214 Z7.232 I-1.91 J-2.115
X-1305.39 Y-22.984 Z6.919 I1.91 J2.115
X-1309.21 Y-27.214 Z6.607 I-1.91 J-2.115
X-1305.39 Y-22.984 Z6.294 I1.91 J2.115
X-1309.21 Y-27.214 Z5.981 I-1.91 J-2.115
X-1305.39 Y-22.984 Z5.669 I1.91 J2.115
X-1309.21 Y-27.214 Z5.356 I-1.91 J-2.115
X-1305.39 Y-22.984 Z5.043 I1.91 J2.115
X-1309.21 Y-27.214 Z4.731 I-1.91 J-2.115
X-1305.39 Y-22.984 Z4.418 I1.91 J2.115
X-1309.21 Y-27.214 Z4.105 I-1.91 J-2.115
X-1305.39 Y-22.984 Z3.793 I1.91 J2.115
X-1309.21 Y-27.214 Z3.48 I-1.91 J-2.115
X-1305.39 Y-22.984 Z3.167 I1.91 J2.115
X-1309.21 Y-27.214 Z2.855 I-1.91 J-2.115
X-1305.39 Y-22.984 Z2.542 I1.91 J2.115
X-1309.21 Y-27.214 Z2.229 I-1.91 J-2.115
X-1304.45 Y-25.099 Z2 I1.91 J2.115
X-1310.15 I-2.85
X-1304.45 I2.85
G1 X-1304.436 Y-24.142 F850
X-1304.407 Y-24.026
X-1304.387 Y-23.877
X-1304.385 Y-23.727
X-1304.398 Y-23.578
X-1304.425 Y-23.43
X-1304.463 Y-23.285
X-1304.513 Y-23.143
X-1304.572 Y-23.006
X-1304.64 Y-22.872
X-1304.716 Y-22.743
X-1304.801 Y-22.619
X-1304.892 Y-22.499
X-1304.993 Y-22.381
X-1305.104 Y-22.266
X-1305.224 Y-22.154
X-1305.354 Y-22.047
X-1305.492 Y-21.945
X-1305.638 Y-21.849
X-1305.793 Y-21.76
X-1305.955 Y-21.678
X-1306.124 Y-21.605
X-1306.3 Y-21.54
X-1306.481 Y-21.484
X-1306.667 Y-21.438
X-1306.858 Y-21.402
X-1307.052 Y-21.377
X-1307.249 Y-21.363
X-1307.448 Y-21.36
X-1307.648 Y-21.368
X-1307.849 Y-21.387
X-1308.049 Y-21.418
X-1308.249 Y-21.46
X-1308.447 Y-21.514
X-1308.642 Y-21.579
X-1308.834 Y-21.655
X-1309.022 Y-21.743
X-1309.206 Y-21.841
X-1309.384 Y-21.949
X-1309.556 Y-22.068
X-1309.722 Y-22.196
X-1309.88 Y-22.334
X-1310.031 Y-22.481
X-1310.173 Y-22.636
X-1310.307 Y-22.8
X-1310.431 Y-22.971
X-1310.546 Y-23.148
X-1310.651 Y-23.332
X-1310.745 Y-23.522
X-1310.829 Y-23.718
X-1310.901 Y-23.917
X-1310.962 Y-24.121
X-1311.012 Y-24.327
X-1311.049 Y-24.537
X-1311.075 Y-24.748
X-1311.089 Y-24.96
X-1311.092 Y-25.173
X-1311.082 Y-25.386
X-1311.06 Y-25.598
X-1311.026 Y-25.809
X-1310.98 Y-26.017
X-1310.923 Y-26.223
X-1310.854 Y-26.425
X-1310.774 Y-26.623
X-1310.683 Y-26.816
X-1310.582 Y-27.003
X-1310.469 Y-27.185
X-1310.347 Y-27.36
X-1310.215 Y-27.528
X-1310.074 Y-27.688
X-1309.924 Y-27.84
X-1309.766 Y-27.983
X-1309.599 Y-28.117
X-1309.426 Y-28.242
X-1309.246 Y-28.357
X-1309.059 Y-28.461
X-1308.867 Y-28.555
X-1308.67 Y-28.638
X-1308.469 Y-28.709
X-1308.264 Y-28.769
X-1308.056 Y-28.818
X-1307.845 Y-28.854
X-1307.633 Y-28.879
X-1307.42 Y-28.892
X-1307.206 Y-28.893
X-1306.993 Y-28.881
X-1306.78 Y-28.858
X-1306.57 Y-28.823
