%
(1001)
(z0 slate machine -5-5)
(T1  D=6 CR=0 - ZMIN=2 - flat end mill)
G90 G94
G17
G21

(2D Contour5)
M9
T1 M6
S8000 M3
G54
M9
G0 X-107.3 Y-25.1
Z30
Z20
G1 Z2 F850
G3 X-107 Y-25.4 I0.3
G1 X-102.9
G3 X-102.6 Y-25.1 J0.3
X-112 I-4.7
X-102.6 I4.7
X-112 I-4.7
X-102.6 I4.7
X-103.2 Y-24.5 I-0.6
G1 X-103.8
G18 G3 X-104.4 Z2.6 K0.6
G0 Z30
G17

(2D Contour5)
M9
G0 X-182.3 Y-25.1
Z30
Z20
G1 Z2 F850
G3 X-182 Y-25.4 I0.3
G1 X-177.9
G3 X-177.6 Y-25.1 J0.3
X-187 I-4.7
X-177.6 I4.7
X-187 I-4.7
X-177.6 I4.7
X-178.2 Y-24.5 I-0.6
G1 X-178.8
G18 G3 X-179.4 Z2.6 K0.6
G0 Z30
G17

(2D Contour5)
M9
G0 X-257.3 Y-25.1
Z30
Z20
G1 Z2 F850
G3 X-257 Y-25.4 I0.3
G1 X-252.9
G3 X-252.6 Y-25.1 J0.3
X-262 I-4.7
X-252.6 I4.7
X-262 I-4.7
X-252.6 I4.7
X-253.2 Y-24.5 I-0.6
G1 X-253.8
G18 G3 X-254.4 Z2.6 K0.6
G0 Z30
G17

(2D Contour5)
M9
G0 X-332.3 Y-25.1
Z30
Z20
G1 Z2 F850
G3 X-332 Y-25.4 I0.3
G1 X-327.9
G3 X-327.6 Y-25.1 J0.3
X-337 I-4.7
X-327.6 I4.7
X-337 I-4.7
X-327.6 I4.7
X-328.2 Y-24.5 I-0.6
G1 X-328.8
G18 G3 X-329.4 Z2.6 K0.6
G0 Z30
G17

(2D Contour5)
M9
G0 X-407.3 Y-25.1
Z30
Z20
G1 Z2 F850
G3 X-407 Y-25.4 I0.3
G1 X-402.9
G3 X-402.6 Y-25.1 J0.3
X-412 I-4.7
X-402.6 I4.7
X-412 I-4.7
X-402.6 I4.7
X-403.2 Y-24.5 I-0.6
G1 X-403.8
G18 G3 X-404.4 Z2.6 K0.6
G0 Z30
G17

(2D Contour5)
M9
G0 X-482.3 Y-25.1
Z30
Z20
G1 Z2 F850
G3 X-482 Y-25.4 I0.3
G1 X-477.9
G3 X-477.6 Y-25.1 J0.3
X-487 I-4.7
X-477.6 I4.7
X-487 I-4.7
X-477.6 I4.7
X-478.2 Y-24.5 I-0.6
G1 X-478.8
G18 G3 X-479.4 Z2.6 K0.6
G0 Z30
G17

(2D Contour5)
M9
G0 X-557.3 Y-25.1
Z30
Z20
G1 Z2 F850
G3 X-557 Y-25.4 I0.3
G1 X-552.9
G3 X-552.6 Y-25.1 J0.3
X-562 I-4.7
X-552.6 I4.7
X-562 I-4.7
X-552.6 I4.7
X-553.2 Y-24.5 I-0.6
G1 X-553.8
G18 G3 X-554.4 Z2.6 K0.6
G0 Z30
G17

(2D Contour5)
M9
G0 X-632.3 Y-25.1
Z30
Z20
G1 Z2 F850
G3 X-632 Y-25.4 I0.3
G1 X-627.9
G3 X-627.6 Y-25.1 J0.3
X-637 I-4.7
X-627.6 I4.7
X-637 I-4.7
X-627.6 I4.7
X-628.2 Y-24.5 I-0.6
G1 X-628.8
G18 G3 X-629.4 Z2.6 K0.6
G0 Z30
G17

(2D Contour5)
M9
G0 X-707.3 Y-25.1
Z30
Z20
G1 Z2 F850
G3 X-707 Y-25.4 I0.3
G1 X-702.9
G3 X-702.6 Y-25.1 J0.3
X-712 I-4.7
X-702.6 I4.7
X-712 I-4.7
X-702.6 I4.7
X-703.2 Y-24.5 I-0.6
G1 X-703.8
G18 G3 X-704.4 Z2.6 K0.6
G0 Z30
G17

(2D Contour5)
M9
G0 X-782.3 Y-25.1
Z30
Z20
G1 Z2 F850
G3 X-782 Y-25.4 I0.3
G1 X-777.9
G3 X-777.6 Y-25.1 J0.3
X-787 I-4.7
X-777.6 I4.7
X-787 I-4.7
X-777.6 I4.7
X-778.2 Y-24.5 I-0.6
G1 X-778.8
G18 G3 X-779.4 Z2.6 K0.6
G0 Z30
G17

(2D Contour5)
M9
G0 X-857.3 Y-25.1
Z30
Z20
G1 Z2 F850
G3 X-857 Y-25.4 I0.3
G1 X-852.9
G3 X-852.6 Y-25.1 J0.3
X-862 I-4.7
X-852.6 I4.7
X-862 I-4.7
X-852.6 I4.7
X-853.2 Y-24.5 I-0.6
G1 X-853.8
G18 G3 X-854.4 Z2.6 K0.6
G0 Z30
G17

(2D Contour5)
M9
G0 X-932.3 Y-25.1
Z30
Z20
G1 Z2 F850
G3 X-932 Y-25.4 I0.3
G1 X-927.9
G3 X-927.6 Y-25.1 J0.3
X-937 I-4.7
X-927.6 I4.7
X-937 I-4.7
X-927.6 I4.7
X-928.2 Y-24.5 I-0.6
G1 X-928.8
G18 G3 X-929.4 Z2.6 K0.6
G0 Z30
G17

(2D Contour5)
M9
G0 X-1007.3 Y-25.1
Z30
Z20
G1 Z2 F850
G3 X-1007 Y-25.4 I0.3
G1 X-1002.9
G3 X-1002.6 Y-25.1 J0.3
X-1012 I-4.7
X-1002.6 I4.7
X-1012 I-4.7
X-1002.6 I4.7
X-1003.2 Y-24.5 I-0.6
G1 X-1003.8
G18 G3 X-1004.4 Z2.6 K0.6
G0 Z30
G17

(2D Contour5)
M9
G0 X-1157.3 Y-25.1
Z30
Z20
G1 Z2 F850
G3 X-1157 Y-25.4 I0.3
G1 X-1152.9
G3 X-1152.6 Y-25.1 J0.3
X-1162 I-4.7
X-1152.6 I4.7
X-1162 I-4.7
X-1152.6 I4.7
X-1153.2 Y-24.5 I-0.6
G1 X-1153.8
G18 G3 X-1154.4 Z2.6 K0.6
G0 Z30
G17

(2D Contour5)
M9
G0 X-1232.3 Y-25.1
Z30
Z20
G1 Z2 F850
G3 X-1232 Y-25.4 I0.3
G1 X-1227.9
G3 X-1227.6 Y-25.1 J0.3
X-1237 I-4.7
X-1227.6 I4.7
X-1237 I-4.7
X-1227.6 I4.7
X-1228.2 Y-24.5 I-0.6
G1 X-1228.8
G18 G3 X-1229.4 Z2.6 K0.6
G0 Z30
G17

(2D Contour5)
M9
G0 X-1307.3 Y-25.1
Z30
Z20
G1 Z2 F850
G3 X-1307 Y-25.4 I0.3
G1 X-1302.9
G3 X-1302.6 Y-25.1 J0.3
X-1312 I-4.7
X-1302.6 I4.7
X-1312 I-4.7
X-1302.6 I4.7
X-1303.2 Y-24.5 I-0.6
G1 X-1303.8
G18 G3 X-1304.4 Z2.6 K0.6
G0 Z30
G17

(2D Contour5)
M9
G0 X-1382.3 Y-25.1
Z30
Z20
G1 Z2 F850
G3 X-1382 Y-25.4 I0.3
G1 X-1377.9
G3 X-1377.6 Y-25.1 J0.3
X-1387 I-4.7
X-1377.6 I4.7
X-1387 I-4.7
X-1377.6 I4.7
X-1378.2 Y-24.5 I-0.6
G1 X-1378.8
G18 G3 X-1379.4 Z2.6 K0.6
G0 Z30
G17

(2D Contour5)
M9
G0 X-1382.3 Y-175.1
Z30
Z20
G1 Z2 F850
G3 X-1382 Y-175.4 I0.3
G1 X-1377.9
G3 X-1377.6 Y-175.1 J0.3
X-1387 I-4.7
X-1377.6 I4.7
X-1387 I-4.7
X-1377.6 I4.7
X-1378.2 Y-174.5 I-0.6
G1 X-1378.8
G18 G3 X-1379.4 Z2.6 K0.6
G0 Z30
G17

(2D Contour5)
M9
G0 X-1382.3 Y-250.1
Z30
Z20
G1 Z2 F850
G3 X-1382 Y-250.4 I0.3
G1 X-1377.9
G3 X-1377.6 Y-250.1 J0.3
X-1387 I-4.7
X-1377.6 I4.7
X-1387 I-4.7
X-1377.6 I4.7
X-1378.2 Y-249.5 I-0.6
G1 X-1378.8
G18 G3 X-1379.4 Z2.6 K0.6
G0 Z30
G17

(2D Contour5)
M9
G0 X-1382.3 Y-325.1
Z30
Z20
G1 Z2 F850
G3 X-1382 Y-325.4 I0.3
G1 X-1377.9
G3 X-1377.6 Y-325.1 J0.3
X-1387 I-4.7
X-1377.6 I4.7
X-1387 I-4.7
X-1377.6 I4.7
X-1378.2 Y-324.5 I-0.6
G1 X-1378.8
G18 G3 X-1379.4 Z2.6 K0.6
G0 Z30
G17

(2D Contour5)
M9
G0 X-1382.3 Y-400.1
Z30
Z20
G1 Z2 F850
G3 X-1382 Y-400.4 I0.3
G1 X-1377.9
G3 X-1377.6 Y-400.1 J0.3
X-1387 I-4.7
X-1377.6 I4.7
X-1387 I-4.7
X-1377.6 I4.7
X-1378.2 Y-399.5 I-0.6
G1 X-1378.8
G18 G3 X-1379.4 Z2.6 K0.6
G0 Z30
G17

(2D Contour5)
M9
G0 X-1382.3 Y-475.1
Z30
Z20
G1 Z2 F850
G3 X-1382 Y-475.4 I0.3
G1 X-1377.9
G3 X-1377.6 Y-475.1 J0.3
X-1387 I-4.7
X-1377.6 I4.7
X-1387 I-4.7
X-1377.6 I4.7
X-1378.2 Y-474.5 I-0.6
G1 X-1378.8
G18 G3 X-1379.4 Z2.6 K0.6
G0 Z30
G17

(2D Contour5)
M9
G0 X-1382.3 Y-550.1
Z30
Z20
G1 Z2 F850
G3 X-1382 Y-550.4 I0.3
G1 X-1377.9
G3 X-1377.6 Y-550.1 J0.3
X-1387 I-4.7
X-1377.6 I4.7
X-1387 I-4.7
X-1377.6 I4.7
X-1378.2 Y-549.5 I-0.6
G1 X-1378.8
G18 G3 X-1379.4 Z2.6 K0.6
G0 Z30
G17

(2D Contour5)
M9
G0 X-1382.3 Y-700.1
Z30
Z20
G1 Z2 F850
G3 X-1382 Y-700.4 I0.3
G1 X-1377.9
G3 X-1377.6 Y-700.1 J0.3
X-1387 I-4.7
X-1377.6 I4.7
X-1387 I-4.7
X-1377.6 I4.7
X-1378.2 Y-699.5 I-0.6
G1 X-1378.8
G18 G3 X-1379.4 Z2.6 K0.6
G0 Z30
G17

(2D Contour5)
M9
G0 X-1307.3 Y-700.1
Z30
Z20
G1 Z2 F850
G3 X-1307 Y-700.4 I0.3
G1 X-1302.9
G3 X-1302.6 Y-700.1 J0.3
X-1312 I-4.7
X-1302.6 I4.7
X-1312 I-4.7
X-1302.6 I4.7
X-1303.2 Y-699.5 I-0.6
G1 X-1303.8
G18 G3 X-1304.4 Z2.6 K0.6
G0 Z30
G17

(2D Contour5)
M9
G0 X-1232.3 Y-700.1
Z30
Z20
G1 Z2 F850
G3 X-1232 Y-700.4 I0.3
G1 X-1227.9
G3 X-1227.6 Y-700.1 J0.3
X-1237 I-4.7
X-1227.6 I4.7
X-1237 I-4.7
X-1227.6 I4.7
X-1228.2 Y-699.5 I-0.6
G1 X-1228.8
G18 G3 X-1229.4 Z2.6 K0.6
G0 Z30
G17

(2D Contour5)
M9
G0 X-1157.3 Y-700.1
Z30
Z20
G1 Z2 F850
G3 X-1157 Y-700.4 I0.3
G1 X-1152.9
G3 X-1152.6 Y-700.1 J0.3
X-1162 I-4.7
X-1152.6 I4.7
X-1162 I-4.7
X-1152.6 I4.7
X-1153.2 Y-699.5 I-0.6
G1 X-1153.8
G18 G3 X-1154.4 Z2.6 K0.6
G0 Z30
G17

(2D Contour5)
M9
G0 X-1007.3 Y-700.1
Z30
Z20
G1 Z2 F850
G3 X-1007 Y-700.4 I0.3
G1 X-1002.9
G3 X-1002.6 Y-700.1 J0.3
X-1012 I-4.7
X-1002.6 I4.7
X-1012 I-4.7
X-1002.6 I4.7
X-1003.2 Y-699.5 I-0.6
G1 X-1003.8
G18 G3 X-1004.4 Z2.6 K0.6
G0 Z30
G17

(2D Contour5)
M9
G0 X-932.3 Y-700.1
Z30
Z20
G1 Z2 F850
G3 X-932 Y-700.4 I0.3
G1 X-927.9
G3 X-927.6 Y-700.1 J0.3
X-937 I-4.7
X-927.6 I4.7
X-937 I-4.7
X-927.6 I4.7
X-928.2 Y-699.5 I-0.6
G1 X-928.8
G18 G3 X-929.4 Z2.6 K0.6
G0 Z30
G17

(2D Contour5)
M9
G0 X-857.3 Y-700.1
Z30
Z20
G1 Z2 F850
G3 X-857 Y-700.4 I0.3
G1 X-852.9
G3 X-852.6 Y-700.1 J0.3
X-862 I-4.7
X-852.6 I4.7
X-862 I-4.7
X-852.6 I4.7
X-853.2 Y-699.5 I-0.6
G1 X-853.8
G18 G3 X-854.4 Z2.6 K0.6
G0 Z30
G17

(2D Contour5)
M9
G0 X-782.3 Y-700.1
Z30
Z20
G1 Z2 F850
G3 X-782 Y-700.4 I0.3
G1 X-777.9
G3 X-777.6 Y-700.1 J0.3
X-787 I-4.7
X-777.6 I4.7
X-787 I-4.7
X-777.6 I4.7
X-778.2 Y-699.5 I-0.6
G1 X-778.8
G18 G3 X-779.4 Z2.6 K0.6
G0 Z30
G17

(2D Contour5)
M9
G0 X-707.3 Y-700.1
Z30
Z20
G1 Z2 F850
G3 X-707 Y-700.4 I0.3
G1 X-702.9
G3 X-702.6 Y-700.1 J0.3
X-712 I-4.7
X-702.6 I4.7
X-712 I-4.7
X-702.6 I4.7
X-703.2 Y-699.5 I-0.6
G1 X-703.8
G18 G3 X-704.4 Z2.6 K0.6
G0 Z30
G17

(2D Contour5)
M9
G0 X-632.3 Y-700.1
Z30
Z20
G1 Z2 F850
G3 X-632 Y-700.4 I0.3
G1 X-627.9
G3 X-627.6 Y-700.1 J0.3
X-637 I-4.7
X-627.6 I4.7
X-637 I-4.7
X-627.6 I4.7
X-628.2 Y-699.5 I-0.6
G1 X-628.8
G18 G3 X-629.4 Z2.6 K0.6
G0 Z30
G17

(2D Contour5)
M9
G0 X-557.3 Y-700.1
Z30
Z20
G1 Z2 F850
G3 X-557 Y-700.4 I0.3
G1 X-552.9
G3 X-552.6 Y-700.1 J0.3
X-562 I-4.7
X-552.6 I4.7
X-562 I-4.7
X-552.6 I4.7
X-553.2 Y-699.5 I-0.6
G1 X-553.8
G18 G3 X-554.4 Z2.6 K0.6
G0 Z30
G17

(2D Contour5)
M9
G0 X-482.3 Y-700.1
Z30
Z20
G1 Z2 F850
G3 X-482 Y-700.4 I0.3
G1 X-477.9
G3 X-477.6 Y-700.1 J0.3
X-487 I-4.7
X-477.6 I4.7
X-487 I-4.7
X-477.6 I4.7
X-478.2 Y-699.5 I-0.6
G1 X-478.8
G18 G3 X-479.4 Z2.6 K0.6
G0 Z30
G17

(2D Contour5)
M9
G0 X-407.3 Y-700.1
Z30
Z20
G1 Z2 F850
G3 X-407 Y-700.4 I0.3
G1 X-402.9
G3 X-402.6 Y-700.1 J0.3
X-412 I-4.7
X-402.6 I4.7
X-412 I-4.7
X-402.6 I4.7
X-403.2 Y-699.5 I-0.6
G1 X-403.8
G18 G3 X-404.4 Z2.6 K0.6
G0 Z30
G17

(2D Contour5)
M9
G0 X-332.3 Y-700.1
Z30
Z20
G1 Z2 F850
G3 X-332 Y-700.4 I0.3
G1 X-327.9
G3 X-327.6 Y-700.1 J0.3
X-337 I-4.7
X-327.6 I4.7
X-337 I-4.7
X-327.6 I4.7
X-328.2 Y-699.5 I-0.6
G1 X-328.8
G18 G3 X-329.4 Z2.6 K0.6
G0 Z30
G17

(2D Contour5)
M9
G0 X-257.3 Y-700.1
Z30
Z20
G1 Z2 F850
G3 X-257 Y-700.4 I0.3
G1 X-252.9
G3 X-252.6 Y-700.1 J0.3
X-262 I-4.7
X-252.6 I4.7
X-262 I-4.7
X-252.6 I4.7
X-253.2 Y-699.5 I-0.6
G1 X-253.8
G18 G3 X-254.4 Z2.6 K0.6
G0 Z30
G17

(2D Contour5)
M9
G0 X-182.3 Y-700.1
Z30
Z20
G1 Z2 F850
G3 X-182 Y-700.4 I0.3
G1 X-177.9
G3 X-177.6 Y-700.1 J0.3
X-187 I-4.7
X-177.6 I4.7
X-187 I-4.7
X-177.6 I4.7
X-178.2 Y-699.5 I-0.6
G1 X-178.8
G18 G3 X-179.4 Z2.6 K0.6
G0 Z30
G17

(2D Contour5)
M9
G0 X-107.3 Y-700.1
Z30
Z20
G1 Z2 F850
G3 X-107 Y-700.4 I0.3
G1 X-102.9
G3 X-102.6 Y-700.1 J0.3
X-112 I-4.7
X-102.6 I4.7
X-112 I-4.7
X-102.6 I4.7
X-103.2 Y-699.5 I-0.6
G1 X-103.8
G18 G3 X-104.4 Z2.6 K0.6
G0 Z30
G17

(2D Contour5)
M9
G0 X-107.3 Y-625.1
Z30
Z20
G1 Z2 F850
G3 X-107 Y-625.4 I0.3
G1 X-102.9
G3 X-102.6 Y-625.1 J0.3
X-112 I-4.7
X-102.6 I4.7
X-112 I-4.7
X-102.6 I4.7
X-103.2 Y-624.5 I-0.6
G1 X-103.8
G18 G3 X-104.4 Z2.6 K0.6
G0 Z30
G17

(2D Contour5)
M9
G0 X-107.3 Y-550.1
Z30
Z20
G1 Z2 F850
G3 X-107 Y-550.4 I0.3
G1 X-102.9
G3 X-102.6 Y-550.1 J0.3
X-112 I-4.7
X-102.6 I4.7
X-112 I-4.7
X-102.6 I4.7
X-103.2 Y-549.5 I-0.6
G1 X-103.8
G18 G3 X-104.4 Z2.6 K0.6
G0 Z30
G17

(2D Contour5)
M9
G0 X-107.3 Y-475.1
Z30
Z20
G1 Z2 F850
G3 X-107 Y-475.4 I0.3
G1 X-102.9
G3 X-102.6 Y-475.1 J0.3
X-112 I-4.7
X-102.6 I4.7
X-112 I-4.7
X-102.6 I4.7
X-103.2 Y-474.5 I-0.6
G1 X-103.8
G18 G3 X-104.4 Z2.6 K0.6
G0 Z30
G17

(2D Contour5)
M9
G0 X-107.3 Y-400.1
Z30
Z20
G1 Z2 F850
G3 X-107 Y-400.4 I0.3
G1 X-102.9
G3 X-102.6 Y-400.1 J0.3
X-112 I-4.7
X-102.6 I4.7
X-112 I-4.7
X-102.6 I4.7
X-103.2 Y-399.5 I-0.6
G1 X-103.8
G18 G3 X-104.4 Z2.6 K0.6
G0 Z30
G17

(2D Contour5)
M9
G0 X-107.3 Y-325.1
Z30
Z20
G1 Z2 F850
G3 X-107 Y-325.4 I0.3
G1 X-102.9
G3 X-102.6 Y-325.1 J0.3
X-112 I-4.7
X-102.6 I4.7
X-112 I-4.7
X-102.6 I4.7
X-103.2 Y-324.5 I-0.6
G1 X-103.8
G18 G3 X-104.4 Z2.6 K0.6
G0 Z30
G17

(2D Contour5)
M9
G0 X-107.3 Y-250.1
Z30
Z20
G1 Z2 F850
G3 X-107 Y-250.4 I0.3
G1 X-102.9
G3 X-102.6 Y-250.1 J0.3
X-112 I-4.7
X-102.6 I4.7
X-112 I-4.7
X-102.6 I4.7
X-103.2 Y-249.5 I-0.6
G1 X-103.8
G18 G3 X-104.4 Z2.6 K0.6
G0 Z30
G17

(2D Contour5)
M9
G0 X-107.3 Y-175.1
Z30
Z20
G1 Z2 F850
G3 X-107 Y-175.4 I0.3
G1 X-102.9
G3 X-102.6 Y-175.1 J0.3
X-112 I-4.7
X-102.6 I4.7
X-112 I-4.7
X-102.6 I4.7
X-103.2 Y-174.5 I-0.6
G1 X-103.8
G18 G3 X-104.4 Z2.6 K0.6
G0 Z30
G17

(2D Contour5)
M9
G0 X-107.3 Y-100.1
Z30
Z20
G1 Z2 F850
G3 X-107 Y-100.4 I0.3
G1 X-102.9
G3 X-102.6 Y-100.1 J0.3
X-112 I-4.7
X-102.6 I4.7
X-112 I-4.7
X-102.6 I4.7
X-103.2 Y-99.5 I-0.6
G1 X-103.8
G18 G3 X-104.4 Z2.6 K0.6
G0 Z30
G17
M9
M30
%
