%
(1001)
(z0 mdf bottom machine -5-5)
(T1  D=6 CR=0 - ZMIN=-0.5 - flat end mill)
G90 G94
G17
G21

(2D Adaptive13)
M9
T1 M6
S6000 M3
G54
M9
G0 X-182.3 Y-100.1
Z33
Z23
Z18.65
G1 Z18.05 F850
Z7
X-182.332 Y-100.08
X-182.363 Y-100.102
X-182.36 Y-100.139
X-182.337 Y-100.168
X-182.301 Y-100.181
X-182.264 Y-100.176
X-182.234 Y-100.155
X-182.215 Y-100.122
X-182.213 Y-100.084
X-182.227 Y-100.049
X-182.253 Y-100.023
X-182.288 Y-100.008
X-182.325 Y-100.003
X-182.362 Y-100.01
X-182.394 Y-100.029
X-182.419 Y-100.057
X-182.434 Y-100.092
X-182.439 Y-100.129
X-182.432 Y-100.166
X-182.401 Y-100.234
X-182.34 Y-100.278
X-182.266 Y-100.29
X-182.194 Y-100.271
X-182.134 Y-100.225
X-182.096 Y-100.16
X-182.085 Y-100.086
X-182.099 Y-100.013
X-182.136 Y-99.948
X-182.192 Y-99.897
X-182.26 Y-99.866
X-182.334 Y-99.856
X-182.408 Y-99.868
X-182.476 Y-99.901
X-182.532 Y-99.95
X-182.614 Y-100.076
X-182.624 Y-100.226
X-182.567 Y-100.365
X-182.457 Y-100.467
X-182.317 Y-100.519
X-182.167 Y-100.515
X-182.028 Y-100.458
X-181.917 Y-100.357
X-181.845 Y-100.225
X-181.82 Y-100.077
X-181.841 Y-99.929
X-181.905 Y-99.794
X-182.007 Y-99.683
X-182.135 Y-99.606
X-182.28 Y-99.567
X-182.43 Y-99.57
X-182.575 Y-99.609
X-182.705 Y-99.684
X-182.814 Y-99.788
X-182.893 Y-99.915
X-182.941 Y-100.057
X-182.954 Y-100.206
X-182.934 Y-100.355
X-182.88 Y-100.495
X-182.798 Y-100.621
X-182.691 Y-100.726
X-182.565 Y-100.807
X-182.424 Y-100.86
X-182.276 Y-100.884
X-182.126 Y-100.879
X-181.981 Y-100.844
X-181.843 Y-100.784
X-181.72 Y-100.698
X-181.614 Y-100.592
X-181.53 Y-100.468
X-181.468 Y-100.331
X-181.431 Y-100.186
X-181.421 Y-100.036
X-181.436 Y-99.887
X-181.475 Y-99.742
X-181.538 Y-99.606
X-181.622 Y-99.482
X-181.726 Y-99.374
X-181.845 Y-99.282
X-181.977 Y-99.212
X-182.119 Y-99.161
X-182.266 Y-99.133
X-182.416 Y-99.128
X-182.565 Y-99.145
X-182.71 Y-99.183
X-182.848 Y-99.242
X-182.976 Y-99.32
X-183.091 Y-99.416
X-183.193 Y-99.527
X-183.277 Y-99.651
X-183.344 Y-99.785
X-183.392 Y-99.927
X-183.42 Y-100.075
X-183.429 Y-100.224
X-183.417 Y-100.374
X-183.386 Y-100.521
X-183.337 Y-100.662
X-183.27 Y-100.796
X-183.186 Y-100.921
X-183.088 Y-101.034
X-182.976 Y-101.134
X-182.853 Y-101.219
X-182.72 Y-101.289
X-182.579 Y-101.342
X-182.434 Y-101.378
X-182.285 Y-101.396
X-182.135 Y-101.397
X-181.986 Y-101.381
X-181.84 Y-101.347
X-181.698 Y-101.297
X-181.564 Y-101.231
X-181.437 Y-101.15
X-181.321 Y-101.056
X-181.215 Y-100.949
X-181.122 Y-100.831
X-181.043 Y-100.704
X-180.978 Y-100.569
X-180.927 Y-100.428
X-180.892 Y-100.282
X-180.873 Y-100.133
X-180.869 Y-99.983
X-180.881 Y-99.834
X-180.909 Y-99.686
X-180.951 Y-99.542
X-181.009 Y-99.404
X-181.08 Y-99.272
X-181.164 Y-99.147
X-181.26 Y-99.032
X-181.367 Y-98.927
X-181.483 Y-98.833
X-181.609 Y-98.751
X-181.742 Y-98.681
X-181.881 Y-98.625
X-182.025 Y-98.582
X-182.172 Y-98.553
X-182.321 Y-98.538
X-182.471
X-182.621 Y-98.551
X-182.768 Y-98.579
X-182.912 Y-98.62
X-183.052 Y-98.673
X-183.187 Y-98.74
X-183.315 Y-98.818
X-183.435 Y-98.908
X-183.546 Y-99.008
X-183.649 Y-99.118
X-183.741 Y-99.236
X-183.822 Y-99.363
X-183.892 Y-99.495
X-183.95 Y-99.634
X-183.996 Y-99.777
X-184.029 Y-99.923
X-184.049 Y-100.071
X-184.057 Y-100.221
X-184.052 Y-100.371
X-184.034 Y-100.52
X-184.004 Y-100.667
X-183.961 Y-100.811
X-183.907 Y-100.951
X-183.842 Y-101.086
X-183.765 Y-101.215
X-183.678 Y-101.337
X-183.582 Y-101.452
X-183.476 Y-101.558
X-183.363 Y-101.656
X-183.241 Y-101.744
X-183.113 Y-101.823
X-182.98 Y-101.891
X-182.841 Y-101.948
X-182.698 Y-101.994
X-182.552 Y-102.028
X-182.404 Y-102.051
X-182.254 Y-102.063
X-182.104
X-181.955 Y-102.052
X-181.807 Y-102.028
X-181.66 Y-101.994
X-181.517 Y-101.949
X-181.378 Y-101.893
X-181.244 Y-101.827
X-181.114 Y-101.751
X-180.991 Y-101.666
X-180.874 Y-101.571
X-180.765 Y-101.469
X-180.664 Y-101.358
X-180.571 Y-101.24
X-180.486 Y-101.116
X-180.411 Y-100.986
X-180.346 Y-100.851
X-180.29 Y-100.712
X-180.245 Y-100.569
X-180.21 Y-100.423
X-180.185 Y-100.275
X-180.171 Y-100.126
X-180.168 Y-99.976
X-180.175 Y-99.826
X-180.193 Y-99.677
X-180.221 Y-99.53
X-180.259 Y-99.385
X-180.307 Y-99.243
X-180.365 Y-99.104
X-180.432 Y-98.97
X-180.508 Y-98.841
X-180.593 Y-98.717
X-180.686 Y-98.599
X-180.786 Y-98.488
X-180.894 Y-98.384
X-181.009 Y-98.288
X-181.13 Y-98.199
X-181.257 Y-98.118
X-181.388 Y-98.046
X-181.524 Y-97.983
X-181.664 Y-97.929
X-181.807 Y-97.885
X-181.953 Y-97.849
X-182.101 Y-97.823
X-182.25 Y-97.807
X-182.4 Y-97.801
X-182.55 Y-97.804
X-182.699 Y-97.817
X-182.848 Y-97.84
X-182.994 Y-97.872
X-183.139 Y-97.913
X-183.28 Y-97.963
X-183.418 Y-98.022
X-183.552 Y-98.089
X-183.681 Y-98.165
X-183.806 Y-98.249
X-183.925 Y-98.34
X-184.038 Y-98.439
X-184.145 Y-98.544
X-184.245 Y-98.656
X-184.338 Y-98.773
X-184.423 Y-98.897
X-184.501 Y-99.025
X-184.571 Y-99.157
X-184.633 Y-99.294
X-184.687 Y-99.434
X-184.732 Y-99.577
X-184.768 Y-99.723
X-184.795 Y-99.87
X-184.814 Y-100.019
X-184.824 Y-100.169
Y-100.319
X-184.816 Y-100.469
X-184.799 Y-100.618
X-184.774 Y-100.765
X-184.739 Y-100.911
X-184.697 Y-101.055
X-184.646 Y-101.196
X-184.586 Y-101.334
X-184.519 Y-101.468
X-184.445 Y-101.598
X-184.363 Y-101.724
X-184.274 Y-101.845
X-184.178 Y-101.96
X-184.075 Y-102.07
X-183.967 Y-102.173
X-183.852 Y-102.272
X-183.732 Y-102.362
X-183.608 Y-102.446
X-183.478 Y-102.524
X-183.342 Y-102.594
X-183.205 Y-102.656
X-183.065 Y-102.71
X-182.918 Y-102.757
X-182.77 Y-102.796
X-182.621 Y-102.825
X-182.47 Y-102.847
X-182.315 Y-102.86
X-182.16 Y-102.865
X-182.007 Y-102.861
X-181.853 Y-102.848
X-181.697 Y-102.826
X-181.543 Y-102.795
X-181.393 Y-102.757
X-181.244 Y-102.709
X-181.095 Y-102.652
X-180.951 Y-102.587
X-180.812 Y-102.515
X-180.676 Y-102.435
X-180.542 Y-102.346
X-180.414 Y-102.249
X-180.293 Y-102.146
X-180.178 Y-102.036
X-180.067 Y-101.919
X-179.962 Y-101.794
X-179.865 Y-101.664
X-179.776 Y-101.531
X-179.694 Y-101.391
X-179.619 Y-101.245
X-179.553 Y-101.094
X-179.495 Y-100.941
X-179.446 Y-100.785
X-179.406 Y-100.626
X-179.374 Y-100.462
X-179.351 Y-100.297
X-179.338 Y-100.132
X-179.335 Y-99.966
X-179.34 Y-99.8
X-179.355 Y-99.632
X-179.38 Y-99.465
X-179.414 Y-99.299
X-179.457 Y-99.137
X-179.509 Y-98.977
X-179.571 Y-98.819
X-179.642 Y-98.663
X-179.722 Y-98.511
X-179.81 Y-98.364
X-179.906 Y-98.222
X-180.01 Y-98.086
X-180.122 Y-97.955
X-180.243 Y-97.83
X-180.371 Y-97.711
X-180.506 Y-97.6
X-180.646 Y-97.496
X-180.792 Y-97.401
X-180.943 Y-97.313
X-181.1 Y-97.234
X-181.262 Y-97.164
X-181.429 Y-97.102
X-181.599 Y-97.05
X-181.772 Y-97.007
X-181.947 Y-96.974
X-182.123 Y-96.951
X-182.301 Y-96.939
X-182.48 Y-96.936
X-182.661 Y-96.943
X-182.841 Y-96.96
X-183.021 Y-96.988
X-183.199 Y-97.026
X-183.375 Y-97.073
X-183.548 Y-97.131
X-183.717 Y-97.198
X-183.883 Y-97.275
X-184.044 Y-97.361
X-184.202 Y-97.457
X-184.354 Y-97.562
X-184.501 Y-97.676
X-184.642 Y-97.798
X-184.775 Y-97.929
X-184.902 Y-98.067
X-185.02 Y-98.211
X-185.131 Y-98.363
X-185.233 Y-98.521
X-185.326 Y-98.685
X-185.41 Y-98.854
X-185.484 Y-99.028
X-185.549 Y-99.206
X-185.603 Y-99.388
X-185.648 Y-99.574
X-185.682 Y-99.762
X-185.705 Y-99.953
X-185.718 Y-100.145
X-185.72 Y-100.338
X-185.711 Y-100.531
X-185.691 Y-100.724
X-185.66 Y-100.916
X-185.619 Y-101.106
X-185.566 Y-101.295
X-185.503 Y-101.48
X-185.429 Y-101.662
X-185.345 Y-101.84
X-185.251 Y-102.014
X-185.148 Y-102.182
X-185.034 Y-102.344
X-184.911 Y-102.501
X-184.78 Y-102.65
X-184.639 Y-102.792
X-184.491 Y-102.927
X-184.335 Y-103.053
X-184.171 Y-103.17
X-184.001 Y-103.278
X-183.825 Y-103.377
X-183.643 Y-103.466
X-183.455 Y-103.545
X-183.264 Y-103.613
X-183.068 Y-103.67
X-182.868 Y-103.717
X-182.666 Y-103.752
X-182.462 Y-103.776
X-182.256 Y-103.788
X-182.05 Y-103.789
X-181.843 Y-103.778
X-181.637 Y-103.755
X-181.431 Y-103.721
X-181.228 Y-103.675
X-181.027 Y-103.618
X-180.829 Y-103.549
X-180.635 Y-103.469
X-180.445 Y-103.378
X-180.26 Y-103.276
X-180.081 Y-103.164
X-179.908 Y-103.041
X-179.742 Y-102.909
X-179.583 Y-102.767
X-179.432 Y-102.616
X-179.289 Y-102.457
X-179.156 Y-102.289
X-179.031 Y-102.114
X-178.917 Y-101.931
X-178.812 Y-101.742
X-178.719 Y-101.547
X-178.636 Y-101.346
X-178.565 Y-101.141
X-178.505 Y-100.931
X-178.456 Y-100.718
X-178.42 Y-100.502
X-178.396 Y-100.284
X-178.384 Y-100.065
X-178.385 Y-99.844
X-178.398 Y-99.623
X-178.424 Y-99.403
X-178.462 Y-99.184
X-178.512 Y-98.968
X-178.575 Y-98.754
X-178.649 Y-98.543
X-178.736 Y-98.336
X-178.835 Y-98.134
X-178.945 Y-97.938
X-179.066 Y-97.747
X-179.197 Y-97.564
X-179.34 Y-97.387
X-179.492 Y-97.219
X-179.654 Y-97.059
X-179.825 Y-96.908
X-180.005 Y-96.766
X-180.193 Y-96.635
X-180.389 Y-96.514
X-180.591 Y-96.404
X-180.799 Y-96.306
X-181.014 Y-96.219
X-181.233 Y-96.144
X-181.457 Y-96.081
X-181.685 Y-96.031
X-181.915 Y-95.994
X-182.148 Y-95.97
X-182.382 Y-95.959
X-182.617 Y-95.961
X-182.707 Y-95.968
X-182.738 Y-95.972
X-182.829 Y-95.982
X-183.156 Y-96.019
X-183.21 Y-96.027
X-183.265 Y-96.04
X-183.283 Y-96.046
X-183.917 Y-96.268
X-184.135 Y-96.352
X-184.353 Y-96.487
X-184.788 Y-96.76
X-184.888 Y-96.826
X-184.988 Y-96.916
X-185.441 Y-97.37
X-185.538 Y-97.469
X-185.613 Y-97.569
X-186.023 Y-98.222
X-186.064 Y-98.298
X-186.094 Y-98.373
X-186.346 Y-99.092
X-186.375 Y-99.201
X-186.389 Y-99.31
X-186.462 Y-99.963
X-186.473 Y-100.072
X-186.469 Y-100.18
X-186.395 Y-100.833
X-186.363 Y-101.051
X-186.311 Y-101.205
X-186.094 Y-101.827
X-186.055 Y-101.921
X-185.922 Y-102.139
X-185.648 Y-102.574
X-185.578 Y-102.683
X-185.48 Y-102.792
X-185.006 Y-103.266
X-184.897 Y-103.367
X-184.781 Y-103.444
X-184.353 Y-103.713
X-184.135 Y-103.847
X-184.066 Y-103.88
X-183.446 Y-104.097
X-183.265 Y-104.16
X-183.047 Y-104.194
X-182.394 Y-104.267
X-182.285 Y-104.273
X-182.176 Y-104.264
X-181.523 Y-104.19
X-181.415 Y-104.177
X-181.306 Y-104.15
X-180.534 Y-103.88
X-180.435 Y-103.831
X-179.782 Y-103.421
X-179.673 Y-103.343
X-179.555 Y-103.227
X-179.12 Y-102.792
X-179.022 Y-102.683
X-178.952 Y-102.574
X-178.678 Y-102.139
X-178.545 Y-101.921
X-178.476 Y-101.742
X-178.259 Y-101.12
X-178.236 Y-101.051
X-178.205 Y-100.833
X-178.131 Y-100.18
X-178.127 Y-100.072
X-178.138 Y-99.963
X-178.211 Y-99.31
X-178.225 Y-99.201
X-178.254 Y-99.092
X-178.483 Y-98.439
X-178.522 Y-98.331
X-178.546 Y-98.276
X-178.577 Y-98.222
X-178.987 Y-97.569
X-179.048 Y-97.484
X-179.129 Y-97.399
X-179.612 Y-96.916
X-179.697 Y-96.837
X-179.782 Y-96.779
X-180.435 Y-96.369
X-180.49 Y-96.339
X-180.544 Y-96.316
X-181.317 Y-96.046
X-181.368 Y-96.031
X-181.42 Y-96.022
X-182.176 Y-95.936
X-182.285 Y-95.927
X-182.394 Y-95.933
X-182.738 Y-95.972
G3 X-182.958 Y-96.05 I0.088 J-0.594
G1 X-183.039 Y-96.099 Z7.007
X-183.117 Y-96.146 Z7.029
X-183.192 Y-96.19 Z7.065
X-183.261 Y-96.232 Z7.115
X-183.322 Y-96.268 Z7.176
X-183.375 Y-96.3 Z7.247
X-183.417 Y-96.325 Z7.328
X-183.448 Y-96.344 Z7.415
X-183.467 Y-96.355 Z7.506
X-183.473 Y-96.359 Z7.6
G0 Z33

(2D Adaptive14)
M9
X-182.3 Y-100.101
Z33
Z23
Z18.65
G1 Z18.05 F850
Z-0.5
X-182.32 Y-100.133
X-182.297 Y-100.162
X-182.259 Y-100.159
X-182.231 Y-100.135
X-182.219 Y-100.099
X-182.225 Y-100.062
X-182.247 Y-100.032
X-182.28 Y-100.015
X-182.318 Y-100.013
X-182.352 Y-100.028
X-182.378 Y-100.055
X-182.392 Y-100.09
X-182.396 Y-100.127
X-182.389 Y-100.164
X-182.369 Y-100.196
X-182.34 Y-100.22
X-182.305 Y-100.234
X-182.268 Y-100.238
X-182.231 Y-100.231
X-182.164 Y-100.198
X-182.121 Y-100.136
X-182.111 Y-100.062
X-182.132 Y-99.99
X-182.179 Y-99.932
X-182.244 Y-99.895
X-182.319 Y-99.885
X-182.392 Y-99.901
X-182.456 Y-99.94
X-182.505 Y-99.996
X-182.535 Y-100.065
X-182.543 Y-100.14
X-182.529 Y-100.214
X-182.496 Y-100.28
X-182.445 Y-100.335
X-182.317 Y-100.414
X-182.167 Y-100.421
X-182.03 Y-100.361
X-181.93 Y-100.249
X-181.881 Y-100.107
X-181.888 Y-99.958
X-181.948 Y-99.82
X-182.051 Y-99.711
X-182.185 Y-99.643
X-182.333 Y-99.62
X-182.481 Y-99.645
X-182.615 Y-99.712
X-182.723 Y-99.816
X-182.798 Y-99.946
X-182.833 Y-100.092
X-182.827 Y-100.242
X-182.785 Y-100.386
X-182.707 Y-100.514
X-182.601 Y-100.62
X-182.472 Y-100.697
X-182.329 Y-100.742
X-182.18 Y-100.752
X-182.031 Y-100.728
X-181.893 Y-100.671
X-181.769 Y-100.587
X-181.666 Y-100.477
X-181.588 Y-100.349
X-181.537 Y-100.208
X-181.517 Y-100.06
X-181.525 Y-99.91
X-181.563 Y-99.765
X-181.626 Y-99.629
X-181.714 Y-99.508
X-181.823 Y-99.404
X-181.948 Y-99.322
X-182.087 Y-99.264
X-182.233 Y-99.23
X-182.383 Y-99.223
X-182.532 Y-99.24
X-182.675 Y-99.283
X-182.81 Y-99.349
X-182.933 Y-99.435
X-183.039 Y-99.541
X-183.127 Y-99.663
X-183.195 Y-99.796
X-183.224 Y-99.894
X-183.243 Y-99.982
X-183.256 Y-100.072
X-183.253 Y-100.18
X-183.237 Y-100.289
X-183.226 Y-100.344
X-183.21 Y-100.398
X-183.164 Y-100.507
X-183.107 Y-100.616
X-183.047 Y-100.696
X-182.987 Y-100.764
X-182.914 Y-100.833
X-182.829 Y-100.894
X-182.72 Y-100.96
X-182.666 Y-100.984
X-182.612 Y-101.003
X-182.512 Y-101.032
X-182.412 Y-101.051
X-182.394 Y-101.052
X-182.292 Y-101.054
X-182.19 Y-101.051
X-182.176 Y-101.049
X-182.067 Y-101.026
X-181.959 Y-100.993
X-181.904 Y-100.971
X-181.85 Y-100.944
X-181.741 Y-100.875
X-181.685 Y-100.833
X-181.641 Y-100.794
X-181.597 Y-100.746
X-181.523 Y-100.658
X-181.493 Y-100.616
X-181.436 Y-100.507
X-181.39 Y-100.398
X-181.374 Y-100.344
X-181.363 Y-100.289
X-181.347 Y-100.18
X-181.344 Y-100.072
X-181.356 Y-99.963
X-181.374 Y-99.854
X-181.391 Y-99.799
X-181.413 Y-99.745
X-181.46 Y-99.643
X-181.488 Y-99.592
X-181.523 Y-99.541
X-181.534 Y-99.527
X-181.637 Y-99.411
X-181.689 Y-99.363
X-181.741 Y-99.325
X-181.862 Y-99.249
X-181.91 Y-99.226
X-181.959 Y-99.207
X-182.067 Y-99.174
X-182.176 Y-99.151
X-182.285 Y-99.146
X-182.394 Y-99.148
X-182.503 Y-99.166
X-182.612 Y-99.197
X-182.666 Y-99.216
X-182.72 Y-99.24
X-182.835 Y-99.31
X-182.941 Y-99.39
X-183.047 Y-99.505
X-183.066 Y-99.527
X-183.105 Y-99.582
X-183.136 Y-99.636
X-183.187 Y-99.745
X-183.209 Y-99.799
X-183.226 Y-99.854
X-183.244 Y-99.963
X-183.256 Y-100.072
G3 X-183.195 Y-100.297 I0.599 J0.042
G0 Z33

(2D Contour6)
S8000 M3
M9
X-182.3 Y-100.1
Z33
Z23
G1 Z7 F850
G3 X-182 Y-100.4 I0.3
G1 X-177.9
G3 X-177.6 Y-100.1 J0.3
X-187 I-4.7
X-177.6 I4.7
X-187 I-4.7
X-177.6 I4.7
X-178.2 Y-99.5 I-0.6
G1 X-178.8
G18 G3 X-179.4 Z7.6 K0.6
G0 Z33
G17

(2D Contour8)
M9
G0 X-182.3 Y-100.1
Z33
Z23
G1 Z0 F850
G3 X-182 Y-100.4 I0.3
G1 X-181.1
G3 X-180.8 Y-100.1 J0.3
X-183.8 I-1.5
X-180.8 I1.5
X-183.8 I-1.5
X-180.8 I1.5
X-181.4 Y-99.5 I-0.6
G1 X-182
G18 G3 X-182.6 Z0.6 K0.6
G0 Z33
G17

(2D Adaptive13)
S6000 M3
M9
G0 X-182.3 Y-175.1
Z33
Z23
Z18.65
G1 Z18.05 F850
Z7
X-182.332 Y-175.08
X-182.363 Y-175.102
X-182.36 Y-175.139
X-182.337 Y-175.168
X-182.301 Y-175.181
X-182.264 Y-175.176
X-182.234 Y-175.155
X-182.215 Y-175.122
X-182.213 Y-175.084
X-182.227 Y-175.049
X-182.253 Y-175.023
X-182.288 Y-175.008
X-182.325 Y-175.003
X-182.362 Y-175.01
X-182.394 Y-175.029
X-182.419 Y-175.057
X-182.434 Y-175.092
X-182.439 Y-175.129
X-182.432 Y-175.166
X-182.401 Y-175.234
X-182.34 Y-175.278
X-182.266 Y-175.29
X-182.194 Y-175.271
X-182.134 Y-175.225
X-182.096 Y-175.16
X-182.085 Y-175.086
X-182.099 Y-175.013
X-182.136 Y-174.948
X-182.192 Y-174.897
X-182.26 Y-174.866
X-182.334 Y-174.856
X-182.408 Y-174.868
X-182.476 Y-174.901
X-182.532 Y-174.95
X-182.614 Y-175.076
X-182.624 Y-175.226
X-182.567 Y-175.365
X-182.457 Y-175.467
X-182.317 Y-175.519
X-182.167 Y-175.515
X-182.028 Y-175.458
X-181.917 Y-175.357
X-181.845 Y-175.225
X-181.82 Y-175.077
X-181.841 Y-174.929
X-181.905 Y-174.794
X-182.007 Y-174.683
X-182.135 Y-174.606
X-182.28 Y-174.567
X-182.43 Y-174.57
X-182.575 Y-174.609
X-182.705 Y-174.684
X-182.814 Y-174.788
X-182.893 Y-174.915
X-182.941 Y-175.057
X-182.954 Y-175.206
X-182.934 Y-175.355
X-182.88 Y-175.495
X-182.798 Y-175.621
X-182.691 Y-175.726
X-182.565 Y-175.807
X-182.424 Y-175.86
X-182.276 Y-175.884
X-182.126 Y-175.879
X-181.981 Y-175.844
X-181.843 Y-175.784
X-181.72 Y-175.698
X-181.614 Y-175.592
X-181.53 Y-175.468
X-181.468 Y-175.331
X-181.431 Y-175.186
X-181.421 Y-175.036
X-181.436 Y-174.887
X-181.475 Y-174.742
X-181.538 Y-174.606
X-181.622 Y-174.482
X-181.726 Y-174.374
X-181.845 Y-174.282
X-181.977 Y-174.212
X-182.119 Y-174.161
X-182.266 Y-174.133
X-182.416 Y-174.128
X-182.565 Y-174.145
X-182.71 Y-174.183
X-182.848 Y-174.242
X-182.976 Y-174.32
X-183.091 Y-174.416
X-183.193 Y-174.527
X-183.277 Y-174.651
X-183.344 Y-174.785
X-183.392 Y-174.927
X-183.42 Y-175.075
X-183.429 Y-175.224
X-183.417 Y-175.374
X-183.386 Y-175.521
X-183.337 Y-175.662
X-183.27 Y-175.796
X-183.186 Y-175.921
X-183.088 Y-176.034
X-182.976 Y-176.134
X-182.853 Y-176.219
X-182.72 Y-176.289
X-182.579 Y-176.342
X-182.434 Y-176.378
X-182.285 Y-176.396
X-182.135 Y-176.397
X-181.986 Y-176.381
X-181.84 Y-176.347
X-181.698 Y-176.297
X-181.564 Y-176.231
X-181.437 Y-176.15
X-181.321 Y-176.056
X-181.215 Y-175.949
X-181.122 Y-175.831
X-181.043 Y-175.704
X-180.978 Y-175.569
X-180.927 Y-175.428
X-180.892 Y-175.282
X-180.873 Y-175.133
X-180.869 Y-174.983
X-180.881 Y-174.834
X-180.909 Y-174.686
X-180.951 Y-174.542
X-181.009 Y-174.404
X-181.08 Y-174.272
X-181.164 Y-174.147
X-181.26 Y-174.032
X-181.367 Y-173.927
X-181.483 Y-173.833
X-181.609 Y-173.751
X-181.742 Y-173.681
X-181.881 Y-173.625
X-182.025 Y-173.582
X-182.172 Y-173.553
X-182.321 Y-173.538
X-182.471
X-182.621 Y-173.551
X-182.768 Y-173.579
X-182.912 Y-173.62
X-183.052 Y-173.673
X-183.187 Y-173.74
X-183.315 Y-173.818
X-183.435 Y-173.908
X-183.546 Y-174.008
X-183.649 Y-174.118
X-183.741 Y-174.236
X-183.822 Y-174.363
X-183.892 Y-174.495
X-183.95 Y-174.634
X-183.996 Y-174.777
X-184.029 Y-174.923
X-184.049 Y-175.071
X-184.057 Y-175.221
X-184.052 Y-175.371
X-184.034 Y-175.52
X-184.004 Y-175.667
X-183.961 Y-175.811
X-183.907 Y-175.951
X-183.842 Y-176.086
X-183.765 Y-176.215
X-183.678 Y-176.337
X-183.582 Y-176.452
X-183.476 Y-176.558
X-183.363 Y-176.656
X-183.241 Y-176.744
X-183.113 Y-176.823
X-182.98 Y-176.891
X-182.841 Y-176.948
X-182.698 Y-176.994
X-182.552 Y-177.028
X-182.404 Y-177.051
X-182.254 Y-177.063
X-182.104
X-181.955 Y-177.052
X-181.807 Y-177.028
X-181.66 Y-176.994
X-181.517 Y-176.949
X-181.378 Y-176.893
X-181.244 Y-176.827
X-181.114 Y-176.751
X-180.991 Y-176.666
X-180.874 Y-176.571
X-180.765 Y-176.469
X-180.664 Y-176.358
X-180.571 Y-176.24
X-180.486 Y-176.116
X-180.411 Y-175.986
X-180.346 Y-175.851
X-180.29 Y-175.712
X-180.245 Y-175.569
X-180.21 Y-175.423
X-180.185 Y-175.275
X-180.171 Y-175.126
X-180.168 Y-174.976
X-180.175 Y-174.826
X-180.193 Y-174.677
X-180.221 Y-174.53
X-180.259 Y-174.385
X-180.307 Y-174.243
X-180.365 Y-174.104
X-180.432 Y-173.97
X-180.508 Y-173.841
X-180.593 Y-173.717
X-180.686 Y-173.599
X-180.786 Y-173.488
X-180.894 Y-173.384
X-181.009 Y-173.288
X-181.13 Y-173.199
X-181.257 Y-173.118
X-181.388 Y-173.046
X-181.524 Y-172.983
X-181.664 Y-172.929
X-181.807 Y-172.885
X-181.953 Y-172.849
X-182.101 Y-172.823
X-182.25 Y-172.807
X-182.4 Y-172.801
X-182.55 Y-172.804
X-182.699 Y-172.817
X-182.848 Y-172.84
X-182.994 Y-172.872
X-183.139 Y-172.913
X-183.28 Y-172.963
X-183.418 Y-173.022
X-183.552 Y-173.089
X-183.681 Y-173.165
X-183.806 Y-173.249
X-183.925 Y-173.34
X-184.038 Y-173.439
X-184.145 Y-173.544
X-184.245 Y-173.656
X-184.338 Y-173.773
X-184.423 Y-173.897
X-184.501 Y-174.025
X-184.571 Y-174.157
X-184.633 Y-174.294
X-184.687 Y-174.434
X-184.732 Y-174.577
X-184.768 Y-174.723
X-184.795 Y-174.87
X-184.814 Y-175.019
X-184.824 Y-175.169
Y-175.319
X-184.816 Y-175.469
X-184.799 Y-175.618
X-184.774 Y-175.765
X-184.739 Y-175.911
X-184.697 Y-176.055
X-184.646 Y-176.196
X-184.586 Y-176.334
X-184.519 Y-176.468
X-184.445 Y-176.598
X-184.363 Y-176.724
X-184.274 Y-176.845
X-184.178 Y-176.96
X-184.075 Y-177.07
X-183.967 Y-177.173
X-183.852 Y-177.272
X-183.732 Y-177.362
X-183.608 Y-177.446
X-183.478 Y-177.524
X-183.342 Y-177.594
X-183.205 Y-177.656
X-183.065 Y-177.71
X-182.918 Y-177.757
X-182.77 Y-177.796
X-182.621 Y-177.825
X-182.47 Y-177.847
X-182.315 Y-177.86
X-182.16 Y-177.865
X-182.007 Y-177.861
X-181.853 Y-177.848
X-181.697 Y-177.826
X-181.543 Y-177.795
X-181.393 Y-177.757
X-181.244 Y-177.709
X-181.095 Y-177.652
X-180.951 Y-177.587
X-180.812 Y-177.515
X-180.676 Y-177.435
X-180.542 Y-177.346
X-180.414 Y-177.249
X-180.293 Y-177.146
X-180.178 Y-177.036
X-180.067 Y-176.919
X-179.962 Y-176.794
X-179.865 Y-176.664
X-179.776 Y-176.531
X-179.694 Y-176.391
X-179.619 Y-176.245
X-179.553 Y-176.094
X-179.495 Y-175.941
X-179.446 Y-175.785
X-179.406 Y-175.626
X-179.374 Y-175.462
X-179.351 Y-175.297
X-179.338 Y-175.132
X-179.335 Y-174.966
X-179.34 Y-174.8
X-179.355 Y-174.632
X-179.38 Y-174.465
X-179.414 Y-174.299
X-179.457 Y-174.137
X-179.509 Y-173.977
X-179.571 Y-173.819
X-179.642 Y-173.663
X-179.722 Y-173.511
X-179.81 Y-173.364
X-179.906 Y-173.222
X-180.01 Y-173.086
X-180.122 Y-172.955
X-180.243 Y-172.83
X-180.371 Y-172.711
X-180.506 Y-172.6
X-180.646 Y-172.496
X-180.792 Y-172.401
X-180.943 Y-172.313
X-181.1 Y-172.234
X-181.262 Y-172.164
X-181.429 Y-172.102
X-181.599 Y-172.05
X-181.772 Y-172.007
X-181.947 Y-171.974
X-182.123 Y-171.951
X-182.301 Y-171.939
X-182.48 Y-171.936
X-182.661 Y-171.943
X-182.841 Y-171.96
X-183.021 Y-171.988
X-183.199 Y-172.026
X-183.375 Y-172.073
X-183.548 Y-172.131
X-183.717 Y-172.198
X-183.883 Y-172.275
X-184.044 Y-172.361
X-184.202 Y-172.457
X-184.354 Y-172.562
X-184.501 Y-172.676
X-184.642 Y-172.798
X-184.775 Y-172.929
X-184.902 Y-173.067
X-185.02 Y-173.211
X-185.131 Y-173.363
X-185.233 Y-173.521
X-185.326 Y-173.685
X-185.41 Y-173.854
X-185.484 Y-174.028
X-185.549 Y-174.206
X-185.603 Y-174.388
X-185.648 Y-174.574
X-185.682 Y-174.762
X-185.705 Y-174.953
X-185.718 Y-175.145
X-185.72 Y-175.338
X-185.711 Y-175.531
X-185.691 Y-175.724
X-185.66 Y-175.916
X-185.619 Y-176.106
X-185.566 Y-176.295
X-185.503 Y-176.48
X-185.429 Y-176.662
X-185.345 Y-176.84
X-185.251 Y-177.014
X-185.148 Y-177.182
X-185.034 Y-177.344
X-184.911 Y-177.501
X-184.78 Y-177.65
X-184.639 Y-177.792
X-184.491 Y-177.927
X-184.335 Y-178.053
X-184.171 Y-178.17
X-184.001 Y-178.278
X-183.825 Y-178.377
X-183.643 Y-178.466
X-183.455 Y-178.545
X-183.264 Y-178.613
X-183.068 Y-178.67
X-182.868 Y-178.717
X-182.666 Y-178.752
X-182.462 Y-178.776
X-182.256 Y-178.788
X-182.05 Y-178.789
X-181.843 Y-178.778
X-181.637 Y-178.755
X-181.431 Y-178.721
X-181.228 Y-178.675
X-181.027 Y-178.618
X-180.829 Y-178.549
X-180.635 Y-178.469
X-180.445 Y-178.378
X-180.26 Y-178.276
X-180.081 Y-178.164
X-179.908 Y-178.041
X-179.742 Y-177.909
X-179.583 Y-177.767
X-179.432 Y-177.616
X-179.289 Y-177.457
X-179.156 Y-177.289
X-179.031 Y-177.114
X-178.917 Y-176.931
X-178.812 Y-176.742
X-178.719 Y-176.547
X-178.636 Y-176.346
X-178.565 Y-176.141
X-178.505 Y-175.931
X-178.456 Y-175.718
X-178.42 Y-175.502
X-178.396 Y-175.284
X-178.384 Y-175.065
X-178.385 Y-174.844
X-178.398 Y-174.623
X-178.424 Y-174.403
X-178.462 Y-174.184
X-178.512 Y-173.968
X-178.575 Y-173.754
X-178.649 Y-173.543
X-178.736 Y-173.336
X-178.835 Y-173.134
X-178.945 Y-172.938
X-179.066 Y-172.747
X-179.197 Y-172.564
X-179.34 Y-172.387
X-179.492 Y-172.219
X-179.654 Y-172.059
X-179.825 Y-171.908
X-180.005 Y-171.766
X-180.193 Y-171.635
X-180.389 Y-171.514
X-180.591 Y-171.404
X-180.799 Y-171.306
X-181.014 Y-171.219
X-181.233 Y-171.144
X-181.457 Y-171.081
X-181.685 Y-171.031
X-181.915 Y-170.994
X-182.148 Y-170.97
X-182.382 Y-170.959
X-182.617 Y-170.961
X-182.707 Y-170.968
X-182.738 Y-170.972
X-182.829 Y-170.982
X-183.156 Y-171.019
X-183.21 Y-171.027
X-183.265 Y-171.04
X-183.283 Y-171.046
X-183.917 Y-171.268
X-184.135 Y-171.352
X-184.353 Y-171.487
X-184.788 Y-171.76
X-184.888 Y-171.826
X-184.988 Y-171.916
X-185.441 Y-172.37
X-185.538 Y-172.469
X-185.613 Y-172.569
X-186.023 Y-173.222
X-186.064 Y-173.298
X-186.094 Y-173.373
X-186.346 Y-174.092
X-186.375 Y-174.201
X-186.389 Y-174.31
X-186.462 Y-174.963
X-186.473 Y-175.072
X-186.469 Y-175.18
X-186.395 Y-175.833
X-186.363 Y-176.051
X-186.311 Y-176.205
X-186.094 Y-176.827
X-186.055 Y-176.921
X-185.922 Y-177.139
X-185.648 Y-177.574
X-185.578 Y-177.683
X-185.48 Y-177.792
X-185.006 Y-178.266
X-184.897 Y-178.367
X-184.781 Y-178.444
X-184.353 Y-178.713
X-184.135 Y-178.847
X-184.066 Y-178.88
X-183.446 Y-179.097
X-183.265 Y-179.16
X-183.047 Y-179.194
X-182.394 Y-179.267
X-182.285 Y-179.273
X-182.176 Y-179.264
X-181.523 Y-179.19
X-181.415 Y-179.177
X-181.306 Y-179.15
X-180.534 Y-178.88
X-180.435 Y-178.831
X-179.782 Y-178.421
X-179.673 Y-178.343
X-179.555 Y-178.227
X-179.12 Y-177.792
X-179.022 Y-177.683
X-178.952 Y-177.574
X-178.678 Y-177.139
X-178.545 Y-176.921
X-178.476 Y-176.742
X-178.259 Y-176.12
X-178.236 Y-176.051
X-178.205 Y-175.833
X-178.131 Y-175.18
X-178.127 Y-175.072
X-178.138 Y-174.963
X-178.211 Y-174.31
X-178.225 Y-174.201
X-178.254 Y-174.092
X-178.483 Y-173.439
X-178.522 Y-173.331
X-178.546 Y-173.276
X-178.577 Y-173.222
X-178.987 Y-172.569
X-179.048 Y-172.484
X-179.129 Y-172.399
X-179.612 Y-171.916
X-179.697 Y-171.837
X-179.782 Y-171.779
X-180.435 Y-171.369
X-180.49 Y-171.339
X-180.544 Y-171.316
X-181.317 Y-171.046
X-181.368 Y-171.031
X-181.42 Y-171.022
X-182.176 Y-170.936
X-182.285 Y-170.927
X-182.394 Y-170.933
X-182.738 Y-170.972
G3 X-182.958 Y-171.05 I0.088 J-0.594
G1 X-183.039 Y-171.099 Z7.007
X-183.117 Y-171.146 Z7.029
X-183.192 Y-171.19 Z7.065
X-183.261 Y-171.232 Z7.115
X-183.322 Y-171.268 Z7.176
X-183.375 Y-171.3 Z7.247
X-183.417 Y-171.325 Z7.328
X-183.448 Y-171.344 Z7.415
X-183.467 Y-171.355 Z7.506
X-183.473 Y-171.359 Z7.6
G0 Z33

(2D Adaptive14)
M9
X-182.3 Y-175.101
Z33
Z23
Z18.65
G1 Z18.05 F850
Z-0.5
X-182.32 Y-175.133
X-182.297 Y-175.162
X-182.259 Y-175.159
X-182.231 Y-175.135
X-182.219 Y-175.099
X-182.225 Y-175.062
X-182.247 Y-175.032
X-182.28 Y-175.015
X-182.318 Y-175.013
X-182.352 Y-175.028
X-182.378 Y-175.055
X-182.392 Y-175.09
X-182.396 Y-175.127
X-182.389 Y-175.164
X-182.369 Y-175.196
X-182.34 Y-175.22
X-182.305 Y-175.234
X-182.268 Y-175.238
X-182.231 Y-175.231
X-182.164 Y-175.198
X-182.121 Y-175.136
X-182.111 Y-175.062
X-182.132 Y-174.99
X-182.179 Y-174.932
X-182.244 Y-174.895
X-182.319 Y-174.885
X-182.392 Y-174.901
X-182.456 Y-174.94
X-182.505 Y-174.996
X-182.535 Y-175.065
X-182.543 Y-175.14
X-182.529 Y-175.214
X-182.496 Y-175.28
X-182.445 Y-175.335
X-182.317 Y-175.414
X-182.167 Y-175.421
X-182.03 Y-175.361
X-181.93 Y-175.249
X-181.881 Y-175.107
X-181.888 Y-174.958
X-181.948 Y-174.82
X-182.051 Y-174.711
X-182.185 Y-174.643
X-182.333 Y-174.62
X-182.481 Y-174.645
X-182.615 Y-174.712
X-182.723 Y-174.816
X-182.798 Y-174.946
X-182.833 Y-175.092
X-182.827 Y-175.242
X-182.785 Y-175.386
X-182.707 Y-175.514
X-182.601 Y-175.62
X-182.472 Y-175.697
X-182.329 Y-175.742
X-182.18 Y-175.752
X-182.031 Y-175.728
X-181.893 Y-175.671
X-181.769 Y-175.587
X-181.666 Y-175.477
X-181.588 Y-175.349
X-181.537 Y-175.208
X-181.517 Y-175.06
X-181.525 Y-174.91
X-181.563 Y-174.765
X-181.626 Y-174.629
X-181.714 Y-174.508
X-181.823 Y-174.404
X-181.948 Y-174.322
X-182.087 Y-174.264
X-182.233 Y-174.23
X-182.383 Y-174.223
X-182.532 Y-174.24
X-182.675 Y-174.283
X-182.81 Y-174.349
X-182.933 Y-174.435
X-183.039 Y-174.541
X-183.127 Y-174.663
X-183.195 Y-174.796
X-183.224 Y-174.894
X-183.243 Y-174.982
X-183.256 Y-175.072
X-183.253 Y-175.18
X-183.237 Y-175.289
X-183.226 Y-175.344
X-183.21 Y-175.398
X-183.164 Y-175.507
X-183.107 Y-175.616
X-183.047 Y-175.696
X-182.987 Y-175.764
X-182.914 Y-175.833
X-182.829 Y-175.894
X-182.72 Y-175.96
X-182.666 Y-175.984
X-182.612 Y-176.003
X-182.512 Y-176.032
X-182.412 Y-176.051
X-182.394 Y-176.052
X-182.292 Y-176.054
X-182.19 Y-176.051
X-182.176 Y-176.049
X-182.067 Y-176.026
X-181.959 Y-175.993
X-181.904 Y-175.971
X-181.85 Y-175.944
X-181.741 Y-175.875
X-181.685 Y-175.833
X-181.641 Y-175.794
X-181.597 Y-175.746
X-181.523 Y-175.658
X-181.493 Y-175.616
X-181.436 Y-175.507
X-181.39 Y-175.398
X-181.374 Y-175.344
X-181.363 Y-175.289
X-181.347 Y-175.18
X-181.344 Y-175.072
X-181.356 Y-174.963
X-181.374 Y-174.854
X-181.391 Y-174.799
X-181.413 Y-174.745
X-181.46 Y-174.643
X-181.488 Y-174.592
X-181.523 Y-174.541
X-181.534 Y-174.527
X-181.637 Y-174.411
X-181.689 Y-174.363
X-181.741 Y-174.325
X-181.862 Y-174.249
X-181.91 Y-174.226
X-181.959 Y-174.207
X-182.067 Y-174.174
X-182.176 Y-174.151
X-182.285 Y-174.146
X-182.394 Y-174.148
X-182.503 Y-174.166
X-182.612 Y-174.197
X-182.666 Y-174.216
X-182.72 Y-174.24
X-182.835 Y-174.31
X-182.941 Y-174.39
X-183.047 Y-174.505
X-183.066 Y-174.527
X-183.105 Y-174.582
X-183.136 Y-174.636
X-183.187 Y-174.745
X-183.209 Y-174.799
X-183.226 Y-174.854
X-183.244 Y-174.963
X-183.256 Y-175.072
G3 X-183.195 Y-175.297 I0.599 J0.042
G0 Z33

(2D Contour6)
S8000 M3
M9
X-182.3 Y-175.1
Z33
Z23
G1 Z7 F850
G3 X-182 Y-175.4 I0.3
G1 X-177.9
G3 X-177.6 Y-175.1 J0.3
X-187 I-4.7
X-177.6 I4.7
X-187 I-4.7
X-177.6 I4.7
X-178.2 Y-174.5 I-0.6
G1 X-178.8
G18 G3 X-179.4 Z7.6 K0.6
G0 Z33
G17

(2D Contour8)
M9
G0 X-182.3 Y-175.1
Z33
Z23
G1 Z0 F850
G3 X-182 Y-175.4 I0.3
G1 X-181.1
G3 X-180.8 Y-175.1 J0.3
X-183.8 I-1.5
X-180.8 I1.5
X-183.8 I-1.5
X-180.8 I1.5
X-181.4 Y-174.5 I-0.6
G1 X-182
G18 G3 X-182.6 Z0.6 K0.6
G0 Z33
G17

(2D Adaptive13)
S6000 M3
M9
G0 X-182.3 Y-250.1
Z33
Z23
Z18.65
G1 Z18.05 F850
Z7
X-182.332 Y-250.08
X-182.363 Y-250.102
X-182.36 Y-250.139
X-182.337 Y-250.168
X-182.301 Y-250.181
X-182.264 Y-250.176
X-182.234 Y-250.155
X-182.215 Y-250.122
X-182.213 Y-250.084
X-182.227 Y-250.049
X-182.253 Y-250.023
X-182.288 Y-250.008
X-182.325 Y-250.003
X-182.362 Y-250.01
X-182.394 Y-250.029
X-182.419 Y-250.057
X-182.434 Y-250.092
X-182.439 Y-250.129
X-182.432 Y-250.166
X-182.401 Y-250.234
X-182.34 Y-250.278
X-182.266 Y-250.29
X-182.194 Y-250.271
X-182.134 Y-250.225
X-182.096 Y-250.16
X-182.085 Y-250.086
X-182.099 Y-250.013
X-182.136 Y-249.948
X-182.192 Y-249.897
X-182.26 Y-249.866
X-182.334 Y-249.856
X-182.408 Y-249.868
X-182.476 Y-249.901
X-182.532 Y-249.95
X-182.614 Y-250.076
X-182.624 Y-250.226
X-182.567 Y-250.365
X-182.457 Y-250.467
X-182.317 Y-250.519
X-182.167 Y-250.515
X-182.028 Y-250.458
X-181.917 Y-250.357
X-181.845 Y-250.225
X-181.82 Y-250.077
X-181.841 Y-249.929
X-181.905 Y-249.794
X-182.007 Y-249.683
X-182.135 Y-249.606
X-182.28 Y-249.567
X-182.43 Y-249.57
X-182.575 Y-249.609
X-182.705 Y-249.684
X-182.814 Y-249.788
X-182.893 Y-249.915
X-182.941 Y-250.057
X-182.954 Y-250.206
X-182.934 Y-250.355
X-182.88 Y-250.495
X-182.798 Y-250.621
X-182.691 Y-250.726
X-182.565 Y-250.807
X-182.424 Y-250.86
X-182.276 Y-250.884
X-182.126 Y-250.879
X-181.981 Y-250.844
X-181.843 Y-250.784
X-181.72 Y-250.698
X-181.614 Y-250.592
X-181.53 Y-250.468
X-181.468 Y-250.331
X-181.431 Y-250.186
X-181.421 Y-250.036
X-181.436 Y-249.887
X-181.475 Y-249.742
X-181.538 Y-249.606
X-181.622 Y-249.482
X-181.726 Y-249.374
X-181.845 Y-249.282
X-181.977 Y-249.212
X-182.119 Y-249.161
X-182.266 Y-249.133
X-182.416 Y-249.128
X-182.565 Y-249.145
X-182.71 Y-249.183
X-182.848 Y-249.242
X-182.976 Y-249.32
X-183.091 Y-249.416
X-183.193 Y-249.527
X-183.277 Y-249.651
X-183.344 Y-249.785
X-183.392 Y-249.927
X-183.42 Y-250.075
X-183.429 Y-250.224
X-183.417 Y-250.374
X-183.386 Y-250.521
X-183.337 Y-250.662
X-183.27 Y-250.796
X-183.186 Y-250.921
X-183.088 Y-251.034
X-182.976 Y-251.134
X-182.853 Y-251.219
X-182.72 Y-251.289
X-182.579 Y-251.342
X-182.434 Y-251.378
X-182.285 Y-251.396
X-182.135 Y-251.397
X-181.986 Y-251.381
X-181.84 Y-251.347
X-181.698 Y-251.297
X-181.564 Y-251.231
X-181.437 Y-251.15
X-181.321 Y-251.056
X-181.215 Y-250.949
X-181.122 Y-250.831
X-181.043 Y-250.704
X-180.978 Y-250.569
X-180.927 Y-250.428
X-180.892 Y-250.282
X-180.873 Y-250.133
X-180.869 Y-249.983
X-180.881 Y-249.834
X-180.909 Y-249.686
X-180.951 Y-249.542
X-181.009 Y-249.404
X-181.08 Y-249.272
X-181.164 Y-249.147
X-181.26 Y-249.032
X-181.367 Y-248.927
X-181.483 Y-248.833
X-181.609 Y-248.751
X-181.742 Y-248.681
X-181.881 Y-248.625
X-182.025 Y-248.582
X-182.172 Y-248.553
X-182.321 Y-248.538
X-182.471
X-182.621 Y-248.551
X-182.768 Y-248.579
X-182.912 Y-248.62
X-183.052 Y-248.673
X-183.187 Y-248.74
X-183.315 Y-248.818
X-183.435 Y-248.908
X-183.546 Y-249.008
X-183.649 Y-249.118
X-183.741 Y-249.236
X-183.822 Y-249.363
X-183.892 Y-249.495
X-183.95 Y-249.634
X-183.996 Y-249.777
X-184.029 Y-249.923
X-184.049 Y-250.071
X-184.057 Y-250.221
X-184.052 Y-250.371
X-184.034 Y-250.52
X-184.004 Y-250.667
X-183.961 Y-250.811
X-183.907 Y-250.951
X-183.842 Y-251.086
X-183.765 Y-251.215
X-183.678 Y-251.337
X-183.582 Y-251.452
X-183.476 Y-251.558
X-183.363 Y-251.656
X-183.241 Y-251.744
X-183.113 Y-251.823
X-182.98 Y-251.891
X-182.841 Y-251.948
X-182.698 Y-251.994
X-182.552 Y-252.028
X-182.404 Y-252.051
X-182.254 Y-252.063
X-182.104
X-181.955 Y-252.052
X-181.807 Y-252.028
X-181.66 Y-251.994
X-181.517 Y-251.949
X-181.378 Y-251.893
X-181.244 Y-251.827
X-181.114 Y-251.751
X-180.991 Y-251.666
X-180.874 Y-251.571
X-180.765 Y-251.469
X-180.664 Y-251.358
X-180.571 Y-251.24
X-180.486 Y-251.116
X-180.411 Y-250.986
X-180.346 Y-250.851
X-180.29 Y-250.712
X-180.245 Y-250.569
X-180.21 Y-250.423
X-180.185 Y-250.275
X-180.171 Y-250.126
X-180.168 Y-249.976
X-180.175 Y-249.826
X-180.193 Y-249.677
X-180.221 Y-249.53
X-180.259 Y-249.385
X-180.307 Y-249.243
X-180.365 Y-249.104
X-180.432 Y-248.97
X-180.508 Y-248.841
X-180.593 Y-248.717
X-180.686 Y-248.599
X-180.786 Y-248.488
X-180.894 Y-248.384
X-181.009 Y-248.288
X-181.13 Y-248.199
X-181.257 Y-248.118
X-181.388 Y-248.046
X-181.524 Y-247.983
X-181.664 Y-247.929
X-181.807 Y-247.885
X-181.953 Y-247.849
X-182.101 Y-247.823
X-182.25 Y-247.807
X-182.4 Y-247.801
X-182.55 Y-247.804
X-182.699 Y-247.817
X-182.848 Y-247.84
X-182.994 Y-247.872
X-183.139 Y-247.913
X-183.28 Y-247.963
X-183.418 Y-248.022
X-183.552 Y-248.089
X-183.681 Y-248.165
X-183.806 Y-248.249
X-183.925 Y-248.34
X-184.038 Y-248.439
X-184.145 Y-248.544
X-184.245 Y-248.656
X-184.338 Y-248.773
X-184.423 Y-248.897
X-184.501 Y-249.025
X-184.571 Y-249.157
X-184.633 Y-249.294
X-184.687 Y-249.434
X-184.732 Y-249.577
X-184.768 Y-249.723
X-184.795 Y-249.87
X-184.814 Y-250.019
X-184.824 Y-250.169
Y-250.319
X-184.816 Y-250.469
X-184.799 Y-250.618
X-184.774 Y-250.765
X-184.739 Y-250.911
X-184.697 Y-251.055
X-184.646 Y-251.196
X-184.586 Y-251.334
X-184.519 Y-251.468
X-184.445 Y-251.598
X-184.363 Y-251.724
X-184.274 Y-251.845
X-184.178 Y-251.96
X-184.075 Y-252.07
X-183.967 Y-252.173
X-183.852 Y-252.272
X-183.732 Y-252.362
X-183.608 Y-252.446
X-183.478 Y-252.524
X-183.342 Y-252.594
X-183.205 Y-252.656
X-183.065 Y-252.71
X-182.918 Y-252.757
X-182.77 Y-252.796
X-182.621 Y-252.825
X-182.47 Y-252.847
X-182.315 Y-252.86
X-182.16 Y-252.865
X-182.007 Y-252.861
X-181.853 Y-252.848
X-181.697 Y-252.826
X-181.543 Y-252.795
X-181.393 Y-252.757
X-181.244 Y-252.709
X-181.095 Y-252.652
X-180.951 Y-252.587
X-180.812 Y-252.515
X-180.676 Y-252.435
X-180.542 Y-252.346
X-180.414 Y-252.249
X-180.293 Y-252.146
X-180.178 Y-252.036
X-180.067 Y-251.919
X-179.962 Y-251.794
X-179.865 Y-251.664
X-179.776 Y-251.531
X-179.694 Y-251.391
X-179.619 Y-251.245
X-179.553 Y-251.094
X-179.495 Y-250.941
X-179.446 Y-250.785
X-179.406 Y-250.626
X-179.374 Y-250.462
X-179.351 Y-250.297
X-179.338 Y-250.132
X-179.335 Y-249.966
X-179.34 Y-249.8
X-179.355 Y-249.632
X-179.38 Y-249.465
X-179.414 Y-249.299
X-179.457 Y-249.137
X-179.509 Y-248.977
X-179.571 Y-248.819
X-179.642 Y-248.663
X-179.722 Y-248.511
X-179.81 Y-248.364
X-179.906 Y-248.222
X-180.01 Y-248.086
X-180.122 Y-247.955
X-180.243 Y-247.83
X-180.371 Y-247.711
X-180.506 Y-247.6
X-180.646 Y-247.496
X-180.792 Y-247.401
X-180.943 Y-247.313
X-181.1 Y-247.234
X-181.262 Y-247.164
X-181.429 Y-247.102
X-181.599 Y-247.05
X-181.772 Y-247.007
X-181.947 Y-246.974
X-182.123 Y-246.951
X-182.301 Y-246.939
X-182.48 Y-246.936
X-182.661 Y-246.943
X-182.841 Y-246.96
X-183.021 Y-246.988
X-183.199 Y-247.026
X-183.375 Y-247.073
X-183.548 Y-247.131
X-183.717 Y-247.198
X-183.883 Y-247.275
X-184.044 Y-247.361
X-184.202 Y-247.457
X-184.354 Y-247.562
X-184.501 Y-247.676
X-184.642 Y-247.798
X-184.775 Y-247.929
X-184.902 Y-248.067
X-185.02 Y-248.211
X-185.131 Y-248.363
X-185.233 Y-248.521
X-185.326 Y-248.685
X-185.41 Y-248.854
X-185.484 Y-249.028
X-185.549 Y-249.206
X-185.603 Y-249.388
X-185.648 Y-249.574
X-185.682 Y-249.762
X-185.705 Y-249.953
X-185.718 Y-250.145
X-185.72 Y-250.338
X-185.711 Y-250.531
X-185.691 Y-250.724
X-185.66 Y-250.916
X-185.619 Y-251.106
X-185.566 Y-251.295
X-185.503 Y-251.48
X-185.429 Y-251.662
X-185.345 Y-251.84
X-185.251 Y-252.014
X-185.148 Y-252.182
X-185.034 Y-252.344
X-184.911 Y-252.501
X-184.78 Y-252.65
X-184.639 Y-252.792
X-184.491 Y-252.927
X-184.335 Y-253.053
X-184.171 Y-253.17
X-184.001 Y-253.278
X-183.825 Y-253.377
X-183.643 Y-253.466
X-183.455 Y-253.545
X-183.264 Y-253.613
X-183.068 Y-253.67
X-182.868 Y-253.717
X-182.666 Y-253.752
X-182.462 Y-253.776
X-182.256 Y-253.788
X-182.05 Y-253.789
X-181.843 Y-253.778
X-181.637 Y-253.755
X-181.431 Y-253.721
X-181.228 Y-253.675
X-181.027 Y-253.618
X-180.829 Y-253.549
X-180.635 Y-253.469
X-180.445 Y-253.378
X-180.26 Y-253.276
X-180.081 Y-253.164
X-179.908 Y-253.041
X-179.742 Y-252.909
X-179.583 Y-252.767
X-179.432 Y-252.616
X-179.289 Y-252.457
X-179.156 Y-252.289
X-179.031 Y-252.114
X-178.917 Y-251.931
X-178.812 Y-251.742
X-178.719 Y-251.547
X-178.636 Y-251.346
X-178.565 Y-251.141
X-178.505 Y-250.931
X-178.456 Y-250.718
X-178.42 Y-250.502
X-178.396 Y-250.284
X-178.384 Y-250.065
X-178.385 Y-249.844
X-178.398 Y-249.623
X-178.424 Y-249.403
X-178.462 Y-249.184
X-178.512 Y-248.968
X-178.575 Y-248.754
X-178.649 Y-248.543
X-178.736 Y-248.336
X-178.835 Y-248.134
X-178.945 Y-247.938
X-179.066 Y-247.747
X-179.197 Y-247.564
X-179.34 Y-247.387
X-179.492 Y-247.219
X-179.654 Y-247.059
X-179.825 Y-246.908
X-180.005 Y-246.766
X-180.193 Y-246.635
X-180.389 Y-246.514
X-180.591 Y-246.404
X-180.799 Y-246.306
X-181.014 Y-246.219
X-181.233 Y-246.144
X-181.457 Y-246.081
X-181.685 Y-246.031
X-181.915 Y-245.994
X-182.148 Y-245.97
X-182.382 Y-245.959
X-182.617 Y-245.961
X-182.707 Y-245.968
X-182.738 Y-245.972
X-182.829 Y-245.982
X-183.156 Y-246.019
X-183.21 Y-246.027
X-183.265 Y-246.04
X-183.283 Y-246.046
X-183.917 Y-246.268
X-184.135 Y-246.352
X-184.353 Y-246.487
X-184.788 Y-246.76
X-184.888 Y-246.826
X-184.988 Y-246.916
X-185.441 Y-247.37
X-185.538 Y-247.469
X-185.613 Y-247.569
X-186.023 Y-248.222
X-186.064 Y-248.298
X-186.094 Y-248.373
X-186.346 Y-249.092
X-186.375 Y-249.201
X-186.389 Y-249.31
X-186.462 Y-249.963
X-186.473 Y-250.072
X-186.469 Y-250.18
X-186.395 Y-250.833
X-186.363 Y-251.051
X-186.311 Y-251.205
X-186.094 Y-251.827
X-186.055 Y-251.921
X-185.922 Y-252.139
X-185.648 Y-252.574
X-185.578 Y-252.683
X-185.48 Y-252.792
X-185.006 Y-253.266
X-184.897 Y-253.367
X-184.781 Y-253.444
X-184.353 Y-253.713
X-184.135 Y-253.847
X-184.066 Y-253.88
X-183.446 Y-254.097
X-183.265 Y-254.16
X-183.047 Y-254.194
X-182.394 Y-254.267
X-182.285 Y-254.273
X-182.176 Y-254.264
X-181.523 Y-254.19
X-181.415 Y-254.177
X-181.306 Y-254.15
X-180.534 Y-253.88
X-180.435 Y-253.831
X-179.782 Y-253.421
X-179.673 Y-253.343
X-179.555 Y-253.227
X-179.12 Y-252.792
X-179.022 Y-252.683
X-178.952 Y-252.574
X-178.678 Y-252.139
X-178.545 Y-251.921
X-178.476 Y-251.742
X-178.259 Y-251.12
X-178.236 Y-251.051
X-178.205 Y-250.833
X-178.131 Y-250.18
X-178.127 Y-250.072
X-178.138 Y-249.963
X-178.211 Y-249.31
X-178.225 Y-249.201
X-178.254 Y-249.092
X-178.483 Y-248.439
X-178.522 Y-248.331
X-178.546 Y-248.276
X-178.577 Y-248.222
X-178.987 Y-247.569
X-179.048 Y-247.484
X-179.129 Y-247.399
X-179.612 Y-246.916
X-179.697 Y-246.837
X-179.782 Y-246.779
X-180.435 Y-246.369
X-180.49 Y-246.339
X-180.544 Y-246.316
X-181.317 Y-246.046
X-181.368 Y-246.031
X-181.42 Y-246.022
X-182.176 Y-245.936
X-182.285 Y-245.927
X-182.394 Y-245.933
X-182.738 Y-245.972
G3 X-182.958 Y-246.05 I0.088 J-0.594
G1 X-183.039 Y-246.099 Z7.007
X-183.117 Y-246.146 Z7.029
X-183.192 Y-246.19 Z7.065
X-183.261 Y-246.232 Z7.115
X-183.322 Y-246.268 Z7.176
X-183.375 Y-246.3 Z7.247
X-183.417 Y-246.325 Z7.328
X-183.448 Y-246.344 Z7.415
X-183.467 Y-246.355 Z7.506
X-183.473 Y-246.359 Z7.6
G0 Z33

(2D Adaptive14)
M9
X-182.3 Y-250.101
Z33
Z23
Z18.65
G1 Z18.05 F850
Z-0.5
X-182.32 Y-250.133
X-182.297 Y-250.162
X-182.259 Y-250.159
X-182.231 Y-250.135
X-182.219 Y-250.099
X-182.225 Y-250.062
X-182.247 Y-250.032
X-182.28 Y-250.015
X-182.318 Y-250.013
X-182.352 Y-250.028
X-182.378 Y-250.055
X-182.392 Y-250.09
X-182.396 Y-250.127
X-182.389 Y-250.164
X-182.369 Y-250.196
X-182.34 Y-250.22
X-182.305 Y-250.234
X-182.268 Y-250.238
X-182.231 Y-250.231
X-182.164 Y-250.198
X-182.121 Y-250.136
X-182.111 Y-250.062
X-182.132 Y-249.99
X-182.179 Y-249.932
X-182.244 Y-249.895
X-182.319 Y-249.885
X-182.392 Y-249.901
X-182.456 Y-249.94
X-182.505 Y-249.996
X-182.535 Y-250.065
X-182.543 Y-250.14
X-182.529 Y-250.214
X-182.496 Y-250.28
X-182.445 Y-250.335
X-182.317 Y-250.414
X-182.167 Y-250.421
X-182.03 Y-250.361
X-181.93 Y-250.249
X-181.881 Y-250.107
X-181.888 Y-249.958
X-181.948 Y-249.82
X-182.051 Y-249.711
X-182.185 Y-249.643
X-182.333 Y-249.62
X-182.481 Y-249.645
X-182.615 Y-249.712
X-182.723 Y-249.816
X-182.798 Y-249.946
X-182.833 Y-250.092
X-182.827 Y-250.242
X-182.785 Y-250.386
X-182.707 Y-250.514
X-182.601 Y-250.62
X-182.472 Y-250.697
X-182.329 Y-250.742
X-182.18 Y-250.752
X-182.031 Y-250.728
X-181.893 Y-250.671
X-181.769 Y-250.587
X-181.666 Y-250.477
X-181.588 Y-250.349
X-181.537 Y-250.208
X-181.517 Y-250.06
X-181.525 Y-249.91
X-181.563 Y-249.765
X-181.626 Y-249.629
X-181.714 Y-249.508
X-181.823 Y-249.404
X-181.948 Y-249.322
X-182.087 Y-249.264
X-182.233 Y-249.23
X-182.383 Y-249.223
X-182.532 Y-249.24
X-182.675 Y-249.283
X-182.81 Y-249.349
X-182.933 Y-249.435
X-183.039 Y-249.541
X-183.127 Y-249.663
X-183.195 Y-249.796
X-183.224 Y-249.894
X-183.243 Y-249.982
X-183.256 Y-250.072
X-183.253 Y-250.18
X-183.237 Y-250.289
X-183.226 Y-250.344
X-183.21 Y-250.398
X-183.164 Y-250.507
X-183.107 Y-250.616
X-183.047 Y-250.696
X-182.987 Y-250.764
X-182.914 Y-250.833
X-182.829 Y-250.894
X-182.72 Y-250.96
X-182.666 Y-250.984
X-182.612 Y-251.003
X-182.512 Y-251.032
X-182.412 Y-251.051
X-182.394 Y-251.052
X-182.292 Y-251.054
X-182.19 Y-251.051
X-182.176 Y-251.049
X-182.067 Y-251.026
X-181.959 Y-250.993
X-181.904 Y-250.971
X-181.85 Y-250.944
X-181.741 Y-250.875
X-181.685 Y-250.833
X-181.641 Y-250.794
X-181.597 Y-250.746
X-181.523 Y-250.658
X-181.493 Y-250.616
X-181.436 Y-250.507
X-181.39 Y-250.398
X-181.374 Y-250.344
X-181.363 Y-250.289
X-181.347 Y-250.18
X-181.344 Y-250.072
X-181.356 Y-249.963
X-181.374 Y-249.854
X-181.391 Y-249.799
X-181.413 Y-249.745
X-181.46 Y-249.643
X-181.488 Y-249.592
X-181.523 Y-249.541
X-181.534 Y-249.527
X-181.637 Y-249.411
X-181.689 Y-249.363
X-181.741 Y-249.325
X-181.862 Y-249.249
X-181.91 Y-249.226
X-181.959 Y-249.207
X-182.067 Y-249.174
X-182.176 Y-249.151
X-182.285 Y-249.146
X-182.394 Y-249.148
X-182.503 Y-249.166
X-182.612 Y-249.197
X-182.666 Y-249.216
X-182.72 Y-249.24
X-182.835 Y-249.31
X-182.941 Y-249.39
X-183.047 Y-249.505
X-183.066 Y-249.527
X-183.105 Y-249.582
X-183.136 Y-249.636
X-183.187 Y-249.745
X-183.209 Y-249.799
X-183.226 Y-249.854
X-183.244 Y-249.963
X-183.256 Y-250.072
G3 X-183.195 Y-250.297 I0.599 J0.042
G0 Z33

(2D Contour6)
S8000 M3
M9
X-182.3 Y-250.1
Z33
Z23
G1 Z7 F850
G3 X-182 Y-250.4 I0.3
G1 X-177.9
G3 X-177.6 Y-250.1 J0.3
X-187 I-4.7
X-177.6 I4.7
X-187 I-4.7
X-177.6 I4.7
X-178.2 Y-249.5 I-0.6
G1 X-178.8
G18 G3 X-179.4 Z7.6 K0.6
G0 Z33
G17

(2D Contour8)
M9
G0 X-182.3 Y-250.1
Z33
Z23
G1 Z0 F850
G3 X-182 Y-250.4 I0.3
G1 X-181.1
G3 X-180.8 Y-250.1 J0.3
X-183.8 I-1.5
X-180.8 I1.5
X-183.8 I-1.5
X-180.8 I1.5
X-181.4 Y-249.5 I-0.6
G1 X-182
G18 G3 X-182.6 Z0.6 K0.6
G0 Z33
G17

(2D Adaptive13)
S6000 M3
M9
G0 X-182.3 Y-325.1
Z33
Z23
Z18.65
G1 Z18.05 F850
Z7
X-182.332 Y-325.08
X-182.363 Y-325.102
X-182.36 Y-325.139
X-182.337 Y-325.168
X-182.301 Y-325.181
X-182.264 Y-325.176
X-182.234 Y-325.155
X-182.215 Y-325.122
X-182.213 Y-325.084
X-182.227 Y-325.049
X-182.253 Y-325.023
X-182.288 Y-325.008
X-182.325 Y-325.003
X-182.362 Y-325.01
X-182.394 Y-325.029
X-182.419 Y-325.057
X-182.434 Y-325.092
X-182.439 Y-325.129
X-182.432 Y-325.166
X-182.401 Y-325.234
X-182.34 Y-325.278
X-182.266 Y-325.29
X-182.194 Y-325.271
X-182.134 Y-325.225
X-182.096 Y-325.16
X-182.085 Y-325.086
X-182.099 Y-325.013
X-182.136 Y-324.948
X-182.192 Y-324.897
X-182.26 Y-324.866
X-182.334 Y-324.856
X-182.408 Y-324.868
X-182.476 Y-324.901
X-182.532 Y-324.95
X-182.614 Y-325.076
X-182.624 Y-325.226
X-182.567 Y-325.365
X-182.457 Y-325.467
X-182.317 Y-325.519
X-182.167 Y-325.515
X-182.028 Y-325.458
X-181.917 Y-325.357
X-181.845 Y-325.225
X-181.82 Y-325.077
X-181.841 Y-324.929
X-181.905 Y-324.794
X-182.007 Y-324.683
X-182.135 Y-324.606
X-182.28 Y-324.567
X-182.43 Y-324.57
X-182.575 Y-324.609
X-182.705 Y-324.684
X-182.814 Y-324.788
X-182.893 Y-324.915
X-182.941 Y-325.057
X-182.954 Y-325.206
X-182.934 Y-325.355
X-182.88 Y-325.495
X-182.798 Y-325.621
X-182.691 Y-325.726
X-182.565 Y-325.807
X-182.424 Y-325.86
X-182.276 Y-325.884
X-182.126 Y-325.879
X-181.981 Y-325.844
X-181.843 Y-325.784
X-181.72 Y-325.698
X-181.614 Y-325.592
X-181.53 Y-325.468
X-181.468 Y-325.331
X-181.431 Y-325.186
X-181.421 Y-325.036
X-181.436 Y-324.887
X-181.475 Y-324.742
X-181.538 Y-324.606
X-181.622 Y-324.482
X-181.726 Y-324.374
X-181.845 Y-324.282
X-181.977 Y-324.212
X-182.119 Y-324.161
X-182.266 Y-324.133
X-182.416 Y-324.128
X-182.565 Y-324.145
X-182.71 Y-324.183
X-182.848 Y-324.242
X-182.976 Y-324.32
X-183.091 Y-324.416
X-183.193 Y-324.527
X-183.277 Y-324.651
X-183.344 Y-324.785
X-183.392 Y-324.927
X-183.42 Y-325.075
X-183.429 Y-325.224
X-183.417 Y-325.374
X-183.386 Y-325.521
X-183.337 Y-325.662
X-183.27 Y-325.796
X-183.186 Y-325.921
X-183.088 Y-326.034
X-182.976 Y-326.134
X-182.853 Y-326.219
X-182.72 Y-326.289
X-182.579 Y-326.342
X-182.434 Y-326.378
X-182.285 Y-326.396
X-182.135 Y-326.397
X-181.986 Y-326.381
X-181.84 Y-326.347
X-181.698 Y-326.297
X-181.564 Y-326.231
X-181.437 Y-326.15
X-181.321 Y-326.056
X-181.215 Y-325.949
X-181.122 Y-325.831
X-181.043 Y-325.704
X-180.978 Y-325.569
X-180.927 Y-325.428
X-180.892 Y-325.282
X-180.873 Y-325.133
X-180.869 Y-324.983
X-180.881 Y-324.834
X-180.909 Y-324.686
X-180.951 Y-324.542
X-181.009 Y-324.404
X-181.08 Y-324.272
X-181.164 Y-324.147
X-181.26 Y-324.032
X-181.367 Y-323.927
X-181.483 Y-323.833
X-181.609 Y-323.751
X-181.742 Y-323.681
X-181.881 Y-323.625
X-182.025 Y-323.582
X-182.172 Y-323.553
X-182.321 Y-323.538
X-182.471
X-182.621 Y-323.551
X-182.768 Y-323.579
X-182.912 Y-323.62
X-183.052 Y-323.673
X-183.187 Y-323.74
X-183.315 Y-323.818
X-183.435 Y-323.908
X-183.546 Y-324.008
X-183.649 Y-324.118
X-183.741 Y-324.236
X-183.822 Y-324.363
X-183.892 Y-324.495
X-183.95 Y-324.634
X-183.996 Y-324.777
X-184.029 Y-324.923
X-184.049 Y-325.071
X-184.057 Y-325.221
X-184.052 Y-325.371
X-184.034 Y-325.52
X-184.004 Y-325.667
X-183.961 Y-325.811
X-183.907 Y-325.951
X-183.842 Y-326.086
X-183.765 Y-326.215
X-183.678 Y-326.337
X-183.582 Y-326.452
X-183.476 Y-326.558
X-183.363 Y-326.656
X-183.241 Y-326.744
X-183.113 Y-326.823
X-182.98 Y-326.891
X-182.841 Y-326.948
X-182.698 Y-326.994
X-182.552 Y-327.028
X-182.404 Y-327.051
X-182.254 Y-327.063
X-182.104
X-181.955 Y-327.052
X-181.807 Y-327.028
X-181.66 Y-326.994
X-181.517 Y-326.949
X-181.378 Y-326.893
X-181.244 Y-326.827
X-181.114 Y-326.751
X-180.991 Y-326.666
X-180.874 Y-326.571
X-180.765 Y-326.469
X-180.664 Y-326.358
X-180.571 Y-326.24
X-180.486 Y-326.116
X-180.411 Y-325.986
X-180.346 Y-325.851
X-180.29 Y-325.712
X-180.245 Y-325.569
X-180.21 Y-325.423
X-180.185 Y-325.275
X-180.171 Y-325.126
X-180.168 Y-324.976
X-180.175 Y-324.826
X-180.193 Y-324.677
X-180.221 Y-324.53
X-180.259 Y-324.385
X-180.307 Y-324.243
X-180.365 Y-324.104
X-180.432 Y-323.97
X-180.508 Y-323.841
X-180.593 Y-323.717
X-180.686 Y-323.599
X-180.786 Y-323.488
X-180.894 Y-323.384
X-181.009 Y-323.288
X-181.13 Y-323.199
X-181.257 Y-323.118
X-181.388 Y-323.046
X-181.524 Y-322.983
X-181.664 Y-322.929
X-181.807 Y-322.885
X-181.953 Y-322.849
X-182.101 Y-322.823
X-182.25 Y-322.807
X-182.4 Y-322.801
X-182.55 Y-322.804
X-182.699 Y-322.817
X-182.848 Y-322.84
X-182.994 Y-322.872
X-183.139 Y-322.913
X-183.28 Y-322.963
X-183.418 Y-323.022
X-183.552 Y-323.089
X-183.681 Y-323.165
X-183.806 Y-323.249
X-183.925 Y-323.34
X-184.038 Y-323.439
X-184.145 Y-323.544
X-184.245 Y-323.656
X-184.338 Y-323.773
X-184.423 Y-323.897
X-184.501 Y-324.025
X-184.571 Y-324.157
X-184.633 Y-324.294
X-184.687 Y-324.434
X-184.732 Y-324.577
X-184.768 Y-324.723
X-184.795 Y-324.87
X-184.814 Y-325.019
X-184.824 Y-325.169
Y-325.319
X-184.816 Y-325.469
X-184.799 Y-325.618
X-184.774 Y-325.765
X-184.739 Y-325.911
X-184.697 Y-326.055
X-184.646 Y-326.196
X-184.586 Y-326.334
X-184.519 Y-326.468
X-184.445 Y-326.598
X-184.363 Y-326.724
X-184.274 Y-326.845
X-184.178 Y-326.96
X-184.075 Y-327.07
X-183.967 Y-327.173
X-183.852 Y-327.272
X-183.732 Y-327.362
X-183.608 Y-327.446
X-183.478 Y-327.524
X-183.342 Y-327.594
X-183.205 Y-327.656
X-183.065 Y-327.71
X-182.918 Y-327.757
X-182.77 Y-327.796
X-182.621 Y-327.825
X-182.47 Y-327.847
X-182.315 Y-327.86
X-182.16 Y-327.865
X-182.007 Y-327.861
X-181.853 Y-327.848
X-181.697 Y-327.826
X-181.543 Y-327.795
X-181.393 Y-327.757
X-181.244 Y-327.709
X-181.095 Y-327.652
X-180.951 Y-327.587
X-180.812 Y-327.515
X-180.676 Y-327.435
X-180.542 Y-327.346
X-180.414 Y-327.249
X-180.293 Y-327.146
X-180.178 Y-327.036
X-180.067 Y-326.919
X-179.962 Y-326.794
X-179.865 Y-326.664
X-179.776 Y-326.531
X-179.694 Y-326.391
X-179.619 Y-326.245
X-179.553 Y-326.094
X-179.495 Y-325.941
X-179.446 Y-325.785
X-179.406 Y-325.626
X-179.374 Y-325.462
X-179.351 Y-325.297
X-179.338 Y-325.132
X-179.335 Y-324.966
X-179.34 Y-324.8
X-179.355 Y-324.632
X-179.38 Y-324.465
X-179.414 Y-324.299
X-179.457 Y-324.137
X-179.509 Y-323.977
X-179.571 Y-323.819
X-179.642 Y-323.663
X-179.722 Y-323.511
X-179.81 Y-323.364
X-179.906 Y-323.222
X-180.01 Y-323.086
X-180.122 Y-322.955
X-180.243 Y-322.83
X-180.371 Y-322.711
X-180.506 Y-322.6
X-180.646 Y-322.496
X-180.792 Y-322.401
X-180.943 Y-322.313
X-181.1 Y-322.234
X-181.262 Y-322.164
X-181.429 Y-322.102
X-181.599 Y-322.05
X-181.772 Y-322.007
X-181.947 Y-321.974
X-182.123 Y-321.951
X-182.301 Y-321.939
X-182.48 Y-321.936
X-182.661 Y-321.943
X-182.841 Y-321.96
X-183.021 Y-321.988
X-183.199 Y-322.026
X-183.375 Y-322.073
X-183.548 Y-322.131
X-183.717 Y-322.198
X-183.883 Y-322.275
X-184.044 Y-322.361
X-184.202 Y-322.457
X-184.354 Y-322.562
X-184.501 Y-322.676
X-184.642 Y-322.798
X-184.775 Y-322.929
X-184.902 Y-323.067
X-185.02 Y-323.211
X-185.131 Y-323.363
X-185.233 Y-323.521
X-185.326 Y-323.685
X-185.41 Y-323.854
X-185.484 Y-324.028
X-185.549 Y-324.206
X-185.603 Y-324.388
X-185.648 Y-324.574
X-185.682 Y-324.762
X-185.705 Y-324.953
X-185.718 Y-325.145
X-185.72 Y-325.338
X-185.711 Y-325.531
X-185.691 Y-325.724
X-185.66 Y-325.916
X-185.619 Y-326.106
X-185.566 Y-326.295
X-185.503 Y-326.48
X-185.429 Y-326.662
X-185.345 Y-326.84
X-185.251 Y-327.014
X-185.148 Y-327.182
X-185.034 Y-327.344
X-184.911 Y-327.501
X-184.78 Y-327.65
X-184.639 Y-327.792
X-184.491 Y-327.927
X-184.335 Y-328.053
X-184.171 Y-328.17
X-184.001 Y-328.278
X-183.825 Y-328.377
X-183.643 Y-328.466
X-183.455 Y-328.545
X-183.264 Y-328.613
X-183.068 Y-328.67
X-182.868 Y-328.717
X-182.666 Y-328.752
X-182.462 Y-328.776
X-182.256 Y-328.788
X-182.05 Y-328.789
X-181.843 Y-328.778
X-181.637 Y-328.755
X-181.431 Y-328.721
X-181.228 Y-328.675
X-181.027 Y-328.618
X-180.829 Y-328.549
X-180.635 Y-328.469
X-180.445 Y-328.378
X-180.26 Y-328.276
X-180.081 Y-328.164
X-179.908 Y-328.041
X-179.742 Y-327.909
X-179.583 Y-327.767
X-179.432 Y-327.616
X-179.289 Y-327.457
X-179.156 Y-327.289
X-179.031 Y-327.114
X-178.917 Y-326.931
X-178.812 Y-326.742
X-178.719 Y-326.547
X-178.636 Y-326.346
X-178.565 Y-326.141
X-178.505 Y-325.931
X-178.456 Y-325.718
X-178.42 Y-325.502
X-178.396 Y-325.284
X-178.384 Y-325.065
X-178.385 Y-324.844
X-178.398 Y-324.623
X-178.424 Y-324.403
X-178.462 Y-324.184
X-178.512 Y-323.968
X-178.575 Y-323.754
X-178.649 Y-323.543
X-178.736 Y-323.336
X-178.835 Y-323.134
X-178.945 Y-322.938
X-179.066 Y-322.747
X-179.197 Y-322.564
X-179.34 Y-322.387
X-179.492 Y-322.219
X-179.654 Y-322.059
X-179.825 Y-321.908
X-180.005 Y-321.766
X-180.193 Y-321.635
X-180.389 Y-321.514
X-180.591 Y-321.404
X-180.799 Y-321.306
X-181.014 Y-321.219
X-181.233 Y-321.144
X-181.457 Y-321.081
X-181.685 Y-321.031
X-181.915 Y-320.994
X-182.148 Y-320.97
X-182.382 Y-320.959
X-182.617 Y-320.961
X-182.707 Y-320.968
X-182.738 Y-320.972
X-182.829 Y-320.982
X-183.156 Y-321.019
X-183.21 Y-321.027
X-183.265 Y-321.04
X-183.283 Y-321.046
X-183.917 Y-321.268
X-184.135 Y-321.352
X-184.353 Y-321.487
X-184.788 Y-321.76
X-184.888 Y-321.826
X-184.988 Y-321.916
X-185.441 Y-322.37
X-185.538 Y-322.469
X-185.613 Y-322.569
X-186.023 Y-323.222
X-186.064 Y-323.298
X-186.094 Y-323.373
X-186.346 Y-324.092
X-186.375 Y-324.201
X-186.389 Y-324.31
X-186.462 Y-324.963
X-186.473 Y-325.072
X-186.469 Y-325.18
X-186.395 Y-325.833
X-186.363 Y-326.051
X-186.311 Y-326.205
X-186.094 Y-326.827
X-186.055 Y-326.921
X-185.922 Y-327.139
X-185.648 Y-327.574
X-185.578 Y-327.683
X-185.48 Y-327.792
X-185.006 Y-328.266
X-184.897 Y-328.367
X-184.781 Y-328.444
X-184.353 Y-328.713
X-184.135 Y-328.847
X-184.066 Y-328.88
X-183.446 Y-329.097
X-183.265 Y-329.16
X-183.047 Y-329.194
X-182.394 Y-329.267
X-182.285 Y-329.273
X-182.176 Y-329.264
X-181.523 Y-329.19
X-181.415 Y-329.177
X-181.306 Y-329.15
X-180.534 Y-328.88
X-180.435 Y-328.831
X-179.782 Y-328.421
X-179.673 Y-328.343
X-179.555 Y-328.227
X-179.12 Y-327.792
X-179.022 Y-327.683
X-178.952 Y-327.574
X-178.678 Y-327.139
X-178.545 Y-326.921
X-178.476 Y-326.742
X-178.259 Y-326.12
X-178.236 Y-326.051
X-178.205 Y-325.833
X-178.131 Y-325.18
X-178.127 Y-325.072
X-178.138 Y-324.963
X-178.211 Y-324.31
X-178.225 Y-324.201
X-178.254 Y-324.092
X-178.483 Y-323.439
X-178.522 Y-323.331
X-178.546 Y-323.276
X-178.577 Y-323.222
X-178.987 Y-322.569
X-179.048 Y-322.484
X-179.129 Y-322.399
X-179.612 Y-321.916
X-179.697 Y-321.837
X-179.782 Y-321.779
X-180.435 Y-321.369
X-180.49 Y-321.339
X-180.544 Y-321.316
X-181.317 Y-321.046
X-181.368 Y-321.031
X-181.42 Y-321.022
X-182.176 Y-320.936
X-182.285 Y-320.927
X-182.394 Y-320.933
X-182.738 Y-320.972
G3 X-182.958 Y-321.05 I0.088 J-0.594
G1 X-183.039 Y-321.099 Z7.007
X-183.117 Y-321.146 Z7.029
X-183.192 Y-321.19 Z7.065
X-183.261 Y-321.232 Z7.115
X-183.322 Y-321.268 Z7.176
X-183.375 Y-321.3 Z7.247
X-183.417 Y-321.325 Z7.328
X-183.448 Y-321.344 Z7.415
X-183.467 Y-321.355 Z7.506
X-183.473 Y-321.359 Z7.6
G0 Z33

(2D Adaptive14)
M9
X-182.3 Y-325.101
Z33
Z23
Z18.65
G1 Z18.05 F850
Z-0.5
X-182.32 Y-325.133
X-182.297 Y-325.162
X-182.259 Y-325.159
X-182.231 Y-325.135
X-182.219 Y-325.099
X-182.225 Y-325.062
X-182.247 Y-325.032
X-182.28 Y-325.015
X-182.318 Y-325.013
X-182.352 Y-325.028
X-182.378 Y-325.055
X-182.392 Y-325.09
X-182.396 Y-325.127
X-182.389 Y-325.164
X-182.369 Y-325.196
X-182.34 Y-325.22
X-182.305 Y-325.234
X-182.268 Y-325.238
X-182.231 Y-325.231
X-182.164 Y-325.198
X-182.121 Y-325.136
X-182.111 Y-325.062
X-182.132 Y-324.99
X-182.179 Y-324.932
X-182.244 Y-324.895
X-182.319 Y-324.885
X-182.392 Y-324.901
X-182.456 Y-324.94
X-182.505 Y-324.996
X-182.535 Y-325.065
X-182.543 Y-325.14
X-182.529 Y-325.214
X-182.496 Y-325.28
X-182.445 Y-325.335
X-182.317 Y-325.414
X-182.167 Y-325.421
X-182.03 Y-325.361
X-181.93 Y-325.249
X-181.881 Y-325.107
X-181.888 Y-324.958
X-181.948 Y-324.82
X-182.051 Y-324.711
X-182.185 Y-324.643
X-182.333 Y-324.62
X-182.481 Y-324.645
X-182.615 Y-324.712
X-182.723 Y-324.816
X-182.798 Y-324.946
X-182.833 Y-325.092
X-182.827 Y-325.242
X-182.785 Y-325.386
X-182.707 Y-325.514
X-182.601 Y-325.62
X-182.472 Y-325.697
X-182.329 Y-325.742
X-182.18 Y-325.752
X-182.031 Y-325.728
X-181.893 Y-325.671
X-181.769 Y-325.587
X-181.666 Y-325.477
X-181.588 Y-325.349
X-181.537 Y-325.208
X-181.517 Y-325.06
X-181.525 Y-324.91
X-181.563 Y-324.765
X-181.626 Y-324.629
X-181.714 Y-324.508
X-181.823 Y-324.404
X-181.948 Y-324.322
X-182.087 Y-324.264
X-182.233 Y-324.23
X-182.383 Y-324.223
X-182.532 Y-324.24
X-182.675 Y-324.283
X-182.81 Y-324.349
X-182.933 Y-324.435
X-183.039 Y-324.541
X-183.127 Y-324.663
X-183.195 Y-324.796
X-183.224 Y-324.894
X-183.243 Y-324.982
X-183.256 Y-325.072
X-183.253 Y-325.18
X-183.237 Y-325.289
X-183.226 Y-325.344
X-183.21 Y-325.398
X-183.164 Y-325.507
X-183.107 Y-325.616
X-183.047 Y-325.696
X-182.987 Y-325.764
X-182.914 Y-325.833
X-182.829 Y-325.894
X-182.72 Y-325.96
X-182.666 Y-325.984
X-182.612 Y-326.003
X-182.512 Y-326.032
X-182.412 Y-326.051
X-182.394 Y-326.052
X-182.292 Y-326.054
X-182.19 Y-326.051
X-182.176 Y-326.049
X-182.067 Y-326.026
X-181.959 Y-325.993
X-181.904 Y-325.971
X-181.85 Y-325.944
X-181.741 Y-325.875
X-181.685 Y-325.833
X-181.641 Y-325.794
X-181.597 Y-325.746
X-181.523 Y-325.658
X-181.493 Y-325.616
X-181.436 Y-325.507
X-181.39 Y-325.398
X-181.374 Y-325.344
X-181.363 Y-325.289
X-181.347 Y-325.18
X-181.344 Y-325.072
X-181.356 Y-324.963
X-181.374 Y-324.854
X-181.391 Y-324.799
X-181.413 Y-324.745
X-181.46 Y-324.643
X-181.488 Y-324.592
X-181.523 Y-324.541
X-181.534 Y-324.527
X-181.637 Y-324.411
X-181.689 Y-324.363
X-181.741 Y-324.325
X-181.862 Y-324.249
X-181.91 Y-324.226
X-181.959 Y-324.207
X-182.067 Y-324.174
X-182.176 Y-324.151
X-182.285 Y-324.146
X-182.394 Y-324.148
X-182.503 Y-324.166
X-182.612 Y-324.197
X-182.666 Y-324.216
X-182.72 Y-324.24
X-182.835 Y-324.31
X-182.941 Y-324.39
X-183.047 Y-324.505
X-183.066 Y-324.527
X-183.105 Y-324.582
X-183.136 Y-324.636
X-183.187 Y-324.745
X-183.209 Y-324.799
X-183.226 Y-324.854
X-183.244 Y-324.963
X-183.256 Y-325.072
G3 X-183.195 Y-325.297 I0.599 J0.042
G0 Z33

(2D Contour6)
S8000 M3
M9
X-182.3 Y-325.1
Z33
Z23
G1 Z7 F850
G3 X-182 Y-325.4 I0.3
G1 X-177.9
G3 X-177.6 Y-325.1 J0.3
X-187 I-4.7
X-177.6 I4.7
X-187 I-4.7
X-177.6 I4.7
X-178.2 Y-324.5 I-0.6
G1 X-178.8
G18 G3 X-179.4 Z7.6 K0.6
G0 Z33
G17

(2D Contour8)
M9
G0 X-182.3 Y-325.1
Z33
Z23
G1 Z0 F850
G3 X-182 Y-325.4 I0.3
G1 X-181.1
G3 X-180.8 Y-325.1 J0.3
X-183.8 I-1.5
X-180.8 I1.5
X-183.8 I-1.5
X-180.8 I1.5
X-181.4 Y-324.5 I-0.6
G1 X-182
G18 G3 X-182.6 Z0.6 K0.6
G0 Z33
G17

(2D Adaptive13)
S6000 M3
M9
G0 X-182.3 Y-400.1
Z33
Z23
Z18.65
G1 Z18.05 F850
Z7
X-182.332 Y-400.08
X-182.363 Y-400.102
X-182.36 Y-400.139
X-182.337 Y-400.168
X-182.301 Y-400.181
X-182.264 Y-400.176
X-182.234 Y-400.155
X-182.215 Y-400.122
X-182.213 Y-400.084
X-182.227 Y-400.049
X-182.253 Y-400.023
X-182.288 Y-400.008
X-182.325 Y-400.003
X-182.362 Y-400.01
X-182.394 Y-400.029
X-182.419 Y-400.057
X-182.434 Y-400.092
X-182.439 Y-400.129
X-182.432 Y-400.166
X-182.401 Y-400.234
X-182.34 Y-400.278
X-182.266 Y-400.29
X-182.194 Y-400.271
X-182.134 Y-400.225
X-182.096 Y-400.16
X-182.085 Y-400.086
X-182.099 Y-400.013
X-182.136 Y-399.948
X-182.192 Y-399.897
X-182.26 Y-399.866
X-182.334 Y-399.856
X-182.408 Y-399.868
X-182.476 Y-399.901
X-182.532 Y-399.95
X-182.614 Y-400.076
X-182.624 Y-400.226
X-182.567 Y-400.365
X-182.457 Y-400.467
X-182.317 Y-400.519
X-182.167 Y-400.515
X-182.028 Y-400.458
X-181.917 Y-400.357
X-181.845 Y-400.225
X-181.82 Y-400.077
X-181.841 Y-399.929
X-181.905 Y-399.794
X-182.007 Y-399.683
X-182.135 Y-399.606
X-182.28 Y-399.567
X-182.43 Y-399.57
X-182.575 Y-399.609
X-182.705 Y-399.684
X-182.814 Y-399.788
X-182.893 Y-399.915
X-182.941 Y-400.057
X-182.954 Y-400.206
X-182.934 Y-400.355
X-182.88 Y-400.495
X-182.798 Y-400.621
X-182.691 Y-400.726
X-182.565 Y-400.807
X-182.424 Y-400.86
X-182.276 Y-400.884
X-182.126 Y-400.879
X-181.981 Y-400.844
X-181.843 Y-400.784
X-181.72 Y-400.698
X-181.614 Y-400.592
X-181.53 Y-400.468
X-181.468 Y-400.331
X-181.431 Y-400.186
X-181.421 Y-400.036
X-181.436 Y-399.887
X-181.475 Y-399.742
X-181.538 Y-399.606
X-181.622 Y-399.482
X-181.726 Y-399.374
X-181.845 Y-399.282
X-181.977 Y-399.212
X-182.119 Y-399.161
X-182.266 Y-399.133
X-182.416 Y-399.128
X-182.565 Y-399.145
X-182.71 Y-399.183
X-182.848 Y-399.242
X-182.976 Y-399.32
X-183.091 Y-399.416
X-183.193 Y-399.527
X-183.277 Y-399.651
X-183.344 Y-399.785
X-183.392 Y-399.927
X-183.42 Y-400.075
X-183.429 Y-400.224
X-183.417 Y-400.374
X-183.386 Y-400.521
X-183.337 Y-400.662
X-183.27 Y-400.796
X-183.186 Y-400.921
X-183.088 Y-401.034
X-182.976 Y-401.134
X-182.853 Y-401.219
X-182.72 Y-401.289
X-182.579 Y-401.342
X-182.434 Y-401.378
X-182.285 Y-401.396
X-182.135 Y-401.397
X-181.986 Y-401.381
X-181.84 Y-401.347
X-181.698 Y-401.297
X-181.564 Y-401.231
X-181.437 Y-401.15
X-181.321 Y-401.056
X-181.215 Y-400.949
X-181.122 Y-400.831
X-181.043 Y-400.704
X-180.978 Y-400.569
X-180.927 Y-400.428
X-180.892 Y-400.282
X-180.873 Y-400.133
X-180.869 Y-399.983
X-180.881 Y-399.834
X-180.909 Y-399.686
X-180.951 Y-399.542
X-181.009 Y-399.404
X-181.08 Y-399.272
X-181.164 Y-399.147
X-181.26 Y-399.032
X-181.367 Y-398.927
X-181.483 Y-398.833
X-181.609 Y-398.751
X-181.742 Y-398.681
X-181.881 Y-398.625
X-182.025 Y-398.582
X-182.172 Y-398.553
X-182.321 Y-398.538
X-182.471
X-182.621 Y-398.551
X-182.768 Y-398.579
X-182.912 Y-398.62
X-183.052 Y-398.673
X-183.187 Y-398.74
X-183.315 Y-398.818
X-183.435 Y-398.908
X-183.546 Y-399.008
X-183.649 Y-399.118
X-183.741 Y-399.236
X-183.822 Y-399.363
X-183.892 Y-399.495
X-183.95 Y-399.634
X-183.996 Y-399.777
X-184.029 Y-399.923
X-184.049 Y-400.071
X-184.057 Y-400.221
X-184.052 Y-400.371
X-184.034 Y-400.52
X-184.004 Y-400.667
X-183.961 Y-400.811
X-183.907 Y-400.951
X-183.842 Y-401.086
X-183.765 Y-401.215
X-183.678 Y-401.337
X-183.582 Y-401.452
X-183.476 Y-401.558
X-183.363 Y-401.656
X-183.241 Y-401.744
X-183.113 Y-401.823
X-182.98 Y-401.891
X-182.841 Y-401.948
X-182.698 Y-401.994
X-182.552 Y-402.028
X-182.404 Y-402.051
X-182.254 Y-402.063
X-182.104
X-181.955 Y-402.052
X-181.807 Y-402.028
X-181.66 Y-401.994
X-181.517 Y-401.949
X-181.378 Y-401.893
X-181.244 Y-401.827
X-181.114 Y-401.751
X-180.991 Y-401.666
X-180.874 Y-401.571
X-180.765 Y-401.469
X-180.664 Y-401.358
X-180.571 Y-401.24
X-180.486 Y-401.116
X-180.411 Y-400.986
X-180.346 Y-400.851
X-180.29 Y-400.712
X-180.245 Y-400.569
X-180.21 Y-400.423
X-180.185 Y-400.275
X-180.171 Y-400.126
X-180.168 Y-399.976
X-180.175 Y-399.826
X-180.193 Y-399.677
X-180.221 Y-399.53
X-180.259 Y-399.385
X-180.307 Y-399.243
X-180.365 Y-399.104
X-180.432 Y-398.97
X-180.508 Y-398.841
X-180.593 Y-398.717
X-180.686 Y-398.599
X-180.786 Y-398.488
X-180.894 Y-398.384
X-181.009 Y-398.288
X-181.13 Y-398.199
X-181.257 Y-398.118
X-181.388 Y-398.046
X-181.524 Y-397.983
X-181.664 Y-397.929
X-181.807 Y-397.885
X-181.953 Y-397.849
X-182.101 Y-397.823
X-182.25 Y-397.807
X-182.4 Y-397.801
X-182.55 Y-397.804
X-182.699 Y-397.817
X-182.848 Y-397.84
X-182.994 Y-397.872
X-183.139 Y-397.913
X-183.28 Y-397.963
X-183.418 Y-398.022
X-183.552 Y-398.089
X-183.681 Y-398.165
X-183.806 Y-398.249
X-183.925 Y-398.34
X-184.038 Y-398.439
X-184.145 Y-398.544
X-184.245 Y-398.656
X-184.338 Y-398.773
X-184.423 Y-398.897
X-184.501 Y-399.025
X-184.571 Y-399.157
X-184.633 Y-399.294
X-184.687 Y-399.434
X-184.732 Y-399.577
X-184.768 Y-399.723
X-184.795 Y-399.87
X-184.814 Y-400.019
X-184.824 Y-400.169
Y-400.319
X-184.816 Y-400.469
X-184.799 Y-400.618
X-184.774 Y-400.765
X-184.739 Y-400.911
X-184.697 Y-401.055
X-184.646 Y-401.196
X-184.586 Y-401.334
X-184.519 Y-401.468
X-184.445 Y-401.598
X-184.363 Y-401.724
X-184.274 Y-401.845
X-184.178 Y-401.96
X-184.075 Y-402.07
X-183.967 Y-402.173
X-183.852 Y-402.272
X-183.732 Y-402.362
X-183.608 Y-402.446
X-183.478 Y-402.524
X-183.342 Y-402.594
X-183.205 Y-402.656
X-183.065 Y-402.71
X-182.918 Y-402.757
X-182.77 Y-402.796
X-182.621 Y-402.825
X-182.47 Y-402.847
X-182.315 Y-402.86
X-182.16 Y-402.865
X-182.007 Y-402.861
X-181.853 Y-402.848
X-181.697 Y-402.826
X-181.543 Y-402.795
X-181.393 Y-402.757
X-181.244 Y-402.709
X-181.095 Y-402.652
X-180.951 Y-402.587
X-180.812 Y-402.515
X-180.676 Y-402.435
X-180.542 Y-402.346
X-180.414 Y-402.249
X-180.293 Y-402.146
X-180.178 Y-402.036
X-180.067 Y-401.919
X-179.962 Y-401.794
X-179.865 Y-401.664
X-179.776 Y-401.531
X-179.694 Y-401.391
X-179.619 Y-401.245
X-179.553 Y-401.094
X-179.495 Y-400.941
X-179.446 Y-400.785
X-179.406 Y-400.626
X-179.374 Y-400.462
X-179.351 Y-400.297
X-179.338 Y-400.132
X-179.335 Y-399.966
X-179.34 Y-399.8
X-179.355 Y-399.632
X-179.38 Y-399.465
X-179.414 Y-399.299
X-179.457 Y-399.137
X-179.509 Y-398.977
X-179.571 Y-398.819
X-179.642 Y-398.663
X-179.722 Y-398.511
X-179.81 Y-398.364
X-179.906 Y-398.222
X-180.01 Y-398.086
X-180.122 Y-397.955
X-180.243 Y-397.83
X-180.371 Y-397.711
X-180.506 Y-397.6
X-180.646 Y-397.496
X-180.792 Y-397.401
X-180.943 Y-397.313
X-181.1 Y-397.234
X-181.262 Y-397.164
X-181.429 Y-397.102
X-181.599 Y-397.05
X-181.772 Y-397.007
X-181.947 Y-396.974
X-182.123 Y-396.951
X-182.301 Y-396.939
X-182.48 Y-396.936
X-182.661 Y-396.943
X-182.841 Y-396.96
X-183.021 Y-396.988
X-183.199 Y-397.026
X-183.375 Y-397.073
X-183.548 Y-397.131
X-183.717 Y-397.198
X-183.883 Y-397.275
X-184.044 Y-397.361
X-184.202 Y-397.457
X-184.354 Y-397.562
X-184.501 Y-397.676
X-184.642 Y-397.798
X-184.775 Y-397.929
X-184.902 Y-398.067
X-185.02 Y-398.211
X-185.131 Y-398.363
X-185.233 Y-398.521
X-185.326 Y-398.685
X-185.41 Y-398.854
X-185.484 Y-399.028
X-185.549 Y-399.206
X-185.603 Y-399.388
X-185.648 Y-399.574
X-185.682 Y-399.762
X-185.705 Y-399.953
X-185.718 Y-400.145
X-185.72 Y-400.338
X-185.711 Y-400.531
X-185.691 Y-400.724
X-185.66 Y-400.916
X-185.619 Y-401.106
X-185.566 Y-401.295
X-185.503 Y-401.48
X-185.429 Y-401.662
X-185.345 Y-401.84
X-185.251 Y-402.014
X-185.148 Y-402.182
X-185.034 Y-402.344
X-184.911 Y-402.501
X-184.78 Y-402.65
X-184.639 Y-402.792
X-184.491 Y-402.927
X-184.335 Y-403.053
X-184.171 Y-403.17
X-184.001 Y-403.278
X-183.825 Y-403.377
X-183.643 Y-403.466
X-183.455 Y-403.545
X-183.264 Y-403.613
X-183.068 Y-403.67
X-182.868 Y-403.717
X-182.666 Y-403.752
X-182.462 Y-403.776
X-182.256 Y-403.788
X-182.05 Y-403.789
X-181.843 Y-403.778
X-181.637 Y-403.755
X-181.431 Y-403.721
X-181.228 Y-403.675
X-181.027 Y-403.618
X-180.829 Y-403.549
X-180.635 Y-403.469
X-180.445 Y-403.378
X-180.26 Y-403.276
X-180.081 Y-403.164
X-179.908 Y-403.041
X-179.742 Y-402.909
X-179.583 Y-402.767
X-179.432 Y-402.616
X-179.289 Y-402.457
X-179.156 Y-402.289
X-179.031 Y-402.114
X-178.917 Y-401.931
X-178.812 Y-401.742
X-178.719 Y-401.547
X-178.636 Y-401.346
X-178.565 Y-401.141
X-178.505 Y-400.931
X-178.456 Y-400.718
X-178.42 Y-400.502
X-178.396 Y-400.284
X-178.384 Y-400.065
X-178.385 Y-399.844
X-178.398 Y-399.623
X-178.424 Y-399.403
X-178.462 Y-399.184
X-178.512 Y-398.968
X-178.575 Y-398.754
X-178.649 Y-398.543
X-178.736 Y-398.336
X-178.835 Y-398.134
X-178.945 Y-397.938
X-179.066 Y-397.747
X-179.197 Y-397.564
X-179.34 Y-397.387
X-179.492 Y-397.219
X-179.654 Y-397.059
X-179.825 Y-396.908
X-180.005 Y-396.766
X-180.193 Y-396.635
X-180.389 Y-396.514
X-180.591 Y-396.404
X-180.799 Y-396.306
X-181.014 Y-396.219
X-181.233 Y-396.144
X-181.457 Y-396.081
X-181.685 Y-396.031
X-181.915 Y-395.994
X-182.148 Y-395.97
X-182.382 Y-395.959
X-182.617 Y-395.961
X-182.707 Y-395.968
X-182.738 Y-395.972
X-182.829 Y-395.982
X-183.156 Y-396.019
X-183.21 Y-396.027
X-183.265 Y-396.04
X-183.283 Y-396.046
X-183.917 Y-396.268
X-184.135 Y-396.352
X-184.353 Y-396.487
X-184.788 Y-396.76
X-184.888 Y-396.826
X-184.988 Y-396.916
X-185.441 Y-397.37
X-185.538 Y-397.469
X-185.613 Y-397.569
X-186.023 Y-398.222
X-186.064 Y-398.298
X-186.094 Y-398.373
X-186.346 Y-399.092
X-186.375 Y-399.201
X-186.389 Y-399.31
X-186.462 Y-399.963
X-186.473 Y-400.072
X-186.469 Y-400.18
X-186.395 Y-400.833
X-186.363 Y-401.051
X-186.311 Y-401.205
X-186.094 Y-401.827
X-186.055 Y-401.921
X-185.922 Y-402.139
X-185.648 Y-402.574
X-185.578 Y-402.683
X-185.48 Y-402.792
X-185.006 Y-403.266
X-184.897 Y-403.367
X-184.781 Y-403.444
X-184.353 Y-403.713
X-184.135 Y-403.847
X-184.066 Y-403.88
X-183.446 Y-404.097
X-183.265 Y-404.16
X-183.047 Y-404.194
X-182.394 Y-404.267
X-182.285 Y-404.273
X-182.176 Y-404.264
X-181.523 Y-404.19
X-181.415 Y-404.177
X-181.306 Y-404.15
X-180.534 Y-403.88
X-180.435 Y-403.831
X-179.782 Y-403.421
X-179.673 Y-403.343
X-179.555 Y-403.227
X-179.12 Y-402.792
X-179.022 Y-402.683
X-178.952 Y-402.574
X-178.678 Y-402.139
X-178.545 Y-401.921
X-178.476 Y-401.742
X-178.259 Y-401.12
X-178.236 Y-401.051
X-178.205 Y-400.833
X-178.131 Y-400.18
X-178.127 Y-400.072
X-178.138 Y-399.963
X-178.211 Y-399.31
X-178.225 Y-399.201
X-178.254 Y-399.092
X-178.483 Y-398.439
X-178.522 Y-398.331
X-178.546 Y-398.276
X-178.577 Y-398.222
X-178.987 Y-397.569
X-179.048 Y-397.484
X-179.129 Y-397.399
X-179.612 Y-396.916
X-179.697 Y-396.837
X-179.782 Y-396.779
X-180.435 Y-396.369
X-180.49 Y-396.339
X-180.544 Y-396.316
X-181.317 Y-396.046
X-181.368 Y-396.031
X-181.42 Y-396.022
X-182.176 Y-395.936
X-182.285 Y-395.927
X-182.394 Y-395.933
X-182.738 Y-395.972
G3 X-182.958 Y-396.05 I0.088 J-0.594
G1 X-183.039 Y-396.099 Z7.007
X-183.117 Y-396.146 Z7.029
X-183.192 Y-396.19 Z7.065
X-183.261 Y-396.232 Z7.115
X-183.322 Y-396.268 Z7.176
X-183.375 Y-396.3 Z7.247
X-183.417 Y-396.325 Z7.328
X-183.448 Y-396.344 Z7.415
X-183.467 Y-396.355 Z7.506
X-183.473 Y-396.359 Z7.6
G0 Z33

(2D Adaptive14)
M9
X-182.3 Y-400.101
Z33
Z23
Z18.65
G1 Z18.05 F850
Z-0.5
X-182.32 Y-400.133
X-182.297 Y-400.162
X-182.259 Y-400.159
X-182.231 Y-400.135
X-182.219 Y-400.099
X-182.225 Y-400.062
X-182.247 Y-400.032
X-182.28 Y-400.015
X-182.318 Y-400.013
X-182.352 Y-400.028
X-182.378 Y-400.055
X-182.392 Y-400.09
X-182.396 Y-400.127
X-182.389 Y-400.164
X-182.369 Y-400.196
X-182.34 Y-400.22
X-182.305 Y-400.234
X-182.268 Y-400.238
X-182.231 Y-400.231
X-182.164 Y-400.198
X-182.121 Y-400.136
X-182.111 Y-400.062
X-182.132 Y-399.99
X-182.179 Y-399.932
X-182.244 Y-399.895
X-182.319 Y-399.885
X-182.392 Y-399.901
X-182.456 Y-399.94
X-182.505 Y-399.996
X-182.535 Y-400.065
X-182.543 Y-400.14
X-182.529 Y-400.214
X-182.496 Y-400.28
X-182.445 Y-400.335
X-182.317 Y-400.414
X-182.167 Y-400.421
X-182.03 Y-400.361
X-181.93 Y-400.249
X-181.881 Y-400.107
X-181.888 Y-399.958
X-181.948 Y-399.82
X-182.051 Y-399.711
X-182.185 Y-399.643
X-182.333 Y-399.62
X-182.481 Y-399.645
X-182.615 Y-399.712
X-182.723 Y-399.816
X-182.798 Y-399.946
X-182.833 Y-400.092
X-182.827 Y-400.242
X-182.785 Y-400.386
X-182.707 Y-400.514
X-182.601 Y-400.62
X-182.472 Y-400.697
X-182.329 Y-400.742
X-182.18 Y-400.752
X-182.031 Y-400.728
X-181.893 Y-400.671
X-181.769 Y-400.587
X-181.666 Y-400.477
X-181.588 Y-400.349
X-181.537 Y-400.208
X-181.517 Y-400.06
X-181.525 Y-399.91
X-181.563 Y-399.765
X-181.626 Y-399.629
X-181.714 Y-399.508
X-181.823 Y-399.404
X-181.948 Y-399.322
X-182.087 Y-399.264
X-182.233 Y-399.23
X-182.383 Y-399.223
X-182.532 Y-399.24
X-182.675 Y-399.283
X-182.81 Y-399.349
X-182.933 Y-399.435
X-183.039 Y-399.541
X-183.127 Y-399.663
X-183.195 Y-399.796
X-183.224 Y-399.894
X-183.243 Y-399.982
X-183.256 Y-400.072
X-183.253 Y-400.18
X-183.237 Y-400.289
X-183.226 Y-400.344
X-183.21 Y-400.398
X-183.164 Y-400.507
X-183.107 Y-400.616
X-183.047 Y-400.696
X-182.987 Y-400.764
X-182.914 Y-400.833
X-182.829 Y-400.894
X-182.72 Y-400.96
X-182.666 Y-400.984
X-182.612 Y-401.003
X-182.512 Y-401.032
X-182.412 Y-401.051
X-182.394 Y-401.052
X-182.292 Y-401.054
X-182.19 Y-401.051
X-182.176 Y-401.049
X-182.067 Y-401.026
X-181.959 Y-400.993
X-181.904 Y-400.971
X-181.85 Y-400.944
X-181.741 Y-400.875
X-181.685 Y-400.833
X-181.641 Y-400.794
X-181.597 Y-400.746
X-181.523 Y-400.658
X-181.493 Y-400.616
X-181.436 Y-400.507
X-181.39 Y-400.398
X-181.374 Y-400.344
X-181.363 Y-400.289
X-181.347 Y-400.18
X-181.344 Y-400.072
X-181.356 Y-399.963
X-181.374 Y-399.854
X-181.391 Y-399.799
X-181.413 Y-399.745
X-181.46 Y-399.643
X-181.488 Y-399.592
X-181.523 Y-399.541
X-181.534 Y-399.527
X-181.637 Y-399.411
X-181.689 Y-399.363
X-181.741 Y-399.325
X-181.862 Y-399.249
X-181.91 Y-399.226
X-181.959 Y-399.207
X-182.067 Y-399.174
X-182.176 Y-399.151
X-182.285 Y-399.146
X-182.394 Y-399.148
X-182.503 Y-399.166
X-182.612 Y-399.197
X-182.666 Y-399.216
X-182.72 Y-399.24
X-182.835 Y-399.31
X-182.941 Y-399.39
X-183.047 Y-399.505
X-183.066 Y-399.527
X-183.105 Y-399.582
X-183.136 Y-399.636
X-183.187 Y-399.745
X-183.209 Y-399.799
X-183.226 Y-399.854
X-183.244 Y-399.963
X-183.256 Y-400.072
G3 X-183.195 Y-400.297 I0.599 J0.042
G0 Z33

(2D Contour6)
S8000 M3
M9
X-182.3 Y-400.1
Z33
Z23
G1 Z7 F850
G3 X-182 Y-400.4 I0.3
G1 X-177.9
G3 X-177.6 Y-400.1 J0.3
X-187 I-4.7
X-177.6 I4.7
X-187 I-4.7
X-177.6 I4.7
X-178.2 Y-399.5 I-0.6
G1 X-178.8
G18 G3 X-179.4 Z7.6 K0.6
G0 Z33
G17

(2D Contour8)
M9
G0 X-182.3 Y-400.1
Z33
Z23
G1 Z0 F850
G3 X-182 Y-400.4 I0.3
G1 X-181.1
G3 X-180.8 Y-400.1 J0.3
X-183.8 I-1.5
X-180.8 I1.5
X-183.8 I-1.5
X-180.8 I1.5
X-181.4 Y-399.5 I-0.6
G1 X-182
G18 G3 X-182.6 Z0.6 K0.6
G0 Z33
G17

(2D Adaptive13)
S6000 M3
M9
G0 X-182.3 Y-475.1
Z33
Z23
Z18.65
G1 Z18.05 F850
Z7
X-182.332 Y-475.08
X-182.363 Y-475.102
X-182.36 Y-475.139
X-182.337 Y-475.168
X-182.301 Y-475.181
X-182.264 Y-475.176
X-182.234 Y-475.155
X-182.215 Y-475.122
X-182.213 Y-475.084
X-182.227 Y-475.049
X-182.253 Y-475.023
X-182.288 Y-475.008
X-182.325 Y-475.003
X-182.362 Y-475.01
X-182.394 Y-475.029
X-182.419 Y-475.057
X-182.434 Y-475.092
X-182.439 Y-475.129
X-182.432 Y-475.166
X-182.401 Y-475.234
X-182.34 Y-475.278
X-182.266 Y-475.29
X-182.194 Y-475.271
X-182.134 Y-475.225
X-182.096 Y-475.16
X-182.085 Y-475.086
X-182.099 Y-475.013
X-182.136 Y-474.948
X-182.192 Y-474.897
X-182.26 Y-474.866
X-182.334 Y-474.856
X-182.408 Y-474.868
X-182.476 Y-474.901
X-182.532 Y-474.95
X-182.614 Y-475.076
X-182.624 Y-475.226
X-182.567 Y-475.365
X-182.457 Y-475.467
X-182.317 Y-475.519
X-182.167 Y-475.515
X-182.028 Y-475.458
X-181.917 Y-475.357
X-181.845 Y-475.225
X-181.82 Y-475.077
X-181.841 Y-474.929
X-181.905 Y-474.794
X-182.007 Y-474.683
X-182.135 Y-474.606
X-182.28 Y-474.567
X-182.43 Y-474.57
X-182.575 Y-474.609
X-182.705 Y-474.684
X-182.814 Y-474.788
X-182.893 Y-474.915
X-182.941 Y-475.057
X-182.954 Y-475.206
X-182.934 Y-475.355
X-182.88 Y-475.495
X-182.798 Y-475.621
X-182.691 Y-475.726
X-182.565 Y-475.807
X-182.424 Y-475.86
X-182.276 Y-475.884
X-182.126 Y-475.879
X-181.981 Y-475.844
X-181.843 Y-475.784
X-181.72 Y-475.698
X-181.614 Y-475.592
X-181.53 Y-475.468
X-181.468 Y-475.331
X-181.431 Y-475.186
X-181.421 Y-475.036
X-181.436 Y-474.887
X-181.475 Y-474.742
X-181.538 Y-474.606
X-181.622 Y-474.482
X-181.726 Y-474.374
X-181.845 Y-474.282
X-181.977 Y-474.212
X-182.119 Y-474.161
X-182.266 Y-474.133
X-182.416 Y-474.128
X-182.565 Y-474.145
X-182.71 Y-474.183
X-182.848 Y-474.242
X-182.976 Y-474.32
X-183.091 Y-474.416
X-183.193 Y-474.527
X-183.277 Y-474.651
X-183.344 Y-474.785
X-183.392 Y-474.927
X-183.42 Y-475.075
X-183.429 Y-475.224
X-183.417 Y-475.374
X-183.386 Y-475.521
X-183.337 Y-475.662
X-183.27 Y-475.796
X-183.186 Y-475.921
X-183.088 Y-476.034
X-182.976 Y-476.134
X-182.853 Y-476.219
X-182.72 Y-476.289
X-182.579 Y-476.342
X-182.434 Y-476.378
X-182.285 Y-476.396
X-182.135 Y-476.397
X-181.986 Y-476.381
X-181.84 Y-476.347
X-181.698 Y-476.297
X-181.564 Y-476.231
X-181.437 Y-476.15
X-181.321 Y-476.056
X-181.215 Y-475.949
X-181.122 Y-475.831
X-181.043 Y-475.704
X-180.978 Y-475.569
X-180.927 Y-475.428
X-180.892 Y-475.282
X-180.873 Y-475.133
X-180.869 Y-474.983
X-180.881 Y-474.834
X-180.909 Y-474.686
X-180.951 Y-474.542
X-181.009 Y-474.404
X-181.08 Y-474.272
X-181.164 Y-474.147
X-181.26 Y-474.032
X-181.367 Y-473.927
X-181.483 Y-473.833
X-181.609 Y-473.751
X-181.742 Y-473.681
X-181.881 Y-473.625
X-182.025 Y-473.582
X-182.172 Y-473.553
X-182.321 Y-473.538
X-182.471
X-182.621 Y-473.551
X-182.768 Y-473.579
X-182.912 Y-473.62
X-183.052 Y-473.673
X-183.187 Y-473.74
X-183.315 Y-473.818
X-183.435 Y-473.908
X-183.546 Y-474.008
X-183.649 Y-474.118
X-183.741 Y-474.236
X-183.822 Y-474.363
X-183.892 Y-474.495
X-183.95 Y-474.634
X-183.996 Y-474.777
X-184.029 Y-474.923
X-184.049 Y-475.071
X-184.057 Y-475.221
X-184.052 Y-475.371
X-184.034 Y-475.52
X-184.004 Y-475.667
X-183.961 Y-475.811
X-183.907 Y-475.951
X-183.842 Y-476.086
X-183.765 Y-476.215
X-183.678 Y-476.337
X-183.582 Y-476.452
X-183.476 Y-476.558
X-183.363 Y-476.656
X-183.241 Y-476.744
X-183.113 Y-476.823
X-182.98 Y-476.891
X-182.841 Y-476.948
X-182.698 Y-476.994
X-182.552 Y-477.028
X-182.404 Y-477.051
X-182.254 Y-477.063
X-182.104
X-181.955 Y-477.052
X-181.807 Y-477.028
X-181.66 Y-476.994
X-181.517 Y-476.949
X-181.378 Y-476.893
X-181.244 Y-476.827
X-181.114 Y-476.751
X-180.991 Y-476.666
X-180.874 Y-476.571
X-180.765 Y-476.469
X-180.664 Y-476.358
X-180.571 Y-476.24
X-180.486 Y-476.116
X-180.411 Y-475.986
X-180.346 Y-475.851
X-180.29 Y-475.712
X-180.245 Y-475.569
X-180.21 Y-475.423
X-180.185 Y-475.275
X-180.171 Y-475.126
X-180.168 Y-474.976
X-180.175 Y-474.826
X-180.193 Y-474.677
X-180.221 Y-474.53
X-180.259 Y-474.385
X-180.307 Y-474.243
X-180.365 Y-474.104
X-180.432 Y-473.97
X-180.508 Y-473.841
X-180.593 Y-473.717
X-180.686 Y-473.599
X-180.786 Y-473.488
X-180.894 Y-473.384
X-181.009 Y-473.288
X-181.13 Y-473.199
X-181.257 Y-473.118
X-181.388 Y-473.046
X-181.524 Y-472.983
X-181.664 Y-472.929
X-181.807 Y-472.885
X-181.953 Y-472.849
X-182.101 Y-472.823
X-182.25 Y-472.807
X-182.4 Y-472.801
X-182.55 Y-472.804
X-182.699 Y-472.817
X-182.848 Y-472.84
X-182.994 Y-472.872
X-183.139 Y-472.913
X-183.28 Y-472.963
X-183.418 Y-473.022
X-183.552 Y-473.089
X-183.681 Y-473.165
X-183.806 Y-473.249
X-183.925 Y-473.34
X-184.038 Y-473.439
X-184.145 Y-473.544
X-184.245 Y-473.656
X-184.338 Y-473.773
X-184.423 Y-473.897
X-184.501 Y-474.025
X-184.571 Y-474.157
X-184.633 Y-474.294
X-184.687 Y-474.434
X-184.732 Y-474.577
X-184.768 Y-474.723
X-184.795 Y-474.87
X-184.814 Y-475.019
X-184.824 Y-475.169
Y-475.319
X-184.816 Y-475.469
X-184.799 Y-475.618
X-184.774 Y-475.765
X-184.739 Y-475.911
X-184.697 Y-476.055
X-184.646 Y-476.196
X-184.586 Y-476.334
X-184.519 Y-476.468
X-184.445 Y-476.598
X-184.363 Y-476.724
X-184.274 Y-476.845
X-184.178 Y-476.96
X-184.075 Y-477.07
X-183.967 Y-477.173
X-183.852 Y-477.272
X-183.732 Y-477.362
X-183.608 Y-477.446
X-183.478 Y-477.524
X-183.342 Y-477.594
X-183.205 Y-477.656
X-183.065 Y-477.71
X-182.918 Y-477.757
X-182.77 Y-477.796
X-182.621 Y-477.825
X-182.47 Y-477.847
X-182.315 Y-477.86
X-182.16 Y-477.865
X-182.007 Y-477.861
X-181.853 Y-477.848
X-181.697 Y-477.826
X-181.543 Y-477.795
X-181.393 Y-477.757
X-181.244 Y-477.709
X-181.095 Y-477.652
X-180.951 Y-477.587
X-180.812 Y-477.515
X-180.676 Y-477.435
X-180.542 Y-477.346
X-180.414 Y-477.249
X-180.293 Y-477.146
X-180.178 Y-477.036
X-180.067 Y-476.919
X-179.962 Y-476.794
X-179.865 Y-476.664
X-179.776 Y-476.531
X-179.694 Y-476.391
X-179.619 Y-476.245
X-179.553 Y-476.094
X-179.495 Y-475.941
X-179.446 Y-475.785
X-179.406 Y-475.626
X-179.374 Y-475.462
X-179.351 Y-475.297
X-179.338 Y-475.132
X-179.335 Y-474.966
X-179.34 Y-474.8
X-179.355 Y-474.632
X-179.38 Y-474.465
X-179.414 Y-474.299
X-179.457 Y-474.137
X-179.509 Y-473.977
X-179.571 Y-473.819
X-179.642 Y-473.663
X-179.722 Y-473.511
X-179.81 Y-473.364
X-179.906 Y-473.222
X-180.01 Y-473.086
X-180.122 Y-472.955
X-180.243 Y-472.83
X-180.371 Y-472.711
X-180.506 Y-472.6
X-180.646 Y-472.496
X-180.792 Y-472.401
X-180.943 Y-472.313
X-181.1 Y-472.234
X-181.262 Y-472.164
X-181.429 Y-472.102
X-181.599 Y-472.05
X-181.772 Y-472.007
X-181.947 Y-471.974
X-182.123 Y-471.951
X-182.301 Y-471.939
X-182.48 Y-471.936
X-182.661 Y-471.943
X-182.841 Y-471.96
X-183.021 Y-471.988
X-183.199 Y-472.026
X-183.375 Y-472.073
X-183.548 Y-472.131
X-183.717 Y-472.198
X-183.883 Y-472.275
X-184.044 Y-472.361
X-184.202 Y-472.457
X-184.354 Y-472.562
X-184.501 Y-472.676
X-184.642 Y-472.798
X-184.775 Y-472.929
X-184.902 Y-473.067
X-185.02 Y-473.211
X-185.131 Y-473.363
X-185.233 Y-473.521
X-185.326 Y-473.685
X-185.41 Y-473.854
X-185.484 Y-474.028
X-185.549 Y-474.206
X-185.603 Y-474.388
X-185.648 Y-474.574
X-185.682 Y-474.762
X-185.705 Y-474.953
X-185.718 Y-475.145
X-185.72 Y-475.338
X-185.711 Y-475.531
X-185.691 Y-475.724
X-185.66 Y-475.916
X-185.619 Y-476.106
X-185.566 Y-476.295
X-185.503 Y-476.48
X-185.429 Y-476.662
X-185.345 Y-476.84
X-185.251 Y-477.014
X-185.148 Y-477.182
X-185.034 Y-477.344
X-184.911 Y-477.501
X-184.78 Y-477.65
X-184.639 Y-477.792
X-184.491 Y-477.927
X-184.335 Y-478.053
X-184.171 Y-478.17
X-184.001 Y-478.278
X-183.825 Y-478.377
X-183.643 Y-478.466
X-183.455 Y-478.545
X-183.264 Y-478.613
X-183.068 Y-478.67
X-182.868 Y-478.717
X-182.666 Y-478.752
X-182.462 Y-478.776
X-182.256 Y-478.788
X-182.05 Y-478.789
X-181.843 Y-478.778
X-181.637 Y-478.755
X-181.431 Y-478.721
X-181.228 Y-478.675
X-181.027 Y-478.618
X-180.829 Y-478.549
X-180.635 Y-478.469
X-180.445 Y-478.378
X-180.26 Y-478.276
X-180.081 Y-478.164
X-179.908 Y-478.041
X-179.742 Y-477.909
X-179.583 Y-477.767
X-179.432 Y-477.616
X-179.289 Y-477.457
X-179.156 Y-477.289
X-179.031 Y-477.114
X-178.917 Y-476.931
X-178.812 Y-476.742
X-178.719 Y-476.547
X-178.636 Y-476.346
X-178.565 Y-476.141
X-178.505 Y-475.931
X-178.456 Y-475.718
X-178.42 Y-475.502
X-178.396 Y-475.284
X-178.384 Y-475.065
X-178.385 Y-474.844
X-178.398 Y-474.623
X-178.424 Y-474.403
X-178.462 Y-474.184
X-178.512 Y-473.968
X-178.575 Y-473.754
X-178.649 Y-473.543
X-178.736 Y-473.336
X-178.835 Y-473.134
X-178.945 Y-472.938
X-179.066 Y-472.747
X-179.197 Y-472.564
X-179.34 Y-472.387
X-179.492 Y-472.219
X-179.654 Y-472.059
X-179.825 Y-471.908
X-180.005 Y-471.766
X-180.193 Y-471.635
X-180.389 Y-471.514
X-180.591 Y-471.404
X-180.799 Y-471.306
X-181.014 Y-471.219
X-181.233 Y-471.144
X-181.457 Y-471.081
X-181.685 Y-471.031
X-181.915 Y-470.994
X-182.148 Y-470.97
X-182.382 Y-470.959
X-182.617 Y-470.961
X-182.707 Y-470.968
X-182.738 Y-470.972
X-182.829 Y-470.982
X-183.156 Y-471.019
X-183.21 Y-471.027
X-183.265 Y-471.04
X-183.283 Y-471.046
X-183.917 Y-471.268
X-184.135 Y-471.352
X-184.353 Y-471.487
X-184.788 Y-471.76
X-184.888 Y-471.826
X-184.988 Y-471.916
X-185.441 Y-472.37
X-185.538 Y-472.469
X-185.613 Y-472.569
X-186.023 Y-473.222
X-186.064 Y-473.298
X-186.094 Y-473.373
X-186.346 Y-474.092
X-186.375 Y-474.201
X-186.389 Y-474.31
X-186.462 Y-474.963
X-186.473 Y-475.072
X-186.469 Y-475.18
X-186.395 Y-475.833
X-186.363 Y-476.051
X-186.311 Y-476.205
X-186.094 Y-476.827
X-186.055 Y-476.921
X-185.922 Y-477.139
X-185.648 Y-477.574
X-185.578 Y-477.683
X-185.48 Y-477.792
X-185.006 Y-478.266
X-184.897 Y-478.367
X-184.781 Y-478.444
X-184.353 Y-478.713
X-184.135 Y-478.847
X-184.066 Y-478.88
X-183.446 Y-479.097
X-183.265 Y-479.16
X-183.047 Y-479.194
X-182.394 Y-479.267
X-182.285 Y-479.273
X-182.176 Y-479.264
X-181.523 Y-479.19
X-181.415 Y-479.177
X-181.306 Y-479.15
X-180.534 Y-478.88
X-180.435 Y-478.831
X-179.782 Y-478.421
X-179.673 Y-478.343
X-179.555 Y-478.227
X-179.12 Y-477.792
X-179.022 Y-477.683
X-178.952 Y-477.574
X-178.678 Y-477.139
X-178.545 Y-476.921
X-178.476 Y-476.742
X-178.259 Y-476.12
X-178.236 Y-476.051
X-178.205 Y-475.833
X-178.131 Y-475.18
X-178.127 Y-475.072
X-178.138 Y-474.963
X-178.211 Y-474.31
X-178.225 Y-474.201
X-178.254 Y-474.092
X-178.483 Y-473.439
X-178.522 Y-473.331
X-178.546 Y-473.276
X-178.577 Y-473.222
X-178.987 Y-472.569
X-179.048 Y-472.484
X-179.129 Y-472.399
X-179.612 Y-471.916
X-179.697 Y-471.837
X-179.782 Y-471.779
X-180.435 Y-471.369
X-180.49 Y-471.339
X-180.544 Y-471.316
X-181.317 Y-471.046
X-181.368 Y-471.031
X-181.42 Y-471.022
X-182.176 Y-470.936
X-182.285 Y-470.927
X-182.394 Y-470.933
X-182.738 Y-470.972
G3 X-182.958 Y-471.05 I0.088 J-0.594
G1 X-183.039 Y-471.099 Z7.007
X-183.117 Y-471.146 Z7.029
X-183.192 Y-471.19 Z7.065
X-183.261 Y-471.232 Z7.115
X-183.322 Y-471.268 Z7.176
X-183.375 Y-471.3 Z7.247
X-183.417 Y-471.325 Z7.328
X-183.448 Y-471.344 Z7.415
X-183.467 Y-471.355 Z7.506
X-183.473 Y-471.359 Z7.6
G0 Z33

(2D Adaptive14)
M9
X-182.3 Y-475.101
Z33
Z23
Z18.65
G1 Z18.05 F850
Z-0.5
X-182.32 Y-475.133
X-182.297 Y-475.162
X-182.259 Y-475.159
X-182.231 Y-475.135
X-182.219 Y-475.099
X-182.225 Y-475.062
X-182.247 Y-475.032
X-182.28 Y-475.015
X-182.318 Y-475.013
X-182.352 Y-475.028
X-182.378 Y-475.055
X-182.392 Y-475.09
X-182.396 Y-475.127
X-182.389 Y-475.164
X-182.369 Y-475.196
X-182.34 Y-475.22
X-182.305 Y-475.234
X-182.268 Y-475.238
X-182.231 Y-475.231
X-182.164 Y-475.198
X-182.121 Y-475.136
X-182.111 Y-475.062
X-182.132 Y-474.99
X-182.179 Y-474.932
X-182.244 Y-474.895
X-182.319 Y-474.885
X-182.392 Y-474.901
X-182.456 Y-474.94
X-182.505 Y-474.996
X-182.535 Y-475.065
X-182.543 Y-475.14
X-182.529 Y-475.214
X-182.496 Y-475.28
X-182.445 Y-475.335
X-182.317 Y-475.414
X-182.167 Y-475.421
X-182.03 Y-475.361
X-181.93 Y-475.249
X-181.881 Y-475.107
X-181.888 Y-474.958
X-181.948 Y-474.82
X-182.051 Y-474.711
X-182.185 Y-474.643
X-182.333 Y-474.62
X-182.481 Y-474.645
X-182.615 Y-474.712
X-182.723 Y-474.816
X-182.798 Y-474.946
X-182.833 Y-475.092
X-182.827 Y-475.242
X-182.785 Y-475.386
X-182.707 Y-475.514
X-182.601 Y-475.62
X-182.472 Y-475.697
X-182.329 Y-475.742
X-182.18 Y-475.752
X-182.031 Y-475.728
X-181.893 Y-475.671
X-181.769 Y-475.587
X-181.666 Y-475.477
X-181.588 Y-475.349
X-181.537 Y-475.208
X-181.517 Y-475.06
X-181.525 Y-474.91
X-181.563 Y-474.765
X-181.626 Y-474.629
X-181.714 Y-474.508
X-181.823 Y-474.404
X-181.948 Y-474.322
X-182.087 Y-474.264
X-182.233 Y-474.23
X-182.383 Y-474.223
X-182.532 Y-474.24
X-182.675 Y-474.283
X-182.81 Y-474.349
X-182.933 Y-474.435
X-183.039 Y-474.541
X-183.127 Y-474.663
X-183.195 Y-474.796
X-183.224 Y-474.894
X-183.243 Y-474.982
X-183.256 Y-475.072
X-183.253 Y-475.18
X-183.237 Y-475.289
X-183.226 Y-475.344
X-183.21 Y-475.398
X-183.164 Y-475.507
X-183.107 Y-475.616
X-183.047 Y-475.696
X-182.987 Y-475.764
X-182.914 Y-475.833
X-182.829 Y-475.894
X-182.72 Y-475.96
X-182.666 Y-475.984
X-182.612 Y-476.003
X-182.512 Y-476.032
X-182.412 Y-476.051
X-182.394 Y-476.052
X-182.292 Y-476.054
X-182.19 Y-476.051
X-182.176 Y-476.049
X-182.067 Y-476.026
X-181.959 Y-475.993
X-181.904 Y-475.971
X-181.85 Y-475.944
X-181.741 Y-475.875
X-181.685 Y-475.833
X-181.641 Y-475.794
X-181.597 Y-475.746
X-181.523 Y-475.658
X-181.493 Y-475.616
X-181.436 Y-475.507
X-181.39 Y-475.398
X-181.374 Y-475.344
X-181.363 Y-475.289
X-181.347 Y-475.18
X-181.344 Y-475.072
X-181.356 Y-474.963
X-181.374 Y-474.854
X-181.391 Y-474.799
X-181.413 Y-474.745
X-181.46 Y-474.643
X-181.488 Y-474.592
X-181.523 Y-474.541
X-181.534 Y-474.527
X-181.637 Y-474.411
X-181.689 Y-474.363
X-181.741 Y-474.325
X-181.862 Y-474.249
X-181.91 Y-474.226
X-181.959 Y-474.207
X-182.067 Y-474.174
X-182.176 Y-474.151
X-182.285 Y-474.146
X-182.394 Y-474.148
X-182.503 Y-474.166
X-182.612 Y-474.197
X-182.666 Y-474.216
X-182.72 Y-474.24
X-182.835 Y-474.31
X-182.941 Y-474.39
X-183.047 Y-474.505
X-183.066 Y-474.527
X-183.105 Y-474.582
X-183.136 Y-474.636
X-183.187 Y-474.745
X-183.209 Y-474.799
X-183.226 Y-474.854
X-183.244 Y-474.963
X-183.256 Y-475.072
G3 X-183.195 Y-475.297 I0.599 J0.042
G0 Z33

(2D Contour6)
S8000 M3
M9
X-182.3 Y-475.1
Z33
Z23
G1 Z7 F850
G3 X-182 Y-475.4 I0.3
G1 X-177.9
G3 X-177.6 Y-475.1 J0.3
X-187 I-4.7
X-177.6 I4.7
X-187 I-4.7
X-177.6 I4.7
X-178.2 Y-474.5 I-0.6
G1 X-178.8
G18 G3 X-179.4 Z7.6 K0.6
G0 Z33
G17

(2D Contour8)
M9
G0 X-182.3 Y-475.1
Z33
Z23
G1 Z0 F850
G3 X-182 Y-475.4 I0.3
G1 X-181.1
G3 X-180.8 Y-475.1 J0.3
X-183.8 I-1.5
X-180.8 I1.5
X-183.8 I-1.5
X-180.8 I1.5
X-181.4 Y-474.5 I-0.6
G1 X-182
G18 G3 X-182.6 Z0.6 K0.6
G0 Z33
G17

(2D Adaptive13)
S6000 M3
M9
G0 X-182.3 Y-550.1
Z33
Z23
Z18.65
G1 Z18.05 F850
Z7
X-182.332 Y-550.08
X-182.363 Y-550.102
X-182.36 Y-550.139
X-182.337 Y-550.168
X-182.301 Y-550.181
X-182.264 Y-550.176
X-182.234 Y-550.155
X-182.215 Y-550.122
X-182.213 Y-550.084
X-182.227 Y-550.049
X-182.253 Y-550.023
X-182.288 Y-550.008
X-182.325 Y-550.003
X-182.362 Y-550.01
X-182.394 Y-550.029
X-182.419 Y-550.057
X-182.434 Y-550.092
X-182.439 Y-550.129
X-182.432 Y-550.166
X-182.401 Y-550.234
X-182.34 Y-550.278
X-182.266 Y-550.29
X-182.194 Y-550.271
X-182.134 Y-550.225
X-182.096 Y-550.16
X-182.085 Y-550.086
X-182.099 Y-550.013
X-182.136 Y-549.948
X-182.192 Y-549.897
X-182.26 Y-549.866
X-182.334 Y-549.856
X-182.408 Y-549.868
X-182.476 Y-549.901
X-182.532 Y-549.95
X-182.614 Y-550.076
X-182.624 Y-550.226
X-182.567 Y-550.365
X-182.457 Y-550.467
X-182.317 Y-550.519
X-182.167 Y-550.515
X-182.028 Y-550.458
X-181.917 Y-550.357
X-181.845 Y-550.225
X-181.82 Y-550.077
X-181.841 Y-549.929
X-181.905 Y-549.794
X-182.007 Y-549.683
X-182.135 Y-549.606
X-182.28 Y-549.567
X-182.43 Y-549.57
X-182.575 Y-549.609
X-182.705 Y-549.684
X-182.814 Y-549.788
X-182.893 Y-549.915
X-182.941 Y-550.057
X-182.954 Y-550.206
X-182.934 Y-550.355
X-182.88 Y-550.495
X-182.798 Y-550.621
X-182.691 Y-550.726
X-182.565 Y-550.807
X-182.424 Y-550.86
X-182.276 Y-550.884
X-182.126 Y-550.879
X-181.981 Y-550.844
X-181.843 Y-550.784
X-181.72 Y-550.698
X-181.614 Y-550.592
X-181.53 Y-550.468
X-181.468 Y-550.331
X-181.431 Y-550.186
X-181.421 Y-550.036
X-181.436 Y-549.887
X-181.475 Y-549.742
X-181.538 Y-549.606
X-181.622 Y-549.482
X-181.726 Y-549.374
X-181.845 Y-549.282
X-181.977 Y-549.212
X-182.119 Y-549.161
X-182.266 Y-549.133
X-182.416 Y-549.128
X-182.565 Y-549.145
X-182.71 Y-549.183
X-182.848 Y-549.242
X-182.976 Y-549.32
X-183.091 Y-549.416
X-183.193 Y-549.527
X-183.277 Y-549.651
X-183.344 Y-549.785
X-183.392 Y-549.927
X-183.42 Y-550.075
X-183.429 Y-550.224
X-183.417 Y-550.374
X-183.386 Y-550.521
X-183.337 Y-550.662
X-183.27 Y-550.796
X-183.186 Y-550.921
X-183.088 Y-551.034
X-182.976 Y-551.134
X-182.853 Y-551.219
X-182.72 Y-551.289
X-182.579 Y-551.342
X-182.434 Y-551.378
X-182.285 Y-551.396
X-182.135 Y-551.397
X-181.986 Y-551.381
X-181.84 Y-551.347
X-181.698 Y-551.297
X-181.564 Y-551.231
X-181.437 Y-551.15
X-181.321 Y-551.056
X-181.215 Y-550.949
X-181.122 Y-550.831
X-181.043 Y-550.704
X-180.978 Y-550.569
X-180.927 Y-550.428
X-180.892 Y-550.282
X-180.873 Y-550.133
X-180.869 Y-549.983
X-180.881 Y-549.834
X-180.909 Y-549.686
X-180.951 Y-549.542
X-181.009 Y-549.404
X-181.08 Y-549.272
X-181.164 Y-549.147
X-181.26 Y-549.032
X-181.367 Y-548.927
X-181.483 Y-548.833
X-181.609 Y-548.751
X-181.742 Y-548.681
X-181.881 Y-548.625
X-182.025 Y-548.582
X-182.172 Y-548.553
X-182.321 Y-548.538
X-182.471
X-182.621 Y-548.551
X-182.768 Y-548.579
X-182.912 Y-548.62
X-183.052 Y-548.673
X-183.187 Y-548.74
X-183.315 Y-548.818
X-183.435 Y-548.908
X-183.546 Y-549.008
X-183.649 Y-549.118
X-183.741 Y-549.236
X-183.822 Y-549.363
X-183.892 Y-549.495
X-183.95 Y-549.634
X-183.996 Y-549.777
X-184.029 Y-549.923
X-184.049 Y-550.071
X-184.057 Y-550.221
X-184.052 Y-550.371
X-184.034 Y-550.52
X-184.004 Y-550.667
X-183.961 Y-550.811
X-183.907 Y-550.951
X-183.842 Y-551.086
X-183.765 Y-551.215
X-183.678 Y-551.337
X-183.582 Y-551.452
X-183.476 Y-551.558
X-183.363 Y-551.656
X-183.241 Y-551.744
X-183.113 Y-551.823
X-182.98 Y-551.891
X-182.841 Y-551.948
X-182.698 Y-551.994
X-182.552 Y-552.028
X-182.404 Y-552.051
X-182.254 Y-552.063
X-182.104
X-181.955 Y-552.052
X-181.807 Y-552.028
X-181.66 Y-551.994
X-181.517 Y-551.949
X-181.378 Y-551.893
X-181.244 Y-551.827
X-181.114 Y-551.751
X-180.991 Y-551.666
X-180.874 Y-551.571
X-180.765 Y-551.469
X-180.664 Y-551.358
X-180.571 Y-551.24
X-180.486 Y-551.116
X-180.411 Y-550.986
X-180.346 Y-550.851
X-180.29 Y-550.712
X-180.245 Y-550.569
X-180.21 Y-550.423
X-180.185 Y-550.275
X-180.171 Y-550.126
X-180.168 Y-549.976
X-180.175 Y-549.826
X-180.193 Y-549.677
X-180.221 Y-549.53
X-180.259 Y-549.385
X-180.307 Y-549.243
X-180.365 Y-549.104
X-180.432 Y-548.97
X-180.508 Y-548.841
X-180.593 Y-548.717
X-180.686 Y-548.599
X-180.786 Y-548.488
X-180.894 Y-548.384
X-181.009 Y-548.288
X-181.13 Y-548.199
X-181.257 Y-548.118
X-181.388 Y-548.046
X-181.524 Y-547.983
X-181.664 Y-547.929
X-181.807 Y-547.885
X-181.953 Y-547.849
X-182.101 Y-547.823
X-182.25 Y-547.807
X-182.4 Y-547.801
X-182.55 Y-547.804
X-182.699 Y-547.817
X-182.848 Y-547.84
X-182.994 Y-547.872
X-183.139 Y-547.913
X-183.28 Y-547.963
X-183.418 Y-548.022
X-183.552 Y-548.089
X-183.681 Y-548.165
X-183.806 Y-548.249
X-183.925 Y-548.34
X-184.038 Y-548.439
X-184.145 Y-548.544
X-184.245 Y-548.656
X-184.338 Y-548.773
X-184.423 Y-548.897
X-184.501 Y-549.025
X-184.571 Y-549.157
X-184.633 Y-549.294
X-184.687 Y-549.434
X-184.732 Y-549.577
X-184.768 Y-549.723
X-184.795 Y-549.87
X-184.814 Y-550.019
X-184.824 Y-550.169
Y-550.319
X-184.816 Y-550.469
X-184.799 Y-550.618
X-184.774 Y-550.765
X-184.739 Y-550.911
X-184.697 Y-551.055
X-184.646 Y-551.196
X-184.586 Y-551.334
X-184.519 Y-551.468
X-184.445 Y-551.598
X-184.363 Y-551.724
X-184.274 Y-551.845
X-184.178 Y-551.96
X-184.075 Y-552.07
X-183.967 Y-552.173
X-183.852 Y-552.272
X-183.732 Y-552.362
X-183.608 Y-552.446
X-183.478 Y-552.524
X-183.342 Y-552.594
X-183.205 Y-552.656
X-183.065 Y-552.71
X-182.918 Y-552.757
X-182.77 Y-552.796
X-182.621 Y-552.825
X-182.47 Y-552.847
X-182.315 Y-552.86
X-182.16 Y-552.865
X-182.007 Y-552.861
X-181.853 Y-552.848
X-181.697 Y-552.826
X-181.543 Y-552.795
X-181.393 Y-552.757
X-181.244 Y-552.709
X-181.095 Y-552.652
X-180.951 Y-552.587
X-180.812 Y-552.515
X-180.676 Y-552.435
X-180.542 Y-552.346
X-180.414 Y-552.249
X-180.293 Y-552.146
X-180.178 Y-552.036
X-180.067 Y-551.919
X-179.962 Y-551.794
X-179.865 Y-551.664
X-179.776 Y-551.531
X-179.694 Y-551.391
X-179.619 Y-551.245
X-179.553 Y-551.094
X-179.495 Y-550.941
X-179.446 Y-550.785
X-179.406 Y-550.626
X-179.374 Y-550.462
X-179.351 Y-550.297
X-179.338 Y-550.132
X-179.335 Y-549.966
X-179.34 Y-549.8
X-179.355 Y-549.632
X-179.38 Y-549.465
X-179.414 Y-549.299
X-179.457 Y-549.137
X-179.509 Y-548.977
X-179.571 Y-548.819
X-179.642 Y-548.663
X-179.722 Y-548.511
X-179.81 Y-548.364
X-179.906 Y-548.222
X-180.01 Y-548.086
X-180.122 Y-547.955
X-180.243 Y-547.83
X-180.371 Y-547.711
X-180.506 Y-547.6
X-180.646 Y-547.496
X-180.792 Y-547.401
X-180.943 Y-547.313
X-181.1 Y-547.234
X-181.262 Y-547.164
X-181.429 Y-547.102
X-181.599 Y-547.05
X-181.772 Y-547.007
X-181.947 Y-546.974
X-182.123 Y-546.951
X-182.301 Y-546.939
X-182.48 Y-546.936
X-182.661 Y-546.943
X-182.841 Y-546.96
X-183.021 Y-546.988
X-183.199 Y-547.026
X-183.375 Y-547.073
X-183.548 Y-547.131
X-183.717 Y-547.198
X-183.883 Y-547.275
X-184.044 Y-547.361
X-184.202 Y-547.457
X-184.354 Y-547.562
X-184.501 Y-547.676
X-184.642 Y-547.798
X-184.775 Y-547.929
X-184.902 Y-548.067
X-185.02 Y-548.211
X-185.131 Y-548.363
X-185.233 Y-548.521
X-185.326 Y-548.685
X-185.41 Y-548.854
X-185.484 Y-549.028
X-185.549 Y-549.206
X-185.603 Y-549.388
X-185.648 Y-549.574
X-185.682 Y-549.762
X-185.705 Y-549.953
X-185.718 Y-550.145
X-185.72 Y-550.338
X-185.711 Y-550.531
X-185.691 Y-550.724
X-185.66 Y-550.916
X-185.619 Y-551.106
X-185.566 Y-551.295
X-185.503 Y-551.48
X-185.429 Y-551.662
X-185.345 Y-551.84
X-185.251 Y-552.014
X-185.148 Y-552.182
X-185.034 Y-552.344
X-184.911 Y-552.501
X-184.78 Y-552.65
X-184.639 Y-552.792
X-184.491 Y-552.927
X-184.335 Y-553.053
X-184.171 Y-553.17
X-184.001 Y-553.278
X-183.825 Y-553.377
X-183.643 Y-553.466
X-183.455 Y-553.545
X-183.264 Y-553.613
X-183.068 Y-553.67
X-182.868 Y-553.717
X-182.666 Y-553.752
X-182.462 Y-553.776
X-182.256 Y-553.788
X-182.05 Y-553.789
X-181.843 Y-553.778
X-181.637 Y-553.755
X-181.431 Y-553.721
X-181.228 Y-553.675
X-181.027 Y-553.618
X-180.829 Y-553.549
X-180.635 Y-553.469
X-180.445 Y-553.378
X-180.26 Y-553.276
X-180.081 Y-553.164
X-179.908 Y-553.041
X-179.742 Y-552.909
X-179.583 Y-552.767
X-179.432 Y-552.616
X-179.289 Y-552.457
X-179.156 Y-552.289
X-179.031 Y-552.114
X-178.917 Y-551.931
X-178.812 Y-551.742
X-178.719 Y-551.547
X-178.636 Y-551.346
X-178.565 Y-551.141
X-178.505 Y-550.931
X-178.456 Y-550.718
X-178.42 Y-550.502
X-178.396 Y-550.284
X-178.384 Y-550.065
X-178.385 Y-549.844
X-178.398 Y-549.623
X-178.424 Y-549.403
X-178.462 Y-549.184
X-178.512 Y-548.968
X-178.575 Y-548.754
X-178.649 Y-548.543
X-178.736 Y-548.336
X-178.835 Y-548.134
X-178.945 Y-547.938
X-179.066 Y-547.747
X-179.197 Y-547.564
X-179.34 Y-547.387
X-179.492 Y-547.219
X-179.654 Y-547.059
X-179.825 Y-546.908
X-180.005 Y-546.766
X-180.193 Y-546.635
X-180.389 Y-546.514
X-180.591 Y-546.404
X-180.799 Y-546.306
X-181.014 Y-546.219
X-181.233 Y-546.144
X-181.457 Y-546.081
X-181.685 Y-546.031
X-181.915 Y-545.994
X-182.148 Y-545.97
X-182.382 Y-545.959
X-182.617 Y-545.961
X-182.707 Y-545.968
X-182.738 Y-545.972
X-182.829 Y-545.982
X-183.156 Y-546.019
X-183.21 Y-546.027
X-183.265 Y-546.04
X-183.283 Y-546.046
X-183.917 Y-546.268
X-184.135 Y-546.352
X-184.353 Y-546.487
X-184.788 Y-546.76
X-184.888 Y-546.826
X-184.988 Y-546.916
X-185.441 Y-547.37
X-185.538 Y-547.469
X-185.613 Y-547.569
X-186.023 Y-548.222
X-186.064 Y-548.298
X-186.094 Y-548.373
X-186.346 Y-549.092
X-186.375 Y-549.201
X-186.389 Y-549.31
X-186.462 Y-549.963
X-186.473 Y-550.072
X-186.469 Y-550.18
X-186.395 Y-550.833
X-186.363 Y-551.051
X-186.311 Y-551.205
X-186.094 Y-551.827
X-186.055 Y-551.921
X-185.922 Y-552.139
X-185.648 Y-552.574
X-185.578 Y-552.683
X-185.48 Y-552.792
X-185.006 Y-553.266
X-184.897 Y-553.367
X-184.781 Y-553.444
X-184.353 Y-553.713
X-184.135 Y-553.847
X-184.066 Y-553.88
X-183.446 Y-554.097
X-183.265 Y-554.16
X-183.047 Y-554.194
X-182.394 Y-554.267
X-182.285 Y-554.273
X-182.176 Y-554.264
X-181.523 Y-554.19
X-181.415 Y-554.177
X-181.306 Y-554.15
X-180.534 Y-553.88
X-180.435 Y-553.831
X-179.782 Y-553.421
X-179.673 Y-553.343
X-179.555 Y-553.227
X-179.12 Y-552.792
X-179.022 Y-552.683
X-178.952 Y-552.574
X-178.678 Y-552.139
X-178.545 Y-551.921
X-178.476 Y-551.742
X-178.259 Y-551.12
X-178.236 Y-551.051
X-178.205 Y-550.833
X-178.131 Y-550.18
X-178.127 Y-550.072
X-178.138 Y-549.963
X-178.211 Y-549.31
X-178.225 Y-549.201
X-178.254 Y-549.092
X-178.483 Y-548.439
X-178.522 Y-548.331
X-178.546 Y-548.276
X-178.577 Y-548.222
X-178.987 Y-547.569
X-179.048 Y-547.484
X-179.129 Y-547.399
X-179.612 Y-546.916
X-179.697 Y-546.837
X-179.782 Y-546.779
X-180.435 Y-546.369
X-180.49 Y-546.339
X-180.544 Y-546.316
X-181.317 Y-546.046
X-181.368 Y-546.031
X-181.42 Y-546.022
X-182.176 Y-545.936
X-182.285 Y-545.927
X-182.394 Y-545.933
X-182.738 Y-545.972
G3 X-182.958 Y-546.05 I0.088 J-0.594
G1 X-183.039 Y-546.099 Z7.007
X-183.117 Y-546.146 Z7.029
X-183.192 Y-546.19 Z7.065
X-183.261 Y-546.232 Z7.115
X-183.322 Y-546.268 Z7.176
X-183.375 Y-546.3 Z7.247
X-183.417 Y-546.325 Z7.328
X-183.448 Y-546.344 Z7.415
X-183.467 Y-546.355 Z7.506
X-183.473 Y-546.359 Z7.6
G0 Z33

(2D Adaptive14)
M9
X-182.3 Y-550.101
Z33
Z23
Z18.65
G1 Z18.05 F850
Z-0.5
X-182.32 Y-550.133
X-182.297 Y-550.162
X-182.259 Y-550.159
X-182.231 Y-550.135
X-182.219 Y-550.099
X-182.225 Y-550.062
X-182.247 Y-550.032
X-182.28 Y-550.015
X-182.318 Y-550.013
X-182.352 Y-550.028
X-182.378 Y-550.055
X-182.392 Y-550.09
X-182.396 Y-550.127
X-182.389 Y-550.164
X-182.369 Y-550.196
X-182.34 Y-550.22
X-182.305 Y-550.234
X-182.268 Y-550.238
X-182.231 Y-550.231
X-182.164 Y-550.198
X-182.121 Y-550.136
X-182.111 Y-550.062
X-182.132 Y-549.99
X-182.179 Y-549.932
X-182.244 Y-549.895
X-182.319 Y-549.885
X-182.392 Y-549.901
X-182.456 Y-549.94
X-182.505 Y-549.996
X-182.535 Y-550.065
X-182.543 Y-550.14
X-182.529 Y-550.214
X-182.496 Y-550.28
X-182.445 Y-550.335
X-182.317 Y-550.414
X-182.167 Y-550.421
X-182.03 Y-550.361
X-181.93 Y-550.249
X-181.881 Y-550.107
X-181.888 Y-549.958
X-181.948 Y-549.82
X-182.051 Y-549.711
X-182.185 Y-549.643
X-182.333 Y-549.62
X-182.481 Y-549.645
X-182.615 Y-549.712
X-182.723 Y-549.816
X-182.798 Y-549.946
X-182.833 Y-550.092
X-182.827 Y-550.242
X-182.785 Y-550.386
X-182.707 Y-550.514
X-182.601 Y-550.62
X-182.472 Y-550.697
X-182.329 Y-550.742
X-182.18 Y-550.752
X-182.031 Y-550.728
X-181.893 Y-550.671
X-181.769 Y-550.587
X-181.666 Y-550.477
X-181.588 Y-550.349
X-181.537 Y-550.208
X-181.517 Y-550.06
X-181.525 Y-549.91
X-181.563 Y-549.765
X-181.626 Y-549.629
X-181.714 Y-549.508
X-181.823 Y-549.404
X-181.948 Y-549.322
X-182.087 Y-549.264
X-182.233 Y-549.23
X-182.383 Y-549.223
X-182.532 Y-549.24
X-182.675 Y-549.283
X-182.81 Y-549.349
X-182.933 Y-549.435
X-183.039 Y-549.541
X-183.127 Y-549.663
X-183.195 Y-549.796
X-183.224 Y-549.894
X-183.243 Y-549.982
X-183.256 Y-550.072
X-183.253 Y-550.18
X-183.237 Y-550.289
X-183.226 Y-550.344
X-183.21 Y-550.398
X-183.164 Y-550.507
X-183.107 Y-550.616
X-183.047 Y-550.696
X-182.987 Y-550.764
X-182.914 Y-550.833
X-182.829 Y-550.894
X-182.72 Y-550.96
X-182.666 Y-550.984
X-182.612 Y-551.003
X-182.512 Y-551.032
X-182.412 Y-551.051
X-182.394 Y-551.052
X-182.292 Y-551.054
X-182.19 Y-551.051
X-182.176 Y-551.049
X-182.067 Y-551.026
X-181.959 Y-550.993
X-181.904 Y-550.971
X-181.85 Y-550.944
X-181.741 Y-550.875
X-181.685 Y-550.833
X-181.641 Y-550.794
X-181.597 Y-550.746
X-181.523 Y-550.658
X-181.493 Y-550.616
X-181.436 Y-550.507
X-181.39 Y-550.398
X-181.374 Y-550.344
X-181.363 Y-550.289
X-181.347 Y-550.18
X-181.344 Y-550.072
X-181.356 Y-549.963
X-181.374 Y-549.854
X-181.391 Y-549.799
X-181.413 Y-549.745
X-181.46 Y-549.643
X-181.488 Y-549.592
X-181.523 Y-549.541
X-181.534 Y-549.527
X-181.637 Y-549.411
X-181.689 Y-549.363
X-181.741 Y-549.325
X-181.862 Y-549.249
X-181.91 Y-549.226
X-181.959 Y-549.207
X-182.067 Y-549.174
X-182.176 Y-549.151
X-182.285 Y-549.146
X-182.394 Y-549.148
X-182.503 Y-549.166
X-182.612 Y-549.197
X-182.666 Y-549.216
X-182.72 Y-549.24
X-182.835 Y-549.31
X-182.941 Y-549.39
X-183.047 Y-549.505
X-183.066 Y-549.527
X-183.105 Y-549.582
X-183.136 Y-549.636
X-183.187 Y-549.745
X-183.209 Y-549.799
X-183.226 Y-549.854
X-183.244 Y-549.963
X-183.256 Y-550.072
G3 X-183.195 Y-550.297 I0.599 J0.042
G0 Z33

(2D Contour6)
S8000 M3
M9
X-182.3 Y-550.1
Z33
Z23
G1 Z7 F850
G3 X-182 Y-550.4 I0.3
G1 X-177.9
G3 X-177.6 Y-550.1 J0.3
X-187 I-4.7
X-177.6 I4.7
X-187 I-4.7
