%
(1001)
(z0 mdf bottom machine -5-5)
(T1  D=6 CR=0 - ZMIN=7 - flat end mill)
G90 G94
G17
G21

(2D Contour9)
M9
T1 M6
S8000 M3
G54
M9
G0 X-1232.3 Y-100.1
Z33
Z23
G1 Z7 F850
G3 X-1232.24 Y-99.68 I-0.18 J0.24
G1 X-1234.7 Y-96.4
G3 X-1235.12 Y-96.34 I-0.24 J-0.18
Y-103.86 I2.82 J-3.76
X-1227.6 Y-100.1 I2.82 J3.76
X-1235.12 Y-96.34 I-4.7
Y-103.86 I2.82 J-3.76
X-1227.6 Y-100.1 I2.82 J3.76
X-1235.85 Y-97.02 I-4.7
X-1235.79 Y-97.867 I0.453 J-0.393
G1 X-1235.337 Y-98.26
X-1235.266 Y-98.321 Z7.007
X-1235.197 Y-98.381 Z7.029
X-1235.131 Y-98.438 Z7.065
X-1235.071 Y-98.491 Z7.115
X-1235.017 Y-98.538 Z7.176
X-1234.97 Y-98.578 Z7.247
X-1234.933 Y-98.61 Z7.328
X-1234.906 Y-98.634 Z7.415
X-1234.889 Y-98.648 Z7.506
X-1234.884 Y-98.653 Z7.6
G0 Z33

(2D Contour9)
M9
X-1157.3 Y-100.1
Z33
Z23
G1 Z7 F850
G3 X-1157.24 Y-99.68 I-0.18 J0.24
G1 X-1159.7 Y-96.4
G3 X-1160.12 Y-96.34 I-0.24 J-0.18
Y-103.86 I2.82 J-3.76
X-1152.6 Y-100.1 I2.82 J3.76
X-1160.12 Y-96.34 I-4.7
Y-103.86 I2.82 J-3.76
X-1152.6 Y-100.1 I2.82 J3.76
X-1160.85 Y-97.02 I-4.7
X-1160.79 Y-97.867 I0.453 J-0.393
G1 X-1160.337 Y-98.26
X-1160.266 Y-98.321 Z7.007
X-1160.197 Y-98.381 Z7.029
X-1160.131 Y-98.438 Z7.065
X-1160.071 Y-98.491 Z7.115
X-1160.017 Y-98.538 Z7.176
X-1159.97 Y-98.578 Z7.247
X-1159.933 Y-98.61 Z7.328
X-1159.906 Y-98.634 Z7.415
X-1159.889 Y-98.648 Z7.506
X-1159.884 Y-98.653 Z7.6
G0 Z33

(2D Contour9)
M9
X-1082.3 Y-100.1
Z33
Z23
G1 Z7 F850
G3 X-1082.24 Y-99.68 I-0.18 J0.24
G1 X-1084.7 Y-96.4
G3 X-1085.12 Y-96.34 I-0.24 J-0.18
Y-103.86 I2.82 J-3.76
X-1077.6 Y-100.1 I2.82 J3.76
X-1085.12 Y-96.34 I-4.7
Y-103.86 I2.82 J-3.76
X-1077.6 Y-100.1 I2.82 J3.76
X-1085.85 Y-97.02 I-4.7
X-1085.79 Y-97.867 I0.453 J-0.393
G1 X-1085.337 Y-98.26
X-1085.266 Y-98.321 Z7.007
X-1085.197 Y-98.381 Z7.029
X-1085.131 Y-98.438 Z7.065
X-1085.071 Y-98.491 Z7.115
X-1085.017 Y-98.538 Z7.176
X-1084.97 Y-98.578 Z7.247
X-1084.933 Y-98.61 Z7.328
X-1084.906 Y-98.634 Z7.415
X-1084.889 Y-98.648 Z7.506
X-1084.884 Y-98.653 Z7.6
G0 Z33

(2D Contour9)
M9
X-1007.3 Y-100.1
Z33
Z23
G1 Z7 F850
G3 X-1007.24 Y-99.68 I-0.18 J0.24
G1 X-1009.7 Y-96.4
G3 X-1010.12 Y-96.34 I-0.24 J-0.18
Y-103.86 I2.82 J-3.76
X-1002.6 Y-100.1 I2.82 J3.76
X-1010.12 Y-96.34 I-4.7
Y-103.86 I2.82 J-3.76
X-1002.6 Y-100.1 I2.82 J3.76
X-1010.85 Y-97.02 I-4.7
X-1010.79 Y-97.867 I0.453 J-0.393
G1 X-1010.337 Y-98.26
X-1010.266 Y-98.321 Z7.007
X-1010.197 Y-98.381 Z7.029
X-1010.131 Y-98.438 Z7.065
X-1010.071 Y-98.491 Z7.115
X-1010.017 Y-98.538 Z7.176
X-1009.97 Y-98.578 Z7.247
X-1009.933 Y-98.61 Z7.328
X-1009.906 Y-98.634 Z7.415
X-1009.889 Y-98.648 Z7.506
X-1009.884 Y-98.653 Z7.6
G0 Z33

(2D Contour9)
M9
X-932.3 Y-100.1
Z33
Z23
G1 Z7 F850
G3 X-932.24 Y-99.68 I-0.18 J0.24
G1 X-934.7 Y-96.4
G3 X-935.12 Y-96.34 I-0.24 J-0.18
Y-103.86 I2.82 J-3.76
X-927.6 Y-100.1 I2.82 J3.76
X-935.12 Y-96.34 I-4.7
Y-103.86 I2.82 J-3.76
X-927.6 Y-100.1 I2.82 J3.76
X-935.85 Y-97.02 I-4.7
X-935.79 Y-97.867 I0.453 J-0.393
G1 X-935.337 Y-98.26
X-935.266 Y-98.321 Z7.007
X-935.197 Y-98.381 Z7.029
X-935.131 Y-98.438 Z7.065
X-935.071 Y-98.491 Z7.115
X-935.017 Y-98.538 Z7.176
X-934.97 Y-98.578 Z7.247
X-934.933 Y-98.61 Z7.328
X-934.906 Y-98.634 Z7.415
X-934.889 Y-98.648 Z7.506
X-934.884 Y-98.653 Z7.6
G0 Z33

(2D Contour9)
M9
X-857.3 Y-100.1
Z33
Z23
G1 Z7 F850
G3 X-857.24 Y-99.68 I-0.18 J0.24
G1 X-859.7 Y-96.4
G3 X-860.12 Y-96.34 I-0.24 J-0.18
Y-103.86 I2.82 J-3.76
X-852.6 Y-100.1 I2.82 J3.76
X-860.12 Y-96.34 I-4.7
Y-103.86 I2.82 J-3.76
X-852.6 Y-100.1 I2.82 J3.76
X-860.85 Y-97.02 I-4.7
X-860.79 Y-97.867 I0.453 J-0.393
G1 X-860.337 Y-98.26
X-860.266 Y-98.321 Z7.007
X-860.197 Y-98.381 Z7.029
X-860.131 Y-98.438 Z7.065
X-860.071 Y-98.491 Z7.115
X-860.017 Y-98.538 Z7.176
X-859.97 Y-98.578 Z7.247
X-859.933 Y-98.61 Z7.328
X-859.906 Y-98.634 Z7.415
X-859.889 Y-98.648 Z7.506
X-859.884 Y-98.653 Z7.6
G0 Z33

(2D Contour9)
M9
X-782.3 Y-100.1
Z33
Z23
G1 Z7 F850
G3 X-782.24 Y-99.68 I-0.18 J0.24
G1 X-784.7 Y-96.4
G3 X-785.12 Y-96.34 I-0.24 J-0.18
Y-103.86 I2.82 J-3.76
X-777.6 Y-100.1 I2.82 J3.76
X-785.12 Y-96.34 I-4.7
Y-103.86 I2.82 J-3.76
X-777.6 Y-100.1 I2.82 J3.76
X-785.85 Y-97.02 I-4.7
X-785.79 Y-97.867 I0.453 J-0.393
G1 X-785.337 Y-98.26
X-785.266 Y-98.321 Z7.007
X-785.197 Y-98.381 Z7.029
X-785.131 Y-98.438 Z7.065
X-785.071 Y-98.491 Z7.115
X-785.017 Y-98.538 Z7.176
X-784.97 Y-98.578 Z7.247
X-784.933 Y-98.61 Z7.328
X-784.906 Y-98.634 Z7.415
X-784.889 Y-98.648 Z7.506
X-784.884 Y-98.653 Z7.6
G0 Z33

(2D Contour9)
M9
X-707.3 Y-100.1
Z33
Z23
G1 Z7 F850
G3 X-707.24 Y-99.68 I-0.18 J0.24
G1 X-709.7 Y-96.4
G3 X-710.12 Y-96.34 I-0.24 J-0.18
Y-103.86 I2.82 J-3.76
X-702.6 Y-100.1 I2.82 J3.76
X-710.12 Y-96.34 I-4.7
Y-103.86 I2.82 J-3.76
X-702.6 Y-100.1 I2.82 J3.76
X-710.85 Y-97.02 I-4.7
X-710.79 Y-97.867 I0.453 J-0.393
G1 X-710.337 Y-98.26
X-710.266 Y-98.321 Z7.007
X-710.197 Y-98.381 Z7.029
X-710.131 Y-98.438 Z7.065
X-710.071 Y-98.491 Z7.115
X-710.017 Y-98.538 Z7.176
X-709.97 Y-98.578 Z7.247
X-709.933 Y-98.61 Z7.328
X-709.906 Y-98.634 Z7.415
X-709.889 Y-98.648 Z7.506
X-709.884 Y-98.653 Z7.6
G0 Z33

(2D Contour9)
M9
X-632.3 Y-100.1
Z33
Z23
G1 Z7 F850
G3 X-632.24 Y-99.68 I-0.18 J0.24
G1 X-634.7 Y-96.4
G3 X-635.12 Y-96.34 I-0.24 J-0.18
Y-103.86 I2.82 J-3.76
X-627.6 Y-100.1 I2.82 J3.76
X-635.12 Y-96.34 I-4.7
Y-103.86 I2.82 J-3.76
X-627.6 Y-100.1 I2.82 J3.76
X-635.85 Y-97.02 I-4.7
X-635.79 Y-97.867 I0.453 J-0.393
G1 X-635.337 Y-98.26
X-635.266 Y-98.321 Z7.007
X-635.197 Y-98.381 Z7.029
X-635.131 Y-98.438 Z7.065
X-635.071 Y-98.491 Z7.115
X-635.017 Y-98.538 Z7.176
X-634.97 Y-98.578 Z7.247
X-634.933 Y-98.61 Z7.328
X-634.906 Y-98.634 Z7.415
X-634.889 Y-98.648 Z7.506
X-634.884 Y-98.653 Z7.6
G0 Z33

(2D Contour9)
M9
X-557.3 Y-100.1
Z33
Z23
G1 Z7 F850
G3 X-557.24 Y-99.68 I-0.18 J0.24
G1 X-559.7 Y-96.4
G3 X-560.12 Y-96.34 I-0.24 J-0.18
Y-103.86 I2.82 J-3.76
X-552.6 Y-100.1 I2.82 J3.76
X-560.12 Y-96.34 I-4.7
Y-103.86 I2.82 J-3.76
X-552.6 Y-100.1 I2.82 J3.76
X-560.85 Y-97.02 I-4.7
X-560.79 Y-97.867 I0.453 J-0.393
G1 X-560.337 Y-98.26
X-560.266 Y-98.321 Z7.007
X-560.197 Y-98.381 Z7.029
X-560.131 Y-98.438 Z7.065
X-560.071 Y-98.491 Z7.115
X-560.017 Y-98.538 Z7.176
X-559.97 Y-98.578 Z7.247
X-559.933 Y-98.61 Z7.328
X-559.906 Y-98.634 Z7.415
X-559.889 Y-98.648 Z7.506
X-559.884 Y-98.653 Z7.6
G0 Z33

(2D Contour9)
M9
X-482.3 Y-100.1
Z33
Z23
G1 Z7 F850
G3 X-482.24 Y-99.68 I-0.18 J0.24
G1 X-484.7 Y-96.4
G3 X-485.12 Y-96.34 I-0.24 J-0.18
Y-103.86 I2.82 J-3.76
X-477.6 Y-100.1 I2.82 J3.76
X-485.12 Y-96.34 I-4.7
Y-103.86 I2.82 J-3.76
X-477.6 Y-100.1 I2.82 J3.76
X-485.85 Y-97.02 I-4.7
X-485.79 Y-97.867 I0.453 J-0.393
G1 X-485.337 Y-98.26
X-485.266 Y-98.321 Z7.007
X-485.197 Y-98.381 Z7.029
X-485.131 Y-98.438 Z7.065
X-485.071 Y-98.491 Z7.115
X-485.017 Y-98.538 Z7.176
X-484.97 Y-98.578 Z7.247
X-484.933 Y-98.61 Z7.328
X-484.906 Y-98.634 Z7.415
X-484.889 Y-98.648 Z7.506
X-484.884 Y-98.653 Z7.6
G0 Z33

(2D Contour9)
M9
X-407.3 Y-100.1
Z33
Z23
G1 Z7 F850
G3 X-407.24 Y-99.68 I-0.18 J0.24
G1 X-409.7 Y-96.4
G3 X-410.12 Y-96.34 I-0.24 J-0.18
Y-103.86 I2.82 J-3.76
X-402.6 Y-100.1 I2.82 J3.76
X-410.12 Y-96.34 I-4.7
Y-103.86 I2.82 J-3.76
X-402.6 Y-100.1 I2.82 J3.76
X-410.85 Y-97.02 I-4.7
X-410.79 Y-97.867 I0.453 J-0.393
G1 X-410.337 Y-98.26
X-410.266 Y-98.321 Z7.007
X-410.197 Y-98.381 Z7.029
X-410.131 Y-98.438 Z7.065
X-410.071 Y-98.491 Z7.115
X-410.017 Y-98.538 Z7.176
X-409.97 Y-98.578 Z7.247
X-409.933 Y-98.61 Z7.328
X-409.906 Y-98.634 Z7.415
X-409.889 Y-98.648 Z7.506
X-409.884 Y-98.653 Z7.6
G0 Z33

(2D Contour9)
M9
X-332.3 Y-100.1
Z33
Z23
G1 Z7 F850
G3 X-332.24 Y-99.68 I-0.18 J0.24
G1 X-334.7 Y-96.4
G3 X-335.12 Y-96.34 I-0.24 J-0.18
Y-103.86 I2.82 J-3.76
X-327.6 Y-100.1 I2.82 J3.76
X-335.12 Y-96.34 I-4.7
Y-103.86 I2.82 J-3.76
X-327.6 Y-100.1 I2.82 J3.76
X-335.85 Y-97.02 I-4.7
X-335.79 Y-97.867 I0.453 J-0.393
G1 X-335.337 Y-98.26
X-335.266 Y-98.321 Z7.007
X-335.197 Y-98.381 Z7.029
X-335.131 Y-98.438 Z7.065
X-335.071 Y-98.491 Z7.115
X-335.017 Y-98.538 Z7.176
X-334.97 Y-98.578 Z7.247
X-334.933 Y-98.61 Z7.328
X-334.906 Y-98.634 Z7.415
X-334.889 Y-98.648 Z7.506
X-334.884 Y-98.653 Z7.6
G0 Z33

(2D Contour9)
M9
X-257.3 Y-100.1
Z33
Z23
G1 Z7 F850
G3 X-257.24 Y-99.68 I-0.18 J0.24
G1 X-259.7 Y-96.4
G3 X-260.12 Y-96.34 I-0.24 J-0.18
Y-103.86 I2.82 J-3.76
X-252.6 Y-100.1 I2.82 J3.76
X-260.12 Y-96.34 I-4.7
Y-103.86 I2.82 J-3.76
X-252.6 Y-100.1 I2.82 J3.76
X-260.85 Y-97.02 I-4.7
X-260.79 Y-97.867 I0.453 J-0.393
G1 X-260.337 Y-98.26
X-260.266 Y-98.321 Z7.007
X-260.197 Y-98.381 Z7.029
X-260.131 Y-98.438 Z7.065
X-260.071 Y-98.491 Z7.115
X-260.017 Y-98.538 Z7.176
X-259.97 Y-98.578 Z7.247
X-259.933 Y-98.61 Z7.328
X-259.906 Y-98.634 Z7.415
X-259.889 Y-98.648 Z7.506
X-259.884 Y-98.653 Z7.6
G0 Z33

(2D Contour9)
M9
X-182.3 Y-100.1
Z33
Z23
G1 Z7 F850
G3 X-182.24 Y-99.68 I-0.18 J0.24
G1 X-184.7 Y-96.4
G3 X-185.12 Y-96.34 I-0.24 J-0.18
Y-103.86 I2.82 J-3.76
X-177.6 Y-100.1 I2.82 J3.76
X-185.12 Y-96.34 I-4.7
Y-103.86 I2.82 J-3.76
X-177.6 Y-100.1 I2.82 J3.76
X-185.85 Y-97.02 I-4.7
X-185.79 Y-97.867 I0.453 J-0.393
G1 X-185.337 Y-98.26
X-185.266 Y-98.321 Z7.007
X-185.197 Y-98.381 Z7.029
X-185.131 Y-98.438 Z7.065
X-185.071 Y-98.491 Z7.115
X-185.017 Y-98.538 Z7.176
X-184.97 Y-98.578 Z7.247
X-184.933 Y-98.61 Z7.328
X-184.906 Y-98.634 Z7.415
X-184.889 Y-98.648 Z7.506
X-184.884 Y-98.653 Z7.6
G0 Z33

(2D Contour9)
M9
X-1232.3 Y-175.1
Z33
Z23
G1 Z7 F850
G3 X-1232.24 Y-174.68 I-0.18 J0.24
G1 X-1234.7 Y-171.4
G3 X-1235.12 Y-171.34 I-0.24 J-0.18
Y-178.86 I2.82 J-3.76
X-1227.6 Y-175.1 I2.82 J3.76
X-1235.12 Y-171.34 I-4.7
Y-178.86 I2.82 J-3.76
X-1227.6 Y-175.1 I2.82 J3.76
X-1235.85 Y-172.02 I-4.7
X-1235.79 Y-172.867 I0.453 J-0.393
G1 X-1235.337 Y-173.26
X-1235.266 Y-173.321 Z7.007
X-1235.197 Y-173.381 Z7.029
X-1235.131 Y-173.438 Z7.065
X-1235.071 Y-173.491 Z7.115
X-1235.017 Y-173.538 Z7.176
X-1234.97 Y-173.578 Z7.247
X-1234.933 Y-173.61 Z7.328
X-1234.906 Y-173.634 Z7.415
X-1234.889 Y-173.648 Z7.506
X-1234.884 Y-173.653 Z7.6
G0 Z33

(2D Contour9)
M9
X-1157.3 Y-175.1
Z33
Z23
G1 Z7 F850
G3 X-1157.24 Y-174.68 I-0.18 J0.24
G1 X-1159.7 Y-171.4
G3 X-1160.12 Y-171.34 I-0.24 J-0.18
Y-178.86 I2.82 J-3.76
X-1152.6 Y-175.1 I2.82 J3.76
X-1160.12 Y-171.34 I-4.7
Y-178.86 I2.82 J-3.76
X-1152.6 Y-175.1 I2.82 J3.76
X-1160.85 Y-172.02 I-4.7
X-1160.79 Y-172.867 I0.453 J-0.393
G1 X-1160.337 Y-173.26
X-1160.266 Y-173.321 Z7.007
X-1160.197 Y-173.381 Z7.029
X-1160.131 Y-173.438 Z7.065
X-1160.071 Y-173.491 Z7.115
X-1160.017 Y-173.538 Z7.176
X-1159.97 Y-173.578 Z7.247
X-1159.933 Y-173.61 Z7.328
X-1159.906 Y-173.634 Z7.415
X-1159.889 Y-173.648 Z7.506
X-1159.884 Y-173.653 Z7.6
G0 Z33

(2D Contour9)
M9
X-1082.3 Y-175.1
Z33
Z23
G1 Z7 F850
G3 X-1082.24 Y-174.68 I-0.18 J0.24
G1 X-1084.7 Y-171.4
G3 X-1085.12 Y-171.34 I-0.24 J-0.18
Y-178.86 I2.82 J-3.76
X-1077.6 Y-175.1 I2.82 J3.76
X-1085.12 Y-171.34 I-4.7
Y-178.86 I2.82 J-3.76
X-1077.6 Y-175.1 I2.82 J3.76
X-1085.85 Y-172.02 I-4.7
X-1085.79 Y-172.867 I0.453 J-0.393
G1 X-1085.337 Y-173.26
X-1085.266 Y-173.321 Z7.007
X-1085.197 Y-173.381 Z7.029
X-1085.131 Y-173.438 Z7.065
X-1085.071 Y-173.491 Z7.115
X-1085.017 Y-173.538 Z7.176
X-1084.97 Y-173.578 Z7.247
X-1084.933 Y-173.61 Z7.328
X-1084.906 Y-173.634 Z7.415
X-1084.889 Y-173.648 Z7.506
X-1084.884 Y-173.653 Z7.6
G0 Z33

(2D Contour9)
M9
X-1007.3 Y-175.1
Z33
Z23
G1 Z7 F850
G3 X-1007.24 Y-174.68 I-0.18 J0.24
G1 X-1009.7 Y-171.4
G3 X-1010.12 Y-171.34 I-0.24 J-0.18
Y-178.86 I2.82 J-3.76
X-1002.6 Y-175.1 I2.82 J3.76
X-1010.12 Y-171.34 I-4.7
Y-178.86 I2.82 J-3.76
X-1002.6 Y-175.1 I2.82 J3.76
X-1010.85 Y-172.02 I-4.7
X-1010.79 Y-172.867 I0.453 J-0.393
G1 X-1010.337 Y-173.26
X-1010.266 Y-173.321 Z7.007
X-1010.197 Y-173.381 Z7.029
X-1010.131 Y-173.438 Z7.065
X-1010.071 Y-173.491 Z7.115
X-1010.017 Y-173.538 Z7.176
X-1009.97 Y-173.578 Z7.247
X-1009.933 Y-173.61 Z7.328
X-1009.906 Y-173.634 Z7.415
X-1009.889 Y-173.648 Z7.506
X-1009.884 Y-173.653 Z7.6
G0 Z33

(2D Contour9)
M9
X-932.3 Y-175.1
Z33
Z23
G1 Z7 F850
G3 X-932.24 Y-174.68 I-0.18 J0.24
G1 X-934.7 Y-171.4
G3 X-935.12 Y-171.34 I-0.24 J-0.18
Y-178.86 I2.82 J-3.76
X-927.6 Y-175.1 I2.82 J3.76
X-935.12 Y-171.34 I-4.7
Y-178.86 I2.82 J-3.76
X-927.6 Y-175.1 I2.82 J3.76
X-935.85 Y-172.02 I-4.7
X-935.79 Y-172.867 I0.453 J-0.393
G1 X-935.337 Y-173.26
X-935.266 Y-173.321 Z7.007
X-935.197 Y-173.381 Z7.029
X-935.131 Y-173.438 Z7.065
X-935.071 Y-173.491 Z7.115
X-935.017 Y-173.538 Z7.176
X-934.97 Y-173.578 Z7.247
X-934.933 Y-173.61 Z7.328
X-934.906 Y-173.634 Z7.415
X-934.889 Y-173.648 Z7.506
X-934.884 Y-173.653 Z7.6
G0 Z33

(2D Contour9)
M9
X-857.3 Y-175.1
Z33
Z23
G1 Z7 F850
G3 X-857.24 Y-174.68 I-0.18 J0.24
G1 X-859.7 Y-171.4
G3 X-860.12 Y-171.34 I-0.24 J-0.18
Y-178.86 I2.82 J-3.76
X-852.6 Y-175.1 I2.82 J3.76
X-860.12 Y-171.34 I-4.7
Y-178.86 I2.82 J-3.76
X-852.6 Y-175.1 I2.82 J3.76
X-860.85 Y-172.02 I-4.7
X-860.79 Y-172.867 I0.453 J-0.393
G1 X-860.337 Y-173.26
X-860.266 Y-173.321 Z7.007
X-860.197 Y-173.381 Z7.029
X-860.131 Y-173.438 Z7.065
X-860.071 Y-173.491 Z7.115
X-860.017 Y-173.538 Z7.176
X-859.97 Y-173.578 Z7.247
X-859.933 Y-173.61 Z7.328
X-859.906 Y-173.634 Z7.415
X-859.889 Y-173.648 Z7.506
X-859.884 Y-173.653 Z7.6
G0 Z33

(2D Contour9)
M9
X-782.3 Y-175.1
Z33
Z23
G1 Z7 F850
G3 X-782.24 Y-174.68 I-0.18 J0.24
G1 X-784.7 Y-171.4
G3 X-785.12 Y-171.34 I-0.24 J-0.18
Y-178.86 I2.82 J-3.76
X-777.6 Y-175.1 I2.82 J3.76
X-785.12 Y-171.34 I-4.7
Y-178.86 I2.82 J-3.76
X-777.6 Y-175.1 I2.82 J3.76
X-785.85 Y-172.02 I-4.7
X-785.79 Y-172.867 I0.453 J-0.393
G1 X-785.337 Y-173.26
X-785.266 Y-173.321 Z7.007
X-785.197 Y-173.381 Z7.029
X-785.131 Y-173.438 Z7.065
X-785.071 Y-173.491 Z7.115
X-785.017 Y-173.538 Z7.176
X-784.97 Y-173.578 Z7.247
X-784.933 Y-173.61 Z7.328
X-784.906 Y-173.634 Z7.415
X-784.889 Y-173.648 Z7.506
X-784.884 Y-173.653 Z7.6
G0 Z33

(2D Contour9)
M9
X-707.3 Y-175.1
Z33
Z23
G1 Z7 F850
G3 X-707.24 Y-174.68 I-0.18 J0.24
G1 X-709.7 Y-171.4
G3 X-710.12 Y-171.34 I-0.24 J-0.18
Y-178.86 I2.82 J-3.76
X-702.6 Y-175.1 I2.82 J3.76
X-710.12 Y-171.34 I-4.7
Y-178.86 I2.82 J-3.76
X-702.6 Y-175.1 I2.82 J3.76
X-710.85 Y-172.02 I-4.7
X-710.79 Y-172.867 I0.453 J-0.393
G1 X-710.337 Y-173.26
X-710.266 Y-173.321 Z7.007
X-710.197 Y-173.381 Z7.029
X-710.131 Y-173.438 Z7.065
X-710.071 Y-173.491 Z7.115
X-710.017 Y-173.538 Z7.176
X-709.97 Y-173.578 Z7.247
X-709.933 Y-173.61 Z7.328
X-709.906 Y-173.634 Z7.415
X-709.889 Y-173.648 Z7.506
X-709.884 Y-173.653 Z7.6
G0 Z33

(2D Contour9)
M9
X-632.3 Y-175.1
Z33
Z23
G1 Z7 F850
G3 X-632.24 Y-174.68 I-0.18 J0.24
G1 X-634.7 Y-171.4
G3 X-635.12 Y-171.34 I-0.24 J-0.18
Y-178.86 I2.82 J-3.76
X-627.6 Y-175.1 I2.82 J3.76
X-635.12 Y-171.34 I-4.7
Y-178.86 I2.82 J-3.76
X-627.6 Y-175.1 I2.82 J3.76
X-635.85 Y-172.02 I-4.7
X-635.79 Y-172.867 I0.453 J-0.393
G1 X-635.337 Y-173.26
X-635.266 Y-173.321 Z7.007
X-635.197 Y-173.381 Z7.029
X-635.131 Y-173.438 Z7.065
X-635.071 Y-173.491 Z7.115
X-635.017 Y-173.538 Z7.176
X-634.97 Y-173.578 Z7.247
X-634.933 Y-173.61 Z7.328
X-634.906 Y-173.634 Z7.415
X-634.889 Y-173.648 Z7.506
X-634.884 Y-173.653 Z7.6
G0 Z33

(2D Contour9)
M9
X-557.3 Y-175.1
Z33
Z23
G1 Z7 F850
G3 X-557.24 Y-174.68 I-0.18 J0.24
G1 X-559.7 Y-171.4
G3 X-560.12 Y-171.34 I-0.24 J-0.18
Y-178.86 I2.82 J-3.76
X-552.6 Y-175.1 I2.82 J3.76
X-560.12 Y-171.34 I-4.7
Y-178.86 I2.82 J-3.76
X-552.6 Y-175.1 I2.82 J3.76
X-560.85 Y-172.02 I-4.7
X-560.79 Y-172.867 I0.453 J-0.393
G1 X-560.337 Y-173.26
X-560.266 Y-173.321 Z7.007
X-560.197 Y-173.381 Z7.029
X-560.131 Y-173.438 Z7.065
X-560.071 Y-173.491 Z7.115
X-560.017 Y-173.538 Z7.176
X-559.97 Y-173.578 Z7.247
X-559.933 Y-173.61 Z7.328
X-559.906 Y-173.634 Z7.415
X-559.889 Y-173.648 Z7.506
X-559.884 Y-173.653 Z7.6
G0 Z33

(2D Contour9)
M9
X-482.3 Y-175.1
Z33
Z23
G1 Z7 F850
G3 X-482.24 Y-174.68 I-0.18 J0.24
G1 X-484.7 Y-171.4
G3 X-485.12 Y-171.34 I-0.24 J-0.18
Y-178.86 I2.82 J-3.76
X-477.6 Y-175.1 I2.82 J3.76
X-485.12 Y-171.34 I-4.7
Y-178.86 I2.82 J-3.76
X-477.6 Y-175.1 I2.82 J3.76
X-485.85 Y-172.02 I-4.7
X-485.79 Y-172.867 I0.453 J-0.393
G1 X-485.337 Y-173.26
X-485.266 Y-173.321 Z7.007
X-485.197 Y-173.381 Z7.029
X-485.131 Y-173.438 Z7.065
X-485.071 Y-173.491 Z7.115
X-485.017 Y-173.538 Z7.176
X-484.97 Y-173.578 Z7.247
X-484.933 Y-173.61 Z7.328
X-484.906 Y-173.634 Z7.415
X-484.889 Y-173.648 Z7.506
X-484.884 Y-173.653 Z7.6
G0 Z33

(2D Contour9)
M9
X-407.3 Y-175.1
Z33
Z23
G1 Z7 F850
G3 X-407.24 Y-174.68 I-0.18 J0.24
G1 X-409.7 Y-171.4
G3 X-410.12 Y-171.34 I-0.24 J-0.18
Y-178.86 I2.82 J-3.76
X-402.6 Y-175.1 I2.82 J3.76
X-410.12 Y-171.34 I-4.7
Y-178.86 I2.82 J-3.76
X-402.6 Y-175.1 I2.82 J3.76
X-410.85 Y-172.02 I-4.7
X-410.79 Y-172.867 I0.453 J-0.393
G1 X-410.337 Y-173.26
X-410.266 Y-173.321 Z7.007
X-410.197 Y-173.381 Z7.029
X-410.131 Y-173.438 Z7.065
X-410.071 Y-173.491 Z7.115
X-410.017 Y-173.538 Z7.176
X-409.97 Y-173.578 Z7.247
X-409.933 Y-173.61 Z7.328
X-409.906 Y-173.634 Z7.415
X-409.889 Y-173.648 Z7.506
X-409.884 Y-173.653 Z7.6
G0 Z33

(2D Contour9)
M9
X-332.3 Y-175.1
Z33
Z23
G1 Z7 F850
G3 X-332.24 Y-174.68 I-0.18 J0.24
G1 X-334.7 Y-171.4
G3 X-335.12 Y-171.34 I-0.24 J-0.18
Y-178.86 I2.82 J-3.76
X-327.6 Y-175.1 I2.82 J3.76
X-335.12 Y-171.34 I-4.7
Y-178.86 I2.82 J-3.76
X-327.6 Y-175.1 I2.82 J3.76
X-335.85 Y-172.02 I-4.7
X-335.79 Y-172.867 I0.453 J-0.393
G1 X-335.337 Y-173.26
X-335.266 Y-173.321 Z7.007
X-335.197 Y-173.381 Z7.029
X-335.131 Y-173.438 Z7.065
X-335.071 Y-173.491 Z7.115
X-335.017 Y-173.538 Z7.176
X-334.97 Y-173.578 Z7.247
X-334.933 Y-173.61 Z7.328
X-334.906 Y-173.634 Z7.415
X-334.889 Y-173.648 Z7.506
X-334.884 Y-173.653 Z7.6
G0 Z33

(2D Contour9)
M9
X-257.3 Y-175.1
Z33
Z23
G1 Z7 F850
G3 X-257.24 Y-174.68 I-0.18 J0.24
G1 X-259.7 Y-171.4
G3 X-260.12 Y-171.34 I-0.24 J-0.18
Y-178.86 I2.82 J-3.76
X-252.6 Y-175.1 I2.82 J3.76
X-260.12 Y-171.34 I-4.7
Y-178.86 I2.82 J-3.76
X-252.6 Y-175.1 I2.82 J3.76
X-260.85 Y-172.02 I-4.7
X-260.79 Y-172.867 I0.453 J-0.393
G1 X-260.337 Y-173.26
X-260.266 Y-173.321 Z7.007
X-260.197 Y-173.381 Z7.029
X-260.131 Y-173.438 Z7.065
X-260.071 Y-173.491 Z7.115
X-260.017 Y-173.538 Z7.176
X-259.97 Y-173.578 Z7.247
X-259.933 Y-173.61 Z7.328
X-259.906 Y-173.634 Z7.415
X-259.889 Y-173.648 Z7.506
X-259.884 Y-173.653 Z7.6
G0 Z33

(2D Contour9)
M9
X-182.3 Y-175.1
Z33
Z23
G1 Z7 F850
G3 X-182.24 Y-174.68 I-0.18 J0.24
G1 X-184.7 Y-171.4
G3 X-185.12 Y-171.34 I-0.24 J-0.18
Y-178.86 I2.82 J-3.76
X-177.6 Y-175.1 I2.82 J3.76
X-185.12 Y-171.34 I-4.7
Y-178.86 I2.82 J-3.76
X-177.6 Y-175.1 I2.82 J3.76
X-185.85 Y-172.02 I-4.7
X-185.79 Y-172.867 I0.453 J-0.393
G1 X-185.337 Y-173.26
X-185.266 Y-173.321 Z7.007
X-185.197 Y-173.381 Z7.029
X-185.131 Y-173.438 Z7.065
X-185.071 Y-173.491 Z7.115
X-185.017 Y-173.538 Z7.176
X-184.97 Y-173.578 Z7.247
X-184.933 Y-173.61 Z7.328
X-184.906 Y-173.634 Z7.415
X-184.889 Y-173.648 Z7.506
X-184.884 Y-173.653 Z7.6
G0 Z33

(2D Contour9)
M9
X-1232.3 Y-250.1
Z33
Z23
G1 Z7 F850
G3 X-1232.24 Y-249.68 I-0.18 J0.24
G1 X-1234.7 Y-246.4
G3 X-1235.12 Y-246.34 I-0.24 J-0.18
Y-253.86 I2.82 J-3.76
X-1227.6 Y-250.1 I2.82 J3.76
X-1235.12 Y-246.34 I-4.7
Y-253.86 I2.82 J-3.76
X-1227.6 Y-250.1 I2.82 J3.76
X-1235.85 Y-247.02 I-4.7
X-1235.79 Y-247.867 I0.453 J-0.393
G1 X-1235.337 Y-248.26
X-1235.266 Y-248.321 Z7.007
X-1235.197 Y-248.381 Z7.029
X-1235.131 Y-248.438 Z7.065
X-1235.071 Y-248.491 Z7.115
X-1235.017 Y-248.538 Z7.176
X-1234.97 Y-248.578 Z7.247
X-1234.933 Y-248.61 Z7.328
X-1234.906 Y-248.634 Z7.415
X-1234.889 Y-248.648 Z7.506
X-1234.884 Y-248.653 Z7.6
G0 Z33

(2D Contour9)
M9
X-1157.3 Y-250.1
Z33
Z23
G1 Z7 F850
G3 X-1157.24 Y-249.68 I-0.18 J0.24
G1 X-1159.7 Y-246.4
G3 X-1160.12 Y-246.34 I-0.24 J-0.18
Y-253.86 I2.82 J-3.76
X-1152.6 Y-250.1 I2.82 J3.76
X-1160.12 Y-246.34 I-4.7
Y-253.86 I2.82 J-3.76
X-1152.6 Y-250.1 I2.82 J3.76
X-1160.85 Y-247.02 I-4.7
X-1160.79 Y-247.867 I0.453 J-0.393
G1 X-1160.337 Y-248.26
X-1160.266 Y-248.321 Z7.007
X-1160.197 Y-248.381 Z7.029
X-1160.131 Y-248.438 Z7.065
X-1160.071 Y-248.491 Z7.115
X-1160.017 Y-248.538 Z7.176
X-1159.97 Y-248.578 Z7.247
X-1159.933 Y-248.61 Z7.328
X-1159.906 Y-248.634 Z7.415
X-1159.889 Y-248.648 Z7.506
X-1159.884 Y-248.653 Z7.6
G0 Z33

(2D Contour9)
M9
X-1082.3 Y-250.1
Z33
Z23
G1 Z7 F850
G3 X-1082.24 Y-249.68 I-0.18 J0.24
G1 X-1084.7 Y-246.4
G3 X-1085.12 Y-246.34 I-0.24 J-0.18
Y-253.86 I2.82 J-3.76
X-1077.6 Y-250.1 I2.82 J3.76
X-1085.12 Y-246.34 I-4.7
Y-253.86 I2.82 J-3.76
X-1077.6 Y-250.1 I2.82 J3.76
X-1085.85 Y-247.02 I-4.7
X-1085.79 Y-247.867 I0.453 J-0.393
G1 X-1085.337 Y-248.26
X-1085.266 Y-248.321 Z7.007
X-1085.197 Y-248.381 Z7.029
X-1085.131 Y-248.438 Z7.065
X-1085.071 Y-248.491 Z7.115
X-1085.017 Y-248.538 Z7.176
X-1084.97 Y-248.578 Z7.247
X-1084.933 Y-248.61 Z7.328
X-1084.906 Y-248.634 Z7.415
X-1084.889 Y-248.648 Z7.506
X-1084.884 Y-248.653 Z7.6
G0 Z33

(2D Contour9)
M9
X-1007.3 Y-250.1
Z33
Z23
G1 Z7 F850
G3 X-1007.24 Y-249.68 I-0.18 J0.24
G1 X-1009.7 Y-246.4
G3 X-1010.12 Y-246.34 I-0.24 J-0.18
Y-253.86 I2.82 J-3.76
X-1002.6 Y-250.1 I2.82 J3.76
X-1010.12 Y-246.34 I-4.7
Y-253.86 I2.82 J-3.76
X-1002.6 Y-250.1 I2.82 J3.76
X-1010.85 Y-247.02 I-4.7
X-1010.79 Y-247.867 I0.453 J-0.393
G1 X-1010.337 Y-248.26
X-1010.266 Y-248.321 Z7.007
X-1010.197 Y-248.381 Z7.029
X-1010.131 Y-248.438 Z7.065
X-1010.071 Y-248.491 Z7.115
X-1010.017 Y-248.538 Z7.176
X-1009.97 Y-248.578 Z7.247
X-1009.933 Y-248.61 Z7.328
X-1009.906 Y-248.634 Z7.415
X-1009.889 Y-248.648 Z7.506
X-1009.884 Y-248.653 Z7.6
G0 Z33

(2D Contour9)
M9
X-932.3 Y-250.1
Z33
Z23
G1 Z7 F850
G3 X-932.24 Y-249.68 I-0.18 J0.24
G1 X-934.7 Y-246.4
G3 X-935.12 Y-246.34 I-0.24 J-0.18
Y-253.86 I2.82 J-3.76
X-927.6 Y-250.1 I2.82 J3.76
X-935.12 Y-246.34 I-4.7
Y-253.86 I2.82 J-3.76
X-927.6 Y-250.1 I2.82 J3.76
X-935.85 Y-247.02 I-4.7
X-935.79 Y-247.867 I0.453 J-0.393
G1 X-935.337 Y-248.26
X-935.266 Y-248.321 Z7.007
X-935.197 Y-248.381 Z7.029
X-935.131 Y-248.438 Z7.065
X-935.071 Y-248.491 Z7.115
X-935.017 Y-248.538 Z7.176
X-934.97 Y-248.578 Z7.247
X-934.933 Y-248.61 Z7.328
X-934.906 Y-248.634 Z7.415
X-934.889 Y-248.648 Z7.506
X-934.884 Y-248.653 Z7.6
G0 Z33

(2D Contour9)
M9
X-857.3 Y-250.1
Z33
Z23
G1 Z7 F850
G3 X-857.24 Y-249.68 I-0.18 J0.24
G1 X-859.7 Y-246.4
G3 X-860.12 Y-246.34 I-0.24 J-0.18
Y-253.86 I2.82 J-3.76
X-852.6 Y-250.1 I2.82 J3.76
X-860.12 Y-246.34 I-4.7
Y-253.86 I2.82 J-3.76
X-852.6 Y-250.1 I2.82 J3.76
X-860.85 Y-247.02 I-4.7
X-860.79 Y-247.867 I0.453 J-0.393
G1 X-860.337 Y-248.26
X-860.266 Y-248.321 Z7.007
X-860.197 Y-248.381 Z7.029
X-860.131 Y-248.438 Z7.065
X-860.071 Y-248.491 Z7.115
X-860.017 Y-248.538 Z7.176
X-859.97 Y-248.578 Z7.247
X-859.933 Y-248.61 Z7.328
X-859.906 Y-248.634 Z7.415
X-859.889 Y-248.648 Z7.506
X-859.884 Y-248.653 Z7.6
G0 Z33

(2D Contour9)
M9
X-782.3 Y-250.1
Z33
Z23
G1 Z7 F850
G3 X-782.24 Y-249.68 I-0.18 J0.24
G1 X-784.7 Y-246.4
G3 X-785.12 Y-246.34 I-0.24 J-0.18
Y-253.86 I2.82 J-3.76
X-777.6 Y-250.1 I2.82 J3.76
X-785.12 Y-246.34 I-4.7
Y-253.86 I2.82 J-3.76
X-777.6 Y-250.1 I2.82 J3.76
X-785.85 Y-247.02 I-4.7
X-785.79 Y-247.867 I0.453 J-0.393
G1 X-785.337 Y-248.26
X-785.266 Y-248.321 Z7.007
X-785.197 Y-248.381 Z7.029
X-785.131 Y-248.438 Z7.065
X-785.071 Y-248.491 Z7.115
X-785.017 Y-248.538 Z7.176
X-784.97 Y-248.578 Z7.247
X-784.933 Y-248.61 Z7.328
X-784.906 Y-248.634 Z7.415
X-784.889 Y-248.648 Z7.506
X-784.884 Y-248.653 Z7.6
G0 Z33

(2D Contour9)
M9
X-707.3 Y-250.1
Z33
Z23
G1 Z7 F850
G3 X-707.24 Y-249.68 I-0.18 J0.24
G1 X-709.7 Y-246.4
G3 X-710.12 Y-246.34 I-0.24 J-0.18
Y-253.86 I2.82 J-3.76
X-702.6 Y-250.1 I2.82 J3.76
X-710.12 Y-246.34 I-4.7
Y-253.86 I2.82 J-3.76
X-702.6 Y-250.1 I2.82 J3.76
X-710.85 Y-247.02 I-4.7
X-710.79 Y-247.867 I0.453 J-0.393
G1 X-710.337 Y-248.26
X-710.266 Y-248.321 Z7.007
X-710.197 Y-248.381 Z7.029
X-710.131 Y-248.438 Z7.065
X-710.071 Y-248.491 Z7.115
X-710.017 Y-248.538 Z7.176
X-709.97 Y-248.578 Z7.247
X-709.933 Y-248.61 Z7.328
X-709.906 Y-248.634 Z7.415
X-709.889 Y-248.648 Z7.506
X-709.884 Y-248.653 Z7.6
G0 Z33

(2D Contour9)
M9
X-632.3 Y-250.1
Z33
Z23
G1 Z7 F850
G3 X-632.24 Y-249.68 I-0.18 J0.24
G1 X-634.7 Y-246.4
G3 X-635.12 Y-246.34 I-0.24 J-0.18
Y-253.86 I2.82 J-3.76
X-627.6 Y-250.1 I2.82 J3.76
X-635.12 Y-246.34 I-4.7
Y-253.86 I2.82 J-3.76
X-627.6 Y-250.1 I2.82 J3.76
X-635.85 Y-247.02 I-4.7
X-635.79 Y-247.867 I0.453 J-0.393
G1 X-635.337 Y-248.26
X-635.266 Y-248.321 Z7.007
X-635.197 Y-248.381 Z7.029
X-635.131 Y-248.438 Z7.065
X-635.071 Y-248.491 Z7.115
X-635.017 Y-248.538 Z7.176
X-634.97 Y-248.578 Z7.247
X-634.933 Y-248.61 Z7.328
X-634.906 Y-248.634 Z7.415
X-634.889 Y-248.648 Z7.506
X-634.884 Y-248.653 Z7.6
G0 Z33

(2D Contour9)
M9
X-557.3 Y-250.1
Z33
Z23
G1 Z7 F850
G3 X-557.24 Y-249.68 I-0.18 J0.24
G1 X-559.7 Y-246.4
G3 X-560.12 Y-246.34 I-0.24 J-0.18
Y-253.86 I2.82 J-3.76
X-552.6 Y-250.1 I2.82 J3.76
X-560.12 Y-246.34 I-4.7
Y-253.86 I2.82 J-3.76
X-552.6 Y-250.1 I2.82 J3.76
X-560.85 Y-247.02 I-4.7
X-560.79 Y-247.867 I0.453 J-0.393
G1 X-560.337 Y-248.26
X-560.266 Y-248.321 Z7.007
X-560.197 Y-248.381 Z7.029
X-560.131 Y-248.438 Z7.065
X-560.071 Y-248.491 Z7.115
X-560.017 Y-248.538 Z7.176
X-559.97 Y-248.578 Z7.247
X-559.933 Y-248.61 Z7.328
X-559.906 Y-248.634 Z7.415
X-559.889 Y-248.648 Z7.506
X-559.884 Y-248.653 Z7.6
G0 Z33

(2D Contour9)
M9
X-482.3 Y-250.1
Z33
Z23
G1 Z7 F850
G3 X-482.24 Y-249.68 I-0.18 J0.24
G1 X-484.7 Y-246.4
G3 X-485.12 Y-246.34 I-0.24 J-0.18
Y-253.86 I2.82 J-3.76
X-477.6 Y-250.1 I2.82 J3.76
X-485.12 Y-246.34 I-4.7
Y-253.86 I2.82 J-3.76
X-477.6 Y-250.1 I2.82 J3.76
X-485.85 Y-247.02 I-4.7
X-485.79 Y-247.867 I0.453 J-0.393
G1 X-485.337 Y-248.26
X-485.266 Y-248.321 Z7.007
X-485.197 Y-248.381 Z7.029
X-485.131 Y-248.438 Z7.065
X-485.071 Y-248.491 Z7.115
X-485.017 Y-248.538 Z7.176
X-484.97 Y-248.578 Z7.247
X-484.933 Y-248.61 Z7.328
X-484.906 Y-248.634 Z7.415
X-484.889 Y-248.648 Z7.506
X-484.884 Y-248.653 Z7.6
G0 Z33

(2D Contour9)
M9
X-407.3 Y-250.1
Z33
Z23
G1 Z7 F850
G3 X-407.24 Y-249.68 I-0.18 J0.24
G1 X-409.7 Y-246.4
G3 X-410.12 Y-246.34 I-0.24 J-0.18
Y-253.86 I2.82 J-3.76
X-402.6 Y-250.1 I2.82 J3.76
X-410.12 Y-246.34 I-4.7
Y-253.86 I2.82 J-3.76
X-402.6 Y-250.1 I2.82 J3.76
X-410.85 Y-247.02 I-4.7
X-410.79 Y-247.867 I0.453 J-0.393
G1 X-410.337 Y-248.26
X-410.266 Y-248.321 Z7.007
X-410.197 Y-248.381 Z7.029
X-410.131 Y-248.438 Z7.065
X-410.071 Y-248.491 Z7.115
X-410.017 Y-248.538 Z7.176
X-409.97 Y-248.578 Z7.247
X-409.933 Y-248.61 Z7.328
X-409.906 Y-248.634 Z7.415
X-409.889 Y-248.648 Z7.506
X-409.884 Y-248.653 Z7.6
G0 Z33

(2D Contour9)
M9
X-332.3 Y-250.1
Z33
Z23
G1 Z7 F850
G3 X-332.24 Y-249.68 I-0.18 J0.24
G1 X-334.7 Y-246.4
G3 X-335.12 Y-246.34 I-0.24 J-0.18
Y-253.86 I2.82 J-3.76
X-327.6 Y-250.1 I2.82 J3.76
X-335.12 Y-246.34 I-4.7
Y-253.86 I2.82 J-3.76
X-327.6 Y-250.1 I2.82 J3.76
X-335.85 Y-247.02 I-4.7
X-335.79 Y-247.867 I0.453 J-0.393
G1 X-335.337 Y-248.26
X-335.266 Y-248.321 Z7.007
X-335.197 Y-248.381 Z7.029
X-335.131 Y-248.438 Z7.065
X-335.071 Y-248.491 Z7.115
X-335.017 Y-248.538 Z7.176
X-334.97 Y-248.578 Z7.247
X-334.933 Y-248.61 Z7.328
X-334.906 Y-248.634 Z7.415
X-334.889 Y-248.648 Z7.506
X-334.884 Y-248.653 Z7.6
G0 Z33

(2D Contour9)
M9
X-257.3 Y-250.1
Z33
Z23
G1 Z7 F850
G3 X-257.24 Y-249.68 I-0.18 J0.24
G1 X-259.7 Y-246.4
G3 X-260.12 Y-246.34 I-0.24 J-0.18
Y-253.86 I2.82 J-3.76
X-252.6 Y-250.1 I2.82 J3.76
X-260.12 Y-246.34 I-4.7
Y-253.86 I2.82 J-3.76
X-252.6 Y-250.1 I2.82 J3.76
X-260.85 Y-247.02 I-4.7
X-260.79 Y-247.867 I0.453 J-0.393
G1 X-260.337 Y-248.26
X-260.266 Y-248.321 Z7.007
X-260.197 Y-248.381 Z7.029
X-260.131 Y-248.438 Z7.065
X-260.071 Y-248.491 Z7.115
X-260.017 Y-248.538 Z7.176
X-259.97 Y-248.578 Z7.247
X-259.933 Y-248.61 Z7.328
X-259.906 Y-248.634 Z7.415
X-259.889 Y-248.648 Z7.506
X-259.884 Y-248.653 Z7.6
G0 Z33

(2D Contour9)
M9
X-182.3 Y-250.1
Z33
Z23
G1 Z7 F850
G3 X-182.24 Y-249.68 I-0.18 J0.24
G1 X-184.7 Y-246.4
G3 X-185.12 Y-246.34 I-0.24 J-0.18
Y-253.86 I2.82 J-3.76
X-177.6 Y-250.1 I2.82 J3.76
X-185.12 Y-246.34 I-4.7
Y-253.86 I2.82 J-3.76
X-177.6 Y-250.1 I2.82 J3.76
X-185.85 Y-247.02 I-4.7
X-185.79 Y-247.867 I0.453 J-0.393
G1 X-185.337 Y-248.26
X-185.266 Y-248.321 Z7.007
X-185.197 Y-248.381 Z7.029
X-185.131 Y-248.438 Z7.065
X-185.071 Y-248.491 Z7.115
X-185.017 Y-248.538 Z7.176
X-184.97 Y-248.578 Z7.247
X-184.933 Y-248.61 Z7.328
X-184.906 Y-248.634 Z7.415
X-184.889 Y-248.648 Z7.506
X-184.884 Y-248.653 Z7.6
G0 Z33

(2D Contour9)
M9
X-1232.3 Y-325.1
Z33
Z23
G1 Z7 F850
G3 X-1232.24 Y-324.68 I-0.18 J0.24
G1 X-1234.7 Y-321.4
G3 X-1235.12 Y-321.34 I-0.24 J-0.18
Y-328.86 I2.82 J-3.76
X-1227.6 Y-325.1 I2.82 J3.76
X-1235.12 Y-321.34 I-4.7
Y-328.86 I2.82 J-3.76
X-1227.6 Y-325.1 I2.82 J3.76
X-1235.85 Y-322.02 I-4.7
X-1235.79 Y-322.867 I0.453 J-0.393
G1 X-1235.337 Y-323.26
X-1235.266 Y-323.321 Z7.007
X-1235.197 Y-323.381 Z7.029
X-1235.131 Y-323.438 Z7.065
X-1235.071 Y-323.491 Z7.115
X-1235.017 Y-323.538 Z7.176
X-1234.97 Y-323.578 Z7.247
X-1234.933 Y-323.61 Z7.328
X-1234.906 Y-323.634 Z7.415
X-1234.889 Y-323.648 Z7.506
X-1234.884 Y-323.653 Z7.6
G0 Z33

(2D Contour9)
M9
X-1157.3 Y-325.1
Z33
Z23
G1 Z7 F850
G3 X-1157.24 Y-324.68 I-0.18 J0.24
G1 X-1159.7 Y-321.4
G3 X-1160.12 Y-321.34 I-0.24 J-0.18
Y-328.86 I2.82 J-3.76
X-1152.6 Y-325.1 I2.82 J3.76
X-1160.12 Y-321.34 I-4.7
Y-328.86 I2.82 J-3.76
X-1152.6 Y-325.1 I2.82 J3.76
X-1160.85 Y-322.02 I-4.7
X-1160.79 Y-322.867 I0.453 J-0.393
G1 X-1160.337 Y-323.26
X-1160.266 Y-323.321 Z7.007
X-1160.197 Y-323.381 Z7.029
X-1160.131 Y-323.438 Z7.065
X-1160.071 Y-323.491 Z7.115
X-1160.017 Y-323.538 Z7.176
X-1159.97 Y-323.578 Z7.247
X-1159.933 Y-323.61 Z7.328
X-1159.906 Y-323.634 Z7.415
X-1159.889 Y-323.648 Z7.506
X-1159.884 Y-323.653 Z7.6
G0 Z33

(2D Contour9)
M9
X-1082.3 Y-325.1
Z33
Z23
G1 Z7 F850
G3 X-1082.24 Y-324.68 I-0.18 J0.24
G1 X-1084.7 Y-321.4
G3 X-1085.12 Y-321.34 I-0.24 J-0.18
Y-328.86 I2.82 J-3.76
X-1077.6 Y-325.1 I2.82 J3.76
X-1085.12 Y-321.34 I-4.7
Y-328.86 I2.82 J-3.76
X-1077.6 Y-325.1 I2.82 J3.76
X-1085.85 Y-322.02 I-4.7
X-1085.79 Y-322.867 I0.453 J-0.393
G1 X-1085.337 Y-323.26
X-1085.266 Y-323.321 Z7.007
X-1085.197 Y-323.381 Z7.029
X-1085.131 Y-323.438 Z7.065
X-1085.071 Y-323.491 Z7.115
X-1085.017 Y-323.538 Z7.176
X-1084.97 Y-323.578 Z7.247
X-1084.933 Y-323.61 Z7.328
X-1084.906 Y-323.634 Z7.415
X-1084.889 Y-323.648 Z7.506
X-1084.884 Y-323.653 Z7.6
G0 Z33

(2D Contour9)
M9
X-1007.3 Y-325.1
Z33
Z23
G1 Z7 F850
G3 X-1007.24 Y-324.68 I-0.18 J0.24
G1 X-1009.7 Y-321.4
G3 X-1010.12 Y-321.34 I-0.24 J-0.18
Y-328.86 I2.82 J-3.76
X-1002.6 Y-325.1 I2.82 J3.76
X-1010.12 Y-321.34 I-4.7
Y-328.86 I2.82 J-3.76
X-1002.6 Y-325.1 I2.82 J3.76
X-1010.85 Y-322.02 I-4.7
X-1010.79 Y-322.867 I0.453 J-0.393
G1 X-1010.337 Y-323.26
X-1010.266 Y-323.321 Z7.007
X-1010.197 Y-323.381 Z7.029
X-1010.131 Y-323.438 Z7.065
X-1010.071 Y-323.491 Z7.115
X-1010.017 Y-323.538 Z7.176
X-1009.97 Y-323.578 Z7.247
X-1009.933 Y-323.61 Z7.328
X-1009.906 Y-323.634 Z7.415
X-1009.889 Y-323.648 Z7.506
X-1009.884 Y-323.653 Z7.6
G0 Z33

(2D Contour9)
M9
X-932.3 Y-325.1
Z33
Z23
G1 Z7 F850
G3 X-932.24 Y-324.68 I-0.18 J0.24
G1 X-934.7 Y-321.4
G3 X-935.12 Y-321.34 I-0.24 J-0.18
Y-328.86 I2.82 J-3.76
X-927.6 Y-325.1 I2.82 J3.76
X-935.12 Y-321.34 I-4.7
Y-328.86 I2.82 J-3.76
X-927.6 Y-325.1 I2.82 J3.76
X-935.85 Y-322.02 I-4.7
X-935.79 Y-322.867 I0.453 J-0.393
G1 X-935.337 Y-323.26
X-935.266 Y-323.321 Z7.007
X-935.197 Y-323.381 Z7.029
X-935.131 Y-323.438 Z7.065
X-935.071 Y-323.491 Z7.115
X-935.017 Y-323.538 Z7.176
X-934.97 Y-323.578 Z7.247
X-934.933 Y-323.61 Z7.328
X-934.906 Y-323.634 Z7.415
X-934.889 Y-323.648 Z7.506
X-934.884 Y-323.653 Z7.6
G0 Z33

(2D Contour9)
M9
X-857.3 Y-325.1
Z33
Z23
G1 Z7 F850
G3 X-857.24 Y-324.68 I-0.18 J0.24
G1 X-859.7 Y-321.4
G3 X-860.12 Y-321.34 I-0.24 J-0.18
Y-328.86 I2.82 J-3.76
X-852.6 Y-325.1 I2.82 J3.76
X-860.12 Y-321.34 I-4.7
Y-328.86 I2.82 J-3.76
X-852.6 Y-325.1 I2.82 J3.76
X-860.85 Y-322.02 I-4.7
X-860.79 Y-322.867 I0.453 J-0.393
G1 X-860.337 Y-323.26
X-860.266 Y-323.321 Z7.007
X-860.197 Y-323.381 Z7.029
X-860.131 Y-323.438 Z7.065
X-860.071 Y-323.491 Z7.115
X-860.017 Y-323.538 Z7.176
X-859.97 Y-323.578 Z7.247
X-859.933 Y-323.61 Z7.328
X-859.906 Y-323.634 Z7.415
X-859.889 Y-323.648 Z7.506
X-859.884 Y-323.653 Z7.6
G0 Z33

(2D Contour9)
M9
X-782.3 Y-325.1
Z33
Z23
G1 Z7 F850
G3 X-782.24 Y-324.68 I-0.18 J0.24
G1 X-784.7 Y-321.4
G3 X-785.12 Y-321.34 I-0.24 J-0.18
Y-328.86 I2.82 J-3.76
X-777.6 Y-325.1 I2.82 J3.76
X-785.12 Y-321.34 I-4.7
Y-328.86 I2.82 J-3.76
X-777.6 Y-325.1 I2.82 J3.76
X-785.85 Y-322.02 I-4.7
X-785.79 Y-322.867 I0.453 J-0.393
G1 X-785.337 Y-323.26
X-785.266 Y-323.321 Z7.007
X-785.197 Y-323.381 Z7.029
X-785.131 Y-323.438 Z7.065
X-785.071 Y-323.491 Z7.115
X-785.017 Y-323.538 Z7.176
X-784.97 Y-323.578 Z7.247
X-784.933 Y-323.61 Z7.328
X-784.906 Y-323.634 Z7.415
X-784.889 Y-323.648 Z7.506
X-784.884 Y-323.653 Z7.6
G0 Z33

(2D Contour9)
M9
X-707.3 Y-325.1
Z33
Z23
G1 Z7 F850
G3 X-707.24 Y-324.68 I-0.18 J0.24
G1 X-709.7 Y-321.4
G3 X-710.12 Y-321.34 I-0.24 J-0.18
Y-328.86 I2.82 J-3.76
X-702.6 Y-325.1 I2.82 J3.76
X-710.12 Y-321.34 I-4.7
Y-328.86 I2.82 J-3.76
X-702.6 Y-325.1 I2.82 J3.76
X-710.85 Y-322.02 I-4.7
X-710.79 Y-322.867 I0.453 J-0.393
G1 X-710.337 Y-323.26
X-710.266 Y-323.321 Z7.007
X-710.197 Y-323.381 Z7.029
X-710.131 Y-323.438 Z7.065
X-710.071 Y-323.491 Z7.115
X-710.017 Y-323.538 Z7.176
X-709.97 Y-323.578 Z7.247
X-709.933 Y-323.61 Z7.328
X-709.906 Y-323.634 Z7.415
X-709.889 Y-323.648 Z7.506
X-709.884 Y-323.653 Z7.6
G0 Z33

(2D Contour9)
M9
X-632.3 Y-325.1
Z33
Z23
G1 Z7 F850
G3 X-632.24 Y-324.68 I-0.18 J0.24
G1 X-634.7 Y-321.4
G3 X-635.12 Y-321.34 I-0.24 J-0.18
Y-328.86 I2.82 J-3.76
X-627.6 Y-325.1 I2.82 J3.76
X-635.12 Y-321.34 I-4.7
Y-328.86 I2.82 J-3.76
X-627.6 Y-325.1 I2.82 J3.76
X-635.85 Y-322.02 I-4.7
X-635.79 Y-322.867 I0.453 J-0.393
G1 X-635.337 Y-323.26
X-635.266 Y-323.321 Z7.007
X-635.197 Y-323.381 Z7.029
X-635.131 Y-323.438 Z7.065
X-635.071 Y-323.491 Z7.115
X-635.017 Y-323.538 Z7.176
X-634.97 Y-323.578 Z7.247
X-634.933 Y-323.61 Z7.328
X-634.906 Y-323.634 Z7.415
X-634.889 Y-323.648 Z7.506
X-634.884 Y-323.653 Z7.6
G0 Z33

(2D Contour9)
M9
X-557.3 Y-325.1
Z33
Z23
G1 Z7 F850
G3 X-557.24 Y-324.68 I-0.18 J0.24
G1 X-559.7 Y-321.4
G3 X-560.12 Y-321.34 I-0.24 J-0.18
Y-328.86 I2.82 J-3.76
X-552.6 Y-325.1 I2.82 J3.76
X-560.12 Y-321.34 I-4.7
Y-328.86 I2.82 J-3.76
X-552.6 Y-325.1 I2.82 J3.76
X-560.85 Y-322.02 I-4.7
X-560.79 Y-322.867 I0.453 J-0.393
G1 X-560.337 Y-323.26
X-560.266 Y-323.321 Z7.007
X-560.197 Y-323.381 Z7.029
X-560.131 Y-323.438 Z7.065
X-560.071 Y-323.491 Z7.115
X-560.017 Y-323.538 Z7.176
X-559.97 Y-323.578 Z7.247
X-559.933 Y-323.61 Z7.328
X-559.906 Y-323.634 Z7.415
X-559.889 Y-323.648 Z7.506
X-559.884 Y-323.653 Z7.6
G0 Z33

(2D Contour9)
M9
X-482.3 Y-325.1
Z33
Z23
G1 Z7 F850
G3 X-482.24 Y-324.68 I-0.18 J0.24
G1 X-484.7 Y-321.4
G3 X-485.12 Y-321.34 I-0.24 J-0.18
Y-328.86 I2.82 J-3.76
X-477.6 Y-325.1 I2.82 J3.76
X-485.12 Y-321.34 I-4.7
Y-328.86 I2.82 J-3.76
X-477.6 Y-325.1 I2.82 J3.76
X-485.85 Y-322.02 I-4.7
X-485.79 Y-322.867 I0.453 J-0.393
G1 X-485.337 Y-323.26
X-485.266 Y-323.321 Z7.007
X-485.197 Y-323.381 Z7.029
X-485.131 Y-323.438 Z7.065
X-485.071 Y-323.491 Z7.115
X-485.017 Y-323.538 Z7.176
X-484.97 Y-323.578 Z7.247
X-484.933 Y-323.61 Z7.328
X-484.906 Y-323.634 Z7.415
X-484.889 Y-323.648 Z7.506
X-484.884 Y-323.653 Z7.6
G0 Z33

(2D Contour9)
M9
X-407.3 Y-325.1
Z33
Z23
G1 Z7 F850
G3 X-407.24 Y-324.68 I-0.18 J0.24
G1 X-409.7 Y-321.4
G3 X-410.12 Y-321.34 I-0.24 J-0.18
Y-328.86 I2.82 J-3.76
X-402.6 Y-325.1 I2.82 J3.76
X-410.12 Y-321.34 I-4.7
Y-328.86 I2.82 J-3.76
X-402.6 Y-325.1 I2.82 J3.76
X-410.85 Y-322.02 I-4.7
X-410.79 Y-322.867 I0.453 J-0.393
G1 X-410.337 Y-323.26
X-410.266 Y-323.321 Z7.007
X-410.197 Y-323.381 Z7.029
X-410.131 Y-323.438 Z7.065
X-410.071 Y-323.491 Z7.115
X-410.017 Y-323.538 Z7.176
X-409.97 Y-323.578 Z7.247
X-409.933 Y-323.61 Z7.328
X-409.906 Y-323.634 Z7.415
X-409.889 Y-323.648 Z7.506
X-409.884 Y-323.653 Z7.6
G0 Z33

(2D Contour9)
M9
X-332.3 Y-325.1
Z33
Z23
G1 Z7 F850
G3 X-332.24 Y-324.68 I-0.18 J0.24
G1 X-334.7 Y-321.4
G3 X-335.12 Y-321.34 I-0.24 J-0.18
Y-328.86 I2.82 J-3.76
X-327.6 Y-325.1 I2.82 J3.76
X-335.12 Y-321.34 I-4.7
Y-328.86 I2.82 J-3.76
X-327.6 Y-325.1 I2.82 J3.76
X-335.85 Y-322.02 I-4.7
X-335.79 Y-322.867 I0.453 J-0.393
G1 X-335.337 Y-323.26
X-335.266 Y-323.321 Z7.007
X-335.197 Y-323.381 Z7.029
X-335.131 Y-323.438 Z7.065
X-335.071 Y-323.491 Z7.115
X-335.017 Y-323.538 Z7.176
X-334.97 Y-323.578 Z7.247
X-334.933 Y-323.61 Z7.328
X-334.906 Y-323.634 Z7.415
X-334.889 Y-323.648 Z7.506
X-334.884 Y-323.653 Z7.6
G0 Z33

(2D Contour9)
M9
X-257.3 Y-325.1
Z33
Z23
G1 Z7 F850
G3 X-257.24 Y-324.68 I-0.18 J0.24
G1 X-259.7 Y-321.4
G3 X-260.12 Y-321.34 I-0.24 J-0.18
Y-328.86 I2.82 J-3.76
X-252.6 Y-325.1 I2.82 J3.76
X-260.12 Y-321.34 I-4.7
Y-328.86 I2.82 J-3.76
X-252.6 Y-325.1 I2.82 J3.76
X-260.85 Y-322.02 I-4.7
X-260.79 Y-322.867 I0.453 J-0.393
G1 X-260.337 Y-323.26
X-260.266 Y-323.321 Z7.007
X-260.197 Y-323.381 Z7.029
X-260.131 Y-323.438 Z7.065
X-260.071 Y-323.491 Z7.115
X-260.017 Y-323.538 Z7.176
X-259.97 Y-323.578 Z7.247
X-259.933 Y-323.61 Z7.328
X-259.906 Y-323.634 Z7.415
X-259.889 Y-323.648 Z7.506
X-259.884 Y-323.653 Z7.6
G0 Z33

(2D Contour9)
M9
X-182.3 Y-325.1
Z33
Z23
G1 Z7 F850
G3 X-182.24 Y-324.68 I-0.18 J0.24
G1 X-184.7 Y-321.4
G3 X-185.12 Y-321.34 I-0.24 J-0.18
Y-328.86 I2.82 J-3.76
X-177.6 Y-325.1 I2.82 J3.76
X-185.12 Y-321.34 I-4.7
Y-328.86 I2.82 J-3.76
X-177.6 Y-325.1 I2.82 J3.76
X-185.85 Y-322.02 I-4.7
X-185.79 Y-322.867 I0.453 J-0.393
G1 X-185.337 Y-323.26
X-185.266 Y-323.321 Z7.007
X-185.197 Y-323.381 Z7.029
X-185.131 Y-323.438 Z7.065
X-185.071 Y-323.491 Z7.115
X-185.017 Y-323.538 Z7.176
X-184.97 Y-323.578 Z7.247
X-184.933 Y-323.61 Z7.328
X-184.906 Y-323.634 Z7.415
X-184.889 Y-323.648 Z7.506
X-184.884 Y-323.653 Z7.6
G0 Z33

(2D Contour9)
M9
X-1232.3 Y-400.1
Z33
Z23
G1 Z7 F850
G3 X-1232.24 Y-399.68 I-0.18 J0.24
G1 X-1234.7 Y-396.4
G3 X-1235.12 Y-396.34 I-0.24 J-0.18
Y-403.86 I2.82 J-3.76
X-1227.6 Y-400.1 I2.82 J3.76
X-1235.12 Y-396.34 I-4.7
Y-403.86 I2.82 J-3.76
X-1227.6 Y-400.1 I2.82 J3.76
X-1235.85 Y-397.02 I-4.7
X-1235.79 Y-397.867 I0.453 J-0.393
G1 X-1235.337 Y-398.26
X-1235.266 Y-398.321 Z7.007
X-1235.197 Y-398.381 Z7.029
X-1235.131 Y-398.438 Z7.065
X-1235.071 Y-398.491 Z7.115
X-1235.017 Y-398.538 Z7.176
X-1234.97 Y-398.578 Z7.247
X-1234.933 Y-398.61 Z7.328
X-1234.906 Y-398.634 Z7.415
X-1234.889 Y-398.648 Z7.506
X-1234.884 Y-398.653 Z7.6
G0 Z33

(2D Contour9)
M9
X-1157.3 Y-400.1
Z33
Z23
G1 Z7 F850
G3 X-1157.24 Y-399.68 I-0.18 J0.24
G1 X-1159.7 Y-396.4
G3 X-1160.12 Y-396.34 I-0.24 J-0.18
Y-403.86 I2.82 J-3.76
X-1152.6 Y-400.1 I2.82 J3.76
X-1160.12 Y-396.34 I-4.7
Y-403.86 I2.82 J-3.76
X-1152.6 Y-400.1 I2.82 J3.76
X-1160.85 Y-397.02 I-4.7
X-1160.79 Y-397.867 I0.453 J-0.393
G1 X-1160.337 Y-398.26
X-1160.266 Y-398.321 Z7.007
X-1160.197 Y-398.381 Z7.029
X-1160.131 Y-398.438 Z7.065
X-1160.071 Y-398.491 Z7.115
X-1160.017 Y-398.538 Z7.176
X-1159.97 Y-398.578 Z7.247
X-1159.933 Y-398.61 Z7.328
X-1159.906 Y-398.634 Z7.415
X-1159.889 Y-398.648 Z7.506
X-1159.884 Y-398.653 Z7.6
G0 Z33

(2D Contour9)
M9
X-1082.3 Y-400.1
Z33
Z23
G1 Z7 F850
G3 X-1082.24 Y-399.68 I-0.18 J0.24
G1 X-1084.7 Y-396.4
G3 X-1085.12 Y-396.34 I-0.24 J-0.18
Y-403.86 I2.82 J-3.76
X-1077.6 Y-400.1 I2.82 J3.76
X-1085.12 Y-396.34 I-4.7
Y-403.86 I2.82 J-3.76
X-1077.6 Y-400.1 I2.82 J3.76
X-1085.85 Y-397.02 I-4.7
X-1085.79 Y-397.867 I0.453 J-0.393
G1 X-1085.337 Y-398.26
X-1085.266 Y-398.321 Z7.007
X-1085.197 Y-398.381 Z7.029
X-1085.131 Y-398.438 Z7.065
X-1085.071 Y-398.491 Z7.115
X-1085.017 Y-398.538 Z7.176
X-1084.97 Y-398.578 Z7.247
X-1084.933 Y-398.61 Z7.328
X-1084.906 Y-398.634 Z7.415
X-1084.889 Y-398.648 Z7.506
X-1084.884 Y-398.653 Z7.6
G0 Z33

(2D Contour9)
M9
X-1007.3 Y-400.1
Z33
Z23
G1 Z7 F850
G3 X-1007.24 Y-399.68 I-0.18 J0.24
G1 X-1009.7 Y-396.4
G3 X-1010.12 Y-396.34 I-0.24 J-0.18
Y-403.86 I2.82 J-3.76
X-1002.6 Y-400.1 I2.82 J3.76
X-1010.12 Y-396.34 I-4.7
Y-403.86 I2.82 J-3.76
X-1002.6 Y-400.1 I2.82 J3.76
X-1010.85 Y-397.02 I-4.7
X-1010.79 Y-397.867 I0.453 J-0.393
G1 X-1010.337 Y-398.26
X-1010.266 Y-398.321 Z7.007
X-1010.197 Y-398.381 Z7.029
X-1010.131 Y-398.438 Z7.065
X-1010.071 Y-398.491 Z7.115
X-1010.017 Y-398.538 Z7.176
X-1009.97 Y-398.578 Z7.247
X-1009.933 Y-398.61 Z7.328
X-1009.906 Y-398.634 Z7.415
X-1009.889 Y-398.648 Z7.506
X-1009.884 Y-398.653 Z7.6
G0 Z33

(2D Contour9)
M9
X-932.3 Y-400.1
Z33
Z23
G1 Z7 F850
G3 X-932.24 Y-399.68 I-0.18 J0.24
G1 X-934.7 Y-396.4
G3 X-935.12 Y-396.34 I-0.24 J-0.18
Y-403.86 I2.82 J-3.76
X-927.6 Y-400.1 I2.82 J3.76
X-935.12 Y-396.34 I-4.7
Y-403.86 I2.82 J-3.76
X-927.6 Y-400.1 I2.82 J3.76
X-935.85 Y-397.02 I-4.7
X-935.79 Y-397.867 I0.453 J-0.393
G1 X-935.337 Y-398.26
X-935.266 Y-398.321 Z7.007
X-935.197 Y-398.381 Z7.029
X-935.131 Y-398.438 Z7.065
X-935.071 Y-398.491 Z7.115
X-935.017 Y-398.538 Z7.176
X-934.97 Y-398.578 Z7.247
X-934.933 Y-398.61 Z7.328
X-934.906 Y-398.634 Z7.415
X-934.889 Y-398.648 Z7.506
X-934.884 Y-398.653 Z7.6
G0 Z33

(2D Contour9)
M9
X-857.3 Y-400.1
Z33
Z23
G1 Z7 F850
G3 X-857.24 Y-399.68 I-0.18 J0.24
G1 X-859.7 Y-396.4
G3 X-860.12 Y-396.34 I-0.24 J-0.18
Y-403.86 I2.82 J-3.76
X-852.6 Y-400.1 I2.82 J3.76
X-860.12 Y-396.34 I-4.7
Y-403.86 I2.82 J-3.76
X-852.6 Y-400.1 I2.82 J3.76
X-860.85 Y-397.02 I-4.7
X-860.79 Y-397.867 I0.453 J-0.393
G1 X-860.337 Y-398.26
X-860.266 Y-398.321 Z7.007
X-860.197 Y-398.381 Z7.029
X-860.131 Y-398.438 Z7.065
X-860.071 Y-398.491 Z7.115
X-860.017 Y-398.538 Z7.176
X-859.97 Y-398.578 Z7.247
X-859.933 Y-398.61 Z7.328
X-859.906 Y-398.634 Z7.415
X-859.889 Y-398.648 Z7.506
X-859.884 Y-398.653 Z7.6
G0 Z33

(2D Contour9)
M9
X-782.3 Y-400.1
Z33
Z23
G1 Z7 F850
G3 X-782.24 Y-399.68 I-0.18 J0.24
G1 X-784.7 Y-396.4
G3 X-785.12 Y-396.34 I-0.24 J-0.18
Y-403.86 I2.82 J-3.76
X-777.6 Y-400.1 I2.82 J3.76
X-785.12 Y-396.34 I-4.7
Y-403.86 I2.82 J-3.76
X-777.6 Y-400.1 I2.82 J3.76
X-785.85 Y-397.02 I-4.7
X-785.79 Y-397.867 I0.453 J-0.393
G1 X-785.337 Y-398.26
X-785.266 Y-398.321 Z7.007
X-785.197 Y-398.381 Z7.029
X-785.131 Y-398.438 Z7.065
X-785.071 Y-398.491 Z7.115
X-785.017 Y-398.538 Z7.176
X-784.97 Y-398.578 Z7.247
X-784.933 Y-398.61 Z7.328
X-784.906 Y-398.634 Z7.415
X-784.889 Y-398.648 Z7.506
X-784.884 Y-398.653 Z7.6
G0 Z33

(2D Contour9)
M9
X-707.3 Y-400.1
Z33
Z23
G1 Z7 F850
G3 X-707.24 Y-399.68 I-0.18 J0.24
G1 X-709.7 Y-396.4
G3 X-710.12 Y-396.34 I-0.24 J-0.18
Y-403.86 I2.82 J-3.76
X-702.6 Y-400.1 I2.82 J3.76
X-710.12 Y-396.34 I-4.7
Y-403.86 I2.82 J-3.76
X-702.6 Y-400.1 I2.82 J3.76
X-710.85 Y-397.02 I-4.7
X-710.79 Y-397.867 I0.453 J-0.393
G1 X-710.337 Y-398.26
X-710.266 Y-398.321 Z7.007
X-710.197 Y-398.381 Z7.029
X-710.131 Y-398.438 Z7.065
X-710.071 Y-398.491 Z7.115
X-710.017 Y-398.538 Z7.176
X-709.97 Y-398.578 Z7.247
X-709.933 Y-398.61 Z7.328
X-709.906 Y-398.634 Z7.415
X-709.889 Y-398.648 Z7.506
X-709.884 Y-398.653 Z7.6
G0 Z33

(2D Contour9)
M9
X-632.3 Y-400.1
Z33
Z23
G1 Z7 F850
G3 X-632.24 Y-399.68 I-0.18 J0.24
G1 X-634.7 Y-396.4
G3 X-635.12 Y-396.34 I-0.24 J-0.18
Y-403.86 I2.82 J-3.76
X-627.6 Y-400.1 I2.82 J3.76
X-635.12 Y-396.34 I-4.7
Y-403.86 I2.82 J-3.76
X-627.6 Y-400.1 I2.82 J3.76
X-635.85 Y-397.02 I-4.7
X-635.79 Y-397.867 I0.453 J-0.393
G1 X-635.337 Y-398.26
X-635.266 Y-398.321 Z7.007
X-635.197 Y-398.381 Z7.029
X-635.131 Y-398.438 Z7.065
X-635.071 Y-398.491 Z7.115
X-635.017 Y-398.538 Z7.176
X-634.97 Y-398.578 Z7.247
X-634.933 Y-398.61 Z7.328
X-634.906 Y-398.634 Z7.415
X-634.889 Y-398.648 Z7.506
X-634.884 Y-398.653 Z7.6
G0 Z33

(2D Contour9)
M9
X-557.3 Y-400.1
Z33
Z23
G1 Z7 F850
G3 X-557.24 Y-399.68 I-0.18 J0.24
G1 X-559.7 Y-396.4
G3 X-560.12 Y-396.34 I-0.24 J-0.18
Y-403.86 I2.82 J-3.76
X-552.6 Y-400.1 I2.82 J3.76
X-560.12 Y-396.34 I-4.7
Y-403.86 I2.82 J-3.76
X-552.6 Y-400.1 I2.82 J3.76
X-560.85 Y-397.02 I-4.7
X-560.79 Y-397.867 I0.453 J-0.393
G1 X-560.337 Y-398.26
X-560.266 Y-398.321 Z7.007
X-560.197 Y-398.381 Z7.029
X-560.131 Y-398.438 Z7.065
X-560.071 Y-398.491 Z7.115
X-560.017 Y-398.538 Z7.176
X-559.97 Y-398.578 Z7.247
X-559.933 Y-398.61 Z7.328
X-559.906 Y-398.634 Z7.415
X-559.889 Y-398.648 Z7.506
X-559.884 Y-398.653 Z7.6
G0 Z33

(2D Contour9)
M9
X-482.3 Y-400.1
Z33
Z23
G1 Z7 F850
G3 X-482.24 Y-399.68 I-0.18 J0.24
G1 X-484.7 Y-396.4
G3 X-485.12 Y-396.34 I-0.24 J-0.18
Y-403.86 I2.82 J-3.76
X-477.6 Y-400.1 I2.82 J3.76
X-485.12 Y-396.34 I-4.7
Y-403.86 I2.82 J-3.76
X-477.6 Y-400.1 I2.82 J3.76
X-485.85 Y-397.02 I-4.7
X-485.79 Y-397.867 I0.453 J-0.393
G1 X-485.337 Y-398.26
X-485.266 Y-398.321 Z7.007
X-485.197 Y-398.381 Z7.029
X-485.131 Y-398.438 Z7.065
X-485.071 Y-398.491 Z7.115
X-485.017 Y-398.538 Z7.176
X-484.97 Y-398.578 Z7.247
X-484.933 Y-398.61 Z7.328
X-484.906 Y-398.634 Z7.415
X-484.889 Y-398.648 Z7.506
X-484.884 Y-398.653 Z7.6
G0 Z33

(2D Contour9)
M9
X-407.3 Y-400.1
Z33
Z23
G1 Z7 F850
G3 X-407.24 Y-399.68 I-0.18 J0.24
G1 X-409.7 Y-396.4
G3 X-410.12 Y-396.34 I-0.24 J-0.18
Y-403.86 I2.82 J-3.76
X-402.6 Y-400.1 I2.82 J3.76
X-410.12 Y-396.34 I-4.7
Y-403.86 I2.82 J-3.76
X-402.6 Y-400.1 I2.82 J3.76
X-410.85 Y-397.02 I-4.7
X-410.79 Y-397.867 I0.453 J-0.393
G1 X-410.337 Y-398.26
X-410.266 Y-398.321 Z7.007
X-410.197 Y-398.381 Z7.029
X-410.131 Y-398.438 Z7.065
X-410.071 Y-398.491 Z7.115
X-410.017 Y-398.538 Z7.176
X-409.97 Y-398.578 Z7.247
X-409.933 Y-398.61 Z7.328
X-409.906 Y-398.634 Z7.415
X-409.889 Y-398.648 Z7.506
X-409.884 Y-398.653 Z7.6
G0 Z33

(2D Contour9)
M9
X-332.3 Y-400.1
Z33
Z23
G1 Z7 F850
G3 X-332.24 Y-399.68 I-0.18 J0.24
G1 X-334.7 Y-396.4
G3 X-335.12 Y-396.34 I-0.24 J-0.18
Y-403.86 I2.82 J-3.76
X-327.6 Y-400.1 I2.82 J3.76
X-335.12 Y-396.34 I-4.7
Y-403.86 I2.82 J-3.76
X-327.6 Y-400.1 I2.82 J3.76
X-335.85 Y-397.02 I-4.7
X-335.79 Y-397.867 I0.453 J-0.393
G1 X-335.337 Y-398.26
X-335.266 Y-398.321 Z7.007
X-335.197 Y-398.381 Z7.029
X-335.131 Y-398.438 Z7.065
X-335.071 Y-398.491 Z7.115
X-335.017 Y-398.538 Z7.176
X-334.97 Y-398.578 Z7.247
X-334.933 Y-398.61 Z7.328
X-334.906 Y-398.634 Z7.415
X-334.889 Y-398.648 Z7.506
X-334.884 Y-398.653 Z7.6
G0 Z33

(2D Contour9)
M9
X-257.3 Y-400.1
Z33
Z23
G1 Z7 F850
G3 X-257.24 Y-399.68 I-0.18 J0.24
G1 X-259.7 Y-396.4
G3 X-260.12 Y-396.34 I-0.24 J-0.18
Y-403.86 I2.82 J-3.76
X-252.6 Y-400.1 I2.82 J3.76
X-260.12 Y-396.34 I-4.7
Y-403.86 I2.82 J-3.76
X-252.6 Y-400.1 I2.82 J3.76
X-260.85 Y-397.02 I-4.7
X-260.79 Y-397.867 I0.453 J-0.393
G1 X-260.337 Y-398.26
X-260.266 Y-398.321 Z7.007
X-260.197 Y-398.381 Z7.029
X-260.131 Y-398.438 Z7.065
X-260.071 Y-398.491 Z7.115
X-260.017 Y-398.538 Z7.176
X-259.97 Y-398.578 Z7.247
X-259.933 Y-398.61 Z7.328
X-259.906 Y-398.634 Z7.415
X-259.889 Y-398.648 Z7.506
X-259.884 Y-398.653 Z7.6
G0 Z33

(2D Contour9)
M9
X-182.3 Y-400.1
Z33
Z23
G1 Z7 F850
G3 X-182.24 Y-399.68 I-0.18 J0.24
G1 X-184.7 Y-396.4
G3 X-185.12 Y-396.34 I-0.24 J-0.18
Y-403.86 I2.82 J-3.76
X-177.6 Y-400.1 I2.82 J3.76
X-185.12 Y-396.34 I-4.7
Y-403.86 I2.82 J-3.76
X-177.6 Y-400.1 I2.82 J3.76
X-185.85 Y-397.02 I-4.7
X-185.79 Y-397.867 I0.453 J-0.393
G1 X-185.337 Y-398.26
X-185.266 Y-398.321 Z7.007
X-185.197 Y-398.381 Z7.029
X-185.131 Y-398.438 Z7.065
X-185.071 Y-398.491 Z7.115
X-185.017 Y-398.538 Z7.176
X-184.97 Y-398.578 Z7.247
X-184.933 Y-398.61 Z7.328
X-184.906 Y-398.634 Z7.415
X-184.889 Y-398.648 Z7.506
X-184.884 Y-398.653 Z7.6
G0 Z33

(2D Contour9)
M9
X-1232.3 Y-475.1
Z33
Z23
G1 Z7 F850
G3 X-1232.24 Y-474.68 I-0.18 J0.24
G1 X-1234.7 Y-471.4
G3 X-1235.12 Y-471.34 I-0.24 J-0.18
Y-478.86 I2.82 J-3.76
X-1227.6 Y-475.1 I2.82 J3.76
X-1235.12 Y-471.34 I-4.7
Y-478.86 I2.82 J-3.76
X-1227.6 Y-475.1 I2.82 J3.76
X-1235.85 Y-472.02 I-4.7
X-1235.79 Y-472.867 I0.453 J-0.393
G1 X-1235.337 Y-473.26
X-1235.266 Y-473.321 Z7.007
X-1235.197 Y-473.381 Z7.029
X-1235.131 Y-473.438 Z7.065
X-1235.071 Y-473.491 Z7.115
X-1235.017 Y-473.538 Z7.176
X-1234.97 Y-473.578 Z7.247
X-1234.933 Y-473.61 Z7.328
X-1234.906 Y-473.634 Z7.415
X-1234.889 Y-473.648 Z7.506
X-1234.884 Y-473.653 Z7.6
G0 Z33

(2D Contour9)
M9
X-1157.3 Y-475.1
Z33
Z23
G1 Z7 F850
G3 X-1157.24 Y-474.68 I-0.18 J0.24
G1 X-1159.7 Y-471.4
G3 X-1160.12 Y-471.34 I-0.24 J-0.18
Y-478.86 I2.82 J-3.76
X-1152.6 Y-475.1 I2.82 J3.76
X-1160.12 Y-471.34 I-4.7
Y-478.86 I2.82 J-3.76
X-1152.6 Y-475.1 I2.82 J3.76
X-1160.85 Y-472.02 I-4.7
X-1160.79 Y-472.867 I0.453 J-0.393
G1 X-1160.337 Y-473.26
X-1160.266 Y-473.321 Z7.007
X-1160.197 Y-473.381 Z7.029
X-1160.131 Y-473.438 Z7.065
X-1160.071 Y-473.491 Z7.115
X-1160.017 Y-473.538 Z7.176
X-1159.97 Y-473.578 Z7.247
X-1159.933 Y-473.61 Z7.328
X-1159.906 Y-473.634 Z7.415
X-1159.889 Y-473.648 Z7.506
X-1159.884 Y-473.653 Z7.6
G0 Z33

(2D Contour9)
M9
X-1082.3 Y-475.1
Z33
Z23
G1 Z7 F850
G3 X-1082.24 Y-474.68 I-0.18 J0.24
G1 X-1084.7 Y-471.4
G3 X-1085.12 Y-471.34 I-0.24 J-0.18
Y-478.86 I2.82 J-3.76
X-1077.6 Y-475.1 I2.82 J3.76
X-1085.12 Y-471.34 I-4.7
Y-478.86 I2.82 J-3.76
X-1077.6 Y-475.1 I2.82 J3.76
X-1085.85 Y-472.02 I-4.7
X-1085.79 Y-472.867 I0.453 J-0.393
G1 X-1085.337 Y-473.26
X-1085.266 Y-473.321 Z7.007
X-1085.197 Y-473.381 Z7.029
X-1085.131 Y-473.438 Z7.065
X-1085.071 Y-473.491 Z7.115
X-1085.017 Y-473.538 Z7.176
X-1084.97 Y-473.578 Z7.247
X-1084.933 Y-473.61 Z7.328
X-1084.906 Y-473.634 Z7.415
X-1084.889 Y-473.648 Z7.506
X-1084.884 Y-473.653 Z7.6
G0 Z33

(2D Contour9)
M9
X-1007.3 Y-475.1
Z33
Z23
G1 Z7 F850
G3 X-1007.24 Y-474.68 I-0.18 J0.24
G1 X-1009.7 Y-471.4
G3 X-1010.12 Y-471.34 I-0.24 J-0.18
Y-478.86 I2.82 J-3.76
X-1002.6 Y-475.1 I2.82 J3.76
X-1010.12 Y-471.34 I-4.7
Y-478.86 I2.82 J-3.76
X-1002.6 Y-475.1 I2.82 J3.76
X-1010.85 Y-472.02 I-4.7
X-1010.79 Y-472.867 I0.453 J-0.393
G1 X-1010.337 Y-473.26
X-1010.266 Y-473.321 Z7.007
X-1010.197 Y-473.381 Z7.029
X-1010.131 Y-473.438 Z7.065
X-1010.071 Y-473.491 Z7.115
X-1010.017 Y-473.538 Z7.176
X-1009.97 Y-473.578 Z7.247
X-1009.933 Y-473.61 Z7.328
X-1009.906 Y-473.634 Z7.415
X-1009.889 Y-473.648 Z7.506
X-1009.884 Y-473.653 Z7.6
G0 Z33

(2D Contour9)
M9
X-932.3 Y-475.1
Z33
Z23
G1 Z7 F850
G3 X-932.24 Y-474.68 I-0.18 J0.24
G1 X-934.7 Y-471.4
G3 X-935.12 Y-471.34 I-0.24 J-0.18
Y-478.86 I2.82 J-3.76
X-927.6 Y-475.1 I2.82 J3.76
X-935.12 Y-471.34 I-4.7
Y-478.86 I2.82 J-3.76
X-927.6 Y-475.1 I2.82 J3.76
X-935.85 Y-472.02 I-4.7
X-935.79 Y-472.867 I0.453 J-0.393
G1 X-935.337 Y-473.26
X-935.266 Y-473.321 Z7.007
X-935.197 Y-473.381 Z7.029
X-935.131 Y-473.438 Z7.065
X-935.071 Y-473.491 Z7.115
X-935.017 Y-473.538 Z7.176
X-934.97 Y-473.578 Z7.247
X-934.933 Y-473.61 Z7.328
X-934.906 Y-473.634 Z7.415
X-934.889 Y-473.648 Z7.506
X-934.884 Y-473.653 Z7.6
G0 Z33

(2D Contour9)
M9
X-857.3 Y-475.1
Z33
Z23
G1 Z7 F850
G3 X-857.24 Y-474.68 I-0.18 J0.24
G1 X-859.7 Y-471.4
G3 X-860.12 Y-471.34 I-0.24 J-0.18
Y-478.86 I2.82 J-3.76
X-852.6 Y-475.1 I2.82 J3.76
X-860.12 Y-471.34 I-4.7
Y-478.86 I2.82 J-3.76
X-852.6 Y-475.1 I2.82 J3.76
X-860.85 Y-472.02 I-4.7
X-860.79 Y-472.867 I0.453 J-0.393
G1 X-860.337 Y-473.26
X-860.266 Y-473.321 Z7.007
X-860.197 Y-473.381 Z7.029
X-860.131 Y-473.438 Z7.065
X-860.071 Y-473.491 Z7.115
X-860.017 Y-473.538 Z7.176
X-859.97 Y-473.578 Z7.247
X-859.933 Y-473.61 Z7.328
X-859.906 Y-473.634 Z7.415
X-859.889 Y-473.648 Z7.506
X-859.884 Y-473.653 Z7.6
G0 Z33

(2D Contour9)
M9
X-782.3 Y-475.1
Z33
Z23
G1 Z7 F850
G3 X-782.24 Y-474.68 I-0.18 J0.24
G1 X-784.7 Y-471.4
G3 X-785.12 Y-471.34 I-0.24 J-0.18
Y-478.86 I2.82 J-3.76
X-777.6 Y-475.1 I2.82 J3.76
X-785.12 Y-471.34 I-4.7
Y-478.86 I2.82 J-3.76
X-777.6 Y-475.1 I2.82 J3.76
X-785.85 Y-472.02 I-4.7
X-785.79 Y-472.867 I0.453 J-0.393
G1 X-785.337 Y-473.26
X-785.266 Y-473.321 Z7.007
X-785.197 Y-473.381 Z7.029
X-785.131 Y-473.438 Z7.065
X-785.071 Y-473.491 Z7.115
X-785.017 Y-473.538 Z7.176
X-784.97 Y-473.578 Z7.247
X-784.933 Y-473.61 Z7.328
X-784.906 Y-473.634 Z7.415
X-784.889 Y-473.648 Z7.506
X-784.884 Y-473.653 Z7.6
G0 Z33

(2D Contour9)
M9
X-707.3 Y-475.1
Z33
Z23
G1 Z7 F850
G3 X-707.24 Y-474.68 I-0.18 J0.24
G1 X-709.7 Y-471.4
G3 X-710.12 Y-471.34 I-0.24 J-0.18
Y-478.86 I2.82 J-3.76
X-702.6 Y-475.1 I2.82 J3.76
X-710.12 Y-471.34 I-4.7
Y-478.86 I2.82 J-3.76
X-702.6 Y-475.1 I2.82 J3.76
X-710.85 Y-472.02 I-4.7
X-710.79 Y-472.867 I0.453 J-0.393
G1 X-710.337 Y-473.26
X-710.266 Y-473.321 Z7.007
X-710.197 Y-473.381 Z7.029
X-710.131 Y-473.438 Z7.065
X-710.071 Y-473.491 Z7.115
X-710.017 Y-473.538 Z7.176
X-709.97 Y-473.578 Z7.247
X-709.933 Y-473.61 Z7.328
X-709.906 Y-473.634 Z7.415
X-709.889 Y-473.648 Z7.506
X-709.884 Y-473.653 Z7.6
G0 Z33

(2D Contour9)
M9
X-632.3 Y-475.1
Z33
Z23
G1 Z7 F850
G3 X-632.24 Y-474.68 I-0.18 J0.24
G1 X-634.7 Y-471.4
G3 X-635.12 Y-471.34 I-0.24 J-0.18
Y-478.86 I2.82 J-3.76
X-627.6 Y-475.1 I2.82 J3.76
X-635.12 Y-471.34 I-4.7
Y-478.86 I2.82 J-3.76
X-627.6 Y-475.1 I2.82 J3.76
X-635.85 Y-472.02 I-4.7
X-635.79 Y-472.867 I0.453 J-0.393
G1 X-635.337 Y-473.26
X-635.266 Y-473.321 Z7.007
X-635.197 Y-473.381 Z7.029
X-635.131 Y-473.438 Z7.065
X-635.071 Y-473.491 Z7.115
X-635.017 Y-473.538 Z7.176
X-634.97 Y-473.578 Z7.247
X-634.933 Y-473.61 Z7.328
X-634.906 Y-473.634 Z7.415
X-634.889 Y-473.648 Z7.506
X-634.884 Y-473.653 Z7.6
G0 Z33

(2D Contour9)
M9
X-557.3 Y-475.1
Z33
Z23
G1 Z7 F850
G3 X-557.24 Y-474.68 I-0.18 J0.24
G1 X-559.7 Y-471.4
G3 X-560.12 Y-471.34 I-0.24 J-0.18
Y-478.86 I2.82 J-3.76
X-552.6 Y-475.1 I2.82 J3.76
X-560.12 Y-471.34 I-4.7
Y-478.86 I2.82 J-3.76
X-552.6 Y-475.1 I2.82 J3.76
X-560.85 Y-472.02 I-4.7
X-560.79 Y-472.867 I0.453 J-0.393
G1 X-560.337 Y-473.26
X-560.266 Y-473.321 Z7.007
X-560.197 Y-473.381 Z7.029
X-560.131 Y-473.438 Z7.065
X-560.071 Y-473.491 Z7.115
X-560.017 Y-473.538 Z7.176
X-559.97 Y-473.578 Z7.247
X-559.933 Y-473.61 Z7.328
X-559.906 Y-473.634 Z7.415
X-559.889 Y-473.648 Z7.506
X-559.884 Y-473.653 Z7.6
G0 Z33

(2D Contour9)
M9
X-482.3 Y-475.1
Z33
Z23
G1 Z7 F850
G3 X-482.24 Y-474.68 I-0.18 J0.24
G1 X-484.7 Y-471.4
G3 X-485.12 Y-471.34 I-0.24 J-0.18
Y-478.86 I2.82 J-3.76
X-477.6 Y-475.1 I2.82 J3.76
X-485.12 Y-471.34 I-4.7
Y-478.86 I2.82 J-3.76
X-477.6 Y-475.1 I2.82 J3.76
X-485.85 Y-472.02 I-4.7
X-485.79 Y-472.867 I0.453 J-0.393
G1 X-485.337 Y-473.26
X-485.266 Y-473.321 Z7.007
X-485.197 Y-473.381 Z7.029
X-485.131 Y-473.438 Z7.065
X-485.071 Y-473.491 Z7.115
X-485.017 Y-473.538 Z7.176
X-484.97 Y-473.578 Z7.247
X-484.933 Y-473.61 Z7.328
X-484.906 Y-473.634 Z7.415
X-484.889 Y-473.648 Z7.506
X-484.884 Y-473.653 Z7.6
G0 Z33

(2D Contour9)
M9
X-407.3 Y-475.1
Z33
Z23
G1 Z7 F850
G3 X-407.24 Y-474.68 I-0.18 J0.24
G1 X-409.7 Y-471.4
G3 X-410.12 Y-471.34 I-0.24 J-0.18
Y-478.86 I2.82 J-3.76
X-402.6 Y-475.1 I2.82 J3.76
X-410.12 Y-471.34 I-4.7
Y-478.86 I2.82 J-3.76
X-402.6 Y-475.1 I2.82 J3.76
X-410.85 Y-472.02 I-4.7
X-410.79 Y-472.867 I0.453 J-0.393
G1 X-410.337 Y-473.26
X-410.266 Y-473.321 Z7.007
X-410.197 Y-473.381 Z7.029
X-410.131 Y-473.438 Z7.065
X-410.071 Y-473.491 Z7.115
X-410.017 Y-473.538 Z7.176
X-409.97 Y-473.578 Z7.247
X-409.933 Y-473.61 Z7.328
X-409.906 Y-473.634 Z7.415
X-409.889 Y-473.648 Z7.506
X-409.884 Y-473.653 Z7.6
G0 Z33

(2D Contour9)
M9
X-332.3 Y-475.1
Z33
Z23
G1 Z7 F850
G3 X-332.24 Y-474.68 I-0.18 J0.24
G1 X-334.7 Y-471.4
G3 X-335.12 Y-471.34 I-0.24 J-0.18
Y-478.86 I2.82 J-3.76
X-327.6 Y-475.1 I2.82 J3.76
X-335.12 Y-471.34 I-4.7
Y-478.86 I2.82 J-3.76
X-327.6 Y-475.1 I2.82 J3.76
X-335.85 Y-472.02 I-4.7
X-335.79 Y-472.867 I0.453 J-0.393
G1 X-335.337 Y-473.26
X-335.266 Y-473.321 Z7.007
X-335.197 Y-473.381 Z7.029
X-335.131 Y-473.438 Z7.065
X-335.071 Y-473.491 Z7.115
X-335.017 Y-473.538 Z7.176
X-334.97 Y-473.578 Z7.247
X-334.933 Y-473.61 Z7.328
X-334.906 Y-473.634 Z7.415
X-334.889 Y-473.648 Z7.506
X-334.884 Y-473.653 Z7.6
G0 Z33

(2D Contour9)
M9
X-257.3 Y-475.1
Z33
Z23
G1 Z7 F850
G3 X-257.24 Y-474.68 I-0.18 J0.24
G1 X-259.7 Y-471.4
G3 X-260.12 Y-471.34 I-0.24 J-0.18
Y-478.86 I2.82 J-3.76
X-252.6 Y-475.1 I2.82 J3.76
X-260.12 Y-471.34 I-4.7
Y-478.86 I2.82 J-3.76
X-252.6 Y-475.1 I2.82 J3.76
X-260.85 Y-472.02 I-4.7
X-260.79 Y-472.867 I0.453 J-0.393
G1 X-260.337 Y-473.26
X-260.266 Y-473.321 Z7.007
X-260.197 Y-473.381 Z7.029
X-260.131 Y-473.438 Z7.065
X-260.071 Y-473.491 Z7.115
X-260.017 Y-473.538 Z7.176
X-259.97 Y-473.578 Z7.247
X-259.933 Y-473.61 Z7.328
X-259.906 Y-473.634 Z7.415
X-259.889 Y-473.648 Z7.506
X-259.884 Y-473.653 Z7.6
G0 Z33

(2D Contour9)
M9
X-182.3 Y-475.1
Z33
Z23
G1 Z7 F850
G3 X-182.24 Y-474.68 I-0.18 J0.24
G1 X-184.7 Y-471.4
G3 X-185.12 Y-471.34 I-0.24 J-0.18
Y-478.86 I2.82 J-3.76
X-177.6 Y-475.1 I2.82 J3.76
X-185.12 Y-471.34 I-4.7
Y-478.86 I2.82 J-3.76
X-177.6 Y-475.1 I2.82 J3.76
X-185.85 Y-472.02 I-4.7
X-185.79 Y-472.867 I0.453 J-0.393
G1 X-185.337 Y-473.26
X-185.266 Y-473.321 Z7.007
X-185.197 Y-473.381 Z7.029
X-185.131 Y-473.438 Z7.065
X-185.071 Y-473.491 Z7.115
X-185.017 Y-473.538 Z7.176
X-184.97 Y-473.578 Z7.247
X-184.933 Y-473.61 Z7.328
X-184.906 Y-473.634 Z7.415
X-184.889 Y-473.648 Z7.506
X-184.884 Y-473.653 Z7.6
G0 Z33

(2D Contour9)
M9
X-1232.3 Y-550.1
Z33
Z23
G1 Z7 F850
G3 X-1232.24 Y-549.68 I-0.18 J0.24
G1 X-1234.7 Y-546.4
G3 X-1235.12 Y-546.34 I-0.24 J-0.18
Y-553.86 I2.82 J-3.76
X-1227.6 Y-550.1 I2.82 J3.76
X-1235.12 Y-546.34 I-4.7
Y-553.86 I2.82 J-3.76
X-1227.6 Y-550.1 I2.82 J3.76
X-1235.85 Y-547.02 I-4.7
X-1235.79 Y-547.867 I0.453 J-0.393
G1 X-1235.337 Y-548.26
X-1235.266 Y-548.321 Z7.007
X-1235.197 Y-548.381 Z7.029
X-1235.131 Y-548.438 Z7.065
X-1235.071 Y-548.491 Z7.115
X-1235.017 Y-548.538 Z7.176
X-1234.97 Y-548.578 Z7.247
X-1234.933 Y-548.61 Z7.328
X-1234.906 Y-548.634 Z7.415
X-1234.889 Y-548.648 Z7.506
X-1234.884 Y-548.653 Z7.6
G0 Z33

(2D Contour9)
M9
X-1157.3 Y-550.1
Z33
Z23
G1 Z7 F850
G3 X-1157.24 Y-549.68 I-0.18 J0.24
G1 X-1159.7 Y-546.4
G3 X-1160.12 Y-546.34 I-0.24 J-0.18
Y-553.86 I2.82 J-3.76
X-1152.6 Y-550.1 I2.82 J3.76
X-1160.12 Y-546.34 I-4.7
Y-553.86 I2.82 J-3.76
X-1152.6 Y-550.1 I2.82 J3.76
X-1160.85 Y-547.02 I-4.7
X-1160.79 Y-547.867 I0.453 J-0.393
G1 X-1160.337 Y-548.26
X-1160.266 Y-548.321 Z7.007
X-1160.197 Y-548.381 Z7.029
X-1160.131 Y-548.438 Z7.065
X-1160.071 Y-548.491 Z7.115
X-1160.017 Y-548.538 Z7.176
X-1159.97 Y-548.578 Z7.247
X-1159.933 Y-548.61 Z7.328
X-1159.906 Y-548.634 Z7.415
X-1159.889 Y-548.648 Z7.506
X-1159.884 Y-548.653 Z7.6
G0 Z33

(2D Contour9)
M9
X-1082.3 Y-550.1
Z33
Z23
G1 Z7 F850
G3 X-1082.24 Y-549.68 I-0.18 J0.24
G1 X-1084.7 Y-546.4
G3 X-1085.12 Y-546.34 I-0.24 J-0.18
Y-553.86 I2.82 J-3.76
X-1077.6 Y-550.1 I2.82 J3.76
X-1085.12 Y-546.34 I-4.7
Y-553.86 I2.82 J-3.76
X-1077.6 Y-550.1 I2.82 J3.76
X-1085.85 Y-547.02 I-4.7
X-1085.79 Y-547.867 I0.453 J-0.393
G1 X-1085.337 Y-548.26
X-1085.266 Y-548.321 Z7.007
X-1085.197 Y-548.381 Z7.029
X-1085.131 Y-548.438 Z7.065
X-1085.071 Y-548.491 Z7.115
X-1085.017 Y-548.538 Z7.176
X-1084.97 Y-548.578 Z7.247
X-1084.933 Y-548.61 Z7.328
X-1084.906 Y-548.634 Z7.415
X-1084.889 Y-548.648 Z7.506
X-1084.884 Y-548.653 Z7.6
G0 Z33

(2D Contour9)
M9
X-1007.3 Y-550.1
Z33
Z23
G1 Z7 F850
G3 X-1007.24 Y-549.68 I-0.18 J0.24
G1 X-1009.7 Y-546.4
G3 X-1010.12 Y-546.34 I-0.24 J-0.18
Y-553.86 I2.82 J-3.76
X-1002.6 Y-550.1 I2.82 J3.76
X-1010.12 Y-546.34 I-4.7
Y-553.86 I2.82 J-3.76
X-1002.6 Y-550.1 I2.82 J3.76
X-1010.85 Y-547.02 I-4.7
X-1010.79 Y-547.867 I0.453 J-0.393
G1 X-1010.337 Y-548.26
X-1010.266 Y-548.321 Z7.007
X-1010.197 Y-548.381 Z7.029
X-1010.131 Y-548.438 Z7.065
X-1010.071 Y-548.491 Z7.115
X-1010.017 Y-548.538 Z7.176
X-1009.97 Y-548.578 Z7.247
X-1009.933 Y-548.61 Z7.328
X-1009.906 Y-548.634 Z7.415
X-1009.889 Y-548.648 Z7.506
X-1009.884 Y-548.653 Z7.6
G0 Z33

(2D Contour9)
M9
X-932.3 Y-550.1
Z33
Z23
G1 Z7 F850
G3 X-932.24 Y-549.68 I-0.18 J0.24
G1 X-934.7 Y-546.4
G3 X-935.12 Y-546.34 I-0.24 J-0.18
Y-553.86 I2.82 J-3.76
X-927.6 Y-550.1 I2.82 J3.76
X-935.12 Y-546.34 I-4.7
Y-553.86 I2.82 J-3.76
X-927.6 Y-550.1 I2.82 J3.76
X-935.85 Y-547.02 I-4.7
X-935.79 Y-547.867 I0.453 J-0.393
G1 X-935.337 Y-548.26
X-935.266 Y-548.321 Z7.007
X-935.197 Y-548.381 Z7.029
X-935.131 Y-548.438 Z7.065
X-935.071 Y-548.491 Z7.115
X-935.017 Y-548.538 Z7.176
X-934.97 Y-548.578 Z7.247
X-934.933 Y-548.61 Z7.328
X-934.906 Y-548.634 Z7.415
X-934.889 Y-548.648 Z7.506
X-934.884 Y-548.653 Z7.6
G0 Z33

(2D Contour9)
M9
X-857.3 Y-550.1
Z33
Z23
G1 Z7 F850
G3 X-857.24 Y-549.68 I-0.18 J0.24
G1 X-859.7 Y-546.4
G3 X-860.12 Y-546.34 I-0.24 J-0.18
Y-553.86 I2.82 J-3.76
X-852.6 Y-550.1 I2.82 J3.76
X-860.12 Y-546.34 I-4.7
Y-553.86 I2.82 J-3.76
X-852.6 Y-550.1 I2.82 J3.76
X-860.85 Y-547.02 I-4.7
X-860.79 Y-547.867 I0.453 J-0.393
G1 X-860.337 Y-548.26
X-860.266 Y-548.321 Z7.007
X-860.197 Y-548.381 Z7.029
X-860.131 Y-548.438 Z7.065
X-860.071 Y-548.491 Z7.115
X-860.017 Y-548.538 Z7.176
X-859.97 Y-548.578 Z7.247
X-859.933 Y-548.61 Z7.328
X-859.906 Y-548.634 Z7.415
X-859.889 Y-548.648 Z7.506
X-859.884 Y-548.653 Z7.6
G0 Z33

(2D Contour9)
M9
X-782.3 Y-550.1
Z33
Z23
G1 Z7 F850
G3 X-782.24 Y-549.68 I-0.18 J0.24
G1 X-784.7 Y-546.4
G3 X-785.12 Y-546.34 I-0.24 J-0.18
Y-553.86 I2.82 J-3.76
X-777.6 Y-550.1 I2.82 J3.76
X-785.12 Y-546.34 I-4.7
Y-553.86 I2.82 J-3.76
X-777.6 Y-550.1 I2.82 J3.76
X-785.85 Y-547.02 I-4.7
X-785.79 Y-547.867 I0.453 J-0.393
G1 X-785.337 Y-548.26
X-785.266 Y-548.321 Z7.007
X-785.197 Y-548.381 Z7.029
X-785.131 Y-548.438 Z7.065
X-785.071 Y-548.491 Z7.115
X-785.017 Y-548.538 Z7.176
X-784.97 Y-548.578 Z7.247
X-784.933 Y-548.61 Z7.328
X-784.906 Y-548.634 Z7.415
X-784.889 Y-548.648 Z7.506
X-784.884 Y-548.653 Z7.6
G0 Z33

(2D Contour9)
M9
X-707.3 Y-550.1
Z33
Z23
G1 Z7 F850
G3 X-707.24 Y-549.68 I-0.18 J0.24
G1 X-709.7 Y-546.4
G3 X-710.12 Y-546.34 I-0.24 J-0.18
Y-553.86 I2.82 J-3.76
X-702.6 Y-550.1 I2.82 J3.76
X-710.12 Y-546.34 I-4.7
Y-553.86 I2.82 J-3.76
X-702.6 Y-550.1 I2.82 J3.76
X-710.85 Y-547.02 I-4.7
X-710.79 Y-547.867 I0.453 J-0.393
G1 X-710.337 Y-548.26
X-710.266 Y-548.321 Z7.007
X-710.197 Y-548.381 Z7.029
X-710.131 Y-548.438 Z7.065
X-710.071 Y-548.491 Z7.115
X-710.017 Y-548.538 Z7.176
X-709.97 Y-548.578 Z7.247
X-709.933 Y-548.61 Z7.328
X-709.906 Y-548.634 Z7.415
X-709.889 Y-548.648 Z7.506
X-709.884 Y-548.653 Z7.6
G0 Z33

(2D Contour9)
M9
X-632.3 Y-550.1
Z33
Z23
G1 Z7 F850
G3 X-632.24 Y-549.68 I-0.18 J0.24
G1 X-634.7 Y-546.4
G3 X-635.12 Y-546.34 I-0.24 J-0.18
Y-553.86 I2.82 J-3.76
X-627.6 Y-550.1 I2.82 J3.76
X-635.12 Y-546.34 I-4.7
Y-553.86 I2.82 J-3.76
X-627.6 Y-550.1 I2.82 J3.76
X-635.85 Y-547.02 I-4.7
X-635.79 Y-547.867 I0.453 J-0.393
G1 X-635.337 Y-548.26
X-635.266 Y-548.321 Z7.007
X-635.197 Y-548.381 Z7.029
X-635.131 Y-548.438 Z7.065
X-635.071 Y-548.491 Z7.115
X-635.017 Y-548.538 Z7.176
X-634.97 Y-548.578 Z7.247
X-634.933 Y-548.61 Z7.328
X-634.906 Y-548.634 Z7.415
X-634.889 Y-548.648 Z7.506
X-634.884 Y-548.653 Z7.6
G0 Z33

(2D Contour9)
M9
X-557.3 Y-550.1
Z33
Z23
G1 Z7 F850
G3 X-557.24 Y-549.68 I-0.18 J0.24
G1 X-559.7 Y-546.4
G3 X-560.12 Y-546.34 I-0.24 J-0.18
Y-553.86 I2.82 J-3.76
X-552.6 Y-550.1 I2.82 J3.76
X-560.12 Y-546.34 I-4.7
Y-553.86 I2.82 J-3.76
X-552.6 Y-550.1 I2.82 J3.76
X-560.85 Y-547.02 I-4.7
X-560.79 Y-547.867 I0.453 J-0.393
G1 X-560.337 Y-548.26
X-560.266 Y-548.321 Z7.007
X-560.197 Y-548.381 Z7.029
X-560.131 Y-548.438 Z7.065
X-560.071 Y-548.491 Z7.115
X-560.017 Y-548.538 Z7.176
X-559.97 Y-548.578 Z7.247
X-559.933 Y-548.61 Z7.328
X-559.906 Y-548.634 Z7.415
X-559.889 Y-548.648 Z7.506
X-559.884 Y-548.653 Z7.6
G0 Z33

(2D Contour9)
M9
X-482.3 Y-550.1
Z33
Z23
G1 Z7 F850
G3 X-482.24 Y-549.68 I-0.18 J0.24
G1 X-484.7 Y-546.4
G3 X-485.12 Y-546.34 I-0.24 J-0.18
Y-553.86 I2.82 J-3.76
X-477.6 Y-550.1 I2.82 J3.76
X-485.12 Y-546.34 I-4.7
Y-553.86 I2.82 J-3.76
X-477.6 Y-550.1 I2.82 J3.76
X-485.85 Y-547.02 I-4.7
X-485.79 Y-547.867 I0.453 J-0.393
G1 X-485.337 Y-548.26
X-485.266 Y-548.321 Z7.007
X-485.197 Y-548.381 Z7.029
X-485.131 Y-548.438 Z7.065
X-485.071 Y-548.491 Z7.115
X-485.017 Y-548.538 Z7.176
X-484.97 Y-548.578 Z7.247
X-484.933 Y-548.61 Z7.328
X-484.906 Y-548.634 Z7.415
X-484.889 Y-548.648 Z7.506
X-484.884 Y-548.653 Z7.6
G0 Z33

(2D Contour9)
M9
X-407.3 Y-550.1
Z33
Z23
G1 Z7 F850
G3 X-407.24 Y-549.68 I-0.18 J0.24
G1 X-409.7 Y-546.4
G3 X-410.12 Y-546.34 I-0.24 J-0.18
Y-553.86 I2.82 J-3.76
X-402.6 Y-550.1 I2.82 J3.76
X-410.12 Y-546.34 I-4.7
Y-553.86 I2.82 J-3.76
X-402.6 Y-550.1 I2.82 J3.76
X-410.85 Y-547.02 I-4.7
X-410.79 Y-547.867 I0.453 J-0.393
G1 X-410.337 Y-548.26
X-410.266 Y-548.321 Z7.007
X-410.197 Y-548.381 Z7.029
X-410.131 Y-548.438 Z7.065
X-410.071 Y-548.491 Z7.115
X-410.017 Y-548.538 Z7.176
X-409.97 Y-548.578 Z7.247
X-409.933 Y-548.61 Z7.328
X-409.906 Y-548.634 Z7.415
X-409.889 Y-548.648 Z7.506
X-409.884 Y-548.653 Z7.6
G0 Z33

(2D Contour9)
M9
X-332.3 Y-550.1
Z33
Z23
G1 Z7 F850
G3 X-332.24 Y-549.68 I-0.18 J0.24
G1 X-334.7 Y-546.4
G3 X-335.12 Y-546.34 I-0.24 J-0.18
Y-553.86 I2.82 J-3.76
X-327.6 Y-550.1 I2.82 J3.76
X-335.12 Y-546.34 I-4.7
Y-553.86 I2.82 J-3.76
X-327.6 Y-550.1 I2.82 J3.76
X-335.85 Y-547.02 I-4.7
X-335.79 Y-547.867 I0.453 J-0.393
G1 X-335.337 Y-548.26
X-335.266 Y-548.321 Z7.007
X-335.197 Y-548.381 Z7.029
X-335.131 Y-548.438 Z7.065
X-335.071 Y-548.491 Z7.115
X-335.017 Y-548.538 Z7.176
X-334.97 Y-548.578 Z7.247
X-334.933 Y-548.61 Z7.328
X-334.906 Y-548.634 Z7.415
X-334.889 Y-548.648 Z7.506
X-334.884 Y-548.653 Z7.6
G0 Z33

(2D Contour9)
M9
X-257.3 Y-550.1
Z33
Z23
G1 Z7 F850
G3 X-257.24 Y-549.68 I-0.18 J0.24
G1 X-259.7 Y-546.4
G3 X-260.12 Y-546.34 I-0.24 J-0.18
Y-553.86 I2.82 J-3.76
X-252.6 Y-550.1 I2.82 J3.76
X-260.12 Y-546.34 I-4.7
Y-553.86 I2.82 J-3.76
X-252.6 Y-550.1 I2.82 J3.76
X-260.85 Y-547.02 I-4.7
X-260.79 Y-547.867 I0.453 J-0.393
G1 X-260.337 Y-548.26
X-260.266 Y-548.321 Z7.007
X-260.197 Y-548.381 Z7.029
X-260.131 Y-548.438 Z7.065
X-260.071 Y-548.491 Z7.115
X-260.017 Y-548.538 Z7.176
X-259.97 Y-548.578 Z7.247
X-259.933 Y-548.61 Z7.328
X-259.906 Y-548.634 Z7.415
X-259.889 Y-548.648 Z7.506
X-259.884 Y-548.653 Z7.6
G0 Z33

(2D Contour9)
M9
X-182.3 Y-550.1
Z33
Z23
G1 Z7 F850
G3 X-182.24 Y-549.68 I-0.18 J0.24
G1 X-184.7 Y-546.4
G3 X-185.12 Y-546.34 I-0.24 J-0.18
Y-553.86 I2.82 J-3.76
X-177.6 Y-550.1 I2.82 J3.76
X-185.12 Y-546.34 I-4.7
Y-553.86 I2.82 J-3.76
X-177.6 Y-550.1 I2.82 J3.76
X-185.85 Y-547.02 I-4.7
X-185.79 Y-547.867 I0.453 J-0.393
G1 X-185.337 Y-548.26
X-185.266 Y-548.321 Z7.007
X-185.197 Y-548.381 Z7.029
X-185.131 Y-548.438 Z7.065
X-185.071 Y-548.491 Z7.115
X-185.017 Y-548.538 Z7.176
X-184.97 Y-548.578 Z7.247
X-184.933 Y-548.61 Z7.328
X-184.906 Y-548.634 Z7.415
X-184.889 Y-548.648 Z7.506
X-184.884 Y-548.653 Z7.6
G0 Z33

(2D Contour9)
M9
X-1232.3 Y-625.1
Z33
Z23
G1 Z7 F850
G3 X-1232.24 Y-624.68 I-0.18 J0.24
G1 X-1234.7 Y-621.4
G3 X-1235.12 Y-621.34 I-0.24 J-0.18
Y-628.86 I2.82 J-3.76
X-1227.6 Y-625.1 I2.82 J3.76
X-1235.12 Y-621.34 I-4.7
Y-628.86 I2.82 J-3.76
X-1227.6 Y-625.1 I2.82 J3.76
X-1235.85 Y-622.02 I-4.7
X-1235.79 Y-622.867 I0.453 J-0.393
G1 X-1235.337 Y-623.26
X-1235.266 Y-623.321 Z7.007
X-1235.197 Y-623.381 Z7.029
X-1235.131 Y-623.438 Z7.065
X-1235.071 Y-623.491 Z7.115
X-1235.017 Y-623.538 Z7.176
X-1234.97 Y-623.578 Z7.247
X-1234.933 Y-623.61 Z7.328
X-1234.906 Y-623.634 Z7.415
X-1234.889 Y-623.648 Z7.506
X-1234.884 Y-623.653 Z7.6
G0 Z33

(2D Contour9)
M9
X-1157.3 Y-625.1
Z33
Z23
G1 Z7 F850
G3 X-1157.24 Y-624.68 I-0.18 J0.24
G1 X-1159.7 Y-621.4
G3 X-1160.12 Y-621.34 I-0.24 J-0.18
Y-628.86 I2.82 J-3.76
X-1152.6 Y-625.1 I2.82 J3.76
X-1160.12 Y-621.34 I-4.7
Y-628.86 I2.82 J-3.76
X-1152.6 Y-625.1 I2.82 J3.76
X-1160.85 Y-622.02 I-4.7
X-1160.79 Y-622.867 I0.453 J-0.393
G1 X-1160.337 Y-623.26
X-1160.266 Y-623.321 Z7.007
X-1160.197 Y-623.381 Z7.029
X-1160.131 Y-623.438 Z7.065
X-1160.071 Y-623.491 Z7.115
X-1160.017 Y-623.538 Z7.176
X-1159.97 Y-623.578 Z7.247
X-1159.933 Y-623.61 Z7.328
X-1159.906 Y-623.634 Z7.415
X-1159.889 Y-623.648 Z7.506
X-1159.884 Y-623.653 Z7.6
G0 Z33

(2D Contour9)
M9
X-1082.3 Y-625.1
Z33
Z23
G1 Z7 F850
G3 X-1082.24 Y-624.68 I-0.18 J0.24
G1 X-1084.7 Y-621.4
G3 X-1085.12 Y-621.34 I-0.24 J-0.18
Y-628.86 I2.82 J-3.76
X-1077.6 Y-625.1 I2.82 J3.76
X-1085.12 Y-621.34 I-4.7
Y-628.86 I2.82 J-3.76
X-1077.6 Y-625.1 I2.82 J3.76
X-1085.85 Y-622.02 I-4.7
X-1085.79 Y-622.867 I0.453 J-0.393
G1 X-1085.337 Y-623.26
X-1085.266 Y-623.321 Z7.007
X-1085.197 Y-623.381 Z7.029
X-1085.131 Y-623.438 Z7.065
X-1085.071 Y-623.491 Z7.115
X-1085.017 Y-623.538 Z7.176
X-1084.97 Y-623.578 Z7.247
X-1084.933 Y-623.61 Z7.328
X-1084.906 Y-623.634 Z7.415
X-1084.889 Y-623.648 Z7.506
X-1084.884 Y-623.653 Z7.6
G0 Z33

(2D Contour9)
M9
X-1007.3 Y-625.1
Z33
Z23
G1 Z7 F850
G3 X-1007.24 Y-624.68 I-0.18 J0.24
G1 X-1009.7 Y-621.4
G3 X-1010.12 Y-621.34 I-0.24 J-0.18
Y-628.86 I2.82 J-3.76
X-1002.6 Y-625.1 I2.82 J3.76
X-1010.12 Y-621.34 I-4.7
Y-628.86 I2.82 J-3.76
X-1002.6 Y-625.1 I2.82 J3.76
X-1010.85 Y-622.02 I-4.7
X-1010.79 Y-622.867 I0.453 J-0.393
G1 X-1010.337 Y-623.26
X-1010.266 Y-623.321 Z7.007
X-1010.197 Y-623.381 Z7.029
X-1010.131 Y-623.438 Z7.065
X-1010.071 Y-623.491 Z7.115
X-1010.017 Y-623.538 Z7.176
X-1009.97 Y-623.578 Z7.247
X-1009.933 Y-623.61 Z7.328
X-1009.906 Y-623.634 Z7.415
X-1009.889 Y-623.648 Z7.506
X-1009.884 Y-623.653 Z7.6
G0 Z33

(2D Contour9)
M9
X-932.3 Y-625.1
Z33
Z23
G1 Z7 F850
G3 X-932.24 Y-624.68 I-0.18 J0.24
G1 X-934.7 Y-621.4
G3 X-935.12 Y-621.34 I-0.24 J-0.18
Y-628.86 I2.82 J-3.76
X-927.6 Y-625.1 I2.82 J3.76
X-935.12 Y-621.34 I-4.7
Y-628.86 I2.82 J-3.76
X-927.6 Y-625.1 I2.82 J3.76
X-935.85 Y-622.02 I-4.7
X-935.79 Y-622.867 I0.453 J-0.393
G1 X-935.337 Y-623.26
X-935.266 Y-623.321 Z7.007
X-935.197 Y-623.381 Z7.029
X-935.131 Y-623.438 Z7.065
X-935.071 Y-623.491 Z7.115
X-935.017 Y-623.538 Z7.176
X-934.97 Y-623.578 Z7.247
X-934.933 Y-623.61 Z7.328
X-934.906 Y-623.634 Z7.415
X-934.889 Y-623.648 Z7.506
X-934.884 Y-623.653 Z7.6
G0 Z33

(2D Contour9)
M9
X-857.3 Y-625.1
Z33
Z23
G1 Z7 F850
G3 X-857.24 Y-624.68 I-0.18 J0.24
G1 X-859.7 Y-621.4
G3 X-860.12 Y-621.34 I-0.24 J-0.18
Y-628.86 I2.82 J-3.76
X-852.6 Y-625.1 I2.82 J3.76
X-860.12 Y-621.34 I-4.7
Y-628.86 I2.82 J-3.76
X-852.6 Y-625.1 I2.82 J3.76
X-860.85 Y-622.02 I-4.7
X-860.79 Y-622.867 I0.453 J-0.393
G1 X-860.337 Y-623.26
X-860.266 Y-623.321 Z7.007
X-860.197 Y-623.381 Z7.029
X-860.131 Y-623.438 Z7.065
X-860.071 Y-623.491 Z7.115
X-860.017 Y-623.538 Z7.176
X-859.97 Y-623.578 Z7.247
X-859.933 Y-623.61 Z7.328
X-859.906 Y-623.634 Z7.415
X-859.889 Y-623.648 Z7.506
X-859.884 Y-623.653 Z7.6
G0 Z33

(2D Contour9)
M9
X-782.3 Y-625.1
Z33
Z23
G1 Z7 F850
G3 X-782.24 Y-624.68 I-0.18 J0.24
G1 X-784.7 Y-621.4
G3 X-785.12 Y-621.34 I-0.24 J-0.18
Y-628.86 I2.82 J-3.76
X-777.6 Y-625.1 I2.82 J3.76
X-785.12 Y-621.34 I-4.7
Y-628.86 I2.82 J-3.76
X-777.6 Y-625.1 I2.82 J3.76
X-785.85 Y-622.02 I-4.7
X-785.79 Y-622.867 I0.453 J-0.393
G1 X-785.337 Y-623.26
X-785.266 Y-623.321 Z7.007
X-785.197 Y-623.381 Z7.029
X-785.131 Y-623.438 Z7.065
X-785.071 Y-623.491 Z7.115
X-785.017 Y-623.538 Z7.176
X-784.97 Y-623.578 Z7.247
X-784.933 Y-623.61 Z7.328
X-784.906 Y-623.634 Z7.415
X-784.889 Y-623.648 Z7.506
X-784.884 Y-623.653 Z7.6
G0 Z33

(2D Contour9)
M9
X-707.3 Y-625.1
Z33
Z23
G1 Z7 F850
G3 X-707.24 Y-624.68 I-0.18 J0.24
G1 X-709.7 Y-621.4
G3 X-710.12 Y-621.34 I-0.24 J-0.18
Y-628.86 I2.82 J-3.76
X-702.6 Y-625.1 I2.82 J3.76
X-710.12 Y-621.34 I-4.7
Y-628.86 I2.82 J-3.76
X-702.6 Y-625.1 I2.82 J3.76
X-710.85 Y-622.02 I-4.7
X-710.79 Y-622.867 I0.453 J-0.393
G1 X-710.337 Y-623.26
X-710.266 Y-623.321 Z7.007
X-710.197 Y-623.381 Z7.029
X-710.131 Y-623.438 Z7.065
X-710.071 Y-623.491 Z7.115
X-710.017 Y-623.538 Z7.176
X-709.97 Y-623.578 Z7.247
X-709.933 Y-623.61 Z7.328
X-709.906 Y-623.634 Z7.415
X-709.889 Y-623.648 Z7.506
X-709.884 Y-623.653 Z7.6
G0 Z33

(2D Contour9)
M9
X-632.3 Y-625.1
Z33
Z23
G1 Z7 F850
G3 X-632.24 Y-624.68 I-0.18 J0.24
G1 X-634.7 Y-621.4
G3 X-635.12 Y-621.34 I-0.24 J-0.18
Y-628.86 I2.82 J-3.76
X-627.6 Y-625.1 I2.82 J3.76
X-635.12 Y-621.34 I-4.7
Y-628.86 I2.82 J-3.76
X-627.6 Y-625.1 I2.82 J3.76
X-635.85 Y-622.02 I-4.7
X-635.79 Y-622.867 I0.453 J-0.393
G1 X-635.337 Y-623.26
X-635.266 Y-623.321 Z7.007
X-635.197 Y-623.381 Z7.029
X-635.131 Y-623.438 Z7.065
X-635.071 Y-623.491 Z7.115
X-635.017 Y-623.538 Z7.176
X-634.97 Y-623.578 Z7.247
X-634.933 Y-623.61 Z7.328
X-634.906 Y-623.634 Z7.415
X-634.889 Y-623.648 Z7.506
X-634.884 Y-623.653 Z7.6
G0 Z33

(2D Contour9)
M9
X-557.3 Y-625.1
Z33
Z23
G1 Z7 F850
G3 X-557.24 Y-624.68 I-0.18 J0.24
G1 X-559.7 Y-621.4
G3 X-560.12 Y-621.34 I-0.24 J-0.18
Y-628.86 I2.82 J-3.76
X-552.6 Y-625.1 I2.82 J3.76
X-560.12 Y-621.34 I-4.7
Y-628.86 I2.82 J-3.76
X-552.6 Y-625.1 I2.82 J3.76
X-560.85 Y-622.02 I-4.7
X-560.79 Y-622.867 I0.453 J-0.393
G1 X-560.337 Y-623.26
X-560.266 Y-623.321 Z7.007
X-560.197 Y-623.381 Z7.029
X-560.131 Y-623.438 Z7.065
X-560.071 Y-623.491 Z7.115
X-560.017 Y-623.538 Z7.176
X-559.97 Y-623.578 Z7.247
X-559.933 Y-623.61 Z7.328
X-559.906 Y-623.634 Z7.415
X-559.889 Y-623.648 Z7.506
X-559.884 Y-623.653 Z7.6
G0 Z33

(2D Contour9)
M9
X-482.3 Y-625.1
Z33
Z23
G1 Z7 F850
G3 X-482.24 Y-624.68 I-0.18 J0.24
G1 X-484.7 Y-621.4
G3 X-485.12 Y-621.34 I-0.24 J-0.18
Y-628.86 I2.82 J-3.76
X-477.6 Y-625.1 I2.82 J3.76
X-485.12 Y-621.34 I-4.7
Y-628.86 I2.82 J-3.76
X-477.6 Y-625.1 I2.82 J3.76
X-485.85 Y-622.02 I-4.7
X-485.79 Y-622.867 I0.453 J-0.393
G1 X-485.337 Y-623.26
X-485.266 Y-623.321 Z7.007
X-485.197 Y-623.381 Z7.029
X-485.131 Y-623.438 Z7.065
X-485.071 Y-623.491 Z7.115
X-485.017 Y-623.538 Z7.176
X-484.97 Y-623.578 Z7.247
X-484.933 Y-623.61 Z7.328
X-484.906 Y-623.634 Z7.415
X-484.889 Y-623.648 Z7.506
X-484.884 Y-623.653 Z7.6
G0 Z33

(2D Contour9)
M9
X-407.3 Y-625.1
Z33
Z23
G1 Z7 F850
G3 X-407.24 Y-624.68 I-0.18 J0.24
G1 X-409.7 Y-621.4
G3 X-410.12 Y-621.34 I-0.24 J-0.18
Y-628.86 I2.82 J-3.76
X-402.6 Y-625.1 I2.82 J3.76
X-410.12 Y-621.34 I-4.7
Y-628.86 I2.82 J-3.76
X-402.6 Y-625.1 I2.82 J3.76
X-410.85 Y-622.02 I-4.7
X-410.79 Y-622.867 I0.453 J-0.393
G1 X-410.337 Y-623.26
X-410.266 Y-623.321 Z7.007
X-410.197 Y-623.381 Z7.029
X-410.131 Y-623.438 Z7.065
X-410.071 Y-623.491 Z7.115
X-410.017 Y-623.538 Z7.176
X-409.97 Y-623.578 Z7.247
X-409.933 Y-623.61 Z7.328
X-409.906 Y-623.634 Z7.415
X-409.889 Y-623.648 Z7.506
X-409.884 Y-623.653 Z7.6
G0 Z33

(2D Contour9)
M9
X-332.3 Y-625.1
Z33
Z23
G1 Z7 F850
G3 X-332.24 Y-624.68 I-0.18 J0.24
G1 X-334.7 Y-621.4
G3 X-335.12 Y-621.34 I-0.24 J-0.18
Y-628.86 I2.82 J-3.76
X-327.6 Y-625.1 I2.82 J3.76
X-335.12 Y-621.34 I-4.7
Y-628.86 I2.82 J-3.76
X-327.6 Y-625.1 I2.82 J3.76
X-335.85 Y-622.02 I-4.7
X-335.79 Y-622.867 I0.453 J-0.393
G1 X-335.337 Y-623.26
X-335.266 Y-623.321 Z7.007
X-335.197 Y-623.381 Z7.029
X-335.131 Y-623.438 Z7.065
X-335.071 Y-623.491 Z7.115
X-335.017 Y-623.538 Z7.176
X-334.97 Y-623.578 Z7.247
X-334.933 Y-623.61 Z7.328
X-334.906 Y-623.634 Z7.415
X-334.889 Y-623.648 Z7.506
X-334.884 Y-623.653 Z7.6
G0 Z33

(2D Contour9)
M9
X-257.3 Y-625.1
Z33
Z23
G1 Z7 F850
G3 X-257.24 Y-624.68 I-0.18 J0.24
G1 X-259.7 Y-621.4
G3 X-260.12 Y-621.34 I-0.24 J-0.18
Y-628.86 I2.82 J-3.76
X-252.6 Y-625.1 I2.82 J3.76
X-260.12 Y-621.34 I-4.7
Y-628.86 I2.82 J-3.76
X-252.6 Y-625.1 I2.82 J3.76
X-260.85 Y-622.02 I-4.7
X-260.79 Y-622.867 I0.453 J-0.393
G1 X-260.337 Y-623.26
X-260.266 Y-623.321 Z7.007
X-260.197 Y-623.381 Z7.029
X-260.131 Y-623.438 Z7.065
X-260.071 Y-623.491 Z7.115
X-260.017 Y-623.538 Z7.176
X-259.97 Y-623.578 Z7.247
X-259.933 Y-623.61 Z7.328
X-259.906 Y-623.634 Z7.415
X-259.889 Y-623.648 Z7.506
X-259.884 Y-623.653 Z7.6
G0 Z33

(2D Contour9)
M9
X-182.3 Y-625.1
Z33
Z23
G1 Z7 F850
G3 X-182.24 Y-624.68 I-0.18 J0.24
G1 X-184.7 Y-621.4
G3 X-185.12 Y-621.34 I-0.24 J-0.18
Y-628.86 I2.82 J-3.76
X-177.6 Y-625.1 I2.82 J3.76
X-185.12 Y-621.34 I-4.7
Y-628.86 I2.82 J-3.76
X-177.6 Y-625.1 I2.82 J3.76
X-185.85 Y-622.02 I-4.7
X-185.79 Y-622.867 I0.453 J-0.393
G1 X-185.337 Y-623.26
X-185.266 Y-623.321 Z7.007
X-185.197 Y-623.381 Z7.029
X-185.131 Y-623.438 Z7.065
X-185.071 Y-623.491 Z7.115
X-185.017 Y-623.538 Z7.176
X-184.97 Y-623.578 Z7.247
X-184.933 Y-623.61 Z7.328
X-184.906 Y-623.634 Z7.415
X-184.889 Y-623.648 Z7.506
X-184.884 Y-623.653 Z7.6
G0 Z33
M9
M30
%
