%
(1001)
(z0 mdf bottom machine -5-5)
(T1  D=6 CR=0 - ZMIN=7 - flat end mill)
G90 G94
G17
G21

(2D Contour9)
M9
T1 M6
S8000 M3
G54
M9
G0 X-1307.3 Y-100.1
Z33
Z23
G1 Z7 F850
G3 X-1307.24 Y-99.68 I-0.18 J0.24
G1 X-1309.73 Y-96.36
G3 X-1310.15 Y-96.3 I-0.24 J-0.18
X-1304.45 Y-103.9 I2.85 J-3.8
X-1302.55 Y-100.1 I-2.85 J3.8
X-1310.15 Y-96.3 I-4.75
X-1304.45 Y-103.9 I2.85 J-3.8
X-1303.821 Y-96.867 I-2.85 J3.8
X-1310.881 Y-96.979 I-3.48 J-3.233
X-1310.823 Y-97.826 I0.452 J-0.394
G1 X-1310.371 Y-98.22
X-1310.3 Y-98.282 Z7.007
X-1310.231 Y-98.342 Z7.029
X-1310.165 Y-98.399 Z7.065
X-1310.105 Y-98.452 Z7.115
X-1310.051 Y-98.499 Z7.176
X-1310.005 Y-98.539 Z7.247
X-1309.968 Y-98.571 Z7.328
X-1309.94 Y-98.595 Z7.415
X-1309.924 Y-98.609 Z7.506
X-1309.918 Y-98.614 Z7.6
G0 Z33

(2D Contour9)
M9
X-1307.3 Y-175.1
Z33
Z23
G1 Z7 F850
G3 X-1307.24 Y-174.68 I-0.18 J0.24
G1 X-1309.73 Y-171.36
G3 X-1310.15 Y-171.3 I-0.24 J-0.18
X-1304.45 Y-178.9 I2.85 J-3.8
X-1302.55 Y-175.1 I-2.85 J3.8
X-1310.15 Y-171.3 I-4.75
X-1304.45 Y-178.9 I2.85 J-3.8
X-1303.821 Y-171.867 I-2.85 J3.8
X-1310.881 Y-171.979 I-3.48 J-3.233
X-1310.823 Y-172.826 I0.452 J-0.394
G1 X-1310.371 Y-173.22
X-1310.3 Y-173.282 Z7.007
X-1310.231 Y-173.342 Z7.029
X-1310.165 Y-173.399 Z7.065
X-1310.105 Y-173.452 Z7.115
X-1310.051 Y-173.499 Z7.176
X-1310.005 Y-173.539 Z7.247
X-1309.968 Y-173.571 Z7.328
X-1309.94 Y-173.595 Z7.415
X-1309.924 Y-173.609 Z7.506
X-1309.918 Y-173.614 Z7.6
G0 Z33

(2D Contour9)
M9
X-1307.3 Y-250.1
Z33
Z23
G1 Z7 F850
G3 X-1307.24 Y-249.68 I-0.18 J0.24
G1 X-1309.73 Y-246.36
G3 X-1310.15 Y-246.3 I-0.24 J-0.18
X-1304.45 Y-253.9 I2.85 J-3.8
X-1302.55 Y-250.1 I-2.85 J3.8
X-1310.15 Y-246.3 I-4.75
X-1304.45 Y-253.9 I2.85 J-3.8
X-1303.821 Y-246.867 I-2.85 J3.8
X-1310.881 Y-246.979 I-3.48 J-3.233
X-1310.823 Y-247.826 I0.452 J-0.394
G1 X-1310.371 Y-248.22
X-1310.3 Y-248.282 Z7.007
X-1310.231 Y-248.342 Z7.029
X-1310.165 Y-248.399 Z7.065
X-1310.105 Y-248.452 Z7.115
X-1310.051 Y-248.499 Z7.176
X-1310.005 Y-248.539 Z7.247
X-1309.968 Y-248.571 Z7.328
X-1309.94 Y-248.595 Z7.415
X-1309.924 Y-248.609 Z7.506
X-1309.918 Y-248.614 Z7.6
G0 Z33

(2D Contour9)
M9
X-1307.3 Y-325.1
Z33
Z23
G1 Z7 F850
G3 X-1307.24 Y-324.68 I-0.18 J0.24
G1 X-1309.73 Y-321.36
G3 X-1310.15 Y-321.3 I-0.24 J-0.18
X-1304.45 Y-328.9 I2.85 J-3.8
X-1302.55 Y-325.1 I-2.85 J3.8
X-1310.15 Y-321.3 I-4.75
X-1304.45 Y-328.9 I2.85 J-3.8
X-1303.821 Y-321.867 I-2.85 J3.8
X-1310.881 Y-321.979 I-3.48 J-3.233
X-1310.823 Y-322.826 I0.452 J-0.394
G1 X-1310.371 Y-323.22
X-1310.3 Y-323.282 Z7.007
X-1310.231 Y-323.342 Z7.029
X-1310.165 Y-323.399 Z7.065
X-1310.105 Y-323.452 Z7.115
X-1310.051 Y-323.499 Z7.176
X-1310.005 Y-323.539 Z7.247
X-1309.968 Y-323.571 Z7.328
X-1309.94 Y-323.595 Z7.415
X-1309.924 Y-323.609 Z7.506
X-1309.918 Y-323.614 Z7.6
G0 Z33

(2D Contour9)
M9
X-1307.3 Y-400.1
Z33
Z23
G1 Z7 F850
G3 X-1307.24 Y-399.68 I-0.18 J0.24
G1 X-1309.73 Y-396.36
G3 X-1310.15 Y-396.3 I-0.24 J-0.18
X-1304.45 Y-403.9 I2.85 J-3.8
X-1302.55 Y-400.1 I-2.85 J3.8
X-1310.15 Y-396.3 I-4.75
X-1304.45 Y-403.9 I2.85 J-3.8
X-1303.821 Y-396.867 I-2.85 J3.8
X-1310.881 Y-396.979 I-3.48 J-3.233
X-1310.823 Y-397.826 I0.452 J-0.394
G1 X-1310.371 Y-398.22
X-1310.3 Y-398.282 Z7.007
X-1310.231 Y-398.342 Z7.029
X-1310.165 Y-398.399 Z7.065
X-1310.105 Y-398.452 Z7.115
X-1310.051 Y-398.499 Z7.176
X-1310.005 Y-398.539 Z7.247
X-1309.968 Y-398.571 Z7.328
X-1309.94 Y-398.595 Z7.415
X-1309.924 Y-398.609 Z7.506
X-1309.918 Y-398.614 Z7.6
G0 Z33

(2D Contour9)
M9
X-1307.3 Y-475.1
Z33
Z23
G1 Z7 F850
G3 X-1307.24 Y-474.68 I-0.18 J0.24
G1 X-1309.73 Y-471.36
G3 X-1310.15 Y-471.3 I-0.24 J-0.18
X-1304.45 Y-478.9 I2.85 J-3.8
X-1302.55 Y-475.1 I-2.85 J3.8
X-1310.15 Y-471.3 I-4.75
X-1304.45 Y-478.9 I2.85 J-3.8
X-1303.821 Y-471.867 I-2.85 J3.8
X-1310.881 Y-471.979 I-3.48 J-3.233
X-1310.823 Y-472.826 I0.452 J-0.394
G1 X-1310.371 Y-473.22
X-1310.3 Y-473.282 Z7.007
X-1310.231 Y-473.342 Z7.029
X-1310.165 Y-473.399 Z7.065
X-1310.105 Y-473.452 Z7.115
X-1310.051 Y-473.499 Z7.176
X-1310.005 Y-473.539 Z7.247
X-1309.968 Y-473.571 Z7.328
X-1309.94 Y-473.595 Z7.415
X-1309.924 Y-473.609 Z7.506
X-1309.918 Y-473.614 Z7.6
G0 Z33

(2D Contour9)
M9
X-1307.3 Y-550.1
Z33
Z23
G1 Z7 F850
G3 X-1307.24 Y-549.68 I-0.18 J0.24
G1 X-1309.73 Y-546.36
G3 X-1310.15 Y-546.3 I-0.24 J-0.18
X-1304.45 Y-553.9 I2.85 J-3.8
X-1302.55 Y-550.1 I-2.85 J3.8
X-1310.15 Y-546.3 I-4.75
X-1304.45 Y-553.9 I2.85 J-3.8
X-1303.821 Y-546.867 I-2.85 J3.8
X-1310.881 Y-546.979 I-3.48 J-3.233
X-1310.823 Y-547.826 I0.452 J-0.394
G1 X-1310.371 Y-548.22
X-1310.3 Y-548.282 Z7.007
X-1310.231 Y-548.342 Z7.029
X-1310.165 Y-548.399 Z7.065
X-1310.105 Y-548.452 Z7.115
X-1310.051 Y-548.499 Z7.176
X-1310.005 Y-548.539 Z7.247
X-1309.968 Y-548.571 Z7.328
X-1309.94 Y-548.595 Z7.415
X-1309.924 Y-548.609 Z7.506
X-1309.918 Y-548.614 Z7.6
G0 Z33

(2D Contour9)
M9
X-1307.3 Y-625.1
Z33
Z23
G1 Z7 F850
G3 X-1307.24 Y-624.68 I-0.18 J0.24
G1 X-1309.73 Y-621.36
G3 X-1310.15 Y-621.3 I-0.24 J-0.18
X-1304.45 Y-628.9 I2.85 J-3.8
X-1302.55 Y-625.1 I-2.85 J3.8
X-1310.15 Y-621.3 I-4.75
X-1304.45 Y-628.9 I2.85 J-3.8
X-1303.821 Y-621.867 I-2.85 J3.8
X-1310.881 Y-621.979 I-3.48 J-3.233
X-1310.823 Y-622.826 I0.452 J-0.394
G1 X-1310.371 Y-623.22
X-1310.3 Y-623.282 Z7.007
X-1310.231 Y-623.342 Z7.029
X-1310.165 Y-623.399 Z7.065
X-1310.105 Y-623.452 Z7.115
X-1310.051 Y-623.499 Z7.176
X-1310.005 Y-623.539 Z7.247
X-1309.968 Y-623.571 Z7.328
X-1309.94 Y-623.595 Z7.415
X-1309.924 Y-623.609 Z7.506
X-1309.918 Y-623.614 Z7.6
G0 Z33
M9
M30
%
