%
(1001)
(z0 mdf bottom machine -5-5)
(T1  D=6 CR=0 - ZMIN=-0.5 - flat end mill)
G90 G94
G17
G21

(2D Adaptive13)
M9
T1 M6
S6000 M3
G54
M9
G0 X-182.3 Y-100.1
Z33
Z23
Z18.65
G1 Z18.05 F850
Z7
X-182.332 Y-100.08
X-182.363 Y-100.102
X-182.36 Y-100.139
X-182.337 Y-100.168
X-182.301 Y-100.181
X-182.264 Y-100.176
X-182.234 Y-100.155
X-182.215 Y-100.122
X-182.213 Y-100.084
X-182.227 Y-100.049
X-182.253 Y-100.023
X-182.288 Y-100.008
X-182.325 Y-100.003
X-182.362 Y-100.01
X-182.394 Y-100.029
X-182.419 Y-100.057
X-182.434 Y-100.092
X-182.439 Y-100.129
X-182.432 Y-100.166
X-182.401 Y-100.234
X-182.34 Y-100.278
X-182.266 Y-100.29
X-182.194 Y-100.271
X-182.134 Y-100.225
X-182.096 Y-100.16
X-182.085 Y-100.086
X-182.099 Y-100.013
X-182.136 Y-99.948
X-182.192 Y-99.897
X-182.26 Y-99.866
X-182.334 Y-99.856
X-182.408 Y-99.868
X-182.476 Y-99.901
X-182.532 Y-99.95
X-182.614 Y-100.076
X-182.624 Y-100.226
X-182.567 Y-100.365
X-182.457 Y-100.467
X-182.317 Y-100.519
X-182.167 Y-100.515
X-182.028 Y-100.458
X-181.917 Y-100.357
X-181.845 Y-100.225
X-181.82 Y-100.077
X-181.841 Y-99.929
X-181.905 Y-99.794
X-182.007 Y-99.683
X-182.135 Y-99.606
X-182.28 Y-99.567
X-182.43 Y-99.57
X-182.575 Y-99.609
X-182.705 Y-99.684
X-182.814 Y-99.788
X-182.893 Y-99.915
X-182.941 Y-100.057
X-182.954 Y-100.206
X-182.934 Y-100.355
X-182.88 Y-100.495
X-182.798 Y-100.621
X-182.691 Y-100.726
X-182.565 Y-100.807
X-182.424 Y-100.86
X-182.276 Y-100.884
X-182.126 Y-100.879
X-181.981 Y-100.844
X-181.843 Y-100.784
X-181.72 Y-100.698
X-181.614 Y-100.592
X-181.53 Y-100.468
X-181.468 Y-100.331
X-181.431 Y-100.186
X-181.421 Y-100.036
X-181.436 Y-99.887
X-181.475 Y-99.742
X-181.538 Y-99.606
X-181.622 Y-99.482
X-181.726 Y-99.374
X-181.845 Y-99.282
X-181.977 Y-99.212
X-182.119 Y-99.161
X-182.266 Y-99.133
X-182.416 Y-99.128
X-182.565 Y-99.145
X-182.71 Y-99.183
X-182.848 Y-99.242
X-182.976 Y-99.32
X-183.091 Y-99.416
X-183.193 Y-99.527
X-183.277 Y-99.651
X-183.344 Y-99.785
X-183.392 Y-99.927
X-183.42 Y-100.075
X-183.429 Y-100.224
X-183.417 Y-100.374
X-183.386 Y-100.521
X-183.337 Y-100.662
X-183.27 Y-100.796
X-183.186 Y-100.921
X-183.088 Y-101.034
X-182.976 Y-101.134
X-182.853 Y-101.219
X-182.72 Y-101.289
X-182.579 Y-101.342
X-182.434 Y-101.378
X-182.285 Y-101.396
X-182.135 Y-101.397
X-181.986 Y-101.381
X-181.84 Y-101.347
X-181.698 Y-101.297
X-181.564 Y-101.231
X-181.437 Y-101.15
X-181.321 Y-101.056
X-181.215 Y-100.949
X-181.122 Y-100.831
X-181.043 Y-100.704
X-180.978 Y-100.569
X-180.927 Y-100.428
X-180.892 Y-100.282
X-180.873 Y-100.133
X-180.869 Y-99.983
X-180.881 Y-99.834
X-180.909 Y-99.686
X-180.951 Y-99.542
X-181.009 Y-99.404
X-181.08 Y-99.272
X-181.164 Y-99.147
X-181.26 Y-99.032
X-181.367 Y-98.927
X-181.483 Y-98.833
X-181.609 Y-98.751
X-181.742 Y-98.681
X-181.881 Y-98.625
X-182.025 Y-98.582
X-182.172 Y-98.553
X-182.321 Y-98.538
X-182.471
X-182.621 Y-98.551
X-182.768 Y-98.579
X-182.912 Y-98.62
X-183.052 Y-98.673
X-183.187 Y-98.74
X-183.315 Y-98.818
X-183.435 Y-98.908
X-183.546 Y-99.008
X-183.649 Y-99.118
X-183.741 Y-99.236
X-183.822 Y-99.363
X-183.892 Y-99.495
X-183.95 Y-99.634
X-183.996 Y-99.777
X-184.029 Y-99.923
X-184.049 Y-100.071
X-184.057 Y-100.221
X-184.052 Y-100.371
X-184.034 Y-100.52
X-184.004 Y-100.667
X-183.961 Y-100.811
X-183.907 Y-100.951
X-183.842 Y-101.086
X-183.765 Y-101.215
X-183.678 Y-101.337
X-183.582 Y-101.452
X-183.476 Y-101.558
X-183.363 Y-101.656
X-183.241 Y-101.744
X-183.113 Y-101.823
X-182.98 Y-101.891
X-182.841 Y-101.948
X-182.698 Y-101.994
X-182.552 Y-102.028
X-182.404 Y-102.051
X-182.254 Y-102.063
X-182.104
X-181.955 Y-102.052
X-181.807 Y-102.028
X-181.66 Y-101.994
X-181.517 Y-101.949
X-181.378 Y-101.893
X-181.244 Y-101.827
X-181.114 Y-101.751
X-180.991 Y-101.666
X-180.874 Y-101.571
X-180.765 Y-101.469
X-180.664 Y-101.358
X-180.571 Y-101.24
X-180.486 Y-101.116
X-180.411 Y-100.986
X-180.346 Y-100.851
X-180.29 Y-100.712
X-180.245 Y-100.569
X-180.21 Y-100.423
X-180.185 Y-100.275
X-180.171 Y-100.126
X-180.168 Y-99.976
X-180.175 Y-99.826
X-180.193 Y-99.677
X-180.221 Y-99.53
X-180.259 Y-99.385
X-180.307 Y-99.243
X-180.365 Y-99.104
X-180.432 Y-98.97
X-180.508 Y-98.841
X-180.593 Y-98.717
X-180.686 Y-98.599
X-180.786 Y-98.488
X-180.894 Y-98.384
X-181.009 Y-98.288
X-181.13 Y-98.199
X-181.257 Y-98.118
X-181.388 Y-98.046
X-181.524 Y-97.983
X-181.664 Y-97.929
X-181.807 Y-97.885
X-181.953 Y-97.849
X-182.101 Y-97.823
X-182.25 Y-97.807
X-182.4 Y-97.801
X-182.55 Y-97.804
X-182.699 Y-97.817
X-182.848 Y-97.84
X-182.994 Y-97.872
X-183.139 Y-97.913
X-183.28 Y-97.963
X-183.418 Y-98.022
X-183.552 Y-98.089
X-183.681 Y-98.165
X-183.806 Y-98.249
X-183.925 Y-98.34
X-184.038 Y-98.439
X-184.145 Y-98.544
X-184.245 Y-98.656
X-184.338 Y-98.773
X-184.423 Y-98.897
X-184.501 Y-99.025
X-184.571 Y-99.157
X-184.633 Y-99.294
X-184.687 Y-99.434
X-184.732 Y-99.577
X-184.768 Y-99.723
X-184.795 Y-99.87
X-184.814 Y-100.019
X-184.824 Y-100.169
Y-100.319
X-184.816 Y-100.469
X-184.799 Y-100.618
X-184.774 Y-100.765
X-184.739 Y-100.911
X-184.697 Y-101.055
X-184.646 Y-101.196
X-184.586 Y-101.334
X-184.519 Y-101.468
X-184.445 Y-101.598
X-184.363 Y-101.724
X-184.274 Y-101.845
X-184.178 Y-101.96
X-184.075 Y-102.07
X-183.967 Y-102.173
X-183.852 Y-102.272
X-183.732 Y-102.362
X-183.608 Y-102.446
X-183.478 Y-102.524
X-183.342 Y-102.594
X-183.205 Y-102.656
X-183.065 Y-102.71
X-182.918 Y-102.757
X-182.77 Y-102.796
X-182.621 Y-102.825
X-182.47 Y-102.847
X-182.315 Y-102.86
X-182.16 Y-102.865
X-182.007 Y-102.861
X-181.853 Y-102.848
X-181.697 Y-102.826
X-181.543 Y-102.795
X-181.393 Y-102.757
X-181.244 Y-102.709
X-181.095 Y-102.652
X-180.951 Y-102.587
X-180.812 Y-102.515
X-180.676 Y-102.435
X-180.542 Y-102.346
X-180.414 Y-102.249
X-180.293 Y-102.146
X-180.178 Y-102.036
X-180.067 Y-101.919
X-179.962 Y-101.794
X-179.865 Y-101.664
X-179.776 Y-101.531
X-179.694 Y-101.391
X-179.619 Y-101.245
X-179.553 Y-101.094
X-179.495 Y-100.941
X-179.446 Y-100.785
X-179.406 Y-100.626
X-179.374 Y-100.462
X-179.351 Y-100.297
X-179.338 Y-100.132
X-179.335 Y-99.966
X-179.34 Y-99.8
X-179.355 Y-99.632
X-179.38 Y-99.465
X-179.414 Y-99.299
X-179.457 Y-99.137
X-179.509 Y-98.977
X-179.571 Y-98.819
X-179.642 Y-98.663
X-179.722 Y-98.511
X-179.81 Y-98.364
X-179.906 Y-98.222
X-180.01 Y-98.086
X-180.122 Y-97.955
X-180.243 Y-97.83
X-180.371 Y-97.711
X-180.506 Y-97.6
X-180.646 Y-97.496
X-180.792 Y-97.401
X-180.943 Y-97.313
X-181.1 Y-97.234
X-181.262 Y-97.164
X-181.429 Y-97.102
X-181.599 Y-97.05
X-181.772 Y-97.007
X-181.947 Y-96.974
X-182.123 Y-96.951
X-182.301 Y-96.939
X-182.48 Y-96.936
X-182.661 Y-96.943
X-182.841 Y-96.96
X-183.021 Y-96.988
X-183.199 Y-97.026
X-183.375 Y-97.073
X-183.548 Y-97.131
X-183.717 Y-97.198
X-183.883 Y-97.275
X-184.044 Y-97.361
X-184.202 Y-97.457
X-184.354 Y-97.562
X-184.501 Y-97.676
X-184.642 Y-97.798
X-184.775 Y-97.929
X-184.902 Y-98.067
X-185.02 Y-98.211
X-185.131 Y-98.363
X-185.233 Y-98.521
X-185.326 Y-98.685
X-185.41 Y-98.854
X-185.484 Y-99.028
X-185.549 Y-99.206
X-185.603 Y-99.388
X-185.648 Y-99.574
X-185.682 Y-99.762
X-185.705 Y-99.953
X-185.718 Y-100.145
X-185.72 Y-100.338
X-185.711 Y-100.531
X-185.691 Y-100.724
X-185.66 Y-100.916
X-185.619 Y-101.106
X-185.566 Y-101.295
X-185.503 Y-101.48
X-185.429 Y-101.662
X-185.345 Y-101.84
X-185.251 Y-102.014
X-185.148 Y-102.182
X-185.034 Y-102.344
X-184.911 Y-102.501
X-184.78 Y-102.65
X-184.639 Y-102.792
X-184.491 Y-102.927
X-184.335 Y-103.053
X-184.171 Y-103.17
X-184.001 Y-103.278
X-183.825 Y-103.377
X-183.643 Y-103.466
X-183.455 Y-103.545
X-183.264 Y-103.613
X-183.068 Y-103.67
X-182.868 Y-103.717
X-182.666 Y-103.752
X-182.462 Y-103.776
X-182.256 Y-103.788
X-182.05 Y-103.789
X-181.843 Y-103.778
X-181.637 Y-103.755
X-181.431 Y-103.721
X-181.228 Y-103.675
X-181.027 Y-103.618
X-180.829 Y-103.549
X-180.635 Y-103.469
X-180.445 Y-103.378
X-180.26 Y-103.276
X-180.081 Y-103.164
X-179.908 Y-103.041
X-179.742 Y-102.909
X-179.583 Y-102.767
X-179.432 Y-102.616
X-179.289 Y-102.457
X-179.156 Y-102.289
X-179.031 Y-102.114
X-178.917 Y-101.931
X-178.812 Y-101.742
X-178.719 Y-101.547
X-178.636 Y-101.346
X-178.565 Y-101.141
X-178.505 Y-100.931
X-178.456 Y-100.718
X-178.42 Y-100.502
X-178.396 Y-100.284
X-178.384 Y-100.065
X-178.385 Y-99.844
X-178.398 Y-99.623
X-178.424 Y-99.403
X-178.462 Y-99.184
X-178.512 Y-98.968
X-178.575 Y-98.754
X-178.649 Y-98.543
X-178.736 Y-98.336
X-178.835 Y-98.134
X-178.945 Y-97.938
X-179.066 Y-97.747
X-179.197 Y-97.564
X-179.34 Y-97.387
X-179.492 Y-97.219
X-179.654 Y-97.059
X-179.825 Y-96.908
X-180.005 Y-96.766
X-180.193 Y-96.635
X-180.389 Y-96.514
X-180.591 Y-96.404
X-180.799 Y-96.306
X-181.014 Y-96.219
X-181.233 Y-96.144
X-181.457 Y-96.081
X-181.685 Y-96.031
X-181.915 Y-95.994
X-182.148 Y-95.97
X-182.382 Y-95.959
X-182.617 Y-95.961
X-182.707 Y-95.968
X-182.738 Y-95.972
X-182.829 Y-95.982
X-183.156 Y-96.019
X-183.21 Y-96.027
X-183.265 Y-96.04
X-183.283 Y-96.046
X-183.917 Y-96.268
X-184.135 Y-96.352
X-184.353 Y-96.487
X-184.788 Y-96.76
X-184.888 Y-96.826
X-184.988 Y-96.916
X-185.441 Y-97.37
X-185.538 Y-97.469
X-185.613 Y-97.569
X-186.023 Y-98.222
X-186.064 Y-98.298
X-186.094 Y-98.373
X-186.346 Y-99.092
X-186.375 Y-99.201
X-186.389 Y-99.31
X-186.462 Y-99.963
X-186.473 Y-100.072
X-186.469 Y-100.18
X-186.395 Y-100.833
X-186.363 Y-101.051
X-186.311 Y-101.205
X-186.094 Y-101.827
X-186.055 Y-101.921
X-185.922 Y-102.139
X-185.648 Y-102.574
X-185.578 Y-102.683
X-185.48 Y-102.792
X-185.006 Y-103.266
X-184.897 Y-103.367
X-184.781 Y-103.444
X-184.353 Y-103.713
X-184.135 Y-103.847
X-184.066 Y-103.88
X-183.446 Y-104.097
X-183.265 Y-104.16
X-183.047 Y-104.194
X-182.394 Y-104.267
X-182.285 Y-104.273
X-182.176 Y-104.264
X-181.523 Y-104.19
X-181.415 Y-104.177
X-181.306 Y-104.15
X-180.534 Y-103.88
X-180.435 Y-103.831
X-179.782 Y-103.421
X-179.673 Y-103.343
X-179.555 Y-103.227
X-179.12 Y-102.792
X-179.022 Y-102.683
X-178.952 Y-102.574
X-178.678 Y-102.139
X-178.545 Y-101.921
X-178.476 Y-101.742
X-178.259 Y-101.12
X-178.236 Y-101.051
X-178.205 Y-100.833
X-178.131 Y-100.18
X-178.127 Y-100.072
X-178.138 Y-99.963
X-178.211 Y-99.31
X-178.225 Y-99.201
X-178.254 Y-99.092
X-178.483 Y-98.439
X-178.522 Y-98.331
X-178.546 Y-98.276
X-178.577 Y-98.222
X-178.987 Y-97.569
X-179.048 Y-97.484
X-179.129 Y-97.399
X-179.612 Y-96.916
X-179.697 Y-96.837
X-179.782 Y-96.779
X-180.435 Y-96.369
X-180.49 Y-96.339
X-180.544 Y-96.316
X-181.317 Y-96.046
X-181.368 Y-96.031
X-181.42 Y-96.022
X-182.176 Y-95.936
X-182.285 Y-95.927
X-182.394 Y-95.933
X-182.738 Y-95.972
G3 X-182.958 Y-96.05 I0.088 J-0.594
G1 X-183.039 Y-96.099 Z7.007
X-183.117 Y-96.146 Z7.029
X-183.192 Y-96.19 Z7.065
X-183.261 Y-96.232 Z7.115
X-183.322 Y-96.268 Z7.176
X-183.375 Y-96.3 Z7.247
X-183.417 Y-96.325 Z7.328
X-183.448 Y-96.344 Z7.415
X-183.467 Y-96.355 Z7.506
X-183.473 Y-96.359 Z7.6
G0 Z33

(2D Adaptive14)
M9
X-182.3 Y-100.101
Z33
Z23
Z18.65
G1 Z18.05 F850
Z-0.5
X-182.32 Y-100.133
X-182.297 Y-100.162
X-182.259 Y-100.159
X-182.231 Y-100.135
X-182.219 Y-100.099
X-182.225 Y-100.062
X-182.247 Y-100.032
X-182.28 Y-100.015
X-182.318 Y-100.013
X-182.352 Y-100.028
X-182.378 Y-100.055
X-182.392 Y-100.09
X-182.396 Y-100.127
X-182.389 Y-100.164
X-182.369 Y-100.196
X-182.34 Y-100.22
X-182.305 Y-100.234
X-182.268 Y-100.238
X-182.231 Y-100.231
X-182.164 Y-100.198
X-182.121 Y-100.136
X-182.111 Y-100.062
X-182.132 Y-99.99
X-182.179 Y-99.932
X-182.244 Y-99.895
X-182.319 Y-99.885
X-182.392 Y-99.901
X-182.456 Y-99.94
X-182.505 Y-99.996
X-182.535 Y-100.065
X-182.543 Y-100.14
X-182.529 Y-100.214
X-182.496 Y-100.28
X-182.445 Y-100.335
X-182.317 Y-100.414
X-182.167 Y-100.421
X-182.03 Y-100.361
X-181.93 Y-100.249
X-181.881 Y-100.107
X-181.888 Y-99.958
X-181.948 Y-99.82
X-182.051 Y-99.711
X-182.185 Y-99.643
X-182.333 Y-99.62
X-182.481 Y-99.645
X-182.615 Y-99.712
X-182.723 Y-99.816
X-182.798 Y-99.946
X-182.833 Y-100.092
X-182.827 Y-100.242
X-182.785 Y-100.386
X-182.707 Y-100.514
X-182.601 Y-100.62
X-182.472 Y-100.697
X-182.329 Y-100.742
X-182.18 Y-100.752
X-182.031 Y-100.728
X-181.893 Y-100.671
X-181.769 Y-100.587
X-181.666 Y-100.477
X-181.588 Y-100.349
X-181.537 Y-100.208
X-181.517 Y-100.06
X-181.525 Y-99.91
X-181.563 Y-99.765
X-181.626 Y-99.629
X-181.714 Y-99.508
X-181.823 Y-99.404
X-181.948 Y-99.322
X-182.087 Y-99.264
X-182.233 Y-99.23
X-182.383 Y-99.223
X-182.532 Y-99.24
X-182.675 Y-99.283
X-182.81 Y-99.349
X-182.933 Y-99.435
X-183.039 Y-99.541
X-183.127 Y-99.663
X-183.195 Y-99.796
X-183.224 Y-99.894
X-183.243 Y-99.982
X-183.256 Y-100.072
X-183.253 Y-100.18
X-183.237 Y-100.289
X-183.226 Y-100.344
X-183.21 Y-100.398
X-183.164 Y-100.507
X-183.107 Y-100.616
X-183.047 Y-100.696
X-182.987 Y-100.764
X-182.914 Y-100.833
X-182.829 Y-100.894
X-182.72 Y-100.96
X-182.666 Y-100.984
X-182.612 Y-101.003
X-182.512 Y-101.032
X-182.412 Y-101.051
X-182.394 Y-101.052
X-182.292 Y-101.054
X-182.19 Y-101.051
X-182.176 Y-101.049
X-182.067 Y-101.026
X-181.959 Y-100.993
X-181.904 Y-100.971
X-181.85 Y-100.944
X-181.741 Y-100.875
X-181.685 Y-100.833
X-181.641 Y-100.794
X-181.597 Y-100.746
X-181.523 Y-100.658
X-181.493 Y-100.616
X-181.436 Y-100.507
X-181.39 Y-100.398
X-181.374 Y-100.344
X-181.363 Y-100.289
X-181.347 Y-100.18
X-181.344 Y-100.072
X-181.356 Y-99.963
X-181.374 Y-99.854
X-181.391 Y-99.799
X-181.413 Y-99.745
X-181.46 Y-99.643
X-181.488 Y-99.592
X-181.523 Y-99.541
X-181.534 Y-99.527
X-181.637 Y-99.411
X-181.689 Y-99.363
X-181.741 Y-99.325
X-181.862 Y-99.249
X-181.91 Y-99.226
X-181.959 Y-99.207
X-182.067 Y-99.174
X-182.176 Y-99.151
X-182.285 Y-99.146
X-182.394 Y-99.148
X-182.503 Y-99.166
X-182.612 Y-99.197
X-182.666 Y-99.216
X-182.72 Y-99.24
X-182.835 Y-99.31
X-182.941 Y-99.39
X-183.047 Y-99.505
X-183.066 Y-99.527
X-183.105 Y-99.582
X-183.136 Y-99.636
X-183.187 Y-99.745
X-183.209 Y-99.799
X-183.226 Y-99.854
X-183.244 Y-99.963
X-183.256 Y-100.072
G3 X-183.195 Y-100.297 I0.599 J0.042
G0 Z33

(2D Contour6)
S8000 M3
M9
X-182.3 Y-100.1
Z33
Z23
G1 Z7 F850
G3 X-182 Y-100.4 I0.3
G1 X-177.9
G3 X-177.6 Y-100.1 J0.3
X-187 I-4.7
X-177.6 I4.7
X-187 I-4.7
X-177.6 I4.7
X-178.2 Y-99.5 I-0.6
G1 X-178.8
G18 G3 X-179.4 Z7.6 K0.6
G0 Z33
G17

(2D Contour8)
M9
G0 X-182.3 Y-100.1
Z33
Z23
G1 Z0 F850
G3 X-182 Y-100.4 I0.3
G1 X-181.1
G3 X-180.8 Y-100.1 J0.3
X-183.8 I-1.5
X-180.8 I1.5
X-183.8 I-1.5
X-180.8 I1.5
X-181.4 Y-99.5 I-0.6
G1 X-182
G18 G3 X-182.6 Z0.6 K0.6
G0 Z33
G17
M9
M30
%
