%
(1001)
(z0 mdf bottom machine -5-5)
(T1  D=6 CR=0 TAPER=118deg - ZMIN=-5.803 - drill)
G90 G94
G17
G21

(Drill4)
M9
T1 M6
(2.5mm tip overhang)
S3750 M3
G54
M9
G0 X-182.3 Y-100.1
Z33
Z23
Z20
G1 Z7 F400
G0 Z17
G1 Z-4 F400
G0 Z6
G1 Z-5.803 F400
G0 Z23
Z33

(Drill4)
M9
X-182.3 Y-175.1
Z33
Z23
Z20
G1 Z7 F400
G0 Z17
G1 Z-4 F400
G0 Z6
G1 Z-5.803 F400
G0 Z23
Z33

(Drill4)
M9
X-182.3 Y-250.1
Z33
Z23
Z20
G1 Z7 F400
G0 Z17
G1 Z-4 F400
G0 Z6
G1 Z-5.803 F400
G0 Z23
Z33

(Drill4)
M9
X-182.3 Y-325.1
Z33
Z23
Z20
G1 Z7 F400
G0 Z17
G1 Z-4 F400
G0 Z6
G1 Z-5.803 F400
G0 Z23
Z33

(Drill4)
M9
X-182.3 Y-400.1
Z33
Z23
Z20
G1 Z7 F400
G0 Z17
G1 Z-4 F400
G0 Z6
G1 Z-5.803 F400
G0 Z23
Z33

(Drill4)
M9
X-182.3 Y-475.1
Z33
Z23
Z20
G1 Z7 F400
G0 Z17
G1 Z-4 F400
G0 Z6
G1 Z-5.803 F400
G0 Z23
Z33

(Drill4)
M9
X-182.3 Y-550.1
Z33
Z23
Z20
G1 Z7 F400
G0 Z17
G1 Z-4 F400
G0 Z6
G1 Z-5.803 F400
G0 Z23
Z33

(Drill4)
M9
X-182.3 Y-625.1
Z33
Z23
Z20
G1 Z7 F400
G0 Z17
G1 Z-4 F400
G0 Z6
G1 Z-5.803 F400
G0 Z23
Z33

(Drill4)
M9
X-257.3 Y-100.1
Z33
Z23
Z20
G1 Z7 F400
G0 Z17
G1 Z-4 F400
G0 Z6
G1 Z-5.803 F400
G0 Z23
Z33

(Drill4)
M9
X-257.3 Y-175.1
Z33
Z23
Z20
G1 Z7 F400
G0 Z17
G1 Z-4 F400
G0 Z6
G1 Z-5.803 F400
G0 Z23
Z33

(Drill4)
M9
X-257.3 Y-250.1
Z33
Z23
Z20
G1 Z7 F400
G0 Z17
G1 Z-4 F400
G0 Z6
G1 Z-5.803 F400
G0 Z23
Z33

(Drill4)
M9
X-257.3 Y-325.1
Z33
Z23
Z20
G1 Z7 F400
G0 Z17
G1 Z-4 F400
G0 Z6
G1 Z-5.803 F400
G0 Z23
Z33

(Drill4)
M9
X-257.3 Y-400.1
Z33
Z23
Z20
G1 Z7 F400
G0 Z17
G1 Z-4 F400
G0 Z6
G1 Z-5.803 F400
G0 Z23
Z33

(Drill4)
M9
X-257.3 Y-475.1
Z33
Z23
Z20
G1 Z7 F400
G0 Z17
G1 Z-4 F400
G0 Z6
G1 Z-5.803 F400
G0 Z23
Z33

(Drill4)
M9
X-257.3 Y-550.1
Z33
Z23
Z20
G1 Z7 F400
G0 Z17
G1 Z-4 F400
G0 Z6
G1 Z-5.803 F400
G0 Z23
Z33

(Drill4)
M9
X-257.3 Y-625.1
Z33
Z23
Z20
G1 Z7 F400
G0 Z17
G1 Z-4 F400
G0 Z6
G1 Z-5.803 F400
G0 Z23
Z33

(Drill4)
M9
X-332.3 Y-100.1
Z33
Z23
Z20
G1 Z7 F400
G0 Z17
G1 Z-4 F400
G0 Z6
G1 Z-5.803 F400
G0 Z23
Z33

(Drill4)
M9
X-332.3 Y-175.1
Z33
Z23
Z20
G1 Z7 F400
G0 Z17
G1 Z-4 F400
G0 Z6
G1 Z-5.803 F400
G0 Z23
Z33

(Drill4)
M9
X-332.3 Y-250.1
Z33
Z23
Z20
G1 Z7 F400
G0 Z17
G1 Z-4 F400
G0 Z6
G1 Z-5.803 F400
G0 Z23
Z33

(Drill4)
M9
X-332.3 Y-325.1
Z33
Z23
Z20
G1 Z7 F400
G0 Z17
G1 Z-4 F400
G0 Z6
G1 Z-5.803 F400
G0 Z23
Z33

(Drill4)
M9
X-332.3 Y-400.1
Z33
Z23
Z20
G1 Z7 F400
G0 Z17
G1 Z-4 F400
G0 Z6
G1 Z-5.803 F400
G0 Z23
Z33

(Drill4)
M9
X-332.3 Y-475.1
Z33
Z23
Z20
G1 Z7 F400
G0 Z17
G1 Z-4 F400
G0 Z6
G1 Z-5.803 F400
G0 Z23
Z33

(Drill4)
M9
X-332.3 Y-550.1
Z33
Z23
Z20
G1 Z7 F400
G0 Z17
G1 Z-4 F400
G0 Z6
G1 Z-5.803 F400
G0 Z23
Z33

(Drill4)
M9
X-332.3 Y-625.1
Z33
Z23
Z20
G1 Z7 F400
G0 Z17
G1 Z-4 F400
G0 Z6
G1 Z-5.803 F400
G0 Z23
Z33

(Drill4)
M9
X-407.3 Y-100.1
Z33
Z23
Z20
G1 Z7 F400
G0 Z17
G1 Z-4 F400
G0 Z6
G1 Z-5.803 F400
G0 Z23
Z33

(Drill4)
M9
X-407.3 Y-175.1
Z33
Z23
Z20
G1 Z7 F400
G0 Z17
G1 Z-4 F400
G0 Z6
G1 Z-5.803 F400
G0 Z23
Z33

(Drill4)
M9
X-407.3 Y-250.1
Z33
Z23
Z20
G1 Z7 F400
G0 Z17
G1 Z-4 F400
G0 Z6
G1 Z-5.803 F400
G0 Z23
Z33

(Drill4)
M9
X-407.3 Y-325.1
Z33
Z23
Z20
G1 Z7 F400
G0 Z17
G1 Z-4 F400
G0 Z6
G1 Z-5.803 F400
G0 Z23
Z33

(Drill4)
M9
X-407.3 Y-400.1
Z33
Z23
Z20
G1 Z7 F400
G0 Z17
G1 Z-4 F400
G0 Z6
G1 Z-5.803 F400
G0 Z23
Z33

(Drill4)
M9
X-407.3 Y-475.1
Z33
Z23
Z20
G1 Z7 F400
G0 Z17
G1 Z-4 F400
G0 Z6
G1 Z-5.803 F400
G0 Z23
Z33

(Drill4)
M9
X-407.3 Y-550.1
Z33
Z23
Z20
G1 Z7 F400
G0 Z17
G1 Z-4 F400
G0 Z6
G1 Z-5.803 F400
G0 Z23
Z33

(Drill4)
M9
X-407.3 Y-625.1
Z33
Z23
Z20
G1 Z7 F400
G0 Z17
G1 Z-4 F400
G0 Z6
G1 Z-5.803 F400
G0 Z23
Z33

(Drill4)
M9
X-482.3 Y-100.1
Z33
Z23
Z20
G1 Z7 F400
G0 Z17
G1 Z-4 F400
G0 Z6
G1 Z-5.803 F400
G0 Z23
Z33

(Drill4)
M9
X-482.3 Y-175.1
Z33
Z23
Z20
G1 Z7 F400
G0 Z17
G1 Z-4 F400
G0 Z6
G1 Z-5.803 F400
G0 Z23
Z33

(Drill4)
M9
X-482.3 Y-250.1
Z33
Z23
Z20
G1 Z7 F400
G0 Z17
G1 Z-4 F400
G0 Z6
G1 Z-5.803 F400
G0 Z23
Z33

(Drill4)
M9
X-482.3 Y-325.1
Z33
Z23
Z20
G1 Z7 F400
G0 Z17
G1 Z-4 F400
G0 Z6
G1 Z-5.803 F400
G0 Z23
Z33

(Drill4)
M9
X-482.3 Y-400.1
Z33
Z23
Z20
G1 Z7 F400
G0 Z17
G1 Z-4 F400
G0 Z6
G1 Z-5.803 F400
G0 Z23
Z33

(Drill4)
M9
X-482.3 Y-475.1
Z33
Z23
Z20
G1 Z7 F400
G0 Z17
G1 Z-4 F400
G0 Z6
G1 Z-5.803 F400
G0 Z23
Z33

(Drill4)
M9
X-482.3 Y-550.1
Z33
Z23
Z20
G1 Z7 F400
G0 Z17
G1 Z-4 F400
G0 Z6
G1 Z-5.803 F400
G0 Z23
Z33

(Drill4)
M9
X-482.3 Y-625.1
Z33
Z23
Z20
G1 Z7 F400
G0 Z17
G1 Z-4 F400
G0 Z6
G1 Z-5.803 F400
G0 Z23
Z33

(Drill4)
M9
X-557.3 Y-100.1
Z33
Z23
Z20
G1 Z7 F400
G0 Z17
G1 Z-4 F400
G0 Z6
G1 Z-5.803 F400
G0 Z23
Z33

(Drill4)
M9
X-557.3 Y-175.1
Z33
Z23
Z20
G1 Z7 F400
G0 Z17
G1 Z-4 F400
G0 Z6
G1 Z-5.803 F400
G0 Z23
Z33

(Drill4)
M9
X-557.3 Y-250.1
Z33
Z23
Z20
G1 Z7 F400
G0 Z17
G1 Z-4 F400
G0 Z6
G1 Z-5.803 F400
G0 Z23
Z33

(Drill4)
M9
X-557.3 Y-325.1
Z33
Z23
Z20
G1 Z7 F400
G0 Z17
G1 Z-4 F400
G0 Z6
G1 Z-5.803 F400
G0 Z23
Z33

(Drill4)
M9
X-557.3 Y-400.1
Z33
Z23
Z20
G1 Z7 F400
G0 Z17
G1 Z-4 F400
G0 Z6
G1 Z-5.803 F400
G0 Z23
Z33

(Drill4)
M9
X-557.3 Y-475.1
Z33
Z23
Z20
G1 Z7 F400
G0 Z17
G1 Z-4 F400
G0 Z6
G1 Z-5.803 F400
G0 Z23
Z33

(Drill4)
M9
X-557.3 Y-550.1
Z33
Z23
Z20
G1 Z7 F400
G0 Z17
G1 Z-4 F400
G0 Z6
G1 Z-5.803 F400
G0 Z23
Z33

(Drill4)
M9
X-557.3 Y-625.1
Z33
Z23
Z20
G1 Z7 F400
G0 Z17
G1 Z-4 F400
G0 Z6
G1 Z-5.803 F400
G0 Z23
Z33

(Drill4)
M9
X-632.3 Y-100.1
Z33
Z23
Z20
G1 Z7 F400
G0 Z17
G1 Z-4 F400
G0 Z6
G1 Z-5.803 F400
G0 Z23
Z33

(Drill4)
M9
X-632.3 Y-175.1
Z33
Z23
Z20
G1 Z7 F400
G0 Z17
G1 Z-4 F400
G0 Z6
G1 Z-5.803 F400
G0 Z23
Z33

(Drill4)
M9
X-632.3 Y-250.1
Z33
Z23
Z20
G1 Z7 F400
G0 Z17
G1 Z-4 F400
G0 Z6
G1 Z-5.803 F400
G0 Z23
Z33

(Drill4)
M9
X-632.3 Y-325.1
Z33
Z23
Z20
G1 Z7 F400
G0 Z17
G1 Z-4 F400
G0 Z6
G1 Z-5.803 F400
G0 Z23
Z33

(Drill4)
M9
X-632.3 Y-400.1
Z33
Z23
Z20
G1 Z7 F400
G0 Z17
G1 Z-4 F400
G0 Z6
G1 Z-5.803 F400
G0 Z23
Z33

(Drill4)
M9
X-632.3 Y-475.1
Z33
Z23
Z20
G1 Z7 F400
G0 Z17
G1 Z-4 F400
G0 Z6
G1 Z-5.803 F400
G0 Z23
Z33

(Drill4)
M9
X-632.3 Y-550.1
Z33
Z23
Z20
G1 Z7 F400
G0 Z17
G1 Z-4 F400
G0 Z6
G1 Z-5.803 F400
G0 Z23
Z33

(Drill4)
M9
X-632.3 Y-625.1
Z33
Z23
Z20
G1 Z7 F400
G0 Z17
G1 Z-4 F400
G0 Z6
G1 Z-5.803 F400
G0 Z23
Z33

(Drill4)
M9
X-707.3 Y-100.1
Z33
Z23
Z20
G1 Z7 F400
G0 Z17
G1 Z-4 F400
G0 Z6
G1 Z-5.803 F400
G0 Z23
Z33

(Drill4)
M9
X-707.3 Y-175.1
Z33
Z23
Z20
G1 Z7 F400
G0 Z17
G1 Z-4 F400
G0 Z6
G1 Z-5.803 F400
G0 Z23
Z33

(Drill4)
M9
X-707.3 Y-250.1
Z33
Z23
Z20
G1 Z7 F400
G0 Z17
G1 Z-4 F400
G0 Z6
G1 Z-5.803 F400
G0 Z23
Z33

(Drill4)
M9
X-707.3 Y-325.1
Z33
Z23
Z20
G1 Z7 F400
G0 Z17
G1 Z-4 F400
G0 Z6
G1 Z-5.803 F400
G0 Z23
Z33

(Drill4)
M9
X-707.3 Y-400.1
Z33
Z23
Z20
G1 Z7 F400
G0 Z17
G1 Z-4 F400
G0 Z6
G1 Z-5.803 F400
G0 Z23
Z33

(Drill4)
M9
X-707.3 Y-475.1
Z33
Z23
Z20
G1 Z7 F400
G0 Z17
G1 Z-4 F400
G0 Z6
G1 Z-5.803 F400
G0 Z23
Z33

(Drill4)
M9
X-707.3 Y-550.1
Z33
Z23
Z20
G1 Z7 F400
G0 Z17
G1 Z-4 F400
G0 Z6
G1 Z-5.803 F400
G0 Z23
Z33

(Drill4)
M9
X-707.3 Y-625.1
Z33
Z23
Z20
G1 Z7 F400
G0 Z17
G1 Z-4 F400
G0 Z6
G1 Z-5.803 F400
G0 Z23
Z33

(Drill4)
M9
X-782.3 Y-100.1
Z33
Z23
Z20
G1 Z7 F400
G0 Z17
G1 Z-4 F400
G0 Z6
G1 Z-5.803 F400
G0 Z23
Z33

(Drill4)
M9
X-782.3 Y-175.1
Z33
Z23
Z20
G1 Z7 F400
G0 Z17
G1 Z-4 F400
G0 Z6
G1 Z-5.803 F400
G0 Z23
Z33

(Drill4)
M9
X-782.3 Y-250.1
Z33
Z23
Z20
G1 Z7 F400
G0 Z17
G1 Z-4 F400
G0 Z6
G1 Z-5.803 F400
G0 Z23
Z33

(Drill4)
M9
X-782.3 Y-325.1
Z33
Z23
Z20
G1 Z7 F400
G0 Z17
G1 Z-4 F400
G0 Z6
G1 Z-5.803 F400
G0 Z23
Z33

(Drill4)
M9
X-782.3 Y-400.1
Z33
Z23
Z20
G1 Z7 F400
G0 Z17
G1 Z-4 F400
G0 Z6
G1 Z-5.803 F400
G0 Z23
Z33

(Drill4)
M9
X-782.3 Y-475.1
Z33
Z23
Z20
G1 Z7 F400
G0 Z17
G1 Z-4 F400
G0 Z6
G1 Z-5.803 F400
G0 Z23
Z33

(Drill4)
M9
X-782.3 Y-550.1
Z33
Z23
Z20
G1 Z7 F400
G0 Z17
G1 Z-4 F400
G0 Z6
G1 Z-5.803 F400
G0 Z23
Z33

(Drill4)
M9
X-782.3 Y-625.1
Z33
Z23
Z20
G1 Z7 F400
G0 Z17
G1 Z-4 F400
G0 Z6
G1 Z-5.803 F400
G0 Z23
Z33

(Drill4)
M9
X-857.3 Y-100.1
Z33
Z23
Z20
G1 Z7 F400
G0 Z17
G1 Z-4 F400
G0 Z6
G1 Z-5.803 F400
G0 Z23
Z33

(Drill4)
M9
X-857.3 Y-175.1
Z33
Z23
Z20
G1 Z7 F400
G0 Z17
G1 Z-4 F400
G0 Z6
G1 Z-5.803 F400
G0 Z23
Z33

(Drill4)
M9
X-857.3 Y-250.1
Z33
Z23
Z20
G1 Z7 F400
G0 Z17
G1 Z-4 F400
G0 Z6
G1 Z-5.803 F400
G0 Z23
Z33

(Drill4)
M9
X-857.3 Y-325.1
Z33
Z23
Z20
G1 Z7 F400
G0 Z17
G1 Z-4 F400
G0 Z6
G1 Z-5.803 F400
G0 Z23
Z33

(Drill4)
M9
X-857.3 Y-400.1
Z33
Z23
Z20
G1 Z7 F400
G0 Z17
G1 Z-4 F400
G0 Z6
G1 Z-5.803 F400
G0 Z23
Z33

(Drill4)
M9
X-857.3 Y-475.1
Z33
Z23
Z20
G1 Z7 F400
G0 Z17
G1 Z-4 F400
G0 Z6
G1 Z-5.803 F400
G0 Z23
Z33

(Drill4)
M9
X-857.3 Y-550.1
Z33
Z23
Z20
G1 Z7 F400
G0 Z17
G1 Z-4 F400
G0 Z6
G1 Z-5.803 F400
G0 Z23
Z33

(Drill4)
M9
X-857.3 Y-625.1
Z33
Z23
Z20
G1 Z7 F400
G0 Z17
G1 Z-4 F400
G0 Z6
G1 Z-5.803 F400
G0 Z23
Z33

(Drill4)
M9
X-932.3 Y-100.1
Z33
Z23
Z20
G1 Z7 F400
G0 Z17
G1 Z-4 F400
G0 Z6
G1 Z-5.803 F400
G0 Z23
Z33

(Drill4)
M9
X-932.3 Y-175.1
Z33
Z23
Z20
G1 Z7 F400
G0 Z17
G1 Z-4 F400
G0 Z6
G1 Z-5.803 F400
G0 Z23
Z33

(Drill4)
M9
X-932.3 Y-250.1
Z33
Z23
Z20
G1 Z7 F400
G0 Z17
G1 Z-4 F400
G0 Z6
G1 Z-5.803 F400
G0 Z23
Z33

(Drill4)
M9
X-932.3 Y-325.1
Z33
Z23
Z20
G1 Z7 F400
G0 Z17
G1 Z-4 F400
G0 Z6
G1 Z-5.803 F400
G0 Z23
Z33

(Drill4)
M9
X-932.3 Y-400.1
Z33
Z23
Z20
G1 Z7 F400
G0 Z17
G1 Z-4 F400
G0 Z6
G1 Z-5.803 F400
G0 Z23
Z33

(Drill4)
M9
X-932.3 Y-475.1
Z33
Z23
Z20
G1 Z7 F400
G0 Z17
G1 Z-4 F400
G0 Z6
G1 Z-5.803 F400
G0 Z23
Z33

(Drill4)
M9
X-932.3 Y-550.1
Z33
Z23
Z20
G1 Z7 F400
G0 Z17
G1 Z-4 F400
G0 Z6
G1 Z-5.803 F400
G0 Z23
Z33

(Drill4)
M9
X-932.3 Y-625.1
Z33
Z23
Z20
G1 Z7 F400
G0 Z17
G1 Z-4 F400
G0 Z6
G1 Z-5.803 F400
G0 Z23
Z33

(Drill4)
M9
X-1007.3 Y-100.1
Z33
Z23
Z20
G1 Z7 F400
G0 Z17
G1 Z-4 F400
G0 Z6
G1 Z-5.803 F400
G0 Z23
Z33

(Drill4)
M9
X-1007.3 Y-175.1
Z33
Z23
Z20
G1 Z7 F400
G0 Z17
G1 Z-4 F400
G0 Z6
G1 Z-5.803 F400
G0 Z23
Z33

(Drill4)
M9
X-1007.3 Y-250.1
Z33
Z23
Z20
G1 Z7 F400
G0 Z17
G1 Z-4 F400
G0 Z6
G1 Z-5.803 F400
G0 Z23
Z33

(Drill4)
M9
X-1007.3 Y-325.1
Z33
Z23
Z20
G1 Z7 F400
G0 Z17
G1 Z-4 F400
G0 Z6
G1 Z-5.803 F400
G0 Z23
Z33

(Drill4)
M9
X-1007.3 Y-400.1
Z33
Z23
Z20
G1 Z7 F400
G0 Z17
G1 Z-4 F400
G0 Z6
G1 Z-5.803 F400
G0 Z23
Z33

(Drill4)
M9
X-1007.3 Y-475.1
Z33
Z23
Z20
G1 Z7 F400
G0 Z17
G1 Z-4 F400
G0 Z6
G1 Z-5.803 F400
G0 Z23
Z33

(Drill4)
M9
X-1007.3 Y-550.1
Z33
Z23
Z20
G1 Z7 F400
G0 Z17
G1 Z-4 F400
G0 Z6
G1 Z-5.803 F400
G0 Z23
Z33

(Drill4)
M9
X-1007.3 Y-625.1
Z33
Z23
Z20
G1 Z7 F400
G0 Z17
G1 Z-4 F400
G0 Z6
G1 Z-5.803 F400
G0 Z23
Z33

(Drill4)
M9
X-1082.3 Y-100.1
Z33
Z23
Z20
G1 Z7 F400
G0 Z17
G1 Z-4 F400
G0 Z6
G1 Z-5.803 F400
G0 Z23
Z33

(Drill4)
M9
X-1082.3 Y-175.1
Z33
Z23
Z20
G1 Z7 F400
G0 Z17
G1 Z-4 F400
G0 Z6
G1 Z-5.803 F400
G0 Z23
Z33

(Drill4)
M9
X-1082.3 Y-250.1
Z33
Z23
Z20
G1 Z7 F400
G0 Z17
G1 Z-4 F400
G0 Z6
G1 Z-5.803 F400
G0 Z23
Z33

(Drill4)
M9
X-1082.3 Y-325.1
Z33
Z23
Z20
G1 Z7 F400
G0 Z17
G1 Z-4 F400
G0 Z6
G1 Z-5.803 F400
G0 Z23
Z33

(Drill4)
M9
X-1082.3 Y-400.1
Z33
Z23
Z20
G1 Z7 F400
G0 Z17
G1 Z-4 F400
G0 Z6
G1 Z-5.803 F400
G0 Z23
Z33

(Drill4)
M9
X-1082.3 Y-475.1
Z33
Z23
Z20
G1 Z7 F400
G0 Z17
G1 Z-4 F400
G0 Z6
G1 Z-5.803 F400
G0 Z23
Z33

(Drill4)
M9
X-1082.3 Y-550.1
Z33
Z23
Z20
G1 Z7 F400
G0 Z17
G1 Z-4 F400
G0 Z6
G1 Z-5.803 F400
G0 Z23
Z33

(Drill4)
M9
X-1082.3 Y-625.1
Z33
Z23
Z20
G1 Z7 F400
G0 Z17
G1 Z-4 F400
G0 Z6
G1 Z-5.803 F400
G0 Z23
Z33

(Drill4)
M9
X-1157.3 Y-100.1
Z33
Z23
Z20
G1 Z7 F400
G0 Z17
G1 Z-4 F400
G0 Z6
G1 Z-5.803 F400
G0 Z23
Z33

(Drill4)
M9
X-1157.3 Y-175.1
Z33
Z23
Z20
G1 Z7 F400
G0 Z17
G1 Z-4 F400
G0 Z6
G1 Z-5.803 F400
G0 Z23
Z33

(Drill4)
M9
X-1157.3 Y-250.1
Z33
Z23
Z20
G1 Z7 F400
G0 Z17
G1 Z-4 F400
G0 Z6
G1 Z-5.803 F400
G0 Z23
Z33

(Drill4)
M9
X-1157.3 Y-325.1
Z33
Z23
Z20
G1 Z7 F400
G0 Z17
G1 Z-4 F400
G0 Z6
G1 Z-5.803 F400
G0 Z23
Z33

(Drill4)
M9
X-1157.3 Y-400.1
Z33
Z23
Z20
G1 Z7 F400
G0 Z17
G1 Z-4 F400
G0 Z6
G1 Z-5.803 F400
G0 Z23
Z33

(Drill4)
M9
X-1157.3 Y-475.1
Z33
Z23
Z20
G1 Z7 F400
G0 Z17
G1 Z-4 F400
G0 Z6
G1 Z-5.803 F400
G0 Z23
Z33

(Drill4)
M9
X-1157.3 Y-550.1
Z33
Z23
Z20
G1 Z7 F400
G0 Z17
G1 Z-4 F400
G0 Z6
G1 Z-5.803 F400
G0 Z23
Z33

(Drill4)
M9
X-1157.3 Y-625.1
Z33
Z23
Z20
G1 Z7 F400
G0 Z17
G1 Z-4 F400
G0 Z6
G1 Z-5.803 F400
G0 Z23
Z33

(Drill4)
M9
X-1232.3 Y-100.1
Z33
Z23
Z20
G1 Z7 F400
G0 Z17
G1 Z-4 F400
G0 Z6
G1 Z-5.803 F400
G0 Z23
Z33

(Drill4)
M9
X-1232.3 Y-175.1
Z33
Z23
Z20
G1 Z7 F400
G0 Z17
G1 Z-4 F400
G0 Z6
G1 Z-5.803 F400
G0 Z23
Z33

(Drill4)
M9
X-1232.3 Y-250.1
Z33
Z23
Z20
G1 Z7 F400
G0 Z17
G1 Z-4 F400
G0 Z6
G1 Z-5.803 F400
G0 Z23
Z33

(Drill4)
M9
X-1232.3 Y-325.1
Z33
Z23
Z20
G1 Z7 F400
G0 Z17
G1 Z-4 F400
G0 Z6
G1 Z-5.803 F400
G0 Z23
Z33

(Drill4)
M9
X-1232.3 Y-400.1
Z33
Z23
Z20
G1 Z7 F400
G0 Z17
G1 Z-4 F400
G0 Z6
G1 Z-5.803 F400
G0 Z23
Z33

(Drill4)
M9
X-1232.3 Y-475.1
Z33
Z23
Z20
G1 Z7 F400
G0 Z17
G1 Z-4 F400
G0 Z6
G1 Z-5.803 F400
G0 Z23
Z33

(Drill4)
M9
X-1232.3 Y-550.1
Z33
Z23
Z20
G1 Z7 F400
G0 Z17
G1 Z-4 F400
G0 Z6
G1 Z-5.803 F400
G0 Z23
Z33

(Drill4)
M9
X-1232.3 Y-625.1
Z33
Z23
Z20
G1 Z7 F400
G0 Z17
G1 Z-4 F400
G0 Z6
G1 Z-5.803 F400
G0 Z23
Z33

(Drill4)
M9
X-1307.3 Y-100.1
Z33
Z23
Z20
G1 Z7 F400
G0 Z17
G1 Z-4 F400
G0 Z6
G1 Z-5.803 F400
G0 Z23
Z33

(Drill4)
M9
X-1307.3 Y-175.1
Z33
Z23
Z20
G1 Z7 F400
G0 Z17
G1 Z-4 F400
G0 Z6
G1 Z-5.803 F400
G0 Z23
Z33

(Drill4)
M9
X-1307.3 Y-250.1
Z33
Z23
Z20
G1 Z7 F400
G0 Z17
G1 Z-4 F400
G0 Z6
G1 Z-5.803 F400
G0 Z23
Z33

(Drill4)
M9
X-1307.3 Y-325.1
Z33
Z23
Z20
G1 Z7 F400
G0 Z17
G1 Z-4 F400
G0 Z6
G1 Z-5.803 F400
G0 Z23
Z33

(Drill4)
M9
X-1307.3 Y-400.1
Z33
Z23
Z20
G1 Z7 F400
G0 Z17
G1 Z-4 F400
G0 Z6
G1 Z-5.803 F400
G0 Z23
Z33

(Drill4)
M9
X-1307.3 Y-475.1
Z33
Z23
Z20
G1 Z7 F400
G0 Z17
G1 Z-4 F400
G0 Z6
G1 Z-5.803 F400
G0 Z23
Z33

(Drill4)
M9
X-1307.3 Y-550.1
Z33
Z23
Z20
G1 Z7 F400
G0 Z17
G1 Z-4 F400
G0 Z6
G1 Z-5.803 F400
G0 Z23
Z33

(Drill4)
M9
X-1307.3 Y-625.1
Z33
Z23
Z20
G1 Z7 F400
G0 Z17
G1 Z-4 F400
G0 Z6
G1 Z-5.803 F400
G0 Z23
Z33
M9
M30
%
