%
(1001)
(z0 mdf bottom machine -5-5)
(T1  D=6 CR=0 - ZMIN=7 - flat end mill)
G90 G94
G17
G21

(2D Contour9)
M9
T1 M6
S8000 M3
G54
M9
G0 X-1307.3 Y-100.1
Z33
Z23
G1 Z7 F850
G3 X-1307.24 Y-99.68 I-0.18 J0.24
G1 X-1309.7 Y-96.4
G3 X-1310.12 Y-96.34 I-0.24 J-0.18
Y-103.86 I2.82 J-3.76
X-1302.6 Y-100.1 I2.82 J3.76
X-1310.12 Y-96.34 I-4.7
Y-103.86 I2.82 J-3.76
X-1302.6 Y-100.1 I2.82 J3.76
X-1310.85 Y-97.02 I-4.7
X-1310.79 Y-97.867 I0.453 J-0.393
G1 X-1310.337 Y-98.26
X-1310.266 Y-98.321 Z7.007
X-1310.197 Y-98.381 Z7.029
X-1310.131 Y-98.438 Z7.065
X-1310.071 Y-98.491 Z7.115
X-1310.017 Y-98.538 Z7.176
X-1309.97 Y-98.578 Z7.247
X-1309.933 Y-98.61 Z7.328
X-1309.906 Y-98.634 Z7.415
X-1309.889 Y-98.648 Z7.506
X-1309.884 Y-98.653 Z7.6
G0 Z33

(2D Contour9)
M9
X-1307.3 Y-175.1
Z33
Z23
G1 Z7 F850
G3 X-1307.24 Y-174.68 I-0.18 J0.24
G1 X-1309.7 Y-171.4
G3 X-1310.12 Y-171.34 I-0.24 J-0.18
Y-178.86 I2.82 J-3.76
X-1302.6 Y-175.1 I2.82 J3.76
X-1310.12 Y-171.34 I-4.7
Y-178.86 I2.82 J-3.76
X-1302.6 Y-175.1 I2.82 J3.76
X-1310.85 Y-172.02 I-4.7
X-1310.79 Y-172.867 I0.453 J-0.393
G1 X-1310.337 Y-173.26
X-1310.266 Y-173.321 Z7.007
X-1310.197 Y-173.381 Z7.029
X-1310.131 Y-173.438 Z7.065
X-1310.071 Y-173.491 Z7.115
X-1310.017 Y-173.538 Z7.176
X-1309.97 Y-173.578 Z7.247
X-1309.933 Y-173.61 Z7.328
X-1309.906 Y-173.634 Z7.415
X-1309.889 Y-173.648 Z7.506
X-1309.884 Y-173.653 Z7.6
G0 Z33

(2D Contour9)
M9
X-1307.3 Y-250.1
Z33
Z23
G1 Z7 F850
G3 X-1307.24 Y-249.68 I-0.18 J0.24
G1 X-1309.7 Y-246.4
G3 X-1310.12 Y-246.34 I-0.24 J-0.18
Y-253.86 I2.82 J-3.76
X-1302.6 Y-250.1 I2.82 J3.76
X-1310.12 Y-246.34 I-4.7
Y-253.86 I2.82 J-3.76
X-1302.6 Y-250.1 I2.82 J3.76
X-1310.85 Y-247.02 I-4.7
X-1310.79 Y-247.867 I0.453 J-0.393
G1 X-1310.337 Y-248.26
X-1310.266 Y-248.321 Z7.007
X-1310.197 Y-248.381 Z7.029
X-1310.131 Y-248.438 Z7.065
X-1310.071 Y-248.491 Z7.115
X-1310.017 Y-248.538 Z7.176
X-1309.97 Y-248.578 Z7.247
X-1309.933 Y-248.61 Z7.328
X-1309.906 Y-248.634 Z7.415
X-1309.889 Y-248.648 Z7.506
X-1309.884 Y-248.653 Z7.6
G0 Z33

(2D Contour9)
M9
X-1307.3 Y-325.1
Z33
Z23
G1 Z7 F850
G3 X-1307.24 Y-324.68 I-0.18 J0.24
G1 X-1309.7 Y-321.4
G3 X-1310.12 Y-321.34 I-0.24 J-0.18
Y-328.86 I2.82 J-3.76
X-1302.6 Y-325.1 I2.82 J3.76
X-1310.12 Y-321.34 I-4.7
Y-328.86 I2.82 J-3.76
X-1302.6 Y-325.1 I2.82 J3.76
X-1310.85 Y-322.02 I-4.7
X-1310.79 Y-322.867 I0.453 J-0.393
G1 X-1310.337 Y-323.26
X-1310.266 Y-323.321 Z7.007
X-1310.197 Y-323.381 Z7.029
X-1310.131 Y-323.438 Z7.065
X-1310.071 Y-323.491 Z7.115
X-1310.017 Y-323.538 Z7.176
X-1309.97 Y-323.578 Z7.247
X-1309.933 Y-323.61 Z7.328
X-1309.906 Y-323.634 Z7.415
X-1309.889 Y-323.648 Z7.506
X-1309.884 Y-323.653 Z7.6
G0 Z33

(2D Contour9)
M9
X-1307.3 Y-400.1
Z33
Z23
G1 Z7 F850
G3 X-1307.24 Y-399.68 I-0.18 J0.24
G1 X-1309.7 Y-396.4
G3 X-1310.12 Y-396.34 I-0.24 J-0.18
Y-403.86 I2.82 J-3.76
X-1302.6 Y-400.1 I2.82 J3.76
X-1310.12 Y-396.34 I-4.7
Y-403.86 I2.82 J-3.76
X-1302.6 Y-400.1 I2.82 J3.76
X-1310.85 Y-397.02 I-4.7
X-1310.79 Y-397.867 I0.453 J-0.393
G1 X-1310.337 Y-398.26
X-1310.266 Y-398.321 Z7.007
X-1310.197 Y-398.381 Z7.029
X-1310.131 Y-398.438 Z7.065
X-1310.071 Y-398.491 Z7.115
X-1310.017 Y-398.538 Z7.176
X-1309.97 Y-398.578 Z7.247
X-1309.933 Y-398.61 Z7.328
X-1309.906 Y-398.634 Z7.415
X-1309.889 Y-398.648 Z7.506
X-1309.884 Y-398.653 Z7.6
G0 Z33

(2D Contour9)
M9
X-1307.3 Y-475.1
Z33
Z23
G1 Z7 F850
G3 X-1307.24 Y-474.68 I-0.18 J0.24
G1 X-1309.7 Y-471.4
G3 X-1310.12 Y-471.34 I-0.24 J-0.18
Y-478.86 I2.82 J-3.76
X-1302.6 Y-475.1 I2.82 J3.76
X-1310.12 Y-471.34 I-4.7
Y-478.86 I2.82 J-3.76
X-1302.6 Y-475.1 I2.82 J3.76
X-1310.85 Y-472.02 I-4.7
X-1310.79 Y-472.867 I0.453 J-0.393
G1 X-1310.337 Y-473.26
X-1310.266 Y-473.321 Z7.007
X-1310.197 Y-473.381 Z7.029
X-1310.131 Y-473.438 Z7.065
X-1310.071 Y-473.491 Z7.115
X-1310.017 Y-473.538 Z7.176
X-1309.97 Y-473.578 Z7.247
X-1309.933 Y-473.61 Z7.328
X-1309.906 Y-473.634 Z7.415
X-1309.889 Y-473.648 Z7.506
X-1309.884 Y-473.653 Z7.6
G0 Z33

(2D Contour9)
M9
X-1307.3 Y-550.1
Z33
Z23
G1 Z7 F850
G3 X-1307.24 Y-549.68 I-0.18 J0.24
G1 X-1309.7 Y-546.4
G3 X-1310.12 Y-546.34 I-0.24 J-0.18
Y-553.86 I2.82 J-3.76
X-1302.6 Y-550.1 I2.82 J3.76
X-1310.12 Y-546.34 I-4.7
Y-553.86 I2.82 J-3.76
X-1302.6 Y-550.1 I2.82 J3.76
X-1310.85 Y-547.02 I-4.7
X-1310.79 Y-547.867 I0.453 J-0.393
G1 X-1310.337 Y-548.26
X-1310.266 Y-548.321 Z7.007
X-1310.197 Y-548.381 Z7.029
X-1310.131 Y-548.438 Z7.065
X-1310.071 Y-548.491 Z7.115
X-1310.017 Y-548.538 Z7.176
X-1309.97 Y-548.578 Z7.247
X-1309.933 Y-548.61 Z7.328
X-1309.906 Y-548.634 Z7.415
X-1309.889 Y-548.648 Z7.506
X-1309.884 Y-548.653 Z7.6
G0 Z33

(2D Contour9)
M9
X-1307.3 Y-625.1
Z33
Z23
G1 Z7 F850
G3 X-1307.24 Y-624.68 I-0.18 J0.24
G1 X-1309.7 Y-621.4
G3 X-1310.12 Y-621.34 I-0.24 J-0.18
Y-628.86 I2.82 J-3.76
X-1302.6 Y-625.1 I2.82 J3.76
X-1310.12 Y-621.34 I-4.7
Y-628.86 I2.82 J-3.76
X-1302.6 Y-625.1 I2.82 J3.76
X-1310.85 Y-622.02 I-4.7
X-1310.79 Y-622.867 I0.453 J-0.393
G1 X-1310.337 Y-623.26
X-1310.266 Y-623.321 Z7.007
X-1310.197 Y-623.381 Z7.029
X-1310.131 Y-623.438 Z7.065
X-1310.071 Y-623.491 Z7.115
X-1310.017 Y-623.538 Z7.176
X-1309.97 Y-623.578 Z7.247
X-1309.933 Y-623.61 Z7.328
X-1309.906 Y-623.634 Z7.415
X-1309.889 Y-623.648 Z7.506
X-1309.884 Y-623.653 Z7.6
G0 Z33
M9
M30
%
