%
(1001)
(z0 mdf bottom machine -5-5)
(T1  D=21 CR=0 - ZMIN=18 - flat end mill)
G90 G94
G17
G21

(Face1)
M9
T1 M6
(22mm Facing Bit)
S3500 M3
G54
M9
G0 X-112.255 Y-657.184
Z33.9
Z23.9
G1 Z20.4 F850
G18 G3 X-114.355 Z18.3 I-2.1
G1 X-122.905
X-1354.9
G17 G2 Y-637.567 J9.808
G1 X-122.905
G3 Y-617.95 J9.809
G1 X-1354.9
G2 Y-598.333 J9.808
G1 X-122.905
G3 Y-578.716 J9.808
G1 X-1354.9
G2 Y-559.099 J9.808
G1 X-122.905
G3 Y-539.482 J9.808
G1 X-1354.9
G2 X-1364.708 Y-529.673 J9.809
X-1354.9 Y-519.865 I9.808
G1 X-122.905
G3 Y-500.248 J9.808
G1 X-1354.9
G2 Y-480.631 J9.809
G1 X-122.905
G3 Y-461.014 J9.809
G1 X-1354.9
G2 Y-441.397 J9.808
G1 X-122.905
G3 Y-421.78 J9.808
G1 X-1354.9
G2 Y-402.163 J9.808
G1 X-122.905
G3 Y-382.546 J9.809
G1 X-1354.9
G2 Y-362.929 J9.809
G1 X-122.905
G3 Y-343.312 J9.808
G1 X-1354.9
G2 X-1364.708 Y-333.504 J9.808
X-1354.9 Y-323.695 I9.808
G1 X-122.905
G3 Y-304.078 J9.808
G1 X-1354.9
G2 Y-284.461 J9.809
G1 X-122.905
G3 Y-264.844 J9.809
G1 X-1354.9
G2 X-1364.708 Y-255.036 J9.808
X-1354.9 Y-245.227 I9.808
G1 X-122.905
G3 Y-225.61 J9.808
G1 X-1354.9
G2 Y-205.993 J9.808
G1 X-122.905
G3 Y-186.376 J9.808
G1 X-1354.9
G2 Y-166.759 J9.808
G1 X-122.905
G3 Y-147.142 J9.808
G1 X-1354.9
G2 Y-127.525 J9.808
G1 X-122.905
G3 Y-107.908 J9.808
G1 X-1354.9
G2 Y-88.291 J9.808
G1 X-122.905
G3 Y-68.674 J9.808
G1 X-1354.9
G18 G3 X-1357 Z20.4 K2.1
G0 Z23.9
X-1365.55 Y-657.184
G1 Z20.1 F850
G2 X-1363.45 Z18 I2.1
G1 X-1354.9
X-122.905
G17 G3 Y-637.567 J9.808
G1 X-1354.9
G2 X-1364.708 Y-627.758 J9.809
X-1354.9 Y-617.95 I9.808
G1 X-122.905
G3 Y-598.333 J9.808
G1 X-1354.9
G2 X-1364.708 Y-588.524 J9.808
X-1354.9 Y-578.716 I9.808
G1 X-122.905
G3 Y-559.099 J9.808
G1 X-1354.9
G2 Y-539.482 J9.808
G1 X-122.905
G3 Y-519.865 J9.809
G1 X-1354.9
G2 Y-500.248 J9.808
G1 X-122.905
G3 Y-480.631 J9.809
G1 X-1354.9
G2 X-1364.708 Y-470.822 J9.809
X-1354.9 Y-461.014 I9.808
G1 X-122.905
G3 Y-441.397 J9.808
G1 X-1354.9
G2 Y-421.78 J9.808
G1 X-122.905
G3 Y-402.163 J9.808
G1 X-1354.9
G2 Y-382.546 J9.809
G1 X-122.905
G3 Y-362.929 J9.809
G1 X-1354.9
G2 Y-343.312 J9.808
G1 X-122.905
G3 Y-323.695 J9.808
G1 X-1354.9
G2 Y-304.078 J9.808
G1 X-122.905
G3 Y-284.461 J9.809
G1 X-1354.9
G2 Y-264.844 J9.809
G1 X-122.905
G3 Y-245.227 J9.808
G1 X-1354.9
G2 Y-225.61 J9.808
G1 X-122.905
G3 Y-205.993 J9.808
G1 X-1354.9
G2 Y-186.376 J9.808
G1 X-122.905
G3 Y-166.759 J9.808
G1 X-1354.9
G2 Y-147.142 J9.808
G1 X-122.905
G3 Y-127.525 J9.808
G1 X-1354.9
G2 Y-107.908 J9.808
G1 X-122.905
G3 Y-88.291 J9.808
G1 X-1354.9
G2 Y-68.674 J9.808
G1 X-122.905
G18 G2 X-120.805 Z20.1 K2.1
G0 Z33.9
G17
M9
M30
%
