%
(1001)
(z0 mdf bottom machine -5-5)
(T1  D=22 CR=0 - ZMIN=18 - flat end mill)
G90 G94
G17
G21

(Face1)
M9
T1 M6
(22mm Facing Bit)
S7500 M3
G54
M9
G0 X-114.605 Y-653.528
Z33.9
Z23.9
G1 Z20.5 F850
G18 G3 X-116.805 Z18.3 I-2.2
G1 X-128.905
X-1348.9
G17 G2 Y-632.765 J10.382
G1 X-128.905
G3 Y-612.001 J10.382
G1 X-1348.9
G2 Y-591.238 J10.382
G1 X-128.905
G3 Y-570.475 J10.382
G1 X-1348.9
G2 Y-549.712 J10.382
G1 X-128.905
G3 Y-528.949 J10.382
G1 X-1348.9
G2 Y-508.186 J10.382
G1 X-128.905
G3 Y-487.422 J10.382
G1 X-1348.9
G2 Y-466.659 J10.382
G1 X-128.905
G3 Y-445.896 J10.382
G1 X-1348.9
G2 Y-425.133 J10.382
G1 X-128.905
G3 Y-404.37 J10.382
G1 X-1348.9
G2 Y-383.607 J10.382
G1 X-128.905
G3 Y-362.843 J10.382
G1 X-1348.9
G2 Y-342.08 J10.382
G1 X-128.905
G3 Y-321.317 J10.382
G1 X-1348.9
G2 Y-300.554 J10.382
G1 X-128.905
G3 Y-279.791 J10.382
G1 X-1348.9
G2 Y-259.028 J10.382
G1 X-128.905
G3 Y-238.264 J10.382
G1 X-1348.9
G2 Y-217.501 J10.382
G1 X-128.905
G3 Y-196.738 J10.382
G1 X-1348.9
G2 Y-175.975 J10.382
G1 X-128.905
G3 Y-155.212 J10.382
G1 X-1348.9
G2 Y-134.449 J10.382
G1 X-128.905
G3 Y-113.685 J10.382
G1 X-1348.9
G2 Y-92.922 J10.382
G1 X-128.905
G3 Y-72.159 J10.382
G1 X-1348.9
G18 G3 X-1351.1 Z20.5 K2.2
G0 Z23.9
X-1363.2 Y-653.528
G1 Z20.2 F850
G2 X-1361 Z18 I2.2
G1 X-1348.9
X-128.905
G17 G3 Y-632.765 J10.382
G1 X-1348.9
G2 Y-612.001 J10.382
G1 X-128.905
G3 Y-591.238 J10.382
G1 X-1348.9
G2 Y-570.475 J10.382
G1 X-128.905
G3 Y-549.712 J10.382
G1 X-1348.9
G2 Y-528.949 J10.382
G1 X-128.905
G3 Y-508.186 J10.382
G1 X-1348.9
G2 Y-487.422 J10.382
G1 X-128.905
G3 Y-466.659 J10.382
G1 X-1348.9
G2 Y-445.896 J10.382
G1 X-128.905
G3 Y-425.133 J10.382
G1 X-1348.9
G2 Y-404.37 J10.382
G1 X-128.905
G3 Y-383.607 J10.382
G1 X-1348.9
G2 Y-362.843 J10.382
G1 X-128.905
G3 Y-342.08 J10.382
G1 X-1348.9
G2 Y-321.317 J10.382
G1 X-128.905
G3 Y-300.554 J10.382
G1 X-1348.9
G2 Y-279.791 J10.382
G1 X-128.905
G3 Y-259.028 J10.382
G1 X-1348.9
G2 Y-238.264 J10.382
G1 X-128.905
G3 Y-217.501 J10.382
G1 X-1348.9
G2 Y-196.738 J10.382
G1 X-128.905
G3 Y-175.975 J10.382
G1 X-1348.9
G2 Y-155.212 J10.382
G1 X-128.905
G3 Y-134.449 J10.382
G1 X-1348.9
G2 Y-113.685 J10.382
G1 X-128.905
G3 Y-92.922 J10.382
G1 X-1348.9
G2 Y-72.159 J10.382
G1 X-128.905
G18 G2 X-126.705 Z20.2 K2.2
G0 Z33.9
G17
M9
M30
%
