%
(1001)
(z0 mdf bottom machine -5-5)
(T1  D=6 CR=0 TAPER=118deg - ZMIN=-4.803 - drill)
G90 G94
G17
G21

(Drill2)
M9
T1 M6
(2.5mm tip overhang)
S3750 M3
G54
M9
G0 X-141.905 Y-74.5
Z33
Z23
Z20
G1 Z13 F400
G0 Z13.12
G1 Z8 F400
G0 Z8.12
G1 Z3 F400
G0 Z23
Z5
G1 Z-2 F400
G0 Z-1.88
G1 Z-4.803 F400
G0 Z23
Z33

(Drill2)
M9
X-141.905 Y-266.5
Z33
Z23
Z20
G1 Z13 F400
G0 Z13.12
G1 Z8 F400
G0 Z8.12
G1 Z3 F400
G0 Z23
Z5
G1 Z-2 F400
G0 Z-1.88
G1 Z-4.803 F400
G0 Z23
Z33

(Drill2)
M9
X-141.905 Y-458.5
Z33
Z23
Z20
G1 Z13 F400
G0 Z13.12
G1 Z8 F400
G0 Z8.12
G1 Z3 F400
G0 Z23
Z5
G1 Z-2 F400
G0 Z-1.88
G1 Z-4.803 F400
G0 Z23
Z33

(Drill2)
M9
X-141.905 Y-650.5
Z33
Z23
Z20
G1 Z13 F400
G0 Z13.12
G1 Z8 F400
G0 Z8.12
G1 Z3 F400
G0 Z23
Z5
G1 Z-2 F400
G0 Z-1.88
G1 Z-4.803 F400
G0 Z23
Z33

(Drill2)
M9
X-539.905 Y-650.5
Z33
Z23
Z20
G1 Z13 F400
G0 Z13.12
G1 Z8 F400
G0 Z8.12
G1 Z3 F400
G0 Z23
Z5
G1 Z-2 F400
G0 Z-1.88
G1 Z-4.803 F400
G0 Z23
Z33

(Drill2)
M9
X-539.905 Y-458.5
Z33
Z23
Z20
G1 Z13 F400
G0 Z13.12
G1 Z8 F400
G0 Z8.12
G1 Z3 F400
G0 Z23
Z5
G1 Z-2 F400
G0 Z-1.88
G1 Z-4.803 F400
G0 Z23
Z33

(Drill2)
M9
X-539.905 Y-266.5
Z33
Z23
Z20
G1 Z13 F400
G0 Z13.12
G1 Z8 F400
G0 Z8.12
G1 Z3 F400
G0 Z23
Z5
G1 Z-2 F400
G0 Z-1.88
G1 Z-4.803 F400
G0 Z23
Z33

(Drill2)
M9
X-539.905 Y-74.5
Z33
Z23
Z20
G1 Z13 F400
G0 Z13.12
G1 Z8 F400
G0 Z8.12
G1 Z3 F400
G0 Z23
Z5
G1 Z-2 F400
G0 Z-1.88
G1 Z-4.803 F400
G0 Z23
Z33

(Drill2)
M9
X-937.905 Y-74.5
Z33
Z23
Z20
G1 Z13 F400
G0 Z13.12
G1 Z8 F400
G0 Z8.12
G1 Z3 F400
G0 Z23
Z5
G1 Z-2 F400
G0 Z-1.88
G1 Z-4.803 F400
G0 Z23
Z33

(Drill2)
M9
X-937.905 Y-266.5
Z33
Z23
Z20
G1 Z13 F400
G0 Z13.12
G1 Z8 F400
G0 Z8.12
G1 Z3 F400
G0 Z23
Z5
G1 Z-2 F400
G0 Z-1.88
G1 Z-4.803 F400
G0 Z23
Z33

(Drill2)
M9
X-937.905 Y-458.5
Z33
Z23
Z20
G1 Z13 F400
G0 Z13.12
G1 Z8 F400
G0 Z8.12
G1 Z3 F400
G0 Z23
Z5
G1 Z-2 F400
G0 Z-1.88
G1 Z-4.803 F400
G0 Z23
Z33

(Drill2)
M9
X-937.905 Y-650.5
Z33
Z23
Z20
G1 Z13 F400
G0 Z13.12
G1 Z8 F400
G0 Z8.12
G1 Z3 F400
G0 Z23
Z5
G1 Z-2 F400
G0 Z-1.88
G1 Z-4.803 F400
G0 Z23
Z33

(Drill2)
M9
X-1335.905 Y-650.5
Z33
Z23
Z20
G1 Z13 F400
G0 Z13.12
G1 Z8 F400
G0 Z8.12
G1 Z3 F400
G0 Z23
Z5
G1 Z-2 F400
G0 Z-1.88
G1 Z-4.803 F400
G0 Z23
Z33

(Drill2)
M9
X-1335.905 Y-458.5
Z33
Z23
Z20
G1 Z13 F400
G0 Z13.12
G1 Z8 F400
G0 Z8.12
G1 Z3 F400
G0 Z23
Z5
G1 Z-2 F400
G0 Z-1.88
G1 Z-4.803 F400
G0 Z23
Z33

(Drill2)
M9
X-1335.905 Y-266.5
Z33
Z23
Z20
G1 Z13 F400
G0 Z13.12
G1 Z8 F400
G0 Z8.12
G1 Z3 F400
G0 Z23
Z5
G1 Z-2 F400
G0 Z-1.88
G1 Z-4.803 F400
G0 Z23
Z33

(Drill2)
M9
X-1335.905 Y-74.5
Z33
Z23
Z20
G1 Z13 F400
G0 Z13.12
G1 Z8 F400
G0 Z8.12
G1 Z3 F400
G0 Z23
Z5
G1 Z-2 F400
G0 Z-1.88
G1 Z-4.803 F400
G0 Z23
Z33
M9
M30
%
