%
(1001)
(z0 mdf bottom machine -5-5)
(T1  D=6 CR=0 - ZMIN=9 - flat end mill)
G90 G94
G17
G21

(2d adpative)
M9
T1 M6
S6000 M3
G54
M9
G0 X-141.905 Y-74.501
Z33
Z23
Z18.65
G1 Z18.05 F850
Z9
X-141.917 Y-74.536
X-141.889 Y-74.56
X-141.853 Y-74.549
X-141.83 Y-74.519
X-141.826 Y-74.482
X-141.839 Y-74.447
X-141.868 Y-74.423
X-141.904 Y-74.413
X-141.941 Y-74.419
X-141.971 Y-74.44
X-141.991 Y-74.473
X-141.997 Y-74.51
X-141.993 Y-74.547
X-141.978 Y-74.581
X-141.952 Y-74.608
X-141.919 Y-74.626
X-141.882 Y-74.632
X-141.845 Y-74.628
X-141.81 Y-74.613
X-141.751 Y-74.567
X-141.723 Y-74.498
X-141.728 Y-74.423
X-141.764 Y-74.357
X-141.822 Y-74.31
X-141.894 Y-74.288
X-141.969 Y-74.294
X-142.037 Y-74.325
X-142.092 Y-74.376
X-142.128 Y-74.442
X-142.142 Y-74.516
X-142.134 Y-74.59
X-142.105 Y-74.66
X-142.058 Y-74.718
X-141.996 Y-74.761
X-141.855 Y-74.81
X-141.707 Y-74.786
X-141.585 Y-74.698
X-141.511 Y-74.567
X-141.494 Y-74.418
X-141.533 Y-74.273
X-141.62 Y-74.152
X-141.744 Y-74.067
X-141.889 Y-74.029
X-142.039 Y-74.038
X-142.179 Y-74.094
X-142.295 Y-74.188
X-142.379 Y-74.312
X-142.424 Y-74.455
X-142.428 Y-74.605
X-142.39 Y-74.75
X-142.318 Y-74.882
X-142.215 Y-74.991
X-142.089 Y-75.072
X-141.947 Y-75.12
X-141.797 Y-75.134
X-141.649 Y-75.111
X-141.509 Y-75.057
X-141.386 Y-74.971
X-141.282 Y-74.863
X-141.206 Y-74.734
X-141.156 Y-74.592
X-141.137 Y-74.444
X-141.148 Y-74.294
X-141.188 Y-74.149
X-141.256 Y-74.016
X-141.346 Y-73.896
X-141.459 Y-73.797
X-141.587 Y-73.718
X-141.727 Y-73.665
X-141.874 Y-73.637
X-142.024 Y-73.635
X-142.172 Y-73.66
X-142.314 Y-73.709
X-142.445 Y-73.781
X-142.563 Y-73.874
X-142.664 Y-73.985
X-142.745 Y-74.111
X-142.806 Y-74.248
X-142.844 Y-74.393
X-142.86 Y-74.543
X-142.853 Y-74.692
X-142.823 Y-74.839
X-142.772 Y-74.981
X-142.701 Y-75.112
X-142.611 Y-75.233
X-142.505 Y-75.339
X-142.385 Y-75.429
X-142.254 Y-75.502
X-142.114 Y-75.555
X-141.968 Y-75.589
X-141.818 Y-75.602
X-141.668 Y-75.595
X-141.521 Y-75.569
X-141.378 Y-75.523
X-141.242 Y-75.458
X-141.116 Y-75.377
X-141.002 Y-75.281
X-140.9 Y-75.17
X-140.813 Y-75.048
X-140.742 Y-74.916
X-140.688 Y-74.776
X-140.651 Y-74.631
X-140.632 Y-74.482
X-140.631 Y-74.332
X-140.648 Y-74.183
X-140.682 Y-74.037
X-140.733 Y-73.896
X-140.8 Y-73.762
X-140.882 Y-73.636
X-140.977 Y-73.52
X-141.085 Y-73.416
X-141.204 Y-73.325
X-141.333 Y-73.247
X-141.469 Y-73.184
X-141.611 Y-73.136
X-141.758 Y-73.105
X-141.907 Y-73.089
X-142.057 Y-73.088
X-142.206 Y-73.104
X-142.353 Y-73.136
X-142.495 Y-73.183
X-142.632 Y-73.244
X-142.762 Y-73.319
X-142.883 Y-73.407
X-142.995 Y-73.507
X-143.097 Y-73.617
X-143.186 Y-73.738
X-143.264 Y-73.866
X-143.328 Y-74.002
X-143.378 Y-74.143
X-143.415 Y-74.288
X-143.437 Y-74.437
X-143.445 Y-74.586
X-143.439 Y-74.736
X-143.419 Y-74.885
X-143.384 Y-75.031
X-143.336 Y-75.173
X-143.275 Y-75.31
X-143.202 Y-75.441
X-143.117 Y-75.564
X-143.021 Y-75.68
X-142.914 Y-75.786
X-142.799 Y-75.882
X-142.676 Y-75.967
X-142.545 Y-76.041
X-142.409 Y-76.103
X-142.267 Y-76.152
X-142.122 Y-76.189
X-141.973 Y-76.213
X-141.824 Y-76.224
X-141.674 Y-76.222
X-141.525 Y-76.208
X-141.377 Y-76.18
X-141.233 Y-76.14
X-141.092 Y-76.088
X-140.956 Y-76.025
X-140.826 Y-75.95
X-140.703 Y-75.865
X-140.587 Y-75.769
X-140.479 Y-75.665
X-140.381 Y-75.552
X-140.291 Y-75.431
X-140.212 Y-75.304
X-140.144 Y-75.17
X-140.086 Y-75.032
X-140.04 Y-74.889
X-140.005 Y-74.743
X-139.982 Y-74.595
X-139.971 Y-74.445
Y-74.295
X-139.983 Y-74.146
X-140.007 Y-73.998
X-140.042 Y-73.852
X-140.088 Y-73.709
X-140.145 Y-73.57
X-140.212 Y-73.436
X-140.289 Y-73.308
X-140.376 Y-73.185
X-140.472 Y-73.07
X-140.576 Y-72.962
X-140.688 Y-72.862
X-140.807 Y-72.771
X-140.932 Y-72.688
X-141.063 Y-72.615
X-141.2 Y-72.552
X-141.34 Y-72.499
X-141.484 Y-72.457
X-141.63 Y-72.425
X-141.779 Y-72.403
X-141.928 Y-72.392
X-142.078
X-142.228 Y-72.403
X-142.376 Y-72.424
X-142.523 Y-72.456
X-142.667 Y-72.498
X-142.808 Y-72.549
X-142.945 Y-72.611
X-143.077 Y-72.682
X-143.204 Y-72.762
X-143.325 Y-72.85
X-143.44 Y-72.947
X-143.548 Y-73.051
X-143.648 Y-73.163
X-143.741 Y-73.28
X-143.825 Y-73.404
X-143.901 Y-73.534
X-143.969 Y-73.668
X-144.027 Y-73.806
X-144.076 Y-73.948
X-144.115 Y-74.093
X-144.144 Y-74.24
X-144.164 Y-74.388
X-144.174 Y-74.538
Y-74.688
X-144.165 Y-74.838
X-144.146 Y-74.986
X-144.117 Y-75.134
X-144.079 Y-75.279
X-144.032 Y-75.421
X-143.975 Y-75.56
X-143.91 Y-75.695
X-143.836 Y-75.826
X-143.755 Y-75.952
X-143.665 Y-76.072
X-143.568 Y-76.186
X-143.464 Y-76.295
X-143.354 Y-76.396
X-143.237 Y-76.491
X-143.115 Y-76.578
X-142.988 Y-76.657
X-142.856 Y-76.728
X-142.72 Y-76.791
X-142.58 Y-76.846
X-142.437 Y-76.891
X-142.292 Y-76.929
X-142.144 Y-76.957
X-141.996 Y-76.976
X-141.846 Y-76.986
X-141.696 Y-76.988
X-141.546 Y-76.98
X-141.397 Y-76.963
X-141.249 Y-76.938
X-141.103 Y-76.904
X-140.959 Y-76.861
X-140.818 Y-76.81
X-140.681 Y-76.75
X-140.547 Y-76.683
X-140.417 Y-76.608
X-140.292 Y-76.525
X-140.171 Y-76.435
X-140.057 Y-76.339
X-139.948 Y-76.236
X-139.845 Y-76.127
X-139.748 Y-76.012
X-139.658 Y-75.892
X-139.575 Y-75.767
X-139.5 Y-75.637
X-139.431 Y-75.502
X-139.371 Y-75.365
X-139.318 Y-75.224
X-139.274 Y-75.08
X-139.237 Y-74.932
X-139.208 Y-74.784
X-139.189 Y-74.635
X-139.177 Y-74.481
X-139.174 Y-74.328
X-139.18 Y-74.177
X-139.194 Y-74.025
X-139.217 Y-73.87
X-139.249 Y-73.719
X-139.289 Y-73.571
X-139.337 Y-73.424
X-139.395 Y-73.277
X-139.461 Y-73.135
X-139.533 Y-72.999
X-139.614 Y-72.865
X-139.704 Y-72.733
X-139.801 Y-72.608
X-139.904 Y-72.489
X-140.013 Y-72.376
X-140.132 Y-72.267
X-140.256 Y-72.165
X-140.384 Y-72.071
X-140.517 Y-71.984
X-140.657 Y-71.904
X-140.803 Y-71.831
X-140.952 Y-71.767
X-141.103 Y-71.712
X-141.258 Y-71.665
X-141.417 Y-71.626
X-141.58 Y-71.597
X-141.742 Y-71.576
X-141.904 Y-71.565
X-142.069 Y-71.563
X-142.235 Y-71.57
X-142.401 Y-71.587
X-142.565 Y-71.613
X-142.727 Y-71.648
X-142.887 Y-71.692
X-143.047 Y-71.746
X-143.204 Y-71.809
X-143.357 Y-71.88
X-143.505 Y-71.96
X-143.648 Y-72.048
X-143.788 Y-72.145
X-143.923 Y-72.25
X-144.052 Y-72.364
X-144.174 Y-72.484
X-144.29 Y-72.611
X-144.398 Y-72.743
X-144.498 Y-72.883
X-144.592 Y-73.029
X-144.678 Y-73.181
X-144.755 Y-73.338
X-144.823 Y-73.499
X-144.882 Y-73.663
X-144.931 Y-73.83
X-144.972 Y-74.001
X-145.002 Y-74.176
X-145.024 Y-74.352
X-145.035 Y-74.53
X-145.036 Y-74.708
X-145.027 Y-74.886
X-145.008 Y-75.063
X-144.979 Y-75.239
X-144.94 Y-75.414
X-144.891 Y-75.587
X-144.832 Y-75.759
X-144.763 Y-75.927
X-144.685 Y-76.092
X-144.597 Y-76.251
X-144.501 Y-76.406
X-144.396 Y-76.555
X-144.283 Y-76.698
X-144.161 Y-76.835
X-144.031 Y-76.966
X-143.893 Y-77.09
X-143.748 Y-77.206
X-143.597 Y-77.314
X-143.439 Y-77.414
X-143.275 Y-77.504
X-143.107 Y-77.586
X-142.933 Y-77.658
X-142.756 Y-77.72
X-142.575 Y-77.773
X-142.391 Y-77.815
X-142.205 Y-77.846
X-142.016 Y-77.868
X-141.827 Y-77.878
X-141.636
X-141.445 Y-77.867
X-141.254 Y-77.846
X-141.064 Y-77.813
X-140.876 Y-77.77
X-140.69 Y-77.716
X-140.507 Y-77.652
X-140.328 Y-77.577
X-140.152 Y-77.492
X-139.981 Y-77.397
X-139.816 Y-77.293
X-139.656 Y-77.179
X-139.502 Y-77.055
X-139.356 Y-76.923
X-139.216 Y-76.783
X-139.085 Y-76.635
X-138.961 Y-76.479
X-138.847 Y-76.316
X-138.741 Y-76.147
X-138.645 Y-75.971
X-138.559 Y-75.79
X-138.483 Y-75.603
X-138.417 Y-75.413
X-138.363 Y-75.218
X-138.319 Y-75.02
X-138.286 Y-74.82
X-138.264 Y-74.617
X-138.254 Y-74.413
X-138.256 Y-74.209
X-138.268 Y-74.004
X-138.293 Y-73.8
X-138.329 Y-73.597
X-138.376 Y-73.396
X-138.426 Y-73.23
X-138.446 Y-73.17
X-138.482 Y-73.065
X-138.512 Y-72.98
X-138.557 Y-72.871
X-138.622 Y-72.762
X-138.964 Y-72.218
X-139.005 Y-72.164
X-139.056 Y-72.11
X-139.519 Y-71.647
X-139.573 Y-71.596
X-139.627 Y-71.556
X-140.172 Y-71.214
X-140.28 Y-71.149
X-140.389 Y-71.106
X-140.824 Y-70.953
X-141.042 Y-70.878
X-141.26 Y-70.845
X-141.695 Y-70.796
X-141.913 Y-70.777
X-142.13 Y-70.798
X-142.674 Y-70.859
X-142.783 Y-70.883
X-143.436 Y-71.111
X-143.545 Y-71.158
X-143.678 Y-71.239
X-144.089 Y-71.498
X-144.198 Y-71.567
X-144.307 Y-71.663
X-144.753 Y-72.11
X-144.804 Y-72.164
X-144.846 Y-72.218
X-145.188 Y-72.762
X-145.254 Y-72.871
X-145.298 Y-72.98
X-145.525 Y-73.633
X-145.547 Y-73.742
X-145.613 Y-74.321
X-145.628 Y-74.503
X-145.613 Y-74.679
X-145.546 Y-75.265
X-145.523 Y-75.374
X-145.295 Y-76.026
X-145.25 Y-76.135
X-145.177 Y-76.255
X-144.911 Y-76.679
X-144.841 Y-76.788
X-144.798 Y-76.842
X-144.742 Y-76.902
X-144.307 Y-77.337
X-144.198 Y-77.432
X-144.089 Y-77.502
X-143.654 Y-77.776
X-143.545 Y-77.842
X-143.436 Y-77.889
X-142.783 Y-78.117
X-142.674 Y-78.141
X-142.13 Y-78.202
X-141.913 Y-78.223
X-141.679 Y-78.202
X-141.26 Y-78.155
X-141.042 Y-78.122
X-140.648 Y-77.985
X-140.389 Y-77.894
X-140.28 Y-77.851
X-140.172 Y-77.786
X-139.627 Y-77.444
X-139.573 Y-77.403
X-139.519 Y-77.353
X-139.062 Y-76.897
X-139.01 Y-76.842
X-138.968 Y-76.788
X-138.626 Y-76.244
X-138.56 Y-76.135
X-138.515 Y-76.026
X-138.287 Y-75.374
X-138.264 Y-75.265
X-138.202 Y-74.721
X-138.182 Y-74.503
X-138.201 Y-74.286
X-138.263 Y-73.742
X-138.285 Y-73.633
X-138.446 Y-73.17
G3 X-138.572 Y-72.972 I-0.559 J-0.218
G1 X-138.637 Y-72.904 Z9.007
X-138.7 Y-72.838 Z9.029
X-138.76 Y-72.776 Z9.065
X-138.816 Y-72.718 Z9.115
X-138.865 Y-72.666 Z9.176
X-138.908 Y-72.622 Z9.247
X-138.942 Y-72.586 Z9.328
X-138.967 Y-72.56 Z9.415
X-138.982 Y-72.544 Z9.506
X-138.987 Y-72.539 Z9.6
G0 Z33

(2D Contour4)
S8000 M3
M9
X-141.905 Y-74.5
Z33
Z23
G1 Z9 F850
G3 X-141.605 Y-74.8 I0.3
G1 X-137.955
G3 X-137.655 Y-74.5 J0.3
X-146.155 I-4.25
X-137.655 I4.25
X-146.155 I-4.25
X-137.655 I4.25
X-138.255 Y-73.9 I-0.6
G1 X-138.855
G18 G3 X-139.455 Z9.6 K0.6
G0 Z33
G17

(2d adpative)
S6000 M3
M9
G0 X-141.905 Y-266.501
Z33
Z23
Z18.65
G1 Z18.05 F850
Z9
X-141.917 Y-266.536
X-141.889 Y-266.56
X-141.853 Y-266.549
X-141.83 Y-266.519
X-141.826 Y-266.482
X-141.839 Y-266.447
X-141.868 Y-266.423
X-141.904 Y-266.413
X-141.941 Y-266.419
X-141.971 Y-266.44
X-141.991 Y-266.473
X-141.997 Y-266.51
X-141.993 Y-266.547
X-141.978 Y-266.581
X-141.952 Y-266.608
X-141.919 Y-266.626
X-141.882 Y-266.632
X-141.845 Y-266.628
X-141.81 Y-266.613
X-141.751 Y-266.567
X-141.723 Y-266.498
X-141.728 Y-266.423
X-141.764 Y-266.357
X-141.822 Y-266.31
X-141.894 Y-266.288
X-141.969 Y-266.294
X-142.037 Y-266.325
X-142.092 Y-266.376
X-142.128 Y-266.442
X-142.142 Y-266.516
X-142.134 Y-266.59
X-142.105 Y-266.66
X-142.058 Y-266.718
X-141.996 Y-266.761
X-141.855 Y-266.81
X-141.707 Y-266.786
X-141.585 Y-266.698
X-141.511 Y-266.567
X-141.494 Y-266.418
X-141.533 Y-266.273
X-141.62 Y-266.152
X-141.744 Y-266.067
X-141.889 Y-266.029
X-142.039 Y-266.038
X-142.179 Y-266.094
X-142.295 Y-266.188
X-142.379 Y-266.312
X-142.424 Y-266.455
X-142.428 Y-266.605
X-142.39 Y-266.75
X-142.318 Y-266.882
X-142.215 Y-266.991
X-142.089 Y-267.072
X-141.947 Y-267.12
X-141.797 Y-267.134
X-141.649 Y-267.111
X-141.509 Y-267.057
X-141.386 Y-266.971
X-141.282 Y-266.863
X-141.206 Y-266.734
X-141.156 Y-266.592
X-141.137 Y-266.444
X-141.148 Y-266.294
X-141.188 Y-266.149
X-141.256 Y-266.016
X-141.346 Y-265.896
X-141.459 Y-265.797
X-141.587 Y-265.718
X-141.727 Y-265.665
X-141.874 Y-265.637
X-142.024 Y-265.635
X-142.172 Y-265.66
X-142.314 Y-265.709
X-142.445 Y-265.781
X-142.563 Y-265.874
X-142.664 Y-265.985
X-142.745 Y-266.111
X-142.806 Y-266.248
X-142.844 Y-266.393
X-142.86 Y-266.543
X-142.853 Y-266.692
X-142.823 Y-266.839
X-142.772 Y-266.981
X-142.701 Y-267.112
X-142.611 Y-267.233
X-142.505 Y-267.339
X-142.385 Y-267.429
X-142.254 Y-267.502
X-142.114 Y-267.555
X-141.968 Y-267.589
X-141.818 Y-267.602
X-141.668 Y-267.595
X-141.521 Y-267.569
X-141.378 Y-267.523
X-141.242 Y-267.458
X-141.116 Y-267.377
X-141.002 Y-267.281
X-140.9 Y-267.17
X-140.813 Y-267.048
X-140.742 Y-266.916
X-140.688 Y-266.776
X-140.651 Y-266.631
X-140.632 Y-266.482
X-140.631 Y-266.332
X-140.648 Y-266.183
X-140.682 Y-266.037
X-140.733 Y-265.896
X-140.8 Y-265.762
X-140.882 Y-265.636
X-140.977 Y-265.52
X-141.085 Y-265.416
X-141.204 Y-265.325
X-141.333 Y-265.247
X-141.469 Y-265.184
X-141.611 Y-265.136
X-141.758 Y-265.105
X-141.907 Y-265.089
X-142.057 Y-265.088
X-142.206 Y-265.104
X-142.353 Y-265.136
X-142.495 Y-265.183
X-142.632 Y-265.244
X-142.762 Y-265.319
X-142.883 Y-265.407
X-142.995 Y-265.507
X-143.097 Y-265.617
X-143.186 Y-265.738
X-143.264 Y-265.866
X-143.328 Y-266.002
X-143.378 Y-266.143
X-143.415 Y-266.288
X-143.437 Y-266.437
X-143.445 Y-266.586
X-143.439 Y-266.736
X-143.419 Y-266.885
X-143.384 Y-267.031
X-143.336 Y-267.173
X-143.275 Y-267.31
X-143.202 Y-267.441
X-143.117 Y-267.564
X-143.021 Y-267.68
X-142.914 Y-267.786
X-142.799 Y-267.882
X-142.676 Y-267.967
X-142.545 Y-268.041
X-142.409 Y-268.103
X-142.267 Y-268.152
X-142.122 Y-268.189
X-141.973 Y-268.213
X-141.824 Y-268.224
X-141.674 Y-268.222
X-141.525 Y-268.208
X-141.377 Y-268.18
X-141.233 Y-268.14
X-141.092 Y-268.088
X-140.956 Y-268.025
X-140.826 Y-267.95
X-140.703 Y-267.865
X-140.587 Y-267.769
X-140.479 Y-267.665
X-140.381 Y-267.552
X-140.291 Y-267.431
X-140.212 Y-267.304
X-140.144 Y-267.17
X-140.086 Y-267.032
X-140.04 Y-266.889
X-140.005 Y-266.743
X-139.982 Y-266.595
X-139.971 Y-266.445
Y-266.295
X-139.983 Y-266.146
X-140.007 Y-265.998
X-140.042 Y-265.852
X-140.088 Y-265.709
X-140.145 Y-265.57
X-140.212 Y-265.436
X-140.289 Y-265.308
X-140.376 Y-265.185
X-140.472 Y-265.07
X-140.576 Y-264.962
X-140.688 Y-264.862
X-140.807 Y-264.771
X-140.932 Y-264.688
X-141.063 Y-264.615
X-141.2 Y-264.552
X-141.34 Y-264.499
X-141.484 Y-264.457
X-141.63 Y-264.425
X-141.779 Y-264.403
X-141.928 Y-264.392
X-142.078
X-142.228 Y-264.403
X-142.376 Y-264.424
X-142.523 Y-264.456
X-142.667 Y-264.498
X-142.808 Y-264.549
X-142.945 Y-264.611
X-143.077 Y-264.682
X-143.204 Y-264.762
X-143.325 Y-264.85
X-143.44 Y-264.947
X-143.548 Y-265.051
X-143.648 Y-265.163
X-143.741 Y-265.28
X-143.825 Y-265.404
X-143.901 Y-265.534
X-143.969 Y-265.668
X-144.027 Y-265.806
X-144.076 Y-265.948
X-144.115 Y-266.093
X-144.144 Y-266.24
X-144.164 Y-266.388
X-144.174 Y-266.538
Y-266.688
X-144.165 Y-266.838
X-144.146 Y-266.986
X-144.117 Y-267.134
X-144.079 Y-267.279
X-144.032 Y-267.421
X-143.975 Y-267.56
X-143.91 Y-267.695
X-143.836 Y-267.826
X-143.755 Y-267.952
X-143.665 Y-268.072
X-143.568 Y-268.186
X-143.464 Y-268.295
X-143.354 Y-268.396
X-143.237 Y-268.491
X-143.115 Y-268.578
X-142.988 Y-268.657
X-142.856 Y-268.728
X-142.72 Y-268.791
X-142.58 Y-268.846
X-142.437 Y-268.891
X-142.292 Y-268.929
X-142.144 Y-268.957
X-141.996 Y-268.976
X-141.846 Y-268.986
X-141.696 Y-268.988
X-141.546 Y-268.98
X-141.397 Y-268.963
X-141.249 Y-268.938
X-141.103 Y-268.904
X-140.959 Y-268.861
X-140.818 Y-268.81
X-140.681 Y-268.75
X-140.547 Y-268.683
X-140.417 Y-268.608
X-140.292 Y-268.525
X-140.171 Y-268.435
X-140.057 Y-268.339
X-139.948 Y-268.236
X-139.845 Y-268.127
X-139.748 Y-268.012
X-139.658 Y-267.892
X-139.575 Y-267.767
X-139.5 Y-267.637
X-139.431 Y-267.502
X-139.371 Y-267.365
X-139.318 Y-267.224
X-139.274 Y-267.08
X-139.237 Y-266.932
X-139.208 Y-266.784
X-139.189 Y-266.635
X-139.177 Y-266.481
X-139.174 Y-266.328
X-139.18 Y-266.177
X-139.194 Y-266.025
X-139.217 Y-265.87
X-139.249 Y-265.719
X-139.289 Y-265.571
X-139.337 Y-265.424
X-139.395 Y-265.277
X-139.461 Y-265.135
X-139.533 Y-264.999
X-139.614 Y-264.865
X-139.704 Y-264.733
X-139.801 Y-264.608
X-139.904 Y-264.489
X-140.013 Y-264.376
X-140.132 Y-264.267
X-140.256 Y-264.165
X-140.384 Y-264.071
X-140.517 Y-263.984
X-140.657 Y-263.904
X-140.803 Y-263.831
X-140.952 Y-263.767
X-141.103 Y-263.712
X-141.258 Y-263.665
X-141.417 Y-263.626
X-141.58 Y-263.597
X-141.742 Y-263.576
X-141.904 Y-263.565
X-142.069 Y-263.563
X-142.235 Y-263.57
X-142.401 Y-263.587
X-142.565 Y-263.613
X-142.727 Y-263.648
X-142.887 Y-263.692
X-143.047 Y-263.746
X-143.204 Y-263.809
X-143.357 Y-263.88
X-143.505 Y-263.96
X-143.648 Y-264.048
X-143.788 Y-264.145
X-143.923 Y-264.25
X-144.052 Y-264.364
X-144.174 Y-264.484
X-144.29 Y-264.611
X-144.398 Y-264.743
X-144.498 Y-264.883
X-144.592 Y-265.029
X-144.678 Y-265.181
X-144.755 Y-265.338
X-144.823 Y-265.499
X-144.882 Y-265.663
X-144.931 Y-265.83
X-144.972 Y-266.001
X-145.002 Y-266.176
X-145.024 Y-266.352
X-145.035 Y-266.53
X-145.036 Y-266.708
X-145.027 Y-266.886
X-145.008 Y-267.063
X-144.979 Y-267.239
X-144.94 Y-267.414
X-144.891 Y-267.587
X-144.832 Y-267.759
X-144.763 Y-267.927
X-144.685 Y-268.092
X-144.597 Y-268.251
X-144.501 Y-268.406
X-144.396 Y-268.555
X-144.283 Y-268.698
X-144.161 Y-268.835
X-144.031 Y-268.966
X-143.893 Y-269.09
X-143.748 Y-269.206
X-143.597 Y-269.314
X-143.439 Y-269.414
X-143.275 Y-269.504
X-143.107 Y-269.586
X-142.933 Y-269.658
X-142.756 Y-269.72
X-142.575 Y-269.773
X-142.391 Y-269.815
X-142.205 Y-269.846
X-142.016 Y-269.868
X-141.827 Y-269.878
X-141.636
X-141.445 Y-269.867
X-141.254 Y-269.846
X-141.064 Y-269.813
X-140.876 Y-269.77
X-140.69 Y-269.716
X-140.507 Y-269.652
X-140.328 Y-269.577
X-140.152 Y-269.492
X-139.981 Y-269.397
X-139.816 Y-269.293
X-139.656 Y-269.179
X-139.502 Y-269.055
X-139.356 Y-268.923
X-139.216 Y-268.783
X-139.085 Y-268.635
X-138.961 Y-268.479
X-138.847 Y-268.316
X-138.741 Y-268.147
X-138.645 Y-267.971
X-138.559 Y-267.79
X-138.483 Y-267.603
X-138.417 Y-267.413
X-138.363 Y-267.218
X-138.319 Y-267.02
X-138.286 Y-266.82
X-138.264 Y-266.617
X-138.254 Y-266.413
X-138.256 Y-266.209
X-138.268 Y-266.004
X-138.293 Y-265.8
X-138.329 Y-265.597
X-138.376 Y-265.396
X-138.426 Y-265.23
X-138.446 Y-265.17
X-138.482 Y-265.065
X-138.512 Y-264.98
X-138.557 Y-264.871
X-138.622 Y-264.762
X-138.964 Y-264.218
X-139.005 Y-264.164
X-139.056 Y-264.11
X-139.519 Y-263.647
X-139.573 Y-263.596
X-139.627 Y-263.556
X-140.172 Y-263.214
X-140.28 Y-263.149
X-140.389 Y-263.106
X-140.824 Y-262.953
X-141.042 Y-262.878
X-141.26 Y-262.845
X-141.695 Y-262.796
X-141.913 Y-262.777
X-142.13 Y-262.798
X-142.674 Y-262.859
X-142.783 Y-262.883
X-143.436 Y-263.111
X-143.545 Y-263.158
X-143.678 Y-263.239
X-144.089 Y-263.498
X-144.198 Y-263.567
X-144.307 Y-263.663
X-144.753 Y-264.11
X-144.804 Y-264.164
X-144.846 Y-264.218
X-145.188 Y-264.762
X-145.254 Y-264.871
X-145.298 Y-264.98
X-145.525 Y-265.633
X-145.547 Y-265.742
X-145.613 Y-266.321
X-145.628 Y-266.503
X-145.613 Y-266.679
X-145.546 Y-267.265
X-145.523 Y-267.374
X-145.295 Y-268.026
X-145.25 Y-268.135
X-145.177 Y-268.255
X-144.911 Y-268.679
X-144.841 Y-268.788
X-144.798 Y-268.842
X-144.742 Y-268.902
X-144.307 Y-269.337
X-144.198 Y-269.432
X-144.089 Y-269.502
X-143.654 Y-269.776
X-143.545 Y-269.842
X-143.436 Y-269.889
X-142.783 Y-270.117
X-142.674 Y-270.141
X-142.13 Y-270.202
X-141.913 Y-270.223
X-141.679 Y-270.202
X-141.26 Y-270.155
X-141.042 Y-270.122
X-140.648 Y-269.985
X-140.389 Y-269.894
X-140.28 Y-269.851
X-140.172 Y-269.786
X-139.627 Y-269.444
X-139.573 Y-269.403
X-139.519 Y-269.353
X-139.062 Y-268.897
X-139.01 Y-268.842
X-138.968 Y-268.788
X-138.626 Y-268.244
X-138.56 Y-268.135
X-138.515 Y-268.026
X-138.287 Y-267.374
X-138.264 Y-267.265
X-138.202 Y-266.721
X-138.182 Y-266.503
X-138.201 Y-266.286
X-138.263 Y-265.742
X-138.285 Y-265.633
X-138.446 Y-265.17
G3 X-138.572 Y-264.972 I-0.559 J-0.218
G1 X-138.637 Y-264.904 Z9.007
X-138.7 Y-264.838 Z9.029
X-138.76 Y-264.776 Z9.065
X-138.816 Y-264.718 Z9.115
X-138.865 Y-264.666 Z9.176
X-138.908 Y-264.622 Z9.247
X-138.942 Y-264.586 Z9.328
X-138.967 Y-264.56 Z9.415
X-138.982 Y-264.544 Z9.506
X-138.987 Y-264.539 Z9.6
G0 Z33

(2D Contour4)
S8000 M3
M9
X-141.905 Y-266.5
Z33
Z23
G1 Z9 F850
G3 X-141.605 Y-266.8 I0.3
G1 X-137.955
G3 X-137.655 Y-266.5 J0.3
X-146.155 I-4.25
X-137.655 I4.25
X-146.155 I-4.25
X-137.655 I4.25
X-138.255 Y-265.9 I-0.6
G1 X-138.855
G18 G3 X-139.455 Z9.6 K0.6
G0 Z33
G17

(2d adpative)
S6000 M3
M9
G0 X-141.905 Y-458.501
Z33
Z23
Z18.65
G1 Z18.05 F850
Z9
X-141.917 Y-458.536
X-141.889 Y-458.56
X-141.853 Y-458.549
X-141.83 Y-458.519
X-141.826 Y-458.482
X-141.839 Y-458.447
X-141.868 Y-458.423
X-141.904 Y-458.413
X-141.941 Y-458.419
X-141.971 Y-458.44
X-141.991 Y-458.473
X-141.997 Y-458.51
X-141.993 Y-458.547
X-141.978 Y-458.581
X-141.952 Y-458.608
X-141.919 Y-458.626
X-141.882 Y-458.632
X-141.845 Y-458.628
X-141.81 Y-458.613
X-141.751 Y-458.567
X-141.723 Y-458.498
X-141.728 Y-458.423
X-141.764 Y-458.357
X-141.822 Y-458.31
X-141.894 Y-458.288
X-141.969 Y-458.294
X-142.037 Y-458.325
X-142.092 Y-458.376
X-142.128 Y-458.442
X-142.142 Y-458.516
X-142.134 Y-458.59
X-142.105 Y-458.66
X-142.058 Y-458.718
X-141.996 Y-458.761
X-141.855 Y-458.81
X-141.707 Y-458.786
X-141.585 Y-458.698
X-141.511 Y-458.567
X-141.494 Y-458.418
X-141.533 Y-458.273
X-141.62 Y-458.152
X-141.744 Y-458.067
X-141.889 Y-458.029
X-142.039 Y-458.038
X-142.179 Y-458.094
X-142.295 Y-458.188
X-142.379 Y-458.312
X-142.424 Y-458.455
X-142.428 Y-458.605
X-142.39 Y-458.75
X-142.318 Y-458.882
X-142.215 Y-458.991
X-142.089 Y-459.072
X-141.947 Y-459.12
X-141.797 Y-459.134
X-141.649 Y-459.111
X-141.509 Y-459.057
X-141.386 Y-458.971
X-141.282 Y-458.863
X-141.206 Y-458.734
X-141.156 Y-458.592
X-141.137 Y-458.444
X-141.148 Y-458.294
X-141.188 Y-458.149
X-141.256 Y-458.016
X-141.346 Y-457.896
X-141.459 Y-457.797
X-141.587 Y-457.718
X-141.727 Y-457.665
X-141.874 Y-457.637
X-142.024 Y-457.635
X-142.172 Y-457.66
X-142.314 Y-457.709
X-142.445 Y-457.781
X-142.563 Y-457.874
X-142.664 Y-457.985
X-142.745 Y-458.111
X-142.806 Y-458.248
X-142.844 Y-458.393
X-142.86 Y-458.543
X-142.853 Y-458.692
X-142.823 Y-458.839
X-142.772 Y-458.981
X-142.701 Y-459.112
X-142.611 Y-459.233
X-142.505 Y-459.339
X-142.385 Y-459.429
X-142.254 Y-459.502
X-142.114 Y-459.555
X-141.968 Y-459.589
X-141.818 Y-459.602
X-141.668 Y-459.595
X-141.521 Y-459.569
X-141.378 Y-459.523
X-141.242 Y-459.458
X-141.116 Y-459.377
X-141.002 Y-459.281
X-140.9 Y-459.17
X-140.813 Y-459.048
X-140.742 Y-458.916
X-140.688 Y-458.776
X-140.651 Y-458.631
X-140.632 Y-458.482
X-140.631 Y-458.332
X-140.648 Y-458.183
X-140.682 Y-458.037
X-140.733 Y-457.896
X-140.8 Y-457.762
X-140.882 Y-457.636
X-140.977 Y-457.52
X-141.085 Y-457.416
X-141.204 Y-457.325
X-141.333 Y-457.247
X-141.469 Y-457.184
X-141.611 Y-457.136
X-141.758 Y-457.105
X-141.907 Y-457.089
X-142.057 Y-457.088
X-142.206 Y-457.104
X-142.353 Y-457.136
X-142.495 Y-457.183
X-142.632 Y-457.244
X-142.762 Y-457.319
X-142.883 Y-457.407
X-142.995 Y-457.507
X-143.097 Y-457.617
X-143.186 Y-457.738
X-143.264 Y-457.866
X-143.328 Y-458.002
X-143.378 Y-458.143
X-143.415 Y-458.288
X-143.437 Y-458.437
X-143.445 Y-458.586
X-143.439 Y-458.736
X-143.419 Y-458.885
X-143.384 Y-459.031
X-143.336 Y-459.173
X-143.275 Y-459.31
X-143.202 Y-459.441
X-143.117 Y-459.564
X-143.021 Y-459.68
X-142.914 Y-459.786
X-142.799 Y-459.882
X-142.676 Y-459.967
X-142.545 Y-460.041
X-142.409 Y-460.103
X-142.267 Y-460.152
X-142.122 Y-460.189
X-141.973 Y-460.213
X-141.824 Y-460.224
X-141.674 Y-460.222
X-141.525 Y-460.208
X-141.377 Y-460.18
X-141.233 Y-460.14
X-141.092 Y-460.088
X-140.956 Y-460.025
X-140.826 Y-459.95
X-140.703 Y-459.865
X-140.587 Y-459.769
X-140.479 Y-459.665
X-140.381 Y-459.552
X-140.291 Y-459.431
X-140.212 Y-459.304
X-140.144 Y-459.17
X-140.086 Y-459.032
X-140.04 Y-458.889
X-140.005 Y-458.743
X-139.982 Y-458.595
X-139.971 Y-458.445
Y-458.295
X-139.983 Y-458.146
X-140.007 Y-457.998
X-140.042 Y-457.852
X-140.088 Y-457.709
X-140.145 Y-457.57
X-140.212 Y-457.436
X-140.289 Y-457.308
X-140.376 Y-457.185
X-140.472 Y-457.07
X-140.576 Y-456.962
X-140.688 Y-456.862
X-140.807 Y-456.771
X-140.932 Y-456.688
X-141.063 Y-456.615
X-141.2 Y-456.552
X-141.34 Y-456.499
X-141.484 Y-456.457
X-141.63 Y-456.425
X-141.779 Y-456.403
X-141.928 Y-456.392
X-142.078
X-142.228 Y-456.403
X-142.376 Y-456.424
X-142.523 Y-456.456
X-142.667 Y-456.498
X-142.808 Y-456.549
X-142.945 Y-456.611
X-143.077 Y-456.682
X-143.204 Y-456.762
X-143.325 Y-456.85
X-143.44 Y-456.947
X-143.548 Y-457.051
X-143.648 Y-457.163
X-143.741 Y-457.28
X-143.825 Y-457.404
X-143.901 Y-457.534
X-143.969 Y-457.668
X-144.027 Y-457.806
X-144.076 Y-457.948
X-144.115 Y-458.093
X-144.144 Y-458.24
X-144.164 Y-458.388
X-144.174 Y-458.538
Y-458.688
X-144.165 Y-458.838
X-144.146 Y-458.986
X-144.117 Y-459.134
X-144.079 Y-459.279
X-144.032 Y-459.421
X-143.975 Y-459.56
X-143.91 Y-459.695
X-143.836 Y-459.826
X-143.755 Y-459.952
X-143.665 Y-460.072
X-143.568 Y-460.186
X-143.464 Y-460.295
X-143.354 Y-460.396
X-143.237 Y-460.491
X-143.115 Y-460.578
X-142.988 Y-460.657
X-142.856 Y-460.728
X-142.72 Y-460.791
X-142.58 Y-460.846
X-142.437 Y-460.891
X-142.292 Y-460.929
X-142.144 Y-460.957
X-141.996 Y-460.976
X-141.846 Y-460.986
X-141.696 Y-460.988
X-141.546 Y-460.98
X-141.397 Y-460.963
X-141.249 Y-460.938
X-141.103 Y-460.904
X-140.959 Y-460.861
X-140.818 Y-460.81
X-140.681 Y-460.75
X-140.547 Y-460.683
X-140.417 Y-460.608
X-140.292 Y-460.525
X-140.171 Y-460.435
X-140.057 Y-460.339
X-139.948 Y-460.236
X-139.845 Y-460.127
X-139.748 Y-460.012
X-139.658 Y-459.892
X-139.575 Y-459.767
X-139.5 Y-459.637
X-139.431 Y-459.502
X-139.371 Y-459.365
X-139.318 Y-459.224
X-139.274 Y-459.08
X-139.237 Y-458.932
X-139.208 Y-458.784
X-139.189 Y-458.635
X-139.177 Y-458.481
X-139.174 Y-458.328
X-139.18 Y-458.177
X-139.194 Y-458.025
X-139.217 Y-457.87
X-139.249 Y-457.719
X-139.289 Y-457.571
X-139.337 Y-457.424
X-139.395 Y-457.277
X-139.461 Y-457.135
X-139.533 Y-456.999
X-139.614 Y-456.865
X-139.704 Y-456.733
X-139.801 Y-456.608
X-139.904 Y-456.489
X-140.013 Y-456.376
X-140.132 Y-456.267
X-140.256 Y-456.165
X-140.384 Y-456.071
X-140.517 Y-455.984
X-140.657 Y-455.904
X-140.803 Y-455.831
X-140.952 Y-455.767
X-141.103 Y-455.712
X-141.258 Y-455.665
X-141.417 Y-455.626
X-141.58 Y-455.597
X-141.742 Y-455.576
X-141.904 Y-455.565
X-142.069 Y-455.563
X-142.235 Y-455.57
X-142.401 Y-455.587
X-142.565 Y-455.613
X-142.727 Y-455.648
X-142.887 Y-455.692
X-143.047 Y-455.746
X-143.204 Y-455.809
X-143.357 Y-455.88
X-143.505 Y-455.96
X-143.648 Y-456.048
X-143.788 Y-456.145
X-143.923 Y-456.25
X-144.052 Y-456.364
X-144.174 Y-456.484
X-144.29 Y-456.611
X-144.398 Y-456.743
X-144.498 Y-456.883
X-144.592 Y-457.029
X-144.678 Y-457.181
X-144.755 Y-457.338
X-144.823 Y-457.499
X-144.882 Y-457.663
X-144.931 Y-457.83
X-144.972 Y-458.001
X-145.002 Y-458.176
X-145.024 Y-458.352
X-145.035 Y-458.53
X-145.036 Y-458.708
X-145.027 Y-458.886
X-145.008 Y-459.063
X-144.979 Y-459.239
X-144.94 Y-459.414
X-144.891 Y-459.587
X-144.832 Y-459.759
X-144.763 Y-459.927
X-144.685 Y-460.092
X-144.597 Y-460.251
X-144.501 Y-460.406
X-144.396 Y-460.555
X-144.283 Y-460.698
X-144.161 Y-460.835
X-144.031 Y-460.966
X-143.893 Y-461.09
X-143.748 Y-461.206
X-143.597 Y-461.314
X-143.439 Y-461.414
X-143.275 Y-461.504
X-143.107 Y-461.586
X-142.933 Y-461.658
X-142.756 Y-461.72
X-142.575 Y-461.773
X-142.391 Y-461.815
X-142.205 Y-461.846
X-142.016 Y-461.868
X-141.827 Y-461.878
X-141.636
X-141.445 Y-461.867
X-141.254 Y-461.846
X-141.064 Y-461.813
X-140.876 Y-461.77
X-140.69 Y-461.716
X-140.507 Y-461.652
X-140.328 Y-461.577
X-140.152 Y-461.492
X-139.981 Y-461.397
X-139.816 Y-461.293
X-139.656 Y-461.179
X-139.502 Y-461.055
X-139.356 Y-460.923
X-139.216 Y-460.783
X-139.085 Y-460.635
X-138.961 Y-460.479
X-138.847 Y-460.316
X-138.741 Y-460.147
X-138.645 Y-459.971
X-138.559 Y-459.79
X-138.483 Y-459.603
X-138.417 Y-459.413
X-138.363 Y-459.218
X-138.319 Y-459.02
X-138.286 Y-458.82
X-138.264 Y-458.617
X-138.254 Y-458.413
X-138.256 Y-458.209
X-138.268 Y-458.004
X-138.293 Y-457.8
X-138.329 Y-457.597
X-138.376 Y-457.396
X-138.426 Y-457.23
X-138.446 Y-457.17
X-138.482 Y-457.065
X-138.512 Y-456.98
X-138.557 Y-456.871
X-138.622 Y-456.762
X-138.964 Y-456.218
X-139.005 Y-456.164
X-139.056 Y-456.11
X-139.519 Y-455.647
X-139.573 Y-455.596
X-139.627 Y-455.556
X-140.172 Y-455.214
X-140.28 Y-455.149
X-140.389 Y-455.106
X-140.824 Y-454.953
X-141.042 Y-454.878
X-141.26 Y-454.845
X-141.695 Y-454.796
X-141.913 Y-454.777
X-142.13 Y-454.798
X-142.674 Y-454.859
X-142.783 Y-454.883
X-143.436 Y-455.111
X-143.545 Y-455.158
X-143.678 Y-455.239
X-144.089 Y-455.498
X-144.198 Y-455.567
X-144.307 Y-455.663
X-144.753 Y-456.11
X-144.804 Y-456.164
X-144.846 Y-456.218
X-145.188 Y-456.762
X-145.254 Y-456.871
X-145.298 Y-456.98
X-145.525 Y-457.633
X-145.547 Y-457.742
X-145.613 Y-458.321
X-145.628 Y-458.503
X-145.613 Y-458.679
X-145.546 Y-459.265
X-145.523 Y-459.374
X-145.295 Y-460.026
X-145.25 Y-460.135
X-145.177 Y-460.255
X-144.911 Y-460.679
X-144.841 Y-460.788
X-144.798 Y-460.842
X-144.742 Y-460.902
X-144.307 Y-461.337
X-144.198 Y-461.432
X-144.089 Y-461.502
X-143.654 Y-461.776
X-143.545 Y-461.842
X-143.436 Y-461.889
X-142.783 Y-462.117
X-142.674 Y-462.141
X-142.13 Y-462.202
X-141.913 Y-462.223
X-141.679 Y-462.202
X-141.26 Y-462.155
X-141.042 Y-462.122
X-140.648 Y-461.985
X-140.389 Y-461.894
X-140.28 Y-461.851
X-140.172 Y-461.786
X-139.627 Y-461.444
X-139.573 Y-461.403
X-139.519 Y-461.353
X-139.062 Y-460.897
X-139.01 Y-460.842
X-138.968 Y-460.788
X-138.626 Y-460.244
X-138.56 Y-460.135
X-138.515 Y-460.026
X-138.287 Y-459.374
X-138.264 Y-459.265
X-138.202 Y-458.721
X-138.182 Y-458.503
X-138.201 Y-458.286
X-138.263 Y-457.742
X-138.285 Y-457.633
X-138.446 Y-457.17
G3 X-138.572 Y-456.972 I-0.559 J-0.218
G1 X-138.637 Y-456.904 Z9.007
X-138.7 Y-456.838 Z9.029
X-138.76 Y-456.776 Z9.065
X-138.816 Y-456.718 Z9.115
X-138.865 Y-456.666 Z9.176
X-138.908 Y-456.622 Z9.247
X-138.942 Y-456.586 Z9.328
X-138.967 Y-456.56 Z9.415
X-138.982 Y-456.544 Z9.506
X-138.987 Y-456.539 Z9.6
G0 Z33

(2D Contour4)
S8000 M3
M9
X-141.905 Y-458.5
Z33
Z23
G1 Z9 F850
G3 X-141.605 Y-458.8 I0.3
G1 X-137.955
G3 X-137.655 Y-458.5 J0.3
X-146.155 I-4.25
X-137.655 I4.25
X-146.155 I-4.25
X-137.655 I4.25
X-138.255 Y-457.9 I-0.6
G1 X-138.855
G18 G3 X-139.455 Z9.6 K0.6
G0 Z33
G17

(2d adpative)
S6000 M3
M9
G0 X-141.905 Y-650.501
Z33
Z23
Z18.65
G1 Z18.05 F850
Z9
X-141.917 Y-650.536
X-141.889 Y-650.56
X-141.853 Y-650.549
X-141.83 Y-650.519
X-141.826 Y-650.482
X-141.839 Y-650.447
X-141.868 Y-650.423
X-141.904 Y-650.413
X-141.941 Y-650.419
X-141.971 Y-650.44
X-141.991 Y-650.473
X-141.997 Y-650.51
X-141.993 Y-650.547
X-141.978 Y-650.581
X-141.952 Y-650.608
X-141.919 Y-650.626
X-141.882 Y-650.632
X-141.845 Y-650.628
X-141.81 Y-650.613
X-141.751 Y-650.567
X-141.723 Y-650.498
X-141.728 Y-650.423
X-141.764 Y-650.357
X-141.822 Y-650.31
X-141.894 Y-650.288
X-141.969 Y-650.294
X-142.037 Y-650.325
X-142.092 Y-650.376
X-142.128 Y-650.442
X-142.142 Y-650.516
X-142.134 Y-650.59
X-142.105 Y-650.66
X-142.058 Y-650.718
X-141.996 Y-650.761
X-141.855 Y-650.81
X-141.707 Y-650.786
X-141.585 Y-650.698
X-141.511 Y-650.567
X-141.494 Y-650.418
X-141.533 Y-650.273
X-141.62 Y-650.152
X-141.744 Y-650.067
X-141.889 Y-650.029
X-142.039 Y-650.038
X-142.179 Y-650.094
X-142.295 Y-650.188
X-142.379 Y-650.312
X-142.424 Y-650.455
X-142.428 Y-650.605
X-142.39 Y-650.75
X-142.318 Y-650.882
X-142.215 Y-650.991
X-142.089 Y-651.072
X-141.947 Y-651.12
X-141.797 Y-651.134
X-141.649 Y-651.111
X-141.509 Y-651.057
X-141.386 Y-650.971
X-141.282 Y-650.863
X-141.206 Y-650.734
X-141.156 Y-650.592
X-141.137 Y-650.444
X-141.148 Y-650.294
X-141.188 Y-650.149
X-141.256 Y-650.016
X-141.346 Y-649.896
X-141.459 Y-649.797
X-141.587 Y-649.718
X-141.727 Y-649.665
X-141.874 Y-649.637
X-142.024 Y-649.635
X-142.172 Y-649.66
X-142.314 Y-649.709
X-142.445 Y-649.781
X-142.563 Y-649.874
X-142.664 Y-649.985
X-142.745 Y-650.111
X-142.806 Y-650.248
X-142.844 Y-650.393
X-142.86 Y-650.543
X-142.853 Y-650.692
X-142.823 Y-650.839
X-142.772 Y-650.981
X-142.701 Y-651.112
X-142.611 Y-651.233
X-142.505 Y-651.339
X-142.385 Y-651.429
X-142.254 Y-651.502
X-142.114 Y-651.555
X-141.968 Y-651.589
X-141.818 Y-651.602
X-141.668 Y-651.595
X-141.521 Y-651.569
X-141.378 Y-651.523
X-141.242 Y-651.458
X-141.116 Y-651.377
X-141.002 Y-651.281
X-140.9 Y-651.17
X-140.813 Y-651.048
X-140.742 Y-650.916
X-140.688 Y-650.776
X-140.651 Y-650.631
X-140.632 Y-650.482
X-140.631 Y-650.332
X-140.648 Y-650.183
X-140.682 Y-650.037
X-140.733 Y-649.896
X-140.8 Y-649.762
X-140.882 Y-649.636
X-140.977 Y-649.52
X-141.085 Y-649.416
X-141.204 Y-649.325
X-141.333 Y-649.247
X-141.469 Y-649.184
X-141.611 Y-649.136
X-141.758 Y-649.105
X-141.907 Y-649.089
X-142.057 Y-649.088
X-142.206 Y-649.104
X-142.353 Y-649.136
X-142.495 Y-649.183
X-142.632 Y-649.244
X-142.762 Y-649.319
X-142.883 Y-649.407
X-142.995 Y-649.507
X-143.097 Y-649.617
X-143.186 Y-649.738
X-143.264 Y-649.866
X-143.328 Y-650.002
X-143.378 Y-650.143
X-143.415 Y-650.288
X-143.437 Y-650.437
X-143.445 Y-650.586
X-143.439 Y-650.736
X-143.419 Y-650.885
X-143.384 Y-651.031
X-143.336 Y-651.173
X-143.275 Y-651.31
X-143.202 Y-651.441
X-143.117 Y-651.564
X-143.021 Y-651.68
X-142.914 Y-651.786
X-142.799 Y-651.882
X-142.676 Y-651.967
X-142.545 Y-652.041
X-142.409 Y-652.103
X-142.267 Y-652.152
X-142.122 Y-652.189
X-141.973 Y-652.213
X-141.824 Y-652.224
X-141.674 Y-652.222
X-141.525 Y-652.208
X-141.377 Y-652.18
X-141.233 Y-652.14
X-141.092 Y-652.088
X-140.956 Y-652.025
X-140.826 Y-651.95
X-140.703 Y-651.865
X-140.587 Y-651.769
X-140.479 Y-651.665
X-140.381 Y-651.552
X-140.291 Y-651.431
X-140.212 Y-651.304
X-140.144 Y-651.17
X-140.086 Y-651.032
X-140.04 Y-650.889
X-140.005 Y-650.743
X-139.982 Y-650.595
X-139.971 Y-650.445
Y-650.295
X-139.983 Y-650.146
X-140.007 Y-649.998
X-140.042 Y-649.852
X-140.088 Y-649.709
X-140.145 Y-649.57
X-140.212 Y-649.436
X-140.289 Y-649.308
X-140.376 Y-649.185
X-140.472 Y-649.07
X-140.576 Y-648.962
X-140.688 Y-648.862
X-140.807 Y-648.771
X-140.932 Y-648.688
X-141.063 Y-648.615
X-141.2 Y-648.552
X-141.34 Y-648.499
X-141.484 Y-648.457
X-141.63 Y-648.425
X-141.779 Y-648.403
X-141.928 Y-648.392
X-142.078
X-142.228 Y-648.403
X-142.376 Y-648.424
X-142.523 Y-648.456
X-142.667 Y-648.498
X-142.808 Y-648.549
X-142.945 Y-648.611
X-143.077 Y-648.682
X-143.204 Y-648.762
X-143.325 Y-648.85
X-143.44 Y-648.947
X-143.548 Y-649.051
X-143.648 Y-649.163
X-143.741 Y-649.28
X-143.825 Y-649.404
X-143.901 Y-649.534
X-143.969 Y-649.668
X-144.027 Y-649.806
X-144.076 Y-649.948
X-144.115 Y-650.093
X-144.144 Y-650.24
X-144.164 Y-650.388
X-144.174 Y-650.538
Y-650.688
X-144.165 Y-650.838
X-144.146 Y-650.986
X-144.117 Y-651.134
X-144.079 Y-651.279
X-144.032 Y-651.421
X-143.975 Y-651.56
X-143.91 Y-651.695
X-143.836 Y-651.826
X-143.755 Y-651.952
X-143.665 Y-652.072
X-143.568 Y-652.186
X-143.464 Y-652.295
X-143.354 Y-652.396
X-143.237 Y-652.491
X-143.115 Y-652.578
X-142.988 Y-652.657
X-142.856 Y-652.728
X-142.72 Y-652.791
X-142.58 Y-652.846
X-142.437 Y-652.891
X-142.292 Y-652.929
X-142.144 Y-652.957
X-141.996 Y-652.976
X-141.846 Y-652.986
X-141.696 Y-652.988
X-141.546 Y-652.98
X-141.397 Y-652.963
X-141.249 Y-652.938
X-141.103 Y-652.904
X-140.959 Y-652.861
X-140.818 Y-652.81
X-140.681 Y-652.75
X-140.547 Y-652.683
X-140.417 Y-652.608
X-140.292 Y-652.525
X-140.171 Y-652.435
X-140.057 Y-652.339
X-139.948 Y-652.236
X-139.845 Y-652.127
X-139.748 Y-652.012
X-139.658 Y-651.892
X-139.575 Y-651.767
X-139.5 Y-651.637
X-139.431 Y-651.502
X-139.371 Y-651.365
X-139.318 Y-651.224
X-139.274 Y-651.08
X-139.237 Y-650.932
X-139.208 Y-650.784
X-139.189 Y-650.635
X-139.177 Y-650.481
X-139.174 Y-650.328
X-139.18 Y-650.177
X-139.194 Y-650.025
X-139.217 Y-649.87
X-139.249 Y-649.719
X-139.289 Y-649.571
X-139.337 Y-649.424
X-139.395 Y-649.277
X-139.461 Y-649.135
X-139.533 Y-648.999
X-139.614 Y-648.865
X-139.704 Y-648.733
X-139.801 Y-648.608
X-139.904 Y-648.489
X-140.013 Y-648.376
X-140.132 Y-648.267
X-140.256 Y-648.165
X-140.384 Y-648.071
X-140.517 Y-647.984
X-140.657 Y-647.904
X-140.803 Y-647.831
X-140.952 Y-647.767
X-141.103 Y-647.712
X-141.258 Y-647.665
X-141.417 Y-647.626
X-141.58 Y-647.597
X-141.742 Y-647.576
X-141.904 Y-647.565
X-142.069 Y-647.563
X-142.235 Y-647.57
X-142.401 Y-647.587
X-142.565 Y-647.613
X-142.727 Y-647.648
X-142.887 Y-647.692
X-143.047 Y-647.746
X-143.204 Y-647.809
X-143.357 Y-647.88
X-143.505 Y-647.96
X-143.648 Y-648.048
X-143.788 Y-648.145
X-143.923 Y-648.25
X-144.052 Y-648.364
X-144.174 Y-648.484
X-144.29 Y-648.611
X-144.398 Y-648.743
X-144.498 Y-648.883
X-144.592 Y-649.029
X-144.678 Y-649.181
X-144.755 Y-649.338
X-144.823 Y-649.499
X-144.882 Y-649.663
X-144.931 Y-649.83
X-144.972 Y-650.001
X-145.002 Y-650.176
X-145.024 Y-650.352
X-145.035 Y-650.53
X-145.036 Y-650.708
X-145.027 Y-650.886
X-145.008 Y-651.063
X-144.979 Y-651.239
X-144.94 Y-651.414
X-144.891 Y-651.587
X-144.832 Y-651.759
X-144.763 Y-651.927
X-144.685 Y-652.092
X-144.597 Y-652.251
X-144.501 Y-652.406
X-144.396 Y-652.555
X-144.283 Y-652.698
X-144.161 Y-652.835
X-144.031 Y-652.966
X-143.893 Y-653.09
X-143.748 Y-653.206
X-143.597 Y-653.314
X-143.439 Y-653.414
X-143.275 Y-653.504
X-143.107 Y-653.586
X-142.933 Y-653.658
X-142.756 Y-653.72
X-142.575 Y-653.773
X-142.391 Y-653.815
X-142.205 Y-653.846
X-142.016 Y-653.868
X-141.827 Y-653.878
X-141.636
X-141.445 Y-653.867
X-141.254 Y-653.846
X-141.064 Y-653.813
X-140.876 Y-653.77
X-140.69 Y-653.716
X-140.507 Y-653.652
X-140.328 Y-653.577
X-140.152 Y-653.492
X-139.981 Y-653.397
X-139.816 Y-653.293
X-139.656 Y-653.179
X-139.502 Y-653.055
X-139.356 Y-652.923
X-139.216 Y-652.783
X-139.085 Y-652.635
X-138.961 Y-652.479
X-138.847 Y-652.316
X-138.741 Y-652.147
X-138.645 Y-651.971
X-138.559 Y-651.79
X-138.483 Y-651.603
X-138.417 Y-651.413
X-138.363 Y-651.218
X-138.319 Y-651.02
X-138.286 Y-650.82
X-138.264 Y-650.617
X-138.254 Y-650.413
X-138.256 Y-650.209
X-138.268 Y-650.004
X-138.293 Y-649.8
X-138.329 Y-649.597
X-138.376 Y-649.396
X-138.426 Y-649.23
X-138.446 Y-649.17
X-138.482 Y-649.065
X-138.512 Y-648.98
X-138.557 Y-648.871
X-138.622 Y-648.762
X-138.964 Y-648.218
X-139.005 Y-648.164
X-139.056 Y-648.11
X-139.519 Y-647.647
X-139.573 Y-647.596
X-139.627 Y-647.556
X-140.172 Y-647.214
X-140.28 Y-647.149
X-140.389 Y-647.106
X-140.824 Y-646.953
X-141.042 Y-646.878
X-141.26 Y-646.845
X-141.695 Y-646.796
X-141.913 Y-646.777
X-142.13 Y-646.798
X-142.674 Y-646.859
X-142.783 Y-646.883
X-143.436 Y-647.111
X-143.545 Y-647.158
X-143.678 Y-647.239
X-144.089 Y-647.498
X-144.198 Y-647.567
X-144.307 Y-647.663
X-144.753 Y-648.11
X-144.804 Y-648.164
X-144.846 Y-648.218
X-145.188 Y-648.762
X-145.254 Y-648.871
X-145.298 Y-648.98
X-145.525 Y-649.633
X-145.547 Y-649.742
X-145.613 Y-650.321
X-145.628 Y-650.503
X-145.613 Y-650.679
X-145.546 Y-651.265
X-145.523 Y-651.374
X-145.295 Y-652.026
X-145.25 Y-652.135
X-145.177 Y-652.255
X-144.911 Y-652.679
X-144.841 Y-652.788
X-144.798 Y-652.842
X-144.742 Y-652.902
X-144.307 Y-653.337
X-144.198 Y-653.432
X-144.089 Y-653.502
X-143.654 Y-653.776
X-143.545 Y-653.842
X-143.436 Y-653.889
X-142.783 Y-654.117
X-142.674 Y-654.141
X-142.13 Y-654.202
X-141.913 Y-654.223
X-141.679 Y-654.202
X-141.26 Y-654.155
X-141.042 Y-654.122
X-140.648 Y-653.985
X-140.389 Y-653.894
X-140.28 Y-653.851
X-140.172 Y-653.786
X-139.627 Y-653.444
X-139.573 Y-653.403
X-139.519 Y-653.353
X-139.062 Y-652.897
X-139.01 Y-652.842
X-138.968 Y-652.788
X-138.626 Y-652.244
X-138.56 Y-652.135
X-138.515 Y-652.026
X-138.287 Y-651.374
X-138.264 Y-651.265
X-138.202 Y-650.721
X-138.182 Y-650.503
X-138.201 Y-650.286
X-138.263 Y-649.742
X-138.285 Y-649.633
X-138.446 Y-649.17
G3 X-138.572 Y-648.972 I-0.559 J-0.218
G1 X-138.637 Y-648.904 Z9.007
X-138.7 Y-648.838 Z9.029
X-138.76 Y-648.776 Z9.065
X-138.816 Y-648.718 Z9.115
X-138.865 Y-648.666 Z9.176
X-138.908 Y-648.622 Z9.247
X-138.942 Y-648.586 Z9.328
X-138.967 Y-648.56 Z9.415
X-138.982 Y-648.544 Z9.506
X-138.987 Y-648.539 Z9.6
G0 Z33

(2D Contour4)
S8000 M3
M9
X-141.905 Y-650.5
Z33
Z23
G1 Z9 F850
G3 X-141.605 Y-650.8 I0.3
G1 X-137.955
G3 X-137.655 Y-650.5 J0.3
X-146.155 I-4.25
X-137.655 I4.25
X-146.155 I-4.25
X-137.655 I4.25
X-138.255 Y-649.9 I-0.6
G1 X-138.855
G18 G3 X-139.455 Z9.6 K0.6
G0 Z33
G17

(2d adpative)
S6000 M3
M9
G0 X-539.905 Y-650.501
Z33
Z23
Z18.65
G1 Z18.05 F850
Z9
X-539.917 Y-650.536
X-539.889 Y-650.56
X-539.853 Y-650.549
X-539.83 Y-650.519
X-539.826 Y-650.482
X-539.839 Y-650.447
X-539.868 Y-650.423
X-539.904 Y-650.413
X-539.941 Y-650.419
X-539.971 Y-650.44
X-539.991 Y-650.473
X-539.997 Y-650.51
X-539.993 Y-650.547
X-539.978 Y-650.581
X-539.952 Y-650.608
X-539.919 Y-650.626
X-539.882 Y-650.632
X-539.845 Y-650.628
X-539.81 Y-650.613
X-539.751 Y-650.567
X-539.723 Y-650.498
X-539.728 Y-650.423
X-539.764 Y-650.357
X-539.822 Y-650.31
X-539.894 Y-650.288
X-539.969 Y-650.294
X-540.037 Y-650.325
X-540.092 Y-650.376
X-540.128 Y-650.442
X-540.142 Y-650.516
X-540.134 Y-650.59
X-540.105 Y-650.66
X-540.058 Y-650.718
X-539.996 Y-650.761
X-539.855 Y-650.81
X-539.707 Y-650.786
X-539.585 Y-650.698
X-539.511 Y-650.567
X-539.494 Y-650.418
X-539.533 Y-650.273
X-539.62 Y-650.152
X-539.744 Y-650.067
X-539.889 Y-650.029
X-540.039 Y-650.038
X-540.179 Y-650.094
X-540.295 Y-650.188
X-540.379 Y-650.312
X-540.424 Y-650.455
X-540.428 Y-650.605
X-540.39 Y-650.75
X-540.318 Y-650.882
X-540.215 Y-650.991
X-540.089 Y-651.072
X-539.947 Y-651.12
X-539.797 Y-651.134
X-539.649 Y-651.111
X-539.509 Y-651.057
X-539.386 Y-650.971
X-539.282 Y-650.863
X-539.206 Y-650.734
X-539.156 Y-650.592
X-539.137 Y-650.444
X-539.148 Y-650.294
X-539.188 Y-650.149
X-539.256 Y-650.016
X-539.346 Y-649.896
X-539.459 Y-649.797
X-539.587 Y-649.718
X-539.727 Y-649.665
X-539.874 Y-649.637
X-540.024 Y-649.635
X-540.172 Y-649.66
X-540.314 Y-649.709
X-540.445 Y-649.781
X-540.563 Y-649.874
X-540.664 Y-649.985
X-540.745 Y-650.111
X-540.806 Y-650.248
X-540.844 Y-650.393
X-540.86 Y-650.543
X-540.853 Y-650.692
X-540.823 Y-650.839
X-540.772 Y-650.981
X-540.701 Y-651.112
X-540.611 Y-651.233
X-540.505 Y-651.339
X-540.385 Y-651.429
X-540.254 Y-651.502
X-540.114 Y-651.555
X-539.968 Y-651.589
X-539.818 Y-651.602
X-539.668 Y-651.595
X-539.521 Y-651.569
X-539.378 Y-651.523
X-539.242 Y-651.458
X-539.116 Y-651.377
X-539.002 Y-651.281
X-538.9 Y-651.17
X-538.813 Y-651.048
X-538.742 Y-650.916
X-538.688 Y-650.776
X-538.651 Y-650.631
X-538.632 Y-650.482
X-538.631 Y-650.332
X-538.648 Y-650.183
X-538.682 Y-650.037
X-538.733 Y-649.896
X-538.8 Y-649.762
X-538.882 Y-649.636
X-538.977 Y-649.52
X-539.085 Y-649.416
X-539.204 Y-649.325
X-539.333 Y-649.247
X-539.469 Y-649.184
X-539.611 Y-649.136
X-539.758 Y-649.105
X-539.907 Y-649.089
X-540.057 Y-649.088
X-540.206 Y-649.104
X-540.353 Y-649.136
X-540.495 Y-649.183
X-540.632 Y-649.244
X-540.762 Y-649.319
X-540.883 Y-649.407
X-540.995 Y-649.507
X-541.097 Y-649.617
X-541.186 Y-649.738
X-541.264 Y-649.866
X-541.328 Y-650.002
X-541.378 Y-650.143
X-541.415 Y-650.288
X-541.437 Y-650.437
X-541.445 Y-650.586
X-541.439 Y-650.736
X-541.419 Y-650.885
X-541.384 Y-651.031
X-541.336 Y-651.173
X-541.275 Y-651.31
X-541.202 Y-651.441
X-541.117 Y-651.564
X-541.021 Y-651.68
X-540.914 Y-651.786
X-540.799 Y-651.882
X-540.676 Y-651.967
X-540.545 Y-652.041
X-540.409 Y-652.103
X-540.267 Y-652.152
X-540.122 Y-652.189
X-539.973 Y-652.213
X-539.824 Y-652.224
X-539.674 Y-652.222
X-539.525 Y-652.208
X-539.377 Y-652.18
X-539.233 Y-652.14
X-539.092 Y-652.088
X-538.956 Y-652.025
X-538.826 Y-651.95
X-538.703 Y-651.865
X-538.587 Y-651.769
X-538.479 Y-651.665
X-538.381 Y-651.552
X-538.291 Y-651.431
X-538.212 Y-651.304
X-538.144 Y-651.17
X-538.086 Y-651.032
X-538.04 Y-650.889
X-538.005 Y-650.743
X-537.982 Y-650.595
X-537.971 Y-650.445
Y-650.295
X-537.983 Y-650.146
X-538.007 Y-649.998
X-538.042 Y-649.852
X-538.088 Y-649.709
X-538.145 Y-649.57
X-538.212 Y-649.436
X-538.289 Y-649.308
X-538.376 Y-649.185
X-538.472 Y-649.07
X-538.576 Y-648.962
X-538.688 Y-648.862
X-538.807 Y-648.771
X-538.932 Y-648.688
X-539.063 Y-648.615
X-539.2 Y-648.552
X-539.34 Y-648.499
X-539.484 Y-648.457
X-539.63 Y-648.425
X-539.779 Y-648.403
X-539.928 Y-648.392
X-540.078
X-540.228 Y-648.403
X-540.376 Y-648.424
X-540.523 Y-648.456
X-540.667 Y-648.498
X-540.808 Y-648.549
X-540.945 Y-648.611
X-541.077 Y-648.682
X-541.204 Y-648.762
X-541.325 Y-648.85
X-541.44 Y-648.947
X-541.548 Y-649.051
X-541.648 Y-649.163
X-541.741 Y-649.28
X-541.825 Y-649.404
X-541.901 Y-649.534
X-541.969 Y-649.668
X-542.027 Y-649.806
X-542.076 Y-649.948
X-542.115 Y-650.093
X-542.144 Y-650.24
X-542.164 Y-650.388
X-542.174 Y-650.538
Y-650.688
X-542.165 Y-650.838
X-542.146 Y-650.986
X-542.117 Y-651.134
X-542.079 Y-651.279
X-542.032 Y-651.421
X-541.975 Y-651.56
X-541.91 Y-651.695
X-541.836 Y-651.826
X-541.755 Y-651.952
X-541.665 Y-652.072
X-541.568 Y-652.186
X-541.464 Y-652.295
X-541.354 Y-652.396
X-541.237 Y-652.491
X-541.115 Y-652.578
X-540.988 Y-652.657
X-540.856 Y-652.728
X-540.72 Y-652.791
X-540.58 Y-652.846
X-540.437 Y-652.891
X-540.292 Y-652.929
X-540.144 Y-652.957
X-539.996 Y-652.976
X-539.846 Y-652.986
X-539.696 Y-652.988
X-539.546 Y-652.98
X-539.397 Y-652.963
X-539.249 Y-652.938
X-539.103 Y-652.904
X-538.959 Y-652.861
X-538.818 Y-652.81
X-538.681 Y-652.75
X-538.547 Y-652.683
X-538.417 Y-652.608
X-538.292 Y-652.525
X-538.171 Y-652.435
X-538.057 Y-652.339
X-537.948 Y-652.236
X-537.845 Y-652.127
X-537.748 Y-652.012
X-537.658 Y-651.892
X-537.575 Y-651.767
X-537.5 Y-651.637
X-537.431 Y-651.502
X-537.371 Y-651.365
X-537.318 Y-651.224
X-537.274 Y-651.08
X-537.237 Y-650.932
X-537.208 Y-650.784
X-537.189 Y-650.635
X-537.177 Y-650.481
X-537.174 Y-650.328
X-537.18 Y-650.177
X-537.194 Y-650.025
X-537.217 Y-649.87
X-537.249 Y-649.719
X-537.289 Y-649.571
X-537.337 Y-649.424
X-537.395 Y-649.277
X-537.461 Y-649.135
X-537.533 Y-648.999
X-537.614 Y-648.865
X-537.704 Y-648.733
X-537.801 Y-648.608
X-537.904 Y-648.489
X-538.013 Y-648.376
X-538.132 Y-648.267
X-538.256 Y-648.165
X-538.384 Y-648.071
X-538.517 Y-647.984
X-538.657 Y-647.904
X-538.803 Y-647.831
X-538.952 Y-647.767
X-539.103 Y-647.712
X-539.258 Y-647.665
X-539.417 Y-647.626
X-539.58 Y-647.597
X-539.742 Y-647.576
X-539.904 Y-647.565
X-540.069 Y-647.563
X-540.235 Y-647.57
X-540.401 Y-647.587
X-540.565 Y-647.613
X-540.727 Y-647.648
X-540.887 Y-647.692
X-541.047 Y-647.746
X-541.204 Y-647.809
X-541.357 Y-647.88
X-541.505 Y-647.96
X-541.648 Y-648.048
X-541.788 Y-648.145
X-541.923 Y-648.25
X-542.052 Y-648.364
X-542.174 Y-648.484
X-542.29 Y-648.611
X-542.398 Y-648.743
X-542.498 Y-648.883
X-542.592 Y-649.029
X-542.678 Y-649.181
X-542.755 Y-649.338
X-542.823 Y-649.499
X-542.882 Y-649.663
X-542.931 Y-649.83
X-542.972 Y-650.001
X-543.002 Y-650.176
X-543.024 Y-650.352
X-543.035 Y-650.53
X-543.036 Y-650.708
X-543.027 Y-650.886
X-543.008 Y-651.063
X-542.979 Y-651.239
X-542.94 Y-651.414
X-542.891 Y-651.587
X-542.832 Y-651.759
X-542.763 Y-651.927
X-542.685 Y-652.092
X-542.597 Y-652.251
X-542.501 Y-652.406
X-542.396 Y-652.555
X-542.283 Y-652.698
X-542.161 Y-652.835
X-542.031 Y-652.966
X-541.893 Y-653.09
X-541.748 Y-653.206
X-541.597 Y-653.314
X-541.439 Y-653.414
X-541.275 Y-653.504
X-541.107 Y-653.586
X-540.933 Y-653.658
X-540.756 Y-653.72
X-540.575 Y-653.773
X-540.391 Y-653.815
X-540.205 Y-653.846
X-540.016 Y-653.868
X-539.827 Y-653.878
X-539.636
X-539.445 Y-653.867
X-539.254 Y-653.846
X-539.064 Y-653.813
X-538.876 Y-653.77
X-538.69 Y-653.716
X-538.507 Y-653.652
X-538.328 Y-653.577
X-538.152 Y-653.492
X-537.981 Y-653.397
X-537.816 Y-653.293
X-537.656 Y-653.179
X-537.502 Y-653.055
X-537.356 Y-652.923
X-537.216 Y-652.783
X-537.085 Y-652.635
X-536.961 Y-652.479
X-536.847 Y-652.316
X-536.741 Y-652.147
X-536.645 Y-651.971
X-536.559 Y-651.79
X-536.483 Y-651.603
X-536.417 Y-651.413
X-536.363 Y-651.218
X-536.319 Y-651.02
X-536.286 Y-650.82
X-536.264 Y-650.617
X-536.254 Y-650.413
X-536.256 Y-650.209
X-536.268 Y-650.004
X-536.293 Y-649.8
X-536.329 Y-649.597
X-536.376 Y-649.396
X-536.426 Y-649.23
X-536.446 Y-649.17
X-536.482 Y-649.065
X-536.512 Y-648.98
X-536.557 Y-648.871
X-536.622 Y-648.762
X-536.964 Y-648.218
X-537.005 Y-648.164
X-537.056 Y-648.11
X-537.519 Y-647.647
X-537.573 Y-647.596
X-537.627 Y-647.556
X-538.172 Y-647.214
X-538.28 Y-647.149
X-538.389 Y-647.106
X-538.824 Y-646.953
X-539.042 Y-646.878
X-539.26 Y-646.845
X-539.695 Y-646.796
X-539.913 Y-646.777
X-540.13 Y-646.798
X-540.674 Y-646.859
X-540.783 Y-646.883
X-541.436 Y-647.111
X-541.545 Y-647.158
X-541.678 Y-647.239
X-542.089 Y-647.498
X-542.198 Y-647.567
X-542.307 Y-647.663
X-542.753 Y-648.11
X-542.804 Y-648.164
X-542.846 Y-648.218
X-543.188 Y-648.762
X-543.254 Y-648.871
X-543.298 Y-648.98
X-543.525 Y-649.633
X-543.547 Y-649.742
X-543.613 Y-650.321
X-543.628 Y-650.503
X-543.613 Y-650.679
X-543.546 Y-651.265
X-543.523 Y-651.374
X-543.295 Y-652.026
X-543.25 Y-652.135
X-543.177 Y-652.255
X-542.911 Y-652.679
X-542.841 Y-652.788
X-542.798 Y-652.842
X-542.742 Y-652.902
X-542.307 Y-653.337
X-542.198 Y-653.432
X-542.089 Y-653.502
X-541.654 Y-653.776
X-541.545 Y-653.842
X-541.436 Y-653.889
X-540.783 Y-654.117
X-540.674 Y-654.141
X-540.13 Y-654.202
X-539.913 Y-654.223
X-539.679 Y-654.202
X-539.26 Y-654.155
X-539.042 Y-654.122
X-538.648 Y-653.985
X-538.389 Y-653.894
X-538.28 Y-653.851
X-538.172 Y-653.786
X-537.627 Y-653.444
X-537.573 Y-653.403
X-537.519 Y-653.353
X-537.062 Y-652.897
X-537.01 Y-652.842
X-536.968 Y-652.788
X-536.626 Y-652.244
X-536.56 Y-652.135
X-536.515 Y-652.026
X-536.287 Y-651.374
X-536.264 Y-651.265
X-536.202 Y-650.721
X-536.182 Y-650.503
X-536.201 Y-650.286
X-536.263 Y-649.742
X-536.285 Y-649.633
X-536.446 Y-649.17
G3 X-536.572 Y-648.972 I-0.559 J-0.218
G1 X-536.637 Y-648.904 Z9.007
X-536.7 Y-648.838 Z9.029
X-536.76 Y-648.776 Z9.065
X-536.816 Y-648.718 Z9.115
X-536.865 Y-648.666 Z9.176
X-536.908 Y-648.622 Z9.247
X-536.942 Y-648.586 Z9.328
X-536.967 Y-648.56 Z9.415
X-536.982 Y-648.544 Z9.506
X-536.987 Y-648.539 Z9.6
G0 Z33

(2D Contour4)
S8000 M3
M9
X-539.905 Y-650.5
Z33
Z23
G1 Z9 F850
G3 X-539.605 Y-650.8 I0.3
G1 X-535.955
G3 X-535.655 Y-650.5 J0.3
X-544.155 I-4.25
X-535.655 I4.25
X-544.155 I-4.25
X-535.655 I4.25
X-536.255 Y-649.9 I-0.6
G1 X-536.855
G18 G3 X-537.455 Z9.6 K0.6
G0 Z33
G17

(2d adpative)
S6000 M3
M9
G0 X-539.905 Y-458.501
Z33
Z23
Z18.65
G1 Z18.05 F850
Z9
X-539.917 Y-458.536
X-539.889 Y-458.56
X-539.853 Y-458.549
X-539.83 Y-458.519
X-539.826 Y-458.482
X-539.839 Y-458.447
X-539.868 Y-458.423
X-539.904 Y-458.413
X-539.941 Y-458.419
X-539.971 Y-458.44
X-539.991 Y-458.473
X-539.997 Y-458.51
X-539.993 Y-458.547
X-539.978 Y-458.581
X-539.952 Y-458.608
X-539.919 Y-458.626
X-539.882 Y-458.632
X-539.845 Y-458.628
X-539.81 Y-458.613
X-539.751 Y-458.567
X-539.723 Y-458.498
X-539.728 Y-458.423
X-539.764 Y-458.357
X-539.822 Y-458.31
X-539.894 Y-458.288
X-539.969 Y-458.294
X-540.037 Y-458.325
X-540.092 Y-458.376
X-540.128 Y-458.442
X-540.142 Y-458.516
X-540.134 Y-458.59
X-540.105 Y-458.66
X-540.058 Y-458.718
X-539.996 Y-458.761
X-539.855 Y-458.81
X-539.707 Y-458.786
X-539.585 Y-458.698
X-539.511 Y-458.567
X-539.494 Y-458.418
X-539.533 Y-458.273
X-539.62 Y-458.152
X-539.744 Y-458.067
X-539.889 Y-458.029
X-540.039 Y-458.038
X-540.179 Y-458.094
X-540.295 Y-458.188
X-540.379 Y-458.312
X-540.424 Y-458.455
X-540.428 Y-458.605
X-540.39 Y-458.75
X-540.318 Y-458.882
X-540.215 Y-458.991
X-540.089 Y-459.072
X-539.947 Y-459.12
X-539.797 Y-459.134
X-539.649 Y-459.111
X-539.509 Y-459.057
X-539.386 Y-458.971
X-539.282 Y-458.863
X-539.206 Y-458.734
X-539.156 Y-458.592
X-539.137 Y-458.444
X-539.148 Y-458.294
X-539.188 Y-458.149
X-539.256 Y-458.016
X-539.346 Y-457.896
X-539.459 Y-457.797
X-539.587 Y-457.718
X-539.727 Y-457.665
X-539.874 Y-457.637
X-540.024 Y-457.635
X-540.172 Y-457.66
X-540.314 Y-457.709
X-540.445 Y-457.781
X-540.563 Y-457.874
X-540.664 Y-457.985
X-540.745 Y-458.111
X-540.806 Y-458.248
X-540.844 Y-458.393
X-540.86 Y-458.543
X-540.853 Y-458.692
X-540.823 Y-458.839
X-540.772 Y-458.981
X-540.701 Y-459.112
X-540.611 Y-459.233
X-540.505 Y-459.339
X-540.385 Y-459.429
X-540.254 Y-459.502
X-540.114 Y-459.555
X-539.968 Y-459.589
X-539.818 Y-459.602
X-539.668 Y-459.595
X-539.521 Y-459.569
X-539.378 Y-459.523
X-539.242 Y-459.458
X-539.116 Y-459.377
X-539.002 Y-459.281
X-538.9 Y-459.17
X-538.813 Y-459.048
X-538.742 Y-458.916
X-538.688 Y-458.776
X-538.651 Y-458.631
X-538.632 Y-458.482
X-538.631 Y-458.332
X-538.648 Y-458.183
X-538.682 Y-458.037
X-538.733 Y-457.896
X-538.8 Y-457.762
X-538.882 Y-457.636
X-538.977 Y-457.52
X-539.085 Y-457.416
X-539.204 Y-457.325
X-539.333 Y-457.247
X-539.469 Y-457.184
X-539.611 Y-457.136
X-539.758 Y-457.105
X-539.907 Y-457.089
X-540.057 Y-457.088
X-540.206 Y-457.104
X-540.353 Y-457.136
X-540.495 Y-457.183
X-540.632 Y-457.244
X-540.762 Y-457.319
X-540.883 Y-457.407
X-540.995 Y-457.507
X-541.097 Y-457.617
X-541.186 Y-457.738
X-541.264 Y-457.866
X-541.328 Y-458.002
X-541.378 Y-458.143
X-541.415 Y-458.288
X-541.437 Y-458.437
X-541.445 Y-458.586
X-541.439 Y-458.736
X-541.419 Y-458.885
X-541.384 Y-459.031
X-541.336 Y-459.173
X-541.275 Y-459.31
X-541.202 Y-459.441
X-541.117 Y-459.564
X-541.021 Y-459.68
X-540.914 Y-459.786
X-540.799 Y-459.882
X-540.676 Y-459.967
X-540.545 Y-460.041
X-540.409 Y-460.103
X-540.267 Y-460.152
X-540.122 Y-460.189
X-539.973 Y-460.213
X-539.824 Y-460.224
X-539.674 Y-460.222
X-539.525 Y-460.208
X-539.377 Y-460.18
X-539.233 Y-460.14
X-539.092 Y-460.088
X-538.956 Y-460.025
X-538.826 Y-459.95
X-538.703 Y-459.865
X-538.587 Y-459.769
X-538.479 Y-459.665
X-538.381 Y-459.552
X-538.291 Y-459.431
X-538.212 Y-459.304
X-538.144 Y-459.17
X-538.086 Y-459.032
X-538.04 Y-458.889
X-538.005 Y-458.743
X-537.982 Y-458.595
X-537.971 Y-458.445
Y-458.295
X-537.983 Y-458.146
X-538.007 Y-457.998
X-538.042 Y-457.852
X-538.088 Y-457.709
X-538.145 Y-457.57
X-538.212 Y-457.436
X-538.289 Y-457.308
X-538.376 Y-457.185
X-538.472 Y-457.07
X-538.576 Y-456.962
X-538.688 Y-456.862
X-538.807 Y-456.771
X-538.932 Y-456.688
X-539.063 Y-456.615
X-539.2 Y-456.552
X-539.34 Y-456.499
X-539.484 Y-456.457
X-539.63 Y-456.425
X-539.779 Y-456.403
X-539.928 Y-456.392
X-540.078
X-540.228 Y-456.403
X-540.376 Y-456.424
X-540.523 Y-456.456
X-540.667 Y-456.498
X-540.808 Y-456.549
X-540.945 Y-456.611
X-541.077 Y-456.682
X-541.204 Y-456.762
X-541.325 Y-456.85
X-541.44 Y-456.947
X-541.548 Y-457.051
X-541.648 Y-457.163
X-541.741 Y-457.28
X-541.825 Y-457.404
X-541.901 Y-457.534
X-541.969 Y-457.668
X-542.027 Y-457.806
X-542.076 Y-457.948
X-542.115 Y-458.093
X-542.144 Y-458.24
X-542.164 Y-458.388
X-542.174 Y-458.538
Y-458.688
X-542.165 Y-458.838
X-542.146 Y-458.986
X-542.117 Y-459.134
X-542.079 Y-459.279
X-542.032 Y-459.421
X-541.975 Y-459.56
X-541.91 Y-459.695
X-541.836 Y-459.826
X-541.755 Y-459.952
X-541.665 Y-460.072
X-541.568 Y-460.186
X-541.464 Y-460.295
X-541.354 Y-460.396
X-541.237 Y-460.491
X-541.115 Y-460.578
X-540.988 Y-460.657
X-540.856 Y-460.728
X-540.72 Y-460.791
X-540.58 Y-460.846
X-540.437 Y-460.891
X-540.292 Y-460.929
X-540.144 Y-460.957
X-539.996 Y-460.976
X-539.846 Y-460.986
X-539.696 Y-460.988
X-539.546 Y-460.98
X-539.397 Y-460.963
X-539.249 Y-460.938
X-539.103 Y-460.904
X-538.959 Y-460.861
X-538.818 Y-460.81
X-538.681 Y-460.75
X-538.547 Y-460.683
X-538.417 Y-460.608
X-538.292 Y-460.525
X-538.171 Y-460.435
X-538.057 Y-460.339
X-537.948 Y-460.236
X-537.845 Y-460.127
X-537.748 Y-460.012
X-537.658 Y-459.892
X-537.575 Y-459.767
X-537.5 Y-459.637
X-537.431 Y-459.502
X-537.371 Y-459.365
X-537.318 Y-459.224
X-537.274 Y-459.08
X-537.237 Y-458.932
X-537.208 Y-458.784
X-537.189 Y-458.635
X-537.177 Y-458.481
X-537.174 Y-458.328
X-537.18 Y-458.177
X-537.194 Y-458.025
X-537.217 Y-457.87
X-537.249 Y-457.719
X-537.289 Y-457.571
X-537.337 Y-457.424
X-537.395 Y-457.277
X-537.461 Y-457.135
X-537.533 Y-456.999
X-537.614 Y-456.865
X-537.704 Y-456.733
X-537.801 Y-456.608
X-537.904 Y-456.489
X-538.013 Y-456.376
X-538.132 Y-456.267
X-538.256 Y-456.165
X-538.384 Y-456.071
X-538.517 Y-455.984
X-538.657 Y-455.904
X-538.803 Y-455.831
X-538.952 Y-455.767
X-539.103 Y-455.712
X-539.258 Y-455.665
X-539.417 Y-455.626
X-539.58 Y-455.597
X-539.742 Y-455.576
X-539.904 Y-455.565
X-540.069 Y-455.563
X-540.235 Y-455.57
X-540.401 Y-455.587
X-540.565 Y-455.613
X-540.727 Y-455.648
X-540.887 Y-455.692
X-541.047 Y-455.746
X-541.204 Y-455.809
X-541.357 Y-455.88
X-541.505 Y-455.96
X-541.648 Y-456.048
X-541.788 Y-456.145
X-541.923 Y-456.25
X-542.052 Y-456.364
X-542.174 Y-456.484
X-542.29 Y-456.611
X-542.398 Y-456.743
X-542.498 Y-456.883
X-542.592 Y-457.029
X-542.678 Y-457.181
X-542.755 Y-457.338
X-542.823 Y-457.499
X-542.882 Y-457.663
X-542.931 Y-457.83
X-542.972 Y-458.001
X-543.002 Y-458.176
X-543.024 Y-458.352
X-543.035 Y-458.53
X-543.036 Y-458.708
X-543.027 Y-458.886
X-543.008 Y-459.063
X-542.979 Y-459.239
X-542.94 Y-459.414
X-542.891 Y-459.587
X-542.832 Y-459.759
X-542.763 Y-459.927
X-542.685 Y-460.092
X-542.597 Y-460.251
X-542.501 Y-460.406
X-542.396 Y-460.555
X-542.283 Y-460.698
X-542.161 Y-460.835
X-542.031 Y-460.966
X-541.893 Y-461.09
X-541.748 Y-461.206
X-541.597 Y-461.314
X-541.439 Y-461.414
X-541.275 Y-461.504
X-541.107 Y-461.586
X-540.933 Y-461.658
X-540.756 Y-461.72
X-540.575 Y-461.773
X-540.391 Y-461.815
X-540.205 Y-461.846
X-540.016 Y-461.868
X-539.827 Y-461.878
X-539.636
X-539.445 Y-461.867
X-539.254 Y-461.846
X-539.064 Y-461.813
X-538.876 Y-461.77
X-538.69 Y-461.716
X-538.507 Y-461.652
X-538.328 Y-461.577
X-538.152 Y-461.492
X-537.981 Y-461.397
X-537.816 Y-461.293
X-537.656 Y-461.179
X-537.502 Y-461.055
X-537.356 Y-460.923
X-537.216 Y-460.783
X-537.085 Y-460.635
X-536.961 Y-460.479
X-536.847 Y-460.316
X-536.741 Y-460.147
X-536.645 Y-459.971
X-536.559 Y-459.79
X-536.483 Y-459.603
X-536.417 Y-459.413
X-536.363 Y-459.218
X-536.319 Y-459.02
X-536.286 Y-458.82
X-536.264 Y-458.617
X-536.254 Y-458.413
X-536.256 Y-458.209
X-536.268 Y-458.004
X-536.293 Y-457.8
X-536.329 Y-457.597
X-536.376 Y-457.396
X-536.426 Y-457.23
X-536.446 Y-457.17
X-536.482 Y-457.065
X-536.512 Y-456.98
X-536.557 Y-456.871
X-536.622 Y-456.762
X-536.964 Y-456.218
X-537.005 Y-456.164
X-537.056 Y-456.11
X-537.519 Y-455.647
X-537.573 Y-455.596
X-537.627 Y-455.556
X-538.172 Y-455.214
X-538.28 Y-455.149
X-538.389 Y-455.106
X-538.824 Y-454.953
X-539.042 Y-454.878
X-539.26 Y-454.845
X-539.695 Y-454.796
X-539.913 Y-454.777
X-540.13 Y-454.798
X-540.674 Y-454.859
X-540.783 Y-454.883
X-541.436 Y-455.111
X-541.545 Y-455.158
X-541.678 Y-455.239
X-542.089 Y-455.498
X-542.198 Y-455.567
X-542.307 Y-455.663
X-542.753 Y-456.11
X-542.804 Y-456.164
X-542.846 Y-456.218
X-543.188 Y-456.762
X-543.254 Y-456.871
X-543.298 Y-456.98
X-543.525 Y-457.633
X-543.547 Y-457.742
X-543.613 Y-458.321
X-543.628 Y-458.503
X-543.613 Y-458.679
X-543.546 Y-459.265
X-543.523 Y-459.374
X-543.295 Y-460.026
X-543.25 Y-460.135
X-543.177 Y-460.255
X-542.911 Y-460.679
X-542.841 Y-460.788
X-542.798 Y-460.842
X-542.742 Y-460.902
X-542.307 Y-461.337
X-542.198 Y-461.432
X-542.089 Y-461.502
X-541.654 Y-461.776
X-541.545 Y-461.842
X-541.436 Y-461.889
X-540.783 Y-462.117
X-540.674 Y-462.141
X-540.13 Y-462.202
X-539.913 Y-462.223
X-539.679 Y-462.202
X-539.26 Y-462.155
X-539.042 Y-462.122
X-538.648 Y-461.985
X-538.389 Y-461.894
X-538.28 Y-461.851
X-538.172 Y-461.786
X-537.627 Y-461.444
X-537.573 Y-461.403
X-537.519 Y-461.353
X-537.062 Y-460.897
X-537.01 Y-460.842
X-536.968 Y-460.788
X-536.626 Y-460.244
X-536.56 Y-460.135
X-536.515 Y-460.026
X-536.287 Y-459.374
X-536.264 Y-459.265
X-536.202 Y-458.721
X-536.182 Y-458.503
X-536.201 Y-458.286
X-536.263 Y-457.742
X-536.285 Y-457.633
X-536.446 Y-457.17
G3 X-536.572 Y-456.972 I-0.559 J-0.218
G1 X-536.637 Y-456.904 Z9.007
X-536.7 Y-456.838 Z9.029
X-536.76 Y-456.776 Z9.065
X-536.816 Y-456.718 Z9.115
X-536.865 Y-456.666 Z9.176
X-536.908 Y-456.622 Z9.247
X-536.942 Y-456.586 Z9.328
X-536.967 Y-456.56 Z9.415
X-536.982 Y-456.544 Z9.506
X-536.987 Y-456.539 Z9.6
G0 Z33

(2D Contour4)
S8000 M3
M9
X-539.905 Y-458.5
Z33
Z23
G1 Z9 F850
G3 X-539.605 Y-458.8 I0.3
G1 X-535.955
G3 X-535.655 Y-458.5 J0.3
X-544.155 I-4.25
X-535.655 I4.25
X-544.155 I-4.25
X-535.655 I4.25
X-536.255 Y-457.9 I-0.6
G1 X-536.855
G18 G3 X-537.455 Z9.6 K0.6
G0 Z33
G17

(2d adpative)
S6000 M3
M9
G0 X-539.905 Y-266.501
Z33
Z23
Z18.65
G1 Z18.05 F850
Z9
X-539.917 Y-266.536
X-539.889 Y-266.56
X-539.853 Y-266.549
X-539.83 Y-266.519
X-539.826 Y-266.482
X-539.839 Y-266.447
X-539.868 Y-266.423
X-539.904 Y-266.413
X-539.941 Y-266.419
X-539.971 Y-266.44
X-539.991 Y-266.473
X-539.997 Y-266.51
X-539.993 Y-266.547
X-539.978 Y-266.581
X-539.952 Y-266.608
X-539.919 Y-266.626
X-539.882 Y-266.632
X-539.845 Y-266.628
X-539.81 Y-266.613
X-539.751 Y-266.567
X-539.723 Y-266.498
X-539.728 Y-266.423
X-539.764 Y-266.357
X-539.822 Y-266.31
X-539.894 Y-266.288
X-539.969 Y-266.294
X-540.037 Y-266.325
X-540.092 Y-266.376
X-540.128 Y-266.442
X-540.142 Y-266.516
X-540.134 Y-266.59
X-540.105 Y-266.66
X-540.058 Y-266.718
X-539.996 Y-266.761
X-539.855 Y-266.81
X-539.707 Y-266.786
X-539.585 Y-266.698
X-539.511 Y-266.567
X-539.494 Y-266.418
X-539.533 Y-266.273
X-539.62 Y-266.152
X-539.744 Y-266.067
X-539.889 Y-266.029
X-540.039 Y-266.038
X-540.179 Y-266.094
X-540.295 Y-266.188
X-540.379 Y-266.312
X-540.424 Y-266.455
X-540.428 Y-266.605
X-540.39 Y-266.75
X-540.318 Y-266.882
X-540.215 Y-266.991
X-540.089 Y-267.072
X-539.947 Y-267.12
X-539.797 Y-267.134
X-539.649 Y-267.111
X-539.509 Y-267.057
X-539.386 Y-266.971
X-539.282 Y-266.863
X-539.206 Y-266.734
X-539.156 Y-266.592
X-539.137 Y-266.444
X-539.148 Y-266.294
X-539.188 Y-266.149
X-539.256 Y-266.016
X-539.346 Y-265.896
X-539.459 Y-265.797
X-539.587 Y-265.718
X-539.727 Y-265.665
X-539.874 Y-265.637
X-540.024 Y-265.635
X-540.172 Y-265.66
X-540.314 Y-265.709
X-540.445 Y-265.781
X-540.563 Y-265.874
X-540.664 Y-265.985
X-540.745 Y-266.111
X-540.806 Y-266.248
X-540.844 Y-266.393
X-540.86 Y-266.543
X-540.853 Y-266.692
X-540.823 Y-266.839
X-540.772 Y-266.981
X-540.701 Y-267.112
X-540.611 Y-267.233
X-540.505 Y-267.339
X-540.385 Y-267.429
X-540.254 Y-267.502
X-540.114 Y-267.555
X-539.968 Y-267.589
X-539.818 Y-267.602
X-539.668 Y-267.595
X-539.521 Y-267.569
X-539.378 Y-267.523
X-539.242 Y-267.458
X-539.116 Y-267.377
X-539.002 Y-267.281
X-538.9 Y-267.17
X-538.813 Y-267.048
X-538.742 Y-266.916
X-538.688 Y-266.776
X-538.651 Y-266.631
X-538.632 Y-266.482
X-538.631 Y-266.332
X-538.648 Y-266.183
X-538.682 Y-266.037
X-538.733 Y-265.896
X-538.8 Y-265.762
X-538.882 Y-265.636
X-538.977 Y-265.52
X-539.085 Y-265.416
X-539.204 Y-265.325
X-539.333 Y-265.247
X-539.469 Y-265.184
X-539.611 Y-265.136
X-539.758 Y-265.105
X-539.907 Y-265.089
X-540.057 Y-265.088
X-540.206 Y-265.104
X-540.353 Y-265.136
X-540.495 Y-265.183
X-540.632 Y-265.244
X-540.762 Y-265.319
X-540.883 Y-265.407
X-540.995 Y-265.507
X-541.097 Y-265.617
X-541.186 Y-265.738
X-541.264 Y-265.866
X-541.328 Y-266.002
X-541.378 Y-266.143
X-541.415 Y-266.288
X-541.437 Y-266.437
X-541.445 Y-266.586
X-541.439 Y-266.736
X-541.419 Y-266.885
X-541.384 Y-267.031
X-541.336 Y-267.173
X-541.275 Y-267.31
X-541.202 Y-267.441
X-541.117 Y-267.564
X-541.021 Y-267.68
X-540.914 Y-267.786
X-540.799 Y-267.882
X-540.676 Y-267.967
X-540.545 Y-268.041
X-540.409 Y-268.103
X-540.267 Y-268.152
X-540.122 Y-268.189
X-539.973 Y-268.213
X-539.824 Y-268.224
X-539.674 Y-268.222
X-539.525 Y-268.208
X-539.377 Y-268.18
X-539.233 Y-268.14
X-539.092 Y-268.088
X-538.956 Y-268.025
X-538.826 Y-267.95
X-538.703 Y-267.865
X-538.587 Y-267.769
X-538.479 Y-267.665
X-538.381 Y-267.552
X-538.291 Y-267.431
X-538.212 Y-267.304
X-538.144 Y-267.17
X-538.086 Y-267.032
X-538.04 Y-266.889
X-538.005 Y-266.743
X-537.982 Y-266.595
X-537.971 Y-266.445
Y-266.295
X-537.983 Y-266.146
X-538.007 Y-265.998
X-538.042 Y-265.852
X-538.088 Y-265.709
X-538.145 Y-265.57
X-538.212 Y-265.436
X-538.289 Y-265.308
X-538.376 Y-265.185
X-538.472 Y-265.07
X-538.576 Y-264.962
X-538.688 Y-264.862
X-538.807 Y-264.771
X-538.932 Y-264.688
X-539.063 Y-264.615
X-539.2 Y-264.552
X-539.34 Y-264.499
X-539.484 Y-264.457
X-539.63 Y-264.425
X-539.779 Y-264.403
X-539.928 Y-264.392
X-540.078
X-540.228 Y-264.403
X-540.376 Y-264.424
X-540.523 Y-264.456
X-540.667 Y-264.498
X-540.808 Y-264.549
X-540.945 Y-264.611
X-541.077 Y-264.682
X-541.204 Y-264.762
X-541.325 Y-264.85
X-541.44 Y-264.947
X-541.548 Y-265.051
X-541.648 Y-265.163
X-541.741 Y-265.28
X-541.825 Y-265.404
X-541.901 Y-265.534
X-541.969 Y-265.668
X-542.027 Y-265.806
X-542.076 Y-265.948
X-542.115 Y-266.093
X-542.144 Y-266.24
X-542.164 Y-266.388
X-542.174 Y-266.538
Y-266.688
X-542.165 Y-266.838
X-542.146 Y-266.986
X-542.117 Y-267.134
X-542.079 Y-267.279
X-542.032 Y-267.421
X-541.975 Y-267.56
X-541.91 Y-267.695
X-541.836 Y-267.826
X-541.755 Y-267.952
X-541.665 Y-268.072
X-541.568 Y-268.186
X-541.464 Y-268.295
X-541.354 Y-268.396
X-541.237 Y-268.491
X-541.115 Y-268.578
X-540.988 Y-268.657
X-540.856 Y-268.728
X-540.72 Y-268.791
X-540.58 Y-268.846
X-540.437 Y-268.891
X-540.292 Y-268.929
X-540.144 Y-268.957
X-539.996 Y-268.976
X-539.846 Y-268.986
X-539.696 Y-268.988
X-539.546 Y-268.98
X-539.397 Y-268.963
X-539.249 Y-268.938
X-539.103 Y-268.904
X-538.959 Y-268.861
X-538.818 Y-268.81
X-538.681 Y-268.75
X-538.547 Y-268.683
X-538.417 Y-268.608
X-538.292 Y-268.525
X-538.171 Y-268.435
X-538.057 Y-268.339
X-537.948 Y-268.236
X-537.845 Y-268.127
X-537.748 Y-268.012
X-537.658 Y-267.892
X-537.575 Y-267.767
X-537.5 Y-267.637
X-537.431 Y-267.502
X-537.371 Y-267.365
X-537.318 Y-267.224
X-537.274 Y-267.08
X-537.237 Y-266.932
X-537.208 Y-266.784
X-537.189 Y-266.635
X-537.177 Y-266.481
X-537.174 Y-266.328
X-537.18 Y-266.177
X-537.194 Y-266.025
X-537.217 Y-265.87
X-537.249 Y-265.719
X-537.289 Y-265.571
X-537.337 Y-265.424
X-537.395 Y-265.277
X-537.461 Y-265.135
X-537.533 Y-264.999
X-537.614 Y-264.865
X-537.704 Y-264.733
X-537.801 Y-264.608
X-537.904 Y-264.489
X-538.013 Y-264.376
X-538.132 Y-264.267
X-538.256 Y-264.165
X-538.384 Y-264.071
X-538.517 Y-263.984
X-538.657 Y-263.904
X-538.803 Y-263.831
X-538.952 Y-263.767
X-539.103 Y-263.712
X-539.258 Y-263.665
X-539.417 Y-263.626
X-539.58 Y-263.597
X-539.742 Y-263.576
X-539.904 Y-263.565
X-540.069 Y-263.563
X-540.235 Y-263.57
X-540.401 Y-263.587
X-540.565 Y-263.613
X-540.727 Y-263.648
X-540.887 Y-263.692
X-541.047 Y-263.746
X-541.204 Y-263.809
X-541.357 Y-263.88
X-541.505 Y-263.96
X-541.648 Y-264.048
X-541.788 Y-264.145
X-541.923 Y-264.25
X-542.052 Y-264.364
X-542.174 Y-264.484
X-542.29 Y-264.611
X-542.398 Y-264.743
X-542.498 Y-264.883
X-542.592 Y-265.029
X-542.678 Y-265.181
X-542.755 Y-265.338
X-542.823 Y-265.499
X-542.882 Y-265.663
X-542.931 Y-265.83
X-542.972 Y-266.001
X-543.002 Y-266.176
X-543.024 Y-266.352
X-543.035 Y-266.53
X-543.036 Y-266.708
X-543.027 Y-266.886
X-543.008 Y-267.063
X-542.979 Y-267.239
X-542.94 Y-267.414
X-542.891 Y-267.587
X-542.832 Y-267.759
X-542.763 Y-267.927
X-542.685 Y-268.092
X-542.597 Y-268.251
X-542.501 Y-268.406
X-542.396 Y-268.555
X-542.283 Y-268.698
X-542.161 Y-268.835
X-542.031 Y-268.966
X-541.893 Y-269.09
X-541.748 Y-269.206
X-541.597 Y-269.314
X-541.439 Y-269.414
X-541.275 Y-269.504
X-541.107 Y-269.586
X-540.933 Y-269.658
X-540.756 Y-269.72
X-540.575 Y-269.773
X-540.391 Y-269.815
X-540.205 Y-269.846
X-540.016 Y-269.868
X-539.827 Y-269.878
X-539.636
X-539.445 Y-269.867
X-539.254 Y-269.846
X-539.064 Y-269.813
X-538.876 Y-269.77
X-538.69 Y-269.716
X-538.507 Y-269.652
X-538.328 Y-269.577
X-538.152 Y-269.492
X-537.981 Y-269.397
X-537.816 Y-269.293
X-537.656 Y-269.179
X-537.502 Y-269.055
X-537.356 Y-268.923
X-537.216 Y-268.783
X-537.085 Y-268.635
X-536.961 Y-268.479
X-536.847 Y-268.316
X-536.741 Y-268.147
X-536.645 Y-267.971
X-536.559 Y-267.79
X-536.483 Y-267.603
X-536.417 Y-267.413
X-536.363 Y-267.218
X-536.319 Y-267.02
X-536.286 Y-266.82
X-536.264 Y-266.617
X-536.254 Y-266.413
X-536.256 Y-266.209
X-536.268 Y-266.004
X-536.293 Y-265.8
X-536.329 Y-265.597
X-536.376 Y-265.396
X-536.426 Y-265.23
X-536.446 Y-265.17
X-536.482 Y-265.065
X-536.512 Y-264.98
X-536.557 Y-264.871
X-536.622 Y-264.762
X-536.964 Y-264.218
X-537.005 Y-264.164
X-537.056 Y-264.11
X-537.519 Y-263.647
X-537.573 Y-263.596
X-537.627 Y-263.556
X-538.172 Y-263.214
X-538.28 Y-263.149
X-538.389 Y-263.106
X-538.824 Y-262.953
X-539.042 Y-262.878
X-539.26 Y-262.845
X-539.695 Y-262.796
X-539.913 Y-262.777
X-540.13 Y-262.798
X-540.674 Y-262.859
X-540.783 Y-262.883
X-541.436 Y-263.111
X-541.545 Y-263.158
X-541.678 Y-263.239
X-542.089 Y-263.498
X-542.198 Y-263.567
X-542.307 Y-263.663
X-542.753 Y-264.11
X-542.804 Y-264.164
X-542.846 Y-264.218
X-543.188 Y-264.762
X-543.254 Y-264.871
X-543.298 Y-264.98
X-543.525 Y-265.633
X-543.547 Y-265.742
X-543.613 Y-266.321
X-543.628 Y-266.503
X-543.613 Y-266.679
X-543.546 Y-267.265
X-543.523 Y-267.374
X-543.295 Y-268.026
X-543.25 Y-268.135
X-543.177 Y-268.255
X-542.911 Y-268.679
X-542.841 Y-268.788
X-542.798 Y-268.842
X-542.742 Y-268.902
X-542.307 Y-269.337
X-542.198 Y-269.432
X-542.089 Y-269.502
X-541.654 Y-269.776
X-541.545 Y-269.842
X-541.436 Y-269.889
X-540.783 Y-270.117
X-540.674 Y-270.141
X-540.13 Y-270.202
X-539.913 Y-270.223
X-539.679 Y-270.202
X-539.26 Y-270.155
X-539.042 Y-270.122
X-538.648 Y-269.985
X-538.389 Y-269.894
X-538.28 Y-269.851
X-538.172 Y-269.786
X-537.627 Y-269.444
X-537.573 Y-269.403
X-537.519 Y-269.353
X-537.062 Y-268.897
X-537.01 Y-268.842
X-536.968 Y-268.788
X-536.626 Y-268.244
X-536.56 Y-268.135
X-536.515 Y-268.026
X-536.287 Y-267.374
X-536.264 Y-267.265
X-536.202 Y-266.721
X-536.182 Y-266.503
X-536.201 Y-266.286
X-536.263 Y-265.742
X-536.285 Y-265.633
X-536.446 Y-265.17
G3 X-536.572 Y-264.972 I-0.559 J-0.218
G1 X-536.637 Y-264.904 Z9.007
X-536.7 Y-264.838 Z9.029
X-536.76 Y-264.776 Z9.065
X-536.816 Y-264.718 Z9.115
X-536.865 Y-264.666 Z9.176
X-536.908 Y-264.622 Z9.247
X-536.942 Y-264.586 Z9.328
X-536.967 Y-264.56 Z9.415
X-536.982 Y-264.544 Z9.506
X-536.987 Y-264.539 Z9.6
G0 Z33

(2D Contour4)
S8000 M3
M9
X-539.905 Y-266.5
Z33
Z23
G1 Z9 F850
G3 X-539.605 Y-266.8 I0.3
G1 X-535.955
G3 X-535.655 Y-266.5 J0.3
X-544.155 I-4.25
X-535.655 I4.25
X-544.155 I-4.25
X-535.655 I4.25
X-536.255 Y-265.9 I-0.6
G1 X-536.855
G18 G3 X-537.455 Z9.6 K0.6
G0 Z33
G17

(2d adpative)
S6000 M3
M9
G0 X-539.905 Y-74.501
Z33
Z23
Z18.65
G1 Z18.05 F850
Z9
X-539.917 Y-74.536
X-539.889 Y-74.56
X-539.853 Y-74.549
X-539.83 Y-74.519
X-539.826 Y-74.482
X-539.839 Y-74.447
X-539.868 Y-74.423
X-539.904 Y-74.413
X-539.941 Y-74.419
X-539.971 Y-74.44
X-539.991 Y-74.473
X-539.997 Y-74.51
X-539.993 Y-74.547
X-539.978 Y-74.581
X-539.952 Y-74.608
X-539.919 Y-74.626
X-539.882 Y-74.632
X-539.845 Y-74.628
X-539.81 Y-74.613
X-539.751 Y-74.567
X-539.723 Y-74.498
X-539.728 Y-74.423
X-539.764 Y-74.357
X-539.822 Y-74.31
X-539.894 Y-74.288
X-539.969 Y-74.294
X-540.037 Y-74.325
X-540.092 Y-74.376
X-540.128 Y-74.442
X-540.142 Y-74.516
X-540.134 Y-74.59
X-540.105 Y-74.66
X-540.058 Y-74.718
X-539.996 Y-74.761
X-539.855 Y-74.81
X-539.707 Y-74.786
X-539.585 Y-74.698
X-539.511 Y-74.567
X-539.494 Y-74.418
X-539.533 Y-74.273
X-539.62 Y-74.152
X-539.744 Y-74.067
X-539.889 Y-74.029
X-540.039 Y-74.038
X-540.179 Y-74.094
X-540.295 Y-74.188
X-540.379 Y-74.312
X-540.424 Y-74.455
X-540.428 Y-74.605
X-540.39 Y-74.75
X-540.318 Y-74.882
X-540.215 Y-74.991
X-540.089 Y-75.072
X-539.947 Y-75.12
X-539.797 Y-75.134
X-539.649 Y-75.111
X-539.509 Y-75.057
X-539.386 Y-74.971
X-539.282 Y-74.863
X-539.206 Y-74.734
X-539.156 Y-74.592
X-539.137 Y-74.444
X-539.148 Y-74.294
X-539.188 Y-74.149
X-539.256 Y-74.016
X-539.346 Y-73.896
X-539.459 Y-73.797
X-539.587 Y-73.718
X-539.727 Y-73.665
X-539.874 Y-73.637
X-540.024 Y-73.635
X-540.172 Y-73.66
X-540.314 Y-73.709
X-540.445 Y-73.781
X-540.563 Y-73.874
X-540.664 Y-73.985
X-540.745 Y-74.111
X-540.806 Y-74.248
X-540.844 Y-74.393
X-540.86 Y-74.543
X-540.853 Y-74.692
X-540.823 Y-74.839
X-540.772 Y-74.981
X-540.701 Y-75.112
X-540.611 Y-75.233
X-540.505 Y-75.339
X-540.385 Y-75.429
X-540.254 Y-75.502
X-540.114 Y-75.555
X-539.968 Y-75.589
X-539.818 Y-75.602
X-539.668 Y-75.595
X-539.521 Y-75.569
X-539.378 Y-75.523
X-539.242 Y-75.458
X-539.116 Y-75.377
X-539.002 Y-75.281
X-538.9 Y-75.17
X-538.813 Y-75.048
X-538.742 Y-74.916
X-538.688 Y-74.776
X-538.651 Y-74.631
X-538.632 Y-74.482
X-538.631 Y-74.332
X-538.648 Y-74.183
X-538.682 Y-74.037
X-538.733 Y-73.896
X-538.8 Y-73.762
X-538.882 Y-73.636
X-538.977 Y-73.52
X-539.085 Y-73.416
X-539.204 Y-73.325
X-539.333 Y-73.247
X-539.469 Y-73.184
X-539.611 Y-73.136
X-539.758 Y-73.105
X-539.907 Y-73.089
X-540.057 Y-73.088
X-540.206 Y-73.104
X-540.353 Y-73.136
X-540.495 Y-73.183
X-540.632 Y-73.244
X-540.762 Y-73.319
X-540.883 Y-73.407
X-540.995 Y-73.507
X-541.097 Y-73.617
X-541.186 Y-73.738
X-541.264 Y-73.866
X-541.328 Y-74.002
X-541.378 Y-74.143
X-541.415 Y-74.288
X-541.437 Y-74.437
X-541.445 Y-74.586
X-541.439 Y-74.736
X-541.419 Y-74.885
X-541.384 Y-75.031
X-541.336 Y-75.173
X-541.275 Y-75.31
X-541.202 Y-75.441
X-541.117 Y-75.564
X-541.021 Y-75.68
X-540.914 Y-75.786
X-540.799 Y-75.882
X-540.676 Y-75.967
X-540.545 Y-76.041
X-540.409 Y-76.103
X-540.267 Y-76.152
X-540.122 Y-76.189
X-539.973 Y-76.213
X-539.824 Y-76.224
X-539.674 Y-76.222
X-539.525 Y-76.208
X-539.377 Y-76.18
X-539.233 Y-76.14
X-539.092 Y-76.088
X-538.956 Y-76.025
X-538.826 Y-75.95
X-538.703 Y-75.865
X-538.587 Y-75.769
X-538.479 Y-75.665
X-538.381 Y-75.552
X-538.291 Y-75.431
X-538.212 Y-75.304
X-538.144 Y-75.17
X-538.086 Y-75.032
X-538.04 Y-74.889
X-538.005 Y-74.743
X-537.982 Y-74.595
X-537.971 Y-74.445
Y-74.295
X-537.983 Y-74.146
X-538.007 Y-73.998
X-538.042 Y-73.852
X-538.088 Y-73.709
X-538.145 Y-73.57
X-538.212 Y-73.436
X-538.289 Y-73.308
X-538.376 Y-73.185
X-538.472 Y-73.07
X-538.576 Y-72.962
X-538.688 Y-72.862
X-538.807 Y-72.771
X-538.932 Y-72.688
X-539.063 Y-72.615
X-539.2 Y-72.552
X-539.34 Y-72.499
X-539.484 Y-72.457
X-539.63 Y-72.425
X-539.779 Y-72.403
X-539.928 Y-72.392
X-540.078
X-540.228 Y-72.403
X-540.376 Y-72.424
X-540.523 Y-72.456
X-540.667 Y-72.498
X-540.808 Y-72.549
X-540.945 Y-72.611
X-541.077 Y-72.682
X-541.204 Y-72.762
X-541.325 Y-72.85
X-541.44 Y-72.947
X-541.548 Y-73.051
X-541.648 Y-73.163
X-541.741 Y-73.28
X-541.825 Y-73.404
X-541.901 Y-73.534
X-541.969 Y-73.668
X-542.027 Y-73.806
X-542.076 Y-73.948
X-542.115 Y-74.093
X-542.144 Y-74.24
X-542.164 Y-74.388
X-542.174 Y-74.538
Y-74.688
X-542.165 Y-74.838
X-542.146 Y-74.986
X-542.117 Y-75.134
X-542.079 Y-75.279
X-542.032 Y-75.421
X-541.975 Y-75.56
X-541.91 Y-75.695
X-541.836 Y-75.826
X-541.755 Y-75.952
X-541.665 Y-76.072
X-541.568 Y-76.186
X-541.464 Y-76.295
X-541.354 Y-76.396
X-541.237 Y-76.491
X-541.115 Y-76.578
X-540.988 Y-76.657
X-540.856 Y-76.728
X-540.72 Y-76.791
X-540.58 Y-76.846
X-540.437 Y-76.891
X-540.292 Y-76.929
X-540.144 Y-76.957
X-539.996 Y-76.976
X-539.846 Y-76.986
X-539.696 Y-76.988
X-539.546 Y-76.98
X-539.397 Y-76.963
X-539.249 Y-76.938
X-539.103 Y-76.904
X-538.959 Y-76.861
X-538.818 Y-76.81
X-538.681 Y-76.75
X-538.547 Y-76.683
X-538.417 Y-76.608
X-538.292 Y-76.525
X-538.171 Y-76.435
X-538.057 Y-76.339
X-537.948 Y-76.236
X-537.845 Y-76.127
X-537.748 Y-76.012
X-537.658 Y-75.892
X-537.575 Y-75.767
X-537.5 Y-75.637
X-537.431 Y-75.502
X-537.371 Y-75.365
X-537.318 Y-75.224
X-537.274 Y-75.08
X-537.237 Y-74.932
X-537.208 Y-74.784
X-537.189 Y-74.635
X-537.177 Y-74.481
X-537.174 Y-74.328
X-537.18 Y-74.177
X-537.194 Y-74.025
X-537.217 Y-73.87
X-537.249 Y-73.719
X-537.289 Y-73.571
X-537.337 Y-73.424
X-537.395 Y-73.277
X-537.461 Y-73.135
X-537.533 Y-72.999
X-537.614 Y-72.865
X-537.704 Y-72.733
X-537.801 Y-72.608
X-537.904 Y-72.489
X-538.013 Y-72.376
X-538.132 Y-72.267
X-538.256 Y-72.165
X-538.384 Y-72.071
X-538.517 Y-71.984
X-538.657 Y-71.904
X-538.803 Y-71.831
X-538.952 Y-71.767
X-539.103 Y-71.712
X-539.258 Y-71.665
X-539.417 Y-71.626
X-539.58 Y-71.597
X-539.742 Y-71.576
X-539.904 Y-71.565
X-540.069 Y-71.563
X-540.235 Y-71.57
X-540.401 Y-71.587
X-540.565 Y-71.613
X-540.727 Y-71.648
X-540.887 Y-71.692
X-541.047 Y-71.746
X-541.204 Y-71.809
X-541.357 Y-71.88
X-541.505 Y-71.96
X-541.648 Y-72.048
X-541.788 Y-72.145
X-541.923 Y-72.25
X-542.052 Y-72.364
X-542.174 Y-72.484
X-542.29 Y-72.611
X-542.398 Y-72.743
X-542.498 Y-72.883
X-542.592 Y-73.029
X-542.678 Y-73.181
X-542.755 Y-73.338
X-542.823 Y-73.499
X-542.882 Y-73.663
X-542.931 Y-73.83
X-542.972 Y-74.001
X-543.002 Y-74.176
X-543.024 Y-74.352
X-543.035 Y-74.53
X-543.036 Y-74.708
X-543.027 Y-74.886
X-543.008 Y-75.063
X-542.979 Y-75.239
X-542.94 Y-75.414
X-542.891 Y-75.587
X-542.832 Y-75.759
X-542.763 Y-75.927
X-542.685 Y-76.092
X-542.597 Y-76.251
X-542.501 Y-76.406
X-542.396 Y-76.555
X-542.283 Y-76.698
X-542.161 Y-76.835
X-542.031 Y-76.966
X-541.893 Y-77.09
X-541.748 Y-77.206
X-541.597 Y-77.314
X-541.439 Y-77.414
X-541.275 Y-77.504
X-541.107 Y-77.586
X-540.933 Y-77.658
X-540.756 Y-77.72
X-540.575 Y-77.773
X-540.391 Y-77.815
X-540.205 Y-77.846
X-540.016 Y-77.868
X-539.827 Y-77.878
X-539.636
X-539.445 Y-77.867
X-539.254 Y-77.846
X-539.064 Y-77.813
X-538.876 Y-77.77
X-538.69 Y-77.716
X-538.507 Y-77.652
X-538.328 Y-77.577
X-538.152 Y-77.492
X-537.981 Y-77.397
X-537.816 Y-77.293
X-537.656 Y-77.179
X-537.502 Y-77.055
X-537.356 Y-76.923
X-537.216 Y-76.783
X-537.085 Y-76.635
X-536.961 Y-76.479
X-536.847 Y-76.316
X-536.741 Y-76.147
X-536.645 Y-75.971
X-536.559 Y-75.79
X-536.483 Y-75.603
X-536.417 Y-75.413
X-536.363 Y-75.218
X-536.319 Y-75.02
X-536.286 Y-74.82
X-536.264 Y-74.617
X-536.254 Y-74.413
X-536.256 Y-74.209
X-536.268 Y-74.004
X-536.293 Y-73.8
X-536.329 Y-73.597
X-536.376 Y-73.396
X-536.426 Y-73.23
X-536.446 Y-73.17
X-536.482 Y-73.065
X-536.512 Y-72.98
X-536.557 Y-72.871
X-536.622 Y-72.762
X-536.964 Y-72.218
X-537.005 Y-72.164
X-537.056 Y-72.11
X-537.519 Y-71.647
X-537.573 Y-71.596
X-537.627 Y-71.556
X-538.172 Y-71.214
X-538.28 Y-71.149
X-538.389 Y-71.106
X-538.824 Y-70.953
X-539.042 Y-70.878
X-539.26 Y-70.845
X-539.695 Y-70.796
X-539.913 Y-70.777
X-540.13 Y-70.798
X-540.674 Y-70.859
X-540.783 Y-70.883
X-541.436 Y-71.111
X-541.545 Y-71.158
X-541.678 Y-71.239
X-542.089 Y-71.498
X-542.198 Y-71.567
X-542.307 Y-71.663
X-542.753 Y-72.11
X-542.804 Y-72.164
X-542.846 Y-72.218
X-543.188 Y-72.762
X-543.254 Y-72.871
X-543.298 Y-72.98
X-543.525 Y-73.633
X-543.547 Y-73.742
X-543.613 Y-74.321
X-543.628 Y-74.503
X-543.613 Y-74.679
X-543.546 Y-75.265
X-543.523 Y-75.374
X-543.295 Y-76.026
X-543.25 Y-76.135
X-543.177 Y-76.255
X-542.911 Y-76.679
X-542.841 Y-76.788
X-542.798 Y-76.842
X-542.742 Y-76.902
X-542.307 Y-77.337
X-542.198 Y-77.432
X-542.089 Y-77.502
X-541.654 Y-77.776
X-541.545 Y-77.842
X-541.436 Y-77.889
X-540.783 Y-78.117
X-540.674 Y-78.141
X-540.13 Y-78.202
X-539.913 Y-78.223
X-539.679 Y-78.202
X-539.26 Y-78.155
X-539.042 Y-78.122
X-538.648 Y-77.985
X-538.389 Y-77.894
X-538.28 Y-77.851
X-538.172 Y-77.786
X-537.627 Y-77.444
X-537.573 Y-77.403
X-537.519 Y-77.353
X-537.062 Y-76.897
X-537.01 Y-76.842
X-536.968 Y-76.788
X-536.626 Y-76.244
X-536.56 Y-76.135
X-536.515 Y-76.026
X-536.287 Y-75.374
X-536.264 Y-75.265
X-536.202 Y-74.721
X-536.182 Y-74.503
X-536.201 Y-74.286
X-536.263 Y-73.742
X-536.285 Y-73.633
X-536.446 Y-73.17
G3 X-536.572 Y-72.972 I-0.559 J-0.218
G1 X-536.637 Y-72.904 Z9.007
X-536.7 Y-72.838 Z9.029
X-536.76 Y-72.776 Z9.065
X-536.816 Y-72.718 Z9.115
X-536.865 Y-72.666 Z9.176
X-536.908 Y-72.622 Z9.247
X-536.942 Y-72.586 Z9.328
X-536.967 Y-72.56 Z9.415
X-536.982 Y-72.544 Z9.506
X-536.987 Y-72.539 Z9.6
G0 Z33

(2D Contour4)
S8000 M3
M9
X-539.905 Y-74.5
Z33
Z23
G1 Z9 F850
G3 X-539.605 Y-74.8 I0.3
G1 X-535.955
G3 X-535.655 Y-74.5 J0.3
X-544.155 I-4.25
X-535.655 I4.25
X-544.155 I-4.25
X-535.655 I4.25
X-536.255 Y-73.9 I-0.6
G1 X-536.855
G18 G3 X-537.455 Z9.6 K0.6
G0 Z33
G17

(2d adpative)
S6000 M3
M9
G0 X-937.905 Y-74.501
Z33
Z23
Z18.65
G1 Z18.05 F850
Z9
X-937.917 Y-74.536
X-937.889 Y-74.56
X-937.853 Y-74.549
X-937.83 Y-74.519
X-937.826 Y-74.482
X-937.839 Y-74.447
X-937.868 Y-74.423
X-937.904 Y-74.413
X-937.941 Y-74.419
X-937.971 Y-74.44
X-937.991 Y-74.473
X-937.997 Y-74.51
X-937.993 Y-74.547
X-937.978 Y-74.581
X-937.952 Y-74.608
X-937.919 Y-74.626
X-937.882 Y-74.632
X-937.845 Y-74.628
X-937.81 Y-74.613
X-937.751 Y-74.567
X-937.723 Y-74.498
X-937.728 Y-74.423
X-937.764 Y-74.357
X-937.822 Y-74.31
X-937.894 Y-74.288
X-937.969 Y-74.294
X-938.037 Y-74.325
X-938.092 Y-74.376
X-938.128 Y-74.442
X-938.142 Y-74.516
X-938.134 Y-74.59
X-938.105 Y-74.66
X-938.058 Y-74.718
X-937.996 Y-74.761
X-937.855 Y-74.81
X-937.707 Y-74.786
X-937.585 Y-74.698
X-937.511 Y-74.567
X-937.494 Y-74.418
X-937.533 Y-74.273
X-937.62 Y-74.152
X-937.744 Y-74.067
X-937.889 Y-74.029
X-938.039 Y-74.038
X-938.179 Y-74.094
X-938.295 Y-74.188
X-938.379 Y-74.312
X-938.424 Y-74.455
X-938.428 Y-74.605
X-938.39 Y-74.75
X-938.318 Y-74.882
X-938.215 Y-74.991
X-938.089 Y-75.072
X-937.947 Y-75.12
X-937.797 Y-75.134
X-937.649 Y-75.111
X-937.509 Y-75.057
X-937.386 Y-74.971
X-937.282 Y-74.863
X-937.206 Y-74.734
X-937.156 Y-74.592
X-937.137 Y-74.444
X-937.148 Y-74.294
X-937.188 Y-74.149
X-937.256 Y-74.016
X-937.346 Y-73.896
X-937.459 Y-73.797
X-937.587 Y-73.718
X-937.727 Y-73.665
X-937.874 Y-73.637
X-938.024 Y-73.635
X-938.172 Y-73.66
X-938.314 Y-73.709
X-938.445 Y-73.781
X-938.563 Y-73.874
X-938.664 Y-73.985
X-938.745 Y-74.111
X-938.806 Y-74.248
X-938.844 Y-74.393
X-938.86 Y-74.543
X-938.853 Y-74.692
X-938.823 Y-74.839
X-938.772 Y-74.981
X-938.701 Y-75.112
X-938.611 Y-75.233
X-938.505 Y-75.339
X-938.385 Y-75.429
X-938.254 Y-75.502
X-938.114 Y-75.555
X-937.968 Y-75.589
X-937.818 Y-75.602
X-937.668 Y-75.595
X-937.521 Y-75.569
X-937.378 Y-75.523
X-937.242 Y-75.458
X-937.116 Y-75.377
X-937.002 Y-75.281
X-936.9 Y-75.17
X-936.813 Y-75.048
X-936.742 Y-74.916
X-936.688 Y-74.776
X-936.651 Y-74.631
X-936.632 Y-74.482
X-936.631 Y-74.332
X-936.648 Y-74.183
X-936.682 Y-74.037
X-936.733 Y-73.896
X-936.8 Y-73.762
X-936.882 Y-73.636
X-936.977 Y-73.52
X-937.085 Y-73.416
X-937.204 Y-73.325
X-937.333 Y-73.247
X-937.469 Y-73.184
X-937.611 Y-73.136
X-937.758 Y-73.105
X-937.907 Y-73.089
X-938.057 Y-73.088
X-938.206 Y-73.104
X-938.353 Y-73.136
X-938.495 Y-73.183
X-938.632 Y-73.244
X-938.762 Y-73.319
X-938.883 Y-73.407
X-938.995 Y-73.507
X-939.097 Y-73.617
X-939.186 Y-73.738
X-939.264 Y-73.866
X-939.328 Y-74.002
X-939.378 Y-74.143
X-939.415 Y-74.288
X-939.437 Y-74.437
X-939.445 Y-74.586
X-939.439 Y-74.736
X-939.419 Y-74.885
X-939.384 Y-75.031
X-939.336 Y-75.173
X-939.275 Y-75.31
X-939.202 Y-75.441
X-939.117 Y-75.564
X-939.021 Y-75.68
X-938.914 Y-75.786
X-938.799 Y-75.882
X-938.676 Y-75.967
X-938.545 Y-76.041
X-938.409 Y-76.103
X-938.267 Y-76.152
X-938.122 Y-76.189
X-937.973 Y-76.213
X-937.824 Y-76.224
X-937.674 Y-76.222
X-937.525 Y-76.208
X-937.377 Y-76.18
X-937.233 Y-76.14
X-937.092 Y-76.088
X-936.956 Y-76.025
X-936.826 Y-75.95
X-936.703 Y-75.865
X-936.587 Y-75.769
X-936.479 Y-75.665
X-936.381 Y-75.552
X-936.291 Y-75.431
X-936.212 Y-75.304
X-936.144 Y-75.17
X-936.086 Y-75.032
X-936.04 Y-74.889
X-936.005 Y-74.743
X-935.982 Y-74.595
X-935.971 Y-74.445
Y-74.295
X-935.983 Y-74.146
X-936.007 Y-73.998
X-936.042 Y-73.852
X-936.088 Y-73.709
X-936.145 Y-73.57
X-936.212 Y-73.436
X-936.289 Y-73.308
X-936.376 Y-73.185
X-936.472 Y-73.07
X-936.576 Y-72.962
X-936.688 Y-72.862
X-936.807 Y-72.771
X-936.932 Y-72.688
X-937.063 Y-72.615
X-937.2 Y-72.552
X-937.34 Y-72.499
X-937.484 Y-72.457
X-937.63 Y-72.425
X-937.779 Y-72.403
X-937.928 Y-72.392
X-938.078
X-938.228 Y-72.403
X-938.376 Y-72.424
X-938.523 Y-72.456
X-938.667 Y-72.498
X-938.808 Y-72.549
X-938.945 Y-72.611
X-939.077 Y-72.682
X-939.204 Y-72.762
X-939.325 Y-72.85
X-939.44 Y-72.947
X-939.548 Y-73.051
X-939.648 Y-73.163
X-939.741 Y-73.28
X-939.825 Y-73.404
X-939.901 Y-73.534
X-939.969 Y-73.668
X-940.027 Y-73.806
X-940.076 Y-73.948
X-940.115 Y-74.093
X-940.144 Y-74.24
X-940.164 Y-74.388
X-940.174 Y-74.538
Y-74.688
X-940.165 Y-74.838
X-940.146 Y-74.986
X-940.117 Y-75.134
X-940.079 Y-75.279
X-940.032 Y-75.421
X-939.975 Y-75.56
X-939.91 Y-75.695
X-939.836 Y-75.826
X-939.755 Y-75.952
X-939.665 Y-76.072
X-939.568 Y-76.186
X-939.464 Y-76.295
X-939.354 Y-76.396
X-939.237 Y-76.491
X-939.115 Y-76.578
X-938.988 Y-76.657
X-938.856 Y-76.728
X-938.72 Y-76.791
X-938.58 Y-76.846
X-938.437 Y-76.891
X-938.292 Y-76.929
X-938.144 Y-76.957
X-937.996 Y-76.976
X-937.846 Y-76.986
X-937.696 Y-76.988
X-937.546 Y-76.98
X-937.397 Y-76.963
X-937.249 Y-76.938
X-937.103 Y-76.904
X-936.959 Y-76.861
X-936.818 Y-76.81
X-936.681 Y-76.75
X-936.547 Y-76.683
X-936.417 Y-76.608
X-936.292 Y-76.525
X-936.171 Y-76.435
X-936.057 Y-76.339
X-935.948 Y-76.236
X-935.845 Y-76.127
X-935.748 Y-76.012
X-935.658 Y-75.892
X-935.575 Y-75.767
X-935.5 Y-75.637
X-935.431 Y-75.502
X-935.371 Y-75.365
X-935.318 Y-75.224
X-935.274 Y-75.08
X-935.237 Y-74.932
X-935.208 Y-74.784
X-935.189 Y-74.635
X-935.177 Y-74.481
X-935.174 Y-74.328
X-935.18 Y-74.177
X-935.194 Y-74.025
X-935.217 Y-73.87
X-935.249 Y-73.719
X-935.289 Y-73.571
X-935.337 Y-73.424
X-935.395 Y-73.277
X-935.461 Y-73.135
X-935.533 Y-72.999
X-935.614 Y-72.865
X-935.704 Y-72.733
X-935.801 Y-72.608
X-935.904 Y-72.489
X-936.013 Y-72.376
X-936.132 Y-72.267
X-936.256 Y-72.165
X-936.384 Y-72.071
X-936.517 Y-71.984
X-936.657 Y-71.904
X-936.803 Y-71.831
X-936.952 Y-71.767
X-937.103 Y-71.712
X-937.258 Y-71.665
X-937.417 Y-71.626
X-937.58 Y-71.597
X-937.742 Y-71.576
X-937.904 Y-71.565
X-938.069 Y-71.563
X-938.235 Y-71.57
X-938.401 Y-71.587
X-938.565 Y-71.613
X-938.727 Y-71.648
X-938.887 Y-71.692
X-939.047 Y-71.746
X-939.204 Y-71.809
X-939.357 Y-71.88
X-939.505 Y-71.96
X-939.648 Y-72.048
X-939.788 Y-72.145
X-939.923 Y-72.25
X-940.052 Y-72.364
X-940.174 Y-72.484
X-940.29 Y-72.611
X-940.398 Y-72.743
X-940.498 Y-72.883
X-940.592 Y-73.029
X-940.678 Y-73.181
X-940.755 Y-73.338
X-940.823 Y-73.499
X-940.882 Y-73.663
X-940.931 Y-73.83
X-940.972 Y-74.001
X-941.002 Y-74.176
X-941.024 Y-74.352
X-941.035 Y-74.53
X-941.036 Y-74.708
X-941.027 Y-74.886
X-941.008 Y-75.063
X-940.979 Y-75.239
X-940.94 Y-75.414
X-940.891 Y-75.587
X-940.832 Y-75.759
X-940.763 Y-75.927
X-940.685 Y-76.092
X-940.597 Y-76.251
X-940.501 Y-76.406
X-940.396 Y-76.555
X-940.283 Y-76.698
X-940.161 Y-76.835
X-940.031 Y-76.966
X-939.893 Y-77.09
X-939.748 Y-77.206
X-939.597 Y-77.314
X-939.439 Y-77.414
X-939.275 Y-77.504
X-939.107 Y-77.586
X-938.933 Y-77.658
X-938.756 Y-77.72
X-938.575 Y-77.773
X-938.391 Y-77.815
X-938.205 Y-77.846
X-938.016 Y-77.868
X-937.827 Y-77.878
X-937.636
X-937.445 Y-77.867
X-937.254 Y-77.846
X-937.064 Y-77.813
X-936.876 Y-77.77
X-936.69 Y-77.716
X-936.507 Y-77.652
X-936.328 Y-77.577
X-936.152 Y-77.492
X-935.981 Y-77.397
X-935.816 Y-77.293
X-935.656 Y-77.179
X-935.502 Y-77.055
X-935.356 Y-76.923
X-935.216 Y-76.783
X-935.085 Y-76.635
X-934.961 Y-76.479
X-934.847 Y-76.316
X-934.741 Y-76.147
X-934.645 Y-75.971
X-934.559 Y-75.79
X-934.483 Y-75.603
X-934.417 Y-75.413
X-934.363 Y-75.218
X-934.319 Y-75.02
X-934.286 Y-74.82
X-934.264 Y-74.617
X-934.254 Y-74.413
X-934.256 Y-74.209
X-934.268 Y-74.004
X-934.293 Y-73.8
X-934.329 Y-73.597
X-934.376 Y-73.396
X-934.426 Y-73.23
X-934.446 Y-73.17
X-934.482 Y-73.065
X-934.512 Y-72.98
X-934.557 Y-72.871
X-934.622 Y-72.762
X-934.964 Y-72.218
X-935.005 Y-72.164
X-935.056 Y-72.11
X-935.519 Y-71.647
X-935.573 Y-71.596
X-935.627 Y-71.556
X-936.172 Y-71.214
X-936.28 Y-71.149
X-936.389 Y-71.106
X-936.824 Y-70.953
X-937.042 Y-70.878
X-937.26 Y-70.845
X-937.695 Y-70.796
X-937.913 Y-70.777
X-938.13 Y-70.798
X-938.674 Y-70.859
X-938.783 Y-70.883
X-939.436 Y-71.111
X-939.545 Y-71.158
X-939.678 Y-71.239
X-940.089 Y-71.498
X-940.198 Y-71.567
X-940.307 Y-71.663
X-940.753 Y-72.11
X-940.804 Y-72.164
X-940.846 Y-72.218
X-941.188 Y-72.762
X-941.254 Y-72.871
X-941.298 Y-72.98
X-941.525 Y-73.633
X-941.547 Y-73.742
X-941.613 Y-74.321
X-941.628 Y-74.503
X-941.613 Y-74.679
X-941.546 Y-75.265
X-941.523 Y-75.374
X-941.295 Y-76.026
X-941.25 Y-76.135
X-941.177 Y-76.255
X-940.911 Y-76.679
X-940.841 Y-76.788
X-940.798 Y-76.842
X-940.742 Y-76.902
X-940.307 Y-77.337
X-940.198 Y-77.432
X-940.089 Y-77.502
X-939.654 Y-77.776
X-939.545 Y-77.842
X-939.436 Y-77.889
X-938.783 Y-78.117
X-938.674 Y-78.141
X-938.13 Y-78.202
X-937.913 Y-78.223
X-937.679 Y-78.202
X-937.26 Y-78.155
X-937.042 Y-78.122
X-936.648 Y-77.985
X-936.389 Y-77.894
X-936.28 Y-77.851
X-936.172 Y-77.786
X-935.627 Y-77.444
X-935.573 Y-77.403
X-935.519 Y-77.353
X-935.062 Y-76.897
X-935.01 Y-76.842
X-934.968 Y-76.788
X-934.626 Y-76.244
X-934.56 Y-76.135
X-934.515 Y-76.026
X-934.287 Y-75.374
X-934.264 Y-75.265
X-934.202 Y-74.721
X-934.182 Y-74.503
X-934.201 Y-74.286
X-934.263 Y-73.742
X-934.285 Y-73.633
X-934.446 Y-73.17
G3 X-934.572 Y-72.972 I-0.559 J-0.218
G1 X-934.637 Y-72.904 Z9.007
X-934.7 Y-72.838 Z9.029
X-934.76 Y-72.776 Z9.065
X-934.816 Y-72.718 Z9.115
X-934.865 Y-72.666 Z9.176
X-934.908 Y-72.622 Z9.247
X-934.942 Y-72.586 Z9.328
X-934.967 Y-72.56 Z9.415
X-934.982 Y-72.544 Z9.506
X-934.987 Y-72.539 Z9.6
G0 Z33

(2D Contour4)
S8000 M3
M9
X-937.905 Y-74.5
Z33
Z23
G1 Z9 F850
G3 X-937.605 Y-74.8 I0.3
G1 X-933.955
G3 X-933.655 Y-74.5 J0.3
X-942.155 I-4.25
X-933.655 I4.25
X-942.155 I-4.25
X-933.655 I4.25
X-934.255 Y-73.9 I-0.6
G1 X-934.855
G18 G3 X-935.455 Z9.6 K0.6
G0 Z33
G17

(2d adpative)
S6000 M3
M9
G0 X-937.905 Y-266.501
Z33
Z23
Z18.65
G1 Z18.05 F850
Z9
X-937.917 Y-266.536
X-937.889 Y-266.56
X-937.853 Y-266.549
X-937.83 Y-266.519
X-937.826 Y-266.482
X-937.839 Y-266.447
X-937.868 Y-266.423
X-937.904 Y-266.413
X-937.941 Y-266.419
X-937.971 Y-266.44
X-937.991 Y-266.473
X-937.997 Y-266.51
X-937.993 Y-266.547
X-937.978 Y-266.581
X-937.952 Y-266.608
X-937.919 Y-266.626
X-937.882 Y-266.632
X-937.845 Y-266.628
X-937.81 Y-266.613
X-937.751 Y-266.567
X-937.723 Y-266.498
X-937.728 Y-266.423
X-937.764 Y-266.357
X-937.822 Y-266.31
X-937.894 Y-266.288
X-937.969 Y-266.294
X-938.037 Y-266.325
X-938.092 Y-266.376
X-938.128 Y-266.442
X-938.142 Y-266.516
X-938.134 Y-266.59
X-938.105 Y-266.66
X-938.058 Y-266.718
X-937.996 Y-266.761
X-937.855 Y-266.81
X-937.707 Y-266.786
X-937.585 Y-266.698
X-937.511 Y-266.567
X-937.494 Y-266.418
X-937.533 Y-266.273
X-937.62 Y-266.152
X-937.744 Y-266.067
X-937.889 Y-266.029
X-938.039 Y-266.038
X-938.179 Y-266.094
X-938.295 Y-266.188
X-938.379 Y-266.312
X-938.424 Y-266.455
X-938.428 Y-266.605
X-938.39 Y-266.75
X-938.318 Y-266.882
X-938.215 Y-266.991
X-938.089 Y-267.072
X-937.947 Y-267.12
X-937.797 Y-267.134
X-937.649 Y-267.111
X-937.509 Y-267.057
X-937.386 Y-266.971
X-937.282 Y-266.863
X-937.206 Y-266.734
X-937.156 Y-266.592
X-937.137 Y-266.444
X-937.148 Y-266.294
X-937.188 Y-266.149
X-937.256 Y-266.016
X-937.346 Y-265.896
X-937.459 Y-265.797
X-937.587 Y-265.718
X-937.727 Y-265.665
X-937.874 Y-265.637
X-938.024 Y-265.635
X-938.172 Y-265.66
X-938.314 Y-265.709
X-938.445 Y-265.781
X-938.563 Y-265.874
X-938.664 Y-265.985
X-938.745 Y-266.111
X-938.806 Y-266.248
X-938.844 Y-266.393
X-938.86 Y-266.543
X-938.853 Y-266.692
X-938.823 Y-266.839
X-938.772 Y-266.981
X-938.701 Y-267.112
X-938.611 Y-267.233
X-938.505 Y-267.339
X-938.385 Y-267.429
X-938.254 Y-267.502
X-938.114 Y-267.555
X-937.968 Y-267.589
X-937.818 Y-267.602
X-937.668 Y-267.595
X-937.521 Y-267.569
X-937.378 Y-267.523
X-937.242 Y-267.458
X-937.116 Y-267.377
X-937.002 Y-267.281
X-936.9 Y-267.17
X-936.813 Y-267.048
X-936.742 Y-266.916
X-936.688 Y-266.776
X-936.651 Y-266.631
X-936.632 Y-266.482
X-936.631 Y-266.332
X-936.648 Y-266.183
X-936.682 Y-266.037
X-936.733 Y-265.896
X-936.8 Y-265.762
X-936.882 Y-265.636
X-936.977 Y-265.52
X-937.085 Y-265.416
X-937.204 Y-265.325
X-937.333 Y-265.247
X-937.469 Y-265.184
X-937.611 Y-265.136
X-937.758 Y-265.105
X-937.907 Y-265.089
X-938.057 Y-265.088
X-938.206 Y-265.104
X-938.353 Y-265.136
X-938.495 Y-265.183
X-938.632 Y-265.244
X-938.762 Y-265.319
X-938.883 Y-265.407
X-938.995 Y-265.507
X-939.097 Y-265.617
X-939.186 Y-265.738
X-939.264 Y-265.866
X-939.328 Y-266.002
X-939.378 Y-266.143
X-939.415 Y-266.288
X-939.437 Y-266.437
X-939.445 Y-266.586
X-939.439 Y-266.736
X-939.419 Y-266.885
X-939.384 Y-267.031
X-939.336 Y-267.173
X-939.275 Y-267.31
X-939.202 Y-267.441
X-939.117 Y-267.564
X-939.021 Y-267.68
X-938.914 Y-267.786
X-938.799 Y-267.882
X-938.676 Y-267.967
X-938.545 Y-268.041
X-938.409 Y-268.103
X-938.267 Y-268.152
X-938.122 Y-268.189
X-937.973 Y-268.213
X-937.824 Y-268.224
X-937.674 Y-268.222
X-937.525 Y-268.208
X-937.377 Y-268.18
X-937.233 Y-268.14
X-937.092 Y-268.088
X-936.956 Y-268.025
X-936.826 Y-267.95
X-936.703 Y-267.865
X-936.587 Y-267.769
X-936.479 Y-267.665
X-936.381 Y-267.552
X-936.291 Y-267.431
X-936.212 Y-267.304
X-936.144 Y-267.17
X-936.086 Y-267.032
X-936.04 Y-266.889
X-936.005 Y-266.743
X-935.982 Y-266.595
X-935.971 Y-266.445
Y-266.295
X-935.983 Y-266.146
X-936.007 Y-265.998
X-936.042 Y-265.852
X-936.088 Y-265.709
X-936.145 Y-265.57
X-936.212 Y-265.436
X-936.289 Y-265.308
X-936.376 Y-265.185
X-936.472 Y-265.07
X-936.576 Y-264.962
X-936.688 Y-264.862
X-936.807 Y-264.771
X-936.932 Y-264.688
X-937.063 Y-264.615
X-937.2 Y-264.552
X-937.34 Y-264.499
X-937.484 Y-264.457
X-937.63 Y-264.425
X-937.779 Y-264.403
X-937.928 Y-264.392
X-938.078
X-938.228 Y-264.403
X-938.376 Y-264.424
X-938.523 Y-264.456
X-938.667 Y-264.498
X-938.808 Y-264.549
X-938.945 Y-264.611
X-939.077 Y-264.682
X-939.204 Y-264.762
X-939.325 Y-264.85
X-939.44 Y-264.947
X-939.548 Y-265.051
X-939.648 Y-265.163
X-939.741 Y-265.28
X-939.825 Y-265.404
X-939.901 Y-265.534
X-939.969 Y-265.668
X-940.027 Y-265.806
X-940.076 Y-265.948
X-940.115 Y-266.093
X-940.144 Y-266.24
X-940.164 Y-266.388
X-940.174 Y-266.538
Y-266.688
X-940.165 Y-266.838
X-940.146 Y-266.986
X-940.117 Y-267.134
X-940.079 Y-267.279
X-940.032 Y-267.421
X-939.975 Y-267.56
X-939.91 Y-267.695
X-939.836 Y-267.826
X-939.755 Y-267.952
X-939.665 Y-268.072
X-939.568 Y-268.186
X-939.464 Y-268.295
X-939.354 Y-268.396
X-939.237 Y-268.491
X-939.115 Y-268.578
X-938.988 Y-268.657
X-938.856 Y-268.728
X-938.72 Y-268.791
X-938.58 Y-268.846
X-938.437 Y-268.891
X-938.292 Y-268.929
X-938.144 Y-268.957
X-937.996 Y-268.976
X-937.846 Y-268.986
X-937.696 Y-268.988
X-937.546 Y-268.98
X-937.397 Y-268.963
X-937.249 Y-268.938
X-937.103 Y-268.904
X-936.959 Y-268.861
X-936.818 Y-268.81
X-936.681 Y-268.75
X-936.547 Y-268.683
X-936.417 Y-268.608
X-936.292 Y-268.525
X-936.171 Y-268.435
X-936.057 Y-268.339
X-935.948 Y-268.236
X-935.845 Y-268.127
X-935.748 Y-268.012
X-935.658 Y-267.892
X-935.575 Y-267.767
X-935.5 Y-267.637
X-935.431 Y-267.502
X-935.371 Y-267.365
X-935.318 Y-267.224
X-935.274 Y-267.08
X-935.237 Y-266.932
X-935.208 Y-266.784
X-935.189 Y-266.635
X-935.177 Y-266.481
X-935.174 Y-266.328
X-935.18 Y-266.177
X-935.194 Y-266.025
X-935.217 Y-265.87
X-935.249 Y-265.719
X-935.289 Y-265.571
X-935.337 Y-265.424
X-935.395 Y-265.277
X-935.461 Y-265.135
X-935.533 Y-264.999
X-935.614 Y-264.865
X-935.704 Y-264.733
X-935.801 Y-264.608
X-935.904 Y-264.489
X-936.013 Y-264.376
X-936.132 Y-264.267
X-936.256 Y-264.165
X-936.384 Y-264.071
X-936.517 Y-263.984
X-936.657 Y-263.904
X-936.803 Y-263.831
X-936.952 Y-263.767
X-937.103 Y-263.712
X-937.258 Y-263.665
X-937.417 Y-263.626
X-937.58 Y-263.597
X-937.742 Y-263.576
X-937.904 Y-263.565
X-938.069 Y-263.563
X-938.235 Y-263.57
X-938.401 Y-263.587
X-938.565 Y-263.613
X-938.727 Y-263.648
X-938.887 Y-263.692
X-939.047 Y-263.746
X-939.204 Y-263.809
X-939.357 Y-263.88
X-939.505 Y-263.96
X-939.648 Y-264.048
X-939.788 Y-264.145
X-939.923 Y-264.25
X-940.052 Y-264.364
X-940.174 Y-264.484
X-940.29 Y-264.611
X-940.398 Y-264.743
X-940.498 Y-264.883
X-940.592 Y-265.029
X-940.678 Y-265.181
X-940.755 Y-265.338
X-940.823 Y-265.499
X-940.882 Y-265.663
X-940.931 Y-265.83
X-940.972 Y-266.001
X-941.002 Y-266.176
X-941.024 Y-266.352
X-941.035 Y-266.53
X-941.036 Y-266.708
X-941.027 Y-266.886
X-941.008 Y-267.063
X-940.979 Y-267.239
X-940.94 Y-267.414
X-940.891 Y-267.587
X-940.832 Y-267.759
X-940.763 Y-267.927
X-940.685 Y-268.092
X-940.597 Y-268.251
X-940.501 Y-268.406
X-940.396 Y-268.555
X-940.283 Y-268.698
X-940.161 Y-268.835
X-940.031 Y-268.966
X-939.893 Y-269.09
X-939.748 Y-269.206
X-939.597 Y-269.314
X-939.439 Y-269.414
X-939.275 Y-269.504
X-939.107 Y-269.586
X-938.933 Y-269.658
X-938.756 Y-269.72
X-938.575 Y-269.773
X-938.391 Y-269.815
X-938.205 Y-269.846
X-938.016 Y-269.868
X-937.827 Y-269.878
X-937.636
X-937.445 Y-269.867
X-937.254 Y-269.846
X-937.064 Y-269.813
X-936.876 Y-269.77
X-936.69 Y-269.716
X-936.507 Y-269.652
X-936.328 Y-269.577
X-936.152 Y-269.492
X-935.981 Y-269.397
X-935.816 Y-269.293
X-935.656 Y-269.179
X-935.502 Y-269.055
X-935.356 Y-268.923
X-935.216 Y-268.783
X-935.085 Y-268.635
X-934.961 Y-268.479
X-934.847 Y-268.316
X-934.741 Y-268.147
X-934.645 Y-267.971
X-934.559 Y-267.79
X-934.483 Y-267.603
X-934.417 Y-267.413
X-934.363 Y-267.218
X-934.319 Y-267.02
X-934.286 Y-266.82
X-934.264 Y-266.617
X-934.254 Y-266.413
X-934.256 Y-266.209
X-934.268 Y-266.004
X-934.293 Y-265.8
X-934.329 Y-265.597
X-934.376 Y-265.396
X-934.426 Y-265.23
X-934.446 Y-265.17
X-934.482 Y-265.065
X-934.512 Y-264.98
X-934.557 Y-264.871
X-934.622 Y-264.762
X-934.964 Y-264.218
X-935.005 Y-264.164
X-935.056 Y-264.11
X-935.519 Y-263.647
X-935.573 Y-263.596
X-935.627 Y-263.556
X-936.172 Y-263.214
X-936.28 Y-263.149
X-936.389 Y-263.106
X-936.824 Y-262.953
X-937.042 Y-262.878
X-937.26 Y-262.845
X-937.695 Y-262.796
X-937.913 Y-262.777
X-938.13 Y-262.798
X-938.674 Y-262.859
X-938.783 Y-262.883
X-939.436 Y-263.111
X-939.545 Y-263.158
X-939.678 Y-263.239
X-940.089 Y-263.498
X-940.198 Y-263.567
X-940.307 Y-263.663
X-940.753 Y-264.11
X-940.804 Y-264.164
X-940.846 Y-264.218
X-941.188 Y-264.762
X-941.254 Y-264.871
X-941.298 Y-264.98
X-941.525 Y-265.633
X-941.547 Y-265.742
X-941.613 Y-266.321
X-941.628 Y-266.503
X-941.613 Y-266.679
X-941.546 Y-267.265
X-941.523 Y-267.374
X-941.295 Y-268.026
X-941.25 Y-268.135
X-941.177 Y-268.255
X-940.911 Y-268.679
X-940.841 Y-268.788
X-940.798 Y-268.842
X-940.742 Y-268.902
X-940.307 Y-269.337
X-940.198 Y-269.432
X-940.089 Y-269.502
X-939.654 Y-269.776
X-939.545 Y-269.842
X-939.436 Y-269.889
X-938.783 Y-270.117
X-938.674 Y-270.141
X-938.13 Y-270.202
X-937.913 Y-270.223
X-937.679 Y-270.202
X-937.26 Y-270.155
X-937.042 Y-270.122
X-936.648 Y-269.985
X-936.389 Y-269.894
X-936.28 Y-269.851
X-936.172 Y-269.786
X-935.627 Y-269.444
X-935.573 Y-269.403
X-935.519 Y-269.353
X-935.062 Y-268.897
X-935.01 Y-268.842
X-934.968 Y-268.788
X-934.626 Y-268.244
X-934.56 Y-268.135
X-934.515 Y-268.026
X-934.287 Y-267.374
X-934.264 Y-267.265
X-934.202 Y-266.721
X-934.182 Y-266.503
X-934.201 Y-266.286
X-934.263 Y-265.742
X-934.285 Y-265.633
X-934.446 Y-265.17
G3 X-934.572 Y-264.972 I-0.559 J-0.218
G1 X-934.637 Y-264.904 Z9.007
X-934.7 Y-264.838 Z9.029
X-934.76 Y-264.776 Z9.065
X-934.816 Y-264.718 Z9.115
X-934.865 Y-264.666 Z9.176
X-934.908 Y-264.622 Z9.247
X-934.942 Y-264.586 Z9.328
X-934.967 Y-264.56 Z9.415
X-934.982 Y-264.544 Z9.506
X-934.987 Y-264.539 Z9.6
G0 Z33

(2D Contour4)
S8000 M3
M9
X-937.905 Y-266.5
Z33
Z23
G1 Z9 F850
G3 X-937.605 Y-266.8 I0.3
G1 X-933.955
G3 X-933.655 Y-266.5 J0.3
X-942.155 I-4.25
X-933.655 I4.25
X-942.155 I-4.25
X-933.655 I4.25
X-934.255 Y-265.9 I-0.6
G1 X-934.855
G18 G3 X-935.455 Z9.6 K0.6
G0 Z33
G17

(2d adpative)
S6000 M3
M9
G0 X-937.905 Y-458.501
Z33
Z23
Z18.65
G1 Z18.05 F850
Z9
X-937.917 Y-458.536
X-937.889 Y-458.56
X-937.853 Y-458.549
X-937.83 Y-458.519
X-937.826 Y-458.482
X-937.839 Y-458.447
X-937.868 Y-458.423
X-937.904 Y-458.413
X-937.941 Y-458.419
X-937.971 Y-458.44
X-937.991 Y-458.473
X-937.997 Y-458.51
X-937.993 Y-458.547
X-937.978 Y-458.581
X-937.952 Y-458.608
X-937.919 Y-458.626
X-937.882 Y-458.632
X-937.845 Y-458.628
X-937.81 Y-458.613
X-937.751 Y-458.567
X-937.723 Y-458.498
X-937.728 Y-458.423
X-937.764 Y-458.357
X-937.822 Y-458.31
X-937.894 Y-458.288
X-937.969 Y-458.294
X-938.037 Y-458.325
X-938.092 Y-458.376
X-938.128 Y-458.442
X-938.142 Y-458.516
X-938.134 Y-458.59
X-938.105 Y-458.66
X-938.058 Y-458.718
X-937.996 Y-458.761
X-937.855 Y-458.81
X-937.707 Y-458.786
X-937.585 Y-458.698
X-937.511 Y-458.567
X-937.494 Y-458.418
X-937.533 Y-458.273
X-937.62 Y-458.152
X-937.744 Y-458.067
X-937.889 Y-458.029
X-938.039 Y-458.038
X-938.179 Y-458.094
X-938.295 Y-458.188
X-938.379 Y-458.312
X-938.424 Y-458.455
X-938.428 Y-458.605
X-938.39 Y-458.75
X-938.318 Y-458.882
X-938.215 Y-458.991
X-938.089 Y-459.072
X-937.947 Y-459.12
X-937.797 Y-459.134
X-937.649 Y-459.111
X-937.509 Y-459.057
X-937.386 Y-458.971
X-937.282 Y-458.863
X-937.206 Y-458.734
X-937.156 Y-458.592
X-937.137 Y-458.444
X-937.148 Y-458.294
X-937.188 Y-458.149
X-937.256 Y-458.016
X-937.346 Y-457.896
X-937.459 Y-457.797
X-937.587 Y-457.718
X-937.727 Y-457.665
X-937.874 Y-457.637
X-938.024 Y-457.635
X-938.172 Y-457.66
X-938.314 Y-457.709
X-938.445 Y-457.781
X-938.563 Y-457.874
X-938.664 Y-457.985
X-938.745 Y-458.111
X-938.806 Y-458.248
X-938.844 Y-458.393
X-938.86 Y-458.543
X-938.853 Y-458.692
X-938.823 Y-458.839
X-938.772 Y-458.981
X-938.701 Y-459.112
X-938.611 Y-459.233
X-938.505 Y-459.339
X-938.385 Y-459.429
X-938.254 Y-459.502
X-938.114 Y-459.555
X-937.968 Y-459.589
X-937.818 Y-459.602
X-937.668 Y-459.595
X-937.521 Y-459.569
X-937.378 Y-459.523
X-937.242 Y-459.458
X-937.116 Y-459.377
X-937.002 Y-459.281
X-936.9 Y-459.17
X-936.813 Y-459.048
X-936.742 Y-458.916
X-936.688 Y-458.776
X-936.651 Y-458.631
X-936.632 Y-458.482
X-936.631 Y-458.332
X-936.648 Y-458.183
X-936.682 Y-458.037
X-936.733 Y-457.896
X-936.8 Y-457.762
X-936.882 Y-457.636
X-936.977 Y-457.52
X-937.085 Y-457.416
X-937.204 Y-457.325
X-937.333 Y-457.247
X-937.469 Y-457.184
X-937.611 Y-457.136
X-937.758 Y-457.105
X-937.907 Y-457.089
X-938.057 Y-457.088
X-938.206 Y-457.104
X-938.353 Y-457.136
X-938.495 Y-457.183
X-938.632 Y-457.244
X-938.762 Y-457.319
X-938.883 Y-457.407
X-938.995 Y-457.507
X-939.097 Y-457.617
X-939.186 Y-457.738
X-939.264 Y-457.866
X-939.328 Y-458.002
X-939.378 Y-458.143
X-939.415 Y-458.288
X-939.437 Y-458.437
X-939.445 Y-458.586
X-939.439 Y-458.736
X-939.419 Y-458.885
X-939.384 Y-459.031
X-939.336 Y-459.173
X-939.275 Y-459.31
X-939.202 Y-459.441
X-939.117 Y-459.564
X-939.021 Y-459.68
X-938.914 Y-459.786
