%
(1001)
(RoadSign_halfsize_facing)
(T1  D=22 CR=0 - ZMIN=-1 - flat end mill)
G90 G94
G17
G21

(Face3)
M9
T1 M6
(22mm Facing Bit)
S5500 M3
G54
M9
G0 X294.249 Y39.222
Z15
Z5
G1 Z1.2 F850
G18 G3 X292.049 Z-1 I-2.2
G1 X281
X29
G17 G2 Y59.235 J10.007
G1 X281
G3 Y79.249 J10.007
G1 X29
G2 Y99.262 J10.007
G1 X281
G3 Y119.275 J10.007
G1 X29
G2 Y139.288 J10.007
G1 X281
G3 Y159.301 J10.007
G1 X29
G2 Y179.315 J10.007
G1 X281
G3 Y199.328 J10.007
G1 X29
G2 Y219.341 J10.007
G1 X281
G18 G2 X283.2 Z1.2 K2.2
G0 Z15
G17
M9
M30
%
