%
(1001)
(z0 top)
(T7  D=16 CR=0 TAPER=45deg - ZMIN=-5.245 - chamfer mill)
G90 G94
G17
G21

(Engrave2)
M9
T7 M6
S6000 M3
G54
M9
G0 X-397.745 Y-86.951
Z15
Z4
G1 Z-1 F850
X-396.708 Y-85.881 Z-2.037
X-397.745 Y-84.845 Z-1
X-396.708 Y-85.881 Z-2.037
X-395.443 Y-85.862 Z-2.017
X-395.224 Z-2.011
X-394.734 Y-85.861 Z-1.997
X-394.229 Y-85.855 Z-1.988
X-393.976 Y-85.849 Z-1.987
X-393.713 Y-85.84 Z-1.989
X-393.45 Y-85.828 Z-1.994
X-393.184 Y-85.812 Z-2.003
X-392.914 Y-85.791 Z-2.016
X-392.64 Y-85.764 Z-2.036
X-392.36 Y-85.732 Z-2.061
X-392.077 Y-85.692 Z-2.094
X-391.785 Y-85.643 Z-2.135
X-391.487 Y-85.586 Z-2.186
X-391.179 Y-85.517 Z-2.248
X-390.877 Y-85.441 Z-2.318
X-390.574 Y-85.356 Z-2.396
X-390.285 Y-85.27 Z-2.476
X-389.999 Y-85.179 Z-2.562
X-389.722 Y-85.088 Z-2.648
X-389.453 Y-84.995 Z-2.736
X-388.947 Y-84.818 Z-2.905
X-388.854 Y-84.784 Z-2.938
X-388.762 Y-84.748 Z-2.972
X-388.615 Y-84.686 Z-3.032
X-388.471 Y-84.62 Z-3.096
X-388.327 Y-84.548 Z-3.166
X-388.184 Y-84.471 Z-3.24
X-388.036 Y-84.387 Z-3.323
X-387.892 Y-84.299 Z-3.409
X-387.749 Y-84.206 Z-3.5
X-387.605 Y-84.107 Z-3.597
X-387.411 Y-83.965 Z-3.737
X-387.219 Y-83.815 Z-3.885
X-387.028 Y-83.656 Z-4.042
X-386.463 Y-83.169 Z-4.522
X-385.614 Y-82.438 Z-5.245
X-384.705 Y-83.247 Z-4.427
X-384.51 Y-83.41 Z-4.262
X-384.316 Y-83.565 Z-4.106
X-384.068 Y-83.749 Z-3.919
X-383.924 Y-83.851 Z-3.818
X-383.779 Y-83.948 Z-3.722
X-383.559 Y-84.087 Z-3.585
X-383.201 Y-84.301 Z-3.374
X-382.968 Y-84.433 Z-3.244
X-382.767 Y-84.543 Z-3.136
X-382.574 Y-84.643 Z-3.038
X-382.414 Y-84.722 Z-2.961
X-382.256 Y-84.795 Z-2.888
X-382.102 Y-84.863 Z-2.822
X-381.932 Y-84.934 Z-2.753
X-381.738 Y-85.01 Z-2.68
X-381.538 Y-85.083 Z-2.609
X-381.318 Y-85.157 Z-2.538
X-381.112 Y-85.222 Z-2.475
X-380.848 Y-85.301 Z-2.401
X-380.688 Y-85.347 Z-2.357
X-380.589 Y-85.374 Z-2.332
X-380.438 Y-85.408 Z-2.3
X-379.977 Y-85.501 Z-2.216
X-379.649 Y-85.564 Z-2.16
X-379.308 Y-85.624 Z-2.108
X-378.992 Y-85.673 Z-2.067
X-378.771 Y-85.703 Z-2.044
X-378.591 Y-85.724 Z-2.027
X-378.406 Y-85.744 Z-2.014
X-378.24 Y-85.759 Z-2.004
X-377.928 Y-85.782 Z-1.991
X-377.737 Y-85.794 Z-1.986
X-377.414 Y-85.809 Z-1.982
X-377.096 Y-85.821 Z-1.983
X-376.65 Y-85.832 Z-1.989
X-376.222 Y-85.842 Z-1.998
X-374.95 Y-85.871 Z-2.026
X-373.924 Y-86.946 Z-1
X-374.95 Y-85.871 Z-2.026
X-373.924 Y-84.845 Z-1
X-374.95 Y-85.871 Z-2.026
X-376.222 Y-85.842 Z-1.998
X-376.65 Y-85.832 Z-1.989
X-377.096 Y-85.821 Z-1.983
X-377.414 Y-85.809 Z-1.982
X-377.737 Y-85.794 Z-1.986
X-377.928 Y-85.782 Z-1.991
X-378.24 Y-85.759 Z-2.004
X-378.406 Y-85.744 Z-2.014
X-378.591 Y-85.724 Z-2.027
X-378.771 Y-85.703 Z-2.044
X-378.992 Y-85.673 Z-2.067
X-379.308 Y-85.624 Z-2.108
X-379.649 Y-85.564 Z-2.16
X-379.977 Y-85.501 Z-2.216
X-380.438 Y-85.408 Z-2.3
X-380.589 Y-85.374 Z-2.332
X-380.688 Y-85.347 Z-2.357
X-380.848 Y-85.301 Z-2.401
X-381.112 Y-85.222 Z-2.475
X-381.318 Y-85.157 Z-2.538
X-381.538 Y-85.083 Z-2.609
X-381.738 Y-85.01 Z-2.68
X-381.932 Y-84.934 Z-2.753
X-382.102 Y-84.863 Z-2.822
X-382.256 Y-84.795 Z-2.888
X-382.414 Y-84.722 Z-2.961
X-382.574 Y-84.643 Z-3.038
X-382.767 Y-84.543 Z-3.136
X-382.968 Y-84.433 Z-3.244
X-383.201 Y-84.301 Z-3.374
X-383.559 Y-84.087 Z-3.585
X-383.779 Y-83.948 Z-3.722
X-383.924 Y-83.851 Z-3.818
X-384.068 Y-83.749 Z-3.919
X-384.316 Y-83.565 Z-4.106
X-384.51 Y-83.41 Z-4.262
X-384.705 Y-83.247 Z-4.427
X-385.614 Y-82.438 Z-5.245
X-385.599 Y-81.851 Z-5.171
X-385.584 Y-81.274 Z-5.103
X-385.568 Y-80.716 Z-5.042
X-385.551 Y-80.158 Z-4.987
X-385.536 Y-79.585 Z-4.937
X-385.522 Y-79.015 Z-4.893
X-385.506 Y-78.228 Z-4.841
X-385.497 Y-77.689 Z-4.811
X-385.489 Y-76.888 Z-4.773
X-385.487 Y-76.554 Z-4.758
X-385.491 Y-75.787 Z-4.726
X-385.5 Y-74.895 Z-4.695
X-385.504 Y-74.602 Z-4.686
X-385.518 Y-73.703 Z-4.666
X-385.524 Y-73.39 Z-4.66
X-385.539 Y-72.485 Z-4.649
X-385.55 Y-71.815 Z-4.646
X-385.568 Y-70.669
X-385.586 Y-69.463 Z-4.652
Y-57.866
X-385.582 Y-57.624 Z-4.655
X-385.571 Y-57.383 Z-4.666
X-385.552 Y-57.142 Z-4.685
X-385.526 Y-56.901 Z-4.711
X-385.492 Y-56.659 Z-4.745
X-385.451 Y-56.418 Z-4.786
X-385.403 Y-56.177 Z-4.834
X-385.347 Y-55.936 Z-4.89
X-385.403 Y-55.695 Z-4.834
X-385.451 Y-55.453 Z-4.786
X-385.492 Y-55.212 Z-4.745
X-385.526 Y-54.971 Z-4.711
X-385.552 Y-54.73 Z-4.685
X-385.571 Y-54.488 Z-4.666
X-385.582 Y-54.247 Z-4.655
X-385.586 Y-54.006 Z-4.652
Y-44.626
X-385.574 Y-43.153 Z-4.633
X-385.567 Y-42.037 Z-4.625
X-385.564 Y-41.267 Z-4.624
X-385.561 Y-40.417 Z-4.629
X-385.562 Y-39.863 Z-4.636
X-385.564 Y-39.365 Z-4.646
X-385.566 Y-38.886 Z-4.659
X-385.57 Y-38.2 Z-4.683
X-385.577 Y-37.63 Z-4.71
X-385.584 Y-37.067 Z-4.742
X-385.594 Y-36.496 Z-4.78
X-385.605 Y-35.967 Z-4.82
X-385.618 Y-35.485 Z-4.862
X-385.64 Y-34.753 Z-4.933
X-385.648 Y-34.519 Z-4.958
X-385.667 Y-34.054 Z-5.008
X-385.708 Y-33.104 Z-5.118
X-385.717 Y-32.84 Z-5.154
X-385.578 Y-32.722 Z-5.034
X-385.23 Y-32.436 Z-4.747
X-384.947 Y-32.207 Z-4.519
X-384.726 Y-32.032 Z-4.346
X-384.514 Y-31.868 Z-4.183
X-384.238 Y-31.662 Z-3.979
X-384.064 Y-31.536 Z-3.854
X-383.786 Y-31.344 Z-3.664
X-383.697 Y-31.285 Z-3.606
X-383.498 Y-31.157 Z-3.479
X-383.3 Y-31.034 Z-3.358
X-383.155 Y-30.949 Z-3.273
X-382.938 Y-30.826 Z-3.153
X-382.729 Y-30.715 Z-3.044
X-382.528 Y-30.614 Z-2.945
X-382.333 Y-30.521 Z-2.853
X-382.119 Y-30.424 Z-2.758
X-381.85 Y-30.308 Z-2.646
X-381.611 Y-30.21 Z-2.552
X-381.365 Y-30.112 Z-2.456
X-381.246 Y-30.068 Z-2.414
X-381.126 Y-30.028 Z-2.376
X-381.006 Y-29.994 Z-2.344
X-380.882 Y-29.963 Z-2.315
X-380.794 Y-29.945 Z-2.298
X-380.707 Y-29.929 Z-2.284
X-380.071 Y-29.823 Z-2.19
X-379.628 Y-29.754 Z-2.131
X-379.401 Y-29.721 Z-2.103
X-379.169 Y-29.689 Z-2.078
X-378.934 Y-29.66 Z-2.055
X-378.699 Y-29.633 Z-2.035
X-378.456 Y-29.61 Z-2.019
X-378.237 Y-29.591 Z-2.007
X-377.972 Y-29.571 Z-1.996
X-377.784 Y-29.559 Z-1.99
X-377.486 Y-29.543 Z-1.984
X-377.12 Y-29.527 Z-1.982
X-376.687 Y-29.514 Z-1.986
X-376.261 Y-29.506 Z-1.994
X-375.636 Y-29.498 Z-2.012
X-375.445 Y-29.496 Z-2.018
X-374.953 Y-29.485 Z-2.029
X-373.924 Y-30.513 Z-1
X-374.953 Y-29.485 Z-2.029
X-373.925 Y-28.411 Z-1.001
X-374.953 Y-29.485 Z-2.029
X-375.445 Y-29.496 Z-2.018
X-375.636 Y-29.498 Z-2.012
X-376.261 Y-29.506 Z-1.994
X-376.687 Y-29.514 Z-1.986
X-377.12 Y-29.527 Z-1.982
X-377.486 Y-29.543 Z-1.984
X-377.784 Y-29.559 Z-1.99
X-377.972 Y-29.571 Z-1.996
X-378.237 Y-29.591 Z-2.007
X-378.456 Y-29.61 Z-2.019
X-378.699 Y-29.633 Z-2.035
X-378.934 Y-29.66 Z-2.055
X-379.169 Y-29.689 Z-2.078
X-379.401 Y-29.721 Z-2.103
X-379.628 Y-29.754 Z-2.131
X-380.071 Y-29.823 Z-2.19
X-380.707 Y-29.929 Z-2.284
X-380.794 Y-29.945 Z-2.298
X-380.882 Y-29.963 Z-2.315
X-381.006 Y-29.994 Z-2.344
X-381.126 Y-30.028 Z-2.376
X-381.246 Y-30.068 Z-2.414
X-381.365 Y-30.112 Z-2.456
X-381.611 Y-30.21 Z-2.552
X-381.85 Y-30.308 Z-2.646
X-382.119 Y-30.424 Z-2.758
X-382.333 Y-30.521 Z-2.853
X-382.528 Y-30.614 Z-2.945
X-382.729 Y-30.715 Z-3.044
X-382.938 Y-30.826 Z-3.153
X-383.155 Y-30.949 Z-3.273
X-383.3 Y-31.034 Z-3.358
X-383.498 Y-31.157 Z-3.479
X-383.697 Y-31.285 Z-3.606
X-383.786 Y-31.344 Z-3.664
X-384.064 Y-31.536 Z-3.854
X-384.238 Y-31.662 Z-3.979
X-384.514 Y-31.868 Z-4.183
X-384.726 Y-32.032 Z-4.346
X-384.947 Y-32.207 Z-4.519
X-385.23 Y-32.436 Z-4.747
X-385.578 Y-32.722 Z-5.034
X-385.717 Y-32.84 Z-5.154
X-386.592 Y-32.1 Z-4.42
X-387.254 Y-31.544 Z-3.87
X-387.405 Y-31.426 Z-3.752
X-387.581 Y-31.296 Z-3.624
X-387.757 Y-31.173 Z-3.503
X-387.936 Y-31.057 Z-3.389
X-388.112 Y-30.951 Z-3.284
X-388.288 Y-30.854 Z-3.189
X-388.467 Y-30.762 Z-3.099
X-388.61 Y-30.696 Z-3.034
X-388.753 Y-30.634 Z-2.974
X-388.999 Y-30.54 Z-2.883
X-389.531 Y-30.344 Z-2.694
X-389.601 Y-30.318 Z-2.669
X-389.858 Y-30.228 Z-2.583
X-390.125 Y-30.137 Z-2.496
X-390.393 Y-30.051 Z-2.415
X-390.678 Y-29.966 Z-2.335
X-390.961 Y-29.889 Z-2.263
X-391.25 Y-29.818 Z-2.198
X-391.536 Y-29.757 Z-2.143
X-391.811 Y-29.706 Z-2.099
X-392.08 Y-29.664 Z-2.064
X-392.342 Y-29.63 Z-2.036
X-392.599 Y-29.602 Z-2.015
X-392.85 Y-29.579 Z-1.999
X-393.098 Y-29.561 Z-1.989
X-393.342 Y-29.547 Z-1.982
X-393.582 Y-29.537 Z-1.979
X-393.819 Y-29.529 Z-1.978
X-394.283 Y-29.52 Z-1.984
X-394.855 Y-29.514 Z-1.998
X-394.937 Z-2
X-396.713 Y-29.481 Z-2.032
X-397.745 Y-30.513 Z-1
X-396.713 Y-29.481 Z-2.032
X-397.745 Y-28.409 Z-1
G0 Z5
X-385.347 Y-55.936
Z4
G1 Z-4.89 F850
X-385.092 Z-4.667
X-384.843 Z-4.452
X-384.6 Z-4.247
X-384.361 Z-4.05
X-384.127 Z-3.864
X-383.897 Z-3.687
X-383.672 Z-3.52
X-383.449 Z-3.365
X-383.229 Z-3.222
X-383.012 Z-3.093
X-382.905 Z-3.033
X-382.797 Z-2.978
X-382.691 Z-2.927
X-382.584 Z-2.88
X-382.478 Z-2.837
X-382.373 Z-2.799
X-382.267 Z-2.766
X-382.162 Z-2.738
X-382.057 Z-2.716
X-381.953 Z-2.699
X-381.848 Z-2.687
X-381.742 Z-2.681
X-378.472 Y-55.935 Z-2.583
X-376.247 Y-55.934 Z-2.524
X-375.194 Z-2.499
X-373.552 Z-2.465
X-372.308 Z-2.445
X-370.734 Z-2.425
X-369.162 Z-2.411
X-367.591 Z-2.401
X-365.238 Y-55.935 Z-2.393
X-362.88 Y-55.936 Z-2.39
X-360.844 Y-55.935 Z-2.393
X-358.938 Y-55.934 Z-2.401
X-357.095 Z-2.414
X-355.842 Y-55.933 Z-2.429
X-354.593 Z-2.449
X-353.663 Z-2.468
X-352.705 Y-55.932 Z-2.492
X-351.452 Y-55.933 Z-2.528
X-350.201 Z-2.569
X-348.327 Y-55.935 Z-2.635
X-347.079 Y-55.936 Z-2.681
X-346.975 Z-2.688
X-346.871 Z-2.7
X-346.767 Z-2.718
X-346.662 Z-2.741
X-346.557 Z-2.77
X-346.452 Z-2.803
X-346.347 Z-2.841
X-346.242 Z-2.884
X-346.136 Z-2.932
X-346.03 Z-2.983
X-345.923 Z-3.039
X-345.816 Z-3.098
X-345.599 Z-3.228
X-345.381 Z-3.37
X-345.159 Z-3.525
X-344.934 Z-3.691
X-344.705 Z-3.867
X-344.472 Z-4.053
X-344.234 Z-4.249
X-343.992 Z-4.454
X-343.744 Z-4.667
X-343.49 Z-4.89
X-343.434 Y-55.695 Z-4.834
X-343.386 Y-55.453 Z-4.786
X-343.345 Y-55.212 Z-4.745
X-343.311 Y-54.971 Z-4.711
X-343.285 Y-54.73 Z-4.685
X-343.266 Y-54.488 Z-4.666
X-343.255 Y-54.247 Z-4.655
X-343.251 Y-54.006 Z-4.652
Y-45.962
X-343.256 Y-44.978
X-343.264 Y-43.484 Z-4.656
X-343.271 Y-42.477 Z-4.663
X-343.281 Y-41.331 Z-4.676
X-343.291 Y-40.296 Z-4.696
X-343.302 Y-39.455 Z-4.717
X-343.31 Y-38.952 Z-4.733
X-343.321 Y-38.216 Z-4.761
X-343.335 Y-37.416 Z-4.795
X-343.348 Y-36.665 Z-4.832
X-343.368 Y-35.643 Z-4.888
X-343.397 Y-34.122 Z-4.977
X-343.403 Y-33.758 Z-5
Y-33.623 Z-5.012
X-343.402 Y-33.418 Z-5.035
X-343.404 Y-33.109 Z-5.075
X-343.405 Y-32.807 Z-5.119
X-343.598 Y-32.646 Z-4.957
X-343.849 Y-32.438 Z-4.751
X-344.104 Y-32.233 Z-4.547
X-344.292 Y-32.085 Z-4.401
X-344.538 Y-31.898 Z-4.215
X-344.781 Y-31.72 Z-4.039
X-345.044 Y-31.536 Z-3.857
X-345.278 Y-31.38 Z-3.703
X-345.552 Y-31.207 Z-3.531
X-345.655 Y-31.144 Z-3.47
X-345.885 Y-31.009 Z-3.337
X-346.119 Y-30.879 Z-3.209
X-346.325 Y-30.77 Z-3.102
X-346.57 Y-30.646 Z-2.981
X-346.844 Y-30.514 Z-2.852
X-347.147 Y-30.375 Z-2.717
X-347.413 Y-30.255 Z-2.601
X-347.538 Y-30.202 Z-2.549
X-347.663 Y-30.154 Z-2.503
X-347.812 Y-30.104 Z-2.455
X-347.957 Y-30.061 Z-2.414
X-348.102 Y-30.025 Z-2.381
X-348.623 Y-29.91 Z-2.275
X-348.83 Y-29.866 Z-2.235
X-349.172 Y-29.797 Z-2.173
X-349.391 Y-29.756 Z-2.137
X-349.595 Y-29.721 Z-2.107
X-349.802 Y-29.688 Z-2.079
X-350.014 Y-29.658 Z-2.055
X-350.179 Y-29.638 Z-2.039
X-350.431 Y-29.611 Z-2.018
X-350.634 Y-29.592 Z-2.006
X-350.834 Y-29.576 Z-1.996
X-351.059 Y-29.562 Z-1.988
X-351.417 Y-29.544 Z-1.982
X-351.794 Y-29.532
X-352.158 Y-29.524 Z-1.986
X-352.679 Y-29.516 Z-1.998
X-354.38 Y-29.483 Z-2.031
X-355.411 Y-28.41 Z-1
X-354.38 Y-29.483 Z-2.031
X-355.411 Y-30.513 Z-1
X-354.38 Y-29.483 Z-2.031
X-352.679 Y-29.516 Z-1.998
X-352.158 Y-29.524 Z-1.986
X-351.794 Y-29.532 Z-1.982
X-351.417 Y-29.544
X-351.059 Y-29.562 Z-1.988
X-350.834 Y-29.576 Z-1.996
X-350.634 Y-29.592 Z-2.006
X-350.431 Y-29.611 Z-2.018
X-350.179 Y-29.638 Z-2.039
X-350.014 Y-29.658 Z-2.055
X-349.802 Y-29.688 Z-2.079
X-349.595 Y-29.721 Z-2.107
X-349.391 Y-29.756 Z-2.137
X-349.172 Y-29.797 Z-2.173
X-348.83 Y-29.866 Z-2.235
X-348.623 Y-29.91 Z-2.275
X-348.102 Y-30.025 Z-2.381
X-347.957 Y-30.061 Z-2.414
X-347.812 Y-30.104 Z-2.455
X-347.663 Y-30.154 Z-2.503
X-347.538 Y-30.202 Z-2.549
X-347.413 Y-30.255 Z-2.601
X-347.147 Y-30.375 Z-2.717
X-346.844 Y-30.514 Z-2.852
X-346.57 Y-30.646 Z-2.981
X-346.325 Y-30.77 Z-3.102
X-346.119 Y-30.879 Z-3.209
X-345.885 Y-31.009 Z-3.337
X-345.655 Y-31.144 Z-3.47
X-345.552 Y-31.207 Z-3.531
X-345.278 Y-31.38 Z-3.703
X-345.044 Y-31.536 Z-3.857
X-344.781 Y-31.72 Z-4.039
X-344.538 Y-31.898 Z-4.215
X-344.292 Y-32.085 Z-4.401
X-344.104 Y-32.233 Z-4.547
X-343.849 Y-32.438 Z-4.751
X-343.598 Y-32.646 Z-4.957
X-343.405 Y-32.807 Z-5.119
X-343.104 Y-32.552 Z-4.865
X-342.792 Y-32.296 Z-4.612
X-342.535 Y-32.092 Z-4.409
X-342.322 Y-31.928 Z-4.247
X-342.079 Y-31.748 Z-4.069
X-341.956 Y-31.659 Z-3.981
X-341.697 Y-31.479 Z-3.802
X-341.443 Y-31.31 Z-3.636
X-341.197 Y-31.155 Z-3.483
X-340.961 Y-31.014 Z-3.343
X-340.751 Y-30.894 Z-3.225
X-340.565 Y-30.792 Z-3.125
X-340.369 Y-30.688 Z-3.023
X-340.194 Y-30.599 Z-2.936
X-339.87 Y-30.439 Z-2.78
X-339.502 Y-30.265 Z-2.611
X-339.337 Y-30.192 Z-2.54
X-339.205 Y-30.139 Z-2.489
X-339.072 Y-30.093 Z-2.444
X-338.939 Y-30.052 Z-2.406
X-338.803 Y-30.016 Z-2.371
X-338.703 Y-29.993 Z-2.351
X-338.142 Y-29.877 Z-2.244
X-337.744 Y-29.8 Z-2.174
X-337.539 Y-29.762 Z-2.142
X-337.328 Y-29.727 Z-2.111
X-337.112 Y-29.693 Z-2.082
X-336.898 Y-29.663 Z-2.057
X-336.665 Y-29.635 Z-2.034
X-336.471 Y-29.614 Z-2.019
X-336.265 Y-29.595 Z-2.005
X-336.059 Y-29.579 Z-1.995
X-335.859 Y-29.565 Z-1.987
X-335.596 Y-29.551 Z-1.98
X-335.268 Y-29.538 Z-1.977
X-334.886 Y-29.527 Z-1.979
X-334.514 Y-29.521 Z-1.985
X-333.459 Y-29.507 Z-2.007
X-332.124 Y-29.482 Z-2.032
X-331.092 Y-30.513 Z-1
X-332.124 Y-29.482 Z-2.032
X-331.092 Y-28.409 Z-1
G0 Z5
X-355.411 Y-86.948
Z4
G1 Z-1 F850
X-354.38 Y-85.875 Z-2.031
X-355.411 Y-84.845 Z-1
X-354.38 Y-85.875 Z-2.031
X-353.004 Y-85.849 Z-2.004
X-352.641 Y-85.843 Z-1.996
X-352.094 Y-85.836 Z-1.984
X-351.719 Y-85.827 Z-1.98
X-351.506 Y-85.82
X-351.136 Y-85.803 Z-1.985
X-350.936 Y-85.791 Z-1.991
X-350.83 Y-85.784 Z-1.995
X-350.529 Y-85.76 Z-2.01
X-350.322 Y-85.74 Z-2.024
X-350.11 Y-85.717 Z-2.042
X-349.896 Y-85.689 Z-2.063
X-349.744 Y-85.667 Z-2.081
X-349.464 Y-85.623 Z-2.119
X-349.254 Y-85.587 Z-2.151
X-349.05 Y-85.549 Z-2.184
X-348.657 Y-85.47 Z-2.255
X-348.114 Y-85.355 Z-2.36
X-347.961 Y-85.319 Z-2.393
X-347.831 Y-85.283 Z-2.427
X-347.701 Y-85.242 Z-2.467
X-347.571 Y-85.195 Z-2.512
X-347.422 Y-85.134 Z-2.571
X-347.277 Y-85.068 Z-2.635
X-346.879 Y-84.876 Z-2.821
X-346.558 Y-84.717 Z-2.977
X-346.487 Y-84.68 Z-3.013
X-346.192 Y-84.525 Z-3.166
X-345.987 Y-84.411 Z-3.278
X-345.896 Y-84.359 Z-3.328
X-345.655 Y-84.218 Z-3.468
X-345.406 Y-84.063 Z-3.62
X-345.149 Y-83.897 Z-3.785
X-344.865 Y-83.702 Z-3.978
X-344.742 Y-83.615 Z-4.064
X-344.524 Y-83.456 Z-4.222
X-344.317 Y-83.3 Z-4.377
X-344.029 Y-83.075 Z-4.6
X-343.776 Y-82.871 Z-4.802
X-343.47 Y-82.617 Z-5.055
X-343.255 Y-82.433 Z-5.238
X-342.689 Y-82.922 Z-4.747
X-341.922 Y-83.592 Z-4.081
X-341.794 Y-83.701 Z-3.972
X-341.666 Y-83.806 Z-3.868
X-341.5 Y-83.936 Z-3.739
X-341.337 Y-84.057 Z-3.62
X-341.173 Y-84.171 Z-3.507
X-341.007 Y-84.279 Z-3.4
X-340.844 Y-84.379 Z-3.301
X-340.68 Y-84.471 Z-3.21
X-340.514 Y-84.558 Z-3.124
X-340.35 Y-84.636 Z-3.047
X-340.186 Y-84.708 Z-2.977
X-339.861 Y-84.835 Z-2.853
X-339.4 Y-85.009 Z-2.684
X-339.198 Y-85.082 Z-2.613
X-338.904 Y-85.186 Z-2.513
X-338.635 Y-85.276 Z-2.427
X-338.369 Y-85.359 Z-2.348
X-338.09 Y-85.438 Z-2.273
X-337.807 Y-85.511 Z-2.205
X-337.516 Y-85.577 Z-2.145
X-337.231 Y-85.632 Z-2.096
X-336.96 Y-85.677 Z-2.057
X-336.725 Y-85.709 Z-2.03
X-336.429 Y-85.744 Z-2.003
X-336.23 Y-85.762 Z-1.99
X-335.921 Y-85.786 Z-1.975
X-335.734 Y-85.797 Z-1.969
X-335.43 Y-85.811 Z-1.965
X-335.167 Y-85.82
X-334.723 Y-85.828 Z-1.971
X-334.064 Y-85.834 Z-1.99
X-333.751 Y-85.84 Z-1.996
X-332.121 Y-85.873 Z-2.029
X-331.092 Y-84.845 Z-1
X-332.121 Y-85.873 Z-2.029
X-331.092 Y-86.948 Z-1
X-332.121 Y-85.873 Z-2.029
X-333.751 Y-85.84 Z-1.996
X-334.064 Y-85.834 Z-1.99
X-334.723 Y-85.828 Z-1.971
X-335.167 Y-85.82 Z-1.965
X-335.43 Y-85.811
X-335.734 Y-85.797 Z-1.969
X-335.921 Y-85.786 Z-1.975
X-336.23 Y-85.762 Z-1.99
X-336.429 Y-85.744 Z-2.003
X-336.725 Y-85.709 Z-2.03
X-336.96 Y-85.677 Z-2.057
X-337.231 Y-85.632 Z-2.096
X-337.516 Y-85.577 Z-2.145
X-337.807 Y-85.511 Z-2.205
X-338.09 Y-85.438 Z-2.273
X-338.369 Y-85.359 Z-2.348
X-338.635 Y-85.276 Z-2.427
X-338.904 Y-85.186 Z-2.513
X-339.198 Y-85.082 Z-2.613
X-339.4 Y-85.009 Z-2.684
X-339.861 Y-84.835 Z-2.853
X-340.186 Y-84.708 Z-2.977
X-340.35 Y-84.636 Z-3.047
X-340.514 Y-84.558 Z-3.124
X-340.68 Y-84.471 Z-3.21
X-340.844 Y-84.379 Z-3.301
X-341.007 Y-84.279 Z-3.4
X-341.173 Y-84.171 Z-3.507
X-341.337 Y-84.057 Z-3.62
X-341.5 Y-83.936 Z-3.739
X-341.666 Y-83.806 Z-3.868
X-341.794 Y-83.701 Z-3.972
X-341.922 Y-83.592 Z-4.081
X-342.689 Y-82.922 Z-4.747
X-343.255 Y-82.433 Z-5.238
X-343.253 Y-82.081 Z-5.188
X-343.255 Y-81.657 Z-5.135
X-343.263 Y-81.308 Z-5.097
X-343.284 Y-80.422 Z-5.01
X-343.293 Y-79.887 Z-4.96
X-343.302 Y-79.357 Z-4.914
X-343.308 Y-78.726 Z-4.865
X-343.312 Y-78.084 Z-4.819
X-343.314 Y-77.442 Z-4.779
X-343.313 Y-76.665 Z-4.737
X-343.311 Y-76.122 Z-4.712
X-343.309 Y-75.546 Z-4.69
X-343.303 Y-74.523 Z-4.662
X-343.3 Y-73.958 Z-4.651
X-343.296 Y-73.43 Z-4.644
X-343.291 Y-72.888 Z-4.638
X-343.287 Y-72.36 Z-4.636
X-343.276 Y-71.228
X-343.258 Y-69.422 Z-4.647
X-343.251 Y-68.681 Z-4.652
Y-68.674
Y-57.866
X-343.255 Y-57.624 Z-4.655
X-343.266 Y-57.383 Z-4.666
X-343.285 Y-57.142 Z-4.685
X-343.311 Y-56.901 Z-4.711
X-343.345 Y-56.659 Z-4.745
X-343.386 Y-56.418 Z-4.786
X-343.434 Y-56.177 Z-4.834
X-343.49 Y-55.936 Z-4.89
G0 Z5
X-246.038 Y-64.176
Z4
G1 Z-4.519 F850
X-246.002 Y-63.823 Z-4.5
X-245.96 Y-63.459 Z-4.476
X-245.91 Y-63.076 Z-4.445
X-245.856 Y-62.724 Z-4.413
X-245.821 Y-62.51 Z-4.392
X-245.758 Y-62.177 Z-4.353
X-245.686 Y-61.826 Z-4.31
X-245.606 Y-61.47 Z-4.263
X-245.516 Y-61.103 Z-4.214
X-245.41 Y-60.702 Z-4.158
X-245.294 Y-60.295 Z-4.103
X-245.166 Y-59.874 Z-4.047
X-245.031 Y-59.457 Z-3.993
X-244.892 Y-59.052 Z-3.945
X-244.746 Y-58.643 Z-3.901
X-244.69 Y-58.492 Z-3.886
X-244.586 Y-58.266 Z-3.846
X-244.412 Y-57.896 Z-3.783
X-244.23 Y-57.52 Z-3.721
X-244.044 Y-57.147 Z-3.661
X-243.858 Y-56.785 Z-3.603
X-243.671 Y-56.434 Z-3.545
X-243.484 Y-56.093 Z-3.487
X-243.295 Y-55.759 Z-3.428
X-243.106 Y-55.436 Z-3.366
X-242.916 Y-55.123 Z-3.302
X-242.852 Y-55.027 Z-3.283
X-242.71 Y-54.827 Z-3.251
X-242.473 Y-54.51 Z-3.194
X-242.281 Y-54.263 Z-3.145
X-242.049 Y-53.978 Z-3.084
X-241.774 Y-53.656 Z-3.011
X-241.537 Y-53.393 Z-2.95
X-241.275 Y-53.117 Z-2.885
X-241.114 Y-52.953 Z-2.847
X-240.888 Y-52.732 Z-2.796
X-240.652 Y-52.511 Z-2.749
X-240.379 Y-52.268 Z-2.699
X-240.175 Y-52.094 Z-2.666
X-239.94 Y-51.902 Z-2.633
X-239.702 Y-51.714 Z-2.603
X-239.37 Y-51.462 Z-2.569
X-239.114 Y-51.274 Z-2.546
X-239.005 Y-51.206 Z-2.529
X-238.767 Y-51.06 Z-2.494
X-238.303 Y-50.783 Z-2.432
X-237.851 Y-50.521 Z-2.374
X-237.608 Y-50.382 Z-2.343
X-237.52 Y-50.334 Z-2.334
X-237.43 Y-50.29 Z-2.328
X-236.953 Y-50.066 Z-2.303
X-236.692 Y-49.946 Z-2.289
X-236.387 Y-49.811 Z-2.272
X-235.981 Y-49.639 Z-2.25
X-235.913 Y-49.611 Z-2.246
X-235.578 Y-49.479 Z-2.23
X-235.368 Y-49.401 Z-2.219
X-235.087 Y-49.303 Z-2.206
X-234.768 Y-49.199 Z-2.194
X-234.509 Y-49.124 Z-2.185
X-234.262 Y-49.058 Z-2.178
X-234.214 Y-49.045 Z-2.176
X-233.919 Y-48.975 Z-2.171
X-233.528 Y-48.896 Z-2.166
X-233.338 Y-48.862 Z-2.163
X-233.051 Y-48.815 Z-2.162
X-232.666 Y-48.761 Z-2.163
X-232.486 Y-48.74
X-232.207 Y-48.708 Z-2.165
X-231.66 Y-48.658 Z-2.169
X-231.126 Y-48.618 Z-2.172
X-230.769 Y-48.596 Z-2.176
X-230.672 Y-48.595 Z-2.181
X-230.058 Y-48.599 Z-2.222
X-229.473 Y-48.609 Z-2.262
X-229.426 Y-48.61 Z-2.266
X-229.085 Y-48.619 Z-2.292
X-228.777 Y-48.647 Z-2.301
X-228.447 Y-48.681 Z-2.313
X-228.113 Y-48.72 Z-2.329
X-227.777 Y-48.763 Z-2.35
X-227.432 Y-48.814 Z-2.375
X-227.084 Y-48.873 Z-2.405
X-226.732 Y-48.939 Z-2.441
X-226.382 Y-49.014 Z-2.482
X-226.005 Y-49.104 Z-2.533
X-225.7 Y-49.184 Z-2.577
X-225.368 Y-49.277 Z-2.628
X-225.04 Y-49.377 Z-2.68
X-224.717 Y-49.481 Z-2.734
X-224.433 Y-49.578 Z-2.782
X-224.277 Y-49.633 Z-2.809
X-223.789 Y-49.815 Z-2.891
X-223.739 Y-49.834 Z-2.899
X-223.211 Y-50.048 Z-2.982
X-222.831 Y-50.213 Z-3.038
X-222.729 Y-50.261 Z-3.056
X-222.634 Y-50.312 Z-3.074
X-222.54 Y-50.365 Z-3.094
X-222.223 Y-50.549 Z-3.167
X-221.826 Y-50.792 Z-3.25
X-221.393 Y-51.075 Z-3.333
X-221.265 Y-51.164 Z-3.355
X-220.938 Y-51.392 Z-3.412
X-220.526 Y-51.699 Z-3.483
X-220.287 Y-51.888 Z-3.523
X-220.016 Y-52.107 Z-3.57
X-219.96 Y-52.154 Z-3.579
X-219.631 Y-52.435 Z-3.638
X-219.295 Y-52.738 Z-3.702
X-219.226 Y-52.801 Z-3.716
X-218.969 Y-53.047 Z-3.769
X-218.721 Y-53.292 Z-3.824
X-218.644 Y-53.37 Z-3.842
X-218.33 Y-53.696 Z-3.92
X-218.035 Y-54.016 Z-4
X-217.744 Y-54.341 Z-4.084
X-217.457 Y-54.672 Z-4.172
X-217.362 Y-54.784 Z-4.203
X-217.216 Y-55.007 Z-4.228
X-216.903 Y-55.499 Z-4.286
X-216.782 Y-55.694 Z-4.31
X-216.582 Y-56.022 Z-4.352
X-216.276 Y-56.535 Z-4.417
X-215.989 Y-57.032 Z-4.477
X-215.837 Y-57.304 Z-4.508
X-215.722 Y-57.519 Z-4.535
X-215.66 Y-57.645 Z-4.553
X-215.455 Y-58.075 Z-4.616
X-215.251 Y-58.523 Z-4.674
X-215.06 Y-58.967 Z-4.724
X-214.886 Y-59.397 Z-4.764
X-214.762 Y-59.728 Z-4.789
X-214.625 Y-60.125 Z-4.809
X-214.497 Y-60.535 Z-4.821
X-214.375 Y-60.967 Z-4.826
X-214.261 Y-61.421 Z-4.825
X-214.148 Y-61.926 Z-4.818
X-214.042 Y-62.465 Z-4.806
X-213.95 Y-63.006 Z-4.793
X-213.87 Y-63.548 Z-4.779
X-213.801 Y-64.092 Z-4.767
X-213.741 Y-64.638 Z-4.756
X-213.685 Y-65.244 Z-4.748
X-213.635 Y-65.871 Z-4.741
X-213.609 Y-66.228 Z-4.739
X-213.612 Y-66.713 Z-4.704
X-213.623 Y-67.47 Z-4.654
X-213.642 Y-68.209 Z-4.605
X-213.675 Y-69.098 Z-4.544
X-213.699 Y-69.636 Z-4.504
X-213.709 Y-69.763 Z-4.495
X-213.754 Y-70.313 Z-4.463
X-213.818 Y-70.969 Z-4.417
X-213.892 Y-71.605 Z-4.365
X-213.978 Y-72.22 Z-4.308
X-214.023 Y-72.493 Z-4.278
X-214.078 Y-72.812 Z-4.245
X-214.127 Y-73.061 Z-4.214
X-214.192 Y-73.381 Z-4.176
X-214.25 Y-73.63 Z-4.141
X-214.329 Y-73.957 Z-4.097
X-214.396 Y-74.208 Z-4.059
X-214.469 Y-74.46 Z-4.019
X-214.572 Y-74.785 Z-3.961
X-214.655 Y-75.04 Z-3.919
X-214.772 Y-75.366 Z-3.857
X-214.866 Y-75.616 Z-3.813
X-214.992 Y-75.931 Z-3.751
X-215.106 Y-76.205 Z-3.7
X-215.239 Y-76.504 Z-3.639
X-215.38 Y-76.808 Z-3.582
X-215.505 Y-77.065 Z-3.53
X-215.736 Y-77.516 Z-3.445
X-215.79 Y-77.616 Z-3.425
X-216.081 Y-78.14 Z-3.329
X-216.396 Y-78.671 Z-3.236
X-216.686 Y-79.135 Z-3.156
X-216.792 Y-79.299 Z-3.131
X-216.994 Y-79.608 Z-3.079
X-217.305 Y-80.071 Z-3.007
X-217.648 Y-80.566 Z-2.934
X-217.967 Y-81.019 Z-2.87
X-218.282 Y-81.373 Z-2.768
X-218.989 Y-82.158 Z-2.541
X-219.093 Y-82.268 Z-2.512
X-219.2 Y-82.372 Z-2.489
X-219.265 Y-82.43 Z-2.478
X-219.331 Y-82.487 Z-2.469
X-219.704 Y-82.797 Z-2.426
X-220.27 Y-83.256 Z-2.358
X-220.622 Y-83.532 Z-2.317
X-220.717 Y-83.605 Z-2.307
X-220.963 Y-83.79 Z-2.278
X-221.311 Y-84.042 Z-2.241
X-221.671 Y-84.291 Z-2.205
X-221.742 Y-84.338 Z-2.199
X-222.037 Y-84.528 Z-2.171
X-222.264 Y-84.668 Z-2.155
X-222.416 Y-84.758 Z-2.141
X-222.804 Y-84.976 Z-2.116
X-223.206 Y-85.178 Z-2.093
X-223.335 Y-85.239 Z-2.089
X-223.617 Y-85.364 Z-2.076
X-223.963 Y-85.505 Z-2.067
X-224.029 Y-85.529 Z-2.065
X-224.45 Y-85.678 Z-2.059
X-224.858 Y-85.801 Z-2.055
X-225.031 Y-85.85 Z-2.056
X-225.273 Y-85.913 Z-2.055
X-225.688 Y-86.011 Z-2.058
X-226.101 Y-86.095 Z-2.062
X-226.237 Y-86.121 Z-2.066
X-226.513 Y-86.169 Z-2.068
X-226.922 Y-86.235 Z-2.075
X-227.491 Y-86.314 Z-2.085
X-228.134 Y-86.391 Z-2.094
X-228.527 Y-86.433 Z-2.097
X-228.656 Y-86.443 Z-2.101
X-228.837 Y-86.448 Z-2.117
X-229.451 Y-86.438 Z-2.188
X-230.124 Y-86.421 Z-2.265
X-230.496 Y-86.409 Z-2.307
X-231.062 Y-86.385 Z-2.376
X-231.355 Y-86.37 Z-2.414
X-231.632 Y-86.332 Z-2.429
X-232.204 Y-86.247 Z-2.466
X-232.781 Y-86.149 Z-2.513
X-233.281 Y-86.053 Z-2.56
X-233.364 Y-86.035 Z-2.569
X-233.857 Y-85.925 Z-2.625
X-233.955 Y-85.901 Z-2.637
X-234.441 Y-85.774 Z-2.701
X-234.557 Y-85.74 Z-2.717
X-234.844 Y-85.654 Z-2.763
X-235.033 Y-85.594 Z-2.79
X-235.163 Y-85.55 Z-2.811
X-235.391 Y-85.47 Z-2.853
X-235.632 Y-85.381 Z-2.893
X-235.776 Y-85.325 Z-2.92
X-235.915 Y-85.268 Z-2.949
X-236.237 Y-85.13 Z-3.01
X-236.413 Y-85.05 Z-3.048
X-236.886 Y-84.816 Z-3.147
X-236.95 Y-84.781 Z-3.161
X-237.393 Y-84.532 Z-3.258
X-237.507 Y-84.463 Z-3.283
X-237.747 Y-84.313 Z-3.338
X-238.034 Y-84.121 Z-3.398
X-238.146 Y-84.043 Z-3.424
X-238.54 Y-83.754 Z-3.507
X-238.947 Y-83.428 Z-3.591
X-239.015 Y-83.37 Z-3.605
X-239.316 Y-83.111 Z-3.668
X-239.472 Y-82.971 Z-3.698
X-239.707 Y-82.756 Z-3.747
X-239.907 Y-82.567 Z-3.785
X-240.099 Y-82.382 Z-3.825
X-240.322 Y-82.16 Z-3.868
X-240.493 Y-81.988 Z-3.903
X-240.894 Y-81.574 Z-3.98
X-241.473 Y-80.959 Z-4.089
X-241.592 Y-80.828 Z-4.113
X-241.708 Y-80.693 Z-4.142
X-241.803 Y-80.576 Z-4.17
X-241.896 Y-80.457 Z-4.2
X-242.219 Y-80.032 Z-4.315
X-242.615 Y-79.349 Z-4.388
X-242.686 Y-79.224 Z-4.402
X-243.011 Y-78.653 Z-4.462
X-243.321 Y-78.093 Z-4.52
X-243.615 Y-77.546 Z-4.575
X-243.931 Y-76.932 Z-4.631
X-244.143 Y-76.497 Z-4.67
X-244.242 Y-76.286 Z-4.686
X-244.376 Y-75.995 Z-4.71
X-244.537 Y-75.625 Z-4.734
X-244.587 Y-75.507 Z-4.743
X-244.778 Y-75.034 Z-4.769
X-244.81 Y-74.948 Z-4.773
X-244.944 Y-74.578 Z-4.789
X-245.058 Y-74.235 Z-4.796
X-245.094 Y-74.124 Z-4.8
X-245.238 Y-73.633 Z-4.805
X-245.27 Y-73.511
X-245.361 Y-73.157 Z-4.807
X-245.449 Y-72.779 Z-4.803
X-245.479 Y-72.643
X-245.597 Y-72.046 Z-4.794
X-245.702 Y-71.427 Z-4.784
X-245.716 Y-71.329 Z-4.782
X-245.77 Y-70.962 Z-4.776
X-245.817 Y-70.601 Z-4.767
X-245.846 Y-70.361 Z-4.764
X-245.914 Y-69.737 Z-4.751
X-245.974 Y-69.096 Z-4.74
X-246.025 Y-68.438 Z-4.73
X-246.072 Y-67.764 Z-4.722
X-246.1 Y-67.291 Z-4.719
X-246.101 Y-67.055 Z-4.705
X-246.099 Y-66.19 Z-4.655
X-246.095 Y-65.772 Z-4.63
X-246.082 Y-65.165 Z-4.59
X-246.077 Y-64.971 Z-4.577
X-246.061 Y-64.523 Z-4.541
X-246.053 Y-64.368 Z-4.53
X-246.038 Y-64.176 Z-4.519
G0 Z5
X-322.953 Y-52.864
Z4
G1 Z-1 F850
X-321.135 Y-53.904 Z-2.803
X-321.334 Y-54.994 Z-2.588
X-321.445 Y-55.608 Z-2.469
X-321.574 Y-56.278 Z-2.35
X-321.764 Y-57.274 Z-2.175
X-321.036 Y-58.685 Z-1.001
X-321.764 Y-57.274 Z-2.175
X-322.952 Y-58.173 Z-1
X-321.764 Y-57.274 Z-2.175
X-321.574 Y-56.278 Z-2.35
X-321.445 Y-55.608 Z-2.469
X-321.334 Y-54.994 Z-2.588
X-321.135 Y-53.904 Z-2.803
X-320.107 Y-52.726 Z-2.287
X-320.014 Y-52.624 Z-2.245
X-319.917 Y-52.527 Z-2.208
X-319.818 Y-52.436 Z-2.178
X-319.715 Y-52.35 Z-2.154
X-319.609 Y-52.27 Z-2.137
X-319.5 Y-52.195 Z-2.126
X-319.388 Y-52.126 Z-2.121
X-318.99 Y-51.894 Z-2.116
X-318.585 Y-51.662 Z-2.115
X-318.298 Y-51.502 Z-2.118
X-318.137 Y-51.414 Z-2.121
X-317.852 Y-51.264 Z-2.129
X-317.679 Y-51.176 Z-2.136
X-317.388 Y-51.034 Z-2.152
X-317.079 Y-50.89 Z-2.172
X-316.778 Y-50.756 Z-2.196
X-316.489 Y-50.631 Z-2.22
X-316.058 Y-50.453 Z-2.255
X-315.845 Y-50.368 Z-2.273
X-315.648 Y-50.298 Z-2.294
X-315.201 Y-50.146 Z-2.341
X-314.986 Y-50.077 Z-2.362
X-314.698 Y-49.989 Z-2.39
X-314.36 Y-49.892 Z-2.423
X-314.105 Y-49.823 Z-2.449
X-313.828 Y-49.753 Z-2.478
X-313.466 Y-49.669 Z-2.521
X-313.178 Y-49.607 Z-2.558
X-312.779 Y-49.526 Z-2.612
X-312.458 Y-49.48 Z-2.643
X-311.924 Y-49.409 Z-2.696
X-311.675 Y-49.379 Z-2.721
X-311.301 Y-49.352 Z-2.77
X-310.94 Y-49.332 Z-2.815
X-310.593 Y-49.318 Z-2.854
X-310.244 Y-49.313 Z-2.888
X-309.956 Z-2.914
X-309.577 Y-49.32 Z-2.947
X-309.154 Y-49.336 Z-2.984
X-308.73 Y-49.36 Z-3.024
X-308.401 Y-49.384 Z-3.058
X-308.283 Y-49.397 Z-3.066
X-307.835 Y-49.455 Z-3.105
X-307.381 Y-49.524 Z-3.152
X-306.914 Y-49.607 Z-3.208
X-306.536 Y-49.685 Z-3.26
X-306.301 Y-49.739 Z-3.294
X-305.946 Y-49.83 Z-3.349
X-305.83 Y-49.862 Z-3.368
X-305.495 Y-49.962 Z-3.426
X-305.456 Y-49.974 Z-3.432
X-305.176 Y-50.068 Z-3.483
X-304.976 Y-50.139 Z-3.518
X-304.87 Y-50.178 Z-3.538
X-304.579 Y-50.294 Z-3.592
X-304.515 Y-50.321 Z-3.602
X-304.303 Y-50.414 Z-3.641
X-304.073 Y-50.521 Z-3.68
X-303.779 Y-50.669 Z-3.73
X-303.572 Y-50.78 Z-3.763
X-303.244 Y-50.967 Z-3.814
X-302.968 Y-51.134 Z-3.855
X-302.81 Y-51.233 Z-3.877
X-302.49 Y-51.44 Z-3.923
X-302.136 Y-51.677 Z-3.972
X-301.794 Y-51.914 Z-4.019
X-301.477 Y-52.136 Z-4.061
X-301.314 Y-52.255 Z-4.085
X-301.16 Y-52.374 Z-4.113
X-301.104 Y-52.42 Z-4.126
X-300.99 Y-52.537 Z-4.139
X-300.88 Y-52.655 Z-4.157
X-300.73 Y-52.827 Z-4.187
X-300.501 Y-53.101 Z-4.238
X-300.316 Y-53.327 Z-4.278
X-300.25 Y-53.409 Z-4.292
X-300.031 Y-53.688 Z-4.336
X-299.872 Y-53.902 Z-4.366
X-299.796 Y-54.006 Z-4.379
X-299.645 Y-54.225 Z-4.403
X-299.569 Y-54.341 Z-4.412
X-299.472 Y-54.499 Z-4.422
X-299.397 Y-54.629 Z-4.426
X-299.355 Y-54.707
X-299.241 Y-54.929
X-299.161 Y-55.095 Z-4.422
X-299.116 Y-55.195 Z-4.419
X-298.979 Y-55.512 Z-4.407
X-298.883 Y-55.756 Z-4.397
X-298.788 Y-56.006 Z-4.385
X-298.655 Y-56.386 Z-4.37
X-298.504 Y-56.854 Z-4.357
X-298.452 Y-57.12 Z-4.328
X-298.385 Y-57.479 Z-4.292
X-298.307 Y-57.945 Z-4.255
X-298.241 Y-58.391 Z-4.226
X-298.182 Y-58.836 Z-4.204
X-298.133 Y-59.262 Z-4.189
X-298.09 Y-59.679 Z-4.179
X-298.048 Y-60.137 Z-4.171
X-298.019 Y-60.506 Z-4.169
X-297.993 Y-60.887 Z-4.168
X-297.965 Y-61.327 Z-4.169
X-297.929 Y-62.015 Z-4.172
X-297.907 Y-62.519 Z-4.176
X-297.905 Y-62.717 Z-4.184
X-297.91 Y-62.916 Z-4.197
X-297.92 Y-63.115 Z-4.216
X-297.936 Y-63.315 Z-4.24
X-297.958 Y-63.515 Z-4.27
X-297.99 Y-63.738 Z-4.31
X-298.448 Z-3.884
X-298.667 Z-3.684
X-299.086 Z-3.309
X-299.287 Z-3.134
X-299.484 Z-2.968
X-299.676 Z-2.81
X-299.865 Z-2.661
X-300.051 Z-2.523
X-300.234 Z-2.395
X-300.414 Z-2.281
X-300.504 Z-2.229
X-300.593 Z-2.18
X-300.682 Z-2.137
X-300.771 Z-2.097
X-300.859 Z-2.063
X-300.947 Z-2.034
X-301.036 Z-2.01
X-301.124 Z-1.992
X-301.263 Y-63.742 Z-1.973
X-301.4 Y-63.754 Z-1.961
X-301.536 Y-63.773 Z-1.957
X-302.208 Y-63.899 Z-1.967
X-303.481 Y-64.14 Z-1.988
X-304.746 Y-64.387 Z-2.012
X-305.398 Y-64.518 Z-2.025
X-306.038 Y-64.652 Z-2.04
X-306.679 Y-64.789 Z-2.057
X-307.319 Y-64.931 Z-2.076
X-307.96 Y-65.079 Z-2.096
X-308.601 Y-65.234 Z-2.12
X-309.026 Y-65.34 Z-2.138
X-309.729 Y-65.522 Z-2.169
X-310.43 Y-65.714 Z-2.203
X-311.127 Y-65.914 Z-2.242
X-311.808 Y-66.122 Z-2.284
X-312.446 Y-66.325 Z-2.327
X-313.079 Y-66.536 Z-2.372
X-313.709 Y-66.753 Z-2.419
X-314.334 Y-66.974 Z-2.468
X-314.954 Y-67.199 Z-2.517
X-315.942 Y-67.564 Z-2.598
X-316.793 Y-67.883 Z-2.667
X-316.924 Y-67.935 Z-2.68
X-317.053 Y-67.992 Z-2.699
X-317.181 Y-68.054 Z-2.722
X-317.307 Y-68.121 Z-2.751
X-317.81 Y-68.411 Z-2.887
X-318.179 Y-68.668 Z-2.959
X-318.548 Y-68.933 Z-3.033
X-318.853 Y-69.161 Z-3.097
X-319.105 Y-69.358 Z-3.152
X-319.217 Y-69.448 Z-3.176
X-319.466 Y-69.656 Z-3.231
X-319.687 Y-69.853 Z-3.282
X-319.857 Y-70.013 Z-3.32
X-320.014 Y-70.17 Z-3.357
X-320.159 Y-70.322 Z-3.388
X-320.296 Y-70.477 Z-3.42
X-320.436 Y-70.643 Z-3.449
X-320.574 Y-70.82 Z-3.481
X-320.711 Y-71.004 Z-3.512
X-320.848 Y-71.203 Z-3.546
X-320.991 Y-71.419 Z-3.582
X-321.128 Y-71.642 Z-3.623
X-321.266 Y-71.877 Z-3.665
X-321.405 Y-72.128 Z-3.714
X-321.502 Y-72.308 Z-3.75
X-321.647 Y-72.592 Z-3.809
X-321.701 Y-72.701 Z-3.833
X-321.821 Y-73.016 Z-3.874
X-321.934 Y-73.332 Z-3.919
X-322.003 Y-73.533 Z-3.949
X-322.113 Y-73.872 Z-4
X-322.225 Y-74.249 Z-4.058
X-322.323 Y-74.612 Z-4.112
X-322.378 Y-74.837 Z-4.144
X-322.421 Y-75.027 Z-4.168
X-322.467 Y-75.251 Z-4.195
X-322.494 Y-75.396 Z-4.21
X-322.534 Y-75.635 Z-4.231
X-322.55 Y-75.746 Z-4.238
X-322.593 Y-76.066 Z-4.258
X-322.616 Y-76.292 Z-4.271
X-322.625 Y-76.415 Z-4.279
X-322.631 Y-76.537 Z-4.29
X-322.638 Y-76.79 Z-4.312
X-322.643 Y-77.285 Z-4.351
X-322.642 Y-77.56 Z-4.373
X-322.638 Y-77.836 Z-4.395
X-322.63 Y-78.128 Z-4.421
X-322.622 Y-78.312 Z-4.438
X-322.576 Y-78.718 Z-4.455
X-322.554 Y-78.882 Z-4.463
X-322.505 Y-79.209 Z-4.482
X-322.447 Y-79.545 Z-4.504
X-322.399 Y-79.779 Z-4.521
X-322.357 Y-79.962 Z-4.533
X-322.304 Y-80.174 Z-4.549
X-322.257 Y-80.337 Z-4.559
X-322.195 Y-80.536 Z-4.571
X-322.145 Y-80.677 Z-4.577
X-322.122 Y-80.736 Z-4.579
X-322.052 Y-80.902 Z-4.582
X-321.997 Y-81.019 Z-4.581
X-321.969 Y-81.074 Z-4.579
X-321.867 Y-81.267 Z-4.572
X-321.794 Y-81.395 Z-4.565
X-321.68 Y-81.583 Z-4.554
X-321.508 Y-81.849 Z-4.538
X-321.419 Y-81.979 Z-4.529
X-321.291 Y-82.161 Z-4.517
X-321.107 Y-82.413 Z-4.502
X-320.957 Y-82.612 Z-4.491
X-320.811 Y-82.756 Z-4.454
X-320.508 Y-83.046 Z-4.38
X-320.313 Y-83.228 Z-4.333
X-320.108 Y-83.416 Z-4.283
X-319.999 Y-83.511 Z-4.257
X-319.889 Y-83.603 Z-4.235
X-319.783 Y-83.686 Z-4.215
X-319.676 Y-83.767 Z-4.197
X-319.467 Y-83.91 Z-4.167
X-319.266 Y-84.038 Z-4.139
X-319.079 Y-84.152 Z-4.109
X-318.858 Y-84.278 Z-4.068
X-318.665 Y-84.38 Z-4.03
X-318.512 Y-84.457 Z-3.998
X-318.293 Y-84.559 Z-3.949
X-318.055 Y-84.662 Z-3.895
X-317.788 Y-84.768 Z-3.833
X-317.489 Y-84.878 Z-3.765
X-317.166 Y-84.984 Z-3.694
X-316.832 Y-85.082 Z-3.624
X-316.495 Y-85.17 Z-3.56
X-316.284 Y-85.22 Z-3.523
X-316.147 Y-85.249 Z-3.501
X-315.817 Y-85.314 Z-3.452
X-315.5 Y-85.368 Z-3.411
X-315.214 Y-85.409 Z-3.378
X-314.896 Y-85.442 Z-3.342
X-314.61 Y-85.465 Z-3.311
X-314.299 Y-85.482 Z-3.28
X-314.072 Y-85.489 Z-3.256
X-313.856 Z-3.231
X-313.744 Y-85.487 Z-3.217
X-313.55 Y-85.48 Z-3.191
X-313.224 Y-85.461 Z-3.145
X-312.89 Y-85.437 Z-3.095
X-312.74 Y-85.413 Z-3.064
X-312.648 Y-85.396 Z-3.046
X-312.479 Y-85.358 Z-3.018
X-312.274 Y-85.306 Z-2.982
X-312.118 Y-85.264 Z-2.952
X-312.007 Y-85.231 Z-2.928
X-311.853 Y-85.182 Z-2.893
X-311.609 Y-85.099 Z-2.831
X-311.342 Y-85.002 Z-2.761
X-311.072 Y-84.9 Z-2.689
X-310.627 Y-84.717 Z-2.564
X-310.345 Y-84.597 Z-2.489
X-310.062 Y-84.472 Z-2.417
X-309.778 Y-84.343 Z-2.348
X-309.495 Y-84.208 Z-2.283
X-309.214 Y-84.069 Z-2.223
X-308.935 Y-83.926 Z-2.168
X-308.665 Y-83.781 Z-2.119
X-308.4 Y-83.633 Z-2.076
X-308.143 Y-83.487 Z-2.037
X-307.891 Y-83.339 Z-2.002
X-307.644 Y-83.19 Z-1.97
X-307.402 Y-83.042 Z-1.941
X-306.93 Y-82.746 Z-1.89
X-306.244 Y-82.307 Z-1.823
X-306.187 Y-82.269 Z-1.818
X-306.131 Y-82.23 Z-1.816
X-305.365 Y-81.663 Z-1.802
X-304.851 Y-81.278 Z-1.797
X-304.334 Y-80.882 Z-1.798
X-304.074 Y-80.678 Z-1.802
X-303.815 Y-80.472 Z-1.809
X-303.558 Y-80.264 Z-1.819
X-303.298 Y-80.047 Z-1.833
X-303.042 Y-79.831 Z-1.851
X-302.787 Y-79.609 Z-1.872
X-302.536 Y-79.387 Z-1.897
X-302.287 Y-79.162 Z-1.925
X-302.062 Y-78.955 Z-1.952
X-301.947 Y-78.855 Z-1.972
X-301.864 Y-78.789 Z-1.991
X-301.777 Y-78.727 Z-2.015
X-301.674 Y-78.659 Z-2.049
X-301.58 Y-78.602 Z-2.083
X-301.482 Y-78.548 Z-2.122
X-301.363 Y-78.488 Z-2.174
X-301.258 Y-78.439 Z-2.224
X-301.149 Y-78.394 Z-2.279
X-301.021 Y-78.346 Z-2.347
X-300.904 Y-78.306 Z-2.412
X-300.783 Y-78.269 Z-2.482
X-300.641 Y-78.231 Z-2.567
X-300.513 Y-78.2 Z-2.648
X-300.381 Y-78.172 Z-2.733
X-300.231 Y-78.144 Z-2.832
X-300.091 Y-78.122 Z-2.928
X-299.947 Y-78.103 Z-3.029
X-299.709 Y-78.078 Z-3.199
X-299.477 Y-78.061 Z-3.371
X-299.232 Y-78.051 Z-3.556
X-298.983 Y-78.048 Z-3.749
X-298.756 Z-3.93
X-298.526 Z-4.119
X-298.287 Z-4.321
X-298.034 Z-4.539
X-297.98 Y-77.807 Z-4.475
X-297.946 Y-77.635 Z-4.434
X-297.916 Y-77.463 Z-4.398
X-297.887 Y-77.269 Z-4.363
X-297.865 Y-77.097 Z-4.336
X-297.848 Y-76.925 Z-4.313
X-297.833 Y-76.733 Z-4.293
X-297.824 Y-76.562 Z-4.28
X-297.819 Y-76.39 Z-4.27
X-297.818 Y-76.153 Z-4.265
X-297.831 Y-75.143 Z-4.262
X-297.839 Y-74.088
X-297.845 Y-73.039 Z-4.267
X-297.849 Y-70.994 Z-4.28
X-297.867 Y-68.553 Z-4.284
X-297.883 Y-67.048 Z-4.283
X-297.871 Y-66.122 Z-4.256
X-297.862 Y-65.105 Z-4.224
X-297.864 Y-64.862 Z-4.22
X-297.872 Y-64.679 Z-4.223
X-297.885 Y-64.496 Z-4.23
X-297.902 Y-64.313 Z-4.242
X-297.926 Y-64.121 Z-4.259
X-297.955 Y-63.93 Z-4.282
X-297.99 Y-63.738 Z-4.31
X-297.955 Y-63.93 Z-4.282
X-297.926 Y-64.121 Z-4.259
X-297.902 Y-64.313 Z-4.242
X-297.885 Y-64.496 Z-4.23
X-297.872 Y-64.679 Z-4.223
X-297.864 Y-64.862 Z-4.22
X-297.862 Y-65.105 Z-4.224
X-297.871 Y-66.122 Z-4.256
X-297.883 Y-67.048 Z-4.283
X-297.867 Y-68.553 Z-4.284
X-297.849 Y-70.994 Z-4.28
X-297.845 Y-73.039 Z-4.267
X-297.839 Y-74.088 Z-4.262
X-297.831 Y-75.143
X-297.818 Y-76.153 Z-4.265
X-297.819 Y-76.39 Z-4.27
X-297.824 Y-76.562 Z-4.28
X-297.833 Y-76.733 Z-4.293
X-297.848 Y-76.925 Z-4.313
X-297.865 Y-77.097 Z-4.336
X-297.887 Y-77.269 Z-4.363
X-297.916 Y-77.463 Z-4.398
X-297.946 Y-77.635 Z-4.434
X-297.98 Y-77.807 Z-4.475
X-298.034 Y-78.048 Z-4.539
X-297.993 Y-78.199 Z-4.504
X-297.955 Y-78.349 Z-4.472
X-297.91 Y-78.54 Z-4.437
X-297.875 Y-78.71 Z-4.41
X-297.845 Y-78.88 Z-4.388
X-297.812 Y-79.085 Z-4.367
X-297.789 Y-79.255 Z-4.354
X-297.77 Y-79.425 Z-4.346
X-297.75 Y-79.674 Z-4.341
X-297.741 Y-79.84 Z-4.343
X-297.727 Y-80.14 Z-4.351
X-297.698 Y-80.741 Z-4.368
X-297.655 Y-81.59 Z-4.398
X-297.61 Y-82.442 Z-4.435
X-297.568 Y-83.255 Z-4.474
X-298.11 Y-83.817 Z-3.934
X-298.88 Y-84.617 Z-3.173
X-299.629 Y-85.403 Z-2.434
X-300.606 Y-86.437 Z-1.468
X-301.08 Y-86.94 Z-1
X-300.606 Y-86.437 Z-1.468
X-299.629 Y-85.403 Z-2.434
X-298.88 Y-84.617 Z-3.173
X-298.11 Y-83.817 Z-3.934
X-297.568 Y-83.255 Z-4.474
X-297.015 Y-83.737 Z-3.973
X-296.882 Y-83.848 Z-3.858
X-296.74 Y-83.962 Z-3.741
X-296.608 Y-84.063 Z-3.637
X-296.471 Y-84.162 Z-3.534
X-296.339 Y-84.254 Z-3.439
X-296.202 Y-84.344 Z-3.346
X-296.07 Y-84.426 Z-3.261
X-295.936 Y-84.505 Z-3.179
X-295.672 Y-84.648 Z-3.031
X-295.404 Y-84.789 Z-2.884
X-295.218 Y-84.885 Z-2.785
X-295.058 Y-84.964 Z-2.705
X-294.866 Y-85.059 Z-2.614
X-294.683 Y-85.145 Z-2.533
X-294.471 Y-85.238 Z-2.445
X-294.37 Y-85.279 Z-2.406
X-294.156 Y-85.36 Z-2.33
X-293.945 Y-85.432 Z-2.264
X-293.815 Y-85.471 Z-2.228
X-293.69 Y-85.506 Z-2.196
X-293.506 Y-85.552 Z-2.156
X-293.407 Y-85.573 Z-2.137
X-293.223 Y-85.61 Z-2.107
X-293.05 Y-85.638 Z-2.083
X-292.859 Y-85.665 Z-2.063
X-292.728 Y-85.68 Z-2.052
X-292.578 Y-85.695 Z-2.043
X-292.326 Y-85.715 Z-2.033
X-292.169 Y-85.725 Z-2.029
X-291.802 Y-85.744 Z-2.026
X-291.745 Y-85.746 Z-2.027
X-290.911 Y-85.767 Z-2.047
X-289.836 Y-85.797 Z-2.078
X-288.758 Y-84.72 Z-1
X-289.836 Y-85.797 Z-2.078
X-288.758 Y-86.943 Z-1
G0 Z5
X-285.021 Y-50.409
Z4
G1 Z-1 F850
X-283.993 Y-51.317 Z-2.028
X-285.021 Y-52.344 Z-1
X-283.993 Y-51.317 Z-2.028
X-283.599 Y-51.292 Z-2.053
X-282.676 Y-51.23 Z-2.115
X-282.057 Y-51.185 Z-2.16
X-281.434 Y-51.133 Z-2.204
X-281.122 Y-51.106 Z-2.229
X-280.808 Y-51.082 Z-2.259
X-280.575 Y-51.067 Z-2.286
X-280.374 Y-51.057 Z-2.313
X-280.179 Y-51.051 Z-2.342
X-279.949 Y-51.046 Z-2.38
X-279.724 Z-2.423
X-279.488 Y-51.052 Z-2.474
X-279.24 Y-51.063 Z-2.533
X-278.978 Y-51.082 Z-2.604
X-278.698 Y-51.111 Z-2.689
X-278.585 Y-51.125 Z-2.725
X-278.406 Y-51.15 Z-2.786
X-278.123 Y-51.197 Z-2.889
X-277.854 Y-51.248 Z-2.994
X-277.611 Y-51.299 Z-3.094
X-277.516 Y-51.319 Z-3.135
X-277.25 Y-51.377 Z-3.255
X-276.972 Y-51.442 Z-3.385
X-276.448 Y-51.569 Z-3.638
X-276.265 Y-51.617 Z-3.73
X-276.128 Y-51.656 Z-3.802
X-275.973 Y-51.704 Z-3.888
X-275.833 Y-51.749 Z-3.968
X-275.672 Y-51.806 Z-4.064
X-275.53 Y-51.858 Z-4.152
X-275.358 Y-51.926 Z-4.263
X-275.213 Y-51.985 Z-4.359
X-275.029 Y-52.064 Z-4.486
X-274.882 Y-52.131 Z-4.591
X-274.757 Y-52.189 Z-4.683
X-274.385 Y-51.697 Z-4.321
X-273.997 Y-51.173 Z-3.943
X-273.772 Y-50.863 Z-3.724
X-273.389 Y-50.327 Z-3.352
X-273.025 Y-49.808 Z-2.999
X-272.675 Y-49.302 Z-2.659
X-272.168 Y-48.56 Z-2.168
X-271.946 Y-48.231 Z-1.952
X-271.82 Y-48.034 Z-1.828
X-271.754 Y-47.934 Z-1.76
X-271.705 Y-47.864 Z-1.708
X-271.634 Y-47.767 Z-1.628
X-271.579 Y-47.69 Z-1.561
X-271.522 Y-47.606 Z-1.484
X-271.501 Y-47.574 Z-1.455
X-271.394 Y-47.439 Z-1.313
X-271.385 Y-47.429 Z-1.301
X-271.347 Y-47.403 Z-1.257
X-271.126 Y-47.257 Z-1
X-271.347 Y-47.403 Z-1.257
X-271.385 Y-47.429 Z-1.301
X-271.394 Y-47.439 Z-1.313
X-271.501 Y-47.574 Z-1.455
X-271.522 Y-47.606 Z-1.484
X-271.579 Y-47.69 Z-1.561
X-271.634 Y-47.767 Z-1.628
X-271.705 Y-47.864 Z-1.708
X-271.754 Y-47.934 Z-1.76
X-271.82 Y-48.034 Z-1.828
X-271.946 Y-48.231 Z-1.952
X-272.168 Y-48.56 Z-2.168
X-272.675 Y-49.302 Z-2.659
X-273.025 Y-49.808 Z-2.999
X-273.389 Y-50.327 Z-3.352
X-273.772 Y-50.863 Z-3.724
X-273.997 Y-51.173 Z-3.943
X-274.385 Y-51.697 Z-4.321
X-274.757 Y-52.189 Z-4.683
X-274.718 Y-52.405 Z-4.64
X-274.686 Y-52.62 Z-4.603
X-274.66 Y-52.836 Z-4.573
X-274.64 Y-53.051 Z-4.549
X-274.602 Y-53.545 Z-4.501
X-274.526 Y-54.553 Z-4.404
X-274.454 Y-55.59 Z-4.312
X-274.421 Y-56.125 Z-4.268
X-274.404 Y-56.423 Z-4.245
X-274.388 Y-56.652 Z-4.231
X-274.363 Y-56.897 Z-4.227
X-274.344 Y-57.047 Z-4.228
X-274.322 Y-57.195 Z-4.233
X-274.286 Y-57.406 Z-4.247
X-274.254 Y-57.567 Z-4.262
X-274.218 Y-57.728 Z-4.281
X-274.165 Y-57.946 Z-4.315
X-274.122 Y-58.106 Z-4.344
X-274.075 Y-58.266 Z-4.377
X-274.008 Y-58.477 Z-4.429
X-273.953 Y-58.637 Z-4.472
X-273.894 Y-58.797 Z-4.52
X-273.798 Y-59.04 Z-4.601
X-273.71 Y-59.246 Z-4.676
X-273.402 Y-59.167 Z-4.405
X-273.16 Y-59.1 Z-4.194
X-272.959 Y-59.041 Z-4.019
X-272.715 Y-58.964 Z-3.81
X-272.529 Y-58.902 Z-3.652
X-272.288 Y-58.816 Z-3.451
X-272.119 Y-58.751 Z-3.311
X-271.904 Y-58.664 Z-3.137
X-271.749 Y-58.596 Z-3.014
X-271.546 Y-58.502 Z-2.857
X-271.406 Y-58.432 Z-2.751
X-271.218 Y-58.331 Z-2.614
X-271.093 Y-58.259 Z-2.525
X-270.927 Y-58.157 Z-2.413
X-270.815 Y-58.081 Z-2.341
X-270.659 Y-57.969 Z-2.247
X-270.559 Y-57.891 Z-2.191
X-270.432 Y-57.784 Z-2.126
X-270.344 Y-57.702 Z-2.085
X-270.299 Y-57.659 Z-2.066
X-270.217 Y-57.576 Z-2.035
X-270.139 Y-57.49 Z-2.01
X-270.03 Y-57.36 Z-1.985
X-269.965 Y-57.277 Z-1.974
X-269.789 Y-57.062 Z-1.948
X-269.61 Y-56.852 Z-1.928
X-269.439 Y-56.656 Z-1.914
X-269.277 Y-56.477 Z-1.905
X-269.118 Y-56.303 Z-1.9
X-268.957 Y-56.13 Z-1.897
X-268.741 Y-55.9 Z-1.898
X-268.466 Y-55.612 Z-1.906
X-268.135 Y-55.264 Z-1.923
X-268.019 Y-55.141 Z-1.932
X-267.966 Y-55.09 Z-1.939
X-267.789 Y-54.929 Z-1.97
X-267.451 Y-54.621 Z-2.034
X-267.253 Y-54.442 Z-2.075
X-267.072 Y-54.279 Z-2.115
X-266.767 Y-54.011 Z-2.187
X-266.582 Y-53.853 Z-2.235
X-266.39 Y-53.692 Z-2.288
X-266.191 Y-53.531 Z-2.346
X-265.981 Y-53.367 Z-2.411
X-265.779 Y-53.216 Z-2.476
X-265.528 Y-53.036 Z-2.561
X-265.292 Y-52.876 Z-2.645
X-265.047 Y-52.717 Z-2.736
X-264.81 Y-52.571 Z-2.825
X-264.566 Y-52.427 Z-2.918
X-264.328 Y-52.293 Z-3.01
X-264.116 Y-52.178 Z-3.092
X-263.855 Y-52.044 Z-3.19
X-263.625 Y-51.931 Z-3.276
X-263.402 Y-51.826 Z-3.357
X-263.185 Y-51.729 Z-3.432
X-262.984 Y-51.643 Z-3.5
X-262.794 Y-51.567 Z-3.563
X-262.593 Y-51.497 Z-3.635
X-262.272 Y-51.397 Z-3.752
X-261.945 Y-51.3 Z-3.87
X-261.718 Y-51.237 Z-3.952
X-261.467 Y-51.17 Z-4.044
X-261.242 Y-51.114 Z-4.127
X-260.989 Y-51.076 Z-4.202
X-260.699 Y-51.038 Z-4.29
X-260.418 Y-51.011 Z-4.375
X-260.204 Y-50.997 Z-4.44
X-260.039 Y-50.992 Z-4.488
X-259.899 Y-50.993 Z-4.526
X-259.751 Y-51.001 Z-4.563
X-259.531 Y-51.02 Z-4.616
X-259.286 Y-51.049 Z-4.673
X-259.052 Y-51.084 Z-4.728
X-258.928 Y-51.298 Z-4.581
X-258.756 Y-51.604 Z-4.374
X-258.552 Y-51.974 Z-4.132
X-258.349 Y-52.351 Z-3.893
X-258.13 Y-52.761 Z-3.638
X-258.062 Y-52.898 Z-3.557
X-257.971 Y-53.09 Z-3.452
X-257.869 Y-53.328 Z-3.332
X-257.672 Y-53.807 Z-3.101
X-257.519 Y-54.182 Z-2.926
X-257.428 Y-54.408 Z-2.824
X-257.348 Y-54.617 Z-2.732
X-257.27 Y-54.824 Z-2.644
X-257.195 Y-55.032 Z-2.559
X-257.116 Y-55.256 Z-2.472
X-257.048 Y-55.461 Z-2.397
X-256.979 Y-55.679 Z-2.32
X-256.921 Y-55.876 Z-2.255
X-256.865 Y-56.07 Z-2.193
X-256.813 Y-56.262 Z-2.135
X-256.763 Y-56.451 Z-2.081
X-256.675 Y-56.809 Z-1.983
X-256.613 Y-57.074 Z-1.915
X-256.847 Y-57.455 Z-1.534
X-257.182 Y-57.989 Z-1
X-256.847 Y-57.455 Z-1.534
X-256.613 Y-57.074 Z-1.915
X-255.716 Y-57.989 Z-1
X-256.613 Y-57.074 Z-1.915
X-256.675 Y-56.809 Z-1.983
X-256.763 Y-56.451 Z-2.081
X-256.813 Y-56.262 Z-2.135
X-256.865 Y-56.07 Z-2.193
X-256.921 Y-55.876 Z-2.255
X-256.979 Y-55.679 Z-2.32
X-257.048 Y-55.461 Z-2.397
X-257.116 Y-55.256 Z-2.472
X-257.195 Y-55.032 Z-2.559
X-257.27 Y-54.824 Z-2.644
X-257.348 Y-54.617 Z-2.732
X-257.428 Y-54.408 Z-2.824
X-257.519 Y-54.182 Z-2.926
X-257.672 Y-53.807 Z-3.101
X-257.869 Y-53.328 Z-3.332
X-257.971 Y-53.09 Z-3.452
X-258.062 Y-52.898 Z-3.557
X-258.13 Y-52.761 Z-3.638
X-258.349 Y-52.351 Z-3.893
X-258.552 Y-51.974 Z-4.132
X-258.756 Y-51.604 Z-4.374
X-258.928 Y-51.298 Z-4.581
X-259.052 Y-51.084 Z-4.728
X-258.855 Y-50.896 Z-4.556
X-258.639 Y-50.693 Z-4.367
X-258.221 Y-50.333 Z-4
X-257.88 Y-50.047 Z-3.7
X-257.655 Y-49.864 Z-3.502
X-257.438 Y-49.694 Z-3.311
X-257.227 Y-49.535 Z-3.124
X-257.007 Y-49.378 Z-2.929
X-256.742 Y-49.198 Z-2.692
X-256.397 Y-48.972 Z-2.383
X-256.09 Y-48.777 Z-2.108
X-255.905 Y-48.66 Z-1.941
X-255.631 Y-48.48 Z-1.687
X-255.546 Y-48.436 Z-1.606
X-255.443 Y-48.362 Z-1.489
X-255.285 Y-48.249 Z-1.304
X-255.221 Y-48.205 Z-1.226
X-255.285 Y-48.249 Z-1.304
X-255.443 Y-48.362 Z-1.489
X-255.546 Y-48.436 Z-1.606
X-255.631 Y-48.48 Z-1.687
X-255.905 Y-48.66 Z-1.941
X-256.09 Y-48.777 Z-2.108
X-256.397 Y-48.972 Z-2.383
X-256.742 Y-49.198 Z-2.692
X-257.007 Y-49.378 Z-2.929
X-257.227 Y-49.535 Z-3.124
X-257.438 Y-49.694 Z-3.311
X-257.655 Y-49.864 Z-3.502
X-257.88 Y-50.047 Z-3.7
X-258.221 Y-50.333 Z-4
X-258.639 Y-50.693 Z-4.367
X-258.855 Y-50.896 Z-4.556
X-259.052 Y-51.084 Z-4.728
X-259.286 Y-51.049 Z-4.673
X-259.531 Y-51.02 Z-4.616
X-259.751 Y-51.001 Z-4.563
X-259.899 Y-50.993 Z-4.526
X-260.039 Y-50.992 Z-4.488
X-260.204 Y-50.997 Z-4.44
X-260.418 Y-51.011 Z-4.375
X-260.699 Y-51.038 Z-4.29
X-260.989 Y-51.076 Z-4.202
X-261.242 Y-51.114 Z-4.127
X-261.467 Y-51.17 Z-4.044
X-261.718 Y-51.237 Z-3.952
X-261.945 Y-51.3 Z-3.87
X-262.272 Y-51.397 Z-3.752
X-262.593 Y-51.497 Z-3.635
X-262.794 Y-51.567 Z-3.563
X-262.984 Y-51.643 Z-3.5
X-263.185 Y-51.729 Z-3.432
X-263.402 Y-51.826 Z-3.357
X-263.625 Y-51.931 Z-3.276
X-263.855 Y-52.044 Z-3.19
X-264.116 Y-52.178 Z-3.092
X-264.328 Y-52.293 Z-3.01
X-264.566 Y-52.427 Z-2.918
X-264.81 Y-52.571 Z-2.825
X-265.047 Y-52.717 Z-2.736
X-265.292 Y-52.876 Z-2.645
X-265.528 Y-53.036 Z-2.561
X-265.779 Y-53.216 Z-2.476
X-265.981 Y-53.367 Z-2.411
X-266.191 Y-53.531 Z-2.346
X-266.39 Y-53.692 Z-2.288
X-266.582 Y-53.853 Z-2.235
X-266.767 Y-54.011 Z-2.187
X-267.072 Y-54.279 Z-2.115
X-267.253 Y-54.442 Z-2.075
X-267.451 Y-54.621 Z-2.034
X-267.789 Y-54.929 Z-1.97
X-267.966 Y-55.09 Z-1.939
X-268.019 Y-55.141 Z-1.932
X-268.135 Y-55.264 Z-1.923
X-268.466 Y-55.612 Z-1.906
X-268.741 Y-55.9 Z-1.898
X-268.957 Y-56.13 Z-1.897
X-269.118 Y-56.303 Z-1.9
X-269.277 Y-56.477 Z-1.905
X-269.439 Y-56.656 Z-1.914
X-269.61 Y-56.852 Z-1.928
X-269.789 Y-57.062 Z-1.948
X-269.965 Y-57.277 Z-1.974
X-270.03 Y-57.36 Z-1.985
X-270.139 Y-57.49 Z-2.01
X-270.217 Y-57.576 Z-2.035
X-270.299 Y-57.659 Z-2.066
X-270.344 Y-57.702 Z-2.085
X-270.432 Y-57.784 Z-2.126
X-270.559 Y-57.891 Z-2.191
X-270.659 Y-57.969 Z-2.247
X-270.815 Y-58.081 Z-2.341
X-270.927 Y-58.157 Z-2.413
X-271.093 Y-58.259 Z-2.525
X-271.218 Y-58.331 Z-2.614
X-271.406 Y-58.432 Z-2.751
X-271.546 Y-58.502 Z-2.857
X-271.749 Y-58.596 Z-3.014
X-271.904 Y-58.664 Z-3.137
X-272.119 Y-58.751 Z-3.311
X-272.288 Y-58.816 Z-3.451
X-272.529 Y-58.902 Z-3.652
X-272.715 Y-58.964 Z-3.81
X-272.959 Y-59.041 Z-4.019
X-273.16 Y-59.1 Z-4.194
X-273.402 Y-59.167 Z-4.405
X-273.71 Y-59.246 Z-4.676
X-273.725 Y-59.373 Z-4.654
X-273.765 Y-59.717 Z-4.597
X-273.779 Y-59.866 Z-4.576
X-273.792 Y-60.033 Z-4.557
X-273.8 Y-60.161 Z-4.544
X-273.841 Y-60.929 Z-4.481
X-273.884 Y-61.65 Z-4.427
X-273.935 Y-62.496 Z-4.371
X-273.966 Y-63.003 Z-4.342
X-273.996 Y-63.518 Z-4.315
X-274.026 Y-64.025 Z-4.292
X-274.054 Y-64.532 Z-4.272
X-274.079 Y-65.028 Z-4.256
X-274.1 Y-65.495 Z-4.242
X-274.119 Y-66.064 Z-4.225
X-274.135 Y-66.656 Z-4.211
X-274.151 Y-67.377 Z-4.198
X-274.167 Y-68.399 Z-4.186
X-274.173 Y-68.917 Z-4.184
X-274.183 Y-69.933
X-274.188 Y-70.936 Z-4.188
X-274.195 Y-72.027 Z-4.199
X-274.203 Y-73.227 Z-4.214
X-274.212 Y-74.428 Z-4.235
X-274.217 Y-75.026 Z-4.248
X-274.222 Y-76.139 Z-4.278
X-274.223 Y-76.984 Z-4.307
X-274.22 Y-77.838 Z-4.341
X-274.212 Y-78.608 Z-4.377
X-274.198 Y-79.548 Z-4.428
X-274.179 Y-80.283 Z-4.467
X-274.17 Y-80.673 Z-4.49
X-274.163 Y-81.085 Z-4.519
X-274.16 Y-81.52 Z-4.554
X-274.163 Y-81.851 Z-4.586
X-274.171 Y-82.265 Z-4.632
X-274.181 Y-82.53 Z-4.666
X-274.189 Y-82.774 Z-4.703
X-274.195 Y-82.939 Z-4.73
X-274.458 Y-83.149 Z-4.52
X-274.715 Y-83.35 Z-4.321
X-274.966 Y-83.541 Z-4.132
X-275.289 Y-83.778 Z-3.896
X-275.659 Y-84.043 Z-3.634
X-276.048 Y-84.315 Z-3.365
X-276.522 Y-84.638 Z-3.046
X-276.653 Y-84.721 Z-2.965
X-276.804 Y-84.809 Z-2.878
X-276.955 Y-84.89 Z-2.799
X-277.11 Y-84.966 Z-2.725
X-277.261 Y-85.033 Z-2.66
X-277.412 Y-85.093 Z-2.601
X-277.566 Y-85.147 Z-2.549
X-277.688 Y-85.185 Z-2.513
X-278.08 Y-85.298 Z-2.406
X-278.382 Y-85.38 Z-2.329
X-278.658 Y-85.449 Z-2.265
X-278.872 Y-85.497 Z-2.221
X-279.048 Y-85.534 Z-2.188
X-279.22 Y-85.566 Z-2.16
X-279.394 Y-85.594 Z-2.135
X-279.546 Y-85.617 Z-2.116
X-279.707 Y-85.638 Z-2.099
X-279.974 Y-85.668 Z-2.076
X-280.154 Y-85.685 Z-2.064
X-280.436 Y-85.707 Z-2.05
X-280.768 Y-85.728 Z-2.04
X-281.085 Y-85.744 Z-2.035
X-281.226 Y-85.751 Z-2.032
X-282.596 Y-85.835 Z-2.002
X-284.048 Y-85.927 Z-1.973
X-285.021 Y-85.032 Z-1
X-284.048 Y-85.927 Z-1.973
X-285.021 Y-86.947 Z-1
X-284.048 Y-85.927 Z-1.973
X-282.596 Y-85.835 Z-2.002
X-281.226 Y-85.751 Z-2.032
X-281.085 Y-85.744 Z-2.035
X-280.768 Y-85.728 Z-2.04
X-280.436 Y-85.707 Z-2.05
X-280.154 Y-85.685 Z-2.064
X-279.974 Y-85.668 Z-2.076
X-279.707 Y-85.638 Z-2.099
X-279.546 Y-85.617 Z-2.116
X-279.394 Y-85.594 Z-2.135
X-279.22 Y-85.566 Z-2.16
X-279.048 Y-85.534 Z-2.188
X-278.872 Y-85.497 Z-2.221
X-278.658 Y-85.449 Z-2.265
X-278.382 Y-85.38 Z-2.329
X-278.08 Y-85.298 Z-2.406
X-277.688 Y-85.185 Z-2.513
X-277.566 Y-85.147 Z-2.549
X-277.412 Y-85.093 Z-2.601
X-277.261 Y-85.033 Z-2.66
X-277.11 Y-84.966 Z-2.725
X-276.955 Y-84.89 Z-2.799
X-276.804 Y-84.809 Z-2.878
X-276.653 Y-84.721 Z-2.965
X-276.522 Y-84.638 Z-3.046
X-276.048 Y-84.315 Z-3.365
X-275.659 Y-84.043 Z-3.634
X-275.289 Y-83.778 Z-3.896
X-274.966 Y-83.541 Z-4.132
X-274.715 Y-83.35 Z-4.321
X-274.458 Y-83.149 Z-4.52
X-274.195 Y-82.939 Z-4.73
X-273.95 Y-83.152 Z-4.519
X-273.734 Y-83.335 Z-4.337
X-273.475 Y-83.547 Z-4.128
X-273.303 Y-83.682 Z-3.994
X-273.097 Y-83.839 Z-3.838
X-272.894 Y-83.988 Z-3.691
X-272.694 Y-84.128 Z-3.552
X-272.467 Y-84.28 Z-3.403
X-272.244 Y-84.42 Z-3.264
X-272.004 Y-84.562 Z-3.125
X-271.818 Y-84.664 Z-3.024
X-271.642 Y-84.757 Z-2.933
X-271.452 Y-84.852 Z-2.84
X-271.256 Y-84.944 Z-2.751
X-271.106 Y-85.012 Z-2.684
X-270.796 Y-85.145 Z-2.555
X-270.709 Y-85.182 Z-2.519
X-270.579 Y-85.234 Z-2.469
X-270.449 Y-85.281 Z-2.424
X-270.316 Y-85.322 Z-2.384
X-270.174 Y-85.36 Z-2.348
X-270.031 Y-85.392 Z-2.319
X-269.407 Y-85.514 Z-2.208
X-268.974 Y-85.595 Z-2.135
X-268.554 Y-85.668 Z-2.071
X-268.301 Y-85.709 Z-2.037
X-268.072 Y-85.742 Z-2.009
X-267.799 Y-85.779 Z-1.98
X-267.608 Y-85.802 Z-1.962
X-267.297 Y-85.834 Z-1.939
X-267.154 Y-85.847 Z-1.93
X-266.793 Y-85.875 Z-1.913
X-266.71 Y-85.881 Z-1.91
X-266.29 Y-85.905 Z-1.899
X-266.062 Y-85.916 Z-1.897
X-265.641 Y-85.932 Z-1.896
X-265.025 Y-85.949 Z-1.901
X-264.781 Y-85.955 Z-1.904
X-263.498 Y-85.981 Z-1.929
X-262.569 Y-85.052 Z-1
X-263.498 Y-85.981 Z-1.929
X-262.569 Y-86.948 Z-1
G0 Z5
X-204.379 Y-28.54
Z4
G1 Z-1 F850
X-203.317 Y-29.493 Z-2.062
X-204.379 Y-30.555 Z-1
X-203.317 Y-29.493 Z-2.062
X-202.098 Y-29.424 Z-2.132
X-201.494 Y-29.387 Z-2.169
X-201.114 Y-29.361 Z-2.193
X-200.719 Y-29.335 Z-2.22
X-200.434 Y-29.318 Z-2.243
X-200.261 Y-29.311 Z-2.26
X-199.972 Y-29.301 Z-2.294
X-199.808 Y-29.299 Z-2.316
X-199.662 Y-29.298 Z-2.338
X-199.462 Y-29.3 Z-2.372
X-199.281 Y-29.305 Z-2.407
X-199.092 Y-29.314 Z-2.447
X-198.894 Y-29.326 Z-2.493
X-198.691 Y-29.343 Z-2.546
X-198.497 Y-29.363 Z-2.6
X-198.31 Y-29.385 Z-2.656
X-198.087 Y-29.413 Z-2.727
X-197.781 Y-29.457 Z-2.83
X-197.477 Y-29.503 Z-2.937
X-197.206 Y-29.546 Z-3.037
X-197.082 Y-29.571 Z-3.087
X-196.871 Y-29.617 Z-3.18
X-196.71 Y-29.658 Z-3.258
X-196.547 Y-29.705 Z-3.341
X-196.383 Y-29.758 Z-3.43
X-196.153 Y-29.837 Z-3.564
X-195.983 Y-29.902 Z-3.669
X-195.812 Y-29.971 Z-3.779
X-195.64 Y-30.047 Z-3.895
X-195.403 Y-30.155 Z-4.062
X-195.03 Y-30.328 Z-4.33
X-194.689 Y-30.49 Z-4.58
X-194.41 Y-30.627 Z-4.791
X-194.19 Y-30.347 Z-4.585
X-193.703 Y-29.715 Z-4.13
X-193.233 Y-29.097 Z-3.692
X-192.778 Y-28.491 Z-3.268
X-192.333 Y-27.894 Z-2.855
X-191.469 Y-26.721 Z-2.054
X-190.923 Y-25.974 Z-1.548
X-190.845 Y-25.359 Z-1.001
X-190.923 Y-25.974 Z-1.548
X-190.359 Y-25.701 Z-1
X-190.923 Y-25.974 Z-1.548
X-191.469 Y-26.721 Z-2.054
X-192.333 Y-27.894 Z-2.855
X-192.778 Y-28.491 Z-3.268
X-193.233 Y-29.097 Z-3.692
X-193.703 Y-29.715 Z-4.13
X-194.19 Y-30.347 Z-4.585
X-194.41 Y-30.627 Z-4.791
X-194.371 Y-30.884 Z-4.74
X-194.333 Y-31.179 Z-4.688
X-194.305 Y-31.437 Z-4.647
X-194.281 Y-31.695 Z-4.612
X-194.263 Y-31.949 Z-4.582
X-194.248 Y-32.237 Z-4.554
X-194.239 Y-32.489 Z-4.534
X-194.233 Y-32.776 Z-4.515
Y-33.131 Z-4.5
X-194.24 Y-33.525 Z-4.489
X-194.249 Y-33.845 Z-4.485
X-194.253 Y-33.968 Z-4.484
X-194.265 Y-35.524 Z-4.436
X-194.27 Y-36.457 Z-4.409
X-194.276 Y-38.316 Z-4.36
X-194.277 Y-39.378 Z-4.336
X-194.29 Y-41.091 Z-4.314
X-194.3 Y-42.937 Z-4.295
X-194.307 Y-44.783 Z-4.278
X-194.315 Y-47.573 Z-4.257
Y-68.551
X-194.313 Y-69.144 Z-4.251
Y-70.682 Z-4.233
Y-71.902 Z-4.223
X-194.314 Y-72.887 Z-4.221
Y-73.746 Z-4.224
Y-74.794 Z-4.234
X-194.315 Y-75.425 Z-4.246
X-194.316 Y-76.232 Z-4.266
Y-76.862 Z-4.287
Y-77.493 Z-4.312
Y-78.124 Z-4.343
X-194.317 Y-78.762 Z-4.38
Y-79.394 Z-4.422
X-194.316 Y-80.027 Z-4.469
X-194.317 Y-80.655 Z-4.522
X-194.316 Y-81.278 Z-4.577
X-194.315 Y-82.499 Z-4.694
Y-82.946 Z-4.739
X-193.531 Y-83.646 Z-4.031
X-193.356 Y-83.798 Z-3.877
X-193.18 Y-83.943 Z-3.73
X-193.012 Y-84.073 Z-3.599
X-192.845 Y-84.195 Z-3.475
X-192.628 Y-84.342 Z-3.327
X-192.448 Y-84.456 Z-3.214
X-192.268 Y-84.561 Z-3.111
X-192.148 Y-84.626 Z-3.047
X-192.029 Y-84.687 Z-2.987
X-191.907 Y-84.745 Z-2.93
X-191.661 Y-84.852 Z-2.826
X-191.353 Y-84.981 Z-2.7
X-191.143 Y-85.065 Z-2.619
X-190.954 Y-85.138 Z-2.548
X-190.749 Y-85.213 Z-2.476
X-190.548 Y-85.281 Z-2.411
X-190.324 Y-85.351 Z-2.345
X-190.098 Y-85.414 Z-2.286
X-189.895 Y-85.464 Z-2.239
X-189.697 Y-85.507 Z-2.2
X-189.503 Y-85.544 Z-2.167
X-189.316 Y-85.575 Z-2.14
X-189.137 Y-85.601 Z-2.119
X-188.964 Y-85.623 Z-2.101
X-188.795 Y-85.642 Z-2.087
X-188.632 Y-85.658 Z-2.076
X-188.342 Y-85.681 Z-2.062
X-188.169 Y-85.693 Z-2.057
X-187.881 Y-85.709 Z-2.051
X-187.548 Y-85.728 Z-2.045
X-186.458 Y-85.811 Z-2.012
X-185.23 Y-85.908 Z-1.979
X-184.251 Y-86.944 Z-1
X-185.23 Y-85.908 Z-1.979
X-184.252 Y-85.027 Z-1.001
X-185.23 Y-85.908 Z-1.979
X-186.458 Y-85.811 Z-2.012
X-187.548 Y-85.728 Z-2.045
X-187.881 Y-85.709 Z-2.051
X-188.169 Y-85.693 Z-2.057
X-188.342 Y-85.681 Z-2.062
X-188.632 Y-85.658 Z-2.076
X-188.795 Y-85.642 Z-2.087
X-188.964 Y-85.623 Z-2.101
X-189.137 Y-85.601 Z-2.119
X-189.316 Y-85.575 Z-2.14
X-189.503 Y-85.544 Z-2.167
X-189.697 Y-85.507 Z-2.2
X-189.895 Y-85.464 Z-2.239
X-190.098 Y-85.414 Z-2.286
X-190.324 Y-85.351 Z-2.345
X-190.548 Y-85.281 Z-2.411
X-190.749 Y-85.213 Z-2.476
X-190.954 Y-85.138 Z-2.548
X-191.143 Y-85.065 Z-2.619
X-191.353 Y-84.981 Z-2.7
X-191.661 Y-84.852 Z-2.826
X-191.907 Y-84.745 Z-2.93
X-192.029 Y-84.687 Z-2.987
X-192.148 Y-84.626 Z-3.047
X-192.268 Y-84.561 Z-3.111
X-192.448 Y-84.456 Z-3.214
X-192.628 Y-84.342 Z-3.327
X-192.845 Y-84.195 Z-3.475
X-193.012 Y-84.073 Z-3.599
X-193.18 Y-83.943 Z-3.73
X-193.356 Y-83.798 Z-3.877
X-193.531 Y-83.646 Z-4.031
X-194.315 Y-82.946 Z-4.739
X-195.081 Y-83.645 Z-4.048
X-195.19 Y-83.743 Z-3.952
X-195.354 Y-83.885 Z-3.813
X-195.519 Y-84.019 Z-3.681
X-195.687 Y-84.148 Z-3.554
X-195.852 Y-84.266 Z-3.437
X-196.016 Y-84.378 Z-3.328
X-196.185 Y-84.484 Z-3.224
X-196.35 Y-84.58 Z-3.131
X-196.515 Y-84.669 Z-3.045
X-196.69 Y-84.755 Z-2.961
X-197.002 Y-84.9 Z-2.822
X-197.298 Y-85.032 Z-2.695
X-197.47 Y-85.106 Z-2.625
X-197.682 Y-85.193 Z-2.542
X-197.875 Y-85.267 Z-2.472
X-198.086 Y-85.343 Z-2.402
X-198.302 Y-85.413 Z-2.336
X-198.408 Y-85.445 Z-2.307
X-198.63 Y-85.506 Z-2.251
X-198.842 Y-85.558 Z-2.205
X-199.043 Y-85.6 Z-2.168
X-199.233 Y-85.635 Z-2.138
X-199.422 Y-85.665 Z-2.113
X-199.6 Y-85.689 Z-2.094
X-199.773 Y-85.71 Z-2.079
X-199.939 Y-85.726 Z-2.067
X-200.179 Y-85.747 Z-2.054
X-200.413 Y-85.763 Z-2.045
X-200.705 Y-85.779 Z-2.038
X-201.18 Y-85.804 Z-2.029
X-203.401 Y-85.934 Z-1.978
X-204.379 Y-85.032 Z-1
X-203.401 Y-85.934 Z-1.978
X-204.378 Y-86.949 Z-1.001
G0 Z5
X-181.156 Y-48.171
Z4
G1 Z-1 F850
X-180.239 Y-49.145 Z-1.917
X-181.156 Y-50.061 Z-1
X-180.239 Y-49.145 Z-1.917
X-179.746 Y-49.16 Z-1.902
X-179.68 Y-49.163 Z-1.901
X-179.565 Y-49.172 Z-1.904
X-179.208 Y-49.223 Z-1.935
X-178.654 Y-49.307 Z-1.99
X-178.367 Y-49.353 Z-2.022
X-178.074 Y-49.404 Z-2.06
X-177.774 Y-49.461 Z-2.104
X-177.463 Y-49.526 Z-2.157
X-177.143 Y-49.601 Z-2.221
X-176.812 Y-49.688 Z-2.297
X-176.462 Y-49.791 Z-2.391
X-176.362 Y-49.823 Z-2.42
X-176.334 Y-49.832 Z-2.429
X-176.042 Y-49.933 Z-2.523
X-175.722 Y-50.055 Z-2.638
X-175.567 Y-50.117 Z-2.698
X-175.402 Y-50.188 Z-2.766
X-175.182 Y-50.285 Z-2.859
X-174.939 Y-50.399 Z-2.969
X-174.561 Y-50.587 Z-3.152
X-174.18 Y-50.79 Z-3.349
X-173.813 Y-50.996 Z-3.551
X-173.429 Y-51.215 Z-3.775
X-173.072 Y-51.427 Z-3.992
X-172.726 Y-51.638 Z-4.208
X-172.368 Y-51.862 Z-4.438
X-171.888 Y-52.169 Z-4.753
X-171.714 Y-51.997 Z-4.583
X-171.554 Y-51.846 Z-4.434
X-171.397 Y-51.703 Z-4.294
X-171.146 Y-51.481 Z-4.077
X-170.911 Y-51.279 Z-3.879
X-170.749 Y-51.145 Z-3.748
X-170.532 Y-50.973 Z-3.579
X-170.334 Y-50.821 Z-3.431
X-170.137 Y-50.679 Z-3.292
X-169.945 Y-50.547 Z-3.164
X-169.755 Y-50.424 Z-3.045
X-169.571 Y-50.312 Z-2.937
X-169.369 Y-50.197 Z-2.826
X-169.235 Y-50.125 Z-2.757
X-169.07 Y-50.041 Z-2.677
X-168.938 Y-49.978 Z-2.617
X-168.737 Y-49.887 Z-2.531
X-168.533 Y-49.8 Z-2.449
X-168.275 Y-49.698 Z-2.352
X-168.066 Y-49.62 Z-2.279
X-167.943 Y-49.58 Z-2.243
X-167.82 Y-49.546 Z-2.212
X-167.617 Y-49.495 Z-2.166
X-167.387 Y-49.439 Z-2.116
X-167.15 Y-49.385 Z-2.068
X-166.984 Y-49.349 Z-2.037
X-166.751 Y-49.305 Z-1.999
X-166.612 Y-49.281 Z-1.979
X-166.468 Y-49.259 Z-1.961
X-166.324 Y-49.24 Z-1.946
X-166.147 Y-49.221 Z-1.931
X-165.919 Y-49.2 Z-1.917
X-165.666 Y-49.183 Z-1.908
X-165.423 Y-49.172 Z-1.904
X-165.083 Y-49.162 Z-1.903
X-162.968 Y-49.127 Z-1.934
X-162.035 Y-48.163 Z-1.001
X-162.968 Y-49.127 Z-1.934
X-162.034 Y-50.061 Z-1
X-162.968 Y-49.127 Z-1.934
X-165.083 Y-49.162 Z-1.903
X-165.423 Y-49.172 Z-1.904
X-165.666 Y-49.183 Z-1.908
X-165.919 Y-49.2 Z-1.917
X-166.147 Y-49.221 Z-1.931
X-166.324 Y-49.24 Z-1.946
X-166.468 Y-49.259 Z-1.961
X-166.612 Y-49.281 Z-1.979
X-166.751 Y-49.305 Z-1.999
X-166.984 Y-49.349 Z-2.037
X-167.15 Y-49.385 Z-2.068
X-167.387 Y-49.439 Z-2.116
X-167.617 Y-49.495 Z-2.166
X-167.82 Y-49.546 Z-2.212
X-167.943 Y-49.58 Z-2.243
X-168.066 Y-49.62 Z-2.279
X-168.275 Y-49.698 Z-2.352
X-168.533 Y-49.8 Z-2.449
X-168.737 Y-49.887 Z-2.531
X-168.938 Y-49.978 Z-2.617
X-169.07 Y-50.041 Z-2.677
X-169.235 Y-50.125 Z-2.757
X-169.369 Y-50.197 Z-2.826
X-169.571 Y-50.312 Z-2.937
X-169.755 Y-50.424 Z-3.045
X-169.945 Y-50.547 Z-3.164
X-170.137 Y-50.679 Z-3.292
X-170.334 Y-50.821 Z-3.431
X-170.532 Y-50.973 Z-3.579
X-170.749 Y-51.145 Z-3.748
X-170.911 Y-51.279 Z-3.879
X-171.146 Y-51.481 Z-4.077
X-171.397 Y-51.703 Z-4.294
X-171.554 Y-51.846 Z-4.434
X-171.714 Y-51.997 Z-4.583
X-171.888 Y-52.169 Z-4.753
X-171.847 Y-52.355 Z-4.716
X-171.815 Y-52.487 Z-4.693
X-171.782 Y-52.619 Z-4.672
X-171.695 Y-52.926 Z-4.631
X-171.57 Y-53.347 Z-4.579
X-171.47 Y-53.676 Z-4.542
X-171.366 Y-54.004 Z-4.509
X-171.298 Y-54.21 Z-4.49
X-171.187 Y-54.533 Z-4.465
X-171.039 Y-54.942 Z-4.439
X-170.92 Y-55.259 Z-4.424
X-170.808 Y-55.55 Z-4.412
X-170.65 Y-55.951 Z-4.399
X-170.505 Y-56.314 Z-4.389
X-169.26 Y-59.413 Z-4.312
X-168.991 Y-60.083 Z-4.296
X-168.033 Y-62.522 Z-4.265
X-167.213 Y-64.599 Z-4.243
X-166.799 Y-65.642 Z-4.233
X-165.967 Y-67.724 Z-4.22
X-165.128 Y-69.803 Z-4.215
X-164.274 Y-71.908 Z-4.219
X-163.337 Y-74.197 Z-4.23
X-162.396 Y-76.488 Z-4.249
X-161.325 Y-79.093 Z-4.278
X-160.481 Y-81.146 Z-4.304
X-160.408 Y-81.319 Z-4.309
X-160.329 Y-81.491 Z-4.319
X-160.246 Y-81.661 Z-4.334
X-160.158 Y-81.829 Z-4.354
X-160.057 Y-82.01 Z-4.382
X-159.951 Y-82.19 Z-4.415
X-159.838 Y-82.367 Z-4.455
X-159.715 Y-82.55 Z-4.503
X-159.584 Y-82.733 Z-4.558
X-159.446 Y-82.914 Z-4.62
X-159.505 Y-87.788 Z-2.791
X-159.516 Y-88.666 Z-2.463
X-159.52 Y-88.796 Z-2.416
X-159.532 Y-88.946 Z-2.367
X-159.549 Y-89.093 Z-2.325
X-159.573 Y-89.237 Z-2.289
X-159.604 Y-89.379 Z-2.261
X-159.64 Y-89.518 Z-2.239
X-159.686 Y-89.661 Z-2.224
X-159.738 Y-89.801 Z-2.216
X-160.464 Y-91.596 Z-2.167
X-160.981 Y-92.863 Z-2.135
X-161.453 Y-93.997 Z-2.111
X-161.817 Y-94.854 Z-2.097
X-162.101 Y-95.515 Z-2.09
X-162.225 Y-95.799 Z-2.087
X-162.488 Y-96.396 Z-2.084
X-162.757 Y-96.996
X-163.03 Y-97.593 Z-2.087
X-163.308 Y-98.189 Z-2.094
X-163.591 Y-98.784 Z-2.104
X-163.905 Y-99.428 Z-2.121
X-164.224 Y-100.071 Z-2.141
X-164.55 Y-100.71 Z-2.165
X-164.88 Y-101.349 Z-2.193
X-165.213 Y-101.985 Z-2.223
X-165.552 Y-102.623 Z-2.255
X-165.979 Y-103.424 Z-2.297
X-166.282 Y-103.99 Z-2.327
X-166.34 Y-104.094 Z-2.334
X-166.402 Y-104.195 Z-2.346
X-166.468 Y-104.295 Z-2.363
X-166.549 Y-104.412 Z-2.385
X-166.786 Y-104.707 Z-2.419
X-167.096 Y-105.083 Z-2.464
X-167.272 Y-105.288 Z-2.489
X-167.456 Y-105.494 Z-2.515
X-167.646 Y-105.699 Z-2.543
X-167.807 Y-105.862 Z-2.566
X-167.853 Y-105.908 Z-2.573
X-168.017 Y-106.064 Z-2.595
X-168.119 Y-106.157 Z-2.61
X-168.298 Y-106.31 Z-2.632
X-168.472 Y-106.45 Z-2.654
X-168.564 Y-106.52 Z-2.665
X-168.733 Y-106.641 Z-2.685
X-168.895 Y-106.75 Z-2.705
X-169.095 Y-106.878 Z-2.73
X-169.38 Y-107.045 Z-2.769
X-169.644 Y-107.188 Z-2.809
X-169.93 Y-107.332 Z-2.856
X-170.212 Y-107.466 Z-2.906
X-170.382 Y-107.543 Z-2.938
X-170.485 Y-107.581 Z-2.95
X-170.75 Y-107.674 Z-2.984
X-171.111 Y-107.794 Z-3.033
X-171.313 Y-107.857 Z-3.061
X-171.51 Y-107.916 Z-3.087
X-171.885 Y-108.022 Z-3.134
X-172.059 Y-108.067 Z-3.154
X-172.227 Y-108.102 Z-3.176
X-172.394 Y-108.129 Z-3.201
X-172.63 Y-108.153 Z-3.241
X-172.757 Y-108.163 Z-3.261
X-172.988 Y-108.176 Z-3.295
X-173.171 Y-108.181 Z-3.321
X-173.396 Y-108.182 Z-3.352
X-173.556 Y-108.179 Z-3.374
X-173.709 Y-108.174 Z-3.396
X-173.889 Y-108.164 Z-3.424
X-174.081 Y-108.15 Z-3.455
X-174.262 Y-108.133 Z-3.486
X-174.458 Y-108.11 Z-3.522
X-174.694 Y-108.078 Z-3.57
X-174.778 Y-108.066 Z-3.588
X-175.015 Y-108.014 Z-3.629
X-175.207 Y-107.967 Z-3.663
X-175.447 Y-107.902 Z-3.706
X-175.59 Y-107.857 Z-3.73
X-175.784 Y-107.79 Z-3.759
X-176.055 Y-107.689 Z-3.796
X-176.434 Y-107.903 Z-3.494
X-176.885 Y-108.136 Z-3.13
X-177.419 Y-108.406 Z-2.697
X-177.661 Y-108.526 Z-2.499
X-177.916 Y-108.647 Z-2.29
X-178.191 Y-108.773 Z-2.064
X-178.632 Y-108.97 Z-1.698
X-179.104 Y-109.174 Z-1.305
X-179.468 Y-109.328 Z-1
X-179.104 Y-109.174 Z-1.305
X-178.632 Y-108.97 Z-1.698
X-178.191 Y-108.773 Z-2.064
X-177.916 Y-108.647 Z-2.29
X-177.661 Y-108.526 Z-2.499
X-177.419 Y-108.406 Z-2.697
X-176.885 Y-108.136 Z-3.13
X-176.434 Y-107.903 Z-3.494
X-176.055 Y-107.689 Z-3.796
X-176.135 Y-107.489 Z-3.662
X-176.207 Y-107.291 Z-3.535
X-176.432 Y-106.641 Z-3.132
X-176.593 Y-106.156 Z-2.838
X-176.665 Y-105.933 Z-2.705
X-176.771 Y-105.585 Z-2.503
X-176.867 Y-105.254 Z-2.316
X-176.921 Y-105.052 Z-2.206
X-177.007 Y-104.716 Z-2.026
X-177.084 Y-104.402 Z-1.862
X-177.153 Y-104.099 Z-1.709
X-177.224 Y-103.778 Z-1.548
X-176.975 Y-103.23 Z-1
X-177.224 Y-103.778 Z-1.548
X-177.631 Y-103.23 Z-1
X-177.224 Y-103.778 Z-1.548
X-177.153 Y-104.099 Z-1.709
X-177.084 Y-104.402 Z-1.862
X-177.007 Y-104.716 Z-2.026
X-176.921 Y-105.052 Z-2.206
X-176.867 Y-105.254 Z-2.316
X-176.771 Y-105.585 Z-2.503
X-176.665 Y-105.933 Z-2.705
X-176.593 Y-106.156 Z-2.838
X-176.432 Y-106.641 Z-3.132
X-176.207 Y-107.291 Z-3.535
X-176.135 Y-107.489 Z-3.662
X-176.055 Y-107.689 Z-3.796
X-175.784 Y-107.79 Z-3.759
X-175.59 Y-107.857 Z-3.73
X-175.447 Y-107.902 Z-3.706
X-175.207 Y-107.967 Z-3.663
X-175.015 Y-108.014 Z-3.629
X-174.778 Y-108.066 Z-3.588
X-174.694 Y-108.078 Z-3.57
X-174.458 Y-108.11 Z-3.522
X-174.262 Y-108.133 Z-3.486
X-174.081 Y-108.15 Z-3.455
X-173.889 Y-108.164 Z-3.424
X-173.709 Y-108.174 Z-3.396
X-173.556 Y-108.179 Z-3.374
X-173.396 Y-108.182 Z-3.352
X-173.171 Y-108.181 Z-3.321
X-172.988 Y-108.176 Z-3.295
X-172.757 Y-108.163 Z-3.261
X-172.63 Y-108.153 Z-3.241
X-172.394 Y-108.129 Z-3.201
X-172.227 Y-108.102 Z-3.176
X-172.059 Y-108.067 Z-3.154
X-171.885 Y-108.022 Z-3.134
X-171.51 Y-107.916 Z-3.087
X-171.313 Y-107.857 Z-3.061
X-171.111 Y-107.794 Z-3.033
X-170.75 Y-107.674 Z-2.984
X-170.485 Y-107.581 Z-2.95
X-170.382 Y-107.543 Z-2.938
X-170.212 Y-107.466 Z-2.906
X-169.93 Y-107.332 Z-2.856
X-169.644 Y-107.188 Z-2.809
X-169.38 Y-107.045 Z-2.769
X-169.095 Y-106.878 Z-2.73
X-168.895 Y-106.75 Z-2.705
X-168.733 Y-106.641 Z-2.685
X-168.564 Y-106.52 Z-2.665
X-168.472 Y-106.45 Z-2.654
X-168.298 Y-106.31 Z-2.632
X-168.119 Y-106.157 Z-2.61
X-168.017 Y-106.064 Z-2.595
X-167.853 Y-105.908 Z-2.573
X-167.807 Y-105.862 Z-2.566
X-167.646 Y-105.699 Z-2.543
X-167.456 Y-105.494 Z-2.515
X-167.272 Y-105.288 Z-2.489
X-167.096 Y-105.083 Z-2.464
X-166.786 Y-104.707 Z-2.419
X-166.549 Y-104.412 Z-2.385
X-166.468 Y-104.295 Z-2.363
X-166.402 Y-104.195 Z-2.346
X-166.34 Y-104.094 Z-2.334
X-166.282 Y-103.99 Z-2.327
X-165.979 Y-103.424 Z-2.297
X-165.552 Y-102.623 Z-2.255
X-165.213 Y-101.985 Z-2.223
X-164.88 Y-101.349 Z-2.193
X-164.55 Y-100.71 Z-2.165
X-164.224 Y-100.071 Z-2.141
X-163.905 Y-99.428 Z-2.121
X-163.591 Y-98.784 Z-2.104
X-163.308 Y-98.189 Z-2.094
X-163.03 Y-97.593 Z-2.087
X-162.757 Y-96.996 Z-2.084
X-162.488 Y-96.396
X-162.225 Y-95.799 Z-2.087
X-162.101 Y-95.515 Z-2.09
X-161.817 Y-94.854 Z-2.097
X-161.453 Y-93.997 Z-2.111
X-160.981 Y-92.863 Z-2.135
X-160.464 Y-91.596 Z-2.167
X-159.738 Y-89.801 Z-2.216
X-159.686 Y-89.661 Z-2.224
X-159.64 Y-89.518 Z-2.239
X-159.604 Y-89.379 Z-2.261
X-159.573 Y-89.237 Z-2.289
X-159.549 Y-89.093 Z-2.325
X-159.532 Y-88.946 Z-2.367
X-159.52 Y-88.796 Z-2.416
X-159.516 Y-88.666 Z-2.463
X-159.505 Y-87.788 Z-2.791
X-159.446 Y-82.914 Z-4.62
X-159.282 Y-82.866 Z-4.487
X-159.122 Y-82.816 Z-4.358
X-158.893 Y-82.741 Z-4.177
X-158.672 Y-82.662 Z-4.004
X-158.459 Y-82.581 Z-3.839
X-158.254 Y-82.496 Z-3.682
X-158.056 Y-82.408 Z-3.534
X-157.866 Y-82.317 Z-3.394
X-157.68 Y-82.221 Z-3.26
X-157.505 Y-82.124 Z-3.136
X-157.338 Y-82.023 Z-3.021
X-157.178 Y-81.919 Z-2.914
X-157.025 Y-81.812 Z-2.815
X-156.88 Y-81.702 Z-2.724
X-156.743 Y-81.589 Z-2.641
X-156.613 Y-81.472 Z-2.567
X-156.491 Y-81.352 Z-2.501
X-156.377 Y-81.23 Z-2.443
X-156.27 Y-81.103 Z-2.393
X-156.17 Y-80.974 Z-2.352
X-156.089 Y-80.857 Z-2.322
X-156.014 Y-80.739 Z-2.299
X-155.944 Y-80.619 Z-2.282
X-155.881 Y-80.496 Z-2.271
X-155.823 Y-80.371 Z-2.267
X-154.591 Y-77.527 Z-2.242
X-153.837 Y-75.788 Z-2.231
X-152.902 Y-73.629 Z-2.225
X-152.333 Y-72.307 Z-2.227
X-151.959 Y-71.438 Z-2.229
X-151.588 Y-70.568 Z-2.234
X-150.847 Y-68.825 Z-2.249
X-150.478 Y-67.951 Z-2.26
X-150.183 Y-67.254 Z-2.274
X-149.6 Y-65.878 Z-2.305
X-149.022 Y-64.503 Z-2.341
X-148.443 Y-63.125 Z-2.383
X-147.864 Y-61.744 Z-2.43
X-147.281 Y-60.362 Z-2.484
X-146.696 Y-58.98 Z-2.544
X-146.104 Y-57.598 Z-2.609
X-145.707 Y-56.682 Z-2.656
X-145.506 Y-56.217 Z-2.681
X-145.345 Y-55.841 Z-2.705
X-145.129 Y-55.326 Z-2.743
X-144.98 Y-54.96 Z-2.775
X-144.835 Y-54.59 Z-2.812
X-144.754 Y-54.381 Z-2.834
X-144.619 Y-54.019 Z-2.879
X-144.427 Y-53.488 Z-2.949
X-144.24 Y-52.955 Z-3.026
X-144.196 Y-52.824 Z-3.047
X-144.156 Y-52.69 Z-3.072
X-144.107 Y-52.505 Z-3.114
X-144.066 Y-52.317 Z-3.163
X-144.032 Y-52.126 Z-3.219
X-144.004 Y-51.931 Z-3.284
X-143.986 Y-51.765 Z-3.344
X-143.973 Y-51.604 Z-3.407
X-143.965 Y-51.44 Z-3.475
X-143.961 Y-51.274 Z-3.547
X-143.959 Y-51.078 Z-3.636
X-143.819 Y-50.997 Z-3.553
X-143.597 Y-50.877 Z-3.432
X-143.167 Y-50.654 Z-3.214
X-142.891 Y-50.515 Z-3.078
X-142.627 Y-50.388 Z-2.954
X-142.381 Y-50.275 Z-2.844
X-142.171 Y-50.182 Z-2.755
X-141.939 Y-50.087 Z-2.663
X-141.736 Y-50.008 Z-2.588
X-141.491 Y-49.919 Z-2.503
X-141.254 Y-49.837 Z-2.426
X-141.102 Y-49.787 Z-2.38
X-140.692 Y-49.656 Z-2.26
X-140.571 Y-49.619 Z-2.226
X-140.441 Y-49.583 Z-2.194
X-140.064 Y-49.487 Z-2.112
X-139.776 Y-49.418 Z-2.055
X-139.642 Y-49.388 Z-2.03
X-139.413 Y-49.34 Z-1.994
X-139.209 Y-49.303 Z-1.966
X-139.041 Y-49.276 Z-1.948
X-138.848 Y-49.249 Z-1.932
X-138.709 Y-49.232 Z-1.923
X-138.497 Y-49.21 Z-1.913
X-138.297 Y-49.192 Z-1.907
X-137.912 Y-49.163 Z-1.902
X-137.823 Y-49.159 Z-1.903
X-137.548 Y-49.15 Z-1.912
X-136.669 Y-48.208 Z-1.033
X-136.636 Y-48.173 Z-1
X-136.669 Y-48.208 Z-1.033
X-137.548 Y-49.15 Z-1.912
X-136.636 Y-50.061 Z-1
X-137.548 Y-49.15 Z-1.912
X-137.823 Y-49.159 Z-1.903
X-137.912 Y-49.163 Z-1.902
X-138.297 Y-49.192 Z-1.907
X-138.497 Y-49.21 Z-1.913
X-138.709 Y-49.232 Z-1.923
X-138.848 Y-49.249 Z-1.932
X-139.041 Y-49.276 Z-1.948
X-139.209 Y-49.303 Z-1.966
X-139.413 Y-49.34 Z-1.994
X-139.642 Y-49.388 Z-2.03
X-139.776 Y-49.418 Z-2.055
X-140.064 Y-49.487 Z-2.112
X-140.441 Y-49.583 Z-2.194
X-140.571 Y-49.619 Z-2.226
X-140.692 Y-49.656 Z-2.26
X-141.102 Y-49.787 Z-2.38
X-141.254 Y-49.837 Z-2.426
X-141.491 Y-49.919 Z-2.503
X-141.736 Y-50.008 Z-2.588
X-141.939 Y-50.087 Z-2.663
X-142.171 Y-50.182 Z-2.755
X-142.381 Y-50.275 Z-2.844
X-142.627 Y-50.388 Z-2.954
X-142.891 Y-50.515 Z-3.078
X-143.167 Y-50.654 Z-3.214
X-143.597 Y-50.877 Z-3.432
X-143.819 Y-50.997 Z-3.553
X-143.959 Y-51.078 Z-3.636
X-144.303 Y-50.865 Z-3.427
X-144.525 Y-50.731 Z-3.296
X-144.77 Y-50.591 Z-3.158
X-145.018 Y-50.455 Z-3.026
X-145.14 Y-50.39 Z-2.963
X-145.282 Y-50.318 Z-2.892
X-145.499 Y-50.215 Z-2.792
X-145.565 Y-50.183 Z-2.762
X-145.724 Y-50.113 Z-2.694
X-145.862 Y-50.055 Z-2.638
X-146.022 Y-49.992 Z-2.578
X-146.228 Y-49.917 Z-2.506
X-146.443 Y-49.846 Z-2.44
X-146.594 Y-49.801 Z-2.398
X-146.715 Y-49.767 Z-2.367
X-146.827 Y-49.738 Z-2.34
X-147.067 Y-49.681 Z-2.289
X-147.32 Y-49.63 Z-2.244
X-147.509 Y-49.596 Z-2.216
X-147.714 Y-49.564 Z-2.19
X-147.911 Y-49.538 Z-2.17
X-148.106 Y-49.514 Z-2.153
X-148.426 Y-49.482 Z-2.132
X-148.65 Y-49.462 Z-2.121
X-149.158 Y-49.422 Z-2.102
X-150.253 Y-49.315 Z-2.046
X-151.109 Y-49.23 Z-2.005
X-152.113 Y-50.096 Z-1.001
X-151.109 Y-49.23 Z-2.005
X-152.113 Y-48.169 Z-1.001
G0 Z5
X-133.365 Y-50.532
Z4
G1 Z-1 F850
X-133.309 Y-50.581 Z-1.056
X-132.334 Y-51.438 Z-2.031
X-133.365 Y-52.469 Z-1
X-132.334 Y-51.438 Z-2.031
X-132.105 Y-51.423 Z-2.046
X-131.281 Y-51.365 Z-2.104
X-130.727 Y-51.323 Z-2.147
X-130.38 Y-51.291 Z-2.172
X-129.931 Y-51.249 Z-2.207
X-129.617 Y-51.221 Z-2.238
X-129.326 Y-51.199 Z-2.271
X-129.085 Y-51.183 Z-2.302
X-128.77 Y-51.167 Z-2.35
X-128.586 Y-51.16 Z-2.381
X-128.482 Y-51.158 Z-2.4
X-128.207 Y-51.154 Z-2.454
X-128.008 Z-2.498
X-127.916 Y-51.156 Z-2.519
X-127.634 Y-51.164 Z-2.588
X-127.425 Y-51.173 Z-2.642
X-127.068 Y-51.193 Z-2.741
X-126.733 Y-51.216 Z-2.838
X-126.479 Y-51.23 Z-2.919
X-126.38 Y-51.238 Z-2.953
X-126.228 Y-51.254 Z-3.01
X-126.077 Y-51.275 Z-3.071
X-125.919 Y-51.301 Z-3.14
X-125.766 Y-51.332 Z-3.211
X-125.607 Y-51.368 Z-3.289
X-125.45 Y-51.409 Z-3.371
X-125.28 Y-51.457 Z-3.465
X-125.12 Y-51.508 Z-3.558
X-124.784 Y-51.619 Z-3.759
X-124.496 Y-51.717 Z-3.936
X-124.204 Y-51.822 Z-4.121
X-123.949 Y-51.918 Z-4.288
X-123.736 Y-52.002 Z-4.432
X-123.485 Y-52.106 Z-4.607
X-123.165 Y-51.673 Z-4.294
X-122.727 Y-51.068 Z-3.865
X-122.31 Y-50.483 Z-3.456
X-121.903 Y-49.905 Z-3.058
X-121.507 Y-49.337 Z-2.671
X-120.926 Y-48.505 Z-2.112
X-120.414 Y-47.77 Z-1.617
X-120.359 Y-47.695 Z-1.558
X-120.291 Y-47.611 Z-1.485
X-120.185 Y-47.526 Z-1.368
X-120.133 Y-47.484 Z-1.309
X-120.062 Y-47.425 Z-1.223
X-120.036 Y-47.402 Z-1.189
X-120.015 Y-47.384 Z-1.161
X-120.036 Y-47.402 Z-1.189
X-120.062 Y-47.425 Z-1.223
X-120.133 Y-47.484 Z-1.309
X-120.185 Y-47.526 Z-1.368
X-120.291 Y-47.611 Z-1.485
X-120.359 Y-47.695 Z-1.558
X-120.414 Y-47.77 Z-1.617
X-120.926 Y-48.505 Z-2.112
X-121.507 Y-49.337 Z-2.671
X-121.903 Y-49.905 Z-3.058
X-122.31 Y-50.483 Z-3.456
X-122.727 Y-51.068 Z-3.865
X-123.165 Y-51.673 Z-4.294
X-123.485 Y-52.106 Z-4.607
X-123.451 Y-52.259 Z-4.571
X-123.394 Y-52.539 Z-4.51
X-123.352 Y-52.775 Z-4.465
X-123.311 Y-53.047 Z-4.419
X-123.281 Y-53.274 Z-4.386
X-123.261 Y-53.454 Z-4.363
X-123.239 Y-53.674 Z-4.339
X-123.219 Y-53.94 Z-4.314
X-123.201 Y-54.24 Z-4.292
X-123.19 Y-54.495 Z-4.277
X-123.181 Y-54.75 Z-4.265
X-123.177 Y-54.95 Z-4.258
X-123.174 Y-55.108 Z-4.256
X-123.169 Y-55.252 Z-4.257
X-123.16 Y-55.397 Z-4.262
X-123.139 Y-55.628 Z-4.275
X-123.11 Y-55.866 Z-4.297
X-123.075 Y-56.097 Z-4.326
X-123.031 Y-56.327 Z-4.363
X-122.98 Y-56.557 Z-4.408
X-122.922 Y-56.787 Z-4.46
X-122.856 Y-57.017 Z-4.519
X-122.782 Y-57.246 Z-4.587
X-122.721 Y-57.42 Z-4.643
X-122.744 Y-57.565 Z-4.616
X-122.765 Y-57.709 Z-4.591
X-122.794 Y-57.958 Z-4.555
X-122.815 Y-58.19 Z-4.53
X-122.825 Y-58.363 Z-4.515
X-122.878 Y-59.436 Z-4.439
X-122.913 Y-60.185 Z-4.391
X-122.945 Y-60.944 Z-4.348
X-122.959 Y-61.338 Z-4.33
X-122.982 Y-62.106 Z-4.3
X-122.999 Y-62.883 Z-4.277
X-123.01 Y-63.639 Z-4.263
X-123.015 Y-64.29 Z-4.256
X-123.018 Y-65.143 Z-4.252
X-123.017 Y-65.881
X-123.008 Y-66.963 Z-4.25
X-123 Y-67.881 Z-4.247
X-122.989 Y-69.648 Z-4.24
X-122.984 Y-71.171 Z-4.239
X-122.982 Y-72.597 Z-4.244
X-122.985 Y-73.779 Z-4.255
X-122.987 Y-74.373 Z-4.262
X-122.995 Y-75.555 Z-4.281
X-123.001 Y-76.149 Z-4.294
X-123.008 Y-76.737 Z-4.309
X-123.017 Y-77.331 Z-4.325
X-123.038 Y-78.514 Z-4.363
X-123.052 Y-79.102 Z-4.386
X-123.067 Y-79.691 Z-4.41
X-123.098 Y-80.787 Z-4.459
X-123.132 Y-81.794 Z-4.506
X-123.143 Y-82.189 Z-4.528
X-123.147 Y-82.548 Z-4.555
X-123.145 Y-82.839 Z-4.582
X-123.14 Y-83.067 Z-4.606
X-123.626 Y-83.508 Z-4.16
X-123.911 Y-83.77 Z-3.901
X-124.041 Y-83.883 Z-3.789
X-124.179 Y-83.998 Z-3.676
X-124.317 Y-84.108 Z-3.568
X-124.457 Y-84.213 Z-3.464
X-124.595 Y-84.312 Z-3.366
X-124.734 Y-84.405 Z-3.274
X-124.874 Y-84.494 Z-3.187
X-125.013 Y-84.577 Z-3.106
X-125.151 Y-84.654 Z-3.03
X-125.292 Y-84.726 Z-2.959
X-125.416 Y-84.786 Z-2.901
X-125.801 Y-84.963 Z-2.729
X-126.128 Y-85.108 Z-2.588
X-126.244 Y-85.158 Z-2.54
X-126.547 Y-85.284 Z-2.419
X-126.715 Y-85.35 Z-2.356
X-126.969 Y-85.444 Z-2.267
X-127.217 Y-85.527 Z-2.188
X-127.384 Y-85.579 Z-2.14
X-127.482 Y-85.607 Z-2.114
X-127.738 Y-85.674 Z-2.052
X-127.985 Y-85.73 Z-2.003
X-128.223 Y-85.775 Z-1.963
X-128.449 Y-85.812 Z-1.933
X-128.671 Y-85.841 Z-1.91
X-128.886 Y-85.865 Z-1.893
X-129.098 Y-85.884 Z-1.881
X-129.304 Y-85.898 Z-1.873
X-129.507 Y-85.909 Z-1.869
X-129.706 Y-85.918 Z-1.868
X-130.093 Y-85.929 Z-1.872
X-130.466 Y-85.935 Z-1.88
X-130.743 Y-85.939 Z-1.887
X-132.44 Y-85.977 Z-1.925
X-133.364 Y-86.946 Z-1.001
X-132.44 Y-85.977 Z-1.925
X-133.365 Y-85.052 Z-1
X-132.44 Y-85.977 Z-1.925
X-130.743 Y-85.939 Z-1.887
X-130.466 Y-85.935 Z-1.88
X-130.093 Y-85.929 Z-1.872
X-129.706 Y-85.918 Z-1.868
X-129.507 Y-85.909 Z-1.869
X-129.304 Y-85.898 Z-1.873
X-129.098 Y-85.884 Z-1.881
X-128.886 Y-85.865 Z-1.893
X-128.671 Y-85.841 Z-1.91
X-128.449 Y-85.812 Z-1.933
X-128.223 Y-85.775 Z-1.963
X-127.985 Y-85.73 Z-2.003
X-127.738 Y-85.674 Z-2.052
X-127.482 Y-85.607 Z-2.114
X-127.384 Y-85.579 Z-2.14
X-127.217 Y-85.527 Z-2.188
X-126.969 Y-85.444 Z-2.267
X-126.715 Y-85.35 Z-2.356
X-126.547 Y-85.284 Z-2.419
X-126.244 Y-85.158 Z-2.54
X-126.128 Y-85.108 Z-2.588
X-125.801 Y-84.963 Z-2.729
X-125.416 Y-84.786 Z-2.901
X-125.292 Y-84.726 Z-2.959
X-125.151 Y-84.654 Z-3.03
X-125.013 Y-84.577 Z-3.106
X-124.874 Y-84.494 Z-3.187
X-124.734 Y-84.405 Z-3.274
X-124.595 Y-84.312 Z-3.366
X-124.457 Y-84.213 Z-3.464
X-124.317 Y-84.108 Z-3.568
X-124.179 Y-83.998 Z-3.676
X-124.041 Y-83.883 Z-3.789
X-123.911 Y-83.77 Z-3.901
X-123.626 Y-83.508 Z-4.16
X-123.14 Y-83.067 Z-4.606
X-123.113 Y-83.09 Z-4.583
X-122.829 Y-83.331 Z-4.345
X-122.587 Y-83.529 Z-4.15
X-122.352 Y-83.714 Z-3.968
X-122.123 Y-83.887 Z-3.797
X-121.9 Y-84.048 Z-3.639
X-121.694 Y-84.191 Z-3.498
X-121.476 Y-84.337 Z-3.356
X-121.248 Y-84.483 Z-3.213
X-120.991 Y-84.642 Z-3.057
X-120.609 Y-84.871 Z-2.833
X-120.455 Y-84.959 Z-2.748
X-120.3 Y-85.039 Z-2.67
X-120.143 Y-85.113 Z-2.599
X-119.989 Y-85.178 Z-2.537
X-119.834 Y-85.234 Z-2.483
X-119.684 Y-85.282 Z-2.438
X-119.204 Y-85.422 Z-2.308
X-119.011 Y-85.477 Z-2.257
X-118.679 Y-85.566 Z-2.176
X-118.493 Y-85.612 Z-2.134
X-118.301 Y-85.657 Z-2.094
X-118.108 Y-85.699 Z-2.056
X-117.966 Y-85.728 Z-2.032
X-117.704 Y-85.775 Z-1.992
X-117.506 Y-85.806 Z-1.967
X-117.307 Y-85.832 Z-1.946
X-117.115 Y-85.854 Z-1.93
X-117.032 Y-85.863 Z-1.924
X-116.744 Y-85.888 Z-1.908
X-116.537 Y-85.902 Z-1.9
X-116.212 Y-85.92 Z-1.894
X-115.875 Y-85.933 Z-1.892
X-115.391 Y-85.947 Z-1.895
X-113.587 Y-85.981 Z-1.93
X-112.657 Y-85.052 Z-1
X-113.587 Y-85.981 Z-1.93
X-112.658 Y-86.948 Z-1.001
G0 Z5
X-122.721 Y-57.42
Z4
G1 Z-4.643 F850
X-122.508 Y-57.388 Z-4.458
X-122.281 Y-57.351 Z-4.262
X-122.033 Y-57.307 Z-4.051
X-121.82 Y-57.265 Z-3.872
X-121.569 Y-57.209 Z-3.662
X-121.372 Y-57.162 Z-3.501
X-121.143 Y-57.101 Z-3.314
X-120.962 Y-57.049 Z-3.171
X-120.741 Y-56.979 Z-2.998
X-120.577 Y-56.922 Z-2.873
X-120.377 Y-56.846 Z-2.725
X-120.229 Y-56.784 Z-2.618
X-120.036 Y-56.697 Z-2.484
X-119.903 Y-56.631 Z-2.395
X-119.727 Y-56.535 Z-2.284
X-119.608 Y-56.465 Z-2.214
X-119.459 Y-56.367 Z-2.131
X-119.353 Y-56.292 Z-2.078
X-119.214 Y-56.183 Z-2.016
X-119.12 Y-56.102 Z-1.98
X-118.999 Y-55.986 Z-1.941
X-118.946 Y-55.932 Z-1.929
X-118.837 Y-55.811 Z-1.908
X-118.804 Y-55.775 Z-1.903
X-118.61 Y-55.567 Z-1.876
X-118.416 Y-55.367 Z-1.855
X-118.223 Y-55.175 Z-1.839
X-118.03 Y-54.989 Z-1.828
X-117.834 Y-54.805 Z-1.821
X-117.64 Y-54.628 Z-1.817
X-117.444 Y-54.454 Z-1.816
X-117.25 Y-54.284 Z-1.818
X-116.864 Y-53.953 Z-1.826
X-116.482 Y-53.633 Z-1.84
X-116.235 Y-53.428 Z-1.85
X-116.174 Y-53.383 Z-1.856
X-115.667 Y-53.016 Z-1.918
X-115.145 Y-52.643 Z-1.986
X-114.878 Y-52.456 Z-2.023
X-114.604 Y-52.268 Z-2.064
X-114.323 Y-52.08 Z-2.109
X-114.038 Y-51.894 Z-2.159
X-113.742 Y-51.706 Z-2.215
X-113.438 Y-51.52 Z-2.277
X-113.123 Y-51.334 Z-2.347
X-112.8 Y-51.153 Z-2.426
X-112.474 Y-50.978 Z-2.511
X-112.126 Y-50.801 Z-2.606
X-111.816 Y-50.655 Z-2.689
X-111.534 Y-50.532 Z-2.764
X-111.388 Y-50.472 Z-2.801
X-111.196 Y-50.399 Z-2.847
X-111.104 Y-50.367 Z-2.867
X-110.968 Y-50.323 Z-2.895
X-110.811 Y-50.275 Z-2.924
X-110.523 Y-50.195 Z-2.974
X-110.254 Y-50.126 Z-3.019
X-109.841 Y-50.051 Z-3.062
X-109.284 Y-49.957 Z-3.122
X-108.909 Y-49.898 Z-3.16
X-108.768 Y-49.879 Z-3.175
X-108.667 Y-49.868 Z-3.189
X-108.273 Y-49.834 Z-3.241
X-107.908 Y-49.81 Z-3.284
X-107.716 Y-49.801 Z-3.305
X-107.529 Y-49.794 Z-3.324
X-107.142 Y-49.788 Z-3.361
X-106.943 Y-49.789 Z-3.38
X-106.53 Y-49.797 Z-3.419
X-106.216 Y-49.81 Z-3.45
X-105.875 Y-49.83 Z-3.487
X-105.537 Y-49.855 Z-3.528
X-105.269 Y-49.891 Z-3.552
X-104.936 Y-49.942 Z-3.588
X-104.608 Y-49.998 Z-3.627
X-104.283 Y-50.061 Z-3.669
X-103.966 Y-50.129 Z-3.714
X-103.661 Y-50.2 Z-3.758
X-103.36 Y-50.277 Z-3.803
X-103.071 Y-50.356 Z-3.846
X-102.796 Y-50.438 Z-3.886
X-102.522 Y-50.526 Z-3.924
X-102.289 Y-50.605 Z-3.953
X-102.072 Y-50.684 Z-3.978
X-101.853 Y-50.768 Z-3.999
X-101.626 Y-50.86 Z-4.021
X-101.51 Y-50.913 Z-4.034
X-101.396 Y-50.967 Z-4.049
X-101.312 Y-51.011 Z-4.061
X-100.926 Y-51.215 Z-4.117
X-100.72 Y-51.329 Z-4.145
X-100.418 Y-51.5 Z-4.187
X-100.156 Y-51.653 Z-4.224
X-99.817 Y-51.859 Z-4.275
X-99.543 Y-52.031 Z-4.319
X-99.325 Y-52.195 Z-4.341
X-99.073 Y-52.392 Z-4.37
X-98.82 Y-52.599 Z-4.403
X-98.568 Y-52.816 Z-4.439
X-98.452 Y-52.921 Z-4.456
X-98.3 Y-53.064 Z-4.48
X-98.208 Y-53.155 Z-4.494
X-98.061 Y-53.304 Z-4.516
X-97.967 Y-53.405 Z-4.53
X-97.835 Y-53.555 Z-4.548
X-97.753 Y-53.653 Z-4.558
X-97.662 Y-53.768 Z-4.567
X-97.624 Y-53.818 Z-4.57
X-97.47 Y-54.029 Z-4.583
X-97.443 Y-54.068 Z-4.585
X-97.274 Y-54.32 Z-4.596
X-97.146 Y-54.521 Z-4.603
X-97.028 Y-54.712 Z-4.61
X-96.906 Y-54.916 Z-4.617
X-96.73 Y-55.22 Z-4.628
X-96.539 Y-55.668 Z-4.587
X-96.471 Y-55.836 Z-4.574
X-96.409 Y-55.999 Z-4.565
X-96.352 Y-56.164 Z-4.559
X-96.296 Y-56.338 Z-4.557
X-96.252 Y-56.488 Z-4.559
X-96.163 Y-56.804 Z-4.562
X-96.077 Y-57.121
X-95.988 Y-57.469 Z-4.56
X-95.902 Y-57.827 Z-4.554
X-95.869 Y-57.972 Z-4.551
X-95.81 Y-58.251 Z-4.543
X-95.748 Y-58.572 Z-4.53
X-95.682 Y-58.959 Z-4.512
X-95.632 Y-59.288 Z-4.495
X-95.61 Y-59.443 Z-4.487
X-95.569 Y-59.764 Z-4.47
X-95.525 Y-60.171 Z-4.449
X-95.489 Y-60.576 Z-4.429
X-95.46 Y-60.975 Z-4.411
X-95.43 Y-61.491 Z-4.391
X-95.413 Y-61.859 Z-4.379
X-95.4 Y-62.235 Z-4.368
X-95.39 Y-62.584 Z-4.36
X-95.386 Y-62.887 Z-4.352
X-95.381 Y-63.615 Z-4.338
Y-64.321 Z-4.33
X-95.387 Y-65.347 Z-4.323
X-95.41 Y-68.094 Z-4.31
X-95.427 Y-69.932 Z-4.304
X-95.449 Y-71.776 Z-4.302
X-95.476 Y-73.626 Z-4.306
X-95.492 Y-74.553 Z-4.31
X-95.521 Y-75.924 Z-4.319
X-95.548 Y-76.943 Z-4.327
X-95.564 Y-77.643 Z-4.338
X-95.578 Y-78.358 Z-4.355
X-95.586 Y-79.049 Z-4.379
X-95.588 Y-79.46 Z-4.398
Y-79.837 Z-4.417
X-95.586 Y-80.218 Z-4.44
X-95.581 Y-80.603 Z-4.466
X-95.572 Y-81.064 Z-4.502
X-95.563 Y-81.387 Z-4.53
X-95.549 Y-81.779 Z-4.568
X-95.533 Y-82.162 Z-4.608
X-95.514 Y-82.536 Z-4.65
X-95.488 Y-83.006 Z-4.706
X-95.945 Y-83.447 Z-4.28
X-96.517 Y-84.003 Z-3.747
X-97.173 Y-84.646 Z-3.136
X-97.893 Y-85.358 Z-2.468
X-98.958 Y-86.419 Z-1.481
X-99.478 Y-86.938 Z-1.001
X-98.958 Y-86.419 Z-1.481
X-97.893 Y-85.358 Z-2.468
X-97.173 Y-84.646 Z-3.136
X-96.517 Y-84.003 Z-3.747
X-95.945 Y-83.447 Z-4.28
X-95.488 Y-83.006 Z-4.706
X-94.882 Y-83.497 Z-4.201
X-94.172 Y-84.068 Z-3.616
X-94.03 Y-84.179 Z-3.503
X-93.884 Y-84.286 Z-3.394
X-93.742 Y-84.385 Z-3.293
X-93.597 Y-84.481 Z-3.195
X-93.455 Y-84.568 Z-3.106
X-93.313 Y-84.65 Z-3.023
X-93.171 Y-84.725 Z-2.945
X-92.975 Y-84.821 Z-2.847
X-92.865 Y-84.872 Z-2.798
X-92.39 Y-85.08 Z-2.597
X-92.172 Y-85.172 Z-2.507
X-91.977 Y-85.251 Z-2.431
X-91.775 Y-85.33 Z-2.355
X-91.566 Y-85.407 Z-2.282
X-91.352 Y-85.481 Z-2.212
X-91.132 Y-85.55 Z-2.146
X-90.906 Y-85.615 Z-2.087
X-90.683 Y-85.67 Z-2.036
X-90.468 Y-85.717 Z-1.994
X-90.262 Y-85.756 Z-1.961
X-90.063 Y-85.787 Z-1.934
X-89.871 Y-85.814 Z-1.914
X-89.685 Y-85.835 Z-1.898
X-89.449 Y-85.857 Z-1.884
X-89.326 Y-85.868 Z-1.878
X-89.007 Y-85.889 Z-1.87
X-88.804 Y-85.899 Z-1.867
X-88.357 Y-85.919 Z-1.868
X-88.159 Y-85.924 Z-1.872
X-87.194 Y-85.949 Z-1.898
X-86.514 Y-85.969 Z-1.917
X-85.597 Y-85.052 Z-1
X-86.514 Y-85.969 Z-1.917
X-85.597 Y-86.943 Z-1.001
G0 Z15
M9
M30
%
