%
(1001)
(z0 top)
(T1  D=6 CR=0 - ZMIN=-10 - flat end mill)
G90 G94
G17
G21

(Bore2)
M9
T1 M6
S6000 M3
G54
M9
G0 X-474.4 Y0.5
Z15
Z2
G1 Z0.6 F850
Y0.507 Z0.506
Y0.529 Z0.415
Y0.565 Z0.328
Y0.615 Z0.247
Y0.676 Z0.176
Y0.747 Z0.115
Y0.828 Z0.065
Y0.915 Z0.029
Y1.006 Z0.007
Y1.1 Z0
Y1.4
G3 X-475 Y2 I-0.6
Y-2 Z-0.5 J-2
Y2 Z-1 J2
Y-2 Z-1.5 J-2
Y2 Z-2 J2
Y-2 Z-2.5 J-2
Y2 Z-3 J2
Y-2 Z-3.5 J-2
Y2 Z-4 J2
Y-2 Z-4.5 J-2
Y2 Z-5 J2
Y-2 Z-5.5 J-2
Y2 Z-6 J2
Y-2 Z-6.5 J-2
Y2 Z-7 J2
Y-2 Z-7.5 J-2
Y2 Z-8 J2
Y-2 Z-8.5 J-2
Y2 Z-9 J2
Y-2 Z-9.5 J-2
Y2 Z-10 J2
Y-2 J-2
Y2 J2
X-475.6 Y1.4 J-0.6
G1 Y1.1
Y1.006 Z-9.993
Y0.915 Z-9.971
Y0.828 Z-9.935
Y0.747 Z-9.885
Y0.676 Z-9.824
Y0.615 Z-9.753
Y0.565 Z-9.672
Y0.529 Z-9.585
Y0.507 Z-9.494
Y0.5 Z-9.4
G0 Z15

(2D Adaptive2)
M9
X-475 Y0
Z15
Z5
Z0.65
G1 Z0.05 F850
Z-10
X-474.85
X-474.078 Y0.435
X-473.251 Y0.754
X-472.395 Y0.981
X-471.523 Y1.14
X-470.644 Y1.248
X-469.761 Y1.322
X-468.876 Y1.372
X-467.99 Y1.405
X-467.105 Y1.427
X-466.219 Y1.442
X-465.332 Y1.451
X-464.446 Y1.458
X-463.56 Y1.462
X-461.788 Y1.466
X-459.13 Y1.469
X-448.496 Y1.47
X-424.571
X-374.062
X-323.553
X-273.044
X-222.535
X-172.026
X-121.517
X-71.008
X-20.499
X-13.606
X-13.48 Y1.502
X-13.384 Y1.591
X-13.341 Y1.714
X-13.363 Y1.843
X-13.443 Y1.946
X-13.563 Y1.998
G3 X-13.792 Y1.949 I0.01 J-0.6
G1 X-13.878 Y1.911 Z-9.993
X-13.962 Y1.875 Z-9.971
X-14.042 Y1.84 Z-9.935
X-14.115 Y1.808 Z-9.885
X-14.181 Y1.78 Z-9.824
X-14.237 Y1.756 Z-9.753
X-14.282 Y1.736 Z-9.672
X-14.315 Y1.722 Z-9.585
X-14.335 Y1.713 Z-9.494
X-14.342 Y1.71 Z-9.4
G0 Z5
X-474.9 Y1.578
Z-8.8
G1 Z-9.4 F850
X-474.906 Y1.581 Z-9.494
X-474.926 Y1.59 Z-9.585
X-474.959 Y1.605 Z-9.672
X-475.004 Y1.626 Z-9.753
X-475.06 Y1.651 Z-9.824
X-475.125 Y1.681 Z-9.885
X-475.198 Y1.715 Z-9.935
X-475.277 Y1.751 Z-9.971
X-475.36 Y1.789 Z-9.993
X-475.445 Y1.828 Z-10
G3 X-475.681 Y1.837 I-0.128 J-0.279
G1 X-475.845 Y1.769
X-475.946 Y1.725
X-475.996 Y1.698
X-476.046 Y1.664
X-476.248 Y1.51
X-476.309 Y1.461
X-476.333 Y1.441
X-476.329 Y1.206
X-476.315 Y1.012
X-476.293 Y0.844
X-476.266 Y0.697
X-476.23 Y0.551
X-476.184 Y0.408
X-476.129 Y0.269
X-476.063 Y0.134
X-475.984 Y0.006
X-475.894 Y-0.113
X-475.789 Y-0.221
X-475.672 Y-0.315
X-475.543 Y-0.391
X-475.405 Y-0.45
X-475.26 Y-0.487
X-475.111 Y-0.509
X-474.889 Y-0.528
X-474.48 Y-0.541
X-473.599 Y-0.52
X-472.715 Y-0.448
X-471.833 Y-0.368
X-470.95 Y-0.294
X-470.066 Y-0.232
X-469.181 Y-0.181
X-468.296 Y-0.142
X-467.41 Y-0.111
X-466.524 Y-0.089
X-465.638 Y-0.072
X-464.752 Y-0.06
X-463.866 Y-0.051
X-462.98 Y-0.045
X-462.094 Y-0.041
X-460.322 Y-0.035
X-457.664 Y-0.032
X-451.461 Y-0.03
X-427.535
X-377.026
X-326.517
X-276.008
X-225.499
X-174.99
X-124.481
X-73.972
X-23.463
X-15.488
X-15.038 Y-0.013
X-14.741 Y0.016
X-14.51 Y0.051
X-14.32 Y0.091
X-14.138 Y0.14
X-13.981 Y0.192
X-13.777 Y0.272
X-13.518 Y0.412
X-13.301 Y0.61
X-13.136 Y0.854
X-13.035 Y1.129
X-13.001 Y1.421
X-13.021 Y1.473 Z-9.993
X-13.04 Y1.521 Z-9.974
X-13.057 Y1.564 Z-9.943
X-13.07 Y1.599 Z-9.902
X-13.08 Y1.624 Z-9.853
X-13.087 Y1.635 Z-9.81
X-13.089 Y1.638 Z-9.764
G0 Z5
X-476.164 Y1.276
Z-7.4
G1 Z-8 F850
Z-10
G3 X-476.309 Y1.461 I-0.076 J0.09
G1 X-476.36 Y1.421
X-476.409 Y1.374
X-476.449 Y1.327
X-476.65 Y1.064
X-476.684 Y1.019
X-476.738 Y0.918
X-476.761 Y0.863
X-476.812 Y0.722
X-476.813 Y0.572
X-476.801 Y0.422
X-476.778 Y0.274
X-476.742 Y0.128
X-476.694 Y-0.014
X-476.634 Y-0.151
X-476.563 Y-0.283
X-476.481 Y-0.409
X-476.388 Y-0.527
X-476.286 Y-0.637
X-476.176 Y-0.738
X-476.058 Y-0.831
X-475.933 Y-0.916
X-475.801 Y-0.996
X-475.637 Y-1.082
X-475.433 Y-1.176
X-475.21 Y-1.263
X-474.95 Y-1.348
X-474.626 Y-1.435
X-474.225 Y-1.518
X-473.689 Y-1.598
X-472.906 Y-1.67
X-472.021 Y-1.701
X-471.135 Y-1.7
X-470.249 Y-1.685
X-469.363 Y-1.663
X-468.477 Y-1.64
X-467.591 Y-1.618
X-466.705 Y-1.6
X-465.819 Y-1.584
X-464.933 Y-1.571
X-464.047 Y-1.561
X-463.161 Y-1.553
X-462.275 Y-1.547
X-461.389 Y-1.543
X-459.617 Y-1.537
X-456.958 Y-1.533
X-452.528 Y-1.53
X-427.716
X-377.207
X-326.698
X-276.189
X-225.68
X-175.171
X-124.662
X-74.153
X-23.644
X-17.441
X-16.555 Y-1.522
X-15.904 Y-1.487
X-15.404 Y-1.433
X-15.019 Y-1.368
X-14.672 Y-1.29
X-14.42 Y-1.218
X-14.344 Y-1.192
X-14.022 Y-1.047
X-13.731 Y-0.848
X-13.479 Y-0.601
X-13.274 Y-0.314
X-13.124 Y0.005
X-13.031 Y0.346
X-13 Y0.697
G3 X-13.054 Y0.925 I-0.6 J-0.021
G1 X-13.093 Y1.011 Z-9.993
X-13.131 Y1.094 Z-9.971
X-13.167 Y1.173 Z-9.935
X-13.2 Y1.246 Z-9.885
X-13.23 Y1.311 Z-9.824
X-13.255 Y1.367 Z-9.753
X-13.275 Y1.412 Z-9.672
X-13.29 Y1.445 Z-9.585
X-13.299 Y1.465 Z-9.494
X-13.302 Y1.471 Z-9.4
G0 Z5
X-476.755 Y0.211
Z-8.8
G1 Z-9.4 F850
X-476.752 Y0.218 Z-9.494
X-476.745 Y0.238 Z-9.585
X-476.732 Y0.272 Z-9.672
X-476.715 Y0.318 Z-9.753
X-476.693 Y0.375 Z-9.824
X-476.668 Y0.442 Z-9.885
X-476.64 Y0.517 Z-9.935
X-476.609 Y0.599 Z-9.971
X-476.577 Y0.684 Z-9.993
X-476.544 Y0.772 Z-10
G3 X-476.761 Y0.863 I-0.11 J0.042
G1 X-476.863 Y0.616
X-476.9 Y0.516
X-476.92 Y0.415
X-476.946 Y0.214
X-476.971 Y0.012
X-476.982 Y-0.137
X-476.976 Y-0.287
X-476.951 Y-0.435
X-476.911 Y-0.58
X-476.858 Y-0.72
X-476.793 Y-0.855
X-476.718 Y-0.985
X-476.634 Y-1.109
X-476.542 Y-1.228
X-476.439 Y-1.346
X-476.321 Y-1.467
X-476.187 Y-1.589
X-476.029 Y-1.719
X-475.858 Y-1.844
X-475.649 Y-1.978
X-475.423 Y-2.106
X-475.15 Y-2.242
X-474.833 Y-2.377
X-474.475 Y-2.507
X-474.036 Y-2.638
X-473.51 Y-2.764
X-473.149 Y-2.829
X-472.836 Y-2.86
X-472.522 Y-2.842
X-472.215 Y-2.775
X-471.922 Y-2.66
X-471.651 Y-2.501
X-471.616 Y-2.477
X-471.498 Y-2.403
X-471.414 Y-2.358
X-471.213 Y-2.257
X-471.012 Y-2.178
X-470.81 Y-2.116
X-470.609 Y-2.064
X-470.407 Y-2.031
X-470.206 Y-2.017
X-469.755 Y-2
X-20.285
X-19.705 Y-2.018
X-19.504 Y-2.045
X-19.302 Y-2.086
X-19.101 Y-2.138
X-18.941 Y-2.202
X-18.68 Y-2.302
X-18.36 Y-2.404
X-17.983 Y-2.502
X-17.588 Y-2.581
X-17.159 Y-2.642
X-16.722 Y-2.679
X-16.287 Y-2.691
X-15.893 Y-2.68
X-15.55 Y-2.651
X-15.24 Y-2.607
X-14.973 Y-2.554
X-14.705 Y-2.485
X-14.486 Y-2.415
X-14.252 Y-2.325
X-14.18 Y-2.293
X-13.848 Y-2.103
X-13.558 Y-1.854
X-13.321 Y-1.555
X-13.145 Y-1.215
X-13.037 Y-0.849
X-13 Y-0.468
Y0.697
G3 X-13.851 Y1.222 I-0.6 J-0.021
G1 X-18.93 Y-1.117
G3 X-18.941 Y-2.202 I0.251 J-0.545
G1 X-18.698 Y-2.309
X-18.505 Y-2.403
X-18.295 Y-2.533
X-18.094 Y-2.688
X-17.961 Y-2.805
X-17.94 Y-2.826
X-17.829 Y-2.927
X-17.709 Y-3.017
X-17.583 Y-3.099
X-17.44 Y-3.18
X-17.287 Y-3.256
X-17.108 Y-3.333
X-16.92 Y-3.401
X-16.714 Y-3.462
X-16.492 Y-3.516
X-16.257 Y-3.558
X-16.016 Y-3.588
X-15.769 Y-3.604
X-15.519 Y-3.606
X-15.296 Y-3.596
X-15.048 Y-3.57
X-14.831 Y-3.535
X-14.636 Y-3.493
X-14.419 Y-3.432
X-14.355 Y-3.41
X-14.031 Y-3.267
X-13.737 Y-3.068
X-13.483 Y-2.821
X-13.277 Y-2.532
X-13.125 Y-2.212
X-13.031 Y-1.87
X-13 Y-1.517
Y-0.468
G3 X-13.866 Y0.048 I-0.6 J-0.021
G1 X-17.766 Y-1.881
G3 X-17.94 Y-2.826 I0.266 J-0.538
G1 X-17.761 Y-3.007
X-17.691 Y-3.092
X-17.6 Y-3.208
X-17.49 Y-3.36
X-17.457 Y-3.409
X-17.44 Y-3.443
X-17.365 Y-3.572
X-17.265 Y-3.685
X-17.157 Y-3.788
X-17.04 Y-3.883
X-16.917 Y-3.969
X-16.789 Y-4.047
X-16.654 Y-4.12
X-16.504 Y-4.19
X-16.345 Y-4.253
X-16.176 Y-4.309
X-15.996 Y-4.358
X-15.805 Y-4.398
X-15.621 Y-4.427
X-15.438 Y-4.445
X-15.235 Y-4.453
X-15.059 Y-4.45
X-14.882 Y-4.437
X-14.69 Y-4.412
X-14.522 Y-4.38
X-14.164 Y-4.255
X-13.836 Y-4.065
X-13.55 Y-3.816
X-13.316 Y-3.517
X-13.143 Y-3.18
X-13.036 Y-2.816
X-13 Y-2.439
Y-1.517
G3 X-13.868 Y-1.001 I-0.6 J-0.021
G1 X-17.166 Y-2.649
G3 X-17.44 Y-3.443 I0.268 J-0.537
G1 X-17.25 Y-3.812
X-17.171 Y-4.013
X-17.117 Y-4.153
X-17.043 Y-4.283
X-16.954 Y-4.405
X-16.855 Y-4.517
X-16.747 Y-4.621
X-16.632 Y-4.717
X-16.51 Y-4.804
X-16.382 Y-4.883
X-16.25 Y-4.955
X-16.112 Y-5.02
X-15.966 Y-5.079
X-15.814 Y-5.13
X-15.67 Y-5.17
X-15.51 Y-5.204
X-15.344 Y-5.23
X-15.195 Y-5.245
X-15.043 Y-5.251
X-14.87 Y-5.249
X-14.715 Y-5.238
X-14.566 Y-5.219
X-14.399 Y-5.187
X-14.07 Y-5.072
X-13.768 Y-4.897
X-13.505 Y-4.668
X-13.29 Y-4.394
X-13.131 Y-4.084
X-13.033 Y-3.749
X-13 Y-3.402
Y-2.439
G3 X-13.853 Y-1.916 I-0.6 J-0.021
G1 X-16.846 Y-3.311
G3 X-17.171 Y-4.013 I0.253 J-0.544
G1 X-17.109 Y-4.214
X-17.087 Y-4.299
X-17.059 Y-4.416
X-17.034 Y-4.576
X-17.004 Y-4.723
X-16.951 Y-4.864
X-16.882 Y-4.997
X-16.8 Y-5.122
X-16.707 Y-5.24
X-16.604 Y-5.349
X-16.493 Y-5.45
X-16.376 Y-5.543
X-16.252 Y-5.628
X-16.123 Y-5.705
X-15.99 Y-5.774
X-15.853 Y-5.835
X-15.708 Y-5.89
X-15.565 Y-5.935
X-15.419 Y-5.971
X-15.26 Y-6.001
X-15.111 Y-6.021
X-14.962 Y-6.031
X-14.8 Y-6.033
X-14.65 Y-6.026
X-14.635 Y-6.025
X-14.307 Y-5.961
X-13.997 Y-5.838
X-13.715 Y-5.66
X-13.469 Y-5.434
X-13.269 Y-5.167
X-13.121 Y-4.868
X-13.031 Y-4.547
X-13 Y-4.214
Y-3.402
G3 X-13.813 Y-2.862 I-0.6 J-0.021
G1 X-16.652 Y-3.944
G3 X-17.034 Y-4.576 I0.214 J-0.561
G1 X-17.028 Y-4.617
X-17.009 Y-4.818
X-17 Y-5.02
Y-5.123
X-16.993 Y-5.273
X-16.961 Y-5.419
X-16.911 Y-5.561
X-16.845 Y-5.695
X-16.767 Y-5.824
X-16.678 Y-5.944
X-16.58 Y-6.058
X-16.473 Y-6.164
X-16.36 Y-6.262
X-16.24 Y-6.352
X-16.115 Y-6.434
X-15.985 Y-6.509
X-15.85 Y-6.576
X-15.712 Y-6.634
X-15.568 Y-6.684
X-15.424 Y-6.726
X-15.278 Y-6.758
X-15.125 Y-6.783
X-14.976 Y-6.798
X-14.826 Y-6.804
X-14.67 Y-6.801
X-14.647 Y-6.799
X-14.319 Y-6.743
X-14.008 Y-6.626
X-13.723 Y-6.454
X-13.475 Y-6.232
X-13.273 Y-5.968
X-13.123 Y-5.671
X-13.031 Y-5.351
X-13 Y-5.02
Y-4.214
G3 X-13.785 Y-3.665 I-0.6 J-0.021
G1 X-16.586 Y-4.573
G3 X-17 Y-5.123 I0.185 J-0.571
G1 Y-5.825
X-16.993 Y-5.974
X-16.963 Y-6.121
X-16.915 Y-6.264
X-16.854 Y-6.4
X-16.779 Y-6.531
X-16.694 Y-6.654
X-16.6 Y-6.771
X-16.497 Y-6.88
X-16.387 Y-6.982
X-16.27 Y-7.076
X-16.147 Y-7.162
X-16.02 Y-7.241
X-15.888 Y-7.312
X-15.751 Y-7.375
X-15.609 Y-7.43
X-15.466 Y-7.476
X-15.321 Y-7.513
X-15.169 Y-7.541
X-15.02 Y-7.561
X-14.871 Y-7.571
X-14.716 Y-7.572
X-14.566 Y-7.565
X-14.208 Y-7.487
X-13.874 Y-7.337
X-13.578 Y-7.121
X-13.334 Y-6.849
X-13.151 Y-6.531
X-13.038 Y-6.183
X-13 Y-5.818
Y-5.02
G3 X-13.765 Y-4.464 I-0.6 J-0.021
G1 X-16.566 Y-5.269
G3 X-17 Y-5.825 I0.166 J-0.577
G1 Y-6.539
X-16.993 Y-6.689
X-16.967 Y-6.837
X-16.924 Y-6.981
X-16.866 Y-7.119
X-16.796 Y-7.251
X-16.714 Y-7.377
X-16.623 Y-7.496
X-16.523 Y-7.608
X-16.415 Y-7.712
X-16.3 Y-7.809
X-16.18 Y-7.899
X-16.054 Y-7.98
X-15.924 Y-8.054
X-15.789 Y-8.121
X-15.651 Y-8.178
X-15.504 Y-8.229
X-15.359 Y-8.27
X-15.213 Y-8.302
X-15.064 Y-8.325
X-14.914 Y-8.339
X-14.764 Y-8.345
X-14.614 Y-8.341
X-14.563 Y-8.336
X-14.207 Y-8.266
X-13.874 Y-8.123
X-13.579 Y-7.914
X-13.334 Y-7.647
X-13.151 Y-7.334
X-13.038 Y-6.99
X-13 Y-6.63
Y-5.818
G3 X-13.749 Y-5.258 I-0.6 J-0.021
G1 X-16.55 Y-5.979
G3 X-17 Y-6.539 I0.15 J-0.581
G1 Y-7.294
X-16.993 Y-7.444
X-16.967 Y-7.592
X-16.925 Y-7.736
X-16.868 Y-7.875
X-16.798 Y-8.007
X-16.717 Y-8.134
X-16.626 Y-8.253
X-16.527 Y-8.366
X-16.42 Y-8.471
X-16.306 Y-8.569
X-16.187 Y-8.659
X-16.061 Y-8.742
X-15.932 Y-8.817
X-15.797 Y-8.884
X-15.659 Y-8.943
X-15.511 Y-8.996
X-15.367 Y-9.038
X-15.221 Y-9.072
X-15.07 Y-9.096
X-14.921 Y-9.112
X-14.771 Y-9.119
X-14.621 Y-9.117
X-14.298 Y-9.061
X-13.992 Y-8.946
X-13.711 Y-8.777
X-13.467 Y-8.558
X-13.268 Y-8.298
X-13.121 Y-8.006
X-13.031 Y-7.691
X-13 Y-7.365
Y-6.63
G3 X-13.738 Y-6.067 I-0.6 J-0.021
G1 X-16.539 Y-6.732
G3 X-17 Y-7.294 I0.139 J-0.584
G1 Y-8.039
X-16.993 Y-8.188
X-16.97 Y-8.337
X-16.93 Y-8.481
X-16.875 Y-8.621
X-16.807 Y-8.755
X-16.728 Y-8.882
X-16.639 Y-9.003
X-16.541 Y-9.117
X-16.436 Y-9.223
X-16.323 Y-9.323
X-16.205 Y-9.414
X-16.081 Y-9.499
X-15.952 Y-9.576
X-15.819 Y-9.645
X-15.681 Y-9.705
X-15.541 Y-9.757
X-15.397 Y-9.801
X-15.251 Y-9.835
X-15.103 Y-9.861
X-14.954 Y-9.878
X-14.805 Y-9.886
X-14.653 Y-9.885
X-14.325 Y-9.833
X-14.012 Y-9.72
X-13.727 Y-9.551
X-13.478 Y-9.331
X-13.274 Y-9.068
X-13.124 Y-8.772
X-13.031 Y-8.453
X-13 Y-8.123
Y-7.365
G3 X-13.74 Y-6.803 I-0.6 J-0.021
G1 X-16.541 Y-7.476
G3 X-17 Y-8.039 I0.14 J-0.583
G1 Y-8.844
X-16.993 Y-8.994
X-16.965 Y-9.141
X-16.921 Y-9.284
X-16.863 Y-9.423
X-16.792 Y-9.555
X-16.71 Y-9.681
X-16.619 Y-9.8
X-16.519 Y-9.912
X-16.412 Y-10.017
X-16.298 Y-10.114
X-16.178 Y-10.204
X-16.053 Y-10.287
X-15.923 Y-10.362
X-15.788 Y-10.428
X-15.648 Y-10.487
X-15.507 Y-10.537
X-15.362 Y-10.578
X-15.214 Y-10.61
X-15.066 Y-10.634
X-14.916 Y-10.649
X-14.765 Y-10.654
X-14.616 Y-10.65
X-14.294 Y-10.593
X-13.988 Y-10.478
X-13.708 Y-10.308
X-13.465 Y-10.089
X-13.267 Y-9.829
X-13.12 Y-9.537
X-13.03 Y-9.223
X-13 Y-8.897
Y-8.123
G3 X-13.749 Y-7.563 I-0.6 J-0.021
G1 X-16.55 Y-8.284
G3 X-17 Y-8.844 I0.15 J-0.581
G1 Y-9.608
X-16.993 Y-9.758
X-16.966 Y-9.906
X-16.923 Y-10.049
X-16.865 Y-10.188
X-16.794 Y-10.32
X-16.713 Y-10.446
X-16.622 Y-10.565
X-16.522 Y-10.678
X-16.415 Y-10.783
X-16.302 Y-10.88
X-16.182 Y-10.97
X-16.056 Y-11.053
X-15.926 Y-11.128
X-15.792 Y-11.195
X-15.654 Y-11.253
X-15.513 Y-11.303
X-15.369 Y-11.345
X-15.222 Y-11.377
X-15.074 Y-11.401
X-14.925 Y-11.417
X-14.775 Y-11.422
X-14.625 Y-11.419
X-14.301 Y-11.364
X-13.994 Y-11.249
X-13.713 Y-11.079
X-13.469 Y-10.861
X-13.269 Y-10.6
X-13.121 Y-10.307
X-13.031 Y-9.992
X-13 Y-9.665
Y-8.897
G3 X-13.747 Y-8.336 I-0.6 J-0.021
G1 X-16.548 Y-9.048
G3 X-17 Y-9.608 I0.148 J-0.582
G1 Y-10.363
X-16.993 Y-10.513
X-16.968 Y-10.661
X-16.926 Y-10.805
X-16.869 Y-10.944
X-16.8 Y-11.077
X-16.72 Y-11.204
X-16.629 Y-11.324
X-16.531 Y-11.437
X-16.424 Y-11.542
X-16.311 Y-11.641
X-16.192 Y-11.731
X-16.067 Y-11.815
X-15.937 Y-11.89
X-15.803 Y-11.958
X-15.665 Y-12.017
X-15.524 Y-12.068
X-15.38 Y-12.11
X-15.234 Y-12.143
X-15.086 Y-12.168
X-14.937 Y-12.184
X-14.787 Y-12.19
X-14.637 Y-12.188
X-14.612 Y-12.186
X-14.292 Y-12.133
X-13.987 Y-12.02
X-13.708 Y-11.853
X-13.465 Y-11.637
X-13.267 Y-11.38
X-13.121 Y-11.09
X-13.03 Y-10.778
X-13 Y-10.454
Y-9.665
G3 X-13.745 Y-9.104 I-0.6 J-0.021
G1 X-16.546 Y-9.802
G3 X-17 Y-10.363 I0.145 J-0.582
G1 Y-11.119
X-16.993 Y-11.269
X-16.97 Y-11.417
X-16.929 Y-11.561
X-16.874 Y-11.701
X-16.805 Y-11.834
X-16.726 Y-11.961
X-16.637 Y-12.082
X-16.539 Y-12.195
X-16.433 Y-12.302
X-16.32 Y-12.401
X-16.201 Y-12.492
X-16.077 Y-12.576
X-15.948 Y-12.652
X-15.814 Y-12.721
X-15.677 Y-12.78
X-15.536 Y-12.832
X-15.392 Y-12.876
X-15.246 Y-12.91
X-15.098 Y-12.936
X-14.949 Y-12.953
X-14.8 Y-12.961
X-14.648 Y-12.96
X-14.498 Y-12.95
X-14.154 Y-12.87
X-13.834 Y-12.721
X-13.551 Y-12.509
X-13.318 Y-12.244
X-13.144 Y-11.937
X-13.036 Y-11.601
X-13 Y-11.249
Y-10.454
G3 X-13.738 Y-9.891 I-0.6 J-0.021
G1 X-16.539 Y-10.556
G3 X-17 Y-11.119 I0.139 J-0.584
G1 Y-11.924
X-16.993 Y-12.074
X-16.965 Y-12.221
X-16.92 Y-12.364
X-16.861 Y-12.502
X-16.789 Y-12.634
X-16.707 Y-12.759
X-16.616 Y-12.878
X-16.516 Y-12.99
X-16.408 Y-13.095
X-16.294 Y-13.192
X-16.174 Y-13.282
X-16.048 Y-13.364
X-15.918 Y-13.439
X-15.784 Y-13.506
X-15.646 Y-13.564
X-15.503 Y-13.615
X-15.359 Y-13.657
X-15.213 Y-13.69
X-15.065 Y-13.715
X-14.911 Y-13.73
X-14.761 Y-13.737
X-14.611 Y-13.735
X-14.29 Y-13.678
X-13.985 Y-13.564
X-13.706 Y-13.394
X-13.464 Y-13.176
X-13.266 Y-12.917
X-13.12 Y-12.626
X-13.03 Y-12.313
X-13 Y-11.988
Y-11.249
G3 X-13.74 Y-10.687 I-0.6 J-0.021
G1 X-16.541 Y-11.361
G3 X-17 Y-11.924 I0.14 J-0.583
G1 Y-12.668
X-16.993 Y-12.818
X-16.968 Y-12.966
X-16.926 Y-13.11
X-16.87 Y-13.249
X-16.801 Y-13.382
X-16.721 Y-13.509
X-16.631 Y-13.629
X-16.532 Y-13.742
X-16.426 Y-13.848
X-16.314 Y-13.947
X-16.195 Y-14.039
X-16.07 Y-14.122
X-15.941 Y-14.199
X-15.808 Y-14.267
X-15.67 Y-14.327
X-15.529 Y-14.379
X-15.386 Y-14.422
X-15.239 Y-14.456
X-15.092 Y-14.481
X-14.943 Y-14.498
X-14.793 Y-14.506
X-14.641 Y-14.504
X-14.315 Y-14.451
X-14.005 Y-14.338
X-13.721 Y-14.168
X-13.474 Y-13.949
X-13.272 Y-13.688
X-13.123 Y-13.394
X-13.031 Y-13.076
X-13 Y-12.748
Y-11.988
G3 X-13.741 Y-11.426 I-0.6 J-0.021
G1 X-16.542 Y-12.106
G3 X-17 Y-12.668 I0.141 J-0.583
G1 Y-13.432
X-16.993 Y-13.582
X-16.969 Y-13.73
X-16.928 Y-13.875
X-16.872 Y-14.014
X-16.804 Y-14.147
X-16.724 Y-14.275
X-16.635 Y-14.395
X-16.537 Y-14.509
X-16.431 Y-14.615
X-16.319 Y-14.714
X-16.2 Y-14.806
X-16.076 Y-14.89
X-15.947 Y-14.966
X-15.813 Y-15.035
X-15.675 Y-15.094
X-15.535 Y-15.146
X-15.391 Y-15.189
X-15.245 Y-15.223
X-15.097 Y-15.248
X-14.948 Y-15.265
X-14.798 Y-15.272
X-14.648 Y-15.271
X-14.321 Y-15.218
X-14.009 Y-15.104
X-13.724 Y-14.935
X-13.476 Y-14.715
X-13.274 Y-14.453
X-13.123 Y-14.157
X-13.031 Y-13.839
X-13 Y-13.509
Y-12.748
G3 X-13.742 Y-12.186 I-0.6 J-0.021
G1 X-16.543 Y-12.871
G3 X-17 Y-13.432 I0.143 J-0.583
G1 Y-14.238
X-16.993 Y-14.387
X-16.964 Y-14.535
X-16.92 Y-14.678
X-16.861 Y-14.816
X-16.789 Y-14.948
X-16.707 Y-15.073
X-16.615 Y-15.192
X-16.515 Y-15.304
X-16.408 Y-15.408
X-16.293 Y-15.505
X-16.173 Y-15.595
X-16.048 Y-15.677
X-15.917 Y-15.751
X-15.783 Y-15.818
X-15.642 Y-15.876
X-15.501 Y-15.925
X-15.356 Y-15.966
X-15.207 Y-15.998
X-15.059 Y-16.021
X-14.91 Y-16.035
X-14.759 Y-16.04
X-14.609 Y-16.036
X-14.288 Y-15.978
X-13.983 Y-15.863
X-13.705 Y-15.693
X-13.463 Y-15.474
X-13.266 Y-15.215
X-13.12 Y-14.923
X-13.03 Y-14.61
X-13 Y-14.285
Y-13.509
G3 X-13.751 Y-12.949 I-0.6 J-0.021
G1 X-16.551 Y-13.678
G3 X-17 Y-14.238 I0.151 J-0.581
G1 Y-14.993
X-16.993 Y-15.143
X-16.966 Y-15.29
X-16.923 Y-15.434
X-16.865 Y-15.572
X-16.795 Y-15.705
X-16.714 Y-15.831
X-16.623 Y-15.95
X-16.524 Y-16.063
X-16.417 Y-16.168
X-16.303 Y-16.266
X-16.183 Y-16.356
X-16.058 Y-16.439
X-15.928 Y-16.514
X-15.794 Y-16.581
X-15.656 Y-16.639
X-15.514 Y-16.689
X-15.37 Y-16.731
X-15.224 Y-16.764
X-15.076 Y-16.788
X-14.927 Y-16.803
X-14.777 Y-16.809
X-14.626 Y-16.806
X-14.595 Y-16.804
X-14.277 Y-16.75
X-13.975 Y-16.637
X-13.7 Y-16.471
X-13.46 Y-16.256
X-13.264 Y-16.001
X-13.119 Y-15.713
X-13.03 Y-15.404
X-13 Y-15.083
Y-14.285
G3 X-13.747 Y-13.724 I-0.6 J-0.021
G1 X-16.547 Y-14.432
G3 X-17 Y-14.993 I0.147 J-0.582
G1 Y-15.748
X-16.993 Y-15.898
X-16.968 Y-16.046
X-16.926 Y-16.19
X-16.87 Y-16.329
X-16.801 Y-16.462
X-16.721 Y-16.589
X-16.631 Y-16.709
X-16.532 Y-16.822
X-16.426 Y-16.928
X-16.312 Y-17.026
X-16.193 Y-17.117
X-16.068 Y-17.2
X-15.939 Y-17.276
X-15.805 Y-17.344
X-15.667 Y-17.403
X-15.526 Y-17.454
X-15.383 Y-17.498
X-15.237 Y-17.531
X-15.088 Y-17.557
X-14.939 Y-17.574
X-14.789 Y-17.581
X-14.637 Y-17.58
X-14.488 Y-17.57
X-14.146 Y-17.489
X-13.828 Y-17.34
X-13.547 Y-17.13
X-13.316 Y-16.866
X-13.143 Y-16.56
X-13.036 Y-16.226
X-13 Y-15.877
Y-15.083
G3 X-13.738 Y-14.521 I-0.6 J-0.021
G1 X-16.539 Y-15.185
G3 X-17 Y-15.748 I0.139 J-0.584
G1 Y-16.526
X-16.993 Y-16.676
X-16.967 Y-16.823
X-16.924 Y-16.967
X-16.867 Y-17.106
X-16.797 Y-17.238
X-16.716 Y-17.365
X-16.625 Y-17.484
X-16.526 Y-17.597
X-16.419 Y-17.702
X-16.306 Y-17.801
X-16.187 Y-17.891
X-16.062 Y-17.974
X-15.932 Y-18.05
X-15.798 Y-18.118
X-15.661 Y-18.178
X-15.52 Y-18.229
X-15.373 Y-18.273
X-15.227 Y-18.308
X-15.08 Y-18.333
X-14.925 Y-18.35
X-14.775 Y-18.358
X-14.625 Y-18.357
X-14.302 Y-18.302
X-13.995 Y-18.189
X-13.714 Y-18.02
X-13.469 Y-17.802
X-13.269 Y-17.542
X-13.121 Y-17.249
X-13.031 Y-16.934
X-13 Y-16.608
Y-15.877
G3 X-13.735 Y-15.313 I-0.6 J-0.021
G1 X-16.536 Y-15.962
G3 X-17 Y-16.526 I0.135 J-0.585
G1 Y-17.297
X-16.993 Y-17.447
X-16.967 Y-17.595
X-16.924 Y-17.739
X-16.866 Y-17.877
X-16.796 Y-18.01
X-16.715 Y-18.136
X-16.625 Y-18.256
X-16.526 Y-18.369
X-16.42 Y-18.474
X-16.306 Y-18.573
X-16.187 Y-18.664
X-16.062 Y-18.747
X-15.933 Y-18.823
X-15.799 Y-18.891
X-15.662 Y-18.951
X-15.521 Y-19.002
X-15.377 Y-19.045
X-15.231 Y-19.078
X-15.083 Y-19.103
X-14.934 Y-19.119
X-14.784 Y-19.126
X-14.634 Y-19.124
X-14.309 Y-19.07
X-14 Y-18.956
X-13.718 Y-18.787
X-13.472 Y-18.569
X-13.271 Y-18.308
X-13.122 Y-18.014
X-13.031 Y-17.698
X-13 Y-17.37
Y-16.608
G3 X-13.743 Y-16.046 I-0.6 J-0.021
G1 X-16.544 Y-16.736
G3 X-17 Y-17.297 I0.143 J-0.583
G1 Y-18.062
X-16.993 Y-18.212
X-16.968 Y-18.36
X-16.926 Y-18.504
X-16.869 Y-18.642
X-16.8 Y-18.776
X-16.72 Y-18.902
X-16.63 Y-19.022
X-16.531 Y-19.136
X-16.425 Y-19.241
X-16.312 Y-19.34
X-16.193 Y-19.431
X-16.069 Y-19.515
X-15.939 Y-19.591
X-15.805 Y-19.659
X-15.668 Y-19.718
X-15.527 Y-19.769
X-15.383 Y-19.812
X-15.237 Y-19.845
X-15.089 Y-19.87
X-14.94 Y-19.887
X-14.79 Y-19.893
X-14.64 Y-19.891
X-14.314 Y-19.838
X-14.004 Y-19.724
X-13.72 Y-19.554
X-13.474 Y-19.335
X-13.272 Y-19.074
X-13.123 Y-18.779
X-13.031 Y-18.462
X-13 Y-18.133
Y-17.37
G3 X-13.743 Y-16.809 I-0.6 J-0.021
G1 X-16.544 Y-17.5
G3 X-17 Y-18.062 I0.144 J-0.583
G1 Y-18.817
X-16.993 Y-18.967
X-16.97 Y-19.115
X-16.93 Y-19.26
X-16.875 Y-19.399
X-16.807 Y-19.533
X-16.728 Y-19.66
X-16.639 Y-19.781
X-16.541 Y-19.895
X-16.435 Y-20.001
X-16.323 Y-20.101
X-16.204 Y-20.192
X-16.08 Y-20.277
X-15.951 Y-20.353
X-15.817 Y-20.422
X-15.68 Y-20.481
X-15.539 Y-20.533
X-15.395 Y-20.576
X-15.249 Y-20.61
X-15.102 Y-20.636
X-14.953 Y-20.653
X-14.803 Y-20.66
X-14.652 Y-20.659
X-14.638 Y-20.658
X-14.313 Y-20.605
X-14.003 Y-20.493
X-13.72 Y-20.325
X-13.473 Y-20.106
X-13.272 Y-19.846
X-13.123 Y-19.552
X-13.031 Y-19.236
X-13 Y-18.908
Y-18.133
G3 X-13.742 Y-17.571 I-0.6 J-0.021
G1 X-16.543 Y-18.255
G3 X-17 Y-18.817 I0.142 J-0.583
G1 Y-19.622
X-16.993 Y-19.772
X-16.965 Y-19.919
X-16.921 Y-20.063
X-16.862 Y-20.201
X-16.791 Y-20.333
X-16.709 Y-20.459
X-16.618 Y-20.577
X-16.518 Y-20.689
X-16.41 Y-20.794
X-16.296 Y-20.891
X-16.176 Y-20.981
X-16.051 Y-21.063
X-15.921 Y-21.138
X-15.786 Y-21.204
X-15.645 Y-21.263
X-15.503 Y-21.313
X-15.359 Y-21.354
X-15.21 Y-21.386
X-15.062 Y-21.41
X-14.913 Y-21.425
X-14.763 Y-21.43
X-14.613 Y-21.426
X-14.577 Y-21.423
X-14.219 Y-21.355
X-13.883 Y-21.213
X-13.585 Y-21.003
X-13.338 Y-20.735
X-13.153 Y-20.421
X-13.039 Y-20.075
X-13 Y-19.713
Y-18.908
G3 X-13.748 Y-18.347 I-0.6 J-0.021
G1 X-16.549 Y-19.062
G3 X-17 Y-19.622 I0.148 J-0.581
G1 Y-20.377
X-16.993 Y-20.527
X-16.967 Y-20.675
X-16.924 Y-20.819
X-16.867 Y-20.957
X-16.797 Y-21.09
X-16.716 Y-21.216
X-16.625 Y-21.336
X-16.526 Y-21.449
X-16.419 Y-21.554
X-16.306 Y-21.652
X-16.186 Y-21.742
X-16.061 Y-21.825
X-15.931 Y-21.901
X-15.798 Y-21.968
X-15.66 Y-22.027
X-15.512 Y-22.08
X-15.368 Y-22.122
X-15.222 Y-22.156
X-15.07 Y-22.181
X-14.921 Y-22.196
X-14.771 Y-22.203
X-14.621 Y-22.201
X-14.298 Y-22.145
X-13.991 Y-22.031
X-13.711 Y-21.862
X-13.467 Y-21.643
X-13.268 Y-21.383
X-13.121 Y-21.091
X-13.031 Y-20.776
X-13 Y-20.45
Y-19.713
G3 X-13.738 Y-19.15 I-0.6 J-0.021
G1 X-16.539 Y-19.815
G3 X-17 Y-20.377 I0.139 J-0.584
G1 Y-21.122
X-16.993 Y-21.271
X-16.97 Y-21.42
X-16.93 Y-21.564
X-16.875 Y-21.704
X-16.807 Y-21.838
X-16.728 Y-21.965
X-16.639 Y-22.086
X-16.542 Y-22.2
X-16.436 Y-22.307
X-16.324 Y-22.406
X-16.205 Y-22.498
X-16.082 Y-22.582
X-15.953 Y-22.659
X-15.82 Y-22.728
X-15.682 Y-22.789
X-15.542 Y-22.841
X-15.398 Y-22.885
X-15.252 Y-22.919
X-15.104 Y-22.945
X-14.955 Y-22.963
X-14.806 Y-22.971
X-14.654 Y-22.97
X-14.325 Y-22.917
X-14.013 Y-22.805
X-13.727 Y-22.635
X-13.478 Y-22.416
X-13.275 Y-22.153
X-13.124 Y-21.857
X-13.031 Y-21.538
X-13 Y-21.207
Y-20.45
G3 X-13.74 Y-19.888 I-0.6 J-0.021
G1 X-16.54 Y-20.559
G3 X-17 Y-21.122 I0.14 J-0.583
G1 Y-21.927
X-16.993 Y-22.077
X-16.965 Y-22.224
X-16.921 Y-22.368
X-16.863 Y-22.506
X-16.792 Y-22.638
X-16.711 Y-22.764
X-16.619 Y-22.883
X-16.52 Y-22.995
X-16.413 Y-23.1
X-16.299 Y-23.198
X-16.179 Y-23.288
X-16.054 Y-23.37
X-15.924 Y-23.445
X-15.789 Y-23.512
X-15.649 Y-23.571
X-15.508 Y-23.621
X-15.364 Y-23.662
X-15.215 Y-23.694
X-15.067 Y-23.718
X-14.917 Y-23.733
X-14.767 Y-23.738
X-14.617 Y-23.734
X-14.295 Y-23.678
X-13.989 Y-23.562
X-13.709 Y-23.392
X-13.466 Y-23.174
X-13.267 Y-22.913
X-13.121 Y-22.621
X-13.03 Y-22.307
X-13 Y-21.981
Y-21.207
G3 X-13.749 Y-20.647 I-0.6 J-0.021
G1 X-16.55 Y-21.367
G3 X-17 Y-21.927 I0.149 J-0.581
G1 Y-22.691
X-16.993 Y-22.841
X-16.966 Y-22.989
X-16.923 Y-23.132
X-16.865 Y-23.271
X-16.795 Y-23.403
X-16.714 Y-23.529
X-16.623 Y-23.649
X-16.523 Y-23.761
X-16.416 Y-23.866
X-16.302 Y-23.964
X-16.183 Y-24.054
X-16.057 Y-24.137
X-15.928 Y-24.212
X-15.793 Y-24.279
X-15.655 Y-24.337
X-15.514 Y-24.387
X-15.37 Y-24.429
X-15.223 Y-24.461
X-15.075 Y-24.485
X-14.926 Y-24.501
X-14.776 Y-24.507
X-14.626 Y-24.504
X-14.302 Y-24.448
X-13.995 Y-24.334
X-13.714 Y-24.164
X-13.469 Y-23.945
X-13.269 Y-23.684
X-13.121 Y-23.391
X-13.031 Y-23.076
X-13 Y-22.749
Y-21.981
G3 X-13.747 Y-21.42 I-0.6 J-0.021
G1 X-16.548 Y-22.13
G3 X-17 Y-22.691 I0.147 J-0.582
G1 Y-23.446
X-16.993 Y-23.596
X-16.968 Y-23.744
X-16.926 Y-23.888
X-16.87 Y-24.027
X-16.801 Y-24.16
X-16.72 Y-24.287
X-16.63 Y-24.407
X-16.531 Y-24.52
X-16.425 Y-24.626
X-16.312 Y-24.724
X-16.193 Y-24.815
X-16.068 Y-24.898
X-15.938 Y-24.974
X-15.804 Y-25.042
X-15.666 Y-25.1
X-15.525 Y-25.151
X-15.382 Y-25.194
X-15.235 Y-25.227
X-15.087 Y-25.252
X-14.938 Y-25.268
X-14.788 Y-25.275
X-14.638 Y-25.272
X-14.614 Y-25.271
X-14.293 Y-25.217
X-13.988 Y-25.105
X-13.709 Y-24.938
X-13.466 Y-24.721
X-13.268 Y-24.463
X-13.121 Y-24.173
X-13.03 Y-23.861
X-13 Y-23.537
Y-22.749
G3 X-13.745 Y-22.188 I-0.6 J-0.021
G1 X-16.545 Y-22.885
G3 X-17 Y-23.446 I0.145 J-0.582
G1 Y-24.202
X-16.993 Y-24.352
X-16.97 Y-24.5
X-16.929 Y-24.644
X-16.874 Y-24.784
X-16.806 Y-24.917
X-16.727 Y-25.045
X-16.637 Y-25.165
X-16.539 Y-25.279
X-16.434 Y-25.385
X-16.321 Y-25.484
X-16.202 Y-25.576
X-16.078 Y-25.66
X-15.949 Y-25.736
X-15.815 Y-25.804
X-15.678 Y-25.864
X-15.537 Y-25.916
X-15.393 Y-25.96
X-15.247 Y-25.994
X-15.1 Y-26.02
X-14.951 Y-26.037
X-14.801 Y-26.045
X-14.649 Y-26.044
X-14.499 Y-26.034
X-14.155 Y-25.954
X-13.835 Y-25.805
X-13.552 Y-25.593
X-13.318 Y-25.328
X-13.144 Y-25.021
X-13.036 Y-24.684
X-13 Y-24.333
Y-23.537
G3 X-13.738 Y-22.974 I-0.6 J-0.021
G1 X-16.539 Y-23.639
G3 X-17 Y-24.202 I0.139 J-0.584
G1 Y-25.007
X-16.993 Y-25.157
X-16.965 Y-25.304
X-16.92 Y-25.447
X-16.861 Y-25.585
X-16.79 Y-25.717
X-16.708 Y-25.843
X-16.616 Y-25.962
X-16.516 Y-26.073
X-16.409 Y-26.178
X-16.295 Y-26.275
X-16.174 Y-26.365
X-16.049 Y-26.447
X-15.919 Y-26.522
X-15.785 Y-26.589
X-15.647 Y-26.648
X-15.504 Y-26.699
X-15.36 Y-26.74
X-15.214 Y-26.774
X-15.066 Y-26.798
X-14.912 Y-26.814
X-14.762 Y-26.821
X-14.612 Y-26.819
X-14.291 Y-26.762
X-13.985 Y-26.648
X-13.707 Y-26.478
X-13.464 Y-26.26
X-13.267 Y-26.001
X-13.12 Y-25.71
X-13.03 Y-25.396
X-13 Y-25.072
Y-24.333
G3 X-13.74 Y-23.77 I-0.6 J-0.021
G1 X-16.541 Y-24.444
G3 X-17 Y-25.007 I0.14 J-0.583
G1 Y-25.751
X-16.993 Y-25.901
X-16.968 Y-26.049
X-16.926 Y-26.193
X-16.87 Y-26.332
X-16.801 Y-26.465
X-16.721 Y-26.592
X-16.631 Y-26.712
X-16.533 Y-26.825
X-16.427 Y-26.932
X-16.314 Y-27.031
X-16.195 Y-27.122
X-16.071 Y-27.206
X-15.942 Y-27.282
X-15.808 Y-27.351
X-15.671 Y-27.41
X-15.53 Y-27.462
X-15.386 Y-27.506
X-15.24 Y-27.54
X-15.092 Y-27.565
X-14.943 Y-27.582
X-14.794 Y-27.589
X-14.642 Y-27.588
X-14.316 Y-27.534
X-14.005 Y-27.421
X-13.722 Y-27.252
X-13.474 Y-27.033
X-13.272 Y-26.772
X-13.123 Y-26.477
X-13.031 Y-26.16
X-13 Y-25.831
Y-25.072
G3 X-13.741 Y-24.51 I-0.6 J-0.021
G1 X-16.542 Y-25.189
G3 X-17 Y-25.751 I0.141 J-0.583
G1 Y-26.556
X-16.993 Y-26.706
X-16.964 Y-26.853
X-16.918 Y-26.996
X-16.859 Y-27.134
X-16.787 Y-27.266
X-16.705 Y-27.391
X-16.613 Y-27.509
X-16.512 Y-27.621
X-16.405 Y-27.725
X-16.29 Y-27.822
X-16.17 Y-27.912
X-16.045 Y-27.994
X-15.914 Y-28.069
X-15.78 Y-28.135
X-15.639 Y-28.193
X-15.497 Y-28.243
X-15.353 Y-28.283
X-15.204 Y-28.315
X-15.056 Y-28.338
X-14.907 Y-28.353
X-14.756 Y-28.357
X-14.606 Y-28.353
X-14.286 Y-28.296
X-13.981 Y-28.18
X-13.704 Y-28.01
X-13.462 Y-27.792
X-13.265 Y-27.533
X-13.12 Y-27.242
X-13.03 Y-26.93
X-13 Y-26.606
Y-25.831
G3 X-13.75 Y-25.271 I-0.6 J-0.021
G1 X-16.551 Y-25.996
G3 X-17 Y-26.556 I0.15 J-0.581
G1 Y-27.32
X-16.993 Y-27.47
X-16.965 Y-27.618
X-16.92 Y-27.761
X-16.861 Y-27.899
X-16.79 Y-28.031
X-16.708 Y-28.157
X-16.617 Y-28.275
X-16.517 Y-28.387
X-16.409 Y-28.492
X-16.295 Y-28.589
X-16.175 Y-28.679
X-16.049 Y-28.761
X-15.919 Y-28.835
X-15.784 Y-28.902
X-15.646 Y-28.96
X-15.505 Y-29.009
X-15.36 Y-29.051
X-15.214 Y-29.083
X-15.066 Y-29.106
X-14.916 Y-29.121
X-14.767 Y-29.127
X-14.617 Y-29.123
X-14.295 Y-29.067
X-13.989 Y-28.953
X-13.709 Y-28.783
X-13.466 Y-28.565
X-13.268 Y-28.305
X-13.121 Y-28.013
X-13.03 Y-27.699
X-13 Y-27.374
Y-26.606
G3 X-13.748 Y-26.045 I-0.6 J-0.021
G1 X-16.549 Y-26.76
G3 X-17 Y-27.32 I0.148 J-0.581
G1 Y-28.076
X-16.993 Y-28.226
X-16.967 Y-28.373
X-16.924 Y-28.517
X-16.866 Y-28.656
X-16.796 Y-28.788
X-16.715 Y-28.914
X-16.624 Y-29.034
X-16.525 Y-29.146
X-16.418 Y-29.252
X-16.305 Y-29.35
X-16.185 Y-29.44
X-16.06 Y-29.523
X-15.93 Y-29.598
X-15.796 Y-29.666
X-15.658 Y-29.724
X-15.517 Y-29.774
X-15.373 Y-29.817
X-15.227 Y-29.849
X-15.079 Y-29.874
X-14.929 Y-29.89
X-14.779 Y-29.896
X-14.629 Y-29.893
X-14.601 Y-29.891
X-14.283 Y-29.837
X-13.98 Y-29.725
X-13.703 Y-29.558
X-13.462 Y-29.343
X-13.265 Y-29.087
X-13.12 Y-28.798
X-13.03 Y-28.488
X-13 Y-28.166
Y-27.374
G3 X-13.746 Y-26.813 I-0.6 J-0.021
G1 X-16.546 Y-27.515
G3 X-17 Y-28.076 I0.146 J-0.582
G1 Y-28.831
X-16.993 Y-28.981
X-16.969 Y-29.129
X-16.927 Y-29.273
X-16.871 Y-29.412
X-16.802 Y-29.545
X-16.722 Y-29.672
X-16.632 Y-29.792
X-16.534 Y-29.906
X-16.427 Y-30.012
X-16.314 Y-30.11
X-16.195 Y-30.201
X-16.071 Y-30.285
X-15.941 Y-30.361
X-15.808 Y-30.429
X-15.67 Y-30.488
X-15.529 Y-30.54
X-15.385 Y-30.583
X-15.239 Y-30.617
X-15.091 Y-30.643
X-14.942 Y-30.66
X-14.792 Y-30.667
X-14.641 Y-30.666
X-14.491 Y-30.656
X-14.149 Y-30.575
X-13.83 Y-30.426
X-13.549 Y-30.215
X-13.316 Y-29.951
X-13.143 Y-29.645
X-13.036 Y-29.31
X-13 Y-28.96
Y-28.166
G3 X-13.738 Y-27.604 I-0.6 J-0.021
G1 X-16.539 Y-28.268
G3 X-17 Y-28.831 I0.139 J-0.584
G1 Y-29.636
X-16.993 Y-29.786
X-16.964 Y-29.933
X-16.918 Y-30.076
X-16.858 Y-30.214
X-16.786 Y-30.345
X-16.704 Y-30.47
X-16.612 Y-30.589
X-16.511 Y-30.7
X-16.403 Y-30.805
X-16.289 Y-30.901
X-16.168 Y-30.991
X-16.043 Y-31.073
X-15.913 Y-31.147
X-15.778 Y-31.214
X-15.64 Y-31.273
X-15.497 Y-31.323
X-15.353 Y-31.365
X-15.207 Y-31.398
X-15.059 Y-31.422
X-14.904 Y-31.438
X-14.755 Y-31.444
X-14.605 Y-31.442
X-14.285 Y-31.385
X-13.981 Y-31.27
X-13.704 Y-31.101
X-13.462 Y-30.884
X-13.265 Y-30.625
X-13.12 Y-30.335
X-13.03 Y-30.023
X-13 Y-29.699
Y-28.96
G3 X-13.74 Y-28.398 I-0.6 J-0.021
G1 X-16.541 Y-29.074
G3 X-17 Y-29.636 I0.141 J-0.583
G1 Y-30.38
X-16.993 Y-30.53
X-16.967 Y-30.678
X-16.924 Y-30.822
X-16.867 Y-30.961
X-16.798 Y-31.093
X-16.717 Y-31.22
X-16.627 Y-31.34
X-16.528 Y-31.453
X-16.422 Y-31.559
X-16.309 Y-31.657
X-16.19 Y-31.748
X-16.065 Y-31.832
X-15.936 Y-31.908
X-15.803 Y-31.976
X-15.665 Y-32.036
X-15.524 Y-32.087
X-15.38 Y-32.13
X-15.234 Y-32.164
X-15.086 Y-32.189
X-14.937 Y-32.206
X-14.787 Y-32.213
X-14.636 Y-32.211
X-14.311 Y-32.158
X-14.002 Y-32.045
X-13.719 Y-31.876
X-13.472 Y-31.657
X-13.271 Y-31.396
X-13.122 Y-31.102
X-13.031 Y-30.786
X-13 Y-30.458
Y-29.699
G3 X-13.741 Y-29.137 I-0.6 J-0.021
G1 X-16.542 Y-29.818
G3 X-17 Y-30.38 I0.142 J-0.583
G1 Y-31.145
X-16.993 Y-31.295
X-16.968 Y-31.443
X-16.927 Y-31.587
X-16.87 Y-31.726
X-16.801 Y-31.859
X-16.722 Y-31.986
X-16.632 Y-32.106
X-16.534 Y-32.219
X-16.428 Y-32.326
X-16.315 Y-32.424
X-16.196 Y-32.516
X-16.071 Y-32.6
X-15.942 Y-32.676
X-15.809 Y-32.744
X-15.671 Y-32.803
X-15.53 Y-32.855
X-15.386 Y-32.898
X-15.24 Y-32.932
X-15.092 Y-32.957
X-14.943 Y-32.973
X-14.793 Y-32.98
X-14.643 Y-32.979
X-14.317 Y-32.925
X-14.006 Y-32.812
X-13.722 Y-32.642
X-13.475 Y-32.423
X-13.273 Y-32.161
X-13.123 Y-31.866
X-13.031 Y-31.549
X-13 Y-31.219
Y-30.458
G3 X-13.742 Y-29.896 I-0.6 J-0.021
G1 X-16.543 Y-30.583
G3 X-17 Y-31.145 I0.143 J-0.583
G1 Y-31.9
X-16.993 Y-32.05
X-16.97 Y-32.198
X-16.931 Y-32.343
X-16.876 Y-32.483
X-16.808 Y-32.616
X-16.729 Y-32.744
X-16.641 Y-32.865
X-16.543 Y-32.979
X-16.438 Y-33.086
X-16.325 Y-33.185
X-16.207 Y-33.277
X-16.083 Y-33.361
X-15.954 Y-33.438
X-15.821 Y-33.507
X-15.683 Y-33.567
X-15.542 Y-33.619
X-15.399 Y-33.662
X-15.253 Y-33.697
X-15.105 Y-33.722
X-14.956 Y-33.74
X-14.806 Y-33.747
X-14.655 Y-33.746
X-14.644 Y-33.745
X-14.318 Y-33.693
X-14.007 Y-33.58
X-13.723 Y-33.412
X-13.475 Y-33.193
X-13.273 Y-32.932
X-13.123 Y-32.637
X-13.031 Y-32.32
X-13 Y-31.991
Y-31.219
G3 X-13.741 Y-30.657 I-0.6 J-0.021
G1 X-16.542 Y-31.338
G3 X-17 Y-31.9 I0.142 J-0.583
G1 Y-32.705
X-16.993 Y-32.855
X-16.966 Y-33.003
X-16.922 Y-33.146
X-16.863 Y-33.284
X-16.793 Y-33.416
X-16.711 Y-33.542
X-16.62 Y-33.661
X-16.52 Y-33.773
X-16.413 Y-33.878
X-16.299 Y-33.976
X-16.179 Y-34.066
X-16.054 Y-34.148
X-15.924 Y-34.223
X-15.789 Y-34.29
X-15.648 Y-34.349
X-15.507 Y-34.398
X-15.363 Y-34.44
X-15.214 Y-34.472
X-15.066 Y-34.496
X-14.917 Y-34.511
X-14.766 Y-34.516
X-14.616 Y-34.512
X-14.581 Y-34.51
X-14.266 Y-34.454
X-13.967 Y-34.342
X-13.694 Y-34.176
X-13.456 Y-33.962
X-13.262 Y-33.707
X-13.118 Y-33.422
X-13.03 Y-33.114
X-13 Y-32.796
Y-31.991
G3 X-13.748 Y-31.43 I-0.6 J-0.021
G1 X-16.549 Y-32.145
G3 X-17 Y-32.705 I0.148 J-0.581
G1 Y-33.46
X-16.993 Y-33.61
X-16.967 Y-33.758
X-16.925 Y-33.902
X-16.868 Y-34.041
X-16.798 Y-34.174
X-16.718 Y-34.3
X-16.627 Y-34.42
X-16.528 Y-34.533
X-16.422 Y-34.638
X-16.308 Y-34.736
X-16.189 Y-34.827
X-16.064 Y-34.91
X-15.934 Y-34.985
X-15.8 Y-35.053
X-15.663 Y-35.112
X-15.521 Y-35.163
X-15.377 Y-35.206
X-15.231 Y-35.24
X-15.082 Y-35.265
X-14.933 Y-35.282
X-14.783 Y-35.289
X-14.631 Y-35.287
X-14.481 Y-35.277
X-14.141 Y-35.196
X-13.824 Y-35.048
X-13.545 Y-34.837
X-13.314 Y-34.574
X-13.142 Y-34.27
X-13.036 Y-33.937
X-13 Y-33.589
Y-32.796
G3 X-13.738 Y-32.233 I-0.6 J-0.021
G1 X-16.539 Y-32.898
G3 X-17 Y-33.46 I0.139 J-0.584
G1 Y-34.205
X-16.993 Y-34.354
X-16.971 Y-34.503
X-16.931 Y-34.648
X-16.876 Y-34.787
X-16.809 Y-34.921
X-16.73 Y-35.049
X-16.641 Y-35.17
X-16.544 Y-35.284
X-16.438 Y-35.391
X-16.326 Y-35.49
X-16.208 Y-35.582
X-16.084 Y-35.667
X-15.955 Y-35.744
X-15.822 Y-35.813
X-15.686 Y-35.875
X-15.545 Y-35.928
X-15.396 Y-35.974
X-15.251 Y-36.01
X-15.103 Y-36.037
X-14.95 Y-36.056
X-14.801 Y-36.065
X-14.651 Y-36.066
X-14.323 Y-36.014
X-14.011 Y-35.902
X-13.726 Y-35.734
X-13.477 Y-35.515
X-13.274 Y-35.253
X-13.124 Y-34.958
X-13.031 Y-34.64
X-13 Y-34.31
Y-33.589
G3 X-13.729 Y-33.024 I-0.6 J-0.021
G1 X-16.529 Y-33.64
G3 X-17 Y-34.205 I0.129 J-0.586
G1 Y-35.01
X-16.993 Y-35.16
X-16.966 Y-35.307
X-16.922 Y-35.451
X-16.864 Y-35.589
X-16.794 Y-35.721
X-16.712 Y-35.848
X-16.622 Y-35.967
X-16.523 Y-36.08
X-16.416 Y-36.185
X-16.302 Y-36.283
X-16.183 Y-36.374
X-16.058 Y-36.457
X-15.929 Y-36.533
X-15.795 Y-36.601
X-15.656 Y-36.66
X-15.515 Y-36.711
X-15.371 Y-36.753
X-15.223 Y-36.786
X-15.075 Y-36.811
X-14.926 Y-36.827
X-14.776 Y-36.833
X-14.626 Y-36.83
X-14.303 Y-36.775
X-13.995 Y-36.661
X-13.714 Y-36.492
X-13.469 Y-36.273
X-13.269 Y-36.013
X-13.121 Y-35.72
X-13.031 Y-35.404
X-13 Y-35.077
Y-34.31
G3 X-13.745 Y-33.749 I-0.6 J-0.021
G1 X-16.546 Y-34.449
G3 X-17 Y-35.01 I0.145 J-0.582
G1 Y-35.774
X-16.993 Y-35.924
X-16.967 Y-36.072
X-16.924 Y-36.216
X-16.867 Y-36.354
X-16.798 Y-36.487
X-16.717 Y-36.614
X-16.627 Y-36.734
X-16.528 Y-36.846
X-16.422 Y-36.952
X-16.309 Y-37.05
X-16.189 Y-37.141
X-16.064 Y-37.225
X-15.935 Y-37.3
X-15.801 Y-37.368
X-15.663 Y-37.427
X-15.522 Y-37.478
X-15.378 Y-37.52
X-15.232 Y-37.553
X-15.084 Y-37.578
X-14.935 Y-37.594
X-14.785 Y-37.601
X-14.635 Y-37.598
X-14.31 Y-37.544
X-14.001 Y-37.43
X-13.718 Y-37.261
X-13.472 Y-37.041
X-13.271 Y-36.78
X-13.122 Y-36.486
X-13.031 Y-36.17
X-13 Y-35.841
Y-35.077
G3 X-13.744 Y-34.516 I-0.6 J-0.021
G1 X-16.545 Y-35.213
G3 X-17 Y-35.774 I0.145 J-0.582
G1 Y-36.529
X-16.993 Y-36.679
X-16.969 Y-36.827
X-16.928 Y-36.972
X-16.873 Y-37.111
X-16.805 Y-37.245
X-16.725 Y-37.372
X-16.636 Y-37.492
X-16.538 Y-37.606
X-16.432 Y-37.712
X-16.319 Y-37.811
X-16.2 Y-37.902
X-16.076 Y-37.986
X-15.947 Y-38.063
X-15.813 Y-38.131
X-15.675 Y-38.19
X-15.534 Y-38.242
X-15.391 Y-38.285
X-15.245 Y-38.319
X-15.097 Y-38.344
X-14.948 Y-38.361
X-14.798 Y-38.368
X-14.647 Y-38.366
X-14.631 Y-38.365
X-14.307 Y-38.312
X-13.998 Y-38.2
X-13.717 Y-38.032
X-13.471 Y-37.814
X-13.271 Y-37.554
X-13.122 Y-37.262
X-13.031 Y-36.947
X-13 Y-36.62
Y-35.841
G3 X-13.743 Y-35.28 I-0.6 J-0.021
G1 X-16.543 Y-35.968
G3 X-17 Y-36.529 I0.143 J-0.583
G1 Y-37.335
X-16.993 Y-37.484
X-16.964 Y-37.632
X-16.92 Y-37.775
X-16.86 Y-37.913
X-16.789 Y-38.044
X-16.707 Y-38.17
X-16.615 Y-38.289
X-16.515 Y-38.4
X-16.407 Y-38.505
X-16.293 Y-38.602
X-16.172 Y-38.691
X-16.047 Y-38.773
X-15.916 Y-38.848
X-15.782 Y-38.914
X-15.64 Y-38.973
X-15.499 Y-39.022
X-15.355 Y-39.063
X-15.206 Y-39.095
X-15.057 Y-39.118
X-14.908 Y-39.133
X-14.758 Y-39.138
X-14.608 Y-39.134
X-14.571 Y-39.131
X-14.214 Y-39.063
X-13.88 Y-38.921
X-13.583 Y-38.712
X-13.337 Y-38.445
X-13.153 Y-38.131
X-13.039 Y-37.786
X-13 Y-37.425
Y-36.62
G3 X-13.748 Y-36.06 I-0.6 J-0.021
G1 X-16.549 Y-36.774
G3 X-17 Y-37.335 I0.148 J-0.581
G1 Y-38.09
X-16.993 Y-38.24
X-16.966 Y-38.387
X-16.923 Y-38.531
X-16.865 Y-38.669
X-16.795 Y-38.802
X-16.714 Y-38.928
X-16.623 Y-39.047
X-16.523 Y-39.16
X-16.416 Y-39.265
X-16.303 Y-39.363
X-16.183 Y-39.453
X-16.058 Y-39.536
X-15.928 Y-39.611
X-15.794 Y-39.678
X-15.656 Y-39.737
X-15.508 Y-39.789
X-15.364 Y-39.832
X-15.218 Y-39.865
X-15.066 Y-39.89
X-14.916 Y-39.905
X-14.767 Y-39.912
X-14.617 Y-39.91
X-14.295 Y-39.854
X-13.989 Y-39.74
X-13.709 Y-39.57
X-13.466 Y-39.352
X-13.268 Y-39.093
X-13.121 Y-38.801
X-13.03 Y-38.487
X-13 Y-38.162
Y-37.425
G3 X-13.738 Y-36.862 I-0.6 J-0.021
G1 X-16.539 Y-37.527
G3 X-17 Y-38.09 I0.139 J-0.584
G1 Y-38.834
X-16.993 Y-38.984
X-16.97 Y-39.132
X-16.929 Y-39.276
X-16.874 Y-39.416
X-16.805 Y-39.549
X-16.726 Y-39.677
X-16.637 Y-39.797
X-16.539 Y-39.911
X-16.433 Y-40.018
X-16.321 Y-40.117
X-16.202 Y-40.209
X-16.078 Y-40.293
X-15.949 Y-40.37
X-15.816 Y-40.439
X-15.679 Y-40.499
X-15.538 Y-40.551
X-15.395 Y-40.595
X-15.249 Y-40.629
X-15.101 Y-40.655
X-14.952 Y-40.672
X-14.802 Y-40.68
X-14.65 Y-40.679
X-14.323 Y-40.626
X-14.011 Y-40.514
X-13.726 Y-40.344
X-13.477 Y-40.125
X-13.274 Y-39.863
X-13.124 Y-39.567
X-13.031 Y-39.249
X-13 Y-38.919
Y-38.162
G3 X-13.74 Y-37.599 I-0.6 J-0.021
G1 X-16.54 Y-38.272
G3 X-17 Y-38.834 I0.14 J-0.583
G1 Y-39.639
X-16.993 Y-39.789
X-16.965 Y-39.936
X-16.92 Y-40.08
X-16.862 Y-40.218
X-16.791 Y-40.35
X-16.709 Y-40.475
X-16.617 Y-40.594
X-16.518 Y-40.706
X-16.41 Y-40.811
X-16.296 Y-40.909
X-16.176 Y-40.999
X-16.051 Y-41.081
X-15.921 Y-41.156
X-15.786 Y-41.222
X-15.646 Y-41.281
X-15.505 Y-41.331
X-15.36 Y-41.372
X-15.212 Y-41.404
X-15.064 Y-41.428
X-14.914 Y-41.443
X-14.763 Y-41.447
X-14.613 Y-41.444
X-14.292 Y-41.387
X-13.986 Y-41.272
X-13.707 Y-41.102
X-13.465 Y-40.883
X-13.267 Y-40.623
X-13.12 Y-40.332
X-13.03 Y-40.018
X-13 Y-39.692
Y-38.919
G3 X-13.749 Y-38.358 I-0.6 J-0.021
G1 X-16.55 Y-39.079
G3 X-17 Y-39.639 I0.149 J-0.581
G1 Y-40.403
X-16.993 Y-40.553
X-16.966 Y-40.701
X-16.922 Y-40.844
X-16.864 Y-40.983
X-16.793 Y-41.115
X-16.712 Y-41.241
X-16.621 Y-41.36
X-16.521 Y-41.472
X-16.414 Y-41.577
X-16.3 Y-41.675
X-16.18 Y-41.765
X-16.055 Y-41.848
X-15.925 Y-41.922
X-15.791 Y-41.989
X-15.652 Y-42.047
X-15.511 Y-42.097
X-15.367 Y-42.139
X-15.221 Y-42.172
X-15.072 Y-42.195
X-14.923 Y-42.211
X-14.773 Y-42.216
X-14.623 Y-42.213
X-14.3 Y-42.158
X-13.993 Y-42.043
X-13.712 Y-41.874
X-13.468 Y-41.655
X-13.269 Y-41.394
X-13.121 Y-41.102
X-13.031 Y-40.787
X-13 Y-40.46
Y-39.692
G3 X-13.747 Y-39.132 I-0.6 J-0.021
G1 X-16.548 Y-39.843
G3 X-17 Y-40.403 I0.148 J-0.582
G1 Y-41.159
X-16.993 Y-41.309
X-16.968 Y-41.457
X-16.925 Y-41.6
X-16.869 Y-41.739
X-16.799 Y-41.872
X-16.719 Y-41.999
X-16.628 Y-42.119
X-16.53 Y-42.231
X-16.423 Y-42.337
X-16.31 Y-42.435
X-16.19 Y-42.526
X-16.066 Y-42.609
X-15.936 Y-42.685
X-15.802 Y-42.752
X-15.664 Y-42.811
X-15.523 Y-42.862
X-15.379 Y-42.905
X-15.233 Y-42.938
X-15.085 Y-42.962
X-14.936 Y-42.978
X-14.786 Y-42.985
X-14.635 Y-42.982
X-14.61 Y-42.98
X-14.29 Y-42.927
X-13.986 Y-42.815
X-13.707 Y-42.648
X-13.465 Y-42.432
X-13.267 Y-42.174
X-13.12 Y-41.885
X-13.03 Y-41.573
X-13 Y-41.249
Y-40.46
G3 X-13.745 Y-39.899 I-0.6 J-0.021
G1 X-16.546 Y-40.598
G3 X-17 Y-41.159 I0.145 J-0.582
G1 Y-41.914
X-16.993 Y-42.064
X-16.969 Y-42.212
X-16.929 Y-42.356
X-16.873 Y-42.496
X-16.805 Y-42.629
X-16.725 Y-42.756
X-16.636 Y-42.877
X-16.538 Y-42.99
X-16.432 Y-43.097
X-16.319 Y-43.196
X-16.2 Y-43.287
X-16.076 Y-43.371
X-15.947 Y-43.447
X-15.813 Y-43.515
X-15.675 Y-43.575
X-15.535 Y-43.627
X-15.391 Y-43.67
X-15.245 Y-43.705
X-15.097 Y-43.73
X-14.948 Y-43.748
X-14.798 Y-43.755
X-14.647 Y-43.754
X-14.497 Y-43.745
X-14.153 Y-43.664
X-13.833 Y-43.515
X-13.551 Y-43.303
X-13.318 Y-43.039
X-13.144 Y-42.732
X-13.036 Y-42.395
X-13 Y-42.044
Y-41.249
G3 X-13.738 Y-40.687 I-0.6 J-0.021
G1 X-16.539 Y-41.351
G3 X-17 Y-41.914 I0.139 J-0.584
G1 Y-42.719
X-16.993 Y-42.869
X-16.964 Y-43.016
X-16.92 Y-43.159
X-16.86 Y-43.297
X-16.789 Y-43.429
X-16.707 Y-43.555
X-16.615 Y-43.673
X-16.515 Y-43.785
X-16.407 Y-43.89
X-16.293 Y-43.987
X-16.173 Y-44.076
X-16.047 Y-44.159
X-15.917 Y-44.233
X-15.783 Y-44.3
X-15.645 Y-44.359
X-15.502 Y-44.41
X-15.358 Y-44.451
X-15.212 Y-44.485
X-15.064 Y-44.509
X-14.91 Y-44.525
X-14.76 Y-44.532
X-14.61 Y-44.529
X-14.289 Y-44.473
X-13.984 Y-44.358
X-13.706 Y-44.189
X-13.464 Y-43.971
X-13.266 Y-43.712
X-13.12 Y-43.421
X-13.03 Y-43.108
X-13 Y-42.784
Y-42.044
G3 X-13.74 Y-41.482 I-0.6 J-0.021
G1 X-16.541 Y-42.157
G3 X-17 Y-42.719 I0.141 J-0.583
G1 Y-43.463
X-16.993 Y-43.613
X-16.968 Y-43.761
X-16.926 Y-43.905
X-16.869 Y-44.044
X-16.8 Y-44.177
X-16.72 Y-44.304
X-16.63 Y-44.424
X-16.532 Y-44.537
X-16.426 Y-44.643
X-16.313 Y-44.742
X-16.194 Y-44.834
X-16.069 Y-44.917
X-15.94 Y-44.994
X-15.807 Y-45.062
X-15.669 Y-45.122
X-15.528 Y-45.173
X-15.385 Y-45.217
X-15.239 Y-45.251
X-15.091 Y-45.276
X-14.942 Y-45.293
X-14.792 Y-45.3
X-14.64 Y-45.298
X-14.315 Y-45.245
X-14.004 Y-45.132
X-13.721 Y-44.963
X-13.474 Y-44.744
X-13.272 Y-44.483
X-13.123 Y-44.188
X-13.031 Y-43.871
X-13 Y-43.543
Y-42.784
G3 X-13.741 Y-42.221 I-0.6 J-0.021
G1 X-16.542 Y-42.901
G3 X-17 Y-43.463 I0.142 J-0.583
G1 Y-44.228
X-16.993 Y-44.378
X-16.969 Y-44.526
X-16.928 Y-44.67
X-16.872 Y-44.809
X-16.804 Y-44.943
X-16.724 Y-45.07
X-16.635 Y-45.19
X-16.536 Y-45.304
X-16.431 Y-45.41
X-16.318 Y-45.509
X-16.199 Y-45.601
X-16.075 Y-45.685
X-15.946 Y-45.761
X-15.812 Y-45.829
X-15.675 Y-45.889
X-15.534 Y-45.941
X-15.39 Y-45.984
X-15.244 Y-46.018
X-15.096 Y-46.043
X-14.947 Y-46.06
X-14.797 Y-46.067
X-14.647 Y-46.066
X-14.32 Y-46.012
X-14.009 Y-45.899
X-13.724 Y-45.729
X-13.476 Y-45.51
X-13.273 Y-45.247
X-13.123 Y-44.952
X-13.031 Y-44.634
X-13 Y-44.304
Y-43.543
G3 X-13.742 Y-42.981 I-0.6 J-0.021
G1 X-16.543 Y-43.666
G3 X-17 Y-44.228 I0.143 J-0.583
G1 Y-45.033
X-16.993 Y-45.183
X-16.964 Y-45.33
X-16.919 Y-45.473
X-16.86 Y-45.611
X-16.789 Y-45.743
X-16.707 Y-45.868
X-16.615 Y-45.987
X-16.515 Y-46.099
X-16.407 Y-46.203
X-16.293 Y-46.3
X-16.172 Y-46.39
X-16.047 Y-46.472
X-15.917 Y-46.546
X-15.782 Y-46.613
X-15.641 Y-46.671
X-15.5 Y-46.72
X-15.355 Y-46.761
X-15.207 Y-46.793
X-15.058 Y-46.816
X-14.909 Y-46.83
X-14.758 Y-46.835
X-14.608 Y-46.831
X-14.287 Y-46.773
X-13.983 Y-46.657
X-13.705 Y-46.487
X-13.463 Y-46.269
X-13.266 Y-46.009
X-13.12 Y-45.718
X-13.03 Y-45.405
X-13 Y-45.08
Y-44.304
G3 X-13.751 Y-43.744 I-0.6 J-0.021
G1 X-16.552 Y-44.473
G3 X-17 Y-45.033 I0.151 J-0.581
G1 Y-45.788
X-16.993 Y-45.938
X-16.966 Y-46.086
X-16.923 Y-46.229
X-16.865 Y-46.368
X-16.795 Y-46.5
X-16.714 Y-46.626
X-16.623 Y-46.746
X-16.523 Y-46.858
X-16.416 Y-46.963
X-16.303 Y-47.061
X-16.183 Y-47.151
X-16.058 Y-47.234
X-15.928 Y-47.309
X-15.793 Y-47.376
X-15.655 Y-47.434
X-15.514 Y-47.484
X-15.37 Y-47.526
X-15.223 Y-47.558
X-15.075 Y-47.582
X-14.926 Y-47.598
X-14.776 Y-47.604
X-14.625 Y-47.601
X-14.594 Y-47.598
X-14.277 Y-47.544
X-13.975 Y-47.432
X-13.699 Y-47.266
X-13.46 Y-47.051
X-13.264 Y-46.796
X-13.119 Y-46.508
X-13.03 Y-46.199
X-13 Y-45.879
Y-45.08
G3 X-13.747 Y-44.519 I-0.6 J-0.021
G1 X-16.547 Y-45.227
G3 X-17 Y-45.788 I0.147 J-0.582
G1 Y-46.543
X-16.993 Y-46.693
X-16.968 Y-46.841
X-16.926 Y-46.985
X-16.87 Y-47.124
X-16.801 Y-47.257
X-16.72 Y-47.384
X-16.63 Y-47.504
X-16.531 Y-47.617
X-16.425 Y-47.723
X-16.312 Y-47.821
X-16.193 Y-47.912
X-16.068 Y-47.995
X-15.938 Y-48.071
X-15.805 Y-48.139
X-15.667 Y-48.198
X-15.526 Y-48.249
X-15.382 Y-48.292
X-15.236 Y-48.326
X-15.087 Y-48.352
X-14.938 Y-48.369
X-14.789 Y-48.376
X-14.637 Y-48.375
X-14.487 Y-48.365
X-14.146 Y-48.284
X-13.828 Y-48.135
X-13.547 Y-47.924
X-13.316 Y-47.661
X-13.143 Y-47.355
X-13.036 Y-47.021
X-13 Y-46.672
Y-45.879
G3 X-13.738 Y-45.316 I-0.6 J-0.021
G1 X-16.539 Y-45.981
G3 X-17 Y-46.543 I0.139 J-0.584
G1 Y-47.321
X-16.993 Y-47.471
X-16.967 Y-47.619
X-16.924 Y-47.762
X-16.866 Y-47.901
X-16.796 Y-48.034
X-16.715 Y-48.16
X-16.625 Y-48.279
X-16.526 Y-48.392
X-16.419 Y-48.498
X-16.306 Y-48.596
X-16.186 Y-48.686
X-16.061 Y-48.77
X-15.932 Y-48.845
X-15.798 Y-48.913
X-15.661 Y-48.973
X-15.519 Y-49.024
X-15.373 Y-49.068
X-15.227 Y-49.103
X-15.079 Y-49.128
X-14.925 Y-49.145
X-14.775 Y-49.153
X-14.625 Y-49.152
X-14.302 Y-49.097
X-13.994 Y-48.983
X-13.713 Y-48.815
X-13.469 Y-48.596
X-13.269 Y-48.337
X-13.121 Y-48.044
X-13.031 Y-47.729
X-13 Y-47.403
Y-46.672
G3 X-13.735 Y-46.109 I-0.6 J-0.021
G1 X-16.536 Y-46.758
G3 X-17 Y-47.321 I0.135 J-0.585
G1 Y-48.093
X-16.993 Y-48.243
X-16.966 Y-48.39
X-16.923 Y-48.534
X-16.866 Y-48.673
X-16.796 Y-48.805
X-16.715 Y-48.932
X-16.625 Y-49.051
X-16.526 Y-49.164
X-16.419 Y-49.27
X-16.306 Y-49.368
X-16.187 Y-49.459
X-16.062 Y-49.542
X-15.933 Y-49.618
X-15.799 Y-49.686
X-15.661 Y-49.746
X-15.52 Y-49.797
X-15.376 Y-49.84
X-15.23 Y-49.873
X-15.082 Y-49.898
X-14.933 Y-49.914
X-14.783 Y-49.921
X-14.633 Y-49.919
X-14.309 Y-49.865
X-14 Y-49.751
X-13.717 Y-49.582
X-13.472 Y-49.364
X-13.271 Y-49.103
X-13.122 Y-48.809
X-13.031 Y-48.493
X-13 Y-48.165
Y-47.403
G3 X-13.743 Y-46.841 I-0.6 J-0.021
G1 X-16.544 Y-47.531
G3 X-17 Y-48.093 I0.143 J-0.583
G1 Y-48.857
X-16.993 Y-49.007
X-16.968 Y-49.155
X-16.926 Y-49.299
X-16.869 Y-49.438
X-16.8 Y-49.571
X-16.72 Y-49.698
X-16.63 Y-49.818
X-16.531 Y-49.931
X-16.425 Y-50.037
X-16.312 Y-50.135
X-16.193 Y-50.226
X-16.068 Y-50.31
X-15.939 Y-50.386
X-15.805 Y-50.454
X-15.667 Y-50.513
X-15.526 Y-50.564
X-15.383 Y-50.607
X-15.236 Y-50.64
X-15.088 Y-50.665
X-14.939 Y-50.682
X-14.789 Y-50.688
X-14.639 Y-50.686
X-14.314 Y-50.633
X-14.004 Y-50.519
X-13.72 Y-50.349
X-13.473 Y-50.13
X-13.272 Y-49.869
X-13.123 Y-49.574
X-13.031 Y-49.257
X-13 Y-48.928
Y-48.165
G3 X-13.743 Y-47.604 I-0.6 J-0.021
G1 X-16.544 Y-48.296
G3 X-17 Y-48.857 I0.144 J-0.583
G1 Y-49.612
X-16.993 Y-49.762
X-16.97 Y-49.91
X-16.93 Y-50.055
X-16.875 Y-50.195
X-16.807 Y-50.328
X-16.727 Y-50.456
X-16.638 Y-50.576
X-16.541 Y-50.69
X-16.435 Y-50.797
X-16.322 Y-50.896
X-16.204 Y-50.988
X-16.08 Y-51.072
X-15.951 Y-51.148
X-15.817 Y-51.217
X-15.68 Y-51.276
X-15.539 Y-51.328
X-15.395 Y-51.372
X-15.249 Y-51.406
X-15.101 Y-51.431
X-14.952 Y-51.448
X-14.802 Y-51.455
X-14.652 Y-51.454
X-14.638 Y-51.453
X-14.313 Y-51.4
X-14.003 Y-51.288
X-13.72 Y-51.12
X-13.473 Y-50.901
X-13.272 Y-50.641
X-13.123 Y-50.347
X-13.031 Y-50.031
X-13 Y-49.703
Y-48.928
G3 X-13.742 Y-48.366 I-0.6 J-0.021
G1 X-16.543 Y-49.05
G3 X-17 Y-49.612 I0.142 J-0.583
G1 Y-50.417
X-16.993 Y-50.567
X-16.965 Y-50.715
X-16.921 Y-50.858
X-16.862 Y-50.996
X-16.791 Y-51.128
X-16.709 Y-51.254
X-16.618 Y-51.373
X-16.518 Y-51.485
X-16.41 Y-51.589
X-16.296 Y-51.687
X-16.176 Y-51.776
X-16.05 Y-51.859
X-15.92 Y-51.933
X-15.786 Y-52
X-15.645 Y-52.058
X-15.503 Y-52.108
X-15.359 Y-52.149
X-15.21 Y-52.182
X-15.062 Y-52.205
X-14.913 Y-52.22
X-14.762 Y-52.225
X-14.612 Y-52.221
X-14.577 Y-52.218
X-14.219 Y-52.15
X-13.883 Y-52.008
X-13.585 Y-51.798
X-13.338 Y-51.531
X-13.153 Y-51.216
X-13.039 Y-50.87
X-13 Y-50.508
Y-49.703
G3 X-13.748 Y-49.143 I-0.6 J-0.021
G1 X-16.549 Y-49.857
G3 X-17 Y-50.417 I0.148 J-0.581
G1 Y-51.173
X-16.993 Y-51.323
X-16.967 Y-51.47
X-16.924 Y-51.614
X-16.867 Y-51.753
X-16.797 Y-51.885
X-16.716 Y-52.012
X-16.625 Y-52.131
X-16.526 Y-52.244
X-16.419 Y-52.349
X-16.306 Y-52.447
X-16.186 Y-52.538
X-16.061 Y-52.621
X-15.931 Y-52.696
X-15.797 Y-52.763
X-15.659 Y-52.822
X-15.512 Y-52.875
X-15.368 Y-52.917
X-15.221 Y-52.951
X-15.07 Y-52.976
X-14.92 Y-52.991
X-14.771 Y-52.999
X-14.621 Y-52.996
X-14.298 Y-52.941
X-13.991 Y-52.826
X-13.711 Y-52.657
X-13.467 Y-52.438
X-13.268 Y-52.178
X-13.121 Y-51.886
X-13.031 Y-51.571
X-13 Y-51.245
Y-50.508
G3 X-13.738 Y-49.945 I-0.6 J-0.021
G1 X-16.539 Y-50.61
G3 X-17 Y-51.173 I0.139 J-0.584
G1 Y-51.917
X-16.993 Y-52.067
X-16.97 Y-52.215
X-16.93 Y-52.36
X-16.875 Y-52.499
X-16.807 Y-52.633
X-16.728 Y-52.76
X-16.639 Y-52.881
X-16.542 Y-52.995
X-16.436 Y-53.102
X-16.324 Y-53.201
X-16.205 Y-53.293
X-16.081 Y-53.378
X-15.952 Y-53.454
X-15.819 Y-53.524
X-15.682 Y-53.584
X-15.541 Y-53.636
X-15.398 Y-53.68
X-15.252 Y-53.715
X-15.104 Y-53.74
X-14.955 Y-53.758
X-14.805 Y-53.766
X-14.653 Y-53.765
X-14.325 Y-53.713
X-14.013 Y-53.6
X-13.727 Y-53.431
X-13.478 Y-53.211
X-13.275 Y-52.948
X-13.124 Y-52.652
X-13.031 Y-52.333
X-13 Y-52.002
Y-51.245
G3 X-13.74 Y-50.683 I-0.6 J-0.021
G1 X-16.54 Y-51.354
G3 X-17 Y-51.917 I0.14 J-0.583
G1 Y-52.722
X-16.993 Y-52.872
X-16.965 Y-53.019
X-16.921 Y-53.163
X-16.863 Y-53.301
X-16.792 Y-53.433
X-16.71 Y-53.559
X-16.619 Y-53.678
X-16.52 Y-53.79
X-16.413 Y-53.895
X-16.299 Y-53.993
X-16.179 Y-54.083
X-16.053 Y-54.166
X-15.924 Y-54.241
X-15.789 Y-54.307
X-15.649 Y-54.366
X-15.508 Y-54.416
X-15.363 Y-54.457
X-15.215 Y-54.49
X-15.067 Y-54.513
X-14.917 Y-54.528
X-14.767 Y-54.533
X-14.617 Y-54.53
X-14.294 Y-54.473
X-13.988 Y-54.358
X-13.709 Y-54.188
X-13.466 Y-53.969
X-13.267 Y-53.709
X-13.121 Y-53.416
X-13.03 Y-53.102
X-13 Y-52.776
Y-52.002
G3 X-13.749 Y-51.442 I-0.6 J-0.021
G1 X-16.55 Y-52.162
G3 X-17 Y-52.722 I0.149 J-0.581
G1 Y-53.486
X-16.993 Y-53.636
X-16.966 Y-53.784
X-16.923 Y-53.928
X-16.865 Y-54.066
X-16.795 Y-54.198
X-16.713 Y-54.325
X-16.623 Y-54.444
X-16.523 Y-54.556
X-16.416 Y-54.661
X-16.302 Y-54.759
X-16.183 Y-54.849
X-16.057 Y-54.932
X-15.927 Y-55.007
X-15.793 Y-55.074
X-15.655 Y-55.132
X-15.514 Y-55.182
X-15.37 Y-55.224
X-15.223 Y-55.257
X-15.075 Y-55.28
X-14.926 Y-55.296
X-14.776 Y-55.302
X-14.626 Y-55.299
X-14.302 Y-55.243
X-13.995 Y-55.129
X-13.714 Y-54.959
X-13.469 Y-54.74
X-13.269 Y-54.48
X-13.121 Y-54.186
X-13.031 Y-53.871
X-13 Y-53.544
Y-52.776
G3 X-13.747 Y-52.216 I-0.6 J-0.021
G1 X-16.548 Y-52.926
G3 X-17 Y-53.486 I0.147 J-0.582
G1 Y-54.242
X-16.993 Y-54.392
X-16.968 Y-54.54
X-16.926 Y-54.684
X-16.87 Y-54.823
X-16.8 Y-54.956
X-16.72 Y-55.082
X-16.63 Y-55.202
X-16.531 Y-55.315
X-16.425 Y-55.421
X-16.312 Y-55.519
X-16.192 Y-55.61
X-16.068 Y-55.694
X-15.938 Y-55.769
X-15.804 Y-55.837
X-15.666 Y-55.896
X-15.525 Y-55.947
X-15.381 Y-55.989
X-15.235 Y-56.022
X-15.087 Y-56.047
X-14.938 Y-56.063
X-14.788 Y-56.07
X-14.638 Y-56.067
X-14.614 Y-56.066
X-14.293 Y-56.012
X-13.988 Y-55.9
X-13.709 Y-55.733
X-13.466 Y-55.516
X-13.267 Y-55.259
X-13.121 Y-54.969
X-13.03 Y-54.656
X-13 Y-54.332
Y-53.544
G3 X-13.745 Y-52.983 I-0.6 J-0.021
G1 X-16.545 Y-53.68
G3 X-17 Y-54.242 I0.145 J-0.582
G1 Y-54.997
X-16.993 Y-55.147
X-16.97 Y-55.295
X-16.929 Y-55.44
X-16.874 Y-55.579
X-16.806 Y-55.713
X-16.727 Y-55.84
X-16.637 Y-55.96
X-16.539 Y-56.074
X-16.434 Y-56.18
X-16.321 Y-56.279
X-16.202 Y-56.371
X-16.078 Y-56.455
X-15.949 Y-56.531
X-15.815 Y-56.6
X-15.678 Y-56.659
X-15.537 Y-56.711
X-15.393 Y-56.755
X-15.247 Y-56.789
X-15.099 Y-56.815
X-14.95 Y-56.832
X-14.801 Y-56.84
X-14.649 Y-56.839
X-14.499 Y-56.829
X-14.155 Y-56.749
X-13.835 Y-56.6
X-13.552 Y-56.388
X-13.318 Y-56.123
X-13.144 Y-55.816
X-13.036 Y-55.479
X-13 Y-55.128
Y-54.332
G3 X-13.738 Y-53.769 I-0.6 J-0.021
G1 X-16.539 Y-54.434
G3 X-17 Y-54.997 I0.139 J-0.584
G1 Y-55.802
X-16.993 Y-55.952
X-16.965 Y-56.099
X-16.92 Y-56.243
X-16.861 Y-56.38
X-16.79 Y-56.512
X-16.708 Y-56.638
X-16.616 Y-56.757
X-16.516 Y-56.869
X-16.409 Y-56.973
X-16.294 Y-57.07
X-16.174 Y-57.16
X-16.049 Y-57.243
X-15.919 Y-57.317
X-15.785 Y-57.384
X-15.647 Y-57.443
X-15.504 Y-57.494
X-15.36 Y-57.536
X-15.214 Y-57.569
X-15.066 Y-57.594
X-14.911 Y-57.609
X-14.762 Y-57.616
X-14.612 Y-57.614
X-14.291 Y-57.558
X-13.985 Y-57.443
X-13.707 Y-57.273
X-13.464 Y-57.055
X-13.267 Y-56.796
X-13.12 Y-56.505
X-13.03 Y-56.192
X-13 Y-55.867
Y-55.128
G3 X-13.74 Y-54.565 I-0.6 J-0.021
G1 X-16.541 Y-55.24
G3 X-17 Y-55.802 I0.14 J-0.583
G1 Y-56.546
X-16.993 Y-56.696
X-16.968 Y-56.844
X-16.926 Y-56.988
X-16.87 Y-57.127
X-16.801 Y-57.26
X-16.721 Y-57.387
X-16.631 Y-57.508
X-16.533 Y-57.621
X-16.427 Y-57.727
X-16.314 Y-57.826
X-16.195 Y-57.917
X-16.071 Y-58.001
X-15.942 Y-58.077
X-15.808 Y-58.146
X-15.671 Y-58.206
X-15.53 Y-58.257
X-15.386 Y-58.301
X-15.24 Y-58.335
X-15.092 Y-58.36
X-14.943 Y-58.377
X-14.794 Y-58.385
X-14.642 Y-58.383
X-14.316 Y-58.33
X-14.005 Y-58.217
X-13.722 Y-58.048
X-13.474 Y-57.828
X-13.272 Y-57.567
X-13.123 Y-57.272
X-13.031 Y-56.955
X-13 Y-56.626
Y-55.867
G3 X-13.741 Y-55.305 I-0.6 J-0.021
G1 X-16.542 Y-55.984
G3 X-17 Y-56.546 I0.141 J-0.583
G1 Y-57.351
X-16.993 Y-57.501
X-16.964 Y-57.649
X-16.918 Y-57.791
X-16.859 Y-57.929
X-16.787 Y-58.061
X-16.704 Y-58.186
X-16.613 Y-58.305
X-16.512 Y-58.416
X-16.405 Y-58.521
X-16.29 Y-58.618
X-16.17 Y-58.707
X-16.044 Y-58.789
X-15.914 Y-58.864
X-15.78 Y-58.93
X-15.639 Y-58.988
X-15.497 Y-59.038
X-15.353 Y-59.079
X-15.204 Y-59.111
X-15.056 Y-59.134
X-14.907 Y-59.148
X-14.756 Y-59.152
X-14.606 Y-59.148
X-14.285 Y-59.091
X-13.981 Y-58.975
X-13.704 Y-58.806
X-13.462 Y-58.588
X-13.265 Y-58.329
X-13.12 Y-58.038
X-13.03 Y-57.725
X-13 Y-57.401
Y-56.626
G3 X-13.75 Y-56.066 I-0.6 J-0.021
G1 X-16.551 Y-56.792
G3 X-17 Y-57.351 I0.15 J-0.581
G1 Y-58.116
X-16.993 Y-58.266
X-16.965 Y-58.413
X-16.92 Y-58.556
X-16.861 Y-58.694
X-16.79 Y-58.826
X-16.708 Y-58.952
X-16.616 Y-59.071
X-16.516 Y-59.183
X-16.409 Y-59.287
X-16.295 Y-59.384
X-16.175 Y-59.474
X-16.049 Y-59.556
X-15.919 Y-59.631
X-15.784 Y-59.697
X-15.646 Y-59.755
X-15.504 Y-59.805
X-15.36 Y-59.846
X-15.214 Y-59.878
X-15.066 Y-59.902
X-14.916 Y-59.917
X-14.766 Y-59.922
X-14.616 Y-59.919
X-14.295 Y-59.863
X-13.989 Y-59.748
X-13.709 Y-59.578
X-13.466 Y-59.36
X-13.268 Y-59.1
X-13.121 Y-58.809
X-13.03 Y-58.494
X-13 Y-58.169
Y-57.401
G3 X-13.748 Y-56.84 I-0.6 J-0.021
G1 X-16.549 Y-57.555
G3 X-17 Y-58.116 I0.148 J-0.581
G1 Y-58.871
X-16.993 Y-59.021
X-16.967 Y-59.169
X-16.924 Y-59.312
X-16.866 Y-59.451
X-16.796 Y-59.584
X-16.715 Y-59.71
X-16.624 Y-59.829
X-16.525 Y-59.942
X-16.418 Y-60.047
X-16.305 Y-60.145
X-16.185 Y-60.235
X-16.06 Y-60.318
X-15.93 Y-60.394
X-15.796 Y-60.461
X-15.658 Y-60.519
X-15.517 Y-60.57
X-15.373 Y-60.612
X-15.226 Y-60.645
X-15.078 Y-60.669
X-14.929 Y-60.685
X-14.779 Y-60.691
X-14.629 Y-60.688
X-14.601 Y-60.686
X-14.283 Y-60.632
X-13.98 Y-60.52
X-13.703 Y-60.353
X-13.462 Y-60.138
X-13.265 Y-59.882
X-13.12 Y-59.594
X-13.03 Y-59.283
X-13 Y-58.962
Y-58.169
G3 X-13.746 Y-57.608 I-0.6 J-0.021
G1 X-16.546 Y-58.31
G3 X-17 Y-58.871 I0.146 J-0.582
G1 Y-59.626
X-16.993 Y-59.776
X-16.968 Y-59.924
X-16.927 Y-60.068
X-16.871 Y-60.208
X-16.802 Y-60.341
X-16.722 Y-60.468
X-16.632 Y-60.588
X-16.534 Y-60.701
X-16.427 Y-60.807
X-16.314 Y-60.905
X-16.195 Y-60.997
X-16.071 Y-61.08
X-15.941 Y-61.156
X-15.808 Y-61.224
X-15.67 Y-61.283
X-15.529 Y-61.335
X-15.385 Y-61.378
X-15.239 Y-61.412
X-15.091 Y-61.438
X-14.942 Y-61.455
X-14.792 Y-61.463
X-14.641 Y-61.461
X-14.491 Y-61.451
X-14.149 Y-61.371
X-13.83 Y-61.222
X-13.549 Y-61.011
X-13.316 Y-60.747
X-13.143 Y-60.441
X-13.036 Y-60.106
X-13 Y-59.756
Y-58.962
G3 X-13.738 Y-58.399 I-0.6 J-0.021
G1 X-16.539 Y-59.064
G3 X-17 Y-59.626 I0.139 J-0.584
G1 Y-60.432
X-16.993 Y-60.581
X-16.964 Y-60.729
X-16.918 Y-60.871
X-16.858 Y-61.009
X-16.786 Y-61.141
X-16.704 Y-61.266
X-16.612 Y-61.384
X-16.511 Y-61.496
X-16.403 Y-61.6
X-16.289 Y-61.697
X-16.168 Y-61.786
X-16.043 Y-61.868
X-15.913 Y-61.943
X-15.778 Y-62.009
X-15.64 Y-62.068
X-15.497 Y-62.118
X-15.353 Y-62.16
X-15.207 Y-62.193
X-15.059 Y-62.217
X-14.904 Y-62.233
X-14.755 Y-62.239
X-14.605 Y-62.237
X-14.285 Y-62.18
X-13.981 Y-62.065
X-13.704 Y-61.896
X-13.462 Y-61.679
X-13.265 Y-61.42
X-13.12 Y-61.13
X-13.03 Y-60.818
X-13 Y-60.495
Y-59.756
G3 X-13.74 Y-59.193 I-0.6 J-0.021
G1 X-16.541 Y-59.869
G3 X-17 Y-60.432 I0.141 J-0.583
G1 Y-61.176
X-16.993 Y-61.326
X-16.967 Y-61.473
X-16.924 Y-61.617
X-16.867 Y-61.756
X-16.798 Y-61.889
X-16.717 Y-62.015
X-16.627 Y-62.135
X-16.528 Y-62.248
X-16.422 Y-62.354
X-16.309 Y-62.453
X-16.19 Y-62.544
X-16.065 Y-62.627
X-15.936 Y-62.703
X-15.802 Y-62.772
X-15.665 Y-62.831
X-15.524 Y-62.882
X-15.38 Y-62.926
X-15.234 Y-62.959
X-15.086 Y-62.984
X-14.937 Y-63.001
X-14.787 Y-63.008
X-14.636 Y-63.006
X-14.311 Y-62.953
X-14.002 Y-62.84
X-13.719 Y-62.671
X-13.472 Y-62.452
X-13.271 Y-62.192
X-13.122 Y-61.898
X-13.031 Y-61.581
X-13 Y-61.253
Y-60.495
G3 X-13.741 Y-59.932 I-0.6 J-0.021
G1 X-16.542 Y-60.614
G3 X-17 Y-61.176 I0.142 J-0.583
G1 Y-61.94
X-16.993 Y-62.09
X-16.968 Y-62.238
X-16.927 Y-62.382
X-16.87 Y-62.521
X-16.801 Y-62.654
X-16.722 Y-62.781
X-16.632 Y-62.901
X-16.534 Y-63.015
X-16.428 Y-63.121
X-16.315 Y-63.22
X-16.196 Y-63.311
X-16.071 Y-63.395
X-15.942 Y-63.471
X-15.809 Y-63.539
X-15.671 Y-63.599
X-15.53 Y-63.65
X-15.386 Y-63.693
X-15.24 Y-63.727
X-15.092 Y-63.752
X-14.943 Y-63.769
X-14.793 Y-63.776
X-14.643 Y-63.774
X-14.317 Y-63.721
X-14.006 Y-63.607
X-13.722 Y-63.438
X-13.475 Y-63.218
X-13.273 Y-62.956
X-13.123 Y-62.662
X-13.031 Y-62.344
X-13 Y-62.015
Y-61.253
G3 X-13.742 Y-60.692 I-0.6 J-0.021
G1 X-16.543 Y-61.378
G3 X-17 Y-61.94 I0.143 J-0.583
G1 Y-62.695
X-16.993 Y-62.845
X-16.97 Y-62.994
X-16.931 Y-63.138
X-16.876 Y-63.278
X-16.808 Y-63.412
X-16.729 Y-63.539
X-16.641 Y-63.66
X-16.543 Y-63.774
X-16.438 Y-63.881
X-16.325 Y-63.98
X-16.207 Y-64.072
X-16.083 Y-64.157
X-15.954 Y-64.233
X-15.821 Y-64.302
X-15.683 Y-64.362
X-15.542 Y-64.414
X-15.399 Y-64.458
X-15.253 Y-64.492
X-15.105 Y-64.518
X-14.956 Y-64.535
X-14.806 Y-64.542
X-14.655 Y-64.541
X-14.644 Y-64.54
X-14.318 Y-64.488
X-14.007 Y-64.376
X-13.723 Y-64.207
X-13.475 Y-63.988
X-13.273 Y-63.727
X-13.123 Y-63.432
X-13.031 Y-63.115
X-13 Y-62.786
Y-62.015
G3 X-13.741 Y-61.452 I-0.6 J-0.021
G1 X-16.542 Y-62.133
G3 X-17 Y-62.695 I0.142 J-0.583
G1 Y-63.5
X-16.993 Y-63.65
X-16.966 Y-63.798
X-16.922 Y-63.941
X-16.863 Y-64.079
X-16.793 Y-64.212
X-16.711 Y-64.338
X-16.62 Y-64.457
X-16.52 Y-64.569
X-16.413 Y-64.674
X-16.299 Y-64.771
X-16.179 Y-64.861
X-16.054 Y-64.944
X-15.924 Y-65.018
X-15.789 Y-65.085
X-15.648 Y-65.144
X-15.507 Y-65.194
X-15.363 Y-65.235
X-15.214 Y-65.267
X-15.066 Y-65.291
X-14.917 Y-65.306
X-14.766 Y-65.311
X-14.616 Y-65.308
X-14.581 Y-65.305
X-14.266 Y-65.25
X-13.967 Y-65.137
X-13.694 Y-64.971
X-13.456 Y-64.757
X-13.262 Y-64.503
X-13.118 Y-64.217
X-13.03 Y-63.91
X-13 Y-63.591
Y-62.786
G3 X-13.748 Y-62.226 I-0.6 J-0.021
G1 X-16.549 Y-62.94
G3 X-17 Y-63.5 I0.148 J-0.581
G1 Y-64.256
X-16.993 Y-64.406
X-16.967 Y-64.553
X-16.925 Y-64.697
X-16.868 Y-64.836
X-16.798 Y-64.969
X-16.718 Y-65.095
X-16.627 Y-65.215
X-16.528 Y-65.328
X-16.422 Y-65.433
X-16.308 Y-65.532
X-16.189 Y-65.622
X-16.064 Y-65.705
X-15.934 Y-65.781
X-15.8 Y-65.848
X-15.662 Y-65.907
X-15.521 Y-65.958
X-15.377 Y-66.001
X-15.231 Y-66.035
X-15.082 Y-66.06
X-14.933 Y-66.077
X-14.783 Y-66.084
X-14.631 Y-66.083
X-14.481 Y-66.073
X-14.141 Y-65.992
X-13.824 Y-65.843
X-13.545 Y-65.633
X-13.314 Y-65.37
X-13.142 Y-65.065
X-13.036 Y-64.732
X-13 Y-64.384
Y-63.591
G3 X-13.738 Y-63.028 I-0.6 J-0.021
G1 X-16.539 Y-63.693
G3 X-17 Y-64.256 I0.139 J-0.584
G1 Y-65
X-16.993 Y-65.15
X-16.971 Y-65.298
X-16.931 Y-65.443
X-16.876 Y-65.583
X-16.809 Y-65.716
X-16.73 Y-65.844
X-16.641 Y-65.965
X-16.544 Y-66.079
X-16.438 Y-66.186
X-16.326 Y-66.285
X-16.208 Y-66.378
X-16.084 Y-66.462
X-15.955 Y-66.539
X-15.822 Y-66.609
X-15.686 Y-66.67
X-15.545 Y-66.723
X-15.396 Y-66.769
X-15.251 Y-66.805
X-15.103 Y-66.833
X-14.95 Y-66.851
X-14.801 Y-66.86
X-14.651 Y-66.861
X-14.323 Y-66.81
X-14.011 Y-66.698
X-13.726 Y-66.529
X-13.477 Y-66.31
X-13.274 Y-66.049
X-13.124 Y-65.754
X-13.031 Y-65.435
X-13 Y-65.106
Y-64.384
G3 X-13.729 Y-63.819 I-0.6 J-0.021
G1 X-16.529 Y-64.435
G3 X-17 Y-65 I0.129 J-0.586
G1 Y-65.805
X-16.993 Y-65.955
X-16.966 Y-66.103
X-16.922 Y-66.246
X-16.864 Y-66.384
X-16.794 Y-66.517
X-16.712 Y-66.643
X-16.622 Y-66.762
X-16.523 Y-66.875
X-16.416 Y-66.98
X-16.302 Y-67.078
X-16.183 Y-67.169
X-16.058 Y-67.253
X-15.929 Y-67.328
X-15.795 Y-67.396
X-15.656 Y-67.455
X-15.515 Y-67.506
X-15.371 Y-67.549
X-15.223 Y-67.582
X-15.075 Y-67.606
X-14.926 Y-67.622
X-14.776 Y-67.628
X-14.626 Y-67.625
X-14.303 Y-67.57
X-13.995 Y-67.456
X-13.714 Y-67.287
X-13.469 Y-67.068
X-13.269 Y-66.808
X-13.121 Y-66.515
X-13.031 Y-66.2
X-13 Y-65.873
Y-65.106
G3 X-13.745 Y-64.544 I-0.6 J-0.021
G1 X-16.546 Y-65.244
G3 X-17 Y-65.805 I0.145 J-0.582
G1 Y-66.569
X-16.993 Y-66.719
X-16.967 Y-66.867
X-16.924 Y-67.011
X-16.867 Y-67.15
X-16.798 Y-67.283
X-16.717 Y-67.409
X-16.627 Y-67.529
X-16.528 Y-67.642
X-16.422 Y-67.747
X-16.309 Y-67.846
X-16.189 Y-67.937
X-16.064 Y-68.02
X-15.935 Y-68.096
X-15.801 Y-68.163
X-15.663 Y-68.222
X-15.522 Y-68.273
X-15.378 Y-68.316
X-15.232 Y-68.349
X-15.084 Y-68.373
X-14.935 Y-68.389
X-14.785 Y-68.396
X-14.635 Y-68.394
X-14.31 Y-68.339
X-14.001 Y-68.225
X-13.718 Y-68.056
X-13.472 Y-67.837
X-13.271 Y-67.576
X-13.122 Y-67.281
X-13.031 Y-66.965
X-13 Y-66.637
Y-65.873
G3 X-13.744 Y-65.311 I-0.6 J-0.021
G1 X-16.545 Y-66.008
G3 X-17 Y-66.569 I0.145 J-0.582
G1 Y-67.325
X-16.993 Y-67.475
X-16.969 Y-67.623
X-16.928 Y-67.767
X-16.873 Y-67.906
X-16.805 Y-68.04
X-16.725 Y-68.167
X-16.636 Y-68.288
X-16.538 Y-68.401
X-16.432 Y-68.507
X-16.319 Y-68.606
X-16.2 Y-68.698
X-16.076 Y-68.782
X-15.947 Y-68.858
X-15.813 Y-68.926
X-15.675 Y-68.986
X-15.534 Y-69.037
X-15.391 Y-69.08
X-15.245 Y-69.114
X-15.097 Y-69.139
X-14.948 Y-69.156
X-14.798 Y-69.163
X-14.647 Y-69.161
X-14.63 Y-69.16
X-14.307 Y-69.107
X-13.998 Y-68.995
X-13.717 Y-68.827
X-13.471 Y-68.609
X-13.271 Y-68.35
X-13.122 Y-68.057
X-13.031 Y-67.742
X-13 Y-67.415
Y-66.637
G3 X-13.743 Y-66.075 I-0.6 J-0.021
G1 X-16.543 Y-66.763
G3 X-17 Y-67.325 I0.143 J-0.583
G1 Y-68.13
X-16.993 Y-68.28
X-16.964 Y-68.427
X-16.92 Y-68.57
X-16.86 Y-68.708
X-16.789 Y-68.84
X-16.707 Y-68.965
X-16.615 Y-69.084
X-16.515 Y-69.196
X-16.407 Y-69.3
X-16.293 Y-69.397
X-16.172 Y-69.487
X-16.047 Y-69.569
X-15.916 Y-69.643
X-15.782 Y-69.709
X-15.64 Y-69.768
X-15.499 Y-69.817
X-15.355 Y-69.858
X-15.206 Y-69.89
X-15.057 Y-69.914
X-14.908 Y-69.928
X-14.758 Y-69.933
X-14.608 Y-69.929
X-14.571 Y-69.926
X-14.214 Y-69.858
X-13.88 Y-69.716
X-13.583 Y-69.507
X-13.337 Y-69.24
X-13.153 Y-68.927
X-13.039 Y-68.582
X-13 Y-68.22
Y-67.415
G3 X-13.748 Y-66.855 I-0.6 J-0.021
G1 X-16.549 Y-67.569
G3 X-17 Y-68.13 I0.148 J-0.581
G1 Y-68.885
X-16.993 Y-69.035
X-16.966 Y-69.183
X-16.923 Y-69.326
X-16.865 Y-69.465
X-16.795 Y-69.597
X-16.714 Y-69.723
X-16.623 Y-69.843
X-16.523 Y-69.955
X-16.416 Y-70.06
X-16.303 Y-70.158
X-16.183 Y-70.248
X-16.058 Y-70.331
X-15.928 Y-70.406
X-15.794 Y-70.473
X-15.656 Y-70.532
X-15.508 Y-70.585
X-15.364 Y-70.627
X-15.218 Y-70.66
X-15.066 Y-70.685
X-14.916 Y-70.701
X-14.767 Y-70.708
X-14.617 Y-70.705
X-14.295 Y-70.649
X-13.989 Y-70.535
X-13.709 Y-70.366
X-13.466 Y-70.148
X-13.268 Y-69.888
X-13.121 Y-69.596
X-13.03 Y-69.282
X-13 Y-68.957
Y-68.22
G3 X-13.738 Y-67.658 I-0.6 J-0.021
G1 X-16.539 Y-68.322
G3 X-17 Y-68.885 I0.139 J-0.584
G1 Y-69.629
X-16.993 Y-69.779
X-16.97 Y-69.927
X-16.929 Y-70.072
X-16.874 Y-70.211
X-16.805 Y-70.345
X-16.726 Y-70.472
X-16.637 Y-70.593
X-16.539 Y-70.706
X-16.433 Y-70.813
X-16.321 Y-70.912
X-16.202 Y-71.004
X-16.078 Y-71.088
X-15.949 Y-71.165
X-15.816 Y-71.234
X-15.679 Y-71.294
X-15.538 Y-71.346
X-15.395 Y-71.39
X-15.249 Y-71.424
X-15.101 Y-71.45
X-14.952 Y-71.468
X-14.802 Y-71.475
X-14.65 Y-71.474
X-14.323 Y-71.422
X-14.011 Y-71.309
X-13.726 Y-71.14
X-13.477 Y-70.92
X-13.274 Y-70.658
X-13.124 Y-70.363
X-13.031 Y-70.044
X-13 Y-69.714
Y-68.957
G3 X-13.74 Y-68.395 I-0.6 J-0.021
G1 X-16.54 Y-69.067
G3 X-17 Y-69.629 I0.14 J-0.583
G1 Y-70.434
X-16.993 Y-70.584
X-16.965 Y-70.732
X-16.92 Y-70.875
X-16.862 Y-71.013
X-16.791 Y-71.145
X-16.709 Y-71.271
X-16.617 Y-71.39
X-16.518 Y-71.502
X-16.41 Y-71.607
X-16.296 Y-71.704
X-16.176 Y-71.794
X-16.051 Y-71.876
X-15.921 Y-71.951
X-15.786 Y-72.018
X-15.646 Y-72.076
X-15.505 Y-72.126
X-15.36 Y-72.168
X-15.212 Y-72.2
X-15.064 Y-72.223
X-14.914 Y-72.238
X-14.763 Y-72.243
X-14.613 Y-72.239
X-14.292 Y-72.182
X-13.986 Y-72.067
X-13.707 Y-71.897
X-13.465 Y-71.678
X-13.267 Y-71.419
X-13.12 Y-71.127
X-13.03 Y-70.813
X-13 Y-70.488
Y-69.714
G3 X-13.749 Y-69.154 I-0.6 J-0.021
G1 X-16.55 Y-69.874
G3 X-17 Y-70.434 I0.149 J-0.581
G1 Y-71.199
X-16.993 Y-71.349
X-16.966 Y-71.496
X-16.922 Y-71.64
X-16.864 Y-71.778
X-16.793 Y-71.91
X-16.712 Y-72.036
X-16.621 Y-72.156
X-16.521 Y-72.268
X-16.414 Y-72.373
X-16.3 Y-72.47
X-16.18 Y-72.56
X-16.055 Y-72.643
X-15.925 Y-72.718
X-15.791 Y-72.785
X-15.652 Y-72.843
X-15.511 Y-72.893
X-15.367 Y-72.935
X-15.221 Y-72.967
X-15.072 Y-72.991
X-14.923 Y-73.006
X-14.773 Y-73.012
X-14.623 Y-73.009
X-14.3 Y-72.953
X-13.993 Y-72.839
X-13.712 Y-72.669
X-13.468 Y-72.45
X-13.269 Y-72.19
X-13.121 Y-71.897
X-13.031 Y-71.582
X-13 Y-71.255
Y-70.488
G3 X-13.747 Y-69.927 I-0.6 J-0.021
G1 X-16.548 Y-70.638
G3 X-17 Y-71.199 I0.148 J-0.582
G1 Y-71.954
X-16.993 Y-72.104
X-16.968 Y-72.252
X-16.925 Y-72.396
X-16.869 Y-72.535
X-16.799 Y-72.668
X-16.719 Y-72.794
X-16.628 Y-72.914
X-16.53 Y-73.027
X-16.423 Y-73.132
X-16.31 Y-73.231
X-16.19 Y-73.322
X-16.066 Y-73.405
X-15.936 Y-73.48
X-15.802 Y-73.548
X-15.664 Y-73.607
X-15.523 Y-73.657
X-15.379 Y-73.7
X-15.233 Y-73.733
X-15.085 Y-73.757
X-14.936 Y-73.774
X-14.786 Y-73.78
X-14.635 Y-73.778
X-14.61 Y-73.776
X-14.29 Y-73.722
X-13.986 Y-73.61
X-13.707 Y-73.443
X-13.465 Y-73.227
X-13.267 Y-72.97
X-13.12 Y-72.68
X-13.03 Y-72.368
X-13 Y-72.045
Y-71.255
G3 X-13.745 Y-70.694 I-0.6 J-0.021
G1 X-16.546 Y-71.393
G3 X-17 Y-71.954 I0.145 J-0.582
G1 Y-72.709
X-16.993 Y-72.859
X-16.969 Y-73.007
X-16.929 Y-73.152
X-16.873 Y-73.291
X-16.805 Y-73.425
X-16.725 Y-73.552
X-16.636 Y-73.672
X-16.538 Y-73.786
X-16.432 Y-73.892
X-16.319 Y-73.991
X-16.2 Y-74.082
X-16.076 Y-74.166
X-15.947 Y-74.242
X-15.813 Y-74.311
X-15.675 Y-74.37
X-15.535 Y-74.422
X-15.391 Y-74.466
X-15.245 Y-74.5
X-15.097 Y-74.526
X-14.948 Y-74.543
X-14.798 Y-74.551
X-14.647 Y-74.55
X-14.497 Y-74.54
X-14.153 Y-74.459
X-13.833 Y-74.31
X-13.551 Y-74.099
X-13.318 Y-73.834
X-13.144 Y-73.527
X-13.036 Y-73.191
X-13 Y-72.84
Y-72.045
G3 X-13.738 Y-71.482 I-0.6 J-0.021
G1 X-16.539 Y-72.147
G3 X-17 Y-72.709 I0.139 J-0.584
G1 Y-73.515
X-16.993 Y-73.664
X-16.964 Y-73.812
X-16.92 Y-73.955
X-16.86 Y-74.093
X-16.789 Y-74.224
X-16.707 Y-74.35
X-16.615 Y-74.469
X-16.515 Y-74.58
X-16.407 Y-74.685
X-16.293 Y-74.782
X-16.173 Y-74.872
X-16.047 Y-74.954
X-15.917 Y-75.029
X-15.783 Y-75.096
X-15.645 Y-75.155
X-15.502 Y-75.205
X-15.358 Y-75.247
X-15.212 Y-75.28
X-15.064 Y-75.305
X-14.91 Y-75.32
X-14.76 Y-75.327
X-14.61 Y-75.325
X-14.289 Y-75.268
X-13.984 Y-75.153
X-13.706 Y-74.984
X-13.464 Y-74.766
X-13.266 Y-74.507
X-13.12 Y-74.216
X-13.03 Y-73.903
X-13 Y-73.579
Y-72.84
G3 X-13.74 Y-72.277 I-0.6 J-0.021
G1 X-16.541 Y-72.952
G3 X-17 Y-73.515 I0.141 J-0.583
G1 Y-74.259
X-16.993 Y-74.409
X-16.968 Y-74.557
X-16.926 Y-74.701
X-16.869 Y-74.839
X-16.8 Y-74.973
X-16.72 Y-75.099
X-16.63 Y-75.219
X-16.532 Y-75.333
X-16.426 Y-75.439
X-16.313 Y-75.538
X-16.194 Y-75.629
X-16.069 Y-75.713
X-15.94 Y-75.789
X-15.807 Y-75.857
X-15.669 Y-75.917
X-15.528 Y-75.969
X-15.385 Y-76.012
X-15.239 Y-76.046
X-15.091 Y-76.071
X-14.942 Y-76.088
X-14.792 Y-76.095
X-14.64 Y-76.094
X-14.315 Y-76.04
X-14.004 Y-75.927
X-13.721 Y-75.758
X-13.474 Y-75.539
X-13.272 Y-75.278
X-13.123 Y-74.984
X-13.031 Y-74.667
X-13 Y-74.338
Y-73.579
G3 X-13.741 Y-73.017 I-0.6 J-0.021
G1 X-16.542 Y-73.697
G3 X-17 Y-74.259 I0.142 J-0.583
G1 Y-75.023
X-16.993 Y-75.173
X-16.969 Y-75.321
X-16.928 Y-75.465
X-16.872 Y-75.605
X-16.804 Y-75.738
X-16.724 Y-75.865
X-16.635 Y-75.986
X-16.536 Y-76.099
X-16.431 Y-76.205
X-16.318 Y-76.304
X-16.199 Y-76.396
X-16.075 Y-76.48
X-15.946 Y-76.556
X-15.812 Y-76.625
X-15.675 Y-76.684
X-15.534 Y-76.736
X-15.39 Y-76.779
X-15.244 Y-76.813
X-15.096 Y-76.838
X-14.947 Y-76.855
X-14.797 Y-76.862
X-14.647 Y-76.861
X-14.32 Y-76.808
X-14.009 Y-76.694
X-13.724 Y-76.525
X-13.476 Y-76.305
X-13.273 Y-76.043
X-13.123 Y-75.747
X-13.031 Y-75.429
X-13 Y-75.099
Y-74.338
G3 X-13.742 Y-73.776 I-0.6 J-0.021
G1 X-16.543 Y-74.461
G3 X-17 Y-75.023 I0.143 J-0.583
G1 Y-75.828
X-16.993 Y-75.978
X-16.964 Y-76.125
X-16.919 Y-76.268
X-16.86 Y-76.406
X-16.789 Y-76.538
X-16.707 Y-76.664
X-16.615 Y-76.782
X-16.515 Y-76.894
X-16.407 Y-76.998
X-16.293 Y-77.096
X-16.172 Y-77.185
X-16.047 Y-77.267
X-15.917 Y-77.342
X-15.782 Y-77.408
X-15.641 Y-77.466
X-15.5 Y-77.516
X-15.355 Y-77.556
X-15.207 Y-77.588
X-15.058 Y-77.611
X-14.909 Y-77.625
X-14.758 Y-77.63
X-14.608 Y-77.626
X-14.287 Y-77.568
X-13.983 Y-77.453
X-13.705 Y-77.282
X-13.463 Y-77.064
X-13.266 Y-76.805
X-13.12 Y-76.513
X-13.03 Y-76.2
X-13 Y-75.876
Y-75.099
G3 X-13.751 Y-74.539 I-0.6 J-0.021
G1 X-16.552 Y-75.268
G3 X-17 Y-75.828 I0.151 J-0.581
G1 Y-76.583
X-16.993 Y-76.733
X-16.966 Y-76.881
X-16.923 Y-77.025
X-16.865 Y-77.163
X-16.795 Y-77.296
X-16.714 Y-77.422
X-16.623 Y-77.541
X-16.523 Y-77.653
X-16.416 Y-77.758
X-16.303 Y-77.856
X-16.183 Y-77.946
X-16.058 Y-78.029
X-15.928 Y-78.104
X-15.793 Y-78.171
X-15.655 Y-78.229
X-15.514 Y-78.279
X-15.37 Y-78.321
X-15.223 Y-78.354
X-15.075 Y-78.378
X-14.926 Y-78.393
X-14.776 Y-78.399
X-14.625 Y-78.396
X-14.594 Y-78.394
X-14.277 Y-78.34
X-13.975 Y-78.227
X-13.699 Y-78.061
X-13.46 Y-77.846
X-13.264 Y-77.591
X-13.119 Y-77.304
X-13.03 Y-76.994
X-13 Y-76.674
Y-75.876
G3 X-13.747 Y-75.315 I-0.6 J-0.021
G1 X-16.547 Y-76.023
G3 X-17 Y-76.583 I0.147 J-0.582
G1 Y-77.339
X-16.993 Y-77.489
X-16.968 Y-77.637
X-16.926 Y-77.781
X-16.87 Y-77.92
X-16.801 Y-78.053
X-16.72 Y-78.179
X-16.63 Y-78.299
X-16.531 Y-78.412
X-16.425 Y-78.518
X-16.312 Y-78.616
X-16.193 Y-78.707
X-16.068 Y-78.791
X-15.938 Y-78.866
X-15.805 Y-78.934
X-15.667 Y-78.993
X-15.526 Y-79.045
X-15.382 Y-79.088
X-15.236 Y-79.122
X-15.087 Y-79.147
X-14.938 Y-79.164
X-14.789 Y-79.172
X-14.637 Y-79.17
X-14.487 Y-79.16
X-14.146 Y-79.079
X-13.828 Y-78.931
X-13.547 Y-78.72
X-13.316 Y-78.456
X-13.143 Y-78.151
X-13.036 Y-77.816
X-13 Y-77.467
Y-76.674
G3 X-13.738 Y-76.111 I-0.6 J-0.021
G1 X-16.539 Y-76.776
G3 X-17 Y-77.339 I0.139 J-0.584
G1 Y-78.116
X-16.993 Y-78.266
X-16.967 Y-78.414
X-16.924 Y-78.558
X-16.866 Y-78.696
X-16.796 Y-78.829
X-16.715 Y-78.955
X-16.625 Y-79.075
X-16.526 Y-79.187
X-16.419 Y-79.293
X-16.306 Y-79.391
X-16.186 Y-79.482
X-16.061 Y-79.565
X-15.932 Y-79.64
X-15.798 Y-79.708
X-15.661 Y-79.768
X-15.519 Y-79.819
X-15.373 Y-79.863
X-15.227 Y-79.898
X-15.079 Y-79.924
X-14.925 Y-79.94
X-14.775 Y-79.948
X-14.625 Y-79.947
X-14.302 Y-79.892
X-13.994 Y-79.779
X-13.713 Y-79.61
X-13.469 Y-79.392
X-13.269 Y-79.132
X-13.121 Y-78.839
X-13.031 Y-78.525
X-13 Y-78.198
Y-77.467
G3 X-13.735 Y-76.904 I-0.6 J-0.021
G1 X-16.536 Y-77.553
G3 X-17 Y-78.116 I0.135 J-0.585
G1 Y-78.888
X-16.993 Y-79.038
X-16.966 Y-79.186
X-16.923 Y-79.329
X-16.866 Y-79.468
X-16.796 Y-79.601
X-16.715 Y-79.727
X-16.625 Y-79.847
X-16.526 Y-79.959
X-16.419 Y-80.065
X-16.306 Y-80.163
X-16.187 Y-80.254
X-16.062 Y-80.338
X-15.933 Y-80.414
X-15.799 Y-80.482
X-15.661 Y-80.541
X-15.52 Y-80.592
X-15.376 Y-80.635
X-15.23 Y-80.668
X-15.082 Y-80.693
X-14.933 Y-80.71
X-14.783 Y-80.716
X-14.633 Y-80.714
X-14.309 Y-80.66
X-14 Y-80.547
X-13.717 Y-80.378
X-13.472 Y-80.159
X-13.271 Y-79.898
X-13.122 Y-79.605
X-13.031 Y-79.288
X-13 Y-78.961
Y-78.198
G3 X-13.743 Y-77.637 I-0.6 J-0.021
G1 X-16.544 Y-78.326
G3 X-17 Y-78.888 I0.143 J-0.583
G1 Y-79.652
X-16.993 Y-79.802
X-16.968 Y-79.95
X-16.926 Y-80.094
X-16.869 Y-80.233
X-16.8 Y-80.366
X-16.72 Y-80.493
X-16.63 Y-80.613
X-16.531 Y-80.726
X-16.425 Y-80.832
X-16.312 Y-80.931
X-16.193 Y-81.022
X-16.068 Y-81.105
X-15.939 Y-81.181
X-15.805 Y-81.249
X-15.667 Y-81.308
X-15.526 Y-81.36
X-15.383 Y-81.402
X-15.236 Y-81.436
X-15.088 Y-81.461
X-14.939 Y-81.477
X-14.789 Y-81.484
X-14.639 Y-81.482
X-14.314 Y-81.428
X-14.004 Y-81.314
X-13.72 Y-81.145
X-13.473 Y-80.925
X-13.272 Y-80.664
X-13.123 Y-80.369
X-13.031 Y-80.052
X-13 Y-79.723
Y-78.961
G3 X-13.743 Y-78.399 I-0.6 J-0.021
G1 X-16.544 Y-79.091
G3 X-17 Y-79.652 I0.144 J-0.583
G1 Y-80.408
X-16.993 Y-80.558
X-16.97 Y-80.706
X-16.93 Y-80.85
X-16.875 Y-80.99
X-16.807 Y-81.124
X-16.727 Y-81.251
X-16.638 Y-81.372
X-16.541 Y-81.485
X-16.435 Y-81.592
X-16.322 Y-81.691
X-16.204 Y-81.783
X-16.08 Y-81.867
X-15.951 Y-81.943
X-15.817 Y-82.012
X-15.679 Y-82.072
X-15.539 Y-82.123
X-15.395 Y-82.167
X-15.249 Y-82.201
X-15.101 Y-82.226
X-14.952 Y-82.243
X-14.802 Y-82.251
X-14.652 Y-82.249
X-14.638 Y-82.248
X-14.313 Y-82.196
X-14.003 Y-82.083
X-13.72 Y-81.915
X-13.473 Y-81.697
X-13.272 Y-81.436
X-13.123 Y-81.143
X-13.031 Y-80.826
X-13 Y-80.498
Y-79.723
G3 X-13.742 Y-79.161 I-0.6 J-0.021
G1 X-16.543 Y-79.846
G3 X-17 Y-80.408 I0.142 J-0.583
G1 Y-81.213
X-16.993 Y-81.363
X-16.965 Y-81.51
X-16.921 Y-81.653
X-16.862 Y-81.791
X-16.791 Y-81.924
X-16.709 Y-82.049
X-16.618 Y-82.168
X-16.518 Y-82.28
X-16.41 Y-82.385
X-16.296 Y-82.482
X-16.176 Y-82.572
X-16.05 Y-82.654
X-15.92 Y-82.729
X-15.786 Y-82.795
X-15.645 Y-82.854
X-15.503 Y-82.903
X-15.359 Y-82.945
X-15.21 Y-82.977
X-15.062 Y-83
X-14.913 Y-83.015
X-14.762 Y-83.02
X-14.612 Y-83.016
X-14.577 Y-83.014
X-14.219 Y-82.946
X-13.883 Y-82.804
X-13.585 Y-82.594
X-13.338 Y-82.326
X-13.153 Y-82.012
X-13.039 Y-81.666
X-13 Y-81.303
Y-80.498
G3 X-13.748 Y-79.938 I-0.6 J-0.021
G1 X-16.549 Y-80.652
G3 X-17 Y-81.213 I0.148 J-0.581
G1 Y-81.968
X-16.993 Y-82.118
X-16.967 Y-82.266
X-16.924 Y-82.409
X-16.867 Y-82.548
X-16.797 Y-82.681
X-16.716 Y-82.807
X-16.625 Y-82.927
X-16.526 Y-83.039
X-16.419 Y-83.145
X-16.306 Y-83.243
X-16.186 Y-83.333
X-16.061 Y-83.416
X-15.931 Y-83.491
X-15.797 Y-83.559
X-15.659 Y-83.617
X-15.512 Y-83.67
X-15.368 Y-83.713
X-15.221 Y-83.746
X-15.07 Y-83.771
X-14.92 Y-83.787
X-14.771 Y-83.794
X-14.621 Y-83.791
X-14.298 Y-83.736
X-13.991 Y-83.621
X-13.711 Y-83.452
X-13.467 Y-83.234
X-13.268 Y-82.974
X-13.121 Y-82.681
X-13.031 Y-82.367
X-13 Y-82.041
Y-81.303
G3 X-13.738 Y-80.741 I-0.6 J-0.021
G1 X-16.539 Y-81.405
G3 X-17 Y-81.968 I0.139 J-0.584
G1 Y-82.712
X-16.993 Y-82.862
X-16.97 Y-83.011
X-16.93 Y-83.155
X-16.875 Y-83.295
X-16.807 Y-83.428
X-16.728 Y-83.556
X-16.639 Y-83.677
X-16.541 Y-83.79
X-16.436 Y-83.897
X-16.324 Y-83.997
X-16.205 Y-84.089
X-16.081 Y-84.173
X-15.952 Y-84.25
X-15.819 Y-84.319
X-15.682 Y-84.379
X-15.541 Y-84.431
X-15.398 Y-84.475
X-15.252 Y-84.51
X-15.104 Y-84.536
X-14.955 Y-84.553
X-14.805 Y-84.561
X-14.653 Y-84.56
X-14.325 Y-84.508
X-14.013 Y-84.395
X-13.727 Y-84.226
X-13.478 Y-84.006
X-13.275 Y-83.743
X-13.124 Y-83.448
X-13.031 Y-83.129
X-13 Y-82.798
Y-82.041
G3 X-13.74 Y-81.478 I-0.6 J-0.021
G1 X-16.54 Y-82.15
G3 X-17 Y-82.712 I0.14 J-0.583
G1 Y-83.517
X-16.993 Y-83.667
X-16.965 Y-83.815
X-16.921 Y-83.958
X-16.863 Y-84.096
X-16.792 Y-84.229
X-16.71 Y-84.354
X-16.619 Y-84.474
X-16.52 Y-84.586
X-16.413 Y-84.691
X-16.299 Y-84.788
X-16.179 Y-84.878
X-16.053 Y-84.961
X-15.924 Y-85.036
X-15.789 Y-85.103
X-15.649 Y-85.161
X-15.508 Y-85.211
X-15.363 Y-85.253
X-15.215 Y-85.285
X-15.067 Y-85.309
X-14.917 Y-85.323
X-14.767 Y-85.328
X-14.617 Y-85.325
X-14.294 Y-85.268
X-13.988 Y-85.153
X-13.709 Y-84.983
X-13.466 Y-84.764
X-13.267 Y-84.504
X-13.121 Y-84.212
X-13.03 Y-83.897
X-13 Y-83.572
Y-82.798
G3 X-13.749 Y-82.238 I-0.6 J-0.021
G1 X-16.55 Y-82.957
G3 X-17 Y-83.517 I0.149 J-0.581
G1 Y-84.282
X-16.993 Y-84.432
X-16.966 Y-84.579
X-16.923 Y-84.723
X-16.865 Y-84.861
X-16.795 Y-84.994
X-16.713 Y-85.12
X-16.623 Y-85.239
X-16.523 Y-85.352
X-16.416 Y-85.457
X-16.302 Y-85.554
X-16.183 Y-85.645
X-16.057 Y-85.727
X-15.927 Y-85.802
X-15.793 Y-85.869
X-15.655 Y-85.927
X-15.514 Y-85.978
X-15.37 Y-86.019
X-15.223 Y-86.052
X-15.075 Y-86.076
X-14.926 Y-86.091
X-14.776 Y-86.097
X-14.626 Y-86.094
X-14.302 Y-86.039
X-13.995 Y-85.924
X-13.714 Y-85.754
X-13.469 Y-85.535
X-13.269 Y-85.275
X-13.121 Y-84.982
X-13.031 Y-84.666
X-13 Y-84.339
Y-83.572
G3 X-13.747 Y-83.011 I-0.6 J-0.021
G1 X-16.548 Y-83.721
G3 X-17 Y-84.282 I0.147 J-0.582
G1 Y-85.037
X-16.993 Y-85.187
X-16.968 Y-85.335
X-16.926 Y-85.479
X-16.87 Y-85.618
X-16.8 Y-85.751
X-16.72 Y-85.878
X-16.63 Y-85.998
X-16.531 Y-86.111
X-16.425 Y-86.216
X-16.312 Y-86.315
X-16.192 Y-86.406
X-16.068 Y-86.489
X-15.938 Y-86.564
X-15.804 Y-86.632
X-15.666 Y-86.691
X-15.525 Y-86.742
X-15.381 Y-86.785
X-15.235 Y-86.818
X-15.087 Y-86.842
X-14.938 Y-86.859
X-14.788 Y-86.865
X-14.638 Y-86.863
X-14.614 Y-86.861
X-14.293 Y-86.808
X-13.988 Y-86.695
X-13.709 Y-86.528
X-13.466 Y-86.312
X-13.267 Y-86.054
X-13.121 Y-85.764
X-13.03 Y-85.451
X-13 Y-85.128
Y-84.339
G3 X-13.745 Y-83.778 I-0.6 J-0.021
G1 X-16.545 Y-84.476
G3 X-17 Y-85.037 I0.145 J-0.582
G1 Y-85.792
X-16.993 Y-85.942
X-16.97 Y-86.09
X-16.929 Y-86.235
X-16.874 Y-86.374
X-16.806 Y-86.508
X-16.727 Y-86.635
X-16.637 Y-86.756
X-16.539 Y-86.869
X-16.434 Y-86.976
X-16.321 Y-87.075
X-16.202 Y-87.166
X-16.078 Y-87.25
X-15.949 Y-87.327
X-15.815 Y-87.395
X-15.678 Y-87.455
X-15.537 Y-87.506
X-15.393 Y-87.55
X-15.247 Y-87.584
X-15.099 Y-87.61
X-14.95 Y-87.628
X-14.801 Y-87.635
X-14.649 Y-87.634
X-14.499 Y-87.625
X-14.155 Y-87.544
X-13.835 Y-87.395
X-13.552 Y-87.184
X-13.318 Y-86.918
X-13.144 Y-86.611
X-13.036 Y-86.275
X-13 Y-85.923
Y-85.128
G3 X-13.738 Y-84.565 I-0.6 J-0.021
G1 X-16.539 Y-85.23
G3 X-17 Y-85.792 I0.139 J-0.584
G1 Y-86.597
X-16.993 Y-86.747
X-16.965 Y-86.895
X-16.92 Y-87.038
X-16.861 Y-87.176
X-16.79 Y-87.308
X-16.708 Y-87.433
X-16.616 Y-87.552
X-16.516 Y-87.664
X-16.409 Y-87.769
X-16.294 Y-87.866
X-16.174 Y-87.956
X-16.049 Y-88.038
X-15.919 Y-88.113
X-15.785 Y-88.18
X-15.647 Y-88.239
X-15.504 Y-88.289
X-15.36 Y-88.331
X-15.214 Y-88.365
X-15.066 Y-88.389
X-14.911 Y-88.405
X-14.762 Y-88.412
X-14.612 Y-88.409
X-14.291 Y-88.353
X-13.985 Y-88.238
X-13.707 Y-88.069
X-13.464 Y-87.851
X-13.267 Y-87.592
X-13.12 Y-87.3
X-13.03 Y-86.987
X-13 Y-86.662
Y-85.923
G3 X-13.74 Y-85.361 I-0.6 J-0.021
G1 X-16.541 Y-86.035
G3 X-17 Y-86.597 I0.14 J-0.583
G1 Y-87.342
X-16.993 Y-87.492
X-16.968 Y-87.64
X-16.926 Y-87.784
X-16.87 Y-87.923
X-16.801 Y-88.056
X-16.721 Y-88.183
X-16.631 Y-88.303
X-16.533 Y-88.416
X-16.427 Y-88.522
X-16.314 Y-88.621
X-16.195 Y-88.713
X-16.071 Y-88.797
X-15.942 Y-88.873
X-15.808 Y-88.941
X-15.671 Y-89.001
X-15.53 Y-89.053
X-15.386 Y-89.096
X-15.24 Y-89.13
X-15.092 Y-89.156
X-14.943 Y-89.172
X-14.794 Y-89.18
X-14.642 Y-89.178
X-14.316 Y-89.125
X-14.005 Y-89.012
X-13.722 Y-88.843
X-13.474 Y-88.624
X-13.272 Y-88.362
X-13.123 Y-88.068
X-13.031 Y-87.75
X-13 Y-87.422
Y-86.662
G3 X-13.741 Y-86.1 I-0.6 J-0.021
G1 X-16.542 Y-86.78
G3 X-17 Y-87.342 I0.141 J-0.583
G1 Y-88.147
X-16.993 Y-88.297
X-16.964 Y-88.444
X-16.918 Y-88.587
X-16.859 Y-88.724
X-16.787 Y-88.856
X-16.704 Y-88.981
X-16.613 Y-89.1
X-16.512 Y-89.212
X-16.405 Y-89.316
X-16.29 Y-89.413
X-16.17 Y-89.503
X-16.044 Y-89.585
X-15.914 Y-89.659
X-15.78 Y-89.725
X-15.639 Y-89.784
X-15.497 Y-89.833
X-15.353 Y-89.874
X-15.204 Y-89.906
X-15.056 Y-89.929
X-14.907 Y-89.943
X-14.756 Y-89.948
X-14.606 Y-89.944
X-14.285 Y-89.886
X-13.981 Y-89.771
X-13.704 Y-89.601
X-13.462 Y-89.383
X-13.265 Y-89.124
X-13.12 Y-88.833
X-13.03 Y-88.52
X-13 Y-88.196
Y-87.422
G3 X-13.75 Y-86.862 I-0.6 J-0.021
G1 X-16.551 Y-87.587
G3 X-17 Y-88.147 I0.15 J-0.581
G1 Y-88.911
X-16.993 Y-89.061
X-16.965 Y-89.208
X-16.92 Y-89.352
X-16.861 Y-89.49
X-16.79 Y-89.622
X-16.708 Y-89.747
X-16.616 Y-89.866
X-16.516 Y-89.978
X-16.409 Y-90.082
X-16.295 Y-90.18
X-16.175 Y-90.269
X-16.049 Y-90.352
X-15.919 Y-90.426
X-15.784 Y-90.493
X-15.646 Y-90.55
X-15.504 Y-90.6
X-15.36 Y-90.641
X-15.214 Y-90.673
X-15.066 Y-90.697
X-14.916 Y-90.712
X-14.766 Y-90.717
X-14.616 Y-90.714
X-14.295 Y-90.658
X-13.989 Y-90.543
X-13.709 Y-90.374
X-13.466 Y-90.155
X-13.268 Y-89.896
X-13.121 Y-89.604
X-13.03 Y-89.29
X-13 Y-88.964
Y-88.196
G3 X-13.748 Y-87.636 I-0.6 J-0.021
G1 X-16.549 Y-88.351
G3 X-17 Y-88.911 I0.148 J-0.581
G1 Y-89.666
X-16.993 Y-89.816
X-16.967 Y-89.964
X-16.924 Y-90.108
X-16.866 Y-90.246
X-16.796 Y-90.379
X-16.715 Y-90.505
X-16.624 Y-90.625
X-16.525 Y-90.737
X-16.418 Y-90.842
X-16.305 Y-90.94
X-16.185 Y-91.031
X-16.06 Y-91.114
X-15.93 Y-91.189
X-15.796 Y-91.256
X-15.658 Y-91.315
X-15.517 Y-91.365
X-15.373 Y-91.407
X-15.226 Y-91.44
X-15.078 Y-91.464
X-14.929 Y-91.48
X-14.779 Y-91.486
X-14.629 Y-91.484
X-14.601 Y-91.482
X-14.283 Y-91.428
X-13.98 Y-91.315
X-13.703 Y-91.149
X-13.462 Y-90.934
X-13.265 Y-90.677
X-13.12 Y-90.389
X-13.03 Y-90.079
X-13 Y-89.757
Y-88.964
G3 X-13.746 Y-88.403 I-0.6 J-0.021
G1 X-16.546 Y-89.105
G3 X-17 Y-89.666 I0.146 J-0.582
G1 Y-90.422
X-16.993 Y-90.572
X-16.968 Y-90.72
X-16.927 Y-90.864
X-16.871 Y-91.003
X-16.802 Y-91.136
X-16.722 Y-91.263
X-16.632 Y-91.383
X-16.534 Y-91.496
X-16.427 Y-91.602
X-16.314 Y-91.701
X-16.195 Y-91.792
X-16.071 Y-91.876
X-15.941 Y-91.951
X-15.808 Y-92.019
X-15.67 Y-92.079
X-15.529 Y-92.13
X-15.385 Y-92.174
X-15.239 Y-92.208
X-15.091 Y-92.233
X-14.942 Y-92.25
X-14.792 Y-92.258
X-14.641 Y-92.256
X-14.491 Y-92.247
X-14.149 Y-92.166
X-13.83 Y-92.017
X-13.549 Y-91.806
X-13.316 Y-91.542
X-13.143 Y-91.236
X-13.036 Y-90.901
X-13 Y-90.551
Y-89.757
G3 X-13.738 Y-89.194 I-0.6 J-0.021
G1 X-16.539 Y-89.859
G3 X-17 Y-90.422 I0.139 J-0.584
G1 Y-91.227
X-16.993 Y-91.377
X-16.964 Y-91.524
X-16.918 Y-91.667
X-16.858 Y-91.804
X-16.786 Y-91.936
X-16.704 Y-92.061
X-16.612 Y-92.18
X-16.511 Y-92.291
X-16.403 Y-92.395
X-16.289 Y-92.492
X-16.168 Y-92.582
X-16.043 Y-92.664
X-15.913 Y-92.738
X-15.778 Y-92.805
X-15.64 Y-92.863
X-15.497 Y-92.914
X-15.353 Y-92.955
X-15.207 Y-92.989
X-15.059 Y-93.013
X-14.904 Y-93.028
X-14.755 Y-93.035
X-14.605 Y-93.032
X-14.285 Y-92.976
X-13.981 Y-92.861
X-13.704 Y-92.692
X-13.462 Y-92.474
X-13.265 Y-92.216
X-13.12 Y-91.926
X-13.03 Y-91.613
X-13 Y-91.29
Y-90.551
G3 X-13.74 Y-89.989 I-0.6 J-0.021
G1 X-16.541 Y-90.665
G3 X-17 Y-91.227 I0.141 J-0.583
G1 Y-91.971
X-16.993 Y-92.121
X-16.967 Y-92.269
X-16.924 Y-92.413
X-16.867 Y-92.551
X-16.798 Y-92.684
X-16.717 Y-92.811
X-16.627 Y-92.931
X-16.528 Y-93.044
X-16.422 Y-93.149
X-16.309 Y-93.248
X-16.19 Y-93.339
X-16.065 Y-93.423
X-15.936 Y-93.499
X-15.802 Y-93.567
X-15.665 Y-93.626
X-15.524 Y-93.678
X-15.38 Y-93.721
X-15.234 Y-93.755
X-15.086 Y-93.78
X-14.937 Y-93.797
X-14.787 Y-93.804
X-14.636 Y-93.802
X-14.311 Y-93.748
X-14.002 Y-93.635
X-13.719 Y-93.466
X-13.472 Y-93.248
X-13.271 Y-92.987
X-13.122 Y-92.693
X-13.031 Y-92.377
X-13 Y-92.049
Y-91.29
G3 X-13.741 Y-90.728 I-0.6 J-0.021
G1 X-16.542 Y-91.409
G3 X-17 Y-91.971 I0.142 J-0.583
G1 Y-92.735
X-16.993 Y-92.885
X-16.968 Y-93.033
X-16.927 Y-93.177
X-16.87 Y-93.316
X-16.801 Y-93.45
X-16.721 Y-93.577
X-16.632 Y-93.697
X-16.534 Y-93.81
X-16.428 Y-93.916
X-16.315 Y-94.015
X-16.196 Y-94.106
X-16.071 Y-94.19
X-15.942 Y-94.266
X-15.809 Y-94.335
X-15.671 Y-94.394
X-15.53 Y-94.445
X-15.386 Y-94.489
X-15.24 Y-94.522
X-15.092 Y-94.547
X-14.943 Y-94.564
X-14.793 Y-94.571
X-14.643 Y-94.569
X-14.317 Y-94.516
X-14.006 Y-94.403
X-13.722 Y-94.233
X-13.475 Y-94.014
X-13.273 Y-93.752
X-13.123 Y-93.457
X-13.031 Y-93.139
X-13 Y-92.81
Y-92.049
G3 X-13.742 Y-91.487 I-0.6 J-0.021
G1 X-16.543 Y-92.174
G3 X-17 Y-92.735 I0.143 J-0.583
G1 Y-93.491
X-16.993 Y-93.641
X-16.97 Y-93.789
X-16.931 Y-93.934
X-16.876 Y-94.073
X-16.808 Y-94.207
X-16.729 Y-94.335
X-16.641 Y-94.456
X-16.543 Y-94.569
X-16.438 Y-94.676
X-16.325 Y-94.776
X-16.207 Y-94.868
X-16.083 Y-94.952
X-15.954 Y-95.029
X-15.821 Y-95.097
X-15.683 Y-95.157
X-15.542 Y-95.209
X-15.399 Y-95.253
X-15.253 Y-95.287
X-15.105 Y-95.313
X-14.956 Y-95.33
X-14.806 Y-95.338
X-14.655 Y-95.337
X-14.644 Y-95.336
X-14.318 Y-95.284
X-14.007 Y-95.171
X-13.723 Y-95.002
X-13.475 Y-94.784
X-13.273 Y-94.522
X-13.123 Y-94.228
X-13.031 Y-93.91
X-13 Y-93.581
Y-92.81
G3 X-13.741 Y-92.248 I-0.6 J-0.021
G1 X-16.542 Y-92.929
G3 X-17 Y-93.491 I0.142 J-0.583
G1 Y-94.296
X-16.993 Y-94.446
X-16.966 Y-94.593
X-16.922 Y-94.737
X-16.863 Y-94.875
X-16.793 Y-95.007
X-16.711 Y-95.133
X-16.62 Y-95.252
X-16.52 Y-95.364
X-16.413 Y-95.469
X-16.299 Y-95.566
X-16.179 Y-95.656
X-16.054 Y-95.739
X-15.924 Y-95.814
X-15.789 Y-95.88
X-15.648 Y-95.939
X-15.507 Y-95.989
X-15.363 Y-96.03
X-15.214 Y-96.063
X-15.066 Y-96.086
X-14.917 Y-96.101
X-14.766 Y-96.106
X-14.616 Y-96.103
X-14.581 Y-96.1
X-14.266 Y-96.045
X-13.967 Y-95.932
X-13.694 Y-95.766
X-13.456 Y-95.552
X-13.262 Y-95.298
X-13.118 Y-95.012
X-13.03 Y-94.705
X-13 Y-94.386
Y-93.581
G3 X-13.748 Y-93.021 I-0.6 J-0.021
G1 X-16.549 Y-93.735
G3 X-17 Y-94.296 I0.148 J-0.581
G1 Y-95.051
X-16.993 Y-95.201
X-16.967 Y-95.349
X-16.925 Y-95.493
X-16.868 Y-95.631
X-16.798 Y-95.764
X-16.718 Y-95.891
X-16.627 Y-96.011
X-16.528 Y-96.123
X-16.422 Y-96.229
X-16.308 Y-96.327
X-16.189 Y-96.418
X-16.064 Y-96.501
X-15.934 Y-96.576
X-15.8 Y-96.644
X-15.662 Y-96.703
X-15.521 Y-96.754
X-15.377 Y-96.797
X-15.231 Y-96.83
X-15.082 Y-96.856
X-14.933 Y-96.872
X-14.783 Y-96.88
X-14.631 Y-96.878
X-14.481 Y-96.868
X-14.141 Y-96.787
X-13.824 Y-96.638
X-13.545 Y-96.428
X-13.314 Y-96.165
X-13.142 Y-95.861
X-13.036 Y-95.527
X-13 Y-95.179
Y-94.386
G3 X-13.738 Y-93.824 I-0.6 J-0.021
G1 X-16.539 Y-94.488
G3 X-17 Y-95.051 I0.139 J-0.584
G1 Y-95.795
X-16.993 Y-95.945
X-16.971 Y-96.094
X-16.931 Y-96.238
X-16.876 Y-96.378
X-16.809 Y-96.512
X-16.73 Y-96.639
X-16.641 Y-96.76
X-16.544 Y-96.874
X-16.438 Y-96.981
X-16.326 Y-97.081
X-16.208 Y-97.173
X-16.084 Y-97.258
X-15.955 Y-97.335
X-15.822 Y-97.404
X-15.686 Y-97.466
X-15.545 Y-97.518
X-15.396 Y-97.565
X-15.251 Y-97.601
X-15.103 Y-97.628
X-14.95 Y-97.646
X-14.801 Y-97.656
X-14.651
X-14.323 Y-97.605
X-14.011 Y-97.493
X-13.726 Y-97.325
X-13.477 Y-97.106
X-13.274 Y-96.844
X-13.124 Y-96.549
X-13.031 Y-96.231
X-13 Y-95.901
Y-95.179
G3 X-13.729 Y-94.614 I-0.6 J-0.021
G1 X-16.529 Y-95.23
G3 X-17 Y-95.795 I0.129 J-0.586
G1 Y-96.6
X-16.993 Y-96.75
X-16.966 Y-96.898
X-16.922 Y-97.041
X-16.864 Y-97.18
X-16.794 Y-97.312
X-16.712 Y-97.438
X-16.622 Y-97.558
X-16.523 Y-97.67
X-16.416 Y-97.776
X-16.302 Y-97.874
X-16.183 Y-97.965
X-16.058 Y-98.048
X-15.929 Y-98.124
X-15.795 Y-98.191
X-15.656 Y-98.251
X-15.515 Y-98.302
X-15.371 Y-98.344
X-15.223 Y-98.377
X-15.075 Y-98.402
X-14.926 Y-98.417
X-14.776 Y-98.423
X-14.626 Y-98.421
X-14.303 Y-98.366
X-13.995 Y-98.252
X-13.714 Y-98.082
X-13.469 Y-97.864
X-13.269 Y-97.603
X-13.121 Y-97.31
X-13.031 Y-96.995
X-13 Y-96.668
Y-95.901
G3 X-13.745 Y-95.34 I-0.6 J-0.021
G1 X-16.546 Y-96.039
G3 X-17 Y-96.6 I0.145 J-0.582
G1 Y-97.365
X-16.993 Y-97.515
X-16.967 Y-97.662
X-16.924 Y-97.806
X-16.867 Y-97.945
X-16.798 Y-98.078
X-16.717 Y-98.204
X-16.627 Y-98.324
X-16.528 Y-98.437
X-16.422 Y-98.543
X-16.309 Y-98.641
X-16.189 Y-98.732
X-16.064 Y-98.815
X-15.935 Y-98.891
X-15.801 Y-98.959
X-15.663 Y-99.017
X-15.522 Y-99.068
X-15.378 Y-99.111
X-15.232 Y-99.144
X-15.084 Y-99.169
X-14.935 Y-99.185
X-14.785 Y-99.191
X-14.635 Y-99.189
X-14.31 Y-99.135
X-14.001 Y-99.021
X-13.718 Y-98.851
X-13.472 Y-98.632
X-13.271 Y-98.371
X-13.122 Y-98.077
X-13.031 Y-97.76
X-13 Y-97.432
Y-96.668
G3 X-13.744 Y-96.107 I-0.6 J-0.021
G1 X-16.545 Y-96.803
G3 X-17 Y-97.365 I0.145 J-0.582
G1 Y-98.12
X-16.993 Y-98.27
X-16.969 Y-98.418
X-16.928 Y-98.562
X-16.873 Y-98.702
X-16.805 Y-98.835
X-16.725 Y-98.962
X-16.636 Y-99.083
X-16.538 Y-99.196
X-16.432 Y-99.303
X-16.319 Y-99.402
X-16.2 Y-99.493
X-16.076 Y-99.577
X-15.947 Y-99.653
X-15.813 Y-99.722
X-15.675 Y-99.781
X-15.534 Y-99.832
X-15.391 Y-99.876
X-15.245 Y-99.909
X-15.097 Y-99.935
X-14.948 Y-99.951
X-14.798 Y-99.959
X-14.647 Y-99.957
X-14.63 Y-99.956
X-14.307 Y-99.903
X-13.998 Y-99.79
X-13.717 Y-99.622
X-13.471 Y-99.405
X-13.271 Y-99.145
X-13.122 Y-98.852
X-13.031 Y-98.537
X-13 Y-98.211
Y-97.432
G3 X-13.743 Y-96.87 I-0.6 J-0.021
G1 X-16.543 Y-97.558
G3 X-17 Y-98.12 I0.143 J-0.583
G1 Y-98.925
X-16.993 Y-99.075
X-16.964 Y-99.222
X-16.92 Y-99.365
X-16.86 Y-99.503
X-16.789 Y-99.635
X-16.707 Y-99.761
X-16.615 Y-99.879
X-16.515 Y-99.991
X-16.407 Y-100.095
X-16.293 Y-100.192
X-16.172 Y-100.282
X-16.047 Y-100.364
X-15.916 Y-100.438
X-15.782 Y-100.505
X-15.64 Y-100.563
X-15.499 Y-100.613
X-15.355 Y-100.654
X-15.206 Y-100.686
X-15.057 Y-100.709
X-14.908 Y-100.724
X-14.758 Y-100.728
X-14.608 Y-100.725
X-14.571 Y-100.722
X-14.214 Y-100.654
X-13.88 Y-100.512
X-13.583 Y-100.303
X-13.337 Y-100.035
X-13.153 Y-99.722
X-13.039 Y-99.377
X-13 Y-99.016
Y-98.211
G3 X-13.748 Y-97.65 I-0.6 J-0.021
G1 X-16.549 Y-98.365
G3 X-17 Y-98.925 I0.148 J-0.581
G1 Y-99.68
X-16.993 Y-99.83
X-16.966 Y-99.978
X-16.923 Y-100.122
X-16.865 Y-100.26
X-16.795 Y-100.393
X-16.714 Y-100.519
X-16.623 Y-100.638
X-16.523 Y-100.75
X-16.416 Y-100.855
X-16.303 Y-100.953
X-16.183 Y-101.044
X-16.058 Y-101.126
X-15.928 Y-101.201
X-15.794 Y-101.269
X-15.656 Y-101.327
X-15.508 Y-101.38
X-15.364 Y-101.422
X-15.218 Y-101.456
X-15.066 Y-101.48
X-14.916 Y-101.496
X-14.767 Y-101.503
X-14.617 Y-101.5
X-14.295 Y-101.445
X-13.989 Y-101.33
X-13.709 Y-101.161
X-13.466 Y-100.943
X-13.268 Y-100.684
X-13.121 Y-100.392
X-13.03 Y-100.078
X-13 Y-99.753
Y-99.016
G3 X-13.738 Y-98.453 I-0.6 J-0.021
G1 X-16.539 Y-99.118
G3 X-17 Y-99.68 I0.139 J-0.584
G1 Y-100.425
X-16.993 Y-100.575
X-16.97 Y-100.723
X-16.929 Y-100.867
X-16.874 Y-101.007
X-16.805 Y-101.14
X-16.726 Y-101.267
X-16.637 Y-101.388
X-16.539 Y-101.502
X-16.433 Y-101.608
X-16.321 Y-101.708
X-16.202 Y-101.799
X-16.078 Y-101.884
X-15.949 Y-101.96
X-15.816 Y-102.029
X-15.679 Y-102.089
X-15.538 Y-102.141
X-15.395 Y-102.185
X-15.249 Y-102.22
X-15.101 Y-102.245
X-14.952 Y-102.263
X-14.802 Y-102.271
X-14.65 Y-102.269
X-14.323 Y-102.217
X-14.011 Y-102.104
X-13.726 Y-101.935
X-13.477 Y-101.716
X-13.274 Y-101.453
X-13.124 Y-101.158
X-13.031 Y-100.839
X-13 Y-100.509
Y-99.753
G3 X-13.74 Y-99.19 I-0.6 J-0.021
G1 X-16.54 Y-99.862
G3 X-17 Y-100.425 I0.14 J-0.583
G1 Y-101.23
X-16.993 Y-101.38
X-16.965 Y-101.527
X-16.92 Y-101.67
X-16.862 Y-101.808
X-16.791 Y-101.94
X-16.709 Y-102.066
X-16.617 Y-102.185
X-16.518 Y-102.297
X-16.41 Y-102.402
X-16.296 Y-102.499
X-16.176 Y-102.589
X-16.051 Y-102.672
X-15.921 Y-102.747
X-15.786 Y-102.813
X-15.646 Y-102.872
X-15.505 Y-102.922
X-15.36 Y-102.963
X-15.212 Y-102.995
X-15.064 Y-103.019
X-14.914 Y-103.033
X-14.763 Y-103.038
X-14.613 Y-103.035
X-14.292 Y-102.978
X-13.986 Y-102.862
X-13.707 Y-102.692
X-13.465 Y-102.474
X-13.267 Y-102.214
X-13.12 Y-101.922
X-13.03 Y-101.608
X-13 Y-101.283
Y-100.509
G3 X-13.749 Y-99.949 I-0.6 J-0.021
G1 X-16.55 Y-100.67
G3 X-17 Y-101.23 I0.149 J-0.581
G1 Y-101.994
X-16.993 Y-102.144
X-16.966 Y-102.292
X-16.922 Y-102.435
X-16.864 Y-102.573
X-16.793 Y-102.706
X-16.712 Y-102.832
X-16.621 Y-102.951
X-16.521 Y-103.063
X-16.414 Y-103.168
X-16.3 Y-103.266
X-16.18 Y-103.356
X-16.055 Y-103.438
X-15.925 Y-103.513
X-15.791 Y-103.58
X-15.652 Y-103.638
X-15.511 Y-103.688
X-15.367 Y-103.73
X-15.221 Y-103.762
X-15.072 Y-103.786
X-14.923 Y-103.801
X-14.773 Y-103.807
X-14.623 Y-103.804
X-14.3 Y-103.748
X-13.993 Y-103.634
X-13.712 Y-103.464
X-13.468 Y-103.245
X-13.269 Y-102.985
X-13.121 Y-102.692
X-13.031 Y-102.377
X-13 Y-102.051
Y-101.283
G3 X-13.747 Y-100.722 I-0.6 J-0.021
G1 X-16.548 Y-101.434
G3 X-17 Y-101.994 I0.148 J-0.582
G1 Y-102.749
X-16.993 Y-102.899
X-16.968 Y-103.047
X-16.925 Y-103.191
X-16.869 Y-103.33
X-16.799 Y-103.463
X-16.719 Y-103.589
X-16.628 Y-103.709
X-16.53 Y-103.822
X-16.423 Y-103.928
X-16.31 Y-104.026
X-16.19 Y-104.117
X-16.066 Y-104.2
X-15.936 Y-104.276
X-15.802 Y-104.343
X-15.664 Y-104.402
X-15.523 Y-104.453
X-15.379 Y-104.495
X-15.233 Y-104.528
X-15.085 Y-104.553
X-14.936 Y-104.569
X-14.786 Y-104.575
X-14.635 Y-104.573
X-14.61 Y-104.571
X-14.29 Y-104.518
X-13.986 Y-104.405
X-13.707 Y-104.238
X-13.465 Y-104.022
X-13.267 Y-103.765
X-13.12 Y-103.475
X-13.03 Y-103.163
X-13 Y-102.84
Y-102.051
G3 X-13.745 Y-101.49 I-0.6 J-0.021
G1 X-16.546 Y-102.188
G3 X-17 Y-102.749 I0.145 J-0.582
G1 Y-103.505
X-16.993 Y-103.655
X-16.969 Y-103.803
X-16.929 Y-103.947
X-16.873 Y-104.086
X-16.805 Y-104.22
X-16.725 Y-104.347
X-16.636 Y-104.468
X-16.538 Y-104.581
X-16.432 Y-104.687
X-16.319 Y-104.786
X-16.2 Y-104.878
X-16.076 Y-104.962
X-15.947 Y-105.038
X-15.813 Y-105.106
X-15.675 Y-105.166
X-15.535 Y-105.217
X-15.391 Y-105.261
X-15.245 Y-105.295
X-15.097 Y-105.321
X-14.948 Y-105.338
X-14.798 Y-105.346
X-14.647 Y-105.345
X-14.497 Y-105.335
X-14.153 Y-105.255
X-13.833 Y-105.106
X-13.551 Y-104.894
X-13.318 Y-104.629
X-13.144 Y-104.322
X-13.036 Y-103.986
X-13 Y-103.635
Y-102.84
G3 X-13.738 Y-102.277 I-0.6 J-0.021
G1 X-16.539 Y-102.942
G3 X-17 Y-103.505 I0.139 J-0.584
G1 Y-104.31
X-16.993 Y-104.46
X-16.964 Y-104.607
X-16.92 Y-104.75
X-16.86 Y-104.888
X-16.789 Y-105.02
X-16.707 Y-105.145
X-16.615 Y-105.264
X-16.515 Y-105.376
X-16.407 Y-105.48
X-16.293 Y-105.577
X-16.173 Y-105.667
X-16.047 Y-105.749
X-15.917 Y-105.824
X-15.783 Y-105.891
X-15.645 Y-105.95
X-15.502 Y-106
X-15.358 Y-106.042
X-15.212 Y-106.076
X-15.064 Y-106.1
X-14.91 Y-106.116
X-14.76 Y-106.122
X-14.61 Y-106.12
X-14.289 Y-106.064
X-13.984 Y-105.949
X-13.706 Y-105.779
X-13.464 Y-105.562
X-13.266 Y-105.303
X-13.12 Y-105.012
X-13.03 Y-104.699
X-13 Y-104.374
Y-103.635
G3 X-13.74 Y-103.073 I-0.6 J-0.021
G1 X-16.541 Y-103.747
G3 X-17 Y-104.31 I0.141 J-0.583
G1 Y-105.054
X-16.993 Y-105.204
X-16.968 Y-105.352
X-16.926 Y-105.496
X-16.869 Y-105.635
X-16.8 Y-105.768
X-16.72 Y-105.895
X-16.63 Y-106.015
X-16.532 Y-106.128
X-16.426 Y-106.234
X-16.313 Y-106.333
X-16.194 Y-106.424
X-16.069 Y-106.508
X-15.94 Y-106.584
X-15.807 Y-106.653
X-15.669 Y-106.712
X-15.528 Y-106.764
X-15.385 Y-106.807
X-15.239 Y-106.841
X-15.091 Y-106.867
X-14.942 Y-106.883
X-14.792 Y-106.891
X-14.64 Y-106.889
X-14.315 Y-106.836
X-14.004 Y-106.723
X-13.721 Y-106.554
X-13.474 Y-106.335
X-13.272 Y-106.073
X-13.123 Y-105.779
X-13.031 Y-105.462
X-13 Y-105.133
Y-104.374
G3 X-13.741 Y-103.812 I-0.6 J-0.021
G1 X-16.542 Y-104.492
G3 X-17 Y-105.054 I0.142 J-0.583
G1 Y-105.818
X-16.993 Y-105.968
X-16.969 Y-106.116
X-16.928 Y-106.261
X-16.872 Y-106.4
X-16.804 Y-106.533
X-16.724 Y-106.66
X-16.635 Y-106.781
X-16.536 Y-106.894
X-16.431 Y-107.001
X-16.318 Y-107.1
X-16.199 Y-107.191
X-16.075 Y-107.275
X-15.946 Y-107.352
X-15.812 Y-107.42
X-15.675 Y-107.48
X-15.534 Y-107.531
X-15.39 Y-107.575
X-15.244 Y-107.608
X-15.096 Y-107.634
X-14.947 Y-107.651
X-14.797 Y-107.658
X-14.647 Y-107.656
X-14.32 Y-107.603
X-14.009 Y-107.49
X-13.724 Y-107.32
X-13.476 Y-107.1
X-13.273 Y-106.838
X-13.123 Y-106.543
X-13.031 Y-106.224
X-13 Y-105.894
Y-105.133
G3 X-13.742 Y-104.571 I-0.6 J-0.021
G1 X-16.543 Y-105.257
G3 X-17 Y-105.818 I0.143 J-0.583
G1 Y-106.624
X-16.993 Y-106.773
X-16.964 Y-106.921
X-16.919 Y-107.064
X-16.86 Y-107.202
X-16.789 Y-107.333
X-16.707 Y-107.459
X-16.615 Y-107.578
X-16.515 Y-107.689
X-16.407 Y-107.794
X-16.293 Y-107.891
X-16.172 Y-107.981
X-16.047 Y-108.063
X-15.917 Y-108.137
X-15.782 Y-108.203
X-15.641 Y-108.261
X-15.5 Y-108.311
X-15.355 Y-108.352
X-15.207 Y-108.384
X-15.058 Y-108.407
X-14.909 Y-108.421
X-14.758 Y-108.425
X-14.608 Y-108.421
X-14.287 Y-108.364
X-13.983 Y-108.248
X-13.705 Y-108.078
X-13.463 Y-107.859
X-13.266 Y-107.6
X-13.12 Y-107.309
X-13.03 Y-106.995
X-13 Y-106.671
Y-105.894
G3 X-13.751 Y-105.335 I-0.6 J-0.021
G1 X-16.552 Y-106.064
G3 X-17 Y-106.624 I0.151 J-0.581
G1 Y-107.379
X-16.993 Y-107.529
X-16.966 Y-107.676
X-16.923 Y-107.82
X-16.865 Y-107.958
X-16.795 Y-108.091
X-16.714 Y-108.217
X-16.623 Y-108.336
X-16.523 Y-108.449
X-16.416 Y-108.554
X-16.303 Y-108.652
X-16.183 Y-108.742
X-16.058 Y-108.824
X-15.928 Y-108.899
X-15.793 Y-108.966
X-15.655 Y-109.024
X-15.514 Y-109.075
X-15.37 Y-109.117
X-15.223 Y-109.149
X-15.075 Y-109.173
X-14.926 Y-109.189
X-14.776 Y-109.195
X-14.625 Y-109.192
X-14.594 Y-109.189
X-14.277 Y-109.135
X-13.975 Y-109.023
X-13.699 Y-108.856
X-13.46 Y-108.642
X-13.264 Y-108.386
X-13.119 Y-108.099
X-13.03 Y-107.79
X-13 Y-107.469
Y-106.671
G3 X-13.747 Y-106.11 I-0.6 J-0.021
G1 X-16.547 Y-106.818
G3 X-17 Y-107.379 I0.147 J-0.582
G1 Y-108.134
X-16.993 Y-108.284
X-16.968 Y-108.432
X-16.926 Y-108.576
X-16.87 Y-108.715
X-16.801 Y-108.848
X-16.72 Y-108.975
X-16.63 Y-109.095
X-16.531 Y-109.208
X-16.425 Y-109.313
X-16.312 Y-109.412
X-16.193 Y-109.503
X-16.068 Y-109.586
X-15.938 Y-109.662
X-15.805 Y-109.73
X-15.667 Y-109.789
X-15.526 Y-109.84
X-15.382 Y-109.883
X-15.236 Y-109.917
X-15.087 Y-109.942
X-14.938 Y-109.959
X-14.789 Y-109.967
X-14.637 Y-109.965
X-14.487 Y-109.955
X-14.146 Y-109.875
X-13.828 Y-109.726
X-13.547 Y-109.515
X-13.316 Y-109.252
X-13.143 Y-108.946
X-13.036 Y-108.612
X-13 Y-108.263
Y-107.469
G3 X-13.738 Y-106.907 I-0.6 J-0.021
G1 X-16.539 Y-107.571
G3 X-17 Y-108.134 I0.139 J-0.584
G1 Y-108.912
X-16.993 Y-109.062
X-16.967 Y-109.209
X-16.924 Y-109.353
X-16.866 Y-109.492
X-16.796 Y-109.624
X-16.715 Y-109.751
X-16.625 Y-109.87
X-16.526 Y-109.983
X-16.419 Y-110.088
X-16.306 Y-110.186
X-16.186 Y-110.277
X-16.061 Y-110.36
X-15.932 Y-110.436
X-15.798 Y-110.504
X-15.661 Y-110.564
X-15.519 Y-110.615
X-15.373 Y-110.659
X-15.227 Y-110.693
X-15.079 Y-110.719
X-14.925 Y-110.736
X-14.775 Y-110.743
X-14.625 Y-110.742
X-14.302 Y-110.688
X-13.994 Y-110.574
X-13.713 Y-110.405
X-13.469 Y-110.187
X-13.269 Y-109.927
X-13.121 Y-109.635
X-13.031 Y-109.32
X-13 Y-108.994
Y-108.263
G3 X-13.735 Y-107.699 I-0.6 J-0.021
G1 X-16.536 Y-108.348
G3 X-17 Y-108.912 I0.135 J-0.585
G1 Y-109.683
X-16.993 Y-109.833
X-16.966 Y-109.981
X-16.923 Y-110.125
X-16.866 Y-110.263
X-16.796 Y-110.396
X-16.715 Y-110.522
X-16.625 Y-110.642
X-16.526 Y-110.755
X-16.419 Y-110.86
X-16.306 Y-110.959
X-16.187 Y-111.05
X-16.062 Y-111.133
X-15.933 Y-111.209
X-15.799 Y-111.277
X-15.661 Y-111.336
X-15.52 Y-111.387
X-15.376 Y-111.43
X-15.23 Y-111.464
X-15.082 Y-111.489
X-14.933 Y-111.505
X-14.783 Y-111.512
X-14.633 Y-111.509
X-14.309 Y-111.456
X-14 Y-111.342
X-13.717 Y-111.173
X-13.472 Y-110.954
X-13.271 Y-110.693
X-13.122 Y-110.4
X-13.031 Y-110.084
X-13 Y-109.756
Y-108.994
G3 X-13.743 Y-108.432 I-0.6 J-0.021
G1 X-16.544 Y-109.122
G3 X-17 Y-109.683 I0.143 J-0.583
G1 Y-110.448
X-16.993 Y-110.598
X-16.968 Y-110.746
X-16.926 Y-110.89
X-16.869 Y-111.028
X-16.8 Y-111.162
X-16.72 Y-111.288
X-16.63 Y-111.408
X-16.531 Y-111.521
X-16.425 Y-111.627
X-16.312 Y-111.726
X-16.193 Y-111.817
X-16.068 Y-111.901
X-15.939 Y-111.977
X-15.805 Y-112.045
X-15.667 Y-112.104
X-15.526 Y-112.155
X-15.383 Y-112.198
X-15.236 Y-112.231
X-15.088 Y-112.256
X-14.939 Y-112.272
X-14.789 Y-112.279
X-14.639 Y-112.277
X-14.314 Y-112.223
X-14.004 Y-112.11
X-13.72 Y-111.94
X-13.473 Y-111.721
X-13.272 Y-111.459
X-13.123 Y-111.165
X-13.031 Y-110.847
X-13 Y-110.519
Y-109.756
G3 X-13.743 Y-109.195 I-0.6 J-0.021
G1 X-16.544 Y-109.886
G3 X-17 Y-110.448 I0.144 J-0.582
G1 Y-111.203
X-16.993 Y-111.353
X-16.97 Y-111.501
X-16.93 Y-111.646
X-16.875 Y-111.785
X-16.807 Y-111.919
X-16.727 Y-112.046
X-16.638 Y-112.167
X-16.541 Y-112.281
X-16.435 Y-112.387
X-16.322 Y-112.486
X-16.204 Y-112.578
X-16.08 Y-112.662
X-15.951 Y-112.739
X-15.817 Y-112.807
X-15.679 Y-112.867
X-15.539 Y-112.919
X-15.395 Y-112.962
X-15.249 Y-112.996
X-15.101 Y-113.022
X-14.952 Y-113.039
X-14.802 Y-113.046
X-14.652 Y-113.045
X-14.638 Y-113.044
X-14.313 Y-112.991
X-14.003 Y-112.879
X-13.72 Y-112.71
X-13.473 Y-112.492
X-13.272 Y-112.232
X-13.123 Y-111.938
X-13.031 Y-111.622
X-13 Y-111.294
Y-110.519
G3 X-13.742 Y-109.957 I-0.6 J-0.021
G1 X-16.543 Y-110.641
G3 X-17 Y-111.203 I0.142 J-0.583
G1 Y-112.008
X-16.993 Y-112.158
X-16.965 Y-112.305
X-16.921 Y-112.449
X-16.862 Y-112.587
X-16.791 Y-112.719
X-16.709 Y-112.845
X-16.618 Y-112.963
X-16.518 Y-113.075
X-16.41 Y-113.18
X-16.296 Y-113.277
X-16.176 Y-113.367
X-16.05 Y-113.449
X-15.92 Y-113.524
X-15.786 Y-113.59
X-15.645 Y-113.649
X-15.503 Y-113.699
X-15.359 Y-113.74
X-15.21 Y-113.772
X-15.062 Y-113.796
X-14.913 Y-113.81
X-14.762 Y-113.815
X-14.612 Y-113.812
X-14.577 Y-113.809
X-14.219 Y-113.741
X-13.883 Y-113.599
X-13.585 Y-113.389
X-13.338 Y-113.121
X-13.153 Y-112.807
X-13.039 Y-112.461
X-13 Y-112.099
Y-111.294
G3 X-13.748 Y-110.733 I-0.6 J-0.021
G1 X-16.549 Y-111.448
G3 X-17 Y-112.008 I0.148 J-0.581
G1 Y-112.763
X-16.993 Y-112.913
X-16.967 Y-113.061
X-16.924 Y-113.205
X-16.867 Y-113.343
X-16.797 Y-113.476
X-16.716 Y-113.602
X-16.625 Y-113.722
X-16.526 Y-113.835
X-16.419 Y-113.94
X-16.306 Y-114.038
X-16.186 Y-114.128
X-16.061 Y-114.211
X-15.931 Y-114.286
X-15.797 Y-114.354
X-15.659 Y-114.413
X-15.512 Y-114.465
X-15.368 Y-114.508
X-15.221 Y-114.542
X-15.07 Y-114.566
X-14.92 Y-114.582
X-14.771 Y-114.589
X-14.621 Y-114.587
X-14.298 Y-114.531
X-13.991 Y-114.417
X-13.711 Y-114.247
X-13.467 Y-114.029
X-13.268 Y-113.769
X-13.121 Y-113.477
X-13.031 Y-113.162
X-13 Y-112.836
Y-112.099
G3 X-13.738 Y-111.536 I-0.6 J-0.021
G1 X-16.539 Y-112.201
G3 X-17 Y-112.763 I0.139 J-0.584
G1 Y-113.508
X-16.993 Y-113.658
X-16.97 Y-113.806
X-16.93 Y-113.95
X-16.875 Y-114.09
X-16.807 Y-114.224
X-16.728 Y-114.351
X-16.639 Y-114.472
X-16.541 Y-114.586
X-16.436 Y-114.692
X-16.324 Y-114.792
X-16.205 Y-114.884
X-16.081 Y-114.968
X-15.952 Y-115.045
X-15.819 Y-115.114
X-15.682 Y-115.174
X-15.541 Y-115.227
X-15.398 Y-115.271
X-15.252 Y-115.305
X-15.104 Y-115.331
X-14.955 Y-115.349
X-14.805 Y-115.357
X-14.653 Y-115.355
X-14.325 Y-115.303
X-14.013 Y-115.19
X-13.727 Y-115.021
X-13.478 Y-114.801
X-13.275 Y-114.539
X-13.124 Y-114.243
X-13.031 Y-113.924
X-13 Y-113.593
