%
(1001)
(z0 top machine -5-5)
(T1  D=1.587 CR=0 - ZMIN=-3 - flat end mill)
G90 G94
G17
G21

(2D Adaptive5)
M9
T1 M6
S20000 M3
G54
M9
G0 X-74.375 Y-19.923
Z15
Z5
Z2.709
G1 Z2.55 F849.6
G3 X-72.926 Y-20.34 Z2.467 I0.725 J-0.209 F283.2
X-74.375 Y-19.923 Z2.385 I-0.725 J0.209
X-72.926 Y-20.34 Z2.302 I0.725 J-0.209
X-74.375 Y-19.923 Z2.219 I-0.725 J0.209
X-72.926 Y-20.34 Z2.136 I0.725 J-0.209
X-74.375 Y-19.923 Z2.054 I-0.725 J0.209
X-72.926 Y-20.34 Z1.971 I0.725 J-0.209
X-74.375 Y-19.923 Z1.888 I-0.725 J0.209
X-72.926 Y-20.34 Z1.805 I0.725 J-0.209
X-74.375 Y-19.923 Z1.723 I-0.725 J0.209
X-72.926 Y-20.34 Z1.64 I0.725 J-0.209
X-74.375 Y-19.923 Z1.557 I-0.725 J0.209
X-72.926 Y-20.34 Z1.475 I0.725 J-0.209
X-74.375 Y-19.923 Z1.392 I-0.725 J0.209
X-72.926 Y-20.34 Z1.309 I0.725 J-0.209
X-74.375 Y-19.923 Z1.226 I-0.725 J0.209
X-72.926 Y-20.34 Z1.144 I0.725 J-0.209
X-74.375 Y-19.923 Z1.061 I-0.725 J0.209
X-72.926 Y-20.34 Z0.978 I0.725 J-0.209
X-74.375 Y-19.923 Z0.895 I-0.725 J0.209
X-72.926 Y-20.34 Z0.813 I0.725 J-0.209
X-74.375 Y-19.923 Z0.73 I-0.725 J0.209
X-72.926 Y-20.34 Z0.647 I0.725 J-0.209
X-74.375 Y-19.923 Z0.565 I-0.725 J0.209
X-72.926 Y-20.34 Z0.482 I0.725 J-0.209
X-74.375 Y-19.923 Z0.399 I-0.725 J0.209
X-72.926 Y-20.34 Z0.316 I0.725 J-0.209
X-74.375 Y-19.923 Z0.234 I-0.725 J0.209
X-72.926 Y-20.34 Z0.151 I0.725 J-0.209
X-74.375 Y-19.923 Z0.068 I-0.725 J0.209
X-72.926 Y-20.34 Z-0.014 I0.725 J-0.209
X-74.375 Y-19.923 Z-0.097 I-0.725 J0.209
X-72.926 Y-20.34 Z-0.18 I0.725 J-0.209
X-74.375 Y-19.923 Z-0.263 I-0.725 J0.209
X-72.926 Y-20.34 Z-0.345 I0.725 J-0.209
X-74.375 Y-19.923 Z-0.428 I-0.725 J0.209
X-72.926 Y-20.34 Z-0.511 I0.725 J-0.209
X-74.375 Y-19.923 Z-0.594 I-0.725 J0.209
X-72.926 Y-20.34 Z-0.676 I0.725 J-0.209
X-74.375 Y-19.923 Z-0.759 I-0.725 J0.209
X-72.926 Y-20.34 Z-0.842 I0.725 J-0.209
X-74.375 Y-19.923 Z-0.924 I-0.725 J0.209
X-72.926 Y-20.34 Z-1.007 I0.725 J-0.209
X-74.375 Y-19.923 Z-1.09 I-0.725 J0.209
X-72.926 Y-20.34 Z-1.173 I0.725 J-0.209
X-74.375 Y-19.923 Z-1.255 I-0.725 J0.209
X-72.926 Y-20.34 Z-1.338 I0.725 J-0.209
X-74.375 Y-19.923 Z-1.421 I-0.725 J0.209
X-72.926 Y-20.34 Z-1.504 I0.725 J-0.209
X-74.375 Y-19.923 Z-1.586 I-0.725 J0.209
X-72.926 Y-20.34 Z-1.669 I0.725 J-0.209
X-74.375 Y-19.923 Z-1.752 I-0.725 J0.209
X-72.926 Y-20.34 Z-1.834 I0.725 J-0.209
X-74.375 Y-19.923 Z-1.917 I-0.725 J0.209
X-72.926 Y-20.34 Z-2 I0.725 J-0.209
X-74.375 Y-19.923 Z-2.083 I-0.725 J0.209
X-72.926 Y-20.34 Z-2.165 I0.725 J-0.209
X-74.375 Y-19.923 Z-2.248 I-0.725 J0.209
X-72.926 Y-20.34 Z-2.331 I0.725 J-0.209
X-74.375 Y-19.923 Z-2.414 I-0.725 J0.209
X-72.926 Y-20.34 Z-2.496 I0.725 J-0.209
X-74.375 Y-19.923 Z-2.579 I-0.725 J0.209
X-72.926 Y-20.34 Z-2.662 I0.725 J-0.209
X-74.375 Y-19.923 Z-2.744 I-0.725 J0.209
X-72.926 Y-20.34 Z-2.827 I0.725 J-0.209
X-74.375 Y-19.923 Z-2.91 I-0.725 J0.209
X-73.756 Y-20.878 Z-2.955 I0.725 J-0.209
X-72.896 Y-20.132 Z-3 I0.105 J0.747
X-74.404 I-0.754
X-72.905 Y-20.243 I0.754
X-72.896 Y-20.132 I-0.746 J0.111
G1 X-72.869 Y-19.759 F849.6
X-72.868 Y-19.609
X-72.917 Y-19.467
X-73.001 Y-19.343
X-73.108 Y-19.238
X-73.233 Y-19.155
X-73.371 Y-19.095
X-73.516 Y-19.058
X-73.665 Y-19.043
X-73.815 Y-19.05
X-73.962 Y-19.08
X-74.104 Y-19.129
X-74.237 Y-19.199
X-74.359 Y-19.286
X-74.468 Y-19.389
X-74.562 Y-19.506
X-74.638 Y-19.635
X-74.697 Y-19.773
X-74.736 Y-19.918
X-74.755 Y-20.066
X-74.754 Y-20.216
X-74.733 Y-20.365
X-74.691 Y-20.509
X-74.631 Y-20.646
X-74.552 Y-20.774
X-74.457 Y-20.89
X-74.347 Y-20.992
X-74.225 Y-21.079
X-74.092 Y-21.148
X-73.95 Y-21.198
X-73.803 Y-21.229
X-73.654 Y-21.239
X-73.504 Y-21.229
X-73.357 Y-21.2
X-73.215 Y-21.15
X-73.082 Y-21.082
X-72.959 Y-20.997
X-72.848 Y-20.895
X-72.752 Y-20.78
X-72.673 Y-20.653
X-72.61 Y-20.516
X-72.56 Y-20.375
X-72.517 Y-20.226
X-72.486 Y-20.079
X-72.468 Y-19.93
Y-19.78
X-72.486 Y-19.631
X-72.523 Y-19.486
X-72.58 Y-19.347
X-72.655 Y-19.217
X-72.745 Y-19.097
X-72.851 Y-18.991
X-72.969 Y-18.899
X-73.098 Y-18.821
X-73.234 Y-18.759
X-73.377 Y-18.714
X-73.525 Y-18.686
X-73.674 Y-18.674
X-73.824 Y-18.678
X-73.973 Y-18.699
X-74.118 Y-18.736
X-74.259 Y-18.788
X-74.393 Y-18.854
X-74.52 Y-18.935
X-74.638 Y-19.028
X-74.745 Y-19.132
X-74.842 Y-19.247
X-74.926 Y-19.371
X-74.997 Y-19.504
X-75.054 Y-19.642
X-75.097 Y-19.786
X-75.124 Y-19.933
X-75.137 Y-20.083
X-75.135 Y-20.233
X-75.117 Y-20.382
X-75.085 Y-20.528
X-75.037 Y-20.671
X-74.976 Y-20.808
X-74.902 Y-20.938
X-74.814 Y-21.06
X-74.715 Y-21.172
X-74.605 Y-21.274
X-74.485 Y-21.365
X-74.357 Y-21.442
X-74.221 Y-21.506
X-74.08 Y-21.557
X-73.935 Y-21.593
X-73.786 Y-21.614
X-73.636 Y-21.62
X-73.487 Y-21.612
X-73.338 Y-21.588
X-73.194 Y-21.549
X-73.053 Y-21.495
X-72.919 Y-21.429
X-72.792 Y-21.349
X-72.674 Y-21.256
X-72.566 Y-21.152
X-72.469 Y-21.038
X-72.381 Y-20.916
X-72.304 Y-20.787
X-72.237 Y-20.653
X-72.181 Y-20.514
X-72.134 Y-20.371
X-72.099 Y-20.226
X-72.077 Y-20.077
X-72.067 Y-19.928
X-72.07 Y-19.778
X-72.087 Y-19.629
X-72.118 Y-19.482
X-72.163 Y-19.339
X-72.22 Y-19.2
X-72.291 Y-19.068
X-72.374 Y-18.943
X-72.469 Y-18.827
X-72.574 Y-18.72
X-72.689 Y-18.623
X-72.812 Y-18.538
X-72.943 Y-18.464
X-73.079 Y-18.402
X-73.221 Y-18.352
X-73.366 Y-18.315
X-73.514 Y-18.291
X-73.664 Y-18.281
X-73.814 Y-18.283
X-73.963 Y-18.297
X-74.111 Y-18.324
X-74.255 Y-18.364
X-74.396 Y-18.415
X-74.533 Y-18.478
X-74.663 Y-18.551
X-74.787 Y-18.636
X-74.904 Y-18.73
X-75.013 Y-18.833
X-75.113 Y-18.945
X-75.204 Y-19.064
X-75.284 Y-19.191
X-75.355 Y-19.323
X-75.414 Y-19.461
X-75.463 Y-19.603
X-75.499 Y-19.748
X-75.524 Y-19.896
X-75.537 Y-20.046
X-75.539 Y-20.196
X-75.528 Y-20.345
X-75.505 Y-20.494
X-75.471 Y-20.64
X-75.425 Y-20.782
X-75.368 Y-20.921
X-75.3 Y-21.055
X-75.222 Y-21.183
X-75.133 Y-21.304
X-75.036 Y-21.418
X-74.93 Y-21.524
X-74.815 Y-21.621
X-74.694 Y-21.709
X-74.565 Y-21.786
X-74.431 Y-21.854
X-74.292 Y-21.91
X-74.149 Y-21.956
X-74.003 Y-21.989
X-73.855 Y-22.011
X-73.705 Y-22.022
X-73.555 Y-22.021
X-73.406 Y-22.007
X-73.258 Y-21.981
X-73.113 Y-21.944
X-72.971 Y-21.896
X-72.833 Y-21.837
X-72.7 Y-21.767
X-72.574 Y-21.686
X-72.454 Y-21.596
X-72.341 Y-21.497
X-72.236 Y-21.391
X-72.138 Y-21.276
X-72.049 Y-21.156
X-71.967 Y-21.028
X-71.893 Y-20.893
X-71.829 Y-20.757
X-71.775 Y-20.617
X-71.731 Y-20.473
X-71.696 Y-20.327
X-71.672 Y-20.179
X-71.657 Y-20.03
X-71.654 Y-19.88
X-71.661 Y-19.73
X-71.679 Y-19.581
X-71.708 Y-19.434
X-71.748 Y-19.29
X-71.798 Y-19.148
X-71.859 Y-19.011
X-71.93 Y-18.879
X-72.011 Y-18.753
X-72.101 Y-18.632
X-72.199 Y-18.519
X-72.306 Y-18.414
X-72.42 Y-18.317
X-72.541 Y-18.228
X-72.668 Y-18.148
X-72.801 Y-18.078
X-72.938 Y-18.018
X-73.079 Y-17.968
X-73.224 Y-17.927
X-73.371 Y-17.897
X-73.52 Y-17.878
X-73.669 Y-17.869
X-73.819 Y-17.87
X-73.969 Y-17.882
X-74.117 Y-17.904
X-74.264 Y-17.936
X-74.408 Y-17.978
X-74.548 Y-18.03
X-74.685 Y-18.091
X-74.819 Y-18.162
X-74.947 Y-18.241
X-75.069 Y-18.328
X-75.185 Y-18.423
X-75.294 Y-18.526
X-75.397 Y-18.638
X-75.494 Y-18.757
X-75.581 Y-18.88
X-75.659 Y-19.007
X-75.729 Y-19.14
X-75.79 Y-19.28
X-75.843 Y-19.424
X-75.886 Y-19.572
X-75.919 Y-19.72
X-75.941 Y-19.868
X-75.954 Y-20.019
X-75.956 Y-20.172
X-75.949 Y-20.326
X-75.931 Y-20.48
X-75.904 Y-20.629
X-75.867 Y-20.775
X-75.82 Y-20.919
X-75.762 Y-21.061
X-75.695 Y-21.201
X-75.619 Y-21.337
X-75.536 Y-21.464
X-75.445 Y-21.583
X-75.346 Y-21.698
X-75.238 Y-21.808
X-75.121 Y-21.911
X-74.998 Y-22.006
X-74.872 Y-22.091
X-74.742 Y-22.166
X-74.606 Y-22.233
X-74.464 Y-22.292
X-74.316 Y-22.342
X-74.165 Y-22.382
X-74.016 Y-22.411
X-73.868 Y-22.43
X-73.716 Y-22.44
X-73.562 Y-22.439
X-73.406 Y-22.427
X-73.252 Y-22.406
X-73.103 Y-22.375
X-72.958 Y-22.335
X-72.815 Y-22.284
X-72.672 Y-22.223
X-72.532 Y-22.152
X-72.395 Y-22.07
X-72.262 Y-21.979
X-72.135 Y-21.878
X-72.013 Y-21.767
X-71.897 Y-21.647
X-71.787 Y-21.517
X-71.684 Y-21.378
X-71.591 Y-21.232
X-71.508 Y-21.081
X-71.435 Y-20.924
X-71.372 Y-20.761
X-71.32 Y-20.596
X-71.28 Y-20.43
X-71.251 Y-20.264
X-71.234 Y-20.096
X-71.227 Y-19.928
X-71.232 Y-19.76
X-71.248 Y-19.594
X-71.274 Y-19.431
X-71.311 Y-19.273
X-71.357 Y-19.119
X-71.414 Y-18.967
X-71.481 Y-18.82
X-71.558 Y-18.677
X-71.644 Y-18.54
X-71.739 Y-18.408
X-71.844 Y-18.281
X-71.958 Y-18.162
X-72.079 Y-18.049
X-72.206 Y-17.947
X-72.339 Y-17.853
X-72.478 Y-17.768
X-72.625 Y-17.692
X-72.779 Y-17.624
X-72.936 Y-17.567
X-73.098 Y-17.52
X-73.263 Y-17.484
X-73.431 Y-17.459
X-73.602 Y-17.445
X-73.775 Y-17.442
X-73.947 Y-17.451
X-74.118 Y-17.471
X-74.289 Y-17.502
X-74.458 Y-17.546
X-74.625 Y-17.6
X-74.788 Y-17.666
X-74.946 Y-17.742
X-75.099 Y-17.828
X-75.247 Y-17.926
X-75.389 Y-18.033
X-75.524 Y-18.15
X-75.651 Y-18.275
X-75.768 Y-18.408
X-75.878 Y-18.55
X-75.978 Y-18.699
X-76.068 Y-18.854
X-76.148 Y-19.016
X-76.216 Y-19.182
X-76.274 Y-19.352
X-76.32 Y-19.526
X-76.355 Y-19.704
X-76.378 Y-19.883
X-76.389 Y-20.064
X-76.387 Y-20.245
X-76.374 Y-20.425
X-76.349 Y-20.604
X-76.312 Y-20.782
X-76.264 Y-20.957
X-76.203 Y-21.129
X-76.132 Y-21.296
X-76.05 Y-21.457
X-75.957 Y-21.612
X-75.854 Y-21.762
X-75.741 Y-21.905
X-75.619 Y-22.04
X-75.488 Y-22.166
X-75.35 Y-22.283
X-75.204 Y-22.391
X-75.051 Y-22.489
X-74.891 Y-22.577
X-74.726 Y-22.654
X-74.556 Y-22.72
X-74.383 Y-22.774
X-74.207 Y-22.817
X-74.028 Y-22.848
X-73.846 Y-22.867
X-73.664 Y-22.874
X-73.482 Y-22.869
X-73.301 Y-22.852
X-73.122 Y-22.823
X-72.944 Y-22.782
X-72.769 Y-22.728
X-72.596 Y-22.663
X-72.427 Y-22.587
X-72.262 Y-22.498
X-72.101 Y-22.398
X-71.947 Y-22.286
X-71.798 Y-22.163
X-71.656 Y-22.028
X-71.522 Y-21.883
X-71.397 Y-21.729
X-71.282 Y-21.566
X-71.178 Y-21.394
X-71.085 Y-21.216
X-71.004 Y-21.033
X-70.935 Y-20.844
X-70.88 Y-20.653
X-70.837 Y-20.458
X-70.808 Y-20.262
X-70.792 Y-20.065
X-70.788 Y-19.869
X-70.798 Y-19.674
X-70.821 Y-19.481
X-70.856 Y-19.291
X-70.903 Y-19.105
X-70.963 Y-18.922
X-71.034 Y-18.744
X-71.117 Y-18.571
X-71.212 Y-18.404
X-71.318 Y-18.243
X-71.434 Y-18.089
X-71.561 Y-17.943
X-71.696 Y-17.806
X-71.84 Y-17.679
X-71.993 Y-17.561
X-72.154 Y-17.452
X-72.323 Y-17.355
X-72.498 Y-17.268
X-72.679 Y-17.193
X-72.866 Y-17.13
X-73.057 Y-17.079
X-73.252 Y-17.041
X-73.45 Y-17.016
X-73.65 Y-17.003
X-73.851 Y-17.005
X-74.052 Y-17.019
X-74.253 Y-17.047
X-74.452 Y-17.088
X-74.648 Y-17.143
X-74.841 Y-17.21
X-75.029 Y-17.291
X-75.212 Y-17.384
X-75.389 Y-17.489
X-75.559 Y-17.606
X-75.721 Y-17.735
X-75.875 Y-17.874
X-76.019 Y-18.023
X-76.153 Y-18.181
X-76.277 Y-18.349
X-76.389 Y-18.525
X-76.49 Y-18.708
X-76.578 Y-18.897
X-76.654 Y-19.092
X-76.717 Y-19.292
X-76.766 Y-19.496
X-76.802 Y-19.703
X-76.824 Y-19.912
X-76.832 Y-20.121
X-76.827 Y-20.332
X-76.807 Y-20.541
X-76.773 Y-20.749
X-76.726 Y-20.955
X-76.665 Y-21.156
X-76.591 Y-21.353
X-76.504 Y-21.545
X-76.404 Y-21.731
X-76.292 Y-21.91
X-76.168 Y-22.082
X-76.034 Y-22.244
X-75.889 Y-22.397
X-75.734 Y-22.541
X-75.57 Y-22.673
X-75.397 Y-22.795
X-75.216 Y-22.905
X-75.029 Y-23.003
X-74.836 Y-23.088
X-74.638 Y-23.16
X-74.435 Y-23.219
X-74.228 Y-23.264
X-74.019 Y-23.296
X-73.808 Y-23.313
X-73.597 Y-23.317
X-73.386 Y-23.306
X-73.176 Y-23.282
X-72.967 Y-23.243
X-72.76 Y-23.191
X-72.557 Y-23.124
X-72.357 Y-23.044
X-72.161 Y-22.95
X-71.971 Y-22.843
X-71.787 Y-22.722
X-71.61 Y-22.588
X-71.441 Y-22.442
X-71.28 Y-22.283
X-71.13 Y-22.113
X-70.991 Y-21.933
X-70.863 Y-21.743
X-70.748 Y-21.545
X-70.647 Y-21.34
X-70.559 Y-21.129
X-70.486 Y-20.912
X-70.427 Y-20.691
X-70.383 Y-20.468
X-70.355 Y-20.242
X-70.341 Y-20.017
X-70.342 Y-19.792
X-70.358 Y-19.568
X-70.389 Y-19.346
X-70.434 Y-19.128
X-70.494 Y-18.913
X-70.567 Y-18.703
X-70.655 Y-18.499
X-70.756 Y-18.301
X-70.869 Y-18.109
X-70.995 Y-17.926
X-71.133 Y-17.752
X-71.283 Y-17.587
X-71.443 Y-17.432
X-71.613 Y-17.287
X-71.793 Y-17.155
X-71.982 Y-17.033
X-72.179 Y-16.925
X-72.383 Y-16.829
X-72.595 Y-16.747
X-72.812 Y-16.679
X-73.033 Y-16.625
X-73.259 Y-16.586
X-73.487 Y-16.562
X-73.717 Y-16.553
X-73.948 Y-16.56
X-74.179 Y-16.581
X-74.408 Y-16.618
X-74.635 Y-16.671
X-74.859 Y-16.738
X-75.078 Y-16.82
X-75.292 Y-16.917
X-75.499 Y-17.029
X-75.699 Y-17.153
X-75.891 Y-17.292
X-76.073 Y-17.442
X-76.245 Y-17.605
X-76.407 Y-17.78
X-76.557 Y-17.965
X-76.694 Y-18.159
X-76.818 Y-18.363
X-76.928 Y-18.574
X-77.025 Y-18.793
X-77.107 Y-19.018
X-77.173 Y-19.248
X-77.225 Y-19.482
X-77.261 Y-19.719
X-77.28 Y-19.958
X-77.285 Y-20.199
X-77.273 Y-20.439
X-77.245 Y-20.678
X-77.201 Y-20.914
X-77.142 Y-21.147
X-77.067 Y-21.376
X-76.978 Y-21.6
X-76.874 Y-21.817
X-76.755 Y-22.027
X-76.623 Y-22.228
X-76.478 Y-22.421
X-76.32 Y-22.603
X-76.15 Y-22.775
X-75.97 Y-22.935
X-75.779 Y-23.082
X-75.579 Y-23.217
X-75.37 Y-23.338
X-75.154 Y-23.445
X-74.931 Y-23.537
X-74.702 Y-23.615
X-74.469 Y-23.677
X-74.232 Y-23.723
X-73.993 Y-23.754
X-73.752 Y-23.769
X-73.51 Y-23.768
X-73.268 Y-23.75
X-73.028 Y-23.717
X-72.79 Y-23.668
X-72.554 Y-23.602
X-72.322 Y-23.521
X-72.095 Y-23.424
X-71.874 Y-23.312
X-71.659 Y-23.184
X-71.452 Y-23.042
X-71.253 Y-22.885
X-71.065 Y-22.714
X-70.887 Y-22.531
X-70.721 Y-22.335
X-70.568 Y-22.128
X-70.429 Y-21.911
X-70.305 Y-21.685
X-70.195 Y-21.45
X-70.101 Y-21.21
X-70.024 Y-20.963
X-69.963 Y-20.713
X-69.919 Y-20.459
X-69.892 Y-20.204
X-69.882 Y-19.948
X-69.889 Y-19.693
X-69.913 Y-19.44
X-69.953 Y-19.189
X-70.01 Y-18.942
X-70.083 Y-18.699
X-70.172 Y-18.462
X-70.276 Y-18.232
X-70.396 Y-18.009
X-70.53 Y-17.794
X-70.678 Y-17.589
X-70.839 Y-17.394
X-71.013 Y-17.21
X-71.199 Y-17.037
X-71.397 Y-16.877
X-71.605 Y-16.731
X-71.822 Y-16.598
X-72.049 Y-16.479
X-72.284 Y-16.375
X-72.526 Y-16.287
X-72.773 Y-16.216
X-73.026 Y-16.16
X-73.283 Y-16.121
X-73.542 Y-16.1
X-73.803 Y-16.095
X-74.064 Y-16.108
X-74.324 Y-16.138
X-74.583 Y-16.186
X-74.838 Y-16.251
X-75.09 Y-16.332
X-75.335 Y-16.431
X-75.575 Y-16.546
X-75.806 Y-16.676
X-76.029 Y-16.822
X-76.242 Y-16.983
X-76.444 Y-17.158
X-76.634 Y-17.346
X-76.812 Y-17.546
X-76.976 Y-17.759
X-77.126 Y-17.981
X-77.261 Y-18.214
X-77.381 Y-18.456
X-77.484 Y-18.705
X-77.571 Y-18.96
X-77.641 Y-19.221
X-77.693 Y-19.486
X-77.727 Y-19.754
X-77.744 Y-20.025
X-77.742 Y-20.295
X-77.723 Y-20.565
X-77.686 Y-20.834
X-77.631 Y-21.099
X-77.559 Y-21.361
X-77.469 Y-21.617
X-77.363 Y-21.867
X-77.24 Y-22.109
X-77.101 Y-22.342
X-76.947 Y-22.566
X-76.779 Y-22.779
X-76.597 Y-22.981
X-76.402 Y-23.17
X-76.194 Y-23.345
X-75.976 Y-23.507
X-75.747 Y-23.654
X-75.509 Y-23.785
X-75.263 Y-23.9
X-75.009 Y-23.999
X-74.75 Y-24.081
X-74.486 Y-24.145
X-74.218 Y-24.191
X-73.947 Y-24.22
X-73.675 Y-24.231
X-73.402 Y-24.224
X-73.13 Y-24.198
X-72.86 Y-24.155
X-72.592 Y-24.093
X-72.328 Y-24.014
X-72.069 Y-23.916
X-71.815 Y-23.802
X-71.569 Y-23.67
X-71.33 Y-23.521
X-71.101 Y-23.356
X-70.882 Y-23.175
X-70.675 Y-22.979
X-70.48 Y-22.769
X-70.3 Y-22.546
X-70.133 Y-22.311
X-69.983 Y-22.065
X-69.849 Y-21.809
X-69.733 Y-21.545
X-69.634 Y-21.273
X-69.553 Y-20.996
X-69.491 Y-20.715
X-69.448 Y-20.431
X-69.428 Y-20.193
X-69.427 Y-20.149
X-69.43 Y-20.105
X-69.436 Y-20.062
X-69.453 Y-19.982
X-69.541 Y-19.588
X-69.572 Y-19.457
X-69.638 Y-19.194
X-69.672 Y-19.063
X-69.781 Y-18.668
X-69.858 Y-18.406
X-69.934 Y-18.169
X-69.987 Y-18.011
X-70.059 Y-17.826
X-70.134 Y-17.668
X-70.22 Y-17.511
X-70.332 Y-17.338
X-70.467 Y-17.155
X-70.623 Y-16.972
X-70.795 Y-16.794
X-70.985 Y-16.623
X-71.195 Y-16.458
X-71.42 Y-16.303
X-71.66 Y-16.162
X-71.911 Y-16.034
X-72.173 Y-15.923
X-72.443 Y-15.829
X-72.72 Y-15.753
X-73.003 Y-15.694
X-73.29 Y-15.655
X-73.58 Y-15.635
X-73.872 Y-15.634
X-74.163 Y-15.652
X-74.454 Y-15.69
X-74.742 Y-15.747
X-75.026 Y-15.823
X-75.305 Y-15.918
X-75.578 Y-16.031
X-75.843 Y-16.163
X-76.1 Y-16.312
X-76.346 Y-16.479
X-76.581 Y-16.661
X-76.804 Y-16.859
X-77.013 Y-17.072
X-77.209 Y-17.298
X-77.389 Y-17.537
X-77.552 Y-17.788
X-77.7 Y-18.049
X-77.829 Y-18.32
X-77.93 Y-18.572
X-77.949 Y-18.632
X-77.96 Y-18.693
X-77.962 Y-18.756
X-77.95 Y-19.063
X-77.943 Y-19.194
X-77.913 Y-19.588
X-77.867 Y-19.982
X-77.849 Y-20.114
X-77.807 Y-20.377
X-77.785 Y-20.508
X-77.704 Y-20.902
X-77.689 Y-20.966
X-77.605 Y-21.296
X-77.566 Y-21.428
X-77.441 Y-21.822
X-77.288 Y-22.216
X-77.232 Y-22.348
X-77.163 Y-22.501
X-77.109 Y-22.61
X-77.041 Y-22.742
X-76.81 Y-23.136
X-76.769 Y-23.202
X-76.678 Y-23.34
X-76.585 Y-23.466
X-76.488 Y-23.581
X-76.382 Y-23.691
X-76.244 Y-23.815
X-76.093 Y-23.935
X-75.913 Y-24.058
X-75.706 Y-24.182
X-75.474 Y-24.299
X-75.224 Y-24.405
X-74.962 Y-24.497
X-74.688 Y-24.573
X-74.405 Y-24.632
X-74.113 Y-24.672
X-73.815 Y-24.693
X-73.514 Y-24.695
X-73.213 Y-24.676
X-72.911 Y-24.637
X-72.612 Y-24.578
X-72.316 Y-24.5
X-72.025 Y-24.401
X-71.74 Y-24.282
X-71.462 Y-24.145
X-71.193 Y-23.988
X-70.933 Y-23.814
X-70.685 Y-23.621
X-70.449 Y-23.412
X-70.226 Y-23.187
X-70.019 Y-22.947
X-69.827 Y-22.693
X-69.652 Y-22.426
X-69.495 Y-22.148
X-69.357 Y-21.86
X-69.237 Y-21.559
X-69.221 Y-21.494
X-69.215 Y-21.427
X-69.218 Y-21.36
X-69.226 Y-21.296
X-69.284 Y-20.902
X-69.328 Y-20.639
X-69.374 Y-20.377
X-69.409 Y-20.197
X-69.436 Y-20.062
X-69.453 Y-20.001
X-69.971 Y-18.072
X-69.987 Y-18.011
X-70.066 Y-17.776
X-70.22 Y-17.354
X-70.269 Y-17.223
X-70.329 Y-17.075
X-70.375 Y-16.96
X-70.431 Y-16.829
X-70.5 Y-16.689
X-70.575 Y-16.559
X-70.662 Y-16.438
X-70.76 Y-16.323
X-70.877 Y-16.204
X-71.012 Y-16.083
X-71.181 Y-15.951
X-71.373 Y-15.82
X-71.582 Y-15.697
X-71.822 Y-15.577
X-72.084 Y-15.467
X-72.365 Y-15.371
X-72.659 Y-15.291
X-72.963 Y-15.229
X-73.275 Y-15.188
X-73.592 Y-15.167
X-73.912
X-74.233 Y-15.188
X-74.553 Y-15.231
X-74.87 Y-15.295
X-75.184 Y-15.38
X-75.492 Y-15.487
X-75.792 Y-15.613
X-76.085 Y-15.76
X-76.367 Y-15.926
X-76.639 Y-16.11
X-76.897 Y-16.313
X-77.143 Y-16.532
X-77.373 Y-16.768
X-77.588 Y-17.019
X-77.785 Y-17.283
X-77.873 Y-17.418
X-77.91 Y-17.488
X-77.934 Y-17.564
X-77.946 Y-17.642
X-77.952 Y-17.749
X-77.958 Y-17.88
X-77.968 Y-18.274
X-77.965 Y-18.668
X-77.962 Y-18.756
G3 X-77.957 Y-18.789 I0.158 J0.01
G1 X-77.949 Y-18.817
X-76.7 Y-23.282
X-76.695 Y-23.3
G3 X-76.678 Y-23.34 I0.153 J0.043
G1 X-76.506 Y-23.6
X-76.303 Y-23.924
X-76.243 Y-24.021
X-76.202 Y-24.095
X-76.123 Y-24.223
X-76.028 Y-24.339
X-75.921 Y-24.444
X-75.804 Y-24.538
X-75.671 Y-24.63
X-75.529 Y-24.714
X-75.352 Y-24.804
X-75.143 Y-24.893
X-74.925 Y-24.969
X-74.673 Y-25.038
X-74.395 Y-25.096
X-74.098 Y-25.137
X-73.788 Y-25.159
X-73.469 Y-25.16
X-73.145 Y-25.14
X-72.819 Y-25.098
X-72.493 Y-25.034
X-72.169 Y-24.947
X-71.85 Y-24.839
X-71.537 Y-24.709
X-71.232 Y-24.557
X-70.936 Y-24.385
X-70.651 Y-24.193
X-70.378 Y-23.982
X-70.119 Y-23.752
X-69.875 Y-23.504
X-69.647 Y-23.241
X-69.437 Y-22.962
X-69.245 Y-22.669
X-69.176 Y-22.547
X-69.139 Y-22.462
X-69.12 Y-22.372
X-69.119 Y-22.279
X-69.163 Y-21.822
X-69.178 Y-21.691
X-69.218 Y-21.36
X-69.234 Y-21.3
X-70.415 Y-16.889
X-70.431 Y-16.829
X-70.591 Y-16.458
X-70.726 Y-16.172
X-70.788 Y-16.04
X-70.825 Y-15.969
X-70.899 Y-15.839
X-70.986 Y-15.717
X-71.086 Y-15.605
X-71.196 Y-15.503
X-71.32 Y-15.405
X-71.459 Y-15.308
X-71.637 Y-15.202
X-71.83 Y-15.103
X-72.055 Y-15.006
X-72.315 Y-14.913
X-72.602 Y-14.833
X-72.909 Y-14.768
X-73.231 Y-14.722
X-73.56 Y-14.697
X-73.898 Y-14.694
X-74.242 Y-14.714
X-74.589 Y-14.757
X-74.936 Y-14.824
X-75.279 Y-14.914
X-75.617 Y-15.027
X-75.947 Y-15.163
X-76.269 Y-15.32
X-76.58 Y-15.499
X-76.879 Y-15.699
X-77.164 Y-15.918
X-77.435 Y-16.156
X-77.69 Y-16.412
X-77.762 Y-16.494
X-77.815 Y-16.57
X-77.853 Y-16.656
X-77.872 Y-16.747
X-77.895 Y-16.96
X-77.929 Y-17.354
X-77.946 Y-17.642
G3 X-77.94 Y-17.687 I0.159 J-0.003
G1 X-77.936 Y-17.704
X-76.221 Y-24.036
X-76.213 Y-24.065
G3 X-76.202 Y-24.095 I0.153 J0.041
G1 X-76.007 Y-24.45
X-75.98 Y-24.509
X-75.949 Y-24.581
X-75.934 Y-24.621
X-75.874 Y-24.758
X-75.786 Y-24.88
X-75.681 Y-24.987
X-75.565 Y-25.082
X-75.44 Y-25.166
X-75.307 Y-25.242
X-75.148 Y-25.319
X-74.973 Y-25.391
X-74.757 Y-25.462
X-74.515 Y-25.525
X-74.259 Y-25.573
X-73.968 Y-25.608
X-73.653 Y-25.625
X-73.321 Y-25.622
X-72.979 Y-25.595
X-72.631 Y-25.544
X-72.281 Y-25.469
X-71.933 Y-25.37
X-71.588 Y-25.246
X-71.25 Y-25.099
X-70.92 Y-24.929
X-70.601 Y-24.736
X-70.293 Y-24.521
X-69.999 Y-24.286
X-69.721 Y-24.031
X-69.459 Y-23.756
X-69.216 Y-23.465
X-69.128 Y-23.345
X-69.072 Y-23.243
X-69.043 Y-23.131
Y-23.016
X-69.088 Y-22.61
X-69.119 Y-22.279
X-69.135 Y-22.219
X-70.808 Y-16.03
X-70.825 Y-15.969
X-70.992 Y-15.646
X-71.063 Y-15.515
X-71.135 Y-15.383
X-71.211 Y-15.252
X-71.293 Y-15.127
X-71.388 Y-15.01
X-71.496 Y-14.906
X-71.614 Y-14.814
X-71.739 Y-14.731
X-71.893 Y-14.643
X-72.059 Y-14.563
X-72.265 Y-14.48
X-72.51 Y-14.399
X-72.766 Y-14.334
X-73.057 Y-14.28
X-73.379 Y-14.242
X-73.722 Y-14.224
X-74.08 Y-14.23
X-74.447 Y-14.26
X-74.818 Y-14.315
X-75.189 Y-14.396
X-75.557 Y-14.502
X-75.92 Y-14.633
X-76.275 Y-14.789
X-76.62 Y-14.968
X-76.953 Y-15.171
X-77.273 Y-15.395
X-77.578 Y-15.641
X-77.628 Y-15.688
X-77.695 Y-15.765
X-77.743 Y-15.855
X-77.77 Y-15.954
X-77.784 Y-16.04
X-77.837 Y-16.435
X-77.853 Y-16.566
X-77.872 Y-16.747
G3 X-77.679 Y-16.913 I0.158 J-0.012
G1 X-71.316 Y-15.481
G3 X-71.211 Y-15.252 I-0.035 J0.155
G1 X-71.289 Y-15.121
X-71.535 Y-14.726
X-71.621 Y-14.595
X-71.714 Y-14.477
X-71.815 Y-14.366
X-71.93 Y-14.27
X-72.055 Y-14.186
X-72.185 Y-14.113
X-72.341 Y-14.04
X-72.506 Y-13.975
X-72.719 Y-13.908
X-72.955 Y-13.851
X-73.22 Y-13.804
X-73.53 Y-13.771
X-73.873 Y-13.757
X-74.238 Y-13.767
X-74.617 Y-13.802
X-75 Y-13.863
X-75.387 Y-13.952
X-75.778 Y-14.069
X-76.166 Y-14.214
X-76.547 Y-14.386
X-76.917 Y-14.584
X-77.275 Y-14.807
X-77.461 Y-14.94
X-77.545 Y-15.019
X-77.608 Y-15.116
X-77.644 Y-15.225
G3 X-77.642 Y-15.287 I0.157 J-0.025
X-77.471 Y-15.409 I0.154 J0.037
G1 X-71.741 Y-14.835
G3 X-71.621 Y-14.595 I-0.016 J0.158
G1 X-71.808 Y-14.332
X-71.906 Y-14.198
X-72.037 Y-14.027
X-72.108 Y-13.938
X-72.209 Y-13.827
X-72.323 Y-13.73
X-72.448 Y-13.647
X-72.581 Y-13.577
X-72.719 Y-13.517
X-72.887 Y-13.458
X-73.073 Y-13.406
X-73.298 Y-13.359
X-73.572 Y-13.321
X-73.853 Y-13.3
X-74.184 Y-13.298
X-74.55 Y-13.32
X-74.939 Y-13.37
X-75.342 Y-13.448
X-75.753 Y-13.557
X-76.166 Y-13.696
X-76.574 Y-13.865
X-76.975 Y-14.063
X-77.27 Y-14.234
X-77.294 Y-14.25
X-77.379 Y-14.323
X-77.443 Y-14.414
X-77.484 Y-14.519
G3 X-77.313 Y-14.71 I0.155 J-0.034
G1 X-72.22 Y-14.191
G3 X-72.108 Y-13.938 I-0.016 J0.158
G1 X-72.216 Y-13.807
X-72.431 Y-13.567
X-72.563 Y-13.425
X-72.67 Y-13.32
X-72.783 Y-13.22
X-72.907 Y-13.137
X-73.041 Y-13.069
X-73.18 Y-13.013
X-73.323 Y-12.967
X-73.507 Y-12.922
X-73.7 Y-12.888
X-73.951 Y-12.861
X-74.224 Y-12.849
X-74.536 Y-12.857
X-74.898 Y-12.889
X-75.293 Y-12.952
X-75.709 Y-13.046
X-76.136 Y-13.173
X-76.564 Y-13.333
X-76.953 Y-13.508
X-77.067 Y-13.568
X-77.161 Y-13.635
X-77.236 Y-13.722
X-77.287 Y-13.826
G3 X-77.293 Y-13.888 I0.152 J-0.046
X-77.119 Y-14.03 I0.158 J0.016
G1 X-72.769 Y-13.587
G3 X-72.637 Y-13.372 I-0.016 J0.158
X-72.67 Y-13.32 I-0.148 J-0.057
G1 X-72.711 Y-13.281
X-72.957 Y-13.052
X-73.089 Y-12.945
X-73.163 Y-12.887
X-73.352 Y-12.75
X-73.487 Y-12.667
X-73.62 Y-12.597
X-73.76 Y-12.543
X-73.904 Y-12.502
X-74.051 Y-12.471
X-74.244 Y-12.444
X-74.449 Y-12.429
X-74.72 Y-12.428
X-75.003 Y-12.445
X-75.342 Y-12.488
X-75.732 Y-12.564
X-76.152 Y-12.676
X-76.573 Y-12.818
X-76.791 Y-12.908
X-76.896 Y-12.969
X-76.981 Y-13.055
X-77.042 Y-13.16
G3 X-76.877 Y-13.373 I0.149 J-0.055
G1 X-73.434 Y-13.033
G3 X-73.352 Y-12.75 I-0.016 J0.158
G1 X-73.483 Y-12.66
X-73.746 Y-12.49
X-73.877 Y-12.409
X-74.195 Y-12.23
X-74.329 Y-12.163
X-74.471 Y-12.114
X-74.617 Y-12.08
X-74.772 Y-12.057
X-74.932 Y-12.045
X-75.152 Y-12.042
X-75.375 Y-12.055
X-75.674 Y-12.091
X-76.006 Y-12.154
X-76.35 Y-12.243
X-76.473 Y-12.284
X-76.569 Y-12.329
X-76.652 Y-12.394
X-76.718 Y-12.477
G3 X-76.738 Y-12.535 I0.137 J-0.079
X-76.568 Y-12.714 I0.157 J-0.021
G1 X-74.265 Y-12.524
G3 X-74.15 Y-12.272 I-0.013 J0.158
X-74.195 Y-12.23 I-0.128 J-0.094
G1 X-74.272 Y-12.187
X-74.443 Y-12.098
X-74.666 Y-11.987
X-74.708 Y-11.967
X-74.797 Y-11.927
X-75.011 Y-11.836
X-75.152 Y-11.784
X-75.297 Y-11.744
X-75.445 Y-11.721
X-75.595 Y-11.71
X-75.77 Y-11.711
X-75.958 Y-11.724
X-76.021 Y-11.732
X-76.13 Y-11.761
X-76.228 Y-11.815
X-76.311 Y-11.892
G3 X-76.339 Y-11.947 I0.125 J-0.098
X-76.184 Y-12.149 I0.153 J-0.043
G1 X-75.077 Y-12.138
G3 X-75.011 Y-11.836 I-0.001 J0.159
G1 X-75.192 Y-11.759
X-75.586 Y-11.628
X-75.717 Y-11.591
X-75.801 Y-11.573
X-75.849 Y-11.567
X-75.875 Y-11.568
X-75.902 Y-11.573
X-75.941 Y-11.585
X-75.98 Y-11.604
X-76.046 Y-11.644
X-76.126 Y-11.704
X-76.243 Y-11.813
X-76.263 Y-11.836
X-76.374 Y-11.968
X-76.476 Y-12.098
X-76.646 Y-12.361
X-76.728 Y-12.493
X-76.769 Y-12.572
X-76.924 Y-12.887
X-76.984 Y-13.018
X-77.144 Y-13.412
X-77.19 Y-13.544
X-77.294 Y-13.849
X-77.426 Y-14.291
X-77.537 Y-14.726
X-77.596 Y-14.989
X-77.623 Y-15.121
X-77.649 Y-15.252
X-77.698 Y-15.515
X-77.722 Y-15.646
X-77.77 Y-15.954
G3 X-77.766 Y-16.016 I0.158 J-0.019
G1 X-77.753 Y-16.063 Z-2.992
X-77.741 Y-16.106 Z-2.97
X-77.732 Y-16.14 Z-2.935
X-77.726 Y-16.161 Z-2.89
X-77.723 Y-16.169 Z-2.841
G0 Z5
X-75.78 Y-24.714
Z-2.682
G1 Z-2.841 F849.6
X-75.784 Y-24.708 Z-2.89
X-75.799 Y-24.691 Z-2.935
X-75.821 Y-24.663 Z-2.97
X-75.849 Y-24.629 Z-2.992
X-75.88 Y-24.591 Z-3
G3 X-75.934 Y-24.621 I-0.025 J-0.02
G1 X-75.899 Y-24.713
X-75.861 Y-24.844
X-75.849 Y-24.896
X-75.838 Y-24.976
X-75.816 Y-25.124
X-75.746 Y-25.257
X-75.654 Y-25.375
X-75.547 Y-25.48
X-75.429 Y-25.573
X-75.304 Y-25.656
X-75.167 Y-25.732
X-75.01 Y-25.806
X-74.836 Y-25.874
X-74.623 Y-25.942
X-74.386 Y-26
X-74.131 Y-26.045
X-73.837 Y-26.077
X-73.513 Y-26.09
X-73.168 Y-26.082
X-72.809 Y-26.049
X-72.441 Y-25.991
X-72.069 Y-25.906
X-71.698 Y-25.796
X-71.331 Y-25.659
X-70.969 Y-25.496
X-70.616 Y-25.308
X-70.273 Y-25.095
X-69.943 Y-24.859
X-69.627 Y-24.6
X-69.329 Y-24.319
X-69.11 Y-24.083
X-69.05 Y-24.01
X-68.982 Y-23.897
X-68.949 Y-23.769
X-68.953 Y-23.637
X-68.973 Y-23.53
X-69.014 Y-23.236
X-69.037 Y-23.07
X-69.043 Y-23.016
G3 X-69.065 Y-22.958 I-0.157 J-0.025
X-69.245 Y-22.889 I-0.135 J-0.083
G1 X-75.725 Y-24.814
G3 X-75.838 Y-24.976 I0.045 J-0.152
G1 X-75.825 Y-25.107
X-75.826 Y-25.238
X-75.831 Y-25.278
X-75.841 Y-25.428
X-75.794 Y-25.57
X-75.719 Y-25.7
X-75.625 Y-25.817
X-75.518 Y-25.922
X-75.401 Y-26.016
X-75.276 Y-26.099
X-75.141 Y-26.177
X-74.988 Y-26.251
X-74.804 Y-26.326
X-74.602 Y-26.392
X-74.376 Y-26.451
X-74.109 Y-26.502
X-73.806 Y-26.538
X-73.486 Y-26.556
X-73.149 Y-26.552
X-72.782 Y-26.523
X-72.398 Y-26.467
X-72.005 Y-26.382
X-71.608 Y-26.269
X-71.213 Y-26.128
X-70.823 Y-25.958
X-70.441 Y-25.761
X-70.07 Y-25.537
X-69.712 Y-25.287
X-69.37 Y-25.013
X-69.102 Y-24.767
X-68.97 Y-24.628
X-68.929 Y-24.58
X-68.855 Y-24.456
X-68.823 Y-24.315
X-68.837 Y-24.171
X-68.9 Y-23.924
X-68.953 Y-23.637
G3 X-68.978 Y-23.581 I-0.155 J-0.034
X-69.147 Y-23.517 I-0.131 J-0.09
G1 X-75.712 Y-25.149
G3 X-75.831 Y-25.278 I0.038 J-0.154
G1 X-75.842 Y-25.37
X-75.849 Y-25.421
X-75.868 Y-25.501
X-75.881 Y-25.541
X-75.919 Y-25.686
X-75.898 Y-25.834
X-75.844 Y-25.974
X-75.767 Y-26.103
X-75.674 Y-26.221
X-75.568 Y-26.327
X-75.453 Y-26.423
X-75.331 Y-26.51
X-75.201 Y-26.589
X-75.044 Y-26.671
X-74.865 Y-26.75
X-74.67 Y-26.821
X-74.435 Y-26.89
X-74.165 Y-26.949
X-73.883 Y-26.991
X-73.574 Y-27.017
X-73.228 Y-27.023
X-72.852 Y-27.005
X-72.454 Y-26.959
X-72.043 Y-26.883
X-71.625 Y-26.777
X-71.204 Y-26.64
X-70.786 Y-26.472
X-70.374 Y-26.275
X-69.972 Y-26.048
X-69.583 Y-25.793
X-69.234 Y-25.53
X-68.996 Y-25.324
X-68.871 Y-25.201
X-68.772 Y-25.088
X-68.748 Y-25.057
X-68.677 Y-24.918
X-68.655 Y-24.764
X-68.687 Y-24.611
X-68.751 Y-24.447
X-68.799 Y-24.319
X-68.837 Y-24.171
G3 X-68.866 Y-24.116 I-0.152 J-0.045
X-69.021 Y-24.06 I-0.124 J-0.1
G1 X-75.763 Y-25.439
G3 X-75.849 Y-25.488 I0.032 J-0.156
X-75.881 Y-25.541 I0.117 J-0.107
G1 X-75.91 Y-25.632
X-75.98 Y-25.776
X-76.047 Y-25.911
X-76.049 Y-26.061
X-76.016 Y-26.207
X-75.958 Y-26.345
X-75.881 Y-26.474
X-75.789 Y-26.593
X-75.686 Y-26.702
X-75.574 Y-26.802
X-75.455 Y-26.893
X-75.321 Y-26.982
X-75.16 Y-27.074
X-74.989 Y-27.157
X-74.786 Y-27.239
X-74.552 Y-27.317
X-74.29 Y-27.384
X-74.019 Y-27.435
X-73.707 Y-27.473
X-73.357 Y-27.492
X-72.974 Y-27.487
X-72.567 Y-27.455
X-72.141 Y-27.393
X-71.703 Y-27.298
X-71.262 Y-27.173
X-70.823 Y-27.015
X-70.385 Y-26.824
X-69.951 Y-26.6
X-69.528 Y-26.344
X-69.17 Y-26.094
X-68.909 Y-25.884
X-68.764 Y-25.752
X-68.661 Y-25.643
X-68.564 Y-25.528
X-68.522 Y-25.467
X-68.45 Y-25.302
X-68.446 Y-25.122
X-68.512 Y-24.955
X-68.583 Y-24.844
X-68.62 Y-24.776
X-68.647 Y-24.713
X-68.687 Y-24.611
G3 X-68.722 Y-24.56 I-0.146 J-0.063
X-68.859 Y-24.518 I-0.11 J-0.114
G1 X-75.872 Y-25.704
G3 X-75.938 Y-25.731 I0.026 J-0.157
X-75.98 Y-25.776 I0.092 J-0.129
G1 X-76.049 Y-25.895
X-76.112 Y-25.98
X-76.2 Y-26.101
X-76.229 Y-26.248
X-76.219 Y-26.398
X-76.182 Y-26.543
X-76.124 Y-26.681
X-76.049 Y-26.811
X-75.961 Y-26.933
X-75.863 Y-27.046
X-75.755 Y-27.15
X-75.639 Y-27.248
X-75.501 Y-27.349
X-75.35 Y-27.445
X-75.176 Y-27.54
X-74.971 Y-27.635
X-74.74 Y-27.724
X-74.497 Y-27.799
X-74.224 Y-27.864
X-73.911 Y-27.917
X-73.559 Y-27.953
X-73.174 Y-27.966
X-72.763 Y-27.953
X-72.346 Y-27.912
X-71.901 Y-27.839
X-71.44 Y-27.731
X-70.973 Y-27.588
X-70.504 Y-27.41
X-70.038 Y-27.196
X-69.58 Y-26.948
X-69.167 Y-26.688
X-68.881 Y-26.48
X-68.666 Y-26.301
X-68.529 Y-26.17
X-68.428 Y-26.06
X-68.335 Y-25.942
X-68.251 Y-25.817
X-68.221 Y-25.758
X-68.178 Y-25.625
X-68.176 Y-25.484
X-68.218 Y-25.349
X-68.298 Y-25.233
X-68.357 Y-25.171
X-68.405 Y-25.107
X-68.499 Y-24.976
X-68.512 Y-24.955
G3 X-68.665 Y-24.888 I-0.131 J-0.09
G1 X-76.014 Y-25.927
G3 X-76.112 Y-25.98 I0.022 J-0.157
G1 X-76.15 Y-26.027
X-76.195 Y-26.075
X-76.243 Y-26.123
X-76.266 Y-26.142
X-76.376 Y-26.244
X-76.433 Y-26.383
X-76.45 Y-26.532
X-76.438 Y-26.682
X-76.402 Y-26.827
X-76.348 Y-26.967
X-76.278 Y-27.1
X-76.197 Y-27.226
X-76.104 Y-27.344
X-76.003 Y-27.454
X-75.886 Y-27.565
X-75.756 Y-27.673
X-75.607 Y-27.781
X-75.432 Y-27.891
X-75.232 Y-27.998
X-75.017 Y-28.096
X-74.78 Y-28.185
X-74.507 Y-28.268
X-74.195 Y-28.34
X-73.847 Y-28.397
X-73.477 Y-28.432
X-73.086 Y-28.443
X-72.664 Y-28.428
X-72.212 Y-28.38
X-71.738 Y-28.299
X-71.25 Y-28.181
X-70.755 Y-28.027
X-70.259 Y-27.834
X-69.767 Y-27.605
X-69.301 Y-27.349
X-68.918 Y-27.105
X-68.652 Y-26.908
X-68.449 Y-26.737
X-68.288 Y-26.582
X-68.177 Y-26.46
X-68.084 Y-26.343
X-68.001 Y-26.218
X-67.929 Y-26.086
X-67.873 Y-25.947
X-67.87 Y-25.933
X-67.855 Y-25.792
X-67.885 Y-25.653
X-67.955 Y-25.53
X-68.06 Y-25.433
X-68.094 Y-25.41
X-68.151 Y-25.37
X-68.226 Y-25.304
X-68.298 Y-25.233
G3 X-68.35 Y-25.199 I-0.111 J-0.113
G1 X-68.395 Y-25.181 Z-2.992
X-68.436 Y-25.164 Z-2.97
X-68.469 Y-25.151 Z-2.935
X-68.49 Y-25.143 Z-2.89
X-68.497 Y-25.14 Z-2.841
G0 Z5
X-76.303 Y-26.319
Z-2.682
G1 Z-2.841 F849.6
X-76.299 Y-26.312 Z-2.89
X-76.287 Y-26.293 Z-2.935
X-76.268 Y-26.263 Z-2.97
X-76.245 Y-26.225 Z-2.992
X-76.22 Y-26.184 Z-3
G3 X-76.266 Y-26.142 I-0.027 J0.017
G1 X-76.285 Y-26.158
X-76.374 Y-26.228
X-76.474 Y-26.289
X-76.537 Y-26.329
X-76.632 Y-26.445
X-76.686 Y-26.585
X-76.707 Y-26.734
X-76.702 Y-26.884
X-76.675 Y-27.031
X-76.631 Y-27.175
X-76.571 Y-27.312
X-76.499 Y-27.444
X-76.417 Y-27.569
X-76.325 Y-27.688
X-76.224 Y-27.802
X-76.102 Y-27.923
X-75.958 Y-28.047
X-75.796 Y-28.17
X-75.621 Y-28.285
X-75.419 Y-28.399
X-75.187 Y-28.511
X-74.923 Y-28.617
X-74.636 Y-28.71
X-74.325 Y-28.79
X-73.975 Y-28.855
X-73.592 Y-28.899
X-73.178 Y-28.92
X-72.733 Y-28.913
X-72.26 Y-28.874
X-71.765 Y-28.8
X-71.255 Y-28.688
X-70.738 Y-28.538
X-70.222 Y-28.351
X-69.707 Y-28.125
X-69.227 Y-27.874
X-68.839 Y-27.638
X-68.523 Y-27.416
X-68.283 Y-27.222
X-68.103 Y-27.055
X-67.96 Y-26.904
X-67.845 Y-26.765
X-67.75 Y-26.634
X-67.67 Y-26.506
X-67.603 Y-26.372
X-67.548 Y-26.233
X-67.513 Y-26.087
X-67.51 Y-26.062
X-67.517 Y-25.911
X-67.573 Y-25.771
X-67.671 Y-25.656
X-67.801 Y-25.58
X-67.831 Y-25.568
X-67.963 Y-25.498
X-68.06 Y-25.433
G3 X-68.118 Y-25.412 I-0.083 J-0.135
G1 X-68.166 Y-25.404 Z-2.992
X-68.21 Y-25.397 Z-2.97
X-68.244 Y-25.391 Z-2.935
X-68.267 Y-25.388 Z-2.89
X-68.274 Y-25.386 Z-2.841
G0 Z5
X-76.548 Y-26.454
Z-2.682
G1 Z-2.841 F849.6
X-76.543 Y-26.448 Z-2.89
X-76.527 Y-26.432 Z-2.935
X-76.503 Y-26.407 Z-2.97
X-76.472 Y-26.375 Z-2.992
X-76.438 Y-26.34 Z-3
G3 X-76.474 Y-26.289 I-0.023 J0.022
G1 X-76.637 Y-26.374
X-76.709 Y-26.406
X-76.842 Y-26.474
X-76.925 Y-26.6
X-76.976 Y-26.741
X-77 Y-26.889
X-77.002 Y-27.039
X-76.984 Y-27.188
X-76.95 Y-27.334
X-76.901 Y-27.476
X-76.84 Y-27.613
X-76.769 Y-27.745
X-76.688 Y-27.871
X-76.594 Y-27.998
X-76.481 Y-28.132
X-76.35 Y-28.269
X-76.2 Y-28.404
X-76.038 Y-28.533
X-75.847 Y-28.665
X-75.627 Y-28.796
X-75.378 Y-28.923
X-75.105 Y-29.04
X-74.819 Y-29.141
X-74.492 Y-29.232
X-74.129 Y-29.308
X-73.729 Y-29.364
X-73.295 Y-29.396
X-72.829 Y-29.399
X-72.336 Y-29.37
X-71.82 Y-29.305
X-71.296 Y-29.203
X-70.766 Y-29.062
X-70.224 Y-28.88
X-69.689 Y-28.659
X-69.18 Y-28.409
X-68.767 Y-28.171
X-68.419 Y-27.938
X-68.134 Y-27.72
X-67.918 Y-27.529
X-67.741 Y-27.352
X-67.599 Y-27.188
X-67.485 Y-27.039
X-67.393 Y-26.898
X-67.318 Y-26.766
X-67.252 Y-26.631
X-67.199 Y-26.491
X-67.161 Y-26.346
X-67.139 Y-26.198
Y-26.125
X-67.166 Y-25.967
X-67.245 Y-25.828
X-67.367 Y-25.725
X-67.517 Y-25.67
X-67.569 Y-25.66
X-67.7 Y-25.619
X-67.801 Y-25.58
G3 X-67.862 Y-25.571 I-0.052 J-0.15
G1 X-67.911 Y-25.574 Z-2.992
X-67.955 Y-25.577 Z-2.97
X-67.99 Y-25.579 Z-2.935
X-68.013 Y-25.58 Z-2.89
X-68.021 Z-2.841
G0 Z5
X-76.792 Y-26.566
Z-2.682
G1 Z-2.841 F849.6
X-76.787 Y-26.561 Z-2.89
X-76.77 Y-26.546 Z-2.935
X-76.744 Y-26.522 Z-2.97
X-76.711 Y-26.492 Z-2.992
X-76.675 Y-26.459 Z-3
G3 X-76.709 Y-26.406 I-0.021 J0.023
G1 X-76.971 Y-26.526
X-77.104 Y-26.595
X-77.198 Y-26.712
X-77.261 Y-26.848
X-77.298 Y-26.993
X-77.313 Y-27.142
X-77.309 Y-27.292
X-77.289 Y-27.441
X-77.254 Y-27.587
X-77.206 Y-27.729
X-77.148 Y-27.867
X-77.08 Y-28.001
X-76.997 Y-28.14
X-76.897 Y-28.286
X-76.779 Y-28.435
X-76.648 Y-28.579
X-76.497 Y-28.725
X-76.319 Y-28.875
X-76.114 Y-29.025
X-75.882 Y-29.174
X-75.634 Y-29.31
X-75.365 Y-29.435
X-75.06 Y-29.553
X-74.719 Y-29.66
X-74.341 Y-29.751
X-73.926 Y-29.822
X-73.476 Y-29.869
X-72.995 Y-29.887
X-72.502 Y-29.872
X-71.981 Y-29.823
X-71.435 Y-29.734
X-70.878 Y-29.604
X-70.324 Y-29.436
X-69.782 Y-29.233
X-69.254 Y-28.997
X-68.777 Y-28.745
X-68.38 Y-28.502
X-68.061 Y-28.276
X-67.791 Y-28.056
X-67.565 Y-27.845
X-67.389 Y-27.657
X-67.242 Y-27.478
X-67.12 Y-27.309
X-67.023 Y-27.153
X-66.944 Y-27.005
X-66.882 Y-26.866
X-66.83 Y-26.726
X-66.789 Y-26.582
X-66.763 Y-26.434
X-66.751 Y-26.284
X-66.759 Y-26.135
X-66.77 Y-26.078
X-66.824 Y-25.933
X-66.922 Y-25.814
X-67.054 Y-25.735
X-67.205 Y-25.703
X-67.306 Y-25.699
X-67.437 Y-25.684
X-67.517 Y-25.67
G3 X-67.578 Y-25.673 I-0.023 J-0.157
G1 X-67.626 Y-25.685 Z-2.992
X-67.669 Y-25.695 Z-2.97
X-67.703 Y-25.704 Z-2.935
X-67.725 Y-25.71 Z-2.89
X-67.732 Y-25.711 Z-2.841
G0 Z5
X-77.053 Y-26.686
Z-2.682
G1 Z-2.841 F849.6
X-77.048 Y-26.681 Z-2.89
X-77.031 Y-26.666 Z-2.935
X-77.005 Y-26.642 Z-2.97
X-76.973 Y-26.612 Z-2.992
X-76.937 Y-26.578 Z-3
G3 X-76.971 Y-26.526 I-0.022 J0.023
G1 X-77.032 Y-26.554
X-77.235 Y-26.652
X-77.268 Y-26.668
X-77.399 Y-26.74
X-77.498 Y-26.853
X-77.567 Y-26.986
X-77.612 Y-27.129
X-77.634 Y-27.278
X-77.639 Y-27.428
X-77.628 Y-27.577
X-77.602 Y-27.725
X-77.564 Y-27.87
X-77.515 Y-28.012
X-77.453 Y-28.159
X-77.379 Y-28.304
X-77.29 Y-28.456
X-77.182 Y-28.614
X-77.053 Y-28.778
X-76.904 Y-28.943
X-76.74 Y-29.103
X-76.546 Y-29.268
X-76.326 Y-29.431
X-76.082 Y-29.589
X-75.808 Y-29.74
X-75.504 Y-29.884
X-75.184 Y-30.009
X-74.826 Y-30.123
X-74.425 Y-30.221
X-73.984 Y-30.299
X-73.507 Y-30.35
X-73.006 Y-30.371
X-72.478 Y-30.358
X-71.924 Y-30.308
X-71.353 Y-30.217
X-70.789 Y-30.089
X-70.234 Y-29.925
X-69.69 Y-29.728
X-69.158 Y-29.498
X-68.673 Y-29.251
X-68.252 Y-29.001
X-67.89 Y-28.751
X-67.58 Y-28.506
X-67.328 Y-28.278
X-67.126 Y-28.069
X-66.955 Y-27.866
X-66.81 Y-27.67
X-66.69 Y-27.482
X-66.594 Y-27.309
X-66.521 Y-27.152
X-66.463 Y-27.003
X-66.419 Y-26.86
X-66.383 Y-26.714
X-66.359 Y-26.566
X-66.347 Y-26.416
X-66.351 Y-26.267
X-66.372 Y-26.118
X-66.404 Y-26.007
X-66.477 Y-25.86
X-66.596 Y-25.747
X-66.747 Y-25.684
X-66.911 Y-25.677
X-67.043 Y-25.695
X-67.174 Y-25.704
X-67.205 Y-25.703
G3 X-67.266 Y-25.715 J-0.159
G1 X-67.311 Y-25.734 Z-2.992
X-67.352 Y-25.751 Z-2.97
X-67.385 Y-25.764 Z-2.935
X-67.406 Y-25.773 Z-2.89
X-67.413 Y-25.775 Z-2.841
G0 Z5
X-77.346 Y-26.83
Z-2.682
G1 Z-2.841 F849.6
X-77.341 Y-26.825 Z-2.89
X-77.325 Y-26.809 Z-2.935
X-77.3 Y-26.785 Z-2.97
X-77.268 Y-26.754 Z-2.992
X-77.233 Y-26.719 Z-3
G3 X-77.268 Y-26.668 I-0.022 J0.023
G1 X-77.426 Y-26.745
X-77.566 Y-26.815
X-77.603 Y-26.835
X-77.732 Y-26.911
X-77.828 Y-27.026
X-77.897 Y-27.16
X-77.942 Y-27.303
X-77.967 Y-27.451
X-77.975 Y-27.6
X-77.968 Y-27.75
X-77.948 Y-27.899
X-77.916 Y-28.045
X-77.873 Y-28.189
X-77.816 Y-28.342
X-77.743 Y-28.505
X-77.657 Y-28.666
X-77.552 Y-28.835
X-77.427 Y-29.009
X-77.279 Y-29.19
X-77.106 Y-29.374
X-76.916 Y-29.551
X-76.702 Y-29.726
X-76.455 Y-29.9
X-76.177 Y-30.071
X-75.873 Y-30.231
X-75.536 Y-30.381
X-75.164 Y-30.518
X-74.757 Y-30.637
X-74.334 Y-30.731
X-73.863 Y-30.803
X-73.353 Y-30.848
X-72.813 Y-30.858
X-72.244 Y-30.832
X-71.669 Y-30.767
X-71.508 Y-30.738
X-71.448 Y-30.723
X-71.391 Y-30.7
X-71.337 Y-30.67
X-71.249 Y-30.613
X-71.117 Y-30.543
X-70.854 Y-30.408
X-70.748 Y-30.363
X-70.591 Y-30.31
X-70.46 Y-30.28
X-70.329 Y-30.261
X-70.197 Y-30.249
X-70.157 Y-30.25
X-70.007 Y-30.247
X-69.8 Y-30.206
X-69.531 Y-30.134
X-69.222 Y-30.029
X-68.854 Y-29.876
X-68.445 Y-29.674
X-68.045 Y-29.441
X-67.675 Y-29.191
X-67.349 Y-28.939
X-67.073 Y-28.694
X-66.845 Y-28.463
X-66.653 Y-28.24
X-66.488 Y-28.022
X-66.351 Y-27.812
X-66.238 Y-27.611
X-66.147 Y-27.423
X-66.075 Y-27.241
X-66.019 Y-27.07
X-65.98 Y-26.915
X-65.953 Y-26.768
X-65.936 Y-26.618
X-65.929 Y-26.469
X-65.935 Y-26.319
X-65.942 Y-26.27
X-65.991 Y-26.117
X-66.091 Y-25.99
X-66.228 Y-25.905
X-66.254 Y-25.895
X-66.386 Y-25.826
X-66.481 Y-25.764
X-66.517 Y-25.739
X-66.616 Y-25.66
X-66.632 Y-25.651
X-66.648 Y-25.644
X-66.665 Y-25.639
X-66.681 Y-25.636
X-66.698 Y-25.635
X-66.714
X-66.78 Y-25.648
X-66.911 Y-25.677
G3 X-66.967 Y-25.703 I0.039 J-0.154
X-66.998 Y-25.734 I0.095 J-0.127
G1 X-70.273 Y-29.995
G3 X-70.157 Y-30.25 I0.126 J-0.097
G1 X-70.066 Y-30.253
X-69.934 Y-30.268
X-69.803 Y-30.293
X-69.671 Y-30.334
X-69.528 Y-30.379
X-69.379 Y-30.388
X-69.229 Y-30.38
X-69.08 Y-30.359
X-68.902 Y-30.319
X-68.714 Y-30.264
X-68.469 Y-30.175
X-68.21 Y-30.06
X-67.893 Y-29.894
X-67.561 Y-29.69
X-67.239 Y-29.462
X-66.945 Y-29.223
X-66.681 Y-28.978
X-66.449 Y-28.731
X-66.247 Y-28.487
X-66.075 Y-28.246
X-65.932 Y-28.017
X-65.816 Y-27.8
X-65.722 Y-27.591
X-65.647 Y-27.389
X-65.588 Y-27.194
X-65.546 Y-27.011
X-65.52 Y-26.842
X-65.506 Y-26.693
X-65.505 Y-26.543
X-65.517 Y-26.393
X-65.523 Y-26.366
X-65.594 Y-26.2
X-65.723 Y-26.073
X-65.892 Y-26.006
X-65.991 Y-25.989
X-66.123 Y-25.947
X-66.228 Y-25.905
G3 X-66.405 Y-25.955 I-0.053 J-0.15
G1 X-69.734 Y-30.088
G3 X-69.671 Y-30.334 I0.124 J-0.1
G1 X-69.595 Y-30.363
X-69.54 Y-30.39
X-69.409 Y-30.459
X-69.381 Y-30.478
X-69.255 Y-30.559
X-69.113 Y-30.607
X-68.964 Y-30.629
X-68.814 Y-30.631
X-68.665 Y-30.618
X-68.517 Y-30.593
X-68.343 Y-30.551
X-68.157 Y-30.492
X-67.92 Y-30.401
X-67.686 Y-30.292
X-67.407 Y-30.138
X-67.11 Y-29.948
X-66.815 Y-29.73
X-66.534 Y-29.493
X-66.275 Y-29.242
X-66.041 Y-28.984
X-65.835 Y-28.724
X-65.658 Y-28.468
X-65.509 Y-28.217
X-65.385 Y-27.972
X-65.285 Y-27.74
X-65.207 Y-27.518
X-65.15 Y-27.311
X-65.111 Y-27.123
X-65.086 Y-26.947
X-65.075 Y-26.798
X-65.077 Y-26.648
X-65.094 Y-26.498
X-65.126 Y-26.352
X-65.137 Y-26.321
X-65.211 Y-26.194
X-65.321 Y-26.097
X-65.457 Y-26.039
X-65.603 Y-26.027
G3 X-65.704 Y-26.079 I0.018 J-0.158
G1 X-69.403 Y-30.247
G3 X-69.381 Y-30.478 I0.119 J-0.105
G1 X-69.277 Y-30.553
X-69.184 Y-30.626
X-69.146 Y-30.665
X-69.12 Y-30.693
X-69.088 Y-30.728
X-69.061 Y-30.757
X-68.981 Y-30.844
G3 X-68.773 Y-30.617 I0.074 J0.14
G1 X-68.801 Y-30.575
G3 X-69.025 Y-30.532 I-0.133 J-0.087
X-69.061 Y-30.757 I0.091 J-0.13
G1 X-69.014 Y-30.815
X-68.998 Y-30.831
X-68.981 Y-30.844
X-68.965 Y-30.853
X-68.949 Y-30.86
X-68.916 Y-30.872
X-68.899 Y-30.875
X-68.751 Y-30.883
X-68.689 Y-30.888
X-68.651 Y-30.895
X-68.502 Y-30.913
X-68.352 Y-30.91
X-68.203 Y-30.893
X-68.049 Y-30.864
X-67.878 Y-30.82
X-67.686 Y-30.757
X-67.457 Y-30.663
X-67.229 Y-30.553
X-66.965 Y-30.402
X-66.683 Y-30.215
X-66.399 Y-29.998
X-66.123 Y-29.758
X-65.865 Y-29.5
X-65.629 Y-29.232
X-65.42 Y-28.958
X-65.236 Y-28.683
X-65.08 Y-28.411
X-64.95 Y-28.145
X-64.845 Y-27.888
X-64.766 Y-27.651
X-64.709 Y-27.435
X-64.672 Y-27.241
X-64.65 Y-27.064
X-64.641 Y-26.905
X-64.643 Y-26.755
X-64.656 Y-26.605
X-64.684 Y-26.458
X-64.728 Y-26.315
X-64.792 Y-26.177
X-64.889 Y-26.068
X-65.015 Y-25.995
X-65.158 Y-25.966
X-65.303 Y-25.982
X-65.334 Y-25.991
X-65.466 Y-26.016
X-65.603 Y-26.027
G3 X-65.718 Y-26.096 I0.018 J-0.158
G1 X-68.75 Y-30.652
G3 X-68.651 Y-30.895 I0.132 J-0.088
G1 X-68.62 Y-30.9
X-68.489 Y-30.926
X-68.357 Y-30.97
X-68.242 Y-31.02
X-68.226 Y-31.028
X-68.09 Y-31.092
X-67.942 Y-31.116
X-67.792 Y-31.118
X-67.643 Y-31.103
X-67.495 Y-31.076
X-67.333 Y-31.033
X-67.171 Y-30.977
X-66.968 Y-30.893
X-66.753 Y-30.786
X-66.519 Y-30.649
X-66.257 Y-30.473
X-65.986 Y-30.262
X-65.718 Y-30.023
X-65.608 Y-29.912
X-65.544 Y-29.83
X-65.499 Y-29.735
X-65.478 Y-29.633
G3 X-65.708 Y-29.482 I-0.158 J0.01
G1 X-68.217 Y-30.749
G3 X-68.272 Y-30.987 I0.072 J-0.142
X-68.226 Y-31.028 I0.126 J0.096
G1 X-68.094 Y-31.099
X-67.963 Y-31.197
X-67.933 Y-31.223
X-67.816 Y-31.316
X-67.673 Y-31.361
X-67.524 Y-31.381
X-67.374 Y-31.382
X-67.225 Y-31.367
X-67.077 Y-31.339
X-66.92 Y-31.298
X-66.758 Y-31.243
X-66.56 Y-31.161
X-66.359 Y-31.062
X-66.13 Y-30.929
X-65.877 Y-30.759
X-65.76 Y-30.669
X-65.687 Y-30.599
X-65.631 Y-30.514
X-65.595 Y-30.42
G3 X-65.803 Y-30.236 I-0.155 J0.034
G1 X-67.877 Y-30.957
G3 X-67.933 Y-31.223 I0.052 J-0.15
G1 X-67.865 Y-31.283
X-67.831 Y-31.316
X-67.747 Y-31.414
X-67.721 Y-31.448
X-67.624 Y-31.562
X-67.489 Y-31.628
X-67.344 Y-31.666
X-67.195 Y-31.683
X-67.045 Y-31.684
X-66.896 Y-31.669
X-66.748 Y-31.643
X-66.598 Y-31.605
X-66.426 Y-31.55
X-66.23 Y-31.472
X-66.083 Y-31.402
X-65.988 Y-31.342
X-65.911 Y-31.26
X-65.855 Y-31.162
X-65.797 Y-31.02
X-65.655 Y-30.626
X-65.615 Y-30.494
X-65.547 Y-30.231
X-65.513 Y-30.1
X-65.485 Y-29.706
X-65.472 Y-29.574
X-65.466 Y-29.52
X-65.453 Y-29.443
X-65.428 Y-29.312
X-65.396 Y-29.18
X-65.312 Y-28.917
X-65.264 Y-28.786
X-65.071 Y-28.4
X-64.975 Y-28.26
X-64.788 Y-27.998
X-64.677 Y-27.866
X-64.611 Y-27.794
X-64.516 Y-27.678
X-64.435 Y-27.552
X-64.37 Y-27.417
X-64.32 Y-27.275
X-64.284 Y-27.13
X-64.26 Y-26.981
X-64.249 Y-26.832
X-64.252 Y-26.682
X-64.267 Y-26.533
X-64.296 Y-26.385
X-64.343 Y-26.243
X-64.407 Y-26.107
X-64.45 Y-26.044
X-64.566 Y-25.926
X-64.716 Y-25.856
X-64.882 Y-25.844
X-65.04 Y-25.892
X-65.047 Y-25.895
X-65.203 Y-25.954
X-65.303 Y-25.982
G3 X-65.405 Y-26.185 I0.048 J-0.151
G1 X-64.875 Y-27.734
G3 X-64.611 Y-27.794 I0.15 J0.051
G1 X-64.546 Y-27.722
X-64.414 Y-27.585
X-64.283 Y-27.46
X-64.211 Y-27.394
X-64.106 Y-27.288
X-64.024 Y-27.162
X-63.964 Y-27.024
X-63.925 Y-26.88
X-63.903 Y-26.731
X-63.898 Y-26.581
X-63.91 Y-26.432
X-63.937 Y-26.284
X-63.983 Y-26.141
X-64.045 Y-26.005
X-64.125 Y-25.878
X-64.176 Y-25.821
X-64.309 Y-25.717
X-64.472 Y-25.668
X-64.641 Y-25.681
X-64.793 Y-25.755
G3 X-64.834 Y-25.802 I0.098 J-0.125
X-64.848 Y-25.921 I0.139 J-0.077
G1 X-64.467 Y-27.315
G3 X-64.211 Y-27.394 I0.153 J0.042
G1 X-64.151 Y-27.339
X-64.001 Y-27.209
X-63.888 Y-27.112
X-63.865 Y-27.093
X-63.754 Y-26.993
X-63.672 Y-26.867
X-63.618 Y-26.727
X-63.586 Y-26.581
X-63.574 Y-26.431
X-63.583 Y-26.281
X-63.609 Y-26.134
X-63.652 Y-25.99
X-63.713 Y-25.853
X-63.792 Y-25.725
X-63.888 Y-25.61
X-63.942 Y-25.563
X-64.084 Y-25.48
X-64.245 Y-25.452
X-64.406 Y-25.484
X-64.546 Y-25.571
G3 X-64.594 Y-25.751 I0.1 J-0.123
G1 X-64.11 Y-27.024
G3 X-63.865 Y-27.093 I0.148 J0.056
G1 X-63.757 Y-27.004
X-63.519 Y-26.787
X-63.413 Y-26.681
X-63.34 Y-26.55
X-63.295 Y-26.407
X-63.276 Y-26.258
X-63.278 Y-26.108
X-63.301 Y-25.96
X-63.342 Y-25.816
X-63.4 Y-25.677
X-63.475 Y-25.548
X-63.568 Y-25.43
X-63.676 Y-25.326
X-63.73 Y-25.289
X-63.879 Y-25.223
X-64.041 Y-25.212
X-64.196 Y-25.258
X-64.326 Y-25.356
G3 X-64.349 Y-25.529 I0.12 J-0.104
G1 X-63.765 Y-26.735
G3 X-63.519 Y-26.787 I0.143 J0.069
G1 X-63.406 Y-26.684
X-63.363 Y-26.639
X-63.28 Y-26.552
X-63.191 Y-26.456
X-63.095 Y-26.341
X-63.034 Y-26.204
X-63.004 Y-26.057
X-62.999 Y-25.907
X-63.016 Y-25.759
X-63.054 Y-25.613
X-63.11 Y-25.474
X-63.182 Y-25.343
X-63.271 Y-25.222
X-63.376 Y-25.115
X-63.496 Y-25.024
X-63.537 Y-25.002
X-63.686 Y-24.953
X-63.842 Y-24.957
X-63.988 Y-25.013
X-64.107 Y-25.115
G3 X-64.118 Y-25.294 I0.126 J-0.097
G1 X-63.44 Y-26.426
G3 X-63.191 Y-26.456 I0.136 J0.081
G1 X-63.037 Y-26.289
X-62.968 Y-26.214
X-62.895 Y-26.129
X-62.803 Y-26.01
X-62.755 Y-25.868
X-62.737 Y-25.719
X-62.745 Y-25.57
X-62.775 Y-25.423
X-62.825 Y-25.281
X-62.891 Y-25.146
X-62.973 Y-25.021
X-63.071 Y-24.907
X-63.184 Y-24.808
X-63.31 Y-24.727
X-63.351 Y-24.709
X-63.499 Y-24.672
X-63.652 Y-24.686
X-63.791 Y-24.749
X-63.902 Y-24.854
G3 Y-25.037 I0.13 J-0.091
G1 X-63.141 Y-26.113
G3 X-62.895 Y-26.129 I0.13 J0.092
G1 X-62.808 Y-26.027
X-62.641 Y-25.828
X-62.551 Y-25.708
X-62.506 Y-25.565
X-62.493 Y-25.415
X-62.506 Y-25.266
X-62.54 Y-25.12
X-62.594 Y-24.98
X-62.665 Y-24.848
X-62.752 Y-24.725
X-62.853 Y-24.615
X-62.969 Y-24.519
X-63.096 Y-24.44
X-63.154 Y-24.417
X-63.305 Y-24.383
X-63.459 Y-24.402
X-63.597 Y-24.471
X-63.706 Y-24.581
G3 X-63.698 Y-24.764 I0.134 J-0.086
G1 X-62.885 Y-25.819
G3 X-62.641 Y-25.828 I0.126 J0.097
G1 X-62.574 Y-25.747
X-62.406 Y-25.539
X-62.319 Y-25.417
X-62.272 Y-25.274
X-62.259 Y-25.125
X-62.273 Y-24.975
X-62.31 Y-24.83
X-62.365 Y-24.69
X-62.438 Y-24.559
X-62.527 Y-24.438
X-62.629 Y-24.328
X-62.745 Y-24.234
X-62.873 Y-24.154
X-63.011 Y-24.097
X-63.152 Y-24.084
X-63.291 Y-24.115
X-63.413 Y-24.186
X-63.508 Y-24.291
G3 X-63.496 Y-24.472 I0.136 J-0.082
G1 X-62.651 Y-25.534
G3 X-62.406 Y-25.539 I0.124 J0.099
G1 X-62.273 Y-25.37
X-62.172 Y-25.238
X-62.087 Y-25.115
X-62.043 Y-24.972
X-62.032 Y-24.822
X-62.049 Y-24.673
X-62.088 Y-24.528
X-62.146 Y-24.39
X-62.221 Y-24.26
X-62.312 Y-24.14
X-62.415 Y-24.032
X-62.531 Y-23.936
X-62.659 Y-23.857
X-62.796 Y-23.797
X-62.813 Y-23.793
X-62.954 Y-23.781
X-63.092 Y-23.811
X-63.214 Y-23.882
X-63.308 Y-23.987
X-63.526 Y-24.319
X-63.626 Y-24.465
X-63.797 Y-24.713
X-63.894 Y-24.844
X-63.993 Y-24.976
X-64.151 Y-25.168
X-64.414 Y-25.45
X-64.546 Y-25.571
X-64.627 Y-25.632
X-64.808 Y-25.766
X-64.94 Y-25.841
X-65.04 Y-25.892
G3 X-64.913 Y-26.181 I0.077 J-0.139
G1 X-62.244 Y-25.288
G3 X-62.172 Y-25.238 I-0.05 J0.151
G1 X-61.941 Y-24.935
X-61.858 Y-24.811
X-61.817 Y-24.667
X-61.809 Y-24.517
X-61.829 Y-24.368
X-61.87 Y-24.224
X-61.93 Y-24.087
X-62.007 Y-23.957
X-62.098 Y-23.838
X-62.202 Y-23.731
X-62.318 Y-23.635
X-62.445 Y-23.556
X-62.582 Y-23.495
X-62.606 Y-23.489
X-62.746 Y-23.475
X-62.883 Y-23.505
X-63.006 Y-23.574
X-63.101 Y-23.677
G3 X-63.088 Y-23.864 I0.135 J-0.084
G1 X-62.187 Y-24.938
G3 X-61.941 Y-24.935 I0.122 J0.102
G1 X-61.7 Y-24.608
X-61.618 Y-24.483
X-61.587 Y-24.336
X-61.588 Y-24.186
X-61.614 Y-24.038
X-61.661 Y-23.896
X-61.726 Y-23.76
X-61.806 Y-23.633
X-61.9 Y-23.516
X-62.006 Y-23.411
X-62.124 Y-23.318
X-62.253 Y-23.242
X-62.391 Y-23.184
X-62.403 Y-23.181
X-62.585 Y-23.175
X-62.755 Y-23.239
X-62.887 Y-23.365
X-63.1 Y-23.675
X-63.231 Y-23.87
X-63.308 Y-23.987
G3 X-63.222 Y-24.221 I0.136 J-0.082
G1 X-61.874 Y-24.66
G3 X-61.7 Y-24.608 I0.049 J0.151
G1 X-61.585 Y-24.45
X-61.491 Y-24.319
X-61.411 Y-24.192
X-61.375 Y-24.046
X-61.372 Y-23.896
X-61.396 Y-23.748
X-61.441 Y-23.605
X-61.504 Y-23.469
X-61.583 Y-23.341
X-61.676 Y-23.224
X-61.782 Y-23.117
X-61.898 Y-23.022
X-62.026 Y-22.944
X-62.163 Y-22.884
X-62.179 Y-22.88
X-62.318 Y-22.865
X-62.455 Y-22.892
X-62.578 Y-22.96
X-62.674 Y-23.061
G3 X-62.662 Y-23.251 I0.133 J-0.087
G1 X-61.738 Y-24.326
G3 X-61.491 Y-24.319 I0.12 J0.103
G1 X-61.28 Y-24.02
X-61.201 Y-23.892
X-61.163 Y-23.747
X-61.159 Y-23.597
X-61.181 Y-23.449
X-61.226 Y-23.306
X-61.288 Y-23.17
X-61.366 Y-23.042
X-61.459 Y-22.923
X-61.564 Y-22.816
X-61.68 Y-22.721
X-61.808 Y-22.642
X-61.944 Y-22.581
X-61.963 Y-22.576
X-62.148 Y-22.565
X-62.321 Y-22.628
X-62.456 Y-22.754
X-62.635 Y-23.005
X-62.887 Y-23.365
G3 X-62.806 Y-23.601 I0.133 J-0.086
G1 X-61.46 Y-24.075
G3 X-61.28 Y-24.02 I0.053 J0.15
G1 X-61.052 Y-23.688
X-60.973 Y-23.56
X-60.944 Y-23.413
X-60.947 Y-23.263
X-60.975 Y-23.116
X-61.023 Y-22.974
X-61.089 Y-22.839
X-61.17 Y-22.713
X-61.265 Y-22.597
X-61.373 Y-22.492
X-61.491 Y-22.399
X-61.621 Y-22.325
X-61.76 Y-22.268
X-61.938 Y-22.263
X-62.105 Y-22.325
X-62.235 Y-22.446
X-62.354 Y-22.61
X-62.456 Y-22.754
G3 X-62.411 Y-22.974 I0.132 J-0.088
G1 X-61.267 Y-23.727
G3 X-61.052 Y-23.688 I0.087 J0.133
G1 X-60.945 Y-23.53
X-60.831 Y-23.359
X-60.754 Y-23.23
X-60.73 Y-23.082
X-60.738 Y-22.932
X-60.769 Y-22.786
X-60.821 Y-22.645
X-60.89 Y-22.512
X-60.973 Y-22.387
X-61.071 Y-22.273
X-61.18 Y-22.17
X-61.3 Y-22.08
X-61.432 Y-22.009
X-61.484 Y-21.99
X-61.63 Y-21.96
X-61.778 Y-21.979
X-61.913 Y-22.044
X-62.019 Y-22.149
G3 X-62.005 Y-22.344 I0.131 J-0.089
G1 X-61.078 Y-23.373
G3 X-60.831 Y-23.359 I0.118 J0.106
G1 X-60.682 Y-23.136
X-60.638 Y-23.069
X-60.563 Y-22.939
X-60.53 Y-22.793
X-60.531 Y-22.643
X-60.558 Y-22.495
X-60.607 Y-22.353
X-60.673 Y-22.219
X-60.755 Y-22.093
X-60.851 Y-21.978
X-60.96 Y-21.874
X-61.081 Y-21.785
X-61.211 Y-21.712
X-61.27 Y-21.69
X-61.415 Y-21.662
X-61.561 Y-21.682
X-61.694 Y-21.746
X-61.799 Y-21.85
X-62.068 Y-22.216
X-62.235 Y-22.446
G3 X-62.154 Y-22.686 I0.132 J-0.089
G1 X-60.818 Y-23.128
G3 X-60.638 Y-23.069 I0.05 J0.151
G1 X-60.426 Y-22.742
X-60.352 Y-22.611
X-60.324 Y-22.464
X-60.328 Y-22.314
X-60.358 Y-22.167
X-60.41 Y-22.026
X-60.479 Y-21.893
X-60.563 Y-21.769
X-60.661 Y-21.656
X-60.772 Y-21.554
X-60.895 Y-21.469
X-61.028 Y-21.4
X-61.064 Y-21.388
X-61.206 Y-21.365
X-61.347 Y-21.387
X-61.475 Y-21.45
X-61.577 Y-21.55
G3 X-61.566 Y-21.746 I0.13 J-0.09
G1 X-60.675 Y-22.756
G3 X-60.426 Y-22.742 I0.119 J0.105
G1 X-60.231 Y-22.435
X-60.158 Y-22.304
X-60.125 Y-22.158
X-60.128 Y-22.008
X-60.157 Y-21.86
X-60.207 Y-21.719
X-60.276 Y-21.586
X-60.361 Y-21.462
X-60.46 Y-21.349
X-60.571 Y-21.249
X-60.695 Y-21.165
X-60.829 Y-21.097
X-60.851 Y-21.09
X-60.99 Y-21.07
X-61.129 Y-21.092
X-61.255 Y-21.155
X-61.355 Y-21.253
G3 X-61.345 Y-21.448 I0.13 J-0.091
G1 X-60.483 Y-22.449
G3 X-60.231 Y-22.435 I0.12 J0.104
G1 X-60.043 Y-22.13
X-60.027 Y-22.105
X-59.955 Y-21.974
X-59.927 Y-21.826
X-59.933 Y-21.677
X-59.965 Y-21.53
X-60.018 Y-21.39
X-60.09 Y-21.258
X-60.177 Y-21.136
X-60.279 Y-21.026
X-60.393 Y-20.928
X-60.52 Y-20.848
X-60.582 Y-20.82
X-60.731 Y-20.782
X-60.884 Y-20.795
X-61.025 Y-20.858
X-61.136 Y-20.964
G3 X-61.126 Y-21.16 I0.13 J-0.091
G1 X-60.279 Y-22.122
G3 X-60.027 Y-22.105 I0.119 J0.105
G1 X-59.832 Y-21.786
X-59.761 Y-21.654
X-59.733 Y-21.507
X-59.739 Y-21.357
X-59.773 Y-21.211
X-59.828 Y-21.071
X-59.9 Y-20.94
X-59.99 Y-20.819
X-60.093 Y-20.711
X-60.211 Y-20.618
X-60.34 Y-20.542
X-60.385 Y-20.524
X-60.53 Y-20.494
X-60.677 Y-20.511
X-60.81 Y-20.573
X-60.918 Y-20.675
X-61.391 Y-21.301
X-61.799 Y-21.85
G3 X-61.646 Y-22.096 I0.131 J-0.09
G1 X-59.942 Y-21.857
G3 X-59.832 Y-21.786 I-0.022 J0.157
G1 X-59.683 Y-21.536
X-59.631 Y-21.45
X-59.562 Y-21.317
X-59.54 Y-21.169
X-59.552 Y-21.019
X-59.59 Y-20.874
X-59.649 Y-20.736
X-59.726 Y-20.608
X-59.82 Y-20.49
X-59.928 Y-20.386
X-60.05 Y-20.299
X-60.183 Y-20.231
X-60.191 Y-20.228
X-60.33 Y-20.206
X-60.469 Y-20.227
X-60.595 Y-20.289
X-60.697 Y-20.387
G3 X-60.685 Y-20.585 I0.129 J-0.092
G1 X-59.883 Y-21.471
G3 X-59.631 Y-21.45 I0.118 J0.107
G1 X-59.441 Y-21.121
X-59.372 Y-20.987
X-59.354 Y-20.838
X-59.369 Y-20.689
X-59.41 Y-20.545
X-59.473 Y-20.409
X-59.554 Y-20.282
X-59.651 Y-20.168
X-59.763 Y-20.068
X-59.888 Y-19.986
X-59.932 Y-19.967
X-60.079 Y-19.93
X-60.231 Y-19.942
X-60.37 Y-20.004
X-60.481 Y-20.107
G3 X-60.469 Y-20.307 I0.129 J-0.093
G1 X-59.692 Y-21.145
G3 X-59.441 Y-21.121 I0.116 J0.108
G1 X-59.315 Y-20.902
X-59.263 Y-20.808
X-59.196 Y-20.674
X-59.175 Y-20.525
X-59.189 Y-20.376
X-59.231 Y-20.232
X-59.295 Y-20.096
X-59.378 Y-19.971
X-59.478 Y-19.859
X-59.594 Y-19.764
X-59.723 Y-19.688
X-59.74 Y-19.682
X-59.882 Y-19.652
X-60.027 Y-19.669
X-60.159 Y-19.73
X-60.266 Y-19.829
G3 X-60.254 Y-20.03 I0.128 J-0.093
G1 X-59.516 Y-20.833
G3 X-59.263 Y-20.808 I0.117 J0.107
G1 X-59.096 Y-20.508
X-59.074 Y-20.469
X-59.01 Y-20.333
X-58.997 Y-20.184
X-59.019 Y-20.035
X-59.067 Y-19.893
X-59.138 Y-19.761
X-59.227 Y-19.64
X-59.333 Y-19.535
X-59.455 Y-19.448
X-59.496 Y-19.428
X-59.645 Y-19.386
X-59.799 Y-19.396
X-59.941 Y-19.456
X-60.056 Y-19.56
G3 X-60.041 Y-19.765 I0.128 J-0.094
G1 X-59.325 Y-20.499
G3 X-59.074 Y-20.469 I0.114 J0.111
G1 X-58.906 Y-20.156
X-58.842 Y-20.021
X-58.828 Y-19.872
X-58.85 Y-19.723
X-58.9 Y-19.582
X-58.973 Y-19.451
X-59.067 Y-19.333
X-59.179 Y-19.234
X-59.306 Y-19.154
X-59.312 Y-19.151
X-59.456 Y-19.119
X-59.602 Y-19.134
X-59.737 Y-19.194
X-59.845 Y-19.293
G3 X-59.831 Y-19.498 I0.128 J-0.094
G1 X-59.157 Y-20.187
G3 X-58.906 Y-20.156 I0.113 J0.111
G1 X-58.883 Y-20.114
X-58.727 Y-19.811
X-58.665 Y-19.675
X-58.664 Y-19.525
X-58.697 Y-19.378
X-58.757 Y-19.241
X-58.839 Y-19.115
X-58.942 Y-19.007
X-59.062 Y-18.917
X-59.085 Y-18.907
X-59.232 Y-18.865
X-59.385 Y-18.874
X-59.527 Y-18.933
X-59.641 Y-19.036
G3 X-59.622 Y-19.246 I0.127 J-0.095
G1 X-58.973 Y-19.85
G3 X-58.727 Y-19.811 I0.108 J0.116
G1 X-58.631 Y-19.624
X-58.578 Y-19.516
X-58.519 Y-19.378
X-58.512 Y-19.228
X-58.544 Y-19.082
X-58.605 Y-18.945
X-58.691 Y-18.822
X-58.799 Y-18.718
X-58.838 Y-18.693
X-58.993 Y-18.629
X-59.161 Y-18.626
X-59.319 Y-18.682
X-59.447 Y-18.792
G3 X-59.427 Y-19.004 I0.127 J-0.095
G1 X-58.825 Y-19.558
G3 X-58.578 Y-19.516 I0.108 J0.117
G1 X-58.484 Y-19.325
X-58.435 Y-19.221
X-58.377 Y-19.082
X-58.369 Y-18.932
X-58.403 Y-18.786
X-58.468 Y-18.651
X-58.562 Y-18.534
X-58.678 Y-18.438
X-58.681 Y-18.437
X-58.831 Y-18.387
X-58.989 Y-18.392
X-59.136 Y-18.449
X-59.255 Y-18.553
G3 X-59.234 Y-18.767 I0.127 J-0.096
G1 X-58.682 Y-19.266
G3 X-58.435 Y-19.221 I0.106 J0.118
G1 X-58.284 Y-18.891
X-58.229 Y-18.752
X-58.237 Y-18.602
X-58.284 Y-18.46
X-58.366 Y-18.334
X-58.472 Y-18.229
X-58.478 Y-18.225
X-58.631 Y-18.167
X-58.795 Y-18.166
X-58.948 Y-18.223
X-59.073 Y-18.329
G3 X-59.042 Y-18.551 I0.127 J-0.096
G1 X-58.522 Y-18.947
G3 X-58.284 Y-18.891 I0.096 J0.126
G1 X-58.237 Y-18.788
X-58.155 Y-18.601
X-58.102 Y-18.46
X-58.117 Y-18.311
X-58.172 Y-18.172
X-58.265 Y-18.054
X-58.27 Y-18.049
X-58.427 Y-17.972
X-58.602 Y-17.958
X-58.77 Y-18.012
X-58.905 Y-18.123
G3 X-58.865 Y-18.353 I0.126 J-0.096
G1 X-58.385 Y-18.666
G3 X-58.155 Y-18.601 I0.087 J0.133
G1 X-58.07 Y-18.406
X-58.04 Y-18.333
X-57.988 Y-18.192
X-58.005 Y-18.043
X-58.008 Y-18.038
X-58.121 Y-17.898
X-58.28 Y-17.812
X-58.459 Y-17.794
X-58.631 Y-17.846
X-58.771 Y-17.96
G3 X-58.71 Y-18.201 I0.126 J-0.096
G1 X-58.25 Y-18.411
G3 X-58.04 Y-18.333 I0.066 J0.144
G1 X-58.015 Y-18.274
X-57.945 Y-18.103
X-57.92 Y-18.032
X-57.912 Y-17.883
X-57.974 Y-17.746
X-58.124 Y-17.647
X-58.301 Y-17.617
X-58.474 Y-17.662
X-58.615 Y-17.773
G3 X-58.551 Y-18.016 I0.125 J-0.097
G1 X-58.151 Y-18.184
G3 X-57.945 Y-18.103 I0.062 J0.146
G1 X-57.854 Y-17.88
X-57.831 Y-17.809
X-57.839 Y-17.659
X-57.936 Y-17.547
X-58.067 Y-17.479
X-58.215 Y-17.465
X-58.356 Y-17.508
X-58.471 Y-17.601
G3 X-58.397 Y-17.85 I0.125 J-0.098
G1 X-58.05 Y-17.966
G3 X-57.854 Y-17.88 I0.05 J0.151
G1 X-57.779 Y-17.681
X-57.756 Y-17.61
X-57.78 Y-17.462
X-57.899 Y-17.357
X-58.052 Y-17.315
X-58.208 Y-17.345
X-58.335 Y-17.44
G3 X-58.368 Y-17.515 I0.128 J-0.1
X-57.779 Y-17.681 I0.305 J-0.047
G1 X-57.711 Y-17.501
X-57.688 Y-17.43
X-57.716 Y-17.282
X-57.823 Y-17.199
X-57.956 Y-17.168
X-58.089 Y-17.196
X-58.197 Y-17.277
G3 X-58.226 Y-17.332 I0.122 J-0.098
X-58.229 Y-17.346 I0.15 J-0.043
X-57.711 Y-17.501 I0.267 J-0.05
G1 X-57.645 Y-17.315
X-57.635 Y-17.279
X-57.643 Y-17.204
X-57.726 Y-17.104
X-57.847 Y-17.056
X-57.977 Y-17.071
X-58.083 Y-17.146
G3 X-58.109 Y-17.202 I0.094 J-0.076
X-58.11 Y-17.215 I0.119 J-0.02
X-57.645 Y-17.315 I0.24 J-0.013
G1 X-57.613 Y-17.223
X-57.592 Y-17.151
X-57.602 Y-17.077
X-57.674 Y-16.991
X-57.778 Y-16.95
X-57.888 Y-16.963
X-57.98 Y-17.026
G3 X-58.01 Y-17.081 I0.136 J-0.11
G1 X-58.011 Y-17.085
G3 X-57.613 Y-17.223 I0.201 J-0.063
G1 X-57.568 Y-17.092
X-57.556 Y-17.055
X-57.546 Y-17.026
X-57.539 Y-17
X-57.599 Y-16.91
X-57.697 Y-16.862
X-57.805 Y-16.869
X-57.896 Y-16.93
G3 X-57.912 Y-17.016 I0.072 J-0.058
X-57.546 Y-17.026 I0.185 J0.059
G1 X-57.536 Y-16.993
X-57.533 Y-16.977
X-57.532 Y-16.96
Y-16.946
X-57.534 Y-16.931
X-57.537 Y-16.917
X-57.542 Y-16.902
X-57.548 Y-16.887
X-57.556 Y-16.873
X-57.566 Y-16.858
X-57.58 Y-16.844
X-57.597 Y-16.829
X-57.612 Y-16.82
X-57.626 Y-16.813
X-57.64 Y-16.807
X-57.654 Y-16.803
X-57.669 Y-16.8
X-57.683 Y-16.799
X-57.711
X-57.734 Y-16.801
X-57.757 Y-16.806
X-57.779 Y-16.815
X-57.802 Y-16.829
X-57.822 Y-16.846
X-58.151 Y-17.223
X-58.264 Y-17.354
X-58.631 Y-17.792
X-58.813 Y-18.011
X-59.157 Y-18.433
X-59.347 Y-18.668
X-59.683 Y-19.088
X-60.078 Y-19.588
X-60.385 Y-19.982
X-60.734 Y-20.435
X-60.918 Y-20.675
G3 X-60.943 Y-20.731 I0.13 J-0.092
G1 X-60.954 Y-20.779 Z-2.992
X-60.963 Y-20.822 Z-2.97
X-60.971 Y-20.857 Z-2.935
X-60.976 Y-20.879 Z-2.89
X-60.978 Y-20.886 Z-2.841
G0 Z5
X-67.546 Y-31.492
Z-2.682
G1 Z-2.841 F849.6
X-67.553 Y-31.488 Z-2.89
X-67.571 Y-31.475 Z-2.935
X-67.601 Y-31.456 Z-2.97
X-67.637 Y-31.431 Z-2.992
X-67.678 Y-31.403 Z-3
G3 X-67.721 Y-31.448 I-0.018 J-0.026
G1 X-67.7 Y-31.476
X-67.659 Y-31.545
X-67.586 Y-31.677
X-67.513 Y-31.808
X-67.391 Y-31.896
X-67.254 Y-31.956
X-67.108 Y-31.993
X-66.96 Y-32.012
X-66.81 Y-32.015
X-66.66 Y-32.004
X-66.512 Y-31.983
X-66.419 Y-31.962
X-66.288 Y-31.912
X-66.179 Y-31.825
X-66.1 Y-31.709
G3 X-66.243 Y-31.488 I-0.146 J0.063
G1 X-67.433 Y-31.463
G3 X-67.586 Y-31.677 I-0.003 J-0.159
G1 X-67.532 Y-31.808
X-67.502 Y-31.913
X-67.455 Y-32.055
X-67.35 Y-32.163
X-67.224 Y-32.243
X-67.085 Y-32.302
X-66.94 Y-32.34
X-66.792 Y-32.362
X-66.723 Y-32.364
X-66.553 Y-32.337
X-66.406 Y-32.249
X-66.3 Y-32.114
G3 X-66.414 Y-31.89 I-0.144 J0.067
G1 X-67.319 Y-31.719
G3 X-67.502 Y-31.913 I-0.029 J-0.156
G1 X-67.495 Y-31.94
X-67.466 Y-32.071
X-67.46 Y-32.143
X-67.44 Y-32.292
X-67.358 Y-32.418
X-67.248 Y-32.519
X-67.12 Y-32.598
X-66.98 Y-32.652
X-66.97 Y-32.654
X-66.824 Y-32.662
X-66.684 Y-32.625
X-66.562 Y-32.545
X-66.471 Y-32.431
G3 X-66.454 Y-32.372 I-0.141 J0.073
X-66.563 Y-32.207 I-0.158 J0.014
G1 X-67.253 Y-31.985
G3 X-67.46 Y-32.143 I-0.049 J-0.151
G1 X-67.455 Y-32.202
X-67.453 Y-32.334
X-67.456 Y-32.401
X-67.455 Y-32.551
X-67.389 Y-32.686
X-67.29 Y-32.799
X-67.262 Y-32.817
X-67.124 Y-32.881
X-66.974 Y-32.896
X-66.826 Y-32.862
X-66.698 Y-32.781
X-66.603 Y-32.663
G3 X-66.695 Y-32.439 I-0.141 J0.073
G1 X-67.249 Y-32.262
G3 X-67.456 Y-32.401 I-0.048 J-0.151
G1 X-67.459 Y-32.465
X-67.479 Y-32.597
X-67.487 Y-32.636
X-67.498 Y-32.711
X-67.48 Y-32.86
X-67.402 Y-32.988
X-67.269 Y-33.066
X-67.117 Y-33.094
X-66.964 Y-33.069
X-66.829 Y-32.993
X-66.727 Y-32.877
G3 X-66.708 Y-32.818 I-0.139 J0.077
X-66.824 Y-32.646 I-0.158 J0.018
G1 X-67.291 Y-32.519
G3 X-67.487 Y-32.636 I-0.042 J-0.153
G1 X-67.505 Y-32.728
X-67.541 Y-32.859
X-67.56 Y-32.932
X-67.54 Y-33.081
X-67.423 Y-33.195
X-67.271 Y-33.255
X-67.107 Y-33.252
X-66.957 Y-33.186
X-66.844 Y-33.067
G3 X-66.953 Y-32.831 I-0.137 J0.08
G1 X-67.363 Y-32.757
G3 X-67.541 Y-32.859 I-0.028 J-0.156
G1 X-67.582 Y-32.991
X-67.596 Y-33.031
X-67.616 Y-33.103
X-67.606 Y-33.252
X-67.5 Y-33.359
X-67.362 Y-33.417
X-67.212 Y-33.418
X-67.073 Y-33.362
X-66.966 Y-33.257
G3 X-67.062 Y-33.018 I-0.134 J0.085
G1 X-67.409 Y-32.932
G3 X-67.596 Y-33.031 I-0.038 J-0.154
G1 X-67.627 Y-33.122
X-67.667 Y-33.227
X-67.691 Y-33.298
X-67.661 Y-33.445
X-67.56 Y-33.534
X-67.434 Y-33.579
X-67.3 Y-33.575
X-67.176 Y-33.521
X-67.081 Y-33.427
G3 X-67.058 Y-33.336 I-0.131 J0.083
X-67.637 Y-33.172 I-0.317 J-0.015
X-67.667 Y-33.227 I0.262 J-0.179
G1 X-67.728 Y-33.385
X-67.752 Y-33.456
X-67.742 Y-33.531
X-67.681 Y-33.668
X-67.562 Y-33.732
X-67.427 Y-33.742
X-67.3 Y-33.697
X-67.202 Y-33.603
G3 X-67.183 Y-33.555 I-0.121 J0.077
X-67.728 Y-33.385 I-0.281 J0.058
G1 X-67.779 Y-33.516
X-67.795 Y-33.555
X-67.82 Y-33.626
X-67.808 Y-33.7
X-67.74 Y-33.796
X-67.639 Y-33.857
X-67.521 Y-33.872
X-67.408 Y-33.838
X-67.318 Y-33.761
G3 X-67.295 Y-33.706 I-0.107 J0.076
X-67.795 Y-33.555 I-0.26 J0.042
G1 X-67.849 Y-33.688
X-67.875 Y-33.758
X-67.864 Y-33.832
X-67.78 Y-33.938
X-67.655 Y-33.988
X-67.522 Y-33.969
X-67.415 Y-33.887
G3 X-67.396 Y-33.845 I-0.1 J0.072
X-67.392 Y-33.83 I-0.234 J0.058
X-67.849 Y-33.688 I-0.237 J0.043
G1 X-67.904 Y-33.819
X-67.929 Y-33.89
X-67.917 Y-33.964
X-67.837 Y-34.056
X-67.723 Y-34.099
X-67.602 Y-34.08
X-67.506 Y-34.006
G3 X-67.488 Y-33.967 I-0.096 J0.069
X-67.484 Y-33.948 I-0.214 J0.056
X-67.904 Y-33.819 I-0.218 J0.037
G1 X-67.953 Y-33.939
X-67.979 Y-34.009
X-67.967 Y-34.083
X-67.896 Y-34.165
X-67.795 Y-34.203
X-67.687 Y-34.188
X-67.6 Y-34.124
G3 X-67.578 Y-34.083 I-0.106 J0.082
X-67.574 Y-34.068 I-0.192 J0.061
X-67.953 Y-33.939 I-0.196 J0.046
G1 X-68.01 Y-34.078
X-68.022 Y-34.108
X-68.027 Y-34.124
X-68.03 Y-34.151
X-68.031 Y-34.173
G3 X-67.826 Y-34.14 I0.102 J0.017
X-67.977 Y-34.065 I-0.102 J-0.017
X-68.027 Y-34.124 I0.049 J-0.092
G1 X-68.03 Y-34.141
X-68.031 Y-34.157
Y-34.173
X-68.029 Y-34.188
X-68.025 Y-34.203
X-68.02 Y-34.218
X-68.006 Y-34.246
G3 X-67.855 Y-34.268 I0.085 J0.054
X-67.856 Y-34.115 I-0.066 J0.076
G1 X-67.859 Y-34.113
G3 X-68.019 Y-34.157 I-0.065 J-0.077
X-68.02 Y-34.218 I0.095 J-0.033
G1 X-68.013 Y-34.233
X-68.005 Y-34.248
X-67.994 Y-34.263
X-67.963 Y-34.293
X-67.949 Y-34.305
X-67.934 Y-34.314
X-67.919 Y-34.322
X-67.905 Y-34.328
X-67.89 Y-34.332
X-67.875 Y-34.334
X-67.861 Y-34.336
X-67.846
X-67.831 Y-34.334
X-67.814 Y-34.33
X-67.796 Y-34.325
X-67.778 Y-34.316
X-67.76 Y-34.305
X-67.744 Y-34.291
X-67.7 Y-34.243
X-67.64 Y-34.173
X-67.569 Y-34.087
X-67.306 Y-33.745
X-67.232 Y-33.648
X-66.964 Y-33.254
X-66.879 Y-33.122
X-66.78 Y-32.964
X-66.717 Y-32.859
X-66.639 Y-32.728
X-66.416 Y-32.334
X-66.346 Y-32.202
X-66.211 Y-31.94
X-66.123 Y-31.756
X-65.991 Y-31.478
X-65.962 Y-31.414
X-65.905 Y-31.283
X-65.855 Y-31.162
G3 X-65.846 Y-31.1 I-0.149 J0.055
G1 X-65.847 Y-31.051 Z-2.992
X-65.849 Y-31.007 Z-2.97
X-65.85 Y-30.972 Z-2.935
X-65.851 Y-30.95 Z-2.89
X-65.852 Y-30.942 Z-2.841
G0 Z5
X-77.677 Y-26.999
Z-2.682
G1 Z-2.841 F849.6
X-77.672 Y-26.994 Z-2.89
X-77.656 Y-26.977 Z-2.935
X-77.632 Y-26.952 Z-2.97
X-77.601 Y-26.92 Z-2.992
X-77.567 Y-26.885 Z-3
G3 X-77.603 Y-26.835 I-0.023 J0.022
G1 X-77.689 Y-26.879
X-77.952 Y-27.027
X-78.073 Y-27.115
X-78.167 Y-27.232
X-78.235 Y-27.365
X-78.28 Y-27.508
X-78.306 Y-27.656
X-78.316 Y-27.806
X-78.311 Y-27.956
X-78.293 Y-28.105
X-78.264 Y-28.252
X-78.225 Y-28.399
X-78.171 Y-28.558
X-78.099 Y-28.73
X-78.012 Y-28.906
X-77.908 Y-29.084
X-77.781 Y-29.273
X-77.63 Y-29.467
X-77.455 Y-29.664
X-77.253 Y-29.863
X-77.034 Y-30.051
X-76.784 Y-30.239
X-76.501 Y-30.425
X-76.184 Y-30.603
X-75.832 Y-30.772
X-75.444 Y-30.926
X-75.028 Y-31.061
X-74.575 Y-31.175
X-74.086 Y-31.265
X-73.582 Y-31.323
X-73.037 Y-31.349
X-72.458 Y-31.338
X-72.392 Y-31.332
X-72.309 Y-31.318
X-72.23 Y-31.288
X-72.157 Y-31.244
X-72.032 Y-31.151
X-71.85 Y-31.02
X-71.666 Y-30.888
X-71.337 Y-30.67
G3 X-71.355 Y-30.4 I-0.091 J0.13
G1 X-77.805 Y-27.027
G3 X-77.952 I-0.074 J-0.141
G1 X-78.03 Y-27.078
X-78.321 Y-27.274
X-78.346 Y-27.291
X-78.384 Y-27.318
X-78.44 Y-27.363
X-78.447 Y-27.37
G3 X-78.482 Y-27.421 I0.111 J-0.113
X-78.236 Y-27.606 I0.146 J-0.062
G1 X-78.196 Y-27.573
G3 X-78.384 Y-27.318 I-0.101 J0.123
G1 X-78.415 Y-27.341
X-78.449 Y-27.372
X-78.555 Y-27.479
X-78.61 Y-27.618
X-78.645 Y-27.764
X-78.665 Y-27.913
X-78.669 Y-28.063
X-78.661 Y-28.212
X-78.641 Y-28.361
X-78.608 Y-28.519
X-78.563 Y-28.683
X-78.505 Y-28.851
X-78.427 Y-29.034
X-78.329 Y-29.229
X-78.209 Y-29.432
X-78.073 Y-29.63
X-77.91 Y-29.837
X-77.72 Y-30.048
X-77.502 Y-30.26
X-77.253 Y-30.472
X-76.972 Y-30.68
X-76.659 Y-30.882
X-76.328 Y-31.065
X-75.953 Y-31.241
X-75.54 Y-31.403
X-75.09 Y-31.546
X-74.602 Y-31.665
X-74.087 Y-31.755
X-73.539 Y-31.815
X-73.119 Y-31.832
X-73.015 Y-31.824
X-72.915 Y-31.794
X-72.825 Y-31.741
X-72.157 Y-31.244
G3 X-72.175 Y-30.983 I-0.099 J0.124
G1 X-78.265 Y-27.356
G3 X-78.449 Y-27.372 I-0.081 J-0.136
G1 X-78.609 Y-27.52
X-78.689 Y-27.603
X-78.791 Y-27.735
X-78.873 Y-27.861
X-78.932 Y-27.999
X-78.968 Y-28.144
X-78.985 Y-28.293
X-78.986 Y-28.443
X-78.973 Y-28.593
X-78.95 Y-28.741
X-78.913 Y-28.898
X-78.86 Y-29.072
X-78.794 Y-29.247
X-78.708 Y-29.435
X-78.598 Y-29.639
X-78.463 Y-29.854
X-78.305 Y-30.07
X-78.126 Y-30.286
X-77.913 Y-30.51
X-77.664 Y-30.739
X-77.381 Y-30.967
X-77.069 Y-31.185
X-76.721 Y-31.396
X-76.337 Y-31.595
X-75.924 Y-31.776
X-75.485 Y-31.934
X-74.995 Y-32.075
X-74.469 Y-32.188
X-73.908 Y-32.271
X-73.776 Y-32.282
X-73.677 Y-32.279
X-73.58 Y-32.255
X-73.491 Y-32.211
G3 X-73.48 Y-31.958 I-0.09 J0.131
G1 X-78.568 Y-27.715
G3 X-78.791 Y-27.735 I-0.102 J-0.122
G1 X-78.872 Y-27.846
X-78.884 Y-27.866
X-78.956 Y-27.998
X-79.093 Y-28.26
X-79.163 Y-28.432
X-79.214 Y-28.573
X-79.241 Y-28.72
X-79.248 Y-28.87
X-79.238 Y-29.02
X-79.215 Y-29.168
X-79.18 Y-29.314
X-79.13 Y-29.475
X-79.067 Y-29.641
X-78.979 Y-29.83
X-78.867 Y-30.034
X-78.74 Y-30.234
X-78.58 Y-30.452
X-78.384 Y-30.685
X-78.151 Y-30.926
X-77.884 Y-31.169
X-77.594 Y-31.4
X-77.267 Y-31.626
X-76.896 Y-31.849
X-76.488 Y-32.057
X-76.047 Y-32.247
X-75.564 Y-32.418
X-75.041 Y-32.565
X-74.482 Y-32.682
X-74.383 Y-32.685
X-74.286 Y-32.667
X-74.195 Y-32.629
G3 X-74.174 Y-32.372 I-0.081 J0.136
G1 X-78.917 Y-28.376
G3 X-79.163 Y-28.432 I-0.102 J-0.121
G1 X-79.266 Y-28.681
X-79.304 Y-28.786
X-79.349 Y-28.917
X-79.397 Y-29.087
X-79.411 Y-29.138
X-79.423 Y-29.18
X-79.444 Y-29.329
X-79.446 Y-29.479
X-79.429 Y-29.628
X-79.399 Y-29.775
X-79.356 Y-29.918
X-79.301 Y-30.065
X-79.226 Y-30.231
X-79.126 Y-30.42
X-79.009 Y-30.608
X-78.854 Y-30.824
X-78.66 Y-31.06
X-78.437 Y-31.296
X-78.187 Y-31.529
X-77.891 Y-31.77
X-77.548 Y-32.013
X-77.162 Y-32.25
X-76.737 Y-32.473
X-76.271 Y-32.68
X-75.764 Y-32.866
X-75.29 Y-33.005
X-75.194 Y-33.022
X-75.096 Y-33.019
X-75.001 Y-32.995
G3 X-74.958 Y-32.727 I-0.06 J0.147
G1 X-79.168 Y-29.107
G3 X-79.423 Y-29.18 I-0.104 J-0.12
G1 X-79.499 Y-29.574
X-79.512 Y-29.706
X-79.524 Y-29.969
X-79.527 Y-30.1
X-79.499 Y-30.309
X-79.469 Y-30.456
X-79.424 Y-30.599
X-79.367 Y-30.737
X-79.295 Y-30.883
X-79.196 Y-31.052
X-79.08 Y-31.225
X-78.923 Y-31.427
X-78.733 Y-31.641
X-78.513 Y-31.858
X-78.235 Y-32.098
X-77.903 Y-32.348
X-77.523 Y-32.597
X-77.096 Y-32.837
X-76.643 Y-33.054
X-76.247 Y-33.212
X-76.171 Y-33.235
X-76.092 Y-33.245
X-76.013 Y-33.241
G3 X-75.935 Y-32.966 I-0.027 J0.156
G1 X-79.263 Y-29.991
G3 X-79.511 Y-30.04 I-0.106 J-0.118
X-79.527 Y-30.1 I0.143 J-0.069
G1 X-79.516 Y-30.231
X-79.501 Y-30.363
X-79.477 Y-30.494
X-79.444 Y-30.626
X-79.361 Y-30.888
X-79.31 Y-31.02
X-79.101 Y-31.414
X-79.019 Y-31.545
X-78.929 Y-31.677
X-78.872 Y-31.757
X-78.74 Y-31.926
X-78.477 Y-32.221
X-78.368 Y-32.334
X-78.346 Y-32.355
X-78.214 Y-32.472
X-78.07 Y-32.597
X-77.952 Y-32.694
X-77.82 Y-32.786
X-77.708 Y-32.859
X-77.557 Y-32.947
X-77.473 Y-32.991
X-77.294 Y-33.074
X-77.16 Y-33.122
X-77.032 Y-33.164
X-76.588 Y-33.249
X-76.572 Y-33.25
X-76.243 Y-33.254
X-76.112
X-75.717 Y-33.199
X-75.586 Y-33.171
X-75.323 Y-33.102
X-75.192 Y-33.065
X-74.797 Y-32.919
X-74.658 Y-32.859
X-74.403 Y-32.737
X-74.272 Y-32.671
X-73.877 Y-32.454
X-73.746 Y-32.374
X-73.478 Y-32.202
X-73.352 Y-32.118
X-73.089 Y-31.936
X-72.915 Y-31.808
X-72.825 Y-31.741
X-72.81 Y-31.723 Z-2.995
X-72.797 Y-31.707 Z-2.982
X-72.788 Y-31.697 Z-2.961
X-72.785 Y-31.694 Z-2.938
G0 Z5
X-31.415 Y-25.923
Z2.709
G1 Z2.55 F849.6
G3 X-29.966 Y-26.341 Z2.467 I0.725 J-0.209 F283.2
X-31.415 Y-25.923 Z2.385 I-0.725 J0.209
X-29.966 Y-26.341 Z2.302 I0.725 J-0.209
X-31.415 Y-25.923 Z2.219 I-0.725 J0.209
X-29.966 Y-26.341 Z2.136 I0.725 J-0.209
X-31.415 Y-25.923 Z2.054 I-0.725 J0.209
X-29.966 Y-26.341 Z1.971 I0.725 J-0.209
X-31.415 Y-25.923 Z1.888 I-0.725 J0.209
X-29.966 Y-26.341 Z1.805 I0.725 J-0.209
X-31.415 Y-25.923 Z1.723 I-0.725 J0.209
X-29.966 Y-26.341 Z1.64 I0.725 J-0.209
X-31.415 Y-25.923 Z1.557 I-0.725 J0.209
X-29.966 Y-26.341 Z1.475 I0.725 J-0.209
X-31.415 Y-25.923 Z1.392 I-0.725 J0.209
X-29.966 Y-26.341 Z1.309 I0.725 J-0.209
X-31.415 Y-25.923 Z1.226 I-0.725 J0.209
X-29.966 Y-26.341 Z1.144 I0.725 J-0.209
X-31.415 Y-25.923 Z1.061 I-0.725 J0.209
X-29.966 Y-26.341 Z0.978 I0.725 J-0.209
X-31.415 Y-25.923 Z0.895 I-0.725 J0.209
X-29.966 Y-26.341 Z0.813 I0.725 J-0.209
X-31.415 Y-25.923 Z0.73 I-0.725 J0.209
X-29.966 Y-26.341 Z0.647 I0.725 J-0.209
X-31.415 Y-25.923 Z0.565 I-0.725 J0.209
X-29.966 Y-26.341 Z0.482 I0.725 J-0.209
X-31.415 Y-25.923 Z0.399 I-0.725 J0.209
X-29.966 Y-26.341 Z0.316 I0.725 J-0.209
X-31.415 Y-25.923 Z0.234 I-0.725 J0.209
X-29.966 Y-26.341 Z0.151 I0.725 J-0.209
X-31.415 Y-25.923 Z0.068 I-0.725 J0.209
X-29.966 Y-26.341 Z-0.014 I0.725 J-0.209
X-31.415 Y-25.923 Z-0.097 I-0.725 J0.209
X-29.966 Y-26.341 Z-0.18 I0.725 J-0.209
X-31.415 Y-25.923 Z-0.263 I-0.725 J0.209
X-29.966 Y-26.341 Z-0.345 I0.725 J-0.209
X-31.415 Y-25.923 Z-0.428 I-0.725 J0.209
X-29.966 Y-26.341 Z-0.511 I0.725 J-0.209
X-31.415 Y-25.923 Z-0.594 I-0.725 J0.209
X-29.966 Y-26.341 Z-0.676 I0.725 J-0.209
X-31.415 Y-25.923 Z-0.759 I-0.725 J0.209
X-29.966 Y-26.341 Z-0.842 I0.725 J-0.209
X-31.415 Y-25.923 Z-0.924 I-0.725 J0.209
X-29.966 Y-26.341 Z-1.007 I0.725 J-0.209
X-31.415 Y-25.923 Z-1.09 I-0.725 J0.209
X-29.966 Y-26.341 Z-1.173 I0.725 J-0.209
X-31.415 Y-25.923 Z-1.255 I-0.725 J0.209
X-29.966 Y-26.341 Z-1.338 I0.725 J-0.209
X-31.415 Y-25.923 Z-1.421 I-0.725 J0.209
X-29.966 Y-26.341 Z-1.504 I0.725 J-0.209
X-31.415 Y-25.923 Z-1.586 I-0.725 J0.209
X-29.966 Y-26.341 Z-1.669 I0.725 J-0.209
X-31.415 Y-25.923 Z-1.752 I-0.725 J0.209
X-29.966 Y-26.341 Z-1.834 I0.725 J-0.209
X-31.415 Y-25.923 Z-1.917 I-0.725 J0.209
X-29.966 Y-26.341 Z-2 I0.725 J-0.209
X-31.415 Y-25.923 Z-2.083 I-0.725 J0.209
X-29.966 Y-26.341 Z-2.165 I0.725 J-0.209
X-31.415 Y-25.923 Z-2.248 I-0.725 J0.209
X-29.966 Y-26.341 Z-2.331 I0.725 J-0.209
X-31.415 Y-25.923 Z-2.414 I-0.725 J0.209
X-29.966 Y-26.341 Z-2.496 I0.725 J-0.209
X-31.415 Y-25.923 Z-2.579 I-0.725 J0.209
X-29.966 Y-26.341 Z-2.662 I0.725 J-0.209
X-31.415 Y-25.923 Z-2.744 I-0.725 J0.209
X-29.966 Y-26.341 Z-2.827 I0.725 J-0.209
X-31.415 Y-25.923 Z-2.91 I-0.725 J0.209
X-30.796 Y-26.879 Z-2.955 I0.725 J-0.209
X-29.936 Y-26.132 Z-3 I0.105 J0.747
X-31.444 I-0.754
X-29.936 I0.754
G1 X-29.908 Y-25.759 F849.6
X-29.907 Y-25.609
X-29.957 Y-25.468
X-30.04 Y-25.343
X-30.148 Y-25.239
X-30.273 Y-25.156
X-30.41 Y-25.096
X-30.556 Y-25.058
X-30.705 Y-25.043
X-30.855 Y-25.051
X-31.002 Y-25.08
X-31.143 Y-25.13
X-31.276 Y-25.199
X-31.399 Y-25.286
X-31.508 Y-25.389
X-31.601 Y-25.506
X-31.678 Y-25.635
X-31.737 Y-25.773
X-31.776 Y-25.918
X-31.795 Y-26.067
X-31.794 Y-26.217
X-31.773 Y-26.365
X-31.731 Y-26.51
X-31.671 Y-26.647
X-31.592 Y-26.775
X-31.497 Y-26.891
X-31.387 Y-26.993
X-31.265 Y-27.079
X-31.131 Y-27.148
X-30.99 Y-27.198
X-30.843 Y-27.229
X-30.694 Y-27.24
X-30.544 Y-27.23
X-30.397 Y-27.2
X-30.255 Y-27.151
X-30.122 Y-27.083
X-29.998 Y-26.997
X-29.888 Y-26.896
X-29.792 Y-26.78
X-29.713 Y-26.653
X-29.65 Y-26.517
X-29.599 Y-26.376
X-29.557 Y-26.226
X-29.525 Y-26.079
X-29.508 Y-25.931
X-29.507 Y-25.781
X-29.526 Y-25.632
X-29.563 Y-25.486
X-29.62 Y-25.348
X-29.695 Y-25.218
X-29.785 Y-25.098
X-29.891 Y-24.991
X-30.009 Y-24.899
X-30.138 Y-24.822
X-30.274 Y-24.76
X-30.417 Y-24.715
X-30.564 Y-24.687
X-30.714 Y-24.675
X-30.864 Y-24.679
X-31.012 Y-24.7
X-31.158 Y-24.737
X-31.299 Y-24.789
X-31.433 Y-24.855
X-31.56 Y-24.935
X-31.678 Y-25.028
X-31.785 Y-25.133
X-31.882 Y-25.247
X-31.966 Y-25.372
X-32.036 Y-25.504
X-32.093 Y-25.643
X-32.136 Y-25.787
X-32.164 Y-25.934
X-32.177 Y-26.083
X-32.174 Y-26.233
X-32.157 Y-26.382
X-32.125 Y-26.529
X-32.077 Y-26.671
X-32.016 Y-26.808
X-31.942 Y-26.938
X-31.854 Y-27.06
X-31.755 Y-27.172
X-31.645 Y-27.275
X-31.525 Y-27.365
X-31.397 Y-27.443
X-31.261 Y-27.507
X-31.12 Y-27.558
X-30.974 Y-27.594
X-30.826 Y-27.615
X-30.676 Y-27.621
X-30.526 Y-27.612
X-30.378 Y-27.588
X-30.233 Y-27.549
X-30.093 Y-27.496
X-29.959 Y-27.429
X-29.832 Y-27.349
X-29.714 Y-27.256
X-29.606 Y-27.152
X-29.508 Y-27.039
X-29.421 Y-26.917
X-29.344 Y-26.788
X-29.277 Y-26.654
X-29.22 Y-26.515
X-29.174 Y-26.372
X-29.139 Y-26.226
X-29.116 Y-26.078
X-29.107 Y-25.928
X-29.11 Y-25.778
X-29.127 Y-25.629
X-29.158 Y-25.482
X-29.202 Y-25.339
X-29.26 Y-25.201
X-29.331 Y-25.069
X-29.414 Y-24.944
X-29.509 Y-24.828
X-29.614 Y-24.721
X-29.729 Y-24.624
X-29.852 Y-24.538
X-29.982 Y-24.464
X-30.119 Y-24.402
X-30.261 Y-24.353
X-30.406 Y-24.316
X-30.554 Y-24.292
X-30.704 Y-24.281
X-30.854 Y-24.283
X-31.003 Y-24.297
X-31.151 Y-24.324
X-31.295 Y-24.364
X-31.436 Y-24.416
X-31.572 Y-24.478
X-31.703 Y-24.552
X-31.827 Y-24.636
X-31.944 Y-24.73
X-32.052 Y-24.834
X-32.153 Y-24.945
X-32.244 Y-25.065
X-32.324 Y-25.191
X-32.394 Y-25.324
X-32.454 Y-25.462
X-32.502 Y-25.603
X-32.539 Y-25.749
X-32.564 Y-25.897
X-32.577 Y-26.046
X-32.578 Y-26.196
X-32.568 Y-26.346
X-32.545 Y-26.494
X-32.511 Y-26.64
X-32.465 Y-26.783
X-32.408 Y-26.922
X-32.34 Y-27.056
X-32.262 Y-27.183
X-32.173 Y-27.305
X-32.076 Y-27.419
X-31.97 Y-27.525
X-31.855 Y-27.622
X-31.733 Y-27.709
X-31.605 Y-27.787
X-31.471 Y-27.854
X-31.332 Y-27.911
X-31.189 Y-27.956
X-31.043 Y-27.99
X-30.895 Y-28.012
X-30.745 Y-28.022
X-30.595 Y-28.021
X-30.446 Y-28.007
X-30.298 Y-27.982
X-30.152 Y-27.945
X-30.01 Y-27.897
X-29.873 Y-27.838
X-29.74 Y-27.767
X-29.614 Y-27.687
X-29.494 Y-27.597
X-29.381 Y-27.498
X-29.275 Y-27.391
X-29.178 Y-27.277
X-29.089 Y-27.156
X-29.007 Y-27.029
X-28.933 Y-26.893
X-28.869 Y-26.757
X-28.815 Y-26.617
X-28.77 Y-26.474
X-28.736 Y-26.328
X-28.711 Y-26.18
X-28.697 Y-26.031
X-28.693 Y-25.881
X-28.701 Y-25.731
X-28.719 Y-25.582
X-28.748 Y-25.435
X-28.788 Y-25.29
X-28.838 Y-25.149
X-28.899 Y-25.012
X-28.97 Y-24.88
X-29.051 Y-24.753
X-29.14 Y-24.633
X-29.239 Y-24.52
X-29.346 Y-24.414
X-29.46 Y-24.317
X-29.581 Y-24.229
X-29.708 Y-24.149
X-29.84 Y-24.079
X-29.978 Y-24.018
X-30.119 Y-23.968
X-30.264 Y-23.928
X-30.411 Y-23.898
X-30.559 Y-23.878
X-30.709 Y-23.869
X-30.859 Y-23.871
X-31.009 Y-23.883
X-31.157 Y-23.905
X-31.303 Y-23.937
X-31.447 Y-23.979
X-31.588 Y-24.03
X-31.725 Y-24.092
X-31.859 Y-24.163
X-31.986 Y-24.241
X-32.108 Y-24.329
X-32.224 Y-24.424
X-32.334 Y-24.527
X-32.437 Y-24.638
X-32.534 Y-24.757
X-32.621 Y-24.88
X-32.699 Y-25.008
X-32.769 Y-25.141
X-32.83 Y-25.28
X-32.883 Y-25.425
X-32.926 Y-25.573
X-32.958 Y-25.72
X-32.981 Y-25.868
X-32.993 Y-26.019
X-32.996 Y-26.172
X-32.989 Y-26.327
X-32.971 Y-26.481
X-32.943 Y-26.63
X-32.906 Y-26.775
X-32.859 Y-26.919
X-32.802 Y-27.062
X-32.735 Y-27.202
X-32.658 Y-27.337
X-32.575 Y-27.464
X-32.485 Y-27.584
X-32.386 Y-27.699
X-32.277 Y-27.808
X-32.161 Y-27.911
X-32.038 Y-28.007
X-31.912 Y-28.091
X-31.782 Y-28.166
X-31.646 Y-28.234
X-31.503 Y-28.293
X-31.356 Y-28.343
X-31.205 Y-28.383
X-31.056 Y-28.412
X-30.907 Y-28.431
X-30.756 Y-28.44
X-30.601 Y-28.439
X-30.446 Y-28.428
X-30.292 Y-28.406
X-30.143 Y-28.375
X-29.998 Y-28.335
X-29.854 Y-28.285
X-29.712 Y-28.224
X-29.572 Y-28.152
X-29.435 Y-28.071
X-29.302 Y-27.979
X-29.175 Y-27.878
X-29.053 Y-27.768
X-28.936 Y-27.647
X-28.826 Y-27.517
X-28.724 Y-27.378
X-28.631 Y-27.233
X-28.548 Y-27.081
X-28.474 Y-26.924
X-28.411 Y-26.762
X-28.36 Y-26.597
X-28.32 Y-26.431
X-28.291 Y-26.264
X-28.273 Y-26.096
X-28.267 Y-25.928
X-28.272 Y-25.76
X-28.287 Y-25.594
X-28.314 Y-25.432
X-28.35 Y-25.274
X-28.397 Y-25.119
X-28.454 Y-24.968
X-28.521 Y-24.82
X-28.598 Y-24.678
X-28.684 Y-24.54
X-28.779 Y-24.408
X-28.884 Y-24.282
X-28.997 Y-24.162
X-29.119 Y-24.05
X-29.246 Y-23.947
X-29.379 Y-23.854
X-29.518 Y-23.769
X-29.665 Y-23.692
X-29.818 Y-23.625
X-29.976 Y-23.568
X-30.138 Y-23.521
X-30.303 Y-23.485
X-30.471 Y-23.46
X-30.642 Y-23.445
X-30.814 Y-23.443
X-30.987 Y-23.451
X-31.158 Y-23.471
X-31.328 Y-23.503
X-31.498 Y-23.546
X-31.664 Y-23.6
X-31.828 Y-23.666
X-31.986 Y-23.742
X-32.139 Y-23.829
X-32.287 Y-23.926
X-32.429 Y-24.033
X-32.564 Y-24.15
X-32.69 Y-24.276
X-32.808 Y-24.409
X-32.917 Y-24.55
X-33.017 Y-24.699
X-33.108 Y-24.855
X-33.187 Y-25.016
X-33.256 Y-25.183
X-33.314 Y-25.353
X-33.36 Y-25.527
X-33.394 Y-25.704
X-33.417 Y-25.884
X-33.428 Y-26.065
X-33.427 Y-26.246
X-33.414 Y-26.426
X-33.389 Y-26.605
X-33.352 Y-26.782
X-33.303 Y-26.958
X-33.243 Y-27.129
X-33.172 Y-27.296
X-33.09 Y-27.457
X-32.997 Y-27.613
X-32.894 Y-27.763
X-32.781 Y-27.905
X-32.658 Y-28.041
X-32.528 Y-28.167
X-32.39 Y-28.284
X-32.244 Y-28.391
X-32.091 Y-28.489
X-31.931 Y-28.577
X-31.765 Y-28.655
X-31.596 Y-28.72
X-31.423 Y-28.775
X-31.247 Y-28.817
X-31.067 Y-28.848
X-30.886 Y-28.867
X-30.703 Y-28.874
X-30.522 Y-28.869
X-30.341 Y-28.852
X-30.162 Y-28.823
X-29.984 Y-28.782
X-29.808 Y-28.729
X-29.636 Y-28.664
X-29.466 Y-28.587
X-29.301 Y-28.499
X-29.141 Y-28.398
X-28.986 Y-28.287
X-28.838 Y-28.163
X-28.696 Y-28.029
X-28.562 Y-27.884
X-28.437 Y-27.73
X-28.322 Y-27.566
X-28.217 Y-27.395
X-28.124 Y-27.217
X-28.043 Y-27.033
X-27.975 Y-26.845
X-27.92 Y-26.653
X-27.877 Y-26.459
X-27.848 Y-26.263
X-27.831 Y-26.066
X-27.828 Y-25.869
X-27.838 Y-25.674
X-27.86 Y-25.482
X-27.896 Y-25.292
X-27.943 Y-25.105
X-28.003 Y-24.923
X-28.074 Y-24.745
X-28.157 Y-24.572
X-28.252 Y-24.405
X-28.358 Y-24.243
X-28.474 Y-24.089
X-28.6 Y-23.944
X-28.736 Y-23.807
X-28.88 Y-23.679
X-29.033 Y-23.561
X-29.194 Y-23.453
X-29.362 Y-23.355
X-29.538 Y-23.269
X-29.719 Y-23.194
X-29.905 Y-23.13
X-30.097 Y-23.08
X-30.292 Y-23.041
X-30.49 Y-23.016
X-30.69 Y-23.004
X-30.891 Y-23.005
X-31.092 Y-23.02
X-31.293 Y-23.048
X-31.492 Y-23.089
X-31.688 Y-23.143
X-31.881 Y-23.211
X-32.069 Y-23.291
X-32.252 Y-23.385
X-32.429 Y-23.49
X-32.599 Y-23.607
X-32.761 Y-23.735
X-32.914 Y-23.874
X-33.059 Y-24.023
X-33.193 Y-24.182
X-33.317 Y-24.35
X-33.429 Y-24.525
X-33.53 Y-24.708
X-33.618 Y-24.897
X-33.694 Y-25.092
X-33.757 Y-25.292
X-33.806 Y-25.496
X-33.842 Y-25.703
X-33.864 Y-25.912
X-33.872 Y-26.122
X-33.866 Y-26.332
X-33.847 Y-26.542
X-33.813 Y-26.75
X-33.765 Y-26.955
X-33.705 Y-27.157
X-33.63 Y-27.354
X-33.543 Y-27.546
X-33.444 Y-27.732
X-33.332 Y-27.911
X-33.208 Y-28.082
X-33.074 Y-28.245
X-32.929 Y-28.398
X-32.774 Y-28.541
X-32.61 Y-28.674
X-32.437 Y-28.796
X-32.256 Y-28.906
X-32.069 Y-29.004
X-31.876 Y-29.089
X-31.677 Y-29.161
X-31.474 Y-29.22
X-31.268 Y-29.265
X-31.059 Y-29.296
X-30.848 Y-29.314
X-30.637 Y-29.317
X-30.426 Y-29.307
X-30.216 Y-29.282
X-30.007 Y-29.244
X-29.8 Y-29.191
X-29.596 Y-29.125
X-29.397 Y-29.045
X-29.201 Y-28.951
X-29.011 Y-28.843
X-28.827 Y-28.722
X-28.65 Y-28.589
X-28.48 Y-28.442
X-28.32 Y-28.284
X-28.17 Y-28.114
X-28.031 Y-27.934
X-27.903 Y-27.744
X-27.788 Y-27.546
X-27.687 Y-27.341
X-27.599 Y-27.129
X-27.526 Y-26.912
X-27.467 Y-26.692
X-27.423 Y-26.468
X-27.394 Y-26.243
X-27.381 Y-26.017
X-27.382 Y-25.792
X-27.398 Y-25.568
X-27.429 Y-25.347
X-27.474 Y-25.128
X-27.534 Y-24.914
X-27.607 Y-24.704
X-27.695 Y-24.499
X-27.795 Y-24.301
X-27.909 Y-24.11
X-28.035 Y-23.927
X-28.173 Y-23.752
X-28.322 Y-23.587
X-28.482 Y-23.432
X-28.653 Y-23.288
X-28.833 Y-23.155
X-29.022 Y-23.034
X-29.219 Y-22.925
X-29.423 Y-22.83
X-29.634 Y-22.748
X-29.851 Y-22.68
X-30.073 Y-22.626
X-30.298 Y-22.587
X-30.527 Y-22.563
X-30.757 Y-22.554
X-30.988 Y-22.56
X-31.219 Y-22.582
X-31.448 Y-22.619
X-31.675 Y-22.671
X-31.899 Y-22.739
X-32.118 Y-22.821
X-32.332 Y-22.918
X-32.539 Y-23.029
X-32.739 Y-23.154
X-32.931 Y-23.292
X-33.113 Y-23.443
X-33.285 Y-23.606
X-33.447 Y-23.78
X-33.596 Y-23.965
X-33.734 Y-24.16
X-33.858 Y-24.363
X-33.968 Y-24.575
X-34.065 Y-24.794
X-34.146 Y-25.019
X-34.213 Y-25.249
X-34.265 Y-25.483
X-34.3 Y-25.72
X-34.32 Y-25.959
X-34.324 Y-26.199
X-34.312 Y-26.439
X-34.285 Y-26.678
X-34.241 Y-26.915
X-34.182 Y-27.148
X-34.107 Y-27.377
X-34.018 Y-27.6
X-33.913 Y-27.817
X-33.795 Y-28.027
X-33.663 Y-28.229
X-33.517 Y-28.421
X-33.36 Y-28.603
X-33.19 Y-28.775
X-33.01 Y-28.935
X-32.819 Y-29.083
X-32.619 Y-29.217
X-32.41 Y-29.338
X-32.194 Y-29.445
X-31.971 Y-29.538
X-31.742 Y-29.615
X-31.509 Y-29.677
X-31.272 Y-29.724
X-31.033 Y-29.755
X-30.792 Y-29.769
X-30.55 Y-29.768
X-30.308 Y-29.751
X-30.068 Y-29.717
X-29.829 Y-29.668
X-29.594 Y-29.603
X-29.362 Y-29.522
X-29.135 Y-29.425
X-28.914 Y-29.312
X-28.699 Y-29.185
X-28.492 Y-29.042
X-28.293 Y-28.885
X-28.105 Y-28.715
X-27.927 Y-28.531
X-27.761 Y-28.336
X-27.608 Y-28.129
X-27.469 Y-27.911
X-27.344 Y-27.685
X-27.235 Y-27.451
X-27.141 Y-27.21
X-27.064 Y-26.964
X-27.003 Y-26.713
X-26.959 Y-26.46
X-26.932 Y-26.204
X-26.922 Y-25.949
X-26.929 Y-25.694
X-26.952 Y-25.44
X-26.993 Y-25.189
X-27.05 Y-24.942
X-27.123 Y-24.7
X-27.212 Y-24.463
X-27.316 Y-24.232
X-27.436 Y-24.009
X-27.57 Y-23.795
X-27.717 Y-23.589
X-27.879 Y-23.394
X-28.053 Y-23.21
X-28.239 Y-23.038
X-28.436 Y-22.878
X-28.644 Y-22.731
X-28.862 Y-22.598
X-29.089 Y-22.479
X-29.324 Y-22.376
X-29.565 Y-22.288
X-29.813 Y-22.216
X-30.066 Y-22.161
X-30.322 Y-22.122
X-30.582 Y-22.1
X-30.842 Y-22.096
X-31.104 Y-22.108
X-31.364 Y-22.139
X-31.623 Y-22.186
X-31.878 Y-22.251
X-32.129 Y-22.333
X-32.375 Y-22.431
X-32.614 Y-22.546
X-32.846 Y-22.677
X-33.068 Y-22.823
X-33.281 Y-22.983
X-33.484 Y-23.158
X-33.674 Y-23.346
X-33.852 Y-23.547
X-34.016 Y-23.759
X-34.166 Y-23.982
X-34.301 Y-24.215
X-34.421 Y-24.456
X-34.524 Y-24.705
X-34.611 Y-24.961
X-34.68 Y-25.222
X-34.732 Y-25.487
X-34.767 Y-25.755
X-34.784 Y-26.025
X-34.782 Y-26.296
X-34.763 Y-26.566
X-34.726 Y-26.834
X-34.671 Y-27.1
X-34.598 Y-27.361
X-34.509 Y-27.617
X-34.402 Y-27.867
X-34.28 Y-28.109
X-34.141 Y-28.343
X-33.987 Y-28.566
X-33.819 Y-28.78
X-33.637 Y-28.981
X-33.441 Y-29.17
X-33.234 Y-29.346
X-33.016 Y-29.507
X-32.787 Y-29.654
X-32.549 Y-29.786
X-32.302 Y-29.901
X-32.049 Y-29.999
X-31.79 Y-30.081
X-31.525 Y-30.145
X-31.258 Y-30.192
X-30.987 Y-30.221
X-30.715 Y-30.231
X-30.442 Y-30.224
X-30.17 Y-30.199
X-29.9 Y-30.155
X-29.632 Y-30.094
X-29.368 Y-30.014
X-29.109 Y-29.917
X-28.855 Y-29.802
X-28.608 Y-29.67
X-28.37 Y-29.521
X-28.141 Y-29.356
X-27.922 Y-29.175
X-27.715 Y-28.979
X-27.52 Y-28.77
X-27.339 Y-28.546
X-27.173 Y-28.311
X-27.023 Y-28.065
X-26.889 Y-27.809
X-26.772 Y-27.545
X-26.674 Y-27.274
X-26.593 Y-26.997
X-26.531 Y-26.715
X-26.488 Y-26.431
X-26.464 Y-26.145
X-26.459 Y-25.859
X-26.473 Y-25.574
X-26.506 Y-25.29
X-26.557 Y-25.01
X-26.627 Y-24.735
X-26.715 Y-24.464
X-26.821 Y-24.201
X-26.943 Y-23.945
X-27.083 Y-23.698
X-27.238 Y-23.46
X-27.409 Y-23.234
X-27.595 Y-23.019
X-27.795 Y-22.816
X-28.008 Y-22.627
X-28.233 Y-22.453
X-28.47 Y-22.293
X-28.718 Y-22.149
X-28.975 Y-22.022
X-29.24 Y-21.912
X-29.513 Y-21.819
X-29.792 Y-21.745
X-30.077 Y-21.689
X-30.365 Y-21.651
X-30.655 Y-21.633
X-30.947 Y-21.635
X-31.239 Y-21.656
X-31.529 Y-21.696
X-31.817 Y-21.755
X-32.101 Y-21.834
X-32.379 Y-21.931
X-32.651 Y-22.047
X-32.916 Y-22.181
X-33.171 Y-22.332
X-33.416 Y-22.501
X-33.649 Y-22.685
X-33.871 Y-22.885
X-34.078 Y-23.099
X-34.272 Y-23.327
X-34.45 Y-23.568
X-34.612 Y-23.82
X-34.757 Y-24.083
X-34.884 Y-24.354
X-34.993 Y-24.634
X-35.083 Y-24.921
X-35.155 Y-25.214
X-35.206 Y-25.51
X-35.238 Y-25.81
X-35.25 Y-26.111
X-35.242 Y-26.413
X-35.214 Y-26.713
X-35.166 Y-27.011
X-35.099 Y-27.305
X-35.012 Y-27.595
X-34.906 Y-27.878
X-34.781 Y-28.153
X-34.638 Y-28.42
X-34.478 Y-28.676
X-34.302 Y-28.922
X-34.109 Y-29.155
X-33.901 Y-29.375
X-33.679 Y-29.581
X-33.444 Y-29.771
X-33.197 Y-29.946
X-32.939 Y-30.104
X-32.671 Y-30.244
X-32.394 Y-30.367
X-32.109 Y-30.47
X-31.819 Y-30.555
X-31.523 Y-30.62
X-31.223 Y-30.665
X-30.921 Y-30.691
X-30.618 Y-30.696
X-30.314 Y-30.681
X-30.011 Y-30.646
X-29.711 Y-30.591
X-29.414 Y-30.516
X-29.122 Y-30.421
X-28.835 Y-30.307
X-28.556 Y-30.173
X-28.285 Y-30.02
X-28.023 Y-29.849
X-27.772 Y-29.66
X-27.534 Y-29.454
X-27.309 Y-29.232
X-27.098 Y-28.994
X-26.903 Y-28.743
X-26.725 Y-28.479
X-26.565 Y-28.203
X-26.423 Y-27.917
X-26.3 Y-27.622
X-26.198 Y-27.319
X-26.115 Y-27.011
X-26.054 Y-26.699
X-26.013 Y-26.383
X-25.993 Y-26.066
X-25.995 Y-25.749
X-26.017 Y-25.433
X-26.06 Y-25.12
X-26.124 Y-24.811
X-26.208 Y-24.507
X-26.312 Y-24.209
X-26.435 Y-23.919
X-26.578 Y-23.638
X-26.738 Y-23.367
X-26.917 Y-23.108
X-27.112 Y-22.86
X-27.323 Y-22.626
X-27.55 Y-22.407
X-27.791 Y-22.202
X-28.045 Y-22.014
X-28.312 Y-21.842
X-28.59 Y-21.689
X-28.878 Y-21.554
X-29.175 Y-21.438
X-29.48 Y-21.342
X-29.791 Y-21.266
X-30.107 Y-21.211
X-30.427 Y-21.177
X-30.749 Y-21.164
X-31.072 Y-21.172
X-31.395 Y-21.202
X-31.715 Y-21.254
X-32.032 Y-21.326
X-32.344 Y-21.42
X-32.649 Y-21.534
X-32.947 Y-21.669
X-33.236 Y-21.823
X-33.514 Y-21.997
X-33.781 Y-22.189
X-34.035 Y-22.398
X-34.274 Y-22.624
X-34.498 Y-22.866
X-34.706 Y-23.122
X-34.897 Y-23.392
X-35.07 Y-23.674
X-35.223 Y-23.967
X-35.357 Y-24.271
X-35.471 Y-24.582
X-35.564 Y-24.901
X-35.635 Y-25.225
X-35.685 Y-25.554
X-35.713 Y-25.885
X-35.719 Y-26.217
X-35.703 Y-26.55
X-35.665 Y-26.881
X-35.605 Y-27.208
X-35.523 Y-27.531
X-35.421 Y-27.848
X-35.297 Y-28.158
X-35.153 Y-28.458
X-34.989 Y-28.749
X-34.807 Y-29.028
X-34.606 Y-29.295
X-34.388 Y-29.547
X-34.153 Y-29.785
X-33.904 Y-30.006
X-33.64 Y-30.211
X-33.363 Y-30.398
X-33.075 Y-30.566
X-32.776 Y-30.714
X-32.467 Y-30.842
X-32.151 Y-30.95
X-31.828 Y-31.036
X-31.5 Y-31.101
X-31.169 Y-31.144
X-30.835 Y-31.165
X-30.5 Y-31.163
X-30.165 Y-31.14
X-29.832 Y-31.094
X-29.501 Y-31.026
X-29.175 Y-30.936
X-28.855 Y-30.824
X-28.542 Y-30.691
X-28.237 Y-30.536
X-27.942 Y-30.361
X-27.658 Y-30.166
X-27.387 Y-29.953
X-27.129 Y-29.72
X-26.887 Y-29.471
X-26.662 Y-29.205
X-26.454 Y-28.924
X-26.265 Y-28.63
X-26.095 Y-28.324
X-25.946 Y-28.006
X-25.819 Y-27.68
X-25.714 Y-27.346
X-25.631 Y-27.006
X-25.57 Y-26.662
X-25.533 Y-26.315
X-25.519 Y-25.966
X-25.528 Y-25.618
X-25.56 Y-25.272
X-25.615 Y-24.929
X-25.693 Y-24.591
X-25.793 Y-24.258
X-25.914 Y-23.934
X-26.057 Y-23.618
X-26.22 Y-23.313
X-26.403 Y-23.019
X-26.605 Y-22.737
X-26.826 Y-22.47
X-27.064 Y-22.217
X-27.318 Y-21.981
X-27.588 Y-21.762
X-27.872 Y-21.561
X-28.17 Y-21.379
X-28.479 Y-21.217
X-28.799 Y-21.075
X-29.128 Y-20.955
X-29.466 Y-20.857
X-29.809 Y-20.781
X-30.158 Y-20.728
X-30.51 Y-20.698
X-30.864 Y-20.692
X-31.218 Y-20.709
X-31.571 Y-20.749
X-31.921 Y-20.813
X-32.267 Y-20.901
X-32.607 Y-21.011
X-32.939 Y-21.143
X-33.262 Y-21.298
X-33.575 Y-21.474
X-33.876 Y-21.671
X-34.164 Y-21.887
X-34.437 Y-22.123
X-34.694 Y-22.376
X-34.933 Y-22.646
X-35.155 Y-22.932
X-35.358 Y-23.232
X-35.54 Y-23.545
X-35.701 Y-23.87
X-35.841 Y-24.205
X-35.958 Y-24.549
X-36.052 Y-24.9
X-36.122 Y-25.256
X-36.169 Y-25.617
X-36.192 Y-25.98
X-36.19 Y-26.344
X-36.165 Y-26.708
X-36.115 Y-27.069
X-36.042 Y-27.426
X-35.945 Y-27.777
X-35.825 Y-28.122
X-35.682 Y-28.458
X-35.517 Y-28.783
X-35.331 Y-29.097
X-35.125 Y-29.398
X-34.899 Y-29.685
X-34.654 Y-29.956
X-34.392 Y-30.211
X-34.114 Y-30.447
X-33.82 Y-30.665
X-33.513 Y-30.862
X-33.193 Y-31.039
X-32.863 Y-31.194
X-32.522 Y-31.327
X-32.174 Y-31.437
X-31.818 Y-31.524
X-31.458 Y-31.587
X-31.094 Y-31.626
X-30.728 Y-31.641
X-30.361 Y-31.632
X-29.995 Y-31.598
X-29.631 Y-31.54
X-29.271 Y-31.457
X-28.916 Y-31.351
X-28.568 Y-31.221
X-28.229 Y-31.068
X-27.899 Y-30.892
X-27.581 Y-30.693
X-27.275 Y-30.474
X-26.984 Y-30.234
X-26.708 Y-29.974
X-26.45 Y-29.696
X-26.211 Y-29.401
X-25.991 Y-29.09
X-25.792 Y-28.765
X-25.614 Y-28.427
X-25.46 Y-28.078
X-25.329 Y-27.72
X-25.222 Y-27.354
X-25.14 Y-26.982
X-25.082 Y-26.605
X-25.05 Y-26.226
X-25.043 Y-25.846
X-25.061 Y-25.467
X-25.104 Y-25.09
X-25.172 Y-24.717
X-25.265 Y-24.35
X-25.353 Y-24.079
X-25.362 Y-24.054
X-25.372 Y-24.03
X-25.384 Y-24.006
X-25.427 Y-23.924
X-25.479 Y-23.793
X-25.596 Y-23.507
X-25.745 Y-23.203
X-25.921 Y-22.896
X-26.123 Y-22.593
X-26.348 Y-22.3
X-26.594 Y-22.02
X-26.86 Y-21.755
X-27.144 Y-21.507
X-27.445 Y-21.278
X-27.761 Y-21.068
X-28.091 Y-20.88
X-28.434 Y-20.713
X-28.788 Y-20.57
X-29.151 Y-20.45
X-29.522 Y-20.354
X-29.899 Y-20.283
X-30.281 Y-20.237
X-30.665 Y-20.216
X-31.051 Y-20.221
X-31.437 Y-20.251
X-31.82 Y-20.307
X-32.199 Y-20.389
X-32.573 Y-20.495
X-32.939 Y-20.627
X-33.296 Y-20.782
X-33.643 Y-20.961
X-33.977 Y-21.163
X-34.177 Y-21.303
X-34.213 Y-21.33
X-34.245 Y-21.361
X-34.275 Y-21.395
X-34.508 Y-21.691
X-34.61 Y-21.822
X-34.809 Y-22.085
X-35.105 Y-22.49
X-35.467 Y-23.005
X-35.645 Y-23.267
X-35.762 Y-23.441
X-36.025 Y-23.842
X-36.156 Y-24.048
X-36.243 Y-24.201
X-36.318 Y-24.357
X-36.403 Y-24.566
X-36.478 Y-24.796
X-36.548 Y-25.066
X-36.606 Y-25.381
X-36.647 Y-25.725
X-36.666 Y-26.089
X-36.661 Y-26.464
X-36.63 Y-26.844
X-36.573 Y-27.226
X-36.491 Y-27.607
X-36.382 Y-27.985
X-36.248 Y-28.356
X-36.089 Y-28.719
X-35.907 Y-29.071
X-35.701 Y-29.41
X-35.473 Y-29.734
X-35.224 Y-30.043
X-34.955 Y-30.335
X-34.667 Y-30.609
X-34.362 Y-30.863
X-34.04 Y-31.096
X-33.704 Y-31.307
X-33.354 Y-31.495
X-32.993 Y-31.66
X-32.621 Y-31.801
X-32.241 Y-31.917
X-31.854 Y-32.007
X-31.461 Y-32.071
X-31.065 Y-32.109
X-30.666 Y-32.121
X-30.268 Y-32.107
X-29.87 Y-32.066
X-29.475 Y-31.998
X-29.085 Y-31.905
X-28.701 Y-31.785
X-28.324 Y-31.639
X-27.957 Y-31.469
X-27.601 Y-31.274
X-27.483 Y-31.199
X-27.415 Y-31.146
X-27.358 Y-31.081
X-27.314 Y-31.006
X-27.259 Y-30.888
X-27.219 Y-30.807
X-27.088 Y-30.608
X-26.991 Y-30.494
X-26.956 Y-30.455
X-26.825 Y-30.33
X-26.693 Y-30.226
X-26.562 Y-30.135
X-26.43 Y-30.066
X-26.301 Y-29.99
X-26.178 Y-29.905
X-26.055 Y-29.803
X-25.935 Y-29.689
X-25.784 Y-29.527
X-25.639 Y-29.349
X-25.476 Y-29.117
X-25.306 Y-28.838
X-25.142 Y-28.525
X-24.996 Y-28.196
X-24.865 Y-27.835
X-24.754 Y-27.453
X-24.667 Y-27.057
X-24.605 Y-26.652
X-24.571 Y-26.243
X-24.564 Y-25.832
X-24.584 Y-25.422
X-24.631 Y-25.014
X-24.665 Y-24.829
X-24.705 Y-24.707
X-24.777 Y-24.602
X-24.876 Y-24.52
X-24.99 Y-24.45
X-25.053 Y-24.402
X-25.116 Y-24.348
X-25.147 Y-24.319
X-25.248 Y-24.204
X-25.357 Y-24.056
X-25.384 Y-24.006
G3 X-25.422 Y-23.961 I-0.138 J-0.079
G2 X-25.478 Y-23.808 I0.1 J0.124
G1 X-25.479 Y-23.793
X-25.51 Y-23.704
X-25.52 Y-23.662
X-25.544 Y-23.53
X-25.555 Y-23.399
Y-23.267
X-25.551 Y-23.228
X-25.543 Y-23.078
X-25.565 Y-22.929
X-25.603 Y-22.785
X-25.656 Y-22.644
X-25.722 Y-22.498
X-25.814 Y-22.326
X-25.931 Y-22.138
X-26.091 Y-21.915
X-26.272 Y-21.697
X-26.496 Y-21.46
X-26.76 Y-21.215
X-27.055 Y-20.975
X-27.377 Y-20.748
X-27.719 Y-20.539
X-28.079 Y-20.351
X-28.454 Y-20.185
X-28.841 Y-20.044
X-29.237 Y-19.929
X-29.642 Y-19.84
X-30.053 Y-19.778
X-30.468 Y-19.743
X-30.885 Y-19.735
X-31.303 Y-19.756
X-31.719 Y-19.804
X-32.131 Y-19.88
X-32.539 Y-19.983
X-32.939 Y-20.113
X-33.33 Y-20.269
X-33.425 Y-20.315
X-33.491 Y-20.354
X-33.551 Y-20.404
X-33.601 Y-20.463
X-34.1 Y-21.165
X-34.197 Y-21.296
X-34.275 Y-21.395
X-34.311 Y-21.446
X-36.12 Y-23.997
X-36.156 Y-24.048
X-36.328 Y-24.319
X-36.551 Y-24.681
X-36.727 Y-24.976
X-36.805 Y-25.107
X-36.877 Y-25.242
X-36.938 Y-25.379
X-36.987 Y-25.521
X-37.027 Y-25.675
X-37.065 Y-25.869
X-37.093 Y-26.087
X-37.108 Y-26.347
X-37.106 Y-26.658
X-37.081 Y-26.991
X-37.032 Y-27.34
X-36.953 Y-27.719
X-36.843 Y-28.11
X-36.705 Y-28.502
X-36.539 Y-28.889
X-36.346 Y-29.268
X-36.127 Y-29.634
X-35.884 Y-29.986
X-35.618 Y-30.322
X-35.33 Y-30.639
X-35.021 Y-30.936
X-34.693 Y-31.213
X-34.348 Y-31.467
X-33.986 Y-31.698
X-33.61 Y-31.904
X-33.221 Y-32.085
X-32.82 Y-32.24
X-32.411 Y-32.368
X-31.993 Y-32.468
X-31.57 Y-32.541
X-31.142 Y-32.586
X-30.712 Y-32.602
X-30.281 Y-32.589
X-29.851 Y-32.548
X-29.424 Y-32.478
X-29.002 Y-32.38
X-28.587 Y-32.254
X-28.179 Y-32.1
X-27.796 Y-31.925
X-27.667 Y-31.855
X-27.545 Y-31.761
X-27.462 Y-31.632
X-27.425 Y-31.483
X-27.421 Y-31.414
X-27.398 Y-31.283
X-27.365 Y-31.151
X-27.32 Y-31.02
X-27.314 Y-31.006
G3 X-27.301 Y-30.945 I-0.146 J0.062
G1 X-27.3 Y-30.896 Z-2.992
Y-30.852 Z-2.97
Y-30.817 Z-2.935
X-27.299 Y-30.794 Z-2.89
Y-30.787 Z-2.841
G0 Z5
X-25.647 Y-23.075
Z-2.682
G1 Z-2.841 F849.6
X-25.645 Y-23.082 Z-2.89
X-25.641 Y-23.105 Z-2.935
X-25.633 Y-23.139 Z-2.97
X-25.624 Y-23.182 Z-2.992
X-25.613 Y-23.23 Z-3
G3 X-25.551 Y-23.228 I0.031 J0.007
G1 X-25.541 Y-23.136
X-25.51 Y-22.994
X-25.475 Y-22.873
X-25.459 Y-22.833
X-25.409 Y-22.692
X-25.408 Y-22.542
X-25.43 Y-22.393
X-25.469 Y-22.248
X-25.52 Y-22.107
X-25.588 Y-21.958
X-25.667 Y-21.811
X-25.78 Y-21.631
X-25.915 Y-21.444
X-26.085 Y-21.239
X-26.302 Y-21.01
X-26.561 Y-20.771
X-26.841 Y-20.545
X-27.16 Y-20.321
X-27.514 Y-20.105
X-27.893 Y-19.907
X-28.292 Y-19.732
X-28.707 Y-19.582
X-29.133 Y-19.459
X-29.568 Y-19.364
X-30.01 Y-19.298
X-30.457 Y-19.261
X-30.906 Y-19.254
X-31.355 Y-19.277
X-31.803 Y-19.329
X-32.247 Y-19.412
X-32.685 Y-19.523
X-32.871 Y-19.584
X-32.966 Y-19.628
X-33.048 Y-19.691
X-33.114 Y-19.771
X-33.168 Y-19.851
X-33.265 Y-19.991
X-33.601 Y-20.463
X-33.636 Y-20.515
X-36.77 Y-25.056
X-36.805 Y-25.107
X-36.883 Y-25.238
X-37.11 Y-25.632
X-37.296 Y-25.968
X-37.362 Y-26.102
X-37.415 Y-26.243
X-37.453 Y-26.388
X-37.479 Y-26.535
X-37.498 Y-26.716
X-37.505 Y-26.907
X-37.498 Y-27.159
X-37.473 Y-27.417
X-37.422 Y-27.733
X-37.339 Y-28.091
X-37.223 Y-28.473
X-37.075 Y-28.866
X-36.897 Y-29.256
X-36.689 Y-29.644
X-36.449 Y-30.026
X-36.181 Y-30.397
X-35.888 Y-30.75
X-35.571 Y-31.084
X-35.232 Y-31.396
X-34.874 Y-31.686
X-34.497 Y-31.951
X-34.103 Y-32.191
X-33.693 Y-32.404
X-33.271 Y-32.589
X-32.837 Y-32.746
X-32.394 Y-32.874
X-31.942 Y-32.972
X-31.485 Y-33.04
X-31.166 Y-33.067
X-31.116 Y-33.068
X-31.067 Y-33.064
X-31.018 Y-33.055
X-30.111 Y-32.83
X-29.716 Y-32.728
X-29.585 Y-32.692
X-29.245 Y-32.597
X-28.815 Y-32.465
X-28.665 Y-32.417
X-28.402 Y-32.325
X-28.27 Y-32.275
X-28.008 Y-32.17
X-27.876 Y-32.116
X-27.613 Y-31.986
X-27.527 Y-31.94
X-27.504 Y-31.925
X-27.482 Y-31.908
X-27.469 Y-31.896
X-27.459 Y-31.883
X-27.451 Y-31.871
X-27.444 Y-31.858
X-27.434 Y-31.833
X-27.429 Y-31.808
X-27.433 Y-31.677
X-27.43 Y-31.545
X-27.425 Y-31.483
G3 X-27.435 Y-31.421 I-0.159 J0.006
G1 X-27.453 Y-31.375 Z-2.992
X-27.468 Y-31.334 Z-2.97
X-27.48 Y-31.301 Z-2.935
X-27.488 Y-31.28 Z-2.89
X-27.491 Y-31.273 Z-2.841
G0 Z5
X-37.267 Y-26.146
Z-2.682
G1 Z-2.841 F849.6
X-37.265 Y-26.138 Z-2.89
X-37.261 Y-26.116 Z-2.935
X-37.255 Y-26.081 Z-2.97
X-37.247 Y-26.038 Z-2.992
X-37.238 Y-25.99 Z-3
G3 X-37.296 Y-25.968 I-0.031 J0.006
G1 X-37.339 Y-26.046
X-37.602 Y-26.539
X-37.708 Y-26.745
X-37.77 Y-26.881
X-37.813 Y-27.025
X-37.839 Y-27.173
X-37.853 Y-27.322
X-37.857 Y-27.499
X-37.848 Y-27.689
X-37.82 Y-27.938
X-37.775 Y-28.19
X-37.696 Y-28.507
X-37.581 Y-28.865
X-37.431 Y-29.242
X-37.253 Y-29.617
X-37.032 Y-30.012
X-36.773 Y-30.409
X-36.483 Y-30.796
X-36.165 Y-31.167
X-35.821 Y-31.517
X-35.454 Y-31.845
X-35.065 Y-32.148
X-34.657 Y-32.425
X-34.231 Y-32.674
X-33.79 Y-32.895
X-33.334 Y-33.085
X-32.867 Y-33.245
X-32.468 Y-33.353
X-32.392 Y-33.367
X-32.314 Y-33.368
X-32.238 Y-33.356
X-31.018 Y-33.055
G3 X-30.963 Y-33.027 I-0.043 J0.153
G1 X-30.924 Y-32.996 Z-2.992
X-30.889 Y-32.969 Z-2.97
X-30.862 Y-32.947 Z-2.935
X-30.844 Y-32.933 Z-2.89
X-30.838 Y-32.928 Z-2.841
G0 Z5
X-37.674 Y-26.922
Z-2.682
G1 Z-2.841 F849.6
X-37.672 Y-26.914 Z-2.89
X-37.669 Y-26.892 Z-2.935
X-37.663 Y-26.857 Z-2.97
X-37.657 Y-26.813 Z-2.992
X-37.649 Y-26.765 Z-3
G3 X-37.708 Y-26.745 I-0.031 J0.005
G1 X-37.811 Y-26.946
X-38.002 Y-27.341
X-38.064 Y-27.472
X-38.12 Y-27.611
X-38.152 Y-27.758
X-38.169 Y-27.907
X-38.173 Y-28.057
X-38.166 Y-28.22
X-38.143 Y-28.422
X-38.103 Y-28.645
X-38.037 Y-28.909
X-37.936 Y-29.224
X-37.807 Y-29.55
X-37.637 Y-29.909
X-37.417 Y-30.302
X-37.154 Y-30.707
X-36.853 Y-31.109
X-36.52 Y-31.498
X-36.157 Y-31.869
X-35.768 Y-32.217
X-35.355 Y-32.539
X-34.921 Y-32.834
X-34.468 Y-33.099
X-33.998 Y-33.335
X-33.513 Y-33.538
X-33.408 Y-33.575
X-33.318 Y-33.596
X-33.225 Y-33.599
X-33.133 Y-33.584
X-32.739 Y-33.48
X-32.238 Y-33.356
G3 X-32.182 Y-33.328 I-0.043 J0.153
G1 X-32.144 Y-33.297 Z-2.992
X-32.109 Y-33.27 Z-2.97
X-32.082 Y-33.248 Z-2.935
X-32.064 Y-33.234 Z-2.89
X-32.058 Y-33.229 Z-2.841
G0 Z5
X-38.023 Y-27.648
Z-2.682
G1 Z-2.841 F849.6
X-38.022 Y-27.64 Z-2.89
X-38.019 Y-27.618 Z-2.935
X-38.015 Y-27.583 Z-2.97
X-38.01 Y-27.539 Z-2.992
X-38.004 Y-27.49 Z-3
G3 X-38.064 Y-27.472 I-0.031 J0.004
G1 X-38.185 Y-27.735
X-38.243 Y-27.866
X-38.354 Y-28.129
X-38.406 Y-28.27
X-38.438 Y-28.416
X-38.452 Y-28.566
Y-28.716
X-38.441 Y-28.865
X-38.414 Y-29.054
X-38.372 Y-29.249
X-38.3 Y-29.504
X-38.208 Y-29.763
X-38.07 Y-30.081
X-37.881 Y-30.449
X-37.643 Y-30.844
X-37.374 Y-31.231
X-37.056 Y-31.63
X-36.694 Y-32.026
X-36.298 Y-32.405
X-35.874 Y-32.761
X-35.425 Y-33.089
X-34.954 Y-33.387
X-34.465 Y-33.654
X-34.079 Y-33.831
X-33.999 Y-33.862
X-33.838 Y-33.895
X-33.675 Y-33.874
X-33.528 Y-33.801
X-33.396 Y-33.706
X-33.29 Y-33.648
X-33.265 Y-33.636
X-33.133 Y-33.584
G3 X-33.082 Y-33.329 I-0.063 J0.146
G1 X-38.095 Y-28.086
G3 X-38.354 Y-28.129 I-0.115 J-0.11
G1 X-38.41 Y-28.26
X-38.562 Y-28.655
X-38.625 Y-28.817
X-38.673 Y-28.959
X-38.699 Y-29.107
X-38.706 Y-29.257
X-38.698 Y-29.407
X-38.678 Y-29.561
X-38.644 Y-29.734
X-38.588 Y-29.939
X-38.508 Y-30.175
X-38.385 Y-30.47
X-38.238 Y-30.764
X-38.033 Y-31.116
X-37.77 Y-31.504
X-37.454 Y-31.91
X-37.092 Y-32.317
X-36.69 Y-32.712
X-36.254 Y-33.087
X-35.791 Y-33.435
X-35.306 Y-33.751
X-34.848 Y-34.009
X-34.629 Y-34.115
X-34.462 Y-34.181
X-34.319 Y-34.228
X-34.245 Y-34.244
X-34.072 Y-34.248
X-33.909 Y-34.188
X-33.78 Y-34.072
X-33.757 Y-34.042
X-33.659 Y-33.925
X-33.528 Y-33.801
G3 X-33.529 Y-33.576 I-0.113 J0.112
G1 X-38.368 Y-28.768
G3 X-38.625 Y-28.817 I-0.112 J-0.113
G1 X-38.717 Y-29.049
X-38.771 Y-29.18
X-38.86 Y-29.384
X-38.913 Y-29.524
X-38.941 Y-29.671
X-38.949 Y-29.821
X-38.941 Y-29.971
X-38.92 Y-30.12
X-38.885 Y-30.288
X-38.833 Y-30.472
X-38.753 Y-30.699
X-38.65 Y-30.939
X-38.493 Y-31.245
X-38.296 Y-31.576
X-38.05 Y-31.931
X-37.732 Y-32.331
X-37.357 Y-32.743
X-36.941 Y-33.145
X-36.499 Y-33.518
X-36.034 Y-33.863
X-35.55 Y-34.177
X-35.211 Y-34.366
X-34.975 Y-34.478
X-34.836 Y-34.533
X-34.693 Y-34.579
X-34.547 Y-34.615
X-34.399 Y-34.637
X-34.35 Y-34.638
X-34.212 Y-34.619
X-34.087 Y-34.558
X-33.987 Y-34.462
X-33.922 Y-34.34
X-33.907 Y-34.305
X-33.842 Y-34.173
X-33.791 Y-34.087
X-33.78 Y-34.072
G3 X-33.801 Y-33.865 I-0.13 J0.092
G1 X-38.608 Y-29.337
G3 X-38.86 Y-29.384 I-0.109 J-0.116
G1 X-38.944 Y-29.574
X-39.048 Y-29.789
X-39.096 Y-29.877
X-39.16 Y-30.012
X-39.192 Y-30.159
X-39.201 Y-30.309
X-39.195 Y-30.458
X-39.175 Y-30.607
X-39.142 Y-30.768
X-39.092 Y-30.946
X-39.016 Y-31.161
X-38.918 Y-31.389
X-38.772 Y-31.673
X-38.591 Y-31.977
X-38.355 Y-32.317
X-38.043 Y-32.71
X-37.668 Y-33.123
X-37.251 Y-33.524
X-36.809 Y-33.898
X-36.346 Y-34.245
X-35.92 Y-34.525
X-35.589 Y-34.713
X-35.348 Y-34.829
X-35.145 Y-34.911
X-34.98 Y-34.965
X-34.835 Y-35.002
X-34.687 Y-35.026
X-34.538 Y-35.038
X-34.388 Y-35.031
X-34.373 Y-35.028
X-34.238 Y-34.982
X-34.123 Y-34.897
X-34.04 Y-34.781
X-33.997 Y-34.645
X-33.985 Y-34.568
X-33.955 Y-34.436
X-33.922 Y-34.34
G3 X-33.968 Y-34.174 I-0.152 J0.047
G1 X-38.853 Y-29.839
G3 X-39.096 Y-29.877 I-0.105 J-0.119
G1 X-39.145 Y-29.969
X-39.179 Y-30.021
X-39.238 Y-30.1
X-39.296 Y-30.171
X-39.385 Y-30.292
X-39.441 Y-30.431
X-39.47 Y-30.578
X-39.48 Y-30.728
X-39.474 Y-30.878
X-39.455 Y-31.026
X-39.423 Y-31.184
X-39.374 Y-31.361
X-39.301 Y-31.57
X-39.209 Y-31.788
X-39.072 Y-32.06
X-38.9 Y-32.351
X-38.675 Y-32.681
X-38.372 Y-33.066
X-38.005 Y-33.475
X-37.59 Y-33.879
X-37.15 Y-34.255
X-36.69 Y-34.605
X-36.272 Y-34.882
X-35.932 Y-35.076
X-35.67 Y-35.204
X-35.446 Y-35.295
X-35.254 Y-35.359
X-35.091 Y-35.401
X-34.938 Y-35.43
X-34.789 Y-35.448
X-34.639 Y-35.452
X-34.489 Y-35.441
X-34.342 Y-35.41
X-34.309 Y-35.398
X-34.177 Y-35.327
X-34.075 Y-35.216
X-34.014 Y-35.079
X-34.001 Y-34.93
X-34.008 Y-34.83
X-34.005 Y-34.699
X-33.997 Y-34.645
G3 X-34.051 Y-34.506 I-0.158 J0.019
G1 X-39.073 Y-30.156
G3 X-39.296 Y-30.171 I-0.104 J-0.12
G1 X-39.311 Y-30.189
X-39.351 Y-30.231
X-39.396 Y-30.273
X-39.442 Y-30.313
X-39.509 Y-30.363
X-39.63 Y-30.452
X-39.708 Y-30.58
X-39.759 Y-30.721
X-39.788 Y-30.868
X-39.799 Y-31.018
X-39.796 Y-31.168
X-39.78 Y-31.317
X-39.753 Y-31.468
X-39.707 Y-31.656
X-39.647 Y-31.845
X-39.558 Y-32.073
X-39.435 Y-32.334
X-39.288 Y-32.6
X-39.075 Y-32.931
X-38.794 Y-33.31
X-38.464 Y-33.698
X-38.077 Y-34.096
X-37.647 Y-34.483
X-37.195 Y-34.844
X-36.753 Y-35.156
X-36.398 Y-35.373
X-36.082 Y-35.538
X-35.817 Y-35.655
X-35.587 Y-35.739
X-35.382 Y-35.798
X-35.202 Y-35.838
X-35.036 Y-35.863
X-34.886 Y-35.876
X-34.736 Y-35.878
X-34.586 Y-35.868
X-34.439 Y-35.842
X-34.295 Y-35.8
X-34.158 Y-35.739
X-34.141 Y-35.728
X-34.031 Y-35.632
X-33.957 Y-35.505
X-33.927 Y-35.361
X-33.943 Y-35.216
X-33.977 Y-35.093
X-33.998 Y-34.962
X-34.001 Y-34.93
G3 X-34.056 Y-34.826 I-0.158 J-0.017
G1 X-39.326 Y-30.378
G3 X-39.509 Y-30.363 I-0.102 J-0.121
G1 X-39.574 Y-30.404
X-39.705 Y-30.477
X-39.747 Y-30.494
X-39.883 Y-30.558
X-39.981 Y-30.671
X-40.052 Y-30.803
X-40.101 Y-30.945
X-40.13 Y-31.092
X-40.144 Y-31.241
Y-31.391
X-40.132 Y-31.541
X-40.109 Y-31.703
X-40.068 Y-31.894
X-40.013 Y-32.086
X-39.933 Y-32.311
X-39.819 Y-32.573
X-39.683 Y-32.836
X-39.486 Y-33.162
X-39.23 Y-33.528
X-38.918 Y-33.917
X-38.573 Y-34.293
X-38.155 Y-34.693
