%
(1001)
(Z0 stock bottom left)
(T1  D=3 CR=0 - ZMIN=0 - flat end mill)
G90 G94
G17
G21

(2D Adaptive3)
M9
T1 M6
S10000 M3
G54
M9
G0 X111.281 Y51.408
Z33
Z23
Z20.85
G1 Z20.55 F850
G3 X111.72 Y48.592 Z20.394 I0.219 J-1.408 F283.3
X111.281 Y51.408 Z20.237 I-0.219 J1.408
X111.72 Y48.592 Z20.081 I0.219 J-1.408
X111.281 Y51.408 Z19.925 I-0.219 J1.408
X111.72 Y48.592 Z19.768 I0.219 J-1.408
X111.281 Y51.408 Z19.612 I-0.219 J1.408
X111.72 Y48.592 Z19.456 I0.219 J-1.408
X111.281 Y51.408 Z19.299 I-0.219 J1.408
X111.72 Y48.592 Z19.143 I0.219 J-1.408
X111.281 Y51.408 Z18.987 I-0.219 J1.408
X111.72 Y48.592 Z18.83 I0.219 J-1.408
X111.281 Y51.408 Z18.674 I-0.219 J1.408
X111.72 Y48.592 Z18.518 I0.219 J-1.408
X111.281 Y51.408 Z18.361 I-0.219 J1.408
X111.72 Y48.592 Z18.205 I0.219 J-1.408
X111.281 Y51.408 Z18.049 I-0.219 J1.408
X111.72 Y48.592 Z17.892 I0.219 J-1.408
X111.281 Y51.408 Z17.736 I-0.219 J1.408
X111.72 Y48.592 Z17.58 I0.219 J-1.408
X111.281 Y51.408 Z17.423 I-0.219 J1.408
X111.72 Y48.592 Z17.267 I0.219 J-1.408
X111.281 Y51.408 Z17.111 I-0.219 J1.408
X111.72 Y48.592 Z16.954 I0.219 J-1.408
X111.281 Y51.408 Z16.798 I-0.219 J1.408
X111.72 Y48.592 Z16.642 I0.219 J-1.408
X111.281 Y51.408 Z16.485 I-0.219 J1.408
X111.72 Y48.592 Z16.329 I0.219 J-1.408
X111.281 Y51.408 Z16.173 I-0.219 J1.408
X111.72 Y48.592 Z16.016 I0.219 J-1.408
X111.281 Y51.408 Z15.86 I-0.219 J1.408
X111.72 Y48.592 Z15.704 I0.219 J-1.408
X111.281 Y51.408 Z15.547 I-0.219 J1.408
X111.72 Y48.592 Z15.391 I0.219 J-1.408
X111.281 Y51.408 Z15.235 I-0.219 J1.408
X111.72 Y48.592 Z15.078 I0.219 J-1.408
X111.281 Y51.408 Z14.922 I-0.219 J1.408
X111.72 Y48.592 Z14.766 I0.219 J-1.408
X111.281 Y51.408 Z14.609 I-0.219 J1.408
X111.72 Y48.592 Z14.453 I0.219 J-1.408
X111.281 Y51.408 Z14.297 I-0.219 J1.408
X111.72 Y48.592 Z14.14 I0.219 J-1.408
X111.281 Y51.408 Z13.984 I-0.219 J1.408
X111.72 Y48.592 Z13.828 I0.219 J-1.408
X111.281 Y51.408 Z13.671 I-0.219 J1.408
X111.72 Y48.592 Z13.515 I0.219 J-1.408
X111.281 Y51.408 Z13.359 I-0.219 J1.408
X111.72 Y48.592 Z13.202 I0.219 J-1.408
X111.281 Y51.408 Z13.046 I-0.219 J1.408
X111.72 Y48.592 Z12.89 I0.219 J-1.408
X111.281 Y51.408 Z12.733 I-0.219 J1.408
X111.72 Y48.592 Z12.577 I0.219 J-1.408
X111.281 Y51.408 Z12.421 I-0.219 J1.408
X111.72 Y48.592 Z12.264 I0.219 J-1.408
X111.281 Y51.408 Z12.108 I-0.219 J1.408
X111.72 Y48.592 Z11.952 I0.219 J-1.408
X111.281 Y51.408 Z11.795 I-0.219 J1.408
X111.72 Y48.592 Z11.639 I0.219 J-1.408
X111.281 Y51.408 Z11.483 I-0.219 J1.408
X111.72 Y48.592 Z11.326 I0.219 J-1.408
X111.281 Y51.408 Z11.17 I-0.219 J1.408
X111.72 Y48.592 Z11.014 I0.219 J-1.408
X111.281 Y51.408 Z10.857 I-0.219 J1.408
X111.72 Y48.592 Z10.701 I0.219 J-1.408
X111.281 Y51.408 Z10.545 I-0.219 J1.408
X111.72 Y48.592 Z10.388 I0.219 J-1.408
X111.281 Y51.408 Z10.232 I-0.219 J1.408
X111.72 Y48.592 Z10.076 I0.219 J-1.408
X111.281 Y51.408 Z9.919 I-0.219 J1.408
X111.72 Y48.592 Z9.763 I0.219 J-1.408
X111.281 Y51.408 Z9.607 I-0.219 J1.408
X111.72 Y48.592 Z9.45 I0.219 J-1.408
X111.281 Y51.408 Z9.294 I-0.219 J1.408
X111.72 Y48.592 Z9.138 I0.219 J-1.408
X111.281 Y51.408 Z8.981 I-0.219 J1.408
X111.72 Y48.592 Z8.825 I0.219 J-1.408
X111.281 Y51.408 Z8.669 I-0.219 J1.408
X111.72 Y48.592 Z8.512 I0.219 J-1.408
X111.281 Y51.408 Z8.356 I-0.219 J1.408
X111.72 Y48.592 Z8.2 I0.219 J-1.408
X111.281 Y51.408 Z8.043 I-0.219 J1.408
X111.72 Y48.592 Z7.887 I0.219 J-1.408
X111.281 Y51.408 Z7.731 I-0.219 J1.408
X111.72 Y48.592 Z7.574 I0.219 J-1.408
X111.281 Y51.408 Z7.418 I-0.219 J1.408
X111.72 Y48.592 Z7.262 I0.219 J-1.408
X111.281 Y51.408 Z7.105 I-0.219 J1.408
X111.72 Y48.592 Z6.949 I0.219 J-1.408
X111.281 Y51.408 Z6.793 I-0.219 J1.408
X111.72 Y48.592 Z6.636 I0.219 J-1.408
X111.281 Y51.408 Z6.48 I-0.219 J1.408
X111.72 Y48.592 Z6.324 I0.219 J-1.408
X111.281 Y51.408 Z6.167 I-0.219 J1.408
X111.72 Y48.592 Z6.011 I0.219 J-1.408
X111.281 Y51.408 Z5.855 I-0.219 J1.408
X111.72 Y48.592 Z5.698 I0.219 J-1.408
X111.281 Y51.408 Z5.542 I-0.219 J1.408
X111.72 Y48.592 Z5.386 I0.219 J-1.408
X111.281 Y51.408 Z5.229 I-0.219 J1.408
X111.72 Y48.592 Z5.073 I0.219 J-1.408
X111.281 Y51.408 Z4.917 I-0.219 J1.408
X111.72 Y48.592 Z4.76 I0.219 J-1.408
X111.281 Y51.408 Z4.604 I-0.219 J1.408
X111.72 Y48.592 Z4.448 I0.219 J-1.408
X111.281 Y51.408 Z4.291 I-0.219 J1.408
X111.72 Y48.592 Z4.135 I0.219 J-1.408
X111.281 Y51.408 Z3.979 I-0.219 J1.408
X111.72 Y48.592 Z3.822 I0.219 J-1.408
X111.281 Y51.408 Z3.666 I-0.219 J1.408
X111.72 Y48.592 Z3.51 I0.219 J-1.408
X111.281 Y51.408 Z3.353 I-0.219 J1.408
X111.72 Y48.592 Z3.197 I0.219 J-1.408
X111.281 Y51.408 Z3.041 I-0.219 J1.408
X111.72 Y48.592 Z2.884 I0.219 J-1.408
X111.281 Y51.408 Z2.728 I-0.219 J1.408
X111.72 Y48.592 Z2.572 I0.219 J-1.408
X111.281 Y51.408 Z2.415 I-0.219 J1.408
X111.72 Y48.592 Z2.259 I0.219 J-1.408
X111.281 Y51.408 Z2.103 I-0.219 J1.408
X111.72 Y48.592 Z1.946 I0.219 J-1.408
X111.281 Y51.408 Z1.79 I-0.219 J1.408
X111.72 Y48.592 Z1.634 I0.219 J-1.408
X111.281 Y51.408 Z1.477 I-0.219 J1.408
X111.72 Y48.592 Z1.321 I0.219 J-1.408
X111.281 Y51.408 Z1.165 I-0.219 J1.408
X111.72 Y48.592 Z1.008 I0.219 J-1.408
X111.281 Y51.408 Z0.852 I-0.219 J1.408
X111.72 Y48.592 Z0.696 I0.219 J-1.408
X111.281 Y51.408 Z0.539 I-0.219 J1.408
X111.72 Y48.592 Z0.383 I0.219 J-1.408
X111.281 Y51.408 Z0.227 I-0.219 J1.408
X111.72 Y48.592 Z0.07 I0.219 J-1.408
X112.925 Y50 Z0 I-0.219 J1.408
X110.075 I-1.425
X112.925 I1.425
G1 X112.955 Y50.623 F850
X112.98 Y50.697
X113.008 Y50.844
X113.006 Y50.994
X112.978 Y51.141
X112.929 Y51.283
X112.862 Y51.417
X112.78 Y51.543
X112.685 Y51.659
X112.578 Y51.764
X112.461 Y51.858
X112.336 Y51.941
X112.205 Y52.013
X112.067 Y52.073
X111.925 Y52.122
X111.778 Y52.159
X111.625 Y52.185
X111.467 Y52.199
X111.306 Y52.2
X111.143 Y52.189
X110.979 Y52.163
X110.816 Y52.124
X110.655 Y52.072
X110.497 Y52.007
X110.344 Y51.928
X110.196 Y51.836
X110.056 Y51.732
X109.923 Y51.617
X109.799 Y51.491
X109.686 Y51.354
X109.583 Y51.209
X109.492 Y51.055
X109.413 Y50.893
X109.348 Y50.726
X109.296 Y50.553
X109.258 Y50.376
X109.234 Y50.197
X109.224 Y50.016
X109.23 Y49.834
X109.249 Y49.654
X109.284 Y49.475
X109.332 Y49.299
X109.395 Y49.128
X109.471 Y48.962
X109.56 Y48.803
X109.662 Y48.651
X109.775 Y48.508
X109.9 Y48.375
X110.035 Y48.252
X110.18 Y48.14
X110.333 Y48.04
X110.494 Y47.953
X110.661 Y47.878
X110.834 Y47.818
X111.011 Y47.771
X111.191 Y47.739
X111.374 Y47.722
X111.557 Y47.719
X111.74 Y47.731
X111.921 Y47.757
X112.099 Y47.798
X112.274 Y47.853
X112.444 Y47.922
X112.608 Y48.005
X112.764 Y48.1
X112.912 Y48.207
X113.052 Y48.326
X113.181 Y48.456
X113.299 Y48.596
X113.406 Y48.745
X113.508 Y48.915
X113.625 Y49.15
X113.786 Y49.551
X113.876 Y49.84
X113.932 Y50.088
X113.963 Y50.313
X113.976 Y50.528
X113.972 Y50.738
X113.951 Y50.941
X113.916 Y51.135
X113.866 Y51.322
X113.8 Y51.506
X113.719 Y51.686
X113.624 Y51.86
X113.514 Y52.026
X113.391 Y52.184
X113.254 Y52.333
X113.104 Y52.472
X112.941 Y52.6
X112.766 Y52.716
X112.748 Y52.726
X112.617 Y52.782
X112.477 Y52.811
X112.334 Y52.81
X112.097 Y52.785
X111.956 Y52.773
X111.672 Y52.761
X111.53 Y52.756
X111.105 Y52.765
X110.963 Y52.778
X110.778 Y52.787
X110.626 Y52.782
X110.47 Y52.764
X110.305 Y52.732
X110.133 Y52.684
X109.959 Y52.619
X109.786 Y52.539
X109.614 Y52.442
X109.444 Y52.326
X109.277 Y52.193
X109.117 Y52.042
X108.967 Y51.875
X108.828 Y51.694
X108.761 Y51.591
X108.687 Y51.437
X108.652 Y51.27
X108.658 Y51.099
G3 X109.12 Y50.908 I0.294 J0.059
G1 X111.091 Y52.232
G3 X110.963 Y52.778 I-0.167 J0.249
G1 X110.68 Y52.806
X110.538 Y52.828
X110.255 Y52.878
X110.113 Y52.908
X109.893 Y52.958
X109.745 Y52.985
X109.595 Y52.988
X109.446 Y52.974
X109.299 Y52.945
X109.155 Y52.903
X109.005 Y52.845
X108.857 Y52.775
X108.809 Y52.746
X108.636 Y52.605
X108.517 Y52.415
X108.464 Y52.198
X108.481 Y51.975
G3 X108.922 Y51.798 I0.289 J0.081
G1 X109.967 Y52.41
G3 X109.893 Y52.958 I-0.152 J0.259
G1 X109.77 Y52.987
X109.688 Y53.008
X109.26 Y53.128
X109.12 Y53.172
X108.975 Y53.21
X108.781 Y53.193
X108.602 Y53.114
X108.458 Y52.983
X108.363 Y52.812
X108.328 Y52.62
X108.356 Y52.427
G3 X108.845 Y52.31 I0.282 J0.101
G1 X109.227 Y52.671
G3 X109.12 Y53.172 I-0.206 J0.218
G1 X108.979 Y53.217
X108.815 Y53.27
X108.695 Y53.31
X108.652 Y53.324
X108.622 Y53.334
X108.597 Y53.341
X108.483 Y53.353
X108.37 Y53.331
X108.27 Y53.276
G3 X108.338 Y53.14 I0.056 J-0.057
G1 X108.607 Y53.18
G3 X108.622 Y53.334 I-0.012 J0.079
G1 X108.553 Y53.356
X108.518 Y53.362
X108.483 Y53.363 F212.5
X108.447 Y53.361
X108.412 Y53.354
X108.376 Y53.342
X108.341 Y53.325
X108.305 Y53.303
X108.27 Y53.276
X108.264 Y53.27
X108.232 Y53.235
X108.209 Y53.199
X108.192 Y53.164
X108.18 Y53.128
X108.173 Y53.093
X108.17 Y53.058
X108.172 Y53.022 F850
X108.177 Y52.987
X108.358 Y52.42
X108.412 Y52.231
X108.477 Y51.994
X108.511 Y51.853
X108.574 Y51.569
X108.603 Y51.427
X108.651 Y51.144
X108.674 Y51.002
X108.724 Y50.577
X108.738 Y50.293
X108.745 Y50.152
X108.744 Y50.01
X108.738 Y49.726
X108.73 Y49.585
X108.709 Y49.301
X108.702 Y49.151
X108.716 Y48.997
X108.743 Y48.838
X108.784 Y48.676
X108.842 Y48.506
X108.918 Y48.332
X109.01 Y48.159
X109.118 Y47.99
X109.245 Y47.824
X109.389 Y47.663
X109.551 Y47.51
X109.728 Y47.366
X109.873 Y47.267
X110.029 Y47.187
X110.201 Y47.149
X110.376 Y47.154
G3 X110.562 Y47.625 I-0.057 J0.295
G1 X109.25 Y49.438
G3 X108.709 Y49.301 I-0.243 J-0.176
G1 X108.695 Y49.156
X108.658 Y48.876
X108.637 Y48.734
X108.553 Y48.334
X108.53 Y48.186
X108.529 Y48.036
X108.546 Y47.886
X108.577 Y47.74
X108.621 Y47.596
X108.68 Y47.451
X108.748 Y47.314
X108.76 Y47.295
X108.905 Y47.124
X109.097 Y47.008
X109.316 Y46.958
X109.539 Y46.981
G3 X109.642 Y47.036 I-0.087 J0.287
X109.708 Y47.424 I-0.19 J0.232
G1 X109.101 Y48.418
G3 X108.553 Y48.334 I-0.256 J-0.156
G1 X108.548 Y48.309
X108.439 Y47.883
X108.412 Y47.788
X108.355 Y47.6
X108.319 Y47.454
X108.333 Y47.266
X108.408 Y47.092
X108.534 Y46.951
X108.698 Y46.857
X108.884 Y46.822
X109.072 Y46.848
G3 X109.196 Y47.331 I-0.098 J0.283
G1 X108.862 Y47.704
G3 X108.355 Y47.6 I-0.223 J-0.2
G1 X108.312 Y47.458
X108.268 Y47.316
X108.221 Y47.175
X108.209 Y47.132
X108.2 Y47.102
X108.199 Y47.097
X108.194 Y46.951
X108.248 Y46.814
X108.353 Y46.712
G3 X108.613 Y46.708 I0.135 J0.316
X108.383 Y47.294 I-0.115 J0.293
X108.2 Y47.102 I0.115 J-0.293
G1 X108.179 Y47.033 F212.5
X108.176 Y46.997
X108.177 Y46.962
X108.182 Y46.927
X108.192 Y46.891
X108.204 Y46.861
X108.221 Y46.83
X108.242 Y46.8
X108.27 Y46.77
X108.294 Y46.749
X108.353 Y46.712
X108.382 Y46.698
X108.412 Y46.688
X108.447 Y46.68
X108.483 Y46.677
X108.518 F850
X108.553 Y46.682
X108.695 Y46.728
X108.837 Y46.775
X109.262 Y46.906
X109.546 Y46.982
X109.688 Y47.019
X109.748 Y47.033
X110.113 Y47.109
X110.255 Y47.135
X110.538 Y47.18
X110.68 Y47.199
X111.105 Y47.237
X111.53 Y47.244
X111.672 Y47.24
X111.956 Y47.23
X112.097 Y47.219
X112.277 Y47.211
X112.427 Y47.217
X112.582 Y47.236
X112.74 Y47.268
X112.904 Y47.316
X113.074 Y47.38
X113.247 Y47.462
X113.417 Y47.56
X113.585 Y47.676
X113.76 Y47.819
X113.935 Y47.987
X114.119 Y48.194
X114.225 Y48.334
X114.316 Y48.496
X114.361 Y48.675
X114.358 Y48.861
G3 X113.897 Y49.055 I-0.295 J-0.055
G1 X111.969 Y47.766
G3 X112.097 Y47.219 I0.167 J-0.249
G1 X112.381 Y47.193
X112.523 Y47.175
X112.806 Y47.127
X112.948 Y47.101
X113.168 Y47.052
X113.316 Y47.027
X113.466
X113.615 Y47.043
X113.761 Y47.074
X113.905 Y47.118
X114.054 Y47.177
X114.194 Y47.245
X114.229 Y47.266
X114.403 Y47.413
X114.521 Y47.608
X114.571 Y47.83
X114.546 Y48.057
G3 X114.103 Y48.222 I-0.286 J-0.091
G1 X113.086 Y47.598
G3 X113.168 Y47.052 I0.157 J-0.256
G1 X113.373 Y47.006
X113.515 Y46.969
X113.802 Y46.891
X113.94 Y46.849
X114.085 Y46.812
X114.276 Y46.832
X114.45 Y46.912
X114.59 Y47.042
X114.68 Y47.211
X114.713 Y47.4
X114.684 Y47.589
G3 X114.193 Y47.701 I-0.282 J-0.103
G1 X113.83 Y47.348
G3 X113.94 Y46.849 I0.209 J-0.215
G1 X114.263 Y46.749
X114.365 Y46.716
X114.408 Y46.703
X114.438 Y46.693
X114.449 Y46.691
X114.592 Y46.685
X114.726 Y46.736
X114.828 Y46.836
G3 X114.858 Y46.949 I-0.317 J0.146
X114.839 Y47.101 I-0.347 J0.032
X114.244 Y46.884 I-0.297 J-0.109
X114.438 Y46.693 I0.297 J0.109
G1 X114.507 Y46.672 F212.5
X114.543 Y46.669
X114.578
X114.614 Y46.674
X114.649 Y46.683
X114.677 Y46.694
X114.705 Y46.708
X114.734 Y46.726
X114.762 Y46.749
X114.791 Y46.781
X114.828 Y46.836
X114.842 Y46.863
X114.852 Y46.891
X114.862 Y46.927
X114.866 Y46.962
X114.867 Y46.997 F850
X114.863 Y47.033
X114.819 Y47.175
X114.772 Y47.316
X114.68 Y47.6
X114.636 Y47.742
X114.594 Y47.883
X114.475 Y48.309
X114.379 Y48.734
X114.365 Y48.812
X114.313 Y49.159
X114.297 Y49.301
X114.272 Y49.585
X114.264 Y49.726
X114.256 Y50.01
Y50.152
X114.27 Y50.435
X114.279 Y50.577
X114.335 Y51.002
X114.389 Y51.286
X114.41 Y51.434
X114.412 Y51.584
X114.401 Y51.734
X114.376 Y51.89
X114.337 Y52.048
X114.282 Y52.216
X114.208 Y52.391
X114.117 Y52.565
X114.01 Y52.736
X113.865 Y52.88
X113.685 Y52.976
X113.485 Y53.016
X113.282 Y52.997
G3 X113.099 Y52.566 I0.082 J-0.289
G1 X113.833 Y51.21
G3 X114.389 Y51.286 I0.264 J0.143
G1 X114.416 Y51.427
X114.449 Y51.569
X114.518 Y51.853
X114.556 Y51.994
X114.62 Y52.214
X114.655 Y52.36
X114.658 Y52.407
X114.639 Y52.63
X114.551 Y52.835
X114.402 Y53.002
X114.209 Y53.114
X113.99 Y53.159
X113.768 Y53.132
G3 X113.635 Y52.649 I0.093 J-0.285
G1 X114.11 Y52.11
G3 X114.62 Y52.214 I0.225 J0.198
G1 X114.681 Y52.42 F212.5
X114.782 Y52.735
X114.821 Y52.88
X114.783 Y53.038 F850
X114.691 Y53.172
X114.557 Y53.263
X114.399 Y53.301
X114.238 Y53.279
G3 X114.135 Y53.224 I0.149 J-0.404
X114.083 Y53.18 I0.252 J-0.349
X114.683 Y52.579 I0.3 J-0.3
X114.782 Y52.735 I-0.3 J0.3
G1 X114.863 Y52.987
X114.869 Y53.022
X114.871 Y53.058 F212.5
X114.868 Y53.093
X114.861 Y53.128
X114.85 Y53.162
X114.835 Y53.195
X114.815 Y53.228
X114.791 Y53.261
X114.783 Y53.27
X114.749 Y53.302
X114.716 Y53.326
X114.682 Y53.343
X114.649 Y53.356
X114.614 Y53.365
X114.578 Y53.369
X114.543 F850
X114.507 Y53.365
X114.365 Y53.321
X114.082 Y53.228
X113.798 Y53.141
X113.373 Y53.02
X112.948 Y52.916
X112.806 Y52.887
X112.523 Y52.836
X112.381 Y52.815
X112.334 Y52.81
G3 X112.224 Y52.771 I0.042 J-0.297
G1 X112.166 Y52.737 Z0.008
X112.112 Y52.705 Z0.03
X112.063 Y52.676 Z0.065
X112.022 Y52.652 Z0.113
X111.991 Y52.634 Z0.17
X111.972 Y52.623 Z0.233
X111.966 Y52.619 Z0.3
G0 Z33
M9
M30
%
