%
(1001)
(Z0 stock bottom left)
(T1  D=3.2 CR=0 - ZMIN=0 - flat end mill)
G90 G94
G17
G21

(2D Adaptive3)
M9
T1 M6
S10000 M3
G54
M9
G0 X110.377 Y51.024
Z33
Z23
Z20.87
G1 Z20.55 F850
G3 X112.625 Y48.977 Z20.383 I1.124 J-1.023 F283.3
X110.377 Y51.024 Z20.216 I-1.124 J1.023
X112.625 Y48.977 Z20.05 I1.124 J-1.023
X110.377 Y51.024 Z19.883 I-1.124 J1.023
X112.625 Y48.977 Z19.716 I1.124 J-1.023
X110.377 Y51.024 Z19.549 I-1.124 J1.023
X112.625 Y48.977 Z19.383 I1.124 J-1.023
X110.377 Y51.024 Z19.216 I-1.124 J1.023
X112.625 Y48.977 Z19.049 I1.124 J-1.023
X110.377 Y51.024 Z18.882 I-1.124 J1.023
X112.625 Y48.977 Z18.716 I1.124 J-1.023
X110.377 Y51.024 Z18.549 I-1.124 J1.023
X112.625 Y48.977 Z18.382 I1.124 J-1.023
X110.377 Y51.024 Z18.215 I-1.124 J1.023
X112.625 Y48.977 Z18.049 I1.124 J-1.023
X110.377 Y51.024 Z17.882 I-1.124 J1.023
X112.625 Y48.977 Z17.715 I1.124 J-1.023
X110.377 Y51.024 Z17.548 I-1.124 J1.023
X112.625 Y48.977 Z17.382 I1.124 J-1.023
X110.377 Y51.024 Z17.215 I-1.124 J1.023
X112.625 Y48.977 Z17.048 I1.124 J-1.023
X110.377 Y51.024 Z16.881 I-1.124 J1.023
X112.625 Y48.977 Z16.715 I1.124 J-1.023
X110.377 Y51.024 Z16.548 I-1.124 J1.023
X112.625 Y48.977 Z16.381 I1.124 J-1.023
X110.377 Y51.024 Z16.214 I-1.124 J1.023
X112.625 Y48.977 Z16.048 I1.124 J-1.023
X110.377 Y51.024 Z15.881 I-1.124 J1.023
X112.625 Y48.977 Z15.714 I1.124 J-1.023
X110.377 Y51.024 Z15.547 I-1.124 J1.023
X112.625 Y48.977 Z15.381 I1.124 J-1.023
X110.377 Y51.024 Z15.214 I-1.124 J1.023
X112.625 Y48.977 Z15.047 I1.124 J-1.023
X110.377 Y51.024 Z14.88 I-1.124 J1.023
X112.625 Y48.977 Z14.714 I1.124 J-1.023
X110.377 Y51.024 Z14.547 I-1.124 J1.023
X112.625 Y48.977 Z14.38 I1.124 J-1.023
X110.377 Y51.024 Z14.213 I-1.124 J1.023
X112.625 Y48.977 Z14.047 I1.124 J-1.023
X110.377 Y51.024 Z13.88 I-1.124 J1.023
X112.625 Y48.977 Z13.713 I1.124 J-1.023
X110.377 Y51.024 Z13.546 I-1.124 J1.023
X112.625 Y48.977 Z13.38 I1.124 J-1.023
X110.377 Y51.024 Z13.213 I-1.124 J1.023
X112.625 Y48.977 Z13.046 I1.124 J-1.023
X110.377 Y51.024 Z12.879 I-1.124 J1.023
X112.625 Y48.977 Z12.713 I1.124 J-1.023
X110.377 Y51.024 Z12.546 I-1.124 J1.023
X112.625 Y48.977 Z12.379 I1.124 J-1.023
X110.377 Y51.024 Z12.212 I-1.124 J1.023
X112.625 Y48.977 Z12.046 I1.124 J-1.023
X110.377 Y51.024 Z11.879 I-1.124 J1.023
X112.625 Y48.977 Z11.712 I1.124 J-1.023
X110.377 Y51.024 Z11.545 I-1.124 J1.023
X112.625 Y48.977 Z11.379 I1.124 J-1.023
X110.377 Y51.024 Z11.212 I-1.124 J1.023
X112.625 Y48.977 Z11.045 I1.124 J-1.023
X110.377 Y51.024 Z10.878 I-1.124 J1.023
X112.625 Y48.977 Z10.711 I1.124 J-1.023
X110.377 Y51.024 Z10.545 I-1.124 J1.023
X112.625 Y48.977 Z10.378 I1.124 J-1.023
X110.377 Y51.024 Z10.211 I-1.124 J1.023
X112.625 Y48.977 Z10.044 I1.124 J-1.023
X110.377 Y51.024 Z9.878 I-1.124 J1.023
X112.625 Y48.977 Z9.711 I1.124 J-1.023
X110.377 Y51.024 Z9.544 I-1.124 J1.023
X112.625 Y48.977 Z9.377 I1.124 J-1.023
X110.377 Y51.024 Z9.211 I-1.124 J1.023
X112.625 Y48.977 Z9.044 I1.124 J-1.023
X110.377 Y51.024 Z8.877 I-1.124 J1.023
X112.625 Y48.977 Z8.71 I1.124 J-1.023
X110.377 Y51.024 Z8.544 I-1.124 J1.023
X112.625 Y48.977 Z8.377 I1.124 J-1.023
X110.377 Y51.024 Z8.21 I-1.124 J1.023
X112.625 Y48.977 Z8.043 I1.124 J-1.023
X110.377 Y51.024 Z7.877 I-1.124 J1.023
X112.625 Y48.977 Z7.71 I1.124 J-1.023
X110.377 Y51.024 Z7.543 I-1.124 J1.023
X112.625 Y48.977 Z7.376 I1.124 J-1.023
X110.377 Y51.024 Z7.21 I-1.124 J1.023
X112.625 Y48.977 Z7.043 I1.124 J-1.023
X110.377 Y51.024 Z6.876 I-1.124 J1.023
X112.625 Y48.977 Z6.709 I1.124 J-1.023
X110.377 Y51.024 Z6.543 I-1.124 J1.023
X112.625 Y48.977 Z6.376 I1.124 J-1.023
X110.377 Y51.024 Z6.209 I-1.124 J1.023
X112.625 Y48.977 Z6.042 I1.124 J-1.023
X110.377 Y51.024 Z5.876 I-1.124 J1.023
X112.625 Y48.977 Z5.709 I1.124 J-1.023
X110.377 Y51.024 Z5.542 I-1.124 J1.023
X112.625 Y48.977 Z5.375 I1.124 J-1.023
X110.377 Y51.024 Z5.209 I-1.124 J1.023
X112.625 Y48.977 Z5.042 I1.124 J-1.023
X110.377 Y51.024 Z4.875 I-1.124 J1.023
X112.625 Y48.977 Z4.708 I1.124 J-1.023
X110.377 Y51.024 Z4.542 I-1.124 J1.023
X112.625 Y48.977 Z4.375 I1.124 J-1.023
X110.377 Y51.024 Z4.208 I-1.124 J1.023
X112.625 Y48.977 Z4.041 I1.124 J-1.023
X110.377 Y51.024 Z3.875 I-1.124 J1.023
X112.625 Y48.977 Z3.708 I1.124 J-1.023
X110.377 Y51.024 Z3.541 I-1.124 J1.023
X112.625 Y48.977 Z3.374 I1.124 J-1.023
X110.377 Y51.024 Z3.208 I-1.124 J1.023
X112.625 Y48.977 Z3.041 I1.124 J-1.023
X110.377 Y51.024 Z2.874 I-1.124 J1.023
X112.625 Y48.977 Z2.707 I1.124 J-1.023
X110.377 Y51.024 Z2.541 I-1.124 J1.023
X112.625 Y48.977 Z2.374 I1.124 J-1.023
X110.377 Y51.024 Z2.207 I-1.124 J1.023
X112.625 Y48.977 Z2.04 I1.124 J-1.023
X110.377 Y51.024 Z1.874 I-1.124 J1.023
X112.625 Y48.977 Z1.707 I1.124 J-1.023
X110.377 Y51.024 Z1.54 I-1.124 J1.023
X112.625 Y48.977 Z1.373 I1.124 J-1.023
X110.377 Y51.024 Z1.206 I-1.124 J1.023
X112.625 Y48.977 Z1.04 I1.124 J-1.023
X110.377 Y51.024 Z0.873 I-1.124 J1.023
X112.625 Y48.977 Z0.706 I1.124 J-1.023
X110.377 Y51.024 Z0.539 I-1.124 J1.023
X112.625 Y48.977 Z0.373 I1.124 J-1.023
X110.377 Y51.024 Z0.206 I-1.124 J1.023
X112.625 Y48.977 Z0.039 I1.124 J-1.023
X113.021 Y50 Z0 I-1.124 J1.023
X109.981 I-1.52
X113.021 I1.52
G1 X113.038 Y50.645 F850
X113.067 Y50.72
X113.102 Y50.866
X113.106 Y51.016
X113.086 Y51.164
X113.044 Y51.308
X112.984 Y51.446
X112.909 Y51.576
X112.821 Y51.697
X112.721 Y51.809
X112.611 Y51.91
X112.492 Y52.002
X112.365 Y52.083
X112.233 Y52.153
X112.091 Y52.214
X111.941 Y52.264
X111.784 Y52.303
X111.622 Y52.33
X111.454 Y52.344
X111.283 Y52.345
X111.109 Y52.332
X110.935 Y52.304
X110.762 Y52.262
X110.591 Y52.206
X110.423 Y52.136
X110.26 Y52.051
X110.103 Y51.953
X109.953 Y51.842
X109.812 Y51.718
X109.681 Y51.583
X109.56 Y51.437
X109.451 Y51.282
X109.355 Y51.117
X109.272 Y50.945
X109.202 Y50.766
X109.147 Y50.582
X109.108 Y50.393
X109.083 Y50.202
X109.074 Y50.009
X109.08 Y49.815
X109.102 Y49.622
X109.139 Y49.432
X109.191 Y49.245
X109.258 Y49.063
X109.34 Y48.886
X109.436 Y48.716
X109.545 Y48.555
X109.667 Y48.403
X109.801 Y48.261
X109.945 Y48.13
X110.1 Y48.011
X110.264 Y47.905
X110.436 Y47.813
X110.614 Y47.734
X110.799 Y47.67
X110.988 Y47.622
X111.18 Y47.588
X111.375 Y47.57
X111.57 Y47.568
X111.765 Y47.581
X111.958 Y47.61
X112.149 Y47.654
X112.335 Y47.714
X112.516 Y47.788
X112.69 Y47.876
X112.856 Y47.979
X113.014 Y48.094
X113.162 Y48.221
X113.3 Y48.361
X113.426 Y48.51
X113.539 Y48.669
X113.644 Y48.846
X113.77 Y49.1
X113.939 Y49.528
X114.033 Y49.833
X114.092 Y50.1
X114.126 Y50.346
X114.139 Y50.576
X114.133 Y50.795
X114.111 Y51.007
X114.072 Y51.215
X114.017 Y51.418
X113.946 Y51.616
X113.859 Y51.807
X113.758 Y51.99
X113.641 Y52.167
X113.509 Y52.334
X113.362 Y52.493
X113.277 Y52.571
X113.091 Y52.696
X112.876 Y52.761
X112.652 Y52.759
X112.509 Y52.736
X112.228 Y52.7
X112.082 Y52.684
X111.789 Y52.664
X111.642 Y52.656
X111.203 Y52.658
X110.763 Y52.698
X110.616 Y52.719
X110.467 Y52.735
X110.317 Y52.734
X110.168 Y52.718
X110.021 Y52.69
X109.867 Y52.647
X109.713 Y52.59
X109.554 Y52.516
X109.391 Y52.424
X109.23 Y52.315
X109.073 Y52.19
X108.921 Y52.047
X108.893 Y52.016
X108.767 Y51.824
X108.706 Y51.603
X108.714 Y51.374
G3 X108.765 Y51.26 I0.312 J0.071
X109.196 Y51.174 I0.261 J0.185
G1 X110.726 Y52.133
G3 X110.616 Y52.719 I-0.17 J0.271
G1 X110.323 Y52.765
X110.177 Y52.793
X109.884 Y52.857
X109.771 Y52.882
X109.657 Y52.913
X109.51 Y52.945
X109.36 Y52.952
X109.211 Y52.942
X109.161 Y52.932
X108.969 Y52.869
X108.801 Y52.757
X108.669 Y52.604
X108.583 Y52.421
X108.549 Y52.222
X108.57 Y52.021
G3 X109.067 Y51.849 I0.308 J0.086
G1 X109.751 Y52.349
G3 X109.657 Y52.913 I-0.189 J0.259
G1 X109.444 Y52.97
X109.298 Y53.012
X109.035 Y53.095
X108.889 Y53.133
X108.716 Y53.102
X108.565 Y53.01
X108.459 Y52.869
X108.411 Y52.7
X108.43 Y52.524
G3 X108.542 Y52.338 I0.482 J0.163
X109.243 Y52.946 I0.338 J0.319
X109.035 Y53.095 I-0.364 J-0.289
G1 X108.858 Y53.15
X108.783 Y53.175
X108.747 Y53.186
X108.712 Y53.192
X108.675 Y53.194
X108.639 Y53.192
X108.602 Y53.186
X108.565 Y53.175
X108.529 Y53.159
X108.492 Y53.138
X108.455 Y53.112
X108.419 Y53.077
X108.399 Y53.053
X108.384 Y53.029
X108.365 Y52.992
X108.351 Y52.956
X108.343 Y52.919
X108.338 Y52.882
Y52.846
X108.342 Y52.809
X108.363 Y52.736
X108.419 Y52.56
X108.454 Y52.443
X108.537 Y52.15
X108.574 Y52.003
X108.646 Y51.711
X108.677 Y51.564
X108.734 Y51.271
X108.759 Y51.125
X108.798 Y50.832
X108.816 Y50.685
X108.84 Y50.246
X108.841 Y49.806
X108.835 Y49.66
X108.819 Y49.367
X108.805 Y49.22
X108.785 Y49.074
X108.773 Y48.924
Y48.774
X108.789 Y48.625
X108.819 Y48.478
X108.86 Y48.332
X108.917 Y48.181
X108.992 Y48.022
X109.083 Y47.863
X109.19 Y47.707
X109.316 Y47.552
X109.461 Y47.399
X109.476 Y47.387
X109.667 Y47.262
X109.888 Y47.202
X110.116 Y47.211
G3 X110.315 Y47.693 I-0.072 J0.312
G1 X109.372 Y49.191
G3 X108.829 Y49.19 I-0.271 J-0.17
X108.785 Y49.074 I0.271 J-0.17
G1 X108.766 Y48.927
X108.743 Y48.781
X108.686 Y48.488
X108.657 Y48.341
X108.601 Y48.114
X108.572 Y47.967
X108.566 Y47.817
X108.578 Y47.667
X108.581 Y47.651
X108.647 Y47.461
X108.761 Y47.295
X108.915 Y47.166
X109.098 Y47.082
X109.296 Y47.05
X109.496 Y47.073
G3 X109.661 Y47.576 I-0.089 J0.307
G1 X109.162 Y48.222
G3 X108.601 Y48.114 I-0.253 J-0.195
G1 X108.548 Y47.902
X108.464 Y47.609 F212.5
X108.429 Y47.492
X108.393 Y47.346
X108.43 Y47.184 F850
X108.523 Y47.045
X108.659 Y46.949
X108.82 Y46.907
X108.986 Y46.926
G3 X109.16 Y47.034 I-0.151 J0.437
X108.547 Y47.674 I-0.311 J0.316
X108.486 Y47.604 I0.302 J-0.324
X108.429 Y47.492 I0.363 J-0.254
G1 X108.419 Y47.457
X108.373 Y47.316
X108.352 Y47.243
X108.347 Y47.206
X108.346 Y47.169
X108.35 Y47.133
X108.358 Y47.096
X108.371 Y47.059
X108.389 Y47.023
X108.419 Y46.978
X108.445 Y46.946
X108.48 Y46.914
X108.511 Y46.893
X108.541 Y46.876
X108.565 Y46.866
X108.602 Y46.855
X108.639 Y46.848
X108.675 Y46.845
X108.712 Y46.847
X108.74 Y46.851
X108.767 Y46.858
X108.858 Y46.887
X109.301 Y47.023
X109.737 Y47.134
X109.904 Y47.169
X110.177 Y47.222
X110.323 Y47.247
X110.616 Y47.288
X110.763 Y47.307
X111.203 Y47.343
X111.642 Y47.344
X111.789 Y47.337
X112.082 Y47.32
X112.14 Y47.316
X112.521 Y47.273
X112.671 Y47.259
X112.82 Y47.27
X112.968 Y47.295
X113.117 Y47.334
X113.267 Y47.386
X113.423 Y47.455
X113.585 Y47.542
X113.746 Y47.647
X113.913 Y47.775
X114.089 Y47.935
X114.116 Y47.964
X114.223 Y48.109
X114.292 Y48.276
X114.318 Y48.454
X114.302 Y48.634
G3 X113.811 Y48.819 I-0.31 J-0.079
G1 X112.396 Y47.852
G3 X112.521 Y47.273 I0.181 J-0.264
G1 X112.668 Y47.252
X112.961 Y47.201
X113.107 Y47.173
X113.4 Y47.102
X113.548 Y47.074
X113.697 Y47.069
X113.847 Y47.08
X113.877 Y47.086
X114.071 Y47.154
X114.24 Y47.271
X114.369 Y47.431
X114.451 Y47.619
X114.478 Y47.822
X114.449 Y48.026
G3 X113.947 Y48.178 I-0.304 J-0.099
G1 X113.289 Y47.663
G3 X113.4 Y47.102 I0.197 J-0.252
G1 X113.547 Y47.067
X113.709 Y47.023 F212.5
X113.84 Y46.985
X114.031 Y46.928
X114.176 Y46.892
X114.344 Y46.93 F850
X114.487 Y47.025
X114.586 Y47.165
X114.628 Y47.331
X114.608 Y47.502
G3 X114.552 Y47.613 I-0.444 J-0.155
X114.498 Y47.678 I-0.387 J-0.266
X113.854 Y47.038 I-0.322 J-0.32
X114.031 Y46.928 I0.322 J0.32
G1 X114.133 Y46.897
X114.279 Y46.85
X114.316 Y46.842
X114.353 Y46.839
X114.389
X114.426 Y46.844
X114.471 Y46.856
X114.517 Y46.876
X114.545 Y46.893
X114.572 Y46.914
X114.601 Y46.941
X114.623 Y46.968
X114.657 Y47.023
X114.674 Y47.059
X114.686 Y47.096
X114.693 Y47.133
X114.696 Y47.169
X114.695 Y47.206
X114.689 Y47.243
X114.668 Y47.316
X114.621 Y47.462
X114.485 Y47.902
X114.426 Y48.105
X114.402 Y48.195
X114.366 Y48.341
X114.27 Y48.781
X114.244 Y48.927
X114.202 Y49.22
X114.186 Y49.367
X114.167 Y49.66
X114.16 Y49.806
X114.161 Y50.246
X114.19 Y50.685
X114.21 Y50.832
X114.252 Y51.125
X114.28 Y51.271
X114.343 Y51.564
X114.353 Y51.608
X114.38 Y51.756
X114.388 Y51.906
X114.379 Y52.056
X114.357 Y52.204
X114.322 Y52.35
X114.29 Y52.442
X114.187 Y52.639
X114.032 Y52.796
X113.837 Y52.902
X113.62 Y52.945
X113.4 Y52.923
G3 X113.215 Y52.451 I0.09 J-0.307
G1 X113.77 Y51.526
G3 X114.353 Y51.608 I0.274 J0.165
G1 X114.377 Y51.711
X114.413 Y51.857
X114.454 Y52.003
X114.496 Y52.15
X114.572 Y52.4
X114.609 Y52.545
X114.573 Y52.744
X114.467 Y52.916
X114.306 Y53.038
X114.111 Y53.091
X113.91 Y53.07
G3 X113.706 Y52.944 I0.173 J-0.508
X114.439 Y52.192 I0.369 J-0.374
X114.518 Y52.287 I-0.364 J0.379
X114.572 Y52.4 I-0.442 J0.283
G1 X114.63 Y52.589
X114.677 Y52.736
X114.697 Y52.809
X114.702 Y52.846
Y52.882
X114.698 Y52.919
X114.69 Y52.956
X114.676 Y52.992
X114.658 Y53.029
X114.642 Y53.053
X114.624 Y53.076
X114.598 Y53.103
X114.572 Y53.124
X114.527 Y53.153
X114.482 Y53.175
X114.454 Y53.185
X114.426 Y53.192
X114.389 Y53.197
X114.353 Y53.198
X114.316 Y53.195
X114.279 Y53.187
X114.133 Y53.139
X113.986 Y53.093
X113.547 Y52.961
X113.107 Y52.849
X112.961 Y52.818
X112.652 Y52.759
G3 X112.537 Y52.711 I0.062 J-0.314
G1 X112.485 Y52.676 Z0.006
X112.435 Y52.643 Z0.024
X112.389 Y52.613 Z0.054
X112.349 Y52.586 Z0.094
X112.316 Y52.564 Z0.142
X112.291 Y52.547 Z0.198
X112.276 Y52.537 Z0.258
X112.271 Y52.534 Z0.32
G0 Z33
M9
M30
%
