%
(1001)
(Z0 stock bottom left)
(T1  D=6 CR=0 - ZMIN=0 - flat end mill)
G90 G94
G17
G21

(2D Adaptive2)
M9
T1 M6
S6000 M3
G54
M9
G0 X125.848 Y103.252
Z33
Z23
Z21.1
G1 Z20.5 F850
G3 X130.248 Y106.877 Z20.187 I2.2 J1.812 F283.3
X125.848 Y103.252 Z19.875 I-2.2 J-1.812
X130.248 Y106.877 Z19.562 I2.2 J1.812
X125.848 Y103.252 Z19.249 I-2.2 J-1.812
X130.248 Y106.877 Z18.937 I2.2 J1.812
X125.848 Y103.252 Z18.624 I-2.2 J-1.812
X130.248 Y106.877 Z18.311 I2.2 J1.812
X125.848 Y103.252 Z17.999 I-2.2 J-1.812
X130.248 Y106.877 Z17.686 I2.2 J1.812
X125.848 Y103.252 Z17.373 I-2.2 J-1.812
X130.248 Y106.877 Z17.061 I2.2 J1.812
X125.848 Y103.252 Z16.748 I-2.2 J-1.812
X130.248 Y106.877 Z16.435 I2.2 J1.812
X125.848 Y103.252 Z16.123 I-2.2 J-1.812
X130.248 Y106.877 Z15.81 I2.2 J1.812
X125.848 Y103.252 Z15.497 I-2.2 J-1.812
X130.248 Y106.877 Z15.185 I2.2 J1.812
X125.848 Y103.252 Z14.872 I-2.2 J-1.812
X130.248 Y106.877 Z14.559 I2.2 J1.812
X125.848 Y103.252 Z14.247 I-2.2 J-1.812
X130.248 Y106.877 Z13.934 I2.2 J1.812
X125.848 Y103.252 Z13.621 I-2.2 J-1.812
X130.248 Y106.877 Z13.309 I2.2 J1.812
X125.848 Y103.252 Z12.996 I-2.2 J-1.812
X130.248 Y106.877 Z12.683 I2.2 J1.812
X125.848 Y103.252 Z12.371 I-2.2 J-1.812
X130.248 Y106.877 Z12.058 I2.2 J1.812
X125.848 Y103.252 Z11.745 I-2.2 J-1.812
X130.248 Y106.877 Z11.433 I2.2 J1.812
X125.848 Y103.252 Z11.12 I-2.2 J-1.812
X130.248 Y106.877 Z10.807 I2.2 J1.812
X125.848 Y103.252 Z10.495 I-2.2 J-1.812
X130.248 Y106.877 Z10.182 I2.2 J1.812
X125.848 Y103.252 Z9.869 I-2.2 J-1.812
X130.248 Y106.877 Z9.557 I2.2 J1.812
X125.848 Y103.252 Z9.244 I-2.2 J-1.812
X130.898 Y105.065 Z9 I2.2 J1.812
X125.198 I-2.85
X130.898 I2.85
G1 X130.901 Y105.286 F850
X131.054 Y106.159
X131.091 Y106.263
X131.129 Y106.408
X131.152 Y106.557
X131.16 Y106.706
X131.155 Y106.857
X131.136 Y107.018
X131.103 Y107.188
X131.053 Y107.365
X130.986 Y107.548
X130.899 Y107.734
X130.793 Y107.923
X130.665 Y108.111
X130.517 Y108.296
X130.348 Y108.476
X130.157 Y108.648
X129.946 Y108.81
X129.716 Y108.959
X129.467 Y109.093
X129.2 Y109.209
X128.919 Y109.307
X128.624 Y109.383
X128.317 Y109.436
X128.002 Y109.465
X127.679 Y109.469
X127.353 Y109.447
X127.025 Y109.397
X126.699 Y109.321
X126.376 Y109.218
X126.06 Y109.088
X125.752 Y108.931
X125.456 Y108.749
X125.173 Y108.543
X124.907 Y108.313
X124.659 Y108.061
X124.43 Y107.789
X124.223 Y107.499
X124.04 Y107.191
X123.881 Y106.869
X123.749 Y106.535
X123.643 Y106.19
X123.566 Y105.837
X123.516 Y105.478
X123.496 Y105.116
X123.505 Y104.753
X123.543 Y104.391
X123.61 Y104.034
X123.706 Y103.682
X123.829 Y103.339
X123.98 Y103.007
X124.157 Y102.688
X124.36 Y102.384
X124.586 Y102.097
X124.834 Y101.828
X125.104 Y101.581
X125.392 Y101.356
X125.698 Y101.155
X126.018 Y100.979
X126.353 Y100.829
X126.698 Y100.707
X127.051 Y100.612
X127.412 Y100.546
X127.776 Y100.51
X128.142 Y100.502
X128.508 Y100.525
X128.871 Y100.576
X129.228 Y100.656
X129.578 Y100.765
X129.918 Y100.902
X130.246 Y101.065
X130.56 Y101.255
X130.858 Y101.468
X131.137 Y101.705
X131.397 Y101.964
X131.635 Y102.243
X131.85 Y102.54
X132.092 Y102.938
X132.467 Y103.685
X132.7 Y104.259
X132.858 Y104.762
X132.963 Y105.218
X133.026 Y105.656
X133.054 Y106.08
X133.047 Y106.49
X133.008 Y106.89
X132.938 Y107.281
X132.838 Y107.663
X132.707 Y108.035
X132.546 Y108.397
X132.356 Y108.747
X132.136 Y109.083
X131.888 Y109.404
X131.612 Y109.706
X131.309 Y109.989
X130.981 Y110.25
X130.627 Y110.487
X130.251 Y110.698
X129.853 Y110.88
X129.436 Y111.032
X129.003 Y111.151
X128.556 Y111.237
X128.098 Y111.286
X127.633 Y111.299
X127.164 Y111.275
X126.693 Y111.212
X126.225 Y111.111
X125.764 Y110.971
X125.312 Y110.794
X124.872 Y110.58
X124.449 Y110.329
X124.045 Y110.044
X123.663 Y109.725
X123.306 Y109.375
X122.977 Y108.996
X122.678 Y108.59
X122.411 Y108.16
X122.18 Y107.709
X121.985 Y107.239
X121.827 Y106.753
X121.709 Y106.255
X121.631 Y105.749
X121.594 Y105.237
X121.598 Y104.723
X121.644 Y104.21
X121.73 Y103.701
X121.858 Y103.201
X122.025 Y102.712
X122.231 Y102.238
X122.474 Y101.781
X122.754 Y101.345
X123.068 Y100.933
X123.414 Y100.547
X123.79 Y100.19
X124.194 Y99.864
X124.623 Y99.571
X125.074 Y99.314
X125.544 Y99.094
X126.031 Y98.912
X126.531 Y98.77
X127.04 Y98.668
X127.556 Y98.608
X128.076 Y98.589
X128.595 Y98.612
X129.111 Y98.676
X129.62 Y98.782
X130.119 Y98.928
X130.605 Y99.114
X131.074 Y99.338
X131.524 Y99.6
X131.951 Y99.896
X132.368 Y100.238
X132.819 Y100.673
X133.244 Y101.154
X133.642 Y101.685
X133.999 Y102.251
X134.304 Y102.834
X134.555 Y103.425
X134.753 Y104.018
X134.899 Y104.612
X134.995 Y105.203
X135.042 Y105.791
Y106.374
X134.996 Y106.95
X134.904 Y107.515
X134.768 Y108.069
X134.589 Y108.609
X134.367 Y109.132
X134.103 Y109.636
X133.799 Y110.118
X133.456 Y110.577
X133.075 Y111.009
X132.657 Y111.412
X132.206 Y111.782
X131.722 Y112.118
X131.209 Y112.416
X130.669 Y112.675
X130.105 Y112.89
X129.521 Y113.062
X128.92 Y113.187
X128.307 Y113.264
X127.684 Y113.292
X127.058 Y113.269
X126.43 Y113.196
X125.807 Y113.072
X125.192 Y112.897
X124.589 Y112.672
X124.003 Y112.398
X123.438 Y112.076
X122.898 Y111.708
X122.387 Y111.296
X121.909 Y110.842
X121.467 Y110.35
X121.065 Y109.822
X120.705 Y109.261
X120.39 Y108.672
X120.123 Y108.057
X119.905 Y107.422
X119.739 Y106.769
X119.626 Y106.105
X119.566 Y105.432
X119.56 Y104.755
X119.609 Y104.079
X119.712 Y103.409
X119.868 Y102.748
X120.077 Y102.102
X120.338 Y101.473
X120.648 Y100.868
X121.007 Y100.288
X121.411 Y99.74
X121.857 Y99.225
X122.344 Y98.747
X122.868 Y98.31
X123.426 Y97.916
X124.013 Y97.568
X124.627 Y97.268
X125.263 Y97.019
X125.917 Y96.821
X126.585 Y96.676
X127.262 Y96.585
X127.944 Y96.549
X128.628 Y96.568
X129.308 Y96.642
X129.979 Y96.77
X130.638 Y96.951
X131.281 Y97.185
X131.907 Y97.472
X132.53 Y97.82
X133.141 Y98.229
X133.736 Y98.701
X134.304 Y99.231
X134.836 Y99.814
X135.323 Y100.442
X135.757 Y101.107
X136.136 Y101.801
X136.455 Y102.519
X136.713 Y103.253
X136.91 Y104
X137.045 Y104.753
X137.118 Y105.509
X137.131 Y106.263
X137.083 Y107.011
X136.976 Y107.749
X136.81 Y108.474
X136.588 Y109.182
X136.309 Y109.869
X135.977 Y110.531
X135.591 Y111.166
X135.155 Y111.769
X134.67 Y112.338
X134.138 Y112.868
X133.564 Y113.355
X132.948 Y113.798
X132.295 Y114.192
X131.609 Y114.534
X130.893 Y114.822
X130.152 Y115.053
X129.391 Y115.224
X128.613 Y115.335
X127.825 Y115.383
X127.031 Y115.367
X126.237 Y115.288
X125.447 Y115.144
X124.667 Y114.936
X123.904 Y114.665
X123.16 Y114.333
X122.443 Y113.94
X121.758 Y113.488
X121.108 Y112.982
X120.498 Y112.422
X119.934 Y111.814
X119.419 Y111.161
X118.956 Y110.466
X118.55 Y109.734
X118.203 Y108.971
X117.918 Y108.18
X117.697 Y107.368
X117.541 Y106.539
X117.452 Y105.699
X117.431 Y104.853
X117.478 Y104.007
X117.593 Y103.167
X117.775 Y102.337
X118.023 Y101.525
X118.336 Y100.734
X118.712 Y99.97
X119.148 Y99.239
X119.642 Y98.545
X120.189 Y97.892
X120.788 Y97.285
X121.434 Y96.727
X122.123 Y96.223
X122.85 Y95.776
X123.611 Y95.389
X124.401 Y95.064
X125.214 Y94.803
X126.046 Y94.609
X126.891 Y94.481
X127.744 Y94.422
X128.598 Y94.432
X129.449 Y94.51
X130.292 Y94.656
X131.125 Y94.871
X131.947 Y95.155
X132.753 Y95.508
X133.533 Y95.927
X134.278 Y96.408
X134.983 Y96.945
X135.644 Y97.534
X136.259 Y98.172
X136.825 Y98.854
X137.339 Y99.576
X137.798 Y100.334
X138.2 Y101.124
X138.541 Y101.942
X138.821 Y102.782
X139.036 Y103.642
X139.187 Y104.515
X139.27 Y105.397
X139.285 Y106.283
X139.232 Y107.168
X139.11 Y108.046
X138.921 Y108.911
X138.665 Y109.76
X138.344 Y110.586
X137.96 Y111.384
X137.514 Y112.15
X137.137 Y112.697
X137.109 Y112.736
X137.08 Y112.774
X137.05 Y112.811
X136.859 Y113.034
X136.703 Y113.213
X136.457 Y113.486
X136.319 Y113.615
X135.249 Y114.529
X135.126 Y114.621
X134.645 Y114.948
X134.041 Y115.318
X133.84 Y115.435
X133.437 Y115.659
X133.236 Y115.77
X132.028 Y116.27
X131.826 Y116.351
X131.223 Y116.517
X131.021 Y116.568
X130.417 Y116.712
X129.813 Y116.836
X129.612 Y116.864
X128.404 Y116.959
X128.203 Y116.971
X127.8 Y116.992
X127.599 Y117
X125.988
X125.151 Y116.958
X124.503 Y116.873
X123.793 Y116.721
X123.069 Y116.504
X122.332 Y116.217
X121.569 Y115.847
X120.806 Y115.398
X120.08 Y114.889
X119.396 Y114.325
X118.756 Y113.713
X118.162 Y113.055
X117.617 Y112.357
X117.125 Y111.619
X116.688 Y110.849
X116.307 Y110.049
X115.984 Y109.224
X115.718 Y108.378
X115.512 Y107.516
X115.365 Y106.643
X115.281 Y105.76
X115.259 Y104.875
X115.301 Y103.989
X115.404 Y103.109
X115.567 Y102.238
X115.791 Y101.381
X116.072 Y100.54
X116.41 Y99.721
X116.805 Y98.928
X117.256 Y98.165
X117.758 Y97.436
X118.055 Y97.063
X118.228 Y96.882
X118.43 Y96.734
X118.656 Y96.625
X118.741 Y96.593
X119.144 Y96.43
X119.345 Y96.345
X120.553 Y95.7
X120.955 Y95.485
X121.157 Y95.377
X121.279 Y95.309
X121.864 Y94.907
X121.962 Y94.837
X123.17 Y93.954
X123.24 Y93.901
X123.459 Y93.734
X123.872 Y93.468
X124.373 Y93.201
X124.568 Y93.116
X124.748 Y93.052
X124.936 Y93.013
X125.126 Y93
G3 X125.378 Y94.134 I-0.021 J0.6
G1 X123.917 Y94.878
G3 X123.24 Y93.901 I-0.272 J-0.535
G1 X123.573 Y93.616
X123.704 Y93.499
X123.975 Y93.235
X124.057 Y93.157
X124.138 Y93.096
X124.176 Y93.074
X124.227 Y93.049
X124.277 Y93.03
X124.378 Y93.006
X124.579 Y93
X127.599
X127.8 Y93.008
X128.203 Y93.029
X128.404 Y93.041
X129.612 Y93.136
X129.813 Y93.164
X130.417 Y93.287
X130.82 Y93.384
X131.021 Y93.432
X131.223 Y93.484
X131.826 Y93.649
X131.956 Y93.7
X133.236 Y94.23
X133.37 Y94.303
X133.84 Y94.565
X134.041 Y94.682
X134.645 Y95.052
X134.726 Y95.108
X135.292 Y95.51
X135.45 Y95.643
X136.054 Y96.158
X136.222 Y96.315
X136.658 Y96.752
X136.818 Y96.919
X137.463 Y97.674
X137.502 Y97.723
X137.928 Y98.327
X138.067 Y98.55
X138.3 Y98.93
X138.419 Y99.131
X138.754 Y99.735
X138.841 Y99.936
X139.341 Y101.143
X139.399 Y101.344
X139.508 Y101.747
X139.561 Y101.948
X139.705 Y102.551
X139.829 Y103.155
X139.861 Y103.356
X139.956 Y104.563
X139.966 Y104.764
X139.959 Y105.368
X139.946 Y105.569
X139.851 Y106.776
X139.811 Y106.977
X139.674 Y107.58
X139.529 Y108.184
X139.471 Y108.385
X139.353 Y108.787
X139.287 Y108.989
X138.787 Y110.196
X138.694 Y110.397
X138.341 Y111
X138.269 Y111.121
X137.973 Y111.604
X137.866 Y111.773
X137.552 Y112.207
X137.463 Y112.326
X137.05 Y112.811
G3 X136.861 Y112.949 I-0.442 J-0.405
X136.818 Y112.967 I-0.254 J-0.544
G1 X126.217 Y116.948
X126.178 Y116.962
G3 X125.988 Y117 I-0.211 J-0.562
G1 X121.559
X121.151 Y116.98
X120.812 Y116.935
X120.404 Y116.848
X119.989 Y116.724
X119.496 Y116.532
X118.999 Y116.29
X118.438 Y115.96
X117.837 Y115.538
X117.246 Y115.047
X116.634 Y114.45
X116.051 Y113.782
X115.521 Y113.072
X115.042 Y112.327
X114.614 Y111.551
X114.236 Y110.749
X113.911 Y109.925
X113.638 Y109.082
X113.418 Y108.224
X113.25 Y107.354
X113.135 Y106.475
X113.072 Y105.591
X113.062 Y104.705
X113.106 Y103.82
X113.203 Y102.939
X113.353 Y102.066
X113.554 Y101.203
X113.804 Y100.353
X114.104 Y99.519
X114.452 Y98.704
X114.657 Y98.298
X114.827 Y98.036
X115.052 Y97.819
X115.319 Y97.657
X115.615 Y97.558
X116.325 Y97.406
X116.728 Y97.316
X117.332 Y97.11
X118.54 Y96.669
X118.656 Y96.625
G3 X119.442 Y97.11 I0.192 J0.568
G1 X122.133 Y116.317
G3 X121.559 Y117 I-0.594 J0.083
G1 X118.54
X118.142 Y116.98
X117.865 Y116.944
X117.534 Y116.873
X117.191 Y116.77
X116.803 Y116.619
X116.384 Y116.416
X115.928 Y116.148
X115.452 Y115.813
X114.926 Y115.376
X114.39 Y114.853
X113.845 Y114.229
X113.318 Y113.516
X112.847 Y112.766
X112.428 Y111.985
X112.061 Y111.178
X111.743 Y110.351
X111.472 Y109.508
X111.25 Y108.65
X111.076 Y107.781
X111.014 Y107.349
X111.006 Y107.282
X111.002 Y107.216
X111 Y107.149
Y104.362
X111.044 Y103.477
X111.102 Y102.592
X111.22 Y101.714
X111.393 Y100.845
X111.617 Y99.988
X111.889 Y99.145
X112.043 Y98.77
X112.193 Y98.498
X112.398 Y98.266
X112.649 Y98.085
X112.935 Y97.964
X113.239 Y97.908
G3 X113.471 Y97.945 I0.021 J0.6
X113.838 Y98.672 I-0.21 J0.562
G1 X112.177 Y104.505
G3 X111 Y104.362 I-0.577 J-0.164
G1 Y98.93
X111.011 Y98.714
X111.074 Y98.488
X111.199 Y98.289
X111.374 Y98.134
X111.587 Y98.034
X111.818 Y97.999
G3 X112.051 Y98.033 I-0.026 J0.99
X112.447 Y98.245 I-0.258 J0.956
X111.296 Y99.555 I-0.575 J0.655
X111 Y98.93 I0.575 J-0.655
G1 Y98.729
X111.007 Y98.528
X111.032 Y98.427
X111.051 Y98.377
X111.076 Y98.327
X111.091 Y98.302
X111.121 Y98.258
X111.158 Y98.214
X111.251 Y98.126
X111.292 Y98.096
X111.343 Y98.067
X111.393 Y98.044
X111.443 Y98.026
X111.494 Y98.013
X111.594 Y98
X111.896 Y97.998
X112.098 Y97.987
X112.5 Y97.96
X114.111 Y97.846
X114.312 Y97.815
X114.715 Y97.748
X114.839 Y97.723
X115.615 Y97.558
G3 X116.313 Y98.057 I0.105 J0.591
G1 X119.112 Y116.309
G3 X118.54 Y117 I-0.593 J0.091
G1 X115.721
X115.493 Y116.989
X115.219 Y116.953
X114.942 Y116.893
X114.617 Y116.796
X114.269 Y116.66
X113.894 Y116.479
X113.48 Y116.235
X113.048 Y115.931
X112.588 Y115.549
X112.089 Y115.063
X111.59 Y114.491
X111.275 Y114.064
X111.124 Y113.809
X111.031 Y113.527
X111 Y113.232
G3 X111.965 Y112.777 I0.6 J0.021
G1 X116.066 Y115.924
G3 X115.721 Y117 I-0.365 J0.476
G1 X113.305
X112.972 Y116.983
X112.731 Y116.952
X112.458 Y116.893
X112.148 Y116.8
X111.833 Y116.678
X111.789 Y116.656
X111.525 Y116.489
X111.304 Y116.268
X111.138 Y116.003
X111.035 Y115.707
X111 Y115.397
G3 X111.902 Y114.899 I0.6 J0.021
G1 X113.587 Y115.882
G3 X113.305 Y117 I-0.302 J0.518
G1 X111.594
X111.494 Y116.987
X111.443 Y116.974
X111.393 Y116.956
X111.343 Y116.933
X111.292 Y116.904
X111.248 Y116.872
X111.204 Y116.834
X111.14 Y116.767
X111.091 Y116.699
X111.055 Y116.633
X111.035 Y116.583
X111.019 Y116.532
X111.002 Y116.432
X111 Y116.231
Y107.149
G3 X111.054 Y106.922 I0.6 J0.021
G1 X111.093 Y106.836 Z9.007
X111.131 Y106.753 Z9.029
X111.167 Y106.674 Z9.065
X111.2 Y106.601 Z9.115
X111.23 Y106.536 Z9.176
X111.255 Y106.48 Z9.247
X111.275 Y106.435 Z9.328
X111.29 Y106.402 Z9.415
X111.299 Y106.382 Z9.506
X111.302 Y106.376 Z9.6
G0 Z33
X109.121 Y51.568
Z23
Z21.1
G1 Z20.5 F850
G3 X113.879 Y48.428 Z20.187 I2.379 J-1.57 F283.3
X109.121 Y51.568 Z19.875 I-2.379 J1.57
X113.879 Y48.428 Z19.562 I2.379 J-1.57
X109.121 Y51.568 Z19.249 I-2.379 J1.57
X113.879 Y48.428 Z18.937 I2.379 J-1.57
X109.121 Y51.568 Z18.624 I-2.379 J1.57
X113.879 Y48.428 Z18.311 I2.379 J-1.57
X109.121 Y51.568 Z17.999 I-2.379 J1.57
X113.879 Y48.428 Z17.686 I2.379 J-1.57
X109.121 Y51.568 Z17.373 I-2.379 J1.57
X113.879 Y48.428 Z17.061 I2.379 J-1.57
X109.121 Y51.568 Z16.748 I-2.379 J1.57
X113.879 Y48.428 Z16.435 I2.379 J-1.57
X109.121 Y51.568 Z16.123 I-2.379 J1.57
X113.879 Y48.428 Z15.81 I2.379 J-1.57
X109.121 Y51.568 Z15.497 I-2.379 J1.57
X113.879 Y48.428 Z15.185 I2.379 J-1.57
X109.121 Y51.568 Z14.872 I-2.379 J1.57
X113.879 Y48.428 Z14.559 I2.379 J-1.57
X109.121 Y51.568 Z14.247 I-2.379 J1.57
X113.879 Y48.428 Z13.934 I2.379 J-1.57
X109.121 Y51.568 Z13.621 I-2.379 J1.57
X113.879 Y48.428 Z13.309 I2.379 J-1.57
X109.121 Y51.568 Z12.996 I-2.379 J1.57
X113.879 Y48.428 Z12.683 I2.379 J-1.57
X109.121 Y51.568 Z12.371 I-2.379 J1.57
X113.879 Y48.428 Z12.058 I2.379 J-1.57
X114.35 Y49.998 Z12 I-2.379 J1.57
X108.65 I-2.85
X114.35 I2.85
G1 X114.353 Y50.219 F850
X114.505 Y51.092
X114.556 Y51.233
X114.59 Y51.379
X114.608 Y51.528
X114.613 Y51.678
X114.605 Y51.832
X114.582 Y51.995
X114.545 Y52.168
X114.49 Y52.346
X114.418 Y52.531
X114.326 Y52.718
X114.213 Y52.907
X114.08 Y53.094
X113.926 Y53.278
X113.751 Y53.456
X113.555 Y53.626
X113.338 Y53.785
X113.103 Y53.93
X112.849 Y54.059
X112.578 Y54.171
X112.292 Y54.263
X111.994 Y54.333
X111.685 Y54.38
X111.367 Y54.402
X111.043 Y54.399
X110.716 Y54.369
X110.389 Y54.313
X110.063 Y54.229
X109.742 Y54.119
X109.427 Y53.981
X109.123 Y53.818
X108.83 Y53.629
X108.551 Y53.416
X108.29 Y53.18
X108.046 Y52.923
X107.824 Y52.646
X107.623 Y52.35
X107.446 Y52.039
X107.295 Y51.713
X107.169 Y51.375
X107.071 Y51.028
X107.001 Y50.673
X106.96 Y50.313
X106.948 Y49.951
X106.964 Y49.588
X107.01 Y49.227
X107.085 Y48.871
X107.188 Y48.521
X107.319 Y48.181
X107.478 Y47.852
X107.662 Y47.537
X107.87 Y47.237
X108.103 Y46.955
X108.357 Y46.692
X108.632 Y46.451
X108.925 Y46.232
X109.235 Y46.038
X109.56 Y45.869
X109.897 Y45.726
X110.245 Y45.611
X110.6 Y45.525
X110.962 Y45.467
X111.327 Y45.438
X111.693 Y45.439
X112.059 Y45.469
X112.42 Y45.528
X112.776 Y45.616
X113.123 Y45.733
X113.46 Y45.877
X113.785 Y46.047
X114.094 Y46.243
X114.387 Y46.464
X114.661 Y46.707
X114.915 Y46.971
X115.147 Y47.255
X115.356 Y47.556
X115.652 Y48.069
X115.995 Y48.79
X116.203 Y49.335
X116.344 Y49.823
X116.437 Y50.272
X116.49 Y50.705
X116.508 Y51.125
X116.493 Y51.533
X116.445 Y51.93
X116.367 Y52.318
X116.258 Y52.698
X116.119 Y53.068
X115.951 Y53.426
X115.752 Y53.773
X115.525 Y54.105
X115.269 Y54.421
X114.986 Y54.718
X114.676 Y54.995
X114.34 Y55.25
X113.98 Y55.48
X113.597 Y55.683
X113.194 Y55.858
X112.772 Y56.001
X112.335 Y56.111
X111.885 Y56.187
X111.425 Y56.227
X110.958 Y56.23
X110.488 Y56.195
X110.018 Y56.122
X109.552 Y56.01
X109.092 Y55.86
X108.643 Y55.673
X108.208 Y55.449
X107.789 Y55.188
X107.391 Y54.894
X107.015 Y54.567
X106.666 Y54.209
X106.344 Y53.822
X106.054 Y53.409
X105.797 Y52.973
X105.575 Y52.516
X105.39 Y52.042
X105.243 Y51.552
X105.136 Y51.052
X105.069 Y50.544
X105.043 Y50.031
X105.058 Y49.516
X105.115 Y49.004
X105.213 Y48.498
X105.351 Y48
X105.529 Y47.515
X105.745 Y47.045
X105.999 Y46.594
X106.288 Y46.164
X106.611 Y45.759
X106.965 Y45.38
X107.349 Y45.031
X107.76 Y44.714
X108.195 Y44.431
X108.652 Y44.184
X109.127 Y43.974
X109.617 Y43.803
X110.12 Y43.671
X110.631 Y43.581
X111.149 Y43.532
X111.669 Y43.524
X112.187 Y43.558
X112.702 Y43.634
X113.208 Y43.751
X113.704 Y43.908
X114.186 Y44.104
X114.65 Y44.339
X115.094 Y44.61
X115.515 Y44.915
X115.943 Y45.283
X116.39 Y45.732
X116.808 Y46.228
X117.197 Y46.771
X117.54 Y47.343
X117.83 Y47.928
X118.067 Y48.52
X118.25 Y49.113
X118.382 Y49.706
X118.465 Y50.296
X118.5 Y50.883
X118.487 Y51.464
X118.428 Y52.037
X118.325 Y52.6
X118.177 Y53.15
X117.986 Y53.685
X117.752 Y54.204
X117.477 Y54.702
X117.163 Y55.178
X116.809 Y55.63
X116.418 Y56.054
X115.991 Y56.449
X115.53 Y56.81
X115.039 Y57.136
X114.518 Y57.424
X113.971 Y57.671
X113.401 Y57.875
X112.812 Y58.034
X112.207 Y58.146
X111.591 Y58.21
X110.967 Y58.224
X110.34 Y58.188
X109.713 Y58.101
X109.091 Y57.963
X108.479 Y57.774
X107.881 Y57.536
X107.3 Y57.249
X106.741 Y56.914
X106.209 Y56.534
X105.706 Y56.11
X105.238 Y55.646
X104.806 Y55.143
X104.415 Y54.606
X104.067 Y54.037
X103.765 Y53.441
X103.511 Y52.82
X103.307 Y52.179
X103.155 Y51.523
X103.056 Y50.856
X103.011 Y50.182
X103.02 Y49.505
X103.083 Y48.83
X103.201 Y48.162
X103.372 Y47.504
X103.595 Y46.862
X103.869 Y46.24
X104.193 Y45.641
X104.564 Y45.07
X104.98 Y44.53
X105.438 Y44.024
X105.935 Y43.557
X106.468 Y43.132
X107.034 Y42.75
X107.629 Y42.415
X108.249 Y42.129
X108.89 Y41.893
X109.548 Y41.709
X110.219 Y41.579
X110.899 Y41.503
X111.582 Y41.482
X112.265 Y41.516
X112.943 Y41.604
X113.611 Y41.747
X114.266 Y41.943
X114.904 Y42.191
X115.529 Y42.494
X116.149 Y42.858
X116.757 Y43.285
X117.346 Y43.773
X117.906 Y44.318
X118.426 Y44.914
X118.899 Y45.553
X119.319 Y46.226
X119.681 Y46.927
X119.984 Y47.65
X120.225 Y48.388
X120.405 Y49.137
X120.523 Y49.891
X120.58 Y50.647
X120.576 Y51.4
X120.513 Y52.145
X120.389 Y52.88
X120.208 Y53.601
X120.122 Y53.855
X120.105 Y53.903
X120.086 Y53.951
X120.065 Y53.998
X119.748 Y54.669
X119.631 Y54.868
X118.785 Y56.075
X118.741 Y56.126
X117.989 Y56.879
X117.936 Y56.93
X117.286 Y57.483
X117.13 Y57.597
X116.719 Y57.885
X116.527 Y58.018
X116.067 Y58.287
X115.923 Y58.367
X115.117 Y58.743
X114.916 Y58.818
X114.513 Y58.966
X114.312 Y59.032
X113.305 Y59.302
X113.104 Y59.348
X111.695 Y59.471
X111.494 Y59.484
X110.89 Y59.435
X109.883 Y59.347
X109.682 Y59.299
X108.675 Y59.029
X108.474 Y58.959
X108.071 Y58.816
X107.87 Y58.737
X107.065 Y58.361
X106.932 Y58.287
X106.583 Y58.086
X106.461 Y58.011
X105.454 Y57.306
X105.425 Y57.282
X105.217 Y57.081
X105.052 Y56.92
X104.408 Y56.276
X104.246 Y56.113
X104.215 Y56.075
X103.369 Y54.868
X103.252 Y54.667
X102.965 Y54.063
X102.636 Y53.357
X102.591 Y53.259
X102.533 Y53.058
X102.233 Y51.937
X102.211 Y51.851
X102.181 Y51.65
X102.124 Y51.247
X102.103 Y51.046
X102.068 Y50.644
X102.052 Y50.443
X102.035 Y49.839
X102.043 Y49.638
X102.096 Y49.035
X102.153 Y48.431
X102.188 Y48.23
X102.566 Y46.822
X102.595 Y46.733
X102.646 Y46.621
X103.115 Y45.615
X103.217 Y45.414
X103.642 Y44.742
X104.157 Y44.006
X104.246 Y43.887
X104.327 Y43.805
X105.052 Y43.08
X105.139 Y43
X105.454 Y42.72
X105.593 Y42.598
X105.655 Y42.553
X106.461 Y41.989
X106.662 Y41.857
X107.171 Y41.592
X107.266 Y41.545
X108.027 Y41.19
X108.071 Y41.17
X108.273 Y41.103
X108.619 Y40.989
X108.675 Y40.971
X109.682 Y40.701
X109.883 Y40.653
X110.89 Y40.565
X111.494 Y40.516
X111.695 Y40.529
X113.104 Y40.652
X113.305 Y40.698
X114.312 Y40.968
X114.388 Y40.989
X114.916 Y41.165
X114.973 Y41.19
X115.721 Y41.539
X115.833 Y41.592
X116.325 Y41.85
X116.527 Y41.98
X117.332 Y42.544
X117.407 Y42.598
X117.633 Y42.799
X117.936 Y43.071
X118.069 Y43.201
X118.741 Y43.873
X118.843 Y44.006
X119.345 Y44.724
X119.405 Y44.811
X119.783 Y45.414
X119.885 Y45.615
X120.4 Y46.721
X120.434 Y46.822
X120.812 Y48.23
X120.847 Y48.431
X120.904 Y49.035
X120.974 Y49.839
X120.985 Y50.04
X120.897 Y51.046
X120.878 Y51.247
X120.837 Y51.65
X120.79 Y51.851
X120.466 Y53.058
X120.408 Y53.259
X120.316 Y53.46
X120.065 Y53.998
X120.032 Y54.042 Z12.007
X120 Y54.083 Z12.026
X119.972 Y54.119 Z12.057
X119.949 Y54.149 Z12.098
X119.933 Y54.17 Z12.147
X119.923 Y54.179 Z12.19
X119.92 Y54.182 Z12.236
G0 Z23
X109.121 Y51.568
Z15.1
G1 Z14.5 F850
G3 X113.879 Y48.428 Z14.187 I2.379 J-1.57 F283.3
X109.121 Y51.568 Z13.875 I-2.379 J1.57
X113.879 Y48.428 Z13.562 I2.379 J-1.57
X109.121 Y51.568 Z13.249 I-2.379 J1.57
X113.879 Y48.428 Z12.937 I2.379 J-1.57
X109.121 Y51.568 Z12.624 I-2.379 J1.57
X113.879 Y48.428 Z12.311 I2.379 J-1.57
X109.121 Y51.568 Z11.999 I-2.379 J1.57
X113.879 Y48.428 Z11.686 I2.379 J-1.57
X109.121 Y51.568 Z11.373 I-2.379 J1.57
X113.879 Y48.428 Z11.061 I2.379 J-1.57
X109.121 Y51.568 Z10.748 I-2.379 J1.57
X113.879 Y48.428 Z10.435 I2.379 J-1.57
X109.121 Y51.568 Z10.123 I-2.379 J1.57
X113.879 Y48.428 Z9.81 I2.379 J-1.57
X109.121 Y51.568 Z9.497 I-2.379 J1.57
X113.879 Y48.428 Z9.185 I2.379 J-1.57
X109.121 Y51.568 Z8.872 I-2.379 J1.57
X113.879 Y48.428 Z8.559 I2.379 J-1.57
X109.121 Y51.568 Z8.247 I-2.379 J1.57
X113.879 Y48.428 Z7.934 I2.379 J-1.57
X109.121 Y51.568 Z7.621 I-2.379 J1.57
X113.879 Y48.428 Z7.309 I2.379 J-1.57
X109.121 Y51.568 Z6.996 I-2.379 J1.57
X113.879 Y48.428 Z6.683 I2.379 J-1.57
X109.121 Y51.568 Z6.371 I-2.379 J1.57
X113.879 Y48.428 Z6.058 I2.379 J-1.57
X114.35 Y49.998 Z6 I-2.379 J1.57
X108.65 I-2.85
X114.35 I2.85
G1 X114.353 Y50.219 F850
X114.505 Y51.092
X114.556 Y51.233
X114.59 Y51.379
X114.608 Y51.528
X114.613 Y51.678
X114.605 Y51.832
X114.582 Y51.995
X114.545 Y52.168
X114.49 Y52.346
X114.418 Y52.531
X114.326 Y52.718
X114.213 Y52.907
X114.08 Y53.094
X113.926 Y53.278
X113.751 Y53.456
X113.555 Y53.626
X113.338 Y53.785
X113.103 Y53.93
X112.849 Y54.059
X112.578 Y54.171
X112.292 Y54.263
X111.994 Y54.333
X111.685 Y54.38
X111.367 Y54.402
X111.043 Y54.399
X110.716 Y54.369
X110.389 Y54.313
X110.063 Y54.229
X109.742 Y54.119
X109.427 Y53.981
X109.123 Y53.818
X108.83 Y53.629
X108.551 Y53.416
X108.29 Y53.18
X108.046 Y52.923
X107.824 Y52.646
X107.623 Y52.35
X107.446 Y52.039
X107.295 Y51.713
X107.169 Y51.375
X107.071 Y51.028
X107.001 Y50.673
X106.96 Y50.313
X106.948 Y49.951
X106.964 Y49.588
X107.01 Y49.227
X107.085 Y48.871
X107.188 Y48.521
X107.319 Y48.181
X107.478 Y47.852
X107.662 Y47.537
X107.87 Y47.237
X108.103 Y46.955
X108.357 Y46.692
X108.632 Y46.451
X108.925 Y46.232
X109.235 Y46.038
X109.56 Y45.869
X109.897 Y45.726
X110.245 Y45.611
X110.6 Y45.525
X110.962 Y45.467
X111.327 Y45.438
X111.693 Y45.439
X112.059 Y45.469
X112.42 Y45.528
X112.776 Y45.616
X113.123 Y45.733
X113.46 Y45.877
X113.785 Y46.047
X114.094 Y46.243
X114.387 Y46.464
X114.661 Y46.707
X114.915 Y46.971
X115.147 Y47.255
X115.356 Y47.556
X115.652 Y48.069
X115.995 Y48.79
X116.203 Y49.335
X116.344 Y49.823
X116.437 Y50.272
X116.49 Y50.705
X116.508 Y51.125
X116.493 Y51.533
X116.445 Y51.93
X116.367 Y52.318
X116.258 Y52.698
X116.119 Y53.068
X115.951 Y53.426
X115.752 Y53.773
X115.525 Y54.105
X115.269 Y54.421
X114.986 Y54.718
X114.676 Y54.995
X114.34 Y55.25
X113.98 Y55.48
X113.597 Y55.683
X113.194 Y55.858
X112.772 Y56.001
X112.335 Y56.111
X111.885 Y56.187
X111.425 Y56.227
X110.958 Y56.23
X110.488 Y56.195
X110.018 Y56.122
X109.552 Y56.01
X109.092 Y55.86
X108.643 Y55.673
X108.208 Y55.449
X107.789 Y55.188
X107.391 Y54.894
X107.015 Y54.567
X106.666 Y54.209
X106.344 Y53.822
X106.054 Y53.409
X105.797 Y52.973
X105.575 Y52.516
X105.39 Y52.042
X105.243 Y51.552
X105.136 Y51.052
X105.069 Y50.544
X105.043 Y50.031
X105.058 Y49.516
X105.115 Y49.004
X105.213 Y48.498
X105.351 Y48
X105.529 Y47.515
X105.745 Y47.045
X105.999 Y46.594
X106.288 Y46.164
X106.611 Y45.759
X106.965 Y45.38
X107.349 Y45.031
X107.76 Y44.714
X108.195 Y44.431
X108.652 Y44.184
X109.127 Y43.974
X109.617 Y43.803
X110.12 Y43.671
X110.631 Y43.581
X111.149 Y43.532
X111.669 Y43.524
X112.187 Y43.558
X112.702 Y43.634
X113.208 Y43.751
X113.704 Y43.908
X114.186 Y44.104
X114.65 Y44.339
X115.094 Y44.61
X115.515 Y44.915
X115.943 Y45.283
X116.39 Y45.732
X116.808 Y46.228
X117.197 Y46.771
X117.54 Y47.343
X117.83 Y47.928
X118.067 Y48.52
X118.25 Y49.113
X118.382 Y49.706
X118.465 Y50.296
X118.5 Y50.883
X118.487 Y51.464
X118.428 Y52.037
X118.325 Y52.6
X118.177 Y53.15
X117.986 Y53.685
X117.752 Y54.204
X117.477 Y54.702
X117.163 Y55.178
X116.809 Y55.63
X116.418 Y56.054
X115.991 Y56.449
X115.53 Y56.81
X115.039 Y57.136
X114.518 Y57.424
X113.971 Y57.671
X113.401 Y57.875
X112.812 Y58.034
X112.207 Y58.146
X111.591 Y58.21
X110.967 Y58.224
X110.34 Y58.188
X109.713 Y58.101
X109.091 Y57.963
X108.479 Y57.774
X107.881 Y57.536
X107.3 Y57.249
X106.741 Y56.914
X106.209 Y56.534
X105.706 Y56.11
X105.238 Y55.646
X104.806 Y55.143
X104.415 Y54.606
X104.067 Y54.037
X103.765 Y53.441
X103.511 Y52.82
X103.307 Y52.179
X103.155 Y51.523
X103.056 Y50.856
X103.011 Y50.182
X103.02 Y49.505
X103.083 Y48.83
X103.201 Y48.162
X103.372 Y47.504
X103.595 Y46.862
X103.869 Y46.24
X104.193 Y45.641
X104.564 Y45.07
X104.98 Y44.53
X105.438 Y44.024
X105.935 Y43.557
X106.468 Y43.132
X107.034 Y42.75
X107.629 Y42.415
X108.249 Y42.129
X108.89 Y41.893
X109.548 Y41.709
X110.219 Y41.579
X110.899 Y41.503
X111.582 Y41.482
X112.265 Y41.516
X112.943 Y41.604
X113.611 Y41.747
X114.266 Y41.943
X114.904 Y42.191
X115.529 Y42.494
X116.149 Y42.858
X116.757 Y43.285
X117.346 Y43.773
X117.906 Y44.318
X118.426 Y44.914
X118.899 Y45.553
X119.319 Y46.226
X119.681 Y46.927
X119.984 Y47.65
X120.225 Y48.388
X120.405 Y49.137
X120.523 Y49.891
X120.58 Y50.647
X120.576 Y51.4
X120.513 Y52.145
X120.389 Y52.88
X120.208 Y53.601
X120.122 Y53.855
X120.105 Y53.903
X120.086 Y53.951
X120.065 Y53.998
X119.748 Y54.669
X119.631 Y54.868
X118.785 Y56.075
X118.741 Y56.126
X117.989 Y56.879
X117.936 Y56.93
X117.286 Y57.483
X117.13 Y57.597
X116.719 Y57.885
X116.527 Y58.018
X116.067 Y58.287
X115.923 Y58.367
X115.117 Y58.743
X114.916 Y58.818
X114.513 Y58.966
X114.312 Y59.032
X113.305 Y59.302
X113.104 Y59.348
X111.695 Y59.471
X111.494 Y59.484
X110.89 Y59.435
X109.883 Y59.347
X109.682 Y59.299
X108.675 Y59.029
X108.474 Y58.959
X108.071 Y58.816
X107.87 Y58.737
X107.065 Y58.361
X106.932 Y58.287
X106.583 Y58.086
X106.461 Y58.011
X105.454 Y57.306
X105.425 Y57.282
X105.217 Y57.081
X105.052 Y56.92
X104.408 Y56.276
X104.246 Y56.113
X104.215 Y56.075
X103.369 Y54.868
X103.252 Y54.667
X102.965 Y54.063
X102.636 Y53.357
X102.591 Y53.259
X102.533 Y53.058
X102.233 Y51.937
X102.211 Y51.851
X102.181 Y51.65
X102.124 Y51.247
X102.103 Y51.046
X102.068 Y50.644
X102.052 Y50.443
X102.035 Y49.839
X102.043 Y49.638
X102.096 Y49.035
X102.153 Y48.431
X102.188 Y48.23
X102.566 Y46.822
X102.595 Y46.733
X102.646 Y46.621
X103.115 Y45.615
X103.217 Y45.414
X103.642 Y44.742
X104.157 Y44.006
X104.246 Y43.887
X104.327 Y43.805
X105.052 Y43.08
X105.139 Y43
X105.454 Y42.72
X105.593 Y42.598
X105.655 Y42.553
X106.461 Y41.989
X106.662 Y41.857
X107.171 Y41.592
X107.266 Y41.545
X108.027 Y41.19
X108.071 Y41.17
X108.273 Y41.103
X108.619 Y40.989
X108.675 Y40.971
X109.682 Y40.701
X109.883 Y40.653
X110.89 Y40.565
X111.494 Y40.516
X111.695 Y40.529
X113.104 Y40.652
X113.305 Y40.698
X114.312 Y40.968
X114.388 Y40.989
X114.916 Y41.165
X114.973 Y41.19
X115.721 Y41.539
X115.833 Y41.592
X116.325 Y41.85
X116.527 Y41.98
X117.332 Y42.544
X117.407 Y42.598
X117.633 Y42.799
X117.936 Y43.071
X118.069 Y43.201
X118.741 Y43.873
X118.843 Y44.006
X119.345 Y44.724
X119.405 Y44.811
X119.783 Y45.414
X119.885 Y45.615
X120.4 Y46.721
X120.434 Y46.822
X120.812 Y48.23
X120.847 Y48.431
X120.904 Y49.035
X120.974 Y49.839
X120.985 Y50.04
X120.897 Y51.046
X120.878 Y51.247
X120.837 Y51.65
X120.79 Y51.851
X120.466 Y53.058
X120.408 Y53.259
X120.316 Y53.46
X120.065 Y53.998
G3 X119.92 Y54.182 I-0.534 J-0.273
G1 X119.849 Y54.243 Z6.007
X119.779 Y54.302 Z6.029
X119.713 Y54.359 Z6.065
X119.652 Y54.411 Z6.115
X119.597 Y54.457 Z6.176
X119.551 Y54.497 Z6.247
X119.513 Y54.529 Z6.328
X119.486 Y54.552 Z6.415
X119.469 Y54.566 Z6.506
X119.464 Y54.571 Z6.6
G0 Z33
X114.311 Y50.472
Z23
Z21.1
G1 Z20.5 F850
G3 X108.69 Y49.527 Z20.187 I-2.811 J-0.473 F283.3
X114.311 Y50.472 Z19.875 I2.811 J0.473
X108.69 Y49.527 Z19.562 I-2.811 J-0.473
X114.311 Y50.472 Z19.249 I2.811 J0.473
X108.69 Y49.527 Z18.937 I-2.811 J-0.473
X114.311 Y50.472 Z18.624 I2.811 J0.473
X108.69 Y49.527 Z18.311 I-2.811 J-0.473
X114.311 Y50.472 Z17.999 I2.811 J0.473
X108.69 Y49.527 Z17.686 I-2.811 J-0.473
X114.311 Y50.472 Z17.373 I2.811 J0.473
X108.69 Y49.527 Z17.061 I-2.811 J-0.473
X114.311 Y50.472 Z16.748 I2.811 J0.473
X108.69 Y49.527 Z16.435 I-2.811 J-0.473
X114.311 Y50.472 Z16.123 I2.811 J0.473
X108.69 Y49.527 Z15.81 I-2.811 J-0.473
X114.311 Y50.472 Z15.497 I2.811 J0.473
X108.69 Y49.527 Z15.185 I-2.811 J-0.473
X114.311 Y50.472 Z14.872 I2.811 J0.473
X108.69 Y49.527 Z14.559 I-2.811 J-0.473
X114.311 Y50.472 Z14.247 I2.811 J0.473
X108.69 Y49.527 Z13.934 I-2.811 J-0.473
X114.311 Y50.472 Z13.621 I2.811 J0.473
X108.69 Y49.527 Z13.309 I-2.811 J-0.473
X114.311 Y50.472 Z12.996 I2.811 J0.473
X108.69 Y49.527 Z12.683 I-2.811 J-0.473
X114.311 Y50.472 Z12.371 I2.811 J0.473
X108.69 Y49.527 Z12.058 I-2.811 J-0.473
X114.311 Y50.472 Z11.745 I2.811 J0.473
X108.69 Y49.527 Z11.433 I-2.811 J-0.473
X114.311 Y50.472 Z11.12 I2.811 J0.473
X108.69 Y49.527 Z10.807 I-2.811 J-0.473
X114.311 Y50.472 Z10.495 I2.811 J0.473
X108.69 Y49.527 Z10.182 I-2.811 J-0.473
X114.311 Y50.472 Z9.869 I2.811 J0.473
X108.69 Y49.527 Z9.557 I-2.811 J-0.473
X114.311 Y50.472 Z9.244 I2.811 J0.473
X108.69 Y49.527 Z8.931 I-2.811 J-0.473
X114.311 Y50.472 Z8.619 I2.811 J0.473
X108.69 Y49.527 Z8.306 I-2.811 J-0.473
X114.35 Y50 Z8.01 I2.811 J0.473
X108.65 I-2.85
X114.35 I2.85
G1 X114.353 Y50.221 F850
X114.506 Y51.094
X114.556 Y51.235
X114.59 Y51.381
X114.609 Y51.53
X114.613 Y51.68
X114.605 Y51.834
X114.582 Y51.997
X114.545 Y52.169
X114.49 Y52.348
X114.418 Y52.533
X114.394 Y52.58
X114.29 Y52.758
X114.161 Y52.918
X114.01 Y53.058
X113.708 Y53.299
X113.607 Y53.372
X113.507 Y53.424
X112.903 Y53.715
X112.802 Y53.757
X112.702 Y53.784
X111.997 Y53.944
X111.896 Y53.956
X111.292
X111.091 Y53.955
X110.89 Y53.918
X110.286 Y53.781
X110.185 Y53.753
X110.084 Y53.709
X109.48 Y53.418
X109.38 Y53.364
X109.279 Y53.289
X108.737 Y52.856
X108.675 Y52.798
X108.558 Y52.655
X108.157 Y52.152
X108.097 Y52.052
X107.807 Y51.448
X107.76 Y51.348
X107.741 Y51.298
X107.727 Y51.247
X107.589 Y50.644
X107.548 Y50.443
X107.544 Y50.242
Y49.638
X107.55 Y49.538
X107.571 Y49.437
X107.732 Y48.733
X107.768 Y48.632
X108.071 Y48.002
X108.115 Y47.915
X108.172 Y47.828
X108.654 Y47.224
X108.675 Y47.201
X108.888 Y47.023
X109.279 Y46.711
X109.405 Y46.621
X109.48 Y46.582
X110.084 Y46.291
X110.185 Y46.247
X110.289 Y46.219
X110.89 Y46.082
X111.091 Y46.045
X111.494 Y46.044
X111.896
X111.997 Y46.056
X112.711 Y46.219
X112.807 Y46.244
X112.903 Y46.285
X113.507 Y46.576
X113.596 Y46.621
X113.708 Y46.701
X114.112 Y47.023
X114.312 Y47.188
X114.346 Y47.224
X114.827 Y47.828
X114.878 Y47.902
X114.916 Y47.976
X115.232 Y48.632
X115.268 Y48.733
X115.429 Y49.437
X115.45 Y49.538
X115.456 Y49.638
Y50.242
X115.452 Y50.443
X115.411 Y50.644
X115.273 Y51.247
X115.259 Y51.298
X115.24 Y51.348
X115.193 Y51.448
X114.903 Y52.052
X114.876 Y52.102
X114.843 Y52.152
X114.442 Y52.655
X114.312 Y52.812
X114.263 Y52.856
X114.01 Y53.058
X113.961 Y53.082 Z8.017
X113.914 Y53.105 Z8.036
X113.873 Y53.125 Z8.067
X113.84 Y53.142 Z8.108
X113.815 Y53.154 Z8.157
X113.803 Y53.157 Z8.2
X113.799 Y53.158 Z8.246
G0 Z23
X109.089 Y48.48
Z11.11
G1 Z10.51 F850
G3 X113.911 Y51.519 Z10.197 I2.411 J1.519 F283.3
X109.089 Y48.48 Z9.885 I-2.411 J-1.519
X113.911 Y51.519 Z9.572 I2.411 J1.519
X109.089 Y48.48 Z9.259 I-2.411 J-1.519
X113.911 Y51.519 Z8.947 I2.411 J1.519
X109.089 Y48.48 Z8.634 I-2.411 J-1.519
X113.911 Y51.519 Z8.321 I2.411 J1.519
X109.089 Y48.48 Z8.009 I-2.411 J-1.519
X113.911 Y51.519 Z7.696 I2.411 J1.519
X109.089 Y48.48 Z7.383 I-2.411 J-1.519
X113.911 Y51.519 Z7.071 I2.411 J1.519
X109.089 Y48.48 Z6.758 I-2.411 J-1.519
X113.911 Y51.519 Z6.445 I2.411 J1.519
X109.089 Y48.48 Z6.133 I-2.411 J-1.519
X113.911 Y51.519 Z5.82 I2.411 J1.519
X109.089 Y48.48 Z5.507 I-2.411 J-1.519
X113.911 Y51.519 Z5.195 I2.411 J1.519
X109.089 Y48.48 Z4.882 I-2.411 J-1.519
X113.911 Y51.519 Z4.569 I2.411 J1.519
X109.089 Y48.48 Z4.257 I-2.411 J-1.519
X114.35 Y50 Z4 I2.411 J1.519
X108.65 I-2.85
X114.35 I2.85
G1 X114.353 Y50.221 F850
X114.506 Y51.094
X114.556 Y51.235
X114.59 Y51.381
X114.609 Y51.53
X114.613 Y51.68
X114.605 Y51.834
X114.582 Y51.997
X114.545 Y52.169
X114.49 Y52.348
X114.418 Y52.533
X114.394 Y52.58
X114.29 Y52.758
X114.161 Y52.918
X114.01 Y53.058
X113.708 Y53.299
X113.607 Y53.372
X113.507 Y53.424
X112.903 Y53.715
X112.802 Y53.757
X112.702 Y53.784
X111.997 Y53.944
X111.896 Y53.956
X111.292
X111.091 Y53.955
X110.89 Y53.918
X110.286 Y53.781
X110.185 Y53.753
X110.084 Y53.709
X109.48 Y53.418
X109.38 Y53.364
X109.279 Y53.289
X108.737 Y52.856
X108.675 Y52.798
X108.558 Y52.655
X108.157 Y52.152
X108.097 Y52.052
X107.807 Y51.448
X107.76 Y51.348
X107.741 Y51.298
X107.727 Y51.247
X107.589 Y50.644
X107.548 Y50.443
X107.544 Y50.242
Y49.638
X107.55 Y49.538
X107.571 Y49.437
X107.732 Y48.733
X107.768 Y48.632
X108.071 Y48.002
X108.115 Y47.915
X108.172 Y47.828
X108.654 Y47.224
X108.675 Y47.201
X108.888 Y47.023
X109.279 Y46.711
X109.405 Y46.621
X109.48 Y46.582
X110.084 Y46.291
X110.185 Y46.247
X110.289 Y46.219
X110.89 Y46.082
X111.091 Y46.045
X111.494 Y46.044
X111.896
X111.997 Y46.056
X112.711 Y46.219
X112.807 Y46.244
X112.903 Y46.285
X113.507 Y46.576
X113.596 Y46.621
X113.708 Y46.701
X114.112 Y47.023
X114.312 Y47.188
X114.346 Y47.224
X114.827 Y47.828
X114.878 Y47.902
X114.916 Y47.976
X115.232 Y48.632
X115.268 Y48.733
X115.429 Y49.437
X115.45 Y49.538
X115.456 Y49.638
Y50.242
X115.452 Y50.443
X115.411 Y50.644
X115.273 Y51.247
X115.259 Y51.298
X115.24 Y51.348
X115.193 Y51.448
X114.903 Y52.052
X114.876 Y52.102
X114.843 Y52.152
X114.442 Y52.655
X114.312 Y52.812
X114.263 Y52.856
X114.01 Y53.058
G3 X113.799 Y53.158 I-0.357 J-0.482
G1 X113.708 Y53.181 Z4.007
X113.619 Y53.203 Z4.029
X113.534 Y53.224 Z4.065
X113.457 Y53.244 Z4.115
X113.387 Y53.261 Z4.176
X113.328 Y53.276 Z4.247
X113.28 Y53.288 Z4.328
X113.245 Y53.297 Z4.415
X113.224 Y53.302 Z4.506
X113.217 Y53.304 Z4.6
G0 Z33
X48.013 Y43.973
Z23
Z21.1
G1 Z20.5 F850
G3 X42.392 Y43.028 Z20.187 I-2.811 J-0.473 F283.3
X48.013 Y43.973 Z19.875 I2.811 J0.473
X42.392 Y43.028 Z19.562 I-2.811 J-0.473
X48.013 Y43.973 Z19.249 I2.811 J0.473
X42.392 Y43.028 Z18.937 I-2.811 J-0.473
X48.013 Y43.973 Z18.624 I2.811 J0.473
X42.392 Y43.028 Z18.311 I-2.811 J-0.473
X48.013 Y43.973 Z17.999 I2.811 J0.473
X42.392 Y43.028 Z17.686 I-2.811 J-0.473
X48.013 Y43.973 Z17.373 I2.811 J0.473
X42.392 Y43.028 Z17.061 I-2.811 J-0.473
X48.013 Y43.973 Z16.748 I2.811 J0.473
X42.392 Y43.028 Z16.435 I-2.811 J-0.473
X48.013 Y43.973 Z16.123 I2.811 J0.473
X42.392 Y43.028 Z15.81 I-2.811 J-0.473
X48.013 Y43.973 Z15.497 I2.811 J0.473
X42.392 Y43.028 Z15.185 I-2.811 J-0.473
X48.013 Y43.973 Z14.872 I2.811 J0.473
X42.392 Y43.028 Z14.559 I-2.811 J-0.473
X48.013 Y43.973 Z14.247 I2.811 J0.473
X42.392 Y43.028 Z13.934 I-2.811 J-0.473
X48.013 Y43.973 Z13.621 I2.811 J0.473
X42.392 Y43.028 Z13.309 I-2.811 J-0.473
X48.013 Y43.973 Z12.996 I2.811 J0.473
X42.392 Y43.028 Z12.683 I-2.811 J-0.473
X48.013 Y43.973 Z12.371 I2.811 J0.473
X42.392 Y43.028 Z12.058 I-2.811 J-0.473
X48.013 Y43.973 Z11.745 I2.811 J0.473
X42.392 Y43.028 Z11.433 I-2.811 J-0.473
X48.013 Y43.973 Z11.12 I2.811 J0.473
X42.392 Y43.028 Z10.807 I-2.811 J-0.473
X48.013 Y43.973 Z10.495 I2.811 J0.473
X42.392 Y43.028 Z10.182 I-2.811 J-0.473
X48.013 Y43.973 Z9.869 I2.811 J0.473
X42.392 Y43.028 Z9.557 I-2.811 J-0.473
X48.013 Y43.973 Z9.244 I2.811 J0.473
X42.392 Y43.028 Z8.931 I-2.811 J-0.473
X48.013 Y43.973 Z8.619 I2.811 J0.473
X42.392 Y43.028 Z8.306 I-2.811 J-0.473
X48.052 Y43.5 Z8.01 I2.811 J0.473
X42.352 I-2.85
X48.052 I2.85
G1 X48.055 Y43.722 F850
X48.208 Y44.595
X48.259 Y44.736
X48.292 Y44.882
X48.311 Y45.031
X48.315 Y45.181
X48.307 Y45.334
X48.285 Y45.498
X48.247 Y45.67
X48.192 Y45.849
X48.12 Y46.033
X48.028 Y46.221
X47.916 Y46.409
X47.783 Y46.597
X47.628 Y46.781
X47.453 Y46.959
X47.257 Y47.128
X47.041 Y47.287
X46.805 Y47.432
X46.551 Y47.562
X46.28 Y47.674
X45.995 Y47.765
X45.696 Y47.836
X45.387 Y47.882
X45.069 Y47.905
X44.746 Y47.901
X44.419 Y47.872
X44.091 Y47.815
X43.765 Y47.732
X43.444 Y47.621
X43.129 Y47.484
X42.825 Y47.32
X42.532 Y47.132
X42.254 Y46.919
X41.992 Y46.683
X41.749 Y46.425
X41.526 Y46.148
X41.325 Y45.853
X41.149 Y45.541
X40.997 Y45.216
X40.872 Y44.878
X40.774 Y44.531
X40.704 Y44.176
X40.662 Y43.816
X40.65 Y43.453
X40.667 Y43.09
X40.713 Y42.73
X40.787 Y42.373
X40.891 Y42.024
X41.022 Y41.683
X41.18 Y41.355
X41.364 Y41.039
X41.573 Y40.74
X41.805 Y40.457
X42.059 Y40.195
X42.334 Y39.953
X42.627 Y39.735
X42.937 Y39.54
X43.262 Y39.371
X43.599 Y39.229
X43.947 Y39.114
X44.303 Y39.027
X44.664 Y38.969
X45.029 Y38.94
X45.396 Y38.941
X45.761 Y38.971
X46.122 Y39.031
X46.478 Y39.119
X46.825 Y39.235
X47.162 Y39.379
X47.487 Y39.55
X47.796 Y39.746
X48.089 Y39.966
X48.364 Y40.209
X48.618 Y40.473
X48.849 Y40.757
X49.058 Y41.059
X49.354 Y41.571
X49.697 Y42.293
X49.905 Y42.838
X50.047 Y43.325
X50.139 Y43.774
X50.193 Y44.208
X50.21 Y44.628
X50.195 Y45.035
X50.148 Y45.432
X50.069 Y45.821
X49.961 Y46.2
X49.822 Y46.57
X49.653 Y46.929
X49.454 Y47.275
X49.227 Y47.607
X48.971 Y47.923
X48.688 Y48.221
X48.378 Y48.498
X48.042 Y48.752
X47.682 Y48.982
X47.3 Y49.186
X46.896 Y49.36
X46.475 Y49.503
X46.037 Y49.614
X45.587 Y49.689
X45.127 Y49.729
X44.661 Y49.732
X44.19 Y49.697
X43.72 Y49.624
X43.254 Y49.513
X42.795 Y49.363
X42.345 Y49.175
X41.91 Y48.951
X41.492 Y48.691
X41.093 Y48.396
X40.717 Y48.069
X40.368 Y47.711
X40.047 Y47.324
X39.756 Y46.912
X39.499 Y46.475
X39.277 Y46.019
X39.092 Y45.544
X38.945 Y45.055
X38.838 Y44.555
X38.771 Y44.046
X38.745 Y43.533
X38.761 Y43.019
X38.817 Y42.507
X38.915 Y42
X39.053 Y41.503
X39.231 Y41.017
X39.447 Y40.547
X39.701 Y40.096
X39.99 Y39.666
X40.313 Y39.261
X40.667 Y38.883
X41.051 Y38.534
X41.462 Y38.217
X41.897 Y37.934
X42.354 Y37.686
X42.829 Y37.476
X43.319 Y37.305
X43.822 Y37.174
X44.334 Y37.083
X44.851 Y37.034
X45.371 Y37.027
X45.89 Y37.061
X46.404 Y37.137
X46.911 Y37.253
X47.406 Y37.41
X47.888 Y37.607
X48.352 Y37.841
X48.796 Y38.112
X49.217 Y38.418
X49.645 Y38.785
X50.092 Y39.235
X50.51 Y39.73
X50.899 Y40.273
X51.242 Y40.845
X51.533 Y41.43
X51.769 Y42.022
X51.952 Y42.616
X52.085 Y43.208
X52.167 Y43.799
X52.202 Y44.386
X52.189 Y44.967
X52.131 Y45.54
X52.027 Y46.102
X51.879 Y46.652
X51.688 Y47.188
X51.454 Y47.706
X51.18 Y48.205
X50.865 Y48.681
X50.511 Y49.133
X50.12 Y49.557
X49.693 Y49.951
X49.233 Y50.313
X48.741 Y50.638
X48.22 Y50.926
X47.673 Y51.173
X47.103 Y51.377
X46.514 Y51.537
X45.909 Y51.649
X45.293 Y51.712
X44.669 Y51.727
X44.042 Y51.69
X43.415 Y51.603
X42.794 Y51.465
X42.181 Y51.277
X41.583 Y51.038
X41.002 Y50.751
X40.444 Y50.417
X39.911 Y50.036
X39.409 Y49.613
X38.94 Y49.148
X38.508 Y48.646
X38.117 Y48.109
X37.769 Y47.54
X37.467 Y46.943
X37.213 Y46.322
X37.009 Y45.682
X36.857 Y45.026
X36.758 Y44.358
X36.713 Y43.684
X36.722 Y43.007
X36.785 Y42.332
X36.903 Y41.664
X37.074 Y41.007
X37.297 Y40.365
X37.571 Y39.742
X37.895 Y39.143
X38.266 Y38.572
X38.682 Y38.032
X39.14 Y37.527
X39.637 Y37.06
X40.17 Y36.634
X40.736 Y36.252
X41.331 Y35.917
X41.951 Y35.631
X42.593 Y35.395
X43.251 Y35.212
X43.922 Y35.082
X44.601 Y35.006
X45.284 Y34.985
X45.967 Y35.018
X46.645 Y35.107
X47.313 Y35.25
X47.969 Y35.445
X48.606 Y35.693
X49.231 Y35.996
X49.852 Y36.361
X50.459 Y36.787
X51.048 Y37.275
X51.608 Y37.821
X52.128 Y38.417
X52.601 Y39.055
X53.021 Y39.729
X53.383 Y40.43
X53.686 Y41.152
X53.927 Y41.891
X54.107 Y42.639
X54.226 Y43.394
X54.283 Y44.149
X54.279 Y44.902
X54.215 Y45.648
X54.092 Y46.383
X53.911 Y47.103
X53.673 Y47.806
X53.379 Y48.487
X53.032 Y49.142
X52.633 Y49.769
X52.183 Y50.363
X51.685 Y50.921
X51.142 Y51.44
X50.555 Y51.916
X49.929 Y52.346
X49.267 Y52.726
X48.573 Y53.054
X47.849 Y53.326
X47.102 Y53.541
X46.336 Y53.696
X45.555 Y53.79
X44.765 Y53.821
X43.97 Y53.788
X43.176 Y53.691
X42.389 Y53.53
X41.613 Y53.305
X40.854 Y53.017
X40.118 Y52.668
X39.408 Y52.259
X38.732 Y51.792
X38.092 Y51.271
X37.495 Y50.698
X36.943 Y50.077
X36.442 Y49.412
X35.994 Y48.707
X35.604 Y47.966
X35.274 Y47.195
X35.005 Y46.398
X34.802 Y45.58
X34.664 Y44.748
X34.594 Y43.905
X34.591 Y43.059
X34.657 Y42.214
X34.79 Y41.376
X34.99 Y40.551
X35.256 Y39.744
X35.586 Y38.96
X35.978 Y38.204
X36.43 Y37.482
X36.939 Y36.799
X37.501 Y36.158
X38.113 Y35.564
X38.771 Y35.021
X39.471 Y34.532
X40.208 Y34.101
X40.977 Y33.73
X41.773 Y33.422
X42.592 Y33.179
X43.428 Y33.003
X44.276 Y32.894
X45.129 Y32.854
X45.984 Y32.882
X46.833 Y32.979
X47.673 Y33.143
X48.504 Y33.377
X49.322 Y33.679
X50.123 Y34.051
X50.894 Y34.488
X51.628 Y34.984
X52.321 Y35.536
X52.971 Y36.139
X53.573 Y36.789
X54.125 Y37.482
X54.624 Y38.214
X55.068 Y38.981
X55.453 Y39.779
X55.778 Y40.603
X56.041 Y41.45
X56.239 Y42.313
X56.371 Y43.19
X56.436 Y44.073
X56.432 Y44.96
X56.36 Y45.843
X56.221 Y46.718
X56.013 Y47.579
X55.739 Y48.422
X55.401 Y49.241
X55 Y50.031
X54.538 Y50.788
X54.02 Y51.506
X53.447 Y52.183
X52.825 Y52.813
X52.155 Y53.393
X51.443 Y53.921
X50.693 Y54.393
X49.91 Y54.807
X49.097 Y55.161
X48.261 Y55.453
X47.405 Y55.682
X46.534 Y55.846
X45.654 Y55.946
X44.768 Y55.981
X43.882 Y55.948
X43.002 Y55.851
X42.131 Y55.689
X41.274 Y55.463
X40.435 Y55.177
X39.619 Y54.832
X38.83 Y54.429
X38.071 Y53.971
X37.347 Y53.46
X36.661 Y52.899
X36.019 Y52.289
X35.421 Y51.634
X34.872 Y50.939
X34.372 Y50.207
X33.925 Y49.442
X33.531 Y48.648
X33.194 Y47.829
X32.916 Y46.987
X32.699 Y46.128
X32.544 Y45.256
X32.449 Y44.375
X32.416 Y43.489
X32.443 Y42.604
X32.531 Y41.722
X32.681 Y40.848
X32.892 Y39.988
X33.163 Y39.144
X33.492 Y38.322
X33.878 Y37.524
X34.317 Y36.754
X34.807 Y36.016
X35.347 Y35.313
X35.935 Y34.651
X36.569 Y34.031
X37.244 Y33.457
X37.957 Y32.932
X38.705 Y32.456
X39.483 Y32.032
X40.288 Y31.662
X41.118 Y31.349
X41.967 Y31.096
X42.832 Y30.903
X43.708 Y30.77
X44.591 Y30.698
X45.477 Y30.685
X46.362 Y30.733
X47.241 Y30.842
X48.111 Y31.013
X48.966 Y31.244
X49.804 Y31.532
X50.621 Y31.876
X51.413 Y32.272
X52.178 Y32.72
X52.91 Y33.219
X53.608 Y33.765
X54.27 Y34.355
X54.892 Y34.985
X55.475 Y35.653
X56.014 Y36.356
X56.508 Y37.092
X56.953 Y37.858
X57.348 Y38.651
X57.693 Y39.468
X57.986 Y40.304
X58.227 Y41.157
X58.413 Y42.023
X58.541 Y42.9
X58.613 Y43.783
X58.627 Y44.669
X58.584 Y45.554
X58.486 Y46.435
X58.331 Y47.307
X58.118 Y48.167
X57.849 Y49.012
X57.525 Y49.836
X57.149 Y50.639
X56.722 Y51.415
X56.247 Y52.163
X55.723 Y52.878
X55.152 Y53.556
X54.539 Y54.195
X53.886 Y54.795
X53.197 Y55.351
X52.474 Y55.864
X51.719 Y56.328
X50.936 Y56.742
X50.128 Y57.105
X49.298 Y57.417
X48.451 Y57.676
X47.589 Y57.883
X46.716 Y58.036
X45.835 Y58.131
X44.95 Y58.171
X44.064 Y58.154
X43.181 Y58.083
X42.303 Y57.958
X41.435 Y57.78
X40.58 Y57.548
X39.741 Y57.263
X38.921 Y56.927
X38.123 Y56.542
X37.349 Y56.11
X36.603 Y55.632
X35.887 Y55.111
X35.205 Y54.545
X34.559 Y53.938
X33.951 Y53.293
X33.383 Y52.613
X32.857 Y51.9
X32.372 Y51.158
X31.933 Y50.389
X31.542 Y49.594
X31.2 Y48.776
X30.908 Y47.94
X30.666 Y47.087
X30.475 Y46.222
X30.334 Y45.347
X30.246 Y44.465
X30.212 Y43.58
X30.231 Y42.694
X30.302 Y41.811
X30.426 Y40.933
X30.6 Y40.064
X30.825 Y39.207
X31.102 Y38.365
X31.429 Y37.542
X31.804 Y36.739
X32.225 Y35.96
X32.691 Y35.206
X33.201 Y34.481
X33.751 Y33.787
X34.344 Y33.127
X34.975 Y32.505
X35.641 Y31.922
X36.341 Y31.378
X37.071 Y30.876
X37.829 Y30.416
X38.612 Y30.002
X39.419 Y29.636
X40.247 Y29.32
X41.092 Y29.053
X41.951 Y28.837
X42.822 Y28.67
X43.7 Y28.554
X44.584 Y28.49
X45.47 Y28.479
X46.355 Y28.521
X47.236 Y28.615
X48.11 Y28.761
X48.974 Y28.957
X49.826 Y29.203
X50.662 Y29.496
X51.479 Y29.839
X52.275 Y30.228
X53.047 Y30.663
X53.794 Y31.14
X54.513 Y31.659
X55.202 Y32.216
X55.859 Y32.809
X56.483 Y33.439
X57.07 Y34.103
X57.62 Y34.798
X58.13 Y35.522
X58.601 Y36.273
X59.031 Y37.048
X59.418 Y37.845
X59.761 Y38.662
X60.058 Y39.497
X60.308 Y40.347
X60.511 Y41.209
X60.666 Y42.082
X60.773 Y42.962
X60.833 Y43.846
X60.843 Y44.732
X60.803 Y45.617
X60.713 Y46.498
X60.574 Y47.374
X60.386 Y48.24
X60.151 Y49.094
X59.869 Y49.934
X59.54 Y50.757
X59.166 Y51.56
X58.746 Y52.34
X58.283 Y53.096
X57.779 Y53.825
X57.235 Y54.525
X56.654 Y55.193
X56.037 Y55.829
X55.385 Y56.429
X54.7 Y56.992
X53.985 Y57.515
X53.242 Y57.998
X52.551 Y58.396
X52.297 Y58.51
X52.026 Y58.572
X51.747 Y58.579
X51.703 Y58.575
X50.495 Y58.52
X50.092 Y58.508
X49.891 Y58.503
X49.69 Y58.504
X49.287 Y58.516
X49.086 Y58.523
X47.878 Y58.579
X47.677 Y58.595
X47.274 Y58.631
X47.073 Y58.653
X45.865 Y58.799
X45.261 Y58.893
X45.06 Y58.929
X44.053 Y59.121
X43.852 Y59.16
X43.243 Y59.293
X43.046 Y59.342
X42.478 Y59.456
X42.019 Y59.509
X41.467 Y59.529
X40.844 Y59.502
X40.151 Y59.415
X39.358 Y59.25
X38.508 Y59.001
X37.68 Y58.686
X36.875 Y58.315
X36.095 Y57.894
X35.343 Y57.425
X34.621 Y56.912
X33.929 Y56.359
X33.269 Y55.768
X32.641 Y55.142
X32.048 Y54.484
X31.489 Y53.796
X30.967 Y53.08
X30.698 Y52.666
X30.596 Y52.48
X30.524 Y52.28
X30.482 Y52.072
X30.431 Y51.65
X30.387 Y51.247
X30.303 Y50.443
X30.242 Y49.839
X30.138 Y48.632
X30.122 Y48.431
X30.069 Y47.627
X30.043 Y47.224
X30.031 Y47.023
X30 Y46.42
X29.954 Y45.213
X29.948 Y45.012
X29.932 Y43.805
Y43.604
X29.935 Y43
X29.943 Y42.397
X29.954 Y41.793
X29.961 Y41.578
X30.007 Y40.385
X30.043 Y39.782
X30.094 Y38.977
X30.138 Y38.374
X30.206 Y37.569
X30.259 Y36.966
X30.391 Y36.116
X30.518 Y35.585
X30.705 Y35.013
X30.972 Y34.373
X31.339 Y33.662
X31.807 Y32.909
X32.333 Y32.196
X32.907 Y31.521
X33.523 Y30.885
X34.178 Y30.287
X34.866 Y29.728
X35.583 Y29.208
X36.327 Y28.727
X37.096 Y28.287
X37.887 Y27.887
X38.698 Y27.529
X39.526 Y27.214
X39.993 Y27.065
X40.269 Y27.006
X40.551 Y27.004
X40.827 Y27.058
X41.235 Y27.182
X41.839 Y27.352
X42.04 Y27.404
X43.265 Y27.713
X43.449 Y27.755
X43.852 Y27.84
X44.456 Y27.956
X45.06 Y28.071
X45.261 Y28.108
X45.865 Y28.201
X47.274 Y28.372
X47.475 Y28.394
X47.677 Y28.408
X47.878 Y28.421
X49.086 Y28.477
X49.287 Y28.484
X49.69 Y28.496
X49.891 Y28.497
X50.294 Y28.487
X50.495 Y28.48
X51.099 Y28.452
X51.634 Y28.455
X52.047 Y28.489
X52.546 Y28.572
X53.086 Y28.708
X53.709 Y28.918
X54.415 Y29.221
X55.192 Y29.631
X55.94 Y30.107
X56.652 Y30.634
X57.328 Y31.207
X57.969 Y31.819
X58.574 Y32.466
X59.144 Y33.145
X59.679 Y33.851
X60.177 Y34.584
X60.64 Y35.34
X61.066 Y36.117
X61.452 Y36.914
X61.798 Y37.73
X62.104 Y38.562
X62.271 Y39.096
X62.321 Y39.321
X62.334 Y39.551
X62.309 Y39.781
X62.281 Y39.983
X62.155 Y40.989
X62.132 Y41.19
X62.089 Y41.592
X62.069 Y41.793
X62.018 Y43
X62.013 Y43.201
X62.009 Y43.604
X62.01 Y43.805
X62.061 Y45.012
X62.076 Y45.213
X62.109 Y45.615
X62.131 Y45.816
X62.231 Y46.621
X62.293 Y47.465
X62.289 Y48.124
X62.224 Y48.872
X62.084 Y49.701
X61.867 Y50.56
X61.587 Y51.401
X61.253 Y52.222
X60.87 Y53.021
X60.442 Y53.797
X59.974 Y54.549
X59.467 Y55.276
X58.925 Y55.977
X58.346 Y56.648
X57.735 Y57.289
X57.092 Y57.899
X56.42 Y58.476
X56.073 Y58.746
X55.819 Y58.903
X55.538 Y59.003
X55.243 Y59.041
X54.946 Y59.015
X54.521 Y58.932
X54.293 Y58.891
X53.917 Y58.829
X53.716 Y58.796
X52.508 Y58.649
X52.307 Y58.628
X51.904 Y58.591
X51.747 Y58.579
G3 X51.361 Y57.588 I0.066 J-0.596
G1 X61.186 Y46.321
G3 X62.231 Y46.621 I0.452 J0.394
G1 X62.256 Y46.822
X62.282 Y47.023
X62.387 Y47.627
X62.548 Y48.431
X62.629 Y48.834
X62.674 Y49.035
X62.832 Y49.638
X62.977 Y50.175
X63.049 Y50.51
X63.094 Y50.842
X63.115 Y51.238
X63.103 Y51.687
X63.046 Y52.215
X62.935 Y52.798
X62.747 Y53.48
X62.466 Y54.256
X62.097 Y55.062
X61.67 Y55.838
X61.192 Y56.584
X60.671 Y57.301
X60.111 Y57.988
X59.517 Y58.645
X58.892 Y59.273
X58.81 Y59.343
X58.589 Y59.498
X58.341 Y59.607
X58.078 Y59.666
X57.808 Y59.673
X57.541 Y59.628
X56.535 Y59.366
X56.333 Y59.314
X55.729 Y59.168
X55.125 Y59.05
X54.946 Y59.015
G3 X54.636 Y58.028 I0.135 J-0.585
G1 X61.959 Y49.948
G3 X62.977 Y50.175 I0.445 J0.403
G1 X63.103 Y50.644
X63.162 Y50.845
X63.178 Y50.899
X63.291 Y51.247
X63.621 Y52.253
X63.782 Y52.717
X63.862 Y52.971
X63.923 Y53.236
X63.969 Y53.555
X63.991 Y53.89
X63.984 Y54.3
X63.942 Y54.739
X63.848 Y55.265
X63.701 Y55.823
X63.473 Y56.472
X63.148 Y57.204
X62.725 Y57.982
X62.243 Y58.726
X61.978 Y59.081
X61.548 Y59.616
X61.183 Y60.002
X61.138 Y60.043
X60.893 Y60.219
X60.617 Y60.339
X60.322 Y60.397
X60.021 Y60.39
X59.729 Y60.32
X59.67 Y60.299
X59.06 Y60.098
X58.749 Y59.999
X57.944 Y59.744
X57.742 Y59.683
X57.541 Y59.628
G3 X57.273 Y58.653 I0.178 J-0.573
G1 X62.781 Y52.543
G3 X63.782 Y52.717 I0.446 J0.402
G1 X64.134 Y53.661
X64.361 Y54.264
X64.685 Y55.069
X64.765 Y55.3
X64.83 Y55.553
X64.879 Y55.837
X64.908 Y56.152
X64.912 Y56.536
X64.885 Y56.931
X64.812 Y57.41
X64.695 Y57.911
X64.517 Y58.467
X64.277 Y59.05
X63.995 Y59.602
X63.725 Y60.043
X63.471 Y60.39
X63.197 Y60.707
X63.174 Y60.729
X62.922 Y60.926
X62.632 Y61.061
X62.319 Y61.126
X62 Y61.119
X61.69 Y61.04
X61.165 Y60.839
X60.964 Y60.763
X59.729 Y60.32
G3 X59.514 Y59.351 I0.222 J-0.557
G1 X63.699 Y54.901
G3 X64.685 Y55.069 I0.437 J0.411
G1 X64.847 Y55.471
X64.99 Y55.821
X65.392 Y56.792
X65.594 Y57.279
X65.692 Y57.555
X65.753 Y57.782
X65.802 Y58.051
X65.832 Y58.346
X65.838 Y58.676
X65.817 Y59.019
X65.765 Y59.392
X65.677 Y59.782
X65.567 Y60.136
X65.431 Y60.474
X65.282 Y60.775
X65.118 Y61.047
X65.007 Y61.201
X64.802 Y61.429
X64.551 Y61.608
X64.267 Y61.727
X63.964 Y61.781
X63.656 Y61.768
X63.359 Y61.687
X62.574 Y61.381
X62.171 Y61.225
X61.69 Y61.04
G3 X61.512 Y60.052 I0.234 J-0.552
G1 X64.635 Y57.091
G3 X65.594 Y57.279 I0.413 J0.435
G1 X66.009 Y58.287
X66.248 Y58.891
X66.482 Y59.494
X66.545 Y59.691
X66.591 Y59.889
X66.621 Y60.095
X66.635 Y60.306
X66.632 Y60.535
X66.611 Y60.758
X66.575 Y60.966
X66.516 Y61.192
X66.444 Y61.399
X66.427 Y61.437
X66.276 Y61.699
X66.072 Y61.923
X65.825 Y62.097
X65.546 Y62.215
X65.249 Y62.269
X64.946 Y62.259
X64.653 Y62.183
G3 X64.358 Y61.34 I0.231 J-0.554
G1 X65.405 Y59.441
G3 X66.35 Y59.301 I0.526 J0.29
X66.482 Y59.494 I-0.419 J0.429
G1 X66.557 Y59.695
X66.77 Y60.299
X67.003 Y61.002
X67.06 Y61.214
X67.092 Y61.361
X67.088 Y61.636
X67.015 Y61.902
X66.88 Y62.141
X66.689 Y62.34
X66.456 Y62.486
X66.193 Y62.57
X65.919 Y62.587
X65.648 Y62.535
G3 X64.974 Y61.773 I0.362 J-0.999
X67.06 Y61.214 I1.054 J-0.24
G1 X67.193 Y61.707
X67.243 Y61.908
X67.27 Y62.068
X67.277 Y62.109
X67.284 Y62.21
X67.274 Y62.31
X67.248 Y62.404
X67.204 Y62.499
X67.197 Y62.511
X67.163 Y62.562
X67.12 Y62.612
X67.062 Y62.666
X67.002 Y62.713
X66.952 Y62.743
X66.902 Y62.768
X66.852 Y62.786
X66.802 Y62.801
X66.701 Y62.815
X66.6 Y62.813
X66.5 Y62.793
X66.399 Y62.767
X65.795 Y62.582
X65.576 Y62.511
X65.392 Y62.45
X65.191 Y62.382
X64.99 Y62.31
X64.386 Y62.083
X63.782 Y61.852
X63.379 Y61.695
X63.359 Y61.687
G3 X63.167 Y61.554 I0.238 J-0.551
G1 X63.101 Y61.487 Z8.017
X63.038 Y61.421 Z8.039
X62.977 Y61.359 Z8.075
X62.921 Y61.301 Z8.125
X62.871 Y61.25 Z8.186
X62.829 Y61.206 Z8.257
X62.795 Y61.17 Z8.338
X62.77 Y61.145 Z8.425
X62.754 Y61.129 Z8.516
X62.749 Y61.123 Z8.61
G0 Z23
X50.85 Y29.21
Z9.21
G1 Z8.61 F850
X50.851 Y29.202 Z8.516
X50.854 Y29.181 Z8.425
X50.858 Y29.145 Z8.338
X50.865 Y29.096 Z8.257
X50.873 Y29.035 Z8.186
X50.882 Y28.964 Z8.125
X50.893 Y28.885 Z8.075
X50.904 Y28.799 Z8.039
X50.916 Y28.708 Z8.017
X50.928 Y28.615 Z8.01
G3 X51.099 Y28.452 I0.186 J0.025
G1 X51.703 Y28.425
X51.904 Y28.412
X52.106 Y28.396
X52.307 Y28.376
X53.716 Y28.203
X53.917 Y28.171
X54.119 Y28.138
X54.371 Y28.109
X54.676 Y28.098
X54.994 Y28.113
X55.377 Y28.162
X55.792 Y28.249
X56.272 Y28.391
X56.788 Y28.589
X57.382 Y28.875
X58.035 Y29.256
X58.735 Y29.744
X59.419 Y30.307
X60.061 Y30.918
X60.664 Y31.567
X61.229 Y32.25
X61.758 Y32.961
X62.251 Y33.697
X62.708 Y34.456
X63.049 Y35.085
X63.157 Y35.34
X63.212 Y35.612
X63.214 Y35.889
X63.162 Y36.161
X63.102 Y36.362
X62.722 Y37.77
X62.675 Y37.972
X62.574 Y38.446
X62.426 Y39.179
X62.309 Y39.781
G3 X61.229 Y39.985 I-0.585 J-0.135
G1 X53.743 Y29.065
G3 X54.119 Y28.138 I0.495 J-0.339
G1 X54.32 Y28.104
X54.521 Y28.067
X55.729 Y27.831
X56.132 Y27.738
X56.444 Y27.657
X56.678 Y27.609
X56.92 Y27.579
X57.192 Y27.567
X57.52 Y27.579
X57.857 Y27.618
X58.255 Y27.697
X58.685 Y27.82
X59.172 Y28.002
X59.691 Y28.245
X60.282 Y28.582
X60.928 Y29.023
X61.617 Y29.579
X62.26 Y30.189
X62.859 Y30.842
X63.418 Y31.529
X63.939 Y32.246
X63.95 Y32.263
X64.088 Y32.552
X64.157 Y32.864
X64.153 Y33.185
X64.076 Y33.496
X63.782 Y34.285
X63.686 Y34.552
X63.29 Y35.759
X63.225 Y35.96
X63.162 Y36.161
G3 X62.122 Y36.329 I-0.566 J-0.2
G1 X56.141 Y28.6
G3 X56.444 Y27.657 I0.475 J-0.367
G1 X57.541 Y27.371
X57.742 Y27.316
X58.404 Y27.11
X58.548 Y27.064
X58.823 Y26.992
X59.058 Y26.95
X59.305 Y26.927
X59.603 Y26.922
X59.926 Y26.943
X60.286 Y26.996
X60.702 Y27.092
X61.131 Y27.227
X61.627 Y27.429
X62.155 Y27.696
X62.729 Y28.046
X63.365 Y28.507
X64.038 Y29.083
X64.504 Y29.551
X64.732 Y29.821
X64.902 Y30.073
X65.014 Y30.356
X65.062 Y30.657
X65.044 Y30.96
X64.96 Y31.253
X64.522 Y32.34
X64.441 Y32.541
X64.185 Y33.205
X64.076 Y33.496
G3 X63.063 Y33.655 I-0.555 J-0.229
G1 X58.29 Y28.017
G3 X58.548 Y27.064 I0.458 J-0.388
G1 X59.039 Y26.909
X59.649 Y26.707
X60.211 Y26.506
X60.561 Y26.381
X60.872 Y26.287
X61.082 Y26.241
X61.334 Y26.207
X61.612 Y26.192
X61.92 Y26.201
X62.282 Y26.24
X62.652 Y26.31
X63.098 Y26.433
X63.544 Y26.595
X64.03 Y26.816
X64.484 Y27.07
X64.891 Y27.342
X65.206 Y27.592
X65.412 Y27.783
X65.598 Y27.995
X65.737 Y28.241
X65.825 Y28.509
X65.857 Y28.789
X65.833 Y29.07
X65.752 Y29.34
X65.511 Y29.926
X64.973 Y31.22
X64.96 Y31.253
G3 X63.965 Y31.407 I-0.547 J-0.246
G1 X60.335 Y27.338
G3 X60.561 Y26.381 I0.448 J-0.399
G1 X60.964 Y26.237
X61.366 Y26.084
X62.171 Y25.775
X62.574 Y25.618
X62.857 Y25.524
X63.068 Y25.472
X63.305 Y25.434
X63.566 Y25.413
X63.851
X64.163 Y25.438
X64.48 Y25.489
X64.794 Y25.566
X65.111 Y25.672
X65.383 Y25.788
X65.658 Y25.931
X65.894 Y26.08
X65.929 Y26.106
X66.15 Y26.313
X66.322 Y26.561
X66.436 Y26.841
X66.487 Y27.139
X66.474 Y27.441
X66.395 Y27.733
X66.09 Y28.518
X65.752 Y29.34
G3 X64.741 Y29.473 I-0.547 J-0.248
G1 X62.347 Y26.55
G3 X62.574 Y25.618 I0.464 J-0.38
G1 X63.39 Y25.299
X63.983 Y25.068
X64.587 Y24.841
X64.755 Y24.787
X64.926 Y24.747
X65.093 Y24.722
X65.276 Y24.709
X65.466 Y24.711
X65.642 Y24.728
X65.833 Y24.761
X65.873 Y24.771
X66.169 Y24.885
X66.43 Y25.064
X66.643 Y25.298
X66.797 Y25.575
X66.883 Y25.879
X66.897 Y26.195
X66.838 Y26.506
G3 X65.962 Y26.804 I-0.561 J-0.213
G1 X64.503 Y25.905
G3 X64.587 Y24.841 I0.315 J-0.511
G1 X64.99 Y24.689
X65.191 Y24.619
X65.795 Y24.415
X65.956 Y24.365
X66.101 Y24.328
X66.366 Y24.332
X66.619 Y24.41
X66.841 Y24.554
X67.014 Y24.754
X67.126 Y24.995
X67.167 Y25.256
X67.134 Y25.519
G3 X66.499 Y26.131 I-0.87 J-0.268
X65.956 Y24.365 I-0.239 J-0.893
G1 X66.399 Y24.232
X66.5 Y24.206
X66.6 Y24.186
X66.701 Y24.184
X66.802 Y24.198
X66.852 Y24.212
X66.902 Y24.231
X66.953 Y24.255
X67.003 Y24.286
X67.014 Y24.294
X67.072 Y24.339
X67.129 Y24.394
X67.17 Y24.445
X67.204 Y24.497
X67.23 Y24.547
X67.25 Y24.596
X67.277 Y24.696
X67.285 Y24.797
X67.277 Y24.897
X67.242 Y25.098
X67.191 Y25.299
X67.139 Y25.501
X67.084 Y25.702
X67.026 Y25.903
X66.838 Y26.506
X66.632 Y27.11
X66.6 Y27.2
X66.395 Y27.733
G3 X66.263 Y27.926 I-0.551 J-0.236
G1 X66.196 Y27.992 Z8.017
X66.13 Y28.056 Z8.039
X66.068 Y28.117 Z8.075
X66.01 Y28.173 Z8.125
X65.959 Y28.223 Z8.186
X65.915 Y28.265 Z8.257
X65.88 Y28.3 Z8.338
X65.854 Y28.325 Z8.425
X65.839 Y28.34 Z8.516
X65.833 Y28.345 Z8.61
G0 Z23
X31.023 Y37.123
Z9.21
G1 Z8.61 F850
X31.015 Z8.516
X30.993 Z8.425
X30.957 Y37.124 Z8.338
X30.908 Y37.125 Z8.257
X30.847 Y37.126 Z8.186
X30.775 Y37.128 Z8.125
X30.695 Y37.13 Z8.075
X30.608 Y37.131 Z8.039
X30.517 Y37.133 Z8.017
X30.423 Y37.135 Z8.01
G3 X30.259 Y36.966 I-0.003 J-0.161
G1 X30.407 Y35.558
X30.429 Y35.357
X30.565 Y34.241
X30.654 Y33.546
X30.766 Y32.721
X30.791 Y32.541
X30.875 Y32.097
X30.979 Y31.718
X31.122 Y31.324
X31.335 Y30.856
X31.606 Y30.369
X31.975 Y29.816
X32.456 Y29.208
X33.059 Y28.559
X33.713 Y27.961
X34.407 Y27.41
X35.134 Y26.904
X35.889 Y26.44
X36.535 Y26.091
X36.81 Y25.978
X37.102 Y25.926
X37.399 Y25.936
X37.687 Y26.009
X37.944 Y26.104
X38.618 Y26.34
X39.221 Y26.548
X39.825 Y26.751
X40.027 Y26.815
X40.827 Y27.058
G3 X40.917 Y28.154 I-0.194 J0.568
G1 X31.672 Y33.13
G3 X30.791 Y32.541 I-0.284 J-0.528
G1 X30.819 Y32.34
X30.877 Y31.937
X31.026 Y30.932
X31.25 Y29.523
X31.318 Y29.121
X31.406 Y28.725
X31.5 Y28.419
X31.639 Y28.069
X31.829 Y27.685
X32.081 Y27.265
X32.405 Y26.812
X32.832 Y26.305
X33.354 Y25.778
X33.867 Y25.337
X33.947 Y25.279
X34.186 Y25.139
X34.449 Y25.049
X34.723 Y25.012
X35 Y25.03
X35.268 Y25.102
X36.604 Y25.608
X37.687 Y26.009
G3 X37.717 Y27.106 I-0.228 J0.555
G1 X32.17 Y29.743
G3 X31.318 Y29.121 I-0.258 J-0.542
G1 X31.455 Y28.317
X31.491 Y28.115
X31.602 Y27.512
X31.716 Y26.909
X31.839 Y26.305
X31.882 Y26.104
X31.927 Y25.903
X31.999 Y25.646
X32.084 Y25.415
X32.126 Y25.324
X32.276 Y25.072
X32.475 Y24.857
X32.714 Y24.688
X32.984 Y24.572
X33.271 Y24.516
X33.564 Y24.52
X33.85 Y24.585
G3 X34.004 Y25.62 I-0.214 J0.561
G1 X32.885 Y26.488
G3 X31.927 Y25.903 I-0.368 J-0.474
G1 X32.018 Y25.501
X32.175 Y24.88
X32.227 Y24.696
X32.247 Y24.646
X32.272 Y24.595
X32.304 Y24.545
X32.343 Y24.495
X32.377 Y24.46
X32.427 Y24.416
X32.477 Y24.38
X32.528 Y24.349
X32.578 Y24.325
X32.676 Y24.294
X32.728 Y24.284
X32.779 Y24.279
X32.863 Y24.28
X32.947 Y24.294
X32.981 Y24.303
X33.786 Y24.564
X33.987 Y24.632
X34.793 Y24.927
X35.195 Y25.075
X35.268 Y25.102
G3 X35.462 Y25.233 I-0.232 J0.553
G1 X35.528 Y25.3 Z8.017
X35.592 Y25.365 Z8.039
X35.653 Y25.427 Z8.075
X35.71 Y25.484 Z8.125
X35.76 Y25.535 Z8.186
X35.803 Y25.578 Z8.257
X35.838 Y25.613 Z8.338
X35.863 Y25.639 Z8.425
X35.879 Y25.654 Z8.516
X35.884 Y25.659 Z8.61
G0 Z23
X43.14 Y58.551
Z9.21
G1 Z8.61 F850
Y58.558 Z8.516
X43.142 Y58.58 Z8.425
X43.144 Y58.616 Z8.338
X43.148 Y58.665 Z8.257
X43.152 Y58.726 Z8.186
X43.157 Y58.797 Z8.125
X43.163 Y58.877 Z8.075
X43.169 Y58.964 Z8.039
X43.175 Y59.056 Z8.017
X43.181 Y59.149 Z8.01
G3 X43.046 Y59.342 I-0.187 J0.013
G1 X42.04 Y59.596
X41.839 Y59.648
X41.637 Y59.701
X41.436 Y59.757
X40.027 Y60.185
X39.825 Y60.249
X39.677 Y60.299
X39.446 Y60.364
X39.14 Y60.423
X38.787 Y60.463
X38.371 Y60.476
X37.913 Y60.453
X37.379 Y60.384
X36.775 Y60.255
X36.118 Y60.06
X35.373 Y59.77
X34.575 Y59.384
X33.81 Y58.938
X33.077 Y58.44
X32.376 Y57.898
X31.706 Y57.318
X31.475 Y57.094
X31.281 Y56.862
X31.143 Y56.594
X31.064 Y56.303
X30.998 Y55.874
X30.821 Y54.667
X30.792 Y54.466
X30.628 Y53.259
X30.553 Y52.655
X30.482 Y52.072
G3 X31.486 Y51.579 I0.598 J-0.052
G1 X39.874 Y59.295
G3 X39.677 Y60.299 I-0.406 J0.442
G1 X39.423 Y60.384
X38.618 Y60.66
X37.927 Y60.902
X37.208 Y61.168
X36.882 Y61.271
X36.627 Y61.329
X36.317 Y61.374
X35.963 Y61.396
X35.578 Y61.39
X35.119 Y61.345
X34.632 Y61.258
X34.066 Y61.108
X33.426 Y60.883
X32.741 Y60.578
X32.285 Y60.33
X32.031 Y60.152
X31.822 Y59.923
X31.669 Y59.653
X31.579 Y59.355
X31.458 Y58.69
X31.388 Y58.287
X31.286 Y57.684
X31.219 Y57.282
X31.07 Y56.338
X31.064 Y56.303
G3 X32.042 Y55.768 I0.596 J-0.071
G1 X37.362 Y60.15
G3 X37.208 Y61.168 I-0.381 J0.463
G1 X36.604 Y61.392
X35.195 Y61.925
X34.793 Y62.073
X34.463 Y62.177
X34.197 Y62.237
X33.919 Y62.277
X33.597 Y62.297
X33.279 Y62.291
X33.177 Y62.281
X32.89 Y62.222
X32.621 Y62.104
X32.383 Y61.933
X32.186 Y61.715
X32.038 Y61.462
X31.946 Y61.183
G3 X32.664 Y60.491 I0.591 J-0.106
G1 X34.693 Y60.932
G3 X34.793 Y62.073 I-0.127 J0.586
G1 X34.39 Y62.221
X33.987 Y62.368
X33.786 Y62.437
X32.981 Y62.698
X32.919 Y62.713
X32.849 Y62.722
X32.779
X32.697 Y62.713
X32.638 Y62.698
X32.578 Y62.677
X32.528 Y62.653
X32.477 Y62.624
X32.427 Y62.586
X32.377 Y62.54
X32.35 Y62.511
X32.309 Y62.461
X32.277 Y62.411
X32.25 Y62.361
X32.23 Y62.31
X32.17 Y62.109
X32.116 Y61.908
X31.973 Y61.305
X31.842 Y60.701
X31.759 Y60.299
X31.679 Y59.897
X31.579 Y59.355
X31.575 Y59.31 Z8.014
X31.572 Y59.267 Z8.027
X31.578 Y59.219 Z8.054
X31.583 Y59.178 Z8.092
X31.587 Y59.147 Z8.138
X31.589 Y59.128 Z8.19
X31.59 Y59.121 Z8.246
G0 Z23
X46.204 Y46.168
Z11.11
G1 Z10.51 F850
G3 X44.201 Y40.832 Z10.197 I-1.002 J-2.668 F283.3
X46.204 Y46.168 Z9.885 I1.002 J2.668
X44.201 Y40.832 Z9.572 I-1.002 J-2.668
X46.204 Y46.168 Z9.259 I1.002 J2.668
X44.201 Y40.832 Z8.947 I-1.002 J-2.668
X46.204 Y46.168 Z8.634 I1.002 J2.668
X44.201 Y40.832 Z8.321 I-1.002 J-2.668
X46.204 Y46.168 Z8.009 I1.002 J2.668
X44.201 Y40.832 Z7.696 I-1.002 J-2.668
X46.204 Y46.168 Z7.383 I1.002 J2.668
X44.201 Y40.832 Z7.071 I-1.002 J-2.668
X46.204 Y46.168 Z6.758 I1.002 J2.668
X44.201 Y40.832 Z6.445 I-1.002 J-2.668
X46.204 Y46.168 Z6.133 I1.002 J2.668
X44.201 Y40.832 Z5.82 I-1.002 J-2.668
X46.204 Y46.168 Z5.507 I1.002 J2.668
X44.201 Y40.832 Z5.195 I-1.002 J-2.668
X46.204 Y46.168 Z4.882 I1.002 J2.668
X44.201 Y40.832 Z4.569 I-1.002 J-2.668
X46.204 Y46.168 Z4.257 I1.002 J2.668
X44.201 Y40.832 Z3.944 I-1.002 J-2.668
X46.204 Y46.168 Z3.631 I1.002 J2.668
X44.201 Y40.832 Z3.319 I-1.002 J-2.668
X46.204 Y46.168 Z3.006 I1.002 J2.668
X44.201 Y40.832 Z2.693 I-1.002 J-2.668
X46.204 Y46.168 Z2.381 I1.002 J2.668
X44.201 Y40.832 Z2.068 I-1.002 J-2.668
X46.204 Y46.168 Z1.755 I1.002 J2.668
X44.201 Y40.832 Z1.443 I-1.002 J-2.668
X46.204 Y46.168 Z1.13 I1.002 J2.668
X44.201 Y40.832 Z0.817 I-1.002 J-2.668
X46.204 Y46.168 Z0.505 I1.002 J2.668
X44.201 Y40.832 Z0.192 I-1.002 J-2.668
X48.052 Y43.5 Z0 I1.002 J2.668
X42.352 I-2.85
X48.052 I2.85
G1 X48.055 Y43.722 F850
X48.208 Y44.595
X48.259 Y44.736
X48.292 Y44.882
X48.311 Y45.031
X48.315 Y45.181
X48.307 Y45.334
X48.285 Y45.498
X48.247 Y45.67
X48.192 Y45.849
X48.12 Y46.033
X48.028 Y46.221
X47.916 Y46.409
X47.783 Y46.597
X47.628 Y46.781
X47.453 Y46.959
X47.257 Y47.128
X47.041 Y47.287
X46.805 Y47.432
X46.551 Y47.562
X46.28 Y47.674
X45.995 Y47.765
X45.696 Y47.836
X45.387 Y47.882
X45.069 Y47.905
X44.746 Y47.901
X44.419 Y47.872
X44.091 Y47.815
X43.765 Y47.732
X43.444 Y47.621
X43.129 Y47.484
X42.825 Y47.32
X42.532 Y47.132
X42.254 Y46.919
X41.992 Y46.683
X41.749 Y46.425
X41.526 Y46.148
X41.325 Y45.853
X41.149 Y45.541
X40.997 Y45.216
X40.872 Y44.878
X40.774 Y44.531
X40.704 Y44.176
X40.662 Y43.816
X40.65 Y43.453
X40.667 Y43.09
X40.713 Y42.73
X40.787 Y42.373
X40.891 Y42.024
X41.022 Y41.683
X41.18 Y41.355
X41.364 Y41.039
X41.573 Y40.74
X41.805 Y40.457
X42.059 Y40.195
X42.334 Y39.953
X42.627 Y39.735
X42.937 Y39.54
X43.262 Y39.371
X43.599 Y39.229
X43.947 Y39.114
X44.303 Y39.027
X44.664 Y38.969
X45.029 Y38.94
X45.396 Y38.941
X45.761 Y38.971
X46.122 Y39.031
X46.478 Y39.119
X46.825 Y39.235
X47.162 Y39.379
X47.487 Y39.55
X47.796 Y39.746
X48.089 Y39.966
X48.364 Y40.209
X48.618 Y40.473
X48.849 Y40.757
X49.058 Y41.059
X49.354 Y41.571
X49.697 Y42.293
X49.905 Y42.838
X50.047 Y43.325
X50.139 Y43.774
X50.193 Y44.208
X50.21 Y44.628
X50.195 Y45.035
X50.148 Y45.432
X50.069 Y45.821
X49.961 Y46.2
X49.822 Y46.57
X49.653 Y46.929
X49.454 Y47.275
X49.227 Y47.607
X48.971 Y47.923
X48.688 Y48.221
X48.378 Y48.498
X48.042 Y48.752
X47.682 Y48.982
X47.3 Y49.186
X46.896 Y49.36
X46.475 Y49.503
X46.037 Y49.614
X45.587 Y49.689
X45.127 Y49.729
X44.661 Y49.732
X44.19 Y49.697
X43.72 Y49.624
X43.254 Y49.513
X42.795 Y49.363
X42.345 Y49.175
X41.91 Y48.951
X41.492 Y48.691
X41.093 Y48.396
X40.717 Y48.069
X40.368 Y47.711
X40.047 Y47.324
X39.756 Y46.912
X39.499 Y46.475
X39.277 Y46.019
X39.092 Y45.544
X38.945 Y45.055
X38.838 Y44.555
X38.771 Y44.046
X38.745 Y43.533
X38.761 Y43.019
X38.817 Y42.507
X38.915 Y42
X39.053 Y41.503
X39.231 Y41.017
X39.447 Y40.547
X39.701 Y40.096
X39.99 Y39.666
X40.313 Y39.261
X40.667 Y38.883
X41.051 Y38.534
X41.462 Y38.217
X41.897 Y37.934
X42.354 Y37.686
X42.829 Y37.476
X43.319 Y37.305
X43.822 Y37.174
X44.334 Y37.083
X44.851 Y37.034
X45.371 Y37.027
X45.89 Y37.061
X46.404 Y37.137
X46.911 Y37.253
X47.406 Y37.41
X47.888 Y37.607
X48.352 Y37.841
X48.796 Y38.112
X49.217 Y38.418
X49.645 Y38.785
X50.092 Y39.235
X50.51 Y39.73
X50.899 Y40.273
X51.242 Y40.845
X51.533 Y41.43
X51.769 Y42.022
X51.952 Y42.616
X52.085 Y43.208
X52.167 Y43.799
X52.202 Y44.386
X52.189 Y44.967
X52.131 Y45.54
X52.027 Y46.102
X51.879 Y46.652
X51.688 Y47.188
X51.454 Y47.706
X51.18 Y48.205
X50.865 Y48.681
X50.511 Y49.133
X50.12 Y49.557
X49.693 Y49.951
X49.233 Y50.313
X48.741 Y50.638
X48.22 Y50.926
X47.673 Y51.173
X47.103 Y51.377
X46.514 Y51.537
X45.909 Y51.649
X45.293 Y51.712
X44.669 Y51.727
X44.042 Y51.69
X43.415 Y51.603
X42.794 Y51.465
X42.181 Y51.277
X41.583 Y51.038
X41.002 Y50.751
X40.444 Y50.417
X39.911 Y50.036
X39.409 Y49.613
X38.94 Y49.148
X38.508 Y48.646
X38.117 Y48.109
X37.769 Y47.54
X37.467 Y46.943
X37.213 Y46.322
X37.009 Y45.682
X36.857 Y45.026
X36.758 Y44.358
X36.713 Y43.684
X36.722 Y43.007
X36.785 Y42.332
X36.903 Y41.664
X37.074 Y41.007
X37.297 Y40.365
X37.571 Y39.742
X37.895 Y39.143
X38.266 Y38.572
X38.682 Y38.032
X39.14 Y37.527
X39.637 Y37.06
X40.17 Y36.634
X40.736 Y36.252
X41.331 Y35.917
X41.951 Y35.631
X42.593 Y35.395
X43.251 Y35.212
X43.922 Y35.082
X44.601 Y35.006
X45.284 Y34.985
X45.967 Y35.018
X46.645 Y35.107
X47.313 Y35.25
X47.969 Y35.445
X48.606 Y35.693
X49.231 Y35.996
X49.852 Y36.361
X50.459 Y36.787
X51.048 Y37.275
X51.608 Y37.821
X52.128 Y38.417
X52.601 Y39.055
X53.021 Y39.729
X53.383 Y40.43
X53.686 Y41.152
X53.927 Y41.891
X54.107 Y42.639
X54.226 Y43.394
X54.283 Y44.149
X54.279 Y44.902
X54.215 Y45.648
X54.092 Y46.383
X53.911 Y47.103
X53.673 Y47.806
X53.379 Y48.487
X53.032 Y49.142
X52.633 Y49.769
X52.183 Y50.363
X51.685 Y50.921
X51.142 Y51.44
X50.555 Y51.916
X49.929 Y52.346
X49.267 Y52.726
X48.573 Y53.054
X47.849 Y53.326
X47.102 Y53.541
X46.336 Y53.696
X45.555 Y53.79
X44.765 Y53.821
X43.97 Y53.788
X43.176 Y53.691
X42.389 Y53.53
X41.613 Y53.305
X40.854 Y53.017
X40.118 Y52.668
X39.408 Y52.259
X38.732 Y51.792
X38.092 Y51.271
X37.495 Y50.698
X36.943 Y50.077
X36.442 Y49.412
X35.994 Y48.707
X35.604 Y47.966
X35.274 Y47.195
X35.005 Y46.398
X34.802 Y45.58
X34.664 Y44.748
X34.594 Y43.905
X34.591 Y43.059
X34.657 Y42.214
X34.79 Y41.376
X34.99 Y40.551
X35.256 Y39.744
X35.586 Y38.96
X35.978 Y38.204
X36.43 Y37.482
X36.939 Y36.799
X37.501 Y36.158
X38.113 Y35.564
X38.771 Y35.021
X39.471 Y34.532
X40.208 Y34.101
X40.977 Y33.73
X41.773 Y33.422
X42.592 Y33.179
X43.428 Y33.003
X44.276 Y32.894
X45.129 Y32.854
X45.984 Y32.882
X46.833 Y32.979
X47.673 Y33.143
X48.504 Y33.377
X49.322 Y33.679
X50.123 Y34.051
X50.894 Y34.488
X51.628 Y34.984
X52.321 Y35.536
X52.971 Y36.139
X53.573 Y36.789
X54.125 Y37.482
X54.624 Y38.214
X55.068 Y38.981
X55.453 Y39.779
X55.778 Y40.603
X56.041 Y41.45
X56.239 Y42.313
X56.371 Y43.19
X56.436 Y44.073
X56.432 Y44.96
X56.36 Y45.843
X56.221 Y46.718
X56.013 Y47.579
X55.739 Y48.422
X55.401 Y49.241
X55 Y50.031
X54.538 Y50.788
X54.02 Y51.506
X53.447 Y52.183
X52.825 Y52.813
X52.155 Y53.393
X51.443 Y53.921
X50.693 Y54.393
X49.91 Y54.807
X49.097 Y55.161
X48.261 Y55.453
X47.405 Y55.682
X46.534 Y55.846
X45.654 Y55.946
X44.768 Y55.981
X43.882 Y55.948
X43.002 Y55.851
X42.131 Y55.689
X41.274 Y55.463
X40.435 Y55.177
X39.619 Y54.832
X38.83 Y54.429
X38.071 Y53.971
X37.347 Y53.46
X36.661 Y52.899
X36.019 Y52.289
X35.421 Y51.634
X34.872 Y50.939
X34.372 Y50.207
X33.925 Y49.442
X33.531 Y48.648
X33.194 Y47.829
X32.916 Y46.987
X32.699 Y46.128
X32.544 Y45.256
X32.449 Y44.375
X32.416 Y43.489
X32.443 Y42.604
X32.531 Y41.722
X32.681 Y40.848
X32.892 Y39.988
X33.163 Y39.144
X33.492 Y38.322
X33.878 Y37.524
X34.317 Y36.754
X34.807 Y36.016
X35.347 Y35.313
X35.935 Y34.651
X36.569 Y34.031
X37.244 Y33.457
X37.957 Y32.932
X38.705 Y32.456
X39.483 Y32.032
X40.288 Y31.662
X41.118 Y31.349
X41.967 Y31.096
X42.832 Y30.903
X43.708 Y30.77
X44.591 Y30.698
X45.477 Y30.685
X46.362 Y30.733
X47.241 Y30.842
X48.111 Y31.013
X48.966 Y31.244
X49.804 Y31.532
X50.621 Y31.876
X51.413 Y32.272
X52.178 Y32.72
X52.91 Y33.219
X53.608 Y33.765
X54.27 Y34.355
X54.892 Y34.985
X55.475 Y35.653
X56.014 Y36.356
X56.508 Y37.092
X56.953 Y37.858
X57.348 Y38.651
X57.693 Y39.468
X57.986 Y40.304
X58.227 Y41.157
X58.413 Y42.023
X58.541 Y42.9
X58.613 Y43.783
X58.627 Y44.669
X58.584 Y45.554
X58.486 Y46.435
X58.331 Y47.307
X58.118 Y48.167
X57.849 Y49.012
X57.525 Y49.836
X57.149 Y50.639
X56.722 Y51.415
X56.247 Y52.163
X55.723 Y52.878
X55.152 Y53.556
X54.539 Y54.195
X53.886 Y54.795
X53.197 Y55.351
X52.474 Y55.864
X51.719 Y56.328
X50.936 Y56.742
X50.128 Y57.105
X49.298 Y57.417
X48.451 Y57.676
X47.589 Y57.883
X46.716 Y58.036
X45.835 Y58.131
X44.95 Y58.171
X44.064 Y58.154
X43.181 Y58.083
X42.303 Y57.958
X41.435 Y57.78
X40.58 Y57.548
X39.741 Y57.263
X38.921 Y56.927
X38.123 Y56.542
X37.349 Y56.11
X36.603 Y55.632
X35.887 Y55.111
X35.205 Y54.545
X34.559 Y53.938
X33.951 Y53.293
X33.383 Y52.613
X32.857 Y51.9
X32.372 Y51.158
X31.933 Y50.389
X31.542 Y49.594
X31.2 Y48.776
X30.908 Y47.94
X30.666 Y47.087
X30.475 Y46.222
X30.334 Y45.347
X30.246 Y44.465
X30.212 Y43.58
X30.231 Y42.694
X30.302 Y41.811
X30.426 Y40.933
X30.6 Y40.064
X30.825 Y39.207
X31.102 Y38.365
X31.429 Y37.542
X31.804 Y36.739
X32.225 Y35.96
X32.691 Y35.206
X33.201 Y34.481
X33.751 Y33.787
X34.344 Y33.127
X34.975 Y32.505
X35.641 Y31.922
X36.341 Y31.378
X37.071 Y30.876
X37.829 Y30.416
X38.612 Y30.002
X39.419 Y29.636
X40.247 Y29.32
X41.092 Y29.053
X41.951 Y28.837
X42.822 Y28.67
X43.7 Y28.554
X44.584 Y28.49
X45.47 Y28.479
X46.355 Y28.521
X47.236 Y28.615
X48.11 Y28.761
X48.974 Y28.957
X49.826 Y29.203
X50.662 Y29.496
X51.479 Y29.839
X52.275 Y30.228
X53.047 Y30.663
X53.794 Y31.14
X54.513 Y31.659
X55.202 Y32.216
X55.859 Y32.809
X56.483 Y33.439
X57.07 Y34.103
X57.62 Y34.798
X58.13 Y35.522
X58.601 Y36.273
X59.031 Y37.048
X59.418 Y37.845
X59.761 Y38.662
X60.058 Y39.497
X60.308 Y40.347
X60.511 Y41.209
X60.666 Y42.082
X60.773 Y42.962
X60.833 Y43.846
X60.843 Y44.732
X60.803 Y45.617
X60.713 Y46.498
X60.574 Y47.374
X60.386 Y48.24
X60.151 Y49.094
X59.869 Y49.934
X59.54 Y50.757
X59.166 Y51.56
X58.746 Y52.34
X58.283 Y53.096
X57.779 Y53.825
X57.235 Y54.525
X56.654 Y55.193
X56.037 Y55.829
X55.385 Y56.429
X54.7 Y56.992
X53.985 Y57.515
X53.242 Y57.998
X52.551 Y58.396
X52.297 Y58.51
X52.026 Y58.572
X51.747 Y58.579
X51.703 Y58.575
X50.495 Y58.52
X50.092 Y58.508
X49.891 Y58.503
X49.69 Y58.504
X49.287 Y58.516
X49.086 Y58.523
X47.878 Y58.579
X47.677 Y58.595
X47.274 Y58.631
X47.073 Y58.653
X45.865 Y58.799
X45.261 Y58.893
X45.06 Y58.929
X44.053 Y59.121
X43.852 Y59.16
X43.243 Y59.293
X43.046 Y59.342
X42.478 Y59.456
X42.019 Y59.509
X41.467 Y59.529
X40.844 Y59.502
X40.151 Y59.415
X39.358 Y59.25
X38.508 Y59.001
X37.68 Y58.686
X36.875 Y58.315
X36.095 Y57.894
X35.343 Y57.425
X34.621 Y56.912
X33.929 Y56.359
X33.269 Y55.768
X32.641 Y55.142
X32.048 Y54.484
X31.489 Y53.796
X30.967 Y53.08
X30.698 Y52.666
X30.596 Y52.48
X30.524 Y52.28
X30.482 Y52.072
X30.431 Y51.65
X30.387 Y51.247
X30.303 Y50.443
X30.242 Y49.839
X30.138 Y48.632
X30.122 Y48.431
X30.069 Y47.627
X30.043 Y47.224
X30.031 Y47.023
X30 Y46.42
X29.954 Y45.213
X29.948 Y45.012
X29.932 Y43.805
Y43.604
X29.935 Y43
X29.943 Y42.397
X29.954 Y41.793
X29.961 Y41.578
X30.007 Y40.385
X30.043 Y39.782
X30.094 Y38.977
X30.138 Y38.374
X30.206 Y37.569
X30.259 Y36.966
X30.391 Y36.116
X30.518 Y35.585
X30.705 Y35.013
X30.972 Y34.373
X31.339 Y33.662
X31.807 Y32.909
X32.333 Y32.196
X32.907 Y31.521
X33.523 Y30.885
X34.178 Y30.287
X34.866 Y29.728
X35.583 Y29.208
X36.327 Y28.727
X37.096 Y28.287
X37.887 Y27.887
X38.698 Y27.529
X39.526 Y27.214
X39.993 Y27.065
X40.269 Y27.006
X40.551 Y27.004
X40.827 Y27.058
X41.235 Y27.182
X41.839 Y27.352
X42.04 Y27.404
X43.265 Y27.713
X43.449 Y27.755
X43.852 Y27.84
X44.456 Y27.956
X45.06 Y28.071
X45.261 Y28.108
X45.865 Y28.201
X47.274 Y28.372
X47.475 Y28.394
X47.677 Y28.408
X47.878 Y28.421
X49.086 Y28.477
X49.287 Y28.484
X49.69 Y28.496
X49.891 Y28.497
X50.294 Y28.487
X50.495 Y28.48
X51.099 Y28.452
X51.634 Y28.455
X52.047 Y28.489
X52.546 Y28.572
X53.086 Y28.708
X53.709 Y28.918
X54.415 Y29.221
X55.192 Y29.631
X55.94 Y30.107
X56.652 Y30.634
X57.328 Y31.207
X57.969 Y31.819
X58.574 Y32.466
X59.144 Y33.145
X59.679 Y33.851
X60.177 Y34.584
X60.64 Y35.34
X61.066 Y36.117
X61.452 Y36.914
X61.798 Y37.73
X62.104 Y38.562
X62.271 Y39.096
X62.321 Y39.321
X62.334 Y39.551
X62.309 Y39.781
X62.281 Y39.983
X62.155 Y40.989
X62.132 Y41.19
X62.089 Y41.592
X62.069 Y41.793
X62.018 Y43
X62.013 Y43.201
X62.009 Y43.604
X62.01 Y43.805
X62.061 Y45.012
X62.076 Y45.213
X62.109 Y45.615
X62.131 Y45.816
X62.231 Y46.621
X62.293 Y47.465
X62.289 Y48.124
X62.224 Y48.872
X62.084 Y49.701
X61.867 Y50.56
X61.587 Y51.401
X61.253 Y52.222
X60.87 Y53.021
X60.442 Y53.797
X59.974 Y54.549
X59.467 Y55.276
X58.925 Y55.977
X58.346 Y56.648
X57.735 Y57.289
X57.092 Y57.899
X56.42 Y58.476
X56.073 Y58.746
X55.819 Y58.903
X55.538 Y59.003
X55.243 Y59.041
X54.946 Y59.015
X54.521 Y58.932
X54.293 Y58.891
X53.917 Y58.829
X53.716 Y58.796
X52.508 Y58.649
X52.307 Y58.628
X51.904 Y58.591
X51.747 Y58.579
G3 X51.361 Y57.588 I0.066 J-0.596
G1 X61.186 Y46.321
G3 X62.231 Y46.621 I0.452 J0.394
G1 X62.256 Y46.822
X62.282 Y47.023
X62.387 Y47.627
X62.548 Y48.431
X62.629 Y48.834
X62.674 Y49.035
X62.832 Y49.638
X62.977 Y50.175
X63.049 Y50.51
X63.094 Y50.842
X63.115 Y51.238
X63.103 Y51.687
X63.046 Y52.215
X62.935 Y52.798
X62.747 Y53.48
X62.466 Y54.256
X62.097 Y55.062
X61.67 Y55.838
X61.192 Y56.584
X60.671 Y57.301
X60.111 Y57.988
X59.517 Y58.645
X58.892 Y59.273
X58.81 Y59.343
X58.589 Y59.498
X58.341 Y59.607
X58.078 Y59.666
X57.808 Y59.673
X57.541 Y59.628
X56.535 Y59.366
X56.333 Y59.314
X55.729 Y59.168
X55.125 Y59.05
X54.946 Y59.015
G3 X54.636 Y58.028 I0.135 J-0.585
G1 X61.959 Y49.948
G3 X62.977 Y50.175 I0.445 J0.403
G1 X63.103 Y50.644
X63.162 Y50.845
X63.178 Y50.899
X63.291 Y51.247
X63.621 Y52.253
X63.782 Y52.717
X63.862 Y52.971
X63.923 Y53.236
X63.969 Y53.555
X63.991 Y53.89
X63.984 Y54.3
X63.942 Y54.739
X63.848 Y55.265
X63.701 Y55.823
X63.473 Y56.472
X63.148 Y57.204
X62.725 Y57.982
X62.243 Y58.726
X61.978 Y59.081
X61.548 Y59.616
X61.183 Y60.002
X61.138 Y60.043
X60.893 Y60.219
X60.617 Y60.339
X60.322 Y60.397
X60.021 Y60.39
X59.729 Y60.32
X59.67 Y60.299
X59.06 Y60.098
X58.749 Y59.999
X57.944 Y59.744
X57.742 Y59.683
X57.541 Y59.628
G3 X57.273 Y58.653 I0.178 J-0.573
G1 X62.781 Y52.543
G3 X63.782 Y52.717 I0.446 J0.402
G1 X64.134 Y53.661
X64.361 Y54.264
X64.685 Y55.069
X64.765 Y55.3
X64.83 Y55.553
X64.879 Y55.837
X64.908 Y56.152
X64.912 Y56.536
X64.885 Y56.931
X64.812 Y57.41
X64.695 Y57.911
X64.517 Y58.467
X64.277 Y59.05
X63.995 Y59.602
X63.725 Y60.043
X63.471 Y60.39
X63.197 Y60.707
X63.174 Y60.729
X62.922 Y60.926
X62.632 Y61.061
X62.319 Y61.126
X62 Y61.119
X61.69 Y61.04
X61.165 Y60.839
X60.964 Y60.763
X59.729 Y60.32
G3 X59.514 Y59.351 I0.222 J-0.557
G1 X63.699 Y54.901
G3 X64.685 Y55.069 I0.437 J0.411
G1 X64.847 Y55.471
X64.99 Y55.821
X65.392 Y56.792
X65.594 Y57.279
X65.692 Y57.555
X65.753 Y57.782
X65.802 Y58.051
X65.832 Y58.346
X65.838 Y58.676
X65.817 Y59.019
X65.765 Y59.392
X65.677 Y59.782
X65.567 Y60.136
X65.431 Y60.474
X65.282 Y60.775
X65.118 Y61.047
X65.007 Y61.201
X64.802 Y61.429
X64.551 Y61.608
X64.267 Y61.727
X63.964 Y61.781
X63.656 Y61.768
X63.359 Y61.687
X62.574 Y61.381
X62.171 Y61.225
X61.69 Y61.04
G3 X61.512 Y60.052 I0.234 J-0.552
G1 X64.635 Y57.091
G3 X65.594 Y57.279 I0.413 J0.435
G1 X66.009 Y58.287
X66.248 Y58.891
X66.482 Y59.494
X66.545 Y59.691
X66.591 Y59.889
X66.621 Y60.095
X66.635 Y60.306
X66.632 Y60.535
X66.611 Y60.758
X66.575 Y60.966
X66.516 Y61.192
X66.444 Y61.399
X66.427 Y61.437
X66.276 Y61.699
X66.072 Y61.923
X65.825 Y62.097
X65.546 Y62.215
X65.249 Y62.269
X64.946 Y62.259
X64.653 Y62.183
G3 X64.358 Y61.34 I0.231 J-0.554
G1 X65.405 Y59.441
G3 X66.35 Y59.301 I0.526 J0.29
X66.482 Y59.494 I-0.419 J0.429
G1 X66.557 Y59.695
X66.77 Y60.299
X67.003 Y61.002
X67.06 Y61.214
X67.092 Y61.361
X67.088 Y61.636
X67.015 Y61.902
X66.88 Y62.141
X66.689 Y62.34
X66.456 Y62.486
X66.193 Y62.57
X65.919 Y62.587
X65.648 Y62.535
G3 X64.974 Y61.773 I0.362 J-0.999
X67.06 Y61.214 I1.054 J-0.24
G1 X67.193 Y61.707
X67.243 Y61.908
X67.27 Y62.068
X67.277 Y62.109
X67.284 Y62.21
X67.274 Y62.31
X67.248 Y62.404
X67.204 Y62.499
X67.197 Y62.511
X67.163 Y62.562
X67.12 Y62.612
X67.062 Y62.666
X67.002 Y62.713
X66.952 Y62.743
X66.902 Y62.768
X66.852 Y62.786
X66.802 Y62.801
X66.701 Y62.815
X66.6 Y62.813
X66.5 Y62.793
X66.399 Y62.767
X65.795 Y62.582
X65.576 Y62.511
X65.392 Y62.45
X65.191 Y62.382
X64.99 Y62.31
X64.386 Y62.083
X63.782 Y61.852
X63.379 Y61.695
X63.359 Y61.687
G3 X63.167 Y61.554 I0.238 J-0.551
G1 X63.101 Y61.487 Z0.007
X63.038 Y61.421 Z0.029
X62.977 Y61.359 Z0.065
X62.921 Y61.301 Z0.115
X62.871 Y61.25 Z0.176
X62.829 Y61.206 Z0.247
X62.795 Y61.17 Z0.328
X62.77 Y61.145 Z0.415
X62.754 Y61.129 Z0.506
X62.749 Y61.123 Z0.6
G0 Z23
X50.85 Y29.21
Z1.2
G1 Z0.6 F850
X50.851 Y29.202 Z0.506
X50.854 Y29.181 Z0.415
X50.858 Y29.145 Z0.328
X50.865 Y29.096 Z0.247
X50.873 Y29.035 Z0.176
X50.882 Y28.964 Z0.115
X50.893 Y28.885 Z0.065
X50.904 Y28.799 Z0.029
X50.916 Y28.708 Z0.007
X50.928 Y28.615 Z0
G3 X51.099 Y28.452 I0.186 J0.025
G1 X51.703 Y28.425
X51.904 Y28.412
X52.106 Y28.396
X52.307 Y28.376
X53.716 Y28.203
X53.917 Y28.171
X54.119 Y28.138
X54.371 Y28.109
X54.676 Y28.098
X54.994 Y28.113
X55.377 Y28.162
X55.792 Y28.249
X56.272 Y28.391
X56.788 Y28.589
X57.382 Y28.875
X58.035 Y29.256
X58.735 Y29.744
X59.419 Y30.307
X60.061 Y30.918
X60.664 Y31.567
X61.229 Y32.25
X61.758 Y32.961
X62.251 Y33.697
X62.708 Y34.456
X63.049 Y35.085
X63.157 Y35.34
X63.212 Y35.612
X63.214 Y35.889
X63.162 Y36.161
X63.102 Y36.362
X62.722 Y37.77
X62.675 Y37.972
X62.574 Y38.446
X62.426 Y39.179
X62.309 Y39.781
G3 X61.229 Y39.985 I-0.585 J-0.135
G1 X53.743 Y29.065
G3 X54.119 Y28.138 I0.495 J-0.339
G1 X54.32 Y28.104
X54.521 Y28.067
X55.729 Y27.831
X56.132 Y27.738
X56.444 Y27.657
X56.678 Y27.609
X56.92 Y27.579
X57.192 Y27.567
X57.52 Y27.579
X57.857 Y27.618
X58.255 Y27.697
X58.685 Y27.82
X59.172 Y28.002
X59.691 Y28.245
X60.282 Y28.582
X60.928 Y29.023
X61.617 Y29.579
X62.26 Y30.189
X62.859 Y30.842
X63.418 Y31.529
X63.939 Y32.246
X63.95 Y32.263
X64.088 Y32.552
X64.157 Y32.864
X64.153 Y33.185
X64.076 Y33.496
X63.782 Y34.285
X63.686 Y34.552
X63.29 Y35.759
X63.225 Y35.96
X63.162 Y36.161
G3 X62.122 Y36.329 I-0.566 J-0.2
G1 X56.141 Y28.6
G3 X56.444 Y27.657 I0.475 J-0.367
G1 X57.541 Y27.371
X57.742 Y27.316
X58.404 Y27.11
X58.548 Y27.064
X58.823 Y26.992
X59.058 Y26.95
X59.305 Y26.927
X59.603 Y26.922
X59.926 Y26.943
X60.286 Y26.996
X60.702 Y27.092
X61.131 Y27.227
X61.627 Y27.429
X62.155 Y27.696
X62.729 Y28.046
X63.365 Y28.507
X64.038 Y29.083
X64.504 Y29.551
X64.732 Y29.821
X64.902 Y30.073
X65.014 Y30.356
X65.062 Y30.657
X65.044 Y30.96
X64.96 Y31.253
X64.522 Y32.34
X64.441 Y32.541
X64.185 Y33.205
X64.076 Y33.496
G3 X63.063 Y33.655 I-0.555 J-0.229
G1 X58.29 Y28.017
G3 X58.548 Y27.064 I0.458 J-0.388
G1 X59.039 Y26.909
X59.649 Y26.707
X60.211 Y26.506
X60.561 Y26.381
X60.872 Y26.287
X61.082 Y26.241
X61.334 Y26.207
X61.612 Y26.192
X61.92 Y26.201
X62.282 Y26.24
X62.652 Y26.31
X63.098 Y26.433
X63.544 Y26.595
X64.03 Y26.816
X64.484 Y27.07
X64.891 Y27.342
X65.206 Y27.592
X65.412 Y27.783
X65.598 Y27.995
X65.737 Y28.241
X65.825 Y28.509
X65.857 Y28.789
X65.833 Y29.07
X65.752 Y29.34
X65.511 Y29.926
X64.973 Y31.22
X64.96 Y31.253
G3 X63.965 Y31.407 I-0.547 J-0.246
G1 X60.335 Y27.338
G3 X60.561 Y26.381 I0.448 J-0.399
G1 X60.964 Y26.237
X61.366 Y26.084
X62.171 Y25.775
X62.574 Y25.618
X62.857 Y25.524
X63.068 Y25.472
X63.305 Y25.434
X63.566 Y25.413
X63.851
X64.163 Y25.438
X64.48 Y25.489
X64.794 Y25.566
X65.111 Y25.672
X65.383 Y25.788
X65.658 Y25.931
X65.894 Y26.08
X65.929 Y26.106
X66.15 Y26.313
X66.322 Y26.561
X66.436 Y26.841
X66.487 Y27.139
X66.474 Y27.441
X66.395 Y27.733
X66.09 Y28.518
X65.752 Y29.34
G3 X64.741 Y29.473 I-0.547 J-0.248
G1 X62.347 Y26.55
G3 X62.574 Y25.618 I0.464 J-0.38
G1 X63.39 Y25.299
X63.983 Y25.068
X64.587 Y24.841
X64.755 Y24.787
X64.926 Y24.747
X65.093 Y24.722
X65.276 Y24.709
X65.466 Y24.711
X65.642 Y24.728
X65.833 Y24.761
X65.873 Y24.771
X66.169 Y24.885
X66.43 Y25.064
X66.643 Y25.298
X66.797 Y25.575
X66.883 Y25.879
X66.897 Y26.195
X66.838 Y26.506
G3 X65.962 Y26.804 I-0.561 J-0.213
G1 X64.503 Y25.905
G3 X64.587 Y24.841 I0.315 J-0.511
G1 X64.99 Y24.689
X65.191 Y24.619
X65.795 Y24.415
X65.956 Y24.365
X66.101 Y24.328
X66.366 Y24.332
X66.619 Y24.41
X66.841 Y24.554
X67.014 Y24.754
X67.126 Y24.995
X67.167 Y25.256
X67.134 Y25.519
G3 X66.499 Y26.131 I-0.87 J-0.268
X65.956 Y24.365 I-0.239 J-0.893
G1 X66.399 Y24.232
X66.5 Y24.206
X66.6 Y24.186
X66.701 Y24.184
X66.802 Y24.198
X66.852 Y24.212
X66.902 Y24.231
X66.953 Y24.255
X67.003 Y24.286
X67.014 Y24.294
X67.072 Y24.339
X67.129 Y24.394
X67.17 Y24.445
X67.204 Y24.497
X67.23 Y24.547
X67.25 Y24.596
X67.277 Y24.696
X67.285 Y24.797
X67.277 Y24.897
X67.242 Y25.098
X67.191 Y25.299
X67.139 Y25.501
X67.084 Y25.702
X67.026 Y25.903
X66.838 Y26.506
X66.632 Y27.11
X66.6 Y27.2
X66.395 Y27.733
G3 X66.263 Y27.926 I-0.551 J-0.236
G1 X66.196 Y27.992 Z0.007
X66.13 Y28.056 Z0.029
X66.068 Y28.117 Z0.065
X66.01 Y28.173 Z0.115
X65.959 Y28.223 Z0.176
X65.915 Y28.265 Z0.247
X65.88 Y28.3 Z0.328
X65.854 Y28.325 Z0.415
X65.839 Y28.34 Z0.506
X65.833 Y28.345 Z0.6
G0 Z23
X31.023 Y37.123
Z1.2
G1 Z0.6 F850
X31.015 Z0.506
X30.993 Z0.415
X30.957 Y37.124 Z0.328
X30.908 Y37.125 Z0.247
X30.847 Y37.126 Z0.176
X30.775 Y37.128 Z0.115
X30.695 Y37.13 Z0.065
X30.608 Y37.131 Z0.029
X30.517 Y37.133 Z0.007
X30.423 Y37.135 Z0
G3 X30.259 Y36.966 I-0.003 J-0.161
G1 X30.407 Y35.558
X30.429 Y35.357
X30.565 Y34.241
X30.654 Y33.546
X30.766 Y32.721
X30.791 Y32.541
X30.875 Y32.097
X30.979 Y31.718
X31.122 Y31.324
X31.335 Y30.856
X31.606 Y30.369
X31.975 Y29.816
X32.456 Y29.208
X33.059 Y28.559
X33.713 Y27.961
X34.407 Y27.41
X35.134 Y26.904
X35.889 Y26.44
X36.535 Y26.091
X36.81 Y25.978
X37.102 Y25.926
X37.399 Y25.936
X37.687 Y26.009
X37.944 Y26.104
X38.618 Y26.34
X39.221 Y26.548
X39.825 Y26.751
X40.027 Y26.815
X40.827 Y27.058
G3 X40.917 Y28.154 I-0.194 J0.568
G1 X31.672 Y33.13
G3 X30.791 Y32.541 I-0.284 J-0.528
G1 X30.819 Y32.34
X30.877 Y31.937
X31.026 Y30.932
X31.25 Y29.523
X31.318 Y29.121
X31.406 Y28.725
X31.5 Y28.419
X31.639 Y28.069
X31.829 Y27.685
X32.081 Y27.265
X32.405 Y26.812
X32.832 Y26.305
X33.354 Y25.778
X33.867 Y25.337
X33.947 Y25.279
X34.186 Y25.139
X34.449 Y25.049
X34.723 Y25.012
X35 Y25.03
X35.268 Y25.102
X36.604 Y25.608
X37.687 Y26.009
G3 X37.717 Y27.106 I-0.228 J0.555
G1 X32.17 Y29.743
G3 X31.318 Y29.121 I-0.258 J-0.542
G1 X31.455 Y28.317
X31.491 Y28.115
X31.602 Y27.512
X31.716 Y26.909
X31.839 Y26.305
X31.882 Y26.104
X31.927 Y25.903
X31.999 Y25.646
X32.084 Y25.415
X32.126 Y25.324
X32.276 Y25.072
X32.475 Y24.857
X32.714 Y24.688
X32.984 Y24.572
X33.271 Y24.516
X33.564 Y24.52
X33.85 Y24.585
G3 X34.004 Y25.62 I-0.214 J0.561
G1 X32.885 Y26.488
G3 X31.927 Y25.903 I-0.368 J-0.474
G1 X32.018 Y25.501
X32.175 Y24.88
X32.227 Y24.696
X32.247 Y24.646
X32.272 Y24.595
X32.304 Y24.545
X32.343 Y24.495
X32.377 Y24.46
X32.427 Y24.416
X32.477 Y24.38
X32.528 Y24.349
X32.578 Y24.325
X32.676 Y24.294
X32.728 Y24.284
X32.779 Y24.279
X32.863 Y24.28
X32.947 Y24.294
X32.981 Y24.303
X33.786 Y24.564
X33.987 Y24.632
X34.793 Y24.927
X35.195 Y25.075
X35.268 Y25.102
G3 X35.462 Y25.233 I-0.232 J0.553
G1 X35.528 Y25.3 Z0.007
X35.592 Y25.365 Z0.029
X35.653 Y25.427 Z0.065
X35.71 Y25.484 Z0.115
X35.76 Y25.535 Z0.176
X35.803 Y25.578 Z0.247
X35.838 Y25.613 Z0.328
X35.863 Y25.639 Z0.415
X35.879 Y25.654 Z0.506
X35.884 Y25.659 Z0.6
G0 Z23
X43.14 Y58.551
Z1.2
G1 Z0.6 F850
Y58.558 Z0.506
X43.142 Y58.58 Z0.415
X43.144 Y58.616 Z0.328
X43.148 Y58.665 Z0.247
X43.152 Y58.726 Z0.176
X43.157 Y58.797 Z0.115
X43.163 Y58.877 Z0.065
X43.169 Y58.964 Z0.029
X43.175 Y59.056 Z0.007
X43.181 Y59.149 Z0
G3 X43.046 Y59.342 I-0.187 J0.013
G1 X42.04 Y59.596
X41.839 Y59.648
X41.637 Y59.701
X41.436 Y59.757
X40.027 Y60.185
X39.825 Y60.249
X39.677 Y60.299
X39.446 Y60.364
X39.14 Y60.423
X38.787 Y60.463
X38.371 Y60.476
X37.913 Y60.453
X37.379 Y60.384
X36.775 Y60.255
X36.118 Y60.06
X35.373 Y59.77
X34.575 Y59.384
X33.81 Y58.938
X33.077 Y58.44
X32.376 Y57.898
X31.706 Y57.318
X31.475 Y57.094
X31.281 Y56.862
X31.143 Y56.594
X31.064 Y56.303
X30.998 Y55.874
X30.821 Y54.667
X30.792 Y54.466
X30.628 Y53.259
X30.553 Y52.655
X30.482 Y52.072
G3 X31.486 Y51.579 I0.598 J-0.052
G1 X39.874 Y59.295
G3 X39.677 Y60.299 I-0.406 J0.442
G1 X39.423 Y60.384
X38.618 Y60.66
X37.927 Y60.902
X37.208 Y61.168
X36.882 Y61.271
X36.627 Y61.329
X36.317 Y61.374
X35.963 Y61.396
X35.578 Y61.39
X35.119 Y61.345
X34.632 Y61.258
X34.066 Y61.108
X33.426 Y60.883
X32.741 Y60.578
X32.285 Y60.33
X32.031 Y60.152
X31.822 Y59.923
X31.669 Y59.653
X31.579 Y59.355
X31.458 Y58.69
X31.388 Y58.287
X31.286 Y57.684
X31.219 Y57.282
X31.07 Y56.338
X31.064 Y56.303
G3 X32.042 Y55.768 I0.596 J-0.071
G1 X37.362 Y60.15
G3 X37.208 Y61.168 I-0.381 J0.463
G1 X36.604 Y61.392
X35.195 Y61.925
X34.793 Y62.073
X34.463 Y62.177
X34.197 Y62.237
X33.919 Y62.277
X33.597 Y62.297
X33.279 Y62.291
X33.177 Y62.281
X32.89 Y62.222
X32.621 Y62.104
X32.383 Y61.933
X32.186 Y61.715
X32.038 Y61.462
X31.946 Y61.183
G3 X32.664 Y60.491 I0.591 J-0.106
G1 X34.693 Y60.932
G3 X34.793 Y62.073 I-0.127 J0.586
G1 X34.39 Y62.221
X33.987 Y62.368
X33.786 Y62.437
X32.981 Y62.698
X32.919 Y62.713
X32.849 Y62.722
X32.779
X32.697 Y62.713
X32.638 Y62.698
X32.578 Y62.677
X32.528 Y62.653
X32.477 Y62.624
X32.427 Y62.586
X32.377 Y62.54
X32.35 Y62.511
X32.309 Y62.461
X32.277 Y62.411
X32.25 Y62.361
X32.23 Y62.31
X32.17 Y62.109
X32.116 Y61.908
X31.973 Y61.305
X31.842 Y60.701
X31.759 Y60.299
X31.679 Y59.897
X31.579 Y59.355
G3 X31.59 Y59.121 I0.593 J-0.088
G1 X31.613 Y59.03 Z0.007
X31.635 Y58.942 Z0.029
X31.656 Y58.857 Z0.065
X31.676 Y58.779 Z0.115
X31.693 Y58.71 Z0.176
X31.708 Y58.65 Z0.247
X31.72 Y58.603 Z0.328
X31.728 Y58.568 Z0.415
X31.734 Y58.546 Z0.506
X31.736 Y58.539 Z0.6
G0 Z33

(2D Contour1)
M9
X81.277 Y91.697
Z33
Z23
G1 Z21.1 F850
X81.284 Z21.008 F283.3
X81.305 Z20.918
X81.34 Y91.696 Z20.833
X81.387 Y91.695 Z20.754
X81.446 Y91.693 Z20.683
X81.514 Y91.692 Z20.622
X81.592 Y91.69 Z20.572
X81.676 Y91.688 Z20.534
X81.765 Y91.686 Z20.51
X81.856 Y91.683 Z20.5
X82.357 Y91.672 Z20.482
G2 X82.446 Y91.668 Z20.479 I-0.071 J-2.999
G1 X83.694 Y91.601 Z20.436
G2 X83.765 Y91.597 Z20.433 I-0.16 J-2.996
G1 X84.368 Y91.55 Z20.412
G2 X84.418 Y91.546 Z20.41 I-0.232 J-2.991
G1 X85.007 Y91.49 Z20.39
G2 X85.059 Y91.485 Z20.388 I-0.281 J-2.987
G1 X85.634 Y91.42 Z20.368
G2 X85.688 Y91.414 Z20.366 I-0.334 J-2.981
G1 X86.249 Y91.341 Z20.346
G2 X86.305 Y91.333 Z20.344 I-0.389 J-2.975
G1 X86.85 Y91.251 Z20.325
G2 X86.91 Y91.241 Z20.323 I-0.445 J-2.967
G1 X87.441 Y91.151 Z20.304
G2 X87.502 Y91.14 Z20.302 I-0.504 J-2.957
G1 X88.018 Y91.041 Z20.283
G2 X88.082 Y91.028 Z20.281 I-0.566 J-2.946
G1 X88.582 Y90.92 Z20.263
G2 X88.649 Y90.905 Z20.261 I-0.63 J-2.933
G1 X89.135 Y90.789 Z20.243
G2 X89.205 Y90.771 Z20.241 I-0.697 J-2.918
G1 X89.674 Y90.647 Z20.224
G2 X89.748 Y90.627 Z20.221 I-0.767 J-2.9
G1 X90.202 Y90.494 Z20.205
G2 X90.277 Y90.471 Z20.202 I-0.84 J-2.88
G1 X90.716 Y90.331 Z20.186
G2 X90.795 Y90.304 Z20.183 I-0.916 J-2.857
G1 X91.218 Y90.155 Z20.167
G2 X91.3 Y90.125 Z20.164 I-0.995 J-2.83
G1 X91.707 Y89.968 Z20.149
G2 X91.793 Y89.934 Z20.146 I-1.078 J-2.8
G1 X92.184 Y89.769 Z20.131
G2 X92.271 Y89.731 Z20.128 I-1.164 J-2.765
G1 X92.646 Y89.559 Z20.113
G2 X92.739 Y89.514 Z20.11 I-1.252 J-2.726
G1 X93.097 Y89.334 Z20.096
G2 X93.192 Y89.284 Z20.092 I-1.345 J-2.681
G1 X93.534 Y89.097 Z20.078
G2 X93.632 Y89.041 Z20.074 I-1.441 J-2.632
G1 X93.957 Y88.847 Z20.061
G2 X94.058 Y88.784 Z20.057 I-1.538 J-2.576
G1 X94.367 Y88.583 Z20.044
G2 X94.469 Y88.512 Z20.04 I-1.639 J-2.512
G1 X94.762 Y88.304 Z20.027
G2 X94.866 Y88.226 Z20.023 I-1.742 J-2.442
G1 X95.141 Y88.011 Z20.01
G2 X95.247 Y87.924 Z20.006 I-1.846 J-2.365
G1 X95.507 Y87.702 Z19.994
G2 X95.612 Y87.607 Z19.989 I-1.952 J-2.278
G1 X95.855 Y87.379 Z19.977
G2 X95.96 Y87.275 Z19.972 I-2.057 J-2.183
G1 X96.186 Y87.04 Z19.961
G2 X96.289 Y86.926 Z19.955 I-2.162 J-2.08
G1 X96.499 Y86.685 Z19.944
G2 X96.599 Y86.563 Z19.939 I-2.266 J-1.966
G1 X96.792 Y86.315 Z19.928
G2 X96.888 Y86.185 Z19.922 I-2.366 J-1.845
G1 X97.065 Y85.932 Z19.911
G2 X97.155 Y85.794 Z19.905 I-2.462 J-1.715
G1 X97.316 Y85.534 Z19.895
G2 X97.401 Y85.387 Z19.889 I-2.552 J-1.577
G1 X97.545 Y85.122 Z19.878
G2 X97.621 Y84.971 Z19.872 I-2.637 J-1.43
G1 X97.749 Y84.7 Z19.862
G2 X97.817 Y84.544 Z19.856 I-2.714 J-1.279
G1 X97.929 Y84.268 Z19.846
G2 X97.988 Y84.107 Z19.84 I-2.782 J-1.123
G1 X98.084 Y83.825 Z19.829
G2 X98.133 Y83.664 Z19.823 I-2.841 J-0.962
G1 X98.213 Y83.377 Z19.813
G2 X98.253 Y83.215 Z19.807 I-2.891 J-0.801
G1 X98.316 Y82.924 Z19.797
G2 X98.347 Y82.762 Z19.791 I-2.931 J-0.639
G1 X98.395 Y82.466 Z19.78
G2 X98.416 Y82.308 Z19.775 I-2.962 J-0.477
G1 X98.448 Y82.007 Z19.764
G2 X98.461 Y81.852 Z19.759 I-2.983 J-0.32
G1 X98.478 Y81.547 Z19.748
G2 X98.482 Y81.397 Z19.743 I-2.995 J-0.166
G1 X98.484 Y81.086 Z19.732
G2 X98.481 Y80.942 Z19.727 I-3 J-0.015
G1 X98.467 Y80.628 Z19.716
G2 X98.458 Y80.491 Z19.711 I-2.997 J0.129
G1 X98.43 Y80.172 Z19.7
G2 X98.416 Y80.042 Z19.696 I-2.988 J0.265
G1 X98.373 Y79.72 Z19.684
G2 X98.354 Y79.596 Z19.68 I-2.974 J0.395
G1 X98.296 Y79.269 Z19.668
G2 X98.273 Y79.152 Z19.664 I-2.955 J0.519
G1 X98.202 Y78.822 Z19.652
G2 X98.176 Y78.713 Z19.648 I-2.932 J0.637
G1 X98.09 Y78.379 Z19.636
G2 X98.062 Y78.277 Z19.633 I-2.906 J0.745
G1 X97.963 Y77.94 Z19.62
G2 X97.933 Y77.844 Z19.617 I-2.878 J0.847
G1 X97.82 Y77.503 Z19.604
G2 X97.789 Y77.414 Z19.601 I-2.848 J0.943
G1 X97.663 Y77.07 Z19.588
G2 X97.631 Y76.988 Z19.585 I-2.817 J1.032
G1 X97.493 Y76.64 Z19.572
G2 X97.46 Y76.562 Z19.569 I-2.785 J1.114
G1 X97.308 Y76.212 Z19.556
G2 X97.261 Y76.107 Z19.552 I-2.753 J1.192
G1 X96.921 Y75.398 Z19.524
G2 X96.858 Y75.275 Z19.519 I-2.705 J1.297
G1 X96.47 Y74.555 Z19.491
G2 X96.41 Y74.448 Z19.487 I-2.642 J1.421
G1 X95.979 Y73.718 Z19.457
G2 X95.923 Y73.628 Z19.453 I-2.582 J1.527
G1 X95.449 Y72.888 Z19.423
G2 X95.397 Y72.81 Z19.419 I-2.526 J1.618
G1 X94.885 Y72.062 Z19.388
G2 X94.837 Y71.995 Z19.385 I-2.474 J1.696
G1 X94.288 Y71.239 Z19.352
G2 X94.246 Y71.183 Z19.35 I-2.427 J1.763
G1 X93.664 Y70.419 Z19.316
G2 X93.626 Y70.371 Z19.314 I-2.385 J1.819
G1 X93.013 Y69.6 Z19.28
G2 X92.981 Y69.56 Z19.278 I-2.348 J1.868
G1 X92.34 Y68.782 Z19.243
G2 X92.312 Y68.749 Z19.241 I-2.316 J1.907
G1 X91.647 Y67.965 Z19.205
G2 X91.624 Y67.938 Z19.204 I-2.288 J1.941
G1 X90.938 Y67.148 Z19.168
G2 X90.912 Y67.119 Z19.166 I-2.265 J1.967
G1 X89.488 Y65.522 Z19.091
G2 X89.469 Y65.501 Z19.09 I-2.239 J1.996
G1 X87.998 Y63.882 Z19.014
X87.996 Y63.88
X86.511 Y62.248 Z18.937
X85.04 Y60.609 Z18.86
X84.326 Y59.796 Z18.822
X83.623 Y58.979 Z18.785
X82.937 Y58.164 Z18.747
X82.271 Y57.349 Z18.711
X81.628 Y56.535 Z18.674
X81.011 Y55.723 Z18.639
X80.422 Y54.914 Z18.604
X79.863 Y54.107 Z18.57
X79.337 Y53.304 Z18.536
X78.845 Y52.504 Z18.503
X78.39 Y51.708 Z18.471
X77.972 Y50.917 Z18.44
X77.594 Y50.131 Z18.41
X77.248 Y49.335 Z18.379
X77.099 Y48.96 Z18.365
X76.955 Y48.573 Z18.351
X76.82 Y48.187 Z18.336
X76.696 Y47.802 Z18.322
X76.582 Y47.418 Z18.308
X76.479 Y47.035 Z18.294
X76.385 Y46.652 Z18.281
X76.302 Y46.271 Z18.267
X76.229 Y45.89 Z18.254
X76.166 Y45.509 Z18.24
X76.113 Y45.129 Z18.227
X76.07 Y44.749 Z18.213
X76.037 Y44.368 Z18.2
X76.015 Y43.987 Z18.187
X76.002 Y43.605 Z18.173
X76 Y43.223 Z18.16
X76.007 Y42.84 Z18.147
X76.025 Y42.455 Z18.133
X76.053 Y42.069 Z18.12
X76.092 Y41.681 Z18.106
X76.14 Y41.291 Z18.092
X76.199 Y40.899 Z18.078
X76.268 Y40.506 Z18.064
X76.348 Y40.11 Z18.05
X76.438 Y39.711 Z18.036
X76.538 Y39.311 Z18.022
X76.649 Y38.908 Z18.007
X76.77 Y38.502 Z17.992
X76.901 Y38.094 Z17.977
X77.038 Y37.699 Z17.963
X77.358 Y36.857 Z17.931
X77.713 Y36.021 Z17.9
X78.108 Y35.176 Z17.867
X78.541 Y34.325 Z17.834
X79.011 Y33.467 Z17.799
X79.516 Y32.603 Z17.765
X80.054 Y31.735 Z17.729
X80.624 Y30.864 Z17.693
X81.223 Y29.99 Z17.656
X81.848 Y29.114 Z17.618
X82.497 Y28.238 Z17.58
X83.166 Y27.363 Z17.541
X83.855 Y26.489 Z17.503
X84.559 Y25.617 Z17.463
X85.272 Y24.752 Z17.424
X86.734 Y23.021 Z17.345
X88.207 Y21.315 Z17.266
X91.075 Y18.008 Z17.114
G2 X91.099 Y17.98 Z17.112 I-2.266 J-1.966
G1 X92.433 Y16.402 Z17.04
G2 X92.46 Y16.37 Z17.039 I-2.291 J-1.937
G1 X93.091 Y15.603 Z17.004
G2 X93.114 Y15.573 Z17.003 I-2.317 J-1.905
G1 X93.717 Y14.821 Z16.969
G2 X93.746 Y14.785 Z16.967 I-2.341 J-1.876
G1 X94.317 Y14.049 Z16.935
G2 X94.351 Y14.004 Z16.933 I-2.37 J-1.839
G1 X94.888 Y13.284 Z16.902
G2 X94.928 Y13.23 Z16.899 I-2.404 J-1.795
G1 X95.428 Y12.527 Z16.869
G2 X95.474 Y12.461 Z16.866 I-2.444 J-1.74
G1 X95.934 Y11.777 Z16.837
G2 X95.986 Y11.697 Z16.834 I-2.49 J-1.674
G1 X96.404 Y11.031 Z16.807
G2 X96.462 Y10.934 Z16.803 I-2.541 J-1.594
G1 X96.835 Y10.287 Z16.777
G2 X96.898 Y10.171 Z16.772 I-2.6 J-1.497
G1 X97.223 Y9.544 Z16.747
G2 X97.292 Y9.402 Z16.742 I-2.663 J-1.381
G1 X97.567 Y8.795 Z16.719
G2 X97.621 Y8.669 Z16.714 I-2.732 J-1.239
G1 X97.739 Y8.374 Z16.703
G2 X97.775 Y8.28 Z16.699 I-2.786 J-1.113
G1 X97.88 Y7.99 Z16.688
G2 X97.915 Y7.885 Z16.685 I-2.821 J-1.02
G1 X98.007 Y7.6 Z16.674
G2 X98.04 Y7.486 Z16.67 I-2.857 J-0.915
G1 X98.118 Y7.206 Z16.66
G2 X98.149 Y7.082 Z16.655 I-2.891 J-0.801
G1 X98.213 Y6.808 Z16.646
G2 X98.241 Y6.671 Z16.641 I-2.923 J-0.676
G1 X98.29 Y6.402 Z16.631
G2 X98.313 Y6.255 Z16.626 I-2.951 J-0.539
G1 X98.348 Y5.992 Z16.617
G2 X98.365 Y5.831 Z16.611 I-2.974 J-0.392
G1 X98.385 Y5.574 Z16.602
G2 X98.393 Y5.402 Z16.596 I-2.991 J-0.23
G1 X98.398 Y5.151 Z16.587
G2 X98.396 Y4.966 Z16.581 I-2.999 J-0.058
G1 X98.385 Y4.721 Z16.572
G2 X98.371 Y4.529 Z16.565 I-2.997 J0.126
G1 X98.346 Y4.29 Z16.557
G2 X98.317 Y4.089 Z16.55 I-2.983 J0.318
G1 X98.276 Y3.855 Z16.542
G2 X98.233 Y3.65 Z16.534 I-2.955 J0.519
G1 X98.176 Y3.422 Z16.526
G2 X98.117 Y3.214 Z16.519 I-2.911 J0.724
G1 X98.044 Y2.993 Z16.51
G2 X97.968 Y2.787 Z16.503 I-2.852 J0.932
G1 X97.88 Y2.571 Z16.495
G2 X97.789 Y2.371 Z16.487 I-2.776 J1.138
G1 X97.685 Y2.161 Z16.479
G2 X97.58 Y1.969 Z16.471 I-2.685 J1.339
G1 X97.46 Y1.766 Z16.463
G2 X97.343 Y1.585 Z16.455 I-2.58 J1.531
G1 X97.206 Y1.388 Z16.447
G2 X97.081 Y1.221 Z16.44 I-2.463 J1.712
G1 X96.928 Y1.03 Z16.431
G2 X96.797 Y0.878 Z16.424 I-2.338 J1.88
G1 X96.628 Y0.694 Z16.415
G2 X96.493 Y0.557 Z16.409 I-2.207 J2.032
G1 X96.307 Y0.379 Z16.4
G2 X96.172 Y0.258 Z16.393 I-2.072 J2.169
G1 X95.97 Y0.087 Z16.384
G2 X95.835 Y-0.02 Z16.378 I-1.937 J2.291
G1 X95.616 Y-0.185 Z16.369
G2 X95.485 Y-0.278 Z16.363 I-1.803 J2.398
G1 X95.25 Y-0.436 Z16.353
G2 X95.123 Y-0.516 Z16.348 I-1.672 J2.491
G1 X94.872 Y-0.668 Z16.338
G2 X94.75 Y-0.737 Z16.333 I-1.545 J2.572
G1 X94.481 Y-0.882 Z16.322
G2 X94.365 Y-0.941 Z16.317 I-1.423 J2.641
G1 X94.08 Y-1.079 Z16.306
G2 X93.97 Y-1.129 Z16.302 I-1.307 J2.7
G1 X93.669 Y-1.261 Z16.291
G2 X93.565 Y-1.303 Z16.287 I-1.197 J2.751
G1 X93.248 Y-1.428 Z16.275
G2 X93.149 Y-1.464 Z16.271 I-1.094 J2.794
G1 X92.815 Y-1.582 Z16.259
G2 X92.723 Y-1.612 Z16.255 I-0.995 J2.83
G1 X92.372 Y-1.723 Z16.243
G2 X92.286 Y-1.749 Z16.239 I-0.903 J2.861
G1 X91.919 Y-1.853 Z16.226
G2 X91.838 Y-1.875 Z16.223 I-0.817 J2.887
G1 X91.455 Y-1.972 Z16.209
G2 X91.379 Y-1.99 Z16.207 I-0.736 J2.908
G1 X90.979 Y-2.08 Z16.192
G2 X90.874 Y-2.102 Z16.189 I-0.66 J2.927
G1 X90.027 Y-2.261 Z16.159
G2 X89.9 Y-2.282 Z16.154 I-0.554 J2.948
G1 X88.99 Y-2.413 Z16.122
G2 X88.878 Y-2.427 Z16.118 I-0.428 J2.969
G1 X87.906 Y-2.53 Z16.084
G2 X87.806 Y-2.538 Z16.08 I-0.315 J2.983
G1 X86.773 Y-2.613 Z16.044
G2 X86.683 Y-2.618 Z16.041 I-0.215 J2.992
G1 X85.59 Y-2.664 Z16.003
G2 X85.509 Y-2.666 Z16 I-0.126 J2.997
G1 X84.358 Y-2.683 F850
G2 X84.284 I-0.045 J3
G1 X83.077 Y-2.672
G2 X83.009 Y-2.67 I0.029 J3
G1 X81.747 Y-2.63
G2 X81.685 Y-2.627 I0.096 J2.998
G1 X80.369 Y-2.557
G2 X80.312 Y-2.554 I0.158 J2.996
G1 X78.945 Y-2.455
G2 X78.892 Y-2.451 I0.216 J2.992
G1 X77.476 Y-2.323
G2 X77.426 Y-2.319 I0.269 J2.988
G1 X75.963 Y-2.162
G2 X75.916 Y-2.157 I0.319 J2.983
G1 X74.409 Y-1.971
G2 X74.364 Y-1.965 I0.367 J2.978
G1 X72.814 Y-1.751
G2 X72.771 Y-1.744 I0.411 J2.972
G1 X71.182 Y-1.501
G2 X71.141 Y-1.494 I0.454 J2.965
G1 X69.515 Y-1.222
G2 X69.475 Y-1.215 I0.495 J2.959
G1 X67.814 Y-0.914
G2 X67.776 Y-0.907 I0.535 J2.952
G1 X66.083 Y-0.577
G2 X66.045 Y-0.57 I0.573 J2.945
G1 X64.323 Y-0.211
G2 X64.287 Y-0.203 I0.611 J2.937
G1 X62.538 Y0.183
G2 X62.502 Y0.191 I0.647 J2.929
G1 X60.73 Y0.606
G2 X60.694 Y0.614 I0.684 J2.921
G1 X58.901 Y1.057
G2 X58.866 Y1.066 I0.719 J2.913
G1 X57.056 Y1.537
G2 X57.021 Y1.546 I0.755 J2.904
G1 X55.196 Y2.044
G2 X55.16 Y2.054 I0.79 J2.894
G1 X53.324 Y2.579
G2 X53.289 Y2.589 I0.825 J2.884
G1 X51.444 Y3.142
G2 X51.408 Y3.153 I0.86 J2.874
G1 X49.558 Y3.732
G2 X49.522 Y3.743 I0.896 J2.863
G1 X47.669 Y4.349
G2 X47.633 Y4.361 I0.932 J2.852
G1 X45.781 Y4.993
G2 X45.744 Y5.006 I0.969 J2.839
G1 X43.896 Y5.663
G2 X43.858 Y5.677 I1.006 J2.826
G1 X42.018 Y6.36
G2 X41.979 Y6.375 I1.044 J2.813
G1 X40.149 Y7.083
G2 X40.109 Y7.098 I1.082 J2.798
G1 X38.292 Y7.831
G2 X38.251 Y7.848 I1.122 J2.782
G1 X36.451 Y8.605
G2 X36.409 Y8.623 I1.163 J2.765
G1 X34.629 Y9.404
G2 X34.585 Y9.423 I1.205 J2.747
G1 X32.828 Y10.227
G2 X32.783 Y10.248 I1.248 J2.728
G1 X31.051 Y11.076
G2 X31.005 Y11.098 I1.293 J2.707
G1 X29.302 Y11.948
G2 X29.254 Y11.973 I1.34 J2.684
G1 X27.583 Y12.844
G2 X27.533 Y12.871 I1.388 J2.66
G1 X25.897 Y13.764
G2 X25.845 Y13.793 I1.438 J2.633
G1 X24.247 Y14.708
G2 X24.193 Y14.739 I1.49 J2.604
G1 X22.636 Y15.674
G2 X22.594 Y15.7 I1.544 J2.572
G1 X21.831 Y16.174
G2 X21.802 Y16.193 I1.586 J2.547
G1 X21.051 Y16.672
G2 X21.022 Y16.691 I1.614 J2.529
G1 X20.282 Y17.176
G2 X20.252 Y17.196 I1.644 J2.51
G1 X19.524 Y17.685
G2 X19.494 Y17.706 I1.674 J2.49
G1 X18.778 Y18.2
G2 X18.747 Y18.221 I1.704 J2.469
G1 X18.044 Y18.72
G2 X18.012 Y18.743 I1.735 J2.447
G1 X17.322 Y19.246
G2 X17.289 Y19.27 I1.767 J2.424
G1 X16.613 Y19.778
G2 X16.58 Y19.803 I1.8 J2.4
G1 X15.916 Y20.315
G2 X15.882 Y20.341 I1.833 J2.375
G1 X15.233 Y20.857
G2 X15.199 Y20.885 I1.867 J2.349
G1 X14.563 Y21.405
G2 X14.528 Y21.435 I1.901 J2.321
G1 X13.907 Y21.959
G2 X13.872 Y21.99 I1.936 J2.292
G1 X13.265 Y22.518
G2 X13.229 Y22.55 I1.971 J2.261
G1 X12.638 Y23.083
G2 X12.601 Y23.117 I2.008 J2.229
G1 X12.025 Y23.653
G2 X11.988 Y23.688 I2.045 J2.195
G1 X11.427 Y24.229
G2 X11.389 Y24.266 I2.082 J2.16
G1 X10.845 Y24.81
G2 X10.806 Y24.849 I2.12 J2.122
G1 X10.278 Y25.397
G2 X10.239 Y25.438 I2.159 J2.083
G1 X9.727 Y25.989
G2 X9.687 Y26.032 I2.198 J2.042
G1 X9.192 Y26.587
G2 X9.152 Y26.632 I2.237 J1.999
G1 X8.674 Y27.19
G2 X8.634 Y27.237 I2.277 J1.954
G1 X8.172 Y27.798
G2 X8.131 Y27.849 I2.317 J1.906
G1 X7.687 Y28.413
G2 X7.647 Y28.465 I2.357 J1.856
G1 X7.22 Y29.033
G2 X7.18 Y29.088 I2.397 J1.803
G1 X6.771 Y29.658
G2 X6.731 Y29.716 I2.438 J1.748
G1 X6.34 Y30.289
G2 X6.299 Y30.349 I2.478 J1.691
G1 X5.927 Y30.925
G2 X5.887 Y30.988 I2.518 J1.63
G1 X5.532 Y31.567
G2 X5.493 Y31.633 I2.558 J1.568
G1 X5.157 Y32.214
G2 X5.119 Y32.282 I2.597 J1.502
G1 X4.801 Y32.866
G2 X4.764 Y32.937 I2.636 J1.433
G1 X4.465 Y33.524
G2 X4.429 Y33.598 I2.673 J1.362
G1 X4.149 Y34.186
G2 X4.114 Y34.263 I2.71 J1.288
G1 X3.853 Y34.854
G2 X3.819 Y34.933 I2.745 J1.211
G1 X3.578 Y35.526
G2 X3.546 Y35.608 I2.779 J1.131
G1 X3.324 Y36.203
G2 X3.294 Y36.288 I2.811 J1.049
G1 X3.092 Y36.885
G2 X3.064 Y36.972 I2.841 J0.964
G1 X2.881 Y37.57
G2 X2.855 Y37.66 I2.869 J0.876
G1 X2.692 Y38.26
G2 X2.669 Y38.351 I2.895 J0.787
G1 X2.525 Y38.953
G2 X2.505 Y39.047 I2.918 J0.695
G1 X2.381 Y39.65
G2 X2.363 Y39.745 I2.939 J0.601
G1 X2.26 Y40.349
G2 X2.245 Y40.446 I2.957 J0.506
G1 X2.162 Y41.051
G2 X2.15 Y41.149 I2.972 J0.41
G1 X2.086 Y41.755
G2 X2.078 Y41.854 I2.984 J0.312
G1 X2.034 Y42.461
G2 X2.029 Y42.56 I2.992 J0.213
G1 X2.006 Y43.169
G2 X2.003 Y43.268 I2.998 J0.115
G1 X2 Y43.877
G2 X2.001 Y43.976 I3 J0.015
G1 X2.018 Y44.586
G2 X2.023 Y44.684 I2.999 J-0.083
G1 X2.06 Y45.295
G2 X2.067 Y45.392 I2.994 J-0.182
G1 X2.125 Y46.003
G2 X2.135 Y46.1 I2.987 J-0.279
G1 X2.212 Y46.711
G2 X2.226 Y46.806 I2.976 J-0.376
G1 X2.323 Y47.418
G2 X2.34 Y47.511 I2.963 J-0.471
G1 X2.457 Y48.122
G2 X2.476 Y48.214 I2.946 J-0.565
G1 X2.613 Y48.825
G2 X2.634 Y48.915 I2.927 J-0.656
G1 X2.791 Y49.526
G2 X2.815 Y49.614 I2.906 J-0.746
G1 X2.992 Y50.224
G2 X3.018 Y50.309 I2.882 J-0.833
G1 X3.214 Y50.92
