%
(1001)
(z0 botom machine -5-5)
(T1  D=12.7 CR=0 - ZMIN=8 - flat end mill)
G90 G94
G17
G21

(Face1)
M9
T1 M6
S6000 M3
G54
M9
G0 X4.249 Y-109.222
Z61.6
Z51.6
G1 Z47.27 F850
G18 G3 X2.979 Z46 I-1.27
G1 X-4
X-144
G17 G2 Y-98.214 J5.504
G1 X-4
G3 Y-87.206 J5.504
G1 X-144
G2 Y-76.199 J5.504
G1 X-4
G3 Y-65.191 J5.504
G1 X-144
G2 Y-54.184 J5.504
G1 X-4
G3 Y-43.176 J5.504
G1 X-144
G2 Y-32.168 J5.504
G1 X-4
G3 Y-21.161 J5.504
G1 X-144
G2 Y-10.153 J5.504
G1 X-4
G18 G2 X-2.73 Z47.27 K1.27
G0 Z51.6
X4.249 Y-109.222
G1 Z46.27 F850
G3 X2.979 Z45 I-1.27
G1 X-4
X-144
G17 G2 Y-98.214 J5.504
G1 X-4
G3 Y-87.206 J5.504
G1 X-144
G2 Y-76.199 J5.504
G1 X-4
G3 Y-65.191 J5.504
G1 X-144
G2 Y-54.184 J5.504
G1 X-4
G3 Y-43.176 J5.504
G1 X-144
G2 Y-32.168 J5.504
G1 X-4
G3 Y-21.161 J5.504
G1 X-144
G2 Y-10.153 J5.504
G1 X-4
G18 G2 X-2.73 Z46.27 K1.27
G0 Z61.6
G17

(2D Adaptive1)
M9
G0 X-68.295 Y-57.039
Z61.6
Z51.6
Z50.37
G1 Z49.1 F850
G3 X-79.705 Y-60.961 Z48.438 I-5.705 J-1.961 F283.3
X-68.295 Y-57.039 Z47.776 I5.705 J1.961
X-79.705 Y-60.961 Z47.115 I-5.705 J-1.961
X-68.295 Y-57.039 Z46.453 I5.705 J1.961
X-79.705 Y-60.961 Z45.791 I-5.705 J-1.961
X-68.295 Y-57.039 Z45.129 I5.705 J1.961
X-79.705 Y-60.961 Z44.467 I-5.705 J-1.961
X-68.295 Y-57.039 Z43.806 I5.705 J1.961
X-79.705 Y-60.961 Z43.144 I-5.705 J-1.961
X-68.295 Y-57.039 Z42.482 I5.705 J1.961
X-79.705 Y-60.961 Z41.82 I-5.705 J-1.961
X-68.295 Y-57.039 Z41.158 I5.705 J1.961
X-79.705 Y-60.961 Z40.497 I-5.705 J-1.961
X-68.295 Y-57.039 Z39.835 I5.705 J1.961
X-79.705 Y-60.961 Z39.173 I-5.705 J-1.961
X-68.295 Y-57.039 Z38.511 I5.705 J1.961
X-79.705 Y-60.961 Z37.849 I-5.705 J-1.961
X-68.295 Y-57.039 Z37.187 I5.705 J1.961
X-79.705 Y-60.961 Z36.526 I-5.705 J-1.961
X-68.295 Y-57.039 Z35.864 I5.705 J1.961
X-79.705 Y-60.961 Z35.202 I-5.705 J-1.961
X-67.967 Y-59 Z34.61 I5.705 J1.961
X-80.032 I-6.033
X-68.244 Y-60.805 I6.032
X-67.967 Y-59 I-5.756 J1.805
G1 X-67.964 Y-58.664 F850
X-67.835 Y-57.328
X-67.812 Y-57.248
X-67.777 Y-57.102
X-67.751 Y-56.954
X-67.733 Y-56.801
X-67.723 Y-56.635
X-67.721 Y-56.457
X-67.73 Y-56.267
X-67.75 Y-56.065
X-67.783 Y-55.853
X-67.83 Y-55.632
X-67.891 Y-55.402
X-67.969 Y-55.165
X-68.064 Y-54.923
X-68.175 Y-54.676
X-68.305 Y-54.426
X-68.454 Y-54.175
X-68.621 Y-53.925
X-68.807 Y-53.676
X-69.012 Y-53.431
X-69.235 Y-53.192
X-69.477 Y-52.959
X-69.737 Y-52.735
X-70.014 Y-52.521
X-70.308 Y-52.318
X-70.618 Y-52.129
X-70.942 Y-51.954
X-71.28 Y-51.795
X-71.631 Y-51.652
X-71.994 Y-51.527
X-72.366 Y-51.421
X-72.748 Y-51.334
X-73.137 Y-51.267
X-73.532 Y-51.222
X-73.933 Y-51.197
X-74.336 Y-51.195
X-74.742 Y-51.214
X-75.148 Y-51.255
X-75.553 Y-51.319
X-75.956 Y-51.405
X-76.355 Y-51.513
X-76.749 Y-51.643
X-77.137 Y-51.795
X-77.517 Y-51.968
X-77.888 Y-52.162
X-78.249 Y-52.376
X-78.599 Y-52.61
X-78.936 Y-52.863
X-79.259 Y-53.134
X-79.568 Y-53.423
X-79.861 Y-53.729
X-80.137 Y-54.05
X-80.395 Y-54.386
X-80.636 Y-54.737
X-80.857 Y-55.1
X-81.058 Y-55.474
X-81.239 Y-55.86
X-81.399 Y-56.255
X-81.537 Y-56.658
X-81.653 Y-57.068
X-81.747 Y-57.484
X-81.818 Y-57.905
X-81.867 Y-58.329
X-81.892 Y-58.756
X-81.894 Y-59.183
X-81.873 Y-59.61
X-81.829 Y-60.035
X-81.761 Y-60.457
X-81.671 Y-60.875
X-81.559 Y-61.288
X-81.424 Y-61.694
X-81.268 Y-62.092
X-81.09 Y-62.481
X-80.891 Y-62.86
X-80.672 Y-63.228
X-80.433 Y-63.583
X-80.176 Y-63.925
X-79.9 Y-64.252
X-79.607 Y-64.564
X-79.297 Y-64.86
X-78.972 Y-65.138
X-78.632 Y-65.399
X-78.279 Y-65.64
X-77.912 Y-65.862
X-77.535 Y-66.064
X-77.147 Y-66.245
X-76.75 Y-66.405
X-76.344 Y-66.544
X-75.932 Y-66.66
X-75.514 Y-66.753
X-75.092 Y-66.824
X-74.666 Y-66.871
X-74.239 Y-66.896
X-73.81 Y-66.897
X-73.383 Y-66.875
X-72.957 Y-66.83
X-72.534 Y-66.762
X-72.115 Y-66.672
X-71.702 Y-66.558
X-71.296 Y-66.423
X-70.898 Y-66.265
X-70.509 Y-66.086
X-70.13 Y-65.887
X-69.762 Y-65.667
X-69.407 Y-65.427
X-69.065 Y-65.169
X-68.738 Y-64.892
X-68.427 Y-64.599
X-68.131 Y-64.288
X-67.853 Y-63.962
X-67.594 Y-63.622
X-67.352 Y-63.268
X-67.131 Y-62.901
X-66.93 Y-62.523
X-66.62 Y-61.857
X-66.287 Y-61.026
X-66.061 Y-60.359
X-65.895 Y-59.765
X-65.775 Y-59.226
X-65.69 Y-58.712
X-65.636 Y-58.223
X-65.61 Y-57.753
X-65.609 Y-57.296
X-65.633 Y-56.849
X-65.68 Y-56.411
X-65.75 Y-55.98
X-65.843 Y-55.556
X-65.958 Y-55.139
X-66.096 Y-54.729
X-66.256 Y-54.327
X-66.437 Y-53.933
X-66.641 Y-53.548
X-66.867 Y-53.171
X-67.115 Y-52.805
X-67.384 Y-52.451
X-67.675 Y-52.108
X-67.986 Y-51.779
X-68.318 Y-51.465
X-68.669 Y-51.167
X-69.038 Y-50.885
X-69.426 Y-50.622
X-69.83 Y-50.379
X-70.251 Y-50.156
X-70.686 Y-49.955
X-71.135 Y-49.776
X-71.596 Y-49.62
X-72.068 Y-49.489
X-72.549 Y-49.383
X-73.039 Y-49.303
X-73.536 Y-49.249
X-74.037 Y-49.222
X-74.542 Y-49.223
X-75.05 Y-49.25
X-75.557 Y-49.306
X-76.063 Y-49.389
X-76.566 Y-49.5
X-77.064 Y-49.639
X-77.556 Y-49.805
X-78.039 Y-49.998
X-78.513 Y-50.217
X-78.975 Y-50.463
X-79.425 Y-50.734
X-79.86 Y-51.03
X-80.28 Y-51.35
X-80.682 Y-51.692
X-81.066 Y-52.057
X-81.43 Y-52.442
X-81.774 Y-52.848
X-82.095 Y-53.272
X-82.393 Y-53.713
X-82.667 Y-54.17
X-82.917 Y-54.642
X-83.14 Y-55.127
X-83.337 Y-55.624
X-83.507 Y-56.132
X-83.65 Y-56.648
X-83.764 Y-57.172
X-83.85 Y-57.701
X-83.907 Y-58.234
X-83.934 Y-58.77
X-83.933 Y-59.307
X-83.903 Y-59.844
X-83.844 Y-60.378
X-83.756 Y-60.908
X-83.639 Y-61.433
X-83.494 Y-61.951
X-83.32 Y-62.461
X-83.12 Y-62.96
X-82.893 Y-63.448
X-82.639 Y-63.923
X-82.36 Y-64.384
X-82.057 Y-64.829
X-81.73 Y-65.256
X-81.38 Y-65.666
X-81.008 Y-66.056
X-80.616 Y-66.425
X-80.204 Y-66.773
X-79.774 Y-67.098
X-79.327 Y-67.399
X-78.864 Y-67.675
X-78.387 Y-67.926
X-77.897 Y-68.151
X-77.396 Y-68.349
X-76.884 Y-68.519
X-76.364 Y-68.661
X-75.837 Y-68.775
X-75.305 Y-68.86
X-74.769 Y-68.917
X-74.23 Y-68.944
X-73.691 Y-68.942
X-73.153 Y-68.91
X-72.617 Y-68.85
X-72.085 Y-68.761
X-71.559 Y-68.643
X-71.04 Y-68.496
X-70.53 Y-68.322
X-70.029 Y-68.12
X-69.541 Y-67.891
X-69.066 Y-67.637
X-68.605 Y-67.357
X-68.16 Y-67.052
X-67.732 Y-66.724
X-67.323 Y-66.373
X-66.906 Y-65.974
X-66.502 Y-65.543
X-66.089 Y-65.052
X-65.686 Y-64.517
X-65.308 Y-63.953
X-64.961 Y-63.37
X-64.649 Y-62.775
X-64.374 Y-62.171
X-64.135 Y-61.563
X-63.934 Y-60.955
X-63.769 Y-60.347
X-63.639 Y-59.742
X-63.544 Y-59.141
X-63.482 Y-58.546
X-63.454 Y-57.956
X-63.457 Y-57.373
X-63.491 Y-56.795
X-63.557 Y-56.225
X-63.652 Y-55.662
X-63.778 Y-55.107
X-63.933 Y-54.562
X-64.117 Y-54.026
X-64.33 Y-53.501
X-64.571 Y-52.988
X-64.84 Y-52.488
X-65.136 Y-52.003
X-65.46 Y-51.533
X-65.809 Y-51.079
X-66.184 Y-50.644
X-66.583 Y-50.228
X-67.006 Y-49.832
X-67.452 Y-49.458
X-67.92 Y-49.108
X-68.408 Y-48.781
X-68.916 Y-48.48
X-69.442 Y-48.206
X-69.985 Y-47.959
X-70.543 Y-47.742
X-71.115 Y-47.553
X-71.699 Y-47.396
X-72.294 Y-47.269
X-72.898 Y-47.175
X-73.509 Y-47.113
X-74.125 Y-47.084
X-74.744 Y-47.088
X-75.366 Y-47.127
X-75.986 Y-47.199
X-76.604 Y-47.305
X-77.218 Y-47.445
X-77.825 Y-47.619
X-78.424 Y-47.826
X-79.012 Y-48.065
X-79.588 Y-48.337
X-80.15 Y-48.641
X-80.696 Y-48.975
X-81.224 Y-49.34
X-81.733 Y-49.733
X-82.22 Y-50.154
X-82.685 Y-50.602
X-83.126 Y-51.075
X-83.541 Y-51.572
X-83.929 Y-52.091
X-84.288 Y-52.631
X-84.618 Y-53.191
X-84.918 Y-53.768
X-85.187 Y-54.362
X-85.423 Y-54.969
X-85.625 Y-55.59
X-85.794 Y-56.22
X-85.929 Y-56.859
X-86.029 Y-57.506
X-86.094 Y-58.157
X-86.124 Y-58.81
X-86.118 Y-59.465
X-86.076 Y-60.119
X-85.999 Y-60.77
X-85.887 Y-61.416
X-85.74 Y-62.055
X-85.558 Y-62.686
X-85.343 Y-63.306
X-85.094 Y-63.913
X-84.813 Y-64.507
X-84.499 Y-65.084
X-84.155 Y-65.644
X-83.781 Y-66.184
X-83.378 Y-66.703
X-82.948 Y-67.2
X-82.491 Y-67.672
X-82.009 Y-68.12
X-81.504 Y-68.54
X-80.976 Y-68.933
X-80.428 Y-69.296
X-79.861 Y-69.63
X-79.277 Y-69.932
X-78.677 Y-70.202
X-78.063 Y-70.439
X-77.438 Y-70.642
X-76.802 Y-70.812
X-76.158 Y-70.946
X-75.507 Y-71.046
X-74.852 Y-71.11
X-74.195 Y-71.138
X-73.537 Y-71.131
X-72.88 Y-71.088
X-72.227 Y-71.01
X-71.579 Y-70.896
X-70.938 Y-70.747
X-70.305 Y-70.564
X-69.684 Y-70.347
X-69.076 Y-70.096
X-68.476 Y-69.811
X-67.888 Y-69.49
X-67.305 Y-69.131
X-66.731 Y-68.731
X-66.168 Y-68.293
X-65.622 Y-67.818
X-65.096 Y-67.308
X-64.593 Y-66.764
X-64.115 Y-66.188
X-63.667 Y-65.583
X-63.251 Y-64.954
X-62.87 Y-64.303
X-62.526 Y-63.634
X-62.22 Y-62.952
X-61.954 Y-62.258
X-61.727 Y-61.556
X-61.54 Y-60.849
X-61.392 Y-60.138
X-61.285 Y-59.425
X-61.216 Y-58.712
X-61.187 Y-58.001
X-61.196 Y-57.293
X-61.243 Y-56.59
X-61.328 Y-55.892
X-61.45 Y-55.203
X-61.609 Y-54.523
X-61.804 Y-53.853
X-62.035 Y-53.195
X-62.302 Y-52.551
X-62.603 Y-51.923
X-62.938 Y-51.311
X-63.306 Y-50.717
X-63.706 Y-50.143
X-64.137 Y-49.591
X-64.599 Y-49.062
X-65.09 Y-48.557
X-65.61 Y-48.079
X-66.156 Y-47.628
X-66.727 Y-47.205
X-67.323 Y-46.814
X-67.941 Y-46.453
X-68.58 Y-46.126
X-69.238 Y-45.832
X-69.913 Y-45.574
X-70.604 Y-45.352
X-71.309 Y-45.167
X-72.025 Y-45.02
X-72.751 Y-44.912
X-73.485 Y-44.843
X-74.224 Y-44.813
X-74.966 Y-44.824
X-75.708 Y-44.875
X-76.449 Y-44.966
X-77.187 Y-45.098
X-77.918 Y-45.271
X-78.641 Y-45.483
X-79.353 Y-45.735
X-80.053 Y-46.026
X-80.737 Y-46.355
X-81.404 Y-46.721
X-82.052 Y-47.124
X-82.678 Y-47.563
X-83.281 Y-48.036
X-83.858 Y-48.541
X-84.408 Y-49.078
X-84.928 Y-49.645
X-85.418 Y-50.24
X-85.876 Y-50.862
X-86.299 Y-51.508
X-86.688 Y-52.177
X-87.04 Y-52.867
X-87.354 Y-53.575
X-87.63 Y-54.3
X-87.866 Y-55.04
X-88.062 Y-55.792
X-88.217 Y-56.554
X-88.331 Y-57.324
X-88.403 Y-58.099
X-88.432 Y-58.878
X-88.419 Y-59.657
X-88.365 Y-60.435
X-88.268 Y-61.209
X-88.129 Y-61.977
X-87.948 Y-62.737
X-87.727 Y-63.486
X-87.465 Y-64.222
X-87.164 Y-64.943
X-86.824 Y-65.647
X-86.446 Y-66.331
X-86.032 Y-66.994
X-85.582 Y-67.634
X-85.098 Y-68.249
X-84.582 Y-68.836
X-84.034 Y-69.395
X-83.457 Y-69.923
X-82.852 Y-70.42
X-82.221 Y-70.883
X-81.565 Y-71.311
X-80.887 Y-71.703
X-80.189 Y-72.057
X-79.473 Y-72.374
X-78.741 Y-72.651
X-77.994 Y-72.888
X-77.236 Y-73.084
X-76.468 Y-73.239
X-75.693 Y-73.352
X-74.913 Y-73.422
X-74.13 Y-73.451
X-73.347 Y-73.437
X-72.566 Y-73.38
X-71.789 Y-73.281
X-71.017 Y-73.141
X-70.252 Y-72.958
X-69.494 Y-72.732
X-68.744 Y-72.464
X-68.003 Y-72.153
X-67.273 Y-71.799
X-66.556 Y-71.401
X-65.854 Y-70.961
X-65.17 Y-70.479
X-64.508 Y-69.955
X-63.87 Y-69.393
X-63.26 Y-68.792
X-62.68 Y-68.157
X-62.134 Y-67.488
X-61.624 Y-66.79
X-61.152 Y-66.065
X-60.721 Y-65.316
X-60.331 Y-64.546
X-59.985 Y-63.759
X-59.683 Y-62.956
X-59.426 Y-62.141
X-59.214 Y-61.316
X-59.048 Y-60.485
X-58.928 Y-59.648
X-58.853 Y-58.809
X-58.824 Y-57.97
X-58.841 Y-57.133
X-58.902 Y-56.301
X-59.009 Y-55.474
X-59.16 Y-54.657
X-59.354 Y-53.849
X-59.592 Y-53.055
X-59.873 Y-52.274
X-60.195 Y-51.511
X-60.558 Y-50.765
X-60.961 Y-50.041
X-61.404 Y-49.338
X-61.884 Y-48.66
X-62.401 Y-48.008
X-62.954 Y-47.384
X-63.54 Y-46.789
X-64.16 Y-46.226
X-64.81 Y-45.696
X-65.49 Y-45.201
X-66.198 Y-44.743
X-66.931 Y-44.322
X-67.689 Y-43.941
X-68.468 Y-43.6
X-69.266 Y-43.301
X-70.083 Y-43.045
X-70.914 Y-42.833
X-71.758 Y-42.666
X-72.613 Y-42.545
X-73.475 Y-42.469
X-74.343 Y-42.441
X-75.213 Y-42.46
X-76.084 Y-42.526
X-76.952 Y-42.639
X-77.815 Y-42.8
X-78.67 Y-43.008
X-79.514 Y-43.262
X-80.346 Y-43.563
X-81.161 Y-43.908
X-81.959 Y-44.299
X-82.736 Y-44.733
X-83.489 Y-45.209
X-84.217 Y-45.726
X-84.917 Y-46.283
X-85.586 Y-46.878
X-86.224 Y-47.51
X-86.827 Y-48.176
X-87.394 Y-48.874
X-87.923 Y-49.603
X-88.412 Y-50.361
X-88.859 Y-51.145
X-89.264 Y-51.953
X-89.625 Y-52.782
X-89.941 Y-53.63
X-90.211 Y-54.495
X-90.433 Y-55.374
X-90.608 Y-56.265
X-90.734 Y-57.164
X-90.811 Y-58.069
X-90.84 Y-58.977
X-90.819 Y-59.887
X-90.748 Y-60.794
X-90.629 Y-61.696
X-90.46 Y-62.591
X-90.244 Y-63.476
X-89.979 Y-64.348
X-89.668 Y-65.204
X-89.311 Y-66.043
X-88.908 Y-66.861
X-88.462 Y-67.657
X-87.973 Y-68.427
X-87.443 Y-69.17
X-86.873 Y-69.883
X-86.266 Y-70.564
X-85.622 Y-71.212
X-84.944 Y-71.824
X-84.234 Y-72.398
X-83.494 Y-72.933
X-82.726 Y-73.427
X-81.932 Y-73.879
X-81.114 Y-74.287
X-80.276 Y-74.65
X-79.419 Y-74.967
X-78.546 Y-75.237
X-77.66 Y-75.46
X-76.763 Y-75.634
X-75.857 Y-75.76
X-74.947 Y-75.836
X-74.032 Y-75.863
X-73.117 Y-75.84
X-72.203 Y-75.767
X-71.291 Y-75.645
X-70.384 Y-75.473
X-69.484 Y-75.25
X-68.592 Y-74.978
X-67.711 Y-74.656
X-66.844 Y-74.285
X-65.992 Y-73.864
X-65.159 Y-73.395
X-64.348 Y-72.878
X-63.56 Y-72.314
X-62.8 Y-71.705
X-62.07 Y-71.052
X-61.375 Y-70.358
X-60.715 Y-69.625
X-60.096 Y-68.855
X-59.518 Y-68.053
X-58.984 Y-67.22
X-58.496 Y-66.359
X-58.057 Y-65.474
X-57.666 Y-64.568
X-57.326 Y-63.644
X-57.037 Y-62.705
X-56.799 Y-61.753
X-56.614 Y-60.793
X-56.482 Y-59.825
X-56.403 Y-58.855
X-56.376 Y-57.883
X-56.402 Y-56.913
X-56.48 Y-55.948
X-56.611 Y-54.99
X-56.792 Y-54.041
X-57.025 Y-53.105
X-57.308 Y-52.183
X-57.641 Y-51.278
X-58.022 Y-50.393
X-58.45 Y-49.529
X-58.925 Y-48.69
X-59.445 Y-47.877
X-60.009 Y-47.092
X-60.615 Y-46.339
X-61.262 Y-45.618
X-61.948 Y-44.933
X-62.672 Y-44.285
X-63.431 Y-43.675
X-64.223 Y-43.107
X-65.047 Y-42.581
X-65.901 Y-42.099
X-66.781 Y-41.664
X-67.685 Y-41.276
X-68.612 Y-40.936
X-69.558 Y-40.647
X-70.521 Y-40.409
X-71.497 Y-40.223
X-72.485 Y-40.089
X-73.481 Y-40.009
X-74.482 Y-39.984
X-75.486 Y-40.012
X-76.489 Y-40.095
X-77.488 Y-40.233
X-78.481 Y-40.425
X-79.464 Y-40.671
X-80.434 Y-40.971
X-81.388 Y-41.324
X-82.324 Y-41.728
X-83.238 Y-42.184
X-84.127 Y-42.689
X-84.99 Y-43.243
X-85.822 Y-43.843
X-86.621 Y-44.489
X-87.386 Y-45.178
X-88.113 Y-45.908
X-88.801 Y-46.678
X-89.446 Y-47.485
X-90.047 Y-48.326
X-90.603 Y-49.2
X-91.11 Y-50.104
X-91.569 Y-51.034
X-91.977 Y-51.989
X-92.332 Y-52.966
X-92.635 Y-53.961
X-92.883 Y-54.971
X-93.076 Y-55.994
X-93.214 Y-57.027
X-93.295 Y-58.066
X-93.32 Y-59.109
X-93.289 Y-60.152
X-93.2 Y-61.192
X-93.056 Y-62.227
X-92.856 Y-63.252
X-92.6 Y-64.265
X-92.29 Y-65.264
X-91.925 Y-66.244
X-91.509 Y-67.204
X-91.04 Y-68.139
X-90.522 Y-69.048
X-89.955 Y-69.928
X-89.341 Y-70.776
X-88.681 Y-71.59
X-87.979 Y-72.367
X-87.235 Y-73.104
X-86.453 Y-73.801
X-85.633 Y-74.454
X-84.78 Y-75.061
X-83.894 Y-75.622
X-82.98 Y-76.134
X-82.039 Y-76.595
X-81.074 Y-77.005
X-80.088 Y-77.362
X-79.085 Y-77.666
X-78.066 Y-77.914
X-77.035 Y-78.107
X-75.994 Y-78.243
X-74.947 Y-78.324
X-73.895 Y-78.347
X-72.841 Y-78.313
X-71.788 Y-78.222
X-70.738 Y-78.074
X-69.694 Y-77.868
X-68.659 Y-77.605
X-67.635 Y-77.284
X-66.625 Y-76.907
X-65.632 Y-76.474
X-64.659 Y-75.984
X-63.709 Y-75.441
X-62.786 Y-74.843
X-61.893 Y-74.194
X-61.033 Y-73.495
X-60.21 Y-72.748
X-59.426 Y-71.955
X-58.685 Y-71.119
X-57.989 Y-70.243
X-57.342 Y-69.33
X-56.744 Y-68.383
X-56.199 Y-67.404
X-55.708 Y-66.399
X-55.272 Y-65.369
X-54.894 Y-64.317
X-54.573 Y-63.249
X-54.311 Y-62.165
X-54.108 Y-61.071
X-53.966 Y-59.969
X-53.883 Y-58.863
X-53.86 Y-57.755
X-53.898 Y-56.649
X-53.995 Y-55.548
X-54.151 Y-54.455
X-54.367 Y-53.373
X-54.64 Y-52.305
X-54.971 Y-51.253
X-55.358 Y-50.221
X-55.801 Y-49.212
X-56.298 Y-48.228
X-56.848 Y-47.272
X-57.449 Y-46.347
X-58.1 Y-45.455
X-58.799 Y-44.598
X-59.544 Y-43.78
X-60.333 Y-43.002
X-61.165 Y-42.267
X-62.037 Y-41.578
X-62.946 Y-40.935
X-63.891 Y-40.342
X-64.868 Y-39.799
X-65.875 Y-39.31
X-66.91 Y-38.874
X-67.968 Y-38.495
X-69.048 Y-38.173
X-70.146 Y-37.91
X-71.259 Y-37.705
X-72.384 Y-37.562
X-73.518 Y-37.479
X-74.657 Y-37.458
X-75.797 Y-37.498
X-76.936 Y-37.601
X-78.07 Y-37.765
X-79.196 Y-37.991
X-80.31 Y-38.279
X-81.409 Y-38.626
X-82.489 Y-39.034
X-83.547 Y-39.501
X-84.58 Y-40.024
X-85.585 Y-40.604
X-86.558 Y-41.239
X-87.497 Y-41.926
X-88.398 Y-42.665
X-89.259 Y-43.452
X-90.077 Y-44.285
X-90.85 Y-45.163
X-91.574 Y-46.082
X-92.249 Y-47.04
X-92.871 Y-48.034
X-93.439 Y-49.062
X-93.951 Y-50.12
X-94.405 Y-51.204
X-94.8 Y-52.313
X-95.135 Y-53.442
X-95.408 Y-54.588
X-95.618 Y-55.748
X-95.766 Y-56.919
X-95.85 Y-58.096
X-95.87 Y-59.277
X-95.826 Y-60.457
X-95.717 Y-61.634
X-95.546 Y-62.804
X-95.311 Y-63.963
X-95.013 Y-65.108
X-94.654 Y-66.236
X-94.234 Y-67.343
X-93.754 Y-68.426
X-93.217 Y-69.481
X-92.623 Y-70.506
X-91.974 Y-71.498
X-91.272 Y-72.453
X-90.519 Y-73.369
X-89.718 Y-74.242
X-88.87 Y-75.071
X-87.978 Y-75.854
X-87.046 Y-76.586
X-86.074 Y-77.267
X-85.068 Y-77.895
X-84.028 Y-78.467
X-82.959 Y-78.982
X-81.864 Y-79.438
X-80.745 Y-79.835
X-79.606 Y-80.17
X-78.45 Y-80.443
X-77.28 Y-80.654
X-76.098 Y-80.801
X-74.909 Y-80.883
X-73.715 Y-80.901
X-72.52 Y-80.855
X-71.325 Y-80.743
X-70.135 Y-80.566
X-68.953 Y-80.324
X-67.781 Y-80.017
X-66.624 Y-79.647
X-65.484 Y-79.212
X-64.365 Y-78.714
X-63.271 Y-78.154
X-62.205 Y-77.533
X-61.17 Y-76.854
X-60.171 Y-76.116
X-59.21 Y-75.324
X-58.291 Y-74.478
X-57.418 Y-73.582
X-56.593 Y-72.638
X-55.819 Y-71.65
X-55.1 Y-70.621
X-54.437 Y-69.553
X-53.833 Y-68.451
X-53.29 Y-67.318
X-52.809 Y-66.158
X-52.392 Y-64.974
X-52.04 Y-63.771
X-51.754 Y-62.551
X-51.534 Y-61.319
X-51.382 Y-60.078
X-51.298 Y-58.832
X-51.281 Y-57.584
X-51.332 Y-56.339
X-51.45 Y-55.099
X-51.636 Y-53.868
X-51.887 Y-52.65
X-52.204 Y-51.447
X-52.586 Y-50.264
X-53.031 Y-49.103
X-53.538 Y-47.968
X-54.106 Y-46.862
X-54.734 Y-45.788
X-55.419 Y-44.749
X-56.16 Y-43.748
X-56.955 Y-42.788
X-57.802 Y-41.871
X-58.698 Y-41.001
X-59.642 Y-40.179
X-60.63 Y-39.409
X-61.659 Y-38.692
X-62.728 Y-38.031
X-63.832 Y-37.428
X-64.97 Y-36.885
X-66.137 Y-36.404
X-67.331 Y-35.985
X-68.549 Y-35.632
X-69.786 Y-35.344
X-71.039 Y-35.123
X-72.304 Y-34.97
X-73.579 Y-34.886
X-74.858 Y-34.872
X-76.139 Y-34.926
X-77.417 Y-35.05
X-78.689 Y-35.244
X-79.95 Y-35.506
X-81.198 Y-35.838
X-82.428 Y-36.237
X-83.636 Y-36.702
X-84.819 Y-37.234
X-85.973 Y-37.829
X-87.095 Y-38.488
X-88.181 Y-39.207
X-89.228 Y-39.984
X-90.232 Y-40.819
X-91.19 Y-41.707
X-92.101 Y-42.648
X-92.959 Y-43.637
X-93.764 Y-44.672
X-94.512 Y-45.751
X-95.201 Y-46.869
X-95.828 Y-48.024
X-96.393 Y-49.212
X-96.893 Y-50.43
X-97.327 Y-51.675
X-97.692 Y-52.941
X-97.989 Y-54.227
X-98.215 Y-55.527
X-98.371 Y-56.838
X-98.456 Y-58.157
X-98.469 Y-59.478
X-98.41 Y-60.799
X-98.28 Y-62.116
X-98.079 Y-63.424
X-97.807 Y-64.719
X-97.465 Y-65.998
X-97.054 Y-67.258
X-96.575 Y-68.493
X-96.03 Y-69.701
X-95.42 Y-70.878
X-94.747 Y-72.02
X-94.013 Y-73.124
X-93.22 Y-74.188
X-92.37 Y-75.206
X-91.467 Y-76.178
X-90.512 Y-77.099
X-89.508 Y-77.967
X-88.459 Y-78.779
X-87.367 Y-79.534
X-86.235 Y-80.228
X-85.068 Y-80.86
X-83.867 Y-81.428
X-82.638 Y-81.93
X-81.382 Y-82.365
X-80.104 Y-82.732
X-78.807 Y-83.029
X-77.495 Y-83.255
X-76.171 Y-83.41
X-74.838 Y-83.493
X-73.5 Y-83.504
X-72.161 Y-83.442
X-70.826 Y-83.308
X-69.5 Y-83.101
X-68.187 Y-82.824
X-66.89 Y-82.475
X-65.615 Y-82.058
X-64.363 Y-81.573
X-63.139 Y-81.023
X-61.946 Y-80.407
X-60.788 Y-79.73
X-59.666 Y-78.992
X-58.586 Y-78.197
X-57.548 Y-77.345
X-56.556 Y-76.441
X-55.613 Y-75.486
X-54.722 Y-74.483
X-53.883 Y-73.435
X-53.1 Y-72.344
X-52.376 Y-71.215
X-51.71 Y-70.049
X-51.106 Y-68.85
X-50.566 Y-67.622
X-50.09 Y-66.367
X-49.68 Y-65.089
X-49.338 Y-63.791
X-49.064 Y-62.477
X-48.86 Y-61.151
X-48.725 Y-59.815
X-48.661 Y-58.475
X-48.667 Y-57.133
X-48.743 Y-55.793
X-48.89 Y-54.458
X-49.106 Y-53.134
X-49.391 Y-51.822
X-49.744 Y-50.528
X-50.165 Y-49.253
X-50.653 Y-48.003
X-51.205 Y-46.779
X-51.82 Y-45.587
X-52.498 Y-44.428
X-53.235 Y-43.306
X-54.029 Y-42.225
X-54.879 Y-41.186
X-55.783 Y-40.193
X-56.737 Y-39.249
X-57.738 Y-38.356
X-58.785 Y-37.516
X-59.875 Y-36.732
X-61.003 Y-36.005
X-62.168 Y-35.338
X-63.365 Y-34.733
X-64.593 Y-34.19
X-65.847 Y-33.712
X-67.124 Y-33.3
X-68.421 Y-32.954
X-69.734 Y-32.676
X-71.06 Y-32.467
X-72.395 Y-32.325
X-73.735 Y-32.253
X-75.077 Y-32.249
X-76.418 Y-32.313
X-77.753 Y-32.445
X-79.081 Y-32.645
X-80.396 Y-32.912
X-81.696 Y-33.246
X-82.978 Y-33.644
X-84.238 Y-34.107
X-85.473 Y-34.632
X-86.679 Y-35.22
X-87.855 Y-35.868
X-88.995 Y-36.575
X-90.099 Y-37.339
X-91.162 Y-38.158
X-92.183 Y-39.03
X-93.159 Y-39.951
X-94.088 Y-40.92
X-94.967 Y-41.934
X-95.794 Y-42.99
X-96.569 Y-44.087
X-97.287 Y-45.22
X-97.949 Y-46.388
X-98.551 Y-47.587
X-99.092 Y-48.816
X-99.571 Y-50.07
X-99.985 Y-51.346
X-100.336 Y-52.642
X-100.622 Y-53.953
X-100.842 Y-55.277
X-100.997 Y-56.61
X-101.085 Y-57.95
X-101.107 Y-59.291
X-101.064 Y-60.633
X-100.954 Y-61.971
X-100.777 Y-63.301
X-100.534 Y-64.621
X-100.225 Y-65.927
X-99.852 Y-67.216
X-99.414 Y-68.485
X-98.915 Y-69.731
X-98.354 Y-70.95
X-97.734 Y-72.141
X-97.056 Y-73.299
X-96.323 Y-74.423
X-95.534 Y-75.509
X-94.694 Y-76.555
X-93.802 Y-77.558
X-92.86 Y-78.515
X-91.873 Y-79.424
X-90.841 Y-80.282
X-89.768 Y-81.088
X-88.656 Y-81.841
X-87.509 Y-82.537
X-86.329 Y-83.177
X-85.119 Y-83.758
X-83.882 Y-84.279
X-82.621 Y-84.738
X-81.339 Y-85.134
X-80.038 Y-85.466
X-78.723 Y-85.732
X-77.396 Y-85.933
X-76.06 Y-86.068
X-74.72 Y-86.137
X-73.378 Y-86.141
X-72.037 Y-86.079
X-70.701 Y-85.953
X-69.373 Y-85.762
X-68.055 Y-85.506
X-66.751 Y-85.186
X-65.465 Y-84.803
X-64.2 Y-84.356
X-62.957 Y-83.849
X-61.74 Y-83.283
X-60.552 Y-82.659
X-59.394 Y-81.979
X-58.271 Y-81.245
X-57.183 Y-80.459
X-56.134 Y-79.622
X-55.125 Y-78.737
X-54.161 Y-77.803
X-53.242 Y-76.825
X-52.371 Y-75.804
X-51.549 Y-74.743
X-50.778 Y-73.644
X-50.06 Y-72.51
X-49.396 Y-71.344
X-48.787 Y-70.148
X-48.235 Y-68.924
X-47.741 Y-67.677
X-47.306 Y-66.407
X-46.933 Y-65.117
X-46.623 Y-63.812
X-46.375 Y-62.492
X-46.191 Y-61.163
X-46.069 Y-59.826
X-46.011 Y-58.486
X-46.016 Y-57.143
X-46.084 Y-55.803
X-46.215 Y-54.467
X-46.409 Y-53.139
X-46.666 Y-51.822
X-46.987 Y-50.519
X-47.37 Y-49.232
X-47.814 Y-47.966
X-48.317 Y-46.722
X-48.879 Y-45.503
X-49.498 Y-44.312
X-50.172 Y-43.151
X-50.9 Y-42.023
X-51.68 Y-40.931
X-52.511 Y-39.877
X-53.391 Y-38.864
X-54.32 Y-37.895
X-55.293 Y-36.971
X-56.309 Y-36.094
X-57.365 Y-35.266
X-58.459 Y-34.488
X-59.588 Y-33.762
X-60.75 Y-33.09
X-61.942 Y-32.473
X-63.161 Y-31.913
X-64.406 Y-31.41
X-65.673 Y-30.968
X-66.96 Y-30.586
X-68.263 Y-30.266
X-69.58 Y-30.007
X-70.908 Y-29.81
X-72.243 Y-29.674
X-73.583 Y-29.601
X-74.925 Y-29.589
X-76.266 Y-29.639
X-77.604 Y-29.75
X-78.935 Y-29.924
X-80.256 Y-30.159
X-81.565 Y-30.455
X-82.859 Y-30.812
X-84.135 Y-31.228
X-85.391 Y-31.703
X-86.623 Y-32.234
X-87.83 Y-32.821
X-89.008 Y-33.463
X-90.157 Y-34.158
X-91.272 Y-34.905
X-92.352 Y-35.702
X-93.393 Y-36.549
X-94.395 Y-37.442
X-95.354 Y-38.381
X-96.27 Y-39.362
X-97.14 Y-40.384
X-97.964 Y-41.444
X-98.738 Y-42.54
X-99.463 Y-43.669
X-100.136 Y-44.831
X-100.755 Y-46.021
X-101.32 Y-47.239
X-101.827 Y-48.482
X-102.277 Y-49.746
X-102.668 Y-51.03
X-103.001 Y-52.33
X-103.275 Y-53.644
X-103.49 Y-54.969
X-103.644 Y-56.302
X-103.74 Y-57.641
X-103.775 Y-58.983
X-103.75 Y-60.325
X-103.665 Y-61.664
X-103.518 Y-62.998
X-103.31 Y-64.324
X-103.041 Y-65.639
X-102.713 Y-66.94
X-102.327 Y-68.226
X-101.883 Y-69.492
X-101.383 Y-70.738
X-100.827 Y-71.96
X-100.218 Y-73.156
X-99.557 Y-74.323
X-98.843 Y-75.46
X-98.079 Y-76.564
X-97.265 Y-77.631
X-96.403 Y-78.659
X-95.495 Y-79.648
X-94.543 Y-80.594
X-93.55 Y-81.497
X-92.517 Y-82.354
X-91.447 Y-83.164
X-90.342 Y-83.926
X-89.204 Y-84.637
X-88.035 Y-85.298
X-86.838 Y-85.904
X-85.615 Y-86.456
X-84.367 Y-86.951
X-83.099 Y-87.39
X-81.812 Y-87.77
X-80.509 Y-88.092
X-79.193 Y-88.356
X-77.866 Y-88.56
X-76.532 Y-88.705
X-75.192 Y-88.791
X-73.851 Y-88.818
X-72.509 Y-88.784
X-71.17 Y-88.691
X-69.837 Y-88.537
X-68.512 Y-88.323
X-67.197 Y-88.05
X-65.897 Y-87.72
X-64.612 Y-87.332
X-63.345 Y-86.888
X-62.099 Y-86.389
X-60.876 Y-85.836
X-59.679 Y-85.23
X-58.508 Y-84.573
X-57.368 Y-83.865
X-56.26 Y-83.108
X-55.186 Y-82.302
X-54.149 Y-81.451
X-53.15 Y-80.554
X-52.191 Y-79.616
X-51.273 Y-78.637
X-50.398 Y-77.619
X-49.568 Y-76.564
X-48.783 Y-75.475
X-48.046 Y-74.354
X-47.358 Y-73.201
X-46.721 Y-72.02
X-46.136 Y-70.812
X-45.604 Y-69.58
X-45.126 Y-68.326
X-44.703 Y-67.052
X-44.335 Y-65.761
X-44.024 Y-64.455
X-43.77 Y-63.138
X-43.572 Y-61.81
X-43.431 Y-60.475
X-43.348 Y-59.136
X-43.324 Y-57.794
X-43.358 Y-56.452
X-43.45 Y-55.113
X-43.601 Y-53.78
X-43.81 Y-52.454
X-44.077 Y-51.138
X-44.4 Y-49.836
X-44.779 Y-48.548
X-45.214 Y-47.278
X-45.703 Y-46.028
X-46.244 Y-44.8
X-46.839 Y-43.597
X-47.485 Y-42.421
X-48.183 Y-41.274
X-48.929 Y-40.159
X-49.724 Y-39.077
X-50.564 Y-38.031
X-51.449 Y-37.022
X-52.377 Y-36.052
X-53.346 Y-35.123
X-54.354 Y-34.237
X-55.398 Y-33.394
X-56.478 Y-32.597
X-57.591 Y-31.847
X-58.736 Y-31.146
X-59.91 Y-30.496
X-61.111 Y-29.897
X-62.337 Y-29.35
X-63.585 Y-28.857
X-64.854 Y-28.418
X-66.14 Y-28.034
X-67.441 Y-27.705
X-68.755 Y-27.431
X-70.079 Y-27.214
X-71.412 Y-27.053
X-72.75 Y-26.948
X-74.091 Y-26.902
X-75.433 Y-26.913
X-76.774 Y-26.98
X-78.11 Y-27.105
X-79.44 Y-27.286
X-80.761 Y-27.524
X-82.071 Y-27.816
X-83.367 Y-28.164
X-84.648 Y-28.565
X-85.911 Y-29.02
X-87.153 Y-29.527
X-88.373 Y-30.086
X-89.568 Y-30.697
X-90.736 Y-31.358
X-91.876 Y-32.068
X-92.984 Y-32.825
X-94.059 Y-33.628
X-95.1 Y-34.475
X-96.105 Y-35.365
X-97.072 Y-36.296
X-97.999 Y-37.266
X-98.886 Y-38.274
X-99.73 Y-39.317
X-100.529 Y-40.395
X-101.283 Y-41.506
X-101.989 Y-42.647
X-102.647 Y-43.817
X-103.255 Y-45.014
X-103.813 Y-46.234
X-104.32 Y-47.477
X-104.774 Y-48.74
X-105.176 Y-50.021
X-105.524 Y-51.317
X-105.819 Y-52.626
X-106.06 Y-53.947
X-106.245 Y-55.276
X-106.375 Y-56.612
X-106.449 Y-57.952
X-106.468 Y-59.294
X-106.43 Y-60.636
X-106.337 Y-61.974
X-106.188 Y-63.308
X-105.984 Y-64.635
X-105.726 Y-65.952
X-105.413 Y-67.257
X-105.047 Y-68.549
X-104.628 Y-69.824
X-104.157 Y-71.08
X-103.633 Y-72.316
X-103.059 Y-73.529
X-102.436 Y-74.718
X-101.763 Y-75.879
X-101.043 Y-77.012
X-100.277 Y-78.114
X-99.466 Y-79.183
X-98.611 Y-80.218
X-97.714 Y-81.217
X-96.778 Y-82.178
X-95.802 Y-83.1
X-94.789 Y-83.98
X-93.74 Y-84.817
X-92.657 Y-85.611
X-91.543 Y-86.358
X-90.399 Y-87.06
X-89.226 Y-87.713
X-88.028 Y-88.318
X-86.806 Y-88.872
X-85.562 Y-89.376
X-84.298 Y-89.828
X-83.017 Y-90.228
X-81.72 Y-90.575
X-80.41 Y-90.868
X-79.09 Y-91.106
X-77.76 Y-91.29
X-76.424 Y-91.418
X-75.084 Y-91.492
X-73.742 Y-91.511
X-72.4 Y-91.475
X-71.061 Y-91.384
X-69.727 Y-91.238
X-68.4 Y-91.039
X-67.082 Y-90.785
X-65.775 Y-90.478
X-64.482 Y-90.119
X-63.205 Y-89.706
X-61.946 Y-89.242
X-60.706 Y-88.727
X-59.488 Y-88.163
X-58.294 Y-87.55
X-57.126 Y-86.89
X-55.985 Y-86.183
X-54.873 Y-85.431
X-53.792 Y-84.635
X-52.744 Y-83.797
X-51.73 Y-82.918
X-50.752 Y-81.999
X-49.811 Y-81.041
X-48.91 Y-80.047
X-48.049 Y-79.017
X-47.23 Y-77.953
X-46.454 Y-76.859
X-45.722 Y-75.734
X-45.035 Y-74.581
X-44.395 Y-73.401
X-43.801 Y-72.197
X-43.256 Y-70.971
X-42.76 Y-69.724
X-42.314 Y-68.458
X-41.919 Y-67.175
X-41.576 Y-65.878
X-41.285 Y-64.567
X-41.047 Y-63.246
X-40.861 Y-61.917
X-40.729 Y-60.582
X-40.649 Y-59.242
X-40.623 Y-57.9
X-40.651 Y-56.558
X-40.732 Y-55.218
X-40.866 Y-53.883
X-41.052 Y-52.554
X-41.292 Y-51.233
X-41.585 Y-49.923
X-41.931 Y-48.627
X-42.328 Y-47.344
X-42.776 Y-46.079
X-43.273 Y-44.833
X-43.82 Y-43.607
X-44.416 Y-42.404
X-45.058 Y-41.226
X-45.747 Y-40.074
X-46.481 Y-38.951
X-47.26 Y-37.857
X-48.081 Y-36.795
X-48.943 Y-35.767
X-49.847 Y-34.775
X-50.79 Y-33.819
X-51.769 Y-32.902
X-52.784 Y-32.024
X-53.834 Y-31.187
X-54.915 Y-30.392
X-56.027 Y-29.641
X-57.168 Y-28.934
X-58.336 Y-28.273
X-59.53 Y-27.659
X-60.746 Y-27.092
X-61.984 Y-26.574
X-63.242 Y-26.105
X-64.518 Y-25.688
X-65.809 Y-25.321
X-67.113 Y-25.005
X-68.429 Y-24.74
X-69.754 Y-24.528
X-71.087 Y-24.367
X-72.424 Y-24.259
X-73.765 Y-24.203
X-75.108 Y-24.199
X-76.449 Y-24.248
X-77.787 Y-24.349
X-79.121 Y-24.502
X-80.447 Y-24.707
X-81.764 Y-24.965
X-83.07 Y-25.274
X-84.364 Y-25.633
X-85.642 Y-26.042
X-86.903 Y-26.5
X-88.146 Y-27.007
X-89.368 Y-27.562
X-90.568 Y-28.163
X-91.744 Y-28.811
X-92.893 Y-29.503
X-94.016 Y-30.239
X-95.108 Y-31.019
X-96.17 Y-31.84
X-97.198 Y-32.703
X-98.193 Y-33.604
X-99.152 Y-34.543
X-100.074 Y-35.517
X-100.959 Y-36.527
X-101.804 Y-37.57
X-102.608 Y-38.644
X-103.371 Y-39.749
X-104.09 Y-40.882
X-104.766 Y-42.041
X-105.397 Y-43.226
X-105.981 Y-44.434
X-106.518 Y-45.664
X-107.007 Y-46.914
X-107.447 Y-48.182
X-107.839 Y-49.466
X-108.181 Y-50.764
X-108.474 Y-52.073
X-108.717 Y-53.394
X-108.909 Y-54.722
X-109.05 Y-56.057
X-109.14 Y-57.396
X-109.179 Y-58.737
X-109.167 Y-60.079
X-109.103 Y-61.42
X-108.987 Y-62.757
X-108.82 Y-64.089
X-108.602 Y-65.413
X-108.333 Y-66.728
X-108.015 Y-68.032
X-107.647 Y-69.323
X-107.23 Y-70.598
X-106.765 Y-71.858
X-106.253 Y-73.098
X-105.694 Y-74.318
X-105.089 Y-75.516
X-104.438 Y-76.69
X-103.743 Y-77.838
X-103.004 Y-78.959
X-102.223 Y-80.05
X-101.4 Y-81.11
X-100.538 Y-82.139
X-99.637 Y-83.134
X-98.698 Y-84.093
X-97.724 Y-85.017
X-96.716 Y-85.903
X-95.675 Y-86.749
X-94.602 Y-87.556
X-93.5 Y-88.322
X-92.369 Y-89.045
X-91.211 Y-89.724
X-90.028 Y-90.357
X-88.822 Y-90.945
X-87.594 Y-91.487
X-86.346 Y-91.981
X-85.08 Y-92.428
X-83.799 Y-92.826
X-82.503 Y-93.176
X-81.194 Y-93.476
X-79.876 Y-93.726
X-78.549 Y-93.926
X-77.215 Y-94.076
X-75.876 Y-94.176
X-74.535 Y-94.224
X-73.193 Y-94.221
X-71.852 Y-94.166
X-70.514 Y-94.061
X-69.181 Y-93.906
X-67.854 Y-93.701
X-66.537 Y-93.446
X-65.23 Y-93.141
X-63.935 Y-92.788
X-62.654 Y-92.387
X-61.389 Y-91.938
X-60.142 Y-91.443
X-58.914 Y-90.901
X-57.707 Y-90.314
X-56.523 Y-89.682
X-55.363 Y-89.006
X-54.23 Y-88.287
X-53.124 Y-87.526
X-52.047 Y-86.725
X-51 Y-85.885
X-49.985 Y-85.007
X-49.004 Y-84.092
X-48.056 Y-83.142
X-47.144 Y-82.157
X-46.269 Y-81.14
X-45.431 Y-80.091
X-44.633 Y-79.012
X-43.876 Y-77.904
X-43.16 Y-76.768
X-42.487 Y-75.607
X-41.857 Y-74.422
X-41.271 Y-73.214
X-40.73 Y-71.986
X-40.234 Y-70.739
X-39.785 Y-69.474
X-39.382 Y-68.194
X-39.027 Y-66.9
X-38.719 Y-65.593
X-38.46 Y-64.276
X-38.249 Y-62.951
X-38.087 Y-61.618
X-37.976 Y-60.281
X-37.914 Y-58.94
X-37.901 Y-57.598
X-37.939 Y-56.256
X-38.025 Y-54.917
X-38.161 Y-53.582
X-38.346 Y-52.252
X-38.579 Y-50.931
X-38.862 Y-49.619
X-39.192 Y-48.318
X-39.569 Y-47.03
X-39.994 Y-45.757
X-40.466 Y-44.5
X-40.984 Y-43.262
X-41.548 Y-42.044
X-42.157 Y-40.848
X-42.809 Y-39.675
X-43.504 Y-38.527
X-44.241 Y-37.405
X-45.018 Y-36.311
X-45.836 Y-35.246
X-46.691 Y-34.212
X-47.584 Y-33.21
X-48.514 Y-32.242
X-49.478 Y-31.308
X-50.475 Y-30.41
X-51.505 Y-29.55
X-52.567 Y-28.729
X-53.658 Y-27.947
X-54.777 Y-27.206
X-55.923 Y-26.507
X-57.093 Y-25.85
X-58.287 Y-25.236
X-59.502 Y-24.666
X-60.737 Y-24.141
X-61.991 Y-23.662
X-63.261 Y-23.228
X-64.546 Y-22.841
X-65.844 Y-22.501
X-67.154 Y-22.209
X-68.474 Y-21.965
X-69.802 Y-21.77
X-71.136 Y-21.623
X-72.475 Y-21.525
X-73.816 Y-21.475
X-75.158 Y-21.474
X-76.499 Y-21.521
X-77.838 Y-21.617
X-79.172 Y-21.761
X-80.501 Y-21.953
X-81.821 Y-22.192
X-83.133 Y-22.479
X-84.432 Y-22.813
X-85.719 Y-23.194
X-86.992 Y-23.622
X-88.247 Y-24.095
X-89.485 Y-24.614
X-90.704 Y-25.176
X-91.902 Y-25.782
X-93.077 Y-26.43
X-94.228 Y-27.121
X-95.353 Y-27.852
X-96.452 Y-28.622
X-97.523 Y-29.432
X-98.564 Y-30.279
X-99.574 Y-31.163
X-100.552 Y-32.082
X-101.496 Y-33.036
X-102.405 Y-34.023
X-103.278 Y-35.043
X-104.114 Y-36.093
X-104.912 Y-37.172
X-105.672 Y-38.278
X-106.391 Y-39.411
X-107.07 Y-40.569
X-107.707 Y-41.751
X-108.301 Y-42.954
X-108.853 Y-44.178
X-109.36 Y-45.42
X-109.824 Y-46.68
X-110.242 Y-47.955
X-110.614 Y-49.245
X-110.939 Y-50.547
X-111.218 Y-51.86
X-111.45 Y-53.182
X-111.635 Y-54.511
X-111.773 Y-55.846
X-111.864 Y-57.185
X-111.907 Y-58.526
X-111.903 Y-59.869
X-111.851 Y-61.21
X-111.752 Y-62.548
X-111.605 Y-63.882
X-111.411 Y-65.21
X-111.17 Y-66.531
X-110.882 Y-67.841
X-110.547 Y-69.141
X-110.166 Y-70.428
X-109.74 Y-71.701
X-109.269 Y-72.958
X-108.754 Y-74.197
X-108.196 Y-75.418
X-107.595 Y-76.618
X-106.952 Y-77.796
X-106.267 Y-78.95
X-105.543 Y-80.08
X-104.779 Y-81.184
X-103.976 Y-82.259
X-103.135 Y-83.306
X-102.258 Y-84.321
X-101.345 Y-85.305
X-100.397 Y-86.255
X-99.417 Y-87.172
X-98.405 Y-88.053
X-97.362 Y-88.899
X-96.29 Y-89.707
X-95.191 Y-90.476
X-94.065 Y-91.207
X-92.914 Y-91.897
X-91.739 Y-92.546
X-90.542 Y-93.153
X-89.325 Y-93.718
X-88.088 Y-94.239
X-86.833 Y-94.715
X-85.562 Y-95.147
X-84.277 Y-95.533
X-82.978 Y-95.874
X-81.669 Y-96.169
X-80.35 Y-96.417
X-79.023 Y-96.62
X-77.69 Y-96.776
X-76.353 Y-96.884
X-75.012 Y-96.946
X-73.67 Y-96.96
X-72.328 Y-96.928
X-70.988 Y-96.849
X-69.652 Y-96.722
X-68.321 Y-96.548
X-66.997 Y-96.327
X-65.682 Y-96.06
X-64.377 Y-95.747
X-63.083 Y-95.39
X-61.803 Y-94.987
X-60.537 Y-94.541
X-59.288 Y-94.05
X-58.056 Y-93.517
X-56.843 Y-92.942
X-55.651 Y-92.325
X-54.482 Y-91.667
X-53.335 Y-90.969
X-52.213 Y-90.232
X-51.118 Y-89.457
X-50.051 Y-88.643
X-49.012 Y-87.793
X-48.003 Y-86.908
X-47.025 Y-85.989
X-46.078 Y-85.037
X-45.165 Y-84.054
X-44.286 Y-83.039
X-43.443 Y-81.996
X-42.635 Y-80.924
X-41.865 Y-79.824
X-41.132 Y-78.7
X-40.439 Y-77.551
X-39.785 Y-76.378
X-39.173 Y-75.184
X-38.602 Y-73.969
X-38.073 Y-72.736
X-37.587 Y-71.485
X-37.144 Y-70.218
X-36.745 Y-68.937
X-36.389 Y-67.642
X-36.078 Y-66.337
X-35.811 Y-65.021
X-35.59 Y-63.698
X-35.414 Y-62.367
X-35.284 Y-61.031
X-35.199 Y-59.692
X-35.161 Y-58.35
X-35.169 Y-57.008
X-35.224 Y-55.667
X-35.325 Y-54.329
X-35.472 Y-52.994
X-35.664 Y-51.666
X-35.902 Y-50.345
X-36.185 Y-49.033
X-36.512 Y-47.732
X-36.884 Y-46.442
X-37.3 Y-45.166
X-37.759 Y-43.905
X-38.261 Y-42.66
X-38.805 Y-41.433
X-39.391 Y-40.226
X-40.019 Y-39.039
X-40.687 Y-37.875
X-41.395 Y-36.735
X-42.142 Y-35.62
X-42.926 Y-34.531
X-43.748 Y-33.469
X-44.605 Y-32.436
X-45.496 Y-31.433
X-46.422 Y-30.461
X-47.379 Y-29.521
X-48.369 Y-28.614
X-49.389 Y-27.741
X-50.438 Y-26.904
X-51.515 Y-26.103
X-52.618 Y-25.34
X-53.748 Y-24.615
X-54.902 Y-23.929
X-56.078 Y-23.283
X-57.276 Y-22.678
X-58.494 Y-22.114
X-59.73 Y-21.591
X-60.984 Y-21.111
X-61.217 Y-21.03
X-61.569 Y-20.931
X-61.929 Y-20.87
X-62.293 Y-20.85
X-83.524
X-84.74 Y-20.911
X-85.568 Y-20.998
X-86.529 Y-21.151
X-87.617 Y-21.386
X-88.828 Y-21.717
X-90.101 Y-22.141
X-91.351 Y-22.63
X-92.577 Y-23.176
X-93.778 Y-23.775
X-94.954 Y-24.421
X-96.105 Y-25.113
X-97.228 Y-25.847
X-98.325 Y-26.62
X-99.394 Y-27.432
X-100.434 Y-28.281
X-101.444 Y-29.165
X-102.423 Y-30.083
X-103.371 Y-31.033
X-104.286 Y-32.015
X-105.167 Y-33.027
X-106.015 Y-34.067
X-106.828 Y-35.136
X-107.604 Y-36.23
X-108.344 Y-37.35
X-109.046 Y-38.494
X-109.709 Y-39.661
X-110.333 Y-40.849
X-110.917 Y-42.058
X-111.46 Y-43.285
X-111.962 Y-44.53
X-112.423 Y-45.79
X-112.841 Y-47.066
X-113.217 Y-48.354
X-113.55 Y-49.654
X-113.84 Y-50.965
X-114.087 Y-52.284
X-114.29 Y-53.611
X-114.45 Y-54.943
X-114.565 Y-56.28
X-114.636 Y-57.621
X-114.662 Y-58.963
X-114.643 Y-60.305
X-114.58 Y-61.645
X-114.472 Y-62.983
X-114.32 Y-64.317
X-114.124 Y-65.644
X-113.884 Y-66.965
X-113.601 Y-68.277
X-113.274 Y-69.579
X-112.905 Y-70.869
X-112.494 Y-72.147
X-112.041 Y-73.41
X-111.547 Y-74.658
X-111.012 Y-75.889
X-110.436 Y-77.101
X-109.82 Y-78.294
X-109.165 Y-79.465
X-108.471 Y-80.614
X-107.74 Y-81.74
X-106.972 Y-82.841
X-106.169 Y-83.915
X-105.33 Y-84.963
X-104.456 Y-85.982
X-103.55 Y-86.972
X-102.612 Y-87.932
X-101.643 Y-88.861
X-100.644 Y-89.757
X-99.616 Y-90.62
X-98.56 Y-91.448
X-97.477 Y-92.241
X-96.368 Y-92.998
X-95.235 Y-93.717
X-94.079 Y-94.399
X-92.901 Y-95.042
X-91.703 Y-95.646
X-90.485 Y-96.21
X-89.249 Y-96.733
X-88.739 Y-96.929
X-88.354 Y-97.051
X-87.956 Y-97.125
X-87.553 Y-97.15
X-63.714
X-62.428 Y-97.086
X-61.659 Y-97.005
X-60.778 Y-96.864
X-59.766 Y-96.646
X-58.627 Y-96.334
X-57.364 Y-95.914
X-56.116 Y-95.422
X-54.892 Y-94.87
X-53.694 Y-94.266
X-52.521 Y-93.613
X-51.375 Y-92.915
X-50.255 Y-92.176
X-49.162 Y-91.396
X-48.097 Y-90.58
X-47.06 Y-89.728
X-46.052 Y-88.841
X-45.074 Y-87.922
X-44.126 Y-86.972
X-43.21 Y-85.991
X-42.325 Y-84.982
X-41.474 Y-83.944
X-40.656 Y-82.88
X-39.873 Y-81.79
X-39.125 Y-80.676
X-38.413 Y-79.538
X-37.738 Y-78.378
X-37.101 Y-77.197
X-36.503 Y-75.995
X-35.944 Y-74.775
X-35.424 Y-73.537
X-34.945 Y-72.284
X-34.505 Y-71.016
X-34.107 Y-69.734
X-33.749 Y-68.44
X-33.433 Y-67.136
X-33.159 Y-65.822
X-32.926 Y-64.5
X-32.736 Y-63.172
X-32.588 Y-61.838
X-32.483 Y-60.5
X-32.421 Y-59.159
X-32.402 Y-57.817
X-32.427 Y-56.475
X-32.495 Y-55.135
X-32.607 Y-53.797
X-32.762 Y-52.464
X-32.959 Y-51.136
X-33.198 Y-49.816
X-33.48 Y-48.503
X-33.803 Y-47.201
X-34.167 Y-45.909
X-34.573 Y-44.629
X-35.019 Y-43.364
X-35.505 Y-42.113
X-36.03 Y-40.878
X-36.595 Y-39.66
X-37.199 Y-38.462
X-37.842 Y-37.283
X-38.523 Y-36.127
X-39.24 Y-34.992
X-39.994 Y-33.882
X-40.783 Y-32.796
X-41.606 Y-31.736
X-42.462 Y-30.702
X-43.351 Y-29.696
X-44.271 Y-28.719
X-45.222 Y-27.772
X-46.202 Y-26.855
X-47.211 Y-25.97
X-48.248 Y-25.118
X-49.311 Y-24.299
X-50.4 Y-23.514
X-51.514 Y-22.766
X-52.651 Y-22.053
X-53.811 Y-21.378
X-54.054 Y-21.247
X-54.424 Y-21.075
X-54.813 Y-20.951
X-55.215 Y-20.875
X-55.622 Y-20.85
X-62.293
G3 X-62.776 Y-20.964 I0.044 J-1.269
G1 X-62.905 Y-21.023 Z34.618
X-63.033 Y-21.081 Z34.642
X-63.157 Y-21.138 Z34.681
X-63.277 Y-21.192 Z34.736
X-63.391 Y-21.244 Z34.805
X-63.496 Y-21.292 Z34.887
X-63.593 Y-21.336 Z34.982
X-63.679 Y-21.375 Z35.088
X-63.754 Y-21.41 Z35.204
X-63.817 Y-21.438 Z35.329
X-63.867 Y-21.461 Z35.461
X-63.902 Y-21.477 Z35.597
X-63.924 Y-21.487 Z35.738
X-63.931 Y-21.49 Z35.88
G0 Z51.6
X-65.284 Y-96.36
Z37.15
G1 Z35.88 F850
X-65.277 Y-96.364 Z35.738
X-65.257 Y-96.377 Z35.597
X-65.223 Y-96.397 Z35.461
X-65.176 Y-96.425 Z35.329
X-65.117 Y-96.46 Z35.204
X-65.046 Y-96.502 Z35.088
X-64.964 Y-96.551 Z34.982
X-64.873 Y-96.605 Z34.887
X-64.773 Y-96.664 Z34.805
X-64.666 Y-96.728 Z34.736
X-64.553 Y-96.795 Z34.681
X-64.435 Y-96.865 Z34.642
X-64.315 Y-96.937 Z34.618
X-64.193 Y-97.009 Z34.61
G3 X-63.714 Y-97.15 I0.514 J0.864
G1 X-57.238
X-56.442 Y-97.11
X-55.919 Y-97.055
X-55.289 Y-96.955
X-54.619 Y-96.81
X-53.836 Y-96.596
X-52.952 Y-96.302
X-51.994 Y-95.925
X-50.915 Y-95.43
X-49.727 Y-94.805
X-48.574 Y-94.118
X-47.455 Y-93.377
X-46.368 Y-92.589
X-45.314 Y-91.759
X-44.29 Y-90.89
X-43.298 Y-89.987
X-42.337 Y-89.05
X-41.407 Y-88.082
X-40.509 Y-87.085
X-39.642 Y-86.06
X-38.807 Y-85.009
X-38.005 Y-83.933
X-37.236 Y-82.833
X-36.502 Y-81.71
X-35.802 Y-80.564
X-35.138 Y-79.398
X-34.511 Y-78.211
X-33.919 Y-77.007
X-33.364 Y-75.785
X-32.846 Y-74.546
X-32.366 Y-73.293
X-31.924 Y-72.026
X-31.519 Y-70.746
X-31.153 Y-69.455
X-30.826 Y-68.153
X-30.537 Y-66.842
X-30.288 Y-65.524
X-30.078 Y-64.198
X-29.908 Y-62.867
X-29.778 Y-61.531
X-29.689 Y-60.192
X-29.641 Y-58.85
X-29.634 Y-57.508
X-29.667 Y-56.166
X-29.741 Y-54.826
X-29.855 Y-53.489
X-30.01 Y-52.156
X-30.204 Y-50.828
X-30.438 Y-49.506
X-30.711 Y-48.192
X-31.023 Y-46.887
X-31.374 Y-45.591
X-31.764 Y-44.307
X-32.191 Y-43.035
X-32.657 Y-41.776
X-33.16 Y-40.531
X-33.7 Y-39.303
X-34.278 Y-38.092
X-34.893 Y-36.898
X-35.543 Y-35.724
X-36.229 Y-34.571
X-36.949 Y-33.438
X-37.702 Y-32.327
X-38.489 Y-31.24
X-39.307 Y-30.176
X-40.157 Y-29.137
X-41.038 Y-28.125
X-41.948 Y-27.138
X-42.888 Y-26.179
X-43.855 Y-25.249
X-44.849 Y-24.348
X-45.87 Y-23.477
X-46.917 Y-22.637
X-47.989 Y-21.829
X-48.519 Y-21.455
X-48.864 Y-21.242
X-49.233 Y-21.072
X-49.62 Y-20.949
X-50.018 Y-20.875
X-50.423 Y-20.85
X-55.622
G3 X-56.105 Y-20.964 I0.044 J-1.269
G1 X-56.234 Y-21.023 Z34.618
X-56.362 Y-21.081 Z34.642
X-56.486 Y-21.138 Z34.681
X-56.606 Y-21.192 Z34.736
X-56.72 Y-21.244 Z34.805
X-56.825 Y-21.292 Z34.887
X-56.922 Y-21.336 Z34.982
X-57.008 Y-21.375 Z35.088
X-57.083 Y-21.41 Z35.204
X-57.146 Y-21.438 Z35.329
X-57.196 Y-21.461 Z35.461
X-57.231 Y-21.477 Z35.597
X-57.253 Y-21.487 Z35.738
X-57.26 Y-21.49 Z35.88
G0 Z51.6
X-58.808 Y-96.36
Z37.15
G1 Z35.88 F850
X-58.801 Y-96.364 Z35.738
X-58.78 Y-96.377 Z35.597
X-58.747 Y-96.397 Z35.461
X-58.7 Y-96.425 Z35.329
X-58.641 Y-96.46 Z35.204
X-58.57 Y-96.502 Z35.088
X-58.488 Y-96.551 Z34.982
X-58.397 Y-96.605 Z34.887
X-58.297 Y-96.664 Z34.805
X-58.19 Y-96.728 Z34.736
X-58.077 Y-96.795 Z34.681
X-57.959 Y-96.865 Z34.642
X-57.838 Y-96.937 Z34.618
X-57.716 Y-97.009 Z34.61
G3 X-57.238 Y-97.15 I0.514 J0.864
G1 X-52.285
X-51.558 Y-97.114
X-51.094 Y-97.065
X-50.611 Y-96.988
X-50.037 Y-96.864
X-49.428 Y-96.697
X-48.713 Y-96.459
X-47.952 Y-96.16
X-47.092 Y-95.766
X-46.13 Y-95.26
X-45.069 Y-94.627
X-43.956 Y-93.878
X-42.882 Y-93.072
X-41.847 Y-92.217
X-40.848 Y-91.321
X-39.884 Y-90.388
X-38.953 Y-89.42
X-38.056 Y-88.422
X-37.192 Y-87.395
X-36.36 Y-86.342
X-35.562 Y-85.263
X-34.797 Y-84.16
X-34.065 Y-83.035
X-33.367 Y-81.889
X-32.703 Y-80.722
X-32.073 Y-79.537
X-31.477 Y-78.335
X-30.916 Y-77.116
X-30.39 Y-75.881
X-29.899 Y-74.632
X-29.443 Y-73.369
X-29.024 Y-72.094
X-28.64 Y-70.808
X-28.293 Y-69.512
X-27.982 Y-68.206
X-27.708 Y-66.892
X-27.472 Y-65.571
X-27.273 Y-64.243
X-27.113 Y-62.911
X-26.991 Y-61.574
X-26.907 Y-60.235
X-26.861 Y-58.893
X-26.853 Y-57.551
X-26.883 Y-56.21
X-26.952 Y-54.869
X-27.058 Y-53.531
X-27.202 Y-52.197
X-27.383 Y-50.867
X-27.601 Y-49.543
X-27.857 Y-48.225
X-28.149 Y-46.915
X-28.478 Y-45.614
X-28.844 Y-44.322
X-29.246 Y-43.042
X-29.684 Y-41.774
X-30.159 Y-40.518
X-30.669 Y-39.277
X-31.215 Y-38.05
X-31.795 Y-36.84
X-32.409 Y-35.647
X-33.057 Y-34.471
X-33.738 Y-33.315
X-34.451 Y-32.178
X-35.196 Y-31.061
X-35.972 Y-29.966
X-36.778 Y-28.893
X-37.614 Y-27.843
X-38.479 Y-26.817
X-39.373 Y-25.816
X-40.294 Y-24.84
X-41.243 Y-23.89
X-42.218 Y-22.968
X-43.219 Y-22.074
X-43.759 Y-21.621
X-44.132 Y-21.351
X-44.538 Y-21.135
X-44.971 Y-20.978
X-45.421 Y-20.882
X-45.88 Y-20.85
X-50.423
G3 X-50.906 Y-20.964 I0.044 J-1.269
G1 X-51.035 Y-21.023 Z34.618
X-51.163 Y-21.081 Z34.642
X-51.288 Y-21.138 Z34.681
X-51.407 Y-21.192 Z34.736
X-51.521 Y-21.244 Z34.805
X-51.626 Y-21.292 Z34.887
X-51.723 Y-21.336 Z34.982
X-51.809 Y-21.375 Z35.088
X-51.884 Y-21.41 Z35.204
X-51.947 Y-21.438 Z35.329
X-51.997 Y-21.461 Z35.461
X-52.032 Y-21.477 Z35.597
X-52.054 Y-21.487 Z35.738
X-52.061 Y-21.49 Z35.88
G0 Z51.6
X-53.855 Y-96.36
Z37.15
G1 Z35.88 F850
X-53.848 Y-96.364 Z35.738
X-53.828 Y-96.377 Z35.597
X-53.794 Y-96.397 Z35.461
X-53.747 Y-96.425 Z35.329
X-53.688 Y-96.46 Z35.204
X-53.617 Y-96.502 Z35.088
X-53.536 Y-96.551 Z34.982
X-53.444 Y-96.605 Z34.887
X-53.345 Y-96.664 Z34.805
X-53.237 Y-96.728 Z34.736
X-53.124 Y-96.795 Z34.681
X-53.007 Y-96.865 Z34.642
X-52.886 Y-96.937 Z34.618
X-52.764 Y-97.009 Z34.61
G3 X-52.285 Y-97.15 I0.514 J0.864
G1 X-47.714
X-47.24 Y-97.126
X-46.856 Y-97.086
X-46.393 Y-97.012
X-45.912 Y-96.908
X-45.355 Y-96.756
X-44.756 Y-96.557
X-44.068 Y-96.286
X-43.346 Y-95.955
X-42.524 Y-95.523
X-41.611 Y-94.978
X-40.616 Y-94.309
X-39.545 Y-93.5
X-38.519 Y-92.635
X-37.534 Y-91.723
X-36.589 Y-90.77
X-35.682 Y-89.781
X-34.81 Y-88.761
X-33.974 Y-87.711
X-33.171 Y-86.635
X-32.403 Y-85.535
X-31.668 Y-84.412
X-30.966 Y-83.268
X-30.297 Y-82.104
X-29.661 Y-80.922
X-29.058 Y-79.723
X-28.489 Y-78.508
X-27.952 Y-77.277
X-27.45 Y-76.033
X-26.981 Y-74.775
X-26.545 Y-73.506
X-26.144 Y-72.225
X-25.777 Y-70.934
X-25.445 Y-69.634
X-25.148 Y-68.325
X-24.886 Y-67.008
X-24.66 Y-65.685
X-24.47 Y-64.357
X-24.317 Y-63.023
X-24.199 Y-61.686
X-24.117 Y-60.347
X-24.07 Y-59.005
X-24.06 Y-57.663
X-24.086 Y-56.321
X-24.147 Y-54.981
X-24.244 Y-53.642
X-24.377 Y-52.306
X-24.545 Y-50.975
X-24.748 Y-49.648
X-24.986 Y-48.327
X-25.259 Y-47.013
X-25.567 Y-45.707
X-25.909 Y-44.409
X-26.287 Y-43.121
X-26.699 Y-41.844
X-27.146 Y-40.578
X-27.627 Y-39.325
X-28.141 Y-38.085
X-28.688 Y-36.86
X-29.268 Y-35.65
X-29.88 Y-34.455
X-30.524 Y-33.277
X-31.199 Y-32.117
X-31.904 Y-30.975
X-32.64 Y-29.853
X-33.405 Y-28.75
X-34.198 Y-27.668
X-35.021 Y-26.607
X-35.87 Y-25.568
X-36.747 Y-24.552
X-37.651 Y-23.56
X-38.582 Y-22.593
X-39.473 Y-21.723
X-39.538 Y-21.666
X-39.916 Y-21.381
X-40.332 Y-21.152
X-40.775 Y-20.985
X-41.238 Y-20.884
X-41.711 Y-20.85
X-45.88
G3 X-46.362 Y-20.964 I0.044 J-1.269
G1 X-46.491 Y-21.023 Z34.618
X-46.619 Y-21.081 Z34.642
X-46.744 Y-21.138 Z34.681
X-46.863 Y-21.192 Z34.736
X-46.977 Y-21.244 Z34.805
X-47.083 Y-21.292 Z34.887
X-47.179 Y-21.336 Z34.982
X-47.266 Y-21.375 Z35.088
X-47.341 Y-21.41 Z35.204
X-47.403 Y-21.438 Z35.329
X-47.453 Y-21.461 Z35.461
X-47.489 Y-21.477 Z35.597
X-47.51 Y-21.487 Z35.738
X-47.518 Y-21.49 Z35.88
G0 Z51.6
X-49.284 Y-96.36
Z37.15
G1 Z35.88 F850
X-49.277 Y-96.364 Z35.738
X-49.256 Y-96.377 Z35.597
X-49.223 Y-96.397 Z35.461
X-49.176 Y-96.425 Z35.329
X-49.117 Y-96.46 Z35.204
X-49.046 Y-96.502 Z35.088
X-48.964 Y-96.551 Z34.982
X-48.873 Y-96.605 Z34.887
X-48.773 Y-96.664 Z34.805
X-48.666 Y-96.728 Z34.736
X-48.553 Y-96.795 Z34.681
X-48.435 Y-96.865 Z34.642
X-48.314 Y-96.937 Z34.618
X-48.192 Y-97.009 Z34.61
G3 X-47.714 Y-97.15 I0.514 J0.864
G1 X-43.695
X-43.264 Y-97.128
X-42.88 Y-97.088
X-42.485 Y-97.025
X-42.027 Y-96.926
X-41.52 Y-96.788
X-40.976 Y-96.607
X-40.363 Y-96.365
X-39.699 Y-96.061
X-38.977 Y-95.682
X-38.167 Y-95.198
X-37.286 Y-94.605
X-36.343 Y-93.894
X-35.317 Y-93.028
X-34.339 Y-92.109
X-33.406 Y-91.145
X-32.513 Y-90.142
X-31.66 Y-89.106
X-30.844 Y-88.041
X-30.064 Y-86.949
X-29.318 Y-85.833
X-28.606 Y-84.695
X-27.927 Y-83.537
X-27.282 Y-82.36
X-26.668 Y-81.166
X-26.088 Y-79.957
X-25.539 Y-78.732
X-25.023 Y-77.493
X-24.539 Y-76.241
X-24.087 Y-74.977
X-23.668 Y-73.702
X-23.282 Y-72.417
X-22.928 Y-71.122
X-22.608 Y-69.818
X-22.322 Y-68.507
X-22.07 Y-67.189
X-21.852 Y-65.864
X-21.668 Y-64.535
X-21.518 Y-63.201
X-21.402 Y-61.864
X-21.319 Y-60.525
X-21.271 Y-59.183
X-21.257 Y-57.841
X-21.277 Y-56.499
X-21.33 Y-55.158
X-21.417 Y-53.819
X-21.538 Y-52.482
X-21.692 Y-51.149
X-21.88 Y-49.82
X-22.101 Y-48.496
X-22.355 Y-47.178
X-22.642 Y-45.867
X-22.963 Y-44.564
X-23.317 Y-43.269
X-23.704 Y-41.984
X-24.124 Y-40.709
X-24.576 Y-39.446
X-25.06 Y-38.194
X-25.576 Y-36.955
X-26.123 Y-35.729
X-26.701 Y-34.518
X-27.31 Y-33.322
X-27.948 Y-32.141
X-28.616 Y-30.977
X-29.313 Y-29.83
X-30.038 Y-28.7
X-30.792 Y-27.59
X-31.573 Y-26.498
X-32.381 Y-25.427
X-33.215 Y-24.376
X-34.076 Y-23.346
X-34.965 Y-22.34
X-35.446 Y-21.846
X-35.773 Y-21.553
X-36.135 Y-21.306
X-36.527 Y-21.109
X-36.941 Y-20.966
X-37.371 Y-20.879
X-37.809 Y-20.85
X-41.711
G3 X-42.193 Y-20.964 I0.044 J-1.269
G1 X-42.323 Y-21.023 Z34.618
X-42.451 Y-21.081 Z34.642
X-42.575 Y-21.138 Z34.681
X-42.695 Y-21.192 Z34.736
X-42.808 Y-21.244 Z34.805
X-42.914 Y-21.292 Z34.887
X-43.011 Y-21.336 Z34.982
X-43.097 Y-21.375 Z35.088
X-43.172 Y-21.41 Z35.204
X-43.235 Y-21.438 Z35.329
X-43.284 Y-21.461 Z35.461
X-43.32 Y-21.477 Z35.597
X-43.342 Y-21.487 Z35.738
X-43.349 Y-21.49 Z35.88
G0 Z51.6
X-45.265 Y-96.36
Z37.15
G1 Z35.88 F850
X-45.258 Y-96.364 Z35.738
X-45.237 Y-96.377 Z35.597
X-45.203 Y-96.397 Z35.461
X-45.157 Y-96.425 Z35.329
X-45.097 Y-96.46 Z35.204
X-45.027 Y-96.502 Z35.088
X-44.945 Y-96.551 Z34.982
X-44.854 Y-96.605 Z34.887
X-44.754 Y-96.664 Z34.805
X-44.647 Y-96.728 Z34.736
X-44.534 Y-96.795 Z34.681
X-44.416 Y-96.865 Z34.642
X-44.295 Y-96.937 Z34.618
X-44.173 Y-97.009 Z34.61
G3 X-43.695 Y-97.15 I0.514 J0.864
G1 X-39.885
X-39.495 Y-97.13
X-39.154 Y-97.095
X-38.773 Y-97.034
X-38.337 Y-96.94
X-37.885 Y-96.816
X-37.348 Y-96.637
X-36.809 Y-96.425
X-36.174 Y-96.134
X-35.525 Y-95.793
X-34.792 Y-95.356
X-33.982 Y-94.811
X-33.13 Y-94.168
X-32.198 Y-93.381
X-31.22 Y-92.461
X-30.292 Y-91.492
X-29.409 Y-90.481
X-28.568 Y-89.435
X-27.767 Y-88.358
X-27.003 Y-87.255
X-26.275 Y-86.127
X-25.581 Y-84.978
X-24.922 Y-83.809
X-24.295 Y-82.622
X-23.7 Y-81.419
X-23.138 Y-80.201
X-22.607 Y-78.968
X-22.107 Y-77.722
X-21.639 Y-76.464
X-21.203 Y-75.195
X-21.004 Y-74.567
X-20.919 Y-74.241
X-20.867 Y-73.908
X-20.85 Y-73.571
Y-45.693
X-20.917 Y-44.352
X-20.983 Y-43.684
X-21.138 Y-42.546
X-21.39 Y-41.228
X-21.712 Y-39.925
X-22.093 Y-38.638
X-22.523 Y-37.367
X-22.998 Y-36.111
X-23.512 Y-34.872
X-24.063 Y-33.648
X-24.648 Y-32.44
X-25.266 Y-31.248
X-25.914 Y-30.073
X-26.592 Y-28.915
X-27.299 Y-27.774
X-28.034 Y-26.651
X-28.796 Y-25.546
X-29.585 Y-24.46
X-30.4 Y-23.394
X-31.179 Y-22.444
X-31.758 Y-21.811
X-31.775 Y-21.794
X-32.098 Y-21.516
X-32.455 Y-21.281
X-32.838 Y-21.095
X-33.242 Y-20.96
X-33.661 Y-20.878
X-34.086 Y-20.85
X-37.809
G3 X-38.822 Y-22.822 I0.044 J-1.269
G1 X-23.177 Y-46.351
G3 X-20.85 Y-45.693 I1.058 J0.703
G1 Y-38.088
X-20.901 Y-37.071
X-20.972 Y-36.39
X-21.1 Y-35.588
X-21.295 Y-34.685
X-21.585 Y-33.625
X-21.997 Y-32.388
X-22.489 Y-31.139
X-23.039 Y-29.915
X-23.637 Y-28.714
X-24.278 Y-27.535
X-24.956 Y-26.376
X-25.669 Y-25.239
X-26.414 Y-24.123
X-27.196 Y-23.032
X-27.765 Y-22.316
X-28.082 Y-21.959
X-28.414 Y-21.635
X-28.788 Y-21.36
X-29.197 Y-21.14
X-29.633 Y-20.98
X-30.087 Y-20.883
X-30.55 Y-20.85
X-34.086
G3 X-35.058 Y-22.88 I0.044 J-1.269
G1 X-23.136 Y-38.805
G3 X-20.85 Y-38.088 I1.017 J0.761
G1 Y-32.005
X-20.886 Y-31.29
X-20.942 Y-30.75
X-21.043 Y-30.12
X-21.198 Y-29.405
X-21.419 Y-28.594
X-21.732 Y-27.652
X-22.155 Y-26.579
X-22.699 Y-25.392
X-23.29 Y-24.268
X-23.839 Y-23.347
X-24.279 Y-22.694
X-24.693 Y-22.145
X-24.797 Y-22.022
X-25.131 Y-21.68
X-25.511 Y-21.39
X-25.928 Y-21.157
X-26.375 Y-20.988
X-26.842 Y-20.885
X-27.319 Y-20.85
X-30.55
G3 X-31.472 Y-22.943 I0.044 J-1.269
G1 X-23.086 Y-32.784
G3 X-20.85 Y-32.005 I0.967 J0.824
G1 Y-26.682
X-20.87 Y-26.288
X-20.918 Y-25.826
X-20.993 Y-25.357
X-21.104 Y-24.843
X-21.252 Y-24.304
X-21.416 Y-23.809
X-21.605 Y-23.33
X-21.792 Y-22.922
X-22.002 Y-22.522
X-22.048 Y-22.444
X-22.325 Y-22.049
X-22.657 Y-21.7
X-23.037 Y-21.403
X-23.456 Y-21.165
X-23.905 Y-20.991
X-24.375 Y-20.886
X-24.856 Y-20.85
G3 X-25.903 Y-22.769 I0.044 J-1.269
G1 X-23.21 Y-27.288
G3 X-20.85 Y-26.682 I1.091 J0.65
G1 Y-23.26
X-20.863 Y-22.999
X-20.935 Y-22.615
X-21.069 Y-22.248
X-21.26 Y-21.908
X-21.504 Y-21.603
X-21.794 Y-21.342
X-22.122 Y-21.131
X-22.481 Y-20.976
X-22.86 Y-20.882
X-23.249 Y-20.85
G3 X-24.107 Y-23.013 I0.044 J-1.269
G1 X-23.022 Y-24.109
G3 X-20.85 Y-23.26 I0.903 J0.893
G1 Y-22.12
X-20.865 Y-21.929
X-20.909 Y-21.739
X-20.966 Y-21.592
X-21.046 Y-21.444
X-21.105 Y-21.359
X-21.178 Y-21.271
X-21.266 Y-21.182
X-21.427 Y-21.058
X-21.567 Y-20.979
X-21.688 Y-20.928
X-21.808 Y-20.891
X-21.999 Y-20.858
X-22.189 Y-20.85
X-27.319
G3 X-27.802 Y-20.964 I0.044 J-1.269
G1 X-27.931 Y-21.023 Z34.618
X-28.059 Y-21.081 Z34.642
X-28.183 Y-21.138 Z34.681
X-28.303 Y-21.192 Z34.736
X-28.416 Y-21.244 Z34.805
X-28.522 Y-21.292 Z34.887
X-28.619 Y-21.336 Z34.982
X-28.705 Y-21.375 Z35.088
X-28.78 Y-21.41 Z35.204
X-28.843 Y-21.438 Z35.329
X-28.892 Y-21.461 Z35.461
X-28.928 Y-21.477 Z35.597
X-28.95 Y-21.487 Z35.738
X-28.957 Y-21.49 Z35.88
G0 Z51.6
X-41.455 Y-96.36
Z37.15
G1 Z35.88 F850
X-41.448 Y-96.364 Z35.738
X-41.428 Y-96.377 Z35.597
X-41.394 Y-96.397 Z35.461
X-41.347 Y-96.425 Z35.329
X-41.288 Y-96.46 Z35.204
X-41.217 Y-96.502 Z35.088
X-41.135 Y-96.551 Z34.982
X-41.044 Y-96.605 Z34.887
X-40.944 Y-96.664 Z34.805
X-40.837 Y-96.728 Z34.736
X-40.724 Y-96.795 Z34.681
X-40.606 Y-96.865 Z34.642
X-40.486 Y-96.937 Z34.618
X-40.363 Y-97.009 Z34.61
G3 X-39.885 Y-97.15 I0.514 J0.864
G1 X-36.285
X-35.9 Y-97.131
X-35.582 Y-97.097
X-35.202 Y-97.037
X-34.815 Y-96.953
X-34.363 Y-96.83
X-33.884 Y-96.67
X-33.353 Y-96.461
X-32.775 Y-96.196
X-32.143 Y-95.864
X-31.473 Y-95.465
X-30.722 Y-94.959
X-29.921 Y-94.354
X-29.066 Y-93.633
X-28.131 Y-92.754
X-27.205 Y-91.782
X-26.328 Y-90.766
X-25.496 Y-89.713
X-24.706 Y-88.628
X-23.956 Y-87.515
X-23.243 Y-86.378
X-22.565 Y-85.22
X-21.921 Y-84.042
X-21.311 Y-82.847
X-21.172 Y-82.555
X-20.994 Y-82.099
X-20.886 Y-81.622
X-20.85 Y-81.134
Y-73.571
G3 X-23.192 Y-72.935 I-1.269 J-0.044
G1 X-37.313 Y-95.201
G3 X-36.767 Y-97.036 I1.072 J-0.68
X-36.285 Y-97.15 I0.527 J1.156
G1 X-32.856
X-32.441 Y-97.129
X-32.123 Y-97.096
X-31.767 Y-97.039
X-31.39 Y-96.957
X-30.95 Y-96.837
X-30.505 Y-96.689
X-29.977 Y-96.481
X-29.45 Y-96.24
X-28.831 Y-95.914
X-28.208 Y-95.543
X-27.504 Y-95.069
X-26.738 Y-94.491
X-25.939 Y-93.817
X-25.066 Y-92.996
X-24.14 Y-92.025
X-23.267 Y-91.005
X-22.442 Y-89.947
X-21.661 Y-88.855
X-21.396 Y-88.454
X-21.161 Y-88.034
X-20.989 Y-87.585
X-20.885 Y-87.115
X-20.85 Y-86.635
Y-81.134
G3 X-23.146 Y-80.431 I-1.269 J-0.044
G1 X-33.839 Y-95.134
G3 X-33.339 Y-97.036 I1.027 J-0.747
X-32.856 Y-97.15 I0.527 J1.156
G1 X-29.428
X-29.082 Y-97.133
X-28.764 Y-97.099
X-28.431 Y-97.046
X-28.053 Y-96.965
X-27.643 Y-96.853
X-27.199 Y-96.705
X-26.704 Y-96.51
X-26.184 Y-96.272
X-25.598 Y-95.964
X-24.988 Y-95.599
X-24.323 Y-95.152
X-23.589 Y-94.598
X-22.828 Y-93.956
X-22.041 Y-93.215
X-21.762 Y-92.923
X-21.444 Y-92.534
X-21.189 Y-92.102
X-21.002 Y-91.635
X-20.888 Y-91.146
X-20.85 Y-90.645
Y-86.635
G3 X-23.116 Y-85.893 I-1.269 J-0.044
G1 X-30.38 Y-95.094
G3 X-29.91 Y-97.036 I0.997 J-0.787
X-29.428 Y-97.15 I0.527 J1.156
G1 X-26.17
X-25.789 Y-97.131
X-25.476 Y-97.098
X-25.156 Y-97.047
X-24.779 Y-96.966
X-24.392 Y-96.86
X-23.948 Y-96.712
X-23.49 Y-96.532
X-23.053 Y-96.331
X-22.619 Y-96.103
X-22.42 Y-95.985
X-22.032 Y-95.712
X-21.687 Y-95.385
X-21.395 Y-95.011
X-21.16 Y-94.598
X-20.989 Y-94.156
X-20.885 Y-93.692
X-20.85 Y-93.219
G3 X-22.814 Y-92.2 I-1.269 J-0.044
G1 X-26.821 Y-94.818
G3 X-26.17 Y-97.15 I0.695 J-1.063
G1 X-23.123
X-22.948 Y-97.141
X-22.573 Y-97.071
X-22.215 Y-96.941
X-21.883 Y-96.754
X-21.585 Y-96.516
X-21.33 Y-96.233
X-21.124 Y-95.912
X-20.973 Y-95.562
X-20.881 Y-95.193
X-20.85 Y-94.813
G3 X-23.671 Y-92.774 I-2.203 J-0.077
X-23.123 Y-97.15 I0.626 J-2.144
G1 X-22.189
X-21.999 Y-97.142
X-21.808 Y-97.109
X-21.688 Y-97.072
X-21.567 Y-97.021
X-21.427 Y-96.942
X-21.266 Y-96.818
X-21.178 Y-96.729
X-21.105 Y-96.641
X-21.046 Y-96.556
X-20.966 Y-96.408
X-20.909 Y-96.261
X-20.865 Y-96.071
X-20.85 Y-95.88
Y-90.645
G3 X-20.964 Y-90.163 I-1.269 J-0.044
G1 X-21.023 Y-90.034 Z34.618
X-21.081 Y-89.906 Z34.642
X-21.138 Y-89.781 Z34.681
X-21.192 Y-89.662 Z34.736
X-21.244 Y-89.548 Z34.805
X-21.292 Y-89.443 Z34.887
X-21.336 Y-89.346 Z34.982
X-21.375 Y-89.26 Z35.088
X-21.41 Y-89.185 Z35.204
X-21.438 Y-89.122 Z35.329
X-21.461 Y-89.072 Z35.461
X-21.477 Y-89.036 Z35.597
X-21.487 Y-89.015 Z35.738
X-21.49 Y-89.007 Z35.88
G0 Z51.6
X-81.954 Y-21.64
Z37.15
G1 Z35.88 F850
X-81.961 Y-21.636 Z35.738
X-81.981 Y-21.623 Z35.597
X-82.015 Y-21.603 Z35.461
X-82.062 Y-21.575 Z35.329
X-82.121 Y-21.54 Z35.204
X-82.192 Y-21.498 Z35.088
X-82.274 Y-21.449 Z34.982
X-82.365 Y-21.395 Z34.887
X-82.465 Y-21.336 Z34.805
X-82.572 Y-21.272 Z34.736
X-82.685 Y-21.205 Z34.681
X-82.803 Y-21.135 Z34.642
X-82.923 Y-21.063 Z34.618
X-83.046 Y-20.991 Z34.61
G3 X-83.524 Y-20.85 I-0.514 J-0.864
G1 X-90.381
X-90.927 Y-20.877
X-91.467 Y-20.934
X-92.113 Y-21.037
X-92.801 Y-21.186
X-93.605 Y-21.405
X-94.511 Y-21.707
X-95.492 Y-22.093
X-96.593 Y-22.598
X-97.782 Y-23.222
X-98.935 Y-23.909
X-100.055 Y-24.648
X-101.142 Y-25.435
X-102.198 Y-26.265
X-103.221 Y-27.133
X-104.213 Y-28.037
X-105.173 Y-28.975
X-106.101 Y-29.945
X-106.996 Y-30.944
X-107.859 Y-31.973
X-108.688 Y-33.028
X-109.484 Y-34.109
X-110.245 Y-35.214
X-110.97 Y-36.344
X-111.659 Y-37.495
X-112.311 Y-38.669
X-112.926 Y-39.862
X-113.503 Y-41.073
X-114.042 Y-42.302
X-114.543 Y-43.548
X-115.004 Y-44.808
X-115.427 Y-46.082
X-115.809 Y-47.369
X-116.152 Y-48.666
X-116.455 Y-49.974
X-116.717 Y-51.29
X-116.939 Y-52.614
X-117.12 Y-53.944
X-117.259 Y-55.279
X-117.356 Y-56.617
X-117.412 Y-57.958
X-117.425 Y-59.3
X-117.397 Y-60.642
X-117.327 Y-61.982
X-117.215 Y-63.32
X-117.062 Y-64.653
X-116.868 Y-65.981
X-116.632 Y-67.303
X-116.357 Y-68.616
X-116.041 Y-69.921
X-115.685 Y-71.215
X-115.29 Y-72.497
X-114.855 Y-73.767
X-114.382 Y-75.023
X-113.87 Y-76.264
X-113.319 Y-77.488
X-112.73 Y-78.694
X-112.104 Y-79.881
X-111.441 Y-81.048
X-110.742 Y-82.194
X-110.009 Y-83.318
X-109.241 Y-84.418
X-108.439 Y-85.495
X-107.604 Y-86.546
X-106.738 Y-87.571
X-105.84 Y-88.569
X-104.913 Y-89.539
X-103.956 Y-90.48
X-102.97 Y-91.391
X-101.957 Y-92.272
X-100.918 Y-93.12
X-99.852 Y-93.936
X-98.761 Y-94.718
X-97.646 Y-95.465
X-96.509 Y-96.178
X-95.617 Y-96.699
X-95.227 Y-96.894
X-94.814 Y-97.035
X-94.387 Y-97.121
X-93.952 Y-97.15
X-87.553
G3 X-87.071 Y-97.036 I-0.044 J1.269
G1 X-86.941 Y-96.977 Z34.618
X-86.813 Y-96.919 Z34.642
X-86.689 Y-96.862 Z34.681
X-86.569 Y-96.808 Z34.736
X-86.456 Y-96.756 Z34.805
X-86.35 Y-96.708 Z34.887
X-86.253 Y-96.664 Z34.982
X-86.167 Y-96.625 Z35.088
X-86.092 Y-96.59 Z35.204
X-86.029 Y-96.562 Z35.329
X-85.98 Y-96.539 Z35.461
X-85.944 Y-96.523 Z35.597
X-85.922 Y-96.513 Z35.738
X-85.915 Y-96.51 Z35.88
G0 Z51.6
X-88.811 Y-21.64
Z37.15
G1 Z35.88 F850
X-88.818 Y-21.636 Z35.738
X-88.839 Y-21.623 Z35.597
X-88.872 Y-21.603 Z35.461
X-88.919 Y-21.575 Z35.329
X-88.979 Y-21.54 Z35.204
X-89.049 Y-21.498 Z35.088
X-89.131 Y-21.449 Z34.982
X-89.222 Y-21.395 Z34.887
X-89.322 Y-21.336 Z34.805
X-89.429 Y-21.272 Z34.736
X-89.542 Y-21.205 Z34.681
X-89.66 Y-21.135 Z34.642
X-89.781 Y-21.063 Z34.618
X-89.903 Y-20.991 Z34.61
G3 X-90.381 Y-20.85 I-0.514 J-0.864
G1 X-95.334
X-95.89 Y-20.878
X-96.357 Y-20.927
X-96.847 Y-21.005
X-97.424 Y-21.13
X-98.042 Y-21.299
X-98.764 Y-21.539
X-99.528 Y-21.84
X-100.394 Y-22.237
X-101.361 Y-22.745
X-102.423 Y-23.378
X-103.536 Y-24.128
X-104.609 Y-24.934
X-105.644 Y-25.789
X-106.642 Y-26.686
X-107.605 Y-27.621
X-108.533 Y-28.59
X-109.427 Y-29.591
X-110.287 Y-30.622
X-111.114 Y-31.679
X-111.906 Y-32.763
X-112.664 Y-33.871
X-113.387 Y-35.001
X-114.076 Y-36.153
X-114.73 Y-37.325
X-115.348 Y-38.516
X-115.931 Y-39.725
X-116.478 Y-40.951
X-116.989 Y-42.192
X-117.464 Y-43.447
X-117.901 Y-44.716
X-118.302 Y-45.997
X-118.665 Y-47.289
X-118.991 Y-48.591
X-119.278 Y-49.902
X-119.527 Y-51.221
X-119.737 Y-52.547
X-119.908 Y-53.878
X-120.04 Y-55.214
X-120.133 Y-56.553
X-120.186 Y-57.894
X-120.2 Y-59.236
X-120.175 Y-60.578
X-120.111 Y-61.918
X-120.008 Y-63.256
X-119.866 Y-64.591
X-119.686 Y-65.921
X-119.468 Y-67.245
X-119.211 Y-68.563
X-118.916 Y-69.872
X-118.584 Y-71.172
X-118.214 Y-72.463
X-117.806 Y-73.741
X-117.361 Y-75.008
X-116.879 Y-76.26
X-116.361 Y-77.498
X-115.807 Y-78.721
X-115.217 Y-79.926
X-114.592 Y-81.114
X-113.933 Y-82.283
X-113.241 Y-83.433
X-112.515 Y-84.562
X-111.757 Y-85.67
X-110.968 Y-86.755
X-110.147 Y-87.817
X-109.296 Y-88.855
X-108.416 Y-89.868
X-107.506 Y-90.855
X-106.568 Y-91.816
X-105.603 Y-92.748
X-104.611 Y-93.651
X-103.592 Y-94.526
X-102.549 Y-95.37
X-101.481 Y-96.183
X-100.994 Y-96.532
X-100.647 Y-96.75
X-100.275 Y-96.923
X-99.884 Y-97.048
X-99.481 Y-97.125
X-99.072 Y-97.15
X-93.952
G3 X-93.47 Y-97.036 I-0.044 J1.269
G1 X-93.34 Y-96.977 Z34.618
X-93.213 Y-96.919 Z34.642
X-93.088 Y-96.862 Z34.681
X-92.968 Y-96.808 Z34.736
X-92.855 Y-96.756 Z34.805
X-92.749 Y-96.708 Z34.887
X-92.652 Y-96.664 Z34.982
X-92.566 Y-96.625 Z35.088
X-92.491 Y-96.59 Z35.204
X-92.428 Y-96.562 Z35.329
X-92.379 Y-96.539 Z35.461
X-92.343 Y-96.523 Z35.597
X-92.321 Y-96.513 Z35.738
X-92.314 Y-96.51 Z35.88
G0 Z51.6
X-93.764 Y-21.64
Z37.15
G1 Z35.88 F850
X-93.771 Y-21.636 Z35.738
X-93.791 Y-21.623 Z35.597
X-93.825 Y-21.603 Z35.461
X-93.872 Y-21.575 Z35.329
X-93.931 Y-21.54 Z35.204
X-94.002 Y-21.498 Z35.088
X-94.083 Y-21.449 Z34.982
X-94.175 Y-21.395 Z34.887
X-94.275 Y-21.336 Z34.805
X-94.382 Y-21.272 Z34.736
X-94.495 Y-21.205 Z34.681
X-94.612 Y-21.135 Z34.642
X-94.733 Y-21.063 Z34.618
X-94.855 Y-20.991 Z34.61
G3 X-95.334 Y-20.85 I-0.514 J-0.864
G1 X-99.734
X-100.247 Y-20.876
X-100.631 Y-20.916
X-101.093 Y-20.99
X-101.576 Y-21.094
X-102.131 Y-21.246
X-102.731 Y-21.445
X-103.417 Y-21.716
X-104.138 Y-22.046
X-104.958 Y-22.477
X-105.866 Y-23.019
X-106.851 Y-23.682
X-107.918 Y-24.487
X-108.944 Y-25.352
X-109.927 Y-26.266
X-110.87 Y-27.221
X-111.775 Y-28.212
X-112.643 Y-29.236
X-113.475 Y-30.289
X-114.272 Y-31.369
X-115.035 Y-32.473
X-115.763 Y-33.601
X-116.457 Y-34.75
X-117.116 Y-35.918
X-117.742 Y-37.106
X-118.334 Y-38.31
X-118.891 Y-39.531
X-119.414 Y-40.767
X-119.903 Y-42.017
X-120.356 Y-43.281
X-120.775 Y-44.556
X-121.158 Y-45.842
X-121.506 Y-47.138
X-121.818 Y-48.444
X-122.093 Y-49.757
X-122.331 Y-51.078
X-122.533 Y-52.405
X-122.697 Y-53.737
X-122.825 Y-55.073
X-122.916 Y-56.412
X-122.97 Y-57.753
X-122.987 Y-59.095
X-122.967 Y-60.437
X-122.911 Y-61.778
X-122.818 Y-63.117
X-122.689 Y-64.453
X-122.523 Y-65.785
X-122.321 Y-67.112
X-122.083 Y-68.433
X-121.809 Y-69.747
X-121.499 Y-71.053
X-121.154 Y-72.35
X-120.772 Y-73.636
X-120.355 Y-74.912
X-119.903 Y-76.176
X-119.416 Y-77.426
X-118.894 Y-78.663
X-118.339 Y-79.885
X-117.751 Y-81.091
X-117.13 Y-82.281
X-116.477 Y-83.454
X-115.791 Y-84.608
X-115.075 Y-85.743
X-114.328 Y-86.858
X-113.551 Y-87.952
X-112.745 Y-89.025
X-111.909 Y-90.076
X-111.046 Y-91.103
X-110.154 Y-92.106
X-109.235 Y-93.085
X-108.29 Y-94.037
X-107.318 Y-94.963
X-106.321 Y-95.861
X-105.727 Y-96.366
X-105.353 Y-96.641
X-104.944 Y-96.86
X-104.508 Y-97.02
X-104.054 Y-97.117
X-103.591 Y-97.15
X-99.072
G3 X-98.59 Y-97.036 I-0.044 J1.269
G1 X-98.46 Y-96.977 Z34.618
X-98.332 Y-96.919 Z34.642
X-98.208 Y-96.862 Z34.681
X-98.088 Y-96.808 Z34.736
X-97.975 Y-96.756 Z34.805
X-97.869 Y-96.708 Z34.887
X-97.772 Y-96.664 Z34.982
X-97.686 Y-96.625 Z35.088
X-97.611 Y-96.59 Z35.204
X-97.548 Y-96.562 Z35.329
X-97.499 Y-96.539 Z35.461
X-97.463 Y-96.523 Z35.597
X-97.441 Y-96.513 Z35.738
X-97.434 Y-96.51 Z35.88
G0 Z51.6
X-98.164 Y-21.64
Z37.15
G1 Z35.88 F850
X-98.171 Y-21.636 Z35.738
X-98.191 Y-21.623 Z35.597
X-98.225 Y-21.603 Z35.461
X-98.272 Y-21.575 Z35.329
X-98.331 Y-21.54 Z35.204
X-98.402 Y-21.498 Z35.088
X-98.484 Y-21.449 Z34.982
X-98.575 Y-21.395 Z34.887
X-98.675 Y-21.336 Z34.805
X-98.782 Y-21.272 Z34.736
X-98.895 Y-21.205 Z34.681
X-99.012 Y-21.135 Z34.642
X-99.133 Y-21.063 Z34.618
X-99.255 Y-20.991 Z34.61
G3 X-99.734 Y-20.85 I-0.514 J-0.864
G1 X-103.715
X-104.224 Y-20.875
X-104.607 Y-20.916
X-105 Y-20.978
X-105.458 Y-21.077
X-105.962 Y-21.215
X-106.504 Y-21.395
X-107.113 Y-21.636
X-107.774 Y-21.938
X-108.49 Y-22.314
X-109.293 Y-22.794
X-110.163 Y-23.379
X-111.092 Y-24.08
X-112.11 Y-24.938
X-113.087 Y-25.858
X-114.019 Y-26.824
X-114.909 Y-27.828
X-115.76 Y-28.867
X-116.572 Y-29.935
X-117.348 Y-31.031
X-118.088 Y-32.15
X-118.793 Y-33.292
X-119.464 Y-34.454
X-120.101 Y-35.636
X-120.705 Y-36.834
X-121.276 Y-38.049
X-121.813 Y-39.279
X-122.317 Y-40.523
X-122.788 Y-41.78
X-123.225 Y-43.049
X-123.629 Y-44.329
X-123.998 Y-45.619
X-124.334 Y-46.919
X-124.634 Y-48.227
X-124.9 Y-49.542
X-125.131 Y-50.864
X-125.327 Y-52.192
X-125.488 Y-53.525
X-125.615 Y-54.861
X-125.706 Y-56.2
X-125.763 Y-57.541
X-125.784 Y-58.883
X-125.772 Y-60.225
X-125.724 Y-61.566
X-125.642 Y-62.906
X-125.525 Y-64.243
X-125.374 Y-65.576
X-125.189 Y-66.906
X-124.97 Y-68.23
X-124.716 Y-69.548
X-124.428 Y-70.859
X-124.106 Y-72.162
X-123.75 Y-73.456
X-123.36 Y-74.74
X-122.936 Y-76.013
X-122.479 Y-77.276
X-121.99 Y-78.525
X-121.468 Y-79.762
X-120.915 Y-80.985
X-120.329 Y-82.192
X-119.713 Y-83.385
X-119.067 Y-84.561
X-118.39 Y-85.72
X-117.684 Y-86.861
X-116.948 Y-87.984
X-116.184 Y-89.088
X-115.392 Y-90.171
X-114.573 Y-91.234
X-113.726 Y-92.275
X-112.852 Y-93.294
X-111.951 Y-94.289
X-111.025 Y-95.26
X-110.086 Y-96.191
X-109.943 Y-96.317
X-109.563 Y-96.609
X-109.145 Y-96.842
X-108.697 Y-97.012
X-108.23 Y-97.115
X-107.752 Y-97.15
X-103.591
G3 X-103.109 Y-97.036 I-0.044 J1.269
G1 X-102.98 Y-96.977 Z34.618
X-102.852 Y-96.919 Z34.642
X-102.727 Y-96.862 Z34.681
X-102.608 Y-96.808 Z34.736
X-102.494 Y-96.756 Z34.805
X-102.388 Y-96.708 Z34.887
X-102.292 Y-96.664 Z34.982
X-102.206 Y-96.625 Z35.088
X-102.131 Y-96.59 Z35.204
X-102.068 Y-96.562 Z35.329
X-102.018 Y-96.539 Z35.461
X-101.982 Y-96.523 Z35.597
X-101.961 Y-96.513 Z35.738
X-101.953 Y-96.51 Z35.88
G0 Z51.6
X-102.145 Y-21.64
Z37.15
G1 Z35.88 F850
X-102.152 Y-21.636 Z35.738
X-102.172 Y-21.623 Z35.597
X-102.206 Y-21.603 Z35.461
X-102.253 Y-21.575 Z35.329
X-102.312 Y-21.54 Z35.204
X-102.383 Y-21.498 Z35.088
X-102.465 Y-21.449 Z34.982
X-102.556 Y-21.395 Z34.887
X-102.656 Y-21.336 Z34.805
X-102.763 Y-21.272 Z34.736
X-102.876 Y-21.205 Z34.681
X-102.994 Y-21.135 Z34.642
X-103.114 Y-21.063 Z34.618
X-103.236 Y-20.991 Z34.61
G3 X-103.715 Y-20.85 I-0.514 J-0.864
G1 X-107.525
X-107.982 Y-20.873
X-108.32 Y-20.908
X-108.701 Y-20.969
X-109.132 Y-21.062
X-109.583 Y-21.186
X-110.117 Y-21.363
X-110.652 Y-21.574
X-111.282 Y-21.862
X-111.925 Y-22.201
X-112.651 Y-22.634
X-113.451 Y-23.172
X-114.291 Y-23.806
X-115.208 Y-24.58
X-116.186 Y-25.5
X-117.113 Y-26.47
X-117.994 Y-27.483
X-118.832 Y-28.531
X-119.63 Y-29.611
X-120.389 Y-30.717
X-121.111 Y-31.848
X-121.798 Y-33.002
X-122.451 Y-34.174
X-123.069 Y-35.365
X-123.655 Y-36.573
X-124.207 Y-37.796
X-124.727 Y-39.034
X-125.215 Y-40.284
X-125.67 Y-41.547
X-126.093 Y-42.821
X-126.483 Y-44.105
X-126.841 Y-45.398
X-127.052 Y-46.248
X-127.106 Y-46.511
X-127.139 Y-46.777
X-127.15 Y-47.045
Y-67.365
X-127.083 Y-68.705
X-127.043 Y-69.375
X-126.929 Y-70.646
X-126.737 Y-71.974
X-126.481 Y-73.292
X-126.171 Y-74.597
X-125.813 Y-75.891
X-125.413 Y-77.172
X-124.972 Y-78.44
X-124.495 Y-79.694
X-123.982 Y-80.934
X-123.436 Y-82.161
X-122.858 Y-83.372
X-122.249 Y-84.568
X-121.61 Y-85.748
X-120.941 Y-86.912
X-120.243 Y-88.058
X-119.517 Y-89.187
X-118.764 Y-90.298
X-117.984 Y-91.39
X-117.176 Y-92.462
X-116.343 Y-93.514
X-115.484 Y-94.545
X-114.598 Y-95.554
X-113.943 Y-96.235
X-113.912 Y-96.264
X-113.525 Y-96.573
X-113.097 Y-96.821
X-112.637 Y-97.003
X-112.155 Y-97.113
X-111.662 Y-97.15
X-107.752
G3 X-106.724 Y-95.2 I-0.044 J1.269
G1 X-124.809 Y-66.728
G3 X-127.036 Y-66.882 I-1.072 J-0.681
X-127.15 Y-67.365 I1.156 J-0.527
G1 Y-76.49
X-127.094 Y-77.613
X-127.016 Y-78.36
X-126.874 Y-79.245
X-126.651 Y-80.279
X-126.323 Y-81.479
X-125.899 Y-82.752
X-125.413 Y-84.003
X-124.875 Y-85.233
X-124.292 Y-86.442
X-123.669 Y-87.631
X-123.011 Y-88.8
X-122.319 Y-89.95
X-121.596 Y-91.081
X-120.843 Y-92.192
X-120.063 Y-93.284
X-119.254 Y-94.356
X-118.415 Y-95.403
X-117.837 Y-96.052
X-117.714 Y-96.176
X-117.389 Y-96.463
X-117.029 Y-96.704
X-116.641 Y-96.897
X-116.231 Y-97.037
X-115.806 Y-97.122
X-115.373 Y-97.15
X-111.662
G3 X-111.179 Y-97.036 I-0.044 J1.269
X-110.682 Y-95.13 I-0.527 J1.156
G1 X-124.856 Y-75.783
G3 X-127.036 Y-76.007 I-1.024 J-0.751
X-127.15 Y-76.49 I1.156 J-0.527
G1 Y-82.953
X-127.11 Y-83.744
X-127.051 Y-84.315
X-126.944 Y-84.985
X-126.777 Y-85.754
X-126.54 Y-86.622
X-126.203 Y-87.635
X-125.743 Y-88.803
X-125.184 Y-90.023
X-124.566 Y-91.214
X-123.899 Y-92.379
X-123.189 Y-93.518
X-122.437 Y-94.63
X-121.84 Y-95.43
X-121.347 Y-96.02
X-121.273 Y-96.099
X-120.944 Y-96.408
X-120.576 Y-96.668
X-120.175 Y-96.876
X-119.75 Y-97.027
X-119.309 Y-97.119
X-118.859 Y-97.15
X-115.373
G3 X-114.891 Y-97.036 I-0.044 J1.269
X-114.432 Y-95.08 I-0.527 J1.156
G1 X-124.895 Y-82.197
G3 X-127.036 Y-82.471 I-0.986 J-0.801
X-127.15 Y-82.953 I1.156 J-0.527
G1 Y-88.276
X-127.114 Y-88.991
X-127.062 Y-89.487
X-126.973 Y-90.044
X-126.835 Y-90.684
X-126.643 Y-91.388
X-126.372 Y-92.202
X-126.038 Y-93.049
X-125.655 Y-93.885
X-125.286 Y-94.587
X-124.93 Y-95.183
X-124.597 Y-95.678
X-124.477 Y-95.838
X-124.192 Y-96.167
X-123.867 Y-96.457
X-123.506 Y-96.7
X-123.116 Y-96.894
X-122.704 Y-97.036
X-122.277 Y-97.121
X-121.843 Y-97.15
X-118.859
G3 X-118.376 Y-97.036 I-0.044 J1.269
X-117.97 Y-95.019 I-0.527 J1.156
G1 X-124.948 Y-87.459
G3 X-127.036 Y-87.794 I-0.933 J-0.861
X-127.15 Y-88.276 I1.156 J-0.527
G1 Y-93.048
X-127.129 Y-93.459
X-127.094 Y-93.801
X-127.041 Y-94.131
X-126.966 Y-94.476
X-126.882 Y-94.784
X-126.777 Y-95.101
X-126.662 Y-95.392
X-126.456 Y-95.769
X-126.198 Y-96.112
X-125.894 Y-96.416
X-125.55 Y-96.673
X-125.173 Y-96.878
X-124.771 Y-97.028
X-124.351 Y-97.119
X-123.923 Y-97.15
G3 X-123.44 Y-97.036 I-0.044 J1.269
X-122.92 Y-95.162 I-0.527 J1.156
G1 X-124.834 Y-92.374
G3 X-127.15 Y-93.048 I-1.047 J-0.719
G1 Y-95.5
X-127.143 Y-95.65
X-127.064 Y-95.994
X-126.916 Y-96.314
X-126.706 Y-96.597
X-126.442 Y-96.831
X-126.135 Y-97.006
X-125.8 Y-97.114
X-125.449 Y-97.15
G3 X-123.969 Y-95.097 I-0.056 J1.6
X-127.057 Y-95.012 I-1.558 J-0.46
X-127.15 Y-95.5 I1.53 J-0.545
G1 Y-95.88
X-127.135 Y-96.071
X-127.091 Y-96.261
X-127.034 Y-96.408
X-126.954 Y-96.556
X-126.895 Y-96.641
X-126.822 Y-96.729
X-126.734 Y-96.818
X-126.573 Y-96.942
X-126.433 Y-97.021
X-126.312 Y-97.072
X-126.192 Y-97.109
X-126.001 Y-97.142
X-125.811 Y-97.15
X-121.843
G3 X-121.36 Y-97.036 I-0.044 J1.269
G1 X-121.231 Y-96.977 Z34.618
X-121.103 Y-96.919 Z34.642
X-120.979 Y-96.862 Z34.681
X-120.859 Y-96.808 Z34.736
X-120.746 Y-96.756 Z34.805
X-120.64 Y-96.708 Z34.887
X-120.543 Y-96.664 Z34.982
X-120.457 Y-96.625 Z35.088
X-120.382 Y-96.59 Z35.204
X-120.319 Y-96.562 Z35.329
X-120.27 Y-96.539 Z35.461
X-120.234 Y-96.523 Z35.597
X-120.212 Y-96.513 Z35.738
X-120.205 Y-96.51 Z35.88
G0 Z51.6
X-105.954 Y-21.64
Z37.15
G1 Z35.88 F850
X-105.961 Y-21.636 Z35.738
X-105.982 Y-21.623 Z35.597
X-106.016 Y-21.603 Z35.461
X-106.063 Y-21.575 Z35.329
X-106.122 Y-21.54 Z35.204
X-106.193 Y-21.498 Z35.088
X-106.274 Y-21.449 Z34.982
X-106.365 Y-21.395 Z34.887
X-106.465 Y-21.336 Z34.805
X-106.572 Y-21.272 Z34.736
X-106.686 Y-21.205 Z34.681
X-106.803 Y-21.135 Z34.642
X-106.924 Y-21.063 Z34.618
X-107.046 Y-20.991 Z34.61
G3 X-107.525 Y-20.85 I-0.514 J-0.864
G1 X-111.163
X-111.557 Y-20.87
X-111.875 Y-20.903
X-112.253 Y-20.963
X-112.637 Y-21.046
X-113.088 Y-21.17
X-113.56 Y-21.327
X-114.092 Y-21.536
X-114.662 Y-21.797
X-115.291 Y-22.128
X-115.952 Y-22.522
X-116.694 Y-23.022
X-117.485 Y-23.619
X-118.327 Y-24.329
X-119.245 Y-25.192
X-120.171 Y-26.164
X-121.047 Y-27.181
X-121.876 Y-28.236
X-122.663 Y-29.323
X-123.409 Y-30.439
X-124.118 Y-31.579
X-124.79 Y-32.74
X-125.427 Y-33.922
X-126.029 Y-35.121
X-126.599 Y-36.336
X-126.874 Y-36.967
X-127.027 Y-37.393
X-127.119 Y-37.836
X-127.15 Y-38.287
Y-47.045
G3 X-127.036 Y-47.528 I1.269 J0.044
X-124.787 Y-47.646 I1.156 J0.527
G1 X-110.113 Y-22.764
G3 X-111.163 Y-20.85 I-1.094 J0.645
G1 X-114.591
X-115 Y-20.87
X-115.318 Y-20.904
X-115.669 Y-20.96
X-116.047 Y-21.041
X-116.481 Y-21.16
X-116.925 Y-21.308
X-117.448 Y-21.514
X-117.971 Y-21.754
X-118.584 Y-22.076
X-119.202 Y-22.445
X-119.897 Y-22.912
X-120.655 Y-23.484
X-121.441 Y-24.147
X-122.298 Y-24.954
X-123.224 Y-25.924
X-124.096 Y-26.945
X-124.919 Y-28.005
X-125.696 Y-29.099
X-126.432 Y-30.221
X-126.672 Y-30.617
X-126.878 Y-31.016
X-127.028 Y-31.44
X-127.119 Y-31.88
X-127.15 Y-32.328
Y-38.287
G3 X-127.036 Y-38.77 I1.269 J0.044
X-124.839 Y-38.97 I1.156 J0.527
G1 X-113.594 Y-22.846
G3 X-114.591 Y-20.85 I-1.042 J0.726
G1 X-118.02
X-118.343 Y-20.866
X-118.66 Y-20.899
X-118.99 Y-20.952
X-119.367 Y-21.034
X-119.771 Y-21.144
X-120.215 Y-21.292
X-120.702 Y-21.484
X-121.222 Y-21.722
X-121.8 Y-22.025
X-122.407 Y-22.388
X-123.063 Y-22.829
X-123.789 Y-23.377
X-124.539 Y-24.009
X-125.35 Y-24.772
X-126.202 Y-25.666
X-126.358 Y-25.849
X-126.636 Y-26.224
X-126.857 Y-26.635
X-127.019 Y-27.072
X-127.117 Y-27.528
X-127.15 Y-27.994
Y-32.328
G3 X-124.874 Y-33.058 I1.269 J0.044
G1 X-117.058 Y-22.893
G3 X-118.02 Y-20.85 I-1.007 J0.774
G1 X-121.239
X-121.622 Y-20.869
X-121.933 Y-20.902
X-122.251 Y-20.953
X-122.627 Y-21.034
X-123.009 Y-21.138
X-123.453 Y-21.286
X-123.909 Y-21.466
X-124.429 Y-21.704
X-124.957 Y-21.981
X-125.43 Y-22.263
X-125.706 Y-22.449
X-126.066 Y-22.73
X-126.384 Y-23.058
X-126.652 Y-23.427
X-126.867 Y-23.83
X-127.023 Y-24.259
X-127.118 Y-24.706
X-127.15 Y-25.161
G3 X-125.187 Y-26.181 I1.269 J0.044
G1 X-120.59 Y-23.183
G3 X-121.239 Y-20.85 I-0.694 J1.064
G1 X-124.496
X-124.686 Y-20.86
X-124.879 Y-20.88
X-125.095 Y-20.914
X-125.302 Y-20.959
X-125.686 Y-21.098
X-126.042 Y-21.298
X-126.362 Y-21.554
X-126.635 Y-21.857
X-126.856 Y-22.201
X-127.018 Y-22.576
X-127.117 Y-22.973
X-127.15 Y-23.38
G3 X-127.036 Y-23.863 I1.269 J0.044
X-125.027 Y-24.276 I1.156 J0.527
G1 X-123.687 Y-23.059
G3 X-124.496 Y-20.85 I-0.854 J0.94
G1 X-125.811
X-126.001 Y-20.858
X-126.192 Y-20.891
X-126.312 Y-20.928
X-126.433 Y-20.979
X-126.573 Y-21.058
X-126.734 Y-21.182
X-126.822 Y-21.271
X-126.895 Y-21.359
X-126.954 Y-21.444
X-127.034 Y-21.592
X-127.091 Y-21.739
X-127.135 Y-21.929
X-127.15 Y-22.12
Y-27.994
X-127.136 Y-28.078 Z34.618
X-127.123 Y-28.16 Z34.64
X-127.111 Y-28.237 Z34.676
X-127.099 Y-28.307 Z34.725
X-127.078 Y-28.365 Z34.786
X-127.06 Y-28.413 Z34.858
X-127.047 Y-28.448 Z34.937
X-127.039 Y-28.469 Z35.021
X-127.036 Y-28.476 Z35.109
G0 Z51.6
X-68.295 Y-57.039
Z38.38
G1 Z37.11 F850
G3 X-79.705 Y-60.961 Z36.448 I-5.705 J-1.961 F283.3
X-68.295 Y-57.039 Z35.786 I5.705 J1.961
X-79.705 Y-60.961 Z35.125 I-5.705 J-1.961
X-68.295 Y-57.039 Z34.463 I5.705 J1.961
X-79.705 Y-60.961 Z33.801 I-5.705 J-1.961
X-68.295 Y-57.039 Z33.139 I5.705 J1.961
X-79.705 Y-60.961 Z32.477 I-5.705 J-1.961
X-68.295 Y-57.039 Z31.816 I5.705 J1.961
X-79.705 Y-60.961 Z31.154 I-5.705 J-1.961
X-68.295 Y-57.039 Z30.492 I5.705 J1.961
X-79.705 Y-60.961 Z29.83 I-5.705 J-1.961
X-68.295 Y-57.039 Z29.168 I5.705 J1.961
X-79.705 Y-60.961 Z28.507 I-5.705 J-1.961
X-68.295 Y-57.039 Z27.845 I5.705 J1.961
X-79.705 Y-60.961 Z27.183 I-5.705 J-1.961
X-68.295 Y-57.039 Z26.521 I5.705 J1.961
X-79.705 Y-60.961 Z25.859 I-5.705 J-1.961
X-68.295 Y-57.039 Z25.197 I5.705 J1.961
X-79.705 Y-60.961 Z24.536 I-5.705 J-1.961
X-68.295 Y-57.039 Z23.874 I5.705 J1.961
X-79.705 Y-60.961 Z23.212 I-5.705 J-1.961
X-67.967 Y-59 Z22.62 I5.705 J1.961
X-80.032 I-6.033
X-68.244 Y-60.805 I6.032
X-67.967 Y-59 I-5.756 J1.805
G1 X-67.964 Y-58.664 F850
X-67.835 Y-57.328
X-67.812 Y-57.248
X-67.777 Y-57.102
X-67.751 Y-56.954
X-67.733 Y-56.801
X-67.723 Y-56.635
X-67.721 Y-56.457
X-67.73 Y-56.267
X-67.75 Y-56.065
X-67.783 Y-55.853
X-67.83 Y-55.632
X-67.891 Y-55.402
X-67.969 Y-55.165
X-68.064 Y-54.923
X-68.175 Y-54.676
X-68.305 Y-54.426
X-68.454 Y-54.175
X-68.621 Y-53.925
X-68.807 Y-53.676
X-69.012 Y-53.431
X-69.235 Y-53.192
X-69.477 Y-52.959
X-69.737 Y-52.735
X-70.014 Y-52.521
X-70.308 Y-52.318
X-70.618 Y-52.129
X-70.942 Y-51.954
X-71.28 Y-51.795
X-71.631 Y-51.652
X-71.994 Y-51.527
X-72.366 Y-51.421
X-72.748 Y-51.334
X-73.137 Y-51.267
X-73.532 Y-51.222
X-73.933 Y-51.197
X-74.336 Y-51.195
X-74.742 Y-51.214
X-75.148 Y-51.255
X-75.553 Y-51.319
X-75.956 Y-51.405
X-76.355 Y-51.513
X-76.749 Y-51.643
X-77.137 Y-51.795
X-77.517 Y-51.968
X-77.888 Y-52.162
X-78.249 Y-52.376
X-78.599 Y-52.61
X-78.936 Y-52.863
X-79.259 Y-53.134
X-79.568 Y-53.423
X-79.861 Y-53.729
X-80.137 Y-54.05
X-80.395 Y-54.386
X-80.636 Y-54.737
X-80.857 Y-55.1
X-81.058 Y-55.474
X-81.239 Y-55.86
X-81.399 Y-56.255
X-81.537 Y-56.658
X-81.653 Y-57.068
X-81.747 Y-57.484
X-81.818 Y-57.905
X-81.867 Y-58.329
X-81.892 Y-58.756
X-81.894 Y-59.183
X-81.873 Y-59.61
X-81.829 Y-60.035
X-81.761 Y-60.457
X-81.671 Y-60.875
X-81.559 Y-61.288
X-81.424 Y-61.694
X-81.268 Y-62.092
X-81.09 Y-62.481
X-80.891 Y-62.86
X-80.672 Y-63.228
X-80.433 Y-63.583
X-80.176 Y-63.925
X-79.9 Y-64.252
X-79.607 Y-64.564
X-79.297 Y-64.86
X-78.972 Y-65.138
X-78.632 Y-65.399
X-78.279 Y-65.64
X-77.912 Y-65.862
X-77.535 Y-66.064
X-77.147 Y-66.245
X-76.75 Y-66.405
X-76.344 Y-66.544
X-75.932 Y-66.66
X-75.514 Y-66.753
X-75.092 Y-66.824
X-74.666 Y-66.871
X-74.239 Y-66.896
X-73.81 Y-66.897
X-73.383 Y-66.875
X-72.957 Y-66.83
X-72.534 Y-66.762
X-72.115 Y-66.672
X-71.702 Y-66.558
X-71.296 Y-66.423
X-70.898 Y-66.265
X-70.509 Y-66.086
X-70.13 Y-65.887
X-69.762 Y-65.667
X-69.407 Y-65.427
X-69.065 Y-65.169
X-68.738 Y-64.892
X-68.427 Y-64.599
X-68.131 Y-64.288
X-67.853 Y-63.962
X-67.594 Y-63.622
X-67.352 Y-63.268
X-67.131 Y-62.901
X-66.93 Y-62.523
X-66.62 Y-61.857
X-66.287 Y-61.026
X-66.061 Y-60.359
X-65.895 Y-59.765
X-65.775 Y-59.226
X-65.69 Y-58.712
X-65.636 Y-58.223
X-65.61 Y-57.753
X-65.609 Y-57.296
X-65.633 Y-56.849
X-65.68 Y-56.411
X-65.75 Y-55.98
X-65.843 Y-55.556
X-65.958 Y-55.139
X-66.096 Y-54.729
X-66.256 Y-54.327
X-66.437 Y-53.933
X-66.641 Y-53.548
X-66.867 Y-53.171
X-67.115 Y-52.805
X-67.384 Y-52.451
X-67.675 Y-52.108
X-67.986 Y-51.779
X-68.318 Y-51.465
X-68.669 Y-51.167
X-69.038 Y-50.885
X-69.426 Y-50.622
X-69.83 Y-50.379
X-70.251 Y-50.156
X-70.686 Y-49.955
X-71.135 Y-49.776
X-71.596 Y-49.62
X-72.068 Y-49.489
X-72.549 Y-49.383
X-73.039 Y-49.303
X-73.536 Y-49.249
X-74.037 Y-49.222
X-74.542 Y-49.223
X-75.05 Y-49.25
X-75.557 Y-49.306
X-76.063 Y-49.389
X-76.566 Y-49.5
X-77.064 Y-49.639
X-77.556 Y-49.805
X-78.039 Y-49.998
X-78.513 Y-50.217
X-78.975 Y-50.463
X-79.425 Y-50.734
X-79.86 Y-51.03
X-80.28 Y-51.35
X-80.682 Y-51.692
X-81.066 Y-52.057
X-81.43 Y-52.442
X-81.774 Y-52.848
X-82.095 Y-53.272
X-82.393 Y-53.713
X-82.667 Y-54.17
X-82.917 Y-54.642
X-83.14 Y-55.127
X-83.337 Y-55.624
X-83.507 Y-56.132
X-83.65 Y-56.648
X-83.764 Y-57.172
X-83.85 Y-57.701
X-83.907 Y-58.234
X-83.934 Y-58.77
X-83.933 Y-59.307
X-83.903 Y-59.844
X-83.844 Y-60.378
X-83.756 Y-60.908
X-83.639 Y-61.433
X-83.494 Y-61.951
X-83.32 Y-62.461
X-83.12 Y-62.96
X-82.893 Y-63.448
X-82.639 Y-63.923
X-82.36 Y-64.384
X-82.057 Y-64.829
X-81.73 Y-65.256
X-81.38 Y-65.666
X-81.008 Y-66.056
X-80.616 Y-66.425
X-80.204 Y-66.773
X-79.774 Y-67.098
X-79.327 Y-67.399
X-78.864 Y-67.675
X-78.387 Y-67.926
X-77.897 Y-68.151
X-77.396 Y-68.349
X-76.884 Y-68.519
X-76.364 Y-68.661
X-75.837 Y-68.775
X-75.305 Y-68.86
X-74.769 Y-68.917
X-74.23 Y-68.944
X-73.691 Y-68.942
X-73.153 Y-68.91
X-72.617 Y-68.85
X-72.085 Y-68.761
X-71.559 Y-68.643
X-71.04 Y-68.496
X-70.53 Y-68.322
X-70.029 Y-68.12
X-69.541 Y-67.891
X-69.066 Y-67.637
X-68.605 Y-67.357
X-68.16 Y-67.052
X-67.732 Y-66.724
X-67.323 Y-66.373
X-66.906 Y-65.974
X-66.502 Y-65.543
X-66.089 Y-65.052
X-65.686 Y-64.517
X-65.308 Y-63.953
X-64.961 Y-63.37
X-64.649 Y-62.775
X-64.374 Y-62.171
X-64.135 Y-61.563
X-63.934 Y-60.955
X-63.769 Y-60.347
X-63.639 Y-59.742
X-63.544 Y-59.141
X-63.482 Y-58.546
X-63.454 Y-57.956
X-63.457 Y-57.373
X-63.491 Y-56.795
X-63.557 Y-56.225
X-63.652 Y-55.662
X-63.778 Y-55.107
X-63.933 Y-54.562
X-64.117 Y-54.026
X-64.33 Y-53.501
X-64.571 Y-52.988
X-64.84 Y-52.488
X-65.136 Y-52.003
X-65.46 Y-51.533
X-65.809 Y-51.079
X-66.184 Y-50.644
X-66.583 Y-50.228
X-67.006 Y-49.832
X-67.452 Y-49.458
X-67.92 Y-49.108
X-68.408 Y-48.781
X-68.916 Y-48.48
X-69.442 Y-48.206
X-69.985 Y-47.959
X-70.543 Y-47.742
X-71.115 Y-47.553
X-71.699 Y-47.396
X-72.294 Y-47.269
X-72.898 Y-47.175
X-73.509 Y-47.113
X-74.125 Y-47.084
X-74.744 Y-47.088
X-75.366 Y-47.127
X-75.986 Y-47.199
X-76.604 Y-47.305
X-77.218 Y-47.445
X-77.825 Y-47.619
X-78.424 Y-47.826
X-79.012 Y-48.065
X-79.588 Y-48.337
X-80.15 Y-48.641
X-80.696 Y-48.975
X-81.224 Y-49.34
X-81.733 Y-49.733
X-82.22 Y-50.154
X-82.685 Y-50.602
X-83.126 Y-51.075
X-83.541 Y-51.572
X-83.929 Y-52.091
X-84.288 Y-52.631
X-84.618 Y-53.191
X-84.918 Y-53.768
X-85.187 Y-54.362
X-85.423 Y-54.969
X-85.625 Y-55.59
X-85.794 Y-56.22
X-85.929 Y-56.859
X-86.029 Y-57.506
X-86.094 Y-58.157
X-86.124 Y-58.81
X-86.118 Y-59.465
X-86.076 Y-60.119
X-85.999 Y-60.77
X-85.887 Y-61.416
X-85.74 Y-62.055
X-85.558 Y-62.686
X-85.343 Y-63.306
X-85.094 Y-63.913
X-84.813 Y-64.507
X-84.499 Y-65.084
X-84.155 Y-65.644
X-83.781 Y-66.184
X-83.378 Y-66.703
X-82.948 Y-67.2
X-82.491 Y-67.672
X-82.009 Y-68.12
X-81.504 Y-68.54
X-80.976 Y-68.933
X-80.428 Y-69.296
X-79.861 Y-69.63
X-79.277 Y-69.932
X-78.677 Y-70.202
X-78.063 Y-70.439
X-77.438 Y-70.642
X-76.802 Y-70.812
X-76.158 Y-70.946
X-75.507 Y-71.046
X-74.852 Y-71.11
X-74.195 Y-71.138
X-73.537 Y-71.131
X-72.88 Y-71.088
X-72.227 Y-71.01
X-71.579 Y-70.896
X-70.938 Y-70.747
X-70.305 Y-70.564
X-69.684 Y-70.347
X-69.076 Y-70.096
X-68.476 Y-69.811
X-67.888 Y-69.49
X-67.305 Y-69.131
X-66.731 Y-68.731
X-66.168 Y-68.293
X-65.622 Y-67.818
X-65.096 Y-67.308
X-64.593 Y-66.764
X-64.115 Y-66.188
X-63.667 Y-65.583
X-63.251 Y-64.954
X-62.87 Y-64.303
X-62.526 Y-63.634
X-62.22 Y-62.952
X-61.954 Y-62.258
X-61.727 Y-61.556
X-61.54 Y-60.849
X-61.392 Y-60.138
X-61.285 Y-59.425
X-61.216 Y-58.712
X-61.187 Y-58.001
X-61.196 Y-57.293
X-61.243 Y-56.59
X-61.328 Y-55.892
X-61.45 Y-55.203
X-61.609 Y-54.523
X-61.804 Y-53.853
X-62.035 Y-53.195
X-62.302 Y-52.551
X-62.603 Y-51.923
X-62.938 Y-51.311
X-63.306 Y-50.717
X-63.706 Y-50.143
X-64.137 Y-49.591
X-64.599 Y-49.062
X-65.09 Y-48.557
X-65.61 Y-48.079
X-66.156 Y-47.628
X-66.727 Y-47.205
X-67.323 Y-46.814
X-67.941 Y-46.453
X-68.58 Y-46.126
X-69.238 Y-45.832
X-69.913 Y-45.574
X-70.604 Y-45.352
X-71.309 Y-45.167
X-72.025 Y-45.02
X-72.751 Y-44.912
X-73.485 Y-44.843
X-74.224 Y-44.813
X-74.966 Y-44.824
X-75.708 Y-44.875
X-76.449 Y-44.966
X-77.187 Y-45.098
X-77.918 Y-45.271
X-78.641 Y-45.483
X-79.353 Y-45.735
X-80.053 Y-46.026
X-80.737 Y-46.355
X-81.404 Y-46.721
X-82.052 Y-47.124
X-82.678 Y-47.563
X-83.281 Y-48.036
X-83.858 Y-48.541
X-84.408 Y-49.078
X-84.928 Y-49.645
X-85.418 Y-50.24
X-85.876 Y-50.862
X-86.299 Y-51.508
X-86.688 Y-52.177
X-87.04 Y-52.867
X-87.354 Y-53.575
X-87.63 Y-54.3
X-87.866 Y-55.04
X-88.062 Y-55.792
X-88.217 Y-56.554
X-88.331 Y-57.324
X-88.403 Y-58.099
X-88.432 Y-58.878
X-88.419 Y-59.657
X-88.365 Y-60.435
X-88.268 Y-61.209
X-88.129 Y-61.977
X-87.948 Y-62.737
X-87.727 Y-63.486
X-87.465 Y-64.222
X-87.164 Y-64.943
X-86.824 Y-65.647
X-86.446 Y-66.331
X-86.032 Y-66.994
X-85.582 Y-67.634
X-85.098 Y-68.249
X-84.582 Y-68.836
X-84.034 Y-69.395
X-83.457 Y-69.923
X-82.852 Y-70.42
X-82.221 Y-70.883
X-81.565 Y-71.311
X-80.887 Y-71.703
X-80.189 Y-72.057
X-79.473 Y-72.374
X-78.741 Y-72.651
X-77.994 Y-72.888
X-77.236 Y-73.084
X-76.468 Y-73.239
X-75.693 Y-73.352
X-74.913 Y-73.422
X-74.13 Y-73.451
X-73.347 Y-73.437
X-72.566 Y-73.38
X-71.789 Y-73.281
X-71.017 Y-73.141
X-70.252 Y-72.958
X-69.494 Y-72.732
X-68.744 Y-72.464
X-68.003 Y-72.153
X-67.273 Y-71.799
X-66.556 Y-71.401
X-65.854 Y-70.961
X-65.17 Y-70.479
X-64.508 Y-69.955
X-63.87 Y-69.393
X-63.26 Y-68.792
X-62.68 Y-68.157
X-62.134 Y-67.488
X-61.624 Y-66.79
X-61.152 Y-66.065
X-60.721 Y-65.316
X-60.331 Y-64.546
X-59.985 Y-63.759
X-59.683 Y-62.956
X-59.426 Y-62.141
X-59.214 Y-61.316
X-59.048 Y-60.485
X-58.928 Y-59.648
X-58.853 Y-58.809
X-58.824 Y-57.97
X-58.841 Y-57.133
X-58.902 Y-56.301
X-59.009 Y-55.474
X-59.16 Y-54.657
X-59.354 Y-53.849
X-59.592 Y-53.055
X-59.873 Y-52.274
X-60.195 Y-51.511
X-60.558 Y-50.765
X-60.961 Y-50.041
X-61.404 Y-49.338
X-61.884 Y-48.66
X-62.401 Y-48.008
X-62.954 Y-47.384
X-63.54 Y-46.789
X-64.16 Y-46.226
X-64.81 Y-45.696
X-65.49 Y-45.201
X-66.198 Y-44.743
X-66.931 Y-44.322
X-67.689 Y-43.941
X-68.468 Y-43.6
X-69.266 Y-43.301
X-70.083 Y-43.045
X-70.914 Y-42.833
X-71.758 Y-42.666
X-72.613 Y-42.545
X-73.475 Y-42.469
X-74.343 Y-42.441
X-75.213 Y-42.46
X-76.084 Y-42.526
X-76.952 Y-42.639
X-77.815 Y-42.8
X-78.67 Y-43.008
X-79.514 Y-43.262
X-80.346 Y-43.563
X-81.161 Y-43.908
X-81.959 Y-44.299
X-82.736 Y-44.733
X-83.489 Y-45.209
X-84.217 Y-45.726
X-84.917 Y-46.283
X-85.586 Y-46.878
X-86.224 Y-47.51
X-86.827 Y-48.176
X-87.394 Y-48.874
X-87.923 Y-49.603
X-88.412 Y-50.361
X-88.859 Y-51.145
X-89.264 Y-51.953
X-89.625 Y-52.782
X-89.941 Y-53.63
X-90.211 Y-54.495
X-90.433 Y-55.374
X-90.608 Y-56.265
X-90.734 Y-57.164
X-90.811 Y-58.069
X-90.84 Y-58.977
X-90.819 Y-59.887
X-90.748 Y-60.794
X-90.629 Y-61.696
X-90.46 Y-62.591
X-90.244 Y-63.476
X-89.979 Y-64.348
X-89.668 Y-65.204
X-89.311 Y-66.043
X-88.908 Y-66.861
X-88.462 Y-67.657
X-87.973 Y-68.427
X-87.443 Y-69.17
X-86.873 Y-69.883
X-86.266 Y-70.564
X-85.622 Y-71.212
X-84.944 Y-71.824
X-84.234 Y-72.398
X-83.494 Y-72.933
X-82.726 Y-73.427
X-81.932 Y-73.879
X-81.114 Y-74.287
X-80.276 Y-74.65
X-79.419 Y-74.967
X-78.546 Y-75.237
X-77.66 Y-75.46
X-76.763 Y-75.634
X-75.857 Y-75.76
X-74.947 Y-75.836
X-74.032 Y-75.863
X-73.117 Y-75.84
X-72.203 Y-75.767
X-71.291 Y-75.645
X-70.384 Y-75.473
X-69.484 Y-75.25
X-68.592 Y-74.978
X-67.711 Y-74.656
X-66.844 Y-74.285
X-65.992 Y-73.864
X-65.159 Y-73.395
X-64.348 Y-72.878
X-63.56 Y-72.314
X-62.8 Y-71.705
X-62.07 Y-71.052
X-61.375 Y-70.358
X-60.715 Y-69.625
X-60.096 Y-68.855
X-59.518 Y-68.053
X-58.984 Y-67.22
X-58.496 Y-66.359
X-58.057 Y-65.474
X-57.666 Y-64.568
X-57.326 Y-63.644
X-57.037 Y-62.705
X-56.799 Y-61.753
X-56.614 Y-60.793
X-56.482 Y-59.825
X-56.403 Y-58.855
X-56.376 Y-57.883
X-56.402 Y-56.913
X-56.48 Y-55.948
X-56.611 Y-54.99
X-56.792 Y-54.041
X-57.025 Y-53.105
X-57.308 Y-52.183
X-57.641 Y-51.278
X-58.022 Y-50.393
X-58.45 Y-49.529
X-58.925 Y-48.69
X-59.445 Y-47.877
X-60.009 Y-47.092
X-60.615 Y-46.339
X-61.262 Y-45.618
X-61.948 Y-44.933
X-62.672 Y-44.285
X-63.431 Y-43.675
X-64.223 Y-43.107
X-65.047 Y-42.581
X-65.901 Y-42.099
X-66.781 Y-41.664
X-67.685 Y-41.276
X-68.612 Y-40.936
X-69.558 Y-40.647
X-70.521 Y-40.409
X-71.497 Y-40.223
X-72.485 Y-40.089
X-73.481 Y-40.009
X-74.482 Y-39.984
X-75.486 Y-40.012
X-76.489 Y-40.095
X-77.488 Y-40.233
X-78.481 Y-40.425
X-79.464 Y-40.671
X-80.434 Y-40.971
X-81.388 Y-41.324
X-82.324 Y-41.728
X-83.238 Y-42.184
X-84.127 Y-42.689
X-84.99 Y-43.243
X-85.822 Y-43.843
X-86.621 Y-44.489
X-87.386 Y-45.178
X-88.113 Y-45.908
X-88.801 Y-46.678
X-89.446 Y-47.485
X-90.047 Y-48.326
X-90.603 Y-49.2
X-91.11 Y-50.104
X-91.569 Y-51.034
X-91.977 Y-51.989
X-92.332 Y-52.966
X-92.635 Y-53.961
X-92.883 Y-54.971
X-93.076 Y-55.994
X-93.214 Y-57.027
X-93.295 Y-58.066
X-93.32 Y-59.109
X-93.289 Y-60.152
X-93.2 Y-61.192
X-93.056 Y-62.227
X-92.856 Y-63.252
X-92.6 Y-64.265
X-92.29 Y-65.264
X-91.925 Y-66.244
X-91.509 Y-67.204
X-91.04 Y-68.139
X-90.522 Y-69.048
X-89.955 Y-69.928
X-89.341 Y-70.776
X-88.681 Y-71.59
X-87.979 Y-72.367
X-87.235 Y-73.104
X-86.453 Y-73.801
X-85.633 Y-74.454
X-84.78 Y-75.061
X-83.894 Y-75.622
X-82.98 Y-76.134
X-82.039 Y-76.595
X-81.074 Y-77.005
X-80.088 Y-77.362
X-79.085 Y-77.666
X-78.066 Y-77.914
X-77.035 Y-78.107
X-75.994 Y-78.243
X-74.947 Y-78.324
X-73.895 Y-78.347
X-72.841 Y-78.313
X-71.788 Y-78.222
X-70.738 Y-78.074
X-69.694 Y-77.868
X-68.659 Y-77.605
X-67.635 Y-77.284
X-66.625 Y-76.907
X-65.632 Y-76.474
X-64.659 Y-75.984
X-63.709 Y-75.441
X-62.786 Y-74.843
X-61.893 Y-74.194
X-61.033 Y-73.495
X-60.21 Y-72.748
X-59.426 Y-71.955
X-58.685 Y-71.119
X-57.989 Y-70.243
X-57.342 Y-69.33
X-56.744 Y-68.383
X-56.199 Y-67.404
X-55.708 Y-66.399
X-55.272 Y-65.369
X-54.894 Y-64.317
X-54.573 Y-63.249
X-54.311 Y-62.165
X-54.108 Y-61.071
X-53.966 Y-59.969
X-53.883 Y-58.863
X-53.86 Y-57.755
X-53.898 Y-56.649
X-53.995 Y-55.548
X-54.151 Y-54.455
X-54.367 Y-53.373
X-54.64 Y-52.305
X-54.971 Y-51.253
X-55.358 Y-50.221
X-55.801 Y-49.212
X-56.298 Y-48.228
X-56.848 Y-47.272
X-57.449 Y-46.347
X-58.1 Y-45.455
X-58.799 Y-44.598
X-59.544 Y-43.78
X-60.333 Y-43.002
X-61.165 Y-42.267
X-62.037 Y-41.578
X-62.946 Y-40.935
X-63.891 Y-40.342
X-64.868 Y-39.799
X-65.875 Y-39.31
X-66.91 Y-38.874
X-67.968 Y-38.495
X-69.048 Y-38.173
X-70.146 Y-37.91
X-71.259 Y-37.705
X-72.384 Y-37.562
X-73.518 Y-37.479
X-74.657 Y-37.458
X-75.797 Y-37.498
X-76.936 Y-37.601
X-78.07 Y-37.765
X-79.196 Y-37.991
X-80.31 Y-38.279
X-81.409 Y-38.626
X-82.489 Y-39.034
X-83.547 Y-39.501
X-84.58 Y-40.024
X-85.585 Y-40.604
X-86.558 Y-41.239
X-87.497 Y-41.926
X-88.398 Y-42.665
X-89.259 Y-43.452
X-90.077 Y-44.285
X-90.85 Y-45.163
X-91.574 Y-46.082
X-92.249 Y-47.04
X-92.871 Y-48.034
X-93.439 Y-49.062
X-93.951 Y-50.12
X-94.405 Y-51.204
X-94.8 Y-52.313
X-95.135 Y-53.442
X-95.408 Y-54.588
X-95.618 Y-55.748
X-95.766 Y-56.919
X-95.85 Y-58.096
X-95.87 Y-59.277
X-95.826 Y-60.457
X-95.717 Y-61.634
X-95.546 Y-62.804
X-95.311 Y-63.963
X-95.013 Y-65.108
X-94.654 Y-66.236
X-94.234 Y-67.343
X-93.754 Y-68.426
X-93.217 Y-69.481
X-92.623 Y-70.506
X-91.974 Y-71.498
X-91.272 Y-72.453
X-90.519 Y-73.369
X-89.718 Y-74.242
X-88.87 Y-75.071
X-87.978 Y-75.854
X-87.046 Y-76.586
X-86.074 Y-77.267
X-85.068 Y-77.895
X-84.028 Y-78.467
X-82.959 Y-78.982
X-81.864 Y-79.438
X-80.745 Y-79.835
X-79.606 Y-80.17
X-78.45 Y-80.443
X-77.28 Y-80.654
X-76.098 Y-80.801
X-74.909 Y-80.883
X-73.715 Y-80.901
X-72.52 Y-80.855
X-71.325 Y-80.743
X-70.135 Y-80.566
X-68.953 Y-80.324
X-67.781 Y-80.017
X-66.624 Y-79.647
X-65.484 Y-79.212
X-64.365 Y-78.714
X-63.271 Y-78.154
X-62.205 Y-77.533
X-61.17 Y-76.854
X-60.171 Y-76.116
X-59.21 Y-75.324
X-58.291 Y-74.478
X-57.418 Y-73.582
X-56.593 Y-72.638
X-55.819 Y-71.65
X-55.1 Y-70.621
X-54.437 Y-69.553
X-53.833 Y-68.451
X-53.29 Y-67.318
X-52.809 Y-66.158
X-52.392 Y-64.974
X-52.04 Y-63.771
X-51.754 Y-62.551
X-51.534 Y-61.319
X-51.382 Y-60.078
X-51.298 Y-58.832
X-51.281 Y-57.584
X-51.332 Y-56.339
X-51.45 Y-55.099
X-51.636 Y-53.868
X-51.887 Y-52.65
X-52.204 Y-51.447
X-52.586 Y-50.264
X-53.031 Y-49.103
X-53.538 Y-47.968
X-54.106 Y-46.862
X-54.734 Y-45.788
X-55.419 Y-44.749
X-56.16 Y-43.748
X-56.955 Y-42.788
X-57.802 Y-41.871
X-58.698 Y-41.001
X-59.642 Y-40.179
X-60.63 Y-39.409
X-61.659 Y-38.692
X-62.728 Y-38.031
X-63.832 Y-37.428
X-64.97 Y-36.885
X-66.137 Y-36.404
X-67.331 Y-35.985
X-68.549 Y-35.632
X-69.786 Y-35.344
X-71.039 Y-35.123
X-72.304 Y-34.97
X-73.579 Y-34.886
X-74.858 Y-34.872
X-76.139 Y-34.926
X-77.417 Y-35.05
X-78.689 Y-35.244
X-79.95 Y-35.506
X-81.198 Y-35.838
X-82.428 Y-36.237
X-83.636 Y-36.702
X-84.819 Y-37.234
X-85.973 Y-37.829
X-87.095 Y-38.488
X-88.181 Y-39.207
X-89.228 Y-39.984
X-90.232 Y-40.819
X-91.19 Y-41.707
X-92.101 Y-42.648
X-92.959 Y-43.637
X-93.764 Y-44.672
X-94.512 Y-45.751
X-95.201 Y-46.869
X-95.828 Y-48.024
X-96.393 Y-49.212
X-96.893 Y-50.43
X-97.327 Y-51.675
X-97.692 Y-52.941
X-97.989 Y-54.227
X-98.215 Y-55.527
X-98.371 Y-56.838
X-98.456 Y-58.157
X-98.469 Y-59.478
X-98.41 Y-60.799
X-98.28 Y-62.116
X-98.079 Y-63.424
X-97.807 Y-64.719
X-97.465 Y-65.998
X-97.054 Y-67.258
X-96.575 Y-68.493
X-96.03 Y-69.701
X-95.42 Y-70.878
X-94.747 Y-72.02
X-94.013 Y-73.124
X-93.22 Y-74.188
X-92.37 Y-75.206
X-91.467 Y-76.178
X-90.512 Y-77.099
X-89.508 Y-77.967
X-88.459 Y-78.779
X-87.367 Y-79.534
X-86.235 Y-80.228
X-85.068 Y-80.86
X-83.867 Y-81.428
X-82.638 Y-81.93
X-81.382 Y-82.365
X-80.104 Y-82.732
X-78.807 Y-83.029
X-77.495 Y-83.255
X-76.171 Y-83.41
X-74.838 Y-83.493
X-73.5 Y-83.504
X-72.161 Y-83.442
X-70.826 Y-83.308
X-69.5 Y-83.101
X-68.187 Y-82.824
X-66.89 Y-82.475
X-65.615 Y-82.058
X-64.363 Y-81.573
X-63.139 Y-81.023
X-61.946 Y-80.407
X-60.788 Y-79.73
X-59.666 Y-78.992
X-58.586 Y-78.197
X-57.548 Y-77.345
X-56.556 Y-76.441
X-55.613 Y-75.486
X-54.722 Y-74.483
X-53.883 Y-73.435
X-53.1 Y-72.344
X-52.376 Y-71.215
X-51.71 Y-70.049
X-51.106 Y-68.85
X-50.566 Y-67.622
X-50.09 Y-66.367
X-49.68 Y-65.089
X-49.338 Y-63.791
X-49.064 Y-62.477
X-48.86 Y-61.151
X-48.725 Y-59.815
X-48.661 Y-58.475
X-48.667 Y-57.133
X-48.743 Y-55.793
X-48.89 Y-54.458
X-49.106 Y-53.134
X-49.391 Y-51.822
X-49.744 Y-50.528
X-50.165 Y-49.253
X-50.653 Y-48.003
X-51.205 Y-46.779
X-51.82 Y-45.587
X-52.498 Y-44.428
X-53.235 Y-43.306
X-54.029 Y-42.225
X-54.879 Y-41.186
X-55.783 Y-40.193
X-56.737 Y-39.249
X-57.738 Y-38.356
X-58.785 Y-37.516
X-59.875 Y-36.732
X-61.003 Y-36.005
X-62.168 Y-35.338
X-63.365 Y-34.733
X-64.593 Y-34.19
X-65.847 Y-33.712
X-67.124 Y-33.3
X-68.421 Y-32.954
X-69.734 Y-32.676
X-71.06 Y-32.467
X-72.395 Y-32.325
X-73.735 Y-32.253
X-75.077 Y-32.249
X-76.418 Y-32.313
X-77.753 Y-32.445
X-79.081 Y-32.645
X-80.396 Y-32.912
X-81.696 Y-33.246
X-82.978 Y-33.644
X-84.238 Y-34.107
X-85.473 Y-34.632
X-86.679 Y-35.22
X-87.855 Y-35.868
X-88.995 Y-36.575
X-90.099 Y-37.339
X-91.162 Y-38.158
X-92.183 Y-39.03
X-93.159 Y-39.951
X-94.088 Y-40.92
X-94.967 Y-41.934
X-95.794 Y-42.99
X-96.569 Y-44.087
X-97.287 Y-45.22
X-97.949 Y-46.388
X-98.551 Y-47.587
X-99.092 Y-48.816
X-99.571 Y-50.07
X-99.985 Y-51.346
X-100.336 Y-52.642
X-100.622 Y-53.953
X-100.842 Y-55.277
X-100.997 Y-56.61
X-101.085 Y-57.95
X-101.107 Y-59.291
X-101.064 Y-60.633
X-100.954 Y-61.971
X-100.777 Y-63.301
X-100.534 Y-64.621
X-100.225 Y-65.927
X-99.852 Y-67.216
X-99.414 Y-68.485
X-98.915 Y-69.731
X-98.354 Y-70.95
X-97.734 Y-72.141
X-97.056 Y-73.299
X-96.323 Y-74.423
X-95.534 Y-75.509
X-94.694 Y-76.555
X-93.802 Y-77.558
X-92.86 Y-78.515
X-91.873 Y-79.424
X-90.841 Y-80.282
X-89.768 Y-81.088
X-88.656 Y-81.841
X-87.509 Y-82.537
X-86.329 Y-83.177
X-85.119 Y-83.758
X-83.882 Y-84.279
X-82.621 Y-84.738
X-81.339 Y-85.134
X-80.038 Y-85.466
X-78.723 Y-85.732
X-77.396 Y-85.933
X-76.06 Y-86.068
X-74.72 Y-86.137
X-73.378 Y-86.141
X-72.037 Y-86.079
X-70.701 Y-85.953
X-69.373 Y-85.762
X-68.055 Y-85.506
X-66.751 Y-85.186
X-65.465 Y-84.803
X-64.2 Y-84.356
X-62.957 Y-83.849
X-61.74 Y-83.283
X-60.552 Y-82.659
X-59.394 Y-81.979
X-58.271 Y-81.245
X-57.183 Y-80.459
X-56.134 Y-79.622
X-55.125 Y-78.737
X-54.161 Y-77.803
X-53.242 Y-76.825
X-52.371 Y-75.804
X-51.549 Y-74.743
X-50.778 Y-73.644
X-50.06 Y-72.51
X-49.396 Y-71.344
X-48.787 Y-70.148
X-48.235 Y-68.924
X-47.741 Y-67.677
X-47.306 Y-66.407
X-46.933 Y-65.117
X-46.623 Y-63.812
X-46.375 Y-62.492
X-46.191 Y-61.163
X-46.069 Y-59.826
X-46.011 Y-58.486
X-46.016 Y-57.143
X-46.084 Y-55.803
X-46.215 Y-54.467
X-46.409 Y-53.139
X-46.666 Y-51.822
X-46.987 Y-50.519
X-47.37 Y-49.232
X-47.814 Y-47.966
X-48.317 Y-46.722
X-48.879 Y-45.503
X-49.498 Y-44.312
X-50.172 Y-43.151
X-50.9 Y-42.023
X-51.68 Y-40.931
X-52.511 Y-39.877
X-53.391 Y-38.864
X-54.32 Y-37.895
X-55.293 Y-36.971
X-56.309 Y-36.094
X-57.365 Y-35.266
X-58.459 Y-34.488
X-59.588 Y-33.762
X-60.75 Y-33.09
X-61.942 Y-32.473
X-63.161 Y-31.913
X-64.406 Y-31.41
X-65.673 Y-30.968
X-66.96 Y-30.586
X-68.263 Y-30.266
X-69.58 Y-30.007
X-70.908 Y-29.81
X-72.243 Y-29.674
X-73.583 Y-29.601
X-74.925 Y-29.589
X-76.266 Y-29.639
X-77.604 Y-29.75
X-78.935 Y-29.924
X-80.256 Y-30.159
X-81.565 Y-30.455
X-82.859 Y-30.812
X-84.135 Y-31.228
X-85.391 Y-31.703
X-86.623 Y-32.234
X-87.83 Y-32.821
X-89.008 Y-33.463
X-90.157 Y-34.158
X-91.272 Y-34.905
X-92.352 Y-35.702
X-93.393 Y-36.549
X-94.395 Y-37.442
X-95.354 Y-38.381
X-96.27 Y-39.362
X-97.14 Y-40.384
X-97.964 Y-41.444
X-98.738 Y-42.54
X-99.463 Y-43.669
X-100.136 Y-44.831
X-100.755 Y-46.021
X-101.32 Y-47.239
X-101.827 Y-48.482
X-102.277 Y-49.746
X-102.668 Y-51.03
X-103.001 Y-52.33
X-103.275 Y-53.644
X-103.49 Y-54.969
X-103.644 Y-56.302
X-103.74 Y-57.641
X-103.775 Y-58.983
X-103.75 Y-60.325
X-103.665 Y-61.664
X-103.518 Y-62.998
X-103.31 Y-64.324
X-103.041 Y-65.639
X-102.713 Y-66.94
X-102.327 Y-68.226
X-101.883 Y-69.492
X-101.383 Y-70.738
X-100.827 Y-71.96
X-100.218 Y-73.156
X-99.557 Y-74.323
X-98.843 Y-75.46
X-98.079 Y-76.564
X-97.265 Y-77.631
X-96.403 Y-78.659
X-95.495 Y-79.648
X-94.543 Y-80.594
X-93.55 Y-81.497
X-92.517 Y-82.354
X-91.447 Y-83.164
X-90.342 Y-83.926
X-89.204 Y-84.637
X-88.035 Y-85.298
X-86.838 Y-85.904
X-85.615 Y-86.456
X-84.367 Y-86.951
X-83.099 Y-87.39
X-81.812 Y-87.77
X-80.509 Y-88.092
X-79.193 Y-88.356
X-77.866 Y-88.56
X-76.532 Y-88.705
X-75.192 Y-88.791
X-73.851 Y-88.818
X-72.509 Y-88.784
X-71.17 Y-88.691
X-69.837 Y-88.537
X-68.512 Y-88.323
X-67.197 Y-88.05
X-65.897 Y-87.72
X-64.612 Y-87.332
X-63.345 Y-86.888
X-62.099 Y-86.389
X-60.876 Y-85.836
X-59.679 Y-85.23
X-58.508 Y-84.573
X-57.368 Y-83.865
X-56.26 Y-83.108
X-55.186 Y-82.302
X-54.149 Y-81.451
X-53.15 Y-80.554
X-52.191 Y-79.616
X-51.273 Y-78.637
X-50.398 Y-77.619
X-49.568 Y-76.564
X-48.783 Y-75.475
X-48.046 Y-74.354
X-47.358 Y-73.201
X-46.721 Y-72.02
X-46.136 Y-70.812
X-45.604 Y-69.58
X-45.126 Y-68.326
X-44.703 Y-67.052
X-44.335 Y-65.761
X-44.024 Y-64.455
X-43.77 Y-63.138
X-43.572 Y-61.81
X-43.431 Y-60.475
X-43.348 Y-59.136
X-43.324 Y-57.794
X-43.358 Y-56.452
X-43.45 Y-55.113
X-43.601 Y-53.78
X-43.81 Y-52.454
X-44.077 Y-51.138
X-44.4 Y-49.836
X-44.779 Y-48.548
X-45.214 Y-47.278
X-45.703 Y-46.028
X-46.244 Y-44.8
X-46.839 Y-43.597
X-47.485 Y-42.421
X-48.183 Y-41.274
X-48.929 Y-40.159
X-49.724 Y-39.077
X-50.564 Y-38.031
X-51.449 Y-37.022
X-52.377 Y-36.052
X-53.346 Y-35.123
X-54.354 Y-34.237
X-55.398 Y-33.394
X-56.478 Y-32.597
X-57.591 Y-31.847
X-58.736 Y-31.146
X-59.91 Y-30.496
X-61.111 Y-29.897
X-62.337 Y-29.35
X-63.585 Y-28.857
X-64.854 Y-28.418
X-66.14 Y-28.034
X-67.441 Y-27.705
X-68.755 Y-27.431
X-70.079 Y-27.214
X-71.412 Y-27.053
X-72.75 Y-26.948
X-74.091 Y-26.902
X-75.433 Y-26.913
X-76.774 Y-26.98
X-78.11 Y-27.105
X-79.44 Y-27.286
X-80.761 Y-27.524
X-82.071 Y-27.816
X-83.367 Y-28.164
X-84.648 Y-28.565
X-85.911 Y-29.02
X-87.153 Y-29.527
X-88.373 Y-30.086
X-89.568 Y-30.697
X-90.736 Y-31.358
X-91.876 Y-32.068
X-92.984 Y-32.825
X-94.059 Y-33.628
X-95.1 Y-34.475
X-96.105 Y-35.365
X-97.072 Y-36.296
X-97.999 Y-37.266
X-98.886 Y-38.274
X-99.73 Y-39.317
X-100.529 Y-40.395
X-101.283 Y-41.506
X-101.989 Y-42.647
X-102.647 Y-43.817
X-103.255 Y-45.014
X-103.813 Y-46.234
X-104.32 Y-47.477
X-104.774 Y-48.74
X-105.176 Y-50.021
X-105.524 Y-51.317
X-105.819 Y-52.626
X-106.06 Y-53.947
X-106.245 Y-55.276
X-106.375 Y-56.612
X-106.449 Y-57.952
X-106.468 Y-59.294
X-106.43 Y-60.636
X-106.337 Y-61.974
X-106.188 Y-63.308
X-105.984 Y-64.635
X-105.726 Y-65.952
X-105.413 Y-67.257
X-105.047 Y-68.549
X-104.628 Y-69.824
X-104.157 Y-71.08
X-103.633 Y-72.316
X-103.059 Y-73.529
X-102.436 Y-74.718
X-101.763 Y-75.879
X-101.043 Y-77.012
X-100.277 Y-78.114
X-99.466 Y-79.183
X-98.611 Y-80.218
X-97.714 Y-81.217
X-96.778 Y-82.178
X-95.802 Y-83.1
X-94.789 Y-83.98
X-93.74 Y-84.817
X-92.657 Y-85.611
X-91.543 Y-86.358
X-90.399 Y-87.06
X-89.226 Y-87.713
X-88.028 Y-88.318
X-86.806 Y-88.872
X-85.562 Y-89.376
X-84.298 Y-89.828
X-83.017 Y-90.228
X-81.72 Y-90.575
X-80.41 Y-90.868
X-79.09 Y-91.106
X-77.76 Y-91.29
X-76.424 Y-91.418
X-75.084 Y-91.492
X-73.742 Y-91.511
X-72.4 Y-91.475
X-71.061 Y-91.384
X-69.727 Y-91.238
X-68.4 Y-91.039
X-67.082 Y-90.785
X-65.775 Y-90.478
X-64.482 Y-90.119
X-63.205 Y-89.706
X-61.946 Y-89.242
X-60.706 Y-88.727
X-59.488 Y-88.163
X-58.294 Y-87.55
X-57.126 Y-86.89
X-55.985 Y-86.183
X-54.873 Y-85.431
X-53.792 Y-84.635
X-52.744 Y-83.797
X-51.73 Y-82.918
X-50.752 Y-81.999
X-49.811 Y-81.041
X-48.91 Y-80.047
X-48.049 Y-79.017
X-47.23 Y-77.953
X-46.454 Y-76.859
X-45.722 Y-75.734
X-45.035 Y-74.581
X-44.395 Y-73.401
X-43.801 Y-72.197
X-43.256 Y-70.971
X-42.76 Y-69.724
X-42.314 Y-68.458
X-41.919 Y-67.175
X-41.576 Y-65.878
X-41.285 Y-64.567
X-41.047 Y-63.246
X-40.861 Y-61.917
X-40.729 Y-60.582
X-40.649 Y-59.242
X-40.623 Y-57.9
X-40.651 Y-56.558
X-40.732 Y-55.218
X-40.866 Y-53.883
X-41.052 Y-52.554
X-41.292 Y-51.233
X-41.585 Y-49.923
X-41.931 Y-48.627
X-42.328 Y-47.344
X-42.776 Y-46.079
X-43.273 Y-44.833
X-43.82 Y-43.607
X-44.416 Y-42.404
X-45.058 Y-41.226
X-45.747 Y-40.074
X-46.481 Y-38.951
X-47.26 Y-37.857
X-48.081 Y-36.795
X-48.943 Y-35.767
X-49.847 Y-34.775
X-50.79 Y-33.819
X-51.769 Y-32.902
X-52.784 Y-32.024
X-53.834 Y-31.187
X-54.915 Y-30.392
X-56.027 Y-29.641
X-57.168 Y-28.934
X-58.336 Y-28.273
X-59.53 Y-27.659
X-60.746 Y-27.092
X-61.984 Y-26.574
X-63.242 Y-26.105
X-64.518 Y-25.688
X-65.809 Y-25.321
X-67.113 Y-25.005
X-68.429 Y-24.74
X-69.754 Y-24.528
X-71.087 Y-24.367
X-72.424 Y-24.259
X-73.765 Y-24.203
X-75.108 Y-24.199
X-76.449 Y-24.248
X-77.787 Y-24.349
X-79.121 Y-24.502
X-80.447 Y-24.707
X-81.764 Y-24.965
X-83.07 Y-25.274
X-84.364 Y-25.633
X-85.642 Y-26.042
X-86.903 Y-26.5
X-88.146 Y-27.007
X-89.368 Y-27.562
X-90.568 Y-28.163
X-91.744 Y-28.811
X-92.893 Y-29.503
X-94.016 Y-30.239
X-95.108 Y-31.019
X-96.17 Y-31.84
X-97.198 Y-32.703
X-98.193 Y-33.604
X-99.152 Y-34.543
X-100.074 Y-35.517
X-100.959 Y-36.527
X-101.804 Y-37.57
X-102.608 Y-38.644
X-103.371 Y-39.749
X-104.09 Y-40.882
X-104.766 Y-42.041
X-105.397 Y-43.226
X-105.981 Y-44.434
X-106.518 Y-45.664
X-107.007 Y-46.914
X-107.447 Y-48.182
X-107.839 Y-49.466
X-108.181 Y-50.764
X-108.474 Y-52.073
X-108.717 Y-53.394
X-108.909 Y-54.722
X-109.05 Y-56.057
X-109.14 Y-57.396
X-109.179 Y-58.737
X-109.167 Y-60.079
X-109.103 Y-61.42
X-108.987 Y-62.757
X-108.82 Y-64.089
X-108.602 Y-65.413
X-108.333 Y-66.728
X-108.015 Y-68.032
X-107.647 Y-69.323
X-107.23 Y-70.598
X-106.765 Y-71.858
X-106.253 Y-73.098
X-105.694 Y-74.318
X-105.089 Y-75.516
X-104.438 Y-76.69
X-103.743 Y-77.838
X-103.004 Y-78.959
X-102.223 Y-80.05
X-101.4 Y-81.11
X-100.538 Y-82.139
X-99.637 Y-83.134
X-98.698 Y-84.093
X-97.724 Y-85.017
X-96.716 Y-85.903
X-95.675 Y-86.749
X-94.602 Y-87.556
X-93.5 Y-88.322
X-92.369 Y-89.045
X-91.211 Y-89.724
X-90.028 Y-90.357
X-88.822 Y-90.945
X-87.594 Y-91.487
X-86.346 Y-91.981
X-85.08 Y-92.428
X-83.799 Y-92.826
X-82.503 Y-93.176
X-81.194 Y-93.476
X-79.876 Y-93.726
X-78.549 Y-93.926
X-77.215 Y-94.076
X-75.876 Y-94.176
X-74.535 Y-94.224
X-73.193 Y-94.221
X-71.852 Y-94.166
X-70.514 Y-94.061
X-69.181 Y-93.906
X-67.854 Y-93.701
X-66.537 Y-93.446
X-65.23 Y-93.141
X-63.935 Y-92.788
X-62.654 Y-92.387
X-61.389 Y-91.938
X-60.142 Y-91.443
X-58.914 Y-90.901
X-57.707 Y-90.314
X-56.523 Y-89.682
X-55.363 Y-89.006
X-54.23 Y-88.287
X-53.124 Y-87.526
X-52.047 Y-86.725
X-51 Y-85.885
X-49.985 Y-85.007
X-49.004 Y-84.092
X-48.056 Y-83.142
X-47.144 Y-82.157
X-46.269 Y-81.14
X-45.431 Y-80.091
X-44.633 Y-79.012
X-43.876 Y-77.904
X-43.16 Y-76.768
X-42.487 Y-75.607
X-41.857 Y-74.422
X-41.271 Y-73.214
X-40.73 Y-71.986
X-40.234 Y-70.739
X-39.785 Y-69.474
X-39.382 Y-68.194
X-39.027 Y-66.9
X-38.719 Y-65.593
X-38.46 Y-64.276
X-38.249 Y-62.951
X-38.087 Y-61.618
X-37.976 Y-60.281
X-37.914 Y-58.94
X-37.901 Y-57.598
X-37.939 Y-56.256
X-38.025 Y-54.917
X-38.161 Y-53.582
X-38.346 Y-52.252
X-38.579 Y-50.931
X-38.862 Y-49.619
X-39.192 Y-48.318
X-39.569 Y-47.03
X-39.994 Y-45.757
X-40.466 Y-44.5
X-40.984 Y-43.262
X-41.548 Y-42.044
X-42.157 Y-40.848
X-42.809 Y-39.675
X-43.504 Y-38.527
X-44.241 Y-37.405
X-45.018 Y-36.311
X-45.836 Y-35.246
X-46.691 Y-34.212
X-47.584 Y-33.21
X-48.514 Y-32.242
X-49.478 Y-31.308
X-50.475 Y-30.41
X-51.505 Y-29.55
X-52.567 Y-28.729
X-53.658 Y-27.947
X-54.777 Y-27.206
X-55.923 Y-26.507
X-57.093 Y-25.85
X-58.287 Y-25.236
X-59.502 Y-24.666
X-60.737 Y-24.141
X-61.991 Y-23.662
X-63.261 Y-23.228
X-64.546 Y-22.841
X-65.844 Y-22.501
X-67.154 Y-22.209
X-68.474 Y-21.965
X-69.802 Y-21.77
X-71.136 Y-21.623
X-72.475 Y-21.525
X-73.816 Y-21.475
X-75.158 Y-21.474
X-76.499 Y-21.521
X-77.838 Y-21.617
X-79.172 Y-21.761
X-80.501 Y-21.953
X-81.821 Y-22.192
X-83.133 Y-22.479
X-84.432 Y-22.813
X-85.719 Y-23.194
X-86.992 Y-23.622
X-88.247 Y-24.095
X-89.485 Y-24.614
X-90.704 Y-25.176
X-91.902 Y-25.782
X-93.077 Y-26.43
X-94.228 Y-27.121
X-95.353 Y-27.852
X-96.452 Y-28.622
X-97.523 Y-29.432
X-98.564 Y-30.279
X-99.574 Y-31.163
X-100.552 Y-32.082
X-101.496 Y-33.036
X-102.405 Y-34.023
X-103.278 Y-35.043
X-104.114 Y-36.093
X-104.912 Y-37.172
X-105.672 Y-38.278
X-106.391 Y-39.411
X-107.07 Y-40.569
X-107.707 Y-41.751
X-108.301 Y-42.954
X-108.853 Y-44.178
X-109.36 Y-45.42
X-109.824 Y-46.68
X-110.242 Y-47.955
X-110.614 Y-49.245
X-110.939 Y-50.547
X-111.218 Y-51.86
X-111.45 Y-53.182
X-111.635 Y-54.511
X-111.773 Y-55.846
