%
(1001)
(z0 top machine -5-5)
(T1  D=1.587 CR=0 - ZMIN=-3 - flat end mill)
G90 G94
G17
G21

(2D Adaptive7)
M9
T1 M6
S24000 M3
G54
M9
G0 X-81.025 Y-63.462
Z15
Z5
Z2.709
G1 Z2.55 F849.6
G3 X-79.576 Y-63.88 Z2.467 I0.725 J-0.209 F283.2
X-81.025 Y-63.462 Z2.385 I-0.725 J0.209
X-79.576 Y-63.88 Z2.302 I0.725 J-0.209
X-81.025 Y-63.462 Z2.219 I-0.725 J0.209
X-79.576 Y-63.88 Z2.136 I0.725 J-0.209
X-81.025 Y-63.462 Z2.054 I-0.725 J0.209
X-79.576 Y-63.88 Z1.971 I0.725 J-0.209
X-81.025 Y-63.462 Z1.888 I-0.725 J0.209
X-79.576 Y-63.88 Z1.805 I0.725 J-0.209
X-81.025 Y-63.462 Z1.723 I-0.725 J0.209
X-79.576 Y-63.88 Z1.64 I0.725 J-0.209
X-81.025 Y-63.462 Z1.557 I-0.725 J0.209
X-79.576 Y-63.88 Z1.475 I0.725 J-0.209
X-81.025 Y-63.462 Z1.392 I-0.725 J0.209
X-79.576 Y-63.88 Z1.309 I0.725 J-0.209
X-81.025 Y-63.462 Z1.226 I-0.725 J0.209
X-79.576 Y-63.88 Z1.144 I0.725 J-0.209
X-81.025 Y-63.462 Z1.061 I-0.725 J0.209
X-79.576 Y-63.88 Z0.978 I0.725 J-0.209
X-81.025 Y-63.462 Z0.895 I-0.725 J0.209
X-79.576 Y-63.88 Z0.813 I0.725 J-0.209
X-81.025 Y-63.462 Z0.73 I-0.725 J0.209
X-79.576 Y-63.88 Z0.647 I0.725 J-0.209
X-81.025 Y-63.462 Z0.565 I-0.725 J0.209
X-79.576 Y-63.88 Z0.482 I0.725 J-0.209
X-81.025 Y-63.462 Z0.399 I-0.725 J0.209
X-79.576 Y-63.88 Z0.316 I0.725 J-0.209
X-81.025 Y-63.462 Z0.234 I-0.725 J0.209
X-79.576 Y-63.88 Z0.151 I0.725 J-0.209
X-81.025 Y-63.462 Z0.068 I-0.725 J0.209
X-79.576 Y-63.88 Z-0.014 I0.725 J-0.209
X-81.025 Y-63.462 Z-0.097 I-0.725 J0.209
X-79.576 Y-63.88 Z-0.18 I0.725 J-0.209
X-81.025 Y-63.462 Z-0.263 I-0.725 J0.209
X-79.576 Y-63.88 Z-0.345 I0.725 J-0.209
X-81.025 Y-63.462 Z-0.428 I-0.725 J0.209
X-79.576 Y-63.88 Z-0.511 I0.725 J-0.209
X-81.025 Y-63.462 Z-0.594 I-0.725 J0.209
X-79.576 Y-63.88 Z-0.676 I0.725 J-0.209
X-81.025 Y-63.462 Z-0.759 I-0.725 J0.209
X-79.576 Y-63.88 Z-0.842 I0.725 J-0.209
X-81.025 Y-63.462 Z-0.924 I-0.725 J0.209
X-79.576 Y-63.88 Z-1.007 I0.725 J-0.209
X-81.025 Y-63.462 Z-1.09 I-0.725 J0.209
X-79.576 Y-63.88 Z-1.173 I0.725 J-0.209
X-81.025 Y-63.462 Z-1.255 I-0.725 J0.209
X-79.576 Y-63.88 Z-1.338 I0.725 J-0.209
X-81.025 Y-63.462 Z-1.421 I-0.725 J0.209
X-79.576 Y-63.88 Z-1.504 I0.725 J-0.209
X-81.025 Y-63.462 Z-1.586 I-0.725 J0.209
X-79.576 Y-63.88 Z-1.669 I0.725 J-0.209
X-81.025 Y-63.462 Z-1.752 I-0.725 J0.209
X-79.576 Y-63.88 Z-1.834 I0.725 J-0.209
X-81.025 Y-63.462 Z-1.917 I-0.725 J0.209
X-79.576 Y-63.88 Z-2 I0.725 J-0.209
X-81.025 Y-63.462 Z-2.083 I-0.725 J0.209
X-79.576 Y-63.88 Z-2.165 I0.725 J-0.209
X-81.025 Y-63.462 Z-2.248 I-0.725 J0.209
X-79.576 Y-63.88 Z-2.331 I0.725 J-0.209
X-81.025 Y-63.462 Z-2.414 I-0.725 J0.209
X-79.576 Y-63.88 Z-2.496 I0.725 J-0.209
X-81.025 Y-63.462 Z-2.579 I-0.725 J0.209
X-79.576 Y-63.88 Z-2.662 I0.725 J-0.209
X-81.025 Y-63.462 Z-2.744 I-0.725 J0.209
X-79.576 Y-63.88 Z-2.827 I0.725 J-0.209
X-81.025 Y-63.462 Z-2.91 I-0.725 J0.209
X-80.406 Y-64.418 Z-2.955 I0.725 J-0.209
X-79.547 Y-63.671 Z-3 I0.105 J0.747
X-81.055 I-0.754
X-79.547 I0.754
G1 X-79.508 Y-63.152 F849.6
X-79.511 Y-63.002
X-79.558 Y-62.86
X-79.638 Y-62.733
X-79.742 Y-62.625
X-79.863 Y-62.537
X-79.998 Y-62.47
X-80.141 Y-62.424
X-80.289 Y-62.4
X-80.438 Y-62.395
X-80.588 Y-62.411
X-80.734 Y-62.446
X-80.874 Y-62.498
X-81.007 Y-62.568
X-81.131 Y-62.652
X-81.244 Y-62.751
X-81.344 Y-62.863
X-81.43 Y-62.985
X-81.502 Y-63.117
X-81.558 Y-63.256
X-81.598 Y-63.401
X-81.621 Y-63.549
X-81.627 Y-63.699
X-81.616 Y-63.848
X-81.588 Y-63.996
X-81.544 Y-64.139
X-81.484 Y-64.276
X-81.408 Y-64.406
X-81.318 Y-64.526
X-81.216 Y-64.635
X-81.101 Y-64.733
X-80.977 Y-64.816
X-80.843 Y-64.885
X-80.703 Y-64.938
X-80.558 Y-64.976
X-80.409 Y-64.996
X-80.259 Y-65
X-80.11 Y-64.987
X-79.963 Y-64.957
X-79.82 Y-64.911
X-79.684 Y-64.849
X-79.555 Y-64.772
X-79.436 Y-64.681
X-79.327 Y-64.578
X-79.232 Y-64.462
X-79.149 Y-64.337
X-79.069 Y-64.18
X-78.982 Y-63.962
X-78.913 Y-63.726
X-78.877 Y-63.543
X-78.861 Y-63.379
X-78.86 Y-63.229
X-78.874 Y-63.079
X-78.902 Y-62.932
X-78.945 Y-62.788
X-79.002 Y-62.65
X-79.074 Y-62.518
X-79.158 Y-62.394
X-79.256 Y-62.28
X-79.364 Y-62.176
X-79.482 Y-62.083
X-79.609 Y-62.003
X-79.745 Y-61.934
X-79.884 Y-61.879
X-80.033 Y-61.836
X-80.19 Y-61.806
X-80.345 Y-61.792
X-80.504
X-80.67 Y-61.808
X-80.835 Y-61.839
X-80.992 Y-61.885
X-81.148 Y-61.947
X-81.304 Y-62.026
X-81.452 Y-62.119
X-81.587 Y-62.224
X-81.714 Y-62.341
X-81.831 Y-62.474
X-81.938 Y-62.62
X-82.03 Y-62.774
X-82.106 Y-62.933
X-82.167 Y-63.099
X-82.213 Y-63.274
X-82.243 Y-63.455
X-82.256 Y-63.638
X-82.252 Y-63.818
X-82.231 Y-63.996
X-82.194 Y-64.173
X-82.139 Y-64.348
X-82.067 Y-64.519
X-81.98 Y-64.682
X-81.88 Y-64.832
X-81.767 Y-64.972
X-81.639 Y-65.104
X-81.498 Y-65.223
X-81.346 Y-65.33
X-81.186 Y-65.421
X-81.022 Y-65.495
X-80.85 Y-65.554
X-80.672 Y-65.597
X-80.488 Y-65.624
X-80.302 Y-65.633
X-80.118 Y-65.625
X-79.94 Y-65.6
X-79.763 Y-65.558
X-79.588 Y-65.499
X-79.419 Y-65.423
X-79.256 Y-65.332
X-79.106 Y-65.227
X-78.967 Y-65.11
X-78.83 Y-64.971
X-78.692 Y-64.801
X-78.561 Y-64.606
X-78.446 Y-64.393
X-78.351 Y-64.169
X-78.28 Y-63.945
X-78.231 Y-63.723
X-78.204 Y-63.503
X-78.198 Y-63.288
X-78.212 Y-63.077
X-78.245 Y-62.874
X-78.297 Y-62.676
X-78.365 Y-62.486
X-78.45 Y-62.306
X-78.553 Y-62.132
X-78.671 Y-61.97
X-78.805 Y-61.818
X-78.954 Y-61.678
X-79.116 Y-61.551
X-79.291 Y-61.44
X-79.479 Y-61.343
X-79.676 Y-61.264
X-79.882 Y-61.204
X-80.096 Y-61.162
X-80.315 Y-61.14
X-80.536 Y-61.139
X-80.759 Y-61.159
X-80.982 Y-61.2
X-81.203 Y-61.262
X-81.417 Y-61.345
X-81.624 Y-61.448
X-81.822 Y-61.571
X-82.01 Y-61.714
X-82.185 Y-61.875
X-82.344 Y-62.051
X-82.486 Y-62.242
X-82.61 Y-62.447
X-82.715 Y-62.663
X-82.8 Y-62.89
X-82.864 Y-63.124
X-82.905 Y-63.362
X-82.924 Y-63.604
X-82.92 Y-63.848
X-82.893 Y-64.091
X-82.844 Y-64.331
X-82.772 Y-64.565
X-82.679 Y-64.791
X-82.565 Y-65.007
X-82.431 Y-65.213
X-82.278 Y-65.405
X-82.107 Y-65.583
X-81.921 Y-65.744
X-81.721 Y-65.886
X-81.509 Y-66.009
X-81.285 Y-66.111
X-81.052 Y-66.193
X-80.813 Y-66.252
X-80.569 Y-66.289
X-80.324 Y-66.303
X-80.078 Y-66.294
X-79.834 Y-66.261
X-79.593 Y-66.206
X-79.359 Y-66.129
X-79.133 Y-66.03
X-78.916 Y-65.91
X-78.707 Y-65.767
X-78.508 Y-65.601
X-78.316 Y-65.409
X-78.135 Y-65.19
X-77.972 Y-64.95
X-77.831 Y-64.692
X-77.714 Y-64.423
X-77.624 Y-64.147
X-77.561 Y-63.867
X-77.525 Y-63.586
X-77.515 Y-63.308
X-77.531 Y-63.033
X-77.573 Y-62.764
X-77.639 Y-62.503
X-77.728 Y-62.251
X-77.84 Y-62.009
X-77.974 Y-61.779
X-78.13 Y-61.562
X-78.305 Y-61.36
X-78.5 Y-61.174
X-78.712 Y-61.006
X-78.941 Y-60.858
X-79.184 Y-60.731
X-79.44 Y-60.627
X-79.707 Y-60.546
X-79.983 Y-60.49
X-80.265 Y-60.46
X-80.55 Y-60.456
X-80.837 Y-60.48
X-81.123 Y-60.53
X-81.405 Y-60.608
X-81.679 Y-60.712
X-81.945 Y-60.842
X-82.199 Y-60.997
X-82.438 Y-61.176
X-82.66 Y-61.378
X-82.864 Y-61.601
X-83.046 Y-61.842
X-83.206 Y-62.101
X-83.341 Y-62.374
X-83.45 Y-62.659
X-83.532 Y-62.954
X-83.587 Y-63.256
X-83.613 Y-63.562
X-83.61 Y-63.871
X-83.578 Y-64.178
X-83.518 Y-64.48
X-83.43 Y-64.776
X-83.314 Y-65.063
X-83.171 Y-65.338
X-83.004 Y-65.599
X-82.812 Y-65.844
X-82.599 Y-66.069
X-82.365 Y-66.273
X-82.114 Y-66.454
X-81.846 Y-66.612
X-81.564 Y-66.744
X-81.271 Y-66.849
X-80.97 Y-66.926
X-80.664 Y-66.974
X-80.353 Y-66.994
X-80.042 Y-66.984
X-79.734 Y-66.945
X-79.43 Y-66.878
X-79.133 Y-66.782
X-78.845 Y-66.659
X-78.566 Y-66.507
X-78.298 Y-66.326
X-78.041 Y-66.116
X-77.8 Y-65.877
X-77.577 Y-65.611
X-77.379 Y-65.323
X-77.207 Y-65.015
X-77.064 Y-64.693
X-76.953 Y-64.36
X-76.874 Y-64.02
X-76.827 Y-63.676
X-76.813 Y-63.333
X-76.831 Y-62.993
X-76.88 Y-62.658
X-76.96 Y-62.332
X-77.07 Y-62.015
X-77.208 Y-61.711
X-77.374 Y-61.422
X-77.567 Y-61.149
X-77.784 Y-60.895
X-78.025 Y-60.662
X-78.288 Y-60.451
X-78.571 Y-60.265
X-78.872 Y-60.105
X-79.188 Y-59.974
X-79.518 Y-59.872
X-79.857 Y-59.8
X-80.204 Y-59.761
X-80.555 Y-59.754
X-80.908 Y-59.78
X-81.258 Y-59.839
X-81.604 Y-59.932
X-81.941 Y-60.057
X-82.266 Y-60.214
X-82.577 Y-60.401
X-82.87 Y-60.618
X-83.143 Y-60.861
X-83.393 Y-61.131
X-83.617 Y-61.423
X-83.813 Y-61.736
X-83.979 Y-62.067
X-84.115 Y-62.413
X-84.217 Y-62.771
X-84.286 Y-63.138
X-84.32 Y-63.51
X-84.319 Y-63.884
X-84.283 Y-64.257
X-84.213 Y-64.625
X-84.108 Y-64.985
X-83.97 Y-65.335
X-83.799 Y-65.67
X-83.598 Y-65.988
X-83.368 Y-66.286
X-83.111 Y-66.561
X-82.829 Y-66.811
X-82.525 Y-67.034
X-82.201 Y-67.227
X-81.86 Y-67.389
X-81.506 Y-67.519
X-81.141 Y-67.615
X-80.769 Y-67.676
X-80.393 Y-67.703
X-80.015 Y-67.694
X-79.64 Y-67.649
X-79.27 Y-67.57
X-78.908 Y-67.456
X-78.556 Y-67.308
X-78.216 Y-67.126
X-77.89 Y-66.909
X-77.58 Y-66.659
X-77.29 Y-66.376
X-77.024 Y-66.063
X-76.786 Y-65.723
X-76.58 Y-65.36
X-76.409 Y-64.979
X-76.274 Y-64.585
X-76.177 Y-64.181
X-76.119 Y-63.772
X-76.099 Y-63.362
X-76.117 Y-62.955
X-76.174 Y-62.553
X-76.267 Y-62.16
X-76.396 Y-61.78
X-76.56 Y-61.413
X-76.757 Y-61.064
X-76.986 Y-60.734
X-77.245 Y-60.427
X-77.532 Y-60.145
X-77.846 Y-59.891
X-78.183 Y-59.665
X-78.542 Y-59.472
X-78.919 Y-59.312
X-79.311 Y-59.187
X-79.715 Y-59.1
X-80.128 Y-59.05
X-80.546 Y-59.039
X-80.965 Y-59.067
X-81.382 Y-59.135
X-81.793 Y-59.241
X-82.194 Y-59.387
X-82.581 Y-59.57
X-82.95 Y-59.789
X-83.299 Y-60.043
X-83.623 Y-60.329
X-83.921 Y-60.646
X-84.188 Y-60.989
X-84.422 Y-61.358
X-84.621 Y-61.747
X-84.784 Y-62.154
X-84.908 Y-62.575
X-84.992 Y-63.007
X-85.035 Y-63.446
X-85.037 Y-63.887
X-84.998 Y-64.327
X-84.918 Y-64.762
X-84.797 Y-65.187
X-84.637 Y-65.6
X-84.439 Y-65.997
X-84.204 Y-66.373
X-83.935 Y-66.726
X-83.635 Y-67.052
X-83.305 Y-67.349
X-82.948 Y-67.614
X-82.568 Y-67.844
X-82.168 Y-68.038
X-81.752 Y-68.194
X-81.323 Y-68.31
X-80.885 Y-68.385
X-80.442 Y-68.419
X-79.997 Y-68.412
X-79.555 Y-68.363
X-79.118 Y-68.272
X-78.69 Y-68.141
X-78.274 Y-67.969
X-77.872 Y-67.757
X-77.487 Y-67.506
X-77.123 Y-67.216
X-76.783 Y-66.888
X-76.472 Y-66.527
X-76.193 Y-66.135
X-75.952 Y-65.716
X-75.75 Y-65.277
X-75.591 Y-64.82
X-75.475 Y-64.353
X-75.404 Y-63.878
X-75.378 Y-63.401
X-75.396 Y-62.926
X-75.458 Y-62.457
X-75.564 Y-61.997
X-75.712 Y-61.551
X-75.9 Y-61.121
X-76.128 Y-60.711
X-76.393 Y-60.324
X-76.694 Y-59.963
X-77.027 Y-59.631
X-77.391 Y-59.331
X-77.783 Y-59.065
X-78.2 Y-58.837
X-78.637 Y-58.647
X-79.093 Y-58.499
X-79.563 Y-58.394
X-80.042 Y-58.333
X-80.527 Y-58.316
X-81.014 Y-58.346
X-81.498 Y-58.421
X-81.975 Y-58.541
X-82.44 Y-58.707
X-82.889 Y-58.915
X-83.319 Y-59.166
X-83.724 Y-59.457
X-84.101 Y-59.785
X-84.447 Y-60.148
X-84.759 Y-60.543
X-85.032 Y-60.967
X-85.265 Y-61.414
X-85.456 Y-61.883
X-85.602 Y-62.368
X-85.703 Y-62.866
X-85.756 Y-63.371
X-85.762 Y-63.88
X-85.721 Y-64.388
X-85.632 Y-64.89
X-85.496 Y-65.382
X-85.315 Y-65.859
X-85.089 Y-66.318
X-84.822 Y-66.754
X-84.515 Y-67.162
X-84.171 Y-67.541
X-83.793 Y-67.886
X-83.384 Y-68.194
X-82.948 Y-68.463
X-82.489 Y-68.689
X-82.01 Y-68.872
X-81.517 Y-69.009
X-81.012 Y-69.1
X-80.501 Y-69.143
X-79.989 Y-69.138
X-79.478 Y-69.084
X-78.974 Y-68.984
X-78.479 Y-68.836
X-77.998 Y-68.641
X-77.534 Y-68.4
X-77.089 Y-68.114
X-76.669 Y-67.784
X-76.278 Y-67.413
X-75.92 Y-67.003
X-75.6 Y-66.559
X-75.322 Y-66.085
X-75.089 Y-65.586
X-74.904 Y-65.068
X-74.769 Y-64.535
X-74.684 Y-63.994
X-74.65 Y-63.45
X-74.667 Y-62.906
X-74.735 Y-62.369
X-74.852 Y-61.841
X-75.018 Y-61.329
X-75.23 Y-60.834
X-75.488 Y-60.362
X-75.789 Y-59.917
X-76.13 Y-59.501
X-76.51 Y-59.118
X-76.924 Y-58.772
X-77.371 Y-58.465
X-77.845 Y-58.2
X-78.344 Y-57.98
X-78.863 Y-57.807
X-79.399 Y-57.683
X-79.945 Y-57.609
X-80.498 Y-57.587
X-81.053 Y-57.617
X-81.605 Y-57.698
X-82.149 Y-57.832
X-82.679 Y-58.016
X-83.192 Y-58.25
X-83.682 Y-58.532
X-84.145 Y-58.859
X-84.577 Y-59.229
X-84.972 Y-59.639
X-85.329 Y-60.085
X-85.643 Y-60.563
X-85.911 Y-61.07
X-86.132 Y-61.6
X-86.301 Y-62.15
X-86.419 Y-62.714
X-86.484 Y-63.287
X-86.495 Y-63.864
X-86.451 Y-64.44
X-86.354 Y-65.01
X-86.204 Y-65.569
X-86.003 Y-66.111
X-85.751 Y-66.632
X-85.452 Y-67.128
X-85.108 Y-67.593
X-84.722 Y-68.024
X-84.298 Y-68.418
X-83.838 Y-68.77
X-83.348 Y-69.077
X-82.832 Y-69.338
X-82.293 Y-69.549
X-81.737 Y-69.71
X-81.168 Y-69.817
X-80.592 Y-69.872
X-80.013
X-79.437 Y-69.819
X-78.868 Y-69.712
X-78.312 Y-69.553
X-77.773 Y-69.343
X-77.255 Y-69.085
X-76.763 Y-68.781
X-76.3 Y-68.434
X-75.869 Y-68.047
X-75.476 Y-67.623
X-75.122 Y-67.165
X-74.81 Y-66.677
X-74.542 Y-66.164
X-74.32 Y-65.63
X-74.146 Y-65.078
X-74.02 Y-64.513
X-73.944 Y-63.94
X-73.918 Y-63.361
X-73.944 Y-62.783
X-74.02 Y-62.21
X-74.148 Y-61.645
X-74.324 Y-61.094
X-74.549 Y-60.561
X-74.821 Y-60.05
X-75.137 Y-59.565
X-75.495 Y-59.111
X-75.892 Y-58.69
X-76.325 Y-58.306
X-76.791 Y-57.962
X-77.285 Y-57.662
X-77.805 Y-57.408
X-78.345 Y-57.2
X-78.901 Y-57.04
X-79.469 Y-56.929
X-80.045 Y-56.869
X-80.623 Y-56.858
X-81.201 Y-56.897
X-81.773 Y-56.986
X-82.335 Y-57.124
X-82.883 Y-57.309
X-83.414 Y-57.539
X-83.923 Y-57.814
X-84.406 Y-58.133
X-84.859 Y-58.493
X-85.279 Y-58.891
X-85.665 Y-59.322
X-86.013 Y-59.785
X-86.321 Y-60.275
X-86.587 Y-60.788
X-86.81 Y-61.323
X-86.987 Y-61.873
X-87.118 Y-62.437
X-87.201 Y-63.01
X-87.232 Y-63.588
X-87.215 Y-64.166
X-87.149 Y-64.741
X-87.036 Y-65.309
X-86.877 Y-65.865
X-86.672 Y-66.406
X-86.424 Y-66.929
X-86.133 Y-67.429
X-85.802 Y-67.904
X-85.43 Y-68.347
X-85.022 Y-68.757
X-84.581 Y-69.132
X-84.111 Y-69.469
X-83.614 Y-69.766
X-83.095 Y-70.022
X-82.556 Y-70.233
X-82.002 Y-70.4
X-81.436 Y-70.521
X-80.862 Y-70.593
X-80.284 Y-70.614
X-79.706 Y-70.587
X-79.132 Y-70.512
X-78.566 Y-70.391
X-78.012 Y-70.223
X-77.474 Y-70.011
X-76.954 Y-69.757
X-76.457 Y-69.461
X-75.985 Y-69.126
X-75.543 Y-68.752
X-75.133 Y-68.344
X-74.757 Y-67.903
X-74.418 Y-67.435
X-74.117 Y-66.94
X-73.855 Y-66.424
X-73.635 Y-65.889
X-73.456 Y-65.339
X-73.32 Y-64.776
X-73.229 Y-64.205
X-73.186 Y-63.628
X-73.19 Y-63.049
X-73.239 Y-62.473
X-73.333 Y-61.902
X-73.473 Y-61.34
X-73.656 Y-60.791
X-73.882 Y-60.258
X-74.149 Y-59.745
X-74.456 Y-59.255
X-74.801 Y-58.79
X-75.185 Y-58.357
X-75.602 Y-57.956
X-76.05 Y-57.59
X-76.526 Y-57.26
X-77.027 Y-56.97
X-77.549 Y-56.721
X-78.089 Y-56.512
X-78.643 Y-56.347
X-79.209 Y-56.225
X-79.782 Y-56.149
X-80.36 Y-56.119
X-80.939 Y-56.136
X-81.514 Y-56.197
X-82.083 Y-56.303
X-82.643 Y-56.451
X-83.189 Y-56.641
X-83.72 Y-56.872
X-84.231 Y-57.143
X-84.72 Y-57.453
X-85.182 Y-57.801
X-85.615 Y-58.185
X-86.016 Y-58.602
X-86.385 Y-59.048
X-86.719 Y-59.521
X-87.017 Y-60.017
X-87.277 Y-60.534
X-87.498 Y-61.068
X-87.678 Y-61.618
X-87.818 Y-62.18
X-87.914 Y-62.751
X-87.963 Y-63.327
X-87.965 Y-63.906
X-87.924 Y-64.483
X-87.84 Y-65.056
X-87.714 Y-65.62
X-87.546 Y-66.174
X-87.338 Y-66.714
X-87.091 Y-67.237
X-86.806 Y-67.741
X-86.484 Y-68.222
X-86.125 Y-68.676
X-85.73 Y-69.099
X-85.304 Y-69.491
X-84.85 Y-69.849
X-84.371 Y-70.174
X-83.869 Y-70.462
X-83.347 Y-70.712
X-82.808 Y-70.923
X-82.256 Y-71.094
X-81.692 Y-71.223
X-81.119 Y-71.31
X-80.542 Y-71.349
X-79.963 Y-71.342
X-79.387 Y-71.292
X-78.816 Y-71.2
X-78.253 Y-71.066
X-77.701 Y-70.891
X-77.164 Y-70.677
X-76.643 Y-70.424
X-76.142 Y-70.133
X-75.664 Y-69.808
X-75.212 Y-69.447
X-74.79 Y-69.051
X-74.398 Y-68.625
X-74.038 Y-68.172
X-73.711 Y-67.694
X-73.419 Y-67.195
X-73.163 Y-66.676
X-72.944 Y-66.14
X-72.763 Y-65.591
X-72.621 Y-65.03
X-72.518 Y-64.46
X-72.459 Y-63.885
X-72.445 Y-63.306
X-72.472 Y-62.728
X-72.541 Y-62.153
X-72.651 Y-61.585
X-72.8 Y-61.026
X-72.989 Y-60.479
X-73.217 Y-59.947
X-73.481 Y-59.432
X-73.782 Y-58.938
X-74.117 Y-58.466
X-74.488 Y-58.022
X-74.892 Y-57.608
X-75.325 Y-57.224
X-75.785 Y-56.873
X-76.269 Y-56.556
X-76.774 Y-56.274
X-77.299 Y-56.029
X-77.839 Y-55.821
X-78.392 Y-55.652
X-78.956 Y-55.522
X-79.528 Y-55.433
X-80.105 Y-55.387
X-80.683 Y-55.385
X-81.261 Y-55.424
X-81.834 Y-55.504
X-82.4 Y-55.622
X-82.957 Y-55.78
X-83.502 Y-55.975
X-84.032 Y-56.207
X-84.545 Y-56.475
X-85.038 Y-56.779
X-85.508 Y-57.116
X-85.951 Y-57.488
X-86.365 Y-57.892
X-86.75 Y-58.325
X-87.104 Y-58.782
X-87.427 Y-59.263
X-87.716 Y-59.764
X-87.97 Y-60.284
X-88.19 Y-60.819
X-88.372 Y-61.368
X-88.517 Y-61.928
X-88.624 Y-62.497
X-88.688 Y-63.072
X-88.708 Y-63.651
X-88.687 Y-64.229
X-88.626 Y-64.805
X-88.527 Y-65.375
X-88.39 Y-65.937
X-88.215 Y-66.489
X-88.004 Y-67.027
X-87.757 Y-67.551
X-87.476 Y-68.057
X-87.162 Y-68.542
X-86.814 Y-69.005
X-86.431 Y-69.439
X-86.018 Y-69.844
X-85.578 Y-70.22
X-85.114 Y-70.565
X-84.627 Y-70.879
X-84.121 Y-71.159
X-83.597 Y-71.405
X-83.058 Y-71.615
X-82.506 Y-71.788
X-81.943 Y-71.925
X-81.373 Y-72.023
X-80.797 Y-72.077
X-80.218 Y-72.089
X-79.64 Y-72.059
X-79.066 Y-71.991
X-78.497 Y-71.885
X-77.937 Y-71.74
X-77.387 Y-71.559
X-76.85 Y-71.342
X-76.33 Y-71.09
X-75.826 Y-70.805
X-75.343 Y-70.487
X-74.882 Y-70.136
X-74.449 Y-69.752
X-74.044 Y-69.339
X-73.668 Y-68.899
X-73.321 Y-68.436
X-73.005 Y-67.951
X-72.721 Y-67.447
X-72.469 Y-66.926
X-72.252 Y-66.39
X-72.069 Y-65.841
X-71.921 Y-65.281
X-71.81 Y-64.714
X-71.737 Y-64.14
X-71.707 Y-63.562
X-71.716 Y-62.983
X-71.763 Y-62.406
X-71.848 Y-61.834
X-71.97 Y-61.268
X-72.128 Y-60.712
X-72.322 Y-60.166
X-72.55 Y-59.635
X-72.813 Y-59.119
X-73.108 Y-58.621
X-73.435 Y-58.144
X-73.795 Y-57.69
X-74.187 Y-57.265
X-74.607 Y-56.867
X-75.053 Y-56.498
X-75.523 Y-56.16
X-76.013 Y-55.853
X-76.522 Y-55.578
X-77.048 Y-55.336
X-77.588 Y-55.129
X-78.141 Y-54.957
X-78.703 Y-54.821
X-79.273 Y-54.721
X-79.849 Y-54.661
X-80.427 Y-54.642
X-81.006 Y-54.662
X-81.581 Y-54.72
X-82.152 Y-54.814
X-82.716 Y-54.943
X-83.271 Y-55.108
X-83.814 Y-55.307
X-84.344 Y-55.54
X-84.858 Y-55.806
X-85.354 Y-56.104
X-85.83 Y-56.433
X-86.282 Y-56.794
X-86.707 Y-57.187
X-87.106 Y-57.607
X-87.477 Y-58.051
X-87.819 Y-58.517
X-88.132 Y-59.004
X-88.414 Y-59.51
X-88.664 Y-60.031
X-88.882 Y-60.567
X-89.066 Y-61.116
X-89.216 Y-61.675
X-89.331 Y-62.242
X-89.408 Y-62.816
X-89.444 Y-63.393
X-89.44 Y-63.972
X-89.4 Y-64.549
X-89.323 Y-65.123
X-89.212 Y-65.691
X-89.066 Y-66.251
X-88.886 Y-66.8
X-88.672 Y-67.338
X-88.426 Y-67.862
X-88.148 Y-68.37
X-87.84 Y-68.859
X-87.501 Y-69.328
X-87.129 Y-69.772
X-86.728 Y-70.189
X-86.301 Y-70.579
X-85.85 Y-70.942
X-85.378 Y-71.276
X-84.886 Y-71.581
X-84.376 Y-71.855
X-83.85 Y-72.097
X-83.311 Y-72.307
X-82.76 Y-72.483
X-82.199 Y-72.625
X-81.63 Y-72.732
X-81.055 Y-72.801
X-80.477 Y-72.828
X-79.899 Y-72.817
X-79.322 Y-72.769
X-78.749 Y-72.686
X-78.183 Y-72.568
X-77.625 Y-72.416
X-77.077 Y-72.23
X-76.541 Y-72.011
X-76.019 Y-71.76
X-75.514 Y-71.478
X-75.027 Y-71.167
X-74.559 Y-70.825
X-74.117 Y-70.452
X-73.7 Y-70.051
X-73.31 Y-69.624
X-72.946 Y-69.173
X-72.61 Y-68.702
X-72.302 Y-68.212
X-72.024 Y-67.705
X-71.777 Y-67.182
X-71.56 Y-66.645
X-71.375 Y-66.097
X-71.223 Y-65.538
X-71.104 Y-64.972
X-71.02 Y-64.4
X-70.975 Y-63.823
X-70.968 Y-63.244
X-70.996 Y-62.666
X-71.06 Y-62.091
X-71.158 Y-61.521
X-71.289 Y-60.957
X-71.454 Y-60.402
X-71.651 Y-59.858
X-71.881 Y-59.327
X-72.141 Y-58.81
X-72.431 Y-58.31
X-72.751 Y-57.827
X-73.101 Y-57.366
X-73.482 Y-56.931
X-73.891 Y-56.521
X-74.324 Y-56.138
X-74.78 Y-55.781
X-75.256 Y-55.453
X-75.752 Y-55.153
X-76.264 Y-54.884
X-76.791 Y-54.645
X-77.331 Y-54.438
X-77.883 Y-54.263
X-78.444 Y-54.121
X-79.012 Y-54.012
X-79.586 Y-53.939
X-80.164 Y-53.906
X-80.743 Y-53.909
X-81.32 Y-53.947
X-81.894 Y-54.019
X-82.463 Y-54.125
X-83.025 Y-54.263
X-83.578 Y-54.433
X-84.12 Y-54.636
X-84.65 Y-54.869
X-85.165 Y-55.132
X-85.664 Y-55.425
X-86.145 Y-55.747
X-86.605 Y-56.099
X-87.04 Y-56.48
X-87.45 Y-56.889
X-87.835 Y-57.321
X-88.194 Y-57.774
X-88.527 Y-58.248
X-88.832 Y-58.74
X-89.108 Y-59.248
X-89.355 Y-59.771
X-89.572 Y-60.308
X-89.758 Y-60.856
X-89.913 Y-61.413
X-90.035 Y-61.979
X-90.124 Y-62.551
X-90.173 Y-63.127
X-90.186 Y-63.706
X-90.163 Y-64.284
X-90.107 Y-64.86
X-90.019 Y-65.432
X-89.897 Y-65.998
X-89.744 Y-66.556
X-89.56 Y-67.104
X-89.344 Y-67.641
X-89.099 Y-68.166
X-88.825 Y-68.675
X-88.522 Y-69.168
X-88.191 Y-69.643
X-87.83 Y-70.095
X-87.44 Y-70.523
X-87.025 Y-70.926
X-86.586 Y-71.303
X-86.127 Y-71.655
X-85.648 Y-71.98
X-85.152 Y-72.278
X-84.64 Y-72.547
X-84.113 Y-72.787
X-83.574 Y-72.996
X-83.023 Y-73.175
X-82.464 Y-73.323
X-81.897 Y-73.438
X-81.324 Y-73.519
X-80.746 Y-73.561
X-80.168 Y-73.566
X-79.59 Y-73.537
X-79.015 Y-73.475
X-78.444 Y-73.38
X-77.879 Y-73.253
X-77.323 Y-73.094
X-76.776 Y-72.905
X-76.24 Y-72.685
X-75.718 Y-72.436
X-75.211 Y-72.158
X-74.719 Y-71.852
X-74.246 Y-71.518
X-73.795 Y-71.156
X-73.369 Y-70.765
X-72.966 Y-70.35
X-72.587 Y-69.912
X-72.234 Y-69.453
X-71.907 Y-68.976
X-71.606 Y-68.482
X-71.333 Y-67.972
X-71.087 Y-67.448
X-70.871 Y-66.911
X-70.684 Y-66.363
X-70.527 Y-65.806
X-70.401 Y-65.242
X-70.307 Y-64.671
X-70.248 Y-64.095
X-70.226 Y-63.517
X-70.238 Y-62.938
X-70.283 Y-62.361
X-70.359 Y-61.787
X-70.467 Y-61.219
X-70.606 Y-60.657
X-70.776 Y-60.104
X-70.976 Y-59.561
X-71.205 Y-59.029
X-71.463 Y-58.511
X-71.749 Y-58.008
X-72.062 Y-57.522
X-72.403 Y-57.054
X-72.773 Y-56.61
X-73.171 Y-56.189
X-73.592 Y-55.792
X-74.035 Y-55.42
X-74.499 Y-55.074
X-74.981 Y-54.753
X-75.48 Y-54.46
X-75.994 Y-54.195
X-76.522 Y-53.958
X-77.062 Y-53.75
X-77.612 Y-53.572
X-78.172 Y-53.424
X-78.739 Y-53.307
X-79.311 Y-53.223
X-79.888 Y-53.176
X-80.466 Y-53.163
X-81.045 Y-53.184
X-81.621 Y-53.236
X-82.194 Y-53.32
X-82.761 Y-53.435
X-83.321 Y-53.58
X-83.873 Y-53.754
X-84.414 Y-53.958
X-84.944 Y-54.191
X-85.461 Y-54.452
X-85.962 Y-54.74
X-86.448 Y-55.055
X-86.914 Y-55.398
X-87.358 Y-55.769
X-87.779 Y-56.166
X-88.177 Y-56.586
X-88.551 Y-57.028
X-88.901 Y-57.489
X-89.225 Y-57.968
X-89.524 Y-58.463
X-89.797 Y-58.974
X-90.042 Y-59.498
X-90.259 Y-60.035
X-90.447 Y-60.582
X-90.607 Y-61.138
X-90.736 Y-61.702
X-90.834 Y-62.272
X-90.897 Y-62.848
X-90.924 Y-63.426
X-90.919 Y-64.004
X-90.881 Y-64.582
X-90.813 Y-65.156
X-90.714 Y-65.727
X-90.585 Y-66.291
X-90.427 Y-66.847
X-90.239 Y-67.395
X-90.024 Y-67.932
X-89.78 Y-68.457
X-89.509 Y-68.968
X-89.212 Y-69.465
X-88.888 Y-69.944
X-88.537 Y-70.404
X-88.158 Y-70.841
X-87.754 Y-71.255
X-87.327 Y-71.646
X-86.88 Y-72.014
X-86.414 Y-72.357
X-85.931 Y-72.675
X-85.431 Y-72.967
X-84.917 Y-73.233
X-84.39 Y-73.471
X-83.851 Y-73.682
X-83.301 Y-73.864
X-82.743 Y-74.017
X-82.178 Y-74.14
X-81.606 Y-74.232
X-81.03 Y-74.287
X-80.452 Y-74.308
X-79.874 Y-74.296
X-79.296 Y-74.253
X-78.723 Y-74.178
X-78.153 Y-74.074
X-77.59 Y-73.94
X-77.035 Y-73.777
X-76.489 Y-73.586
X-75.954 Y-73.366
X-75.431 Y-73.119
X-74.921 Y-72.845
X-74.426 Y-72.545
X-73.948 Y-72.219
X-73.489 Y-71.866
X-73.053 Y-71.486
X-72.639 Y-71.082
X-72.247 Y-70.655
X-71.879 Y-70.209
X-71.534 Y-69.745
X-71.213 Y-69.263
X-70.918 Y-68.765
X-70.648 Y-68.254
X-70.404 Y-67.729
X-70.187 Y-67.192
X-69.998 Y-66.645
X-69.836 Y-66.09
X-69.703 Y-65.527
X-69.599 Y-64.957
X-69.528 Y-64.383
X-69.492 Y-63.805
X-69.488 Y-63.227
X-69.515 Y-62.649
X-69.572 Y-62.073
X-69.658 Y-61.501
X-69.774 Y-60.934
X-69.919 Y-60.373
X-70.092 Y-59.821
X-70.293 Y-59.278
X-70.521 Y-58.747
X-70.776 Y-58.227
X-71.058 Y-57.722
X-71.365 Y-57.231
X-71.697 Y-56.758
X-72.057 Y-56.305
X-72.444 Y-55.874
X-72.854 Y-55.466
X-73.285 Y-55.08
X-73.736 Y-54.717
X-74.205 Y-54.378
X-74.691 Y-54.064
X-75.193 Y-53.775
X-75.708 Y-53.512
X-76.236 Y-53.276
X-76.776 Y-53.067
X-77.325 Y-52.885
X-77.883 Y-52.732
X-78.448 Y-52.607
X-79.019 Y-52.512
X-79.595 Y-52.452
X-80.173 Y-52.425
X-80.751 Y-52.429
X-81.329 Y-52.463
X-81.904 Y-52.527
X-82.475 Y-52.62
X-83.041 Y-52.742
X-83.6 Y-52.891
X-84.151 Y-53.069
X-84.692 Y-53.273
X-85.223 Y-53.505
X-85.741 Y-53.763
X-86.245 Y-54.046
X-86.735 Y-54.354
X-87.208 Y-54.688
X-87.66 Y-55.049
X-88.09 Y-55.436
X-88.5 Y-55.845
X-88.887 Y-56.275
X-89.252 Y-56.724
X-89.595 Y-57.19
X-89.914 Y-57.673
X-90.208 Y-58.171
X-90.478 Y-58.683
X-90.722 Y-59.208
X-90.94 Y-59.744
X-91.131 Y-60.29
X-91.295 Y-60.845
X-91.432 Y-61.408
X-91.54 Y-61.976
X-91.615 Y-62.55
X-91.656 Y-63.127
X-91.666 Y-63.706
X-91.646 Y-64.284
X-91.596 Y-64.861
X-91.518 Y-65.434
X-91.411 Y-66.003
X-91.277 Y-66.566
X-91.115 Y-67.121
X-90.926 Y-67.668
X-90.711 Y-68.205
X-90.47 Y-68.731
X-90.203 Y-69.245
X-89.911 Y-69.745
X-89.595 Y-70.229
X-89.253 Y-70.696
X-88.884 Y-71.142
X-88.491 Y-71.566
X-88.075 Y-71.969
X-87.64 Y-72.351
X-87.187 Y-72.71
X-86.716 Y-73.046
X-86.229 Y-73.359
X-85.727 Y-73.648
X-85.212 Y-73.911
X-84.685 Y-74.15
X-84.146 Y-74.362
X-83.598 Y-74.547
X-83.042 Y-74.706
X-82.478 Y-74.837
X-81.908 Y-74.938
X-81.334 Y-75.006
X-80.756 Y-75.042
X-80.177 Y-75.046
X-79.599 Y-75.021
X-79.023 Y-74.966
X-78.45 Y-74.883
X-77.883 Y-74.772
X-77.321 Y-74.633
X-76.766 Y-74.467
X-76.221 Y-74.275
X-75.685 Y-74.056
X-75.161 Y-73.811
X-74.649 Y-73.542
X-74.15 Y-73.248
X-73.667 Y-72.929
X-73.201 Y-72.586
X-72.756 Y-72.216
X-72.332 Y-71.822
X-71.928 Y-71.408
X-71.546 Y-70.973
X-71.185 Y-70.521
X-70.847 Y-70.051
X-70.531 Y-69.566
X-70.239 Y-69.067
X-69.971 Y-68.554
X-69.728 Y-68.029
X-69.509 Y-67.493
X-69.317 Y-66.947
X-69.15 Y-66.393
X-69.01 Y-65.832
X-68.897 Y-65.264
X-68.815 Y-64.691
X-68.765 Y-64.115
X-68.746 Y-63.536
X-68.756 Y-62.958
X-68.795 Y-62.38
X-68.861 Y-61.806
X-68.955 Y-61.235
X-69.077 Y-60.669
X-69.225 Y-60.11
X-69.4 Y-59.558
X-69.601 Y-59.015
X-69.828 Y-58.483
X-70.08 Y-57.962
X-70.356 Y-57.453
X-70.657 Y-56.959
X-70.981 Y-56.48
X-71.332 Y-56.019
X-71.708 Y-55.579
X-72.106 Y-55.16
X-72.526 Y-54.761
X-72.965 Y-54.384
X-73.421 Y-54.029
X-73.895 Y-53.696
X-74.384 Y-53.386
X-74.887 Y-53.1
X-75.403 Y-52.839
X-75.931 Y-52.602
X-76.47 Y-52.39
X-77.018 Y-52.205
X-77.574 Y-52.046
X-78.137 Y-51.913
X-78.706 Y-51.808
X-79.28 Y-51.735
X-79.858 Y-51.694
X-80.436 Y-51.682
X-81.015 Y-51.7
X-81.592 Y-51.745
X-82.166 Y-51.818
X-82.736 Y-51.917
X-83.3 Y-52.044
X-83.858 Y-52.197
X-84.409 Y-52.375
X-84.95 Y-52.579
X-85.482 Y-52.809
X-86.002 Y-53.063
X-86.509 Y-53.341
X-87.003 Y-53.643
X-87.481 Y-53.968
X-87.941 Y-54.32
X-88.381 Y-54.696
X-88.801 Y-55.094
X-89.201 Y-55.512
X-89.58 Y-55.949
X-89.938 Y-56.403
X-90.275 Y-56.874
X-90.59 Y-57.36
X-90.881 Y-57.86
X-91.149 Y-58.373
X-91.394 Y-58.897
X-91.613 Y-59.432
X-91.808 Y-59.977
X-91.978 Y-60.531
X-92.121 Y-61.091
X-92.238 Y-61.658
X-92.325 Y-62.23
X-92.38 Y-62.806
X-92.405 Y-63.384
X-92.401 Y-63.963
X-92.37 Y-64.541
X-92.311 Y-65.116
X-92.225 Y-65.689
X-92.113 Y-66.257
X-91.975 Y-66.818
X-91.811 Y-67.373
X-91.622 Y-67.92
X-91.408 Y-68.458
X-91.17 Y-68.985
X-90.907 Y-69.501
X-90.622 Y-70.004
X-90.313 Y-70.494
X-89.979 Y-70.967
X-89.62 Y-71.42
X-89.238 Y-71.855
X-88.834 Y-72.269
X-88.411 Y-72.664
X-87.969 Y-73.038
X-87.511 Y-73.391
X-87.036 Y-73.722
X-86.547 Y-74.031
X-86.044 Y-74.317
X-85.529 Y-74.58
X-85.002 Y-74.819
X-84.464 Y-75.034
X-83.917 Y-75.224
X-83.363 Y-75.388
X-82.801 Y-75.527
X-82.233 Y-75.638
X-81.66 Y-75.719
X-81.083 Y-75.768
X-80.505 Y-75.788
X-79.926 Y-75.78
X-79.349 Y-75.744
X-78.774 Y-75.68
X-78.202 Y-75.591
X-77.635 Y-75.475
X-77.074 Y-75.333
X-76.52 Y-75.165
X-75.974 Y-74.973
X-75.438 Y-74.756
X-74.912 Y-74.515
X-74.397 Y-74.25
X-73.895 Y-73.962
X-73.407 Y-73.651
X-72.935 Y-73.316
X-72.482 Y-72.957
X-72.048 Y-72.574
X-71.633 Y-72.171
X-71.237 Y-71.748
X-70.862 Y-71.308
X-70.507 Y-70.85
X-70.174 Y-70.378
X-69.862 Y-69.89
X-69.572 Y-69.389
X-69.305 Y-68.876
X-69.061 Y-68.352
X-68.84 Y-67.817
X-68.643 Y-67.272
X-68.471 Y-66.72
X-68.324 Y-66.16
X-68.202 Y-65.595
X-68.109 Y-65.023
X-68.046 Y-64.448
X-68.012 Y-63.87
X-68.006 Y-63.292
X-68.027 Y-62.714
X-68.075 Y-62.137
X-68.149 Y-61.563
X-68.249 Y-60.993
X-68.374 Y-60.428
X-68.525 Y-59.869
X-68.7 Y-59.318
X-68.9 Y-58.775
X-69.124 Y-58.241
X-69.372 Y-57.718
X-69.643 Y-57.207
X-69.937 Y-56.708
X-70.253 Y-56.224
X-70.594 Y-55.757
X-70.96 Y-55.308
X-71.347 Y-54.878
X-71.755 Y-54.468
X-72.182 Y-54.077
X-72.626 Y-53.706
X-73.087 Y-53.356
X-73.564 Y-53.028
X-74.054 Y-52.721
X-74.558 Y-52.436
X-75.074 Y-52.175
X-75.602 Y-51.937
X-76.139 Y-51.722
X-76.686 Y-51.532
X-77.24 Y-51.366
X-77.802 Y-51.226
X-78.369 Y-51.111
X-78.941 Y-51.027
X-79.517 Y-50.972
X-80.095 Y-50.945
X-80.674
X-81.252 Y-50.973
X-81.828 Y-51.026
X-82.402 Y-51.105
X-82.971 Y-51.21
X-83.535 Y-51.339
X-84.092 Y-51.494
X-84.643 Y-51.673
X-85.185 Y-51.875
X-85.717 Y-52.102
X-86.239 Y-52.351
X-86.75 Y-52.624
X-87.248 Y-52.919
X-87.732 Y-53.236
X-88.199 Y-53.578
X-88.647 Y-53.944
X-89.078 Y-54.33
X-89.489 Y-54.737
X-89.882 Y-55.162
X-90.255 Y-55.605
X-90.608 Y-56.063
X-90.941 Y-56.537
X-91.252 Y-57.024
X-91.542 Y-57.525
X-91.81 Y-58.038
X-92.056 Y-58.562
X-92.278 Y-59.096
X-92.477 Y-59.64
X-92.652 Y-60.191
X-92.804 Y-60.75
X-92.93 Y-61.314
X-93.027 Y-61.885
X-93.095 Y-62.46
X-93.135 Y-63.037
X-93.148 Y-63.615
X-93.133 Y-64.194
X-93.093 Y-64.771
X-93.027 Y-65.346
X-92.937 Y-65.918
X-92.821 Y-66.485
X-92.681 Y-67.046
X-92.516 Y-67.601
X-92.328 Y-68.148
X-92.116 Y-68.687
X-91.882 Y-69.216
X-91.624 Y-69.734
X-91.345 Y-70.241
X-91.043 Y-70.734
X-90.718 Y-71.213
X-90.369 Y-71.675
X-89.998 Y-72.119
X-89.606 Y-72.544
X-89.194 Y-72.951
X-88.764 Y-73.339
X-88.318 Y-73.707
X-87.856 Y-74.055
X-87.379 Y-74.383
X-86.888 Y-74.69
X-86.385 Y-74.975
X-85.87 Y-75.238
X-85.343 Y-75.479
X-84.807 Y-75.697
X-84.262 Y-75.892
X-83.709 Y-76.062
X-83.15 Y-76.209
X-82.584 Y-76.33
X-82.012 Y-76.422
X-81.437 Y-76.485
X-80.86 Y-76.521
X-80.281 Y-76.529
X-79.703 Y-76.51
X-79.126 Y-76.466
X-78.551 Y-76.397
X-77.98 Y-76.303
X-77.414 Y-76.183
X-76.853 Y-76.04
X-76.299 Y-75.873
X-75.753 Y-75.682
X-75.216 Y-75.467
X-74.688 Y-75.23
X-74.17 Y-74.971
X-73.665 Y-74.689
X-73.172 Y-74.386
X-72.694 Y-74.06
X-72.233 Y-73.71
X-71.789 Y-73.339
X-71.363 Y-72.947
X-70.956 Y-72.536
X-70.567 Y-72.107
X-70.197 Y-71.662
X-69.847 Y-71.202
X-69.516 Y-70.727
X-69.206 Y-70.238
X-68.917 Y-69.737
X-68.65 Y-69.224
X-68.404 Y-68.7
X-68.18 Y-68.166
X-67.979 Y-67.623
X-67.801 Y-67.073
X-67.646 Y-66.515
X-67.515 Y-65.952
X-67.411 Y-65.382
X-67.336 Y-64.809
X-67.287 Y-64.232
X-67.265 Y-63.654
X-67.27 Y-63.075
X-67.299 Y-62.497
X-67.354 Y-61.921
X-67.433 Y-61.348
X-67.536 Y-60.778
X-67.664 Y-60.214
X-67.815 Y-59.655
X-67.99 Y-59.104
X-68.188 Y-58.56
X-68.409 Y-58.025
X-68.652 Y-57.5
X-68.917 Y-56.986
X-69.203 Y-56.483
X-69.512 Y-55.993
X-69.844 Y-55.519
X-70.199 Y-55.062
X-70.575 Y-54.623
X-70.971 Y-54.201
X-71.386 Y-53.797
X-71.818 Y-53.412
X-72.267 Y-53.047
X-72.731 Y-52.701
X-73.209 Y-52.375
X-73.7 Y-52.07
X-74.205 Y-51.785
X-74.72 Y-51.523
X-75.247 Y-51.282
X-75.782 Y-51.064
X-76.327 Y-50.869
X-76.88 Y-50.696
X-77.439 Y-50.547
X-78.004 Y-50.423
X-78.575 Y-50.327
X-79.149 Y-50.258
X-79.726 Y-50.217
X-80.305 Y-50.201
X-80.883 Y-50.211
X-81.461 Y-50.246
X-82.037 Y-50.305
X-82.609 Y-50.389
X-83.178 Y-50.496
X-83.741 Y-50.628
X-84.299 Y-50.782
X-84.85 Y-50.96
X-85.393 Y-51.16
X-85.927 Y-51.383
X-86.451 Y-51.627
X-86.965 Y-51.893
X-87.467 Y-52.181
X-87.956 Y-52.49
X-88.43 Y-52.823
X-88.887 Y-53.178
X-89.327 Y-53.554
X-89.75 Y-53.949
X-90.155 Y-54.362
X-90.542 Y-54.792
X-90.91 Y-55.239
X-91.26 Y-55.7
X-91.59 Y-56.175
X-91.9 Y-56.664
X-92.19 Y-57.165
X-92.459 Y-57.677
X-92.706 Y-58.2
X-92.932 Y-58.733
X-93.136 Y-59.274
X-93.318 Y-59.824
X-93.477 Y-60.38
X-93.612 Y-60.943
X-93.72 Y-61.511
X-93.801 Y-62.084
X-93.856 Y-62.66
X-93.884 Y-63.238
X-93.887 Y-63.817
X-93.864 Y-64.395
X-93.818 Y-64.972
X-93.747 Y-65.547
X-93.653 Y-66.117
X-93.535 Y-66.684
X-93.394 Y-67.245
X-93.231 Y-67.8
X-93.044 Y-68.348
X-92.836 Y-68.888
X-92.606 Y-69.419
X-92.354 Y-69.94
X-92.081 Y-70.45
X-91.787 Y-70.949
X-91.471 Y-71.433
X-91.132 Y-71.902
X-90.771 Y-72.355
X-90.391 Y-72.791
X-89.991 Y-73.209
X-89.573 Y-73.61
X-89.139 Y-73.993
X-88.69 Y-74.357
X-88.225 Y-74.702
X-87.747 Y-75.028
X-87.256 Y-75.334
X-86.752 Y-75.619
X-86.238 Y-75.884
X-85.713 Y-76.127
X-85.178 Y-76.349
X-84.635 Y-76.549
X-84.085 Y-76.727
X-83.527 Y-76.882
X-82.963 Y-77.012
X-82.394 Y-77.116
X-81.82 Y-77.193
X-81.244 Y-77.243
X-80.666 Y-77.267
X-80.087
X-79.509 Y-77.241
X-78.932 Y-77.191
X-78.358 Y-77.117
X-77.788 Y-77.02
X-77.222 Y-76.9
X-76.661 Y-76.756
X-76.107 Y-76.59
X-75.56 Y-76.401
X-75.021 Y-76.191
X-74.491 Y-75.958
X-73.971 Y-75.705
X-73.461 Y-75.43
X-72.964 Y-75.135
X-72.48 Y-74.818
X-72.011 Y-74.478
X-71.559 Y-74.117
X-71.123 Y-73.737
X-70.704 Y-73.338
X-70.302 Y-72.921
X-69.918 Y-72.489
X-69.552 Y-72.04
X-69.204 Y-71.578
X-68.876 Y-71.101
X-68.566 Y-70.612
X-68.277 Y-70.111
X-68.008 Y-69.599
X-67.759 Y-69.076
X-67.532 Y-68.544
X-67.325 Y-68.004
X-67.141 Y-67.455
X-66.978 Y-66.9
X-66.838 Y-66.338
X-66.724 Y-65.771
X-66.636 Y-65.199
X-66.573 Y-64.624
X-66.535 Y-64.046
X-66.523 Y-63.468
X-66.535 Y-62.889
X-66.57 Y-62.312
X-66.63 Y-61.736
X-66.712 Y-61.163
X-66.818 Y-60.594
X-66.946 Y-60.03
X-67.097 Y-59.471
X-67.269 Y-58.919
X-67.464 Y-58.374
X-67.681 Y-57.837
X-67.919 Y-57.31
X-68.177 Y-56.792
X-68.456 Y-56.285
X-68.757 Y-55.791
X-69.08 Y-55.31
X-69.424 Y-54.845
X-69.789 Y-54.396
X-70.173 Y-53.964
X-70.576 Y-53.548
X-70.996 Y-53.15
X-71.432 Y-52.769
X-71.883 Y-52.407
X-72.348 Y-52.063
X-72.828 Y-51.739
X-73.319 Y-51.434
X-73.823 Y-51.149
X-74.338 Y-50.884
X-74.862 Y-50.64
X-75.396 Y-50.417
X-75.939 Y-50.216
X-76.489 Y-50.036
X-77.046 Y-49.879
X-77.609 Y-49.746
X-78.178 Y-49.638
X-78.75 Y-49.556
X-79.326 Y-49.499
X-79.904 Y-49.467
X-80.483 Y-49.46
X-81.061 Y-49.477
X-81.638 Y-49.517
X-82.214 Y-49.581
X-82.786 Y-49.667
X-83.354 Y-49.776
X-83.918 Y-49.907
X-84.476 Y-50.061
X-85.027 Y-50.236
X-85.571 Y-50.433
X-86.117 Y-50.655
X-86.13 Y-50.662
X-86.356 Y-50.778
X-86.755 Y-50.992
X-87.276 Y-51.285
X-87.407 Y-51.359
X-87.675 Y-51.518
X-88.11 Y-51.781
X-88.53 Y-52.044
X-88.722 Y-52.169
X-89.19 Y-52.509
X-89.65 Y-52.859
X-90.084 Y-53.242
X-90.498 Y-53.647
X-90.894 Y-54.069
X-91.272 Y-54.507
X-91.633 Y-54.959
X-91.975 Y-55.425
X-92.299 Y-55.905
X-92.604 Y-56.397
X-92.89 Y-56.9
X-93.156 Y-57.414
X-93.401 Y-57.938
X-93.626 Y-58.471
X-93.83 Y-59.013
X-94.013 Y-59.562
X-94.175 Y-60.117
X-94.313 Y-60.679
X-94.428 Y-61.247
X-94.517 Y-61.818
X-94.58 Y-62.394
X-94.618 Y-62.971
X-94.631 Y-63.55
X-94.621 Y-64.128
X-94.587 Y-64.706
X-94.53 Y-65.282
X-94.451 Y-65.855
X-94.349 Y-66.425
X-94.225 Y-66.99
X-94.079 Y-67.55
X-93.912 Y-68.104
X-93.723 Y-68.651
X-93.514 Y-69.19
X-93.426 Y-69.392
X-93.415 Y-69.415
X-93.401 Y-69.438
X-93.385 Y-69.459
X-93.337 Y-69.52
X-93.086 Y-69.914
X-93.059 Y-69.959
X-93.012 Y-70.045
X-92.944 Y-70.176
X-92.881 Y-70.308
X-92.82 Y-70.439
X-92.705 Y-70.702
X-92.447 Y-71.22
X-92.16 Y-71.722
X-91.834 Y-72.2
X-91.482 Y-72.66
X-91.109 Y-73.102
X-90.718 Y-73.528
X-90.309 Y-73.938
X-89.883 Y-74.33
X-89.443 Y-74.705
X-88.988 Y-75.063
X-88.519 Y-75.402
X-88.037 Y-75.723
X-87.543 Y-76.025
X-87.038 Y-76.307
X-86.523 Y-76.57
X-85.997 Y-76.812
X-85.463 Y-77.035
X-84.92 Y-77.236
X-84.371 Y-77.416
X-83.814 Y-77.575
X-83.251 Y-77.71
X-82.683 Y-77.821
X-82.111 Y-77.907
X-81.536 Y-77.967
X-80.958 Y-78.002
X-80.379 Y-78.013
X-79.801 Y-78
X-79.223 Y-77.964
X-78.648 Y-77.905
X-78.075 Y-77.824
X-77.505 Y-77.72
X-76.94 Y-77.595
X-76.381 Y-77.447
X-75.827 Y-77.279
X-75.281 Y-77.089
X-74.742 Y-76.878
X-74.211 Y-76.646
X-73.69 Y-76.395
X-73.406 Y-76.244
X-73.386 Y-76.232
X-73.368 Y-76.219
X-73.35 Y-76.205
X-73.214 Y-76.087
X-73.055 Y-75.958
X-72.951 Y-75.877
X-72.688 Y-75.678
X-72.557 Y-75.592
X-72.162 Y-75.34
X-72.031 Y-75.265
X-71.9 Y-75.192
X-71.407 Y-74.888
X-70.939 Y-74.548
X-70.502 Y-74.168
X-70.086 Y-73.767
X-69.687 Y-73.347
X-69.305 Y-72.912
X-68.941 Y-72.463
X-68.594 Y-72
X-68.265 Y-71.523
X-67.955 Y-71.035
X-67.663 Y-70.535
X-67.391 Y-70.025
X-67.138 Y-69.504
X-66.905 Y-68.975
X-66.691 Y-68.437
X-66.499 Y-67.891
X-66.328 Y-67.338
X-66.179 Y-66.779
X-66.053 Y-66.214
X-65.951 Y-65.644
X-65.873 Y-65.071
X-65.819 Y-64.495
X-65.789 Y-63.917
X-65.782 Y-63.338
X-65.798 Y-62.76
X-65.837 Y-62.183
X-65.898 Y-61.607
X-65.982 Y-61.034
X-66.087 Y-60.465
X-66.213 Y-59.901
X-66.361 Y-59.341
X-66.53 Y-58.788
X-66.72 Y-58.241
X-66.931 Y-57.702
X-67.162 Y-57.172
X-67.413 Y-56.65
X-67.684 Y-56.139
X-67.976 Y-55.639
X-68.288 Y-55.152
X-68.621 Y-54.679
X-68.973 Y-54.22
X-69.345 Y-53.776
X-69.735 Y-53.348
X-70.141 Y-52.936
X-70.564 Y-52.541
X-71.002 Y-52.163
X-71.454 Y-51.802
X-71.92 Y-51.458
X-72.398 Y-51.133
X-72.889 Y-50.826
X-73.391 Y-50.538
X-73.903 Y-50.27
X-74.426 Y-50.021
X-74.957 Y-49.792
X-75.497 Y-49.583
X-76.044 Y-49.396
X-76.599 Y-49.229
X-77.159 Y-49.086
X-77.725 Y-48.965
X-78.296 Y-48.869
X-78.87 Y-48.796
X-79.447 Y-48.748
X-80.025 Y-48.722
X-80.603 Y-48.72
X-81.191 Y-48.741
X-81.21 Y-48.743
X-81.228 Y-48.747
X-81.247 Y-48.751
X-81.493 Y-48.82
X-81.888 Y-48.936
X-82.282 Y-49.061
X-82.565 Y-49.153
X-82.808 Y-49.236
X-83.202 Y-49.377
X-83.465 Y-49.475
X-83.656 Y-49.547
X-84.122 Y-49.733
X-84.516 Y-49.9
X-84.779 Y-50.015
X-84.91 Y-50.073
X-85.193 Y-50.204
X-85.474 Y-50.335
X-85.745 Y-50.467
X-85.83 Y-50.509
X-86.13 Y-50.662
X-86.184 Y-50.693
X-88.668 Y-52.137
X-88.722 Y-52.169
X-88.985 Y-52.34
X-89.379 Y-52.606
X-89.517 Y-52.701
X-89.904 Y-52.972
X-90.167 Y-53.159
X-90.439 Y-53.358
X-90.693 Y-53.544
X-90.967 Y-53.752
X-91.311 Y-54.015
X-91.876 Y-54.46
X-92.139 Y-54.67
X-92.344 Y-54.852
X-92.61 Y-55.137
X-92.964 Y-55.595
X-93.275 Y-56.082
X-93.562 Y-56.585
X-93.827 Y-57.099
X-94.073 Y-57.623
X-94.299 Y-58.156
X-94.506 Y-58.696
X-94.692 Y-59.244
X-94.858 Y-59.799
X-95.002 Y-60.359
X-95.124 Y-60.925
X-95.222 Y-61.495
X-95.295 Y-62.069
X-95.344 Y-62.646
X-95.37 Y-63.224
X-95.372 Y-63.802
X-95.352 Y-64.381
X-95.31 Y-64.958
X-95.247 Y-65.533
X-95.162 Y-66.105
X-95.055 Y-66.674
X-94.928 Y-67.239
X-94.78 Y-67.798
X-94.612 Y-68.352
X-94.599 Y-68.388
X-94.566 Y-68.455
X-94.518 Y-68.511
X-94.457 Y-68.553
X-94.241 Y-68.666
X-94.141 Y-68.731
X-94.11 Y-68.753
X-93.979 Y-68.849
X-93.806 Y-68.994
X-93.716 Y-69.081
X-93.673 Y-69.125
X-93.442 Y-69.388
X-93.385 Y-69.459
X-93.371 Y-69.474
X-93.342 Y-69.504
X-92.421 Y-70.452
G2 X-92.572 Y-70.717 I-0.114 J-0.111
X-92.652 Y-70.669 I0.037 J0.154
G3 X-92.705 Y-70.702 I-0.024 J-0.021
G1 X-92.664 Y-70.796
X-92.533 Y-71.12
X-92.346 Y-71.622
X-92.253 Y-71.885
X-92.161 Y-72.147
X-92.03 Y-72.542
X-91.902 Y-72.936
X-91.849 Y-73.076
X-91.739 Y-73.301
X-91.567 Y-73.581
X-91.275 Y-73.971
X-90.886 Y-74.4
X-90.469 Y-74.8
X-90.033 Y-75.181
X-89.582 Y-75.544
X-89.118 Y-75.89
X-88.641 Y-76.218
X-88.153 Y-76.527
X-87.653 Y-76.819
X-87.142 Y-77.091
X-86.622 Y-77.345
X-86.093 Y-77.58
X-85.556 Y-77.794
X-85.011 Y-77.989
X-84.459 Y-78.164
X-83.901 Y-78.318
X-83.338 Y-78.449
X-82.769 Y-78.558
X-82.197 Y-78.643
X-81.621 Y-78.703
X-81.044 Y-78.741
X-80.465 Y-78.755
X-79.887 Y-78.747
X-79.309 Y-78.716
X-78.733 Y-78.664
X-78.159 Y-78.59
X-77.588 Y-78.495
X-77.021 Y-78.378
X-76.459 Y-78.24
X-75.903 Y-78.081
X-75.352 Y-77.903
X-74.809 Y-77.704
X-74.705 Y-77.662
X-74.657 Y-77.637
X-74.614 Y-77.603
X-74.578 Y-77.562
X-74.463 Y-77.403
X-74.363 Y-77.272
X-74.258 Y-77.141
X-74.134 Y-76.997
X-73.871 Y-76.704
X-73.74 Y-76.572
X-73.608 Y-76.445
X-73.477 Y-76.32
X-73.35 Y-76.205
X-73.336 Y-76.19
X-73.307 Y-76.159
X-72.17 Y-74.927
G2 X-71.946 Y-74.918 I0.117 J-0.108
X-71.937 Y-75.142 I-0.108 J-0.116
G3 X-71.9 Y-75.192 I0.023 J-0.022
G1 X-71.768 Y-75.12
X-71.637 Y-75.053
X-71.334 Y-74.907
X-71.243 Y-74.866
X-70.98 Y-74.758
X-70.848 Y-74.705
X-70.454 Y-74.567
X-70.279 Y-74.513
X-70.093 Y-74.446
X-69.921 Y-74.366
X-69.711 Y-74.243
X-69.45 Y-74.055
X-69.096 Y-73.747
X-68.697 Y-73.327
X-68.329 Y-72.881
X-67.982 Y-72.418
X-67.653 Y-71.942
X-67.341 Y-71.454
X-67.048 Y-70.955
X-66.772 Y-70.447
X-66.515 Y-69.928
X-66.277 Y-69.401
X-66.058 Y-68.865
X-65.859 Y-68.322
X-65.68 Y-67.771
X-65.522 Y-67.215
X-65.386 Y-66.652
X-65.272 Y-66.085
X-65.181 Y-65.513
X-65.113 Y-64.939
X-65.067 Y-64.362
X-65.043 Y-63.784
X-65.042 Y-63.205
X-65.063 Y-62.627
X-65.104 Y-62.049
X-65.167 Y-61.474
X-65.251 Y-60.902
X-65.356 Y-60.333
X-65.482 Y-59.768
X-65.627 Y-59.208
X-65.793 Y-58.653
X-65.979 Y-58.105
X-66.184 Y-57.564
X-66.409 Y-57.031
X-66.653 Y-56.506
X-66.917 Y-55.991
X-67.201 Y-55.487
X-67.504 Y-54.994
X-67.826 Y-54.513
X-68.168 Y-54.046
X-68.527 Y-53.593
X-68.905 Y-53.154
X-69.299 Y-52.731
X-69.709 Y-52.322
X-70.134 Y-51.93
X-70.574 Y-51.554
X-71.027 Y-51.194
X-71.493 Y-50.851
X-71.972 Y-50.525
X-72.461 Y-50.217
X-72.962 Y-49.927
X-73.473 Y-49.655
X-73.993 Y-49.401
X-74.522 Y-49.167
X-75.059 Y-48.952
X-75.604 Y-48.757
X-76.156 Y-48.582
X-76.714 Y-48.429
X-77.278 Y-48.298
X-77.846 Y-48.189
X-78.273 Y-48.124
X-78.302 Y-48.122
X-78.332
X-78.361 Y-48.125
X-78.471 Y-48.141
X-78.865 Y-48.21
X-79.259 Y-48.284
X-79.658 Y-48.364
X-79.785 Y-48.392
X-80.179 Y-48.48
X-80.574 Y-48.575
X-80.968 Y-48.676
X-81.099 Y-48.711
X-81.247 Y-48.751
G3 X-81.301 Y-48.781 I0.048 J-0.151
G1 X-81.339 Y-48.812 Z-2.992
X-81.373 Y-48.841 Z-2.97
X-81.4 Y-48.863 Z-2.935
X-81.417 Y-48.878 Z-2.89
X-81.423 Y-48.883 Z-2.841
G0 Z5
X-92.18 Y-54.846
Z-2.682
G1 Z-2.841 F849.6
X-92.175 Y-54.84 Z-2.89
X-92.163 Y-54.821 Z-2.935
X-92.144 Y-54.791 Z-2.97
X-92.12 Y-54.754 Z-2.992
X-92.093 Y-54.713 Z-3
G3 X-92.139 Y-54.67 I-0.027 J0.017
G1 X-92.468 Y-54.934
X-92.664 Y-55.083
X-92.796 Y-55.159
X-92.867 Y-55.197
X-92.927 Y-55.223
X-93.059 Y-55.266
X-93.098 Y-55.274
X-93.244 Y-55.311
X-93.374 Y-55.386
X-93.507 Y-55.484
X-93.67 Y-55.629
X-93.854 Y-55.825
X-94.096 Y-56.139
X-94.406 Y-56.628
X-94.669 Y-57.144
X-94.905 Y-57.672
X-95.119 Y-58.21
X-95.314 Y-58.755
X-95.49 Y-59.306
X-95.645 Y-59.863
X-95.779 Y-60.426
X-95.891 Y-60.994
X-95.981 Y-61.566
X-96.047 Y-62.141
X-96.091 Y-62.718
X-96.113 Y-63.296
Y-63.875
X-96.091 Y-64.453
X-96.049 Y-65.03
X-95.986 Y-65.605
X-95.903 Y-66.178
X-95.799 Y-66.747
X-95.675 Y-67.312
X-95.531 Y-67.873
X-95.469 Y-68.084
X-95.42 Y-68.18
X-95.34 Y-68.252
X-95.239 Y-68.29
X-95.161 Y-68.304
X-95.03 Y-68.331
X-94.662 Y-68.451
X-94.636 Y-68.46
X-94.457 Y-68.553
G3 X-94.397 Y-68.568 I0.069 J0.143
G1 X-94.348 Y-68.571 Z-2.992
X-94.304 Y-68.573 Z-2.97
X-94.269 Y-68.575 Z-2.935
X-94.247 Y-68.576 Z-2.89
X-94.239 Y-68.577 Z-2.841
G0 Z5
X-93.215 Y-55.412
Z-2.682
G1 Z-2.841 F849.6
X-93.208 Y-55.408 Z-2.89
X-93.189 Y-55.397 Z-2.935
X-93.158 Y-55.379 Z-2.97
X-93.12 Y-55.357 Z-2.992
X-93.077 Y-55.333 Z-3
G3 X-93.098 Y-55.274 I-0.016 J0.027
G1 X-93.19 Y-55.293
X-93.321 Y-55.306
X-93.453 Y-55.308
X-93.584 Y-55.293
X-93.733 Y-55.276
X-93.88 Y-55.305
X-94.021 Y-55.358
X-94.154 Y-55.427
X-94.292 Y-55.518
X-94.462 Y-55.655
X-94.633 Y-55.822
X-94.835 Y-56.06
X-95.077 Y-56.405
X-95.362 Y-56.908
X-95.605 Y-57.434
X-95.821 Y-57.97
X-96.017 Y-58.515
X-96.193 Y-59.066
X-96.35 Y-59.623
X-96.487 Y-60.186
X-96.603 Y-60.753
X-96.697 Y-61.323
X-96.77 Y-61.897
X-96.822 Y-62.474
X-96.851 Y-63.052
X-96.86 Y-63.63
X-96.848 Y-64.209
X-96.815 Y-64.787
X-96.763 Y-65.363
X-96.691 Y-65.937
X-96.6 Y-66.509
X-96.489 Y-67.077
X-96.36 Y-67.641
X-96.283 Y-67.918
X-96.223 Y-68.075
X-96.204 Y-68.114
X-96.125 Y-68.213
X-96.012 Y-68.269
X-95.885 Y-68.273
X-95.556 Y-68.265
X-95.424 Y-68.266
X-95.293 Y-68.281
X-95.239 Y-68.29
G3 X-95.177 Y-68.287 I0.022 J0.157
G1 X-95.129 Y-68.274 Z-2.992
X-95.086 Y-68.263 Z-2.97
X-95.052 Y-68.254 Z-2.935
X-95.031 Y-68.249 Z-2.89
X-95.023 Y-68.247 Z-2.841
G0 Z5
X-93.745 Y-55.375
Z-2.682
G1 Z-2.841 F849.6
X-93.737 Y-55.374 Z-2.89
X-93.715 Y-55.371 Z-2.935
X-93.68 Y-55.367 Z-2.97
X-93.636 Y-55.361 Z-2.992
X-93.588 Y-55.355 Z-3
G3 X-93.584 Y-55.293 I-0.004 J0.031
G1 X-93.716 Y-55.267
X-93.847 Y-55.227
X-93.915 Y-55.197
X-93.979 Y-55.166
X-94.113 Y-55.1
X-94.263 Y-55.087
X-94.412 Y-55.102
X-94.557 Y-55.14
X-94.696 Y-55.195
X-94.835 Y-55.267
X-94.987 Y-55.366
X-95.168 Y-55.508
X-95.346 Y-55.677
X-95.58 Y-55.947
X-95.806 Y-56.261
X-96.098 Y-56.76
X-96.342 Y-57.285
X-96.557 Y-57.822
X-96.75 Y-58.368
X-96.924 Y-58.92
X-97.079 Y-59.477
X-97.215 Y-60.04
X-97.331 Y-60.607
X-97.426 Y-61.177
X-97.501 Y-61.751
X-97.556 Y-62.327
X-97.59 Y-62.905
X-97.604 Y-63.484
X-97.597 Y-64.062
X-97.572 Y-64.64
X-97.527 Y-65.217
X-97.462 Y-65.792
X-97.379 Y-66.365
X-97.278 Y-66.935
X-97.158 Y-67.501
X-97.067 Y-67.84
X-96.994 Y-68.038
X-96.926 Y-68.179
X-96.848 Y-68.308
X-96.829 Y-68.332
X-96.73 Y-68.415
X-96.606 Y-68.447
X-96.479 Y-68.422
X-96.344 Y-68.375
X-96.213 Y-68.34
X-95.95 Y-68.285
X-95.885 Y-68.273
G3 X-95.829 Y-68.248 I-0.035 J0.155
G1 X-95.789 Y-68.22 Z-2.992
X-95.753 Y-68.194 Z-2.97
X-95.724 Y-68.174 Z-2.935
X-95.705 Y-68.161 Z-2.89
X-95.699 Y-68.156 Z-2.841
G0 Z5
X-94.157 Y-55.193
Z-2.682
G1 Z-2.841 F849.6
X-94.149 Y-55.194 Z-2.89
X-94.127 Y-55.199 Z-2.935
X-94.093 Y-55.206 Z-2.97
X-94.049 Y-55.214 Z-2.992
X-94.001 Y-55.224 Z-3
G3 X-93.979 Y-55.166 I0.006 J0.031
G1 X-94.11 Y-55.091
X-94.146 Y-55.066
X-94.241 Y-54.99
X-94.274 Y-54.959
X-94.389 Y-54.863
X-94.527 Y-54.804
X-94.674 Y-54.777
X-94.824
X-94.973 Y-54.799
X-95.118 Y-54.839
X-95.26 Y-54.894
X-95.42 Y-54.973
X-95.6 Y-55.085
X-95.791 Y-55.23
X-95.996 Y-55.418
X-96.234 Y-55.682
X-96.479 Y-56.011
X-96.767 Y-56.484
X-97.021 Y-57.004
X-97.241 Y-57.539
X-97.438 Y-58.083
X-97.614 Y-58.634
X-97.773 Y-59.191
X-97.912 Y-59.752
X-98.033 Y-60.318
X-98.135 Y-60.888
X-98.217 Y-61.461
X-98.279 Y-62.036
X-98.321 Y-62.613
X-98.344 Y-63.191
X-98.347 Y-63.77
X-98.332 Y-64.349
X-98.298 Y-64.926
X-98.245 Y-65.503
X-98.174 Y-66.077
X-98.086 Y-66.649
X-97.979 Y-67.218
X-97.865 Y-67.719
X-97.759 Y-68.041
X-97.675 Y-68.233
X-97.588 Y-68.391
X-97.504 Y-68.515
X-97.407 Y-68.63
X-97.372 Y-68.662
X-97.258 Y-68.73
X-97.127 Y-68.743
X-97.001 Y-68.7
X-96.834 Y-68.6
X-96.738 Y-68.543
X-96.607 Y-68.478
X-96.479 Y-68.422
G3 X-96.43 Y-68.385 I-0.068 J0.143
G1 X-96.397 Y-68.349 Z-2.992
X-96.367 Y-68.316 Z-2.97
X-96.344 Y-68.29 Z-2.935
X-96.329 Y-68.273 Z-2.89
X-96.323 Y-68.267 Z-2.841
G0 Z5
X-94.454 Y-54.944
Z-2.682
G1 Z-2.841 F849.6
X-94.447 Y-54.947 Z-2.89
X-94.427 Y-54.957 Z-2.935
X-94.395 Y-54.971 Z-2.97
X-94.354 Y-54.99 Z-2.992
X-94.31 Y-55.011 Z-3
G3 X-94.274 Y-54.959 I0.013 J0.029
G1 X-94.301 Y-54.934
X-94.373 Y-54.859
X-94.418 Y-54.803
X-94.507 Y-54.672
X-94.586 Y-54.544
X-94.707 Y-54.455
X-94.845 Y-54.396
X-94.991 Y-54.363
X-95.141 Y-54.353
X-95.291 Y-54.362
X-95.439 Y-54.388
X-95.599 Y-54.431
X-95.771 Y-54.497
X-95.955 Y-54.586
X-96.168 Y-54.717
X-96.376 Y-54.872
X-96.621 Y-55.094
X-96.875 Y-55.372
X-97.146 Y-55.729
X-97.45 Y-56.221
X-97.707 Y-56.739
X-97.931 Y-57.273
X-98.13 Y-57.816
X-98.31 Y-58.366
X-98.47 Y-58.922
X-98.613 Y-59.483
X-98.738 Y-60.048
X-98.845 Y-60.617
X-98.932 Y-61.189
X-99.001 Y-61.763
X-99.05 Y-62.34
X-99.081 Y-62.918
X-99.092 Y-63.496
X-99.086 Y-64.075
X-99.061 Y-64.653
X-99.019 Y-65.23
X-98.959 Y-65.806
X-98.882 Y-66.379
X-98.788 Y-66.95
X-98.674 Y-67.518
X-98.562 Y-67.937
X-98.442 Y-68.26
X-98.323 Y-68.507
X-98.22 Y-68.678
X-98.118 Y-68.816
X-98.018 Y-68.927
X-97.907 Y-69.029
X-97.785 Y-69.116
X-97.775 Y-69.122
X-97.657 Y-69.157
X-97.534 Y-69.141
X-97.429 Y-69.075
X-97.396 Y-69.043
X-97.133 Y-68.801
X-97.043 Y-68.731
X-97.001 Y-68.7
G3 X-96.961 Y-68.653 I-0.098 J0.125
G1 X-96.937 Y-68.611 Z-2.992
X-96.915 Y-68.572 Z-2.97
X-96.898 Y-68.542 Z-2.935
X-96.887 Y-68.522 Z-2.89
X-96.883 Y-68.515 Z-2.841
G0 Z5
X-94.671 Y-54.596
Z-2.682
G1 Z-2.841 F849.6
X-94.666 Y-54.602 Z-2.89
X-94.65 Y-54.618 Z-2.935
X-94.625 Y-54.642 Z-2.97
X-94.593 Y-54.673 Z-2.992
X-94.558 Y-54.708 Z-3
G3 X-94.507 Y-54.672 I0.022 J0.023
G1 X-94.575 Y-54.54
X-94.62 Y-54.409
X-94.636 Y-54.356
X-94.686 Y-54.215
X-94.777 Y-54.096
X-94.895 Y-54.003
X-95.029 Y-53.936
X-95.172 Y-53.891
X-95.32 Y-53.865
X-95.47 Y-53.857
X-95.622 Y-53.865
X-95.793 Y-53.89
X-95.972 Y-53.933
X-96.177 Y-54.004
X-96.388 Y-54.099
X-96.618 Y-54.231
X-96.88 Y-54.415
X-97.136 Y-54.634
X-97.412 Y-54.918
X-97.728 Y-55.311
X-98.041 Y-55.787
X-98.314 Y-56.297
X-98.55 Y-56.826
X-98.759 Y-57.365
X-98.947 Y-57.912
X-99.116 Y-58.466
X-99.267 Y-59.025
X-99.401 Y-59.588
X-99.517 Y-60.154
X-99.616 Y-60.725
X-99.696 Y-61.298
X-99.758 Y-61.873
X-99.802 Y-62.45
X-99.828 Y-63.028
X-99.836 Y-63.607
X-99.826 Y-64.185
X-99.8 Y-64.763
X-99.756 Y-65.34
X-99.695 Y-65.916
X-99.618 Y-66.489
X-99.523 Y-67.06
X-99.408 Y-67.627
X-99.269 Y-68.121
X-99.135 Y-68.47
X-98.992 Y-68.757
X-98.848 Y-68.99
X-98.706 Y-69.178
X-98.583 Y-69.311
X-98.468 Y-69.415
X-98.348 Y-69.505
X-98.219 Y-69.582
X-98.147 Y-69.614
X-98.018 Y-69.638
X-97.891 Y-69.605
X-97.79 Y-69.521
X-97.527 Y-69.179
X-97.481 Y-69.125
X-97.429 Y-69.075
G3 X-97.395 Y-69.023 I-0.114 J0.11
G1 X-97.378 Y-68.977 Z-2.992
X-97.361 Y-68.936 Z-2.97
X-97.349 Y-68.903 Z-2.935
X-97.34 Y-68.882 Z-2.89
X-97.338 Y-68.875 Z-2.841
G0 Z5
X-94.783 Y-54.252
Z-2.682
G1 Z-2.841 F849.6
X-94.779 Y-54.258 Z-2.89
X-94.766 Y-54.277 Z-2.935
X-94.746 Y-54.306 Z-2.97
X-94.72 Y-54.342 Z-2.992
X-94.692 Y-54.382 Z-3
G3 X-94.636 Y-54.356 I0.026 J0.018
G1 X-94.698 Y-54.146
X-94.736 Y-54.015
X-94.767 Y-53.901
X-94.814 Y-53.759
X-94.898 Y-53.635
X-95.008 Y-53.533
X-95.135 Y-53.452
X-95.272 Y-53.392
X-95.416 Y-53.35
X-95.564 Y-53.324
X-95.725 Y-53.313
X-95.899 Y-53.317
X-96.086 Y-53.339
X-96.303 Y-53.385
X-96.524 Y-53.454
X-96.771 Y-53.558
X-97.043 Y-53.703
X-97.325 Y-53.89
X-97.607 Y-54.117
X-97.932 Y-54.434
X-98.278 Y-54.84
X-98.61 Y-55.314
X-98.897 Y-55.816
X-99.147 Y-56.338
X-99.368 Y-56.873
X-99.566 Y-57.417
X-99.744 Y-57.967
X-99.905 Y-58.523
X-100.048 Y-59.084
X-100.175 Y-59.648
X-100.285 Y-60.217
X-100.378 Y-60.788
X-100.453 Y-61.362
X-100.51 Y-61.937
X-100.55 Y-62.515
X-100.573 Y-63.093
X-100.579 Y-63.672
X-100.568 Y-64.25
X-100.541 Y-64.828
X-100.497 Y-65.405
X-100.437 Y-65.981
X-100.36 Y-66.554
X-100.267 Y-67.125
X-100.152 Y-67.693
X-100.01 Y-68.215
X-99.845 Y-68.653
X-99.672 Y-69.007
X-99.503 Y-69.285
X-99.33 Y-69.518
X-99.156 Y-69.709
X-98.998 Y-69.854
X-98.868 Y-69.953
X-98.729 Y-70.04
X-98.594 Y-70.106
X-98.453 Y-70.157
X-98.407 Y-70.168
X-98.274 Y-70.167
X-98.155 Y-70.108
X-98.075 Y-70.002
X-98.053 Y-69.953
X-98.032 Y-69.914
X-97.958 Y-69.782
X-97.921 Y-69.724
X-97.79 Y-69.521
G3 X-97.769 Y-69.463 I-0.136 J0.082
G1 X-97.762 Y-69.414 Z-2.992
X-97.755 Y-69.371 Z-2.97
X-97.75 Y-69.336 Z-2.935
X-97.747 Y-69.314 Z-2.89
X-97.745 Y-69.306 Z-2.841
G0 Z5
X-94.912 Y-53.794
Z-2.682
G1 Z-2.841 F849.6
X-94.908 Y-53.801 Z-2.89
X-94.895 Y-53.819 Z-2.935
X-94.876 Y-53.849 Z-2.97
X-94.851 Y-53.886 Z-2.992
X-94.824 Y-53.926 Z-3
G3 X-94.767 Y-53.901 I0.026 J0.018
G1 X-94.844 Y-53.62
X-94.898 Y-53.432
X-94.921 Y-53.358
X-94.97 Y-53.216
X-95.058 Y-53.094
X-95.168 Y-52.993
X-95.294 Y-52.91
X-95.429 Y-52.845
X-95.571 Y-52.797
X-95.725 Y-52.762
X-95.887 Y-52.741
X-96.075 Y-52.735
X-96.286 Y-52.747
X-96.505 Y-52.781
X-96.761 Y-52.846
X-97.04 Y-52.944
X-97.318 Y-53.073
X-97.622 Y-53.25
X-97.96 Y-53.492
X-98.325 Y-53.809
X-98.667 Y-54.167
X-99.026 Y-54.621
X-99.341 Y-55.106
X-99.619 Y-55.614
X-99.865 Y-56.138
X-100.084 Y-56.673
X-100.282 Y-57.217
X-100.46 Y-57.768
X-100.621 Y-58.324
X-100.765 Y-58.884
X-100.893 Y-59.448
X-101.005 Y-60.016
X-101.1 Y-60.587
X-101.179 Y-61.16
X-101.24 Y-61.736
X-101.285 Y-62.313
X-101.313 Y-62.891
X-101.325 Y-63.469
X-101.32 Y-64.048
X-101.299 Y-64.626
X-101.262 Y-65.204
X-101.209 Y-65.78
X-101.14 Y-66.355
X-101.056 Y-66.927
X-100.953 Y-67.496
X-100.821 Y-68.06
X-100.649 Y-68.612
X-100.465 Y-69.051
X-100.269 Y-69.419
X-100.058 Y-69.739
X-99.845 Y-70.004
X-99.647 Y-70.208
X-99.451 Y-70.374
X-99.261 Y-70.508
X-99.109 Y-70.595
X-98.965 Y-70.66
X-98.824 Y-70.709
X-98.677 Y-70.743
X-98.605 Y-70.75
X-98.474 Y-70.733
X-98.363 Y-70.661
X-98.296 Y-70.547
X-98.262 Y-70.439
X-98.213 Y-70.308
X-98.075 Y-70.002
G3 X-98.063 Y-69.941 I-0.147 J0.06
G1 Y-69.892 Z-2.992
Y-69.848 Z-2.97
Y-69.813 Z-2.935
Y-69.79 Z-2.89
Y-69.783 Z-2.841
G0 Z5
X-95.068 Y-53.253
Z-2.682
G1 Z-2.841 F849.6
X-95.063 Y-53.259 Z-2.89
X-95.05 Y-53.278 Z-2.935
X-95.03 Y-53.307 Z-2.97
X-95.005 Y-53.343 Z-2.992
X-94.977 Y-53.383 Z-3
G3 X-94.921 Y-53.358 I0.026 J0.018
G1 X-94.959 Y-53.226
X-95.086 Y-52.832
X-95.1 Y-52.792
X-95.155 Y-52.653
X-95.242 Y-52.531
X-95.351 Y-52.428
X-95.475 Y-52.343
X-95.609 Y-52.275
X-95.749 Y-52.222
X-95.909 Y-52.18
X-96.077 Y-52.152
X-96.277 Y-52.138
X-96.503 Y-52.144
X-96.742 Y-52.172
X-97.015 Y-52.23
X-97.319 Y-52.326
X-97.622 Y-52.453
X-97.961 Y-52.635
X-98.34 Y-52.886
X-98.729 Y-53.2
X-99.13 Y-53.592
X-99.505 Y-54.033
X-99.837 Y-54.507
X-100.132 Y-55.004
X-100.396 Y-55.52
X-100.632 Y-56.048
X-100.844 Y-56.586
X-101.037 Y-57.132
X-101.211 Y-57.684
X-101.369 Y-58.24
X-101.51 Y-58.802
X-101.636 Y-59.366
X-101.746 Y-59.935
X-101.84 Y-60.506
X-101.918 Y-61.079
X-101.98 Y-61.654
X-102.025 Y-62.231
X-102.055 Y-62.809
X-102.069 Y-63.388
X-102.067 Y-63.966
X-102.049 Y-64.545
X-102.015 Y-65.122
X-101.967 Y-65.699
X-101.903 Y-66.274
X-101.823 Y-66.847
X-101.727 Y-67.418
X-101.605 Y-67.984
X-101.45 Y-68.541
X-101.253 Y-69.085
X-101.04 Y-69.536
X-100.806 Y-69.93
X-100.562 Y-70.265
X-100.312 Y-70.549
X-100.063 Y-70.783
X-99.839 Y-70.958
X-99.62 Y-71.097
X-99.411 Y-71.204
X-99.245 Y-71.271
X-99.089 Y-71.317
X-98.941 Y-71.346
X-98.792 Y-71.359
X-98.723 Y-71.356
X-98.6 Y-71.323
X-98.502 Y-71.241
X-98.448 Y-71.125
X-98.382 Y-70.833
X-98.346 Y-70.702
X-98.296 Y-70.547
G3 X-98.291 Y-70.485 I-0.153 J0.043
G1 X-98.297 Y-70.437 Z-2.992
X-98.302 Y-70.393 Z-2.97
X-98.307 Y-70.358 Z-2.935
X-98.309 Y-70.335 Z-2.89
X-98.31 Y-70.328 Z-2.841
G0 Z5
X-95.251 Y-52.694
Z-2.682
G1 Z-2.841 F849.6
X-95.247 Y-52.7 Z-2.89
X-95.233 Y-52.718 Z-2.935
X-95.212 Y-52.746 Z-2.97
X-95.185 Y-52.781 Z-2.992
X-95.155 Y-52.821 Z-3
G3 X-95.1 Y-52.792 I0.025 J0.019
G1 X-95.131 Y-52.701
X-95.293 Y-52.257
X-95.325 Y-52.175
X-95.389 Y-52.039
X-95.481 Y-51.921
X-95.593 Y-51.821
X-95.718 Y-51.738
X-95.852 Y-51.671
X-95.993 Y-51.619
X-96.159 Y-51.575
X-96.343 Y-51.544
X-96.552 Y-51.529
X-96.803 Y-51.534
X-97.059 Y-51.564
X-97.351 Y-51.626
X-97.684 Y-51.73
X-98.041 Y-51.879
X-98.408 Y-52.074
X-98.818 Y-52.345
X-99.254 Y-52.695
X-99.669 Y-53.098
X-100.047 Y-53.536
X-100.388 Y-54.004
X-100.694 Y-54.495
X-100.969 Y-55.004
X-101.216 Y-55.528
X-101.439 Y-56.062
X-101.641 Y-56.604
X-101.826 Y-57.152
X-101.993 Y-57.706
X-102.145 Y-58.265
X-102.28 Y-58.827
X-102.401 Y-59.393
X-102.506 Y-59.962
X-102.596 Y-60.534
X-102.671 Y-61.108
X-102.73 Y-61.683
X-102.773 Y-62.26
X-102.801 Y-62.838
X-102.813 Y-63.417
X-102.81 Y-63.996
X-102.792 Y-64.574
X-102.76 Y-65.152
X-102.712 Y-65.728
X-102.649 Y-66.304
X-102.572 Y-66.877
X-102.477 Y-67.448
X-102.36 Y-68.015
X-102.214 Y-68.575
X-102.031 Y-69.124
X-101.804 Y-69.656
X-101.553 Y-70.118
X-101.28 Y-70.526
X-100.991 Y-70.88
X-100.702 Y-71.174
X-100.414 Y-71.417
X-100.142 Y-71.605
X-99.894 Y-71.744
X-99.655 Y-71.85
X-99.435 Y-71.924
X-99.269 Y-71.964
X-99.105 Y-71.986
X-98.956 Y-71.993
X-98.806 Y-71.983
X-98.792 Y-71.98
X-98.684 Y-71.935
X-98.602 Y-71.852
X-98.559 Y-71.743
X-98.47 Y-71.228
X-98.448 Y-71.125
G3 X-98.449 Y-71.063 I-0.156 J0.028
G1 X-98.46 Y-71.015 Z-2.992
X-98.469 Y-70.972 Z-2.97
X-98.476 Y-70.938 Z-2.935
X-98.481 Y-70.916 Z-2.89
X-98.483 Y-70.908 Z-2.841
G0 Z5
X-95.481 Y-52.084
Z-2.682
G1 Z-2.841 F849.6
X-95.476 Y-52.09 Z-2.89
X-95.462 Y-52.107 Z-2.935
X-95.439 Y-52.134 Z-2.97
X-95.411 Y-52.168 Z-2.992
X-95.379 Y-52.206 Z-3
G3 X-95.325 Y-52.175 I0.024 J0.02
G1 X-95.434 Y-51.912
X-95.491 Y-51.781
X-95.609 Y-51.518
X-95.678 Y-51.385
X-95.779 Y-51.274
X-95.896 Y-51.18
X-96.025 Y-51.103
X-96.161 Y-51.042
X-96.31 Y-50.991
X-96.487 Y-50.949
X-96.69 Y-50.921
X-96.914 Y-50.911
X-97.19 Y-50.924
X-97.473 Y-50.965
X-97.801 Y-51.043
X-98.171 Y-51.17
X-98.582 Y-51.355
X-98.984 Y-51.583
X-99.435 Y-51.899
X-99.876 Y-52.273
X-100.283 Y-52.684
X-100.657 Y-53.126
X-100.998 Y-53.594
X-101.307 Y-54.083
X-101.587 Y-54.589
X-101.841 Y-55.109
X-102.071 Y-55.641
X-102.28 Y-56.18
X-102.471 Y-56.726
X-102.645 Y-57.278
X-102.803 Y-57.835
X-102.945 Y-58.396
X-103.073 Y-58.96
X-103.186 Y-59.528
X-103.284 Y-60.098
X-103.367 Y-60.671
X-103.435 Y-61.245
X-103.488 Y-61.822
X-103.527 Y-62.399
X-103.55 Y-62.977
X-103.558 Y-63.556
X-103.552 Y-64.134
X-103.531 Y-64.713
X-103.496 Y-65.29
X-103.446 Y-65.867
X-103.382 Y-66.442
X-103.303 Y-67.015
X-103.207 Y-67.586
X-103.088 Y-68.152
X-102.943 Y-68.713
X-102.766 Y-69.263
X-102.55 Y-69.8
X-102.29 Y-70.317
X-101.996 Y-70.788
X-101.679 Y-71.203
X-101.347 Y-71.562
X-101.012 Y-71.863
X-100.684 Y-72.106
X-100.366 Y-72.298
X-100.081 Y-72.436
X-99.816 Y-72.535
X-99.567 Y-72.601
X-99.353 Y-72.638
X-99.198 Y-72.65
X-99.045 Y-72.647
X-98.941 Y-72.635
X-98.826 Y-72.597
X-98.736 Y-72.515
X-98.687 Y-72.404
X-98.632 Y-72.147
X-98.607 Y-72.016
X-98.559 Y-71.743
G3 X-98.563 Y-71.681 I-0.157 J0.022
G1 X-98.575 Y-71.633 Z-2.992
X-98.586 Y-71.591 Z-2.97
X-98.595 Y-71.557 Z-2.935
X-98.601 Y-71.535 Z-2.89
X-98.603 Y-71.527 Z-2.841
G0 Z5
X-95.768 Y-51.434
Z-2.682
G1 Z-2.841 F849.6
X-95.763 Y-51.44 Z-2.89
X-95.748 Y-51.456 Z-2.935
X-95.724 Y-51.482 Z-2.97
X-95.694 Y-51.515 Z-2.992
X-95.661 Y-51.551 Z-3
G3 X-95.609 Y-51.518 I0.023 J0.021
G1 X-95.669 Y-51.387
X-95.733 Y-51.255
X-95.864 Y-50.992
X-95.935 Y-50.861
X-96.013 Y-50.733
X-96.119 Y-50.627
X-96.24 Y-50.538
X-96.371 Y-50.466
X-96.516 Y-50.406
X-96.67 Y-50.36
X-96.865 Y-50.32
X-97.071 Y-50.297
X-97.324 Y-50.294
X-97.613 Y-50.317
X-97.923 Y-50.371
X-98.3 Y-50.474
X-98.715 Y-50.63
X-99.138 Y-50.836
X-99.592 Y-51.113
X-100.055 Y-51.459
X-100.488 Y-51.844
X-100.889 Y-52.261
X-101.26 Y-52.705
X-101.602 Y-53.172
X-101.914 Y-53.659
X-102.199 Y-54.163
X-102.459 Y-54.68
X-102.695 Y-55.208
X-102.912 Y-55.745
X-103.109 Y-56.288
X-103.29 Y-56.838
X-103.454 Y-57.393
X-103.604 Y-57.952
X-103.738 Y-58.515
X-103.859 Y-59.081
X-103.965 Y-59.65
X-104.057 Y-60.221
X-104.134 Y-60.795
X-104.196 Y-61.37
X-104.245 Y-61.947
X-104.278 Y-62.524
X-104.298 Y-63.103
X-104.303 Y-63.681
X-104.294 Y-64.26
X-104.271 Y-64.838
X-104.233 Y-65.416
X-104.182 Y-65.992
X-104.117 Y-66.567
X-104.037 Y-67.14
X-103.939 Y-67.711
X-103.821 Y-68.277
X-103.677 Y-68.838
X-103.505 Y-69.39
X-103.3 Y-69.931
X-103.054 Y-70.455
X-102.765 Y-70.957
X-102.435 Y-71.432
X-102.069 Y-71.869
X-101.697 Y-72.238
X-101.326 Y-72.542
X-100.96 Y-72.789
X-100.605 Y-72.983
X-100.263 Y-73.129
X-99.954 Y-73.229
X-99.687 Y-73.288
X-99.468 Y-73.316
X-99.282 Y-73.321
X-99.132 Y-73.312
X-99.095 Y-73.306
X-98.992 Y-73.268
X-98.91 Y-73.195
X-98.86 Y-73.097
X-98.815 Y-72.936
X-98.717 Y-72.542
X-98.687 Y-72.404
G3 X-98.688 Y-72.343 I-0.156 J0.028
G1 X-98.699 Y-72.295 Z-2.992
X-98.708 Y-72.251 Z-2.97
X-98.716 Y-72.217 Z-2.935
X-98.721 Y-72.195 Z-2.89
X-98.723 Y-72.188 Z-2.841
G0 Z5
X-96.101 Y-50.789
Z-2.682
G1 Z-2.841 F849.6
X-96.095 Y-50.795 Z-2.89
X-96.079 Y-50.81 Z-2.935
X-96.053 Y-50.834 Z-2.97
X-96.021 Y-50.864 Z-2.992
X-95.985 Y-50.898 Z-3
G3 X-95.935 Y-50.861 I0.022 J0.023
G1 X-96.081 Y-50.591
X-96.152 Y-50.467
X-96.31 Y-50.204
X-96.393 Y-50.079
X-96.504 Y-49.978
X-96.629 Y-49.895
X-96.763 Y-49.828
X-96.912 Y-49.772
X-97.076 Y-49.728
X-97.282 Y-49.693
X-97.498 Y-49.677
X-97.78 Y-49.682
X-98.071 Y-49.715
X-98.428 Y-49.79
X-98.838 Y-49.917
X-99.28 Y-50.101
X-99.725 Y-50.336
X-100.209 Y-50.654
X-100.663 Y-51.013
X-101.089 Y-51.405
X-101.486 Y-51.826
X-101.856 Y-52.271
X-102.198 Y-52.737
X-102.514 Y-53.222
X-102.804 Y-53.723
X-103.069 Y-54.237
X-103.313 Y-54.762
X-103.536 Y-55.296
X-103.741 Y-55.837
X-103.928 Y-56.385
X-104.099 Y-56.938
X-104.255 Y-57.495
X-104.397 Y-58.056
X-104.525 Y-58.62
X-104.639 Y-59.188
X-104.739 Y-59.758
X-104.825 Y-60.33
X-104.897 Y-60.904
X-104.955 Y-61.48
X-104.999 Y-62.057
X-105.029 Y-62.635
X-105.045 Y-63.213
X-105.047 Y-63.792
X-105.036 Y-64.371
X-105.011 Y-64.949
X-104.972 Y-65.526
X-104.92 Y-66.102
X-104.854 Y-66.677
X-104.772 Y-67.25
X-104.674 Y-67.821
X-104.557 Y-68.387
X-104.416 Y-68.948
X-104.249 Y-69.502
X-104.052 Y-70.047
X-103.819 Y-70.577
X-103.547 Y-71.087
X-103.238 Y-71.576
X-102.891 Y-72.039
X-102.507 Y-72.472
X-102.094 Y-72.862
X-101.673 Y-73.191
X-101.253 Y-73.46
X-100.854 Y-73.666
X-100.483 Y-73.815
X-100.14 Y-73.916
X-99.831 Y-73.978
X-99.61 Y-74
X-99.427 Y-74.001
X-99.329 Y-73.993
X-99.22 Y-73.961
X-99.131 Y-73.891
X-99.075 Y-73.791
X-98.967 Y-73.461
X-98.927 Y-73.33
X-98.86 Y-73.097
G3 X-98.857 Y-73.035 I-0.154 J0.039
G1 X-98.865 Y-72.987 Z-2.992
X-98.871 Y-72.943 Z-2.97
X-98.876 Y-72.908 Z-2.935
X-98.88 Y-72.886 Z-2.89
X-98.881 Y-72.878 Z-2.841
G0 Z5
X-96.478 Y-50.14
Z-2.682
G1 Z-2.841 F849.6
X-96.472 Y-50.145 Z-2.89
X-96.455 Y-50.16 Z-2.935
X-96.429 Y-50.183 Z-2.97
X-96.395 Y-50.211 Z-2.992
X-96.358 Y-50.243 Z-3
G3 X-96.31 Y-50.204 I0.021 J0.024
G1 X-96.344 Y-50.146
X-96.39 Y-50.073
X-96.607 Y-49.742
X-96.65 Y-49.678
X-96.738 Y-49.555
X-96.832 Y-49.438
X-96.946 Y-49.34
X-97.073 Y-49.261
X-97.21 Y-49.198
X-97.359 Y-49.148
X-97.529 Y-49.107
X-97.733 Y-49.079
X-97.968 Y-49.068
X-98.256 Y-49.082
X-98.565 Y-49.126
X-98.954 Y-49.219
X-99.389 Y-49.368
X-99.818 Y-49.561
X-100.322 Y-49.847
X-100.796 Y-50.178
X-101.244 Y-50.545
X-101.665 Y-50.942
X-102.061 Y-51.364
X-102.431 Y-51.809
X-102.776 Y-52.274
X-103.095 Y-52.756
X-103.391 Y-53.253
X-103.663 Y-53.764
X-103.914 Y-54.285
X-104.145 Y-54.816
X-104.357 Y-55.355
X-104.551 Y-55.9
X-104.73 Y-56.45
X-104.894 Y-57.005
X-105.043 Y-57.564
X-105.179 Y-58.127
X-105.301 Y-58.692
X-105.41 Y-59.261
X-105.505 Y-59.832
X-105.586 Y-60.404
X-105.654 Y-60.979
X-105.709 Y-61.555
X-105.749 Y-62.132
X-105.777 Y-62.711
X-105.791 Y-63.289
Y-63.868
X-105.778 Y-64.446
X-105.752 Y-65.024
X-105.713 Y-65.602
X-105.661 Y-66.178
X-105.595 Y-66.753
X-105.514 Y-67.326
X-105.417 Y-67.896
X-105.301 Y-68.463
X-105.164 Y-69.026
X-105.003 Y-69.581
X-104.815 Y-70.129
X-104.595 Y-70.664
X-104.339 Y-71.183
X-104.048 Y-71.683
X-103.723 Y-72.162
X-103.365 Y-72.616
X-102.973 Y-73.043
X-102.549 Y-73.436
X-102.092 Y-73.791
X-101.629 Y-74.085
X-101.178 Y-74.316
X-100.746 Y-74.488
X-100.367 Y-74.6
X-100.045 Y-74.662
X-99.82 Y-74.684
X-99.633 Y-74.685
X-99.586 Y-74.681
X-99.484 Y-74.652
X-99.398 Y-74.589
X-99.34 Y-74.499
X-99.292 Y-74.381
X-99.235 Y-74.236
X-99.096 Y-73.856
X-99.075 Y-73.791
G3 X-99.07 Y-73.73 I-0.153 J0.044
G1 X-99.075 Y-73.681 Z-2.992
X-99.08 Y-73.637 Z-2.97
X-99.084 Y-73.602 Z-2.935
X-99.087 Y-73.58 Z-2.89
Y-73.572 Z-2.841
G0 Z5
X-96.912 Y-49.505
Z-2.682
G1 Z-2.841 F849.6
X-96.906 Y-49.51 Z-2.89
X-96.887 Y-49.523 Z-2.935
X-96.859 Y-49.543 Z-2.97
X-96.823 Y-49.569 Z-2.992
X-96.783 Y-49.598 Z-3
G3 X-96.738 Y-49.555 I0.019 J0.026
G1 X-96.934 Y-49.284
X-97.001 Y-49.193
X-97.032 Y-49.153
X-97.135 Y-49.021
X-97.241 Y-48.89
X-97.342 Y-48.778
X-97.463 Y-48.69
X-97.595 Y-48.62
X-97.735 Y-48.565
X-97.899 Y-48.52
X-98.077 Y-48.489
X-98.303 Y-48.471
X-98.554 Y-48.474
X-98.879 Y-48.509
X-99.208 Y-48.576
X-99.611 Y-48.697
X-100.088 Y-48.892
X-100.593 Y-49.157
X-101.079 Y-49.471
X-101.538 Y-49.824
X-101.971 Y-50.208
X-102.38 Y-50.617
X-102.765 Y-51.049
X-103.127 Y-51.501
X-103.465 Y-51.971
X-103.78 Y-52.456
X-104.072 Y-52.955
X-104.343 Y-53.467
X-104.594 Y-53.988
X-104.825 Y-54.519
X-105.039 Y-55.056
X-105.235 Y-55.601
X-105.417 Y-56.15
X-105.583 Y-56.705
X-105.735 Y-57.263
X-105.874 Y-57.825
X-106 Y-58.389
X-106.113 Y-58.957
X-106.212 Y-59.527
X-106.298 Y-60.099
X-106.371 Y-60.673
X-106.431 Y-61.249
X-106.478 Y-61.826
X-106.511 Y-62.404
X-106.531 Y-62.982
X-106.538 Y-63.56
X-106.533 Y-64.139
X-106.514 Y-64.717
X-106.483 Y-65.295
X-106.439 Y-65.872
X-106.381 Y-66.448
X-106.31 Y-67.022
X-106.225 Y-67.595
X-106.122 Y-68.164
X-106.002 Y-68.73
X-105.86 Y-69.291
X-105.696 Y-69.846
X-105.505 Y-70.393
X-105.285 Y-70.928
X-105.033 Y-71.449
X-104.75 Y-71.953
X-104.435 Y-72.439
X-104.088 Y-72.902
X-103.71 Y-73.34
X-103.301 Y-73.75
X-102.863 Y-74.128
X-102.396 Y-74.47
X-101.902 Y-74.771
X-101.402 Y-75.015
X-100.931 Y-75.193
X-100.547 Y-75.298
X-100.228 Y-75.354
X-100.021 Y-75.371
X-99.906 Y-75.369
X-99.799 Y-75.348
X-99.707 Y-75.288
X-99.644 Y-75.2
X-99.571 Y-75.038
X-99.454 Y-74.775
X-99.367 Y-74.564
X-99.34 Y-74.499
G3 X-99.331 Y-74.438 I-0.149 J0.055
G1 X-99.333 Y-74.389 Z-2.992
X-99.335 Y-74.345 Z-2.97
X-99.336 Y-74.31 Z-2.935
X-99.337 Y-74.287 Z-2.89
Y-74.279 Z-2.841
G0 Z5
X-97.417 Y-48.85
Z-2.682
G1 Z-2.841 F849.6
X-97.411 Y-48.854 Z-2.89
X-97.392 Y-48.867 Z-2.935
X-97.362 Y-48.885 Z-2.97
X-97.325 Y-48.909 Z-2.992
X-97.284 Y-48.936 Z-3
G3 X-97.241 Y-48.89 I0.017 J0.027
G1 X-97.349 Y-48.759
X-97.527 Y-48.553
X-97.698 Y-48.364
X-97.79 Y-48.267
X-97.899 Y-48.164
X-98.023 Y-48.079
X-98.158 Y-48.013
X-98.299 Y-47.964
X-98.453 Y-47.927
X-98.648 Y-47.899
X-98.854 Y-47.888
X-99.127 Y-47.9
X-99.414 Y-47.94
X-99.787 Y-48.028
X-100.231 Y-48.177
X-100.674 Y-48.374
X-101.179 Y-48.658
X-101.656 Y-48.984
X-102.109 Y-49.344
X-102.539 Y-49.732
X-102.947 Y-50.143
X-103.332 Y-50.575
X-103.695 Y-51.026
X-104.035 Y-51.493
X-104.354 Y-51.976
X-104.652 Y-52.472
X-104.93 Y-52.98
X-105.187 Y-53.498
X-105.426 Y-54.026
X-105.646 Y-54.561
X-105.85 Y-55.102
X-106.038 Y-55.649
X-106.212 Y-56.201
X-106.372 Y-56.758
X-106.518 Y-57.317
X-106.652 Y-57.88
X-106.773 Y-58.446
X-106.881 Y-59.015
X-106.976 Y-59.586
X-107.058 Y-60.158
X-107.128 Y-60.733
X-107.185 Y-61.309
X-107.228 Y-61.886
X-107.259 Y-62.464
X-107.278 Y-63.042
X-107.284 Y-63.621
X-107.277 Y-64.199
X-107.258 Y-64.778
X-107.226 Y-65.355
X-107.182 Y-65.932
X-107.125 Y-66.508
X-107.054 Y-67.083
X-106.969 Y-67.655
X-106.869 Y-68.225
X-106.75 Y-68.791
X-106.613 Y-69.354
X-106.455 Y-69.91
X-106.272 Y-70.459
X-106.062 Y-70.999
X-105.823 Y-71.526
X-105.555 Y-72.038
X-105.257 Y-72.535
X-104.931 Y-73.012
X-104.575 Y-73.469
X-104.191 Y-73.902
X-103.78 Y-74.309
X-103.341 Y-74.686
X-102.877 Y-75.032
X-102.388 Y-75.342
X-101.876 Y-75.61
X-101.383 Y-75.814
X-100.932 Y-75.952
X-100.581 Y-76.025
X-100.358 Y-76.049
X-100.255 Y-76.051
X-100.149 Y-76.033
X-100.056 Y-75.978
X-99.99 Y-75.894
X-99.886 Y-75.695
X-99.819 Y-75.564
X-99.691 Y-75.301
X-99.644 Y-75.2
G3 X-99.631 Y-75.139 I-0.146 J0.062
G1 Y-75.09 Z-2.992
X-99.63 Y-75.046 Z-2.97
Y-75.011 Z-2.935
Y-74.988 Z-2.89
Y-74.981 Z-2.841
G0 Z5
X-97.968 Y-48.24
Z-2.682
G1 Z-2.841 F849.6
X-97.961 Y-48.244 Z-2.89
X-97.942 Y-48.254 Z-2.935
X-97.911 Y-48.271 Z-2.97
X-97.872 Y-48.292 Z-2.992
X-97.829 Y-48.316 Z-3
G3 X-97.79 Y-48.267 I0.015 J0.028
G1 X-97.948 Y-48.102
X-98.083 Y-47.97
X-98.184 Y-47.874
X-98.366 Y-47.707
X-98.447 Y-47.635
X-98.565 Y-47.543
X-98.696 Y-47.469
X-98.836 Y-47.414
X-98.98 Y-47.375
X-99.157 Y-47.347
X-99.351 Y-47.333
X-99.592 Y-47.34
X-99.876 Y-47.374
X-100.226 Y-47.45
X-100.584 Y-47.564
X-101.048 Y-47.761
X-101.558 Y-48.035
X-102.04 Y-48.355
X-102.499 Y-48.708
X-102.935 Y-49.088
X-103.35 Y-49.491
X-103.743 Y-49.916
X-104.115 Y-50.359
X-104.466 Y-50.819
X-104.797 Y-51.294
X-105.107 Y-51.783
X-105.397 Y-52.283
X-105.668 Y-52.794
X-105.921 Y-53.315
X-106.156 Y-53.844
X-106.374 Y-54.38
X-106.576 Y-54.922
X-106.763 Y-55.47
X-106.936 Y-56.022
X-107.095 Y-56.579
X-107.242 Y-57.138
X-107.376 Y-57.701
X-107.497 Y-58.267
X-107.606 Y-58.835
X-107.703 Y-59.406
X-107.787 Y-59.979
X-107.858 Y-60.553
X-107.917 Y-61.128
X-107.964 Y-61.705
X-107.998 Y-62.283
X-108.02 Y-62.861
X-108.03 Y-63.44
X-108.027 Y-64.018
X-108.012 Y-64.597
X-107.985 Y-65.175
X-107.946 Y-65.752
X-107.894 Y-66.329
X-107.829 Y-66.904
X-107.751 Y-67.477
X-107.658 Y-68.048
X-107.55 Y-68.617
X-107.423 Y-69.181
X-107.277 Y-69.741
X-107.111 Y-70.296
X-106.92 Y-70.842
X-106.704 Y-71.379
X-106.46 Y-71.904
X-106.19 Y-72.415
X-105.893 Y-72.912
X-105.569 Y-73.391
X-105.218 Y-73.851
X-104.841 Y-74.29
X-104.438 Y-74.706
X-104.009 Y-75.094
X-103.555 Y-75.454
X-103.079 Y-75.782
X-102.58 Y-76.076
X-102.061 Y-76.33
X-101.532 Y-76.535
X-101.104 Y-76.657
X-100.832 Y-76.707
X-100.633 Y-76.725
X-100.622
X-100.523 Y-76.707
X-100.435 Y-76.657
X-100.37 Y-76.58
X-100.313 Y-76.484
X-100.155 Y-76.204
X-100.093 Y-76.089
X-99.99 Y-75.894
G3 X-99.974 Y-75.834 I-0.143 J0.069
G1 X-99.972 Y-75.785 Z-2.992
X-99.969 Y-75.74 Z-2.97
X-99.967 Y-75.705 Z-2.935
X-99.966 Y-75.683 Z-2.89
Y-75.675 Z-2.841
G0 Z5
X-98.627 Y-47.623
Z-2.682
G1 Z-2.841 F849.6
X-98.62 Y-47.627 Z-2.89
X-98.599 Y-47.636 Z-2.935
X-98.567 Y-47.65 Z-2.97
X-98.526 Y-47.667 Z-2.992
X-98.481 Y-47.687 Z-3
G3 X-98.447 Y-47.635 I0.013 J0.029
G1 X-98.669 Y-47.445
X-98.841 Y-47.304
X-99.004 Y-47.182
X-99.182 Y-47.05
X-99.306 Y-46.967
X-99.442 Y-46.904
X-99.586 Y-46.86
X-99.734 Y-46.831
X-99.906 Y-46.814
X-100.118 Y-46.813
X-100.348 Y-46.834
X-100.658 Y-46.891
X-100.981 Y-46.983
X-101.402 Y-47.147
X-101.893 Y-47.393
X-102.384 Y-47.699
X-102.85 Y-48.042
X-103.294 Y-48.413
X-103.717 Y-48.808
X-104.119 Y-49.224
X-104.501 Y-49.659
X-104.863 Y-50.111
X-105.205 Y-50.577
X-105.528 Y-51.057
X-105.832 Y-51.55
X-106.117 Y-52.053
X-106.385 Y-52.566
X-106.634 Y-53.088
X-106.867 Y-53.618
X-107.084 Y-54.155
X-107.285 Y-54.697
X-107.472 Y-55.245
X-107.646 Y-55.797
X-107.806 Y-56.353
X-107.954 Y-56.913
X-108.089 Y-57.475
X-108.212 Y-58.041
X-108.323 Y-58.609
X-108.422 Y-59.179
X-108.508 Y-59.751
X-108.583 Y-60.325
X-108.645 Y-60.9
X-108.696 Y-61.477
X-108.734 Y-62.054
X-108.76 Y-62.632
X-108.774 Y-63.211
X-108.777 Y-63.789
X-108.767 Y-64.368
X-108.745 Y-64.946
X-108.711 Y-65.524
X-108.665 Y-66.101
X-108.607 Y-66.677
X-108.536 Y-67.251
X-108.452 Y-67.823
X-108.352 Y-68.393
X-108.237 Y-68.96
X-108.154 Y-69.313
X-108.147 Y-69.338
X-108.138 Y-69.362
X-108.126 Y-69.385
X-108.041 Y-69.546
X-107.853 Y-69.914
X-107.646 Y-70.342
X-107.542 Y-70.571
X-107.424 Y-70.833
X-107.252 Y-71.247
X-107.111 Y-71.622
X-107.067 Y-71.753
X-107.026 Y-71.885
X-106.988 Y-72.016
X-106.959 Y-72.147
X-106.91 Y-72.35
X-106.805 Y-72.659
X-106.631 Y-73.047
X-106.346 Y-73.55
X-106.016 Y-74.025
X-105.656 Y-74.479
X-105.271 Y-74.911
X-104.862 Y-75.319
X-104.429 Y-75.703
X-103.974 Y-76.06
X-103.497 Y-76.389
X-103 Y-76.686
X-102.484 Y-76.948
X-101.958 Y-77.167
X-101.51 Y-77.306
X-101.226 Y-77.366
X-101.061 Y-77.385
X-100.952 Y-77.377
X-100.853 Y-77.329
X-100.779 Y-77.249
X-100.628 Y-77.009
X-100.547 Y-76.878
X-100.37 Y-76.58
G3 X-100.352 Y-76.521 I-0.14 J0.076
G1 X-100.347 Y-76.472 Z-2.992
X-100.342 Y-76.428 Z-2.97
X-100.338 Y-76.393 Z-2.935
X-100.336 Y-76.371 Z-2.89
X-100.335 Y-76.363 Z-2.841
G0 Z5
X-106.823 Y-72.266
Z-2.682
G1 Z-2.841 F849.6
X-106.827 Y-72.26 Z-2.89
X-106.838 Y-72.24 Z-2.935
X-106.855 Y-72.209 Z-2.97
X-106.876 Y-72.17 Z-2.992
X-106.9 Y-72.127 Z-3
G3 X-106.959 Y-72.147 I-0.028 J-0.015
G1 X-106.91 Y-72.41
X-106.888 Y-72.542
X-106.847 Y-72.936
X-106.826 Y-73.33
X-106.822 Y-73.461
X-106.812 Y-73.611
X-106.787 Y-73.76
X-106.743 Y-73.925
X-106.663 Y-74.138
X-106.537 Y-74.4
X-106.332 Y-74.739
X-106.022 Y-75.159
X-105.636 Y-75.59
X-105.22 Y-75.992
X-104.781 Y-76.369
X-104.321 Y-76.72
X-103.841 Y-77.043
X-103.343 Y-77.338
X-102.827 Y-77.6
X-102.294 Y-77.826
X-101.854 Y-77.966
X-101.605 Y-78.021
X-101.497 Y-78.034
X-101.394 Y-78.028
X-101.3 Y-77.987
X-101.225 Y-77.917
X-101.139 Y-77.798
X-101.05 Y-77.666
X-100.876 Y-77.403
X-100.779 Y-77.249
G3 X-100.759 Y-77.191 I-0.137 J0.08
X-100.83 Y-77.036 I-0.157 J0.021
G1 X-106.578 Y-73.331
G3 X-106.822 Y-73.461 I-0.086 J-0.133
G1 X-106.818 Y-73.724
X-106.816 Y-73.856
Y-74.25
X-106.821 Y-74.585
X-106.816 Y-74.735
X-106.793 Y-74.883
X-106.756 Y-75.028
X-106.692 Y-75.203
X-106.584 Y-75.43
X-106.441 Y-75.668
X-106.199 Y-75.999
X-105.84 Y-76.403
X-105.418 Y-76.798
X-104.967 Y-77.162
X-104.497 Y-77.499
X-104.008 Y-77.808
X-103.502 Y-78.089
X-102.98 Y-78.339
X-102.456 Y-78.546
X-102.158 Y-78.632
X-102.004 Y-78.661
X-101.899 Y-78.662
X-101.8 Y-78.626
X-101.721 Y-78.558
X-101.53 Y-78.323
X-101.47 Y-78.247
X-101.225 Y-77.917
G3 X-101.201 Y-77.86 I-0.131 J0.09
X-101.274 Y-77.691 I-0.155 J0.033
G1 X-106.58 Y-74.457
G3 X-106.806 Y-74.525 I-0.083 J-0.136
X-106.821 Y-74.585 I0.143 J-0.068
G1 X-106.822 Y-74.644
X-106.829 Y-74.775
X-106.844 Y-75.038
X-106.858 Y-75.172
X-106.896 Y-75.432
X-106.917 Y-75.581
X-106.907 Y-75.731
X-106.879 Y-75.878
X-106.83 Y-76.035
X-106.747 Y-76.233
X-106.644 Y-76.427
X-106.474 Y-76.684
X-106.24 Y-76.976
X-105.875 Y-77.351
X-105.435 Y-77.727
X-104.969 Y-78.07
X-104.484 Y-78.385
X-103.982 Y-78.673
X-103.465 Y-78.933
X-102.955 Y-79.149
X-102.649 Y-79.246
X-102.537 Y-79.27
X-102.435 Y-79.274
X-102.339 Y-79.243
X-102.258 Y-79.181
X-101.995 Y-78.884
X-101.851 Y-78.717
X-101.721 Y-78.558
G3 X-101.765 Y-78.326 I-0.127 J0.096
G1 X-106.659 Y-75.332
G3 X-106.896 Y-75.432 I-0.083 J-0.135
G1 X-106.921 Y-75.564
X-106.993 Y-75.827
X-107.04 Y-75.958
X-107.057 Y-75.998
X-107.11 Y-76.138
X-107.133 Y-76.286
X-107.131 Y-76.436
X-107.108 Y-76.585
X-107.066 Y-76.744
X-107.008 Y-76.902
X-106.913 Y-77.101
X-106.773 Y-77.335
X-106.586 Y-77.59
X-106.304 Y-77.906
X-105.894 Y-78.288
X-105.435 Y-78.641
X-104.954 Y-78.963
X-104.457 Y-79.258
X-103.944 Y-79.526
X-103.451 Y-79.747
X-103.175 Y-79.841
X-103.105 Y-79.857
X-103.007 Y-79.864
X-102.912 Y-79.837
X-102.831 Y-79.781
X-102.784 Y-79.734
X-102.652 Y-79.6
X-102.39 Y-79.323
X-102.258 Y-79.181
G3 X-102.228 Y-79.127 I-0.121 J0.103
X-102.291 Y-78.946 I-0.151 J0.049
G1 X-106.826 Y-75.934
G3 X-107.057 Y-75.998 I-0.088 J-0.132
G1 X-107.213 Y-76.352
X-107.325 Y-76.556
X-107.391 Y-76.691
X-107.427 Y-76.836
X-107.438 Y-76.986
X-107.428 Y-77.135
X-107.4 Y-77.286
X-107.356 Y-77.441
X-107.283 Y-77.627
X-107.177 Y-77.84
X-107.03 Y-78.074
X-106.809 Y-78.363
X-106.513 Y-78.683
X-106.1 Y-79.053
X-105.635 Y-79.398
X-105.148 Y-79.711
X-104.645 Y-79.997
X-104.128 Y-80.256
X-103.826 Y-80.38
X-103.714 Y-80.414
X-103.614 Y-80.427
X-103.516 Y-80.405
X-103.431 Y-80.351
X-103.224 Y-80.163
X-103.086 Y-80.031
X-102.831 Y-79.781
G3 X-102.798 Y-79.729 I-0.115 J0.109
X-102.854 Y-79.543 I-0.148 J0.057
G1 X-107.096 Y-76.508
G3 X-107.283 Y-76.51 I-0.092 J-0.129
X-107.325 Y-76.556 I0.095 J-0.128
G1 X-107.431 Y-76.746
X-107.519 Y-76.878
X-107.646 Y-77.061
X-107.726 Y-77.188
X-107.773 Y-77.33
X-107.795 Y-77.479
X-107.796 Y-77.629
X-107.779 Y-77.778
X-107.746 Y-77.931
X-107.686 Y-78.123
X-107.605 Y-78.314
X-107.473 Y-78.562
X-107.314 Y-78.803
X-107.058 Y-79.12
X-106.739 Y-79.447
X-106.299 Y-79.822
X-105.826 Y-80.156
X-105.333 Y-80.46
X-104.826 Y-80.737
X-104.481 Y-80.899
X-104.359 Y-80.943
X-104.26 Y-80.961
X-104.161 Y-80.944
X-104.073 Y-80.895
X-103.704 Y-80.593
X-103.661 Y-80.557
X-103.572 Y-80.479
X-103.431 Y-80.351
G3 X-103.444 Y-80.112 I-0.111 J0.114
G1 X-107.422 Y-77.03
G3 X-107.646 Y-77.061 I-0.097 J-0.125
G1 X-107.702 Y-77.141
X-107.778 Y-77.245
X-107.799 Y-77.272
X-107.911 Y-77.403
X-107.977 Y-77.476
X-108.072 Y-77.592
X-108.14 Y-77.725
X-108.181 Y-77.87
X-108.2 Y-78.019
X-108.199 Y-78.169
X-108.183 Y-78.318
X-108.147 Y-78.496
X-108.092 Y-78.676
X-107.997 Y-78.906
X-107.877 Y-79.135
X-107.69 Y-79.422
X-107.456 Y-79.717
X-107.125 Y-80.062
X-106.687 Y-80.44
X-106.217 Y-80.778
X-105.727 Y-81.085
X-105.22 Y-81.365
X-105.086 Y-81.424
X-104.995 Y-81.447
X-104.901 Y-81.441
X-104.815 Y-81.405
X-104.719 Y-81.345
X-104.624 Y-81.285
X-104.518 Y-81.214
X-104.146 Y-80.951
X-104.098 Y-80.915
X-104.073 Y-80.895
G3 X-104.074 Y-80.655 I-0.105 J0.119
G1 X-107.76 Y-77.466
G3 X-107.977 Y-77.476 I-0.104 J-0.12
G1 X-108.041 Y-77.546
X-108.155 Y-77.666
X-108.293 Y-77.798
X-108.376 Y-77.868
X-108.485 Y-77.97
X-108.562 Y-78.099
X-108.614 Y-78.24
X-108.644 Y-78.387
X-108.655 Y-78.536
X-108.649 Y-78.69
X-108.628 Y-78.855
X-108.584 Y-79.05
X-108.515 Y-79.261
X-108.406 Y-79.513
X-108.27 Y-79.761
X-108.059 Y-80.071
X-107.781 Y-80.408
X-107.428 Y-80.763
X-106.983 Y-81.133
X-106.509 Y-81.466
X-106.017 Y-81.77
X-105.867 Y-81.848
X-105.781 Y-81.878
X-105.69 Y-81.879
X-105.602 Y-81.853
X-105.544 Y-81.824
X-105.412 Y-81.754
X-105.018 Y-81.529
X-104.815 Y-81.405
G3 X-104.792 Y-81.159 I-0.088 J0.132
G1 X-108.167 Y-77.878
G3 X-108.321 Y-77.839 I-0.111 J-0.114
X-108.376 Y-77.868 I0.043 J-0.153
G1 X-108.566 Y-78.029
X-108.606 Y-78.06
X-108.698 Y-78.128
X-108.777 Y-78.179
X-108.899 Y-78.266
X-108.993 Y-78.383
X-109.061 Y-78.517
X-109.108 Y-78.659
X-109.135 Y-78.807
X-109.146 Y-78.956
X-109.142 Y-79.125
X-109.119 Y-79.308
X-109.075 Y-79.512
X-108.999 Y-79.75
X-108.894 Y-79.999
X-108.729 Y-80.303
X-108.52 Y-80.616
X-108.244 Y-80.956
X-107.857 Y-81.35
X-107.415 Y-81.724
X-106.945 Y-82.061
X-106.738 Y-82.191
X-106.66 Y-82.226
X-106.576 Y-82.236
X-106.493 Y-82.223
X-106.332 Y-82.17
X-105.911 Y-82.002
X-105.602 Y-81.853
G3 X-105.558 Y-81.607 I-0.074 J0.14
G1 X-108.577 Y-78.21
G3 X-108.719 Y-78.158 I-0.119 J-0.105
X-108.777 Y-78.179 I0.023 J-0.157
G1 X-109.092 Y-78.382
X-109.223 Y-78.455
X-109.352 Y-78.532
X-109.457 Y-78.639
X-109.538 Y-78.765
X-109.598 Y-78.902
X-109.639 Y-79.047
X-109.663 Y-79.195
X-109.673 Y-79.351
X-109.668 Y-79.539
X-109.644 Y-79.731
X-109.591 Y-79.973
X-109.513 Y-80.219
X-109.391 Y-80.503
X-109.213 Y-80.832
X-108.993 Y-81.16
X-108.684 Y-81.539
X-108.278 Y-81.951
X-107.836 Y-82.324
X-107.753 Y-82.384
X-107.689 Y-82.42
X-107.618 Y-82.438
X-107.544
X-107.252 Y-82.401
X-106.858 Y-82.322
X-106.726 Y-82.291
X-106.629 Y-82.265
X-106.493 Y-82.223
G3 X-106.44 Y-82.191 I-0.053 J0.15
X-106.419 Y-81.978 I-0.106 J0.118
G1 X-109.026 Y-78.502
G3 X-109.223 Y-78.455 I-0.127 J-0.095
G1 X-109.355 Y-78.519
X-109.495 Y-78.586
X-109.618 Y-78.636
X-109.69 Y-78.662
X-109.828 Y-78.721
X-109.942 Y-78.819
X-110.035 Y-78.937
X-110.108 Y-79.068
X-110.162 Y-79.207
X-110.2 Y-79.352
X-110.225 Y-79.507
X-110.238 Y-79.693
X-110.232 Y-79.885
X-110.204 Y-80.118
X-110.15 Y-80.368
X-110.06 Y-80.65
X-109.922 Y-80.974
X-109.737 Y-81.316
X-109.496 Y-81.677
X-109.154 Y-82.097
X-108.838 Y-82.419
X-108.775 Y-82.467
X-108.702 Y-82.497
X-108.624 Y-82.506
X-108.566 Y-82.505
X-108.172 Y-82.492
X-107.778 Y-82.464
X-107.646 Y-82.451
X-107.544 Y-82.438
G3 X-107.433 Y-82.2 I-0.025 J0.157
G1 X-109.504 Y-78.732
G3 X-109.629 Y-78.655 I-0.136 J-0.081
X-109.69 Y-78.662 I-0.012 J-0.158
G1 X-109.881 Y-78.733
X-110.012 Y-78.776
X-110.143 Y-78.81
X-110.286 Y-78.856
X-110.414 Y-78.934
X-110.523 Y-79.038
X-110.612 Y-79.158
X-110.683 Y-79.29
X-110.739 Y-79.43
X-110.78 Y-79.577
X-110.812 Y-79.751
X-110.829 Y-79.937
X-110.827 Y-80.164
X-110.803 Y-80.401
X-110.749 Y-80.678
X-110.654 Y-81.001
X-110.523 Y-81.326
X-110.339 Y-81.685
X-110.072 Y-82.104
X-109.854 Y-82.384
X-109.793 Y-82.442
X-109.719 Y-82.48
X-109.637 Y-82.497
X-109.486 Y-82.504
X-109.092 Y-82.51
X-108.961
X-108.624 Y-82.506
G3 X-108.564 Y-82.491 I-0.008 J0.159
X-108.486 Y-82.284 I-0.068 J0.143
G1 X-109.963 Y-78.902
G3 X-110.082 Y-78.809 I-0.145 J-0.064
X-110.143 Y-78.81 I-0.027 J-0.156
G1 X-110.289 Y-78.849
X-110.406 Y-78.878
X-110.538 Y-78.901
X-110.643 Y-78.916
X-110.79 Y-78.945
X-110.924 Y-79.013
X-111.04 Y-79.107
X-111.14 Y-79.219
X-111.224 Y-79.343
X-111.292 Y-79.477
X-111.346 Y-79.617
X-111.395 Y-79.787
X-111.429 Y-79.971
X-111.448 Y-80.187
X-111.447 Y-80.442
X-111.421 Y-80.706
X-111.36 Y-81.015
X-111.257 Y-81.366
X-111.113 Y-81.727
X-110.907 Y-82.131
X-110.819 Y-82.269
X-110.765 Y-82.331
X-110.696 Y-82.377
X-110.617 Y-82.401
X-110.406 Y-82.434
X-110.275 Y-82.449
X-110.012 Y-82.474
X-109.881 Y-82.484
X-109.637 Y-82.497
G3 X-109.482 Y-82.292 I0.002 J0.159
G1 X-110.473 Y-79.028
G3 X-110.581 Y-78.921 I-0.152 J-0.046
X-110.643 Y-78.916 I-0.044 J-0.152
G1 X-110.801 Y-78.939
X-111.136 Y-78.962
X-111.285 Y-78.979
X-111.425 Y-79.032
X-111.551 Y-79.113
X-111.663 Y-79.213
X-111.759 Y-79.329
X-111.84 Y-79.455
X-111.908 Y-79.588
X-111.974 Y-79.754
X-112.026 Y-79.932
X-112.066 Y-80.142
X-112.09 Y-80.391
X-112.091 Y-80.648
X-112.063 Y-80.96
X-111.996 Y-81.313
X-111.893 Y-81.675
X-111.771 Y-81.988
X-111.728 Y-82.063
X-111.665 Y-82.122
X-111.587 Y-82.161
X-111.326 Y-82.245
X-111.261 Y-82.265
X-110.932 Y-82.343
X-110.801 Y-82.372
X-110.617 Y-82.401
G3 X-110.441 Y-82.217 I0.019 J0.158
G1 X-110.974 Y-79.094
G3 X-111.075 Y-78.972 I-0.156 J-0.027
X-111.136 Y-78.962 I-0.056 J-0.148
G1 X-111.195 Y-78.966
X-111.326 Y-78.965
X-111.589 Y-78.957
X-111.629 Y-78.954
X-111.779 Y-78.951
X-111.924 Y-78.989
X-112.058 Y-79.057
X-112.179 Y-79.146
X-112.286 Y-79.25
X-112.38 Y-79.367
X-112.462 Y-79.493
X-112.544 Y-79.651
X-112.613 Y-79.821
X-112.675 Y-80.024
X-112.724 Y-80.266
X-112.751 Y-80.519
X-112.755 Y-80.828
X-112.726 Y-81.179
X-112.662 Y-81.539
X-112.646 Y-81.599
X-112.613 Y-81.675
X-112.559 Y-81.739
X-112.49 Y-81.786
G3 X-112.274 Y-81.687 I0.064 J0.145
G1 X-111.494 Y-79.159
G3 X-111.629 Y-78.954 I-0.152 J0.047
G1 X-111.721 Y-78.948
X-111.983 Y-78.917
X-112.115 Y-78.899
X-112.155 Y-78.891
X-112.303 Y-78.868
X-112.449 Y-78.9
X-112.587 Y-78.96
X-112.713 Y-79.041
X-112.828 Y-79.138
X-112.93 Y-79.247
X-113.023 Y-79.367
X-113.118 Y-79.518
X-113.206 Y-79.692
X-113.283 Y-79.888
X-113.354 Y-80.13
X-113.404 Y-80.394
X-113.433 Y-80.697
Y-81.043
X-113.425 Y-81.128
X-113.403 Y-81.217
X-113.354 Y-81.294
X-113.284 Y-81.353
G3 X-113.063 Y-81.281 I0.077 J0.139
G1 X-112.049 Y-79.112
G3 X-112.155 Y-78.891 I-0.144 J0.067
G1 X-112.378 Y-78.843
X-112.509 Y-78.815
X-112.614 Y-78.783
X-112.759 Y-78.747
X-112.909 Y-78.757
X-113.054 Y-78.797
X-113.189 Y-78.861
X-113.315 Y-78.943
X-113.43 Y-79.039
X-113.535 Y-79.147
X-113.646 Y-79.285
X-113.747 Y-79.438
X-113.85 Y-79.63
X-113.942 Y-79.849
X-114.019 Y-80.096
X-114.083 Y-80.395
X-114.105 Y-80.586
X-114.1 Y-80.682
X-114.065 Y-80.771
X-114.003 Y-80.844
G3 X-113.774 Y-80.81 I0.098 J0.125
G1 X-112.534 Y-79.024
G3 X-112.614 Y-78.783 I-0.13 J0.091
G1 X-112.903 Y-78.696
X-113.035 Y-78.645
X-113.074 Y-78.628
X-113.216 Y-78.578
X-113.365 Y-78.57
X-113.514 Y-78.593
X-113.656 Y-78.641
X-113.79 Y-78.709
X-113.914 Y-78.792
X-114.03 Y-78.888
X-114.154 Y-79.012
X-114.27 Y-79.152
X-114.389 Y-79.326
X-114.506 Y-79.539
X-114.606 Y-79.769
X-114.674 Y-79.975
X-114.678 Y-79.995
X-114.685 Y-80.083
X-114.664 Y-80.17
X-114.619 Y-80.246
G3 X-114.387 Y-80.253 I0.119 J0.105
G1 X-113.028 Y-78.884
G3 X-113.074 Y-78.628 I-0.113 J0.112
G1 X-113.298 Y-78.535
X-113.429 Y-78.475
X-113.517 Y-78.423
X-113.65 Y-78.354
X-113.798 Y-78.33
X-113.948 Y-78.338
X-114.094 Y-78.37
X-114.235 Y-78.423
X-114.368 Y-78.493
X-114.493 Y-78.575
X-114.63 Y-78.686
X-114.76 Y-78.813
X-114.895 Y-78.971
X-115.024 Y-79.156
X-115.11 Y-79.308
X-115.115 Y-79.318
X-115.139 Y-79.411
X-115.132 Y-79.508
X-115.095 Y-79.596
X-115.069 Y-79.637
X-114.875 Y-79.924
X-114.794 Y-80.031
X-114.612 Y-80.255
X-114.454 Y-80.426
X-114.349 Y-80.532
X-114.186 Y-80.688
X-113.955 Y-80.885
X-113.868 Y-80.951
X-113.504 Y-81.214
X-113.296 Y-81.345
X-113.166 Y-81.424
X-113.076 Y-81.477
X-113.035 Y-81.5
X-112.64 Y-81.711
X-112.584 Y-81.74
X-112.378 Y-81.84
X-112.246 Y-81.901
X-112.115 Y-81.958
X-111.721 Y-82.118
X-111.587 Y-82.161
G3 X-111.408 Y-81.927 I0.043 J0.153
G1 X-113.466 Y-78.476
G3 X-113.517 Y-78.423 I-0.136 J-0.081
G1 X-113.692 Y-78.32
X-113.823 Y-78.235
X-113.922 Y-78.162
X-114.047 Y-78.079
X-114.191 Y-78.039
X-114.341 Y-78.03
X-114.49 Y-78.047
X-114.636 Y-78.084
X-114.775 Y-78.138
X-114.909 Y-78.206
X-115.055 Y-78.299
X-115.196 Y-78.41
X-115.319 Y-78.525
X-115.418 Y-78.638
X-115.423 Y-78.645
X-115.468 Y-78.738
X-115.478 Y-78.842
X-115.451 Y-78.942
G3 X-115.244 Y-79.014 I0.141 J0.073
G1 X-113.955 Y-78.431
G3 X-113.882 Y-78.209 I-0.065 J0.145
X-113.922 Y-78.162 I-0.139 J-0.077
G1 X-114.06 Y-78.06
X-114.086 Y-78.039
X-114.206 Y-77.929
X-114.252 Y-77.881
X-114.361 Y-77.778
X-114.496 Y-77.713
X-114.643 Y-77.68
X-114.793 Y-77.673
X-114.942 Y-77.687
X-115.088 Y-77.72
X-115.23 Y-77.769
X-115.368 Y-77.832
X-115.498 Y-77.908
X-115.618 Y-77.997
X-115.628 Y-78.006
X-115.694 Y-78.097
X-115.721 Y-78.205
X-115.706 Y-78.316
G3 X-115.673 Y-78.369 I0.148 J0.057
X-115.522 Y-78.414 I0.115 J0.109
G1 X-114.335 Y-78.141
G3 X-114.252 Y-77.881 I-0.036 J0.155
G1 X-114.48 Y-77.643
X-114.566 Y-77.535
X-114.662 Y-77.42
X-114.789 Y-77.339
X-114.93 Y-77.289
X-115.078 Y-77.264
X-115.228 Y-77.261
X-115.377 Y-77.278
X-115.523 Y-77.312
X-115.663 Y-77.365
X-115.709 Y-77.39
X-115.801 Y-77.467
X-115.854 Y-77.575
X-115.86 Y-77.696
G3 X-115.698 Y-77.823 I0.156 J0.031
G1 X-114.689 Y-77.785
G3 X-114.566 Y-77.535 I-0.006 J0.159
G1 X-114.612 Y-77.474
X-114.745 Y-77.272
X-114.804 Y-77.167
X-114.883 Y-77.04
X-114.997 Y-76.942
X-115.129 Y-76.872
X-115.273 Y-76.827
X-115.421 Y-76.806
X-115.571 Y-76.809
X-115.719 Y-76.835
X-115.732 Y-76.84
X-115.839 Y-76.906
X-115.908 Y-77.012
X-115.927 Y-77.137
G3 X-115.792 Y-77.278 I0.158 J0.017
G1 X-114.968 Y-77.397
G3 X-114.804 Y-77.167 I0.023 J0.157
G1 X-114.819 Y-77.141
X-114.948 Y-76.878
X-115.006 Y-76.749
X-115.068 Y-76.613
X-115.173 Y-76.505
X-115.3 Y-76.426
X-115.44 Y-76.372
X-115.588 Y-76.349
X-115.663 Y-76.351
X-115.774 Y-76.376
X-115.867 Y-76.441
X-115.928 Y-76.537
X-115.949 Y-76.649
G3 X-115.934 Y-76.709 I0.159 J0.008
X-115.829 Y-76.795 I0.144 J0.068
G1 X-115.195 Y-76.955
G3 X-115.006 Y-76.749 I0.039 J0.154
G1 X-115.051 Y-76.615
X-115.092 Y-76.484
X-115.128 Y-76.352
X-115.168 Y-76.208
X-115.26 Y-76.089
X-115.381 Y-76.001
X-115.519 Y-75.942
X-115.668 Y-75.918
X-115.807 Y-75.961
X-115.908 Y-76.065
X-115.947 Y-76.205
G3 X-115.84 Y-76.353 I0.159 J0.002
G1 X-115.337 Y-76.527
G3 X-115.128 Y-76.352 I0.052 J0.15
G1 X-115.179 Y-76.089
X-115.203 Y-75.958
X-115.23 Y-75.81
X-115.312 Y-75.685
X-115.43 Y-75.593
X-115.568 Y-75.534
X-115.598 Y-75.529
X-115.718 Y-75.537
X-115.826 Y-75.593
X-115.901 Y-75.687
X-115.932 Y-75.804
G3 X-115.83 Y-75.956 I0.159 J-0.003
G1 X-115.418 Y-76.112
G3 X-115.203 Y-75.958 I0.056 J0.148
G1 X-115.228 Y-75.59
X-115.246 Y-75.442
X-115.322 Y-75.312
X-115.436 Y-75.215
X-115.5 Y-75.188
X-115.634 Y-75.166
X-115.763 Y-75.206
X-115.861 Y-75.3
X-115.906 Y-75.428
G3 X-115.898 Y-75.489 I0.158 J-0.011
X-115.811 Y-75.584 I0.151 J0.05
G1 X-115.45 Y-75.742
G3 X-115.238 Y-75.652 I0.063 J0.146
X-115.228 Y-75.59 I-0.149 J0.056
G1 X-115.23 Y-75.564
X-115.226 Y-75.432
X-115.217 Y-75.261
X-115.218 Y-75.111
X-115.283 Y-74.976
X-115.391 Y-74.872
X-115.442 Y-74.846
X-115.577 Y-74.815
X-115.711 Y-74.849
X-115.815 Y-74.941
X-115.865 Y-75.07
G3 X-115.859 Y-75.131 I0.158 J-0.016
X-115.777 Y-75.228 I0.152 J0.046
G1 X-115.445 Y-75.391
G3 X-115.217 Y-75.261 I0.07 J0.143
G1 X-115.213 Y-75.17
X-115.197 Y-75.038
X-115.18 Y-74.933
X-115.165 Y-74.784
X-115.223 Y-74.646
X-115.325 Y-74.536
X-115.37 Y-74.51
X-115.504 Y-74.472
X-115.64 Y-74.5
X-115.748 Y-74.588
X-115.804 Y-74.715
G3 X-115.722 Y-74.877 I0.157 J-0.022
G1 X-115.411 Y-75.044
G3 X-115.18 Y-74.933 I0.075 J0.14
G1 X-115.156 Y-74.775
X-115.137 Y-74.678
X-115.118 Y-74.604
X-115.103 Y-74.531
X-115.125 Y-74.382
X-115.202 Y-74.254
X-115.247 Y-74.217
X-115.376 Y-74.157
X-115.517 Y-74.164
X-115.639 Y-74.237
X-115.713 Y-74.359
G3 X-115.717 Y-74.421 I0.153 J-0.041
X-115.636 Y-74.539 I0.157 J0.02
G1 X-115.347 Y-74.698
G3 X-115.118 Y-74.604 I0.076 J0.139
G1 X-115.06 Y-74.381
X-115.04 Y-74.309
X-115.007 Y-74.163
X-115.047 Y-74.018
X-115.14 Y-73.9
X-115.149 Y-73.894
X-115.268 Y-73.845
X-115.397 Y-73.852
X-115.511 Y-73.914
X-115.587 Y-74.018
G3 X-115.608 Y-74.077 I0.931 J-0.365
X-115.627 Y-74.143 I0.952 J-0.306
X-115.065 Y-74.366 I0.296 J-0.073
X-115.04 Y-74.309 I-0.266 J0.15
G1 X-115.023 Y-74.25
X-114.934 Y-74.014
X-114.911 Y-73.942
X-114.912 Y-73.792
X-114.92 Y-73.775
X-114.997 Y-73.674
X-115.109 Y-73.615
X-115.236 Y-73.609
X-115.354 Y-73.657
X-115.44 Y-73.75
X-115.452 Y-73.771
G3 X-115.467 Y-73.806 I0.254 J-0.132
X-114.934 Y-74.014 I0.269 J-0.097
G1 X-114.874 Y-73.856
X-114.84 Y-73.783
X-114.812 Y-73.714
X-114.802 Y-73.564
X-114.88 Y-73.463
X-114.997 Y-73.411
X-115.124 Y-73.42
X-115.232 Y-73.488
G3 X-115.26 Y-73.522 I0.379 J-0.34
X-115.271 Y-73.537 I0.198 J-0.149
X-114.875 Y-73.835 I0.209 J-0.134
X-114.84 Y-73.783 I-0.187 J0.164
G1 X-114.813 Y-73.724
X-114.743 Y-73.592
X-114.717 Y-73.552
X-114.698 Y-73.52
X-114.719 Y-73.395
X-114.806 Y-73.303
X-114.929 Y-73.275
X-115.048 Y-73.32
G3 X-115.079 Y-73.365 I0.066 J-0.079
G1 X-115.081 Y-73.371
G3 X-114.76 Y-73.597 I0.196 J-0.062
X-114.717 Y-73.552 I-0.125 J0.164
G1 X-114.657 Y-73.461
X-114.632 Y-73.43
X-114.612 Y-73.405
X-114.599 Y-73.386
X-114.587 Y-73.356
X-114.58 Y-73.327
X-114.577 Y-73.298
G3 X-114.831 Y-73.324 I-0.127 J-0.013
X-114.756 Y-73.427 I0.127 J0.013
X-114.646 Y-73.426 I0.053 J0.118
X-114.599 Y-73.386 I-0.057 J0.117
G1 X-114.589 Y-73.367
X-114.583 Y-73.349
X-114.579 Y-73.33
X-114.577 Y-73.298
X-114.578 Y-73.282
X-114.581 Y-73.266
X-114.585 Y-73.249
X-114.592 Y-73.233
X-114.6 Y-73.217
X-114.614 Y-73.199
X-114.63 Y-73.182
X-114.646 Y-73.169
X-114.662 Y-73.16
X-114.678 Y-73.152
X-114.695 Y-73.147
X-114.711 Y-73.143
X-114.727 Y-73.142
X-114.743
X-114.776 Y-73.146
X-114.792 Y-73.15
X-114.809 Y-73.155
X-114.842 Y-73.171
X-114.886 Y-73.199
X-115.006 Y-73.287
X-115.061 Y-73.33
X-115.137 Y-73.396
X-115.207 Y-73.461
X-115.269 Y-73.526
X-115.326 Y-73.593
X-115.4 Y-73.689
X-115.425 Y-73.724
X-115.532 Y-73.906
X-115.573 Y-73.987
X-115.63 Y-74.118
X-115.663 Y-74.198
X-115.76 Y-74.513
X-115.792 Y-74.644
X-115.861 Y-75.038
X-115.879 Y-75.17
X-115.907 Y-75.432
X-115.919 Y-75.564
X-115.941 Y-75.958
X-115.947 Y-76.221
X-115.95 Y-76.352
X-115.951 Y-76.484
X-115.945 Y-76.878
X-115.918 Y-77.272
X-115.902 Y-77.403
X-115.865 Y-77.666
X-115.843 Y-77.798
X-115.782 Y-78.06
X-115.748 Y-78.192
X-115.703 Y-78.323
X-115.609 Y-78.586
X-115.557 Y-78.717
X-115.371 Y-79.112
X-115.302 Y-79.243
X-115.137 Y-79.529
X-115.095 Y-79.596
G3 X-115.05 Y-79.64 I0.131 J0.09
G1 X-115.009 Y-79.666 Z-2.992
X-114.972 Y-79.69 Z-2.97
X-114.943 Y-79.71 Z-2.935
X-114.924 Y-79.722 Z-2.89
X-114.917 Y-79.726 Z-2.841
G0 Z5
X-91.752 Y-73.037
Z-2.682
G1 Z-2.841 F849.6
X-91.757 Y-73.031 Z-2.89
X-91.77 Y-73.013 Z-2.935
X-91.791 Y-72.984 Z-2.97
X-91.817 Y-72.948 Z-2.992
X-91.846 Y-72.909 Z-3
G3 X-91.902 Y-72.936 I-0.026 J-0.019
G1 X-91.737 Y-73.461
X-91.613 Y-73.869
X-91.459 Y-74.381
X-91.403 Y-74.544
X-91.327 Y-74.709
X-91.219 Y-74.896
X-91.04 Y-75.148
X-90.774 Y-75.457
X-90.358 Y-75.859
X-89.909 Y-76.225
X-89.443 Y-76.568
X-88.965 Y-76.893
X-88.474 Y-77.2
X-87.973 Y-77.49
X-87.462 Y-77.761
X-86.942 Y-78.015
X-86.413 Y-78.25
X-85.877 Y-78.467
X-85.333 Y-78.665
X-84.782 Y-78.843
X-84.226 Y-79.002
X-83.664 Y-79.14
X-83.097 Y-79.256
X-82.526 Y-79.349
X-81.951 Y-79.419
X-81.375 Y-79.467
X-80.797 Y-79.493
X-80.218 Y-79.497
X-79.64 Y-79.48
X-79.062 Y-79.442
X-78.486 Y-79.383
X-77.913 Y-79.303
X-77.343 Y-79.203
X-76.777 Y-79.083
X-76.216 Y-78.943
X-75.66 Y-78.783
X-75.376 Y-78.691
X-75.309 Y-78.66
X-75.253 Y-78.613
X-75.209 Y-78.553
X-75.155 Y-78.455
X-75.054 Y-78.281
X-74.998 Y-78.192
X-74.791 Y-77.865
X-74.747 Y-77.798
X-74.612 Y-77.609
X-74.578 Y-77.562
G3 X-74.554 Y-77.505 I-0.132 J0.089
G1 X-74.544 Y-77.457 Z-2.992
X-74.536 Y-77.414 Z-2.97
X-74.529 Y-77.379 Z-2.935
X-74.524 Y-77.357 Z-2.89
X-74.523 Y-77.349 Z-2.841
G0 Z5
X-91.312 Y-74.486
Z-2.682
G1 Z-2.841 F849.6
X-91.317 Y-74.479 Z-2.89
X-91.33 Y-74.461 Z-2.935
X-91.35 Y-74.432 Z-2.97
X-91.375 Y-74.396 Z-2.992
X-91.403 Y-74.355 Z-3
G3 X-91.459 Y-74.381 I-0.026 J-0.018
G1 X-91.306 Y-74.907
X-91.192 Y-75.301
X-91.087 Y-75.669
X-91.038 Y-75.815
X-90.977 Y-75.952
X-90.884 Y-76.117
X-90.752 Y-76.308
X-90.551 Y-76.545
X-90.238 Y-76.853
X-89.789 Y-77.218
X-89.313 Y-77.548
X-88.823 Y-77.856
X-88.322 Y-78.145
X-87.811 Y-78.417
X-87.292 Y-78.672
X-86.764 Y-78.909
X-86.228 Y-79.128
X-85.686 Y-79.329
X-85.137 Y-79.512
X-84.582 Y-79.676
X-84.022 Y-79.821
X-83.456 Y-79.945
X-82.887 Y-80.047
X-82.314 Y-80.127
X-81.738 Y-80.185
X-81.16 Y-80.223
X-80.582 Y-80.24
X-80.003 Y-80.236
X-79.425 Y-80.212
X-78.848 Y-80.168
X-78.273 Y-80.104
X-77.7 Y-80.021
X-77.131 Y-79.918
X-76.565 Y-79.796
X-76.004 Y-79.655
X-75.833 Y-79.606
X-75.756 Y-79.571
X-75.692 Y-79.515
X-75.646 Y-79.443
X-75.498 Y-79.112
X-75.298 Y-78.717
X-75.209 Y-78.553
G3 X-75.193 Y-78.493 I-0.142 J0.072
G1 X-75.189 Y-78.445 Z-2.992
X-75.186 Y-78.4 Z-2.97
X-75.183 Y-78.365 Z-2.935
X-75.182 Y-78.343 Z-2.89
X-75.181 Y-78.335 Z-2.841
G0 Z5
X-90.941 Y-75.776
Z-2.682
G1 Z-2.841 F849.6
X-90.946 Y-75.769 Z-2.89
X-90.958 Y-75.751 Z-2.935
X-90.978 Y-75.721 Z-2.97
X-91.003 Y-75.685 Z-2.992
X-91.03 Y-75.644 Z-3
G3 X-91.087 Y-75.669 I-0.026 J-0.018
G1 X-90.896 Y-76.352
X-90.752 Y-76.878
X-90.705 Y-77.02
X-90.634 Y-77.163
X-90.545 Y-77.308
X-90.409 Y-77.488
X-90.206 Y-77.71
X-89.897 Y-77.99
X-89.434 Y-78.337
X-88.943 Y-78.644
X-88.439 Y-78.927
X-87.924 Y-79.192
X-87.401 Y-79.44
X-86.871 Y-79.671
X-86.333 Y-79.884
X-85.788 Y-80.08
X-85.238 Y-80.259
X-84.682 Y-80.419
X-84.121 Y-80.56
X-83.555 Y-80.682
X-82.985 Y-80.782
X-82.412 Y-80.863
X-81.836 Y-80.922
X-81.259 Y-80.962
X-80.681 Y-80.982
X-80.102
X-79.524 Y-80.962
X-78.946 Y-80.924
X-78.37 Y-80.867
X-77.797 Y-80.79
X-77.226 Y-80.695
X-76.659 Y-80.581
X-76.182 Y-80.468
X-76.092 Y-80.431
X-76.02 Y-80.366
X-75.973 Y-80.282
X-75.883 Y-80.031
X-75.833 Y-79.9
X-75.711 Y-79.594
X-75.674 Y-79.506
X-75.646 Y-79.443
G3 X-75.635 Y-79.382 I-0.147 J0.059
G1 Y-79.333 Z-2.992
Y-79.289 Z-2.97
X-75.636 Y-79.254 Z-2.935
Y-79.231 Z-2.89
Y-79.224 Z-2.841
G0 Z5
X-90.606 Y-76.985
Z-2.682
G1 Z-2.841 F849.6
X-90.611 Y-76.979 Z-2.89
X-90.623 Y-76.96 Z-2.935
X-90.643 Y-76.931 Z-2.97
X-90.667 Y-76.894 Z-2.992
X-90.694 Y-76.853 Z-3
G3 X-90.752 Y-76.878 I-0.026 J-0.018
G1 X-90.465 Y-77.929
X-90.418 Y-78.072
X-90.356 Y-78.208
X-90.271 Y-78.352
X-90.163 Y-78.5
X-89.999 Y-78.686
X-89.765 Y-78.907
X-89.393 Y-79.197
X-88.905 Y-79.509
X-88.397 Y-79.785
X-87.877 Y-80.04
X-87.349 Y-80.277
X-86.814 Y-80.497
X-86.272 Y-80.7
X-85.724 Y-80.886
X-85.171 Y-81.055
X-84.612 Y-81.206
X-84.049 Y-81.338
X-83.481 Y-81.452
X-82.91 Y-81.545
X-82.336 Y-81.619
X-81.76 Y-81.674
X-81.182 Y-81.709
X-80.604 Y-81.726
X-80.025 Y-81.723
X-79.447 Y-81.703
X-78.87 Y-81.663
X-78.294 Y-81.606
X-77.72 Y-81.531
X-77.149 Y-81.437
X-76.581 Y-81.325
X-76.438 Y-81.288
X-76.346 Y-81.246
X-76.273 Y-81.176
X-76.229 Y-81.084
X-76.152 Y-80.82
X-76.024 Y-80.426
X-75.973 Y-80.282
G3 X-75.966 Y-80.22 I-0.151 J0.048
G1 X-75.97 Y-80.171 Z-2.992
X-75.973 Y-80.127 Z-2.97
X-75.976 Y-80.092 Z-2.935
X-75.978 Y-80.07 Z-2.89
X-75.979 Y-80.062 Z-2.841
G0 Z5
X-90.32 Y-78.037
Z-2.682
G1 Z-2.841 F849.6
X-90.324 Y-78.03 Z-2.89
X-90.337 Y-78.011 Z-2.935
X-90.356 Y-77.982 Z-2.97
X-90.381 Y-77.945 Z-2.992
X-90.408 Y-77.904 Z-3
G3 X-90.465 Y-77.929 I-0.026 J-0.017
G1 X-90.18 Y-78.98
X-90.133 Y-79.123
X-90.069 Y-79.258
X-89.986 Y-79.391
X-89.861 Y-79.553
X-89.703 Y-79.724
X-89.467 Y-79.934
X-89.116 Y-80.193
X-88.62 Y-80.491
X-88.103 Y-80.751
X-87.575 Y-80.988
X-87.04 Y-81.207
X-86.497 Y-81.409
X-85.949 Y-81.595
X-85.396 Y-81.764
X-84.838 Y-81.916
X-84.275 Y-82.05
X-83.708 Y-82.166
X-83.137 Y-82.263
X-82.564 Y-82.342
X-81.988 Y-82.402
X-81.411 Y-82.444
X-80.833 Y-82.467
X-80.254 Y-82.472
X-79.676 Y-82.458
X-79.098 Y-82.428
X-78.521 Y-82.379
X-77.946 Y-82.313
X-77.374 Y-82.23
X-76.804 Y-82.129
X-76.644 Y-82.088
X-76.548 Y-82.043
X-76.474 Y-81.968
X-76.432 Y-81.871
X-76.367 Y-81.608
X-76.301 Y-81.345
X-76.266 Y-81.214
X-76.229 Y-81.084
G3 X-76.226 Y-81.022 I-0.154 J0.038
G1 X-76.233 Y-80.974 Z-2.992
X-76.24 Y-80.93 Z-2.97
X-76.245 Y-80.895 Z-2.935
X-76.248 Y-80.873 Z-2.89
X-76.249 Y-80.865 Z-2.841
G0 Z5
X-90.035 Y-79.088
Z-2.682
G1 Z-2.841 F849.6
X-90.039 Y-79.081 Z-2.89
X-90.052 Y-79.063 Z-2.935
X-90.071 Y-79.033 Z-2.97
X-90.096 Y-78.996 Z-2.992
X-90.123 Y-78.956 Z-3
G3 X-90.18 Y-78.98 I-0.026 J-0.017
G1 X-89.904 Y-79.999
X-89.858 Y-80.142
X-89.79 Y-80.275
X-89.702 Y-80.406
X-89.571 Y-80.566
X-89.409 Y-80.73
X-89.17 Y-80.932
X-88.818 Y-81.175
X-88.313 Y-81.458
X-87.788 Y-81.701
X-87.252 Y-81.921
X-86.71 Y-82.122
X-86.162 Y-82.308
X-85.608 Y-82.477
X-85.05 Y-82.629
X-84.487 Y-82.765
X-83.921 Y-82.883
X-83.351 Y-82.983
X-82.778 Y-83.065
X-82.203 Y-83.13
X-81.626 Y-83.177
X-81.048 Y-83.206
X-80.47 Y-83.217
X-79.891 Y-83.211
X-79.313 Y-83.187
X-78.736 Y-83.147
X-78.16 Y-83.089
X-77.586 Y-83.015
X-77.015 Y-82.924
X-76.79 Y-82.867
X-76.703 Y-82.818
X-76.637 Y-82.742
X-76.6 Y-82.649
X-76.576 Y-82.528
X-76.492 Y-82.134
X-76.463 Y-82.002
X-76.432 Y-81.871
G3 Y-81.809 I-0.156 J0.031
G1 X-76.441 Y-81.761 Z-2.992
X-76.45 Y-81.718 Z-2.97
X-76.456 Y-81.683 Z-2.935
X-76.461 Y-81.661 Z-2.89
X-76.462 Y-81.653 Z-2.841
G0 Z5
X-89.76 Y-80.107
Z-2.682
G1 Z-2.841 F849.6
X-89.764 Y-80.101 Z-2.89
X-89.776 Y-80.082 Z-2.935
X-89.796 Y-80.052 Z-2.97
X-89.82 Y-80.015 Z-2.992
X-89.847 Y-79.975 Z-3
G3 X-89.904 Y-79.999 I-0.026 J-0.017
G1 X-89.647 Y-80.951
X-89.601 Y-81.094
X-89.533 Y-81.227
X-89.45 Y-81.352
X-89.33 Y-81.498
X-89.167 Y-81.663
X-88.957 Y-81.839
X-88.635 Y-82.061
X-88.131 Y-82.343
X-87.601 Y-82.577
X-87.062 Y-82.786
X-86.515 Y-82.976
X-85.963 Y-83.149
X-85.406 Y-83.306
X-84.845 Y-83.447
X-84.28 Y-83.572
X-83.711 Y-83.679
X-83.139 Y-83.768
X-82.565 Y-83.841
X-81.989 Y-83.897
X-81.412 Y-83.935
X-80.833 Y-83.957
X-80.255 Y-83.961
X-79.676 Y-83.949
X-79.098 Y-83.92
X-78.521 Y-83.875
X-77.946 Y-83.813
X-77.372 Y-83.736
X-77.084 Y-83.682
X-76.95 Y-83.644
X-76.853 Y-83.595
X-76.779 Y-83.514
X-76.741 Y-83.412
X-76.679 Y-83.054
X-76.628 Y-82.791
X-76.6 Y-82.649
G3 X-76.602 Y-82.587 I-0.157 J0.026
G1 X-76.613 Y-82.539 Z-2.992
X-76.623 Y-82.496 Z-2.97
X-76.631 Y-82.462 Z-2.935
X-76.636 Y-82.44 Z-2.89
X-76.638 Y-82.432 Z-2.841
G0 Z5
X-89.503 Y-81.059
Z-2.682
G1 Z-2.841 F849.6
X-89.507 Y-81.053 Z-2.89
X-89.519 Y-81.034 Z-2.935
X-89.539 Y-81.004 Z-2.97
X-89.563 Y-80.967 Z-2.992
X-89.59 Y-80.927 Z-3
G3 X-89.647 Y-80.951 I-0.026 J-0.017
G1 X-89.399 Y-81.871
X-89.353 Y-82.014
X-89.286 Y-82.148
X-89.203 Y-82.273
X-89.084 Y-82.418
X-88.938 Y-82.567
X-88.742 Y-82.732
X-88.45 Y-82.933
X-88.007 Y-83.182
X-87.478 Y-83.416
X-86.936 Y-83.618
X-86.386 Y-83.799
X-85.831 Y-83.963
X-85.272 Y-84.111
X-84.708 Y-84.242
X-84.141 Y-84.358
X-83.571 Y-84.456
X-82.998 Y-84.539
X-82.423 Y-84.604
X-81.846 Y-84.654
X-81.269 Y-84.687
X-80.69 Y-84.703
X-80.112 Y-84.704
X-79.533 Y-84.688
X-78.955 Y-84.656
X-78.379 Y-84.608
X-77.803 Y-84.545
X-77.34 Y-84.479
X-77.113 Y-84.424
X-77.04 Y-84.399
X-76.945 Y-84.345
X-76.876 Y-84.26
X-76.843 Y-84.156
X-76.822 Y-83.973
X-76.805 Y-83.842
X-76.747 Y-83.448
X-76.741 Y-83.412
G3 X-76.745 Y-83.35 I-0.157 J0.022
G1 X-76.757 Y-83.302 Z-2.992
X-76.768 Y-83.26 Z-2.97
X-76.777 Y-83.226 Z-2.935
X-76.783 Y-83.204 Z-2.89
X-76.785 Y-83.196 Z-2.841
G0 Z5
X-89.255 Y-81.979
Z-2.682
G1 Z-2.841 F849.6
X-89.259 Y-81.972 Z-2.89
X-89.271 Y-81.953 Z-2.935
X-89.291 Y-81.924 Z-2.97
X-89.315 Y-81.887 Z-2.992
X-89.342 Y-81.846 Z-3
G3 X-89.399 Y-81.871 I-0.026 J-0.017
G1 X-89.15 Y-82.791
X-89.104 Y-82.933
X-89.035 Y-83.067
X-88.951 Y-83.191
X-88.837 Y-83.327
X-88.7 Y-83.463
X-88.496 Y-83.632
X-88.225 Y-83.816
X-87.808 Y-84.045
X-87.277 Y-84.275
X-86.731 Y-84.468
X-86.178 Y-84.638
X-85.62 Y-84.791
X-85.057 Y-84.928
X-84.492 Y-85.049
X-83.923 Y-85.154
X-83.351 Y-85.243
X-82.777 Y-85.316
X-82.201 Y-85.373
X-81.624 Y-85.415
X-81.045 Y-85.44
X-80.467 Y-85.45
X-79.888 Y-85.444
X-79.31 Y-85.423
X-78.732 Y-85.386
X-78.156 Y-85.334
X-77.581 Y-85.266
X-77.312 Y-85.213
X-77.131 Y-85.159
X-77.095 Y-85.144
X-77.003 Y-85.085
X-76.939 Y-84.997
X-76.912 Y-84.891
X-76.903 Y-84.762
X-76.892 Y-84.63
X-76.867 Y-84.368
X-76.843 Y-84.156
G3 X-76.85 Y-84.094 I-0.158 J0.013
G1 X-76.865 Y-84.048 Z-2.992
X-76.879 Y-84.006 Z-2.97
X-76.889 Y-83.972 Z-2.935
X-76.896 Y-83.951 Z-2.89
X-76.899 Y-83.943 Z-2.841
G0 Z5
X-89.006 Y-82.898
Z-2.682
G1 Z-2.841 F849.6
X-89.01 Y-82.892 Z-2.89
X-89.022 Y-82.873 Z-2.935
X-89.042 Y-82.844 Z-2.97
X-89.066 Y-82.807 Z-2.992
X-89.093 Y-82.766 Z-3
G3 X-89.15 Y-82.791 I-0.026 J-0.017
G1 X-88.9 Y-83.711
X-88.853 Y-83.853
X-88.78 Y-83.984
X-88.689 Y-84.111
X-88.579 Y-84.236
X-88.431 Y-84.376
X-88.209 Y-84.55
X-87.942 Y-84.721
X-87.516 Y-84.941
X-86.979 Y-85.157
X-86.429 Y-85.337
X-85.872 Y-85.494
X-85.311 Y-85.634
X-84.746 Y-85.758
X-84.177 Y-85.866
X-83.606 Y-85.959
X-83.032 Y-86.037
X-82.457 Y-86.099
X-81.88 Y-86.146
X-81.303 Y-86.177
X-80.724 Y-86.193
X-80.145 Y-86.194
X-79.567 Y-86.18
X-78.989 Y-86.151
X-78.412 Y-86.107
X-77.836 Y-86.048
X-77.469 Y-85.987
X-77.261 Y-85.933
X-77.144 Y-85.889
X-77.046 Y-85.83
X-76.978 Y-85.737
X-76.951 Y-85.625
X-76.936 Y-85.287
X-76.929 Y-85.156
X-76.912 Y-84.891
G3 X-76.922 Y-84.83 I-0.159 J0.005
G1 X-76.939 Y-84.784 Z-2.992
X-76.955 Y-84.743 Z-2.97
X-76.967 Y-84.71 Z-2.935
X-76.975 Y-84.689 Z-2.89
X-76.978 Y-84.681 Z-2.841
G0 Z5
X-88.754 Y-83.818
Z-2.682
G1 Z-2.841 F849.6
X-88.759 Y-83.811 Z-2.89
X-88.771 Y-83.793 Z-2.935
X-88.791 Y-83.763 Z-2.97
X-88.815 Y-83.726 Z-2.992
X-88.842 Y-83.686 Z-3
G3 X-88.9 Y-83.711 I-0.026 J-0.018
G1 X-88.682 Y-84.499
X-88.661 Y-84.571
X-88.614 Y-84.713
X-88.544 Y-84.846
X-88.458 Y-84.969
X-88.345 Y-85.1
X-88.213 Y-85.228
X-88.017 Y-85.383
X-87.757 Y-85.553
X-87.375 Y-85.754
X-86.84 Y-85.975
X-86.288 Y-86.149
X-85.729 Y-86.299
X-85.165 Y-86.431
X-84.598 Y-86.547
X-84.029 Y-86.647
X-83.456 Y-86.733
X-82.882 Y-86.804
X-82.306 Y-86.86
X-81.729 Y-86.902
X-81.151 Y-86.928
X-80.572 Y-86.94
X-79.994 Y-86.937
X-79.415 Y-86.919
X-78.837 Y-86.887
X-78.26 Y-86.841
X-77.702 Y-86.775
X-77.421 Y-86.715
X-77.229 Y-86.655
X-77.151 Y-86.622
X-77.058 Y-86.559
X-76.995 Y-86.466
X-76.971 Y-86.357
X-76.966 Y-86.076
X-76.951 Y-85.625
G3 X-76.963 Y-85.564 I-0.159 J0.001
G1 X-76.982 Y-85.519 Z-2.992
X-76.998 Y-85.478 Z-2.97
X-77.012 Y-85.445 Z-2.935
X-77.02 Y-85.425 Z-2.89
X-77.023 Y-85.417 Z-2.841
G0 Z5
X-88.516 Y-84.678
Z-2.682
G1 Z-2.841 F849.6
X-88.52 Y-84.671 Z-2.89
X-88.533 Y-84.653 Z-2.935
X-88.552 Y-84.623 Z-2.97
X-88.577 Y-84.587 Z-2.992
X-88.604 Y-84.546 Z-3
G3 X-88.661 Y-84.571 I-0.026 J-0.018
G1 X-88.533 Y-85.024
X-88.42 Y-85.419
X-88.371 Y-85.56
X-88.305 Y-85.695
X-88.221 Y-85.819
X-88.125 Y-85.934
X-87.996 Y-86.061
X-87.808 Y-86.216
X-87.582 Y-86.368
X-87.249 Y-86.549
X-86.769 Y-86.755
X-86.219 Y-86.933
X-85.659 Y-87.08
X-85.094 Y-87.206
X-84.526 Y-87.317
X-83.955 Y-87.413
X-83.383 Y-87.494
X-82.808 Y-87.561
X-82.231 Y-87.614
X-81.654 Y-87.652
X-81.076 Y-87.675
X-80.497 Y-87.685
X-79.919 Y-87.68
X-79.34 Y-87.661
X-78.762 Y-87.629
X-78.186 Y-87.58
X-77.697 Y-87.516
X-77.429 Y-87.456
X-77.235 Y-87.392
X-77.155 Y-87.357
X-77.062 Y-87.293
X-77 Y-87.199
X-76.978 Y-87.088
X-76.976 Y-86.733
