%
(1001)
(z0 top machine -5-5)
(T1  D=1.587 CR=0 - ZMIN=-3 - flat end mill)
G90 G94
G17
G21

(2D Adaptive7)
M9
T1 M6
S24000 M3
G54
M9
G0 X-81.025 Y-63.462
Z15
Z5
Z2.709
G1 Z2.55 F849.6
G3 X-79.576 Y-63.88 Z2.467 I0.725 J-0.209 F283.2
X-81.025 Y-63.462 Z2.385 I-0.725 J0.209
X-79.576 Y-63.88 Z2.302 I0.725 J-0.209
X-81.025 Y-63.462 Z2.219 I-0.725 J0.209
X-79.576 Y-63.88 Z2.136 I0.725 J-0.209
X-81.025 Y-63.462 Z2.054 I-0.725 J0.209
X-79.576 Y-63.88 Z1.971 I0.725 J-0.209
X-81.025 Y-63.462 Z1.888 I-0.725 J0.209
X-79.576 Y-63.88 Z1.805 I0.725 J-0.209
X-81.025 Y-63.462 Z1.723 I-0.725 J0.209
X-79.576 Y-63.88 Z1.64 I0.725 J-0.209
X-81.025 Y-63.462 Z1.557 I-0.725 J0.209
X-79.576 Y-63.88 Z1.475 I0.725 J-0.209
X-81.025 Y-63.462 Z1.392 I-0.725 J0.209
X-79.576 Y-63.88 Z1.309 I0.725 J-0.209
X-81.025 Y-63.462 Z1.226 I-0.725 J0.209
X-79.576 Y-63.88 Z1.144 I0.725 J-0.209
X-81.025 Y-63.462 Z1.061 I-0.725 J0.209
X-79.576 Y-63.88 Z0.978 I0.725 J-0.209
X-81.025 Y-63.462 Z0.895 I-0.725 J0.209
X-79.576 Y-63.88 Z0.813 I0.725 J-0.209
X-81.025 Y-63.462 Z0.73 I-0.725 J0.209
X-79.576 Y-63.88 Z0.647 I0.725 J-0.209
X-81.025 Y-63.462 Z0.565 I-0.725 J0.209
X-79.576 Y-63.88 Z0.482 I0.725 J-0.209
X-81.025 Y-63.462 Z0.399 I-0.725 J0.209
X-79.576 Y-63.88 Z0.316 I0.725 J-0.209
X-81.025 Y-63.462 Z0.234 I-0.725 J0.209
X-79.576 Y-63.88 Z0.151 I0.725 J-0.209
X-81.025 Y-63.462 Z0.068 I-0.725 J0.209
X-79.576 Y-63.88 Z-0.014 I0.725 J-0.209
X-81.025 Y-63.462 Z-0.097 I-0.725 J0.209
X-79.576 Y-63.88 Z-0.18 I0.725 J-0.209
X-81.025 Y-63.462 Z-0.263 I-0.725 J0.209
X-79.576 Y-63.88 Z-0.345 I0.725 J-0.209
X-81.025 Y-63.462 Z-0.428 I-0.725 J0.209
X-79.576 Y-63.88 Z-0.511 I0.725 J-0.209
X-81.025 Y-63.462 Z-0.594 I-0.725 J0.209
X-79.576 Y-63.88 Z-0.676 I0.725 J-0.209
X-81.025 Y-63.462 Z-0.759 I-0.725 J0.209
X-79.576 Y-63.88 Z-0.842 I0.725 J-0.209
X-81.025 Y-63.462 Z-0.924 I-0.725 J0.209
X-79.576 Y-63.88 Z-1.007 I0.725 J-0.209
X-81.025 Y-63.462 Z-1.09 I-0.725 J0.209
X-79.576 Y-63.88 Z-1.173 I0.725 J-0.209
X-81.025 Y-63.462 Z-1.255 I-0.725 J0.209
X-79.576 Y-63.88 Z-1.338 I0.725 J-0.209
X-81.025 Y-63.462 Z-1.421 I-0.725 J0.209
X-79.576 Y-63.88 Z-1.504 I0.725 J-0.209
X-81.025 Y-63.462 Z-1.586 I-0.725 J0.209
X-79.576 Y-63.88 Z-1.669 I0.725 J-0.209
X-81.025 Y-63.462 Z-1.752 I-0.725 J0.209
X-79.576 Y-63.88 Z-1.834 I0.725 J-0.209
X-81.025 Y-63.462 Z-1.917 I-0.725 J0.209
X-79.576 Y-63.88 Z-2 I0.725 J-0.209
X-81.025 Y-63.462 Z-2.083 I-0.725 J0.209
X-79.576 Y-63.88 Z-2.165 I0.725 J-0.209
X-81.025 Y-63.462 Z-2.248 I-0.725 J0.209
X-79.576 Y-63.88 Z-2.331 I0.725 J-0.209
X-81.025 Y-63.462 Z-2.414 I-0.725 J0.209
X-79.576 Y-63.88 Z-2.496 I0.725 J-0.209
X-81.025 Y-63.462 Z-2.579 I-0.725 J0.209
X-79.576 Y-63.88 Z-2.662 I0.725 J-0.209
X-81.025 Y-63.462 Z-2.744 I-0.725 J0.209
X-79.576 Y-63.88 Z-2.827 I0.725 J-0.209
X-81.025 Y-63.462 Z-2.91 I-0.725 J0.209
X-80.406 Y-64.418 Z-2.955 I0.725 J-0.209
X-79.547 Y-63.671 Z-3 I0.105 J0.747
X-81.055 I-0.754
X-79.555 Y-63.783 I0.754
X-79.547 Y-63.671 I-0.746 J0.111
G1 X-79.519 Y-63.299 F849.6
X-79.518 Y-63.149
X-79.568 Y-63.007
X-79.651 Y-62.883
X-79.759 Y-62.778
X-79.884 Y-62.695
X-80.021 Y-62.635
X-80.166 Y-62.597
X-80.315 Y-62.583
X-80.465 Y-62.59
X-80.612 Y-62.619
X-80.754 Y-62.669
X-80.887 Y-62.738
X-81.009 Y-62.826
X-81.118 Y-62.929
X-81.212 Y-63.046
X-81.289 Y-63.175
X-81.347 Y-63.313
X-81.386 Y-63.457
X-81.406 Y-63.606
X-81.405 Y-63.756
X-81.383 Y-63.905
X-81.342 Y-64.049
X-81.281 Y-64.186
X-81.203 Y-64.314
X-81.108 Y-64.43
X-80.998 Y-64.532
X-80.875 Y-64.618
X-80.742 Y-64.687
X-80.601 Y-64.738
X-80.454 Y-64.768
X-80.304 Y-64.779
X-80.154 Y-64.769
X-80.007 Y-64.739
X-79.866 Y-64.69
X-79.732 Y-64.622
X-79.609 Y-64.536
X-79.498 Y-64.435
X-79.402 Y-64.32
X-79.323 Y-64.192
X-79.261 Y-64.056
X-79.21 Y-63.915
X-79.167 Y-63.765
X-79.136 Y-63.619
X-79.118 Y-63.47
Y-63.32
X-79.136 Y-63.171
X-79.173 Y-63.026
X-79.23 Y-62.887
X-79.305 Y-62.757
X-79.396 Y-62.637
X-79.501 Y-62.531
X-79.619 Y-62.438
X-79.748 Y-62.361
X-79.885 Y-62.299
X-80.028 Y-62.254
X-80.175 Y-62.226
X-80.325 Y-62.214
X-80.474 Y-62.218
X-80.623 Y-62.239
X-80.768 Y-62.276
X-80.909 Y-62.328
X-81.044 Y-62.394
X-81.17 Y-62.474
X-81.288 Y-62.568
X-81.396 Y-62.672
X-81.492 Y-62.787
X-81.576 Y-62.911
X-81.647 Y-63.043
X-81.704 Y-63.182
X-81.747 Y-63.326
X-81.775 Y-63.473
X-81.787 Y-63.623
X-81.785 Y-63.773
X-81.768 Y-63.922
X-81.735 Y-64.068
X-81.688 Y-64.21
X-81.627 Y-64.347
X-81.552 Y-64.478
X-81.465 Y-64.599
X-81.365 Y-64.712
X-81.255 Y-64.814
X-81.136 Y-64.904
X-81.007 Y-64.982
X-80.872 Y-65.046
X-80.731 Y-65.097
X-80.585 Y-65.133
X-80.436 Y-65.154
X-80.287 Y-65.16
X-80.137 Y-65.151
X-79.989 Y-65.128
X-79.844 Y-65.088
X-79.704 Y-65.035
X-79.569 Y-64.969
X-79.442 Y-64.888
X-79.325 Y-64.796
X-79.216 Y-64.692
X-79.119 Y-64.578
X-79.032 Y-64.456
X-78.955 Y-64.327
X-78.888 Y-64.193
X-78.831 Y-64.054
X-78.785 Y-63.911
X-78.75 Y-63.765
X-78.727 Y-63.617
X-78.717 Y-63.468
X-78.72 Y-63.318
X-78.737 Y-63.168
X-78.768 Y-63.022
X-78.813 Y-62.879
X-78.871 Y-62.74
X-78.941 Y-62.608
X-79.025 Y-62.483
X-79.12 Y-62.367
X-79.225 Y-62.26
X-79.339 Y-62.163
X-79.462 Y-62.077
X-79.593 Y-62.004
X-79.73 Y-61.942
X-79.871 Y-61.892
X-80.016 Y-61.855
X-80.165 Y-61.831
X-80.314 Y-61.82
X-80.464 Y-61.822
X-80.613 Y-61.837
X-80.761 Y-61.864
X-80.906 Y-61.903
X-81.047 Y-61.955
X-81.183 Y-62.018
X-81.314 Y-62.091
X-81.438 Y-62.175
X-81.554 Y-62.27
X-81.663 Y-62.373
X-81.763 Y-62.485
X-81.854 Y-62.604
X-81.935 Y-62.731
X-82.005 Y-62.863
X-82.064 Y-63.001
X-82.113 Y-63.143
X-82.15 Y-63.288
X-82.175 Y-63.436
X-82.188 Y-63.586
X-82.189 Y-63.736
X-82.178 Y-63.885
X-82.156 Y-64.033
X-82.121 Y-64.179
X-82.075 Y-64.322
X-82.018 Y-64.461
X-81.95 Y-64.595
X-81.872 Y-64.723
X-81.784 Y-64.844
X-81.686 Y-64.958
X-81.58 Y-65.064
X-81.466 Y-65.161
X-81.344 Y-65.248
X-81.216 Y-65.326
X-81.082 Y-65.394
X-80.943 Y-65.45
X-80.8 Y-65.496
X-80.653 Y-65.529
X-80.505 Y-65.551
X-80.355 Y-65.562
X-80.205 Y-65.56
X-80.056 Y-65.547
X-79.908 Y-65.521
X-79.763 Y-65.484
X-79.621 Y-65.436
X-79.483 Y-65.377
X-79.351 Y-65.307
X-79.224 Y-65.226
X-79.104 Y-65.136
X-78.991 Y-65.037
X-78.886 Y-64.93
X-78.788 Y-64.816
X-78.699 Y-64.696
X-78.618 Y-64.568
X-78.543 Y-64.433
X-78.48 Y-64.296
X-78.425 Y-64.156
X-78.381 Y-64.013
X-78.346 Y-63.867
X-78.322 Y-63.719
X-78.307 Y-63.57
X-78.304 Y-63.42
X-78.311 Y-63.27
X-78.33 Y-63.121
X-78.359 Y-62.974
X-78.398 Y-62.829
X-78.448 Y-62.688
X-78.509 Y-62.551
X-78.581 Y-62.419
X-78.661 Y-62.293
X-78.751 Y-62.172
X-78.849 Y-62.059
X-78.956 Y-61.954
X-79.07 Y-61.857
X-79.191 Y-61.768
X-79.318 Y-61.688
X-79.451 Y-61.618
X-79.588 Y-61.558
X-79.73 Y-61.507
X-79.874 Y-61.467
X-80.021 Y-61.437
X-80.17 Y-61.418
X-80.319 Y-61.409
X-80.469 Y-61.41
X-80.619 Y-61.422
X-80.767 Y-61.444
X-80.914 Y-61.476
X-81.058 Y-61.518
X-81.199 Y-61.57
X-81.336 Y-61.631
X-81.469 Y-61.702
X-81.597 Y-61.781
X-81.719 Y-61.868
X-81.835 Y-61.963
X-81.944 Y-62.066
X-82.048 Y-62.178
X-82.144 Y-62.296
X-82.231 Y-62.419
X-82.31 Y-62.547
X-82.379 Y-62.68
X-82.441 Y-62.819
X-82.493 Y-62.964
X-82.536 Y-63.112
X-82.569 Y-63.259
X-82.591 Y-63.408
X-82.604 Y-63.558
X-82.607 Y-63.712
X-82.599 Y-63.866
X-82.581 Y-64.02
X-82.554 Y-64.169
X-82.517 Y-64.314
X-82.47 Y-64.459
X-82.413 Y-64.601
X-82.346 Y-64.741
X-82.269 Y-64.877
X-82.186 Y-65.003
X-82.096 Y-65.123
X-81.996 Y-65.238
X-81.888 Y-65.347
X-81.771 Y-65.451
X-81.648 Y-65.546
X-81.522 Y-65.631
X-81.392 Y-65.706
X-81.256 Y-65.773
X-81.114 Y-65.832
X-80.966 Y-65.882
X-80.816 Y-65.922
X-80.667 Y-65.951
X-80.518 Y-65.97
X-80.366 Y-65.979
X-80.212 Y-65.978
X-80.057 Y-65.967
X-79.902 Y-65.946
X-79.753 Y-65.915
X-79.609 Y-65.874
X-79.465 Y-65.824
X-79.322 Y-65.763
X-79.182 Y-65.691
X-79.045 Y-65.61
X-78.913 Y-65.519
X-78.785 Y-65.418
X-78.663 Y-65.307
X-78.547 Y-65.187
X-78.437 Y-65.056
X-78.334 Y-64.917
X-78.241 Y-64.772
X-78.158 Y-64.62
X-78.085 Y-64.463
X-78.022 Y-64.301
X-77.97 Y-64.136
X-77.93 Y-63.97
X-77.901 Y-63.803
X-77.884 Y-63.636
X-77.877 Y-63.467
X-77.882 Y-63.299
X-77.898 Y-63.134
X-77.924 Y-62.971
X-77.961 Y-62.813
X-78.008 Y-62.658
X-78.065 Y-62.507
X-78.132 Y-62.36
X-78.208 Y-62.217
X-78.294 Y-62.08
X-78.39 Y-61.948
X-78.494 Y-61.821
X-78.608 Y-61.701
X-78.729 Y-61.589
X-78.856 Y-61.487
X-78.989 Y-61.393
X-79.129 Y-61.308
X-79.276 Y-61.231
X-79.429 Y-61.164
X-79.587 Y-61.107
X-79.748 Y-61.06
X-79.913 Y-61.024
X-80.081 Y-60.999
X-80.252 Y-60.985
X-80.425 Y-60.982
X-80.597 Y-60.991
X-80.769 Y-61.011
X-80.939 Y-61.042
X-81.108 Y-61.085
X-81.275 Y-61.14
X-81.438 Y-61.205
X-81.596 Y-61.282
X-81.75 Y-61.368
X-81.897 Y-61.465
X-82.039 Y-61.573
X-82.174 Y-61.69
X-82.301 Y-61.815
X-82.419 Y-61.948
X-82.528 Y-62.09
X-82.628 Y-62.238
X-82.718 Y-62.394
X-82.798 Y-62.556
X-82.867 Y-62.722
X-82.924 Y-62.892
X-82.97 Y-63.066
X-83.005 Y-63.243
X-83.028 Y-63.423
X-83.039 Y-63.604
X-83.038 Y-63.785
X-83.025 Y-63.965
X-83 Y-64.144
X-82.963 Y-64.322
X-82.914 Y-64.497
X-82.854 Y-64.669
X-82.782 Y-64.835
X-82.7 Y-64.997
X-82.608 Y-65.152
X-82.505 Y-65.302
X-82.391 Y-65.445
X-82.269 Y-65.58
X-82.138 Y-65.706
X-82 Y-65.823
X-81.854 Y-65.931
X-81.701 Y-66.029
X-81.541 Y-66.117
X-81.376 Y-66.194
X-81.206 Y-66.26
X-81.033 Y-66.314
X-80.857 Y-66.357
X-80.678 Y-66.388
X-80.496 Y-66.407
X-80.314 Y-66.414
X-80.132 Y-66.409
X-79.951 Y-66.391
X-79.772 Y-66.362
X-79.595 Y-66.321
X-79.419 Y-66.268
X-79.246 Y-66.203
X-79.077 Y-66.126
X-78.912 Y-66.038
X-78.752 Y-65.938
X-78.597 Y-65.826
X-78.448 Y-65.703
X-78.306 Y-65.568
X-78.172 Y-65.423
X-78.047 Y-65.269
X-77.932 Y-65.106
X-77.828 Y-64.934
X-77.735 Y-64.756
X-77.654 Y-64.572
X-77.586 Y-64.384
X-77.53 Y-64.193
X-77.488 Y-63.998
X-77.458 Y-63.802
X-77.442 Y-63.605
X-77.439 Y-63.408
X-77.448 Y-63.213
X-77.471 Y-63.021
X-77.506 Y-62.831
X-77.553 Y-62.645
X-77.613 Y-62.462
X-77.685 Y-62.284
X-77.768 Y-62.111
X-77.862 Y-61.944
X-77.968 Y-61.783
X-78.084 Y-61.629
X-78.211 Y-61.483
X-78.346 Y-61.346
X-78.49 Y-61.218
X-78.643 Y-61.1
X-78.804 Y-60.992
X-78.973 Y-60.894
X-79.148 Y-60.808
X-79.329 Y-60.733
X-79.516 Y-60.67
X-79.707 Y-60.619
X-79.903 Y-60.581
X-80.101 Y-60.555
X-80.301 Y-60.543
X-80.501 Y-60.544
X-80.703 Y-60.559
X-80.903 Y-60.587
X-81.102 Y-60.628
X-81.298 Y-60.683
X-81.491 Y-60.75
X-81.679 Y-60.831
X-81.862 Y-60.924
X-82.039 Y-61.029
X-82.209 Y-61.146
X-82.371 Y-61.274
X-82.525 Y-61.413
X-82.669 Y-61.562
X-82.803 Y-61.721
X-82.927 Y-61.889
X-83.04 Y-62.065
X-83.14 Y-62.247
X-83.229 Y-62.437
X-83.304 Y-62.632
X-83.367 Y-62.832
X-83.417 Y-63.036
X-83.452 Y-63.243
X-83.475 Y-63.451
X-83.483 Y-63.661
X-83.477 Y-63.871
X-83.457 Y-64.081
X-83.423 Y-64.289
X-83.376 Y-64.494
X-83.315 Y-64.696
X-83.241 Y-64.893
X-83.154 Y-65.085
X-83.054 Y-65.271
X-82.942 Y-65.45
X-82.819 Y-65.621
X-82.684 Y-65.784
X-82.539 Y-65.937
X-82.384 Y-66.08
X-82.22 Y-66.213
X-82.047 Y-66.335
X-81.867 Y-66.445
X-81.68 Y-66.543
X-81.486 Y-66.628
X-81.288 Y-66.7
X-81.085 Y-66.759
X-80.878 Y-66.804
X-80.669 Y-66.836
X-80.459 Y-66.853
X-80.247 Y-66.857
X-80.036 Y-66.846
X-79.826 Y-66.822
X-79.617 Y-66.783
X-79.41 Y-66.73
X-79.207 Y-66.664
X-79.007 Y-66.584
X-78.812 Y-66.49
X-78.622 Y-66.383
X-78.437 Y-66.262
X-78.26 Y-66.128
X-78.091 Y-65.981
X-77.931 Y-65.823
X-77.78 Y-65.653
X-77.641 Y-65.473
X-77.514 Y-65.283
X-77.399 Y-65.085
X-77.297 Y-64.88
X-77.21 Y-64.668
X-77.136 Y-64.452
X-77.078 Y-64.231
X-77.034 Y-64.007
X-77.005 Y-63.782
X-76.991 Y-63.557
X-76.992 Y-63.331
X-77.008 Y-63.108
X-77.039 Y-62.886
X-77.084 Y-62.668
X-77.144 Y-62.453
X-77.218 Y-62.243
X-77.305 Y-62.039
X-77.406 Y-61.84
X-77.519 Y-61.649
X-77.646 Y-61.466
X-77.783 Y-61.291
X-77.933 Y-61.126
X-78.093 Y-60.972
X-78.263 Y-60.827
X-78.443 Y-60.694
X-78.632 Y-60.573
X-78.829 Y-60.465
X-79.034 Y-60.369
X-79.245 Y-60.287
X-79.462 Y-60.219
X-79.684 Y-60.165
X-79.909 Y-60.126
X-80.137 Y-60.102
X-80.367 Y-60.093
X-80.598 Y-60.099
X-80.829 Y-60.121
X-81.058 Y-60.158
X-81.285 Y-60.21
X-81.509 Y-60.278
X-81.728 Y-60.36
X-81.942 Y-60.457
X-82.15 Y-60.568
X-82.35 Y-60.693
X-82.541 Y-60.831
X-82.723 Y-60.982
X-82.896 Y-61.145
X-83.057 Y-61.319
X-83.207 Y-61.504
X-83.344 Y-61.699
X-83.468 Y-61.903
X-83.579 Y-62.114
X-83.675 Y-62.333
X-83.757 Y-62.558
X-83.824 Y-62.788
X-83.875 Y-63.022
X-83.911 Y-63.259
X-83.931 Y-63.498
X-83.935 Y-63.738
X-83.923 Y-63.979
X-83.895 Y-64.217
X-83.851 Y-64.454
X-83.792 Y-64.687
X-83.718 Y-64.916
X-83.628 Y-65.14
X-83.524 Y-65.357
X-83.405 Y-65.567
X-83.273 Y-65.768
X-83.128 Y-65.96
X-82.97 Y-66.143
X-82.801 Y-66.314
X-82.62 Y-66.474
X-82.429 Y-66.622
X-82.229 Y-66.757
X-82.02 Y-66.878
X-81.804 Y-66.985
X-81.581 Y-67.077
X-81.353 Y-67.155
X-81.119 Y-67.217
X-80.883 Y-67.263
X-80.643 Y-67.294
X-80.402 Y-67.309
X-80.16 Y-67.307
X-79.919 Y-67.29
X-79.678 Y-67.257
X-79.44 Y-67.207
X-79.204 Y-67.142
X-78.973 Y-67.061
X-78.745 Y-66.964
X-78.524 Y-66.852
X-78.309 Y-66.724
X-78.102 Y-66.581
X-77.904 Y-66.425
X-77.715 Y-66.254
X-77.538 Y-66.071
X-77.372 Y-65.875
X-77.219 Y-65.668
X-77.079 Y-65.451
X-76.955 Y-65.225
X-76.845 Y-64.99
X-76.751 Y-64.749
X-76.674 Y-64.503
X-76.613 Y-64.252
X-76.569 Y-63.999
X-76.542 Y-63.744
X-76.532 Y-63.488
X-76.539 Y-63.233
X-76.563 Y-62.979
X-76.603 Y-62.729
X-76.66 Y-62.482
X-76.733 Y-62.239
X-76.822 Y-62.002
X-76.927 Y-61.771
X-77.046 Y-61.548
X-77.18 Y-61.334
X-77.328 Y-61.129
X-77.489 Y-60.934
X-77.663 Y-60.749
X-77.849 Y-60.577
X-78.047 Y-60.417
X-78.255 Y-60.27
X-78.473 Y-60.137
X-78.699 Y-60.019
X-78.934 Y-59.915
X-79.176 Y-59.827
X-79.424 Y-59.755
X-79.676 Y-59.7
X-79.933 Y-59.661
X-80.192 Y-59.639
X-80.453 Y-59.635
X-80.714 Y-59.648
X-80.975 Y-59.678
X-81.233 Y-59.726
X-81.489 Y-59.79
X-81.74 Y-59.872
X-81.986 Y-59.971
X-82.225 Y-60.085
X-82.456 Y-60.216
X-82.679 Y-60.362
X-82.892 Y-60.523
X-83.094 Y-60.697
X-83.284 Y-60.886
X-83.462 Y-61.086
X-83.627 Y-61.298
X-83.777 Y-61.521
X-83.912 Y-61.754
X-84.031 Y-61.995
X-84.135 Y-62.244
X-84.221 Y-62.5
X-84.291 Y-62.761
X-84.343 Y-63.026
X-84.377 Y-63.294
X-84.394 Y-63.564
X-84.393 Y-63.835
X-84.373 Y-64.105
X-84.336 Y-64.374
X-84.281 Y-64.639
X-84.209 Y-64.901
X-84.119 Y-65.157
X-84.013 Y-65.406
X-83.89 Y-65.648
X-83.751 Y-65.882
X-83.598 Y-66.106
X-83.429 Y-66.319
X-83.247 Y-66.52
X-83.052 Y-66.709
X-82.845 Y-66.885
X-82.626 Y-67.047
X-82.397 Y-67.194
X-82.159 Y-67.325
X-81.913 Y-67.44
X-81.66 Y-67.539
X-81.4 Y-67.62
X-81.136 Y-67.685
X-80.868 Y-67.731
X-80.597 Y-67.76
X-80.325 Y-67.771
X-80.053 Y-67.763
X-79.781 Y-67.738
X-79.51 Y-67.694
X-79.242 Y-67.633
X-78.978 Y-67.553
X-78.719 Y-67.456
X-78.466 Y-67.341
X-78.219 Y-67.209
X-77.98 Y-67.061
X-77.751 Y-66.895
X-77.532 Y-66.715
X-77.325 Y-66.519
X-77.131 Y-66.309
X-76.95 Y-66.086
X-76.784 Y-65.851
X-76.633 Y-65.604
X-76.5 Y-65.349
X-76.383 Y-65.084
X-76.284 Y-64.813
X-76.204 Y-64.536
X-76.142 Y-64.255
X-76.099 Y-63.97
X-76.075 Y-63.685
X-76.07 Y-63.398
X-76.084 Y-63.113
X-76.116 Y-62.83
X-76.168 Y-62.55
X-76.238 Y-62.274
X-76.326 Y-62.004
X-76.431 Y-61.74
X-76.554 Y-61.484
X-76.693 Y-61.237
X-76.849 Y-61
X-77.02 Y-60.773
X-77.205 Y-60.558
X-77.405 Y-60.356
X-77.618 Y-60.167
X-77.844 Y-59.992
X-78.081 Y-59.833
X-78.328 Y-59.689
X-78.585 Y-59.561
X-78.851 Y-59.451
X-79.124 Y-59.358
X-79.403 Y-59.284
X-79.687 Y-59.228
X-79.975 Y-59.191
X-80.266 Y-59.173
X-80.558 Y-59.174
X-80.849 Y-59.195
X-81.14 Y-59.235
X-81.428 Y-59.294
X-81.711 Y-59.373
X-81.99 Y-59.47
X-82.262 Y-59.586
X-82.526 Y-59.72
X-82.781 Y-59.872
X-83.026 Y-60.04
X-83.26 Y-60.224
X-83.481 Y-60.424
X-83.689 Y-60.639
X-83.882 Y-60.867
X-84.06 Y-61.107
X-84.222 Y-61.359
X-84.367 Y-61.622
X-84.494 Y-61.894
X-84.603 Y-62.174
X-84.694 Y-62.461
X-84.765 Y-62.753
X-84.817 Y-63.05
X-84.849 Y-63.349
X-84.861 Y-63.65
X-84.853 Y-63.952
X-84.825 Y-64.252
X-84.777 Y-64.55
X-84.709 Y-64.845
X-84.622 Y-65.134
X-84.516 Y-65.417
X-84.391 Y-65.692
X-84.249 Y-65.959
X-84.089 Y-66.216
X-83.912 Y-66.461
X-83.72 Y-66.694
X-83.512 Y-66.914
X-83.29 Y-67.12
X-83.055 Y-67.311
X-82.808 Y-67.485
X-82.549 Y-67.643
X-82.281 Y-67.784
X-82.004 Y-67.906
X-81.72 Y-68.01
X-81.429 Y-68.094
X-81.133 Y-68.159
X-80.834 Y-68.205
X-80.532 Y-68.23
X-80.228 Y-68.236
X-79.924 Y-68.221
X-79.622 Y-68.186
X-79.321 Y-68.131
X-79.025 Y-68.056
X-78.732 Y-67.961
X-78.446 Y-67.846
X-78.166 Y-67.712
X-77.895 Y-67.559
X-77.633 Y-67.388
X-77.383 Y-67.199
X-77.144 Y-66.993
X-76.919 Y-66.771
X-76.709 Y-66.534
X-76.514 Y-66.282
X-76.336 Y-66.018
X-76.175 Y-65.742
X-76.033 Y-65.456
X-75.911 Y-65.161
X-75.808 Y-64.859
X-75.726 Y-64.55
X-75.664 Y-64.238
X-75.623 Y-63.922
X-75.604 Y-63.605
X-75.605 Y-63.288
X-75.627 Y-62.972
X-75.671 Y-62.659
X-75.734 Y-62.35
X-75.818 Y-62.046
X-75.922 Y-61.748
X-76.046 Y-61.458
X-76.188 Y-61.178
X-76.349 Y-60.907
X-76.527 Y-60.647
X-76.722 Y-60.4
X-76.934 Y-60.166
X-77.16 Y-59.946
X-77.401 Y-59.741
X-77.655 Y-59.553
X-77.922 Y-59.382
X-78.2 Y-59.228
X-78.488 Y-59.093
X-78.786 Y-58.977
X-79.09 Y-58.881
X-79.401 Y-58.805
X-79.718 Y-58.75
X-80.038 Y-58.716
X-80.36 Y-58.703
X-80.683 Y-58.712
X-81.005 Y-58.742
X-81.325 Y-58.793
X-81.642 Y-58.866
X-81.954 Y-58.959
X-82.26 Y-59.074
X-82.558 Y-59.208
X-82.846 Y-59.363
X-83.125 Y-59.536
X-83.391 Y-59.728
X-83.645 Y-59.937
X-83.885 Y-60.163
X-84.109 Y-60.405
X-84.317 Y-60.661
X-84.508 Y-60.931
X-84.68 Y-61.213
X-84.834 Y-61.507
X-84.968 Y-61.81
X-85.081 Y-62.121
X-85.174 Y-62.44
X-85.246 Y-62.764
X-85.296 Y-63.093
X-85.324 Y-63.424
X-85.33 Y-63.757
X-85.314 Y-64.089
X-85.276 Y-64.42
X-85.216 Y-64.748
X-85.134 Y-65.071
X-85.031 Y-65.388
X-84.907 Y-65.697
X-84.763 Y-65.998
X-84.6 Y-66.288
X-84.417 Y-66.567
X-84.216 Y-66.834
X-83.998 Y-67.087
X-83.764 Y-67.324
X-83.514 Y-67.546
X-83.251 Y-67.75
X-82.974 Y-67.937
X-82.685 Y-68.105
X-82.386 Y-68.253
X-82.078 Y-68.381
X-81.762 Y-68.489
X-81.439 Y-68.575
X-81.111 Y-68.64
X-80.779 Y-68.683
X-80.445 Y-68.704
X-80.11 Y-68.702
X-79.775 Y-68.679
X-79.442 Y-68.633
X-79.112 Y-68.565
X-78.786 Y-68.475
X-78.466 Y-68.363
X-78.152 Y-68.23
X-77.847 Y-68.075
X-77.552 Y-67.901
X-77.268 Y-67.706
X-76.997 Y-67.492
X-76.74 Y-67.26
X-76.498 Y-67.01
X-76.272 Y-66.744
X-76.064 Y-66.464
X-75.875 Y-66.169
X-75.706 Y-65.863
X-75.557 Y-65.546
X-75.429 Y-65.219
X-75.324 Y-64.885
X-75.241 Y-64.546
X-75.181 Y-64.201
X-75.144 Y-63.854
X-75.13 Y-63.506
X-75.139 Y-63.158
X-75.171 Y-62.811
X-75.226 Y-62.468
X-75.303 Y-62.13
X-75.403 Y-61.798
X-75.524 Y-61.473
X-75.667 Y-61.157
X-75.83 Y-60.852
X-76.013 Y-60.558
X-76.216 Y-60.277
X-76.436 Y-60.009
X-76.674 Y-59.757
X-76.929 Y-59.52
X-77.199 Y-59.301
X-77.483 Y-59.1
X-77.78 Y-58.918
X-78.09 Y-58.756
X-78.41 Y-58.615
X-78.739 Y-58.494
X-79.076 Y-58.396
X-79.42 Y-58.32
X-79.768 Y-58.267
X-80.12 Y-58.237
X-80.474 Y-58.231
X-80.828 Y-58.248
X-81.182 Y-58.288
X-81.532 Y-58.353
X-81.878 Y-58.44
X-82.217 Y-58.55
X-82.55 Y-58.683
X-82.873 Y-58.837
X-83.186 Y-59.013
X-83.487 Y-59.21
X-83.774 Y-59.427
X-84.047 Y-59.662
X-84.304 Y-59.915
X-84.544 Y-60.186
X-84.766 Y-60.471
X-84.968 Y-60.771
X-85.15 Y-61.084
X-85.312 Y-61.409
X-85.451 Y-61.744
X-85.568 Y-62.088
X-85.662 Y-62.439
X-85.733 Y-62.796
X-85.779 Y-63.156
X-85.802 Y-63.52
X-85.801 Y-63.884
X-85.775 Y-64.247
X-85.726 Y-64.608
X-85.652 Y-64.965
X-85.555 Y-65.317
X-85.435 Y-65.661
X-85.292 Y-65.997
X-85.128 Y-66.322
X-84.942 Y-66.637
X-84.735 Y-66.938
X-84.509 Y-67.224
X-84.265 Y-67.495
X-84.003 Y-67.75
X-83.724 Y-67.986
X-83.431 Y-68.204
X-83.124 Y-68.401
X-82.804 Y-68.578
X-82.473 Y-68.734
X-82.133 Y-68.867
X-81.784 Y-68.977
X-81.429 Y-69.063
X-81.069 Y-69.127
X-80.704 Y-69.166
X-80.338 Y-69.18
X-79.971 Y-69.171
X-79.605 Y-69.137
X-79.242 Y-69.079
X-78.881 Y-68.997
X-78.527 Y-68.89
X-78.179 Y-68.76
X-77.839 Y-68.607
X-77.509 Y-68.431
X-77.191 Y-68.233
X-76.886 Y-68.013
X-76.594 Y-67.773
X-76.319 Y-67.514
X-76.061 Y-67.236
X-75.821 Y-66.941
X-75.601 Y-66.63
X-75.402 Y-66.305
X-75.225 Y-65.967
X-75.07 Y-65.618
X-74.939 Y-65.259
X-74.832 Y-64.893
X-74.75 Y-64.521
X-74.693 Y-64.144
X-74.661 Y-63.765
X-74.653 Y-63.385
X-74.672 Y-63.006
X-74.715 Y-62.629
X-74.783 Y-62.256
X-74.875 Y-61.889
X-74.992 Y-61.529
X-75.132 Y-61.178
X-75.295 Y-60.837
X-75.481 Y-60.507
X-75.688 Y-60.19
X-75.915 Y-59.888
X-76.162 Y-59.602
X-76.428 Y-59.332
X-76.712 Y-59.08
X-77.011 Y-58.847
X-77.326 Y-58.634
X-77.655 Y-58.443
X-77.997 Y-58.273
X-78.349 Y-58.126
X-78.711 Y-58.003
X-79.081 Y-57.904
X-79.458 Y-57.829
X-79.839 Y-57.78
X-80.224 Y-57.755
X-80.609 Y-57.757
X-80.995 Y-57.784
X-81.379 Y-57.836
X-81.759 Y-57.914
X-82.133 Y-58.018
X-82.501 Y-58.146
X-82.859 Y-58.298
X-83.208 Y-58.474
X-83.544 Y-58.673
X-83.867 Y-58.894
X-84.174 Y-59.137
X-84.466 Y-59.399
X-84.739 Y-59.681
X-84.994 Y-59.981
X-85.228 Y-60.297
X-85.441 Y-60.628
X-85.632 Y-60.973
X-85.8 Y-61.33
X-85.944 Y-61.697
X-86.063 Y-62.074
X-86.157 Y-62.458
X-86.225 Y-62.847
X-86.267 Y-63.24
X-86.283 Y-63.636
X-86.273 Y-64.032
X-86.237 Y-64.426
X-86.174 Y-64.817
X-86.086 Y-65.204
X-85.972 Y-65.583
X-85.834 Y-65.955
X-85.671 Y-66.316
X-85.484 Y-66.666
X-85.274 Y-67.003
X-85.043 Y-67.326
X-84.79 Y-67.632
X-84.518 Y-67.921
X-84.227 Y-68.191
X-83.919 Y-68.442
X-83.595 Y-68.671
X-83.257 Y-68.878
X-82.905 Y-69.063
X-82.542 Y-69.224
X-82.169 Y-69.36
X-81.787 Y-69.472
X-81.399 Y-69.558
X-81.006 Y-69.618
X-80.609 Y-69.652
X-80.21 Y-69.659
X-79.811 Y-69.64
X-79.414 Y-69.595
X-79.02 Y-69.523
X-78.63 Y-69.425
X-78.247 Y-69.301
X-77.872 Y-69.151
X-77.506 Y-68.977
X-77.152 Y-68.778
X-76.811 Y-68.555
X-76.485 Y-68.309
X-76.175 Y-68.042
X-75.882 Y-67.754
X-75.609 Y-67.447
X-75.356 Y-67.121
X-75.125 Y-66.78
X-74.917 Y-66.423
X-74.733 Y-66.053
X-74.574 Y-65.671
X-74.441 Y-65.28
X-74.334 Y-64.881
X-74.253 Y-64.476
X-74.2 Y-64.067
X-74.174 Y-63.656
X-74.176 Y-63.244
X-74.204 Y-62.834
X-74.26 Y-62.426
X-74.342 Y-62.024
X-74.451 Y-61.628
X-74.586 Y-61.24
X-74.747 Y-60.863
X-74.932 Y-60.496
X-75.141 Y-60.143
X-75.372 Y-59.805
X-75.626 Y-59.482
X-75.901 Y-59.177
X-76.196 Y-58.891
X-76.509 Y-58.624
X-76.84 Y-58.379
X-77.187 Y-58.156
X-77.548 Y-57.956
X-77.922 Y-57.78
X-78.308 Y-57.629
X-78.703 Y-57.504
X-79.106 Y-57.405
X-79.516 Y-57.333
X-79.93 Y-57.288
X-80.347 Y-57.271
X-80.765 Y-57.282
X-81.182 Y-57.32
X-81.597 Y-57.386
X-82.006 Y-57.479
X-82.409 Y-57.6
X-82.804 Y-57.747
X-83.188 Y-57.92
X-83.561 Y-58.119
X-83.92 Y-58.343
X-84.264 Y-58.589
X-84.592 Y-58.859
X-84.9 Y-59.15
X-85.19 Y-59.461
X-85.458 Y-59.791
X-85.704 Y-60.138
X-85.927 Y-60.501
X-86.125 Y-60.878
X-86.298 Y-61.268
X-86.444 Y-61.669
X-86.564 Y-62.079
X-86.657 Y-62.496
X-86.721 Y-62.919
X-86.758 Y-63.345
X-86.766 Y-63.773
X-86.746 Y-64.2
X-86.697 Y-64.625
X-86.621 Y-65.047
X-86.516 Y-65.462
X-86.384 Y-65.87
X-86.226 Y-66.268
X-86.041 Y-66.655
X-85.831 Y-67.029
X-85.597 Y-67.388
X-85.339 Y-67.731
X-85.059 Y-68.056
X-84.758 Y-68.362
X-84.437 Y-68.647
X-84.099 Y-68.91
X-83.743 Y-69.151
X-83.372 Y-69.367
X-82.988 Y-69.558
X-82.592 Y-69.724
X-82.185 Y-69.862
X-81.77 Y-69.974
X-81.349 Y-70.058
X-80.922 Y-70.113
X-80.492 Y-70.14
X-80.061 Y-70.139
X-79.631 Y-70.109
X-79.202 Y-70.051
X-78.778 Y-69.964
X-78.359 Y-69.849
X-77.948 Y-69.706
X-77.546 Y-69.535
X-77.156 Y-69.338
X-76.778 Y-69.115
X-76.415 Y-68.867
X-76.069 Y-68.594
X-75.741 Y-68.298
X-75.432 Y-67.981
X-75.144 Y-67.643
X-74.88 Y-67.286
X-74.639 Y-66.913
X-74.423 Y-66.523
X-74.234 Y-66.12
X-74.071 Y-65.706
X-73.937 Y-65.281
X-73.831 Y-64.849
X-73.754 Y-64.411
X-73.706 Y-63.969
X-73.687 Y-63.525
X-73.698 Y-63.081
X-73.739 Y-62.64
X-73.809 Y-62.202
X-73.907 Y-61.77
X-74.034 Y-61.346
X-74.188 Y-60.931
X-74.37 Y-60.528
X-74.578 Y-60.137
X-74.812 Y-59.762
X-75.069 Y-59.402
X-75.351 Y-59.06
X-75.654 Y-58.738
X-75.979 Y-58.436
X-76.323 Y-58.156
X-76.685 Y-57.899
X-77.064 Y-57.666
X-77.458 Y-57.459
X-77.866 Y-57.278
X-78.285 Y-57.125
X-78.714 Y-56.999
X-79.151 Y-56.902
X-79.594 Y-56.834
X-80.042 Y-56.796
X-80.492 Y-56.787
X-80.941 Y-56.808
X-81.39 Y-56.859
X-81.834 Y-56.94
X-82.273 Y-57.05
X-82.704 Y-57.189
X-83.125 Y-57.357
X-83.535 Y-57.553
X-83.932 Y-57.775
X-84.313 Y-58.024
X-84.678 Y-58.298
X-85.023 Y-58.595
X-85.349 Y-58.916
X-85.653 Y-59.257
X-85.934 Y-59.618
X-86.19 Y-59.997
X-86.421 Y-60.393
X-86.625 Y-60.804
X-86.802 Y-61.227
X-86.95 Y-61.661
X-87.07 Y-62.105
X-87.159 Y-62.555
X-87.219 Y-63.011
X-87.248 Y-63.47
X-87.247 Y-63.93
X-87.215 Y-64.389
X-87.153 Y-64.846
X-87.061 Y-65.297
X-86.939 Y-65.741
X-86.788 Y-66.176
X-86.608 Y-66.6
X-86.4 Y-67.012
X-86.166 Y-67.409
X-85.905 Y-67.789
X-85.62 Y-68.152
X-85.312 Y-68.495
X-84.981 Y-68.816
X-84.63 Y-69.115
X-84.26 Y-69.39
X-83.872 Y-69.64
X-83.469 Y-69.864
X-83.051 Y-70.061
X-82.621 Y-70.229
X-82.181 Y-70.369
X-81.733 Y-70.479
X-81.277 Y-70.559
X-80.818 Y-70.609
X-80.355 Y-70.628
X-79.892 Y-70.617
X-79.429 Y-70.574
X-78.97 Y-70.502
X-78.516 Y-70.398
X-78.069 Y-70.265
X-77.63 Y-70.101
X-77.203 Y-69.909
X-76.788 Y-69.688
X-76.388 Y-69.439
X-76.004 Y-69.164
X-75.638 Y-68.864
X-75.293 Y-68.539
X-74.969 Y-68.191
X-74.668 Y-67.822
X-74.393 Y-67.433
X-74.143 Y-67.026
X-73.921 Y-66.604
X-73.727 Y-66.168
X-73.563 Y-65.719
X-73.429 Y-65.261
X-73.325 Y-64.796
X-73.253 Y-64.324
X-73.212 Y-63.849
X-73.202 Y-63.373
X-73.225 Y-62.898
X-73.278 Y-62.425
X-73.363 Y-61.957
X-73.479 Y-61.497
X-73.625 Y-61.045
X-73.8 Y-60.603
X-74.004 Y-60.175
X-74.237 Y-59.761
X-74.496 Y-59.363
X-74.781 Y-58.984
X-75.091 Y-58.624
X-75.424 Y-58.285
X-75.779 Y-57.968
X-76.155 Y-57.676
X-76.55 Y-57.409
X-76.961 Y-57.168
X-77.389 Y-56.955
X-77.83 Y-56.771
X-78.283 Y-56.616
X-78.746 Y-56.491
X-79.217 Y-56.397
X-79.694 Y-56.335
X-80.175 Y-56.304
X-80.657 Y-56.305
X-81.138 Y-56.339
X-81.618 Y-56.404
X-82.092 Y-56.501
X-82.56 Y-56.629
X-83.018 Y-56.788
X-83.466 Y-56.978
X-83.9 Y-57.197
X-84.32 Y-57.444
X-84.722 Y-57.72
X-85.106 Y-58.021
X-85.469 Y-58.348
X-85.81 Y-58.698
X-86.128 Y-59.071
X-86.42 Y-59.464
X-86.686 Y-59.876
X-86.924 Y-60.305
X-87.133 Y-60.749
X-87.312 Y-61.206
X-87.461 Y-61.674
X-87.578 Y-62.152
X-87.664 Y-62.636
X-87.717 Y-63.125
X-87.737 Y-63.617
X-87.725 Y-64.109
X-87.681 Y-64.6
X-87.604 Y-65.086
X-87.494 Y-65.567
X-87.353 Y-66.039
X-87.181 Y-66.501
X-86.979 Y-66.951
X-86.748 Y-67.386
X-86.487 Y-67.805
X-86.2 Y-68.206
X-85.887 Y-68.587
X-85.549 Y-68.947
X-85.188 Y-69.283
X-84.805 Y-69.595
X-84.403 Y-69.881
X-83.982 Y-70.139
X-83.545 Y-70.369
X-83.094 Y-70.569
X-82.63 Y-70.74
X-82.156 Y-70.879
X-81.674 Y-70.986
X-81.185 Y-71.061
X-80.692 Y-71.104
X-80.196 Y-71.114
X-79.701 Y-71.091
X-79.207 Y-71.035
X-78.718 Y-70.946
X-78.234 Y-70.825
X-77.759 Y-70.672
X-77.294 Y-70.487
X-76.841 Y-70.271
X-76.403 Y-70.025
X-75.98 Y-69.75
X-75.577 Y-69.447
X-75.193 Y-69.117
X-74.831 Y-68.762
X-74.494 Y-68.383
X-74.181 Y-67.982
X-73.896 Y-67.561
X-73.639 Y-67.121
X-73.412 Y-66.665
X-73.215 Y-66.195
X-73.05 Y-65.713
X-72.917 Y-65.221
X-72.818 Y-64.721
X-72.751 Y-64.216
X-72.719 Y-63.709
X-72.72 Y-63.2
X-72.755 Y-62.693
X-72.823 Y-62.19
X-72.924 Y-61.693
X-73.059 Y-61.203
X-73.225 Y-60.724
X-73.422 Y-60.257
X-73.65 Y-59.804
X-73.908 Y-59.368
X-74.194 Y-58.949
X-74.507 Y-58.55
X-74.847 Y-58.173
X-75.21 Y-57.819
X-75.597 Y-57.489
X-76.005 Y-57.186
X-76.433 Y-56.909
X-76.878 Y-56.662
X-77.34 Y-56.445
X-77.815 Y-56.258
X-78.303 Y-56.103
X-78.8 Y-55.981
X-79.305 Y-55.892
X-79.815 Y-55.836
X-80.329 Y-55.814
X-80.843 Y-55.827
X-81.356 Y-55.873
X-81.866 Y-55.954
X-82.37 Y-56.068
X-82.866 Y-56.216
X-83.351 Y-56.397
X-83.824 Y-56.609
X-84.282 Y-56.853
X-84.724 Y-57.127
X-85.147 Y-57.429
X-85.549 Y-57.76
X-85.929 Y-58.117
X-86.284 Y-58.498
X-86.614 Y-58.903
X-86.916 Y-59.328
X-87.19 Y-59.774
X-87.434 Y-60.236
X-87.646 Y-60.714
X-87.827 Y-61.206
X-87.974 Y-61.708
X-88.088 Y-62.22
X-88.168 Y-62.738
X-88.214 Y-63.26
X-88.224 Y-63.785
X-88.2 Y-64.309
X-88.141 Y-64.83
X-88.048 Y-65.347
X-87.92 Y-65.857
X-87.759 Y-66.356
X-87.565 Y-66.845
X-87.339 Y-67.319
X-87.082 Y-67.778
X-86.796 Y-68.218
X-86.48 Y-68.639
X-86.137 Y-69.037
X-85.769 Y-69.413
X-85.377 Y-69.763
X-84.962 Y-70.086
X-84.526 Y-70.381
X-84.072 Y-70.646
X-83.602 Y-70.881
X-83.116 Y-71.084
X-82.618 Y-71.255
X-82.11 Y-71.392
X-81.593 Y-71.495
X-81.071 Y-71.564
X-80.545 Y-71.598
X-80.017 Y-71.597
X-79.489 Y-71.561
X-78.965 Y-71.49
X-78.445 Y-71.384
X-77.933 Y-71.244
X-77.43 Y-71.069
X-76.939 Y-70.862
X-76.462 Y-70.622
X-76 Y-70.35
X-75.557 Y-70.047
X-75.134 Y-69.715
X-74.734 Y-69.355
X-74.357 Y-68.969
X-74.007 Y-68.558
X-73.684 Y-68.124
X-73.39 Y-67.669
X-73.127 Y-67.196
X-72.896 Y-66.706
X-72.698 Y-66.201
X-72.533 Y-65.685
X-72.404 Y-65.159
X-72.309 Y-64.625
X-72.251 Y-64.087
X-72.228 Y-63.547
X-72.241 Y-63.006
X-72.289 Y-62.468
X-72.373 Y-61.934
X-72.493 Y-61.408
X-72.647 Y-60.891
X-72.835 Y-60.385
X-73.056 Y-59.893
X-73.309 Y-59.416
X-73.593 Y-58.958
X-73.907 Y-58.519
X-74.249 Y-58.102
X-74.619 Y-57.709
X-75.014 Y-57.34
X-75.433 Y-56.998
X-75.874 Y-56.685
X-76.336 Y-56.401
X-76.815 Y-56.148
X-77.311 Y-55.928
X-77.821 Y-55.74
X-78.343 Y-55.587
X-78.874 Y-55.468
X-79.413 Y-55.385
X-79.957 Y-55.338
X-80.504 Y-55.327
X-81.051 Y-55.352
X-81.595 Y-55.413
X-82.135 Y-55.511
X-82.668 Y-55.644
X-83.191 Y-55.812
X-83.703 Y-56.015
X-84.201 Y-56.252
X-84.682 Y-56.522
X-85.145 Y-56.823
X-85.587 Y-57.154
X-86.007 Y-57.515
X-86.402 Y-57.902
X-86.77 Y-58.316
X-87.111 Y-58.753
X-87.423 Y-59.212
X-87.703 Y-59.691
X-87.951 Y-60.188
X-88.166 Y-60.701
X-88.346 Y-61.227
X-88.491 Y-61.764
X-88.6 Y-62.309
X-88.673 Y-62.861
X-88.709 Y-63.417
X-88.708 Y-63.974
X-88.67 Y-64.53
X-88.596 Y-65.082
X-88.485 Y-65.628
X-88.338 Y-66.166
X-88.155 Y-66.693
X-87.938 Y-67.207
X-87.687 Y-67.705
X-87.404 Y-68.186
X-87.089 Y-68.647
X-86.745 Y-69.086
X-86.372 Y-69.501
X-85.972 Y-69.891
X-85.548 Y-70.253
X-85.1 Y-70.587
X-84.631 Y-70.89
X-84.143 Y-71.161
X-83.638 Y-71.4
X-83.118 Y-71.604
X-82.585 Y-71.774
X-82.043 Y-71.907
X-81.492 Y-72.005
X-80.936 Y-72.066
X-80.376 Y-72.09
X-79.815 Y-72.077
X-79.256 Y-72.026
X-78.701 Y-71.939
X-78.152 Y-71.814
X-77.611 Y-71.654
X-77.082 Y-71.457
X-76.565 Y-71.225
X-76.065 Y-70.959
X-75.581 Y-70.66
X-75.118 Y-70.329
X-74.678 Y-69.967
X-74.261 Y-69.576
X-73.871 Y-69.158
X-73.509 Y-68.714
X-73.176 Y-68.247
X-72.876 Y-67.758
X-72.608 Y-67.25
X-72.374 Y-66.726
X-72.176 Y-66.187
X-72.014 Y-65.636
X-71.888 Y-65.075
X-71.801 Y-64.508
X-71.751 Y-63.937
X-71.739 Y-63.363
X-71.765 Y-62.791
X-71.829 Y-62.222
X-71.931 Y-61.658
X-72.069 Y-61.103
X-72.244 Y-60.558
X-72.455 Y-60.027
X-72.701 Y-59.51
X-72.98 Y-59.011
X-73.292 Y-58.532
X-73.635 Y-58.074
X-74.007 Y-57.64
X-74.408 Y-57.231
X-74.836 Y-56.849
X-75.288 Y-56.497
X-75.763 Y-56.175
X-76.258 Y-55.885
X-76.772 Y-55.628
X-77.303 Y-55.405
X-77.848 Y-55.218
X-78.404 Y-55.068
X-78.971 Y-54.954
X-79.544 Y-54.879
X-80.121 Y-54.841
X-80.7 Y-54.842
X-81.277 Y-54.881
X-81.851 Y-54.958
X-82.418 Y-55.073
X-82.976 Y-55.225
X-83.523 Y-55.413
X-84.057 Y-55.638
X-84.574 Y-55.896
X-85.074 Y-56.189
X-85.553 Y-56.513
X-86.01 Y-56.868
X-86.443 Y-57.252
X-86.849 Y-57.664
X-87.228 Y-58.102
X-87.577 Y-58.563
X-87.896 Y-59.046
X-88.182 Y-59.549
X-88.434 Y-60.07
X-88.653 Y-60.606
X-88.836 Y-61.155
X-88.982 Y-61.715
X-89.092 Y-62.283
X-89.165 Y-62.857
X-89.2 Y-63.434
X-89.197 Y-64.013
X-89.157 Y-64.59
X-89.079 Y-65.164
X-88.965 Y-65.731
X-88.813 Y-66.29
X-88.626 Y-66.837
X-88.403 Y-67.371
X-88.146 Y-67.89
X-87.856 Y-68.391
X-87.534 Y-68.871
X-87.182 Y-69.33
X-86.801 Y-69.766
X-86.392 Y-70.175
X-85.957 Y-70.557
X-85.498 Y-70.91
X-85.018 Y-71.232
X-84.517 Y-71.522
X-83.998 Y-71.779
X-83.464 Y-72.002
X-82.917 Y-72.189
X-82.358 Y-72.341
X-81.791 Y-72.456
X-81.218 Y-72.534
X-80.641 Y-72.575
X-80.062 Y-72.578
X-79.484 Y-72.544
X-78.91 Y-72.473
X-78.341 Y-72.365
X-77.781 Y-72.22
X-77.231 Y-72.04
X-76.694 Y-71.824
X-76.172 Y-71.575
X-75.667 Y-71.293
X-75.18 Y-70.979
X-74.715 Y-70.635
X-74.273 Y-70.262
X-73.855 Y-69.862
X-73.463 Y-69.436
X-73.099 Y-68.986
X-72.765 Y-68.514
X-72.461 Y-68.021
X-72.188 Y-67.511
X-71.948 Y-66.984
X-71.742 Y-66.443
X-71.571 Y-65.891
X-71.435 Y-65.328
X-71.336 Y-64.758
X-71.274 Y-64.183
X-71.248 Y-63.605
X-71.258 Y-63.026
X-71.305 Y-62.449
X-71.388 Y-61.877
X-71.508 Y-61.31
X-71.663 Y-60.753
X-71.853 Y-60.206
X-72.077 Y-59.673
X-72.335 Y-59.155
X-72.625 Y-58.654
X-72.946 Y-58.173
X-73.297 Y-57.713
X-73.677 Y-57.276
X-74.083 Y-56.864
X-74.515 Y-56.478
X-74.97 Y-56.121
X-75.447 Y-55.793
X-75.943 Y-55.496
X-76.457 Y-55.23
X-76.988 Y-54.998
X-77.532 Y-54.801
X-78.087 Y-54.639
X-78.652 Y-54.512
X-79.223 Y-54.421
X-79.799 Y-54.366
X-80.378 Y-54.347
X-80.956 Y-54.364
X-81.532 Y-54.417
X-82.104 Y-54.506
X-82.669 Y-54.631
X-83.225 Y-54.79
X-83.771 Y-54.984
X-84.303 Y-55.212
X-84.82 Y-55.472
X-85.32 Y-55.763
X-85.8 Y-56.085
X-86.26 Y-56.436
X-86.698 Y-56.815
X-87.11 Y-57.221
X-87.496 Y-57.652
X-87.855 Y-58.107
X-88.184 Y-58.582
X-88.484 Y-59.077
X-88.752 Y-59.59
X-88.988 Y-60.118
X-89.192 Y-60.66
X-89.361 Y-61.213
X-89.496 Y-61.776
X-89.597 Y-62.346
X-89.662 Y-62.921
X-89.691 Y-63.499
X-89.685 Y-64.078
X-89.643 Y-64.655
X-89.566 Y-65.228
X-89.454 Y-65.796
X-89.307 Y-66.356
X-89.127 Y-66.905
X-88.912 Y-67.443
X-88.664 Y-67.966
X-88.384 Y-68.472
X-88.073 Y-68.96
X-87.732 Y-69.428
X-87.364 Y-69.874
X-86.969 Y-70.297
X-86.549 Y-70.695
X-86.105 Y-71.066
X-85.639 Y-71.409
X-85.153 Y-71.723
X-84.648 Y-72.006
X-84.127 Y-72.258
X-83.591 Y-72.477
X-83.043 Y-72.663
X-82.485 Y-72.815
X-81.918 Y-72.933
X-81.346 Y-73.015
X-80.769 Y-73.063
X-80.19 Y-73.075
X-79.612 Y-73.05
X-79.037 Y-72.989
X-78.466 Y-72.894
X-77.902 Y-72.764
X-77.347 Y-72.599
X-76.803 Y-72.401
X-76.273 Y-72.171
X-75.757 Y-71.909
X-75.258 Y-71.616
X-74.777 Y-71.294
X-74.317 Y-70.943
X-73.878 Y-70.565
X-73.463 Y-70.162
X-73.073 Y-69.734
X-72.71 Y-69.284
X-72.374 Y-68.813
X-72.066 Y-68.323
X-71.789 Y-67.815
X-71.542 Y-67.292
X-71.328 Y-66.754
X-71.147 Y-66.204
X-71 Y-65.645
X-70.888 Y-65.077
X-70.81 Y-64.504
X-70.766 Y-63.927
X-70.757 Y-63.348
X-70.783 Y-62.77
X-70.843 Y-62.194
X-70.938 Y-61.623
X-71.066 Y-61.059
X-71.228 Y-60.504
X-71.424 Y-59.959
X-71.651 Y-59.427
X-71.91 Y-58.909
X-72.2 Y-58.408
X-72.519 Y-57.926
X-72.866 Y-57.463
X-73.241 Y-57.022
X-73.641 Y-56.604
X-74.067 Y-56.212
X-74.515 Y-55.846
X-74.985 Y-55.508
X-75.474 Y-55.198
X-75.98 Y-54.919
X-76.503 Y-54.67
X-77.039 Y-54.454
X-77.588 Y-54.27
X-78.147 Y-54.12
X-78.714 Y-54.003
X-79.287 Y-53.92
X-79.863 Y-53.871
X-80.442 Y-53.857
X-81.02 Y-53.876
X-81.596 Y-53.93
X-82.168 Y-54.018
X-82.734 Y-54.14
X-83.292 Y-54.294
X-83.839 Y-54.482
X-84.374 Y-54.701
X-84.896 Y-54.953
X-85.401 Y-55.235
X-85.888 Y-55.547
X-86.357 Y-55.886
X-86.805 Y-56.253
X-87.23 Y-56.645
X-87.632 Y-57.062
X-88.007 Y-57.502
X-88.356 Y-57.964
X-88.678 Y-58.445
X-88.97 Y-58.944
X-89.233 Y-59.46
X-89.465 Y-59.99
X-89.666 Y-60.532
X-89.835 Y-61.086
X-89.972 Y-61.648
X-90.075 Y-62.217
X-90.145 Y-62.792
X-90.182 Y-63.369
X-90.184 Y-63.948
X-90.151 Y-64.526
X-90.085 Y-65.101
X-89.985 Y-65.671
X-89.852 Y-66.234
X-89.687 Y-66.788
X-89.489 Y-67.332
X-89.26 Y-67.864
X-88.999 Y-68.38
X-88.709 Y-68.881
X-88.389 Y-69.363
X-88.042 Y-69.827
X-87.669 Y-70.269
X-87.271 Y-70.689
X-86.849 Y-71.085
X-86.405 Y-71.455
X-85.939 Y-71.799
X-85.455 Y-72.116
X-84.953 Y-72.403
X-84.434 Y-72.661
X-83.902 Y-72.888
X-83.357 Y-73.082
X-82.802 Y-73.244
X-82.238 Y-73.374
X-81.667 Y-73.47
X-81.092 Y-73.534
X-80.514 Y-73.563
X-79.935 Y-73.559
X-79.358 Y-73.52
X-78.784 Y-73.448
X-78.215 Y-73.342
X-77.653 Y-73.204
X-77.1 Y-73.033
X-76.558 Y-72.831
X-76.028 Y-72.598
X-75.512 Y-72.335
X-75.013 Y-72.043
X-74.531 Y-71.723
X-74.068 Y-71.376
X-73.626 Y-71.003
X-73.205 Y-70.605
X-72.809 Y-70.183
X-72.438 Y-69.739
X-72.093 Y-69.275
X-71.774 Y-68.792
X-71.484 Y-68.291
X-71.222 Y-67.775
X-70.991 Y-67.244
X-70.79 Y-66.702
X-70.622 Y-66.148
X-70.485 Y-65.586
X-70.382 Y-65.016
X-70.311 Y-64.442
X-70.273 Y-63.865
X-70.268 Y-63.286
X-70.295 Y-62.708
X-70.356 Y-62.132
X-70.449 Y-61.561
X-70.574 Y-60.996
X-70.731 Y-60.439
X-70.92 Y-59.892
X-71.14 Y-59.357
X-71.391 Y-58.836
X-71.671 Y-58.329
X-71.98 Y-57.84
X-72.316 Y-57.369
X-72.678 Y-56.918
X-73.066 Y-56.488
X-73.478 Y-56.081
X-73.912 Y-55.699
X-74.368 Y-55.343
X-74.844 Y-55.013
X-75.337 Y-54.711
X-75.847 Y-54.437
X-76.371 Y-54.192
X-76.909 Y-53.979
X-77.458 Y-53.796
X-78.017 Y-53.645
X-78.583 Y-53.526
X-79.155 Y-53.439
X-79.731 Y-53.385
X-80.31 Y-53.363
X-80.888 Y-53.374
X-81.465 Y-53.418
X-82.039 Y-53.495
X-82.607 Y-53.605
X-83.168 Y-53.745
X-83.721 Y-53.917
X-84.263 Y-54.12
X-84.792 Y-54.354
X-85.308 Y-54.617
X-85.807 Y-54.909
X-86.29 Y-55.228
X-86.754 Y-55.574
X-87.198 Y-55.945
X-87.62 Y-56.34
X-88.02 Y-56.759
X-88.395 Y-57.2
X-88.745 Y-57.661
X-89.068 Y-58.141
X-89.364 Y-58.638
X-89.632 Y-59.151
X-89.872 Y-59.678
X-90.081 Y-60.217
X-90.259 Y-60.768
X-90.406 Y-61.328
X-90.521 Y-61.895
X-90.606 Y-62.467
X-90.658 Y-63.043
X-90.678 Y-63.622
X-90.665 Y-64.2
X-90.62 Y-64.777
X-90.543 Y-65.351
X-90.434 Y-65.919
X-90.293 Y-66.48
X-90.122 Y-67.033
X-89.92 Y-67.576
X-89.688 Y-68.106
X-89.427 Y-68.622
X-89.137 Y-69.123
X-88.82 Y-69.607
X-88.476 Y-70.072
X-88.108 Y-70.518
X-87.715 Y-70.943
X-87.299 Y-71.345
X-86.86 Y-71.723
X-86.401 Y-72.076
X-85.924 Y-72.403
X-85.429 Y-72.702
X-84.918 Y-72.974
X-84.393 Y-73.217
X-83.855 Y-73.43
X-83.305 Y-73.612
X-82.747 Y-73.764
X-82.181 Y-73.884
X-81.609 Y-73.973
X-81.033 Y-74.03
X-80.455 Y-74.055
X-79.876 Y-74.048
X-79.299 Y-74.008
X-78.725 Y-73.936
X-78.156 Y-73.833
X-77.593 Y-73.698
X-77.038 Y-73.533
X-76.493 Y-73.338
X-75.961 Y-73.112
X-75.441 Y-72.857
X-74.936 Y-72.574
X-74.448 Y-72.264
X-73.977 Y-71.928
X-73.525 Y-71.566
X-73.093 Y-71.181
X-72.684 Y-70.772
X-72.297 Y-70.342
X-71.935 Y-69.891
X-71.597 Y-69.42
X-71.286 Y-68.933
X-71.001 Y-68.429
X-70.744 Y-67.911
X-70.516 Y-67.379
X-70.317 Y-66.835
X-70.148 Y-66.282
X-70.011 Y-65.72
X-69.904 Y-65.151
X-69.829 Y-64.577
X-69.784 Y-64
X-69.771 Y-63.422
X-69.79 Y-62.843
X-69.841 Y-62.267
X-69.923 Y-61.694
X-70.036 Y-61.126
X-70.18 Y-60.566
X-70.354 Y-60.014
X-70.557 Y-59.472
X-70.79 Y-58.942
X-71.052 Y-58.426
X-71.342 Y-57.925
X-71.658 Y-57.441
X-72 Y-56.974
X-72.367 Y-56.527
X-72.758 Y-56.1
X-73.172 Y-55.695
X-73.607 Y-55.314
X-74.063 Y-54.957
X-74.537 Y-54.625
X-75.028 Y-54.32
X-75.535 Y-54.041
X-76.057 Y-53.791
X-76.592 Y-53.569
X-77.138 Y-53.378
X-77.694 Y-53.217
X-78.257 Y-53.087
X-78.827 Y-52.987
X-79.402 Y-52.917
X-79.979 Y-52.879
X-80.558 Y-52.872
X-81.136 Y-52.897
X-81.712 Y-52.953
X-82.284 Y-53.04
X-82.851 Y-53.157
X-83.411 Y-53.304
X-83.961 Y-53.481
X-84.502 Y-53.688
X-85.031 Y-53.923
X-85.546 Y-54.187
X-86.046 Y-54.478
X-86.53 Y-54.795
X-86.997 Y-55.137
X-87.444 Y-55.504
X-87.872 Y-55.894
X-88.277 Y-56.307
X-88.659 Y-56.742
X-89.017 Y-57.197
X-89.35 Y-57.67
X-89.657 Y-58.16
X-89.939 Y-58.666
X-90.193 Y-59.186
X-90.418 Y-59.718
X-90.615 Y-60.263
X-90.783 Y-60.817
X-90.92 Y-61.379
X-91.028 Y-61.947
X-91.106 Y-62.521
X-91.153 Y-63.097
X-91.169 Y-63.676
X-91.155 Y-64.254
X-91.109 Y-64.831
X-91.033 Y-65.405
X-90.926 Y-65.974
X-90.79 Y-66.536
X-90.624 Y-67.09
X-90.429 Y-67.635
X-90.204 Y-68.169
X-89.951 Y-68.689
X-89.67 Y-69.195
X-89.363 Y-69.685
X-89.03 Y-70.159
X-88.673 Y-70.614
X-88.292 Y-71.049
X-87.888 Y-71.464
X-87.463 Y-71.857
X-87.017 Y-72.226
X-86.553 Y-72.571
X-86.071 Y-72.891
X-85.572 Y-73.185
X-85.059 Y-73.452
X-84.532 Y-73.692
X-83.993 Y-73.902
X-83.444 Y-74.084
X-82.886 Y-74.237
X-82.32 Y-74.36
X-81.749 Y-74.452
X-81.174 Y-74.515
X-80.596 Y-74.547
X-80.017 Y-74.548
X-79.439 Y-74.517
X-78.864 Y-74.455
X-78.293 Y-74.363
X-77.727 Y-74.241
X-77.168 Y-74.09
X-76.618 Y-73.909
X-76.079 Y-73.7
X-75.551 Y-73.463
X-75.037 Y-73.198
X-74.537 Y-72.906
X-74.053 Y-72.589
X-73.586 Y-72.247
X-73.137 Y-71.882
X-72.708 Y-71.493
X-72.301 Y-71.083
X-71.915 Y-70.651
X-71.552 Y-70.201
X-71.213 Y-69.732
X-70.898 Y-69.246
X-70.61 Y-68.744
X-70.347 Y-68.229
X-70.112 Y-67.7
X-69.905 Y-67.159
X-69.728 Y-66.609
X-69.58 Y-66.049
X-69.461 Y-65.483
X-69.372 Y-64.911
X-69.312 Y-64.335
X-69.283 Y-63.757
X-69.284 Y-63.179
X-69.315 Y-62.601
X-69.376 Y-62.026
X-69.467 Y-61.454
X-69.588 Y-60.888
X-69.737 Y-60.329
X-69.915 Y-59.778
X-70.122 Y-59.238
X-70.357 Y-58.709
X-70.619 Y-58.193
X-70.907 Y-57.691
X-71.222 Y-57.205
X-71.561 Y-56.736
X-71.923 Y-56.285
X-72.309 Y-55.854
X-72.717 Y-55.444
X-73.147 Y-55.056
X-73.596 Y-54.691
X-74.063 Y-54.35
X-74.548 Y-54.034
X-75.048 Y-53.743
X-75.563 Y-53.478
X-76.09 Y-53.241
X-76.63 Y-53.032
X-77.18 Y-52.851
X-77.738 Y-52.7
X-78.304 Y-52.577
X-78.875 Y-52.484
X-79.45 Y-52.42
X-80.028 Y-52.386
X-80.606 Y-52.381
X-81.184 Y-52.407
X-81.761 Y-52.463
X-82.333 Y-52.548
X-82.9 Y-52.662
X-83.461 Y-52.805
X-84.014 Y-52.976
X-84.557 Y-53.176
X-85.089 Y-53.404
X-85.608 Y-53.659
X-86.113 Y-53.941
X-86.604 Y-54.249
X-87.078 Y-54.581
X-87.534 Y-54.936
X-87.972 Y-55.315
X-88.39 Y-55.715
X-88.786 Y-56.137
X-89.159 Y-56.579
X-89.51 Y-57.039
X-89.837 Y-57.517
X-90.139 Y-58.01
X-90.416 Y-58.519
X-90.666 Y-59.04
X-90.89 Y-59.574
X-91.086 Y-60.118
X-91.254 Y-60.672
X-91.393 Y-61.234
X-91.504 Y-61.802
X-91.586 Y-62.375
X-91.639 Y-62.951
X-91.663 Y-63.529
X-91.656 Y-64.108
X-91.62 Y-64.685
X-91.554 Y-65.26
X-91.458 Y-65.831
X-91.335 Y-66.396
X-91.183 Y-66.954
X-91.002 Y-67.504
X-90.794 Y-68.044
X-90.558 Y-68.573
X-90.295 Y-69.088
X-90.006 Y-69.589
X-89.692 Y-70.076
X-89.354 Y-70.545
X-88.993 Y-70.997
X-88.609 Y-71.43
X-88.204 Y-71.843
X-87.778 Y-72.235
X-87.332 Y-72.605
X-86.869 Y-72.951
X-86.388 Y-73.274
X-85.892 Y-73.572
X-85.382 Y-73.844
X-84.858 Y-74.09
X-84.322 Y-74.308
X-83.776 Y-74.499
X-83.22 Y-74.661
X-82.657 Y-74.795
X-82.088 Y-74.9
X-81.515 Y-74.977
X-80.938 Y-75.025
X-80.359 Y-75.043
X-79.781 Y-75.031
X-79.204 Y-74.989
X-78.629 Y-74.918
X-78.059 Y-74.818
X-77.495 Y-74.69
X-76.938 Y-74.533
X-76.389 Y-74.349
X-75.851 Y-74.138
X-75.323 Y-73.899
X-74.809 Y-73.634
X-74.308 Y-73.344
X-73.823 Y-73.03
X-73.353 Y-72.691
X-72.901 Y-72.33
X-72.468 Y-71.946
X-72.054 Y-71.541
X-71.662 Y-71.116
X-71.292 Y-70.671
X-70.944 Y-70.209
X-70.62 Y-69.729
X-70.319 Y-69.235
X-70.044 Y-68.726
X-69.794 Y-68.204
X-69.57 Y-67.67
X-69.375 Y-67.126
X-69.207 Y-66.572
X-69.067 Y-66.01
X-68.955 Y-65.443
X-68.871 Y-64.87
X-68.816 Y-64.294
X-68.79 Y-63.716
X-68.793 Y-63.137
X-68.825 Y-62.559
X-68.885 Y-61.984
X-68.974 Y-61.412
X-69.091 Y-60.845
X-69.235 Y-60.285
X-69.408 Y-59.733
X-69.607 Y-59.19
X-69.835 Y-58.657
X-70.089 Y-58.137
X-70.369 Y-57.631
X-70.673 Y-57.139
X-71.001 Y-56.662
X-71.353 Y-56.203
X-71.727 Y-55.761
X-72.123 Y-55.339
X-72.539 Y-54.937
X-72.976 Y-54.557
X-73.431 Y-54.2
X-73.903 Y-53.865
X-74.391 Y-53.554
X-74.894 Y-53.267
X-75.41 Y-53.006
X-75.939 Y-52.771
X-76.479 Y-52.563
X-77.028 Y-52.382
X-77.587 Y-52.229
X-78.152 Y-52.104
X-78.722 Y-52.007
X-79.296 Y-51.937
X-79.874 Y-51.896
X-80.452 Y-51.885
X-81.031 Y-51.902
X-81.607 Y-51.948
X-82.181 Y-52.023
X-82.751 Y-52.125
X-83.315 Y-52.255
X-83.872 Y-52.413
X-84.42 Y-52.597
X-84.959 Y-52.809
X-85.486 Y-53.048
X-86.001 Y-53.312
X-86.502 Y-53.601
X-86.988 Y-53.915
X-87.459 Y-54.252
X-87.912 Y-54.611
X-88.348 Y-54.992
X-88.764 Y-55.394
X-89.16 Y-55.816
X-89.534 Y-56.258
X-89.886 Y-56.717
X-90.215 Y-57.193
X-90.521 Y-57.684
X-90.802 Y-58.19
X-91.059 Y-58.708
X-91.29 Y-59.239
X-91.493 Y-59.781
X-91.67 Y-60.332
X-91.82 Y-60.891
X-91.943 Y-61.456
X-92.038 Y-62.027
X-92.105 Y-62.602
X-92.145 Y-63.179
X-92.156 Y-63.758
X-92.138 Y-64.336
X-92.091 Y-64.913
X-92.017 Y-65.487
X-91.915 Y-66.056
X-91.785 Y-66.62
X-91.629 Y-67.178
X-91.445 Y-67.726
X-91.235 Y-68.265
X-90.998 Y-68.793
X-90.736 Y-69.309
X-90.448 Y-69.811
X-90.137 Y-70.299
X-89.802 Y-70.771
X-89.445 Y-71.227
X-89.067 Y-71.664
X-88.667 Y-72.083
X-88.246 Y-72.48
X-87.807 Y-72.857
X-87.35 Y-73.212
X-86.876 Y-73.544
X-86.387 Y-73.854
X-85.884 Y-74.139
X-85.367 Y-74.399
X-84.838 Y-74.633
X-84.298 Y-74.841
X-83.748 Y-75.022
X-83.19 Y-75.176
X-82.626 Y-75.303
X-82.055 Y-75.403
X-81.481 Y-75.475
X-80.904 Y-75.519
X-80.326 Y-75.535
X-79.747 Y-75.522
X-79.17 Y-75.481
X-78.596 Y-75.411
X-78.025 Y-75.314
X-77.46 Y-75.19
X-76.901 Y-75.039
X-76.351 Y-74.861
X-75.809 Y-74.657
X-75.279 Y-74.425
X-74.76 Y-74.169
X-74.254 Y-73.888
X-73.763 Y-73.583
X-73.286 Y-73.255
X-72.825 Y-72.904
X-72.382 Y-72.532
X-71.957 Y-72.14
X-71.552 Y-71.727
X-71.167 Y-71.294
X-70.803 Y-70.844
X-70.461 Y-70.377
X-70.142 Y-69.895
X-69.846 Y-69.398
X-69.574 Y-68.887
X-69.326 Y-68.364
X-69.104 Y-67.829
X-68.908 Y-67.285
X-68.739 Y-66.731
X-68.597 Y-66.171
X-68.482 Y-65.603
X-68.393 Y-65.032
X-68.332 Y-64.456
X-68.299 Y-63.878
X-68.294 Y-63.3
X-68.317 Y-62.722
X-68.368 Y-62.145
X-68.446 Y-61.572
X-68.551 Y-61.003
X-68.683 Y-60.439
X-68.841 Y-59.883
X-69.026 Y-59.334
X-69.237 Y-58.795
X-69.474 Y-58.268
X-69.737 Y-57.752
X-70.023 Y-57.249
X-70.334 Y-56.761
X-70.667 Y-56.287
X-71.022 Y-55.83
X-71.398 Y-55.391
X-71.795 Y-54.97
X-72.212 Y-54.569
X-72.648 Y-54.188
X-73.102 Y-53.829
X-73.572 Y-53.492
X-74.058 Y-53.178
X-74.558 Y-52.886
X-75.072 Y-52.619
X-75.597 Y-52.378
X-76.135 Y-52.162
X-76.681 Y-51.973
X-77.237 Y-51.81
X-77.799 Y-51.673
X-78.367 Y-51.563
X-78.94 Y-51.48
X-79.516 Y-51.425
X-80.094 Y-51.396
X-80.672
X-81.25 Y-51.423
X-81.827 Y-51.478
X-82.399 Y-51.559
X-82.968 Y-51.668
X-83.531 Y-51.803
X-84.086 Y-51.964
X-84.634 Y-52.152
X-85.172 Y-52.365
X-85.699 Y-52.603
X-86.214 Y-52.867
X-86.716 Y-53.154
X-87.205 Y-53.465
X-87.678 Y-53.798
X-88.135 Y-54.153
X-88.575 Y-54.529
X-88.996 Y-54.926
X-89.398 Y-55.342
X-89.779 Y-55.778
X-90.139 Y-56.231
X-90.478 Y-56.7
X-90.794 Y-57.184
X-91.088 Y-57.683
X-91.358 Y-58.195
X-91.604 Y-58.719
X-91.824 Y-59.254
X-92.019 Y-59.799
X-92.188 Y-60.352
X-92.331 Y-60.913
X-92.448 Y-61.48
X-92.538 Y-62.051
X-92.602 Y-62.626
X-92.639 Y-63.204
X-92.648 Y-63.782
X-92.63 Y-64.361
X-92.585 Y-64.938
X-92.513 Y-65.512
X-92.414 Y-66.082
X-92.289 Y-66.647
X-92.137 Y-67.206
X-91.96 Y-67.757
X-91.757 Y-68.298
X-91.527 Y-68.83
X-91.273 Y-69.349
X-90.995 Y-69.857
X-90.693 Y-70.351
X-90.369 Y-70.83
X-90.023 Y-71.294
X-89.656 Y-71.741
X-89.268 Y-72.171
X-88.86 Y-72.581
X-88.434 Y-72.972
X-87.989 Y-73.342
X-87.528 Y-73.692
X-87.05 Y-74.019
X-86.559 Y-74.324
X-86.053 Y-74.606
X-85.535 Y-74.864
X-85.005 Y-75.097
X-84.465 Y-75.304
X-83.916 Y-75.487
X-83.359 Y-75.643
X-82.795 Y-75.773
X-82.226 Y-75.877
X-81.652 Y-75.955
X-81.076 Y-76.005
X-80.498 Y-76.028
X-79.919 Y-76.024
X-79.341 Y-75.992
X-78.765 Y-75.933
X-78.193 Y-75.847
X-77.625 Y-75.735
X-77.063 Y-75.597
X-76.508 Y-75.433
X-75.962 Y-75.244
X-75.424 Y-75.029
X-74.898 Y-74.789
X-74.383 Y-74.525
X-73.88 Y-74.238
X-73.392 Y-73.928
X-72.918 Y-73.596
X-72.46 Y-73.242
X-72.018 Y-72.868
X-71.594 Y-72.474
X-71.189 Y-72.061
X-70.804 Y-71.629
X-70.439 Y-71.18
X-70.095 Y-70.715
X-69.772 Y-70.235
X-69.471 Y-69.74
X-69.194 Y-69.232
X-68.94 Y-68.712
X-68.711 Y-68.181
X-68.507 Y-67.639
X-68.328 Y-67.089
X-68.176 Y-66.531
X-68.048 Y-65.966
X-67.947 Y-65.396
X-67.872 Y-64.823
X-67.824 Y-64.246
X-67.802 Y-63.668
X-67.807 Y-63.089
X-67.839 Y-62.511
X-67.897 Y-61.936
X-67.982 Y-61.363
X-68.092 Y-60.795
X-68.228 Y-60.233
X-68.39 Y-59.677
X-68.577 Y-59.129
X-68.789 Y-58.591
X-69.026 Y-58.063
X-69.287 Y-57.547
X-69.571 Y-57.043
X-69.879 Y-56.552
X-70.208 Y-56.076
X-70.558 Y-55.616
X-70.93 Y-55.172
X-71.322 Y-54.746
X-71.733 Y-54.339
X-72.163 Y-53.952
X-72.61 Y-53.585
X-73.074 Y-53.238
X-73.552 Y-52.913
X-74.046 Y-52.611
X-74.552 Y-52.331
X-75.071 Y-52.074
X-75.601 Y-51.843
X-76.142 Y-51.636
X-76.691 Y-51.454
X-77.248 Y-51.298
X-77.812 Y-51.167
X-78.381 Y-51.062
X-78.954 Y-50.983
X-79.531 Y-50.93
X-80.109 Y-50.903
X-80.687
X-81.265 Y-50.93
X-81.842 Y-50.982
X-82.415 Y-51.061
X-82.984 Y-51.166
X-83.548 Y-51.296
X-84.105 Y-51.451
X-84.655 Y-51.632
X-85.196 Y-51.839
X-85.726 Y-52.069
X-86.246 Y-52.324
X-86.753 Y-52.603
X-87.248 Y-52.903
X-87.728 Y-53.226
X-88.193 Y-53.57
X-88.643 Y-53.934
X-89.075 Y-54.319
X-89.489 Y-54.724
X-89.884 Y-55.146
X-90.259 Y-55.587
X-90.614 Y-56.044
X-90.949 Y-56.516
X-91.261 Y-57.003
X-91.552 Y-57.504
X-91.82 Y-58.017
X-92.064 Y-58.541
X-92.284 Y-59.076
X-92.48 Y-59.621
X-92.651 Y-60.174
X-92.797 Y-60.734
X-92.917 Y-61.3
X-93.013 Y-61.871
X-93.083 Y-62.445
X-93.126 Y-63.022
X-93.143 Y-63.6
X-93.134 Y-64.179
X-93.098 Y-64.757
X-93.036 Y-65.332
X-92.949 Y-65.904
X-92.836 Y-66.472
X-92.698 Y-67.034
X-92.535 Y-67.589
X-92.347 Y-68.136
X-92.134 Y-68.674
X-91.896 Y-69.202
X-91.635 Y-69.718
X-91.351 Y-70.222
X-91.045 Y-70.713
X-90.717 Y-71.19
X-90.368 Y-71.652
X-89.999 Y-72.098
X-89.61 Y-72.526
X-89.202 Y-72.936
X-88.776 Y-73.328
X-88.333 Y-73.7
X-87.873 Y-74.051
X-87.398 Y-74.382
X-86.909 Y-74.692
X-86.407 Y-74.979
X-85.892 Y-75.243
X-85.365 Y-75.483
X-84.828 Y-75.698
X-84.282 Y-75.889
X-83.728 Y-76.056
X-83.167 Y-76.197
X-82.6 Y-76.313
X-82.028 Y-76.405
X-81.453 Y-76.47
X-80.876 Y-76.509
X-80.297 Y-76.522
X-79.719 Y-76.508
X-79.142 Y-76.469
X-78.567 Y-76.403
X-77.995 Y-76.312
X-77.428 Y-76.196
X-76.867 Y-76.054
X-76.313 Y-75.888
X-75.766 Y-75.697
X-75.229 Y-75.482
X-74.702 Y-75.243
X-74.187 Y-74.98
X-73.683 Y-74.696
X-73.192 Y-74.389
X-72.716 Y-74.061
X-72.254 Y-73.712
X-71.808 Y-73.343
X-71.379 Y-72.954
X-70.969 Y-72.547
X-70.576 Y-72.121
X-70.203 Y-71.679
X-69.85 Y-71.22
X-69.518 Y-70.747
X-69.206 Y-70.259
X-68.916 Y-69.758
X-68.648 Y-69.245
X-68.404 Y-68.721
X-68.183 Y-68.186
X-67.987 Y-67.641
X-67.815 Y-67.089
X-67.668 Y-66.529
X-67.546 Y-65.963
X-67.449 Y-65.393
X-67.376 Y-64.819
X-67.33 Y-64.242
X-67.309 Y-63.664
X-67.314 Y-63.085
X-67.344 Y-62.507
X-67.4 Y-61.931
X-67.481 Y-61.358
X-67.587 Y-60.789
X-67.718 Y-60.226
X-67.873 Y-59.668
X-68.054 Y-59.118
X-68.259 Y-58.577
X-68.488 Y-58.046
X-68.74 Y-57.525
X-69.016 Y-57.016
X-69.313 Y-56.52
X-69.631 Y-56.037
X-69.971 Y-55.568
X-70.331 Y-55.115
X-70.711 Y-54.678
X-71.11 Y-54.259
X-71.527 Y-53.858
X-71.962 Y-53.476
X-72.413 Y-53.114
X-72.88 Y-52.772
X-73.361 Y-52.451
X-73.856 Y-52.151
X-74.364 Y-51.873
X-74.883 Y-51.618
X-75.414 Y-51.386
X-75.954 Y-51.179
X-76.503 Y-50.996
X-77.059 Y-50.837
X-77.622 Y-50.702
X-78.19 Y-50.592
X-78.762 Y-50.507
X-79.338 Y-50.447
X-79.916 Y-50.413
X-80.494 Y-50.405
X-81.073 Y-50.423
X-81.65 Y-50.465
X-82.224 Y-50.533
X-82.796 Y-50.626
X-83.362 Y-50.744
X-83.923 Y-50.886
X-84.478 Y-51.052
X-85.024 Y-51.243
X-85.561 Y-51.457
X-86.089 Y-51.696
X-86.605 Y-51.957
X-87.109 Y-52.24
X-87.601 Y-52.545
X-88.079 Y-52.871
X-88.543 Y-53.218
X-88.991 Y-53.584
X-89.423 Y-53.969
X-89.837 Y-54.374
X-90.233 Y-54.796
X-90.61 Y-55.235
X-90.967 Y-55.69
X-91.305 Y-56.16
X-91.622 Y-56.644
X-91.917 Y-57.141
X-92.191 Y-57.651
X-92.442 Y-58.173
X-92.67 Y-58.705
X-92.874 Y-59.246
X-93.054 Y-59.796
X-93.211 Y-60.353
X-93.343 Y-60.916
X-93.452 Y-61.485
X-93.535 Y-62.057
X-93.594 Y-62.633
X-93.628 Y-63.211
X-93.635 Y-63.789
X-93.618 Y-64.368
X-93.575 Y-64.945
X-93.508 Y-65.52
X-93.416 Y-66.091
X-93.299 Y-66.658
X-93.158 Y-67.219
X-92.994 Y-67.774
X-92.804 Y-68.321
X-92.591 Y-68.859
X-92.355 Y-69.387
X-92.096 Y-69.904
X-91.815 Y-70.41
X-91.512 Y-70.903
X-91.188 Y-71.383
X-90.844 Y-71.848
X-90.48 Y-72.298
X-90.096 Y-72.731
X-89.694 Y-73.147
X-89.274 Y-73.546
X-88.838 Y-73.925
X-88.385 Y-74.286
X-87.917 Y-74.626
X-87.435 Y-74.946
X-86.94 Y-75.246
X-86.432 Y-75.523
X-85.912 Y-75.778
X-85.382 Y-76.01
X-84.842 Y-76.218
X-84.294 Y-76.402
X-83.738 Y-76.563
X-83.176 Y-76.7
X-82.608 Y-76.813
X-82.036 Y-76.901
X-81.461 Y-76.964
X-80.883 Y-77.002
X-80.305 Y-77.015
X-79.726 Y-77.003
X-79.149 Y-76.965
X-78.574 Y-76.903
X-78.001 Y-76.816
X-77.434 Y-76.704
X-76.871 Y-76.569
X-76.315 Y-76.409
X-75.766 Y-76.225
X-75.226 Y-76.017
X-74.696 Y-75.786
X-74.175 Y-75.533
X-73.666 Y-75.257
X-73.17 Y-74.96
X-72.686 Y-74.643
X-72.216 Y-74.305
X-71.761 Y-73.948
X-71.322 Y-73.571
X-70.899 Y-73.176
X-70.494 Y-72.762
X-70.107 Y-72.332
X-69.739 Y-71.886
X-69.389 Y-71.424
X-69.06 Y-70.949
X-68.751 Y-70.459
X-68.463 Y-69.958
X-68.196 Y-69.444
X-67.952 Y-68.919
X-67.731 Y-68.384
X-67.533 Y-67.841
X-67.359 Y-67.289
X-67.208 Y-66.73
X-67.081 Y-66.166
X-66.978 Y-65.596
X-66.9 Y-65.023
X-66.846 Y-64.447
X-66.818 Y-63.869
X-66.814 Y-63.29
X-66.835 Y-62.712
X-66.881 Y-62.135
X-66.951 Y-61.56
X-67.045 Y-60.989
X-67.163 Y-60.423
X-67.304 Y-59.862
X-67.47 Y-59.307
X-67.66 Y-58.761
X-67.872 Y-58.222
X-68.108 Y-57.694
X-68.366 Y-57.176
X-68.646 Y-56.67
X-68.947 Y-56.175
X-69.269 Y-55.694
X-69.611 Y-55.227
X-69.972 Y-54.775
X-70.352 Y-54.339
X-70.751 Y-53.92
X-71.168 Y-53.518
X-71.601 Y-53.134
X-72.05 Y-52.77
X-72.514 Y-52.424
X-72.993 Y-52.099
X-73.485 Y-51.794
X-73.989 Y-51.51
X-74.505 Y-51.249
X-75.032 Y-51.01
X-75.569 Y-50.794
X-76.115 Y-50.601
X-76.668 Y-50.431
X-77.228 Y-50.285
X-77.794 Y-50.163
X-78.364 Y-50.064
X-78.938 Y-49.99
X-79.514 Y-49.94
X-80.092 Y-49.915
X-80.671
X-81.249 Y-49.939
X-81.826 Y-49.988
X-82.4 Y-50.061
X-82.971 Y-50.158
X-83.537 Y-50.278
X-84.097 Y-50.422
X-84.651 Y-50.59
X-85.197 Y-50.781
X-85.735 Y-50.995
X-86.263 Y-51.232
X-86.78 Y-51.49
X-87.287 Y-51.771
X-87.781 Y-52.072
X-88.262 Y-52.393
X-88.729 Y-52.735
X-89.181 Y-53.096
X-89.618 Y-53.476
X-90.038 Y-53.874
X-90.44 Y-54.29
X-90.825 Y-54.722
X-91.191 Y-55.17
X-91.538 Y-55.633
X-91.866 Y-56.11
X-92.173 Y-56.601
X-92.46 Y-57.103
X-92.725 Y-57.618
X-92.968 Y-58.143
X-93.189 Y-58.678
X-93.387 Y-59.221
X-93.562 Y-59.773
X-93.714 Y-60.331
X-93.843 Y-60.895
X-93.948 Y-61.464
X-94.03 Y-62.037
X-94.087 Y-62.613
X-94.121 Y-63.191
X-94.129 Y-63.77
X-94.114 Y-64.348
X-94.074 Y-64.925
X-94.01 Y-65.5
X-93.922 Y-66.072
X-93.811 Y-66.64
X-93.676 Y-67.203
X-93.518 Y-67.76
X-93.335 Y-68.309
X-93.13 Y-68.85
X-92.902 Y-69.382
X-92.652 Y-69.904
X-92.381 Y-70.415
X-92.088 Y-70.914
X-91.775 Y-71.401
X-91.442 Y-71.874
X-91.09 Y-72.333
X-90.718 Y-72.777
X-90.328 Y-73.204
X-89.921 Y-73.615
X-89.496 Y-74.009
X-89.056 Y-74.384
X-88.6 Y-74.741
X-88.13 Y-75.078
X-87.647 Y-75.396
X-87.15 Y-75.693
X-86.642 Y-75.97
X-86.122 Y-76.224
X-85.592 Y-76.457
X-85.053 Y-76.667
X-84.506 Y-76.854
X-83.951 Y-77.018
X-83.39 Y-77.16
X-82.823 Y-77.277
X-82.252 Y-77.372
X-81.678 Y-77.442
X-81.101 Y-77.487
X-80.522 Y-77.508
X-79.944 Y-77.505
X-79.366 Y-77.478
X-78.789 Y-77.426
X-78.216 Y-77.351
X-77.645 Y-77.252
X-77.08 Y-77.13
X-76.52 Y-76.984
X-75.966 Y-76.815
X-75.42 Y-76.623
X-74.883 Y-76.408
X-74.355 Y-76.171
X-73.837 Y-75.913
X-73.331 Y-75.633
X-72.836 Y-75.333
X-72.354 Y-75.013
X-71.885 Y-74.674
X-71.431 Y-74.315
X-70.992 Y-73.938
X-70.569 Y-73.543
X-70.162 Y-73.131
X-69.774 Y-72.703
X-69.403 Y-72.258
X-69.05 Y-71.8
X-68.717 Y-71.327
X-68.403 Y-70.841
X-68.109 Y-70.342
X-67.836 Y-69.832
X-67.585 Y-69.31
X-67.356 Y-68.779
X-67.149 Y-68.239
X-66.964 Y-67.69
X-66.802 Y-67.134
X-66.664 Y-66.573
X-66.548 Y-66.006
X-66.455 Y-65.434
X-66.387 Y-64.86
X-66.342 Y-64.283
X-66.321 Y-63.705
X-66.324 Y-63.126
X-66.351 Y-62.548
X-66.402 Y-61.971
X-66.476 Y-61.397
X-66.573 Y-60.827
X-66.694 Y-60.261
X-66.837 Y-59.7
X-67.004 Y-59.146
X-67.193 Y-58.599
X-67.405 Y-58.061
X-67.638 Y-57.531
X-67.894 Y-57.012
X-68.171 Y-56.504
X-68.468 Y-56.007
X-68.785 Y-55.523
X-69.121 Y-55.052
X-69.477 Y-54.596
X-69.852 Y-54.155
X-70.245 Y-53.73
X-70.655 Y-53.322
X-71.081 Y-52.931
X-71.523 Y-52.557
X-71.98 Y-52.203
X-72.451 Y-51.867
X-72.936 Y-51.55
X-73.433 Y-51.254
X-73.942 Y-50.978
X-74.462 Y-50.724
X-74.992 Y-50.492
X-75.531 Y-50.282
X-76.079 Y-50.094
X-76.633 Y-49.929
X-77.194 Y-49.787
X-77.76 Y-49.667
X-78.331 Y-49.57
X-78.905 Y-49.497
X-79.481 Y-49.448
X-80.059 Y-49.422
X-80.638 Y-49.42
X-81.216 Y-49.442
X-81.793 Y-49.487
X-82.368 Y-49.556
X-82.939 Y-49.648
X-83.506 Y-49.762
X-84.068 Y-49.9
X-84.624 Y-50.061
X-85.173 Y-50.245
X-85.699 Y-50.445
X-85.723 Y-50.456
X-85.83 Y-50.509
X-86.263 Y-50.73
X-86.356 Y-50.778
X-86.755 Y-50.992
X-87.276 Y-51.285
X-87.407 Y-51.359
X-87.675 Y-51.518
X-88.11 Y-51.781
X-88.53 Y-52.044
X-88.722 Y-52.169
X-89.19 Y-52.509
X-89.421 Y-52.683
X-89.866 Y-53.04
X-90.292 Y-53.431
X-90.7 Y-53.842
X-91.089 Y-54.27
X-91.461 Y-54.713
X-91.814 Y-55.171
X-92.149 Y-55.643
X-92.464 Y-56.129
X-92.76 Y-56.626
X-93.035 Y-57.135
X-93.289 Y-57.655
X-93.522 Y-58.185
X-93.733 Y-58.723
X-93.923 Y-59.27
X-94.09 Y-59.824
X-94.234 Y-60.385
X-94.357 Y-60.95
X-94.456 Y-61.52
X-94.533 Y-62.094
X-94.586 Y-62.67
X-94.616 Y-63.248
X-94.622 Y-63.827
X-94.605 Y-64.405
X-94.564 Y-64.982
X-94.501 Y-65.558
X-94.414 Y-66.13
X-94.304 Y-66.698
X-94.172 Y-67.261
X-94.017 Y-67.819
X-93.839 Y-68.369
X-93.639 Y-68.912
X-93.465 Y-69.331
X-93.446 Y-69.37
X-93.424 Y-69.408
X-93.398 Y-69.443
X-93.337 Y-69.52
X-93.086 Y-69.914
X-93.059 Y-69.959
X-93.012 Y-70.045
X-92.944 Y-70.176
X-92.881 Y-70.308
X-92.82 Y-70.439
X-92.705 Y-70.702
X-92.467 Y-71.18
X-92.2 Y-71.636
X-91.876 Y-72.116
X-91.527 Y-72.577
X-91.159 Y-73.024
X-90.773 Y-73.455
X-90.37 Y-73.87
X-89.95 Y-74.268
X-89.514 Y-74.648
X-89.063 Y-75.011
X-88.598 Y-75.355
X-88.119 Y-75.681
X-87.628 Y-75.987
X-87.125 Y-76.273
X-86.611 Y-76.538
X-86.086 Y-76.783
X-85.552 Y-77.005
X-85.009 Y-77.206
X-84.459 Y-77.385
X-83.902 Y-77.542
X-83.339 Y-77.676
X-82.771 Y-77.788
X-82.199 Y-77.877
X-81.624 Y-77.942
X-81.047 Y-77.984
X-80.469 Y-78.002
X-79.89 Y-77.997
X-79.312 Y-77.969
X-78.736 Y-77.917
X-78.162 Y-77.842
X-77.592 Y-77.745
X-77.026 Y-77.625
X-76.465 Y-77.482
X-75.91 Y-77.317
X-75.363 Y-77.13
X-74.823 Y-76.92
X-74.293 Y-76.689
X-73.772 Y-76.437
X-73.413 Y-76.245
X-73.383 Y-76.227
X-73.355 Y-76.208
X-73.329 Y-76.187
X-73.214 Y-76.087
X-73.055 Y-75.958
X-72.951 Y-75.877
X-72.688 Y-75.678
X-72.557 Y-75.592
X-72.162 Y-75.34
X-72.031 Y-75.265
X-71.9 Y-75.192
X-71.493 Y-74.942
X-71.117 Y-74.673
X-70.669 Y-74.307
X-70.243 Y-73.915
X-69.835 Y-73.504
X-69.444 Y-73.078
X-69.071 Y-72.636
X-68.715 Y-72.179
X-68.377 Y-71.709
X-68.059 Y-71.226
X-67.76 Y-70.731
X-67.481 Y-70.224
X-67.223 Y-69.706
X-66.986 Y-69.178
X-66.77 Y-68.641
X-66.576 Y-68.096
X-66.404 Y-67.543
X-66.254 Y-66.984
X-66.126 Y-66.42
X-66.02 Y-65.851
X-65.937 Y-65.278
X-65.877 Y-64.703
X-65.84 Y-64.125
X-65.827 Y-63.547
X-65.836 Y-62.968
X-65.868 Y-62.39
X-65.923 Y-61.814
X-66.001 Y-61.241
X-66.101 Y-60.671
X-66.223 Y-60.105
X-66.368 Y-59.545
X-66.535 Y-58.991
X-66.724 Y-58.444
X-66.934 Y-57.905
X-67.166 Y-57.375
X-67.419 Y-56.854
X-67.692 Y-56.344
X-67.985 Y-55.845
X-68.297 Y-55.358
X-68.629 Y-54.884
X-68.98 Y-54.424
X-69.349 Y-53.978
X-69.736 Y-53.547
X-70.139 Y-53.133
X-70.559 Y-52.734
X-70.994 Y-52.353
X-71.444 Y-51.989
X-71.909 Y-51.644
X-72.386 Y-51.316
X-72.876 Y-51.008
X-73.377 Y-50.72
X-73.89 Y-50.452
X-74.413 Y-50.205
X-74.946 Y-49.978
X-75.487 Y-49.774
X-76.036 Y-49.59
X-76.592 Y-49.429
X-77.154 Y-49.29
X-77.72 Y-49.172
X-78.291 Y-49.077
X-78.865 Y-49.005
X-79.442 Y-48.955
X-80.02 Y-48.929
X-80.598 Y-48.925
X-81.177 Y-48.944
X-81.754 Y-48.986
X-82.162 Y-49.032
X-82.191 Y-49.036
X-82.221 Y-49.042
X-82.25 Y-49.05
X-82.545 Y-49.146
X-82.676 Y-49.191
X-82.808 Y-49.236
X-83.202 Y-49.377
X-83.465 Y-49.475
X-83.656 Y-49.547
X-84.122 Y-49.733
X-84.516 Y-49.9
X-84.779 Y-50.015
X-84.91 Y-50.073
X-85.193 Y-50.204
X-85.474 Y-50.335
X-85.723 Y-50.456
X-85.777 Y-50.487
X-88.668 Y-52.138
X-88.722 Y-52.169
X-88.985 Y-52.34
X-89.379 Y-52.606
X-89.517 Y-52.701
X-89.904 Y-52.972
X-90.167 Y-53.159
X-90.439 Y-53.358
X-90.693 Y-53.544
X-90.967 Y-53.752
X-91.311 Y-54.015
X-91.478 Y-54.146
X-91.659 Y-54.304
X-91.868 Y-54.512
X-92.155 Y-54.839
X-92.507 Y-55.298
X-92.829 Y-55.779
X-93.129 Y-56.274
X-93.41 Y-56.78
X-93.669 Y-57.297
X-93.908 Y-57.824
X-94.126 Y-58.36
X-94.323 Y-58.904
X-94.498 Y-59.456
X-94.652 Y-60.014
X-94.785 Y-60.577
X-94.895 Y-61.145
X-94.984 Y-61.717
X-95.05 Y-62.292
X-95.093 Y-62.869
X-95.114 Y-63.447
X-95.112 Y-64.026
X-95.088 Y-64.604
X-95.041 Y-65.181
X-94.972 Y-65.755
X-94.88 Y-66.327
X-94.767 Y-66.894
X-94.631 Y-67.457
X-94.474 Y-68.013
X-94.318 Y-68.492
X-94.276 Y-68.584
X-94.217 Y-68.665
X-94.141 Y-68.731
X-94.11 Y-68.753
X-93.979 Y-68.849
X-93.806 Y-68.994
X-93.716 Y-69.081
X-93.673 Y-69.125
X-93.442 Y-69.388
X-93.398 Y-69.443
X-93.384 Y-69.458
X-93.355 Y-69.488
X-92.42 Y-70.453
G2 X-92.426 Y-70.679 I-0.114 J-0.11
X-92.652 Y-70.669 I-0.108 J0.116
G3 X-92.705 Y-70.702 I-0.024 J-0.021
G1 X-92.664 Y-70.796
X-92.533 Y-71.12
X-92.346 Y-71.622
X-92.253 Y-71.885
X-92.161 Y-72.147
X-92.117 Y-72.279
X-92.047 Y-72.459
X-91.973 Y-72.617
X-91.862 Y-72.818
X-91.706 Y-73.062
X-91.458 Y-73.396
X-91.084 Y-73.838
X-90.682 Y-74.254
X-90.261 Y-74.651
X-89.825 Y-75.032
X-89.374 Y-75.395
X-88.91 Y-75.74
X-88.433 Y-76.067
X-87.943 Y-76.375
X-87.442 Y-76.664
X-86.929 Y-76.933
X-86.407 Y-77.182
X-85.875 Y-77.41
X-85.335 Y-77.617
X-84.786 Y-77.802
X-84.231 Y-77.966
X-83.67 Y-78.109
X-83.105 Y-78.229
X-82.534 Y-78.328
X-81.961 Y-78.404
X-81.384 Y-78.458
X-80.807 Y-78.488
X-80.228 Y-78.497
X-79.649 Y-78.482
X-79.072 Y-78.445
X-78.496 Y-78.386
X-77.923 Y-78.305
X-77.354 Y-78.201
X-76.789 Y-78.076
X-76.229 Y-77.929
X-75.676 Y-77.76
X-75.129 Y-77.57
X-74.591 Y-77.358
X-74.451 Y-77.297
X-74.385 Y-77.262
X-74.326 Y-77.216
X-74.275 Y-77.162
X-74.258 Y-77.141
X-74.134 Y-76.997
X-73.871 Y-76.704
X-73.74 Y-76.572
X-73.608 Y-76.445
X-73.477 Y-76.32
X-73.345 Y-76.201
X-73.329 Y-76.187
X-73.314 Y-76.172
X-73.286 Y-76.141
X-72.17 Y-74.927
G2 X-71.946 Y-74.918 I0.117 J-0.107
X-71.937 Y-75.142 I-0.108 J-0.117
G3 X-71.9 Y-75.192 I0.023 J-0.022
G1 X-71.768 Y-75.12
X-71.637 Y-75.053
X-71.334 Y-74.907
X-71.243 Y-74.866
X-70.98 Y-74.758
X-70.848 Y-74.705
X-70.674 Y-74.644
X-70.523 Y-74.582
X-70.388 Y-74.516
X-70.242 Y-74.431
X-70.046 Y-74.298
X-69.821 Y-74.122
X-69.501 Y-73.836
X-69.096 Y-73.423
X-68.718 Y-72.984
X-68.36 Y-72.53
X-68.019 Y-72.062
X-67.697 Y-71.581
X-67.394 Y-71.088
X-67.11 Y-70.584
X-66.847 Y-70.068
X-66.604 Y-69.543
X-66.381 Y-69.009
X-66.18 Y-68.467
X-65.999 Y-67.917
X-65.84 Y-67.361
X-65.702 Y-66.799
X-65.585 Y-66.232
X-65.49 Y-65.661
X-65.418 Y-65.087
X-65.368 Y-64.51
X-65.34 Y-63.932
X-65.334 Y-63.354
X-65.35 Y-62.775
X-65.389 Y-62.198
X-65.449 Y-61.622
X-65.532 Y-61.05
X-65.636 Y-60.48
X-65.761 Y-59.915
X-65.908 Y-59.356
X-66.077 Y-58.802
X-66.267 Y-58.255
X-66.477 Y-57.717
X-66.709 Y-57.186
X-66.96 Y-56.665
X-67.231 Y-56.154
X-67.522 Y-55.653
X-67.831 Y-55.164
X-68.159 Y-54.688
X-68.506 Y-54.224
X-68.87 Y-53.775
X-69.252 Y-53.34
X-69.651 Y-52.92
X-70.065 Y-52.517
X-70.495 Y-52.129
X-70.939 Y-51.758
X-71.397 Y-51.404
X-71.868 Y-51.068
X-72.352 Y-50.751
X-72.847 Y-50.452
X-73.354 Y-50.172
X-73.871 Y-49.912
X-74.398 Y-49.672
X-74.933 Y-49.453
X-75.477 Y-49.255
X-76.028 Y-49.077
X-76.585 Y-48.921
X-77.147 Y-48.785
X-77.715 Y-48.672
X-78.286 Y-48.579
X-78.861 Y-48.509
X-79.437 Y-48.461
X-79.923 Y-48.439
X-79.964
X-80.004 Y-48.442
X-80.044 Y-48.449
X-80.179 Y-48.48
X-80.574 Y-48.575
X-80.968 Y-48.676
X-81.099 Y-48.711
X-81.493 Y-48.82
X-81.888 Y-48.936
X-82.25 Y-49.05
G3 X-82.303 Y-49.082 I0.053 J-0.15
G1 X-82.339 Y-49.115 Z-2.992
X-82.372 Y-49.145 Z-2.97
X-82.398 Y-49.168 Z-2.935
X-82.415 Y-49.184 Z-2.89
X-82.421 Y-49.189 Z-2.841
G0 Z5
X-91.52 Y-54.321
Z-2.682
G1 Z-2.841 F849.6
X-91.516 Y-54.315 Z-2.89
X-91.503 Y-54.296 Z-2.935
X-91.484 Y-54.267 Z-2.97
X-91.459 Y-54.23 Z-2.992
X-91.432 Y-54.189 Z-3
G3 X-91.478 Y-54.146 I-0.026 J0.017
G1 X-91.876 Y-54.46
X-92.468 Y-54.934
X-92.664 Y-55.083
X-92.704 Y-55.106
X-92.83 Y-55.188
X-92.944 Y-55.293
X-93.089 Y-55.446
X-93.253 Y-55.644
X-93.479 Y-55.956
X-93.747 Y-56.384
X-94.021 Y-56.894
X-94.269 Y-57.417
X-94.496 Y-57.949
X-94.702 Y-58.49
X-94.887 Y-59.038
X-95.052 Y-59.593
X-95.196 Y-60.154
X-95.318 Y-60.719
X-95.42 Y-61.289
X-95.5 Y-61.862
X-95.558 Y-62.438
X-95.595 Y-63.015
X-95.609 Y-63.594
X-95.602 Y-64.172
X-95.573 Y-64.75
X-95.522 Y-65.327
X-95.45 Y-65.901
X-95.356 Y-66.472
X-95.24 Y-67.039
X-95.104 Y-67.601
X-94.946 Y-68.158
X-94.942 Y-68.169
X-94.877 Y-68.292
X-94.777 Y-68.39
X-94.653 Y-68.454
X-94.636 Y-68.46
X-94.241 Y-68.666
X-94.141 Y-68.731
G3 X-94.083 Y-68.752 I0.082 J0.136
G1 X-94.034 Y-68.759 Z-2.992
X-93.991 Y-68.766 Z-2.97
X-93.956 Y-68.771 Z-2.935
X-93.934 Y-68.775 Z-2.89
X-93.926 Y-68.776 Z-2.841
G0 Z5
X-92.771 Y-55.274
Z-2.682
G1 Z-2.841 F849.6
X-92.766 Y-55.268 Z-2.89
X-92.751 Y-55.251 Z-2.935
X-92.728 Y-55.225 Z-2.97
X-92.698 Y-55.192 Z-2.992
X-92.666 Y-55.155 Z-3
G3 X-92.704 Y-55.106 I-0.024 J0.021
G1 X-92.796 Y-55.159
X-92.867 Y-55.197
X-92.927 Y-55.223
X-93.059 Y-55.266
X-93.098 Y-55.274
X-93.244 Y-55.311
X-93.378 Y-55.377
X-93.503 Y-55.46
X-93.619 Y-55.556
X-93.741 Y-55.674
X-93.863 Y-55.808
X-94.024 Y-56.012
X-94.204 Y-56.272
X-94.439 Y-56.666
X-94.701 Y-57.181
X-94.933 Y-57.712
X-95.142 Y-58.251
X-95.331 Y-58.798
X-95.499 Y-59.352
X-95.648 Y-59.911
X-95.776 Y-60.476
X-95.883 Y-61.044
X-95.969 Y-61.616
X-96.034 Y-62.191
X-96.078 Y-62.768
X-96.101 Y-63.347
X-96.103 Y-63.925
X-96.083 Y-64.504
X-96.043 Y-65.081
X-95.981 Y-65.656
X-95.899 Y-66.229
X-95.796 Y-66.799
X-95.672 Y-67.364
X-95.6 Y-67.644
X-95.538 Y-67.875
X-95.487 Y-68.023
X-95.483 Y-68.033
X-95.404 Y-68.159
X-95.289 Y-68.253
X-95.15 Y-68.306
X-95.03 Y-68.331
X-94.676 Y-68.446
X-94.653 Y-68.454
G3 X-94.591 Y-68.46 I0.045 J0.152
G1 X-94.542 Y-68.454 Z-2.992
X-94.498 Y-68.45 Z-2.97
X-94.463 Y-68.446 Z-2.935
X-94.441 Y-68.443 Z-2.89
X-94.433 Z-2.841
G0 Z5
X-93.215 Y-55.412
Z-2.682
G1 Z-2.841 F849.6
X-93.208 Y-55.408 Z-2.89
X-93.189 Y-55.397 Z-2.935
X-93.158 Y-55.379 Z-2.97
X-93.12 Y-55.357 Z-2.992
X-93.077 Y-55.333 Z-3
G3 X-93.098 Y-55.274 I-0.016 J0.027
G1 X-93.19 Y-55.293
X-93.321 Y-55.306
X-93.453 Y-55.308
X-93.493 Y-55.304
X-93.642 Y-55.294
X-93.784 Y-55.343
X-93.917 Y-55.413
X-94.041 Y-55.497
X-94.157 Y-55.592
X-94.27 Y-55.698
X-94.415 Y-55.853
X-94.558 Y-56.029
X-94.743 Y-56.289
X-94.938 Y-56.606
X-95.182 Y-57.07
X-95.417 Y-57.598
X-95.626 Y-58.138
X-95.813 Y-58.686
X-95.981 Y-59.24
X-96.129 Y-59.799
X-96.257 Y-60.363
X-96.365 Y-60.932
X-96.453 Y-61.504
X-96.521 Y-62.078
X-96.568 Y-62.655
X-96.594 Y-63.233
X-96.6 Y-63.812
X-96.586 Y-64.39
X-96.55 Y-64.968
X-96.495 Y-65.544
X-96.418 Y-66.118
X-96.322 Y-66.688
X-96.206 Y-67.255
X-96.11 Y-67.643
X-96.058 Y-67.809
X-96.003 Y-67.949
X-95.973 Y-68.011
X-95.87 Y-68.148
X-95.724 Y-68.236
X-95.556 Y-68.265
X-95.424 Y-68.266
X-95.293 Y-68.281
X-95.15 Y-68.306
G3 X-95.089 Y-68.304 I0.026 J0.157
G1 X-95.041 Y-68.293 Z-2.992
X-94.998 Y-68.283 Z-2.97
X-94.963 Y-68.275 Z-2.935
X-94.941 Y-68.27 Z-2.89
X-94.934 Y-68.269 Z-2.841
G0 Z5
X-93.646 Y-55.398
Z-2.682
G1 Z-2.841 F849.6
X-93.639 Y-55.397 Z-2.89
X-93.617 Y-55.392 Z-2.935
X-93.582 Y-55.385 Z-2.97
X-93.539 Y-55.376 Z-2.992
X-93.491 Y-55.366 Z-3
G3 X-93.493 Y-55.304 I-0.006 J0.031
G1 X-93.584 Y-55.293
X-93.716 Y-55.267
X-93.755 Y-55.255
X-93.901 Y-55.219
X-94.051 Y-55.229
X-94.195 Y-55.269
X-94.332 Y-55.331
X-94.461 Y-55.408
X-94.582 Y-55.496
X-94.705 Y-55.6
X-94.832 Y-55.724
X-94.98 Y-55.889
X-95.136 Y-56.087
X-95.324 Y-56.361
X-95.532 Y-56.714
X-95.763 Y-57.173
X-95.989 Y-57.705
X-96.189 Y-58.249
X-96.367 Y-58.799
X-96.526 Y-59.356
X-96.666 Y-59.917
X-96.786 Y-60.483
X-96.886 Y-61.053
X-96.967 Y-61.626
X-97.028 Y-62.202
X-97.07 Y-62.779
X-97.091 Y-63.357
X-97.093 Y-63.936
X-97.075 Y-64.514
X-97.036 Y-65.091
X-96.978 Y-65.667
X-96.9 Y-66.241
X-96.802 Y-66.811
X-96.686 Y-67.374
X-96.612 Y-67.639
X-96.562 Y-67.781
X-96.503 Y-67.919
X-96.435 Y-68.053
X-96.414 Y-68.085
X-96.288 Y-68.213
X-96.123 Y-68.283
X-95.944 Y-68.284
X-95.884 Y-68.273
X-95.556 Y-68.265
G3 X-95.496 Y-68.249 I-0.009 J0.158
G1 X-95.452 Y-68.227 Z-2.992
X-95.412 Y-68.208 Z-2.97
X-95.38 Y-68.193 Z-2.935
X-95.36 Y-68.183 Z-2.89
X-95.353 Y-68.18 Z-2.841
G0 Z5
X-93.924 Y-55.321
Z-2.682
G1 Z-2.841 F849.6
X-93.916 Z-2.89
X-93.893 Y-55.32 Z-2.935
X-93.858 Y-55.319 Z-2.97
X-93.814 Y-55.318 Z-2.992
X-93.765 Y-55.317 Z-3
G3 X-93.755 Y-55.255 I-0.001 J0.032
G1 X-93.847 Y-55.227
X-93.915 Y-55.197
X-93.979 Y-55.166
X-94.018 Y-55.143
X-94.152 Y-55.076
X-94.302 Y-55.064
X-94.45 Y-55.084
X-94.594 Y-55.127
X-94.731 Y-55.188
X-94.861 Y-55.262
X-94.985 Y-55.347
X-95.106 Y-55.444
X-95.248 Y-55.573
X-95.389 Y-55.72
X-95.564 Y-55.928
X-95.729 Y-56.154
X-95.933 Y-56.473
X-96.159 Y-56.887
X-96.402 Y-57.412
X-96.61 Y-57.952
X-96.794 Y-58.501
X-96.959 Y-59.055
X-97.104 Y-59.616
X-97.231 Y-60.18
X-97.338 Y-60.749
X-97.427 Y-61.321
X-97.496 Y-61.895
X-97.547 Y-62.472
X-97.578 Y-63.049
X-97.589 Y-63.628
X-97.582 Y-64.207
X-97.555 Y-64.785
X-97.508 Y-65.361
X-97.442 Y-65.936
X-97.358 Y-66.509
X-97.254 Y-67.078
X-97.175 Y-67.418
X-97.098 Y-67.672
X-97.041 Y-67.824
X-96.979 Y-67.961
X-96.906 Y-68.092
X-96.822 Y-68.216
X-96.805 Y-68.235
X-96.672 Y-68.339
X-96.51 Y-68.388
X-96.342 Y-68.375
X-96.213 Y-68.34
X-95.944 Y-68.284
G3 X-95.887 Y-68.259 I-0.035 J0.155
G1 X-95.847 Y-68.231 Z-2.992
X-95.811 Y-68.205 Z-2.97
X-95.782 Y-68.185 Z-2.935
X-95.764 Y-68.172 Z-2.89
X-95.758 Y-68.168 Z-2.841
G0 Z5
X-94.197 Y-55.17
Z-2.682
G1 Z-2.841 F849.6
X-94.189 Y-55.172 Z-2.89
X-94.167 Y-55.176 Z-2.935
X-94.133 Y-55.183 Z-2.97
X-94.089 Y-55.192 Z-2.992
X-94.041 Y-55.201 Z-3
G3 X-94.018 Y-55.143 I0.006 J0.031
G1 X-94.11 Y-55.091
X-94.146 Y-55.066
X-94.241 Y-54.99
X-94.359 Y-54.897
X-94.505 Y-54.863
X-94.655 Y-54.862
X-94.803 Y-54.886
X-94.947 Y-54.929
X-95.085 Y-54.988
X-95.217 Y-55.059
X-95.343 Y-55.14
X-95.48 Y-55.241
X-95.626 Y-55.366
X-95.772 Y-55.508
X-95.948 Y-55.704
X-96.12 Y-55.922
X-96.319 Y-56.214
X-96.551 Y-56.607
X-96.767 Y-57.036
X-96.992 Y-57.569
X-97.188 Y-58.114
X-97.362 Y-58.666
X-97.516 Y-59.223
X-97.652 Y-59.786
X-97.769 Y-60.352
X-97.868 Y-60.923
X-97.949 Y-61.496
X-98.011 Y-62.071
X-98.054 Y-62.648
X-98.078 Y-63.226
X-98.084 Y-63.805
X-98.07 Y-64.383
X-98.038 Y-64.961
X-97.987 Y-65.538
X-97.918 Y-66.112
X-97.83 Y-66.684
X-97.732 Y-67.195
X-97.648 Y-67.513
X-97.573 Y-67.739
X-97.496 Y-67.928
X-97.43 Y-68.062
X-97.354 Y-68.192
X-97.267 Y-68.314
X-97.168 Y-68.426
X-97.155 Y-68.437
X-97 Y-68.525
X-96.823 Y-68.547
X-96.651 Y-68.5
X-96.607 Y-68.478
X-96.476 Y-68.421
X-96.342 Y-68.375
G3 X-96.287 Y-68.345 I-0.046 J0.152
G1 X-96.249 Y-68.314 Z-2.992
X-96.215 Y-68.286 Z-2.97
X-96.188 Y-68.264 Z-2.935
X-96.17 Y-68.25 Z-2.89
X-96.164 Y-68.245 Z-2.841
G0 Z5
X-94.421 Y-54.975
Z-2.682
G1 Z-2.841 F849.6
X-94.414 Y-54.978 Z-2.89
X-94.394 Y-54.987 Z-2.935
X-94.362 Y-55.002 Z-2.97
X-94.322 Y-55.021 Z-2.992
X-94.277 Y-55.041 Z-3
G3 X-94.241 Y-54.99 I0.013 J0.029
G1 X-94.301 Y-54.934
X-94.373 Y-54.859
X-94.418 Y-54.803
X-94.513 Y-54.686
X-94.652 Y-54.632
X-94.801 Y-54.61
X-94.951 Y-54.613
X-95.099 Y-54.638
X-95.243 Y-54.678
X-95.383 Y-54.733
X-95.518 Y-54.799
X-95.647 Y-54.874
X-95.796 Y-54.975
X-95.94 Y-55.087
X-96.1 Y-55.23
X-96.281 Y-55.414
X-96.452 Y-55.613
X-96.66 Y-55.89
X-96.883 Y-56.232
X-97.092 Y-56.605
X-97.332 Y-57.109
X-97.546 Y-57.647
X-97.734 Y-58.194
X-97.9 Y-58.748
X-98.048 Y-59.308
X-98.177 Y-59.872
X-98.289 Y-60.44
X-98.382 Y-61.011
X-98.458 Y-61.585
X-98.515 Y-62.161
X-98.554 Y-62.738
X-98.575 Y-63.316
X-98.577 Y-63.895
X-98.562 Y-64.473
X-98.528 Y-65.051
X-98.475 Y-65.627
X-98.405 Y-66.202
X-98.316 Y-66.774
X-98.222 Y-67.241
X-98.136 Y-67.556
X-98.049 Y-67.808
X-97.968 Y-68.001
X-97.887 Y-68.162
X-97.811 Y-68.291
X-97.727 Y-68.415
X-97.63 Y-68.53
X-97.523 Y-68.635
X-97.489 Y-68.66
X-97.326 Y-68.737
X-97.145 Y-68.746
X-96.975 Y-68.685
X-96.834 Y-68.6
X-96.738 Y-68.543
X-96.651 Y-68.5
G3 X-96.603 Y-68.461 I-0.075 J0.14
G1 X-96.572 Y-68.423 Z-2.992
X-96.544 Y-68.388 Z-2.97
X-96.522 Y-68.361 Z-2.935
X-96.508 Y-68.344 Z-2.89
X-96.503 Y-68.338 Z-2.841
G0 Z5
X-94.59 Y-54.748
Z-2.682
G1 Z-2.841 F849.6
X-94.584 Y-54.753 Z-2.89
X-94.566 Y-54.767 Z-2.935
X-94.539 Y-54.788 Z-2.97
X-94.503 Y-54.815 Z-2.992
X-94.465 Y-54.845 Z-3
G3 X-94.418 Y-54.803 I0.019 J0.025
G1 X-94.507 Y-54.672
X-94.542 Y-54.604
X-94.617 Y-54.474
X-94.744 Y-54.394
X-94.886 Y-54.347
X-95.035 Y-54.327
X-95.185 Y-54.328
X-95.334 Y-54.348
X-95.479 Y-54.383
X-95.622 Y-54.431
X-95.759 Y-54.49
X-95.902 Y-54.564
X-96.052 Y-54.654
X-96.208 Y-54.763
X-96.378 Y-54.899
X-96.56 Y-55.065
X-96.742 Y-55.256
X-96.952 Y-55.507
X-97.172 Y-55.81
X-97.385 Y-56.145
X-97.615 Y-56.569
X-97.856 Y-57.095
X-98.065 Y-57.635
X-98.248 Y-58.184
X-98.41 Y-58.739
X-98.555 Y-59.3
X-98.681 Y-59.865
X-98.79 Y-60.433
X-98.881 Y-61.004
X-98.955 Y-61.578
X-99.011 Y-62.154
X-99.049 Y-62.732
X-99.07 Y-63.31
X-99.073 Y-63.889
X-99.058 Y-64.467
X-99.025 Y-65.045
X-98.974 Y-65.621
X-98.906 Y-66.196
X-98.82 Y-66.768
X-98.723 Y-67.243
X-98.628 Y-67.591
X-98.533 Y-67.864
X-98.436 Y-68.094
X-98.348 Y-68.269
X-98.259 Y-68.42
X-98.173 Y-68.545
X-98.081 Y-68.663
X-97.977 Y-68.772
X-97.864 Y-68.87
X-97.739 Y-68.954
X-97.731 Y-68.958
X-97.555 Y-69.003
X-97.376 Y-68.976
X-97.22 Y-68.882
X-97.133 Y-68.801
X-97.043 Y-68.731
X-97.001 Y-68.7
X-96.975 Y-68.685
G3 X-96.931 Y-68.641 I-0.087 J0.133
G1 X-96.903 Y-68.601 Z-2.992
X-96.879 Y-68.564 Z-2.97
X-96.859 Y-68.535 Z-2.935
X-96.846 Y-68.516 Z-2.89
X-96.842 Y-68.51 Z-2.841
G0 Z5
X-94.706 Y-54.529
Z-2.682
G1 Z-2.841 F849.6
X-94.701 Y-54.534 Z-2.89
X-94.684 Y-54.55 Z-2.935
X-94.659 Y-54.575 Z-2.97
X-94.628 Y-54.606 Z-2.992
X-94.593 Y-54.64 Z-3
G3 X-94.542 Y-54.604 I0.022 J0.023
G1 X-94.575 Y-54.54
X-94.62 Y-54.409
X-94.629 Y-54.38
X-94.679 Y-54.238
X-94.792 Y-54.14
X-94.926 Y-54.072
X-95.07 Y-54.03
X-95.218 Y-54.01
X-95.368 Y-54.009
X-95.518 Y-54.024
X-95.665 Y-54.052
X-95.809 Y-54.093
X-95.95 Y-54.145
X-96.104 Y-54.213
X-96.256 Y-54.293
X-96.424 Y-54.395
X-96.605 Y-54.524
X-96.789 Y-54.674
X-96.982 Y-54.853
X-97.197 Y-55.081
X-97.421 Y-55.353
X-97.64 Y-55.658
X-97.865 Y-56.02
X-98.115 Y-56.488
X-98.353 Y-57.016
X-98.559 Y-57.557
X-98.74 Y-58.106
X-98.902 Y-58.662
X-99.045 Y-59.223
X-99.171 Y-59.787
X-99.279 Y-60.356
X-99.371 Y-60.927
X-99.445 Y-61.501
X-99.502 Y-62.077
X-99.542 Y-62.654
X-99.564 Y-63.233
X-99.57 Y-63.811
X-99.557 Y-64.39
X-99.528 Y-64.968
X-99.481 Y-65.545
X-99.417 Y-66.12
X-99.335 Y-66.693
X-99.24 Y-67.185
X-99.133 Y-67.589
X-99.028 Y-67.901
X-98.924 Y-68.153
X-98.816 Y-68.372
X-98.717 Y-68.544
X-98.618 Y-68.692
X-98.521 Y-68.817
X-98.421 Y-68.931
X-98.315 Y-69.037
X-98.198 Y-69.131
X-98.071 Y-69.212
X-98.019 Y-69.237
X-97.878 Y-69.278
X-97.731 Y-69.272
X-97.594 Y-69.219
X-97.481 Y-69.125
X-97.396 Y-69.043
X-97.22 Y-68.882
G3 X-97.186 Y-68.83 I-0.111 J0.113
G1 X-97.167 Y-68.785 Z-2.992
X-97.149 Y-68.744 Z-2.97
X-97.136 Y-68.712 Z-2.935
X-97.127 Y-68.691 Z-2.89
X-97.124 Y-68.684 Z-2.841
G0 Z5
X-94.776 Y-54.276
Z-2.682
G1 Z-2.841 F849.6
X-94.772 Y-54.282 Z-2.89
X-94.759 Y-54.301 Z-2.935
X-94.739 Y-54.329 Z-2.97
X-94.713 Y-54.366 Z-2.992
X-94.685 Y-54.406 Z-3
G3 X-94.629 Y-54.38 I0.026 J0.018
G1 X-94.71 Y-54.106
X-94.758 Y-53.964
X-94.863 Y-53.857
X-94.99 Y-53.777
X-95.129 Y-53.721
X-95.275 Y-53.687
X-95.424 Y-53.671
X-95.574
X-95.724 Y-53.685
X-95.871 Y-53.711
X-96.017 Y-53.748
X-96.166 Y-53.797
X-96.332 Y-53.865
X-96.506 Y-53.949
X-96.679 Y-54.048
X-96.869 Y-54.173
X-97.076 Y-54.331
X-97.288 Y-54.516
X-97.501 Y-54.729
X-97.729 Y-54.988
X-97.966 Y-55.297
X-98.221 Y-55.68
X-98.464 Y-56.102
X-98.718 Y-56.621
X-98.937 Y-57.157
X-99.13 Y-57.702
X-99.301 Y-58.255
X-99.454 Y-58.813
X-99.589 Y-59.376
X-99.707 Y-59.943
X-99.808 Y-60.512
X-99.892 Y-61.085
X-99.96 Y-61.659
X-100.011 Y-62.236
X-100.045 Y-62.814
X-100.063 Y-63.392
Y-63.971
X-100.047 Y-64.549
X-100.013 Y-65.127
X-99.963 Y-65.703
X-99.896 Y-66.278
X-99.808 Y-66.85
X-99.701 Y-67.356
X-99.593 Y-67.737
X-99.48 Y-68.057
X-99.361 Y-68.331
X-99.244 Y-68.559
X-99.128 Y-68.752
X-99.011 Y-68.92
X-98.9 Y-69.06
X-98.79 Y-69.18
X-98.682 Y-69.284
X-98.566 Y-69.38
X-98.442 Y-69.463
X-98.309 Y-69.534
X-98.231 Y-69.563
X-98.088 Y-69.592
X-97.944 Y-69.574
X-97.812 Y-69.512
X-97.706 Y-69.412
X-97.527 Y-69.179
X-97.481 Y-69.125
G3 X-97.452 Y-69.07 I-0.124 J0.1
G1 X-97.438 Y-69.023 Z-2.992
X-97.426 Y-68.981 Z-2.97
X-97.416 Y-68.947 Z-2.935
X-97.409 Y-68.926 Z-2.89
X-97.407 Y-68.918 Z-2.841
G0 Z5
X-94.856 Y-54.001
Z-2.682
G1 Z-2.841 F849.6
X-94.852 Y-54.007 Z-2.89
X-94.839 Y-54.026 Z-2.935
X-94.819 Y-54.055 Z-2.97
X-94.794 Y-54.091 Z-2.992
X-94.767 Y-54.132 Z-3
G3 X-94.71 Y-54.106 I0.026 J0.018
G1 X-94.736 Y-54.015
X-94.792 Y-53.811
X-94.839 Y-53.668
X-94.936 Y-53.554
X-95.056 Y-53.465
X-95.191 Y-53.399
X-95.334 Y-53.353
X-95.481 Y-53.326
X-95.631 Y-53.314
X-95.781 Y-53.316
X-95.93 Y-53.33
X-96.08 Y-53.355
X-96.231 Y-53.392
X-96.396 Y-53.443
X-96.575 Y-53.512
X-96.763 Y-53.599
X-96.954 Y-53.703
X-97.161 Y-53.836
X-97.381 Y-53.997
X-97.613 Y-54.192
X-97.837 Y-54.407
X-98.075 Y-54.669
X-98.333 Y-54.993
X-98.595 Y-55.372
X-98.866 Y-55.824
X-99.122 Y-56.324
X-99.351 Y-56.856
X-99.551 Y-57.399
X-99.728 Y-57.95
X-99.887 Y-58.506
X-100.027 Y-59.068
X-100.151 Y-59.633
X-100.259 Y-60.201
X-100.35 Y-60.773
X-100.425 Y-61.347
X-100.483 Y-61.922
X-100.525 Y-62.5
X-100.551 Y-63.078
X-100.56 Y-63.656
X-100.553 Y-64.235
X-100.53 Y-64.813
X-100.489 Y-65.39
X-100.433 Y-65.966
X-100.358 Y-66.54
X-100.258 Y-67.11
X-100.147 Y-67.577
X-100.032 Y-67.949
X-99.906 Y-68.277
X-99.774 Y-68.563
X-99.641 Y-68.807
X-99.512 Y-69.01
X-99.382 Y-69.188
X-99.256 Y-69.337
X-99.134 Y-69.464
X-99.013 Y-69.575
X-98.895 Y-69.669
X-98.771 Y-69.753
X-98.64 Y-69.825
X-98.502 Y-69.884
X-98.424 Y-69.906
X-98.279 Y-69.922
X-98.137 Y-69.893
X-98.011 Y-69.821
X-97.914 Y-69.713
X-97.788 Y-69.52
X-97.706 Y-69.412
G3 X-97.68 Y-69.355 I-0.129 J0.092
G1 X-97.669 Y-69.308 Z-2.992
X-97.659 Y-69.265 Z-2.97
X-97.651 Y-69.23 Z-2.935
X-97.646 Y-69.208 Z-2.89
X-97.645 Y-69.201 Z-2.841
G0 Z5
X-94.937 Y-53.704
Z-2.682
G1 Z-2.841 F849.6
X-94.933 Y-53.71 Z-2.89
X-94.92 Y-53.729 Z-2.935
X-94.901 Y-53.758 Z-2.97
X-94.876 Y-53.795 Z-2.992
X-94.849 Y-53.836 Z-3
G3 X-94.792 Y-53.811 I0.026 J0.018
G1 X-94.844 Y-53.62
X-94.882 Y-53.489
X-94.931 Y-53.347
X-95.022 Y-53.228
X-95.139 Y-53.133
X-95.27 Y-53.061
X-95.41 Y-53.008
X-95.556 Y-52.972
X-95.704 Y-52.951
X-95.854 Y-52.944
X-96.004 Y-52.949
X-96.157 Y-52.966
X-96.322 Y-52.994
X-96.489 Y-53.035
X-96.671 Y-53.093
X-96.868 Y-53.17
X-97.079 Y-53.269
X-97.287 Y-53.384
X-97.513 Y-53.529
X-97.749 Y-53.704
X-97.997 Y-53.915
X-98.258 Y-54.168
X-98.506 Y-54.444
X-98.773 Y-54.782
X-99.054 Y-55.192
X-99.333 Y-55.663
X-99.594 Y-56.18
X-99.822 Y-56.712
X-100.023 Y-57.254
X-100.201 Y-57.805
X-100.36 Y-58.361
X-100.502 Y-58.922
X-100.628 Y-59.487
X-100.737 Y-60.055
X-100.83 Y-60.627
X-100.907 Y-61.2
X-100.969 Y-61.775
X-101.014 Y-62.352
X-101.043 Y-62.93
X-101.057 Y-63.509
X-101.054 Y-64.087
X-101.035 Y-64.666
X-101 Y-65.243
X-100.948 Y-65.82
X-100.879 Y-66.394
X-100.789 Y-66.966
X-100.681 Y-67.472
X-100.56 Y-67.899
X-100.425 Y-68.278
X-100.28 Y-68.611
X-100.133 Y-68.896
X-99.991 Y-69.133
X-99.846 Y-69.341
X-99.699 Y-69.525
X-99.556 Y-69.682
X-99.422 Y-69.81
X-99.293 Y-69.918
X-99.166 Y-70.01
X-99.039 Y-70.091
X-98.907 Y-70.16
X-98.768 Y-70.218
X-98.624 Y-70.259
X-98.565 Y-70.268
X-98.416 Y-70.267
X-98.275 Y-70.218
X-98.157 Y-70.127
X-98.075 Y-70.003
X-98.053 Y-69.953
X-98.032 Y-69.914
X-97.958 Y-69.782
X-97.914 Y-69.713
G3 X-97.893 Y-69.655 I-0.136 J0.082
G1 X-97.886 Y-69.606 Z-2.992
X-97.88 Y-69.562 Z-2.97
X-97.874 Y-69.528 Z-2.935
X-97.871 Y-69.505 Z-2.89
X-97.87 Y-69.498 Z-2.841
G0 Z5
X-95.028 Y-53.383
Z-2.682
G1 Z-2.841 F849.6
X-95.024 Y-53.389 Z-2.89
X-95.011 Y-53.408 Z-2.935
X-94.991 Y-53.437 Z-2.97
X-94.966 Y-53.474 Z-2.992
X-94.939 Y-53.514 Z-3
G3 X-94.882 Y-53.489 I0.026 J0.018
G1 X-94.959 Y-53.226
X-94.993 Y-53.121
X-95.045 Y-52.981
X-95.139 Y-52.864
X-95.257 Y-52.77
X-95.387 Y-52.697
X-95.527 Y-52.642
X-95.672 Y-52.603
X-95.82 Y-52.579
X-95.969 Y-52.567
X-96.119
X-96.273 Y-52.578
X-96.445 Y-52.601
X-96.629 Y-52.639
X-96.816 Y-52.69
X-97.019 Y-52.761
X-97.238 Y-52.854
X-97.473 Y-52.972
X-97.705 Y-53.109
X-97.949 Y-53.277
X-98.212 Y-53.483
X-98.481 Y-53.725
X-98.76 Y-54.012
X-99.051 Y-54.354
X-99.324 Y-54.722
X-99.611 Y-55.167
X-99.891 Y-55.673
X-100.139 Y-56.196
X-100.357 Y-56.732
X-100.551 Y-57.277
X-100.724 Y-57.829
X-100.879 Y-58.387
X-101.017 Y-58.949
X-101.139 Y-59.514
X-101.244 Y-60.083
X-101.335 Y-60.655
X-101.41 Y-61.229
X-101.469 Y-61.804
X-101.512 Y-62.381
X-101.54 Y-62.959
X-101.553 Y-63.538
X-101.549 Y-64.117
X-101.53 Y-64.695
X-101.495 Y-65.273
X-101.443 Y-65.849
X-101.375 Y-66.424
X-101.285 Y-66.995
X-101.173 Y-67.524
X-101.04 Y-67.994
X-100.892 Y-68.41
X-100.735 Y-68.772
X-100.582 Y-69.068
X-100.423 Y-69.333
X-100.26 Y-69.568
X-100.095 Y-69.774
X-99.935 Y-69.949
X-99.781 Y-70.097
X-99.632 Y-70.222
X-99.488 Y-70.327
X-99.357 Y-70.409
X-99.226 Y-70.481
X-99.089 Y-70.543
X-98.947 Y-70.592
X-98.802 Y-70.628
X-98.648 Y-70.643
X-98.471 Y-70.604
X-98.322 Y-70.499
X-98.226 Y-70.344
X-98.213 Y-70.308
X-98.075 Y-70.003
G3 X-98.063 Y-69.942 I-0.147 J0.06
G1 Y-69.893 Z-2.992
Y-69.849 Z-2.97
X-98.064 Y-69.813 Z-2.935
Y-69.791 Z-2.89
Y-69.783 Z-2.841
G0 Z5
X-95.142 Y-53.02
Z-2.682
G1 Z-2.841 F849.6
X-95.138 Y-53.026 Z-2.89
X-95.124 Y-53.045 Z-2.935
X-95.104 Y-53.073 Z-2.97
X-95.078 Y-53.109 Z-2.992
X-95.049 Y-53.149 Z-3
G3 X-94.993 Y-53.121 I0.026 J0.019
G1 X-95.086 Y-52.832
X-95.111 Y-52.76
X-95.166 Y-52.62
X-95.259 Y-52.502
X-95.374 Y-52.406
X-95.503 Y-52.33
X-95.642 Y-52.272
X-95.785 Y-52.229
X-95.933 Y-52.201
X-96.082 Y-52.185
X-96.232 Y-52.18
X-96.391 Y-52.185
X-96.568 Y-52.203
X-96.756 Y-52.235
X-96.951 Y-52.281
X-97.167 Y-52.348
X-97.398 Y-52.437
X-97.643 Y-52.55
X-97.885 Y-52.682
X-98.143 Y-52.846
X-98.418 Y-53.047
X-98.706 Y-53.289
X-99.008 Y-53.579
X-99.309 Y-53.909
X-99.603 Y-54.278
X-99.891 Y-54.693
X-100.189 Y-55.189
X-100.454 Y-55.704
X-100.689 Y-56.233
X-100.898 Y-56.773
X-101.085 Y-57.32
X-101.252 Y-57.874
X-101.402 Y-58.433
X-101.535 Y-58.996
X-101.653 Y-59.563
X-101.755 Y-60.132
X-101.842 Y-60.704
X-101.914 Y-61.279
X-101.97 Y-61.855
X-102.012 Y-62.432
X-102.038 Y-63.01
X-102.048 Y-63.588
X-102.044 Y-64.167
X-102.023 Y-64.745
X-101.988 Y-65.323
X-101.936 Y-65.899
X-101.868 Y-66.474
X-101.778 Y-67.046
X-101.66 Y-67.597
X-101.519 Y-68.096
X-101.361 Y-68.542
X-101.194 Y-68.927
X-101.022 Y-69.261
X-100.85 Y-69.547
X-100.673 Y-69.802
X-100.493 Y-70.028
X-100.313 Y-70.225
X-100.136 Y-70.395
X-99.97 Y-70.534
X-99.808 Y-70.653
X-99.655 Y-70.749
X-99.508 Y-70.829
X-99.372 Y-70.892
X-99.232 Y-70.945
X-99.088 Y-70.988
X-98.94 Y-71.014
X-98.791 Y-71.024
X-98.753 Y-71.022
X-98.578 Y-70.974
X-98.434 Y-70.861
X-98.346 Y-70.702
X-98.262 Y-70.439
X-98.226 Y-70.344
G3 X-98.218 Y-70.282 I-0.151 J0.05
G1 X-98.222 Y-70.234 Z-2.992
X-98.225 Y-70.189 Z-2.97
X-98.227 Y-70.154 Z-2.935
X-98.229 Y-70.132 Z-2.89
X-98.23 Y-70.124 Z-2.841
G0 Z5
X-95.262 Y-52.662
Z-2.682
G1 Z-2.841 F849.6
X-95.258 Y-52.668 Z-2.89
X-95.244 Y-52.686 Z-2.935
X-95.223 Y-52.714 Z-2.97
X-95.196 Y-52.749 Z-2.992
X-95.166 Y-52.788 Z-3
G3 X-95.111 Y-52.76 I0.025 J0.019
G1 X-95.131 Y-52.701
X-95.253 Y-52.365
X-95.311 Y-52.227
X-95.406 Y-52.111
X-95.523 Y-52.017
X-95.653 Y-51.942
X-95.791 Y-51.884
X-95.935 Y-51.841
X-96.082 Y-51.812
X-96.231 Y-51.794
X-96.385 Y-51.787
X-96.546 Y-51.79
X-96.73 Y-51.806
X-96.933 Y-51.837
X-97.138 Y-51.882
X-97.362 Y-51.948
X-97.603 Y-52.036
X-97.86 Y-52.15
X-98.133 Y-52.294
X-98.401 Y-52.458
X-98.688 Y-52.661
X-98.994 Y-52.91
X-99.311 Y-53.205
X-99.629 Y-53.543
X-99.946 Y-53.927
X-100.265 Y-54.373
X-100.571 Y-54.864
X-100.843 Y-55.375
X-101.085 Y-55.9
X-101.302 Y-56.437
X-101.496 Y-56.982
X-101.67 Y-57.534
X-101.826 Y-58.091
X-101.966 Y-58.653
X-102.09 Y-59.218
X-102.199 Y-59.786
X-102.293 Y-60.357
X-102.372 Y-60.931
X-102.437 Y-61.506
X-102.486 Y-62.082
X-102.52 Y-62.66
X-102.54 Y-63.238
X-102.544 Y-63.817
X-102.533 Y-64.396
X-102.508 Y-64.974
X-102.467 Y-65.551
X-102.41 Y-66.127
X-102.334 Y-66.701
X-102.235 Y-67.271
X-102.105 Y-67.834
X-101.951 Y-68.347
X-101.779 Y-68.804
X-101.6 Y-69.199
X-101.42 Y-69.535
X-101.23 Y-69.839
X-101.034 Y-70.112
X-100.833 Y-70.354
X-100.634 Y-70.565
X-100.44 Y-70.745
X-100.256 Y-70.893
X-100.078 Y-71.019
X-99.904 Y-71.125
X-99.741 Y-71.21
X-99.59 Y-71.277
X-99.445 Y-71.33
X-99.301 Y-71.372
X-99.154 Y-71.402
X-99.005 Y-71.415
X-98.855 Y-71.414
X-98.812 Y-71.407
X-98.64 Y-71.345
X-98.507 Y-71.22
X-98.432 Y-71.054
X-98.382 Y-70.833
X-98.346 Y-70.702
G3 X-98.343 Y-70.64 I-0.154 J0.037
G1 X-98.351 Y-70.592 Z-2.992
X-98.357 Y-70.548 Z-2.97
X-98.363 Y-70.513 Z-2.935
X-98.366 Y-70.491 Z-2.89
X-98.367 Y-70.483 Z-2.841
G0 Z5
X-95.406 Y-52.27
Z-2.682
G1 Z-2.841 F849.6
X-95.401 Y-52.276 Z-2.89
X-95.387 Y-52.294 Z-2.935
X-95.366 Y-52.322 Z-2.97
X-95.338 Y-52.356 Z-2.992
X-95.308 Y-52.395 Z-3
G3 X-95.253 Y-52.365 I0.025 J0.02
G1 X-95.293 Y-52.257
X-95.325 Y-52.175
X-95.415 Y-51.957
X-95.479 Y-51.821
X-95.577 Y-51.708
X-95.696 Y-51.616
X-95.827 Y-51.543
X-95.966 Y-51.487
X-96.11 Y-51.445
X-96.257 Y-51.415
X-96.406 Y-51.398
X-96.568 Y-51.39
X-96.736 Y-51.392
X-96.927 Y-51.408
X-97.14 Y-51.44
X-97.358 Y-51.487
X-97.593 Y-51.555
X-97.851 Y-51.649
X-98.124 Y-51.769
X-98.413 Y-51.919
X-98.707 Y-52.098
X-99.006 Y-52.308
X-99.329 Y-52.569
X-99.662 Y-52.877
X-100 Y-53.233
X-100.341 Y-53.645
X-100.677 Y-54.108
X-100.984 Y-54.598
X-101.259 Y-55.107
X-101.506 Y-55.63
X-101.728 Y-56.165
X-101.926 Y-56.709
X-102.105 Y-57.259
X-102.266 Y-57.815
X-102.411 Y-58.375
X-102.539 Y-58.939
X-102.653 Y-59.507
X-102.752 Y-60.077
X-102.837 Y-60.649
X-102.907 Y-61.224
X-102.962 Y-61.8
X-103.003 Y-62.377
X-103.029 Y-62.955
X-103.04 Y-63.534
X-103.037 Y-64.112
X-103.019 Y-64.691
X-102.986 Y-65.269
X-102.938 Y-65.845
X-102.872 Y-66.42
X-102.787 Y-66.993
X-102.676 Y-67.561
X-102.534 Y-68.121
X-102.366 Y-68.64
X-102.181 Y-69.104
X-101.99 Y-69.502
X-101.794 Y-69.851
X-101.586 Y-70.168
X-101.371 Y-70.454
X-101.153 Y-70.707
X-100.936 Y-70.927
X-100.721 Y-71.118
X-100.516 Y-71.277
X-100.32 Y-71.409
X-100.129 Y-71.52
X-99.946 Y-71.611
X-99.779 Y-71.681
X-99.623 Y-71.734
X-99.471 Y-71.775
X-99.324 Y-71.804
X-99.175 Y-71.821
X-99.025
X-98.875 Y-71.807
X-98.849 Y-71.8
X-98.689 Y-71.726
X-98.568 Y-71.596
X-98.505 Y-71.431
X-98.47 Y-71.228
X-98.432 Y-71.054
G3 X-98.433 Y-70.992 I-0.156 J0.03
G1 X-98.443 Y-70.944 Z-2.992
X-98.452 Y-70.9 Z-2.97
X-98.459 Y-70.866 Z-2.935
X-98.463 Y-70.844 Z-2.89
X-98.465 Y-70.836 Z-2.841
G0 Z5
X-95.572 Y-51.868
Z-2.682
G1 Z-2.841 F849.6
X-95.567 Y-51.874 Z-2.89
X-95.553 Y-51.891 Z-2.935
X-95.53 Y-51.918 Z-2.97
X-95.501 Y-51.952 Z-2.992
X-95.469 Y-51.989 Z-3
G3 X-95.415 Y-51.957 I0.024 J0.021
G1 X-95.434 Y-51.912
X-95.491 Y-51.781
X-95.598 Y-51.542
X-95.666 Y-51.408
X-95.768 Y-51.298
X-95.888 Y-51.209
X-96.021 Y-51.139
X-96.161 Y-51.084
X-96.305 Y-51.043
X-96.452 Y-51.015
X-96.606 Y-50.997
X-96.772 Y-50.989
X-96.949 Y-50.992
X-97.149 Y-51.01
X-97.373 Y-51.044
X-97.6 Y-51.094
X-97.85 Y-51.167
X-98.125 Y-51.267
X-98.418 Y-51.397
X-98.725 Y-51.558
X-99.034 Y-51.747
X-99.352 Y-51.972
X-99.693 Y-52.249
X-100.046 Y-52.577
X-100.406 Y-52.959
X-100.766 Y-53.396
X-101.104 Y-53.866
X-101.411 Y-54.356
X-101.688 Y-54.864
X-101.938 Y-55.386
X-102.162 Y-55.92
X-102.365 Y-56.462
X-102.548 Y-57.011
X-102.713 Y-57.566
X-102.861 Y-58.125
X-102.994 Y-58.688
X-103.111 Y-59.255
X-103.215 Y-59.824
X-103.304 Y-60.396
X-103.378 Y-60.97
X-103.438 Y-61.545
X-103.484 Y-62.122
X-103.516 Y-62.7
X-103.534 Y-63.278
X-103.537 Y-63.857
X-103.525 Y-64.436
X-103.499 Y-65.014
X-103.459 Y-65.591
X-103.402 Y-66.167
X-103.327 Y-66.741
X-103.23 Y-67.311
X-103.107 Y-67.876
X-102.951 Y-68.434
X-102.769 Y-68.957
X-102.572 Y-69.422
X-102.364 Y-69.833
X-102.15 Y-70.195
X-101.926 Y-70.521
X-101.693 Y-70.816
X-101.456 Y-71.079
X-101.219 Y-71.31
X-100.986 Y-71.508
X-100.756 Y-71.678
X-100.539 Y-71.818
X-100.334 Y-71.931
X-100.134 Y-72.026
X-99.944 Y-72.1
X-99.772 Y-72.154
X-99.612 Y-72.193
X-99.457 Y-72.22
X-99.308 Y-72.236
X-99.158 Y-72.24
X-99.009 Y-72.226
X-98.941 Y-72.213
X-98.772 Y-72.142
X-98.643 Y-72.011
X-98.576 Y-71.841
X-98.505 Y-71.431
G3 X-98.509 Y-71.369 I-0.157 J0.021
G1 X-98.521 Y-71.322 Z-2.992
X-98.533 Y-71.279 Z-2.97
X-98.542 Y-71.245 Z-2.935
X-98.547 Y-71.223 Z-2.89
X-98.549 Y-71.216 Z-2.841
G0 Z5
X-95.758 Y-51.458
Z-2.682
G1 Z-2.841 F849.6
X-95.752 Y-51.464 Z-2.89
X-95.737 Y-51.48 Z-2.935
X-95.714 Y-51.506 Z-2.97
X-95.684 Y-51.539 Z-2.992
X-95.651 Y-51.575 Z-3
G3 X-95.598 Y-51.542 I0.023 J0.021
G1 X-95.669 Y-51.387
X-95.733 Y-51.255
X-95.798 Y-51.124
X-95.872 Y-50.993
X-95.976 Y-50.886
X-96.099 Y-50.799
X-96.233 Y-50.731
X-96.373 Y-50.678
X-96.518 Y-50.639
X-96.665 Y-50.612
X-96.825 Y-50.594
X-96.993 Y-50.587
X-97.178 Y-50.592
X-97.388 Y-50.611
X-97.621 Y-50.647
X-97.857 Y-50.701
X-98.124 Y-50.781
X-98.418 Y-50.89
X-98.728 Y-51.03
X-99.052 Y-51.202
X-99.369 Y-51.399
X-99.711 Y-51.644
X-100.073 Y-51.942
X-100.449 Y-52.295
X-100.83 Y-52.704
X-101.196 Y-53.152
X-101.531 Y-53.624
X-101.838 Y-54.114
X-102.117 Y-54.621
X-102.369 Y-55.142
X-102.597 Y-55.674
X-102.803 Y-56.215
X-102.989 Y-56.763
X-103.158 Y-57.316
X-103.31 Y-57.875
X-103.447 Y-58.437
X-103.569 Y-59.003
X-103.676 Y-59.571
X-103.769 Y-60.142
X-103.848 Y-60.716
X-103.913 Y-61.291
X-103.964 Y-61.867
X-104.001 Y-62.445
X-104.025 Y-63.023
X-104.034 Y-63.601
X-104.029 Y-64.18
X-104.009 Y-64.758
X-103.976 Y-65.336
X-103.927 Y-65.913
X-103.862 Y-66.488
X-103.777 Y-67.06
X-103.668 Y-67.629
X-103.533 Y-68.191
X-103.366 Y-68.745
X-103.171 Y-69.27
X-102.958 Y-69.744
X-102.733 Y-70.169
X-102.497 Y-70.55
X-102.255 Y-70.888
X-102.007 Y-71.19
X-101.752 Y-71.461
X-101.496 Y-71.701
X-101.241 Y-71.908
X-100.993 Y-72.085
X-100.75 Y-72.234
X-100.521 Y-72.355
X-100.307 Y-72.45
X-100.1 Y-72.527
X-99.905 Y-72.584
X-99.729 Y-72.623
X-99.567 Y-72.648
X-99.417 Y-72.662
X-99.267 Y-72.663
X-99.118 Y-72.65
X-98.97 Y-72.624
X-98.966 Y-72.622
X-98.826 Y-72.547
X-98.72 Y-72.429
X-98.661 Y-72.281
X-98.632 Y-72.147
X-98.607 Y-72.016
X-98.576 Y-71.841
G3 X-98.58 Y-71.779 I-0.157 J0.022
G1 X-98.592 Y-71.731 Z-2.992
X-98.603 Y-71.688 Z-2.97
X-98.612 Y-71.654 Z-2.935
X-98.618 Y-71.633 Z-2.89
X-98.62 Y-71.625 Z-2.841
G0 Z5
X-95.961 Y-51.046
Z-2.682
G1 Z-2.841 F849.6
X-95.956 Y-51.052 Z-2.89
X-95.94 Y-51.068 Z-2.935
X-95.915 Y-51.093 Z-2.97
X-95.884 Y-51.124 Z-2.992
X-95.849 Y-51.159 Z-3
G3 X-95.798 Y-51.124 I0.022 J0.022
G1 X-95.864 Y-50.992
X-96.028 Y-50.69
X-96.106 Y-50.562
X-96.216 Y-50.46
X-96.341 Y-50.378
X-96.477 Y-50.314
X-96.619 Y-50.265
X-96.764 Y-50.229
X-96.912 Y-50.204
X-97.078 Y-50.189
X-97.254 Y-50.184
X-97.446 Y-50.192
X-97.668 Y-50.216
X-97.913 Y-50.259
X-98.163 Y-50.32
X-98.448 Y-50.409
X-98.759 Y-50.531
X-99.085 Y-50.684
X-99.43 Y-50.874
X-99.77 Y-51.093
X-100.13 Y-51.36
X-100.515 Y-51.686
X-100.913 Y-52.072
X-101.3 Y-52.502
X-101.66 Y-52.955
X-101.991 Y-53.43
X-102.295 Y-53.922
X-102.572 Y-54.43
X-102.824 Y-54.951
X-103.052 Y-55.483
X-103.26 Y-56.023
X-103.448 Y-56.571
X-103.618 Y-57.123
X-103.773 Y-57.681
X-103.912 Y-58.243
X-104.036 Y-58.808
X-104.146 Y-59.376
X-104.242 Y-59.947
X-104.324 Y-60.52
X-104.393 Y-61.094
X-104.448 Y-61.67
X-104.489 Y-62.248
X-104.516 Y-62.826
X-104.529 Y-63.404
Y-63.983
X-104.515 Y-64.561
X-104.487 Y-65.139
X-104.444 Y-65.716
X-104.385 Y-66.292
X-104.309 Y-66.866
X-104.211 Y-67.436
X-104.089 Y-68.002
X-103.939 Y-68.561
X-103.757 Y-69.11
X-103.546 Y-69.638
X-103.315 Y-70.12
X-103.069 Y-70.556
X-102.815 Y-70.946
X-102.555 Y-71.29
X-102.288 Y-71.6
X-102.013 Y-71.878
X-101.737 Y-72.123
X-101.46 Y-72.337
X-101.189 Y-72.52
X-100.927 Y-72.672
X-100.675 Y-72.797
X-100.442 Y-72.894
X-100.22 Y-72.97
X-100.012 Y-73.025
X-99.824 Y-73.062
X-99.651 Y-73.085
X-99.486 Y-73.095
X-99.336 Y-73.094
X-99.187 Y-73.079
X-99.117 Y-73.065
X-98.958 Y-73
X-98.833 Y-72.881
X-98.762 Y-72.724
X-98.71 Y-72.512
X-98.661 Y-72.281
G3 X-98.662 Y-72.219 I-0.156 J0.028
G1 X-98.673 Y-72.171 Z-2.992
X-98.682 Y-72.128 Z-2.97
X-98.69 Y-72.094 Z-2.935
X-98.695 Y-72.072 Z-2.89
X-98.696 Y-72.064 Z-2.841
G0 Z5
X-96.193 Y-50.618
Z-2.682
G1 Z-2.841 F849.6
X-96.188 Y-50.624 Z-2.89
X-96.171 Y-50.639 Z-2.935
X-96.146 Y-50.663 Z-2.97
X-96.113 Y-50.693 Z-2.992
X-96.078 Y-50.727 Z-3
G3 X-96.028 Y-50.69 I0.022 J0.023
G1 X-96.081 Y-50.591
X-96.152 Y-50.467
X-96.274 Y-50.263
X-96.358 Y-50.139
X-96.47 Y-50.04
X-96.598 Y-49.961
X-96.735 Y-49.9
X-96.878 Y-49.854
X-97.024 Y-49.821
X-97.173 Y-49.799
X-97.345 Y-49.785
X-97.521 Y-49.783
X-97.724 Y-49.794
X-97.959 Y-49.822
X-98.202 Y-49.868
X-98.472 Y-49.938
X-98.775 Y-50.038
X-99.105 Y-50.173
X-99.452 Y-50.341
X-99.797 Y-50.538
X-100.157 Y-50.777
X-100.548 Y-51.074
X-100.957 Y-51.432
X-101.367 Y-51.841
X-101.749 Y-52.276
X-102.104 Y-52.732
X-102.433 Y-53.209
X-102.735 Y-53.702
X-103.012 Y-54.21
X-103.265 Y-54.731
X-103.496 Y-55.262
X-103.705 Y-55.801
X-103.896 Y-56.347
X-104.07 Y-56.899
X-104.227 Y-57.456
X-104.369 Y-58.017
X-104.497 Y-58.582
X-104.61 Y-59.149
X-104.71 Y-59.719
X-104.796 Y-60.291
X-104.868 Y-60.865
X-104.927 Y-61.441
X-104.972 Y-62.018
X-105.004 Y-62.596
X-105.023 Y-63.174
X-105.028 Y-63.753
X-105.019 Y-64.332
X-104.997 Y-64.91
X-104.96 Y-65.487
X-104.909 Y-66.064
X-104.841 Y-66.638
X-104.754 Y-67.21
X-104.645 Y-67.779
X-104.511 Y-68.342
X-104.349 Y-68.897
X-104.156 Y-69.443
X-103.931 Y-69.976
X-103.683 Y-70.469
X-103.419 Y-70.918
X-103.144 Y-71.32
X-102.86 Y-71.682
X-102.569 Y-72.006
X-102.277 Y-72.291
X-101.983 Y-72.542
X-101.688 Y-72.762
X-101.397 Y-72.951
X-101.114 Y-73.108
X-100.84 Y-73.237
X-100.579 Y-73.34
X-100.342 Y-73.415
X-100.118 Y-73.47
X-99.912 Y-73.507
X-99.729 Y-73.527
X-99.579 Y-73.533
X-99.43 Y-73.529
X-99.281 Y-73.512
X-99.231 Y-73.502
X-99.078 Y-73.439
X-98.957 Y-73.327
X-98.884 Y-73.179
X-98.815 Y-72.936
X-98.762 Y-72.724
G3 X-98.761 Y-72.662 I-0.155 J0.033
G1 X-98.77 Y-72.614 Z-2.992
X-98.778 Y-72.57 Z-2.97
X-98.785 Y-72.536 Z-2.935
X-98.789 Y-72.514 Z-2.89
X-98.79 Y-72.506 Z-2.841
G0 Z5
X-96.443 Y-50.199
Z-2.682
G1 Z-2.841 F849.6
X-96.437 Y-50.204 Z-2.89
X-96.42 Y-50.219 Z-2.935
X-96.393 Y-50.242 Z-2.97
X-96.36 Y-50.271 Z-2.992
X-96.322 Y-50.302 Z-3
G3 X-96.274 Y-50.263 I0.021 J0.024
G1 X-96.344 Y-50.146
X-96.39 Y-50.073
X-96.545 Y-49.836
X-96.634 Y-49.715
X-96.749 Y-49.62
X-96.879 Y-49.545
X-97.018 Y-49.487
X-97.161 Y-49.444
X-97.308 Y-49.414
X-97.458 Y-49.394
X-97.634 Y-49.383
X-97.813 Y-49.384
X-98.025 Y-49.399
X-98.27 Y-49.433
X-98.518 Y-49.484
X-98.806 Y-49.564
X-99.129 Y-49.677
X-99.472 Y-49.823
X-99.833 Y-50.006
X-100.187 Y-50.216
X-100.575 Y-50.483
X-100.993 Y-50.812
X-101.422 Y-51.2
X-101.825 Y-51.616
X-102.202 Y-52.055
X-102.553 Y-52.515
X-102.879 Y-52.993
X-103.179 Y-53.487
X-103.456 Y-53.996
X-103.71 Y-54.516
X-103.942 Y-55.046
X-104.153 Y-55.585
X-104.346 Y-56.13
X-104.522 Y-56.681
X-104.682 Y-57.238
X-104.827 Y-57.798
X-104.958 Y-58.361
X-105.074 Y-58.928
X-105.177 Y-59.498
X-105.267 Y-60.069
X-105.343 Y-60.643
X-105.406 Y-61.218
X-105.455 Y-61.795
X-105.492 Y-62.372
X-105.515 Y-62.951
X-105.524 Y-63.529
X-105.521 Y-64.108
X-105.504 Y-64.686
X-105.474 Y-65.264
X-105.429 Y-65.841
X-105.369 Y-66.417
X-105.291 Y-66.99
X-105.193 Y-67.56
X-105.072 Y-68.126
X-104.926 Y-68.686
X-104.753 Y-69.238
X-104.55 Y-69.78
X-104.315 Y-70.309
X-104.052 Y-70.811
X-103.771 Y-71.272
X-103.475 Y-71.691
X-103.168 Y-72.069
X-102.855 Y-72.407
X-102.538 Y-72.707
X-102.223 Y-72.967
X-101.911 Y-73.191
X-101.602 Y-73.385
X-101.297 Y-73.548
X-101.004 Y-73.68
X-100.723 Y-73.786
X-100.457 Y-73.866
X-100.224 Y-73.919
X-100.014 Y-73.953
X-99.825 Y-73.971
X-99.675 Y-73.975
X-99.525 Y-73.968
X-99.376 Y-73.949
X-99.357 Y-73.944
X-99.213 Y-73.883
X-99.098 Y-73.777
X-99.025 Y-73.639
X-98.967 Y-73.461
X-98.927 Y-73.33
X-98.884 Y-73.179
G3 X-98.881 Y-73.117 I-0.154 J0.039
G1 X-98.888 Y-73.068 Z-2.992
X-98.895 Y-73.024 Z-2.97
X-98.9 Y-72.99 Z-2.935
X-98.903 Y-72.967 Z-2.89
X-98.904 Y-72.96 Z-2.841
G0 Z5
X-96.716 Y-49.779
Z-2.682
G1 Z-2.841 F849.6
X-96.71 Y-49.784 Z-2.89
X-96.693 Y-49.798 Z-2.935
X-96.665 Y-49.82 Z-2.97
X-96.63 Y-49.847 Z-2.992
X-96.592 Y-49.878 Z-3
G3 X-96.545 Y-49.836 I0.02 J0.025
G1 X-96.65 Y-49.678
X-96.839 Y-49.416
X-96.933 Y-49.299
X-97.051 Y-49.205
X-97.182 Y-49.133
X-97.322 Y-49.078
X-97.466 Y-49.038
X-97.614 Y-49.011
X-97.768 Y-48.994
X-97.946 Y-48.986
X-98.129 Y-48.99
X-98.35 Y-49.01
X-98.601 Y-49.049
X-98.86 Y-49.108
X-99.164 Y-49.198
X-99.502 Y-49.323
X-99.858 Y-49.483
X-100.224 Y-49.678
X-100.601 Y-49.911
X-101.019 Y-50.209
X-101.46 Y-50.571
X-101.882 Y-50.967
X-102.279 Y-51.388
X-102.651 Y-51.831
X-102.999 Y-52.294
X-103.322 Y-52.773
X-103.622 Y-53.268
X-103.898 Y-53.777
X-104.153 Y-54.297
X-104.386 Y-54.826
X-104.599 Y-55.364
X-104.795 Y-55.909
X-104.973 Y-56.459
X-105.136 Y-57.014
X-105.284 Y-57.574
X-105.417 Y-58.137
X-105.537 Y-58.703
X-105.644 Y-59.272
X-105.737 Y-59.843
X-105.816 Y-60.416
X-105.883 Y-60.991
X-105.937 Y-61.567
X-105.977 Y-62.145
X-106.005 Y-62.723
X-106.019 Y-63.301
X-106.021 Y-63.88
X-106.01 Y-64.458
X-105.985 Y-65.036
X-105.947 Y-65.614
X-105.893 Y-66.19
X-105.824 Y-66.765
X-105.736 Y-67.337
X-105.627 Y-67.905
X-105.496 Y-68.468
X-105.339 Y-69.026
X-105.155 Y-69.574
X-104.942 Y-70.112
X-104.699 Y-70.637
X-104.424 Y-71.147
X-104.125 Y-71.621
X-103.809 Y-72.056
X-103.481 Y-72.45
X-103.145 Y-72.804
X-102.805 Y-73.116
X-102.465 Y-73.39
X-102.128 Y-73.626
X-101.8 Y-73.824
X-101.479 Y-73.991
X-101.164 Y-74.128
X-100.866 Y-74.236
X-100.586 Y-74.316
X-100.334 Y-74.37
X-100.121 Y-74.402
X-99.926 Y-74.417
X-99.776 Y-74.419
X-99.626 Y-74.409
X-99.55 Y-74.398
X-99.395 Y-74.345
X-99.269 Y-74.242
X-99.186 Y-74.101
X-99.096 Y-73.856
X-99.025 Y-73.639
G3 X-99.02 Y-73.577 I-0.153 J0.044
G1 X-99.025 Y-73.528 Z-2.992
X-99.03 Y-73.484 Z-2.97
X-99.034 Y-73.45 Z-2.935
X-99.037 Y-73.427 Z-2.89
X-99.038 Y-73.419 Z-2.841
G0 Z5
X-97.013 Y-49.366
Z-2.682
G1 Z-2.841 F849.6
X-97.007 Y-49.371 Z-2.89
X-96.988 Y-49.384 Z-2.935
X-96.96 Y-49.404 Z-2.97
X-96.924 Y-49.43 Z-2.992
X-96.884 Y-49.459 Z-3
G3 X-96.839 Y-49.416 I0.019 J0.026
G1 X-97.001 Y-49.193
X-97.032 Y-49.153
X-97.135 Y-49.021
X-97.167 Y-48.982
X-97.267 Y-48.87
X-97.389 Y-48.783
X-97.524 Y-48.717
X-97.665 Y-48.667
X-97.811 Y-48.632
X-97.96 Y-48.609
X-98.117 Y-48.597
X-98.304 Y-48.594
X-98.494 Y-48.604
X-98.725 Y-48.631
X-98.991 Y-48.681
X-99.262 Y-48.75
X-99.581 Y-48.855
X-99.932 Y-48.997
X-100.307 Y-49.178
X-100.705 Y-49.404
X-101.099 Y-49.664
X-101.542 Y-50
X-101.979 Y-50.38
X-102.391 Y-50.786
X-102.779 Y-51.215
X-103.144 Y-51.664
X-103.485 Y-52.132
X-103.804 Y-52.615
X-104.099 Y-53.112
X-104.373 Y-53.622
X-104.625 Y-54.143
X-104.857 Y-54.673
X-105.07 Y-55.211
X-105.266 Y-55.756
X-105.445 Y-56.306
X-105.608 Y-56.861
X-105.757 Y-57.42
X-105.892 Y-57.983
X-106.013 Y-58.549
X-106.121 Y-59.118
X-106.216 Y-59.688
X-106.298 Y-60.261
X-106.367 Y-60.836
X-106.423 Y-61.412
X-106.466 Y-61.989
X-106.497 Y-62.567
X-106.515 Y-63.145
X-106.52 Y-63.724
X-106.512 Y-64.302
X-106.491 Y-64.881
X-106.457 Y-65.458
X-106.408 Y-66.035
X-106.345 Y-66.61
X-106.264 Y-67.183
X-106.163 Y-67.753
X-106.041 Y-68.319
X-105.896 Y-68.879
X-105.726 Y-69.432
X-105.529 Y-69.976
X-105.304 Y-70.509
X-105.049 Y-71.029
X-104.764 Y-71.532
X-104.448 Y-72.015
X-104.111 Y-72.462
X-103.761 Y-72.868
X-103.401 Y-73.233
X-103.037 Y-73.556
X-102.672 Y-73.839
X-102.314 Y-74.081
X-101.966 Y-74.283
X-101.626 Y-74.452
X-101.295 Y-74.589
X-100.98 Y-74.697
X-100.688 Y-74.775
X-100.429 Y-74.826
X-100.216 Y-74.854
X-100.049 Y-74.864
X-99.899 Y-74.863
X-99.75 Y-74.851
X-99.717 Y-74.846
X-99.57 Y-74.794
X-99.449 Y-74.697
X-99.367 Y-74.565
X-99.292 Y-74.381
X-99.235 Y-74.236
X-99.186 Y-74.101
G3 X-99.179 Y-74.04 I-0.151 J0.049
G1 X-99.182 Y-73.991 Z-2.992
X-99.186 Y-73.947 Z-2.97
X-99.188 Y-73.912 Z-2.935
X-99.19 Y-73.889 Z-2.89
X-99.191 Y-73.881 Z-2.841
G0 Z5
X-97.343 Y-48.942
Z-2.682
G1 Z-2.841 F849.6
X-97.336 Y-48.946 Z-2.89
X-97.317 Y-48.958 Z-2.935
X-97.288 Y-48.977 Z-2.97
X-97.251 Y-49.001 Z-2.992
X-97.209 Y-49.027 Z-3
G3 X-97.167 Y-48.982 I0.017 J0.027
G1 X-97.349 Y-48.759
X-97.498 Y-48.586
X-97.602 Y-48.478
X-97.723 Y-48.39
X-97.858 Y-48.324
X-98 Y-48.275
X-98.146 Y-48.242
X-98.294 Y-48.22
X-98.459 Y-48.209
X-98.633
X-98.834 Y-48.222
X-99.074 Y-48.253
X-99.317 Y-48.302
X-99.609 Y-48.381
X-99.945 Y-48.496
X-100.308 Y-48.648
X-100.672 Y-48.83
X-101.07 Y-49.063
X-101.51 Y-49.362
X-101.967 Y-49.718
X-102.399 Y-50.103
X-102.808 Y-50.512
X-103.193 Y-50.943
X-103.557 Y-51.394
X-103.898 Y-51.862
X-104.216 Y-52.345
X-104.513 Y-52.841
X-104.789 Y-53.35
X-105.044 Y-53.869
X-105.279 Y-54.398
X-105.496 Y-54.935
X-105.695 Y-55.478
X-105.878 Y-56.027
X-106.046 Y-56.581
X-106.198 Y-57.139
X-106.337 Y-57.701
X-106.462 Y-58.266
X-106.575 Y-58.834
X-106.674 Y-59.404
X-106.761 Y-59.976
X-106.834 Y-60.55
X-106.896 Y-61.125
X-106.944 Y-61.702
X-106.981 Y-62.279
X-107.004 Y-62.858
X-107.015 Y-63.436
X-107.014 Y-64.015
X-107 Y-64.593
X-106.973 Y-65.171
X-106.932 Y-65.749
X-106.877 Y-66.325
X-106.806 Y-66.899
X-106.717 Y-67.471
X-106.609 Y-68.039
X-106.48 Y-68.603
X-106.327 Y-69.162
X-106.15 Y-69.712
X-105.947 Y-70.254
X-105.717 Y-70.785
X-105.459 Y-71.303
X-105.172 Y-71.806
X-104.855 Y-72.29
X-104.509 Y-72.751
X-104.143 Y-73.176
X-103.764 Y-73.562
X-103.378 Y-73.906
X-102.99 Y-74.208
X-102.607 Y-74.468
X-102.229 Y-74.689
X-101.858 Y-74.874
X-101.498 Y-75.024
X-101.168 Y-75.137
X-100.872 Y-75.217
X-100.608 Y-75.27
X-100.38 Y-75.3
X-100.216 Y-75.31
X-100.066
X-99.916 Y-75.298
X-99.909 Y-75.297
X-99.768 Y-75.247
X-99.65 Y-75.155
X-99.568 Y-75.03
X-99.454 Y-74.775
X-99.367 Y-74.565
G3 X-99.358 Y-74.504 I-0.149 J0.055
G1 X-99.36 Y-74.455 Z-2.992
X-99.362 Y-74.411 Z-2.97
X-99.363 Y-74.376 Z-2.935
X-99.364 Y-74.353 Z-2.89
Y-74.345 Z-2.841
G0 Z5
X-97.675 Y-48.552
Z-2.682
G1 Z-2.841 F849.6
X-97.669 Y-48.556 Z-2.89
X-97.649 Y-48.568 Z-2.935
X-97.619 Y-48.586 Z-2.97
X-97.581 Y-48.608 Z-2.992
X-97.539 Y-48.634 Z-3
G3 X-97.498 Y-48.586 I0.016 J0.027
G1 X-97.527 Y-48.553
X-97.698 Y-48.364
X-97.822 Y-48.233
X-97.901 Y-48.151
X-98.01 Y-48.048
X-98.139 Y-47.97
