%
(1001)
(Z0 pocket fillet centre)
(T7  D=16 CR=0 TAPER=45deg - ZMIN=-3.425 - chamfer mill)
G90 G94
G17
G21

(Engrave2)
M9
T7 M6
S6000 M3
G54
M9
G0 X236.787 Y-32.906
Z18
Z5
G1 Z-0.642 F850
X236.16 Y-33.08 Z-0.687
X235.313 Y-33.246 Z-0.736
X234.355 Y-33.374 Z-0.776
X233.972 Y-33.404 Z-0.797
X232.488 Y-33.386 Z-0.97
X231.378 Y-33.236 Z-1.015
X230.603 Y-33.097 Z-1.06
X229.867 Y-32.925 Z-1.112
X229.021 Y-32.657 Z-1.18
X228.548 Y-32.466 Z-1.221
X227.833 Y-32.11 Z-1.268
X227.384 Y-31.843 Z-1.292
X226.766 Y-31.426 Z-1.312
X225.905 Y-30.767 Z-1.333
X224.786 Y-29.83 Z-1.352
X224.099 Y-29.01 Z-1.331
X223.383 Y-28.098 Z-1.303
X222.774 Y-27.213 Z-1.266
X222.42 Y-26.606 Z-1.229
X222.143 Y-26.036 Z-1.185
X221.873 Y-25.348 Z-1.121
X221.619 Y-24.481 Z-1.046
X221.425 Y-23.578 Z-0.982
X221.243 Y-22.374 Z-0.922
X221.202 Y-21.927 Z-0.894
X221.194 Y-20.265 Z-0.701
X221.208 Y-20.062 Z-0.686
X221.362 Y-19.028 Z-0.648
X221.513 Y-18.314 Z-0.608
X221.738 Y-17.558 Z-0.556
X221.978 Y-16.964 Z-0.512
X222.321 Y-16.307 Z-0.473
X222.693 Y-15.723 Z-0.45
X223.044 Y-15.239 Z-0.44
X223.749 Y-14.364
X224.208 Y-13.835 Z-0.451
X225.442 Y-12.86 Z-0.465
X226.09 Y-12.406 Z-0.485
X226.747 Y-12.008 Z-0.52
X227.128 Y-11.812 Z-0.546
X227.751 Y-11.545 Z-0.599
X228.43 Y-11.326 Z-0.654
X229.156 Y-11.156 Z-0.702
X230.027 Y-11.013 Z-0.746
X230.808 Y-10.93 Z-0.783
X232.239 Y-10.944 Z-0.952
X232.54 Y-10.953 Z-0.989
X233.732 Y-11.125 Z-1.041
X234.773 Y-11.337 Z-1.111
X235.477 Y-11.532 Z-1.167
X236.251 Y-11.814 Z-1.232
X236.723 Y-12.028 Z-1.269
X237.443 Y-12.43 Z-1.308
X237.863 Y-12.702 Z-1.323
X238.74 Y-13.346 Z-1.342
X239.645 Y-14.087 Z-1.351
X240.256 Y-14.635 Z-1.344
X241.346 Y-15.94 Z-1.284
X241.969 Y-16.779 Z-1.239
X242.38 Y-17.419 Z-1.199
X242.699 Y-18.011 Z-1.156
X242.972 Y-18.629 Z-1.101
X243.232 Y-19.397 Z-1.034
X243.431 Y-20.183 Z-0.976
X243.615 Y-21.182 Z-0.918
X243.767 Y-22.302 Z-0.871
X243.78 Y-23.453 Z-0.739
X243.633 Y-24.743 Z-0.7
X243.524 Y-25.401 Z-0.672
X243.372 Y-26.068 Z-0.64
X243.161 Y-26.75 Z-0.601
X242.883 Y-27.412 Z-0.558
X242.531 Y-28.065 Z-0.522
X242.112 Y-28.708 Z-0.496
X241.639 Y-29.343 Z-0.48
X240.86 Y-30.29 Z-0.467
X240.54 Y-30.636 Z-0.462
X239.403 Y-31.507 Z-0.486
X238.673 Y-32.004 Z-0.513
X238.138 Y-32.321 Z-0.542
X237.487 Y-32.642 Z-0.588
X236.831 Y-32.892 Z-0.64
X236.787 Y-32.906 Z-0.642
G0 Z8
X187.527 Y-25.355
Z5
G1 Z-0.675 F850
X187.672 Y-24.404 Z-0.712
X187.776 Y-23.434 Z-0.74
Y-22.86 Z-0.802
X187.738 Y-22.108 Z-0.878
X187.568 Y-20.929 Z-0.93
X187.389 Y-20.024 Z-0.988
X187.198 Y-19.302 Z-1.043
X186.93 Y-18.541 Z-1.108
X186.693 Y-18.009 Z-1.156
X186.375 Y-17.42 Z-1.199
X185.94 Y-16.747 Z-1.24
X185.34 Y-15.94 Z-1.284
X184.493 Y-14.918 Z-1.332
X184.123 Y-14.5 Z-1.353
X182.734 Y-13.346 Z-1.342
X181.857 Y-12.702 Z-1.323
X181.285 Y-12.338 Z-1.303
X180.657 Y-12 Z-1.265
X180.121 Y-11.764 Z-1.224
X179.39 Y-11.507 Z-1.159
X178.535 Y-11.283 Z-1.093
X177.63 Y-11.109 Z-1.037
X176.459 Y-10.95 Z-0.979
X175.014 Y-10.928 Z-0.809
X174.589 Y-10.942 Z-0.767
X173.427 Y-11.105 Z-0.718
X172.564 Y-11.289 Z-0.663
X171.95 Y-11.473 Z-0.615
X171.37 Y-11.698 Z-0.567
X170.741 Y-12.008 Z-0.52
X170.084 Y-12.406 Z-0.485
X169.548 Y-12.778 Z-0.466
X168.795 Y-13.356 Z-0.455
X168.099 Y-13.944 Z-0.443
X167.198 Y-15.032 Z-0.439
X166.687 Y-15.723 Z-0.45
X166.316 Y-16.307 Z-0.473
X166.082 Y-16.738 Z-0.496
X165.83 Y-17.297 Z-0.537
X165.6 Y-17.968 Z-0.586
X165.423 Y-18.681 Z-0.63
X165.277 Y-19.516 Z-0.669
X165.188 Y-20.263 Z-0.702
X165.193 Y-21.76 Z-0.875
X165.2 Y-22.067 Z-0.912
X165.36 Y-23.23 Z-0.961
X165.523 Y-24.098 Z-1.017
X165.749 Y-24.979 Z-1.088
X165.891 Y-25.414 Z-1.127
X166.212 Y-26.2 Z-1.197
X166.441 Y-26.656 Z-1.232
X166.896 Y-27.413 Z-1.275
X167.379 Y-28.101 Z-1.304
X168.093 Y-29.01 Z-1.331
X168.78 Y-29.83 Z-1.352
X169.483 Y-30.426 Z-1.34
X170.449 Y-31.197 Z-1.321
X171.14 Y-31.689 Z-1.3
X171.876 Y-32.137 Z-1.266
X172.264 Y-32.339 Z-1.241
X173.015 Y-32.657 Z-1.18
X173.511 Y-32.825 Z-1.139
X174.335 Y-33.041 Z-1.076
X175.373 Y-33.236 Z-1.015
X176.482 Y-33.386 Z-0.97
X177.971 Y-33.404 Z-0.796
X178.461 Y-33.361 Z-0.772
X179.454 Y-33.222 Z-0.729
X180.198 Y-33.069 Z-0.684
X180.825 Y-32.892 Z-0.64
X181.481 Y-32.642 Z-0.588
X181.913 Y-32.437 Z-0.555
X182.456 Y-32.135 Z-0.524
X183.175 Y-31.665 Z-0.493
X184.093 Y-30.982 Z-0.47
X184.65 Y-30.53 Z-0.465
X185.678 Y-29.286 Z-0.48
X186.262 Y-28.481 Z-0.503
X186.616 Y-27.909 Z-0.529
X186.929 Y-27.3 Z-0.564
X187.183 Y-26.67 Z-0.605
X187.377 Y-26.026 Z-0.642
X187.527 Y-25.355 Z-0.675
G0 Z8
X8.687 Y-38.375
Z5
G1 Z-0.003 F850
X8.653 Y-38.422 Z-0.027
X8.515 Y-38.693 Z-0.131
X8.411 Y-39.069 Z-0.246
X8.397 Y-39.293 Z-0.3
X8.418 Y-39.565 Z-0.355
X8.51 Y-39.916 Z-0.419
X8.644 Y-40.245 Z-0.498
X8.736 Y-40.386 Z-0.519
X9.033 Y-40.635 Z-0.538
X9.325 Y-40.789 Z-0.527
X9.631 Y-40.902 Z-0.53
X9.992 Y-40.968 Z-0.535
X10.453 Y-40.992 Z-0.543
X10.779 Y-40.939 Z-0.528
X11.391 Y-40.761 Z-0.555
X11.813 Y-40.596 Z-0.58
X12.129 Y-40.427 Z-0.606
X12.397 Y-40.233 Z-0.633
X12.665 Y-39.974 Z-0.664
X12.969 Y-39.585 Z-0.708
X13.302 Y-39.046 Z-0.773
X13.588 Y-38.459 Z-0.866
X13.665 Y-38.275 Z-0.894
X14.022 Y-37.21 Z-1.011
X14.239 Y-36.416 Z-1.115
X14.424 Y-35.501 Z-1.237
X14.525 Y-34.742 Z-1.319
X14.595 Y-33.864 Z-1.385
X14.651 Y-32.376 Z-1.441
X14.669 Y-7.023 Z-1.459
X14.704 Y-6.334 Z-1.495
X14.789 Y-5.274 Z-1.579
X14.9 Y-4.393 Z-1.69
X14.95 Y-4.049 Z-1.755
X14.554 Y-3.843 Z-1.405
X14.149 Y-3.672 Z-1.09
X13.775 Y-3.557 Z-0.846
X13.429 Y-3.495 Z-0.672
X13.106 Y-3.486 Z-0.566
X12.806 Y-3.527 Z-0.527
X11.8 Y-3.74 Z-0.528
X11.434 Y-3.766 Z-0.546
X10.621 Y-3.779 Z-0.59
X10.093 Y-3.737 Z-0.642
X9.7 Y-3.666 Z-0.688
X9.352 Y-3.543 Z-0.736
X9.126 Y-3.405 Z-0.754
X8.877 Y-3.198 Z-0.784
X8.723 Y-3.011 Z-0.799
X8.595 Y-2.814 Z-0.812
X8.508 Y-2.561 Z-0.787
X8.466 Y-2.394 Z-0.767
X8.473 Y-2.052 Z-0.721
X8.528 Y-1.698 Z-0.674
X8.58 Y-1.58 Z-0.633
X8.756 Y-1.333 Z-0.502
X9.003 Y-1.082 Z-0.361
X9.146 Y-0.969 Z-0.304
X9.41 Y-0.834 Z-0.202
X9.647 Y-0.768 Z-0.102
X9.852 Y-0.788 Z-0.009
X9.862 Y-0.79 Z-0.002
X9.852 Y-0.788 Z-0.009
X9.647 Y-0.768 Z-0.102
X9.41 Y-0.834 Z-0.202
X9.146 Y-0.969 Z-0.304
X9.003 Y-1.082 Z-0.361
X8.756 Y-1.333 Z-0.502
X8.58 Y-1.58 Z-0.633
X8.528 Y-1.698 Z-0.674
X8.473 Y-2.052 Z-0.721
X8.466 Y-2.394 Z-0.767
X8.508 Y-2.561 Z-0.787
X8.595 Y-2.814 Z-0.812
X8.723 Y-3.011 Z-0.799
X8.877 Y-3.198 Z-0.784
X9.126 Y-3.405 Z-0.754
X9.352 Y-3.543 Z-0.736
X9.7 Y-3.666 Z-0.688
X10.093 Y-3.737 Z-0.642
X10.621 Y-3.779 Z-0.59
X11.434 Y-3.766 Z-0.546
X11.8 Y-3.74 Z-0.528
X12.806 Y-3.527 Z-0.527
X13.106 Y-3.486 Z-0.566
X13.429 Y-3.495 Z-0.672
X13.775 Y-3.557 Z-0.846
X14.149 Y-3.672 Z-1.09
X14.554 Y-3.843 Z-1.405
X14.95 Y-4.049 Z-1.755
X15.252 Y-3.734 Z-1.596
X15.741 Y-3.267 Z-1.38
X16.394 Y-2.721 Z-1.152
X17.076 Y-2.217 Z-0.968
X18.15 Y-1.504 Z-0.725
X19.182 Y-0.965 Z-0.598
X19.825 Y-0.663 Z-0.531
X20.608 Y-0.35 Z-0.462
X21.364 Y-0.107 Z-0.432
X22.095 Y0.068
X22.891 Y0.197 Z-0.441
X24.139 Y0.317 Z-0.451
X24.919 Y0.291 Z-0.528
X25.659 Y0.202 Z-0.569
X26.582 Y0.04 Z-0.622
X27.31 Y-0.135 Z-0.682
X27.995 Y-0.357 Z-0.758
X28.504 Y-0.571 Z-0.826
X29.12 Y-0.902 Z-0.921
X29.721 Y-1.312 Z-1.017
X30.235 Y-1.736 Z-1.098
X30.86 Y-2.329 Z-1.196
X31.764 Y-3.296 Z-1.34
X32.164 Y-3.792 Z-1.437
X32.628 Y-4.549 Z-1.518
X33.226 Y-5.587 Z-1.624
X33.58 Y-6.28 Z-1.687
X33.912 Y-7.046 Z-1.74
X34.056 Y-7.447 Z-1.759
X34.289 Y-8.28 Z-1.777
X34.421 Y-8.934 Z-1.781
X34.566 Y-9.938 Z-1.78
X34.697 Y-11.379 Z-1.785
X34.681 Y-12.69 Z-1.699
X34.642 Y-13.329 Z-1.68
X34.52 Y-14.716 Z-1.634
X34.402 Y-15.658 Z-1.59
X34.241 Y-16.608 Z-1.533
X34.022 Y-17.561 Z-1.459
X33.736 Y-18.509 Z-1.37
X33.521 Y-19.106 Z-1.313
X33.132 Y-20.046 Z-1.222
X32.578 Y-21.21 Z-1.115
X31.718 Y-22.839 Z-0.983
X31.216 Y-23.612 Z-0.855
X30.675 Y-24.336 Z-0.774
X30.024 Y-25.141 Z-0.687
X29.491 Y-25.734 Z-0.618
X28.963 Y-26.249 Z-0.559
X28.404 Y-26.714 Z-0.509
X28.054 Y-26.962 Z-0.482
X27.448 Y-27.313 Z-0.444
X26.887 Y-27.568 Z-0.424
X26.079 Y-27.851 Z-0.402
X25.115 Y-28.102 Z-0.387
X23.975 Y-28.332 Z-0.368
X23.414 Y-28.371 Z-0.418
X22.75 Y-28.38 Z-0.507
X22.271 Y-28.304 Z-0.552
X21.699 Y-28.159 Z-0.631
X21.236 Y-27.995 Z-0.689
X20.847 Y-27.786 Z-0.742
X20.431 Y-27.503 Z-0.801
X20.051 Y-27.191 Z-0.874
X19.766 Y-26.86 Z-0.929
X19.54 Y-26.526 Z-0.998
X19.383 Y-26.219 Z-1.055
X19.297 Y-25.963 Z-1.082
X19.203 Y-25.466 Z-1.099
X19.165 Y-25.061 Z-1.115
X19.218 Y-24.517 Z-1.095
X19.287 Y-24.259 Z-1.063
X19.444 Y-23.879 Z-1.002
X19.471 Y-23.823 Z-0.994
X19.723 Y-23.448 Z-0.896
X19.869 Y-23.303 Z-0.823
X20.046 Y-23.176 Z-0.733
X20.276 Y-23.054 Z-0.642
X20.763 Y-22.887 Z-0.437
X21.178 Y-22.808 Z-0.269
X21.5 Y-22.794 Z-0.125
X21.715 Y-22.824 Z-0.001
G0 Z8
X43.032 Y-12.735
Z5
G1 Z-0.001 F850
X43.05 Z-0.018
X43.04 Y-12.744 Z-0.005
X43.05 Y-12.735 Z-0.018
X43.174 Y-12.711 Z-0.087
X44.396 Y-12.596 Z-0.599
X44.707 Z-0.746
X45.343 Y-12.693 Z-1.143
X46.005 Y-12.827 Z-1.597
X46.738 Y-11.582 Z-0.939
X47.383 Y-10.485 Z-0.406
X47.945 Y-9.582 Z-0.003
X47.383 Y-10.485 Z-0.406
X46.738 Y-11.582 Z-0.939
X46.005 Y-12.827 Z-1.597
X46.124 Y-13.335 Z-1.462
X46.2 Y-13.816 Z-1.378
X46.244 Y-14.336 Z-1.33
X46.261 Y-31.414 Z-1.313
X46.255 Y-31.781 Z-1.35
X46.254 Y-32.026 Z-1.408
X45.762 Y-32.374 Z-1.063
X45.356 Y-32.612 Z-0.837
X44.932 Y-32.817 Z-0.656
X43.952 Y-33.232 Z-0.319
X43.539 Y-33.397 Z-0.184
X43.519 Y-33.406 Z-0.175
X43.341 Y-33.497 Z-0.077
X43.259 Y-33.505 Z-0.001
X43.341 Y-33.497 Z-0.077
X43.302 Y-33.553 Z-0.011
X43.341 Y-33.497 Z-0.077
X43.519 Y-33.406 Z-0.175
X43.539 Y-33.397 Z-0.184
X43.952 Y-33.232 Z-0.319
X44.932 Y-32.817 Z-0.656
X45.356 Y-32.612 Z-0.837
X45.762 Y-32.374 Z-1.063
X46.254 Y-32.026 Z-1.408
X46.733 Y-32.381 Z-1.069
X47.125 Y-32.62 Z-0.849
X47.529 Y-32.822 Z-0.673
X48.185 Y-33.102 Z-0.445
X49.014 Y-33.418 Z-0.162
X49.198 Y-33.512 Z-0.063
X49.262 Y-33.518 Z-0.003
X49.198 Y-33.512 Z-0.063
X49.235 Y-33.563 Z-0.003
G0 Z8
X45.79 Y-3.162
Z5
G1 Z-1.082 F850
X46.466 Y-3.456 Z-1.801
X46.493 Y-3.464 Z-1.826
X46.531 Y-3.481 Z-1.863
X46.532
X46.505 Y-3.544 Z-1.804
X46.504 Y-3.545 Z-1.802
X46.209 Y-4.23 Z-1.075
X46.504 Y-3.545 Z-1.802
X46.505 Y-3.544 Z-1.804
X46.532 Y-3.481 Z-1.863
X46.538 Y-3.478 Z-1.865
X46.545 Y-3.434 Z-1.833
X46.566 Y-3.385 Z-1.788
X46.581 Y-3.339 Z-1.743
X46.871 Y-2.686 Z-1.046
X46.581 Y-3.339 Z-1.743
X46.566 Y-3.385 Z-1.788
X46.545 Y-3.434 Z-1.833
X46.538 Y-3.478 Z-1.865
X46.553 Y-3.485 Z-1.857
X46.555 Z-1.855
X46.652 Y-3.527 Z-1.765
X46.674 Y-3.534 Z-1.743
X47.335 Y-3.823 Z-1.039
G0 Z8
X53.74 Y-38.035
Z5
G1 Z-0.003 F850
X53.761 Y-37.997 Z-0.026
X53.818 Y-37.758 Z-0.106
X54.165 Y-36.812 Z-0.323
X54.424 Y-36.254 Z-0.454
X54.79 Y-35.603 Z-0.61
X55.196 Y-34.991 Z-0.785
X55.71 Y-34.302 Z-1.009
X56.374 Y-33.507 Z-1.315
X56.849 Y-33.001 Z-1.535
X57.556 Y-33.276 Z-1.005
X58.171 Y-33.5 Z-0.592
X58.692 Y-33.612 Z-0.334
X59.06 Y-33.688 Z-0.197
X59.349 Y-33.74 Z-0.106
X59.424 Y-33.763 Z-0.073
X59.463 Y-33.79 Z-0.041
X59.484 Y-33.801 Z-0.023
X59.499 Y-33.812 Z-0.006
X59.484 Y-33.801 Z-0.023
X59.463 Y-33.79 Z-0.041
X59.424 Y-33.763 Z-0.073
X59.349 Y-33.74 Z-0.106
X59.06 Y-33.688 Z-0.197
X58.692 Y-33.612 Z-0.334
X58.171 Y-33.5 Z-0.592
X57.556 Y-33.276 Z-1.005
X56.849 Y-33.001 Z-1.535
X56.892 Y-32.474 Z-1.342
X56.987 Y-31.881 Z-1.158
X57.129 Y-31.251 Z-0.991
X57.276 Y-30.807 Z-0.912
X57.732 Y-29.683 Z-0.749
X58.087 Y-28.945 Z-0.675
X58.437 Y-28.328 Z-0.638
X58.934 Y-27.555 Z-0.613
X59.803 Y-26.322 Z-0.597
X60.717 Y-25.115 Z-0.583
X61.424 Y-24.276 Z-0.587
X62.225 Y-23.418 Z-0.591
X62.468 Y-23.175 Z-0.599
X62.623 Y-23.057 Z-0.628
X62.795 Y-22.953 Z-0.68
X62.987 Y-22.851 Z-0.768
X63.189 Y-22.744 Z-0.898
X63.666 Y-22.491 Z-1.299
X63.831 Y-22.692 Z-1.216
X63.975 Y-22.867 Z-1.178
X64.675 Y-23.892
X65.981 Y-25.821 Z-1.188
X67.635 Y-28.149 Z-1.202
X69.225 Y-30.304 Z-1.229
X69.521 Y-30.709 Z-1.245
X69.764 Y-31.09 Z-1.291
X69.979 Y-31.502 Z-1.382
X70.175 Y-31.965 Z-1.521
X69.802 Y-32.308 Z-1.186
X69.341 Y-32.673 Z-0.838
X69.012 Y-32.886 Z-0.64
X68.629 Y-33.08 Z-0.463
X68.203 Y-33.247 Z-0.314
X67.546 Y-33.468 Z-0.112
X67.474 Y-33.5 Z-0.076
X67.473 Z-0.075
X67.402 Y-33.508 Z-0.006
X67.473 Y-33.5 Z-0.075
X67.43 Y-33.559 Z-0.007
X67.473 Y-33.5 Z-0.075
X67.474 Z-0.076
X67.546 Y-33.468 Z-0.112
X68.203 Y-33.247 Z-0.314
X68.629 Y-33.08 Z-0.463
X69.012 Y-32.886 Z-0.64
X69.341 Y-32.673 Z-0.838
X69.802 Y-32.308 Z-1.186
X70.175 Y-31.965 Z-1.521
X71.095 Y-32.385 Z-1.1
X71.983 Y-32.759 Z-0.742
X72.904 Y-33.102 Z-0.432
X74.005 Y-33.475 Z-0.103
X74.171 Y-33.537 Z-0.039
X74.192 Y-33.549 Z-0.024
X74.203 Y-33.564 Z-0.007
X74.192 Y-33.549 Z-0.024
X74.21 Y-33.55 Z-0.007
X74.192 Y-33.549 Z-0.024
X74.171 Y-33.537 Z-0.039
X74.005 Y-33.475 Z-0.103
X72.904 Y-33.102 Z-0.432
X71.983 Y-32.759 Z-0.742
X71.095 Y-32.385 Z-1.1
X70.175 Y-31.965 Z-1.521
X69.979 Y-31.502 Z-1.382
X69.764 Y-31.09 Z-1.291
X69.521 Y-30.709 Z-1.245
X69.225 Y-30.304 Z-1.229
X67.635 Y-28.149 Z-1.202
X65.981 Y-25.821 Z-1.188
X64.675 Y-23.892 Z-1.178
X63.975 Y-22.867
X63.831 Y-22.692 Z-1.216
X63.666 Y-22.491 Z-1.299
X63.633 Y-22.079 Z-1.272
X63.449 Y-21.835 Z-1.152
X63.289 Y-21.624 Z-1.097
X63.153 Y-21.426 Z-1.08
X62.327 Y-20.028 Z-1.068
X61.545 Y-18.621 Z-1.064
X60.87 Y-17.32 Z-1.069
X60.283 Y-16.115 Z-1.094
X59.876 Y-15.197 Z-1.133
X59.448 Y-14.1 Z-1.204
X59.132 Y-13.187 Z-1.264
X58.999 Y-12.69 Z-1.324
X58.928 Y-12.285 Z-1.407
X58.467 Y-12 Z-1.113
X57.879 Y-11.668 Z-0.802
X57.428 Y-11.458 Z-0.613
X56.894 Y-11.254 Z-0.444
X56.314 Y-11.068 Z-0.302
X55.503 Y-10.832 Z-0.092
X55.362 Y-10.791 Z-0.047
X55.336 Y-10.755 Z-0.005
X55.362 Y-10.791 Z-0.047
X55.342 Y-10.794 Z-0.031
X55.315 Y-10.791 Z-0.005
X55.342 Y-10.794 Z-0.031
X55.362 Y-10.791 Z-0.047
X55.503 Y-10.832 Z-0.092
X56.314 Y-11.068 Z-0.302
X56.894 Y-11.254 Z-0.444
X57.428 Y-11.458 Z-0.613
X57.879 Y-11.668 Z-0.802
X58.467 Y-12 Z-1.113
X58.928 Y-12.285 Z-1.407
X59.457 Y-11.829 Z-0.97
X59.858 Y-11.541 Z-0.704
X60.253 Y-11.311 Z-0.501
X60.709 Y-11.094 Z-0.318
X61.284 Y-10.885 Z-0.122
X61.539 Y-10.804 Z-0.036
X61.549 Y-10.798 Z-0.029
X61.566 Y-10.776 Z-0.003
X61.549 Y-10.798 Z-0.029
X61.575 Y-10.796 Z-0.003
X61.549 Y-10.798 Z-0.029
X61.539 Y-10.804 Z-0.036
X61.284 Y-10.885 Z-0.122
X60.709 Y-11.094 Z-0.318
X60.253 Y-11.311 Z-0.501
X59.858 Y-11.541 Z-0.704
X59.457 Y-11.829 Z-0.97
X58.928 Y-12.285 Z-1.407
X58.999 Y-12.69 Z-1.324
X59.132 Y-13.187 Z-1.264
X59.448 Y-14.1 Z-1.204
X59.876 Y-15.197 Z-1.133
X60.283 Y-16.115 Z-1.094
X60.87 Y-17.32 Z-1.069
X61.545 Y-18.621 Z-1.064
X62.327 Y-20.028 Z-1.068
X63.153 Y-21.426 Z-1.08
X63.289 Y-21.624 Z-1.097
X63.449 Y-21.835 Z-1.152
X63.633 Y-22.079 Z-1.272
X63.922 Y-21.891 Z-0.994
X64.172 Y-21.728 Z-0.787
X64.398 Y-21.582 Z-0.647
X64.611 Y-21.443 Z-0.574
X64.78 Y-21.317 Z-0.557
X66.251 Y-19.912 Z-0.625
X67.463 Y-18.694 Z-0.669
X68.641 Y-17.446 Z-0.705
X69.513 Y-16.462 Z-0.722
X70.021 Y-15.836 Z-0.73
X70.569 Y-15.074 Z-0.748
X70.965 Y-14.445 Z-0.788
X71.234 Y-13.946 Z-0.833
X71.552 Y-13.241 Z-0.902
X71.771 Y-12.646 Z-0.95
X71.918 Y-12.115 Z-0.963
X71.958 Y-11.792 Z-0.988
X71.981 Y-11.16 Z-1.059
X71.962 Y-10.888 Z-1.089
X71.877 Y-10.429 Z-1.142
X71.758 Y-10.037 Z-1.202
X71.603 Y-9.698 Z-1.248
X71.349 Y-9.291 Z-1.284
X71.153 Y-9.054 Z-1.327
X70.733 Y-8.731 Z-1.356
X70.522 Y-8.623 Z-1.35
X70.182 Y-8.522 Z-1.31
X69.888 Y-8.465 Z-1.284
X69.411 Y-8.456 Z-1.22
X69.118 Y-8.489 Z-1.168
X68.773 Y-8.587 Z-1.081
X68.494 Y-8.693 Z-1.011
X68.158 Y-8.899 Z-0.902
X67.929 Y-9.091 Z-0.82
X67.76 Y-9.302 Z-0.721
X67.604 Y-9.572 Z-0.609
X67.443 Y-9.953 Z-0.463
X67.369 Y-10.282 Z-0.335
X67.371 Y-10.541 Z-0.21
X67.392 Y-10.898 Z-0.005
G0 Z8
X79.116 Y-12.735
Z5
G1 Z-0.001 F850
X79.134 Z-0.018
X79.124 Y-12.744 Z-0.005
X79.134 Y-12.735 Z-0.018
X79.258 Y-12.711 Z-0.087
X80.48 Y-12.596 Z-0.599
X80.792 Z-0.747
X81.425 Y-12.692 Z-1.142
X82.089 Y-12.827 Z-1.597
X82.823 Y-11.582 Z-0.938
X83.467 Y-10.484 Z-0.405
X84.029 Y-9.582 Z-0.003
X83.467 Y-10.484 Z-0.405
X82.823 Y-11.582 Z-0.938
X82.089 Y-12.827 Z-1.597
X82.185 Y-13.224 Z-1.488
X82.274 Y-13.735 Z-1.389
X82.326 Y-14.292 Z-1.332
X82.344 Y-31.414 Z-1.313
X82.339 Y-31.777 Z-1.349
X82.338 Y-32.026 Z-1.408
X81.846 Y-32.374 Z-1.063
X81.441 Y-32.611 Z-0.838
X81.016 Y-32.817 Z-0.656
X80.036 Y-33.232 Z-0.319
X79.623 Y-33.397 Z-0.184
X79.425 Y-33.497 Z-0.077
X79.386 Y-33.553 Z-0.011
X79.425 Y-33.497 Z-0.077
X79.343 Y-33.505 Z-0.001
X79.425 Y-33.497 Z-0.077
X79.623 Y-33.397 Z-0.184
X80.036 Y-33.232 Z-0.319
X81.016 Y-32.817 Z-0.656
X81.441 Y-32.611 Z-0.838
X81.846 Y-32.374 Z-1.063
X82.338 Y-32.026 Z-1.408
X82.817 Y-32.381 Z-1.069
X83.209 Y-32.62 Z-0.849
X83.611 Y-32.821 Z-0.673
X84.269 Y-33.102 Z-0.445
X85.098 Y-33.418 Z-0.162
X85.282 Y-33.512 Z-0.063
X85.319 Y-33.563 Z-0.003
X85.282 Y-33.512 Z-0.063
X85.346 Y-33.518 Z-0.003
G0 Z8
X81.874 Y-3.161
Z5
G1 Z-1.081 F850
X82.551 Y-3.457 Z-1.802
X82.577 Y-3.464 Z-1.827
X82.615 Y-3.481 Z-1.863
X82.616
X82.589 Y-3.544 Z-1.804
X82.588 Y-3.545 Z-1.802
X82.293 Y-4.23 Z-1.075
X82.588 Y-3.545 Z-1.802
X82.589 Y-3.544 Z-1.804
X82.616 Y-3.481 Z-1.863
X82.622 Y-3.478 Z-1.865
X82.629 Y-3.434 Z-1.833
X82.65 Y-3.385 Z-1.787
X82.664 Y-3.339 Z-1.743
X82.955 Y-2.686 Z-1.046
X82.664 Y-3.339 Z-1.743
X82.65 Y-3.385 Z-1.787
X82.629 Y-3.434 Z-1.833
X82.622 Y-3.478 Z-1.865
X82.637 Y-3.485 Z-1.857
X82.639 Z-1.855
X82.736 Y-3.527 Z-1.765
X82.757 Y-3.534 Z-1.744
X83.417 Y-3.823 Z-1.041
G0 Z8
X96.712 Y-37.266
Z5
G1 Z-0.004 F850
X96.448 Y-37.53 Z-0.176
X96.202 Y-37.717 Z-0.323
X95.783 Y-37.929 Z-0.537
X95.552 Y-38.004 Z-0.635
X95.326 Y-38.051 Z-0.728
X94.98 Y-38.027 Z-0.82
X94.795 Y-37.975 Z-0.849
X94.681 Y-37.93 Z-0.863
X94.469 Y-37.76 Z-0.861
X94.236 Y-37.435 Z-0.826
X94.143 Y-37.214 Z-0.78
X94.064 Y-36.93 Z-0.724
X94.036 Y-36.549 Z-0.65
X94.054 Y-36.2 Z-0.596
X94.112 Y-35.873 Z-0.546
X94.314 Y-35.269 Z-0.481
X94.562 Y-34.735 Z-0.427
X94.908 Y-34.107 Z-0.407
X95.643 Y-32.9 Z-0.405
X96.239 Y-32.018 Z-0.443
X96.419 Y-31.769 Z-0.484
X96.522 Y-31.629 Z-0.554
X96.741 Y-31.332 Z-0.788
X96.987 Y-30.999 Z-1.123
X97.277 Y-30.608 Z-1.559
X97.558 Y-30.808 Z-1.461
X97.979 Y-31.105 Z-1.431
X98.977 Y-31.753 Z-1.436
X99.567 Y-32.073 Z-1.426
X100.289 Y-32.392 Z-1.398
X101.103 Y-32.696 Z-1.355
X101.565 Y-32.824 Z-1.329
X102.527 Y-33.047 Z-1.271
X103.254 Y-33.157 Z-1.22
X104.008 Y-33.223 Z-1.181
X104.525 Y-33.233 Z-1.149
X105.49 Y-33.203 Z-1.079
X106.463 Y-33.098 Z-1.019
X107.137 Y-32.972 Z-0.957
X107.808 Y-32.781 Z-0.878
X108.306 Y-32.595 Z-0.818
X109.068 Y-32.244 Z-0.737
X109.942 Y-31.778 Z-0.656
X110.244 Y-31.581 Z-0.619
X111.025 Y-30.96 Z-0.581
X111.553 Y-30.473 Z-0.542
X111.91 Y-30.079 Z-0.501
X112.298 Y-29.571 Z-0.433
X112.757 Y-28.881 Z-0.329
X113.011 Y-28.466 Z-0.27
X113.072 Y-28.345 Z-0.251
X113.196 Y-28.046 Z-0.172
X113.22 Y-27.972 Z-0.139
X113.219 Y-27.964 Z-0.133
X113.247 Y-27.833 Z-0.002
X113.219 Y-27.964 Z-0.133
X113.186 Y-27.888 Z-0.054
X113.219 Y-27.964 Z-0.133
X113.22 Y-27.972 Z-0.139
X113.337 Y-27.887 Z-0.005
X113.22 Y-27.972 Z-0.139
X113.196 Y-28.046 Z-0.172
X113.072 Y-28.345 Z-0.251
X113.011 Y-28.466 Z-0.27
X112.757 Y-28.881 Z-0.329
X112.298 Y-29.571 Z-0.433
X111.91 Y-30.079 Z-0.501
X111.553 Y-30.473 Z-0.542
X111.025 Y-30.96 Z-0.581
X110.244 Y-31.581 Z-0.619
X109.942 Y-31.778 Z-0.656
X109.068 Y-32.244 Z-0.737
X108.306 Y-32.595 Z-0.818
X107.808 Y-32.781 Z-0.878
X107.137 Y-32.972 Z-0.957
X106.463 Y-33.098 Z-1.019
X105.49 Y-33.203 Z-1.079
X104.525 Y-33.233 Z-1.149
X104.008 Y-33.223 Z-1.181
X103.254 Y-33.157 Z-1.22
X102.527 Y-33.047 Z-1.271
X101.565 Y-32.824 Z-1.329
X101.103 Y-32.696 Z-1.355
X100.289 Y-32.392 Z-1.398
X99.567 Y-32.073 Z-1.426
X98.977 Y-31.753 Z-1.436
X97.979 Y-31.105 Z-1.431
X97.558 Y-30.808 Z-1.461
X97.277 Y-30.608 Z-1.559
X97.179 Y-30.449 Z-1.566
X97.481 Y-30.083 Z-1.144
X97.739 Y-29.771 Z-0.82
X97.969 Y-29.492 Z-0.592
X98.078 Y-29.36 Z-0.52
X98.186 Y-29.23 Z-0.483
X99.771 Y-26.862 Z-0.458
X101.584 Y-24.189
X103.848 Y-20.97 Z-0.481
X105.784 Y-18.296 Z-0.522
X106.402 Y-17.442 Z-0.554
X106.901 Y-16.716 Z-0.612
X107.272 Y-16.128 Z-0.694
X107.61 Y-15.527 Z-0.816
X108.115 Y-14.51 Z-1.084
X108.304 Y-14.005 Z-1.267
X108.513 Y-13.21 Z-1.626
X109.677 Y-12.947 Z-0.926
X110.207 Y-12.79 Z-0.66
X110.952 Y-12.543 Z-0.347
X111.569 Y-12.319 Z-0.131
X112.031 Y-12.157 Z0
X111.569 Y-12.319 Z-0.131
X110.952 Y-12.543 Z-0.347
X110.207 Y-12.79 Z-0.66
X109.677 Y-12.947 Z-0.926
X108.513 Y-13.21 Z-1.626
X108.057 Y-12.686 Z-1.348
X107.666 Y-12.297 Z-1.167
X107.33 Y-12.009 Z-1.054
X106.92 Y-11.713 Z-0.959
X106.43 Y-11.427 Z-0.876
X105.755 Y-11.097 Z-0.791
X105.188 Y-10.902 Z-0.747
X104.498 Y-10.724 Z-0.678
X103.868 Y-10.612 Z-0.625
X103.401 Y-10.565 Z-0.594
X102.516 Y-10.576 Z-0.511
X101.985 Y-10.602 Z-0.473
X100.827 Y-10.778 Z-0.451
X99.975 Y-10.972 Z-0.423
X99.406 Y-11.153 Z-0.402
X98.851 Y-11.387 Z-0.382
X98.316 Y-11.68 Z-0.368
X97.958 Y-11.915 Z-0.367
X97.371 Y-12.362 Z-0.375
X96.883 Y-12.789 Z-0.392
X96.241 Y-13.403 Z-0.426
X95.733 Y-13.924 Z-0.465
X94.88 Y-15.216 Z-0.535
X94.429 Y-15.98 Z-0.583
X94.129 Y-16.559 Z-0.626
X93.838 Y-17.231 Z-0.68
X93.61 Y-17.902 Z-0.735
X93.417 Y-18.687 Z-0.787
X93.263 Y-19.612 Z-0.836
X93.161 Y-20.521 Z-0.869
X93.122 Y-21.166 Z-0.902
Y-22.328 Z-1.003
X93.203 Y-23.118 Z-1.043
X93.336 Y-23.932 Z-1.105
X93.51 Y-24.651 Z-1.167
X93.702 Y-25.26 Z-1.208
X94.042 Y-26.16 Z-1.253
X94.477 Y-27.084 Z-1.31
X94.966 Y-27.937 Z-1.341
X95.395 Y-28.576 Z-1.376
X95.877 Y-29.189 Z-1.404
X96.454 Y-29.844 Z-1.423
X96.71 Y-30.096 Z-1.446
X97.035 Y-30.35 Z-1.518
X97.179 Y-30.449 Z-1.566
G0 Z8
X132.148 Y-14.276
Z5
G1 Z-0.003 F850
X132.096 Y-14.306 Z-0.022
X131.7 Y-14.452 Z-0.149
X131.251 Y-14.556 Z-0.282
X130.843 Y-14.594 Z-0.404
X130.456 Y-14.582 Z-0.529
X130.044 Y-14.507 Z-0.654
X129.696 Y-14.394 Z-0.762
X129.301 Y-14.21 Z-0.897
X129.05 Y-14.047 Z-0.979
X128.682 Y-13.685 Z-1.116
X128.51 Y-13.431 Z-1.168
X128.38 Y-13.194 Z-1.214
X128.304 Y-12.913 Z-1.222
X128.252 Y-12.479 Z-1.221
X128.269 Y-11.988 Z-1.198
X128.356 Y-11.486
X128.451 Y-11.166 Z-1.174
X128.664 Y-10.663 Z-1.118
X128.744 Y-10.504 Z-1.105
X129.051 Y-10.077 Z-1.036
X129.332 Y-9.765 Z-0.999
X129.648 Y-9.487 Z-0.965
X130.133 Y-9.143 Z-0.924
X130.634 Y-8.839 Z-0.887
X131.021 Y-8.656 Z-0.873
X131.549 Y-8.454 Z-0.838
X132.158 Y-8.271 Z-0.796
X132.762 Y-8.143 Z-0.775
X133.461 Y-8.051 Z-0.772
X134.283 Y-8.006 Z-0.771
X134.929 Y-8.024 Z-0.809
X135.261 Z-0.902
X135.609 Z-1.084
X135.989 Z-1.346
X136.418 Z-1.69
X136.452 Y-7.623 Z-1.538
X136.482 Y-7.267 Z-1.472
X136.495 Y-2.043 Z-1.459
Y-1.82 Z-1.473
Y-1.57 Z-1.523
X135.882 Y-1.117 Z-1.088
X135.457 Y-0.853 Z-0.845
X135.016 Y-0.631 Z-0.652
X134.494 Y-0.416 Z-0.476
X133.438 Y-0.026 Z-0.126
X133.233 Y0.046 Z-0.052
X133.226 Y0.053 Z-0.045
X133.201 Y0.091 Z-0.002
X133.226 Y0.053 Z-0.045
X133.233 Y0.046 Z-0.052
X133.225 Y0.042 Z-0.045
X133.207 Y0.035 Z-0.028
X133.197 Y0.029 Z-0.017
X133.183 Y0.018 Z0
X133.197 Y0.029 Z-0.017
X133.207 Y0.035 Z-0.028
X133.225 Y0.042 Z-0.045
X133.233 Y0.046 Z-0.052
X133.438 Y-0.026 Z-0.126
X134.494 Y-0.416 Z-0.476
X135.016 Y-0.631 Z-0.652
X135.457 Y-0.853 Z-0.845
X135.882 Y-1.117 Z-1.088
X136.495 Y-1.57 Z-1.523
X137.117 Y-1.122 Z-1.083
X137.575 Y-0.848 Z-0.822
X138.003 Y-0.642 Z-0.636
X138.549 Y-0.428 Z-0.456
X139.744 Y0.028 Z-0.07
X139.772 Y0.042 Z-0.054
X139.773 Y0.043
X139.789 Y0.044 Z-0.038
X139.825 Y0.049 Z-0.003
X139.789 Y0.044 Z-0.038
X139.773 Y0.043 Z-0.054
X139.806 Y0.086 Z-0.003
X139.773 Y0.043 Z-0.054
X139.772 Y0.042
X139.744 Y0.028 Z-0.07
X138.549 Y-0.428 Z-0.456
X138.003 Y-0.642 Z-0.636
X137.575 Y-0.848 Z-0.822
X137.117 Y-1.122 Z-1.083
X136.495 Y-1.57 Z-1.523
Y-1.82 Z-1.473
Y-2.043 Z-1.459
X136.482 Y-7.267 Z-1.472
X136.452 Y-7.623 Z-1.538
X136.418 Y-8.024 Z-1.69
X136.547 Y-8.268 Z-1.686
X136.522 Y-8.695 Z-1.527
X136.501 Y-9.074 Z-1.465
X136.495 Y-31.437 Z-1.459
Y-31.461
X136.492 Y-31.913 Z-1.521
X137.081 Y-32.349 Z-1.101
X137.504 Y-32.616 Z-0.855
X137.899 Y-32.818 Z-0.678
X138.397 Y-33.024 Z-0.509
X139.467 Y-33.412 Z-0.168
X139.753 Y-33.516 Z-0.063
X139.777 Y-33.5 Z-0.036
X139.785 Y-33.494 Z-0.026
X139.777 Y-33.5 Z-0.036
X139.753 Y-33.516 Z-0.063
X139.783 Y-33.536 Z-0.04
X139.805 Y-33.565 Z-0.006
X139.783 Y-33.536 Z-0.04
X139.812 Y-33.538 Z-0.013
X139.82 Z-0.006
X139.812 Z-0.013
X139.783 Y-33.536 Z-0.04
X139.753 Y-33.516 Z-0.063
X139.467 Y-33.412 Z-0.168
X138.397 Y-33.024 Z-0.509
X137.899 Y-32.818 Z-0.678
X137.504 Y-32.616 Z-0.855
X137.081 Y-32.349 Z-1.101
X136.492 Y-31.913 Z-1.521
X135.868 Y-32.368 Z-1.082
X135.426 Y-32.636 Z-0.831
X134.992 Y-32.849 Z-0.644
X134.464 Y-33.06 Z-0.47
X133.404 Y-33.461 Z-0.121
X133.212 Y-33.528 Z-0.045
X133.183 Y-33.564 Z-0.003
X133.212 Y-33.528 Z-0.045
X133.171 Y-33.517 Z-0.009
X133.212 Y-33.528 Z-0.045
X133.404 Y-33.461 Z-0.121
X134.464 Y-33.06 Z-0.47
X134.992 Y-32.849 Z-0.644
X135.426 Y-32.636 Z-0.831
X135.868 Y-32.368 Z-1.082
X136.492 Y-31.913 Z-1.521
X136.495 Y-31.461 Z-1.459
Y-31.437
X136.501 Y-9.074 Z-1.465
X136.522 Y-8.695 Z-1.527
X136.547 Y-8.268 Z-1.686
X137.213 Z-1.158
X137.501 Z-0.973
X137.777 Z-0.838
X138 Y-8.279 Z-0.761
X138.213 Y-8.312 Z-0.708
X138.552 Y-8.416 Z-0.672
X139.823 Y-8.919
X140.828 Y-9.261 Z-0.674
X141.846 Y-9.551 Z-0.665
X143.11 Y-9.867 Z-0.648
X144.574 Y-10.164 Z-0.625
X145.467 Y-10.296 Z-0.612
X146.516 Y-10.387 Z-0.598
X147.575 Y-10.433 Z-0.583
X148.421 Y-10.423 Z-0.566
X149.399 Y-10.368 Z-0.55
X150.395 Y-10.255 Z-0.543
X150.988 Y-10.152 Z-0.553
X152.052 Y-9.904 Z-0.58
X152.762 Y-9.681 Z-0.589
X153.71 Y-9.32 Z-0.606
X154.014 Y-9.245 Z-0.657
X154.333 Y-9.22 Z-0.763
X154.595 Z-0.894
X154.869 Z-1.073
X155.509 Z-1.585
X155.604 Y-8.757 Z-1.49
X155.635 Y-8.293 Z-1.459
Y-1.82 Z-1.473
Y-1.57 Z-1.523
X156.267 Y-1.114 Z-1.076
X156.71 Y-0.849 Z-0.823
X157.156 Y-0.634 Z-0.63
X157.73 Y-0.408 Z-0.441
X158.811 Y0.009 Z-0.09
X158.859 Y0.027 Z-0.071
X158.88 Y0.038 Z-0.059
X158.89 Y0.043 Z-0.053
X158.923 Y0.087 Z-0.002
X158.89 Y0.043 Z-0.053
X158.895 Z-0.048
X158.907 Y0.044 Z-0.037
X158.943 Y0.049 Z-0.002
X158.907 Y0.044 Z-0.037
X158.895 Y0.043 Z-0.048
X158.89 Z-0.053
X158.88 Y0.038 Z-0.059
X158.859 Y0.027 Z-0.071
X158.811 Y0.009 Z-0.09
X157.73 Y-0.408 Z-0.441
X157.156 Y-0.634 Z-0.63
X156.71 Y-0.849 Z-0.823
X156.267 Y-1.114 Z-1.076
X155.635 Y-1.57 Z-1.523
X155.011 Y-1.109 Z-1.081
X154.598 Y-0.853 Z-0.845
X154.154 Y-0.63 Z-0.651
X153.571 Y-0.392 Z-0.456
X152.577 Y-0.025 Z-0.126
X152.373 Y0.046 Z-0.052
X152.345 Y0.033 Z-0.025
X152.331 Y0.022 Z-0.008
X152.345 Y0.033 Z-0.025
X152.373 Y0.046 Z-0.052
X152.366 Y0.053 Z-0.044
X152.341 Y0.091 Z-0.001
X152.366 Y0.053 Z-0.044
X152.373 Y0.046 Z-0.052
X152.577 Y-0.025 Z-0.126
X153.571 Y-0.392 Z-0.456
X154.154 Y-0.63 Z-0.651
X154.598 Y-0.853 Z-0.845
X155.011 Y-1.109 Z-1.081
X155.635 Y-1.57 Z-1.523
Y-1.82 Z-1.473
Y-8.293 Z-1.459
X155.604 Y-8.757 Z-1.49
X155.509 Y-9.22 Z-1.585
X155.604 Y-9.684 Z-1.49
X155.635 Y-10.148 Z-1.459
X155.633 Y-31.672 Z-1.474
X155.632 Y-31.913 Z-1.521
X155.041 Y-32.346 Z-1.102
X154.605 Y-32.615 Z-0.85
X154.206 Y-32.815 Z-0.672
X153.722 Y-33.015 Z-0.505
X152.508 Y-33.474 Z-0.107
X152.352 Y-33.529 Z-0.044
X152.308 Y-33.517 Z-0.006
X152.306 Z-0.005
X152.308 Z-0.006
X152.352 Y-33.529 Z-0.044
X152.323 Y-33.564 Z-0.002
X152.352 Y-33.529 Z-0.044
X152.508 Y-33.474 Z-0.107
X153.722 Y-33.015 Z-0.505
X154.206 Y-32.815 Z-0.672
X154.605 Y-32.615 Z-0.85
X155.041 Y-32.346 Z-1.102
X155.632 Y-31.913 Z-1.521
X156.253 Y-32.373 Z-1.079
X156.691 Y-32.644 Z-0.831
X157.098 Y-32.847 Z-0.654
X157.634 Y-33.064 Z-0.478
X158.585 Y-33.411 Z-0.169
X158.87 Y-33.515 Z-0.063
X158.901 Y-33.494 Z-0.027
X158.87 Y-33.515 Z-0.063
X158.881 Y-33.523 Z-0.054
X158.899 Y-33.535 Z-0.041
X158.921 Y-33.565 Z-0.007
X158.899 Y-33.535 Z-0.041
X158.916 Y-33.536 Z-0.025
X158.938 Y-33.538 Z-0.004
G0 Z8
X193.425 Y-4.58
Z5
G1 Z-0.008 F850
X193.437 Y-4.564 Z-0.023
X193.441 Y-4.56 Z-0.026
X193.581 Y-4.419 Z-0.092
X194.374 Y-3.761 Z-0.223
X194.744 Y-3.487 Z-0.284
X195.154 Y-3.231 Z-0.382
X195.536 Y-3.063 Z-0.529
X195.881 Y-2.954 Z-0.693
X196.274 Y-2.881 Z-0.917
X196.731 Y-2.852 Z-1.218
X197.221 Y-2.868 Z-1.574
X197.893 Y-1.263 Z-0.947
X198.417 Y-0.008 Z-0.511
X198.925 Y1.134 Z-0.134
X199.041 Y1.369 Z-0.046
Y1.371
X199.046 Y1.381 Z-0.041
X199.049 Y1.384 Z-0.038
X199.06 Y1.399 Z-0.027
X199.083 Y1.433 Z-0.001
X199.06 Y1.399 Z-0.027
X199.049 Y1.384 Z-0.038
X199.046 Y1.381 Z-0.041
X199.041 Y1.371 Z-0.046
Y1.369
X198.925 Y1.134 Z-0.134
X198.417 Y-0.008 Z-0.511
X197.893 Y-1.263 Z-0.947
X197.221 Y-2.868 Z-1.574
X197.242 Y-2.935 Z-1.553
X197.355 Y-3.365 Z-1.439
X197.454 Y-4.055 Z-1.34
X197.464 Y-4.289 Z-1.33
X197.482 Y-31.414 Z-1.313
X197.476 Y-31.795 Z-1.353
X197.474 Y-32.006 Z-1.403
X197.963 Y-32.371 Z-1.057
X198.361 Y-32.616 Z-0.835
X198.808 Y-32.84 Z-0.645
X199.505 Y-33.14 Z-0.41
X200.142 Y-33.382 Z-0.198
X200.169 Y-33.391 Z-0.189
X200.414 Y-33.509 Z-0.066
X200.418 Y-33.512 Z-0.063
X200.452 Y-33.557 Z-0.01
X200.418 Y-33.512 Z-0.063
X200.482 Y-33.517 Z-0.004
X200.418 Y-33.512 Z-0.063
X200.414 Y-33.509 Z-0.066
X200.169 Y-33.391 Z-0.189
X200.142 Y-33.382 Z-0.198
X199.505 Y-33.14 Z-0.41
X198.808 Y-32.84 Z-0.645
X198.361 Y-32.616 Z-0.835
X197.963 Y-32.371 Z-1.057
X197.474 Y-32.006 Z-1.403
X196.982 Y-32.357 Z-1.056
X196.59 Y-32.591 Z-0.835
X196.161 Y-32.803 Z-0.652
X195.255 Y-33.195 Z-0.344
X194.761 Y-33.396 Z-0.185
X194.562 Y-33.497 Z-0.078
X194.52 Y-33.555 Z-0.008
X194.562 Y-33.497 Z-0.078
X194.48 Y-33.505 Z-0.001
G0 Z8
X207.096 Y-4.581
Z5
G1 Z-0.007 F850
X207.107 Y-4.565 Z-0.022
X207.113 Y-4.56 Z-0.027
X207.196 Y-4.47 Z-0.072
X207.251 Y-4.42 Z-0.092
X207.295 Y-4.386 Z-0.102
X208.046 Y-3.761 Z-0.223
X208.422 Y-3.483 Z-0.286
X208.826 Y-3.231 Z-0.382
X209.21 Y-3.062 Z-0.53
X209.545 Y-2.956 Z-0.688
X209.946 Y-2.881 Z-0.917
X210.403 Y-2.852 Z-1.218
X210.893 Y-2.868 Z-1.574
X211.564 Y-1.265 Z-0.948
X212.157 Y0.154 Z-0.458
X212.597 Y1.134 Z-0.134
X212.694 Y1.325 Z-0.065
X212.713 Y1.369 Z-0.046
Y1.371
X212.718 Y1.381 Z-0.041
X212.721 Y1.384 Z-0.038
X212.732 Y1.399 Z-0.027
X212.755 Y1.433 Z-0.001
X212.732 Y1.399 Z-0.027
X212.721 Y1.384 Z-0.038
X212.718 Y1.381 Z-0.041
X212.713 Y1.371 Z-0.046
Y1.369
X212.694 Y1.325 Z-0.065
X212.597 Y1.134 Z-0.134
X212.157 Y0.154 Z-0.458
X211.564 Y-1.265 Z-0.948
X210.893 Y-2.868 Z-1.574
X210.914 Y-2.935 Z-1.553
X211.027 Y-3.365 Z-1.439
X211.126 Y-4.055 Z-1.34
X211.135 Y-4.276 Z-1.331
X211.154 Y-31.414 Z-1.313
X211.148 Y-31.795 Z-1.353
X211.146 Y-32.006 Z-1.403
X211.635 Y-32.372 Z-1.057
X212.053 Y-32.627 Z-0.825
X212.432 Y-32.818 Z-0.663
X213.171 Y-33.138 Z-0.412
X213.828 Y-33.386 Z-0.193
X213.841 Y-33.391 Z-0.189
X214.086 Y-33.509 Z-0.066
X214.09 Y-33.512 Z-0.063
X214.154 Y-33.517 Z-0.004
X214.09 Y-33.512 Z-0.063
X214.124 Y-33.557 Z-0.01
X214.09 Y-33.512 Z-0.063
X214.086 Y-33.509 Z-0.066
X213.841 Y-33.391 Z-0.189
X213.828 Y-33.386 Z-0.193
X213.171 Y-33.138 Z-0.412
X212.432 Y-32.818 Z-0.663
X212.053 Y-32.627 Z-0.825
X211.635 Y-32.372 Z-1.057
X211.146 Y-32.006 Z-1.403
X210.654 Y-32.357 Z-1.056
X210.262 Y-32.591 Z-0.835
X209.833 Y-32.803 Z-0.652
X208.927 Y-33.195 Z-0.344
X208.433 Y-33.396 Z-0.185
X208.234 Y-33.497 Z-0.078
X208.192 Y-33.555 Z-0.008
X208.234 Y-33.497 Z-0.078
X208.152 Y-33.505 Z-0.001
G0 Z8
X248.067 Y-10.797
Z5
G1 Z-0.003 F850
X248.112 Y-10.804 Z-0.045
X248.122 Y-10.805 Z-0.055
X248.131 Z-0.062
X248.1 Y-10.759 Z-0.007
X248.131 Y-10.805 Z-0.062
X248.335 Y-10.878 Z-0.139
X249.146 Y-11.166 Z-0.395
X249.742 Y-11.399 Z-0.579
X250.169 Y-11.6 Z-0.752
X250.54 Y-11.814 Z-0.947
X251.119 Y-12.213 Z-1.328
X251.495 Y-11.917 Z-1.038
X251.861 Y-11.677 Z-0.809
X252.272 Y-11.459 Z-0.612
X252.778 Y-11.24 Z-0.428
X254.001 Y-10.793 Z-0.048
X254.028 Y-10.756 Z-0.005
X254.001 Y-10.793 Z-0.048
X254.004 Z-0.046
X254.012 Y-10.794 Z-0.039
X254.023 Y-10.793 Z-0.029
X254.051 Y-10.791 Z-0.003
X254.023 Y-10.793 Z-0.029
X254.012 Y-10.794 Z-0.039
X254.004 Y-10.793 Z-0.046
X254.001 Z-0.048
X252.778 Y-11.24 Z-0.428
X252.272 Y-11.459 Z-0.612
X251.861 Y-11.677 Z-0.809
X251.495 Y-11.917 Z-1.038
X251.119 Y-12.213 Z-1.328
X251.156 Y-12.62 Z-1.251
X251.22 Y-13.044 Z-1.198
X251.412 Y-13.786 Z-1.182
X251.871 Y-15.438
X252.422 Y-17.263 Z-1.23
X253.338 Y-20.201 Z-1.292
X253.961 Y-22.188 Z-1.29
X254.783 Y-24.724 Z-1.253
X255.479 Y-26.763 Z-1.188
X256.498 Y-29.643 Z-1.066
X256.646 Y-29.954 Z-1.089
X256.84 Y-30.256 Z-1.159
X257.072 Y-30.535 Z-1.274
X257.19 Y-30.655 Z-1.341
X257.215 Y-33.653 Z-0.316
X257.216 Y-33.687 Z-0.306
X257.207 Y-34.179 Z-0.106
X257.213 Y-34.256 Z-0.068
X257.214 Y-34.279 Z-0.054
X257.217 Y-34.32 Z-0.028
X257.218 Y-34.336 Z-0.016
X257.216 Y-34.346 Z-0.008
X257.218 Y-34.336 Z-0.016
X257.217 Y-34.32 Z-0.028
X257.214 Y-34.279 Z-0.054
X257.213 Y-34.256 Z-0.068
X257.207 Y-34.179 Z-0.106
X257.216 Y-33.687 Z-0.306
X257.215 Y-33.653 Z-0.316
X257.19 Y-30.655 Z-1.341
X257.455 Y-30.517 Z-1.137
X257.762 Y-30.32 Z-0.915
X258.018 Y-30.107 Z-0.747
X258.248 Y-29.846 Z-0.618
X258.414 Y-29.566 Z-0.555
X258.542 Y-29.221 Z-0.551
X259.456 Y-26.517 Z-0.565
X260.375 Y-23.869 Z-0.533
X261.109 Y-21.851 Z-0.542
X261.706 Y-20.336 Z-0.563
X261.868 Y-20.041 Z-0.608
X262.02 Y-19.815 Z-0.667
X262.248 Y-19.563 Z-0.787
X262.535 Y-19.331 Z-0.968
X262.878 Y-19.122 Z-1.21
X263.265 Y-18.941 Z-1.502
X263.405 Y-18.886 Z-1.611
X263.536 Y-15.318 Z-0.39
X263.565 Y-14.6 Z-0.113
X263.589 Y-14.368 Z-0.008
X263.59 Y-14.357 Z-0.002
X263.589 Y-14.368 Z-0.008
X263.565 Y-14.6 Z-0.113
X263.536 Y-15.318 Z-0.39
X263.405 Y-18.886 Z-1.611
X263.676 Y-19.229 Z-1.463
X263.91 Y-19.597 Z-1.361
X264.056 Y-19.892 Z-1.319
X264.168 Y-20.171 Z-1.306
X264.183 Y-20.211 Z-1.305
X264.195 Y-20.244
X264.24 Y-20.36 Z-1.301
X264.263 Y-20.42 Z-1.299
X264.45 Y-20.925 Z-1.291
X265.449 Y-23.701 Z-1.298
X265.928 Y-25.022 Z-1.314
X266.695 Y-26.989 Z-1.331
X267.287 Y-28.381 Z-1.342
X267.916 Y-29.715 Z-1.365
X268.173 Y-30.216 Z-1.383
X268.363 Y-30.503 Z-1.431
X268.582 Y-30.771 Z-1.512
X268.65 Y-32.769 Z-0.679
X268.719 Y-34.216 Z-0.088
X268.722 Y-34.242 Z-0.076
Y-34.322 Z-0.026
Y-34.323 Z-0.025
Y-34.324
X268.721 Y-34.329 Z-0.02
Y-34.347 Z-0.002
Y-34.329 Z-0.02
X268.722 Y-34.324 Z-0.025
Y-34.323
Y-34.322 Z-0.026
Y-34.242 Z-0.076
X268.719 Y-34.216 Z-0.088
X268.65 Y-32.769 Z-0.679
X268.582 Y-30.771 Z-1.512
X268.797 Y-30.697 Z-1.343
X269.242 Y-30.504 Z-1.011
X269.611 Y-30.278 Z-0.763
X269.907 Y-30.016 Z-0.597
X270.024 Y-29.874 Z-0.547
X270.123 Y-29.724 Z-0.517
X270.199 Y-29.574 Z-0.508
X271.774 Y-25.953 Z-0.547
X273.307 Y-22.373 Z-0.621
X274.278 Y-19.993 Z-0.691
X274.986 Y-18.132 Z-0.747
X275.485 Y-16.681 Z-0.786
X275.793 Y-15.668 Z-0.822
X276.009 Y-14.803 Z-0.86
X276.173 Y-13.972 Z-0.899
X276.302 Y-13.012 Z-0.915
X276.334 Y-12.176 Z-0.958
X276.319 Y-11.666 Z-0.979
X276.248 Y-11.004 Z-1.012
X276.127 Y-10.394 Z-1.047
X275.997 Y-9.945 Z-1.054
X275.841 Y-9.571 Z-1.069
X275.562 Y-9.027 Z-1.107
X275.395 Y-8.813 Z-1.105
X275.12 Y-8.514 Z-1.115
X274.838 Y-8.281 Z-1.131
X274.657 Y-8.177 Z-1.13
X274.269 Y-8.038 Z-1.103
X273.739 Y-7.929 Z-1.07
X273.424 Y-7.893 Z-1.049
X273.008 Y-7.903 Z-1.023
X272.633 Y-7.957 Z-1.005
X272.277 Y-8.071 Z-0.981
X271.824 Y-8.294 Z-0.966
X271.586 Y-8.479 Z-0.946
X271.387 Y-8.694 Z-0.932
X271.268 Y-8.909 Z-0.877
X271.138 Y-9.238 Z-0.794
X271.083 Y-9.582 Z-0.679
X271.079 Y-9.709 Z-0.627
X271.08 Y-9.771 Z-0.601
X271.112 Y-10.154 Z-0.438
X271.181 Y-10.465 Z-0.303
X271.31 Y-10.799 Z-0.139
X271.359 Y-10.905 Z-0.085
X271.37 Y-10.926 Z-0.075
X271.376 Y-10.938 Z-0.068
X271.383 Y-10.951 Z-0.061
X271.39 Y-10.963 Z-0.054
X271.395 Y-10.969 Z-0.049
X271.396 Y-10.97 Z-0.048
X271.402 Y-10.977 Z-0.042
X271.408 Y-10.984 Z-0.036
X271.413 Y-10.99 Z-0.031
X271.414 Y-10.991 Z-0.029
X271.434 Y-11.012 Z-0.004
G0 Z18

(Engrave3)
M9
X300.827 Y-35.446
Z18
Z5
G1 Z-0.001 F850
X301.57 Y-35.857 Z-0.109
X302.486 Y-36.317 Z-0.24
X303.43 Y-36.748 Z-0.372
X304.402 Y-37.149 Z-0.504
X305.398 Y-37.517 Z-0.634
X306.416 Y-37.852 Z-0.764
X307.455 Y-38.152 Z-0.892
X308.513 Y-38.417 Z-1.018
X309.587 Y-38.645 Z-1.141
X310.674 Y-38.835 Z-1.261
X311.772 Y-38.985 Z-1.378
X312.881 Y-39.096 Z-1.492
X313.996 Y-39.166 Z-1.602
X315.116 Y-39.195 Z-1.708
X316.239 Y-39.18 Z-1.811
X317.24 Y-39.135 Z-1.908
X317.825 Y-39.095 Z-1.96
X318.743 Y-38.997 Z-2.033
X320.114 Y-38.802 Z-2.143
X321.025 Y-38.636 Z-2.218
X321.62 Y-38.515 Z-2.261
X322.79 Y-38.237 Z-2.356
X323.644 Y-37.999 Z-2.424
X324.22 Y-37.825 Z-2.462
X325.301 Y-37.458 Z-2.545
X325.604 Y-37.346 Z-2.563
X326.726 Y-36.896 Z-2.642
X327.67 Y-36.47 Z-2.709
X328.06 Y-36.281 Z-2.73
X329.116 Y-35.731 Z-2.797
X329.915 Y-35.269 Z-2.849
X330.258 Y-35.061 Z-2.865
X331.355 Y-34.345 Z-2.932
X332.048 Y-33.847 Z-2.976
X332.43 Y-33.559 Z-2.992
X332.96 Y-33.141 Z-3.03
X333.583 Y-32.619 Z-3.061
X334.436 Y-31.845 Z-3.111
X335.337 Y-30.938 Z-3.161
X336.034 Y-30.151 Z-3.199
X336.28 Y-29.857 Z-3.204
X336.698 Y-29.33 Z-3.23
X337.127 Y-28.755 Z-3.243
X337.9 Y-27.612 Z-3.283
X338.426 Y-26.728 Z-3.315
X338.697 Y-26.233 Z-3.323
X339.201 Y-25.213 Z-3.349
X339.634 Y-24.196 Z-3.374
X339.725 Y-23.961
X339.95 Y-23.333 Z-3.389
X340.16 Y-22.685 Z-3.393
X340.46 Y-21.58 Z-3.41
X340.507 Y-21.378 Z-3.408
X340.649 Y-20.695 Z-3.418
X340.761 Y-20.06 Z-3.416
X340.906 Y-18.904 Z-3.423
X340.922 Y-18.723 Z-3.419
X340.968 Y-18.002 Z-3.425
X340.988 Y-17.375 Z-3.417
X340.969 Y-16.191 Z-3.415
X340.901 Y-15.281 Z-3.409
X340.835 Y-14.682 Z-3.397
X340.638 Y-13.447 Z-3.386
X340.566 Y-13.099 Z-3.377
X340.315 Y-12.061 Z-3.362
X340.234 Y-11.775 Z-3.355
X339.889 Y-10.694 Z-3.334
X339.637 Y-10.023 Z-3.319
X339.527 Y-9.748 Z-3.308
X339.138 Y-8.86 Z-3.283
X338.74 Y-8.055 Z-3.259
X338.632 Y-7.852 Z-3.25
X338.232 Y-7.14 Z-3.224
X337.724 Y-6.317 Z-3.192
X337.21 Y-5.561 Z-3.161
X337.09 Y-5.395 Z-3.152
X336.59 Y-4.734 Z-3.12
X335.972 Y-3.981 Z-3.082
X335.32 Y-3.251 Z-3.043
X334.781 Y-2.695 Z-3.011
X334.54 Y-2.458 Z-2.993
X333.916 Y-1.873 Z-2.955
X333.172 Y-1.227 Z-2.909
X332.452 Y-0.65 Z-2.866
X331.819 Y-0.179 Z-2.828
X331.588 Y-0.014 Z-2.81
X330.754 Y0.549 Z-2.757
X329.893 Y1.083 Z-2.703
X329.12 Y1.524 Z-2.653
X328.367 Y1.923 Z-2.603
X327.622 Y2.286 Z-2.552
X326.858 Y2.631 Z-2.499
X326.079 Y2.954 Z-2.444
X325.282 Y3.257 Z-2.386
X324.479 Y3.534 Z-2.327
X323.419 Y3.857 Z-2.244
X323.175 Y3.927 Z-2.229
X321.862 Y4.257 Z-2.127
X320.828 Y4.469 Z-2.041
X320.53 Y4.525 Z-2.02
X319.184 Y4.733 Z-1.908
X318.166 Y4.847 Z-1.817
X317.825 Y4.88 Z-1.791
X316.457 Y4.966 Z-1.667
X316.358 Y4.97 Z-1.656
X315.083 Y4.988 Z-1.54
X313.704 Y4.945 Z-1.411
X312.326 Y4.843 Z-1.274
X312.032 Y4.812 Z-1.239
X310.95 Y4.679 Z-1.13
X309.926 Y4.509 Z-1.018
X309.529 Y4.437 Z-0.977
X309.151 Y4.351 Z-0.939
X309.214 Y3.483 Z-0.092
X309.221 Y3.378 Z-0.003
X309.214 Y3.483 Z-0.092
X309.151 Y4.351 Z-0.939
X308.99 Y4.323 Z-0.915
X308.202 Y4.154 Z-0.824
X307.083 Y3.859 Z-0.691
X306.643 Y3.729 Z-0.639
X306.216 Y3.581 Z-0.598
X306.094 Y3.529 Z-0.595
X306.195 Y3.005 Z-0.09
X306.211 Y2.901 Z-0.001
X306.195 Y3.005 Z-0.09
X306.094 Y3.529 Z-0.595
X305.933 Y3.494 Z-0.56
X305.569 Y3.388 Z-0.507
X305.289 Y3.288 Z-0.469
X304.211 Y2.88 Z-0.336
X303.608 Y2.623 Z-0.251
X302.53 Y2.137 Z-0.108
X301.809 Y1.777 Z-0.001
G0 Z8
X303.148 Y-29.123
Z5
G1 Z-0.001 F850
X303.347 Y-29.066 Z-0.052
X303.502 Y-29.006 Z-0.1
X303.73 Y-28.904 Z-0.168
X304.033 Y-28.656 Z-0.19
X304.246 Y-28.501 Z-0.213
X304.401 Y-28.415 Z-0.238
X304.606 Y-28.333 Z-0.268
X305.018 Y-28.231 Z-0.337
X305.079 Y-28.211 Z-0.342
X305.251 Y-28.141 Z-0.352
X305.318 Y-28.173 Z-0.288
X305.531 Y-28.252 Z-0.084
X305.612 Y-28.275 Z-0.001
X305.531 Y-28.252 Z-0.084
X305.318 Y-28.173 Z-0.288
X305.251 Y-28.141 Z-0.352
X305.391 Y-27.887 Z-0.203
X305.49 Y-27.733 Z-0.133
X305.597 Y-27.594 Z-0.093
X305.664 Y-27.524 Z-0.083
X305.944 Y-27.269 Z-0.096
X306.229 Y-27.037 Z-0.13
X306.895 Y-26.558 Z-0.209
X307.714 Y-26.044 Z-0.317
X308.017 Y-25.855 Z-0.347
X308.975 Y-25.236 Z-0.387
X309.184 Y-25.103 Z-0.405
X309.376 Y-24.988 Z-0.434
X309.687 Y-24.838 Z-0.504
X309.94 Y-24.766 Z-0.526
X311.072 Y-24.42 Z-0.683
X311.908 Y-24.191 Z-0.802
X312.321 Y-24.102 Z-0.872
X312.525 Y-24.085 Z-0.929
X312.735 Z-1.004
X312.92 Y-24.1 Z-1.082
X313.109 Y-24.128 Z-1.172
X313.415 Y-24.202 Z-1.338
X313.483 Y-24.223 Z-1.378
X313.311 Y-24.65 Z-1.002
X313.215 Y-24.856 Z-0.833
X313.095 Y-25.094 Z-0.659
X313.029 Y-25.216 Z-0.585
X312.909 Y-25.488 Z-0.47
X312.863 Y-25.619 Z-0.437
X312.826 Y-25.74 Z-0.417
X312.798 Y-25.875 Z-0.41
X312.783 Y-26.201 Z-0.447
X312.777 Y-26.44 Z-0.485
X312.743 Y-26.786 Z-0.509
X312.649 Y-27.382 Z-0.513
X312.584 Y-27.687 Z-0.488
X312.443 Y-28.405 Z-0.428
X312.253 Y-29.595 Z-0.307
X312.112 Y-30.653 Z-0.179
X312.027 Y-31.281 Z-0.103
X311.945 Y-31.785 Z-0.058
X311.942 Y-31.889 Z-0.067
X311.955 Y-32.01 Z-0.103
X312.004 Y-32.178 Z-0.185
X312.1 Y-32.495 Z-0.368
X312.185 Y-32.496 Z-0.309
X312.429 Y-32.53 Z-0.117
X312.553 Y-32.549 Z-0.009
X312.56 Y-32.551 Z-0.002
X312.553 Y-32.549 Z-0.009
X312.429 Y-32.53 Z-0.117
X312.185 Y-32.496 Z-0.309
X312.1 Y-32.495 Z-0.368
X311.876 Y-32.84 Z-0.28
X311.721 Y-33.139 Z-0.245
X311.629 Y-33.394 Z-0.237
X311.576 Y-33.668 Z-0.228
X311.558 Y-33.768 Z-0.219
X311.501 Y-33.92 Z-0.183
X311.383 Y-34.152 Z-0.118
X311.147 Y-34.548 Z-0.001
X311.383 Y-34.152 Z-0.118
X311.501 Y-33.92 Z-0.183
X311.558 Y-33.768 Z-0.219
X311.576 Y-33.668 Z-0.228
X311.629 Y-33.394 Z-0.237
X311.721 Y-33.139 Z-0.245
X311.876 Y-32.84 Z-0.28
X312.1 Y-32.495 Z-0.368
X312.004 Y-32.178 Z-0.185
X311.955 Y-32.01 Z-0.103
X311.942 Y-31.889 Z-0.067
X311.945 Y-31.785 Z-0.058
X312.027 Y-31.281 Z-0.103
X312.112 Y-30.653 Z-0.179
X312.253 Y-29.595 Z-0.307
X312.443 Y-28.405 Z-0.428
X312.584 Y-27.687 Z-0.488
X312.649 Y-27.382 Z-0.513
X312.743 Y-26.786 Z-0.509
X312.777 Y-26.44 Z-0.485
X312.783 Y-26.201 Z-0.447
X312.798 Y-25.875 Z-0.41
X312.826 Y-25.74 Z-0.417
X312.863 Y-25.619 Z-0.437
X312.909 Y-25.488 Z-0.47
X313.029 Y-25.216 Z-0.585
X313.095 Y-25.094 Z-0.659
X313.215 Y-24.856 Z-0.833
X313.311 Y-24.65 Z-1.002
X313.483 Y-24.223 Z-1.378
X313.858 Y-24.122 Z-1.394
X314.111 Y-24.054 Z-1.412
X314.405 Y-23.984 Z-1.471
X314.572 Y-23.945 Z-1.526
X314.749 Y-23.904 Z-1.6
X314.944 Y-23.858 Z-1.698
X314.762 Y-23.489 Z-1.314
X314.504 Y-23.033 Z-0.838
X313.999 Y-22.571 Z-0.187
X313.821 Y-22.402 Z-0.001
X313.999 Y-22.571 Z-0.187
X314.504 Y-23.033 Z-0.838
X314.353 Y-22.644 Z-0.445
X314.265 Y-22.453 Z-0.254
X314.177 Y-22.299 Z-0.1
X314.095 Y-22.198 Z-0.004
X314.177 Y-22.299 Z-0.1
X314.265 Y-22.453 Z-0.254
X314.353 Y-22.644 Z-0.445
X314.504 Y-23.033 Z-0.838
X314.762 Y-23.489 Z-1.314
X314.944 Y-23.858 Z-1.698
X315.6 Y-23.925 Z-1.844
X316.45 Y-23.993 Z-2.052
X316.743 Y-24.009 Z-2.131
X317.29 Z-2.306
X317.497 Y-24.388 Z-2.012
X317.716 Y-24.731 Z-1.758
X317.891 Y-26.643 Z-0.003
X317.716 Y-24.731 Z-1.758
X317.989 Y-24.889 Z-1.487
X318.249 Y-25.024 Z-1.242
X318.605 Y-25.177 Z-0.933
X318.932 Y-25.281 Z-0.68
X319.199 Y-25.331 Z-0.5
X319.472 Y-25.347 Z-0.344
X319.683 Y-25.337 Z-0.237
X319.887 Y-25.477 Z-0.001
X319.683 Y-25.337 Z-0.237
X319.944 Y-25.205 Z-0.002
X319.683 Y-25.337 Z-0.237
X319.472 Y-25.347 Z-0.344
X319.199 Y-25.331 Z-0.5
X318.932 Y-25.281 Z-0.68
X318.605 Y-25.177 Z-0.933
X318.249 Y-25.024 Z-1.242
X317.989 Y-24.889 Z-1.487
X317.716 Y-24.731 Z-1.758
X317.497 Y-24.388 Z-2.012
X317.29 Y-24.009 Z-2.306
X317.453 Y-23.837 Z-2.213
X317.614 Y-23.673 Z-2.135
X317.798 Y-23.494 Z-2.067
X318.007 Y-23.292 Z-2.016
X317.18 Y-21.88 Z-0.398
X316.976 Y-21.498 Z-0.003
X317.18 Y-21.88 Z-0.398
X318.007 Y-23.292 Z-2.016
X318.098 Y-23.218 Z-1.992
X318.205 Y-23.112 Z-1.955
X318.357 Y-22.935 Z-1.899
X318.598 Y-22.627 Z-1.809
X318.684 Y-22.466 Z-1.744
X318.763 Y-22.224 Z-1.614
X318.882 Y-21.728 Z-1.353
X318.967 Y-21.296 Z-1.157
X319.013 Y-21.061 Z-1.069
X319.102 Y-20.694 Z-0.962
X319.167 Y-20.421 Z-0.908
X319.194 Y-20.301 Z-0.893
X319.229 Y-20.096 Z-0.884
X319.244 Y-19.921 Z-0.891
X319.246 Y-19.645 Z-0.928
X318.78 Y-19.539 Z-0.531
X318.595 Y-19.497 Z-0.405
X318.365 Y-19.443 Z-0.299
X318.16 Y-19.375 Z-0.237
X317.826 Y-19.23 Z-0.168
X317.415 Y-19.048 Z-0.11
X317.102 Y-18.91 Z-0.099
X316.921 Y-18.822 Z-0.116
X316.633 Y-18.702 Z-0.174
X316.457 Y-18.632 Z-0.241
X316.303 Y-18.586 Z-0.31
X316.213 Y-18.505 Z-0.317
X316.04 Y-18.331 Z-0.348
X315.993 Y-18.36 Z-0.296
X315.741 Y-18.519 Z-0.002
X315.993 Y-18.36 Z-0.296
X316.04 Y-18.331 Z-0.348
X315.988 Y-18.193 Z-0.319
X315.926 Y-18.107 Z-0.266
X315.9 Y-18.074 Z-0.243
X315.737 Y-17.818 Z-0.052
X315.714 Y-17.774 Z-0.02
X315.705 Y-17.769 Z-0.01
X315.698 Y-17.764 Z-0.001
X315.705 Y-17.769 Z-0.01
X315.714 Y-17.774 Z-0.02
X315.71 Y-17.749 Z-0.002
X315.714 Y-17.774 Z-0.02
X315.737 Y-17.818 Z-0.052
X315.9 Y-18.074 Z-0.243
X315.926 Y-18.107 Z-0.266
X315.988 Y-18.193 Z-0.319
X316.04 Y-18.331 Z-0.348
X316.213 Y-18.505 Z-0.317
X316.303 Y-18.586 Z-0.31
X316.235 Y-18.902 Z-0.046
X316.226 Y-18.961 Z-0.004
X316.235 Y-18.902 Z-0.046
X316.303 Y-18.586 Z-0.31
X316.457 Y-18.632 Z-0.241
X316.633 Y-18.702 Z-0.174
X316.921 Y-18.822 Z-0.116
X317.102 Y-18.91 Z-0.099
X317.415 Y-19.048 Z-0.11
X317.826 Y-19.23 Z-0.168
X318.16 Y-19.375 Z-0.237
X318.365 Y-19.443 Z-0.299
X318.595 Y-19.497 Z-0.405
X318.78 Y-19.539 Z-0.531
X319.246 Y-19.645 Z-0.928
X319.315 Y-19.484 Z-0.887
X319.387 Y-19.29 Z-0.86
X319.452 Y-19.091 Z-0.863
X319.53 Y-18.859 Z-0.903
X319.57 Y-18.751 Z-0.936
X319.671 Y-18.503 Z-1.039
X319.879 Y-18.077 Z-1.29
X319.946 Y-17.96 Z-1.373
X320.163 Y-18.035 Z-1.238
X320.357 Y-18.103 Z-1.138
X320.538 Y-18.165 Z-1.067
X320.711 Y-18.226 Z-1.023
X320.947 Y-18.308 Z-0.998
X321.143 Y-18.378 Z-1.016
X321.22 Y-18.406 Z-1.03
X321.445 Y-18.496 Z-1.097
X321.735 Y-18.638 Z-1.217
X321.796 Y-18.684 Z-1.241
X321.899 Y-18.796 Z-1.271
X322.072 Y-19.034 Z-1.324
X322.222 Y-19.305 Z-1.371
X322.283 Y-19.449 Z-1.382
X322.324 Y-19.584 Z-1.379
X322.357 Y-19.733 Z-1.361
X322.399 Y-20.007 Z-1.304
X322.44 Y-20.373 Z-1.194
X322.457 Y-20.503 Z-1.144
X322.61 Y-20.728 Z-0.937
X322.717 Y-20.918 Z-0.775
X322.843 Y-21.208 Z-0.559
X322.921 Y-21.467 Z-0.394
X323.005 Y-21.819 Z-0.182
X323.079 Y-22.079 Z-0.001
X323.005 Y-21.819 Z-0.182
X322.921 Y-21.467 Z-0.394
X322.843 Y-21.208 Z-0.559
X322.717 Y-20.918 Z-0.775
X322.61 Y-20.728 Z-0.937
X322.457 Y-20.503 Z-1.144
X322.453 Y-20.511 Z-1.137
X322.333 Y-20.741 Z-0.907
X322.198 Y-21.077 Z-0.593
X322.132 Y-21.325 Z-0.38
X322.098 Y-21.576 Z-0.187
X322.099 Y-21.748 Z-0.074
X322.131 Y-21.883 Z-0.001
X322.099 Y-21.748 Z-0.074
X322.098 Y-21.576 Z-0.187
X322.132 Y-21.325 Z-0.38
X322.198 Y-21.077 Z-0.593
X322.333 Y-20.741 Z-0.907
X322.453 Y-20.511 Z-1.137
X322.457 Y-20.503 Z-1.144
X322.44 Y-20.373 Z-1.194
X322.399 Y-20.007 Z-1.304
X322.357 Y-19.733 Z-1.361
X322.324 Y-19.584 Z-1.379
X322.283 Y-19.449 Z-1.382
X322.222 Y-19.305 Z-1.371
X322.072 Y-19.034 Z-1.324
X321.899 Y-18.796 Z-1.271
X321.796 Y-18.684 Z-1.241
X321.735 Y-18.638 Z-1.217
X321.445 Y-18.496 Z-1.097
X321.22 Y-18.406 Z-1.03
X321.143 Y-18.378 Z-1.016
X320.947 Y-18.308 Z-0.998
X320.711 Y-18.226 Z-1.023
X320.538 Y-18.165 Z-1.067
X320.357 Y-18.103 Z-1.138
X320.163 Y-18.035 Z-1.238
X319.946 Y-17.96 Z-1.373
X319.815 Y-17.575 Z-1.335
X319.739 Y-17.278 Z-1.351
X319.688 Y-17.009 Z-1.398
X319.653 Y-16.724 Z-1.474
X319.638 Y-16.396 Z-1.59
Y-16.379 Z-1.597
X320.07 Y-16.393 Z-1.204
X320.437 Y-16.405 Z-0.892
X320.68 Y-16.419 Z-0.703
X320.919 Y-16.429 Z-0.541
X321.179 Y-16.434 Z-0.413
X321.406 Y-16.412 Z-0.346
X321.633 Y-16.362 Z-0.315
X321.801 Y-16.3 Z-0.323
X322.067 Y-16.168 Z-0.37
X322.525 Y-15.923 Z-0.494
X322.962 Y-15.715 Z-0.638
X324.073 Y-15.234 Z-1.02
X324.838 Y-14.935 Z-1.269
X325.378 Y-14.749 Z-1.424
X326.087 Y-14.542 Z-1.587
X326.396 Y-14.464 Z-1.644
X327.093 Y-14.308 Z-1.748
X327.794 Y-14.162 Z-1.832
X328.021 Y-13.723 Z-1.475
X328.192 Y-13.453 Z-1.261
X328.372 Y-13.213 Z-1.079
X328.561 Y-13.004 Z-0.928
X328.758 Y-12.825 Z-0.81
X328.931 Y-12.704 Z-0.731
X329.151 Y-12.578 Z-0.659
X329.704 Y-12.346 Z-0.542
X330.144 Y-12.174 Z-0.423
X330.886 Y-11.893 Z-0.179
X331.201 Y-11.776 Z-0.064
X331.354 Y-11.718 Z-0.001
X331.201 Y-11.776 Z-0.064
X330.886 Y-11.893 Z-0.179
X330.144 Y-12.174 Z-0.423
X329.704 Y-12.346 Z-0.542
X329.151 Y-12.578 Z-0.659
X328.931 Y-12.704 Z-0.731
X328.758 Y-12.825 Z-0.81
X328.561 Y-13.004 Z-0.928
X328.372 Y-13.213 Z-1.079
X328.192 Y-13.453 Z-1.261
X328.021 Y-13.723 Z-1.475
X327.794 Y-14.162 Z-1.832
X328.031 Y-14.29 Z-1.68
X328.302 Y-14.414 Z-1.525
X328.539 Y-14.502 Z-1.407
X328.758 Y-14.564 Z-1.311
X328.974 Y-14.61 Z-1.232
X329.159 Y-14.633 Z-1.172
X329.427 Y-14.644 Z-1.104
X329.788 Y-14.616 Z-1.035
X330.186 Y-14.553 Z-0.962
X330.464 Y-14.499 Z-0.905
X330.839 Y-14.406 Z-0.812
X331.202 Y-14.296 Z-0.704
X331.558 Y-14.168 Z-0.578
X332.065 Y-13.945 Z-0.358
X332.351 Y-13.801 Z-0.213
X332.716 Y-13.594 Z-0.002
X332.351 Y-13.801 Z-0.213
X332.065 Y-13.945 Z-0.358
X331.558 Y-14.168 Z-0.578
X331.202 Y-14.296 Z-0.704
X330.839 Y-14.406 Z-0.812
X330.464 Y-14.499 Z-0.905
X330.186 Y-14.553 Z-0.962
X329.788 Y-14.616 Z-1.035
X329.427 Y-14.644 Z-1.104
X329.159 Y-14.633 Z-1.172
X328.974 Y-14.61 Z-1.232
X328.758 Y-14.564 Z-1.311
X328.539 Y-14.502 Z-1.407
X328.302 Y-14.414 Z-1.525
X328.031 Y-14.29 Z-1.68
X327.794 Y-14.162 Z-1.832
X327.093 Y-14.308 Z-1.748
X326.396 Y-14.464 Z-1.644
X326.087 Y-14.542 Z-1.587
X325.378 Y-14.749 Z-1.424
X324.838 Y-14.935 Z-1.269
X324.073 Y-15.234 Z-1.02
X322.962 Y-15.715 Z-0.638
X322.525 Y-15.923 Z-0.494
X322.067 Y-16.168 Z-0.37
X321.801 Y-16.3 Z-0.323
X321.633 Y-16.362 Z-0.315
X321.406 Y-16.412 Z-0.346
X321.179 Y-16.434 Z-0.413
X320.919 Y-16.429 Z-0.541
X320.68 Y-16.419 Z-0.703
X320.437 Y-16.405 Z-0.892
X320.07 Y-16.393 Z-1.204
X319.638 Y-16.379 Z-1.597
X319.564 Y-16.171 Z-1.606
X319.547 Y-16.055 Z-1.593
X318.932 Y-15.546 Z-0.994
X318.705 Y-15.381 Z-0.811
X318.661 Y-15.352 Z-0.779
X318.462 Y-15.235 Z-0.655
X318.209 Y-15.124 Z-0.536
X318.01 Y-15.062 Z-0.48
X317.759 Y-15.025 Z-0.452
X317.025 Y-14.954 Z-0.454
X316.312 Y-14.847 Z-0.44
X315.315 Y-14.676 Z-0.416
X315.204 Y-14.661 Z-0.423
X314.947 Y-14.557 Z-0.4
X314.847 Y-14.508 Z-0.398
X314.656 Y-14.392 Z-0.417
X314.575 Y-14.335 Z-0.429
X314.41 Y-14.312 Z-0.367
X314.171 Y-14.234 Z-0.306
X313.993 Y-14.146 Z-0.281
X313.371 Y-13.785 Z-0.22
X312.43 Y-13.222 Z-0.123
X311.991 Y-12.966 Z-0.102
X311.817 Y-12.857 Z-0.118
X311.645 Y-12.744 Z-0.163
X311.572 Y-12.698 Z-0.194
X311.302 Y-12.557 Z-0.348
X311.274 Y-12.544 Z-0.365
X311.175 Y-12.459 Z-0.403
X311.102 Y-12.407 Z-0.421
X311.019 Y-12.345 Z-0.438
X310.866 Y-12.459 Z-0.258
X311.019 Y-12.345 Z-0.438
X310.845 Y-12.075 Z-0.324
X310.776 Y-11.984 Z-0.284
X310.673 Y-11.603 Z-0.03
X310.662 Y-11.542 Z-0.001
X310.673 Y-11.603 Z-0.03
X310.776 Y-11.984 Z-0.284
X310.604 Y-11.978 Z-0.122
X310.485 Y-11.981 Z-0.003
X310.604 Y-11.978 Z-0.122
X310.776 Y-11.984 Z-0.284
X310.845 Y-12.075 Z-0.324
X311.019 Y-12.345 Z-0.438
X311.102 Y-12.407 Z-0.421
X311.175 Y-12.459 Z-0.403
X311.274 Y-12.544 Z-0.365
X311.249 Y-12.864 Z-0.069
X311.244 Y-12.949 Z-0.001
X311.249 Y-12.864 Z-0.069
X311.274 Y-12.544 Z-0.365
X311.302 Y-12.557 Z-0.348
X311.572 Y-12.698 Z-0.194
X311.645 Y-12.744 Z-0.163
X311.817 Y-12.857 Z-0.118
X311.991 Y-12.966 Z-0.102
X312.43 Y-13.222 Z-0.123
X313.371 Y-13.785 Z-0.22
X313.993 Y-14.146 Z-0.281
X314.171 Y-14.234 Z-0.306
X314.41 Y-14.312 Z-0.367
X314.575 Y-14.335 Z-0.429
X314.614 Y-14.132 Z-0.259
X314.638 Y-13.934 Z-0.121
X314.639 Y-13.839 Z-0.068
X314.627 Y-13.736 Z-0.023
X314.602 Y-13.648 Z-0.001
X314.627 Y-13.736 Z-0.023
X314.639 Y-13.839 Z-0.068
X314.638 Y-13.934 Z-0.121
X314.614 Y-14.132 Z-0.259
X314.575 Y-14.335 Z-0.429
X314.656 Y-14.392 Z-0.417
X314.847 Y-14.508 Z-0.398
X314.947 Y-14.557 Z-0.4
X315.204 Y-14.661 Z-0.423
X315.153 Y-14.847 Z-0.24
X315.086 Y-15.075 Z-0.028
X315.076 Y-15.109 Z-0.003
X315.086 Y-15.075 Z-0.028
X315.153 Y-14.847 Z-0.24
X315.204 Y-14.661 Z-0.423
X315.315 Y-14.676 Z-0.416
X316.312 Y-14.847 Z-0.44
X317.025 Y-14.954 Z-0.454
X317.759 Y-15.025 Z-0.452
X318.01 Y-15.062 Z-0.48
X318.209 Y-15.124 Z-0.536
X318.462 Y-15.235 Z-0.655
X318.661 Y-15.352 Z-0.779
X318.705 Y-15.381 Z-0.811
X318.932 Y-15.546 Z-0.994
X319.547 Y-16.055 Z-1.593
X319.633 Y-15.918 Z-1.478
X319.798 Y-15.596 Z-1.226
X319.924 Y-15.267 Z-0.971
X320.029 Y-14.937 Z-0.753
X320.122 Y-14.582 Z-0.563
X320.145 Y-14.431 Z-0.499
X320.158 Y-14.279 Z-0.453
X320.16 Y-13.972 Z-0.388
X320.129 Y-13.712 Z-0.383
X320.103 Y-13.538 Z-0.4
X320.072 Y-13.302 Z-0.457
X320.061 Y-13.051 Z-0.561
X320.073 Y-12.875 Z-0.654
X320.102 Y-12.664 Z-0.785
X320.2 Y-12.223 Z-1.105
X320.326 Y-11.797 Z-1.463
X320.516 Y-11.227 Z-1.988
X320.1 Y-11.284 Z-1.663
X319.781 Y-11.333 Z-1.437
X319.382 Y-11.383 Z-1.185
X319.004 Y-11.175 Z-0.784
X318.799 Y-11.069 Z-0.579
X318.443 Y-10.921 Z-0.254
X318.171 Y-10.832 Z-0.034
X318.134 Y-10.823 Z-0.002
X318.171 Y-10.832 Z-0.034
X318.443 Y-10.921 Z-0.254
X318.799 Y-11.069 Z-0.579
X319.004 Y-11.175 Z-0.784
X319.382 Y-11.383 Z-1.185
X319.163 Y-11.492 Z-0.993
X318.876 Y-11.633 Z-0.774
X318.516 Y-11.887 Z-0.443
X318.161 Y-12.145 Z-0.103
X318.061 Y-12.208 Z-0.002
X318.161 Y-12.145 Z-0.103
X318.516 Y-11.887 Z-0.443
X318.876 Y-11.633 Z-0.774
X319.163 Y-11.492 Z-0.993
X319.382 Y-11.383 Z-1.185
X319.781 Y-11.333 Z-1.437
X320.1 Y-11.284 Z-1.663
X320.516 Y-11.227 Z-1.988
X320.887 Y-10.986 Z-2.216
X321.124 Y-10.85 Z-2.374
X321.308 Y-11.596 Z-1.679
X321.396 Y-12.024 Z-1.304
X321.437 Y-12.259 Z-1.109
X321.497 Y-12.744 Z-0.746
X321.389 Y-13.104 Z-0.417
X321.348 Y-13.288 Z-0.266
X321.328 Y-13.465 Z-0.138
X321.333 Y-13.574 Z-0.067
X321.364 Y-13.705 Z0
X321.333 Y-13.574 Z-0.067
X321.328 Y-13.465 Z-0.138
X321.348 Y-13.288 Z-0.266
X321.389 Y-13.104 Z-0.417
X321.497 Y-12.744 Z-0.746
X321.682 Y-13.099 Z-0.39
X321.689 Y-13.11 Z-0.377
X321.886 Y-13.408 Z-0.06
X321.916 Y-13.476 Z-0.002
X321.886 Y-13.408 Z-0.06
X321.689 Y-13.11 Z-0.377
X321.682 Y-13.099 Z-0.39
X321.705 Y-13.514 Z-0.002
X321.682 Y-13.099 Z-0.39
X321.497 Y-12.744 Z-0.746
X321.437 Y-12.259 Z-1.109
X321.396 Y-12.024 Z-1.304
X321.308 Y-11.596 Z-1.679
X321.124 Y-10.85 Z-2.374
X321.459 Y-10.433 Z-2.52
X321.628 Y-10.224 Z-2.61
X321.559 Y-10.135 Z-2.517
X321.109 Y-9.63 Z-1.961
X320.816 Y-9.343 Z-1.633
X320.427 Y-9.027 Z-1.251
X320.166 Y-8.792 Z-0.959
X320.022 Y-8.678 Z-0.801
X319.698 Y-8.485 Z-0.456
X319.52 Y-8.396 Z-0.268
X319.276 Y-8.277 Z0
X319.52 Y-8.396 Z-0.268
X319.698 Y-8.485 Z-0.456
X320.022 Y-8.678 Z-0.801
X320.166 Y-8.792 Z-0.959
X320.427 Y-9.027 Z-1.251
X320.034 Y-9.009 Z-0.863
X319.318 Y-9.006 Z-0.171
X319.127 Y-9.025 Z-0.001
X319.318 Y-9.006 Z-0.171
X320.034 Y-9.009 Z-0.863
X320.427 Y-9.027 Z-1.251
X320.816 Y-9.343 Z-1.633
X321.109 Y-9.63 Z-1.961
X321.559 Y-10.135 Z-2.517
X321.628 Y-10.224 Z-2.61
X321.767 Y-10.184 Z-2.579
X321.897 Y-9.743 Z-2.133
X321.927 Y-9.631 Z-2.019
X321.897 Y-9.743 Z-2.133
X321.767 Y-10.184 Z-2.579
X322.143 Y-10.205 Z-2.381
X322.224 Y-10.268 Z-2.287
X322.143 Y-10.205 Z-2.381
X322.677 Y-10 Z-1.927
X322.962 Y-9.888 Z-1.7
X323.387 Y-9.724 Z-1.397
X323.707 Y-9.591 Z-1.213
X323.829 Y-9.543 Z-1.156
X324.034 Y-9.41 Z-1.027
X324.209 Y-8.731 Z-0.396
X324.215 Y-8.686 Z-0.353
X324.209 Y-8.731 Z-0.396
X324.034 Y-9.41 Z-1.027
X324.355 Y-9.326 Z-0.785
X324.44 Y-9.301 Z-0.726
X324.52 Y-9.2 Z-0.603
X324.823 Y-8.737 Z-0.061
X324.848 Y-8.684 Z-0.003
X324.823 Y-8.737 Z-0.061
X324.52 Y-9.2 Z-0.603
X324.44 Y-9.301 Z-0.726
X324.668 Y-9.309 Z-0.534
X324.764 Y-9.333 Z-0.441
X325.167 Y-9.52 Z-0.001
G0 Z18
M9
M30
%
