%
(1001)
(Z0 pocket fillet centre)
(T1  D=22 CR=0 - ZMIN=-0.3 - flat end mill)
G90 G94
G17
G21

(2D Adaptive1)
M9
T1 M6
(22mm Facing Bit)
S5000 M3
G54
M9
G0 X318.452 Y-15.684
Z18
Z8
Z7.75
G1 Z5.55 F850
G3 X338.272 Y-22.316 Z4.404 I9.91 J-3.316 F283.3
X318.452 Y-15.684 Z3.257 I-9.91 J3.316
X338.272 Y-22.316 Z2.111 I9.91 J-3.316
X318.452 Y-15.684 Z0.964 I-9.91 J3.316
X338.272 Y-22.316 Z-0.182 I9.91 J-3.316
X338.812 Y-19 Z-0.3 I-9.91 J3.316
X323.124 Y-9.957 I-10.45
X317.912 Y-19 I5.238 J-9.043
X333.199 Y-28.263 I10.45
X338.774 Y-19.891 I-4.837 J9.263
X338.812 Y-19 I-10.412 J0.891
G1 X338.814 Y-18.575 F850
X339.004 Y-16.883
X339.047 Y-16.786
X339.11 Y-16.626
X339.172 Y-16.444
X339.229 Y-16.239
X339.279 Y-16.012
X339.321 Y-15.763
X339.352 Y-15.492
X339.37 Y-15.199
X339.373 Y-14.885
X339.358 Y-14.552
X339.323 Y-14.2
X339.268 Y-13.831
X339.188 Y-13.446
X339.084 Y-13.048
X338.953 Y-12.638
X338.794 Y-12.219
X338.607 Y-11.793
X338.389 Y-11.362
X338.141 Y-10.929
X337.862 Y-10.497
X337.552 Y-10.068
X337.21 Y-9.645
X336.838 Y-9.231
X336.436 Y-8.828
X336.004 Y-8.439
X335.543 Y-8.066
X335.055 Y-7.712
X334.54 Y-7.379
X334.001 Y-7.069
X333.439 Y-6.784
X332.856 Y-6.526
X332.253 Y-6.297
X331.632 Y-6.098
X330.997 Y-5.931
X330.348 Y-5.796
X329.687 Y-5.695
X329.018 Y-5.629
X328.342 Y-5.598
X327.662 Y-5.603
X326.979 Y-5.643
X326.296 Y-5.721
X325.616 Y-5.834
X324.94 Y-5.984
X324.271 Y-6.17
X323.61 Y-6.392
X322.96 Y-6.649
X322.324 Y-6.941
X321.702 Y-7.267
X321.097 Y-7.626
X320.511 Y-8.017
X319.946 Y-8.439
X319.403 Y-8.891
X318.883 Y-9.372
X318.39 Y-9.88
X317.923 Y-10.414
X317.485 Y-10.972
X317.077 Y-11.553
X316.699 Y-12.156
X316.354 Y-12.778
X316.042 Y-13.417
X315.764 Y-14.073
X315.521 Y-14.743
X315.313 Y-15.425
X315.142 Y-16.117
X315.008 Y-16.818
X314.911 Y-17.525
X314.851 Y-18.236
X314.829 Y-18.95
X314.844 Y-19.664
X314.898 Y-20.376
X314.989 Y-21.085
X315.117 Y-21.788
X315.282 Y-22.483
X315.484 Y-23.168
X315.722 Y-23.843
X315.995 Y-24.503
X316.302 Y-25.149
X316.644 Y-25.777
X317.018 Y-26.386
X317.423 Y-26.975
X317.86 Y-27.542
X318.326 Y-28.085
X318.819 Y-28.602
X319.34 Y-29.093
X319.885 Y-29.556
X320.455 Y-29.989
X321.046 Y-30.391
X321.658 Y-30.762
X322.289 Y-31.099
X322.936 Y-31.403
X323.599 Y-31.673
X324.275 Y-31.907
X324.963 Y-32.105
X325.66 Y-32.266
X326.365 Y-32.39
X327.075 Y-32.477
X327.789 Y-32.526
X328.504 Y-32.538
X329.219 Y-32.511
X329.932 Y-32.447
X330.64 Y-32.345
X331.342 Y-32.206
X332.035 Y-32.031
X332.719 Y-31.818
X333.39 Y-31.57
X334.047 Y-31.287
X334.688 Y-30.969
X335.312 Y-30.619
X335.916 Y-30.235
X336.499 Y-29.82
X337.059 Y-29.375
X337.595 Y-28.901
X338.106 Y-28.4
X338.589 Y-27.872
X339.043 Y-27.319
X339.468 Y-26.743
X339.861 Y-26.145
X340.223 Y-25.528
X340.694 Y-24.615
X341.346 Y-23.171
X341.788 Y-22.033
X342.118 Y-21.031
X342.364 Y-20.125
X342.55 Y-19.264
X342.682 Y-18.446
X342.766 Y-17.66
X342.807 Y-16.896
X342.808 Y-16.146
X342.769 Y-15.409
X342.693 Y-14.683
X342.58 Y-13.969
X342.429 Y-13.264
X342.242 Y-12.571
X342.019 Y-11.888
X341.759 Y-11.216
X341.463 Y-10.556
X341.13 Y-9.909
X340.762 Y-9.277
X340.357 Y-8.66
X339.918 Y-8.062
X339.443 Y-7.482
X338.934 Y-6.924
X338.391 Y-6.388
X337.816 Y-5.878
X337.21 Y-5.394
X336.574 Y-4.94
X335.909 Y-4.516
X335.218 Y-4.125
X334.502 Y-3.769
X333.762 Y-3.449
X333.002 Y-3.166
X332.223 Y-2.922
X331.427 Y-2.719
X330.617 Y-2.557
X329.795 Y-2.437
X328.962 Y-2.361
X328.123 Y-2.328
X327.279 Y-2.34
X326.433 Y-2.397
X325.588 Y-2.498
X324.746 Y-2.645
X323.909 Y-2.837
X323.081 Y-3.074
X322.264 Y-3.355
X321.46 Y-3.68
X320.673 Y-4.047
X319.904 Y-4.457
X319.156 Y-4.908
X318.432 Y-5.399
X317.733 Y-5.929
X317.062 Y-6.495
X316.421 Y-7.098
X315.811 Y-7.734
X315.235 Y-8.402
X314.695 Y-9.101
X314.192 Y-9.829
X313.727 Y-10.582
X313.303 Y-11.36
X312.92 Y-12.16
X312.579 Y-12.979
X312.282 Y-13.816
X312.03 Y-14.668
X311.822 Y-15.533
X311.661 Y-16.408
X311.546 Y-17.291
X311.478 Y-18.179
X311.457 Y-19.069
X311.483 Y-19.96
X311.556 Y-20.848
X311.675 Y-21.732
X311.842 Y-22.608
X312.054 Y-23.475
X312.312 Y-24.329
X312.615 Y-25.169
X312.962 Y-25.991
X313.352 Y-26.794
X313.784 Y-27.576
X314.257 Y-28.334
X314.769 Y-29.066
X315.319 Y-29.769
X315.905 Y-30.443
X316.527 Y-31.085
X317.181 Y-31.693
X317.867 Y-32.266
X318.582 Y-32.802
X319.324 Y-33.3
X320.092 Y-33.757
X320.883 Y-34.174
X321.695 Y-34.547
X322.525 Y-34.878
X323.372 Y-35.164
X324.233 Y-35.405
X325.105 Y-35.601
X325.987 Y-35.75
X326.875 Y-35.852
X327.767 Y-35.907
X328.661 Y-35.915
X329.554 Y-35.875
X330.444 Y-35.789
X331.328 Y-35.655
X332.204 Y-35.475
X333.069 Y-35.249
X333.921 Y-34.978
X334.758 Y-34.662
X335.576 Y-34.302
X336.374 Y-33.9
X337.151 Y-33.456
X337.902 Y-32.971
X338.627 Y-32.448
X339.323 Y-31.887
X340.019 Y-31.262
X340.728 Y-30.555
X341.431 Y-29.776
X342.125 Y-28.919
X342.786 Y-28.009
X343.398 Y-27.064
X343.956 Y-26.095
X344.456 Y-25.111
X344.895 Y-24.118
X345.275 Y-23.121
X345.595 Y-22.125
X345.857 Y-21.133
X346.062 Y-20.147
X346.212 Y-19.166
X346.31 Y-18.193
X346.355 Y-17.227
X346.349 Y-16.269
X346.293 Y-15.319
X346.187 Y-14.38
X346.033 Y-13.451
X345.83 Y-12.534
X345.58 Y-11.632
X345.282 Y-10.744
X344.938 Y-9.873
X344.548 Y-9.021
X344.113 Y-8.189
X343.633 Y-7.379
X343.109 Y-6.593
X342.543 Y-5.833
X341.935 Y-5.101
X341.286 Y-4.4
X340.598 Y-3.73
X339.872 Y-3.095
X339.111 Y-2.497
X338.314 Y-1.937
X337.486 Y-1.417
X336.627 Y-0.94
X335.74 Y-0.506
X335.167 Y-0.263
X334.75 Y-0.118
X334.317 Y-0.03
X333.877 Y0
X325.064
X324.022 Y-0.052
X323.284 Y-0.128
X322.534 Y-0.246
X321.765 Y-0.409
X320.974 Y-0.621
X320.167 Y-0.883
X319.352 Y-1.196
X318.537 Y-1.56
X317.728 Y-1.974
X316.929 Y-2.438
X316.142 Y-2.952
X315.371 Y-3.516
X314.618 Y-4.13
X313.888 Y-4.793
X313.186 Y-5.501
X312.516 Y-6.254
X311.88 Y-7.048
X311.282 Y-7.882
X310.725 Y-8.752
X310.212 Y-9.655
X309.745 Y-10.59
X309.326 Y-11.552
X308.957 Y-12.539
X308.64 Y-13.547
X308.375 Y-14.575
X308.164 Y-15.617
X308.009 Y-16.672
X307.909 Y-17.736
X307.865 Y-18.806
X307.878 Y-19.878
X307.948 Y-20.95
X308.075 Y-22.017
X308.258 Y-23.078
X308.497 Y-24.129
X308.791 Y-25.166
X309.14 Y-26.188
X309.543 Y-27.19
X309.998 Y-28.17
X310.505 Y-29.125
X311.062 Y-30.052
X311.667 Y-30.949
X312.319 Y-31.813
X313.016 Y-32.642
X313.756 Y-33.433
X314.537 Y-34.183
X315.357 Y-34.892
X316.214 Y-35.557
X317.104 Y-36.175
X318.026 Y-36.746
X318.977 Y-37.267
X319.954 Y-37.738
X319.972 Y-37.745
X320.383 Y-37.886
X320.81 Y-37.971
X321.244 Y-38
X331.66
X332.903 Y-37.938
X333.595 Y-37.866
X334.324 Y-37.752
X335.082 Y-37.591
X335.857 Y-37.384
X336.639 Y-37.13
X337.429 Y-36.826
X338.242 Y-36.463
X339.073 Y-36.038
X339.917 Y-35.548
X340.754 Y-35.001
X341.583 Y-34.395
X342.411 Y-33.719
X343.229 Y-32.977
X344.026 Y-32.172
X344.794 Y-31.31
X345.526 Y-30.396
X346.214 Y-29.436
X346.854 Y-28.436
X347.442 Y-27.401
X347.652 Y-26.982
X347.803 Y-26.631
X347.912 Y-26.264
X347.978 Y-25.888
X348 Y-25.506
Y-12.077
X347.965 Y-11.377
X347.898 Y-10.73
X347.79 Y-10.042
X347.636 Y-9.316
X347.438 Y-8.573
X347.193 Y-7.822
X346.895 Y-7.047
X346.541 Y-6.254
X346.13 Y-5.451
X345.665 Y-4.649
X345.148 Y-3.857
X344.577 Y-3.077
X343.95 Y-2.308
X343.266 Y-1.555
X342.661 Y-0.956
X342.337 Y-0.674
X341.98 Y-0.437
X341.594 Y-0.248
X341.188 Y-0.111
X340.767 Y-0.028
X340.339 Y0
X333.877
G3 X332.551 Y-3.894 I0.077 J-2.199
G1 X344.399 Y-13.695
G3 X348 Y-12.077 I1.402 J1.695
G1 Y-6.44
X347.967 Y-5.772
X347.92 Y-5.326
X347.848 Y-4.861
X347.738 Y-4.342
X347.596 Y-3.812
X347.418 Y-3.266
X347.214 Y-2.736
X347.006 Y-2.269
X346.774 Y-1.815
X346.674 Y-1.644
X346.396 Y-1.238
X346.061 Y-0.877
X345.676 Y-0.571
X345.249 Y-0.325
X344.791 Y-0.146
X344.311 Y-0.037
X343.82 Y0
G3 X341.896 Y-3.114 I0.077 J-2.199
G1 X343.801 Y-7.278
G3 X348 Y-6.44 I2.001 J0.915
G1 Y-2.321
Y-2.187
X347.971 Y-1.858
X347.891 Y-1.528
X347.753 Y-1.198
X347.658 Y-1.033
X347.542 Y-0.869
X347.492 Y-0.806
X347.327 Y-0.628
X347.162 Y-0.484
X346.832 Y-0.266
X346.719 Y-0.209
X346.446 Y-0.102
X346.173 Y-0.035
X345.843 Y-0.001
X345.513 Y0
X340.339
G3 X339.503 Y-0.197 I0.077 J-2.199
X338.285 Y-1.649 I0.912 J-2.002
G1 X329.607 Y-35.251
G3 X330.825 Y-37.803 I2.13 J-0.55
X331.66 Y-38 I0.912 J2.002
G1 X337.96
X338.666 Y-37.965
X339.114 Y-37.918
X339.612 Y-37.84
X340.144 Y-37.727
X340.703 Y-37.578
X341.317 Y-37.378
X341.936 Y-37.14
X342.6 Y-36.844
X343.302 Y-36.485
X343.999 Y-36.08
X344.726 Y-35.605
X345.479 Y-35.055
X346.23 Y-34.442
X346.945 Y-33.793
X347.044 Y-33.692
X347.326 Y-33.369
X347.563 Y-33.011
X347.752 Y-32.626
X347.889 Y-32.219
X347.972 Y-31.798
X348 Y-31.37
Y-25.506
G3 X344.05 Y-24.252 I-2.199 J-0.077
G1 X336.285 Y-34.47
G3 X337.124 Y-37.803 I1.752 J-1.331
X337.96 Y-38 I0.912 J2.002
G1 X342.874
X343.357 Y-37.976
X343.755 Y-37.935
X344.197 Y-37.865
X344.642 Y-37.771
X345.067 Y-37.657
X345.482 Y-37.523
X345.863 Y-37.376
X346.24 Y-37.208
X346.386 Y-37.133
X346.782 Y-36.89
X347.134 Y-36.588
X347.436 Y-36.234
X347.678 Y-35.838
X347.855 Y-35.409
X347.964 Y-34.957
X348 Y-34.494
G3 X344.929 Y-32.551 I-2.199 J-0.077
G1 X342.079 Y-33.782
G3 X342.874 Y-38 I0.872 J-2.02
G1 X345.513
X345.843 Y-37.999
X346.173 Y-37.965
X346.446 Y-37.898
X346.719 Y-37.791
X346.832 Y-37.734
X347.162 Y-37.516
X347.327 Y-37.372
X347.492 Y-37.194
X347.542 Y-37.131
X347.658 Y-36.967
X347.753 Y-36.802
X347.891 Y-36.472
X347.971 Y-36.142
X348 Y-35.813
Y-31.37
G3 X347.803 Y-30.534 I-2.199 J-0.077
X347.594 Y-30.171 I-2.002 J-0.912
G1 X326.779 Y-0.923
G3 X325.899 Y-0.197 I-1.792 J-1.276
X325.064 Y0 I-0.912 J-2.002
G1 X318.764
X318.186 Y-0.029
X317.739 Y-0.075
X317.262 Y-0.15
X316.737 Y-0.261
X316.204 Y-0.404
X315.628 Y-0.591
X315.019 Y-0.825
X314.407 Y-1.098
X313.763 Y-1.428
X313.093 Y-1.817
X312.424 Y-2.254
X311.754 Y-2.744
X311.073 Y-3.299
X310.39 Y-3.92
X309.716 Y-4.6
X309.065 Y-5.33
X308.439 Y-6.113
X307.835 Y-6.955
X307.259 Y-7.855
X306.719 Y-8.807
X306.218 Y-9.807
X305.763 Y-10.852
X305.358 Y-11.937
X305.006 Y-13.055
X304.71 Y-14.203
X304.473 Y-15.376
X304.297 Y-16.57
X304.183 Y-17.781
X304.133 Y-19.006
X304.148 Y-20.239
X304.229 Y-21.477
X304.376 Y-22.715
X304.588 Y-23.949
X304.867 Y-25.174
X305.211 Y-26.388
X305.62 Y-27.585
X306.093 Y-28.761
X306.629 Y-29.913
X307.226 Y-31.038
X307.882 Y-32.131
X308.596 Y-33.189
X309.366 Y-34.209
X310.189 Y-35.188
X311.064 Y-36.123
X311.988 Y-37.011
X312.202 Y-37.196
X312.579 Y-37.478
X312.992 Y-37.703
X313.432 Y-37.867
X313.892 Y-37.967
X314.361 Y-38
X321.244
G3 X323.361 Y-35.639 I-0.077 J2.199
G1 X320.881 Y-2.037
G3 X318.764 Y0 I-2.194 J-0.162
G1 X314.146
X313.636 Y-0.026
X313.265 Y-0.064
X312.847 Y-0.129
X312.407 Y-0.223
X311.939 Y-0.348
X311.428 Y-0.514
X310.912 Y-0.712
X310.358 Y-0.96
X309.775 Y-1.258
X309.193 Y-1.596
X308.579 Y-1.997
X307.944 Y-2.462
X307.32 Y-2.971
X306.685 Y-3.547
X306.039 Y-4.199
X305.399 Y-4.917
X304.785 Y-5.684
X304.186 Y-6.519
X303.606 Y-7.426
X303.051 Y-8.403
X302.531 Y-9.443
X302.056 Y-10.535
X301.63 Y-11.672
X301.258 Y-12.853
X300.942 Y-14.083
X300.685 Y-15.356
X300.491 Y-16.666
X300.366 Y-18.006
X300.31 Y-19.371
X300.327 Y-20.754
X300.418 Y-22.148
X300.584 Y-23.549
X300.825 Y-24.951
X301.143 Y-26.347
X301.536 Y-27.732
X302.004 Y-29.102
X302.547 Y-30.452
X303.162 Y-31.776
X303.849 Y-33.07
X304.605 Y-34.329
X305.311 Y-35.376
X305.93 Y-36.196
X306.503 Y-36.877
X306.576 Y-36.955
X306.905 Y-37.262
X307.273 Y-37.521
X307.672 Y-37.727
X308.096 Y-37.878
X308.537 Y-37.969
X308.985 Y-38
X314.361
G3 X315.196 Y-37.803 I-0.077 J2.199
X316.484 Y-35.787 I-0.912 J2.002
G1 X316.269 Y-2.185
G3 X314.146 Y0 I-2.2 J-0.014
G1 X309.891
X309.525 Y-0.018
X309.161 Y-0.056
X308.787 Y-0.115
X308.364 Y-0.204
X307.929 Y-0.321
X307.458 Y-0.474
X306.953 Y-0.668
X306.442 Y-0.896
X305.89 Y-1.179
X305.321 Y-1.509
X304.746 Y-1.884
X304.136 Y-2.331
X303.519 Y-2.834
X302.908 Y-3.389
X302.278 Y-4.024
X301.643 Y-4.737
X301.032 Y-5.5
X300.435 Y-6.333
X299.849 Y-7.249
X299.283 Y-8.245
X298.75 Y-9.311
X298.265 Y-10.426
X297.824 Y-11.604
X297.431 Y-12.854
X297.092 Y-14.168
X296.815 Y-15.538
X296.606 Y-16.958
X296.469 Y-18.42
X296.408 Y-19.913
X296.427 Y-21.429
X296.526 Y-22.961
X296.709 Y-24.506
X296.977 Y-26.057
X297.33 Y-27.61
X297.77 Y-29.16
X298.295 Y-30.698
X298.885 Y-32.164
X299.503 Y-33.494
X300.064 Y-34.551
X300.561 Y-35.379
X301.043 Y-36.094
X301.493 Y-36.69
X301.606 Y-36.824
X301.94 Y-37.167
X302.32 Y-37.459
X302.739 Y-37.692
X303.186 Y-37.862
X303.654 Y-37.965
X304.132 Y-38
X308.985
G3 X309.821 Y-37.803 I-0.077 J2.199
X311.108 Y-35.861 I-0.912 J2.002
G1 X312.014 Y-2.258
G3 X310.727 Y-0.197 I-2.199 J0.059
X309.891 Y0 I-0.912 J-2.002
G1 X305.933
X305.574 Y-0.018
X305.222 Y-0.054
X304.856 Y-0.112
X304.453 Y-0.197
X304.019 Y-0.313
X303.569 Y-0.459
X303.074 Y-0.65
X302.574 Y-0.873
X302.04 Y-1.146
X301.475 Y-1.474
X300.913 Y-1.842
X300.315 Y-2.279
X299.7 Y-2.781
X299.095 Y-3.33
X298.471 Y-3.96
X297.836 Y-4.672
X297.225 Y-5.436
X296.622 Y-6.276
X296.025 Y-7.21
X295.443 Y-8.233
X294.903 Y-9.314
X294.403 Y-10.462
X293.94 Y-11.7
X293.524 Y-13.022
X293.164 Y-14.419
X292.869 Y-15.881
X292.647 Y-17.387
X292.502 Y-18.931
X292.437 Y-20.521
X292.457 Y-22.155
X292.566 Y-23.825
X292.766 Y-25.515
X293.055 Y-27.192
X293.431 Y-28.852
X293.88 Y-30.445
X294.368 Y-31.879
X294.881 Y-33.16
X295.356 Y-34.185
X295.787 Y-35.002
X296.218 Y-35.722
X296.618 Y-36.316
X296.895 Y-36.684
X297.18 Y-37.014
X297.505 Y-37.304
X297.867 Y-37.549
X298.257 Y-37.744
X298.669 Y-37.885
X299.097 Y-37.971
X299.532 Y-38
X304.132
G3 X304.967 Y-37.803 I-0.077 J2.199
X306.252 Y-35.919 I-0.912 J2.002
G1 X308.053 Y-2.316
G3 X305.933 Y0 I-2.197 J0.118
G1 X302.272
X301.684 Y-0.029
X301.34 Y-0.065
X300.975 Y-0.122
X300.581 Y-0.206
X300.148 Y-0.321
X299.706 Y-0.465
X299.216 Y-0.653
X298.718 Y-0.876
X298.192 Y-1.145
X297.628 Y-1.472
X297.068 Y-1.838
X296.471 Y-2.275
X295.856 Y-2.777
X295.251 Y-3.326
X294.622 Y-3.96
X293.982 Y-4.679
X293.368 Y-5.447
X292.751 Y-6.306
X292.135 Y-7.268
X291.542 Y-8.313
X290.993 Y-9.412
X290.47 Y-10.612
X289.986 Y-11.908
X289.549 Y-13.294
X289.173 Y-14.756
X288.868 Y-16.264
X288.636 Y-17.839
X288.481 Y-19.49
X288.412 Y-21.19
X288.432 Y-22.892
X288.539 Y-24.591
X288.73 Y-26.282
X289.008 Y-27.961
X289.361 Y-29.579
X289.767 Y-31.054
X290.201 Y-32.361
X290.645 Y-33.491
X291.052 Y-34.387
X291.453 Y-35.159
X291.836 Y-35.809
X292.213 Y-36.378
X292.427 Y-36.666
X292.712 Y-37.001
X293.038 Y-37.294
X293.401 Y-37.542
X293.793 Y-37.74
X294.209 Y-37.884
X294.639 Y-37.971
X295.078 Y-38
X299.532
G3 X301.648 Y-35.98 I-0.077 J2.199
G1 X304.388 Y-2.377
G3 X302.272 Y0 I-2.193 J0.179
G1 X298.314
X297.842 Y-0.024
X297.497 Y-0.059
X297.133 Y-0.116
X296.738 Y-0.2
X296.305 Y-0.316
X295.861 Y-0.46
X295.371 Y-0.649
X294.872 Y-0.871
X294.341 Y-1.143
X293.775 Y-1.471
X293.211 Y-1.84
X292.606 Y-2.282
X291.989 Y-2.786
X291.376 Y-3.343
X290.735 Y-3.99
X290.088 Y-4.716
X289.463 Y-5.497
X288.826 Y-6.384
X288.191 Y-7.377
X287.594 Y-8.428
X287.026 Y-9.565
X286.483 Y-10.811
X285.977 Y-12.164
X285.523 Y-13.606
X285.138 Y-15.101
X284.819 Y-16.682
X284.573 Y-18.35
X284.414 Y-20.045
X284.342 Y-21.745
X284.356 Y-23.447
X284.453 Y-25.146
X284.634 Y-26.838
X284.9 Y-28.504
X285.229 Y-30.042
X285.598 Y-31.408
X286.005 Y-32.65
X286.405 Y-33.682
X286.778 Y-34.511
X287.151 Y-35.237
X287.518 Y-35.865
X287.874 Y-36.408
X288.055 Y-36.654
X288.34 Y-36.992
X288.667 Y-37.288
X289.031 Y-37.538
X289.424 Y-37.738
X289.841 Y-37.882
X290.274 Y-37.97
X290.714 Y-38
X295.078
G3 X297.191 Y-36.012 I-0.077 J2.199
G1 X300.427 Y-2.41
G3 X299.15 Y-0.197 I-2.19 J0.211
X298.314 Y0 I-0.912 J-2.002
G1 X294.356
X293.991 Y-0.018
X293.644 Y-0.054
X293.279 Y-0.111
X292.88 Y-0.196
X292.446 Y-0.312
X291.999 Y-0.457
X291.503 Y-0.648
X291.003 Y-0.871
X290.464 Y-1.147
X289.895 Y-1.477
X289.322 Y-1.852
X288.706 Y-2.302
X288.088 Y-2.806
X287.461 Y-3.375
X286.803 Y-4.04
X286.156 Y-4.766
X285.512 Y-5.571
X284.854 Y-6.488
X284.207 Y-7.499
X283.602 Y-8.565
X283.012 Y-9.745
X282.446 Y-11.044
X281.922 Y-12.445
X281.46 Y-13.914
X281.06 Y-15.464
X280.728 Y-17.112
X280.479 Y-18.795
X280.318 Y-20.49
X280.241 Y-22.19
X280.248 Y-23.892
X280.339 Y-25.592
X280.515 Y-27.284
X280.769 Y-28.901
X281.075 Y-30.347
X281.427 Y-31.661
X281.809 Y-32.835
X282.184 Y-33.809
X282.539 Y-34.604
X282.893 Y-35.295
X283.249 Y-35.909
X283.594 Y-36.436
X283.749 Y-36.649
X284.034 Y-36.987
X284.361 Y-37.285
X284.725 Y-37.536
X285.12 Y-37.736
X285.537 Y-37.882
X285.971 Y-37.97
X286.412 Y-38
X290.714
G3 X291.55 Y-37.803 I-0.077 J2.199
X292.825 Y-36.038 I-0.912 J2.002
G1 X296.466 Y-2.436
G3 X294.356 Y0 I-2.187 J0.237
G1 X290.561
X290.107 Y-0.023
X289.758 Y-0.059
X289.392 Y-0.116
X288.988 Y-0.202
X288.553 Y-0.318
X288.101 Y-0.465
X287.601 Y-0.658
X287.098 Y-0.882
X286.547 Y-1.164
X285.978 Y-1.494
X285.393 Y-1.876
X284.767 Y-2.334
X284.147 Y-2.84
X283.505 Y-3.423
X282.832 Y-4.102
X282.181 Y-4.833
X281.516 Y-5.664
X280.839 Y-6.608
X280.189 Y-7.623
X279.566 Y-8.721
X278.955 Y-9.943
X278.372 Y-11.281
X277.838 Y-12.71
X277.365 Y-14.211
X276.953 Y-15.81
X276.616 Y-17.478
X276.367 Y-19.162
X276.203 Y-20.856
X276.122 Y-22.556
X276.124 Y-24.258
X276.212 Y-25.957
X276.384 Y-27.636
X276.628 Y-29.19
X276.922 Y-30.579
X277.265 Y-31.864
X277.625 Y-32.972
X277.985 Y-33.909
X278.33 Y-34.682
X278.67 Y-35.347
X279.02 Y-35.951
X279.357 Y-36.466
X279.489 Y-36.647
X279.774 Y-36.986
X280.101 Y-37.284
X280.466 Y-37.536
X280.86 Y-37.736
X281.278 Y-37.882
X281.712 Y-37.97
X282.153 Y-38
X286.412
G3 X288.519 Y-36.071 I-0.077 J2.199
G1 X292.668 Y-2.468
G3 X291.397 Y-0.197 I-2.183 J0.27
X290.561 Y0 I-0.912 J-2.002
G1 X286.603
X286.207 Y-0.02
X285.852 Y-0.056
X285.485 Y-0.114
X285.073 Y-0.201
X284.638 Y-0.318
X284.178 Y-0.467
X283.673 Y-0.662
X283.163 Y-0.889
X282.601 Y-1.177
X282.031 Y-1.507
X281.433 Y-1.898
X280.798 Y-2.363
X280.173 Y-2.873
X279.513 Y-3.472
X278.831 Y-4.16
X278.169 Y-4.902
X277.485 Y-5.757
X276.794 Y-6.721
X276.14 Y-7.743
X275.497 Y-8.875
X274.869 Y-10.131
X274.274 Y-11.498
X273.732 Y-12.947
X273.25 Y-14.478
X272.83 Y-16.109
X272.493 Y-17.777
X272.242 Y-19.46
X272.076 Y-21.154
X271.992 Y-22.854
X271.993 Y-24.556
X272.079 Y-26.256
X272.249 Y-27.902
X272.484 Y-29.401
X272.771 Y-30.758
X273.107 Y-32.014
X273.452 Y-33.076
X273.802 Y-33.985
X274.139 Y-34.741
X274.471 Y-35.389
X274.816 Y-35.984
X275.148 Y-36.493
X275.262 Y-36.648
X275.546 Y-36.987
X275.873 Y-37.285
X276.238 Y-37.536
X276.632 Y-37.736
X277.05 Y-37.882
X277.484 Y-37.97
X277.925 Y-38
X282.153
G3 X282.989 Y-37.803 I-0.077 J2.199
X284.258 Y-36.09 I-0.912 J2.002
G1 X288.707 Y-2.487
G3 X287.439 Y-0.197 I-2.181 J0.289
X286.603 Y0 I-0.912 J-2.002
G1 X282.845
X282.258 Y-0.029
X281.9 Y-0.066
X281.531 Y-0.124
X281.113 Y-0.213
X280.679 Y-0.329
X280.211 Y-0.481
X279.704 Y-0.676
X279.187 Y-0.907
X278.616 Y-1.199
X278.044 Y-1.531
X277.435 Y-1.929
X276.794 Y-2.398
X276.161 Y-2.914
X275.485 Y-3.528
X274.8 Y-4.219
X274.125 Y-4.977
X273.425 Y-5.851
X272.726 Y-6.826
X272.064 Y-7.86
X271.405 Y-9.02
X270.765 Y-10.3
X270.162 Y-11.686
X269.614 Y-13.151
X269.125 Y-14.705
X268.7 Y-16.353
X268.363 Y-18.022
X268.111 Y-19.705
X267.943 Y-21.398
X267.859 Y-23.098
X267.858 Y-24.8
X267.945 Y-26.5
X268.113 Y-28.113
X268.343 Y-29.57
X268.627 Y-30.907
X268.956 Y-32.136
X269.292 Y-33.166
X269.633 Y-34.05
X269.966 Y-34.794
X270.291 Y-35.428
X270.633 Y-36.017
X270.962 Y-36.519
X271.058 Y-36.65
X271.342 Y-36.988
X271.669 Y-37.286
X272.034 Y-37.537
X272.428 Y-37.737
X272.845 Y-37.882
X273.279 Y-37.97
X273.72 Y-38
X277.925
G3 X278.761 Y-37.803 I-0.077 J2.199
X280.025 Y-36.12 I-0.912 J2.002
G1 X284.945 Y-2.517
G3 X282.845 Y0 I-2.177 J0.319
G1 X278.887
X278.291 Y-0.03
X277.929 Y-0.067
X277.557 Y-0.126
X277.134 Y-0.215
X276.698 Y-0.332
X276.221 Y-0.487
X275.713 Y-0.682
X275.187 Y-0.917
X274.608 Y-1.213
X274.032 Y-1.548
X273.412 Y-1.953
X272.769 Y-2.423
X272.124 Y-2.949
X271.434 Y-3.576
X270.749 Y-4.267
X270.059 Y-5.042
X269.345 Y-5.933
X268.643 Y-6.913
X267.97 Y-7.963
X267.3 Y-9.145
X266.65 Y-10.443
X266.041 Y-11.843
X265.489 Y-13.32
X264.994 Y-14.891
X264.569 Y-16.539
X264.231 Y-18.207
X263.978 Y-19.89
X263.809 Y-21.584
X263.723 Y-23.284
X263.722 Y-24.986
X263.809 Y-26.674
X263.974 Y-28.259
X264.201 Y-29.691
X264.482 Y-31.011
X264.807 Y-32.219
X265.136 Y-33.229
X265.47 Y-34.094
X265.799 Y-34.829
X266.121 Y-35.455
X266.459 Y-36.038
X266.786 Y-36.537
X266.87 Y-36.651
X267.155 Y-36.989
X267.482 Y-37.286
X267.846 Y-37.537
X268.24 Y-37.737
X268.657 Y-37.882
X269.09 Y-37.97
X269.531 Y-38
X273.72
G3 X275.818 Y-36.136 I-0.077 J2.199
G1 X280.985 Y-2.533
G3 X279.722 Y-0.197 I-2.174 J0.334
X278.887 Y0 I-0.912 J-2.002
G1 X274.729
X274.302 Y-0.021
X273.938 Y-0.059
X273.561 Y-0.118
X273.133 Y-0.209
X272.695 Y-0.326
X272.209 Y-0.484
X271.701 Y-0.679
X271.164 Y-0.919
X270.582 Y-1.217
X270 Y-1.555
X269.368 Y-1.967
X268.725 Y-2.438
X268.068 Y-2.974
X267.367 Y-3.611
X266.68 Y-4.304
X265.977 Y-5.092
X265.252 Y-5.998
X264.55 Y-6.978
X263.866 Y-8.046
X263.186 Y-9.244
X262.529 Y-10.557
X261.916 Y-11.966
X261.359 Y-13.454
X260.86 Y-15.039
X260.436 Y-16.687
X260.097 Y-18.355
X259.844 Y-20.038
X259.673 Y-21.731
X259.587 Y-23.431
X259.586 Y-25.133
X259.673 Y-26.809
X259.836 Y-28.37
X260.061 Y-29.784
X260.34 Y-31.092
X260.66 Y-32.283
X260.985 Y-33.278
X261.314 Y-34.129
X261.641 Y-34.857
X261.959 Y-35.477
X262.296 Y-36.055
X262.621 Y-36.551
X262.695 Y-36.652
X262.98 Y-36.99
X263.307 Y-37.287
X263.671 Y-37.537
X264.065 Y-37.737
X264.482 Y-37.882
X264.915 Y-37.97
X265.356 Y-38
X269.531
G3 X271.629 Y-36.138 I-0.077 J2.199
G1 X276.827 Y-2.535
G3 X274.729 Y0 I-2.174 J0.336
G1 X270.608
X270.279 Y-0.016
X269.913 Y-0.054
X269.533 Y-0.114
X269.101 Y-0.205
X268.661 Y-0.323
X268.169 Y-0.483
X267.661 Y-0.678
X267.116 Y-0.922
X266.532 Y-1.221
X265.944 Y-1.562
X265.304 Y-1.98
X264.661 Y-2.45
X263.993 Y-2.995
X263.285 Y-3.638
X262.596 Y-4.334
X261.883 Y-5.134
X261.15 Y-6.05
X260.446 Y-7.031
X259.753 Y-8.113
X259.066 Y-9.323
X258.404 Y-10.648
X257.788 Y-12.064
X257.228 Y-13.56
X256.726 Y-15.154
X256.301 Y-16.802
X255.963 Y-18.47
X255.708 Y-20.153
X255.538 Y-21.847
X255.451 Y-23.546
Y-25.248
X255.537 Y-26.913
X255.699 Y-28.456
X255.922 Y-29.857
X256.2 Y-31.156
X256.517 Y-32.333
X256.839 Y-33.317
X257.163 Y-34.156
X257.488 Y-34.879
X257.804 Y-35.494
X258.139 Y-36.069
X258.463 Y-36.562
X258.53 Y-36.653
X258.815 Y-36.991
X259.142 Y-37.288
X259.505 Y-37.538
X259.899 Y-37.737
X260.316 Y-37.882
X260.749 Y-37.97
X261.19 Y-38
X265.356
G3 X266.191 Y-37.803 I-0.077 J2.199
X267.453 Y-36.141 I-0.912 J2.002
G1 X272.705 Y-2.538
G3 X270.608 Y0 I-2.174 J0.34
G1 X266.65
X266.222 Y-0.021
X265.855 Y-0.059
X265.473 Y-0.119
X265.039 Y-0.211
X264.598 Y-0.329
X264.102 Y-0.49
X263.594 Y-0.686
X263.043 Y-0.932
X262.458 Y-1.231
X261.866 Y-1.575
X261.221 Y-1.996
X260.576 Y-2.467
X259.902 Y-3.018
X259.189 Y-3.665
X258.497 Y-4.364
X257.777 Y-5.172
X257.039 Y-6.094
X256.333 Y-7.077
X255.634 Y-8.17
X254.942 Y-9.389
X254.276 Y-10.722
X253.657 Y-12.142
X253.095 Y-13.644
X252.591 Y-15.246
X252.167 Y-16.894
X251.828 Y-18.562
X251.573 Y-20.244
X251.402 Y-21.938
X251.315 Y-23.638
Y-25.339
X251.402 Y-26.996
X251.563 Y-28.523
X251.785 Y-29.915
X252.061 Y-31.206
X252.377 Y-32.373
X252.696 Y-33.348
X253.017 Y-34.178
X253.341 Y-34.897
X253.655 Y-35.509
X253.989 Y-36.08
X254.312 Y-36.572
X254.372 Y-36.654
X254.657 Y-36.992
X254.984 Y-37.288
X255.348 Y-37.538
X255.741 Y-37.737
X256.158 Y-37.882
X256.591 Y-37.97
X257.031 Y-38
X261.19
G3 X263.285 Y-36.154 I-0.077 J2.199
G1 X268.745 Y-2.552
G3 X266.65 Y0 I-2.172 J0.353
G1 X262.692
X262.149 Y-0.027
X261.782 Y-0.065
X261.398 Y-0.125
X260.963 Y-0.218
X260.52 Y-0.336
X260.021 Y-0.498
X259.512 Y-0.694
X258.957 Y-0.942
X258.371 Y-1.241
X257.775 Y-1.587
X257.125 Y-2.012
X256.48 Y-2.484
X255.8 Y-3.039
X255.085 Y-3.688
X254.389 Y-4.39
X253.664 Y-5.204
X252.922 Y-6.131
X252.215 Y-7.117
X251.51 Y-8.218
X250.815 Y-9.443
X250.145 Y-10.781
X249.526 Y-12.205
X248.962 Y-13.712
X248.456 Y-15.318
X248.032 Y-16.966
X247.693 Y-18.634
X247.438 Y-20.317
X247.266 Y-22.01
X247.18 Y-23.71
Y-25.412
X247.267 Y-27.061
X247.428 Y-28.577
X247.649 Y-29.961
X247.925 Y-31.246
X248.238 Y-32.406
X248.556 Y-33.373
X248.875 Y-34.195
X249.197 Y-34.911
X249.51 Y-35.52
X249.843 Y-36.089
X250.165 Y-36.58
X250.22 Y-36.655
X250.505 Y-36.992
X250.832 Y-37.289
X251.196 Y-37.539
X251.589 Y-37.738
X252.006 Y-37.883
X252.438 Y-37.971
X252.879 Y-38
X257.031
G3 X259.124 Y-36.167 I-0.077 J2.199
G1 X264.785 Y-2.564
G3 X262.692 Y0 I-2.169 J0.365
G1 X258.437
X258.081 Y-0.018
X257.713 Y-0.056
X257.325 Y-0.117
X256.888 Y-0.209
X256.442 Y-0.328
X255.94 Y-0.492
X255.429 Y-0.688
X254.869 Y-0.938
X254.284 Y-1.238
X253.682 Y-1.587
X253.029 Y-2.014
X252.382 Y-2.487
X251.696 Y-3.047
X250.978 Y-3.698
X250.279 Y-4.404
X249.548 Y-5.224
X248.804 Y-6.154
X248.095 Y-7.143
X247.386 Y-8.25
X246.687 Y-9.482
X246.015 Y-10.825
X245.394 Y-12.251
X244.829 Y-13.763
X244.322 Y-15.373
X243.897 Y-17.021
X243.558 Y-18.689
X243.303 Y-20.371
X243.132 Y-22.065
X243.045 Y-23.764
Y-25.466
X243.133 Y-27.11
X243.293 Y-28.617
X243.514 Y-29.996
X243.788 Y-31.276
X244.101 Y-32.43
X244.417 Y-33.392
X244.734 Y-34.209
X245.055 Y-34.922
X245.368 Y-35.529
X245.699 Y-36.097
X246.021 Y-36.587
X246.073 Y-36.656
X246.357 Y-36.993
X246.684 Y-37.289
X247.048 Y-37.539
X247.441 Y-37.738
X247.858 Y-37.883
X248.29 Y-37.971
X248.73 Y-38
X252.879
G3 X254.972 Y-36.16 I-0.077 J2.199
G1 X260.531 Y-2.558
G3 X259.273 Y-0.197 I-2.171 J0.359
X258.437 Y0 I-0.912 J-2.002
G1 X254.479
X253.977 Y-0.025
X253.61 Y-0.063
X253.221 Y-0.124
X252.784 Y-0.217
X252.338 Y-0.336
X251.834 Y-0.5
X251.323 Y-0.696
X250.761 Y-0.947
X250.176 Y-1.247
X249.572 Y-1.597
X248.917 Y-2.025
X248.269 Y-2.499
X247.58 Y-3.061
X246.861 Y-3.713
X246.16 Y-4.422
X245.426 Y-5.245
X244.68 Y-6.177
X243.97 Y-7.168
X243.258 Y-8.28
X242.556 Y-9.515
X241.884 Y-10.861
X241.262 Y-12.289
X240.695 Y-13.804
X240.188 Y-15.416
X239.763 Y-17.065
X239.424 Y-18.732
X239.168 Y-20.415
X238.997 Y-22.108
X238.91 Y-23.808
X238.911 Y-25.51
X238.998 Y-27.149
X239.158 Y-28.649
X239.379 Y-30.025
X239.653 Y-31.3
X239.965 Y-32.449
X240.279 Y-33.407
X240.595 Y-34.22
X240.916 Y-34.932
X241.228 Y-35.537
X241.559 Y-36.103
X241.88 Y-36.592
X241.928 Y-36.657
X242.213 Y-36.994
X242.54 Y-37.289
X242.903 Y-37.539
X243.297 Y-37.738
X243.713 Y-37.883
X244.146 Y-37.971
X244.586 Y-38
X248.73
G3 X250.822 Y-36.172 I-0.077 J2.199
G1 X256.571 Y-2.57
G3 X254.479 Y0 I-2.168 J0.371
G1 X250.322
X249.881 Y-0.022
X249.513 Y-0.06
X249.122 Y-0.121
X248.684 Y-0.214
X248.236 Y-0.334
X247.73 Y-0.498
X247.219 Y-0.695
X246.654 Y-0.947
X246.068 Y-1.247
X245.462 Y-1.599
X244.804 Y-2.028
X244.155 Y-2.503
X243.463 Y-3.068
X242.744 Y-3.721
X242.04 Y-4.432
X241.303 Y-5.258
X240.555 Y-6.192
X239.844 Y-7.185
X239.129 Y-8.301
X238.426 Y-9.54
X237.752 Y-10.888
X237.129 Y-12.318
X236.562 Y-13.835
X236.054 Y-15.45
X235.629 Y-17.098
X235.29 Y-18.766
X235.034 Y-20.448
X234.862 Y-22.142
X234.776 Y-23.841
X234.777 Y-25.542
X234.864 Y-27.176
X235.024 Y-28.672
X235.244 Y-30.045
X235.518 Y-31.317
X235.829 Y-32.463
X236.143 Y-33.418
X236.457 Y-34.227
X236.777 Y-34.938
X237.089 Y-35.542
X237.419 Y-36.106
X237.741 Y-36.595
X237.786 Y-36.657
X238.071 Y-36.994
X238.398 Y-37.29
X238.761 Y-37.539
X239.155 Y-37.738
X239.571 Y-37.883
X240.003 Y-37.971
X240.443 Y-38
X244.586
G3 X246.677 Y-36.172 I-0.077 J2.199
G1 X252.414 Y-2.569
G3 X250.322 Y0 I-2.169 J0.37
G1 X246.2
X245.772 Y-0.021
X245.405 Y-0.059
X245.012 Y-0.121
X244.574 Y-0.214
X244.125 Y-0.334
X243.618 Y-0.499
X243.106 Y-0.696
X242.539 Y-0.949
X241.954 Y-1.248
X241.345 Y-1.601
X240.687 Y-2.032
X240.037 Y-2.507
X239.342 Y-3.074
X238.622 Y-3.727
X237.916 Y-4.44
X237.177 Y-5.269
X236.429 Y-6.204
X235.716 Y-7.198
X235 Y-8.317
X234.295 Y-9.559
X233.62 Y-10.909
X232.997 Y-12.34
X232.428 Y-13.859
X231.92 Y-15.476
X231.495 Y-17.124
X231.156 Y-18.791
X230.9 Y-20.474
X230.728 Y-22.167
X230.642 Y-23.867
X230.643 Y-25.565
X230.73 Y-27.197
X230.89 Y-28.69
X231.11 Y-30.06
X231.383 Y-31.33
X231.693 Y-32.473
X232.007 Y-33.426
X232.32 Y-34.233
X232.64 Y-34.942
X232.951 Y-35.546
X233.281 Y-36.109
X233.603 Y-36.598
X233.647 Y-36.657
X233.931 Y-36.994
X234.258 Y-37.29
X234.622 Y-37.539
X235.015 Y-37.738
X235.431 Y-37.883
X235.863 Y-37.971
X236.303 Y-38
X240.443
G3 X242.535 Y-36.173 I-0.077 J2.199
G1 X248.292 Y-2.57
G3 X246.2 Y0 I-2.168 J0.372
G1 X242.242
X241.648 Y-0.03
X241.281 Y-0.068
X240.889 Y-0.129
X240.451 Y-0.222
X240.002 Y-0.342
X239.495 Y-0.507
X238.982 Y-0.704
X238.415 Y-0.957
X237.83 Y-1.257
X237.22 Y-1.61
X236.561 Y-2.041
X235.911 Y-2.517
X235.215 Y-3.084
X234.495 Y-3.738
X233.788 Y-4.452
X233.048 Y-5.282
X232.299 Y-6.218
X231.586 Y-7.213
X230.868 Y-8.334
X230.163 Y-9.576
X229.487 Y-10.928
X228.863 Y-12.36
X228.295 Y-13.88
X227.786 Y-15.497
X227.361 Y-17.145
X227.022 Y-18.813
X226.766 Y-20.496
X226.595 Y-22.189
X226.508 Y-23.889
X226.509 Y-25.585
X226.597 Y-27.215
X226.756 Y-28.704
X226.976 Y-30.073
X227.249 Y-31.34
X227.559 Y-32.482
X227.872 Y-33.432
X228.185 Y-34.238
X228.504 Y-34.946
X228.815 Y-35.549
X229.144 Y-36.112
X229.466 Y-36.6
X229.508 Y-36.658
X229.793 Y-36.994
X230.12 Y-37.29
X230.483 Y-37.539
X230.877 Y-37.738
X231.293 Y-37.883
X231.725 Y-37.971
X232.165 Y-38
X236.303
G3 X238.393 Y-36.184 I-0.077 J2.199
G1 X244.332 Y-2.582
G3 X242.242 Y0 I-2.166 J0.383
G1 X237.988
X237.541 Y-0.022
X237.174 Y-0.06
X236.779 Y-0.122
X236.34 Y-0.215
X235.89 Y-0.336
X235.381 Y-0.501
X234.868 Y-0.699
X234.298 Y-0.953
X233.713 Y-1.252
X233.101 Y-1.607
X232.441 Y-2.038
X231.79 Y-2.515
X231.091 Y-3.085
X230.371 Y-3.738
X229.662 Y-4.454
X228.921 Y-5.286
X228.171 Y-6.223
X227.456 Y-7.219
X226.738 Y-8.342
X226.031 Y-9.587
X225.355 Y-10.94
X224.731 Y-12.372
X224.162 Y-13.894
X223.652 Y-15.512
X223.228 Y-17.16
X222.888 Y-18.828
X222.633 Y-20.511
X222.461 Y-22.204
X222.375 Y-23.904
X222.376 Y-25.599
X222.463 Y-27.227
X222.622 Y-28.714
X222.842 Y-30.081
X223.115 Y-31.348
X223.424 Y-32.488
X223.737 Y-33.437
X224.049 Y-34.241
X224.368 Y-34.949
X224.679 Y-35.551
X225.008 Y-36.113
X225.33 Y-36.601
X225.371 Y-36.658
X225.656 Y-36.994
X225.983 Y-37.29
X226.346 Y-37.539
X226.74 Y-37.738
X227.156 Y-37.883
X227.588 Y-37.971
X228.028 Y-38
X232.165
G3 X234.256 Y-36.177 I-0.077 J2.199
G1 X240.079 Y-2.574
G3 X237.988 Y0 I-2.168 J0.376
G1 X234.03
X233.408 Y-0.031
X233.041 Y-0.069
X232.647 Y-0.131
X232.209 Y-0.224
X231.758 Y-0.344
X231.25 Y-0.509
X230.737 Y-0.707
X230.168 Y-0.961
X229.583 Y-1.26
X228.971 Y-1.615
X228.311 Y-2.046
X227.659 Y-2.523
X226.961 Y-3.093
X226.241 Y-3.747
X225.531 Y-4.463
X224.789 Y-5.296
X224.04 Y-6.232
X223.325 Y-7.229
X222.605 Y-8.353
X221.898 Y-9.598
X221.222 Y-10.951
X220.598 Y-12.385
X220.028 Y-13.907
X219.519 Y-15.525
X219.094 Y-17.174
X218.755 Y-18.841
X218.499 Y-20.524
X218.327 Y-22.217
X218.241 Y-23.917
X218.243 Y-25.611
X218.33 Y-27.238
X218.489 Y-28.723
X218.709 Y-30.089
X218.981 Y-31.354
X219.29 Y-32.493
X219.602 Y-33.441
X219.915 Y-34.244
X220.234 Y-34.951
X220.544 Y-35.553
X220.873 Y-36.115
X221.194 Y-36.603
X221.235 Y-36.658
X221.52 Y-36.994
X221.847 Y-37.29
X222.21 Y-37.539
X222.603 Y-37.738
X223.02 Y-37.883
X223.452 Y-37.971
X223.891 Y-38
X228.028
G3 X228.863 Y-37.803 I-0.077 J2.199
X230.117 Y-36.188 I-0.912 J2.002
G1 X236.119 Y-2.585
G3 X234.03 Y0 I-2.166 J0.387
G1 X229.709
X229.298 Y-0.021
X228.931 Y-0.058
X228.535 Y-0.121
X228.096 Y-0.214
X227.644 Y-0.335
X227.134 Y-0.5
X226.62 Y-0.698
X226.049 Y-0.953
X225.463 Y-1.253
X224.85 Y-1.609
X224.189 Y-2.04
X223.536 Y-2.518
X222.836 Y-3.089
X222.115 Y-3.743
X221.404 Y-4.461
X220.661 Y-5.295
X219.911 Y-6.233
X219.195 Y-7.231
X218.474 Y-8.356
X217.766 Y-9.603
X217.089 Y-10.957
X216.465 Y-12.391
X215.896 Y-13.914
X215.386 Y-15.534
X214.961 Y-17.182
X214.621 Y-18.85
X214.366 Y-20.532
X214.194 Y-22.226
X214.108 Y-23.925
X214.109 Y-25.619
X214.197 Y-27.245
X214.355 Y-28.729
X214.575 Y-30.094
X214.848 Y-31.358
X215.157 Y-32.496
X215.468 Y-33.444
X215.78 Y-34.246
X216.099 Y-34.953
X216.41 Y-35.554
X216.738 Y-36.116
X217.059 Y-36.603
X217.1 Y-36.658
X217.384 Y-36.994
X217.711 Y-37.29
X218.075 Y-37.539
X218.468 Y-37.738
X218.884 Y-37.883
X219.316 Y-37.971
X219.756 Y-38
X223.891
G3 X224.727 Y-37.803 I-0.077 J2.199
X225.982 Y-36.177 I-0.912 J2.002
G1 X231.8 Y-2.574
G3 X229.709 Y0 I-2.168 J0.375
G1 X225.751
X225.159 Y-0.03
X224.792 Y-0.068
X224.397 Y-0.129
X223.959 Y-0.222
X223.508 Y-0.343
X222.999 Y-0.508
X222.485 Y-0.706
X221.915 Y-0.961
X221.329 Y-1.26
X220.716 Y-1.616
X220.056 Y-2.048
X219.403 Y-2.525
X218.703 Y-3.096
X217.983 Y-3.75
X217.272 Y-4.467
X216.528 Y-5.302
X215.778 Y-6.239
X215.062 Y-7.237
X214.342 Y-8.363
X213.633 Y-9.61
X212.956 Y-10.965
X212.332 Y-12.399
X211.762 Y-13.922
X211.252 Y-15.542
X210.828 Y-17.19
X210.488 Y-18.858
X210.233 Y-20.54
X210.061 Y-22.234
X209.975 Y-23.934
X209.976 Y-25.627
X210.064 Y-27.251
X210.222 Y-28.734
X210.442 Y-30.099
X210.714 Y-31.362
X211.023 Y-32.5
X211.335 Y-33.446
X211.646 Y-34.247
X211.965 Y-34.954
X212.276 Y-35.555
X212.604 Y-36.117
X212.925 Y-36.604
X212.965 Y-36.658
X213.249 Y-36.995
X213.576 Y-37.29
X213.94 Y-37.54
X214.333 Y-37.738
X214.749 Y-37.883
X215.181 Y-37.971
X215.621 Y-38
X219.756
G3 X221.845 Y-36.188 I-0.077 J2.199
G1 X227.84 Y-2.585
G3 X225.751 Y0 I-2.166 J0.386
G1 X221.496
X221.041 Y-0.023
X220.674 Y-0.061
X220.278 Y-0.123
X219.839 Y-0.216
X219.386 Y-0.337
X218.877 Y-0.503
X218.362 Y-0.7
X217.79 Y-0.956
X217.205 Y-1.255
X216.591 Y-1.612
X215.929 Y-2.044
X215.276 Y-2.522
X214.575 Y-3.094
X213.854 Y-3.748
X213.143 Y-4.466
X212.398 Y-5.302
X211.647 Y-6.239
X210.931 Y-7.238
X210.21 Y-8.365
X209.501 Y-9.613
X208.824 Y-10.968
X208.199 Y-12.402
X207.629 Y-13.926
X207.119 Y-15.547
X206.695 Y-17.195
X206.355 Y-18.863
X206.099 Y-20.545
X205.928 Y-22.239
X205.841 Y-23.939
X205.843 Y-25.631
X205.93 Y-27.255
X206.089 Y-28.737
X206.308 Y-30.102
X206.581 Y-31.365
X206.889 Y-32.502
X207.201 Y-33.448
X207.512 Y-34.248
X207.831 Y-34.955
X208.142 Y-35.556
X208.47 Y-36.117
X208.791 Y-36.605
X208.83 Y-36.658
X209.115 Y-36.995
X209.442 Y-37.29
X209.805 Y-37.54
X210.199 Y-37.738
X210.615 Y-37.883
X211.047 Y-37.971
X211.487 Y-38
X215.621
G3 X216.457 Y-37.803 I-0.077 J2.199
X217.711 Y-36.18 I-0.912 J2.002
G1 X223.586 Y-2.578
G3 X221.496 Y0 I-2.167 J0.379
G1 X217.538
X216.901 Y-0.032
X216.533 Y-0.07
X216.139 Y-0.132
X215.7 Y-0.225
X215.249 Y-0.345
X214.739 Y-0.511
X214.225 Y-0.709
X213.654 Y-0.964
X213.069 Y-1.263
X212.456 Y-1.619
X211.794 Y-2.051
X211.142 Y-2.528
X210.441 Y-3.1
X209.72 Y-3.754
X209.009 Y-4.473
X208.264 Y-5.308
X207.514 Y-6.245
X206.798 Y-7.244
X206.077 Y-8.371
X205.368 Y-9.619
X204.691 Y-10.974
X204.066 Y-12.408
X203.496 Y-13.932
X202.986 Y-15.552
X202.561 Y-17.201
X202.222 Y-18.868
X201.966 Y-20.551
X201.795 Y-22.244
X201.708 Y-23.944
X201.71 Y-25.636
X201.797 Y-27.26
X201.956 Y-28.741
X202.175 Y-30.105
X202.448 Y-31.368
X202.756 Y-32.504
X203.068 Y-33.449
X203.379 Y-34.25
X203.698 Y-34.956
X204.008 Y-35.557
X204.336 Y-36.118
X204.657 Y-36.605
X204.696 Y-36.658
X204.981 Y-36.995
X205.308 Y-37.29
X205.671 Y-37.54
X206.065 Y-37.738
X206.481 Y-37.883
X206.913 Y-37.971
X207.352 Y-38
X211.487
G3 X212.322 Y-37.803 I-0.077 J2.199
X213.575 Y-36.191 I-0.912 J2.002
G1 X219.626 Y-2.589
G3 X217.538 Y0 I-2.165 J0.39
G1 X213.217
X212.785 Y-0.022
X212.418 Y-0.06
X212.021 Y-0.122
X211.582 Y-0.215
X211.129 Y-0.336
X210.618 Y-0.502
X210.104 Y-0.7
X209.531 Y-0.956
X208.946 Y-1.255
X208.33 Y-1.612
X207.669 Y-2.044
X207.015 Y-2.523
X206.313 Y-3.095
X205.592 Y-3.75
X204.88 Y-4.469
X204.134 Y-5.305
X203.384 Y-6.243
X202.667 Y-7.243
X201.945 Y-8.371
X201.236 Y-9.619
X200.558 Y-10.975
X199.934 Y-12.409
X199.363 Y-13.934
X198.853 Y-15.555
X198.429 Y-17.203
X198.089 Y-18.871
X197.833 Y-20.553
X197.662 Y-22.247
X197.575 Y-23.946
X197.577 Y-25.638
X197.664 Y-27.262
X197.823 Y-28.743
X198.042 Y-30.106
X198.314 Y-31.369
X198.623 Y-32.505
X198.934 Y-33.45
X199.245 Y-34.25
X199.564 Y-34.957
X199.874 Y-35.557
X200.203 Y-36.118
X200.524 Y-36.605
X200.562 Y-36.658
X200.847 Y-36.995
X201.174 Y-37.29
X201.537 Y-37.54
X201.931 Y-37.738
X202.347 Y-37.883
X202.779 Y-37.971
X203.219 Y-38
X207.352
G3 X209.443 Y-36.18 I-0.077 J2.199
G1 X215.308 Y-2.577
G3 X213.217 Y0 I-2.167 J0.378
G1 X209.259
X208.641 Y-0.031
X208.274 Y-0.069
X207.879 Y-0.131
X207.44 Y-0.224
X206.989 Y-0.345
X206.479 Y-0.51
X205.965 Y-0.708
X205.394 Y-0.963
X204.808 Y-1.263
X204.194 Y-1.619
X203.533 Y-2.051
X202.879 Y-2.529
X202.178 Y-3.101
X201.457 Y-3.755
X200.745 Y-4.474
X200 Y-5.31
X199.25 Y-6.248
X198.533 Y-7.247
X197.812 Y-8.375
X197.103 Y-9.623
X196.425 Y-10.978
X195.8 Y-12.413
X195.23 Y-13.938
X194.72 Y-15.558
X194.295 Y-17.206
X193.956 Y-18.874
X193.7 Y-20.557
X193.528 Y-22.25
X193.442 Y-23.95
X193.444 Y-25.642
X193.531 Y-27.264
X193.69 Y-28.745
X193.909 Y-30.108
X194.181 Y-31.371
X194.49 Y-32.506
X194.801 Y-33.451
X195.112 Y-34.251
X195.431 Y-34.957
X195.741 Y-35.558
X196.069 Y-36.119
X196.39 Y-36.606
X196.429 Y-36.658
X196.713 Y-36.995
X197.04 Y-37.29
X197.404 Y-37.54
X197.797 Y-37.738
X198.213 Y-37.883
X198.645 Y-37.971
X199.085 Y-38
X203.219
G3 X204.054 Y-37.803 I-0.077 J2.199
X205.307 Y-36.191 I-0.912 J2.002
G1 X211.348 Y-2.588
G3 X210.095 Y-0.197 I-2.165 J0.389
X209.259 Y0 I-0.912 J-2.002
G1 X205.004
X204.52 Y-0.024
X204.153 Y-0.062
X203.756 Y-0.124
X203.317 Y-0.217
X202.864 Y-0.339
X202.354 Y-0.504
X201.839 Y-0.702
X201.267 Y-0.958
X200.681 Y-1.258
X200.066 Y-1.615
X199.404 Y-2.047
X198.75 Y-2.525
X198.048 Y-3.098
X197.327 Y-3.752
X196.615 Y-4.472
X195.869 Y-5.309
X195.118 Y-6.246
X194.401 Y-7.246
X193.679 Y-8.375
X192.97 Y-9.624
X192.292 Y-10.979
X191.668 Y-12.414
X191.097 Y-13.939
X190.587 Y-15.56
X190.162 Y-17.208
X189.823 Y-18.876
X189.567 Y-20.558
X189.395 Y-22.252
X189.309 Y-23.951
X189.311 Y-25.643
X189.398 Y-27.266
X189.557 Y-28.746
X189.776 Y-30.109
X190.048 Y-31.371
X190.357 Y-32.507
X190.668 Y-33.452
X190.979 Y-34.251
X191.298 Y-34.957
X191.608 Y-35.558
X191.936 Y-36.119
X192.257 Y-36.606
X192.295 Y-36.658
X192.58 Y-36.995
X192.907 Y-37.29
X193.27 Y-37.54
X193.664 Y-37.738
X194.08 Y-37.883
X194.512 Y-37.971
X194.952 Y-38
X199.085
G3 X199.921 Y-37.803 I-0.077 J2.199
X201.175 Y-36.183 I-0.912 J2.002
G1 X207.094 Y-2.58
G3 X205.004 Y0 I-2.167 J0.382
G1 X200.847
X200.389 Y-0.023
X200.021 Y-0.061
X199.625 Y-0.123
X199.186 Y-0.216
X198.733 Y-0.337
X198.223 Y-0.503
X197.708 Y-0.701
X197.135 Y-0.957
X196.55 Y-1.256
X195.935 Y-1.613
X195.273 Y-2.046
X194.619 Y-2.524
X193.916 Y-3.097
X193.196 Y-3.751
X192.483 Y-4.471
X191.737 Y-5.308
X190.986 Y-6.246
X190.269 Y-7.246
X189.547 Y-8.374
X188.837 Y-9.624
X188.16 Y-10.979
X187.535 Y-12.414
X186.964 Y-13.939
X186.454 Y-15.561
X186.03 Y-17.209
X185.69 Y-18.877
X185.434 Y-20.559
X185.262 Y-22.253
X185.176 Y-23.952
X185.178 Y-25.644
X185.265 Y-27.266
X185.424 Y-28.747
X185.643 Y-30.11
X185.915 Y-31.372
X186.224 Y-32.507
X186.535 Y-33.452
X186.846 Y-34.251
X187.164 Y-34.958
X187.474 Y-35.558
X187.803 Y-36.119
X188.123 Y-36.606
X188.162 Y-36.658
X188.447 Y-36.995
X188.774 Y-37.29
X189.137 Y-37.54
X189.53 Y-37.738
X189.947 Y-37.883
X190.378 Y-37.971
X190.818 Y-38
X194.952
G3 X197.042 Y-36.181 I-0.077 J2.199
G1 X202.937 Y-2.579
G3 X200.847 Y0 I-2.167 J0.38
G1 X196.725
X196.255 Y-0.024
X195.888 Y-0.061
X195.492 Y-0.124
X195.052 Y-0.217
X194.6 Y-0.338
X194.09 Y-0.504
X193.575 Y-0.702
X193.002 Y-0.957
X192.417 Y-1.257
X191.802 Y-1.614
X191.14 Y-2.046
X190.486 Y-2.524
X189.784 Y-3.097
X189.063 Y-3.752
X188.35 Y-4.471
X187.604 Y-5.308
X186.854 Y-6.246
X186.136 Y-7.246
X185.414 Y-8.375
X184.705 Y-9.624
X184.027 Y-10.98
X183.402 Y-12.415
X182.832 Y-13.94
X182.321 Y-15.562
X181.896 Y-17.21
X181.557 Y-18.878
X181.301 Y-20.56
X181.129 Y-22.253
X181.043 Y-23.953
X181.045 Y-25.645
X181.132 Y-27.267
X181.291 Y-28.747
X181.51 Y-30.11
X181.782 Y-31.372
X182.09 Y-32.507
X182.402 Y-33.452
X182.713 Y-34.252
X183.031 Y-34.958
X183.341 Y-35.558
X183.67 Y-36.119
X183.99 Y-36.606
X184.029 Y-36.658
X184.313 Y-36.995
X184.64 Y-37.29
X185.004 Y-37.54
X185.397 Y-37.738
X185.813 Y-37.883
X186.245 Y-37.971
X186.685 Y-38
X190.818
G3 X192.908 Y-36.182 I-0.077 J2.199
G1 X198.815 Y-2.58
G3 X196.725 Y0 I-2.167 J0.381
G1 X192.471
X192.13 Y-0.017
X191.762 Y-0.055
X191.365 Y-0.117
X190.926 Y-0.21
X190.473 Y-0.332
X189.962 Y-0.498
X189.447 Y-0.696
X188.874 Y-0.952
X188.288 Y-1.251
X187.673 Y-1.609
X187.01 Y-2.041
X186.356 Y-2.52
X185.653 Y-3.093
X184.932 Y-3.748
X184.219 Y-4.468
X183.473 Y-5.305
X182.722 Y-6.243
X182.004 Y-7.244
X181.282 Y-8.373
X180.572 Y-9.623
X179.894 Y-10.979
X179.269 Y-12.414
X178.699 Y-13.939
X178.188 Y-15.561
X177.764 Y-17.209
X177.424 Y-18.877
X177.168 Y-20.56
X176.996 Y-22.253
X176.91 Y-23.953
X176.912 Y-25.644
X176.999 Y-27.267
X177.157 Y-28.747
X177.377 Y-30.11
X177.649 Y-31.372
X177.957 Y-32.507
X178.268 Y-33.452
X178.579 Y-34.251
X178.898 Y-34.957
X179.208 Y-35.558
X179.536 Y-36.119
X179.857 Y-36.606
X179.895 Y-36.658
X180.18 Y-36.995
X180.507 Y-37.29
X180.87 Y-37.54
X181.264 Y-37.738
X181.68 Y-37.883
X182.112 Y-37.971
X182.552 Y-38
X186.685
G3 X188.776 Y-36.175 I-0.077 J2.199
G1 X194.562 Y-2.572
G3 X193.306 Y-0.197 I-2.168 J0.373
X192.471 Y0 I-0.912 J-2.002
G1 X188.513
X187.984 Y-0.026
X187.617 Y-0.064
X187.222 Y-0.126
X186.783 Y-0.219
X186.331 Y-0.34
X185.821 Y-0.506
X185.306 Y-0.704
X184.735 Y-0.959
X184.149 Y-1.259
X183.535 Y-1.615
X182.873 Y-2.048
X182.219 Y-2.526
X181.517 Y-3.099
X180.796 Y-3.753
X180.084 Y-4.472
X179.338 Y-5.309
X178.587 Y-6.247
X177.87 Y-7.247
X177.148 Y-8.376
X176.439 Y-9.625
X175.761 Y-10.981
X175.136 Y-12.416
X174.565 Y-13.941
X174.055 Y-15.563
X173.63 Y-17.211
X173.291 Y-18.878
X173.035 Y-20.561
X172.863 Y-22.254
X172.777 Y-23.954
X172.779 Y-25.646
X172.866 Y-27.268
X173.024 Y-28.748
X173.244 Y-30.111
X173.516 Y-31.372
X173.824 Y-32.508
X174.135 Y-33.452
X174.446 Y-34.252
X174.765 Y-34.958
X175.075 Y-35.558
X175.403 Y-36.119
X175.724 Y-36.606
X175.762 Y-36.658
X176.047 Y-36.995
X176.374 Y-37.29
X176.737 Y-37.54
X177.131 Y-37.738
X177.547 Y-37.883
X177.979 Y-37.971
X178.419 Y-38
X182.552
G3 X183.387 Y-37.803 I-0.077 J2.199
X184.641 Y-36.186 I-0.912 J2.002
G1 X190.602 Y-2.583
G3 X188.513 Y0 I-2.166 J0.384
G1 X184.192
X183.865 Y-0.016
X183.498 Y-0.054
X183.101 Y-0.117
X182.661 Y-0.21
X182.208 Y-0.331
X181.697 Y-0.497
X181.182 Y-0.695
X180.609 Y-0.951
X180.023 Y-1.251
X179.407 Y-1.608
X178.745 Y-2.041
X178.091 Y-2.519
X177.387 Y-3.093
X176.667 Y-3.747
X175.953 Y-4.468
X175.207 Y-5.305
X174.456 Y-6.243
X173.738 Y-7.244
X173.016 Y-8.373
X172.306 Y-9.623
X171.628 Y-10.979
X171.003 Y-12.414
X170.433 Y-13.94
X169.922 Y-15.562
X169.497 Y-17.21
X169.158 Y-18.878
X168.902 Y-20.56
X168.73 Y-22.254
X168.644 Y-23.953
X168.646 Y-25.645
X168.733 Y-27.267
X168.891 Y-28.747
X169.111 Y-30.11
X169.383 Y-31.372
X169.691 Y-32.507
X170.002 Y-33.452
X170.313 Y-34.251
X170.632 Y-34.958
X170.942 Y-35.558
X171.27 Y-36.119
X171.591 Y-36.606
X171.629 Y-36.658
X171.914 Y-36.995
X172.241 Y-37.29
X172.604 Y-37.54
X172.997 Y-37.738
X173.414 Y-37.883
X173.846 Y-37.971
X174.285 Y-38
X178.419
G3 X180.51 Y-36.174 I-0.077 J2.199
G1 X186.283 Y-2.571
G3 X184.192 Y0 I-2.168 J0.373
G1 X180.234
X179.719 Y-0.026
X179.352 Y-0.064
X178.957 Y-0.126
X178.518 Y-0.219
X178.065 Y-0.34
X177.556 Y-0.505
X177.041 Y-0.703
X176.469 Y-0.959
X175.884 Y-1.258
X175.269 Y-1.615
X174.607 Y-2.047
X173.954 Y-2.525
X173.251 Y-3.098
X172.531 Y-3.753
X171.818 Y-4.472
X171.072 Y-5.309
X170.322 Y-6.247
X169.604 Y-7.247
X168.882 Y-8.376
X168.173 Y-9.625
X167.495 Y-10.981
X166.87 Y-12.416
X166.299 Y-13.941
X165.789 Y-15.563
X165.364 Y-17.211
X165.025 Y-18.879
X164.769 Y-20.561
X164.597 Y-22.255
X164.511 Y-23.955
X164.512 Y-25.646
X164.6 Y-27.268
X164.758 Y-28.748
X164.978 Y-30.111
X165.25 Y-31.373
X165.558 Y-32.508
X165.869 Y-33.452
X166.18 Y-34.252
X166.499 Y-34.958
X166.809 Y-35.558
X167.137 Y-36.119
X167.458 Y-36.606
X167.496 Y-36.658
X167.781 Y-36.995
X168.108 Y-37.29
X168.471 Y-37.54
X168.864 Y-37.738
X169.281 Y-37.883
X169.713 Y-37.971
X170.152 Y-38
X174.285
G3 X176.375 Y-36.185 I-0.077 J2.199
G1 X182.323 Y-2.582
G3 X180.234 Y0 I-2.166 J0.383
G1 X175.979
X175.596 Y-0.019
X175.229 Y-0.057
X174.832 Y-0.119
X174.393 Y-0.212
X173.939 Y-0.334
X173.429 Y-0.5
X172.914 Y-0.698
X172.341 Y-0.954
X171.755 Y-1.253
X171.14 Y-1.61
X170.478 Y-2.043
X169.823 Y-2.521
X169.12 Y-3.095
X168.4 Y-3.749
X167.687 Y-4.469
X166.94 Y-5.307
X166.189 Y-6.245
X165.472 Y-7.245
X164.749 Y-8.374
X164.04 Y-9.624
X163.362 Y-10.98
X162.737 Y-12.415
X162.166 Y-13.941
X161.656 Y-15.563
X161.231 Y-17.211
X160.892 Y-18.878
X160.636 Y-20.561
X160.464 Y-22.254
X160.378 Y-23.954
X160.379 Y-25.646
X160.467 Y-27.268
X160.625 Y-28.748
X160.844 Y-30.111
X161.117 Y-31.372
X161.425 Y-32.508
X161.736 Y-33.452
X162.047 Y-34.252
X162.365 Y-34.958
X162.675 Y-35.558
X163.004 Y-36.119
X163.324 Y-36.606
X163.363 Y-36.658
X163.647 Y-36.995
X163.974 Y-37.29
X164.338 Y-37.54
X164.731 Y-37.738
X165.147 Y-37.883
X165.579 Y-37.971
X166.019 Y-38
X170.152
G3 X172.243 Y-36.177 I-0.077 J2.199
G1 X178.07 Y-2.575
G3 X175.979 Y0 I-2.168 J0.376
G1 X172.021
X171.451 Y-0.029
X171.084 Y-0.066
X170.689 Y-0.129
X170.25 Y-0.221
X169.798 Y-0.342
X169.288 Y-0.508
X168.774 Y-0.706
X168.202 Y-0.961
X167.616 Y-1.261
X167.002 Y-1.617
X166.34 Y-2.05
X165.687 Y-2.528
X164.984 Y-3.101
X164.264 Y-3.755
X163.551 Y-4.474
X162.806 Y-5.311
X162.055 Y-6.249
X161.338 Y-7.249
X160.616 Y-8.377
X159.906 Y-9.626
X159.228 Y-10.982
X158.603 Y-12.417
X158.033 Y-13.943
X157.523 Y-15.564
X157.098 Y-17.212
X156.758 Y-18.88
X156.503 Y-20.563
X156.331 Y-22.256
X156.245 Y-23.956
X156.246 Y-25.647
X156.334 Y-27.269
X156.492 Y-28.749
X156.712 Y-30.112
X156.984 Y-31.373
X157.292 Y-32.508
X157.603 Y-33.453
X157.914 Y-34.252
X158.232 Y-34.958
X158.543 Y-35.559
X158.871 Y-36.119
X159.192 Y-36.606
X159.23 Y-36.658
X159.514 Y-36.995
X159.841 Y-37.29
X160.205 Y-37.54
X160.598 Y-37.738
X161.014 Y-37.883
X161.446 Y-37.971
X161.886 Y-38
X166.019
G3 X166.855 Y-37.803 I-0.077 J2.199
X168.108 Y-36.188 I-0.912 J2.002
G1 X174.11 Y-2.585
G3 X172.021 Y0 I-2.166 J0.387
G1 X167.7
X167.333 Y-0.018
X166.965 Y-0.056
X166.568 Y-0.119
X166.129 Y-0.212
X165.675 Y-0.333
X165.165 Y-0.499
X164.649 Y-0.697
X164.076 Y-0.953
X163.49 Y-1.253
X162.875 Y-1.61
X162.212 Y-2.043
X161.558 Y-2.521
X160.855 Y-3.095
X160.134 Y-3.749
X159.421 Y-4.47
X158.675 Y-5.307
X157.924 Y-6.245
X157.206 Y-7.246
X156.483 Y-8.375
X155.774 Y-9.625
X155.096 Y-10.981
X154.471 Y-12.416
X153.9 Y-13.942
X153.39 Y-15.563
X152.965 Y-17.211
X152.625 Y-18.879
X152.37 Y-20.562
X152.198 Y-22.255
X152.112 Y-23.955
X152.113 Y-25.646
X152.201 Y-27.268
X152.359 Y-28.748
X152.578 Y-30.111
X152.85 Y-31.373
X153.159 Y-32.508
X153.47 Y-33.452
X153.781 Y-34.252
X154.099 Y-34.958
X154.409 Y-35.558
X154.738 Y-36.119
X155.058 Y-36.606
X155.097 Y-36.658
X155.381 Y-36.995
X155.708 Y-37.29
X156.072 Y-37.54
X156.465 Y-37.738
X156.881 Y-37.883
X157.313 Y-37.971
X157.753 Y-38
X161.886
G3 X163.977 Y-36.176 I-0.077 J2.199
G1 X169.791 Y-2.574
G3 X167.7 Y0 I-2.168 J0.375
G1 X163.742
X163.187 Y-0.028
X162.819 Y-0.066
X162.424 Y-0.128
X161.985 Y-0.221
X161.533 Y-0.342
X161.023 Y-0.507
X160.509 Y-0.705
X159.937 Y-0.961
X159.351 Y-1.26
X158.737 Y-1.617
X158.075 Y-2.049
X157.421 Y-2.527
X156.719 Y-3.1
X155.998 Y-3.755
X155.286 Y-4.474
X154.54 Y-5.311
X153.789 Y-6.249
X153.072 Y-7.249
X152.35 Y-8.377
X151.64 Y-9.627
X150.962 Y-10.983
X150.337 Y-12.418
X149.767 Y-13.943
X149.257 Y-15.564
X148.832 Y-17.213
X148.492 Y-18.88
X148.237 Y-20.563
X148.065 Y-22.256
X147.979 Y-23.956
X147.98 Y-25.647
X148.068 Y-27.269
X148.226 Y-28.749
X148.446 Y-30.112
X148.718 Y-31.373
X149.026 Y-32.508
X149.337 Y-33.453
X149.648 Y-34.252
X149.966 Y-34.958
X150.276 Y-35.559
X150.605 Y-36.119
X150.925 Y-36.606
X150.964 Y-36.658
X151.248 Y-36.995
X151.575 Y-37.29
X151.939 Y-37.54
X152.332 Y-37.738
X152.748 Y-37.883
X153.18 Y-37.971
X153.62 Y-38
X157.753
G3 X159.842 Y-36.187 I-0.077 J2.199
G1 X165.831 Y-2.585
G3 X163.742 Y0 I-2.166 J0.386
G1 X159.487
X159.064 Y-0.021
X158.696 Y-0.059
X158.299 Y-0.121
X157.86 Y-0.214
X157.407 Y-0.336
X156.897 Y-0.502
X156.381 Y-0.7
X155.808 Y-0.956
X155.223 Y-1.255
X154.607 Y-1.612
X153.945 Y-2.045
X153.291 Y-2.523
X152.588 Y-3.097
X151.867 Y-3.751
X151.154 Y-4.471
X150.408 Y-5.308
X149.657 Y-6.247
X148.94 Y-7.247
X148.217 Y-8.376
X147.507 Y-9.626
X146.83 Y-10.982
X146.205 Y-12.417
X145.634 Y-13.942
X145.124 Y-15.564
X144.699 Y-17.212
X144.359 Y-18.88
X144.104 Y-20.563
X143.932 Y-22.256
X143.846 Y-23.956
X143.847 Y-25.647
X143.935 Y-27.269
X144.093 Y-28.749
X144.312 Y-30.112
X144.584 Y-31.373
X144.893 Y-32.508
X145.204 Y-33.453
X145.515 Y-34.252
X145.833 Y-34.958
X146.143 Y-35.558
X146.472 Y-36.119
X146.792 Y-36.606
X146.831 Y-36.658
X147.115 Y-36.995
X147.442 Y-37.29
X147.806 Y-37.54
X148.199 Y-37.738
X148.615 Y-37.883
X149.047 Y-37.971
X149.487 Y-38
X153.62
G3 X155.71 Y-36.18 I-0.077 J2.199
G1 X161.578 Y-2.577
G3 X159.487 Y0 I-2.167 J0.378
G1 X155.529
X154.919 Y-0.031
X154.551 Y-0.068
X154.156 Y-0.131
X153.717 Y-0.223
X153.265 Y-0.344
X152.756 Y-0.51
X152.241 Y-0.708
X151.669 Y-0.963
X151.084 Y-1.263
X150.469 Y-1.619
X149.808 Y-2.052
X149.154 Y-2.53
X148.452 Y-3.103
X147.731 Y-3.757
X147.019 Y-4.476
X146.273 Y-5.313
X145.523 Y-6.251
X144.805 Y-7.251
X144.083 Y-8.379
X143.374 Y-9.628
X142.696 Y-10.984
X142.071 Y-12.419
X141.501 Y-13.944
X140.991 Y-15.565
X140.566 Y-17.214
X140.226 Y-18.881
X139.971 Y-20.564
X139.799 Y-22.257
X139.713 Y-23.957
X139.714 Y-25.648
X139.802 Y-27.27
X139.96 Y-28.75
X140.18 Y-30.113
X140.452 Y-31.374
X140.76 Y-32.509
X141.071 Y-33.453
X141.382 Y-34.252
X141.7 Y-34.958
X142.01 Y-35.559
X142.339 Y-36.12
X142.659 Y-36.606
X142.698 Y-36.658
X142.982 Y-36.995
X143.309 Y-37.29
X143.673 Y-37.54
X144.066 Y-37.738
X144.482 Y-37.883
X144.914 Y-37.971
X145.354 Y-38
X149.487
G3 X151.575 Y-36.191 I-0.077 J2.199
G1 X157.618 Y-2.588
G3 X155.529 Y0 I-2.165 J0.389
G1 X151.209
X150.8 Y-0.02
X150.433 Y-0.058
X150.036 Y-0.121
X149.596 Y-0.214
X149.143 Y-0.335
X148.632 Y-0.501
X148.117 Y-0.699
X147.544 Y-0.955
X146.958 Y-1.255
X146.342 Y-1.612
X145.68 Y-2.045
X145.026 Y-2.523
X144.322 Y-3.097
X143.602 Y-3.751
X142.888 Y-4.471
X142.142 Y-5.309
X141.391 Y-6.247
X140.674 Y-7.247
X139.951 Y-8.377
X139.241 Y-9.626
X138.564 Y-10.982
X137.939 Y-12.418
X137.368 Y-13.943
X136.858 Y-15.565
X136.433 Y-17.213
X136.093 Y-18.881
X135.838 Y-20.563
X135.666 Y-22.257
X135.58 Y-23.956
X135.581 Y-25.648
X135.669 Y-27.27
X135.827 Y-28.749
X136.046 Y-30.112
X136.319 Y-31.374
X136.627 Y-32.509
X136.938 Y-33.453
X137.249 Y-34.252
X137.567 Y-34.958
X137.877 Y-35.559
X138.206 Y-36.119
X138.526 Y-36.606
X138.565 Y-36.658
X138.849 Y-36.995
X139.176 Y-37.29
X139.539 Y-37.54
X139.933 Y-37.738
X140.349 Y-37.883
X140.781 Y-37.971
X141.221 Y-38
X145.354
G3 X147.444 Y-36.179 I-0.077 J2.199
G1 X153.299 Y-2.576
G3 X152.044 Y-0.197 I-2.167 J0.378
X151.209 Y0 I-0.912 J-2.002
G1 X147.251
X146.654 Y-0.03
X146.287 Y-0.068
X145.892 Y-0.13
X145.453 Y-0.223
X145 Y-0.344
X144.491 Y-0.509
X143.976 Y-0.707
X143.404 Y-0.963
X142.819 Y-1.262
X142.204 Y-1.619
X141.542 Y-2.051
X140.889 Y-2.529
X140.187 Y-3.102
X139.466 Y-3.756
X138.753 Y-4.476
X138.008 Y-5.313
X137.257 Y-6.251
X136.54 Y-7.251
X135.817 Y-8.379
X135.108 Y-9.628
X134.43 Y-10.984
X133.805 Y-12.419
X133.235 Y-13.945
X132.725 Y-15.566
X132.3 Y-17.214
X131.96 Y-18.882
X131.705 Y-20.564
X131.533 Y-22.258
X131.447 Y-23.957
X131.448 Y-25.649
X131.536 Y-27.271
X131.694 Y-28.75
X131.914 Y-30.113
X132.186 Y-31.374
X132.494 Y-32.509
X132.805 Y-33.453
X133.116 Y-34.253
X133.434 Y-34.959
X133.744 Y-35.559
X134.073 Y-36.12
X134.393 Y-36.607
X134.432 Y-36.658
X134.716 Y-36.995
X135.043 Y-37.29
X135.406 Y-37.54
X135.8 Y-37.738
X136.216 Y-37.883
X136.648 Y-37.971
X137.088 Y-38
X141.221
G3 X142.056 Y-37.803 I-0.077 J2.199
X143.309 Y-36.19 I-0.912 J2.002
G1 X149.339 Y-2.587
G3 X147.251 Y0 I-2.165 J0.389
G1 X142.996
X142.531 Y-0.023
X142.164 Y-0.061
X141.767 Y-0.123
X141.328 Y-0.216
X140.875 Y-0.338
X140.364 Y-0.504
X139.849 Y-0.702
X139.276 Y-0.958
X138.691 Y-1.257
X138.075 Y-1.614
X137.413 Y-2.047
X136.759 Y-2.525
X136.056 Y-3.099
X135.335 Y-3.753
X134.622 Y-4.473
X133.876 Y-5.31
X133.125 Y-6.248
X132.408 Y-7.249
X131.685 Y-8.378
X130.975 Y-9.627
X130.298 Y-10.983
X129.673 Y-12.419
X129.102 Y-13.944
X128.592 Y-15.565
X128.167 Y-17.214
X127.827 Y-18.881
X127.572 Y-20.564
X127.4 Y-22.257
X127.314 Y-23.957
X127.315 Y-25.648
X127.403 Y-27.27
X127.561 Y-28.75
X127.781 Y-30.113
X128.053 Y-31.374
X128.361 Y-32.509
X128.672 Y-33.453
X128.983 Y-34.252
X129.301 Y-34.958
X129.611 Y-35.559
X129.94 Y-36.12
X130.26 Y-36.606
X130.299 Y-36.658
X130.583 Y-36.995
X130.91 Y-37.29
X131.273 Y-37.54
X131.667 Y-37.738
X132.083 Y-37.883
X132.515 Y-37.971
X132.955 Y-38
X137.088
G3 X139.178 Y-36.182 I-0.077 J2.199
G1 X145.086 Y-2.58
G3 X142.996 Y0 I-2.167 J0.381
G1 X138.838
X138.398 Y-0.022
X138.031 Y-0.06
X137.634 Y-0.122
X137.195 Y-0.215
X136.742 Y-0.336
X136.232 Y-0.502
X135.717 Y-0.7
X135.144 Y-0.956
X134.558 Y-1.256
X133.943 Y-1.613
X133.28 Y-2.046
X132.626 Y-2.524
X131.923 Y-3.098
X131.203 Y-3.752
X130.489 Y-4.472
X129.743 Y-5.309
X128.992 Y-6.247
X128.275 Y-7.248
X127.552 Y-8.377
X126.843 Y-9.627
X126.165 Y-10.983
X125.54 Y-12.418
X124.969 Y-13.943
X124.459 Y-15.565
X124.034 Y-17.213
X123.694 Y-18.881
X123.439 Y-20.564
X123.267 Y-22.257
X123.181 Y-23.957
X123.182 Y-25.648
X123.27 Y-27.27
X123.428 Y-28.749
X123.648 Y-30.112
X123.92 Y-31.374
X124.228 Y-32.509
X124.539 Y-33.453
X124.85 Y-34.252
X125.168 Y-34.958
X125.478 Y-35.559
X125.807 Y-36.119
X126.127 Y-36.606
X126.166 Y-36.658
X126.45 Y-36.995
X126.777 Y-37.29
X127.14 Y-37.54
X127.534 Y-37.738
X127.95 Y-37.883
X128.382 Y-37.971
X128.822 Y-38
X132.955
G3 X133.79 Y-37.803 I-0.077 J2.199
X135.045 Y-36.181 I-0.912 J2.002
G1 X140.928 Y-2.578
G3 X138.838 Y0 I-2.167 J0.379
G1 X134.717
X134.263 Y-0.023
X133.896 Y-0.061
X133.5 Y-0.123
X133.061 Y-0.216
X132.608 Y-0.337
X132.098 Y-0.503
X131.583 Y-0.701
X131.01 Y-0.957
X130.424 Y-1.256
X129.809 Y-1.613
X129.147 Y-2.046
X128.493 Y-2.524
X127.79 Y-3.098
X127.069 Y-3.752
X126.356 Y-4.472
X125.61 Y-5.309
X124.859 Y-6.247
X124.142 Y-7.248
X123.419 Y-8.377
X122.71 Y-9.626
X122.032 Y-10.982
X121.407 Y-12.418
X120.836 Y-13.943
X120.326 Y-15.565
X119.901 Y-17.213
X119.561 Y-18.881
X119.306 Y-20.563
X119.134 Y-22.257
X119.048 Y-23.956
X119.049 Y-25.648
X119.137 Y-27.27
X119.295 Y-28.749
X119.515 Y-30.112
X119.787 Y-31.374
X120.095 Y-32.509
X120.406 Y-33.453
X120.717 Y-34.252
X121.035 Y-34.958
X121.345 Y-35.559
X121.674 Y-36.119
X121.994 Y-36.606
X122.033 Y-36.658
X122.317 Y-36.995
X122.644 Y-37.29
X123.007 Y-37.54
X123.401 Y-37.738
X123.817 Y-37.883
X124.249 Y-37.971
X124.689 Y-38
X128.822
G3 X130.912 Y-36.181 I-0.077 J2.199
G1 X136.807 Y-2.579
G3 X134.717 Y0 I-2.167 J0.38
G1 X130.462
X130.137 Y-0.016
X129.77 Y-0.054
X129.373 Y-0.117
X128.934 Y-0.21
X128.48 Y-0.331
X127.969 Y-0.497
X127.454 Y-0.695
X126.881 Y-0.951
X126.295 Y-1.251
X125.679 Y-1.608
X125.017 Y-2.041
X124.362 Y-2.519
X123.659 Y-3.093
X122.938 Y-3.748
X122.225 Y-4.468
X121.478 Y-5.306
X120.727 Y-6.244
X120.01 Y-7.245
X119.287 Y-8.374
X118.577 Y-9.624
X117.899 Y-10.98
X117.274 Y-12.416
X116.703 Y-13.942
X116.193 Y-15.563
X115.768 Y-17.212
X115.428 Y-18.879
X115.173 Y-20.562
X115.001 Y-22.255
X114.915 Y-23.955
X114.916 Y-25.646
X115.004 Y-27.269
X115.162 Y-28.748
X115.381 Y-30.111
X115.653 Y-31.373
X115.962 Y-32.508
X116.273 Y-33.452
X116.584 Y-34.252
X116.902 Y-34.958
X117.212 Y-35.558
X117.54 Y-36.119
X117.861 Y-36.606
X117.899 Y-36.658
X118.184 Y-36.995
X118.511 Y-37.29
X118.874 Y-37.54
X119.268 Y-37.738
X119.684 Y-37.883
X120.116 Y-37.971
X120.556 Y-38
X124.689
G3 X126.78 Y-36.174 I-0.077 J2.199
G1 X132.553 Y-2.571
G3 X130.462 Y0 I-2.168 J0.373
G1 X126.504
X125.991 Y-0.026
X125.624 Y-0.064
X125.229 Y-0.126
X124.79 Y-0.219
X124.337 Y-0.34
X123.828 Y-0.505
X123.313 Y-0.703
X122.741 Y-0.959
X122.156 Y-1.258
X121.541 Y-1.615
X120.879 Y-2.047
X120.225 Y-2.525
X119.523 Y-3.099
X118.802 Y-3.753
X118.089 Y-4.472
X117.344 Y-5.309
X116.593 Y-6.247
X115.875 Y-7.247
X115.153 Y-8.376
X114.443 Y-9.626
X113.766 Y-10.982
X113.141 Y-12.417
X112.57 Y-13.943
X112.06 Y-15.564
X111.635 Y-17.212
X111.295 Y-18.88
X111.04 Y-20.563
X110.868 Y-22.256
X110.782 Y-23.956
X110.783 Y-25.647
X110.871 Y-27.269
X111.029 Y-28.749
X111.248 Y-30.112
X111.52 Y-31.373
X111.829 Y-32.508
X112.14 Y-33.453
X112.451 Y-34.252
X112.769 Y-34.958
X113.079 Y-35.558
X113.407 Y-36.119
X113.728 Y-36.606
X113.766 Y-36.658
X114.051 Y-36.995
X114.378 Y-37.29
X114.741 Y-37.54
X115.135 Y-37.738
X115.551 Y-37.883
X115.983 Y-37.971
X116.423 Y-38
X120.556
G3 X122.645 Y-36.185 I-0.077 J2.199
G1 X128.594 Y-2.582
G3 X126.504 Y0 I-2.166 J0.383
G1 X122.347
X121.862 Y-0.024
X121.495 Y-0.062
X121.099 Y-0.124
X120.66 Y-0.217
X120.207 Y-0.338
X119.697 Y-0.504
X119.182 Y-0.702
X118.609 Y-0.958
X118.024 Y-1.258
X117.409 Y-1.615
X116.747 Y-2.047
X116.093 Y-2.525
X115.39 Y-3.099
X114.669 Y-3.753
X113.956 Y-4.473
X113.211 Y-5.31
X112.46 Y-6.248
X111.742 Y-7.248
X111.02 Y-8.377
X110.31 Y-9.626
X109.632 Y-10.982
X109.007 Y-12.417
X108.437 Y-13.943
X107.927 Y-15.564
X107.502 Y-17.213
X107.162 Y-18.88
X106.907 Y-20.563
X106.735 Y-22.256
X106.649 Y-23.956
X106.65 Y-25.647
X106.738 Y-27.269
X106.896 Y-28.749
X107.115 Y-30.112
X107.387 Y-31.373
X107.696 Y-32.508
X108.007 Y-33.453
X108.318 Y-34.252
X108.636 Y-34.958
X108.946 Y-35.559
X109.274 Y-36.119
X109.595 Y-36.606
X109.633 Y-36.658
X109.918 Y-36.995
X110.245 Y-37.29
X110.608 Y-37.54
X111.002 Y-37.738
X111.418 Y-37.883
X111.85 Y-37.971
X112.29 Y-38
X116.423
G3 X118.513 Y-36.183 I-0.077 J2.199
G1 X124.436 Y-2.581
G3 X122.347 Y0 I-2.167 J0.382
G1 X118.225
X117.729 Y-0.025
X117.362 Y-0.063
X116.965 Y-0.125
X116.526 Y-0.218
X116.074 Y-0.339
X115.563 Y-0.505
X115.049 Y-0.703
X114.476 Y-0.959
X113.891 Y-1.258
X113.275 Y-1.615
X112.613 Y-2.048
X111.96 Y-2.526
X111.257 Y-3.099
X110.536 Y-3.753
X109.823 Y-4.473
X109.077 Y-5.31
X108.327 Y-6.248
X107.609 Y-7.248
X106.887 Y-8.377
X106.177 Y-9.627
X105.499 Y-10.983
X104.874 Y-12.418
X104.304 Y-13.943
X103.794 Y-15.565
X103.369 Y-17.213
X103.029 Y-18.881
X102.774 Y-20.563
X102.602 Y-22.257
X102.516 Y-23.956
X102.517 Y-25.648
X102.605 Y-27.27
X102.763 Y-28.749
X102.982 Y-30.112
X103.254 Y-31.374
X103.563 Y-32.509
X103.874 Y-33.453
X104.185 Y-34.252
X104.503 Y-34.958
X104.813 Y-35.559
X105.141 Y-36.119
X105.462 Y-36.606
X105.5 Y-36.658
X105.785 Y-36.995
X106.112 Y-37.29
X106.475 Y-37.54
X106.869 Y-37.738
X107.285 Y-37.883
X107.717 Y-37.971
X108.157 Y-38
X112.29
G3 X114.379 Y-36.184 I-0.077 J2.199
G1 X120.315 Y-2.581
G3 X118.225 Y0 I-2.166 J0.383
G1 X113.97
X113.604 Y-0.018
X113.236 Y-0.056
X112.839 Y-0.119
X112.4 Y-0.212
X111.946 Y-0.333
X111.436 Y-0.499
X110.921 Y-0.697
X110.347 Y-0.953
X109.762 Y-1.253
X109.146 Y-1.61
X108.484 Y-2.043
X107.829 Y-2.521
X107.126 Y-3.095
X106.406 Y-3.749
X105.692 Y-4.469
X104.946 Y-5.307
X104.195 Y-6.245
X103.477 Y-7.246
X102.754 Y-8.375
X102.045 Y-9.625
X101.367 Y-10.981
X100.742 Y-12.416
X100.171 Y-13.942
X99.661 Y-15.564
X99.236 Y-17.212
X98.896 Y-18.88
X98.641 Y-20.562
X98.469 Y-22.256
X98.383 Y-23.955
X98.384 Y-25.647
X98.472 Y-27.269
X98.63 Y-28.749
X98.849 Y-30.112
X99.121 Y-31.373
X99.43 Y-32.508
X99.741 Y-33.453
X100.051 Y-34.252
X100.37 Y-34.958
X100.68 Y-35.558
X101.008 Y-36.119
X101.329 Y-36.606
X101.367 Y-36.658
X101.652 Y-36.995
X101.979 Y-37.29
X102.342 Y-37.54
X102.736 Y-37.738
X103.152 Y-37.883
X103.584 Y-37.971
X104.024 Y-38
X108.157
G3 X110.248 Y-36.176 I-0.077 J2.199
G1 X116.061 Y-2.574
G3 X113.97 Y0 I-2.168 J0.375
G1 X110.012
X109.458 Y-0.028
X109.09 Y-0.066
X108.695 Y-0.128
X108.256 Y-0.221
X107.804 Y-0.342
X107.294 Y-0.507
X106.78 Y-0.705
X106.208 Y-0.961
X105.622 Y-1.26
X105.008 Y-1.617
X104.346 Y-2.049
X103.692 Y-2.527
X102.99 Y-3.1
X102.269 Y-3.755
X101.557 Y-4.474
X100.811 Y-5.311
X100.06 Y-6.249
X99.343 Y-7.249
X98.621 Y-8.378
X97.911 Y-9.627
X97.233 Y-10.983
X96.608 Y-12.418
X96.038 Y-13.943
X95.527 Y-15.565
X95.103 Y-17.213
X94.763 Y-18.881
X94.507 Y-20.563
X94.336 Y-22.257
X94.25 Y-23.956
X94.251 Y-25.648
X94.339 Y-27.27
X94.497 Y-28.749
X94.716 Y-30.112
X94.988 Y-31.374
X95.297 Y-32.509
X95.608 Y-33.453
X95.919 Y-34.252
X96.237 Y-34.958
X96.547 Y-35.559
X96.875 Y-36.119
X97.196 Y-36.606
X97.234 Y-36.658
X97.519 Y-36.995
X97.846 Y-37.29
X98.209 Y-37.54
X98.603 Y-37.738
X99.019 Y-37.883
X99.451 Y-37.971
X99.891 Y-38
X104.024
G3 X106.113 Y-36.187 I-0.077 J2.199
G1 X112.102 Y-2.585
G3 X110.012 Y0 I-2.166 J0.386
G1 X105.692
X105.339 Y-0.018
X104.971 Y-0.056
X104.574 Y-0.118
X104.135 Y-0.211
X103.681 Y-0.332
X103.17 Y-0.498
X102.655 Y-0.697
X102.082 Y-0.953
X101.496 Y-1.252
X100.88 Y-1.61
X100.218 Y-2.042
X99.563 Y-2.521
X98.86 Y-3.095
X98.14 Y-3.749
X97.426 Y-4.469
X96.68 Y-5.307
X95.929 Y-6.245
X95.211 Y-7.246
X94.488 Y-8.375
X93.779 Y-9.625
X93.101 Y-10.981
X92.476 Y-12.416
X91.905 Y-13.942
X91.395 Y-15.564
X90.97 Y-17.212
X90.63 Y-18.88
X90.375 Y-20.562
X90.203 Y-22.256
X90.117 Y-23.955
X90.118 Y-25.647
X90.205 Y-27.269
X90.364 Y-28.748
X90.583 Y-30.112
X90.855 Y-31.373
X91.164 Y-32.508
X91.475 Y-33.453
X91.785 Y-34.252
X92.104 Y-34.958
X92.414 Y-35.558
X92.742 Y-36.119
X93.063 Y-36.606
X93.101 Y-36.658
X93.386 Y-36.995
X93.713 Y-37.29
X94.076 Y-37.54
X94.47 Y-37.738
X94.886 Y-37.883
X95.318 Y-37.971
X95.758 Y-38
X99.891
G3 X101.982 Y-36.176 I-0.077 J2.199
G1 X107.783 Y-2.573
G3 X105.692 Y0 I-2.168 J0.374
G1 X101.734
X101.192 Y-0.027
X100.825 Y-0.065
X100.43 Y-0.127
X99.991 Y-0.22
X99.539 Y-0.341
X99.029 Y-0.507
X98.514 Y-0.705
X97.942 Y-0.96
X97.357 Y-1.26
X96.742 Y-1.616
X96.08 Y-2.049
X95.426 Y-2.527
X94.724 Y-3.1
X94.004 Y-3.754
X93.291 Y-4.474
X92.545 Y-5.31
X91.794 Y-6.248
X91.077 Y-7.249
X90.355 Y-8.377
X89.645 Y-9.627
X88.967 Y-10.983
X88.342 Y-12.418
X87.772 Y-13.943
X87.261 Y-15.565
X86.837 Y-17.213
X86.497 Y-18.881
X86.241 Y-20.563
X86.07 Y-22.256
X85.984 Y-23.956
X85.985 Y-25.648
X86.073 Y-27.27
X86.231 Y-28.749
X86.45 Y-30.112
X86.722 Y-31.374
X87.031 Y-32.509
X87.342 Y-33.453
X87.653 Y-34.252
X87.971 Y-34.958
X88.281 Y-35.559
X88.609 Y-36.119
X88.93 Y-36.606
X88.968 Y-36.658
X89.253 Y-36.995
X89.58 Y-37.29
X89.943 Y-37.54
X90.337 Y-37.738
X90.753 Y-37.883
X91.185 Y-37.971
X91.625 Y-38
X95.758
G3 X97.847 Y-36.187 I-0.077 J2.199
G1 X103.823 Y-2.584
G3 X101.734 Y0 I-2.166 J0.385
G1 X97.479
X97.069 Y-0.021
X96.702 Y-0.058
X96.305 Y-0.121
X95.866 Y-0.214
X95.412 Y-0.335
X94.902 Y-0.501
X94.387 Y-0.699
X93.814 Y-0.955
X93.228 Y-1.255
X92.613 Y-1.612
X91.95 Y-2.044
X91.296 Y-2.523
X90.593 Y-3.096
X89.873 Y-3.751
X89.159 Y-4.471
X88.413 Y-5.308
X87.662 Y-6.246
X86.945 Y-7.247
X86.222 Y-8.376
X85.512 Y-9.626
X84.834 Y-10.982
X84.209 Y-12.417
X83.639 Y-13.942
X83.128 Y-15.564
X82.704 Y-17.212
X82.364 Y-18.88
X82.108 Y-20.563
X81.937 Y-22.256
X81.85 Y-23.956
X81.852 Y-25.647
X81.939 Y-27.269
X82.098 Y-28.749
X82.317 Y-30.112
X82.589 Y-31.373
X82.898 Y-32.508
X83.209 Y-33.453
X83.519 Y-34.252
X83.838 Y-34.958
X84.148 Y-35.558
X84.476 Y-36.119
X84.797 Y-36.606
X84.835 Y-36.658
X85.12 Y-36.995
X85.447 Y-37.29
X85.81 Y-37.54
X86.204 Y-37.738
X86.62 Y-37.883
X87.052 Y-37.971
X87.492 Y-38
X91.625
G3 X93.715 Y-36.179 I-0.077 J2.199
G1 X99.569 Y-2.576
G3 X97.479 Y0 I-2.167 J0.378
G1 X93.521
X92.924 Y-0.03
X92.557 Y-0.068
X92.162 Y-0.13
X91.723 Y-0.223
X91.271 Y-0.344
X90.761 Y-0.509
X90.246 Y-0.707
X89.675 Y-0.963
X89.089 Y-1.262
X88.475 Y-1.619
X87.813 Y-2.051
X87.159 Y-2.529
X86.457 Y-3.102
X85.737 Y-3.756
X85.024 Y-4.476
X84.278 Y-5.312
X83.528 Y-6.25
X82.81 Y-7.25
X82.088 Y-8.379
X81.379 Y-9.628
X80.701 Y-10.984
X80.076 Y-12.419
X79.506 Y-13.944
X78.995 Y-15.565
X78.571 Y-17.214
X78.231 Y-18.881
X77.975 Y-20.564
X77.804 Y-22.257
X77.718 Y-23.957
X77.719 Y-25.648
X77.807 Y-27.27
X77.965 Y-28.75
X78.184 Y-30.113
X78.456 Y-31.374
X78.765 Y-32.509
X79.076 Y-33.453
X79.387 Y-34.252
X79.705 Y-34.958
X80.015 Y-35.559
X80.343 Y-36.12
X80.664 Y-36.606
X80.702 Y-36.658
X80.987 Y-36.995
X81.314 Y-37.29
X81.677 Y-37.54
X82.071 Y-37.738
X82.487 Y-37.883
X82.919 Y-37.971
X83.358 Y-38
X87.492
G3 X88.327 Y-37.803 I-0.077 J2.199
X89.58 Y-36.19 I-0.912 J2.002
G1 X95.609 Y-2.587
G3 X93.521 Y0 I-2.165 J0.389
G1 X89.2
X88.805 Y-0.02
X88.438 Y-0.058
X88.041 Y-0.12
X87.601 Y-0.213
X87.148 Y-0.334
X86.637 Y-0.5
X86.122 Y-0.699
X85.549 Y-0.955
X84.963 Y-1.254
X84.347 Y-1.612
X83.685 Y-2.044
X83.031 Y-2.523
X82.327 Y-3.096
X81.607 Y-3.751
X80.893 Y-4.471
X80.147 Y-5.308
X79.396 Y-6.247
X78.679 Y-7.247
X77.956 Y-8.376
X77.246 Y-9.626
X76.568 Y-10.982
X75.943 Y-12.417
X75.373 Y-13.943
X74.862 Y-15.565
X74.438 Y-17.213
X74.098 Y-18.88
X73.842 Y-20.563
X73.671 Y-22.256
X73.585 Y-23.956
X73.586 Y-25.647
X73.673 Y-27.269
X73.832 Y-28.749
X74.051 Y-30.112
X74.323 Y-31.373
X74.632 Y-32.508
X74.943 Y-33.453
X75.253 Y-34.252
X75.572 Y-34.958
X75.882 Y-35.559
X76.21 Y-36.119
X76.531 Y-36.606
X76.569 Y-36.658
X76.854 Y-36.995
X77.181 Y-37.29
X77.544 Y-37.54
X77.938 Y-37.738
X78.354 Y-37.883
X78.786 Y-37.971
X79.225 Y-38
X83.358
G3 X85.449 Y-36.178 I-0.077 J2.199
G1 X91.291 Y-2.575
G3 X89.2 Y0 I-2.167 J0.377
G1 X85.242
X84.659 Y-0.029
X84.292 Y-0.067
X83.897 Y-0.129
X83.458 Y-0.222
X83.006 Y-0.343
X82.496 Y-0.509
X81.981 Y-0.707
X81.409 Y-0.962
X80.824 Y-1.262
X80.209 Y-1.618
X79.547 Y-2.051
X78.894 Y-2.529
X78.191 Y-3.102
X77.471 Y-3.756
X76.758 Y-4.475
X76.013 Y-5.312
X75.262 Y-6.25
X74.545 Y-7.25
X73.822 Y-8.379
X73.113 Y-9.628
X72.435 Y-10.984
X71.81 Y-12.419
X71.24 Y-13.944
X70.729 Y-15.566
X70.305 Y-17.214
X69.965 Y-18.881
X69.709 Y-20.564
X69.538 Y-22.257
X69.452 Y-23.957
X69.453 Y-25.648
X69.541 Y-27.27
X69.699 Y-28.75
X69.918 Y-30.113
X70.19 Y-31.374
X70.499 Y-32.509
X70.81 Y-33.453
X71.121 Y-34.252
X71.439 Y-34.958
X71.749 Y-35.559
X72.077 Y-36.12
X72.398 Y-36.606
X72.436 Y-36.658
X72.721 Y-36.995
X73.048 Y-37.29
X73.411 Y-37.54
X73.805 Y-37.738
X74.221 Y-37.883
X74.653 Y-37.971
X75.092 Y-38
X79.225
G3 X80.061 Y-37.803 I-0.077 J2.199
X81.314 Y-36.189 I-0.912 J2.002
G1 X87.331 Y-2.586
G3 X85.242 Y0 I-2.166 J0.388
G1 X80.987
X80.536 Y-0.023
X80.169 Y-0.06
X79.772 Y-0.123
X79.333 Y-0.216
X78.88 Y-0.337
X78.369 Y-0.503
X77.854 Y-0.701
X77.281 Y-0.957
X76.696 Y-1.257
X76.08 Y-1.614
X75.418 Y-2.046
X74.764 Y-2.525
X74.061 Y-3.098
X73.34 Y-3.753
X72.627 Y-4.473
X71.881 Y-5.31
X71.13 Y-6.248
X70.412 Y-7.248
X69.69 Y-8.377
X68.98 Y-9.627
X68.302 Y-10.983
X67.677 Y-12.418
X67.107 Y-13.944
X66.596 Y-15.565
X66.172 Y-17.213
X65.832 Y-18.881
X65.576 Y-20.564
X65.405 Y-22.257
X65.319 Y-23.957
X65.32 Y-25.648
X65.408 Y-27.27
X65.566 Y-28.749
X65.785 Y-30.112
X66.057 Y-31.374
X66.366 Y-32.509
X66.677 Y-33.453
X66.988 Y-34.252
X67.306 Y-34.958
X67.616 Y-35.559
X67.944 Y-36.119
X68.265 Y-36.606
X68.303 Y-36.658
X68.588 Y-36.995
X68.915 Y-37.29
X69.278 Y-37.54
X69.672 Y-37.738
X70.088 Y-37.883
X70.52 Y-37.971
X70.959 Y-38
X75.092
G3 X75.928 Y-37.803 I-0.077 J2.199
X77.183 Y-36.181 I-0.912 J2.002
G1 X83.077 Y-2.579
G3 X80.987 Y0 I-2.167 J0.38
G1 X77.029
X76.392 Y-0.032
X76.024 Y-0.07
X75.629 Y-0.132
X75.19 Y-0.225
X74.738 Y-0.346
X74.228 Y-0.511
X73.714 Y-0.709
X73.142 Y-0.965
X72.557 Y-1.264
X71.942 Y-1.621
X71.28 Y-2.053
X70.627 Y-2.531
X69.925 Y-3.104
X69.204 Y-3.758
X68.492 Y-4.477
X67.746 Y-5.314
X66.995 Y-6.252
X66.278 Y-7.252
X65.556 Y-8.38
X64.847 Y-9.63
X64.169 Y-10.985
X63.544 Y-12.42
X62.974 Y-13.945
X62.463 Y-15.567
X62.039 Y-17.215
X61.699 Y-18.882
X61.443 Y-20.565
X61.272 Y-22.258
X61.186 Y-23.958
X61.187 Y-25.649
X61.275 Y-27.271
X61.433 Y-28.75
X61.653 Y-30.113
X61.925 Y-31.375
X62.233 Y-32.509
X62.544 Y-33.454
X62.855 Y-34.253
X63.173 Y-34.959
X63.483 Y-35.559
X63.812 Y-36.12
X64.132 Y-36.607
X64.17 Y-36.658
X64.455 Y-36.995
X64.782 Y-37.29
X65.145 Y-37.54
X65.539 Y-37.738
X65.955 Y-37.883
X66.387 Y-37.971
X66.826 Y-38
X70.959
G3 X73.048 Y-36.192 I-0.077 J2.199
G1 X79.117 Y-2.59
G3 X77.029 Y0 I-2.165 J0.391
G1 X72.708
X72.273 Y-0.022
X71.905 Y-0.06
X71.508 Y-0.122
X71.069 Y-0.215
X70.615 Y-0.336
X70.105 Y-0.502
X69.59 Y-0.701
X69.016 Y-0.957
X68.431 Y-1.256
X67.815 Y-1.614
X67.153 Y-2.046
X66.498 Y-2.525
X65.795 Y-3.098
X65.075 Y-3.753
X64.361 Y-4.473
X63.615 Y-5.31
X62.864 Y-6.248
X62.147 Y-7.249
X61.424 Y-8.378
X60.714 Y-9.628
X60.036 Y-10.984
X59.411 Y-12.419
X58.841 Y-13.944
X58.331 Y-15.566
X57.906 Y-17.214
X57.566 Y-18.882
X57.311 Y-20.564
X57.139 Y-22.258
X57.053 Y-23.957
X57.054 Y-25.649
X57.142 Y-27.27
X57.3 Y-28.75
X57.519 Y-30.113
X57.791 Y-31.374
X58.1 Y-32.509
X58.411 Y-33.453
X58.722 Y-34.253
X59.04 Y-34.958
X59.35 Y-35.559
X59.678 Y-36.12
X59.999 Y-36.606
X60.037 Y-36.658
X60.322 Y-36.995
X60.649 Y-37.29
X61.012 Y-37.54
X61.406 Y-37.738
X61.822 Y-37.883
X62.254 Y-37.971
X62.694 Y-38
X66.826
G3 X67.662 Y-37.803 I-0.077 J2.199
X68.917 Y-36.181 I-0.912 J2.002
G1 X74.799 Y-2.578
G3 X72.708 Y0 I-2.167 J0.379
G1 X68.75
X68.127 Y-0.031
X67.76 Y-0.069
X67.364 Y-0.131
X66.925 Y-0.224
X66.473 Y-0.345
X65.963 Y-0.511
X65.449 Y-0.709
X64.877 Y-0.964
X64.292 Y-1.264
X63.677 Y-1.62
X63.015 Y-2.053
X62.362 Y-2.531
X61.659 Y-3.104
X60.939 Y-3.758
X60.226 Y-4.477
X59.48 Y-5.314
X58.73 Y-6.252
X58.013 Y-7.252
X57.29 Y-8.38
X56.581 Y-9.63
X55.903 Y-10.985
X55.278 Y-12.42
X54.708 Y-13.946
X54.197 Y-15.567
X53.773 Y-17.215
X53.433 Y-18.883
X53.178 Y-20.565
X53.006 Y-22.259
X52.92 Y-23.959
X52.921 Y-25.65
X53.009 Y-27.271
X53.167 Y-28.751
X53.387 Y-30.113
X53.659 Y-31.375
X53.967 Y-32.51
X54.278 Y-33.454
X54.589 Y-34.253
X54.907 Y-34.959
X55.217 Y-35.559
X55.546 Y-36.12
X55.866 Y-36.607
X55.904 Y-36.658
X56.189 Y-36.995
X56.516 Y-37.29
X56.879 Y-37.54
X57.273 Y-37.738
X57.689 Y-37.883
X58.121 Y-37.971
X58.561 Y-38
X62.694
G3 X64.782 Y-36.192 I-0.077 J2.199
G1 X70.839 Y-2.589
G3 X68.75 Y0 I-2.165 J0.39
G1 X64.495
X64.004 Y-0.025
X63.637 Y-0.063
X63.24 Y-0.125
X62.801 Y-0.218
X62.347 Y-0.339
X61.837 Y-0.505
X61.322 Y-0.703
X60.749 Y-0.959
X60.163 Y-1.259
X59.548 Y-1.616
X58.886 Y-2.048
X58.231 Y-2.527
X57.529 Y-3.1
X56.808 Y-3.754
X56.095 Y-4.474
X55.349 Y-5.312
X54.598 Y-6.25
X53.88 Y-7.25
X53.158 Y-8.379
X52.448 Y-9.629
X51.77 Y-10.985
X51.145 Y-12.42
X50.575 Y-13.945
X50.065 Y-15.567
X49.64 Y-17.215
X49.3 Y-18.882
X49.045 Y-20.565
X48.873 Y-22.258
X48.787 Y-23.958
X48.788 Y-25.649
X48.876 Y-27.271
X49.034 Y-28.75
X49.254 Y-30.113
X49.526 Y-31.375
X49.834 Y-32.509
X50.145 Y-33.454
X50.456 Y-34.253
X50.774 Y-34.959
X51.084 Y-35.559
X51.413 Y-36.12
X51.733 Y-36.607
X51.771 Y-36.658
X52.056 Y-36.995
X52.383 Y-37.29
X52.746 Y-37.54
X53.14 Y-37.738
X53.556 Y-37.883
X53.988 Y-37.971
X54.428 Y-38
X58.561
G3 X60.65 Y-36.184 I-0.077 J2.199
G1 X66.585 Y-2.581
G3 X64.495 Y0 I-2.166 J0.383
G1 X60.338
X59.871 Y-0.023
X59.504 Y-0.061
X59.107 Y-0.124
X58.668 Y-0.217
X58.215 Y-0.338
X57.704 Y-0.504
X57.189 Y-0.702
X56.616 Y-0.958
X56.031 Y-1.257
X55.415 Y-1.614
X54.753 Y-2.047
X54.099 Y-2.525
X53.396 Y-3.099
X52.676 Y-3.753
X51.962 Y-4.473
X51.216 Y-5.31
X50.465 Y-6.249
X49.748 Y-7.249
X49.025 Y-8.378
X48.316 Y-9.628
X47.638 Y-10.984
X47.013 Y-12.419
X46.442 Y-13.944
X45.932 Y-15.566
X45.507 Y-17.214
X45.167 Y-18.882
X44.912 Y-20.565
X44.74 Y-22.258
X44.654 Y-23.958
X44.655 Y-25.649
X44.743 Y-27.271
X44.901 Y-28.75
X45.121 Y-30.113
X45.393 Y-31.374
X45.701 Y-32.509
X46.012 Y-33.453
X46.323 Y-34.253
X46.641 Y-34.958
X46.951 Y-35.559
X47.28 Y-36.12
X47.6 Y-36.606
X47.638 Y-36.658
X47.923 Y-36.995
X48.25 Y-37.29
X48.613 Y-37.54
X49.007 Y-37.738
X49.423 Y-37.883
X49.855 Y-37.971
X50.295 Y-38
X54.428
G3 X56.518 Y-36.182 I-0.077 J2.199
G1 X62.428 Y-2.58
G3 X60.338 Y0 I-2.167 J0.381
G1 X56.217
X55.736 Y-0.024
X55.369 Y-0.062
X54.973 Y-0.124
X54.533 Y-0.217
X54.081 Y-0.338
X53.57 Y-0.504
X53.055 Y-0.702
X52.483 Y-0.958
X51.897 Y-1.258
X51.282 Y-1.615
X50.62 Y-2.047
X49.966 Y-2.525
X49.263 Y-3.099
X48.542 Y-3.753
X47.829 Y-4.473
X47.083 Y-5.31
X46.332 Y-6.248
X45.615 Y-7.249
X44.892 Y-8.378
X44.183 Y-9.627
X43.505 Y-10.984
X42.88 Y-12.419
X42.309 Y-13.944
X41.799 Y-15.566
X41.374 Y-17.214
X41.034 Y-18.882
X40.779 Y-20.564
X40.607 Y-22.258
X40.521 Y-23.957
X40.523 Y-25.649
X40.61 Y-27.27
X40.768 Y-28.75
X40.988 Y-30.113
X41.26 Y-31.374
X41.568 Y-32.509
X41.879 Y-33.453
X42.19 Y-34.252
X42.508 Y-34.958
X42.818 Y-35.559
X43.147 Y-36.12
X43.467 Y-36.606
X43.506 Y-36.658
X43.79 Y-36.995
X44.117 Y-37.29
X44.48 Y-37.54
X44.874 Y-37.738
X45.29 Y-37.883
X45.722 Y-37.971
X46.162 Y-38
X50.295
G3 X52.384 Y-36.183 I-0.077 J2.199
G1 X58.306 Y-2.58
G3 X56.217 Y0 I-2.167 J0.382
G1 X51.962
X51.61 Y-0.018
X51.243 Y-0.056
X50.846 Y-0.118
X50.406 Y-0.211
X49.953 Y-0.332
X49.442 Y-0.498
X48.927 Y-0.696
X48.354 Y-0.952
X47.768 Y-1.252
X47.152 Y-1.61
X46.49 Y-2.042
X45.835 Y-2.521
X45.132 Y-3.095
X44.411 Y-3.749
X43.698 Y-4.469
X42.951 Y-5.307
X42.2 Y-6.245
X41.483 Y-7.246
X40.76 Y-8.375
X40.05 Y-9.625
X39.372 Y-10.982
X38.747 Y-12.417
X38.176 Y-13.943
X37.666 Y-15.564
X37.241 Y-17.213
X36.902 Y-18.88
X36.646 Y-20.563
X36.474 Y-22.256
X36.388 Y-23.956
X36.389 Y-25.647
X36.477 Y-27.269
X36.635 Y-28.749
X36.854 Y-30.112
X37.126 Y-31.373
X37.435 Y-32.508
X37.746 Y-33.453
X38.057 Y-34.252
X38.375 Y-34.958
X38.685 Y-35.558
X39.013 Y-36.119
X39.334 Y-36.606
X39.372 Y-36.658
X39.657 Y-36.995
X39.984 Y-37.29
X40.347 Y-37.54
X40.741 Y-37.738
X41.157 Y-37.883
X41.589 Y-37.971
X42.029 Y-38
X46.162
G3 X48.253 Y-36.176 I-0.077 J2.199
G1 X54.053 Y-2.573
G3 X51.962 Y0 I-2.168 J0.374
G1 X48.004
X47.464 Y-0.027
X47.097 Y-0.065
X46.701 Y-0.127
X46.262 Y-0.22
X45.81 Y-0.341
X45.3 Y-0.507
X44.786 Y-0.705
X44.214 Y-0.96
X43.628 Y-1.26
X43.014 Y-1.616
X42.352 Y-2.049
X41.698 Y-2.527
X40.996 Y-3.1
X40.275 Y-3.754
X39.562 Y-4.474
X38.816 Y-5.311
X38.066 Y-6.249
X37.348 Y-7.249
X36.626 Y-8.378
X35.916 Y-9.627
X35.239 Y-10.983
X34.614 Y-12.418
X34.043 Y-13.944
X33.533 Y-15.565
X33.108 Y-17.213
X32.768 Y-18.881
X32.513 Y-20.564
X32.341 Y-22.257
X32.255 Y-23.957
X32.256 Y-25.648
X32.344 Y-27.27
X32.502 Y-28.749
X32.722 Y-30.112
X32.994 Y-31.374
X33.302 Y-32.509
X33.613 Y-33.453
X33.924 Y-34.252
X34.242 Y-34.958
X34.552 Y-35.559
X34.881 Y-36.119
X35.201 Y-36.606
X35.24 Y-36.658
X35.524 Y-36.995
X35.851 Y-37.29
X36.214 Y-37.54
X36.608 Y-37.738
X37.024 Y-37.883
X37.456 Y-37.971
X37.896 Y-38
X42.029
G3 X44.118 Y-36.186 I-0.077 J2.199
G1 X50.093 Y-2.584
G3 X48.004 Y0 I-2.166 J0.385
G1 X43.683
X43.345 Y-0.017
X42.977 Y-0.055
X42.58 Y-0.117
X42.141 Y-0.21
X41.687 Y-0.332
X41.176 Y-0.498
X40.661 Y-0.696
X40.088 Y-0.952
X39.502 Y-1.252
X38.886 Y-1.609
X38.224 Y-2.042
X37.569 Y-2.52
X36.866 Y-3.094
X36.145 Y-3.748
X35.432 Y-4.469
X34.685 Y-5.306
X33.934 Y-6.245
X33.217 Y-7.245
X32.494 Y-8.375
X31.784 Y-9.625
X31.106 Y-10.981
X30.481 Y-12.416
X29.91 Y-13.942
X29.4 Y-15.564
X28.975 Y-17.212
X28.635 Y-18.88
X28.38 Y-20.562
X28.208 Y-22.256
X28.122 Y-23.955
X28.123 Y-25.647
X28.211 Y-27.269
X28.369 Y-28.749
X28.588 Y-30.112
X28.86 Y-31.373
X29.169 Y-32.508
X29.48 Y-33.453
X29.791 Y-34.252
X30.109 Y-34.958
X30.419 Y-35.558
X30.747 Y-36.119
X31.068 Y-36.606
X31.106 Y-36.658
X31.391 Y-36.995
X31.718 Y-37.29
X32.081 Y-37.54
X32.475 Y-37.738
X32.891 Y-37.883
X33.323 Y-37.971
X33.763 Y-38
X37.896
G3 X39.987 Y-36.175 I-0.077 J2.199
G1 X45.774 Y-2.572
G3 X43.683 Y0 I-2.168 J0.373
G1 X39.725
X39.198 Y-0.026
X38.831 Y-0.064
X38.435 Y-0.126
X37.996 Y-0.219
X37.544 Y-0.34
X37.034 Y-0.506
X36.52 Y-0.704
X35.948 Y-0.959
X35.362 Y-1.259
X34.748 Y-1.616
X34.086 Y-2.048
X33.432 Y-2.526
X32.73 Y-3.099
X32.009 Y-3.753
X31.296 Y-4.473
X30.55 Y-5.31
X29.8 Y-6.248
X29.082 Y-7.248
X28.36 Y-8.377
X27.65 Y-9.626
X26.973 Y-10.982
X26.348 Y-12.418
X25.777 Y-13.943
X25.267 Y-15.565
X24.842 Y-17.213
X24.502 Y-18.88
X24.247 Y-20.563
X24.075 Y-22.256
X23.989 Y-23.956
X23.99 Y-25.648
X24.078 Y-27.27
X24.236 Y-28.749
X24.455 Y-30.112
X24.727 Y-31.374
X25.036 Y-32.508
X25.347 Y-33.453
X25.658 Y-34.252
X25.976 Y-34.958
X26.286 Y-35.559
X26.614 Y-36.119
X26.935 Y-36.606
X26.973 Y-36.658
X27.258 Y-36.995
X27.585 Y-37.29
X27.948 Y-37.54
X28.342 Y-37.738
X28.758 Y-37.883
X29.19 Y-37.971
X29.63 Y-38
X33.763
G3 X35.852 Y-36.186 I-0.077 J2.199
G1 X41.814 Y-2.583
G3 X39.725 Y0 I-2.166 J0.384
G1 X35.47
X35.075 Y-0.02
X34.707 Y-0.058
X34.311 Y-0.12
X33.871 Y-0.213
X33.418 Y-0.334
X32.908 Y-0.5
X32.392 Y-0.698
X31.819 Y-0.954
X31.234 Y-1.254
X30.618 Y-1.611
X29.956 Y-2.044
X29.302 Y-2.522
X28.599 Y-3.096
X27.878 Y-3.75
X27.165 Y-4.47
X26.418 Y-5.308
X25.668 Y-6.246
X24.95 Y-7.246
X24.227 Y-8.375
X23.518 Y-9.625
X22.84 Y-10.981
X22.215 Y-12.417
X21.644 Y-13.942
X21.134 Y-15.564
X20.709 Y-17.212
X20.369 Y-18.88
X20.114 Y-20.563
X19.942 Y-22.256
X19.856 Y-23.956
X19.857 Y-25.647
X19.945 Y-27.269
X20.103 Y-28.749
X20.322 Y-30.112
X20.594 Y-31.373
X20.903 Y-32.508
X21.214 Y-33.453
X21.525 Y-34.252
X21.843 Y-34.958
X22.153 Y-35.558
X22.481 Y-36.119
X22.802 Y-36.606
X22.84 Y-36.658
X23.125 Y-36.995
X23.452 Y-37.29
X23.815 Y-37.54
X24.209 Y-37.738
X24.625 Y-37.883
X25.057 Y-37.971
X25.497 Y-38
X29.63
G3 X31.72 Y-36.178 I-0.077 J2.199
G1 X37.561 Y-2.575
G3 X35.47 Y0 I-2.168 J0.377
G1 X31.512
X30.93 Y-0.029
X30.562 Y-0.067
X30.167 Y-0.129
X29.728 Y-0.222
X29.276 Y-0.343
X28.766 Y-0.509
X28.252 Y-0.707
X27.68 Y-0.962
X27.095 Y-1.262
X26.48 Y-1.618
X25.818 Y-2.05
X25.165 Y-2.528
X24.463 Y-3.101
X23.742 Y-3.756
X23.029 Y-4.475
X22.284 Y-5.312
X21.533 Y-6.25
X20.816 Y-7.25
X20.093 Y-8.378
X19.384 Y-9.628
X18.706 Y-10.983
X18.081 Y-12.419
X17.511 Y-13.944
X17 Y-15.565
X16.576 Y-17.213
X16.236 Y-18.881
X15.981 Y-20.564
X15.809 Y-22.257
X15.723 Y-23.957
X15.724 Y-25.648
X15.812 Y-27.27
X15.97 Y-28.749
X16.189 Y-30.112
X16.462 Y-31.374
X16.77 Y-32.509
X17.081 Y-33.453
X17.392 Y-34.252
X17.71 Y-34.958
X18.02 Y-35.559
X18.349 Y-36.119
X18.669 Y-36.606
X18.707 Y-36.658
X18.992 Y-36.995
X19.319 Y-37.29
X19.682 Y-37.54
X20.076 Y-37.738
X20.492 Y-37.883
X20.924 Y-37.971
X21.364 Y-38
X25.497
G3 X27.585 Y-36.189 I-0.077 J2.199
G1 X33.601 Y-2.586
G3 X31.512 Y0 I-2.166 J0.388
G1 X27.191
X26.811 Y-0.019
X26.444 Y-0.057
X26.046 Y-0.119
X25.607 Y-0.212
X25.153 Y-0.334
X24.643 Y-0.5
X24.127 Y-0.698
X23.554 Y-0.954
X22.969 Y-1.254
X22.353 Y-1.611
X21.69 Y-2.044
X21.036 Y-2.522
X20.333 Y-3.096
X19.612 Y-3.75
X18.899 Y-4.47
X18.152 Y-5.308
X17.402 Y-6.246
X16.684 Y-7.247
X15.961 Y-8.376
X15.252 Y-9.626
X14.574 Y-10.982
X13.949 Y-12.417
X13.378 Y-13.943
X12.868 Y-15.564
X12.443 Y-17.212
X12.103 Y-18.88
X11.848 Y-20.563
X11.676 Y-22.256
X11.59 Y-23.956
X11.591 Y-25.647
X11.679 Y-27.269
X11.837 Y-28.749
X12.056 Y-30.112
X12.328 Y-31.373
X12.637 Y-32.508
X12.948 Y-33.453
X13.259 Y-34.252
X13.577 Y-34.958
X13.887 Y-35.558
X14.215 Y-36.119
X14.536 Y-36.606
X14.574 Y-36.658
X14.859 Y-36.995
X15.186 Y-37.29
X15.549 Y-37.54
X15.943 Y-37.738
X16.359 Y-37.883
X16.791 Y-37.971
X17.231 Y-38
X21.364
G3 X23.455 Y-36.177 I-0.077 J2.199
G1 X29.282 Y-2.575
G3 X27.191 Y0 I-2.168 J0.376
G1 X23.233
X22.665 Y-0.028
X22.297 Y-0.066
X21.902 Y-0.128
X21.463 Y-0.221
X21.011 Y-0.342
X20.501 Y-0.508
X19.987 Y-0.706
X19.415 Y-0.961
X18.829 Y-1.261
X18.215 Y-1.618
X17.553 Y-2.05
X16.899 Y-2.528
X16.197 Y-3.101
X15.476 Y-3.755
X14.763 Y-4.475
X14.018 Y-5.311
X13.267 Y-6.249
X12.55 Y-7.25
X11.828 Y-8.378
X11.118 Y-9.628
X10.44 Y-10.983
X9.815 Y-12.419
X9.245 Y-13.944
X8.734 Y-15.565
X8.31 Y-17.213
X7.97 Y-18.881
X7.715 Y-20.564
X7.543 Y-22.257
X7.457 Y-23.957
X7.458 Y-25.648
X7.546 Y-27.27
X7.704 Y-28.749
X7.923 Y-30.113
X8.195 Y-31.374
X8.504 Y-32.509
X8.815 Y-33.453
X9.126 Y-34.252
X9.444 Y-34.958
X9.754 Y-35.559
X10.083 Y-36.119
X10.403 Y-36.606
X10.441 Y-36.658
X10.726 Y-36.995
X11.053 Y-37.29
X11.416 Y-37.54
X11.81 Y-37.738
X12.226 Y-37.883
X12.658 Y-37.971
X13.098 Y-38
X17.231
G3 X19.32 Y-36.188 I-0.077 J2.199
G1 X25.322 Y-2.586
G3 X23.233 Y0 I-2.166 J0.387
G1 X18.979
X18.542 Y-0.022
X18.174 Y-0.06
X17.777 Y-0.122
X17.338 Y-0.215
X16.885 Y-0.336
X16.375 Y-0.502
X15.859 Y-0.7
X15.287 Y-0.956
X14.701 Y-1.256
X14.085 Y-1.613
X13.423 Y-2.046
X12.769 Y-2.524
X12.066 Y-3.098
X11.345 Y-3.752
X10.632 Y-4.472
X9.886 Y-5.309
X9.135 Y-6.247
X8.418 Y-7.248
X7.695 Y-8.377
X6.985 Y-9.627
X6.307 Y-10.983
X5.683 Y-12.418
X5.112 Y-13.943
X4.602 Y-15.565
X4.177 Y-17.213
X3.837 Y-18.881
X3.582 Y-20.563
X3.41 Y-22.257
X3.324 Y-23.956
X3.325 Y-25.648
X3.413 Y-27.27
X3.571 Y-28.749
X3.79 Y-30.112
X4.062 Y-31.374
X4.371 Y-32.509
X4.682 Y-33.453
X4.993 Y-34.252
X5.311 Y-34.958
X5.621 Y-35.559
X5.949 Y-36.119
X6.27 Y-36.606
X6.308 Y-36.658
X6.593 Y-36.995
X6.92 Y-37.29
X7.283 Y-37.54
X7.677 Y-37.738
X8.093 Y-37.883
X8.525 Y-37.971
X8.965 Y-38
X13.098
G3 X15.188 Y-36.181 I-0.077 J2.199
G1 X21.069 Y-2.578
G3 X18.979 Y0 I-2.167 J0.379
G1 X15.021
X14.397 Y-0.031
X14.03 Y-0.069
X13.634 Y-0.131
X13.195 Y-0.224
X12.743 Y-0.345
X12.234 Y-0.511
X11.719 Y-0.709
X11.147 Y-0.964
X10.562 Y-1.264
X9.947 Y-1.62
X9.286 Y-2.052
X8.632 Y-2.53
X7.93 Y-3.103
X7.209 Y-3.757
X6.497 Y-4.477
X5.751 Y-5.313
X5.001 Y-6.251
X4.283 Y-7.251
X3.561 Y-8.38
X2.852 Y-9.629
X2.174 Y-10.985
X1.549 Y-12.42
X0.979 Y-13.945
X0.468 Y-15.566
X0.104 Y-16.98
X0.047 Y-17.251
X0.012 Y-17.526
X0 Y-17.803
Y-27.242
X0.085 Y-28.941
X0.178 Y-30.01
X0.323 Y-31.041
X0.518 Y-32.035
X0.75 Y-32.962
X0.995 Y-33.761
X1.246 Y-34.443
X1.518 Y-35.079
X1.787 Y-35.628
X2.076 Y-36.145
X2.367 Y-36.606
X2.652 Y-36.954
X2.981 Y-37.261
X3.348 Y-37.521
X3.748 Y-37.727
X4.172 Y-37.878
X4.613 Y-37.969
X5.062 Y-38
X8.965
G3 X10.615 Y-34.439 I-0.077 J2.199
G1 X3.926 Y-25.956
G3 X0 Y-27.242 I-1.728 J-1.362
G1 Y-34.694
X0.019 Y-35.067
X0.046 Y-35.332
X0.089 Y-35.604
X0.142 Y-35.856
X0.214 Y-36.123
X0.377 Y-36.517
X0.6 Y-36.881
X0.876 Y-37.205
X1.201 Y-37.481
X1.564 Y-37.704
X1.958 Y-37.867
X2.372 Y-37.967
X2.797 Y-38
G3 X5.034 Y-37.136 I-0.128 J3.659
X1.082 Y-32.464 I-1.976 J2.336
X0 Y-34.694 I1.976 J-2.336
G1 Y-35.813
X0.029 Y-36.142
X0.109 Y-36.472
X0.247 Y-36.802
X0.342 Y-36.967
X0.458 Y-37.131
X0.508 Y-37.194
X0.673 Y-37.372
X0.838 Y-37.516
X1.168 Y-37.734
X1.281 Y-37.791
X1.554 Y-37.898
X1.827 Y-37.965
X2.157 Y-37.999
X2.487 Y-38
X5.062
G3 X7.094 Y-36.426 I-0.077 J2.199
G1 X17.053 Y-2.824
G3 X15.021 Y0 I-2.109 J0.625
G1 X10.7
X10.278 Y-0.021
X9.911 Y-0.059
X9.514 Y-0.121
X9.074 Y-0.214
X8.621 Y-0.336
X8.11 Y-0.502
X7.595 Y-0.7
X7.022 Y-0.956
X6.436 Y-1.256
X5.82 Y-1.613
X5.158 Y-2.046
X4.504 Y-2.524
X3.8 Y-3.098
X3.08 Y-3.752
X2.366 Y-4.472
X1.62 Y-5.31
X0.869 Y-6.248
X0.618 Y-6.598
X0.4 Y-6.945
X0.227 Y-7.317
X0.102 Y-7.708
X0.026 Y-8.111
X0 Y-8.521
Y-17.803
G3 X4.132 Y-18.775 I2.199 J0.077
G1 X12.557 Y-3.248
G3 X10.7 Y0 I-1.934 J1.049
G1 X6.742
X6.132 Y-0.031
X5.765 Y-0.068
X5.37 Y-0.131
X4.931 Y-0.223
X4.478 Y-0.344
X3.969 Y-0.51
X3.454 Y-0.708
X2.882 Y-0.963
X2.329 Y-1.247
X1.803 Y-1.552
X1.495 Y-1.753
X1.123 Y-2.035
X0.795 Y-2.368
X0.516 Y-2.743
X0.294 Y-3.154
X0.132 Y-3.592
X0.033 Y-4.049
X0 Y-4.515
G3 X3.185 Y-6.405 I2.199 J0.077
G1 X7.651 Y-4.165
G3 X6.742 Y0 I-0.986 J1.967
G1 X2.784
X2.416 Y-0.018
X2.207 Y-0.04
X2.002 Y-0.072
X1.591 Y-0.196
X1.207 Y-0.389
X0.861 Y-0.643
X0.563 Y-0.952
X0.322 Y-1.307
X0.145 Y-1.698
X0.037 Y-2.114
X0 Y-2.541
G3 X0.755 Y-4.391 I2.89 J0.1
X4.63 Y-0.853 I1.938 J1.769
X2.784 Y0 I-1.938 J-1.769
G1 X2.157 Y-0.001
X1.827 Y-0.035
X1.554 Y-0.102
X1.281 Y-0.209
X1.168 Y-0.266
X0.838 Y-0.484
X0.673 Y-0.628
X0.508 Y-0.806
X0.458 Y-0.869
X0.342 Y-1.033
X0.247 Y-1.198
X0.109 Y-1.528
X0.029 Y-1.858
X0 Y-2.187
Y-8.521
G3 X0.197 Y-9.356 I2.199 J0.077
G1 X0.272 Y-9.522 Z-0.292
X0.347 Y-9.686 Z-0.27
X0.421 Y-9.848 Z-0.233
X0.493 Y-10.006 Z-0.181
X0.563 Y-10.16 Z-0.115
X0.631 Y-10.309 Z-0.035
X0.696 Y-10.451 Z0.058
X0.757 Y-10.586 Z0.164
X0.815 Y-10.712 Z0.281
X0.868 Y-10.829 Z0.41
X0.917 Y-10.936 Z0.549
X0.961 Y-11.032 Z0.697
X0.999 Y-11.117 Z0.853
X1.032 Y-11.19 Z1.016
X1.06 Y-11.25 Z1.186
X1.081 Y-11.297 Z1.36
X1.097 Y-11.331 Z1.538
X1.106 Y-11.351 Z1.718
X1.109 Y-11.358 Z1.9
G0 Z18
M9
M30
%
