%
(1001)
(origin stock top)
(T1  D=12.7 CR=0 - ZMIN=-2.5 - flat end mill)
G90 G94
G17
G21

(2D Adaptive1)
M9
T1 M6
S7000 M3
G54
G0 X-181.189 Y-80.878
Z15
Z5
Z2.55
G3 X-172.549 Y-78.883 Z1.708 I3.12 J6.196 F283.3
X-172.919 Y-70.245 Z0.867 I-5.382 J4.096
X-181.259 Y-69.06 Z0.025 I-4.883 J-4.425
X-183.88 Y-76.831 Z-0.817 I3.365 J-5.463
X-176.913 Y-80.722 Z-1.658 I5.824 J2.246
X-171.956 Y-74.756 Z-2.5 I-1.111 J5.966
X-184.093 I-6.069
X-171.956 I6.069
G1 X-171.939 Y-73.414 F849.6
X-171.926 Y-73.331
X-171.908 Y-73.182
X-171.9 Y-73.032
Y-72.882
X-171.908 Y-72.733
X-171.924 Y-72.583
X-171.945 Y-72.435
X-171.973 Y-72.288
X-172.007 Y-72.141
X-172.046 Y-71.996
X-172.092 Y-71.846
X-172.145 Y-71.692
X-172.206 Y-71.536
X-172.274 Y-71.377
X-172.35 Y-71.216
X-172.433 Y-71.053
X-172.525 Y-70.89
X-172.624 Y-70.726
X-172.732 Y-70.562
X-172.848 Y-70.4
X-172.971 Y-70.239
X-173.102 Y-70.079
X-173.241 Y-69.922
X-173.387 Y-69.768
X-173.541 Y-69.617
X-173.702 Y-69.47
X-173.87 Y-69.328
X-174.044 Y-69.19
X-174.225 Y-69.057
X-174.412 Y-68.93
X-174.605 Y-68.808
X-174.803 Y-68.693
X-175.007 Y-68.584
X-175.215 Y-68.482
X-175.428 Y-68.386
X-175.646 Y-68.298
X-175.867 Y-68.218
X-176.092 Y-68.145
X-176.32 Y-68.08
X-176.551 Y-68.023
X-176.785 Y-67.973
X-177.021 Y-67.933
X-177.259 Y-67.9
X-177.498 Y-67.876
X-177.738 Y-67.86
X-177.98 Y-67.853
X-178.222 Y-67.855
X-178.464 Y-67.865
X-178.705 Y-67.883
X-178.947 Y-67.911
X-179.187 Y-67.946
X-179.426 Y-67.991
X-179.664 Y-68.044
X-179.9 Y-68.105
X-180.134 Y-68.175
X-180.365 Y-68.253
X-180.593 Y-68.34
X-180.819 Y-68.434
X-181.041 Y-68.537
X-181.259 Y-68.647
X-181.473 Y-68.765
X-181.683 Y-68.891
X-181.889 Y-69.024
X-182.09 Y-69.164
X-182.286 Y-69.311
X-182.476 Y-69.466
X-182.661 Y-69.627
X-182.84 Y-69.794
X-183.013 Y-69.968
X-183.18 Y-70.148
X-183.34 Y-70.334
X-183.494 Y-70.525
X-183.64 Y-70.722
X-183.78 Y-70.924
X-183.913 Y-71.13
X-184.038 Y-71.341
X-184.155 Y-71.557
X-184.265 Y-71.777
X-184.367 Y-72
X-184.46 Y-72.227
X-184.546 Y-72.457
X-184.624 Y-72.69
X-184.693 Y-72.926
X-184.754 Y-73.164
X-184.806 Y-73.404
X-184.85 Y-73.645
X-184.885 Y-73.888
X-184.912 Y-74.133
X-184.929 Y-74.377
X-184.939 Y-74.623
Y-74.869
X-184.931 Y-75.114
X-184.913 Y-75.359
X-184.888 Y-75.603
X-184.853 Y-75.847
X-184.81 Y-76.089
X-184.759 Y-76.329
X-184.699 Y-76.567
X-184.63 Y-76.803
X-184.553 Y-77.036
X-184.468 Y-77.267
X-184.375 Y-77.494
X-184.273 Y-77.718
X-184.164 Y-77.938
X-184.047 Y-78.154
X-183.923 Y-78.366
X-183.791 Y-78.573
X-183.652 Y-78.776
X-183.505 Y-78.973
X-183.352 Y-79.165
X-183.192 Y-79.351
X-183.026 Y-79.532
X-182.853 Y-79.707
X-182.674 Y-79.875
X-182.489 Y-80.037
X-182.299 Y-80.192
X-182.103 Y-80.341
X-181.902 Y-80.482
X-181.696 Y-80.616
X-181.486 Y-80.743
X-181.271 Y-80.862
X-181.052 Y-80.974
X-180.829 Y-81.077
X-180.603 Y-81.173
X-180.373 Y-81.26
X-180.141 Y-81.34
X-179.906 Y-81.411
X-179.668 Y-81.473
X-179.428 Y-81.528
X-179.187 Y-81.573
X-178.944 Y-81.61
X-178.7 Y-81.639
X-178.455 Y-81.658
X-178.21 Y-81.669
X-177.964 Y-81.672
X-177.718 Y-81.665
X-177.473 Y-81.65
X-177.229 Y-81.626
X-176.985 Y-81.593
X-176.743 Y-81.552
X-176.502 Y-81.502
X-176.264 Y-81.444
X-176.027 Y-81.377
X-175.793 Y-81.302
X-175.562 Y-81.219
X-175.334 Y-81.127
X-175.11 Y-81.028
X-174.889 Y-80.92
X-174.672 Y-80.805
X-174.459 Y-80.682
X-174.251 Y-80.552
X-174.047 Y-80.414
X-173.849 Y-80.269
X-173.656 Y-80.117
X-173.468 Y-79.959
X-173.286 Y-79.794
X-173.11 Y-79.622
X-172.94 Y-79.445
X-172.777 Y-79.261
X-172.62 Y-79.072
X-172.47 Y-78.877
X-172.327 Y-78.677
X-172.192 Y-78.472
X-172.063 Y-78.263
X-171.942 Y-78.049
X-171.829 Y-77.831
X-171.724 Y-77.609
X-171.627 Y-77.383
X-171.537 Y-77.154
X-171.448 Y-76.899
X-171.35 Y-76.583
X-171.207 Y-76.058
X-171.109 Y-75.637
X-171.038 Y-75.276
X-170.985 Y-74.948
X-170.948 Y-74.647
X-170.923 Y-74.365
X-170.909 Y-74.097
X-170.905 Y-73.838
X-170.91 Y-73.585
X-170.923 Y-73.339
X-170.945 Y-73.098
X-170.974 Y-72.862
X-171.012 Y-72.63
X-171.058 Y-72.4
X-171.111 Y-72.174
X-171.173 Y-71.95
X-171.242 Y-71.728
X-171.319 Y-71.509
X-171.404 Y-71.292
X-171.498 Y-71.078
X-171.599 Y-70.866
X-171.708 Y-70.657
X-171.825 Y-70.451
X-171.949 Y-70.248
X-172.082 Y-70.048
X-172.223 Y-69.853
X-172.371 Y-69.661
X-172.527 Y-69.473
X-172.691 Y-69.29
X-172.862 Y-69.112
X-173.04 Y-68.939
X-173.226 Y-68.771
X-173.418 Y-68.61
X-173.618 Y-68.454
X-173.823 Y-68.304
X-174.036 Y-68.161
X-174.254 Y-68.025
X-174.478 Y-67.896
X-174.708 Y-67.775
X-174.943 Y-67.661
X-175.182 Y-67.556
X-175.427 Y-67.458
X-175.675 Y-67.369
X-175.927 Y-67.289
X-176.183 Y-67.217
X-176.443 Y-67.154
X-176.704 Y-67.101
X-176.969 Y-67.056
X-177.235 Y-67.021
X-177.504 Y-66.996
X-177.773 Y-66.98
X-178.044 Y-66.973
X-178.315 Y-66.976
X-178.586 Y-66.989
X-178.857 Y-67.011
X-179.127 Y-67.043
X-179.397 Y-67.085
X-179.665 Y-67.136
X-179.932 Y-67.197
X-180.197 Y-67.267
X-180.459 Y-67.347
X-180.718 Y-67.436
X-180.975 Y-67.535
X-181.228 Y-67.642
X-181.477 Y-67.759
X-181.722 Y-67.884
X-181.962 Y-68.019
X-182.198 Y-68.161
X-182.429 Y-68.312
X-182.654 Y-68.472
X-182.874 Y-68.639
X-183.087 Y-68.814
X-183.295 Y-68.996
X-183.496 Y-69.186
X-183.69 Y-69.383
X-183.877 Y-69.587
X-184.056 Y-69.797
X-184.228 Y-70.014
X-184.393 Y-70.237
X-184.549 Y-70.465
X-184.697 Y-70.699
X-184.837 Y-70.938
X-184.968 Y-71.182
X-185.091 Y-71.43
X-185.205 Y-71.683
X-185.309 Y-71.94
X-185.405 Y-72.2
X-185.491 Y-72.463
X-185.568 Y-72.73
X-185.635 Y-72.999
X-185.692 Y-73.27
X-185.74 Y-73.543
X-185.779 Y-73.818
X-185.807 Y-74.094
X-185.826 Y-74.37
X-185.835 Y-74.647
X-185.834 Y-74.925
X-185.823 Y-75.202
X-185.802 Y-75.479
X-185.772 Y-75.754
X-185.731 Y-76.029
X-185.681 Y-76.302
X-185.622 Y-76.573
X-185.552 Y-76.841
X-185.473 Y-77.107
X-185.385 Y-77.37
X-185.288 Y-77.63
X-185.181 Y-77.886
X-185.065 Y-78.139
X-184.941 Y-78.387
X-184.808 Y-78.63
X-184.666 Y-78.868
X-184.515 Y-79.102
X-184.357 Y-79.33
X-184.191 Y-79.552
X-184.016 Y-79.768
X-183.835 Y-79.977
X-183.646 Y-80.18
X-183.449 Y-80.377
X-183.246 Y-80.566
X-183.037 Y-80.748
X-182.821 Y-80.922
X-182.599 Y-81.088
X-182.371 Y-81.247
X-182.137 Y-81.397
X-181.899 Y-81.539
X-181.656 Y-81.672
X-181.408 Y-81.797
X-181.155 Y-81.913
X-180.899 Y-82.019
X-180.639 Y-82.117
X-180.376 Y-82.205
X-180.11 Y-82.284
X-179.842 Y-82.353
X-179.571 Y-82.413
X-179.298 Y-82.463
X-179.023 Y-82.504
X-178.747 Y-82.534
X-178.47 Y-82.555
X-178.193 Y-82.566
X-177.916 Y-82.567
X-177.638 Y-82.558
X-177.361 Y-82.54
X-177.085 Y-82.511
X-176.81 Y-82.473
X-176.537 Y-82.425
X-176.266 Y-82.367
X-175.996 Y-82.3
X-175.73 Y-82.223
X-175.466 Y-82.137
X-175.205 Y-82.042
X-174.948 Y-81.937
X-174.695 Y-81.823
X-174.446 Y-81.7
X-174.202 Y-81.569
X-173.962 Y-81.429
X-173.728 Y-81.28
X-173.499 Y-81.124
X-173.275 Y-80.959
X-173.058 Y-80.786
X-172.847 Y-80.606
X-172.642 Y-80.418
X-172.445 Y-80.224
X-172.254 Y-80.022
X-172.071 Y-79.814
X-171.895 Y-79.599
X-171.725 Y-79.377
X-171.56 Y-79.144
X-171.401 Y-78.9
X-171.234 Y-78.624
X-171.069 Y-78.329
X-170.912 Y-78.023
X-170.765 Y-77.708
X-170.629 Y-77.388
X-170.505 Y-77.066
X-170.395 Y-76.744
X-170.297 Y-76.425
X-170.213 Y-76.107
X-170.141 Y-75.793
X-170.081 Y-75.481
X-170.033 Y-75.172
X-169.997 Y-74.867
X-169.972 Y-74.565
X-169.958 Y-74.268
X-169.955 Y-73.974
X-169.962 Y-73.684
X-169.979 Y-73.397
X-170.006 Y-73.114
X-170.043 Y-72.834
X-170.089 Y-72.557
X-170.145 Y-72.283
X-170.211 Y-72.012
X-170.285 Y-71.745
X-170.37 Y-71.481
X-170.463 Y-71.22
X-170.565 Y-70.963
X-170.677 Y-70.71
X-170.797 Y-70.461
X-170.927 Y-70.215
X-171.065 Y-69.975
X-171.212 Y-69.738
X-171.368 Y-69.507
X-171.532 Y-69.281
X-171.705 Y-69.06
X-171.886 Y-68.844
X-172.076 Y-68.635
X-172.273 Y-68.432
X-172.478 Y-68.235
X-172.69 Y-68.045
X-172.91 Y-67.862
X-173.137 Y-67.686
X-173.371 Y-67.518
X-173.612 Y-67.357
X-173.859 Y-67.205
X-174.112 Y-67.062
X-174.371 Y-66.926
X-174.636 Y-66.8
X-174.905 Y-66.683
X-175.18 Y-66.575
X-175.459 Y-66.477
X-175.742 Y-66.388
X-176.028 Y-66.31
X-176.319 Y-66.241
X-176.612 Y-66.183
X-176.907 Y-66.135
X-177.205 Y-66.097
X-177.505 Y-66.07
X-177.806 Y-66.053
X-178.108 Y-66.048
X-178.411 Y-66.053
X-178.714 Y-66.068
X-179.017 Y-66.095
X-179.319 Y-66.132
X-179.619 Y-66.181
X-179.919 Y-66.239
X-180.216 Y-66.309
X-180.512 Y-66.389
X-180.804 Y-66.48
X-181.094 Y-66.581
X-181.379 Y-66.692
X-181.662 Y-66.814
X-181.939 Y-66.946
X-182.212 Y-67.087
X-182.481 Y-67.239
X-182.743 Y-67.4
X-183 Y-67.57
X-183.252 Y-67.749
X-183.496 Y-67.938
X-183.734 Y-68.135
X-183.965 Y-68.34
X-184.188 Y-68.554
X-184.404 Y-68.775
X-184.612 Y-69.004
X-184.812 Y-69.241
X-185.004 Y-69.484
X-185.186 Y-69.734
X-185.36 Y-69.991
X-185.524 Y-70.253
X-185.679 Y-70.522
X-185.825 Y-70.796
X-185.961 Y-71.074
X-186.086 Y-71.358
X-186.202 Y-71.646
X-186.307 Y-71.938
X-186.402 Y-72.233
X-186.487 Y-72.532
X-186.56 Y-72.834
X-186.623 Y-73.138
X-186.676 Y-73.444
X-186.717 Y-73.751
X-186.747 Y-74.061
X-186.766 Y-74.371
X-186.775 Y-74.681
X-186.772 Y-74.992
X-186.758 Y-75.302
X-186.733 Y-75.612
X-186.697 Y-75.92
X-186.651 Y-76.228
X-186.593 Y-76.533
X-186.525 Y-76.836
X-186.445 Y-77.137
X-186.356 Y-77.434
X-186.255 Y-77.728
X-186.145 Y-78.019
X-186.024 Y-78.305
X-185.893 Y-78.587
X-185.752 Y-78.864
X-185.601 Y-79.136
X-185.441 Y-79.402
X-185.271 Y-79.663
X-185.092 Y-79.917
X-184.904 Y-80.165
X-184.708 Y-80.406
X-184.503 Y-80.64
X-184.29 Y-80.866
X-184.069 Y-81.085
X-183.841 Y-81.295
X-183.605 Y-81.498
X-183.362 Y-81.692
X-183.112 Y-81.877
X-182.856 Y-82.053
X-182.594 Y-82.22
X-182.326 Y-82.378
X-182.052 Y-82.526
X-181.774 Y-82.664
X-181.49 Y-82.792
X-181.203 Y-82.91
X-180.911 Y-83.018
X-180.616 Y-83.115
X-180.317 Y-83.202
X-180.016 Y-83.278
X-179.712 Y-83.344
X-179.406 Y-83.398
X-179.098 Y-83.442
X-178.789 Y-83.474
X-178.479 Y-83.496
X-178.168 Y-83.507
X-177.857 Y-83.506
X-177.546 Y-83.495
X-177.236 Y-83.472
X-176.927 Y-83.439
X-176.619 Y-83.394
X-176.313 Y-83.339
X-176.009 Y-83.273
X-175.708 Y-83.196
X-175.41 Y-83.108
X-175.115 Y-83.01
X-174.824 Y-82.902
X-174.536 Y-82.783
X-174.253 Y-82.654
X-173.975 Y-82.515
X-173.702 Y-82.366
X-173.434 Y-82.208
X-173.173 Y-82.04
X-172.917 Y-81.863
X-172.668 Y-81.677
X-172.424 Y-81.482
X-172.187 Y-81.277
X-171.953 Y-81.061
X-171.723 Y-80.832
X-171.497 Y-80.591
X-171.276 Y-80.337
X-171.062 Y-80.072
X-170.854 Y-79.797
X-170.654 Y-79.511
X-170.464 Y-79.217
X-170.283 Y-78.914
X-170.112 Y-78.604
X-169.952 Y-78.288
X-169.804 Y-77.967
X-169.667 Y-77.642
X-169.543 Y-77.313
X-169.431 Y-76.983
X-169.332 Y-76.65
X-169.245 Y-76.317
X-169.171 Y-75.984
X-169.109 Y-75.651
X-169.059 Y-75.319
X-169.022 Y-74.988
X-168.996 Y-74.657
X-168.983 Y-74.329
X-168.98 Y-74.002
X-168.99 Y-73.676
X-169.011 Y-73.353
X-169.043 Y-73.033
X-169.087 Y-72.715
X-169.141 Y-72.4
X-169.207 Y-72.088
X-169.283 Y-71.78
X-169.37 Y-71.475
X-169.468 Y-71.173
X-169.576 Y-70.876
X-169.694 Y-70.583
X-169.823 Y-70.295
X-169.962 Y-70.011
X-170.111 Y-69.732
X-170.27 Y-69.459
X-170.439 Y-69.191
X-170.617 Y-68.929
X-170.805 Y-68.674
X-171.002 Y-68.424
X-171.208 Y-68.181
X-171.423 Y-67.946
X-171.647 Y-67.717
X-171.879 Y-67.497
X-172.12 Y-67.284
X-172.369 Y-67.079
X-172.625 Y-66.883
X-172.889 Y-66.696
X-173.159 Y-66.517
X-173.437 Y-66.348
X-173.721 Y-66.189
X-174.012 Y-66.039
X-174.308 Y-65.9
X-174.61 Y-65.77
X-174.917 Y-65.652
X-175.229 Y-65.544
X-175.545 Y-65.447
X-175.865 Y-65.361
X-176.188 Y-65.286
X-176.515 Y-65.223
X-176.844 Y-65.171
X-177.176 Y-65.131
X-177.509 Y-65.102
X-177.844 Y-65.086
X-178.18 Y-65.081
X-178.516 Y-65.088
X-178.853 Y-65.108
X-179.189 Y-65.139
X-179.524 Y-65.182
X-179.858 Y-65.237
X-180.19 Y-65.304
X-180.52 Y-65.383
X-180.847 Y-65.474
X-181.172 Y-65.577
X-181.492 Y-65.691
X-181.809 Y-65.816
X-182.122 Y-65.953
X-182.429 Y-66.101
X-182.732 Y-66.259
X-183.029 Y-66.429
X-183.32 Y-66.609
X-183.604 Y-66.8
X-183.882 Y-67
X-184.153 Y-67.211
X-184.416 Y-67.431
X-184.671 Y-67.661
X-184.918 Y-67.899
X-185.157 Y-68.146
X-185.386 Y-68.402
X-185.607 Y-68.666
X-185.818 Y-68.938
X-186.02 Y-69.217
X-186.211 Y-69.503
X-186.392 Y-69.796
X-186.563 Y-70.095
X-186.723 Y-70.4
X-186.873 Y-70.711
X-187.011 Y-71.027
X-187.138 Y-71.347
X-187.253 Y-71.672
X-187.357 Y-72.001
X-187.449 Y-72.334
X-187.529 Y-72.669
X-187.597 Y-73.008
X-187.654 Y-73.348
X-187.698 Y-73.691
X-187.729 Y-74.035
X-187.749 Y-74.379
X-187.757 Y-74.725
X-187.752 Y-75.07
X-187.735 Y-75.415
X-187.705 Y-75.759
X-187.664 Y-76.102
X-187.61 Y-76.444
X-187.544 Y-76.783
X-187.466 Y-77.12
X-187.376 Y-77.453
X-187.275 Y-77.784
X-187.161 Y-78.11
X-187.037 Y-78.432
X-186.9 Y-78.75
X-186.753 Y-79.063
X-186.595 Y-79.37
X-186.425 Y-79.672
X-186.246 Y-79.967
X-186.055 Y-80.256
X-185.855 Y-80.537
X-185.645 Y-80.812
X-185.425 Y-81.079
X-185.196 Y-81.337
X-184.958 Y-81.588
X-184.711 Y-81.83
X-184.455 Y-82.063
X-184.192 Y-82.287
X-183.92 Y-82.501
X-183.641 Y-82.706
X-183.356 Y-82.9
X-183.063 Y-83.084
X-182.764 Y-83.258
X-182.459 Y-83.421
X-182.148 Y-83.573
X-181.833 Y-83.714
X-181.512 Y-83.844
X-181.187 Y-83.962
X-180.858 Y-84.068
X-180.526 Y-84.163
X-180.19 Y-84.246
X-179.851 Y-84.317
X-179.511 Y-84.376
X-179.168 Y-84.423
X-178.824 Y-84.457
X-178.479 Y-84.48
X-178.133 Y-84.49
X-177.787 Y-84.487
X-177.442 Y-84.473
X-177.097 Y-84.446
X-176.754 Y-84.407
X-176.412 Y-84.356
X-176.072 Y-84.292
X-175.734 Y-84.217
X-175.399 Y-84.13
X-175.068 Y-84.031
X-174.741 Y-83.92
X-174.417 Y-83.797
X-174.098 Y-83.663
X-173.784 Y-83.518
X-173.474 Y-83.362
X-173.17 Y-83.194
X-172.87 Y-83.014
X-172.575 Y-82.823
X-172.285 Y-82.62
X-172 Y-82.405
X-171.721 Y-82.179
X-171.447 Y-81.941
X-171.181 Y-81.691
X-170.921 Y-81.43
X-170.669 Y-81.157
X-170.425 Y-80.875
X-170.19 Y-80.582
X-169.965 Y-80.279
X-169.749 Y-79.968
X-169.545 Y-79.648
X-169.351 Y-79.321
X-169.17 Y-78.988
X-169 Y-78.648
X-168.843 Y-78.303
X-168.699 Y-77.954
X-168.567 Y-77.601
X-168.449 Y-77.244
X-168.344 Y-76.885
X-168.251 Y-76.524
X-168.173 Y-76.161
X-168.107 Y-75.797
X-168.054 Y-75.432
X-168.015 Y-75.068
X-167.989 Y-74.703
X-167.975 Y-74.34
Y-73.977
X-167.987 Y-73.616
X-168.012 Y-73.257
X-168.05 Y-72.9
X-168.101 Y-72.546
X-168.163 Y-72.195
X-168.238 Y-71.846
X-168.326 Y-71.501
X-168.425 Y-71.16
X-168.536 Y-70.824
X-168.659 Y-70.491
X-168.793 Y-70.163
X-168.94 Y-69.841
X-169.097 Y-69.524
X-169.266 Y-69.212
X-169.445 Y-68.907
X-169.636 Y-68.608
X-169.837 Y-68.316
X-170.049 Y-68.031
X-170.27 Y-67.753
X-170.502 Y-67.483
X-170.744 Y-67.221
X-170.995 Y-66.968
X-171.255 Y-66.723
X-171.525 Y-66.487
X-171.803 Y-66.26
X-172.089 Y-66.043
X-172.384 Y-65.836
X-172.686 Y-65.64
X-172.996 Y-65.454
X-173.312 Y-65.278
X-173.635 Y-65.114
X-173.965 Y-64.961
X-174.3 Y-64.819
X-174.641 Y-64.689
X-174.987 Y-64.571
X-175.338 Y-64.465
X-175.693 Y-64.372
X-176.051 Y-64.291
X-176.413 Y-64.223
X-176.778 Y-64.168
X-177.145 Y-64.125
X-177.514 Y-64.096
X-177.884 Y-64.079
X-178.256 Y-64.076
X-178.627 Y-64.086
X-178.999 Y-64.109
X-179.37 Y-64.146
X-179.74 Y-64.196
X-180.108 Y-64.258
X-180.475 Y-64.334
X-180.839 Y-64.423
X-181.2 Y-64.526
X-181.557 Y-64.641
X-181.911 Y-64.768
X-182.26 Y-64.909
X-182.604 Y-65.061
X-182.943 Y-65.226
X-183.276 Y-65.403
X-183.602 Y-65.592
X-183.922 Y-65.793
X-184.235 Y-66.005
X-184.541 Y-66.228
X-184.838 Y-66.462
X-185.128 Y-66.707
X-185.408 Y-66.961
X-185.679 Y-67.226
X-185.941 Y-67.5
X-186.194 Y-67.784
X-186.436 Y-68.077
X-186.667 Y-68.378
X-186.888 Y-68.687
X-187.098 Y-69.004
X-187.296 Y-69.328
X-187.483 Y-69.659
X-187.658 Y-69.997
X-187.821 Y-70.341
X-187.972 Y-70.691
X-188.11 Y-71.045
X-188.236 Y-71.405
X-188.348 Y-71.769
X-188.448 Y-72.137
X-188.535 Y-72.508
X-188.608 Y-72.882
X-188.668 Y-73.258
X-188.715 Y-73.637
X-188.748 Y-74.016
X-188.768 Y-74.397
X-188.774 Y-74.779
X-188.767 Y-75.16
X-188.746 Y-75.541
X-188.711 Y-75.921
X-188.663 Y-76.299
X-188.602 Y-76.676
X-188.527 Y-77.05
X-188.439 Y-77.422
X-188.338 Y-77.79
X-188.224 Y-78.154
X-188.097 Y-78.514
X-187.958 Y-78.869
X-187.805 Y-79.219
X-187.641 Y-79.564
X-187.464 Y-79.902
X-187.275 Y-80.234
X-187.075 Y-80.559
X-186.863 Y-80.877
X-186.641 Y-81.187
X-186.407 Y-81.489
X-186.162 Y-81.783
X-185.908 Y-82.067
X-185.643 Y-82.343
X-185.369 Y-82.608
X-185.085 Y-82.864
X-184.793 Y-83.11
X-184.492 Y-83.345
X-184.183 Y-83.569
X-183.866 Y-83.783
X-183.542 Y-83.984
X-183.211 Y-84.175
X-182.873 Y-84.353
X-182.529 Y-84.519
X-182.179 Y-84.673
X-181.825 Y-84.814
X-181.465 Y-84.943
X-181.101 Y-85.059
X-180.733 Y-85.162
X-180.362 Y-85.251
X-179.987 Y-85.328
X-179.611 Y-85.391
X-179.232 Y-85.44
X-178.852 Y-85.477
X-178.47 Y-85.499
X-178.089 Y-85.508
X-177.707 Y-85.504
X-177.325 Y-85.486
X-176.944 Y-85.454
X-176.565 Y-85.409
X-176.188 Y-85.35
X-175.812 Y-85.279
X-175.44 Y-85.193
X-175.07 Y-85.095
X-174.704 Y-84.983
X-174.341 Y-84.858
X-173.983 Y-84.72
X-173.628 Y-84.569
X-173.278 Y-84.405
X-172.932 Y-84.228
X-172.592 Y-84.038
X-172.256 Y-83.835
X-171.927 Y-83.619
X-171.603 Y-83.39
X-171.287 Y-83.149
X-170.977 Y-82.895
X-170.676 Y-82.629
X-170.382 Y-82.352
X-170.098 Y-82.063
X-169.823 Y-81.763
X-169.558 Y-81.452
X-169.303 Y-81.131
X-169.06 Y-80.801
X-168.828 Y-80.463
X-168.609 Y-80.115
X-168.401 Y-79.761
X-168.207 Y-79.399
X-168.025 Y-79.03
X-167.857 Y-78.656
X-167.703 Y-78.277
X-167.562 Y-77.893
X-167.436 Y-77.506
X-167.323 Y-77.114
X-167.225 Y-76.721
X-167.141 Y-76.324
X-167.071 Y-75.926
X-167.016 Y-75.527
X-166.975 Y-75.128
X-166.948 Y-74.728
X-166.935 Y-74.328
X-166.937 Y-73.929
X-166.953 Y-73.531
X-166.983 Y-73.135
X-167.026 Y-72.741
X-167.084 Y-72.35
X-167.156 Y-71.962
X-167.241 Y-71.576
X-167.339 Y-71.195
X-167.451 Y-70.818
X-167.576 Y-70.445
X-167.715 Y-70.077
X-167.866 Y-69.714
X-168.03 Y-69.357
X-168.206 Y-69.007
X-168.395 Y-68.662
X-168.596 Y-68.325
X-168.809 Y-67.995
X-169.033 Y-67.672
X-169.269 Y-67.357
X-169.517 Y-67.051
X-169.775 Y-66.753
X-170.044 Y-66.465
X-170.323 Y-66.186
X-170.613 Y-65.916
X-170.912 Y-65.657
X-171.221 Y-65.408
X-171.538 Y-65.17
X-171.865 Y-64.943
X-172.2 Y-64.728
X-172.543 Y-64.524
X-172.893 Y-64.332
X-173.25 Y-64.153
X-173.615 Y-63.986
X-173.985 Y-63.832
X-174.362 Y-63.69
X-174.743 Y-63.563
X-175.13 Y-63.448
X-175.521 Y-63.347
X-175.916 Y-63.26
X-176.315 Y-63.188
X-176.716 Y-63.129
X-177.12 Y-63.084
X-177.526 Y-63.054
X-177.933 Y-63.038
X-178.341 Y-63.037
X-178.749 Y-63.05
X-179.157 Y-63.077
X-179.565 Y-63.12
X-179.971 Y-63.176
X-180.375 Y-63.247
X-180.777 Y-63.333
X-181.176 Y-63.433
X-181.572 Y-63.547
X-181.964 Y-63.675
X-182.351 Y-63.817
X-182.733 Y-63.973
X-183.11 Y-64.143
X-183.481 Y-64.326
X-183.846 Y-64.522
X-184.203 Y-64.732
X-184.553 Y-64.954
X-184.896 Y-65.188
X-185.23 Y-65.435
X-185.555 Y-65.693
X-185.871 Y-65.963
X-186.177 Y-66.244
X-186.473 Y-66.536
X-186.759 Y-66.839
X-187.034 Y-67.152
X-187.298 Y-67.474
X-187.551 Y-67.806
X-187.791 Y-68.146
X-188.02 Y-68.496
X-188.236 Y-68.853
X-188.439 Y-69.217
X-188.629 Y-69.589
X-188.806 Y-69.967
X-188.969 Y-70.352
X-189.119 Y-70.742
X-189.255 Y-71.137
X-189.376 Y-71.537
X-189.484 Y-71.942
X-189.577 Y-72.349
X-189.655 Y-72.76
X-189.719 Y-73.174
X-189.768 Y-73.59
X-189.802 Y-74.007
X-189.822 Y-74.425
X-189.826 Y-74.844
X-189.816 Y-75.262
X-189.791 Y-75.68
X-189.751 Y-76.097
X-189.696 Y-76.512
X-189.627 Y-76.926
X-189.543 Y-77.336
X-189.444 Y-77.743
X-189.331 Y-78.147
X-189.204 Y-78.546
X-189.062 Y-78.94
X-188.907 Y-79.33
X-188.738 Y-79.713
X-188.555 Y-80.09
X-188.359 Y-80.461
X-188.15 Y-80.824
X-187.928 Y-81.18
X-187.694 Y-81.528
X-187.448 Y-81.867
X-187.189 Y-82.197
X-186.919 Y-82.518
X-186.638 Y-82.829
X-186.346 Y-83.13
X-186.043 Y-83.42
X-185.731 Y-83.699
X-185.408 Y-83.967
X-185.076 Y-84.224
X-184.736 Y-84.468
X-184.387 Y-84.7
X-184.029 Y-84.92
X-183.665 Y-85.127
X-183.293 Y-85.321
X-182.914 Y-85.501
X-182.53 Y-85.668
X-182.139 Y-85.821
X-181.744 Y-85.961
X-181.343 Y-86.086
X-180.939 Y-86.196
X-180.531 Y-86.293
X-180.119 Y-86.375
X-179.705 Y-86.442
X-179.289 Y-86.494
X-178.871 Y-86.532
X-178.453 Y-86.554
X-178.033 Y-86.562
X-177.614 Y-86.555
X-177.195 Y-86.533
X-176.777 Y-86.496
X-176.36 Y-86.444
X-175.945 Y-86.378
X-175.532 Y-86.296
X-175.122 Y-86.2
X-174.714 Y-86.089
X-174.31 Y-85.964
X-173.91 Y-85.824
X-173.514 Y-85.669
X-173.123 Y-85.5
X-172.736 Y-85.316
X-172.355 Y-85.119
X-171.98 Y-84.907
X-171.611 Y-84.681
X-171.25 Y-84.441
X-170.896 Y-84.188
X-170.549 Y-83.921
X-170.212 Y-83.641
X-169.884 Y-83.349
X-169.565 Y-83.044
X-169.256 Y-82.728
X-168.959 Y-82.399
X-168.672 Y-82.06
X-168.398 Y-81.711
X-168.136 Y-81.351
X-167.886 Y-80.982
X-167.65 Y-80.604
X-167.427 Y-80.218
X-167.218 Y-79.824
X-167.023 Y-79.424
X-166.843 Y-79.017
X-166.677 Y-78.604
X-166.527 Y-78.186
X-166.391 Y-77.764
X-166.271 Y-77.338
X-166.166 Y-76.908
X-166.077 Y-76.476
X-166.003 Y-76.042
X-165.945 Y-75.606
X-165.903 Y-75.169
X-165.876 Y-74.732
X-165.864 Y-74.295
X-165.868 Y-73.858
X-165.888 Y-73.423
X-165.923 Y-72.989
X-165.973 Y-72.557
X-166.039 Y-72.128
X-166.119 Y-71.702
X-166.215 Y-71.279
X-166.325 Y-70.861
X-166.45 Y-70.447
X-166.59 Y-70.038
X-166.744 Y-69.634
X-166.912 Y-69.236
X-167.095 Y-68.845
X-167.291 Y-68.46
X-167.5 Y-68.083
X-167.723 Y-67.713
X-167.959 Y-67.351
X-168.208 Y-66.997
X-168.469 Y-66.653
X-168.743 Y-66.317
X-169.029 Y-65.992
X-169.326 Y-65.676
X-169.634 Y-65.371
X-169.954 Y-65.077
X-170.284 Y-64.794
X-170.624 Y-64.523
X-170.974 Y-64.263
X-171.333 Y-64.016
X-171.702 Y-63.782
X-172.079 Y-63.56
X-172.464 Y-63.352
X-172.857 Y-63.157
X-173.257 Y-62.977
X-173.664 Y-62.81
X-174.077 Y-62.657
X-174.496 Y-62.52
X-174.92 Y-62.397
X-175.348 Y-62.289
X-175.781 Y-62.196
X-176.217 Y-62.118
X-176.657 Y-62.056
X-177.099 Y-62.01
X-177.542 Y-61.979
X-177.988 Y-61.964
X-178.434 Y-61.965
X-178.88 Y-61.981
X-179.326 Y-62.014
X-179.77 Y-62.062
X-180.214 Y-62.126
X-180.655 Y-62.207
X-181.094 Y-62.302
X-181.529 Y-62.414
X-181.961 Y-62.541
X-182.388 Y-62.683
X-182.81 Y-62.84
X-183.227 Y-63.013
X-183.637 Y-63.2
X-184.041 Y-63.402
X-184.438 Y-63.619
X-184.827 Y-63.849
X-185.208 Y-64.094
X-185.581 Y-64.351
X-185.944 Y-64.623
X-186.297 Y-64.907
X-186.641 Y-65.203
X-186.974 Y-65.512
X-187.295 Y-65.832
X-187.606 Y-66.164
X-187.904 Y-66.507
X-188.191 Y-66.861
X-188.464 Y-67.224
X-188.725 Y-67.597
X-188.972 Y-67.98
X-189.206 Y-68.371
X-189.426 Y-68.77
X-189.631 Y-69.177
X-189.822 Y-69.591
X-189.998 Y-70.012
X-190.159 Y-70.438
X-190.305 Y-70.871
X-190.436 Y-71.308
X-190.551 Y-71.75
X-190.65 Y-72.196
X-190.733 Y-72.645
X-190.801 Y-73.096
X-190.852 Y-73.55
X-190.887 Y-74.006
X-190.906 Y-74.462
X-190.908 Y-74.92
X-190.895 Y-75.376
X-190.865 Y-75.833
X-190.819 Y-76.287
X-190.757 Y-76.741
X-190.679 Y-77.191
X-190.584 Y-77.639
X-190.474 Y-78.083
X-190.349 Y-78.522
X-190.207 Y-78.958
X-190.051 Y-79.387
X-189.879 Y-79.811
X-189.692 Y-80.229
X-189.491 Y-80.64
X-189.275 Y-81.043
X-189.044 Y-81.439
X-188.8 Y-81.826
X-188.542 Y-82.204
X-188.271 Y-82.573
X-187.987 Y-82.932
X-187.691 Y-83.281
X-187.382 Y-83.618
X-187.062 Y-83.945
X-186.73 Y-84.26
X-186.387 Y-84.564
X-186.033 Y-84.854
X-185.669 Y-85.132
X-185.296 Y-85.397
X-184.914 Y-85.649
X-184.523 Y-85.887
X-184.123 Y-86.111
X-183.716 Y-86.32
X-183.302 Y-86.515
X-182.881 Y-86.695
X-182.454 Y-86.86
X-182.021 Y-87.01
X-181.583 Y-87.144
X-181.141 Y-87.263
X-180.695 Y-87.366
X-180.245 Y-87.452
X-179.793 Y-87.523
X-179.338 Y-87.578
X-178.882 Y-87.617
X-178.424 Y-87.639
X-177.966 Y-87.645
X-177.508 Y-87.635
X-177.049 Y-87.609
X-176.592 Y-87.566
X-176.136 Y-87.507
X-175.682 Y-87.432
X-175.23 Y-87.34
X-174.781 Y-87.232
X-174.335 Y-87.109
X-173.893 Y-86.969
X-173.455 Y-86.813
X-173.022 Y-86.641
X-172.594 Y-86.454
X-172.172 Y-86.251
X-171.757 Y-86.032
X-171.348 Y-85.798
X-170.946 Y-85.549
X-170.553 Y-85.286
X-170.168 Y-85.007
X-169.793 Y-84.715
X-169.427 Y-84.409
X-169.072 Y-84.089
X-168.727 Y-83.756
X-168.394 Y-83.41
X-168.073 Y-83.053
X-167.765 Y-82.684
X-167.469 Y-82.303
X-167.187 Y-81.912
X-166.919 Y-81.511
X-166.665 Y-81.101
X-166.426 Y-80.682
X-166.202 Y-80.255
X-165.994 Y-79.82
X-165.801 Y-79.378
X-165.624 Y-78.93
X-165.463 Y-78.477
X-165.319 Y-78.018
X-165.191 Y-77.555
X-165.08 Y-77.089
X-164.985 Y-76.619
X-164.907 Y-76.147
X-164.847 Y-75.673
X-164.803 Y-75.198
X-164.776 Y-74.722
X-164.766 Y-74.246
X-164.773 Y-73.771
X-164.797 Y-73.296
X-164.837 Y-72.824
X-164.895 Y-72.353
X-164.968 Y-71.886
X-165.059 Y-71.421
X-165.166 Y-70.961
X-165.288 Y-70.505
X-165.427 Y-70.053
X-165.582 Y-69.608
X-165.753 Y-69.168
X-165.939 Y-68.734
X-166.14 Y-68.308
X-166.357 Y-67.889
X-166.588 Y-67.477
X-166.833 Y-67.075
X-167.093 Y-66.681
X-167.367 Y-66.296
X-167.654 Y-65.921
X-167.955 Y-65.557
X-168.268 Y-65.203
X-168.595 Y-64.86
X-168.933 Y-64.529
X-169.283 Y-64.21
X-169.645 Y-63.903
X-170.018 Y-63.609
X-170.401 Y-63.328
X-170.795 Y-63.06
X-171.198 Y-62.807
X-171.61 Y-62.567
X-172.031 Y-62.343
X-172.46 Y-62.133
X-172.897 Y-61.938
X-173.341 Y-61.759
X-173.792 Y-61.595
X-174.249 Y-61.447
X-174.711 Y-61.316
X-175.178 Y-61.201
X-175.65 Y-61.102
X-176.125 Y-61.02
X-176.604 Y-60.955
X-177.085 Y-60.907
X-177.568 Y-60.876
X-178.052 Y-60.862
X-178.537 Y-60.865
X-179.022 Y-60.886
X-179.507 Y-60.924
X-179.99 Y-60.979
X-180.472 Y-61.052
X-180.951 Y-61.141
X-181.427 Y-61.248
X-181.9 Y-61.371
X-182.368 Y-61.512
X-182.832 Y-61.669
X-183.289 Y-61.842
X-183.741 Y-62.032
X-184.186 Y-62.238
X-184.624 Y-62.46
X-185.054 Y-62.697
X-185.475 Y-62.95
X-185.888 Y-63.217
X-186.291 Y-63.499
X-186.684 Y-63.796
X-187.066 Y-64.106
X-187.438 Y-64.431
X-187.797 Y-64.768
X-188.145 Y-65.118
X-188.48 Y-65.48
X-188.803 Y-65.854
X-189.112 Y-66.24
X-189.407 Y-66.636
X-189.688 Y-67.043
X-189.954 Y-67.459
X-190.206 Y-67.885
X-190.442 Y-68.32
X-190.663 Y-68.763
X-190.868 Y-69.214
X-191.057 Y-69.672
X-191.23 Y-70.136
X-191.386 Y-70.607
X-191.525 Y-71.082
X-191.647 Y-71.563
X-191.752 Y-72.047
X-191.84 Y-72.536
X-191.911 Y-73.027
X-191.964 Y-73.52
X-191.999 Y-74.015
X-192.017 Y-74.511
X-192.018 Y-75.007
X-192 Y-75.504
X-191.965 Y-75.999
X-191.913 Y-76.493
X-191.843 Y-76.984
X-191.755 Y-77.473
X-191.65 Y-77.959
X-191.528 Y-78.44
X-191.389 Y-78.917
X-191.233 Y-79.389
X-191.061 Y-79.855
X-190.872 Y-80.315
X-190.667 Y-80.767
X-190.445 Y-81.212
X-190.208 Y-81.649
X-189.956 Y-82.078
X-189.689 Y-82.497
X-189.407 Y-82.906
X-189.11 Y-83.305
X-188.8 Y-83.693
X-188.476 Y-84.07
X-188.139 Y-84.436
X-187.788 Y-84.789
X-187.426 Y-85.129
X-187.052 Y-85.456
X-186.666 Y-85.77
X-186.27 Y-86.07
X-185.863 Y-86.356
X-185.446 Y-86.627
X-185.02 Y-86.883
X-184.584 Y-87.124
X-184.141 Y-87.349
X-183.69 Y-87.559
X-183.232 Y-87.752
X-182.767 Y-87.929
X-182.296 Y-88.089
X-181.82 Y-88.232
X-181.339 Y-88.359
X-180.853 Y-88.468
X-180.364 Y-88.56
X-179.872 Y-88.634
X-179.378 Y-88.691
X-178.881 Y-88.731
X-178.383 Y-88.752
X-177.885 Y-88.756
X-177.386 Y-88.743
X-176.888 Y-88.711
X-176.39 Y-88.662
X-175.894 Y-88.595
X-175.4 Y-88.511
X-174.908 Y-88.408
X-174.419 Y-88.289
X-173.934 Y-88.151
X-173.454 Y-87.996
X-172.978 Y-87.824
X-172.508 Y-87.635
X-172.043 Y-87.429
X-171.586 Y-87.205
X-171.135 Y-86.966
X-170.692 Y-86.709
X-170.258 Y-86.437
X-169.833 Y-86.149
X-169.418 Y-85.845
X-169.013 Y-85.526
X-168.618 Y-85.192
X-168.236 Y-84.844
X-167.865 Y-84.482
X-167.507 Y-84.107
X-167.162 Y-83.719
X-166.831 Y-83.318
X-166.514 Y-82.906
X-166.212 Y-82.482
X-165.925 Y-82.048
X-165.653 Y-81.604
X-165.398 Y-81.15
X-165.158 Y-80.688
X-164.936 Y-80.217
X-164.73 Y-79.74
X-164.541 Y-79.255
X-164.37 Y-78.764
X-164.217 Y-78.268
X-164.081 Y-77.767
X-163.964 Y-77.262
X-163.864 Y-76.754
X-163.783 Y-76.242
X-163.72 Y-75.729
X-163.675 Y-75.214
X-163.648 Y-74.699
X-163.64 Y-74.183
X-163.65 Y-73.668
X-163.679 Y-73.154
X-163.726 Y-72.642
X-163.79 Y-72.132
X-163.873 Y-71.625
X-163.974 Y-71.122
X-164.092 Y-70.622
X-164.228 Y-70.128
X-164.382 Y-69.639
X-164.553 Y-69.155
X-164.74 Y-68.679
X-164.945 Y-68.209
X-165.166 Y-67.747
X-165.403 Y-67.293
X-165.657 Y-66.847
X-165.926 Y-66.411
X-166.21 Y-65.985
X-166.51 Y-65.568
X-166.824 Y-65.163
X-167.152 Y-64.769
X-167.495 Y-64.386
X-167.851 Y-64.016
X-168.221 Y-63.658
X-168.603 Y-63.313
X-168.997 Y-62.982
X-169.403 Y-62.665
X-169.821 Y-62.362
X-170.249 Y-62.074
X-170.688 Y-61.802
X-171.137 Y-61.544
X-171.595 Y-61.303
X-172.062 Y-61.078
X-172.536 Y-60.869
X-173.019 Y-60.677
X-173.508 Y-60.502
X-174.004 Y-60.345
X-174.506 Y-60.205
X-175.013 Y-60.083
X-175.524 Y-59.978
X-176.04 Y-59.892
X-176.558 Y-59.825
X-177.08 Y-59.775
X-177.603 Y-59.744
X-178.127 Y-59.732
X-178.652 Y-59.739
X-179.177 Y-59.764
X-179.702 Y-59.808
X-180.225 Y-59.87
X-180.745 Y-59.951
X-181.264 Y-60.051
X-181.778 Y-60.169
X-182.289 Y-60.305
X-182.794 Y-60.459
X-183.295 Y-60.632
X-183.789 Y-60.822
X-184.277 Y-61.03
X-184.757 Y-61.255
X-185.229 Y-61.498
X-185.693 Y-61.757
X-186.147 Y-62.032
X-186.592 Y-62.324
X-187.026 Y-62.632
X-187.45 Y-62.955
X-187.861 Y-63.292
X-188.261 Y-63.645
X-188.648 Y-64.012
X-189.022 Y-64.392
X-189.383 Y-64.786
X-189.729 Y-65.192
X-190.061 Y-65.611
X-190.378 Y-66.041
X-190.679 Y-66.482
X-190.965 Y-66.934
X-191.235 Y-67.396
X-191.488 Y-67.868
X-191.724 Y-68.348
X-191.943 Y-68.837
X-192.145 Y-69.333
X-192.329 Y-69.836
X-192.495 Y-70.345
X-192.643 Y-70.861
X-192.773 Y-71.381
X-192.884 Y-71.905
X-192.976 Y-72.434
X-193.049 Y-72.965
X-193.104 Y-73.499
X-193.14 Y-74.034
X-193.156 Y-74.57
X-193.154 Y-75.107
X-193.132 Y-75.644
X-193.092 Y-76.179
X-193.032 Y-76.713
X-192.954 Y-77.244
X-192.856 Y-77.772
X-192.74 Y-78.296
X-192.605 Y-78.816
X-192.452 Y-79.331
X-192.281 Y-79.841
X-192.092 Y-80.343
X-191.885 Y-80.839
X-191.66 Y-81.328
X-191.419 Y-81.808
X-191.16 Y-82.279
X-190.885 Y-82.74
X-190.594 Y-83.192
X-190.286 Y-83.633
X-189.963 Y-84.063
X-189.626 Y-84.481
X-189.273 Y-84.887
X-188.906 Y-85.28
X-188.526 Y-85.66
X-188.132 Y-86.026
X-187.726 Y-86.378
X-187.307 Y-86.715
X-186.876 Y-87.037
X-186.435 Y-87.344
X-185.982 Y-87.634
X-185.52 Y-87.909
X-185.048 Y-88.167
X-184.567 Y-88.408
X-184.078 Y-88.632
X-183.582 Y-88.838
X-183.078 Y-89.027
X-182.568 Y-89.197
X-182.052 Y-89.35
X-181.531 Y-89.484
X-181.005 Y-89.599
X-180.476 Y-89.696
X-179.943 Y-89.773
X-179.407 Y-89.832
X-178.869 Y-89.872
X-178.33 Y-89.893
X-177.79 Y-89.895
X-177.25 Y-89.877
X-176.71 Y-89.84
X-176.172 Y-89.784
X-175.635 Y-89.709
X-175.1 Y-89.615
X-174.568 Y-89.501
X-174.04 Y-89.369
X-173.516 Y-89.217
X-172.997 Y-89.047
X-172.483 Y-88.858
X-171.975 Y-88.651
X-171.474 Y-88.425
X-170.981 Y-88.181
X-170.496 Y-87.919
X-170.019 Y-87.64
X-169.552 Y-87.344
X-169.095 Y-87.03
X-168.648 Y-86.7
X-168.213 Y-86.354
X-167.79 Y-85.992
X-167.38 Y-85.615
X-166.983 Y-85.223
X-166.599 Y-84.817
X-166.23 Y-84.397
X-165.876 Y-83.964
X-165.537 Y-83.518
X-165.214 Y-83.06
X-164.907 Y-82.591
X-164.618 Y-82.112
X-164.345 Y-81.622
X-164.09 Y-81.123
X-163.853 Y-80.615
X-163.634 Y-80.099
X-163.434 Y-79.577
X-163.252 Y-79.047
X-163.09 Y-78.512
X-162.946 Y-77.971
X-162.823 Y-77.427
X-162.718 Y-76.878
X-162.633 Y-76.327
X-162.568 Y-75.773
X-162.523 Y-75.218
X-162.497 Y-74.661
X-162.491 Y-74.105
X-162.505 Y-73.549
X-162.539 Y-72.995
X-162.592 Y-72.442
X-162.665 Y-71.892
X-162.757 Y-71.345
X-162.869 Y-70.801
X-162.999 Y-70.263
X-163.149 Y-69.729
X-163.318 Y-69.202
X-163.505 Y-68.681
X-163.71 Y-68.167
X-163.934 Y-67.66
X-164.176 Y-67.162
X-164.435 Y-66.673
X-164.711 Y-66.193
X-165.004 Y-65.723
X-165.314 Y-65.264
X-165.64 Y-64.816
X-165.982 Y-64.379
X-166.339 Y-63.955
X-166.711 Y-63.544
X-167.098 Y-63.146
X-167.499 Y-62.761
X-167.914 Y-62.391
X-168.342 Y-62.036
X-168.782 Y-61.696
X-169.235 Y-61.371
X-169.699 Y-61.063
X-170.174 Y-60.771
X-170.66 Y-60.495
X-171.156 Y-60.237
X-171.661 Y-59.997
X-172.175 Y-59.774
X-172.696 Y-59.57
X-173.226 Y-59.384
X-173.761 Y-59.217
X-174.304 Y-59.069
X-174.851 Y-58.94
X-175.403 Y-58.83
X-175.96 Y-58.74
X-176.519 Y-58.67
X-177.082 Y-58.62
X-177.646 Y-58.59
X-178.211 Y-58.579
X-178.777 Y-58.589
X-179.343 Y-58.619
X-179.908 Y-58.669
X-180.471 Y-58.74
X-181.032 Y-58.83
X-181.59 Y-58.94
X-182.144 Y-59.07
X-182.693 Y-59.22
X-183.237 Y-59.389
X-183.775 Y-59.578
X-184.307 Y-59.786
X-184.831 Y-60.012
X-185.347 Y-60.258
X-185.854 Y-60.521
X-186.352 Y-60.803
X-186.84 Y-61.102
X-187.317 Y-61.419
X-187.783 Y-61.753
X-188.237 Y-62.103
X-188.679 Y-62.469
X-189.107 Y-62.851
X-189.522 Y-63.248
X-189.922 Y-63.66
X-190.308 Y-64.086
X-190.679 Y-64.525
X-191.034 Y-64.978
X-191.373 Y-65.443
X-191.695 Y-65.92
X-192 Y-66.408
X-192.288 Y-66.907
X-192.558 Y-67.416
X-192.81 Y-67.934
X-193.043 Y-68.462
X-193.257 Y-68.997
X-193.453 Y-69.54
X-193.629 Y-70.089
X-193.785 Y-70.644
X-193.921 Y-71.205
X-194.038 Y-71.771
X-194.134 Y-72.34
X-194.211 Y-72.912
X-194.266 Y-73.487
X-194.302 Y-74.064
X-194.316 Y-74.641
X-194.311 Y-75.219
X-194.285 Y-75.797
X-194.238 Y-76.373
X-194.171 Y-76.947
X-194.083 Y-77.518
X-193.975 Y-78.086
X-193.848 Y-78.65
X-193.7 Y-79.209
X-193.532 Y-79.763
X-193.345 Y-80.31
X-193.138 Y-80.851
X-192.913 Y-81.383
X-192.668 Y-81.908
X-192.405 Y-82.423
X-192.124 Y-82.929
X-191.825 Y-83.424
X-191.509 Y-83.909
X-191.176 Y-84.382
X-190.826 Y-84.843
X-190.46 Y-85.291
X-190.078 Y-85.726
X-189.681 Y-86.147
X-189.269 Y-86.554
X-188.843 Y-86.946
X-188.404 Y-87.322
X-187.951 Y-87.683
X-187.486 Y-88.028
X-187.008 Y-88.355
X-186.52 Y-88.666
X-186.02 Y-88.959
X-185.511 Y-89.234
X-184.992 Y-89.491
X-184.464 Y-89.729
X-183.928 Y-89.948
X-183.385 Y-90.149
X-182.834 Y-90.329
X-182.278 Y-90.491
X-181.716 Y-90.632
X-181.149 Y-90.753
X-180.578 Y-90.855
X-180.003 Y-90.935
X-179.426 Y-90.996
X-178.846 Y-91.036
X-178.265 Y-91.055
X-177.683 Y-91.054
X-177.101 Y-91.032
X-176.519 Y-90.989
X-175.939 Y-90.926
X-175.361 Y-90.842
X-174.785 Y-90.737
X-174.213 Y-90.612
X-173.644 Y-90.466
X-173.081 Y-90.3
X-172.522 Y-90.114
X-171.97 Y-89.907
X-171.425 Y-89.681
X-170.887 Y-89.436
X-170.358 Y-89.171
X-169.837 Y-88.886
X-169.326 Y-88.583
X-168.826 Y-88.262
X-168.336 Y-87.923
X-167.859 Y-87.566
X-167.393 Y-87.192
X-166.941 Y-86.801
X-166.503 Y-86.393
X-166.078 Y-85.97
X-165.669 Y-85.532
X-165.275 Y-85.08
X-164.898 Y-84.613
X-164.537 Y-84.133
X-164.193 Y-83.64
X-163.867 Y-83.136
X-163.559 Y-82.619
X-163.269 Y-82.093
X-162.998 Y-81.556
X-162.747 Y-81.01
X-162.515 Y-80.456
X-162.303 Y-79.894
X-162.111 Y-79.324
X-161.94 Y-78.749
X-161.789 Y-78.168
X-161.659 Y-77.583
X-161.55 Y-76.993
X-161.462 Y-76.401
X-161.395 Y-75.806
X-161.35 Y-75.209
X-161.325 Y-74.611
X-161.322 Y-74.013
X-161.34 Y-73.416
X-161.379 Y-72.82
X-161.44 Y-72.226
X-161.521 Y-71.635
X-161.623 Y-71.048
X-161.746 Y-70.464
X-161.89 Y-69.886
X-162.054 Y-69.313
X-162.238 Y-68.747
X-162.442 Y-68.187
X-162.666 Y-67.635
X-162.91 Y-67.092
X-163.172 Y-66.557
X-163.454 Y-66.032
X-163.754 Y-65.517
X-164.072 Y-65.014
X-164.408 Y-64.521
X-164.761 Y-64.041
X-165.131 Y-63.573
X-165.518 Y-63.119
X-165.921 Y-62.679
X-166.339 Y-62.253
X-166.772 Y-61.842
X-167.22 Y-61.446
X-167.683 Y-61.066
X-168.158 Y-60.703
X-168.647 Y-60.356
X-169.148 Y-60.027
X-169.66 Y-59.716
X-170.184 Y-59.423
X-170.718 Y-59.148
X-171.263 Y-58.892
X-171.816 Y-58.656
X-172.378 Y-58.439
X-172.947 Y-58.242
X-173.524 Y-58.066
X-174.107 Y-57.91
X-174.696 Y-57.774
X-175.29 Y-57.66
X-175.888 Y-57.566
X-176.49 Y-57.494
X-177.094 Y-57.443
X-177.7 Y-57.414
X-178.307 Y-57.406
X-178.915 Y-57.42
X-179.522 Y-57.455
X-180.128 Y-57.512
X-180.733 Y-57.591
X-181.334 Y-57.691
X-181.932 Y-57.812
X-182.526 Y-57.955
X-183.114 Y-58.118
X-183.697 Y-58.303
X-184.274 Y-58.509
X-184.843 Y-58.735
X-185.404 Y-58.981
X-185.956 Y-59.247
X-186.499 Y-59.533
X-187.032 Y-59.838
X-187.554 Y-60.161
X-188.064 Y-60.504
X-188.562 Y-60.864
X-189.047 Y-61.243
X-189.518 Y-61.638
X-189.976 Y-62.05
X-190.419 Y-62.478
X-190.846 Y-62.922
X-191.258 Y-63.381
X-191.653 Y-63.854
X-192.031 Y-64.342
X-192.392 Y-64.843
X-192.735 Y-65.356
X-193.059 Y-65.881
X-193.365 Y-66.418
X-193.652 Y-66.966
X-193.919 Y-67.523
X-194.166 Y-68.09
X-194.393 Y-68.665
X-194.599 Y-69.248
X-194.785 Y-69.838
X-194.95 Y-70.435
X-195.093 Y-71.037
X-195.215 Y-71.644
X-195.315 Y-72.255
X-195.393 Y-72.87
X-195.45 Y-73.486
X-195.485 Y-74.105
X-195.497 Y-74.725
X-195.488 Y-75.344
X-195.457 Y-75.963
X-195.403 Y-76.581
X-195.328 Y-77.196
X-195.231 Y-77.809
X-195.112 Y-78.417
X-194.972 Y-79.021
X-194.81 Y-79.62
X-194.627 Y-80.213
X-194.424 Y-80.799
X-194.199 Y-81.377
X-193.954 Y-81.947
X-193.689 Y-82.508
X-193.404 Y-83.059
X-193.1 Y-83.6
X-192.777 Y-84.13
X-192.435 Y-84.648
X-192.075 Y-85.153
X-191.697 Y-85.645
X-191.302 Y-86.124
X-190.89 Y-86.588
X-190.462 Y-87.038
X-190.018 Y-87.472
X-189.559 Y-87.89
X-189.085 Y-88.291
X-188.598 Y-88.675
X-188.097 Y-89.042
X-187.583 Y-89.391
X-187.057 Y-89.721
X-186.52 Y-90.033
X-185.972 Y-90.325
X-185.414 Y-90.598
X-184.847 Y-90.85
X-184.27 Y-91.082
X-183.686 Y-91.294
X-183.095 Y-91.485
X-182.497 Y-91.655
X-181.893 Y-91.804
X-181.284 Y-91.931
X-180.67 Y-92.036
X-180.053 Y-92.12
X-179.433 Y-92.181
X-178.81 Y-92.221
X-178.187 Y-92.239
X-177.562 Y-92.234
X-176.937 Y-92.207
X-176.313 Y-92.158
X-175.691 Y-92.087
X-175.071 Y-91.993
X-174.454 Y-91.877
X-173.84 Y-91.74
X-173.231 Y-91.58
X-172.628 Y-91.399
X-172.03 Y-91.196
X-171.439 Y-90.972
X-170.856 Y-90.727
X-170.281 Y-90.46
X-169.715 Y-90.173
X-169.159 Y-89.866
X-168.613 Y-89.539
X-168.079 Y-89.192
X-167.557 Y-88.826
X-167.048 Y-88.441
X-166.552 Y-88.038
X-166.07 Y-87.617
X-165.603 Y-87.179
X-165.152 Y-86.724
X-164.716 Y-86.253
X-164.298 Y-85.767
X-163.897 Y-85.266
X-163.513 Y-84.751
X-163.149 Y-84.222
X-162.803 Y-83.681
X-162.476 Y-83.127
X-162.169 Y-82.562
X-161.883 Y-81.987
X-161.617 Y-81.402
X-161.372 Y-80.808
X-161.149 Y-80.206
X-160.947 Y-79.596
X-160.767 Y-78.98
X-160.609 Y-78.358
X-160.473 Y-77.73
X-160.36 Y-77.099
X-160.269 Y-76.465
X-160.2 Y-75.827
X-160.155 Y-75.188
X-160.132 Y-74.549
Y-73.909
X-160.155 Y-73.269
X-160.2 Y-72.631
X-160.268 Y-71.996
X-160.358 Y-71.363
X-160.471 Y-70.734
X-160.606 Y-70.11
X-160.763 Y-69.491
X-160.942 Y-68.878
X-161.143 Y-68.272
X-161.365 Y-67.674
X-161.608 Y-67.084
X-161.872 Y-66.502
X-162.156 Y-65.931
X-162.461 Y-65.37
X-162.785 Y-64.82
X-163.129 Y-64.282
X-163.492 Y-63.756
X-163.873 Y-63.243
X-164.272 Y-62.745
X-164.689 Y-62.26
X-165.123 Y-61.79
X-165.574 Y-61.336
X-166.041 Y-60.898
X-166.523 Y-60.476
X-167.02 Y-60.072
X-167.532 Y-59.685
X-168.057 Y-59.317
X-168.595 Y-58.967
X-169.146 Y-58.637
X-169.709 Y-58.325
X-170.283 Y-58.034
X-170.867 Y-57.764
X-171.461 Y-57.514
X-172.064 Y-57.285
X-172.675 Y-57.077
X-173.293 Y-56.891
X-173.918 Y-56.727
X-174.549 Y-56.586
X-175.186 Y-56.466
X-175.826 Y-56.37
X-176.47 Y-56.296
X-177.117 Y-56.245
X-177.766 Y-56.217
X-178.416 Y-56.212
X-179.066 Y-56.23
X-179.715 Y-56.271
X-180.363 Y-56.335
X-181.009 Y-56.423
X-181.652 Y-56.533
X-182.291 Y-56.666
X-182.925 Y-56.822
X-183.554 Y-57.001
X-184.176 Y-57.201
X-184.791 Y-57.424
X-185.399 Y-57.669
X-185.997 Y-57.935
X-186.586 Y-58.223
X-187.165 Y-58.532
X-187.733 Y-58.861
X-188.289 Y-59.21
X-188.833 Y-59.579
X-189.363 Y-59.967
X-189.879 Y-60.374
X-190.381 Y-60.799
X-190.868 Y-61.242
X-191.339 Y-61.702
X-191.793 Y-62.179
X-192.231 Y-62.672
X-192.651 Y-63.18
X-193.052 Y-63.704
X-193.435 Y-64.241
X-193.799 Y-64.791
X-194.143 Y-65.355
X-194.467 Y-65.93
X-194.77 Y-66.517
X-195.052 Y-67.114
X-195.313 Y-67.721
X-195.553 Y-68.338
X-195.77 Y-68.962
X-195.965 Y-69.594
X-196.138 Y-70.232
X-196.288 Y-70.877
X-196.414 Y-71.526
X-196.518 Y-72.18
X-196.599 Y-72.837
X-196.656 Y-73.497
X-196.689 Y-74.158
X-196.699 Y-74.82
X-196.686 Y-75.482
X-196.649 Y-76.144
X-196.589 Y-76.803
X-196.505 Y-77.461
X-196.398 Y-78.115
X-196.267 Y-78.764
X-196.114 Y-79.409
X-195.938 Y-80.048
X-195.739 Y-80.681
X-195.518 Y-81.306
X-195.275 Y-81.923
X-195.01 Y-82.53
X-194.723 Y-83.129
X-194.416 Y-83.716
X-194.088 Y-84.292
X-193.739 Y-84.857
X-193.371 Y-85.408
X-192.983 Y-85.947
X-192.577 Y-86.471
X-192.152 Y-86.98
X-191.709 Y-87.474
X-191.249 Y-87.952
X-190.772 Y-88.413
X-190.279 Y-88.857
X-189.771 Y-89.284
X-189.247 Y-89.692
X-188.71 Y-90.081
X-188.159 Y-90.451
X-187.595 Y-90.801
X-187.019 Y-91.131
X-186.432 Y-91.44
X-185.834 Y-91.729
X-185.226 Y-91.996
X-184.608 Y-92.241
X-183.982 Y-92.464
X-183.349 Y-92.665
X-182.708 Y-92.843
X-182.062 Y-92.999
X-181.41 Y-93.131
X-180.753 Y-93.241
X-180.092 Y-93.327
X-179.429 Y-93.389
X-178.763 Y-93.428
X-178.096 Y-93.443
X-177.428 Y-93.435
X-176.76 Y-93.402
X-176.093 Y-93.347
X-175.428 Y-93.267
X-174.765 Y-93.163
X-174.106 Y-93.036
X-173.451 Y-92.886
X-172.801 Y-92.712
X-172.157 Y-92.515
X-171.52 Y-92.295
X-170.89 Y-92.052
X-170.268 Y-91.787
X-169.655 Y-91.499
X-169.053 Y-91.189
X-168.461 Y-90.858
X-167.88 Y-90.506
X-167.312 Y-90.133
X-166.757 Y-89.739
X-166.216 Y-89.326
X-165.689 Y-88.893
X-165.177 Y-88.441
X-164.682 Y-87.972
X-164.203 Y-87.484
X-163.742 Y-86.98
X-163.298 Y-86.459
X-162.873 Y-85.923
X-162.467 Y-85.371
X-162.081 Y-84.806
X-161.716 Y-84.226
X-161.371 Y-83.635
X-161.047 Y-83.031
X-160.745 Y-82.416
X-160.465 Y-81.791
X-160.207 Y-81.156
X-159.972 Y-80.512
X-159.76 Y-79.861
X-159.571 Y-79.203
X-159.406 Y-78.539
X-159.265 Y-77.869
X-159.147 Y-77.195
X-159.054 Y-76.518
X-158.985 Y-75.837
X-158.94 Y-75.156
X-158.919 Y-74.473
X-158.922 Y-73.79
X-158.95 Y-73.107
X-159.002 Y-72.427
X-159.078 Y-71.749
X-159.178 Y-71.074
X-159.302 Y-70.403
X-159.45 Y-69.738
X-159.621 Y-69.078
X-159.816 Y-68.424
X-160.033 Y-67.778
X-160.273 Y-67.141
X-160.536 Y-66.512
X-160.821 Y-65.893
X-161.128 Y-65.284
X-161.456 Y-64.687
X-161.806 Y-64.101
X-162.176 Y-63.528
X-162.566 Y-62.969
X-162.976 Y-62.423
X-163.405 Y-61.893
X-163.853 Y-61.378
X-164.319 Y-60.878
X-164.803 Y-60.396
X-165.304 Y-59.931
X-165.821 Y-59.483
X-166.354 Y-59.055
X-166.903 Y-58.645
X-167.466 Y-58.254
X-168.042 Y-57.884
X-168.632 Y-57.534
X-169.234 Y-57.205
X-169.848 Y-56.898
X-170.473 Y-56.612
X-171.108 Y-56.348
X-171.753 Y-56.107
X-172.406 Y-55.889
X-173.067 Y-55.694
X-173.735 Y-55.523
X-174.409 Y-55.375
X-175.088 Y-55.252
X-175.772 Y-55.152
X-176.46 Y-55.077
X-177.15 Y-55.026
X-177.842 Y-55
X-178.535 Y-54.998
X-179.228 Y-55.021
X-179.92 Y-55.069
X-180.611 Y-55.141
X-181.299 Y-55.237
X-181.984 Y-55.359
X-182.664 Y-55.504
X-183.34 Y-55.674
X-184.009 Y-55.868
X-184.671 Y-56.085
X-185.326 Y-56.326
X-185.972 Y-56.59
X-186.608 Y-56.878
X-187.235 Y-57.187
X-187.85 Y-57.52
X-188.453 Y-57.873
X-189.044 Y-58.249
X-189.621 Y-58.645
X-190.184 Y-59.061
X-190.732 Y-59.498
X-191.265 Y-59.954
X-191.781 Y-60.429
X-192.28 Y-60.922
X-192.762 Y-61.433
X-193.225 Y-61.96
X-193.67 Y-62.504
X-194.095 Y-63.064
X-194.5 Y-63.638
X-194.884 Y-64.227
X-195.248 Y-64.829
X-195.589 Y-65.444
X-195.909 Y-66.071
X-196.207 Y-66.709
X-196.482 Y-67.357
X-196.733 Y-68.015
X-196.961 Y-68.681
X-197.166 Y-69.356
X-197.346 Y-70.037
X-197.502 Y-70.724
X-197.634 Y-71.417
X-197.74 Y-72.114
X-197.822 Y-72.814
X-197.88 Y-73.517
X-197.912 Y-74.222
X-197.919 Y-74.928
X-197.901 Y-75.633
X-197.858 Y-76.338
X-197.79 Y-77.04
X-197.697 Y-77.74
X-197.579 Y-78.436
X-197.437 Y-79.127
X-197.27 Y-79.814
X-197.078 Y-80.493
X-196.863 Y-81.166
X-196.624 Y-81.831
X-196.362 Y-82.486
X-196.076 Y-83.132
X-195.768 Y-83.768
X-195.437 Y-84.392
X-195.084 Y-85.004
X-194.71 Y-85.604
X-194.314 Y-86.189
X-193.898 Y-86.761
X-193.462 Y-87.317
X-193.007 Y-87.857
X-192.532 Y-88.381
X-192.039 Y-88.887
X-191.529 Y-89.376
X-191.001 Y-89.847
X-190.457 Y-90.298
X-189.897 Y-90.73
X-189.323 Y-91.142
X-188.733 Y-91.533
X-188.131 Y-91.903
X-187.515 Y-92.251
X-186.888 Y-92.577
X-186.249 Y-92.881
X-185.599 Y-93.162
X-184.94 Y-93.42
X-184.272 Y-93.654
X-183.596 Y-93.865
X-182.912 Y-94.051
X-182.222 Y-94.214
X-181.527 Y-94.351
X-180.826 Y-94.464
X-180.122 Y-94.552
X-179.414 Y-94.615
X-178.705 Y-94.653
X-177.993 Y-94.665
X-177.282 Y-94.652
X-176.57 Y-94.614
X-175.86 Y-94.551
X-175.152 Y-94.462
X-174.446 Y-94.348
X-173.745 Y-94.21
X-173.048 Y-94.046
X-172.357 Y-93.857
X-171.672 Y-93.643
X-170.994 Y-93.405
X-170.325 Y-93.143
X-169.665 Y-92.857
X-169.014 Y-92.548
X-168.374 Y-92.215
X-167.746 Y-91.859
X-167.131 Y-91.481
X-166.528 Y-91.081
X-165.94 Y-90.659
X-165.366 Y-90.216
X-164.808 Y-89.753
X-164.267 Y-89.27
X-163.743 Y-88.768
X-163.236 Y-88.247
X-162.749 Y-87.708
X-162.28 Y-87.152
X-161.831 Y-86.579
X-161.403 Y-85.991
X-160.996 Y-85.388
X-160.61 Y-84.77
X-160.246 Y-84.139
X-159.906 Y-83.495
X-159.588 Y-82.84
X-159.293 Y-82.174
X-159.023 Y-81.497
X-158.777 Y-80.812
X-158.555 Y-80.118
X-158.358 Y-79.418
X-158.186 Y-78.71
X-158.04 Y-77.998
X-157.919 Y-77.28
X-157.823 Y-76.559
X-157.753 Y-75.835
X-157.709 Y-75.11
X-157.691 Y-74.383
X-157.698 Y-73.657
X-157.731 Y-72.931
X-157.79 Y-72.208
X-157.875 Y-71.487
X-157.985 Y-70.769
X-158.121 Y-70.056
X-158.282 Y-69.349
X-158.468 Y-68.647
X-158.678 Y-67.953
X-158.913 Y-67.267
X-159.173 Y-66.589
X-159.456 Y-65.922
X-159.763 Y-65.264
X-160.093 Y-64.618
X-160.445 Y-63.984
X-160.82 Y-63.363
X-161.217 Y-62.756
X-161.636 Y-62.162
X-162.075 Y-61.584
X-162.535 Y-61.022
X-163.014 Y-60.476
X-163.513 Y-59.947
X-164.031 Y-59.437
X-164.566 Y-58.944
X-165.119 Y-58.471
X-165.689 Y-58.018
X-166.275 Y-57.585
X-166.876 Y-57.172
X-167.491 Y-56.781
X-168.121 Y-56.413
X-168.763 Y-56.066
X-169.418 Y-55.742
X-170.085 Y-55.442
X-170.762 Y-55.165
X-171.449 Y-54.912
X-172.145 Y-54.684
X-172.849 Y-54.48
X-173.56 Y-54.302
X-174.278 Y-54.149
X-175.001 Y-54.021
X-175.728 Y-53.919
X-176.46 Y-53.843
X-177.194 Y-53.792
X-177.93 Y-53.768
X-178.666 Y-53.77
X-179.403 Y-53.798
X-180.139 Y-53.853
X-180.873 Y-53.933
X-181.604 Y-54.04
X-182.331 Y-54.173
X-183.053 Y-54.331
X-183.77 Y-54.515
X-184.48 Y-54.725
X-185.183 Y-54.96
X-185.877 Y-55.219
X-186.562 Y-55.504
X-187.237 Y-55.812
X-187.9 Y-56.145
X-188.552 Y-56.501
X-189.191 Y-56.881
X-189.817 Y-57.283
X-190.428 Y-57.707
X-191.024 Y-58.152
X-191.604 Y-58.619
X-192.167 Y-59.107
X-192.713 Y-59.614
X-193.24 Y-60.14
X-193.749 Y-60.686
X-194.239 Y-61.249
X-194.708 Y-61.829
X-195.156 Y-62.426
X-195.583 Y-63.038
X-195.988 Y-63.666
X-196.371 Y-64.307
X-196.731 Y-64.962
X-197.067 Y-65.63
X-197.379 Y-66.309
X-197.668 Y-66.999
X-197.931 Y-67.7
X-198.17 Y-68.409
X-198.383 Y-69.126
X-198.571 Y-69.851
X-198.733 Y-70.582
X-198.869 Y-71.318
X-198.978 Y-72.059
X-199.062 Y-72.803
X-199.118 Y-73.55
X-199.149 Y-74.299
X-199.152 Y-75.048
X-199.129 Y-75.797
X-199.08 Y-76.545
X-199.003 Y-77.291
X-198.901 Y-78.034
X-198.772 Y-78.772
X-198.617 Y-79.506
X-198.436 Y-80.234
X-198.229 Y-80.955
X-197.997 Y-81.668
X-197.739 Y-82.372
X-197.457 Y-83.067
X-197.15 Y-83.752
X-196.819 Y-84.425
X-196.464 Y-85.087
X-196.086 Y-85.735
X-195.685 Y-86.369
X-195.262 Y-86.989
X-194.817 Y-87.593
X-194.35 Y-88.181
X-193.863 Y-88.753
X-193.357 Y-89.306
X-192.83 Y-89.842
X-192.286 Y-90.358
X-191.723 Y-90.855
X-191.142 Y-91.331
X-190.545 Y-91.787
X-189.933 Y-92.221
X-189.305 Y-92.633
X-188.663 Y-93.023
X-188.007 Y-93.389
X-187.338 Y-93.732
X-186.658 Y-94.052
X-185.967 Y-94.347
X-185.265 Y-94.617
X-184.554 Y-94.862
X-183.834 Y-95.082
X-183.107 Y-95.276
X-182.373 Y-95.445
X-181.633 Y-95.587
X-180.889 Y-95.703
X-180.14 Y-95.793
X-179.388 Y-95.856
X-178.634 Y-95.892
X-177.878 Y-95.901
X-177.122 Y-95.884
X-176.367 Y-95.839
X-175.612 Y-95.768
X-174.861 Y-95.67
X-174.112 Y-95.545
X-173.368 Y-95.394
X-172.629 Y-95.216
X-171.896 Y-95.012
X-171.17 Y-94.781
X-170.452 Y-94.525
X-169.743 Y-94.243
X-169.044 Y-93.936
X-168.355 Y-93.604
X-167.678 Y-93.247
X-167.014 Y-92.866
X-166.363 Y-92.461
X-165.726 Y-92.034
X-165.104 Y-91.583
X-164.499 Y-91.11
X-163.91 Y-90.616
X-163.338 Y-90.101
X-162.785 Y-89.565
X-162.251 Y-89.01
X-161.737 Y-88.436
X-161.243 Y-87.844
X-160.77 Y-87.235
X-160.32 Y-86.608
X-159.891 Y-85.966
X-159.486 Y-85.31
X-159.104 Y-84.639
X-158.746 Y-83.954
X-158.413 Y-83.258
X-158.105 Y-82.55
X-157.822 Y-81.832
X-157.564 Y-81.104
X-157.333 Y-80.367
X-157.128 Y-79.623
X-156.95 Y-78.872
X-156.798 Y-78.116
X-156.674 Y-77.354
X-156.577 Y-76.589
X-156.506 Y-75.821
X-156.464 Y-75.052
X-156.448 Y-74.281
X-156.46 Y-73.511
X-156.5 Y-72.741
X-156.566 Y-71.974
X-156.66 Y-71.209
X-156.781 Y-70.449
X-156.929 Y-69.693
X-157.103 Y-68.944
X-157.304 Y-68.2
X-157.532 Y-67.465
X-157.785 Y-66.738
X-158.064 Y-66.021
X-158.368 Y-65.314
X-158.697 Y-64.618
X-159.051 Y-63.934
X-159.429 Y-63.264
X-159.83 Y-62.607
X-160.255 Y-61.964
X-160.702 Y-61.337
X-161.171 Y-60.726
X-161.662 Y-60.132
X-162.174 Y-59.555
X-162.706 Y-58.997
X-163.258 Y-58.458
X-163.829 Y-57.939
X-164.418 Y-57.44
X-165.025 Y-56.962
X-165.649 Y-56.506
X-166.289 Y-56.072
X-166.944 Y-55.66
X-167.614 Y-55.272
X-168.297 Y-54.908
X-168.994 Y-54.569
X-169.702 Y-54.254
X-170.422 Y-53.964
X-171.152 Y-53.7
X-171.891 Y-53.461
X-172.639 Y-53.249
X-173.394 Y-53.064
X-174.156 Y-52.905
X-174.923 Y-52.774
X-175.695 Y-52.67
X-176.471 Y-52.593
X-177.25 Y-52.544
X-178.03 Y-52.522
X-178.811 Y-52.528
X-179.592 Y-52.562
X-180.371 Y-52.624
X-181.149 Y-52.714
X-181.923 Y-52.831
X-182.693 Y-52.975
X-183.458 Y-53.147
X-184.216 Y-53.346
X-184.968 Y-53.572
X-185.711 Y-53.825
X-186.445 Y-54.104
X-187.169 Y-54.409
X-187.883 Y-54.74
X-188.584 Y-55.096
X-189.273 Y-55.477
X-189.948 Y-55.883
X-190.608 Y-56.312
X-191.254 Y-56.765
X-191.882 Y-57.24
X-192.494 Y-57.738
X-193.088 Y-58.258
X-193.664 Y-58.798
X-194.22 Y-59.359
X-194.756 Y-59.939
X-195.271 Y-60.538
X-195.765 Y-61.155
X-196.236 Y-61.79
X-196.685 Y-62.441
X-197.111 Y-63.108
X-197.513 Y-63.79
X-197.89 Y-64.486
X-198.243 Y-65.195
X-198.57 Y-65.916
X-198.871 Y-66.649
X-199.147 Y-67.392
X-199.396 Y-68.144
X-199.618 Y-68.905
X-199.812 Y-69.674
X-199.98 Y-70.449
X-200.12 Y-71.229
X-200.232 Y-72.015
X-200.316 Y-72.804
X-200.372 Y-73.595
X-200.4 Y-74.388
Y-75.182
X-200.371 Y-75.975
X-200.314 Y-76.767
X-200.23 Y-77.557
X-200.117 Y-78.343
X-199.976 Y-79.124
X-199.808 Y-79.9
X-199.612 Y-80.67
X-199.389 Y-81.433
X-199.139 Y-82.187
X-198.862 Y-82.931
X-198.559 Y-83.666
X-198.231 Y-84.389
X-197.876 Y-85.101
X-197.497 Y-85.799
X-197.093 Y-86.483
X-196.665 Y-87.153
X-196.213 Y-87.807
X-195.738 Y-88.445
X-195.241 Y-89.065
X-194.722 Y-89.668
X-194.183 Y-90.251
X-193.622 Y-90.815
X-193.042 Y-91.359
X-192.443 Y-91.882
X-191.826 Y-92.384
X-191.191 Y-92.863
X-190.54 Y-93.319
X-189.872 Y-93.752
X-189.19 Y-94.162
X-188.493 Y-94.546
X-187.783 Y-94.906
X-187.061 Y-95.241
X-186.327 Y-95.549
X-185.582 Y-95.832
X-184.827 Y-96.088
X-184.064 Y-96.317
X-183.293 Y-96.518
X-182.514 Y-96.693
X-181.73 Y-96.839
X-180.94 Y-96.958
X-180.146 Y-97.049
X-179.349 Y-97.111
X-178.55 Y-97.146
X-177.749 Y-97.151
X-176.949 Y-97.129
X-176.149 Y-97.077
X-175.35 Y-96.998
X-174.555 Y-96.89
X-173.763 Y-96.754
X-172.976 Y-96.589
X-172.194 Y-96.397
X-171.419 Y-96.176
X-170.652 Y-95.928
X-169.893 Y-95.653
X-169.144 Y-95.351
X-168.406 Y-95.022
X-167.679 Y-94.666
X-166.964 Y-94.285
X-166.263 Y-93.878
X-165.577 Y-93.447
X-164.905 Y-92.991
X-164.25 Y-92.511
X-163.612 Y-92.007
X-162.992 Y-91.481
X-162.39 Y-90.933
X-161.808 Y-90.364
X-161.246 Y-89.774
X-160.706 Y-89.164
X-160.187 Y-88.535
X-159.69 Y-87.888
X-159.217 Y-87.223
X-158.768 Y-86.542
X-158.343 Y-85.845
X-157.943 Y-85.134
X-157.568 Y-84.408
X-157.22 Y-83.67
X-156.898 Y-82.92
X-156.602 Y-82.159
X-156.334 Y-81.388
X-156.094 Y-80.608
X-155.881 Y-79.82
X-155.697 Y-79.025
X-155.541 Y-78.224
X-155.413 Y-77.418
X-155.315 Y-76.608
X-155.245 Y-75.795
X-155.204 Y-74.981
X-155.192 Y-74.166
X-155.209 Y-73.351
X-155.254 Y-72.537
X-155.329 Y-71.725
X-155.433 Y-70.917
X-155.565 Y-70.113
X-155.725 Y-69.315
X-155.914 Y-68.522
X-156.131 Y-67.737
X-156.375 Y-66.96
X-156.647 Y-66.192
X-156.947 Y-65.435
X-157.272 Y-64.688
X-157.624 Y-63.954
X-158.003 Y-63.232
X-158.406 Y-62.524
X-158.835 Y-61.831
X-159.287 Y-61.154
X-159.764 Y-60.493
X-160.264 Y-59.849
X-160.787 Y-59.223
X-161.332 Y-58.615
X-161.898 Y-58.028
X-162.485 Y-57.46
X-163.092 Y-56.914
X-163.718 Y-56.389
X-164.363 Y-55.887
X-165.026 Y-55.407
X-165.705 Y-54.952
X-166.401 Y-54.52
X-167.111 Y-54.114
X-167.837 Y-53.732
X-168.575 Y-53.377
X-169.326 Y-53.047
X-170.089 Y-52.745
X-170.863 Y-52.469
X-171.646 Y-52.221
X-172.438 Y-52.001
X-173.238 Y-51.809
X-174.044 Y-51.646
X-174.857 Y-51.511
X-175.674 Y-51.405
X-176.495 Y-51.328
X-177.318 Y-51.28
X-178.143 Y-51.262
X-178.969 Y-51.273
X-179.794 Y-51.313
X-180.618 Y-51.383
X-181.44 Y-51.481
X-182.257 Y-51.609
X-183.071 Y-51.766
X-183.878 Y-51.952
X-184.679 Y-52.167
X-185.472 Y-52.41
X-186.256 Y-52.681
X-187.031 Y-52.98
X-187.795 Y-53.307
X-188.547 Y-53.661
X-189.286 Y-54.041
X-190.012 Y-54.447
X-190.723 Y-54.88
X-191.419 Y-55.337
X-192.098 Y-55.819
X-192.76 Y-56.325
X-193.404 Y-56.854
X-194.029 Y-57.407
X-194.634 Y-57.981
X-195.218 Y-58.576
X-195.781 Y-59.193
X-196.323 Y-59.829
X-196.841 Y-60.484
X-197.336 Y-61.157
X-197.807 Y-61.847
X-198.253 Y-62.554
X-198.673 Y-63.277
X-199.068 Y-64.014
X-199.437 Y-64.765
X-199.779 Y-65.529
X-200.093 Y-66.305
X-200.38 Y-67.091
X-200.639 Y-67.888
X-200.869 Y-68.693
X-201.071 Y-69.506
X-201.244 Y-70.326
X-201.387 Y-71.151
X-201.501 Y-71.982
X-201.586 Y-72.816
X-201.64 Y-73.652
X-201.666 Y-74.49
X-201.661 Y-75.329
X-201.626 Y-76.167
X-201.562 Y-77.003
X-201.468 Y-77.837
X-201.345 Y-78.667
X-201.192 Y-79.492
X-201.01 Y-80.311
X-200.799 Y-81.123
X-200.559 Y-81.927
X-200.291 Y-82.723
X-199.994 Y-83.508
X-199.67 Y-84.282
X-199.319 Y-85.045
X-198.94 Y-85.794
X-198.536 Y-86.53
X-198.105 Y-87.251
X-197.649 Y-87.956
X-197.168 Y-88.644
X-196.663 Y-89.315
X-196.135 Y-89.968
X-195.583 Y-90.602
X-195.01 Y-91.215
X-194.415 Y-91.808
X-193.799 Y-92.38
X-193.163 Y-92.929
X-192.508 Y-93.455
X-191.835 Y-93.958
X-191.144 Y-94.437
X-190.437 Y-94.891
X-189.713 Y-95.319
X-188.975 Y-95.722
X-188.223 Y-96.098
X-187.458 Y-96.448
X-186.68 Y-96.77
X-185.892 Y-97.064
X-185.093 Y-97.331
X-184.285 Y-97.568
X-183.468 Y-97.777
X-182.645 Y-97.957
X-181.815 Y-98.108
X-180.98 Y-98.229
X-180.141 Y-98.321
X-179.298 Y-98.382
X-178.453 Y-98.414
X-177.608 Y-98.416
X-176.762 Y-98.387
X-175.917 Y-98.329
X-175.074 Y-98.24
X-174.234 Y-98.122
X-173.398 Y-97.974
X-172.567 Y-97.796
X-171.743 Y-97.588
X-170.926 Y-97.351
X-170.117 Y-97.085
X-169.317 Y-96.79
X-168.528 Y-96.467
X-167.75 Y-96.115
X-166.984 Y-95.736
X-166.232 Y-95.33
X-165.495 Y-94.897
X-164.772 Y-94.437
X-164.066 Y-93.952
X-163.377 Y-93.442
X-162.706 Y-92.907
X-162.055 Y-92.349
X-161.423 Y-91.767
X-160.812 Y-91.163
X-160.223 Y-90.537
X-159.656 Y-89.891
X-159.112 Y-89.225
X-158.592 Y-88.539
X-158.096 Y-87.835
X-157.626 Y-87.114
X-157.181 Y-86.377
X-156.763 Y-85.624
X-156.372 Y-84.857
X-156.008 Y-84.076
X-155.673 Y-83.283
X-155.365 Y-82.478
X-155.087 Y-81.663
X-154.837 Y-80.839
X-154.617 Y-80.006
X-154.427 Y-79.167
X-154.267 Y-78.321
X-154.137 Y-77.47
X-154.037 Y-76.615
X-153.968 Y-75.757
X-153.929 Y-74.897
X-153.921 Y-74.037
X-153.943 Y-73.177
X-153.996 Y-72.318
X-154.079 Y-71.462
X-154.193 Y-70.609
X-154.337 Y-69.762
X-154.511 Y-68.92
X-154.714 Y-68.084
X-154.947 Y-67.257
X-155.21 Y-66.438
X-155.501 Y-65.629
X-155.821 Y-64.831
X-156.169 Y-64.045
X-156.545 Y-63.271
X-156.948 Y-62.511
X-157.378 Y-61.767
X-157.834 Y-61.037
X-158.316 Y-60.324
X-158.823 Y-59.629
X-159.354 Y-58.952
X-159.91 Y-58.294
X-160.488 Y-57.656
X-161.089 Y-57.038
X-161.712 Y-56.443
X-162.356 Y-55.869
X-163.02 Y-55.319
X-163.703 Y-54.792
X-164.405 Y-54.29
X-165.125 Y-53.813
X-165.861 Y-53.361
X-166.614 Y-52.936
X-167.381 Y-52.537
X-168.162 Y-52.166
X-168.957 Y-51.823
X-169.764 Y-51.507
X-170.581 Y-51.221
X-171.409 Y-50.964
X-172.246 Y-50.736
X-173.091 Y-50.538
X-173.943 Y-50.37
X-174.801 Y-50.232
X-175.664 Y-50.124
X-176.53 Y-50.048
X-177.399 Y-50.002
X-178.27 Y-49.987
X-179.141 Y-50.003
X-180.011 Y-50.05
X-180.88 Y-50.128
X-181.746 Y-50.237
X-182.607 Y-50.376
X-183.464 Y-50.546
X-184.315 Y-50.747
X-185.158 Y-50.978
X-185.993 Y-51.238
X-186.819 Y-51.529
X-187.634 Y-51.848
X-188.438 Y-52.197
X-189.229 Y-52.574
X-190.007 Y-52.979
X-190.77 Y-53.412
X-191.517 Y-53.871
X-192.248 Y-54.357
X-192.962 Y-54.869
X-193.657 Y-55.407
X-194.333 Y-55.968
X-194.989 Y-56.554
X-195.624 Y-57.163
X-196.236 Y-57.794
X-196.827 Y-58.447
X-197.394 Y-59.12
X-197.937 Y-59.813
X-198.455 Y-60.526
X-198.947 Y-61.256
X-199.414 Y-62.004
X-199.853 Y-62.768
X-200.266 Y-63.548
X-200.65 Y-64.342
X-201.006 Y-65.149
X-201.333 Y-65.968
X-201.632 Y-66.799
X-201.9 Y-67.64
X-202.138 Y-68.49
X-202.346 Y-69.348
X-202.524 Y-70.213
X-202.671 Y-71.084
X-202.786 Y-71.96
X-202.871 Y-72.84
X-202.924 Y-73.722
X-202.946 Y-74.606
X-202.936 Y-75.49
X-202.895 Y-76.373
X-202.823 Y-77.254
X-202.72 Y-78.132
X-202.585 Y-79.006
X-202.419 Y-79.875
X-202.223 Y-80.737
X-201.996 Y-81.592
X-201.738 Y-82.439
X-201.451 Y-83.276
X-201.135 Y-84.102
X-200.789 Y-84.916
X-200.414 Y-85.718
X-200.011 Y-86.506
X-199.58 Y-87.279
X-199.123 Y-88.037
X-198.638 Y-88.778
X-198.127 Y-89.501
X-197.591 Y-90.205
X-197.031 Y-90.891
X-196.446 Y-91.555
X-195.838 Y-92.199
X-195.207 Y-92.821
X-194.555 Y-93.42
X-193.882 Y-93.995
X-193.189 Y-94.547
X-192.476 Y-95.073
X-191.745 Y-95.574
X-190.997 Y-96.049
X-190.232 Y-96.497
X-189.451 Y-96.917
X-188.656 Y-97.31
X-187.848 Y-97.674
X-187.026 Y-98.009
X-186.193 Y-98.315
X-185.349 Y-98.591
X-184.496 Y-98.838
X-183.634 Y-99.054
X-182.765 Y-99.239
X-181.889 Y-99.393
X-181.008 Y-99.516
X-180.123 Y-99.608
X-179.235 Y-99.669
X-178.344 Y-99.697
X-177.452 Y-99.694
X-176.561 Y-99.66
X-175.67 Y-99.594
X-174.782 Y-99.496
X-173.898 Y-99.366
X-173.018 Y-99.205
X-172.143 Y-99.013
X-171.276 Y-98.79
X-170.416 Y-98.536
X-169.565 Y-98.251
X-168.724 Y-97.936
X-167.894 Y-97.591
X-167.077 Y-97.216
X-166.272 Y-96.813
X-165.482 Y-96.38
X-164.708 Y-95.92
X-163.95 Y-95.432
X-163.209 Y-94.918
X-162.486 Y-94.376
X-161.783 Y-93.81
X-161.099 Y-93.218
X-160.437 Y-92.602
X-159.797 Y-91.963
X-159.18 Y-91.301
X-158.587 Y-90.617
X-158.018 Y-89.913
X-157.474 Y-89.188
X-156.956 Y-88.445
X-156.465 Y-87.683
X-156.001 Y-86.905
X-155.565 Y-86.11
X-155.158 Y-85.3
X-154.779 Y-84.476
X-154.43 Y-83.639
X-154.111 Y-82.79
X-153.822 Y-81.931
X-153.564 Y-81.061
X-153.337 Y-80.184
X-153.141 Y-79.298
X-152.977 Y-78.407
X-152.845 Y-77.51
X-152.745 Y-76.609
X-152.676 Y-75.706
X-152.64 Y-74.8
X-152.636 Y-73.894
X-152.665 Y-72.988
X-152.725 Y-72.085
X-152.817 Y-71.183
X-152.942 Y-70.286
X-153.098 Y-69.394
X-153.286 Y-68.508
X-153.505 Y-67.63
X-153.755 Y-66.759
X-154.036 Y-65.898
X-154.347 Y-65.048
X-154.688 Y-64.209
X-155.059 Y-63.383
X-155.459 Y-62.57
X-155.888 Y-61.772
X-156.345 Y-60.99
X-156.829 Y-60.224
X-157.341 Y-59.476
X-157.879 Y-58.746
X-158.442 Y-58.036
X-159.031 Y-57.346
X-159.644 Y-56.677
X-160.28 Y-56.03
X-160.939 Y-55.406
X-161.62 Y-54.806
X-162.323 Y-54.23
X-163.045 Y-53.679
X-163.787 Y-53.154
X-164.548 Y-52.655
X-165.326 Y-52.184
X-166.12 Y-51.74
X-166.931 Y-51.324
X-167.756 Y-50.938
X-168.594 Y-50.581
X-169.445 Y-50.253
X-170.308 Y-49.956
X-171.181 Y-49.69
X-172.063 Y-49.454
X-172.954 Y-49.25
X-173.852 Y-49.078
X-174.756 Y-48.938
X-175.664 Y-48.83
X-176.577 Y-48.754
X-177.492 Y-48.71
X-178.408 Y-48.699
X-179.325 Y-48.721
X-180.241 Y-48.775
X-181.155 Y-48.862
X-182.065 Y-48.981
X-182.972 Y-49.133
X-183.872 Y-49.316
X-184.766 Y-49.532
X-185.653 Y-49.78
X-186.53 Y-50.059
X-187.397 Y-50.369
X-188.253 Y-50.709
X-189.097 Y-51.081
X-189.928 Y-51.482
X-190.744 Y-51.912
X-191.544 Y-52.372
X-192.328 Y-52.859
X-193.095 Y-53.375
X-193.843 Y-53.917
X-194.571 Y-54.486
X-195.279 Y-55.081
X-195.966 Y-55.701
X-196.631 Y-56.345
X-197.272 Y-57.012
X-197.89 Y-57.702
X-198.482 Y-58.414
X-199.05 Y-59.146
X-199.591 Y-59.898
X-200.105 Y-60.67
X-200.591 Y-61.459
X-201.05 Y-62.265
X-201.479 Y-63.087
X-201.879 Y-63.924
X-202.249 Y-64.775
X-202.589 Y-65.639
X-202.898 Y-66.515
X-203.176 Y-67.401
X-203.422 Y-68.296
X-203.636 Y-69.2
X-203.818 Y-70.111
X-203.968 Y-71.028
X-204.085 Y-71.95
X-204.169 Y-72.876
X-204.22 Y-73.804
X-204.238 Y-74.734
X-204.223 Y-75.664
X-204.175 Y-76.592
X-204.094 Y-77.519
X-203.981 Y-78.442
X-203.834 Y-79.361
X-203.655 Y-80.273
X-203.444 Y-81.18
X-203.2 Y-82.078
X-202.925 Y-82.967
X-202.618 Y-83.845
X-202.281 Y-84.713
X-201.912 Y-85.567
X-201.514 Y-86.409
X-201.086 Y-87.235
X-200.629 Y-88.046
X-200.143 Y-88.84
X-199.629 Y-89.617
X-199.088 Y-90.375
X-198.521 Y-91.113
X-197.927 Y-91.831
X-197.308 Y-92.527
X-196.665 Y-93.2
X-195.999 Y-93.851
X-195.309 Y-94.478
X-194.598 Y-95.079
X-193.865 Y-95.655
X-193.113 Y-96.205
X-192.341 Y-96.728
X-191.552 Y-97.223
X-190.745 Y-97.69
X-189.921 Y-98.128
X-189.083 Y-98.537
X-188.23 Y-98.915
X-187.364 Y-99.264
X-186.486 Y-99.581
X-185.597 Y-99.867
X-184.698 Y-100.121
X-183.791 Y-100.344
X-182.875 Y-100.534
X-181.953 Y-100.691
X-181.026 Y-100.816
X-180.094 Y-100.908
X-179.159 Y-100.966
X-178.222 Y-100.992
X-177.285 Y-100.984
X-176.347 Y-100.943
X-175.411 Y-100.868
X-174.478 Y-100.76
X-173.548 Y-100.619
X-172.624 Y-100.445
X-171.706 Y-100.238
X-170.794 Y-99.999
X-169.892 Y-99.727
X-168.999 Y-99.423
X-168.117 Y-99.087
X-167.246 Y-98.72
X-166.389 Y-98.322
X-165.546 Y-97.893
X-164.718 Y-97.434
X-163.906 Y-96.946
X-163.112 Y-96.429
X-162.336 Y-95.884
X-161.579 Y-95.312
X-160.843 Y-94.712
X-160.129 Y-94.087
X-159.436 Y-93.436
X-158.767 Y-92.761
X-158.123 Y-92.062
X-157.503 Y-91.341
X-156.909 Y-90.597
X-156.342 Y-89.833
X-155.802 Y-89.049
X-155.29 Y-88.246
X-154.807 Y-87.426
X-154.353 Y-86.588
X-153.929 Y-85.735
X-153.536 Y-84.867
X-153.174 Y-83.986
X-152.843 Y-83.093
X-152.544 Y-82.188
X-152.278 Y-81.273
X-152.044 Y-80.35
X-151.844 Y-79.419
X-151.676 Y-78.481
X-151.542 Y-77.538
X-151.442 Y-76.591
X-151.375 Y-75.641
X-151.342 Y-74.69
X-151.343 Y-73.737
X-151.377 Y-72.786
X-151.446 Y-71.837
X-151.548 Y-70.89
X-151.683 Y-69.948
X-151.852 Y-69.011
X-152.054 Y-68.081
X-152.289 Y-67.159
X-152.557 Y-66.246
X-152.857 Y-65.343
X-153.189 Y-64.451
X-153.552 Y-63.571
X-153.947 Y-62.705
X-154.371 Y-61.853
X-154.826 Y-61.017
X-155.311 Y-60.197
X-155.824 Y-59.395
X-156.366 Y-58.611
X-156.935 Y-57.847
X-157.531 Y-57.104
X-158.153 Y-56.382
X-158.801 Y-55.683
X-159.473 Y-55.006
X-160.169 Y-54.354
X-160.888 Y-53.727
X-161.63 Y-53.125
X-162.392 Y-52.551
X-163.175 Y-52.003
X-163.976 Y-51.483
X-164.797 Y-50.992
X-165.634 Y-50.53
X-166.488 Y-50.098
X-167.356 Y-49.696
X-168.239 Y-49.325
X-169.135 Y-48.986
X-170.043 Y-48.678
X-170.962 Y-48.403
X-171.89 Y-48.161
X-172.827 Y-47.952
X-173.771 Y-47.776
X-174.721 Y-47.633
X-175.677 Y-47.524
X-176.635 Y-47.45
X-177.597 Y-47.409
X-178.56 Y-47.403
X-179.522 Y-47.43
X-180.484 Y-47.492
X-181.443 Y-47.588
X-182.399 Y-47.719
X-183.35 Y-47.883
X-184.295 Y-48.081
X-185.233 Y-48.312
X-186.162 Y-48.577
X-187.082 Y-48.874
X-187.991 Y-49.205
X-188.888 Y-49.567
X-189.772 Y-49.962
X-190.642 Y-50.387
X-191.496 Y-50.844
X-192.335 Y-51.331
X-193.155 Y-51.847
X-193.957 Y-52.392
X-194.739 Y-52.966
X-195.501 Y-53.568
X-196.241 Y-54.196
X-196.959 Y-54.85
X-197.653 Y-55.53
X-198.323 Y-56.234
X-198.967 Y-56.962
X-199.586 Y-57.712
X-200.177 Y-58.484
X-200.741 Y-59.277
X-201.277 Y-60.089
X-201.783 Y-60.921
X-202.26 Y-61.77
X-202.706 Y-62.635
X-203.122 Y-63.516
X-203.506 Y-64.411
X-203.858 Y-65.32
X-204.177 Y-66.241
X-204.464 Y-67.172
X-204.717 Y-68.114
X-204.937 Y-69.064
X-205.123 Y-70.021
X-205.275 Y-70.984
X-205.393 Y-71.953
X-205.476 Y-72.925
X-205.525 Y-73.9
X-205.539 Y-74.875
X-205.518 Y-75.851
X-205.462 Y-76.826
X-205.372 Y-77.798
X-205.248 Y-78.766
X-205.089 Y-79.73
X-204.896 Y-80.687
X-204.67 Y-81.637
X-204.409 Y-82.578
X-204.115 Y-83.51
X-203.789 Y-84.43
X-203.43 Y-85.339
X-203.038 Y-86.234
X-202.615 Y-87.115
X-202.162 Y-87.98
X-201.677 Y-88.829
X-201.163 Y-89.66
X-200.62 Y-90.472
X-200.048 Y-91.265
X-199.448 Y-92.036
X-198.821 Y-92.786
X-198.168 Y-93.514
X-197.489 Y-94.217
X-196.786 Y-94.897
X-196.058 Y-95.55
X-195.309 Y-96.178
X-194.537 Y-96.779
X-193.744 Y-97.352
X-192.931 Y-97.896
X-192.099 Y-98.412
X-191.25 Y-98.898
X-190.383 Y-99.353
X-189.501 Y-99.777
X-188.603 Y-100.17
X-187.693 Y-100.531
X-186.769 Y-100.859
X-185.835 Y-101.154
X-184.89 Y-101.417
X-183.936 Y-101.645
X-182.974 Y-101.84
X-182.005 Y-102
X-181.031 Y-102.126
X-180.053 Y-102.217
X-179.071 Y-102.273
X-178.088 Y-102.295
X-177.103 Y-102.281
X-176.12 Y-102.233
X-175.138 Y-102.15
X-174.159 Y-102.031
X-173.184 Y-101.878
X-172.215 Y-101.691
X-171.253 Y-101.468
X-170.298 Y-101.212
X-169.352 Y-100.922
X-168.417 Y-100.598
X-167.493 Y-100.241
X-166.582 Y-99.851
X-165.685 Y-99.428
X-164.803 Y-98.974
X-163.937 Y-98.489
X-163.088 Y-97.972
X-162.258 Y-97.426
X-161.447 Y-96.85
X-160.657 Y-96.245
X-159.888 Y-95.613
X-159.142 Y-94.953
X-158.42 Y-94.267
X-157.722 Y-93.555
X-157.05 Y-92.819
X-156.404 Y-92.059
X-155.785 Y-91.276
X-155.194 Y-90.472
X-154.632 Y-89.647
X-154.1 Y-88.802
X-153.598 Y-87.939
X-153.127 Y-87.058
X-152.687 Y-86.162
X-152.28 Y-85.25
X-151.905 Y-84.324
X-151.563 Y-83.385
X-151.255 Y-82.435
X-150.981 Y-81.474
X-150.741 Y-80.505
X-150.535 Y-79.527
X-150.365 Y-78.543
X-150.229 Y-77.554
X-150.129 Y-76.56
X-150.064 Y-75.564
X-150.035 Y-74.566
X-150.041 Y-73.567
X-150.082 Y-72.57
X-150.159 Y-71.574
X-150.271 Y-70.582
X-150.419 Y-69.595
X-150.601 Y-68.614
X-150.818 Y-67.64
X-151.07 Y-66.674
X-151.355 Y-65.717
X-151.675 Y-64.772
X-152.028 Y-63.838
X-152.414 Y-62.917
X-152.832 Y-62.011
X-153.282 Y-61.12
X-153.764 Y-60.245
X-154.277 Y-59.388
X-154.819 Y-58.55
X-155.392 Y-57.731
X-155.993 Y-56.933
X-156.622 Y-56.156
X-157.279 Y-55.403
X-157.962 Y-54.673
X-158.671 Y-53.967
X-159.404 Y-53.287
X-160.162 Y-52.633
X-160.942 Y-52.006
X-161.745 Y-51.407
X-162.569 Y-50.837
X-163.412 Y-50.296
X-164.275 Y-49.786
X-165.156 Y-49.306
X-166.053 Y-48.857
X-166.966 Y-48.441
X-167.894 Y-48.057
X-168.836 Y-47.706
X-169.789 Y-47.389
X-170.754 Y-47.105
X-171.729 Y-46.856
X-172.712 Y-46.642
X-173.703 Y-46.463
X-174.7 Y-46.318
X-175.702 Y-46.21
X-176.707 Y-46.137
X-177.715 Y-46.099
X-178.725 Y-46.098
X-179.734 Y-46.132
X-180.741 Y-46.202
X-181.747 Y-46.308
X-182.748 Y-46.45
X-183.743 Y-46.627
X-184.733 Y-46.84
X-185.715 Y-47.087
X-186.687 Y-47.37
X-187.65 Y-47.687
X-188.6 Y-48.038
X-189.539 Y-48.423
X-190.463 Y-48.841
X-191.372 Y-49.292
X-192.265 Y-49.775
X-193.141 Y-50.29
X-193.998 Y-50.835
X-194.835 Y-51.411
X-195.652 Y-52.017
X-196.447 Y-52.651
X-197.219 Y-53.314
X-197.967 Y-54.003
X-198.691 Y-54.719
X-199.389 Y-55.461
X-200.06 Y-56.227
X-200.704 Y-57.016
X-201.32 Y-57.828
X-201.906 Y-58.662
X-202.463 Y-59.516
X-202.989 Y-60.39
X-203.484 Y-61.282
X-203.947 Y-62.191
X-204.377 Y-63.116
X-204.775 Y-64.057
X-205.138 Y-65.01
X-205.468 Y-65.977
X-205.763 Y-66.954
X-206.024 Y-67.942
X-206.249 Y-68.939
X-206.439 Y-69.943
X-206.593 Y-70.953
X-206.711 Y-71.968
X-206.792 Y-72.987
X-206.838 Y-74.008
X-206.847 Y-75.031
X-206.82 Y-76.053
X-206.757 Y-77.073
X-206.657 Y-78.091
X-206.522 Y-79.105
X-206.35 Y-80.114
X-206.143 Y-81.115
X-205.9 Y-82.109
X-205.622 Y-83.094
X-205.309 Y-84.068
X-204.962 Y-85.031
X-204.581 Y-85.981
X-204.166 Y-86.917
X-203.718 Y-87.837
X-203.238 Y-88.741
X-202.726 Y-89.627
X-202.183 Y-90.495
X-201.609 Y-91.343
X-201.005 Y-92.17
X-200.373 Y-92.975
X-199.712 Y-93.758
X-199.024 Y-94.516
X-198.309 Y-95.25
X-197.568 Y-95.957
X-196.803 Y-96.638
X-196.014 Y-97.292
X-195.202 Y-97.917
X-194.368 Y-98.513
X-193.514 Y-99.079
X-192.639 Y-99.615
X-191.747 Y-100.119
X-190.836 Y-100.591
X-189.909 Y-101.031
X-188.967 Y-101.438
X-188.011 Y-101.811
X-187.042 Y-102.149
X-186.061 Y-102.454
X-185.07 Y-102.723
X-184.069 Y-102.957
X-183.06 Y-103.156
X-182.045 Y-103.319
X-181.024 Y-103.445
X-179.998 Y-103.535
X-178.969 Y-103.589
X-177.939 Y-103.606
X-176.908 Y-103.587
X-175.878 Y-103.531
X-174.85 Y-103.438
X-173.826 Y-103.309
X-172.805 Y-103.143
X-171.791 Y-102.941
X-170.785 Y-102.703
X-169.786 Y-102.43
X-168.797 Y-102.121
X-167.82 Y-101.776
X-166.854 Y-101.397
X-165.903 Y-100.984
X-164.965 Y-100.537
X-164.044 Y-100.056
X-163.14 Y-99.543
X-162.254 Y-98.998
X-161.388 Y-98.421
X-160.543 Y-97.814
X-159.719 Y-97.177
X-158.918 Y-96.51
X-158.14 Y-95.816
X-157.388 Y-95.093
X-156.661 Y-94.345
X-155.962 Y-93.57
X-155.29 Y-92.771
X-154.646 Y-91.949
X-154.033 Y-91.104
X-153.449 Y-90.237
X-152.896 Y-89.35
X-152.376 Y-88.444
X-151.887 Y-87.52
X-151.432 Y-86.579
X-151.011 Y-85.623
X-150.623 Y-84.652
X-150.271 Y-83.667
X-149.953 Y-82.671
X-149.671 Y-81.664
X-149.426 Y-80.648
X-149.216 Y-79.624
X-149.043 Y-78.593
X-148.906 Y-77.557
X-148.807 Y-76.516
X-148.745 Y-75.473
X-148.719 Y-74.428
X-148.731 Y-73.383
X-148.78 Y-72.339
X-148.866 Y-71.298
X-148.989 Y-70.26
X-149.148 Y-69.227
X-149.345 Y-68.201
X-149.577 Y-67.182
X-149.846 Y-66.172
X-150.15 Y-65.173
X-150.49 Y-64.185
X-150.864 Y-63.209
X-151.273 Y-62.248
X-151.716 Y-61.301
X-152.192 Y-60.371
X-152.701 Y-59.458
X-153.243 Y-58.563
X-153.815 Y-57.688
X-154.419 Y-56.834
X-155.053 Y-56.002
X-155.716 Y-55.193
X-156.407 Y-54.407
X-157.126 Y-53.647
X-157.872 Y-52.912
X-158.644 Y-52.204
X-159.44 Y-51.524
X-160.261 Y-50.872
X-161.104 Y-50.249
X-161.969 Y-49.657
X-162.855 Y-49.096
X-163.761 Y-48.566
X-164.686 Y-48.068
X-165.628 Y-47.604
X-166.586 Y-47.173
X-167.559 Y-46.776
X-168.546 Y-46.414
X-169.546 Y-46.087
X-170.557 Y-45.796
X-171.578 Y-45.54
X-172.609 Y-45.321
X-173.646 Y-45.139
X-174.691 Y-44.994
X-175.74 Y-44.885
X-176.792 Y-44.814
X-177.847 Y-44.781
X-178.904 Y-44.785
X-179.959 Y-44.826
X-181.013 Y-44.905
X-182.064 Y-45.021
X-183.111 Y-45.175
X-184.152 Y-45.366
X-185.186 Y-45.594
X-186.212 Y-45.858
X-187.228 Y-46.159
X-188.233 Y-46.496
X-189.226 Y-46.869
X-190.205 Y-47.276
X-191.17 Y-47.719
X-192.118 Y-48.195
X-193.05 Y-48.706
X-193.963 Y-49.249
X-194.856 Y-49.824
X-195.729 Y-50.431
X-196.58 Y-51.069
X-197.408 Y-51.737
X-198.212 Y-52.434
X-198.991 Y-53.159
X-199.744 Y-53.912
X-200.47 Y-54.692
X-201.168 Y-55.496
X-201.838 Y-56.326
X-202.477 Y-57.179
X-203.086 Y-58.054
X-203.663 Y-58.95
X-204.209 Y-59.867
X-204.722 Y-60.803
X-205.201 Y-61.756
X-205.646 Y-62.726
X-206.056 Y-63.712
X-206.432 Y-64.711
X-206.771 Y-65.724
X-207.075 Y-66.748
X-207.342 Y-67.782
X-207.572 Y-68.825
X-207.765 Y-69.876
X-207.92 Y-70.934
X-208.038 Y-71.996
X-208.118 Y-73.062
X-208.16 Y-74.13
X-208.164 Y-75.2
X-208.131 Y-76.268
X-208.059 Y-77.336
X-207.949 Y-78.399
X-207.802 Y-79.459
X-207.617 Y-80.513
X-207.394 Y-81.559
X-207.135 Y-82.597
X-206.839 Y-83.626
X-206.507 Y-84.643
X-206.138 Y-85.648
X-205.734 Y-86.639
X-205.296 Y-87.615
X-204.822 Y-88.575
X-204.315 Y-89.518
X-203.775 Y-90.442
X-203.202 Y-91.347
X-202.597 Y-92.23
X-201.962 Y-93.092
X-201.296 Y-93.931
X-200.6 Y-94.745
X-199.876 Y-95.534
X-199.125 Y-96.298
X-198.346 Y-97.034
X-197.542 Y-97.742
X-196.714 Y-98.421
X-195.861 Y-99.07
X-194.986 Y-99.689
X-194.089 Y-100.277
X-193.172 Y-100.832
X-192.236 Y-101.354
X-191.281 Y-101.843
X-190.309 Y-102.298
X-189.322 Y-102.718
X-188.32 Y-103.103
X-187.304 Y-103.452
X-186.277 Y-103.765
X-185.239 Y-104.042
X-184.191 Y-104.281
X-183.135 Y-104.483
X-182.072 Y-104.648
X-181.003 Y-104.774
X-179.93 Y-104.863
X-178.854 Y-104.914
X-177.777 Y-104.926
X-176.699 Y-104.9
X-175.622 Y-104.836
X-174.548 Y-104.733
X-173.477 Y-104.593
X-172.412 Y-104.414
X-171.352 Y-104.197
X-170.301 Y-103.943
X-169.259 Y-103.651
X-168.227 Y-103.323
X-167.207 Y-102.958
X-166.2 Y-102.556
X-165.207 Y-102.119
X-164.23 Y-101.646
X-163.27 Y-101.139
X-162.327 Y-100.598
X-161.405 Y-100.023
X-160.503 Y-99.416
X-159.622 Y-98.777
X-158.765 Y-98.106
X-157.931 Y-97.406
X-157.123 Y-96.675
X-156.34 Y-95.917
X-155.585 Y-95.13
X-154.858 Y-94.317
X-154.161 Y-93.479
X-153.493 Y-92.616
X-152.856 Y-91.729
X-152.251 Y-90.821
X-151.679 Y-89.891
X-151.139 Y-88.942
X-150.634 Y-87.974
X-150.164 Y-86.988
X-149.728 Y-85.986
X-149.329 Y-84.969
X-148.966 Y-83.939
X-148.64 Y-82.897
X-148.351 Y-81.843
X-148.099 Y-80.78
X-147.886 Y-79.709
X-147.711 Y-78.631
X-147.574 Y-77.547
X-147.476 Y-76.459
X-147.416 Y-75.369
X-147.395 Y-74.277
X-147.413 Y-73.185
X-147.47 Y-72.094
X-147.565 Y-71.006
X-147.7 Y-69.923
X-147.872 Y-68.844
X-148.083 Y-67.773
X-148.331 Y-66.71
X-148.617 Y-65.656
X-148.941 Y-64.613
X-149.301 Y-63.582
X-149.698 Y-62.565
X-150.13 Y-61.562
X-150.598 Y-60.575
X-151.101 Y-59.605
X-151.638 Y-58.654
X-152.209 Y-57.722
X-152.812 Y-56.811
X-153.448 Y-55.922
X-154.114 Y-55.055
X-154.812 Y-54.213
X-155.538 Y-53.396
X-156.294 Y-52.605
X-157.077 Y-51.841
X-157.888 Y-51.106
X-158.724 Y-50.399
X-159.585 Y-49.722
X-160.47 Y-49.077
X-161.377 Y-48.462
X-162.306 Y-47.88
X-163.255 Y-47.332
X-164.224 Y-46.817
X-165.211 Y-46.337
X-166.214 Y-45.892
X-167.233 Y-45.483
X-168.267 Y-45.11
X-169.313 Y-44.773
X-170.371 Y-44.475
X-171.44 Y-44.213
X-172.517 Y-43.99
X-173.603 Y-43.805
X-174.694 Y-43.659
X-175.791 Y-43.551
X-176.891 Y-43.483
X-177.993 Y-43.454
X-179.096 Y-43.464
X-180.199 Y-43.513
X-181.299 Y-43.601
X-182.397 Y-43.728
X-183.489 Y-43.894
X-184.575 Y-44.099
X-185.654 Y-44.343
X-186.724 Y-44.625
X-187.784 Y-44.945
X-188.832 Y-45.302
X-189.867 Y-45.696
X-190.887 Y-46.128
X-191.892 Y-46.595
X-192.881 Y-47.098
X-193.851 Y-47.636
X-194.801 Y-48.208
X-195.731 Y-48.814
X-196.639 Y-49.452
X-197.525 Y-50.123
X-198.386 Y-50.825
X-199.222 Y-51.558
X-200.031 Y-52.319
X-200.813 Y-53.11
X-201.567 Y-53.927
X-202.292 Y-54.772
X-202.986 Y-55.641
X-203.649 Y-56.535
X-204.28 Y-57.452
X-204.878 Y-58.392
X-205.443 Y-59.352
X-205.973 Y-60.331
X-206.468 Y-61.33
X-206.928 Y-62.345
X-207.351 Y-63.376
X-207.738 Y-64.422
X-208.087 Y-65.481
X-208.398 Y-66.552
X-208.671 Y-67.633
X-208.906 Y-68.724
X-209.101 Y-69.822
X-209.258 Y-70.927
X-209.375 Y-72.037
X-209.453 Y-73.15
X-209.491 Y-74.266
X-209.49 Y-75.383
X-209.448 Y-76.498
X-209.368 Y-77.612
X-209.247 Y-78.722
X-209.088 Y-79.828
X-208.889 Y-80.927
X-208.651 Y-82.018
X-208.375 Y-83.101
X-208.06 Y-84.173
X-207.707 Y-85.233
X-207.317 Y-86.28
X-206.89 Y-87.313
X-206.427 Y-88.33
X-205.927 Y-89.329
X-205.393 Y-90.311
X-204.824 Y-91.273
X-204.221 Y-92.214
X-203.585 Y-93.134
X-202.916 Y-94.03
X-202.216 Y-94.902
X-201.486 Y-95.748
X-200.726 Y-96.569
X-199.937 Y-97.361
X-199.12 Y-98.126
X-198.277 Y-98.861
X-197.408 Y-99.565
X-196.514 Y-100.239
X-195.597 Y-100.88
X-194.657 Y-101.488
X-193.697 Y-102.063
X-192.716 Y-102.603
X-191.717 Y-103.109
X-190.7 Y-103.578
X-189.666 Y-104.012
X-188.618 Y-104.408
X-187.556 Y-104.767
X-186.482 Y-105.088
X-185.396 Y-105.371
X-184.301 Y-105.615
X-183.197 Y-105.821
X-182.086 Y-105.987
X-180.97 Y-106.113
X-179.849 Y-106.2
X-178.726 Y-106.247
X-177.601 Y-106.254
X-176.476 Y-106.221
X-175.352 Y-106.148
X-174.231 Y-106.035
X-173.114 Y-105.883
X-172.003 Y-105.69
X-170.898 Y-105.458
X-169.802 Y-105.187
X-168.716 Y-104.877
X-167.641 Y-104.529
X-166.578 Y-104.142
X-165.529 Y-103.718
X-164.495 Y-103.256
X-163.478 Y-102.757
X-162.479 Y-102.223
X-161.499 Y-101.653
X-160.539 Y-101.048
X-159.601 Y-100.41
X-158.686 Y-99.738
X-157.795 Y-99.034
X-156.929 Y-98.298
X-156.089 Y-97.532
X-155.277 Y-96.736
X-154.494 Y-95.911
X-153.74 Y-95.059
X-153.016 Y-94.181
X-152.324 Y-93.277
X-151.665 Y-92.349
X-151.039 Y-91.398
X-150.446 Y-90.425
X-149.889 Y-89.431
X-149.367 Y-88.418
X-148.882 Y-87.388
X-148.433 Y-86.34
X-148.022 Y-85.277
X-147.649 Y-84.201
X-147.314 Y-83.111
X-147.019 Y-82.011
X-146.762 Y-80.9
X-146.545 Y-79.781
X-146.368 Y-78.656
X-146.231 Y-77.524
X-146.135 Y-76.389
X-146.079 Y-75.251
X-146.063 Y-74.111
X-146.088 Y-72.972
X-146.153 Y-71.835
X-146.258 Y-70.7
X-146.404 Y-69.57
X-146.59 Y-68.446
X-146.815 Y-67.329
X-147.081 Y-66.221
X-147.385 Y-65.123
X-147.728 Y-64.037
X-148.11 Y-62.963
X-148.529 Y-61.904
X-148.986 Y-60.86
X-149.48 Y-59.833
X-150.009 Y-58.824
X-150.575 Y-57.834
X-151.175 Y-56.865
X-151.81 Y-55.917
X-152.478 Y-54.993
X-153.178 Y-54.093
X-153.91 Y-53.218
X-154.673 Y-52.369
X-155.466 Y-51.548
X-156.287 Y-50.755
X-157.137 Y-49.992
X-158.013 Y-49.259
X-158.915 Y-48.558
X-159.842 Y-47.889
X-160.792 Y-47.253
X-161.764 Y-46.651
X-162.758 Y-46.084
X-163.771 Y-45.552
X-164.803 Y-45.056
X-165.852 Y-44.597
X-166.918 Y-44.176
X-167.998 Y-43.793
X-169.091 Y-43.448
X-170.197 Y-43.142
X-171.313 Y-42.875
X-172.438 Y-42.648
X-173.571 Y-42.461
X-174.71 Y-42.314
X-175.855 Y-42.208
X-177.003 Y-42.143
X-178.153 Y-42.118
X-179.303 Y-42.134
X-180.453 Y-42.191
X-181.6 Y-42.289
X-182.744 Y-42.428
X-183.882 Y-42.607
X-185.014 Y-42.827
X-186.138 Y-43.087
X-187.252 Y-43.387
X-188.355 Y-43.726
X-189.446 Y-44.105
X-190.524 Y-44.522
X-191.586 Y-44.977
X-192.631 Y-45.47
X-193.659 Y-45.999
X-194.668 Y-46.566
X-195.656 Y-47.167
X-196.622 Y-47.804
X-197.566 Y-48.475
X-198.485 Y-49.179
X-199.379 Y-49.916
X-200.247 Y-50.684
X-201.087 Y-51.483
X-201.898 Y-52.311
X-202.68 Y-53.168
X-203.431 Y-54.052
X-204.15 Y-54.962
X-204.836 Y-55.898
X-205.489 Y-56.858
X-206.108 Y-57.84
X-206.691 Y-58.844
X-207.239 Y-59.869
X-207.75 Y-60.912
X-208.223 Y-61.973
X-208.659 Y-63.051
X-209.056 Y-64.143
X-209.414 Y-65.249
X-209.733 Y-66.367
X-210.012 Y-67.496
X-210.25 Y-68.634
X-210.448 Y-69.781
X-210.606 Y-70.933
X-210.722 Y-72.091
X-210.797 Y-73.252
X-210.831 Y-74.416
X-210.823 Y-75.579
X-210.774 Y-76.742
X-210.684 Y-77.903
X-210.552 Y-79.06
X-210.38 Y-80.211
X-210.167 Y-81.356
X-209.913 Y-82.493
X-209.619 Y-83.62
X-209.285 Y-84.736
X-208.912 Y-85.839
X-208.499 Y-86.928
X-208.048 Y-88.003
X-207.56 Y-89.06
X-207.034 Y-90.1
X-206.471 Y-91.12
X-205.872 Y-92.12
X-205.239 Y-93.098
X-204.57 Y-94.053
X-203.869 Y-94.984
X-203.134 Y-95.889
X-202.368 Y-96.768
X-201.571 Y-97.619
X-200.745 Y-98.441
X-199.889 Y-99.233
X-199.006 Y-99.995
X-198.096 Y-100.725
X-197.161 Y-101.422
X-196.201 Y-102.085
X-195.218 Y-102.715
X-194.214 Y-103.309
X-193.188 Y-103.867
X-192.144 Y-104.388
X-191.081 Y-104.872
X-190.001 Y-105.318
X-188.906 Y-105.726
X-187.797 Y-106.094
X-186.675 Y-106.423
X-185.542 Y-106.712
X-184.399 Y-106.961
X-183.247 Y-107.169
X-182.088 Y-107.336
X-180.923 Y-107.462
X-179.755 Y-107.546
X-178.583 Y-107.589
X-177.411 Y-107.59
X-176.238 Y-107.55
X-175.067 Y-107.468
X-173.899 Y-107.344
X-172.736 Y-107.179
X-171.578 Y-106.972
X-170.428 Y-106.725
X-169.288 Y-106.436
X-168.157 Y-106.107
X-167.038 Y-105.738
X-165.933 Y-105.329
X-164.842 Y-104.881
X-163.768 Y-104.395
X-162.71 Y-103.87
X-161.672 Y-103.307
X-160.654 Y-102.708
X-159.657 Y-102.073
X-158.683 Y-101.402
X-157.733 Y-100.697
X-156.808 Y-99.959
X-155.91 Y-99.188
X-155.04 Y-98.385
X-154.198 Y-97.551
X-153.386 Y-96.688
X-152.606 Y-95.796
X-151.857 Y-94.877
X-151.141 Y-93.932
X-150.459 Y-92.961
X-149.812 Y-91.967
X-149.2 Y-90.95
X-148.625 Y-89.912
X-148.087 Y-88.854
X-147.587 Y-87.778
X-147.125 Y-86.684
X-146.703 Y-85.575
X-146.32 Y-84.451
X-145.977 Y-83.315
X-145.675 Y-82.166
X-145.414 Y-81.008
X-145.194 Y-79.842
X-145.016 Y-78.668
X-144.879 Y-77.489
X-144.785 Y-76.305
X-144.732 Y-75.119
X-144.722 Y-73.932
X-144.754 Y-72.745
X-144.828 Y-71.561
X-144.944 Y-70.379
X-145.102 Y-69.203
X-145.302 Y-68.033
X-145.543 Y-66.87
X-145.825 Y-65.717
X-146.148 Y-64.575
X-146.512 Y-63.445
X-146.915 Y-62.328
X-147.358 Y-61.227
X-147.839 Y-60.142
X-148.359 Y-59.074
X-148.917 Y-58.026
X-149.512 Y-56.997
X-150.142 Y-55.991
X-150.809 Y-55.007
X-151.51 Y-54.048
X-152.244 Y-53.114
X-153.012 Y-52.206
X-153.811 Y-51.326
X-154.641 Y-50.475
X-155.502 Y-49.653
X-156.391 Y-48.863
X-157.308 Y-48.104
X-158.251 Y-47.378
X-159.22 Y-46.686
X-160.214 Y-46.029
X-161.23 Y-45.407
X-162.268 Y-44.822
X-163.327 Y-44.273
X-164.404 Y-43.762
X-165.5 Y-43.29
X-166.612 Y-42.857
X-167.739 Y-42.463
X-168.88 Y-42.11
X-170.033 Y-41.797
X-171.197 Y-41.525
X-172.371 Y-41.295
X-173.552 Y-41.106
X-174.74 Y-40.96
X-175.932 Y-40.855
X-177.128 Y-40.793
X-178.326 Y-40.774
X-179.524 Y-40.797
X-180.721 Y-40.863
X-181.916 Y-40.971
X-183.106 Y-41.122
X-184.291 Y-41.315
X-185.469 Y-41.55
X-186.637 Y-41.827
X-187.796 Y-42.145
X-188.943 Y-42.504
X-190.077 Y-42.904
X-191.197 Y-43.344
X-192.3 Y-43.824
X-193.386 Y-44.343
X-194.454 Y-44.9
X-195.501 Y-45.495
X-196.527 Y-46.127
X-197.53 Y-46.796
X-198.508 Y-47.499
X-199.462 Y-48.238
X-200.389 Y-49.009
X-201.288 Y-49.814
X-202.158 Y-50.65
X-202.999 Y-51.517
X-203.808 Y-52.413
X-204.585 Y-53.338
X-205.329 Y-54.29
X-206.038 Y-55.268
X-206.713 Y-56.27
X-207.352 Y-57.297
X-207.954 Y-58.345
X-208.518 Y-59.415
X-209.044 Y-60.504
X-209.532 Y-61.611
X-209.979 Y-62.735
X-210.387 Y-63.875
X-210.754 Y-65.028
X-211.08 Y-66.194
X-211.364 Y-67.371
X-211.606 Y-68.557
X-211.806 Y-69.752
X-211.963 Y-70.952
X-212.078 Y-72.158
X-212.15 Y-73.368
X-212.179 Y-74.579
X-212.164 Y-75.791
X-212.107 Y-77.001
X-212.007 Y-78.209
X-211.864 Y-79.413
X-211.678 Y-80.61
X-211.45 Y-81.801
X-211.179 Y-82.983
X-210.867 Y-84.155
X-210.514 Y-85.314
X-210.119 Y-86.461
X-209.684 Y-87.593
X-209.208 Y-88.709
X-208.694 Y-89.807
X-208.141 Y-90.887
X-207.549 Y-91.946
X-206.921 Y-92.984
X-206.256 Y-93.998
X-205.555 Y-94.989
X-204.819 Y-95.954
X-204.05 Y-96.892
X-203.248 Y-97.803
X-202.413 Y-98.685
X-201.548 Y-99.536
X-200.653 Y-100.356
X-199.73 Y-101.145
X-198.778 Y-101.899
X-197.801 Y-102.62
X-196.798 Y-103.306
X-195.772 Y-103.956
X-194.722 Y-104.568
X-193.652 Y-105.144
X-192.561 Y-105.681
X-191.452 Y-106.179
X-190.326 Y-106.638
X-189.184 Y-107.056
X-188.027 Y-107.434
X-186.857 Y-107.77
X-185.676 Y-108.065
X-184.484 Y-108.318
X-183.284 Y-108.528
X-182.077 Y-108.696
X-180.864 Y-108.82
X-179.647 Y-108.902
X-178.427 Y-108.94
X-177.206 Y-108.935
X-175.986 Y-108.887
X-174.767 Y-108.795
X-173.552 Y-108.66
X-172.342 Y-108.481
X-171.139 Y-108.26
X-169.943 Y-107.996
X-168.757 Y-107.69
X-167.582 Y-107.341
X-166.42 Y-106.951
X-165.272 Y-106.519
X-164.139 Y-106.047
X-163.024 Y-105.535
X-161.926 Y-104.983
X-160.849 Y-104.392
X-159.792 Y-103.763
X-158.759 Y-103.097
X-157.749 Y-102.394
X-156.764 Y-101.655
X-155.806 Y-100.882
X-154.876 Y-100.074
X-153.975 Y-99.234
X-153.103 Y-98.362
X-152.264 Y-97.46
X-151.456 Y-96.528
X-150.682 Y-95.567
X-149.942 Y-94.58
X-149.238 Y-93.567
X-148.57 Y-92.529
X-147.939 Y-91.468
X-147.347 Y-90.385
X-146.793 Y-89.281
X-146.278 Y-88.159
X-145.804 Y-87.019
X-145.37 Y-85.862
X-144.978 Y-84.691
X-144.628 Y-83.507
X-144.32 Y-82.311
X-144.054 Y-81.104
X-143.832 Y-79.889
X-143.653 Y-78.667
X-143.517 Y-77.44
X-143.425 Y-76.208
X-143.377 Y-74.974
X-143.373 Y-73.739
X-143.413 Y-72.504
X-143.496 Y-71.272
X-143.623 Y-70.043
X-143.794 Y-68.82
X-144.008 Y-67.604
X-144.265 Y-66.396
X-144.565 Y-65.198
X-144.908 Y-64.011
X-145.292 Y-62.837
X-145.718 Y-61.678
X-146.184 Y-60.534
X-146.691 Y-59.407
X-147.238 Y-58.299
X-147.824 Y-57.211
X-148.448 Y-56.145
X-149.11 Y-55.101
X-149.809 Y-54.081
X-150.543 Y-53.086
X-151.313 Y-52.118
X-152.116 Y-51.178
X-152.953 Y-50.267
X-153.821 Y-49.386
X-154.721 Y-48.536
X-155.65 Y-47.718
X-156.608 Y-46.934
X-157.594 Y-46.184
X-158.606 Y-45.469
X-159.643 Y-44.79
X-160.704 Y-44.149
X-161.787 Y-43.545
X-162.891 Y-42.98
X-164.015 Y-42.455
X-165.158 Y-41.969
X-166.317 Y-41.525
X-167.492 Y-41.121
X-168.68 Y-40.76
X-169.882 Y-40.441
X-171.094 Y-40.164
X-172.316 Y-39.931
X-173.546 Y-39.741
X-174.782 Y-39.595
X-176.023 Y-39.493
X-177.267 Y-39.435
X-178.513 Y-39.422
X-179.76 Y-39.452
X-181.005 Y-39.527
X-182.246 Y-39.646
X-183.484 Y-39.809
X-184.715 Y-40.016
X-185.938 Y-40.267
X-187.153 Y-40.561
X-188.356 Y-40.899
X-189.547 Y-41.278
X-190.724 Y-41.701
X-191.886 Y-42.164
X-193.031 Y-42.669
X-194.158 Y-43.215
X-195.265 Y-43.8
X-196.351 Y-44.425
X-197.414 Y-45.088
X-198.453 Y-45.788
X-199.467 Y-46.525
X-200.455 Y-47.298
X-201.415 Y-48.106
X-202.345 Y-48.947
X-203.246 Y-49.821
X-204.115 Y-50.727
X-204.951 Y-51.664
X-205.754 Y-52.629
X-206.523 Y-53.623
X-207.255 Y-54.644
X-207.951 Y-55.69
X-208.61 Y-56.761
X-209.23 Y-57.854
X-209.811 Y-58.969
X-210.352 Y-60.105
X-210.853 Y-61.259
X-211.313 Y-62.43
X-211.73 Y-63.617
X-212.105 Y-64.818
X-212.438 Y-66.032
X-212.727 Y-67.257
X-212.972 Y-68.492
X-213.174 Y-69.735
X-213.331 Y-70.985
X-213.444 Y-72.239
X-213.512 Y-73.497
X-213.535 Y-74.756
X-213.514 Y-76.016
X-213.448 Y-77.274
X-213.337 Y-78.53
X-213.182 Y-79.78
X-212.982 Y-81.025
X-212.738 Y-82.261
X-212.451 Y-83.489
X-212.12 Y-84.705
X-211.746 Y-85.909
X-211.329 Y-87.099
X-210.871 Y-88.274
X-210.371 Y-89.431
X-209.83 Y-90.571
X-209.249 Y-91.69
X-208.628 Y-92.788
X-207.969 Y-93.864
X-207.272 Y-94.915
X-206.538 Y-95.941
X-205.768 Y-96.94
X-204.963 Y-97.912
X-204.124 Y-98.854
X-203.251 Y-99.767
X-202.347 Y-100.647
X-201.412 Y-101.495
X-200.448 Y-102.31
X-199.455 Y-103.089
X-198.434 Y-103.833
X-197.388 Y-104.541
X-196.317 Y-105.211
X-195.223 Y-105.843
X-194.107 Y-106.435
X-192.97 Y-106.988
X-191.814 Y-107.5
X-190.641 Y-107.97
X-189.451 Y-108.399
X-188.246 Y-108.786
X-187.028 Y-109.129
X-185.798 Y-109.429
X-184.558 Y-109.685
X-183.309 Y-109.898
X-182.053 Y-110.065
X-180.791 Y-110.188
X-179.525 Y-110.266
X-178.257 Y-110.3
X-176.988 Y-110.288
X-175.719 Y-110.231
X-174.453 Y-110.129
X-173.191 Y-109.982
X-171.934 Y-109.79
X-170.684 Y-109.553
X-169.443 Y-109.272
X-168.212 Y-108.947
X-166.992 Y-108.579
X-165.786 Y-108.167
X-164.595 Y-107.712
X-163.421 Y-107.215
X-162.264 Y-106.677
X-161.126 Y-106.097
X-160.01 Y-105.477
X-158.915 Y-104.818
X-157.845 Y-104.12
X-156.799 Y-103.384
X-155.78 Y-102.611
X-154.788 Y-101.802
X-153.826 Y-100.958
X-152.894 Y-100.08
X-151.993 Y-99.169
X-151.126 Y-98.227
X-150.292 Y-97.254
X-149.492 Y-96.252
X-148.729 Y-95.222
X-148.003 Y-94.165
X-147.315 Y-93.083
X-146.665 Y-91.977
X-146.055 Y-90.849
X-145.485 Y-89.699
X-144.957 Y-88.53
X-144.47 Y-87.343
X-144.026 Y-86.139
X-143.625 Y-84.92
X-143.267 Y-83.688
X-142.953 Y-82.443
X-142.684 Y-81.188
X-142.46 Y-79.925
X-142.28 Y-78.654
X-142.146 Y-77.377
X-142.057 Y-76.097
X-142.014 Y-74.814
X-142.016 Y-73.531
X-142.064 Y-72.248
X-142.158 Y-70.968
X-142.296 Y-69.693
X-142.48 Y-68.422
X-142.71 Y-67.16
X-142.983 Y-65.906
X-143.301 Y-64.662
X-143.664 Y-63.431
X-144.069 Y-62.213
X-144.518 Y-61.011
X-145.009 Y-59.824
X-145.542 Y-58.657
X-146.116 Y-57.508
X-146.731 Y-56.381
X-147.385 Y-55.276
X-148.079 Y-54.195
X-148.81 Y-53.139
X-149.579 Y-52.109
X-150.384 Y-51.107
X-151.224 Y-50.135
X-152.098 Y-49.192
X-153.005 Y-48.281
X-153.945 Y-47.403
X-154.915 Y-46.558
X-155.915 Y-45.748
X-156.943 Y-44.974
X-157.998 Y-44.237
X-159.08 Y-43.538
X-160.185 Y-42.877
X-161.314 Y-42.256
X-162.465 Y-41.675
X-163.635 Y-41.135
X-164.825 Y-40.636
X-166.032 Y-40.181
X-167.255 Y-39.768
X-168.492 Y-39.399
X-169.742 Y-39.074
X-171.003 Y-38.793
X-172.273 Y-38.557
X-173.552 Y-38.367
X-174.837 Y-38.222
X-176.127 Y-38.123
X-177.42 Y-38.069
X-178.714 Y-38.062
X-180.009 Y-38.1
X-181.302 Y-38.185
X-182.591 Y-38.315
X-183.876 Y-38.491
X-185.153 Y-38.713
X-186.423 Y-38.98
X-187.682 Y-39.292
X-188.931 Y-39.649
X-190.166 Y-40.05
X-191.386 Y-40.495
X-192.591 Y-40.983
X-193.777 Y-41.514
X-194.945 Y-42.087
X-196.091 Y-42.701
X-197.216 Y-43.355
X-198.316 Y-44.049
X-199.392 Y-44.782
X-200.441 Y-45.553
X-201.463 Y-46.361
X-202.455 Y-47.205
X-203.417 Y-48.084
X-204.348 Y-48.997
X-205.245 Y-49.943
X-206.109 Y-50.92
X-206.938 Y-51.927
X-207.73 Y-52.963
X-208.485 Y-54.027
X-209.203 Y-55.118
X-209.881 Y-56.233
X-210.519 Y-57.372
X-211.117 Y-58.533
X-211.672 Y-59.715
X-212.186 Y-60.916
X-212.657 Y-62.135
X-213.084 Y-63.37
X-213.467 Y-64.62
X-213.806 Y-65.882
X-214.1 Y-67.156
X-214.348 Y-68.44
X-214.55 Y-69.731
X-214.707 Y-71.03
X-214.817 Y-72.333
X-214.881 Y-73.64
X-214.898 Y-74.948
X-214.869 Y-76.256
X-214.794 Y-77.562
X-214.672 Y-78.865
X-214.504 Y-80.163
X-214.29 Y-81.454
X-214.03 Y-82.737
X-213.725 Y-84.01
X-213.375 Y-85.271
X-212.98 Y-86.519
X-212.541 Y-87.753
X-212.058 Y-88.97
X-211.533 Y-90.169
X-210.965 Y-91.349
X-210.355 Y-92.509
X-209.705 Y-93.646
X-209.015 Y-94.759
X-208.285 Y-95.847
X-207.518 Y-96.908
X-206.713 Y-97.942
X-205.871 Y-98.946
X-204.995 Y-99.921
X-204.084 Y-100.863
X-203.141 Y-101.773
X-202.165 Y-102.648
X-201.159 Y-103.489
X-200.124 Y-104.293
X-199.06 Y-105.06
X-197.97 Y-105.789
X-196.854 Y-106.479
X-195.715 Y-107.129
X-194.552 Y-107.738
X-193.369 Y-108.306
X-192.166 Y-108.831
X-190.945 Y-109.314
X-189.707 Y-109.752
X-188.454 Y-110.147
X-187.187 Y-110.497
X-185.908 Y-110.802
X-184.619 Y-111.062
X-183.321 Y-111.275
X-182.016 Y-111.442
X-180.705 Y-111.563
X-179.391 Y-111.638
X-178.074 Y-111.665
X-176.756 Y-111.646
X-175.439 Y-111.58
X-174.125 Y-111.467
X-172.815 Y-111.308
X-171.511 Y-111.102
X-170.215 Y-110.849
X-168.928 Y-110.551
X-167.652 Y-110.207
X-166.388 Y-109.818
X-165.138 Y-109.384
X-163.904 Y-108.905
X-162.688 Y-108.383
X-161.49 Y-107.818
X-160.312 Y-107.21
X-159.156 Y-106.56
X-158.024 Y-105.87
X-156.917 Y-105.14
X-155.835 Y-104.37
X-154.782 Y-103.562
X-153.757 Y-102.717
X-152.763 Y-101.836
X-151.8 Y-100.92
X-150.87 Y-99.97
X-149.975 Y-98.987
X-149.115 Y-97.973
X-148.291 Y-96.929
X-147.504 Y-95.856
X-146.756 Y-94.755
X-146.047 Y-93.629
X-145.379 Y-92.477
X-144.752 Y-91.303
X-144.167 Y-90.107
X-143.625 Y-88.891
X-143.127 Y-87.656
X-142.672 Y-86.404
X-142.262 Y-85.137
X-141.898 Y-83.856
X-141.579 Y-82.563
X-141.307 Y-81.259
X-141.08 Y-79.947
X-140.901 Y-78.627
X-140.769 Y-77.301
X-140.683 Y-75.972
X-140.645 Y-74.641
X-140.655 Y-73.309
X-140.711 Y-71.978
X-140.815 Y-70.65
X-140.966 Y-69.327
X-141.164 Y-68.01
X-141.409 Y-66.7
X-141.7 Y-65.401
X-142.037 Y-64.112
X-142.419 Y-62.836
X-142.847 Y-61.574
X-143.319 Y-60.329
X-143.835 Y-59.1
X-144.394 Y-57.891
X-144.997 Y-56.702
X-145.641 Y-55.536
X-146.326 Y-54.392
X-147.051 Y-53.274
X-147.816 Y-52.182
X-148.619 Y-51.118
X-149.46 Y-50.082
X-150.337 Y-49.078
X-151.249 Y-48.104
X-152.196 Y-47.164
X-153.176 Y-46.257
X-154.187 Y-45.386
X-155.229 Y-44.551
X-156.3 Y-43.753
X-157.4 Y-42.994
X-158.525 Y-42.274
X-159.676 Y-41.594
X-160.851 Y-40.955
X-162.048 Y-40.359
X-163.266 Y-39.805
X-164.503 Y-39.294
X-165.758 Y-38.828
X-167.029 Y-38.406
X-168.315 Y-38.03
X-169.613 Y-37.699
X-170.923 Y-37.415
X-172.243 Y-37.177
X-173.571 Y-36.986
X-174.905 Y-36.843
X-176.244 Y-36.747
X-177.585 Y-36.698
X-178.927
X-180.269 Y-36.744
X-181.607 Y-36.839
X-182.942 Y-36.981
X-184.271 Y-37.17
X-185.592 Y-37.406
X-186.904 Y-37.689
X-188.205 Y-38.018
X-189.494 Y-38.392
X-190.769 Y-38.813
X-192.028 Y-39.278
X-193.269 Y-39.787
X-194.492 Y-40.34
X-195.695 Y-40.936
X-196.876 Y-41.574
X-198.033 Y-42.253
X-199.166 Y-42.973
X-200.273 Y-43.732
X-201.352 Y-44.53
X-202.403 Y-45.365
X-203.423 Y-46.237
X-204.412 Y-47.145
X-205.368 Y-48.087
X-206.29 Y-49.062
X-207.178 Y-50.068
X-208.029 Y-51.106
X-208.844 Y-52.173
X-209.62 Y-53.268
X-210.357 Y-54.389
X-211.055 Y-55.536
X-211.711 Y-56.707
X-212.326 Y-57.9
X-212.899 Y-59.114
X-213.428 Y-60.347
X-213.914 Y-61.598
X-214.355 Y-62.866
X-214.752 Y-64.148
X-215.103 Y-65.443
X-215.408 Y-66.75
X-215.668 Y-68.067
X-215.88 Y-69.392
X-216.046 Y-70.724
X-216.166 Y-72.061
X-216.238 Y-73.401
X-216.263 Y-74.743
X-216.241 Y-76.085
X-216.171 Y-77.425
X-216.055 Y-78.762
X-215.892 Y-80.095
X-215.682 Y-81.42
X-215.426 Y-82.738
X-215.123 Y-84.045
X-214.775 Y-85.342
X-214.382 Y-86.625
X-213.943 Y-87.893
X-213.461 Y-89.146
X-212.935 Y-90.38
X-212.365 Y-91.596
X-211.754 Y-92.791
X-211.101 Y-93.963
X-210.407 Y-95.112
X-209.673 Y-96.236
X-208.9 Y-97.333
X-208.09 Y-98.403
X-207.242 Y-99.443
X-206.358 Y-100.454
X-205.44 Y-101.432
X-204.487 Y-102.378
X-203.502 Y-103.29
X-202.486 Y-104.166
X-201.44 Y-105.007
X-200.364 Y-105.81
X-199.262 Y-106.575
X-198.133 Y-107.301
X-196.979 Y-107.987
X-195.802 Y-108.632
X-194.603 Y-109.235
X-193.384 Y-109.797
X-192.146 Y-110.315
X-190.89 Y-110.789
X-189.619 Y-111.219
X-188.334 Y-111.605
X-187.035 Y-111.945
X-185.726 Y-112.24
X-184.407 Y-112.489
X-183.08 Y-112.691
X-181.747 Y-112.847
X-180.409 Y-112.957
X-179.069 Y-113.019
X-177.727 Y-113.035
X-176.385 Y-113.003
X-175.045 Y-112.925
X-173.709 Y-112.8
X-172.378 Y-112.629
X-171.053 Y-112.411
X-169.737 Y-112.147
X-168.431 Y-111.837
X-167.137 Y-111.482
X-165.856 Y-111.083
X-164.589 Y-110.639
X-163.339 Y-110.151
X-162.106 Y-109.62
X-160.892 Y-109.047
X-159.699 Y-108.432
X-158.528 Y-107.776
X-157.381 Y-107.08
X-156.258 Y-106.344
X-155.162 Y-105.57
X-154.093 Y-104.759
X-153.053 Y-103.911
X-152.042 Y-103.027
X-151.063 Y-102.109
X-150.116 Y-101.158
X-149.203 Y-100.174
X-148.324 Y-99.16
X-147.481 Y-98.116
X-146.674 Y-97.043
X-145.905 Y-95.943
X-145.174 Y-94.817
X-144.483 Y-93.667
X-143.832 Y-92.493
X-143.222 Y-91.298
X-142.653 Y-90.082
X-142.126 Y-88.848
X-141.643 Y-87.596
X-141.203 Y-86.328
X-140.807 Y-85.045
X-140.455 Y-83.75
X-140.149 Y-82.443
X-139.888 Y-81.127
X-139.673 Y-79.802
X-139.503 Y-78.471
X-139.38 Y-77.134
X-139.304 Y-75.794
X-139.274 Y-74.452
X-139.29 Y-73.11
X-139.353 Y-71.77
X-139.461 Y-70.432
X-139.616 Y-69.099
X-139.817 Y-67.772
X-140.064 Y-66.452
X-140.356 Y-65.142
X-140.693 Y-63.843
X-141.074 Y-62.556
X-141.5 Y-61.284
X-141.969 Y-60.026
X-142.482 Y-58.786
X-143.037 Y-57.564
X-143.633 Y-56.361
X-144.271 Y-55.181
X-144.949 Y-54.022
X-145.667 Y-52.888
X-146.424 Y-51.78
X-147.218 Y-50.698
X-148.049 Y-49.644
X-148.915 Y-48.619
X-149.817 Y-47.625
X-150.752 Y-46.662
X-151.72 Y-45.732
X-152.72 Y-44.836
X-153.749 Y-43.975
X-154.808 Y-43.15
X-155.894 Y-42.362
X-157.007 Y-41.612
X-158.145 Y-40.9
X-159.307 Y-40.229
X-160.492 Y-39.598
X-161.697 Y-39.008
X-162.923 Y-38.46
X-164.166 Y-37.955
X-165.426 Y-37.493
X-166.701 Y-37.074
X-167.99 Y-36.7
X-169.291 Y-36.369
X-170.602 Y-36.084
X-171.923 Y-35.844
X-173.251 Y-35.649
X-174.585 Y-35.5
X-175.923 Y-35.396
X-177.264 Y-35.339
X-178.606 Y-35.327
X-179.948 Y-35.361
X-181.287 Y-35.441
X-182.624 Y-35.567
X-183.955 Y-35.738
X-185.279 Y-35.955
X-186.596 Y-36.217
X-187.902 Y-36.523
X-189.198 Y-36.875
X-190.48 Y-37.27
X-191.749 Y-37.708
X-193.002 Y-38.19
X-194.237 Y-38.714
X-195.454 Y-39.28
X-196.651 Y-39.887
X-197.826 Y-40.536
X-198.979 Y-41.224
X-200.107 Y-41.951
X-201.209 Y-42.716
X-202.285 Y-43.518
X-203.333 Y-44.357
X-204.352 Y-45.231
X-205.34 Y-46.139
X-206.297 Y-47.08
X-207.222 Y-48.053
X-208.113 Y-49.057
X-208.969 Y-50.09
X-209.79 Y-51.152
X-210.574 Y-52.241
X-211.321 Y-53.357
X-212.029 Y-54.497
X-212.698 Y-55.66
X-213.328 Y-56.845
X-213.916 Y-58.051
X-214.464 Y-59.277
X-214.97 Y-60.52
X-215.433 Y-61.78
X-215.853 Y-63.054
X-216.23 Y-64.343
X-216.563 Y-65.643
X-216.852 Y-66.954
X-217.096 Y-68.273
X-217.295 Y-69.601
X-217.448 Y-70.934
X-217.556 Y-72.272
X-217.618 Y-73.613
X-217.635 Y-74.955
X-217.606 Y-76.296
X-217.531 Y-77.636
X-217.411 Y-78.973
X-217.246 Y-80.305
X-217.036 Y-81.631
X-216.781 Y-82.949
X-216.481 Y-84.257
X-216.137 Y-85.554
X-215.75 Y-86.839
X-215.32 Y-88.11
X-214.846 Y-89.366
X-214.331 Y-90.606
X-213.773 Y-91.827
X-213.175 Y-93.028
X-212.536 Y-94.209
X-211.858 Y-95.367
X-211.141 Y-96.501
X-210.387 Y-97.611
X-209.594 Y-98.695
X-208.766 Y-99.751
X-207.903 Y-100.778
X-207.005 Y-101.776
X-206.074 Y-102.743
X-205.111 Y-103.678
X-204.117 Y-104.579
X-203.092 Y-105.446
X-202.039 Y-106.278
X-200.958 Y-107.073
X-199.85 Y-107.831
X-198.718 Y-108.552
X-197.561 Y-109.233
X-196.383 Y-109.875
X-195.183 Y-110.477
X-193.964 Y-111.038
X-192.726 Y-111.558
X-191.472 Y-112.035
X-190.202 Y-112.47
X-188.919 Y-112.862
X-187.622 Y-113.21
X-186.315 Y-113.514
X-184.998 Y-113.774
X-183.674 Y-113.99
X-182.343 Y-114.161
X-181.006 Y-114.287
X-179.667 Y-114.367
X-178.325 Y-114.403
X-176.983 Y-114.393
X-175.642 Y-114.338
X-174.303 Y-114.238
X-172.969 Y-114.093
X-171.64 Y-113.903
X-170.319 Y-113.669
X-169.006 Y-113.39
X-167.703 Y-113.067
X-166.412 Y-112.7
X-165.134 Y-112.29
X-163.871 Y-111.837
X-162.623 Y-111.342
X-161.393 Y-110.805
X-160.182 Y-110.227
X-158.991 Y-109.609
X-157.821 Y-108.951
X-156.673 Y-108.255
X-155.55 Y-107.52
X-154.452 Y-106.749
X-153.38 Y-105.941
X-152.336 Y-105.098
X-151.32 Y-104.22
X-150.335 Y-103.309
X-149.38 Y-102.366
X-148.457 Y-101.391
X-147.567 Y-100.386
X-146.712 Y-99.352
X-145.891 Y-98.29
X-145.106 Y-97.202
X-144.358 Y-96.087
X-143.647 Y-94.949
X-142.975 Y-93.787
X-142.341 Y-92.604
X-141.748 Y-91.4
X-141.194 Y-90.177
X-140.682 Y-88.937
X-140.212 Y-87.68
X-139.784 Y-86.408
X-139.399 Y-85.122
X-139.057 Y-83.824
X-138.759 Y-82.515
X-138.505 Y-81.197
X-138.296 Y-79.872
X-138.131 Y-78.54
X-138.01 Y-77.203
X-137.934 Y-75.863
X-137.903 Y-74.521
X-137.917 Y-73.179
X-137.975 Y-71.838
X-138.078 Y-70.5
X-138.226 Y-69.166
X-138.418 Y-67.838
X-138.654 Y-66.517
X-138.934 Y-65.204
X-139.257 Y-63.901
X-139.624 Y-62.61
X-140.033 Y-61.332
X-140.485 Y-60.068
X-140.978 Y-58.82
X-141.513 Y-57.589
X-142.088 Y-56.376
X-142.704 Y-55.184
X-143.358 Y-54.012
X-144.052 Y-52.863
X-144.783 Y-51.737
X-145.551 Y-50.637
X-146.356 Y-49.563
X-147.196 Y-48.516
X-148.071 Y-47.498
X-148.979 Y-46.51
X-149.92 Y-45.553
X-150.892 Y-44.627
X-151.894 Y-43.735
X-152.926 Y-42.876
X-153.985 Y-42.052
X-155.071 Y-41.264
X-156.183 Y-40.512
X-157.32 Y-39.798
X-158.479 Y-39.122
X-159.66 Y-38.485
X-160.862 Y-37.887
X-162.083 Y-37.33
X-163.322 Y-36.814
X-164.578 Y-36.339
X-165.848 Y-35.906
X-167.132 Y-35.516
X-168.429 Y-35.168
X-169.736 Y-34.864
X-171.052 Y-34.602
X-172.377 Y-34.385
X-173.707 Y-34.211
X-175.043 Y-34.081
X-176.383 Y-33.996
X-177.724 Y-33.955
X-179.066 Y-33.958
X-180.408 Y-34.006
X-181.747 Y-34.098
X-183.082 Y-34.235
X-184.412 Y-34.416
X-185.735 Y-34.64
X-187.05 Y-34.909
X-188.355 Y-35.221
X-189.65 Y-35.575
X-190.932 Y-35.972
X-192.2 Y-36.411
X-193.453 Y-36.892
X-194.69 Y-37.414
X-195.909 Y-37.976
X-197.108 Y-38.578
X-198.287 Y-39.22
X-199.444 Y-39.9
X-200.578 Y-40.618
X-201.687 Y-41.373
X-202.772 Y-42.165
X-203.829 Y-42.991
X-204.859 Y-43.852
X-205.86 Y-44.746
X-206.831 Y-45.672
X-207.771 Y-46.63
X-208.68 Y-47.618
X-209.555 Y-48.635
X-210.397 Y-49.681
X-211.203 Y-50.754
X-211.975 Y-51.852
X-212.709 Y-52.975
X-213.407 Y-54.122
X-214.066 Y-55.291
X-214.686 Y-56.481
X-215.267 Y-57.691
X-215.807 Y-58.92
X-216.307 Y-60.166
X-216.766 Y-61.427
X-217.183 Y-62.702
X-217.558 Y-63.991
X-217.891 Y-65.291
X-218.181 Y-66.602
X-218.428 Y-67.921
X-218.631 Y-69.248
X-218.791 Y-70.58
X-218.907 Y-71.917
X-218.979 Y-73.258
X-219.006 Y-74.6
X-218.99 Y-75.942
X-218.93 Y-77.282
X-218.825 Y-78.621
X-218.677 Y-79.955
X-218.486 Y-81.283
X-218.251 Y-82.604
X-217.973 Y-83.917
X-217.653 Y-85.221
X-217.29 Y-86.513
X-216.884 Y-87.792
X-216.438 Y-89.058
X-215.95 Y-90.308
X-215.421 Y-91.542
X-214.853 Y-92.758
X-214.244 Y-93.954
X-213.597 Y-95.13
X-212.911 Y-96.284
X-212.188 Y-97.414
X-211.428 Y-98.521
X-210.633 Y-99.602
X-209.802 Y-100.656
X-208.938 Y-101.683
X-208.04 Y-102.68
X-207.11 Y-103.648
X-206.149 Y-104.585
X-205.158 Y-105.49
X-204.138 Y-106.362
X-203.09 Y-107.201
X-202.014 Y-108.004
X-200.913 Y-108.771
X-199.788 Y-109.503
X-198.639 Y-110.197
X-197.468 Y-110.853
X-196.277 Y-111.47
X-195.065 Y-112.049
X-193.836 Y-112.587
X-192.59 Y-113.085
X-191.328 Y-113.543
X-190.052 Y-113.959
X-188.763 Y-114.333
X-187.463 Y-114.665
X-186.152 Y-114.955
X-184.833 Y-115.201
X-183.506 Y-115.405
X-182.173 Y-115.564
X-180.836 Y-115.68
X-179.496 Y-115.752
X-178.154 Y-115.781
X-176.812 Y-115.765
X-175.471 Y-115.706
X-174.133 Y-115.603
X-172.799 Y-115.457
X-171.47 Y-115.268
X-170.148 Y-115.035
X-168.835 Y-114.76
X-167.531 Y-114.441
X-166.238 Y-114.081
X-164.958 Y-113.679
X-163.691 Y-113.235
X-162.439 Y-112.75
X-161.204 Y-112.225
X-159.987 Y-111.66
X-158.788 Y-111.057
X-157.61 Y-110.414
X-156.453 Y-109.734
X-155.318 Y-109.017
X-154.207 Y-108.264
X-153.121 Y-107.475
X-152.062 Y-106.651
X-151.029 Y-105.794
X-150.024 Y-104.904
X-149.049 Y-103.982
X-148.104 Y-103.029
X-147.19 Y-102.046
X-146.309 Y-101.034
X-145.461 Y-99.993
X-144.647 Y-98.926
X-143.868 Y-97.833
X-143.124 Y-96.716
X-142.417 Y-95.575
X-141.747 Y-94.412
X-141.115 Y-93.228
X-140.521 Y-92.024
X-139.967 Y-90.802
X-139.452 Y-89.563
X-138.977 Y-88.307
X-138.543 Y-87.037
X-138.151 Y-85.754
X-137.8 Y-84.458
X-137.492 Y-83.152
X-137.225 Y-81.837
X-137.002 Y-80.513
X-136.821 Y-79.183
X-136.684 Y-77.848
X-136.589 Y-76.509
X-136.538 Y-75.168
X-136.53 Y-73.826
X-136.565 Y-72.484
X-136.643 Y-71.145
X-136.765 Y-69.808
X-136.929 Y-68.476
X-137.136 Y-67.15
X-137.386 Y-65.831
X-137.678 Y-64.521
X-138.013 Y-63.221
X-138.389 Y-61.933
X-138.807 Y-60.658
X-139.266 Y-59.396
X-139.765 Y-58.15
X-140.304 Y-56.921
X-140.882 Y-55.71
X-141.499 Y-54.518
X-142.154 Y-53.347
X-142.846 Y-52.197
X-143.575 Y-51.07
X-144.34 Y-49.967
X-145.14 Y-48.889
X-145.974 Y-47.838
X-146.842 Y-46.814
X-147.743 Y-45.819
X-148.675 Y-44.853
X-149.638 Y-43.918
X-150.63 Y-43.014
X-151.65 Y-42.143
X-152.699 Y-41.304
X-153.773 Y-40.5
X-154.873 Y-39.731
X-155.997 Y-38.998
X-157.144 Y-38.301
X-158.313 Y-37.641
X-159.503 Y-37.02
X-160.712 Y-36.436
X-161.938 Y-35.892
X-163.182 Y-35.388
X-164.442 Y-34.924
X-165.716 Y-34.501
X-167.002 Y-34.12
X-168.301 Y-33.78
X-169.609 Y-33.481
X-170.927 Y-33.225
X-172.252 Y-33.011
X-173.583 Y-32.839
X-174.919 Y-32.71
X-176.258 Y-32.624
X-177.6 Y-32.581
X-178.942 Y-32.58
X-180.283 Y-32.623
X-181.623 Y-32.708
X-182.959 Y-32.837
X-184.29 Y-33.008
X-185.615 Y-33.221
X-186.932 Y-33.477
X-188.241 Y-33.775
X-189.54 Y-34.114
X-190.827 Y-34.494
X-192.101 Y-34.916
X-193.361 Y-35.377
X-194.606 Y-35.879
X-195.835 Y-36.42
X-197.045 Y-37
X-198.236 Y-37.618
X-199.407 Y-38.274
X-200.556 Y-38.967
X-201.683 Y-39.697
X-202.786 Y-40.462
X-203.864 Y-41.262
X-204.915 Y-42.096
X-205.94 Y-42.963
X-206.936 Y-43.862
X-207.903 Y-44.793
X-208.84 Y-45.754
X-209.746 Y-46.744
X-210.62 Y-47.762
X-211.462 Y-48.808
X-212.27 Y-49.879
X-213.044 Y-50.976
X-213.782 Y-52.097
X-214.484 Y-53.241
X-215.15 Y-54.406
X-215.778 Y-55.592
X-216.368 Y-56.798
X-216.919 Y-58.022
X-217.432 Y-59.262
X-217.904 Y-60.518
X-218.337 Y-61.789
X-218.729 Y-63.072
X-219.081 Y-64.368
X-219.391 Y-65.673
X-219.66 Y-66.988
X-219.887 Y-68.311
X-220.071 Y-69.641
X-220.214 Y-70.975
X-220.314 Y-72.314
X-220.371 Y-73.654
X-220.386 Y-74.997
X-220.358 Y-76.338
X-220.287 Y-77.679
X-220.174 Y-79.016
X-220.018 Y-80.349
X-219.82 Y-81.677
X-219.58 Y-82.997
X-219.298 Y-84.309
X-218.975 Y-85.612
X-218.611 Y-86.904
X-218.206 Y-88.184
X-217.761 Y-89.45
X-217.276 Y-90.701
X-216.752 Y-91.937
X-216.189 Y-93.155
X-215.587 Y-94.355
X-214.948 Y-95.535
X-214.272 Y-96.694
X-213.559 Y-97.832
X-212.811 Y-98.946
X-212.028 Y-100.036
X-211.21 Y-101.1
X-210.36 Y-102.139
X-209.477 Y-103.15
X-208.562 Y-104.132
X-207.617 Y-105.085
