%
(1001)
(origin stock top)
(T1  D=6.15 CR=0 - ZMIN=-18 - flat end mill)
G90 G94
G17
G21

(2D Contour3)
M9
T1 M6
S9000 M3
G54
M8
G0 X-262.426 Y-0.012
Z15
Z5
G1 Z2.5 F333.3
X-259.549 Y0.061 Z1.729 F350
X-259.527 Z1.723
X-255.539 Y0.133 Z0.654
X-255.517 Z0.648
X-251.526 Y0.176 Z-0.421
X-251.504 Z-0.427
X-247.511 Y0.19 Z-1.497
X-247.5 Z-1.5
X-247.489 F850
X-243.496 Y0.176
X-243.474
X-239.483 Y0.133
X-239.461
X-235.473 Y0.061
X-235.451
X-231.468 Y-0.039
X-231.446 Y-0.04
X-227.469 Y-0.169
X-227.446
X-223.477 Y-0.326
X-223.455 Y-0.327
X-219.496 Y-0.513
X-219.474 Y-0.514
X-215.526 Y-0.728
X-215.503 Y-0.729
X-211.567 Y-0.971
X-211.545 Y-0.973
X-207.624 Y-1.243
X-207.601 Y-1.245
X-203.695 Y-1.543
X-203.672 Y-1.545
X-199.784 Y-1.871
X-199.761 Y-1.873
X-195.892 Y-2.227
X-195.869 Y-2.229
X-192.02 Y-2.611
X-191.996 Y-2.613
X-188.169 Y-3.022
X-188.145 Y-3.025
X-184.342 Y-3.462
X-184.318 Y-3.465
X-180.54 Y-3.928
X-180.516 Y-3.931
X-176.764 Y-4.422
X-176.74 Y-4.425
X-173.016 Y-4.943
X-172.991 Y-4.946
X-169.297 Y-5.49
X-169.272 Y-5.494
X-165.609 Y-6.065
X-165.583 Y-6.069
X-161.952 Y-6.665
X-161.927 Y-6.669
X-158.33 Y-7.292
X-158.303 Y-7.297
X-154.742 Y-7.945
X-154.716 Y-7.95
X-151.191 Y-8.623
X-151.164 Y-8.628
X-147.678 Y-9.327
X-147.65 Y-9.333
X-144.203 Y-10.056
X-144.176 Y-10.062
X-140.769 Y-10.81
X-140.74 Y-10.817
X-137.377 Y-11.589
X-137.348 Y-11.596
X-134.027 Y-12.392
X-133.997 Y-12.399
X-130.722 Y-13.219
X-130.692 Y-13.227
X-127.463 Y-14.07
X-127.432 Y-14.078
X-124.251 Y-14.944
X-124.22 Y-14.953
X-121.087 Y-15.842
X-121.054 Y-15.851
X-117.972 Y-16.762
X-117.94 Y-16.772
X-114.908 Y-17.705
X-114.874 Y-17.716
X-111.895 Y-18.67
X-111.86 Y-18.682
X-108.935 Y-19.657
X-108.899 Y-19.669
X-106.029 Y-20.666
X-105.993 Y-20.679
X-103.179 Y-21.696
X-103.142 Y-21.709
X-100.384 Y-22.746
X-100.345 Y-22.761
X-97.646 Y-23.817
X-97.607 Y-23.833
X-94.967 Y-24.908
X-94.927 Y-24.925
X-92.347 Y-26.02
X-92.306 Y-26.038
X-89.788 Y-27.15
X-89.745 Y-27.169
X-87.289 Y-28.3
X-87.245 Y-28.321
X-84.852 Y-29.468
X-84.807 Y-29.491
X-82.479 Y-30.655
X-82.431 Y-30.679
X-80.169 Y-31.86
X-80.12 Y-31.886
X-77.923 Y-33.083
X-77.873 Y-33.111
X-75.744 Y-34.323
X-75.692 Y-34.354
X-73.63 Y-35.581
X-73.577 Y-35.613
X-71.584 Y-36.855
X-71.529 Y-36.89
X-69.605 Y-38.147
X-69.549 Y-38.184
X-67.695 Y-39.454
X-67.637 Y-39.495
X-65.855 Y-40.778
X-65.795 Y-40.822
X-64.084 Y-42.117
X-64.022 Y-42.165
X-62.384 Y-43.472
X-62.32 Y-43.524
X-60.755 Y-44.843
X-60.69 Y-44.899
X-59.198 Y-46.228
X-59.132 Y-46.29
X-57.714 Y-47.63
X-57.647 Y-47.696
X-56.304 Y-49.045
X-56.235 Y-49.117
X-54.968 Y-50.476
X-54.898 Y-50.554
X-53.707 Y-51.922
X-53.636 Y-52.005
X-52.521 Y-53.382
X-52.451 Y-53.472
X-51.412 Y-54.856
X-51.342 Y-54.954
X-50.381 Y-56.345
X-50.312 Y-56.45
X-49.428 Y-57.848
X-49.36 Y-57.96
X-48.554 Y-59.364
X-48.489 Y-59.484
X-47.761 Y-60.893
X-47.699 Y-61.022
X-47.05 Y-62.436
X-46.992 Y-62.572
X-46.421 Y-63.99
X-46.368 Y-64.133
X-45.877 Y-65.556
X-45.829 Y-65.706
X-45.417 Y-67.132
X-45.377 Y-67.288
X-45.044 Y-68.716
X-45.011 Y-68.878
X-44.758 Y-70.308
X-44.733 Y-70.474
X-44.559 Y-71.906
X-44.544 Y-72.075
X-44.45 Y-73.508
X-44.443 Y-73.679
X-44.429 Y-75.112
X-44.432 Y-75.283
X-44.498 Y-76.716
X-44.51 Y-76.886
X-44.656 Y-78.318
X-44.677 Y-78.485
X-44.902 Y-79.916
X-44.932 Y-80.08
X-45.237 Y-81.509
X-45.275 Y-81.667
X-45.659 Y-83.094
X-45.704 Y-83.246
X-46.167 Y-84.67
X-46.219 Y-84.816
X-46.761 Y-86.236
X-46.818 Y-86.374
X-47.439 Y-87.79
X-47.5 Y-87.921
X-48.2 Y-89.332
X-48.264 Y-89.455
X-49.042 Y-90.861
X-49.109 Y-90.976
X-49.965 Y-92.376
X-50.034 Y-92.484
X-50.968 Y-93.877
X-51.038 Y-93.977
X-52.049 Y-95.364
X-52.119 Y-95.457
X-53.207 Y-96.836
X-53.278 Y-96.922
X-54.442 Y-98.293
X-54.512 Y-98.373
X-55.753 Y-99.735
X-55.822 Y-99.809
X-57.138 Y-101.162
X-57.206 Y-101.23
X-58.597 Y-102.573
X-58.665 Y-102.637
X-60.13 Y-103.97
X-60.195 Y-104.027
X-61.734 Y-105.35
X-61.799 Y-105.404
X-63.411 Y-106.715
X-63.474 Y-106.764
X-65.159 Y-108.063
X-65.219 Y-108.109
X-66.976 Y-109.396
X-67.034 Y-109.437
X-68.863 Y-110.712
X-68.921 Y-110.752
X-70.819 Y-112.013
X-70.875 Y-112.049
X-72.844 Y-113.296
X-72.898 Y-113.329
X-74.936 Y-114.561
X-74.987 Y-114.592
X-77.093 Y-115.81
X-77.143 Y-115.838
X-79.316 Y-117.041
X-79.365 Y-117.068
X-81.605 Y-118.255
X-81.653 Y-118.28
X-83.958 Y-119.45
X-84.003 Y-119.473
X-86.373 Y-120.627
X-86.419 Y-120.648
X-88.852 Y-121.784
X-88.895 Y-121.804
X-91.391 Y-122.923
X-91.433 Y-122.941
X-93.991 Y-124.042
X-94.032 Y-124.06
X-96.651 Y-125.142
X-96.691 Y-125.158
X-99.369 Y-126.221
X-99.407 Y-126.236
X-102.144 Y-127.28
X-102.182 Y-127.294
X-104.976 Y-128.318
X-105.014 Y-128.332
X-107.865 Y-129.335
X-107.9 Y-129.347
X-110.806 Y-130.33
X-110.841 Y-130.341
X-113.801 Y-131.303
X-113.834 Y-131.314
X-116.846 Y-132.255
X-116.88 Y-132.265
X-119.945 Y-133.184
X-119.977 Y-133.194
X-123.092 Y-134.091
X-123.124 Y-134.1
X-126.288 Y-134.974
X-126.32 Y-134.982
X-129.533 Y-135.834
X-129.563 Y-135.841
X-132.822 Y-136.669
X-132.851 Y-136.677
X-136.155 Y-137.482
X-136.185 Y-137.489
X-139.534 Y-138.27
X-139.562 Y-138.276
X-142.953 Y-139.033
X-142.982 Y-139.039
X-146.414 Y-139.771
X-146.442 Y-139.777
X-149.915 Y-140.484
X-149.941 Y-140.489
X-153.453 Y-141.172
X-153.48 Y-141.178
X-157.028 Y-141.835
X-157.055 Y-141.839
X-160.64 Y-142.47
X-160.665 Y-142.475
X-164.283 Y-143.081
X-164.309 Y-143.085
X-167.961 Y-143.665
X-167.987 Y-143.669
X-171.671 Y-144.222
X-171.695 Y-144.225
X-175.408 Y-144.752
X-175.433 Y-144.756
X-179.175 Y-145.256
X-179.198 Y-145.259
X-182.967 Y-145.733
X-182.992 Y-145.736
X-186.786 Y-146.182
X-186.81 Y-146.185
X-190.629 Y-146.604
X-190.653 Y-146.606
X-194.494 Y-146.997
X-194.516 Y-146.999
X-198.378 Y-147.363
X-198.402 Y-147.366
X-202.284 Y-147.702
X-202.307 Y-147.703
X-206.207 Y-148.011
X-206.23 Y-148.013
X-210.146 Y-148.293
X-210.168 Y-148.295
X-214.098 Y-148.547
X-214.121 Y-148.548
X-215.273 Y-148.613
G2 X-231.924 Y-164.166 I-17.586 J2.139
X-232.859 Y-164.191 I-0.935 J17.691
X-247.5 Y-156.451 J17.716
X-262.141 Y-164.191 I-14.64 J9.976
X-279.727 Y-148.613 J17.716
G1 X-280.879 Y-148.548
X-280.902 Y-148.547
X-284.832 Y-148.295
X-284.854 Y-148.293
X-288.77 Y-148.013
X-288.793 Y-148.011
X-292.693 Y-147.703
X-292.716 Y-147.702
X-296.598 Y-147.366
X-296.622 Y-147.363
X-300.484 Y-146.999
X-300.506 Y-146.997
X-304.347 Y-146.606
X-304.371 Y-146.604
X-308.19 Y-146.185
X-308.214 Y-146.182
X-312.008 Y-145.736
X-312.033 Y-145.733
X-315.802 Y-145.259
X-315.825 Y-145.256
X-319.567 Y-144.756
X-319.592 Y-144.752
X-323.305 Y-144.225
X-323.329 Y-144.222
X-327.013 Y-143.669
X-327.039 Y-143.665
X-330.691 Y-143.085
X-330.717 Y-143.081
X-334.335 Y-142.475
X-334.36 Y-142.47
X-337.945 Y-141.839
X-337.972 Y-141.835
X-341.52 Y-141.178
X-341.547 Y-141.172
X-345.059 Y-140.489
X-345.085 Y-140.484
X-348.558 Y-139.777
X-348.586 Y-139.771
X-352.018 Y-139.039
X-352.047 Y-139.033
X-355.438 Y-138.276
X-355.466 Y-138.27
X-358.815 Y-137.489
X-358.845 Y-137.482
X-362.149 Y-136.677
X-362.178 Y-136.669
X-365.437 Y-135.841
X-365.467 Y-135.834
X-368.68 Y-134.982
X-368.712 Y-134.974
X-371.876 Y-134.1
X-371.908 Y-134.091
X-375.023 Y-133.194
X-375.055 Y-133.184
X-378.12 Y-132.265
X-378.154 Y-132.255
X-381.166 Y-131.314
X-381.199 Y-131.303
X-384.159 Y-130.341
X-384.194 Y-130.33
X-387.1 Y-129.347
X-387.135 Y-129.335
X-389.986 Y-128.332
X-390.024 Y-128.318
X-392.818 Y-127.294
X-392.856 Y-127.28
X-395.593 Y-126.236
X-395.631 Y-126.221
X-398.309 Y-125.158
X-398.35 Y-125.142
X-400.968 Y-124.06
X-401.009 Y-124.042
X-403.567 Y-122.941
X-403.609 Y-122.923
X-406.105 Y-121.804
X-406.147 Y-121.784
X-408.582 Y-120.648
X-408.628 Y-120.626
X-410.997 Y-119.472
X-411.042 Y-119.45
X-413.347 Y-118.28
X-413.395 Y-118.255
X-415.635 Y-117.068
X-415.684 Y-117.041
X-417.857 Y-115.838
X-417.908 Y-115.81
X-420.013 Y-114.592
X-420.064 Y-114.562
X-422.102 Y-113.33
X-422.156 Y-113.296
X-424.125 Y-112.049
X-424.182 Y-112.012
X-426.08 Y-110.751
X-426.136 Y-110.713
X-427.965 Y-109.438
X-428.024 Y-109.396
X-429.781 Y-108.109
X-429.841 Y-108.063
X-431.526 Y-106.764
X-431.588 Y-106.715
X-433.201 Y-105.404
X-433.267 Y-105.35
X-434.806 Y-104.027
X-434.87 Y-103.969
X-436.335 Y-102.636
X-436.403 Y-102.573
X-437.794 Y-101.23
X-437.862 Y-101.162
X-439.178 Y-99.809
X-439.246 Y-99.736
X-440.487 Y-98.373
X-440.558 Y-98.292
X-441.722 Y-96.921
X-441.792 Y-96.836
X-442.88 Y-95.457
X-442.95 Y-95.365
X-443.962 Y-93.978
X-444.033 Y-93.876
X-444.966 Y-92.483
X-445.034 Y-92.376
X-445.89 Y-90.976
X-445.957 Y-90.862
X-446.736 Y-89.456
X-446.802 Y-89.331
X-447.5 Y-87.92
X-447.561 Y-87.79
X-448.182 Y-86.374
X-448.238 Y-86.237
X-448.781 Y-84.817
X-448.833 Y-84.67
X-449.296 Y-83.246
X-449.341 Y-83.094
X-449.725 Y-81.667
X-449.764 Y-81.508
X-450.068 Y-80.079
X-450.098 Y-79.917
X-450.323 Y-78.486
X-450.344 Y-78.318
X-450.489 Y-76.885
X-450.502 Y-76.717
X-450.568 Y-75.284
X-450.571 Y-75.112
X-450.557 Y-73.679
X-450.55 Y-73.508
X-450.456 Y-72.075
X-450.441 Y-71.905
X-450.267 Y-70.473
X-450.242 Y-70.309
X-449.989 Y-68.878
X-449.956 Y-68.717
X-449.624 Y-67.289
X-449.583 Y-67.132
X-449.171 Y-65.706
X-449.123 Y-65.554
X-448.631 Y-64.132
X-448.578 Y-63.991
X-448.008 Y-62.572
X-447.95 Y-62.436
X-447.301 Y-61.022
X-447.239 Y-60.894
X-446.512 Y-59.485
X-446.446 Y-59.364
X-445.64 Y-57.96
X-445.572 Y-57.847
X-444.688 Y-56.449
X-444.619 Y-56.345
X-443.658 Y-54.954
X-443.588 Y-54.857
X-442.55 Y-53.473
X-442.479 Y-53.382
X-441.364 Y-52.006
X-441.293 Y-51.921
X-440.101 Y-50.553
X-440.032 Y-50.476
X-438.765 Y-49.117
X-438.696 Y-49.045
X-437.353 Y-47.695
X-437.286 Y-47.63
X-435.869 Y-46.29
X-435.802 Y-46.228
X-434.31 Y-44.899
X-434.245 Y-44.842
X-432.679 Y-43.524
X-432.616 Y-43.472
X-430.978 Y-42.165
X-430.916 Y-42.117
X-429.205 Y-40.822
X-429.145 Y-40.778
X-427.363 Y-39.495
X-427.304 Y-39.454
X-425.45 Y-38.184
X-425.395 Y-38.147
X-423.472 Y-36.891
X-423.416 Y-36.855
X-421.423 Y-35.613
X-421.37 Y-35.581
X-419.308 Y-34.353
X-419.256 Y-34.323
X-417.126 Y-33.111
X-417.077 Y-33.083
X-414.881 Y-31.886
X-414.832 Y-31.86
X-412.569 Y-30.679
X-412.522 Y-30.655
X-410.194 Y-29.491
X-410.148 Y-29.468
X-407.755 Y-28.32
X-407.711 Y-28.3
X-405.256 Y-27.17
X-405.213 Y-27.15
X-402.695 Y-26.038
X-402.653 Y-26.019
X-400.073 Y-24.925
X-400.032 Y-24.909
X-397.393 Y-23.833
X-397.354 Y-23.817
X-394.655 Y-22.761
X-394.616 Y-22.746
X-391.858 Y-21.709
X-391.821 Y-21.696
X-389.007 Y-20.679
X-388.971 Y-20.666
X-386.101 Y-19.669
X-386.065 Y-19.657
X-383.14 Y-18.682
X-383.105 Y-18.67
X-380.126 Y-17.716
X-380.092 Y-17.705
X-377.06 Y-16.772
X-377.028 Y-16.762
X-373.946 Y-15.851
X-373.913 Y-15.842
X-370.78 Y-14.953
X-370.749 Y-14.944
X-367.568 Y-14.078
X-367.537 Y-14.07
X-364.308 Y-13.227
X-364.278 Y-13.219
X-361.003 Y-12.399
X-360.973 Y-12.392
X-357.652 Y-11.596
X-357.623 Y-11.589
X-354.26 Y-10.817
X-354.231 Y-10.81
X-350.824 Y-10.062
X-350.797 Y-10.056
X-347.35 Y-9.333
X-347.322 Y-9.327
X-343.836 Y-8.628
X-343.809 Y-8.623
X-340.284 Y-7.95
X-340.258 Y-7.945
X-336.697 Y-7.297
X-336.67 Y-7.292
X-333.073 Y-6.669
X-333.048 Y-6.665
X-329.417 Y-6.069
X-329.391 Y-6.065
X-325.728 Y-5.494
X-325.703 Y-5.49
X-322.009 Y-4.946
X-321.984 Y-4.943
X-318.26 Y-4.425
X-318.236 Y-4.422
X-314.484 Y-3.931
X-314.46 Y-3.928
X-310.682 Y-3.465
X-310.658 Y-3.462
X-306.855 Y-3.025
X-306.831 Y-3.022
X-303.004 Y-2.613
X-302.98 Y-2.611
X-299.131 Y-2.229
X-299.108 Y-2.227
X-295.239 Y-1.873
X-295.216 Y-1.871
X-291.328 Y-1.545
X-291.305 Y-1.543
X-287.399 Y-1.245
X-287.376 Y-1.243
X-283.455 Y-0.973
X-283.433 Y-0.971
X-279.497 Y-0.729
X-279.474 Y-0.728
X-275.526 Y-0.514
X-275.504 Y-0.513
X-271.545 Y-0.327
X-271.523 Y-0.326
X-267.554 Y-0.169
X-267.531
X-263.554 Y-0.04
X-263.532 Y-0.039
X-259.549 Y0.061
X-259.527
X-255.539 Y0.133
X-255.517
X-251.526 Y0.176
X-251.504
X-247.511 Y0.19
X-247.5
X-247.489 F350
X-243.496 Y0.176 Z-1.585
X-243.474
X-239.483 Y0.133 Z-1.67
X-239.461 Z-1.671
X-235.473 Y0.061 Z-1.755
X-235.451 Z-1.756
X-231.468 Y-0.039 Z-1.84
X-231.446 Y-0.04 Z-1.841
X-227.469 Y-0.169 Z-1.925
X-227.446 Z-1.926
X-223.477 Y-0.326 Z-2.01
X-223.455 Y-0.327
X-219.496 Y-0.513 Z-2.094
X-219.474 Y-0.514 Z-2.095
X-215.526 Y-0.728 Z-2.179
X-215.503 Y-0.729
X-211.567 Y-0.971 Z-2.263
X-211.545 Y-0.973
X-207.624 Y-1.243 Z-2.347
X-207.601 Y-1.245
X-203.695 Y-1.543 Z-2.43
X-203.672 Y-1.545 Z-2.431
X-199.784 Y-1.871 Z-2.514
X-199.761 Y-1.873
X-195.892 Y-2.227 Z-2.596
X-195.869 Y-2.229 Z-2.597
X-192.02 Y-2.611 Z-2.679
X-191.996 Y-2.613 Z-2.68
X-188.169 Y-3.022 Z-2.761
X-188.145 Y-3.025 Z-2.762
X-184.342 Y-3.462 Z-2.843
X-184.318 Y-3.465
X-180.54 Y-3.928 Z-2.924
X-180.516 Y-3.931 Z-2.925
X-176.997 Y-4.392 Z-3
X-176.764 Y-4.422 F850
X-176.74 Y-4.425
X-173.016 Y-4.943
X-172.991 Y-4.946
X-169.297 Y-5.49
X-169.272 Y-5.494
X-165.609 Y-6.065
X-165.583 Y-6.069
X-161.952 Y-6.665
X-161.927 Y-6.669
X-158.33 Y-7.292
X-158.303 Y-7.297
X-154.742 Y-7.945
X-154.716 Y-7.95
X-151.191 Y-8.623
X-151.164 Y-8.628
X-147.678 Y-9.327
X-147.65 Y-9.333
X-144.203 Y-10.056
X-144.176 Y-10.062
X-140.769 Y-10.81
X-140.74 Y-10.817
X-137.377 Y-11.589
X-137.348 Y-11.596
X-134.027 Y-12.392
X-133.997 Y-12.399
X-130.722 Y-13.219
X-130.692 Y-13.227
X-127.463 Y-14.07
X-127.432 Y-14.078
X-124.251 Y-14.944
X-124.22 Y-14.953
X-121.087 Y-15.842
X-121.054 Y-15.851
X-117.972 Y-16.762
X-117.94 Y-16.772
X-114.908 Y-17.705
X-114.874 Y-17.716
X-111.895 Y-18.67
X-111.86 Y-18.682
X-108.935 Y-19.657
X-108.899 Y-19.669
X-106.029 Y-20.666
X-105.993 Y-20.679
X-103.179 Y-21.696
X-103.142 Y-21.709
X-100.384 Y-22.746
X-100.345 Y-22.761
X-97.646 Y-23.817
X-97.607 Y-23.833
X-94.967 Y-24.908
X-94.927 Y-24.925
X-92.347 Y-26.02
X-92.306 Y-26.038
X-89.788 Y-27.15
X-89.745 Y-27.169
X-87.289 Y-28.3
X-87.245 Y-28.321
X-84.852 Y-29.468
X-84.807 Y-29.491
X-82.479 Y-30.655
X-82.431 Y-30.679
X-80.169 Y-31.86
X-80.12 Y-31.886
X-77.923 Y-33.083
X-77.873 Y-33.111
X-75.744 Y-34.323
X-75.692 Y-34.354
X-73.63 Y-35.581
X-73.577 Y-35.613
X-71.584 Y-36.855
X-71.529 Y-36.89
X-69.605 Y-38.147
X-69.549 Y-38.184
X-67.695 Y-39.454
X-67.637 Y-39.495
X-65.855 Y-40.778
X-65.795 Y-40.822
X-64.084 Y-42.117
X-64.022 Y-42.165
X-62.384 Y-43.472
X-62.32 Y-43.524
X-60.755 Y-44.843
X-60.69 Y-44.899
X-59.198 Y-46.228
X-59.132 Y-46.29
X-57.714 Y-47.63
X-57.647 Y-47.696
X-56.304 Y-49.045
X-56.235 Y-49.117
X-54.968 Y-50.476
X-54.898 Y-50.554
X-53.707 Y-51.922
X-53.636 Y-52.005
X-52.521 Y-53.382
X-52.451 Y-53.472
X-51.412 Y-54.856
X-51.342 Y-54.954
X-50.381 Y-56.345
X-50.312 Y-56.45
X-49.428 Y-57.848
X-49.36 Y-57.96
X-48.554 Y-59.364
X-48.489 Y-59.484
X-47.761 Y-60.893
X-47.699 Y-61.022
X-47.05 Y-62.436
X-46.992 Y-62.572
X-46.421 Y-63.99
X-46.368 Y-64.133
X-45.877 Y-65.556
X-45.829 Y-65.706
X-45.417 Y-67.132
X-45.377 Y-67.288
X-45.044 Y-68.716
X-45.011 Y-68.878
X-44.758 Y-70.308
X-44.733 Y-70.474
X-44.559 Y-71.906
X-44.544 Y-72.075
X-44.45 Y-73.508
X-44.443 Y-73.679
X-44.429 Y-75.112
X-44.432 Y-75.283
X-44.498 Y-76.716
X-44.51 Y-76.886
X-44.656 Y-78.318
X-44.677 Y-78.485
X-44.902 Y-79.916
X-44.932 Y-80.08
X-45.237 Y-81.509
X-45.275 Y-81.667
X-45.659 Y-83.094
X-45.704 Y-83.246
X-46.167 Y-84.67
X-46.219 Y-84.816
X-46.761 Y-86.236
X-46.818 Y-86.374
X-47.439 Y-87.79
X-47.5 Y-87.921
X-48.2 Y-89.332
X-48.264 Y-89.455
X-49.042 Y-90.861
X-49.109 Y-90.976
X-49.965 Y-92.376
X-50.034 Y-92.484
X-50.968 Y-93.877
X-51.038 Y-93.977
X-52.049 Y-95.364
X-52.119 Y-95.457
X-53.207 Y-96.836
X-53.278 Y-96.922
X-54.442 Y-98.293
X-54.512 Y-98.373
X-55.753 Y-99.735
X-55.822 Y-99.809
X-57.138 Y-101.162
X-57.206 Y-101.23
X-58.597 Y-102.573
X-58.665 Y-102.637
X-60.13 Y-103.97
X-60.195 Y-104.027
X-61.734 Y-105.35
X-61.799 Y-105.404
X-63.411 Y-106.715
X-63.474 Y-106.764
X-65.159 Y-108.063
X-65.219 Y-108.109
X-66.976 Y-109.396
X-67.034 Y-109.437
X-68.863 Y-110.712
X-68.921 Y-110.752
X-70.819 Y-112.013
X-70.875 Y-112.049
X-72.844 Y-113.296
X-72.898 Y-113.329
X-74.936 Y-114.561
X-74.987 Y-114.592
X-77.093 Y-115.81
X-77.143 Y-115.838
X-79.316 Y-117.041
X-79.365 Y-117.068
X-81.605 Y-118.255
X-81.653 Y-118.28
X-83.958 Y-119.45
X-84.003 Y-119.473
X-86.373 Y-120.627
X-86.419 Y-120.648
X-88.852 Y-121.784
X-88.895 Y-121.804
X-91.391 Y-122.923
X-91.433 Y-122.941
X-93.991 Y-124.042
X-94.032 Y-124.06
X-96.651 Y-125.142
X-96.691 Y-125.158
X-99.369 Y-126.221
X-99.407 Y-126.236
X-102.144 Y-127.28
X-102.182 Y-127.294
X-104.976 Y-128.318
X-105.014 Y-128.332
X-107.865 Y-129.335
X-107.9 Y-129.347
X-110.806 Y-130.33
X-110.841 Y-130.341
X-113.801 Y-131.303
X-113.834 Y-131.314
X-116.846 Y-132.255
X-116.88 Y-132.265
X-119.945 Y-133.184
X-119.977 Y-133.194
X-123.092 Y-134.091
X-123.124 Y-134.1
X-126.288 Y-134.974
X-126.32 Y-134.982
X-129.533 Y-135.834
X-129.563 Y-135.841
X-132.822 Y-136.669
X-132.851 Y-136.677
X-136.155 Y-137.482
X-136.185 Y-137.489
X-139.534 Y-138.27
X-139.562 Y-138.276
X-142.953 Y-139.033
X-142.982 Y-139.039
X-146.414 Y-139.771
X-146.442 Y-139.777
X-149.915 Y-140.484
X-149.941 Y-140.489
X-153.453 Y-141.172
X-153.48 Y-141.178
X-157.028 Y-141.835
X-157.055 Y-141.839
X-160.64 Y-142.47
X-160.665 Y-142.475
X-164.283 Y-143.081
X-164.309 Y-143.085
X-167.961 Y-143.665
X-167.987 Y-143.669
X-171.671 Y-144.222
X-171.695 Y-144.225
X-175.408 Y-144.752
X-175.433 Y-144.756
X-179.175 Y-145.256
X-179.198 Y-145.259
X-182.967 Y-145.733
X-182.992 Y-145.736
X-186.786 Y-146.182
X-186.81 Y-146.185
X-190.629 Y-146.604
X-190.653 Y-146.606
X-194.494 Y-146.997
X-194.516 Y-146.999
X-198.378 Y-147.363
X-198.402 Y-147.366
X-202.284 Y-147.702
X-202.307 Y-147.703
X-206.207 Y-148.011
X-206.23 Y-148.013
X-210.146 Y-148.293
X-210.168 Y-148.295
X-214.098 Y-148.547
X-214.121 Y-148.548
X-215.273 Y-148.613
G2 X-231.924 Y-164.166 I-17.586 J2.139
X-232.859 Y-164.191 I-0.935 J17.691
X-247.5 Y-156.451 J17.716
X-262.141 Y-164.191 I-14.64 J9.976
X-279.727 Y-148.613 J17.716
G1 X-280.879 Y-148.548
X-280.902 Y-148.547
X-284.832 Y-148.295
X-284.854 Y-148.293
X-288.77 Y-148.013
X-288.793 Y-148.011
X-292.693 Y-147.703
X-292.716 Y-147.702
X-296.598 Y-147.366
X-296.622 Y-147.363
X-300.484 Y-146.999
X-300.506 Y-146.997
X-304.347 Y-146.606
X-304.371 Y-146.604
X-308.19 Y-146.185
X-308.214 Y-146.182
X-312.008 Y-145.736
X-312.033 Y-145.733
X-315.802 Y-145.259
X-315.825 Y-145.256
X-319.567 Y-144.756
X-319.592 Y-144.752
X-323.305 Y-144.225
X-323.329 Y-144.222
X-327.013 Y-143.669
X-327.039 Y-143.665
X-330.691 Y-143.085
X-330.717 Y-143.081
X-334.335 Y-142.475
X-334.36 Y-142.47
X-337.945 Y-141.839
X-337.972 Y-141.835
X-341.52 Y-141.178
X-341.547 Y-141.172
X-345.059 Y-140.489
X-345.085 Y-140.484
X-348.558 Y-139.777
X-348.586 Y-139.771
X-352.018 Y-139.039
X-352.047 Y-139.033
X-355.438 Y-138.276
X-355.466 Y-138.27
X-358.815 Y-137.489
X-358.845 Y-137.482
X-362.149 Y-136.677
X-362.178 Y-136.669
X-365.437 Y-135.841
X-365.467 Y-135.834
X-368.68 Y-134.982
X-368.712 Y-134.974
X-371.876 Y-134.1
X-371.908 Y-134.091
X-375.023 Y-133.194
X-375.055 Y-133.184
X-378.12 Y-132.265
X-378.154 Y-132.255
X-381.166 Y-131.314
X-381.199 Y-131.303
X-384.159 Y-130.341
X-384.194 Y-130.33
X-387.1 Y-129.347
X-387.135 Y-129.335
X-389.986 Y-128.332
X-390.024 Y-128.318
X-392.818 Y-127.294
X-392.856 Y-127.28
X-395.593 Y-126.236
X-395.631 Y-126.221
X-398.309 Y-125.158
X-398.35 Y-125.142
X-400.968 Y-124.06
X-401.009 Y-124.042
X-403.567 Y-122.941
X-403.609 Y-122.923
X-406.105 Y-121.804
X-406.147 Y-121.784
X-408.582 Y-120.648
X-408.628 Y-120.626
X-410.997 Y-119.472
X-411.042 Y-119.45
X-413.347 Y-118.28
X-413.395 Y-118.255
X-415.635 Y-117.068
X-415.684 Y-117.041
X-417.857 Y-115.838
X-417.908 Y-115.81
X-420.013 Y-114.592
X-420.064 Y-114.562
X-422.102 Y-113.33
X-422.156 Y-113.296
X-424.125 Y-112.049
X-424.182 Y-112.012
X-426.08 Y-110.751
X-426.136 Y-110.713
X-427.965 Y-109.438
X-428.024 Y-109.396
X-429.781 Y-108.109
X-429.841 Y-108.063
X-431.526 Y-106.764
X-431.588 Y-106.715
X-433.201 Y-105.404
X-433.267 Y-105.35
X-434.806 Y-104.027
X-434.87 Y-103.969
X-436.335 Y-102.636
X-436.403 Y-102.573
X-437.794 Y-101.23
X-437.862 Y-101.162
X-439.178 Y-99.809
X-439.246 Y-99.736
X-440.487 Y-98.373
X-440.558 Y-98.292
X-441.722 Y-96.921
X-441.792 Y-96.836
X-442.88 Y-95.457
X-442.95 Y-95.365
X-443.962 Y-93.978
X-444.033 Y-93.876
X-444.966 Y-92.483
X-445.034 Y-92.376
X-445.89 Y-90.976
X-445.957 Y-90.862
X-446.736 Y-89.456
X-446.802 Y-89.331
X-447.5 Y-87.92
X-447.561 Y-87.79
X-448.182 Y-86.374
X-448.238 Y-86.237
X-448.781 Y-84.817
X-448.833 Y-84.67
X-449.296 Y-83.246
X-449.341 Y-83.094
X-449.725 Y-81.667
X-449.764 Y-81.508
X-450.068 Y-80.079
X-450.098 Y-79.917
X-450.323 Y-78.486
X-450.344 Y-78.318
X-450.489 Y-76.885
X-450.502 Y-76.717
X-450.568 Y-75.284
X-450.571 Y-75.112
X-450.557 Y-73.679
X-450.55 Y-73.508
X-450.456 Y-72.075
X-450.441 Y-71.905
X-450.267 Y-70.473
X-450.242 Y-70.309
X-449.989 Y-68.878
X-449.956 Y-68.717
X-449.624 Y-67.289
X-449.583 Y-67.132
X-449.171 Y-65.706
X-449.123 Y-65.554
X-448.631 Y-64.132
X-448.578 Y-63.991
X-448.008 Y-62.572
X-447.95 Y-62.436
X-447.301 Y-61.022
X-447.239 Y-60.894
X-446.512 Y-59.485
X-446.446 Y-59.364
X-445.64 Y-57.96
X-445.572 Y-57.847
X-444.688 Y-56.449
X-444.619 Y-56.345
X-443.658 Y-54.954
X-443.588 Y-54.857
X-442.55 Y-53.473
X-442.479 Y-53.382
X-441.364 Y-52.006
X-441.293 Y-51.921
X-440.101 Y-50.553
X-440.032 Y-50.476
X-438.765 Y-49.117
X-438.696 Y-49.045
X-437.353 Y-47.695
X-437.286 Y-47.63
X-435.869 Y-46.29
X-435.802 Y-46.228
X-434.31 Y-44.899
X-434.245 Y-44.842
X-432.679 Y-43.524
X-432.616 Y-43.472
X-430.978 Y-42.165
X-430.916 Y-42.117
X-429.205 Y-40.822
X-429.145 Y-40.778
X-427.363 Y-39.495
X-427.304 Y-39.454
X-425.45 Y-38.184
X-425.395 Y-38.147
X-423.472 Y-36.891
X-423.416 Y-36.855
X-421.423 Y-35.613
X-421.37 Y-35.581
X-419.308 Y-34.353
X-419.256 Y-34.323
X-417.126 Y-33.111
X-417.077 Y-33.083
X-414.881 Y-31.886
X-414.832 Y-31.86
X-412.569 Y-30.679
X-412.522 Y-30.655
X-410.194 Y-29.491
X-410.148 Y-29.468
X-407.755 Y-28.32
X-407.711 Y-28.3
X-405.256 Y-27.17
X-405.213 Y-27.15
X-402.695 Y-26.038
X-402.653 Y-26.019
X-400.073 Y-24.925
X-400.032 Y-24.909
X-397.393 Y-23.833
X-397.354 Y-23.817
X-394.655 Y-22.761
X-394.616 Y-22.746
X-391.858 Y-21.709
X-391.821 Y-21.696
X-389.007 Y-20.679
X-388.971 Y-20.666
X-386.101 Y-19.669
X-386.065 Y-19.657
X-383.14 Y-18.682
X-383.105 Y-18.67
X-380.126 Y-17.716
X-380.092 Y-17.705
X-377.06 Y-16.772
X-377.028 Y-16.762
X-373.946 Y-15.851
X-373.913 Y-15.842
X-370.78 Y-14.953
X-370.749 Y-14.944
X-367.568 Y-14.078
X-367.537 Y-14.07
X-364.308 Y-13.227
X-364.278 Y-13.219
X-361.003 Y-12.399
X-360.973 Y-12.392
X-357.652 Y-11.596
X-357.623 Y-11.589
X-354.26 Y-10.817
X-354.231 Y-10.81
X-350.824 Y-10.062
X-350.797 Y-10.056
X-347.35 Y-9.333
X-347.322 Y-9.327
X-343.836 Y-8.628
X-343.809 Y-8.623
X-340.284 Y-7.95
X-340.258 Y-7.945
X-336.697 Y-7.297
X-336.67 Y-7.292
X-333.073 Y-6.669
X-333.048 Y-6.665
X-329.417 Y-6.069
X-329.391 Y-6.065
X-325.728 Y-5.494
X-325.703 Y-5.49
X-322.009 Y-4.946
X-321.984 Y-4.943
X-318.26 Y-4.425
X-318.236 Y-4.422
X-314.484 Y-3.931
X-314.46 Y-3.928
X-310.682 Y-3.465
X-310.658 Y-3.462
X-306.855 Y-3.025
X-306.831 Y-3.022
X-303.004 Y-2.613
X-302.98 Y-2.611
X-299.131 Y-2.229
X-299.108 Y-2.227
X-295.239 Y-1.873
X-295.216 Y-1.871
X-291.328 Y-1.545
X-291.305 Y-1.543
X-287.399 Y-1.245
X-287.376 Y-1.243
X-283.455 Y-0.973
X-283.433 Y-0.971
X-279.497 Y-0.729
X-279.474 Y-0.728
X-275.526 Y-0.514
X-275.504 Y-0.513
X-271.545 Y-0.327
X-271.523 Y-0.326
X-267.554 Y-0.169
X-267.531
X-263.554 Y-0.04
X-263.532 Y-0.039
X-259.549 Y0.061
X-259.527
X-255.539 Y0.133
X-255.517
X-251.526 Y0.176
X-251.504
X-247.511 Y0.19
X-247.489
X-243.496 Y0.176
X-243.474
X-239.483 Y0.133
X-239.461
X-235.473 Y0.061
X-235.451
X-231.468 Y-0.039
X-231.446 Y-0.04
X-227.469 Y-0.169
X-227.446
X-223.477 Y-0.326
X-223.455 Y-0.327
X-219.496 Y-0.513
X-219.474 Y-0.514
X-215.526 Y-0.728
X-215.503 Y-0.729
X-211.567 Y-0.971
X-211.545 Y-0.973
X-207.624 Y-1.243
X-207.601 Y-1.245
X-203.695 Y-1.543
X-203.672 Y-1.545
X-199.784 Y-1.871
X-199.761 Y-1.873
X-195.892 Y-2.227
X-195.869 Y-2.229
X-192.02 Y-2.611
X-191.996 Y-2.613
X-188.169 Y-3.022
X-188.145 Y-3.025
X-184.342 Y-3.462
X-184.318 Y-3.465
X-180.54 Y-3.928
X-180.516 Y-3.931
X-176.997 Y-4.392
X-176.764 Y-4.422 Z-3.005 F350
X-176.74 Y-4.425 Z-3.006
X-173.016 Y-4.943 Z-3.085
X-172.991 Y-4.946 Z-3.086
X-169.297 Y-5.49 Z-3.165
X-169.272 Y-5.494 Z-3.166
X-165.609 Y-6.065 Z-3.244
X-165.583 Y-6.069 Z-3.245
X-161.952 Y-6.665 Z-3.323
X-161.927 Y-6.669
X-158.33 Y-7.292 Z-3.401
X-158.303 Y-7.297
X-154.742 Y-7.945 Z-3.478
X-154.716 Y-7.95 Z-3.479
X-151.191 Y-8.623 Z-3.555
X-151.164 Y-8.628
X-147.678 Y-9.327 Z-3.631
X-147.65 Y-9.333
X-144.203 Y-10.056 Z-3.706
X-144.176 Y-10.062 Z-3.707
X-140.769 Y-10.81 Z-3.781
X-140.74 Y-10.817
X-137.377 Y-11.589 Z-3.855
X-137.348 Y-11.596
X-134.027 Y-12.392 Z-3.928
X-133.997 Y-12.399
X-130.722 Y-13.219 Z-4
X-130.692 Y-13.227 Z-4.001
X-127.463 Y-14.07 Z-4.071
X-127.432 Y-14.078 Z-4.072
X-124.251 Y-14.944 Z-4.142
X-124.22 Y-14.953 Z-4.143
X-121.087 Y-15.842 Z-4.212
X-121.054 Y-15.851 Z-4.213
X-117.972 Y-16.762 Z-4.281
X-117.94 Y-16.772
X-114.908 Y-17.705 Z-4.349
X-114.874 Y-17.716 Z-4.35
X-111.895 Y-18.67 Z-4.416
X-111.86 Y-18.682 Z-4.417
X-108.935 Y-19.657 Z-4.482
X-108.899 Y-19.669 Z-4.483
X-108.138 Y-19.934 Z-4.5
X-106.029 Y-20.666 F850
X-105.993 Y-20.679
X-103.179 Y-21.696
X-103.142 Y-21.709
X-100.384 Y-22.746
X-100.345 Y-22.761
X-97.646 Y-23.817
X-97.607 Y-23.833
X-94.967 Y-24.908
X-94.927 Y-24.925
X-92.347 Y-26.02
X-92.306 Y-26.038
X-89.788 Y-27.15
X-89.745 Y-27.169
X-87.289 Y-28.3
X-87.245 Y-28.321
X-84.852 Y-29.468
X-84.807 Y-29.491
X-82.479 Y-30.655
X-82.431 Y-30.679
X-80.169 Y-31.86
X-80.12 Y-31.886
X-77.923 Y-33.083
X-77.873 Y-33.111
X-75.744 Y-34.323
X-75.692 Y-34.354
X-73.63 Y-35.581
X-73.577 Y-35.613
X-71.584 Y-36.855
X-71.529 Y-36.89
X-69.605 Y-38.147
X-69.549 Y-38.184
X-67.695 Y-39.454
X-67.637 Y-39.495
X-65.855 Y-40.778
X-65.795 Y-40.822
X-64.084 Y-42.117
X-64.022 Y-42.165
X-62.384 Y-43.472
X-62.32 Y-43.524
X-60.755 Y-44.843
X-60.69 Y-44.899
X-59.198 Y-46.228
X-59.132 Y-46.29
X-57.714 Y-47.63
X-57.647 Y-47.696
X-56.304 Y-49.045
X-56.235 Y-49.117
X-54.968 Y-50.476
X-54.898 Y-50.554
X-53.707 Y-51.922
X-53.636 Y-52.005
X-52.521 Y-53.382
X-52.451 Y-53.472
X-51.412 Y-54.856
X-51.342 Y-54.954
X-50.381 Y-56.345
X-50.312 Y-56.45
X-49.428 Y-57.848
X-49.36 Y-57.96
X-48.554 Y-59.364
X-48.489 Y-59.484
X-47.761 Y-60.893
X-47.699 Y-61.022
X-47.05 Y-62.436
X-46.992 Y-62.572
X-46.421 Y-63.99
X-46.368 Y-64.133
X-45.877 Y-65.556
X-45.829 Y-65.706
X-45.417 Y-67.132
X-45.377 Y-67.288
X-45.044 Y-68.716
X-45.011 Y-68.878
X-44.758 Y-70.308
X-44.733 Y-70.474
X-44.559 Y-71.906
X-44.544 Y-72.075
X-44.45 Y-73.508
X-44.443 Y-73.679
X-44.429 Y-75.112
X-44.432 Y-75.283
X-44.498 Y-76.716
X-44.51 Y-76.886
X-44.656 Y-78.318
X-44.677 Y-78.485
X-44.902 Y-79.916
X-44.932 Y-80.08
X-45.237 Y-81.509
X-45.275 Y-81.667
X-45.659 Y-83.094
X-45.704 Y-83.246
X-46.167 Y-84.67
X-46.219 Y-84.816
X-46.761 Y-86.236
X-46.818 Y-86.374
X-47.439 Y-87.79
X-47.5 Y-87.921
X-48.2 Y-89.332
X-48.264 Y-89.455
X-49.042 Y-90.861
X-49.109 Y-90.976
X-49.965 Y-92.376
X-50.034 Y-92.484
X-50.968 Y-93.877
X-51.038 Y-93.977
X-52.049 Y-95.364
X-52.119 Y-95.457
X-53.207 Y-96.836
X-53.278 Y-96.922
X-54.442 Y-98.293
X-54.512 Y-98.373
X-55.753 Y-99.735
X-55.822 Y-99.809
X-57.138 Y-101.162
X-57.206 Y-101.23
X-58.597 Y-102.573
X-58.665 Y-102.637
X-60.13 Y-103.97
X-60.195 Y-104.027
X-61.734 Y-105.35
X-61.799 Y-105.404
X-63.411 Y-106.715
X-63.474 Y-106.764
X-65.159 Y-108.063
X-65.219 Y-108.109
X-66.976 Y-109.396
X-67.034 Y-109.437
X-68.863 Y-110.712
X-68.921 Y-110.752
X-70.819 Y-112.013
X-70.875 Y-112.049
X-72.844 Y-113.296
X-72.898 Y-113.329
X-74.936 Y-114.561
X-74.987 Y-114.592
X-77.093 Y-115.81
X-77.143 Y-115.838
X-79.316 Y-117.041
X-79.365 Y-117.068
X-81.605 Y-118.255
X-81.653 Y-118.28
X-83.958 Y-119.45
X-84.003 Y-119.473
X-86.373 Y-120.627
X-86.419 Y-120.648
X-88.852 Y-121.784
X-88.895 Y-121.804
X-91.391 Y-122.923
X-91.433 Y-122.941
X-93.991 Y-124.042
X-94.032 Y-124.06
X-96.651 Y-125.142
X-96.691 Y-125.158
X-99.369 Y-126.221
X-99.407 Y-126.236
X-102.144 Y-127.28
X-102.182 Y-127.294
X-104.976 Y-128.318
X-105.014 Y-128.332
X-107.865 Y-129.335
X-107.9 Y-129.347
X-110.806 Y-130.33
X-110.841 Y-130.341
X-113.801 Y-131.303
X-113.834 Y-131.314
X-116.846 Y-132.255
X-116.88 Y-132.265
X-119.945 Y-133.184
X-119.977 Y-133.194
X-123.092 Y-134.091
X-123.124 Y-134.1
X-126.288 Y-134.974
X-126.32 Y-134.982
X-129.533 Y-135.834
X-129.563 Y-135.841
X-132.822 Y-136.669
X-132.851 Y-136.677
X-136.155 Y-137.482
X-136.185 Y-137.489
X-139.534 Y-138.27
X-139.562 Y-138.276
X-142.953 Y-139.033
X-142.982 Y-139.039
X-146.414 Y-139.771
X-146.442 Y-139.777
X-149.915 Y-140.484
X-149.941 Y-140.489
X-153.453 Y-141.172
X-153.48 Y-141.178
X-157.028 Y-141.835
X-157.055 Y-141.839
X-160.64 Y-142.47
X-160.665 Y-142.475
X-164.283 Y-143.081
X-164.309 Y-143.085
X-167.961 Y-143.665
X-167.987 Y-143.669
X-171.671 Y-144.222
X-171.695 Y-144.225
X-175.408 Y-144.752
X-175.433 Y-144.756
X-179.175 Y-145.256
X-179.198 Y-145.259
X-182.967 Y-145.733
X-182.992 Y-145.736
X-186.786 Y-146.182
X-186.81 Y-146.185
X-190.629 Y-146.604
X-190.653 Y-146.606
X-194.494 Y-146.997
X-194.516 Y-146.999
X-198.378 Y-147.363
X-198.402 Y-147.366
X-202.284 Y-147.702
X-202.307 Y-147.703
X-206.207 Y-148.011
X-206.23 Y-148.013
X-210.146 Y-148.293
X-210.168 Y-148.295
X-214.098 Y-148.547
X-214.121 Y-148.548
X-215.273 Y-148.613
G2 X-231.924 Y-164.166 I-17.586 J2.139
X-232.859 Y-164.191 I-0.935 J17.691
X-247.5 Y-156.451 J17.716
X-262.141 Y-164.191 I-14.64 J9.976
X-279.727 Y-148.613 J17.716
G1 X-280.879 Y-148.548
X-280.902 Y-148.547
X-284.832 Y-148.295
X-284.854 Y-148.293
X-288.77 Y-148.013
X-288.793 Y-148.011
X-292.693 Y-147.703
X-292.716 Y-147.702
X-296.598 Y-147.366
X-296.622 Y-147.363
X-300.484 Y-146.999
X-300.506 Y-146.997
X-304.347 Y-146.606
X-304.371 Y-146.604
X-308.19 Y-146.185
X-308.214 Y-146.182
X-312.008 Y-145.736
X-312.033 Y-145.733
X-315.802 Y-145.259
X-315.825 Y-145.256
X-319.567 Y-144.756
X-319.592 Y-144.752
X-323.305 Y-144.225
X-323.329 Y-144.222
X-327.013 Y-143.669
X-327.039 Y-143.665
X-330.691 Y-143.085
X-330.717 Y-143.081
X-334.335 Y-142.475
X-334.36 Y-142.47
X-337.945 Y-141.839
X-337.972 Y-141.835
X-341.52 Y-141.178
X-341.547 Y-141.172
X-345.059 Y-140.489
X-345.085 Y-140.484
X-348.558 Y-139.777
X-348.586 Y-139.771
X-352.018 Y-139.039
X-352.047 Y-139.033
X-355.438 Y-138.276
X-355.466 Y-138.27
X-358.815 Y-137.489
X-358.845 Y-137.482
X-362.149 Y-136.677
X-362.178 Y-136.669
X-365.437 Y-135.841
X-365.467 Y-135.834
X-368.68 Y-134.982
X-368.712 Y-134.974
X-371.876 Y-134.1
X-371.908 Y-134.091
X-375.023 Y-133.194
X-375.055 Y-133.184
X-378.12 Y-132.265
X-378.154 Y-132.255
X-381.166 Y-131.314
X-381.199 Y-131.303
X-384.159 Y-130.341
X-384.194 Y-130.33
X-387.1 Y-129.347
X-387.135 Y-129.335
X-389.986 Y-128.332
X-390.024 Y-128.318
X-392.818 Y-127.294
X-392.856 Y-127.28
X-395.593 Y-126.236
X-395.631 Y-126.221
X-398.309 Y-125.158
X-398.35 Y-125.142
X-400.968 Y-124.06
X-401.009 Y-124.042
X-403.567 Y-122.941
X-403.609 Y-122.923
X-406.105 Y-121.804
X-406.147 Y-121.784
X-408.582 Y-120.648
X-408.628 Y-120.626
X-410.997 Y-119.472
X-411.042 Y-119.45
X-413.347 Y-118.28
X-413.395 Y-118.255
X-415.635 Y-117.068
X-415.684 Y-117.041
X-417.857 Y-115.838
X-417.908 Y-115.81
X-420.013 Y-114.592
X-420.064 Y-114.562
X-422.102 Y-113.33
X-422.156 Y-113.296
X-424.125 Y-112.049
X-424.182 Y-112.012
X-426.08 Y-110.751
X-426.136 Y-110.713
X-427.965 Y-109.438
X-428.024 Y-109.396
X-429.781 Y-108.109
X-429.841 Y-108.063
X-431.526 Y-106.764
X-431.588 Y-106.715
X-433.201 Y-105.404
X-433.267 Y-105.35
X-434.806 Y-104.027
X-434.87 Y-103.969
X-436.335 Y-102.636
X-436.403 Y-102.573
X-437.794 Y-101.23
X-437.862 Y-101.162
X-439.178 Y-99.809
X-439.246 Y-99.736
X-440.487 Y-98.373
X-440.558 Y-98.292
X-441.722 Y-96.921
X-441.792 Y-96.836
X-442.88 Y-95.457
X-442.95 Y-95.365
X-443.962 Y-93.978
X-444.033 Y-93.876
X-444.966 Y-92.483
X-445.034 Y-92.376
X-445.89 Y-90.976
X-445.957 Y-90.862
X-446.736 Y-89.456
X-446.802 Y-89.331
X-447.5 Y-87.92
X-447.561 Y-87.79
X-448.182 Y-86.374
X-448.238 Y-86.237
X-448.781 Y-84.817
X-448.833 Y-84.67
X-449.296 Y-83.246
X-449.341 Y-83.094
X-449.725 Y-81.667
X-449.764 Y-81.508
X-450.068 Y-80.079
X-450.098 Y-79.917
X-450.323 Y-78.486
X-450.344 Y-78.318
X-450.489 Y-76.885
X-450.502 Y-76.717
X-450.568 Y-75.284
X-450.571 Y-75.112
X-450.557 Y-73.679
X-450.55 Y-73.508
X-450.456 Y-72.075
X-450.441 Y-71.905
X-450.267 Y-70.473
X-450.242 Y-70.309
X-449.989 Y-68.878
X-449.956 Y-68.717
X-449.624 Y-67.289
X-449.583 Y-67.132
X-449.171 Y-65.706
X-449.123 Y-65.554
X-448.631 Y-64.132
X-448.578 Y-63.991
X-448.008 Y-62.572
X-447.95 Y-62.436
X-447.301 Y-61.022
X-447.239 Y-60.894
X-446.512 Y-59.485
X-446.446 Y-59.364
X-445.64 Y-57.96
X-445.572 Y-57.847
X-444.688 Y-56.449
X-444.619 Y-56.345
X-443.658 Y-54.954
X-443.588 Y-54.857
X-442.55 Y-53.473
X-442.479 Y-53.382
X-441.364 Y-52.006
X-441.293 Y-51.921
X-440.101 Y-50.553
X-440.032 Y-50.476
X-438.765 Y-49.117
X-438.696 Y-49.045
X-437.353 Y-47.695
X-437.286 Y-47.63
X-435.869 Y-46.29
X-435.802 Y-46.228
X-434.31 Y-44.899
X-434.245 Y-44.842
X-432.679 Y-43.524
X-432.616 Y-43.472
X-430.978 Y-42.165
X-430.916 Y-42.117
X-429.205 Y-40.822
X-429.145 Y-40.778
X-427.363 Y-39.495
X-427.304 Y-39.454
X-425.45 Y-38.184
X-425.395 Y-38.147
X-423.472 Y-36.891
X-423.416 Y-36.855
X-421.423 Y-35.613
X-421.37 Y-35.581
X-419.308 Y-34.353
X-419.256 Y-34.323
X-417.126 Y-33.111
X-417.077 Y-33.083
X-414.881 Y-31.886
X-414.832 Y-31.86
X-412.569 Y-30.679
X-412.522 Y-30.655
X-410.194 Y-29.491
X-410.148 Y-29.468
X-407.755 Y-28.32
X-407.711 Y-28.3
X-405.256 Y-27.17
X-405.213 Y-27.15
X-402.695 Y-26.038
X-402.653 Y-26.019
X-400.073 Y-24.925
X-400.032 Y-24.909
X-397.393 Y-23.833
X-397.354 Y-23.817
X-394.655 Y-22.761
X-394.616 Y-22.746
X-391.858 Y-21.709
X-391.821 Y-21.696
X-389.007 Y-20.679
X-388.971 Y-20.666
X-386.101 Y-19.669
X-386.065 Y-19.657
X-383.14 Y-18.682
X-383.105 Y-18.67
X-380.126 Y-17.716
X-380.092 Y-17.705
X-377.06 Y-16.772
X-377.028 Y-16.762
X-373.946 Y-15.851
X-373.913 Y-15.842
X-370.78 Y-14.953
X-370.749 Y-14.944
X-367.568 Y-14.078
X-367.537 Y-14.07
X-364.308 Y-13.227
X-364.278 Y-13.219
X-361.003 Y-12.399
X-360.973 Y-12.392
X-357.652 Y-11.596
X-357.623 Y-11.589
X-354.26 Y-10.817
X-354.231 Y-10.81
X-350.824 Y-10.062
X-350.797 Y-10.056
X-347.35 Y-9.333
X-347.322 Y-9.327
X-343.836 Y-8.628
X-343.809 Y-8.623
X-340.284 Y-7.95
X-340.258 Y-7.945
X-336.697 Y-7.297
X-336.67 Y-7.292
X-333.073 Y-6.669
X-333.048 Y-6.665
X-329.417 Y-6.069
X-329.391 Y-6.065
X-325.728 Y-5.494
X-325.703 Y-5.49
X-322.009 Y-4.946
X-321.984 Y-4.943
X-318.26 Y-4.425
X-318.236 Y-4.422
X-314.484 Y-3.931
X-314.46 Y-3.928
X-310.682 Y-3.465
X-310.658 Y-3.462
X-306.855 Y-3.025
X-306.831 Y-3.022
X-303.004 Y-2.613
X-302.98 Y-2.611
X-299.131 Y-2.229
X-299.108 Y-2.227
X-295.239 Y-1.873
X-295.216 Y-1.871
X-291.328 Y-1.545
X-291.305 Y-1.543
X-287.399 Y-1.245
X-287.376 Y-1.243
X-283.455 Y-0.973
X-283.433 Y-0.971
X-279.497 Y-0.729
X-279.474 Y-0.728
X-275.526 Y-0.514
X-275.504 Y-0.513
X-271.545 Y-0.327
X-271.523 Y-0.326
X-267.554 Y-0.169
X-267.531
X-263.554 Y-0.04
X-263.532 Y-0.039
X-259.549 Y0.061
X-259.527
X-255.539 Y0.133
X-255.517
X-251.526 Y0.176
X-251.504
X-247.511 Y0.19
X-247.489
X-243.496 Y0.176
X-243.474
X-239.483 Y0.133
X-239.461
X-235.473 Y0.061
X-235.451
X-231.468 Y-0.039
X-231.446 Y-0.04
X-227.469 Y-0.169
X-227.446
X-223.477 Y-0.326
X-223.455 Y-0.327
X-219.496 Y-0.513
X-219.474 Y-0.514
X-215.526 Y-0.728
X-215.503 Y-0.729
X-211.567 Y-0.971
X-211.545 Y-0.973
X-207.624 Y-1.243
X-207.601 Y-1.245
X-203.695 Y-1.543
X-203.672 Y-1.545
X-199.784 Y-1.871
X-199.761 Y-1.873
X-195.892 Y-2.227
X-195.869 Y-2.229
X-192.02 Y-2.611
X-191.996 Y-2.613
X-188.169 Y-3.022
X-188.145 Y-3.025
X-184.342 Y-3.462
X-184.318 Y-3.465
X-180.54 Y-3.928
X-180.516 Y-3.931
X-176.997 Y-4.392
X-176.764 Y-4.422
X-176.74 Y-4.425
X-173.016 Y-4.943
X-172.991 Y-4.946
X-169.297 Y-5.49
X-169.272 Y-5.494
X-165.609 Y-6.065
X-165.583 Y-6.069
X-161.952 Y-6.665
X-161.927 Y-6.669
X-158.33 Y-7.292
X-158.303 Y-7.297
X-154.742 Y-7.945
X-154.716 Y-7.95
X-151.191 Y-8.623
X-151.164 Y-8.628
X-147.678 Y-9.327
X-147.65 Y-9.333
X-144.203 Y-10.056
X-144.176 Y-10.062
X-140.769 Y-10.81
X-140.74 Y-10.817
X-137.377 Y-11.589
X-137.348 Y-11.596
X-134.027 Y-12.392
X-133.997 Y-12.399
X-130.722 Y-13.219
X-130.692 Y-13.227
X-127.463 Y-14.07
X-127.432 Y-14.078
X-124.251 Y-14.944
X-124.22 Y-14.953
X-121.087 Y-15.842
X-121.054 Y-15.851
X-117.972 Y-16.762
X-117.94 Y-16.772
X-114.908 Y-17.705
X-114.874 Y-17.716
X-111.895 Y-18.67
X-111.86 Y-18.682
X-108.935 Y-19.657
X-108.899 Y-19.669
X-108.138 Y-19.934
X-106.029 Y-20.666 Z-4.547 F350
X-105.993 Y-20.679 Z-4.548
X-103.179 Y-21.696 Z-4.612
X-103.142 Y-21.709
X-100.384 Y-22.746 Z-4.675
X-100.345 Y-22.761 Z-4.676
X-97.646 Y-23.817 Z-4.737
X-97.607 Y-23.833 Z-4.738
X-94.967 Y-24.908 Z-4.799
X-94.927 Y-24.925 Z-4.8
X-92.347 Y-26.02 Z-4.859
X-92.306 Y-26.038 Z-4.86
X-89.788 Y-27.15 Z-4.918
X-89.745 Y-27.169 Z-4.919
X-87.289 Y-28.3 Z-4.977
X-87.245 Y-28.321 Z-4.978
X-84.852 Y-29.468 Z-5.034
X-84.807 Y-29.491 Z-5.035
X-82.479 Y-30.655 Z-5.09
X-82.431 Y-30.679 Z-5.092
X-80.169 Y-31.86 Z-5.146
X-80.12 Y-31.886 Z-5.147
X-77.923 Y-33.083 Z-5.2
X-77.873 Y-33.111 Z-5.201
X-75.744 Y-34.323 Z-5.253
X-75.692 Y-34.354 Z-5.254
X-73.63 Y-35.581 Z-5.305
X-73.577 Y-35.613 Z-5.307
X-71.584 Y-36.855 Z-5.356
X-71.529 Y-36.89 Z-5.358
X-69.605 Y-38.147 Z-5.407
X-69.549 Y-38.184 Z-5.408
X-67.695 Y-39.454 Z-5.456
X-67.637 Y-39.495 Z-5.457
X-65.855 Y-40.778 Z-5.504
X-65.795 Y-40.822 Z-5.505
X-64.084 Y-42.117 Z-5.551
X-64.022 Y-42.165 Z-5.553
X-62.384 Y-43.472 Z-5.597
X-62.32 Y-43.524 Z-5.599
X-60.755 Y-44.843 Z-5.642
X-60.69 Y-44.899 Z-5.644
X-59.198 Y-46.228 Z-5.686
X-59.132 Y-46.29 Z-5.688
X-57.714 Y-47.63 Z-5.73
X-57.647 Y-47.696 Z-5.732
X-56.304 Y-49.045 Z-5.772
X-56.235 Y-49.117 Z-5.774
X-54.968 Y-50.476 Z-5.814
X-54.898 Y-50.554 Z-5.816
X-53.707 Y-51.922 Z-5.854
X-53.636 Y-52.005 Z-5.857
X-52.521 Y-53.382 Z-5.894
X-52.451 Y-53.472 Z-5.897
X-51.412 Y-54.856 Z-5.933
X-51.342 Y-54.954 Z-5.936
X-50.381 Y-56.345 Z-5.972
X-50.312 Y-56.45 Z-5.974
X-49.669 Y-57.466 Z-6
X-49.428 Y-57.848 F850
X-49.36 Y-57.96
X-48.554 Y-59.364
X-48.489 Y-59.484
X-47.761 Y-60.893
X-47.699 Y-61.022
X-47.05 Y-62.436
X-46.992 Y-62.572
X-46.421 Y-63.99
X-46.368 Y-64.133
X-45.877 Y-65.556
X-45.829 Y-65.706
X-45.417 Y-67.132
X-45.377 Y-67.288
X-45.044 Y-68.716
X-45.011 Y-68.878
X-44.758 Y-70.308
X-44.733 Y-70.474
X-44.559 Y-71.906
X-44.544 Y-72.075
X-44.45 Y-73.508
X-44.443 Y-73.679
X-44.429 Y-75.112
X-44.432 Y-75.283
X-44.498 Y-76.716
X-44.51 Y-76.886
X-44.656 Y-78.318
X-44.677 Y-78.485
X-44.902 Y-79.916
X-44.932 Y-80.08
X-45.237 Y-81.509
X-45.275 Y-81.667
X-45.659 Y-83.094
X-45.704 Y-83.246
X-46.167 Y-84.67
X-46.219 Y-84.816
X-46.761 Y-86.236
X-46.818 Y-86.374
X-47.439 Y-87.79
X-47.5 Y-87.921
X-48.2 Y-89.332
X-48.264 Y-89.455
X-49.042 Y-90.861
X-49.109 Y-90.976
X-49.965 Y-92.376
X-50.034 Y-92.484
X-50.968 Y-93.877
X-51.038 Y-93.977
X-52.049 Y-95.364
X-52.119 Y-95.457
X-53.207 Y-96.836
X-53.278 Y-96.922
X-54.442 Y-98.293
X-54.512 Y-98.373
X-55.753 Y-99.735
X-55.822 Y-99.809
X-57.138 Y-101.162
X-57.206 Y-101.23
X-58.597 Y-102.573
X-58.665 Y-102.637
X-60.13 Y-103.97
X-60.195 Y-104.027
X-61.734 Y-105.35
X-61.799 Y-105.404
X-63.411 Y-106.715
X-63.474 Y-106.764
X-65.159 Y-108.063
X-65.219 Y-108.109
X-66.976 Y-109.396
X-67.034 Y-109.437
X-68.863 Y-110.712
X-68.921 Y-110.752
X-70.819 Y-112.013
X-70.875 Y-112.049
X-72.844 Y-113.296
X-72.898 Y-113.329
X-74.936 Y-114.561
X-74.987 Y-114.592
X-77.093 Y-115.81
X-77.143 Y-115.838
X-79.316 Y-117.041
X-79.365 Y-117.068
X-81.605 Y-118.255
X-81.653 Y-118.28
X-83.958 Y-119.45
X-84.003 Y-119.473
X-86.373 Y-120.627
X-86.419 Y-120.648
X-88.852 Y-121.784
X-88.895 Y-121.804
X-91.391 Y-122.923
X-91.433 Y-122.941
X-93.991 Y-124.042
X-94.032 Y-124.06
X-96.651 Y-125.142
X-96.691 Y-125.158
X-99.369 Y-126.221
X-99.407 Y-126.236
X-102.144 Y-127.28
X-102.182 Y-127.294
X-104.976 Y-128.318
X-105.014 Y-128.332
X-107.865 Y-129.335
X-107.9 Y-129.347
X-110.806 Y-130.33
X-110.841 Y-130.341
X-113.801 Y-131.303
X-113.834 Y-131.314
X-116.846 Y-132.255
X-116.88 Y-132.265
X-119.945 Y-133.184
X-119.977 Y-133.194
X-123.092 Y-134.091
X-123.124 Y-134.1
X-126.288 Y-134.974
X-126.32 Y-134.982
X-129.533 Y-135.834
X-129.563 Y-135.841
X-132.822 Y-136.669
X-132.851 Y-136.677
X-136.155 Y-137.482
X-136.185 Y-137.489
X-139.534 Y-138.27
X-139.562 Y-138.276
X-142.953 Y-139.033
X-142.982 Y-139.039
X-146.414 Y-139.771
X-146.442 Y-139.777
X-149.915 Y-140.484
X-149.941 Y-140.489
X-153.453 Y-141.172
X-153.48 Y-141.178
X-157.028 Y-141.835
X-157.055 Y-141.839
X-160.64 Y-142.47
X-160.665 Y-142.475
X-164.283 Y-143.081
X-164.309 Y-143.085
X-167.961 Y-143.665
X-167.987 Y-143.669
X-171.671 Y-144.222
X-171.695 Y-144.225
X-175.408 Y-144.752
X-175.433 Y-144.756
X-179.175 Y-145.256
X-179.198 Y-145.259
X-182.967 Y-145.733
X-182.992 Y-145.736
X-186.786 Y-146.182
X-186.81 Y-146.185
X-190.629 Y-146.604
X-190.653 Y-146.606
X-194.494 Y-146.997
X-194.516 Y-146.999
X-198.378 Y-147.363
X-198.402 Y-147.366
X-202.284 Y-147.702
X-202.307 Y-147.703
X-206.207 Y-148.011
X-206.23 Y-148.013
X-210.146 Y-148.293
X-210.168 Y-148.295
X-214.098 Y-148.547
X-214.121 Y-148.548
X-215.273 Y-148.613
G2 X-231.924 Y-164.166 I-17.586 J2.139
X-232.859 Y-164.191 I-0.935 J17.691
X-247.5 Y-156.451 J17.716
X-262.141 Y-164.191 I-14.64 J9.976
X-279.727 Y-148.613 J17.716
G1 X-280.879 Y-148.548
X-280.902 Y-148.547
X-284.832 Y-148.295
X-284.854 Y-148.293
X-288.77 Y-148.013
X-288.793 Y-148.011
X-292.693 Y-147.703
X-292.716 Y-147.702
X-296.598 Y-147.366
X-296.622 Y-147.363
X-300.484 Y-146.999
X-300.506 Y-146.997
X-304.347 Y-146.606
X-304.371 Y-146.604
X-308.19 Y-146.185
X-308.214 Y-146.182
X-312.008 Y-145.736
X-312.033 Y-145.733
X-315.802 Y-145.259
X-315.825 Y-145.256
X-319.567 Y-144.756
X-319.592 Y-144.752
X-323.305 Y-144.225
X-323.329 Y-144.222
X-327.013 Y-143.669
X-327.039 Y-143.665
X-330.691 Y-143.085
X-330.717 Y-143.081
X-334.335 Y-142.475
X-334.36 Y-142.47
X-337.945 Y-141.839
X-337.972 Y-141.835
X-341.52 Y-141.178
X-341.547 Y-141.172
X-345.059 Y-140.489
X-345.085 Y-140.484
X-348.558 Y-139.777
X-348.586 Y-139.771
X-352.018 Y-139.039
X-352.047 Y-139.033
X-355.438 Y-138.276
X-355.466 Y-138.27
X-358.815 Y-137.489
X-358.845 Y-137.482
X-362.149 Y-136.677
X-362.178 Y-136.669
X-365.437 Y-135.841
X-365.467 Y-135.834
X-368.68 Y-134.982
X-368.712 Y-134.974
X-371.876 Y-134.1
X-371.908 Y-134.091
X-375.023 Y-133.194
X-375.055 Y-133.184
X-378.12 Y-132.265
X-378.154 Y-132.255
X-381.166 Y-131.314
X-381.199 Y-131.303
X-384.159 Y-130.341
X-384.194 Y-130.33
X-387.1 Y-129.347
X-387.135 Y-129.335
X-389.986 Y-128.332
X-390.024 Y-128.318
X-392.818 Y-127.294
X-392.856 Y-127.28
X-395.593 Y-126.236
X-395.631 Y-126.221
X-398.309 Y-125.158
X-398.35 Y-125.142
X-400.968 Y-124.06
X-401.009 Y-124.042
X-403.567 Y-122.941
X-403.609 Y-122.923
X-406.105 Y-121.804
X-406.147 Y-121.784
X-408.582 Y-120.648
X-408.628 Y-120.626
X-410.997 Y-119.472
X-411.042 Y-119.45
X-413.347 Y-118.28
X-413.395 Y-118.255
X-415.635 Y-117.068
X-415.684 Y-117.041
X-417.857 Y-115.838
X-417.908 Y-115.81
X-420.013 Y-114.592
X-420.064 Y-114.562
X-422.102 Y-113.33
X-422.156 Y-113.296
X-424.125 Y-112.049
X-424.182 Y-112.012
X-426.08 Y-110.751
X-426.136 Y-110.713
X-427.965 Y-109.438
X-428.024 Y-109.396
X-429.781 Y-108.109
X-429.841 Y-108.063
X-431.526 Y-106.764
X-431.588 Y-106.715
X-433.201 Y-105.404
X-433.267 Y-105.35
X-434.806 Y-104.027
X-434.87 Y-103.969
X-436.335 Y-102.636
X-436.403 Y-102.573
X-437.794 Y-101.23
X-437.862 Y-101.162
X-439.178 Y-99.809
X-439.246 Y-99.736
X-440.487 Y-98.373
X-440.558 Y-98.292
X-441.722 Y-96.921
X-441.792 Y-96.836
X-442.88 Y-95.457
X-442.95 Y-95.365
X-443.962 Y-93.978
X-444.033 Y-93.876
X-444.966 Y-92.483
X-445.034 Y-92.376
X-445.89 Y-90.976
X-445.957 Y-90.862
X-446.736 Y-89.456
X-446.802 Y-89.331
X-447.5 Y-87.92
X-447.561 Y-87.79
X-448.182 Y-86.374
X-448.238 Y-86.237
X-448.781 Y-84.817
X-448.833 Y-84.67
X-449.296 Y-83.246
X-449.341 Y-83.094
X-449.725 Y-81.667
X-449.764 Y-81.508
X-450.068 Y-80.079
X-450.098 Y-79.917
X-450.323 Y-78.486
X-450.344 Y-78.318
X-450.489 Y-76.885
X-450.502 Y-76.717
X-450.568 Y-75.284
X-450.571 Y-75.112
X-450.557 Y-73.679
X-450.55 Y-73.508
X-450.456 Y-72.075
X-450.441 Y-71.905
X-450.267 Y-70.473
X-450.242 Y-70.309
X-449.989 Y-68.878
X-449.956 Y-68.717
X-449.624 Y-67.289
X-449.583 Y-67.132
X-449.171 Y-65.706
X-449.123 Y-65.554
X-448.631 Y-64.132
X-448.578 Y-63.991
X-448.008 Y-62.572
X-447.95 Y-62.436
X-447.301 Y-61.022
X-447.239 Y-60.894
X-446.512 Y-59.485
X-446.446 Y-59.364
X-445.64 Y-57.96
X-445.572 Y-57.847
X-444.688 Y-56.449
X-444.619 Y-56.345
X-443.658 Y-54.954
X-443.588 Y-54.857
X-442.55 Y-53.473
X-442.479 Y-53.382
X-441.364 Y-52.006
X-441.293 Y-51.921
X-440.101 Y-50.553
X-440.032 Y-50.476
X-438.765 Y-49.117
X-438.696 Y-49.045
X-437.353 Y-47.695
X-437.286 Y-47.63
X-435.869 Y-46.29
X-435.802 Y-46.228
X-434.31 Y-44.899
X-434.245 Y-44.842
X-432.679 Y-43.524
X-432.616 Y-43.472
X-430.978 Y-42.165
X-430.916 Y-42.117
X-429.205 Y-40.822
X-429.145 Y-40.778
X-427.363 Y-39.495
X-427.304 Y-39.454
X-425.45 Y-38.184
X-425.395 Y-38.147
X-423.472 Y-36.891
X-423.416 Y-36.855
X-421.423 Y-35.613
X-421.37 Y-35.581
X-419.308 Y-34.353
X-419.256 Y-34.323
X-417.126 Y-33.111
X-417.077 Y-33.083
X-414.881 Y-31.886
X-414.832 Y-31.86
X-412.569 Y-30.679
X-412.522 Y-30.655
X-410.194 Y-29.491
X-410.148 Y-29.468
X-407.755 Y-28.32
X-407.711 Y-28.3
X-405.256 Y-27.17
X-405.213 Y-27.15
X-402.695 Y-26.038
X-402.653 Y-26.019
X-400.073 Y-24.925
X-400.032 Y-24.909
X-397.393 Y-23.833
X-397.354 Y-23.817
X-394.655 Y-22.761
X-394.616 Y-22.746
X-391.858 Y-21.709
X-391.821 Y-21.696
X-389.007 Y-20.679
X-388.971 Y-20.666
X-386.101 Y-19.669
X-386.065 Y-19.657
X-383.14 Y-18.682
X-383.105 Y-18.67
X-380.126 Y-17.716
X-380.092 Y-17.705
X-377.06 Y-16.772
X-377.028 Y-16.762
X-373.946 Y-15.851
X-373.913 Y-15.842
X-370.78 Y-14.953
X-370.749 Y-14.944
X-367.568 Y-14.078
X-367.537 Y-14.07
X-364.308 Y-13.227
X-364.278 Y-13.219
X-361.003 Y-12.399
X-360.973 Y-12.392
X-357.652 Y-11.596
X-357.623 Y-11.589
X-354.26 Y-10.817
X-354.231 Y-10.81
X-350.824 Y-10.062
X-350.797 Y-10.056
X-347.35 Y-9.333
X-347.322 Y-9.327
X-343.836 Y-8.628
X-343.809 Y-8.623
X-340.284 Y-7.95
X-340.258 Y-7.945
X-336.697 Y-7.297
X-336.67 Y-7.292
X-333.073 Y-6.669
X-333.048 Y-6.665
X-329.417 Y-6.069
X-329.391 Y-6.065
X-325.728 Y-5.494
X-325.703 Y-5.49
X-322.009 Y-4.946
X-321.984 Y-4.943
X-318.26 Y-4.425
X-318.236 Y-4.422
X-314.484 Y-3.931
X-314.46 Y-3.928
X-310.682 Y-3.465
X-310.658 Y-3.462
X-306.855 Y-3.025
X-306.831 Y-3.022
X-303.004 Y-2.613
X-302.98 Y-2.611
X-299.131 Y-2.229
X-299.108 Y-2.227
X-295.239 Y-1.873
X-295.216 Y-1.871
X-291.328 Y-1.545
X-291.305 Y-1.543
X-287.399 Y-1.245
X-287.376 Y-1.243
X-283.455 Y-0.973
X-283.433 Y-0.971
X-279.497 Y-0.729
X-279.474 Y-0.728
X-275.526 Y-0.514
X-275.504 Y-0.513
X-271.545 Y-0.327
X-271.523 Y-0.326
X-267.554 Y-0.169
X-267.531
X-263.554 Y-0.04
X-263.532 Y-0.039
X-259.549 Y0.061
X-259.527
X-255.539 Y0.133
X-255.517
X-251.526 Y0.176
X-251.504
X-247.511 Y0.19
X-247.489
X-243.496 Y0.176
X-243.474
X-239.483 Y0.133
X-239.461
X-235.473 Y0.061
X-235.451
X-231.468 Y-0.039
X-231.446 Y-0.04
X-227.469 Y-0.169
X-227.446
X-223.477 Y-0.326
X-223.455 Y-0.327
X-219.496 Y-0.513
X-219.474 Y-0.514
X-215.526 Y-0.728
X-215.503 Y-0.729
X-211.567 Y-0.971
X-211.545 Y-0.973
X-207.624 Y-1.243
X-207.601 Y-1.245
X-203.695 Y-1.543
X-203.672 Y-1.545
X-199.784 Y-1.871
X-199.761 Y-1.873
X-195.892 Y-2.227
X-195.869 Y-2.229
X-192.02 Y-2.611
X-191.996 Y-2.613
X-188.169 Y-3.022
X-188.145 Y-3.025
X-184.342 Y-3.462
X-184.318 Y-3.465
X-180.54 Y-3.928
X-180.516 Y-3.931
X-176.764 Y-4.422
X-176.74 Y-4.425
X-173.016 Y-4.943
X-172.991 Y-4.946
X-169.297 Y-5.49
X-169.272 Y-5.494
X-165.609 Y-6.065
X-165.583 Y-6.069
X-161.952 Y-6.665
X-161.927 Y-6.669
X-158.33 Y-7.292
X-158.303 Y-7.297
X-154.742 Y-7.945
X-154.716 Y-7.95
X-151.191 Y-8.623
X-151.164 Y-8.628
X-147.678 Y-9.327
X-147.65 Y-9.333
X-144.203 Y-10.056
X-144.176 Y-10.062
X-140.769 Y-10.81
X-140.74 Y-10.817
X-137.377 Y-11.589
X-137.348 Y-11.596
X-134.027 Y-12.392
X-133.997 Y-12.399
X-130.722 Y-13.219
X-130.692 Y-13.227
X-127.463 Y-14.07
X-127.432 Y-14.078
X-124.251 Y-14.944
X-124.22 Y-14.953
X-121.087 Y-15.842
X-121.054 Y-15.851
X-117.972 Y-16.762
X-117.94 Y-16.772
X-114.908 Y-17.705
X-114.874 Y-17.716
X-111.895 Y-18.67
X-111.86 Y-18.682
X-108.935 Y-19.657
X-108.899 Y-19.669
X-106.029 Y-20.666
X-105.993 Y-20.679
X-103.179 Y-21.696
X-103.142 Y-21.709
X-100.384 Y-22.746
X-100.345 Y-22.761
X-97.646 Y-23.817
X-97.607 Y-23.833
X-94.967 Y-24.908
X-94.927 Y-24.925
X-92.347 Y-26.02
X-92.306 Y-26.038
X-89.788 Y-27.15
X-89.745 Y-27.169
X-87.289 Y-28.3
X-87.245 Y-28.321
X-84.852 Y-29.468
X-84.807 Y-29.491
X-82.479 Y-30.655
X-82.431 Y-30.679
X-80.169 Y-31.86
X-80.12 Y-31.886
X-77.923 Y-33.083
X-77.873 Y-33.111
X-75.744 Y-34.323
X-75.692 Y-34.354
X-73.63 Y-35.581
X-73.577 Y-35.613
X-71.584 Y-36.855
X-71.529 Y-36.89
X-69.605 Y-38.147
X-69.549 Y-38.184
X-67.695 Y-39.454
X-67.637 Y-39.495
X-65.855 Y-40.778
X-65.795 Y-40.822
X-64.084 Y-42.117
X-64.022 Y-42.165
X-62.384 Y-43.472
X-62.32 Y-43.524
X-60.755 Y-44.843
X-60.69 Y-44.899
X-59.198 Y-46.228
X-59.132 Y-46.29
X-57.714 Y-47.63
X-57.647 Y-47.696
X-56.304 Y-49.045
X-56.235 Y-49.117
X-54.968 Y-50.476
X-54.898 Y-50.554
X-53.707 Y-51.922
X-53.636 Y-52.005
X-52.521 Y-53.382
X-52.451 Y-53.472
X-51.412 Y-54.856
X-51.342 Y-54.954
X-50.381 Y-56.345
X-50.312 Y-56.45
X-49.669 Y-57.466
X-49.428 Y-57.848 Z-6.01 F350
X-49.36 Y-57.96 Z-6.012
X-48.554 Y-59.364 Z-6.047
X-48.489 Y-59.484 Z-6.05
X-47.761 Y-60.893 Z-6.083
X-47.699 Y-61.022 Z-6.086
X-47.05 Y-62.436 Z-6.119
X-46.992 Y-62.572 Z-6.122
X-46.421 Y-63.99 Z-6.155
X-46.368 Y-64.133 Z-6.158
X-45.877 Y-65.556 Z-6.19
X-45.829 Y-65.706 Z-6.193
X-45.417 Y-67.132 Z-6.225
X-45.377 Y-67.288 Z-6.228
X-45.044 Y-68.716 Z-6.259
X-45.011 Y-68.878 Z-6.263
X-44.758 Y-70.308 Z-6.294
X-44.733 Y-70.474 Z-6.297
X-44.559 Y-71.906 Z-6.328
X-44.544 Y-72.075 Z-6.331
X-44.45 Y-73.508 Z-6.362
X-44.443 Y-73.679 Z-6.366
X-44.429 Y-75.112 Z-6.396
X-44.432 Y-75.283 Z-6.4
X-44.498 Y-76.716 Z-6.43
X-44.51 Y-76.886 Z-6.434
X-44.656 Y-78.318 Z-6.464
X-44.677 Y-78.485 Z-6.468
X-44.902 Y-79.916 Z-6.499
X-44.932 Y-80.08 Z-6.502
X-45.237 Y-81.509 Z-6.533
X-45.275 Y-81.667 Z-6.536
X-45.659 Y-83.094 Z-6.568
X-45.704 Y-83.246 Z-6.571
X-46.167 Y-84.67 Z-6.603
X-46.219 Y-84.816 Z-6.606
X-46.761 Y-86.236 Z-6.638
X-46.818 Y-86.374 Z-6.642
X-47.439 Y-87.79 Z-6.674
X-47.5 Y-87.921 Z-6.678
X-48.2 Y-89.332 Z-6.711
X-48.264 Y-89.455 Z-6.714
X-49.042 Y-90.861 Z-6.748
X-49.109 Y-90.976 Z-6.751
X-49.965 Y-92.376 Z-6.786
X-50.034 Y-92.484 Z-6.788
X-50.968 Y-93.877 Z-6.824
X-51.038 Y-93.977 Z-6.827
X-52.049 Y-95.364 Z-6.863
X-52.119 Y-95.457 Z-6.865
X-53.207 Y-96.836 Z-6.903
X-53.278 Y-96.922 Z-6.905
X-54.442 Y-98.293 Z-6.943
X-54.512 Y-98.373 Z-6.945
X-55.753 Y-99.735 Z-6.985
X-55.822 Y-99.809 Z-6.987
X-57.138 Y-101.162 Z-7.027
X-57.206 Y-101.23 Z-7.029
X-58.597 Y-102.573 Z-7.07
X-58.665 Y-102.637 Z-7.072
X-60.13 Y-103.97 Z-7.114
X-60.195 Y-104.027 Z-7.116
X-61.734 Y-105.35 Z-7.159
X-61.799 Y-105.404 Z-7.16
X-63.411 Y-106.715 Z-7.205
X-63.474 Y-106.764 Z-7.206
X-65.159 Y-108.063 Z-7.251
X-65.219 Y-108.109 Z-7.253
X-66.976 Y-109.396 Z-7.299
X-67.034 Y-109.437 Z-7.301
X-68.863 Y-110.712 Z-7.348
X-68.921 Y-110.752 Z-7.349
X-70.819 Y-112.013 Z-7.398
X-70.875 Y-112.049 Z-7.399
X-72.844 Y-113.296 Z-7.449
X-72.898 Y-113.329 Z-7.45
X-74.914 Y-114.548 Z-7.5
X-74.936 Y-114.561 F850
X-74.987 Y-114.592
X-77.093 Y-115.81
X-77.143 Y-115.838
X-79.316 Y-117.041
X-79.365 Y-117.068
X-81.605 Y-118.255
X-81.653 Y-118.28
X-83.958 Y-119.45
X-84.003 Y-119.473
X-86.373 Y-120.627
X-86.419 Y-120.648
X-88.852 Y-121.784
X-88.895 Y-121.804
X-91.391 Y-122.923
X-91.433 Y-122.941
X-93.991 Y-124.042
X-94.032 Y-124.06
X-96.651 Y-125.142
X-96.691 Y-125.158
X-99.369 Y-126.221
X-99.407 Y-126.236
X-102.144 Y-127.28
X-102.182 Y-127.294
X-104.976 Y-128.318
X-105.014 Y-128.332
X-107.865 Y-129.335
X-107.9 Y-129.347
X-110.806 Y-130.33
X-110.841 Y-130.341
X-113.801 Y-131.303
X-113.834 Y-131.314
X-116.846 Y-132.255
X-116.88 Y-132.265
X-119.945 Y-133.184
X-119.977 Y-133.194
X-123.092 Y-134.091
X-123.124 Y-134.1
X-126.288 Y-134.974
X-126.32 Y-134.982
X-129.533 Y-135.834
X-129.563 Y-135.841
X-132.822 Y-136.669
X-132.851 Y-136.677
X-136.155 Y-137.482
X-136.185 Y-137.489
X-139.534 Y-138.27
X-139.562 Y-138.276
X-142.953 Y-139.033
X-142.982 Y-139.039
X-146.414 Y-139.771
X-146.442 Y-139.777
X-149.915 Y-140.484
X-149.941 Y-140.489
X-153.453 Y-141.172
X-153.48 Y-141.178
X-157.028 Y-141.835
X-157.055 Y-141.839
X-160.64 Y-142.47
X-160.665 Y-142.475
X-164.283 Y-143.081
X-164.309 Y-143.085
X-167.961 Y-143.665
X-167.987 Y-143.669
X-171.671 Y-144.222
X-171.695 Y-144.225
X-175.408 Y-144.752
X-175.433 Y-144.756
X-179.175 Y-145.256
X-179.198 Y-145.259
X-182.967 Y-145.733
X-182.992 Y-145.736
X-186.786 Y-146.182
X-186.81 Y-146.185
X-190.629 Y-146.604
X-190.653 Y-146.606
X-194.494 Y-146.997
X-194.516 Y-146.999
X-198.378 Y-147.363
X-198.402 Y-147.366
X-202.284 Y-147.702
X-202.307 Y-147.703
X-206.207 Y-148.011
X-206.23 Y-148.013
X-210.146 Y-148.293
X-210.168 Y-148.295
X-214.098 Y-148.547
X-214.121 Y-148.548
X-215.273 Y-148.613
G2 X-231.924 Y-164.166 I-17.586 J2.139
X-232.859 Y-164.191 I-0.935 J17.691
X-247.5 Y-156.451 J17.716
X-262.141 Y-164.191 I-14.64 J9.976
X-279.727 Y-148.613 J17.716
G1 X-280.879 Y-148.548
X-280.902 Y-148.547
X-284.832 Y-148.295
X-284.854 Y-148.293
X-288.77 Y-148.013
X-288.793 Y-148.011
X-292.693 Y-147.703
X-292.716 Y-147.702
X-296.598 Y-147.366
X-296.622 Y-147.363
X-300.484 Y-146.999
X-300.506 Y-146.997
X-304.347 Y-146.606
X-304.371 Y-146.604
X-308.19 Y-146.185
X-308.214 Y-146.182
X-312.008 Y-145.736
X-312.033 Y-145.733
X-315.802 Y-145.259
X-315.825 Y-145.256
X-319.567 Y-144.756
X-319.592 Y-144.752
X-323.305 Y-144.225
X-323.329 Y-144.222
X-327.013 Y-143.669
X-327.039 Y-143.665
X-330.691 Y-143.085
X-330.717 Y-143.081
X-334.335 Y-142.475
X-334.36 Y-142.47
X-337.945 Y-141.839
X-337.972 Y-141.835
X-341.52 Y-141.178
X-341.547 Y-141.172
X-345.059 Y-140.489
X-345.085 Y-140.484
X-348.558 Y-139.777
X-348.586 Y-139.771
X-352.018 Y-139.039
X-352.047 Y-139.033
X-355.438 Y-138.276
X-355.466 Y-138.27
X-358.815 Y-137.489
X-358.845 Y-137.482
X-362.149 Y-136.677
X-362.178 Y-136.669
X-365.437 Y-135.841
X-365.467 Y-135.834
X-368.68 Y-134.982
X-368.712 Y-134.974
X-371.876 Y-134.1
X-371.908 Y-134.091
X-375.023 Y-133.194
X-375.055 Y-133.184
X-378.12 Y-132.265
X-378.154 Y-132.255
X-381.166 Y-131.314
X-381.199 Y-131.303
X-384.159 Y-130.341
X-384.194 Y-130.33
X-387.1 Y-129.347
X-387.135 Y-129.335
X-389.986 Y-128.332
X-390.024 Y-128.318
X-392.818 Y-127.294
X-392.856 Y-127.28
X-395.593 Y-126.236
X-395.631 Y-126.221
X-398.309 Y-125.158
X-398.35 Y-125.142
X-400.968 Y-124.06
X-401.009 Y-124.042
X-403.567 Y-122.941
X-403.609 Y-122.923
X-406.105 Y-121.804
X-406.147 Y-121.784
X-408.582 Y-120.648
X-408.628 Y-120.626
X-410.997 Y-119.472
X-411.042 Y-119.45
X-413.347 Y-118.28
X-413.395 Y-118.255
X-415.635 Y-117.068
X-415.684 Y-117.041
X-417.857 Y-115.838
X-417.908 Y-115.81
X-420.013 Y-114.592
X-420.064 Y-114.562
X-422.102 Y-113.33
X-422.156 Y-113.296
X-424.125 Y-112.049
X-424.182 Y-112.012
X-426.08 Y-110.751
X-426.136 Y-110.713
X-427.965 Y-109.438
X-428.024 Y-109.396
X-429.781 Y-108.109
X-429.841 Y-108.063
X-431.526 Y-106.764
X-431.588 Y-106.715
X-433.201 Y-105.404
X-433.267 Y-105.35
X-434.806 Y-104.027
X-434.87 Y-103.969
X-436.335 Y-102.636
X-436.403 Y-102.573
X-437.794 Y-101.23
X-437.862 Y-101.162
X-439.178 Y-99.809
X-439.246 Y-99.736
X-440.487 Y-98.373
X-440.558 Y-98.292
X-441.722 Y-96.921
X-441.792 Y-96.836
X-442.88 Y-95.457
X-442.95 Y-95.365
X-443.962 Y-93.978
X-444.033 Y-93.876
X-444.966 Y-92.483
X-445.034 Y-92.376
X-445.89 Y-90.976
X-445.957 Y-90.862
X-446.736 Y-89.456
X-446.802 Y-89.331
X-447.5 Y-87.92
X-447.561 Y-87.79
X-448.182 Y-86.374
X-448.238 Y-86.237
X-448.781 Y-84.817
X-448.833 Y-84.67
X-449.296 Y-83.246
X-449.341 Y-83.094
X-449.725 Y-81.667
X-449.764 Y-81.508
X-450.068 Y-80.079
X-450.098 Y-79.917
X-450.323 Y-78.486
X-450.344 Y-78.318
X-450.489 Y-76.885
X-450.502 Y-76.717
X-450.568 Y-75.284
X-450.571 Y-75.112
X-450.557 Y-73.679
X-450.55 Y-73.508
X-450.456 Y-72.075
X-450.441 Y-71.905
X-450.267 Y-70.473
X-450.242 Y-70.309
X-449.989 Y-68.878
X-449.956 Y-68.717
X-449.624 Y-67.289
X-449.583 Y-67.132
X-449.171 Y-65.706
X-449.123 Y-65.554
X-448.631 Y-64.132
X-448.578 Y-63.991
X-448.008 Y-62.572
X-447.95 Y-62.436
X-447.301 Y-61.022
X-447.239 Y-60.894
X-446.512 Y-59.485
X-446.446 Y-59.364
X-445.64 Y-57.96
X-445.572 Y-57.847
X-444.688 Y-56.449
X-444.619 Y-56.345
X-443.658 Y-54.954
X-443.588 Y-54.857
X-442.55 Y-53.473
X-442.479 Y-53.382
X-441.364 Y-52.006
X-441.293 Y-51.921
X-440.101 Y-50.553
X-440.032 Y-50.476
X-438.765 Y-49.117
X-438.696 Y-49.045
X-437.353 Y-47.695
X-437.286 Y-47.63
X-435.869 Y-46.29
X-435.802 Y-46.228
X-434.31 Y-44.899
X-434.245 Y-44.842
X-432.679 Y-43.524
X-432.616 Y-43.472
X-430.978 Y-42.165
X-430.916 Y-42.117
X-429.205 Y-40.822
X-429.145 Y-40.778
X-427.363 Y-39.495
X-427.304 Y-39.454
X-425.45 Y-38.184
X-425.395 Y-38.147
X-423.472 Y-36.891
X-423.416 Y-36.855
X-421.423 Y-35.613
X-421.37 Y-35.581
X-419.308 Y-34.353
X-419.256 Y-34.323
X-417.126 Y-33.111
X-417.077 Y-33.083
X-414.881 Y-31.886
X-414.832 Y-31.86
X-412.569 Y-30.679
X-412.522 Y-30.655
X-410.194 Y-29.491
X-410.148 Y-29.468
X-407.755 Y-28.32
X-407.711 Y-28.3
X-405.256 Y-27.17
X-405.213 Y-27.15
X-402.695 Y-26.038
X-402.653 Y-26.019
X-400.073 Y-24.925
X-400.032 Y-24.909
X-397.393 Y-23.833
X-397.354 Y-23.817
X-394.655 Y-22.761
X-394.616 Y-22.746
X-391.858 Y-21.709
X-391.821 Y-21.696
X-389.007 Y-20.679
X-388.971 Y-20.666
X-386.101 Y-19.669
X-386.065 Y-19.657
X-383.14 Y-18.682
X-383.105 Y-18.67
X-380.126 Y-17.716
X-380.092 Y-17.705
X-377.06 Y-16.772
X-377.028 Y-16.762
X-373.946 Y-15.851
X-373.913 Y-15.842
X-370.78 Y-14.953
X-370.749 Y-14.944
X-367.568 Y-14.078
X-367.537 Y-14.07
X-364.308 Y-13.227
X-364.278 Y-13.219
X-361.003 Y-12.399
X-360.973 Y-12.392
X-357.652 Y-11.596
X-357.623 Y-11.589
X-354.26 Y-10.817
X-354.231 Y-10.81
X-350.824 Y-10.062
X-350.797 Y-10.056
X-347.35 Y-9.333
X-347.322 Y-9.327
X-343.836 Y-8.628
X-343.809 Y-8.623
X-340.284 Y-7.95
X-340.258 Y-7.945
X-336.697 Y-7.297
X-336.67 Y-7.292
X-333.073 Y-6.669
X-333.048 Y-6.665
X-329.417 Y-6.069
X-329.391 Y-6.065
X-325.728 Y-5.494
X-325.703 Y-5.49
X-322.009 Y-4.946
X-321.984 Y-4.943
X-318.26 Y-4.425
X-318.236 Y-4.422
X-314.484 Y-3.931
X-314.46 Y-3.928
X-310.682 Y-3.465
X-310.658 Y-3.462
X-306.855 Y-3.025
X-306.831 Y-3.022
X-303.004 Y-2.613
X-302.98 Y-2.611
X-299.131 Y-2.229
X-299.108 Y-2.227
X-295.239 Y-1.873
X-295.216 Y-1.871
X-291.328 Y-1.545
X-291.305 Y-1.543
X-287.399 Y-1.245
X-287.376 Y-1.243
X-283.455 Y-0.973
X-283.433 Y-0.971
X-279.497 Y-0.729
X-279.474 Y-0.728
X-275.526 Y-0.514
X-275.504 Y-0.513
X-271.545 Y-0.327
X-271.523 Y-0.326
X-267.554 Y-0.169
X-267.531
X-263.554 Y-0.04
X-263.532 Y-0.039
X-259.549 Y0.061
X-259.527
X-255.539 Y0.133
X-255.517
X-251.526 Y0.176
X-251.504
X-247.511 Y0.19
X-247.489
X-243.496 Y0.176
X-243.474
X-239.483 Y0.133
X-239.461
X-235.473 Y0.061
X-235.451
X-231.468 Y-0.039
X-231.446 Y-0.04
X-227.469 Y-0.169
X-227.446
X-223.477 Y-0.326
X-223.455 Y-0.327
X-219.496 Y-0.513
X-219.474 Y-0.514
X-215.526 Y-0.728
X-215.503 Y-0.729
X-211.567 Y-0.971
X-211.545 Y-0.973
X-207.624 Y-1.243
X-207.601 Y-1.245
X-203.695 Y-1.543
X-203.672 Y-1.545
X-199.784 Y-1.871
X-199.761 Y-1.873
X-195.892 Y-2.227
X-195.869 Y-2.229
X-192.02 Y-2.611
X-191.996 Y-2.613
X-188.169 Y-3.022
X-188.145 Y-3.025
X-184.342 Y-3.462
X-184.318 Y-3.465
X-180.54 Y-3.928
X-180.516 Y-3.931
X-176.764 Y-4.422
X-176.74 Y-4.425
X-173.016 Y-4.943
X-172.991 Y-4.946
X-169.297 Y-5.49
X-169.272 Y-5.494
X-165.609 Y-6.065
X-165.583 Y-6.069
X-161.952 Y-6.665
X-161.927 Y-6.669
X-158.33 Y-7.292
X-158.303 Y-7.297
X-154.742 Y-7.945
X-154.716 Y-7.95
X-151.191 Y-8.623
X-151.164 Y-8.628
X-147.678 Y-9.327
X-147.65 Y-9.333
X-144.203 Y-10.056
X-144.176 Y-10.062
X-140.769 Y-10.81
X-140.74 Y-10.817
X-137.377 Y-11.589
X-137.348 Y-11.596
X-134.027 Y-12.392
X-133.997 Y-12.399
X-130.722 Y-13.219
X-130.692 Y-13.227
X-127.463 Y-14.07
X-127.432 Y-14.078
X-124.251 Y-14.944
X-124.22 Y-14.953
X-121.087 Y-15.842
X-121.054 Y-15.851
X-117.972 Y-16.762
X-117.94 Y-16.772
X-114.908 Y-17.705
X-114.874 Y-17.716
X-111.895 Y-18.67
X-111.86 Y-18.682
X-108.935 Y-19.657
X-108.899 Y-19.669
X-106.029 Y-20.666
X-105.993 Y-20.679
X-103.179 Y-21.696
X-103.142 Y-21.709
X-100.384 Y-22.746
X-100.345 Y-22.761
X-97.646 Y-23.817
X-97.607 Y-23.833
X-94.967 Y-24.908
X-94.927 Y-24.925
X-92.347 Y-26.02
X-92.306 Y-26.038
X-89.788 Y-27.15
X-89.745 Y-27.169
X-87.289 Y-28.3
X-87.245 Y-28.321
X-84.852 Y-29.468
X-84.807 Y-29.491
X-82.479 Y-30.655
X-82.431 Y-30.679
X-80.169 Y-31.86
X-80.12 Y-31.886
X-77.923 Y-33.083
X-77.873 Y-33.111
X-75.744 Y-34.323
X-75.692 Y-34.354
X-73.63 Y-35.581
X-73.577 Y-35.613
X-71.584 Y-36.855
X-71.529 Y-36.89
X-69.605 Y-38.147
X-69.549 Y-38.184
X-67.695 Y-39.454
X-67.637 Y-39.495
X-65.855 Y-40.778
X-65.795 Y-40.822
X-64.084 Y-42.117
X-64.022 Y-42.165
X-62.384 Y-43.472
X-62.32 Y-43.524
X-60.755 Y-44.843
X-60.69 Y-44.899
X-59.198 Y-46.228
X-59.132 Y-46.29
X-57.714 Y-47.63
X-57.647 Y-47.696
X-56.304 Y-49.045
X-56.235 Y-49.117
X-54.968 Y-50.476
X-54.898 Y-50.554
X-53.707 Y-51.922
X-53.636 Y-52.005
X-52.521 Y-53.382
X-52.451 Y-53.472
X-51.412 Y-54.856
X-51.342 Y-54.954
X-50.381 Y-56.345
X-50.312 Y-56.45
X-49.669 Y-57.466
X-49.428 Y-57.848
X-49.36 Y-57.96
X-48.554 Y-59.364
X-48.489 Y-59.484
X-47.761 Y-60.893
X-47.699 Y-61.022
X-47.05 Y-62.436
X-46.992 Y-62.572
X-46.421 Y-63.99
X-46.368 Y-64.133
X-45.877 Y-65.556
X-45.829 Y-65.706
X-45.417 Y-67.132
X-45.377 Y-67.288
X-45.044 Y-68.716
X-45.011 Y-68.878
X-44.758 Y-70.308
X-44.733 Y-70.474
X-44.559 Y-71.906
X-44.544 Y-72.075
X-44.45 Y-73.508
X-44.443 Y-73.679
X-44.429 Y-75.112
X-44.432 Y-75.283
X-44.498 Y-76.716
X-44.51 Y-76.886
X-44.656 Y-78.318
X-44.677 Y-78.485
X-44.902 Y-79.916
X-44.932 Y-80.08
X-45.237 Y-81.509
X-45.275 Y-81.667
X-45.659 Y-83.094
X-45.704 Y-83.246
X-46.167 Y-84.67
X-46.219 Y-84.816
X-46.761 Y-86.236
X-46.818 Y-86.374
X-47.439 Y-87.79
X-47.5 Y-87.921
X-48.2 Y-89.332
X-48.264 Y-89.455
X-49.042 Y-90.861
X-49.109 Y-90.976
X-49.965 Y-92.376
X-50.034 Y-92.484
X-50.968 Y-93.877
X-51.038 Y-93.977
X-52.049 Y-95.364
X-52.119 Y-95.457
X-53.207 Y-96.836
X-53.278 Y-96.922
X-54.442 Y-98.293
X-54.512 Y-98.373
X-55.753 Y-99.735
X-55.822 Y-99.809
X-57.138 Y-101.162
X-57.206 Y-101.23
X-58.597 Y-102.573
X-58.665 Y-102.637
X-60.13 Y-103.97
X-60.195 Y-104.027
X-61.734 Y-105.35
X-61.799 Y-105.404
X-63.411 Y-106.715
X-63.474 Y-106.764
X-65.159 Y-108.063
X-65.219 Y-108.109
X-66.976 Y-109.396
X-67.034 Y-109.437
X-68.863 Y-110.712
X-68.921 Y-110.752
X-70.819 Y-112.013
X-70.875 Y-112.049
X-72.844 Y-113.296
X-72.898 Y-113.329
X-74.914 Y-114.548
X-74.936 Y-114.561 Z-7.501 F350
X-74.987 Y-114.592 Z-7.502
X-77.093 Y-115.81 Z-7.553
X-77.143 Y-115.838 Z-7.555
X-79.316 Y-117.041 Z-7.607
X-79.365 Y-117.068 Z-7.609
X-81.605 Y-118.255 Z-7.662
X-81.653 Y-118.28 Z-7.663
X-83.958 Y-119.45 Z-7.718
X-84.003 Y-119.473 Z-7.719
X-86.373 Y-120.627 Z-7.775
X-86.419 Y-120.648 Z-7.776
X-88.852 Y-121.784 Z-7.833
X-88.895 Y-121.804 Z-7.834
X-91.391 Y-122.923 Z-7.892
X-91.433 Y-122.941 Z-7.893
X-93.991 Y-124.042 Z-7.952
X-94.032 Y-124.06 Z-7.953
X-96.651 Y-125.142 Z-8.013
X-96.691 Y-125.158 Z-8.014
X-99.369 Y-126.221 Z-8.076
X-99.407 Y-126.236
X-102.144 Y-127.28 Z-8.139
X-102.182 Y-127.294
X-104.976 Y-128.318 Z-8.203
X-105.014 Y-128.332
X-107.865 Y-129.335 Z-8.268
X-107.9 Y-129.347
X-110.806 Y-130.33 Z-8.333
X-110.841 Y-130.341 Z-8.334
X-113.801 Y-131.303 Z-8.4
X-113.834 Y-131.314 Z-8.401
X-116.846 Y-132.255 Z-8.468
X-116.88 Y-132.265 Z-8.469
X-119.945 Y-133.184 Z-8.537
X-119.977 Y-133.194
X-123.092 Y-134.091 Z-8.606
X-123.124 Y-134.1 Z-8.607
X-126.288 Y-134.974 Z-8.676
X-126.32 Y-134.982 Z-8.677
X-129.533 Y-135.834 Z-8.748
X-129.563 Y-135.841
X-132.822 Y-136.669 Z-8.82
X-132.851 Y-136.677
X-136.155 Y-137.482 Z-8.892
X-136.185 Y-137.489 Z-8.893
X-139.534 Y-138.27 Z-8.966
X-139.562 Y-138.276 Z-8.967
X-141.101 Y-138.62 Z-9
X-142.953 Y-139.033 F850
X-142.982 Y-139.039
X-146.414 Y-139.771
X-146.442 Y-139.777
X-149.915 Y-140.484
X-149.941 Y-140.489
X-153.453 Y-141.172
X-153.48 Y-141.178
X-157.028 Y-141.835
X-157.055 Y-141.839
X-160.64 Y-142.47
X-160.665 Y-142.475
X-164.283 Y-143.081
X-164.309 Y-143.085
X-167.961 Y-143.665
X-167.987 Y-143.669
X-171.671 Y-144.222
X-171.695 Y-144.225
X-175.408 Y-144.752
X-175.433 Y-144.756
X-179.175 Y-145.256
X-179.198 Y-145.259
X-182.967 Y-145.733
X-182.992 Y-145.736
X-186.786 Y-146.182
X-186.81 Y-146.185
X-190.629 Y-146.604
X-190.653 Y-146.606
X-194.494 Y-146.997
X-194.516 Y-146.999
X-198.378 Y-147.363
X-198.402 Y-147.366
X-202.284 Y-147.702
X-202.307 Y-147.703
X-206.207 Y-148.011
X-206.23 Y-148.013
X-210.146 Y-148.293
X-210.168 Y-148.295
X-214.098 Y-148.547
X-214.121 Y-148.548
X-215.273 Y-148.613
G2 X-231.924 Y-164.166 I-17.586 J2.139
X-232.859 Y-164.191 I-0.935 J17.691
X-247.5 Y-156.451 J17.716
X-262.141 Y-164.191 I-14.64 J9.976
X-279.727 Y-148.613 J17.716
G1 X-280.879 Y-148.548
X-280.902 Y-148.547
X-284.832 Y-148.295
X-284.854 Y-148.293
X-288.77 Y-148.013
X-288.793 Y-148.011
X-292.693 Y-147.703
X-292.716 Y-147.702
X-296.598 Y-147.366
X-296.622 Y-147.363
X-300.484 Y-146.999
X-300.506 Y-146.997
X-304.347 Y-146.606
X-304.371 Y-146.604
X-308.19 Y-146.185
X-308.214 Y-146.182
X-312.008 Y-145.736
X-312.033 Y-145.733
X-315.802 Y-145.259
X-315.825 Y-145.256
X-319.567 Y-144.756
X-319.592 Y-144.752
X-323.305 Y-144.225
X-323.329 Y-144.222
X-327.013 Y-143.669
X-327.039 Y-143.665
X-330.691 Y-143.085
X-330.717 Y-143.081
X-334.335 Y-142.475
X-334.36 Y-142.47
X-337.945 Y-141.839
X-337.972 Y-141.835
X-341.52 Y-141.178
X-341.547 Y-141.172
X-345.059 Y-140.489
X-345.085 Y-140.484
X-348.558 Y-139.777
X-348.586 Y-139.771
X-352.018 Y-139.039
X-352.047 Y-139.033
X-355.438 Y-138.276
X-355.466 Y-138.27
X-358.815 Y-137.489
X-358.845 Y-137.482
X-362.149 Y-136.677
X-362.178 Y-136.669
X-365.437 Y-135.841
X-365.467 Y-135.834
X-368.68 Y-134.982
X-368.712 Y-134.974
X-371.876 Y-134.1
X-371.908 Y-134.091
X-375.023 Y-133.194
X-375.055 Y-133.184
X-378.12 Y-132.265
X-378.154 Y-132.255
X-381.166 Y-131.314
X-381.199 Y-131.303
X-384.159 Y-130.341
X-384.194 Y-130.33
X-387.1 Y-129.347
X-387.135 Y-129.335
X-389.986 Y-128.332
X-390.024 Y-128.318
X-392.818 Y-127.294
X-392.856 Y-127.28
X-395.593 Y-126.236
X-395.631 Y-126.221
X-398.309 Y-125.158
X-398.35 Y-125.142
X-400.968 Y-124.06
X-401.009 Y-124.042
X-403.567 Y-122.941
X-403.609 Y-122.923
X-406.105 Y-121.804
X-406.147 Y-121.784
X-408.582 Y-120.648
X-408.628 Y-120.626
X-410.997 Y-119.472
X-411.042 Y-119.45
X-413.347 Y-118.28
X-413.395 Y-118.255
X-415.635 Y-117.068
X-415.684 Y-117.041
X-417.857 Y-115.838
X-417.908 Y-115.81
X-420.013 Y-114.592
X-420.064 Y-114.562
X-422.102 Y-113.33
X-422.156 Y-113.296
X-424.125 Y-112.049
X-424.182 Y-112.012
X-426.08 Y-110.751
X-426.136 Y-110.713
X-427.965 Y-109.438
X-428.024 Y-109.396
X-429.781 Y-108.109
X-429.841 Y-108.063
X-431.526 Y-106.764
X-431.588 Y-106.715
X-433.201 Y-105.404
X-433.267 Y-105.35
X-434.806 Y-104.027
X-434.87 Y-103.969
X-436.335 Y-102.636
X-436.403 Y-102.573
X-437.794 Y-101.23
X-437.862 Y-101.162
X-439.178 Y-99.809
X-439.246 Y-99.736
X-440.487 Y-98.373
X-440.558 Y-98.292
X-441.722 Y-96.921
X-441.792 Y-96.836
X-442.88 Y-95.457
X-442.95 Y-95.365
X-443.962 Y-93.978
X-444.033 Y-93.876
X-444.966 Y-92.483
X-445.034 Y-92.376
X-445.89 Y-90.976
X-445.957 Y-90.862
X-446.736 Y-89.456
X-446.802 Y-89.331
X-447.5 Y-87.92
X-447.561 Y-87.79
X-448.182 Y-86.374
X-448.238 Y-86.237
X-448.781 Y-84.817
X-448.833 Y-84.67
X-449.296 Y-83.246
X-449.341 Y-83.094
X-449.725 Y-81.667
X-449.764 Y-81.508
X-450.068 Y-80.079
X-450.098 Y-79.917
X-450.323 Y-78.486
X-450.344 Y-78.318
X-450.489 Y-76.885
X-450.502 Y-76.717
X-450.568 Y-75.284
X-450.571 Y-75.112
X-450.557 Y-73.679
X-450.55 Y-73.508
X-450.456 Y-72.075
X-450.441 Y-71.905
X-450.267 Y-70.473
X-450.242 Y-70.309
X-449.989 Y-68.878
X-449.956 Y-68.717
X-449.624 Y-67.289
X-449.583 Y-67.132
X-449.171 Y-65.706
X-449.123 Y-65.554
X-448.631 Y-64.132
X-448.578 Y-63.991
X-448.008 Y-62.572
X-447.95 Y-62.436
X-447.301 Y-61.022
X-447.239 Y-60.894
X-446.512 Y-59.485
X-446.446 Y-59.364
X-445.64 Y-57.96
X-445.572 Y-57.847
X-444.688 Y-56.449
X-444.619 Y-56.345
X-443.658 Y-54.954
X-443.588 Y-54.857
X-442.55 Y-53.473
X-442.479 Y-53.382
X-441.364 Y-52.006
X-441.293 Y-51.921
X-440.101 Y-50.553
X-440.032 Y-50.476
X-438.765 Y-49.117
X-438.696 Y-49.045
X-437.353 Y-47.695
X-437.286 Y-47.63
X-435.869 Y-46.29
X-435.802 Y-46.228
X-434.31 Y-44.899
X-434.245 Y-44.842
X-432.679 Y-43.524
X-432.616 Y-43.472
X-430.978 Y-42.165
X-430.916 Y-42.117
X-429.205 Y-40.822
X-429.145 Y-40.778
X-427.363 Y-39.495
X-427.304 Y-39.454
X-425.45 Y-38.184
X-425.395 Y-38.147
X-423.472 Y-36.891
X-423.416 Y-36.855
X-421.423 Y-35.613
X-421.37 Y-35.581
X-419.308 Y-34.353
X-419.256 Y-34.323
X-417.126 Y-33.111
X-417.077 Y-33.083
X-414.881 Y-31.886
X-414.832 Y-31.86
X-412.569 Y-30.679
X-412.522 Y-30.655
X-410.194 Y-29.491
X-410.148 Y-29.468
X-407.755 Y-28.32
X-407.711 Y-28.3
X-405.256 Y-27.17
X-405.213 Y-27.15
X-402.695 Y-26.038
X-402.653 Y-26.019
X-400.073 Y-24.925
X-400.032 Y-24.909
X-397.393 Y-23.833
X-397.354 Y-23.817
X-394.655 Y-22.761
X-394.616 Y-22.746
X-391.858 Y-21.709
X-391.821 Y-21.696
X-389.007 Y-20.679
X-388.971 Y-20.666
X-386.101 Y-19.669
X-386.065 Y-19.657
X-383.14 Y-18.682
X-383.105 Y-18.67
X-380.126 Y-17.716
X-380.092 Y-17.705
X-377.06 Y-16.772
X-377.028 Y-16.762
X-373.946 Y-15.851
X-373.913 Y-15.842
X-370.78 Y-14.953
X-370.749 Y-14.944
X-367.568 Y-14.078
X-367.537 Y-14.07
X-364.308 Y-13.227
X-364.278 Y-13.219
X-361.003 Y-12.399
X-360.973 Y-12.392
X-357.652 Y-11.596
X-357.623 Y-11.589
X-354.26 Y-10.817
X-354.231 Y-10.81
X-350.824 Y-10.062
X-350.797 Y-10.056
X-347.35 Y-9.333
X-347.322 Y-9.327
X-343.836 Y-8.628
X-343.809 Y-8.623
X-340.284 Y-7.95
X-340.258 Y-7.945
X-336.697 Y-7.297
X-336.67 Y-7.292
X-333.073 Y-6.669
X-333.048 Y-6.665
X-329.417 Y-6.069
X-329.391 Y-6.065
X-325.728 Y-5.494
X-325.703 Y-5.49
X-322.009 Y-4.946
X-321.984 Y-4.943
X-318.26 Y-4.425
X-318.236 Y-4.422
X-314.484 Y-3.931
X-314.46 Y-3.928
X-310.682 Y-3.465
X-310.658 Y-3.462
X-306.855 Y-3.025
X-306.831 Y-3.022
X-303.004 Y-2.613
X-302.98 Y-2.611
X-299.131 Y-2.229
X-299.108 Y-2.227
X-295.239 Y-1.873
X-295.216 Y-1.871
X-291.328 Y-1.545
X-291.305 Y-1.543
X-287.399 Y-1.245
X-287.376 Y-1.243
X-283.455 Y-0.973
X-283.433 Y-0.971
X-279.497 Y-0.729
X-279.474 Y-0.728
X-275.526 Y-0.514
X-275.504 Y-0.513
X-271.545 Y-0.327
X-271.523 Y-0.326
X-267.554 Y-0.169
X-267.531
X-263.554 Y-0.04
X-263.532 Y-0.039
X-259.549 Y0.061
X-259.527
X-255.539 Y0.133
X-255.517
X-251.526 Y0.176
X-251.504
X-247.511 Y0.19
X-247.489
X-243.496 Y0.176
X-243.474
X-239.483 Y0.133
X-239.461
X-235.473 Y0.061
X-235.451
X-231.468 Y-0.039
X-231.446 Y-0.04
X-227.469 Y-0.169
X-227.446
X-223.477 Y-0.326
X-223.455 Y-0.327
X-219.496 Y-0.513
X-219.474 Y-0.514
X-215.526 Y-0.728
X-215.503 Y-0.729
X-211.567 Y-0.971
X-211.545 Y-0.973
X-207.624 Y-1.243
X-207.601 Y-1.245
X-203.695 Y-1.543
X-203.672 Y-1.545
X-199.784 Y-1.871
X-199.761 Y-1.873
X-195.892 Y-2.227
X-195.869 Y-2.229
X-192.02 Y-2.611
X-191.996 Y-2.613
X-188.169 Y-3.022
X-188.145 Y-3.025
X-184.342 Y-3.462
X-184.318 Y-3.465
X-180.54 Y-3.928
X-180.516 Y-3.931
X-176.764 Y-4.422
X-176.74 Y-4.425
X-173.016 Y-4.943
X-172.991 Y-4.946
X-169.297 Y-5.49
X-169.272 Y-5.494
X-165.609 Y-6.065
X-165.583 Y-6.069
X-161.952 Y-6.665
X-161.927 Y-6.669
X-158.33 Y-7.292
X-158.303 Y-7.297
X-154.742 Y-7.945
X-154.716 Y-7.95
X-151.191 Y-8.623
X-151.164 Y-8.628
X-147.678 Y-9.327
X-147.65 Y-9.333
X-144.203 Y-10.056
X-144.176 Y-10.062
X-140.769 Y-10.81
X-140.74 Y-10.817
X-137.377 Y-11.589
X-137.348 Y-11.596
X-134.027 Y-12.392
X-133.997 Y-12.399
X-130.722 Y-13.219
X-130.692 Y-13.227
X-127.463 Y-14.07
X-127.432 Y-14.078
X-124.251 Y-14.944
X-124.22 Y-14.953
X-121.087 Y-15.842
X-121.054 Y-15.851
X-117.972 Y-16.762
X-117.94 Y-16.772
X-114.908 Y-17.705
X-114.874 Y-17.716
X-111.895 Y-18.67
X-111.86 Y-18.682
X-108.935 Y-19.657
X-108.899 Y-19.669
X-106.029 Y-20.666
X-105.993 Y-20.679
X-103.179 Y-21.696
X-103.142 Y-21.709
X-100.384 Y-22.746
X-100.345 Y-22.761
X-97.646 Y-23.817
X-97.607 Y-23.833
X-94.967 Y-24.908
X-94.927 Y-24.925
X-92.347 Y-26.02
X-92.306 Y-26.038
X-89.788 Y-27.15
X-89.745 Y-27.169
X-87.289 Y-28.3
X-87.245 Y-28.321
X-84.852 Y-29.468
X-84.807 Y-29.491
X-82.479 Y-30.655
X-82.431 Y-30.679
X-80.169 Y-31.86
X-80.12 Y-31.886
X-77.923 Y-33.083
X-77.873 Y-33.111
X-75.744 Y-34.323
X-75.692 Y-34.354
X-73.63 Y-35.581
X-73.577 Y-35.613
X-71.584 Y-36.855
X-71.529 Y-36.89
X-69.605 Y-38.147
X-69.549 Y-38.184
X-67.695 Y-39.454
X-67.637 Y-39.495
X-65.855 Y-40.778
X-65.795 Y-40.822
X-64.084 Y-42.117
X-64.022 Y-42.165
X-62.384 Y-43.472
X-62.32 Y-43.524
X-60.755 Y-44.843
X-60.69 Y-44.899
X-59.198 Y-46.228
X-59.132 Y-46.29
X-57.714 Y-47.63
X-57.647 Y-47.696
X-56.304 Y-49.045
X-56.235 Y-49.117
X-54.968 Y-50.476
X-54.898 Y-50.554
X-53.707 Y-51.922
X-53.636 Y-52.005
X-52.521 Y-53.382
X-52.451 Y-53.472
X-51.412 Y-54.856
X-51.342 Y-54.954
X-50.381 Y-56.345
X-50.312 Y-56.45
X-49.428 Y-57.848
X-49.36 Y-57.96
X-48.554 Y-59.364
X-48.489 Y-59.484
X-47.761 Y-60.893
X-47.699 Y-61.022
X-47.05 Y-62.436
X-46.992 Y-62.572
X-46.421 Y-63.99
X-46.368 Y-64.133
X-45.877 Y-65.556
X-45.829 Y-65.706
X-45.417 Y-67.132
X-45.377 Y-67.288
X-45.044 Y-68.716
X-45.011 Y-68.878
X-44.758 Y-70.308
X-44.733 Y-70.474
X-44.559 Y-71.906
X-44.544 Y-72.075
X-44.45 Y-73.508
X-44.443 Y-73.679
X-44.429 Y-75.112
X-44.432 Y-75.283
X-44.498 Y-76.716
X-44.51 Y-76.886
X-44.656 Y-78.318
X-44.677 Y-78.485
X-44.902 Y-79.916
X-44.932 Y-80.08
X-45.237 Y-81.509
X-45.275 Y-81.667
X-45.659 Y-83.094
X-45.704 Y-83.246
X-46.167 Y-84.67
X-46.219 Y-84.816
X-46.761 Y-86.236
X-46.818 Y-86.374
X-47.439 Y-87.79
X-47.5 Y-87.921
X-48.2 Y-89.332
X-48.264 Y-89.455
X-49.042 Y-90.861
X-49.109 Y-90.976
X-49.965 Y-92.376
X-50.034 Y-92.484
X-50.968 Y-93.877
X-51.038 Y-93.977
X-52.049 Y-95.364
X-52.119 Y-95.457
X-53.207 Y-96.836
X-53.278 Y-96.922
X-54.442 Y-98.293
X-54.512 Y-98.373
X-55.753 Y-99.735
X-55.822 Y-99.809
X-57.138 Y-101.162
X-57.206 Y-101.23
X-58.597 Y-102.573
X-58.665 Y-102.637
X-60.13 Y-103.97
X-60.195 Y-104.027
X-61.734 Y-105.35
X-61.799 Y-105.404
X-63.411 Y-106.715
X-63.474 Y-106.764
X-65.159 Y-108.063
X-65.219 Y-108.109
X-66.976 Y-109.396
X-67.034 Y-109.437
X-68.863 Y-110.712
X-68.921 Y-110.752
X-70.819 Y-112.013
X-70.875 Y-112.049
X-72.844 Y-113.296
X-72.898 Y-113.329
X-74.914 Y-114.548
X-74.936 Y-114.561
X-74.987 Y-114.592
X-77.093 Y-115.81
X-77.143 Y-115.838
X-79.316 Y-117.041
X-79.365 Y-117.068
X-81.605 Y-118.255
X-81.653 Y-118.28
X-83.958 Y-119.45
X-84.003 Y-119.473
X-86.373 Y-120.627
X-86.419 Y-120.648
X-88.852 Y-121.784
X-88.895 Y-121.804
X-91.391 Y-122.923
X-91.433 Y-122.941
X-93.991 Y-124.042
X-94.032 Y-124.06
X-96.651 Y-125.142
X-96.691 Y-125.158
X-99.369 Y-126.221
X-99.407 Y-126.236
X-102.144 Y-127.28
X-102.182 Y-127.294
X-104.976 Y-128.318
X-105.014 Y-128.332
X-107.865 Y-129.335
X-107.9 Y-129.347
X-110.806 Y-130.33
X-110.841 Y-130.341
X-113.801 Y-131.303
X-113.834 Y-131.314
X-116.846 Y-132.255
X-116.88 Y-132.265
X-119.945 Y-133.184
X-119.977 Y-133.194
X-123.092 Y-134.091
X-123.124 Y-134.1
X-126.288 Y-134.974
X-126.32 Y-134.982
X-129.533 Y-135.834
X-129.563 Y-135.841
X-132.822 Y-136.669
X-132.851 Y-136.677
X-136.155 Y-137.482
X-136.185 Y-137.489
X-139.534 Y-138.27
X-139.562 Y-138.276
X-141.101 Y-138.62
X-142.953 Y-139.033 Z-9.04 F350
X-142.982 Y-139.039 Z-9.041
X-146.414 Y-139.771 Z-9.115
X-146.442 Y-139.777 Z-9.116
X-149.915 Y-140.484 Z-9.191
X-149.941 Y-140.489 Z-9.192
X-153.453 Y-141.172 Z-9.268
X-153.48 Y-141.178
X-157.028 Y-141.835 Z-9.345
X-157.055 Y-141.839
X-160.64 Y-142.47 Z-9.423
X-160.665 Y-142.475
X-164.283 Y-143.081 Z-9.501
X-164.309 Y-143.085
X-167.961 Y-143.665 Z-9.58
X-167.987 Y-143.669
X-171.671 Y-144.222 Z-9.66
X-171.695 Y-144.225
X-175.408 Y-144.752 Z-9.74
X-175.433 Y-144.756
X-179.175 Y-145.256 Z-9.82
X-179.198 Y-145.259 Z-9.821
X-182.967 Y-145.733 Z-9.901
X-182.992 Y-145.736 Z-9.902
X-186.786 Y-146.182 Z-9.983
X-186.81 Y-146.185
X-190.629 Y-146.604 Z-10.065
X-190.653 Y-146.606
X-194.494 Y-146.997 Z-10.147
X-194.516 Y-146.999 Z-10.148
X-198.378 Y-147.363 Z-10.23
X-198.402 Y-147.366 Z-10.231
X-202.284 Y-147.702 Z-10.313
X-202.307 Y-147.703 Z-10.314
X-206.207 Y-148.011 Z-10.397
X-206.23 Y-148.013
X-210.146 Y-148.293 Z-10.481
X-210.168 Y-148.295
X-211.062 Y-148.352 Z-10.5
X-214.098 Y-148.547 F850
X-214.121 Y-148.548
X-215.273 Y-148.613
G2 X-231.924 Y-164.166 I-17.586 J2.139
X-232.859 Y-164.191 I-0.935 J17.691
X-247.5 Y-156.451 J17.716
X-262.141 Y-164.191 I-14.64 J9.976
X-279.727 Y-148.613 J17.716
G1 X-280.879 Y-148.548
X-280.902 Y-148.547
X-284.832 Y-148.295
X-284.854 Y-148.293
X-288.77 Y-148.013
X-288.793 Y-148.011
X-292.693 Y-147.703
X-292.716 Y-147.702
X-296.598 Y-147.366
X-296.622 Y-147.363
X-300.484 Y-146.999
X-300.506 Y-146.997
X-304.347 Y-146.606
X-304.371 Y-146.604
X-308.19 Y-146.185
X-308.214 Y-146.182
X-312.008 Y-145.736
X-312.033 Y-145.733
X-315.802 Y-145.259
X-315.825 Y-145.256
X-319.567 Y-144.756
X-319.592 Y-144.752
X-323.305 Y-144.225
X-323.329 Y-144.222
X-327.013 Y-143.669
X-327.039 Y-143.665
X-330.691 Y-143.085
X-330.717 Y-143.081
X-334.335 Y-142.475
X-334.36 Y-142.47
X-337.945 Y-141.839
X-337.972 Y-141.835
X-341.52 Y-141.178
X-341.547 Y-141.172
X-345.059 Y-140.489
X-345.085 Y-140.484
X-348.558 Y-139.777
X-348.586 Y-139.771
X-352.018 Y-139.039
X-352.047 Y-139.033
X-355.438 Y-138.276
X-355.466 Y-138.27
X-358.815 Y-137.489
X-358.845 Y-137.482
X-362.149 Y-136.677
X-362.178 Y-136.669
X-365.437 Y-135.841
X-365.467 Y-135.834
X-368.68 Y-134.982
X-368.712 Y-134.974
X-371.876 Y-134.1
X-371.908 Y-134.091
X-375.023 Y-133.194
X-375.055 Y-133.184
X-378.12 Y-132.265
X-378.154 Y-132.255
X-381.166 Y-131.314
X-381.199 Y-131.303
X-384.159 Y-130.341
X-384.194 Y-130.33
X-387.1 Y-129.347
X-387.135 Y-129.335
X-389.986 Y-128.332
X-390.024 Y-128.318
X-392.818 Y-127.294
X-392.856 Y-127.28
X-395.593 Y-126.236
X-395.631 Y-126.221
X-398.309 Y-125.158
X-398.35 Y-125.142
X-400.968 Y-124.06
X-401.009 Y-124.042
X-403.567 Y-122.941
X-403.609 Y-122.923
X-406.105 Y-121.804
X-406.147 Y-121.784
X-408.582 Y-120.648
X-408.628 Y-120.626
X-410.997 Y-119.472
X-411.042 Y-119.45
X-413.347 Y-118.28
X-413.395 Y-118.255
X-415.635 Y-117.068
X-415.684 Y-117.041
X-417.857 Y-115.838
X-417.908 Y-115.81
X-420.013 Y-114.592
X-420.064 Y-114.562
X-422.102 Y-113.33
X-422.156 Y-113.296
X-424.125 Y-112.049
X-424.182 Y-112.012
X-426.08 Y-110.751
X-426.136 Y-110.713
X-427.965 Y-109.438
X-428.024 Y-109.396
X-429.781 Y-108.109
X-429.841 Y-108.063
X-431.526 Y-106.764
X-431.588 Y-106.715
X-433.201 Y-105.404
X-433.267 Y-105.35
X-434.806 Y-104.027
X-434.87 Y-103.969
X-436.335 Y-102.636
X-436.403 Y-102.573
X-437.794 Y-101.23
X-437.862 Y-101.162
X-439.178 Y-99.809
X-439.246 Y-99.736
X-440.487 Y-98.373
X-440.558 Y-98.292
X-441.722 Y-96.921
X-441.792 Y-96.836
X-442.88 Y-95.457
X-442.95 Y-95.365
X-443.962 Y-93.978
X-444.033 Y-93.876
X-444.966 Y-92.483
X-445.034 Y-92.376
X-445.89 Y-90.976
X-445.957 Y-90.862
X-446.736 Y-89.456
X-446.802 Y-89.331
X-447.5 Y-87.92
X-447.561 Y-87.79
X-448.182 Y-86.374
X-448.238 Y-86.237
X-448.781 Y-84.817
X-448.833 Y-84.67
X-449.296 Y-83.246
X-449.341 Y-83.094
X-449.725 Y-81.667
X-449.764 Y-81.508
X-450.068 Y-80.079
X-450.098 Y-79.917
X-450.323 Y-78.486
X-450.344 Y-78.318
X-450.489 Y-76.885
X-450.502 Y-76.717
X-450.568 Y-75.284
X-450.571 Y-75.112
X-450.557 Y-73.679
X-450.55 Y-73.508
X-450.456 Y-72.075
X-450.441 Y-71.905
X-450.267 Y-70.473
X-450.242 Y-70.309
X-449.989 Y-68.878
X-449.956 Y-68.717
X-449.624 Y-67.289
X-449.583 Y-67.132
X-449.171 Y-65.706
X-449.123 Y-65.554
X-448.631 Y-64.132
X-448.578 Y-63.991
X-448.008 Y-62.572
X-447.95 Y-62.436
X-447.301 Y-61.022
X-447.239 Y-60.894
X-446.512 Y-59.485
X-446.446 Y-59.364
X-445.64 Y-57.96
X-445.572 Y-57.847
X-444.688 Y-56.449
X-444.619 Y-56.345
X-443.658 Y-54.954
X-443.588 Y-54.857
X-442.55 Y-53.473
X-442.479 Y-53.382
X-441.364 Y-52.006
X-441.293 Y-51.921
X-440.101 Y-50.553
X-440.032 Y-50.476
X-438.765 Y-49.117
X-438.696 Y-49.045
X-437.353 Y-47.695
X-437.286 Y-47.63
X-435.869 Y-46.29
X-435.802 Y-46.228
X-434.31 Y-44.899
X-434.245 Y-44.842
X-432.679 Y-43.524
X-432.616 Y-43.472
X-430.978 Y-42.165
X-430.916 Y-42.117
X-429.205 Y-40.822
X-429.145 Y-40.778
X-427.363 Y-39.495
X-427.304 Y-39.454
X-425.45 Y-38.184
X-425.395 Y-38.147
X-423.472 Y-36.891
X-423.416 Y-36.855
X-421.423 Y-35.613
X-421.37 Y-35.581
X-419.308 Y-34.353
X-419.256 Y-34.323
X-417.126 Y-33.111
X-417.077 Y-33.083
X-414.881 Y-31.886
X-414.832 Y-31.86
X-412.569 Y-30.679
X-412.522 Y-30.655
X-410.194 Y-29.491
X-410.148 Y-29.468
X-407.755 Y-28.32
X-407.711 Y-28.3
X-405.256 Y-27.17
X-405.213 Y-27.15
X-402.695 Y-26.038
X-402.653 Y-26.019
X-400.073 Y-24.925
X-400.032 Y-24.909
X-397.393 Y-23.833
X-397.354 Y-23.817
X-394.655 Y-22.761
X-394.616 Y-22.746
X-391.858 Y-21.709
X-391.821 Y-21.696
X-389.007 Y-20.679
X-388.971 Y-20.666
X-386.101 Y-19.669
X-386.065 Y-19.657
X-383.14 Y-18.682
X-383.105 Y-18.67
X-380.126 Y-17.716
X-380.092 Y-17.705
X-377.06 Y-16.772
X-377.028 Y-16.762
X-373.946 Y-15.851
X-373.913 Y-15.842
X-370.78 Y-14.953
X-370.749 Y-14.944
X-367.568 Y-14.078
X-367.537 Y-14.07
X-364.308 Y-13.227
X-364.278 Y-13.219
X-361.003 Y-12.399
X-360.973 Y-12.392
X-357.652 Y-11.596
X-357.623 Y-11.589
X-354.26 Y-10.817
X-354.231 Y-10.81
X-350.824 Y-10.062
X-350.797 Y-10.056
X-347.35 Y-9.333
X-347.322 Y-9.327
X-343.836 Y-8.628
X-343.809 Y-8.623
X-340.284 Y-7.95
X-340.258 Y-7.945
X-336.697 Y-7.297
X-336.67 Y-7.292
X-333.073 Y-6.669
X-333.048 Y-6.665
X-329.417 Y-6.069
X-329.391 Y-6.065
X-325.728 Y-5.494
X-325.703 Y-5.49
X-322.009 Y-4.946
X-321.984 Y-4.943
X-318.26 Y-4.425
X-318.236 Y-4.422
X-314.484 Y-3.931
X-314.46 Y-3.928
X-310.682 Y-3.465
X-310.658 Y-3.462
X-306.855 Y-3.025
X-306.831 Y-3.022
X-303.004 Y-2.613
X-302.98 Y-2.611
X-299.131 Y-2.229
X-299.108 Y-2.227
X-295.239 Y-1.873
X-295.216 Y-1.871
X-291.328 Y-1.545
X-291.305 Y-1.543
X-287.399 Y-1.245
X-287.376 Y-1.243
X-283.455 Y-0.973
X-283.433 Y-0.971
X-279.497 Y-0.729
X-279.474 Y-0.728
X-275.526 Y-0.514
X-275.504 Y-0.513
X-271.545 Y-0.327
X-271.523 Y-0.326
X-267.554 Y-0.169
X-267.531
X-263.554 Y-0.04
X-263.532 Y-0.039
X-259.549 Y0.061
X-259.527
X-255.539 Y0.133
X-255.517
X-251.526 Y0.176
X-251.504
X-247.511 Y0.19
X-247.489
X-243.496 Y0.176
X-243.474
X-239.483 Y0.133
X-239.461
X-235.473 Y0.061
X-235.451
X-231.468 Y-0.039
X-231.446 Y-0.04
X-227.469 Y-0.169
X-227.446
X-223.477 Y-0.326
X-223.455 Y-0.327
X-219.496 Y-0.513
X-219.474 Y-0.514
X-215.526 Y-0.728
X-215.503 Y-0.729
X-211.567 Y-0.971
X-211.545 Y-0.973
X-207.624 Y-1.243
X-207.601 Y-1.245
X-203.695 Y-1.543
X-203.672 Y-1.545
X-199.784 Y-1.871
X-199.761 Y-1.873
X-195.892 Y-2.227
X-195.869 Y-2.229
X-192.02 Y-2.611
X-191.996 Y-2.613
X-188.169 Y-3.022
X-188.145 Y-3.025
X-184.342 Y-3.462
X-184.318 Y-3.465
X-180.54 Y-3.928
X-180.516 Y-3.931
X-176.764 Y-4.422
X-176.74 Y-4.425
X-173.016 Y-4.943
X-172.991 Y-4.946
X-169.297 Y-5.49
X-169.272 Y-5.494
X-165.609 Y-6.065
X-165.583 Y-6.069
X-161.952 Y-6.665
X-161.927 Y-6.669
X-158.33 Y-7.292
X-158.303 Y-7.297
X-154.742 Y-7.945
X-154.716 Y-7.95
X-151.191 Y-8.623
X-151.164 Y-8.628
X-147.678 Y-9.327
X-147.65 Y-9.333
X-144.203 Y-10.056
X-144.176 Y-10.062
X-140.769 Y-10.81
X-140.74 Y-10.817
X-137.377 Y-11.589
X-137.348 Y-11.596
X-134.027 Y-12.392
X-133.997 Y-12.399
X-130.722 Y-13.219
X-130.692 Y-13.227
X-127.463 Y-14.07
X-127.432 Y-14.078
X-124.251 Y-14.944
X-124.22 Y-14.953
X-121.087 Y-15.842
X-121.054 Y-15.851
X-117.972 Y-16.762
X-117.94 Y-16.772
X-114.908 Y-17.705
X-114.874 Y-17.716
X-111.895 Y-18.67
X-111.86 Y-18.682
X-108.935 Y-19.657
X-108.899 Y-19.669
X-106.029 Y-20.666
X-105.993 Y-20.679
X-103.179 Y-21.696
X-103.142 Y-21.709
X-100.384 Y-22.746
X-100.345 Y-22.761
X-97.646 Y-23.817
X-97.607 Y-23.833
X-94.967 Y-24.908
X-94.927 Y-24.925
X-92.347 Y-26.02
X-92.306 Y-26.038
X-89.788 Y-27.15
X-89.745 Y-27.169
X-87.289 Y-28.3
X-87.245 Y-28.321
X-84.852 Y-29.468
X-84.807 Y-29.491
X-82.479 Y-30.655
X-82.431 Y-30.679
X-80.169 Y-31.86
X-80.12 Y-31.886
X-77.923 Y-33.083
X-77.873 Y-33.111
X-75.744 Y-34.323
X-75.692 Y-34.354
X-73.63 Y-35.581
X-73.577 Y-35.613
X-71.584 Y-36.855
X-71.529 Y-36.89
X-69.605 Y-38.147
X-69.549 Y-38.184
X-67.695 Y-39.454
X-67.637 Y-39.495
X-65.855 Y-40.778
X-65.795 Y-40.822
X-64.084 Y-42.117
X-64.022 Y-42.165
X-62.384 Y-43.472
X-62.32 Y-43.524
X-60.755 Y-44.843
X-60.69 Y-44.899
X-59.198 Y-46.228
X-59.132 Y-46.29
X-57.714 Y-47.63
X-57.647 Y-47.696
X-56.304 Y-49.045
X-56.235 Y-49.117
X-54.968 Y-50.476
X-54.898 Y-50.554
X-53.707 Y-51.922
X-53.636 Y-52.005
X-52.521 Y-53.382
X-52.451 Y-53.472
X-51.412 Y-54.856
X-51.342 Y-54.954
X-50.381 Y-56.345
X-50.312 Y-56.45
X-49.428 Y-57.848
X-49.36 Y-57.96
X-48.554 Y-59.364
X-48.489 Y-59.484
X-47.761 Y-60.893
X-47.699 Y-61.022
X-47.05 Y-62.436
X-46.992 Y-62.572
X-46.421 Y-63.99
X-46.368 Y-64.133
X-45.877 Y-65.556
X-45.829 Y-65.706
X-45.417 Y-67.132
X-45.377 Y-67.288
X-45.044 Y-68.716
X-45.011 Y-68.878
X-44.758 Y-70.308
X-44.733 Y-70.474
X-44.559 Y-71.906
X-44.544 Y-72.075
X-44.45 Y-73.508
X-44.443 Y-73.679
X-44.429 Y-75.112
X-44.432 Y-75.283
X-44.498 Y-76.716
X-44.51 Y-76.886
X-44.656 Y-78.318
X-44.677 Y-78.485
X-44.902 Y-79.916
X-44.932 Y-80.08
X-45.237 Y-81.509
X-45.275 Y-81.667
X-45.659 Y-83.094
X-45.704 Y-83.246
X-46.167 Y-84.67
X-46.219 Y-84.816
X-46.761 Y-86.236
X-46.818 Y-86.374
X-47.439 Y-87.79
X-47.5 Y-87.921
X-48.2 Y-89.332
X-48.264 Y-89.455
X-49.042 Y-90.861
X-49.109 Y-90.976
X-49.965 Y-92.376
X-50.034 Y-92.484
X-50.968 Y-93.877
X-51.038 Y-93.977
X-52.049 Y-95.364
X-52.119 Y-95.457
X-53.207 Y-96.836
X-53.278 Y-96.922
X-54.442 Y-98.293
X-54.512 Y-98.373
X-55.753 Y-99.735
X-55.822 Y-99.809
X-57.138 Y-101.162
X-57.206 Y-101.23
X-58.597 Y-102.573
X-58.665 Y-102.637
X-60.13 Y-103.97
X-60.195 Y-104.027
X-61.734 Y-105.35
X-61.799 Y-105.404
X-63.411 Y-106.715
X-63.474 Y-106.764
X-65.159 Y-108.063
X-65.219 Y-108.109
X-66.976 Y-109.396
X-67.034 Y-109.437
X-68.863 Y-110.712
X-68.921 Y-110.752
X-70.819 Y-112.013
X-70.875 Y-112.049
X-72.844 Y-113.296
X-72.898 Y-113.329
X-74.936 Y-114.561
X-74.987 Y-114.592
X-77.093 Y-115.81
X-77.143 Y-115.838
X-79.316 Y-117.041
X-79.365 Y-117.068
X-81.605 Y-118.255
X-81.653 Y-118.28
X-83.958 Y-119.45
X-84.003 Y-119.473
X-86.373 Y-120.627
X-86.419 Y-120.648
X-88.852 Y-121.784
X-88.895 Y-121.804
X-91.391 Y-122.923
X-91.433 Y-122.941
X-93.991 Y-124.042
X-94.032 Y-124.06
X-96.651 Y-125.142
X-96.691 Y-125.158
X-99.369 Y-126.221
X-99.407 Y-126.236
X-102.144 Y-127.28
X-102.182 Y-127.294
X-104.976 Y-128.318
X-105.014 Y-128.332
X-107.865 Y-129.335
X-107.9 Y-129.347
X-110.806 Y-130.33
X-110.841 Y-130.341
X-113.801 Y-131.303
X-113.834 Y-131.314
X-116.846 Y-132.255
X-116.88 Y-132.265
X-119.945 Y-133.184
X-119.977 Y-133.194
X-123.092 Y-134.091
X-123.124 Y-134.1
X-126.288 Y-134.974
X-126.32 Y-134.982
X-129.533 Y-135.834
X-129.563 Y-135.841
X-132.822 Y-136.669
X-132.851 Y-136.677
X-136.155 Y-137.482
X-136.185 Y-137.489
X-139.534 Y-138.27
X-139.562 Y-138.276
X-142.953 Y-139.033
X-142.982 Y-139.039
X-146.414 Y-139.771
X-146.442 Y-139.777
X-149.915 Y-140.484
X-149.941 Y-140.489
X-153.453 Y-141.172
X-153.48 Y-141.178
X-157.028 Y-141.835
X-157.055 Y-141.839
X-160.64 Y-142.47
X-160.665 Y-142.475
X-164.283 Y-143.081
X-164.309 Y-143.085
X-167.961 Y-143.665
X-167.987 Y-143.669
X-171.671 Y-144.222
X-171.695 Y-144.225
X-175.408 Y-144.752
X-175.433 Y-144.756
X-179.175 Y-145.256
X-179.198 Y-145.259
X-182.967 Y-145.733
X-182.992 Y-145.736
X-186.786 Y-146.182
X-186.81 Y-146.185
X-190.629 Y-146.604
X-190.653 Y-146.606
X-194.494 Y-146.997
X-194.516 Y-146.999
X-198.378 Y-147.363
X-198.402 Y-147.366
X-202.284 Y-147.702
X-202.307 Y-147.703
X-206.207 Y-148.011
X-206.23 Y-148.013
X-210.146 Y-148.293
X-210.168 Y-148.295
X-211.062 Y-148.352
X-214.098 Y-148.547 Z-10.565 F350
X-214.121 Y-148.548
X-215.273 Y-148.613 Z-10.59
G2 X-231.924 Y-164.166 Z-11.115 I-17.586 J2.139
X-232.859 Y-164.191 Z-11.134 I-0.935 J17.691
X-247.5 Y-156.451 Z-11.5 J17.716
X-262.141 Y-164.191 Z-11.866 I-14.64 J9.976
X-268.342 Y-163.07 Z-12 J17.716
X-279.727 Y-148.613 I6.201 J16.595 F850
G1 X-280.879 Y-148.548
X-280.902 Y-148.547
X-284.832 Y-148.295
X-284.854 Y-148.293
X-288.77 Y-148.013
X-288.793 Y-148.011
X-292.693 Y-147.703
X-292.716 Y-147.702
X-296.598 Y-147.366
X-296.622 Y-147.363
X-300.484 Y-146.999
X-300.506 Y-146.997
X-304.347 Y-146.606
X-304.371 Y-146.604
X-308.19 Y-146.185
X-308.214 Y-146.182
X-312.008 Y-145.736
X-312.033 Y-145.733
X-315.802 Y-145.259
X-315.825 Y-145.256
X-319.567 Y-144.756
X-319.592 Y-144.752
X-323.305 Y-144.225
X-323.329 Y-144.222
X-327.013 Y-143.669
X-327.039 Y-143.665
X-330.691 Y-143.085
X-330.717 Y-143.081
X-334.335 Y-142.475
X-334.36 Y-142.47
X-337.945 Y-141.839
X-337.972 Y-141.835
X-341.52 Y-141.178
X-341.547 Y-141.172
X-345.059 Y-140.489
X-345.085 Y-140.484
X-348.558 Y-139.777
X-348.586 Y-139.771
X-352.018 Y-139.039
X-352.047 Y-139.033
X-355.438 Y-138.276
X-355.466 Y-138.27
X-358.815 Y-137.489
X-358.845 Y-137.482
X-362.149 Y-136.677
X-362.178 Y-136.669
X-365.437 Y-135.841
X-365.467 Y-135.834
X-368.68 Y-134.982
X-368.712 Y-134.974
X-371.876 Y-134.1
X-371.908 Y-134.091
X-375.023 Y-133.194
X-375.055 Y-133.184
X-378.12 Y-132.265
X-378.154 Y-132.255
X-381.166 Y-131.314
X-381.199 Y-131.303
X-384.159 Y-130.341
X-384.194 Y-130.33
X-387.1 Y-129.347
X-387.135 Y-129.335
X-389.986 Y-128.332
X-390.024 Y-128.318
X-392.818 Y-127.294
X-392.856 Y-127.28
X-395.593 Y-126.236
X-395.631 Y-126.221
X-398.309 Y-125.158
X-398.35 Y-125.142
X-400.968 Y-124.06
X-401.009 Y-124.042
X-403.567 Y-122.941
X-403.609 Y-122.923
X-406.105 Y-121.804
X-406.147 Y-121.784
X-408.582 Y-120.648
X-408.628 Y-120.626
X-410.997 Y-119.472
X-411.042 Y-119.45
X-413.347 Y-118.28
X-413.395 Y-118.255
X-415.635 Y-117.068
X-415.684 Y-117.041
X-417.857 Y-115.838
X-417.908 Y-115.81
X-420.013 Y-114.592
X-420.064 Y-114.562
X-422.102 Y-113.33
X-422.156 Y-113.296
X-424.125 Y-112.049
X-424.182 Y-112.012
X-426.08 Y-110.751
X-426.136 Y-110.713
X-427.965 Y-109.438
X-428.024 Y-109.396
X-429.781 Y-108.109
X-429.841 Y-108.063
X-431.526 Y-106.764
X-431.588 Y-106.715
X-433.201 Y-105.404
X-433.267 Y-105.35
X-434.806 Y-104.027
X-434.87 Y-103.969
X-436.335 Y-102.636
X-436.403 Y-102.573
X-437.794 Y-101.23
X-437.862 Y-101.162
X-439.178 Y-99.809
X-439.246 Y-99.736
X-440.487 Y-98.373
X-440.558 Y-98.292
X-441.722 Y-96.921
X-441.792 Y-96.836
X-442.88 Y-95.457
X-442.95 Y-95.365
X-443.962 Y-93.978
X-444.033 Y-93.876
X-444.966 Y-92.483
X-445.034 Y-92.376
X-445.89 Y-90.976
X-445.957 Y-90.862
X-446.736 Y-89.456
X-446.802 Y-89.331
X-447.5 Y-87.92
X-447.561 Y-87.79
X-448.182 Y-86.374
X-448.238 Y-86.237
X-448.781 Y-84.817
X-448.833 Y-84.67
X-449.296 Y-83.246
X-449.341 Y-83.094
X-449.725 Y-81.667
X-449.764 Y-81.508
X-450.068 Y-80.079
X-450.098 Y-79.917
X-450.323 Y-78.486
X-450.344 Y-78.318
X-450.489 Y-76.885
X-450.502 Y-76.717
X-450.568 Y-75.284
X-450.571 Y-75.112
X-450.557 Y-73.679
X-450.55 Y-73.508
X-450.456 Y-72.075
X-450.441 Y-71.905
X-450.267 Y-70.473
X-450.242 Y-70.309
X-449.989 Y-68.878
X-449.956 Y-68.717
X-449.624 Y-67.289
X-449.583 Y-67.132
X-449.171 Y-65.706
X-449.123 Y-65.554
X-448.631 Y-64.132
X-448.578 Y-63.991
X-448.008 Y-62.572
X-447.95 Y-62.436
X-447.301 Y-61.022
X-447.239 Y-60.894
X-446.512 Y-59.485
X-446.446 Y-59.364
X-445.64 Y-57.96
X-445.572 Y-57.847
X-444.688 Y-56.449
X-444.619 Y-56.345
X-443.658 Y-54.954
X-443.588 Y-54.857
X-442.55 Y-53.473
X-442.479 Y-53.382
X-441.364 Y-52.006
X-441.293 Y-51.921
X-440.101 Y-50.553
X-440.032 Y-50.476
X-438.765 Y-49.117
X-438.696 Y-49.045
X-437.353 Y-47.695
X-437.286 Y-47.63
X-435.869 Y-46.29
X-435.802 Y-46.228
X-434.31 Y-44.899
X-434.245 Y-44.842
X-432.679 Y-43.524
X-432.616 Y-43.472
X-430.978 Y-42.165
X-430.916 Y-42.117
X-429.205 Y-40.822
X-429.145 Y-40.778
X-427.363 Y-39.495
X-427.304 Y-39.454
X-425.45 Y-38.184
X-425.395 Y-38.147
X-423.472 Y-36.891
X-423.416 Y-36.855
X-421.423 Y-35.613
X-421.37 Y-35.581
X-419.308 Y-34.353
X-419.256 Y-34.323
X-417.126 Y-33.111
X-417.077 Y-33.083
X-414.881 Y-31.886
X-414.832 Y-31.86
X-412.569 Y-30.679
X-412.522 Y-30.655
X-410.194 Y-29.491
X-410.148 Y-29.468
X-407.755 Y-28.32
X-407.711 Y-28.3
X-405.256 Y-27.17
X-405.213 Y-27.15
X-402.695 Y-26.038
X-402.653 Y-26.019
X-400.073 Y-24.925
X-400.032 Y-24.909
X-397.393 Y-23.833
X-397.354 Y-23.817
X-394.655 Y-22.761
X-394.616 Y-22.746
X-391.858 Y-21.709
X-391.821 Y-21.696
X-389.007 Y-20.679
X-388.971 Y-20.666
X-386.101 Y-19.669
X-386.065 Y-19.657
X-383.14 Y-18.682
X-383.105 Y-18.67
X-380.126 Y-17.716
X-380.092 Y-17.705
X-377.06 Y-16.772
X-377.028 Y-16.762
X-373.946 Y-15.851
X-373.913 Y-15.842
X-370.78 Y-14.953
X-370.749 Y-14.944
X-367.568 Y-14.078
X-367.537 Y-14.07
X-364.308 Y-13.227
X-364.278 Y-13.219
X-361.003 Y-12.399
X-360.973 Y-12.392
X-357.652 Y-11.596
X-357.623 Y-11.589
X-354.26 Y-10.817
X-354.231 Y-10.81
X-350.824 Y-10.062
X-350.797 Y-10.056
X-347.35 Y-9.333
X-347.322 Y-9.327
X-343.836 Y-8.628
X-343.809 Y-8.623
X-340.284 Y-7.95
X-340.258 Y-7.945
X-336.697 Y-7.297
X-336.67 Y-7.292
X-333.073 Y-6.669
X-333.048 Y-6.665
X-329.417 Y-6.069
X-329.391 Y-6.065
X-325.728 Y-5.494
X-325.703 Y-5.49
X-322.009 Y-4.946
X-321.984 Y-4.943
X-318.26 Y-4.425
X-318.236 Y-4.422
X-314.484 Y-3.931
X-314.46 Y-3.928
X-310.682 Y-3.465
X-310.658 Y-3.462
X-306.855 Y-3.025
X-306.831 Y-3.022
X-303.004 Y-2.613
X-302.98 Y-2.611
X-299.131 Y-2.229
X-299.108 Y-2.227
X-295.239 Y-1.873
X-295.216 Y-1.871
X-291.328 Y-1.545
X-291.305 Y-1.543
X-287.399 Y-1.245
X-287.376 Y-1.243
X-283.455 Y-0.973
X-283.433 Y-0.971
X-279.497 Y-0.729
X-279.474 Y-0.728
X-275.526 Y-0.514
X-275.504 Y-0.513
X-271.545 Y-0.327
X-271.523 Y-0.326
X-267.554 Y-0.169
X-267.531
X-263.554 Y-0.04
X-263.532 Y-0.039
X-259.549 Y0.061
X-259.527
X-255.539 Y0.133
X-255.517
X-251.526 Y0.176
X-251.504
X-247.511 Y0.19
X-247.489
X-243.496 Y0.176
X-243.474
X-239.483 Y0.133
X-239.461
X-235.473 Y0.061
X-235.451
X-231.468 Y-0.039
X-231.446 Y-0.04
X-227.469 Y-0.169
X-227.446
X-223.477 Y-0.326
X-223.455 Y-0.327
X-219.496 Y-0.513
X-219.474 Y-0.514
X-215.526 Y-0.728
X-215.503 Y-0.729
X-211.567 Y-0.971
X-211.545 Y-0.973
X-207.624 Y-1.243
X-207.601 Y-1.245
X-203.695 Y-1.543
X-203.672 Y-1.545
X-199.784 Y-1.871
X-199.761 Y-1.873
X-195.892 Y-2.227
X-195.869 Y-2.229
X-192.02 Y-2.611
X-191.996 Y-2.613
X-188.169 Y-3.022
X-188.145 Y-3.025
X-184.342 Y-3.462
X-184.318 Y-3.465
X-180.54 Y-3.928
X-180.516 Y-3.931
X-176.764 Y-4.422
X-176.74 Y-4.425
X-173.016 Y-4.943
X-172.991 Y-4.946
X-169.297 Y-5.49
X-169.272 Y-5.494
X-165.609 Y-6.065
X-165.583 Y-6.069
X-161.952 Y-6.665
X-161.927 Y-6.669
X-158.33 Y-7.292
X-158.303 Y-7.297
X-154.742 Y-7.945
X-154.716 Y-7.95
X-151.191 Y-8.623
X-151.164 Y-8.628
X-147.678 Y-9.327
X-147.65 Y-9.333
X-144.203 Y-10.056
X-144.176 Y-10.062
X-140.769 Y-10.81
X-140.74 Y-10.817
X-137.377 Y-11.589
X-137.348 Y-11.596
X-134.027 Y-12.392
X-133.997 Y-12.399
X-130.722 Y-13.219
X-130.692 Y-13.227
X-127.463 Y-14.07
X-127.432 Y-14.078
X-124.251 Y-14.944
X-124.22 Y-14.953
X-121.087 Y-15.842
X-121.054 Y-15.851
X-117.972 Y-16.762
X-117.94 Y-16.772
X-114.908 Y-17.705
X-114.874 Y-17.716
X-111.895 Y-18.67
X-111.86 Y-18.682
X-108.935 Y-19.657
X-108.899 Y-19.669
X-106.029 Y-20.666
X-105.993 Y-20.679
X-103.179 Y-21.696
X-103.142 Y-21.709
X-100.384 Y-22.746
X-100.345 Y-22.761
X-97.646 Y-23.817
X-97.607 Y-23.833
X-94.967 Y-24.908
X-94.927 Y-24.925
X-92.347 Y-26.02
X-92.306 Y-26.038
X-89.788 Y-27.15
X-89.745 Y-27.169
X-87.289 Y-28.3
X-87.245 Y-28.321
X-84.852 Y-29.468
X-84.807 Y-29.491
X-82.479 Y-30.655
X-82.431 Y-30.679
X-80.169 Y-31.86
X-80.12 Y-31.886
X-77.923 Y-33.083
X-77.873 Y-33.111
X-75.744 Y-34.323
X-75.692 Y-34.354
X-73.63 Y-35.581
X-73.577 Y-35.613
X-71.584 Y-36.855
X-71.529 Y-36.89
X-69.605 Y-38.147
X-69.549 Y-38.184
X-67.695 Y-39.454
X-67.637 Y-39.495
X-65.855 Y-40.778
X-65.795 Y-40.822
X-64.084 Y-42.117
X-64.022 Y-42.165
X-62.384 Y-43.472
X-62.32 Y-43.524
X-60.755 Y-44.843
X-60.69 Y-44.899
X-59.198 Y-46.228
X-59.132 Y-46.29
X-57.714 Y-47.63
X-57.647 Y-47.696
X-56.304 Y-49.045
X-56.235 Y-49.117
X-54.968 Y-50.476
X-54.898 Y-50.554
X-53.707 Y-51.922
X-53.636 Y-52.005
X-52.521 Y-53.382
X-52.451 Y-53.472
X-51.412 Y-54.856
X-51.342 Y-54.954
X-50.381 Y-56.345
X-50.312 Y-56.45
X-49.428 Y-57.848
X-49.36 Y-57.96
X-48.554 Y-59.364
X-48.489 Y-59.484
X-47.761 Y-60.893
X-47.699 Y-61.022
X-47.05 Y-62.436
X-46.992 Y-62.572
X-46.421 Y-63.99
X-46.368 Y-64.133
X-45.877 Y-65.556
X-45.829 Y-65.706
X-45.417 Y-67.132
X-45.377 Y-67.288
X-45.044 Y-68.716
X-45.011 Y-68.878
X-44.758 Y-70.308
X-44.733 Y-70.474
X-44.559 Y-71.906
X-44.544 Y-72.075
X-44.45 Y-73.508
X-44.443 Y-73.679
X-44.429 Y-75.112
X-44.432 Y-75.283
X-44.498 Y-76.716
X-44.51 Y-76.886
X-44.656 Y-78.318
X-44.677 Y-78.485
X-44.902 Y-79.916
X-44.932 Y-80.08
X-45.237 Y-81.509
X-45.275 Y-81.667
X-45.659 Y-83.094
X-45.704 Y-83.246
X-46.167 Y-84.67
X-46.219 Y-84.816
X-46.761 Y-86.236
X-46.818 Y-86.374
X-47.439 Y-87.79
X-47.5 Y-87.921
X-48.2 Y-89.332
X-48.264 Y-89.455
X-49.042 Y-90.861
X-49.109 Y-90.976
X-49.965 Y-92.376
X-50.034 Y-92.484
X-50.968 Y-93.877
X-51.038 Y-93.977
X-52.049 Y-95.364
X-52.119 Y-95.457
X-53.207 Y-96.836
X-53.278 Y-96.922
X-54.442 Y-98.293
X-54.512 Y-98.373
X-55.753 Y-99.735
X-55.822 Y-99.809
X-57.138 Y-101.162
X-57.206 Y-101.23
X-58.597 Y-102.573
X-58.665 Y-102.637
X-60.13 Y-103.97
X-60.195 Y-104.027
X-61.734 Y-105.35
X-61.799 Y-105.404
X-63.411 Y-106.715
X-63.474 Y-106.764
X-65.159 Y-108.063
X-65.219 Y-108.109
X-66.976 Y-109.396
X-67.034 Y-109.437
X-68.863 Y-110.712
X-68.921 Y-110.752
X-70.819 Y-112.013
X-70.875 Y-112.049
X-72.844 Y-113.296
X-72.898 Y-113.329
X-74.936 Y-114.561
X-74.987 Y-114.592
X-77.093 Y-115.81
X-77.143 Y-115.838
X-79.316 Y-117.041
X-79.365 Y-117.068
X-81.605 Y-118.255
X-81.653 Y-118.28
X-83.958 Y-119.45
X-84.003 Y-119.473
X-86.373 Y-120.627
X-86.419 Y-120.648
X-88.852 Y-121.784
X-88.895 Y-121.804
X-91.391 Y-122.923
X-91.433 Y-122.941
X-93.991 Y-124.042
X-94.032 Y-124.06
X-96.651 Y-125.142
X-96.691 Y-125.158
X-99.369 Y-126.221
X-99.407 Y-126.236
X-102.144 Y-127.28
X-102.182 Y-127.294
X-104.976 Y-128.318
X-105.014 Y-128.332
X-107.865 Y-129.335
X-107.9 Y-129.347
X-110.806 Y-130.33
X-110.841 Y-130.341
X-113.801 Y-131.303
X-113.834 Y-131.314
X-116.846 Y-132.255
X-116.88 Y-132.265
X-119.945 Y-133.184
X-119.977 Y-133.194
X-123.092 Y-134.091
X-123.124 Y-134.1
X-126.288 Y-134.974
X-126.32 Y-134.982
X-129.533 Y-135.834
X-129.563 Y-135.841
X-132.822 Y-136.669
X-132.851 Y-136.677
X-136.155 Y-137.482
X-136.185 Y-137.489
X-139.534 Y-138.27
X-139.562 Y-138.276
X-142.953 Y-139.033
X-142.982 Y-139.039
X-146.414 Y-139.771
X-146.442 Y-139.777
X-149.915 Y-140.484
X-149.941 Y-140.489
X-153.453 Y-141.172
X-153.48 Y-141.178
X-157.028 Y-141.835
X-157.055 Y-141.839
X-160.64 Y-142.47
X-160.665 Y-142.475
X-164.283 Y-143.081
X-164.309 Y-143.085
X-167.961 Y-143.665
X-167.987 Y-143.669
X-171.671 Y-144.222
X-171.695 Y-144.225
X-175.408 Y-144.752
X-175.433 Y-144.756
X-179.175 Y-145.256
X-179.198 Y-145.259
X-182.967 Y-145.733
X-182.992 Y-145.736
X-186.786 Y-146.182
X-186.81 Y-146.185
X-190.629 Y-146.604
X-190.653 Y-146.606
X-194.494 Y-146.997
X-194.516 Y-146.999
X-198.378 Y-147.363
X-198.402 Y-147.366
X-202.284 Y-147.702
X-202.307 Y-147.703
X-206.207 Y-148.011
X-206.23 Y-148.013
X-210.146 Y-148.293
X-210.168 Y-148.295
X-214.098 Y-148.547
X-214.121 Y-148.548
X-215.273 Y-148.613
G2 X-231.924 Y-164.166 I-17.586 J2.139
X-232.859 Y-164.191 I-0.935 J17.691
X-247.5 Y-156.451 J17.716
X-262.141 Y-164.191 I-14.64 J9.976
X-268.342 Y-163.07 J17.716
X-279.727 Y-148.613 Z-12.41 I6.201 J16.595 F350
G1 X-280.879 Y-148.548 Z-12.435
X-280.902 Y-148.547
X-284.832 Y-148.295 Z-12.519
X-284.854 Y-148.293
X-288.77 Y-148.013 Z-12.603
X-288.793 Y-148.011
X-292.693 Y-147.703 Z-12.686
X-292.716 Y-147.702 Z-12.687
X-296.598 Y-147.366 Z-12.769
X-296.622 Y-147.363 Z-12.77
X-300.484 Y-146.999 Z-12.852
X-300.506 Y-146.997 Z-12.853
X-304.347 Y-146.606 Z-12.935
X-304.371 Y-146.604
X-308.19 Y-146.185 Z-13.017
X-308.214 Y-146.182
X-312.008 Y-145.736 Z-13.098
X-312.033 Y-145.733 Z-13.099
X-315.802 Y-145.259 Z-13.179
X-315.825 Y-145.256 Z-13.18
X-319.567 Y-144.756 Z-13.26
X-319.592 Y-144.752
X-323.305 Y-144.225 Z-13.34
X-323.329 Y-144.222
X-327.013 Y-143.669 Z-13.42
X-327.039 Y-143.665
X-330.691 Y-143.085 Z-13.499
X-330.717 Y-143.081
X-330.76 Y-143.074 Z-13.5
X-334.335 Y-142.475 F850
X-334.36 Y-142.47
X-337.945 Y-141.839
X-337.972 Y-141.835
X-341.52 Y-141.178
X-341.547 Y-141.172
X-345.059 Y-140.489
X-345.085 Y-140.484
X-348.558 Y-139.777
X-348.586 Y-139.771
