%
(1001)
(origin stock top)
(T1  D=12.7 CR=0 TAPER=30deg - ZMIN=-8.026 - chamfer mill)
G90 G94
G17
G21

(Engrave1)
M9
T1 M6
S14000 M3
G54
G0 X-356.622 Y-70.436
Z15
Z2
G1 Z-3 F849.6
X-356.563 Y-70.446 Z-3.1
X-356.217 Y-70.497 Z-3.679
X-356.321 Y-70.594 Z-3.471
X-356.408 Y-70.677 Z-3.286
X-356.472 Y-70.74 Z-3.138
X-356.492 Y-70.76 Z-3.09
X-356.472 Y-70.74 Z-3.138
X-356.408 Y-70.677 Z-3.286
X-356.321 Y-70.594 Z-3.471
X-356.217 Y-70.497 Z-3.679
X-356.199 Y-70.488 Z-3.701
X-355.863 Y-70.205 Z-4.019
X-355.714 Y-70.078 Z-4.156
X-355.645 Y-70.017 Z-4.219
X-355.447 Y-69.841 Z-4.395
X-355.33 Y-69.733 Z-4.495
X-355.224 Y-69.632 Z-4.582
X-355.131 Y-69.539 Z-4.654
X-355.049 Y-69.453 Z-4.713
X-354.974 Y-69.369 Z-4.764
X-354.897 Y-69.279 Z-4.81
X-354.819 Y-69.183 Z-4.854
X-354.741 Y-69.083 Z-4.893
X-354.698 Y-69.026 Z-4.912
X-354.573 Y-68.857 Z-4.961
X-354.486 Y-68.734 Z-4.991
X-354.452 Y-68.684 Z-5.001
X-354.301 Y-68.467 Z-5.037
X-354.22 Y-68.347 Z-5.053
X-354.1 Y-68.173 Z-5.069
X-353.996 Y-68.019 Z-5.08
X-353.8 Y-67.737 Z-5.089
X-353.545 Y-67.352 Z-5.06
X-353.507 Y-67.297 Z-5.054
X-353.315 Y-67.016 Z-5.021
X-353.079 Y-66.678 Z-4.968
X-352.858 Y-66.366 Z-4.907
X-352.699 Y-66.143 Z-4.854
X-352.593 Y-65.992 Z-4.816
X-352.383 Y-65.697 Z-4.731
X-352.229 Y-65.478 Z-4.659
X-352.093 Y-65.281 Z-4.59
X-351.924 Y-65.036 Z-4.494
X-351.841 Y-64.913 Z-4.444
X-351.617 Y-64.581 Z-4.299
X-351.463 Y-64.348 Z-4.188
X-351.336 Y-64.152 Z-4.092
X-351.15 Y-63.866 Z-3.946
X-351.082 Y-63.76 Z-3.89
X-350.832 Y-63.369 Z-3.678
X-350.573 Y-62.96 Z-3.449
X-350.083 Y-62.181 Z-3
G0 Z5
X-349.909 Y-61.84
Z2
G1 Z-3 F849.6
X-349.722 Y-61.425 Z-3.192
X-349.749 Y-61.378 Z-3.133
X-349.775 Y-61.328 Z-3.074
X-349.804 Y-61.262 Z-3.004
X-349.806 Y-61.257 Z-3
X-349.804 Y-61.262 Z-3.004
X-349.775 Y-61.328 Z-3.074
X-349.749 Y-61.378 Z-3.133
X-349.722 Y-61.425 Z-3.192
X-349.651 Y-61.401 Z-3.121
X-349.584 Y-61.374 Z-3.059
X-349.516 Y-61.34 Z-3.004
X-349.511 Y-61.336 Z-3
G0 Z5
X-349.754 Y-57.827
Z2
G1 Z-3 F849.6
X-349.759 Y-57.751 Z-3.011
X-349.783 Y-57.414 Z-3.059
X-349.821 Y-56.913 Z-3.132
X-349.854 Y-56.536 Z-3.187
X-349.888 Y-56.158 Z-3.245
X-349.925 Y-55.784 Z-3.306
X-349.965 Y-55.408 Z-3.371
X-350.016 Y-54.981 Z-3.448
X-350.084 Y-54.474 Z-3.549
X-350.14 Y-54.099 Z-3.626
X-350.211 Y-53.657 Z-3.722
X-350.297 Y-53.169 Z-3.834
X-350.402 Y-52.611 Z-3.97
X-350.462 Y-52.303 Z-4.047
X-350.574 Y-51.768 Z-4.185
X-350.658 Y-51.363 Z-4.296
X-350.743 Y-50.958 Z-4.414
X-350.831 Y-50.542 Z-4.542
X-350.945 Y-49.99 Z-4.72
X-351.092 Y-49.275 Z-4.963
X-351.125 Y-49.113 Z-5.02
X-351.138 Y-49.033 Z-5.053
X-351.271 Y-48.162 Z-5.425
X-351.341 Y-47.672 Z-5.632
X-351.405 Y-47.193 Z-5.832
X-351.445 Y-46.87 Z-5.965
X-351.484 Y-46.514 Z-6.109
X-351.505 Y-46.301 Z-6.193
X-351.521 Y-46.093 Z-6.274
X-351.545 Y-45.738 Z-6.406
X-351.548 Y-45.683 Z-6.427
X-351.556 Y-45.494 Z-6.494
X-351.563 Y-45.16 Z-6.604
X-351.564 Y-45.106 Z-6.623
X-351.563 Y-44.91 Z-6.685
X-351.556 Y-44.571 Z-6.787
X-351.553 Y-44.492 Z-6.812
X-351.532 Y-44.054 Z-6.944
X-351.516 Y-43.826 Z-7.014
X-351.488 Y-43.451 Z-7.129
X-351.471 Y-43.37 Z-7.138
X-351.334 Y-42.771 Z-7.21
X-351.292 Y-42.605 Z-7.234
X-351.177 Y-42.169 Z-7.294
X-351.098 Y-41.9 Z-7.336
X-351 Y-41.583 Z-7.38
X-350.898 Y-41.285 Z-7.422
X-350.796 Y-41.01 Z-7.454
X-350.693 Y-40.757 Z-7.48
X-350.592 Y-40.526 Z-7.494
X-350.492 Y-40.321 Z-7.501
X-350.389 Y-40.124 Z-7.497
X-350.272 Y-39.919 Z-7.482
X-350.138 Y-39.702 Z-7.459
X-349.988 Y-39.473 Z-7.424
X-349.822 Y-39.235 Z-7.381
X-349.638 Y-38.983 Z-7.325
X-349.437 Y-38.721 Z-7.262
X-349.216 Y-38.445 Z-7.189
X-348.965 Y-38.139 Z-7.102
X-348.613 Y-37.725 Z-6.98
X-348.473 Y-37.563 Z-6.931
X-348.055 Y-37.087 Z-6.785
X-347.477 Y-36.532 Z-6.493
X-347.333 Y-36.403 Z-6.431
X-346.985 Y-36.105 Z-6.3
X-346.623 Y-35.8 Z-6.16
X-346.257 Y-35.499 Z-6.019
X-346.022 Y-35.309 Z-5.928
X-345.879 Y-35.197 Z-5.871
X-345.662 Y-35.028 Z-5.787
X-345.494 Y-34.902 Z-5.72
X-345.303 Y-34.76 Z-5.647
X-345.096 Y-34.612 Z-5.563
X-344.943 Y-34.504 Z-5.505
X-344.686 Y-34.331 Z-5.401
X-344.58 Y-34.261 Z-5.361
X-344.268 Y-34.065 Z-5.236
X-344.213 Y-34.032 Z-5.216
X-343.837 Y-33.815 Z-5.066
X-343.394 Y-33.582 Z-4.891
X-343.005 Y-33.397 Z-4.742
X-342.944 Y-33.37 Z-4.719
X-342.551 Y-33.203 Z-4.575
X-342.485 Y-33.177 Z-4.551
X-342.205 Y-33.07 Z-4.458
X-342.019 Y-33.004 Z-4.394
X-341.76 Y-32.917 Z-4.316
X-341.555 Y-32.853 Z-4.253
X-341.303 Y-32.78 Z-4.185
X-341.096 Y-32.723 Z-4.128
X-340.683 Y-32.62 Z-4.027
X-340.641 Y-32.61 Z-4.017
X-340.188 Y-32.511 Z-3.919
X-339.737 Y-32.424 Z-3.832
X-339.287 Y-32.347 Z-3.755
X-338.84 Y-32.276 Z-3.687
X-338.442 Y-32.219 Z-3.632
X-338.393 Y-32.215 Z-3.62
X-337.944 Y-32.182 Z-3.515
X-337.428 Y-32.15 Z-3.394
X-337.05 Y-32.133 Z-3.298
X-336.982 Y-32.132 Z-3.284
X-336.899 Y-32.137 Z-3.275
X-336.665 Y-32.162 Z-3.263
X-336.353 Y-32.201 Z-3.24
X-336.168 Y-32.228 Z-3.224
X-335.94 Y-32.268 Z-3.203
X-335.707 Y-32.316 Z-3.177
X-335.613 Y-32.338 Z-3.164
X-335.43 Y-32.385 Z-3.141
X-335.245 Y-32.439 Z-3.117
X-335.025 Y-32.514 Z-3.088
X-334.884 Y-32.569 Z-3.068
X-334.802 Y-32.603 Z-3.059
X-334.707 Y-32.644 Z-3.045
X-334.533 Y-32.725 Z-3.027
X-334.356 Y-32.816 Z-3.011
X-334.217 Y-32.894 Z-3
G0 Z5
X-340.465 Y-50.214
Z2
G1 Z-3.001 F849.6
X-340.461 Y-50.204 Z-3.008
X-340.439 Y-50.161 Z-3.048
X-340.417 Y-50.117 Z-3.097
X-340.395 Y-50.072 Z-3.153
X-340.371 Y-50.025 Z-3.215
X-340.322 Y-49.927 Z-3.361
X-340.268 Y-49.82 Z-3.535
X-340.209 Y-49.7 Z-3.738
X-340.142 Y-49.566 Z-3.976
X-340.05 Y-49.383 Z-4.309
X-340.083 Y-49.286 Z-4.386
X-340.116 Y-49.178 Z-4.479
X-340.139 Y-49.083 Z-4.563
X-340.16 Y-48.985 Z-4.654
X-340.176 Y-48.893 Z-4.742
X-340.187 Y-48.816 Z-4.816
X-340.197 Y-48.711 Z-4.916
X-340.203 Y-48.612 Z-5.007
Y-48.565 Z-5.046
X-340.197 Y-48.499 Z-5.093
X-340.187 Y-48.423 Z-5.142
X-340.162 Y-48.28 Z-5.228
X-340.115 Y-48.178 Z-5.248
X-340.059 Y-48.062 Z-5.272
X-339.973 Y-47.892 Z-5.31
X-339.853 Y-47.667 Z-5.364
X-339.692 Y-47.388 Z-5.434
X-339.577 Y-47.204 Z-5.476
X-339.468 Y-47.041 Z-5.508
X-339.376 Y-46.914 Z-5.526
X-339.284 Y-46.793 Z-5.532
X-339.207 Y-46.701 Z-5.528
X-339.13 Y-46.616 Z-5.515
X-339.038 Y-46.523 Z-5.49
X-338.928 Y-46.421 Z-5.452
X-338.798 Y-46.308 Z-5.397
X-338.646 Y-46.185 Z-5.325
X-338.473 Y-46.052 Z-5.235
X-338.279 Y-45.91 Z-5.126
X-338.065 Y-45.759 Z-4.999
X-337.832 Y-45.601 Z-4.854
X-337.582 Y-45.436 Z-4.695
X-337.319 Y-45.266 Z-4.522
X-337.044 Y-45.092 Z-4.338
X-336.467 Y-44.731 Z-3.948
X-336.386 Y-44.677 Z-3.896
X-336.319 Y-44.631 Z-3.856
X-335.909 Y-44.343 Z-3.608
X-335.586 Y-44.111 Z-3.419
X-335.447 Y-44.009 Z-3.34
X-335.265 Y-43.873 Z-3.241
X-335.108 Y-43.753 Z-3.158
X-334.952 Y-43.629 Z-3.08
X-334.799 Y-43.505 Z-3.007
X-334.782 Y-43.491 Z-3
X-334.799 Y-43.505 Z-3.007
X-334.952 Y-43.629 Z-3.08
X-335.108 Y-43.753 Z-3.158
X-335.265 Y-43.873 Z-3.241
X-335.447 Y-44.009 Z-3.34
X-335.586 Y-44.111 Z-3.419
X-335.909 Y-44.343 Z-3.608
X-336.319 Y-44.631 Z-3.856
X-336.386 Y-44.677 Z-3.896
X-336.467 Y-44.731 Z-3.948
X-337.044 Y-45.092 Z-4.338
X-337.319 Y-45.266 Z-4.522
X-337.582 Y-45.436 Z-4.695
X-337.832 Y-45.601 Z-4.854
X-338.065 Y-45.759 Z-4.999
X-338.279 Y-45.91 Z-5.126
X-338.473 Y-46.052 Z-5.235
X-338.646 Y-46.185 Z-5.325
X-338.798 Y-46.308 Z-5.397
X-338.928 Y-46.421 Z-5.452
X-339.038 Y-46.523 Z-5.49
X-339.13 Y-46.616 Z-5.515
X-339.207 Y-46.701 Z-5.528
X-339.284 Y-46.793 Z-5.532
X-339.376 Y-46.914 Z-5.526
X-339.468 Y-47.041 Z-5.508
X-339.577 Y-47.204 Z-5.476
X-339.692 Y-47.388 Z-5.434
X-339.853 Y-47.667 Z-5.364
X-339.973 Y-47.892 Z-5.31
X-340.059 Y-48.062 Z-5.272
X-340.115 Y-48.178 Z-5.248
X-340.162 Y-48.28 Z-5.228
X-340.187 Y-48.423 Z-5.142
X-340.197 Y-48.499 Z-5.093
X-340.203 Y-48.565 Z-5.046
Y-48.612 Z-5.007
X-340.197 Y-48.711 Z-4.916
X-340.187 Y-48.816 Z-4.816
X-340.176 Y-48.893 Z-4.742
X-340.16 Y-48.985 Z-4.654
X-340.139 Y-49.083 Z-4.563
X-340.116 Y-49.178 Z-4.479
X-340.083 Y-49.286 Z-4.386
X-340.05 Y-49.383 Z-4.309
X-339.986 Y-49.463 Z-4.192
X-339.918 Y-49.549 Z-4.078
X-339.85 Y-49.636 Z-3.975
X-339.768 Y-49.742 Z-3.86
X-339.695 Y-49.828 Z-3.768
X-339.634 Y-49.891 Z-3.697
X-339.583 Y-49.937 Z-3.643
X-339.521 Y-49.985 Z-3.58
X-339.461 Y-50.026 Z-3.521
X-339.396 Y-50.065 Z-3.463
X-339.34 Y-50.096 Z-3.416
X-339.302 Y-50.114 Z-3.387
X-339.186 Y-50.148 Z-3.288
X-339.125 Y-50.163 Z-3.241
X-339.055 Y-50.177 Z-3.192
X-338.982 Y-50.188 Z-3.146
X-338.895 Y-50.199 Z-3.095
X-338.804 Y-50.206 Z-3.049
X-338.734 Z-3.024
X-338.665 Y-50.199 Z-3.008
X-338.596 Y-50.186 Z-3.003
X-338.551 Y-50.175 Z-3.005
X-338.373 Y-50.121 Z-3.025
X-338.246 Y-50.08 Z-3.041
X-338.167 Y-50.052 Z-3.055
X-338.043 Y-50.004 Z-3.08
X-337.947 Y-49.963 Z-3.105
X-337.877 Y-49.93 Z-3.128
X-337.754 Y-49.868 Z-3.172
X-337.682 Y-49.827 Z-3.203
X-337.549 Y-49.747 Z-3.266
X-337.421 Y-49.663 Z-3.334
X-337.295 Y-49.574 Z-3.406
X-337.176 Y-49.484 Z-3.478
X-336.936 Y-49.293 Z-3.62
X-336.738 Y-49.125 Z-3.731
X-336.55 Y-48.956 Z-3.826
X-336.37 Y-48.785 Z-3.908
X-336.192 Y-48.607 Z-3.979
X-336.017 Y-48.423 Z-4.041
X-335.843 Y-48.232 Z-4.093
X-335.669 Y-48.034 Z-4.138
X-335.493 Y-47.827 Z-4.176
X-335.368 Y-47.675 Z-4.2
X-335.138 Y-47.393 Z-4.234
X-334.959 Y-47.168 Z-4.255
X-334.777 Y-46.934 Z-4.272
X-334.648 Y-46.768 Z-4.283
X-334.243 Y-46.244 Z-4.305
X-334.065 Y-45.991 Z-4.292
X-333.861 Y-45.703 Z-4.275
X-333.46 Y-45.135 Z-4.23
X-333.305 Y-44.911 Z-4.208
X-333.074 Y-44.578 Z-4.166
X-332.887 Y-44.303 Z-4.125
X-332.705 Y-44.028 Z-4.078
X-332.528 Y-43.757 Z-4.02
X-332.355 Y-43.486 Z-3.953
X-332.187 Y-43.212 Z-3.877
X-332.066 Y-43.008 Z-3.814
X-332.024 Y-42.938 Z-3.791
X-331.865 Y-42.661 Z-3.688
X-331.707 Y-42.375 Z-3.572
X-331.55 Y-42.079 Z-3.443
X-331.392 Y-41.776 Z-3.296
X-331.234 Y-41.464 Z-3.135
X-331.109 Y-41.212 Z-3
G0 Z5
X-331.431 Y-39.539
Z2
G1 Z-3 F849.6
X-331.357 Y-39.407 Z-3.059
X-331.263 Y-39.237 Z-3.144
X-331.172 Y-39.069 Z-3.232
X-331.082 Y-38.894 Z-3.328
X-331.06 Y-38.85 Z-3.352
X-331.027 Y-38.862 Z-3.297
X-331.06 Y-38.85 Z-3.352
X-331.046 Y-38.522 Z-3.286
X-331.038 Y-38.155 Z-3.218
X-331.036 Y-37.844 Z-3.159
X-331.038 Y-37.745 Z-3.14
X-331.042 Y-37.696 Z-3.136
X-331.083 Y-37.356 Z-3.123
X-331.118 Y-37.119 Z-3.107
X-331.158 Y-36.886 Z-3.09
X-331.204 Y-36.657 Z-3.069
X-331.248 Y-36.48 Z-3.052
X-331.295 Y-36.308 Z-3.034
X-331.324 Y-36.212 Z-3.025
X-331.348 Y-36.137 Z-3.016
X-331.397 Y-35.997 Z-3.002
X-331.406 Y-35.975 Z-3
G0 Z5
X-331.041 Y-61.217
Z2
G1 Z-3 F849.6
X-330.98 Y-61.204 Z-3.005
X-330.729 Y-61.15 Z-3.031
X-330.265 Y-61.044 Z-3.08
X-329.908 Y-60.954 Z-3.123
X-329.746 Y-60.91 Z-3.146
X-329.552 Y-60.856 Z-3.172
X-329.263 Y-60.771 Z-3.218
X-329.195 Y-60.75 Z-3.228
X-328.839 Y-60.634 Z-3.291
X-328.484 Y-60.506 Z-3.361
X-328.322 Y-60.444 Z-3.399
X-328.132 Y-60.368 Z-3.438
X-327.865 Y-60.257 Z-3.503
X-327.783 Y-60.221 Z-3.52
X-327.438 Y-60.064 Z-3.605
X-327.096 Y-59.897 Z-3.691
X-326.978 Y-59.838 Z-3.724
X-326.758 Y-59.724 Z-3.779
X-326.543 Y-59.609 Z-3.838
X-326.113 Y-59.369 Z-3.953
X-325.763 Y-59.163 Z-4.048
X-325.44 Y-58.968 Z-4.136
X-325.264 Y-58.859 Z-4.186
X-324.844 Y-58.593 Z-4.3
X-324.489 Y-58.363 Z-4.394
X-324.179 Y-58.159 Z-4.475
X-323.66 Y-57.798 Z-4.629
X-323.186 Y-57.465 Z-4.766
X-322.712 Y-57.128 Z-4.901
X-321.939 Y-56.57 Z-5.123
X-321.296 Y-56.086 Z-5.293
X-320.826 Y-55.727 Z-5.421
X-320.39 Y-55.389 Z-5.544
X-319.889 Y-54.995 Z-5.687
X-319.628 Y-54.787 Z-5.766
X-319.42 Y-54.618 Z-5.827
X-318.954 Y-54.236 Z-5.969
X-318.489 Y-53.842 Z-6.113
X-318.179 Y-53.575 Z-6.214
X-318.029 Y-53.444 Z-6.259
X-317.576 Y-53.039 Z-6.404
X-317.555 Y-53.02 Z-6.411
X-317.132 Y-52.628 Z-6.543
X-316.848 Y-52.362 Z-6.635
X-316.265 Y-51.791 Z-6.809
X-315.849 Y-51.365 Z-6.923
X-315.645 Y-51.154 Z-6.98
X-315.438 Y-50.932 Z-7.032
X-315.114 Y-50.577 Z-7.107
X-314.856 Y-50.285 Z-7.159
X-314.617 Y-50.006 Z-7.201
X-314.602 Y-50.011 Z-7.176
X-314.59 Y-50.015 Z-7.156
X-314.328 Y-50.094 Z-6.73
X-313.974 Y-50.191 Z-6.166
X-313.702 Y-50.257 Z-5.741
X-313.541 Y-50.29 Z-5.492
X-313.385 Y-50.318 Z-5.256
X-313.139 Y-50.356 Z-4.892
X-312.953 Y-50.378 Z-4.623
X-312.788 Y-50.39 Z-4.389
X-312.573 Y-50.396 Z-4.094
X-312.46 Y-50.395 Z-3.944
X-312.307 Y-50.386 Z-3.747
X-312.283 Y-50.384 Z-3.716
X-312.119 Y-50.363 Z-3.512
X-312.023 Y-50.347 Z-3.399
X-311.901 Y-50.32 Z-3.258
X-311.828 Y-50.303 Z-3.176
X-311.761 Y-50.285 Z-3.103
X-311.697 Y-50.262 Z-3.037
X-311.66 Y-50.246 Z-3.001
X-311.697 Y-50.262 Z-3.037
X-311.761 Y-50.285 Z-3.103
X-311.828 Y-50.303 Z-3.176
X-311.901 Y-50.32 Z-3.258
X-312.023 Y-50.347 Z-3.399
X-312.119 Y-50.363 Z-3.512
X-312.283 Y-50.384 Z-3.716
X-312.307 Y-50.386 Z-3.747
X-312.46 Y-50.395 Z-3.944
X-312.573 Y-50.396 Z-4.094
X-312.788 Y-50.39 Z-4.389
X-312.953 Y-50.378 Z-4.623
X-313.139 Y-50.356 Z-4.892
X-313.385 Y-50.318 Z-5.256
X-313.541 Y-50.29 Z-5.492
X-313.702 Y-50.257 Z-5.741
X-313.974 Y-50.191 Z-6.166
X-314.328 Y-50.094 Z-6.73
X-314.59 Y-50.015 Z-7.156
X-314.602 Y-50.011 Z-7.176
X-314.617 Y-50.006 Z-7.201
X-314.58 Y-49.864 Z-7.107
X-314.552 Y-49.767 Z-7.044
X-314.508 Y-49.617 Z-6.951
X-314.457 Y-49.463 Z-6.862
X-314.389 Y-49.276 Z-6.764
X-314.314 Y-49.093 Z-6.68
X-314.233 Y-48.914 Z-6.608
X-314.141 Y-48.726 Z-6.543
X-314.067 Y-48.581 Z-6.496
X-313.991 Y-48.438 Z-6.455
X-313.942 Y-48.348 Z-6.432
X-313.892 Y-48.257 Z-6.415
X-313.841 Y-48.16 Z-6.404
X-313.784 Y-48.052 Z-6.4
X-313.765 Y-48.014 Z-6.401
X-313.711 Y-47.909 Z-6.41
X-313.659 Y-47.804 Z-6.427
X-313.639 Y-47.764 Z-6.436
X-314.165 Y-47.463 Z-5.409
X-314.393 Y-47.333 Z-4.97
X-314.603 Y-47.213 Z-4.571
X-314.8 Y-47.1 Z-4.205
X-314.986 Y-46.994 Z-3.871
X-315.077 Y-46.942 Z-3.715
X-315.166 Y-46.891 Z-3.568
X-315.255 Y-46.84 Z-3.432
X-315.343 Y-46.79 Z-3.308
X-315.424 Y-46.747 Z-3.207
X-315.504 Y-46.711 Z-3.12
X-315.582 Y-46.683 Z-3.046
X-315.64 Y-46.668 Z-3.001
X-315.582 Y-46.683 Z-3.046
X-315.504 Y-46.711 Z-3.12
X-315.424 Y-46.747 Z-3.207
X-315.343 Y-46.79 Z-3.308
X-315.255 Y-46.84 Z-3.432
X-315.166 Y-46.891 Z-3.568
X-315.077 Y-46.942 Z-3.715
X-314.986 Y-46.994 Z-3.871
X-314.8 Y-47.1 Z-4.205
X-314.603 Y-47.213 Z-4.571
X-314.393 Y-47.333 Z-4.97
X-314.165 Y-47.463 Z-5.409
X-313.639 Y-47.764 Z-6.436
X-313.598 Y-47.708 Z-6.43
X-313.535 Y-47.623 Z-6.426
X-313.456 Y-47.512 Z-6.431
X-313.419 Y-47.461 Z-6.437
X-313.321 Y-47.327 Z-6.455
X-313.259 Y-47.246 Z-6.469
X-313.135 Y-47.089 Z-6.502
X-312.71 Y-46.466 Z-6.542
X-312.461 Y-46.096 Z-6.57
X-312.215 Y-45.729 Z-6.601
X-311.967 Y-45.352 Z-6.637
X-311.717 Y-44.968 Z-6.68
X-311.468 Y-44.578 Z-6.73
X-311.216 Y-44.173 Z-6.79
X-311.129 Y-43.959 Z-6.759
X-311.019 Y-43.675 Z-6.713
X-310.851 Y-43.224 Z-6.65
X-310.808 Y-43.107 Z-6.637
X-310.687 Y-42.76 Z-6.592
X-310.529 Y-42.284 Z-6.544
X-310.51 Y-42.223 Z-6.54
X-310.385 Y-41.816 Z-6.508
X-310.24 Y-41.31 Z-6.484
X-310.124 Y-40.88 Z-6.472
X-310.092 Y-40.754 Z-6.471
X-310.062 Y-40.405 Z-6.371
X-310.031 Y-39.943 Z-6.244
X-310.011 Y-39.519 Z-6.124
X-310.007 Y-39.399 Z-6.091
X-310.002 Y-39.027 Z-5.977
Y-38.886 Z-5.934
X-310.009 Y-38.573 Z-5.826
X-310.015 Y-38.415 Z-5.77
X-310.033 Y-38.132 Z-5.657
X-310.047 Y-37.966 Z-5.587
X-310.078 Y-37.693 Z-5.458
X-310.102 Y-37.514 Z-5.367
X-310.143 Y-37.255 Z-5.227
X-310.166 Y-37.135 Z-5.161
X-310.193 Y-37.016 Z-5.103
X-310.23 Y-36.888 Z-5.044
X-310.287 Y-36.722 Z-4.98
X-310.37 Y-36.508 Z-4.902
X-310.477 Y-36.243 Z-4.8
X-310.59 Y-35.973 Z-4.693
X-310.721 Y-35.673 Z-4.571
X-310.88 Y-35.325 Z-4.432
X-311.061 Y-34.951 Z-4.289
X-311.261 Y-34.639 Z-4.111
X-311.482 Y-34.317 Z-3.936
X-311.502 Y-34.29 Z-3.923
X-311.71 Y-34.011 Z-3.78
X-311.905 Y-33.772 Z-3.667
X-311.951 Y-33.719 Z-3.643
X-312.045 Y-33.615 Z-3.6
X-312.152 Y-33.5 Z-3.548
X-312.237 Y-33.415 Z-3.516
X-312.436 Y-33.228 Z-3.443
X-312.474 Y-33.197 Z-3.432
X-312.697 Y-33.018 Z-3.375
X-312.755 Y-32.977 Z-3.362
X-312.86 Y-32.905 Z-3.345
X-312.992 Y-32.819 Z-3.319
X-313.079 Y-32.766 Z-3.309
X-313.349 Y-32.623 Z-3.274
X-313.542 Y-32.536 Z-3.257
X-313.661 Y-32.487 Z-3.243
X-313.787 Y-32.44 Z-3.237
X-313.981 Y-32.372 Z-3.219
X-314.038 Y-32.354 Z-3.218
X-314.31 Y-32.276 Z-3.2
X-314.646 Y-32.196 Z-3.182
X-314.841 Y-32.157 Z-3.175
X-314.989 Y-32.129 Z-3.168
X-315.121 Y-32.106 Z-3.164
X-315.405 Y-32.062 Z-3.154
X-315.695 Y-32.022 Z-3.145
X-316.042 Y-31.981 Z-3.136
X-316.489 Y-31.932 Z-3.126
X-316.757 Y-31.957 Z-3.031
X-316.812 Y-31.964 Z-3.014
X-316.867 Y-31.975 Z-3.004
X-316.921 Y-31.989 Z-3.001
X-318.031 Y-32.356 Z-3.038
X-318.353 Y-32.464 Z-3.05
X-319.123 Y-32.727 Z-3.072
X-319.307 Y-32.791 Z-3.079
X-320.21 Y-33.112 Z-3.1
X-321.181 Y-33.478 Z-3.12
X-322.095 Y-33.846 Z-3.132
X-322.347 Y-33.952 Z-3.128
X-322.992 Y-34.236 Z-3.135
X-323.391 Y-34.418 Z-3.129
X-323.867 Y-34.648 Z-3.125
X-324.296 Y-34.865 Z-3.118
X-324.414 Y-34.927 Z-3.114
X-324.719 Y-35.091 Z-3.108
X-324.913 Y-35.198 Z-3.1
X-325.137 Y-35.325 Z-3.095
X-325.404 Y-35.48 Z-3.083
X-325.549 Y-35.567 Z-3.079
X-325.888 Y-35.776 Z-3.062
X-326.358 Y-36.08 Z-3.04
X-326.754 Y-36.352 Z-3.021
X-327.145 Y-36.631 Z-3.001
X-327.162 Y-36.644 Z-3
G0 Z5
X-333.5 Y-61.385
Z2
G1 Z-3 F849.6
X-333.633 Y-61.354 Z-3.022
X-333.773 Y-61.314 Z-3.051
X-333.88 Y-61.278 Z-3.077
X-333.936 Y-61.257 Z-3.094
X-334.058 Y-61.205 Z-3.132
X-334.174 Y-61.146 Z-3.177
X-334.22 Y-61.12 Z-3.196
X-334.312 Y-61.062 Z-3.239
X-334.387 Y-61.01 Z-3.278
X-334.489 Y-60.933 Z-3.335
X-334.588 Y-60.845 Z-3.399
X-334.635 Y-60.801 Z-3.43
X-334.717 Y-60.717 Z-3.492
X-334.773 Y-60.657 Z-3.536
X-334.864 Y-60.553 Z-3.614
X-334.971 Y-60.42 Z-3.713
X-335.071 Y-60.286 Z-3.814
X-335.214 Y-60.08 Z-3.971
X-335.301 Y-59.95 Z-4.073
X-335.34 Y-59.889 Z-4.118
X-335.477 Y-59.625 Z-4.268
X-335.53 Y-59.511 Z-4.337
X-335.575 Y-59.396 Z-4.414
X-335.612 Y-59.286 Z-4.492
X-335.639 Y-59.185 Z-4.567
X-335.669 Y-59.039 Z-4.679
X-335.686 Y-58.923 Z-4.766
X-335.699 Y-58.804 Z-4.848
X-335.705 Y-58.693 Z-4.914
Y-58.556 Z-4.984
X-335.703 Y-58.476 Z-5.021
X-335.693 Y-58.289 Z-5.101
X-335.676 Y-58.068 Z-5.189
X-335.667 Y-57.975 Z-5.224
X-335.618 Y-57.799 Z-5.237
X-335.501 Y-57.4 Z-5.271
X-335.447 Y-57.227 Z-5.288
X-335.373 Y-56.994 Z-5.308
X-335.344 Y-56.909 Z-5.317
X-335.23 Y-56.583 Z-5.346
X-335.132 Y-56.329 Z-5.37
X-335.068 Y-56.173 Z-5.38
X-335.021 Y-56.066 Z-5.39
X-334.91 Y-55.822 Z-5.404
X-334.876 Y-55.756 Z-5.406
X-334.794 Y-55.599 Z-5.415
X-334.681 Y-55.398
X-334.561 Y-55.211 Z-5.411
X-334.432 Y-55.026 Z-5.394
X-334.39 Y-54.972 Z-5.388
X-334.285 Y-54.838 Z-5.373
X-334.097 Y-54.617 Z-5.336
X-333.937 Y-54.445 Z-5.305
X-333.786 Y-54.291 Z-5.271
X-333.738 Y-54.244 Z-5.263
X-333.467 Y-53.993 Z-5.203
X-333.283 Y-53.834 Z-5.166
X-333.133 Y-53.708 Z-5.132
X-333.031 Y-53.626 Z-5.114
X-332.764 Y-53.417 Z-5.062
X-332.461 Y-53.192 Z-5.006
X-332.122 Y-52.951 Z-4.952
X-331.781 Y-52.718 Z-4.903
X-331.655 Y-52.635 Z-4.888
X-331.431 Y-52.506 Z-4.833
X-331.076 Y-52.307 Z-4.753
X-330.726 Y-52.114 Z-4.679
X-330.376 Y-51.923 Z-4.609
X-329.686 Y-51.554 Z-4.474
X-329.624 Y-51.522 Z-4.464
X-329.085 Y-51.254 Z-4.388
X-328.495 Y-50.964 Z-4.302
X-327.84 Y-50.648 Z-4.205
X-327.183 Y-50.337 Z-4.105
X-326.897 Y-50.204 Z-4.06
X-326.351 Y-49.957 Z-3.978
X-326.341 Y-49.952 Z-3.976
X-325.783 Y-49.706 Z-3.892
X-325.201 Y-49.459 Z-3.805
X-324.531 Y-49.187 Z-3.705
X-324.086 Y-49.015 Z-3.639
X-323.855 Y-48.927 Z-3.609
X-323.514 Y-48.802 Z-3.561
X-323.172 Y-48.679 Z-3.518
X-322.94 Y-48.598 Z-3.487
X-322.364 Y-48.404 Z-3.419
X-321.788 Y-48.218 Z-3.355
X-321.091 Y-48.005 Z-3.285
X-320.631 Y-47.87 Z-3.24
X-320.388 Y-47.801 Z-3.219
X-320.051 Y-47.706 Z-3.188
X-319.47 Y-47.547 Z-3.139
X-318.888 Y-47.392 Z-3.093
X-318.261 Y-47.23 Z-3.045
X-317.658 Y-47.078 Z-3
G0 Z5
X-321.513 Y-86.906
Z2
G1 Z-3.001 F849.6
X-321.283 Y-86.734 Z-3.188
X-320.988 Y-86.519 Z-3.434
X-320.835 Y-86.411 Z-3.565
X-320.678 Y-86.303 Z-3.701
X-320.529 Y-86.202 Z-3.832
X-320.352 Y-86.086 Z-3.99
X-320.186 Y-85.978 Z-4.14
X-319.852 Y-85.768 Z-4.448
X-319.517 Y-85.563 Z-4.762
X-319.181 Y-85.361 Z-5.081
X-318.692 Y-85.073 Z-5.548
X-318.61 Y-85.025 Z-5.628
X-318.143 Y-84.776 Z-6.098
X-317.726 Y-84.559 Z-6.522
X-317.427 Y-84.406 Z-6.83
X-317.189 Y-84.288 Z-7.076
X-316.996 Y-84.674 Z-6.455
X-316.85 Y-84.973 Z-5.978
X-316.634 Y-85.429 Z-5.263
X-316.44 Y-85.853 Z-4.608
X-316.263 Y-86.249 Z-4.001
X-316.016 Y-86.817 Z-3.143
X-315.975 Y-86.911 Z-3
X-316.016 Y-86.817 Z-3.143
X-316.263 Y-86.249 Z-4.001
X-316.44 Y-85.853 Z-4.608
X-316.634 Y-85.429 Z-5.263
X-316.85 Y-84.973 Z-5.978
X-316.996 Y-84.674 Z-6.455
X-317.189 Y-84.288 Z-7.076
X-316.137 Y-82.49 Z-7.033
X-314.08 Y-78.983 Z-6.954
X-312.387 Y-76.103 Z-6.898
X-311.3 Y-74.259 Z-6.869
X-309.946 Y-71.969 Z-6.84
X-308.562 Y-69.633 Z-6.821
X-307.176 Y-67.301 Z-6.809
X-305.79 Y-64.972 Z-6.806
X-304.404 Y-62.645 Z-6.808
X-303.018 Y-60.318 Z-6.816
X-301.626 Y-57.98 Z-6.828
X-300.346 Y-55.84 Z-6.853
X-298.867 Y-53.357 Z-6.877
X-298.085 Y-52.038 Z-6.886
X-297.307 Y-50.721 Z-6.891
X-296.533 Y-49.402 Z-6.89
X-295.984 Y-48.463 Z-6.885
X-295.38 Y-47.424 Z-6.876
X-294.617 Y-46.101 Z-6.857
X-293.845 Y-44.756 Z-6.832
X-293.441 Y-44.051 Z-6.816
X-293.03 Y-43.33 Z-6.803
X-292.717 Y-42.77 Z-6.799
X-292.62 Y-42.595
X-292.405 Y-42.206 Z-6.801
X-292.152 Y-41.674 Z-6.76
X-291.965 Y-41.266 Z-6.728
X-291.863 Y-41.036 Z-6.708
X-291.718 Y-40.691 Z-6.676
X-291.646 Y-40.51 Z-6.657
X-291.551 Y-40.26 Z-6.625
X-291.517 Y-40.166 Z-6.613
X-291.46 Y-39.998 Z-6.588
X-291.392 Y-39.788 Z-6.551
X-291.349 Y-39.647 Z-6.526
X-291.268 Y-39.36 Z-6.468
X-291.247 Y-39.282 Z-6.452
X-291.145 Y-38.872 Z-6.362
X-291.05 Y-38.44 Z-6.266
X-290.959 Y-37.986 Z-6.166
X-290.89 Y-37.604 Z-6.083
X-290.846 Y-37.202 Z-5.961
X-290.827 Y-37.009 Z-5.901
X-290.799 Y-36.679 Z-5.795
X-290.781 Y-36.37 Z-5.687
X-290.777 Y-36.232 Z-5.634
X-290.774 Y-36.094 Z-5.578
X-290.775 Y-35.904 Z-5.494
X-290.776 Y-35.845 Z-5.467
X-290.782 Y-35.724 Z-5.406
X-290.791 Y-35.595 Z-5.337
X-290.803 Y-35.457 Z-5.258
X-290.818 Y-35.307 Z-5.169
X-290.85 Y-35.056 Z-5.011
X-290.861 Y-34.98 Z-4.963
X-290.877 Y-34.892 Z-4.909
X-290.896 Y-34.806 Z-4.86
X-290.919 Y-34.716 Z-4.812
X-290.944 Y-34.628 Z-4.769
X-291.003 Y-34.453 Z-4.69
X-291.087 Y-34.213 Z-4.582
X-291.158 Y-34.017 Z-4.496
X-291.265 Y-33.807 Z-4.361
X-291.35 Y-33.646 Z-4.258
X-291.443 Y-33.48 Z-4.154
X-291.556 Y-33.294 Z-4.039
X-291.64 Y-33.166 Z-3.961
X-291.699 Y-33.083 Z-3.911
X-291.807 Y-32.939 Z-3.822
X-291.9 Y-32.829 Z-3.755
X-291.981 Y-32.742 Z-3.701
X-292.081 Y-32.643 Z-3.636
X-292.185 Y-32.553 Z-3.577
X-292.216 Y-32.528 Z-3.559
X-292.296 Y-32.468 Z-3.517
X-292.416 Y-32.387 Z-3.457
X-292.463 Y-32.359 Z-3.435
X-292.582 Y-32.294 Z-3.385
X-292.685 Y-32.244 Z-3.347
X-292.818 Y-32.186 Z-3.301
X-292.832 Y-32.181 Z-3.297
X-292.989 Y-32.123 Z-3.251
X-293.158 Y-32.071 Z-3.209
X-293.327 Y-32.027 Z-3.174
X-293.494 Y-31.989 Z-3.144
X-293.662 Y-31.955 Z-3.119
X-293.894 Y-31.915 Z-3.089
X-294.047 Y-31.933 Z-3
G0 Z5
X-301.304 Y-36.423
Z2
G1 Z-3 F849.6
X-301.1 Y-36.249 Z-3.012
X-300.534 Y-35.785 Z-3.022
X-300.451 Y-35.718 Z-3.026
X-299.783 Y-35.212 Z-3.031
X-299.096 Y-34.729 Z-3.026
X-298.902 Y-34.599 Z-3.017
X-298.389 Y-34.262 Z-3.008
X-298.242 Y-34.169 Z-3
G0 Z5
X-283.652 Y-61.443
Z2
G1 Z-3 F849.6
X-283.691 Y-61.444 Z-3.01
X-283.725 Y-61.443 Z-3.021
X-284.146 Y-61.373 Z-3.06
X-284.379 Y-61.331 Z-3.082
X-284.609 Y-61.286 Z-3.106
X-284.833 Y-61.235 Z-3.131
X-285.052 Y-61.18 Z-3.158
X-285.123 Y-61.16 Z-3.166
X-285.264 Y-61.117 Z-3.188
X-285.356 Y-61.087 Z-3.2
X-285.469 Y-61.047 Z-3.221
X-285.586 Y-61.003 Z-3.238
X-285.626 Y-60.987 Z-3.246
X-285.814 Y-60.902 Z-3.284
X-286.027 Y-60.789 Z-3.334
X-286.093 Y-60.749 Z-3.349
X-286.192 Y-60.684 Z-3.379
X-286.257 Y-60.638 Z-3.395
X-286.319 Y-60.592 Z-3.415
X-286.471 Y-60.466 Z-3.468
X-286.5 Y-60.441 Z-3.478
X-286.644 Y-60.299 Z-3.54
X-286.722 Y-60.216 Z-3.575
X-286.782 Y-60.147 Z-3.608
X-286.854 Y-60.061 Z-3.646
X-286.899 Y-60.005 Z-3.672
X-287.024 Y-59.836 Z-3.753
X-287.167 Y-59.624 Z-3.858
X-287.214 Y-59.549 Z-3.895
X-287.329 Y-59.356 Z-3.996
X-287.466 Y-59.108 Z-4.129
X-287.599 Y-58.851 Z-4.274
X-287.682 Y-58.681 Z-4.373
X-287.806 Y-58.334 Z-4.507
X-287.894 Y-58.071 Z-4.613
X-287.976 Y-57.816 Z-4.717
X-288.051 Y-57.575 Z-4.811
X-288.068 Y-57.521 Z-4.833
X-288.099 Y-57.399 Z-4.887
X-288.126 Y-57.274 Z-4.95
X-288.14 Y-57.191 Z-4.994
X-288.152 Y-57.107 Z-5.043
X-288.191 Y-56.788 Z-5.229
X-288.214 Y-56.56 Z-5.356
X-288.233 Y-56.347 Z-5.467
X-288.246 Y-56.143 Z-5.568
X-288.255 Y-55.946 Z-5.659
X-288.259 Y-55.748 Z-5.743
X-288.261 Y-55.548 Z-5.823
X-288.258 Y-55.337 Z-5.901
X-288.251 Y-55.118 Z-5.977
X-288.242 Y-54.895 Z-6.05
X-288.235 Y-54.778 Z-6.085
X-288.211 Y-54.429 Z-6.192
X-288.176 Y-53.997 Z-6.314
X-288.123 Y-53.455 Z-6.464
X-288.068 Y-53.229 Z-6.473
X-287.873 Y-52.464 Z-6.514
X-287.858 Y-52.408 Z-6.517
X-287.665 Y-51.7 Z-6.566
X-287.582 Y-51.413 Z-6.591
X-287.439 Y-50.934 Z-6.627
X-287.354 Y-50.664 Z-6.655
X-287.188 Y-50.158 Z-6.7
X-287.113 Y-49.94 Z-6.725
X-286.911 Y-49.385 Z-6.78
X-286.876 Y-49.293 Z-6.791
X-286.605 Y-48.617 Z-6.864
X-286.304 Y-47.944 Z-6.935
X-286.267 Y-47.865 Z-6.94
X-285.998 Y-47.322 Z-6.992
X-285.899 Y-47.13 Z-7.004
X-285.7 Y-46.77 Z-7.029
X-285.541 Y-46.493 Z-7.04
X-285.501 Y-46.425
X-285.376 Y-46.22 Z-7.048
X-285.207 Y-45.953 Z-7.05
X-285.068 Y-45.741 Z-7.046
X-284.65 Y-45.139 Z-7.027
X-284.245 Y-44.597 Z-6.992
X-284.127 Y-44.447 Z-6.975
X-283.812 Y-44.052 Z-6.939
X-283.631 Y-43.834 Z-6.91
X-283.352 Y-43.503 Z-6.871
X-283.117 Y-43.234 Z-6.83
X-282.866 Y-42.95 Z-6.79
X-282.595 Y-42.652 Z-6.737
X-282.356 Y-42.393 Z-6.694
X-282.066 Y-42.085 Z-6.634
X-281.823 Y-41.83 Z-6.586
X-281.271 Y-41.261 Z-6.468
X-280.703 Y-40.688 Z-6.339
X-280.477 Y-40.463 Z-6.286
X-280.124 Y-40.103 Z-6.19
X-279.538 Y-39.51 Z-6.029
X-279.002 Y-38.975 Z-5.884
X-278.54 Y-38.535 Z-5.744
X-278.078 Y-38.102 Z-5.608
X-277.956 Y-37.989 Z-5.572
X-277.616 Y-37.677 Z-5.478
X-277.421 Y-37.5 Z-5.422
X-277.153 Y-37.262 Z-5.351
X-276.88 Y-37.021 Z-5.276
X-276.689 Y-36.857 Z-5.229
X-276.331 Y-36.552 Z-5.134
X-275.77 Y-36.094 Z-4.996
X-275.283 Y-35.716 Z-4.881
X-275.198 Y-35.651 Z-4.859
X-274.806 Y-35.364 Z-4.771
X-274.614 Y-35.227 Z-4.723
X-274.324 Y-35.028 Z-4.662
X-274.014 Y-34.823 Z-4.589
X-273.837 Y-34.709 Z-4.554
X-273.402 Y-34.442 Z-4.456
X-272.838 Y-34.123 Z-4.337
X-272.773 Y-34.088 Z-4.321
X-272.324 Y-33.86 Z-4.229
X-272.127 Y-33.765 Z-4.183
X-271.795 Y-33.613 Z-4.119
X-271.467 Y-33.471 Z-4.047
X-271.251 Y-33.382 Z-4.007
X-270.801 Y-33.206 Z-3.915
X-270.768 Y-33.193 Z-3.909
X-270.13 Y-32.966 Z-3.788
X-269.535 Y-32.772 Z-3.679
X-268.942 Y-32.593 Z-3.573
X-268.783 Y-32.546 Z-3.543
X-268.34 Y-32.421 Z-3.468
X-268.109 Y-32.358 Z-3.427
X-267.732 Y-32.257 Z-3.365
X-267.433 Y-32.178 Z-3.314
X-267.119 Y-32.097 Z-3.263
X-266.564 Y-31.956 Z-3.172
X-266.405 Y-31.937 Z-3.113
X-266.113 Y-31.903 Z-3
G0 Z5
X-293.279 Y-86.418
Z2
G1 Z-3 F849.6
X-293.189 Y-86.36 Z-3.078
X-292.797 Y-86.11 Z-3.42
X-292.529 Y-85.943 Z-3.658
X-292.254 Y-85.774 Z-3.904
X-291.975 Y-85.607 Z-4.157
X-291.556 Y-85.36 Z-4.542
X-290.866 Y-84.962 Z-5.182
X-290.751 Y-84.898 Z-5.291
X-290.481 Y-84.755 Z-5.553
X-290.052 Y-84.529 Z-5.973
X-289.744 Y-84.371 Z-6.277
X-289.414 Y-84.205 Z-6.606
X-289.202 Y-84.102 Z-6.82
X-288.999 Y-84.005 Z-7.027
X-288.774 Y-84.484 Z-6.257
X-288.623 Y-84.816 Z-5.731
X-288.406 Y-85.311 Z-4.958
X-288.209 Y-85.772 Z-4.247
X-288.028 Y-86.21 Z-3.578
X-287.872 Y-86.592 Z-3
X-288.028 Y-86.21 Z-3.578
X-288.209 Y-85.772 Z-4.247
X-288.406 Y-85.311 Z-4.958
X-288.623 Y-84.816 Z-5.731
X-288.774 Y-84.484 Z-6.257
X-288.999 Y-84.005 Z-7.027
X-267.772 Y-50.224 Z-6.784
X-267.709 Y-50.12 Z-6.787
X-267.637 Y-49.994 Z-6.796
X-267.548 Y-49.829 Z-6.82
X-267.465 Y-49.66 Z-6.856
X-267.388 Y-49.488 Z-6.903
X-267.318 Y-49.313 Z-6.961
X-267.253 Y-49.135 Z-7.031
X-267.194 Y-48.953 Z-7.111
X-267.161 Y-48.84 Z-7.167
X-267.129 Y-48.724 Z-7.226
X-267.486 Y-48.618 Z-6.623
X-267.738 Y-48.549 Z-6.203
X-267.958 Y-48.493 Z-5.842
X-268.168 Y-48.445 Z-5.502
X-268.369 Y-48.404 Z-5.183
X-268.56 Y-48.37 Z-4.885
X-268.742 Y-48.344 Z-4.607
X-268.921 Y-48.324 Z-4.341
X-269.06 Y-48.314 Z-4.14
X-269.191 Y-48.308 Z-3.954
X-269.316 Y-48.309 Z-3.782
X-269.434 Y-48.314 Z-3.627
X-269.545 Y-48.325 Z-3.486
X-269.65 Y-48.341 Z-3.36
X-269.747 Y-48.363 Z-3.249
X-269.837 Y-48.389 Z-3.153
X-269.908 Y-48.419 Z-3.079
X-269.974 Y-48.452 Z-3.017
X-269.993 Y-48.463 Z-3
X-269.974 Y-48.452 Z-3.017
X-269.908 Y-48.419 Z-3.079
X-269.837 Y-48.389 Z-3.153
X-269.747 Y-48.363 Z-3.249
X-269.65 Y-48.341 Z-3.36
X-269.545 Y-48.325 Z-3.486
X-269.434 Y-48.314 Z-3.627
X-269.316 Y-48.309 Z-3.782
X-269.191 Y-48.308 Z-3.954
X-269.06 Y-48.314 Z-4.14
X-268.921 Y-48.324 Z-4.341
X-268.742 Y-48.344 Z-4.607
X-268.56 Y-48.37 Z-4.885
X-268.369 Y-48.404 Z-5.183
X-268.168 Y-48.445 Z-5.502
X-267.958 Y-48.493 Z-5.842
X-267.738 Y-48.549 Z-6.203
X-267.486 Y-48.618 Z-6.623
X-267.129 Y-48.724 Z-7.226
X-266.839 Y-48.303 Z-7.185
X-266.475 Y-47.768 Z-7.131
X-266.335 Y-47.56 Z-7.111
X-266.04 Y-47.116 Z-7.064
X-265.754 Y-46.674 Z-7.015
X-265.404 Y-46.116 Z-6.951
X-265.209 Y-45.797 Z-6.914
X-265.062 Y-45.55 Z-6.881
X-264.949 Y-45.359 Z-6.859
X-264.702 Y-44.926 Z-6.8
X-264.407 Y-44.384 Z-6.721
X-264.235 Y-44.053 Z-6.673
X-264.101 Y-43.787 Z-6.627
X-264.019 Y-43.619 Z-6.601
X-263.809 Y-43.172 Z-6.522
X-263.615 Y-42.729 Z-6.441
X-263.54 Y-42.551 Z-6.405
X-263.422 Y-42.264 Z-6.354
X-263.286 Y-41.921 Z-6.285
X-263.236 Y-41.789 Z-6.261
X-263.048 Y-41.279 Z-6.163
X-262.826 Y-40.634 Z-6.045
X-262.623 Y-39.995 Z-5.938
X-262.431 Y-39.359 Z-5.84
X-262.308 Y-38.932 Z-5.78
X-262.273 Y-38.703 Z-5.698
X-262.209 Y-38.236 Z-5.533
X-262.181 Y-38.012 Z-5.451
X-262.157 Y-37.796 Z-5.371
X-262.135 Y-37.583 Z-5.288
X-262.116 Y-37.377 Z-5.205
X-262.102 Y-37.178 Z-5.121
X-262.091 Y-36.981 Z-5.033
X-262.083 Y-36.757 Z-4.926
X-262.08 Y-36.602 Z-4.848
X-262.081 Y-36.412 Z-4.746
X-262.086 Y-36.217 Z-4.635
X-262.096 Y-36.011 Z-4.511
X-262.11 Y-35.792 Z-4.373
X-262.128 Y-35.567 Z-4.226
X-262.142 Y-35.424 Z-4.129
X-262.152 Y-35.333 Z-4.071
X-262.173 Y-35.216 Z-4.001
X-262.2 Y-35.102 Z-3.944
X-262.236 Y-34.985 Z-3.896
X-262.356 Y-34.65 Z-3.771
X-262.465 Y-34.357 Z-3.661
X-262.547 Y-34.148 Z-3.586
X-262.596 Y-34.03 Z-3.545
X-262.668 Y-33.9 Z-3.472
X-262.781 Y-33.705 Z-3.368
X-262.897 Y-33.518 Z-3.273
X-263.004 Y-33.357 Z-3.195
X-263.018 Y-33.338 Z-3.187
X-263.143 Y-33.167 Z-3.113
X-263.276 Y-33.006 Z-3.05
X-263.42 Y-32.851 Z-3
G0 Z5
X-283.427 Y-61.404
Z2
G1 Z-3 F849.6
X-283.417 Y-61.401 Z-3.003
X-283.043 Y-61.27 Z-3.111
X-282.807 Y-61.185 Z-3.176
X-282.661 Y-61.131 Z-3.214
X-282.352 Y-61.013 Z-3.292
X-282.132 Y-60.926 Z-3.342
X-281.918 Y-60.837 Z-3.384
X-281.712 Y-60.745 Z-3.42
X-281.512 Y-60.651 Z-3.448
X-281.317 Y-60.555 Z-3.467
X-281.125 Y-60.453 Z-3.479
X-280.934 Y-60.346 Z-3.484
X-280.741 Y-60.232 Z-3.481
X-280.547 Y-60.113 Z-3.472
X-280.353 Y-59.988 Z-3.46
X-280.158 Y-59.857 Z-3.442
X-279.96 Y-59.722 Z-3.419
X-279.845 Y-59.641 Z-3.403
X-279.562 Y-59.435 Z-3.368
X-279.363 Y-59.287 Z-3.339
X-279.202 Y-59.166 Z-3.314
X-278.778 Y-58.834 Z-3.257
X-278.58 Y-58.663 Z-3.207
X-277.986 Y-58.129 Z-3.078
X-277.543 Y-57.713 Z-3
G0 Z5
X-254.477 Y-61.404
Z2
G1 Z-3 F849.6
X-254.467 Y-61.401 Z-3.003
X-254.093 Y-61.27 Z-3.111
X-253.857 Y-61.185 Z-3.176
X-253.711 Y-61.131 Z-3.214
X-253.401 Y-61.013 Z-3.293
X-253.182 Y-60.926 Z-3.342
X-252.968 Y-60.836 Z-3.385
X-252.762 Y-60.745 Z-3.421
X-252.562 Y-60.651 Z-3.448
X-252.367 Y-60.555 Z-3.467
X-252.175 Y-60.453 Z-3.479
X-251.984 Y-60.346 Z-3.484
X-251.791 Y-60.232 Z-3.481
X-251.597 Y-60.113 Z-3.472
X-251.403 Y-59.988 Z-3.46
X-251.208 Y-59.857 Z-3.442
X-251.01 Y-59.722 Z-3.419
X-250.895 Y-59.641 Z-3.403
X-250.612 Y-59.435 Z-3.368
X-250.252 Y-59.166 Z-3.314
X-249.828 Y-58.835 Z-3.257
X-249.63 Y-58.663 Z-3.207
X-249.036 Y-58.129 Z-3.078
X-248.593 Y-57.713 Z-3
G0 Z5
X-264.329 Y-86.418
Z2
G1 Z-3 F849.6
X-264.239 Y-86.36 Z-3.078
X-263.847 Y-86.11 Z-3.42
X-263.579 Y-85.943 Z-3.657
X-263.304 Y-85.774 Z-3.904
X-263.025 Y-85.607 Z-4.157
X-262.606 Y-85.36 Z-4.542
X-261.916 Y-84.962 Z-5.182
X-261.801 Y-84.898 Z-5.291
X-261.531 Y-84.755 Z-5.553
X-261.102 Y-84.529 Z-5.973
X-260.792 Y-84.37 Z-6.278
X-260.465 Y-84.206 Z-6.605
X-260.252 Y-84.102 Z-6.82
X-260.049 Y-84.005 Z-7.027
X-259.824 Y-84.484 Z-6.257
X-259.675 Y-84.812 Z-5.738
X-259.456 Y-85.311 Z-4.958
X-259.261 Y-85.769 Z-4.251
X-259.078 Y-86.21 Z-3.578
X-258.922 Y-86.592 Z-3
X-259.078 Y-86.21 Z-3.578
X-259.261 Y-85.769 Z-4.251
X-259.456 Y-85.311 Z-4.958
X-259.675 Y-84.812 Z-5.738
X-259.824 Y-84.484 Z-6.257
X-260.049 Y-84.005 Z-7.027
X-238.831 Y-50.24 Z-6.785
X-238.809 Y-50.203
X-238.566 Y-50.241 Z-6.394
X-238.233 Y-50.285 Z-5.865
X-237.997 Y-50.311 Z-5.495
X-237.858 Y-50.323 Z-5.279
X-237.689 Y-50.335 Z-5.022
X-237.463 Y-50.345 Z-4.682
X-237.431 Z-4.635
X-237.222 Y-50.346 Z-4.329
X-237.088 Y-50.341 Z-4.137
X-236.897 Y-50.327 Z-3.87
X-236.871 Y-50.324 Z-3.834
X-236.705 Y-50.302 Z-3.611
X-236.561 Y-50.276 Z-3.425
X-236.448 Y-50.249 Z-3.284
X-236.305 Y-50.21 Z-3.111
X-236.261 Y-50.197 Z-3.058
X-236.21 Y-50.178 Z-3.001
X-236.261 Y-50.197 Z-3.058
X-236.305 Y-50.21 Z-3.111
X-236.448 Y-50.249 Z-3.284
X-236.561 Y-50.276 Z-3.425
X-236.705 Y-50.302 Z-3.611
X-236.871 Y-50.324 Z-3.834
X-236.897 Y-50.327 Z-3.87
X-237.088 Y-50.341 Z-4.137
X-237.222 Y-50.346 Z-4.329
X-237.431 Y-50.345 Z-4.635
X-237.463 Z-4.682
X-237.689 Y-50.335 Z-5.022
X-237.858 Y-50.323 Z-5.279
X-237.997 Y-50.311 Z-5.495
X-238.233 Y-50.285 Z-5.865
X-238.566 Y-50.241 Z-6.394
X-238.809 Y-50.203 Z-6.785
X-238.79 Y-50.082 Z-6.708
X-238.775 Y-49.989 Z-6.655
X-238.764 Y-49.911 Z-6.614
X-238.744 Y-49.775 Z-6.552
X-238.732 Y-49.692 Z-6.519
X-238.721 Y-49.605 Z-6.488
X-238.707 Y-49.501 Z-6.459
X-238.693 Y-49.395 Z-6.437
X-238.678 Y-49.285 Z-6.423
X-238.663 Y-49.167 Z-6.418
X-238.654 Y-49.101 Z-6.42
X-238.646 Y-49.034 Z-6.424
X-238.637 Y-48.966 Z-6.433
X-238.628 Y-48.898 Z-6.445
X-238.618 Y-48.827 Z-6.461
X-238.609 Y-48.755 Z-6.48
X-238.599 Y-48.681 Z-6.505
X-238.589 Y-48.603 Z-6.534
X-238.813 Y-48.542 Z-6.162
X-239.028 Y-48.488 Z-5.81
X-239.234 Y-48.441 Z-5.478
X-239.43 Y-48.402 Z-5.166
X-239.617 Y-48.369 Z-4.874
X-239.795 Y-48.343 Z-4.602
X-239.971 Y-48.324 Z-4.341
X-240.11 Y-48.314 Z-4.14
X-240.241 Y-48.308 Z-3.954
X-240.366 Y-48.309 Z-3.782
X-240.484 Y-48.314 Z-3.627
X-240.595 Y-48.325 Z-3.486
X-240.7 Y-48.341 Z-3.36
X-240.797 Y-48.363 Z-3.249
X-240.887 Y-48.389 Z-3.153
X-240.958 Y-48.419 Z-3.079
X-241.024 Y-48.452 Z-3.017
X-241.043 Y-48.463 Z-3
X-241.024 Y-48.452 Z-3.017
X-240.958 Y-48.419 Z-3.079
X-240.887 Y-48.389 Z-3.153
X-240.797 Y-48.363 Z-3.249
X-240.7 Y-48.341 Z-3.36
X-240.595 Y-48.325 Z-3.486
X-240.484 Y-48.314 Z-3.627
X-240.366 Y-48.309 Z-3.782
X-240.241 Y-48.308 Z-3.954
X-240.11 Y-48.314 Z-4.14
X-239.971 Y-48.324 Z-4.341
X-239.795 Y-48.343 Z-4.602
X-239.617 Y-48.369 Z-4.874
X-239.43 Y-48.402 Z-5.166
X-239.234 Y-48.441 Z-5.478
X-239.028 Y-48.488 Z-5.81
X-238.813 Y-48.542 Z-6.162
X-238.589 Y-48.603 Z-6.534
X-238.579 Y-48.585 Z-6.529
X-238.511 Y-48.468 Z-6.5
X-238.401 Y-48.293 Z-6.468
X-238.286 Y-48.116 Z-6.44
X-238.141 Y-47.896 Z-6.411
X-238.062 Y-47.78 Z-6.399
X-237.938 Y-47.602 Z-6.385
X-237.827 Y-47.448 Z-6.378
X-237.676 Y-47.24 Z-6.376
X-237.549 Y-47.071 Z-6.378
X-237.394 Y-46.869 Z-6.387
X-237.091 Y-46.475 Z-6.41
X-236.695 Y-45.949 Z-6.442
X-236.301 Y-45.419 Z-6.482
X-235.912 Y-44.888 Z-6.53
X-235.519 Y-44.341 Z-6.589
X-235.207 Y-43.897 Z-6.646
X-235.151 Y-43.787 Z-6.627
X-235.069 Y-43.619 Z-6.601
X-234.859 Y-43.172 Z-6.522
X-234.664 Y-42.729 Z-6.442
X-234.591 Y-42.554 Z-6.406
X-234.472 Y-42.266 Z-6.354
X-234.335 Y-41.918 Z-6.283
X-234.285 Y-41.787 Z-6.26
X-234.097 Y-41.279 Z-6.163
X-233.876 Y-40.634 Z-6.045
X-233.763 Y-40.281 Z-5.988
X-233.672 Y-39.995 Z-5.938
X-233.481 Y-39.359 Z-5.84
X-233.358 Y-38.932 Z-5.78
X-233.323 Y-38.703 Z-5.698
X-233.259 Y-38.236 Z-5.533
X-233.231 Y-38.016 Z-5.452
X-233.206 Y-37.796 Z-5.37
X-233.185 Y-37.583 Z-5.288
X-233.166 Y-37.377 Z-5.205
X-233.152 Y-37.178 Z-5.121
X-233.141 Y-36.981 Z-5.033
X-233.133 Y-36.757 Z-4.926
X-233.13 Y-36.602 Z-4.848
X-233.131 Y-36.412 Z-4.746
X-233.136 Y-36.214 Z-4.634
X-233.146 Y-36.011 Z-4.512
X-233.16 Y-35.794 Z-4.375
X-233.178 Y-35.567 Z-4.226
X-233.192 Y-35.424 Z-4.129
X-233.202 Y-35.333 Z-4.071
X-233.223 Y-35.216 Z-4.001
X-233.25 Y-35.102 Z-3.944
X-233.286 Y-34.985 Z-3.896
X-233.405 Y-34.649 Z-3.771
X-233.491 Y-34.42 Z-3.685
X-233.515 Y-34.357 Z-3.661
X-233.597 Y-34.148 Z-3.586
X-233.646 Y-34.028 Z-3.544
X-233.717 Y-33.901 Z-3.473
X-233.83 Y-33.706 Z-3.368
X-233.931 Y-33.542 Z-3.284
X-234.054 Y-33.357 Z-3.195
X-234.068 Y-33.338 Z-3.187
X-234.193 Y-33.167 Z-3.113
X-234.326 Y-33.005 Z-3.05
X-234.469 Y-32.852 Z-3.001
X-234.472 Y-32.849 Z-3
G0 Z5
X-254.702 Y-61.443
Z2
G1 Z-3 F849.6
X-254.741 Y-61.444 Z-3.01
X-254.775 Y-61.443 Z-3.021
X-255.195 Y-61.373 Z-3.06
X-255.429 Y-61.331 Z-3.082
X-255.658 Y-61.286 Z-3.106
X-255.883 Y-61.235 Z-3.131
X-256.102 Y-61.18 Z-3.158
X-256.173 Y-61.16 Z-3.166
X-256.314 Y-61.117 Z-3.188
X-256.406 Y-61.087 Z-3.2
X-256.519 Y-61.047 Z-3.221
X-256.636 Y-61.003 Z-3.238
X-256.676 Y-60.987 Z-3.246
X-256.864 Y-60.902 Z-3.283
X-257.077 Y-60.789 Z-3.334
X-257.143 Y-60.749 Z-3.349
X-257.242 Y-60.684 Z-3.379
X-257.307 Y-60.638 Z-3.395
X-257.369 Y-60.592 Z-3.415
X-257.521 Y-60.466 Z-3.468
X-257.55 Y-60.441 Z-3.478
X-257.694 Y-60.299 Z-3.54
X-257.772 Y-60.216 Z-3.575
X-257.832 Y-60.147 Z-3.608
X-257.904 Y-60.061 Z-3.646
X-257.949 Y-60.005 Z-3.672
X-258.074 Y-59.836 Z-3.753
X-258.217 Y-59.624 Z-3.858
X-258.264 Y-59.549 Z-3.895
X-258.379 Y-59.356 Z-3.996
X-258.518 Y-59.104 Z-4.132
X-258.647 Y-58.855 Z-4.271
X-258.731 Y-58.683 Z-4.372
X-258.764 Y-58.592 Z-4.405
X-258.856 Y-58.329 Z-4.509
X-258.941 Y-58.076 Z-4.61
X-258.961 Y-58.018 Z-4.634
X-259.102 Y-57.57 Z-4.814
X-259.149 Y-57.397 Z-4.888
X-259.176 Y-57.274 Z-4.951
X-259.19 Y-57.192 Z-4.995
X-259.201 Y-57.109 Z-5.043
X-259.241 Y-56.787 Z-5.23
X-259.264 Y-56.563 Z-5.354
X-259.282 Y-56.347 Z-5.466
X-259.296 Y-56.143 Z-5.568
X-259.304 Y-55.946 Z-5.658
X-259.309 Y-55.744 Z-5.745
X-259.311 Y-55.548 Z-5.823
X-259.307 Y-55.337 Z-5.902
X-259.301 Y-55.118 Z-5.977
X-259.291 Y-54.895 Z-6.05
X-259.285 Y-54.775 Z-6.087
X-259.261 Y-54.429 Z-6.192
X-259.242 Y-54.185 Z-6.262
X-259.223 Y-53.962 Z-6.323
X-259.173 Y-53.457 Z-6.464
X-259.116 Y-53.226 Z-6.474
X-258.923 Y-52.467 Z-6.514
X-258.908 Y-52.408 Z-6.517
X-258.715 Y-51.7 Z-6.566
X-258.632 Y-51.413 Z-6.591
X-258.488 Y-50.931 Z-6.628
X-258.404 Y-50.664 Z-6.655
X-258.239 Y-50.161 Z-6.699
X-258.163 Y-49.94 Z-6.725
X-257.961 Y-49.385 Z-6.78
X-257.926 Y-49.293 Z-6.791
X-257.655 Y-48.617 Z-6.864
X-257.354 Y-47.944 Z-6.935
X-257.315 Y-47.862 Z-6.941
X-257.05 Y-47.325 Z-6.992
X-256.95 Y-47.133 Z-7.003
X-256.748 Y-46.767 Z-7.029
X-256.591 Y-46.493 Z-7.04
X-256.551 Y-46.425
X-256.427 Y-46.223 Z-7.047
X-256.255 Y-45.951 Z-7.049
X-256.118 Y-45.741 Z-7.046
X-255.7 Y-45.139 Z-7.027
X-255.295 Y-44.597 Z-6.992
X-255.177 Y-44.447 Z-6.975
X-254.862 Y-44.052 Z-6.94
X-254.678 Y-43.831 Z-6.91
X-254.402 Y-43.504 Z-6.872
X-254.169 Y-43.236 Z-6.83
X-253.916 Y-42.95 Z-6.79
X-253.645 Y-42.652 Z-6.737
X-253.406 Y-42.393 Z-6.695
X-252.873 Y-41.83 Z-6.587
X-252.583 Y-41.53 Z-6.523
X-252.321 Y-41.261 Z-6.468
X-251.753 Y-40.688 Z-6.339
X-251.528 Y-40.464 Z-6.286
X-251.175 Y-40.103 Z-6.19
X-250.587 Y-39.51 Z-6.029
X-250.052 Y-38.975 Z-5.884
X-249.591 Y-38.536 Z-5.745
X-249.006 Y-37.989 Z-5.572
X-248.665 Y-37.677 Z-5.477
X-248.471 Y-37.5 Z-5.422
X-248.203 Y-37.262 Z-5.351
X-247.93 Y-37.021 Z-5.276
X-247.739 Y-36.857 Z-5.229
X-247.381 Y-36.552 Z-5.134
X-246.82 Y-36.094 Z-4.996
X-246.333 Y-35.716 Z-4.881
X-246.248 Y-35.651 Z-4.859
X-245.856 Y-35.364 Z-4.771
X-245.662 Y-35.226 Z-4.723
X-245.374 Y-35.029 Z-4.663
X-245.065 Y-34.823 Z-4.589
X-244.886 Y-34.709 Z-4.554
X-244.452 Y-34.442 Z-4.456
X-243.888 Y-34.123 Z-4.337
X-243.823 Y-34.088 Z-4.321
X-243.374 Y-33.86 Z-4.23
X-243.175 Y-33.764 Z-4.183
X-242.845 Y-33.613 Z-4.119
X-242.518 Y-33.471 Z-4.047
X-242.3 Y-33.381 Z-4.007
X-241.85 Y-33.205 Z-3.915
X-241.818 Y-33.193 Z-3.909
X-241.181 Y-32.966 Z-3.788
X-240.585 Y-32.772 Z-3.679
X-239.991 Y-32.592 Z-3.573
X-239.833 Y-32.546 Z-3.543
X-239.39 Y-32.421 Z-3.468
X-239.157 Y-32.357 Z-3.427
X-238.782 Y-32.257 Z-3.365
X-238.483 Y-32.178 Z-3.314
X-238.169 Y-32.097 Z-3.263
X-237.614 Y-31.956 Z-3.172
X-237.455 Y-31.937 Z-3.113
X-237.163 Y-31.903 Z-3
G0 Z5
X-230.912 Y-61.385
Z2
G1 Z-3 F849.6
X-231.044 Y-61.354 Z-3.021
X-231.188 Y-61.313 Z-3.051
X-231.294 Y-61.277 Z-3.077
X-231.348 Y-61.257 Z-3.094
X-231.47 Y-61.205 Z-3.132
X-231.586 Y-61.146 Z-3.177
X-231.629 Y-61.122 Z-3.194
X-231.722 Y-61.064 Z-3.237
X-231.8 Y-61.01 Z-3.278
X-231.915 Y-60.92 Z-3.343
X-232 Y-60.845 Z-3.399
X-232.047 Y-60.801 Z-3.43
X-232.165 Y-60.679 Z-3.52
X-232.246 Y-60.588 Z-3.588
X-232.276 Y-60.553 Z-3.614
X-232.383 Y-60.42 Z-3.713
X-232.483 Y-60.286 Z-3.814
X-232.626 Y-60.08 Z-3.971
X-232.745 Y-59.902 Z-4.11
X-232.829 Y-59.742 Z-4.201
X-232.889 Y-59.625 Z-4.268
X-232.942 Y-59.511 Z-4.337
X-232.987 Y-59.396 Z-4.414
X-233.024 Y-59.286 Z-4.492
X-233.051 Y-59.185 Z-4.567
X-233.081 Y-59.039 Z-4.679
X-233.098 Y-58.923 Z-4.766
X-233.111 Y-58.804 Z-4.848
X-233.117 Y-58.693 Z-4.914
Y-58.556 Z-4.984
X-233.115 Y-58.476 Z-5.021
X-233.105 Y-58.289 Z-5.101
X-233.088 Y-58.068 Z-5.189
X-233.079 Y-57.975 Z-5.224
X-233.03 Y-57.799 Z-5.237
X-232.913 Y-57.4 Z-5.271
X-232.858 Y-57.224 Z-5.289
X-232.785 Y-56.994 Z-5.309
X-232.757 Y-56.909 Z-5.318
X-232.642 Y-56.583 Z-5.346
X-232.543 Y-56.326 Z-5.37
X-232.48 Y-56.173 Z-5.381
X-232.433 Y-56.064 Z-5.391
X-232.323 Y-55.824 Z-5.405
X-232.288 Y-55.755 Z-5.407
X-232.207 Y-55.601 Z-5.415
X-232.093 Y-55.398
X-231.973 Y-55.211 Z-5.411
X-231.844 Y-55.026 Z-5.394
X-231.802 Y-54.972 Z-5.388
X-231.697 Y-54.838 Z-5.373
X-231.509 Y-54.617 Z-5.336
X-231.349 Y-54.445 Z-5.305
X-231.198 Y-54.291 Z-5.271
X-231.15 Y-54.244 Z-5.263
X-230.879 Y-53.993 Z-5.203
X-230.695 Y-53.834 Z-5.166
X-230.548 Y-53.71 Z-5.133
X-230.443 Y-53.626 Z-5.114
X-230.176 Y-53.417 Z-5.061
X-229.873 Y-53.192 Z-5.006
X-229.534 Y-52.951 Z-4.952
X-229.193 Y-52.718 Z-4.903
X-229.068 Y-52.635 Z-4.888
X-228.843 Y-52.506 Z-4.833
X-228.488 Y-52.307 Z-4.753
X-228.138 Y-52.114 Z-4.679
X-227.788 Y-51.923 Z-4.609
X-227.098 Y-51.554 Z-4.474
X-227.036 Y-51.522 Z-4.464
X-226.497 Y-51.254 Z-4.388
X-225.907 Y-50.964 Z-4.302
X-225.252 Y-50.648 Z-4.205
X-224.595 Y-50.337 Z-4.105
X-224.309 Y-50.204 Z-4.06
X-223.763 Y-49.957 Z-3.978
X-223.753 Y-49.952 Z-3.976
X-223.195 Y-49.706 Z-3.892
X-222.613 Y-49.459 Z-3.804
X-221.943 Y-49.187 Z-3.705
X-221.498 Y-49.015 Z-3.639
X-221.267 Y-48.927 Z-3.609
X-220.926 Y-48.802 Z-3.561
X-220.584 Y-48.679 Z-3.518
X-220.352 Y-48.598 Z-3.487
X-219.776 Y-48.404 Z-3.419
X-219.2 Y-48.218 Z-3.355
X-218.503 Y-48.005 Z-3.285
X-218.043 Y-47.87 Z-3.24
X-217.8 Y-47.801 Z-3.219
X-217.463 Y-47.706 Z-3.188
X-216.882 Y-47.547 Z-3.139
X-216.301 Y-47.392 Z-3.093
X-215.673 Y-47.23 Z-3.044
X-215.071 Y-47.079 Z-3
G0 Z5
X-228.45 Y-61.216
Z2
G1 Z-3 F849.6
X-228.392 Y-61.204 Z-3.005
X-228.142 Y-61.15 Z-3.031
X-227.677 Y-61.044 Z-3.08
X-227.32 Y-60.954 Z-3.123
X-227.158 Y-60.91 Z-3.146
X-226.964 Y-60.856 Z-3.172
X-226.675 Y-60.771 Z-3.218
X-226.607 Y-60.75 Z-3.228
X-226.251 Y-60.634 Z-3.291
X-225.896 Y-60.506 Z-3.362
X-225.734 Y-60.444 Z-3.399
X-225.545 Y-60.368 Z-3.438
X-225.278 Y-60.257 Z-3.502
X-225.195 Y-60.221 Z-3.52
X-224.85 Y-60.064 Z-3.605
X-224.508 Y-59.897 Z-3.691
X-224.39 Y-59.838 Z-3.724
X-224.17 Y-59.724 Z-3.779
X-223.955 Y-59.609 Z-3.838
X-223.525 Y-59.369 Z-3.953
X-223.175 Y-59.163 Z-4.048
X-222.852 Y-58.967 Z-4.137
X-222.676 Y-58.859 Z-4.186
X-222.256 Y-58.593 Z-4.3
X-221.901 Y-58.363 Z-4.394
X-221.591 Y-58.159 Z-4.475
X-221.072 Y-57.798 Z-4.629
X-220.598 Y-57.465 Z-4.766
X-220.124 Y-57.128 Z-4.901
X-219.351 Y-56.57 Z-5.123
X-218.708 Y-56.086 Z-5.293
X-218.238 Y-55.727 Z-5.421
X-217.802 Y-55.389 Z-5.544
X-217.301 Y-54.995 Z-5.687
X-217.041 Y-54.787 Z-5.766
X-216.832 Y-54.618 Z-5.827
X-216.366 Y-54.236 Z-5.969
X-215.901 Y-53.842 Z-6.113
X-215.59 Y-53.575 Z-6.214
X-215.441 Y-53.444 Z-6.259
X-214.988 Y-53.039 Z-6.404
X-214.967 Y-53.02 Z-6.411
X-214.544 Y-52.628 Z-6.543
X-214.26 Y-52.362 Z-6.635
X-213.677 Y-51.791 Z-6.809
X-213.261 Y-51.365 Z-6.923
X-213.057 Y-51.154 Z-6.98
X-212.85 Y-50.932 Z-7.032
X-212.526 Y-50.577 Z-7.107
X-212.268 Y-50.285 Z-7.159
X-212.068 Y-50.051 Z-7.194
X-211.782 Y-49.708 Z-7.237
X-211.551 Y-49.421 Z-7.262
X-211.336 Y-49.145 Z-7.277
X-211.112 Y-48.849 Z-7.283
X-210.992 Y-48.684 Z-7.28
X-210.906 Y-48.561 Z-7.281
X-210.81 Y-48.412 Z-7.286
X-210.719 Y-48.26 Z-7.3
X-210.656 Y-48.142 Z-7.313
X-210.595 Y-48.022 Z-7.332
X-211.262 Y-47.641 Z-6.021
X-211.551 Y-47.476 Z-5.459
X-211.818 Y-47.324 Z-4.945
X-212.067 Y-47.182 Z-4.473
X-212.304 Y-47.047 Z-4.039
X-212.419 Y-46.982 Z-3.836
X-212.532 Y-46.917 Z-3.644
X-212.644 Y-46.853 Z-3.466
X-212.7 Y-46.821 Z-3.384
X-212.756 Y-46.789 Z-3.307
X-212.837 Y-46.746 Z-3.206
X-212.917 Y-46.711 Z-3.119
X-212.995 Y-46.683 Z-3.045
X-213.052 Y-46.668 Z-3
X-212.995 Y-46.683 Z-3.045
X-212.917 Y-46.711 Z-3.119
X-212.837 Y-46.746 Z-3.206
X-212.756 Y-46.789 Z-3.307
X-212.7 Y-46.821 Z-3.384
X-212.644 Y-46.853 Z-3.466
X-212.532 Y-46.917 Z-3.644
X-212.419 Y-46.982 Z-3.836
X-212.304 Y-47.047 Z-4.039
X-212.067 Y-47.182 Z-4.473
X-211.818 Y-47.324 Z-4.945
X-211.551 Y-47.476 Z-5.459
X-211.262 Y-47.641 Z-6.021
X-210.595 Y-48.022 Z-7.332
X-210.543 Y-47.947 Z-7.324
X-210.445 Y-47.792 Z-7.311
X-210.351 Y-47.637 Z-7.302
X-210.162 Y-47.315 Z-7.276
X-209.975 Y-46.985 Z-7.24
X-209.789 Y-46.645 Z-7.196
X-209.583 Y-46.251 Z-7.137
X-209.379 Y-45.842 Z-7.07
X-209.237 Y-45.551 Z-7.025
X-209.178 Y-45.425 Z-7.001
X-208.982 Y-44.999 Z-6.928
X-208.882 Y-44.774 Z-6.893
X-208.792 Y-44.565 Z-6.855
X-208.608 Y-44.124 Z-6.783
X-208.541 Y-43.959 Z-6.759
X-208.431 Y-43.675 Z-6.713
X-208.263 Y-43.224 Z-6.65
X-208.22 Y-43.107 Z-6.637
X-208.097 Y-42.755 Z-6.591
X-207.943 Y-42.289 Z-6.545
X-207.922 Y-42.222 Z-6.54
X-207.797 Y-41.816 Z-6.508
X-207.652 Y-41.31 Z-6.484
X-207.536 Y-40.88 Z-6.472
X-207.504 Y-40.754 Z-6.471
X-207.474 Y-40.405 Z-6.371
X-207.443 Y-39.943 Z-6.244
X-207.429 Y-39.669 Z-6.168
X-207.42 Y-39.399 Z-6.09
X-207.414 Y-39.054 Z-5.986
Y-38.886 Z-5.934
X-207.421 Y-38.573 Z-5.826
X-207.427 Y-38.415 Z-5.77
X-207.445 Y-38.132 Z-5.657
X-207.459 Y-37.966 Z-5.587
X-207.49 Y-37.693 Z-5.458
X-207.514 Y-37.514 Z-5.367
X-207.555 Y-37.255 Z-5.227
X-207.578 Y-37.135 Z-5.161
X-207.605 Y-37.016 Z-5.103
X-207.642 Y-36.888 Z-5.044
X-207.699 Y-36.722 Z-4.98
X-207.782 Y-36.508 Z-4.902
X-207.889 Y-36.244 Z-4.801
X-208.003 Y-35.973 Z-4.693
X-208.132 Y-35.676 Z-4.573
X-208.292 Y-35.325 Z-4.432
X-208.473 Y-34.951 Z-4.289
X-208.672 Y-34.642 Z-4.113
X-208.894 Y-34.317 Z-3.936
X-209.089 Y-34.053 Z-3.801
X-209.122 Y-34.011 Z-3.78
X-209.317 Y-33.772 Z-3.667
X-209.363 Y-33.719 Z-3.643
X-209.457 Y-33.615 Z-3.6
X-209.564 Y-33.5 Z-3.548
X-209.649 Y-33.415 Z-3.516
X-209.849 Y-33.228 Z-3.444
X-209.885 Y-33.198 Z-3.433
X-210.108 Y-33.019 Z-3.375
X-210.168 Y-32.976 Z-3.362
X-210.272 Y-32.905 Z-3.346
X-210.406 Y-32.818 Z-3.319
X-210.492 Y-32.767 Z-3.309
X-210.761 Y-32.623 Z-3.274
X-210.954 Y-32.536 Z-3.257
X-211.073 Y-32.487 Z-3.243
X-211.198 Y-32.44 Z-3.237
X-211.393 Y-32.372 Z-3.219
X-211.451 Y-32.354 Z-3.217
X-211.723 Y-32.276 Z-3.2
X-212.059 Y-32.196 Z-3.182
X-212.253 Y-32.157 Z-3.176
X-212.401 Y-32.129 Z-3.168
X-212.533 Y-32.106 Z-3.164
X-212.817 Y-32.062 Z-3.154
X-213.107 Y-32.022 Z-3.145
X-213.454 Y-31.981 Z-3.136
X-213.901 Y-31.932 Z-3.126
X-214.168 Y-31.957 Z-3.031
X-214.224 Y-31.964 Z-3.014
X-214.279 Y-31.975 Z-3.004
X-214.348 Y-31.994 Z-3.001
X-214.803 Y-32.144 Z-3.018
X-215.765 Y-32.464 Z-3.05
X-216.719 Y-32.791 Z-3.079
X-217.663 Y-33.127 Z-3.102
X-218.594 Y-33.477 Z-3.12
X-218.707 Y-33.522 Z-3.119
X-219.507 Y-33.846 Z-3.131
X-219.771 Y-33.958 Z-3.128
X-220.405 Y-34.236 Z-3.135
X-220.844 Y-34.437 Z-3.13
X-221.326 Y-34.671 Z-3.124
X-221.708 Y-34.865 Z-3.118
X-221.834 Y-34.931 Z-3.114
X-222.131 Y-35.091 Z-3.108
X-222.334 Y-35.203 Z-3.1
X-222.549 Y-35.325 Z-3.095
X-222.825 Y-35.485 Z-3.083
X-222.961 Y-35.567 Z-3.079
X-223.368 Y-35.819 Z-3.06
X-223.783 Y-36.089 Z-3.04
X-224.248 Y-36.409 Z-3.015
X-224.557 Y-36.631 Z-3.001
X-224.574 Y-36.644 Z-3
G0 Z5
X-245.969 Y-79.576
Z2
G1 Z-3.001 F849.6
X-245.996 Y-79.67 Z-3.077
X-246.028 Y-79.738 Z-3.116
X-246.054 Y-79.79 Z-3.144
X-246.102 Y-79.88 Z-3.183
X-246.141 Y-79.951 Z-3.21
X-246.186 Y-80.033 Z-3.241
X-246.247 Y-80.15 Z-3.279
X-246.319 Y-80.297 Z-3.319
X-246.354 Y-80.374 Z-3.337
X-246.404 Y-80.487 Z-3.359
X-246.456 Y-80.618 Z-3.377
X-246.494 Y-80.717 Z-3.387
X-246.536 Y-80.836 Z-3.395
X-246.577 Y-80.96 Z-3.399
X-246.618 Y-81.089 Z-3.4
X-246.674 Y-81.283 Z-3.395
X-246.693 Y-81.351 Z-3.392
X-246.73 Y-81.489 Z-3.384
X-246.8 Y-81.774 Z-3.362
X-246.868 Y-82.072 Z-3.333
X-246.933 Y-82.377 Z-3.302
X-246.971 Y-82.564 Z-3.284
X-247.029 Y-82.814 Z-3.274
X-247.085 Y-83.065 Z-3.266
X-247.144 Y-83.344 Z-3.26
X-247.214 Y-83.693 Z-3.256
X-247.283 Y-84.065 Z-3.258
X-247.339 Y-84.39 Z-3.262
X-247.403 Y-84.813 Z-3.273
X-247.441 Y-85.089 Z-3.28
X-247.484 Y-85.438 Z-3.29
X-247.521 Y-85.787 Z-3.3
X-247.523 Y-85.807
X-247.566 Y-86.306 Z-3.31
X-247.584 Y-86.555 Z-3.314
X-247.614 Y-87.058 Z-3.32
X-247.627 Y-87.312 Z-3.321
X-247.653 Y-87.877 Z-3.324
X-247.666 Y-88.223 Z-3.325
Y-88.333 Z-3.332
X-247.663 Y-88.558 Z-3.352
X-247.629 Y-89.054 Z-3.35
X-247.574 Y-89.8 Z-3.349
X-247.573 Y-89.807
X-247.528 Y-90.316
X-247.499 Y-90.616 Z-3.352
X-247.477 Y-90.824 Z-3.351
X-247.442 Y-91.127 Z-3.354
X-247.416 Y-91.332 Z-3.353
X-247.375 Y-91.631 Z-3.357
X-247.344 Y-91.838 Z-3.355
X-247.297 Y-92.129 Z-3.361
X-247.259 Y-92.341 Z-3.36
X-247.206 Y-92.617 Z-3.365
X-247.158 Y-92.843 Z-3.363
X-247.1 Y-93.097 Z-3.368
X-247.039 Y-93.339 Z-3.367
X-246.978 Y-93.568 Z-3.373
X-246.9 Y-93.833 Z-3.37
X-246.838 Y-94.027 Z-3.376
X-246.738 Y-94.318 Z-3.373
X-246.679 Y-94.477 Z-3.378
X-246.552 Y-94.796 Z-3.374
X-246.5 Y-94.917 Z-3.378
X-246.343 Y-95.262 Z-3.373
X-246.3 Y-95.35 Z-3.375
X-246.112 Y-95.716 Z-3.369
X-246.079 Y-95.779 Z-3.37
X-245.838 Y-96.204 Z-3.364
X-245.58 Y-96.626 Z-3.357
X-245.307 Y-97.044 Z-3.35
X-245.019 Y-97.461 Z-3.341
X-244.72 Y-97.876 Z-3.332
X-244.41 Y-98.29 Z-3.324
X-244.093 Y-98.704 Z-3.314
X-243.486 Y-99.479 Z-3.298
X-243.447 Y-99.514 Z-3.29
X-243.406 Y-99.548 Z-3.287
X-242.701 Y-100.099 Z-3.27
X-242.617 Y-100.163 Z-3.267
X-242.218 Y-100.468 Z-3.258
X-241.815 Y-100.768 Z-3.248
X-241.407 Y-101.061 Z-3.239
X-240.993 Y-101.346 Z-3.23
X-240.572 Y-101.62 Z-3.222
X-240.144 Y-101.88 Z-3.213
X-239.708 Y-102.125 Z-3.206
X-239.261 Y-102.353 Z-3.198
X-238.805 Y-102.559 Z-3.192
X-238.34 Y-102.743 Z-3.184
X-237.869 Y-102.903 Z-3.177
X-237.391 Y-103.042 Z-3.17
X-236.908 Y-103.161 Z-3.165
X-236.421 Y-103.263 Z-3.161
X-235.931 Y-103.349 Z-3.157
X-235.437 Y-103.423 Z-3.154
X-234.929 Y-103.486 Z-3.151
X-234.407 Y-103.54 Z-3.149
X-233.88 Y-103.588 Z-3.147
X-233.35 Y-103.629 Z-3.146
X-232.45 Y-103.691 Z-3.141
X-232.373 Y-103.693 Z-3.147
X-232.32 Z-3.154
X-231.514 Y-103.614 Z-3.153
X-230.672 Y-103.529
X-229.831 Y-103.438 Z-3.152
X-228.995 Y-103.341 Z-3.151
X-228.164 Y-103.233
X-227.338 Y-103.113 Z-3.152
X-226.659 Y-103.003 Z-3.15
X-226.518 Y-102.978 Z-3.153
X-225.851 Y-102.855 Z-3.152
X-225.705 Y-102.826 Z-3.154
X-225.047 Y-102.688 Z-3.152
X-224.901 Y-102.654 Z-3.155
X-224.249 Y-102.498
X-224.104 Y-102.461 Z-3.159
X-223.458 Y-102.284 Z-3.157
X-223.317 Y-102.243 Z-3.161
X-222.675 Y-102.044 Z-3.159
X-222.538 Y-101.999 Z-3.163
X-221.9 Y-101.778 Z-3.161
X-221.767 Y-101.729 Z-3.164
X-221.134 Y-101.488 Z-3.162
X-221.002 Y-101.435 Z-3.165
X-220.377 Y-101.177 Z-3.164
X-220.243 Y-101.119 Z-3.166
X-219.627 Y-100.846 Z-3.164
X-219.487 Y-100.783 Z-3.167
X-218.885 Y-100.5 Z-3.165
X-218.736 Y-100.429 Z-3.167
X-218.147 Y-100.139 Z-3.165
X-217.989 Y-100.059 Z-3.167
X-217.245 Y-99.676
X-216.502 Y-99.281 Z-3.166
X-215.761 Y-98.877 Z-3.165
X-215.02 Y-98.466 Z-3.164
X-213.809 Y-97.785 Z-3.16
X-213.743 Y-97.744 Z-3.165
X-213.68 Y-97.698 Z-3.181
X-213.62 Y-97.646 Z-3.208
X-213.563 Y-97.589 Z-3.245
X-213.537 Y-97.561 Z-3.267
X-213.511 Y-97.532 Z-3.294
X-213.484 Y-97.503 Z-3.325
X-213.429 Y-97.444 Z-3.398
X-213.401 Y-97.414 Z-3.441
X-213.342 Y-97.35 Z-3.54
X-213.278 Y-97.282 Z-3.656
X-213.209 Y-97.208 Z-3.792
X-213.133 Y-97.126 Z-3.951
X-213.049 Y-97.035 Z-4.135
X-213.076 Y-96.999 Z-4.112
X-213.101 Y-96.965 Z-4.093
X-213.146 Y-96.903 Z-4.067
X-213.187 Y-96.846 Z-4.051
X-213.227 Y-96.792 Z-4.044
X-213.263 Y-96.745 Z-4.042
X-213.318 Y-96.677 Z-4.045
X-213.376 Y-96.612 Z-4.055
X-213.88 Y-96.07 Z-4.168
X-214.296 Y-95.615 Z-4.264
X-214.655 Y-95.217 Z-4.35
X-214.861 Y-94.985 Z-4.403
X-215.012 Y-94.813 Z-4.44
X-215.33 Y-94.442 Z-4.526
X-215.714 Y-93.978 Z-4.635
X-216.056 Y-93.545 Z-4.739
X-216.208 Y-93.346 Z-4.792
X-216.39 Y-93.099 Z-4.851
X-216.609 Y-92.793 Z-4.934
X-216.716 Y-92.639 Z-4.971
X-216.981 Y-92.239 Z-5.079
X-217.029 Y-92.164 Z-5.097
X-217.321 Y-91.684 Z-5.228
X-217.33 Y-91.669 Z-5.232
X-217.615 Y-91.15 Z-5.373
X-217.876 Y-90.621 Z-5.515
X-218.113 Y-90.084 Z-5.653
X-218.14 Y-90.02 Z-5.67
X-218.247 Y-89.746 Z-5.738
X-218.324 Y-89.54 Z-5.782
X-218.508 Y-88.989 Z-5.897
X-218.526 Y-88.935 Z-5.909
X-218.669 Y-88.438 Z-5.999
X-218.683 Y-88.388 Z-6.009
X-218.81 Y-87.885 Z-6.09
X-218.843 Y-87.746 Z-6.114
X-218.932 Y-87.337 Z-6.17
X-218.975 Y-87.135 Z-6.2
X-219.041 Y-86.789 Z-6.242
X-219.094 Y-86.504 Z-6.278
X-219.202 Y-85.855 Z-6.348
X-219.303 Y-85.19 Z-6.407
X-219.321 Y-85.05 Z-6.421
X-219.334 Y-84.914 Z-6.441
X-219.344 Y-84.777 Z-6.468
X-219.359 Y-84.501 Z-6.529
X-219.391 Y-83.793 Z-6.677
X-219.419 Y-83.071 Z-6.828
X-219.431 Y-82.694 Z-6.907
X-219.398 Y-82.383 Z-6.902
X-219.328 Y-81.769 Z-6.895
X-219.256 Y-81.206 Z-6.893
X-219.248 Y-81.153
X-219.205 Y-80.853 Z-6.895
X-219.156 Y-80.527 Z-6.893
X-219.125 Y-80.34 Z-6.895
X-219.036 Y-79.846 Z-6.894
X-218.935 Y-79.352 Z-6.892
X-218.914 Y-79.264 Z-6.891
X-218.83 Y-78.91 Z-6.89
X-218.757 Y-78.631 Z-6.882
X-218.713 Y-78.472
X-218.568 Y-77.997 Z-6.862
X-218.447 Y-77.652 Z-6.846
X-218.339 Y-77.368 Z-6.822
X-218.298 Y-77.265 Z-6.816
X-218.121 Y-76.858 Z-6.773
X-218.073 Y-76.756 Z-6.76
X-217.943 Y-76.491 Z-6.731
X-217.78 Y-76.177 Z-6.683
X-217.734 Y-76.092 Z-6.673
X-217.463 Y-75.617 Z-6.596
X-217.253 Y-75.273 Z-6.539
X-217.129 Y-75.078 Z-6.502
X-216.981 Y-74.851 Z-6.464
X-216.783 Y-74.557 Z-6.407
X-216.691 Y-74.423 Z-6.385
X-216.384 Y-73.99 Z-6.304
X-216.063 Y-73.553 Z-6.223
X-215.703 Y-73.079 Z-6.135
X-215.338 Y-72.608 Z-6.051
X-215.133 Y-72.349 Z-6.006
X-214.841 Y-72.036 Z-5.889
X-214.151 Y-71.308 Z-5.613
X-214.085 Y-71.24 Z-5.589
X-214.018 Y-71.175 Z-5.569
X-213.914 Y-71.081 Z-5.545
X-213.516 Y-70.734 Z-5.47
X-213.11 Y-70.387 Z-5.39
X-212.692 Y-70.04 Z-5.304
X-212.268 Y-69.7 Z-5.213
X-211.83 Y-69.366 Z-5.116
X-211.383 Y-69.044 Z-5.013
X-210.963 Y-68.759 Z-4.914
X-210.921 Y-68.733 Z-4.904
X-210.552 Y-68.501 Z-4.817
X-210.448 Y-68.44 Z-4.789
X-210.103 Y-68.242 Z-4.707
X-209.962 Y-68.167 Z-4.669
X-209.641 Y-68.001 Z-4.592
X-209.463 Y-67.915 Z-4.544
X-209.161 Y-67.777 Z-4.474
X-208.953 Y-67.687 Z-4.419
X-208.662 Y-67.57 Z-4.357
X-208.433 Y-67.484 Z-4.301
X-208.145 Y-67.382 Z-4.245
X-207.91 Y-67.305 Z-4.194
X-207.611 Y-67.215 Z-4.143
X-207.388 Y-67.151 Z-4.101
X-207.064 Y-67.067 Z-4.053
X-206.866 Y-67.018 Z-4.02
X-206.38 Y-66.91 Z-3.955
X-206.345 Y-66.903 Z-3.95
X-205.823 Y-66.803 Z-3.891
X-205.302 Y-66.715 Z-3.842
X-204.765 Y-66.635 Z-3.799
X-204.172 Y-66.558 Z-3.762
X-203.634 Y-66.493 Z-3.735
X-202.901 Y-66.466 Z-3.612
X-202.378 Y-66.452 Z-3.523
X-202.119 Y-66.448 Z-3.478
X-202.038 Y-66.452 Z-3.472
X-201.741 Y-66.479 Z-3.467
X-201.443 Y-66.508 Z-3.457
X-201.355 Y-66.518 Z-3.455
X-201.105 Y-66.546 Z-3.443
X-200.844 Y-66.58 Z-3.429
X-200.543 Y-66.624 Z-3.409
X-200.244 Y-66.673 Z-3.386
X-199.954 Y-66.726 Z-3.364
X-199.858 Y-66.745 Z-3.357
X-199.607 Y-66.797 Z-3.338
X-199.343 Y-66.856 Z-3.318
X-199.045 Y-66.929 Z-3.3
X-198.746 Y-67.009 Z-3.286
X-198.45 Y-67.094 Z-3.278
X-198.097 Y-67.203
X-197.846 Y-67.286 Z-3.283
X-197.578 Y-67.378 Z-3.294
X-197.244 Y-67.492 Z-3.325
X-196.921 Y-67.609 Z-3.357
X-196.611 Y-67.729 Z-3.387
X-196.439 Y-67.8 Z-3.4
X-196.319 Y-67.852 Z-3.408
X-196.164 Y-67.922 Z-3.414
X-196.046 Y-67.978 Z-3.416
X-195.894 Y-68.054 Z-3.413
X-195.794 Y-68.107 Z-3.409
X-195.631 Y-68.199 Z-3.391
X-195.557 Y-68.243 Z-3.381
X-195.446 Y-68.313 Z-3.36
X-195.337 Y-68.386 Z-3.332
X-195.227 Y-68.465 Z-3.297
X-195.088 Y-68.573 Z-3.243
X-194.973 Y-68.668 Z-3.195
X-194.871 Y-68.752 Z-3.145
X-194.801 Y-68.808 Z-3.104
X-194.733 Y-68.859 Z-3.061
X-194.655 Y-68.913 Z-3.006
X-194.648 Y-68.918 Z-3
G0 Z5
X-212.648 Y-97.209
Z2
G1 Z-4.136 F849.6
X-212.565 Y-97.306 Z-4.054
X-212.479 Y-97.395 Z-3.986
X-212.39 Y-97.477 Z-3.931
X-212.297 Y-97.553 Z-3.89
X-212.2 Y-97.622 Z-3.862
X-212.099 Y-97.683 Z-3.848
X-211.857 Y-97.822 Z-3.831
X-210.841 Y-98.397 Z-3.755
X-210.171 Y-98.772 Z-3.703
X-209.827 Y-98.964 Z-3.68
X-209.2 Y-99.307 Z-3.63
X-208.811 Y-99.518 Z-3.604
X-208.224 Y-99.831 Z-3.558
X-207.79 Y-100.058 Z-3.531
X-207.242 Y-100.34 Z-3.488
X-206.766 Y-100.578 Z-3.46
X-206.253 Y-100.829 Z-3.421
X-205.736 Y-101.074 Z-3.394
X-205.256 Y-101.295 Z-3.358
X-204.698 Y-101.542 Z-3.332
X-204.251 Y-101.734 Z-3.301
X-203.651 Y-101.979 Z-3.278
X-203.24 Y-102.14 Z-3.251
X-202.594 Y-102.381 Z-3.227
X-202.214 Y-102.513 Z-3.207
X-201.698 Y-102.685 Z-3.191
X-201.524 Y-102.742 Z-3.188
X-201.179 Y-102.848 Z-3.175
X-200.988 Y-102.905 Z-3.172
X-200.656 Y-103 Z-3.16
X-200.447 Y-103.057 Z-3.157
X-200.13 Y-103.14 Z-3.145
X-199.604 Y-103.272 Z-3.136
X-199.351 Y-103.333 Z-3.135
X-199.071 Y-103.396 Z-3.127
X-198.244 Y-103.568 Z-3.121
X-198.006 Y-103.614 Z-3.114
X-197.126 Y-103.77 Z-3.112
X-196.934 Y-103.802 Z-3.107
X-195.999 Y-103.941
X-195.853 Y-103.961 Z-3.104
X-194.766 Y-104.094 Z-3.106
X-193.673 Y-104.204 Z-3.112
X-192.566 Y-104.297 Z-3.12
X-191.409 Y-104.375 Z-3.131
X-190.247 Y-104.44 Z-3.145
X-189.082 Y-104.495 Z-3.159
X-187.913 Y-104.543 Z-3.174
X-187.05 Y-104.576 Z-3.185
X-186.985 Y-104.577 Z-3.189
X-186.774 Y-104.571 Z-3.215
X-185.099 Y-104.424 Z-3.241
X-183.276 Y-104.255 Z-3.27
X-181.425 Y-104.071 Z-3.3
X-180.009 Y-103.915 Z-3.327
X-179.581 Y-103.865 Z-3.331
X-178.33 Y-103.709 Z-3.357
X-177.748 Y-103.632 Z-3.361
X-176.661 Y-103.478 Z-3.385
X-175.925 Y-103.363 Z-3.394
X-175.003 Y-103.213 Z-3.416
X-174.113 Y-103.054 Z-3.433
X-173.214 Y-102.88 Z-3.451
X-172.553 Y-102.743 Z-3.467
X-172.319 Y-102.692 Z-3.469
X-171.744 Y-102.564 Z-3.484
X-171.429 Y-102.491 Z-3.488
X-170.941 Y-102.373 Z-3.502
X-170.544 Y-102.274 Z-3.507
X-170.142 Y-102.17 Z-3.519
X-169.663 Y-102.042 Z-3.527
X-169.349 Y-101.954 Z-3.538
X-168.79 Y-101.792 Z-3.548
X-168.561 Y-101.723 Z-3.556
X-167.921 Y-101.524 Z-3.57
X-167.78 Y-101.479 Z-3.575
X-167.004 Y-101.218 Z-3.594
X-166.205 Y-100.931 Z-3.614
X-165.357 Y-100.604 Z-3.639
X-164.71 Y-100.34 Z-3.663
X-164.516 Y-100.258 Z-3.668
X-163.956 Y-100.015 Z-3.692
X-163.684 Y-99.895 Z-3.7
X-163.206 Y-99.677 Z-3.724
X-162.857 Y-99.513 Z-3.737
X-162.462 Y-99.324 Z-3.759
X-162.039 Y-99.116 Z-3.777
X-161.722 Y-98.956 Z-3.797
X-161.226 Y-98.703 Z-3.821
X-160.986 Y-98.577 Z-3.838
X-160.419 Y-98.275 Z-3.869
X-160.254 Y-98.185 Z-3.882
X-159.528 Y-97.783 Z-3.928
X-158.822 Y-97.376 Z-3.974
X-158.028 Y-96.91 Z-4.036
X-157.242 Y-96.431 Z-4.097
X-156.649 Y-96.063 Z-4.151
X-156.456 Y-95.942 Z-4.165
X-155.673 Y-95.44 Z-4.236
X-155.23 Y-95.151 Z-4.283
X-154.123 Y-94.418 Z-4.388
X-153.818 Y-94.212 Z-4.423
X-152.584 Y-93.369 Z-4.554
X-152.413 Y-93.25 Z-4.575
X-151.012 Y-92.27 Z-4.74
X-149.686 Y-91.328 Z-4.907
X-149.537 Y-91.209
X-148.089 Y-90.035 Z-4.92
X-147.506 Y-89.56 Z-4.926
X-146.589 Y-88.804 Z-4.929
X-146.529 Y-88.751 Z-4.934
X-146.408 Y-88.64 Z-4.95
X-145.366 Y-87.673 Z-5.068
X-144.679 Y-87.022 Z-5.135
X-144.349 Y-86.707 Z-5.17
X-143.765 Y-86.139 Z-5.218
X-143.358 Y-85.739 Z-5.256
X-142.864 Y-85.239 Z-5.288
X-142.397 Y-84.761 Z-5.325
X-141.935 Y-84.277 Z-5.352
X-141.481 Y-83.786 Z-5.377
X-141.116 Y-83.383 Z-5.39
X-141.037 Y-83.294 Z-5.395
X-140.604 Y-82.798 Z-5.41
X-140.28 Y-82.417 Z-5.414
X-140.182 Y-82.3 Z-5.418
X-139.773 Y-81.797 Z-5.424
X-139.478 Y-81.425 Z-5.419
X-139.374 Y-81.291 Z-5.422
X-138.99 Y-80.782 Z-5.417
X-138.72 Y-80.414 Z-5.403
X-138.617 Y-80.269 Z-5.401
X-138.357 Y-79.894 Z-5.387
X-138.257 Y-79.748 Z-5.384
X-138.001 Y-79.362 Z-5.365
X-137.911 Y-79.223 Z-5.361
X-137.661 Y-78.824 Z-5.337
X-137.579 Y-78.692 Z-5.331
X-137.334 Y-78.279 Z-5.302
X-137.26 Y-78.151 Z-5.295
X-137.019 Y-77.722 Z-5.261
X-136.952 Y-77.6 Z-5.254
X-136.719 Y-77.158 Z-5.216
X-136.656 Y-77.037 Z-5.208
X-136.433 Y-76.588 Z-5.168
X-136.372 Y-76.462 Z-5.16
X-136.16 Y-76.009 Z-5.119
X-136.1 Y-75.875 Z-5.11
X-135.902 Y-75.425 Z-5.07
X-135.839 Y-75.278 Z-5.06
X-135.657 Y-74.835 Z-5.022
X-135.591 Y-74.668 Z-5.011
X-135.426 Y-74.24 Z-4.976
X-135.354 Y-74.047 Z-4.965
X-135.21 Y-73.648 Z-4.934
X-135.129 Y-73.417 Z-4.92
X-135.003 Y-73.046 Z-4.892
X-134.915 Y-72.777 Z-4.877
X-134.809 Y-72.445 Z-4.854
X-134.71 Y-72.128 Z-4.837
X-134.624 Y-71.84 Z-4.818
X-134.517 Y-71.474 Z-4.8
X-134.447 Y-71.224 Z-4.784
X-134.122 Y-70.009 Z-4.728
X-133.821 Y-68.767 Z-4.679
X-133.552 Y-67.558 Z-4.641
X-133.514 Y-67.382 Z-4.639
X-133.295 Y-66.328 Z-4.612
X-133.226 Y-65.981 Z-4.608
X-133.05 Y-65.097 Z-4.592
X-132.979 Y-64.729 Z-4.588
X-132.922 Y-63.847 Z-4.388
X-132.918 Y-63.78 Z-4.373
X-132.885 Y-63.229 Z-4.246
X-132.852 Y-62.589 Z-4.091
X-132.85 Y-62.5 Z-4.071
X-132.852 Y-62.411 Z-4.059
X-132.858 Y-62.322 Z-4.053
X-132.873 Y-62.146 Z-4.048
X-132.925 Y-61.618 Z-4.026
X-132.983 Y-61.099 Z-3.998
X-133.003 Y-60.949 Z-3.987
X-133.064 Y-60.503 Z-3.955
X-133.066 Y-60.488 Z-3.954
X-133.141 Y-60.027 Z-3.916
X-133.228 Y-59.568 Z-3.872
X-133.332 Y-59.1 Z-3.821
X-133.458 Y-58.622 Z-3.765
X-133.584 Y-58.209 Z-3.708
X-133.604 Y-58.149 Z-3.701
X-133.74 Y-57.767 Z-3.644
X-133.774 Y-57.679 Z-3.634
X-133.915 Y-57.333 Z-3.582
X-133.968 Y-57.211 Z-3.569
X-134.107 Y-56.907 Z-3.524
X-134.186 Y-56.746 Z-3.508
X-134.317 Y-56.491 Z-3.474
X-134.429 Y-56.285 Z-3.456
X-134.541 Y-56.086 Z-3.433
X-134.695 Y-55.829 Z-3.416
X-134.778 Y-55.694 Z-3.403
X-135.027 Y-55.31 Z-3.38
X-135.285 Y-54.932 Z-3.365
X-135.552 Y-54.562 Z-3.356
X-135.605 Y-54.491
X-135.826 Y-54.198 Z-3.353
X-136.106 Y-53.836 Z-3.357
X-136.388 Y-53.479 Z-3.365
X-136.579 Y-53.242 Z-3.373
X-136.688 Y-53.136 Z-3.345
X-137.345 Y-52.507 Z-3.182
X-137.385 Y-52.471 Z-3.175
X-137.441 Y-52.427 Z-3.173
X-137.829 Y-52.143 Z-3.187
X-138.221 Y-51.862 Z-3.199
X-138.647 Y-51.564 Z-3.208
X-139.09 Y-51.265 Z-3.215
X-139.423 Y-51.049
X-139.534 Y-50.979 Z-3.218
X-139.836 Y-50.795 Z-3.215
X-139.982 Y-50.708 Z-3.218
X-140.255 Y-50.553 Z-3.213
X-140.433 Y-50.454 Z-3.215
X-140.681 Y-50.324 Z-3.207
X-140.888 Y-50.219 Z-3.208
X-141.116 Y-50.111 Z-3.199
X-141.349 Y-50.005
X-141.559 Y-49.916 Z-3.189
X-141.819 Y-49.813 Z-3.187
X-142.011 Y-49.741 Z-3.177
X-142.298 Y-49.642 Z-3.174
X-142.469 Y-49.588 Z-3.165
X-142.789 Y-49.493 Z-3.162
X-142.931 Y-49.455 Z-3.156
X-143.29 Y-49.364 Z-3.152
X-143.397 Y-49.339 Z-3.148
X-143.868 Y-49.241 Z-3.142
X-144.341 Y-49.156 Z-3.138
X-144.847 Y-49.081 Z-3.136
X-145.381 Y-49.015 Z-3.135
X-145.773 Y-48.974 Z-3.134
X-145.922 Y-48.96 Z-3.136
X-146.253 Y-48.931
X-146.467 Y-48.914 Z-3.139
X-146.734 Y-48.894 Z-3.14
X-147.215 Y-48.861 Z-3.144
X-148.073 Y-48.809 Z-3.153
X-148.223 Y-48.817 Z-3.129
X-148.273 Y-48.823 Z-3.127
X-149.324 Y-48.982 Z-3.133
X-150.376 Y-49.145 Z-3.137
X-151.426 Y-49.317 Z-3.142
X-152.473 Y-49.502 Z-3.146
X-153.515 Y-49.703 Z-3.151
X-154.55 Y-49.925 Z-3.155
X-155.577 Y-50.173 Z-3.16
X-156.592 Y-50.45 Z-3.164
X-157.593 Y-50.758 Z-3.169
X-158.088 Y-50.927 Z-3.171
X-158.581 Y-51.106 Z-3.173
X-159.069 Y-51.296 Z-3.175
X-159.555 Y-51.497 Z-3.177
X-160.033 Y-51.709 Z-3.179
X-160.507 Y-51.931 Z-3.181
X-160.975 Y-52.163 Z-3.182
X-161.445 Y-52.407 Z-3.183
X-161.831 Y-52.62 Z-3.189
X-162.358 Y-52.918 Z-3.186
X-163.256 Y-53.461 Z-3.188
X-164.14 Y-54.034 Z-3.19
X-165.009 Y-54.632 Z-3.192
X-165.866 Y-55.252 Z-3.195
X-166.714 Y-55.892 Z-3.197
X-167.563 Y-56.555 Z-3.199
X-168.417 Y-57.241 Z-3.203
X-169.267 Y-57.938 Z-3.205
X-170.116 Y-58.643 Z-3.207
X-170.873 Y-59.278 Z-3.21
X-170.948 Y-59.344 Z-3.215
X-171.701 Y-60.062 Z-3.209
X-172.461 Y-60.793 Z-3.203
X-173.213 Y-61.526 Z-3.198
X-173.805 Y-62.116 Z-3.192
X-173.952 Y-62.264 Z-3.193
X-174.515 Y-62.842 Z-3.188
X-174.676 Y-63.009 Z-3.19
X-175.212 Y-63.579 Z-3.184
X-175.38 Y-63.762 Z-3.187
X-175.888 Y-64.327 Z-3.181
X-176.061 Y-64.525 Z-3.185
X-176.543 Y-65.089 Z-3.18
X-176.717 Y-65.299 Z-3.184
X-177.173 Y-65.868 Z-3.178
X-177.342 Y-66.087 Z-3.184
X-177.773 Y-66.664 Z-3.178
X-177.936 Y-66.892 Z-3.185
X-178.219 Y-67.297
X-178.34 Y-67.475 Z-3.182
X-178.493 Y-67.708 Z-3.184
X-178.61 Y-67.891 Z-3.182
X-178.756 Y-68.124 Z-3.185
X-178.872 Y-68.313 Z-3.183
X-179.009 Y-68.545 Z-3.185
X-179.122 Y-68.74 Z-3.184
X-179.253 Y-68.972 Z-3.187
X-179.363 Y-69.174 Z-3.185
X-179.484 Y-69.403 Z-3.188
X-179.592 Y-69.614 Z-3.185
X-179.704 Y-69.84 Z-3.188
X-179.81 Y-70.061 Z-3.185
X-179.913 Y-70.282 Z-3.188
X-180.016 Y-70.512 Z-3.185
X-180.111 Y-70.731 Z-3.188
X-180.211 Y-70.969 Z-3.185
X-180.3 Y-71.187 Z-3.187
X-180.396 Y-71.43 Z-3.185
X-180.48 Y-71.648 Z-3.187
X-180.573 Y-71.9 Z-3.184
X-180.648 Y-72.112 Z-3.187
X-180.895 Y-72.843 Z-3.18
X-180.965 Y-73.063 Z-3.185
X-181.185 Y-73.8 Z-3.177
X-181.251 Y-74.031 Z-3.181
X-181.449 Y-74.768 Z-3.174
X-181.512 Y-75.015 Z-3.177
X-181.689 Y-75.744 Z-3.171
X-181.752 Y-76.013 Z-3.173
X-181.911 Y-76.729 Z-3.165
X-181.975 Y-77.023 Z-3.166
X-182.119 Y-77.719 Z-3.16
X-182.185 Y-78.042
X-182.388 Y-79.069 Z-3.152
X-182.511 Y-79.706 Z-3.147
X-182.523 Y-79.788 Z-3.153
X-182.528 Y-79.871 Z-3.171
X-182.531 Y-80.014 Z-3.213
X-182.44 Y-80.562 Z-3.204
X-182.33 Y-81.196 Z-3.195
X-182.255 Y-81.6 Z-3.189
X-182.213 Y-81.817
X-182.14 Y-82.167 Z-3.182
X-182.082 Y-82.423 Z-3.184
X-182.01 Y-82.723 Z-3.179
X-181.936 Y-83.008 Z-3.184
X-181.863 Y-83.267 Z-3.179
X-181.772 Y-83.566 Z-3.186
X-181.694 Y-83.797 Z-3.181
X-181.584 Y-84.095 Z-3.191
X-181.498 Y-84.307 Z-3.187
X-181.37 Y-84.595 Z-3.2
X-181.278 Y-84.785 Z-3.199
X-181.258 Y-84.825 Z-3.202
X-181.136 Y-85.047 Z-3.206
X-181.007 Y-85.259 Z-3.211
X-180.866 Y-85.468 Z-3.215
X-180.706 Y-85.679 Z-3.219
X-180.554 Y-85.857 Z-3.223
X-180.533 Y-85.88
X-180.42 Y-85.999 Z-3.226
X-180.348 Y-86.069 Z-3.224
X-180.252 Y-86.158 Z-3.227
X-180.151 Y-86.246 Z-3.224
X-180.076 Y-86.308 Z-3.226
X-179.945 Y-86.409 Z-3.222
X-179.89 Y-86.449 Z-3.224
X-179.73 Y-86.56 Z-3.219
X-179.693 Y-86.584
X-179.486 Y-86.711 Z-3.214
X-179.268 Y-86.831 Z-3.209
X-179.029 Y-86.949 Z-3.203
X-178.803 Y-87.048 Z-3.202
X-178.538 Y-87.156 Z-3.191
X-178.025 Y-87.332 Z-3.18
X-177.489 Y-87.483 Z-3.17
X-176.911 Y-87.617 Z-3.161
X-176.312 Y-87.732 Z-3.152
X-175.825 Y-87.813 Z-3.144
X-175.694 Y-87.833 Z-3.145
X-175.061 Y-87.924 Z-3.137
X-174.417 Y-88.008 Z-3.128
X-174.09 Y-88.048 Z-3.123
X-174.02 Y-88.054 Z-3.127
X-173.949 Z-3.141
X-173.823 Y-88.05 Z-3.174
X-173.01 Y-87.924 Z-3.217
X-172.142 Y-87.785 Z-3.264
X-171.279 Y-87.639 Z-3.313
X-170.627 Y-87.522 Z-3.349
X-170.422 Y-87.483 Z-3.364
X-169.801 Y-87.36 Z-3.399
X-169.576 Y-87.313 Z-3.417
X-168.978 Y-87.183 Z-3.453
X-168.739 Y-87.127 Z-3.473
X-168.162 Y-86.985 Z-3.51
X-167.915 Y-86.92 Z-3.533
X-167.349 Y-86.763 Z-3.571
X-167.106 Y-86.69 Z-3.595
X-166.543 Y-86.513 Z-3.637
X-166.312 Y-86.435 Z-3.662
X-165.746 Y-86.232 Z-3.707
X-165.536 Y-86.151 Z-3.732
X-164.961 Y-85.916 Z-3.781
X-164.78 Y-85.838 Z-3.804
X-164.191 Y-85.565 Z-3.857
X-164.043 Y-85.492 Z-3.876
X-163.439 Y-85.181 Z-3.93
X-163.319 Y-85.116 Z-3.945
X-162.7 Y-84.765 Z-4.002
X-162.606 Y-84.71 Z-4.014
X-161.978 Y-84.324 Z-4.072
X-161.904 Y-84.276 Z-4.082
X-161.211 Y-83.818 Z-4.148
X-160.524 Y-83.336 Z-4.215
X-159.843 Y-82.834 Z-4.281
X-159.167 Y-82.314 Z-4.348
X-158.494 Y-81.778 Z-4.415
X-157.824 Y-81.229 Z-4.482
X-157.154 Y-80.669 Z-4.549
X-156.482 Y-80.101 Z-4.617
X-155.902 Y-79.605 Z-4.677
X-155.857 Y-79.565 Z-4.683
X-155.297 Y-79.02 Z-4.713
X-154.698 Y-78.432 Z-4.745
X-154.098 Y-77.834 Z-4.775
X-153.503 Y-77.228 Z-4.804
X-153.048 Y-76.752 Z-4.827
X-152.918 Y-76.612 Z-4.831
X-152.519 Y-76.18 Z-4.85
X-152.341 Y-75.982 Z-4.854
X-152.01 Y-75.606 Z-4.869
X-151.781 Y-75.339 Z-4.872
X-151.522 Y-75.029 Z-4.884
X-151.237 Y-74.677
X-151.058 Y-74.449 Z-4.891
X-150.718 Y-73.998 Z-4.888
X-150.619 Y-73.863 Z-4.891
X-150.206 Y-73.273 Z-4.882
X-149.79 Y-72.622 Z-4.863
X-149.759 Y-72.571 Z-4.86
X-149.642 Y-72.37 Z-4.856
X-149.468 Y-72.066 Z-4.841
X-149.335 Y-71.823 Z-4.824
X-149.3 Y-71.757 Z-4.822
X-149.144 Y-71.45 Z-4.804
X-148.95 Y-71.047 Z-4.767
X-148.836 Y-70.797 Z-4.756
X-148.606 Y-70.256 Z-4.708
X-148.554 Y-70.126 Z-4.703
X-148.294 Y-69.432 Z-4.648
X-148.036 Y-68.648 Z-4.589
X-147.808 Y-67.875 Z-4.537
X-147.797 Y-67.833 Z-4.534
X-147.636 Y-67.225 Z-4.5
X-147.584 Y-67.016 Z-4.485
X-147.45 Y-66.456 Z-4.458
X-147.39 Y-66.197 Z-4.442
X-147.275 Y-65.675 Z-4.421
X-147.211 Y-65.375 Z-4.406
X-147.043 Y-64.554 Z-4.378
X-146.978 Y-64.221 Z-4.37
X-146.934 Y-63.603 Z-4.226
X-146.919 Y-63.358 Z-4.167
X-146.906 Y-63.115 Z-4.107
X-146.895 Y-62.877 Z-4.044
X-146.887 Y-62.642 Z-3.979
X-146.882 Y-62.409 Z-3.91
X-146.88 Y-62.178 Z-3.836
Y-62.044 Z-3.79
X-146.883 Y-61.95 Z-3.762
X-146.89 Y-61.88 Z-3.745
X-146.9 Y-61.81 Z-3.733
X-146.913 Y-61.73 Z-3.722
X-146.957 Y-61.493 Z-3.682
X-146.998 Y-61.3 Z-3.645
X-147.071 Y-61.005 Z-3.58
X-147.116 Y-60.842 Z-3.544
X-147.177 Y-60.643 Z-3.498
X-147.222 Y-60.511 Z-3.467
X-147.281 Y-60.346 Z-3.431
X-147.345 Y-60.185 Z-3.399
X-147.415 Y-60.019 Z-3.368
X-147.489 Y-59.859 Z-3.344
X-147.566 Y-59.703 Z-3.325
X-147.658 Y-59.53 Z-3.311
X-147.732 Y-59.398 Z-3.303
X-147.815 Y-59.257 Z-3.3
X-147.914 Y-59.095
X-148.024 Y-58.923 Z-3.306
X-148.129 Y-58.791 Z-3.288
X-148.292 Y-58.59 Z-3.264
X-148.538 Y-58.299 Z-3.231
X-148.598 Y-58.23 Z-3.221
X-148.658 Y-58.167 Z-3.219
X-148.766 Y-58.064 Z-3.223
X-148.875 Y-57.962 Z-3.226
X-148.988 Y-57.86 Z-3.227
X-149.117 Y-57.748 Z-3.226
X-149.262 Y-57.629 Z-3.223
X-149.409 Y-57.517 Z-3.216
X-149.475 Y-57.47 Z-3.211
X-149.592 Y-57.39 Z-3.204
X-149.742 Y-57.297 Z-3.191
X-149.884 Y-57.219 Z-3.178
X-150.031 Y-57.146 Z-3.164
X-150.19 Y-57.077 Z-3.149
X-150.367 Y-57.012 Z-3.135
X-150.487 Y-56.973 Z-3.125
X-150.622 Y-56.934 Z-3.118
X-150.775 Y-56.894 Z-3.111
X-150.929 Y-56.86 Z-3.107
X-150.943 Y-56.857 Z-3.106
X-151.141 Y-56.819 Z-3.103
X-151.348 Y-56.784 Z-3.102
X-151.544 Y-56.756
X-151.773 Y-56.726 Z-3.105
X-152.012 Y-56.698 Z-3.107
X-152.114 Y-56.696 Z-3.113
X-152.204 Y-56.695 Z-3.117
X-152.282 Z-3.115
X-152.349 Y-56.697 Z-3.105
X-152.389 Y-56.698 Z-3.094
X-152.421 Y-56.7 Z-3.08
X-152.44 Y-56.702 Z-3.067
X-152.448 Y-56.703 Z-3.059
X-152.464 Z-3.039
X-152.492 Y-56.701 Z-3.001
G0 Z5
X-213.049 Y-97.035
Z2
G1 Z-4.135 F849.6
X-212.997 Y-97.059 Z-4.119
X-212.951 Y-97.08 Z-4.109
X-212.909 Y-97.099 Z-4.104
X-212.868 Y-97.117 Z-4.102
X-212.819 Y-97.14 Z-4.105
X-212.734 Y-97.177 Z-4.117
X-212.648 Y-97.209 Z-4.136
X-212.551 Y-97.106 Z-3.932
X-212.465 Y-97.013 Z-3.76
X-212.424 Y-96.969 Z-3.685
X-212.348 Y-96.888 Z-3.554
X-212.313 Y-96.85 Z-3.498
X-212.278 Y-96.813 Z-3.448
X-212.245 Y-96.777 Z-3.404
X-212.212 Y-96.742 Z-3.367
X-212.18 Y-96.708 Z-3.335
X-212.149 Y-96.675 Z-3.309
X-212.118 Y-96.642 Z-3.29
X-212.088 Y-96.609 Z-3.276
X-212.057 Y-96.576 Z-3.269
X-212.013 Y-96.532 Z-3.266
X-211.432 Y-96.025 Z-3.328
X-210.855 Y-95.524 Z-3.391
X-209.814 Y-94.611 Z-3.504
X-209.28 Y-94.138 Z-3.559
X-208.749 Y-93.664 Z-3.612
X-208.462 Y-93.405 Z-3.637
X-208.221 Y-93.187 Z-3.661
X-207.699 Y-92.708 Z-3.708
X-207.284 Y-92.323 Z-3.739
X-206.671 Y-91.742 Z-3.787
X-206.163 Y-91.253 Z-3.817
X-205.661 Y-90.758 Z-3.848
X-205.163 Y-90.259 Z-3.87
X-204.996 Y-90.09 Z-3.876
X-204.669 Y-89.754 Z-3.893
X-204.179 Y-89.244 Z-3.914
X-203.887 Y-88.938 Z-3.922
X-203.209 Y-88.208 Z-3.954
X-202.802 Y-87.766 Z-3.969
X-202.254 Y-87.154 Z-4.001
X-201.78 Y-86.621 Z-4.024
X-201.311 Y-86.082 Z-4.056
X-200.687 Y-85.355 Z-4.107
X-200.171 Y-84.741 Z-4.159
X-199.929 Y-84.448 Z-4.188
X-199.662 Y-84.12 Z-4.213
X-199.161 Y-83.493 Z-4.27
X-198.664 Y-82.862 Z-4.336
X-198.322 Y-82.418 Z-4.39
X-197.688 Y-81.594 Z-4.49
X-197.273 Y-81.042 Z-4.569
X-196.758 Y-80.35 Z-4.663
X-196.25 Y-79.653 Z-4.771
X-195.777 Y-78.998 Z-4.868
X-195.253 Y-78.253 Z-4.99
X-194.85 Y-77.675 Z-5.079
X-194.281 Y-76.841 Z-5.217
X-193.941 Y-76.337 Z-5.295
X-193.336 Y-75.419 Z-5.444
X-193.052 Y-74.984 Z-5.509
X-192.413 Y-73.983 Z-5.667
X-192.182 Y-73.618 Z-5.721
X-191.957 Y-73.258 Z-5.778
X-191.505 Y-72.53 Z-5.888
X-191.328 Y-72.243 Z-5.93
X-191.056 Y-71.799 Z-5.998
X-190.61 Y-71.065 Z-6.108
X-189.722 Y-69.586 Z-6.328
X-189.28 Y-68.843 Z-6.438
X-188.414 Y-67.383 Z-6.655
X-188.022 Y-66.696 Z-6.736
X-187.549 Y-65.859 Z-6.842
X-186.876 Y-64.674 Z-6.991
X-186.356 Y-63.761 Z-7.104
X-185.834 Y-62.85 Z-7.211
X-185.307 Y-61.938 Z-7.315
X-184.789 Y-61.05 Z-7.411
X-184.327 Y-60.269 Z-7.489
X-183.862 Y-59.493 Z-7.56
X-183.395 Y-58.723 Z-7.624
X-182.927 Y-57.963 Z-7.679
X-182.456 Y-57.211 Z-7.724
X-182.025 Y-56.535 Z-7.756
X-181.498 Y-55.724 Z-7.784
X-181.011 Y-54.989 Z-7.799
X-180.513 Y-54.253 Z-7.803
X-180.007 Y-53.516 Z-7.799
X-179.493 Y-52.779 Z-7.788
X-179.063 Y-52.169 Z-7.773
X-178.449 Y-51.307 Z-7.749
X-177.905 Y-50.552 Z-7.722
X-177.363 Y-49.805 Z-7.693
X-176.406 Y-48.494 Z-7.638
X-175.926 Y-47.934 Z-7.514
X-175.239 Y-47.136 Z-7.334
X-174.59 Y-46.389 Z-7.159
X-174.44 Y-46.222 Z-7.122
X-174.139 Y-45.897 Z-7.062
X-173.589 Y-45.312 Z-6.946
X-173.208 Y-44.913 Z-6.863
X-172.582 Y-44.27 Z-6.723
X-172.255 Y-43.944 Z-6.647
X-172.074 Y-43.764 Z-6.607
X-171.593 Y-43.299 Z-6.494
X-171.254 Y-42.981 Z-6.412
X-171.043 Y-42.786 Z-6.363
X-170.557 Y-42.349 Z-6.245
X-170.204 Y-42.044 Z-6.158
X-169.974 Y-41.846 Z-6.104
X-169.491 Y-41.444 Z-5.985
X-169.134 Y-41.155 Z-5.897
X-168.852 Y-40.929 Z-5.829
X-168.414 Y-40.586 Z-5.719
X-167.691 Y-40.032 Z-5.537
X-167.091 Y-39.582 Z-5.383
X-166.608 Y-39.226 Z-5.255
X-166.25 Y-38.964 Z-5.159
X-166.126 Y-38.877 Z-5.131
X-165.288 Y-38.325 Z-4.987
X-164.597 Y-37.876 Z-4.865
X-163.592 Y-37.23 Z-4.69
X-163.342 Y-37.071 Z-4.649
X-162.726 Y-36.705 Z-4.516
X-161.858 Y-36.198 Z-4.34
X-161.097 Y-35.765 Z-4.197
X-160.971 Y-35.694 Z-4.173
X-160.333 Y-35.343 Z-4.064
X-160.087 Y-35.209 Z-4.02
X-159.566 Y-34.935 Z-3.941
X-159.197 Y-34.742 Z-3.882
X-158.795 Y-34.541 Z-3.83
X-158.302 Y-34.298 Z-3.759
X-158.019 Y-34.164 Z-3.729
X-157.398 Y-33.877 Z-3.653
X-157.371 Y-33.864 Z-3.65
X-156.486 Y-33.483 Z-3.565
X-156.019 Y-33.296 Z-3.524
X-155.654 Y-33.155 Z-3.501
X-155.089 Y-32.949 Z-3.463
X-154.852 Y-32.867 Z-3.453
X-154.619 Y-32.789 Z-3.438
X-154.147 Y-32.638 Z-3.419
X-154.134 Y-32.633 Z-3.418
X-153.674 Y-32.496 Z-3.399
X-153.228 Y-32.371 Z-3.391
X-152.724 Y-32.238 Z-3.37
X-152.406 Y-32.16 Z-3.367
X-151.76 Y-32.01 Z-3.346
X-151.575 Y-31.97 Z-3.345
X-150.787 Y-31.811 Z-3.326
X-149.893 Y-31.652 Z-3.311
X-149.042 Y-31.518 Z-3.299
X-148.822 Y-31.485 Z-3.294
X-148.186 Y-31.398 Z-3.288
X-147.832 Y-31.351 Z-3.281
X-147.326 Y-31.288 Z-3.278
X-146.839 Y-31.231 Z-3.271
X-146.462 Y-31.188 Z-3.27
X-145.843 Y-31.121 Z-3.263
X-145.594 Y-31.094 Z-3.262
X-143.891 Y-30.923 Z-3.248
X-143.851 Y-30.922 Z-3.243
X-143.773 Z-3.238
X-143.285 Y-30.944 Z-3.236
X-142.344 Y-30.992 Z-3.233
X-141.82 Y-31.025 Z-3.232
X-141.325 Y-31.061 Z-3.23
X-140.835 Y-31.105 Z-3.229
X-140.345 Y-31.156 Z-3.228
X-139.858 Y-31.217 Z-3.227
X-139.371 Y-31.289
X-139.357 Y-31.292
X-138.886 Y-31.374 Z-3.226
X-138.764 Y-31.398 Z-3.229
X-138.403 Y-31.473 Z-3.227
X-138.274 Y-31.503 Z-3.229
X-137.924 Y-31.588 Z-3.227
X-137.789 Y-31.623 Z-3.23
X-137.447 Y-31.72 Z-3.228
X-137.31 Y-31.761 Z-3.231
X-136.974 Y-31.87 Z-3.228
X-136.836 Y-31.917 Z-3.231
X-136.507 Y-32.035 Z-3.228
X-136.365 Y-32.089 Z-3.23
X-136.046 Y-32.215 Z-3.227
X-135.896 Y-32.277 Z-3.229
X-135.591 Y-32.406 Z-3.226
X-135.429 Y-32.478 Z-3.228
X-135.141 Y-32.609 Z-3.225
X-134.962 Y-32.692 Z-3.226
X-134.695 Y-32.82 Z-3.224
X-134.498 Y-32.916 Z-3.225
X-134.254 Y-33.038 Z-3.222
X-134.033 Y-33.149
X-133.57 Y-33.39 Z-3.219
X-133.105 Y-33.635 Z-3.216
X-132.515 Y-33.953 Z-3.21
X-132.436 Y-34 Z-3.216
X-132.229 Y-34.137 Z-3.252
X-132.12 Y-34.224 Z-3.25
X-131.607 Y-34.639 Z-3.247
X-131.285 Y-34.907 Z-3.246
X-130.971 Y-35.176 Z-3.247
X-130.666 Y-35.449 Z-3.25
X-130.373 Y-35.725 Z-3.254
X-130.093 Y-36.006 Z-3.261
X-129.829 Y-36.291 Z-3.269
X-129.581 Y-36.583 Z-3.279
X-129.352 Y-36.88 Z-3.291
X-129.325 Y-36.917
X-129.142 Y-37.184 Z-3.304
X-129.106 Y-37.24 Z-3.303
X-128.953 Y-37.494 Z-3.315
X-128.905 Y-37.58
X-128.784 Y-37.813 Z-3.326
X-128.726 Y-37.933 Z-3.325
X-128.632 Y-38.143 Z-3.334
X-128.569 Y-38.297
X-128.496 Y-38.486 Z-3.341
X-128.433 Y-38.665 Z-3.339
X-128.375 Y-38.841 Z-3.345
X-128.314 Y-39.043
X-128.267 Y-39.208 Z-3.349
X-128.211 Y-39.421 Z-3.348
X-128.17 Y-39.586 Z-3.352
X-128.12 Y-39.806 Z-3.351
X-128.084 Y-39.973 Z-3.354
X-128.04 Y-40.191 Z-3.353
X-128.006 Y-40.37 Z-3.356
X-127.968 Y-40.576 Z-3.355
X-127.934 Y-40.773 Z-3.357
X-127.868 Y-41.183 Z-3.358
X-127.785 Y-41.731 Z-3.357
X-127.758 Y-41.951 Z-3.368
Y-42.195 Z-3.335
X-127.761 Y-42.488 Z-3.3
X-127.762 Y-42.524 Z-3.296
X-127.769 Y-42.732 Z-3.276
X-127.782 Y-42.934 Z-3.259
X-127.796 Y-43.086 Z-3.25
X-127.812 Y-43.232 Z-3.244
X-127.828 Y-43.337
X-127.862 Y-43.532 Z-3.245
X-127.897 Y-43.688 Z-3.251
X-127.938 Y-43.839 Z-3.262
X-127.988 Y-43.993 Z-3.279
X-128.002 Y-44.031 Z-3.285
X-128.047 Y-44.146 Z-3.302
X-128.067 Y-44.191 Z-3.31
X-128.119 Y-44.305 Z-3.333
X-128.177 Y-44.416 Z-3.359
X-128.197 Y-44.454 Z-3.367
X-128.27 Y-44.577 Z-3.401
X-128.372 Y-44.735 Z-3.447
X-128.461 Y-44.862 Z-3.486
X-128.556 Y-44.989 Z-3.529
X-128.722 Y-45.199 Z-3.599
X-128.793 Y-45.283 Z-3.63
X-128.857 Y-45.349 Z-3.666
X-128.935 Y-45.418 Z-3.715
X-129.018 Y-45.484 Z-3.777
X-129.109 Y-45.547 Z-3.85
X-129.206 Y-45.605 Z-3.936
X-129.31 Y-45.66 Z-4.033
X-129.42 Y-45.71 Z-4.143
X-129.538 Y-45.757 Z-4.267
X-129.662 Y-45.8 Z-4.404
X-129.793 Y-45.839 Z-4.553
X-129.893 Y-45.856 Z-4.658
X-130.007 Y-45.871 Z-4.782
X-130.125 Y-45.883 Z-4.914
X-130.242 Y-45.891 Z-5.049
X-130.363 Y-45.895 Z-5.192
X-130.48 Y-45.896 Z-5.333
X-130.6 Y-45.894 Z-5.482
X-130.821 Y-45.881 Z-5.763
X-130.969 Y-45.867 Z-5.953
X-131.189 Y-45.842 Z-6.238
X-131.316 Y-45.823 Z-6.403
X-131.499 Y-45.791 Z-6.641
X-131.529 Y-45.785 Z-6.68
X-131.687 Y-45.748 Z-6.884
X-131.78 Y-45.72 Z-7.001
X-131.892 Y-45.678 Z-7.138
X-132.027 Y-45.618 Z-7.304
X-132.177 Y-45.545 Z-7.487
X-132.302 Y-45.479 Z-7.643
X-132.36 Y-45.446 Z-7.717
X-132.587 Y-45.311 Z-8.01
X-132.6 Y-45.299 Z-8.026
X-132.744 Y-45.435 Z-7.745
X-132.833 Y-45.516 Z-7.573
X-133.04 Y-45.71 Z-7.161
X-133.228 Y-45.886 Z-6.781
X-133.396 Y-46.044 Z-6.43
X-133.537 Y-46.176 Z-6.129
X-133.665 Y-46.298 Z-5.845
X-133.775 Y-46.401 Z-5.597
X-133.908 Y-46.531 Z-5.279
X-133.775 Y-46.401 Z-5.597
X-133.665 Y-46.298 Z-5.845
X-133.537 Y-46.176 Z-6.129
X-133.396 Y-46.044 Z-6.43
X-133.228 Y-45.886 Z-6.781
X-133.04 Y-45.71 Z-7.161
X-132.833 Y-45.516 Z-7.573
X-132.744 Y-45.435 Z-7.745
X-132.6 Y-45.299 Z-8.026
X-132.639 Y-45.111 Z-7.999
X-132.669 Y-44.943 Z-7.98
X-132.68 Y-44.743 Z-7.931
X-132.683 Y-44.571 Z-7.891
X-132.68 Y-44.438 Z-7.858
X-132.676 Y-44.386 Z-7.843
X-132.67 Y-44.353 Z-7.827
X-132.65 Y-44.257 Z-7.779
X-132.618 Y-44.133 Z-7.714
X-132.562 Y-43.939 Z-7.611
X-132.533 Y-43.849 Z-7.564
X-132.463 Y-43.696 Z-7.454
X-132.407 Y-43.583 Z-7.371
X-132.389 Y-43.55 Z-7.346
X-132.325 Y-43.48 Z-7.246
X-132.287 Y-43.44 Z-7.187
X-132.203 Y-43.332 Z-7.023
X-132.003 Y-43.144 Z-6.641
X-131.824 Y-42.977 Z-6.295
X-131.664 Y-42.825 Z-5.977
X-131.518 Y-42.687 Z-5.679
X-131.391 Y-42.568 Z-5.413
X-131.28 Y-42.464 Z-5.175
X-131.183 Y-42.372 Z-4.959
X-131.051 Y-42.25 Z-4.655
G0 Z15
M30
%
