%
(1001)
(origin spoilboard top)
(T2  D=6 CR=0 - ZMIN=0 - flat end mill)
G90 G94
G17
G21

(2D Contour2)
M9
T2 M6
S8000 M3
G54
G0 X-1275.072 Y3.5
Z33
Z23
G1 Z20.5 F30
X-1290 Z16.5 F3000
X-1242.5
G2 X-1239 Y0 J-3.5
G1 Y-20
G3 X-1222.5 Y-36.5 I16.5
G1 X-1212.5
G3 X-1196 Y-20 J16.5
G1 Y0
G2 X-1192.5 Y3.5 I3.5
G1 X-1177.5
G2 X-1174 Y0 J-3.5
G1 Y-20
G3 X-1157.5 Y-36.5 I16.5
G1 X-1147.5
G3 X-1131 Y-20 J16.5
G1 Y0
G2 X-1127.5 Y3.5 I3.5
G1 X-1112.5
G2 X-1109 Y0 J-3.5
G1 Y-20
G3 X-1092.5 Y-36.5 I16.5
G1 X-1082.5
G3 X-1066 Y-20 J16.5
G1 Y0
G2 X-1062.5 Y3.5 I3.5
G1 X-1047.5
G2 X-1044 Y0 J-3.5
G1 Y-20
G3 X-1027.5 Y-36.5 I16.5
G1 X-1017.5
G3 X-1001 Y-20 J16.5
G1 Y0
G2 X-997.5 Y3.5 I3.5
G1 X-982.5
G2 X-979 Y0 J-3.5
G1 Y-20
G3 X-962.5 Y-36.5 I16.5
G1 X-952.5
G3 X-936 Y-20 J16.5
G1 Y0
G2 X-932.5 Y3.5 I3.5
G1 X-917.5
G2 X-914 Y0 J-3.5
G1 Y-20
G3 X-897.5 Y-36.5 I16.5
G1 X-887.5
G3 X-871 Y-20 J16.5
G1 Y0
G2 X-867.5 Y3.5 I3.5
G1 X-852.5
G2 X-849 Y0 J-3.5
G1 Y-20
G3 X-832.5 Y-36.5 I16.5
G1 X-822.5
G3 X-806 Y-20 J16.5
G1 Y0
G2 X-802.5 Y3.5 I3.5
G1 X-787.5
G2 X-784 Y0 J-3.5
G1 Y-20
G3 X-767.5 Y-36.5 I16.5
G1 X-757.5
G3 X-741 Y-20 J16.5
G1 Y0
G2 X-737.5 Y3.5 I3.5
G1 X-722.5
G2 X-719 Y0 J-3.5
G1 Y-20
G3 X-702.5 Y-36.5 I16.5
G1 X-692.5
G3 X-676 Y-20 J16.5
G1 Y0
G2 X-672.5 Y3.5 I3.5
G1 X-657.5
G2 X-654 Y0 J-3.5
G1 Y-20
G3 X-637.5 Y-36.5 I16.5
G1 X-627.5
G3 X-611 Y-20 J16.5
G1 Y0
G2 X-607.5 Y3.5 I3.5
G1 X-592.5
G2 X-589 Y0 J-3.5
G1 Y-20
G3 X-572.5 Y-36.5 I16.5
G1 X-562.5
G3 X-546 Y-20 J16.5
G1 Y0
G2 X-542.5 Y3.5 I3.5
G1 X-527.5
G2 X-524 Y0 J-3.5
G1 Y-20
G3 X-507.5 Y-36.5 I16.5
G1 X-497.5
G3 X-481 Y-20 J16.5
G1 Y0
G2 X-477.5 Y3.5 I3.5
G1 X-462.5
G2 X-459 Y0 J-3.5
G1 Y-20
G3 X-442.5 Y-36.5 I16.5
G1 X-432.5
G3 X-416 Y-20 J16.5
G1 Y0
G2 X-412.5 Y3.5 I3.5
G1 X-397.5
G2 X-394 Y0 J-3.5
G1 Y-20
G3 X-377.5 Y-36.5 I16.5
G1 X-367.5
G3 X-351 Y-20 J16.5
G1 Y0
G2 X-347.5 Y3.5 I3.5
G1 X-332.5
G2 X-329 Y0 J-3.5
G1 Y-20
G3 X-312.5 Y-36.5 I16.5
G1 X-302.5
G3 X-286 Y-20 J16.5
G1 Y0
G2 X-282.5 Y3.5 I3.5
G1 X-267.5
G2 X-264 Y0 J-3.5
G1 Y-20
G3 X-247.5 Y-36.5 I16.5
G1 X-237.5
G3 X-221 Y-20 J16.5
G1 Y0
G2 X-217.5 Y3.5 I3.5
G1 X-202.5
G2 X-199 Y0 J-3.5
G1 Y-20
G3 X-182.5 Y-36.5 I16.5
G1 X-172.5
G3 X-156 Y-20 J16.5
G1 Y0
G2 X-152.5 Y3.5 I3.5
G1 X-137.5
G2 X-134 Y0 J-3.5
G1 Y-20
G3 X-117.5 Y-36.5 I16.5
G1 X-107.5
G3 X-91 Y-20 J16.5
G1 Y0
G2 X-87.5 Y3.5 I3.5
G1 X-72.5
G2 X-69 Y0 J-3.5
G1 Y-20
G3 X-52.5 Y-36.5 I16.5
G1 X-42.5
G3 X-26 Y-20 J16.5
G1 Y0
G2 X-22.5 Y3.5 I3.5
G1 X-7.5
G2 X-4 Y0 J-3.5
G1 Y-20
G3 X12.5 Y-36.5 I16.5
G1 X22.5
G3 X39 Y-20 J16.5
G1 Y0
G2 X42.5 Y3.5 I3.5
G1 X90
X42.5 Z16.473
G3 X39 Y0 Z16.47 J-3.5
G1 Y-20 Z16.458
G2 X22.5 Y-36.5 Z16.444 I-16.5
G1 X12.5 Z16.438
G2 X-4 Y-20 Z16.423 J16.5
G1 Y0 Z16.412
G3 X-7.5 Y3.5 Z16.409 I-3.5
G1 X-22.5 Z16.4
G3 X-26 Y0 Z16.397 J-3.5
G1 Y-20 Z16.386
G2 X-42.5 Y-36.5 Z16.371 I-16.5
G1 X-52.5 Z16.365
G2 X-69 Y-20 Z16.351 J16.5
G1 Y0 Z16.339
G3 X-72.5 Y3.5 Z16.336 I-3.5
G1 X-87.5 Z16.328
G3 X-91 Y0 Z16.324 J-3.5
G1 Y-20 Z16.313
G2 X-107.5 Y-36.5 Z16.298 I-16.5
G1 X-117.5 Z16.293
G2 X-134 Y-20 Z16.278 J16.5
G1 Y0 Z16.266
G3 X-137.5 Y3.5 Z16.263 I-3.5
G1 X-152.5 Z16.255
G3 X-156 Y0 Z16.252 J-3.5
G1 Y-20 Z16.24
G2 X-172.5 Y-36.5 Z16.226 I-16.5
G1 X-182.5 Z16.22
G2 X-199 Y-20 Z16.205 J16.5
G1 Y0 Z16.194
G3 X-202.5 Y3.5 Z16.191 I-3.5
G1 X-217.5 Z16.182
G3 X-221 Y0 Z16.179 J-3.5
G1 Y-20 Z16.168
G2 X-237.5 Y-36.5 Z16.153 I-16.5
G1 X-247.5 Z16.147
G2 X-264 Y-20 Z16.132 J16.5
G1 Y0 Z16.121
G3 X-267.5 Y3.5 Z16.118 I-3.5
G1 X-282.5 Z16.109
G3 X-286 Y0 Z16.106 J-3.5
G1 Y-20 Z16.095
G2 X-302.5 Y-36.5 Z16.08 I-16.5
G1 X-312.5 Z16.074
G2 X-329 Y-20 Z16.06 J16.5
G1 Y0 Z16.048
G3 X-332.5 Y3.5 Z16.045 I-3.5
G1 X-347.5 Z16.037
G3 X-351 Y0 Z16.034 J-3.5
G1 Y-20 Z16.022
G2 X-367.5 Y-36.5 Z16.007 I-16.5
G1 X-377.5 Z16.002
G2 X-394 Y-20 Z15.987 J16.5
G1 Y0 Z15.976
G3 X-397.5 Y3.5 Z15.972 I-3.5
G1 X-412.5 Z15.964
G3 X-416 Y0 Z15.961 J-3.5
G1 Y-20 Z15.949
G2 X-432.5 Y-36.5 Z15.935 I-16.5
G1 X-442.5 Z15.929
G2 X-459 Y-20 Z15.914 J16.5
G1 Y0 Z15.903
G3 X-462.5 Y3.5 Z15.9 I-3.5
G1 X-477.5 Z15.891
G3 X-481 Y0 Z15.888 J-3.5
G1 Y-20 Z15.877
G2 X-497.5 Y-36.5 Z15.862 I-16.5
G1 X-507.5 Z15.856
G2 X-524 Y-20 Z15.841 J16.5
G1 Y0 Z15.83
G3 X-527.5 Y3.5 Z15.827 I-3.5
G1 X-542.5 Z15.818
G3 X-546 Y0 Z15.815 J-3.5
G1 Y-20 Z15.804
G2 X-562.5 Y-36.5 Z15.789 I-16.5
G1 X-572.5 Z15.784
G2 X-589 Y-20 Z15.769 J16.5
G1 Y0 Z15.757
G3 X-592.5 Y3.5 Z15.754 I-3.5
G1 X-607.5 Z15.746
G3 X-611 Y0 Z15.743 J-3.5
G1 Y-20 Z15.731
G2 X-627.5 Y-36.5 Z15.716 I-16.5
G1 X-637.5 Z15.711
G2 X-654 Y-20 Z15.696 J16.5
G1 Y0 Z15.685
G3 X-657.5 Y3.5 Z15.682 I-3.5
G1 X-672.5 Z15.673
G3 X-676 Y0 Z15.67 J-3.5
G1 Y-20 Z15.659
G2 X-692.5 Y-36.5 Z15.644 I-16.5
G1 X-702.5 Z15.638
G2 X-719 Y-20 Z15.623 J16.5
G1 Y0 Z15.612
G3 X-722.5 Y3.5 Z15.609 I-3.5
G1 X-737.5 Z15.6
G3 X-741 Y0 Z15.597 J-3.5
G1 Y-20 Z15.586
G2 X-757.5 Y-36.5 Z15.571 I-16.5
G1 X-767.5 Z15.565
G2 X-784 Y-20 Z15.551 J16.5
G1 Y0 Z15.539
G3 X-787.5 Y3.5 Z15.536 I-3.5
G1 X-802.5 Z15.528
G3 X-806 Y0 Z15.524 J-3.5
G1 Y-20 Z15.513
G2 X-822.5 Y-36.5 Z15.498 I-16.5
G1 X-832.5 Z15.493
G2 X-849 Y-20 Z15.478 J16.5
G1 Y0 Z15.466
G3 X-852.5 Y3.5 Z15.463 I-3.5
G1 X-867.5 Z15.455
G3 X-871 Y0 Z15.452 J-3.5
G1 Y-20 Z15.44
G2 X-887.5 Y-36.5 Z15.426 I-16.5
G1 X-897.5 Z15.42
G2 X-914 Y-20 Z15.405 J16.5
G1 Y0 Z15.394
G3 X-917.5 Y3.5 Z15.391 I-3.5
G1 X-932.5 Z15.382
G3 X-936 Y0 Z15.379 J-3.5
G1 Y-20 Z15.368
G2 X-952.5 Y-36.5 Z15.353 I-16.5
G1 X-962.5 Z15.347
G2 X-979 Y-20 Z15.332 J16.5
G1 Y0 Z15.321
G3 X-982.5 Y3.5 Z15.318 I-3.5
G1 X-997.5 Z15.309
G3 X-1001 Y0 Z15.306 J-3.5
G1 Y-20 Z15.295
G2 X-1017.5 Y-36.5 Z15.28 I-16.5
G1 X-1027.5 Z15.274
G2 X-1044 Y-20 Z15.26 J16.5
G1 Y0 Z15.248
G3 X-1047.5 Y3.5 Z15.245 I-3.5
G1 X-1062.5 Z15.237
G3 X-1066 Y0 Z15.234 J-3.5
G1 Y-20 Z15.222
G2 X-1082.5 Y-36.5 Z15.207 I-16.5
G1 X-1092.5 Z15.202
G2 X-1109 Y-20 Z15.187 J16.5
G1 Y0 Z15.176
G3 X-1112.5 Y3.5 Z15.172 I-3.5
G1 X-1127.5 Z15.164
G3 X-1131 Y0 Z15.161 J-3.5
G1 Y-20 Z15.149
G2 X-1147.5 Y-36.5 Z15.135 I-16.5
G1 X-1157.5 Z15.129
G2 X-1174 Y-20 Z15.114 J16.5
G1 Y0 Z15.103
G3 X-1177.5 Y3.5 Z15.1 I-3.5
G1 X-1192.5 Z15.091
G3 X-1196 Y0 Z15.088 J-3.5
G1 Y-20 Z15.077
G2 X-1212.5 Y-36.5 Z15.062 I-16.5
G1 X-1222.5 Z15.056
G2 X-1239 Y-20 Z15.042 J16.5
G1 Y0 Z15.03
G3 X-1242.5 Y3.5 Z15.027 I-3.5
G1 X-1290 Z15
X-1242.5
G2 X-1239 Y0 J-3.5
G1 Y-20
G3 X-1222.5 Y-36.5 I16.5
G1 X-1212.5
G3 X-1196 Y-20 J16.5
G1 Y0
G2 X-1192.5 Y3.5 I3.5
G1 X-1177.5
G2 X-1174 Y0 J-3.5
G1 Y-20
G3 X-1157.5 Y-36.5 I16.5
G1 X-1147.5
G3 X-1131 Y-20 J16.5
G1 Y0
G2 X-1127.5 Y3.5 I3.5
G1 X-1112.5
G2 X-1109 Y0 J-3.5
G1 Y-20
G3 X-1092.5 Y-36.5 I16.5
G1 X-1082.5
G3 X-1066 Y-20 J16.5
G1 Y0
G2 X-1062.5 Y3.5 I3.5
G1 X-1047.5
G2 X-1044 Y0 J-3.5
G1 Y-20
G3 X-1027.5 Y-36.5 I16.5
G1 X-1017.5
G3 X-1001 Y-20 J16.5
G1 Y0
G2 X-997.5 Y3.5 I3.5
G1 X-982.5
G2 X-979 Y0 J-3.5
G1 Y-20
G3 X-962.5 Y-36.5 I16.5
G1 X-952.5
G3 X-936 Y-20 J16.5
G1 Y0
G2 X-932.5 Y3.5 I3.5
G1 X-917.5
G2 X-914 Y0 J-3.5
G1 Y-20
G3 X-897.5 Y-36.5 I16.5
G1 X-887.5
G3 X-871 Y-20 J16.5
G1 Y0
G2 X-867.5 Y3.5 I3.5
G1 X-852.5
G2 X-849 Y0 J-3.5
G1 Y-20
G3 X-832.5 Y-36.5 I16.5
G1 X-822.5
G3 X-806 Y-20 J16.5
G1 Y0
G2 X-802.5 Y3.5 I3.5
G1 X-787.5
G2 X-784 Y0 J-3.5
G1 Y-20
G3 X-767.5 Y-36.5 I16.5
G1 X-757.5
G3 X-741 Y-20 J16.5
G1 Y0
G2 X-737.5 Y3.5 I3.5
G1 X-722.5
G2 X-719 Y0 J-3.5
G1 Y-20
G3 X-702.5 Y-36.5 I16.5
G1 X-692.5
G3 X-676 Y-20 J16.5
G1 Y0
G2 X-672.5 Y3.5 I3.5
G1 X-657.5
G2 X-654 Y0 J-3.5
G1 Y-20
G3 X-637.5 Y-36.5 I16.5
G1 X-627.5
G3 X-611 Y-20 J16.5
G1 Y0
G2 X-607.5 Y3.5 I3.5
G1 X-592.5
G2 X-589 Y0 J-3.5
G1 Y-20
G3 X-572.5 Y-36.5 I16.5
G1 X-562.5
G3 X-546 Y-20 J16.5
G1 Y0
G2 X-542.5 Y3.5 I3.5
G1 X-527.5
G2 X-524 Y0 J-3.5
G1 Y-20
G3 X-507.5 Y-36.5 I16.5
G1 X-497.5
G3 X-481 Y-20 J16.5
G1 Y0
G2 X-477.5 Y3.5 I3.5
G1 X-462.5
G2 X-459 Y0 J-3.5
G1 Y-20
G3 X-442.5 Y-36.5 I16.5
G1 X-432.5
G3 X-416 Y-20 J16.5
G1 Y0
G2 X-412.5 Y3.5 I3.5
G1 X-397.5
G2 X-394 Y0 J-3.5
G1 Y-20
G3 X-377.5 Y-36.5 I16.5
G1 X-367.5
G3 X-351 Y-20 J16.5
G1 Y0
G2 X-347.5 Y3.5 I3.5
G1 X-332.5
G2 X-329 Y0 J-3.5
G1 Y-20
G3 X-312.5 Y-36.5 I16.5
G1 X-302.5
G3 X-286 Y-20 J16.5
G1 Y0
G2 X-282.5 Y3.5 I3.5
G1 X-267.5
G2 X-264 Y0 J-3.5
G1 Y-20
G3 X-247.5 Y-36.5 I16.5
G1 X-237.5
G3 X-221 Y-20 J16.5
G1 Y0
G2 X-217.5 Y3.5 I3.5
G1 X-202.5
G2 X-199 Y0 J-3.5
G1 Y-20
G3 X-182.5 Y-36.5 I16.5
G1 X-172.5
G3 X-156 Y-20 J16.5
G1 Y0
G2 X-152.5 Y3.5 I3.5
G1 X-137.5
G2 X-134 Y0 J-3.5
G1 Y-20
G3 X-117.5 Y-36.5 I16.5
G1 X-107.5
G3 X-91 Y-20 J16.5
G1 Y0
G2 X-87.5 Y3.5 I3.5
G1 X-72.5
G2 X-69 Y0 J-3.5
G1 Y-20
G3 X-52.5 Y-36.5 I16.5
G1 X-42.5
G3 X-26 Y-20 J16.5
G1 Y0
G2 X-22.5 Y3.5 I3.5
G1 X-7.5
G2 X-4 Y0 J-3.5
G1 Y-20
G3 X12.5 Y-36.5 I16.5
G1 X22.5
G3 X39 Y-20 J16.5
G1 Y0
G2 X42.5 Y3.5 I3.5
G1 X90
X42.5 Z14.973
G3 X39 Y0 Z14.97 J-3.5
G1 Y-20 Z14.958
G2 X22.5 Y-36.5 Z14.944 I-16.5
G1 X12.5 Z14.938
G2 X-4 Y-20 Z14.923 J16.5
G1 Y0 Z14.912
G3 X-7.5 Y3.5 Z14.909 I-3.5
G1 X-22.5 Z14.9
G3 X-26 Y0 Z14.897 J-3.5
G1 Y-20 Z14.886
G2 X-42.5 Y-36.5 Z14.871 I-16.5
G1 X-52.5 Z14.865
G2 X-69 Y-20 Z14.851 J16.5
G1 Y0 Z14.839
G3 X-72.5 Y3.5 Z14.836 I-3.5
G1 X-87.5 Z14.828
G3 X-91 Y0 Z14.824 J-3.5
G1 Y-20 Z14.813
G2 X-107.5 Y-36.5 Z14.798 I-16.5
G1 X-117.5 Z14.793
G2 X-134 Y-20 Z14.778 J16.5
G1 Y0 Z14.766
G3 X-137.5 Y3.5 Z14.763 I-3.5
G1 X-152.5 Z14.755
G3 X-156 Y0 Z14.752 J-3.5
G1 Y-20 Z14.74
G2 X-172.5 Y-36.5 Z14.726 I-16.5
G1 X-182.5 Z14.72
G2 X-199 Y-20 Z14.705 J16.5
G1 Y0 Z14.694
G3 X-202.5 Y3.5 Z14.691 I-3.5
G1 X-217.5 Z14.682
G3 X-221 Y0 Z14.679 J-3.5
G1 Y-20 Z14.668
G2 X-237.5 Y-36.5 Z14.653 I-16.5
G1 X-247.5 Z14.647
G2 X-264 Y-20 Z14.632 J16.5
G1 Y0 Z14.621
G3 X-267.5 Y3.5 Z14.618 I-3.5
G1 X-282.5 Z14.609
G3 X-286 Y0 Z14.606 J-3.5
G1 Y-20 Z14.595
G2 X-302.5 Y-36.5 Z14.58 I-16.5
G1 X-312.5 Z14.574
G2 X-329 Y-20 Z14.56 J16.5
G1 Y0 Z14.548
G3 X-332.5 Y3.5 Z14.545 I-3.5
G1 X-347.5 Z14.537
G3 X-351 Y0 Z14.534 J-3.5
G1 Y-20 Z14.522
G2 X-367.5 Y-36.5 Z14.507 I-16.5
G1 X-377.5 Z14.502
G2 X-394 Y-20 Z14.487 J16.5
G1 Y0 Z14.476
G3 X-397.5 Y3.5 Z14.472 I-3.5
G1 X-412.5 Z14.464
G3 X-416 Y0 Z14.461 J-3.5
G1 Y-20 Z14.449
G2 X-432.5 Y-36.5 Z14.435 I-16.5
G1 X-442.5 Z14.429
G2 X-459 Y-20 Z14.414 J16.5
G1 Y0 Z14.403
G3 X-462.5 Y3.5 Z14.4 I-3.5
G1 X-477.5 Z14.391
G3 X-481 Y0 Z14.388 J-3.5
G1 Y-20 Z14.377
G2 X-497.5 Y-36.5 Z14.362 I-16.5
G1 X-507.5 Z14.356
G2 X-524 Y-20 Z14.341 J16.5
G1 Y0 Z14.33
G3 X-527.5 Y3.5 Z14.327 I-3.5
G1 X-542.5 Z14.318
G3 X-546 Y0 Z14.315 J-3.5
G1 Y-20 Z14.304
G2 X-562.5 Y-36.5 Z14.289 I-16.5
G1 X-572.5 Z14.284
G2 X-589 Y-20 Z14.269 J16.5
G1 Y0 Z14.257
G3 X-592.5 Y3.5 Z14.254 I-3.5
G1 X-607.5 Z14.246
G3 X-611 Y0 Z14.243 J-3.5
G1 Y-20 Z14.231
G2 X-627.5 Y-36.5 Z14.216 I-16.5
G1 X-637.5 Z14.211
G2 X-654 Y-20 Z14.196 J16.5
G1 Y0 Z14.185
G3 X-657.5 Y3.5 Z14.182 I-3.5
G1 X-672.5 Z14.173
G3 X-676 Y0 Z14.17 J-3.5
G1 Y-20 Z14.159
G2 X-692.5 Y-36.5 Z14.144 I-16.5
G1 X-702.5 Z14.138
G2 X-719 Y-20 Z14.123 J16.5
G1 Y0 Z14.112
G3 X-722.5 Y3.5 Z14.109 I-3.5
G1 X-737.5 Z14.1
G3 X-741 Y0 Z14.097 J-3.5
G1 Y-20 Z14.086
G2 X-757.5 Y-36.5 Z14.071 I-16.5
G1 X-767.5 Z14.065
G2 X-784 Y-20 Z14.051 J16.5
G1 Y0 Z14.039
G3 X-787.5 Y3.5 Z14.036 I-3.5
G1 X-802.5 Z14.028
G3 X-806 Y0 Z14.024 J-3.5
G1 Y-20 Z14.013
G2 X-822.5 Y-36.5 Z13.998 I-16.5
G1 X-832.5 Z13.993
G2 X-849 Y-20 Z13.978 J16.5
G1 Y0 Z13.966
G3 X-852.5 Y3.5 Z13.963 I-3.5
G1 X-867.5 Z13.955
G3 X-871 Y0 Z13.952 J-3.5
G1 Y-20 Z13.94
G2 X-887.5 Y-36.5 Z13.926 I-16.5
G1 X-897.5 Z13.92
G2 X-914 Y-20 Z13.905 J16.5
G1 Y0 Z13.894
G3 X-917.5 Y3.5 Z13.891 I-3.5
G1 X-932.5 Z13.882
G3 X-936 Y0 Z13.879 J-3.5
G1 Y-20 Z13.868
G2 X-952.5 Y-36.5 Z13.853 I-16.5
G1 X-962.5 Z13.847
G2 X-979 Y-20 Z13.832 J16.5
G1 Y0 Z13.821
G3 X-982.5 Y3.5 Z13.818 I-3.5
G1 X-997.5 Z13.809
G3 X-1001 Y0 Z13.806 J-3.5
G1 Y-20 Z13.795
G2 X-1017.5 Y-36.5 Z13.78 I-16.5
G1 X-1027.5 Z13.774
G2 X-1044 Y-20 Z13.76 J16.5
G1 Y0 Z13.748
G3 X-1047.5 Y3.5 Z13.745 I-3.5
G1 X-1062.5 Z13.737
G3 X-1066 Y0 Z13.734 J-3.5
G1 Y-20 Z13.722
G2 X-1082.5 Y-36.5 Z13.707 I-16.5
G1 X-1092.5 Z13.702
G2 X-1109 Y-20 Z13.687 J16.5
G1 Y0 Z13.676
G3 X-1112.5 Y3.5 Z13.672 I-3.5
G1 X-1127.5 Z13.664
G3 X-1131 Y0 Z13.661 J-3.5
G1 Y-20 Z13.649
G2 X-1147.5 Y-36.5 Z13.635 I-16.5
G1 X-1157.5 Z13.629
G2 X-1174 Y-20 Z13.614 J16.5
G1 Y0 Z13.603
G3 X-1177.5 Y3.5 Z13.6 I-3.5
G1 X-1192.5 Z13.591
G3 X-1196 Y0 Z13.588 J-3.5
G1 Y-20 Z13.577
G2 X-1212.5 Y-36.5 Z13.562 I-16.5
G1 X-1222.5 Z13.556
G2 X-1239 Y-20 Z13.542 J16.5
G1 Y0 Z13.53
G3 X-1242.5 Y3.5 Z13.527 I-3.5
G1 X-1290 Z13.5
X-1242.5
G2 X-1239 Y0 J-3.5
G1 Y-20
G3 X-1222.5 Y-36.5 I16.5
G1 X-1212.5
G3 X-1196 Y-20 J16.5
G1 Y0
G2 X-1192.5 Y3.5 I3.5
G1 X-1177.5
G2 X-1174 Y0 J-3.5
G1 Y-20
G3 X-1157.5 Y-36.5 I16.5
G1 X-1147.5
G3 X-1131 Y-20 J16.5
G1 Y0
G2 X-1127.5 Y3.5 I3.5
G1 X-1112.5
G2 X-1109 Y0 J-3.5
G1 Y-20
G3 X-1092.5 Y-36.5 I16.5
G1 X-1082.5
G3 X-1066 Y-20 J16.5
G1 Y0
G2 X-1062.5 Y3.5 I3.5
G1 X-1047.5
G2 X-1044 Y0 J-3.5
G1 Y-20
G3 X-1027.5 Y-36.5 I16.5
G1 X-1017.5
G3 X-1001 Y-20 J16.5
G1 Y0
G2 X-997.5 Y3.5 I3.5
G1 X-982.5
G2 X-979 Y0 J-3.5
G1 Y-20
G3 X-962.5 Y-36.5 I16.5
G1 X-952.5
G3 X-936 Y-20 J16.5
G1 Y0
G2 X-932.5 Y3.5 I3.5
G1 X-917.5
G2 X-914 Y0 J-3.5
G1 Y-20
G3 X-897.5 Y-36.5 I16.5
G1 X-887.5
G3 X-871 Y-20 J16.5
G1 Y0
G2 X-867.5 Y3.5 I3.5
G1 X-852.5
G2 X-849 Y0 J-3.5
G1 Y-20
G3 X-832.5 Y-36.5 I16.5
G1 X-822.5
G3 X-806 Y-20 J16.5
G1 Y0
G2 X-802.5 Y3.5 I3.5
G1 X-787.5
G2 X-784 Y0 J-3.5
G1 Y-20
G3 X-767.5 Y-36.5 I16.5
G1 X-757.5
G3 X-741 Y-20 J16.5
G1 Y0
G2 X-737.5 Y3.5 I3.5
G1 X-722.5
G2 X-719 Y0 J-3.5
G1 Y-20
G3 X-702.5 Y-36.5 I16.5
G1 X-692.5
G3 X-676 Y-20 J16.5
G1 Y0
G2 X-672.5 Y3.5 I3.5
G1 X-657.5
G2 X-654 Y0 J-3.5
G1 Y-20
G3 X-637.5 Y-36.5 I16.5
G1 X-627.5
G3 X-611 Y-20 J16.5
G1 Y0
G2 X-607.5 Y3.5 I3.5
G1 X-592.5
G2 X-589 Y0 J-3.5
G1 Y-20
G3 X-572.5 Y-36.5 I16.5
G1 X-562.5
G3 X-546 Y-20 J16.5
G1 Y0
G2 X-542.5 Y3.5 I3.5
G1 X-527.5
G2 X-524 Y0 J-3.5
G1 Y-20
G3 X-507.5 Y-36.5 I16.5
G1 X-497.5
G3 X-481 Y-20 J16.5
G1 Y0
G2 X-477.5 Y3.5 I3.5
G1 X-462.5
G2 X-459 Y0 J-3.5
G1 Y-20
G3 X-442.5 Y-36.5 I16.5
G1 X-432.5
G3 X-416 Y-20 J16.5
G1 Y0
G2 X-412.5 Y3.5 I3.5
G1 X-397.5
G2 X-394 Y0 J-3.5
G1 Y-20
G3 X-377.5 Y-36.5 I16.5
G1 X-367.5
G3 X-351 Y-20 J16.5
G1 Y0
G2 X-347.5 Y3.5 I3.5
G1 X-332.5
G2 X-329 Y0 J-3.5
G1 Y-20
G3 X-312.5 Y-36.5 I16.5
G1 X-302.5
G3 X-286 Y-20 J16.5
G1 Y0
G2 X-282.5 Y3.5 I3.5
G1 X-267.5
G2 X-264 Y0 J-3.5
G1 Y-20
G3 X-247.5 Y-36.5 I16.5
G1 X-237.5
G3 X-221 Y-20 J16.5
G1 Y0
G2 X-217.5 Y3.5 I3.5
G1 X-202.5
G2 X-199 Y0 J-3.5
G1 Y-20
G3 X-182.5 Y-36.5 I16.5
G1 X-172.5
G3 X-156 Y-20 J16.5
G1 Y0
G2 X-152.5 Y3.5 I3.5
G1 X-137.5
G2 X-134 Y0 J-3.5
G1 Y-20
G3 X-117.5 Y-36.5 I16.5
G1 X-107.5
G3 X-91 Y-20 J16.5
G1 Y0
G2 X-87.5 Y3.5 I3.5
G1 X-72.5
G2 X-69 Y0 J-3.5
G1 Y-20
G3 X-52.5 Y-36.5 I16.5
G1 X-42.5
G3 X-26 Y-20 J16.5
G1 Y0
G2 X-22.5 Y3.5 I3.5
G1 X-7.5
G2 X-4 Y0 J-3.5
G1 Y-20
G3 X12.5 Y-36.5 I16.5
G1 X22.5
G3 X39 Y-20 J16.5
G1 Y0
G2 X42.5 Y3.5 I3.5
G1 X90
X42.5 Z13.473
G3 X39 Y0 Z13.47 J-3.5
G1 Y-20 Z13.458
G2 X22.5 Y-36.5 Z13.444 I-16.5
G1 X12.5 Z13.438
G2 X-4 Y-20 Z13.423 J16.5
G1 Y0 Z13.412
G3 X-7.5 Y3.5 Z13.409 I-3.5
G1 X-22.5 Z13.4
G3 X-26 Y0 Z13.397 J-3.5
G1 Y-20 Z13.386
G2 X-42.5 Y-36.5 Z13.371 I-16.5
G1 X-52.5 Z13.365
G2 X-69 Y-20 Z13.351 J16.5
G1 Y0 Z13.339
G3 X-72.5 Y3.5 Z13.336 I-3.5
G1 X-87.5 Z13.328
G3 X-91 Y0 Z13.324 J-3.5
G1 Y-20 Z13.313
G2 X-107.5 Y-36.5 Z13.298 I-16.5
G1 X-117.5 Z13.293
G2 X-134 Y-20 Z13.278 J16.5
G1 Y0 Z13.266
G3 X-137.5 Y3.5 Z13.263 I-3.5
G1 X-152.5 Z13.255
G3 X-156 Y0 Z13.252 J-3.5
G1 Y-20 Z13.24
G2 X-172.5 Y-36.5 Z13.226 I-16.5
G1 X-182.5 Z13.22
G2 X-199 Y-20 Z13.205 J16.5
G1 Y0 Z13.194
G3 X-202.5 Y3.5 Z13.191 I-3.5
G1 X-217.5 Z13.182
G3 X-221 Y0 Z13.179 J-3.5
G1 Y-20 Z13.168
G2 X-237.5 Y-36.5 Z13.153 I-16.5
G1 X-247.5 Z13.147
G2 X-264 Y-20 Z13.132 J16.5
G1 Y0 Z13.121
G3 X-267.5 Y3.5 Z13.118 I-3.5
G1 X-282.5 Z13.109
G3 X-286 Y0 Z13.106 J-3.5
G1 Y-20 Z13.095
G2 X-302.5 Y-36.5 Z13.08 I-16.5
G1 X-312.5 Z13.074
G2 X-329 Y-20 Z13.06 J16.5
G1 Y0 Z13.048
G3 X-332.5 Y3.5 Z13.045 I-3.5
G1 X-347.5 Z13.037
G3 X-351 Y0 Z13.034 J-3.5
G1 Y-20 Z13.022
G2 X-367.5 Y-36.5 Z13.007 I-16.5
G1 X-377.5 Z13.002
G2 X-394 Y-20 Z12.987 J16.5
G1 Y0 Z12.976
G3 X-397.5 Y3.5 Z12.972 I-3.5
G1 X-412.5 Z12.964
G3 X-416 Y0 Z12.961 J-3.5
G1 Y-20 Z12.949
G2 X-432.5 Y-36.5 Z12.935 I-16.5
G1 X-442.5 Z12.929
G2 X-459 Y-20 Z12.914 J16.5
G1 Y0 Z12.903
G3 X-462.5 Y3.5 Z12.9 I-3.5
G1 X-477.5 Z12.891
G3 X-481 Y0 Z12.888 J-3.5
G1 Y-20 Z12.877
G2 X-497.5 Y-36.5 Z12.862 I-16.5
G1 X-507.5 Z12.856
G2 X-524 Y-20 Z12.841 J16.5
G1 Y0 Z12.83
G3 X-527.5 Y3.5 Z12.827 I-3.5
G1 X-542.5 Z12.818
G3 X-546 Y0 Z12.815 J-3.5
G1 Y-20 Z12.804
G2 X-562.5 Y-36.5 Z12.789 I-16.5
G1 X-572.5 Z12.784
G2 X-589 Y-20 Z12.769 J16.5
G1 Y0 Z12.757
G3 X-592.5 Y3.5 Z12.754 I-3.5
G1 X-607.5 Z12.746
G3 X-611 Y0 Z12.743 J-3.5
G1 Y-20 Z12.731
G2 X-627.5 Y-36.5 Z12.716 I-16.5
G1 X-637.5 Z12.711
G2 X-654 Y-20 Z12.696 J16.5
G1 Y0 Z12.685
G3 X-657.5 Y3.5 Z12.682 I-3.5
G1 X-672.5 Z12.673
G3 X-676 Y0 Z12.67 J-3.5
G1 Y-20 Z12.659
G2 X-692.5 Y-36.5 Z12.644 I-16.5
G1 X-702.5 Z12.638
G2 X-719 Y-20 Z12.623 J16.5
G1 Y0 Z12.612
G3 X-722.5 Y3.5 Z12.609 I-3.5
G1 X-737.5 Z12.6
G3 X-741 Y0 Z12.597 J-3.5
G1 Y-20 Z12.586
G2 X-757.5 Y-36.5 Z12.571 I-16.5
G1 X-767.5 Z12.565
G2 X-784 Y-20 Z12.551 J16.5
G1 Y0 Z12.539
G3 X-787.5 Y3.5 Z12.536 I-3.5
G1 X-802.5 Z12.528
G3 X-806 Y0 Z12.524 J-3.5
G1 Y-20 Z12.513
G2 X-822.5 Y-36.5 Z12.498 I-16.5
G1 X-832.5 Z12.493
G2 X-849 Y-20 Z12.478 J16.5
G1 Y0 Z12.466
G3 X-852.5 Y3.5 Z12.463 I-3.5
G1 X-867.5 Z12.455
G3 X-871 Y0 Z12.452 J-3.5
G1 Y-20 Z12.44
G2 X-887.5 Y-36.5 Z12.426 I-16.5
G1 X-897.5 Z12.42
G2 X-914 Y-20 Z12.405 J16.5
G1 Y0 Z12.394
G3 X-917.5 Y3.5 Z12.391 I-3.5
G1 X-932.5 Z12.382
G3 X-936 Y0 Z12.379 J-3.5
G1 Y-20 Z12.368
G2 X-952.5 Y-36.5 Z12.353 I-16.5
G1 X-962.5 Z12.347
G2 X-979 Y-20 Z12.332 J16.5
G1 Y0 Z12.321
G3 X-982.5 Y3.5 Z12.318 I-3.5
G1 X-997.5 Z12.309
G3 X-1001 Y0 Z12.306 J-3.5
G1 Y-20 Z12.295
G2 X-1017.5 Y-36.5 Z12.28 I-16.5
G1 X-1027.5 Z12.274
G2 X-1044 Y-20 Z12.26 J16.5
G1 Y0 Z12.248
G3 X-1047.5 Y3.5 Z12.245 I-3.5
G1 X-1062.5 Z12.237
G3 X-1066 Y0 Z12.234 J-3.5
G1 Y-20 Z12.222
G2 X-1082.5 Y-36.5 Z12.207 I-16.5
G1 X-1092.5 Z12.202
G2 X-1109 Y-20 Z12.187 J16.5
G1 Y0 Z12.176
G3 X-1112.5 Y3.5 Z12.172 I-3.5
G1 X-1127.5 Z12.164
G3 X-1131 Y0 Z12.161 J-3.5
G1 Y-20 Z12.149
G2 X-1147.5 Y-36.5 Z12.135 I-16.5
G1 X-1157.5 Z12.129
G2 X-1174 Y-20 Z12.114 J16.5
G1 Y0 Z12.103
G3 X-1177.5 Y3.5 Z12.1 I-3.5
G1 X-1192.5 Z12.091
G3 X-1196 Y0 Z12.088 J-3.5
G1 Y-20 Z12.077
G2 X-1212.5 Y-36.5 Z12.062 I-16.5
G1 X-1222.5 Z12.056
G2 X-1239 Y-20 Z12.042 J16.5
G1 Y0 Z12.03
G3 X-1242.5 Y3.5 Z12.027 I-3.5
G1 X-1290 Z12
X-1242.5
G2 X-1239 Y0 J-3.5
G1 Y-20
G3 X-1222.5 Y-36.5 I16.5
G1 X-1212.5
G3 X-1196 Y-20 J16.5
G1 Y0
G2 X-1192.5 Y3.5 I3.5
G1 X-1177.5
G2 X-1174 Y0 J-3.5
G1 Y-20
G3 X-1157.5 Y-36.5 I16.5
G1 X-1147.5
G3 X-1131 Y-20 J16.5
G1 Y0
G2 X-1127.5 Y3.5 I3.5
G1 X-1112.5
G2 X-1109 Y0 J-3.5
G1 Y-20
G3 X-1092.5 Y-36.5 I16.5
G1 X-1082.5
G3 X-1066 Y-20 J16.5
G1 Y0
G2 X-1062.5 Y3.5 I3.5
G1 X-1047.5
G2 X-1044 Y0 J-3.5
G1 Y-20
G3 X-1027.5 Y-36.5 I16.5
G1 X-1017.5
G3 X-1001 Y-20 J16.5
G1 Y0
G2 X-997.5 Y3.5 I3.5
G1 X-982.5
G2 X-979 Y0 J-3.5
G1 Y-20
G3 X-962.5 Y-36.5 I16.5
G1 X-952.5
G3 X-936 Y-20 J16.5
G1 Y0
G2 X-932.5 Y3.5 I3.5
G1 X-917.5
G2 X-914 Y0 J-3.5
G1 Y-20
G3 X-897.5 Y-36.5 I16.5
G1 X-887.5
G3 X-871 Y-20 J16.5
G1 Y0
G2 X-867.5 Y3.5 I3.5
G1 X-852.5
G2 X-849 Y0 J-3.5
G1 Y-20
G3 X-832.5 Y-36.5 I16.5
G1 X-822.5
G3 X-806 Y-20 J16.5
G1 Y0
G2 X-802.5 Y3.5 I3.5
G1 X-787.5
G2 X-784 Y0 J-3.5
G1 Y-20
G3 X-767.5 Y-36.5 I16.5
G1 X-757.5
G3 X-741 Y-20 J16.5
G1 Y0
G2 X-737.5 Y3.5 I3.5
G1 X-722.5
G2 X-719 Y0 J-3.5
G1 Y-20
G3 X-702.5 Y-36.5 I16.5
G1 X-692.5
G3 X-676 Y-20 J16.5
G1 Y0
G2 X-672.5 Y3.5 I3.5
G1 X-657.5
G2 X-654 Y0 J-3.5
G1 Y-20
G3 X-637.5 Y-36.5 I16.5
G1 X-627.5
G3 X-611 Y-20 J16.5
G1 Y0
G2 X-607.5 Y3.5 I3.5
G1 X-592.5
G2 X-589 Y0 J-3.5
G1 Y-20
G3 X-572.5 Y-36.5 I16.5
G1 X-562.5
G3 X-546 Y-20 J16.5
G1 Y0
G2 X-542.5 Y3.5 I3.5
G1 X-527.5
G2 X-524 Y0 J-3.5
G1 Y-20
G3 X-507.5 Y-36.5 I16.5
G1 X-497.5
G3 X-481 Y-20 J16.5
G1 Y0
G2 X-477.5 Y3.5 I3.5
G1 X-462.5
G2 X-459 Y0 J-3.5
G1 Y-20
G3 X-442.5 Y-36.5 I16.5
G1 X-432.5
G3 X-416 Y-20 J16.5
G1 Y0
G2 X-412.5 Y3.5 I3.5
G1 X-397.5
G2 X-394 Y0 J-3.5
G1 Y-20
G3 X-377.5 Y-36.5 I16.5
G1 X-367.5
G3 X-351 Y-20 J16.5
G1 Y0
G2 X-347.5 Y3.5 I3.5
G1 X-332.5
G2 X-329 Y0 J-3.5
G1 Y-20
G3 X-312.5 Y-36.5 I16.5
G1 X-302.5
G3 X-286 Y-20 J16.5
G1 Y0
G2 X-282.5 Y3.5 I3.5
G1 X-267.5
G2 X-264 Y0 J-3.5
G1 Y-20
G3 X-247.5 Y-36.5 I16.5
G1 X-237.5
G3 X-221 Y-20 J16.5
G1 Y0
G2 X-217.5 Y3.5 I3.5
G1 X-202.5
G2 X-199 Y0 J-3.5
G1 Y-20
G3 X-182.5 Y-36.5 I16.5
G1 X-172.5
G3 X-156 Y-20 J16.5
G1 Y0
G2 X-152.5 Y3.5 I3.5
G1 X-137.5
G2 X-134 Y0 J-3.5
G1 Y-20
G3 X-117.5 Y-36.5 I16.5
G1 X-107.5
G3 X-91 Y-20 J16.5
G1 Y0
G2 X-87.5 Y3.5 I3.5
G1 X-72.5
G2 X-69 Y0 J-3.5
G1 Y-20
G3 X-52.5 Y-36.5 I16.5
G1 X-42.5
G3 X-26 Y-20 J16.5
G1 Y0
G2 X-22.5 Y3.5 I3.5
G1 X-7.5
G2 X-4 Y0 J-3.5
G1 Y-20
G3 X12.5 Y-36.5 I16.5
G1 X22.5
G3 X39 Y-20 J16.5
G1 Y0
G2 X42.5 Y3.5 I3.5
G1 X90
X42.5 Z11.973
G3 X39 Y0 Z11.97 J-3.5
G1 Y-20 Z11.958
G2 X22.5 Y-36.5 Z11.944 I-16.5
G1 X12.5 Z11.938
G2 X-4 Y-20 Z11.923 J16.5
G1 Y0 Z11.912
G3 X-7.5 Y3.5 Z11.909 I-3.5
G1 X-22.5 Z11.9
G3 X-26 Y0 Z11.897 J-3.5
G1 Y-20 Z11.886
G2 X-42.5 Y-36.5 Z11.871 I-16.5
G1 X-52.5 Z11.865
G2 X-69 Y-20 Z11.851 J16.5
G1 Y0 Z11.839
G3 X-72.5 Y3.5 Z11.836 I-3.5
G1 X-87.5 Z11.828
G3 X-91 Y0 Z11.824 J-3.5
G1 Y-20 Z11.813
G2 X-107.5 Y-36.5 Z11.798 I-16.5
G1 X-117.5 Z11.793
G2 X-134 Y-20 Z11.778 J16.5
G1 Y0 Z11.766
G3 X-137.5 Y3.5 Z11.763 I-3.5
G1 X-152.5 Z11.755
G3 X-156 Y0 Z11.752 J-3.5
G1 Y-20 Z11.74
G2 X-172.5 Y-36.5 Z11.726 I-16.5
G1 X-182.5 Z11.72
G2 X-199 Y-20 Z11.705 J16.5
G1 Y0 Z11.694
G3 X-202.5 Y3.5 Z11.691 I-3.5
G1 X-217.5 Z11.682
G3 X-221 Y0 Z11.679 J-3.5
G1 Y-20 Z11.668
G2 X-237.5 Y-36.5 Z11.653 I-16.5
G1 X-247.5 Z11.647
G2 X-264 Y-20 Z11.632 J16.5
G1 Y0 Z11.621
G3 X-267.5 Y3.5 Z11.618 I-3.5
G1 X-282.5 Z11.609
G3 X-286 Y0 Z11.606 J-3.5
G1 Y-20 Z11.595
G2 X-302.5 Y-36.5 Z11.58 I-16.5
G1 X-312.5 Z11.574
G2 X-329 Y-20 Z11.56 J16.5
G1 Y0 Z11.548
G3 X-332.5 Y3.5 Z11.545 I-3.5
G1 X-347.5 Z11.537
G3 X-351 Y0 Z11.534 J-3.5
G1 Y-20 Z11.522
G2 X-367.5 Y-36.5 Z11.507 I-16.5
G1 X-377.5 Z11.502
G2 X-394 Y-20 Z11.487 J16.5
G1 Y0 Z11.476
G3 X-397.5 Y3.5 Z11.472 I-3.5
G1 X-412.5 Z11.464
G3 X-416 Y0 Z11.461 J-3.5
G1 Y-20 Z11.449
G2 X-432.5 Y-36.5 Z11.435 I-16.5
G1 X-442.5 Z11.429
G2 X-459 Y-20 Z11.414 J16.5
G1 Y0 Z11.403
G3 X-462.5 Y3.5 Z11.4 I-3.5
G1 X-477.5 Z11.391
G3 X-481 Y0 Z11.388 J-3.5
G1 Y-20 Z11.377
G2 X-497.5 Y-36.5 Z11.362 I-16.5
G1 X-507.5 Z11.356
G2 X-524 Y-20 Z11.341 J16.5
G1 Y0 Z11.33
G3 X-527.5 Y3.5 Z11.327 I-3.5
G1 X-542.5 Z11.318
G3 X-546 Y0 Z11.315 J-3.5
G1 Y-20 Z11.304
G2 X-562.5 Y-36.5 Z11.289 I-16.5
G1 X-572.5 Z11.284
G2 X-589 Y-20 Z11.269 J16.5
G1 Y0 Z11.257
G3 X-592.5 Y3.5 Z11.254 I-3.5
G1 X-607.5 Z11.246
G3 X-611 Y0 Z11.243 J-3.5
G1 Y-20 Z11.231
G2 X-627.5 Y-36.5 Z11.216 I-16.5
G1 X-637.5 Z11.211
G2 X-654 Y-20 Z11.196 J16.5
G1 Y0 Z11.185
G3 X-657.5 Y3.5 Z11.182 I-3.5
G1 X-672.5 Z11.173
G3 X-676 Y0 Z11.17 J-3.5
G1 Y-20 Z11.159
G2 X-692.5 Y-36.5 Z11.144 I-16.5
G1 X-702.5 Z11.138
G2 X-719 Y-20 Z11.123 J16.5
G1 Y0 Z11.112
G3 X-722.5 Y3.5 Z11.109 I-3.5
G1 X-737.5 Z11.1
G3 X-741 Y0 Z11.097 J-3.5
G1 Y-20 Z11.086
G2 X-757.5 Y-36.5 Z11.071 I-16.5
G1 X-767.5 Z11.065
G2 X-784 Y-20 Z11.051 J16.5
G1 Y0 Z11.039
G3 X-787.5 Y3.5 Z11.036 I-3.5
G1 X-802.5 Z11.028
G3 X-806 Y0 Z11.024 J-3.5
G1 Y-20 Z11.013
G2 X-822.5 Y-36.5 Z10.998 I-16.5
G1 X-832.5 Z10.993
G2 X-849 Y-20 Z10.978 J16.5
G1 Y0 Z10.966
G3 X-852.5 Y3.5 Z10.963 I-3.5
G1 X-867.5 Z10.955
G3 X-871 Y0 Z10.952 J-3.5
G1 Y-20 Z10.94
G2 X-887.5 Y-36.5 Z10.926 I-16.5
G1 X-897.5 Z10.92
G2 X-914 Y-20 Z10.905 J16.5
G1 Y0 Z10.894
G3 X-917.5 Y3.5 Z10.891 I-3.5
G1 X-932.5 Z10.882
G3 X-936 Y0 Z10.879 J-3.5
G1 Y-20 Z10.868
G2 X-952.5 Y-36.5 Z10.853 I-16.5
G1 X-962.5 Z10.847
G2 X-979 Y-20 Z10.832 J16.5
G1 Y0 Z10.821
G3 X-982.5 Y3.5 Z10.818 I-3.5
G1 X-997.5 Z10.809
G3 X-1001 Y0 Z10.806 J-3.5
G1 Y-20 Z10.795
G2 X-1017.5 Y-36.5 Z10.78 I-16.5
G1 X-1027.5 Z10.774
G2 X-1044 Y-20 Z10.76 J16.5
G1 Y0 Z10.748
G3 X-1047.5 Y3.5 Z10.745 I-3.5
G1 X-1062.5 Z10.737
G3 X-1066 Y0 Z10.734 J-3.5
G1 Y-20 Z10.722
G2 X-1082.5 Y-36.5 Z10.707 I-16.5
G1 X-1092.5 Z10.702
G2 X-1109 Y-20 Z10.687 J16.5
G1 Y0 Z10.676
G3 X-1112.5 Y3.5 Z10.672 I-3.5
G1 X-1127.5 Z10.664
G3 X-1131 Y0 Z10.661 J-3.5
G1 Y-20 Z10.649
G2 X-1147.5 Y-36.5 Z10.635 I-16.5
G1 X-1157.5 Z10.629
G2 X-1174 Y-20 Z10.614 J16.5
G1 Y0 Z10.603
G3 X-1177.5 Y3.5 Z10.6 I-3.5
G1 X-1192.5 Z10.591
G3 X-1196 Y0 Z10.588 J-3.5
G1 Y-20 Z10.577
G2 X-1212.5 Y-36.5 Z10.562 I-16.5
G1 X-1222.5 Z10.556
G2 X-1239 Y-20 Z10.542 J16.5
G1 Y0 Z10.53
G3 X-1242.5 Y3.5 Z10.527 I-3.5
G1 X-1290 Z10.5
X-1242.5
G2 X-1239 Y0 J-3.5
G1 Y-20
G3 X-1222.5 Y-36.5 I16.5
G1 X-1212.5
G3 X-1196 Y-20 J16.5
G1 Y0
G2 X-1192.5 Y3.5 I3.5
G1 X-1177.5
G2 X-1174 Y0 J-3.5
G1 Y-20
G3 X-1157.5 Y-36.5 I16.5
G1 X-1147.5
G3 X-1131 Y-20 J16.5
G1 Y0
G2 X-1127.5 Y3.5 I3.5
G1 X-1112.5
G2 X-1109 Y0 J-3.5
G1 Y-20
G3 X-1092.5 Y-36.5 I16.5
G1 X-1082.5
G3 X-1066 Y-20 J16.5
G1 Y0
G2 X-1062.5 Y3.5 I3.5
G1 X-1047.5
G2 X-1044 Y0 J-3.5
G1 Y-20
G3 X-1027.5 Y-36.5 I16.5
G1 X-1017.5
G3 X-1001 Y-20 J16.5
G1 Y0
G2 X-997.5 Y3.5 I3.5
G1 X-982.5
G2 X-979 Y0 J-3.5
G1 Y-20
G3 X-962.5 Y-36.5 I16.5
G1 X-952.5
G3 X-936 Y-20 J16.5
G1 Y0
G2 X-932.5 Y3.5 I3.5
G1 X-917.5
G2 X-914 Y0 J-3.5
G1 Y-20
G3 X-897.5 Y-36.5 I16.5
G1 X-887.5
G3 X-871 Y-20 J16.5
G1 Y0
G2 X-867.5 Y3.5 I3.5
G1 X-852.5
G2 X-849 Y0 J-3.5
G1 Y-20
G3 X-832.5 Y-36.5 I16.5
G1 X-822.5
G3 X-806 Y-20 J16.5
G1 Y0
G2 X-802.5 Y3.5 I3.5
G1 X-787.5
G2 X-784 Y0 J-3.5
G1 Y-20
G3 X-767.5 Y-36.5 I16.5
G1 X-757.5
G3 X-741 Y-20 J16.5
G1 Y0
G2 X-737.5 Y3.5 I3.5
G1 X-722.5
G2 X-719 Y0 J-3.5
G1 Y-20
G3 X-702.5 Y-36.5 I16.5
G1 X-692.5
G3 X-676 Y-20 J16.5
G1 Y0
G2 X-672.5 Y3.5 I3.5
G1 X-657.5
G2 X-654 Y0 J-3.5
G1 Y-20
G3 X-637.5 Y-36.5 I16.5
G1 X-627.5
G3 X-611 Y-20 J16.5
G1 Y0
G2 X-607.5 Y3.5 I3.5
G1 X-592.5
G2 X-589 Y0 J-3.5
G1 Y-20
G3 X-572.5 Y-36.5 I16.5
G1 X-562.5
G3 X-546 Y-20 J16.5
G1 Y0
G2 X-542.5 Y3.5 I3.5
G1 X-527.5
G2 X-524 Y0 J-3.5
G1 Y-20
G3 X-507.5 Y-36.5 I16.5
G1 X-497.5
G3 X-481 Y-20 J16.5
G1 Y0
G2 X-477.5 Y3.5 I3.5
G1 X-462.5
G2 X-459 Y0 J-3.5
G1 Y-20
G3 X-442.5 Y-36.5 I16.5
G1 X-432.5
G3 X-416 Y-20 J16.5
G1 Y0
G2 X-412.5 Y3.5 I3.5
G1 X-397.5
G2 X-394 Y0 J-3.5
G1 Y-20
G3 X-377.5 Y-36.5 I16.5
G1 X-367.5
G3 X-351 Y-20 J16.5
G1 Y0
G2 X-347.5 Y3.5 I3.5
G1 X-332.5
G2 X-329 Y0 J-3.5
G1 Y-20
G3 X-312.5 Y-36.5 I16.5
G1 X-302.5
G3 X-286 Y-20 J16.5
G1 Y0
G2 X-282.5 Y3.5 I3.5
G1 X-267.5
G2 X-264 Y0 J-3.5
G1 Y-20
G3 X-247.5 Y-36.5 I16.5
G1 X-237.5
G3 X-221 Y-20 J16.5
G1 Y0
G2 X-217.5 Y3.5 I3.5
G1 X-202.5
G2 X-199 Y0 J-3.5
G1 Y-20
G3 X-182.5 Y-36.5 I16.5
G1 X-172.5
G3 X-156 Y-20 J16.5
G1 Y0
G2 X-152.5 Y3.5 I3.5
G1 X-137.5
G2 X-134 Y0 J-3.5
G1 Y-20
G3 X-117.5 Y-36.5 I16.5
G1 X-107.5
G3 X-91 Y-20 J16.5
G1 Y0
G2 X-87.5 Y3.5 I3.5
G1 X-72.5
G2 X-69 Y0 J-3.5
G1 Y-20
G3 X-52.5 Y-36.5 I16.5
G1 X-42.5
G3 X-26 Y-20 J16.5
G1 Y0
G2 X-22.5 Y3.5 I3.5
G1 X-7.5
G2 X-4 Y0 J-3.5
G1 Y-20
G3 X12.5 Y-36.5 I16.5
G1 X22.5
G3 X39 Y-20 J16.5
G1 Y0
G2 X42.5 Y3.5 I3.5
G1 X90
X42.5 Z10.473
G3 X39 Y0 Z10.47 J-3.5
G1 Y-20 Z10.458
G2 X22.5 Y-36.5 Z10.444 I-16.5
G1 X12.5 Z10.438
G2 X-4 Y-20 Z10.423 J16.5
G1 Y0 Z10.412
G3 X-7.5 Y3.5 Z10.409 I-3.5
G1 X-22.5 Z10.4
G3 X-26 Y0 Z10.397 J-3.5
G1 Y-20 Z10.386
G2 X-42.5 Y-36.5 Z10.371 I-16.5
G1 X-52.5 Z10.365
G2 X-69 Y-20 Z10.351 J16.5
G1 Y0 Z10.339
G3 X-72.5 Y3.5 Z10.336 I-3.5
G1 X-87.5 Z10.328
G3 X-91 Y0 Z10.324 J-3.5
G1 Y-20 Z10.313
G2 X-107.5 Y-36.5 Z10.298 I-16.5
G1 X-117.5 Z10.293
G2 X-134 Y-20 Z10.278 J16.5
G1 Y0 Z10.266
G3 X-137.5 Y3.5 Z10.263 I-3.5
G1 X-152.5 Z10.255
G3 X-156 Y0 Z10.252 J-3.5
G1 Y-20 Z10.24
G2 X-172.5 Y-36.5 Z10.226 I-16.5
G1 X-182.5 Z10.22
G2 X-199 Y-20 Z10.205 J16.5
G1 Y0 Z10.194
G3 X-202.5 Y3.5 Z10.191 I-3.5
G1 X-217.5 Z10.182
G3 X-221 Y0 Z10.179 J-3.5
G1 Y-20 Z10.168
G2 X-237.5 Y-36.5 Z10.153 I-16.5
G1 X-247.5 Z10.147
G2 X-264 Y-20 Z10.132 J16.5
G1 Y0 Z10.121
G3 X-267.5 Y3.5 Z10.118 I-3.5
G1 X-282.5 Z10.109
G3 X-286 Y0 Z10.106 J-3.5
G1 Y-20 Z10.095
G2 X-302.5 Y-36.5 Z10.08 I-16.5
G1 X-312.5 Z10.074
G2 X-329 Y-20 Z10.06 J16.5
G1 Y0 Z10.048
G3 X-332.5 Y3.5 Z10.045 I-3.5
G1 X-347.5 Z10.037
G3 X-351 Y0 Z10.034 J-3.5
G1 Y-20 Z10.022
G2 X-367.5 Y-36.5 Z10.007 I-16.5
G1 X-377.5 Z10.002
G2 X-394 Y-20 Z9.987 J16.5
G1 Y0 Z9.976
G3 X-397.5 Y3.5 Z9.972 I-3.5
G1 X-412.5 Z9.964
G3 X-416 Y0 Z9.961 J-3.5
G1 Y-20 Z9.949
G2 X-432.5 Y-36.5 Z9.935 I-16.5
G1 X-442.5 Z9.929
G2 X-459 Y-20 Z9.914 J16.5
G1 Y0 Z9.903
G3 X-462.5 Y3.5 Z9.9 I-3.5
G1 X-477.5 Z9.891
G3 X-481 Y0 Z9.888 J-3.5
G1 Y-20 Z9.877
G2 X-497.5 Y-36.5 Z9.862 I-16.5
G1 X-507.5 Z9.856
G2 X-524 Y-20 Z9.841 J16.5
G1 Y0 Z9.83
G3 X-527.5 Y3.5 Z9.827 I-3.5
G1 X-542.5 Z9.818
G3 X-546 Y0 Z9.815 J-3.5
G1 Y-20 Z9.804
G2 X-562.5 Y-36.5 Z9.789 I-16.5
G1 X-572.5 Z9.784
G2 X-589 Y-20 Z9.769 J16.5
G1 Y0 Z9.757
G3 X-592.5 Y3.5 Z9.754 I-3.5
G1 X-607.5 Z9.746
G3 X-611 Y0 Z9.743 J-3.5
G1 Y-20 Z9.731
G2 X-627.5 Y-36.5 Z9.716 I-16.5
G1 X-637.5 Z9.711
G2 X-654 Y-20 Z9.696 J16.5
G1 Y0 Z9.685
G3 X-657.5 Y3.5 Z9.682 I-3.5
G1 X-672.5 Z9.673
G3 X-676 Y0 Z9.67 J-3.5
G1 Y-20 Z9.659
G2 X-692.5 Y-36.5 Z9.644 I-16.5
G1 X-702.5 Z9.638
G2 X-719 Y-20 Z9.623 J16.5
G1 Y0 Z9.612
G3 X-722.5 Y3.5 Z9.609 I-3.5
G1 X-737.5 Z9.6
G3 X-741 Y0 Z9.597 J-3.5
G1 Y-20 Z9.586
G2 X-757.5 Y-36.5 Z9.571 I-16.5
G1 X-767.5 Z9.565
G2 X-784 Y-20 Z9.551 J16.5
G1 Y0 Z9.539
G3 X-787.5 Y3.5 Z9.536 I-3.5
G1 X-802.5 Z9.528
G3 X-806 Y0 Z9.524 J-3.5
G1 Y-20 Z9.513
G2 X-822.5 Y-36.5 Z9.498 I-16.5
G1 X-832.5 Z9.493
G2 X-849 Y-20 Z9.478 J16.5
G1 Y0 Z9.466
G3 X-852.5 Y3.5 Z9.463 I-3.5
G1 X-867.5 Z9.455
G3 X-871 Y0 Z9.452 J-3.5
G1 Y-20 Z9.44
G2 X-887.5 Y-36.5 Z9.426 I-16.5
G1 X-897.5 Z9.42
G2 X-914 Y-20 Z9.405 J16.5
G1 Y0 Z9.394
G3 X-917.5 Y3.5 Z9.391 I-3.5
G1 X-932.5 Z9.382
G3 X-936 Y0 Z9.379 J-3.5
G1 Y-20 Z9.368
G2 X-952.5 Y-36.5 Z9.353 I-16.5
G1 X-962.5 Z9.347
G2 X-979 Y-20 Z9.332 J16.5
G1 Y0 Z9.321
G3 X-982.5 Y3.5 Z9.318 I-3.5
G1 X-997.5 Z9.309
G3 X-1001 Y0 Z9.306 J-3.5
G1 Y-20 Z9.295
G2 X-1017.5 Y-36.5 Z9.28 I-16.5
G1 X-1027.5 Z9.274
G2 X-1044 Y-20 Z9.26 J16.5
G1 Y0 Z9.248
G3 X-1047.5 Y3.5 Z9.245 I-3.5
G1 X-1062.5 Z9.237
G3 X-1066 Y0 Z9.234 J-3.5
G1 Y-20 Z9.222
G2 X-1082.5 Y-36.5 Z9.207 I-16.5
G1 X-1092.5 Z9.202
G2 X-1109 Y-20 Z9.187 J16.5
G1 Y0 Z9.176
G3 X-1112.5 Y3.5 Z9.172 I-3.5
G1 X-1127.5 Z9.164
G3 X-1131 Y0 Z9.161 J-3.5
G1 Y-20 Z9.149
G2 X-1147.5 Y-36.5 Z9.135 I-16.5
G1 X-1157.5 Z9.129
G2 X-1174 Y-20 Z9.114 J16.5
G1 Y0 Z9.103
G3 X-1177.5 Y3.5 Z9.1 I-3.5
G1 X-1192.5 Z9.091
G3 X-1196 Y0 Z9.088 J-3.5
G1 Y-20 Z9.077
G2 X-1212.5 Y-36.5 Z9.062 I-16.5
G1 X-1222.5 Z9.056
G2 X-1239 Y-20 Z9.042 J16.5
G1 Y0 Z9.03
G3 X-1242.5 Y3.5 Z9.027 I-3.5
G1 X-1290 Z9
X-1242.5
G2 X-1239 Y0 J-3.5
G1 Y-20
G3 X-1222.5 Y-36.5 I16.5
G1 X-1212.5
G3 X-1196 Y-20 J16.5
G1 Y0
G2 X-1192.5 Y3.5 I3.5
G1 X-1177.5
G2 X-1174 Y0 J-3.5
G1 Y-20
G3 X-1157.5 Y-36.5 I16.5
G1 X-1147.5
G3 X-1131 Y-20 J16.5
G1 Y0
G2 X-1127.5 Y3.5 I3.5
G1 X-1112.5
G2 X-1109 Y0 J-3.5
G1 Y-20
G3 X-1092.5 Y-36.5 I16.5
G1 X-1082.5
G3 X-1066 Y-20 J16.5
G1 Y0
G2 X-1062.5 Y3.5 I3.5
G1 X-1047.5
G2 X-1044 Y0 J-3.5
G1 Y-20
G3 X-1027.5 Y-36.5 I16.5
G1 X-1017.5
G3 X-1001 Y-20 J16.5
G1 Y0
G2 X-997.5 Y3.5 I3.5
G1 X-982.5
G2 X-979 Y0 J-3.5
G1 Y-20
G3 X-962.5 Y-36.5 I16.5
G1 X-952.5
G3 X-936 Y-20 J16.5
G1 Y0
G2 X-932.5 Y3.5 I3.5
G1 X-917.5
G2 X-914 Y0 J-3.5
G1 Y-20
G3 X-897.5 Y-36.5 I16.5
G1 X-887.5
G3 X-871 Y-20 J16.5
G1 Y0
G2 X-867.5 Y3.5 I3.5
G1 X-852.5
G2 X-849 Y0 J-3.5
G1 Y-20
G3 X-832.5 Y-36.5 I16.5
G1 X-822.5
G3 X-806 Y-20 J16.5
G1 Y0
G2 X-802.5 Y3.5 I3.5
G1 X-787.5
G2 X-784 Y0 J-3.5
G1 Y-20
G3 X-767.5 Y-36.5 I16.5
G1 X-757.5
G3 X-741 Y-20 J16.5
G1 Y0
G2 X-737.5 Y3.5 I3.5
G1 X-722.5
G2 X-719 Y0 J-3.5
G1 Y-20
G3 X-702.5 Y-36.5 I16.5
G1 X-692.5
G3 X-676 Y-20 J16.5
G1 Y0
G2 X-672.5 Y3.5 I3.5
G1 X-657.5
G2 X-654 Y0 J-3.5
G1 Y-20
G3 X-637.5 Y-36.5 I16.5
G1 X-627.5
G3 X-611 Y-20 J16.5
G1 Y0
G2 X-607.5 Y3.5 I3.5
G1 X-592.5
G2 X-589 Y0 J-3.5
G1 Y-20
G3 X-572.5 Y-36.5 I16.5
G1 X-562.5
G3 X-546 Y-20 J16.5
G1 Y0
G2 X-542.5 Y3.5 I3.5
G1 X-527.5
G2 X-524 Y0 J-3.5
G1 Y-20
G3 X-507.5 Y-36.5 I16.5
G1 X-497.5
G3 X-481 Y-20 J16.5
G1 Y0
G2 X-477.5 Y3.5 I3.5
G1 X-462.5
G2 X-459 Y0 J-3.5
G1 Y-20
G3 X-442.5 Y-36.5 I16.5
G1 X-432.5
G3 X-416 Y-20 J16.5
G1 Y0
G2 X-412.5 Y3.5 I3.5
G1 X-397.5
G2 X-394 Y0 J-3.5
G1 Y-20
G3 X-377.5 Y-36.5 I16.5
G1 X-367.5
G3 X-351 Y-20 J16.5
G1 Y0
G2 X-347.5 Y3.5 I3.5
G1 X-332.5
G2 X-329 Y0 J-3.5
G1 Y-20
G3 X-312.5 Y-36.5 I16.5
G1 X-302.5
G3 X-286 Y-20 J16.5
G1 Y0
G2 X-282.5 Y3.5 I3.5
G1 X-267.5
G2 X-264 Y0 J-3.5
G1 Y-20
G3 X-247.5 Y-36.5 I16.5
G1 X-237.5
G3 X-221 Y-20 J16.5
G1 Y0
G2 X-217.5 Y3.5 I3.5
G1 X-202.5
G2 X-199 Y0 J-3.5
G1 Y-20
G3 X-182.5 Y-36.5 I16.5
G1 X-172.5
G3 X-156 Y-20 J16.5
G1 Y0
G2 X-152.5 Y3.5 I3.5
G1 X-137.5
G2 X-134 Y0 J-3.5
G1 Y-20
G3 X-117.5 Y-36.5 I16.5
G1 X-107.5
G3 X-91 Y-20 J16.5
G1 Y0
G2 X-87.5 Y3.5 I3.5
G1 X-72.5
G2 X-69 Y0 J-3.5
G1 Y-20
G3 X-52.5 Y-36.5 I16.5
G1 X-42.5
G3 X-26 Y-20 J16.5
G1 Y0
G2 X-22.5 Y3.5 I3.5
G1 X-7.5
G2 X-4 Y0 J-3.5
G1 Y-20
G3 X12.5 Y-36.5 I16.5
G1 X22.5
G3 X39 Y-20 J16.5
G1 Y0
G2 X42.5 Y3.5 I3.5
G1 X90
X42.5 Z8.973
G3 X39 Y0 Z8.97 J-3.5
G1 Y-20 Z8.958
G2 X22.5 Y-36.5 Z8.944 I-16.5
G1 X12.5 Z8.938
G2 X-4 Y-20 Z8.923 J16.5
G1 Y0 Z8.912
G3 X-7.5 Y3.5 Z8.909 I-3.5
G1 X-22.5 Z8.9
G3 X-26 Y0 Z8.897 J-3.5
G1 Y-20 Z8.886
G2 X-42.5 Y-36.5 Z8.871 I-16.5
G1 X-52.5 Z8.865
G2 X-69 Y-20 Z8.851 J16.5
G1 Y0 Z8.839
G3 X-72.5 Y3.5 Z8.836 I-3.5
G1 X-87.5 Z8.828
G3 X-91 Y0 Z8.824 J-3.5
G1 Y-20 Z8.813
G2 X-107.5 Y-36.5 Z8.798 I-16.5
G1 X-117.5 Z8.793
G2 X-134 Y-20 Z8.778 J16.5
G1 Y0 Z8.766
G3 X-137.5 Y3.5 Z8.763 I-3.5
G1 X-152.5 Z8.755
G3 X-156 Y0 Z8.752 J-3.5
G1 Y-20 Z8.74
G2 X-172.5 Y-36.5 Z8.726 I-16.5
G1 X-182.5 Z8.72
G2 X-199 Y-20 Z8.705 J16.5
G1 Y0 Z8.694
G3 X-202.5 Y3.5 Z8.691 I-3.5
G1 X-217.5 Z8.682
G3 X-221 Y0 Z8.679 J-3.5
G1 Y-20 Z8.668
G2 X-237.5 Y-36.5 Z8.653 I-16.5
G1 X-247.5 Z8.647
G2 X-264 Y-20 Z8.632 J16.5
G1 Y0 Z8.621
G3 X-267.5 Y3.5 Z8.618 I-3.5
G1 X-282.5 Z8.609
G3 X-286 Y0 Z8.606 J-3.5
G1 Y-20 Z8.595
G2 X-302.5 Y-36.5 Z8.58 I-16.5
G1 X-312.5 Z8.574
G2 X-329 Y-20 Z8.56 J16.5
G1 Y0 Z8.548
G3 X-332.5 Y3.5 Z8.545 I-3.5
G1 X-347.5 Z8.537
G3 X-351 Y0 Z8.534 J-3.5
G1 Y-20 Z8.522
G2 X-367.5 Y-36.5 Z8.507 I-16.5
G1 X-377.5 Z8.502
G2 X-394 Y-20 Z8.487 J16.5
G1 Y0 Z8.476
G3 X-397.5 Y3.5 Z8.472 I-3.5
G1 X-412.5 Z8.464
G3 X-416 Y0 Z8.461 J-3.5
G1 Y-20 Z8.449
G2 X-432.5 Y-36.5 Z8.435 I-16.5
G1 X-442.5 Z8.429
G2 X-459 Y-20 Z8.414 J16.5
G1 Y0 Z8.403
G3 X-462.5 Y3.5 Z8.4 I-3.5
G1 X-477.5 Z8.391
G3 X-481 Y0 Z8.388 J-3.5
G1 Y-20 Z8.377
G2 X-497.5 Y-36.5 Z8.362 I-16.5
G1 X-507.5 Z8.356
G2 X-524 Y-20 Z8.341 J16.5
G1 Y0 Z8.33
G3 X-527.5 Y3.5 Z8.327 I-3.5
G1 X-542.5 Z8.318
G3 X-546 Y0 Z8.315 J-3.5
G1 Y-20 Z8.304
G2 X-562.5 Y-36.5 Z8.289 I-16.5
G1 X-572.5 Z8.284
G2 X-589 Y-20 Z8.269 J16.5
G1 Y0 Z8.257
G3 X-592.5 Y3.5 Z8.254 I-3.5
G1 X-607.5 Z8.246
G3 X-611 Y0 Z8.243 J-3.5
G1 Y-20 Z8.231
G2 X-627.5 Y-36.5 Z8.216 I-16.5
G1 X-637.5 Z8.211
G2 X-654 Y-20 Z8.196 J16.5
G1 Y0 Z8.185
G3 X-657.5 Y3.5 Z8.182 I-3.5
G1 X-672.5 Z8.173
G3 X-676 Y0 Z8.17 J-3.5
G1 Y-20 Z8.159
G2 X-692.5 Y-36.5 Z8.144 I-16.5
G1 X-702.5 Z8.138
G2 X-719 Y-20 Z8.123 J16.5
G1 Y0 Z8.112
G3 X-722.5 Y3.5 Z8.109 I-3.5
G1 X-737.5 Z8.1
G3 X-741 Y0 Z8.097 J-3.5
G1 Y-20 Z8.086
G2 X-757.5 Y-36.5 Z8.071 I-16.5
G1 X-767.5 Z8.065
G2 X-784 Y-20 Z8.051 J16.5
G1 Y0 Z8.039
G3 X-787.5 Y3.5 Z8.036 I-3.5
G1 X-802.5 Z8.028
G3 X-806 Y0 Z8.024 J-3.5
G1 Y-20 Z8.013
G2 X-822.5 Y-36.5 Z7.998 I-16.5
G1 X-832.5 Z7.993
G2 X-849 Y-20 Z7.978 J16.5
G1 Y0 Z7.966
G3 X-852.5 Y3.5 Z7.963 I-3.5
G1 X-867.5 Z7.955
G3 X-871 Y0 Z7.952 J-3.5
G1 Y-20 Z7.94
G2 X-887.5 Y-36.5 Z7.926 I-16.5
G1 X-897.5 Z7.92
G2 X-914 Y-20 Z7.905 J16.5
G1 Y0 Z7.894
G3 X-917.5 Y3.5 Z7.891 I-3.5
G1 X-932.5 Z7.882
G3 X-936 Y0 Z7.879 J-3.5
G1 Y-20 Z7.868
G2 X-952.5 Y-36.5 Z7.853 I-16.5
G1 X-962.5 Z7.847
G2 X-979 Y-20 Z7.832 J16.5
G1 Y0 Z7.821
G3 X-982.5 Y3.5 Z7.818 I-3.5
G1 X-997.5 Z7.809
G3 X-1001 Y0 Z7.806 J-3.5
G1 Y-20 Z7.795
G2 X-1017.5 Y-36.5 Z7.78 I-16.5
G1 X-1027.5 Z7.774
G2 X-1044 Y-20 Z7.76 J16.5
G1 Y0 Z7.748
G3 X-1047.5 Y3.5 Z7.745 I-3.5
G1 X-1062.5 Z7.737
G3 X-1066 Y0 Z7.734 J-3.5
G1 Y-20 Z7.722
G2 X-1082.5 Y-36.5 Z7.707 I-16.5
G1 X-1092.5 Z7.702
G2 X-1109 Y-20 Z7.687 J16.5
G1 Y0 Z7.676
G3 X-1112.5 Y3.5 Z7.672 I-3.5
G1 X-1127.5 Z7.664
G3 X-1131 Y0 Z7.661 J-3.5
G1 Y-20 Z7.649
G2 X-1147.5 Y-36.5 Z7.635 I-16.5
G1 X-1157.5 Z7.629
G2 X-1174 Y-20 Z7.614 J16.5
G1 Y0 Z7.603
G3 X-1177.5 Y3.5 Z7.6 I-3.5
G1 X-1192.5 Z7.591
G3 X-1196 Y0 Z7.588 J-3.5
G1 Y-20 Z7.577
G2 X-1212.5 Y-36.5 Z7.562 I-16.5
G1 X-1222.5 Z7.556
G2 X-1239 Y-20 Z7.542 J16.5
G1 Y0 Z7.53
G3 X-1242.5 Y3.5 Z7.527 I-3.5
G1 X-1290 Z7.5
X-1242.5
G2 X-1239 Y0 J-3.5
G1 Y-20
G3 X-1222.5 Y-36.5 I16.5
G1 X-1212.5
G3 X-1196 Y-20 J16.5
G1 Y0
G2 X-1192.5 Y3.5 I3.5
G1 X-1177.5
G2 X-1174 Y0 J-3.5
G1 Y-20
G3 X-1157.5 Y-36.5 I16.5
G1 X-1147.5
G3 X-1131 Y-20 J16.5
G1 Y0
G2 X-1127.5 Y3.5 I3.5
G1 X-1112.5
G2 X-1109 Y0 J-3.5
G1 Y-20
G3 X-1092.5 Y-36.5 I16.5
G1 X-1082.5
G3 X-1066 Y-20 J16.5
G1 Y0
G2 X-1062.5 Y3.5 I3.5
G1 X-1047.5
G2 X-1044 Y0 J-3.5
G1 Y-20
G3 X-1027.5 Y-36.5 I16.5
G1 X-1017.5
G3 X-1001 Y-20 J16.5
G1 Y0
G2 X-997.5 Y3.5 I3.5
G1 X-982.5
G2 X-979 Y0 J-3.5
G1 Y-20
G3 X-962.5 Y-36.5 I16.5
G1 X-952.5
G3 X-936 Y-20 J16.5
G1 Y0
G2 X-932.5 Y3.5 I3.5
G1 X-917.5
G2 X-914 Y0 J-3.5
G1 Y-20
G3 X-897.5 Y-36.5 I16.5
G1 X-887.5
G3 X-871 Y-20 J16.5
G1 Y0
G2 X-867.5 Y3.5 I3.5
G1 X-852.5
G2 X-849 Y0 J-3.5
G1 Y-20
G3 X-832.5 Y-36.5 I16.5
G1 X-822.5
G3 X-806 Y-20 J16.5
G1 Y0
G2 X-802.5 Y3.5 I3.5
G1 X-787.5
G2 X-784 Y0 J-3.5
G1 Y-20
G3 X-767.5 Y-36.5 I16.5
G1 X-757.5
G3 X-741 Y-20 J16.5
G1 Y0
G2 X-737.5 Y3.5 I3.5
G1 X-722.5
G2 X-719 Y0 J-3.5
G1 Y-20
G3 X-702.5 Y-36.5 I16.5
G1 X-692.5
G3 X-676 Y-20 J16.5
G1 Y0
G2 X-672.5 Y3.5 I3.5
G1 X-657.5
G2 X-654 Y0 J-3.5
G1 Y-20
G3 X-637.5 Y-36.5 I16.5
G1 X-627.5
G3 X-611 Y-20 J16.5
G1 Y0
G2 X-607.5 Y3.5 I3.5
G1 X-592.5
G2 X-589 Y0 J-3.5
G1 Y-20
G3 X-572.5 Y-36.5 I16.5
G1 X-562.5
G3 X-546 Y-20 J16.5
G1 Y0
G2 X-542.5 Y3.5 I3.5
G1 X-527.5
G2 X-524 Y0 J-3.5
G1 Y-20
G3 X-507.5 Y-36.5 I16.5
G1 X-497.5
G3 X-481 Y-20 J16.5
G1 Y0
G2 X-477.5 Y3.5 I3.5
G1 X-462.5
G2 X-459 Y0 J-3.5
G1 Y-20
G3 X-442.5 Y-36.5 I16.5
G1 X-432.5
G3 X-416 Y-20 J16.5
G1 Y0
G2 X-412.5 Y3.5 I3.5
G1 X-397.5
G2 X-394 Y0 J-3.5
G1 Y-20
G3 X-377.5 Y-36.5 I16.5
G1 X-367.5
G3 X-351 Y-20 J16.5
G1 Y0
G2 X-347.5 Y3.5 I3.5
G1 X-332.5
G2 X-329 Y0 J-3.5
G1 Y-20
G3 X-312.5 Y-36.5 I16.5
G1 X-302.5
G3 X-286 Y-20 J16.5
G1 Y0
G2 X-282.5 Y3.5 I3.5
G1 X-267.5
G2 X-264 Y0 J-3.5
G1 Y-20
G3 X-247.5 Y-36.5 I16.5
G1 X-237.5
G3 X-221 Y-20 J16.5
G1 Y0
G2 X-217.5 Y3.5 I3.5
G1 X-202.5
G2 X-199 Y0 J-3.5
G1 Y-20
G3 X-182.5 Y-36.5 I16.5
G1 X-172.5
G3 X-156 Y-20 J16.5
G1 Y0
G2 X-152.5 Y3.5 I3.5
G1 X-137.5
G2 X-134 Y0 J-3.5
G1 Y-20
G3 X-117.5 Y-36.5 I16.5
G1 X-107.5
G3 X-91 Y-20 J16.5
G1 Y0
G2 X-87.5 Y3.5 I3.5
G1 X-72.5
G2 X-69 Y0 J-3.5
G1 Y-20
G3 X-52.5 Y-36.5 I16.5
G1 X-42.5
G3 X-26 Y-20 J16.5
G1 Y0
G2 X-22.5 Y3.5 I3.5
G1 X-7.5
G2 X-4 Y0 J-3.5
G1 Y-20
G3 X12.5 Y-36.5 I16.5
G1 X22.5
G3 X39 Y-20 J16.5
G1 Y0
G2 X42.5 Y3.5 I3.5
G1 X90
X42.5 Z7.473
G3 X39 Y0 Z7.47 J-3.5
G1 Y-20 Z7.458
G2 X22.5 Y-36.5 Z7.444 I-16.5
G1 X12.5 Z7.438
G2 X-4 Y-20 Z7.423 J16.5
G1 Y0 Z7.412
G3 X-7.5 Y3.5 Z7.409 I-3.5
G1 X-22.5 Z7.4
G3 X-26 Y0 Z7.397 J-3.5
G1 Y-20 Z7.386
G2 X-42.5 Y-36.5 Z7.371 I-16.5
G1 X-52.5 Z7.365
G2 X-69 Y-20 Z7.351 J16.5
G1 Y0 Z7.339
G3 X-72.5 Y3.5 Z7.336 I-3.5
G1 X-87.5 Z7.328
G3 X-91 Y0 Z7.324 J-3.5
G1 Y-20 Z7.313
G2 X-107.5 Y-36.5 Z7.298 I-16.5
G1 X-117.5 Z7.293
G2 X-134 Y-20 Z7.278 J16.5
G1 Y0 Z7.266
G3 X-137.5 Y3.5 Z7.263 I-3.5
G1 X-152.5 Z7.255
G3 X-156 Y0 Z7.252 J-3.5
G1 Y-20 Z7.24
G2 X-172.5 Y-36.5 Z7.226 I-16.5
G1 X-182.5 Z7.22
G2 X-199 Y-20 Z7.205 J16.5
G1 Y0 Z7.194
G3 X-202.5 Y3.5 Z7.191 I-3.5
G1 X-217.5 Z7.182
G3 X-221 Y0 Z7.179 J-3.5
G1 Y-20 Z7.168
G2 X-237.5 Y-36.5 Z7.153 I-16.5
G1 X-247.5 Z7.147
G2 X-264 Y-20 Z7.132 J16.5
G1 Y0 Z7.121
G3 X-267.5 Y3.5 Z7.118 I-3.5
G1 X-282.5 Z7.109
G3 X-286 Y0 Z7.106 J-3.5
G1 Y-20 Z7.095
G2 X-302.5 Y-36.5 Z7.08 I-16.5
G1 X-312.5 Z7.074
G2 X-329 Y-20 Z7.06 J16.5
G1 Y0 Z7.048
G3 X-332.5 Y3.5 Z7.045 I-3.5
G1 X-347.5 Z7.037
G3 X-351 Y0 Z7.034 J-3.5
G1 Y-20 Z7.022
G2 X-367.5 Y-36.5 Z7.007 I-16.5
G1 X-377.5 Z7.002
G2 X-394 Y-20 Z6.987 J16.5
G1 Y0 Z6.976
G3 X-397.5 Y3.5 Z6.972 I-3.5
G1 X-412.5 Z6.964
G3 X-416 Y0 Z6.961 J-3.5
G1 Y-20 Z6.949
G2 X-432.5 Y-36.5 Z6.935 I-16.5
G1 X-442.5 Z6.929
G2 X-459 Y-20 Z6.914 J16.5
G1 Y0 Z6.903
G3 X-462.5 Y3.5 Z6.9 I-3.5
G1 X-477.5 Z6.891
G3 X-481 Y0 Z6.888 J-3.5
G1 Y-20 Z6.877
G2 X-497.5 Y-36.5 Z6.862 I-16.5
G1 X-507.5 Z6.856
G2 X-524 Y-20 Z6.841 J16.5
G1 Y0 Z6.83
G3 X-527.5 Y3.5 Z6.827 I-3.5
G1 X-542.5 Z6.818
G3 X-546 Y0 Z6.815 J-3.5
G1 Y-20 Z6.804
G2 X-562.5 Y-36.5 Z6.789 I-16.5
G1 X-572.5 Z6.784
G2 X-589 Y-20 Z6.769 J16.5
G1 Y0 Z6.757
G3 X-592.5 Y3.5 Z6.754 I-3.5
G1 X-607.5 Z6.746
G3 X-611 Y0 Z6.743 J-3.5
G1 Y-20 Z6.731
G2 X-627.5 Y-36.5 Z6.716 I-16.5
G1 X-637.5 Z6.711
G2 X-654 Y-20 Z6.696 J16.5
G1 Y0 Z6.685
G3 X-657.5 Y3.5 Z6.682 I-3.5
G1 X-672.5 Z6.673
G3 X-676 Y0 Z6.67 J-3.5
G1 Y-20 Z6.659
G2 X-692.5 Y-36.5 Z6.644 I-16.5
G1 X-702.5 Z6.638
G2 X-719 Y-20 Z6.623 J16.5
G1 Y0 Z6.612
G3 X-722.5 Y3.5 Z6.609 I-3.5
G1 X-737.5 Z6.6
G3 X-741 Y0 Z6.597 J-3.5
G1 Y-20 Z6.586
G2 X-757.5 Y-36.5 Z6.571 I-16.5
G1 X-767.5 Z6.565
G2 X-784 Y-20 Z6.551 J16.5
G1 Y0 Z6.539
G3 X-787.5 Y3.5 Z6.536 I-3.5
G1 X-802.5 Z6.528
G3 X-806 Y0 Z6.524 J-3.5
G1 Y-20 Z6.513
G2 X-822.5 Y-36.5 Z6.498 I-16.5
G1 X-832.5 Z6.493
G2 X-849 Y-20 Z6.478 J16.5
G1 Y0 Z6.466
G3 X-852.5 Y3.5 Z6.463 I-3.5
G1 X-867.5 Z6.455
G3 X-871 Y0 Z6.452 J-3.5
G1 Y-20 Z6.44
G2 X-887.5 Y-36.5 Z6.426 I-16.5
G1 X-897.5 Z6.42
G2 X-914 Y-20 Z6.405 J16.5
G1 Y0 Z6.394
G3 X-917.5 Y3.5 Z6.391 I-3.5
G1 X-932.5 Z6.382
G3 X-936 Y0 Z6.379 J-3.5
G1 Y-20 Z6.368
G2 X-952.5 Y-36.5 Z6.353 I-16.5
G1 X-962.5 Z6.347
G2 X-979 Y-20 Z6.332 J16.5
G1 Y0 Z6.321
G3 X-982.5 Y3.5 Z6.318 I-3.5
G1 X-997.5 Z6.309
G3 X-1001 Y0 Z6.306 J-3.5
G1 Y-20 Z6.295
G2 X-1017.5 Y-36.5 Z6.28 I-16.5
G1 X-1027.5 Z6.274
G2 X-1044 Y-20 Z6.26 J16.5
G1 Y0 Z6.248
G3 X-1047.5 Y3.5 Z6.245 I-3.5
G1 X-1062.5 Z6.237
G3 X-1066 Y0 Z6.234 J-3.5
G1 Y-20 Z6.222
G2 X-1082.5 Y-36.5 Z6.207 I-16.5
G1 X-1092.5 Z6.202
G2 X-1109 Y-20 Z6.187 J16.5
G1 Y0 Z6.176
G3 X-1112.5 Y3.5 Z6.172 I-3.5
G1 X-1127.5 Z6.164
G3 X-1131 Y0 Z6.161 J-3.5
G1 Y-20 Z6.149
G2 X-1147.5 Y-36.5 Z6.135 I-16.5
G1 X-1157.5 Z6.129
G2 X-1174 Y-20 Z6.114 J16.5
G1 Y0 Z6.103
G3 X-1177.5 Y3.5 Z6.1 I-3.5
G1 X-1192.5 Z6.091
G3 X-1196 Y0 Z6.088 J-3.5
G1 Y-20 Z6.077
G2 X-1212.5 Y-36.5 Z6.062 I-16.5
G1 X-1222.5 Z6.056
G2 X-1239 Y-20 Z6.042 J16.5
G1 Y0 Z6.03
G3 X-1242.5 Y3.5 Z6.027 I-3.5
G1 X-1290 Z6
X-1242.5
G2 X-1239 Y0 J-3.5
G1 Y-20
G3 X-1222.5 Y-36.5 I16.5
G1 X-1212.5
G3 X-1196 Y-20 J16.5
G1 Y0
G2 X-1192.5 Y3.5 I3.5
G1 X-1177.5
G2 X-1174 Y0 J-3.5
G1 Y-20
G3 X-1157.5 Y-36.5 I16.5
G1 X-1147.5
G3 X-1131 Y-20 J16.5
G1 Y0
G2 X-1127.5 Y3.5 I3.5
G1 X-1112.5
G2 X-1109 Y0 J-3.5
G1 Y-20
G3 X-1092.5 Y-36.5 I16.5
G1 X-1082.5
G3 X-1066 Y-20 J16.5
G1 Y0
G2 X-1062.5 Y3.5 I3.5
G1 X-1047.5
G2 X-1044 Y0 J-3.5
G1 Y-20
G3 X-1027.5 Y-36.5 I16.5
G1 X-1017.5
G3 X-1001 Y-20 J16.5
G1 Y0
G2 X-997.5 Y3.5 I3.5
G1 X-982.5
G2 X-979 Y0 J-3.5
G1 Y-20
G3 X-962.5 Y-36.5 I16.5
G1 X-952.5
G3 X-936 Y-20 J16.5
G1 Y0
G2 X-932.5 Y3.5 I3.5
G1 X-917.5
G2 X-914 Y0 J-3.5
G1 Y-20
G3 X-897.5 Y-36.5 I16.5
G1 X-887.5
G3 X-871 Y-20 J16.5
G1 Y0
G2 X-867.5 Y3.5 I3.5
G1 X-852.5
G2 X-849 Y0 J-3.5
G1 Y-20
G3 X-832.5 Y-36.5 I16.5
G1 X-822.5
G3 X-806 Y-20 J16.5
G1 Y0
G2 X-802.5 Y3.5 I3.5
G1 X-787.5
G2 X-784 Y0 J-3.5
G1 Y-20
G3 X-767.5 Y-36.5 I16.5
G1 X-757.5
G3 X-741 Y-20 J16.5
G1 Y0
G2 X-737.5 Y3.5 I3.5
G1 X-722.5
G2 X-719 Y0 J-3.5
G1 Y-20
G3 X-702.5 Y-36.5 I16.5
G1 X-692.5
G3 X-676 Y-20 J16.5
G1 Y0
G2 X-672.5 Y3.5 I3.5
G1 X-657.5
G2 X-654 Y0 J-3.5
G1 Y-20
G3 X-637.5 Y-36.5 I16.5
G1 X-627.5
G3 X-611 Y-20 J16.5
G1 Y0
G2 X-607.5 Y3.5 I3.5
G1 X-592.5
G2 X-589 Y0 J-3.5
G1 Y-20
G3 X-572.5 Y-36.5 I16.5
G1 X-562.5
G3 X-546 Y-20 J16.5
G1 Y0
G2 X-542.5 Y3.5 I3.5
G1 X-527.5
G2 X-524 Y0 J-3.5
G1 Y-20
G3 X-507.5 Y-36.5 I16.5
G1 X-497.5
G3 X-481 Y-20 J16.5
G1 Y0
G2 X-477.5 Y3.5 I3.5
G1 X-462.5
G2 X-459 Y0 J-3.5
G1 Y-20
G3 X-442.5 Y-36.5 I16.5
G1 X-432.5
G3 X-416 Y-20 J16.5
G1 Y0
G2 X-412.5 Y3.5 I3.5
G1 X-397.5
G2 X-394 Y0 J-3.5
G1 Y-20
G3 X-377.5 Y-36.5 I16.5
G1 X-367.5
G3 X-351 Y-20 J16.5
G1 Y0
G2 X-347.5 Y3.5 I3.5
G1 X-332.5
G2 X-329 Y0 J-3.5
G1 Y-20
G3 X-312.5 Y-36.5 I16.5
G1 X-302.5
G3 X-286 Y-20 J16.5
G1 Y0
G2 X-282.5 Y3.5 I3.5
G1 X-267.5
G2 X-264 Y0 J-3.5
G1 Y-20
G3 X-247.5 Y-36.5 I16.5
G1 X-237.5
G3 X-221 Y-20 J16.5
G1 Y0
G2 X-217.5 Y3.5 I3.5
G1 X-202.5
G2 X-199 Y0 J-3.5
G1 Y-20
G3 X-182.5 Y-36.5 I16.5
G1 X-172.5
G3 X-156 Y-20 J16.5
G1 Y0
G2 X-152.5 Y3.5 I3.5
G1 X-137.5
G2 X-134 Y0 J-3.5
G1 Y-20
G3 X-117.5 Y-36.5 I16.5
G1 X-107.5
G3 X-91 Y-20 J16.5
G1 Y0
G2 X-87.5 Y3.5 I3.5
G1 X-72.5
G2 X-69 Y0 J-3.5
G1 Y-20
G3 X-52.5 Y-36.5 I16.5
G1 X-42.5
G3 X-26 Y-20 J16.5
G1 Y0
G2 X-22.5 Y3.5 I3.5
G1 X-7.5
G2 X-4 Y0 J-3.5
G1 Y-20
G3 X12.5 Y-36.5 I16.5
G1 X22.5
G3 X39 Y-20 J16.5
G1 Y0
G2 X42.5 Y3.5 I3.5
G1 X90
X42.5 Z5.973
G3 X39 Y0 Z5.97 J-3.5
G1 Y-20 Z5.958
G2 X22.5 Y-36.5 Z5.944 I-16.5
G1 X12.5 Z5.938
G2 X-4 Y-20 Z5.923 J16.5
G1 Y0 Z5.912
G3 X-7.5 Y3.5 Z5.909 I-3.5
G1 X-22.5 Z5.9
G3 X-26 Y0 Z5.897 J-3.5
G1 Y-20 Z5.886
G2 X-42.5 Y-36.5 Z5.871 I-16.5
G1 X-52.5 Z5.865
G2 X-69 Y-20 Z5.851 J16.5
G1 Y0 Z5.839
G3 X-72.5 Y3.5 Z5.836 I-3.5
G1 X-87.5 Z5.828
G3 X-91 Y0 Z5.824 J-3.5
G1 Y-20 Z5.813
G2 X-107.5 Y-36.5 Z5.798 I-16.5
G1 X-117.5 Z5.793
G2 X-134 Y-20 Z5.778 J16.5
G1 Y0 Z5.766
G3 X-137.5 Y3.5 Z5.763 I-3.5
G1 X-152.5 Z5.755
G3 X-156 Y0 Z5.752 J-3.5
G1 Y-20 Z5.74
G2 X-172.5 Y-36.5 Z5.726 I-16.5
G1 X-182.5 Z5.72
G2 X-199 Y-20 Z5.705 J16.5
G1 Y0 Z5.694
G3 X-202.5 Y3.5 Z5.691 I-3.5
G1 X-217.5 Z5.682
G3 X-221 Y0 Z5.679 J-3.5
G1 Y-20 Z5.668
G2 X-237.5 Y-36.5 Z5.653 I-16.5
G1 X-247.5 Z5.647
G2 X-264 Y-20 Z5.632 J16.5
G1 Y0 Z5.621
G3 X-267.5 Y3.5 Z5.618 I-3.5
G1 X-282.5 Z5.609
G3 X-286 Y0 Z5.606 J-3.5
G1 Y-20 Z5.595
G2 X-302.5 Y-36.5 Z5.58 I-16.5
G1 X-312.5 Z5.574
G2 X-329 Y-20 Z5.56 J16.5
G1 Y0 Z5.548
G3 X-332.5 Y3.5 Z5.545 I-3.5
G1 X-347.5 Z5.537
G3 X-351 Y0 Z5.534 J-3.5
G1 Y-20 Z5.522
G2 X-367.5 Y-36.5 Z5.507 I-16.5
G1 X-377.5 Z5.502
G2 X-394 Y-20 Z5.487 J16.5
G1 Y0 Z5.476
G3 X-397.5 Y3.5 Z5.472 I-3.5
G1 X-412.5 Z5.464
G3 X-416 Y0 Z5.461 J-3.5
G1 Y-20 Z5.449
G2 X-432.5 Y-36.5 Z5.435 I-16.5
G1 X-442.5 Z5.429
G2 X-459 Y-20 Z5.414 J16.5
G1 Y0 Z5.403
G3 X-462.5 Y3.5 Z5.4 I-3.5
G1 X-477.5 Z5.391
G3 X-481 Y0 Z5.388 J-3.5
G1 Y-20 Z5.377
G2 X-497.5 Y-36.5 Z5.362 I-16.5
G1 X-507.5 Z5.356
G2 X-524 Y-20 Z5.341 J16.5
G1 Y0 Z5.33
G3 X-527.5 Y3.5 Z5.327 I-3.5
G1 X-542.5 Z5.318
G3 X-546 Y0 Z5.315 J-3.5
G1 Y-20 Z5.304
G2 X-562.5 Y-36.5 Z5.289 I-16.5
G1 X-572.5 Z5.284
G2 X-589 Y-20 Z5.269 J16.5
G1 Y0 Z5.257
G3 X-592.5 Y3.5 Z5.254 I-3.5
G1 X-607.5 Z5.246
G3 X-611 Y0 Z5.243 J-3.5
G1 Y-20 Z5.231
G2 X-627.5 Y-36.5 Z5.216 I-16.5
G1 X-637.5 Z5.211
G2 X-654 Y-20 Z5.196 J16.5
G1 Y0 Z5.185
G3 X-657.5 Y3.5 Z5.182 I-3.5
G1 X-672.5 Z5.173
G3 X-676 Y0 Z5.17 J-3.5
G1 Y-20 Z5.159
G2 X-692.5 Y-36.5 Z5.144 I-16.5
G1 X-702.5 Z5.138
G2 X-719 Y-20 Z5.123 J16.5
G1 Y0 Z5.112
G3 X-722.5 Y3.5 Z5.109 I-3.5
G1 X-737.5 Z5.1
G3 X-741 Y0 Z5.097 J-3.5
G1 Y-20 Z5.086
G2 X-757.5 Y-36.5 Z5.071 I-16.5
G1 X-767.5 Z5.065
G2 X-784 Y-20 Z5.051 J16.5
G1 Y0 Z5.039
G3 X-787.5 Y3.5 Z5.036 I-3.5
G1 X-802.5 Z5.028
G3 X-806 Y0 Z5.024 J-3.5
G1 Y-20 Z5.013
G2 X-822.5 Y-36.5 Z4.998 I-16.5
G1 X-832.5 Z4.993
G2 X-849 Y-20 Z4.978 J16.5
G1 Y0 Z4.966
G3 X-852.5 Y3.5 Z4.963 I-3.5
G1 X-867.5 Z4.955
G3 X-871 Y0 Z4.952 J-3.5
G1 Y-20 Z4.94
G2 X-887.5 Y-36.5 Z4.926 I-16.5
G1 X-897.5 Z4.92
G2 X-914 Y-20 Z4.905 J16.5
G1 Y0 Z4.894
G3 X-917.5 Y3.5 Z4.891 I-3.5
G1 X-932.5 Z4.882
G3 X-936 Y0 Z4.879 J-3.5
G1 Y-20 Z4.868
G2 X-952.5 Y-36.5 Z4.853 I-16.5
G1 X-962.5 Z4.847
G2 X-979 Y-20 Z4.832 J16.5
G1 Y0 Z4.821
G3 X-982.5 Y3.5 Z4.818 I-3.5
G1 X-997.5 Z4.809
G3 X-1001 Y0 Z4.806 J-3.5
G1 Y-20 Z4.795
G2 X-1017.5 Y-36.5 Z4.78 I-16.5
G1 X-1027.5 Z4.774
G2 X-1044 Y-20 Z4.76 J16.5
G1 Y0 Z4.748
G3 X-1047.5 Y3.5 Z4.745 I-3.5
G1 X-1062.5 Z4.737
G3 X-1066 Y0 Z4.734 J-3.5
G1 Y-20 Z4.722
G2 X-1082.5 Y-36.5 Z4.707 I-16.5
G1 X-1092.5 Z4.702
G2 X-1109 Y-20 Z4.687 J16.5
G1 Y0 Z4.676
G3 X-1112.5 Y3.5 Z4.672 I-3.5
G1 X-1127.5 Z4.664
G3 X-1131 Y0 Z4.661 J-3.5
G1 Y-20 Z4.649
G2 X-1147.5 Y-36.5 Z4.635 I-16.5
G1 X-1157.5 Z4.629
G2 X-1174 Y-20 Z4.614 J16.5
G1 Y0 Z4.603
G3 X-1177.5 Y3.5 Z4.6 I-3.5
G1 X-1192.5 Z4.591
G3 X-1196 Y0 Z4.588 J-3.5
G1 Y-20 Z4.577
G2 X-1212.5 Y-36.5 Z4.562 I-16.5
G1 X-1222.5 Z4.556
G2 X-1239 Y-20 Z4.542 J16.5
G1 Y0 Z4.53
G3 X-1242.5 Y3.5 Z4.527 I-3.5
G1 X-1290 Z4.5
X-1242.5
G2 X-1239 Y0 J-3.5
G1 Y-20
G3 X-1222.5 Y-36.5 I16.5
G1 X-1212.5
G3 X-1196 Y-20 J16.5
G1 Y0
G2 X-1192.5 Y3.5 I3.5
G1 X-1177.5
G2 X-1174 Y0 J-3.5
G1 Y-20
G3 X-1157.5 Y-36.5 I16.5
G1 X-1147.5
G3 X-1131 Y-20 J16.5
G1 Y0
G2 X-1127.5 Y3.5 I3.5
G1 X-1112.5
G2 X-1109 Y0 J-3.5
G1 Y-20
G3 X-1092.5 Y-36.5 I16.5
G1 X-1082.5
G3 X-1066 Y-20 J16.5
G1 Y0
G2 X-1062.5 Y3.5 I3.5
G1 X-1047.5
G2 X-1044 Y0 J-3.5
G1 Y-20
G3 X-1027.5 Y-36.5 I16.5
G1 X-1017.5
G3 X-1001 Y-20 J16.5
G1 Y0
G2 X-997.5 Y3.5 I3.5
G1 X-982.5
G2 X-979 Y0 J-3.5
G1 Y-20
G3 X-962.5 Y-36.5 I16.5
G1 X-952.5
G3 X-936 Y-20 J16.5
G1 Y0
G2 X-932.5 Y3.5 I3.5
G1 X-917.5
G2 X-914 Y0 J-3.5
G1 Y-20
G3 X-897.5 Y-36.5 I16.5
G1 X-887.5
G3 X-871 Y-20 J16.5
G1 Y0
G2 X-867.5 Y3.5 I3.5
G1 X-852.5
G2 X-849 Y0 J-3.5
G1 Y-20
G3 X-832.5 Y-36.5 I16.5
G1 X-822.5
G3 X-806 Y-20 J16.5
G1 Y0
G2 X-802.5 Y3.5 I3.5
G1 X-787.5
G2 X-784 Y0 J-3.5
G1 Y-20
G3 X-767.5 Y-36.5 I16.5
G1 X-757.5
G3 X-741 Y-20 J16.5
G1 Y0
G2 X-737.5 Y3.5 I3.5
G1 X-722.5
G2 X-719 Y0 J-3.5
G1 Y-20
G3 X-702.5 Y-36.5 I16.5
G1 X-692.5
G3 X-676 Y-20 J16.5
G1 Y0
G2 X-672.5 Y3.5 I3.5
G1 X-657.5
G2 X-654 Y0 J-3.5
G1 Y-20
G3 X-637.5 Y-36.5 I16.5
G1 X-627.5
G3 X-611 Y-20 J16.5
G1 Y0
G2 X-607.5 Y3.5 I3.5
G1 X-592.5
G2 X-589 Y0 J-3.5
G1 Y-20
G3 X-572.5 Y-36.5 I16.5
G1 X-562.5
G3 X-546 Y-20 J16.5
G1 Y0
G2 X-542.5 Y3.5 I3.5
G1 X-527.5
G2 X-524 Y0 J-3.5
G1 Y-20
G3 X-507.5 Y-36.5 I16.5
G1 X-497.5
G3 X-481 Y-20 J16.5
G1 Y0
G2 X-477.5 Y3.5 I3.5
G1 X-462.5
G2 X-459 Y0 J-3.5
G1 Y-20
G3 X-442.5 Y-36.5 I16.5
G1 X-432.5
G3 X-416 Y-20 J16.5
G1 Y0
G2 X-412.5 Y3.5 I3.5
G1 X-397.5
G2 X-394 Y0 J-3.5
G1 Y-20
G3 X-377.5 Y-36.5 I16.5
G1 X-367.5
G3 X-351 Y-20 J16.5
G1 Y0
G2 X-347.5 Y3.5 I3.5
G1 X-332.5
G2 X-329 Y0 J-3.5
G1 Y-20
G3 X-312.5 Y-36.5 I16.5
G1 X-302.5
G3 X-286 Y-20 J16.5
G1 Y0
G2 X-282.5 Y3.5 I3.5
G1 X-267.5
G2 X-264 Y0 J-3.5
G1 Y-20
G3 X-247.5 Y-36.5 I16.5
G1 X-237.5
G3 X-221 Y-20 J16.5
G1 Y0
G2 X-217.5 Y3.5 I3.5
G1 X-202.5
G2 X-199 Y0 J-3.5
G1 Y-20
G3 X-182.5 Y-36.5 I16.5
G1 X-172.5
G3 X-156 Y-20 J16.5
G1 Y0
G2 X-152.5 Y3.5 I3.5
G1 X-137.5
G2 X-134 Y0 J-3.5
G1 Y-20
G3 X-117.5 Y-36.5 I16.5
G1 X-107.5
G3 X-91 Y-20 J16.5
G1 Y0
G2 X-87.5 Y3.5 I3.5
G1 X-72.5
G2 X-69 Y0 J-3.5
G1 Y-20
G3 X-52.5 Y-36.5 I16.5
G1 X-42.5
G3 X-26 Y-20 J16.5
G1 Y0
G2 X-22.5 Y3.5 I3.5
G1 X-7.5
G2 X-4 Y0 J-3.5
G1 Y-20
G3 X12.5 Y-36.5 I16.5
G1 X22.5
G3 X39 Y-20 J16.5
G1 Y0
G2 X42.5 Y3.5 I3.5
G1 X90
X42.5 Z4.473
G3 X39 Y0 Z4.47 J-3.5
G1 Y-20 Z4.458
G2 X22.5 Y-36.5 Z4.444 I-16.5
G1 X12.5 Z4.438
G2 X-4 Y-20 Z4.423 J16.5
G1 Y0 Z4.412
G3 X-7.5 Y3.5 Z4.409 I-3.5
G1 X-22.5 Z4.4
G3 X-26 Y0 Z4.397 J-3.5
G1 Y-20 Z4.386
G2 X-42.5 Y-36.5 Z4.371 I-16.5
G1 X-52.5 Z4.365
G2 X-69 Y-20 Z4.351 J16.5
G1 Y0 Z4.339
G3 X-72.5 Y3.5 Z4.336 I-3.5
G1 X-87.5 Z4.328
G3 X-91 Y0 Z4.324 J-3.5
G1 Y-20 Z4.313
G2 X-107.5 Y-36.5 Z4.298 I-16.5
G1 X-117.5 Z4.293
G2 X-134 Y-20 Z4.278 J16.5
G1 Y0 Z4.266
G3 X-137.5 Y3.5 Z4.263 I-3.5
G1 X-152.5 Z4.255
G3 X-156 Y0 Z4.252 J-3.5
G1 Y-20 Z4.24
G2 X-172.5 Y-36.5 Z4.226 I-16.5
G1 X-182.5 Z4.22
G2 X-199 Y-20 Z4.205 J16.5
G1 Y0 Z4.194
G3 X-202.5 Y3.5 Z4.191 I-3.5
G1 X-217.5 Z4.182
G3 X-221 Y0 Z4.179 J-3.5
G1 Y-20 Z4.168
G2 X-237.5 Y-36.5 Z4.153 I-16.5
G1 X-247.5 Z4.147
G2 X-264 Y-20 Z4.132 J16.5
G1 Y0 Z4.121
G3 X-267.5 Y3.5 Z4.118 I-3.5
G1 X-282.5 Z4.109
G3 X-286 Y0 Z4.106 J-3.5
G1 Y-20 Z4.095
G2 X-302.5 Y-36.5 Z4.08 I-16.5
G1 X-312.5 Z4.074
G2 X-329 Y-20 Z4.06 J16.5
G1 Y0 Z4.048
G3 X-332.5 Y3.5 Z4.045 I-3.5
G1 X-347.5 Z4.037
G3 X-351 Y0 Z4.034 J-3.5
G1 Y-20 Z4.022
G2 X-367.5 Y-36.5 Z4.007 I-16.5
G1 X-377.5 Z4.002
G2 X-394 Y-20 Z3.987 J16.5
G1 Y0 Z3.976
G3 X-397.5 Y3.5 Z3.972 I-3.5
G1 X-412.5 Z3.964
G3 X-416 Y0 Z3.961 J-3.5
G1 Y-20 Z3.949
G2 X-432.5 Y-36.5 Z3.935 I-16.5
G1 X-442.5 Z3.929
G2 X-459 Y-20 Z3.914 J16.5
G1 Y0 Z3.903
G3 X-462.5 Y3.5 Z3.9 I-3.5
G1 X-477.5 Z3.891
G3 X-481 Y0 Z3.888 J-3.5
G1 Y-20 Z3.877
G2 X-497.5 Y-36.5 Z3.862 I-16.5
G1 X-507.5 Z3.856
G2 X-524 Y-20 Z3.841 J16.5
G1 Y0 Z3.83
G3 X-527.5 Y3.5 Z3.827 I-3.5
G1 X-542.5 Z3.818
G3 X-546 Y0 Z3.815 J-3.5
G1 Y-20 Z3.804
G2 X-562.5 Y-36.5 Z3.789 I-16.5
G1 X-572.5 Z3.784
G2 X-589 Y-20 Z3.769 J16.5
G1 Y0 Z3.757
G3 X-592.5 Y3.5 Z3.754 I-3.5
G1 X-607.5 Z3.746
G3 X-611 Y0 Z3.743 J-3.5
G1 Y-20 Z3.731
G2 X-627.5 Y-36.5 Z3.716 I-16.5
G1 X-637.5 Z3.711
G2 X-654 Y-20 Z3.696 J16.5
G1 Y0 Z3.685
G3 X-657.5 Y3.5 Z3.682 I-3.5
G1 X-672.5 Z3.673
G3 X-676 Y0 Z3.67 J-3.5
G1 Y-20 Z3.659
G2 X-692.5 Y-36.5 Z3.644 I-16.5
G1 X-702.5 Z3.638
G2 X-719 Y-20 Z3.623 J16.5
G1 Y0 Z3.612
G3 X-722.5 Y3.5 Z3.609 I-3.5
G1 X-737.5 Z3.6
G3 X-741 Y0 Z3.597 J-3.5
G1 Y-20 Z3.586
G2 X-757.5 Y-36.5 Z3.571 I-16.5
G1 X-767.5 Z3.565
G2 X-784 Y-20 Z3.551 J16.5
G1 Y0 Z3.539
G3 X-787.5 Y3.5 Z3.536 I-3.5
G1 X-802.5 Z3.528
G3 X-806 Y0 Z3.524 J-3.5
G1 Y-20 Z3.513
G2 X-822.5 Y-36.5 Z3.498 I-16.5
G1 X-832.5 Z3.493
G2 X-849 Y-20 Z3.478 J16.5
G1 Y0 Z3.466
G3 X-852.5 Y3.5 Z3.463 I-3.5
G1 X-867.5 Z3.455
G3 X-871 Y0 Z3.452 J-3.5
G1 Y-20 Z3.44
G2 X-887.5 Y-36.5 Z3.426 I-16.5
G1 X-897.5 Z3.42
G2 X-914 Y-20 Z3.405 J16.5
G1 Y0 Z3.394
G3 X-917.5 Y3.5 Z3.391 I-3.5
G1 X-932.5 Z3.382
G3 X-936 Y0 Z3.379 J-3.5
G1 Y-20 Z3.368
G2 X-952.5 Y-36.5 Z3.353 I-16.5
G1 X-962.5 Z3.347
G2 X-979 Y-20 Z3.332 J16.5
G1 Y0 Z3.321
G3 X-982.5 Y3.5 Z3.318 I-3.5
G1 X-997.5 Z3.309
G3 X-1001 Y0 Z3.306 J-3.5
G1 Y-20 Z3.295
G2 X-1017.5 Y-36.5 Z3.28 I-16.5
G1 X-1027.5 Z3.274
G2 X-1044 Y-20 Z3.26 J16.5
G1 Y0 Z3.248
G3 X-1047.5 Y3.5 Z3.245 I-3.5
G1 X-1062.5 Z3.237
G3 X-1066 Y0 Z3.234 J-3.5
G1 Y-20 Z3.222
G2 X-1082.5 Y-36.5 Z3.207 I-16.5
G1 X-1092.5 Z3.202
G2 X-1109 Y-20 Z3.187 J16.5
G1 Y0 Z3.176
G3 X-1112.5 Y3.5 Z3.172 I-3.5
G1 X-1127.5 Z3.164
G3 X-1131 Y0 Z3.161 J-3.5
G1 Y-20 Z3.149
G2 X-1147.5 Y-36.5 Z3.135 I-16.5
G1 X-1157.5 Z3.129
G2 X-1174 Y-20 Z3.114 J16.5
G1 Y0 Z3.103
G3 X-1177.5 Y3.5 Z3.1 I-3.5
G1 X-1192.5 Z3.091
G3 X-1196 Y0 Z3.088 J-3.5
G1 Y-20 Z3.077
G2 X-1212.5 Y-36.5 Z3.062 I-16.5
G1 X-1222.5 Z3.056
G2 X-1239 Y-20 Z3.042 J16.5
G1 Y0 Z3.03
G3 X-1242.5 Y3.5 Z3.027 I-3.5
G1 X-1290 Z3
X-1242.5
G2 X-1239 Y0 J-3.5
G1 Y-20
G3 X-1222.5 Y-36.5 I16.5
G1 X-1212.5
G3 X-1196 Y-20 J16.5
G1 Y0
G2 X-1192.5 Y3.5 I3.5
G1 X-1177.5
G2 X-1174 Y0 J-3.5
G1 Y-20
G3 X-1157.5 Y-36.5 I16.5
G1 X-1147.5
G3 X-1131 Y-20 J16.5
G1 Y0
G2 X-1127.5 Y3.5 I3.5
G1 X-1112.5
G2 X-1109 Y0 J-3.5
G1 Y-20
G3 X-1092.5 Y-36.5 I16.5
G1 X-1082.5
G3 X-1066 Y-20 J16.5
G1 Y0
G2 X-1062.5 Y3.5 I3.5
G1 X-1047.5
G2 X-1044 Y0 J-3.5
G1 Y-20
G3 X-1027.5 Y-36.5 I16.5
G1 X-1017.5
G3 X-1001 Y-20 J16.5
G1 Y0
G2 X-997.5 Y3.5 I3.5
G1 X-982.5
G2 X-979 Y0 J-3.5
G1 Y-20
G3 X-962.5 Y-36.5 I16.5
G1 X-952.5
G3 X-936 Y-20 J16.5
G1 Y0
G2 X-932.5 Y3.5 I3.5
G1 X-917.5
G2 X-914 Y0 J-3.5
G1 Y-20
G3 X-897.5 Y-36.5 I16.5
G1 X-887.5
G3 X-871 Y-20 J16.5
G1 Y0
G2 X-867.5 Y3.5 I3.5
G1 X-852.5
G2 X-849 Y0 J-3.5
G1 Y-20
G3 X-832.5 Y-36.5 I16.5
G1 X-822.5
G3 X-806 Y-20 J16.5
G1 Y0
G2 X-802.5 Y3.5 I3.5
G1 X-787.5
G2 X-784 Y0 J-3.5
G1 Y-20
G3 X-767.5 Y-36.5 I16.5
G1 X-757.5
G3 X-741 Y-20 J16.5
G1 Y0
G2 X-737.5 Y3.5 I3.5
G1 X-722.5
G2 X-719 Y0 J-3.5
G1 Y-20
G3 X-702.5 Y-36.5 I16.5
G1 X-692.5
G3 X-676 Y-20 J16.5
G1 Y0
G2 X-672.5 Y3.5 I3.5
G1 X-657.5
G2 X-654 Y0 J-3.5
G1 Y-20
G3 X-637.5 Y-36.5 I16.5
G1 X-627.5
G3 X-611 Y-20 J16.5
G1 Y0
G2 X-607.5 Y3.5 I3.5
G1 X-592.5
G2 X-589 Y0 J-3.5
G1 Y-20
G3 X-572.5 Y-36.5 I16.5
G1 X-562.5
G3 X-546 Y-20 J16.5
G1 Y0
G2 X-542.5 Y3.5 I3.5
G1 X-527.5
G2 X-524 Y0 J-3.5
G1 Y-20
G3 X-507.5 Y-36.5 I16.5
G1 X-497.5
G3 X-481 Y-20 J16.5
G1 Y0
G2 X-477.5 Y3.5 I3.5
G1 X-462.5
G2 X-459 Y0 J-3.5
G1 Y-20
G3 X-442.5 Y-36.5 I16.5
G1 X-432.5
G3 X-416 Y-20 J16.5
G1 Y0
G2 X-412.5 Y3.5 I3.5
G1 X-397.5
G2 X-394 Y0 J-3.5
G1 Y-20
G3 X-377.5 Y-36.5 I16.5
G1 X-367.5
G3 X-351 Y-20 J16.5
G1 Y0
G2 X-347.5 Y3.5 I3.5
G1 X-332.5
G2 X-329 Y0 J-3.5
G1 Y-20
G3 X-312.5 Y-36.5 I16.5
G1 X-302.5
G3 X-286 Y-20 J16.5
G1 Y0
G2 X-282.5 Y3.5 I3.5
G1 X-267.5
G2 X-264 Y0 J-3.5
G1 Y-20
G3 X-247.5 Y-36.5 I16.5
G1 X-237.5
G3 X-221 Y-20 J16.5
G1 Y0
G2 X-217.5 Y3.5 I3.5
G1 X-202.5
G2 X-199 Y0 J-3.5
G1 Y-20
G3 X-182.5 Y-36.5 I16.5
G1 X-172.5
G3 X-156 Y-20 J16.5
G1 Y0
G2 X-152.5 Y3.5 I3.5
G1 X-137.5
G2 X-134 Y0 J-3.5
G1 Y-20
G3 X-117.5 Y-36.5 I16.5
G1 X-107.5
G3 X-91 Y-20 J16.5
G1 Y0
G2 X-87.5 Y3.5 I3.5
G1 X-72.5
G2 X-69 Y0 J-3.5
G1 Y-20
G3 X-52.5 Y-36.5 I16.5
G1 X-42.5
G3 X-26 Y-20 J16.5
G1 Y0
G2 X-22.5 Y3.5 I3.5
G1 X-7.5
G2 X-4 Y0 J-3.5
G1 Y-20
G3 X12.5 Y-36.5 I16.5
G1 X22.5
G3 X39 Y-20 J16.5
G1 Y0
G2 X42.5 Y3.5 I3.5
G1 X90
X42.5 Z2.973
G3 X39 Y0 Z2.97 J-3.5
G1 Y-20 Z2.958
G2 X22.5 Y-36.5 Z2.944 I-16.5
G1 X12.5 Z2.938
G2 X-4 Y-20 Z2.923 J16.5
G1 Y0 Z2.912
G3 X-7.5 Y3.5 Z2.909 I-3.5
G1 X-22.5 Z2.9
G3 X-26 Y0 Z2.897 J-3.5
G1 Y-20 Z2.886
G2 X-42.5 Y-36.5 Z2.871 I-16.5
G1 X-52.5 Z2.865
G2 X-69 Y-20 Z2.851 J16.5
G1 Y0 Z2.839
G3 X-72.5 Y3.5 Z2.836 I-3.5
G1 X-87.5 Z2.828
G3 X-91 Y0 Z2.824 J-3.5
G1 Y-20 Z2.813
G2 X-107.5 Y-36.5 Z2.798 I-16.5
G1 X-117.5 Z2.793
G2 X-134 Y-20 Z2.778 J16.5
G1 Y0 Z2.766
G3 X-137.5 Y3.5 Z2.763 I-3.5
G1 X-152.5 Z2.755
G3 X-156 Y0 Z2.752 J-3.5
G1 Y-20 Z2.74
G2 X-172.5 Y-36.5 Z2.726 I-16.5
G1 X-182.5 Z2.72
G2 X-199 Y-20 Z2.705 J16.5
G1 Y0 Z2.694
G3 X-202.5 Y3.5 Z2.691 I-3.5
G1 X-217.5 Z2.682
G3 X-221 Y0 Z2.679 J-3.5
G1 Y-20 Z2.668
G2 X-237.5 Y-36.5 Z2.653 I-16.5
G1 X-247.5 Z2.647
G2 X-264 Y-20 Z2.632 J16.5
G1 Y0 Z2.621
G3 X-267.5 Y3.5 Z2.618 I-3.5
G1 X-282.5 Z2.609
G3 X-286 Y0 Z2.606 J-3.5
G1 Y-20 Z2.595
G2 X-302.5 Y-36.5 Z2.58 I-16.5
G1 X-312.5 Z2.574
G2 X-329 Y-20 Z2.56 J16.5
G1 Y0 Z2.548
G3 X-332.5 Y3.5 Z2.545 I-3.5
G1 X-347.5 Z2.537
G3 X-351 Y0 Z2.534 J-3.5
G1 Y-20 Z2.522
G2 X-367.5 Y-36.5 Z2.507 I-16.5
G1 X-377.5 Z2.502
G2 X-394 Y-20 Z2.487 J16.5
G1 Y0 Z2.476
G3 X-397.5 Y3.5 Z2.472 I-3.5
G1 X-412.5 Z2.464
G3 X-416 Y0 Z2.461 J-3.5
G1 Y-20 Z2.449
G2 X-432.5 Y-36.5 Z2.435 I-16.5
G1 X-442.5 Z2.429
G2 X-459 Y-20 Z2.414 J16.5
G1 Y0 Z2.403
G3 X-462.5 Y3.5 Z2.4 I-3.5
G1 X-477.5 Z2.391
G3 X-481 Y0 Z2.388 J-3.5
G1 Y-20 Z2.377
G2 X-497.5 Y-36.5 Z2.362 I-16.5
G1 X-507.5 Z2.356
G2 X-524 Y-20 Z2.341 J16.5
G1 Y0 Z2.33
G3 X-527.5 Y3.5 Z2.327 I-3.5
G1 X-542.5 Z2.318
G3 X-546 Y0 Z2.315 J-3.5
G1 Y-20 Z2.304
G2 X-562.5 Y-36.5 Z2.289 I-16.5
G1 X-572.5 Z2.284
G2 X-589 Y-20 Z2.269 J16.5
G1 Y0 Z2.257
G3 X-592.5 Y3.5 Z2.254 I-3.5
G1 X-607.5 Z2.246
G3 X-611 Y0 Z2.243 J-3.5
G1 Y-20 Z2.231
G2 X-627.5 Y-36.5 Z2.216 I-16.5
G1 X-637.5 Z2.211
G2 X-654 Y-20 Z2.196 J16.5
G1 Y0 Z2.185
G3 X-657.5 Y3.5 Z2.182 I-3.5
G1 X-672.5 Z2.173
G3 X-676 Y0 Z2.17 J-3.5
G1 Y-20 Z2.159
G2 X-692.5 Y-36.5 Z2.144 I-16.5
G1 X-702.5 Z2.138
G2 X-719 Y-20 Z2.123 J16.5
G1 Y0 Z2.112
G3 X-722.5 Y3.5 Z2.109 I-3.5
G1 X-737.5 Z2.1
G3 X-741 Y0 Z2.097 J-3.5
G1 Y-20 Z2.086
G2 X-757.5 Y-36.5 Z2.071 I-16.5
G1 X-767.5 Z2.065
G2 X-784 Y-20 Z2.051 J16.5
G1 Y0 Z2.039
G3 X-787.5 Y3.5 Z2.036 I-3.5
G1 X-802.5 Z2.028
G3 X-806 Y0 Z2.024 J-3.5
G1 Y-20 Z2.013
G2 X-822.5 Y-36.5 Z1.998 I-16.5
G1 X-832.5 Z1.993
G2 X-849 Y-20 Z1.978 J16.5
G1 Y0 Z1.966
G3 X-852.5 Y3.5 Z1.963 I-3.5
G1 X-867.5 Z1.955
G3 X-871 Y0 Z1.952 J-3.5
G1 Y-20 Z1.94
G2 X-887.5 Y-36.5 Z1.926 I-16.5
G1 X-897.5 Z1.92
G2 X-914 Y-20 Z1.905 J16.5
G1 Y0 Z1.894
G3 X-917.5 Y3.5 Z1.891 I-3.5
G1 X-932.5 Z1.882
G3 X-936 Y0 Z1.879 J-3.5
G1 Y-20 Z1.868
G2 X-952.5 Y-36.5 Z1.853 I-16.5
G1 X-962.5 Z1.847
G2 X-979 Y-20 Z1.832 J16.5
G1 Y0 Z1.821
G3 X-982.5 Y3.5 Z1.818 I-3.5
G1 X-997.5 Z1.809
G3 X-1001 Y0 Z1.806 J-3.5
G1 Y-20 Z1.795
G2 X-1017.5 Y-36.5 Z1.78 I-16.5
G1 X-1027.5 Z1.774
G2 X-1044 Y-20 Z1.76 J16.5
G1 Y0 Z1.748
G3 X-1047.5 Y3.5 Z1.745 I-3.5
G1 X-1062.5 Z1.737
G3 X-1066 Y0 Z1.734 J-3.5
G1 Y-20 Z1.722
G2 X-1082.5 Y-36.5 Z1.707 I-16.5
G1 X-1092.5 Z1.702
G2 X-1109 Y-20 Z1.687 J16.5
G1 Y0 Z1.676
G3 X-1112.5 Y3.5 Z1.672 I-3.5
G1 X-1127.5 Z1.664
G3 X-1131 Y0 Z1.661 J-3.5
G1 Y-20 Z1.649
G2 X-1147.5 Y-36.5 Z1.635 I-16.5
G1 X-1157.5 Z1.629
G2 X-1174 Y-20 Z1.614 J16.5
G1 Y0 Z1.603
G3 X-1177.5 Y3.5 Z1.6 I-3.5
G1 X-1192.5 Z1.591
G3 X-1196 Y0 Z1.588 J-3.5
G1 Y-20 Z1.577
G2 X-1212.5 Y-36.5 Z1.562 I-16.5
G1 X-1222.5 Z1.556
G2 X-1239 Y-20 Z1.542 J16.5
G1 Y0 Z1.53
G3 X-1242.5 Y3.5 Z1.527 I-3.5
G1 X-1290 Z1.5
X-1242.5
G2 X-1239 Y0 J-3.5
G1 Y-20
G3 X-1222.5 Y-36.5 I16.5
G1 X-1212.5
G3 X-1196 Y-20 J16.5
G1 Y0
G2 X-1192.5 Y3.5 I3.5
G1 X-1177.5
G2 X-1174 Y0 J-3.5
G1 Y-20
G3 X-1157.5 Y-36.5 I16.5
G1 X-1147.5
G3 X-1131 Y-20 J16.5
G1 Y0
G2 X-1127.5 Y3.5 I3.5
G1 X-1112.5
G2 X-1109 Y0 J-3.5
G1 Y-20
G3 X-1092.5 Y-36.5 I16.5
G1 X-1082.5
G3 X-1066 Y-20 J16.5
G1 Y0
G2 X-1062.5 Y3.5 I3.5
G1 X-1047.5
G2 X-1044 Y0 J-3.5
G1 Y-20
G3 X-1027.5 Y-36.5 I16.5
G1 X-1017.5
G3 X-1001 Y-20 J16.5
G1 Y0
G2 X-997.5 Y3.5 I3.5
G1 X-982.5
G2 X-979 Y0 J-3.5
G1 Y-20
G3 X-962.5 Y-36.5 I16.5
G1 X-952.5
G3 X-936 Y-20 J16.5
G1 Y0
G2 X-932.5 Y3.5 I3.5
G1 X-917.5
G2 X-914 Y0 J-3.5
G1 Y-20
G3 X-897.5 Y-36.5 I16.5
G1 X-887.5
G3 X-871 Y-20 J16.5
G1 Y0
G2 X-867.5 Y3.5 I3.5
G1 X-852.5
G2 X-849 Y0 J-3.5
G1 Y-20
G3 X-832.5 Y-36.5 I16.5
G1 X-822.5
G3 X-806 Y-20 J16.5
G1 Y0
G2 X-802.5 Y3.5 I3.5
G1 X-787.5
G2 X-784 Y0 J-3.5
G1 Y-20
G3 X-767.5 Y-36.5 I16.5
G1 X-757.5
G3 X-741 Y-20 J16.5
G1 Y0
G2 X-737.5 Y3.5 I3.5
G1 X-722.5
G2 X-719 Y0 J-3.5
G1 Y-20
G3 X-702.5 Y-36.5 I16.5
G1 X-692.5
G3 X-676 Y-20 J16.5
G1 Y0
G2 X-672.5 Y3.5 I3.5
G1 X-657.5
G2 X-654 Y0 J-3.5
G1 Y-20
G3 X-637.5 Y-36.5 I16.5
G1 X-627.5
G3 X-611 Y-20 J16.5
G1 Y0
G2 X-607.5 Y3.5 I3.5
G1 X-592.5
G2 X-589 Y0 J-3.5
G1 Y-20
G3 X-572.5 Y-36.5 I16.5
G1 X-562.5
G3 X-546 Y-20 J16.5
G1 Y0
G2 X-542.5 Y3.5 I3.5
G1 X-527.5
G2 X-524 Y0 J-3.5
G1 Y-20
G3 X-507.5 Y-36.5 I16.5
G1 X-497.5
G3 X-481 Y-20 J16.5
G1 Y0
G2 X-477.5 Y3.5 I3.5
G1 X-462.5
G2 X-459 Y0 J-3.5
G1 Y-20
G3 X-442.5 Y-36.5 I16.5
G1 X-432.5
G3 X-416 Y-20 J16.5
G1 Y0
G2 X-412.5 Y3.5 I3.5
G1 X-397.5
G2 X-394 Y0 J-3.5
G1 Y-20
G3 X-377.5 Y-36.5 I16.5
G1 X-367.5
G3 X-351 Y-20 J16.5
G1 Y0
G2 X-347.5 Y3.5 I3.5
G1 X-332.5
G2 X-329 Y0 J-3.5
G1 Y-20
G3 X-312.5 Y-36.5 I16.5
G1 X-302.5
G3 X-286 Y-20 J16.5
G1 Y0
G2 X-282.5 Y3.5 I3.5
G1 X-267.5
G2 X-264 Y0 J-3.5
G1 Y-20
G3 X-247.5 Y-36.5 I16.5
G1 X-237.5
G3 X-221 Y-20 J16.5
G1 Y0
G2 X-217.5 Y3.5 I3.5
G1 X-202.5
G2 X-199 Y0 J-3.5
G1 Y-20
G3 X-182.5 Y-36.5 I16.5
G1 X-172.5
G3 X-156 Y-20 J16.5
G1 Y0
G2 X-152.5 Y3.5 I3.5
G1 X-137.5
G2 X-134 Y0 J-3.5
G1 Y-20
G3 X-117.5 Y-36.5 I16.5
G1 X-107.5
G3 X-91 Y-20 J16.5
G1 Y0
G2 X-87.5 Y3.5 I3.5
G1 X-72.5
G2 X-69 Y0 J-3.5
G1 Y-20
G3 X-52.5 Y-36.5 I16.5
G1 X-42.5
G3 X-26 Y-20 J16.5
G1 Y0
G2 X-22.5 Y3.5 I3.5
G1 X-7.5
G2 X-4 Y0 J-3.5
G1 Y-20
G3 X12.5 Y-36.5 I16.5
G1 X22.5
G3 X39 Y-20 J16.5
G1 Y0
G2 X42.5 Y3.5 I3.5
G1 X90
X42.5 Z1.482
G3 X39 Y0 Z1.48 J-3.5
G1 Y-5.008 Z1.478
Z1.5
Y-17.008
Z1.473 F30
Y-20 Z1.472 F3000
G2 X22.5 Y-36.5 Z1.462 I-16.5
G1 X12.5 Z1.459
G2 X-4 Y-20 Z1.449 J16.5
G1 Y-16.425 Z1.448
Z1.5
Y-4.425
Z1.443 F30
Y0 Z1.441 F3000
G3 X-7.5 Y3.5 Z1.439 I-3.5
G1 X-22.5 Z1.434
G3 X-26 Y0 Z1.431 J-3.5
G1 Y-5.018 Z1.43
Z1.5
Y-17.018
Z1.425 F30
Y-20 Z1.424 F3000
G2 X-42.5 Y-36.5 Z1.414 I-16.5
G1 X-52.5 Z1.41
G2 X-69 Y-20 Z1.4 J16.5
G1 Y-15.951 Z1.399
Z1.5
Y-3.951
Z1.394 F30
Y0 Z1.393 F3000
G3 X-72.5 Y3.5 Z1.391 I-3.5
G1 X-87.5 Z1.385
G3 X-91 Y0 Z1.383 J-3.5
G1 Y-5.005 Z1.381
Z1.5
Y-17.005
Z1.376 F30
Y-20 Z1.375 F3000
G2 X-107.5 Y-36.5 Z1.366 I-16.5
G1 X-117.5 Z1.362
G2 X-134 Y-20 Z1.352 J16.5
G1 Y-14.71 Z1.35
Z1.5
Y-2.71
Z1.345 F30
Y0 Z1.344 F3000
G3 X-137.5 Y3.5 Z1.342 I-3.5
G1 X-152.5 Z1.337
G3 X-156 Y0 Z1.334 J-3.5
G1 Y-3.912 Z1.333
Z1.5
Y-15.912
Z1.328 F30
Y-20 Z1.327 F3000
G2 X-172.5 Y-36.5 Z1.317 I-16.5
G1 X-182.5 Z1.313
G2 X-199 Y-20 Z1.303 J16.5
G1 Y-15.626 Z1.302
Z1.5
Y-3.626
Z1.297 F30
Y0 Z1.296 F3000
G3 X-202.5 Y3.5 Z1.294 I-3.5
G1 X-217.5 Z1.288
G3 X-221 Y0 Z1.286 J-3.5
G1 Y-4.594 Z1.284
Z1.5
Y-16.594
Z1.28 F30
Y-20 Z1.278 F3000
G2 X-237.5 Y-36.5 Z1.269 I-16.5
G1 X-247.5 Z1.265
G2 X-264 Y-20 Z1.255 J16.5
G1 Y-16.012 Z1.253
Z1.5
Y-4.012
Z1.249 F30
Y0 Z1.247 F3000
G3 X-267.5 Y3.5 Z1.245 I-3.5
G1 X-282.5 Z1.24
G3 X-286 Y0 Z1.237 J-3.5
G1 Y-3.595 Z1.236
Z1.5
Y-15.595
Z1.232 F30
Y-20 Z1.23 F3000
G2 X-302.5 Y-36.5 Z1.22 I-16.5
G1 X-312.5 Z1.216
G2 X-329 Y-20 Z1.206 J16.5
G1 Y-15.162 Z1.205
Z1.5
Y-3.162
Z1.2 F30
Y0 Z1.199 F3000
G3 X-332.5 Y3.5 Z1.197 I-3.5
G1 X-347.5 Z1.191
G3 X-351 Y0 Z1.189 J-3.5
G1 Y-5.08 Z1.187
Z1.5
Y-17.08
Z1.183 F30
Y-20 Z1.181 F3000
G2 X-367.5 Y-36.5 Z1.172 I-16.5
G1 X-377.5 Z1.168
G2 X-394 Y-20 Z1.158 J16.5
G1 Y-15.316 Z1.156
Z1.5
Y-3.316
Z1.152 F30
Y0 Z1.15 F3000
G3 X-397.5 Y3.5 Z1.148 I-3.5
G1 X-412.5 Z1.143
G3 X-416 Y0 Z1.141 J-3.5
G1 Y-5.491 Z1.138
Z1.5
Y-17.491
Z1.134 F30
Y-20 Z1.133 F3000
G2 X-432.5 Y-36.5 Z1.123 I-16.5
G1 X-442.5 Z1.119
G2 X-459 Y-20 Z1.109 J16.5
G1 Y-16.559 Z1.108
Z1.5
Y-4.559
Z1.104 F30
Y0 Z1.102 F3000
G3 X-462.5 Y3.5 Z1.1 I-3.5
G1 X-477.5 Z1.094
G3 X-481 Y0 Z1.092 J-3.5
G1 Y-5.847 Z1.09
Z1.5
Y-17.847
Z1.085 F30
Y-20 Z1.084 F3000
G2 X-497.5 Y-36.5 Z1.075 I-16.5
G1 X-507.5 Z1.071
G2 X-524 Y-20 Z1.061 J16.5
G1 Y-17.102 Z1.06
Z1.5
Y-5.102
Z1.055 F30
Y0 Z1.053 F3000
G3 X-527.5 Y3.5 Z1.051 I-3.5
G1 X-542.5 Z1.046
G3 X-546 Y0 Z1.044 J-3.5
G1 Y-4.4 Z1.042
Z1.5
Y-16.4
Z1.037 F30
Y-20 Z1.036 F3000
G2 X-562.5 Y-36.5 Z1.026 I-16.5
G1 X-572.5 Z1.022
G2 X-589 Y-20 Z1.013 J16.5
G1 Y-16.909 Z1.011
Z1.5
Y-4.909
Z1.007 F30
Y0 Z1.005 F3000
G3 X-592.5 Y3.5 Z1.003 I-3.5
G1 X-607.5 Z0.997
G3 X-611 Y0 Z0.995 J-3.5
G1 Y-5.028 Z0.993
Z1.5
Y-17.028
Z0.989 F30
Y-20 Z0.987 F3000
G2 X-627.5 Y-36.5 Z0.978 I-16.5
G1 X-637.5 Z0.974
G2 X-654 Y-20 Z0.964 J16.5
G1 Y-16.225 Z0.963
Z1.5
Y-4.225
Z0.958 F30
Y0 Z0.956 F3000
G3 X-657.5 Y3.5 Z0.954 I-3.5
G1 X-672.5 Z0.949
G3 X-676 Y0 Z0.947 J-3.5
G1 Y-4.25 Z0.945
Z1.5
Y-16.25
Z0.94 F30
Y-20 Z0.939 F3000
G2 X-692.5 Y-36.5 Z0.929 I-16.5
G1 X-702.5 Z0.925
G2 X-719 Y-20 Z0.916 J16.5
G1 Y-15.318 Z0.914
Z1.5
Y-3.318
Z0.909 F30
Y0 Z0.908 F3000
G3 X-722.5 Y3.5 Z0.906 I-3.5
G1 X-737.5 Z0.9
G3 X-741 Y0 Z0.898 J-3.5
G1 Y-4.373 Z0.896
Z1.5
Y-16.373
Z0.892 F30
Y-20 Z0.891 F3000
G2 X-757.5 Y-36.5 Z0.881 I-16.5
G1 X-767.5 Z0.877
G2 X-784 Y-20 Z0.867 J16.5
G1 Y-16.774 Z0.866
Z1.5
Y-4.774
Z0.861 F30
Y0 Z0.859 F3000
G3 X-787.5 Y3.5 Z0.857 I-3.5
G1 X-802.5 Z0.852
G3 X-806 Y0 Z0.85 J-3.5
G1 Y-3.343 Z0.848
Z1.5
Y-15.343
Z0.844 F30
Y-20 Z0.842 F3000
G2 X-822.5 Y-36.5 Z0.832 I-16.5
G1 X-832.5 Z0.828
G2 X-849 Y-20 Z0.819 J16.5
G1 Y-17.101 Z0.817
Z1.5
Y-5.101
Z0.813 F30
Y0 Z0.811 F3000
G3 X-852.5 Y3.5 Z0.809 I-3.5
G1 X-867.5 Z0.803
G3 X-871 Y0 Z0.801 J-3.5
G1 Y-4.446 Z0.799
Z1.5
Y-16.446
Z0.795 F30
Y-20 Z0.794 F3000
G2 X-887.5 Y-36.5 Z0.784 I-16.5
G1 X-897.5 Z0.78
G2 X-914 Y-20 Z0.77 J16.5
G1 Y-15.073 Z0.768
Z1.5
Y-3.073
Z0.764 F30
Y0 Z0.763 F3000
G3 X-917.5 Y3.5 Z0.76 I-3.5
G1 X-932.5 Z0.755
G3 X-936 Y0 Z0.753 J-3.5
G1 Y-4.61 Z0.751
Z1.5
Y-16.61
Z0.746 F30
Y-20 Z0.745 F3000
G2 X-952.5 Y-36.5 Z0.735 I-16.5
G1 X-962.5 Z0.731
G2 X-979 Y-20 Z0.722 J16.5
G1 Y-15.465 Z0.72
Z1.5
Y-3.465
Z0.715 F30
Y0 Z0.714 F3000
G3 X-982.5 Y3.5 Z0.712 I-3.5
G1 X-997.5 Z0.706
G3 X-1001 Y0 Z0.704 J-3.5
G1 Y-3.926 Z0.703
Z1.5
Y-15.926
Z0.698 F30
Y-20 Z0.697 F3000
G2 X-1017.5 Y-36.5 Z0.687 I-16.5
G1 X-1027.5 Z0.683
G2 X-1044 Y-20 Z0.673 J16.5
G1 Y-16.825 Z0.672
Z1.5
Y-4.825
Z0.667 F30
Y0 Z0.666 F3000
G3 X-1047.5 Y3.5 Z0.663 I-3.5
G1 X-1062.5 Z0.658
G3 X-1066 Y0 Z0.656 J-3.5
G1 Y-3.375 Z0.654
Z1.5
Y-15.375
Z0.65 F30
Y-20 Z0.648 F3000
G2 X-1082.5 Y-36.5 Z0.638 I-16.5
G1 X-1092.5 Z0.634
G2 X-1109 Y-20 Z0.625 J16.5
G1 Y-16.27 Z0.623
Z1.5
Y-4.27
Z0.619 F30
Y0 Z0.617 F3000
G3 X-1112.5 Y3.5 Z0.615 I-3.5
G1 X-1127.5 Z0.609
G3 X-1131 Y0 Z0.607 J-3.5
G1 Y-4.411 Z0.606
Z1.5
Y-16.411
Z0.601 F30
Y-20 Z0.6 F3000
G2 X-1147.5 Y-36.5 Z0.59 I-16.5
G1 X-1157.5 Z0.586
G2 X-1174 Y-20 Z0.576 J16.5
G1 Y-14.236 Z0.574
Z1.5
Y-2.236
Z0.569 F30
Y0 F3000
G3 X-1177.5 Y3.5 Z0.566 I-3.5
G1 X-1192.5 Z0.561
G3 X-1196 Y0 Z0.559 J-3.5
G1 Y-2.83 Z0.558
Z1.5
Y-14.83
Z0.553 F30
Y-20 Z0.551 F3000
G2 X-1212.5 Y-36.5 Z0.541 I-16.5
G1 X-1222.5 Z0.538
G2 X-1239 Y-20 Z0.528 J16.5
G1 Y-15.138 Z0.526
Z1.5
Y-3.138
Z0.521 F30
Y0 Z0.52 F3000
G3 X-1242.5 Y3.5 Z0.518 I-3.5
G1 X-1290 Z0.5
X-1242.5
G2 X-1239 Y0 J-3.5
G1 Y-3.138
Z1.5
Y-15.138
Z0.5 F30
Y-20 F3000
G3 X-1222.5 Y-36.5 I16.5
G1 X-1212.5
G3 X-1196 Y-20 J16.5
G1 Y-14.83
Z1.5
Y-2.83
Z0.5 F30
Y0 F3000
G2 X-1192.5 Y3.5 I3.5
G1 X-1177.5
G2 X-1174 Y0 J-3.5
G1 Y-2.236
Z1.5
Y-14.236
Z0.5 F30
Y-20 F3000
G3 X-1157.5 Y-36.5 I16.5
G1 X-1147.5
G3 X-1131 Y-20 J16.5
G1 Y-16.411
Z1.5
Y-4.411
Z0.5 F30
Y0 F3000
G2 X-1127.5 Y3.5 I3.5
G1 X-1112.5
G2 X-1109 Y0 J-3.5
G1 Y-4.27
Z1.5
Y-16.27
Z0.5 F30
Y-20 F3000
G3 X-1092.5 Y-36.5 I16.5
G1 X-1082.5
G3 X-1066 Y-20 J16.5
G1 Y-15.375
Z1.5
Y-3.375
Z0.5 F30
Y0 F3000
G2 X-1062.5 Y3.5 I3.5
G1 X-1047.5
G2 X-1044 Y0 J-3.5
G1 Y-4.825
Z1.5
Y-16.825
Z0.5 F30
Y-20 F3000
G3 X-1027.5 Y-36.5 I16.5
G1 X-1017.5
G3 X-1001 Y-20 J16.5
G1 Y-15.926
Z1.5
Y-3.926
Z0.5 F30
Y0 F3000
G2 X-997.5 Y3.5 I3.5
G1 X-982.5
G2 X-979 Y0 J-3.5
G1 Y-3.465
Z1.5
Y-15.465
Z0.5 F30
Y-20 F3000
G3 X-962.5 Y-36.5 I16.5
G1 X-952.5
G3 X-936 Y-20 J16.5
G1 Y-16.61
Z1.5
Y-4.61
Z0.5 F30
Y0 F3000
G2 X-932.5 Y3.5 I3.5
G1 X-917.5
G2 X-914 Y0 J-3.5
G1 Y-3.073
Z1.5
Y-15.073
Z0.5 F30
Y-20 F3000
G3 X-897.5 Y-36.5 I16.5
G1 X-887.5
G3 X-871 Y-20 J16.5
G1 Y-16.446
Z1.5
Y-4.446
Z0.5 F30
Y0 F3000
G2 X-867.5 Y3.5 I3.5
G1 X-852.5
G2 X-849 Y0 J-3.5
G1 Y-5.101
Z1.5
Y-17.101
Z0.5 F30
Y-20 F3000
G3 X-832.5 Y-36.5 I16.5
G1 X-822.5
G3 X-806 Y-20 J16.5
G1 Y-15.343
Z1.5
Y-3.343
Z0.5 F30
Y0 F3000
G2 X-802.5 Y3.5 I3.5
G1 X-787.5
G2 X-784 Y0 J-3.5
G1 Y-4.774
Z1.5
Y-16.774
Z0.5 F30
Y-20 F3000
G3 X-767.5 Y-36.5 I16.5
G1 X-757.5
G3 X-741 Y-20 J16.5
G1 Y-16.373
Z1.5
Y-4.373
Z0.5 F30
Y0 F3000
G2 X-737.5 Y3.5 I3.5
G1 X-722.5
G2 X-719 Y0 J-3.5
G1 Y-3.318
Z1.5
Y-15.318
Z0.5 F30
Y-20 F3000
G3 X-702.5 Y-36.5 I16.5
G1 X-692.5
G3 X-676 Y-20 J16.5
G1 Y-16.25
Z1.5
Y-4.25
Z0.5 F30
Y0 F3000
G2 X-672.5 Y3.5 I3.5
G1 X-657.5
G2 X-654 Y0 J-3.5
G1 Y-4.225
Z1.5
Y-16.225
Z0.5 F30
Y-20 F3000
G3 X-637.5 Y-36.5 I16.5
G1 X-627.5
G3 X-611 Y-20 J16.5
G1 Y-17.028
Z1.5
Y-5.028
Z0.5 F30
Y0 F3000
G2 X-607.5 Y3.5 I3.5
G1 X-592.5
G2 X-589 Y0 J-3.5
G1 Y-4.909
Z1.5
Y-16.909
Z0.5 F30
Y-20 F3000
G3 X-572.5 Y-36.5 I16.5
G1 X-562.5
G3 X-546 Y-20 J16.5
G1 Y-16.4
Z1.5
Y-4.4
Z0.5 F30
Y0 F3000
G2 X-542.5 Y3.5 I3.5
G1 X-527.5
G2 X-524 Y0 J-3.5
G1 Y-5.102
Z1.5
Y-17.102
Z0.5 F30
Y-20 F3000
G3 X-507.5 Y-36.5 I16.5
G1 X-497.5
G3 X-481 Y-20 J16.5
G1 Y-17.847
Z1.5
Y-5.847
Z0.5 F30
Y0 F3000
G2 X-477.5 Y3.5 I3.5
G1 X-462.5
G2 X-459 Y0 J-3.5
G1 Y-4.559
Z1.5
Y-16.559
Z0.5 F30
Y-20 F3000
G3 X-442.5 Y-36.5 I16.5
G1 X-432.5
G3 X-416 Y-20 J16.5
G1 Y-17.491
Z1.5
Y-5.491
Z0.5 F30
Y0 F3000
G2 X-412.5 Y3.5 I3.5
G1 X-397.5
G2 X-394 Y0 J-3.5
G1 Y-3.316
Z1.5
Y-15.316
Z0.5 F30
Y-20 F3000
G3 X-377.5 Y-36.5 I16.5
G1 X-367.5
G3 X-351 Y-20 J16.5
G1 Y-17.08
Z1.5
Y-5.08
Z0.5 F30
Y0 F3000
G2 X-347.5 Y3.5 I3.5
G1 X-332.5
G2 X-329 Y0 J-3.5
G1 Y-3.162
Z1.5
Y-15.162
Z0.5 F30
Y-20 F3000
G3 X-312.5 Y-36.5 I16.5
G1 X-302.5
G3 X-286 Y-20 J16.5
G1 Y-15.595
Z1.5
Y-3.595
Z0.5 F30
Y0 F3000
G2 X-282.5 Y3.5 I3.5
G1 X-267.5
G2 X-264 Y0 J-3.5
G1 Y-4.012
Z1.5
Y-16.012
Z0.5 F30
Y-20 F3000
G3 X-247.5 Y-36.5 I16.5
G1 X-237.5
G3 X-221 Y-20 J16.5
G1 Y-16.594
Z1.5
Y-4.594
Z0.5 F30
Y0 F3000
G2 X-217.5 Y3.5 I3.5
G1 X-202.5
G2 X-199 Y0 J-3.5
G1 Y-3.626
Z1.5
Y-15.626
Z0.5 F30
Y-20 F3000
G3 X-182.5 Y-36.5 I16.5
G1 X-172.5
G3 X-156 Y-20 J16.5
G1 Y-15.912
Z1.5
Y-3.912
Z0.5 F30
Y0 F3000
G2 X-152.5 Y3.5 I3.5
G1 X-137.5
G2 X-134 Y0 J-3.5
G1 Y-2.71
Z1.5
Y-14.71
Z0.5 F30
Y-20 F3000
G3 X-117.5 Y-36.5 I16.5
G1 X-107.5
G3 X-91 Y-20 J16.5
G1 Y-17.005
Z1.5
Y-5.005
Z0.5 F30
Y0 F3000
G2 X-87.5 Y3.5 I3.5
G1 X-72.5
G2 X-69 Y0 J-3.5
G1 Y-3.951
Z1.5
Y-15.951
Z0.5 F30
Y-20 F3000
G3 X-52.5 Y-36.5 I16.5
G1 X-42.5
G3 X-26 Y-20 J16.5
G1 Y-17.018
Z1.5
Y-5.018
Z0.5 F30
Y0 F3000
G2 X-22.5 Y3.5 I3.5
G1 X-7.5
G2 X-4 Y0 J-3.5
G1 Y-4.425
Z1.5
Y-16.425
Z0.5 F30
Y-20 F3000
G3 X12.5 Y-36.5 I16.5
G1 X22.5
G3 X39 Y-20 J16.5
G1 Y-17.008
Z1.5
Y-5.008
Z0.5 F30
Y0 F3000
G2 X42.5 Y3.5 I3.5
G1 X90
G0 Z33

(2D Contour2 2)
S12000 M3
X-1238.96 Y-24.249
Z33
Z23
G1 Z20.5 F30
G2 X-1239.5 Y-20 Z19.349 I16.46 J4.249 F3000
G1 Y0 Z13.99
G3 X-1242.5 Y3 Z12.728 I-3
G1 X-1290 Z0
X-1242.5
G2 X-1239.5 Y0 J-3
G1 Y-3.138
Z1.5
Y-15.138
Z0 F30
Y-20 F3000
G3 X-1222.5 Y-37 I17
G1 X-1212.5
G3 X-1195.5 Y-20 J17
G1 Y-14.83
Z1.5
Y-2.83
Z0 F30
Y0 F3000
G2 X-1192.5 Y3 I3
G1 X-1177.5
G2 X-1174.5 Y0 J-3
G1 Y-2.236
Z1.5
Y-14.236
Z0 F30
Y-20 F3000
G3 X-1157.5 Y-37 I17
G1 X-1147.5
G3 X-1130.5 Y-20 J17
G1 Y-16.411
Z1.5
Y-4.411
Z0 F30
Y0 F3000
G2 X-1127.5 Y3 I3
G1 X-1112.5
G2 X-1109.5 Y0 J-3
G1 Y-4.27
Z1.5
Y-16.27
Z0 F30
Y-20 F3000
G3 X-1092.5 Y-37 I17
G1 X-1082.5
G3 X-1065.5 Y-20 J17
G1 Y-15.375
Z1.5
Y-3.375
Z0 F30
Y0 F3000
G2 X-1062.5 Y3 I3
G1 X-1047.5
G2 X-1044.5 Y0 J-3
G1 Y-4.825
Z1.5
Y-16.825
Z0 F30
Y-20 F3000
G3 X-1027.5 Y-37 I17
G1 X-1017.5
G3 X-1000.5 Y-20 J17
G1 Y-15.926
Z1.5
Y-3.926
Z0 F30
Y0 F3000
G2 X-997.5 Y3 I3
G1 X-982.5
G2 X-979.5 Y0 J-3
G1 Y-3.465
Z1.5
Y-15.465
Z0 F30
Y-20 F3000
G3 X-962.5 Y-37 I17
G1 X-952.5
G3 X-935.5 Y-20 J17
G1 Y-16.61
Z1.5
Y-4.61
Z0 F30
Y0 F3000
G2 X-932.5 Y3 I3
G1 X-917.5
G2 X-914.5 Y0 J-3
G1 Y-3.073
Z1.5
Y-15.073
Z0 F30
Y-20 F3000
G3 X-897.5 Y-37 I17
G1 X-887.5
G3 X-870.5 Y-20 J17
G1 Y-16.446
Z1.5
Y-4.446
Z0 F30
Y0 F3000
G2 X-867.5 Y3 I3
G1 X-852.5
G2 X-849.5 Y0 J-3
G1 Y-5.101
Z1.5
Y-17.101
Z0 F30
Y-20 F3000
G3 X-832.5 Y-37 I17
G1 X-822.5
G3 X-805.5 Y-20 J17
G1 Y-15.343
Z1.5
Y-3.343
Z0 F30
Y0 F3000
G2 X-802.5 Y3 I3
G1 X-787.5
G2 X-784.5 Y0 J-3
G1 Y-4.774
Z1.5
Y-16.774
Z0 F30
Y-20 F3000
G3 X-767.5 Y-37 I17
G1 X-757.5
G3 X-740.5 Y-20 J17
G1 Y-16.373
Z1.5
Y-4.373
Z0 F30
Y0 F3000
G2 X-737.5 Y3 I3
G1 X-722.5
G2 X-719.5 Y0 J-3
G1 Y-3.318
Z1.5
Y-15.318
Z0 F30
Y-20 F3000
G3 X-702.5 Y-37 I17
G1 X-692.5
G3 X-675.5 Y-20 J17
G1 Y-16.25
Z1.5
Y-4.25
Z0 F30
Y0 F3000
G2 X-672.5 Y3 I3
G1 X-657.5
G2 X-654.5 Y0 J-3
G1 Y-4.225
Z1.5
Y-16.225
Z0 F30
Y-20 F3000
G3 X-637.5 Y-37 I17
G1 X-627.5
G3 X-610.5 Y-20 J17
G1 Y-17.028
Z1.5
Y-5.028
Z0 F30
Y0 F3000
G2 X-607.5 Y3 I3
G1 X-592.5
G2 X-589.5 Y0 J-3
G1 Y-4.909
Z1.5
Y-16.909
Z0 F30
Y-20 F3000
G3 X-572.5 Y-37 I17
G1 X-562.5
G3 X-545.5 Y-20 J17
G1 Y-16.4
Z1.5
Y-4.4
Z0 F30
Y0 F3000
G2 X-542.5 Y3 I3
G1 X-527.5
G2 X-524.5 Y0 J-3
G1 Y-5.102
Z1.5
Y-17.102
Z0 F30
Y-20 F3000
G3 X-507.5 Y-37 I17
G1 X-497.5
G3 X-480.5 Y-20 J17
G1 Y-17.847
Z1.5
Y-5.847
Z0 F30
Y0 F3000
G2 X-477.5 Y3 I3
G1 X-462.5
G2 X-459.5 Y0 J-3
G1 Y-4.559
Z1.5
Y-16.559
Z0 F30
Y-20 F3000
G3 X-442.5 Y-37 I17
G1 X-432.5
G3 X-415.5 Y-20 J17
G1 Y-17.491
Z1.5
Y-5.491
Z0 F30
Y0 F3000
G2 X-412.5 Y3 I3
G1 X-397.5
G2 X-394.5 Y0 J-3
G1 Y-3.316
Z1.5
Y-15.316
Z0 F30
Y-20 F3000
G3 X-377.5 Y-37 I17
G1 X-367.5
G3 X-350.5 Y-20 J17
G1 Y-17.08
Z1.5
Y-5.08
Z0 F30
Y0 F3000
G2 X-347.5 Y3 I3
G1 X-332.5
G2 X-329.5 Y0 J-3
G1 Y-3.162
Z1.5
Y-15.162
Z0 F30
Y-20 F3000
G3 X-312.5 Y-37 I17
G1 X-302.5
G3 X-285.5 Y-20 J17
G1 Y-15.595
Z1.5
Y-3.595
Z0 F30
Y0 F3000
G2 X-282.5 Y3 I3
G1 X-267.5
G2 X-264.5 Y0 J-3
G1 Y-4.012
Z1.5
Y-16.012
Z0 F30
Y-20 F3000
G3 X-247.5 Y-37 I17
G1 X-237.5
G3 X-220.5 Y-20 J17
G1 Y-16.594
Z1.5
Y-4.594
Z0 F30
Y0 F3000
G2 X-217.5 Y3 I3
G1 X-202.5
G2 X-199.5 Y0 J-3
G1 Y-3.626
Z1.5
Y-15.626
Z0 F30
Y-20 F3000
G3 X-182.5 Y-37 I17
G1 X-172.5
G3 X-155.5 Y-20 J17
G1 Y-15.912
Z1.5
Y-3.912
Z0 F30
Y0 F3000
G2 X-152.5 Y3 I3
G1 X-137.5
G2 X-134.5 Y0 J-3
G1 Y-2.71
Z1.5
Y-14.71
Z0 F30
Y-20 F3000
G3 X-117.5 Y-37 I17
G1 X-107.5
G3 X-90.5 Y-20 J17
G1 Y-17.005
Z1.5
Y-5.005
Z0 F30
Y0 F3000
G2 X-87.5 Y3 I3
G1 X-72.5
G2 X-69.5 Y0 J-3
G1 Y-3.951
Z1.5
Y-15.951
Z0 F30
Y-20 F3000
G3 X-52.5 Y-37 I17
G1 X-42.5
G3 X-25.5 Y-20 J17
G1 Y-17.018
Z1.5
Y-5.018
Z0 F30
Y0 F3000
G2 X-22.5 Y3 I3
G1 X-7.5
G2 X-4.5 Y0 J-3
G1 Y-4.425
Z1.5
Y-16.425
Z0 F30
Y-20 F3000
G3 X12.5 Y-37 I17
G1 X22.5
G3 X39.5 Y-20 J17
G1 Y-17.008
Z1.5
Y-5.008
Z0 F30
Y0 F3000
G2 X42.5 Y3 I3
G1 X90
G0 Z33
M30
%
