%
(1001)
(origin spoilboard top)
(T2  D=6 CR=0 - ZMIN=0 - flat end mill)
G90 G94
G17
G21

(2D Contour2 2)
M9
T2 M6
S12000 M3
G54
G0 X-1238.96 Y-24.249
Z33
Z23
G1 Z20.5 F30
G2 X-1239.5 Y-20 Z19.349 I16.46 J4.249 F3000
G1 Y0 Z13.99
G3 X-1242.5 Y3 Z12.728 I-3
G1 X-1290 Z0
X-1242.5
G2 X-1239.5 Y0 J-3
G1 Y-3.138
Z1.5
Y-15.138
Z0 F30
Y-20 F3000
G3 X-1222.5 Y-37 I17
G1 X-1212.5
G3 X-1195.5 Y-20 J17
G1 Y-14.83
Z1.5
Y-2.83
Z0 F30
Y0 F3000
G2 X-1192.5 Y3 I3
G1 X-1177.5
G2 X-1174.5 Y0 J-3
G1 Y-2.236
Z1.5
Y-14.236
Z0 F30
Y-20 F3000
G3 X-1157.5 Y-37 I17
G1 X-1147.5
G3 X-1130.5 Y-20 J17
G1 Y-16.411
Z1.5
Y-4.411
Z0 F30
Y0 F3000
G2 X-1127.5 Y3 I3
G1 X-1112.5
G2 X-1109.5 Y0 J-3
G1 Y-4.27
Z1.5
Y-16.27
Z0 F30
Y-20 F3000
G3 X-1092.5 Y-37 I17
G1 X-1082.5
G3 X-1065.5 Y-20 J17
G1 Y-15.375
Z1.5
Y-3.375
Z0 F30
Y0 F3000
G2 X-1062.5 Y3 I3
G1 X-1047.5
G2 X-1044.5 Y0 J-3
G1 Y-4.825
Z1.5
Y-16.825
Z0 F30
Y-20 F3000
G3 X-1027.5 Y-37 I17
G1 X-1017.5
G3 X-1000.5 Y-20 J17
G1 Y-15.926
Z1.5
Y-3.926
Z0 F30
Y0 F3000
G2 X-997.5 Y3 I3
G1 X-982.5
G2 X-979.5 Y0 J-3
G1 Y-3.465
Z1.5
Y-15.465
Z0 F30
Y-20 F3000
G3 X-962.5 Y-37 I17
G1 X-952.5
G3 X-935.5 Y-20 J17
G1 Y-16.61
Z1.5
Y-4.61
Z0 F30
Y0 F3000
G2 X-932.5 Y3 I3
G1 X-917.5
G2 X-914.5 Y0 J-3
G1 Y-3.073
Z1.5
Y-15.073
Z0 F30
Y-20 F3000
G3 X-897.5 Y-37 I17
G1 X-887.5
G3 X-870.5 Y-20 J17
G1 Y-16.446
Z1.5
Y-4.446
Z0 F30
Y0 F3000
G2 X-867.5 Y3 I3
G1 X-852.5
G2 X-849.5 Y0 J-3
G1 Y-5.101
Z1.5
Y-17.101
Z0 F30
Y-20 F3000
G3 X-832.5 Y-37 I17
G1 X-822.5
G3 X-805.5 Y-20 J17
G1 Y-15.343
Z1.5
Y-3.343
Z0 F30
Y0 F3000
G2 X-802.5 Y3 I3
G1 X-787.5
G2 X-784.5 Y0 J-3
G1 Y-4.774
Z1.5
Y-16.774
Z0 F30
Y-20 F3000
G3 X-767.5 Y-37 I17
G1 X-757.5
G3 X-740.5 Y-20 J17
G1 Y-16.373
Z1.5
Y-4.373
Z0 F30
Y0 F3000
G2 X-737.5 Y3 I3
G1 X-722.5
G2 X-719.5 Y0 J-3
G1 Y-3.318
Z1.5
Y-15.318
Z0 F30
Y-20 F3000
G3 X-702.5 Y-37 I17
G1 X-692.5
G3 X-675.5 Y-20 J17
G1 Y-16.25
Z1.5
Y-4.25
Z0 F30
Y0 F3000
G2 X-672.5 Y3 I3
G1 X-657.5
G2 X-654.5 Y0 J-3
G1 Y-4.225
Z1.5
Y-16.225
Z0 F30
Y-20 F3000
G3 X-637.5 Y-37 I17
G1 X-627.5
G3 X-610.5 Y-20 J17
G1 Y-17.028
Z1.5
Y-5.028
Z0 F30
Y0 F3000
G2 X-607.5 Y3 I3
G1 X-592.5
G2 X-589.5 Y0 J-3
G1 Y-4.909
Z1.5
Y-16.909
Z0 F30
Y-20 F3000
G3 X-572.5 Y-37 I17
G1 X-562.5
G3 X-545.5 Y-20 J17
G1 Y-16.4
Z1.5
Y-4.4
Z0 F30
Y0 F3000
G2 X-542.5 Y3 I3
G1 X-527.5
G2 X-524.5 Y0 J-3
G1 Y-5.102
Z1.5
Y-17.102
Z0 F30
Y-20 F3000
G3 X-507.5 Y-37 I17
G1 X-497.5
G3 X-480.5 Y-20 J17
G1 Y-17.847
Z1.5
Y-5.847
Z0 F30
Y0 F3000
G2 X-477.5 Y3 I3
G1 X-462.5
G2 X-459.5 Y0 J-3
G1 Y-4.559
Z1.5
Y-16.559
Z0 F30
Y-20 F3000
G3 X-442.5 Y-37 I17
G1 X-432.5
G3 X-415.5 Y-20 J17
G1 Y-17.491
Z1.5
Y-5.491
Z0 F30
Y0 F3000
G2 X-412.5 Y3 I3
G1 X-397.5
G2 X-394.5 Y0 J-3
G1 Y-3.316
Z1.5
Y-15.316
Z0 F30
Y-20 F3000
G3 X-377.5 Y-37 I17
G1 X-367.5
G3 X-350.5 Y-20 J17
G1 Y-17.08
Z1.5
Y-5.08
Z0 F30
Y0 F3000
G2 X-347.5 Y3 I3
G1 X-332.5
G2 X-329.5 Y0 J-3
G1 Y-3.162
Z1.5
Y-15.162
Z0 F30
Y-20 F3000
G3 X-312.5 Y-37 I17
G1 X-302.5
G3 X-285.5 Y-20 J17
G1 Y-15.595
Z1.5
Y-3.595
Z0 F30
Y0 F3000
G2 X-282.5 Y3 I3
G1 X-267.5
G2 X-264.5 Y0 J-3
G1 Y-4.012
Z1.5
Y-16.012
Z0 F30
Y-20 F3000
G3 X-247.5 Y-37 I17
G1 X-237.5
G3 X-220.5 Y-20 J17
G1 Y-16.594
Z1.5
Y-4.594
Z0 F30
Y0 F3000
G2 X-217.5 Y3 I3
G1 X-202.5
G2 X-199.5 Y0 J-3
G1 Y-3.626
Z1.5
Y-15.626
Z0 F30
Y-20 F3000
G3 X-182.5 Y-37 I17
G1 X-172.5
G3 X-155.5 Y-20 J17
G1 Y-15.912
Z1.5
Y-3.912
Z0 F30
Y0 F3000
G2 X-152.5 Y3 I3
G1 X-137.5
G2 X-134.5 Y0 J-3
G1 Y-2.71
Z1.5
Y-14.71
Z0 F30
Y-20 F3000
G3 X-117.5 Y-37 I17
G1 X-107.5
G3 X-90.5 Y-20 J17
G1 Y-17.005
Z1.5
Y-5.005
Z0 F30
Y0 F3000
G2 X-87.5 Y3 I3
G1 X-72.5
G2 X-69.5 Y0 J-3
G1 Y-3.951
Z1.5
Y-15.951
Z0 F30
Y-20 F3000
G3 X-52.5 Y-37 I17
G1 X-42.5
G3 X-25.5 Y-20 J17
G1 Y-17.018
Z1.5
Y-5.018
Z0 F30
Y0 F3000
G2 X-22.5 Y3 I3
G1 X-7.5
G2 X-4.5 Y0 J-3
G1 Y-4.425
Z1.5
Y-16.425
Z0 F30
Y-20 F3000
G3 X12.5 Y-37 I17
G1 X22.5
G3 X39.5 Y-20 J17
G1 Y-17.008
Z1.5
Y-5.008
Z0 F30
Y0 F3000
G2 X42.5 Y3 I3
G1 X90
G0 Z33
M30
%
