%
(1001)
(origin stock bottom)
(T2  D=6 CR=0 - ZMIN=0 - flat end mill)
G90 G94
G17
G21

(2D Contour2 4)
M9
T2 M6
S10000 M3
G54
G0 X-592.451 Y-456.8
Z33
Z23
G1 Z21.12 F30
G19 G3 Y-456.2 Z20.52 J0.6
G1 Y-455.6 F3000
G17 G3 X-593.05 Y-455 I-0.6
G1 X-609.845 Z16.02
X-609.922 Z16.005
X-610 Z16
X-1220
G2 X-1223 Y-452 J3
G1 Y-351
G2 X-1220 Y-348 I3
G1 X-1155
G2 X-1152 Y-351 J-3
G1 Y-371
G3 X-1135 Y-388 I17
G1 X-1125
G3 X-1108 Y-371 J17
G1 Y-351
G2 X-1105 Y-348 I3
G1 X-1090
G2 X-1087 Y-351 J-3
G1 Y-371
G3 X-1070 Y-388 I17
G1 X-1060
G3 X-1043 Y-371 J17
G1 Y-351
G2 X-1040 Y-348 I3
G1 X-1025
G2 X-1022 Y-351 J-3
G1 Y-371
G3 X-1005 Y-388 I17
G1 X-995
G3 X-978 Y-371 J17
G1 Y-351
G2 X-975 Y-348 I3
G1 X-960
G2 X-957 Y-351 J-3
G1 Y-371
G3 X-940 Y-388 I17
G1 X-930
G3 X-913 Y-371 J17
G1 Y-351
G2 X-910 Y-348 I3
G1 X-895
G2 X-892 Y-351 J-3
G1 Y-371
G3 X-875 Y-388 I17
G1 X-865
G3 X-848 Y-371 J17
G1 Y-351
G2 X-845 Y-348 I3
G1 X-830
G2 X-827 Y-351 J-3
G1 Y-371
G3 X-810 Y-388 I17
G1 X-800
G3 X-783 Y-371 J17
G1 Y-351
G2 X-780 Y-348 I3
G1 X-765
G2 X-762 Y-351 J-3
G1 Y-371
G3 X-745 Y-388 I17
G1 X-735
G3 X-718 Y-371 J17
G1 Y-351
G2 X-715 Y-348 I3
G1 X-700
G2 X-697 Y-351 J-3
G1 Y-371
G3 X-680 Y-388 I17
G1 X-670
G3 X-653 Y-371 J17
G1 Y-351
G2 X-650 Y-348 I3
G1 X-635
G2 X-632 Y-351 J-3
G1 Y-371
G3 X-615 Y-388 I17
G1 X-605
G3 X-588 Y-371 J17
G1 Y-351
G2 X-585 Y-348 I3
G1 X-570
G2 X-567 Y-351 J-3
G1 Y-371
G3 X-550 Y-388 I17
G1 X-540
G3 X-523 Y-371 J17
G1 Y-351
G2 X-520 Y-348 I3
G1 X-505
G2 X-502 Y-351 J-3
G1 Y-371
G3 X-485 Y-388 I17
G1 X-475
G3 X-458 Y-371 J17
G1 Y-351
G2 X-455 Y-348 I3
G1 X-440
G2 X-437 Y-351 J-3
G1 Y-371
G3 X-420 Y-388 I17
G1 X-410
G3 X-393 Y-371 J17
G1 Y-351
G2 X-390 Y-348 I3
G1 X-375
G2 X-372 Y-351 J-3
G1 Y-371
G3 X-355 Y-388 I17
G1 X-345
G3 X-328 Y-371 J17
G1 Y-351
G2 X-325 Y-348 I3
G1 X-310
G2 X-307 Y-351 J-3
G1 Y-371
G3 X-290 Y-388 I17
G1 X-280
G3 X-263 Y-371 J17
G1 Y-351
G2 X-260 Y-348 I3
G1 X-245
G2 X-242 Y-351 J-3
G1 Y-371
G3 X-225 Y-388 I17
G1 X-215
G3 X-198 Y-371 J17
G1 Y-351
G2 X-195 Y-348 I3
G1 X-180
G2 X-177 Y-351 J-3
G1 Y-371
G3 X-160 Y-388 I17
G1 X-150
G3 X-133 Y-371 J17
G1 Y-351
G2 X-130 Y-348 I3
G1 X-115
G2 X-112 Y-351 J-3
G1 Y-371
G3 X-95 Y-388 I17
G1 X-85
G3 X-68 Y-371 J17
G1 Y-351
G2 X-65 Y-348 I3
G1 X0
G2 X3 Y-351 J-3
G1 Y-452
G2 X0 Y-455 I-3
G1 X-610
X-920.749 Z14
X-1220
G2 X-1223 Y-452 J3
G1 Y-351
G2 X-1220 Y-348 I3
G1 X-1155
G2 X-1152 Y-351 J-3
G1 Y-371
G3 X-1135 Y-388 I17
G1 X-1125
G3 X-1108 Y-371 J17
G1 Y-351
G2 X-1105 Y-348 I3
G1 X-1090
G2 X-1087 Y-351 J-3
G1 Y-371
G3 X-1070 Y-388 I17
G1 X-1060
G3 X-1043 Y-371 J17
G1 Y-351
G2 X-1040 Y-348 I3
G1 X-1025
G2 X-1022 Y-351 J-3
G1 Y-371
G3 X-1005 Y-388 I17
G1 X-995
G3 X-978 Y-371 J17
G1 Y-351
G2 X-975 Y-348 I3
G1 X-960
G2 X-957 Y-351 J-3
G1 Y-371
G3 X-940 Y-388 I17
G1 X-930
G3 X-913 Y-371 J17
G1 Y-351
G2 X-910 Y-348 I3
G1 X-895
G2 X-892 Y-351 J-3
G1 Y-371
G3 X-875 Y-388 I17
G1 X-865
G3 X-848 Y-371 J17
G1 Y-351
G2 X-845 Y-348 I3
G1 X-830
G2 X-827 Y-351 J-3
G1 Y-371
G3 X-810 Y-388 I17
G1 X-800
G3 X-783 Y-371 J17
G1 Y-351
G2 X-780 Y-348 I3
G1 X-765
G2 X-762 Y-351 J-3
G1 Y-371
G3 X-745 Y-388 I17
G1 X-735
G3 X-718 Y-371 J17
G1 Y-351
G2 X-715 Y-348 I3
G1 X-700
G2 X-697 Y-351 J-3
G1 Y-371
G3 X-680 Y-388 I17
G1 X-670
G3 X-653 Y-371 J17
G1 Y-351
G2 X-650 Y-348 I3
G1 X-635
G2 X-632 Y-351 J-3
G1 Y-371
G3 X-615 Y-388 I17
G1 X-605
G3 X-588 Y-371 J17
G1 Y-351
G2 X-585 Y-348 I3
G1 X-570
G2 X-567 Y-351 J-3
G1 Y-371
G3 X-550 Y-388 I17
G1 X-540
G3 X-523 Y-371 J17
G1 Y-351
G2 X-520 Y-348 I3
G1 X-505
G2 X-502 Y-351 J-3
G1 Y-371
G3 X-485 Y-388 I17
G1 X-475
G3 X-458 Y-371 J17
G1 Y-351
G2 X-455 Y-348 I3
G1 X-440
G2 X-437 Y-351 J-3
G1 Y-371
G3 X-420 Y-388 I17
G1 X-410
G3 X-393 Y-371 J17
G1 Y-351
G2 X-390 Y-348 I3
G1 X-375
G2 X-372 Y-351 J-3
G1 Y-371
G3 X-355 Y-388 I17
G1 X-345
G3 X-328 Y-371 J17
G1 Y-351
G2 X-325 Y-348 I3
G1 X-310
G2 X-307 Y-351 J-3
G1 Y-371
G3 X-290 Y-388 I17
G1 X-280
G3 X-263 Y-371 J17
G1 Y-351
G2 X-260 Y-348 I3
G1 X-245
G2 X-242 Y-351 J-3
G1 Y-371
G3 X-225 Y-388 I17
G1 X-215
G3 X-198 Y-371 J17
G1 Y-351
G2 X-195 Y-348 I3
G1 X-180
G2 X-177 Y-351 J-3
G1 Y-371
G3 X-160 Y-388 I17
G1 X-150
G3 X-133 Y-371 J17
G1 Y-351
G2 X-130 Y-348 I3
G1 X-115
G2 X-112 Y-351 J-3
G1 Y-371
G3 X-95 Y-388 I17
G1 X-85
G3 X-68 Y-371 J17
G1 Y-351
G2 X-65 Y-348 I3
G1 X0
G2 X3 Y-351 J-3
G1 Y-452
G2 X0 Y-455 I-3
G1 X-610
X-920.749
X-1220 Z12.074
G2 X-1223 Y-452 Z12.044 J3
G1 Y-445.214 Z12
Y-351
G2 X-1220 Y-348 I3
G1 X-1155
G2 X-1152 Y-351 J-3
G1 Y-371
G3 X-1135 Y-388 I17
G1 X-1125
G3 X-1108 Y-371 J17
G1 Y-351
G2 X-1105 Y-348 I3
G1 X-1090
G2 X-1087 Y-351 J-3
G1 Y-371
G3 X-1070 Y-388 I17
G1 X-1060
G3 X-1043 Y-371 J17
G1 Y-351
G2 X-1040 Y-348 I3
G1 X-1025
G2 X-1022 Y-351 J-3
G1 Y-371
G3 X-1005 Y-388 I17
G1 X-995
G3 X-978 Y-371 J17
G1 Y-351
G2 X-975 Y-348 I3
G1 X-960
G2 X-957 Y-351 J-3
G1 Y-371
G3 X-940 Y-388 I17
G1 X-930
G3 X-913 Y-371 J17
G1 Y-351
G2 X-910 Y-348 I3
G1 X-895
G2 X-892 Y-351 J-3
G1 Y-371
G3 X-875 Y-388 I17
G1 X-865
G3 X-848 Y-371 J17
G1 Y-351
G2 X-845 Y-348 I3
G1 X-830
G2 X-827 Y-351 J-3
G1 Y-371
G3 X-810 Y-388 I17
G1 X-800
G3 X-783 Y-371 J17
G1 Y-351
G2 X-780 Y-348 I3
G1 X-765
G2 X-762 Y-351 J-3
G1 Y-371
G3 X-745 Y-388 I17
G1 X-735
G3 X-718 Y-371 J17
G1 Y-351
G2 X-715 Y-348 I3
G1 X-700
G2 X-697 Y-351 J-3
G1 Y-371
G3 X-680 Y-388 I17
G1 X-670
G3 X-653 Y-371 J17
G1 Y-351
G2 X-650 Y-348 I3
G1 X-635
G2 X-632 Y-351 J-3
G1 Y-371
G3 X-615 Y-388 I17
G1 X-605
G3 X-588 Y-371 J17
G1 Y-351
G2 X-585 Y-348 I3
G1 X-570
G2 X-567 Y-351 J-3
G1 Y-371
G3 X-550 Y-388 I17
G1 X-540
G3 X-523 Y-371 J17
G1 Y-351
G2 X-520 Y-348 I3
G1 X-505
G2 X-502 Y-351 J-3
G1 Y-371
G3 X-485 Y-388 I17
G1 X-475
G3 X-458 Y-371 J17
G1 Y-351
G2 X-455 Y-348 I3
G1 X-440
G2 X-437 Y-351 J-3
G1 Y-371
G3 X-420 Y-388 I17
G1 X-410
G3 X-393 Y-371 J17
G1 Y-351
G2 X-390 Y-348 I3
G1 X-375
G2 X-372 Y-351 J-3
G1 Y-371
G3 X-355 Y-388 I17
G1 X-345
G3 X-328 Y-371 J17
G1 Y-351
G2 X-325 Y-348 I3
G1 X-310
G2 X-307 Y-351 J-3
G1 Y-371
G3 X-290 Y-388 I17
G1 X-280
G3 X-263 Y-371 J17
G1 Y-351
G2 X-260 Y-348 I3
G1 X-245
G2 X-242 Y-351 J-3
G1 Y-371
G3 X-225 Y-388 I17
G1 X-215
G3 X-198 Y-371 J17
G1 Y-351
G2 X-195 Y-348 I3
G1 X-180
G2 X-177 Y-351 J-3
G1 Y-371
G3 X-160 Y-388 I17
G1 X-150
G3 X-133 Y-371 J17
G1 Y-351
G2 X-130 Y-348 I3
G1 X-115
G2 X-112 Y-351 J-3
G1 Y-371
G3 X-95 Y-388 I17
G1 X-85
G3 X-68 Y-371 J17
G1 Y-351
G2 X-65 Y-348 I3
G1 X0
G2 X3 Y-351 J-3
G1 Y-452
G2 X0 Y-455 I-3
G1 X-920.749
X-1220
G2 X-1223 Y-452 J3
G1 Y-445.214
Y-351 Z11.394
G2 X-1220 Y-348 Z11.363 I3
G1 X-1155 Z10.945
G2 X-1152 Y-351 Z10.915 J-3
G1 Y-371 Z10.786
G3 X-1135 Y-388 Z10.614 I17
G1 X-1125 Z10.55
G3 X-1108 Y-371 Z10.378 J17
G1 Y-351 Z10.249
G2 X-1105 Y-348 Z10.219 I3
G1 X-1090 Z10.122
G2 X-1087 Y-351 Z10.092 J-3
G1 Y-365.279 Z10
Y-371
G3 X-1070 Y-388 I17
G1 X-1060
G3 X-1043 Y-371 J17
G1 Y-351
G2 X-1040 Y-348 I3
G1 X-1025
G2 X-1022 Y-351 J-3
G1 Y-371
G3 X-1005 Y-388 I17
G1 X-995
G3 X-978 Y-371 J17
G1 Y-351
G2 X-975 Y-348 I3
G1 X-960
G2 X-957 Y-351 J-3
G1 Y-371
G3 X-940 Y-388 I17
G1 X-930
G3 X-913 Y-371 J17
G1 Y-351
G2 X-910 Y-348 I3
G1 X-895
G2 X-892 Y-351 J-3
G1 Y-371
G3 X-875 Y-388 I17
G1 X-865
G3 X-848 Y-371 J17
G1 Y-351
G2 X-845 Y-348 I3
G1 X-830
G2 X-827 Y-351 J-3
G1 Y-371
G3 X-810 Y-388 I17
G1 X-800
G3 X-783 Y-371 J17
G1 Y-351
G2 X-780 Y-348 I3
G1 X-765
G2 X-762 Y-351 J-3
G1 Y-371
G3 X-745 Y-388 I17
G1 X-735
G3 X-718 Y-371 J17
G1 Y-351
G2 X-715 Y-348 I3
G1 X-700
G2 X-697 Y-351 J-3
G1 Y-371
G3 X-680 Y-388 I17
G1 X-670
G3 X-653 Y-371 J17
G1 Y-351
G2 X-650 Y-348 I3
G1 X-635
G2 X-632 Y-351 J-3
G1 Y-371
G3 X-615 Y-388 I17
G1 X-605
G3 X-588 Y-371 J17
G1 Y-351
G2 X-585 Y-348 I3
G1 X-570
G2 X-567 Y-351 J-3
G1 Y-371
G3 X-550 Y-388 I17
G1 X-540
G3 X-523 Y-371 J17
G1 Y-351
G2 X-520 Y-348 I3
G1 X-505
G2 X-502 Y-351 J-3
G1 Y-371
G3 X-485 Y-388 I17
G1 X-475
G3 X-458 Y-371 J17
G1 Y-351
G2 X-455 Y-348 I3
G1 X-440
G2 X-437 Y-351 J-3
G1 Y-371
G3 X-420 Y-388 I17
G1 X-410
G3 X-393 Y-371 J17
G1 Y-351
G2 X-390 Y-348 I3
G1 X-375
G2 X-372 Y-351 J-3
G1 Y-371
G3 X-355 Y-388 I17
G1 X-345
G3 X-328 Y-371 J17
G1 Y-351
G2 X-325 Y-348 I3
G1 X-310
G2 X-307 Y-351 J-3
G1 Y-371
G3 X-290 Y-388 I17
G1 X-280
G3 X-263 Y-371 J17
G1 Y-351
G2 X-260 Y-348 I3
G1 X-245
G2 X-242 Y-351 J-3
G1 Y-371
G3 X-225 Y-388 I17
G1 X-215
G3 X-198 Y-371 J17
G1 Y-351
G2 X-195 Y-348 I3
G1 X-180
G2 X-177 Y-351 J-3
G1 Y-371
G3 X-160 Y-388 I17
G1 X-150
G3 X-133 Y-371 J17
G1 Y-351
G2 X-130 Y-348 I3
G1 X-115
G2 X-112 Y-351 J-3
G1 Y-371
G3 X-95 Y-388 I17
G1 X-85
G3 X-68 Y-371 J17
G1 Y-351
G2 X-65 Y-348 I3
G1 X0
G2 X3 Y-351 J-3
G1 Y-452
G2 X0 Y-455 I-3
G1 X-1220
G2 X-1223 Y-452 J3
G1 Y-351
G2 X-1220 Y-348 I3
G1 X-1155
G2 X-1152 Y-351 J-3
G1 Y-371
G3 X-1135 Y-388 I17
G1 X-1125
G3 X-1108 Y-371 J17
G1 Y-351
G2 X-1105 Y-348 I3
G1 X-1090
G2 X-1087 Y-351 J-3
G1 Y-365.279
Y-371 Z9.963
G3 X-1070 Y-388 Z9.791 I17
G1 X-1060 Z9.727
G3 X-1043 Y-371 Z9.555 J17
G1 Y-351 Z9.426
G2 X-1040 Y-348 Z9.396 I3
G1 X-1025 Z9.299
G2 X-1022 Y-351 Z9.269 J-3
G1 Y-371 Z9.14
G3 X-1005 Y-388 Z8.969 I17
G1 X-995 Z8.904
G3 X-978 Y-371 Z8.732 J17
G1 Y-351 Z8.604
G2 X-975 Y-348 Z8.573 I3
G1 X-960 Z8.477
G2 X-957 Y-351 Z8.446 J-3
G1 Y-371 Z8.318
G3 X-940 Y-388 Z8.146 I17
G1 X-930 Z8.081
G3 X-918.478 Y-383.499 Z8 J17
X-913 Y-371 I-11.522 J12.499
G1 Y-351
G2 X-910 Y-348 I3
G1 X-895
G2 X-892 Y-351 J-3
G1 Y-371
G3 X-875 Y-388 I17
G1 X-865
G3 X-848 Y-371 J17
G1 Y-351
G2 X-845 Y-348 I3
G1 X-830
G2 X-827 Y-351 J-3
G1 Y-371
G3 X-810 Y-388 I17
G1 X-800
G3 X-783 Y-371 J17
G1 Y-351
G2 X-780 Y-348 I3
G1 X-765
G2 X-762 Y-351 J-3
G1 Y-371
G3 X-745 Y-388 I17
G1 X-735
G3 X-718 Y-371 J17
G1 Y-351
G2 X-715 Y-348 I3
G1 X-700
G2 X-697 Y-351 J-3
G1 Y-371
G3 X-680 Y-388 I17
G1 X-670
G3 X-653 Y-371 J17
G1 Y-351
G2 X-650 Y-348 I3
G1 X-635
G2 X-632 Y-351 J-3
G1 Y-371
G3 X-615 Y-388 I17
G1 X-605
G3 X-588 Y-371 J17
G1 Y-351
G2 X-585 Y-348 I3
G1 X-570
G2 X-567 Y-351 J-3
G1 Y-371
G3 X-550 Y-388 I17
G1 X-540
G3 X-523 Y-371 J17
G1 Y-351
G2 X-520 Y-348 I3
G1 X-505
G2 X-502 Y-351 J-3
G1 Y-371
G3 X-485 Y-388 I17
G1 X-475
G3 X-458 Y-371 J17
G1 Y-351
G2 X-455 Y-348 I3
G1 X-440
G2 X-437 Y-351 J-3
G1 Y-371
G3 X-420 Y-388 I17
G1 X-410
G3 X-393 Y-371 J17
G1 Y-351
G2 X-390 Y-348 I3
G1 X-375
G2 X-372 Y-351 J-3
G1 Y-371
G3 X-355 Y-388 I17
G1 X-345
G3 X-328 Y-371 J17
G1 Y-351
G2 X-325 Y-348 I3
G1 X-310
G2 X-307 Y-351 J-3
G1 Y-371
G3 X-290 Y-388 I17
G1 X-280
G3 X-263 Y-371 J17
G1 Y-351
G2 X-260 Y-348 I3
G1 X-245
G2 X-242 Y-351 J-3
G1 Y-371
G3 X-225 Y-388 I17
G1 X-215
G3 X-198 Y-371 J17
G1 Y-351
G2 X-195 Y-348 I3
G1 X-180
G2 X-177 Y-351 J-3
G1 Y-371
G3 X-160 Y-388 I17
G1 X-150
G3 X-133 Y-371 J17
G1 Y-351
G2 X-130 Y-348 I3
G1 X-115
G2 X-112 Y-351 J-3
G1 Y-371
G3 X-95 Y-388 I17
G1 X-85
G3 X-68 Y-371 J17
G1 Y-351
G2 X-65 Y-348 I3
G1 X0
G2 X3 Y-351 J-3
G1 Y-452
G2 X0 Y-455 I-3
G1 X-1220
G2 X-1223 Y-452 J3
G1 Y-351
G2 X-1220 Y-348 I3
G1 X-1155
G2 X-1152 Y-351 J-3
G1 Y-371
G3 X-1135 Y-388 I17
G1 X-1125
G3 X-1108 Y-371 J17
G1 Y-351
G2 X-1105 Y-348 I3
G1 X-1090
G2 X-1087 Y-351 J-3
G1 Y-365.279
Y-371
G3 X-1070 Y-388 I17
G1 X-1060
G3 X-1043 Y-371 J17
G1 Y-351
G2 X-1040 Y-348 I3
G1 X-1025
G2 X-1022 Y-351 J-3
G1 Y-371
G3 X-1005 Y-388 I17
G1 X-995
G3 X-978 Y-371 J17
G1 Y-351
G2 X-975 Y-348 I3
G1 X-960
G2 X-957 Y-351 J-3
G1 Y-371
G3 X-940 Y-388 I17
G1 X-930
G3 X-918.478 Y-383.499 J17
X-913 Y-371 Z7.91 I-11.522 J12.499
G1 Y-351 Z7.781
G2 X-910 Y-348 Z7.751 I3
G1 X-895 Z7.654
G2 X-892 Y-351 Z7.624 J-3
G1 Y-371 Z7.495
G3 X-875 Y-388 Z7.323 I17
G1 X-865 Z7.259
G3 X-848 Y-371 Z7.087 J17
G1 Y-351 Z6.958
G2 X-845 Y-348 Z6.928 I3
G1 X-830 Z6.831
G2 X-827 Y-351 Z6.801 J-3
G1 Y-371 Z6.672
G3 X-810 Y-388 Z6.5 I17
G1 X-800 Z6.436
G3 X-783 Y-371 Z6.264 J17
G1 Y-351 Z6.135
G2 X-780 Y-348 Z6.105 I3
G1 X-765 Z6.009
G2 X-763.713 Y-348.29 Z6 J-3
X-762 Y-351 I-1.287 J-2.71
G1 Y-371
G3 X-745 Y-388 I17
G1 X-735
G3 X-718 Y-371 J17
G1 Y-351
G2 X-715 Y-348 I3
G1 X-700
G2 X-697 Y-351 J-3
G1 Y-371
G3 X-680 Y-388 I17
G1 X-670
G3 X-653 Y-371 J17
G1 Y-351
G2 X-650 Y-348 I3
G1 X-635
G2 X-632 Y-351 J-3
G1 Y-371
G3 X-615 Y-388 I17
G1 X-605
G3 X-588 Y-371 J17
G1 Y-351
G2 X-585 Y-348 I3
G1 X-570
G2 X-567 Y-351 J-3
G1 Y-371
G3 X-550 Y-388 I17
G1 X-540
G3 X-523 Y-371 J17
G1 Y-351
G2 X-520 Y-348 I3
G1 X-505
G2 X-502 Y-351 J-3
G1 Y-371
G3 X-485 Y-388 I17
G1 X-475
G3 X-458 Y-371 J17
G1 Y-351
G2 X-455 Y-348 I3
G1 X-440
G2 X-437 Y-351 J-3
G1 Y-371
G3 X-420 Y-388 I17
G1 X-410
G3 X-393 Y-371 J17
G1 Y-351
G2 X-390 Y-348 I3
G1 X-375
G2 X-372 Y-351 J-3
G1 Y-371
G3 X-355 Y-388 I17
G1 X-345
G3 X-328 Y-371 J17
G1 Y-351
G2 X-325 Y-348 I3
G1 X-310
G2 X-307 Y-351 J-3
G1 Y-371
G3 X-290 Y-388 I17
G1 X-280
G3 X-263 Y-371 J17
G1 Y-351
G2 X-260 Y-348 I3
G1 X-245
G2 X-242 Y-351 J-3
G1 Y-371
G3 X-225 Y-388 I17
G1 X-215
G3 X-198 Y-371 J17
G1 Y-351
G2 X-195 Y-348 I3
G1 X-180
G2 X-177 Y-351 J-3
G1 Y-371
G3 X-160 Y-388 I17
G1 X-150
G3 X-133 Y-371 J17
G1 Y-351
G2 X-130 Y-348 I3
G1 X-115
G2 X-112 Y-351 J-3
G1 Y-371
G3 X-95 Y-388 I17
G1 X-85
G3 X-68 Y-371 J17
G1 Y-351
G2 X-65 Y-348 I3
G1 X0
G2 X3 Y-351 J-3
G1 Y-452
G2 X0 Y-455 I-3
G1 X-1220
G2 X-1223 Y-452 J3
G1 Y-351
G2 X-1220 Y-348 I3
G1 X-1155
G2 X-1152 Y-351 J-3
G1 Y-371
G3 X-1135 Y-388 I17
G1 X-1125
G3 X-1108 Y-371 J17
G1 Y-351
G2 X-1105 Y-348 I3
G1 X-1090
G2 X-1087 Y-351 J-3
G1 Y-371
G3 X-1070 Y-388 I17
G1 X-1060
G3 X-1043 Y-371 J17
G1 Y-351
G2 X-1040 Y-348 I3
G1 X-1025
G2 X-1022 Y-351 J-3
G1 Y-371
G3 X-1005 Y-388 I17
G1 X-995
G3 X-978 Y-371 J17
G1 Y-351
G2 X-975 Y-348 I3
G1 X-960
G2 X-957 Y-351 J-3
G1 Y-371
G3 X-940 Y-388 I17
G1 X-930
G3 X-913 Y-371 J17
G1 Y-351
G2 X-910 Y-348 I3
G1 X-895
G2 X-892 Y-351 J-3
G1 Y-371
G3 X-875 Y-388 I17
G1 X-865
G3 X-848 Y-371 J17
G1 Y-351
G2 X-845 Y-348 I3
G1 X-830
G2 X-827 Y-351 J-3
G1 Y-371
G3 X-810 Y-388 I17
G1 X-800
G3 X-783 Y-371 J17
G1 Y-351
G2 X-780 Y-348 I3
G1 X-765
G2 X-763.713 Y-348.29 J-3
X-762 Y-351 Z5.978 I-1.287 J-2.71
G1 Y-371 Z5.85
G3 X-745 Y-388 Z5.678 I17
G1 X-735 Z5.613
G3 X-718 Y-371 Z5.441 J17
G1 Y-351 Z5.313
G2 X-715 Y-348 Z5.282 I3
G1 X-700 Z5.186
G2 X-697 Y-351 Z5.155 J-3
G1 Y-371 Z5.027
G3 X-680 Y-388 Z4.855 I17
G1 X-670 Z4.791
G3 X-653 Y-371 Z4.619 J17
G1 Y-351 Z4.49
G2 X-650 Y-348 Z4.46 I3
G1 X-635 Z4.363
G2 X-632 Y-351 Z4.333 J-3
G1 Y-371 Z4.204
G3 X-615 Y-388 Z4.032 I17
G1 X-610 Z4
X-605
G3 X-588 Y-371 J17
G1 Y-351
G2 X-585 Y-348 I3
G1 X-570
G2 X-567 Y-351 J-3
G1 Y-371
G3 X-550 Y-388 I17
G1 X-540
G3 X-523 Y-371 J17
G1 Y-351
G2 X-520 Y-348 I3
G1 X-505
G2 X-502 Y-351 J-3
G1 Y-371
G3 X-485 Y-388 I17
G1 X-475
G3 X-458 Y-371 J17
G1 Y-351
G2 X-455 Y-348 I3
G1 X-440
G2 X-437 Y-351 J-3
G1 Y-371
G3 X-420 Y-388 I17
G1 X-410
G3 X-393 Y-371 J17
G1 Y-351
G2 X-390 Y-348 I3
G1 X-375
G2 X-372 Y-351 J-3
G1 Y-371
G3 X-355 Y-388 I17
G1 X-345
G3 X-328 Y-371 J17
G1 Y-351
G2 X-325 Y-348 I3
G1 X-310
G2 X-307 Y-351 J-3
G1 Y-371
G3 X-290 Y-388 I17
G1 X-280
G3 X-263 Y-371 J17
G1 Y-351
G2 X-260 Y-348 I3
G1 X-245
G2 X-242 Y-351 J-3
G1 Y-371
G3 X-225 Y-388 I17
G1 X-215
G3 X-198 Y-371 J17
G1 Y-351
G2 X-195 Y-348 I3
G1 X-180
G2 X-177 Y-351 J-3
G1 Y-371
G3 X-160 Y-388 I17
G1 X-150
G3 X-133 Y-371 J17
G1 Y-351
G2 X-130 Y-348 I3
G1 X-115
G2 X-112 Y-351 J-3
G1 Y-371
G3 X-95 Y-388 I17
G1 X-85
G3 X-68 Y-371 J17
G1 Y-351
G2 X-65 Y-348 I3
G1 X-49.465
Z5
X-23.465
Z4 F30
X0 F3000
G2 X3 Y-351 J-3
G1 Y-452
G2 X0 Y-455 I-3
G1 X-20.373
Z5
X-46.373
Z4 F30
X-305.393 F3000
Z5
X-331.393
Z4 F30
X-601.429 F3000
Z5
X-627.429
Z4 F30
X-890.736 F3000
Z5
X-916.736
Z4 F30
X-1176.71 F3000
Z5
X-1202.71
Z4 F30
X-1220 F3000
G2 X-1223 Y-452 J3
G1 Y-351
G2 X-1220 Y-348 I3
G1 X-1194.49
Z5
X-1168.49
Z4 F30
X-1155 F3000
G2 X-1152 Y-351 J-3
G1 Y-371
G3 X-1135 Y-388 I17
G1 X-1125
G3 X-1108 Y-371 J17
G1 Y-351
G2 X-1105 Y-348 I3
G1 X-1090
G2 X-1087 Y-351 J-3
G1 Y-371
G3 X-1070 Y-388 I17
G1 X-1060
G3 X-1043 Y-371 J17
G1 Y-351
G2 X-1040 Y-348 I3
G1 X-1025
G2 X-1022 Y-351 J-3
G1 Y-371
G3 X-1005 Y-388 I17
G1 X-995
G3 X-978 Y-371 J17
G1 Y-351
G2 X-975 Y-348 I3
G1 X-960
G2 X-957 Y-351 J-3
G1 Y-371
G3 X-940 Y-388 I17
G1 X-930
G3 X-913 Y-371 J17
G1 Y-351
G2 X-910 Y-348 I3
G1 X-895
G2 X-892 Y-351 J-3
G1 Y-371
G3 X-875 Y-388 I17
G1 X-865
G3 X-848 Y-371 J17
G1 Y-351
G2 X-845 Y-348 I3
G1 X-830
G2 X-827 Y-351 J-3
G1 Y-371
G3 X-810 Y-388 I17
G1 X-800
G3 X-783 Y-371 J17
G1 Y-351
G2 X-780 Y-348 I3
G1 X-765
G2 X-762 Y-351 J-3
G1 Y-371
G3 X-745 Y-388 I17
G1 X-735
G3 X-718 Y-371 J17
G1 Y-351
G2 X-715 Y-348 I3
G1 X-700
G2 X-697 Y-351 J-3
G1 Y-371
G3 X-680 Y-388 I17
G1 X-670
G3 X-653 Y-371 J17
G1 Y-351
G2 X-650 Y-348 I3
G1 X-635
G2 X-632 Y-351 J-3
G1 Y-371
G3 X-615 Y-388 I17
G1 X-610
X-605 Z3.968
G3 X-588 Y-371 Z3.796 J17
G1 Y-351 Z3.667
G2 X-585 Y-348 Z3.637 I3
G1 X-570 Z3.54
G2 X-567 Y-351 Z3.51 J-3
G1 Y-371 Z3.381
G3 X-550 Y-388 Z3.209 I17
G1 X-540 Z3.145
G3 X-523 Y-371 Z2.973 J17
G1 Y-351 Z2.844
G2 X-520 Y-348 Z2.814 I3
G1 X-505 Z2.718
G2 X-502 Y-351 Z2.687 J-3
G1 Y-371 Z2.559
G3 X-485 Y-388 Z2.387 I17
G1 X-475 Z2.322
G3 X-458 Y-371 Z2.15 J17
G1 Y-351 Z2.022
G2 X-456.287 Y-348.29 Z2 I3
X-455 Y-348 I1.287 J-2.71
G1 X-440
G2 X-437 Y-351 J-3
G1 Y-371
G3 X-420 Y-388 I17
G1 X-410
G3 X-393 Y-371 J17
G1 Y-351
G2 X-390 Y-348 I3
G1 X-375
G2 X-372 Y-351 J-3
G1 Y-371
G3 X-355 Y-388 I17
G1 X-345
G3 X-328 Y-371 J17
G1 Y-351
G2 X-325 Y-348 I3
G1 X-310
G2 X-307 Y-351 J-3
G1 Y-371
G3 X-290 Y-388 I17
G1 X-280
G3 X-263 Y-371 J17
G1 Y-351
G2 X-260 Y-348 I3
G1 X-245
G2 X-242 Y-351 J-3
G1 Y-371
G3 X-225 Y-388 I17
G1 X-215
G3 X-198 Y-371 J17
G1 Y-351
G2 X-195 Y-348 I3
G1 X-180
G2 X-177 Y-351 J-3
G1 Y-371
G3 X-160 Y-388 I17
G1 X-150
G3 X-133 Y-371 J17
G1 Y-351
G2 X-130 Y-348 I3
G1 X-115
G2 X-112 Y-351 J-3
G1 Y-371
G3 X-95 Y-388 I17
G1 X-85
G3 X-68 Y-371 J17
G1 Y-351
G2 X-65 Y-348 I3
G1 X-49.465
Z5
X-23.465
Z2 F30
X0 F3000
G2 X3 Y-351 J-3
G1 Y-452
G2 X0 Y-455 I-3
G1 X-20.373
Z5
X-46.373
Z2 F30
X-305.393 F3000
Z5
X-331.393
Z2 F30
X-601.429 F3000
Z5
X-627.429
Z2 F30
X-890.736 F3000
Z5
X-916.736
Z2 F30
X-1176.71 F3000
Z5
X-1202.71
Z2 F30
X-1220 F3000
G2 X-1223 Y-452 J3
G1 Y-351
G2 X-1220 Y-348 I3
G1 X-1194.49
Z5
X-1168.49
Z2 F30
X-1155 F3000
G2 X-1152 Y-351 J-3
G1 Y-371
G3 X-1135 Y-388 I17
G1 X-1125
G3 X-1108 Y-371 J17
G1 Y-351
G2 X-1105 Y-348 I3
G1 X-1090
G2 X-1087 Y-351 J-3
G1 Y-371
G3 X-1070 Y-388 I17
G1 X-1060
G3 X-1043 Y-371 J17
G1 Y-351
G2 X-1040 Y-348 I3
G1 X-1025
G2 X-1022 Y-351 J-3
G1 Y-371
G3 X-1005 Y-388 I17
G1 X-995
G3 X-978 Y-371 J17
G1 Y-351
G2 X-975 Y-348 I3
G1 X-960
G2 X-957 Y-351 J-3
G1 Y-371
G3 X-940 Y-388 I17
G1 X-930
G3 X-913 Y-371 J17
G1 Y-351
G2 X-910 Y-348 I3
G1 X-895
G2 X-892 Y-351 J-3
G1 Y-371
G3 X-875 Y-388 I17
G1 X-865
G3 X-848 Y-371 J17
G1 Y-351
G2 X-845 Y-348 I3
G1 X-830
G2 X-827 Y-351 J-3
G1 Y-371
G3 X-810 Y-388 I17
G1 X-800
G3 X-783 Y-371 J17
G1 Y-351
G2 X-780 Y-348 I3
G1 X-765
G2 X-762 Y-351 J-3
G1 Y-371
G3 X-745 Y-388 I17
G1 X-735
G3 X-718 Y-371 J17
G1 Y-351
G2 X-715 Y-348 I3
G1 X-700
G2 X-697 Y-351 J-3
G1 Y-371
G3 X-680 Y-388 I17
G1 X-670
G3 X-653 Y-371 J17
G1 Y-351
G2 X-650 Y-348 I3
G1 X-635
G2 X-632 Y-351 J-3
G1 Y-371
G3 X-615 Y-388 I17
G1 X-605
G3 X-588 Y-371 J17
G1 Y-351
G2 X-585 Y-348 I3
G1 X-570
G2 X-567 Y-351 J-3
G1 Y-371
G3 X-550 Y-388 I17
G1 X-540
G3 X-523 Y-371 J17
G1 Y-351
G2 X-520 Y-348 I3
G1 X-505
G2 X-502 Y-351 J-3
G1 Y-371
G3 X-485 Y-388 I17
G1 X-475
G3 X-458 Y-371 J17
G1 Y-351
G2 X-456.287 Y-348.29 I3
X-455 Y-348 Z1.991 I1.287 J-2.71
G1 X-440 Z1.895
G2 X-437 Y-351 Z1.865 J-3
G1 Y-371 Z1.736
G3 X-420 Y-388 Z1.564 I17
G1 X-410 Z1.5
G3 X-393 Y-371 Z1.328 J17
G1 Y-351 Z1.199
G2 X-390 Y-348 Z1.169 I3
G1 X-375 Z1.072
G2 X-372 Y-351 Z1.042 J-3
G1 Y-371 Z0.913
G3 X-355 Y-388 Z0.741 I17
G1 X-345 Z0.677
G3 X-328 Y-371 Z0.505 J17
G1 Y-351 Z0.376
G2 X-325 Y-348 Z0.346 I3
G1 X-310 Z0.249
G2 X-307 Y-351 Z0.219 J-3
G1 Y-371 Z0.09
G3 X-301.522 Y-383.499 Z0 I17
X-290 Y-388 I11.522 J12.499
G1 X-280
G3 X-263 Y-371 J17
G1 Y-351
G2 X-260 Y-348 I3
G1 X-245
G2 X-242 Y-351 J-3
G1 Y-371
G3 X-225 Y-388 I17
G1 X-215
G3 X-198 Y-371 J17
G1 Y-351
G2 X-195 Y-348 I3
G1 X-180
G2 X-177 Y-351 J-3
G1 Y-371
G3 X-160 Y-388 I17
G1 X-150
G3 X-133 Y-371 J17
G1 Y-351
G2 X-130 Y-348 I3
G1 X-115
G2 X-112 Y-351 J-3
G1 Y-371
G3 X-95 Y-388 I17
G1 X-85
G3 X-68 Y-371 J17
G1 Y-351
G2 X-65 Y-348 I3
G1 X-49.465
Z5
X-23.465
Z0 F30
X0 F3000
G2 X3 Y-351 J-3
G1 Y-452
G2 X0 Y-455 I-3
G1 X-20.373
Z5
X-46.373
Z0 F30
X-305.393 F3000
Z5
X-331.393
Z0 F30
X-601.429 F3000
Z5
X-627.429
Z0 F30
X-890.736 F3000
Z5
X-916.736
Z0 F30
X-1176.71 F3000
Z5
X-1202.71
Z0 F30
X-1220 F3000
G2 X-1223 Y-452 J3
G1 Y-351
G2 X-1220 Y-348 I3
G1 X-1194.49
Z5
X-1168.49
Z0 F30
X-1155 F3000
G2 X-1152 Y-351 J-3
G1 Y-371
G3 X-1135 Y-388 I17
G1 X-1125
G3 X-1108 Y-371 J17
G1 Y-351
G2 X-1105 Y-348 I3
G1 X-1090
G2 X-1087 Y-351 J-3
G1 Y-371
G3 X-1070 Y-388 I17
G1 X-1060
G3 X-1043 Y-371 J17
G1 Y-351
G2 X-1040 Y-348 I3
G1 X-1025
G2 X-1022 Y-351 J-3
G1 Y-371
G3 X-1005 Y-388 I17
G1 X-995
G3 X-978 Y-371 J17
G1 Y-351
G2 X-975 Y-348 I3
G1 X-960
G2 X-957 Y-351 J-3
G1 Y-371
G3 X-940 Y-388 I17
G1 X-930
G3 X-913 Y-371 J17
G1 Y-351
G2 X-910 Y-348 I3
G1 X-895
G2 X-892 Y-351 J-3
G1 Y-371
G3 X-875 Y-388 I17
G1 X-865
G3 X-848 Y-371 J17
G1 Y-351
G2 X-845 Y-348 I3
G1 X-830
G2 X-827 Y-351 J-3
G1 Y-371
G3 X-810 Y-388 I17
G1 X-800
G3 X-783 Y-371 J17
G1 Y-351
G2 X-780 Y-348 I3
G1 X-765
G2 X-762 Y-351 J-3
G1 Y-371
G3 X-745 Y-388 I17
G1 X-735
G3 X-718 Y-371 J17
G1 Y-351
G2 X-715 Y-348 I3
G1 X-700
G2 X-697 Y-351 J-3
G1 Y-371
G3 X-680 Y-388 I17
G1 X-670
G3 X-653 Y-371 J17
G1 Y-351
G2 X-650 Y-348 I3
G1 X-635
G2 X-632 Y-351 J-3
G1 Y-371
G3 X-615 Y-388 I17
G1 X-605
G3 X-588 Y-371 J17
G1 Y-351
G2 X-585 Y-348 I3
G1 X-570
G2 X-567 Y-351 J-3
G1 Y-371
G3 X-550 Y-388 I17
G1 X-540
G3 X-523 Y-371 J17
G1 Y-351
G2 X-520 Y-348 I3
G1 X-505
G2 X-502 Y-351 J-3
G1 Y-371
G3 X-485 Y-388 I17
G1 X-475
G3 X-458 Y-371 J17
G1 Y-351
G2 X-455 Y-348 I3
G1 X-440
G2 X-437 Y-351 J-3
G1 Y-371
G3 X-420 Y-388 I17
G1 X-410
G3 X-393 Y-371 J17
G1 Y-351
G2 X-390 Y-348 I3
G1 X-375
G2 X-372 Y-351 J-3
G1 Y-371
G3 X-355 Y-388 I17
G1 X-345
G3 X-328 Y-371 J17
G1 Y-351
G2 X-325 Y-348 I3
G1 X-310
G2 X-307 Y-351 J-3
G1 Y-371
G3 X-301.522 Y-383.499 I17
G0 Z33
M30
%
