%
(1001)
(origin spoilboard top)
(T1  D=6.15 CR=0 - ZMIN=0 - flat end mill)
G90 G94
G17
G21

(2D Contour2)
M9
T1 M6
S7000 M3
G54
M8
G0 X37.08 Y-4.298
Z33
Z23
G1 Z21.136 F333.3
G18 G2 X37.695 Z20.521 I0.615
G1 X38.31 F850
G17 G2 X38.925 Y-4.913 J-0.615
G1 Y-19.841 Z16.521 F350
Y-19.92 Z16.505
Y-20 Z16.5
Y0 F850
G2 X42.5 Y3.575 I3.575
G1 X90
G0 Z23
X34.467 Y-28.357
G1 Z21.136 F333.3
X34.473 Y-28.361 Z21.04
X34.491 Y-28.375 Z20.946
X34.521 Y-28.398 Z20.857
X34.56 Y-28.428 Z20.774
X34.61 Y-28.467 Z20.701
X34.668 Y-28.511 Z20.638
X34.733 Y-28.562 Z20.588
X34.804 Y-28.616 Z20.551
X34.878 Y-28.673 Z20.529
X34.954 Y-28.732 Z20.521
X35.441 Y-29.108 F850
G2 X35.553 Y-29.97 I-0.376 J-0.487
G1 X35.364 Y-30.216 Z20.438 F350
X35.067 Y-30.579 Z20.312
X34.76 Y-30.933 Z20.187
X34.442 Y-31.279 Z20.061
X34.115 Y-31.615 Z19.935
X33.779 Y-31.942 Z19.809
X33.433 Y-32.26 Z19.684
X33.079 Y-32.567 Z19.558
X32.716 Y-32.864 Z19.432
X32.344 Y-33.15 Z19.307
X31.965 Y-33.426 Z19.181
X31.577 Y-33.691 Z19.055
X31.183 Y-33.944 Z18.93
X30.781 Y-34.187 Z18.804
X30.372 Y-34.417 Z18.678
X29.958 Y-34.636 Z18.552
X29.537 Y-34.843 Z18.427
X29.11 Y-35.038 Z18.301
X28.678 Y-35.221 Z18.175
X28.241 Y-35.391 Z18.05
X27.799 Y-35.549 Z17.924
X27.353 Y-35.694 Z17.798
X26.902 Y-35.826 Z17.672
X26.449 Y-35.945 Z17.547
X25.992 Y-36.051 Z17.421
X25.532 Y-36.144 Z17.295
X25.07 Y-36.224 Z17.17
X24.605 Y-36.291 Z17.044
X24.139 Y-36.345 Z16.918
X23.672 Y-36.385 Z16.793
X23.204 Y-36.412 Z16.667
X22.735 Y-36.425 Z16.541
X22.659 Z16.521
X22.58 Z16.505
X22.5 Z16.5
X22.735 F850
X23.204 Y-36.412
X23.672 Y-36.385
X24.139 Y-36.345
X24.605 Y-36.291
X25.07 Y-36.224
X25.532 Y-36.144
X25.992 Y-36.051
X26.449 Y-35.945
X26.902 Y-35.826
X27.353 Y-35.694
X27.799 Y-35.549
X28.241 Y-35.391
X28.678 Y-35.221
X29.11 Y-35.038
X29.537 Y-34.843
X29.958 Y-34.636
X30.372 Y-34.417
X30.781 Y-34.187
X31.183 Y-33.944
X31.577 Y-33.691
X31.965 Y-33.426
X32.344 Y-33.15
X32.716 Y-32.864
X33.079 Y-32.567
X33.433 Y-32.26
X33.779 Y-31.942
X34.115 Y-31.615
X34.442 Y-31.279
X34.76 Y-30.933
X35.067 Y-30.579
X35.364 Y-30.216
X35.65 Y-29.844
X35.926 Y-29.465
X36.191 Y-29.077
X36.444 Y-28.683
X36.687 Y-28.281
X36.917 Y-27.872
X37.136 Y-27.458
X37.343 Y-27.037
X37.538 Y-26.61
X37.721 Y-26.178
X37.891 Y-25.741
X38.049 Y-25.299
X38.194 Y-24.853
X38.326 Y-24.402
X38.445 Y-23.949
X38.551 Y-23.492
X38.644 Y-23.032
X38.724 Y-22.57
X38.791 Y-22.105
X38.845 Y-21.639
X38.885 Y-21.172
X38.912 Y-20.704
X38.925 Y-20.235
Y-20
G0 Z23
X42.686 Y3.575
G1 Z19 F333.3
Z16.5
X42.5 Z16.489 F350
G3 X38.925 Y0 Z16.163 J-3.575
G1 Y-20 Z15
Y0 F850
G2 X42.5 Y3.575 I3.575
G1 X90
G0 Z23
X-2.08 Y-10.087
G1 Z21.136 F333.3
G18 G3 X-2.695 Z20.521 I-0.615
G1 X-3.31 F850
G17 G2 X-3.925 Y-9.472 J0.615
G1 Y0 Z17.983 F350
G3 X-7.341 Y3.571 Z16.521 I-3.575
G1 X-7.393 Y3.573 Z16.509
X-7.446 Y3.575 Z16.502
X-7.5 Z16.5
G2 X-3.925 Y0 J-3.575 F850
G1 Y-20
Y-20.235
X-3.912 Y-20.704
X-3.885 Y-21.172
X-3.845 Y-21.639
X-3.791 Y-22.105
X-3.724 Y-22.57
X-3.644 Y-23.032
X-3.551 Y-23.492
X-3.445 Y-23.949
X-3.326 Y-24.402
X-3.194 Y-24.853
X-3.049 Y-25.299
X-2.891 Y-25.741
X-2.721 Y-26.178
X-2.538 Y-26.61
X-2.343 Y-27.037
X-2.136 Y-27.458
X-1.917 Y-27.872
X-1.687 Y-28.281
X-1.444 Y-28.683
X-1.191 Y-29.077
X-0.926 Y-29.465
X-0.65 Y-29.844
X-0.364 Y-30.216
X-0.067 Y-30.579
X0.24 Y-30.933
X0.558 Y-31.279
X0.885 Y-31.615
X1.221 Y-31.942
X1.567 Y-32.26
X1.921 Y-32.567
X2.284 Y-32.864
X2.656 Y-33.15
X3.035 Y-33.426
X3.423 Y-33.691
X3.817 Y-33.944
X4.219 Y-34.187
X4.628 Y-34.417
X5.042 Y-34.636
X5.463 Y-34.843
X5.89 Y-35.038
X6.322 Y-35.221
X6.759 Y-35.391
X7.201 Y-35.549
X7.647 Y-35.694
X8.098 Y-35.826
X8.551 Y-35.945
X9.008 Y-36.051
X9.468 Y-36.144
X9.93 Y-36.224
X10.395 Y-36.291
X10.861 Y-36.345
X11.328 Y-36.385
X11.796 Y-36.412
X12.265 Y-36.425
X22.5
X12.265 Z16.25 F350
X11.796 Y-36.412 Z16.239
X11.328 Y-36.385 Z16.227
X10.861 Y-36.345 Z16.216
X10.395 Y-36.291 Z16.204
X9.93 Y-36.224 Z16.193
X9.468 Y-36.144 Z16.181
X9.008 Y-36.051 Z16.17
X8.551 Y-35.945 Z16.158
X8.098 Y-35.826 Z16.147
X7.647 Y-35.694 Z16.135
X7.201 Y-35.549 Z16.124
X6.759 Y-35.391 Z16.113
X6.322 Y-35.221 Z16.101
X5.89 Y-35.038 Z16.09
X5.463 Y-34.843 Z16.078
X5.042 Y-34.636 Z16.067
X4.628 Y-34.417 Z16.055
X4.219 Y-34.187 Z16.044
X3.817 Y-33.944 Z16.032
X3.423 Y-33.691 Z16.021
X3.035 Y-33.426 Z16.009
X2.656 Y-33.15 Z15.998
X2.284 Y-32.864 Z15.987
X1.921 Y-32.567 Z15.975
X1.567 Y-32.26 Z15.964
X1.221 Y-31.942 Z15.952
X0.885 Y-31.615 Z15.941
X0.558 Y-31.279 Z15.929
X0.24 Y-30.933 Z15.918
X-0.067 Y-30.579 Z15.906
X-0.364 Y-30.216 Z15.895
X-0.65 Y-29.844 Z15.883
X-0.926 Y-29.465 Z15.872
X-1.191 Y-29.077 Z15.86
X-1.444 Y-28.683 Z15.849
X-1.687 Y-28.281 Z15.838
X-1.917 Y-27.872 Z15.826
X-2.136 Y-27.458 Z15.815
X-2.343 Y-27.037 Z15.803
X-2.538 Y-26.61 Z15.792
X-2.721 Y-26.178 Z15.78
X-2.891 Y-25.741 Z15.769
X-3.049 Y-25.299 Z15.757
X-3.194 Y-24.853 Z15.746
X-3.326 Y-24.402 Z15.734
X-3.445 Y-23.949 Z15.723
X-3.551 Y-23.492 Z15.712
X-3.644 Y-23.032 Z15.7
X-3.724 Y-22.57 Z15.689
X-3.791 Y-22.105 Z15.677
X-3.845 Y-21.639 Z15.666
X-3.885 Y-21.172 Z15.654
X-3.912 Y-20.704 Z15.643
X-3.925 Y-20.235 Z15.631
Y0 Z15.137
G3 X-7.5 Y3.575 Z15 I-3.575
G2 X-3.925 Y0 J-3.575 F850
G1 Y-20
Y-20.235
X-3.912 Y-20.704
X-3.885 Y-21.172
X-3.845 Y-21.639
X-3.791 Y-22.105
X-3.724 Y-22.57
X-3.644 Y-23.032
X-3.551 Y-23.492
X-3.445 Y-23.949
X-3.326 Y-24.402
X-3.194 Y-24.853
X-3.049 Y-25.299
X-2.891 Y-25.741
X-2.721 Y-26.178
X-2.538 Y-26.61
X-2.343 Y-27.037
X-2.136 Y-27.458
X-1.917 Y-27.872
X-1.687 Y-28.281
X-1.444 Y-28.683
X-1.191 Y-29.077
X-0.926 Y-29.465
X-0.65 Y-29.844
X-0.364 Y-30.216
X-0.067 Y-30.579
X0.24 Y-30.933
X0.558 Y-31.279
X0.885 Y-31.615
X1.221 Y-31.942
X1.567 Y-32.26
X1.921 Y-32.567
X2.284 Y-32.864
X2.656 Y-33.15
X3.035 Y-33.426
X3.423 Y-33.691
X3.817 Y-33.944
X4.219 Y-34.187
X4.628 Y-34.417
X5.042 Y-34.636
X5.463 Y-34.843
X5.89 Y-35.038
X6.322 Y-35.221
X6.759 Y-35.391
X7.201 Y-35.549
X7.647 Y-35.694
X8.098 Y-35.826
X8.551 Y-35.945
X9.008 Y-36.051
X9.468 Y-36.144
X9.93 Y-36.224
X10.395 Y-36.291
X10.861 Y-36.345
X11.328 Y-36.385
X11.796 Y-36.412
X12.265 Y-36.425
X22.5
G0 Z23
X34.467 Y-28.357
G1 Z19.636 F333.3
X34.473 Y-28.361 Z19.54
X34.491 Y-28.375 Z19.446
X34.521 Y-28.398 Z19.357
X34.56 Y-28.428 Z19.274
X34.61 Y-28.467 Z19.201
X34.668 Y-28.511 Z19.138
X34.733 Y-28.562 Z19.088
X34.804 Y-28.616 Z19.051
X34.878 Y-28.673 Z19.029
X34.954 Y-28.732 Z19.021
X35.441 Y-29.108 F850
G2 X35.553 Y-29.97 I-0.376 J-0.487
G1 X35.364 Y-30.216 Z18.938 F350
X35.067 Y-30.579 Z18.812
X34.76 Y-30.933 Z18.687
X34.442 Y-31.279 Z18.561
X34.115 Y-31.615 Z18.435
X33.779 Y-31.942 Z18.309
X33.433 Y-32.26 Z18.184
X33.079 Y-32.567 Z18.058
X32.716 Y-32.864 Z17.932
X32.344 Y-33.15 Z17.807
X31.965 Y-33.426 Z17.681
X31.577 Y-33.691 Z17.555
X31.183 Y-33.944 Z17.43
X30.781 Y-34.187 Z17.304
X30.372 Y-34.417 Z17.178
X29.958 Y-34.636 Z17.052
X29.537 Y-34.843 Z16.927
X29.11 Y-35.038 Z16.801
X28.678 Y-35.221 Z16.675
X28.241 Y-35.391 Z16.55
X27.799 Y-35.549 Z16.424
X27.353 Y-35.694 Z16.298
X26.902 Y-35.826 Z16.172
X26.449 Y-35.945 Z16.047
X25.992 Y-36.051 Z15.921
X25.532 Y-36.144 Z15.795
X25.07 Y-36.224 Z15.67
X24.605 Y-36.291 Z15.544
X24.139 Y-36.345 Z15.418
X23.672 Y-36.385 Z15.293
X23.204 Y-36.412 Z15.167
X22.735 Y-36.425 Z15.041
X22.659 Z15.021
X22.58 Z15.005
X22.5 Z15
X22.735 F850
X23.204 Y-36.412
X23.672 Y-36.385
X24.139 Y-36.345
X24.605 Y-36.291
X25.07 Y-36.224
X25.532 Y-36.144
X25.992 Y-36.051
X26.449 Y-35.945
X26.902 Y-35.826
X27.353 Y-35.694
X27.799 Y-35.549
X28.241 Y-35.391
X28.678 Y-35.221
X29.11 Y-35.038
X29.537 Y-34.843
X29.958 Y-34.636
X30.372 Y-34.417
X30.781 Y-34.187
X31.183 Y-33.944
X31.577 Y-33.691
X31.965 Y-33.426
X32.344 Y-33.15
X32.716 Y-32.864
X33.079 Y-32.567
X33.433 Y-32.26
X33.779 Y-31.942
X34.115 Y-31.615
X34.442 Y-31.279
X34.76 Y-30.933
X35.067 Y-30.579
X35.364 Y-30.216
X35.65 Y-29.844
X35.926 Y-29.465
X36.191 Y-29.077
X36.444 Y-28.683
X36.687 Y-28.281
X36.917 Y-27.872
X37.136 Y-27.458
X37.343 Y-27.037
X37.538 Y-26.61
X37.721 Y-26.178
X37.891 Y-25.741
X38.049 Y-25.299
X38.194 Y-24.853
X38.326 Y-24.402
X38.445 Y-23.949
X38.551 Y-23.492
X38.644 Y-23.032
X38.724 Y-22.57
X38.791 Y-22.105
X38.845 Y-21.639
X38.885 Y-21.172
X38.912 Y-20.704
X38.925 Y-20.235
Y-20
G0 Z23
X37.08 Y-4.298
G1 Z18.136 F333.3
G18 G2 X37.695 Z17.521 I0.615
G1 X38.31 F850
G17 G2 X38.925 Y-4.913 J-0.615
G1 Y-19.841 Z13.521 F350
Y-19.92 Z13.505
Y-20 Z13.5
Y0 F850
G2 X42.5 Y3.575 I3.575
G1 X90
G0 Z23
X34.467 Y-28.357
G1 Z18.136 F333.3
X34.473 Y-28.361 Z18.04
X34.491 Y-28.375 Z17.946
X34.521 Y-28.398 Z17.857
X34.56 Y-28.428 Z17.774
X34.61 Y-28.467 Z17.701
X34.668 Y-28.511 Z17.638
X34.733 Y-28.562 Z17.588
X34.804 Y-28.616 Z17.551
X34.878 Y-28.673 Z17.529
X34.954 Y-28.732 Z17.521
X35.441 Y-29.108 F850
G2 X35.553 Y-29.97 I-0.376 J-0.487
G1 X35.364 Y-30.216 Z17.438 F350
X35.067 Y-30.579 Z17.312
X34.76 Y-30.933 Z17.187
X34.442 Y-31.279 Z17.061
X34.115 Y-31.615 Z16.935
X33.779 Y-31.942 Z16.809
X33.433 Y-32.26 Z16.684
X33.079 Y-32.567 Z16.558
X32.716 Y-32.864 Z16.432
X32.344 Y-33.15 Z16.307
X31.965 Y-33.426 Z16.181
X31.577 Y-33.691 Z16.055
X31.183 Y-33.944 Z15.93
X30.781 Y-34.187 Z15.804
X30.372 Y-34.417 Z15.678
X29.958 Y-34.636 Z15.552
X29.537 Y-34.843 Z15.427
X29.11 Y-35.038 Z15.301
X28.678 Y-35.221 Z15.175
X28.241 Y-35.391 Z15.05
X27.799 Y-35.549 Z14.924
X27.353 Y-35.694 Z14.798
X26.902 Y-35.826 Z14.672
X26.449 Y-35.945 Z14.547
X25.992 Y-36.051 Z14.421
X25.532 Y-36.144 Z14.295
X25.07 Y-36.224 Z14.17
X24.605 Y-36.291 Z14.044
X24.139 Y-36.345 Z13.918
X23.672 Y-36.385 Z13.793
X23.204 Y-36.412 Z13.667
X22.735 Y-36.425 Z13.541
X22.659 Z13.521
X22.58 Z13.505
X22.5 Z13.5
X22.735 F850
X23.204 Y-36.412
X23.672 Y-36.385
X24.139 Y-36.345
X24.605 Y-36.291
X25.07 Y-36.224
X25.532 Y-36.144
X25.992 Y-36.051
X26.449 Y-35.945
X26.902 Y-35.826
X27.353 Y-35.694
X27.799 Y-35.549
X28.241 Y-35.391
X28.678 Y-35.221
X29.11 Y-35.038
X29.537 Y-34.843
X29.958 Y-34.636
X30.372 Y-34.417
X30.781 Y-34.187
X31.183 Y-33.944
X31.577 Y-33.691
X31.965 Y-33.426
X32.344 Y-33.15
X32.716 Y-32.864
X33.079 Y-32.567
X33.433 Y-32.26
X33.779 Y-31.942
X34.115 Y-31.615
X34.442 Y-31.279
X34.76 Y-30.933
X35.067 Y-30.579
X35.364 Y-30.216
X35.65 Y-29.844
X35.926 Y-29.465
X36.191 Y-29.077
X36.444 Y-28.683
X36.687 Y-28.281
X36.917 Y-27.872
X37.136 Y-27.458
X37.343 Y-27.037
X37.538 Y-26.61
X37.721 Y-26.178
X37.891 Y-25.741
X38.049 Y-25.299
X38.194 Y-24.853
X38.326 Y-24.402
X38.445 Y-23.949
X38.551 Y-23.492
X38.644 Y-23.032
X38.724 Y-22.57
X38.791 Y-22.105
X38.845 Y-21.639
X38.885 Y-21.172
X38.912 Y-20.704
X38.925 Y-20.235
Y-20
G0 Z23
X42.686 Y3.575
G1 Z16 F333.3
Z13.5
X42.5 Z13.489 F350
G3 X38.925 Y0 Z13.163 J-3.575
G1 Y-20 Z12
Y0 F850
G2 X42.5 Y3.575 I3.575
G1 X90
G0 Z23
X-2.08 Y-10.087
G1 Z18.136 F333.3
G18 G3 X-2.695 Z17.521 I-0.615
G1 X-3.31 F850
G17 G2 X-3.925 Y-9.472 J0.615
G1 Y0 Z14.983 F350
G3 X-7.341 Y3.571 Z13.521 I-3.575
G1 X-7.393 Y3.573 Z13.509
X-7.446 Y3.575 Z13.502
X-7.5 Z13.5
G2 X-3.925 Y0 J-3.575 F850
G1 Y-20
Y-20.235
X-3.912 Y-20.704
X-3.885 Y-21.172
X-3.845 Y-21.639
X-3.791 Y-22.105
X-3.724 Y-22.57
X-3.644 Y-23.032
X-3.551 Y-23.492
X-3.445 Y-23.949
X-3.326 Y-24.402
X-3.194 Y-24.853
X-3.049 Y-25.299
X-2.891 Y-25.741
X-2.721 Y-26.178
X-2.538 Y-26.61
X-2.343 Y-27.037
X-2.136 Y-27.458
X-1.917 Y-27.872
X-1.687 Y-28.281
X-1.444 Y-28.683
X-1.191 Y-29.077
X-0.926 Y-29.465
X-0.65 Y-29.844
X-0.364 Y-30.216
X-0.067 Y-30.579
X0.24 Y-30.933
X0.558 Y-31.279
X0.885 Y-31.615
X1.221 Y-31.942
X1.567 Y-32.26
X1.921 Y-32.567
X2.284 Y-32.864
X2.656 Y-33.15
X3.035 Y-33.426
X3.423 Y-33.691
X3.817 Y-33.944
X4.219 Y-34.187
X4.628 Y-34.417
X5.042 Y-34.636
X5.463 Y-34.843
X5.89 Y-35.038
X6.322 Y-35.221
X6.759 Y-35.391
X7.201 Y-35.549
X7.647 Y-35.694
X8.098 Y-35.826
X8.551 Y-35.945
X9.008 Y-36.051
X9.468 Y-36.144
X9.93 Y-36.224
X10.395 Y-36.291
X10.861 Y-36.345
X11.328 Y-36.385
X11.796 Y-36.412
X12.265 Y-36.425
X22.5
X12.265 Z13.25 F350
X11.796 Y-36.412 Z13.239
X11.328 Y-36.385 Z13.227
X10.861 Y-36.345 Z13.216
X10.395 Y-36.291 Z13.204
X9.93 Y-36.224 Z13.193
X9.468 Y-36.144 Z13.181
X9.008 Y-36.051 Z13.17
X8.551 Y-35.945 Z13.158
X8.098 Y-35.826 Z13.147
X7.647 Y-35.694 Z13.135
X7.201 Y-35.549 Z13.124
X6.759 Y-35.391 Z13.113
X6.322 Y-35.221 Z13.101
X5.89 Y-35.038 Z13.09
X5.463 Y-34.843 Z13.078
X5.042 Y-34.636 Z13.067
X4.628 Y-34.417 Z13.055
X4.219 Y-34.187 Z13.044
X3.817 Y-33.944 Z13.032
X3.423 Y-33.691 Z13.021
X3.035 Y-33.426 Z13.009
X2.656 Y-33.15 Z12.998
X2.284 Y-32.864 Z12.987
X1.921 Y-32.567 Z12.975
X1.567 Y-32.26 Z12.964
X1.221 Y-31.942 Z12.952
X0.885 Y-31.615 Z12.941
X0.558 Y-31.279 Z12.929
X0.24 Y-30.933 Z12.918
X-0.067 Y-30.579 Z12.906
X-0.364 Y-30.216 Z12.895
X-0.65 Y-29.844 Z12.883
X-0.926 Y-29.465 Z12.872
X-1.191 Y-29.077 Z12.86
X-1.444 Y-28.683 Z12.849
X-1.687 Y-28.281 Z12.838
X-1.917 Y-27.872 Z12.826
X-2.136 Y-27.458 Z12.815
X-2.343 Y-27.037 Z12.803
X-2.538 Y-26.61 Z12.792
X-2.721 Y-26.178 Z12.78
X-2.891 Y-25.741 Z12.769
X-3.049 Y-25.299 Z12.757
X-3.194 Y-24.853 Z12.746
X-3.326 Y-24.402 Z12.734
X-3.445 Y-23.949 Z12.723
X-3.551 Y-23.492 Z12.712
X-3.644 Y-23.032 Z12.7
X-3.724 Y-22.57 Z12.689
X-3.791 Y-22.105 Z12.677
X-3.845 Y-21.639 Z12.666
X-3.885 Y-21.172 Z12.654
X-3.912 Y-20.704 Z12.643
X-3.925 Y-20.235 Z12.631
Y0 Z12.137
G3 X-7.5 Y3.575 Z12 I-3.575
G2 X-3.925 Y0 J-3.575 F850
G1 Y-20
Y-20.235
X-3.912 Y-20.704
X-3.885 Y-21.172
X-3.845 Y-21.639
X-3.791 Y-22.105
X-3.724 Y-22.57
X-3.644 Y-23.032
X-3.551 Y-23.492
X-3.445 Y-23.949
X-3.326 Y-24.402
X-3.194 Y-24.853
X-3.049 Y-25.299
X-2.891 Y-25.741
X-2.721 Y-26.178
X-2.538 Y-26.61
X-2.343 Y-27.037
X-2.136 Y-27.458
X-1.917 Y-27.872
X-1.687 Y-28.281
X-1.444 Y-28.683
X-1.191 Y-29.077
X-0.926 Y-29.465
X-0.65 Y-29.844
X-0.364 Y-30.216
X-0.067 Y-30.579
X0.24 Y-30.933
X0.558 Y-31.279
X0.885 Y-31.615
X1.221 Y-31.942
X1.567 Y-32.26
X1.921 Y-32.567
X2.284 Y-32.864
X2.656 Y-33.15
X3.035 Y-33.426
X3.423 Y-33.691
X3.817 Y-33.944
X4.219 Y-34.187
X4.628 Y-34.417
X5.042 Y-34.636
X5.463 Y-34.843
X5.89 Y-35.038
X6.322 Y-35.221
X6.759 Y-35.391
X7.201 Y-35.549
X7.647 Y-35.694
X8.098 Y-35.826
X8.551 Y-35.945
X9.008 Y-36.051
X9.468 Y-36.144
X9.93 Y-36.224
X10.395 Y-36.291
X10.861 Y-36.345
X11.328 Y-36.385
X11.796 Y-36.412
X12.265 Y-36.425
X22.5
G0 Z23
X34.467 Y-28.357
G1 Z16.636 F333.3
X34.473 Y-28.361 Z16.54
X34.491 Y-28.375 Z16.446
X34.521 Y-28.398 Z16.357
X34.56 Y-28.428 Z16.274
X34.61 Y-28.467 Z16.201
X34.668 Y-28.511 Z16.138
X34.733 Y-28.562 Z16.088
X34.804 Y-28.616 Z16.051
X34.878 Y-28.673 Z16.029
X34.954 Y-28.732 Z16.021
X35.441 Y-29.108 F850
G2 X35.553 Y-29.97 I-0.376 J-0.487
G1 X35.364 Y-30.216 Z15.938 F350
X35.067 Y-30.579 Z15.812
X34.76 Y-30.933 Z15.687
X34.442 Y-31.279 Z15.561
X34.115 Y-31.615 Z15.435
X33.779 Y-31.942 Z15.309
X33.433 Y-32.26 Z15.184
X33.079 Y-32.567 Z15.058
X32.716 Y-32.864 Z14.932
X32.344 Y-33.15 Z14.807
X31.965 Y-33.426 Z14.681
X31.577 Y-33.691 Z14.555
X31.183 Y-33.944 Z14.43
X30.781 Y-34.187 Z14.304
X30.372 Y-34.417 Z14.178
X29.958 Y-34.636 Z14.052
X29.537 Y-34.843 Z13.927
X29.11 Y-35.038 Z13.801
X28.678 Y-35.221 Z13.675
X28.241 Y-35.391 Z13.55
X27.799 Y-35.549 Z13.424
X27.353 Y-35.694 Z13.298
X26.902 Y-35.826 Z13.172
X26.449 Y-35.945 Z13.047
X25.992 Y-36.051 Z12.921
X25.532 Y-36.144 Z12.795
X25.07 Y-36.224 Z12.67
X24.605 Y-36.291 Z12.544
X24.139 Y-36.345 Z12.418
X23.672 Y-36.385 Z12.293
X23.204 Y-36.412 Z12.167
X22.735 Y-36.425 Z12.041
X22.659 Z12.021
X22.58 Z12.005
X22.5 Z12
X22.735 F850
X23.204 Y-36.412
X23.672 Y-36.385
X24.139 Y-36.345
X24.605 Y-36.291
X25.07 Y-36.224
X25.532 Y-36.144
X25.992 Y-36.051
X26.449 Y-35.945
X26.902 Y-35.826
X27.353 Y-35.694
X27.799 Y-35.549
X28.241 Y-35.391
X28.678 Y-35.221
X29.11 Y-35.038
X29.537 Y-34.843
X29.958 Y-34.636
X30.372 Y-34.417
X30.781 Y-34.187
X31.183 Y-33.944
X31.577 Y-33.691
X31.965 Y-33.426
X32.344 Y-33.15
X32.716 Y-32.864
X33.079 Y-32.567
X33.433 Y-32.26
X33.779 Y-31.942
X34.115 Y-31.615
X34.442 Y-31.279
X34.76 Y-30.933
X35.067 Y-30.579
X35.364 Y-30.216
X35.65 Y-29.844
X35.926 Y-29.465
X36.191 Y-29.077
X36.444 Y-28.683
X36.687 Y-28.281
X36.917 Y-27.872
X37.136 Y-27.458
X37.343 Y-27.037
X37.538 Y-26.61
X37.721 Y-26.178
X37.891 Y-25.741
X38.049 Y-25.299
X38.194 Y-24.853
X38.326 Y-24.402
X38.445 Y-23.949
X38.551 Y-23.492
X38.644 Y-23.032
X38.724 Y-22.57
X38.791 Y-22.105
X38.845 Y-21.639
X38.885 Y-21.172
X38.912 Y-20.704
X38.925 Y-20.235
Y-20
G0 Z23
X37.08 Y-4.298
G1 Z15.136 F333.3
G18 G2 X37.695 Z14.521 I0.615
G1 X38.31 F850
G17 G2 X38.925 Y-4.913 J-0.615
G1 Y-19.841 Z10.521 F350
Y-19.92 Z10.505
Y-20 Z10.5
Y0 F850
G2 X42.5 Y3.575 I3.575
G1 X90
G0 Z23
X34.467 Y-28.357
G1 Z15.136 F333.3
X34.473 Y-28.361 Z15.04
X34.491 Y-28.375 Z14.946
X34.521 Y-28.398 Z14.857
X34.56 Y-28.428 Z14.774
X34.61 Y-28.467 Z14.701
X34.668 Y-28.511 Z14.638
X34.733 Y-28.562 Z14.588
X34.804 Y-28.616 Z14.551
X34.878 Y-28.673 Z14.529
X34.954 Y-28.732 Z14.521
X35.441 Y-29.108 F850
G2 X35.553 Y-29.97 I-0.376 J-0.487
G1 X35.364 Y-30.216 Z14.438 F350
X35.067 Y-30.579 Z14.312
X34.76 Y-30.933 Z14.187
X34.442 Y-31.279 Z14.061
X34.115 Y-31.615 Z13.935
X33.779 Y-31.942 Z13.809
X33.433 Y-32.26 Z13.684
X33.079 Y-32.567 Z13.558
X32.716 Y-32.864 Z13.432
X32.344 Y-33.15 Z13.307
X31.965 Y-33.426 Z13.181
X31.577 Y-33.691 Z13.055
X31.183 Y-33.944 Z12.93
X30.781 Y-34.187 Z12.804
X30.372 Y-34.417 Z12.678
X29.958 Y-34.636 Z12.552
X29.537 Y-34.843 Z12.427
X29.11 Y-35.038 Z12.301
X28.678 Y-35.221 Z12.175
X28.241 Y-35.391 Z12.05
X27.799 Y-35.549 Z11.924
X27.353 Y-35.694 Z11.798
X26.902 Y-35.826 Z11.672
X26.449 Y-35.945 Z11.547
X25.992 Y-36.051 Z11.421
X25.532 Y-36.144 Z11.295
X25.07 Y-36.224 Z11.17
X24.605 Y-36.291 Z11.044
X24.139 Y-36.345 Z10.918
X23.672 Y-36.385 Z10.793
X23.204 Y-36.412 Z10.667
X22.735 Y-36.425 Z10.541
X22.659 Z10.521
X22.58 Z10.505
X22.5 Z10.5
X22.735 F850
X23.204 Y-36.412
X23.672 Y-36.385
X24.139 Y-36.345
X24.605 Y-36.291
X25.07 Y-36.224
X25.532 Y-36.144
X25.992 Y-36.051
X26.449 Y-35.945
X26.902 Y-35.826
X27.353 Y-35.694
X27.799 Y-35.549
X28.241 Y-35.391
X28.678 Y-35.221
X29.11 Y-35.038
X29.537 Y-34.843
X29.958 Y-34.636
X30.372 Y-34.417
X30.781 Y-34.187
X31.183 Y-33.944
X31.577 Y-33.691
X31.965 Y-33.426
X32.344 Y-33.15
X32.716 Y-32.864
X33.079 Y-32.567
X33.433 Y-32.26
X33.779 Y-31.942
X34.115 Y-31.615
X34.442 Y-31.279
X34.76 Y-30.933
X35.067 Y-30.579
X35.364 Y-30.216
X35.65 Y-29.844
X35.926 Y-29.465
X36.191 Y-29.077
X36.444 Y-28.683
X36.687 Y-28.281
X36.917 Y-27.872
X37.136 Y-27.458
X37.343 Y-27.037
X37.538 Y-26.61
X37.721 Y-26.178
X37.891 Y-25.741
X38.049 Y-25.299
X38.194 Y-24.853
X38.326 Y-24.402
X38.445 Y-23.949
X38.551 Y-23.492
X38.644 Y-23.032
X38.724 Y-22.57
X38.791 Y-22.105
X38.845 Y-21.639
X38.885 Y-21.172
X38.912 Y-20.704
X38.925 Y-20.235
Y-20
G0 Z23
X42.686 Y3.575
G1 Z13 F333.3
Z10.5
X42.5 Z10.489 F350
G3 X38.925 Y0 Z10.163 J-3.575
G1 Y-20 Z9
Y0 F850
G2 X42.5 Y3.575 I3.575
G1 X90
G0 Z23
X-2.08 Y-10.087
G1 Z15.136 F333.3
G18 G3 X-2.695 Z14.521 I-0.615
G1 X-3.31 F850
G17 G2 X-3.925 Y-9.472 J0.615
G1 Y0 Z11.983 F350
G3 X-7.341 Y3.571 Z10.521 I-3.575
G1 X-7.393 Y3.573 Z10.509
X-7.446 Y3.575 Z10.502
X-7.5 Z10.5
G2 X-3.925 Y0 J-3.575 F850
G1 Y-20
Y-20.235
X-3.912 Y-20.704
X-3.885 Y-21.172
X-3.845 Y-21.639
X-3.791 Y-22.105
X-3.724 Y-22.57
X-3.644 Y-23.032
X-3.551 Y-23.492
X-3.445 Y-23.949
X-3.326 Y-24.402
X-3.194 Y-24.853
X-3.049 Y-25.299
X-2.891 Y-25.741
X-2.721 Y-26.178
X-2.538 Y-26.61
X-2.343 Y-27.037
X-2.136 Y-27.458
X-1.917 Y-27.872
X-1.687 Y-28.281
X-1.444 Y-28.683
X-1.191 Y-29.077
X-0.926 Y-29.465
X-0.65 Y-29.844
X-0.364 Y-30.216
X-0.067 Y-30.579
X0.24 Y-30.933
X0.558 Y-31.279
X0.885 Y-31.615
X1.221 Y-31.942
X1.567 Y-32.26
X1.921 Y-32.567
X2.284 Y-32.864
X2.656 Y-33.15
X3.035 Y-33.426
X3.423 Y-33.691
X3.817 Y-33.944
X4.219 Y-34.187
X4.628 Y-34.417
X5.042 Y-34.636
X5.463 Y-34.843
X5.89 Y-35.038
X6.322 Y-35.221
X6.759 Y-35.391
X7.201 Y-35.549
X7.647 Y-35.694
X8.098 Y-35.826
X8.551 Y-35.945
X9.008 Y-36.051
X9.468 Y-36.144
X9.93 Y-36.224
X10.395 Y-36.291
X10.861 Y-36.345
X11.328 Y-36.385
X11.796 Y-36.412
X12.265 Y-36.425
X22.5
X12.265 Z10.25 F350
X11.796 Y-36.412 Z10.239
X11.328 Y-36.385 Z10.227
X10.861 Y-36.345 Z10.216
X10.395 Y-36.291 Z10.204
X9.93 Y-36.224 Z10.193
X9.468 Y-36.144 Z10.181
X9.008 Y-36.051 Z10.17
X8.551 Y-35.945 Z10.158
X8.098 Y-35.826 Z10.147
X7.647 Y-35.694 Z10.135
X7.201 Y-35.549 Z10.124
X6.759 Y-35.391 Z10.113
X6.322 Y-35.221 Z10.101
X5.89 Y-35.038 Z10.09
X5.463 Y-34.843 Z10.078
X5.042 Y-34.636 Z10.067
X4.628 Y-34.417 Z10.055
X4.219 Y-34.187 Z10.044
X3.817 Y-33.944 Z10.032
X3.423 Y-33.691 Z10.021
X3.035 Y-33.426 Z10.009
X2.656 Y-33.15 Z9.998
X2.284 Y-32.864 Z9.987
X1.921 Y-32.567 Z9.975
X1.567 Y-32.26 Z9.964
X1.221 Y-31.942 Z9.952
X0.885 Y-31.615 Z9.941
X0.558 Y-31.279 Z9.929
X0.24 Y-30.933 Z9.918
X-0.067 Y-30.579 Z9.906
X-0.364 Y-30.216 Z9.895
X-0.65 Y-29.844 Z9.883
X-0.926 Y-29.465 Z9.872
X-1.191 Y-29.077 Z9.86
X-1.444 Y-28.683 Z9.849
X-1.687 Y-28.281 Z9.838
X-1.917 Y-27.872 Z9.826
X-2.136 Y-27.458 Z9.815
X-2.343 Y-27.037 Z9.803
X-2.538 Y-26.61 Z9.792
X-2.721 Y-26.178 Z9.78
X-2.891 Y-25.741 Z9.769
X-3.049 Y-25.299 Z9.757
X-3.194 Y-24.853 Z9.746
X-3.326 Y-24.402 Z9.734
X-3.445 Y-23.949 Z9.723
X-3.551 Y-23.492 Z9.712
X-3.644 Y-23.032 Z9.7
X-3.724 Y-22.57 Z9.689
X-3.791 Y-22.105 Z9.677
X-3.845 Y-21.639 Z9.666
X-3.885 Y-21.172 Z9.654
X-3.912 Y-20.704 Z9.643
X-3.925 Y-20.235 Z9.631
Y0 Z9.137
G3 X-7.5 Y3.575 Z9 I-3.575
G2 X-3.925 Y0 J-3.575 F850
G1 Y-20
Y-20.235
X-3.912 Y-20.704
X-3.885 Y-21.172
X-3.845 Y-21.639
X-3.791 Y-22.105
X-3.724 Y-22.57
X-3.644 Y-23.032
X-3.551 Y-23.492
X-3.445 Y-23.949
X-3.326 Y-24.402
X-3.194 Y-24.853
X-3.049 Y-25.299
X-2.891 Y-25.741
X-2.721 Y-26.178
X-2.538 Y-26.61
X-2.343 Y-27.037
X-2.136 Y-27.458
X-1.917 Y-27.872
X-1.687 Y-28.281
X-1.444 Y-28.683
X-1.191 Y-29.077
X-0.926 Y-29.465
X-0.65 Y-29.844
X-0.364 Y-30.216
X-0.067 Y-30.579
X0.24 Y-30.933
X0.558 Y-31.279
X0.885 Y-31.615
X1.221 Y-31.942
X1.567 Y-32.26
X1.921 Y-32.567
X2.284 Y-32.864
X2.656 Y-33.15
X3.035 Y-33.426
X3.423 Y-33.691
X3.817 Y-33.944
X4.219 Y-34.187
X4.628 Y-34.417
X5.042 Y-34.636
X5.463 Y-34.843
X5.89 Y-35.038
X6.322 Y-35.221
X6.759 Y-35.391
X7.201 Y-35.549
X7.647 Y-35.694
X8.098 Y-35.826
X8.551 Y-35.945
X9.008 Y-36.051
X9.468 Y-36.144
X9.93 Y-36.224
X10.395 Y-36.291
X10.861 Y-36.345
X11.328 Y-36.385
X11.796 Y-36.412
X12.265 Y-36.425
X22.5
G0 Z23
X34.467 Y-28.357
G1 Z13.636 F333.3
X34.473 Y-28.361 Z13.54
X34.491 Y-28.375 Z13.446
X34.521 Y-28.398 Z13.357
X34.56 Y-28.428 Z13.274
X34.61 Y-28.467 Z13.201
X34.668 Y-28.511 Z13.138
X34.733 Y-28.562 Z13.088
X34.804 Y-28.616 Z13.051
X34.878 Y-28.673 Z13.029
X34.954 Y-28.732 Z13.021
X35.441 Y-29.108 F850
G2 X35.553 Y-29.97 I-0.376 J-0.487
G1 X35.364 Y-30.216 Z12.938 F350
X35.067 Y-30.579 Z12.812
X34.76 Y-30.933 Z12.687
X34.442 Y-31.279 Z12.561
X34.115 Y-31.615 Z12.435
X33.779 Y-31.942 Z12.309
X33.433 Y-32.26 Z12.184
X33.079 Y-32.567 Z12.058
X32.716 Y-32.864 Z11.932
X32.344 Y-33.15 Z11.807
X31.965 Y-33.426 Z11.681
X31.577 Y-33.691 Z11.555
X31.183 Y-33.944 Z11.43
X30.781 Y-34.187 Z11.304
X30.372 Y-34.417 Z11.178
X29.958 Y-34.636 Z11.052
X29.537 Y-34.843 Z10.927
X29.11 Y-35.038 Z10.801
X28.678 Y-35.221 Z10.675
X28.241 Y-35.391 Z10.55
X27.799 Y-35.549 Z10.424
X27.353 Y-35.694 Z10.298
X26.902 Y-35.826 Z10.172
X26.449 Y-35.945 Z10.047
X25.992 Y-36.051 Z9.921
X25.532 Y-36.144 Z9.795
X25.07 Y-36.224 Z9.67
X24.605 Y-36.291 Z9.544
X24.139 Y-36.345 Z9.418
X23.672 Y-36.385 Z9.293
X23.204 Y-36.412 Z9.167
X22.735 Y-36.425 Z9.041
X22.659 Z9.021
X22.58 Z9.005
X22.5 Z9
X22.735 F850
X23.204 Y-36.412
X23.672 Y-36.385
X24.139 Y-36.345
X24.605 Y-36.291
X25.07 Y-36.224
X25.532 Y-36.144
X25.992 Y-36.051
X26.449 Y-35.945
X26.902 Y-35.826
X27.353 Y-35.694
X27.799 Y-35.549
X28.241 Y-35.391
X28.678 Y-35.221
X29.11 Y-35.038
X29.537 Y-34.843
X29.958 Y-34.636
X30.372 Y-34.417
X30.781 Y-34.187
X31.183 Y-33.944
X31.577 Y-33.691
X31.965 Y-33.426
X32.344 Y-33.15
X32.716 Y-32.864
X33.079 Y-32.567
X33.433 Y-32.26
X33.779 Y-31.942
X34.115 Y-31.615
X34.442 Y-31.279
X34.76 Y-30.933
X35.067 Y-30.579
X35.364 Y-30.216
X35.65 Y-29.844
X35.926 Y-29.465
X36.191 Y-29.077
X36.444 Y-28.683
X36.687 Y-28.281
X36.917 Y-27.872
X37.136 Y-27.458
X37.343 Y-27.037
X37.538 Y-26.61
X37.721 Y-26.178
X37.891 Y-25.741
X38.049 Y-25.299
X38.194 Y-24.853
X38.326 Y-24.402
X38.445 Y-23.949
X38.551 Y-23.492
X38.644 Y-23.032
X38.724 Y-22.57
X38.791 Y-22.105
X38.845 Y-21.639
X38.885 Y-21.172
X38.912 Y-20.704
X38.925 Y-20.235
Y-20
G0 Z23
X37.08 Y-4.298
G1 Z12.136 F333.3
G18 G2 X37.695 Z11.521 I0.615
G1 X38.31 F850
G17 G2 X38.925 Y-4.913 J-0.615
G1 Y-19.841 Z7.521 F350
Y-19.92 Z7.505
Y-20 Z7.5
Y0 F850
G2 X42.5 Y3.575 I3.575
G1 X90
G0 Z23
X34.467 Y-28.357
G1 Z12.136 F333.3
X34.473 Y-28.361 Z12.04
X34.491 Y-28.375 Z11.946
X34.521 Y-28.398 Z11.857
X34.56 Y-28.428 Z11.774
X34.61 Y-28.467 Z11.701
X34.668 Y-28.511 Z11.638
X34.733 Y-28.562 Z11.588
X34.804 Y-28.616 Z11.551
X34.878 Y-28.673 Z11.529
X34.954 Y-28.732 Z11.521
X35.441 Y-29.108 F850
G2 X35.553 Y-29.97 I-0.376 J-0.487
G1 X35.364 Y-30.216 Z11.438 F350
X35.067 Y-30.579 Z11.312
X34.76 Y-30.933 Z11.187
X34.442 Y-31.279 Z11.061
X34.115 Y-31.615 Z10.935
X33.779 Y-31.942 Z10.809
X33.433 Y-32.26 Z10.684
X33.079 Y-32.567 Z10.558
X32.716 Y-32.864 Z10.432
X32.344 Y-33.15 Z10.307
X31.965 Y-33.426 Z10.181
X31.577 Y-33.691 Z10.055
X31.183 Y-33.944 Z9.93
X30.781 Y-34.187 Z9.804
X30.372 Y-34.417 Z9.678
X29.958 Y-34.636 Z9.552
X29.537 Y-34.843 Z9.427
X29.11 Y-35.038 Z9.301
X28.678 Y-35.221 Z9.175
X28.241 Y-35.391 Z9.05
X27.799 Y-35.549 Z8.924
X27.353 Y-35.694 Z8.798
X26.902 Y-35.826 Z8.672
X26.449 Y-35.945 Z8.547
X25.992 Y-36.051 Z8.421
X25.532 Y-36.144 Z8.295
X25.07 Y-36.224 Z8.17
X24.605 Y-36.291 Z8.044
X24.139 Y-36.345 Z7.918
X23.672 Y-36.385 Z7.793
X23.204 Y-36.412 Z7.667
X22.735 Y-36.425 Z7.541
X22.659 Z7.521
X22.58 Z7.505
X22.5 Z7.5
X22.735 F850
X23.204 Y-36.412
X23.672 Y-36.385
X24.139 Y-36.345
X24.605 Y-36.291
X25.07 Y-36.224
X25.532 Y-36.144
X25.992 Y-36.051
X26.449 Y-35.945
X26.902 Y-35.826
X27.353 Y-35.694
X27.799 Y-35.549
X28.241 Y-35.391
X28.678 Y-35.221
X29.11 Y-35.038
X29.537 Y-34.843
X29.958 Y-34.636
X30.372 Y-34.417
X30.781 Y-34.187
X31.183 Y-33.944
X31.577 Y-33.691
X31.965 Y-33.426
X32.344 Y-33.15
X32.716 Y-32.864
X33.079 Y-32.567
X33.433 Y-32.26
X33.779 Y-31.942
X34.115 Y-31.615
X34.442 Y-31.279
X34.76 Y-30.933
X35.067 Y-30.579
X35.364 Y-30.216
X35.65 Y-29.844
X35.926 Y-29.465
X36.191 Y-29.077
X36.444 Y-28.683
X36.687 Y-28.281
X36.917 Y-27.872
X37.136 Y-27.458
X37.343 Y-27.037
X37.538 Y-26.61
X37.721 Y-26.178
X37.891 Y-25.741
X38.049 Y-25.299
X38.194 Y-24.853
X38.326 Y-24.402
X38.445 Y-23.949
X38.551 Y-23.492
X38.644 Y-23.032
X38.724 Y-22.57
X38.791 Y-22.105
X38.845 Y-21.639
X38.885 Y-21.172
X38.912 Y-20.704
X38.925 Y-20.235
Y-20
G0 Z23
X42.686 Y3.575
G1 Z10 F333.3
Z7.5
X42.5 Z7.489 F350
G3 X38.925 Y0 Z7.163 J-3.575
G1 Y-20 Z6
Y0 F850
G2 X42.5 Y3.575 I3.575
G1 X90
G0 Z23
X-2.08 Y-10.087
G1 Z12.136 F333.3
G18 G3 X-2.695 Z11.521 I-0.615
G1 X-3.31 F850
G17 G2 X-3.925 Y-9.472 J0.615
G1 Y0 Z8.983 F350
G3 X-7.341 Y3.571 Z7.521 I-3.575
G1 X-7.393 Y3.573 Z7.509
X-7.446 Y3.575 Z7.502
X-7.5 Z7.5
G2 X-3.925 Y0 J-3.575 F850
G1 Y-20
Y-20.235
X-3.912 Y-20.704
X-3.885 Y-21.172
X-3.845 Y-21.639
X-3.791 Y-22.105
X-3.724 Y-22.57
X-3.644 Y-23.032
X-3.551 Y-23.492
X-3.445 Y-23.949
X-3.326 Y-24.402
X-3.194 Y-24.853
X-3.049 Y-25.299
X-2.891 Y-25.741
X-2.721 Y-26.178
X-2.538 Y-26.61
X-2.343 Y-27.037
X-2.136 Y-27.458
X-1.917 Y-27.872
X-1.687 Y-28.281
X-1.444 Y-28.683
X-1.191 Y-29.077
X-0.926 Y-29.465
X-0.65 Y-29.844
X-0.364 Y-30.216
X-0.067 Y-30.579
X0.24 Y-30.933
X0.558 Y-31.279
X0.885 Y-31.615
X1.221 Y-31.942
X1.567 Y-32.26
X1.921 Y-32.567
X2.284 Y-32.864
X2.656 Y-33.15
X3.035 Y-33.426
X3.423 Y-33.691
X3.817 Y-33.944
X4.219 Y-34.187
X4.628 Y-34.417
X5.042 Y-34.636
X5.463 Y-34.843
X5.89 Y-35.038
X6.322 Y-35.221
X6.759 Y-35.391
X7.201 Y-35.549
X7.647 Y-35.694
X8.098 Y-35.826
X8.551 Y-35.945
X9.008 Y-36.051
X9.468 Y-36.144
X9.93 Y-36.224
X10.395 Y-36.291
X10.861 Y-36.345
X11.328 Y-36.385
X11.796 Y-36.412
X12.265 Y-36.425
X22.5
X12.265 Z7.25 F350
X11.796 Y-36.412 Z7.239
X11.328 Y-36.385 Z7.227
X10.861 Y-36.345 Z7.216
X10.395 Y-36.291 Z7.204
X9.93 Y-36.224 Z7.193
X9.468 Y-36.144 Z7.181
X9.008 Y-36.051 Z7.17
X8.551 Y-35.945 Z7.158
X8.098 Y-35.826 Z7.147
X7.647 Y-35.694 Z7.135
X7.201 Y-35.549 Z7.124
X6.759 Y-35.391 Z7.113
X6.322 Y-35.221 Z7.101
X5.89 Y-35.038 Z7.09
X5.463 Y-34.843 Z7.078
X5.042 Y-34.636 Z7.067
X4.628 Y-34.417 Z7.055
X4.219 Y-34.187 Z7.044
X3.817 Y-33.944 Z7.032
X3.423 Y-33.691 Z7.021
X3.035 Y-33.426 Z7.009
X2.656 Y-33.15 Z6.998
X2.284 Y-32.864 Z6.987
X1.921 Y-32.567 Z6.975
X1.567 Y-32.26 Z6.964
X1.221 Y-31.942 Z6.952
X0.885 Y-31.615 Z6.941
X0.558 Y-31.279 Z6.929
X0.24 Y-30.933 Z6.918
X-0.067 Y-30.579 Z6.906
X-0.364 Y-30.216 Z6.895
X-0.65 Y-29.844 Z6.883
X-0.926 Y-29.465 Z6.872
X-1.191 Y-29.077 Z6.86
X-1.444 Y-28.683 Z6.849
X-1.687 Y-28.281 Z6.838
X-1.917 Y-27.872 Z6.826
X-2.136 Y-27.458 Z6.815
X-2.343 Y-27.037 Z6.803
X-2.538 Y-26.61 Z6.792
X-2.721 Y-26.178 Z6.78
X-2.891 Y-25.741 Z6.769
X-3.049 Y-25.299 Z6.757
X-3.194 Y-24.853 Z6.746
X-3.326 Y-24.402 Z6.734
X-3.445 Y-23.949 Z6.723
X-3.551 Y-23.492 Z6.712
X-3.644 Y-23.032 Z6.7
X-3.724 Y-22.57 Z6.689
X-3.791 Y-22.105 Z6.677
X-3.845 Y-21.639 Z6.666
X-3.885 Y-21.172 Z6.654
X-3.912 Y-20.704 Z6.643
X-3.925 Y-20.235 Z6.631
Y0 Z6.137
G3 X-7.5 Y3.575 Z6 I-3.575
G2 X-3.925 Y0 J-3.575 F850
G1 Y-20
Y-20.235
X-3.912 Y-20.704
X-3.885 Y-21.172
X-3.845 Y-21.639
X-3.791 Y-22.105
X-3.724 Y-22.57
X-3.644 Y-23.032
X-3.551 Y-23.492
X-3.445 Y-23.949
X-3.326 Y-24.402
X-3.194 Y-24.853
X-3.049 Y-25.299
X-2.891 Y-25.741
X-2.721 Y-26.178
X-2.538 Y-26.61
X-2.343 Y-27.037
X-2.136 Y-27.458
X-1.917 Y-27.872
X-1.687 Y-28.281
X-1.444 Y-28.683
X-1.191 Y-29.077
X-0.926 Y-29.465
X-0.65 Y-29.844
X-0.364 Y-30.216
X-0.067 Y-30.579
X0.24 Y-30.933
X0.558 Y-31.279
X0.885 Y-31.615
X1.221 Y-31.942
X1.567 Y-32.26
X1.921 Y-32.567
X2.284 Y-32.864
X2.656 Y-33.15
X3.035 Y-33.426
X3.423 Y-33.691
X3.817 Y-33.944
X4.219 Y-34.187
X4.628 Y-34.417
X5.042 Y-34.636
X5.463 Y-34.843
X5.89 Y-35.038
X6.322 Y-35.221
X6.759 Y-35.391
X7.201 Y-35.549
X7.647 Y-35.694
X8.098 Y-35.826
X8.551 Y-35.945
X9.008 Y-36.051
X9.468 Y-36.144
X9.93 Y-36.224
X10.395 Y-36.291
X10.861 Y-36.345
X11.328 Y-36.385
X11.796 Y-36.412
X12.265 Y-36.425
X22.5
G0 Z23
X34.467 Y-28.357
G1 Z10.636 F333.3
X34.473 Y-28.361 Z10.54
X34.491 Y-28.375 Z10.446
X34.521 Y-28.398 Z10.357
X34.56 Y-28.428 Z10.274
X34.61 Y-28.467 Z10.201
X34.668 Y-28.511 Z10.138
X34.733 Y-28.562 Z10.088
X34.804 Y-28.616 Z10.051
X34.878 Y-28.673 Z10.029
X34.954 Y-28.732 Z10.021
X35.441 Y-29.108 F850
G2 X35.553 Y-29.97 I-0.376 J-0.487
G1 X35.364 Y-30.216 Z9.938 F350
X35.067 Y-30.579 Z9.812
X34.76 Y-30.933 Z9.687
X34.442 Y-31.279 Z9.561
X34.115 Y-31.615 Z9.435
X33.779 Y-31.942 Z9.309
X33.433 Y-32.26 Z9.184
X33.079 Y-32.567 Z9.058
X32.716 Y-32.864 Z8.932
X32.344 Y-33.15 Z8.807
X31.965 Y-33.426 Z8.681
X31.577 Y-33.691 Z8.555
X31.183 Y-33.944 Z8.43
X30.781 Y-34.187 Z8.304
X30.372 Y-34.417 Z8.178
X29.958 Y-34.636 Z8.052
X29.537 Y-34.843 Z7.927
X29.11 Y-35.038 Z7.801
X28.678 Y-35.221 Z7.675
X28.241 Y-35.391 Z7.55
X27.799 Y-35.549 Z7.424
X27.353 Y-35.694 Z7.298
X26.902 Y-35.826 Z7.172
X26.449 Y-35.945 Z7.047
X25.992 Y-36.051 Z6.921
X25.532 Y-36.144 Z6.795
X25.07 Y-36.224 Z6.67
X24.605 Y-36.291 Z6.544
X24.139 Y-36.345 Z6.418
X23.672 Y-36.385 Z6.293
X23.204 Y-36.412 Z6.167
X22.735 Y-36.425 Z6.041
X22.659 Z6.021
X22.58 Z6.005
X22.5 Z6
X22.735 F850
X23.204 Y-36.412
X23.672 Y-36.385
X24.139 Y-36.345
X24.605 Y-36.291
X25.07 Y-36.224
X25.532 Y-36.144
X25.992 Y-36.051
X26.449 Y-35.945
X26.902 Y-35.826
X27.353 Y-35.694
X27.799 Y-35.549
X28.241 Y-35.391
X28.678 Y-35.221
X29.11 Y-35.038
X29.537 Y-34.843
X29.958 Y-34.636
X30.372 Y-34.417
X30.781 Y-34.187
X31.183 Y-33.944
X31.577 Y-33.691
X31.965 Y-33.426
X32.344 Y-33.15
X32.716 Y-32.864
X33.079 Y-32.567
X33.433 Y-32.26
X33.779 Y-31.942
X34.115 Y-31.615
X34.442 Y-31.279
X34.76 Y-30.933
X35.067 Y-30.579
X35.364 Y-30.216
X35.65 Y-29.844
X35.926 Y-29.465
X36.191 Y-29.077
X36.444 Y-28.683
X36.687 Y-28.281
X36.917 Y-27.872
X37.136 Y-27.458
X37.343 Y-27.037
X37.538 Y-26.61
X37.721 Y-26.178
X37.891 Y-25.741
X38.049 Y-25.299
X38.194 Y-24.853
X38.326 Y-24.402
X38.445 Y-23.949
X38.551 Y-23.492
X38.644 Y-23.032
X38.724 Y-22.57
X38.791 Y-22.105
X38.845 Y-21.639
X38.885 Y-21.172
X38.912 Y-20.704
X38.925 Y-20.235
Y-20
G0 Z23
X37.08 Y-4.298
G1 Z9.136 F333.3
G18 G2 X37.695 Z8.521 I0.615
G1 X38.31 F850
G17 G2 X38.925 Y-4.913 J-0.615
G1 Y-19.841 Z4.521 F350
Y-19.92 Z4.505
Y-20 Z4.5
Y0 F850
G2 X42.5 Y3.575 I3.575
G1 X90
G0 Z23
X34.467 Y-28.357
G1 Z9.136 F333.3
X34.473 Y-28.361 Z9.04
X34.491 Y-28.375 Z8.946
X34.521 Y-28.398 Z8.857
X34.56 Y-28.428 Z8.774
X34.61 Y-28.467 Z8.701
X34.668 Y-28.511 Z8.638
X34.733 Y-28.562 Z8.588
X34.804 Y-28.616 Z8.551
X34.878 Y-28.673 Z8.529
X34.954 Y-28.732 Z8.521
X35.441 Y-29.108 F850
G2 X35.553 Y-29.97 I-0.376 J-0.487
G1 X35.364 Y-30.216 Z8.438 F350
X35.067 Y-30.579 Z8.312
X34.76 Y-30.933 Z8.187
X34.442 Y-31.279 Z8.061
X34.115 Y-31.615 Z7.935
X33.779 Y-31.942 Z7.809
X33.433 Y-32.26 Z7.684
X33.079 Y-32.567 Z7.558
X32.716 Y-32.864 Z7.432
X32.344 Y-33.15 Z7.307
X31.965 Y-33.426 Z7.181
X31.577 Y-33.691 Z7.055
X31.183 Y-33.944 Z6.93
X30.781 Y-34.187 Z6.804
X30.372 Y-34.417 Z6.678
X29.958 Y-34.636 Z6.552
X29.537 Y-34.843 Z6.427
X29.11 Y-35.038 Z6.301
X28.678 Y-35.221 Z6.175
X28.241 Y-35.391 Z6.05
X27.799 Y-35.549 Z5.924
X27.353 Y-35.694 Z5.798
X26.902 Y-35.826 Z5.672
X26.449 Y-35.945 Z5.547
X25.992 Y-36.051 Z5.421
X25.532 Y-36.144 Z5.295
X25.07 Y-36.224 Z5.17
X24.605 Y-36.291 Z5.044
X24.139 Y-36.345 Z4.918
X23.672 Y-36.385 Z4.793
X23.204 Y-36.412 Z4.667
X22.735 Y-36.425 Z4.541
X22.659 Z4.521
X22.58 Z4.505
X22.5 Z4.5
X22.735 F850
X23.204 Y-36.412
X23.672 Y-36.385
X24.139 Y-36.345
X24.605 Y-36.291
X25.07 Y-36.224
X25.532 Y-36.144
X25.992 Y-36.051
X26.449 Y-35.945
X26.902 Y-35.826
X27.353 Y-35.694
X27.799 Y-35.549
X28.241 Y-35.391
X28.678 Y-35.221
X29.11 Y-35.038
X29.537 Y-34.843
X29.958 Y-34.636
X30.372 Y-34.417
X30.781 Y-34.187
X31.183 Y-33.944
X31.577 Y-33.691
X31.965 Y-33.426
X32.344 Y-33.15
X32.716 Y-32.864
X33.079 Y-32.567
X33.433 Y-32.26
X33.779 Y-31.942
X34.115 Y-31.615
X34.442 Y-31.279
X34.76 Y-30.933
X35.067 Y-30.579
X35.364 Y-30.216
X35.65 Y-29.844
X35.926 Y-29.465
X36.191 Y-29.077
X36.444 Y-28.683
X36.687 Y-28.281
X36.917 Y-27.872
X37.136 Y-27.458
X37.343 Y-27.037
X37.538 Y-26.61
X37.721 Y-26.178
X37.891 Y-25.741
X38.049 Y-25.299
X38.194 Y-24.853
X38.326 Y-24.402
X38.445 Y-23.949
X38.551 Y-23.492
X38.644 Y-23.032
X38.724 Y-22.57
X38.791 Y-22.105
X38.845 Y-21.639
X38.885 Y-21.172
X38.912 Y-20.704
X38.925 Y-20.235
Y-20
G0 Z23
X42.686 Y3.575
G1 Z7 F333.3
Z4.5
X42.5 Z4.489 F350
G3 X38.925 Y0 Z4.163 J-3.575
G1 Y-20 Z3
Y0 F850
G2 X42.5 Y3.575 I3.575
G1 X90
G0 Z23
X-2.08 Y-10.087
G1 Z9.136 F333.3
G18 G3 X-2.695 Z8.521 I-0.615
G1 X-3.31 F850
G17 G2 X-3.925 Y-9.472 J0.615
G1 Y0 Z5.983 F350
G3 X-7.341 Y3.571 Z4.521 I-3.575
G1 X-7.393 Y3.573 Z4.509
X-7.446 Y3.575 Z4.502
X-7.5 Z4.5
G2 X-3.925 Y0 J-3.575 F850
G1 Y-20
Y-20.235
X-3.912 Y-20.704
X-3.885 Y-21.172
X-3.845 Y-21.639
X-3.791 Y-22.105
X-3.724 Y-22.57
X-3.644 Y-23.032
X-3.551 Y-23.492
X-3.445 Y-23.949
X-3.326 Y-24.402
X-3.194 Y-24.853
X-3.049 Y-25.299
X-2.891 Y-25.741
X-2.721 Y-26.178
X-2.538 Y-26.61
X-2.343 Y-27.037
X-2.136 Y-27.458
X-1.917 Y-27.872
X-1.687 Y-28.281
X-1.444 Y-28.683
X-1.191 Y-29.077
X-0.926 Y-29.465
X-0.65 Y-29.844
X-0.364 Y-30.216
X-0.067 Y-30.579
X0.24 Y-30.933
X0.558 Y-31.279
X0.885 Y-31.615
X1.221 Y-31.942
X1.567 Y-32.26
X1.921 Y-32.567
X2.284 Y-32.864
X2.656 Y-33.15
X3.035 Y-33.426
X3.423 Y-33.691
X3.817 Y-33.944
X4.219 Y-34.187
X4.628 Y-34.417
X5.042 Y-34.636
X5.463 Y-34.843
X5.89 Y-35.038
X6.322 Y-35.221
X6.759 Y-35.391
X7.201 Y-35.549
X7.647 Y-35.694
X8.098 Y-35.826
X8.551 Y-35.945
X9.008 Y-36.051
X9.468 Y-36.144
X9.93 Y-36.224
X10.395 Y-36.291
X10.861 Y-36.345
X11.328 Y-36.385
X11.796 Y-36.412
X12.265 Y-36.425
X22.5
X12.265 Z4.25 F350
X11.796 Y-36.412 Z4.239
X11.328 Y-36.385 Z4.227
X10.861 Y-36.345 Z4.216
X10.395 Y-36.291 Z4.204
X9.93 Y-36.224 Z4.193
X9.468 Y-36.144 Z4.181
X9.008 Y-36.051 Z4.17
X8.551 Y-35.945 Z4.158
X8.098 Y-35.826 Z4.147
X7.647 Y-35.694 Z4.135
X7.201 Y-35.549 Z4.124
X6.759 Y-35.391 Z4.113
X6.322 Y-35.221 Z4.101
X5.89 Y-35.038 Z4.09
X5.463 Y-34.843 Z4.078
X5.042 Y-34.636 Z4.067
X4.628 Y-34.417 Z4.055
X4.219 Y-34.187 Z4.044
X3.817 Y-33.944 Z4.032
X3.423 Y-33.691 Z4.021
X3.035 Y-33.426 Z4.009
X2.656 Y-33.15 Z3.998
X2.284 Y-32.864 Z3.987
X1.921 Y-32.567 Z3.975
X1.567 Y-32.26 Z3.964
X1.221 Y-31.942 Z3.952
X0.885 Y-31.615 Z3.941
X0.558 Y-31.279 Z3.929
X0.24 Y-30.933 Z3.918
X-0.067 Y-30.579 Z3.906
X-0.364 Y-30.216 Z3.895
X-0.65 Y-29.844 Z3.883
X-0.926 Y-29.465 Z3.872
X-1.191 Y-29.077 Z3.86
X-1.444 Y-28.683 Z3.849
X-1.687 Y-28.281 Z3.838
X-1.917 Y-27.872 Z3.826
X-2.136 Y-27.458 Z3.815
X-2.343 Y-27.037 Z3.803
X-2.538 Y-26.61 Z3.792
X-2.721 Y-26.178 Z3.78
X-2.891 Y-25.741 Z3.769
X-3.049 Y-25.299 Z3.757
X-3.194 Y-24.853 Z3.746
X-3.326 Y-24.402 Z3.734
X-3.445 Y-23.949 Z3.723
X-3.551 Y-23.492 Z3.712
X-3.644 Y-23.032 Z3.7
X-3.724 Y-22.57 Z3.689
X-3.791 Y-22.105 Z3.677
X-3.845 Y-21.639 Z3.666
X-3.885 Y-21.172 Z3.654
X-3.912 Y-20.704 Z3.643
X-3.925 Y-20.235 Z3.631
Y0 Z3.137
G3 X-7.5 Y3.575 Z3 I-3.575
G2 X-3.925 Y0 J-3.575 F850
G1 Y-20
Y-20.235
X-3.912 Y-20.704
X-3.885 Y-21.172
X-3.845 Y-21.639
X-3.791 Y-22.105
X-3.724 Y-22.57
X-3.644 Y-23.032
X-3.551 Y-23.492
X-3.445 Y-23.949
X-3.326 Y-24.402
X-3.194 Y-24.853
X-3.049 Y-25.299
X-2.891 Y-25.741
X-2.721 Y-26.178
X-2.538 Y-26.61
X-2.343 Y-27.037
X-2.136 Y-27.458
X-1.917 Y-27.872
X-1.687 Y-28.281
X-1.444 Y-28.683
X-1.191 Y-29.077
X-0.926 Y-29.465
X-0.65 Y-29.844
X-0.364 Y-30.216
X-0.067 Y-30.579
X0.24 Y-30.933
X0.558 Y-31.279
X0.885 Y-31.615
X1.221 Y-31.942
X1.567 Y-32.26
X1.921 Y-32.567
X2.284 Y-32.864
X2.656 Y-33.15
X3.035 Y-33.426
X3.423 Y-33.691
X3.817 Y-33.944
X4.219 Y-34.187
X4.628 Y-34.417
X5.042 Y-34.636
X5.463 Y-34.843
X5.89 Y-35.038
X6.322 Y-35.221
X6.759 Y-35.391
X7.201 Y-35.549
X7.647 Y-35.694
X8.098 Y-35.826
X8.551 Y-35.945
X9.008 Y-36.051
X9.468 Y-36.144
X9.93 Y-36.224
X10.395 Y-36.291
X10.861 Y-36.345
X11.328 Y-36.385
X11.796 Y-36.412
X12.265 Y-36.425
X22.5
G0 Z23
X34.467 Y-28.357
G1 Z7.636 F333.3
X34.473 Y-28.361 Z7.54
X34.491 Y-28.375 Z7.446
X34.521 Y-28.398 Z7.357
X34.56 Y-28.428 Z7.274
X34.61 Y-28.467 Z7.201
X34.668 Y-28.511 Z7.138
X34.733 Y-28.562 Z7.088
X34.804 Y-28.616 Z7.051
X34.878 Y-28.673 Z7.029
X34.954 Y-28.732 Z7.021
X35.441 Y-29.108 F850
G2 X35.553 Y-29.97 I-0.376 J-0.487
G1 X35.364 Y-30.216 Z6.938 F350
X35.067 Y-30.579 Z6.812
X34.76 Y-30.933 Z6.687
X34.442 Y-31.279 Z6.561
X34.115 Y-31.615 Z6.435
X33.779 Y-31.942 Z6.309
X33.433 Y-32.26 Z6.184
X33.079 Y-32.567 Z6.058
X32.716 Y-32.864 Z5.932
X32.344 Y-33.15 Z5.807
X31.965 Y-33.426 Z5.681
X31.577 Y-33.691 Z5.555
X31.183 Y-33.944 Z5.43
X30.781 Y-34.187 Z5.304
X30.372 Y-34.417 Z5.178
X29.958 Y-34.636 Z5.052
X29.537 Y-34.843 Z4.927
X29.11 Y-35.038 Z4.801
X28.678 Y-35.221 Z4.675
X28.241 Y-35.391 Z4.55
X27.799 Y-35.549 Z4.424
X27.353 Y-35.694 Z4.298
X26.902 Y-35.826 Z4.172
X26.449 Y-35.945 Z4.047
X25.992 Y-36.051 Z3.921
X25.532 Y-36.144 Z3.795
X25.07 Y-36.224 Z3.67
X24.605 Y-36.291 Z3.544
X24.139 Y-36.345 Z3.418
X23.672 Y-36.385 Z3.293
X23.204 Y-36.412 Z3.167
X22.735 Y-36.425 Z3.041
X22.659 Z3.021
X22.58 Z3.005
X22.5 Z3
X22.735 F850
X23.204 Y-36.412
X23.672 Y-36.385
X24.139 Y-36.345
X24.605 Y-36.291
X25.07 Y-36.224
X25.532 Y-36.144
X25.992 Y-36.051
X26.449 Y-35.945
X26.902 Y-35.826
X27.353 Y-35.694
X27.799 Y-35.549
X28.241 Y-35.391
X28.678 Y-35.221
X29.11 Y-35.038
X29.537 Y-34.843
X29.958 Y-34.636
X30.372 Y-34.417
X30.781 Y-34.187
X31.183 Y-33.944
X31.577 Y-33.691
X31.965 Y-33.426
X32.344 Y-33.15
X32.716 Y-32.864
X33.079 Y-32.567
X33.433 Y-32.26
X33.779 Y-31.942
X34.115 Y-31.615
X34.442 Y-31.279
X34.76 Y-30.933
X35.067 Y-30.579
X35.364 Y-30.216
X35.65 Y-29.844
X35.926 Y-29.465
X36.191 Y-29.077
X36.444 Y-28.683
X36.687 Y-28.281
X36.917 Y-27.872
X37.136 Y-27.458
X37.343 Y-27.037
X37.538 Y-26.61
X37.721 Y-26.178
X37.891 Y-25.741
X38.049 Y-25.299
X38.194 Y-24.853
X38.326 Y-24.402
X38.445 Y-23.949
X38.551 Y-23.492
X38.644 Y-23.032
X38.724 Y-22.57
X38.791 Y-22.105
X38.845 Y-21.639
X38.885 Y-21.172
X38.912 Y-20.704
X38.925 Y-20.235
Y-20
G0 Z23
X37.08 Y-4.298
G1 Z6.136 F333.3
G18 G2 X37.695 Z5.521 I0.615
G1 X38.31 F850
G17 G2 X38.925 Y-4.913 J-0.615
G1 Y-19.841 Z1.521 F350
Y-19.92 Z1.505
Y-20 Z1.5
Y0 F850
G2 X42.5 Y3.575 I3.575
G1 X90
G0 Z23
X34.467 Y-28.357
G1 Z6.136 F333.3
X34.473 Y-28.361 Z6.04
X34.491 Y-28.375 Z5.946
X34.521 Y-28.398 Z5.857
X34.56 Y-28.428 Z5.774
X34.61 Y-28.467 Z5.701
X34.668 Y-28.511 Z5.638
X34.733 Y-28.562 Z5.588
X34.804 Y-28.616 Z5.551
X34.878 Y-28.673 Z5.529
X34.954 Y-28.732 Z5.521
X35.441 Y-29.108 F850
G2 X35.553 Y-29.97 I-0.376 J-0.487
G1 X35.364 Y-30.216 Z5.438 F350
X35.067 Y-30.579 Z5.312
X34.76 Y-30.933 Z5.187
X34.442 Y-31.279 Z5.061
X34.115 Y-31.615 Z4.935
X33.779 Y-31.942 Z4.809
X33.433 Y-32.26 Z4.684
X33.079 Y-32.567 Z4.558
X32.716 Y-32.864 Z4.432
X32.344 Y-33.15 Z4.307
X31.965 Y-33.426 Z4.181
X31.577 Y-33.691 Z4.055
X31.183 Y-33.944 Z3.93
X30.781 Y-34.187 Z3.804
X30.372 Y-34.417 Z3.678
X29.958 Y-34.636 Z3.552
X29.537 Y-34.843 Z3.427
X29.11 Y-35.038 Z3.301
X28.678 Y-35.221 Z3.175
X28.241 Y-35.391 Z3.05
X27.799 Y-35.549 Z2.924
X27.353 Y-35.694 Z2.798
X26.902 Y-35.826 Z2.672
X26.449 Y-35.945 Z2.547
X25.992 Y-36.051 Z2.421
X25.532 Y-36.144 Z2.295
X25.07 Y-36.224 Z2.17
X24.605 Y-36.291 Z2.044
X24.139 Y-36.345 Z1.918
X23.672 Y-36.385 Z1.793
X23.204 Y-36.412 Z1.667
X22.735 Y-36.425 Z1.541
X22.659 Z1.521
X22.58 Z1.505
X22.5 Z1.5
X22.735 F850
X23.204 Y-36.412
X23.672 Y-36.385
X24.139 Y-36.345
X24.605 Y-36.291
X25.07 Y-36.224
X25.532 Y-36.144
X25.992 Y-36.051
X26.449 Y-35.945
X26.902 Y-35.826
X27.353 Y-35.694
X27.799 Y-35.549
X28.241 Y-35.391
X28.678 Y-35.221
X29.11 Y-35.038
X29.537 Y-34.843
X29.958 Y-34.636
X30.372 Y-34.417
X30.781 Y-34.187
X31.183 Y-33.944
X31.577 Y-33.691
X31.965 Y-33.426
X32.344 Y-33.15
X32.716 Y-32.864
X33.079 Y-32.567
X33.433 Y-32.26
X33.779 Y-31.942
X34.115 Y-31.615
X34.442 Y-31.279
X34.76 Y-30.933
X35.067 Y-30.579
X35.364 Y-30.216
X35.65 Y-29.844
X35.926 Y-29.465
X36.191 Y-29.077
X36.444 Y-28.683
X36.687 Y-28.281
X36.917 Y-27.872
X37.136 Y-27.458
X37.343 Y-27.037
X37.538 Y-26.61
X37.721 Y-26.178
X37.891 Y-25.741
X38.049 Y-25.299
X38.194 Y-24.853
X38.326 Y-24.402
X38.445 Y-23.949
X38.551 Y-23.492
X38.644 Y-23.032
X38.724 Y-22.57
X38.791 Y-22.105
X38.845 Y-21.639
X38.885 Y-21.172
X38.912 Y-20.704
X38.925 Y-20.235
Y-20
G0 Z23
X42.686 Y3.575
G1 Z4 F333.3
Z1.5
X42.5 Z1.493 F350
G3 X38.925 Y0 Z1.275 J-3.575
G1 Y-20 Z0.5
Y0 F850
G2 X42.5 Y3.575 I3.575
G1 X90
G0 Z23
X-2.08 Y-10.087
G1 Z6.136 F333.3
G18 G3 X-2.695 Z5.521 I-0.615
G1 X-3.31 F850
G17 G2 X-3.925 Y-9.472 J0.615
G1 Y0 Z2.983 F350
G3 X-7.341 Y3.571 Z1.521 I-3.575
G1 X-7.393 Y3.573 Z1.509
X-7.446 Y3.575 Z1.502
X-7.5 Z1.5
G2 X-3.925 Y0 J-3.575 F850
G1 Y-20
Y-20.235
X-3.912 Y-20.704
X-3.885 Y-21.172
X-3.845 Y-21.639
X-3.791 Y-22.105
X-3.724 Y-22.57
X-3.644 Y-23.032
X-3.551 Y-23.492
X-3.445 Y-23.949
X-3.326 Y-24.402
X-3.194 Y-24.853
X-3.049 Y-25.299
X-2.891 Y-25.741
X-2.721 Y-26.178
X-2.538 Y-26.61
X-2.343 Y-27.037
X-2.136 Y-27.458
X-1.917 Y-27.872
X-1.687 Y-28.281
X-1.444 Y-28.683
X-1.191 Y-29.077
X-0.926 Y-29.465
X-0.65 Y-29.844
X-0.364 Y-30.216
X-0.067 Y-30.579
X0.24 Y-30.933
X0.558 Y-31.279
X0.885 Y-31.615
X1.221 Y-31.942
X1.567 Y-32.26
X1.921 Y-32.567
X2.284 Y-32.864
X2.656 Y-33.15
X3.035 Y-33.426
X3.423 Y-33.691
X3.817 Y-33.944
X4.219 Y-34.187
X4.628 Y-34.417
X5.042 Y-34.636
X5.463 Y-34.843
X5.89 Y-35.038
X6.322 Y-35.221
X6.759 Y-35.391
X7.201 Y-35.549
X7.647 Y-35.694
X8.098 Y-35.826
X8.551 Y-35.945
X9.008 Y-36.051
X9.468 Y-36.144
X9.93 Y-36.224
X10.395 Y-36.291
X10.861 Y-36.345
X11.328 Y-36.385
X11.796 Y-36.412
X12.265 Y-36.425
X22.5
X12.265 Z1.333 F350
X11.796 Y-36.412 Z1.326
X11.328 Y-36.385 Z1.318
X10.861 Y-36.345 Z1.31
X10.395 Y-36.291 Z1.303
X9.93 Y-36.224 Z1.295
X9.468 Y-36.144 Z1.288
X9.008 Y-36.051 Z1.28
X8.551 Y-35.945 Z1.272
X8.098 Y-35.826 Z1.265
X7.647 Y-35.694 Z1.257
X7.201 Y-35.549 Z1.249
X6.759 Y-35.391 Z1.242
X6.322 Y-35.221 Z1.234
X5.89 Y-35.038 Z1.226
X5.463 Y-34.843 Z1.219
X5.042 Y-34.636 Z1.211
X4.628 Y-34.417 Z1.204
X4.219 Y-34.187 Z1.196
X3.817 Y-33.944 Z1.188
X3.423 Y-33.691 Z1.181
X3.035 Y-33.426 Z1.173
X2.656 Y-33.15 Z1.165
X2.284 Y-32.864 Z1.158
X1.921 Y-32.567 Z1.15
X1.567 Y-32.26 Z1.142
X1.221 Y-31.942 Z1.135
X0.885 Y-31.615 Z1.127
X0.558 Y-31.279 Z1.119
X0.24 Y-30.933 Z1.112
X-0.067 Y-30.579 Z1.104
X-0.364 Y-30.216 Z1.097
X-0.65 Y-29.844 Z1.089
X-0.926 Y-29.465 Z1.081
X-1.191 Y-29.077 Z1.074
X-1.444 Y-28.683 Z1.066
X-1.687 Y-28.281 Z1.058
X-1.917 Y-27.872 Z1.051
X-2.136 Y-27.458 Z1.043
X-2.343 Y-27.037 Z1.035
X-2.538 Y-26.61 Z1.028
X-2.721 Y-26.178 Z1.02
X-2.891 Y-25.741 Z1.013
X-3.049 Y-25.299 Z1.005
X-3.194 Y-24.853 Z0.997
X-3.326 Y-24.402 Z0.99
X-3.445 Y-23.949 Z0.982
X-3.551 Y-23.492 Z0.974
X-3.644 Y-23.032 Z0.967
X-3.724 Y-22.57 Z0.959
X-3.791 Y-22.105 Z0.951
X-3.845 Y-21.639 Z0.944
X-3.885 Y-21.172 Z0.936
X-3.912 Y-20.704 Z0.929
X-3.925 Y-20.235 Z0.921
Y0 Z0.591
G3 X-7.5 Y3.575 Z0.5 I-3.575
G2 X-3.925 Y0 J-3.575 F850
G1 Y-20
Y-20.235
X-3.912 Y-20.704
X-3.885 Y-21.172
X-3.845 Y-21.639
X-3.791 Y-22.105
X-3.724 Y-22.57
X-3.644 Y-23.032
X-3.551 Y-23.492
X-3.445 Y-23.949
X-3.326 Y-24.402
X-3.194 Y-24.853
X-3.049 Y-25.299
X-2.891 Y-25.741
X-2.721 Y-26.178
X-2.538 Y-26.61
X-2.343 Y-27.037
X-2.136 Y-27.458
X-1.917 Y-27.872
X-1.687 Y-28.281
X-1.444 Y-28.683
X-1.191 Y-29.077
X-0.926 Y-29.465
X-0.65 Y-29.844
X-0.364 Y-30.216
X-0.067 Y-30.579
X0.24 Y-30.933
X0.558 Y-31.279
X0.885 Y-31.615
X1.221 Y-31.942
X1.567 Y-32.26
X1.921 Y-32.567
X2.284 Y-32.864
X2.656 Y-33.15
X3.035 Y-33.426
X3.423 Y-33.691
X3.817 Y-33.944
X4.219 Y-34.187
X4.628 Y-34.417
X5.042 Y-34.636
X5.463 Y-34.843
X5.89 Y-35.038
X6.322 Y-35.221
X6.759 Y-35.391
X7.201 Y-35.549
X7.647 Y-35.694
X8.098 Y-35.826
X8.551 Y-35.945
X9.008 Y-36.051
X9.468 Y-36.144
X9.93 Y-36.224
X10.395 Y-36.291
X10.861 Y-36.345
X11.328 Y-36.385
X11.796 Y-36.412
X12.265 Y-36.425
X22.5
G0 Z23
X33.444 Y-29.659
G1 Z4.636 F333.3
X33.45 Y-29.664 Z4.54
X33.466 Y-29.68 Z4.446
X33.492 Y-29.706 Z4.357
X33.528 Y-29.741 Z4.274
X33.573 Y-29.784 Z4.201
X33.626 Y-29.836 Z4.138
X33.685 Y-29.893 Z4.088
X33.749 Y-29.955 Z4.051
X33.816 Y-30.02 Z4.029
X33.885 Y-30.087 Z4.021
X34.326 Y-30.516 F850
G2 X34.339 Y-31.386 I-0.429 J-0.441
G1 X34.115 Y-31.615 Z3.935 F350
X33.779 Y-31.942 Z3.809
X33.433 Y-32.26 Z3.684
X33.079 Y-32.567 Z3.558
X32.716 Y-32.864 Z3.432
X32.344 Y-33.15 Z3.307
X31.965 Y-33.426 Z3.181
X31.577 Y-33.691 Z3.055
X31.183 Y-33.944 Z2.93
X30.781 Y-34.187 Z2.804
X30.372 Y-34.417 Z2.678
X29.958 Y-34.636 Z2.552
X29.537 Y-34.843 Z2.427
X29.11 Y-35.038 Z2.301
X28.678 Y-35.221 Z2.175
X28.241 Y-35.391 Z2.05
X27.799 Y-35.549 Z1.924
X27.353 Y-35.694 Z1.798
X26.902 Y-35.826 Z1.672
X26.449 Y-35.945 Z1.547
X25.992 Y-36.051 Z1.421
X25.532 Y-36.144 Z1.295
X25.07 Y-36.224 Z1.17
X24.605 Y-36.291 Z1.044
X24.139 Y-36.345 Z0.918
X23.672 Y-36.385 Z0.793
X23.204 Y-36.412 Z0.667
X22.735 Y-36.425 Z0.541
X22.659 Z0.521
X22.58 Z0.505
X22.5 Z0.5
X22.735 F850
X23.204 Y-36.412
X23.672 Y-36.385
X24.139 Y-36.345
X24.605 Y-36.291
X25.07 Y-36.224
X25.532 Y-36.144
X25.992 Y-36.051
X26.449 Y-35.945
X26.902 Y-35.826
X27.353 Y-35.694
X27.799 Y-35.549
X28.241 Y-35.391
X28.678 Y-35.221
X29.11 Y-35.038
X29.537 Y-34.843
X29.958 Y-34.636
X30.372 Y-34.417
X30.781 Y-34.187
X31.183 Y-33.944
X31.577 Y-33.691
X31.965 Y-33.426
X32.344 Y-33.15
X32.716 Y-32.864
X33.079 Y-32.567
X33.433 Y-32.26
X33.779 Y-31.942
X34.115 Y-31.615
X34.442 Y-31.279
X34.76 Y-30.933
X35.067 Y-30.579
X35.364 Y-30.216
X35.65 Y-29.844
X35.926 Y-29.465
X36.191 Y-29.077
X36.444 Y-28.683
X36.687 Y-28.281
X36.917 Y-27.872
X37.136 Y-27.458
X37.343 Y-27.037
X37.538 Y-26.61
X37.721 Y-26.178
X37.891 Y-25.741
X38.049 Y-25.299
X38.194 Y-24.853
X38.326 Y-24.402
X38.445 Y-23.949
X38.551 Y-23.492
X38.644 Y-23.032
X38.724 Y-22.57
X38.791 Y-22.105
X38.845 Y-21.639
X38.885 Y-21.172
X38.912 Y-20.704
X38.925 Y-20.235
Y-20
G0 Z23
X-13.927 Y-5.42
G1 Z21.136 F333.3
G19 G3 Y-4.805 Z20.521 J0.615
G1 Y-4.19 F850
G17 G2 X-13.312 Y-3.575 I0.615
G1 X-11.075 Z19.921 F350
X-17.5 Z18.2
X-11.234 Z16.521
X-11.155 Z16.505
X-11.075 Z16.5
X-17.5 F850
X-11.075 Z15 F350
X-17.5 F850
X-11.075 Z13.5 F350
X-17.5 F850
X-11.075 Z12 F350
X-17.5 F850
X-11.075 Z10.5 F350
X-17.5 F850
X-11.075 Z9 F350
X-17.5 F850
X-11.075 Z7.5 F350
X-17.5 F850
X-11.075 Z6 F350
X-17.5 F850
X-11.075 Z4.5 F350
X-17.5 F850
X-11.075 Z3 F350
X-17.5 F850
X-11.075 Z1.5 F350
X-17.5 F850
X-11.075 Z0.5 F350
X-17.5 F850
G0 Z23
X-67.08 Y-15.702
G1 Z21.136 F333.3
G18 G3 X-67.695 Z20.521 I-0.615
G1 X-68.31 F850
G17 G2 X-68.925 Y-15.087 J0.615
G1 Y-0.159 Z16.521 F350
Y-0.08 Z16.505
Y0 Z16.5
Y-20 F850
G3 X-52.5 Y-36.425 I16.425
G1 X-42.5
G3 X-26.075 Y-20 J16.425
G1 Y0
G2 X-22.5 Y3.575 I3.575
G1 X-17.5
X-22.5 Z16.433 F350
G3 X-26.075 Y0 Z16.358 J-3.575
G1 Y-20 Z16.091
G2 X-42.5 Y-36.425 Z15.746 I-16.425
G1 X-52.5 Z15.612
G2 X-68.925 Y-20 Z15.267 J16.425
G1 Y0 Z15
Y-20 F850
G3 X-52.5 Y-36.425 I16.425
G1 X-42.5
G3 X-26.075 Y-20 J16.425
G1 Y0
G2 X-22.5 Y3.575 I3.575
G1 X-17.5
X-22.5 Z14.933 F350
G3 X-26.075 Y0 Z14.858 J-3.575
G1 Y-20 Z14.591
G2 X-42.5 Y-36.425 Z14.246 I-16.425
G1 X-52.5 Z14.112
G2 X-68.925 Y-20 Z13.767 J16.425
G1 Y0 Z13.5
Y-20 F850
G3 X-52.5 Y-36.425 I16.425
G1 X-42.5
G3 X-26.075 Y-20 J16.425
G1 Y0
G2 X-22.5 Y3.575 I3.575
G1 X-17.5
X-22.5 Z13.433 F350
G3 X-26.075 Y0 Z13.358 J-3.575
G1 Y-20 Z13.091
G2 X-42.5 Y-36.425 Z12.746 I-16.425
G1 X-52.5 Z12.612
G2 X-68.925 Y-20 Z12.267 J16.425
G1 Y0 Z12
Y-20 F850
G3 X-52.5 Y-36.425 I16.425
G1 X-42.5
G3 X-26.075 Y-20 J16.425
G1 Y0
G2 X-22.5 Y3.575 I3.575
G1 X-17.5
X-22.5 Z11.933 F350
G3 X-26.075 Y0 Z11.858 J-3.575
G1 Y-20 Z11.591
G2 X-42.5 Y-36.425 Z11.246 I-16.425
G1 X-52.5 Z11.112
G2 X-68.925 Y-20 Z10.767 J16.425
G1 Y0 Z10.5
Y-20 F850
G3 X-52.5 Y-36.425 I16.425
G1 X-42.5
G3 X-26.075 Y-20 J16.425
G1 Y0
G2 X-22.5 Y3.575 I3.575
G1 X-17.5
X-22.5 Z10.433 F350
G3 X-26.075 Y0 Z10.358 J-3.575
G1 Y-20 Z10.091
G2 X-42.5 Y-36.425 Z9.746 I-16.425
G1 X-52.5 Z9.612
G2 X-68.925 Y-20 Z9.267 J16.425
G1 Y0 Z9
Y-20 F850
G3 X-52.5 Y-36.425 I16.425
G1 X-42.5
G3 X-26.075 Y-20 J16.425
G1 Y0
G2 X-22.5 Y3.575 I3.575
G1 X-17.5
X-22.5 Z8.933 F350
G3 X-26.075 Y0 Z8.858 J-3.575
G1 Y-20 Z8.591
G2 X-42.5 Y-36.425 Z8.246 I-16.425
G1 X-52.5 Z8.112
G2 X-68.925 Y-20 Z7.767 J16.425
G1 Y0 Z7.5
Y-20 F850
G3 X-52.5 Y-36.425 I16.425
G1 X-42.5
G3 X-26.075 Y-20 J16.425
G1 Y0
G2 X-22.5 Y3.575 I3.575
G1 X-17.5
X-22.5 Z7.433 F350
G3 X-26.075 Y0 Z7.358 J-3.575
G1 Y-20 Z7.091
G2 X-42.5 Y-36.425 Z6.746 I-16.425
G1 X-52.5 Z6.612
G2 X-68.925 Y-20 Z6.267 J16.425
G1 Y0 Z6
Y-20 F850
G3 X-52.5 Y-36.425 I16.425
G1 X-42.5
G3 X-26.075 Y-20 J16.425
G1 Y0
G2 X-22.5 Y3.575 I3.575
G1 X-17.5
X-22.5 Z5.933 F350
G3 X-26.075 Y0 Z5.858 J-3.575
G1 Y-20 Z5.591
G2 X-42.5 Y-36.425 Z5.246 I-16.425
G1 X-52.5 Z5.112
G2 X-68.925 Y-20 Z4.767 J16.425
G1 Y0 Z4.5
Y-20 F850
G3 X-52.5 Y-36.425 I16.425
G1 X-42.5
G3 X-26.075 Y-20 J16.425
G1 Y0
G2 X-22.5 Y3.575 I3.575
G1 X-17.5
X-22.5 Z4.433 F350
G3 X-26.075 Y0 Z4.358 J-3.575
G1 Y-20 Z4.091
G2 X-42.5 Y-36.425 Z3.746 I-16.425
G1 X-52.5 Z3.612
G2 X-68.925 Y-20 Z3.267 J16.425
G1 Y0 Z3
Y-20 F850
G3 X-52.5 Y-36.425 I16.425
G1 X-42.5
G3 X-26.075 Y-20 J16.425
G1 Y0
G2 X-22.5 Y3.575 I3.575
G1 X-17.5
X-22.5 Z2.933 F350
G3 X-26.075 Y0 Z2.858 J-3.575
G1 Y-20 Z2.591
G2 X-42.5 Y-36.425 Z2.246 I-16.425
G1 X-52.5 Z2.112
G2 X-68.925 Y-20 Z1.767 J16.425
G1 Y0 Z1.5
Y-20 F850
G3 X-52.5 Y-36.425 I16.425
G1 X-42.5
G3 X-26.075 Y-20 J16.425
G1 Y0
G2 X-22.5 Y3.575 I3.575
G1 X-17.5
X-22.5 Z1.455 F350
G3 X-26.075 Y0 Z1.405 J-3.575
G1 Y-20 Z1.227
G2 X-42.5 Y-36.425 Z0.997 I-16.425
G1 X-52.5 Z0.908
G2 X-68.925 Y-20 Z0.678 J16.425
G1 Y0 Z0.5
Y-20 F850
G3 X-52.5 Y-36.425 I16.425
G1 X-42.5
G3 X-26.075 Y-20 J16.425
G1 Y0
G2 X-22.5 Y3.575 I3.575
G1 X-17.5
G0 Z23
X-78.927 Y-5.42
G1 Z21.136 F333.3
G19 G3 Y-4.805 Z20.521 J0.615
G1 Y-4.19 F850
G17 G2 X-78.312 Y-3.575 I0.615
G1 X-76.075 Z19.921 F350
X-82.5 Z18.2
X-76.234 Z16.521
X-76.155 Z16.505
X-76.075 Z16.5
X-82.5 F850
X-76.075 Z15 F350
X-82.5 F850
X-76.075 Z13.5 F350
X-82.5 F850
X-76.075 Z12 F350
X-82.5 F850
X-76.075 Z10.5 F350
X-82.5 F850
X-76.075 Z9 F350
X-82.5 F850
X-76.075 Z7.5 F350
X-82.5 F850
X-76.075 Z6 F350
X-82.5 F850
X-76.075 Z4.5 F350
X-82.5 F850
X-76.075 Z3 F350
X-82.5 F850
X-76.075 Z1.5 F350
X-82.5 F850
X-76.075 Z0.5 F350
X-82.5 F850
G0 Z23
X-83.202 Y5.42
G1 Z21.136 F333.3
G19 G2 Y4.805 Z20.521 J-0.615
G1 Y4.19 F850
G17 G3 X-82.587 Y3.575 I0.615
G1 X-82.5 Z20.498 F350
X-87.5 Z19.158
X-82.5 Z17.818
X-87.341 Z16.521
X-87.42 Z16.505
X-87.5 Z16.5
X-82.5 F850
G0 Z23
X-95.54 Y-28.361
G1 Z21.136 F333.3
X-95.534 Y-28.365 Z21.04
X-95.516 Y-28.379 Z20.946
X-95.486 Y-28.401 Z20.857
X-95.446 Y-28.432 Z20.774
X-95.396 Y-28.47 Z20.701
X-95.338 Y-28.515 Z20.638
X-95.273 Y-28.565 Z20.588
X-95.202 Y-28.619 Z20.551
X-95.127 Y-28.676 Z20.529
X-95.051 Y-28.734 Z20.521
X-94.562 Y-29.107 F850
G2 X-94.447 Y-29.969 I-0.373 J-0.489
X-107.341 Y-36.424 Z16.521 I-13.053 J9.969 F350
G1 X-107.393 Y-36.425 Z16.509
X-107.446 Z16.502
X-107.5 Z16.5
G3 X-91.075 Y-20 J16.425 F850
G1 Y0
G0 Z23
X-83.202 Y5.42
G1 Z19.636 F333.3
G19 G2 Y4.805 Z19.021 J-0.615
G1 Y4.19 F850
G17 G3 X-82.587 Y3.575 I0.615
G1 X-82.5 Z18.998 F350
X-87.5 Z17.658
X-82.5 Z16.318
X-87.341 Z15.021
X-87.42 Z15.005
X-87.5 Z15
X-82.5 F850
G0 Z23
X-197.08 Y-15.702
G1 Z21.136 F333.3
G18 G3 X-197.695 Z20.521 I-0.615
G1 X-198.31 F850
G17 G2 X-198.925 Y-15.087 J0.615
G1 Y-0.159 Z16.521 F350
Y-0.08 Z16.505
Y0 Z16.5
Y-20 F850
Y-20.235
G3 X-183.204 Y-36.412 I16.425 J0.235
X-182.5 Y-36.425 I0.664 J16.412
G1 X-172.5
X-172.265
G3 X-156.075 Y-20.235 I-0.235 J16.425
G1 Y-20
Y0
G2 X-152.5 Y3.575 I3.575
G1 X-137.5
G2 X-133.925 Y0 J-3.575
G1 Y-20
G3 X-133.885 Y-21.172 I16.426 J-0.023
X-118.203 Y-36.412 I16.385 J1.172
X-117.5 Y-36.425 I0.664 J16.412
G1 X-107.5
X-117.5 Z16.418 F350
G2 X-118.203 Y-36.412 Z16.413 I-0.039 J16.426
X-133.885 Y-21.172 Z16.217 I0.703 J16.412
X-133.925 Y-20 Z16.208 I16.386 J1.148
G1 Y0 Z16.044
G3 X-137.5 Y3.575 Z15.998 I-3.575
G1 X-152.5 Z15.876
G3 X-156.075 Y0 Z15.83 J-3.575
G1 Y-20 Z15.667
Y-20.235 Z15.665
G2 X-172.265 Y-36.425 Z15.458 I-16.425 J0.235
G1 X-172.5 Z15.456
X-182.5 Z15.374
G2 X-183.204 Y-36.412 Z15.368 I-0.039 J16.426
X-198.925 Y-20.235 Z15.165 I0.704 J16.412
G1 Y-20 Z15.163
Y0 Z15
Y-20 F850
Y-20.235
G3 X-183.204 Y-36.412 I16.425 J0.235
X-182.5 Y-36.425 I0.664 J16.412
G1 X-172.5
X-172.265
G3 X-156.075 Y-20.235 I-0.235 J16.425
G1 Y-20
Y0
G2 X-152.5 Y3.575 I3.575
G1 X-137.5
G2 X-133.925 Y0 J-3.575
G1 Y-20
G3 X-133.885 Y-21.172 I16.426 J-0.023
X-118.203 Y-36.412 I16.385 J1.172
X-117.5 Y-36.425 I0.664 J16.412
G1 X-107.5
G0 Z23
X-95.54 Y-28.361
G1 Z19.636 F333.3
X-95.534 Y-28.365 Z19.54
X-95.516 Y-28.379 Z19.446
X-95.486 Y-28.401 Z19.357
X-95.446 Y-28.432 Z19.274
X-95.396 Y-28.47 Z19.201
X-95.338 Y-28.515 Z19.138
X-95.273 Y-28.565 Z19.088
X-95.202 Y-28.619 Z19.051
X-95.127 Y-28.676 Z19.029
X-95.051 Y-28.734 Z19.021
X-94.562 Y-29.107 F850
G2 X-94.447 Y-29.969 I-0.373 J-0.489
X-107.341 Y-36.424 Z15.021 I-13.053 J9.969 F350
G1 X-107.393 Y-36.425 Z15.009
X-107.446 Z15.002
X-107.5 Z15
G3 X-91.075 Y-20 J16.425 F850
G1 Y0
G0 Z23
X-83.202 Y5.42
G1 Z18.136 F333.3
G19 G2 Y4.805 Z17.521 J-0.615
G1 Y4.19 F850
G17 G3 X-82.587 Y3.575 I0.615
G1 X-82.5 Z17.498 F350
X-87.5 Z16.158
X-82.5 Z14.818
X-87.341 Z13.521
X-87.42 Z13.505
X-87.5 Z13.5
X-82.5 F850
G0 Z23
X-95.54 Y-28.361
G1 Z18.136 F333.3
X-95.534 Y-28.365 Z18.04
X-95.516 Y-28.379 Z17.946
X-95.486 Y-28.401 Z17.857
X-95.446 Y-28.432 Z17.774
X-95.396 Y-28.47 Z17.701
X-95.338 Y-28.515 Z17.638
X-95.273 Y-28.565 Z17.588
X-95.202 Y-28.619 Z17.551
X-95.127 Y-28.676 Z17.529
X-95.051 Y-28.734 Z17.521
X-94.562 Y-29.107 F850
G2 X-94.447 Y-29.969 I-0.373 J-0.489
X-107.341 Y-36.424 Z13.521 I-13.053 J9.969 F350
G1 X-107.393 Y-36.425 Z13.509
X-107.446 Z13.502
X-107.5 Z13.5
G3 X-91.075 Y-20 J16.425 F850
G1 Y0
G0 Z23
X-83.202 Y5.42
G1 Z16.636 F333.3
G19 G2 Y4.805 Z16.021 J-0.615
G1 Y4.19 F850
G17 G3 X-82.587 Y3.575 I0.615
G1 X-82.5 Z15.998 F350
X-87.5 Z14.658
X-82.5 Z13.318
X-87.341 Z12.021
X-87.42 Z12.005
X-87.5 Z12
X-82.5 F850
G0 Z23
X-197.08 Y-15.702
G1 Z18.136 F333.3
G18 G3 X-197.695 Z17.521 I-0.615
G1 X-198.31 F850
G17 G2 X-198.925 Y-15.087 J0.615
G1 Y-0.159 Z13.521 F350
Y-0.08 Z13.505
Y0 Z13.5
Y-20 F850
Y-20.235
G3 X-183.204 Y-36.412 I16.425 J0.235
X-182.5 Y-36.425 I0.664 J16.412
G1 X-172.5
X-172.265
G3 X-156.075 Y-20.235 I-0.235 J16.425
G1 Y-20
Y0
G2 X-152.5 Y3.575 I3.575
G1 X-137.5
G2 X-133.925 Y0 J-3.575
G1 Y-20
G3 X-133.885 Y-21.172 I16.426 J-0.023
X-118.203 Y-36.412 I16.385 J1.172
X-117.5 Y-36.425 I0.664 J16.412
G1 X-107.5
X-117.5 Z13.418 F350
G2 X-118.203 Y-36.412 Z13.413 I-0.039 J16.426
X-133.885 Y-21.172 Z13.217 I0.703 J16.412
X-133.925 Y-20 Z13.208 I16.386 J1.148
G1 Y0 Z13.044
G3 X-137.5 Y3.575 Z12.998 I-3.575
G1 X-152.5 Z12.876
G3 X-156.075 Y0 Z12.83 J-3.575
G1 Y-20 Z12.667
Y-20.235 Z12.665
G2 X-172.265 Y-36.425 Z12.458 I-16.425 J0.235
G1 X-172.5 Z12.456
X-182.5 Z12.374
G2 X-183.204 Y-36.412 Z12.368 I-0.039 J16.426
X-198.925 Y-20.235 Z12.165 I0.704 J16.412
G1 Y-20 Z12.163
Y0 Z12
Y-20 F850
Y-20.235
G3 X-183.204 Y-36.412 I16.425 J0.235
X-182.5 Y-36.425 I0.664 J16.412
G1 X-172.5
X-172.265
G3 X-156.075 Y-20.235 I-0.235 J16.425
G1 Y-20
Y0
G2 X-152.5 Y3.575 I3.575
G1 X-137.5
G2 X-133.925 Y0 J-3.575
G1 Y-20
G3 X-133.885 Y-21.172 I16.426 J-0.023
X-118.203 Y-36.412 I16.385 J1.172
X-117.5 Y-36.425 I0.664 J16.412
G1 X-107.5
G0 Z23
X-95.54 Y-28.361
G1 Z16.636 F333.3
X-95.534 Y-28.365 Z16.54
X-95.516 Y-28.379 Z16.446
X-95.486 Y-28.401 Z16.357
X-95.446 Y-28.432 Z16.274
X-95.396 Y-28.47 Z16.201
X-95.338 Y-28.515 Z16.138
X-95.273 Y-28.565 Z16.088
X-95.202 Y-28.619 Z16.051
X-95.127 Y-28.676 Z16.029
X-95.051 Y-28.734 Z16.021
X-94.562 Y-29.107 F850
G2 X-94.447 Y-29.969 I-0.373 J-0.489
X-107.341 Y-36.424 Z12.021 I-13.053 J9.969 F350
G1 X-107.393 Y-36.425 Z12.009
X-107.446 Z12.002
X-107.5 Z12
G3 X-91.075 Y-20 J16.425 F850
G1 Y0
G0 Z23
X-83.202 Y5.42
G1 Z15.136 F333.3
G19 G2 Y4.805 Z14.521 J-0.615
G1 Y4.19 F850
G17 G3 X-82.587 Y3.575 I0.615
G1 X-82.5 Z14.498 F350
X-87.5 Z13.158
X-82.5 Z11.818
X-87.341 Z10.521
X-87.42 Z10.505
X-87.5 Z10.5
X-82.5 F850
G0 Z23
X-95.54 Y-28.361
G1 Z15.136 F333.3
X-95.534 Y-28.365 Z15.04
X-95.516 Y-28.379 Z14.946
X-95.486 Y-28.401 Z14.857
X-95.446 Y-28.432 Z14.774
X-95.396 Y-28.47 Z14.701
X-95.338 Y-28.515 Z14.638
X-95.273 Y-28.565 Z14.588
X-95.202 Y-28.619 Z14.551
X-95.127 Y-28.676 Z14.529
X-95.051 Y-28.734 Z14.521
X-94.562 Y-29.107 F850
G2 X-94.447 Y-29.969 I-0.373 J-0.489
X-107.341 Y-36.424 Z10.521 I-13.053 J9.969 F350
G1 X-107.393 Y-36.425 Z10.509
X-107.446 Z10.502
X-107.5 Z10.5
G3 X-91.075 Y-20 J16.425 F850
G1 Y0
G0 Z23
X-83.202 Y5.42
G1 Z13.636 F333.3
G19 G2 Y4.805 Z13.021 J-0.615
G1 Y4.19 F850
G17 G3 X-82.587 Y3.575 I0.615
G1 X-82.5 Z12.998 F350
X-87.5 Z11.658
X-82.5 Z10.318
X-87.341 Z9.021
X-87.42 Z9.005
X-87.5 Z9
X-82.5 F850
G0 Z23
X-197.08 Y-15.702
G1 Z15.136 F333.3
G18 G3 X-197.695 Z14.521 I-0.615
G1 X-198.31 F850
G17 G2 X-198.925 Y-15.087 J0.615
G1 Y-0.159 Z10.521 F350
Y-0.08 Z10.505
Y0 Z10.5
Y-20 F850
Y-20.235
G3 X-183.204 Y-36.412 I16.425 J0.235
X-182.5 Y-36.425 I0.664 J16.412
G1 X-172.5
X-172.265
G3 X-156.075 Y-20.235 I-0.235 J16.425
G1 Y-20
Y0
G2 X-152.5 Y3.575 I3.575
G1 X-137.5
G2 X-133.925 Y0 J-3.575
G1 Y-20
G3 X-133.885 Y-21.172 I16.426 J-0.023
X-118.203 Y-36.412 I16.385 J1.172
X-117.5 Y-36.425 I0.664 J16.412
G1 X-107.5
X-117.5 Z10.418 F350
G2 X-118.203 Y-36.412 Z10.413 I-0.039 J16.426
X-133.885 Y-21.172 Z10.217 I0.703 J16.412
X-133.925 Y-20 Z10.208 I16.386 J1.148
G1 Y0 Z10.044
G3 X-137.5 Y3.575 Z9.998 I-3.575
G1 X-152.5 Z9.876
G3 X-156.075 Y0 Z9.83 J-3.575
G1 Y-20 Z9.667
Y-20.235 Z9.665
G2 X-172.265 Y-36.425 Z9.458 I-16.425 J0.235
G1 X-172.5 Z9.456
X-182.5 Z9.374
G2 X-183.204 Y-36.412 Z9.368 I-0.039 J16.426
X-198.925 Y-20.235 Z9.165 I0.704 J16.412
G1 Y-20 Z9.163
Y0 Z9
Y-20 F850
Y-20.235
G3 X-183.204 Y-36.412 I16.425 J0.235
X-182.5 Y-36.425 I0.664 J16.412
G1 X-172.5
X-172.265
G3 X-156.075 Y-20.235 I-0.235 J16.425
G1 Y-20
Y0
G2 X-152.5 Y3.575 I3.575
G1 X-137.5
G2 X-133.925 Y0 J-3.575
G1 Y-20
G3 X-133.885 Y-21.172 I16.426 J-0.023
X-118.203 Y-36.412 I16.385 J1.172
X-117.5 Y-36.425 I0.664 J16.412
G1 X-107.5
G0 Z23
X-95.54 Y-28.361
G1 Z13.636 F333.3
X-95.534 Y-28.365 Z13.54
X-95.516 Y-28.379 Z13.446
X-95.486 Y-28.401 Z13.357
X-95.446 Y-28.432 Z13.274
X-95.396 Y-28.47 Z13.201
X-95.338 Y-28.515 Z13.138
X-95.273 Y-28.565 Z13.088
X-95.202 Y-28.619 Z13.051
X-95.127 Y-28.676 Z13.029
X-95.051 Y-28.734 Z13.021
X-94.562 Y-29.107 F850
G2 X-94.447 Y-29.969 I-0.373 J-0.489
X-107.341 Y-36.424 Z9.021 I-13.053 J9.969 F350
G1 X-107.393 Y-36.425 Z9.009
X-107.446 Z9.002
X-107.5 Z9
G3 X-91.075 Y-20 J16.425 F850
G1 Y0
G0 Z23
X-83.202 Y5.42
G1 Z12.136 F333.3
G19 G2 Y4.805 Z11.521 J-0.615
G1 Y4.19 F850
G17 G3 X-82.587 Y3.575 I0.615
G1 X-82.5 Z11.498 F350
X-87.5 Z10.158
X-82.5 Z8.818
X-87.341 Z7.521
X-87.42 Z7.505
X-87.5 Z7.5
X-82.5 F850
G0 Z23
X-95.54 Y-28.361
G1 Z12.136 F333.3
X-95.534 Y-28.365 Z12.04
X-95.516 Y-28.379 Z11.946
X-95.486 Y-28.401 Z11.857
X-95.446 Y-28.432 Z11.774
X-95.396 Y-28.47 Z11.701
X-95.338 Y-28.515 Z11.638
X-95.273 Y-28.565 Z11.588
X-95.202 Y-28.619 Z11.551
X-95.127 Y-28.676 Z11.529
X-95.051 Y-28.734 Z11.521
X-94.562 Y-29.107 F850
G2 X-94.447 Y-29.969 I-0.373 J-0.489
X-107.341 Y-36.424 Z7.521 I-13.053 J9.969 F350
G1 X-107.393 Y-36.425 Z7.509
X-107.446 Z7.502
X-107.5 Z7.5
G3 X-91.075 Y-20 J16.425 F850
G1 Y0
G0 Z23
X-83.202 Y5.42
G1 Z10.636 F333.3
G19 G2 Y4.805 Z10.021 J-0.615
G1 Y4.19 F850
G17 G3 X-82.587 Y3.575 I0.615
G1 X-82.5 Z9.998 F350
X-87.5 Z8.658
X-82.5 Z7.318
X-87.341 Z6.021
X-87.42 Z6.005
X-87.5 Z6
X-82.5 F850
G0 Z23
X-197.08 Y-15.702
G1 Z12.136 F333.3
G18 G3 X-197.695 Z11.521 I-0.615
G1 X-198.31 F850
G17 G2 X-198.925 Y-15.087 J0.615
G1 Y-0.159 Z7.521 F350
Y-0.08 Z7.505
Y0 Z7.5
Y-20 F850
Y-20.235
G3 X-183.204 Y-36.412 I16.425 J0.235
X-182.5 Y-36.425 I0.664 J16.412
G1 X-172.5
X-172.265
G3 X-156.075 Y-20.235 I-0.235 J16.425
G1 Y-20
Y0
G2 X-152.5 Y3.575 I3.575
G1 X-137.5
G2 X-133.925 Y0 J-3.575
G1 Y-20
G3 X-133.885 Y-21.172 I16.426 J-0.023
X-118.203 Y-36.412 I16.385 J1.172
X-117.5 Y-36.425 I0.664 J16.412
G1 X-107.5
X-117.5 Z7.418 F350
G2 X-118.203 Y-36.412 Z7.413 I-0.039 J16.426
X-133.885 Y-21.172 Z7.217 I0.703 J16.412
X-133.925 Y-20 Z7.208 I16.386 J1.148
G1 Y0 Z7.044
G3 X-137.5 Y3.575 Z6.998 I-3.575
G1 X-152.5 Z6.876
G3 X-156.075 Y0 Z6.83 J-3.575
G1 Y-20 Z6.667
Y-20.235 Z6.665
G2 X-172.265 Y-36.425 Z6.458 I-16.425 J0.235
G1 X-172.5 Z6.456
X-182.5 Z6.374
G2 X-183.204 Y-36.412 Z6.368 I-0.039 J16.426
X-198.925 Y-20.235 Z6.165 I0.704 J16.412
G1 Y-20 Z6.163
Y0 Z6
Y-20 F850
Y-20.235
G3 X-183.204 Y-36.412 I16.425 J0.235
X-182.5 Y-36.425 I0.664 J16.412
G1 X-172.5
X-172.265
G3 X-156.075 Y-20.235 I-0.235 J16.425
G1 Y-20
Y0
G2 X-152.5 Y3.575 I3.575
G1 X-137.5
G2 X-133.925 Y0 J-3.575
G1 Y-20
G3 X-133.885 Y-21.172 I16.426 J-0.023
X-118.203 Y-36.412 I16.385 J1.172
X-117.5 Y-36.425 I0.664 J16.412
G1 X-107.5
G0 Z23
X-95.54 Y-28.361
G1 Z10.636 F333.3
X-95.534 Y-28.365 Z10.54
X-95.516 Y-28.379 Z10.446
X-95.486 Y-28.401 Z10.357
X-95.446 Y-28.432 Z10.274
X-95.396 Y-28.47 Z10.201
X-95.338 Y-28.515 Z10.138
X-95.273 Y-28.565 Z10.088
X-95.202 Y-28.619 Z10.051
X-95.127 Y-28.676 Z10.029
X-95.051 Y-28.734 Z10.021
X-94.562 Y-29.107 F850
G2 X-94.447 Y-29.969 I-0.373 J-0.489
X-107.341 Y-36.424 Z6.021 I-13.053 J9.969 F350
G1 X-107.393 Y-36.425 Z6.009
X-107.446 Z6.002
X-107.5 Z6
G3 X-91.075 Y-20 J16.425 F850
G1 Y0
G0 Z23
X-83.202 Y5.42
G1 Z9.136 F333.3
G19 G2 Y4.805 Z8.521 J-0.615
G1 Y4.19 F850
G17 G3 X-82.587 Y3.575 I0.615
G1 X-82.5 Z8.498 F350
X-87.5 Z7.158
X-82.5 Z5.818
X-87.341 Z4.521
X-87.42 Z4.505
X-87.5 Z4.5
X-82.5 F850
G0 Z23
X-95.54 Y-28.361
G1 Z9.136 F333.3
X-95.534 Y-28.365 Z9.04
X-95.516 Y-28.379 Z8.946
X-95.486 Y-28.401 Z8.857
X-95.446 Y-28.432 Z8.774
X-95.396 Y-28.47 Z8.701
X-95.338 Y-28.515 Z8.638
X-95.273 Y-28.565 Z8.588
X-95.202 Y-28.619 Z8.551
X-95.127 Y-28.676 Z8.529
X-95.051 Y-28.734 Z8.521
X-94.562 Y-29.107 F850
G2 X-94.447 Y-29.969 I-0.373 J-0.489
X-107.341 Y-36.424 Z4.521 I-13.053 J9.969 F350
G1 X-107.393 Y-36.425 Z4.509
X-107.446 Z4.502
X-107.5 Z4.5
G3 X-91.075 Y-20 J16.425 F850
G1 Y0
G0 Z23
X-83.202 Y5.42
G1 Z7.636 F333.3
G19 G2 Y4.805 Z7.021 J-0.615
G1 Y4.19 F850
G17 G3 X-82.587 Y3.575 I0.615
G1 X-82.5 Z6.998 F350
X-87.5 Z5.658
X-82.5 Z4.318
X-87.341 Z3.021
X-87.42 Z3.005
X-87.5 Z3
X-82.5 F850
G0 Z23
X-197.08 Y-15.702
G1 Z9.136 F333.3
G18 G3 X-197.695 Z8.521 I-0.615
G1 X-198.31 F850
G17 G2 X-198.925 Y-15.087 J0.615
G1 Y-0.159 Z4.521 F350
Y-0.08 Z4.505
Y0 Z4.5
Y-20 F850
Y-20.235
G3 X-183.204 Y-36.412 I16.425 J0.235
X-182.5 Y-36.425 I0.664 J16.412
G1 X-172.5
X-172.265
G3 X-156.075 Y-20.235 I-0.235 J16.425
G1 Y-20
Y0
G2 X-152.5 Y3.575 I3.575
G1 X-137.5
G2 X-133.925 Y0 J-3.575
G1 Y-20
G3 X-133.885 Y-21.172 I16.426 J-0.023
X-118.203 Y-36.412 I16.385 J1.172
X-117.5 Y-36.425 I0.664 J16.412
G1 X-107.5
X-117.5 Z4.418 F350
G2 X-118.203 Y-36.412 Z4.413 I-0.039 J16.426
X-133.885 Y-21.172 Z4.217 I0.703 J16.412
X-133.925 Y-20 Z4.208 I16.386 J1.148
G1 Y0 Z4.044
G3 X-137.5 Y3.575 Z3.998 I-3.575
G1 X-152.5 Z3.876
G3 X-156.075 Y0 Z3.83 J-3.575
G1 Y-20 Z3.667
Y-20.235 Z3.665
G2 X-172.265 Y-36.425 Z3.458 I-16.425 J0.235
G1 X-172.5 Z3.456
X-182.5 Z3.374
G2 X-183.204 Y-36.412 Z3.368 I-0.039 J16.426
X-198.925 Y-20.235 Z3.165 I0.704 J16.412
G1 Y-20 Z3.163
Y0 Z3
Y-20 F850
Y-20.235
G3 X-183.204 Y-36.412 I16.425 J0.235
X-182.5 Y-36.425 I0.664 J16.412
G1 X-172.5
X-172.265
G3 X-156.075 Y-20.235 I-0.235 J16.425
G1 Y-20
Y0
G2 X-152.5 Y3.575 I3.575
G1 X-137.5
G2 X-133.925 Y0 J-3.575
G1 Y-20
G3 X-133.885 Y-21.172 I16.426 J-0.023
X-118.203 Y-36.412 I16.385 J1.172
X-117.5 Y-36.425 I0.664 J16.412
G1 X-107.5
G0 Z23
X-95.54 Y-28.361
G1 Z7.636 F333.3
X-95.534 Y-28.365 Z7.54
X-95.516 Y-28.379 Z7.446
X-95.486 Y-28.401 Z7.357
X-95.446 Y-28.432 Z7.274
X-95.396 Y-28.47 Z7.201
X-95.338 Y-28.515 Z7.138
X-95.273 Y-28.565 Z7.088
X-95.202 Y-28.619 Z7.051
X-95.127 Y-28.676 Z7.029
X-95.051 Y-28.734 Z7.021
X-94.562 Y-29.107 F850
G2 X-94.447 Y-29.969 I-0.373 J-0.489
X-107.341 Y-36.424 Z3.021 I-13.053 J9.969 F350
G1 X-107.393 Y-36.425 Z3.009
X-107.446 Z3.002
X-107.5 Z3
G3 X-91.075 Y-20 J16.425 F850
G1 Y0
G0 Z23
X-83.202 Y5.42
G1 Z6.136 F333.3
G19 G2 Y4.805 Z5.521 J-0.615
G1 Y4.19 F850
G17 G3 X-82.587 Y3.575 I0.615
G1 X-82.5 Z5.498 F350
X-87.5 Z4.158
X-82.5 Z2.818
X-87.341 Z1.521
X-87.42 Z1.505
X-87.5 Z1.5
X-82.5 F850
G0 Z23
X-95.54 Y-28.361
G1 Z6.136 F333.3
X-95.534 Y-28.365 Z6.04
X-95.516 Y-28.379 Z5.946
X-95.486 Y-28.401 Z5.857
X-95.446 Y-28.432 Z5.774
X-95.396 Y-28.47 Z5.701
X-95.338 Y-28.515 Z5.638
X-95.273 Y-28.565 Z5.588
X-95.202 Y-28.619 Z5.551
X-95.127 Y-28.676 Z5.529
X-95.051 Y-28.734 Z5.521
X-94.562 Y-29.107 F850
G2 X-94.447 Y-29.969 I-0.373 J-0.489
X-107.341 Y-36.424 Z1.521 I-13.053 J9.969 F350
G1 X-107.393 Y-36.425 Z1.509
X-107.446 Z1.502
X-107.5 Z1.5
G3 X-91.075 Y-20 J16.425 F850
G1 Y0
G0 Z23
X-83.664 Y5.42
G1 Z4.636 F333.3
G19 G2 Y4.805 Z4.021 J-0.615
G1 Y4.19 F850
G17 G2 X-84.279 Y3.575 I-0.615
G1 X-87.5 Z3.158 F350
X-82.5 Z1.818
X-87.341 Z0.521
X-87.42 Z0.505
X-87.5 Z0.5
X-82.5 F850
G0 Z23
X-197.08 Y-15.702
G1 Z6.136 F333.3
G18 G3 X-197.695 Z5.521 I-0.615
G1 X-198.31 F850
G17 G2 X-198.925 Y-15.087 J0.615
G1 Y-0.159 Z1.521 F350
Y-0.08 Z1.505
Y0 Z1.5
Y-20 F850
Y-20.235
G3 X-183.204 Y-36.412 I16.425 J0.235
X-182.5 Y-36.425 I0.664 J16.412
G1 X-172.5
X-172.265
G3 X-156.075 Y-20.235 I-0.235 J16.425
G1 Y-20
Y0
G2 X-152.5 Y3.575 I3.575
G1 X-137.5
G2 X-133.925 Y0 J-3.575
G1 Y-20
G3 X-133.885 Y-21.172 I16.426 J-0.023
X-118.203 Y-36.412 I16.385 J1.172
X-117.5 Y-36.425 I0.664 J16.412
G1 X-107.5
X-117.5 Z1.446 F350
G2 X-118.203 Y-36.412 Z1.442 I-0.039 J16.426
X-133.885 Y-21.172 Z1.311 I0.703 J16.412
X-133.925 Y-20 Z1.305 I16.386 J1.148
G1 Y0 Z1.196
G3 X-137.5 Y3.575 Z1.166 I-3.575
G1 X-152.5 Z1.084
G3 X-156.075 Y0 Z1.053 J-3.575
G1 Y-20 Z0.944
Y-20.235 Z0.943
G2 X-172.265 Y-36.425 Z0.805 I-16.425 J0.235
G1 X-172.5 Z0.804
X-182.5 Z0.749
G2 X-183.204 Y-36.412 Z0.746 I-0.039 J16.426
X-198.925 Y-20.235 Z0.61 I0.704 J16.412
G1 Y-20 Z0.609
Y0 Z0.5
Y-20 F850
Y-20.235
G3 X-183.204 Y-36.412 I16.425 J0.235
X-182.5 Y-36.425 I0.664 J16.412
G1 X-172.5
X-172.265
G3 X-156.075 Y-20.235 I-0.235 J16.425
G1 Y-20
Y0
G2 X-152.5 Y3.575 I3.575
G1 X-137.5
G2 X-133.925 Y0 J-3.575
G1 Y-20
G3 X-133.885 Y-21.172 I16.426 J-0.023
X-118.203 Y-36.412 I16.385 J1.172
X-117.5 Y-36.425 I0.664 J16.412
G1 X-107.5
G0 Z23
X-96.564 Y-29.663
G1 Z4.636 F333.3
X-96.559 Y-29.668 Z4.54
X-96.543 Y-29.684 Z4.446
X-96.516 Y-29.709 Z4.357
X-96.48 Y-29.744 Z4.274
X-96.435 Y-29.788 Z4.201
X-96.382 Y-29.838 Z4.138
X-96.322 Y-29.896 Z4.088
X-96.258 Y-29.957 Z4.051
X-96.191 Y-30.022 Z4.029
X-96.121 Y-30.089 Z4.021
X-95.678 Y-30.515 F850
G2 X-95.661 Y-31.385 I-0.426 J-0.443
X-107.341 Y-36.424 Z0.521 I-11.839 J11.385 F350
G1 X-107.393 Y-36.425 Z0.509
X-107.446 Z0.502
X-107.5 Z0.5
G3 X-91.075 Y-20 J16.425 F850
G1 Y0
G0 Z23
X-208.927 Y-5.42
G1 Z21.136 F333.3
G19 G3 Y-4.805 Z20.521 J0.615
G1 Y-4.19 F850
G17 G2 X-208.312 Y-3.575 I0.615
G1 X-206.075 Z19.921 F350
X-212.5 Z18.2
X-206.234 Z16.521
X-206.155 Z16.505
X-206.075 Z16.5
X-212.5 F850
X-206.075 Z15 F350
X-212.5 F850
X-206.075 Z13.5 F350
X-212.5 F850
X-206.075 Z12 F350
X-212.5 F850
X-206.075 Z10.5 F350
X-212.5 F850
X-206.075 Z9 F350
X-212.5 F850
X-206.075 Z7.5 F350
X-212.5 F850
X-206.075 Z6 F350
X-212.5 F850
X-206.075 Z4.5 F350
X-212.5 F850
X-206.075 Z3 F350
X-212.5 F850
X-206.075 Z1.5 F350
X-212.5 F850
X-206.075 Z0.5 F350
X-212.5 F850
G0 Z23
X-213.202 Y5.42
G1 Z21.136 F333.3
G19 G2 Y4.805 Z20.521 J-0.615
G1 Y4.19 F850
G17 G3 X-212.587 Y3.575 I0.615
G1 X-212.5 Z20.498 F350
X-217.5 Z19.158
X-212.5 Z17.818
X-217.341 Z16.521
X-217.42 Z16.505
X-217.5 Z16.5
X-212.5 F850
G0 Z23
X-262.08 Y-10.087
G1 Z21.136 F333.3
G18 G3 X-262.695 Z20.521 I-0.615
G1 X-263.31 F850
G17 G2 X-263.925 Y-9.472 J0.615
G1 Y0 Z17.983 F350
G3 X-267.341 Y3.571 Z16.521 I-3.575
G1 X-267.393 Y3.573 Z16.509
X-267.446 Y3.575 Z16.502
X-267.5 Z16.5
G2 X-263.925 Y0 J-3.575 F850
G1 Y-20
G3 X-247.5 Y-36.425 I16.425
G1 X-237.5
G3 X-221.075 Y-20 J16.425
G1 Y0
Y-20 Z16.22 F350
G2 X-237.5 Y-36.425 Z15.859 I-16.425
G1 X-247.5 Z15.719
G2 X-263.925 Y-20 Z15.358 J16.425
G1 Y0 Z15.079
G3 X-267.5 Y3.575 Z15 I-3.575
G2 X-263.925 Y0 J-3.575 F850
G1 Y-20
G3 X-247.5 Y-36.425 I16.425
G1 X-237.5
G3 X-221.075 Y-20 J16.425
G1 Y0
G0 Z23
X-213.202 Y5.42
G1 Z19.636 F333.3
G19 G2 Y4.805 Z19.021 J-0.615
G1 Y4.19 F850
G17 G3 X-212.587 Y3.575 I0.615
G1 X-212.5 Z18.998 F350
X-217.5 Z17.658
X-212.5 Z16.318
X-217.341 Z15.021
X-217.42 Z15.005
X-217.5 Z15
X-212.5 F850
G0 Z23
X-213.202 Y5.42
G1 Z18.136 F333.3
G19 G2 Y4.805 Z17.521 J-0.615
G1 Y4.19 F850
G17 G3 X-212.587 Y3.575 I0.615
G1 X-212.5 Z17.498 F350
X-217.5 Z16.158
X-212.5 Z14.818
X-217.341 Z13.521
X-217.42 Z13.505
X-217.5 Z13.5
X-212.5 F850
G0 Z23
X-262.08 Y-10.087
G1 Z18.136 F333.3
G18 G3 X-262.695 Z17.521 I-0.615
G1 X-263.31 F850
G17 G2 X-263.925 Y-9.472 J0.615
G1 Y0 Z14.983 F350
G3 X-267.341 Y3.571 Z13.521 I-3.575
G1 X-267.393 Y3.573 Z13.509
X-267.446 Y3.575 Z13.502
X-267.5 Z13.5
G2 X-263.925 Y0 J-3.575 F850
G1 Y-20
G3 X-247.5 Y-36.425 I16.425
G1 X-237.5
G3 X-221.075 Y-20 J16.425
G1 Y0
Y-20 Z13.22 F350
G2 X-237.5 Y-36.425 Z12.859 I-16.425
G1 X-247.5 Z12.719
G2 X-263.925 Y-20 Z12.358 J16.425
G1 Y0 Z12.079
G3 X-267.5 Y3.575 Z12 I-3.575
G2 X-263.925 Y0 J-3.575 F850
G1 Y-20
G3 X-247.5 Y-36.425 I16.425
G1 X-237.5
G3 X-221.075 Y-20 J16.425
G1 Y0
G0 Z23
X-213.202 Y5.42
G1 Z16.636 F333.3
G19 G2 Y4.805 Z16.021 J-0.615
G1 Y4.19 F850
G17 G3 X-212.587 Y3.575 I0.615
G1 X-212.5 Z15.998 F350
X-217.5 Z14.658
X-212.5 Z13.318
X-217.341 Z12.021
X-217.42 Z12.005
X-217.5 Z12
X-212.5 F850
G0 Z23
X-213.202 Y5.42
G1 Z15.136 F333.3
G19 G2 Y4.805 Z14.521 J-0.615
G1 Y4.19 F850
G17 G3 X-212.587 Y3.575 I0.615
G1 X-212.5 Z14.498 F350
X-217.5 Z13.158
X-212.5 Z11.818
X-217.341 Z10.521
X-217.42 Z10.505
X-217.5 Z10.5
X-212.5 F850
G0 Z23
X-262.08 Y-10.087
G1 Z15.136 F333.3
G18 G3 X-262.695 Z14.521 I-0.615
G1 X-263.31 F850
G17 G2 X-263.925 Y-9.472 J0.615
G1 Y0 Z11.983 F350
G3 X-267.341 Y3.571 Z10.521 I-3.575
G1 X-267.393 Y3.573 Z10.509
X-267.446 Y3.575 Z10.502
X-267.5 Z10.5
G2 X-263.925 Y0 J-3.575 F850
G1 Y-20
G3 X-247.5 Y-36.425 I16.425
G1 X-237.5
G3 X-221.075 Y-20 J16.425
G1 Y0
Y-20 Z10.22 F350
G2 X-237.5 Y-36.425 Z9.859 I-16.425
G1 X-247.5 Z9.719
G2 X-263.925 Y-20 Z9.358 J16.425
G1 Y0 Z9.079
G3 X-267.5 Y3.575 Z9 I-3.575
G2 X-263.925 Y0 J-3.575 F850
G1 Y-20
G3 X-247.5 Y-36.425 I16.425
G1 X-237.5
G3 X-221.075 Y-20 J16.425
G1 Y0
G0 Z23
X-213.202 Y5.42
G1 Z13.636 F333.3
G19 G2 Y4.805 Z13.021 J-0.615
G1 Y4.19 F850
G17 G3 X-212.587 Y3.575 I0.615
G1 X-212.5 Z12.998 F350
X-217.5 Z11.658
X-212.5 Z10.318
X-217.341 Z9.021
X-217.42 Z9.005
X-217.5 Z9
X-212.5 F850
G0 Z23
X-213.202 Y5.42
G1 Z12.136 F333.3
G19 G2 Y4.805 Z11.521 J-0.615
G1 Y4.19 F850
G17 G3 X-212.587 Y3.575 I0.615
G1 X-212.5 Z11.498 F350
X-217.5 Z10.158
X-212.5 Z8.818
X-217.341 Z7.521
X-217.42 Z7.505
X-217.5 Z7.5
X-212.5 F850
G0 Z23
X-262.08 Y-10.087
G1 Z12.136 F333.3
G18 G3 X-262.695 Z11.521 I-0.615
G1 X-263.31 F850
G17 G2 X-263.925 Y-9.472 J0.615
G1 Y0 Z8.983 F350
G3 X-267.341 Y3.571 Z7.521 I-3.575
G1 X-267.393 Y3.573 Z7.509
X-267.446 Y3.575 Z7.502
X-267.5 Z7.5
G2 X-263.925 Y0 J-3.575 F850
G1 Y-20
G3 X-247.5 Y-36.425 I16.425
G1 X-237.5
G3 X-221.075 Y-20 J16.425
G1 Y0
Y-20 Z7.22 F350
G2 X-237.5 Y-36.425 Z6.859 I-16.425
G1 X-247.5 Z6.719
G2 X-263.925 Y-20 Z6.358 J16.425
G1 Y0 Z6.079
G3 X-267.5 Y3.575 Z6 I-3.575
G2 X-263.925 Y0 J-3.575 F850
G1 Y-20
G3 X-247.5 Y-36.425 I16.425
G1 X-237.5
G3 X-221.075 Y-20 J16.425
G1 Y0
G0 Z23
X-213.202 Y5.42
G1 Z10.636 F333.3
G19 G2 Y4.805 Z10.021 J-0.615
G1 Y4.19 F850
G17 G3 X-212.587 Y3.575 I0.615
G1 X-212.5 Z9.998 F350
X-217.5 Z8.658
X-212.5 Z7.318
X-217.341 Z6.021
X-217.42 Z6.005
X-217.5 Z6
X-212.5 F850
G0 Z23
X-213.202 Y5.42
G1 Z9.136 F333.3
G19 G2 Y4.805 Z8.521 J-0.615
G1 Y4.19 F850
G17 G3 X-212.587 Y3.575 I0.615
G1 X-212.5 Z8.498 F350
X-217.5 Z7.158
X-212.5 Z5.818
X-217.341 Z4.521
X-217.42 Z4.505
X-217.5 Z4.5
X-212.5 F850
G0 Z23
X-262.08 Y-10.087
G1 Z9.136 F333.3
G18 G3 X-262.695 Z8.521 I-0.615
G1 X-263.31 F850
G17 G2 X-263.925 Y-9.472 J0.615
G1 Y0 Z5.983 F350
G3 X-267.341 Y3.571 Z4.521 I-3.575
G1 X-267.393 Y3.573 Z4.509
X-267.446 Y3.575 Z4.502
X-267.5 Z4.5
G2 X-263.925 Y0 J-3.575 F850
G1 Y-20
G3 X-247.5 Y-36.425 I16.425
G1 X-237.5
G3 X-221.075 Y-20 J16.425
G1 Y0
Y-20 Z4.22 F350
G2 X-237.5 Y-36.425 Z3.859 I-16.425
G1 X-247.5 Z3.719
G2 X-263.925 Y-20 Z3.358 J16.425
G1 Y0 Z3.079
G3 X-267.5 Y3.575 Z3 I-3.575
G2 X-263.925 Y0 J-3.575 F850
G1 Y-20
G3 X-247.5 Y-36.425 I16.425
G1 X-237.5
G3 X-221.075 Y-20 J16.425
G1 Y0
G0 Z23
X-213.202 Y5.42
G1 Z7.636 F333.3
G19 G2 Y4.805 Z7.021 J-0.615
G1 Y4.19 F850
G17 G3 X-212.587 Y3.575 I0.615
G1 X-212.5 Z6.998 F350
X-217.5 Z5.658
X-212.5 Z4.318
X-217.341 Z3.021
X-217.42 Z3.005
X-217.5 Z3
X-212.5 F850
G0 Z23
X-213.202 Y5.42
G1 Z6.136 F333.3
G19 G2 Y4.805 Z5.521 J-0.615
G1 Y4.19 F850
G17 G3 X-212.587 Y3.575 I0.615
G1 X-212.5 Z5.498 F350
X-217.5 Z4.158
X-212.5 Z2.818
X-217.341 Z1.521
X-217.42 Z1.505
X-217.5 Z1.5
X-212.5 F850
G0 Z23
X-262.08 Y-10.087
G1 Z6.136 F333.3
G18 G3 X-262.695 Z5.521 I-0.615
G1 X-263.31 F850
G17 G2 X-263.925 Y-9.472 J0.615
G1 Y0 Z2.983 F350
G3 X-267.341 Y3.571 Z1.521 I-3.575
G1 X-267.393 Y3.573 Z1.509
X-267.446 Y3.575 Z1.502
X-267.5 Z1.5
G2 X-263.925 Y0 J-3.575 F850
G1 Y-20
G3 X-247.5 Y-36.425 I16.425
G1 X-237.5
G3 X-221.075 Y-20 J16.425
G1 Y0
Y-20 Z1.313 F350
G2 X-237.5 Y-36.425 Z1.073 I-16.425
G1 X-247.5 Z0.98
G2 X-263.925 Y-20 Z0.739 J16.425
G1 Y0 Z0.552
G3 X-267.5 Y3.575 Z0.5 I-3.575
G2 X-263.925 Y0 J-3.575 F850
G1 Y-20
G3 X-247.5 Y-36.425 I16.425
G1 X-237.5
G3 X-221.075 Y-20 J16.425
G1 Y0
G0 Z23
X-213.664 Y5.42
G1 Z4.636 F333.3
G19 G2 Y4.805 Z4.021 J-0.615
G1 Y4.19 F850
G17 G2 X-214.279 Y3.575 I-0.615
G1 X-217.5 Z3.158 F350
X-212.5 Z1.818
X-217.341 Z0.521
X-217.42 Z0.505
X-217.5 Z0.5
X-212.5 F850
G0 Z23
X-273.927 Y-5.42
G1 Z21.136 F333.3
G19 G3 Y-4.805 Z20.521 J0.615
G1 Y-4.19 F850
G17 G2 X-273.312 Y-3.575 I0.615
G1 X-271.075 Z19.921 F350
X-277.5 Z18.2
X-271.234 Z16.521
X-271.155 Z16.505
X-271.075 Z16.5
X-277.5 F850
X-271.075 Z15 F350
X-277.5 F850
X-271.075 Z13.5 F350
X-277.5 F850
X-271.075 Z12 F350
X-277.5 F850
X-271.075 Z10.5 F350
X-277.5 F850
X-271.075 Z9 F350
X-277.5 F850
X-271.075 Z7.5 F350
X-277.5 F850
X-271.075 Z6 F350
X-277.5 F850
X-271.075 Z4.5 F350
X-277.5 F850
X-271.075 Z3 F350
X-277.5 F850
X-271.075 Z1.5 F350
X-277.5 F850
X-271.075 Z0.5 F350
X-277.5 F850
G0 Z23
X-327.08 Y-10.087
G1 Z21.136 F333.3
G18 G3 X-327.695 Z20.521 I-0.615
G1 X-328.31 F850
G17 G2 X-328.925 Y-9.472 J0.615
G1 Y0 Z17.983 F350
G3 X-332.341 Y3.571 Z16.521 I-3.575
G1 X-332.393 Y3.573 Z16.509
X-332.446 Y3.575 Z16.502
X-332.5 Z16.5
G2 X-328.925 Y0 J-3.575 F850
G1 Y-20
G3 X-312.5 Y-36.425 I16.425
G1 X-302.5
G3 X-286.075 Y-20 J16.425
G1 Y0
G2 X-282.5 Y3.575 I3.575
G1 X-277.5
X-282.5 Z16.436 F350
G3 X-286.075 Y0 Z16.365 J-3.575
G1 Y-20 Z16.11
G2 X-302.5 Y-36.425 Z15.782 I-16.425
G1 X-312.5 Z15.655
G2 X-328.925 Y-20 Z15.326 J16.425
G1 Y0 Z15.071
G3 X-332.5 Y3.575 Z15 I-3.575
G2 X-328.925 Y0 J-3.575 F850
G1 Y-20
G3 X-312.5 Y-36.425 I16.425
G1 X-302.5
G3 X-286.075 Y-20 J16.425
G1 Y0
G2 X-282.5 Y3.575 I3.575
G1 X-277.5
X-282.5 Z14.936 F350
G3 X-286.075 Y0 Z14.865 J-3.575
G1 Y-20 Z14.61
G2 X-302.5 Y-36.425 Z14.282 I-16.425
G1 X-312.5 Z14.155
G2 X-328.925 Y-20 Z13.826 J16.425
G1 Y0 Z13.571
G3 X-332.5 Y3.575 Z13.5 I-3.575
G2 X-328.925 Y0 J-3.575 F850
G1 Y-20
G3 X-312.5 Y-36.425 I16.425
G1 X-302.5
G3 X-286.075 Y-20 J16.425
G1 Y0
G2 X-282.5 Y3.575 I3.575
G1 X-277.5
X-282.5 Z13.436 F350
G3 X-286.075 Y0 Z13.365 J-3.575
G1 Y-20 Z13.11
G2 X-302.5 Y-36.425 Z12.782 I-16.425
G1 X-312.5 Z12.655
G2 X-328.925 Y-20 Z12.326 J16.425
G1 Y0 Z12.071
G3 X-332.5 Y3.575 Z12 I-3.575
G2 X-328.925 Y0 J-3.575 F850
G1 Y-20
G3 X-312.5 Y-36.425 I16.425
G1 X-302.5
G3 X-286.075 Y-20 J16.425
G1 Y0
G2 X-282.5 Y3.575 I3.575
G1 X-277.5
X-282.5 Z11.936 F350
G3 X-286.075 Y0 Z11.865 J-3.575
G1 Y-20 Z11.61
G2 X-302.5 Y-36.425 Z11.282 I-16.425
G1 X-312.5 Z11.155
G2 X-328.925 Y-20 Z10.826 J16.425
G1 Y0 Z10.571
G3 X-332.5 Y3.575 Z10.5 I-3.575
G2 X-328.925 Y0 J-3.575 F850
G1 Y-20
G3 X-312.5 Y-36.425 I16.425
G1 X-302.5
G3 X-286.075 Y-20 J16.425
G1 Y0
G2 X-282.5 Y3.575 I3.575
G1 X-277.5
X-282.5 Z10.436 F350
G3 X-286.075 Y0 Z10.365 J-3.575
G1 Y-20 Z10.11
G2 X-302.5 Y-36.425 Z9.782 I-16.425
G1 X-312.5 Z9.655
G2 X-328.925 Y-20 Z9.326 J16.425
G1 Y0 Z9.071
G3 X-332.5 Y3.575 Z9 I-3.575
G2 X-328.925 Y0 J-3.575 F850
G1 Y-20
G3 X-312.5 Y-36.425 I16.425
G1 X-302.5
G3 X-286.075 Y-20 J16.425
G1 Y0
G2 X-282.5 Y3.575 I3.575
G1 X-277.5
X-282.5 Z8.936 F350
G3 X-286.075 Y0 Z8.865 J-3.575
G1 Y-20 Z8.61
G2 X-302.5 Y-36.425 Z8.282 I-16.425
G1 X-312.5 Z8.155
G2 X-328.925 Y-20 Z7.826 J16.425
G1 Y0 Z7.571
G3 X-332.5 Y3.575 Z7.5 I-3.575
G2 X-328.925 Y0 J-3.575 F850
G1 Y-20
G3 X-312.5 Y-36.425 I16.425
G1 X-302.5
G3 X-286.075 Y-20 J16.425
G1 Y0
G2 X-282.5 Y3.575 I3.575
G1 X-277.5
X-282.5 Z7.436 F350
G3 X-286.075 Y0 Z7.365 J-3.575
G1 Y-20 Z7.11
G2 X-302.5 Y-36.425 Z6.782 I-16.425
G1 X-312.5 Z6.655
G2 X-328.925 Y-20 Z6.326 J16.425
G1 Y0 Z6.071
G3 X-332.5 Y3.575 Z6 I-3.575
G2 X-328.925 Y0 J-3.575 F850
G1 Y-20
G3 X-312.5 Y-36.425 I16.425
G1 X-302.5
G3 X-286.075 Y-20 J16.425
G1 Y0
G2 X-282.5 Y3.575 I3.575
G1 X-277.5
X-282.5 Z5.936 F350
G3 X-286.075 Y0 Z5.865 J-3.575
G1 Y-20 Z5.61
G2 X-302.5 Y-36.425 Z5.282 I-16.425
G1 X-312.5 Z5.155
G2 X-328.925 Y-20 Z4.826 J16.425
G1 Y0 Z4.571
G3 X-332.5 Y3.575 Z4.5 I-3.575
G2 X-328.925 Y0 J-3.575 F850
G1 Y-20
G3 X-312.5 Y-36.425 I16.425
G1 X-302.5
G3 X-286.075 Y-20 J16.425
G1 Y0
G2 X-282.5 Y3.575 I3.575
G1 X-277.5
X-282.5 Z4.436 F350
G3 X-286.075 Y0 Z4.365 J-3.575
G1 Y-20 Z4.11
G2 X-302.5 Y-36.425 Z3.782 I-16.425
G1 X-312.5 Z3.655
G2 X-328.925 Y-20 Z3.326 J16.425
G1 Y0 Z3.071
G3 X-332.5 Y3.575 Z3 I-3.575
G2 X-328.925 Y0 J-3.575 F850
G1 Y-20
G3 X-312.5 Y-36.425 I16.425
G1 X-302.5
G3 X-286.075 Y-20 J16.425
G1 Y0
G2 X-282.5 Y3.575 I3.575
G1 X-277.5
X-282.5 Z2.936 F350
G3 X-286.075 Y0 Z2.865 J-3.575
G1 Y-20 Z2.61
G2 X-302.5 Y-36.425 Z2.282 I-16.425
G1 X-312.5 Z2.155
G2 X-328.925 Y-20 Z1.826 J16.425
G1 Y0 Z1.571
G3 X-332.5 Y3.575 Z1.5 I-3.575
G2 X-328.925 Y0 J-3.575 F850
G1 Y-20
G3 X-312.5 Y-36.425 I16.425
G1 X-302.5
G3 X-286.075 Y-20 J16.425
G1 Y0
G2 X-282.5 Y3.575 I3.575
G1 X-277.5
X-282.5 Z1.458 F350
G3 X-286.075 Y0 Z1.41 J-3.575
G1 Y-20 Z1.24
G2 X-302.5 Y-36.425 Z1.021 I-16.425
G1 X-312.5 Z0.936
G2 X-328.925 Y-20 Z0.717 J16.425
G1 Y0 Z0.548
G3 X-332.5 Y3.575 Z0.5 I-3.575
G2 X-328.925 Y0 J-3.575 F850
G1 Y-20
G3 X-312.5 Y-36.425 I16.425
G1 X-302.5
G3 X-286.075 Y-20 J16.425
G1 Y0
G2 X-282.5 Y3.575 I3.575
G1 X-277.5
G0 Z23
X-338.927 Y-5.42
G1 Z21.136 F333.3
G19 G3 Y-4.805 Z20.521 J0.615
G1 Y-4.19 F850
G17 G2 X-338.312 Y-3.575 I0.615
G1 X-336.075 Z19.921 F350
X-342.5 Z18.2
X-336.234 Z16.521
X-336.155 Z16.505
X-336.075 Z16.5
X-342.5 F850
X-336.075 Z15 F350
X-342.5 F850
X-336.075 Z13.5 F350
X-342.5 F850
X-336.075 Z12 F350
X-342.5 F850
X-336.075 Z10.5 F350
X-342.5 F850
X-336.075 Z9 F350
X-342.5 F850
X-336.075 Z7.5 F350
X-342.5 F850
X-336.075 Z6 F350
X-342.5 F850
X-336.075 Z4.5 F350
X-342.5 F850
X-336.075 Z3 F350
X-342.5 F850
X-336.075 Z1.5 F350
X-342.5 F850
X-336.075 Z0.5 F350
X-342.5 F850
G0 Z23
X-343.202 Y5.42
G1 Z21.136 F333.3
G19 G2 Y4.805 Z20.521 J-0.615
G1 Y4.19 F850
G17 G3 X-342.587 Y3.575 I0.615
G1 X-342.5 Z20.498 F350
X-347.5 Z19.158
X-342.5 Z17.818
X-347.341 Z16.521
X-347.42 Z16.505
X-347.5 Z16.5
X-342.5 F850
G0 Z23
X-392.08 Y-10.087
G1 Z21.136 F333.3
G18 G3 X-392.695 Z20.521 I-0.615
G1 X-393.31 F850
G17 G2 X-393.925 Y-9.472 J0.615
G1 Y0 Z17.983 F350
G3 X-397.341 Y3.571 Z16.521 I-3.575
G1 X-397.393 Y3.573 Z16.509
X-397.446 Y3.575 Z16.502
X-397.5 Z16.5
G2 X-393.925 Y0 J-3.575 F850
G1 Y-20
G3 X-377.5 Y-36.425 I16.425
G1 X-367.5
G3 X-351.075 Y-20 J16.425
G1 Y0
Y-20 Z16.22 F350
G2 X-367.5 Y-36.425 Z15.859 I-16.425
G1 X-377.5 Z15.719
G2 X-393.925 Y-20 Z15.358 J16.425
G1 Y0 Z15.079
G3 X-397.5 Y3.575 Z15 I-3.575
G2 X-393.925 Y0 J-3.575 F850
G1 Y-20
G3 X-377.5 Y-36.425 I16.425
G1 X-367.5
G3 X-351.075 Y-20 J16.425
G1 Y0
G0 Z23
X-343.202 Y5.42
G1 Z19.636 F333.3
G19 G2 Y4.805 Z19.021 J-0.615
G1 Y4.19 F850
G17 G3 X-342.587 Y3.575 I0.615
G1 X-342.5 Z18.998 F350
X-347.5 Z17.658
X-342.5 Z16.318
X-347.341 Z15.021
X-347.42 Z15.005
X-347.5 Z15
X-342.5 F850
G0 Z23
X-343.202 Y5.42
G1 Z18.136 F333.3
G19 G2 Y4.805 Z17.521 J-0.615
G1 Y4.19 F850
G17 G3 X-342.587 Y3.575 I0.615
G1 X-342.5 Z17.498 F350
X-347.5 Z16.158
X-342.5 Z14.818
X-347.341 Z13.521
X-347.42 Z13.505
X-347.5 Z13.5
X-342.5 F850
G0 Z23
X-392.08 Y-10.087
G1 Z18.136 F333.3
G18 G3 X-392.695 Z17.521 I-0.615
G1 X-393.31 F850
G17 G2 X-393.925 Y-9.472 J0.615
G1 Y0 Z14.983 F350
G3 X-397.341 Y3.571 Z13.521 I-3.575
G1 X-397.393 Y3.573 Z13.509
X-397.446 Y3.575 Z13.502
X-397.5 Z13.5
G2 X-393.925 Y0 J-3.575 F850
G1 Y-20
G3 X-377.5 Y-36.425 I16.425
G1 X-367.5
G3 X-351.075 Y-20 J16.425
G1 Y0
Y-20 Z13.22 F350
G2 X-367.5 Y-36.425 Z12.859 I-16.425
G1 X-377.5 Z12.719
G2 X-393.925 Y-20 Z12.358 J16.425
G1 Y0 Z12.079
G3 X-397.5 Y3.575 Z12 I-3.575
G2 X-393.925 Y0 J-3.575 F850
G1 Y-20
G3 X-377.5 Y-36.425 I16.425
G1 X-367.5
G3 X-351.075 Y-20 J16.425
G1 Y0
G0 Z23
X-343.202 Y5.42
G1 Z16.636 F333.3
G19 G2 Y4.805 Z16.021 J-0.615
G1 Y4.19 F850
G17 G3 X-342.587 Y3.575 I0.615
G1 X-342.5 Z15.998 F350
X-347.5 Z14.658
X-342.5 Z13.318
X-347.341 Z12.021
X-347.42 Z12.005
X-347.5 Z12
X-342.5 F850
G0 Z23
X-343.202 Y5.42
G1 Z15.136 F333.3
G19 G2 Y4.805 Z14.521 J-0.615
G1 Y4.19 F850
G17 G3 X-342.587 Y3.575 I0.615
G1 X-342.5 Z14.498 F350
X-347.5 Z13.158
X-342.5 Z11.818
X-347.341 Z10.521
X-347.42 Z10.505
X-347.5 Z10.5
X-342.5 F850
G0 Z23
X-392.08 Y-10.087
G1 Z15.136 F333.3
G18 G3 X-392.695 Z14.521 I-0.615
G1 X-393.31 F850
G17 G2 X-393.925 Y-9.472 J0.615
G1 Y0 Z11.983 F350
G3 X-397.341 Y3.571 Z10.521 I-3.575
G1 X-397.393 Y3.573 Z10.509
X-397.446 Y3.575 Z10.502
X-397.5 Z10.5
G2 X-393.925 Y0 J-3.575 F850
G1 Y-20
G3 X-377.5 Y-36.425 I16.425
G1 X-367.5
G3 X-351.075 Y-20 J16.425
G1 Y0
Y-20 Z10.22 F350
G2 X-367.5 Y-36.425 Z9.859 I-16.425
G1 X-377.5 Z9.719
G2 X-393.925 Y-20 Z9.358 J16.425
G1 Y0 Z9.079
G3 X-397.5 Y3.575 Z9 I-3.575
G2 X-393.925 Y0 J-3.575 F850
G1 Y-20
G3 X-377.5 Y-36.425 I16.425
G1 X-367.5
G3 X-351.075 Y-20 J16.425
G1 Y0
G0 Z23
X-343.202 Y5.42
G1 Z13.636 F333.3
G19 G2 Y4.805 Z13.021 J-0.615
G1 Y4.19 F850
G17 G3 X-342.587 Y3.575 I0.615
G1 X-342.5 Z12.998 F350
X-347.5 Z11.658
X-342.5 Z10.318
X-347.341 Z9.021
X-347.42 Z9.005
X-347.5 Z9
X-342.5 F850
G0 Z23
X-343.202 Y5.42
G1 Z12.136 F333.3
G19 G2 Y4.805 Z11.521 J-0.615
G1 Y4.19 F850
G17 G3 X-342.587 Y3.575 I0.615
G1 X-342.5 Z11.498 F350
X-347.5 Z10.158
X-342.5 Z8.818
X-347.341 Z7.521
X-347.42 Z7.505
X-347.5 Z7.5
X-342.5 F850
G0 Z23
X-392.08 Y-10.087
G1 Z12.136 F333.3
G18 G3 X-392.695 Z11.521 I-0.615
G1 X-393.31 F850
G17 G2 X-393.925 Y-9.472 J0.615
G1 Y0 Z8.983 F350
G3 X-397.341 Y3.571 Z7.521 I-3.575
G1 X-397.393 Y3.573 Z7.509
X-397.446 Y3.575 Z7.502
X-397.5 Z7.5
G2 X-393.925 Y0 J-3.575 F850
G1 Y-20
G3 X-377.5 Y-36.425 I16.425
G1 X-367.5
G3 X-351.075 Y-20 J16.425
G1 Y0
Y-20 Z7.22 F350
G2 X-367.5 Y-36.425 Z6.859 I-16.425
G1 X-377.5 Z6.719
G2 X-393.925 Y-20 Z6.358 J16.425
G1 Y0 Z6.079
G3 X-397.5 Y3.575 Z6 I-3.575
G2 X-393.925 Y0 J-3.575 F850
G1 Y-20
G3 X-377.5 Y-36.425 I16.425
G1 X-367.5
G3 X-351.075 Y-20 J16.425
G1 Y0
G0 Z23
X-343.202 Y5.42
G1 Z10.636 F333.3
G19 G2 Y4.805 Z10.021 J-0.615
G1 Y4.19 F850
G17 G3 X-342.587 Y3.575 I0.615
G1 X-342.5 Z9.998 F350
X-347.5 Z8.658
X-342.5 Z7.318
X-347.341 Z6.021
X-347.42 Z6.005
X-347.5 Z6
X-342.5 F850
G0 Z23
X-343.202 Y5.42
G1 Z9.136 F333.3
G19 G2 Y4.805 Z8.521 J-0.615
G1 Y4.19 F850
G17 G3 X-342.587 Y3.575 I0.615
G1 X-342.5 Z8.498 F350
X-347.5 Z7.158
X-342.5 Z5.818
X-347.341 Z4.521
X-347.42 Z4.505
X-347.5 Z4.5
X-342.5 F850
G0 Z23
X-392.08 Y-10.087
G1 Z9.136 F333.3
G18 G3 X-392.695 Z8.521 I-0.615
G1 X-393.31 F850
G17 G2 X-393.925 Y-9.472 J0.615
G1 Y0 Z5.983 F350
G3 X-397.341 Y3.571 Z4.521 I-3.575
G1 X-397.393 Y3.573 Z4.509
X-397.446 Y3.575 Z4.502
X-397.5 Z4.5
G2 X-393.925 Y0 J-3.575 F850
G1 Y-20
G3 X-377.5 Y-36.425 I16.425
G1 X-367.5
G3 X-351.075 Y-20 J16.425
G1 Y0
Y-20 Z4.22 F350
G2 X-367.5 Y-36.425 Z3.859 I-16.425
G1 X-377.5 Z3.719
G2 X-393.925 Y-20 Z3.358 J16.425
G1 Y0 Z3.079
G3 X-397.5 Y3.575 Z3 I-3.575
G2 X-393.925 Y0 J-3.575 F850
G1 Y-20
G3 X-377.5 Y-36.425 I16.425
G1 X-367.5
G3 X-351.075 Y-20 J16.425
G1 Y0
G0 Z23
X-343.202 Y5.42
G1 Z7.636 F333.3
G19 G2 Y4.805 Z7.021 J-0.615
G1 Y4.19 F850
G17 G3 X-342.587 Y3.575 I0.615
G1 X-342.5 Z6.998 F350
X-347.5 Z5.658
X-342.5 Z4.318
X-347.341 Z3.021
X-347.42 Z3.005
X-347.5 Z3
X-342.5 F850
G0 Z23
X-343.202 Y5.42
G1 Z6.136 F333.3
G19 G2 Y4.805 Z5.521 J-0.615
G1 Y4.19 F850
G17 G3 X-342.587 Y3.575 I0.615
G1 X-342.5 Z5.498 F350
X-347.5 Z4.158
X-342.5 Z2.818
X-347.341 Z1.521
X-347.42 Z1.505
X-347.5 Z1.5
X-342.5 F850
G0 Z23
X-392.08 Y-10.087
G1 Z6.136 F333.3
G18 G3 X-392.695 Z5.521 I-0.615
G1 X-393.31 F850
G17 G2 X-393.925 Y-9.472 J0.615
G1 Y0 Z2.983 F350
G3 X-397.341 Y3.571 Z1.521 I-3.575
G1 X-397.393 Y3.573 Z1.509
X-397.446 Y3.575 Z1.502
X-397.5 Z1.5
G2 X-393.925 Y0 J-3.575 F850
G1 Y-20
G3 X-377.5 Y-36.425 I16.425
G1 X-367.5
G3 X-351.075 Y-20 J16.425
G1 Y0
Y-20 Z1.313 F350
G2 X-367.5 Y-36.425 Z1.073 I-16.425
G1 X-377.5 Z0.98
G2 X-393.925 Y-20 Z0.739 J16.425
G1 Y0 Z0.552
G3 X-397.5 Y3.575 Z0.5 I-3.575
G2 X-393.925 Y0 J-3.575 F850
G1 Y-20
G3 X-377.5 Y-36.425 I16.425
G1 X-367.5
G3 X-351.075 Y-20 J16.425
G1 Y0
G0 Z23
X-343.664 Y5.42
G1 Z4.636 F333.3
G19 G2 Y4.805 Z4.021 J-0.615
G1 Y4.19 F850
G17 G2 X-344.279 Y3.575 I-0.615
G1 X-347.5 Z3.158 F350
X-342.5 Z1.818
X-347.341 Z0.521
X-347.42 Z0.505
X-347.5 Z0.5
X-342.5 F850
G0 Z23
X-403.927 Y-5.42
G1 Z21.136 F333.3
G19 G3 Y-4.805 Z20.521 J0.615
G1 Y-4.19 F850
G17 G2 X-403.312 Y-3.575 I0.615
G1 X-401.075 Z19.921 F350
X-407.5 Z18.2
X-401.234 Z16.521
X-401.155 Z16.505
X-401.075 Z16.5
X-407.5 F850
X-401.075 Z15 F350
X-407.5 F850
X-401.075 Z13.5 F350
X-407.5 F850
X-401.075 Z12 F350
X-407.5 F850
X-401.075 Z10.5 F350
X-407.5 F850
X-401.075 Z9 F350
X-407.5 F850
X-401.075 Z7.5 F350
X-407.5 F850
X-401.075 Z6 F350
X-407.5 F850
X-401.075 Z4.5 F350
X-407.5 F850
X-401.075 Z3 F350
X-407.5 F850
X-401.075 Z1.5 F350
X-407.5 F850
X-401.075 Z0.5 F350
X-407.5 F850
G0 Z23
X-587.08 Y-15.702
G1 Z21.136 F333.3
G18 G3 X-587.695 Z20.521 I-0.615
G1 X-588.31 F850
G17 G2 X-588.925 Y-15.087 J0.615
G1 Y-0.159 Z16.521 F350
Y-0.08 Z16.505
Y0 Z16.5
Y-20 F850
G3 X-572.5 Y-36.425 I16.425
G1 X-562.5
G3 X-546.075 Y-20 J16.425
G1 Y0
G2 X-542.5 Y3.575 I3.575
G1 X-527.5
G2 X-523.925 Y0 J-3.575
G1 Y-20
G3 X-507.5 Y-36.425 I16.425
G1 X-497.5
G3 X-481.075 Y-20 J16.425
G1 Y0
G2 X-477.5 Y3.575 I3.575
G1 X-462.5
G2 X-458.925 Y0 J-3.575
G1 Y-20
Y-20.235
X-458.912 Y-20.704
X-458.885 Y-21.172
X-458.845 Y-21.639
X-458.791 Y-22.105
X-458.724 Y-22.57
X-458.644 Y-23.032
X-458.551 Y-23.492
X-458.445 Y-23.949
X-458.326 Y-24.402
X-458.194 Y-24.853
X-458.049 Y-25.299
X-457.891 Y-25.741
X-457.721 Y-26.178
X-457.538 Y-26.61
X-457.343 Y-27.037
X-457.136 Y-27.458
X-456.917 Y-27.872
X-456.687 Y-28.281
X-456.444 Y-28.683
X-456.191 Y-29.077
X-455.926 Y-29.465
X-455.65 Y-29.844
X-455.364 Y-30.216
X-455.067 Y-30.579
X-454.76 Y-30.933
X-454.442 Y-31.279
X-454.115 Y-31.615
X-453.779 Y-31.942
X-453.433 Y-32.26
X-453.079 Y-32.567
X-452.716 Y-32.864
X-452.344 Y-33.15
X-451.965 Y-33.426
X-451.577 Y-33.691
X-451.183 Y-33.944
X-450.781 Y-34.187
X-450.372 Y-34.417
X-449.958 Y-34.636
X-449.537 Y-34.843
X-449.11 Y-35.038
X-448.678 Y-35.221
X-448.241 Y-35.391
X-447.799 Y-35.549
X-447.353 Y-35.694
X-446.902 Y-35.826
X-446.449 Y-35.945
X-445.992 Y-36.051
X-445.532 Y-36.144
X-445.07 Y-36.224
X-444.605 Y-36.291
X-444.139 Y-36.345
X-443.672 Y-36.385
X-443.203 Y-36.412
X-442.735 Y-36.425
X-432.265
X-431.797 Y-36.412
X-431.328 Y-36.385
X-430.861 Y-36.345
X-430.395 Y-36.291
X-429.93 Y-36.224
X-429.468 Y-36.144
X-429.008 Y-36.051
X-428.551 Y-35.945
X-428.098 Y-35.826
X-427.647 Y-35.694
X-427.201 Y-35.549
X-426.759 Y-35.391
X-426.322 Y-35.221
X-425.89 Y-35.038
X-425.463 Y-34.843
X-425.042 Y-34.636
X-424.628 Y-34.417
X-424.219 Y-34.187
X-423.817 Y-33.944
X-423.423 Y-33.691
X-423.035 Y-33.426
X-422.656 Y-33.15
X-422.284 Y-32.864
X-421.921 Y-32.567
X-421.567 Y-32.26
X-421.221 Y-31.942
X-420.885 Y-31.615
X-420.558 Y-31.279
X-420.24 Y-30.933
X-419.933 Y-30.579
X-419.636 Y-30.216
X-419.35 Y-29.844
X-419.074 Y-29.465
X-418.809 Y-29.077
X-418.556 Y-28.683
X-418.313 Y-28.281
X-418.083 Y-27.872
X-417.864 Y-27.458
X-417.657 Y-27.037
X-417.462 Y-26.61
X-417.279 Y-26.178
X-417.109 Y-25.741
X-416.951 Y-25.299
X-416.806 Y-24.853
X-416.674 Y-24.402
X-416.555 Y-23.949
X-416.449 Y-23.492
X-416.356 Y-23.032
X-416.276 Y-22.57
X-416.209 Y-22.105
X-416.155 Y-21.639
X-416.115 Y-21.172
X-416.088 Y-20.704
X-416.075 Y-20.235
Y-20
Y0
G2 X-412.5 Y3.575 I3.575
G1 X-407.5
X-412.5 Z16.48 F350
G3 X-416.075 Y0 Z16.457 J-3.575
G1 Y-20 Z16.375
Y-20.235 Z16.374
X-416.088 Y-20.704 Z16.372
X-416.115 Y-21.172 Z16.37
X-416.155 Y-21.639 Z16.368
X-416.209 Y-22.105 Z16.367
X-416.276 Y-22.57 Z16.365
X-416.356 Y-23.032 Z16.363
X-416.449 Y-23.492 Z16.361
X-416.555 Y-23.949 Z16.359
X-416.674 Y-24.402 Z16.357
X-416.806 Y-24.853 Z16.355
X-416.951 Y-25.299 Z16.353
X-417.109 Y-25.741 Z16.351
X-417.279 Y-26.178 Z16.349
X-417.462 Y-26.61 Z16.347
X-417.657 Y-27.037 Z16.346
X-417.864 Y-27.458 Z16.344
X-418.083 Y-27.872 Z16.342
X-418.313 Y-28.281 Z16.34
X-418.556 Y-28.683 Z16.338
X-418.809 Y-29.077 Z16.336
X-419.074 Y-29.465 Z16.334
X-419.35 Y-29.844 Z16.332
X-419.636 Y-30.216 Z16.33
X-419.933 Y-30.579 Z16.328
X-420.24 Y-30.933 Z16.326
X-420.558 Y-31.279 Z16.324
X-420.885 Y-31.615 Z16.323
X-421.221 Y-31.942 Z16.321
X-421.567 Y-32.26 Z16.319
X-421.921 Y-32.567 Z16.317
X-422.284 Y-32.864 Z16.315
X-422.656 Y-33.15 Z16.313
X-423.035 Y-33.426 Z16.311
X-423.423 Y-33.691 Z16.309
X-423.817 Y-33.944 Z16.307
X-424.219 Y-34.187 Z16.305
X-424.628 Y-34.417 Z16.303
X-425.042 Y-34.636 Z16.302
X-425.463 Y-34.843 Z16.3
X-425.89 Y-35.038 Z16.298
X-426.322 Y-35.221 Z16.296
X-426.759 Y-35.391 Z16.294
X-427.201 Y-35.549 Z16.292
X-427.647 Y-35.694 Z16.29
X-428.098 Y-35.826 Z16.288
X-428.551 Y-35.945 Z16.286
X-429.008 Y-36.051 Z16.284
X-429.468 Y-36.144 Z16.282
X-429.93 Y-36.224 Z16.28
X-430.395 Y-36.291 Z16.279
X-430.861 Y-36.345 Z16.277
X-431.328 Y-36.385 Z16.275
X-431.797 Y-36.412 Z16.273
X-432.265 Y-36.425 Z16.271
X-442.735 Z16.228
X-443.203 Y-36.412 Z16.226
X-443.672 Y-36.385 Z16.224
X-444.139 Y-36.345 Z16.222
X-444.605 Y-36.291 Z16.221
X-445.07 Y-36.224 Z16.219
X-445.532 Y-36.144 Z16.217
X-445.992 Y-36.051 Z16.215
X-446.449 Y-35.945 Z16.213
X-446.902 Y-35.826 Z16.211
X-447.353 Y-35.694 Z16.209
X-447.799 Y-35.549 Z16.207
X-448.241 Y-35.391 Z16.205
X-448.678 Y-35.221 Z16.203
X-449.11 Y-35.038 Z16.201
X-449.537 Y-34.843 Z16.2
X-449.958 Y-34.636 Z16.198
X-450.372 Y-34.417 Z16.196
X-450.781 Y-34.187 Z16.194
X-451.183 Y-33.944 Z16.192
X-451.577 Y-33.691 Z16.19
X-451.965 Y-33.426 Z16.188
X-452.344 Y-33.15 Z16.186
X-452.716 Y-32.864 Z16.184
X-453.079 Y-32.567 Z16.182
X-453.433 Y-32.26 Z16.18
X-453.779 Y-31.942 Z16.179
X-454.115 Y-31.615 Z16.177
X-454.442 Y-31.279 Z16.175
X-454.76 Y-30.933 Z16.173
X-455.067 Y-30.579 Z16.171
X-455.364 Y-30.216 Z16.169
X-455.65 Y-29.844 Z16.167
X-455.926 Y-29.465 Z16.165
X-456.191 Y-29.077 Z16.163
X-456.444 Y-28.683 Z16.161
X-456.687 Y-28.281 Z16.159
X-456.917 Y-27.872 Z16.157
X-457.136 Y-27.458 Z16.156
X-457.343 Y-27.037 Z16.154
X-457.538 Y-26.61 Z16.152
X-457.721 Y-26.178 Z16.15
X-457.891 Y-25.741 Z16.148
X-458.049 Y-25.299 Z16.146
X-458.194 Y-24.853 Z16.144
X-458.326 Y-24.402 Z16.142
X-458.445 Y-23.949 Z16.14
X-458.551 Y-23.492 Z16.138
X-458.644 Y-23.032 Z16.136
X-458.724 Y-22.57 Z16.135
X-458.791 Y-22.105 Z16.133
X-458.845 Y-21.639 Z16.131
X-458.885 Y-21.172 Z16.129
X-458.912 Y-20.704 Z16.127
X-458.925 Y-20.235 Z16.125
Y-20 Z16.124
Y0 Z16.042
G3 X-462.5 Y3.575 Z16.02 I-3.575
G1 X-477.5 Z15.958
G3 X-481.075 Y0 Z15.935 J-3.575
G1 Y-20 Z15.854
G2 X-497.5 Y-36.425 Z15.749 I-16.425
G1 X-507.5 Z15.708
G2 X-523.925 Y-20 Z15.603 J16.425
G1 Y0 Z15.521
G3 X-527.5 Y3.575 Z15.498 I-3.575
G1 X-542.5 Z15.437
G3 X-546.075 Y0 Z15.414 J-3.575
G1 Y-20 Z15.333
G2 X-562.5 Y-36.425 Z15.228 I-16.425
G1 X-572.5 Z15.187
G2 X-588.925 Y-20 Z15.082 J16.425
G1 Y0 Z15
Y-20 F850
G3 X-572.5 Y-36.425 I16.425
G1 X-562.5
G3 X-546.075 Y-20 J16.425
G1 Y0
G2 X-542.5 Y3.575 I3.575
G1 X-527.5
G2 X-523.925 Y0 J-3.575
G1 Y-20
G3 X-507.5 Y-36.425 I16.425
G1 X-497.5
G3 X-481.075 Y-20 J16.425
G1 Y0
G2 X-477.5 Y3.575 I3.575
G1 X-462.5
G2 X-458.925 Y0 J-3.575
G1 Y-20
Y-20.235
X-458.912 Y-20.704
X-458.885 Y-21.172
X-458.845 Y-21.639
X-458.791 Y-22.105
X-458.724 Y-22.57
X-458.644 Y-23.032
X-458.551 Y-23.492
X-458.445 Y-23.949
X-458.326 Y-24.402
X-458.194 Y-24.853
X-458.049 Y-25.299
X-457.891 Y-25.741
X-457.721 Y-26.178
X-457.538 Y-26.61
X-457.343 Y-27.037
X-457.136 Y-27.458
X-456.917 Y-27.872
X-456.687 Y-28.281
X-456.444 Y-28.683
X-456.191 Y-29.077
X-455.926 Y-29.465
X-455.65 Y-29.844
X-455.364 Y-30.216
X-455.067 Y-30.579
X-454.76 Y-30.933
X-454.442 Y-31.279
X-454.115 Y-31.615
X-453.779 Y-31.942
X-453.433 Y-32.26
X-453.079 Y-32.567
X-452.716 Y-32.864
X-452.344 Y-33.15
X-451.965 Y-33.426
X-451.577 Y-33.691
X-451.183 Y-33.944
X-450.781 Y-34.187
X-450.372 Y-34.417
X-449.958 Y-34.636
X-449.537 Y-34.843
X-449.11 Y-35.038
X-448.678 Y-35.221
X-448.241 Y-35.391
X-447.799 Y-35.549
X-447.353 Y-35.694
X-446.902 Y-35.826
X-446.449 Y-35.945
X-445.992 Y-36.051
X-445.532 Y-36.144
X-445.07 Y-36.224
X-444.605 Y-36.291
X-444.139 Y-36.345
X-443.672 Y-36.385
X-443.203 Y-36.412
X-442.735 Y-36.425
X-432.265
X-431.797 Y-36.412
X-431.328 Y-36.385
X-430.861 Y-36.345
X-430.395 Y-36.291
X-429.93 Y-36.224
X-429.468 Y-36.144
X-429.008 Y-36.051
X-428.551 Y-35.945
X-428.098 Y-35.826
X-427.647 Y-35.694
X-427.201 Y-35.549
X-426.759 Y-35.391
X-426.322 Y-35.221
X-425.89 Y-35.038
X-425.463 Y-34.843
X-425.042 Y-34.636
X-424.628 Y-34.417
X-424.219 Y-34.187
X-423.817 Y-33.944
X-423.423 Y-33.691
X-423.035 Y-33.426
X-422.656 Y-33.15
X-422.284 Y-32.864
X-421.921 Y-32.567
X-421.567 Y-32.26
X-421.221 Y-31.942
X-420.885 Y-31.615
X-420.558 Y-31.279
X-420.24 Y-30.933
X-419.933 Y-30.579
X-419.636 Y-30.216
X-419.35 Y-29.844
X-419.074 Y-29.465
X-418.809 Y-29.077
X-418.556 Y-28.683
X-418.313 Y-28.281
X-418.083 Y-27.872
X-417.864 Y-27.458
X-417.657 Y-27.037
X-417.462 Y-26.61
X-417.279 Y-26.178
X-417.109 Y-25.741
X-416.951 Y-25.299
X-416.806 Y-24.853
X-416.674 Y-24.402
X-416.555 Y-23.949
X-416.449 Y-23.492
X-416.356 Y-23.032
X-416.276 Y-22.57
X-416.209 Y-22.105
X-416.155 Y-21.639
X-416.115 Y-21.172
X-416.088 Y-20.704
X-416.075 Y-20.235
Y-20
Y0
G2 X-412.5 Y3.575 I3.575
G1 X-407.5
X-412.5 Z14.98 F350
G3 X-416.075 Y0 Z14.957 J-3.575
G1 Y-20 Z14.875
Y-20.235 Z14.874
X-416.088 Y-20.704 Z14.872
X-416.115 Y-21.172 Z14.87
X-416.155 Y-21.639 Z14.868
X-416.209 Y-22.105 Z14.867
X-416.276 Y-22.57 Z14.865
X-416.356 Y-23.032 Z14.863
X-416.449 Y-23.492 Z14.861
X-416.555 Y-23.949 Z14.859
X-416.674 Y-24.402 Z14.857
X-416.806 Y-24.853 Z14.855
X-416.951 Y-25.299 Z14.853
X-417.109 Y-25.741 Z14.851
X-417.279 Y-26.178 Z14.849
X-417.462 Y-26.61 Z14.847
X-417.657 Y-27.037 Z14.846
X-417.864 Y-27.458 Z14.844
X-418.083 Y-27.872 Z14.842
X-418.313 Y-28.281 Z14.84
X-418.556 Y-28.683 Z14.838
X-418.809 Y-29.077 Z14.836
X-419.074 Y-29.465 Z14.834
X-419.35 Y-29.844 Z14.832
X-419.636 Y-30.216 Z14.83
X-419.933 Y-30.579 Z14.828
X-420.24 Y-30.933 Z14.826
X-420.558 Y-31.279 Z14.824
X-420.885 Y-31.615 Z14.823
X-421.221 Y-31.942 Z14.821
X-421.567 Y-32.26 Z14.819
X-421.921 Y-32.567 Z14.817
X-422.284 Y-32.864 Z14.815
X-422.656 Y-33.15 Z14.813
X-423.035 Y-33.426 Z14.811
X-423.423 Y-33.691 Z14.809
X-423.817 Y-33.944 Z14.807
X-424.219 Y-34.187 Z14.805
X-424.628 Y-34.417 Z14.803
X-425.042 Y-34.636 Z14.802
X-425.463 Y-34.843 Z14.8
X-425.89 Y-35.038 Z14.798
X-426.322 Y-35.221 Z14.796
X-426.759 Y-35.391 Z14.794
X-427.201 Y-35.549 Z14.792
X-427.647 Y-35.694 Z14.79
X-428.098 Y-35.826 Z14.788
X-428.551 Y-35.945 Z14.786
X-429.008 Y-36.051 Z14.784
X-429.468 Y-36.144 Z14.782
X-429.93 Y-36.224 Z14.78
X-430.395 Y-36.291 Z14.779
X-430.861 Y-36.345 Z14.777
X-431.328 Y-36.385 Z14.775
X-431.797 Y-36.412 Z14.773
X-432.265 Y-36.425 Z14.771
X-442.735 Z14.728
X-443.203 Y-36.412 Z14.726
X-443.672 Y-36.385 Z14.724
X-444.139 Y-36.345 Z14.722
X-444.605 Y-36.291 Z14.721
X-445.07 Y-36.224 Z14.719
X-445.532 Y-36.144 Z14.717
X-445.992 Y-36.051 Z14.715
X-446.449 Y-35.945 Z14.713
X-446.902 Y-35.826 Z14.711
X-447.353 Y-35.694 Z14.709
X-447.799 Y-35.549 Z14.707
X-448.241 Y-35.391 Z14.705
X-448.678 Y-35.221 Z14.703
X-449.11 Y-35.038 Z14.701
X-449.537 Y-34.843 Z14.7
X-449.958 Y-34.636 Z14.698
X-450.372 Y-34.417 Z14.696
X-450.781 Y-34.187 Z14.694
X-451.183 Y-33.944 Z14.692
X-451.577 Y-33.691 Z14.69
X-451.965 Y-33.426 Z14.688
X-452.344 Y-33.15 Z14.686
X-452.716 Y-32.864 Z14.684
X-453.079 Y-32.567 Z14.682
X-453.433 Y-32.26 Z14.68
X-453.779 Y-31.942 Z14.679
X-454.115 Y-31.615 Z14.677
X-454.442 Y-31.279 Z14.675
X-454.76 Y-30.933 Z14.673
X-455.067 Y-30.579 Z14.671
X-455.364 Y-30.216 Z14.669
X-455.65 Y-29.844 Z14.667
X-455.926 Y-29.465 Z14.665
X-456.191 Y-29.077 Z14.663
X-456.444 Y-28.683 Z14.661
X-456.687 Y-28.281 Z14.659
X-456.917 Y-27.872 Z14.657
X-457.136 Y-27.458 Z14.656
X-457.343 Y-27.037 Z14.654
X-457.538 Y-26.61 Z14.652
X-457.721 Y-26.178 Z14.65
X-457.891 Y-25.741 Z14.648
X-458.049 Y-25.299 Z14.646
X-458.194 Y-24.853 Z14.644
X-458.326 Y-24.402 Z14.642
X-458.445 Y-23.949 Z14.64
X-458.551 Y-23.492 Z14.638
X-458.644 Y-23.032 Z14.636
X-458.724 Y-22.57 Z14.635
X-458.791 Y-22.105 Z14.633
X-458.845 Y-21.639 Z14.631
X-458.885 Y-21.172 Z14.629
X-458.912 Y-20.704 Z14.627
X-458.925 Y-20.235 Z14.625
Y-20 Z14.624
Y0 Z14.542
G3 X-462.5 Y3.575 Z14.52 I-3.575
G1 X-477.5 Z14.458
G3 X-481.075 Y0 Z14.435 J-3.575
G1 Y-20 Z14.354
G2 X-497.5 Y-36.425 Z14.249 I-16.425
G1 X-507.5 Z14.208
G2 X-523.925 Y-20 Z14.103 J16.425
G1 Y0 Z14.021
G3 X-527.5 Y3.575 Z13.998 I-3.575
G1 X-542.5 Z13.937
G3 X-546.075 Y0 Z13.914 J-3.575
G1 Y-20 Z13.833
G2 X-562.5 Y-36.425 Z13.728 I-16.425
G1 X-572.5 Z13.687
G2 X-588.925 Y-20 Z13.582 J16.425
G1 Y0 Z13.5
Y-20 F850
G3 X-572.5 Y-36.425 I16.425
G1 X-562.5
G3 X-546.075 Y-20 J16.425
G1 Y0
G2 X-542.5 Y3.575 I3.575
G1 X-527.5
G2 X-523.925 Y0 J-3.575
G1 Y-20
G3 X-507.5 Y-36.425 I16.425
G1 X-497.5
G3 X-481.075 Y-20 J16.425
G1 Y0
