%
(1001)
(origin spoilboard top)
(T2  D=6 CR=0 - ZMIN=0 - flat end mill)
G90 G94
G17
G21

(2D Contour2)
M9
T2 M6
S8000 M3
G54
G0 X37.2 Y-4.317
Z33
Z23
G1 Z21.12 F30
G18 G2 X37.8 Z20.52 I0.6
G1 X38.4 F3000
G17 G2 X39 Y-4.917 J-0.6
G1 Y-19.845 Z16.52
Y-19.922 Z16.505
Y-20 Z16.5
Y0
G2 X42.5 Y3.5 I3.5
G1 X90
G0 Z23
X34.509 Y-28.499
G1 Z21.12 F30
X34.515 Y-28.504 Z21.027
X34.532 Y-28.517 Z20.935
X34.561 Y-28.539 Z20.848
X34.6 Y-28.569 Z20.768
X34.648 Y-28.606 Z20.696
X34.705 Y-28.65 Z20.635
X34.769 Y-28.699 Z20.586
X34.837 Y-28.752 Z20.55
X34.91 Y-28.808 Z20.528
X34.984 Y-28.866 Z20.52
X35.459 Y-29.232 F3000
G2 X35.568 Y-30.073 I-0.366 J-0.475
G1 X35.422 Y-30.262 Z20.457
X35.124 Y-30.627 Z20.33
X34.816 Y-30.983 Z20.204
X34.497 Y-31.33 Z20.078
X34.168 Y-31.668 Z19.951
X33.83 Y-31.997 Z19.825
X33.483 Y-32.316 Z19.699
X33.127 Y-32.624 Z19.573
X32.762 Y-32.922 Z19.446
X32.389 Y-33.21 Z19.32
X32.008 Y-33.487 Z19.194
X31.619 Y-33.753 Z19.068
X31.222 Y-34.008 Z18.941
X30.819 Y-34.251 Z18.815
X30.408 Y-34.483 Z18.689
X29.992 Y-34.703 Z18.562
X29.569 Y-34.911 Z18.436
X29.14 Y-35.107 Z18.31
X28.706 Y-35.29 Z18.184
X28.267 Y-35.461 Z18.057
X27.823 Y-35.62 Z17.931
X27.375 Y-35.765 Z17.805
X26.922 Y-35.898 Z17.678
X26.467 Y-36.018 Z17.552
X26.008 Y-36.125 Z17.426
X25.546 Y-36.218 Z17.3
X25.081 Y-36.299 Z17.173
X24.615 Y-36.366 Z17.047
X24.147 Y-36.419 Z16.921
X23.677 Y-36.46 Z16.795
X23.207 Y-36.487 Z16.668
X22.736 Y-36.5 Z16.542
X22.655 Z16.52
X22.578 Z16.505
X22.5 Z16.5
X22.736
X23.207 Y-36.487
X23.677 Y-36.46
X24.147 Y-36.419
X24.615 Y-36.366
X25.081 Y-36.299
X25.546 Y-36.218
X26.008 Y-36.125
X26.467 Y-36.018
X26.922 Y-35.898
X27.375 Y-35.765
X27.823 Y-35.62
X28.267 Y-35.461
X28.706 Y-35.29
X29.14 Y-35.107
X29.569 Y-34.911
X29.992 Y-34.703
X30.408 Y-34.483
X30.819 Y-34.251
X31.222 Y-34.008
X31.619 Y-33.753
X32.008 Y-33.487
X32.389 Y-33.21
X32.762 Y-32.922
X33.127 Y-32.624
X33.483 Y-32.316
X33.83 Y-31.997
X34.168 Y-31.668
X34.497 Y-31.33
X34.816 Y-30.983
X35.124 Y-30.627
X35.422 Y-30.262
X35.71 Y-29.889
X35.987 Y-29.508
X36.253 Y-29.119
X36.508 Y-28.722
X36.751 Y-28.319
X36.983 Y-27.908
X37.203 Y-27.492
X37.411 Y-27.069
X37.607 Y-26.64
X37.79 Y-26.206
X37.961 Y-25.767
X38.12 Y-25.323
X38.265 Y-24.875
X38.398 Y-24.422
X38.518 Y-23.967
X38.625 Y-23.508
X38.718 Y-23.046
X38.799 Y-22.581
X38.866 Y-22.115
X38.919 Y-21.647
X38.96 Y-21.177
X38.987 Y-20.707
X39 Y-20.236
Y-20
G0 Z23
X42.922 Y3.5
G1 Z19 F30
Z16.5
X42.5 Z16.476 F3000
G3 X39 Y0 Z16.157 J-3.5
G1 Y-20 Z15
Y0
G2 X42.5 Y3.5 I3.5
G1 X90
G0 Z23
X-2.2 Y-10.186
G1 Z21.12 F30
G18 G3 X-2.8 Z20.52 I-0.6
G1 X-3.4 F3000
G17 G2 X-4 Y-9.586 J0.6
G1 Y0 Z17.952
G3 X-7.345 Y3.497 Z16.52 I-3.5
G1 X-7.396 Y3.498 Z16.509
X-7.448 Y3.5 Z16.502
X-7.5 Z16.5
G2 X-4 Y0 J-3.5
G1 Y-20
Y-20.236
X-3.987 Y-20.707
X-3.96 Y-21.177
X-3.919 Y-21.647
X-3.866 Y-22.115
X-3.799 Y-22.581
X-3.718 Y-23.046
X-3.625 Y-23.508
X-3.518 Y-23.967
X-3.398 Y-24.422
X-3.265 Y-24.875
X-3.12 Y-25.323
X-2.961 Y-25.767
X-2.79 Y-26.206
X-2.607 Y-26.64
X-2.411 Y-27.069
X-2.203 Y-27.492
X-1.983 Y-27.908
X-1.751 Y-28.319
X-1.508 Y-28.722
X-1.253 Y-29.119
X-0.987 Y-29.508
X-0.71 Y-29.889
X-0.422 Y-30.262
X-0.124 Y-30.627
X0.184 Y-30.983
X0.503 Y-31.33
X0.832 Y-31.668
X1.17 Y-31.997
X1.517 Y-32.316
X1.873 Y-32.624
X2.238 Y-32.922
X2.611 Y-33.21
X2.992 Y-33.487
X3.381 Y-33.753
X3.778 Y-34.008
X4.181 Y-34.251
X4.592 Y-34.483
X5.008 Y-34.703
X5.431 Y-34.911
X5.86 Y-35.107
X6.294 Y-35.29
X6.733 Y-35.461
X7.177 Y-35.62
X7.625 Y-35.765
X8.078 Y-35.898
X8.533 Y-36.018
X8.992 Y-36.125
X9.454 Y-36.218
X9.919 Y-36.299
X10.385 Y-36.366
X10.853 Y-36.419
X11.323 Y-36.46
X11.793 Y-36.487
X12.264 Y-36.5
X22.5
X12.264 Z16.25
X11.793 Y-36.487 Z16.239
X11.323 Y-36.46 Z16.227
X10.853 Y-36.419 Z16.215
X10.385 Y-36.366 Z16.204
X9.919 Y-36.299 Z16.192
X9.454 Y-36.218 Z16.181
X8.992 Y-36.125 Z16.169
X8.533 Y-36.018 Z16.158
X8.078 Y-35.898 Z16.146
X7.625 Y-35.765 Z16.135
X7.177 Y-35.62 Z16.123
X6.733 Y-35.461 Z16.112
X6.294 Y-35.29 Z16.1
X5.86 Y-35.107 Z16.089
X5.431 Y-34.911 Z16.077
X5.008 Y-34.703 Z16.066
X4.592 Y-34.483 Z16.054
X4.181 Y-34.251 Z16.043
X3.778 Y-34.008 Z16.031
X3.381 Y-33.753 Z16.02
X2.992 Y-33.487 Z16.008
X2.611 Y-33.21 Z15.997
X2.238 Y-32.922 Z15.985
X1.873 Y-32.624 Z15.974
X1.517 Y-32.316 Z15.962
X1.17 Y-31.997 Z15.951
X0.832 Y-31.668 Z15.939
X0.503 Y-31.33 Z15.928
X0.184 Y-30.983 Z15.916
X-0.124 Y-30.627 Z15.905
X-0.422 Y-30.262 Z15.893
X-0.71 Y-29.889 Z15.882
X-0.987 Y-29.508 Z15.87
X-1.253 Y-29.119 Z15.859
X-1.508 Y-28.722 Z15.847
X-1.751 Y-28.319 Z15.836
X-1.983 Y-27.908 Z15.824
X-2.203 Y-27.492 Z15.813
X-2.411 Y-27.069 Z15.801
X-2.607 Y-26.64 Z15.79
X-2.79 Y-26.206 Z15.778
X-2.961 Y-25.767 Z15.767
X-3.12 Y-25.323 Z15.755
X-3.265 Y-24.875 Z15.744
X-3.398 Y-24.422 Z15.732
X-3.518 Y-23.967 Z15.721
X-3.625 Y-23.508 Z15.709
X-3.718 Y-23.046 Z15.698
X-3.799 Y-22.581 Z15.686
X-3.866 Y-22.115 Z15.675
X-3.919 Y-21.647 Z15.663
X-3.96 Y-21.177 Z15.652
X-3.987 Y-20.707 Z15.64
X-4 Y-20.236 Z15.628
Y0 Z15.134
G3 X-7.5 Y3.5 Z15 I-3.5
G2 X-4 Y0 J-3.5
G1 Y-20
Y-20.236
X-3.987 Y-20.707
X-3.96 Y-21.177
X-3.919 Y-21.647
X-3.866 Y-22.115
X-3.799 Y-22.581
X-3.718 Y-23.046
X-3.625 Y-23.508
X-3.518 Y-23.967
X-3.398 Y-24.422
X-3.265 Y-24.875
X-3.12 Y-25.323
X-2.961 Y-25.767
X-2.79 Y-26.206
X-2.607 Y-26.64
X-2.411 Y-27.069
X-2.203 Y-27.492
X-1.983 Y-27.908
X-1.751 Y-28.319
X-1.508 Y-28.722
X-1.253 Y-29.119
X-0.987 Y-29.508
X-0.71 Y-29.889
X-0.422 Y-30.262
X-0.124 Y-30.627
X0.184 Y-30.983
X0.503 Y-31.33
X0.832 Y-31.668
X1.17 Y-31.997
X1.517 Y-32.316
X1.873 Y-32.624
X2.238 Y-32.922
X2.611 Y-33.21
X2.992 Y-33.487
X3.381 Y-33.753
X3.778 Y-34.008
X4.181 Y-34.251
X4.592 Y-34.483
X5.008 Y-34.703
X5.431 Y-34.911
X5.86 Y-35.107
X6.294 Y-35.29
X6.733 Y-35.461
X7.177 Y-35.62
X7.625 Y-35.765
X8.078 Y-35.898
X8.533 Y-36.018
X8.992 Y-36.125
X9.454 Y-36.218
X9.919 Y-36.299
X10.385 Y-36.366
X10.853 Y-36.419
X11.323 Y-36.46
X11.793 Y-36.487
X12.264 Y-36.5
X22.5
G0 Z23
X34.509 Y-28.499
G1 Z19.62 F30
X34.515 Y-28.504 Z19.527
X34.532 Y-28.517 Z19.435
X34.561 Y-28.539 Z19.348
X34.6 Y-28.569 Z19.268
X34.648 Y-28.606 Z19.196
X34.705 Y-28.65 Z19.135
X34.769 Y-28.699 Z19.086
X34.837 Y-28.752 Z19.05
X34.91 Y-28.808 Z19.028
X34.984 Y-28.866 Z19.02
X35.459 Y-29.232 F3000
G2 X35.568 Y-30.073 I-0.366 J-0.475
G1 X35.422 Y-30.262 Z18.957
X35.124 Y-30.627 Z18.83
X34.816 Y-30.983 Z18.704
X34.497 Y-31.33 Z18.578
X34.168 Y-31.668 Z18.451
X33.83 Y-31.997 Z18.325
X33.483 Y-32.316 Z18.199
X33.127 Y-32.624 Z18.073
X32.762 Y-32.922 Z17.946
X32.389 Y-33.21 Z17.82
X32.008 Y-33.487 Z17.694
X31.619 Y-33.753 Z17.568
X31.222 Y-34.008 Z17.441
X30.819 Y-34.251 Z17.315
X30.408 Y-34.483 Z17.189
X29.992 Y-34.703 Z17.062
X29.569 Y-34.911 Z16.936
X29.14 Y-35.107 Z16.81
X28.706 Y-35.29 Z16.684
X28.267 Y-35.461 Z16.557
X27.823 Y-35.62 Z16.431
X27.375 Y-35.765 Z16.305
X26.922 Y-35.898 Z16.178
X26.467 Y-36.018 Z16.052
X26.008 Y-36.125 Z15.926
X25.546 Y-36.218 Z15.8
X25.081 Y-36.299 Z15.673
X24.615 Y-36.366 Z15.547
X24.147 Y-36.419 Z15.421
X23.677 Y-36.46 Z15.295
X23.207 Y-36.487 Z15.168
X22.736 Y-36.5 Z15.042
X22.655 Z15.02
X22.578 Z15.005
X22.5 Z15
X22.736
X23.207 Y-36.487
X23.677 Y-36.46
X24.147 Y-36.419
X24.615 Y-36.366
X25.081 Y-36.299
X25.546 Y-36.218
X26.008 Y-36.125
X26.467 Y-36.018
X26.922 Y-35.898
X27.375 Y-35.765
X27.823 Y-35.62
X28.267 Y-35.461
X28.706 Y-35.29
X29.14 Y-35.107
X29.569 Y-34.911
X29.992 Y-34.703
X30.408 Y-34.483
X30.819 Y-34.251
X31.222 Y-34.008
X31.619 Y-33.753
X32.008 Y-33.487
X32.389 Y-33.21
X32.762 Y-32.922
X33.127 Y-32.624
X33.483 Y-32.316
X33.83 Y-31.997
X34.168 Y-31.668
X34.497 Y-31.33
X34.816 Y-30.983
X35.124 Y-30.627
X35.422 Y-30.262
X35.71 Y-29.889
X35.987 Y-29.508
X36.253 Y-29.119
X36.508 Y-28.722
X36.751 Y-28.319
X36.983 Y-27.908
X37.203 Y-27.492
X37.411 Y-27.069
X37.607 Y-26.64
X37.79 Y-26.206
X37.961 Y-25.767
X38.12 Y-25.323
X38.265 Y-24.875
X38.398 Y-24.422
X38.518 Y-23.967
X38.625 Y-23.508
X38.718 Y-23.046
X38.799 Y-22.581
X38.866 Y-22.115
X38.919 Y-21.647
X38.96 Y-21.177
X38.987 Y-20.707
X39 Y-20.236
Y-20
G0 Z23
X37.2 Y-4.317
G1 Z18.12 F30
G18 G2 X37.8 Z17.52 I0.6
G1 X38.4 F3000
G17 G2 X39 Y-4.917 J-0.6
G1 Y-19.845 Z13.52
Y-19.922 Z13.505
Y-20 Z13.5
Y0
G2 X42.5 Y3.5 I3.5
G1 X90
G0 Z23
X34.509 Y-28.499
G1 Z18.12 F30
X34.515 Y-28.504 Z18.027
X34.532 Y-28.517 Z17.935
X34.561 Y-28.539 Z17.848
X34.6 Y-28.569 Z17.768
X34.648 Y-28.606 Z17.696
X34.705 Y-28.65 Z17.635
X34.769 Y-28.699 Z17.586
X34.837 Y-28.752 Z17.55
X34.91 Y-28.808 Z17.528
X34.984 Y-28.866 Z17.52
X35.459 Y-29.232 F3000
G2 X35.568 Y-30.073 I-0.366 J-0.475
G1 X35.422 Y-30.262 Z17.457
X35.124 Y-30.627 Z17.33
X34.816 Y-30.983 Z17.204
X34.497 Y-31.33 Z17.078
X34.168 Y-31.668 Z16.951
X33.83 Y-31.997 Z16.825
X33.483 Y-32.316 Z16.699
X33.127 Y-32.624 Z16.573
X32.762 Y-32.922 Z16.446
X32.389 Y-33.21 Z16.32
X32.008 Y-33.487 Z16.194
X31.619 Y-33.753 Z16.068
X31.222 Y-34.008 Z15.941
X30.819 Y-34.251 Z15.815
X30.408 Y-34.483 Z15.689
X29.992 Y-34.703 Z15.562
X29.569 Y-34.911 Z15.436
X29.14 Y-35.107 Z15.31
X28.706 Y-35.29 Z15.184
X28.267 Y-35.461 Z15.057
X27.823 Y-35.62 Z14.931
X27.375 Y-35.765 Z14.805
X26.922 Y-35.898 Z14.678
X26.467 Y-36.018 Z14.552
X26.008 Y-36.125 Z14.426
X25.546 Y-36.218 Z14.3
X25.081 Y-36.299 Z14.173
X24.615 Y-36.366 Z14.047
X24.147 Y-36.419 Z13.921
X23.677 Y-36.46 Z13.795
X23.207 Y-36.487 Z13.668
X22.736 Y-36.5 Z13.542
X22.655 Z13.52
X22.578 Z13.505
X22.5 Z13.5
X22.736
X23.207 Y-36.487
X23.677 Y-36.46
X24.147 Y-36.419
X24.615 Y-36.366
X25.081 Y-36.299
X25.546 Y-36.218
X26.008 Y-36.125
X26.467 Y-36.018
X26.922 Y-35.898
X27.375 Y-35.765
X27.823 Y-35.62
X28.267 Y-35.461
X28.706 Y-35.29
X29.14 Y-35.107
X29.569 Y-34.911
X29.992 Y-34.703
X30.408 Y-34.483
X30.819 Y-34.251
X31.222 Y-34.008
X31.619 Y-33.753
X32.008 Y-33.487
X32.389 Y-33.21
X32.762 Y-32.922
X33.127 Y-32.624
X33.483 Y-32.316
X33.83 Y-31.997
X34.168 Y-31.668
X34.497 Y-31.33
X34.816 Y-30.983
X35.124 Y-30.627
X35.422 Y-30.262
X35.71 Y-29.889
X35.987 Y-29.508
X36.253 Y-29.119
X36.508 Y-28.722
X36.751 Y-28.319
X36.983 Y-27.908
X37.203 Y-27.492
X37.411 Y-27.069
X37.607 Y-26.64
X37.79 Y-26.206
X37.961 Y-25.767
X38.12 Y-25.323
X38.265 Y-24.875
X38.398 Y-24.422
X38.518 Y-23.967
X38.625 Y-23.508
X38.718 Y-23.046
X38.799 Y-22.581
X38.866 Y-22.115
X38.919 Y-21.647
X38.96 Y-21.177
X38.987 Y-20.707
X39 Y-20.236
Y-20
G0 Z23
X42.922 Y3.5
G1 Z16 F30
Z13.5
X42.5 Z13.476 F3000
G3 X39 Y0 Z13.157 J-3.5
G1 Y-20 Z12
Y0
G2 X42.5 Y3.5 I3.5
G1 X90
G0 Z23
X-2.2 Y-10.186
G1 Z18.12 F30
G18 G3 X-2.8 Z17.52 I-0.6
G1 X-3.4 F3000
G17 G2 X-4 Y-9.586 J0.6
G1 Y0 Z14.952
G3 X-7.345 Y3.497 Z13.52 I-3.5
G1 X-7.396 Y3.498 Z13.509
X-7.448 Y3.5 Z13.502
X-7.5 Z13.5
G2 X-4 Y0 J-3.5
G1 Y-20
Y-20.236
X-3.987 Y-20.707
X-3.96 Y-21.177
X-3.919 Y-21.647
X-3.866 Y-22.115
X-3.799 Y-22.581
X-3.718 Y-23.046
X-3.625 Y-23.508
X-3.518 Y-23.967
X-3.398 Y-24.422
X-3.265 Y-24.875
X-3.12 Y-25.323
X-2.961 Y-25.767
X-2.79 Y-26.206
X-2.607 Y-26.64
X-2.411 Y-27.069
X-2.203 Y-27.492
X-1.983 Y-27.908
X-1.751 Y-28.319
X-1.508 Y-28.722
X-1.253 Y-29.119
X-0.987 Y-29.508
X-0.71 Y-29.889
X-0.422 Y-30.262
X-0.124 Y-30.627
X0.184 Y-30.983
X0.503 Y-31.33
X0.832 Y-31.668
X1.17 Y-31.997
X1.517 Y-32.316
X1.873 Y-32.624
X2.238 Y-32.922
X2.611 Y-33.21
X2.992 Y-33.487
X3.381 Y-33.753
X3.778 Y-34.008
X4.181 Y-34.251
X4.592 Y-34.483
X5.008 Y-34.703
X5.431 Y-34.911
X5.86 Y-35.107
X6.294 Y-35.29
X6.733 Y-35.461
X7.177 Y-35.62
X7.625 Y-35.765
X8.078 Y-35.898
X8.533 Y-36.018
X8.992 Y-36.125
X9.454 Y-36.218
X9.919 Y-36.299
X10.385 Y-36.366
X10.853 Y-36.419
X11.323 Y-36.46
X11.793 Y-36.487
X12.264 Y-36.5
X22.5
X12.264 Z13.25
X11.793 Y-36.487 Z13.239
X11.323 Y-36.46 Z13.227
X10.853 Y-36.419 Z13.215
X10.385 Y-36.366 Z13.204
X9.919 Y-36.299 Z13.192
X9.454 Y-36.218 Z13.181
X8.992 Y-36.125 Z13.169
X8.533 Y-36.018 Z13.158
X8.078 Y-35.898 Z13.146
X7.625 Y-35.765 Z13.135
X7.177 Y-35.62 Z13.123
X6.733 Y-35.461 Z13.112
X6.294 Y-35.29 Z13.1
X5.86 Y-35.107 Z13.089
X5.431 Y-34.911 Z13.077
X5.008 Y-34.703 Z13.066
X4.592 Y-34.483 Z13.054
X4.181 Y-34.251 Z13.043
X3.778 Y-34.008 Z13.031
X3.381 Y-33.753 Z13.02
X2.992 Y-33.487 Z13.008
X2.611 Y-33.21 Z12.997
X2.238 Y-32.922 Z12.985
X1.873 Y-32.624 Z12.974
X1.517 Y-32.316 Z12.962
X1.17 Y-31.997 Z12.951
X0.832 Y-31.668 Z12.939
X0.503 Y-31.33 Z12.928
X0.184 Y-30.983 Z12.916
X-0.124 Y-30.627 Z12.905
X-0.422 Y-30.262 Z12.893
X-0.71 Y-29.889 Z12.882
X-0.987 Y-29.508 Z12.87
X-1.253 Y-29.119 Z12.859
X-1.508 Y-28.722 Z12.847
X-1.751 Y-28.319 Z12.836
X-1.983 Y-27.908 Z12.824
X-2.203 Y-27.492 Z12.813
X-2.411 Y-27.069 Z12.801
X-2.607 Y-26.64 Z12.79
X-2.79 Y-26.206 Z12.778
X-2.961 Y-25.767 Z12.767
X-3.12 Y-25.323 Z12.755
X-3.265 Y-24.875 Z12.744
X-3.398 Y-24.422 Z12.732
X-3.518 Y-23.967 Z12.721
X-3.625 Y-23.508 Z12.709
X-3.718 Y-23.046 Z12.698
X-3.799 Y-22.581 Z12.686
X-3.866 Y-22.115 Z12.675
X-3.919 Y-21.647 Z12.663
X-3.96 Y-21.177 Z12.652
X-3.987 Y-20.707 Z12.64
X-4 Y-20.236 Z12.628
Y0 Z12.134
G3 X-7.5 Y3.5 Z12 I-3.5
G2 X-4 Y0 J-3.5
G1 Y-20
Y-20.236
X-3.987 Y-20.707
X-3.96 Y-21.177
X-3.919 Y-21.647
X-3.866 Y-22.115
X-3.799 Y-22.581
X-3.718 Y-23.046
X-3.625 Y-23.508
X-3.518 Y-23.967
X-3.398 Y-24.422
X-3.265 Y-24.875
X-3.12 Y-25.323
X-2.961 Y-25.767
X-2.79 Y-26.206
X-2.607 Y-26.64
X-2.411 Y-27.069
X-2.203 Y-27.492
X-1.983 Y-27.908
X-1.751 Y-28.319
X-1.508 Y-28.722
X-1.253 Y-29.119
X-0.987 Y-29.508
X-0.71 Y-29.889
X-0.422 Y-30.262
X-0.124 Y-30.627
X0.184 Y-30.983
X0.503 Y-31.33
X0.832 Y-31.668
X1.17 Y-31.997
X1.517 Y-32.316
X1.873 Y-32.624
X2.238 Y-32.922
X2.611 Y-33.21
X2.992 Y-33.487
X3.381 Y-33.753
X3.778 Y-34.008
X4.181 Y-34.251
X4.592 Y-34.483
X5.008 Y-34.703
X5.431 Y-34.911
X5.86 Y-35.107
X6.294 Y-35.29
X6.733 Y-35.461
X7.177 Y-35.62
X7.625 Y-35.765
X8.078 Y-35.898
X8.533 Y-36.018
X8.992 Y-36.125
X9.454 Y-36.218
X9.919 Y-36.299
X10.385 Y-36.366
X10.853 Y-36.419
X11.323 Y-36.46
X11.793 Y-36.487
X12.264 Y-36.5
X22.5
G0 Z23
X34.509 Y-28.499
G1 Z16.62 F30
X34.515 Y-28.504 Z16.527
X34.532 Y-28.517 Z16.435
X34.561 Y-28.539 Z16.348
X34.6 Y-28.569 Z16.268
X34.648 Y-28.606 Z16.196
X34.705 Y-28.65 Z16.135
X34.769 Y-28.699 Z16.086
X34.837 Y-28.752 Z16.05
X34.91 Y-28.808 Z16.028
X34.984 Y-28.866 Z16.02
X35.459 Y-29.232 F3000
G2 X35.568 Y-30.073 I-0.366 J-0.475
G1 X35.422 Y-30.262 Z15.957
X35.124 Y-30.627 Z15.83
X34.816 Y-30.983 Z15.704
X34.497 Y-31.33 Z15.578
X34.168 Y-31.668 Z15.451
X33.83 Y-31.997 Z15.325
X33.483 Y-32.316 Z15.199
X33.127 Y-32.624 Z15.073
X32.762 Y-32.922 Z14.946
X32.389 Y-33.21 Z14.82
X32.008 Y-33.487 Z14.694
X31.619 Y-33.753 Z14.568
X31.222 Y-34.008 Z14.441
X30.819 Y-34.251 Z14.315
X30.408 Y-34.483 Z14.189
X29.992 Y-34.703 Z14.062
X29.569 Y-34.911 Z13.936
X29.14 Y-35.107 Z13.81
X28.706 Y-35.29 Z13.684
X28.267 Y-35.461 Z13.557
X27.823 Y-35.62 Z13.431
X27.375 Y-35.765 Z13.305
X26.922 Y-35.898 Z13.178
X26.467 Y-36.018 Z13.052
X26.008 Y-36.125 Z12.926
X25.546 Y-36.218 Z12.8
X25.081 Y-36.299 Z12.673
X24.615 Y-36.366 Z12.547
X24.147 Y-36.419 Z12.421
X23.677 Y-36.46 Z12.295
X23.207 Y-36.487 Z12.168
X22.736 Y-36.5 Z12.042
X22.655 Z12.02
X22.578 Z12.005
X22.5 Z12
X22.736
X23.207 Y-36.487
X23.677 Y-36.46
X24.147 Y-36.419
X24.615 Y-36.366
X25.081 Y-36.299
X25.546 Y-36.218
X26.008 Y-36.125
X26.467 Y-36.018
X26.922 Y-35.898
X27.375 Y-35.765
X27.823 Y-35.62
X28.267 Y-35.461
X28.706 Y-35.29
X29.14 Y-35.107
X29.569 Y-34.911
X29.992 Y-34.703
X30.408 Y-34.483
X30.819 Y-34.251
X31.222 Y-34.008
X31.619 Y-33.753
X32.008 Y-33.487
X32.389 Y-33.21
X32.762 Y-32.922
X33.127 Y-32.624
X33.483 Y-32.316
X33.83 Y-31.997
X34.168 Y-31.668
X34.497 Y-31.33
X34.816 Y-30.983
X35.124 Y-30.627
X35.422 Y-30.262
X35.71 Y-29.889
X35.987 Y-29.508
X36.253 Y-29.119
X36.508 Y-28.722
X36.751 Y-28.319
X36.983 Y-27.908
X37.203 Y-27.492
X37.411 Y-27.069
X37.607 Y-26.64
X37.79 Y-26.206
X37.961 Y-25.767
X38.12 Y-25.323
X38.265 Y-24.875
X38.398 Y-24.422
X38.518 Y-23.967
X38.625 Y-23.508
X38.718 Y-23.046
X38.799 Y-22.581
X38.866 Y-22.115
X38.919 Y-21.647
X38.96 Y-21.177
X38.987 Y-20.707
X39 Y-20.236
Y-20
G0 Z23
X37.2 Y-4.317
G1 Z15.12 F30
G18 G2 X37.8 Z14.52 I0.6
G1 X38.4 F3000
G17 G2 X39 Y-4.917 J-0.6
G1 Y-19.845 Z10.52
Y-19.922 Z10.505
Y-20 Z10.5
Y0
G2 X42.5 Y3.5 I3.5
G1 X90
G0 Z23
X34.509 Y-28.499
G1 Z15.12 F30
X34.515 Y-28.504 Z15.027
X34.532 Y-28.517 Z14.935
X34.561 Y-28.539 Z14.848
X34.6 Y-28.569 Z14.768
X34.648 Y-28.606 Z14.696
X34.705 Y-28.65 Z14.635
X34.769 Y-28.699 Z14.586
X34.837 Y-28.752 Z14.55
X34.91 Y-28.808 Z14.528
X34.984 Y-28.866 Z14.52
X35.459 Y-29.232 F3000
G2 X35.568 Y-30.073 I-0.366 J-0.475
G1 X35.422 Y-30.262 Z14.457
X35.124 Y-30.627 Z14.33
X34.816 Y-30.983 Z14.204
X34.497 Y-31.33 Z14.078
X34.168 Y-31.668 Z13.951
X33.83 Y-31.997 Z13.825
X33.483 Y-32.316 Z13.699
X33.127 Y-32.624 Z13.573
X32.762 Y-32.922 Z13.446
X32.389 Y-33.21 Z13.32
X32.008 Y-33.487 Z13.194
X31.619 Y-33.753 Z13.068
X31.222 Y-34.008 Z12.941
X30.819 Y-34.251 Z12.815
X30.408 Y-34.483 Z12.689
X29.992 Y-34.703 Z12.562
X29.569 Y-34.911 Z12.436
X29.14 Y-35.107 Z12.31
X28.706 Y-35.29 Z12.184
X28.267 Y-35.461 Z12.057
X27.823 Y-35.62 Z11.931
X27.375 Y-35.765 Z11.805
X26.922 Y-35.898 Z11.678
X26.467 Y-36.018 Z11.552
X26.008 Y-36.125 Z11.426
X25.546 Y-36.218 Z11.3
X25.081 Y-36.299 Z11.173
X24.615 Y-36.366 Z11.047
X24.147 Y-36.419 Z10.921
X23.677 Y-36.46 Z10.795
X23.207 Y-36.487 Z10.668
X22.736 Y-36.5 Z10.542
X22.655 Z10.52
X22.578 Z10.505
X22.5 Z10.5
X22.736
X23.207 Y-36.487
X23.677 Y-36.46
X24.147 Y-36.419
X24.615 Y-36.366
X25.081 Y-36.299
X25.546 Y-36.218
X26.008 Y-36.125
X26.467 Y-36.018
X26.922 Y-35.898
X27.375 Y-35.765
X27.823 Y-35.62
X28.267 Y-35.461
X28.706 Y-35.29
X29.14 Y-35.107
X29.569 Y-34.911
X29.992 Y-34.703
X30.408 Y-34.483
X30.819 Y-34.251
X31.222 Y-34.008
X31.619 Y-33.753
X32.008 Y-33.487
X32.389 Y-33.21
X32.762 Y-32.922
X33.127 Y-32.624
X33.483 Y-32.316
X33.83 Y-31.997
X34.168 Y-31.668
X34.497 Y-31.33
X34.816 Y-30.983
X35.124 Y-30.627
X35.422 Y-30.262
X35.71 Y-29.889
X35.987 Y-29.508
X36.253 Y-29.119
X36.508 Y-28.722
X36.751 Y-28.319
X36.983 Y-27.908
X37.203 Y-27.492
X37.411 Y-27.069
X37.607 Y-26.64
X37.79 Y-26.206
X37.961 Y-25.767
X38.12 Y-25.323
X38.265 Y-24.875
X38.398 Y-24.422
X38.518 Y-23.967
X38.625 Y-23.508
X38.718 Y-23.046
X38.799 Y-22.581
X38.866 Y-22.115
X38.919 Y-21.647
X38.96 Y-21.177
X38.987 Y-20.707
X39 Y-20.236
Y-20
G0 Z23
X42.922 Y3.5
G1 Z13 F30
Z10.5
X42.5 Z10.476 F3000
G3 X39 Y0 Z10.157 J-3.5
G1 Y-20 Z9
Y0
G2 X42.5 Y3.5 I3.5
G1 X90
G0 Z23
X-2.2 Y-10.186
G1 Z15.12 F30
G18 G3 X-2.8 Z14.52 I-0.6
G1 X-3.4 F3000
G17 G2 X-4 Y-9.586 J0.6
G1 Y0 Z11.952
G3 X-7.345 Y3.497 Z10.52 I-3.5
G1 X-7.396 Y3.498 Z10.509
X-7.448 Y3.5 Z10.502
X-7.5 Z10.5
G2 X-4 Y0 J-3.5
G1 Y-20
Y-20.236
X-3.987 Y-20.707
X-3.96 Y-21.177
X-3.919 Y-21.647
X-3.866 Y-22.115
X-3.799 Y-22.581
X-3.718 Y-23.046
X-3.625 Y-23.508
X-3.518 Y-23.967
X-3.398 Y-24.422
X-3.265 Y-24.875
X-3.12 Y-25.323
X-2.961 Y-25.767
X-2.79 Y-26.206
X-2.607 Y-26.64
X-2.411 Y-27.069
X-2.203 Y-27.492
X-1.983 Y-27.908
X-1.751 Y-28.319
X-1.508 Y-28.722
X-1.253 Y-29.119
X-0.987 Y-29.508
X-0.71 Y-29.889
X-0.422 Y-30.262
X-0.124 Y-30.627
X0.184 Y-30.983
X0.503 Y-31.33
X0.832 Y-31.668
X1.17 Y-31.997
X1.517 Y-32.316
X1.873 Y-32.624
X2.238 Y-32.922
X2.611 Y-33.21
X2.992 Y-33.487
X3.381 Y-33.753
X3.778 Y-34.008
X4.181 Y-34.251
X4.592 Y-34.483
X5.008 Y-34.703
X5.431 Y-34.911
X5.86 Y-35.107
X6.294 Y-35.29
X6.733 Y-35.461
X7.177 Y-35.62
X7.625 Y-35.765
X8.078 Y-35.898
X8.533 Y-36.018
X8.992 Y-36.125
X9.454 Y-36.218
X9.919 Y-36.299
X10.385 Y-36.366
X10.853 Y-36.419
X11.323 Y-36.46
X11.793 Y-36.487
X12.264 Y-36.5
X22.5
X12.264 Z10.25
X11.793 Y-36.487 Z10.239
X11.323 Y-36.46 Z10.227
X10.853 Y-36.419 Z10.215
X10.385 Y-36.366 Z10.204
X9.919 Y-36.299 Z10.192
X9.454 Y-36.218 Z10.181
X8.992 Y-36.125 Z10.169
X8.533 Y-36.018 Z10.158
X8.078 Y-35.898 Z10.146
X7.625 Y-35.765 Z10.135
X7.177 Y-35.62 Z10.123
X6.733 Y-35.461 Z10.112
X6.294 Y-35.29 Z10.1
X5.86 Y-35.107 Z10.089
X5.431 Y-34.911 Z10.077
X5.008 Y-34.703 Z10.066
X4.592 Y-34.483 Z10.054
X4.181 Y-34.251 Z10.043
X3.778 Y-34.008 Z10.031
X3.381 Y-33.753 Z10.02
X2.992 Y-33.487 Z10.008
X2.611 Y-33.21 Z9.997
X2.238 Y-32.922 Z9.985
X1.873 Y-32.624 Z9.974
X1.517 Y-32.316 Z9.962
X1.17 Y-31.997 Z9.951
X0.832 Y-31.668 Z9.939
X0.503 Y-31.33 Z9.928
X0.184 Y-30.983 Z9.916
X-0.124 Y-30.627 Z9.905
X-0.422 Y-30.262 Z9.893
X-0.71 Y-29.889 Z9.882
X-0.987 Y-29.508 Z9.87
X-1.253 Y-29.119 Z9.859
X-1.508 Y-28.722 Z9.847
X-1.751 Y-28.319 Z9.836
X-1.983 Y-27.908 Z9.824
X-2.203 Y-27.492 Z9.813
X-2.411 Y-27.069 Z9.801
X-2.607 Y-26.64 Z9.79
X-2.79 Y-26.206 Z9.778
X-2.961 Y-25.767 Z9.767
X-3.12 Y-25.323 Z9.755
X-3.265 Y-24.875 Z9.744
X-3.398 Y-24.422 Z9.732
X-3.518 Y-23.967 Z9.721
X-3.625 Y-23.508 Z9.709
X-3.718 Y-23.046 Z9.698
X-3.799 Y-22.581 Z9.686
X-3.866 Y-22.115 Z9.675
X-3.919 Y-21.647 Z9.663
X-3.96 Y-21.177 Z9.652
X-3.987 Y-20.707 Z9.64
X-4 Y-20.236 Z9.628
Y0 Z9.134
G3 X-7.5 Y3.5 Z9 I-3.5
G2 X-4 Y0 J-3.5
G1 Y-20
Y-20.236
X-3.987 Y-20.707
X-3.96 Y-21.177
X-3.919 Y-21.647
X-3.866 Y-22.115
X-3.799 Y-22.581
X-3.718 Y-23.046
X-3.625 Y-23.508
X-3.518 Y-23.967
X-3.398 Y-24.422
X-3.265 Y-24.875
X-3.12 Y-25.323
X-2.961 Y-25.767
X-2.79 Y-26.206
X-2.607 Y-26.64
X-2.411 Y-27.069
X-2.203 Y-27.492
X-1.983 Y-27.908
X-1.751 Y-28.319
X-1.508 Y-28.722
X-1.253 Y-29.119
X-0.987 Y-29.508
X-0.71 Y-29.889
X-0.422 Y-30.262
X-0.124 Y-30.627
X0.184 Y-30.983
X0.503 Y-31.33
X0.832 Y-31.668
X1.17 Y-31.997
X1.517 Y-32.316
X1.873 Y-32.624
X2.238 Y-32.922
X2.611 Y-33.21
X2.992 Y-33.487
X3.381 Y-33.753
X3.778 Y-34.008
X4.181 Y-34.251
X4.592 Y-34.483
X5.008 Y-34.703
X5.431 Y-34.911
X5.86 Y-35.107
X6.294 Y-35.29
X6.733 Y-35.461
X7.177 Y-35.62
X7.625 Y-35.765
X8.078 Y-35.898
X8.533 Y-36.018
X8.992 Y-36.125
X9.454 Y-36.218
X9.919 Y-36.299
X10.385 Y-36.366
X10.853 Y-36.419
X11.323 Y-36.46
X11.793 Y-36.487
X12.264 Y-36.5
X22.5
G0 Z23
X34.509 Y-28.499
G1 Z13.62 F30
X34.515 Y-28.504 Z13.527
X34.532 Y-28.517 Z13.435
X34.561 Y-28.539 Z13.348
X34.6 Y-28.569 Z13.268
X34.648 Y-28.606 Z13.196
X34.705 Y-28.65 Z13.135
X34.769 Y-28.699 Z13.086
X34.837 Y-28.752 Z13.05
X34.91 Y-28.808 Z13.028
X34.984 Y-28.866 Z13.02
X35.459 Y-29.232 F3000
G2 X35.568 Y-30.073 I-0.366 J-0.475
G1 X35.422 Y-30.262 Z12.957
X35.124 Y-30.627 Z12.83
X34.816 Y-30.983 Z12.704
X34.497 Y-31.33 Z12.578
X34.168 Y-31.668 Z12.451
X33.83 Y-31.997 Z12.325
X33.483 Y-32.316 Z12.199
X33.127 Y-32.624 Z12.073
X32.762 Y-32.922 Z11.946
X32.389 Y-33.21 Z11.82
X32.008 Y-33.487 Z11.694
X31.619 Y-33.753 Z11.568
X31.222 Y-34.008 Z11.441
X30.819 Y-34.251 Z11.315
X30.408 Y-34.483 Z11.189
X29.992 Y-34.703 Z11.062
X29.569 Y-34.911 Z10.936
X29.14 Y-35.107 Z10.81
X28.706 Y-35.29 Z10.684
X28.267 Y-35.461 Z10.557
X27.823 Y-35.62 Z10.431
X27.375 Y-35.765 Z10.305
X26.922 Y-35.898 Z10.178
X26.467 Y-36.018 Z10.052
X26.008 Y-36.125 Z9.926
X25.546 Y-36.218 Z9.8
X25.081 Y-36.299 Z9.673
X24.615 Y-36.366 Z9.547
X24.147 Y-36.419 Z9.421
X23.677 Y-36.46 Z9.295
X23.207 Y-36.487 Z9.168
X22.736 Y-36.5 Z9.042
X22.655 Z9.02
X22.578 Z9.005
X22.5 Z9
X22.736
X23.207 Y-36.487
X23.677 Y-36.46
X24.147 Y-36.419
X24.615 Y-36.366
X25.081 Y-36.299
X25.546 Y-36.218
X26.008 Y-36.125
X26.467 Y-36.018
X26.922 Y-35.898
X27.375 Y-35.765
X27.823 Y-35.62
X28.267 Y-35.461
X28.706 Y-35.29
X29.14 Y-35.107
X29.569 Y-34.911
X29.992 Y-34.703
X30.408 Y-34.483
X30.819 Y-34.251
X31.222 Y-34.008
X31.619 Y-33.753
X32.008 Y-33.487
X32.389 Y-33.21
X32.762 Y-32.922
X33.127 Y-32.624
X33.483 Y-32.316
X33.83 Y-31.997
X34.168 Y-31.668
X34.497 Y-31.33
X34.816 Y-30.983
X35.124 Y-30.627
X35.422 Y-30.262
X35.71 Y-29.889
X35.987 Y-29.508
X36.253 Y-29.119
X36.508 Y-28.722
X36.751 Y-28.319
X36.983 Y-27.908
X37.203 Y-27.492
X37.411 Y-27.069
X37.607 Y-26.64
X37.79 Y-26.206
X37.961 Y-25.767
X38.12 Y-25.323
X38.265 Y-24.875
X38.398 Y-24.422
X38.518 Y-23.967
X38.625 Y-23.508
X38.718 Y-23.046
X38.799 Y-22.581
X38.866 Y-22.115
X38.919 Y-21.647
X38.96 Y-21.177
X38.987 Y-20.707
X39 Y-20.236
Y-20
G0 Z23
X37.2 Y-4.317
G1 Z12.12 F30
G18 G2 X37.8 Z11.52 I0.6
G1 X38.4 F3000
G17 G2 X39 Y-4.917 J-0.6
G1 Y-19.845 Z7.52
Y-19.922 Z7.505
Y-20 Z7.5
Y0
G2 X42.5 Y3.5 I3.5
G1 X90
G0 Z23
X34.509 Y-28.499
G1 Z12.12 F30
X34.515 Y-28.504 Z12.027
X34.532 Y-28.517 Z11.935
X34.561 Y-28.539 Z11.848
X34.6 Y-28.569 Z11.768
X34.648 Y-28.606 Z11.696
X34.705 Y-28.65 Z11.635
X34.769 Y-28.699 Z11.586
X34.837 Y-28.752 Z11.55
X34.91 Y-28.808 Z11.528
X34.984 Y-28.866 Z11.52
X35.459 Y-29.232 F3000
G2 X35.568 Y-30.073 I-0.366 J-0.475
G1 X35.422 Y-30.262 Z11.457
X35.124 Y-30.627 Z11.33
X34.816 Y-30.983 Z11.204
X34.497 Y-31.33 Z11.078
X34.168 Y-31.668 Z10.951
X33.83 Y-31.997 Z10.825
X33.483 Y-32.316 Z10.699
X33.127 Y-32.624 Z10.573
X32.762 Y-32.922 Z10.446
X32.389 Y-33.21 Z10.32
X32.008 Y-33.487 Z10.194
X31.619 Y-33.753 Z10.068
X31.222 Y-34.008 Z9.941
X30.819 Y-34.251 Z9.815
X30.408 Y-34.483 Z9.689
X29.992 Y-34.703 Z9.562
X29.569 Y-34.911 Z9.436
X29.14 Y-35.107 Z9.31
X28.706 Y-35.29 Z9.184
X28.267 Y-35.461 Z9.057
X27.823 Y-35.62 Z8.931
X27.375 Y-35.765 Z8.805
X26.922 Y-35.898 Z8.678
X26.467 Y-36.018 Z8.552
X26.008 Y-36.125 Z8.426
X25.546 Y-36.218 Z8.3
X25.081 Y-36.299 Z8.173
X24.615 Y-36.366 Z8.047
X24.147 Y-36.419 Z7.921
X23.677 Y-36.46 Z7.795
X23.207 Y-36.487 Z7.668
X22.736 Y-36.5 Z7.542
X22.655 Z7.52
X22.578 Z7.505
X22.5 Z7.5
X22.736
X23.207 Y-36.487
X23.677 Y-36.46
X24.147 Y-36.419
X24.615 Y-36.366
X25.081 Y-36.299
X25.546 Y-36.218
X26.008 Y-36.125
X26.467 Y-36.018
X26.922 Y-35.898
X27.375 Y-35.765
X27.823 Y-35.62
X28.267 Y-35.461
X28.706 Y-35.29
X29.14 Y-35.107
X29.569 Y-34.911
X29.992 Y-34.703
X30.408 Y-34.483
X30.819 Y-34.251
X31.222 Y-34.008
X31.619 Y-33.753
X32.008 Y-33.487
X32.389 Y-33.21
X32.762 Y-32.922
X33.127 Y-32.624
X33.483 Y-32.316
X33.83 Y-31.997
X34.168 Y-31.668
X34.497 Y-31.33
X34.816 Y-30.983
X35.124 Y-30.627
X35.422 Y-30.262
X35.71 Y-29.889
X35.987 Y-29.508
X36.253 Y-29.119
X36.508 Y-28.722
X36.751 Y-28.319
X36.983 Y-27.908
X37.203 Y-27.492
X37.411 Y-27.069
X37.607 Y-26.64
X37.79 Y-26.206
X37.961 Y-25.767
X38.12 Y-25.323
X38.265 Y-24.875
X38.398 Y-24.422
X38.518 Y-23.967
X38.625 Y-23.508
X38.718 Y-23.046
X38.799 Y-22.581
X38.866 Y-22.115
X38.919 Y-21.647
X38.96 Y-21.177
X38.987 Y-20.707
X39 Y-20.236
Y-20
G0 Z23
X42.922 Y3.5
G1 Z10 F30
Z7.5
X42.5 Z7.476 F3000
G3 X39 Y0 Z7.157 J-3.5
G1 Y-20 Z6
Y0
G2 X42.5 Y3.5 I3.5
G1 X90
G0 Z23
X-2.2 Y-10.186
G1 Z12.12 F30
G18 G3 X-2.8 Z11.52 I-0.6
G1 X-3.4 F3000
G17 G2 X-4 Y-9.586 J0.6
G1 Y0 Z8.952
G3 X-7.345 Y3.497 Z7.52 I-3.5
G1 X-7.396 Y3.498 Z7.509
X-7.448 Y3.5 Z7.502
X-7.5 Z7.5
G2 X-4 Y0 J-3.5
G1 Y-20
Y-20.236
X-3.987 Y-20.707
X-3.96 Y-21.177
X-3.919 Y-21.647
X-3.866 Y-22.115
X-3.799 Y-22.581
X-3.718 Y-23.046
X-3.625 Y-23.508
X-3.518 Y-23.967
X-3.398 Y-24.422
X-3.265 Y-24.875
X-3.12 Y-25.323
X-2.961 Y-25.767
X-2.79 Y-26.206
X-2.607 Y-26.64
X-2.411 Y-27.069
X-2.203 Y-27.492
X-1.983 Y-27.908
X-1.751 Y-28.319
X-1.508 Y-28.722
X-1.253 Y-29.119
X-0.987 Y-29.508
X-0.71 Y-29.889
X-0.422 Y-30.262
X-0.124 Y-30.627
X0.184 Y-30.983
X0.503 Y-31.33
X0.832 Y-31.668
X1.17 Y-31.997
X1.517 Y-32.316
X1.873 Y-32.624
X2.238 Y-32.922
X2.611 Y-33.21
X2.992 Y-33.487
X3.381 Y-33.753
X3.778 Y-34.008
X4.181 Y-34.251
X4.592 Y-34.483
X5.008 Y-34.703
X5.431 Y-34.911
X5.86 Y-35.107
X6.294 Y-35.29
X6.733 Y-35.461
X7.177 Y-35.62
X7.625 Y-35.765
X8.078 Y-35.898
X8.533 Y-36.018
X8.992 Y-36.125
X9.454 Y-36.218
X9.919 Y-36.299
X10.385 Y-36.366
X10.853 Y-36.419
X11.323 Y-36.46
X11.793 Y-36.487
X12.264 Y-36.5
X22.5
X12.264 Z7.25
X11.793 Y-36.487 Z7.239
X11.323 Y-36.46 Z7.227
X10.853 Y-36.419 Z7.215
X10.385 Y-36.366 Z7.204
X9.919 Y-36.299 Z7.192
X9.454 Y-36.218 Z7.181
X8.992 Y-36.125 Z7.169
X8.533 Y-36.018 Z7.158
X8.078 Y-35.898 Z7.146
X7.625 Y-35.765 Z7.135
X7.177 Y-35.62 Z7.123
X6.733 Y-35.461 Z7.112
X6.294 Y-35.29 Z7.1
X5.86 Y-35.107 Z7.089
X5.431 Y-34.911 Z7.077
X5.008 Y-34.703 Z7.066
X4.592 Y-34.483 Z7.054
X4.181 Y-34.251 Z7.043
X3.778 Y-34.008 Z7.031
X3.381 Y-33.753 Z7.02
X2.992 Y-33.487 Z7.008
X2.611 Y-33.21 Z6.997
X2.238 Y-32.922 Z6.985
X1.873 Y-32.624 Z6.974
X1.517 Y-32.316 Z6.962
X1.17 Y-31.997 Z6.951
X0.832 Y-31.668 Z6.939
X0.503 Y-31.33 Z6.928
X0.184 Y-30.983 Z6.916
X-0.124 Y-30.627 Z6.905
X-0.422 Y-30.262 Z6.893
X-0.71 Y-29.889 Z6.882
X-0.987 Y-29.508 Z6.87
X-1.253 Y-29.119 Z6.859
X-1.508 Y-28.722 Z6.847
X-1.751 Y-28.319 Z6.836
X-1.983 Y-27.908 Z6.824
X-2.203 Y-27.492 Z6.813
X-2.411 Y-27.069 Z6.801
X-2.607 Y-26.64 Z6.79
X-2.79 Y-26.206 Z6.778
X-2.961 Y-25.767 Z6.767
X-3.12 Y-25.323 Z6.755
X-3.265 Y-24.875 Z6.744
X-3.398 Y-24.422 Z6.732
X-3.518 Y-23.967 Z6.721
X-3.625 Y-23.508 Z6.709
X-3.718 Y-23.046 Z6.698
X-3.799 Y-22.581 Z6.686
X-3.866 Y-22.115 Z6.675
X-3.919 Y-21.647 Z6.663
X-3.96 Y-21.177 Z6.652
X-3.987 Y-20.707 Z6.64
X-4 Y-20.236 Z6.628
Y0 Z6.134
G3 X-7.5 Y3.5 Z6 I-3.5
G2 X-4 Y0 J-3.5
G1 Y-20
Y-20.236
X-3.987 Y-20.707
X-3.96 Y-21.177
X-3.919 Y-21.647
X-3.866 Y-22.115
X-3.799 Y-22.581
X-3.718 Y-23.046
X-3.625 Y-23.508
X-3.518 Y-23.967
X-3.398 Y-24.422
X-3.265 Y-24.875
X-3.12 Y-25.323
X-2.961 Y-25.767
X-2.79 Y-26.206
X-2.607 Y-26.64
X-2.411 Y-27.069
X-2.203 Y-27.492
X-1.983 Y-27.908
X-1.751 Y-28.319
X-1.508 Y-28.722
X-1.253 Y-29.119
X-0.987 Y-29.508
X-0.71 Y-29.889
X-0.422 Y-30.262
X-0.124 Y-30.627
X0.184 Y-30.983
X0.503 Y-31.33
X0.832 Y-31.668
X1.17 Y-31.997
X1.517 Y-32.316
X1.873 Y-32.624
X2.238 Y-32.922
X2.611 Y-33.21
X2.992 Y-33.487
X3.381 Y-33.753
X3.778 Y-34.008
X4.181 Y-34.251
X4.592 Y-34.483
X5.008 Y-34.703
X5.431 Y-34.911
X5.86 Y-35.107
X6.294 Y-35.29
X6.733 Y-35.461
X7.177 Y-35.62
X7.625 Y-35.765
X8.078 Y-35.898
X8.533 Y-36.018
X8.992 Y-36.125
X9.454 Y-36.218
X9.919 Y-36.299
X10.385 Y-36.366
X10.853 Y-36.419
X11.323 Y-36.46
X11.793 Y-36.487
X12.264 Y-36.5
X22.5
G0 Z23
X34.509 Y-28.499
G1 Z10.62 F30
X34.515 Y-28.504 Z10.527
X34.532 Y-28.517 Z10.435
X34.561 Y-28.539 Z10.348
X34.6 Y-28.569 Z10.268
X34.648 Y-28.606 Z10.196
X34.705 Y-28.65 Z10.135
X34.769 Y-28.699 Z10.086
X34.837 Y-28.752 Z10.05
X34.91 Y-28.808 Z10.028
X34.984 Y-28.866 Z10.02
X35.459 Y-29.232 F3000
G2 X35.568 Y-30.073 I-0.366 J-0.475
G1 X35.422 Y-30.262 Z9.957
X35.124 Y-30.627 Z9.83
X34.816 Y-30.983 Z9.704
X34.497 Y-31.33 Z9.578
X34.168 Y-31.668 Z9.451
X33.83 Y-31.997 Z9.325
X33.483 Y-32.316 Z9.199
X33.127 Y-32.624 Z9.073
X32.762 Y-32.922 Z8.946
X32.389 Y-33.21 Z8.82
X32.008 Y-33.487 Z8.694
X31.619 Y-33.753 Z8.568
X31.222 Y-34.008 Z8.441
X30.819 Y-34.251 Z8.315
X30.408 Y-34.483 Z8.189
X29.992 Y-34.703 Z8.062
X29.569 Y-34.911 Z7.936
X29.14 Y-35.107 Z7.81
X28.706 Y-35.29 Z7.684
X28.267 Y-35.461 Z7.557
X27.823 Y-35.62 Z7.431
X27.375 Y-35.765 Z7.305
X26.922 Y-35.898 Z7.178
X26.467 Y-36.018 Z7.052
X26.008 Y-36.125 Z6.926
X25.546 Y-36.218 Z6.8
X25.081 Y-36.299 Z6.673
X24.615 Y-36.366 Z6.547
X24.147 Y-36.419 Z6.421
X23.677 Y-36.46 Z6.295
X23.207 Y-36.487 Z6.168
X22.736 Y-36.5 Z6.042
X22.655 Z6.02
X22.578 Z6.005
X22.5 Z6
X22.736
X23.207 Y-36.487
X23.677 Y-36.46
X24.147 Y-36.419
X24.615 Y-36.366
X25.081 Y-36.299
X25.546 Y-36.218
X26.008 Y-36.125
X26.467 Y-36.018
X26.922 Y-35.898
X27.375 Y-35.765
X27.823 Y-35.62
X28.267 Y-35.461
X28.706 Y-35.29
X29.14 Y-35.107
X29.569 Y-34.911
X29.992 Y-34.703
X30.408 Y-34.483
X30.819 Y-34.251
X31.222 Y-34.008
X31.619 Y-33.753
X32.008 Y-33.487
X32.389 Y-33.21
X32.762 Y-32.922
X33.127 Y-32.624
X33.483 Y-32.316
X33.83 Y-31.997
X34.168 Y-31.668
X34.497 Y-31.33
X34.816 Y-30.983
X35.124 Y-30.627
X35.422 Y-30.262
X35.71 Y-29.889
X35.987 Y-29.508
X36.253 Y-29.119
X36.508 Y-28.722
X36.751 Y-28.319
X36.983 Y-27.908
X37.203 Y-27.492
X37.411 Y-27.069
X37.607 Y-26.64
X37.79 Y-26.206
X37.961 Y-25.767
X38.12 Y-25.323
X38.265 Y-24.875
X38.398 Y-24.422
X38.518 Y-23.967
X38.625 Y-23.508
X38.718 Y-23.046
X38.799 Y-22.581
X38.866 Y-22.115
X38.919 Y-21.647
X38.96 Y-21.177
X38.987 Y-20.707
X39 Y-20.236
Y-20
G0 Z23
X37.2 Y-4.317
G1 Z9.12 F30
G18 G2 X37.8 Z8.52 I0.6
G1 X38.4 F3000
G17 G2 X39 Y-4.917 J-0.6
G1 Y-19.845 Z4.52
Y-19.922 Z4.505
Y-20 Z4.5
Y0
G2 X42.5 Y3.5 I3.5
G1 X90
G0 Z23
X34.509 Y-28.499
G1 Z9.12 F30
X34.515 Y-28.504 Z9.027
X34.532 Y-28.517 Z8.935
X34.561 Y-28.539 Z8.848
X34.6 Y-28.569 Z8.768
X34.648 Y-28.606 Z8.696
X34.705 Y-28.65 Z8.635
X34.769 Y-28.699 Z8.586
X34.837 Y-28.752 Z8.55
X34.91 Y-28.808 Z8.528
X34.984 Y-28.866 Z8.52
X35.459 Y-29.232 F3000
G2 X35.568 Y-30.073 I-0.366 J-0.475
G1 X35.422 Y-30.262 Z8.457
X35.124 Y-30.627 Z8.33
X34.816 Y-30.983 Z8.204
X34.497 Y-31.33 Z8.078
X34.168 Y-31.668 Z7.951
X33.83 Y-31.997 Z7.825
X33.483 Y-32.316 Z7.699
X33.127 Y-32.624 Z7.573
X32.762 Y-32.922 Z7.446
X32.389 Y-33.21 Z7.32
X32.008 Y-33.487 Z7.194
X31.619 Y-33.753 Z7.068
X31.222 Y-34.008 Z6.941
X30.819 Y-34.251 Z6.815
X30.408 Y-34.483 Z6.689
X29.992 Y-34.703 Z6.562
X29.569 Y-34.911 Z6.436
X29.14 Y-35.107 Z6.31
X28.706 Y-35.29 Z6.184
X28.267 Y-35.461 Z6.057
X27.823 Y-35.62 Z5.931
X27.375 Y-35.765 Z5.805
X26.922 Y-35.898 Z5.678
X26.467 Y-36.018 Z5.552
X26.008 Y-36.125 Z5.426
X25.546 Y-36.218 Z5.3
X25.081 Y-36.299 Z5.173
X24.615 Y-36.366 Z5.047
X24.147 Y-36.419 Z4.921
X23.677 Y-36.46 Z4.795
X23.207 Y-36.487 Z4.668
X22.736 Y-36.5 Z4.542
X22.655 Z4.52
X22.578 Z4.505
X22.5 Z4.5
X22.736
X23.207 Y-36.487
X23.677 Y-36.46
X24.147 Y-36.419
X24.615 Y-36.366
X25.081 Y-36.299
X25.546 Y-36.218
X26.008 Y-36.125
X26.467 Y-36.018
X26.922 Y-35.898
X27.375 Y-35.765
X27.823 Y-35.62
X28.267 Y-35.461
X28.706 Y-35.29
X29.14 Y-35.107
X29.569 Y-34.911
X29.992 Y-34.703
X30.408 Y-34.483
X30.819 Y-34.251
X31.222 Y-34.008
X31.619 Y-33.753
X32.008 Y-33.487
X32.389 Y-33.21
X32.762 Y-32.922
X33.127 Y-32.624
X33.483 Y-32.316
X33.83 Y-31.997
X34.168 Y-31.668
X34.497 Y-31.33
X34.816 Y-30.983
X35.124 Y-30.627
X35.422 Y-30.262
X35.71 Y-29.889
X35.987 Y-29.508
X36.253 Y-29.119
X36.508 Y-28.722
X36.751 Y-28.319
X36.983 Y-27.908
X37.203 Y-27.492
X37.411 Y-27.069
X37.607 Y-26.64
X37.79 Y-26.206
X37.961 Y-25.767
X38.12 Y-25.323
X38.265 Y-24.875
X38.398 Y-24.422
X38.518 Y-23.967
X38.625 Y-23.508
X38.718 Y-23.046
X38.799 Y-22.581
X38.866 Y-22.115
X38.919 Y-21.647
X38.96 Y-21.177
X38.987 Y-20.707
X39 Y-20.236
Y-20
G0 Z23
X42.922 Y3.5
G1 Z7 F30
Z4.5
X42.5 Z4.476 F3000
G3 X39 Y0 Z4.157 J-3.5
G1 Y-20 Z3
Y0
G2 X42.5 Y3.5 I3.5
G1 X90
G0 Z23
X-2.2 Y-10.186
G1 Z9.12 F30
G18 G3 X-2.8 Z8.52 I-0.6
G1 X-3.4 F3000
G17 G2 X-4 Y-9.586 J0.6
G1 Y0 Z5.952
G3 X-7.345 Y3.497 Z4.52 I-3.5
G1 X-7.396 Y3.498 Z4.509
X-7.448 Y3.5 Z4.502
X-7.5 Z4.5
G2 X-4 Y0 J-3.5
G1 Y-20
Y-20.236
X-3.987 Y-20.707
X-3.96 Y-21.177
X-3.919 Y-21.647
X-3.866 Y-22.115
X-3.799 Y-22.581
X-3.718 Y-23.046
X-3.625 Y-23.508
X-3.518 Y-23.967
X-3.398 Y-24.422
X-3.265 Y-24.875
X-3.12 Y-25.323
X-2.961 Y-25.767
X-2.79 Y-26.206
X-2.607 Y-26.64
X-2.411 Y-27.069
X-2.203 Y-27.492
X-1.983 Y-27.908
X-1.751 Y-28.319
X-1.508 Y-28.722
X-1.253 Y-29.119
X-0.987 Y-29.508
X-0.71 Y-29.889
X-0.422 Y-30.262
X-0.124 Y-30.627
X0.184 Y-30.983
X0.503 Y-31.33
X0.832 Y-31.668
X1.17 Y-31.997
X1.517 Y-32.316
X1.873 Y-32.624
X2.238 Y-32.922
X2.611 Y-33.21
X2.992 Y-33.487
X3.381 Y-33.753
X3.778 Y-34.008
X4.181 Y-34.251
X4.592 Y-34.483
X5.008 Y-34.703
X5.431 Y-34.911
X5.86 Y-35.107
X6.294 Y-35.29
X6.733 Y-35.461
X7.177 Y-35.62
X7.625 Y-35.765
X8.078 Y-35.898
X8.533 Y-36.018
X8.992 Y-36.125
X9.454 Y-36.218
X9.919 Y-36.299
X10.385 Y-36.366
X10.853 Y-36.419
X11.323 Y-36.46
X11.793 Y-36.487
X12.264 Y-36.5
X22.5
X12.264 Z4.25
X11.793 Y-36.487 Z4.239
X11.323 Y-36.46 Z4.227
X10.853 Y-36.419 Z4.215
X10.385 Y-36.366 Z4.204
X9.919 Y-36.299 Z4.192
X9.454 Y-36.218 Z4.181
X8.992 Y-36.125 Z4.169
X8.533 Y-36.018 Z4.158
X8.078 Y-35.898 Z4.146
X7.625 Y-35.765 Z4.135
X7.177 Y-35.62 Z4.123
X6.733 Y-35.461 Z4.112
X6.294 Y-35.29 Z4.1
X5.86 Y-35.107 Z4.089
X5.431 Y-34.911 Z4.077
X5.008 Y-34.703 Z4.066
X4.592 Y-34.483 Z4.054
X4.181 Y-34.251 Z4.043
X3.778 Y-34.008 Z4.031
X3.381 Y-33.753 Z4.02
X2.992 Y-33.487 Z4.008
X2.611 Y-33.21 Z3.997
X2.238 Y-32.922 Z3.985
X1.873 Y-32.624 Z3.974
X1.517 Y-32.316 Z3.962
X1.17 Y-31.997 Z3.951
X0.832 Y-31.668 Z3.939
X0.503 Y-31.33 Z3.928
X0.184 Y-30.983 Z3.916
X-0.124 Y-30.627 Z3.905
X-0.422 Y-30.262 Z3.893
X-0.71 Y-29.889 Z3.882
X-0.987 Y-29.508 Z3.87
X-1.253 Y-29.119 Z3.859
X-1.508 Y-28.722 Z3.847
X-1.751 Y-28.319 Z3.836
X-1.983 Y-27.908 Z3.824
X-2.203 Y-27.492 Z3.813
X-2.411 Y-27.069 Z3.801
X-2.607 Y-26.64 Z3.79
X-2.79 Y-26.206 Z3.778
X-2.961 Y-25.767 Z3.767
X-3.12 Y-25.323 Z3.755
X-3.265 Y-24.875 Z3.744
X-3.398 Y-24.422 Z3.732
X-3.518 Y-23.967 Z3.721
X-3.625 Y-23.508 Z3.709
X-3.718 Y-23.046 Z3.698
X-3.799 Y-22.581 Z3.686
X-3.866 Y-22.115 Z3.675
X-3.919 Y-21.647 Z3.663
X-3.96 Y-21.177 Z3.652
X-3.987 Y-20.707 Z3.64
X-4 Y-20.236 Z3.628
Y0 Z3.134
G3 X-7.5 Y3.5 Z3 I-3.5
G2 X-4 Y0 J-3.5
G1 Y-20
Y-20.236
X-3.987 Y-20.707
X-3.96 Y-21.177
X-3.919 Y-21.647
X-3.866 Y-22.115
X-3.799 Y-22.581
X-3.718 Y-23.046
X-3.625 Y-23.508
X-3.518 Y-23.967
X-3.398 Y-24.422
X-3.265 Y-24.875
X-3.12 Y-25.323
X-2.961 Y-25.767
X-2.79 Y-26.206
X-2.607 Y-26.64
X-2.411 Y-27.069
X-2.203 Y-27.492
X-1.983 Y-27.908
X-1.751 Y-28.319
X-1.508 Y-28.722
X-1.253 Y-29.119
X-0.987 Y-29.508
X-0.71 Y-29.889
X-0.422 Y-30.262
X-0.124 Y-30.627
X0.184 Y-30.983
X0.503 Y-31.33
X0.832 Y-31.668
X1.17 Y-31.997
X1.517 Y-32.316
X1.873 Y-32.624
X2.238 Y-32.922
X2.611 Y-33.21
X2.992 Y-33.487
X3.381 Y-33.753
X3.778 Y-34.008
X4.181 Y-34.251
X4.592 Y-34.483
X5.008 Y-34.703
X5.431 Y-34.911
X5.86 Y-35.107
X6.294 Y-35.29
X6.733 Y-35.461
X7.177 Y-35.62
X7.625 Y-35.765
X8.078 Y-35.898
X8.533 Y-36.018
X8.992 Y-36.125
X9.454 Y-36.218
X9.919 Y-36.299
X10.385 Y-36.366
X10.853 Y-36.419
X11.323 Y-36.46
X11.793 Y-36.487
X12.264 Y-36.5
X22.5
G0 Z23
X34.509 Y-28.499
G1 Z7.62 F30
X34.515 Y-28.504 Z7.527
X34.532 Y-28.517 Z7.435
X34.561 Y-28.539 Z7.348
X34.6 Y-28.569 Z7.268
X34.648 Y-28.606 Z7.196
X34.705 Y-28.65 Z7.135
X34.769 Y-28.699 Z7.086
X34.837 Y-28.752 Z7.05
X34.91 Y-28.808 Z7.028
X34.984 Y-28.866 Z7.02
X35.459 Y-29.232 F3000
G2 X35.568 Y-30.073 I-0.366 J-0.475
G1 X35.422 Y-30.262 Z6.957
X35.124 Y-30.627 Z6.83
X34.816 Y-30.983 Z6.704
X34.497 Y-31.33 Z6.578
X34.168 Y-31.668 Z6.451
X33.83 Y-31.997 Z6.325
X33.483 Y-32.316 Z6.199
X33.127 Y-32.624 Z6.073
X32.762 Y-32.922 Z5.946
X32.389 Y-33.21 Z5.82
X32.008 Y-33.487 Z5.694
X31.619 Y-33.753 Z5.568
X31.222 Y-34.008 Z5.441
X30.819 Y-34.251 Z5.315
X30.408 Y-34.483 Z5.189
X29.992 Y-34.703 Z5.062
X29.569 Y-34.911 Z4.936
X29.14 Y-35.107 Z4.81
X28.706 Y-35.29 Z4.684
X28.267 Y-35.461 Z4.557
X27.823 Y-35.62 Z4.431
X27.375 Y-35.765 Z4.305
X26.922 Y-35.898 Z4.178
X26.467 Y-36.018 Z4.052
X26.008 Y-36.125 Z3.926
X25.546 Y-36.218 Z3.8
X25.081 Y-36.299 Z3.673
X24.615 Y-36.366 Z3.547
X24.147 Y-36.419 Z3.421
X23.677 Y-36.46 Z3.295
X23.207 Y-36.487 Z3.168
X22.736 Y-36.5 Z3.042
X22.655 Z3.02
X22.578 Z3.005
X22.5 Z3
X22.736
X23.207 Y-36.487
X23.677 Y-36.46
X24.147 Y-36.419
X24.615 Y-36.366
X25.081 Y-36.299
X25.546 Y-36.218
X26.008 Y-36.125
X26.467 Y-36.018
X26.922 Y-35.898
X27.375 Y-35.765
X27.823 Y-35.62
X28.267 Y-35.461
X28.706 Y-35.29
X29.14 Y-35.107
X29.569 Y-34.911
X29.992 Y-34.703
X30.408 Y-34.483
X30.819 Y-34.251
X31.222 Y-34.008
X31.619 Y-33.753
X32.008 Y-33.487
X32.389 Y-33.21
X32.762 Y-32.922
X33.127 Y-32.624
X33.483 Y-32.316
X33.83 Y-31.997
X34.168 Y-31.668
X34.497 Y-31.33
X34.816 Y-30.983
X35.124 Y-30.627
X35.422 Y-30.262
X35.71 Y-29.889
X35.987 Y-29.508
X36.253 Y-29.119
X36.508 Y-28.722
X36.751 Y-28.319
X36.983 Y-27.908
X37.203 Y-27.492
X37.411 Y-27.069
X37.607 Y-26.64
X37.79 Y-26.206
X37.961 Y-25.767
X38.12 Y-25.323
X38.265 Y-24.875
X38.398 Y-24.422
X38.518 Y-23.967
X38.625 Y-23.508
X38.718 Y-23.046
X38.799 Y-22.581
X38.866 Y-22.115
X38.919 Y-21.647
X38.96 Y-21.177
X38.987 Y-20.707
X39 Y-20.236
Y-20
G0 Z23
X37.2 Y-4.317
G1 Z6.12 F30
G18 G2 X37.8 Z5.52 I0.6
G1 X38.4 F3000
G17 G2 X39 Y-4.917 J-0.6
G1 Y-19.845 Z1.52
Y-19.922 Z1.505
Y-20 Z1.5
Y0
G2 X42.5 Y3.5 I3.5
G1 X90
G0 Z23
X34.509 Y-28.499
G1 Z6.12 F30
X34.515 Y-28.504 Z6.027
X34.532 Y-28.517 Z5.935
X34.561 Y-28.539 Z5.848
X34.6 Y-28.569 Z5.768
X34.648 Y-28.606 Z5.696
X34.705 Y-28.65 Z5.635
X34.769 Y-28.699 Z5.586
X34.837 Y-28.752 Z5.55
X34.91 Y-28.808 Z5.528
X34.984 Y-28.866 Z5.52
X35.459 Y-29.232 F3000
G2 X35.568 Y-30.073 I-0.366 J-0.475
G1 X35.422 Y-30.262 Z5.457
X35.124 Y-30.627 Z5.33
X34.816 Y-30.983 Z5.204
X34.497 Y-31.33 Z5.078
X34.168 Y-31.668 Z4.951
X33.83 Y-31.997 Z4.825
X33.483 Y-32.316 Z4.699
X33.127 Y-32.624 Z4.573
X32.762 Y-32.922 Z4.446
X32.389 Y-33.21 Z4.32
X32.008 Y-33.487 Z4.194
X31.619 Y-33.753 Z4.068
X31.222 Y-34.008 Z3.941
X30.819 Y-34.251 Z3.815
X30.408 Y-34.483 Z3.689
X29.992 Y-34.703 Z3.562
X29.569 Y-34.911 Z3.436
X29.14 Y-35.107 Z3.31
X28.706 Y-35.29 Z3.184
X28.267 Y-35.461 Z3.057
X27.823 Y-35.62 Z2.931
X27.375 Y-35.765 Z2.805
X26.922 Y-35.898 Z2.678
X26.467 Y-36.018 Z2.552
X26.008 Y-36.125 Z2.426
X25.546 Y-36.218 Z2.3
X25.081 Y-36.299 Z2.173
X24.615 Y-36.366 Z2.047
X24.147 Y-36.419 Z1.921
X23.677 Y-36.46 Z1.795
X23.207 Y-36.487 Z1.668
X22.736 Y-36.5 Z1.542
X22.655 Z1.52
X22.578 Z1.505
X22.5 Z1.5
X22.736
X23.207 Y-36.487
X23.677 Y-36.46
X24.147 Y-36.419
X24.615 Y-36.366
X25.081 Y-36.299
X25.546 Y-36.218
X26.008 Y-36.125
X26.467 Y-36.018
X26.922 Y-35.898
X27.375 Y-35.765
X27.823 Y-35.62
X28.267 Y-35.461
X28.706 Y-35.29
X29.14 Y-35.107
X29.569 Y-34.911
X29.992 Y-34.703
X30.408 Y-34.483
X30.819 Y-34.251
X31.222 Y-34.008
X31.619 Y-33.753
X32.008 Y-33.487
X32.389 Y-33.21
X32.762 Y-32.922
X33.127 Y-32.624
X33.483 Y-32.316
X33.83 Y-31.997
X34.168 Y-31.668
X34.497 Y-31.33
X34.816 Y-30.983
X35.124 Y-30.627
X35.422 Y-30.262
X35.71 Y-29.889
X35.987 Y-29.508
X36.253 Y-29.119
X36.508 Y-28.722
X36.751 Y-28.319
X36.983 Y-27.908
X37.203 Y-27.492
X37.411 Y-27.069
X37.607 Y-26.64
X37.79 Y-26.206
X37.961 Y-25.767
X38.12 Y-25.323
X38.265 Y-24.875
X38.398 Y-24.422
X38.518 Y-23.967
X38.625 Y-23.508
X38.718 Y-23.046
X38.799 Y-22.581
X38.866 Y-22.115
X38.919 Y-21.647
X38.96 Y-21.177
X38.987 Y-20.707
X39 Y-20.236
Y-20
G0 Z23
X42.922 Y3.5
G1 Z4 F30
Z1.5
X42.5 Z1.484 F3000
G3 X39 Y0 Z1.272 J-3.5
G1 Y-20 Z0.5
Y0
G2 X42.5 Y3.5 I3.5
G1 X90
G0 Z23
X-2.2 Y-10.186
G1 Z6.12 F30
G18 G3 X-2.8 Z5.52 I-0.6
G1 X-3.4 F3000
G17 G2 X-4 Y-9.586 J0.6
G1 Y0 Z2.952
G3 X-7.345 Y3.497 Z1.52 I-3.5
G1 X-7.396 Y3.498 Z1.509
X-7.448 Y3.5 Z1.502
X-7.5 Z1.5
G2 X-4 Y0 J-3.5
G1 Y-20
Y-20.236
X-3.987 Y-20.707
X-3.96 Y-21.177
X-3.919 Y-21.647
X-3.866 Y-22.115
X-3.799 Y-22.581
X-3.718 Y-23.046
X-3.625 Y-23.508
X-3.518 Y-23.967
X-3.398 Y-24.422
X-3.265 Y-24.875
X-3.12 Y-25.323
X-2.961 Y-25.767
X-2.79 Y-26.206
X-2.607 Y-26.64
X-2.411 Y-27.069
X-2.203 Y-27.492
X-1.983 Y-27.908
X-1.751 Y-28.319
X-1.508 Y-28.722
X-1.253 Y-29.119
X-0.987 Y-29.508
X-0.71 Y-29.889
X-0.422 Y-30.262
X-0.124 Y-30.627
X0.184 Y-30.983
X0.503 Y-31.33
X0.832 Y-31.668
X1.17 Y-31.997
X1.517 Y-32.316
X1.873 Y-32.624
X2.238 Y-32.922
X2.611 Y-33.21
X2.992 Y-33.487
X3.381 Y-33.753
X3.778 Y-34.008
X4.181 Y-34.251
X4.592 Y-34.483
X5.008 Y-34.703
X5.431 Y-34.911
X5.86 Y-35.107
X6.294 Y-35.29
X6.733 Y-35.461
X7.177 Y-35.62
X7.625 Y-35.765
X8.078 Y-35.898
X8.533 Y-36.018
X8.992 Y-36.125
X9.454 Y-36.218
X9.919 Y-36.299
X10.385 Y-36.366
X10.853 Y-36.419
X11.323 Y-36.46
X11.793 Y-36.487
X12.264 Y-36.5
X22.5
X12.264 Z1.333
X11.793 Y-36.487 Z1.326
X11.323 Y-36.46 Z1.318
X10.853 Y-36.419 Z1.31
X10.385 Y-36.366 Z1.303
X9.919 Y-36.299 Z1.295
X9.454 Y-36.218 Z1.287
X8.992 Y-36.125 Z1.28
X8.533 Y-36.018 Z1.272
X8.078 Y-35.898 Z1.264
X7.625 Y-35.765 Z1.257
X7.177 Y-35.62 Z1.249
X6.733 Y-35.461 Z1.241
X6.294 Y-35.29 Z1.234
X5.86 Y-35.107 Z1.226
X5.431 Y-34.911 Z1.218
X5.008 Y-34.703 Z1.211
X4.592 Y-34.483 Z1.203
X4.181 Y-34.251 Z1.195
X3.778 Y-34.008 Z1.188
X3.381 Y-33.753 Z1.18
X2.992 Y-33.487 Z1.172
X2.611 Y-33.21 Z1.165
X2.238 Y-32.922 Z1.157
X1.873 Y-32.624 Z1.149
X1.517 Y-32.316 Z1.142
X1.17 Y-31.997 Z1.134
X0.832 Y-31.668 Z1.126
X0.503 Y-31.33 Z1.118
X0.184 Y-30.983 Z1.111
X-0.124 Y-30.627 Z1.103
X-0.422 Y-30.262 Z1.095
X-0.71 Y-29.889 Z1.088
X-0.987 Y-29.508 Z1.08
X-1.253 Y-29.119 Z1.072
X-1.508 Y-28.722 Z1.065
X-1.751 Y-28.319 Z1.057
X-1.983 Y-27.908 Z1.049
X-2.203 Y-27.492 Z1.042
X-2.411 Y-27.069 Z1.034
X-2.607 Y-26.64 Z1.026
X-2.79 Y-26.206 Z1.019
X-2.961 Y-25.767 Z1.011
X-3.12 Y-25.323 Z1.003
X-3.265 Y-24.875 Z0.996
X-3.398 Y-24.422 Z0.988
X-3.518 Y-23.967 Z0.98
X-3.625 Y-23.508 Z0.973
X-3.718 Y-23.046 Z0.965
X-3.799 Y-22.581 Z0.957
X-3.866 Y-22.115 Z0.95
X-3.919 Y-21.647 Z0.942
X-3.96 Y-21.177 Z0.934
X-3.987 Y-20.707 Z0.927
X-4 Y-20.236 Z0.919
Y0 Z0.59
G3 X-7.5 Y3.5 Z0.5 I-3.5
G2 X-4 Y0 J-3.5
G1 Y-20
Y-20.236
X-3.987 Y-20.707
X-3.96 Y-21.177
X-3.919 Y-21.647
X-3.866 Y-22.115
X-3.799 Y-22.581
X-3.718 Y-23.046
X-3.625 Y-23.508
X-3.518 Y-23.967
X-3.398 Y-24.422
X-3.265 Y-24.875
X-3.12 Y-25.323
X-2.961 Y-25.767
X-2.79 Y-26.206
X-2.607 Y-26.64
X-2.411 Y-27.069
X-2.203 Y-27.492
X-1.983 Y-27.908
X-1.751 Y-28.319
X-1.508 Y-28.722
X-1.253 Y-29.119
X-0.987 Y-29.508
X-0.71 Y-29.889
X-0.422 Y-30.262
X-0.124 Y-30.627
X0.184 Y-30.983
X0.503 Y-31.33
X0.832 Y-31.668
X1.17 Y-31.997
X1.517 Y-32.316
X1.873 Y-32.624
X2.238 Y-32.922
X2.611 Y-33.21
X2.992 Y-33.487
X3.381 Y-33.753
X3.778 Y-34.008
X4.181 Y-34.251
X4.592 Y-34.483
X5.008 Y-34.703
X5.431 Y-34.911
X5.86 Y-35.107
X6.294 Y-35.29
X6.733 Y-35.461
X7.177 Y-35.62
X7.625 Y-35.765
X8.078 Y-35.898
X8.533 Y-36.018
X8.992 Y-36.125
X9.454 Y-36.218
X9.919 Y-36.299
X10.385 Y-36.366
X10.853 Y-36.419
X11.323 Y-36.46
X11.793 Y-36.487
X12.264 Y-36.5
X22.5
G0 Z23
X33.475 Y-29.799
G1 Z4.62 F30
X33.481 Y-29.804 Z4.527
X33.496 Y-29.819 Z4.435
X33.522 Y-29.845 Z4.348
X33.557 Y-29.879 Z4.268
X33.601 Y-29.921 Z4.196
X33.653 Y-29.971 Z4.135
X33.71 Y-30.027 Z4.086
X33.773 Y-30.088 Z4.05
X33.838 Y-30.152 Z4.028
X33.906 Y-30.217 Z4.02
X34.336 Y-30.635 F3000
G2 X34.348 Y-31.484 I-0.418 J-0.43
G1 X34.168 Y-31.668 Z3.951
X33.83 Y-31.997 Z3.825
X33.483 Y-32.316 Z3.699
X33.127 Y-32.624 Z3.573
X32.762 Y-32.922 Z3.446
X32.389 Y-33.21 Z3.32
X32.008 Y-33.487 Z3.194
X31.619 Y-33.753 Z3.068
X31.222 Y-34.008 Z2.941
X30.819 Y-34.251 Z2.815
X30.408 Y-34.483 Z2.689
X29.992 Y-34.703 Z2.562
X29.569 Y-34.911 Z2.436
X29.14 Y-35.107 Z2.31
X28.706 Y-35.29 Z2.184
X28.267 Y-35.461 Z2.057
X27.823 Y-35.62 Z1.931
X27.375 Y-35.765 Z1.805
X26.922 Y-35.898 Z1.678
X26.467 Y-36.018 Z1.552
X26.008 Y-36.125 Z1.426
X25.546 Y-36.218 Z1.3
X25.081 Y-36.299 Z1.173
X24.615 Y-36.366 Z1.047
X24.147 Y-36.419 Z0.921
X23.677 Y-36.46 Z0.795
X23.207 Y-36.487 Z0.668
X22.736 Y-36.5 Z0.542
X22.655 Z0.52
X22.578 Z0.505
X22.5 Z0.5
X22.736
X23.207 Y-36.487
X23.677 Y-36.46
X24.147 Y-36.419
X24.615 Y-36.366
X25.081 Y-36.299
X25.546 Y-36.218
X26.008 Y-36.125
X26.467 Y-36.018
X26.922 Y-35.898
X27.375 Y-35.765
X27.823 Y-35.62
X28.267 Y-35.461
X28.706 Y-35.29
X29.14 Y-35.107
X29.569 Y-34.911
X29.992 Y-34.703
X30.408 Y-34.483
X30.819 Y-34.251
X31.222 Y-34.008
X31.619 Y-33.753
X32.008 Y-33.487
X32.389 Y-33.21
X32.762 Y-32.922
X33.127 Y-32.624
X33.483 Y-32.316
X33.83 Y-31.997
X34.168 Y-31.668
X34.497 Y-31.33
X34.816 Y-30.983
X35.124 Y-30.627
X35.422 Y-30.262
X35.71 Y-29.889
X35.987 Y-29.508
X36.253 Y-29.119
X36.508 Y-28.722
X36.751 Y-28.319
X36.983 Y-27.908
X37.203 Y-27.492
X37.411 Y-27.069
X37.607 Y-26.64
X37.79 Y-26.206
X37.961 Y-25.767
X38.12 Y-25.323
X38.265 Y-24.875
X38.398 Y-24.422
X38.518 Y-23.967
X38.625 Y-23.508
X38.718 Y-23.046
X38.799 Y-22.581
X38.866 Y-22.115
X38.919 Y-21.647
X38.96 Y-21.177
X38.987 Y-20.707
X39 Y-20.236
Y-20
G0 Z23
X-13.683 Y-5.3
G1 Z21.12 F30
G19 G3 Y-4.7 Z20.52 J0.6
G1 Y-4.1 F3000
G17 G2 X-13.083 Y-3.5 I0.6
G1 X-11 Z19.962
X-17.5 Z18.221
X-11.155 Z16.52
X-11.078 Z16.505
X-11 Z16.5
X-17.5
X-11 Z15
X-17.5
X-11 Z13.5
X-17.5
X-11 Z12
X-17.5
X-11 Z10.5
X-17.5
X-11 Z9
X-17.5
X-11 Z7.5
X-17.5
X-11 Z6
X-17.5
X-11 Z4.5
X-17.5
X-11 Z3
X-17.5
X-11 Z1.5
X-17.5
X-11 Z0.5
X-17.5
G0 Z23
X-67.2 Y-15.683
G1 Z21.12 F30
G18 G3 X-67.8 Z20.52 I-0.6
G1 X-68.4 F3000
G17 G2 X-69 Y-15.083 J0.6
G1 Y-0.155 Z16.52
Y-0.078 Z16.505
Y0 Z16.5
Y-20
G3 X-52.5 Y-36.5 I16.5
G1 X-42.5
G3 X-26 Y-20 J16.5
G1 Y0
G2 X-22.5 Y3.5 I3.5
G1 X-17.5
X-22.5 Z16.433
G3 X-26 Y0 Z16.36 J-3.5
G1 Y-20 Z16.093
G2 X-42.5 Y-36.5 Z15.747 I-16.5
G1 X-52.5 Z15.613
G2 X-69 Y-20 Z15.267 J16.5
G1 Y0 Z15
Y-20
G3 X-52.5 Y-36.5 I16.5
G1 X-42.5
G3 X-26 Y-20 J16.5
G1 Y0
G2 X-22.5 Y3.5 I3.5
G1 X-17.5
X-22.5 Z14.933
G3 X-26 Y0 Z14.86 J-3.5
G1 Y-20 Z14.593
G2 X-42.5 Y-36.5 Z14.247 I-16.5
G1 X-52.5 Z14.113
G2 X-69 Y-20 Z13.767 J16.5
G1 Y0 Z13.5
Y-20
G3 X-52.5 Y-36.5 I16.5
G1 X-42.5
G3 X-26 Y-20 J16.5
G1 Y0
G2 X-22.5 Y3.5 I3.5
G1 X-17.5
X-22.5 Z13.433
G3 X-26 Y0 Z13.36 J-3.5
G1 Y-20 Z13.093
G2 X-42.5 Y-36.5 Z12.747 I-16.5
G1 X-52.5 Z12.613
G2 X-69 Y-20 Z12.267 J16.5
G1 Y0 Z12
Y-20
G3 X-52.5 Y-36.5 I16.5
G1 X-42.5
G3 X-26 Y-20 J16.5
G1 Y0
G2 X-22.5 Y3.5 I3.5
G1 X-17.5
X-22.5 Z11.933
G3 X-26 Y0 Z11.86 J-3.5
G1 Y-20 Z11.593
G2 X-42.5 Y-36.5 Z11.247 I-16.5
G1 X-52.5 Z11.113
G2 X-69 Y-20 Z10.767 J16.5
G1 Y0 Z10.5
Y-20
G3 X-52.5 Y-36.5 I16.5
G1 X-42.5
G3 X-26 Y-20 J16.5
G1 Y0
G2 X-22.5 Y3.5 I3.5
G1 X-17.5
X-22.5 Z10.433
G3 X-26 Y0 Z10.36 J-3.5
G1 Y-20 Z10.093
G2 X-42.5 Y-36.5 Z9.747 I-16.5
G1 X-52.5 Z9.613
G2 X-69 Y-20 Z9.267 J16.5
G1 Y0 Z9
Y-20
G3 X-52.5 Y-36.5 I16.5
G1 X-42.5
G3 X-26 Y-20 J16.5
G1 Y0
G2 X-22.5 Y3.5 I3.5
G1 X-17.5
X-22.5 Z8.933
G3 X-26 Y0 Z8.86 J-3.5
G1 Y-20 Z8.593
G2 X-42.5 Y-36.5 Z8.247 I-16.5
G1 X-52.5 Z8.113
G2 X-69 Y-20 Z7.767 J16.5
G1 Y0 Z7.5
Y-20
G3 X-52.5 Y-36.5 I16.5
G1 X-42.5
G3 X-26 Y-20 J16.5
G1 Y0
G2 X-22.5 Y3.5 I3.5
G1 X-17.5
X-22.5 Z7.433
G3 X-26 Y0 Z7.36 J-3.5
G1 Y-20 Z7.093
G2 X-42.5 Y-36.5 Z6.747 I-16.5
G1 X-52.5 Z6.613
G2 X-69 Y-20 Z6.267 J16.5
G1 Y0 Z6
Y-20
G3 X-52.5 Y-36.5 I16.5
G1 X-42.5
G3 X-26 Y-20 J16.5
G1 Y0
G2 X-22.5 Y3.5 I3.5
G1 X-17.5
X-22.5 Z5.933
G3 X-26 Y0 Z5.86 J-3.5
G1 Y-20 Z5.593
G2 X-42.5 Y-36.5 Z5.247 I-16.5
G1 X-52.5 Z5.113
G2 X-69 Y-20 Z4.767 J16.5
G1 Y0 Z4.5
Y-20
G3 X-52.5 Y-36.5 I16.5
G1 X-42.5
G3 X-26 Y-20 J16.5
G1 Y0
G2 X-22.5 Y3.5 I3.5
G1 X-17.5
X-22.5 Z4.433
G3 X-26 Y0 Z4.36 J-3.5
G1 Y-20 Z4.093
G2 X-42.5 Y-36.5 Z3.747 I-16.5
G1 X-52.5 Z3.613
G2 X-69 Y-20 Z3.267 J16.5
G1 Y0 Z3
Y-20
G3 X-52.5 Y-36.5 I16.5
G1 X-42.5
G3 X-26 Y-20 J16.5
G1 Y0
G2 X-22.5 Y3.5 I3.5
G1 X-17.5
X-22.5 Z2.933
G3 X-26 Y0 Z2.86 J-3.5
G1 Y-20 Z2.593
G2 X-42.5 Y-36.5 Z2.247 I-16.5
G1 X-52.5 Z2.113
G2 X-69 Y-20 Z1.767 J16.5
G1 Y0 Z1.5
Y-20
G3 X-52.5 Y-36.5 I16.5
G1 X-42.5
G3 X-26 Y-20 J16.5
G1 Y0
G2 X-22.5 Y3.5 I3.5
G1 X-17.5
X-22.5 Z1.455
G3 X-26 Y0 Z1.407 J-3.5
G1 Y-20 Z1.229
G2 X-42.5 Y-36.5 Z0.998 I-16.5
G1 X-52.5 Z0.909
G2 X-69 Y-20 Z0.678 J16.5
G1 Y0 Z0.5
Y-20
G3 X-52.5 Y-36.5 I16.5
G1 X-42.5
G3 X-26 Y-20 J16.5
G1 Y0
G2 X-22.5 Y3.5 I3.5
G1 X-17.5
G0 Z23
X-78.683 Y-5.3
G1 Z21.12 F30
G19 G3 Y-4.7 Z20.52 J0.6
G1 Y-4.1 F3000
G17 G2 X-78.083 Y-3.5 I0.6
G1 X-76 Z19.962
X-82.5 Z18.221
X-76.155 Z16.52
X-76.078 Z16.505
X-76 Z16.5
X-82.5
X-76 Z15
X-82.5
X-76 Z13.5
X-82.5
X-76 Z12
X-82.5
X-76 Z10.5
X-82.5
X-76 Z9
X-82.5
X-76 Z7.5
X-82.5
X-76 Z6
X-82.5
X-76 Z4.5
X-82.5
X-76 Z3
X-82.5
X-76 Z1.5
X-82.5
X-76 Z0.5
X-82.5
G0 Z23
X-83.183 Y5.3
G1 Z21.12 F30
G19 G2 Y4.7 Z20.52 J-0.6
G1 Y4.1 F3000
G17 G3 X-82.583 Y3.5 I0.6
G1 X-82.5 Z20.498
X-87.5 Z19.158
X-82.5 Z17.819
X-87.345 Z16.52
X-87.422 Z16.505
X-87.5 Z16.5
X-82.5
G0 Z23
X-95.491 Y-28.499
G1 Z21.12 F30
X-95.485 Y-28.503 Z21.027
X-95.467 Y-28.517 Z20.935
X-95.439 Y-28.539 Z20.848
X-95.4 Y-28.569 Z20.768
X-95.351 Y-28.606 Z20.696
X-95.295 Y-28.65 Z20.635
X-95.231 Y-28.699 Z20.586
X-95.162 Y-28.752 Z20.55
X-95.09 Y-28.808 Z20.528
X-95.015 Y-28.865 Z20.52
X-94.54 Y-29.231 F3000
G2 X-94.431 Y-30.073 I-0.366 J-0.475
X-107.345 Y-36.499 Z16.52 I-13.069 J10.073
G1 X-107.396 Y-36.5 Z16.509
X-107.448 Z16.502
X-107.5 Z16.5
G3 X-91 Y-20 J16.5
G1 Y0
G0 Z23
X-83.183 Y5.3
G1 Z19.62 F30
G19 G2 Y4.7 Z19.02 J-0.6
G1 Y4.1 F3000
G17 G3 X-82.583 Y3.5 I0.6
G1 X-82.5 Z18.998
X-87.5 Z17.658
X-82.5 Z16.319
X-87.345 Z15.02
X-87.422 Z15.005
X-87.5 Z15
X-82.5
G0 Z23
X-197.2 Y-15.683
G1 Z21.12 F30
G18 G3 X-197.8 Z20.52 I-0.6
G1 X-198.4 F3000
G17 G2 X-199 Y-15.083 J0.6
G1 Y-0.155 Z16.52
Y-0.078 Z16.505
Y0 Z16.5
Y-20
Y-20.236
G3 X-183.207 Y-36.487 I16.5 J0.236
X-182.5 Y-36.5 I0.667 J16.487
G1 X-172.5
X-172.264
G3 X-156 Y-20.236 I-0.236 J16.5
G1 Y-20
Y0
G2 X-152.5 Y3.5 I3.5
G1 X-137.5
G2 X-134 Y0 J-3.5
G1 Y-20
G3 X-133.96 Y-21.177 I16.501 J-0.024
X-118.207 Y-36.487 I16.46 J1.177
X-117.5 Y-36.5 I0.667 J16.487
G1 X-107.5
X-117.5 Z16.418
G2 X-118.207 Y-36.487 Z16.413 I-0.039 J16.501
X-133.96 Y-21.177 Z16.216 I0.707 J16.487
X-134 Y-20 Z16.207 I16.46 J1.154
G1 Y0 Z16.044
G3 X-137.5 Y3.5 Z15.999 I-3.5
G1 X-152.5 Z15.876
G3 X-156 Y0 Z15.831 J-3.5
G1 Y-20 Z15.668
Y-20.236 Z15.666
G2 X-172.264 Y-36.5 Z15.458 I-16.5 J0.236
G1 X-172.5 Z15.456
X-182.5 Z15.375
G2 X-183.207 Y-36.487 Z15.369 I-0.039 J16.501
X-199 Y-20.236 Z15.165 I0.707 J16.487
G1 Y-20 Z15.163
Y0 Z15
Y-20
Y-20.236
G3 X-183.207 Y-36.487 I16.5 J0.236
X-182.5 Y-36.5 I0.667 J16.487
G1 X-172.5
X-172.264
G3 X-156 Y-20.236 I-0.236 J16.5
G1 Y-20
Y0
G2 X-152.5 Y3.5 I3.5
G1 X-137.5
G2 X-134 Y0 J-3.5
G1 Y-20
G3 X-133.96 Y-21.177 I16.501 J-0.024
X-118.207 Y-36.487 I16.46 J1.177
X-117.5 Y-36.5 I0.667 J16.487
G1 X-107.5
G0 Z23
X-95.491 Y-28.499
G1 Z19.62 F30
X-95.485 Y-28.503 Z19.527
X-95.467 Y-28.517 Z19.435
X-95.439 Y-28.539 Z19.348
X-95.4 Y-28.569 Z19.268
X-95.351 Y-28.606 Z19.196
X-95.295 Y-28.65 Z19.135
X-95.231 Y-28.699 Z19.086
X-95.162 Y-28.752 Z19.05
X-95.09 Y-28.808 Z19.028
X-95.015 Y-28.865 Z19.02
X-94.54 Y-29.231 F3000
G2 X-94.431 Y-30.073 I-0.366 J-0.475
X-107.345 Y-36.499 Z15.02 I-13.069 J10.073
G1 X-107.396 Y-36.5 Z15.009
X-107.448 Z15.002
X-107.5 Z15
G3 X-91 Y-20 J16.5
G1 Y0
G0 Z23
X-83.183 Y5.3
G1 Z18.12 F30
G19 G2 Y4.7 Z17.52 J-0.6
G1 Y4.1 F3000
G17 G3 X-82.583 Y3.5 I0.6
G1 X-82.5 Z17.498
X-87.5 Z16.158
X-82.5 Z14.819
X-87.345 Z13.52
X-87.422 Z13.505
X-87.5 Z13.5
X-82.5
G0 Z23
X-95.491 Y-28.499
G1 Z18.12 F30
X-95.485 Y-28.503 Z18.027
X-95.467 Y-28.517 Z17.935
X-95.439 Y-28.539 Z17.848
X-95.4 Y-28.569 Z17.768
X-95.351 Y-28.606 Z17.696
X-95.295 Y-28.65 Z17.635
X-95.231 Y-28.699 Z17.586
X-95.162 Y-28.752 Z17.55
X-95.09 Y-28.808 Z17.528
X-95.015 Y-28.865 Z17.52
X-94.54 Y-29.231 F3000
G2 X-94.431 Y-30.073 I-0.366 J-0.475
X-107.345 Y-36.499 Z13.52 I-13.069 J10.073
G1 X-107.396 Y-36.5 Z13.509
X-107.448 Z13.502
X-107.5 Z13.5
G3 X-91 Y-20 J16.5
G1 Y0
G0 Z23
X-83.183 Y5.3
G1 Z16.62 F30
G19 G2 Y4.7 Z16.02 J-0.6
G1 Y4.1 F3000
G17 G3 X-82.583 Y3.5 I0.6
G1 X-82.5 Z15.998
X-87.5 Z14.658
X-82.5 Z13.319
X-87.345 Z12.02
X-87.422 Z12.005
X-87.5 Z12
X-82.5
G0 Z23
X-197.2 Y-15.683
G1 Z18.12 F30
G18 G3 X-197.8 Z17.52 I-0.6
G1 X-198.4 F3000
G17 G2 X-199 Y-15.083 J0.6
G1 Y-0.155 Z13.52
Y-0.078 Z13.505
Y0 Z13.5
Y-20
Y-20.236
G3 X-183.207 Y-36.487 I16.5 J0.236
X-182.5 Y-36.5 I0.667 J16.487
G1 X-172.5
X-172.264
G3 X-156 Y-20.236 I-0.236 J16.5
G1 Y-20
Y0
G2 X-152.5 Y3.5 I3.5
G1 X-137.5
G2 X-134 Y0 J-3.5
G1 Y-20
G3 X-133.96 Y-21.177 I16.501 J-0.024
X-118.207 Y-36.487 I16.46 J1.177
X-117.5 Y-36.5 I0.667 J16.487
G1 X-107.5
X-117.5 Z13.418
G2 X-118.207 Y-36.487 Z13.413 I-0.039 J16.501
X-133.96 Y-21.177 Z13.216 I0.707 J16.487
X-134 Y-20 Z13.207 I16.46 J1.154
G1 Y0 Z13.044
G3 X-137.5 Y3.5 Z12.999 I-3.5
G1 X-152.5 Z12.876
G3 X-156 Y0 Z12.831 J-3.5
G1 Y-20 Z12.668
Y-20.236 Z12.666
G2 X-172.264 Y-36.5 Z12.458 I-16.5 J0.236
G1 X-172.5 Z12.456
X-182.5 Z12.375
G2 X-183.207 Y-36.487 Z12.369 I-0.039 J16.501
X-199 Y-20.236 Z12.165 I0.707 J16.487
G1 Y-20 Z12.163
Y0 Z12
Y-20
Y-20.236
G3 X-183.207 Y-36.487 I16.5 J0.236
X-182.5 Y-36.5 I0.667 J16.487
G1 X-172.5
X-172.264
G3 X-156 Y-20.236 I-0.236 J16.5
G1 Y-20
Y0
G2 X-152.5 Y3.5 I3.5
G1 X-137.5
G2 X-134 Y0 J-3.5
G1 Y-20
G3 X-133.96 Y-21.177 I16.501 J-0.024
X-118.207 Y-36.487 I16.46 J1.177
X-117.5 Y-36.5 I0.667 J16.487
G1 X-107.5
G0 Z23
X-95.491 Y-28.499
G1 Z16.62 F30
X-95.485 Y-28.503 Z16.527
X-95.467 Y-28.517 Z16.435
X-95.439 Y-28.539 Z16.348
X-95.4 Y-28.569 Z16.268
X-95.351 Y-28.606 Z16.196
X-95.295 Y-28.65 Z16.135
X-95.231 Y-28.699 Z16.086
X-95.162 Y-28.752 Z16.05
X-95.09 Y-28.808 Z16.028
X-95.015 Y-28.865 Z16.02
X-94.54 Y-29.231 F3000
G2 X-94.431 Y-30.073 I-0.366 J-0.475
X-107.345 Y-36.499 Z12.02 I-13.069 J10.073
G1 X-107.396 Y-36.5 Z12.009
X-107.448 Z12.002
X-107.5 Z12
G3 X-91 Y-20 J16.5
G1 Y0
G0 Z23
X-83.183 Y5.3
G1 Z15.12 F30
G19 G2 Y4.7 Z14.52 J-0.6
G1 Y4.1 F3000
G17 G3 X-82.583 Y3.5 I0.6
G1 X-82.5 Z14.498
X-87.5 Z13.158
X-82.5 Z11.819
X-87.345 Z10.52
X-87.422 Z10.505
X-87.5 Z10.5
X-82.5
G0 Z23
X-95.491 Y-28.499
G1 Z15.12 F30
X-95.485 Y-28.503 Z15.027
X-95.467 Y-28.517 Z14.935
X-95.439 Y-28.539 Z14.848
X-95.4 Y-28.569 Z14.768
X-95.351 Y-28.606 Z14.696
X-95.295 Y-28.65 Z14.635
X-95.231 Y-28.699 Z14.586
X-95.162 Y-28.752 Z14.55
X-95.09 Y-28.808 Z14.528
X-95.015 Y-28.865 Z14.52
X-94.54 Y-29.231 F3000
G2 X-94.431 Y-30.073 I-0.366 J-0.475
X-107.345 Y-36.499 Z10.52 I-13.069 J10.073
G1 X-107.396 Y-36.5 Z10.509
X-107.448 Z10.502
X-107.5 Z10.5
G3 X-91 Y-20 J16.5
G1 Y0
G0 Z23
X-83.183 Y5.3
G1 Z13.62 F30
G19 G2 Y4.7 Z13.02 J-0.6
G1 Y4.1 F3000
G17 G3 X-82.583 Y3.5 I0.6
G1 X-82.5 Z12.998
X-87.5 Z11.658
X-82.5 Z10.319
X-87.345 Z9.02
X-87.422 Z9.005
X-87.5 Z9
X-82.5
G0 Z23
X-197.2 Y-15.683
G1 Z15.12 F30
G18 G3 X-197.8 Z14.52 I-0.6
G1 X-198.4 F3000
G17 G2 X-199 Y-15.083 J0.6
G1 Y-0.155 Z10.52
Y-0.078 Z10.505
Y0 Z10.5
Y-20
Y-20.236
G3 X-183.207 Y-36.487 I16.5 J0.236
X-182.5 Y-36.5 I0.667 J16.487
G1 X-172.5
X-172.264
G3 X-156 Y-20.236 I-0.236 J16.5
G1 Y-20
Y0
G2 X-152.5 Y3.5 I3.5
G1 X-137.5
G2 X-134 Y0 J-3.5
G1 Y-20
G3 X-133.96 Y-21.177 I16.501 J-0.024
X-118.207 Y-36.487 I16.46 J1.177
X-117.5 Y-36.5 I0.667 J16.487
G1 X-107.5
X-117.5 Z10.418
G2 X-118.207 Y-36.487 Z10.413 I-0.039 J16.501
X-133.96 Y-21.177 Z10.216 I0.707 J16.487
X-134 Y-20 Z10.207 I16.46 J1.154
G1 Y0 Z10.044
G3 X-137.5 Y3.5 Z9.999 I-3.5
G1 X-152.5 Z9.876
G3 X-156 Y0 Z9.831 J-3.5
G1 Y-20 Z9.668
Y-20.236 Z9.666
G2 X-172.264 Y-36.5 Z9.458 I-16.5 J0.236
G1 X-172.5 Z9.456
X-182.5 Z9.375
G2 X-183.207 Y-36.487 Z9.369 I-0.039 J16.501
X-199 Y-20.236 Z9.165 I0.707 J16.487
G1 Y-20 Z9.163
Y0 Z9
Y-20
Y-20.236
G3 X-183.207 Y-36.487 I16.5 J0.236
X-182.5 Y-36.5 I0.667 J16.487
G1 X-172.5
X-172.264
G3 X-156 Y-20.236 I-0.236 J16.5
G1 Y-20
Y0
G2 X-152.5 Y3.5 I3.5
G1 X-137.5
G2 X-134 Y0 J-3.5
G1 Y-20
G3 X-133.96 Y-21.177 I16.501 J-0.024
X-118.207 Y-36.487 I16.46 J1.177
X-117.5 Y-36.5 I0.667 J16.487
G1 X-107.5
G0 Z23
X-95.491 Y-28.499
G1 Z13.62 F30
X-95.485 Y-28.503 Z13.527
X-95.467 Y-28.517 Z13.435
X-95.439 Y-28.539 Z13.348
X-95.4 Y-28.569 Z13.268
X-95.351 Y-28.606 Z13.196
X-95.295 Y-28.65 Z13.135
X-95.231 Y-28.699 Z13.086
X-95.162 Y-28.752 Z13.05
X-95.09 Y-28.808 Z13.028
X-95.015 Y-28.865 Z13.02
X-94.54 Y-29.231 F3000
G2 X-94.431 Y-30.073 I-0.366 J-0.475
X-107.345 Y-36.499 Z9.02 I-13.069 J10.073
G1 X-107.396 Y-36.5 Z9.009
X-107.448 Z9.002
X-107.5 Z9
G3 X-91 Y-20 J16.5
G1 Y0
G0 Z23
X-83.183 Y5.3
G1 Z12.12 F30
G19 G2 Y4.7 Z11.52 J-0.6
G1 Y4.1 F3000
G17 G3 X-82.583 Y3.5 I0.6
G1 X-82.5 Z11.498
X-87.5 Z10.158
X-82.5 Z8.819
X-87.345 Z7.52
X-87.422 Z7.505
X-87.5 Z7.5
X-82.5
G0 Z23
X-95.491 Y-28.499
G1 Z12.12 F30
X-95.485 Y-28.503 Z12.027
X-95.467 Y-28.517 Z11.935
X-95.439 Y-28.539 Z11.848
X-95.4 Y-28.569 Z11.768
X-95.351 Y-28.606 Z11.696
X-95.295 Y-28.65 Z11.635
X-95.231 Y-28.699 Z11.586
X-95.162 Y-28.752 Z11.55
X-95.09 Y-28.808 Z11.528
X-95.015 Y-28.865 Z11.52
X-94.54 Y-29.231 F3000
G2 X-94.431 Y-30.073 I-0.366 J-0.475
X-107.345 Y-36.499 Z7.52 I-13.069 J10.073
G1 X-107.396 Y-36.5 Z7.509
X-107.448 Z7.502
X-107.5 Z7.5
G3 X-91 Y-20 J16.5
G1 Y0
G0 Z23
X-83.183 Y5.3
G1 Z10.62 F30
G19 G2 Y4.7 Z10.02 J-0.6
G1 Y4.1 F3000
G17 G3 X-82.583 Y3.5 I0.6
G1 X-82.5 Z9.998
X-87.5 Z8.658
X-82.5 Z7.319
X-87.345 Z6.02
X-87.422 Z6.005
X-87.5 Z6
X-82.5
G0 Z23
X-197.2 Y-15.683
G1 Z12.12 F30
G18 G3 X-197.8 Z11.52 I-0.6
G1 X-198.4 F3000
G17 G2 X-199 Y-15.083 J0.6
G1 Y-0.155 Z7.52
Y-0.078 Z7.505
Y0 Z7.5
Y-20
Y-20.236
G3 X-183.207 Y-36.487 I16.5 J0.236
X-182.5 Y-36.5 I0.667 J16.487
G1 X-172.5
X-172.264
G3 X-156 Y-20.236 I-0.236 J16.5
G1 Y-20
Y0
G2 X-152.5 Y3.5 I3.5
G1 X-137.5
G2 X-134 Y0 J-3.5
G1 Y-20
G3 X-133.96 Y-21.177 I16.501 J-0.024
X-118.207 Y-36.487 I16.46 J1.177
X-117.5 Y-36.5 I0.667 J16.487
G1 X-107.5
X-117.5 Z7.418
G2 X-118.207 Y-36.487 Z7.413 I-0.039 J16.501
X-133.96 Y-21.177 Z7.216 I0.707 J16.487
X-134 Y-20 Z7.207 I16.46 J1.154
G1 Y0 Z7.044
G3 X-137.5 Y3.5 Z6.999 I-3.5
G1 X-152.5 Z6.876
G3 X-156 Y0 Z6.831 J-3.5
G1 Y-20 Z6.668
Y-20.236 Z6.666
G2 X-172.264 Y-36.5 Z6.458 I-16.5 J0.236
G1 X-172.5 Z6.456
X-182.5 Z6.375
G2 X-183.207 Y-36.487 Z6.369 I-0.039 J16.501
X-199 Y-20.236 Z6.165 I0.707 J16.487
G1 Y-20 Z6.163
Y0 Z6
Y-20
Y-20.236
G3 X-183.207 Y-36.487 I16.5 J0.236
X-182.5 Y-36.5 I0.667 J16.487
G1 X-172.5
X-172.264
G3 X-156 Y-20.236 I-0.236 J16.5
G1 Y-20
Y0
G2 X-152.5 Y3.5 I3.5
G1 X-137.5
G2 X-134 Y0 J-3.5
G1 Y-20
G3 X-133.96 Y-21.177 I16.501 J-0.024
X-118.207 Y-36.487 I16.46 J1.177
X-117.5 Y-36.5 I0.667 J16.487
G1 X-107.5
G0 Z23
X-95.491 Y-28.499
G1 Z10.62 F30
X-95.485 Y-28.503 Z10.527
X-95.467 Y-28.517 Z10.435
X-95.439 Y-28.539 Z10.348
X-95.4 Y-28.569 Z10.268
X-95.351 Y-28.606 Z10.196
X-95.295 Y-28.65 Z10.135
X-95.231 Y-28.699 Z10.086
X-95.162 Y-28.752 Z10.05
X-95.09 Y-28.808 Z10.028
X-95.015 Y-28.865 Z10.02
X-94.54 Y-29.231 F3000
G2 X-94.431 Y-30.073 I-0.366 J-0.475
X-107.345 Y-36.499 Z6.02 I-13.069 J10.073
G1 X-107.396 Y-36.5 Z6.009
X-107.448 Z6.002
X-107.5 Z6
G3 X-91 Y-20 J16.5
G1 Y0
G0 Z23
X-83.183 Y5.3
G1 Z9.12 F30
G19 G2 Y4.7 Z8.52 J-0.6
G1 Y4.1 F3000
G17 G3 X-82.583 Y3.5 I0.6
G1 X-82.5 Z8.498
X-87.5 Z7.158
X-82.5 Z5.819
X-87.345 Z4.52
X-87.422 Z4.505
X-87.5 Z4.5
X-82.5
G0 Z23
X-95.491 Y-28.499
G1 Z9.12 F30
X-95.485 Y-28.503 Z9.027
X-95.467 Y-28.517 Z8.935
X-95.439 Y-28.539 Z8.848
X-95.4 Y-28.569 Z8.768
X-95.351 Y-28.606 Z8.696
X-95.295 Y-28.65 Z8.635
X-95.231 Y-28.699 Z8.586
X-95.162 Y-28.752 Z8.55
X-95.09 Y-28.808 Z8.528
X-95.015 Y-28.865 Z8.52
X-94.54 Y-29.231 F3000
G2 X-94.431 Y-30.073 I-0.366 J-0.475
X-107.345 Y-36.499 Z4.52 I-13.069 J10.073
G1 X-107.396 Y-36.5 Z4.509
X-107.448 Z4.502
X-107.5 Z4.5
G3 X-91 Y-20 J16.5
G1 Y0
G0 Z23
X-83.183 Y5.3
G1 Z7.62 F30
G19 G2 Y4.7 Z7.02 J-0.6
G1 Y4.1 F3000
G17 G3 X-82.583 Y3.5 I0.6
G1 X-82.5 Z6.998
X-87.5 Z5.658
X-82.5 Z4.319
X-87.345 Z3.02
X-87.422 Z3.005
X-87.5 Z3
X-82.5
G0 Z23
X-197.2 Y-15.683
G1 Z9.12 F30
G18 G3 X-197.8 Z8.52 I-0.6
G1 X-198.4 F3000
G17 G2 X-199 Y-15.083 J0.6
G1 Y-0.155 Z4.52
Y-0.078 Z4.505
Y0 Z4.5
Y-20
Y-20.236
G3 X-183.207 Y-36.487 I16.5 J0.236
X-182.5 Y-36.5 I0.667 J16.487
G1 X-172.5
X-172.264
G3 X-156 Y-20.236 I-0.236 J16.5
G1 Y-20
Y0
G2 X-152.5 Y3.5 I3.5
G1 X-137.5
G2 X-134 Y0 J-3.5
G1 Y-20
G3 X-133.96 Y-21.177 I16.501 J-0.024
X-118.207 Y-36.487 I16.46 J1.177
X-117.5 Y-36.5 I0.667 J16.487
G1 X-107.5
X-117.5 Z4.418
G2 X-118.207 Y-36.487 Z4.413 I-0.039 J16.501
X-133.96 Y-21.177 Z4.216 I0.707 J16.487
X-134 Y-20 Z4.207 I16.46 J1.154
G1 Y0 Z4.044
G3 X-137.5 Y3.5 Z3.999 I-3.5
G1 X-152.5 Z3.876
G3 X-156 Y0 Z3.831 J-3.5
G1 Y-20 Z3.668
Y-20.236 Z3.666
G2 X-172.264 Y-36.5 Z3.458 I-16.5 J0.236
G1 X-172.5 Z3.456
X-182.5 Z3.375
G2 X-183.207 Y-36.487 Z3.369 I-0.039 J16.501
X-199 Y-20.236 Z3.165 I0.707 J16.487
G1 Y-20 Z3.163
Y0 Z3
Y-20
Y-20.236
G3 X-183.207 Y-36.487 I16.5 J0.236
X-182.5 Y-36.5 I0.667 J16.487
G1 X-172.5
X-172.264
G3 X-156 Y-20.236 I-0.236 J16.5
G1 Y-20
Y0
G2 X-152.5 Y3.5 I3.5
G1 X-137.5
G2 X-134 Y0 J-3.5
G1 Y-20
G3 X-133.96 Y-21.177 I16.501 J-0.024
X-118.207 Y-36.487 I16.46 J1.177
X-117.5 Y-36.5 I0.667 J16.487
G1 X-107.5
G0 Z23
X-95.491 Y-28.499
G1 Z7.62 F30
X-95.485 Y-28.503 Z7.527
X-95.467 Y-28.517 Z7.435
X-95.439 Y-28.539 Z7.348
X-95.4 Y-28.569 Z7.268
X-95.351 Y-28.606 Z7.196
X-95.295 Y-28.65 Z7.135
X-95.231 Y-28.699 Z7.086
X-95.162 Y-28.752 Z7.05
X-95.09 Y-28.808 Z7.028
X-95.015 Y-28.865 Z7.02
X-94.54 Y-29.231 F3000
G2 X-94.431 Y-30.073 I-0.366 J-0.475
X-107.345 Y-36.499 Z3.02 I-13.069 J10.073
G1 X-107.396 Y-36.5 Z3.009
X-107.448 Z3.002
X-107.5 Z3
G3 X-91 Y-20 J16.5
G1 Y0
G0 Z23
X-83.183 Y5.3
G1 Z6.12 F30
G19 G2 Y4.7 Z5.52 J-0.6
G1 Y4.1 F3000
G17 G3 X-82.583 Y3.5 I0.6
G1 X-82.5 Z5.498
X-87.5 Z4.158
X-82.5 Z2.819
X-87.345 Z1.52
X-87.422 Z1.505
X-87.5 Z1.5
X-82.5
G0 Z23
X-95.491 Y-28.499
G1 Z6.12 F30
X-95.485 Y-28.503 Z6.027
X-95.467 Y-28.517 Z5.935
X-95.439 Y-28.539 Z5.848
X-95.4 Y-28.569 Z5.768
X-95.351 Y-28.606 Z5.696
X-95.295 Y-28.65 Z5.635
X-95.231 Y-28.699 Z5.586
X-95.162 Y-28.752 Z5.55
X-95.09 Y-28.808 Z5.528
X-95.015 Y-28.865 Z5.52
X-94.54 Y-29.231 F3000
G2 X-94.431 Y-30.073 I-0.366 J-0.475
X-107.345 Y-36.499 Z1.52 I-13.069 J10.073
G1 X-107.396 Y-36.5 Z1.509
X-107.448 Z1.502
X-107.5 Z1.5
G3 X-91 Y-20 J16.5
G1 Y0
G0 Z23
X-83.683 Y5.3
G1 Z4.62 F30
G19 G2 Y4.7 Z4.02 J-0.6
G1 Y4.1 F3000
G17 G2 X-84.283 Y3.5 I-0.6
G1 X-87.5 Z3.158
X-82.5 Z1.819
X-87.345 Z0.52
X-87.422 Z0.505
X-87.5 Z0.5
X-82.5
G0 Z23
X-197.2 Y-15.683
G1 Z6.12 F30
G18 G3 X-197.8 Z5.52 I-0.6
G1 X-198.4 F3000
G17 G2 X-199 Y-15.083 J0.6
G1 Y-0.155 Z1.52
Y-0.078 Z1.505
Y0 Z1.5
Y-20
Y-20.236
G3 X-183.207 Y-36.487 I16.5 J0.236
X-182.5 Y-36.5 I0.667 J16.487
G1 X-172.5
X-172.264
G3 X-156 Y-20.236 I-0.236 J16.5
G1 Y-20
Y0
G2 X-152.5 Y3.5 I3.5
G1 X-137.5
G2 X-134 Y0 J-3.5
G1 Y-20
G3 X-133.96 Y-21.177 I16.501 J-0.024
X-118.207 Y-36.487 I16.46 J1.177
X-117.5 Y-36.5 I0.667 J16.487
G1 X-107.5
X-117.5 Z1.446
G2 X-118.207 Y-36.487 Z1.442 I-0.039 J16.501
X-133.96 Y-21.177 Z1.311 I0.707 J16.487
X-134 Y-20 Z1.305 I16.46 J1.154
G1 Y0 Z1.196
G3 X-137.5 Y3.5 Z1.166 I-3.5
G1 X-152.5 Z1.084
G3 X-156 Y0 Z1.054 J-3.5
G1 Y-20 Z0.945
Y-20.236 Z0.944
G2 X-172.264 Y-36.5 Z0.806 I-16.5 J0.236
G1 X-172.5 Z0.804
X-182.5 Z0.75
G2 X-183.207 Y-36.487 Z0.746 I-0.039 J16.501
X-199 Y-20.236 Z0.61 I0.707 J16.487
G1 Y-20 Z0.609
Y0 Z0.5
Y-20
Y-20.236
G3 X-183.207 Y-36.487 I16.5 J0.236
X-182.5 Y-36.5 I0.667 J16.487
G1 X-172.5
X-172.264
G3 X-156 Y-20.236 I-0.236 J16.5
G1 Y-20
Y0
G2 X-152.5 Y3.5 I3.5
G1 X-137.5
G2 X-134 Y0 J-3.5
G1 Y-20
G3 X-133.96 Y-21.177 I16.501 J-0.024
X-118.207 Y-36.487 I16.46 J1.177
X-117.5 Y-36.5 I0.667 J16.487
G1 X-107.5
G0 Z23
X-96.526 Y-29.8
G1 Z4.62 F30
X-96.521 Y-29.805 Z4.527
X-96.505 Y-29.82 Z4.435
X-96.479 Y-29.845 Z4.348
X-96.444 Y-29.879 Z4.268
X-96.4 Y-29.922 Z4.196
X-96.349 Y-29.972 Z4.135
X-96.291 Y-30.028 Z4.086
X-96.229 Y-30.088 Z4.05
X-96.163 Y-30.152 Z4.028
X-96.096 Y-30.217 Z4.02
X-95.665 Y-30.635 F3000
G2 X-95.651 Y-31.483 I-0.418 J-0.431
X-107.345 Y-36.499 Z0.52 I-11.849 J11.483
G1 X-107.396 Y-36.5 Z0.509
X-107.448 Z0.502
X-107.5 Z0.5
G3 X-91 Y-20 J16.5
G1 Y0
G0 Z23
X-208.684 Y-5.3
G1 Z21.12 F30
G19 G3 Y-4.7 Z20.52 J0.6
G1 Y-4.1 F3000
G17 G2 X-208.083 Y-3.5 I0.6
G1 X-206 Z19.962
X-212.5 Z18.221
X-206.155 Z16.52
X-206.078 Z16.505
X-206 Z16.5
X-212.5
X-206 Z15
X-212.5
X-206 Z13.5
X-212.5
X-206 Z12
X-212.5
X-206 Z10.5
X-212.5
X-206 Z9
X-212.5
X-206 Z7.5
X-212.5
X-206 Z6
X-212.5
X-206 Z4.5
X-212.5
X-206 Z3
X-212.5
X-206 Z1.5
X-212.5
X-206 Z0.5
X-212.5
G0 Z23
X-213.184 Y5.3
G1 Z21.12 F30
G19 G2 Y4.7 Z20.52 J-0.6
G1 Y4.1 F3000
G17 G3 X-212.583 Y3.5 I0.6
G1 X-212.5 Z20.498
X-217.5 Z19.158
X-212.5 Z17.819
X-217.345 Z16.52
X-217.422 Z16.505
X-217.5 Z16.5
X-212.5
G0 Z23
X-262.2 Y-10.186
G1 Z21.12 F30
G18 G3 X-262.8 Z20.52 I-0.6
G1 X-263.4 F3000
G17 G2 X-264 Y-9.586 J0.6
G1 Y0 Z17.952
G3 X-267.345 Y3.497 Z16.52 I-3.5
G1 X-267.396 Y3.498 Z16.509
X-267.448 Y3.5 Z16.502
X-267.5 Z16.5
G2 X-264 Y0 J-3.5
G1 Y-20
G3 X-247.5 Y-36.5 I16.5
G1 X-237.5
G3 X-221 Y-20 J16.5
G1 Y0
Y-20 Z16.22
G2 X-237.5 Y-36.5 Z15.858 I-16.5
G1 X-247.5 Z15.719
G2 X-264 Y-20 Z15.356 J16.5
G1 Y0 Z15.077
G3 X-267.5 Y3.5 Z15 I-3.5
G2 X-264 Y0 J-3.5
G1 Y-20
G3 X-247.5 Y-36.5 I16.5
G1 X-237.5
G3 X-221 Y-20 J16.5
G1 Y0
G0 Z23
X-213.184 Y5.3
G1 Z19.62 F30
G19 G2 Y4.7 Z19.02 J-0.6
G1 Y4.1 F3000
G17 G3 X-212.583 Y3.5 I0.6
G1 X-212.5 Z18.998
X-217.5 Z17.658
X-212.5 Z16.319
X-217.345 Z15.02
X-217.422 Z15.005
X-217.5 Z15
X-212.5
G0 Z23
X-213.184 Y5.3
G1 Z18.12 F30
G19 G2 Y4.7 Z17.52 J-0.6
G1 Y4.1 F3000
G17 G3 X-212.583 Y3.5 I0.6
G1 X-212.5 Z17.498
X-217.5 Z16.158
X-212.5 Z14.819
X-217.345 Z13.52
X-217.422 Z13.505
X-217.5 Z13.5
X-212.5
G0 Z23
X-262.2 Y-10.186
G1 Z18.12 F30
G18 G3 X-262.8 Z17.52 I-0.6
G1 X-263.4 F3000
G17 G2 X-264 Y-9.586 J0.6
G1 Y0 Z14.952
G3 X-267.345 Y3.497 Z13.52 I-3.5
G1 X-267.396 Y3.498 Z13.509
X-267.448 Y3.5 Z13.502
X-267.5 Z13.5
G2 X-264 Y0 J-3.5
G1 Y-20
G3 X-247.5 Y-36.5 I16.5
G1 X-237.5
G3 X-221 Y-20 J16.5
G1 Y0
Y-20 Z13.22
G2 X-237.5 Y-36.5 Z12.858 I-16.5
G1 X-247.5 Z12.719
G2 X-264 Y-20 Z12.356 J16.5
G1 Y0 Z12.077
G3 X-267.5 Y3.5 Z12 I-3.5
G2 X-264 Y0 J-3.5
G1 Y-20
G3 X-247.5 Y-36.5 I16.5
G1 X-237.5
G3 X-221 Y-20 J16.5
G1 Y0
G0 Z23
X-213.184 Y5.3
G1 Z16.62 F30
G19 G2 Y4.7 Z16.02 J-0.6
G1 Y4.1 F3000
G17 G3 X-212.583 Y3.5 I0.6
G1 X-212.5 Z15.998
X-217.5 Z14.658
X-212.5 Z13.319
X-217.345 Z12.02
X-217.422 Z12.005
X-217.5 Z12
X-212.5
G0 Z23
X-213.184 Y5.3
G1 Z15.12 F30
G19 G2 Y4.7 Z14.52 J-0.6
G1 Y4.1 F3000
G17 G3 X-212.583 Y3.5 I0.6
G1 X-212.5 Z14.498
X-217.5 Z13.158
X-212.5 Z11.819
X-217.345 Z10.52
X-217.422 Z10.505
X-217.5 Z10.5
X-212.5
G0 Z23
X-262.2 Y-10.186
G1 Z15.12 F30
G18 G3 X-262.8 Z14.52 I-0.6
G1 X-263.4 F3000
G17 G2 X-264 Y-9.586 J0.6
G1 Y0 Z11.952
G3 X-267.345 Y3.497 Z10.52 I-3.5
G1 X-267.396 Y3.498 Z10.509
X-267.448 Y3.5 Z10.502
X-267.5 Z10.5
G2 X-264 Y0 J-3.5
G1 Y-20
G3 X-247.5 Y-36.5 I16.5
G1 X-237.5
G3 X-221 Y-20 J16.5
G1 Y0
Y-20 Z10.22
G2 X-237.5 Y-36.5 Z9.858 I-16.5
G1 X-247.5 Z9.719
G2 X-264 Y-20 Z9.356 J16.5
G1 Y0 Z9.077
G3 X-267.5 Y3.5 Z9 I-3.5
G2 X-264 Y0 J-3.5
G1 Y-20
G3 X-247.5 Y-36.5 I16.5
G1 X-237.5
G3 X-221 Y-20 J16.5
G1 Y0
G0 Z23
X-213.184 Y5.3
G1 Z13.62 F30
G19 G2 Y4.7 Z13.02 J-0.6
G1 Y4.1 F3000
G17 G3 X-212.583 Y3.5 I0.6
G1 X-212.5 Z12.998
X-217.5 Z11.658
X-212.5 Z10.319
X-217.345 Z9.02
X-217.422 Z9.005
X-217.5 Z9
X-212.5
G0 Z23
X-213.184 Y5.3
G1 Z12.12 F30
G19 G2 Y4.7 Z11.52 J-0.6
G1 Y4.1 F3000
G17 G3 X-212.583 Y3.5 I0.6
G1 X-212.5 Z11.498
X-217.5 Z10.158
X-212.5 Z8.819
X-217.345 Z7.52
X-217.422 Z7.505
X-217.5 Z7.5
X-212.5
G0 Z23
X-262.2 Y-10.186
G1 Z12.12 F30
G18 G3 X-262.8 Z11.52 I-0.6
G1 X-263.4 F3000
G17 G2 X-264 Y-9.586 J0.6
G1 Y0 Z8.952
G3 X-267.345 Y3.497 Z7.52 I-3.5
G1 X-267.396 Y3.498 Z7.509
X-267.448 Y3.5 Z7.502
X-267.5 Z7.5
G2 X-264 Y0 J-3.5
G1 Y-20
G3 X-247.5 Y-36.5 I16.5
G1 X-237.5
G3 X-221 Y-20 J16.5
G1 Y0
Y-20 Z7.22
G2 X-237.5 Y-36.5 Z6.858 I-16.5
G1 X-247.5 Z6.719
G2 X-264 Y-20 Z6.356 J16.5
G1 Y0 Z6.077
G3 X-267.5 Y3.5 Z6 I-3.5
G2 X-264 Y0 J-3.5
G1 Y-20
G3 X-247.5 Y-36.5 I16.5
G1 X-237.5
G3 X-221 Y-20 J16.5
G1 Y0
G0 Z23
X-213.184 Y5.3
G1 Z10.62 F30
G19 G2 Y4.7 Z10.02 J-0.6
G1 Y4.1 F3000
G17 G3 X-212.583 Y3.5 I0.6
G1 X-212.5 Z9.998
X-217.5 Z8.658
X-212.5 Z7.319
X-217.345 Z6.02
X-217.422 Z6.005
X-217.5 Z6
X-212.5
G0 Z23
X-213.184 Y5.3
G1 Z9.12 F30
G19 G2 Y4.7 Z8.52 J-0.6
G1 Y4.1 F3000
G17 G3 X-212.583 Y3.5 I0.6
G1 X-212.5 Z8.498
X-217.5 Z7.158
X-212.5 Z5.819
X-217.345 Z4.52
X-217.422 Z4.505
X-217.5 Z4.5
X-212.5
G0 Z23
X-262.2 Y-10.186
G1 Z9.12 F30
G18 G3 X-262.8 Z8.52 I-0.6
G1 X-263.4 F3000
G17 G2 X-264 Y-9.586 J0.6
G1 Y0 Z5.952
G3 X-267.345 Y3.497 Z4.52 I-3.5
G1 X-267.396 Y3.498 Z4.509
X-267.448 Y3.5 Z4.502
X-267.5 Z4.5
G2 X-264 Y0 J-3.5
G1 Y-20
G3 X-247.5 Y-36.5 I16.5
G1 X-237.5
G3 X-221 Y-20 J16.5
G1 Y0
Y-20 Z4.22
G2 X-237.5 Y-36.5 Z3.858 I-16.5
G1 X-247.5 Z3.719
G2 X-264 Y-20 Z3.356 J16.5
G1 Y0 Z3.077
G3 X-267.5 Y3.5 Z3 I-3.5
G2 X-264 Y0 J-3.5
G1 Y-20
G3 X-247.5 Y-36.5 I16.5
G1 X-237.5
G3 X-221 Y-20 J16.5
G1 Y0
G0 Z23
X-213.184 Y5.3
G1 Z7.62 F30
G19 G2 Y4.7 Z7.02 J-0.6
G1 Y4.1 F3000
G17 G3 X-212.583 Y3.5 I0.6
G1 X-212.5 Z6.998
X-217.5 Z5.658
X-212.5 Z4.319
X-217.345 Z3.02
X-217.422 Z3.005
X-217.5 Z3
X-212.5
G0 Z23
X-213.184 Y5.3
G1 Z6.12 F30
G19 G2 Y4.7 Z5.52 J-0.6
G1 Y4.1 F3000
G17 G3 X-212.583 Y3.5 I0.6
G1 X-212.5 Z5.498
X-217.5 Z4.158
X-212.5 Z2.819
X-217.345 Z1.52
X-217.422 Z1.505
X-217.5 Z1.5
X-212.5
G0 Z23
X-262.2 Y-10.186
G1 Z6.12 F30
G18 G3 X-262.8 Z5.52 I-0.6
G1 X-263.4 F3000
G17 G2 X-264 Y-9.586 J0.6
G1 Y0 Z2.952
G3 X-267.345 Y3.497 Z1.52 I-3.5
G1 X-267.396 Y3.498 Z1.509
X-267.448 Y3.5 Z1.502
X-267.5 Z1.5
G2 X-264 Y0 J-3.5
G1 Y-20
G3 X-247.5 Y-36.5 I16.5
G1 X-237.5
G3 X-221 Y-20 J16.5
G1 Y0
Y-20 Z1.314
G2 X-237.5 Y-36.5 Z1.072 I-16.5
G1 X-247.5 Z0.979
G2 X-264 Y-20 Z0.738 J16.5
G1 Y0 Z0.551
G3 X-267.5 Y3.5 Z0.5 I-3.5
G2 X-264 Y0 J-3.5
G1 Y-20
G3 X-247.5 Y-36.5 I16.5
G1 X-237.5
G3 X-221 Y-20 J16.5
G1 Y0
G0 Z23
X-213.683 Y5.3
G1 Z4.62 F30
G19 G2 Y4.7 Z4.02 J-0.6
G1 Y4.1 F3000
G17 G2 X-214.283 Y3.5 I-0.6
G1 X-217.5 Z3.158
X-212.5 Z1.819
X-217.345 Z0.52
X-217.422 Z0.505
X-217.5 Z0.5
X-212.5
G0 Z23
X-273.684 Y-5.3
G1 Z21.12 F30
G19 G3 Y-4.7 Z20.52 J0.6
G1 Y-4.1 F3000
G17 G2 X-273.083 Y-3.5 I0.6
G1 X-271 Z19.962
X-277.5 Z18.221
X-271.155 Z16.52
X-271.078 Z16.505
X-271 Z16.5
X-277.5
X-271 Z15
X-277.5
X-271 Z13.5
X-277.5
X-271 Z12
X-277.5
X-271 Z10.5
X-277.5
X-271 Z9
X-277.5
X-271 Z7.5
X-277.5
X-271 Z6
X-277.5
X-271 Z4.5
X-277.5
X-271 Z3
X-277.5
X-271 Z1.5
X-277.5
X-271 Z0.5
X-277.5
G0 Z23
X-327.2 Y-10.186
G1 Z21.12 F30
G18 G3 X-327.8 Z20.52 I-0.6
G1 X-328.4 F3000
G17 G2 X-329 Y-9.586 J0.6
G1 Y0 Z17.952
G3 X-332.345 Y3.497 Z16.52 I-3.5
G1 X-332.396 Y3.498 Z16.509
X-332.448 Y3.5 Z16.502
X-332.5 Z16.5
G2 X-329 Y0 J-3.5
G1 Y-20
G3 X-312.5 Y-36.5 I16.5
G1 X-302.5
G3 X-286 Y-20 J16.5
G1 Y0
G2 X-282.5 Y3.5 I3.5
G1 X-277.5
X-282.5 Z16.436
G3 X-286 Y0 Z16.366 J-3.5
G1 Y-20 Z16.112
G2 X-302.5 Y-36.5 Z15.782 I-16.5
G1 X-312.5 Z15.655
G2 X-329 Y-20 Z15.325 J16.5
G1 Y0 Z15.07
G3 X-332.5 Y3.5 Z15 I-3.5
G2 X-329 Y0 J-3.5
G1 Y-20
G3 X-312.5 Y-36.5 I16.5
G1 X-302.5
G3 X-286 Y-20 J16.5
G1 Y0
G2 X-282.5 Y3.5 I3.5
G1 X-277.5
X-282.5 Z14.936
G3 X-286 Y0 Z14.866 J-3.5
G1 Y-20 Z14.612
G2 X-302.5 Y-36.5 Z14.282 I-16.5
G1 X-312.5 Z14.155
G2 X-329 Y-20 Z13.825 J16.5
G1 Y0 Z13.57
G3 X-332.5 Y3.5 Z13.5 I-3.5
G2 X-329 Y0 J-3.5
G1 Y-20
G3 X-312.5 Y-36.5 I16.5
G1 X-302.5
G3 X-286 Y-20 J16.5
G1 Y0
G2 X-282.5 Y3.5 I3.5
G1 X-277.5
X-282.5 Z13.436
G3 X-286 Y0 Z13.366 J-3.5
G1 Y-20 Z13.112
G2 X-302.5 Y-36.5 Z12.782 I-16.5
G1 X-312.5 Z12.655
G2 X-329 Y-20 Z12.325 J16.5
G1 Y0 Z12.07
G3 X-332.5 Y3.5 Z12 I-3.5
G2 X-329 Y0 J-3.5
G1 Y-20
G3 X-312.5 Y-36.5 I16.5
G1 X-302.5
G3 X-286 Y-20 J16.5
G1 Y0
G2 X-282.5 Y3.5 I3.5
G1 X-277.5
X-282.5 Z11.936
G3 X-286 Y0 Z11.866 J-3.5
G1 Y-20 Z11.612
G2 X-302.5 Y-36.5 Z11.282 I-16.5
G1 X-312.5 Z11.155
G2 X-329 Y-20 Z10.825 J16.5
G1 Y0 Z10.57
G3 X-332.5 Y3.5 Z10.5 I-3.5
G2 X-329 Y0 J-3.5
G1 Y-20
G3 X-312.5 Y-36.5 I16.5
G1 X-302.5
G3 X-286 Y-20 J16.5
G1 Y0
G2 X-282.5 Y3.5 I3.5
G1 X-277.5
X-282.5 Z10.436
G3 X-286 Y0 Z10.366 J-3.5
G1 Y-20 Z10.112
G2 X-302.5 Y-36.5 Z9.782 I-16.5
G1 X-312.5 Z9.655
G2 X-329 Y-20 Z9.325 J16.5
G1 Y0 Z9.07
G3 X-332.5 Y3.5 Z9 I-3.5
G2 X-329 Y0 J-3.5
G1 Y-20
G3 X-312.5 Y-36.5 I16.5
G1 X-302.5
G3 X-286 Y-20 J16.5
G1 Y0
G2 X-282.5 Y3.5 I3.5
G1 X-277.5
X-282.5 Z8.936
G3 X-286 Y0 Z8.866 J-3.5
G1 Y-20 Z8.612
G2 X-302.5 Y-36.5 Z8.282 I-16.5
G1 X-312.5 Z8.155
G2 X-329 Y-20 Z7.825 J16.5
G1 Y0 Z7.57
G3 X-332.5 Y3.5 Z7.5 I-3.5
G2 X-329 Y0 J-3.5
G1 Y-20
G3 X-312.5 Y-36.5 I16.5
G1 X-302.5
G3 X-286 Y-20 J16.5
G1 Y0
G2 X-282.5 Y3.5 I3.5
G1 X-277.5
X-282.5 Z7.436
G3 X-286 Y0 Z7.366 J-3.5
G1 Y-20 Z7.112
G2 X-302.5 Y-36.5 Z6.782 I-16.5
G1 X-312.5 Z6.655
G2 X-329 Y-20 Z6.325 J16.5
G1 Y0 Z6.07
G3 X-332.5 Y3.5 Z6 I-3.5
G2 X-329 Y0 J-3.5
G1 Y-20
G3 X-312.5 Y-36.5 I16.5
G1 X-302.5
G3 X-286 Y-20 J16.5
G1 Y0
G2 X-282.5 Y3.5 I3.5
G1 X-277.5
X-282.5 Z5.936
G3 X-286 Y0 Z5.866 J-3.5
G1 Y-20 Z5.612
G2 X-302.5 Y-36.5 Z5.282 I-16.5
G1 X-312.5 Z5.155
G2 X-329 Y-20 Z4.825 J16.5
G1 Y0 Z4.57
G3 X-332.5 Y3.5 Z4.5 I-3.5
G2 X-329 Y0 J-3.5
G1 Y-20
G3 X-312.5 Y-36.5 I16.5
G1 X-302.5
G3 X-286 Y-20 J16.5
G1 Y0
G2 X-282.5 Y3.5 I3.5
G1 X-277.5
X-282.5 Z4.436
G3 X-286 Y0 Z4.366 J-3.5
G1 Y-20 Z4.112
G2 X-302.5 Y-36.5 Z3.782 I-16.5
G1 X-312.5 Z3.655
G2 X-329 Y-20 Z3.325 J16.5
G1 Y0 Z3.07
G3 X-332.5 Y3.5 Z3 I-3.5
G2 X-329 Y0 J-3.5
G1 Y-20
G3 X-312.5 Y-36.5 I16.5
G1 X-302.5
G3 X-286 Y-20 J16.5
G1 Y0
G2 X-282.5 Y3.5 I3.5
G1 X-277.5
X-282.5 Z2.936
G3 X-286 Y0 Z2.866 J-3.5
G1 Y-20 Z2.612
G2 X-302.5 Y-36.5 Z2.282 I-16.5
G1 X-312.5 Z2.155
G2 X-329 Y-20 Z1.825 J16.5
G1 Y0 Z1.57
G3 X-332.5 Y3.5 Z1.5 I-3.5
G2 X-329 Y0 J-3.5
G1 Y-20
G3 X-312.5 Y-36.5 I16.5
G1 X-302.5
G3 X-286 Y-20 J16.5
G1 Y0
G2 X-282.5 Y3.5 I3.5
G1 X-277.5
X-282.5 Z1.458
G3 X-286 Y0 Z1.411 J-3.5
G1 Y-20 Z1.241
G2 X-302.5 Y-36.5 Z1.021 I-16.5
G1 X-312.5 Z0.936
G2 X-329 Y-20 Z0.716 J16.5
G1 Y0 Z0.547
G3 X-332.5 Y3.5 Z0.5 I-3.5
G2 X-329 Y0 J-3.5
G1 Y-20
G3 X-312.5 Y-36.5 I16.5
G1 X-302.5
G3 X-286 Y-20 J16.5
G1 Y0
G2 X-282.5 Y3.5 I3.5
G1 X-277.5
G0 Z23
X-338.684 Y-5.3
G1 Z21.12 F30
G19 G3 Y-4.7 Z20.52 J0.6
G1 Y-4.1 F3000
G17 G2 X-338.083 Y-3.5 I0.6
G1 X-336 Z19.962
X-342.5 Z18.221
X-336.155 Z16.52
X-336.078 Z16.505
X-336 Z16.5
X-342.5
X-336 Z15
X-342.5
X-336 Z13.5
X-342.5
X-336 Z12
X-342.5
X-336 Z10.5
X-342.5
X-336 Z9
X-342.5
X-336 Z7.5
X-342.5
X-336 Z6
X-342.5
X-336 Z4.5
X-342.5
X-336 Z3
X-342.5
X-336 Z1.5
X-342.5
X-336 Z0.5
X-342.5
G0 Z23
X-343.184 Y5.3
G1 Z21.12 F30
G19 G2 Y4.7 Z20.52 J-0.6
G1 Y4.1 F3000
G17 G3 X-342.583 Y3.5 I0.6
G1 X-342.5 Z20.498
X-347.5 Z19.158
X-342.5 Z17.819
X-347.345 Z16.52
X-347.422 Z16.505
X-347.5 Z16.5
X-342.5
G0 Z23
X-392.2 Y-10.186
G1 Z21.12 F30
G18 G3 X-392.8 Z20.52 I-0.6
G1 X-393.4 F3000
G17 G2 X-394 Y-9.586 J0.6
G1 Y0 Z17.952
G3 X-397.345 Y3.497 Z16.52 I-3.5
G1 X-397.396 Y3.498 Z16.509
X-397.448 Y3.5 Z16.502
X-397.5 Z16.5
G2 X-394 Y0 J-3.5
G1 Y-20
G3 X-377.5 Y-36.5 I16.5
G1 X-367.5
G3 X-351 Y-20 J16.5
G1 Y0
Y-20 Z16.22
G2 X-367.5 Y-36.5 Z15.858 I-16.5
G1 X-377.5 Z15.719
G2 X-394 Y-20 Z15.356 J16.5
G1 Y0 Z15.077
G3 X-397.5 Y3.5 Z15 I-3.5
G2 X-394 Y0 J-3.5
G1 Y-20
G3 X-377.5 Y-36.5 I16.5
G1 X-367.5
G3 X-351 Y-20 J16.5
G1 Y0
G0 Z23
X-343.184 Y5.3
G1 Z19.62 F30
G19 G2 Y4.7 Z19.02 J-0.6
G1 Y4.1 F3000
G17 G3 X-342.583 Y3.5 I0.6
G1 X-342.5 Z18.998
X-347.5 Z17.658
X-342.5 Z16.319
X-347.345 Z15.02
X-347.422 Z15.005
X-347.5 Z15
X-342.5
G0 Z23
X-343.184 Y5.3
G1 Z18.12 F30
G19 G2 Y4.7 Z17.52 J-0.6
G1 Y4.1 F3000
G17 G3 X-342.583 Y3.5 I0.6
G1 X-342.5 Z17.498
X-347.5 Z16.158
X-342.5 Z14.819
X-347.345 Z13.52
X-347.422 Z13.505
X-347.5 Z13.5
X-342.5
G0 Z23
X-392.2 Y-10.186
G1 Z18.12 F30
G18 G3 X-392.8 Z17.52 I-0.6
G1 X-393.4 F3000
G17 G2 X-394 Y-9.586 J0.6
G1 Y0 Z14.952
G3 X-397.345 Y3.497 Z13.52 I-3.5
G1 X-397.396 Y3.498 Z13.509
X-397.448 Y3.5 Z13.502
X-397.5 Z13.5
G2 X-394 Y0 J-3.5
G1 Y-20
G3 X-377.5 Y-36.5 I16.5
G1 X-367.5
G3 X-351 Y-20 J16.5
G1 Y0
Y-20 Z13.22
G2 X-367.5 Y-36.5 Z12.858 I-16.5
G1 X-377.5 Z12.719
G2 X-394 Y-20 Z12.356 J16.5
G1 Y0 Z12.077
G3 X-397.5 Y3.5 Z12 I-3.5
G2 X-394 Y0 J-3.5
G1 Y-20
G3 X-377.5 Y-36.5 I16.5
G1 X-367.5
G3 X-351 Y-20 J16.5
G1 Y0
G0 Z23
X-343.184 Y5.3
G1 Z16.62 F30
G19 G2 Y4.7 Z16.02 J-0.6
G1 Y4.1 F3000
G17 G3 X-342.583 Y3.5 I0.6
G1 X-342.5 Z15.998
X-347.5 Z14.658
X-342.5 Z13.319
X-347.345 Z12.02
X-347.422 Z12.005
X-347.5 Z12
X-342.5
G0 Z23
X-343.184 Y5.3
G1 Z15.12 F30
G19 G2 Y4.7 Z14.52 J-0.6
G1 Y4.1 F3000
G17 G3 X-342.583 Y3.5 I0.6
G1 X-342.5 Z14.498
X-347.5 Z13.158
X-342.5 Z11.819
X-347.345 Z10.52
X-347.422 Z10.505
X-347.5 Z10.5
X-342.5
G0 Z23
X-392.2 Y-10.186
G1 Z15.12 F30
G18 G3 X-392.8 Z14.52 I-0.6
G1 X-393.4 F3000
G17 G2 X-394 Y-9.586 J0.6
G1 Y0 Z11.952
G3 X-397.345 Y3.497 Z10.52 I-3.5
G1 X-397.396 Y3.498 Z10.509
X-397.448 Y3.5 Z10.502
X-397.5 Z10.5
G2 X-394 Y0 J-3.5
G1 Y-20
G3 X-377.5 Y-36.5 I16.5
G1 X-367.5
G3 X-351 Y-20 J16.5
G1 Y0
Y-20 Z10.22
G2 X-367.5 Y-36.5 Z9.858 I-16.5
G1 X-377.5 Z9.719
G2 X-394 Y-20 Z9.356 J16.5
G1 Y0 Z9.077
G3 X-397.5 Y3.5 Z9 I-3.5
G2 X-394 Y0 J-3.5
G1 Y-20
G3 X-377.5 Y-36.5 I16.5
G1 X-367.5
G3 X-351 Y-20 J16.5
G1 Y0
G0 Z23
X-343.184 Y5.3
G1 Z13.62 F30
G19 G2 Y4.7 Z13.02 J-0.6
G1 Y4.1 F3000
G17 G3 X-342.583 Y3.5 I0.6
G1 X-342.5 Z12.998
X-347.5 Z11.658
X-342.5 Z10.319
X-347.345 Z9.02
X-347.422 Z9.005
X-347.5 Z9
X-342.5
G0 Z23
X-343.184 Y5.3
G1 Z12.12 F30
G19 G2 Y4.7 Z11.52 J-0.6
G1 Y4.1 F3000
G17 G3 X-342.583 Y3.5 I0.6
G1 X-342.5 Z11.498
X-347.5 Z10.158
X-342.5 Z8.819
X-347.345 Z7.52
X-347.422 Z7.505
X-347.5 Z7.5
X-342.5
G0 Z23
X-392.2 Y-10.186
G1 Z12.12 F30
G18 G3 X-392.8 Z11.52 I-0.6
G1 X-393.4 F3000
G17 G2 X-394 Y-9.586 J0.6
G1 Y0 Z8.952
G3 X-397.345 Y3.497 Z7.52 I-3.5
G1 X-397.396 Y3.498 Z7.509
X-397.448 Y3.5 Z7.502
X-397.5 Z7.5
G2 X-394 Y0 J-3.5
G1 Y-20
G3 X-377.5 Y-36.5 I16.5
G1 X-367.5
G3 X-351 Y-20 J16.5
G1 Y0
Y-20 Z7.22
G2 X-367.5 Y-36.5 Z6.858 I-16.5
G1 X-377.5 Z6.719
G2 X-394 Y-20 Z6.356 J16.5
G1 Y0 Z6.077
G3 X-397.5 Y3.5 Z6 I-3.5
G2 X-394 Y0 J-3.5
G1 Y-20
G3 X-377.5 Y-36.5 I16.5
G1 X-367.5
G3 X-351 Y-20 J16.5
G1 Y0
G0 Z23
X-343.184 Y5.3
G1 Z10.62 F30
G19 G2 Y4.7 Z10.02 J-0.6
G1 Y4.1 F3000
G17 G3 X-342.583 Y3.5 I0.6
G1 X-342.5 Z9.998
X-347.5 Z8.658
X-342.5 Z7.319
X-347.345 Z6.02
X-347.422 Z6.005
X-347.5 Z6
X-342.5
G0 Z23
X-343.184 Y5.3
G1 Z9.12 F30
G19 G2 Y4.7 Z8.52 J-0.6
G1 Y4.1 F3000
G17 G3 X-342.583 Y3.5 I0.6
G1 X-342.5 Z8.498
X-347.5 Z7.158
X-342.5 Z5.819
X-347.345 Z4.52
X-347.422 Z4.505
X-347.5 Z4.5
X-342.5
G0 Z23
X-392.2 Y-10.186
G1 Z9.12 F30
G18 G3 X-392.8 Z8.52 I-0.6
G1 X-393.4 F3000
G17 G2 X-394 Y-9.586 J0.6
G1 Y0 Z5.952
G3 X-397.345 Y3.497 Z4.52 I-3.5
G1 X-397.396 Y3.498 Z4.509
X-397.448 Y3.5 Z4.502
X-397.5 Z4.5
G2 X-394 Y0 J-3.5
G1 Y-20
G3 X-377.5 Y-36.5 I16.5
G1 X-367.5
G3 X-351 Y-20 J16.5
G1 Y0
Y-20 Z4.22
G2 X-367.5 Y-36.5 Z3.858 I-16.5
G1 X-377.5 Z3.719
G2 X-394 Y-20 Z3.356 J16.5
G1 Y0 Z3.077
G3 X-397.5 Y3.5 Z3 I-3.5
G2 X-394 Y0 J-3.5
G1 Y-20
G3 X-377.5 Y-36.5 I16.5
G1 X-367.5
G3 X-351 Y-20 J16.5
G1 Y0
G0 Z23
X-343.184 Y5.3
G1 Z7.62 F30
G19 G2 Y4.7 Z7.02 J-0.6
G1 Y4.1 F3000
G17 G3 X-342.583 Y3.5 I0.6
G1 X-342.5 Z6.998
X-347.5 Z5.658
X-342.5 Z4.319
X-347.345 Z3.02
X-347.422 Z3.005
X-347.5 Z3
X-342.5
G0 Z23
X-343.184 Y5.3
G1 Z6.12 F30
G19 G2 Y4.7 Z5.52 J-0.6
G1 Y4.1 F3000
G17 G3 X-342.583 Y3.5 I0.6
G1 X-342.5 Z5.498
X-347.5 Z4.158
X-342.5 Z2.819
X-347.345 Z1.52
X-347.422 Z1.505
X-347.5 Z1.5
X-342.5
G0 Z23
X-392.2 Y-10.186
G1 Z6.12 F30
G18 G3 X-392.8 Z5.52 I-0.6
G1 X-393.4 F3000
G17 G2 X-394 Y-9.586 J0.6
G1 Y0 Z2.952
G3 X-397.345 Y3.497 Z1.52 I-3.5
G1 X-397.396 Y3.498 Z1.509
X-397.448 Y3.5 Z1.502
X-397.5 Z1.5
G2 X-394 Y0 J-3.5
G1 Y-20
G3 X-377.5 Y-36.5 I16.5
G1 X-367.5
G3 X-351 Y-20 J16.5
G1 Y0
Y-20 Z1.314
G2 X-367.5 Y-36.5 Z1.072 I-16.5
G1 X-377.5 Z0.979
G2 X-394 Y-20 Z0.738 J16.5
G1 Y0 Z0.551
G3 X-397.5 Y3.5 Z0.5 I-3.5
G2 X-394 Y0 J-3.5
G1 Y-20
G3 X-377.5 Y-36.5 I16.5
G1 X-367.5
G3 X-351 Y-20 J16.5
G1 Y0
G0 Z23
X-343.683 Y5.3
G1 Z4.62 F30
G19 G2 Y4.7 Z4.02 J-0.6
G1 Y4.1 F3000
G17 G2 X-344.283 Y3.5 I-0.6
G1 X-347.5 Z3.158
X-342.5 Z1.819
X-347.345 Z0.52
X-347.422 Z0.505
X-347.5 Z0.5
X-342.5
G0 Z23
X-403.684 Y-5.3
G1 Z21.12 F30
G19 G3 Y-4.7 Z20.52 J0.6
G1 Y-4.1 F3000
G17 G2 X-403.083 Y-3.5 I0.6
G1 X-401 Z19.962
X-407.5 Z18.221
X-401.155 Z16.52
X-401.078 Z16.505
X-401 Z16.5
X-407.5
X-401 Z15
X-407.5
X-401 Z13.5
X-407.5
X-401 Z12
X-407.5
X-401 Z10.5
X-407.5
X-401 Z9
X-407.5
X-401 Z7.5
X-407.5
X-401 Z6
X-407.5
X-401 Z4.5
X-407.5
X-401 Z3
X-407.5
X-401 Z1.5
X-407.5
X-401 Z0.5
X-407.5
G0 Z23
X-587.2 Y-15.683
G1 Z21.12 F30
G18 G3 X-587.8 Z20.52 I-0.6
G1 X-588.4 F3000
G17 G2 X-589 Y-15.083 J0.6
G1 Y-0.155 Z16.52
Y-0.078 Z16.505
Y0 Z16.5
Y-20
G3 X-572.5 Y-36.5 I16.5
G1 X-562.5
G3 X-546 Y-20 J16.5
G1 Y0
G2 X-542.5 Y3.5 I3.5
G1 X-527.5
G2 X-524 Y0 J-3.5
G1 Y-20
G3 X-507.5 Y-36.5 I16.5
G1 X-497.5
G3 X-481 Y-20 J16.5
G1 Y0
G2 X-477.5 Y3.5 I3.5
G1 X-462.5
G2 X-459 Y0 J-3.5
G1 Y-20
Y-20.236
X-458.987 Y-20.707
X-458.96 Y-21.177
X-458.919 Y-21.647
X-458.866 Y-22.115
X-458.799 Y-22.581
X-458.718 Y-23.046
X-458.625 Y-23.508
X-458.518 Y-23.967
X-458.398 Y-24.422
X-458.265 Y-24.875
X-458.12 Y-25.323
X-457.961 Y-25.767
X-457.79 Y-26.206
X-457.607 Y-26.64
X-457.411 Y-27.069
X-457.203 Y-27.492
X-456.983 Y-27.908
X-456.751 Y-28.319
X-456.508 Y-28.722
X-456.253 Y-29.119
X-455.987 Y-29.508
X-455.71 Y-29.889
X-455.422 Y-30.262
X-455.124 Y-30.627
X-454.816 Y-30.983
X-454.497 Y-31.33
X-454.168 Y-31.668
X-453.83 Y-31.997
X-453.483 Y-32.316
X-453.127 Y-32.624
X-452.762 Y-32.922
X-452.389 Y-33.21
X-452.008 Y-33.487
X-451.619 Y-33.753
X-451.222 Y-34.008
X-450.819 Y-34.251
X-450.408 Y-34.483
X-449.992 Y-34.703
X-449.569 Y-34.911
X-449.14 Y-35.107
X-448.706 Y-35.29
X-448.267 Y-35.461
X-447.823 Y-35.62
X-447.375 Y-35.765
X-446.922 Y-35.898
X-446.467 Y-36.018
X-446.008 Y-36.125
X-445.546 Y-36.218
X-445.081 Y-36.299
X-444.615 Y-36.366
X-444.147 Y-36.419
X-443.677 Y-36.46
X-443.207 Y-36.487
X-442.736 Y-36.5
X-432.264
X-431.793 Y-36.487
X-431.323 Y-36.46
X-430.853 Y-36.419
X-430.385 Y-36.366
X-429.919 Y-36.299
X-429.454 Y-36.218
X-428.992 Y-36.125
X-428.533 Y-36.018
X-428.078 Y-35.898
X-427.625 Y-35.765
X-427.177 Y-35.62
X-426.733 Y-35.461
X-426.294 Y-35.29
X-425.86 Y-35.107
X-425.431 Y-34.911
X-425.008 Y-34.703
X-424.592 Y-34.483
X-424.181 Y-34.251
X-423.778 Y-34.008
X-423.381 Y-33.753
X-422.992 Y-33.487
X-422.611 Y-33.21
X-422.238 Y-32.922
X-421.873 Y-32.624
X-421.517 Y-32.316
X-421.17 Y-31.997
X-420.832 Y-31.668
X-420.503 Y-31.33
X-420.184 Y-30.983
X-419.876 Y-30.627
X-419.578 Y-30.262
X-419.29 Y-29.889
X-419.013 Y-29.508
X-418.747 Y-29.119
X-418.492 Y-28.722
X-418.249 Y-28.319
X-418.017 Y-27.908
X-417.797 Y-27.492
X-417.589 Y-27.069
X-417.393 Y-26.64
X-417.21 Y-26.206
X-417.039 Y-25.767
X-416.88 Y-25.323
X-416.735 Y-24.875
X-416.602 Y-24.422
X-416.482 Y-23.967
X-416.375 Y-23.508
X-416.282 Y-23.046
X-416.201 Y-22.581
X-416.134 Y-22.115
X-416.081 Y-21.647
X-416.04 Y-21.177
X-416.013 Y-20.707
X-416 Y-20.236
Y-20
Y0
G2 X-412.5 Y3.5 I3.5
G1 X-407.5
X-412.5 Z16.48
G3 X-416 Y0 Z16.457 J-3.5
G1 Y-20 Z16.376
Y-20.236 Z16.375
X-416.013 Y-20.707 Z16.373
X-416.04 Y-21.177 Z16.371
X-416.081 Y-21.647 Z16.369
X-416.134 Y-22.115 Z16.367
X-416.201 Y-22.581 Z16.365
X-416.282 Y-23.046 Z16.363
X-416.375 Y-23.508 Z16.361
X-416.482 Y-23.967 Z16.359
X-416.602 Y-24.422 Z16.357
X-416.735 Y-24.875 Z16.356
X-416.88 Y-25.323 Z16.354
X-417.039 Y-25.767 Z16.352
X-417.21 Y-26.206 Z16.35
X-417.393 Y-26.64 Z16.348
X-417.589 Y-27.069 Z16.346
X-417.797 Y-27.492 Z16.344
X-418.017 Y-27.908 Z16.342
X-418.249 Y-28.319 Z16.34
X-418.492 Y-28.722 Z16.338
X-418.747 Y-29.119 Z16.336
X-419.013 Y-29.508 Z16.334
X-419.29 Y-29.889 Z16.332
X-419.578 Y-30.262 Z16.331
X-419.876 Y-30.627 Z16.329
X-420.184 Y-30.983 Z16.327
X-420.503 Y-31.33 Z16.325
X-420.832 Y-31.668 Z16.323
X-421.17 Y-31.997 Z16.321
X-421.517 Y-32.316 Z16.319
X-421.873 Y-32.624 Z16.317
X-422.238 Y-32.922 Z16.315
X-422.611 Y-33.21 Z16.313
X-422.992 Y-33.487 Z16.311
X-423.381 Y-33.753 Z16.309
X-423.778 Y-34.008 Z16.307
X-424.181 Y-34.251 Z16.306
X-424.592 Y-34.483 Z16.304
X-425.008 Y-34.703 Z16.302
X-425.431 Y-34.911 Z16.3
X-425.86 Y-35.107 Z16.298
X-426.294 Y-35.29 Z16.296
X-426.733 Y-35.461 Z16.294
X-427.177 Y-35.62 Z16.292
X-427.625 Y-35.765 Z16.29
X-428.078 Y-35.898 Z16.288
X-428.533 Y-36.018 Z16.286
X-428.992 Y-36.125 Z16.284
X-429.454 Y-36.218 Z16.283
X-429.919 Y-36.299 Z16.281
X-430.385 Y-36.366 Z16.279
X-430.853 Y-36.419 Z16.277
X-431.323 Y-36.46 Z16.275
X-431.793 Y-36.487 Z16.273
X-432.264 Y-36.5 Z16.271
X-442.736 Z16.228
X-443.207 Y-36.487 Z16.226
X-443.677 Y-36.46 Z16.224
X-444.147 Y-36.419 Z16.223
X-444.615 Y-36.366 Z16.221
X-445.081 Y-36.299 Z16.219
X-445.546 Y-36.218 Z16.217
X-446.008 Y-36.125 Z16.215
X-446.467 Y-36.018 Z16.213
X-446.922 Y-35.898 Z16.211
X-447.375 Y-35.765 Z16.209
X-447.823 Y-35.62 Z16.207
X-448.267 Y-35.461 Z16.205
X-448.706 Y-35.29 Z16.203
X-449.14 Y-35.107 Z16.201
X-449.569 Y-34.911 Z16.2
X-449.992 Y-34.703 Z16.198
X-450.408 Y-34.483 Z16.196
X-450.819 Y-34.251 Z16.194
X-451.222 Y-34.008 Z16.192
X-451.619 Y-33.753 Z16.19
X-452.008 Y-33.487 Z16.188
X-452.389 Y-33.21 Z16.186
X-452.762 Y-32.922 Z16.184
X-453.127 Y-32.624 Z16.182
X-453.483 Y-32.316 Z16.18
X-453.83 Y-31.997 Z16.178
X-454.168 Y-31.668 Z16.176
X-454.497 Y-31.33 Z16.175
X-454.816 Y-30.983 Z16.173
X-455.124 Y-30.627 Z16.171
X-455.422 Y-30.262 Z16.169
X-455.71 Y-29.889 Z16.167
X-455.987 Y-29.508 Z16.165
X-456.253 Y-29.119 Z16.163
X-456.508 Y-28.722 Z16.161
X-456.751 Y-28.319 Z16.159
X-456.983 Y-27.908 Z16.157
X-457.203 Y-27.492 Z16.155
X-457.411 Y-27.069 Z16.153
X-457.607 Y-26.64 Z16.151
X-457.79 Y-26.206 Z16.15
X-457.961 Y-25.767 Z16.148
X-458.12 Y-25.323 Z16.146
X-458.265 Y-24.875 Z16.144
X-458.398 Y-24.422 Z16.142
X-458.518 Y-23.967 Z16.14
X-458.625 Y-23.508 Z16.138
X-458.718 Y-23.046 Z16.136
X-458.799 Y-22.581 Z16.134
X-458.866 Y-22.115 Z16.132
X-458.919 Y-21.647 Z16.13
X-458.96 Y-21.177 Z16.128
X-458.987 Y-20.707 Z16.127
X-459 Y-20.236 Z16.125
Y-20 Z16.124
Y0 Z16.042
G3 X-462.5 Y3.5 Z16.02 I-3.5
G1 X-477.5 Z15.959
G3 X-481 Y0 Z15.936 J-3.5
G1 Y-20 Z15.855
G2 X-497.5 Y-36.5 Z15.749 I-16.5
G1 X-507.5 Z15.708
G2 X-524 Y-20 Z15.603 J16.5
G1 Y0 Z15.521
G3 X-527.5 Y3.5 Z15.499 I-3.5
G1 X-542.5 Z15.438
G3 X-546 Y0 Z15.415 J-3.5
G1 Y-20 Z15.334
G2 X-562.5 Y-36.5 Z15.228 I-16.5
G1 X-572.5 Z15.187
G2 X-589 Y-20 Z15.082 J16.5
G1 Y0 Z15
Y-20
G3 X-572.5 Y-36.5 I16.5
G1 X-562.5
G3 X-546 Y-20 J16.5
G1 Y0
G2 X-542.5 Y3.5 I3.5
G1 X-527.5
G2 X-524 Y0 J-3.5
G1 Y-20
G3 X-507.5 Y-36.5 I16.5
G1 X-497.5
G3 X-481 Y-20 J16.5
G1 Y0
G2 X-477.5 Y3.5 I3.5
G1 X-462.5
G2 X-459 Y0 J-3.5
G1 Y-20
Y-20.236
X-458.987 Y-20.707
X-458.96 Y-21.177
X-458.919 Y-21.647
X-458.866 Y-22.115
X-458.799 Y-22.581
X-458.718 Y-23.046
X-458.625 Y-23.508
X-458.518 Y-23.967
X-458.398 Y-24.422
X-458.265 Y-24.875
X-458.12 Y-25.323
X-457.961 Y-25.767
X-457.79 Y-26.206
X-457.607 Y-26.64
X-457.411 Y-27.069
X-457.203 Y-27.492
X-456.983 Y-27.908
X-456.751 Y-28.319
X-456.508 Y-28.722
X-456.253 Y-29.119
X-455.987 Y-29.508
X-455.71 Y-29.889
X-455.422 Y-30.262
X-455.124 Y-30.627
X-454.816 Y-30.983
X-454.497 Y-31.33
X-454.168 Y-31.668
X-453.83 Y-31.997
X-453.483 Y-32.316
X-453.127 Y-32.624
X-452.762 Y-32.922
X-452.389 Y-33.21
X-452.008 Y-33.487
X-451.619 Y-33.753
X-451.222 Y-34.008
X-450.819 Y-34.251
X-450.408 Y-34.483
X-449.992 Y-34.703
X-449.569 Y-34.911
X-449.14 Y-35.107
X-448.706 Y-35.29
X-448.267 Y-35.461
X-447.823 Y-35.62
X-447.375 Y-35.765
X-446.922 Y-35.898
X-446.467 Y-36.018
X-446.008 Y-36.125
X-445.546 Y-36.218
X-445.081 Y-36.299
X-444.615 Y-36.366
X-444.147 Y-36.419
X-443.677 Y-36.46
X-443.207 Y-36.487
X-442.736 Y-36.5
X-432.264
X-431.793 Y-36.487
X-431.323 Y-36.46
X-430.853 Y-36.419
X-430.385 Y-36.366
X-429.919 Y-36.299
X-429.454 Y-36.218
X-428.992 Y-36.125
X-428.533 Y-36.018
X-428.078 Y-35.898
X-427.625 Y-35.765
X-427.177 Y-35.62
X-426.733 Y-35.461
X-426.294 Y-35.29
X-425.86 Y-35.107
X-425.431 Y-34.911
X-425.008 Y-34.703
X-424.592 Y-34.483
X-424.181 Y-34.251
X-423.778 Y-34.008
X-423.381 Y-33.753
X-422.992 Y-33.487
X-422.611 Y-33.21
X-422.238 Y-32.922
X-421.873 Y-32.624
X-421.517 Y-32.316
X-421.17 Y-31.997
X-420.832 Y-31.668
X-420.503 Y-31.33
X-420.184 Y-30.983
X-419.876 Y-30.627
X-419.578 Y-30.262
X-419.29 Y-29.889
X-419.013 Y-29.508
X-418.747 Y-29.119
X-418.492 Y-28.722
X-418.249 Y-28.319
X-418.017 Y-27.908
X-417.797 Y-27.492
X-417.589 Y-27.069
X-417.393 Y-26.64
X-417.21 Y-26.206
X-417.039 Y-25.767
X-416.88 Y-25.323
X-416.735 Y-24.875
X-416.602 Y-24.422
X-416.482 Y-23.967
X-416.375 Y-23.508
X-416.282 Y-23.046
X-416.201 Y-22.581
X-416.134 Y-22.115
X-416.081 Y-21.647
X-416.04 Y-21.177
X-416.013 Y-20.707
X-416 Y-20.236
Y-20
Y0
G2 X-412.5 Y3.5 I3.5
G1 X-407.5
X-412.5 Z14.98
G3 X-416 Y0 Z14.957 J-3.5
G1 Y-20 Z14.876
Y-20.236 Z14.875
X-416.013 Y-20.707 Z14.873
X-416.04 Y-21.177 Z14.871
X-416.081 Y-21.647 Z14.869
X-416.134 Y-22.115 Z14.867
X-416.201 Y-22.581 Z14.865
X-416.282 Y-23.046 Z14.863
X-416.375 Y-23.508 Z14.861
X-416.482 Y-23.967 Z14.859
X-416.602 Y-24.422 Z14.857
X-416.735 Y-24.875 Z14.856
X-416.88 Y-25.323 Z14.854
X-417.039 Y-25.767 Z14.852
X-417.21 Y-26.206 Z14.85
X-417.393 Y-26.64 Z14.848
X-417.589 Y-27.069 Z14.846
X-417.797 Y-27.492 Z14.844
X-418.017 Y-27.908 Z14.842
X-418.249 Y-28.319 Z14.84
X-418.492 Y-28.722 Z14.838
X-418.747 Y-29.119 Z14.836
X-419.013 Y-29.508 Z14.834
X-419.29 Y-29.889 Z14.832
X-419.578 Y-30.262 Z14.831
X-419.876 Y-30.627 Z14.829
X-420.184 Y-30.983 Z14.827
X-420.503 Y-31.33 Z14.825
X-420.832 Y-31.668 Z14.823
X-421.17 Y-31.997 Z14.821
X-421.517 Y-32.316 Z14.819
X-421.873 Y-32.624 Z14.817
X-422.238 Y-32.922 Z14.815
X-422.611 Y-33.21 Z14.813
X-422.992 Y-33.487 Z14.811
X-423.381 Y-33.753 Z14.809
X-423.778 Y-34.008 Z14.807
X-424.181 Y-34.251 Z14.806
X-424.592 Y-34.483 Z14.804
X-425.008 Y-34.703 Z14.802
X-425.431 Y-34.911 Z14.8
X-425.86 Y-35.107 Z14.798
X-426.294 Y-35.29 Z14.796
X-426.733 Y-35.461 Z14.794
X-427.177 Y-35.62 Z14.792
X-427.625 Y-35.765 Z14.79
X-428.078 Y-35.898 Z14.788
X-428.533 Y-36.018 Z14.786
X-428.992 Y-36.125 Z14.784
X-429.454 Y-36.218 Z14.783
X-429.919 Y-36.299 Z14.781
X-430.385 Y-36.366 Z14.779
X-430.853 Y-36.419 Z14.777
X-431.323 Y-36.46 Z14.775
X-431.793 Y-36.487 Z14.773
X-432.264 Y-36.5 Z14.771
X-442.736 Z14.728
X-443.207 Y-36.487 Z14.726
X-443.677 Y-36.46 Z14.724
X-444.147 Y-36.419 Z14.723
X-444.615 Y-36.366 Z14.721
X-445.081 Y-36.299 Z14.719
X-445.546 Y-36.218 Z14.717
X-446.008 Y-36.125 Z14.715
X-446.467 Y-36.018 Z14.713
X-446.922 Y-35.898 Z14.711
X-447.375 Y-35.765 Z14.709
X-447.823 Y-35.62 Z14.707
X-448.267 Y-35.461 Z14.705
X-448.706 Y-35.29 Z14.703
X-449.14 Y-35.107 Z14.701
X-449.569 Y-34.911 Z14.7
X-449.992 Y-34.703 Z14.698
X-450.408 Y-34.483 Z14.696
X-450.819 Y-34.251 Z14.694
X-451.222 Y-34.008 Z14.692
X-451.619 Y-33.753 Z14.69
X-452.008 Y-33.487 Z14.688
X-452.389 Y-33.21 Z14.686
X-452.762 Y-32.922 Z14.684
X-453.127 Y-32.624 Z14.682
X-453.483 Y-32.316 Z14.68
X-453.83 Y-31.997 Z14.678
X-454.168 Y-31.668 Z14.676
X-454.497 Y-31.33 Z14.675
X-454.816 Y-30.983 Z14.673
X-455.124 Y-30.627 Z14.671
X-455.422 Y-30.262 Z14.669
X-455.71 Y-29.889 Z14.667
X-455.987 Y-29.508 Z14.665
X-456.253 Y-29.119 Z14.663
X-456.508 Y-28.722 Z14.661
X-456.751 Y-28.319 Z14.659
X-456.983 Y-27.908 Z14.657
X-457.203 Y-27.492 Z14.655
X-457.411 Y-27.069 Z14.653
X-457.607 Y-26.64 Z14.651
X-457.79 Y-26.206 Z14.65
X-457.961 Y-25.767 Z14.648
X-458.12 Y-25.323 Z14.646
X-458.265 Y-24.875 Z14.644
X-458.398 Y-24.422 Z14.642
X-458.518 Y-23.967 Z14.64
X-458.625 Y-23.508 Z14.638
X-458.718 Y-23.046 Z14.636
X-458.799 Y-22.581 Z14.634
X-458.866 Y-22.115 Z14.632
X-458.919 Y-21.647 Z14.63
X-458.96 Y-21.177 Z14.628
X-458.987 Y-20.707 Z14.627
X-459 Y-20.236 Z14.625
Y-20 Z14.624
Y0 Z14.542
G3 X-462.5 Y3.5 Z14.52 I-3.5
G1 X-477.5 Z14.459
G3 X-481 Y0 Z14.436 J-3.5
G1 Y-20 Z14.355
G2 X-497.5 Y-36.5 Z14.249 I-16.5
G1 X-507.5 Z14.208
G2 X-524 Y-20 Z14.103 J16.5
G1 Y0 Z14.021
G3 X-527.5 Y3.5 Z13.999 I-3.5
G1 X-542.5 Z13.938
G3 X-546 Y0 Z13.915 J-3.5
G1 Y-20 Z13.834
G2 X-562.5 Y-36.5 Z13.728 I-16.5
G1 X-572.5 Z13.687
G2 X-589 Y-20 Z13.582 J16.5
G1 Y0 Z13.5
Y-20
G3 X-572.5 Y-36.5 I16.5
G1 X-562.5
G3 X-546 Y-20 J16.5
G1 Y0
G2 X-542.5 Y3.5 I3.5
G1 X-527.5
G2 X-524 Y0 J-3.5
G1 Y-20
G3 X-507.5 Y-36.5 I16.5
G1 X-497.5
G3 X-481 Y-20 J16.5
G1 Y0
G2 X-477.5 Y3.5 I3.5
G1 X-462.5
G2 X-459 Y0 J-3.5
G1 Y-20
Y-20.236
X-458.987 Y-20.707
X-458.96 Y-21.177
X-458.919 Y-21.647
X-458.866 Y-22.115
X-458.799 Y-22.581
X-458.718 Y-23.046
X-458.625 Y-23.508
X-458.518 Y-23.967
X-458.398 Y-24.422
X-458.265 Y-24.875
X-458.12 Y-25.323
X-457.961 Y-25.767
X-457.79 Y-26.206
X-457.607 Y-26.64
X-457.411 Y-27.069
X-457.203 Y-27.492
X-456.983 Y-27.908
X-456.751 Y-28.319
X-456.508 Y-28.722
X-456.253 Y-29.119
X-455.987 Y-29.508
X-455.71 Y-29.889
X-455.422 Y-30.262
X-455.124 Y-30.627
X-454.816 Y-30.983
X-454.497 Y-31.33
X-454.168 Y-31.668
X-453.83 Y-31.997
X-453.483 Y-32.316
X-453.127 Y-32.624
X-452.762 Y-32.922
X-452.389 Y-33.21
X-452.008 Y-33.487
X-451.619 Y-33.753
X-451.222 Y-34.008
X-450.819 Y-34.251
X-450.408 Y-34.483
X-449.992 Y-34.703
X-449.569 Y-34.911
X-449.14 Y-35.107
X-448.706 Y-35.29
X-448.267 Y-35.461
X-447.823 Y-35.62
X-447.375 Y-35.765
X-446.922 Y-35.898
X-446.467 Y-36.018
X-446.008 Y-36.125
X-445.546 Y-36.218
X-445.081 Y-36.299
X-444.615 Y-36.366
X-444.147 Y-36.419
X-443.677 Y-36.46
X-443.207 Y-36.487
X-442.736 Y-36.5
X-432.264
X-431.793 Y-36.487
X-431.323 Y-36.46
X-430.853 Y-36.419
X-430.385 Y-36.366
X-429.919 Y-36.299
X-429.454 Y-36.218
X-428.992 Y-36.125
X-428.533 Y-36.018
X-428.078 Y-35.898
X-427.625 Y-35.765
X-427.177 Y-35.62
X-426.733 Y-35.461
X-426.294 Y-35.29
X-425.86 Y-35.107
X-425.431 Y-34.911
X-425.008 Y-34.703
X-424.592 Y-34.483
X-424.181 Y-34.251
X-423.778 Y-34.008
X-423.381 Y-33.753
X-422.992 Y-33.487
X-422.611 Y-33.21
X-422.238 Y-32.922
X-421.873 Y-32.624
X-421.517 Y-32.316
X-421.17 Y-31.997
X-420.832 Y-31.668
X-420.503 Y-31.33
X-420.184 Y-30.983
X-419.876 Y-30.627
X-419.578 Y-30.262
X-419.29 Y-29.889
X-419.013 Y-29.508
X-418.747 Y-29.119
X-418.492 Y-28.722
X-418.249 Y-28.319
X-418.017 Y-27.908
X-417.797 Y-27.492
X-417.589 Y-27.069
X-417.393 Y-26.64
X-417.21 Y-26.206
X-417.039 Y-25.767
X-416.88 Y-25.323
X-416.735 Y-24.875
X-416.602 Y-24.422
X-416.482 Y-23.967
X-416.375 Y-23.508
X-416.282 Y-23.046
X-416.201 Y-22.581
X-416.134 Y-22.115
X-416.081 Y-21.647
X-416.04 Y-21.177
X-416.013 Y-20.707
X-416 Y-20.236
Y-20
Y0
G2 X-412.5 Y3.5 I3.5
G1 X-407.5
X-412.5 Z13.48
G3 X-416 Y0 Z13.457 J-3.5
G1 Y-20 Z13.376
Y-20.236 Z13.375
X-416.013 Y-20.707 Z13.373
X-416.04 Y-21.177 Z13.371
X-416.081 Y-21.647 Z13.369
X-416.134 Y-22.115 Z13.367
X-416.201 Y-22.581 Z13.365
X-416.282 Y-23.046 Z13.363
X-416.375 Y-23.508 Z13.361
X-416.482 Y-23.967 Z13.359
X-416.602 Y-24.422 Z13.357
X-416.735 Y-24.875 Z13.356
X-416.88 Y-25.323 Z13.354
X-417.039 Y-25.767 Z13.352
X-417.21 Y-26.206 Z13.35
X-417.393 Y-26.64 Z13.348
X-417.589 Y-27.069 Z13.346
X-417.797 Y-27.492 Z13.344
X-418.017 Y-27.908 Z13.342
X-418.249 Y-28.319 Z13.34
X-418.492 Y-28.722 Z13.338
X-418.747 Y-29.119 Z13.336
X-419.013 Y-29.508 Z13.334
X-419.29 Y-29.889 Z13.332
X-419.578 Y-30.262 Z13.331
X-419.876 Y-30.627 Z13.329
X-420.184 Y-30.983 Z13.327
X-420.503 Y-31.33 Z13.325
X-420.832 Y-31.668 Z13.323
X-421.17 Y-31.997 Z13.321
X-421.517 Y-32.316 Z13.319
X-421.873 Y-32.624 Z13.317
X-422.238 Y-32.922 Z13.315
X-422.611 Y-33.21 Z13.313
X-422.992 Y-33.487 Z13.311
X-423.381 Y-33.753 Z13.309
X-423.778 Y-34.008 Z13.307
X-424.181 Y-34.251 Z13.306
X-424.592 Y-34.483 Z13.304
X-425.008 Y-34.703 Z13.302
X-425.431 Y-34.911 Z13.3
X-425.86 Y-35.107 Z13.298
X-426.294 Y-35.29 Z13.296
X-426.733 Y-35.461 Z13.294
X-427.177 Y-35.62 Z13.292
X-427.625 Y-35.765 Z13.29
X-428.078 Y-35.898 Z13.288
X-428.533 Y-36.018 Z13.286
X-428.992 Y-36.125 Z13.284
X-429.454 Y-36.218 Z13.283
X-429.919 Y-36.299 Z13.281
X-430.385 Y-36.366 Z13.279
X-430.853 Y-36.419 Z13.277
X-431.323 Y-36.46 Z13.275
X-431.793 Y-36.487 Z13.273
X-432.264 Y-36.5 Z13.271
X-442.736 Z13.228
X-443.207 Y-36.487 Z13.226
X-443.677 Y-36.46 Z13.224
X-444.147 Y-36.419 Z13.223
X-444.615 Y-36.366 Z13.221
X-445.081 Y-36.299 Z13.219
X-445.546 Y-36.218 Z13.217
X-446.008 Y-36.125 Z13.215
X-446.467 Y-36.018 Z13.213
X-446.922 Y-35.898 Z13.211
X-447.375 Y-35.765 Z13.209
X-447.823 Y-35.62 Z13.207
X-448.267 Y-35.461 Z13.205
X-448.706 Y-35.29 Z13.203
X-449.14 Y-35.107 Z13.201
X-449.569 Y-34.911 Z13.2
X-449.992 Y-34.703 Z13.198
X-450.408 Y-34.483 Z13.196
X-450.819 Y-34.251 Z13.194
X-451.222 Y-34.008 Z13.192
X-451.619 Y-33.753 Z13.19
X-452.008 Y-33.487 Z13.188
X-452.389 Y-33.21 Z13.186
X-452.762 Y-32.922 Z13.184
X-453.127 Y-32.624 Z13.182
X-453.483 Y-32.316 Z13.18
X-453.83 Y-31.997 Z13.178
X-454.168 Y-31.668 Z13.176
X-454.497 Y-31.33 Z13.175
X-454.816 Y-30.983 Z13.173
X-455.124 Y-30.627 Z13.171
X-455.422 Y-30.262 Z13.169
X-455.71 Y-29.889 Z13.167
X-455.987 Y-29.508 Z13.165
X-456.253 Y-29.119 Z13.163
X-456.508 Y-28.722 Z13.161
X-456.751 Y-28.319 Z13.159
X-456.983 Y-27.908 Z13.157
X-457.203 Y-27.492 Z13.155
X-457.411 Y-27.069 Z13.153
X-457.607 Y-26.64 Z13.151
X-457.79 Y-26.206 Z13.15
X-457.961 Y-25.767 Z13.148
X-458.12 Y-25.323 Z13.146
X-458.265 Y-24.875 Z13.144
X-458.398 Y-24.422 Z13.142
X-458.518 Y-23.967 Z13.14
X-458.625 Y-23.508 Z13.138
X-458.718 Y-23.046 Z13.136
X-458.799 Y-22.581 Z13.134
X-458.866 Y-22.115 Z13.132
X-458.919 Y-21.647 Z13.13
X-458.96 Y-21.177 Z13.128
X-458.987 Y-20.707 Z13.127
X-459 Y-20.236 Z13.125
Y-20 Z13.124
Y0 Z13.042
G3 X-462.5 Y3.5 Z13.02 I-3.5
G1 X-477.5 Z12.959
G3 X-481 Y0 Z12.936 J-3.5
G1 Y-20 Z12.855
G2 X-497.5 Y-36.5 Z12.749 I-16.5
G1 X-507.5 Z12.708
G2 X-524 Y-20 Z12.603 J16.5
G1 Y0 Z12.521
G3 X-527.5 Y3.5 Z12.499 I-3.5
G1 X-542.5 Z12.438
G3 X-546 Y0 Z12.415 J-3.5
G1 Y-20 Z12.334
G2 X-562.5 Y-36.5 Z12.228 I-16.5
G1 X-572.5 Z12.187
G2 X-589 Y-20 Z12.082 J16.5
G1 Y0 Z12
Y-20
G3 X-572.5 Y-36.5 I16.5
G1 X-562.5
G3 X-546 Y-20 J16.5
G1 Y0
G2 X-542.5 Y3.5 I3.5
G1 X-527.5
G2 X-524 Y0 J-3.5
G1 Y-20
G3 X-507.5 Y-36.5 I16.5
G1 X-497.5
G3 X-481 Y-20 J16.5
G1 Y0
G2 X-477.5 Y3.5 I3.5
G1 X-462.5
G2 X-459 Y0 J-3.5
G1 Y-20
Y-20.236
X-458.987 Y-20.707
X-458.96 Y-21.177
X-458.919 Y-21.647
X-458.866 Y-22.115
X-458.799 Y-22.581
X-458.718 Y-23.046
X-458.625 Y-23.508
X-458.518 Y-23.967
X-458.398 Y-24.422
X-458.265 Y-24.875
X-458.12 Y-25.323
X-457.961 Y-25.767
X-457.79 Y-26.206
X-457.607 Y-26.64
X-457.411 Y-27.069
X-457.203 Y-27.492
X-456.983 Y-27.908
X-456.751 Y-28.319
X-456.508 Y-28.722
X-456.253 Y-29.119
X-455.987 Y-29.508
X-455.71 Y-29.889
X-455.422 Y-30.262
X-455.124 Y-30.627
X-454.816 Y-30.983
X-454.497 Y-31.33
X-454.168 Y-31.668
X-453.83 Y-31.997
X-453.483 Y-32.316
X-453.127 Y-32.624
X-452.762 Y-32.922
X-452.389 Y-33.21
X-452.008 Y-33.487
X-451.619 Y-33.753
X-451.222 Y-34.008
X-450.819 Y-34.251
X-450.408 Y-34.483
X-449.992 Y-34.703
X-449.569 Y-34.911
