%
(1001)
(z0 botom machine -5-5)
(T1  D=12.7 CR=0 - ZMIN=8 - flat end mill)
G90 G94
G17
G21

(Face1)
M9
T1 M6
S6000 M3
G54
M9
G0 X3.249 Y-110.222
Z58
Z48
G1 Z43.27 F850
G18 G3 X1.979 Z42 I-1.27
G1 X-5
X-145
G17 G2 Y-99.214 J5.504
G1 X-5
G3 Y-88.206 J5.504
G1 X-145
G2 Y-77.199 J5.504
G1 X-5
G3 Y-66.191 J5.504
G1 X-145
G2 Y-55.184 J5.504
G1 X-5
G3 Y-44.176 J5.504
G1 X-145
G2 Y-33.168 J5.504
G1 X-5
G3 Y-22.161 J5.504
G1 X-145
G2 Y-11.153 J5.504
G1 X-5
G18 G2 X-3.73 Z43.27 K1.27
G0 Z48
X3.249 Y-110.222
G1 Z42.27 F850
G3 X1.979 Z41 I-1.27
G1 X-5
X-145
G17 G2 Y-99.214 J5.504
G1 X-5
G3 Y-88.206 J5.504
G1 X-145
G2 Y-77.199 J5.504
G1 X-5
G3 Y-66.191 J5.504
G1 X-145
G2 Y-55.184 J5.504
G1 X-5
G3 Y-44.176 J5.504
G1 X-145
G2 Y-33.168 J5.504
G1 X-5
G3 Y-22.161 J5.504
G1 X-145
G2 Y-11.153 J5.504
G1 X-5
G18 G2 X-3.73 Z42.27 K1.27
G0 Z58
G17

(2D Adaptive1)
M9
G0 X-84.129 Y-58.039
Z58
Z48
Z46.77
G1 Z45.5 F850
G3 X-95.538 Y-61.961 Z44.838 I-5.705 J-1.961 F283.3
X-84.129 Y-58.039 Z44.176 I5.705 J1.961
X-95.538 Y-61.961 Z43.515 I-5.705 J-1.961
X-84.129 Y-58.039 Z42.853 I5.705 J1.961
X-95.538 Y-61.961 Z42.191 I-5.705 J-1.961
X-84.129 Y-58.039 Z41.529 I5.705 J1.961
X-95.538 Y-61.961 Z40.867 I-5.705 J-1.961
X-84.129 Y-58.039 Z40.206 I5.705 J1.961
X-95.538 Y-61.961 Z39.544 I-5.705 J-1.961
X-84.129 Y-58.039 Z38.882 I5.705 J1.961
X-95.538 Y-61.961 Z38.22 I-5.705 J-1.961
X-84.129 Y-58.039 Z37.558 I5.705 J1.961
X-95.538 Y-61.961 Z36.897 I-5.705 J-1.961
X-84.129 Y-58.039 Z36.235 I5.705 J1.961
X-95.538 Y-61.961 Z35.573 I-5.705 J-1.961
X-84.129 Y-58.039 Z34.911 I5.705 J1.961
X-95.538 Y-61.961 Z34.249 I-5.705 J-1.961
X-84.129 Y-58.039 Z33.587 I5.705 J1.961
X-95.538 Y-61.961 Z32.926 I-5.705 J-1.961
X-84.129 Y-58.039 Z32.264 I5.705 J1.961
X-95.538 Y-61.961 Z31.602 I-5.705 J-1.961
X-83.801 Y-60 Z31.01 I5.705 J1.961
X-95.866 I-6.033
X-84.077 Y-61.805 I6.032
X-83.801 Y-60 I-5.756 J1.805
G1 X-83.797 Y-59.664 F850
X-83.669 Y-58.328
X-83.646 Y-58.248
X-83.61 Y-58.102
X-83.584 Y-57.954
X-83.566 Y-57.801
X-83.556 Y-57.635
X-83.554 Y-57.457
X-83.563 Y-57.267
X-83.583 Y-57.065
X-83.616 Y-56.853
X-83.663 Y-56.632
X-83.725 Y-56.402
X-83.803 Y-56.165
X-83.897 Y-55.923
X-84.009 Y-55.676
X-84.139 Y-55.426
X-84.287 Y-55.175
X-84.454 Y-54.925
X-84.64 Y-54.676
X-84.845 Y-54.431
X-85.069 Y-54.192
X-85.311 Y-53.959
X-85.57 Y-53.735
X-85.848 Y-53.521
X-86.141 Y-53.318
X-86.451 Y-53.129
X-86.775 Y-52.954
X-87.114 Y-52.795
X-87.465 Y-52.652
X-87.827 Y-52.527
X-88.2 Y-52.421
X-88.581 Y-52.334
X-88.971 Y-52.267
X-89.366 Y-52.222
X-89.766 Y-52.197
X-90.17 Y-52.195
X-90.575 Y-52.214
X-90.981 Y-52.255
X-91.387 Y-52.319
X-91.789 Y-52.405
X-92.189 Y-52.513
X-92.583 Y-52.643
X-92.971 Y-52.795
X-93.351 Y-52.968
X-93.722 Y-53.162
X-94.083 Y-53.376
X-94.432 Y-53.61
X-94.769 Y-53.863
X-95.093 Y-54.134
X-95.401 Y-54.423
X-95.694 Y-54.729
X-95.97 Y-55.05
X-96.229 Y-55.386
X-96.469 Y-55.737
X-96.69 Y-56.1
X-96.892 Y-56.474
X-97.072 Y-56.86
X-97.232 Y-57.255
X-97.37 Y-57.658
X-97.487 Y-58.068
X-97.58 Y-58.484
X-97.652 Y-58.905
X-97.7 Y-59.329
X-97.725 Y-59.756
X-97.727 Y-60.183
X-97.706 Y-60.61
X-97.662 Y-61.035
X-97.595 Y-61.457
X-97.505 Y-61.875
X-97.392 Y-62.288
X-97.258 Y-62.694
X-97.101 Y-63.092
X-96.923 Y-63.481
X-96.724 Y-63.86
X-96.505 Y-64.228
X-96.267 Y-64.583
X-96.009 Y-64.925
X-95.733 Y-65.252
X-95.44 Y-65.564
X-95.131 Y-65.86
X-94.805 Y-66.138
X-94.465 Y-66.399
X-94.112 Y-66.64
X-93.746 Y-66.862
X-93.368 Y-67.064
X-92.98 Y-67.245
X-92.583 Y-67.405
X-92.178 Y-67.544
X-91.766 Y-67.66
X-91.348 Y-67.753
X-90.925 Y-67.824
X-90.5 Y-67.871
X-90.072 Y-67.896
X-89.644 Y-67.897
X-89.216 Y-67.875
X-88.79 Y-67.83
X-88.367 Y-67.762
X-87.949 Y-67.672
X-87.536 Y-67.558
X-87.13 Y-67.423
X-86.731 Y-67.265
X-86.342 Y-67.086
X-85.963 Y-66.887
X-85.596 Y-66.667
X-85.241 Y-66.427
X-84.899 Y-66.169
X-84.572 Y-65.892
X-84.26 Y-65.599
X-83.965 Y-65.288
X-83.687 Y-64.962
X-83.427 Y-64.622
X-83.186 Y-64.268
X-82.964 Y-63.901
X-82.763 Y-63.523
X-82.453 Y-62.857
X-82.12 Y-62.026
X-81.894 Y-61.359
X-81.728 Y-60.765
X-81.609 Y-60.226
X-81.524 Y-59.712
X-81.47 Y-59.223
X-81.443 Y-58.753
Y-58.296
X-81.466 Y-57.849
X-81.514 Y-57.411
X-81.584 Y-56.98
X-81.677 Y-56.556
X-81.792 Y-56.139
X-81.929 Y-55.729
X-82.089 Y-55.327
X-82.271 Y-54.933
X-82.475 Y-54.548
X-82.701 Y-54.171
X-82.949 Y-53.805
X-83.218 Y-53.451
X-83.508 Y-53.108
X-83.82 Y-52.779
X-84.151 Y-52.465
X-84.502 Y-52.167
X-84.872 Y-51.885
X-85.259 Y-51.622
X-85.664 Y-51.379
X-86.084 Y-51.156
X-86.519 Y-50.955
X-86.968 Y-50.776
X-87.429 Y-50.62
X-87.901 Y-50.489
X-88.383 Y-50.383
X-88.873 Y-50.303
X-89.369 Y-50.249
X-89.871 Y-50.222
X-90.376 Y-50.223
X-90.883 Y-50.25
X-91.391 Y-50.306
X-91.897 Y-50.389
X-92.399 Y-50.5
X-92.898 Y-50.639
X-93.389 Y-50.805
X-93.873 Y-50.998
X-94.346 Y-51.217
X-94.809 Y-51.463
X-95.259 Y-51.734
X-95.694 Y-52.03
X-96.113 Y-52.35
X-96.516 Y-52.692
X-96.9 Y-53.057
X-97.264 Y-53.442
X-97.607 Y-53.848
X-97.929 Y-54.272
X-98.227 Y-54.713
X-98.501 Y-55.17
X-98.75 Y-55.642
X-98.974 Y-56.127
X-99.171 Y-56.624
X-99.341 Y-57.132
X-99.483 Y-57.648
X-99.597 Y-58.172
X-99.683 Y-58.701
X-99.74 Y-59.234
X-99.768 Y-59.77
X-99.767 Y-60.307
X-99.737 Y-60.844
X-99.677 Y-61.378
X-99.589 Y-61.908
X-99.472 Y-62.433
X-99.327 Y-62.951
X-99.154 Y-63.461
X-98.953 Y-63.96
X-98.726 Y-64.448
X-98.473 Y-64.923
X-98.194 Y-65.384
X-97.89 Y-65.829
X-97.563 Y-66.256
X-97.213 Y-66.666
X-96.842 Y-67.056
X-96.449 Y-67.425
X-96.037 Y-67.773
X-95.607 Y-68.098
X-95.16 Y-68.399
X-94.698 Y-68.675
X-94.221 Y-68.926
X-93.731 Y-69.151
X-93.229 Y-69.349
X-92.718 Y-69.519
X-92.198 Y-69.661
X-91.671 Y-69.775
X-91.138 Y-69.86
X-90.602 Y-69.917
X-90.064 Y-69.944
X-89.524 Y-69.942
X-88.986 Y-69.91
X-88.45 Y-69.85
X-87.918 Y-69.761
X-87.392 Y-69.643
X-86.873 Y-69.496
X-86.363 Y-69.322
X-85.863 Y-69.12
X-85.374 Y-68.891
X-84.899 Y-68.637
X-84.438 Y-68.357
X-83.993 Y-68.052
X-83.566 Y-67.724
X-83.156 Y-67.373
X-82.739 Y-66.974
X-82.335 Y-66.543
X-81.922 Y-66.052
X-81.52 Y-65.517
X-81.141 Y-64.953
X-80.795 Y-64.37
X-80.483 Y-63.775
X-80.207 Y-63.171
X-79.969 Y-62.563
X-79.767 Y-61.955
X-79.602 Y-61.347
X-79.472 Y-60.742
X-79.377 Y-60.141
X-79.316 Y-59.546
X-79.287 Y-58.956
X-79.29 Y-58.373
X-79.325 Y-57.795
X-79.39 Y-57.225
X-79.486 Y-56.662
X-79.611 Y-56.107
X-79.766 Y-55.562
X-79.951 Y-55.026
X-80.163 Y-54.501
X-80.405 Y-53.988
X-80.674 Y-53.488
X-80.97 Y-53.003
X-81.293 Y-52.533
X-81.642 Y-52.079
X-82.017 Y-51.644
X-82.416 Y-51.228
X-82.839 Y-50.832
X-83.285 Y-50.458
X-83.753 Y-50.108
X-84.242 Y-49.781
X-84.749 Y-49.48
X-85.275 Y-49.206
X-85.818 Y-48.959
X-86.376 Y-48.742
X-86.948 Y-48.553
X-87.533 Y-48.396
X-88.128 Y-48.269
X-88.731 Y-48.175
X-89.342 Y-48.113
X-89.958 Y-48.084
X-90.578 Y-48.088
X-91.199 Y-48.127
X-91.82 Y-48.199
X-92.438 Y-48.305
X-93.051 Y-48.445
X-93.658 Y-48.619
X-94.257 Y-48.826
X-94.845 Y-49.065
X-95.421 Y-49.337
X-95.983 Y-49.641
X-96.529 Y-49.975
X-97.057 Y-50.34
X-97.566 Y-50.733
X-98.054 Y-51.154
X-98.518 Y-51.602
X-98.959 Y-52.075
X-99.374 Y-52.572
X-99.762 Y-53.091
X-100.122 Y-53.631
X-100.452 Y-54.191
X-100.752 Y-54.768
X-101.02 Y-55.362
X-101.256 Y-55.969
X-101.459 Y-56.59
X-101.628 Y-57.22
X-101.763 Y-57.859
X-101.863 Y-58.506
X-101.928 Y-59.157
X-101.957 Y-59.81
X-101.951 Y-60.465
X-101.91 Y-61.119
X-101.833 Y-61.77
X-101.72 Y-62.416
X-101.573 Y-63.055
X-101.392 Y-63.686
X-101.176 Y-64.306
X-100.928 Y-64.913
X-100.646 Y-65.507
X-100.333 Y-66.084
X-99.989 Y-66.644
X-99.615 Y-67.184
X-99.212 Y-67.703
X-98.781 Y-68.2
X-98.324 Y-68.672
X-97.843 Y-69.12
X-97.337 Y-69.54
X-96.81 Y-69.933
X-96.262 Y-70.296
X-95.694 Y-70.63
X-95.11 Y-70.932
X-94.51 Y-71.202
X-93.897 Y-71.439
X-93.271 Y-71.642
X-92.635 Y-71.812
X-91.991 Y-71.946
X-91.341 Y-72.046
X-90.686 Y-72.11
X-90.028 Y-72.138
X-89.37 Y-72.131
X-88.714 Y-72.088
X-88.06 Y-72.01
X-87.412 Y-71.896
X-86.771 Y-71.747
X-86.139 Y-71.564
X-85.518 Y-71.347
X-84.909 Y-71.096
X-84.31 Y-70.811
X-83.721 Y-70.49
X-83.139 Y-70.131
X-82.564 Y-69.731
X-82.002 Y-69.293
X-81.456 Y-68.818
X-80.93 Y-68.308
X-80.426 Y-67.764
X-79.949 Y-67.188
X-79.501 Y-66.583
X-79.085 Y-65.954
X-78.704 Y-65.303
X-78.359 Y-64.634
X-78.054 Y-63.952
X-77.787 Y-63.258
X-77.56 Y-62.556
X-77.373 Y-61.849
X-77.226 Y-61.138
X-77.118 Y-60.425
X-77.05 Y-59.712
X-77.02 Y-59.001
X-77.029 Y-58.293
X-77.076 Y-57.59
X-77.161 Y-56.892
X-77.283 Y-56.203
X-77.442 Y-55.523
X-77.638 Y-54.853
X-77.869 Y-54.195
X-78.135 Y-53.551
X-78.436 Y-52.923
X-78.771 Y-52.311
X-79.139 Y-51.717
X-79.539 Y-51.143
X-79.971 Y-50.591
X-80.433 Y-50.062
X-80.924 Y-49.557
X-81.443 Y-49.079
X-81.989 Y-48.628
X-82.561 Y-48.205
X-83.156 Y-47.814
X-83.774 Y-47.453
X-84.413 Y-47.126
X-85.071 Y-46.832
X-85.747 Y-46.574
X-86.438 Y-46.352
X-87.142 Y-46.167
X-87.859 Y-46.02
X-88.585 Y-45.912
X-89.318 Y-45.843
X-90.057 Y-45.813
X-90.799 Y-45.824
X-91.542 Y-45.875
X-92.283 Y-45.966
X-93.02 Y-46.098
X-93.752 Y-46.271
X-94.475 Y-46.483
X-95.187 Y-46.735
X-95.886 Y-47.026
X-96.571 Y-47.355
X-97.238 Y-47.721
X-97.885 Y-48.124
X-98.512 Y-48.563
X-99.114 Y-49.036
X-99.691 Y-49.541
X-100.241 Y-50.078
X-100.762 Y-50.645
X-101.252 Y-51.24
X-101.709 Y-51.862
X-102.133 Y-52.508
X-102.521 Y-53.177
X-102.873 Y-53.867
X-103.188 Y-54.575
X-103.463 Y-55.3
X-103.7 Y-56.04
X-103.896 Y-56.792
X-104.051 Y-57.554
X-104.164 Y-58.324
X-104.236 Y-59.099
X-104.266 Y-59.878
X-104.253 Y-60.657
X-104.198 Y-61.435
X-104.101 Y-62.209
X-103.962 Y-62.977
X-103.782 Y-63.737
X-103.561 Y-64.486
X-103.299 Y-65.222
X-102.998 Y-65.943
X-102.658 Y-66.647
X-102.28 Y-67.331
X-101.866 Y-67.994
X-101.416 Y-68.634
X-100.932 Y-69.249
X-100.415 Y-69.836
X-99.868 Y-70.395
X-99.29 Y-70.923
X-98.685 Y-71.42
X-98.054 Y-71.883
X-97.399 Y-72.311
X-96.721 Y-72.703
X-96.023 Y-73.057
X-95.306 Y-73.374
X-94.574 Y-73.651
X-93.828 Y-73.888
X-93.069 Y-74.084
X-92.302 Y-74.239
X-91.527 Y-74.352
X-90.746 Y-74.422
X-89.964 Y-74.451
X-89.18 Y-74.437
X-88.399 Y-74.38
X-87.622 Y-74.281
X-86.85 Y-74.141
X-86.086 Y-73.958
X-85.328 Y-73.732
X-84.578 Y-73.464
X-83.837 Y-73.153
X-83.106 Y-72.799
X-82.389 Y-72.401
X-81.687 Y-71.961
X-81.004 Y-71.479
X-80.342 Y-70.955
X-79.704 Y-70.393
X-79.093 Y-69.792
X-78.514 Y-69.157
X-77.967 Y-68.488
X-77.457 Y-67.79
X-76.985 Y-67.065
X-76.554 Y-66.316
X-76.165 Y-65.546
X-75.819 Y-64.759
X-75.517 Y-63.956
X-75.259 Y-63.141
X-75.048 Y-62.316
X-74.881 Y-61.485
X-74.761 Y-60.648
X-74.686 Y-59.809
X-74.657 Y-58.97
X-74.674 Y-58.133
X-74.736 Y-57.301
X-74.842 Y-56.474
X-74.993 Y-55.657
X-75.188 Y-54.849
X-75.426 Y-54.055
X-75.706 Y-53.274
X-76.028 Y-52.511
X-76.392 Y-51.765
X-76.795 Y-51.041
X-77.237 Y-50.338
X-77.717 Y-49.66
X-78.235 Y-49.008
X-78.787 Y-48.384
X-79.374 Y-47.789
X-79.993 Y-47.226
X-80.644 Y-46.696
X-81.324 Y-46.201
X-82.031 Y-45.743
X-82.765 Y-45.322
X-83.522 Y-44.941
X-84.301 Y-44.6
X-85.1 Y-44.301
X-85.916 Y-44.045
X-86.747 Y-43.833
X-87.592 Y-43.666
X-88.446 Y-43.545
X-89.309 Y-43.469
X-90.176 Y-43.441
X-91.047 Y-43.46
X-91.917 Y-43.526
X-92.785 Y-43.639
X-93.648 Y-43.8
X-94.503 Y-44.008
X-95.348 Y-44.262
X-96.179 Y-44.563
X-96.995 Y-44.908
X-97.792 Y-45.299
X-98.569 Y-45.733
X-99.322 Y-46.209
X-100.05 Y-46.726
X-100.75 Y-47.283
X-101.42 Y-47.878
X-102.057 Y-48.51
X-102.66 Y-49.176
X-103.227 Y-49.874
X-103.756 Y-50.603
X-104.245 Y-51.361
X-104.693 Y-52.145
X-105.098 Y-52.953
X-105.459 Y-53.782
X-105.775 Y-54.63
X-106.044 Y-55.495
X-106.267 Y-56.374
X-106.441 Y-57.265
X-106.568 Y-58.164
X-106.645 Y-59.069
X-106.673 Y-59.977
X-106.652 Y-60.887
X-106.582 Y-61.794
X-106.462 Y-62.696
X-106.294 Y-63.591
X-106.077 Y-64.476
X-105.813 Y-65.348
X-105.501 Y-66.204
X-105.144 Y-67.043
X-104.742 Y-67.861
X-104.295 Y-68.657
X-103.806 Y-69.427
X-103.276 Y-70.17
X-102.707 Y-70.883
X-102.099 Y-71.564
X-101.456 Y-72.212
X-100.778 Y-72.824
X-100.068 Y-73.398
X-99.327 Y-73.933
X-98.559 Y-74.427
X-97.765 Y-74.879
X-96.948 Y-75.287
X-96.109 Y-75.65
X-95.252 Y-75.967
X-94.38 Y-76.237
X-93.493 Y-76.46
X-92.596 Y-76.634
X-91.691 Y-76.76
X-90.78 Y-76.836
X-89.866 Y-76.863
X-88.951 Y-76.84
X-88.036 Y-76.767
X-87.125 Y-76.645
X-86.218 Y-76.473
X-85.317 Y-76.25
X-84.425 Y-75.978
X-83.545 Y-75.656
X-82.677 Y-75.285
X-81.826 Y-74.864
X-80.993 Y-74.395
X-80.181 Y-73.878
X-79.394 Y-73.314
X-78.633 Y-72.705
X-77.904 Y-72.052
X-77.208 Y-71.358
X-76.549 Y-70.625
X-75.929 Y-69.855
X-75.351 Y-69.053
X-74.817 Y-68.22
X-74.33 Y-67.359
X-73.89 Y-66.474
X-73.5 Y-65.568
X-73.159 Y-64.644
X-72.87 Y-63.705
X-72.633 Y-62.753
X-72.448 Y-61.793
X-72.316 Y-60.825
X-72.236 Y-59.855
X-72.209 Y-58.883
X-72.235 Y-57.913
X-72.314 Y-56.948
X-72.444 Y-55.99
X-72.626 Y-55.041
X-72.859 Y-54.105
X-73.142 Y-53.183
X-73.474 Y-52.278
X-73.855 Y-51.393
X-74.284 Y-50.529
X-74.758 Y-49.69
X-75.278 Y-48.877
X-75.842 Y-48.092
X-76.448 Y-47.339
X-77.095 Y-46.618
X-77.782 Y-45.933
X-78.505 Y-45.285
X-79.264 Y-44.675
X-80.057 Y-44.107
X-80.881 Y-43.581
X-81.734 Y-43.099
X-82.614 Y-42.664
X-83.519 Y-42.276
X-84.445 Y-41.936
X-85.391 Y-41.647
X-86.354 Y-41.409
X-87.331 Y-41.223
X-88.319 Y-41.089
X-89.315 Y-41.009
X-90.316 Y-40.984
X-91.32 Y-41.012
X-92.323 Y-41.095
X-93.322 Y-41.233
X-94.314 Y-41.425
X-95.297 Y-41.671
X-96.267 Y-41.971
X-97.222 Y-42.324
X-98.157 Y-42.728
X-99.071 Y-43.184
X-99.961 Y-43.689
X-100.823 Y-44.243
X-101.655 Y-44.843
X-102.455 Y-45.489
X-103.22 Y-46.178
X-103.947 Y-46.908
X-104.634 Y-47.678
X-105.279 Y-48.485
X-105.881 Y-49.326
X-106.436 Y-50.2
X-106.944 Y-51.104
X-107.402 Y-52.034
X-107.81 Y-52.989
X-108.166 Y-53.966
X-108.468 Y-54.961
X-108.716 Y-55.971
X-108.91 Y-56.994
X-109.047 Y-58.027
X-109.129 Y-59.066
X-109.154 Y-60.109
X-109.122 Y-61.152
X-109.034 Y-62.192
X-108.889 Y-63.227
X-108.689 Y-64.252
X-108.433 Y-65.265
X-108.123 Y-66.264
X-107.759 Y-67.244
X-107.342 Y-68.204
X-106.874 Y-69.139
X-106.355 Y-70.048
X-105.788 Y-70.928
X-105.174 Y-71.776
X-104.515 Y-72.59
X-103.812 Y-73.367
X-103.069 Y-74.104
X-102.286 Y-74.801
X-101.467 Y-75.454
X-100.613 Y-76.061
X-99.728 Y-76.622
X-98.813 Y-77.134
X-97.872 Y-77.595
X-96.907 Y-78.005
X-95.922 Y-78.362
X-94.918 Y-78.666
X-93.899 Y-78.914
X-92.868 Y-79.107
X-91.828 Y-79.243
X-90.78 Y-79.324
X-89.728 Y-79.347
X-88.675 Y-79.313
X-87.622 Y-79.222
X-86.572 Y-79.074
X-85.528 Y-78.868
X-84.493 Y-78.605
X-83.468 Y-78.284
X-82.458 Y-77.907
X-81.465 Y-77.474
X-80.492 Y-76.984
X-79.543 Y-76.441
X-78.619 Y-75.843
X-77.726 Y-75.194
X-76.867 Y-74.495
X-76.043 Y-73.748
X-75.26 Y-72.955
X-74.519 Y-72.119
X-73.823 Y-71.243
X-73.175 Y-70.33
X-72.578 Y-69.383
X-72.033 Y-68.404
X-71.541 Y-67.399
X-71.106 Y-66.369
X-70.727 Y-65.317
X-70.406 Y-64.249
X-70.144 Y-63.165
X-69.942 Y-62.071
X-69.799 Y-60.969
X-69.716 Y-59.863
X-69.694 Y-58.755
X-69.731 Y-57.649
X-69.828 Y-56.548
X-69.985 Y-55.455
X-70.2 Y-54.373
X-70.474 Y-53.305
X-70.805 Y-52.253
X-71.192 Y-51.221
X-71.635 Y-50.212
X-72.131 Y-49.228
X-72.681 Y-48.272
X-73.282 Y-47.347
X-73.933 Y-46.455
X-74.632 Y-45.598
X-75.377 Y-44.78
X-76.167 Y-44.002
X-76.999 Y-43.267
X-77.87 Y-42.578
X-78.78 Y-41.935
X-79.724 Y-41.342
X-80.702 Y-40.799
X-81.709 Y-40.31
X-82.743 Y-39.874
X-83.802 Y-39.495
X-84.882 Y-39.173
X-85.98 Y-38.91
X-87.093 Y-38.705
X-88.218 Y-38.562
X-89.351 Y-38.479
X-90.49 Y-38.458
X-91.631 Y-38.498
X-92.77 Y-38.601
X-93.904 Y-38.765
X-95.03 Y-38.991
X-96.143 Y-39.279
X-97.242 Y-39.626
X-98.322 Y-40.034
X-99.38 Y-40.501
X-100.413 Y-41.024
X-101.418 Y-41.604
X-102.391 Y-42.239
X-103.33 Y-42.926
X-104.231 Y-43.665
X-105.092 Y-44.452
X-105.911 Y-45.285
X-106.683 Y-46.163
X-107.408 Y-47.082
X-108.082 Y-48.04
X-108.705 Y-49.034
X-109.273 Y-50.062
X-109.784 Y-51.12
X-110.239 Y-52.204
X-110.634 Y-53.313
X-110.968 Y-54.442
X-111.241 Y-55.588
X-111.452 Y-56.748
X-111.599 Y-57.919
X-111.683 Y-59.096
X-111.703 Y-60.277
X-111.659 Y-61.457
X-111.551 Y-62.634
X-111.379 Y-63.804
X-111.144 Y-64.963
X-110.847 Y-66.108
X-110.487 Y-67.236
X-110.067 Y-68.343
X-109.588 Y-69.426
X-109.05 Y-70.481
X-108.456 Y-71.506
X-107.807 Y-72.498
X-107.105 Y-73.453
X-106.352 Y-74.369
X-105.551 Y-75.242
X-104.703 Y-76.071
X-103.812 Y-76.854
X-102.879 Y-77.586
X-101.908 Y-78.267
X-100.901 Y-78.895
X-99.862 Y-79.467
X-98.793 Y-79.982
X-97.697 Y-80.438
X-96.579 Y-80.835
X-95.439 Y-81.17
X-94.283 Y-81.443
X-93.113 Y-81.654
X-91.932 Y-81.801
X-90.743 Y-81.883
X-89.549 Y-81.901
X-88.353 Y-81.855
X-87.159 Y-81.743
X-85.969 Y-81.566
X-84.786 Y-81.324
X-83.615 Y-81.017
X-82.457 Y-80.647
X-81.318 Y-80.212
X-80.199 Y-79.714
X-79.104 Y-79.154
X-78.038 Y-78.533
X-77.004 Y-77.854
X-76.004 Y-77.116
X-75.043 Y-76.324
X-74.125 Y-75.478
X-73.251 Y-74.582
X-72.426 Y-73.638
X-71.653 Y-72.65
X-70.933 Y-71.621
X-70.271 Y-70.553
X-69.666 Y-69.451
X-69.123 Y-68.318
X-68.642 Y-67.158
X-68.225 Y-65.974
X-67.873 Y-64.771
X-67.587 Y-63.551
X-67.368 Y-62.319
X-67.216 Y-61.078
X-67.132 Y-59.832
X-67.115 Y-58.584
X-67.166 Y-57.339
X-67.284 Y-56.099
X-67.469 Y-54.868
X-67.72 Y-53.65
X-68.037 Y-52.447
X-68.419 Y-51.264
X-68.864 Y-50.103
X-69.371 Y-48.968
X-69.94 Y-47.862
X-70.567 Y-46.788
X-71.253 Y-45.749
X-71.994 Y-44.748
X-72.789 Y-43.788
X-73.636 Y-42.871
X-74.532 Y-42.001
X-75.475 Y-41.179
X-76.463 Y-40.409
X-77.493 Y-39.692
X-78.561 Y-39.031
X-79.666 Y-38.428
X-80.803 Y-37.885
X-81.971 Y-37.404
X-83.165 Y-36.985
X-84.382 Y-36.632
X-85.619 Y-36.344
X-86.872 Y-36.123
X-88.138 Y-35.97
X-89.412 Y-35.886
X-90.691 Y-35.872
X-91.972 Y-35.926
X-93.25 Y-36.05
X-94.522 Y-36.244
X-95.784 Y-36.506
X-97.031 Y-36.838
X-98.261 Y-37.237
X-99.47 Y-37.702
X-100.653 Y-38.234
X-101.807 Y-38.829
X-102.929 Y-39.488
X-104.014 Y-40.207
X-105.061 Y-40.984
X-106.065 Y-41.819
X-107.024 Y-42.707
X-107.934 Y-43.648
X-108.793 Y-44.637
X-109.597 Y-45.672
X-110.345 Y-46.751
X-111.034 Y-47.869
X-111.662 Y-49.024
X-112.227 Y-50.212
X-112.727 Y-51.43
X-113.16 Y-52.675
X-113.526 Y-53.941
X-113.822 Y-55.227
X-114.049 Y-56.527
X-114.205 Y-57.838
X-114.289 Y-59.157
X-114.302 Y-60.478
X-114.244 Y-61.799
X-114.114 Y-63.116
X-113.912 Y-64.424
X-113.64 Y-65.719
X-113.298 Y-66.998
X-112.887 Y-68.258
X-112.408 Y-69.493
X-111.863 Y-70.701
X-111.253 Y-71.878
X-110.58 Y-73.02
X-109.846 Y-74.124
X-109.053 Y-75.188
X-108.204 Y-76.206
X-107.3 Y-77.178
X-106.345 Y-78.099
X-105.341 Y-78.967
X-104.292 Y-79.779
X-103.2 Y-80.534
X-102.069 Y-81.228
X-100.901 Y-81.86
X-99.701 Y-82.428
X-98.471 Y-82.93
X-97.215 Y-83.365
X-95.937 Y-83.732
X-94.641 Y-84.029
X-93.328 Y-84.255
X-92.004 Y-84.41
X-90.671 Y-84.493
X-89.334 Y-84.504
X-87.995 Y-84.442
X-86.659 Y-84.308
X-85.333 Y-84.101
X-84.02 Y-83.824
X-82.724 Y-83.475
X-81.448 Y-83.058
X-80.197 Y-82.573
X-78.973 Y-82.023
X-77.78 Y-81.407
X-76.621 Y-80.73
X-75.5 Y-79.992
X-74.419 Y-79.197
X-73.381 Y-78.345
X-72.39 Y-77.441
X-71.447 Y-76.486
X-70.555 Y-75.483
X-69.717 Y-74.435
X-68.934 Y-73.344
X-68.209 Y-72.215
X-67.544 Y-71.049
X-66.94 Y-69.85
X-66.399 Y-68.622
X-65.923 Y-67.367
X-65.514 Y-66.089
X-65.172 Y-64.791
X-64.898 Y-63.477
X-64.693 Y-62.151
X-64.559 Y-60.815
X-64.494 Y-59.475
X-64.5 Y-58.133
X-64.577 Y-56.793
X-64.723 Y-55.458
X-64.939 Y-54.134
X-65.224 Y-52.822
X-65.578 Y-51.528
X-65.999 Y-50.253
X-66.486 Y-49.003
X-67.038 Y-47.779
X-67.654 Y-46.587
X-68.331 Y-45.428
X-69.068 Y-44.306
X-69.863 Y-43.225
X-70.713 Y-42.186
X-71.616 Y-41.193
X-72.57 Y-40.249
X-73.572 Y-39.356
X-74.619 Y-38.516
X-75.708 Y-37.732
X-76.837 Y-37.005
X-78.001 Y-36.338
X-79.199 Y-35.733
X-80.426 Y-35.19
X-81.681 Y-34.712
X-82.958 Y-34.3
X-84.255 Y-33.954
X-85.568 Y-33.676
X-86.894 Y-33.467
X-88.228 Y-33.325
X-89.568 Y-33.253
X-90.911 Y-33.249
X-92.251 Y-33.313
X-93.587 Y-33.445
X-94.914 Y-33.645
X-96.229 Y-33.912
X-97.529 Y-34.246
X-98.811 Y-34.644
X-100.071 Y-35.107
X-101.306 Y-35.632
X-102.513 Y-36.22
X-103.688 Y-36.868
X-104.829 Y-37.575
X-105.932 Y-38.339
X-106.995 Y-39.158
X-108.016 Y-40.03
X-108.992 Y-40.951
X-109.921 Y-41.92
X-110.8 Y-42.934
X-111.628 Y-43.99
X-112.402 Y-45.087
X-113.121 Y-46.22
X-113.783 Y-47.388
X-114.385 Y-48.587
X-114.926 Y-49.816
X-115.404 Y-51.07
X-115.819 Y-52.346
X-116.169 Y-53.642
X-116.455 Y-54.953
X-116.675 Y-56.277
X-116.83 Y-57.61
X-116.919 Y-58.95
X-116.941 Y-60.291
X-116.897 Y-61.633
X-116.787 Y-62.971
X-116.611 Y-64.301
X-116.368 Y-65.621
X-116.059 Y-66.927
X-115.685 Y-68.216
X-115.248 Y-69.485
X-114.748 Y-70.731
X-114.187 Y-71.95
X-113.568 Y-73.141
X-112.89 Y-74.299
X-112.156 Y-75.423
X-111.368 Y-76.509
X-110.527 Y-77.555
X-109.635 Y-78.558
X-108.694 Y-79.515
X-107.706 Y-80.424
X-106.674 Y-81.282
X-105.601 Y-82.088
X-104.49 Y-82.841
X-103.343 Y-83.537
X-102.163 Y-84.177
X-100.953 Y-84.758
X-99.716 Y-85.279
X-98.455 Y-85.738
X-97.172 Y-86.134
X-95.872 Y-86.466
X-94.556 Y-86.732
X-93.229 Y-86.933
X-91.894 Y-87.068
X-90.554 Y-87.137
X-89.211 Y-87.141
X-87.871 Y-87.079
X-86.535 Y-86.953
X-85.206 Y-86.762
X-83.888 Y-86.506
X-82.585 Y-86.186
X-81.299 Y-85.803
X-80.033 Y-85.356
X-78.79 Y-84.849
X-77.573 Y-84.283
X-76.385 Y-83.659
X-75.228 Y-82.979
X-74.104 Y-82.245
X-73.017 Y-81.459
X-71.967 Y-80.622
X-70.959 Y-79.737
X-69.994 Y-78.803
X-69.075 Y-77.825
X-68.204 Y-76.804
X-67.383 Y-75.743
X-66.612 Y-74.644
X-65.894 Y-73.51
X-65.229 Y-72.344
X-64.62 Y-71.148
X-64.068 Y-69.924
X-63.574 Y-68.677
X-63.14 Y-67.407
X-62.767 Y-66.117
X-62.457 Y-64.812
X-62.209 Y-63.492
X-62.024 Y-62.163
X-61.903 Y-60.826
X-61.844 Y-59.486
X-61.849 Y-58.143
X-61.917 Y-56.803
X-62.048 Y-55.467
X-62.242 Y-54.139
X-62.5 Y-52.822
X-62.82 Y-51.519
X-63.203 Y-50.232
X-63.647 Y-48.966
X-64.151 Y-47.722
X-64.712 Y-46.503
X-65.331 Y-45.312
X-66.005 Y-44.151
X-66.733 Y-43.023
X-67.513 Y-41.931
X-68.344 Y-40.877
X-69.225 Y-39.864
X-70.153 Y-38.895
X-71.126 Y-37.971
X-72.142 Y-37.094
X-73.198 Y-36.266
X-74.292 Y-35.488
X-75.421 Y-34.762
X-76.583 Y-34.09
X-77.775 Y-33.473
X-78.995 Y-32.913
X-80.239 Y-32.41
X-81.506 Y-31.968
X-82.793 Y-31.586
X-84.096 Y-31.266
X-85.413 Y-31.007
X-86.741 Y-30.81
X-88.076 Y-30.674
X-89.416 Y-30.601
X-90.759 Y-30.589
X-92.1 Y-30.639
X-93.437 Y-30.75
X-94.768 Y-30.924
X-96.09 Y-31.159
X-97.399 Y-31.455
X-98.692 Y-31.812
X-99.968 Y-32.228
X-101.224 Y-32.703
X-102.456 Y-33.234
X-103.663 Y-33.821
X-104.842 Y-34.463
X-105.99 Y-35.158
X-107.105 Y-35.905
X-108.185 Y-36.702
X-109.227 Y-37.549
X-110.228 Y-38.442
X-111.188 Y-39.381
X-112.103 Y-40.362
X-112.974 Y-41.384
X-113.797 Y-42.444
X-114.572 Y-43.54
X-115.296 Y-44.669
X-115.969 Y-45.831
X-116.589 Y-47.021
X-117.153 Y-48.239
X-117.661 Y-49.482
X-118.11 Y-50.746
X-118.502 Y-52.03
X-118.835 Y-53.33
X-119.109 Y-54.644
X-119.323 Y-55.969
X-119.478 Y-57.302
X-119.573 Y-58.641
X-119.608 Y-59.983
X-119.584 Y-61.325
X-119.498 Y-62.664
X-119.351 Y-63.998
X-119.143 Y-65.324
X-118.874 Y-66.639
X-118.546 Y-67.94
X-118.16 Y-69.226
X-117.716 Y-70.492
X-117.216 Y-71.738
X-116.661 Y-72.96
X-116.052 Y-74.156
X-115.39 Y-75.323
X-114.677 Y-76.46
X-113.912 Y-77.564
X-113.098 Y-78.631
X-112.236 Y-79.659
X-111.328 Y-80.648
X-110.377 Y-81.594
X-109.383 Y-82.497
X-108.351 Y-83.354
X-107.28 Y-84.164
X-106.175 Y-84.926
X-105.037 Y-85.637
X-103.869 Y-86.298
X-102.672 Y-86.904
X-101.448 Y-87.456
X-100.201 Y-87.951
X-98.932 Y-88.39
X-97.645 Y-88.77
X-96.342 Y-89.092
X-95.026 Y-89.356
X-93.7 Y-89.56
X-92.365 Y-89.705
X-91.026 Y-89.791
X-89.684 Y-89.818
X-88.342 Y-89.784
X-87.003 Y-89.691
X-85.67 Y-89.537
X-84.345 Y-89.323
X-83.031 Y-89.05
X-81.73 Y-88.72
X-80.445 Y-88.332
X-79.179 Y-87.888
X-77.933 Y-87.389
X-76.71 Y-86.836
X-75.512 Y-86.23
X-74.342 Y-85.573
X-73.202 Y-84.865
X-72.094 Y-84.108
X-71.02 Y-83.302
X-69.983 Y-82.451
X-68.983 Y-81.554
X-68.024 Y-80.616
X-67.106 Y-79.637
X-66.231 Y-78.619
X-65.401 Y-77.564
X-64.617 Y-76.475
X-63.879 Y-75.354
X-63.191 Y-74.201
X-62.554 Y-73.02
X-61.969 Y-71.812
X-61.437 Y-70.58
X-60.959 Y-69.326
X-60.536 Y-68.052
X-60.169 Y-66.761
X-59.858 Y-65.455
X-59.603 Y-64.138
X-59.405 Y-62.81
X-59.265 Y-61.475
X-59.182 Y-60.136
X-59.157 Y-58.794
X-59.191 Y-57.452
X-59.284 Y-56.113
X-59.435 Y-54.78
X-59.644 Y-53.454
X-59.91 Y-52.138
X-60.234 Y-50.836
X-60.613 Y-49.548
X-61.047 Y-48.278
X-61.536 Y-47.028
X-62.078 Y-45.8
X-62.672 Y-44.597
X-63.319 Y-43.421
X-64.016 Y-42.274
X-64.763 Y-41.159
X-65.557 Y-40.077
X-66.398 Y-39.031
X-67.283 Y-38.022
X-68.211 Y-37.052
X-69.18 Y-36.123
X-70.187 Y-35.237
X-71.232 Y-34.394
X-72.312 Y-33.597
X-73.425 Y-32.847
X-74.569 Y-32.146
X-75.743 Y-31.496
X-76.945 Y-30.897
X-78.17 Y-30.35
X-79.419 Y-29.857
X-80.687 Y-29.418
X-81.973 Y-29.034
X-83.274 Y-28.705
X-84.588 Y-28.431
X-85.913 Y-28.214
X-87.245 Y-28.053
X-88.583 Y-27.948
X-89.924 Y-27.902
X-91.267 Y-27.913
X-92.607 Y-27.98
X-93.943 Y-28.105
X-95.273 Y-28.286
X-96.594 Y-28.524
X-97.904 Y-28.816
X-99.201 Y-29.164
X-100.481 Y-29.565
X-101.744 Y-30.02
X-102.987 Y-30.527
X-104.207 Y-31.086
X-105.402 Y-31.697
X-106.57 Y-32.358
X-107.709 Y-33.068
X-108.817 Y-33.825
X-109.893 Y-34.628
X-110.934 Y-35.475
X-111.938 Y-36.365
X-112.905 Y-37.296
X-113.833 Y-38.266
X-114.719 Y-39.274
X-115.563 Y-40.317
X-116.363 Y-41.395
X-117.116 Y-42.506
X-117.823 Y-43.647
X-118.481 Y-44.817
X-119.089 Y-46.014
X-119.647 Y-47.234
X-120.153 Y-48.477
X-120.607 Y-49.74
X-121.009 Y-51.021
X-121.358 Y-52.317
X-121.653 Y-53.626
X-121.893 Y-54.947
X-122.079 Y-56.276
X-122.209 Y-57.612
X-122.283 Y-58.952
X-122.301 Y-60.294
X-122.264 Y-61.636
X-122.17 Y-62.974
X-122.022 Y-64.308
X-121.818 Y-65.635
X-121.559 Y-66.952
X-121.247 Y-68.257
X-120.881 Y-69.549
X-120.462 Y-70.824
X-119.99 Y-72.08
X-119.467 Y-73.316
X-118.893 Y-74.529
X-118.269 Y-75.718
X-117.597 Y-76.879
X-116.877 Y-78.012
X-116.11 Y-79.114
X-115.299 Y-80.183
X-114.444 Y-81.218
X-113.548 Y-82.217
X-112.611 Y-83.178
X-111.635 Y-84.1
X-110.622 Y-84.98
X-109.573 Y-85.817
X-108.491 Y-86.611
X-107.376 Y-87.358
X-106.232 Y-88.06
X-105.06 Y-88.713
X-103.861 Y-89.318
X-102.639 Y-89.872
X-101.395 Y-90.376
X-100.131 Y-90.828
X-98.85 Y-91.228
X-97.554 Y-91.575
X-96.244 Y-91.868
X-94.923 Y-92.106
X-93.593 Y-92.29
X-92.258 Y-92.418
X-90.917 Y-92.492
X-89.575 Y-92.511
X-88.234 Y-92.475
X-86.895 Y-92.384
X-85.56 Y-92.238
X-84.233 Y-92.039
X-82.915 Y-91.785
X-81.609 Y-91.478
X-80.316 Y-91.119
X-79.038 Y-90.706
X-77.779 Y-90.242
X-76.54 Y-89.727
X-75.322 Y-89.163
X-74.128 Y-88.55
X-72.959 Y-87.89
X-71.818 Y-87.183
X-70.706 Y-86.431
X-69.626 Y-85.635
X-68.577 Y-84.797
X-67.563 Y-83.918
X-66.585 Y-82.999
X-65.645 Y-82.041
X-64.744 Y-81.047
X-63.883 Y-80.017
X-63.064 Y-78.953
X-62.288 Y-77.859
X-61.555 Y-76.734
X-60.869 Y-75.581
X-60.228 Y-74.401
X-59.635 Y-73.197
X-59.09 Y-71.971
X-58.594 Y-70.724
X-58.148 Y-69.458
X-57.752 Y-68.175
X-57.409 Y-66.878
X-57.119 Y-65.567
X-56.88 Y-64.246
X-56.695 Y-62.917
X-56.562 Y-61.582
X-56.483 Y-60.242
X-56.457 Y-58.9
X-56.484 Y-57.558
X-56.565 Y-56.218
X-56.699 Y-54.883
X-56.886 Y-53.554
X-57.126 Y-52.233
X-57.419 Y-50.923
X-57.764 Y-49.627
X-58.161 Y-48.344
X-58.609 Y-47.079
X-59.107 Y-45.833
X-59.654 Y-44.607
X-60.249 Y-43.404
X-60.892 Y-42.226
X-61.581 Y-41.074
X-62.315 Y-39.951
X-63.093 Y-38.857
X-63.914 Y-37.795
X-64.777 Y-36.767
X-65.68 Y-35.775
X-66.623 Y-34.819
X-67.603 Y-33.902
X-68.618 Y-33.024
X-69.667 Y-32.187
X-70.749 Y-31.392
X-71.861 Y-30.641
X-73.002 Y-29.934
X-74.17 Y-29.273
X-75.363 Y-28.659
X-76.58 Y-28.092
X-77.818 Y-27.574
X-79.076 Y-27.105
X-80.351 Y-26.688
X-81.642 Y-26.321
X-82.947 Y-26.005
X-84.262 Y-25.74
X-85.588 Y-25.528
X-86.92 Y-25.367
X-88.258 Y-25.259
X-89.599 Y-25.203
X-90.941 Y-25.199
X-92.282 Y-25.248
X-93.621 Y-25.349
X-94.954 Y-25.502
X-96.28 Y-25.707
X-97.598 Y-25.965
X-98.904 Y-26.274
X-100.197 Y-26.633
X-101.475 Y-27.042
X-102.737 Y-27.5
X-103.979 Y-28.007
X-105.202 Y-28.562
X-106.401 Y-29.163
X-107.577 Y-29.811
X-108.727 Y-30.503
X-109.849 Y-31.239
X-110.942 Y-32.019
X-112.003 Y-32.84
X-113.032 Y-33.703
X-114.026 Y-34.604
X-114.985 Y-35.543
X-115.908 Y-36.517
X-116.792 Y-37.527
X-117.637 Y-38.57
X-118.442 Y-39.644
X-119.204 Y-40.749
X-119.924 Y-41.882
X-120.6 Y-43.041
X-121.23 Y-44.226
X-121.815 Y-45.434
X-122.351 Y-46.664
X-122.84 Y-47.914
X-123.281 Y-49.182
X-123.672 Y-50.466
X-124.015 Y-51.764
X-124.308 Y-53.073
X-124.55 Y-54.394
X-124.742 Y-55.722
X-124.883 Y-57.057
X-124.974 Y-58.396
X-125.013 Y-59.737
X-125.001 Y-61.079
X-124.937 Y-62.42
X-124.821 Y-63.757
X-124.653 Y-65.089
X-124.435 Y-66.413
X-124.167 Y-67.728
X-123.848 Y-69.032
X-123.48 Y-70.323
X-123.064 Y-71.598
X-122.599 Y-72.858
X-122.086 Y-74.098
X-121.527 Y-75.318
X-120.922 Y-76.516
X-120.272 Y-77.69
X-119.577 Y-78.838
X-118.838 Y-79.959
X-118.056 Y-81.05
X-117.233 Y-82.11
X-116.371 Y-83.139
X-115.47 Y-84.134
X-114.532 Y-85.093
X-113.558 Y-86.017
X-112.55 Y-86.903
X-111.508 Y-87.749
X-110.436 Y-88.556
X-109.333 Y-89.322
X-108.202 Y-90.045
X-107.045 Y-90.724
X-105.862 Y-91.357
X-104.655 Y-91.945
X-103.427 Y-92.487
X-102.179 Y-92.981
X-100.914 Y-93.428
X-99.632 Y-93.826
X-98.336 Y-94.176
X-97.028 Y-94.476
X-95.709 Y-94.726
X-94.382 Y-94.926
X-93.048 Y-95.076
X-91.71 Y-95.176
X-90.369 Y-95.224
X-89.026 Y-95.221
X-87.685 Y-95.166
X-86.347 Y-95.061
X-85.014 Y-94.906
X-83.688 Y-94.701
X-82.37 Y-94.446
X-81.063 Y-94.141
X-79.768 Y-93.788
X-78.487 Y-93.387
X-77.222 Y-92.938
X-75.975 Y-92.443
X-74.747 Y-91.901
X-73.54 Y-91.314
X-72.356 Y-90.682
X-71.197 Y-90.006
X-70.064 Y-89.287
X-68.958 Y-88.526
X-67.881 Y-87.725
X-66.834 Y-86.885
X-65.819 Y-86.007
X-64.837 Y-85.092
X-63.889 Y-84.142
X-62.977 Y-83.157
X-62.102 Y-82.14
X-61.265 Y-81.091
X-60.467 Y-80.012
X-59.709 Y-78.904
X-58.994 Y-77.768
X-58.32 Y-76.607
X-57.691 Y-75.422
X-57.105 Y-74.214
X-56.563 Y-72.986
X-56.068 Y-71.739
X-55.618 Y-70.474
X-55.216 Y-69.194
X-54.86 Y-67.9
X-54.553 Y-66.593
X-54.293 Y-65.276
X-54.082 Y-63.951
X-53.921 Y-62.618
X-53.809 Y-61.281
X-53.747 Y-59.94
X-53.735 Y-58.598
X-53.772 Y-57.256
X-53.859 Y-55.917
X-53.994 Y-54.582
X-54.179 Y-53.252
X-54.413 Y-51.931
X-54.695 Y-50.619
X-55.025 Y-49.318
X-55.403 Y-48.03
X-55.828 Y-46.757
X-56.299 Y-45.5
X-56.818 Y-44.262
X-57.382 Y-43.044
X-57.99 Y-41.848
X-58.643 Y-40.675
X-59.338 Y-39.527
X-60.074 Y-38.405
X-60.852 Y-37.311
X-61.669 Y-36.246
X-62.525 Y-35.212
X-63.418 Y-34.21
X-64.347 Y-33.242
X-65.311 Y-32.308
X-66.309 Y-31.41
X-67.339 Y-30.55
X-68.4 Y-29.729
X-69.492 Y-28.947
X-70.611 Y-28.206
X-71.756 Y-27.507
X-72.926 Y-26.85
X-74.12 Y-26.236
X-75.335 Y-25.666
X-76.57 Y-25.141
X-77.824 Y-24.662
X-79.094 Y-24.228
X-80.379 Y-23.841
X-81.678 Y-23.501
X-82.988 Y-23.209
X-84.307 Y-22.965
X-85.635 Y-22.77
X-86.969 Y-22.623
X-88.308 Y-22.525
X-89.649 Y-22.475
X-90.991 Y-22.474
X-92.333 Y-22.521
X-93.671 Y-22.617
X-95.006 Y-22.761
X-96.334 Y-22.953
X-97.655 Y-23.192
X-98.966 Y-23.479
X-100.266 Y-23.813
X-101.553 Y-24.194
X-102.825 Y-24.622
X-104.081 Y-25.095
X-105.319 Y-25.614
X-106.537 Y-26.176
X-107.735 Y-26.782
X-108.91 Y-27.43
X-110.061 Y-28.121
X-111.187 Y-28.852
X-112.286 Y-29.622
X-113.356 Y-30.432
X-114.397 Y-31.279
X-115.407 Y-32.163
X-116.385 Y-33.082
X-117.329 Y-34.036
X-118.238 Y-35.023
X-119.112 Y-36.043
X-119.948 Y-37.093
X-120.746 Y-38.172
X-121.505 Y-39.278
X-122.225 Y-40.411
X-122.903 Y-41.569
X-123.54 Y-42.751
X-124.135 Y-43.954
X-124.686 Y-45.178
X-125.194 Y-46.42
X-125.657 Y-47.68
X-126.075 Y-48.955
X-126.447 Y-50.245
X-126.773 Y-51.547
X-127.052 Y-52.86
X-127.284 Y-54.182
X-127.469 Y-55.511
X-127.607 Y-56.846
X-127.698 Y-58.185
X-127.741 Y-59.526
X-127.736 Y-60.869
X-127.684 Y-62.21
X-127.585 Y-63.548
X-127.438 Y-64.882
X-127.244 Y-66.21
X-127.003 Y-67.531
X-126.715 Y-68.841
X-126.38 Y-70.141
X-125.999 Y-71.428
X-125.573 Y-72.701
X-125.102 Y-73.958
X-124.588 Y-75.197
X-124.029 Y-76.418
X-123.428 Y-77.618
X-122.785 Y-78.796
X-122.101 Y-79.95
X-121.376 Y-81.08
X-120.612 Y-82.184
X-119.809 Y-83.259
X-118.969 Y-84.306
X-118.091 Y-85.321
X-117.178 Y-86.305
X-116.231 Y-87.255
X-115.25 Y-88.172
X-114.238 Y-89.053
X-113.196 Y-89.899
X-112.124 Y-90.707
X-111.024 Y-91.476
X-109.898 Y-92.207
X-108.747 Y-92.897
X-107.572 Y-93.546
X-106.376 Y-94.153
X-105.158 Y-94.718
X-103.921 Y-95.239
X-102.666 Y-95.715
X-101.395 Y-96.147
X-100.11 Y-96.533
X-98.812 Y-96.874
X-97.503 Y-97.169
X-96.184 Y-97.417
X-94.857 Y-97.62
X-93.524 Y-97.776
X-92.186 Y-97.884
X-90.845 Y-97.946
X-89.503 Y-97.96
X-88.161 Y-97.928
X-86.822 Y-97.849
X-85.485 Y-97.722
X-84.155 Y-97.548
X-82.831 Y-97.327
X-81.515 Y-97.06
X-80.21 Y-96.747
X-78.917 Y-96.39
X-77.636 Y-95.987
X-76.371 Y-95.541
X-75.121 Y-95.05
X-73.889 Y-94.517
X-72.677 Y-93.942
X-71.485 Y-93.325
X-70.315 Y-92.667
X-69.168 Y-91.969
X-68.047 Y-91.232
X-66.952 Y-90.457
X-65.884 Y-89.643
X-64.845 Y-88.793
X-63.836 Y-87.908
X-62.858 Y-86.989
X-61.912 Y-86.037
X-60.999 Y-85.054
X-60.12 Y-84.039
X-59.276 Y-82.996
X-58.469 Y-81.924
X-57.698 Y-80.824
X-56.966 Y-79.7
X-56.272 Y-78.551
X-55.619 Y-77.378
X-55.006 Y-76.184
X-54.435 Y-74.969
X-53.907 Y-73.736
X-53.421 Y-72.485
X-52.978 Y-71.218
X-52.578 Y-69.937
X-52.222 Y-68.642
X-51.911 Y-67.337
X-51.645 Y-66.021
X-51.423 Y-64.698
X-51.248 Y-63.367
X-51.117 Y-62.031
X-51.033 Y-60.692
X-50.995 Y-59.35
X-51.003 Y-58.008
X-51.057 Y-56.667
X-51.158 Y-55.329
X-51.305 Y-53.994
X-51.498 Y-52.666
X-51.736 Y-51.345
X-52.018 Y-50.033
X-52.346 Y-48.732
X-52.718 Y-47.442
X-53.133 Y-46.166
X-53.592 Y-44.905
X-54.094 Y-43.66
X-54.639 Y-42.433
X-55.225 Y-41.226
X-55.852 Y-40.039
X-56.521 Y-38.875
X-57.229 Y-37.735
X-57.975 Y-36.62
X-58.76 Y-35.531
X-59.581 Y-34.469
X-60.438 Y-33.436
X-61.33 Y-32.433
X-62.255 Y-31.461
X-63.213 Y-30.521
X-64.202 Y-29.614
X-65.222 Y-28.741
X-66.271 Y-27.904
X-67.348 Y-27.103
X-68.452 Y-26.34
X-69.581 Y-25.615
X-70.735 Y-24.929
X-71.912 Y-24.283
X-73.11 Y-23.678
X-74.327 Y-23.114
X-75.564 Y-22.591
X-76.817 Y-22.111
X-77.051 Y-22.03
X-77.402 Y-21.931
X-77.762 Y-21.87
X-78.127 Y-21.85
X-99.342
X-100.575 Y-21.912
X-101.404 Y-21.998
X-102.364 Y-22.152
X-103.452 Y-22.387
X-104.662 Y-22.718
X-105.936 Y-23.141
X-107.186 Y-23.63
X-108.411 Y-24.177
X-109.613 Y-24.776
X-110.789 Y-25.422
X-111.939 Y-26.114
X-113.063 Y-26.847
X-114.16 Y-27.621
X-115.228 Y-28.433
X-116.268 Y-29.282
X-117.278 Y-30.166
X-118.257 Y-31.084
X-119.205 Y-32.034
X-120.12 Y-33.016
X-121.002 Y-34.028
X-121.849 Y-35.068
X-122.662 Y-36.137
X-123.438 Y-37.231
X-124.178 Y-38.351
X-124.88 Y-39.495
X-125.543 Y-40.662
X-126.167 Y-41.85
X-126.751 Y-43.059
X-127.294 Y-44.286
X-127.796 Y-45.531
X-127.95 Y-45.951
X-128.06 Y-46.32
X-128.128 Y-46.699
X-128.15 Y-47.084
Y-69.702
X-128.088 Y-70.94
X-128.002 Y-71.76
X-127.858 Y-72.665
X-127.633 Y-73.704
X-127.313 Y-74.874
X-126.89 Y-76.148
X-126.399 Y-77.397
X-125.849 Y-78.621
X-125.247 Y-79.821
X-124.597 Y-80.995
X-123.903 Y-82.144
X-123.166 Y-83.266
X-122.39 Y-84.361
X-121.576 Y-85.427
X-120.724 Y-86.465
X-119.838 Y-87.473
X-118.917 Y-88.449
X-117.964 Y-89.395
X-116.98 Y-90.308
X-115.967 Y-91.187
X-114.924 Y-92.033
X-113.855 Y-92.844
X-112.759 Y-93.619
X-111.639 Y-94.357
X-110.494 Y-95.059
X-109.328 Y-95.723
X-108.14 Y-96.348
X-106.932 Y-96.933
X-105.706 Y-97.478
X-104.641 Y-97.909
X-104.24 Y-98.042
X-103.825 Y-98.123
X-103.403 Y-98.15
X-79.564
X-78.26 Y-98.085
X-77.491 Y-98.004
X-76.61 Y-97.863
X-75.598 Y-97.645
X-74.459 Y-97.333
X-73.197 Y-96.914
X-71.948 Y-96.422
X-70.724 Y-95.87
X-69.526 Y-95.265
X-68.354 Y-94.612
X-67.207 Y-93.914
X-66.087 Y-93.175
X-64.994 Y-92.396
X-63.929 Y-91.579
X-62.892 Y-90.727
X-61.884 Y-89.84
X-60.906 Y-88.921
X-59.959 Y-87.971
X-59.042 Y-86.99
X-58.158 Y-85.981
X-57.307 Y-84.943
X-56.489 Y-83.879
X-55.706 Y-82.789
X-54.958 Y-81.675
X-54.246 Y-80.537
X-53.571 Y-79.377
X-52.934 Y-78.195
X-52.336 Y-76.994
X-51.777 Y-75.774
X-51.257 Y-74.536
X-50.778 Y-73.283
X-50.338 Y-72.014
X-49.94 Y-70.733
X-49.582 Y-69.439
X-49.266 Y-68.135
X-48.992 Y-66.821
X-48.759 Y-65.499
X-48.569 Y-64.17
X-48.421 Y-62.836
X-48.316 Y-61.498
X-48.254 Y-60.158
X-48.235 Y-58.816
X-48.261 Y-57.474
X-48.329 Y-56.133
X-48.441 Y-54.796
X-48.595 Y-53.463
X-48.792 Y-52.135
X-49.032 Y-50.814
X-49.313 Y-49.502
X-49.636 Y-48.199
X-50.001 Y-46.908
X-50.406 Y-45.628
X-50.852 Y-44.362
X-51.339 Y-43.111
X-51.864 Y-41.876
X-52.429 Y-40.659
X-53.034 Y-39.46
X-53.676 Y-38.282
X-54.357 Y-37.126
X-55.075 Y-35.991
X-55.828 Y-34.881
X-56.617 Y-33.795
X-57.44 Y-32.735
X-58.296 Y-31.701
X-59.185 Y-30.695
X-60.105 Y-29.718
X-61.056 Y-28.771
X-62.036 Y-27.854
X-63.045 Y-26.969
X-64.082 Y-26.117
X-65.145 Y-25.298
X-66.234 Y-24.514
X-67.348 Y-23.765
X-68.486 Y-23.052
X-69.646 Y-22.377
X-69.887 Y-22.247
X-70.258 Y-22.075
X-70.647 Y-21.951
X-71.048 Y-21.875
X-71.456 Y-21.85
X-78.127
G3 X-78.609 Y-21.964 I0.044 J-1.269
G1 X-78.739 Y-22.023 Z31.018
X-78.866 Y-22.081 Z31.042
X-78.991 Y-22.138 Z31.081
X-79.111 Y-22.192 Z31.136
X-79.224 Y-22.244 Z31.205
X-79.33 Y-22.292 Z31.287
X-79.426 Y-22.336 Z31.382
X-79.513 Y-22.375 Z31.488
X-79.588 Y-22.41 Z31.604
X-79.65 Y-22.438 Z31.729
X-79.7 Y-22.461 Z31.861
X-79.736 Y-22.477 Z31.997
X-79.758 Y-22.487 Z32.138
X-79.765 Y-22.49 Z32.28
G0 Z48
X-127.36 Y-68.132
Z33.55
G1 Z32.28 F850
X-127.364 Y-68.139 Z32.138
X-127.377 Y-68.159 Z31.997
X-127.397 Y-68.193 Z31.861
X-127.425 Y-68.24 Z31.729
X-127.46 Y-68.299 Z31.604
X-127.502 Y-68.37 Z31.488
X-127.551 Y-68.452 Z31.382
X-127.605 Y-68.543 Z31.287
X-127.664 Y-68.643 Z31.205
X-127.728 Y-68.75 Z31.136
X-127.795 Y-68.863 Z31.081
X-127.865 Y-68.981 Z31.042
X-127.937 Y-69.101 Z31.018
X-128.009 Y-69.223 Z31.01
G3 X-128.15 Y-69.702 I0.864 J-0.514
G1 Y-76.17
X-128.106 Y-77.045
X-128.051 Y-77.574
X-127.949 Y-78.21
X-127.803 Y-78.888
X-127.587 Y-79.679
X-127.289 Y-80.574
X-126.907 Y-81.543
X-126.409 Y-82.63
X-125.784 Y-83.818
X-125.097 Y-84.971
X-124.356 Y-86.09
X-123.568 Y-87.176
X-122.736 Y-88.23
X-121.866 Y-89.252
X-120.96 Y-90.241
X-120.02 Y-91.2
X-119.048 Y-92.126
X-118.047 Y-93.019
X-117.017 Y-93.88
X-115.961 Y-94.708
X-114.879 Y-95.502
X-113.773 Y-96.262
X-112.643 Y-96.987
X-111.491 Y-97.676
X-111.388 Y-97.734
X-111.01 Y-97.914
X-110.613 Y-98.044
X-110.202 Y-98.123
X-109.784 Y-98.15
X-103.403
G3 X-102.607 Y-95.928 I-0.044 J1.269
G1 X-126.041 Y-75.262
G3 X-128.036 Y-75.688 I-0.84 J-0.953
X-128.15 Y-76.17 I1.156 J-0.527
G1 Y-81.496
X-128.128 Y-81.926
X-128.08 Y-82.393
X-128.002 Y-82.881
X-127.878 Y-83.456
X-127.709 Y-84.071
X-127.47 Y-84.79
X-127.171 Y-85.549
X-126.776 Y-86.411
X-126.271 Y-87.372
X-125.641 Y-88.428
X-124.892 Y-89.542
X-124.085 Y-90.614
X-123.23 Y-91.649
X-122.332 Y-92.646
X-121.396 Y-93.608
X-120.426 Y-94.536
X-119.424 Y-95.429
X-118.393 Y-96.289
X-117.335 Y-97.114
X-116.789 Y-97.514
X-116.438 Y-97.738
X-116.061 Y-97.916
X-115.665 Y-98.045
X-115.257 Y-98.124
X-114.841 Y-98.15
X-109.784
G3 X-109.302 Y-98.036 I-0.044 J1.269
X-108.979 Y-95.937 I-0.527 J1.156
G1 X-126.031 Y-80.597
G3 X-128.15 Y-81.496 I-0.849 J-0.944
G1 Y-85.682
X-128.12 Y-86.288
X-128.079 Y-86.672
X-128.006 Y-87.134
X-127.903 Y-87.611
X-127.751 Y-88.166
X-127.553 Y-88.76
X-127.283 Y-89.445
X-126.956 Y-90.16
X-126.527 Y-90.975
X-125.988 Y-91.879
X-125.328 Y-92.859
X-124.527 Y-93.921
X-123.662 Y-94.947
X-122.748 Y-95.93
X-121.793 Y-96.873
X-121.322 Y-97.299
X-120.939 Y-97.596
X-120.517 Y-97.835
X-120.065 Y-98.009
X-119.593 Y-98.114
X-119.11 Y-98.15
X-114.841
G3 X-114.359 Y-98.036 I-0.044 J1.269
X-114.02 Y-95.951 I-0.527 J1.156
G1 X-126.016 Y-84.796
G3 X-128.036 Y-85.199 I-0.865 J-0.93
X-128.15 Y-85.682 I1.156 J-0.527
G1 Y-89.867
X-128.131 Y-90.237
X-128.091 Y-90.62
X-128.029 Y-91.013
X-127.93 Y-91.47
X-127.792 Y-91.973
X-127.612 Y-92.515
X-127.372 Y-93.123
X-127.07 Y-93.783
X-126.695 Y-94.497
X-126.217 Y-95.298
X-125.706 Y-96.057
X-125.223 Y-96.697
X-124.986 Y-96.978
X-124.652 Y-97.32
X-124.273 Y-97.61
X-123.855 Y-97.843
X-123.408 Y-98.012
X-122.941 Y-98.115
X-122.464 Y-98.15
X-119.11
G3 X-118.303 Y-95.938 I-0.044 J1.269
G1 X-126.03 Y-88.968
G3 X-128.15 Y-89.867 I-0.851 J-0.943
G1 Y-93.671
X-128.134 Y-93.99
X-128.1 Y-94.316
X-128.04 Y-94.691
X-127.958 Y-95.071
X-127.857 Y-95.439
X-127.73 Y-95.82
X-127.601 Y-96.148
X-127.446 Y-96.487
X-127.189 Y-96.895
X-126.872 Y-97.259
X-126.503 Y-97.569
X-126.09 Y-97.819
X-125.644 Y-98.001
X-125.174 Y-98.113
X-124.694 Y-98.15
G3 X-124.211 Y-98.036 I-0.044 J1.269
X-123.686 Y-96.169 I-0.527 J1.156
G1 X-125.829 Y-93.004
G3 X-128.15 Y-93.671 I-1.052 J-0.712
G1 Y-96.335
X-128.143 Y-96.484
X-128.07 Y-96.82
X-127.938 Y-97.137
X-127.751 Y-97.424
X-127.515 Y-97.674
X-127.239 Y-97.877
X-126.93 Y-98.027
X-126.599 Y-98.119
X-126.258 Y-98.15
G3 X-124.634 Y-95.867 I-0.062 J1.763
X-128.064 Y-95.845 I-1.719 J-0.53
X-128.15 Y-96.335 I1.712 J-0.552
G1 Y-96.905
X-128.13 Y-97.096
X-128.081 Y-97.286
X-127.997 Y-97.476
X-127.939 Y-97.573
X-127.868 Y-97.671
X-127.785 Y-97.764
X-127.683 Y-97.857
X-127.585 Y-97.929
X-127.488 Y-97.988
X-127.297 Y-98.073
X-127.107 Y-98.126
X-126.917 Y-98.149
X-126.727 Y-98.15
X-122.464
G3 X-121.982 Y-98.036 I-0.044 J1.269
G1 X-121.852 Y-97.977 Z31.018
X-121.724 Y-97.919 Z31.042
X-121.6 Y-97.862 Z31.081
X-121.48 Y-97.808 Z31.136
X-121.367 Y-97.756 Z31.205
X-121.261 Y-97.708 Z31.287
X-121.164 Y-97.664 Z31.382
X-121.078 Y-97.625 Z31.488
X-121.003 Y-97.59 Z31.604
X-120.94 Y-97.562 Z31.729
X-120.891 Y-97.539 Z31.861
X-120.855 Y-97.523 Z31.997
X-120.833 Y-97.513 Z32.138
X-120.826 Y-97.51 Z32.28
G0 Z48
X-97.772 Y-22.64
Z33.55
G1 Z32.28 F850
X-97.779 Y-22.636 Z32.138
X-97.799 Y-22.623 Z31.997
X-97.833 Y-22.603 Z31.861
X-97.88 Y-22.575 Z31.729
X-97.939 Y-22.54 Z31.604
X-98.01 Y-22.498 Z31.488
X-98.092 Y-22.449 Z31.382
X-98.183 Y-22.395 Z31.287
X-98.283 Y-22.336 Z31.205
X-98.39 Y-22.272 Z31.136
X-98.503 Y-22.205 Z31.081
X-98.621 Y-22.135 Z31.042
X-98.741 Y-22.063 Z31.018
X-98.864 Y-21.991 Z31.01
G3 X-99.342 Y-21.85 I-0.514 J-0.864
G1 X-106.188
X-106.764 Y-21.879
X-107.303 Y-21.935
X-107.949 Y-22.038
X-108.637 Y-22.187
X-109.44 Y-22.407
X-110.346 Y-22.708
X-111.327 Y-23.095
X-112.428 Y-23.599
X-113.616 Y-24.224
X-114.77 Y-24.91
X-115.89 Y-25.649
X-116.977 Y-26.436
X-118.032 Y-27.266
X-119.056 Y-28.134
X-120.048 Y-29.038
X-121.007 Y-29.976
X-121.935 Y-30.946
X-122.831 Y-31.946
X-123.694 Y-32.974
X-124.523 Y-34.029
X-125.319 Y-35.11
X-126.079 Y-36.216
X-126.805 Y-37.345
X-127.494 Y-38.497
X-127.734 Y-38.93
X-127.914 Y-39.308
X-128.044 Y-39.705
X-128.123 Y-40.116
X-128.15 Y-40.534
Y-47.084
G3 X-125.919 Y-47.869 I1.269 J0.044
G1 X-105.271 Y-23.949
G3 X-106.188 Y-21.85 I-0.961 J0.83
G1 X-111.133
X-111.726 Y-21.88
X-112.193 Y-21.929
X-112.683 Y-22.007
X-113.26 Y-22.132
X-113.878 Y-22.3
X-114.6 Y-22.541
X-115.364 Y-22.842
X-116.229 Y-23.238
X-117.196 Y-23.746
X-118.257 Y-24.38
X-119.371 Y-25.129
X-120.444 Y-25.935
X-121.479 Y-26.79
X-122.477 Y-27.687
X-123.44 Y-28.623
X-124.368 Y-29.592
X-125.262 Y-30.593
X-126.122 Y-31.623
X-126.948 Y-32.681
X-127.514 Y-33.455
X-127.738 Y-33.806
X-127.916 Y-34.182
X-128.045 Y-34.578
X-128.124 Y-34.987
X-128.15 Y-35.403
Y-40.534
G3 X-128.036 Y-41.016 I1.269 J0.044
X-125.939 Y-41.341 I1.156 J0.527
G1 X-110.235 Y-23.971
G3 X-111.133 Y-21.85 I-0.942 J0.852
G1 X-115.697
X-116.069 Y-21.869
X-116.453 Y-21.909
X-116.916 Y-21.983
X-117.4 Y-22.087
X-117.956 Y-22.239
X-118.556 Y-22.439
X-119.243 Y-22.71
X-119.965 Y-23.04
X-120.786 Y-23.472
X-121.695 Y-24.015
X-122.68 Y-24.677
X-123.748 Y-25.483
X-124.774 Y-26.349
X-125.757 Y-27.262
X-126.701 Y-28.217
X-127.29 Y-28.864
X-127.591 Y-29.248
X-127.831 Y-29.671
X-128.007 Y-30.125
X-128.114 Y-30.6
X-128.15 Y-31.086
Y-35.403
G3 X-125.942 Y-36.213 I1.269 J0.044
G1 X-114.802 Y-23.974
G3 X-115.697 Y-21.85 I-0.939 J0.855
G1 X-119.5
X-120.064 Y-21.878
X-120.447 Y-21.918
X-120.839 Y-21.981
X-121.296 Y-22.08
X-121.799 Y-22.217
X-122.341 Y-22.398
X-122.949 Y-22.637
X-123.61 Y-22.94
X-124.325 Y-23.316
X-125.127 Y-23.794
X-125.941 Y-24.342
X-126.623 Y-24.857
X-126.978 Y-25.156
X-127.32 Y-25.49
X-127.61 Y-25.87
X-127.843 Y-26.288
X-128.012 Y-26.735
X-128.115 Y-27.202
X-128.15 Y-27.678
Y-31.086
G3 X-125.949 Y-31.905 I1.269 J0.044
G1 X-118.613 Y-23.982
G3 X-119.5 Y-21.85 I-0.932 J0.863
G1 X-123.304
X-123.819 Y-21.876
X-124.15 Y-21.91
X-124.53 Y-21.971
X-124.919 Y-22.055
X-125.315 Y-22.163
X-125.716 Y-22.297
X-126.068 Y-22.435
X-126.415 Y-22.594
X-126.79 Y-22.825
X-127.13 Y-23.105
X-127.43 Y-23.428
X-127.682 Y-23.789
X-127.884 Y-24.18
X-128.031 Y-24.596
X-128.12 Y-25.027
X-128.15 Y-25.467
G3 X-128.036 Y-25.949 I1.269 J0.044
X-126.187 Y-26.486 I1.156 J0.527
G1 X-122.655 Y-24.183
G3 X-123.304 Y-21.85 I-0.694 J1.064
G1 X-126.175
X-126.352 Y-21.859
X-126.712 Y-21.93
X-127.053 Y-22.066
X-127.364 Y-22.262
X-127.634 Y-22.512
X-127.854 Y-22.806
X-128.017 Y-23.136
X-128.116 Y-23.489
X-128.15 Y-23.855
G3 X-128.068 Y-24.346 I1.911 J0.067
X-125.729 Y-25.632 I1.829 J0.557
X-126.175 Y-21.85 I-0.514 J1.856
G1 X-126.727
X-126.917 Y-21.851
X-127.107 Y-21.874
X-127.297 Y-21.927
X-127.488 Y-22.012
X-127.585 Y-22.071
X-127.683 Y-22.143
X-127.785 Y-22.236
X-127.868 Y-22.329
X-127.939 Y-22.427
X-127.997 Y-22.524
X-128.081 Y-22.714
X-128.13 Y-22.904
X-128.15 Y-23.095
Y-27.678
G3 X-128.036 Y-28.161 I1.269 J0.044
G1 X-127.977 Y-28.29 Z31.018
X-127.919 Y-28.418 Z31.042
X-127.862 Y-28.542 Z31.081
X-127.808 Y-28.662 Z31.136
X-127.756 Y-28.776 Z31.205
X-127.708 Y-28.881 Z31.287
X-127.664 Y-28.978 Z31.382
X-127.625 Y-29.064 Z31.488
X-127.59 Y-29.139 Z31.604
X-127.562 Y-29.202 Z31.729
X-127.539 Y-29.252 Z31.861
X-127.523 Y-29.287 Z31.997
X-127.513 Y-29.309 Z32.138
X-127.51 Y-29.316 Z32.28
G0 Z48
X-81.134 Y-97.36
Z33.55
G1 Z32.28 F850
X-81.127 Y-97.364 Z32.138
X-81.107 Y-97.377 Z31.997
X-81.073 Y-97.397 Z31.861
X-81.026 Y-97.425 Z31.729
X-80.967 Y-97.46 Z31.604
X-80.896 Y-97.502 Z31.488
X-80.815 Y-97.551 Z31.382
X-80.723 Y-97.605 Z31.287
X-80.623 Y-97.664 Z31.205
X-80.516 Y-97.728 Z31.136
X-80.403 Y-97.795 Z31.081
X-80.286 Y-97.865 Z31.042
X-80.165 Y-97.937 Z31.018
X-80.043 Y-98.009 Z31.01
G3 X-79.564 Y-98.15 I0.514 J0.864
G1 X-73.098
X-72.273 Y-98.109
X-71.75 Y-98.054
X-71.12 Y-97.953
X-70.45 Y-97.809
X-69.668 Y-97.595
X-68.784 Y-97.301
X-67.826 Y-96.923
X-66.747 Y-96.429
X-65.559 Y-95.804
X-64.406 Y-95.117
X-63.287 Y-94.376
X-62.2 Y-93.588
X-61.146 Y-92.758
X-60.122 Y-91.889
X-59.13 Y-90.985
X-58.169 Y-90.048
X-57.239 Y-89.081
X-56.341 Y-88.084
X-55.474 Y-87.059
X-54.639 Y-86.008
X-53.838 Y-84.931
X-53.069 Y-83.831
X-52.334 Y-82.708
X-51.635 Y-81.562
X-50.971 Y-80.396
X-50.343 Y-79.21
X-49.752 Y-78.005
X-49.197 Y-76.783
X-48.679 Y-75.545
X-48.199 Y-74.291
X-47.757 Y-73.024
X-47.352 Y-71.744
X-46.986 Y-70.453
X-46.659 Y-69.151
X-46.371 Y-67.841
X-46.121 Y-66.522
X-45.912 Y-65.196
X-45.742 Y-63.865
X-45.612 Y-62.529
X-45.523 Y-61.19
X-45.475 Y-59.848
X-45.467 Y-58.506
X-45.501 Y-57.165
X-45.575 Y-55.824
X-45.689 Y-54.487
X-45.843 Y-53.154
X-46.038 Y-51.826
X-46.272 Y-50.504
X-46.545 Y-49.19
X-46.857 Y-47.885
X-47.208 Y-46.589
X-47.598 Y-45.305
X-48.025 Y-44.033
X-48.491 Y-42.774
X-48.994 Y-41.53
X-49.534 Y-40.301
X-50.112 Y-39.09
X-50.727 Y-37.897
X-51.378 Y-36.723
X-52.063 Y-35.569
X-52.783 Y-34.436
X-53.537 Y-33.326
X-54.323 Y-32.238
X-55.142 Y-31.175
X-55.992 Y-30.136
X-56.873 Y-29.123
X-57.783 Y-28.137
X-58.722 Y-27.178
X-59.69 Y-26.248
X-60.684 Y-25.346
X-61.705 Y-24.475
X-62.752 Y-23.636
X-63.824 Y-22.828
X-64.353 Y-22.455
X-64.698 Y-22.242
X-65.066 Y-22.072
X-65.453 Y-21.949
X-65.852 Y-21.875
X-66.257 Y-21.85
X-71.456
G3 X-71.938 Y-21.964 I0.044 J-1.269
G1 X-72.068 Y-22.023 Z31.018
X-72.195 Y-22.081 Z31.042
X-72.32 Y-22.138 Z31.081
X-72.44 Y-22.192 Z31.136
X-72.553 Y-22.244 Z31.205
X-72.659 Y-22.292 Z31.287
X-72.755 Y-22.336 Z31.382
X-72.842 Y-22.375 Z31.488
X-72.917 Y-22.41 Z31.604
X-72.979 Y-22.438 Z31.729
X-73.029 Y-22.461 Z31.861
X-73.065 Y-22.477 Z31.997
X-73.087 Y-22.487 Z32.138
X-73.094 Y-22.49 Z32.28
G0 Z48
X-74.668 Y-97.36
Z33.55
G1 Z32.28 F850
X-74.662 Y-97.364 Z32.138
X-74.641 Y-97.377 Z31.997
X-74.607 Y-97.397 Z31.861
X-74.56 Y-97.425 Z31.729
X-74.501 Y-97.46 Z31.604
X-74.43 Y-97.502 Z31.488
X-74.349 Y-97.551 Z31.382
X-74.257 Y-97.605 Z31.287
X-74.158 Y-97.664 Z31.205
X-74.05 Y-97.728 Z31.136
X-73.937 Y-97.795 Z31.081
X-73.82 Y-97.865 Z31.042
X-73.699 Y-97.937 Z31.018
X-73.577 Y-98.009 Z31.01
G3 X-73.098 Y-98.15 I0.514 J0.864
G1 X-67.945
X-67.408 Y-98.123
X-66.943 Y-98.074
X-66.459 Y-97.997
X-65.884 Y-97.873
X-65.273 Y-97.706
X-64.557 Y-97.467
X-63.796 Y-97.168
X-62.935 Y-96.773
X-61.97 Y-96.266
X-60.908 Y-95.633
X-59.795 Y-94.883
X-58.722 Y-94.077
X-57.686 Y-93.223
X-56.687 Y-92.327
X-55.723 Y-91.394
X-54.792 Y-90.427
X-53.895 Y-89.429
X-53.03 Y-88.402
X-52.199 Y-87.348
X-51.4 Y-86.27
X-50.635 Y-85.167
X-49.903 Y-84.042
X-49.205 Y-82.896
X-48.54 Y-81.73
X-47.91 Y-80.545
X-47.314 Y-79.342
X-46.753 Y-78.123
X-46.226 Y-76.888
X-45.735 Y-75.639
X-45.279 Y-74.377
X-44.86 Y-73.102
X-44.476 Y-71.816
X-44.128 Y-70.52
X-43.817 Y-69.214
X-43.543 Y-67.9
X-43.307 Y-66.579
X-43.108 Y-65.252
X-42.947 Y-63.919
X-42.825 Y-62.583
X-42.741 Y-61.243
X-42.695 Y-59.902
X-42.687 Y-58.56
X-42.717 Y-57.218
X-42.785 Y-55.877
X-42.89 Y-54.539
X-43.034 Y-53.205
X-43.215 Y-51.875
X-43.433 Y-50.551
X-43.689 Y-49.233
X-43.981 Y-47.923
X-44.309 Y-46.622
X-44.675 Y-45.33
X-45.077 Y-44.05
X-45.515 Y-42.781
X-45.99 Y-41.526
X-46.5 Y-40.284
X-47.045 Y-39.058
X-47.625 Y-37.848
X-48.239 Y-36.654
X-48.886 Y-35.478
X-49.567 Y-34.322
X-50.28 Y-33.185
X-51.025 Y-32.068
X-51.8 Y-30.973
X-52.607 Y-29.9
X-53.442 Y-28.85
X-54.307 Y-27.823
X-55.201 Y-26.822
X-56.122 Y-25.846
X-57.07 Y-24.896
X-58.046 Y-23.974
X-59.047 Y-23.08
X-59.592 Y-22.622
X-59.965 Y-22.351
X-60.371 Y-22.135
X-60.804 Y-21.978
X-61.254 Y-21.882
X-61.713 Y-21.85
X-66.257
G3 X-66.739 Y-21.964 I0.044 J-1.269
G1 X-66.869 Y-22.023 Z31.018
X-66.996 Y-22.081 Z31.042
X-67.121 Y-22.138 Z31.081
X-67.241 Y-22.192 Z31.136
X-67.354 Y-22.244 Z31.205
X-67.46 Y-22.292 Z31.287
X-67.556 Y-22.336 Z31.382
X-67.643 Y-22.375 Z31.488
X-67.718 Y-22.41 Z31.604
X-67.78 Y-22.438 Z31.729
X-67.83 Y-22.461 Z31.861
X-67.866 Y-22.477 Z31.997
X-67.888 Y-22.487 Z32.138
X-67.895 Y-22.49 Z32.28
G0 Z48
X-69.515 Y-97.36
Z33.55
G1 Z32.28 F850
X-69.508 Y-97.364 Z32.138
X-69.487 Y-97.377 Z31.997
X-69.453 Y-97.397 Z31.861
X-69.407 Y-97.425 Z31.729
X-69.347 Y-97.46 Z31.604
X-69.277 Y-97.502 Z31.488
X-69.195 Y-97.551 Z31.382
X-69.104 Y-97.605 Z31.287
X-69.004 Y-97.664 Z31.205
X-68.897 Y-97.728 Z31.136
X-68.784 Y-97.795 Z31.081
X-68.666 Y-97.865 Z31.042
X-68.545 Y-97.937 Z31.018
X-68.423 Y-98.009 Z31.01
G3 X-67.945 Y-98.15 I0.514 J0.864
G1 X-63.59
X-63.067 Y-98.124
X-62.683 Y-98.084
X-62.221 Y-98.01
X-61.741 Y-97.906
X-61.184 Y-97.754
X-60.587 Y-97.555
X-59.899 Y-97.284
X-59.178 Y-96.954
X-58.356 Y-96.522
X-57.444 Y-95.978
X-56.449 Y-95.308
X-55.378 Y-94.5
X-54.352 Y-93.635
X-53.367 Y-92.723
X-52.422 Y-91.77
X-51.514 Y-90.781
X-50.643 Y-89.76
X-49.807 Y-88.71
X-49.004 Y-87.634
X-48.236 Y-86.534
X-47.501 Y-85.411
X-46.799 Y-84.267
X-46.13 Y-83.103
X-45.494 Y-81.921
X-44.891 Y-80.722
X-44.322 Y-79.507
X-43.786 Y-78.277
X-43.283 Y-77.032
X-42.814 Y-75.775
X-42.379 Y-74.505
X-41.977 Y-73.224
X-41.61 Y-71.933
X-41.278 Y-70.633
X-40.981 Y-69.324
X-40.719 Y-68.008
X-40.494 Y-66.685
X-40.304 Y-65.356
X-40.15 Y-64.023
X-40.032 Y-62.686
X-39.95 Y-61.346
X-39.904 Y-60.005
X-39.894 Y-58.663
X-39.919 Y-57.321
X-39.981 Y-55.98
X-40.078 Y-54.641
X-40.21 Y-53.306
X-40.378 Y-51.974
X-40.581 Y-50.647
X-40.819 Y-49.326
X-41.092 Y-48.012
X-41.4 Y-46.706
X-41.743 Y-45.408
X-42.121 Y-44.12
X-42.533 Y-42.843
X-42.98 Y-41.578
X-43.461 Y-40.325
X-43.975 Y-39.085
X-44.522 Y-37.859
X-45.102 Y-36.649
X-45.714 Y-35.454
X-46.358 Y-34.277
X-47.033 Y-33.117
X-47.738 Y-31.975
X-48.474 Y-30.852
X-49.238 Y-29.749
X-50.032 Y-28.667
X-50.854 Y-27.606
X-51.704 Y-26.567
X-52.581 Y-25.551
X-53.485 Y-24.559
X-54.416 Y-23.592
X-55.307 Y-22.723
X-55.372 Y-22.666
X-55.75 Y-22.381
X-56.165 Y-22.152
X-56.609 Y-21.985
X-57.072 Y-21.884
X-57.544 Y-21.85
X-61.713
G3 X-62.195 Y-21.964 I0.044 J-1.269
G1 X-62.325 Y-22.023 Z31.018
X-62.453 Y-22.081 Z31.042
X-62.577 Y-22.138 Z31.081
X-62.697 Y-22.192 Z31.136
X-62.81 Y-22.244 Z31.205
X-62.916 Y-22.292 Z31.287
X-63.013 Y-22.336 Z31.382
X-63.099 Y-22.375 Z31.488
X-63.174 Y-22.41 Z31.604
X-63.237 Y-22.438 Z31.729
X-63.286 Y-22.461 Z31.861
X-63.322 Y-22.477 Z31.997
X-63.344 Y-22.487 Z32.138
X-63.351 Y-22.49 Z32.28
G0 Z48
X-65.16 Y-97.36
Z33.55
G1 Z32.28 F850
X-65.153 Y-97.364 Z32.138
X-65.132 Y-97.377 Z31.997
X-65.099 Y-97.397 Z31.861
X-65.052 Y-97.425 Z31.729
X-64.992 Y-97.46 Z31.604
X-64.922 Y-97.502 Z31.488
X-64.84 Y-97.551 Z31.382
X-64.749 Y-97.605 Z31.287
X-64.649 Y-97.664 Z31.205
X-64.542 Y-97.728 Z31.136
X-64.429 Y-97.795 Z31.081
X-64.311 Y-97.865 Z31.042
X-64.19 Y-97.937 Z31.018
X-64.068 Y-98.009 Z31.01
G3 X-63.59 Y-98.15 I0.514 J0.864
G1 X-59.406
X-59.107 Y-98.135
X-58.723 Y-98.095
X-58.326 Y-98.031
X-57.869 Y-97.933
X-57.36 Y-97.794
X-56.817 Y-97.613
X-56.202 Y-97.371
X-55.538 Y-97.067
X-54.816 Y-96.687
X-54.004 Y-96.203
X-53.123 Y-95.61
X-52.18 Y-94.898
X-51.154 Y-94.032
X-50.176 Y-93.113
X-49.242 Y-92.149
X-48.35 Y-91.146
X-47.497 Y-90.111
X-46.68 Y-89.045
X-45.9 Y-87.953
X-45.154 Y-86.837
X-44.442 Y-85.7
X-43.763 Y-84.542
X-43.118 Y-83.365
X-42.504 Y-82.171
X-41.923 Y-80.961
X-41.375 Y-79.737
X-40.858 Y-78.498
X-40.374 Y-77.246
X-39.922 Y-75.982
X-39.503 Y-74.707
X-39.117 Y-73.422
X-38.763 Y-72.127
X-38.443 Y-70.824
X-38.157 Y-69.512
X-37.905 Y-68.194
X-37.686 Y-66.87
X-37.502 Y-65.54
X-37.352 Y-64.207
X-37.235 Y-62.87
X-37.153 Y-61.53
X-37.105 Y-60.189
X-37.091 Y-58.847
X-37.11 Y-57.505
X-37.163 Y-56.163
X-37.25 Y-54.824
X-37.371 Y-53.487
X-37.525 Y-52.154
X-37.713 Y-50.825
X-37.933 Y-49.501
X-38.187 Y-48.183
X-38.474 Y-46.872
X-38.795 Y-45.569
X-39.149 Y-44.274
X-39.536 Y-42.989
X-39.955 Y-41.714
X-40.408 Y-40.451
X-40.892 Y-39.199
X-41.408 Y-37.96
X-41.955 Y-36.734
X-42.532 Y-35.523
X-43.141 Y-34.326
X-43.779 Y-33.146
X-44.447 Y-31.981
X-45.143 Y-30.834
X-45.869 Y-29.705
X-46.622 Y-28.594
X-47.403 Y-27.502
X-48.211 Y-26.431
X-49.045 Y-25.38
X-49.906 Y-24.35
X-50.795 Y-23.344
X-51.279 Y-22.847
X-51.605 Y-22.554
X-51.968 Y-22.306
X-52.36 Y-22.109
X-52.775 Y-21.966
X-53.205 Y-21.879
X-53.642 Y-21.85
X-57.544
G3 X-58.027 Y-21.964 I0.044 J-1.269
G1 X-58.156 Y-22.023 Z31.018
X-58.284 Y-22.081 Z31.042
X-58.409 Y-22.138 Z31.081
X-58.528 Y-22.192 Z31.136
X-58.642 Y-22.244 Z31.205
X-58.747 Y-22.292 Z31.287
X-58.844 Y-22.336 Z31.382
X-58.93 Y-22.375 Z31.488
X-59.005 Y-22.41 Z31.604
X-59.068 Y-22.438 Z31.729
X-59.118 Y-22.461 Z31.861
X-59.154 Y-22.477 Z31.997
X-59.175 Y-22.487 Z32.138
X-59.182 Y-22.49 Z32.28
G0 Z48
X-60.976 Y-97.36
Z33.55
G1 Z32.28 F850
X-60.969 Y-97.364 Z32.138
X-60.949 Y-97.377 Z31.997
X-60.915 Y-97.397 Z31.861
X-60.868 Y-97.425 Z31.729
X-60.809 Y-97.46 Z31.604
X-60.738 Y-97.502 Z31.488
X-60.656 Y-97.551 Z31.382
X-60.565 Y-97.605 Z31.287
X-60.465 Y-97.664 Z31.205
X-60.358 Y-97.728 Z31.136
X-60.245 Y-97.795 Z31.081
X-60.127 Y-97.865 Z31.042
X-60.007 Y-97.937 Z31.018
X-59.884 Y-98.009 Z31.01
G3 X-59.406 Y-98.15 I0.514 J0.864
G1 X-55.774
X-55.321 Y-98.127
X-54.982 Y-98.092
X-54.6 Y-98.031
X-54.165 Y-97.937
X-53.714 Y-97.813
X-53.177 Y-97.635
X-52.639 Y-97.423
X-52.005 Y-97.132
X-51.356 Y-96.792
X-50.623 Y-96.354
X-49.815 Y-95.81
X-48.962 Y-95.166
X-48.03 Y-94.381
X-47.053 Y-93.461
X-46.125 Y-92.491
X-45.242 Y-91.481
X-44.401 Y-90.434
X-43.599 Y-89.358
X-42.836 Y-88.254
X-42.108 Y-87.126
X-41.414 Y-85.977
X-40.755 Y-84.808
X-40.128 Y-83.622
X-39.533 Y-82.418
X-38.971 Y-81.2
X-38.44 Y-79.967
X-37.941 Y-78.721
X-37.473 Y-77.463
X-37.036 Y-76.194
X-36.631 Y-74.915
X-36.257 Y-73.625
X-35.916 Y-72.328
X-35.606 Y-71.022
X-35.329 Y-69.708
X-35.085 Y-68.389
X-34.873 Y-67.063
X-34.693 Y-65.733
X-34.545 Y-64.399
X-34.43 Y-63.062
X-34.348 Y-61.722
X-34.297 Y-60.381
X-34.279 Y-59.039
X-34.292 Y-57.697
X-34.338 Y-56.356
X-34.416 Y-55.016
X-34.526 Y-53.678
X-34.667 Y-52.344
X-34.841 Y-51.013
X-35.046 Y-49.686
X-35.282 Y-48.365
X-35.551 Y-47.05
X-35.851 Y-45.742
X-36.182 Y-44.441
X-36.546 Y-43.149
X-36.941 Y-41.867
X-37.366 Y-40.594
X-37.823 Y-39.332
X-38.31 Y-38.081
X-38.826 Y-36.842
X-39.373 Y-35.616
X-39.949 Y-34.404
X-40.553 Y-33.206
X-41.186 Y-32.022
X-41.847 Y-30.854
X-42.536 Y-29.702
X-43.252 Y-28.567
X-43.994 Y-27.449
X-44.763 Y-26.349
X-45.558 Y-25.267
X-46.38 Y-24.206
X-47.112 Y-23.328
X-47.509 Y-22.901
X-47.839 Y-22.593
X-48.207 Y-22.332
X-48.608 Y-22.124
X-49.033 Y-21.973
X-49.475 Y-21.881
X-49.925 Y-21.85
X-53.642
G3 X-54.125 Y-21.964 I0.044 J-1.269
G1 X-54.254 Y-22.023 Z31.018
X-54.382 Y-22.081 Z31.042
X-54.506 Y-22.138 Z31.081
X-54.626 Y-22.192 Z31.136
X-54.74 Y-22.244 Z31.205
X-54.845 Y-22.292 Z31.287
X-54.942 Y-22.336 Z31.382
X-55.028 Y-22.375 Z31.488
X-55.103 Y-22.41 Z31.604
X-55.166 Y-22.438 Z31.729
X-55.215 Y-22.461 Z31.861
X-55.251 Y-22.477 Z31.997
X-55.273 Y-22.487 Z32.138
X-55.28 Y-22.49 Z32.28
G0 Z48
X-57.344 Y-97.36
Z33.55
G1 Z32.28 F850
X-57.337 Y-97.364 Z32.138
X-57.316 Y-97.377 Z31.997
X-57.282 Y-97.397 Z31.861
X-57.236 Y-97.425 Z31.729
X-57.176 Y-97.46 Z31.604
X-57.106 Y-97.502 Z31.488
X-57.024 Y-97.551 Z31.382
X-56.933 Y-97.605 Z31.287
X-56.833 Y-97.664 Z31.205
X-56.726 Y-97.728 Z31.136
X-56.613 Y-97.795 Z31.081
X-56.495 Y-97.865 Z31.042
X-56.374 Y-97.937 Z31.018
X-56.252 Y-98.009 Z31.01
G3 X-55.774 Y-98.15 I0.514 J0.864
G1 X-52.179
X-51.729 Y-98.127
X-51.411 Y-98.094
X-51.031 Y-98.033
X-50.644 Y-97.95
X-50.193 Y-97.826
X-49.715 Y-97.667
X-49.183 Y-97.458
X-48.606 Y-97.193
X-47.974 Y-96.861
X-47.305 Y-96.462
X-46.554 Y-95.957
X-45.752 Y-95.352
X-44.897 Y-94.631
X-43.963 Y-93.752
X-43.037 Y-92.781
X-42.16 Y-91.765
X-41.329 Y-90.711
X-40.539 Y-89.626
X-39.788 Y-88.513
X-39.075 Y-87.376
X-38.397 Y-86.218
X-37.754 Y-85.04
X-37.143 Y-83.845
X-36.565 Y-82.633
X-36.019 Y-81.408
X-35.504 Y-80.168
X-35.02 Y-78.916
X-34.567 Y-77.653
X-34.144 Y-76.379
X-33.752 Y-75.095
X-33.391 Y-73.803
X-33.061 Y-72.502
X-32.761 Y-71.194
X-32.492 Y-69.879
X-32.255 Y-68.558
X-32.049 Y-67.232
X-31.873 Y-65.901
X-31.729 Y-64.567
X-31.615 Y-63.229
X-31.532 Y-61.89
X-31.48 Y-60.548
X-31.459 Y-59.207
X-31.468 Y-57.864
X-31.507 Y-56.523
X-31.577 Y-55.183
X-31.678 Y-53.844
X-31.809 Y-52.508
X-31.97 Y-51.176
X-32.161 Y-49.847
X-32.383 Y-48.524
X-32.635 Y-47.205
X-32.917 Y-45.893
X-33.229 Y-44.588
X-33.571 Y-43.29
X-33.944 Y-42.001
X-34.346 Y-40.72
X-34.777 Y-39.449
X-35.238 Y-38.189
X-35.728 Y-36.939
X-36.246 Y-35.701
X-36.792 Y-34.475
X-37.366 Y-33.262
X-37.968 Y-32.062
X-38.597 Y-30.876
X-39.252 Y-29.705
X-39.934 Y-28.549
X-40.642 Y-27.409
X-41.375 Y-26.285
X-42.135 Y-25.178
X-42.926 Y-24.094
X-43.531 Y-23.339
X-43.879 Y-22.95
X-44.211 Y-22.628
X-44.584 Y-22.355
X-44.992 Y-22.138
X-45.426 Y-21.979
X-45.878 Y-21.882
X-46.339 Y-21.85
X-49.925
G3 X-50.407 Y-21.964 I0.044 J-1.269
G1 X-50.536 Y-22.023 Z31.018
X-50.664 Y-22.081 Z31.042
X-50.789 Y-22.138 Z31.081
X-50.908 Y-22.192 Z31.136
X-51.022 Y-22.244 Z31.205
X-51.128 Y-22.292 Z31.287
X-51.224 Y-22.336 Z31.382
X-51.311 Y-22.375 Z31.488
X-51.386 Y-22.41 Z31.604
X-51.448 Y-22.438 Z31.729
X-51.498 Y-22.461 Z31.861
X-51.534 Y-22.477 Z31.997
X-51.555 Y-22.487 Z32.138
X-51.563 Y-22.49 Z32.28
G0 Z48
X-53.749 Y-97.36
Z33.55
G1 Z32.28 F850
X-53.743 Y-97.364 Z32.138
X-53.722 Y-97.377 Z31.997
X-53.688 Y-97.397 Z31.861
X-53.641 Y-97.425 Z31.729
X-53.582 Y-97.46 Z31.604
X-53.511 Y-97.502 Z31.488
X-53.43 Y-97.551 Z31.382
X-53.338 Y-97.605 Z31.287
X-53.239 Y-97.664 Z31.205
X-53.131 Y-97.728 Z31.136
X-53.018 Y-97.795 Z31.081
X-52.901 Y-97.865 Z31.042
X-52.78 Y-97.937 Z31.018
X-52.658 Y-98.009 Z31.01
G3 X-52.179 Y-98.15 I0.514 J0.864
G1 X-48.756
X-48.271 Y-98.126
X-47.953 Y-98.092
X-47.597 Y-98.036
X-47.22 Y-97.954
X-46.781 Y-97.834
X-46.335 Y-97.686
X-45.808 Y-97.478
X-45.28 Y-97.236
X-44.662 Y-96.911
X-44.039 Y-96.539
X-43.335 Y-96.066
X-42.569 Y-95.488
X-41.771 Y-94.815
X-40.898 Y-93.994
X-39.972 Y-93.022
X-39.099 Y-92.003
X-38.274 Y-90.944
X-37.493 Y-89.853
X-36.754 Y-88.733
X-36.053 Y-87.588
X-35.388 Y-86.422
X-34.759 Y-85.237
X-34.163 Y-84.034
X-33.599 Y-82.816
X-33.068 Y-81.583
X-32.567 Y-80.338
X-32.097 Y-79.081
X-31.657 Y-77.813
X-31.247 Y-76.535
X-30.868 Y-75.248
X-30.518 Y-73.952
X-30.197 Y-72.649
X-29.907 Y-71.338
X-29.646 Y-70.022
X-29.416 Y-68.699
X-29.215 Y-67.372
X-29.044 Y-66.041
X-28.902 Y-64.706
X-28.79 Y-63.369
X-28.708 Y-62.029
X-28.655 Y-60.688
X-28.631 Y-59.346
X-28.637 Y-58.004
X-28.671 Y-56.662
X-28.735 Y-55.322
X-28.828 Y-53.983
X-28.949 Y-52.646
X-29.1 Y-51.313
X-29.28 Y-49.983
X-29.488 Y-48.657
X-29.726 Y-47.336
X-29.992 Y-46.02
X-30.287 Y-44.711
X-30.611 Y-43.408
X-30.963 Y-42.113
X-31.344 Y-40.826
X-31.753 Y-39.548
X-32.19 Y-38.279
X-32.655 Y-37.02
X-33.148 Y-35.772
X-33.668 Y-34.534
X-34.215 Y-33.308
X-34.788 Y-32.095
X-35.387 Y-30.894
X-36.013 Y-29.706
X-36.663 Y-28.533
X-37.34 Y-27.373
X-38.042 Y-26.229
X-38.772 Y-25.103
X-39.533 Y-24.011
X-40.07 Y-23.322
X-40.366 Y-22.982
X-40.699 Y-22.651
X-41.075 Y-22.371
X-41.488 Y-22.146
X-41.928 Y-21.983
X-42.386 Y-21.883
X-42.854 Y-21.85
X-46.339
G3 X-46.821 Y-21.964 I0.044 J-1.269
G1 X-46.951 Y-22.023 Z31.018
X-47.079 Y-22.081 Z31.042
X-47.203 Y-22.138 Z31.081
X-47.323 Y-22.192 Z31.136
X-47.436 Y-22.244 Z31.205
X-47.542 Y-22.292 Z31.287
X-47.639 Y-22.336 Z31.382
X-47.725 Y-22.375 Z31.488
X-47.8 Y-22.41 Z31.604
X-47.863 Y-22.438 Z31.729
X-47.912 Y-22.461 Z31.861
X-47.948 Y-22.477 Z31.997
X-47.97 Y-22.487 Z32.138
X-47.977 Y-22.49 Z32.28
G0 Z48
X-50.326 Y-97.36
Z33.55
G1 Z32.28 F850
X-50.319 Y-97.364 Z32.138
X-50.299 Y-97.377 Z31.997
X-50.265 Y-97.397 Z31.861
X-50.218 Y-97.425 Z31.729
X-50.159 Y-97.46 Z31.604
X-50.088 Y-97.502 Z31.488
X-50.007 Y-97.551 Z31.382
X-49.915 Y-97.605 Z31.287
X-49.815 Y-97.664 Z31.205
X-49.708 Y-97.728 Z31.136
X-49.595 Y-97.795 Z31.081
X-49.478 Y-97.865 Z31.042
X-49.357 Y-97.937 Z31.018
X-49.235 Y-98.009 Z31.01
G3 X-48.756 Y-98.15 I0.514 J0.864
G1 X-45.333
X-44.912 Y-98.129
X-44.594 Y-98.096
X-44.261 Y-98.042
X-43.883 Y-97.961
X-43.474 Y-97.849
X-43.03 Y-97.701
X-42.535 Y-97.506
X-42.015 Y-97.268
X-41.429 Y-96.96
X-40.819 Y-96.596
X-40.154 Y-96.149
X-39.42 Y-95.595
X-38.659 Y-94.953
X-37.835 Y-94.177
X-36.943 Y-93.242
X-36.071 Y-92.222
X-35.25 Y-91.16
X-34.475 Y-90.064
X-33.744 Y-88.938
X-33.053 Y-87.788
X-32.399 Y-86.615
X-31.781 Y-85.424
X-31.197 Y-84.215
X-30.646 Y-82.992
X-30.127 Y-81.754
X-29.639 Y-80.504
X-29.181 Y-79.242
X-28.753 Y-77.97
X-28.354 Y-76.689
X-27.985 Y-75.398
X-27.644 Y-74.1
X-27.333 Y-72.795
X-27.05 Y-71.482
X-26.797 Y-70.164
X-26.572 Y-68.841
X-26.376 Y-67.513
X-26.209 Y-66.182
X-26.07 Y-64.847
X-25.959 Y-63.509
X-25.877 Y-62.17
X-25.823 Y-60.829
X-25.797 Y-59.487
X-25.799 Y-58.145
X-25.829 Y-56.803
X-25.887 Y-55.462
X-25.973 Y-54.122
X-26.086 Y-52.785
X-26.227 Y-51.45
X-26.396 Y-50.119
X-26.593 Y-48.791
X-26.817 Y-47.468
X-27.069 Y-46.149
X-27.348 Y-44.837
X-27.654 Y-43.53
X-27.988 Y-42.23
X-28.349 Y-40.937
X-28.738 Y-39.653
X-29.154 Y-38.377
X-29.596 Y-37.11
X-30.065 Y-35.852
X-30.561 Y-34.605
X-31.082 Y-33.368
X-31.629 Y-32.142
X-32.201 Y-30.928
X-32.798 Y-29.726
X-33.421 Y-28.537
X-34.068 Y-27.361
X-34.743 Y-26.201
X-35.447 Y-25.059
X-36.115 Y-24.062
X-36.617 Y-23.393
X-36.925 Y-23.028
X-37.259 Y-22.684
X-37.639 Y-22.392
X-38.058 Y-22.159
X-38.506 Y-21.988
X-38.973 Y-21.885
X-39.451 Y-21.85
X-42.854
G3 X-43.337 Y-21.964 I0.044 J-1.269
G1 X-43.466 Y-22.023 Z31.018
X-43.594 Y-22.081 Z31.042
X-43.718 Y-22.138 Z31.081
X-43.838 Y-22.192 Z31.136
X-43.952 Y-22.244 Z31.205
X-44.057 Y-22.292 Z31.287
X-44.154 Y-22.336 Z31.382
X-44.24 Y-22.375 Z31.488
X-44.315 Y-22.41 Z31.604
X-44.378 Y-22.438 Z31.729
X-44.427 Y-22.461 Z31.861
X-44.463 Y-22.477 Z31.997
X-44.485 Y-22.487 Z32.138
X-44.492 Y-22.49 Z32.28
G0 Z48
X-46.903 Y-97.36
Z33.55
G1 Z32.28 F850
X-46.896 Y-97.364 Z32.138
X-46.876 Y-97.377 Z31.997
X-46.842 Y-97.397 Z31.861
X-46.795 Y-97.425 Z31.729
X-46.736 Y-97.46 Z31.604
X-46.665 Y-97.502 Z31.488
X-46.583 Y-97.551 Z31.382
X-46.492 Y-97.605 Z31.287
X-46.392 Y-97.664 Z31.205
X-46.285 Y-97.728 Z31.136
X-46.172 Y-97.795 Z31.081
X-46.055 Y-97.865 Z31.042
X-45.934 Y-97.937 Z31.018
X-45.812 Y-98.009 Z31.01
G3 X-45.333 Y-98.15 I0.514 J0.864
G1 X-41.91
X-41.631 Y-98.136
X-41.317 Y-98.103
X-40.997 Y-98.052
X-40.619 Y-97.97
X-40.232 Y-97.865
X-39.788 Y-97.717
X-39.322 Y-97.533
X-38.802 Y-97.295
X-38.251 Y-97.006
X-37.644 Y-96.643
X-37.013 Y-96.219
X-36.308 Y-95.686
X-35.569 Y-95.063
X-34.783 Y-94.324
X-33.931 Y-93.43
X-33.059 Y-92.41
X-32.241 Y-91.347
X-31.471 Y-90.247
X-30.747 Y-89.117
X-30.064 Y-87.962
X-29.419 Y-86.785
X-28.811 Y-85.588
X-28.238 Y-84.374
X-27.697 Y-83.146
X-27.189 Y-81.904
X-26.712 Y-80.649
X-26.265 Y-79.384
X-25.847 Y-78.108
X-25.458 Y-76.824
X-25.098 Y-75.531
X-24.767 Y-74.23
X-24.464 Y-72.923
X-24.189 Y-71.609
X-23.941 Y-70.29
X-23.722 Y-68.966
X-23.531 Y-67.637
X-23.367 Y-66.305
X-23.231 Y-64.97
X-23.121 Y-63.632
X-23.04 Y-62.293
X-22.985 Y-60.951
X-22.957 Y-59.61
X-22.956 Y-58.267
X-22.982 Y-56.926
X-23.035 Y-55.584
X-23.114 Y-54.245
X-23.221 Y-52.907
X-23.353 Y-51.571
X-23.513 Y-50.238
X-23.698 Y-48.909
X-23.911 Y-47.584
X-24.149 Y-46.263
X-24.414 Y-44.947
X-24.706 Y-43.637
X-25.023 Y-42.333
X-25.367 Y-41.036
X-25.737 Y-39.746
X-26.133 Y-38.463
X-26.554 Y-37.189
X-27.002 Y-35.924
X-27.475 Y-34.668
X-27.973 Y-33.421
X-28.496 Y-32.185
X-29.043 Y-30.96
X-29.615 Y-29.746
X-30.212 Y-28.543
X-30.834 Y-27.354
X-31.484 Y-26.18
X-32.168 Y-25.025
X-32.776 Y-24.09
X-33.253 Y-23.436
X-33.66 Y-22.938
X-33.67 Y-22.927
X-34.001 Y-22.611
X-34.372 Y-22.344
X-34.776 Y-22.131
X-35.206 Y-21.976
X-35.653 Y-21.882
X-36.109 Y-21.85
X-39.451
G3 X-39.934 Y-21.964 I0.044 J-1.269
G1 X-40.063 Y-22.023 Z31.018
X-40.191 Y-22.081 Z31.042
X-40.316 Y-22.138 Z31.081
X-40.435 Y-22.192 Z31.136
X-40.549 Y-22.244 Z31.205
X-40.654 Y-22.292 Z31.287
X-40.751 Y-22.336 Z31.382
X-40.837 Y-22.375 Z31.488
X-40.912 Y-22.41 Z31.604
X-40.975 Y-22.438 Z31.729
X-41.025 Y-22.461 Z31.861
X-41.061 Y-22.477 Z31.997
X-41.082 Y-22.487 Z32.138
X-41.089 Y-22.49 Z32.28
G0 Z48
X-43.48 Y-97.36
Z33.55
G1 Z32.28 F850
X-43.473 Y-97.364 Z32.138
X-43.453 Y-97.377 Z31.997
X-43.419 Y-97.397 Z31.861
X-43.372 Y-97.425 Z31.729
X-43.313 Y-97.46 Z31.604
X-43.242 Y-97.502 Z31.488
X-43.16 Y-97.551 Z31.382
X-43.069 Y-97.605 Z31.287
X-42.969 Y-97.664 Z31.205
X-42.862 Y-97.728 Z31.136
X-42.749 Y-97.795 Z31.081
X-42.631 Y-97.865 Z31.042
X-42.511 Y-97.937 Z31.018
X-42.388 Y-98.009 Z31.01
G3 X-41.91 Y-98.15 I0.514 J0.864
G1 X-38.867
X-38.384 Y-98.126
X-38.082 Y-98.094
X-37.766 Y-98.044
X-37.396 Y-97.964
X-37.021 Y-97.861
X-36.58 Y-97.715
X-36.137 Y-97.54
X-35.618 Y-97.302
X-35.099 Y-97.029
X-34.495 Y-96.669
X-33.893 Y-96.264
X-33.214 Y-95.752
X-32.491 Y-95.142
X-31.739 Y-94.434
X-30.921 Y-93.576
X-30.049 Y-92.556
X-29.233 Y-91.49
X-28.468 Y-90.387
X-27.749 Y-89.254
X-27.073 Y-88.094
X-26.437 Y-86.912
X-25.839 Y-85.711
X-25.275 Y-84.493
X-24.745 Y-83.26
X-24.247 Y-82.014
X-23.779 Y-80.755
X-23.342 Y-79.486
X-22.935 Y-78.208
X-22.555 Y-76.92
X-22.205 Y-75.625
X-21.947 Y-74.586
X-21.893 Y-74.324
X-21.861 Y-74.059
X-21.85 Y-73.792
Y-47.635
X-21.917 Y-46.294
X-21.956 Y-45.624
X-22.071 Y-44.287
X-22.255 Y-42.958
X-22.495 Y-41.637
X-22.782 Y-40.326
X-23.109 Y-39.024
X-23.473 Y-37.732
X-23.869 Y-36.45
X-24.297 Y-35.178
X-24.753 Y-33.916
X-25.236 Y-32.663
X-25.746 Y-31.422
X-26.281 Y-30.191
X-26.842 Y-28.972
X-27.43 Y-27.765
X-28.045 Y-26.573
X-28.696 Y-25.399
X-29.322 Y-24.369
X-29.794 Y-23.682
X-30.223 Y-23.122
X-30.327 Y-23.001
X-30.661 Y-22.665
X-31.039 Y-22.38
X-31.453 Y-22.152
X-31.897 Y-21.985
X-32.359 Y-21.884
X-32.832 Y-21.85
X-36.109
G3 X-37.187 Y-23.713 I0.044 J-1.269
G1 X-24.242 Y-48.184
G3 X-21.85 Y-47.635 I1.123 J0.594
G1 Y-37.743
X-21.91 Y-36.537
X-22.002 Y-35.661
X-22.169 Y-34.615
X-22.438 Y-33.37
X-22.792 Y-32.075
X-23.206 Y-30.798
X-23.67 Y-29.539
X-24.178 Y-28.297
X-24.727 Y-27.072
X-25.32 Y-25.868
X-25.919 Y-24.777
X-26.396 Y-24.009
X-26.805 Y-23.423
X-27.047 Y-23.115
X-27.382 Y-22.747
X-27.77 Y-22.434
X-28.2 Y-22.183
X-28.663 Y-21.999
X-29.148 Y-21.888
X-29.644 Y-21.85
X-32.832
G3 X-33.846 Y-23.821 I0.044 J-1.269
G1 X-24.178 Y-38.4
G3 X-21.85 Y-37.743 I1.058 J0.702
G1 Y-30.514
X-21.885 Y-29.81
X-21.951 Y-29.18
X-22.064 Y-28.474
X-22.237 Y-27.673
X-22.457 Y-26.867
X-22.731 Y-26.045
X-23.038 Y-25.266
X-23.346 Y-24.593
X-23.628 Y-24.057
X-23.926 Y-23.557
X-24.094 Y-23.308
X-24.377 Y-22.944
X-24.709 Y-22.624
X-25.081 Y-22.353
X-25.488 Y-22.136
X-25.921 Y-21.978
X-26.372 Y-21.882
X-26.832 Y-21.85
X-29.644
G3 X-30.553 Y-23.959 I0.044 J-1.269
G1 X-24.072 Y-31.309
G3 X-21.85 Y-30.514 I0.953 J0.84
G1 Y-25.568
X-21.874 Y-25.095
X-21.905 Y-24.796
X-21.951 Y-24.507
X-22.01 Y-24.236
X-22.089 Y-23.947
X-22.174 Y-23.691
X-22.205 Y-23.613
X-22.385 Y-23.239
X-22.62 Y-22.896
X-22.903 Y-22.591
X-23.228 Y-22.333
X-23.588 Y-22.125
X-23.975 Y-21.973
X-24.38 Y-21.881
X-24.794 Y-21.85
G3 X-25.801 Y-23.832 I0.044 J-1.269
G1 X-24.17 Y-26.236
G3 X-21.85 Y-25.568 I1.051 J0.713
G1 Y-23.362
X-21.858 Y-23.212
X-21.926 Y-22.9
X-22.057 Y-22.61
X-22.246 Y-22.353
X-22.484 Y-22.14
X-22.761 Y-21.981
X-23.064 Y-21.883
X-23.382 Y-21.85
G3 X-24.742 Y-23.699 I0.051 J-1.463
X-21.85 Y-23.362 I1.421 J0.389
G1 Y-23.095
X-21.87 Y-22.904
X-21.919 Y-22.714
X-22.003 Y-22.524
X-22.061 Y-22.427
X-22.132 Y-22.329
X-22.215 Y-22.236
X-22.317 Y-22.143
X-22.415 Y-22.071
X-22.512 Y-22.012
X-22.703 Y-21.927
X-22.893 Y-21.874
X-23.083 Y-21.851
X-23.273 Y-21.85
X-26.832
G3 X-27.314 Y-21.964 I0.044 J-1.269
G1 X-27.443 Y-22.023 Z31.018
X-27.571 Y-22.081 Z31.042
X-27.696 Y-22.138 Z31.081
X-27.816 Y-22.192 Z31.136
X-27.929 Y-22.244 Z31.205
X-28.035 Y-22.292 Z31.287
X-28.131 Y-22.336 Z31.382
X-28.218 Y-22.375 Z31.488
X-28.293 Y-22.41 Z31.604
X-28.355 Y-22.438 Z31.729
X-28.405 Y-22.461 Z31.861
X-28.441 Y-22.477 Z31.997
X-28.462 Y-22.487 Z32.138
X-28.47 Y-22.49 Z32.28
G0 Z48
X-40.437 Y-97.36
Z33.55
G1 Z32.28 F850
X-40.43 Y-97.364 Z32.138
X-40.41 Y-97.377 Z31.997
X-40.376 Y-97.397 Z31.861
X-40.329 Y-97.425 Z31.729
X-40.27 Y-97.46 Z31.604
X-40.199 Y-97.502 Z31.488
X-40.118 Y-97.551 Z31.382
X-40.026 Y-97.605 Z31.287
X-39.927 Y-97.664 Z31.205
X-39.819 Y-97.728 Z31.136
X-39.706 Y-97.795 Z31.081
X-39.589 Y-97.865 Z31.042
X-39.468 Y-97.937 Z31.018
X-39.346 Y-98.009 Z31.01
G3 X-38.867 Y-98.15 I0.514 J0.864
G1 X-35.615
X-35.209 Y-98.13
X-34.917 Y-98.099
X-34.601 Y-98.049
X-34.241 Y-97.971
X-33.868 Y-97.869
X-33.437 Y-97.726
X-33.001 Y-97.554
X-32.493 Y-97.321
X-31.985 Y-97.054
X-31.393 Y-96.701
X-30.805 Y-96.305
X-30.147 Y-95.808
X-29.438 Y-95.211
X-28.711 Y-94.526
X-27.92 Y-93.697
X-27.073 Y-92.706
X-26.257 Y-91.64
X-25.495 Y-90.536
X-24.78 Y-89.4
X-24.11 Y-88.237
X-23.48 Y-87.052
X-22.888 Y-85.848
X-22.332 Y-84.626
X-22.11 Y-84.1
X-21.966 Y-83.685
X-21.879 Y-83.255
X-21.85 Y-82.817
Y-73.792
G3 X-24.237 Y-73.232 I-1.269 J-0.044
G1 X-36.688 Y-96.277
G3 X-35.615 Y-98.15 I1.117 J-0.604
G1 X-32.401
X-32.071 Y-98.133
X-31.787 Y-98.104
X-31.472 Y-98.053
X-31.122 Y-97.978
X-30.749 Y-97.876
X-30.331 Y-97.737
X-29.896 Y-97.565
X-29.404 Y-97.34
X-28.898 Y-97.074
X-28.327 Y-96.733
X-27.74 Y-96.338
X-27.102 Y-95.857
X-26.405 Y-95.269
X-25.696 Y-94.602
X-24.928 Y-93.796
X-24.105 Y-92.834
X-23.29 Y-91.769
X-22.529 Y-90.663
X-22.352 Y-90.379
X-22.135 Y-89.973
X-21.978 Y-89.54
X-21.882 Y-89.09
X-21.85 Y-88.63
Y-82.817
G3 X-24.18 Y-82.162 I-1.269 J-0.044
G1 X-33.418 Y-96.182
G3 X-32.401 Y-98.15 I1.06 J-0.699
G1 X-29.359
X-28.958 Y-98.13
X-28.682 Y-98.101
X-28.366 Y-98.051
X-28.026 Y-97.977
X-27.653 Y-97.875
X-27.248 Y-97.74
X-26.812 Y-97.569
X-26.336 Y-97.35
X-25.83 Y-97.085
X-25.278 Y-96.755
X-24.691 Y-96.36
X-24.072 Y-95.893
X-23.388 Y-95.316
X-22.782 Y-94.746
X-22.762 Y-94.725
X-22.444 Y-94.336
X-22.189 Y-93.903
X-22.002 Y-93.437
X-21.888 Y-92.948
X-21.85 Y-92.447
Y-88.63
G3 X-24.133 Y-87.909 I-1.269 J-0.044
G1 X-30.328 Y-96.116
G3 X-29.359 Y-98.15 I1.014 J-0.765
G1 X-26.316
X-25.878 Y-98.128
X-25.607 Y-98.1
X-25.292 Y-98.049
X-24.959 Y-97.977
X-24.586 Y-97.876
X-24.217 Y-97.753
X-23.879 Y-97.619
X-23.534 Y-97.461
X-23.12 Y-97.201
X-22.752 Y-96.88
X-22.438 Y-96.507
X-22.185 Y-96.089
X-22.001 Y-95.636
X-21.888 Y-95.161
X-21.85 Y-94.674
G3 X-23.838 Y-93.671 I-1.269 J-0.044
G1 X-26.99 Y-95.833
G3 X-26.316 Y-98.15 I0.718 J-1.047
G1 X-23.73
X-23.559 Y-98.141
X-23.217 Y-98.073
X-22.892 Y-97.944
X-22.597 Y-97.758
X-22.34 Y-97.521
X-22.131 Y-97.241
X-21.977 Y-96.928
X-21.882 Y-96.592
X-21.85 Y-96.244
G3 X-24.151 Y-94.552 I-1.82 J-0.064
X-23.73 Y-98.15 I0.485 J-1.767
G1 X-23.273
X-23.083 Y-98.149
X-22.893 Y-98.126
X-22.703 Y-98.073
X-22.512 Y-97.988
X-22.415 Y-97.929
X-22.317 Y-97.857
X-22.215 Y-97.764
X-22.132 Y-97.671
X-22.061 Y-97.573
X-22.003 Y-97.476
X-21.919 Y-97.286
X-21.87 Y-97.096
X-21.85 Y-96.905
Y-92.447
X-21.864 Y-92.363 Z31.018
X-21.877 Y-92.281 Z31.04
X-21.889 Y-92.204 Z31.076
X-21.901 Y-92.134 Z31.125
X-21.922 Y-92.076 Z31.186
X-21.94 Y-92.029 Z31.258
X-21.953 Y-91.994 Z31.337
X-21.961 Y-91.972 Z31.421
X-21.964 Y-91.965 Z31.509
G0 Z48
X-84.129 Y-58.039
Z34.78
G1 Z33.51 F850
G3 X-95.538 Y-61.961 Z32.848 I-5.705 J-1.961 F283.3
X-84.129 Y-58.039 Z32.186 I5.705 J1.961
X-95.538 Y-61.961 Z31.525 I-5.705 J-1.961
X-84.129 Y-58.039 Z30.863 I5.705 J1.961
X-95.538 Y-61.961 Z30.201 I-5.705 J-1.961
X-84.129 Y-58.039 Z29.539 I5.705 J1.961
X-95.538 Y-61.961 Z28.877 I-5.705 J-1.961
X-84.129 Y-58.039 Z28.216 I5.705 J1.961
X-95.538 Y-61.961 Z27.554 I-5.705 J-1.961
X-84.129 Y-58.039 Z26.892 I5.705 J1.961
X-95.538 Y-61.961 Z26.23 I-5.705 J-1.961
X-84.129 Y-58.039 Z25.568 I5.705 J1.961
X-95.538 Y-61.961 Z24.907 I-5.705 J-1.961
X-84.129 Y-58.039 Z24.245 I5.705 J1.961
X-95.538 Y-61.961 Z23.583 I-5.705 J-1.961
X-84.129 Y-58.039 Z22.921 I5.705 J1.961
X-95.538 Y-61.961 Z22.259 I-5.705 J-1.961
X-84.129 Y-58.039 Z21.597 I5.705 J1.961
X-95.538 Y-61.961 Z20.936 I-5.705 J-1.961
X-84.129 Y-58.039 Z20.274 I5.705 J1.961
X-95.538 Y-61.961 Z19.612 I-5.705 J-1.961
X-83.801 Y-60 Z19.02 I5.705 J1.961
X-95.866 I-6.033
X-84.077 Y-61.805 I6.032
X-83.801 Y-60 I-5.756 J1.805
G1 X-83.797 Y-59.664 F850
X-83.669 Y-58.328
X-83.646 Y-58.248
X-83.61 Y-58.102
X-83.584 Y-57.954
X-83.566 Y-57.801
X-83.556 Y-57.635
X-83.554 Y-57.457
X-83.563 Y-57.267
X-83.583 Y-57.065
X-83.616 Y-56.853
X-83.663 Y-56.632
X-83.725 Y-56.402
X-83.803 Y-56.165
X-83.897 Y-55.923
X-84.009 Y-55.676
X-84.139 Y-55.426
X-84.287 Y-55.175
X-84.454 Y-54.925
X-84.64 Y-54.676
X-84.845 Y-54.431
X-85.069 Y-54.192
X-85.311 Y-53.959
X-85.57 Y-53.735
X-85.848 Y-53.521
X-86.141 Y-53.318
X-86.451 Y-53.129
X-86.775 Y-52.954
X-87.114 Y-52.795
X-87.465 Y-52.652
X-87.827 Y-52.527
X-88.2 Y-52.421
X-88.581 Y-52.334
X-88.971 Y-52.267
X-89.366 Y-52.222
X-89.766 Y-52.197
X-90.17 Y-52.195
X-90.575 Y-52.214
X-90.981 Y-52.255
X-91.387 Y-52.319
X-91.789 Y-52.405
X-92.189 Y-52.513
X-92.583 Y-52.643
X-92.971 Y-52.795
X-93.351 Y-52.968
X-93.722 Y-53.162
X-94.083 Y-53.376
X-94.432 Y-53.61
X-94.769 Y-53.863
X-95.093 Y-54.134
X-95.401 Y-54.423
X-95.694 Y-54.729
X-95.97 Y-55.05
X-96.229 Y-55.386
X-96.469 Y-55.737
X-96.69 Y-56.1
X-96.892 Y-56.474
X-97.072 Y-56.86
X-97.232 Y-57.255
X-97.37 Y-57.658
X-97.487 Y-58.068
X-97.58 Y-58.484
X-97.652 Y-58.905
X-97.7 Y-59.329
X-97.725 Y-59.756
X-97.727 Y-60.183
X-97.706 Y-60.61
X-97.662 Y-61.035
X-97.595 Y-61.457
X-97.505 Y-61.875
X-97.392 Y-62.288
X-97.258 Y-62.694
X-97.101 Y-63.092
X-96.923 Y-63.481
X-96.724 Y-63.86
X-96.505 Y-64.228
X-96.267 Y-64.583
X-96.009 Y-64.925
X-95.733 Y-65.252
X-95.44 Y-65.564
X-95.131 Y-65.86
X-94.805 Y-66.138
X-94.465 Y-66.399
X-94.112 Y-66.64
X-93.746 Y-66.862
X-93.368 Y-67.064
X-92.98 Y-67.245
X-92.583 Y-67.405
X-92.178 Y-67.544
X-91.766 Y-67.66
X-91.348 Y-67.753
X-90.925 Y-67.824
X-90.5 Y-67.871
X-90.072 Y-67.896
X-89.644 Y-67.897
X-89.216 Y-67.875
X-88.79 Y-67.83
X-88.367 Y-67.762
X-87.949 Y-67.672
X-87.536 Y-67.558
X-87.13 Y-67.423
X-86.731 Y-67.265
X-86.342 Y-67.086
X-85.963 Y-66.887
X-85.596 Y-66.667
X-85.241 Y-66.427
X-84.899 Y-66.169
X-84.572 Y-65.892
X-84.26 Y-65.599
X-83.965 Y-65.288
X-83.687 Y-64.962
X-83.427 Y-64.622
X-83.186 Y-64.268
X-82.964 Y-63.901
X-82.763 Y-63.523
X-82.453 Y-62.857
X-82.12 Y-62.026
X-81.894 Y-61.359
X-81.728 Y-60.765
X-81.609 Y-60.226
X-81.524 Y-59.712
X-81.47 Y-59.223
X-81.443 Y-58.753
Y-58.296
X-81.466 Y-57.849
X-81.514 Y-57.411
X-81.584 Y-56.98
X-81.677 Y-56.556
X-81.792 Y-56.139
X-81.929 Y-55.729
X-82.089 Y-55.327
X-82.271 Y-54.933
X-82.475 Y-54.548
X-82.701 Y-54.171
X-82.949 Y-53.805
X-83.218 Y-53.451
X-83.508 Y-53.108
X-83.82 Y-52.779
X-84.151 Y-52.465
X-84.502 Y-52.167
X-84.872 Y-51.885
X-85.259 Y-51.622
X-85.664 Y-51.379
X-86.084 Y-51.156
X-86.519 Y-50.955
X-86.968 Y-50.776
X-87.429 Y-50.62
X-87.901 Y-50.489
X-88.383 Y-50.383
X-88.873 Y-50.303
X-89.369 Y-50.249
X-89.871 Y-50.222
X-90.376 Y-50.223
X-90.883 Y-50.25
X-91.391 Y-50.306
X-91.897 Y-50.389
X-92.399 Y-50.5
X-92.898 Y-50.639
X-93.389 Y-50.805
X-93.873 Y-50.998
X-94.346 Y-51.217
X-94.809 Y-51.463
X-95.259 Y-51.734
X-95.694 Y-52.03
X-96.113 Y-52.35
X-96.516 Y-52.692
X-96.9 Y-53.057
X-97.264 Y-53.442
X-97.607 Y-53.848
X-97.929 Y-54.272
X-98.227 Y-54.713
X-98.501 Y-55.17
X-98.75 Y-55.642
X-98.974 Y-56.127
X-99.171 Y-56.624
X-99.341 Y-57.132
X-99.483 Y-57.648
X-99.597 Y-58.172
X-99.683 Y-58.701
X-99.74 Y-59.234
X-99.768 Y-59.77
X-99.767 Y-60.307
X-99.737 Y-60.844
X-99.677 Y-61.378
X-99.589 Y-61.908
X-99.472 Y-62.433
X-99.327 Y-62.951
X-99.154 Y-63.461
X-98.953 Y-63.96
X-98.726 Y-64.448
X-98.473 Y-64.923
X-98.194 Y-65.384
X-97.89 Y-65.829
X-97.563 Y-66.256
X-97.213 Y-66.666
X-96.842 Y-67.056
X-96.449 Y-67.425
X-96.037 Y-67.773
X-95.607 Y-68.098
X-95.16 Y-68.399
X-94.698 Y-68.675
X-94.221 Y-68.926
X-93.731 Y-69.151
X-93.229 Y-69.349
X-92.718 Y-69.519
X-92.198 Y-69.661
X-91.671 Y-69.775
X-91.138 Y-69.86
X-90.602 Y-69.917
X-90.064 Y-69.944
X-89.524 Y-69.942
X-88.986 Y-69.91
X-88.45 Y-69.85
X-87.918 Y-69.761
X-87.392 Y-69.643
X-86.873 Y-69.496
X-86.363 Y-69.322
X-85.863 Y-69.12
X-85.374 Y-68.891
X-84.899 Y-68.637
X-84.438 Y-68.357
X-83.993 Y-68.052
X-83.566 Y-67.724
X-83.156 Y-67.373
X-82.739 Y-66.974
X-82.335 Y-66.543
X-81.922 Y-66.052
X-81.52 Y-65.517
X-81.141 Y-64.953
X-80.795 Y-64.37
X-80.483 Y-63.775
X-80.207 Y-63.171
X-79.969 Y-62.563
X-79.767 Y-61.955
X-79.602 Y-61.347
X-79.472 Y-60.742
X-79.377 Y-60.141
X-79.316 Y-59.546
X-79.287 Y-58.956
X-79.29 Y-58.373
X-79.325 Y-57.795
X-79.39 Y-57.225
X-79.486 Y-56.662
X-79.611 Y-56.107
X-79.766 Y-55.562
X-79.951 Y-55.026
X-80.163 Y-54.501
X-80.405 Y-53.988
X-80.674 Y-53.488
X-80.97 Y-53.003
X-81.293 Y-52.533
X-81.642 Y-52.079
X-82.017 Y-51.644
X-82.416 Y-51.228
X-82.839 Y-50.832
X-83.285 Y-50.458
X-83.753 Y-50.108
X-84.242 Y-49.781
X-84.749 Y-49.48
X-85.275 Y-49.206
X-85.818 Y-48.959
X-86.376 Y-48.742
X-86.948 Y-48.553
X-87.533 Y-48.396
X-88.128 Y-48.269
X-88.731 Y-48.175
X-89.342 Y-48.113
X-89.958 Y-48.084
X-90.578 Y-48.088
X-91.199 Y-48.127
X-91.82 Y-48.199
X-92.438 Y-48.305
X-93.051 Y-48.445
X-93.658 Y-48.619
X-94.257 Y-48.826
X-94.845 Y-49.065
X-95.421 Y-49.337
X-95.983 Y-49.641
X-96.529 Y-49.975
X-97.057 Y-50.34
X-97.566 Y-50.733
X-98.054 Y-51.154
X-98.518 Y-51.602
X-98.959 Y-52.075
X-99.374 Y-52.572
X-99.762 Y-53.091
X-100.122 Y-53.631
X-100.452 Y-54.191
X-100.752 Y-54.768
X-101.02 Y-55.362
X-101.256 Y-55.969
X-101.459 Y-56.59
X-101.628 Y-57.22
X-101.763 Y-57.859
X-101.863 Y-58.506
X-101.928 Y-59.157
X-101.957 Y-59.81
X-101.951 Y-60.465
X-101.91 Y-61.119
X-101.833 Y-61.77
X-101.72 Y-62.416
X-101.573 Y-63.055
X-101.392 Y-63.686
X-101.176 Y-64.306
X-100.928 Y-64.913
X-100.646 Y-65.507
X-100.333 Y-66.084
X-99.989 Y-66.644
X-99.615 Y-67.184
X-99.212 Y-67.703
X-98.781 Y-68.2
X-98.324 Y-68.672
X-97.843 Y-69.12
X-97.337 Y-69.54
X-96.81 Y-69.933
X-96.262 Y-70.296
X-95.694 Y-70.63
X-95.11 Y-70.932
X-94.51 Y-71.202
X-93.897 Y-71.439
X-93.271 Y-71.642
X-92.635 Y-71.812
X-91.991 Y-71.946
X-91.341 Y-72.046
X-90.686 Y-72.11
X-90.028 Y-72.138
X-89.37 Y-72.131
X-88.714 Y-72.088
X-88.06 Y-72.01
X-87.412 Y-71.896
X-86.771 Y-71.747
X-86.139 Y-71.564
X-85.518 Y-71.347
X-84.909 Y-71.096
X-84.31 Y-70.811
X-83.721 Y-70.49
X-83.139 Y-70.131
X-82.564 Y-69.731
X-82.002 Y-69.293
X-81.456 Y-68.818
X-80.93 Y-68.308
X-80.426 Y-67.764
X-79.949 Y-67.188
X-79.501 Y-66.583
X-79.085 Y-65.954
X-78.704 Y-65.303
X-78.359 Y-64.634
X-78.054 Y-63.952
X-77.787 Y-63.258
X-77.56 Y-62.556
X-77.373 Y-61.849
X-77.226 Y-61.138
X-77.118 Y-60.425
X-77.05 Y-59.712
X-77.02 Y-59.001
X-77.029 Y-58.293
X-77.076 Y-57.59
X-77.161 Y-56.892
X-77.283 Y-56.203
X-77.442 Y-55.523
X-77.638 Y-54.853
X-77.869 Y-54.195
X-78.135 Y-53.551
X-78.436 Y-52.923
X-78.771 Y-52.311
X-79.139 Y-51.717
X-79.539 Y-51.143
X-79.971 Y-50.591
X-80.433 Y-50.062
X-80.924 Y-49.557
X-81.443 Y-49.079
X-81.989 Y-48.628
X-82.561 Y-48.205
X-83.156 Y-47.814
X-83.774 Y-47.453
X-84.413 Y-47.126
X-85.071 Y-46.832
X-85.747 Y-46.574
X-86.438 Y-46.352
X-87.142 Y-46.167
X-87.859 Y-46.02
X-88.585 Y-45.912
X-89.318 Y-45.843
X-90.057 Y-45.813
X-90.799 Y-45.824
X-91.542 Y-45.875
X-92.283 Y-45.966
X-93.02 Y-46.098
X-93.752 Y-46.271
X-94.475 Y-46.483
X-95.187 Y-46.735
X-95.886 Y-47.026
X-96.571 Y-47.355
X-97.238 Y-47.721
X-97.885 Y-48.124
X-98.512 Y-48.563
X-99.114 Y-49.036
X-99.691 Y-49.541
X-100.241 Y-50.078
X-100.762 Y-50.645
X-101.252 Y-51.24
X-101.709 Y-51.862
X-102.133 Y-52.508
X-102.521 Y-53.177
X-102.873 Y-53.867
X-103.188 Y-54.575
X-103.463 Y-55.3
X-103.7 Y-56.04
X-103.896 Y-56.792
X-104.051 Y-57.554
X-104.164 Y-58.324
X-104.236 Y-59.099
X-104.266 Y-59.878
X-104.253 Y-60.657
X-104.198 Y-61.435
X-104.101 Y-62.209
X-103.962 Y-62.977
X-103.782 Y-63.737
X-103.561 Y-64.486
X-103.299 Y-65.222
X-102.998 Y-65.943
X-102.658 Y-66.647
X-102.28 Y-67.331
X-101.866 Y-67.994
X-101.416 Y-68.634
X-100.932 Y-69.249
X-100.415 Y-69.836
X-99.868 Y-70.395
X-99.29 Y-70.923
X-98.685 Y-71.42
X-98.054 Y-71.883
X-97.399 Y-72.311
X-96.721 Y-72.703
X-96.023 Y-73.057
X-95.306 Y-73.374
X-94.574 Y-73.651
X-93.828 Y-73.888
X-93.069 Y-74.084
X-92.302 Y-74.239
X-91.527 Y-74.352
X-90.746 Y-74.422
X-89.964 Y-74.451
X-89.18 Y-74.437
X-88.399 Y-74.38
X-87.622 Y-74.281
X-86.85 Y-74.141
X-86.086 Y-73.958
X-85.328 Y-73.732
X-84.578 Y-73.464
X-83.837 Y-73.153
X-83.106 Y-72.799
X-82.389 Y-72.401
X-81.687 Y-71.961
X-81.004 Y-71.479
X-80.342 Y-70.955
X-79.704 Y-70.393
X-79.093 Y-69.792
X-78.514 Y-69.157
X-77.967 Y-68.488
X-77.457 Y-67.79
X-76.985 Y-67.065
X-76.554 Y-66.316
X-76.165 Y-65.546
X-75.819 Y-64.759
X-75.517 Y-63.956
X-75.259 Y-63.141
X-75.048 Y-62.316
X-74.881 Y-61.485
X-74.761 Y-60.648
X-74.686 Y-59.809
X-74.657 Y-58.97
X-74.674 Y-58.133
X-74.736 Y-57.301
X-74.842 Y-56.474
X-74.993 Y-55.657
X-75.188 Y-54.849
X-75.426 Y-54.055
X-75.706 Y-53.274
X-76.028 Y-52.511
X-76.392 Y-51.765
X-76.795 Y-51.041
X-77.237 Y-50.338
X-77.717 Y-49.66
X-78.235 Y-49.008
X-78.787 Y-48.384
X-79.374 Y-47.789
X-79.993 Y-47.226
X-80.644 Y-46.696
X-81.324 Y-46.201
X-82.031 Y-45.743
X-82.765 Y-45.322
X-83.522 Y-44.941
X-84.301 Y-44.6
X-85.1 Y-44.301
X-85.916 Y-44.045
X-86.747 Y-43.833
X-87.592 Y-43.666
X-88.446 Y-43.545
X-89.309 Y-43.469
X-90.176 Y-43.441
X-91.047 Y-43.46
X-91.917 Y-43.526
X-92.785 Y-43.639
X-93.648 Y-43.8
X-94.503 Y-44.008
X-95.348 Y-44.262
X-96.179 Y-44.563
X-96.995 Y-44.908
X-97.792 Y-45.299
X-98.569 Y-45.733
X-99.322 Y-46.209
X-100.05 Y-46.726
X-100.75 Y-47.283
X-101.42 Y-47.878
X-102.057 Y-48.51
X-102.66 Y-49.176
X-103.227 Y-49.874
X-103.756 Y-50.603
X-104.245 Y-51.361
X-104.693 Y-52.145
X-105.098 Y-52.953
X-105.459 Y-53.782
X-105.775 Y-54.63
X-106.044 Y-55.495
X-106.267 Y-56.374
X-106.441 Y-57.265
X-106.568 Y-58.164
X-106.645 Y-59.069
X-106.673 Y-59.977
X-106.652 Y-60.887
X-106.582 Y-61.794
X-106.462 Y-62.696
X-106.294 Y-63.591
X-106.077 Y-64.476
X-105.813 Y-65.348
X-105.501 Y-66.204
X-105.144 Y-67.043
X-104.742 Y-67.861
X-104.295 Y-68.657
X-103.806 Y-69.427
X-103.276 Y-70.17
X-102.707 Y-70.883
X-102.099 Y-71.564
X-101.456 Y-72.212
X-100.778 Y-72.824
X-100.068 Y-73.398
X-99.327 Y-73.933
X-98.559 Y-74.427
X-97.765 Y-74.879
X-96.948 Y-75.287
X-96.109 Y-75.65
X-95.252 Y-75.967
X-94.38 Y-76.237
X-93.493 Y-76.46
X-92.596 Y-76.634
X-91.691 Y-76.76
X-90.78 Y-76.836
X-89.866 Y-76.863
X-88.951 Y-76.84
X-88.036 Y-76.767
X-87.125 Y-76.645
X-86.218 Y-76.473
X-85.317 Y-76.25
X-84.425 Y-75.978
X-83.545 Y-75.656
X-82.677 Y-75.285
X-81.826 Y-74.864
X-80.993 Y-74.395
X-80.181 Y-73.878
X-79.394 Y-73.314
X-78.633 Y-72.705
X-77.904 Y-72.052
X-77.208 Y-71.358
X-76.549 Y-70.625
X-75.929 Y-69.855
X-75.351 Y-69.053
X-74.817 Y-68.22
X-74.33 Y-67.359
X-73.89 Y-66.474
X-73.5 Y-65.568
X-73.159 Y-64.644
X-72.87 Y-63.705
X-72.633 Y-62.753
X-72.448 Y-61.793
X-72.316 Y-60.825
X-72.236 Y-59.855
X-72.209 Y-58.883
X-72.235 Y-57.913
X-72.314 Y-56.948
X-72.444 Y-55.99
X-72.626 Y-55.041
X-72.859 Y-54.105
X-73.142 Y-53.183
X-73.474 Y-52.278
X-73.855 Y-51.393
X-74.284 Y-50.529
X-74.758 Y-49.69
X-75.278 Y-48.877
X-75.842 Y-48.092
X-76.448 Y-47.339
X-77.095 Y-46.618
X-77.782 Y-45.933
X-78.505 Y-45.285
X-79.264 Y-44.675
X-80.057 Y-44.107
X-80.881 Y-43.581
X-81.734 Y-43.099
X-82.614 Y-42.664
X-83.519 Y-42.276
X-84.445 Y-41.936
X-85.391 Y-41.647
X-86.354 Y-41.409
X-87.331 Y-41.223
X-88.319 Y-41.089
X-89.315 Y-41.009
X-90.316 Y-40.984
X-91.32 Y-41.012
X-92.323 Y-41.095
X-93.322 Y-41.233
X-94.314 Y-41.425
X-95.297 Y-41.671
X-96.267 Y-41.971
X-97.222 Y-42.324
X-98.157 Y-42.728
X-99.071 Y-43.184
X-99.961 Y-43.689
X-100.823 Y-44.243
X-101.655 Y-44.843
X-102.455 Y-45.489
X-103.22 Y-46.178
X-103.947 Y-46.908
X-104.634 Y-47.678
X-105.279 Y-48.485
X-105.881 Y-49.326
X-106.436 Y-50.2
X-106.944 Y-51.104
X-107.402 Y-52.034
X-107.81 Y-52.989
X-108.166 Y-53.966
X-108.468 Y-54.961
X-108.716 Y-55.971
X-108.91 Y-56.994
X-109.047 Y-58.027
X-109.129 Y-59.066
X-109.154 Y-60.109
X-109.122 Y-61.152
X-109.034 Y-62.192
X-108.889 Y-63.227
X-108.689 Y-64.252
X-108.433 Y-65.265
X-108.123 Y-66.264
X-107.759 Y-67.244
X-107.342 Y-68.204
X-106.874 Y-69.139
X-106.355 Y-70.048
X-105.788 Y-70.928
X-105.174 Y-71.776
X-104.515 Y-72.59
X-103.812 Y-73.367
X-103.069 Y-74.104
X-102.286 Y-74.801
X-101.467 Y-75.454
X-100.613 Y-76.061
X-99.728 Y-76.622
X-98.813 Y-77.134
X-97.872 Y-77.595
X-96.907 Y-78.005
X-95.922 Y-78.362
X-94.918 Y-78.666
X-93.899 Y-78.914
X-92.868 Y-79.107
X-91.828 Y-79.243
X-90.78 Y-79.324
X-89.728 Y-79.347
X-88.675 Y-79.313
X-87.622 Y-79.222
X-86.572 Y-79.074
X-85.528 Y-78.868
X-84.493 Y-78.605
X-83.468 Y-78.284
X-82.458 Y-77.907
X-81.465 Y-77.474
X-80.492 Y-76.984
X-79.543 Y-76.441
X-78.619 Y-75.843
X-77.726 Y-75.194
X-76.867 Y-74.495
X-76.043 Y-73.748
X-75.26 Y-72.955
X-74.519 Y-72.119
X-73.823 Y-71.243
X-73.175 Y-70.33
X-72.578 Y-69.383
X-72.033 Y-68.404
X-71.541 Y-67.399
X-71.106 Y-66.369
X-70.727 Y-65.317
X-70.406 Y-64.249
X-70.144 Y-63.165
X-69.942 Y-62.071
X-69.799 Y-60.969
X-69.716 Y-59.863
X-69.694 Y-58.755
X-69.731 Y-57.649
X-69.828 Y-56.548
X-69.985 Y-55.455
X-70.2 Y-54.373
X-70.474 Y-53.305
X-70.805 Y-52.253
X-71.192 Y-51.221
X-71.635 Y-50.212
X-72.131 Y-49.228
X-72.681 Y-48.272
X-73.282 Y-47.347
X-73.933 Y-46.455
X-74.632 Y-45.598
X-75.377 Y-44.78
X-76.167 Y-44.002
X-76.999 Y-43.267
X-77.87 Y-42.578
X-78.78 Y-41.935
X-79.724 Y-41.342
X-80.702 Y-40.799
X-81.709 Y-40.31
X-82.743 Y-39.874
X-83.802 Y-39.495
X-84.882 Y-39.173
X-85.98 Y-38.91
X-87.093 Y-38.705
X-88.218 Y-38.562
X-89.351 Y-38.479
X-90.49 Y-38.458
X-91.631 Y-38.498
X-92.77 Y-38.601
X-93.904 Y-38.765
X-95.03 Y-38.991
X-96.143 Y-39.279
X-97.242 Y-39.626
X-98.322 Y-40.034
X-99.38 Y-40.501
X-100.413 Y-41.024
X-101.418 Y-41.604
X-102.391 Y-42.239
X-103.33 Y-42.926
X-104.231 Y-43.665
X-105.092 Y-44.452
X-105.911 Y-45.285
X-106.683 Y-46.163
X-107.408 Y-47.082
X-108.082 Y-48.04
X-108.705 Y-49.034
X-109.273 Y-50.062
X-109.784 Y-51.12
X-110.239 Y-52.204
X-110.634 Y-53.313
X-110.968 Y-54.442
X-111.241 Y-55.588
X-111.452 Y-56.748
X-111.599 Y-57.919
X-111.683 Y-59.096
X-111.703 Y-60.277
X-111.659 Y-61.457
X-111.551 Y-62.634
X-111.379 Y-63.804
X-111.144 Y-64.963
X-110.847 Y-66.108
X-110.487 Y-67.236
X-110.067 Y-68.343
X-109.588 Y-69.426
X-109.05 Y-70.481
X-108.456 Y-71.506
X-107.807 Y-72.498
X-107.105 Y-73.453
X-106.352 Y-74.369
X-105.551 Y-75.242
X-104.703 Y-76.071
X-103.812 Y-76.854
X-102.879 Y-77.586
X-101.908 Y-78.267
X-100.901 Y-78.895
X-99.862 Y-79.467
X-98.793 Y-79.982
X-97.697 Y-80.438
X-96.579 Y-80.835
X-95.439 Y-81.17
X-94.283 Y-81.443
X-93.113 Y-81.654
X-91.932 Y-81.801
X-90.743 Y-81.883
X-89.549 Y-81.901
X-88.353 Y-81.855
X-87.159 Y-81.743
X-85.969 Y-81.566
X-84.786 Y-81.324
X-83.615 Y-81.017
X-82.457 Y-80.647
X-81.318 Y-80.212
X-80.199 Y-79.714
X-79.104 Y-79.154
X-78.038 Y-78.533
X-77.004 Y-77.854
X-76.004 Y-77.116
X-75.043 Y-76.324
X-74.125 Y-75.478
X-73.251 Y-74.582
X-72.426 Y-73.638
X-71.653 Y-72.65
X-70.933 Y-71.621
X-70.271 Y-70.553
X-69.666 Y-69.451
X-69.123 Y-68.318
X-68.642 Y-67.158
X-68.225 Y-65.974
X-67.873 Y-64.771
X-67.587 Y-63.551
X-67.368 Y-62.319
X-67.216 Y-61.078
X-67.132 Y-59.832
X-67.115 Y-58.584
X-67.166 Y-57.339
X-67.284 Y-56.099
X-67.469 Y-54.868
X-67.72 Y-53.65
X-68.037 Y-52.447
X-68.419 Y-51.264
X-68.864 Y-50.103
X-69.371 Y-48.968
X-69.94 Y-47.862
X-70.567 Y-46.788
X-71.253 Y-45.749
X-71.994 Y-44.748
X-72.789 Y-43.788
X-73.636 Y-42.871
X-74.532 Y-42.001
X-75.475 Y-41.179
X-76.463 Y-40.409
X-77.493 Y-39.692
X-78.561 Y-39.031
X-79.666 Y-38.428
X-80.803 Y-37.885
X-81.971 Y-37.404
X-83.165 Y-36.985
X-84.382 Y-36.632
X-85.619 Y-36.344
X-86.872 Y-36.123
X-88.138 Y-35.97
X-89.412 Y-35.886
X-90.691 Y-35.872
X-91.972 Y-35.926
X-93.25 Y-36.05
X-94.522 Y-36.244
X-95.784 Y-36.506
X-97.031 Y-36.838
X-98.261 Y-37.237
X-99.47 Y-37.702
X-100.653 Y-38.234
X-101.807 Y-38.829
X-102.929 Y-39.488
X-104.014 Y-40.207
X-105.061 Y-40.984
X-106.065 Y-41.819
X-107.024 Y-42.707
X-107.934 Y-43.648
X-108.793 Y-44.637
X-109.597 Y-45.672
X-110.345 Y-46.751
X-111.034 Y-47.869
X-111.662 Y-49.024
X-112.227 Y-50.212
X-112.727 Y-51.43
X-113.16 Y-52.675
X-113.526 Y-53.941
X-113.822 Y-55.227
X-114.049 Y-56.527
X-114.205 Y-57.838
X-114.289 Y-59.157
X-114.302 Y-60.478
X-114.244 Y-61.799
X-114.114 Y-63.116
X-113.912 Y-64.424
X-113.64 Y-65.719
X-113.298 Y-66.998
X-112.887 Y-68.258
X-112.408 Y-69.493
X-111.863 Y-70.701
X-111.253 Y-71.878
X-110.58 Y-73.02
X-109.846 Y-74.124
X-109.053 Y-75.188
X-108.204 Y-76.206
X-107.3 Y-77.178
X-106.345 Y-78.099
X-105.341 Y-78.967
X-104.292 Y-79.779
X-103.2 Y-80.534
X-102.069 Y-81.228
X-100.901 Y-81.86
X-99.701 Y-82.428
X-98.471 Y-82.93
X-97.215 Y-83.365
X-95.937 Y-83.732
X-94.641 Y-84.029
X-93.328 Y-84.255
X-92.004 Y-84.41
X-90.671 Y-84.493
X-89.334 Y-84.504
X-87.995 Y-84.442
X-86.659 Y-84.308
X-85.333 Y-84.101
X-84.02 Y-83.824
X-82.724 Y-83.475
X-81.448 Y-83.058
X-80.197 Y-82.573
X-78.973 Y-82.023
X-77.78 Y-81.407
X-76.621 Y-80.73
X-75.5 Y-79.992
X-74.419 Y-79.197
X-73.381 Y-78.345
X-72.39 Y-77.441
X-71.447 Y-76.486
X-70.555 Y-75.483
X-69.717 Y-74.435
X-68.934 Y-73.344
X-68.209 Y-72.215
X-67.544 Y-71.049
X-66.94 Y-69.85
X-66.399 Y-68.622
X-65.923 Y-67.367
X-65.514 Y-66.089
X-65.172 Y-64.791
X-64.898 Y-63.477
X-64.693 Y-62.151
X-64.559 Y-60.815
X-64.494 Y-59.475
X-64.5 Y-58.133
X-64.577 Y-56.793
X-64.723 Y-55.458
X-64.939 Y-54.134
X-65.224 Y-52.822
X-65.578 Y-51.528
X-65.999 Y-50.253
X-66.486 Y-49.003
X-67.038 Y-47.779
X-67.654 Y-46.587
X-68.331 Y-45.428
X-69.068 Y-44.306
X-69.863 Y-43.225
X-70.713 Y-42.186
X-71.616 Y-41.193
X-72.57 Y-40.249
X-73.572 Y-39.356
X-74.619 Y-38.516
X-75.708 Y-37.732
X-76.837 Y-37.005
X-78.001 Y-36.338
X-79.199 Y-35.733
X-80.426 Y-35.19
X-81.681 Y-34.712
X-82.958 Y-34.3
X-84.255 Y-33.954
X-85.568 Y-33.676
X-86.894 Y-33.467
X-88.228 Y-33.325
X-89.568 Y-33.253
X-90.911 Y-33.249
X-92.251 Y-33.313
X-93.587 Y-33.445
X-94.914 Y-33.645
X-96.229 Y-33.912
X-97.529 Y-34.246
X-98.811 Y-34.644
X-100.071 Y-35.107
X-101.306 Y-35.632
X-102.513 Y-36.22
X-103.688 Y-36.868
X-104.829 Y-37.575
X-105.932 Y-38.339
X-106.995 Y-39.158
X-108.016 Y-40.03
X-108.992 Y-40.951
X-109.921 Y-41.92
X-110.8 Y-42.934
X-111.628 Y-43.99
X-112.402 Y-45.087
X-113.121 Y-46.22
X-113.783 Y-47.388
X-114.385 Y-48.587
X-114.926 Y-49.816
X-115.404 Y-51.07
X-115.819 Y-52.346
X-116.169 Y-53.642
X-116.455 Y-54.953
X-116.675 Y-56.277
X-116.83 Y-57.61
X-116.919 Y-58.95
X-116.941 Y-60.291
X-116.897 Y-61.633
X-116.787 Y-62.971
X-116.611 Y-64.301
X-116.368 Y-65.621
X-116.059 Y-66.927
X-115.685 Y-68.216
X-115.248 Y-69.485
X-114.748 Y-70.731
X-114.187 Y-71.95
X-113.568 Y-73.141
X-112.89 Y-74.299
X-112.156 Y-75.423
X-111.368 Y-76.509
X-110.527 Y-77.555
X-109.635 Y-78.558
X-108.694 Y-79.515
X-107.706 Y-80.424
X-106.674 Y-81.282
X-105.601 Y-82.088
X-104.49 Y-82.841
X-103.343 Y-83.537
X-102.163 Y-84.177
X-100.953 Y-84.758
X-99.716 Y-85.279
X-98.455 Y-85.738
X-97.172 Y-86.134
X-95.872 Y-86.466
X-94.556 Y-86.732
X-93.229 Y-86.933
X-91.894 Y-87.068
X-90.554 Y-87.137
X-89.211 Y-87.141
X-87.871 Y-87.079
X-86.535 Y-86.953
X-85.206 Y-86.762
X-83.888 Y-86.506
X-82.585 Y-86.186
X-81.299 Y-85.803
X-80.033 Y-85.356
X-78.79 Y-84.849
X-77.573 Y-84.283
X-76.385 Y-83.659
X-75.228 Y-82.979
X-74.104 Y-82.245
X-73.017 Y-81.459
X-71.967 Y-80.622
X-70.959 Y-79.737
X-69.994 Y-78.803
X-69.075 Y-77.825
X-68.204 Y-76.804
X-67.383 Y-75.743
X-66.612 Y-74.644
X-65.894 Y-73.51
X-65.229 Y-72.344
X-64.62 Y-71.148
X-64.068 Y-69.924
X-63.574 Y-68.677
X-63.14 Y-67.407
X-62.767 Y-66.117
X-62.457 Y-64.812
X-62.209 Y-63.492
X-62.024 Y-62.163
X-61.903 Y-60.826
X-61.844 Y-59.486
X-61.849 Y-58.143
X-61.917 Y-56.803
X-62.048 Y-55.467
X-62.242 Y-54.139
X-62.5 Y-52.822
X-62.82 Y-51.519
X-63.203 Y-50.232
X-63.647 Y-48.966
X-64.151 Y-47.722
X-64.712 Y-46.503
X-65.331 Y-45.312
X-66.005 Y-44.151
X-66.733 Y-43.023
X-67.513 Y-41.931
X-68.344 Y-40.877
X-69.225 Y-39.864
X-70.153 Y-38.895
X-71.126 Y-37.971
X-72.142 Y-37.094
X-73.198 Y-36.266
X-74.292 Y-35.488
X-75.421 Y-34.762
X-76.583 Y-34.09
X-77.775 Y-33.473
X-78.995 Y-32.913
X-80.239 Y-32.41
X-81.506 Y-31.968
X-82.793 Y-31.586
X-84.096 Y-31.266
X-85.413 Y-31.007
X-86.741 Y-30.81
X-88.076 Y-30.674
X-89.416 Y-30.601
X-90.759 Y-30.589
X-92.1 Y-30.639
X-93.437 Y-30.75
X-94.768 Y-30.924
X-96.09 Y-31.159
X-97.399 Y-31.455
X-98.692 Y-31.812
X-99.968 Y-32.228
X-101.224 Y-32.703
X-102.456 Y-33.234
X-103.663 Y-33.821
X-104.842 Y-34.463
X-105.99 Y-35.158
X-107.105 Y-35.905
X-108.185 Y-36.702
X-109.227 Y-37.549
X-110.228 Y-38.442
X-111.188 Y-39.381
X-112.103 Y-40.362
X-112.974 Y-41.384
X-113.797 Y-42.444
X-114.572 Y-43.54
X-115.296 Y-44.669
X-115.969 Y-45.831
X-116.589 Y-47.021
X-117.153 Y-48.239
X-117.661 Y-49.482
X-118.11 Y-50.746
X-118.502 Y-52.03
X-118.835 Y-53.33
X-119.109 Y-54.644
X-119.323 Y-55.969
X-119.478 Y-57.302
X-119.573 Y-58.641
X-119.608 Y-59.983
X-119.584 Y-61.325
X-119.498 Y-62.664
X-119.351 Y-63.998
X-119.143 Y-65.324
X-118.874 Y-66.639
X-118.546 Y-67.94
X-118.16 Y-69.226
X-117.716 Y-70.492
X-117.216 Y-71.738
X-116.661 Y-72.96
X-116.052 Y-74.156
X-115.39 Y-75.323
X-114.677 Y-76.46
X-113.912 Y-77.564
X-113.098 Y-78.631
X-112.236 Y-79.659
X-111.328 Y-80.648
X-110.377 Y-81.594
X-109.383 Y-82.497
X-108.351 Y-83.354
X-107.28 Y-84.164
X-106.175 Y-84.926
X-105.037 Y-85.637
X-103.869 Y-86.298
X-102.672 Y-86.904
X-101.448 Y-87.456
X-100.201 Y-87.951
X-98.932 Y-88.39
X-97.645 Y-88.77
X-96.342 Y-89.092
X-95.026 Y-89.356
X-93.7 Y-89.56
X-92.365 Y-89.705
X-91.026 Y-89.791
X-89.684 Y-89.818
X-88.342 Y-89.784
X-87.003 Y-89.691
X-85.67 Y-89.537
X-84.345 Y-89.323
X-83.031 Y-89.05
X-81.73 Y-88.72
X-80.445 Y-88.332
X-79.179 Y-87.888
X-77.933 Y-87.389
X-76.71 Y-86.836
X-75.512 Y-86.23
X-74.342 Y-85.573
X-73.202 Y-84.865
X-72.094 Y-84.108
X-71.02 Y-83.302
X-69.983 Y-82.451
X-68.983 Y-81.554
X-68.024 Y-80.616
X-67.106 Y-79.637
X-66.231 Y-78.619
X-65.401 Y-77.564
X-64.617 Y-76.475
X-63.879 Y-75.354
X-63.191 Y-74.201
X-62.554 Y-73.02
X-61.969 Y-71.812
X-61.437 Y-70.58
X-60.959 Y-69.326
X-60.536 Y-68.052
X-60.169 Y-66.761
X-59.858 Y-65.455
X-59.603 Y-64.138
X-59.405 Y-62.81
X-59.265 Y-61.475
X-59.182 Y-60.136
X-59.157 Y-58.794
X-59.191 Y-57.452
X-59.284 Y-56.113
X-59.435 Y-54.78
X-59.644 Y-53.454
X-59.91 Y-52.138
X-60.234 Y-50.836
X-60.613 Y-49.548
X-61.047 Y-48.278
X-61.536 Y-47.028
X-62.078 Y-45.8
X-62.672 Y-44.597
X-63.319 Y-43.421
X-64.016 Y-42.274
X-64.763 Y-41.159
X-65.557 Y-40.077
X-66.398 Y-39.031
X-67.283 Y-38.022
X-68.211 Y-37.052
X-69.18 Y-36.123
X-70.187 Y-35.237
X-71.232 Y-34.394
X-72.312 Y-33.597
X-73.425 Y-32.847
X-74.569 Y-32.146
X-75.743 Y-31.496
X-76.945 Y-30.897
X-78.17 Y-30.35
X-79.419 Y-29.857
X-80.687 Y-29.418
X-81.973 Y-29.034
X-83.274 Y-28.705
X-84.588 Y-28.431
X-85.913 Y-28.214
X-87.245 Y-28.053
X-88.583 Y-27.948
X-89.924 Y-27.902
X-91.267 Y-27.913
X-92.607 Y-27.98
X-93.943 Y-28.105
X-95.273 Y-28.286
X-96.594 Y-28.524
X-97.904 Y-28.816
X-99.201 Y-29.164
X-100.481 Y-29.565
X-101.744 Y-30.02
X-102.987 Y-30.527
X-104.207 Y-31.086
X-105.402 Y-31.697
X-106.57 Y-32.358
X-107.709 Y-33.068
X-108.817 Y-33.825
X-109.893 Y-34.628
X-110.934 Y-35.475
X-111.938 Y-36.365
X-112.905 Y-37.296
X-113.833 Y-38.266
X-114.719 Y-39.274
X-115.563 Y-40.317
X-116.363 Y-41.395
X-117.116 Y-42.506
X-117.823 Y-43.647
X-118.481 Y-44.817
X-119.089 Y-46.014
X-119.647 Y-47.234
X-120.153 Y-48.477
X-120.607 Y-49.74
X-121.009 Y-51.021
X-121.358 Y-52.317
X-121.653 Y-53.626
X-121.893 Y-54.947
X-122.079 Y-56.276
X-122.209 Y-57.612
X-122.283 Y-58.952
X-122.301 Y-60.294
X-122.264 Y-61.636
X-122.17 Y-62.974
X-122.022 Y-64.308
X-121.818 Y-65.635
X-121.559 Y-66.952
X-121.247 Y-68.257
X-120.881 Y-69.549
X-120.462 Y-70.824
X-119.99 Y-72.08
X-119.467 Y-73.316
X-118.893 Y-74.529
X-118.269 Y-75.718
X-117.597 Y-76.879
X-116.877 Y-78.012
X-116.11 Y-79.114
X-115.299 Y-80.183
X-114.444 Y-81.218
X-113.548 Y-82.217
X-112.611 Y-83.178
X-111.635 Y-84.1
X-110.622 Y-84.98
X-109.573 Y-85.817
X-108.491 Y-86.611
X-107.376 Y-87.358
X-106.232 Y-88.06
X-105.06 Y-88.713
X-103.861 Y-89.318
X-102.639 Y-89.872
X-101.395 Y-90.376
X-100.131 Y-90.828
X-98.85 Y-91.228
X-97.554 Y-91.575
X-96.244 Y-91.868
X-94.923 Y-92.106
X-93.593 Y-92.29
X-92.258 Y-92.418
X-90.917 Y-92.492
X-89.575 Y-92.511
X-88.234 Y-92.475
X-86.895 Y-92.384
X-85.56 Y-92.238
X-84.233 Y-92.039
X-82.915 Y-91.785
X-81.609 Y-91.478
X-80.316 Y-91.119
X-79.038 Y-90.706
X-77.779 Y-90.242
X-76.54 Y-89.727
X-75.322 Y-89.163
X-74.128 Y-88.55
X-72.959 Y-87.89
X-71.818 Y-87.183
X-70.706 Y-86.431
X-69.626 Y-85.635
X-68.577 Y-84.797
X-67.563 Y-83.918
X-66.585 Y-82.999
X-65.645 Y-82.041
X-64.744 Y-81.047
X-63.883 Y-80.017
X-63.064 Y-78.953
X-62.288 Y-77.859
X-61.555 Y-76.734
X-60.869 Y-75.581
X-60.228 Y-74.401
X-59.635 Y-73.197
X-59.09 Y-71.971
X-58.594 Y-70.724
X-58.148 Y-69.458
X-57.752 Y-68.175
X-57.409 Y-66.878
X-57.119 Y-65.567
X-56.88 Y-64.246
X-56.695 Y-62.917
X-56.562 Y-61.582
X-56.483 Y-60.242
X-56.457 Y-58.9
X-56.484 Y-57.558
X-56.565 Y-56.218
X-56.699 Y-54.883
X-56.886 Y-53.554
X-57.126 Y-52.233
X-57.419 Y-50.923
X-57.764 Y-49.627
X-58.161 Y-48.344
X-58.609 Y-47.079
X-59.107 Y-45.833
X-59.654 Y-44.607
X-60.249 Y-43.404
X-60.892 Y-42.226
X-61.581 Y-41.074
X-62.315 Y-39.951
X-63.093 Y-38.857
X-63.914 Y-37.795
X-64.777 Y-36.767
X-65.68 Y-35.775
X-66.623 Y-34.819
X-67.603 Y-33.902
X-68.618 Y-33.024
X-69.667 Y-32.187
X-70.749 Y-31.392
X-71.861 Y-30.641
X-73.002 Y-29.934
X-74.17 Y-29.273
X-75.363 Y-28.659
X-76.58 Y-28.092
X-77.818 Y-27.574
X-79.076 Y-27.105
X-80.351 Y-26.688
X-81.642 Y-26.321
X-82.947 Y-26.005
X-84.262 Y-25.74
X-85.588 Y-25.528
X-86.92 Y-25.367
X-88.258 Y-25.259
X-89.599 Y-25.203
X-90.941 Y-25.199
X-92.282 Y-25.248
X-93.621 Y-25.349
X-94.954 Y-25.502
X-96.28 Y-25.707
X-97.598 Y-25.965
X-98.904 Y-26.274
X-100.197 Y-26.633
X-101.475 Y-27.042
X-102.737 Y-27.5
X-103.979 Y-28.007
X-105.202 Y-28.562
X-106.401 Y-29.163
X-107.577 Y-29.811
X-108.727 Y-30.503
X-109.849 Y-31.239
X-110.942 Y-32.019
X-112.003 Y-32.84
X-113.032 Y-33.703
X-114.026 Y-34.604
X-114.985 Y-35.543
X-115.908 Y-36.517
X-116.792 Y-37.527
X-117.637 Y-38.57
X-118.442 Y-39.644
X-119.204 Y-40.749
X-119.924 Y-41.882
X-120.6 Y-43.041
X-121.23 Y-44.226
X-121.815 Y-45.434
X-122.351 Y-46.664
X-122.84 Y-47.914
X-123.281 Y-49.182
X-123.672 Y-50.466
X-124.015 Y-51.764
X-124.308 Y-53.073
X-124.55 Y-54.394
X-124.742 Y-55.722
X-124.883 Y-57.057
X-124.974 Y-58.396
X-125.013 Y-59.737
X-125.001 Y-61.079
X-124.937 Y-62.42
X-124.821 Y-63.757
X-124.653 Y-65.089
X-124.435 Y-66.413
X-124.167 Y-67.728
X-123.848 Y-69.032
X-123.48 Y-70.323
X-123.064 Y-71.598
X-122.599 Y-72.858
X-122.086 Y-74.098
X-121.527 Y-75.318
X-120.922 Y-76.516
X-120.272 Y-77.69
X-119.577 Y-78.838
X-118.838 Y-79.959
X-118.056 Y-81.05
X-117.233 Y-82.11
X-116.371 Y-83.139
X-115.47 Y-84.134
X-114.532 Y-85.093
X-113.558 Y-86.017
X-112.55 Y-86.903
X-111.508 Y-87.749
X-110.436 Y-88.556
X-109.333 Y-89.322
X-108.202 Y-90.045
X-107.045 Y-90.724
X-105.862 Y-91.357
X-104.655 Y-91.945
X-103.427 Y-92.487
X-102.179 Y-92.981
X-100.914 Y-93.428
X-99.632 Y-93.826
X-98.336 Y-94.176
X-97.028 Y-94.476
X-95.709 Y-94.726
X-94.382 Y-94.926
X-93.048 Y-95.076
X-91.71 Y-95.176
X-90.369 Y-95.224
X-89.026 Y-95.221
X-87.685 Y-95.166
X-86.347 Y-95.061
X-85.014 Y-94.906
X-83.688 Y-94.701
X-82.37 Y-94.446
X-81.063 Y-94.141
X-79.768 Y-93.788
X-78.487 Y-93.387
X-77.222 Y-92.938
X-75.975 Y-92.443
X-74.747 Y-91.901
X-73.54 Y-91.314
X-72.356 Y-90.682
X-71.197 Y-90.006
X-70.064 Y-89.287
X-68.958 Y-88.526
X-67.881 Y-87.725
X-66.834 Y-86.885
X-65.819 Y-86.007
X-64.837 Y-85.092
X-63.889 Y-84.142
X-62.977 Y-83.157
X-62.102 Y-82.14
X-61.265 Y-81.091
X-60.467 Y-80.012
X-59.709 Y-78.904
X-58.994 Y-77.768
X-58.32 Y-76.607
X-57.691 Y-75.422
X-57.105 Y-74.214
X-56.563 Y-72.986
