%
(1001)
(z0 slate machine -5-5)
(T1  D=6 CR=0 - ZMIN=1 - flat end mill)
G90 G94
G17
G21

(2D Adaptive2)
M9
T1 M6
S6000 M3
G54
M9
G0 X-1335.379 Y-72.261
Z30
Z20
Z18.1
G1 Z17.5 F850
G3 X-1336.429 Y-76.739 Z17.248 I-0.525 J-2.239 F283.3
X-1334.831 Y-72.466 Z17.016 I0.525 J2.239
X-1338.202 Y-74.392 Z16.854 I-1.073 J-2.034
X-1335.026 Y-76.626 Z16.693 I2.297 J-0.108
X-1334.352 Y-72.802 Z16.532 I-0.878 J2.126
X-1337.456 Y-76.198 Z16.279 I-1.552 J-1.698
X-1335.591 Y-76.779 Z16.209 I1.552 J1.698
X-1336.217 Y-72.221 Z15.957 I-0.313 J2.279
X-1337.856 Y-73.284 Z15.886 I0.313 J-2.279
X-1336.176 Y-76.784 Z15.725 I1.952 J-1.216
X-1335.632 Y-72.216 Z15.472 I0.272 J2.284
X-1336.744 Y-76.641 Z15.241 I-0.272 J-2.284
X-1333.609 Y-74.351 Z15.079 I0.84 J2.141
X-1337.013 Y-72.485 Z14.918 I-2.295 J-0.149
X-1337.257 Y-76.36 Z14.756 I1.109 J-2.015
X-1333.646 Y-74.936 Z14.595 I1.353 J1.86
X-1336.469 Y-72.27 Z14.434 I-2.258 J0.436
X-1337.683 Y-75.958 Z14.272 I0.564 J-2.23
X-1333.829 Y-75.492 Z14.111 I1.779 J1.458
X-1335.887 Y-72.2 Z13.95 I-2.075 J0.992
X-1337.993 Y-75.462 Z13.788 I-0.017 J-2.3
X-1333.815 Y-73.538 Z13.536 I2.089 J0.962
X-1335.307 Y-72.279 Z13.465 I-2.089 J-0.962
X-1338.168 Y-74.903 Z13.304 I-0.597 J-2.221
X-1333.64 Y-74.097 Z13.052 I2.264 J0.403
X-1334.766 Y-72.501 Z12.981 I-2.264 J-0.403
X-1338.197 Y-74.318 Z12.82 I-1.138 J-1.999
X-1335.095 Y-76.653 Z12.658 I2.293 J-0.182
X-1334.298 Y-72.853 Z12.497 I-0.809 J2.153
X-1338.077 Y-73.745 Z12.336 I-1.606 J-1.647
X-1335.665 Y-76.788 Z12.174 I2.173 J-0.755
X-1336.143 Y-72.212 Z11.922 I-0.239 J2.288
X-1337.816 Y-73.221 Z11.852 I0.239 J-2.288
X-1336.25 Y-76.774 Z11.69 I1.912 J-1.279
X-1335.558 Y-72.226 Z11.438 I0.346 J2.274
X-1337.431 Y-72.78 Z11.367 I-0.346 J-2.274
X-1336.813 Y-76.613 Z11.206 I1.527 J-1.72
X-1333.605 Y-74.426 Z11.045 I0.909 J2.113
X-1336.947 Y-72.45 Z10.883 I-2.299 J-0.074
X-1337.317 Y-76.315 Z10.722 I1.043 J-2.05
X-1333.661 Y-75.008 Z10.56 I1.413 J1.815
X-1336.396 Y-72.253 Z10.399 I-2.243 J0.508
X-1337.729 Y-75.9 Z10.238 I0.492 J-2.247
X-1333.862 Y-75.558 Z10.076 I1.825 J1.4
X-1335.813 Y-72.202 Z9.915 I-2.042 J1.058
X-1338.023 Y-75.393 Z9.754 I-0.091 J-2.298
X-1334.195 Y-76.039 Z9.592 I2.119 J0.893
X-1337.613 Y-72.961 Z9.34 I-1.709 J1.539
X-1338.18 Y-74.83 Z9.269 I1.709 J-1.539
X-1334.639 Y-76.421 Z9.108 I2.276 J0.33
X-1334.702 Y-72.539 Z8.947 I-1.265 J1.921
X-1338.19 Y-74.244 Z8.785 I-1.202 J-1.961
X-1335.165 Y-76.678 Z8.624 I2.286 J-0.256
X-1334.246 Y-72.906 Z8.462 I-0.739 J2.178
X-1338.051 Y-73.675 Z8.301 I-1.658 J-1.594
X-1335.739 Y-76.794 Z8.14 I2.147 J-0.825
X-1336.069 Y-72.206 Z7.887 I-0.165 J2.294
X-1337.773 Y-73.16 Z7.817 I0.165 J-2.294
X-1336.323 Y-76.761 Z7.656 I1.869 J-1.34
X-1333.678 Y-73.919 Z7.494 I0.419 J2.261
X-1337.375 Y-72.732 Z7.333 I-2.226 J-0.581
X-1336.881 Y-76.582 Z7.171 I1.471 J-1.768
X-1333.604 Y-74.5 Z7.01 I0.977 J2.082
X-1338.204 I-2.3
X-1335.904 Y-76.8 I2.3
X-1333.684 Y-75.102 J2.3
X-1333.604 Y-74.5 I-2.22 J0.602
G1 X-1333.601 Y-74.294 F850
X-1333.594 Y-74.247
X-1333.578 Y-73.967
X-1333.609 Y-73.689
X-1333.687 Y-73.42
X-1333.697 Y-73.394
X-1333.723 Y-73.34
X-1333.756 Y-73.285
X-1333.906 Y-73.068
X-1334.031 Y-72.889
X-1334.065 Y-72.85
X-1334.249 Y-72.685
X-1334.467 Y-72.495
X-1334.596 Y-72.415
X-1334.902 Y-72.254
X-1335.016 Y-72.197
X-1335.12 Y-72.164
X-1335.555 Y-72.057
X-1335.664 Y-72.044
X-1335.99
X-1336.208 Y-72.049
X-1336.425 Y-72.099
X-1336.643 Y-72.152
X-1336.795 Y-72.197
X-1336.861 Y-72.229
X-1337.214 Y-72.415
X-1337.296 Y-72.461
X-1337.514 Y-72.643
X-1337.731 Y-72.838
X-1337.743 Y-72.85
X-1337.904 Y-73.068
X-1338.054 Y-73.285
X-1338.087 Y-73.34
X-1338.113 Y-73.394
X-1338.167 Y-73.534
X-1338.237 Y-73.721
X-1338.307 Y-73.938
X-1338.335 Y-74.156
X-1338.361 Y-74.373
X-1338.37 Y-74.482
X-1338.365 Y-74.591
X-1338.313 Y-75.026
X-1338.29 Y-75.135
X-1338.25 Y-75.244
X-1338.167 Y-75.466
X-1338.076 Y-75.679
X-1337.929 Y-75.897
X-1337.775 Y-76.114
X-1337.731 Y-76.163
X-1337.514 Y-76.357
X-1337.296 Y-76.539
X-1337.28 Y-76.55
X-1337.078 Y-76.657
X-1336.861 Y-76.771
X-1336.752 Y-76.819
X-1336.643 Y-76.848
X-1336.425 Y-76.901
X-1336.208 Y-76.951
X-1335.99 Y-76.956
X-1335.664
X-1335.555 Y-76.943
X-1335.12 Y-76.836
X-1335.031 Y-76.809
X-1334.942 Y-76.767
X-1334.684 Y-76.632
X-1334.531 Y-76.55
X-1334.467 Y-76.505
X-1334.249 Y-76.315
X-1334.035 Y-76.114
X-1333.881 Y-75.897
X-1333.814 Y-75.799
X-1333.734 Y-75.679
X-1333.642 Y-75.461
X-1333.56 Y-75.244
X-1333.52 Y-75.135
X-1333.494 Y-75.026
X-1333.439 Y-74.591
X-1333.433 Y-74.482
X-1333.443 Y-74.373
X-1333.471 Y-74.156
X-1333.5 Y-73.938
X-1333.573 Y-73.721
X-1333.687 Y-73.42
X-1333.717 Y-73.374 Z7.017
X-1333.746 Y-73.33 Z7.036
X-1333.771 Y-73.292 Z7.067
X-1333.791 Y-73.261 Z7.108
X-1333.806 Y-73.238 Z7.157
X-1333.815 Y-73.229 Z7.2
X-1333.818 Y-73.226 Z7.246
G0 Z20
X-1334.403 Y-72.757
Z10.11
G1 Z9.51 F850
G3 X-1338.113 Y-73.859 Z9.349 I-1.501 J-1.743 F283.3
X-1335.57 Y-76.776 Z9.189 I2.209 J-0.641
X-1333.973 Y-73.251 Z9.028 I-0.334 J2.276
X-1337.843 Y-73.262 Z8.868 I-1.931 J-1.249
X-1336.225 Y-76.778 Z8.707 I1.938 J-1.238
X-1335.583 Y-72.222 Z8.455 I0.321 J2.278
X-1337.415 Y-72.766 Z8.386 I-0.321 J-2.278
X-1336.854 Y-76.595 Z8.225 I1.511 J-1.734
X-1333.604 Y-74.494 Z8.065 I0.95 J2.095
X-1336.865 Y-72.41 Z7.904 I-2.3 J-0.006
X-1337.406 Y-76.242 Z7.744 I0.961 J-2.09
X-1333.696 Y-75.143 Z7.583 I1.502 J1.742
X-1336.237 Y-72.224 Z7.423 I-2.208 J0.642
X-1337.836 Y-75.748 Z7.262 I0.333 J-2.276
X-1333.966 Y-75.739 Z7.102 I1.932 J1.248
X-1335.582 Y-72.223 Z6.941 I-1.938 J1.239
X-1338.109 Y-75.153 Z6.78 I-0.322 J-2.277
X-1334.394 Y-76.235 Z6.62 I2.205 J0.653
X-1334.953 Y-72.406 Z6.459 I-1.51 J1.735
X-1338.204 Y-74.505 Z6.299 I-0.951 J-2.094
X-1334.944 Y-76.59 Z6.138 I2.3 J0.005
X-1336.864 Y-72.41 Z5.886 I-0.96 J2.09
X-1338.112 Y-73.856 Z5.817 I0.96 J-2.09
X-1335.573 Y-76.776 Z5.656 I2.208 J-0.644
X-1333.971 Y-73.253 Z5.496 I-0.331 J2.276
X-1337.841 Y-73.26 Z5.335 I-1.933 J-1.247
X-1336.228 Y-76.777 Z5.175 I1.937 J-1.24
X-1333.698 Y-73.849 Z5.014 I0.324 J2.277
X-1337.413 Y-72.764 Z4.854 I-2.206 J-0.651
X-1336.857 Y-76.593 Z4.693 I1.509 J-1.736
X-1333.604 Y-74.497 Z4.532 I0.953 J2.093
X-1338.204 Y-74.503 Z4.28 I-2.3 J-0.003
X-1337.408 Y-76.24 Z4.211 I2.3 J0.003
X-1333.696 Y-75.145 Z4.051 I1.504 J1.74
X-1336.234 Y-72.224 Z3.89 I-2.208 J0.645
X-1337.838 Y-75.745 Z3.73 I0.33 J-2.276
X-1333.968 Y-75.742 Z3.569 I1.934 J1.245
X-1335.579 Y-72.223 Z3.408 I-1.936 J1.242
X-1336.229 Y-76.777 Z3.156 I-0.325 J-2.277
X-1334.95 Y-72.407 Z2.927 I0.325 J2.277
X-1338.204 Y-74.502 Z2.766 I-0.954 J-2.093
X-1334.947 Y-76.592 Z2.606 I2.3 J0.002
X-1336.861 Y-72.408 Z2.353 I-0.957 J2.092
X-1334.947 Y-76.592 Z2.101 I0.957 J-2.092
X-1333.97 Y-73.256 Z1.963 I-0.957 J2.092
X-1337.839 Y-73.257 Z1.803 I-1.934 J-1.244
X-1333.969 Y-75.743 Z1.551 I1.935 J-1.243
X-1333.697 Y-73.852 Z1.482 I-1.935 J1.243
X-1337.41 Y-72.762 Z1.321 I-2.207 J-0.648
X-1334.398 Y-76.238 Z1.069 I1.506 J-1.738
X-1333.604 Y-74.5 Z1 I-1.506 J1.738
X-1338.204 I-2.3
X-1335.904 Y-76.8 I2.3
X-1333.684 Y-75.102 J2.3
X-1333.604 Y-74.5 I-2.22 J0.602
G1 X-1333.601 Y-74.294 F850
X-1333.594 Y-74.247
X-1333.578 Y-73.967
X-1333.609 Y-73.689
X-1333.687 Y-73.42
X-1333.697 Y-73.394
X-1333.723 Y-73.34
X-1333.756 Y-73.285
X-1333.906 Y-73.068
X-1334.031 Y-72.889
X-1334.065 Y-72.85
X-1334.249 Y-72.685
X-1334.467 Y-72.495
X-1334.596 Y-72.415
X-1334.902 Y-72.254
X-1335.016 Y-72.197
X-1335.12 Y-72.164
X-1335.555 Y-72.057
X-1335.664 Y-72.044
X-1335.99
X-1336.208 Y-72.049
X-1336.425 Y-72.099
X-1336.643 Y-72.152
X-1336.795 Y-72.197
X-1336.861 Y-72.229
X-1337.214 Y-72.415
X-1337.296 Y-72.461
X-1337.514 Y-72.643
X-1337.731 Y-72.838
X-1337.743 Y-72.85
X-1337.904 Y-73.068
X-1338.054 Y-73.285
X-1338.087 Y-73.34
X-1338.113 Y-73.394
X-1338.167 Y-73.534
X-1338.237 Y-73.721
X-1338.307 Y-73.938
X-1338.335 Y-74.156
X-1338.361 Y-74.373
X-1338.37 Y-74.482
X-1338.365 Y-74.591
X-1338.313 Y-75.026
X-1338.29 Y-75.135
X-1338.25 Y-75.244
X-1338.167 Y-75.466
X-1338.076 Y-75.679
X-1337.929 Y-75.897
X-1337.775 Y-76.114
X-1337.731 Y-76.163
X-1337.514 Y-76.357
X-1337.296 Y-76.539
X-1337.28 Y-76.55
X-1337.078 Y-76.657
X-1336.861 Y-76.771
X-1336.752 Y-76.819
X-1336.643 Y-76.848
X-1336.425 Y-76.901
X-1336.208 Y-76.951
X-1335.99 Y-76.956
X-1335.664
X-1335.555 Y-76.943
X-1335.12 Y-76.836
X-1335.031 Y-76.809
X-1334.942 Y-76.767
X-1334.684 Y-76.632
X-1334.531 Y-76.55
X-1334.467 Y-76.505
X-1334.249 Y-76.315
X-1334.035 Y-76.114
X-1333.881 Y-75.897
X-1333.814 Y-75.799
X-1333.734 Y-75.679
X-1333.642 Y-75.461
X-1333.56 Y-75.244
X-1333.52 Y-75.135
X-1333.494 Y-75.026
X-1333.439 Y-74.591
X-1333.433 Y-74.482
X-1333.443 Y-74.373
X-1333.471 Y-74.156
X-1333.5 Y-73.938
X-1333.573 Y-73.721
X-1333.687 Y-73.42
G3 X-1333.818 Y-73.226 I-0.553 J-0.233
G1 X-1333.885 Y-73.16 Z1.007
X-1333.95 Y-73.095 Z1.029
X-1334.012 Y-73.034 Z1.065
X-1334.069 Y-72.978 Z1.115
X-1334.12 Y-72.928 Z1.176
X-1334.164 Y-72.885 Z1.247
X-1334.199 Y-72.85 Z1.328
X-1334.224 Y-72.825 Z1.415
X-1334.24 Y-72.809 Z1.506
X-1334.245 Y-72.804 Z1.6
G0 Z30

(2D Contour2)
S8000 M3
M9
X-1335.9 Y-74.5
Z30
Z20
G1 Z1 F850
G3 X-1335.84 Y-74.08 I-0.18 J0.24
G1 X-1337.28 Y-72.16
G3 X-1337.7 Y-72.1 I-0.24 J-0.18
Y-76.9 I1.8 J-2.4
X-1332.9 Y-74.5 I1.8 J2.4
X-1337.7 Y-72.1 I-3
Y-76.9 I1.8 J-2.4
X-1332.9 Y-74.5 I1.8 J2.4
X-1337.7 Y-72.1 I-3
X-1337.82 Y-72.94 I0.36 J-0.48
G1 X-1337.46 Y-73.42
X-1337.404 Y-73.495 Z1.007
X-1337.349 Y-73.568 Z1.029
X-1337.297 Y-73.638 Z1.065
X-1337.248 Y-73.702 Z1.115
X-1337.205 Y-73.759 Z1.176
X-1337.169 Y-73.808 Z1.247
X-1337.139 Y-73.848 Z1.328
X-1337.118 Y-73.877 Z1.415
X-1337.104 Y-73.894 Z1.506
X-1337.1 Y-73.9 Z1.6
G0 Z30

(2D Adaptive2)
S6000 M3
M9
X-1335.379 Y-264.261
Z30
Z20
Z18.1
G1 Z17.5 F850
G3 X-1336.429 Y-268.739 Z17.248 I-0.525 J-2.239 F283.3
X-1334.831 Y-264.466 Z17.016 I0.525 J2.239
X-1338.202 Y-266.392 Z16.854 I-1.073 J-2.034
X-1335.026 Y-268.626 Z16.693 I2.297 J-0.108
X-1334.352 Y-264.802 Z16.532 I-0.878 J2.126
X-1337.456 Y-268.198 Z16.279 I-1.552 J-1.698
X-1335.591 Y-268.779 Z16.209 I1.552 J1.698
X-1336.217 Y-264.221 Z15.957 I-0.313 J2.279
X-1337.856 Y-265.284 Z15.886 I0.313 J-2.279
X-1336.176 Y-268.784 Z15.725 I1.952 J-1.216
X-1335.632 Y-264.216 Z15.472 I0.272 J2.284
X-1336.744 Y-268.641 Z15.241 I-0.272 J-2.284
X-1333.609 Y-266.351 Z15.079 I0.84 J2.141
X-1337.013 Y-264.485 Z14.918 I-2.295 J-0.149
X-1337.257 Y-268.36 Z14.756 I1.109 J-2.015
X-1333.646 Y-266.936 Z14.595 I1.353 J1.86
X-1336.469 Y-264.27 Z14.434 I-2.258 J0.436
X-1337.683 Y-267.958 Z14.272 I0.564 J-2.23
X-1333.829 Y-267.492 Z14.111 I1.779 J1.458
X-1335.887 Y-264.2 Z13.95 I-2.075 J0.992
X-1337.993 Y-267.462 Z13.788 I-0.017 J-2.3
X-1333.815 Y-265.538 Z13.536 I2.089 J0.962
X-1335.307 Y-264.279 Z13.465 I-2.089 J-0.962
X-1338.168 Y-266.903 Z13.304 I-0.597 J-2.221
X-1333.64 Y-266.097 Z13.052 I2.264 J0.403
X-1334.766 Y-264.501 Z12.981 I-2.264 J-0.403
X-1338.197 Y-266.318 Z12.82 I-1.138 J-1.999
X-1335.095 Y-268.653 Z12.658 I2.293 J-0.182
X-1334.298 Y-264.853 Z12.497 I-0.809 J2.153
X-1338.077 Y-265.745 Z12.336 I-1.606 J-1.647
X-1335.665 Y-268.788 Z12.174 I2.173 J-0.755
X-1336.143 Y-264.212 Z11.922 I-0.239 J2.288
X-1337.816 Y-265.221 Z11.852 I0.239 J-2.288
X-1336.25 Y-268.774 Z11.69 I1.912 J-1.279
X-1335.558 Y-264.226 Z11.438 I0.346 J2.274
X-1337.431 Y-264.78 Z11.367 I-0.346 J-2.274
X-1336.813 Y-268.613 Z11.206 I1.527 J-1.72
X-1333.605 Y-266.426 Z11.045 I0.909 J2.113
X-1336.947 Y-264.45 Z10.883 I-2.299 J-0.074
X-1337.317 Y-268.315 Z10.722 I1.043 J-2.05
X-1333.661 Y-267.008 Z10.56 I1.413 J1.815
X-1336.396 Y-264.253 Z10.399 I-2.243 J0.508
X-1337.729 Y-267.9 Z10.238 I0.492 J-2.247
X-1333.862 Y-267.558 Z10.076 I1.825 J1.4
X-1335.813 Y-264.202 Z9.915 I-2.042 J1.058
X-1338.023 Y-267.393 Z9.754 I-0.091 J-2.298
X-1334.195 Y-268.039 Z9.592 I2.119 J0.893
X-1337.613 Y-264.961 Z9.34 I-1.709 J1.539
X-1338.18 Y-266.83 Z9.269 I1.709 J-1.539
X-1334.639 Y-268.421 Z9.108 I2.276 J0.33
X-1334.702 Y-264.539 Z8.947 I-1.265 J1.921
X-1338.19 Y-266.244 Z8.785 I-1.202 J-1.961
X-1335.165 Y-268.678 Z8.624 I2.286 J-0.256
X-1334.246 Y-264.906 Z8.462 I-0.739 J2.178
X-1338.051 Y-265.675 Z8.301 I-1.658 J-1.594
X-1335.739 Y-268.794 Z8.14 I2.147 J-0.825
X-1336.069 Y-264.206 Z7.887 I-0.165 J2.294
X-1337.773 Y-265.16 Z7.817 I0.165 J-2.294
X-1336.323 Y-268.761 Z7.656 I1.869 J-1.34
X-1333.678 Y-265.919 Z7.494 I0.419 J2.261
X-1337.375 Y-264.732 Z7.333 I-2.226 J-0.581
X-1336.881 Y-268.582 Z7.171 I1.471 J-1.768
X-1333.604 Y-266.5 Z7.01 I0.977 J2.082
X-1338.204 I-2.3
X-1335.904 Y-268.8 I2.3
X-1333.684 Y-267.102 J2.3
X-1333.604 Y-266.5 I-2.22 J0.602
G1 X-1333.601 Y-266.294 F850
X-1333.594 Y-266.247
X-1333.578 Y-265.967
X-1333.609 Y-265.689
X-1333.687 Y-265.42
X-1333.697 Y-265.394
X-1333.723 Y-265.34
X-1333.756 Y-265.285
X-1333.906 Y-265.068
X-1334.031 Y-264.889
X-1334.065 Y-264.85
X-1334.249 Y-264.685
X-1334.467 Y-264.495
X-1334.596 Y-264.415
X-1334.902 Y-264.254
X-1335.016 Y-264.197
X-1335.12 Y-264.164
X-1335.555 Y-264.057
X-1335.664 Y-264.044
X-1335.99
X-1336.208 Y-264.049
X-1336.425 Y-264.099
X-1336.643 Y-264.152
X-1336.795 Y-264.197
X-1336.861 Y-264.229
X-1337.214 Y-264.415
X-1337.296 Y-264.461
X-1337.514 Y-264.643
X-1337.731 Y-264.838
X-1337.743 Y-264.85
X-1337.904 Y-265.068
X-1338.054 Y-265.285
X-1338.087 Y-265.34
X-1338.113 Y-265.394
X-1338.167 Y-265.534
X-1338.237 Y-265.721
X-1338.307 Y-265.938
X-1338.335 Y-266.156
X-1338.361 Y-266.373
X-1338.37 Y-266.482
X-1338.365 Y-266.591
X-1338.313 Y-267.026
X-1338.29 Y-267.135
X-1338.25 Y-267.244
X-1338.167 Y-267.466
X-1338.076 Y-267.679
X-1337.929 Y-267.897
X-1337.775 Y-268.114
X-1337.731 Y-268.163
X-1337.514 Y-268.357
X-1337.296 Y-268.539
X-1337.28 Y-268.55
X-1337.078 Y-268.657
X-1336.861 Y-268.771
X-1336.752 Y-268.819
X-1336.643 Y-268.848
X-1336.425 Y-268.901
X-1336.208 Y-268.951
X-1335.99 Y-268.956
X-1335.664
X-1335.555 Y-268.943
X-1335.12 Y-268.836
X-1335.031 Y-268.809
X-1334.942 Y-268.767
X-1334.684 Y-268.632
X-1334.531 Y-268.55
X-1334.467 Y-268.505
X-1334.249 Y-268.315
X-1334.035 Y-268.114
X-1333.881 Y-267.897
X-1333.814 Y-267.799
X-1333.734 Y-267.679
X-1333.642 Y-267.461
X-1333.56 Y-267.244
X-1333.52 Y-267.135
X-1333.494 Y-267.026
X-1333.439 Y-266.591
X-1333.433 Y-266.482
X-1333.443 Y-266.373
X-1333.471 Y-266.156
X-1333.5 Y-265.938
X-1333.573 Y-265.721
X-1333.687 Y-265.42
X-1333.717 Y-265.374 Z7.017
X-1333.746 Y-265.33 Z7.036
X-1333.771 Y-265.292 Z7.067
X-1333.791 Y-265.261 Z7.108
X-1333.806 Y-265.238 Z7.157
X-1333.815 Y-265.229 Z7.2
X-1333.818 Y-265.226 Z7.246
G0 Z20
X-1334.403 Y-264.757
Z10.11
G1 Z9.51 F850
G3 X-1338.113 Y-265.859 Z9.349 I-1.501 J-1.743 F283.3
X-1335.57 Y-268.776 Z9.189 I2.209 J-0.641
X-1333.973 Y-265.251 Z9.028 I-0.334 J2.276
X-1337.843 Y-265.262 Z8.868 I-1.931 J-1.249
X-1336.225 Y-268.778 Z8.707 I1.938 J-1.238
X-1335.583 Y-264.222 Z8.455 I0.321 J2.278
X-1337.415 Y-264.766 Z8.386 I-0.321 J-2.278
X-1336.854 Y-268.595 Z8.225 I1.511 J-1.734
X-1333.604 Y-266.494 Z8.065 I0.95 J2.095
X-1336.865 Y-264.41 Z7.904 I-2.3 J-0.006
X-1337.406 Y-268.242 Z7.744 I0.961 J-2.09
X-1333.696 Y-267.143 Z7.583 I1.502 J1.742
X-1336.237 Y-264.224 Z7.423 I-2.208 J0.642
X-1337.836 Y-267.748 Z7.262 I0.333 J-2.276
X-1333.966 Y-267.739 Z7.102 I1.932 J1.248
X-1335.582 Y-264.223 Z6.941 I-1.938 J1.239
X-1338.109 Y-267.153 Z6.78 I-0.322 J-2.277
X-1334.394 Y-268.235 Z6.62 I2.205 J0.653
X-1334.953 Y-264.406 Z6.459 I-1.51 J1.735
X-1338.204 Y-266.505 Z6.299 I-0.951 J-2.094
X-1334.944 Y-268.59 Z6.138 I2.3 J0.005
X-1336.864 Y-264.41 Z5.886 I-0.96 J2.09
X-1338.112 Y-265.856 Z5.817 I0.96 J-2.09
X-1335.573 Y-268.776 Z5.656 I2.208 J-0.644
X-1333.971 Y-265.253 Z5.496 I-0.331 J2.276
X-1337.841 Y-265.26 Z5.335 I-1.933 J-1.247
X-1336.228 Y-268.777 Z5.175 I1.937 J-1.24
X-1333.698 Y-265.849 Z5.014 I0.324 J2.277
X-1337.413 Y-264.764 Z4.854 I-2.206 J-0.651
X-1336.857 Y-268.593 Z4.693 I1.509 J-1.736
X-1333.604 Y-266.497 Z4.532 I0.953 J2.093
X-1338.204 Y-266.503 Z4.28 I-2.3 J-0.003
X-1337.408 Y-268.24 Z4.211 I2.3 J0.003
X-1333.696 Y-267.145 Z4.051 I1.504 J1.74
X-1336.234 Y-264.224 Z3.89 I-2.208 J0.645
X-1337.838 Y-267.745 Z3.73 I0.33 J-2.276
X-1333.968 Y-267.742 Z3.569 I1.934 J1.245
X-1335.579 Y-264.223 Z3.408 I-1.936 J1.242
X-1336.229 Y-268.777 Z3.156 I-0.325 J-2.277
X-1334.95 Y-264.407 Z2.927 I0.325 J2.277
X-1338.204 Y-266.502 Z2.766 I-0.954 J-2.093
X-1334.947 Y-268.592 Z2.606 I2.3 J0.002
X-1336.861 Y-264.408 Z2.353 I-0.957 J2.092
X-1334.947 Y-268.592 Z2.101 I0.957 J-2.092
X-1333.97 Y-265.256 Z1.963 I-0.957 J2.092
X-1337.839 Y-265.257 Z1.803 I-1.934 J-1.244
X-1333.969 Y-267.743 Z1.551 I1.935 J-1.243
X-1333.697 Y-265.852 Z1.482 I-1.935 J1.243
X-1337.41 Y-264.762 Z1.321 I-2.207 J-0.648
X-1334.398 Y-268.238 Z1.069 I1.506 J-1.738
X-1333.604 Y-266.5 Z1 I-1.506 J1.738
X-1338.204 I-2.3
X-1335.904 Y-268.8 I2.3
X-1333.684 Y-267.102 J2.3
X-1333.604 Y-266.5 I-2.22 J0.602
G1 X-1333.601 Y-266.294 F850
X-1333.594 Y-266.247
X-1333.578 Y-265.967
X-1333.609 Y-265.689
X-1333.687 Y-265.42
X-1333.697 Y-265.394
X-1333.723 Y-265.34
X-1333.756 Y-265.285
X-1333.906 Y-265.068
X-1334.031 Y-264.889
X-1334.065 Y-264.85
X-1334.249 Y-264.685
X-1334.467 Y-264.495
X-1334.596 Y-264.415
X-1334.902 Y-264.254
X-1335.016 Y-264.197
X-1335.12 Y-264.164
X-1335.555 Y-264.057
X-1335.664 Y-264.044
X-1335.99
X-1336.208 Y-264.049
X-1336.425 Y-264.099
X-1336.643 Y-264.152
X-1336.795 Y-264.197
X-1336.861 Y-264.229
X-1337.214 Y-264.415
X-1337.296 Y-264.461
X-1337.514 Y-264.643
X-1337.731 Y-264.838
X-1337.743 Y-264.85
X-1337.904 Y-265.068
X-1338.054 Y-265.285
X-1338.087 Y-265.34
X-1338.113 Y-265.394
X-1338.167 Y-265.534
X-1338.237 Y-265.721
X-1338.307 Y-265.938
X-1338.335 Y-266.156
X-1338.361 Y-266.373
X-1338.37 Y-266.482
X-1338.365 Y-266.591
X-1338.313 Y-267.026
X-1338.29 Y-267.135
X-1338.25 Y-267.244
X-1338.167 Y-267.466
X-1338.076 Y-267.679
X-1337.929 Y-267.897
X-1337.775 Y-268.114
X-1337.731 Y-268.163
X-1337.514 Y-268.357
X-1337.296 Y-268.539
X-1337.28 Y-268.55
X-1337.078 Y-268.657
X-1336.861 Y-268.771
X-1336.752 Y-268.819
X-1336.643 Y-268.848
X-1336.425 Y-268.901
X-1336.208 Y-268.951
X-1335.99 Y-268.956
X-1335.664
X-1335.555 Y-268.943
X-1335.12 Y-268.836
X-1335.031 Y-268.809
X-1334.942 Y-268.767
X-1334.684 Y-268.632
X-1334.531 Y-268.55
X-1334.467 Y-268.505
X-1334.249 Y-268.315
X-1334.035 Y-268.114
X-1333.881 Y-267.897
X-1333.814 Y-267.799
X-1333.734 Y-267.679
X-1333.642 Y-267.461
X-1333.56 Y-267.244
X-1333.52 Y-267.135
X-1333.494 Y-267.026
X-1333.439 Y-266.591
X-1333.433 Y-266.482
X-1333.443 Y-266.373
X-1333.471 Y-266.156
X-1333.5 Y-265.938
X-1333.573 Y-265.721
X-1333.687 Y-265.42
G3 X-1333.818 Y-265.226 I-0.553 J-0.233
G1 X-1333.885 Y-265.16 Z1.007
X-1333.95 Y-265.095 Z1.029
X-1334.012 Y-265.034 Z1.065
X-1334.069 Y-264.978 Z1.115
X-1334.12 Y-264.928 Z1.176
X-1334.164 Y-264.885 Z1.247
X-1334.199 Y-264.85 Z1.328
X-1334.224 Y-264.825 Z1.415
X-1334.24 Y-264.809 Z1.506
X-1334.245 Y-264.804 Z1.6
G0 Z30

(2D Contour2)
S8000 M3
M9
X-1335.9 Y-266.5
Z30
Z20
G1 Z1 F850
G3 X-1335.84 Y-266.08 I-0.18 J0.24
G1 X-1337.28 Y-264.16
G3 X-1337.7 Y-264.1 I-0.24 J-0.18
Y-268.9 I1.8 J-2.4
X-1332.9 Y-266.5 I1.8 J2.4
X-1337.7 Y-264.1 I-3
Y-268.9 I1.8 J-2.4
X-1332.9 Y-266.5 I1.8 J2.4
X-1337.7 Y-264.1 I-3
X-1337.82 Y-264.94 I0.36 J-0.48
G1 X-1337.46 Y-265.42
X-1337.404 Y-265.495 Z1.007
X-1337.349 Y-265.568 Z1.029
X-1337.297 Y-265.638 Z1.065
X-1337.248 Y-265.702 Z1.115
X-1337.205 Y-265.759 Z1.176
X-1337.169 Y-265.808 Z1.247
X-1337.139 Y-265.848 Z1.328
X-1337.118 Y-265.877 Z1.415
X-1337.104 Y-265.894 Z1.506
X-1337.1 Y-265.9 Z1.6
G0 Z30

(2D Adaptive2)
S6000 M3
M9
X-1335.379 Y-456.261
Z30
Z20
Z18.1
G1 Z17.5 F850
G3 X-1336.429 Y-460.739 Z17.248 I-0.525 J-2.239 F283.3
X-1334.831 Y-456.466 Z17.016 I0.525 J2.239
X-1338.202 Y-458.392 Z16.854 I-1.073 J-2.034
X-1335.026 Y-460.626 Z16.693 I2.297 J-0.108
X-1334.352 Y-456.802 Z16.532 I-0.878 J2.126
X-1337.456 Y-460.198 Z16.279 I-1.552 J-1.698
X-1335.591 Y-460.779 Z16.209 I1.552 J1.698
X-1336.217 Y-456.221 Z15.957 I-0.313 J2.279
X-1337.856 Y-457.284 Z15.886 I0.313 J-2.279
X-1336.176 Y-460.784 Z15.725 I1.952 J-1.216
X-1335.632 Y-456.216 Z15.472 I0.272 J2.284
X-1336.744 Y-460.641 Z15.241 I-0.272 J-2.284
X-1333.609 Y-458.351 Z15.079 I0.84 J2.141
X-1337.013 Y-456.485 Z14.918 I-2.295 J-0.149
X-1337.257 Y-460.36 Z14.756 I1.109 J-2.015
X-1333.646 Y-458.936 Z14.595 I1.353 J1.86
X-1336.469 Y-456.27 Z14.434 I-2.258 J0.436
X-1337.683 Y-459.958 Z14.272 I0.564 J-2.23
X-1333.829 Y-459.492 Z14.111 I1.779 J1.458
X-1335.887 Y-456.2 Z13.95 I-2.075 J0.992
X-1337.993 Y-459.462 Z13.788 I-0.017 J-2.3
X-1333.815 Y-457.538 Z13.536 I2.089 J0.962
X-1335.307 Y-456.279 Z13.465 I-2.089 J-0.962
X-1338.168 Y-458.903 Z13.304 I-0.597 J-2.221
X-1333.64 Y-458.097 Z13.052 I2.264 J0.403
X-1334.766 Y-456.501 Z12.981 I-2.264 J-0.403
X-1338.197 Y-458.318 Z12.82 I-1.138 J-1.999
X-1335.095 Y-460.653 Z12.658 I2.293 J-0.182
X-1334.298 Y-456.853 Z12.497 I-0.809 J2.153
X-1338.077 Y-457.745 Z12.336 I-1.606 J-1.647
X-1335.665 Y-460.788 Z12.174 I2.173 J-0.755
X-1336.143 Y-456.212 Z11.922 I-0.239 J2.288
X-1337.816 Y-457.221 Z11.852 I0.239 J-2.288
X-1336.25 Y-460.774 Z11.69 I1.912 J-1.279
X-1335.558 Y-456.226 Z11.438 I0.346 J2.274
X-1337.431 Y-456.78 Z11.367 I-0.346 J-2.274
X-1336.813 Y-460.613 Z11.206 I1.527 J-1.72
X-1333.605 Y-458.426 Z11.045 I0.909 J2.113
X-1336.947 Y-456.45 Z10.883 I-2.299 J-0.074
X-1337.317 Y-460.315 Z10.722 I1.043 J-2.05
X-1333.661 Y-459.008 Z10.56 I1.413 J1.815
X-1336.396 Y-456.253 Z10.399 I-2.243 J0.508
X-1337.729 Y-459.9 Z10.238 I0.492 J-2.247
X-1333.862 Y-459.558 Z10.076 I1.825 J1.4
X-1335.813 Y-456.202 Z9.915 I-2.042 J1.058
X-1338.023 Y-459.393 Z9.754 I-0.091 J-2.298
X-1334.195 Y-460.039 Z9.592 I2.119 J0.893
X-1337.613 Y-456.961 Z9.34 I-1.709 J1.539
X-1338.18 Y-458.83 Z9.269 I1.709 J-1.539
X-1334.639 Y-460.421 Z9.108 I2.276 J0.33
X-1334.702 Y-456.539 Z8.947 I-1.265 J1.921
X-1338.19 Y-458.244 Z8.785 I-1.202 J-1.961
X-1335.165 Y-460.678 Z8.624 I2.286 J-0.256
X-1334.246 Y-456.906 Z8.462 I-0.739 J2.178
X-1338.051 Y-457.675 Z8.301 I-1.658 J-1.594
X-1335.739 Y-460.794 Z8.14 I2.147 J-0.825
X-1336.069 Y-456.206 Z7.887 I-0.165 J2.294
X-1337.773 Y-457.16 Z7.817 I0.165 J-2.294
X-1336.323 Y-460.761 Z7.656 I1.869 J-1.34
X-1333.678 Y-457.919 Z7.494 I0.419 J2.261
X-1337.375 Y-456.732 Z7.333 I-2.226 J-0.581
X-1336.881 Y-460.582 Z7.171 I1.471 J-1.768
X-1333.604 Y-458.5 Z7.01 I0.977 J2.082
X-1338.204 I-2.3
X-1335.904 Y-460.8 I2.3
X-1333.684 Y-459.102 J2.3
X-1333.604 Y-458.5 I-2.22 J0.602
G1 X-1333.601 Y-458.294 F850
X-1333.594 Y-458.247
X-1333.578 Y-457.967
X-1333.609 Y-457.689
X-1333.687 Y-457.42
X-1333.697 Y-457.394
X-1333.723 Y-457.34
X-1333.756 Y-457.285
X-1333.906 Y-457.068
X-1334.031 Y-456.889
X-1334.065 Y-456.85
X-1334.249 Y-456.685
X-1334.467 Y-456.495
X-1334.596 Y-456.415
X-1334.902 Y-456.254
X-1335.016 Y-456.197
X-1335.12 Y-456.164
X-1335.555 Y-456.057
X-1335.664 Y-456.044
X-1335.99
X-1336.208 Y-456.049
X-1336.425 Y-456.099
X-1336.643 Y-456.152
X-1336.795 Y-456.197
X-1336.861 Y-456.229
X-1337.214 Y-456.415
X-1337.296 Y-456.461
X-1337.514 Y-456.643
X-1337.731 Y-456.838
X-1337.743 Y-456.85
X-1337.904 Y-457.068
X-1338.054 Y-457.285
X-1338.087 Y-457.34
X-1338.113 Y-457.394
X-1338.167 Y-457.534
X-1338.237 Y-457.721
X-1338.307 Y-457.938
X-1338.335 Y-458.156
X-1338.361 Y-458.373
X-1338.37 Y-458.482
X-1338.365 Y-458.591
X-1338.313 Y-459.026
X-1338.29 Y-459.135
X-1338.25 Y-459.244
X-1338.167 Y-459.466
X-1338.076 Y-459.679
X-1337.929 Y-459.897
X-1337.775 Y-460.114
X-1337.731 Y-460.163
X-1337.514 Y-460.357
X-1337.296 Y-460.539
X-1337.28 Y-460.55
X-1337.078 Y-460.657
X-1336.861 Y-460.771
X-1336.752 Y-460.819
X-1336.643 Y-460.848
X-1336.425 Y-460.901
X-1336.208 Y-460.951
X-1335.99 Y-460.956
X-1335.664
X-1335.555 Y-460.943
X-1335.12 Y-460.836
X-1335.031 Y-460.809
X-1334.942 Y-460.767
X-1334.684 Y-460.632
X-1334.531 Y-460.55
X-1334.467 Y-460.505
X-1334.249 Y-460.315
X-1334.035 Y-460.114
X-1333.881 Y-459.897
X-1333.814 Y-459.799
X-1333.734 Y-459.679
X-1333.642 Y-459.461
X-1333.56 Y-459.244
X-1333.52 Y-459.135
X-1333.494 Y-459.026
X-1333.439 Y-458.591
X-1333.433 Y-458.482
X-1333.443 Y-458.373
X-1333.471 Y-458.156
X-1333.5 Y-457.938
X-1333.573 Y-457.721
X-1333.687 Y-457.42
X-1333.717 Y-457.374 Z7.017
X-1333.746 Y-457.33 Z7.036
X-1333.771 Y-457.292 Z7.067
X-1333.791 Y-457.261 Z7.108
X-1333.806 Y-457.238 Z7.157
X-1333.815 Y-457.229 Z7.2
X-1333.818 Y-457.226 Z7.246
G0 Z20
X-1334.403 Y-456.757
Z10.11
G1 Z9.51 F850
G3 X-1338.113 Y-457.859 Z9.349 I-1.501 J-1.743 F283.3
X-1335.57 Y-460.776 Z9.189 I2.209 J-0.641
X-1333.973 Y-457.251 Z9.028 I-0.334 J2.276
X-1337.843 Y-457.262 Z8.868 I-1.931 J-1.249
X-1336.225 Y-460.778 Z8.707 I1.938 J-1.238
X-1335.583 Y-456.222 Z8.455 I0.321 J2.278
X-1337.415 Y-456.766 Z8.386 I-0.321 J-2.278
X-1336.854 Y-460.595 Z8.225 I1.511 J-1.734
X-1333.604 Y-458.494 Z8.065 I0.95 J2.095
X-1336.865 Y-456.41 Z7.904 I-2.3 J-0.006
X-1337.406 Y-460.242 Z7.744 I0.961 J-2.09
X-1333.696 Y-459.143 Z7.583 I1.502 J1.742
X-1336.237 Y-456.224 Z7.423 I-2.208 J0.642
X-1337.836 Y-459.748 Z7.262 I0.333 J-2.276
X-1333.966 Y-459.739 Z7.102 I1.932 J1.248
X-1335.582 Y-456.223 Z6.941 I-1.938 J1.239
X-1338.109 Y-459.153 Z6.78 I-0.322 J-2.277
X-1334.394 Y-460.235 Z6.62 I2.205 J0.653
X-1334.953 Y-456.406 Z6.459 I-1.51 J1.735
X-1338.204 Y-458.505 Z6.299 I-0.951 J-2.094
X-1334.944 Y-460.59 Z6.138 I2.3 J0.005
X-1336.864 Y-456.41 Z5.886 I-0.96 J2.09
X-1338.112 Y-457.856 Z5.817 I0.96 J-2.09
X-1335.573 Y-460.776 Z5.656 I2.208 J-0.644
X-1333.971 Y-457.253 Z5.496 I-0.331 J2.276
X-1337.841 Y-457.26 Z5.335 I-1.933 J-1.247
X-1336.228 Y-460.777 Z5.175 I1.937 J-1.24
X-1333.698 Y-457.849 Z5.014 I0.324 J2.277
X-1337.413 Y-456.764 Z4.854 I-2.206 J-0.651
X-1336.857 Y-460.593 Z4.693 I1.509 J-1.736
X-1333.604 Y-458.497 Z4.532 I0.953 J2.093
X-1338.204 Y-458.503 Z4.28 I-2.3 J-0.003
X-1337.408 Y-460.24 Z4.211 I2.3 J0.003
X-1333.696 Y-459.145 Z4.051 I1.504 J1.74
X-1336.234 Y-456.224 Z3.89 I-2.208 J0.645
X-1337.838 Y-459.745 Z3.73 I0.33 J-2.276
X-1333.968 Y-459.742 Z3.569 I1.934 J1.245
X-1335.579 Y-456.223 Z3.408 I-1.936 J1.242
X-1336.229 Y-460.777 Z3.156 I-0.325 J-2.277
X-1334.95 Y-456.407 Z2.927 I0.325 J2.277
X-1338.204 Y-458.502 Z2.766 I-0.954 J-2.093
X-1334.947 Y-460.592 Z2.606 I2.3 J0.002
X-1336.861 Y-456.408 Z2.353 I-0.957 J2.092
X-1334.947 Y-460.592 Z2.101 I0.957 J-2.092
X-1333.97 Y-457.256 Z1.963 I-0.957 J2.092
X-1337.839 Y-457.257 Z1.803 I-1.934 J-1.244
X-1333.969 Y-459.743 Z1.551 I1.935 J-1.243
X-1333.697 Y-457.852 Z1.482 I-1.935 J1.243
X-1337.41 Y-456.762 Z1.321 I-2.207 J-0.648
X-1334.398 Y-460.238 Z1.069 I1.506 J-1.738
X-1333.604 Y-458.5 Z1 I-1.506 J1.738
X-1338.204 I-2.3
X-1335.904 Y-460.8 I2.3
X-1333.684 Y-459.102 J2.3
X-1333.604 Y-458.5 I-2.22 J0.602
G1 X-1333.601 Y-458.294 F850
X-1333.594 Y-458.247
X-1333.578 Y-457.967
X-1333.609 Y-457.689
X-1333.687 Y-457.42
X-1333.697 Y-457.394
X-1333.723 Y-457.34
X-1333.756 Y-457.285
X-1333.906 Y-457.068
X-1334.031 Y-456.889
X-1334.065 Y-456.85
X-1334.249 Y-456.685
X-1334.467 Y-456.495
X-1334.596 Y-456.415
X-1334.902 Y-456.254
X-1335.016 Y-456.197
X-1335.12 Y-456.164
X-1335.555 Y-456.057
X-1335.664 Y-456.044
X-1335.99
X-1336.208 Y-456.049
X-1336.425 Y-456.099
X-1336.643 Y-456.152
X-1336.795 Y-456.197
X-1336.861 Y-456.229
X-1337.214 Y-456.415
X-1337.296 Y-456.461
X-1337.514 Y-456.643
X-1337.731 Y-456.838
X-1337.743 Y-456.85
X-1337.904 Y-457.068
X-1338.054 Y-457.285
X-1338.087 Y-457.34
X-1338.113 Y-457.394
X-1338.167 Y-457.534
X-1338.237 Y-457.721
X-1338.307 Y-457.938
X-1338.335 Y-458.156
X-1338.361 Y-458.373
X-1338.37 Y-458.482
X-1338.365 Y-458.591
X-1338.313 Y-459.026
X-1338.29 Y-459.135
X-1338.25 Y-459.244
X-1338.167 Y-459.466
X-1338.076 Y-459.679
X-1337.929 Y-459.897
X-1337.775 Y-460.114
X-1337.731 Y-460.163
X-1337.514 Y-460.357
X-1337.296 Y-460.539
X-1337.28 Y-460.55
X-1337.078 Y-460.657
X-1336.861 Y-460.771
X-1336.752 Y-460.819
X-1336.643 Y-460.848
X-1336.425 Y-460.901
X-1336.208 Y-460.951
X-1335.99 Y-460.956
X-1335.664
X-1335.555 Y-460.943
X-1335.12 Y-460.836
X-1335.031 Y-460.809
X-1334.942 Y-460.767
X-1334.684 Y-460.632
X-1334.531 Y-460.55
X-1334.467 Y-460.505
X-1334.249 Y-460.315
X-1334.035 Y-460.114
X-1333.881 Y-459.897
X-1333.814 Y-459.799
X-1333.734 Y-459.679
X-1333.642 Y-459.461
X-1333.56 Y-459.244
X-1333.52 Y-459.135
X-1333.494 Y-459.026
X-1333.439 Y-458.591
X-1333.433 Y-458.482
X-1333.443 Y-458.373
X-1333.471 Y-458.156
X-1333.5 Y-457.938
X-1333.573 Y-457.721
X-1333.687 Y-457.42
G3 X-1333.818 Y-457.226 I-0.553 J-0.233
G1 X-1333.885 Y-457.16 Z1.007
X-1333.95 Y-457.095 Z1.029
X-1334.012 Y-457.034 Z1.065
X-1334.069 Y-456.978 Z1.115
X-1334.12 Y-456.928 Z1.176
X-1334.164 Y-456.885 Z1.247
X-1334.199 Y-456.85 Z1.328
X-1334.224 Y-456.825 Z1.415
X-1334.24 Y-456.809 Z1.506
X-1334.245 Y-456.804 Z1.6
G0 Z30

(2D Contour2)
S8000 M3
M9
X-1335.9 Y-458.5
Z30
Z20
G1 Z1 F850
G3 X-1335.84 Y-458.08 I-0.18 J0.24
G1 X-1337.28 Y-456.16
G3 X-1337.7 Y-456.1 I-0.24 J-0.18
Y-460.9 I1.8 J-2.4
X-1332.9 Y-458.5 I1.8 J2.4
X-1337.7 Y-456.1 I-3
Y-460.9 I1.8 J-2.4
X-1332.9 Y-458.5 I1.8 J2.4
X-1337.7 Y-456.1 I-3
X-1337.82 Y-456.94 I0.36 J-0.48
G1 X-1337.46 Y-457.42
X-1337.404 Y-457.495 Z1.007
X-1337.349 Y-457.568 Z1.029
X-1337.297 Y-457.638 Z1.065
X-1337.248 Y-457.702 Z1.115
X-1337.205 Y-457.759 Z1.176
X-1337.169 Y-457.808 Z1.247
X-1337.139 Y-457.848 Z1.328
X-1337.118 Y-457.877 Z1.415
X-1337.104 Y-457.894 Z1.506
X-1337.1 Y-457.9 Z1.6
G0 Z30

(2D Adaptive2)
S6000 M3
M9
X-1335.379 Y-648.261
Z30
Z20
Z18.1
G1 Z17.5 F850
G3 X-1336.429 Y-652.739 Z17.248 I-0.525 J-2.239 F283.3
X-1334.831 Y-648.466 Z17.016 I0.525 J2.239
X-1338.202 Y-650.392 Z16.854 I-1.073 J-2.034
X-1335.026 Y-652.626 Z16.693 I2.297 J-0.108
X-1334.352 Y-648.802 Z16.532 I-0.878 J2.126
X-1337.456 Y-652.198 Z16.279 I-1.552 J-1.698
X-1335.591 Y-652.779 Z16.209 I1.552 J1.698
X-1336.217 Y-648.221 Z15.957 I-0.313 J2.279
X-1337.856 Y-649.284 Z15.886 I0.313 J-2.279
X-1336.176 Y-652.784 Z15.725 I1.952 J-1.216
X-1335.632 Y-648.216 Z15.472 I0.272 J2.284
X-1336.744 Y-652.641 Z15.241 I-0.272 J-2.284
X-1333.609 Y-650.351 Z15.079 I0.84 J2.141
X-1337.013 Y-648.485 Z14.918 I-2.295 J-0.149
X-1337.257 Y-652.36 Z14.756 I1.109 J-2.015
X-1333.646 Y-650.936 Z14.595 I1.353 J1.86
X-1336.469 Y-648.27 Z14.434 I-2.258 J0.436
X-1337.683 Y-651.958 Z14.272 I0.564 J-2.23
X-1333.829 Y-651.492 Z14.111 I1.779 J1.458
X-1335.887 Y-648.2 Z13.95 I-2.075 J0.992
X-1337.993 Y-651.462 Z13.788 I-0.017 J-2.3
X-1333.815 Y-649.538 Z13.536 I2.089 J0.962
X-1335.307 Y-648.279 Z13.465 I-2.089 J-0.962
X-1338.168 Y-650.903 Z13.304 I-0.597 J-2.221
X-1333.64 Y-650.097 Z13.052 I2.264 J0.403
X-1334.766 Y-648.501 Z12.981 I-2.264 J-0.403
X-1338.197 Y-650.318 Z12.82 I-1.138 J-1.999
X-1335.095 Y-652.653 Z12.658 I2.293 J-0.182
X-1334.298 Y-648.853 Z12.497 I-0.809 J2.153
X-1338.077 Y-649.745 Z12.336 I-1.606 J-1.647
X-1335.665 Y-652.788 Z12.174 I2.173 J-0.755
X-1336.143 Y-648.212 Z11.922 I-0.239 J2.288
X-1337.816 Y-649.221 Z11.852 I0.239 J-2.288
X-1336.25 Y-652.774 Z11.69 I1.912 J-1.279
X-1335.558 Y-648.226 Z11.438 I0.346 J2.274
X-1337.431 Y-648.78 Z11.367 I-0.346 J-2.274
X-1336.813 Y-652.613 Z11.206 I1.527 J-1.72
X-1333.605 Y-650.426 Z11.045 I0.909 J2.113
X-1336.947 Y-648.45 Z10.883 I-2.299 J-0.074
X-1337.317 Y-652.315 Z10.722 I1.043 J-2.05
X-1333.661 Y-651.008 Z10.56 I1.413 J1.815
X-1336.396 Y-648.253 Z10.399 I-2.243 J0.508
X-1337.729 Y-651.9 Z10.238 I0.492 J-2.247
X-1333.862 Y-651.558 Z10.076 I1.825 J1.4
X-1335.813 Y-648.202 Z9.915 I-2.042 J1.058
X-1338.023 Y-651.393 Z9.754 I-0.091 J-2.298
X-1334.195 Y-652.039 Z9.592 I2.119 J0.893
X-1337.613 Y-648.961 Z9.34 I-1.709 J1.539
X-1338.18 Y-650.83 Z9.269 I1.709 J-1.539
X-1334.639 Y-652.421 Z9.108 I2.276 J0.33
X-1334.702 Y-648.539 Z8.947 I-1.265 J1.921
X-1338.19 Y-650.244 Z8.785 I-1.202 J-1.961
X-1335.165 Y-652.678 Z8.624 I2.286 J-0.256
X-1334.246 Y-648.906 Z8.462 I-0.739 J2.178
X-1338.051 Y-649.675 Z8.301 I-1.658 J-1.594
X-1335.739 Y-652.794 Z8.14 I2.147 J-0.825
X-1336.069 Y-648.206 Z7.887 I-0.165 J2.294
X-1337.773 Y-649.16 Z7.817 I0.165 J-2.294
X-1336.323 Y-652.761 Z7.656 I1.869 J-1.34
X-1333.678 Y-649.919 Z7.494 I0.419 J2.261
X-1337.375 Y-648.732 Z7.333 I-2.226 J-0.581
X-1336.881 Y-652.582 Z7.171 I1.471 J-1.768
X-1333.604 Y-650.5 Z7.01 I0.977 J2.082
X-1338.204 I-2.3
X-1335.904 Y-652.8 I2.3
X-1333.684 Y-651.102 J2.3
X-1333.604 Y-650.5 I-2.22 J0.602
G1 X-1333.601 Y-650.294 F850
X-1333.594 Y-650.247
X-1333.578 Y-649.967
X-1333.609 Y-649.689
X-1333.687 Y-649.42
X-1333.697 Y-649.394
X-1333.723 Y-649.34
X-1333.756 Y-649.285
X-1333.906 Y-649.068
X-1334.031 Y-648.889
X-1334.065 Y-648.85
X-1334.249 Y-648.685
X-1334.467 Y-648.495
X-1334.596 Y-648.415
X-1334.902 Y-648.254
X-1335.016 Y-648.197
X-1335.12 Y-648.164
X-1335.555 Y-648.057
X-1335.664 Y-648.044
X-1335.99
X-1336.208 Y-648.049
X-1336.425 Y-648.099
X-1336.643 Y-648.152
X-1336.795 Y-648.197
X-1336.861 Y-648.229
X-1337.214 Y-648.415
X-1337.296 Y-648.461
X-1337.514 Y-648.643
X-1337.731 Y-648.838
X-1337.743 Y-648.85
X-1337.904 Y-649.068
X-1338.054 Y-649.285
X-1338.087 Y-649.34
X-1338.113 Y-649.394
X-1338.167 Y-649.534
X-1338.237 Y-649.721
X-1338.307 Y-649.938
X-1338.335 Y-650.156
X-1338.361 Y-650.373
X-1338.37 Y-650.482
X-1338.365 Y-650.591
X-1338.313 Y-651.026
X-1338.29 Y-651.135
X-1338.25 Y-651.244
X-1338.167 Y-651.466
X-1338.076 Y-651.679
X-1337.929 Y-651.897
X-1337.775 Y-652.114
X-1337.731 Y-652.163
X-1337.514 Y-652.357
X-1337.296 Y-652.539
X-1337.28 Y-652.55
X-1337.078 Y-652.657
X-1336.861 Y-652.771
X-1336.752 Y-652.819
X-1336.643 Y-652.848
X-1336.425 Y-652.901
X-1336.208 Y-652.951
X-1335.99 Y-652.956
X-1335.664
X-1335.555 Y-652.943
X-1335.12 Y-652.836
X-1335.031 Y-652.809
X-1334.942 Y-652.767
X-1334.684 Y-652.632
X-1334.531 Y-652.55
X-1334.467 Y-652.505
X-1334.249 Y-652.315
X-1334.035 Y-652.114
X-1333.881 Y-651.897
X-1333.814 Y-651.799
X-1333.734 Y-651.679
X-1333.642 Y-651.461
X-1333.56 Y-651.244
X-1333.52 Y-651.135
X-1333.494 Y-651.026
X-1333.439 Y-650.591
X-1333.433 Y-650.482
X-1333.443 Y-650.373
X-1333.471 Y-650.156
X-1333.5 Y-649.938
X-1333.573 Y-649.721
X-1333.687 Y-649.42
X-1333.717 Y-649.374 Z7.017
X-1333.746 Y-649.33 Z7.036
X-1333.771 Y-649.292 Z7.067
X-1333.791 Y-649.261 Z7.108
X-1333.806 Y-649.238 Z7.157
X-1333.815 Y-649.229 Z7.2
X-1333.818 Y-649.226 Z7.246
G0 Z20
X-1334.403 Y-648.757
Z10.11
G1 Z9.51 F850
G3 X-1338.113 Y-649.859 Z9.349 I-1.501 J-1.743 F283.3
X-1335.57 Y-652.776 Z9.189 I2.209 J-0.641
X-1333.973 Y-649.251 Z9.028 I-0.334 J2.276
X-1337.843 Y-649.262 Z8.868 I-1.931 J-1.249
X-1336.225 Y-652.778 Z8.707 I1.938 J-1.238
X-1335.583 Y-648.222 Z8.455 I0.321 J2.278
X-1337.415 Y-648.766 Z8.386 I-0.321 J-2.278
X-1336.854 Y-652.595 Z8.225 I1.511 J-1.734
X-1333.604 Y-650.494 Z8.065 I0.95 J2.095
X-1336.865 Y-648.41 Z7.904 I-2.3 J-0.006
X-1337.406 Y-652.242 Z7.744 I0.961 J-2.09
X-1333.696 Y-651.143 Z7.583 I1.502 J1.742
X-1336.237 Y-648.224 Z7.423 I-2.208 J0.642
X-1337.836 Y-651.748 Z7.262 I0.333 J-2.276
X-1333.966 Y-651.739 Z7.102 I1.932 J1.248
X-1335.582 Y-648.223 Z6.941 I-1.938 J1.239
X-1338.109 Y-651.153 Z6.78 I-0.322 J-2.277
X-1334.394 Y-652.235 Z6.62 I2.205 J0.653
X-1334.953 Y-648.406 Z6.459 I-1.51 J1.735
X-1338.204 Y-650.505 Z6.299 I-0.951 J-2.094
X-1334.944 Y-652.59 Z6.138 I2.3 J0.005
X-1336.864 Y-648.41 Z5.886 I-0.96 J2.09
X-1338.112 Y-649.856 Z5.817 I0.96 J-2.09
X-1335.573 Y-652.776 Z5.656 I2.208 J-0.644
X-1333.971 Y-649.253 Z5.496 I-0.331 J2.276
X-1337.841 Y-649.26 Z5.335 I-1.933 J-1.247
X-1336.228 Y-652.777 Z5.175 I1.937 J-1.24
X-1333.698 Y-649.849 Z5.014 I0.324 J2.277
X-1337.413 Y-648.764 Z4.854 I-2.206 J-0.651
X-1336.857 Y-652.593 Z4.693 I1.509 J-1.736
X-1333.604 Y-650.497 Z4.532 I0.953 J2.093
X-1338.204 Y-650.503 Z4.28 I-2.3 J-0.003
X-1337.408 Y-652.24 Z4.211 I2.3 J0.003
X-1333.696 Y-651.145 Z4.051 I1.504 J1.74
X-1336.234 Y-648.224 Z3.89 I-2.208 J0.645
X-1337.838 Y-651.745 Z3.73 I0.33 J-2.276
X-1333.968 Y-651.742 Z3.569 I1.934 J1.245
X-1335.579 Y-648.223 Z3.408 I-1.936 J1.242
X-1336.229 Y-652.777 Z3.156 I-0.325 J-2.277
X-1334.95 Y-648.407 Z2.927 I0.325 J2.277
X-1338.204 Y-650.502 Z2.766 I-0.954 J-2.093
X-1334.947 Y-652.592 Z2.606 I2.3 J0.002
X-1336.861 Y-648.408 Z2.353 I-0.957 J2.092
X-1334.947 Y-652.592 Z2.101 I0.957 J-2.092
X-1333.97 Y-649.256 Z1.963 I-0.957 J2.092
X-1337.839 Y-649.257 Z1.803 I-1.934 J-1.244
X-1333.969 Y-651.743 Z1.551 I1.935 J-1.243
X-1333.697 Y-649.852 Z1.482 I-1.935 J1.243
X-1337.41 Y-648.762 Z1.321 I-2.207 J-0.648
X-1334.398 Y-652.238 Z1.069 I1.506 J-1.738
X-1333.604 Y-650.5 Z1 I-1.506 J1.738
X-1338.204 I-2.3
X-1335.904 Y-652.8 I2.3
X-1333.684 Y-651.102 J2.3
X-1333.604 Y-650.5 I-2.22 J0.602
G1 X-1333.601 Y-650.294 F850
X-1333.594 Y-650.247
X-1333.578 Y-649.967
X-1333.609 Y-649.689
X-1333.687 Y-649.42
X-1333.697 Y-649.394
X-1333.723 Y-649.34
X-1333.756 Y-649.285
X-1333.906 Y-649.068
X-1334.031 Y-648.889
X-1334.065 Y-648.85
X-1334.249 Y-648.685
X-1334.467 Y-648.495
X-1334.596 Y-648.415
X-1334.902 Y-648.254
X-1335.016 Y-648.197
X-1335.12 Y-648.164
X-1335.555 Y-648.057
X-1335.664 Y-648.044
X-1335.99
X-1336.208 Y-648.049
X-1336.425 Y-648.099
X-1336.643 Y-648.152
X-1336.795 Y-648.197
X-1336.861 Y-648.229
X-1337.214 Y-648.415
X-1337.296 Y-648.461
X-1337.514 Y-648.643
X-1337.731 Y-648.838
X-1337.743 Y-648.85
X-1337.904 Y-649.068
X-1338.054 Y-649.285
X-1338.087 Y-649.34
X-1338.113 Y-649.394
X-1338.167 Y-649.534
X-1338.237 Y-649.721
X-1338.307 Y-649.938
X-1338.335 Y-650.156
X-1338.361 Y-650.373
X-1338.37 Y-650.482
X-1338.365 Y-650.591
X-1338.313 Y-651.026
X-1338.29 Y-651.135
X-1338.25 Y-651.244
X-1338.167 Y-651.466
X-1338.076 Y-651.679
X-1337.929 Y-651.897
X-1337.775 Y-652.114
X-1337.731 Y-652.163
X-1337.514 Y-652.357
X-1337.296 Y-652.539
X-1337.28 Y-652.55
X-1337.078 Y-652.657
X-1336.861 Y-652.771
X-1336.752 Y-652.819
X-1336.643 Y-652.848
X-1336.425 Y-652.901
X-1336.208 Y-652.951
X-1335.99 Y-652.956
X-1335.664
X-1335.555 Y-652.943
X-1335.12 Y-652.836
X-1335.031 Y-652.809
X-1334.942 Y-652.767
X-1334.684 Y-652.632
X-1334.531 Y-652.55
X-1334.467 Y-652.505
X-1334.249 Y-652.315
X-1334.035 Y-652.114
X-1333.881 Y-651.897
X-1333.814 Y-651.799
X-1333.734 Y-651.679
X-1333.642 Y-651.461
X-1333.56 Y-651.244
X-1333.52 Y-651.135
X-1333.494 Y-651.026
X-1333.439 Y-650.591
X-1333.433 Y-650.482
X-1333.443 Y-650.373
X-1333.471 Y-650.156
X-1333.5 Y-649.938
X-1333.573 Y-649.721
X-1333.687 Y-649.42
G3 X-1333.818 Y-649.226 I-0.553 J-0.233
G1 X-1333.885 Y-649.16 Z1.007
X-1333.95 Y-649.095 Z1.029
X-1334.012 Y-649.034 Z1.065
X-1334.069 Y-648.978 Z1.115
X-1334.12 Y-648.928 Z1.176
X-1334.164 Y-648.885 Z1.247
X-1334.199 Y-648.85 Z1.328
X-1334.224 Y-648.825 Z1.415
X-1334.24 Y-648.809 Z1.506
X-1334.245 Y-648.804 Z1.6
G0 Z30

(2D Contour2)
S8000 M3
M9
X-1335.9 Y-650.5
Z30
Z20
G1 Z1 F850
G3 X-1335.84 Y-650.08 I-0.18 J0.24
G1 X-1337.28 Y-648.16
G3 X-1337.7 Y-648.1 I-0.24 J-0.18
Y-652.9 I1.8 J-2.4
X-1332.9 Y-650.5 I1.8 J2.4
X-1337.7 Y-648.1 I-3
Y-652.9 I1.8 J-2.4
X-1332.9 Y-650.5 I1.8 J2.4
X-1337.7 Y-648.1 I-3
X-1337.82 Y-648.94 I0.36 J-0.48
G1 X-1337.46 Y-649.42
X-1337.404 Y-649.495 Z1.007
X-1337.349 Y-649.568 Z1.029
X-1337.297 Y-649.638 Z1.065
X-1337.248 Y-649.702 Z1.115
X-1337.205 Y-649.759 Z1.176
X-1337.169 Y-649.808 Z1.247
X-1337.139 Y-649.848 Z1.328
X-1337.118 Y-649.877 Z1.415
X-1337.104 Y-649.894 Z1.506
X-1337.1 Y-649.9 Z1.6
G0 Z30

(2D Adaptive2)
S6000 M3
M9
X-937.379 Y-648.261
Z30
Z20
Z18.1
G1 Z17.5 F850
G3 X-938.429 Y-652.739 Z17.248 I-0.525 J-2.239 F283.3
X-936.831 Y-648.466 Z17.016 I0.525 J2.239
X-940.202 Y-650.392 Z16.854 I-1.073 J-2.034
X-937.026 Y-652.626 Z16.693 I2.297 J-0.108
X-936.352 Y-648.802 Z16.532 I-0.878 J2.126
X-939.456 Y-652.198 Z16.279 I-1.552 J-1.698
X-937.591 Y-652.779 Z16.209 I1.552 J1.698
X-938.217 Y-648.221 Z15.957 I-0.313 J2.279
X-939.856 Y-649.284 Z15.886 I0.313 J-2.279
X-938.176 Y-652.784 Z15.725 I1.952 J-1.216
X-937.632 Y-648.216 Z15.472 I0.272 J2.284
X-938.744 Y-652.641 Z15.241 I-0.272 J-2.284
X-935.609 Y-650.351 Z15.079 I0.84 J2.141
X-939.013 Y-648.485 Z14.918 I-2.295 J-0.149
X-939.257 Y-652.36 Z14.756 I1.109 J-2.015
X-935.646 Y-650.936 Z14.595 I1.353 J1.86
X-938.469 Y-648.27 Z14.434 I-2.258 J0.436
X-939.683 Y-651.958 Z14.272 I0.564 J-2.23
X-935.829 Y-651.492 Z14.111 I1.779 J1.458
X-937.887 Y-648.2 Z13.95 I-2.075 J0.992
X-939.993 Y-651.462 Z13.788 I-0.017 J-2.3
X-935.815 Y-649.538 Z13.536 I2.089 J0.962
X-937.307 Y-648.279 Z13.465 I-2.089 J-0.962
X-940.168 Y-650.903 Z13.304 I-0.597 J-2.221
X-935.64 Y-650.097 Z13.052 I2.264 J0.403
X-936.766 Y-648.501 Z12.981 I-2.264 J-0.403
X-940.197 Y-650.318 Z12.82 I-1.138 J-1.999
X-937.095 Y-652.653 Z12.658 I2.293 J-0.182
X-936.298 Y-648.853 Z12.497 I-0.809 J2.153
X-940.077 Y-649.745 Z12.336 I-1.606 J-1.647
X-937.665 Y-652.788 Z12.174 I2.173 J-0.755
X-938.143 Y-648.212 Z11.922 I-0.239 J2.288
X-939.816 Y-649.221 Z11.852 I0.239 J-2.288
X-938.25 Y-652.774 Z11.69 I1.912 J-1.279
X-937.558 Y-648.226 Z11.438 I0.346 J2.274
X-939.431 Y-648.78 Z11.367 I-0.346 J-2.274
X-938.813 Y-652.613 Z11.206 I1.527 J-1.72
X-935.605 Y-650.426 Z11.045 I0.909 J2.113
X-938.947 Y-648.45 Z10.883 I-2.299 J-0.074
X-939.317 Y-652.315 Z10.722 I1.043 J-2.05
X-935.661 Y-651.008 Z10.56 I1.413 J1.815
X-938.396 Y-648.253 Z10.399 I-2.243 J0.508
X-939.729 Y-651.9 Z10.238 I0.492 J-2.247
X-935.862 Y-651.558 Z10.076 I1.825 J1.4
X-937.813 Y-648.202 Z9.915 I-2.042 J1.058
X-940.023 Y-651.393 Z9.754 I-0.091 J-2.298
X-936.195 Y-652.039 Z9.592 I2.119 J0.893
X-939.613 Y-648.961 Z9.34 I-1.709 J1.539
X-940.18 Y-650.83 Z9.269 I1.709 J-1.539
X-936.639 Y-652.421 Z9.108 I2.276 J0.33
X-936.702 Y-648.539 Z8.947 I-1.265 J1.921
X-940.19 Y-650.244 Z8.785 I-1.202 J-1.961
X-937.165 Y-652.678 Z8.624 I2.286 J-0.256
X-936.246 Y-648.906 Z8.462 I-0.739 J2.178
X-940.051 Y-649.675 Z8.301 I-1.658 J-1.594
X-937.739 Y-652.794 Z8.14 I2.147 J-0.825
X-938.069 Y-648.206 Z7.887 I-0.165 J2.294
X-939.773 Y-649.16 Z7.817 I0.165 J-2.294
X-938.323 Y-652.761 Z7.656 I1.869 J-1.34
X-935.678 Y-649.919 Z7.494 I0.419 J2.261
X-939.375 Y-648.732 Z7.333 I-2.226 J-0.581
X-938.881 Y-652.582 Z7.171 I1.471 J-1.768
X-935.604 Y-650.5 Z7.01 I0.977 J2.082
X-940.204 I-2.3
X-937.904 Y-652.8 I2.3
X-935.684 Y-651.102 J2.3
X-935.604 Y-650.5 I-2.22 J0.602
G1 X-935.601 Y-650.294 F850
X-935.594 Y-650.247
X-935.578 Y-649.967
X-935.609 Y-649.689
X-935.687 Y-649.42
X-935.697 Y-649.394
X-935.723 Y-649.34
X-935.756 Y-649.285
X-935.906 Y-649.068
X-936.031 Y-648.889
X-936.065 Y-648.85
X-936.249 Y-648.685
X-936.467 Y-648.495
X-936.596 Y-648.415
X-936.902 Y-648.254
X-937.016 Y-648.197
X-937.12 Y-648.164
X-937.555 Y-648.057
X-937.664 Y-648.044
X-937.99
X-938.208 Y-648.049
X-938.425 Y-648.099
X-938.643 Y-648.152
X-938.795 Y-648.197
X-938.861 Y-648.229
X-939.214 Y-648.415
X-939.296 Y-648.461
X-939.514 Y-648.643
X-939.731 Y-648.838
X-939.743 Y-648.85
X-939.904 Y-649.068
X-940.054 Y-649.285
X-940.087 Y-649.34
X-940.113 Y-649.394
X-940.167 Y-649.534
X-940.237 Y-649.721
X-940.307 Y-649.938
X-940.335 Y-650.156
X-940.361 Y-650.373
X-940.37 Y-650.482
X-940.365 Y-650.591
X-940.313 Y-651.026
X-940.29 Y-651.135
X-940.25 Y-651.244
X-940.167 Y-651.466
X-940.076 Y-651.679
X-939.929 Y-651.897
X-939.775 Y-652.114
X-939.731 Y-652.163
X-939.514 Y-652.357
X-939.296 Y-652.539
X-939.28 Y-652.55
X-939.078 Y-652.657
X-938.861 Y-652.771
X-938.752 Y-652.819
X-938.643 Y-652.848
X-938.425 Y-652.901
X-938.208 Y-652.951
X-937.99 Y-652.956
X-937.664
X-937.555 Y-652.943
X-937.12 Y-652.836
X-937.031 Y-652.809
X-936.942 Y-652.767
X-936.684 Y-652.632
X-936.531 Y-652.55
X-936.467 Y-652.505
X-936.249 Y-652.315
X-936.035 Y-652.114
X-935.881 Y-651.897
X-935.814 Y-651.799
X-935.734 Y-651.679
X-935.642 Y-651.461
X-935.56 Y-651.244
X-935.52 Y-651.135
X-935.494 Y-651.026
X-935.439 Y-650.591
X-935.433 Y-650.482
X-935.443 Y-650.373
X-935.471 Y-650.156
X-935.5 Y-649.938
X-935.573 Y-649.721
X-935.687 Y-649.42
X-935.717 Y-649.374 Z7.017
X-935.746 Y-649.33 Z7.036
X-935.771 Y-649.292 Z7.067
X-935.791 Y-649.261 Z7.108
X-935.806 Y-649.238 Z7.157
X-935.815 Y-649.229 Z7.2
X-935.818 Y-649.226 Z7.246
G0 Z20
X-936.403 Y-648.757
Z10.11
G1 Z9.51 F850
G3 X-940.113 Y-649.859 Z9.349 I-1.501 J-1.743 F283.3
X-937.57 Y-652.776 Z9.189 I2.209 J-0.641
X-935.973 Y-649.251 Z9.028 I-0.334 J2.276
X-939.843 Y-649.262 Z8.868 I-1.931 J-1.249
X-938.225 Y-652.778 Z8.707 I1.938 J-1.238
X-937.583 Y-648.222 Z8.455 I0.321 J2.278
X-939.415 Y-648.766 Z8.386 I-0.321 J-2.278
X-938.854 Y-652.595 Z8.225 I1.511 J-1.734
X-935.604 Y-650.494 Z8.065 I0.95 J2.095
X-938.865 Y-648.41 Z7.904 I-2.3 J-0.006
X-939.406 Y-652.242 Z7.744 I0.961 J-2.09
X-935.696 Y-651.143 Z7.583 I1.502 J1.742
X-938.237 Y-648.224 Z7.423 I-2.208 J0.642
X-939.836 Y-651.748 Z7.262 I0.333 J-2.276
X-935.966 Y-651.739 Z7.102 I1.932 J1.248
X-937.582 Y-648.223 Z6.941 I-1.938 J1.239
X-940.109 Y-651.153 Z6.78 I-0.322 J-2.277
X-936.394 Y-652.235 Z6.62 I2.205 J0.653
X-936.953 Y-648.406 Z6.459 I-1.51 J1.735
X-940.204 Y-650.505 Z6.299 I-0.951 J-2.094
X-936.944 Y-652.59 Z6.138 I2.3 J0.005
X-938.864 Y-648.41 Z5.886 I-0.96 J2.09
X-940.112 Y-649.856 Z5.817 I0.96 J-2.09
X-937.573 Y-652.776 Z5.656 I2.208 J-0.644
X-935.971 Y-649.253 Z5.496 I-0.331 J2.276
X-939.841 Y-649.26 Z5.335 I-1.933 J-1.247
X-938.228 Y-652.777 Z5.175 I1.937 J-1.24
X-935.698 Y-649.849 Z5.014 I0.324 J2.277
X-939.413 Y-648.764 Z4.854 I-2.206 J-0.651
X-938.857 Y-652.593 Z4.693 I1.509 J-1.736
X-935.604 Y-650.497 Z4.532 I0.953 J2.093
X-940.204 Y-650.503 Z4.28 I-2.3 J-0.003
X-939.408 Y-652.24 Z4.211 I2.3 J0.003
X-935.696 Y-651.145 Z4.051 I1.504 J1.74
X-938.234 Y-648.224 Z3.89 I-2.208 J0.645
X-939.838 Y-651.745 Z3.73 I0.33 J-2.276
X-935.968 Y-651.742 Z3.569 I1.934 J1.245
X-937.579 Y-648.223 Z3.408 I-1.936 J1.242
X-938.229 Y-652.777 Z3.156 I-0.325 J-2.277
X-936.95 Y-648.407 Z2.927 I0.325 J2.277
X-940.204 Y-650.502 Z2.766 I-0.954 J-2.093
X-936.947 Y-652.592 Z2.606 I2.3 J0.002
X-938.861 Y-648.408 Z2.353 I-0.957 J2.092
X-936.947 Y-652.592 Z2.101 I0.957 J-2.092
X-935.97 Y-649.256 Z1.963 I-0.957 J2.092
X-939.839 Y-649.257 Z1.803 I-1.934 J-1.244
X-935.969 Y-651.743 Z1.551 I1.935 J-1.243
X-935.697 Y-649.852 Z1.482 I-1.935 J1.243
X-939.41 Y-648.762 Z1.321 I-2.207 J-0.648
X-936.398 Y-652.238 Z1.069 I1.506 J-1.738
X-935.604 Y-650.5 Z1 I-1.506 J1.738
X-940.204 I-2.3
X-937.904 Y-652.8 I2.3
X-935.684 Y-651.102 J2.3
X-935.604 Y-650.5 I-2.22 J0.602
G1 X-935.601 Y-650.294 F850
X-935.594 Y-650.247
X-935.578 Y-649.967
X-935.609 Y-649.689
X-935.687 Y-649.42
X-935.697 Y-649.394
X-935.723 Y-649.34
X-935.756 Y-649.285
X-935.906 Y-649.068
X-936.031 Y-648.889
X-936.065 Y-648.85
X-936.249 Y-648.685
X-936.467 Y-648.495
X-936.596 Y-648.415
X-936.902 Y-648.254
X-937.016 Y-648.197
X-937.12 Y-648.164
X-937.555 Y-648.057
X-937.664 Y-648.044
X-937.99
X-938.208 Y-648.049
X-938.425 Y-648.099
X-938.643 Y-648.152
X-938.795 Y-648.197
X-938.861 Y-648.229
X-939.214 Y-648.415
X-939.296 Y-648.461
X-939.514 Y-648.643
X-939.731 Y-648.838
X-939.743 Y-648.85
X-939.904 Y-649.068
X-940.054 Y-649.285
X-940.087 Y-649.34
X-940.113 Y-649.394
X-940.167 Y-649.534
X-940.237 Y-649.721
X-940.307 Y-649.938
X-940.335 Y-650.156
X-940.361 Y-650.373
X-940.37 Y-650.482
X-940.365 Y-650.591
X-940.313 Y-651.026
X-940.29 Y-651.135
X-940.25 Y-651.244
X-940.167 Y-651.466
X-940.076 Y-651.679
X-939.929 Y-651.897
X-939.775 Y-652.114
X-939.731 Y-652.163
X-939.514 Y-652.357
X-939.296 Y-652.539
X-939.28 Y-652.55
X-939.078 Y-652.657
X-938.861 Y-652.771
X-938.752 Y-652.819
X-938.643 Y-652.848
X-938.425 Y-652.901
X-938.208 Y-652.951
X-937.99 Y-652.956
X-937.664
X-937.555 Y-652.943
X-937.12 Y-652.836
X-937.031 Y-652.809
X-936.942 Y-652.767
X-936.684 Y-652.632
X-936.531 Y-652.55
X-936.467 Y-652.505
X-936.249 Y-652.315
X-936.035 Y-652.114
X-935.881 Y-651.897
X-935.814 Y-651.799
X-935.734 Y-651.679
X-935.642 Y-651.461
X-935.56 Y-651.244
X-935.52 Y-651.135
X-935.494 Y-651.026
X-935.439 Y-650.591
X-935.433 Y-650.482
X-935.443 Y-650.373
X-935.471 Y-650.156
X-935.5 Y-649.938
X-935.573 Y-649.721
X-935.687 Y-649.42
G3 X-935.818 Y-649.226 I-0.553 J-0.233
G1 X-935.885 Y-649.16 Z1.007
X-935.95 Y-649.095 Z1.029
X-936.012 Y-649.034 Z1.065
X-936.069 Y-648.978 Z1.115
X-936.12 Y-648.928 Z1.176
X-936.164 Y-648.885 Z1.247
X-936.199 Y-648.85 Z1.328
X-936.224 Y-648.825 Z1.415
X-936.24 Y-648.809 Z1.506
X-936.245 Y-648.804 Z1.6
G0 Z30

(2D Contour2)
S8000 M3
M9
X-937.9 Y-650.5
Z30
Z20
G1 Z1 F850
G3 X-937.84 Y-650.08 I-0.18 J0.24
G1 X-939.28 Y-648.16
G3 X-939.7 Y-648.1 I-0.24 J-0.18
Y-652.9 I1.8 J-2.4
X-934.9 Y-650.5 I1.8 J2.4
X-939.7 Y-648.1 I-3
Y-652.9 I1.8 J-2.4
X-934.9 Y-650.5 I1.8 J2.4
X-939.7 Y-648.1 I-3
X-939.82 Y-648.94 I0.36 J-0.48
G1 X-939.46 Y-649.42
X-939.404 Y-649.495 Z1.007
X-939.349 Y-649.568 Z1.029
X-939.297 Y-649.638 Z1.065
X-939.248 Y-649.702 Z1.115
X-939.205 Y-649.759 Z1.176
X-939.169 Y-649.808 Z1.247
X-939.139 Y-649.848 Z1.328
X-939.118 Y-649.877 Z1.415
X-939.104 Y-649.894 Z1.506
X-939.1 Y-649.9 Z1.6
G0 Z30

(2D Adaptive2)
S6000 M3
M9
X-937.379 Y-456.261
Z30
Z20
Z18.1
G1 Z17.5 F850
G3 X-938.429 Y-460.739 Z17.248 I-0.525 J-2.239 F283.3
X-936.831 Y-456.466 Z17.016 I0.525 J2.239
X-940.202 Y-458.392 Z16.854 I-1.073 J-2.034
X-937.026 Y-460.626 Z16.693 I2.297 J-0.108
X-936.352 Y-456.802 Z16.532 I-0.878 J2.126
X-939.456 Y-460.198 Z16.279 I-1.552 J-1.698
X-937.591 Y-460.779 Z16.209 I1.552 J1.698
X-938.217 Y-456.221 Z15.957 I-0.313 J2.279
X-939.856 Y-457.284 Z15.886 I0.313 J-2.279
X-938.176 Y-460.784 Z15.725 I1.952 J-1.216
X-937.632 Y-456.216 Z15.472 I0.272 J2.284
X-938.744 Y-460.641 Z15.241 I-0.272 J-2.284
X-935.609 Y-458.351 Z15.079 I0.84 J2.141
X-939.013 Y-456.485 Z14.918 I-2.295 J-0.149
X-939.257 Y-460.36 Z14.756 I1.109 J-2.015
X-935.646 Y-458.936 Z14.595 I1.353 J1.86
X-938.469 Y-456.27 Z14.434 I-2.258 J0.436
X-939.683 Y-459.958 Z14.272 I0.564 J-2.23
X-935.829 Y-459.492 Z14.111 I1.779 J1.458
X-937.887 Y-456.2 Z13.95 I-2.075 J0.992
X-939.993 Y-459.462 Z13.788 I-0.017 J-2.3
X-935.815 Y-457.538 Z13.536 I2.089 J0.962
X-937.307 Y-456.279 Z13.465 I-2.089 J-0.962
X-940.168 Y-458.903 Z13.304 I-0.597 J-2.221
X-935.64 Y-458.097 Z13.052 I2.264 J0.403
X-936.766 Y-456.501 Z12.981 I-2.264 J-0.403
X-940.197 Y-458.318 Z12.82 I-1.138 J-1.999
X-937.095 Y-460.653 Z12.658 I2.293 J-0.182
X-936.298 Y-456.853 Z12.497 I-0.809 J2.153
X-940.077 Y-457.745 Z12.336 I-1.606 J-1.647
X-937.665 Y-460.788 Z12.174 I2.173 J-0.755
X-938.143 Y-456.212 Z11.922 I-0.239 J2.288
X-939.816 Y-457.221 Z11.852 I0.239 J-2.288
X-938.25 Y-460.774 Z11.69 I1.912 J-1.279
X-937.558 Y-456.226 Z11.438 I0.346 J2.274
X-939.431 Y-456.78 Z11.367 I-0.346 J-2.274
X-938.813 Y-460.613 Z11.206 I1.527 J-1.72
X-935.605 Y-458.426 Z11.045 I0.909 J2.113
X-938.947 Y-456.45 Z10.883 I-2.299 J-0.074
X-939.317 Y-460.315 Z10.722 I1.043 J-2.05
X-935.661 Y-459.008 Z10.56 I1.413 J1.815
X-938.396 Y-456.253 Z10.399 I-2.243 J0.508
X-939.729 Y-459.9 Z10.238 I0.492 J-2.247
X-935.862 Y-459.558 Z10.076 I1.825 J1.4
X-937.813 Y-456.202 Z9.915 I-2.042 J1.058
X-940.023 Y-459.393 Z9.754 I-0.091 J-2.298
X-936.195 Y-460.039 Z9.592 I2.119 J0.893
X-939.613 Y-456.961 Z9.34 I-1.709 J1.539
X-940.18 Y-458.83 Z9.269 I1.709 J-1.539
X-936.639 Y-460.421 Z9.108 I2.276 J0.33
X-936.702 Y-456.539 Z8.947 I-1.265 J1.921
X-940.19 Y-458.244 Z8.785 I-1.202 J-1.961
X-937.165 Y-460.678 Z8.624 I2.286 J-0.256
X-936.246 Y-456.906 Z8.462 I-0.739 J2.178
X-940.051 Y-457.675 Z8.301 I-1.658 J-1.594
X-937.739 Y-460.794 Z8.14 I2.147 J-0.825
X-938.069 Y-456.206 Z7.887 I-0.165 J2.294
X-939.773 Y-457.16 Z7.817 I0.165 J-2.294
X-938.323 Y-460.761 Z7.656 I1.869 J-1.34
X-935.678 Y-457.919 Z7.494 I0.419 J2.261
X-939.375 Y-456.732 Z7.333 I-2.226 J-0.581
X-938.881 Y-460.582 Z7.171 I1.471 J-1.768
X-935.604 Y-458.5 Z7.01 I0.977 J2.082
X-940.204 I-2.3
X-937.904 Y-460.8 I2.3
X-935.684 Y-459.102 J2.3
X-935.604 Y-458.5 I-2.22 J0.602
G1 X-935.601 Y-458.294 F850
X-935.594 Y-458.247
X-935.578 Y-457.967
X-935.609 Y-457.689
X-935.687 Y-457.42
X-935.697 Y-457.394
X-935.723 Y-457.34
X-935.756 Y-457.285
X-935.906 Y-457.068
X-936.031 Y-456.889
X-936.065 Y-456.85
X-936.249 Y-456.685
X-936.467 Y-456.495
X-936.596 Y-456.415
X-936.902 Y-456.254
X-937.016 Y-456.197
X-937.12 Y-456.164
X-937.555 Y-456.057
X-937.664 Y-456.044
X-937.99
X-938.208 Y-456.049
X-938.425 Y-456.099
X-938.643 Y-456.152
X-938.795 Y-456.197
X-938.861 Y-456.229
X-939.214 Y-456.415
X-939.296 Y-456.461
X-939.514 Y-456.643
X-939.731 Y-456.838
X-939.743 Y-456.85
X-939.904 Y-457.068
X-940.054 Y-457.285
X-940.087 Y-457.34
X-940.113 Y-457.394
X-940.167 Y-457.534
X-940.237 Y-457.721
X-940.307 Y-457.938
X-940.335 Y-458.156
X-940.361 Y-458.373
X-940.37 Y-458.482
X-940.365 Y-458.591
X-940.313 Y-459.026
X-940.29 Y-459.135
X-940.25 Y-459.244
X-940.167 Y-459.466
X-940.076 Y-459.679
X-939.929 Y-459.897
X-939.775 Y-460.114
X-939.731 Y-460.163
X-939.514 Y-460.357
X-939.296 Y-460.539
X-939.28 Y-460.55
X-939.078 Y-460.657
X-938.861 Y-460.771
X-938.752 Y-460.819
X-938.643 Y-460.848
X-938.425 Y-460.901
X-938.208 Y-460.951
X-937.99 Y-460.956
X-937.664
X-937.555 Y-460.943
X-937.12 Y-460.836
X-937.031 Y-460.809
X-936.942 Y-460.767
X-936.684 Y-460.632
X-936.531 Y-460.55
X-936.467 Y-460.505
X-936.249 Y-460.315
X-936.035 Y-460.114
X-935.881 Y-459.897
X-935.814 Y-459.799
X-935.734 Y-459.679
X-935.642 Y-459.461
X-935.56 Y-459.244
X-935.52 Y-459.135
X-935.494 Y-459.026
X-935.439 Y-458.591
X-935.433 Y-458.482
X-935.443 Y-458.373
X-935.471 Y-458.156
X-935.5 Y-457.938
X-935.573 Y-457.721
X-935.687 Y-457.42
X-935.717 Y-457.374 Z7.017
X-935.746 Y-457.33 Z7.036
X-935.771 Y-457.292 Z7.067
X-935.791 Y-457.261 Z7.108
X-935.806 Y-457.238 Z7.157
X-935.815 Y-457.229 Z7.2
X-935.818 Y-457.226 Z7.246
G0 Z20
X-936.403 Y-456.757
Z10.11
G1 Z9.51 F850
G3 X-940.113 Y-457.859 Z9.349 I-1.501 J-1.743 F283.3
X-937.57 Y-460.776 Z9.189 I2.209 J-0.641
X-935.973 Y-457.251 Z9.028 I-0.334 J2.276
X-939.843 Y-457.262 Z8.868 I-1.931 J-1.249
X-938.225 Y-460.778 Z8.707 I1.938 J-1.238
X-937.583 Y-456.222 Z8.455 I0.321 J2.278
X-939.415 Y-456.766 Z8.386 I-0.321 J-2.278
X-938.854 Y-460.595 Z8.225 I1.511 J-1.734
X-935.604 Y-458.494 Z8.065 I0.95 J2.095
X-938.865 Y-456.41 Z7.904 I-2.3 J-0.006
X-939.406 Y-460.242 Z7.744 I0.961 J-2.09
X-935.696 Y-459.143 Z7.583 I1.502 J1.742
X-938.237 Y-456.224 Z7.423 I-2.208 J0.642
X-939.836 Y-459.748 Z7.262 I0.333 J-2.276
X-935.966 Y-459.739 Z7.102 I1.932 J1.248
X-937.582 Y-456.223 Z6.941 I-1.938 J1.239
X-940.109 Y-459.153 Z6.78 I-0.322 J-2.277
X-936.394 Y-460.235 Z6.62 I2.205 J0.653
X-936.953 Y-456.406 Z6.459 I-1.51 J1.735
X-940.204 Y-458.505 Z6.299 I-0.951 J-2.094
X-936.944 Y-460.59 Z6.138 I2.3 J0.005
X-938.864 Y-456.41 Z5.886 I-0.96 J2.09
X-940.112 Y-457.856 Z5.817 I0.96 J-2.09
X-937.573 Y-460.776 Z5.656 I2.208 J-0.644
X-935.971 Y-457.253 Z5.496 I-0.331 J2.276
X-939.841 Y-457.26 Z5.335 I-1.933 J-1.247
X-938.228 Y-460.777 Z5.175 I1.937 J-1.24
X-935.698 Y-457.849 Z5.014 I0.324 J2.277
X-939.413 Y-456.764 Z4.854 I-2.206 J-0.651
X-938.857 Y-460.593 Z4.693 I1.509 J-1.736
X-935.604 Y-458.497 Z4.532 I0.953 J2.093
X-940.204 Y-458.503 Z4.28 I-2.3 J-0.003
X-939.408 Y-460.24 Z4.211 I2.3 J0.003
X-935.696 Y-459.145 Z4.051 I1.504 J1.74
X-938.234 Y-456.224 Z3.89 I-2.208 J0.645
X-939.838 Y-459.745 Z3.73 I0.33 J-2.276
X-935.968 Y-459.742 Z3.569 I1.934 J1.245
X-937.579 Y-456.223 Z3.408 I-1.936 J1.242
X-938.229 Y-460.777 Z3.156 I-0.325 J-2.277
X-936.95 Y-456.407 Z2.927 I0.325 J2.277
X-940.204 Y-458.502 Z2.766 I-0.954 J-2.093
X-936.947 Y-460.592 Z2.606 I2.3 J0.002
X-938.861 Y-456.408 Z2.353 I-0.957 J2.092
X-936.947 Y-460.592 Z2.101 I0.957 J-2.092
X-935.97 Y-457.256 Z1.963 I-0.957 J2.092
X-939.839 Y-457.257 Z1.803 I-1.934 J-1.244
X-935.969 Y-459.743 Z1.551 I1.935 J-1.243
X-935.697 Y-457.852 Z1.482 I-1.935 J1.243
X-939.41 Y-456.762 Z1.321 I-2.207 J-0.648
X-936.398 Y-460.238 Z1.069 I1.506 J-1.738
X-935.604 Y-458.5 Z1 I-1.506 J1.738
X-940.204 I-2.3
X-937.904 Y-460.8 I2.3
X-935.684 Y-459.102 J2.3
X-935.604 Y-458.5 I-2.22 J0.602
G1 X-935.601 Y-458.294 F850
X-935.594 Y-458.247
X-935.578 Y-457.967
X-935.609 Y-457.689
X-935.687 Y-457.42
X-935.697 Y-457.394
X-935.723 Y-457.34
X-935.756 Y-457.285
X-935.906 Y-457.068
X-936.031 Y-456.889
X-936.065 Y-456.85
X-936.249 Y-456.685
X-936.467 Y-456.495
X-936.596 Y-456.415
X-936.902 Y-456.254
X-937.016 Y-456.197
X-937.12 Y-456.164
X-937.555 Y-456.057
X-937.664 Y-456.044
X-937.99
X-938.208 Y-456.049
X-938.425 Y-456.099
X-938.643 Y-456.152
X-938.795 Y-456.197
X-938.861 Y-456.229
X-939.214 Y-456.415
X-939.296 Y-456.461
X-939.514 Y-456.643
X-939.731 Y-456.838
X-939.743 Y-456.85
X-939.904 Y-457.068
X-940.054 Y-457.285
X-940.087 Y-457.34
X-940.113 Y-457.394
X-940.167 Y-457.534
X-940.237 Y-457.721
X-940.307 Y-457.938
X-940.335 Y-458.156
X-940.361 Y-458.373
X-940.37 Y-458.482
X-940.365 Y-458.591
X-940.313 Y-459.026
X-940.29 Y-459.135
X-940.25 Y-459.244
X-940.167 Y-459.466
X-940.076 Y-459.679
X-939.929 Y-459.897
X-939.775 Y-460.114
X-939.731 Y-460.163
X-939.514 Y-460.357
X-939.296 Y-460.539
X-939.28 Y-460.55
X-939.078 Y-460.657
X-938.861 Y-460.771
X-938.752 Y-460.819
X-938.643 Y-460.848
X-938.425 Y-460.901
X-938.208 Y-460.951
X-937.99 Y-460.956
X-937.664
X-937.555 Y-460.943
X-937.12 Y-460.836
X-937.031 Y-460.809
X-936.942 Y-460.767
X-936.684 Y-460.632
X-936.531 Y-460.55
X-936.467 Y-460.505
X-936.249 Y-460.315
X-936.035 Y-460.114
X-935.881 Y-459.897
X-935.814 Y-459.799
X-935.734 Y-459.679
X-935.642 Y-459.461
X-935.56 Y-459.244
X-935.52 Y-459.135
X-935.494 Y-459.026
X-935.439 Y-458.591
X-935.433 Y-458.482
X-935.443 Y-458.373
X-935.471 Y-458.156
X-935.5 Y-457.938
X-935.573 Y-457.721
X-935.687 Y-457.42
G3 X-935.818 Y-457.226 I-0.553 J-0.233
G1 X-935.885 Y-457.16 Z1.007
X-935.95 Y-457.095 Z1.029
X-936.012 Y-457.034 Z1.065
X-936.069 Y-456.978 Z1.115
X-936.12 Y-456.928 Z1.176
X-936.164 Y-456.885 Z1.247
X-936.199 Y-456.85 Z1.328
X-936.224 Y-456.825 Z1.415
X-936.24 Y-456.809 Z1.506
X-936.245 Y-456.804 Z1.6
G0 Z30

(2D Contour2)
S8000 M3
M9
X-937.9 Y-458.5
Z30
Z20
G1 Z1 F850
G3 X-937.84 Y-458.08 I-0.18 J0.24
G1 X-939.28 Y-456.16
G3 X-939.7 Y-456.1 I-0.24 J-0.18
Y-460.9 I1.8 J-2.4
X-934.9 Y-458.5 I1.8 J2.4
X-939.7 Y-456.1 I-3
Y-460.9 I1.8 J-2.4
X-934.9 Y-458.5 I1.8 J2.4
X-939.7 Y-456.1 I-3
X-939.82 Y-456.94 I0.36 J-0.48
G1 X-939.46 Y-457.42
X-939.404 Y-457.495 Z1.007
X-939.349 Y-457.568 Z1.029
X-939.297 Y-457.638 Z1.065
X-939.248 Y-457.702 Z1.115
X-939.205 Y-457.759 Z1.176
X-939.169 Y-457.808 Z1.247
X-939.139 Y-457.848 Z1.328
X-939.118 Y-457.877 Z1.415
X-939.104 Y-457.894 Z1.506
X-939.1 Y-457.9 Z1.6
G0 Z30

(2D Adaptive2)
S6000 M3
M9
X-937.379 Y-264.261
Z30
Z20
Z18.1
G1 Z17.5 F850
G3 X-938.429 Y-268.739 Z17.248 I-0.525 J-2.239 F283.3
X-936.831 Y-264.466 Z17.016 I0.525 J2.239
X-940.202 Y-266.392 Z16.854 I-1.073 J-2.034
X-937.026 Y-268.626 Z16.693 I2.297 J-0.108
X-936.352 Y-264.802 Z16.532 I-0.878 J2.126
X-939.456 Y-268.198 Z16.279 I-1.552 J-1.698
X-937.591 Y-268.779 Z16.209 I1.552 J1.698
X-938.217 Y-264.221 Z15.957 I-0.313 J2.279
X-939.856 Y-265.284 Z15.886 I0.313 J-2.279
X-938.176 Y-268.784 Z15.725 I1.952 J-1.216
X-937.632 Y-264.216 Z15.472 I0.272 J2.284
X-938.744 Y-268.641 Z15.241 I-0.272 J-2.284
X-935.609 Y-266.351 Z15.079 I0.84 J2.141
X-939.013 Y-264.485 Z14.918 I-2.295 J-0.149
X-939.257 Y-268.36 Z14.756 I1.109 J-2.015
X-935.646 Y-266.936 Z14.595 I1.353 J1.86
X-938.469 Y-264.27 Z14.434 I-2.258 J0.436
X-939.683 Y-267.958 Z14.272 I0.564 J-2.23
X-935.829 Y-267.492 Z14.111 I1.779 J1.458
X-937.887 Y-264.2 Z13.95 I-2.075 J0.992
X-939.993 Y-267.462 Z13.788 I-0.017 J-2.3
X-935.815 Y-265.538 Z13.536 I2.089 J0.962
X-937.307 Y-264.279 Z13.465 I-2.089 J-0.962
X-940.168 Y-266.903 Z13.304 I-0.597 J-2.221
X-935.64 Y-266.097 Z13.052 I2.264 J0.403
X-936.766 Y-264.501 Z12.981 I-2.264 J-0.403
X-940.197 Y-266.318 Z12.82 I-1.138 J-1.999
X-937.095 Y-268.653 Z12.658 I2.293 J-0.182
X-936.298 Y-264.853 Z12.497 I-0.809 J2.153
X-940.077 Y-265.745 Z12.336 I-1.606 J-1.647
X-937.665 Y-268.788 Z12.174 I2.173 J-0.755
X-938.143 Y-264.212 Z11.922 I-0.239 J2.288
X-939.816 Y-265.221 Z11.852 I0.239 J-2.288
X-938.25 Y-268.774 Z11.69 I1.912 J-1.279
X-937.558 Y-264.226 Z11.438 I0.346 J2.274
X-939.431 Y-264.78 Z11.367 I-0.346 J-2.274
X-938.813 Y-268.613 Z11.206 I1.527 J-1.72
X-935.605 Y-266.426 Z11.045 I0.909 J2.113
X-938.947 Y-264.45 Z10.883 I-2.299 J-0.074
X-939.317 Y-268.315 Z10.722 I1.043 J-2.05
X-935.661 Y-267.008 Z10.56 I1.413 J1.815
X-938.396 Y-264.253 Z10.399 I-2.243 J0.508
X-939.729 Y-267.9 Z10.238 I0.492 J-2.247
X-935.862 Y-267.558 Z10.076 I1.825 J1.4
X-937.813 Y-264.202 Z9.915 I-2.042 J1.058
X-940.023 Y-267.393 Z9.754 I-0.091 J-2.298
X-936.195 Y-268.039 Z9.592 I2.119 J0.893
X-939.613 Y-264.961 Z9.34 I-1.709 J1.539
X-940.18 Y-266.83 Z9.269 I1.709 J-1.539
X-936.639 Y-268.421 Z9.108 I2.276 J0.33
X-936.702 Y-264.539 Z8.947 I-1.265 J1.921
X-940.19 Y-266.244 Z8.785 I-1.202 J-1.961
X-937.165 Y-268.678 Z8.624 I2.286 J-0.256
X-936.246 Y-264.906 Z8.462 I-0.739 J2.178
X-940.051 Y-265.675 Z8.301 I-1.658 J-1.594
X-937.739 Y-268.794 Z8.14 I2.147 J-0.825
X-938.069 Y-264.206 Z7.887 I-0.165 J2.294
X-939.773 Y-265.16 Z7.817 I0.165 J-2.294
X-938.323 Y-268.761 Z7.656 I1.869 J-1.34
X-935.678 Y-265.919 Z7.494 I0.419 J2.261
X-939.375 Y-264.732 Z7.333 I-2.226 J-0.581
X-938.881 Y-268.582 Z7.171 I1.471 J-1.768
X-935.604 Y-266.5 Z7.01 I0.977 J2.082
X-940.204 I-2.3
X-937.904 Y-268.8 I2.3
X-935.684 Y-267.102 J2.3
X-935.604 Y-266.5 I-2.22 J0.602
G1 X-935.601 Y-266.294 F850
X-935.594 Y-266.247
X-935.578 Y-265.967
X-935.609 Y-265.689
X-935.687 Y-265.42
X-935.697 Y-265.394
X-935.723 Y-265.34
X-935.756 Y-265.285
X-935.906 Y-265.068
X-936.031 Y-264.889
X-936.065 Y-264.85
X-936.249 Y-264.685
X-936.467 Y-264.495
X-936.596 Y-264.415
X-936.902 Y-264.254
X-937.016 Y-264.197
X-937.12 Y-264.164
X-937.555 Y-264.057
X-937.664 Y-264.044
X-937.99
X-938.208 Y-264.049
X-938.425 Y-264.099
X-938.643 Y-264.152
X-938.795 Y-264.197
X-938.861 Y-264.229
X-939.214 Y-264.415
X-939.296 Y-264.461
X-939.514 Y-264.643
X-939.731 Y-264.838
X-939.743 Y-264.85
X-939.904 Y-265.068
X-940.054 Y-265.285
X-940.087 Y-265.34
X-940.113 Y-265.394
X-940.167 Y-265.534
X-940.237 Y-265.721
X-940.307 Y-265.938
X-940.335 Y-266.156
X-940.361 Y-266.373
X-940.37 Y-266.482
X-940.365 Y-266.591
X-940.313 Y-267.026
X-940.29 Y-267.135
X-940.25 Y-267.244
X-940.167 Y-267.466
X-940.076 Y-267.679
X-939.929 Y-267.897
X-939.775 Y-268.114
X-939.731 Y-268.163
X-939.514 Y-268.357
X-939.296 Y-268.539
X-939.28 Y-268.55
X-939.078 Y-268.657
X-938.861 Y-268.771
X-938.752 Y-268.819
X-938.643 Y-268.848
X-938.425 Y-268.901
X-938.208 Y-268.951
X-937.99 Y-268.956
X-937.664
X-937.555 Y-268.943
X-937.12 Y-268.836
X-937.031 Y-268.809
X-936.942 Y-268.767
X-936.684 Y-268.632
X-936.531 Y-268.55
X-936.467 Y-268.505
X-936.249 Y-268.315
X-936.035 Y-268.114
X-935.881 Y-267.897
X-935.814 Y-267.799
X-935.734 Y-267.679
X-935.642 Y-267.461
X-935.56 Y-267.244
X-935.52 Y-267.135
X-935.494 Y-267.026
X-935.439 Y-266.591
X-935.433 Y-266.482
X-935.443 Y-266.373
X-935.471 Y-266.156
X-935.5 Y-265.938
X-935.573 Y-265.721
X-935.687 Y-265.42
X-935.717 Y-265.374 Z7.017
X-935.746 Y-265.33 Z7.036
X-935.771 Y-265.292 Z7.067
X-935.791 Y-265.261 Z7.108
X-935.806 Y-265.238 Z7.157
X-935.815 Y-265.229 Z7.2
X-935.818 Y-265.226 Z7.246
G0 Z20
X-936.403 Y-264.757
Z10.11
G1 Z9.51 F850
G3 X-940.113 Y-265.859 Z9.349 I-1.501 J-1.743 F283.3
X-937.57 Y-268.776 Z9.189 I2.209 J-0.641
X-935.973 Y-265.251 Z9.028 I-0.334 J2.276
X-939.843 Y-265.262 Z8.868 I-1.931 J-1.249
X-938.225 Y-268.778 Z8.707 I1.938 J-1.238
X-937.583 Y-264.222 Z8.455 I0.321 J2.278
X-939.415 Y-264.766 Z8.386 I-0.321 J-2.278
X-938.854 Y-268.595 Z8.225 I1.511 J-1.734
X-935.604 Y-266.494 Z8.065 I0.95 J2.095
X-938.865 Y-264.41 Z7.904 I-2.3 J-0.006
X-939.406 Y-268.242 Z7.744 I0.961 J-2.09
X-935.696 Y-267.143 Z7.583 I1.502 J1.742
X-938.237 Y-264.224 Z7.423 I-2.208 J0.642
X-939.836 Y-267.748 Z7.262 I0.333 J-2.276
X-935.966 Y-267.739 Z7.102 I1.932 J1.248
X-937.582 Y-264.223 Z6.941 I-1.938 J1.239
X-940.109 Y-267.153 Z6.78 I-0.322 J-2.277
X-936.394 Y-268.235 Z6.62 I2.205 J0.653
X-936.953 Y-264.406 Z6.459 I-1.51 J1.735
X-940.204 Y-266.505 Z6.299 I-0.951 J-2.094
X-936.944 Y-268.59 Z6.138 I2.3 J0.005
X-938.864 Y-264.41 Z5.886 I-0.96 J2.09
X-940.112 Y-265.856 Z5.817 I0.96 J-2.09
X-937.573 Y-268.776 Z5.656 I2.208 J-0.644
X-935.971 Y-265.253 Z5.496 I-0.331 J2.276
X-939.841 Y-265.26 Z5.335 I-1.933 J-1.247
X-938.228 Y-268.777 Z5.175 I1.937 J-1.24
X-935.698 Y-265.849 Z5.014 I0.324 J2.277
X-939.413 Y-264.764 Z4.854 I-2.206 J-0.651
X-938.857 Y-268.593 Z4.693 I1.509 J-1.736
X-935.604 Y-266.497 Z4.532 I0.953 J2.093
X-940.204 Y-266.503 Z4.28 I-2.3 J-0.003
X-939.408 Y-268.24 Z4.211 I2.3 J0.003
X-935.696 Y-267.145 Z4.051 I1.504 J1.74
X-938.234 Y-264.224 Z3.89 I-2.208 J0.645
X-939.838 Y-267.745 Z3.73 I0.33 J-2.276
X-935.968 Y-267.742 Z3.569 I1.934 J1.245
X-937.579 Y-264.223 Z3.408 I-1.936 J1.242
X-938.229 Y-268.777 Z3.156 I-0.325 J-2.277
X-936.95 Y-264.407 Z2.927 I0.325 J2.277
X-940.204 Y-266.502 Z2.766 I-0.954 J-2.093
X-936.947 Y-268.592 Z2.606 I2.3 J0.002
X-938.861 Y-264.408 Z2.353 I-0.957 J2.092
X-936.947 Y-268.592 Z2.101 I0.957 J-2.092
X-935.97 Y-265.256 Z1.963 I-0.957 J2.092
X-939.839 Y-265.257 Z1.803 I-1.934 J-1.244
X-935.969 Y-267.743 Z1.551 I1.935 J-1.243
X-935.697 Y-265.852 Z1.482 I-1.935 J1.243
X-939.41 Y-264.762 Z1.321 I-2.207 J-0.648
X-936.398 Y-268.238 Z1.069 I1.506 J-1.738
X-935.604 Y-266.5 Z1 I-1.506 J1.738
X-940.204 I-2.3
X-937.904 Y-268.8 I2.3
X-935.684 Y-267.102 J2.3
X-935.604 Y-266.5 I-2.22 J0.602
G1 X-935.601 Y-266.294 F850
X-935.594 Y-266.247
X-935.578 Y-265.967
X-935.609 Y-265.689
X-935.687 Y-265.42
X-935.697 Y-265.394
X-935.723 Y-265.34
X-935.756 Y-265.285
X-935.906 Y-265.068
X-936.031 Y-264.889
X-936.065 Y-264.85
X-936.249 Y-264.685
X-936.467 Y-264.495
X-936.596 Y-264.415
X-936.902 Y-264.254
X-937.016 Y-264.197
X-937.12 Y-264.164
X-937.555 Y-264.057
X-937.664 Y-264.044
X-937.99
X-938.208 Y-264.049
X-938.425 Y-264.099
X-938.643 Y-264.152
X-938.795 Y-264.197
X-938.861 Y-264.229
X-939.214 Y-264.415
X-939.296 Y-264.461
X-939.514 Y-264.643
X-939.731 Y-264.838
X-939.743 Y-264.85
X-939.904 Y-265.068
X-940.054 Y-265.285
X-940.087 Y-265.34
X-940.113 Y-265.394
X-940.167 Y-265.534
X-940.237 Y-265.721
X-940.307 Y-265.938
X-940.335 Y-266.156
X-940.361 Y-266.373
X-940.37 Y-266.482
X-940.365 Y-266.591
X-940.313 Y-267.026
X-940.29 Y-267.135
X-940.25 Y-267.244
X-940.167 Y-267.466
X-940.076 Y-267.679
X-939.929 Y-267.897
X-939.775 Y-268.114
X-939.731 Y-268.163
X-939.514 Y-268.357
X-939.296 Y-268.539
X-939.28 Y-268.55
X-939.078 Y-268.657
X-938.861 Y-268.771
X-938.752 Y-268.819
X-938.643 Y-268.848
X-938.425 Y-268.901
X-938.208 Y-268.951
X-937.99 Y-268.956
X-937.664
X-937.555 Y-268.943
X-937.12 Y-268.836
X-937.031 Y-268.809
X-936.942 Y-268.767
X-936.684 Y-268.632
X-936.531 Y-268.55
X-936.467 Y-268.505
X-936.249 Y-268.315
X-936.035 Y-268.114
X-935.881 Y-267.897
X-935.814 Y-267.799
X-935.734 Y-267.679
X-935.642 Y-267.461
X-935.56 Y-267.244
X-935.52 Y-267.135
X-935.494 Y-267.026
X-935.439 Y-266.591
X-935.433 Y-266.482
X-935.443 Y-266.373
X-935.471 Y-266.156
X-935.5 Y-265.938
X-935.573 Y-265.721
X-935.687 Y-265.42
G3 X-935.818 Y-265.226 I-0.553 J-0.233
G1 X-935.885 Y-265.16 Z1.007
X-935.95 Y-265.095 Z1.029
X-936.012 Y-265.034 Z1.065
X-936.069 Y-264.978 Z1.115
X-936.12 Y-264.928 Z1.176
X-936.164 Y-264.885 Z1.247
X-936.199 Y-264.85 Z1.328
X-936.224 Y-264.825 Z1.415
X-936.24 Y-264.809 Z1.506
X-936.245 Y-264.804 Z1.6
G0 Z30

(2D Contour2)
S8000 M3
M9
X-937.9 Y-266.5
Z30
Z20
G1 Z1 F850
G3 X-937.84 Y-266.08 I-0.18 J0.24
G1 X-939.28 Y-264.16
G3 X-939.7 Y-264.1 I-0.24 J-0.18
Y-268.9 I1.8 J-2.4
X-934.9 Y-266.5 I1.8 J2.4
X-939.7 Y-264.1 I-3
Y-268.9 I1.8 J-2.4
X-934.9 Y-266.5 I1.8 J2.4
X-939.7 Y-264.1 I-3
X-939.82 Y-264.94 I0.36 J-0.48
G1 X-939.46 Y-265.42
X-939.404 Y-265.495 Z1.007
X-939.349 Y-265.568 Z1.029
X-939.297 Y-265.638 Z1.065
X-939.248 Y-265.702 Z1.115
X-939.205 Y-265.759 Z1.176
X-939.169 Y-265.808 Z1.247
X-939.139 Y-265.848 Z1.328
X-939.118 Y-265.877 Z1.415
X-939.104 Y-265.894 Z1.506
X-939.1 Y-265.9 Z1.6
G0 Z30

(2D Adaptive2)
S6000 M3
M9
X-937.379 Y-72.261
Z30
Z20
Z18.1
G1 Z17.5 F850
G3 X-938.429 Y-76.739 Z17.248 I-0.525 J-2.239 F283.3
X-936.831 Y-72.466 Z17.016 I0.525 J2.239
X-940.202 Y-74.392 Z16.854 I-1.073 J-2.034
X-937.026 Y-76.626 Z16.693 I2.297 J-0.108
X-936.352 Y-72.802 Z16.532 I-0.878 J2.126
X-939.456 Y-76.198 Z16.279 I-1.552 J-1.698
X-937.591 Y-76.779 Z16.209 I1.552 J1.698
X-938.217 Y-72.221 Z15.957 I-0.313 J2.279
X-939.856 Y-73.284 Z15.886 I0.313 J-2.279
X-938.176 Y-76.784 Z15.725 I1.952 J-1.216
X-937.632 Y-72.216 Z15.472 I0.272 J2.284
X-938.744 Y-76.641 Z15.241 I-0.272 J-2.284
X-935.609 Y-74.351 Z15.079 I0.84 J2.141
X-939.013 Y-72.485 Z14.918 I-2.295 J-0.149
X-939.257 Y-76.36 Z14.756 I1.109 J-2.015
X-935.646 Y-74.936 Z14.595 I1.353 J1.86
X-938.469 Y-72.27 Z14.434 I-2.258 J0.436
X-939.683 Y-75.958 Z14.272 I0.564 J-2.23
X-935.829 Y-75.492 Z14.111 I1.779 J1.458
X-937.887 Y-72.2 Z13.95 I-2.075 J0.992
X-939.993 Y-75.462 Z13.788 I-0.017 J-2.3
X-935.815 Y-73.538 Z13.536 I2.089 J0.962
X-937.307 Y-72.279 Z13.465 I-2.089 J-0.962
X-940.168 Y-74.903 Z13.304 I-0.597 J-2.221
X-935.64 Y-74.097 Z13.052 I2.264 J0.403
X-936.766 Y-72.501 Z12.981 I-2.264 J-0.403
X-940.197 Y-74.318 Z12.82 I-1.138 J-1.999
X-937.095 Y-76.653 Z12.658 I2.293 J-0.182
X-936.298 Y-72.853 Z12.497 I-0.809 J2.153
X-940.077 Y-73.745 Z12.336 I-1.606 J-1.647
X-937.665 Y-76.788 Z12.174 I2.173 J-0.755
X-938.143 Y-72.212 Z11.922 I-0.239 J2.288
X-939.816 Y-73.221 Z11.852 I0.239 J-2.288
X-938.25 Y-76.774 Z11.69 I1.912 J-1.279
X-937.558 Y-72.226 Z11.438 I0.346 J2.274
X-939.431 Y-72.78 Z11.367 I-0.346 J-2.274
X-938.813 Y-76.613 Z11.206 I1.527 J-1.72
X-935.605 Y-74.426 Z11.045 I0.909 J2.113
X-938.947 Y-72.45 Z10.883 I-2.299 J-0.074
X-939.317 Y-76.315 Z10.722 I1.043 J-2.05
X-935.661 Y-75.008 Z10.56 I1.413 J1.815
X-938.396 Y-72.253 Z10.399 I-2.243 J0.508
X-939.729 Y-75.9 Z10.238 I0.492 J-2.247
X-935.862 Y-75.558 Z10.076 I1.825 J1.4
X-937.813 Y-72.202 Z9.915 I-2.042 J1.058
X-940.023 Y-75.393 Z9.754 I-0.091 J-2.298
X-936.195 Y-76.039 Z9.592 I2.119 J0.893
X-939.613 Y-72.961 Z9.34 I-1.709 J1.539
X-940.18 Y-74.83 Z9.269 I1.709 J-1.539
X-936.639 Y-76.421 Z9.108 I2.276 J0.33
X-936.702 Y-72.539 Z8.947 I-1.265 J1.921
X-940.19 Y-74.244 Z8.785 I-1.202 J-1.961
X-937.165 Y-76.678 Z8.624 I2.286 J-0.256
X-936.246 Y-72.906 Z8.462 I-0.739 J2.178
X-940.051 Y-73.675 Z8.301 I-1.658 J-1.594
X-937.739 Y-76.794 Z8.14 I2.147 J-0.825
X-938.069 Y-72.206 Z7.887 I-0.165 J2.294
X-939.773 Y-73.16 Z7.817 I0.165 J-2.294
X-938.323 Y-76.761 Z7.656 I1.869 J-1.34
X-935.678 Y-73.919 Z7.494 I0.419 J2.261
X-939.375 Y-72.732 Z7.333 I-2.226 J-0.581
X-938.881 Y-76.582 Z7.171 I1.471 J-1.768
X-935.604 Y-74.5 Z7.01 I0.977 J2.082
X-940.204 I-2.3
X-937.904 Y-76.8 I2.3
X-935.684 Y-75.102 J2.3
X-935.604 Y-74.5 I-2.22 J0.602
G1 X-935.601 Y-74.294 F850
X-935.594 Y-74.247
X-935.578 Y-73.967
X-935.609 Y-73.689
X-935.687 Y-73.42
X-935.697 Y-73.394
X-935.723 Y-73.34
X-935.756 Y-73.285
X-935.906 Y-73.068
X-936.031 Y-72.889
X-936.065 Y-72.85
X-936.249 Y-72.685
X-936.467 Y-72.495
X-936.596 Y-72.415
X-936.902 Y-72.254
X-937.016 Y-72.197
X-937.12 Y-72.164
X-937.555 Y-72.057
X-937.664 Y-72.044
X-937.99
X-938.208 Y-72.049
X-938.425 Y-72.099
X-938.643 Y-72.152
X-938.795 Y-72.197
X-938.861 Y-72.229
X-939.214 Y-72.415
X-939.296 Y-72.461
X-939.514 Y-72.643
X-939.731 Y-72.838
X-939.743 Y-72.85
X-939.904 Y-73.068
X-940.054 Y-73.285
X-940.087 Y-73.34
X-940.113 Y-73.394
X-940.167 Y-73.534
X-940.237 Y-73.721
X-940.307 Y-73.938
X-940.335 Y-74.156
X-940.361 Y-74.373
X-940.37 Y-74.482
X-940.365 Y-74.591
X-940.313 Y-75.026
X-940.29 Y-75.135
X-940.25 Y-75.244
X-940.167 Y-75.466
X-940.076 Y-75.679
X-939.929 Y-75.897
X-939.775 Y-76.114
X-939.731 Y-76.163
X-939.514 Y-76.357
X-939.296 Y-76.539
X-939.28 Y-76.55
X-939.078 Y-76.657
X-938.861 Y-76.771
X-938.752 Y-76.819
X-938.643 Y-76.848
X-938.425 Y-76.901
X-938.208 Y-76.951
X-937.99 Y-76.956
X-937.664
X-937.555 Y-76.943
X-937.12 Y-76.836
X-937.031 Y-76.809
X-936.942 Y-76.767
X-936.684 Y-76.632
X-936.531 Y-76.55
X-936.467 Y-76.505
X-936.249 Y-76.315
X-936.035 Y-76.114
X-935.881 Y-75.897
X-935.814 Y-75.799
X-935.734 Y-75.679
X-935.642 Y-75.461
X-935.56 Y-75.244
X-935.52 Y-75.135
X-935.494 Y-75.026
X-935.439 Y-74.591
X-935.433 Y-74.482
X-935.443 Y-74.373
X-935.471 Y-74.156
X-935.5 Y-73.938
X-935.573 Y-73.721
X-935.687 Y-73.42
X-935.717 Y-73.374 Z7.017
X-935.746 Y-73.33 Z7.036
X-935.771 Y-73.292 Z7.067
X-935.791 Y-73.261 Z7.108
X-935.806 Y-73.238 Z7.157
X-935.815 Y-73.229 Z7.2
X-935.818 Y-73.226 Z7.246
G0 Z20
X-936.403 Y-72.757
Z10.11
G1 Z9.51 F850
G3 X-940.113 Y-73.859 Z9.349 I-1.501 J-1.743 F283.3
X-937.57 Y-76.776 Z9.189 I2.209 J-0.641
X-935.973 Y-73.251 Z9.028 I-0.334 J2.276
X-939.843 Y-73.262 Z8.868 I-1.931 J-1.249
X-938.225 Y-76.778 Z8.707 I1.938 J-1.238
X-937.583 Y-72.222 Z8.455 I0.321 J2.278
X-939.415 Y-72.766 Z8.386 I-0.321 J-2.278
X-938.854 Y-76.595 Z8.225 I1.511 J-1.734
X-935.604 Y-74.494 Z8.065 I0.95 J2.095
X-938.865 Y-72.41 Z7.904 I-2.3 J-0.006
X-939.406 Y-76.242 Z7.744 I0.961 J-2.09
X-935.696 Y-75.143 Z7.583 I1.502 J1.742
X-938.237 Y-72.224 Z7.423 I-2.208 J0.642
X-939.836 Y-75.748 Z7.262 I0.333 J-2.276
X-935.966 Y-75.739 Z7.102 I1.932 J1.248
X-937.582 Y-72.223 Z6.941 I-1.938 J1.239
X-940.109 Y-75.153 Z6.78 I-0.322 J-2.277
X-936.394 Y-76.235 Z6.62 I2.205 J0.653
X-936.953 Y-72.406 Z6.459 I-1.51 J1.735
X-940.204 Y-74.505 Z6.299 I-0.951 J-2.094
X-936.944 Y-76.59 Z6.138 I2.3 J0.005
X-938.864 Y-72.41 Z5.886 I-0.96 J2.09
X-940.112 Y-73.856 Z5.817 I0.96 J-2.09
X-937.573 Y-76.776 Z5.656 I2.208 J-0.644
X-935.971 Y-73.253 Z5.496 I-0.331 J2.276
X-939.841 Y-73.26 Z5.335 I-1.933 J-1.247
X-938.228 Y-76.777 Z5.175 I1.937 J-1.24
X-935.698 Y-73.849 Z5.014 I0.324 J2.277
X-939.413 Y-72.764 Z4.854 I-2.206 J-0.651
X-938.857 Y-76.593 Z4.693 I1.509 J-1.736
X-935.604 Y-74.497 Z4.532 I0.953 J2.093
X-940.204 Y-74.503 Z4.28 I-2.3 J-0.003
X-939.408 Y-76.24 Z4.211 I2.3 J0.003
X-935.696 Y-75.145 Z4.051 I1.504 J1.74
X-938.234 Y-72.224 Z3.89 I-2.208 J0.645
X-939.838 Y-75.745 Z3.73 I0.33 J-2.276
X-935.968 Y-75.742 Z3.569 I1.934 J1.245
X-937.579 Y-72.223 Z3.408 I-1.936 J1.242
X-938.229 Y-76.777 Z3.156 I-0.325 J-2.277
X-936.95 Y-72.407 Z2.927 I0.325 J2.277
X-940.204 Y-74.502 Z2.766 I-0.954 J-2.093
X-936.947 Y-76.592 Z2.606 I2.3 J0.002
X-938.861 Y-72.408 Z2.353 I-0.957 J2.092
X-936.947 Y-76.592 Z2.101 I0.957 J-2.092
X-935.97 Y-73.256 Z1.963 I-0.957 J2.092
X-939.839 Y-73.257 Z1.803 I-1.934 J-1.244
X-935.969 Y-75.743 Z1.551 I1.935 J-1.243
X-935.697 Y-73.852 Z1.482 I-1.935 J1.243
X-939.41 Y-72.762 Z1.321 I-2.207 J-0.648
X-936.398 Y-76.238 Z1.069 I1.506 J-1.738
X-935.604 Y-74.5 Z1 I-1.506 J1.738
X-940.204 I-2.3
X-937.904 Y-76.8 I2.3
X-935.684 Y-75.102 J2.3
X-935.604 Y-74.5 I-2.22 J0.602
G1 X-935.601 Y-74.294 F850
X-935.594 Y-74.247
X-935.578 Y-73.967
X-935.609 Y-73.689
X-935.687 Y-73.42
X-935.697 Y-73.394
X-935.723 Y-73.34
X-935.756 Y-73.285
X-935.906 Y-73.068
X-936.031 Y-72.889
X-936.065 Y-72.85
X-936.249 Y-72.685
X-936.467 Y-72.495
X-936.596 Y-72.415
X-936.902 Y-72.254
X-937.016 Y-72.197
X-937.12 Y-72.164
X-937.555 Y-72.057
X-937.664 Y-72.044
X-937.99
X-938.208 Y-72.049
X-938.425 Y-72.099
X-938.643 Y-72.152
X-938.795 Y-72.197
X-938.861 Y-72.229
X-939.214 Y-72.415
X-939.296 Y-72.461
X-939.514 Y-72.643
X-939.731 Y-72.838
X-939.743 Y-72.85
X-939.904 Y-73.068
X-940.054 Y-73.285
X-940.087 Y-73.34
X-940.113 Y-73.394
X-940.167 Y-73.534
X-940.237 Y-73.721
X-940.307 Y-73.938
X-940.335 Y-74.156
X-940.361 Y-74.373
X-940.37 Y-74.482
X-940.365 Y-74.591
X-940.313 Y-75.026
X-940.29 Y-75.135
X-940.25 Y-75.244
X-940.167 Y-75.466
X-940.076 Y-75.679
X-939.929 Y-75.897
X-939.775 Y-76.114
X-939.731 Y-76.163
X-939.514 Y-76.357
X-939.296 Y-76.539
X-939.28 Y-76.55
X-939.078 Y-76.657
X-938.861 Y-76.771
X-938.752 Y-76.819
X-938.643 Y-76.848
X-938.425 Y-76.901
X-938.208 Y-76.951
X-937.99 Y-76.956
X-937.664
X-937.555 Y-76.943
X-937.12 Y-76.836
X-937.031 Y-76.809
X-936.942 Y-76.767
X-936.684 Y-76.632
X-936.531 Y-76.55
X-936.467 Y-76.505
X-936.249 Y-76.315
X-936.035 Y-76.114
X-935.881 Y-75.897
X-935.814 Y-75.799
X-935.734 Y-75.679
X-935.642 Y-75.461
X-935.56 Y-75.244
X-935.52 Y-75.135
X-935.494 Y-75.026
X-935.439 Y-74.591
X-935.433 Y-74.482
X-935.443 Y-74.373
X-935.471 Y-74.156
X-935.5 Y-73.938
X-935.573 Y-73.721
X-935.687 Y-73.42
G3 X-935.818 Y-73.226 I-0.553 J-0.233
G1 X-935.885 Y-73.16 Z1.007
X-935.95 Y-73.095 Z1.029
X-936.012 Y-73.034 Z1.065
X-936.069 Y-72.978 Z1.115
X-936.12 Y-72.928 Z1.176
X-936.164 Y-72.885 Z1.247
X-936.199 Y-72.85 Z1.328
X-936.224 Y-72.825 Z1.415
X-936.24 Y-72.809 Z1.506
X-936.245 Y-72.804 Z1.6
G0 Z30

(2D Contour2)
S8000 M3
M9
X-937.9 Y-74.5
Z30
Z20
G1 Z1 F850
G3 X-937.84 Y-74.08 I-0.18 J0.24
G1 X-939.28 Y-72.16
G3 X-939.7 Y-72.1 I-0.24 J-0.18
Y-76.9 I1.8 J-2.4
X-934.9 Y-74.5 I1.8 J2.4
X-939.7 Y-72.1 I-3
Y-76.9 I1.8 J-2.4
X-934.9 Y-74.5 I1.8 J2.4
X-939.7 Y-72.1 I-3
X-939.82 Y-72.94 I0.36 J-0.48
G1 X-939.46 Y-73.42
X-939.404 Y-73.495 Z1.007
X-939.349 Y-73.568 Z1.029
X-939.297 Y-73.638 Z1.065
X-939.248 Y-73.702 Z1.115
X-939.205 Y-73.759 Z1.176
X-939.169 Y-73.808 Z1.247
X-939.139 Y-73.848 Z1.328
X-939.118 Y-73.877 Z1.415
X-939.104 Y-73.894 Z1.506
X-939.1 Y-73.9 Z1.6
G0 Z30

(2D Adaptive2)
S6000 M3
M9
X-539.379 Y-72.261
Z30
Z20
Z18.1
G1 Z17.5 F850
G3 X-540.429 Y-76.739 Z17.248 I-0.525 J-2.239 F283.3
X-538.831 Y-72.466 Z17.016 I0.525 J2.239
X-542.202 Y-74.392 Z16.854 I-1.073 J-2.034
X-539.026 Y-76.626 Z16.693 I2.297 J-0.108
X-538.352 Y-72.802 Z16.532 I-0.878 J2.126
X-541.456 Y-76.198 Z16.279 I-1.552 J-1.698
X-539.591 Y-76.779 Z16.209 I1.552 J1.698
X-540.217 Y-72.221 Z15.957 I-0.313 J2.279
X-541.856 Y-73.284 Z15.886 I0.313 J-2.279
X-540.176 Y-76.784 Z15.725 I1.952 J-1.216
X-539.632 Y-72.216 Z15.472 I0.272 J2.284
X-540.744 Y-76.641 Z15.241 I-0.272 J-2.284
X-537.609 Y-74.351 Z15.079 I0.84 J2.141
X-541.013 Y-72.485 Z14.918 I-2.295 J-0.149
X-541.257 Y-76.36 Z14.756 I1.109 J-2.015
X-537.646 Y-74.936 Z14.595 I1.353 J1.86
X-540.469 Y-72.27 Z14.434 I-2.258 J0.436
X-541.683 Y-75.958 Z14.272 I0.564 J-2.23
X-537.829 Y-75.492 Z14.111 I1.779 J1.458
X-539.887 Y-72.2 Z13.95 I-2.075 J0.992
X-541.993 Y-75.462 Z13.788 I-0.017 J-2.3
X-537.815 Y-73.538 Z13.536 I2.089 J0.962
X-539.307 Y-72.279 Z13.465 I-2.089 J-0.962
X-542.168 Y-74.903 Z13.304 I-0.597 J-2.221
X-537.64 Y-74.097 Z13.052 I2.264 J0.403
X-538.766 Y-72.501 Z12.981 I-2.264 J-0.403
X-542.197 Y-74.318 Z12.82 I-1.138 J-1.999
X-539.095 Y-76.653 Z12.658 I2.293 J-0.182
X-538.298 Y-72.853 Z12.497 I-0.809 J2.153
X-542.077 Y-73.745 Z12.336 I-1.606 J-1.647
X-539.665 Y-76.788 Z12.174 I2.173 J-0.755
X-540.143 Y-72.212 Z11.922 I-0.239 J2.288
X-541.816 Y-73.221 Z11.852 I0.239 J-2.288
X-540.25 Y-76.774 Z11.69 I1.912 J-1.279
X-539.558 Y-72.226 Z11.438 I0.346 J2.274
X-541.431 Y-72.78 Z11.367 I-0.346 J-2.274
X-540.813 Y-76.613 Z11.206 I1.527 J-1.72
X-537.605 Y-74.426 Z11.045 I0.909 J2.113
X-540.947 Y-72.45 Z10.883 I-2.299 J-0.074
X-541.317 Y-76.315 Z10.722 I1.043 J-2.05
X-537.661 Y-75.008 Z10.56 I1.413 J1.815
X-540.396 Y-72.253 Z10.399 I-2.243 J0.508
X-541.729 Y-75.9 Z10.238 I0.492 J-2.247
X-537.862 Y-75.558 Z10.076 I1.825 J1.4
X-539.813 Y-72.202 Z9.915 I-2.042 J1.058
X-542.023 Y-75.393 Z9.754 I-0.091 J-2.298
X-538.195 Y-76.039 Z9.592 I2.119 J0.893
X-541.613 Y-72.961 Z9.34 I-1.709 J1.539
X-542.18 Y-74.83 Z9.269 I1.709 J-1.539
X-538.639 Y-76.421 Z9.108 I2.276 J0.33
X-538.702 Y-72.539 Z8.947 I-1.265 J1.921
X-542.19 Y-74.244 Z8.785 I-1.202 J-1.961
X-539.165 Y-76.678 Z8.624 I2.286 J-0.256
X-538.246 Y-72.906 Z8.462 I-0.739 J2.178
X-542.051 Y-73.675 Z8.301 I-1.658 J-1.594
X-539.739 Y-76.794 Z8.14 I2.147 J-0.825
X-540.069 Y-72.206 Z7.887 I-0.165 J2.294
X-541.773 Y-73.16 Z7.817 I0.165 J-2.294
X-540.323 Y-76.761 Z7.656 I1.869 J-1.34
X-537.678 Y-73.919 Z7.494 I0.419 J2.261
X-541.375 Y-72.732 Z7.333 I-2.226 J-0.581
X-540.881 Y-76.582 Z7.171 I1.471 J-1.768
X-537.604 Y-74.5 Z7.01 I0.977 J2.082
X-542.204 I-2.3
X-539.904 Y-76.8 I2.3
X-537.684 Y-75.102 J2.3
X-537.604 Y-74.5 I-2.22 J0.602
G1 X-537.601 Y-74.294 F850
X-537.594 Y-74.247
X-537.578 Y-73.967
X-537.609 Y-73.689
X-537.687 Y-73.42
X-537.697 Y-73.394
X-537.723 Y-73.34
X-537.756 Y-73.285
X-537.906 Y-73.068
X-538.031 Y-72.889
X-538.065 Y-72.85
X-538.249 Y-72.685
X-538.467 Y-72.495
X-538.596 Y-72.415
X-538.902 Y-72.254
X-539.016 Y-72.197
X-539.12 Y-72.164
X-539.555 Y-72.057
X-539.664 Y-72.044
X-539.99
X-540.208 Y-72.049
X-540.425 Y-72.099
X-540.643 Y-72.152
X-540.795 Y-72.197
X-540.861 Y-72.229
X-541.214 Y-72.415
X-541.296 Y-72.461
X-541.514 Y-72.643
X-541.731 Y-72.838
X-541.743 Y-72.85
X-541.904 Y-73.068
X-542.054 Y-73.285
X-542.087 Y-73.34
X-542.113 Y-73.394
X-542.167 Y-73.534
X-542.237 Y-73.721
X-542.307 Y-73.938
X-542.335 Y-74.156
X-542.361 Y-74.373
X-542.37 Y-74.482
X-542.365 Y-74.591
X-542.313 Y-75.026
X-542.29 Y-75.135
X-542.25 Y-75.244
X-542.167 Y-75.466
X-542.076 Y-75.679
X-541.929 Y-75.897
X-541.775 Y-76.114
X-541.731 Y-76.163
X-541.514 Y-76.357
X-541.296 Y-76.539
X-541.28 Y-76.55
X-541.078 Y-76.657
X-540.861 Y-76.771
X-540.752 Y-76.819
X-540.643 Y-76.848
X-540.425 Y-76.901
X-540.208 Y-76.951
X-539.99 Y-76.956
X-539.664
X-539.555 Y-76.943
X-539.12 Y-76.836
X-539.031 Y-76.809
X-538.942 Y-76.767
X-538.684 Y-76.632
X-538.531 Y-76.55
X-538.467 Y-76.505
X-538.249 Y-76.315
X-538.035 Y-76.114
X-537.881 Y-75.897
X-537.814 Y-75.799
X-537.734 Y-75.679
X-537.642 Y-75.461
X-537.56 Y-75.244
X-537.52 Y-75.135
X-537.494 Y-75.026
X-537.439 Y-74.591
X-537.433 Y-74.482
X-537.443 Y-74.373
X-537.471 Y-74.156
X-537.5 Y-73.938
X-537.573 Y-73.721
X-537.687 Y-73.42
X-537.717 Y-73.374 Z7.017
X-537.746 Y-73.33 Z7.036
X-537.771 Y-73.292 Z7.067
X-537.791 Y-73.261 Z7.108
X-537.806 Y-73.238 Z7.157
X-537.815 Y-73.229 Z7.2
X-537.818 Y-73.226 Z7.246
G0 Z20
X-538.403 Y-72.757
Z10.11
G1 Z9.51 F850
G3 X-542.113 Y-73.859 Z9.349 I-1.501 J-1.743 F283.3
X-539.57 Y-76.776 Z9.189 I2.209 J-0.641
X-537.973 Y-73.251 Z9.028 I-0.334 J2.276
X-541.843 Y-73.262 Z8.868 I-1.931 J-1.249
X-540.225 Y-76.778 Z8.707 I1.938 J-1.238
X-539.583 Y-72.222 Z8.455 I0.321 J2.278
X-541.415 Y-72.766 Z8.386 I-0.321 J-2.278
X-540.854 Y-76.595 Z8.225 I1.511 J-1.734
X-537.604 Y-74.494 Z8.065 I0.95 J2.095
X-540.865 Y-72.41 Z7.904 I-2.3 J-0.006
X-541.406 Y-76.242 Z7.744 I0.961 J-2.09
X-537.696 Y-75.143 Z7.583 I1.502 J1.742
X-540.237 Y-72.224 Z7.423 I-2.208 J0.642
X-541.836 Y-75.748 Z7.262 I0.333 J-2.276
X-537.966 Y-75.739 Z7.102 I1.932 J1.248
X-539.582 Y-72.223 Z6.941 I-1.938 J1.239
X-542.109 Y-75.153 Z6.78 I-0.322 J-2.277
X-538.394 Y-76.235 Z6.62 I2.205 J0.653
X-538.953 Y-72.406 Z6.459 I-1.51 J1.735
X-542.204 Y-74.505 Z6.299 I-0.951 J-2.094
X-538.944 Y-76.59 Z6.138 I2.3 J0.005
X-540.864 Y-72.41 Z5.886 I-0.96 J2.09
X-542.112 Y-73.856 Z5.817 I0.96 J-2.09
X-539.573 Y-76.776 Z5.656 I2.208 J-0.644
X-537.971 Y-73.253 Z5.496 I-0.331 J2.276
X-541.841 Y-73.26 Z5.335 I-1.933 J-1.247
X-540.228 Y-76.777 Z5.175 I1.937 J-1.24
X-537.698 Y-73.849 Z5.014 I0.324 J2.277
X-541.413 Y-72.764 Z4.854 I-2.206 J-0.651
X-540.857 Y-76.593 Z4.693 I1.509 J-1.736
X-537.604 Y-74.497 Z4.532 I0.953 J2.093
X-542.204 Y-74.503 Z4.28 I-2.3 J-0.003
X-541.408 Y-76.24 Z4.211 I2.3 J0.003
X-537.696 Y-75.145 Z4.051 I1.504 J1.74
X-540.234 Y-72.224 Z3.89 I-2.208 J0.645
X-541.838 Y-75.745 Z3.73 I0.33 J-2.276
X-537.968 Y-75.742 Z3.569 I1.934 J1.245
X-539.579 Y-72.223 Z3.408 I-1.936 J1.242
X-540.229 Y-76.777 Z3.156 I-0.325 J-2.277
X-538.95 Y-72.407 Z2.927 I0.325 J2.277
X-542.204 Y-74.502 Z2.766 I-0.954 J-2.093
X-538.947 Y-76.592 Z2.606 I2.3 J0.002
X-540.861 Y-72.408 Z2.353 I-0.957 J2.092
X-538.947 Y-76.592 Z2.101 I0.957 J-2.092
X-537.97 Y-73.256 Z1.963 I-0.957 J2.092
X-541.839 Y-73.257 Z1.803 I-1.934 J-1.244
X-537.969 Y-75.743 Z1.551 I1.935 J-1.243
X-537.697 Y-73.852 Z1.482 I-1.935 J1.243
X-541.41 Y-72.762 Z1.321 I-2.207 J-0.648
X-538.398 Y-76.238 Z1.069 I1.506 J-1.738
X-537.604 Y-74.5 Z1 I-1.506 J1.738
X-542.204 I-2.3
X-539.904 Y-76.8 I2.3
X-537.684 Y-75.102 J2.3
X-537.604 Y-74.5 I-2.22 J0.602
G1 X-537.601 Y-74.294 F850
X-537.594 Y-74.247
X-537.578 Y-73.967
X-537.609 Y-73.689
X-537.687 Y-73.42
X-537.697 Y-73.394
X-537.723 Y-73.34
X-537.756 Y-73.285
X-537.906 Y-73.068
X-538.031 Y-72.889
X-538.065 Y-72.85
X-538.249 Y-72.685
X-538.467 Y-72.495
X-538.596 Y-72.415
X-538.902 Y-72.254
X-539.016 Y-72.197
X-539.12 Y-72.164
X-539.555 Y-72.057
X-539.664 Y-72.044
X-539.99
X-540.208 Y-72.049
X-540.425 Y-72.099
X-540.643 Y-72.152
X-540.795 Y-72.197
X-540.861 Y-72.229
X-541.214 Y-72.415
X-541.296 Y-72.461
X-541.514 Y-72.643
X-541.731 Y-72.838
X-541.743 Y-72.85
X-541.904 Y-73.068
X-542.054 Y-73.285
X-542.087 Y-73.34
X-542.113 Y-73.394
X-542.167 Y-73.534
X-542.237 Y-73.721
X-542.307 Y-73.938
X-542.335 Y-74.156
X-542.361 Y-74.373
X-542.37 Y-74.482
X-542.365 Y-74.591
X-542.313 Y-75.026
X-542.29 Y-75.135
X-542.25 Y-75.244
X-542.167 Y-75.466
X-542.076 Y-75.679
X-541.929 Y-75.897
X-541.775 Y-76.114
X-541.731 Y-76.163
X-541.514 Y-76.357
X-541.296 Y-76.539
X-541.28 Y-76.55
X-541.078 Y-76.657
X-540.861 Y-76.771
X-540.752 Y-76.819
X-540.643 Y-76.848
X-540.425 Y-76.901
X-540.208 Y-76.951
X-539.99 Y-76.956
X-539.664
X-539.555 Y-76.943
X-539.12 Y-76.836
X-539.031 Y-76.809
X-538.942 Y-76.767
X-538.684 Y-76.632
X-538.531 Y-76.55
X-538.467 Y-76.505
X-538.249 Y-76.315
X-538.035 Y-76.114
X-537.881 Y-75.897
X-537.814 Y-75.799
X-537.734 Y-75.679
X-537.642 Y-75.461
X-537.56 Y-75.244
X-537.52 Y-75.135
X-537.494 Y-75.026
X-537.439 Y-74.591
X-537.433 Y-74.482
X-537.443 Y-74.373
X-537.471 Y-74.156
X-537.5 Y-73.938
X-537.573 Y-73.721
X-537.687 Y-73.42
G3 X-537.818 Y-73.226 I-0.553 J-0.233
G1 X-537.885 Y-73.16 Z1.007
X-537.95 Y-73.095 Z1.029
X-538.012 Y-73.034 Z1.065
X-538.069 Y-72.978 Z1.115
X-538.12 Y-72.928 Z1.176
X-538.164 Y-72.885 Z1.247
X-538.199 Y-72.85 Z1.328
X-538.224 Y-72.825 Z1.415
X-538.24 Y-72.809 Z1.506
X-538.245 Y-72.804 Z1.6
G0 Z30

(2D Contour2)
S8000 M3
M9
X-539.9 Y-74.5
Z30
Z20
G1 Z1 F850
G3 X-539.84 Y-74.08 I-0.18 J0.24
G1 X-541.28 Y-72.16
G3 X-541.7 Y-72.1 I-0.24 J-0.18
Y-76.9 I1.8 J-2.4
X-536.9 Y-74.5 I1.8 J2.4
X-541.7 Y-72.1 I-3
Y-76.9 I1.8 J-2.4
X-536.9 Y-74.5 I1.8 J2.4
X-541.7 Y-72.1 I-3
X-541.82 Y-72.94 I0.36 J-0.48
G1 X-541.46 Y-73.42
X-541.404 Y-73.495 Z1.007
X-541.349 Y-73.568 Z1.029
X-541.297 Y-73.638 Z1.065
X-541.248 Y-73.702 Z1.115
X-541.205 Y-73.759 Z1.176
X-541.169 Y-73.808 Z1.247
X-541.139 Y-73.848 Z1.328
X-541.118 Y-73.877 Z1.415
X-541.104 Y-73.894 Z1.506
X-541.1 Y-73.9 Z1.6
G0 Z30

(2D Adaptive2)
S6000 M3
M9
X-539.379 Y-264.261
Z30
Z20
Z18.1
G1 Z17.5 F850
G3 X-540.429 Y-268.739 Z17.248 I-0.525 J-2.239 F283.3
X-538.831 Y-264.466 Z17.016 I0.525 J2.239
X-542.202 Y-266.392 Z16.854 I-1.073 J-2.034
X-539.026 Y-268.626 Z16.693 I2.297 J-0.108
X-538.352 Y-264.802 Z16.532 I-0.878 J2.126
X-541.456 Y-268.198 Z16.279 I-1.552 J-1.698
X-539.591 Y-268.779 Z16.209 I1.552 J1.698
X-540.217 Y-264.221 Z15.957 I-0.313 J2.279
X-541.856 Y-265.284 Z15.886 I0.313 J-2.279
X-540.176 Y-268.784 Z15.725 I1.952 J-1.216
X-539.632 Y-264.216 Z15.472 I0.272 J2.284
X-540.744 Y-268.641 Z15.241 I-0.272 J-2.284
X-537.609 Y-266.351 Z15.079 I0.84 J2.141
X-541.013 Y-264.485 Z14.918 I-2.295 J-0.149
X-541.257 Y-268.36 Z14.756 I1.109 J-2.015
X-537.646 Y-266.936 Z14.595 I1.353 J1.86
X-540.469 Y-264.27 Z14.434 I-2.258 J0.436
X-541.683 Y-267.958 Z14.272 I0.564 J-2.23
X-537.829 Y-267.492 Z14.111 I1.779 J1.458
X-539.887 Y-264.2 Z13.95 I-2.075 J0.992
X-541.993 Y-267.462 Z13.788 I-0.017 J-2.3
X-537.815 Y-265.538 Z13.536 I2.089 J0.962
X-539.307 Y-264.279 Z13.465 I-2.089 J-0.962
X-542.168 Y-266.903 Z13.304 I-0.597 J-2.221
X-537.64 Y-266.097 Z13.052 I2.264 J0.403
X-538.766 Y-264.501 Z12.981 I-2.264 J-0.403
X-542.197 Y-266.318 Z12.82 I-1.138 J-1.999
X-539.095 Y-268.653 Z12.658 I2.293 J-0.182
X-538.298 Y-264.853 Z12.497 I-0.809 J2.153
X-542.077 Y-265.745 Z12.336 I-1.606 J-1.647
X-539.665 Y-268.788 Z12.174 I2.173 J-0.755
X-540.143 Y-264.212 Z11.922 I-0.239 J2.288
X-541.816 Y-265.221 Z11.852 I0.239 J-2.288
X-540.25 Y-268.774 Z11.69 I1.912 J-1.279
X-539.558 Y-264.226 Z11.438 I0.346 J2.274
X-541.431 Y-264.78 Z11.367 I-0.346 J-2.274
X-540.813 Y-268.613 Z11.206 I1.527 J-1.72
X-537.605 Y-266.426 Z11.045 I0.909 J2.113
X-540.947 Y-264.45 Z10.883 I-2.299 J-0.074
X-541.317 Y-268.315 Z10.722 I1.043 J-2.05
X-537.661 Y-267.008 Z10.56 I1.413 J1.815
X-540.396 Y-264.253 Z10.399 I-2.243 J0.508
X-541.729 Y-267.9 Z10.238 I0.492 J-2.247
X-537.862 Y-267.558 Z10.076 I1.825 J1.4
X-539.813 Y-264.202 Z9.915 I-2.042 J1.058
X-542.023 Y-267.393 Z9.754 I-0.091 J-2.298
X-538.195 Y-268.039 Z9.592 I2.119 J0.893
X-541.613 Y-264.961 Z9.34 I-1.709 J1.539
X-542.18 Y-266.83 Z9.269 I1.709 J-1.539
X-538.639 Y-268.421 Z9.108 I2.276 J0.33
X-538.702 Y-264.539 Z8.947 I-1.265 J1.921
X-542.19 Y-266.244 Z8.785 I-1.202 J-1.961
X-539.165 Y-268.678 Z8.624 I2.286 J-0.256
X-538.246 Y-264.906 Z8.462 I-0.739 J2.178
X-542.051 Y-265.675 Z8.301 I-1.658 J-1.594
X-539.739 Y-268.794 Z8.14 I2.147 J-0.825
X-540.069 Y-264.206 Z7.887 I-0.165 J2.294
X-541.773 Y-265.16 Z7.817 I0.165 J-2.294
X-540.323 Y-268.761 Z7.656 I1.869 J-1.34
X-537.678 Y-265.919 Z7.494 I0.419 J2.261
X-541.375 Y-264.732 Z7.333 I-2.226 J-0.581
X-540.881 Y-268.582 Z7.171 I1.471 J-1.768
X-537.604 Y-266.5 Z7.01 I0.977 J2.082
X-542.204 I-2.3
X-539.904 Y-268.8 I2.3
X-537.684 Y-267.102 J2.3
X-537.604 Y-266.5 I-2.22 J0.602
G1 X-537.601 Y-266.294 F850
X-537.594 Y-266.247
X-537.578 Y-265.967
X-537.609 Y-265.689
X-537.687 Y-265.42
X-537.697 Y-265.394
X-537.723 Y-265.34
X-537.756 Y-265.285
X-537.906 Y-265.068
X-538.031 Y-264.889
X-538.065 Y-264.85
X-538.249 Y-264.685
X-538.467 Y-264.495
X-538.596 Y-264.415
X-538.902 Y-264.254
X-539.016 Y-264.197
X-539.12 Y-264.164
X-539.555 Y-264.057
X-539.664 Y-264.044
X-539.99
X-540.208 Y-264.049
X-540.425 Y-264.099
X-540.643 Y-264.152
X-540.795 Y-264.197
X-540.861 Y-264.229
X-541.214 Y-264.415
X-541.296 Y-264.461
X-541.514 Y-264.643
X-541.731 Y-264.838
X-541.743 Y-264.85
X-541.904 Y-265.068
X-542.054 Y-265.285
X-542.087 Y-265.34
X-542.113 Y-265.394
X-542.167 Y-265.534
X-542.237 Y-265.721
X-542.307 Y-265.938
X-542.335 Y-266.156
X-542.361 Y-266.373
X-542.37 Y-266.482
X-542.365 Y-266.591
X-542.313 Y-267.026
X-542.29 Y-267.135
X-542.25 Y-267.244
X-542.167 Y-267.466
X-542.076 Y-267.679
X-541.929 Y-267.897
X-541.775 Y-268.114
X-541.731 Y-268.163
X-541.514 Y-268.357
X-541.296 Y-268.539
X-541.28 Y-268.55
X-541.078 Y-268.657
X-540.861 Y-268.771
X-540.752 Y-268.819
X-540.643 Y-268.848
X-540.425 Y-268.901
X-540.208 Y-268.951
X-539.99 Y-268.956
X-539.664
X-539.555 Y-268.943
X-539.12 Y-268.836
X-539.031 Y-268.809
X-538.942 Y-268.767
X-538.684 Y-268.632
X-538.531 Y-268.55
X-538.467 Y-268.505
X-538.249 Y-268.315
X-538.035 Y-268.114
X-537.881 Y-267.897
X-537.814 Y-267.799
X-537.734 Y-267.679
X-537.642 Y-267.461
X-537.56 Y-267.244
X-537.52 Y-267.135
X-537.494 Y-267.026
X-537.439 Y-266.591
X-537.433 Y-266.482
X-537.443 Y-266.373
X-537.471 Y-266.156
X-537.5 Y-265.938
X-537.573 Y-265.721
X-537.687 Y-265.42
X-537.717 Y-265.374 Z7.017
X-537.746 Y-265.33 Z7.036
X-537.771 Y-265.292 Z7.067
X-537.791 Y-265.261 Z7.108
X-537.806 Y-265.238 Z7.157
X-537.815 Y-265.229 Z7.2
X-537.818 Y-265.226 Z7.246
G0 Z20
X-538.403 Y-264.757
Z10.11
G1 Z9.51 F850
G3 X-542.113 Y-265.859 Z9.349 I-1.501 J-1.743 F283.3
X-539.57 Y-268.776 Z9.189 I2.209 J-0.641
X-537.973 Y-265.251 Z9.028 I-0.334 J2.276
X-541.843 Y-265.262 Z8.868 I-1.931 J-1.249
X-540.225 Y-268.778 Z8.707 I1.938 J-1.238
X-539.583 Y-264.222 Z8.455 I0.321 J2.278
X-541.415 Y-264.766 Z8.386 I-0.321 J-2.278
X-540.854 Y-268.595 Z8.225 I1.511 J-1.734
X-537.604 Y-266.494 Z8.065 I0.95 J2.095
X-540.865 Y-264.41 Z7.904 I-2.3 J-0.006
X-541.406 Y-268.242 Z7.744 I0.961 J-2.09
X-537.696 Y-267.143 Z7.583 I1.502 J1.742
X-540.237 Y-264.224 Z7.423 I-2.208 J0.642
X-541.836 Y-267.748 Z7.262 I0.333 J-2.276
X-537.966 Y-267.739 Z7.102 I1.932 J1.248
X-539.582 Y-264.223 Z6.941 I-1.938 J1.239
X-542.109 Y-267.153 Z6.78 I-0.322 J-2.277
X-538.394 Y-268.235 Z6.62 I2.205 J0.653
X-538.953 Y-264.406 Z6.459 I-1.51 J1.735
X-542.204 Y-266.505 Z6.299 I-0.951 J-2.094
X-538.944 Y-268.59 Z6.138 I2.3 J0.005
X-540.864 Y-264.41 Z5.886 I-0.96 J2.09
X-542.112 Y-265.856 Z5.817 I0.96 J-2.09
X-539.573 Y-268.776 Z5.656 I2.208 J-0.644
X-537.971 Y-265.253 Z5.496 I-0.331 J2.276
X-541.841 Y-265.26 Z5.335 I-1.933 J-1.247
X-540.228 Y-268.777 Z5.175 I1.937 J-1.24
X-537.698 Y-265.849 Z5.014 I0.324 J2.277
X-541.413 Y-264.764 Z4.854 I-2.206 J-0.651
X-540.857 Y-268.593 Z4.693 I1.509 J-1.736
X-537.604 Y-266.497 Z4.532 I0.953 J2.093
X-542.204 Y-266.503 Z4.28 I-2.3 J-0.003
X-541.408 Y-268.24 Z4.211 I2.3 J0.003
X-537.696 Y-267.145 Z4.051 I1.504 J1.74
X-540.234 Y-264.224 Z3.89 I-2.208 J0.645
X-541.838 Y-267.745 Z3.73 I0.33 J-2.276
X-537.968 Y-267.742 Z3.569 I1.934 J1.245
X-539.579 Y-264.223 Z3.408 I-1.936 J1.242
X-540.229 Y-268.777 Z3.156 I-0.325 J-2.277
X-538.95 Y-264.407 Z2.927 I0.325 J2.277
X-542.204 Y-266.502 Z2.766 I-0.954 J-2.093
X-538.947 Y-268.592 Z2.606 I2.3 J0.002
X-540.861 Y-264.408 Z2.353 I-0.957 J2.092
X-538.947 Y-268.592 Z2.101 I0.957 J-2.092
X-537.97 Y-265.256 Z1.963 I-0.957 J2.092
X-541.839 Y-265.257 Z1.803 I-1.934 J-1.244
X-537.969 Y-267.743 Z1.551 I1.935 J-1.243
X-537.697 Y-265.852 Z1.482 I-1.935 J1.243
X-541.41 Y-264.762 Z1.321 I-2.207 J-0.648
X-538.398 Y-268.238 Z1.069 I1.506 J-1.738
X-537.604 Y-266.5 Z1 I-1.506 J1.738
X-542.204 I-2.3
X-539.904 Y-268.8 I2.3
X-537.684 Y-267.102 J2.3
X-537.604 Y-266.5 I-2.22 J0.602
G1 X-537.601 Y-266.294 F850
X-537.594 Y-266.247
X-537.578 Y-265.967
X-537.609 Y-265.689
X-537.687 Y-265.42
X-537.697 Y-265.394
X-537.723 Y-265.34
X-537.756 Y-265.285
X-537.906 Y-265.068
X-538.031 Y-264.889
X-538.065 Y-264.85
X-538.249 Y-264.685
X-538.467 Y-264.495
X-538.596 Y-264.415
X-538.902 Y-264.254
X-539.016 Y-264.197
X-539.12 Y-264.164
X-539.555 Y-264.057
X-539.664 Y-264.044
X-539.99
X-540.208 Y-264.049
X-540.425 Y-264.099
X-540.643 Y-264.152
X-540.795 Y-264.197
X-540.861 Y-264.229
X-541.214 Y-264.415
X-541.296 Y-264.461
X-541.514 Y-264.643
X-541.731 Y-264.838
X-541.743 Y-264.85
X-541.904 Y-265.068
X-542.054 Y-265.285
X-542.087 Y-265.34
X-542.113 Y-265.394
X-542.167 Y-265.534
X-542.237 Y-265.721
X-542.307 Y-265.938
X-542.335 Y-266.156
X-542.361 Y-266.373
X-542.37 Y-266.482
X-542.365 Y-266.591
X-542.313 Y-267.026
X-542.29 Y-267.135
X-542.25 Y-267.244
X-542.167 Y-267.466
X-542.076 Y-267.679
X-541.929 Y-267.897
X-541.775 Y-268.114
X-541.731 Y-268.163
X-541.514 Y-268.357
X-541.296 Y-268.539
X-541.28 Y-268.55
X-541.078 Y-268.657
X-540.861 Y-268.771
X-540.752 Y-268.819
X-540.643 Y-268.848
X-540.425 Y-268.901
X-540.208 Y-268.951
X-539.99 Y-268.956
X-539.664
X-539.555 Y-268.943
X-539.12 Y-268.836
X-539.031 Y-268.809
X-538.942 Y-268.767
X-538.684 Y-268.632
X-538.531 Y-268.55
X-538.467 Y-268.505
X-538.249 Y-268.315
X-538.035 Y-268.114
X-537.881 Y-267.897
X-537.814 Y-267.799
X-537.734 Y-267.679
X-537.642 Y-267.461
X-537.56 Y-267.244
X-537.52 Y-267.135
X-537.494 Y-267.026
X-537.439 Y-266.591
X-537.433 Y-266.482
X-537.443 Y-266.373
X-537.471 Y-266.156
X-537.5 Y-265.938
X-537.573 Y-265.721
X-537.687 Y-265.42
G3 X-537.818 Y-265.226 I-0.553 J-0.233
G1 X-537.885 Y-265.16 Z1.007
X-537.95 Y-265.095 Z1.029
X-538.012 Y-265.034 Z1.065
X-538.069 Y-264.978 Z1.115
X-538.12 Y-264.928 Z1.176
X-538.164 Y-264.885 Z1.247
X-538.199 Y-264.85 Z1.328
X-538.224 Y-264.825 Z1.415
X-538.24 Y-264.809 Z1.506
X-538.245 Y-264.804 Z1.6
G0 Z30

(2D Contour2)
S8000 M3
M9
X-539.9 Y-266.5
Z30
Z20
G1 Z1 F850
G3 X-539.84 Y-266.08 I-0.18 J0.24
G1 X-541.28 Y-264.16
G3 X-541.7 Y-264.1 I-0.24 J-0.18
Y-268.9 I1.8 J-2.4
X-536.9 Y-266.5 I1.8 J2.4
X-541.7 Y-264.1 I-3
Y-268.9 I1.8 J-2.4
X-536.9 Y-266.5 I1.8 J2.4
X-541.7 Y-264.1 I-3
X-541.82 Y-264.94 I0.36 J-0.48
G1 X-541.46 Y-265.42
X-541.404 Y-265.495 Z1.007
X-541.349 Y-265.568 Z1.029
X-541.297 Y-265.638 Z1.065
X-541.248 Y-265.702 Z1.115
X-541.205 Y-265.759 Z1.176
X-541.169 Y-265.808 Z1.247
X-541.139 Y-265.848 Z1.328
X-541.118 Y-265.877 Z1.415
X-541.104 Y-265.894 Z1.506
X-541.1 Y-265.9 Z1.6
G0 Z30

(2D Adaptive2)
S6000 M3
M9
X-539.379 Y-456.261
Z30
Z20
Z18.1
G1 Z17.5 F850
G3 X-540.429 Y-460.739 Z17.248 I-0.525 J-2.239 F283.3
X-538.831 Y-456.466 Z17.016 I0.525 J2.239
X-542.202 Y-458.392 Z16.854 I-1.073 J-2.034
X-539.026 Y-460.626 Z16.693 I2.297 J-0.108
X-538.352 Y-456.802 Z16.532 I-0.878 J2.126
X-541.456 Y-460.198 Z16.279 I-1.552 J-1.698
X-539.591 Y-460.779 Z16.209 I1.552 J1.698
X-540.217 Y-456.221 Z15.957 I-0.313 J2.279
X-541.856 Y-457.284 Z15.886 I0.313 J-2.279
X-540.176 Y-460.784 Z15.725 I1.952 J-1.216
X-539.632 Y-456.216 Z15.472 I0.272 J2.284
X-540.744 Y-460.641 Z15.241 I-0.272 J-2.284
X-537.609 Y-458.351 Z15.079 I0.84 J2.141
X-541.013 Y-456.485 Z14.918 I-2.295 J-0.149
X-541.257 Y-460.36 Z14.756 I1.109 J-2.015
X-537.646 Y-458.936 Z14.595 I1.353 J1.86
X-540.469 Y-456.27 Z14.434 I-2.258 J0.436
X-541.683 Y-459.958 Z14.272 I0.564 J-2.23
X-537.829 Y-459.492 Z14.111 I1.779 J1.458
X-539.887 Y-456.2 Z13.95 I-2.075 J0.992
X-541.993 Y-459.462 Z13.788 I-0.017 J-2.3
X-537.815 Y-457.538 Z13.536 I2.089 J0.962
X-539.307 Y-456.279 Z13.465 I-2.089 J-0.962
X-542.168 Y-458.903 Z13.304 I-0.597 J-2.221
X-537.64 Y-458.097 Z13.052 I2.264 J0.403
X-538.766 Y-456.501 Z12.981 I-2.264 J-0.403
X-542.197 Y-458.318 Z12.82 I-1.138 J-1.999
X-539.095 Y-460.653 Z12.658 I2.293 J-0.182
X-538.298 Y-456.853 Z12.497 I-0.809 J2.153
X-542.077 Y-457.745 Z12.336 I-1.606 J-1.647
X-539.665 Y-460.788 Z12.174 I2.173 J-0.755
X-540.143 Y-456.212 Z11.922 I-0.239 J2.288
X-541.816 Y-457.221 Z11.852 I0.239 J-2.288
X-540.25 Y-460.774 Z11.69 I1.912 J-1.279
X-539.558 Y-456.226 Z11.438 I0.346 J2.274
X-541.431 Y-456.78 Z11.367 I-0.346 J-2.274
X-540.813 Y-460.613 Z11.206 I1.527 J-1.72
X-537.605 Y-458.426 Z11.045 I0.909 J2.113
X-540.947 Y-456.45 Z10.883 I-2.299 J-0.074
X-541.317 Y-460.315 Z10.722 I1.043 J-2.05
X-537.661 Y-459.008 Z10.56 I1.413 J1.815
X-540.396 Y-456.253 Z10.399 I-2.243 J0.508
X-541.729 Y-459.9 Z10.238 I0.492 J-2.247
X-537.862 Y-459.558 Z10.076 I1.825 J1.4
X-539.813 Y-456.202 Z9.915 I-2.042 J1.058
X-542.023 Y-459.393 Z9.754 I-0.091 J-2.298
X-538.195 Y-460.039 Z9.592 I2.119 J0.893
X-541.613 Y-456.961 Z9.34 I-1.709 J1.539
X-542.18 Y-458.83 Z9.269 I1.709 J-1.539
X-538.639 Y-460.421 Z9.108 I2.276 J0.33
X-538.702 Y-456.539 Z8.947 I-1.265 J1.921
X-542.19 Y-458.244 Z8.785 I-1.202 J-1.961
X-539.165 Y-460.678 Z8.624 I2.286 J-0.256
X-538.246 Y-456.906 Z8.462 I-0.739 J2.178
X-542.051 Y-457.675 Z8.301 I-1.658 J-1.594
X-539.739 Y-460.794 Z8.14 I2.147 J-0.825
X-540.069 Y-456.206 Z7.887 I-0.165 J2.294
X-541.773 Y-457.16 Z7.817 I0.165 J-2.294
X-540.323 Y-460.761 Z7.656 I1.869 J-1.34
X-537.678 Y-457.919 Z7.494 I0.419 J2.261
X-541.375 Y-456.732 Z7.333 I-2.226 J-0.581
X-540.881 Y-460.582 Z7.171 I1.471 J-1.768
X-537.604 Y-458.5 Z7.01 I0.977 J2.082
X-542.204 I-2.3
X-539.904 Y-460.8 I2.3
X-537.684 Y-459.102 J2.3
X-537.604 Y-458.5 I-2.22 J0.602
G1 X-537.601 Y-458.294 F850
X-537.594 Y-458.247
X-537.578 Y-457.967
X-537.609 Y-457.689
X-537.687 Y-457.42
X-537.697 Y-457.394
X-537.723 Y-457.34
X-537.756 Y-457.285
X-537.906 Y-457.068
X-538.031 Y-456.889
X-538.065 Y-456.85
X-538.249 Y-456.685
X-538.467 Y-456.495
X-538.596 Y-456.415
X-538.902 Y-456.254
X-539.016 Y-456.197
X-539.12 Y-456.164
X-539.555 Y-456.057
X-539.664 Y-456.044
X-539.99
X-540.208 Y-456.049
X-540.425 Y-456.099
X-540.643 Y-456.152
X-540.795 Y-456.197
X-540.861 Y-456.229
X-541.214 Y-456.415
X-541.296 Y-456.461
X-541.514 Y-456.643
X-541.731 Y-456.838
X-541.743 Y-456.85
X-541.904 Y-457.068
X-542.054 Y-457.285
X-542.087 Y-457.34
X-542.113 Y-457.394
X-542.167 Y-457.534
X-542.237 Y-457.721
X-542.307 Y-457.938
X-542.335 Y-458.156
X-542.361 Y-458.373
X-542.37 Y-458.482
X-542.365 Y-458.591
X-542.313 Y-459.026
X-542.29 Y-459.135
X-542.25 Y-459.244
X-542.167 Y-459.466
X-542.076 Y-459.679
X-541.929 Y-459.897
X-541.775 Y-460.114
X-541.731 Y-460.163
X-541.514 Y-460.357
X-541.296 Y-460.539
X-541.28 Y-460.55
X-541.078 Y-460.657
X-540.861 Y-460.771
X-540.752 Y-460.819
X-540.643 Y-460.848
X-540.425 Y-460.901
X-540.208 Y-460.951
X-539.99 Y-460.956
X-539.664
X-539.555 Y-460.943
X-539.12 Y-460.836
X-539.031 Y-460.809
X-538.942 Y-460.767
X-538.684 Y-460.632
X-538.531 Y-460.55
X-538.467 Y-460.505
X-538.249 Y-460.315
X-538.035 Y-460.114
X-537.881 Y-459.897
X-537.814 Y-459.799
X-537.734 Y-459.679
X-537.642 Y-459.461
X-537.56 Y-459.244
X-537.52 Y-459.135
X-537.494 Y-459.026
X-537.439 Y-458.591
X-537.433 Y-458.482
X-537.443 Y-458.373
X-537.471 Y-458.156
X-537.5 Y-457.938
X-537.573 Y-457.721
X-537.687 Y-457.42
X-537.717 Y-457.374 Z7.017
X-537.746 Y-457.33 Z7.036
X-537.771 Y-457.292 Z7.067
X-537.791 Y-457.261 Z7.108
X-537.806 Y-457.238 Z7.157
X-537.815 Y-457.229 Z7.2
X-537.818 Y-457.226 Z7.246
G0 Z20
X-538.403 Y-456.757
Z10.11
G1 Z9.51 F850
G3 X-542.113 Y-457.859 Z9.349 I-1.501 J-1.743 F283.3
X-539.57 Y-460.776 Z9.189 I2.209 J-0.641
X-537.973 Y-457.251 Z9.028 I-0.334 J2.276
X-541.843 Y-457.262 Z8.868 I-1.931 J-1.249
X-540.225 Y-460.778 Z8.707 I1.938 J-1.238
X-539.583 Y-456.222 Z8.455 I0.321 J2.278
X-541.415 Y-456.766 Z8.386 I-0.321 J-2.278
