%
(1001)
(z0 slate machine -5-5)
(T1  D=6 CR=0 - ZMIN=0.5 - flat end mill)
G90 G94
G17
G21

(2D Adaptive3)
M9
T1 M6
S6000 M3
G54
M9
G0 X-1356.834 Y-511.336
Z30
Z20
Z18.15
G1 Z17.55 F850
G3 X-1353.898 Y-507.468 Z17.347 I0.28 J2.836 F283.3
X-1358.675 Y-506.595 Z17.144 I-2.657 J-1.031
X-1357.296 Y-511.252 Z16.941 I2.12 J-1.904
X-1353.764 Y-507.918 Z16.738 I0.741 J2.752
X-1358.334 Y-506.273 Z16.535 I-2.79 J-0.582
X-1357.737 Y-511.093 Z16.332 I1.779 J-2.226
X-1355.372 Y-505.907 Z16.019 I1.183 J2.593
X-1357.944 Y-506.012 Z15.926 I-1.183 J-2.593
X-1358.146 Y-510.864 Z15.723 I1.39 J-2.488
X-1354.962 Y-506.136 Z15.411 I1.592 J2.364
X-1357.517 Y-505.817 Z15.317 I-1.592 J-2.364
X-1358.513 Y-510.571 Z15.114 I0.963 J-2.682
X-1353.822 Y-509.312 Z14.911 I1.958 J2.071
X-1357.064 Y-505.696 Z14.708 I-2.732 J0.812
X-1356.044 Y-511.304 Z14.396 I0.51 J-2.804
X-1356.597 Y-505.65 Z14.099 I-0.51 J2.804
X-1359.077 Y-509.825 Z13.896 I0.043 J-2.85
X-1354.232 Y-510.152 Z13.693 I2.523 J1.326
X-1358.877 Y-506.848 Z13.381 I-2.322 J1.652
X-1359.261 Y-509.394 Z13.288 I2.322 J-1.652
X-1354.535 Y-510.511 Z13.085 I2.706 J0.894
X-1355.673 Y-505.79 Z12.882 I-2.02 J2.011
X-1359.371 Y-508.937 Z12.679 I-0.882 J-2.71
X-1354.892 Y-510.815 Z12.476 I2.816 J0.438
X-1355.24 Y-505.971 Z12.273 I-1.662 J2.315
X-1359.404 Y-508.47 Z12.07 I-1.314 J-2.529
X-1353.704 Y-508.53 Z11.757 I2.85 J-0.03
X-1354.843 Y-506.221 Z11.664 I-2.85 J0.03
X-1359.361 Y-508.003 Z11.461 I-1.711 J-2.279
X-1353.748 Y-508.997 Z11.148 I2.806 J-0.497
X-1354.492 Y-506.532 Z11.055 I-2.806 J0.497
X-1359.241 Y-507.549 Z10.852 I-2.062 J-1.967
X-1353.868 Y-509.451 Z10.539 I2.687 J-0.951
X-1359.241 Y-507.549 Z10.226 I-2.687 J0.951
X-1353.868 Y-509.451 Z9.914 I2.687 J-0.951
X-1353.967 Y-507.306 Z9.837 I-2.687 J0.951
X-1358.789 Y-506.731 Z9.634 I-2.588 J-1.194
X-1357.124 Y-511.292 Z9.431 I2.234 J-1.769
X-1353.806 Y-507.746 Z9.228 I0.569 J2.793
X-1358.468 Y-506.388 Z9.025 I-2.749 J-0.753
X-1357.574 Y-511.161 Z8.822 I1.914 J-2.112
X-1353.719 Y-508.207 Z8.619 I1.02 J2.661
X-1358.096 Y-506.103 Z8.416 I-2.835 J-0.292
X-1357.997 Y-510.958 Z8.213 I1.542 J-2.397
X-1353.71 Y-508.676 Z8.01 I1.443 J2.458
X-1357.682 Y-505.882 Z7.807 I-2.844 J0.177
X-1358.38 Y-510.688 Z7.604 I1.127 J-2.618
X-1353.777 Y-509.141 Z7.401 I1.826 J2.188
X-1357.237 Y-505.733 Z7.198 I-2.777 J0.641
X-1358.715 Y-510.359 Z6.995 I0.683 J-2.767
X-1354.394 Y-506.641 Z6.683 I2.16 J1.859
X-1356.774 Y-505.658 Z6.589 I-2.16 J-1.859
X-1358.99 Y-509.979 Z6.386 I0.219 J-2.842
X-1354.118 Y-507.021 Z6.074 I2.436 J1.479
X-1356.305 Y-505.661 Z5.98 I-2.436 J-1.479
X-1359.2 Y-509.56 Z5.777 I-0.25 J-2.839
X-1354.414 Y-510.382 Z5.574 I2.646 J1.06
X-1355.842 Y-505.74 Z5.371 I-2.14 J1.882
X-1359.338 Y-509.111 Z5.168 I-0.712 J-2.76
X-1354.752 Y-510.707 Z4.965 I2.784 J0.611
X-1355.399 Y-505.894 Z4.762 I-1.803 J2.207
X-1359.401 Y-508.646 Z4.56 I-1.155 J-2.605
X-1355.138 Y-510.973 Z4.357 I2.846 J0.146
X-1354.988 Y-506.119 Z4.154 I-1.416 J2.473
X-1359.386 Y-508.177 Z3.951 I-1.567 J-2.381
X-1355.563 Y-511.172 Z3.748 I2.832 J-0.322
X-1354.618 Y-506.408 Z3.545 I-0.991 J2.672
X-1359.295 Y-507.717 Z3.342 I-1.936 J-2.091
X-1353.814 Y-509.282 Z3.029 I2.74 J-0.783
X-1354.301 Y-506.754 Z2.936 I-2.74 J0.783
X-1359.129 Y-507.278 Z2.733 I-2.253 J-1.745
X-1356.481 Y-511.349 Z2.53 I2.575 J-1.222
X-1354.046 Y-507.148 Z2.327 I-0.073 J2.849
X-1358.894 Y-506.872 Z2.124 I-2.509 J-1.352
X-1356.949 Y-511.322 Z1.921 I2.34 J-1.627
X-1353.858 Y-507.577 Z1.718 I0.395 J2.822
X-1358.595 Y-506.511 Z1.515 I-2.697 J-0.922
X-1357.407 Y-511.219 Z1.312 I2.041 J-1.989
X-1353.743 Y-508.032 Z1.109 I0.853 J2.719
X-1358.241 Y-506.203 Z0.906 I-2.811 J-0.468
X-1357.842 Y-511.043 Z0.703 I1.687 J-2.297
X-1353.704 Y-508.5 Z0.5 I1.287 J2.543
X-1355.904 Y-505.725 I-2.85
X-1359.182 Y-507.396 I-0.65 J-2.775
X-1358.081 Y-510.907 I2.628 J-1.104
X-1353.704 Y-508.5 I1.527 J2.407
G1 X-1353.691 Y-507.542 F850
X-1353.661 Y-507.426
X-1353.641 Y-507.278
X-1353.639 Y-507.128
X-1353.652 Y-506.978
X-1353.679 Y-506.831
X-1353.718 Y-506.686
X-1353.767 Y-506.544
X-1353.826 Y-506.406
X-1353.894 Y-506.272
X-1353.971 Y-506.143
X-1354.055 Y-506.019
X-1354.146 Y-505.899
X-1354.248 Y-505.782
X-1354.358 Y-505.666
X-1354.479 Y-505.555
X-1354.608 Y-505.448
X-1354.746 Y-505.346
X-1354.893 Y-505.25
X-1355.047 Y-505.16
X-1355.209 Y-505.079
X-1355.378 Y-505.005
X-1355.554 Y-504.94
X-1355.735 Y-504.885
X-1355.921 Y-504.839
X-1356.112 Y-504.803
X-1356.306 Y-504.778
X-1356.503 Y-504.763
X-1356.702 Y-504.76
X-1356.902 Y-504.768
X-1357.103 Y-504.788
X-1357.303 Y-504.818
X-1357.503 Y-504.861
X-1357.701 Y-504.915
X-1357.896 Y-504.98
X-1358.088 Y-505.056
X-1358.276 Y-505.143
X-1358.46 Y-505.241
X-1358.638 Y-505.35
X-1358.81 Y-505.468
X-1358.976 Y-505.597
X-1359.134 Y-505.735
X-1359.285 Y-505.882
X-1359.427 Y-506.037
X-1359.561 Y-506.2
X-1359.686 Y-506.371
X-1359.8 Y-506.549
X-1359.905 Y-506.733
X-1359.999 Y-506.923
X-1360.083 Y-507.118
X-1360.155 Y-507.318
X-1360.216 Y-507.521
X-1360.266 Y-507.728
X-1360.304 Y-507.937
X-1360.33 Y-508.148
X-1360.344 Y-508.361
X-1360.346 Y-508.574
X-1360.336 Y-508.787
X-1360.314 Y-508.999
X-1360.28 Y-509.209
X-1360.235 Y-509.418
X-1360.177 Y-509.623
X-1360.109 Y-509.825
X-1360.029 Y-510.023
X-1359.938 Y-510.216
X-1359.836 Y-510.404
X-1359.724 Y-510.585
X-1359.601 Y-510.76
X-1359.469 Y-510.928
X-1359.328 Y-511.088
X-1359.178 Y-511.24
X-1359.02 Y-511.384
X-1358.854 Y-511.518
X-1358.68 Y-511.643
X-1358.5 Y-511.757
X-1358.313 Y-511.862
X-1358.122 Y-511.955
X-1357.925 Y-512.038
X-1357.723 Y-512.11
X-1357.518 Y-512.17
X-1357.31 Y-512.218
X-1357.1 Y-512.255
X-1356.887 Y-512.28
X-1356.674 Y-512.292
X-1356.46 Y-512.293
X-1356.247 Y-512.282
X-1356.035 Y-512.259
X-1355.824 Y-512.223
X-1355.615 Y-512.176
X-1355.41 Y-512.118
X-1355.208 Y-512.047
X-1355.01 Y-511.966
X-1354.818 Y-511.874
X-1354.63 Y-511.771
X-1354.449 Y-511.657
X-1354.275 Y-511.534
X-1354.108 Y-511.4
X-1353.948 Y-511.258
X-1353.797 Y-511.107
X-1353.655 Y-510.948
X-1353.522 Y-510.781
X-1353.398 Y-510.606
X-1353.285 Y-510.425
X-1353.181 Y-510.238
X-1353.077 Y-510.021
X-1352.948 Y-509.709
X-1352.797 Y-509.273
X-1352.699 Y-508.931
X-1352.632 Y-508.634
X-1352.586 Y-508.362
X-1352.558 Y-508.107
X-1352.551 Y-507.979
X-1352.554 Y-507.722
X-1352.59 Y-507.467
X-1352.658 Y-507.218
X-1352.81 Y-506.781
X-1352.831 Y-506.727
X-1352.857 Y-506.672
X-1352.965 Y-506.498
X-1353.197 Y-506.128
X-1353.344 Y-505.91
X-1353.401 Y-505.852
X-1353.836 Y-505.42
X-1354.012 Y-505.258
X-1354.054 Y-505.23
X-1354.706 Y-504.82
X-1354.761 Y-504.789
X-1354.815 Y-504.765
X-1355.577 Y-504.496
X-1355.686 Y-504.47
X-1356.23 Y-504.408
X-1356.448 Y-504.384
X-1356.556 Y-504.376
X-1356.665 Y-504.385
X-1357.318 Y-504.458
X-1357.427 Y-504.471
X-1357.536 Y-504.497
X-1358.297 Y-504.766
X-1358.352 Y-504.79
X-1358.407 Y-504.822
X-1359.059 Y-505.232
X-1359.098 Y-505.258
X-1359.277 Y-505.422
X-1359.712 Y-505.854
X-1359.766 Y-505.91
X-1359.913 Y-506.128
X-1360.186 Y-506.563
X-1360.253 Y-506.672
X-1360.3 Y-506.781
X-1360.526 Y-507.434
X-1360.562 Y-507.538
X-1360.583 Y-507.643
X-1360.656 Y-508.304
X-1360.674 Y-508.522
X-1360.651 Y-508.739
X-1360.583 Y-509.358
X-1360.578 Y-509.392
X-1360.511 Y-509.61
X-1360.36 Y-510.045
X-1360.284 Y-510.263
X-1360.258 Y-510.317
X-1360.226 Y-510.372
X-1359.817 Y-511.024
X-1359.775 Y-511.079
X-1359.724 Y-511.133
X-1359.168 Y-511.685
X-1359.114 Y-511.731
X-1359.059 Y-511.768
X-1358.406 Y-512.178
X-1358.328 Y-512.221
X-1358.189 Y-512.273
X-1357.536 Y-512.503
X-1357.427 Y-512.529
X-1357.1 Y-512.566
X-1356.665 Y-512.615
X-1356.556 Y-512.624
X-1356.448 Y-512.616
X-1355.795 Y-512.542
X-1355.686 Y-512.53
X-1355.577 Y-512.504
X-1354.924 Y-512.274
X-1354.783 Y-512.221
X-1354.706 Y-512.18
X-1354.054 Y-511.77
X-1353.999 Y-511.733
X-1353.945 Y-511.687
X-1353.824 Y-511.569
X-1353.386 Y-511.133
X-1353.335 Y-511.079
X-1353.294 Y-511.024
X-1352.884 Y-510.372
X-1352.852 Y-510.317
X-1352.826 Y-510.263
X-1352.748 Y-510.04
X-1352.599 Y-509.61
X-1352.53 Y-509.39
X-1352.503 Y-509.175
X-1352.452 Y-508.739
X-1352.429 Y-508.522
X-1352.447 Y-508.304
X-1352.524 Y-507.651
X-1352.53 Y-507.612
X-1352.584 Y-507.434
X-1352.658 Y-507.218
G3 X-1352.784 Y-507.02 I-0.56 J-0.216
G1 X-1352.848 Y-506.953 Z0.507
X-1352.912 Y-506.886 Z0.529
X-1352.972 Y-506.823 Z0.565
X-1353.027 Y-506.765 Z0.615
X-1353.076 Y-506.713 Z0.676
X-1353.118 Y-506.669 Z0.747
X-1353.152 Y-506.633 Z0.828
X-1353.177 Y-506.607 Z0.915
X-1353.192 Y-506.591 Z1.006
X-1353.198 Y-506.586 Z1.1
G0 Z30

(2D Contour3)
S8000 M3
M9
X-1356.55 Y-508.5
Z30
Z20
G1 Z0.5 F850
G3 X-1356.25 Y-508.8 I0.3
G1 X-1352.2
G3 X-1351.9 Y-508.5 J0.3
X-1359.34 Y-504.78 I-4.65
Y-512.22 I2.79 J-3.72
X-1351.9 Y-508.5 I2.79 J3.72
X-1359.34 Y-504.78 I-4.65
Y-512.22 I2.79 J-3.72
X-1351.9 Y-508.5 I2.79 J3.72
X-1352.5 Y-507.9 I-0.6
G1 X-1353.1
G18 G3 X-1353.7 Z1.1 K0.6
G0 Z30
G17

(2D Adaptive3)
S6000 M3
M9
G0 X-1356.834 Y-219.336
Z30
Z20
Z18.15
G1 Z17.55 F850
G3 X-1353.898 Y-215.468 Z17.347 I0.28 J2.836 F283.3
X-1358.675 Y-214.595 Z17.144 I-2.657 J-1.031
X-1357.296 Y-219.252 Z16.941 I2.12 J-1.904
X-1353.764 Y-215.918 Z16.738 I0.741 J2.752
X-1358.334 Y-214.273 Z16.535 I-2.79 J-0.582
X-1357.737 Y-219.093 Z16.332 I1.779 J-2.226
X-1355.372 Y-213.907 Z16.019 I1.183 J2.593
X-1357.944 Y-214.012 Z15.926 I-1.183 J-2.593
X-1358.146 Y-218.864 Z15.723 I1.39 J-2.488
X-1354.962 Y-214.136 Z15.411 I1.592 J2.364
X-1357.517 Y-213.817 Z15.317 I-1.592 J-2.364
X-1358.513 Y-218.571 Z15.114 I0.963 J-2.682
X-1353.822 Y-217.312 Z14.911 I1.958 J2.071
X-1357.064 Y-213.696 Z14.708 I-2.732 J0.812
X-1356.044 Y-219.304 Z14.396 I0.51 J-2.804
X-1356.597 Y-213.65 Z14.099 I-0.51 J2.804
X-1359.077 Y-217.825 Z13.896 I0.043 J-2.85
X-1354.232 Y-218.152 Z13.693 I2.523 J1.326
X-1358.877 Y-214.848 Z13.381 I-2.322 J1.652
X-1359.261 Y-217.394 Z13.288 I2.322 J-1.652
X-1354.535 Y-218.511 Z13.085 I2.706 J0.894
X-1355.673 Y-213.79 Z12.882 I-2.02 J2.011
X-1359.371 Y-216.937 Z12.679 I-0.882 J-2.71
X-1354.892 Y-218.815 Z12.476 I2.816 J0.438
X-1355.24 Y-213.971 Z12.273 I-1.662 J2.315
X-1359.404 Y-216.47 Z12.07 I-1.314 J-2.529
X-1353.704 Y-216.53 Z11.757 I2.85 J-0.03
X-1354.843 Y-214.221 Z11.664 I-2.85 J0.03
X-1359.361 Y-216.003 Z11.461 I-1.711 J-2.279
X-1353.748 Y-216.997 Z11.148 I2.806 J-0.497
X-1354.492 Y-214.532 Z11.055 I-2.806 J0.497
X-1359.241 Y-215.549 Z10.852 I-2.062 J-1.967
X-1353.868 Y-217.451 Z10.539 I2.687 J-0.951
X-1359.241 Y-215.549 Z10.226 I-2.687 J0.951
X-1353.868 Y-217.451 Z9.914 I2.687 J-0.951
X-1353.967 Y-215.306 Z9.837 I-2.687 J0.951
X-1358.789 Y-214.731 Z9.634 I-2.588 J-1.194
X-1357.124 Y-219.292 Z9.431 I2.234 J-1.769
X-1353.806 Y-215.746 Z9.228 I0.569 J2.793
X-1358.468 Y-214.388 Z9.025 I-2.749 J-0.753
X-1357.574 Y-219.161 Z8.822 I1.914 J-2.112
X-1353.719 Y-216.207 Z8.619 I1.02 J2.661
X-1358.096 Y-214.103 Z8.416 I-2.835 J-0.292
X-1357.997 Y-218.958 Z8.213 I1.542 J-2.397
X-1353.71 Y-216.676 Z8.01 I1.443 J2.458
X-1357.682 Y-213.882 Z7.807 I-2.844 J0.177
X-1358.38 Y-218.688 Z7.604 I1.127 J-2.618
X-1353.777 Y-217.141 Z7.401 I1.826 J2.188
X-1357.237 Y-213.733 Z7.198 I-2.777 J0.641
X-1358.715 Y-218.359 Z6.995 I0.683 J-2.767
X-1354.394 Y-214.641 Z6.683 I2.16 J1.859
X-1356.774 Y-213.658 Z6.589 I-2.16 J-1.859
X-1358.99 Y-217.979 Z6.386 I0.219 J-2.842
X-1354.118 Y-215.021 Z6.074 I2.436 J1.479
X-1356.305 Y-213.661 Z5.98 I-2.436 J-1.479
X-1359.2 Y-217.56 Z5.777 I-0.25 J-2.839
X-1354.414 Y-218.382 Z5.574 I2.646 J1.06
X-1355.842 Y-213.74 Z5.371 I-2.14 J1.882
X-1359.338 Y-217.111 Z5.168 I-0.712 J-2.76
X-1354.752 Y-218.707 Z4.965 I2.784 J0.611
X-1355.399 Y-213.894 Z4.762 I-1.803 J2.207
X-1359.401 Y-216.646 Z4.56 I-1.155 J-2.605
X-1355.138 Y-218.973 Z4.357 I2.846 J0.146
X-1354.988 Y-214.119 Z4.154 I-1.416 J2.473
X-1359.386 Y-216.177 Z3.951 I-1.567 J-2.381
X-1355.563 Y-219.172 Z3.748 I2.832 J-0.322
X-1354.618 Y-214.408 Z3.545 I-0.991 J2.672
X-1359.295 Y-215.717 Z3.342 I-1.936 J-2.091
X-1353.814 Y-217.282 Z3.029 I2.74 J-0.783
X-1354.301 Y-214.754 Z2.936 I-2.74 J0.783
X-1359.129 Y-215.278 Z2.733 I-2.253 J-1.745
X-1356.481 Y-219.349 Z2.53 I2.575 J-1.222
X-1354.046 Y-215.148 Z2.327 I-0.073 J2.849
X-1358.894 Y-214.872 Z2.124 I-2.509 J-1.352
X-1356.949 Y-219.322 Z1.921 I2.34 J-1.627
X-1353.858 Y-215.577 Z1.718 I0.395 J2.822
X-1358.595 Y-214.511 Z1.515 I-2.697 J-0.922
X-1357.407 Y-219.219 Z1.312 I2.041 J-1.989
X-1353.743 Y-216.032 Z1.109 I0.853 J2.719
X-1358.241 Y-214.203 Z0.906 I-2.811 J-0.468
X-1357.842 Y-219.043 Z0.703 I1.687 J-2.297
X-1353.704 Y-216.5 Z0.5 I1.287 J2.543
X-1355.904 Y-213.725 I-2.85
X-1359.182 Y-215.396 I-0.65 J-2.775
X-1358.081 Y-218.907 I2.628 J-1.104
X-1353.704 Y-216.5 I1.527 J2.407
G1 X-1353.691 Y-215.542 F850
X-1353.661 Y-215.426
X-1353.641 Y-215.278
X-1353.639 Y-215.128
X-1353.652 Y-214.978
X-1353.679 Y-214.831
X-1353.718 Y-214.686
X-1353.767 Y-214.544
X-1353.826 Y-214.406
X-1353.894 Y-214.272
X-1353.971 Y-214.143
X-1354.055 Y-214.019
X-1354.146 Y-213.899
X-1354.248 Y-213.782
X-1354.358 Y-213.666
X-1354.479 Y-213.555
X-1354.608 Y-213.448
X-1354.746 Y-213.346
X-1354.893 Y-213.25
X-1355.047 Y-213.16
X-1355.209 Y-213.079
X-1355.378 Y-213.005
X-1355.554 Y-212.94
X-1355.735 Y-212.885
X-1355.921 Y-212.839
X-1356.112 Y-212.803
X-1356.306 Y-212.778
X-1356.503 Y-212.763
X-1356.702 Y-212.76
X-1356.902 Y-212.768
X-1357.103 Y-212.788
X-1357.303 Y-212.818
X-1357.503 Y-212.861
X-1357.701 Y-212.915
X-1357.896 Y-212.98
X-1358.088 Y-213.056
X-1358.276 Y-213.143
X-1358.46 Y-213.241
X-1358.638 Y-213.35
X-1358.81 Y-213.468
X-1358.976 Y-213.597
X-1359.134 Y-213.735
X-1359.285 Y-213.882
X-1359.427 Y-214.037
X-1359.561 Y-214.2
X-1359.686 Y-214.371
X-1359.8 Y-214.549
X-1359.905 Y-214.733
X-1359.999 Y-214.923
X-1360.083 Y-215.118
X-1360.155 Y-215.318
X-1360.216 Y-215.521
X-1360.266 Y-215.728
X-1360.304 Y-215.937
X-1360.33 Y-216.148
X-1360.344 Y-216.361
X-1360.346 Y-216.574
X-1360.336 Y-216.787
X-1360.314 Y-216.999
X-1360.28 Y-217.209
X-1360.235 Y-217.418
X-1360.177 Y-217.623
X-1360.109 Y-217.825
X-1360.029 Y-218.023
X-1359.938 Y-218.216
X-1359.836 Y-218.404
X-1359.724 Y-218.585
X-1359.601 Y-218.76
X-1359.469 Y-218.928
X-1359.328 Y-219.088
X-1359.178 Y-219.24
X-1359.02 Y-219.384
X-1358.854 Y-219.518
X-1358.68 Y-219.643
X-1358.5 Y-219.757
X-1358.313 Y-219.862
X-1358.122 Y-219.955
X-1357.925 Y-220.038
X-1357.723 Y-220.11
X-1357.518 Y-220.17
X-1357.31 Y-220.218
X-1357.1 Y-220.255
X-1356.887 Y-220.28
X-1356.674 Y-220.292
X-1356.46 Y-220.293
X-1356.247 Y-220.282
X-1356.035 Y-220.259
X-1355.824 Y-220.223
X-1355.615 Y-220.176
X-1355.41 Y-220.118
X-1355.208 Y-220.047
X-1355.01 Y-219.966
X-1354.818 Y-219.874
X-1354.63 Y-219.771
X-1354.449 Y-219.657
X-1354.275 Y-219.534
X-1354.108 Y-219.4
X-1353.948 Y-219.258
X-1353.797 Y-219.107
X-1353.655 Y-218.948
X-1353.522 Y-218.781
X-1353.398 Y-218.606
X-1353.285 Y-218.425
X-1353.181 Y-218.238
X-1353.077 Y-218.021
X-1352.948 Y-217.709
X-1352.797 Y-217.273
X-1352.699 Y-216.931
X-1352.632 Y-216.634
X-1352.586 Y-216.362
X-1352.558 Y-216.107
X-1352.551 Y-215.979
X-1352.554 Y-215.722
X-1352.59 Y-215.467
X-1352.658 Y-215.218
X-1352.81 Y-214.781
X-1352.831 Y-214.727
X-1352.857 Y-214.672
X-1352.965 Y-214.498
X-1353.197 Y-214.128
X-1353.344 Y-213.91
X-1353.401 Y-213.852
X-1353.836 Y-213.42
X-1354.012 Y-213.258
X-1354.054 Y-213.23
X-1354.706 Y-212.82
X-1354.761 Y-212.789
X-1354.815 Y-212.765
X-1355.577 Y-212.496
X-1355.686 Y-212.47
X-1356.23 Y-212.408
X-1356.448 Y-212.384
X-1356.556 Y-212.376
X-1356.665 Y-212.385
X-1357.318 Y-212.458
X-1357.427 Y-212.471
X-1357.536 Y-212.497
X-1358.297 Y-212.766
X-1358.352 Y-212.79
X-1358.407 Y-212.822
X-1359.059 Y-213.232
X-1359.098 Y-213.258
X-1359.277 Y-213.422
X-1359.712 Y-213.854
X-1359.766 Y-213.91
X-1359.913 Y-214.128
X-1360.186 Y-214.563
X-1360.253 Y-214.672
X-1360.3 Y-214.781
X-1360.526 Y-215.434
X-1360.562 Y-215.538
X-1360.583 Y-215.643
X-1360.656 Y-216.304
X-1360.674 Y-216.522
X-1360.651 Y-216.739
X-1360.583 Y-217.358
X-1360.578 Y-217.392
X-1360.511 Y-217.61
X-1360.36 Y-218.045
X-1360.284 Y-218.263
X-1360.258 Y-218.317
X-1360.226 Y-218.372
X-1359.817 Y-219.024
X-1359.775 Y-219.079
X-1359.724 Y-219.133
X-1359.168 Y-219.685
X-1359.114 Y-219.731
X-1359.059 Y-219.768
X-1358.406 Y-220.178
X-1358.328 Y-220.221
X-1358.189 Y-220.273
X-1357.536 Y-220.503
X-1357.427 Y-220.529
X-1357.1 Y-220.566
X-1356.665 Y-220.615
X-1356.556 Y-220.624
X-1356.448 Y-220.616
X-1355.795 Y-220.542
X-1355.686 Y-220.53
X-1355.577 Y-220.504
X-1354.924 Y-220.274
X-1354.783 Y-220.221
X-1354.706 Y-220.18
X-1354.054 Y-219.77
X-1353.999 Y-219.733
X-1353.945 Y-219.687
X-1353.824 Y-219.569
X-1353.386 Y-219.133
X-1353.335 Y-219.079
X-1353.294 Y-219.024
X-1352.884 Y-218.372
X-1352.852 Y-218.317
X-1352.826 Y-218.263
X-1352.748 Y-218.04
X-1352.599 Y-217.61
X-1352.53 Y-217.39
X-1352.503 Y-217.175
X-1352.452 Y-216.739
X-1352.429 Y-216.522
X-1352.447 Y-216.304
X-1352.524 Y-215.651
X-1352.53 Y-215.612
X-1352.584 Y-215.434
X-1352.658 Y-215.218
G3 X-1352.784 Y-215.02 I-0.56 J-0.216
G1 X-1352.848 Y-214.953 Z0.507
X-1352.912 Y-214.886 Z0.529
X-1352.972 Y-214.823 Z0.565
X-1353.027 Y-214.765 Z0.615
X-1353.076 Y-214.713 Z0.676
X-1353.118 Y-214.669 Z0.747
X-1353.152 Y-214.633 Z0.828
X-1353.177 Y-214.607 Z0.915
X-1353.192 Y-214.591 Z1.006
X-1353.198 Y-214.586 Z1.1
G0 Z30

(2D Contour3)
S8000 M3
M9
X-1356.55 Y-216.5
Z30
Z20
G1 Z0.5 F850
G3 X-1356.25 Y-216.8 I0.3
G1 X-1352.2
G3 X-1351.9 Y-216.5 J0.3
X-1359.34 Y-212.78 I-4.65
Y-220.22 I2.79 J-3.72
X-1351.9 Y-216.5 I2.79 J3.72
X-1359.34 Y-212.78 I-4.65
Y-220.22 I2.79 J-3.72
X-1351.9 Y-216.5 I2.79 J3.72
X-1352.5 Y-215.9 I-0.6
G1 X-1353.1
G18 G3 X-1353.7 Z1.1 K0.6
G0 Z30
G17

(2D Adaptive3)
S6000 M3
M9
G0 X-1304.184 Y-56.686
Z30
Z20
Z18.15
G1 Z17.55 F850
G3 X-1301.248 Y-52.818 Z17.347 I0.28 J2.836 F283.3
X-1306.025 Y-51.945 Z17.144 I-2.657 J-1.031
X-1304.646 Y-56.602 Z16.941 I2.12 J-1.904
X-1301.114 Y-53.268 Z16.738 I0.741 J2.752
X-1305.684 Y-51.623 Z16.535 I-2.79 J-0.582
X-1305.087 Y-56.443 Z16.332 I1.779 J-2.226
X-1302.722 Y-51.257 Z16.019 I1.183 J2.593
X-1305.294 Y-51.362 Z15.926 I-1.183 J-2.593
X-1305.496 Y-56.214 Z15.723 I1.39 J-2.488
X-1302.312 Y-51.486 Z15.411 I1.592 J2.364
X-1304.867 Y-51.167 Z15.317 I-1.592 J-2.364
X-1305.863 Y-55.921 Z15.114 I0.963 J-2.682
X-1301.172 Y-54.662 Z14.911 I1.958 J2.071
X-1304.414 Y-51.046 Z14.708 I-2.732 J0.812
X-1303.394 Y-56.654 Z14.396 I0.51 J-2.804
X-1303.947 Y-51 Z14.099 I-0.51 J2.804
X-1306.427 Y-55.175 Z13.896 I0.043 J-2.85
X-1301.582 Y-55.502 Z13.693 I2.523 J1.326
X-1306.226 Y-52.198 Z13.381 I-2.322 J1.652
X-1306.611 Y-54.743 Z13.288 I2.322 J-1.652
X-1301.885 Y-55.861 Z13.085 I2.706 J0.894
X-1303.023 Y-51.14 Z12.882 I-2.02 J2.011
X-1306.721 Y-54.287 Z12.679 I-0.882 J-2.71
X-1302.242 Y-56.165 Z12.476 I2.816 J0.438
X-1302.59 Y-51.321 Z12.273 I-1.662 J2.315
X-1306.754 Y-53.82 Z12.07 I-1.314 J-2.529
X-1301.054 Y-53.88 Z11.757 I2.85 J-0.03
X-1302.193 Y-51.571 Z11.664 I-2.85 J0.03
X-1306.711 Y-53.352 Z11.461 I-1.711 J-2.279
X-1301.098 Y-54.347 Z11.148 I2.806 J-0.497
X-1301.842 Y-51.882 Z11.055 I-2.806 J0.497
X-1306.591 Y-52.899 Z10.852 I-2.062 J-1.967
X-1301.218 Y-54.801 Z10.539 I2.687 J-0.951
X-1306.591 Y-52.899 Z10.226 I-2.687 J0.951
X-1301.218 Y-54.801 Z9.914 I2.687 J-0.951
X-1301.317 Y-52.656 Z9.837 I-2.687 J0.951
X-1306.139 Y-52.081 Z9.634 I-2.588 J-1.194
X-1304.474 Y-56.642 Z9.431 I2.234 J-1.769
X-1301.156 Y-53.096 Z9.228 I0.569 J2.793
X-1305.818 Y-51.738 Z9.025 I-2.749 J-0.753
X-1304.924 Y-56.511 Z8.822 I1.914 J-2.112
X-1301.069 Y-53.557 Z8.619 I1.02 J2.661
X-1305.446 Y-51.453 Z8.416 I-2.835 J-0.292
X-1305.347 Y-56.308 Z8.213 I1.542 J-2.397
X-1301.06 Y-54.026 Z8.01 I1.443 J2.458
X-1305.032 Y-51.232 Z7.807 I-2.844 J0.177
X-1305.73 Y-56.038 Z7.604 I1.127 J-2.618
X-1301.127 Y-54.491 Z7.401 I1.826 J2.188
X-1304.587 Y-51.083 Z7.198 I-2.777 J0.641
X-1306.065 Y-55.709 Z6.995 I0.683 J-2.767
X-1301.744 Y-51.991 Z6.683 I2.16 J1.859
X-1304.124 Y-51.008 Z6.589 I-2.16 J-1.859
X-1306.34 Y-55.329 Z6.386 I0.219 J-2.842
X-1301.468 Y-52.37 Z6.074 I2.436 J1.479
X-1303.655 Y-51.011 Z5.98 I-2.436 J-1.479
X-1306.55 Y-54.91 Z5.777 I-0.25 J-2.839
X-1301.764 Y-55.732 Z5.574 I2.646 J1.06
X-1303.192 Y-51.09 Z5.371 I-2.14 J1.882
X-1306.688 Y-54.461 Z5.168 I-0.712 J-2.76
X-1302.102 Y-56.057 Z4.965 I2.784 J0.611
X-1302.749 Y-51.244 Z4.762 I-1.803 J2.207
X-1306.751 Y-53.996 Z4.56 I-1.155 J-2.605
X-1302.488 Y-56.323 Z4.357 I2.846 J0.146
X-1302.338 Y-51.469 Z4.154 I-1.416 J2.473
X-1306.736 Y-53.527 Z3.951 I-1.567 J-2.381
X-1302.913 Y-56.522 Z3.748 I2.832 J-0.322
X-1301.968 Y-51.758 Z3.545 I-0.991 J2.672
X-1306.645 Y-53.067 Z3.342 I-1.936 J-2.091
X-1301.164 Y-54.632 Z3.029 I2.74 J-0.783
X-1301.651 Y-52.104 Z2.936 I-2.74 J0.783
X-1306.479 Y-52.628 Z2.733 I-2.253 J-1.745
X-1303.831 Y-56.699 Z2.53 I2.575 J-1.222
X-1301.396 Y-52.498 Z2.327 I-0.073 J2.849
X-1306.244 Y-52.222 Z2.124 I-2.509 J-1.352
X-1304.299 Y-56.672 Z1.921 I2.34 J-1.627
X-1301.208 Y-52.927 Z1.718 I0.395 J2.822
X-1305.945 Y-51.861 Z1.515 I-2.697 J-0.922
X-1304.757 Y-56.569 Z1.312 I2.041 J-1.989
X-1301.093 Y-53.382 Z1.109 I0.853 J2.719
X-1305.591 Y-51.553 Z0.906 I-2.811 J-0.468
X-1305.192 Y-56.393 Z0.703 I1.687 J-2.297
X-1301.054 Y-53.85 Z0.5 I1.287 J2.543
X-1303.254 Y-51.075 I-2.85
X-1306.532 Y-52.746 I-0.65 J-2.775
X-1305.431 Y-56.257 I2.628 J-1.104
X-1301.054 Y-53.85 I1.527 J2.407
G1 X-1301.041 Y-52.892 F850
X-1301.011 Y-52.776
X-1300.991 Y-52.628
X-1300.989 Y-52.478
X-1301.002 Y-52.328
X-1301.029 Y-52.181
X-1301.068 Y-52.036
X-1301.117 Y-51.894
X-1301.176 Y-51.756
X-1301.244 Y-51.622
X-1301.321 Y-51.493
X-1301.405 Y-51.369
X-1301.496 Y-51.249
X-1301.598 Y-51.132
X-1301.708 Y-51.016
X-1301.828 Y-50.905
X-1301.958 Y-50.798
X-1302.096 Y-50.696
X-1302.243 Y-50.6
X-1302.397 Y-50.51
X-1302.559 Y-50.429
X-1302.728 Y-50.355
X-1302.904 Y-50.29
X-1303.085 Y-50.234
X-1303.271 Y-50.189
X-1303.462 Y-50.153
X-1303.656 Y-50.128
X-1303.853 Y-50.113
X-1304.052 Y-50.11
X-1304.252 Y-50.118
X-1304.453 Y-50.138
X-1304.653 Y-50.168
X-1304.853 Y-50.211
X-1305.051 Y-50.265
X-1305.246 Y-50.33
X-1305.438 Y-50.406
X-1305.626 Y-50.493
X-1305.81 Y-50.591
X-1305.988 Y-50.7
X-1306.16 Y-50.818
X-1306.326 Y-50.947
X-1306.484 Y-51.085
X-1306.635 Y-51.232
X-1306.777 Y-51.387
X-1306.911 Y-51.55
X-1307.036 Y-51.721
X-1307.15 Y-51.899
X-1307.255 Y-52.083
X-1307.349 Y-52.273
X-1307.433 Y-52.468
X-1307.505 Y-52.668
X-1307.566 Y-52.871
X-1307.616 Y-53.078
X-1307.654 Y-53.287
X-1307.68 Y-53.498
X-1307.694 Y-53.711
X-1307.696 Y-53.924
X-1307.686 Y-54.137
X-1307.664 Y-54.349
X-1307.63 Y-54.559
X-1307.585 Y-54.768
X-1307.527 Y-54.973
X-1307.459 Y-55.175
X-1307.379 Y-55.373
X-1307.287 Y-55.566
X-1307.186 Y-55.754
X-1307.073 Y-55.935
X-1306.951 Y-56.11
X-1306.819 Y-56.278
X-1306.678 Y-56.438
X-1306.528 Y-56.59
X-1306.37 Y-56.734
X-1306.204 Y-56.868
X-1306.03 Y-56.993
X-1305.85 Y-57.107
X-1305.663 Y-57.212
X-1305.472 Y-57.305
X-1305.275 Y-57.388
X-1305.073 Y-57.46
X-1304.868 Y-57.52
X-1304.66 Y-57.568
X-1304.45 Y-57.605
X-1304.237 Y-57.63
X-1304.024 Y-57.642
X-1303.81 Y-57.643
X-1303.597 Y-57.632
X-1303.385 Y-57.609
X-1303.174 Y-57.573
X-1302.965 Y-57.526
X-1302.76 Y-57.468
X-1302.558 Y-57.397
X-1302.36 Y-57.316
X-1302.168 Y-57.224
X-1301.98 Y-57.12
X-1301.799 Y-57.007
X-1301.625 Y-56.884
X-1301.458 Y-56.75
X-1301.298 Y-56.608
X-1301.147 Y-56.457
X-1301.005 Y-56.298
X-1300.872 Y-56.13
X-1300.748 Y-55.956
X-1300.635 Y-55.775
X-1300.531 Y-55.588
X-1300.427 Y-55.371
X-1300.298 Y-55.059
X-1300.147 Y-54.623
X-1300.049 Y-54.281
X-1299.982 Y-53.984
X-1299.936 Y-53.712
X-1299.908 Y-53.457
X-1299.901 Y-53.329
X-1299.904 Y-53.072
X-1299.94 Y-52.817
X-1300.008 Y-52.568
X-1300.16 Y-52.131
X-1300.181 Y-52.076
X-1300.207 Y-52.022
X-1300.315 Y-51.848
X-1300.547 Y-51.478
X-1300.694 Y-51.26
X-1300.751 Y-51.202
X-1301.186 Y-50.77
X-1301.362 Y-50.608
X-1301.404 Y-50.58
X-1302.056 Y-50.17
X-1302.111 Y-50.139
X-1302.165 Y-50.115
X-1302.927 Y-49.846
X-1303.036 Y-49.82
X-1303.58 Y-49.758
X-1303.797 Y-49.734
X-1303.906 Y-49.726
X-1304.015 Y-49.735
X-1304.668 Y-49.808
X-1304.777 Y-49.821
X-1304.886 Y-49.847
X-1305.647 Y-50.116
X-1305.702 Y-50.14
X-1305.757 Y-50.172
X-1306.409 Y-50.582
X-1306.448 Y-50.608
X-1306.627 Y-50.772
X-1307.062 Y-51.204
X-1307.116 Y-51.26
X-1307.263 Y-51.478
X-1307.536 Y-51.913
X-1307.603 Y-52.022
X-1307.65 Y-52.131
X-1307.876 Y-52.784
X-1307.911 Y-52.888
X-1307.932 Y-52.993
X-1308.006 Y-53.654
X-1308.024 Y-53.872
X-1308.001 Y-54.089
X-1307.932 Y-54.708
X-1307.927 Y-54.742
X-1307.861 Y-54.96
X-1307.71 Y-55.395
X-1307.634 Y-55.613
X-1307.608 Y-55.667
X-1307.576 Y-55.722
X-1307.167 Y-56.374
X-1307.125 Y-56.429
X-1307.074 Y-56.483
X-1306.518 Y-57.035
X-1306.464 Y-57.081
X-1306.409 Y-57.118
X-1305.756 Y-57.528
X-1305.677 Y-57.571
X-1305.539 Y-57.623
X-1304.886 Y-57.853
X-1304.777 Y-57.879
X-1304.45 Y-57.916
X-1304.015 Y-57.965
X-1303.906 Y-57.974
X-1303.797 Y-57.966
X-1303.145 Y-57.892
X-1303.036 Y-57.88
X-1302.927 Y-57.854
X-1302.274 Y-57.624
X-1302.133 Y-57.571
X-1302.056 Y-57.53
X-1301.404 Y-57.12
X-1301.349 Y-57.083
X-1301.295 Y-57.037
X-1301.174 Y-56.918
X-1300.736 Y-56.483
X-1300.685 Y-56.429
X-1300.644 Y-56.374
X-1300.234 Y-55.722
X-1300.202 Y-55.667
X-1300.176 Y-55.613
X-1300.098 Y-55.39
X-1299.949 Y-54.96
X-1299.88 Y-54.74
X-1299.853 Y-54.525
X-1299.802 Y-54.089
X-1299.779 Y-53.872
X-1299.797 Y-53.654
X-1299.874 Y-53.001
X-1299.88 Y-52.962
X-1299.934 Y-52.784
X-1300.008 Y-52.568
G3 X-1300.134 Y-52.37 I-0.56 J-0.216
G1 X-1300.198 Y-52.302 Z0.507
X-1300.262 Y-52.236 Z0.529
X-1300.322 Y-52.173 Z0.565
X-1300.377 Y-52.115 Z0.615
X-1300.426 Y-52.063 Z0.676
X-1300.468 Y-52.019 Z0.747
X-1300.502 Y-51.983 Z0.828
X-1300.527 Y-51.957 Z0.915
X-1300.542 Y-51.941 Z1.006
X-1300.547 Y-51.936 Z1.1
G0 Z30

(2D Contour3)
S8000 M3
M9
X-1303.9 Y-53.85
Z30
Z20
G1 Z0.5 F850
G3 X-1303.6 Y-54.15 I0.3
G1 X-1299.55
G3 X-1299.25 Y-53.85 J0.3
X-1306.69 Y-50.13 I-4.65
Y-57.57 I2.79 J-3.72
X-1299.25 Y-53.85 I2.79 J3.72
X-1306.69 Y-50.13 I-4.65
Y-57.57 I2.79 J-3.72
X-1299.25 Y-53.85 I2.79 J3.72
X-1299.85 Y-53.25 I-0.6
G1 X-1300.45
G18 G3 X-1301.05 Z1.1 K0.6
G0 Z30
G17

(2D Adaptive3)
S6000 M3
M9
G0 X-174.184 Y-56.686
Z30
Z20
Z18.15
G1 Z17.55 F850
G3 X-171.248 Y-52.818 Z17.347 I0.28 J2.836 F283.3
X-176.025 Y-51.945 Z17.144 I-2.657 J-1.031
X-174.646 Y-56.602 Z16.941 I2.12 J-1.904
X-171.115 Y-53.268 Z16.738 I0.741 J2.752
X-175.684 Y-51.623 Z16.535 I-2.79 J-0.582
X-175.087 Y-56.443 Z16.332 I1.779 J-2.226
X-172.722 Y-51.257 Z16.019 I1.183 J2.593
X-175.294 Y-51.362 Z15.926 I-1.183 J-2.593
X-175.496 Y-56.214 Z15.723 I1.39 J-2.488
X-172.312 Y-51.486 Z15.411 I1.592 J2.364
X-174.867 Y-51.167 Z15.317 I-1.592 J-2.364
X-175.863 Y-55.921 Z15.114 I0.963 J-2.682
X-171.172 Y-54.662 Z14.911 I1.958 J2.071
X-174.414 Y-51.046 Z14.708 I-2.732 J0.812
X-173.395 Y-56.654 Z14.396 I0.51 J-2.804
X-173.947 Y-51 Z14.099 I-0.51 J2.804
X-176.427 Y-55.175 Z13.896 I0.043 J-2.85
X-171.582 Y-55.502 Z13.693 I2.523 J1.326
X-176.227 Y-52.198 Z13.381 I-2.322 J1.652
X-176.611 Y-54.743 Z13.288 I2.322 J-1.652
X-171.885 Y-55.861 Z13.085 I2.706 J0.894
X-173.023 Y-51.14 Z12.882 I-2.02 J2.011
X-176.721 Y-54.287 Z12.679 I-0.882 J-2.71
X-172.242 Y-56.165 Z12.476 I2.816 J0.438
X-172.59 Y-51.321 Z12.273 I-1.662 J2.315
X-176.754 Y-53.82 Z12.07 I-1.314 J-2.529
X-171.055 Y-53.88 Z11.757 I2.85 J-0.03
X-172.193 Y-51.571 Z11.664 I-2.85 J0.03
X-176.711 Y-53.352 Z11.461 I-1.711 J-2.279
X-171.098 Y-54.347 Z11.148 I2.806 J-0.497
X-171.842 Y-51.882 Z11.055 I-2.806 J0.497
X-176.591 Y-52.899 Z10.852 I-2.062 J-1.967
X-171.218 Y-54.801 Z10.539 I2.687 J-0.951
X-176.591 Y-52.899 Z10.226 I-2.687 J0.951
X-171.218 Y-54.801 Z9.914 I2.687 J-0.951
X-171.317 Y-52.656 Z9.837 I-2.687 J0.951
X-176.139 Y-52.081 Z9.634 I-2.588 J-1.194
X-174.474 Y-56.642 Z9.431 I2.234 J-1.769
X-171.156 Y-53.096 Z9.228 I0.569 J2.793
X-175.818 Y-51.738 Z9.025 I-2.749 J-0.753
X-174.924 Y-56.511 Z8.822 I1.914 J-2.112
X-171.069 Y-53.557 Z8.619 I1.02 J2.661
X-175.446 Y-51.453 Z8.416 I-2.835 J-0.292
X-175.347 Y-56.308 Z8.213 I1.542 J-2.397
X-171.06 Y-54.026 Z8.01 I1.443 J2.458
X-175.032 Y-51.232 Z7.807 I-2.844 J0.177
X-175.731 Y-56.038 Z7.604 I1.127 J-2.618
X-171.127 Y-54.491 Z7.401 I1.826 J2.188
X-174.587 Y-51.083 Z7.198 I-2.777 J0.641
X-176.065 Y-55.709 Z6.995 I0.683 J-2.767
X-171.744 Y-51.991 Z6.683 I2.16 J1.859
X-174.124 Y-51.008 Z6.589 I-2.16 J-1.859
X-176.34 Y-55.329 Z6.386 I0.219 J-2.842
X-171.468 Y-52.37 Z6.074 I2.436 J1.479
X-173.655 Y-51.011 Z5.98 I-2.436 J-1.479
X-176.55 Y-54.91 Z5.777 I-0.25 J-2.839
X-171.764 Y-55.732 Z5.574 I2.646 J1.06
X-173.193 Y-51.09 Z5.371 I-2.14 J1.882
X-176.688 Y-54.461 Z5.168 I-0.712 J-2.76
X-172.102 Y-56.057 Z4.965 I2.784 J0.611
X-172.749 Y-51.244 Z4.762 I-1.803 J2.207
X-176.751 Y-53.996 Z4.56 I-1.155 J-2.605
X-172.488 Y-56.323 Z4.357 I2.846 J0.146
X-172.338 Y-51.469 Z4.154 I-1.416 J2.473
X-176.736 Y-53.527 Z3.951 I-1.567 J-2.381
X-172.913 Y-56.522 Z3.748 I2.832 J-0.322
X-171.968 Y-51.758 Z3.545 I-0.991 J2.672
X-176.645 Y-53.067 Z3.342 I-1.936 J-2.091
X-171.164 Y-54.632 Z3.029 I2.74 J-0.783
X-171.651 Y-52.104 Z2.936 I-2.74 J0.783
X-176.479 Y-52.628 Z2.733 I-2.253 J-1.745
X-173.831 Y-56.699 Z2.53 I2.575 J-1.222
X-171.396 Y-52.498 Z2.327 I-0.073 J2.849
X-176.244 Y-52.222 Z2.124 I-2.509 J-1.352
X-174.3 Y-56.672 Z1.921 I2.34 J-1.627
X-171.208 Y-52.927 Z1.718 I0.395 J2.822
X-175.945 Y-51.861 Z1.515 I-2.697 J-0.922
X-174.757 Y-56.569 Z1.312 I2.041 J-1.989
X-171.093 Y-53.382 Z1.109 I0.853 J2.719
X-175.591 Y-51.553 Z0.906 I-2.811 J-0.468
X-175.192 Y-56.393 Z0.703 I1.687 J-2.297
X-171.054 Y-53.85 Z0.5 I1.287 J2.543
X-173.255 Y-51.075 I-2.85
X-176.532 Y-52.746 I-0.65 J-2.775
X-175.431 Y-56.257 I2.628 J-1.104
X-171.054 Y-53.85 I1.527 J2.407
G1 X-171.041 Y-52.892 F850
X-171.011 Y-52.776
X-170.991 Y-52.628
X-170.989 Y-52.478
X-171.003 Y-52.328
X-171.029 Y-52.181
X-171.068 Y-52.036
X-171.117 Y-51.894
X-171.176 Y-51.756
X-171.244 Y-51.622
X-171.321 Y-51.493
X-171.405 Y-51.369
X-171.496 Y-51.249
X-171.598 Y-51.132
X-171.708 Y-51.016
X-171.829 Y-50.905
X-171.958 Y-50.798
X-172.096 Y-50.696
X-172.243 Y-50.6
X-172.397 Y-50.51
X-172.559 Y-50.429
X-172.729 Y-50.355
X-172.904 Y-50.29
X-173.085 Y-50.234
X-173.271 Y-50.189
X-173.462 Y-50.153
X-173.656 Y-50.128
X-173.853 Y-50.113
X-174.052 Y-50.11
X-174.252 Y-50.118
X-174.453 Y-50.138
X-174.654 Y-50.168
X-174.853 Y-50.211
X-175.051 Y-50.265
X-175.246 Y-50.33
X-175.438 Y-50.406
X-175.626 Y-50.493
X-175.81 Y-50.591
X-175.988 Y-50.7
X-176.16 Y-50.818
X-176.326 Y-50.947
X-176.484 Y-51.085
X-176.635 Y-51.232
X-176.778 Y-51.387
X-176.911 Y-51.55
X-177.036 Y-51.721
X-177.151 Y-51.899
X-177.255 Y-52.083
X-177.349 Y-52.273
X-177.433 Y-52.468
X-177.505 Y-52.668
X-177.566 Y-52.871
X-177.616 Y-53.078
X-177.654 Y-53.287
X-177.68 Y-53.498
X-177.694 Y-53.711
X-177.696 Y-53.924
X-177.686 Y-54.137
X-177.664 Y-54.349
X-177.63 Y-54.559
X-177.585 Y-54.768
X-177.527 Y-54.973
X-177.459 Y-55.175
X-177.379 Y-55.373
X-177.288 Y-55.566
X-177.186 Y-55.754
X-177.074 Y-55.935
X-176.951 Y-56.11
X-176.819 Y-56.278
X-176.678 Y-56.438
X-176.528 Y-56.59
X-176.37 Y-56.734
X-176.204 Y-56.868
X-176.03 Y-56.993
X-175.85 Y-57.107
X-175.664 Y-57.212
X-175.472 Y-57.305
X-175.275 Y-57.388
X-175.073 Y-57.46
X-174.868 Y-57.52
X-174.66 Y-57.568
X-174.45 Y-57.605
X-174.237 Y-57.63
X-174.024 Y-57.642
X-173.81 Y-57.643
X-173.597 Y-57.632
X-173.385 Y-57.609
X-173.174 Y-57.573
X-172.965 Y-57.526
X-172.76 Y-57.468
X-172.558 Y-57.397
X-172.36 Y-57.316
X-172.168 Y-57.224
X-171.981 Y-57.12
X-171.8 Y-57.007
X-171.625 Y-56.884
X-171.458 Y-56.75
X-171.299 Y-56.608
X-171.147 Y-56.457
X-171.005 Y-56.298
X-170.872 Y-56.13
X-170.748 Y-55.956
X-170.635 Y-55.775
X-170.531 Y-55.588
X-170.427 Y-55.371
X-170.298 Y-55.059
X-170.147 Y-54.623
X-170.049 Y-54.281
X-169.982 Y-53.984
X-169.936 Y-53.712
X-169.908 Y-53.457
X-169.901 Y-53.329
X-169.904 Y-53.072
X-169.94 Y-52.817
X-170.009 Y-52.568
X-170.16 Y-52.131
X-170.181 Y-52.076
X-170.208 Y-52.022
X-170.316 Y-51.848
X-170.547 Y-51.478
X-170.694 Y-51.26
X-170.751 Y-51.202
X-171.186 Y-50.77
X-171.363 Y-50.608
X-171.404 Y-50.58
X-172.057 Y-50.17
X-172.111 Y-50.139
X-172.165 Y-50.115
X-172.927 Y-49.846
X-173.036 Y-49.82
X-173.58 Y-49.758
X-173.798 Y-49.734
X-173.906 Y-49.726
X-174.015 Y-49.735
X-174.668 Y-49.808
X-174.777 Y-49.821
X-174.886 Y-49.847
X-175.647 Y-50.116
X-175.702 Y-50.14
X-175.757 Y-50.172
X-176.409 Y-50.582
X-176.448 Y-50.608
X-176.627 Y-50.772
X-177.062 Y-51.204
X-177.116 Y-51.26
X-177.263 Y-51.478
X-177.536 Y-51.913
X-177.603 Y-52.022
X-177.65 Y-52.131
X-177.876 Y-52.784
X-177.912 Y-52.888
X-177.933 Y-52.993
X-178.006 Y-53.654
X-178.024 Y-53.872
X-178.002 Y-54.089
X-177.933 Y-54.708
X-177.928 Y-54.742
X-177.861 Y-54.96
X-177.71 Y-55.395
X-177.634 Y-55.613
X-177.609 Y-55.667
X-177.576 Y-55.722
X-177.167 Y-56.374
X-177.125 Y-56.429
X-177.074 Y-56.483
X-176.518 Y-57.035
X-176.464 Y-57.081
X-176.409 Y-57.118
X-175.756 Y-57.528
X-175.678 Y-57.571
X-175.539 Y-57.623
X-174.886 Y-57.853
X-174.777 Y-57.879
X-174.451 Y-57.916
X-174.015 Y-57.965
X-173.906 Y-57.974
X-173.798 Y-57.966
X-173.145 Y-57.892
X-173.036 Y-57.88
X-172.927 Y-57.854
X-172.274 Y-57.624
X-172.133 Y-57.571
X-172.057 Y-57.53
X-171.404 Y-57.12
X-171.349 Y-57.083
X-171.295 Y-57.037
X-171.174 Y-56.918
X-170.736 Y-56.483
X-170.685 Y-56.429
X-170.644 Y-56.374
X-170.234 Y-55.722
X-170.202 Y-55.667
X-170.176 Y-55.613
X-170.098 Y-55.39
X-169.949 Y-54.96
X-169.88 Y-54.74
X-169.854 Y-54.525
X-169.802 Y-54.089
X-169.779 Y-53.872
X-169.797 Y-53.654
X-169.874 Y-53.001
X-169.88 Y-52.962
X-169.934 Y-52.784
X-170.009 Y-52.568
G3 X-170.134 Y-52.37 I-0.56 J-0.216
G1 X-170.199 Y-52.302 Z0.507
X-170.262 Y-52.236 Z0.529
X-170.322 Y-52.173 Z0.565
X-170.377 Y-52.115 Z0.615
X-170.426 Y-52.063 Z0.676
X-170.469 Y-52.019 Z0.747
X-170.502 Y-51.983 Z0.828
X-170.527 Y-51.957 Z0.915
X-170.543 Y-51.941 Z1.006
X-170.548 Y-51.936 Z1.1
G0 Z30

(2D Contour3)
S8000 M3
M9
X-173.9 Y-53.85
Z30
Z20
G1 Z0.5 F850
G3 X-173.6 Y-54.15 I0.3
G1 X-169.55
G3 X-169.25 Y-53.85 J0.3
X-176.69 Y-50.13 I-4.65
Y-57.57 I2.79 J-3.72
X-169.25 Y-53.85 I2.79 J3.72
X-176.69 Y-50.13 I-4.65
Y-57.57 I2.79 J-3.72
X-169.25 Y-53.85 I2.79 J3.72
X-169.85 Y-53.25 I-0.6
G1 X-170.45
G18 G3 X-171.05 Z1.1 K0.6
G0 Z30
G17

(2D Adaptive2)
S6000 M3
M9
G0 X-1335.379 Y-72.261
Z30
Z20
Z18.1
G1 Z17.5 F850
G3 X-1336.429 Y-76.739 Z17.248 I-0.525 J-2.239 F283.3
X-1334.831 Y-72.466 Z17.016 I0.525 J2.239
X-1338.202 Y-74.392 Z16.854 I-1.073 J-2.034
X-1335.026 Y-76.626 Z16.693 I2.297 J-0.108
X-1334.352 Y-72.802 Z16.532 I-0.878 J2.126
X-1337.456 Y-76.198 Z16.279 I-1.552 J-1.698
X-1335.591 Y-76.779 Z16.209 I1.552 J1.698
X-1336.217 Y-72.221 Z15.957 I-0.313 J2.279
X-1337.856 Y-73.284 Z15.886 I0.313 J-2.279
X-1336.176 Y-76.784 Z15.725 I1.952 J-1.216
X-1335.632 Y-72.216 Z15.472 I0.272 J2.284
X-1336.744 Y-76.641 Z15.241 I-0.272 J-2.284
X-1333.609 Y-74.351 Z15.079 I0.84 J2.141
X-1337.013 Y-72.485 Z14.918 I-2.295 J-0.149
X-1337.257 Y-76.36 Z14.756 I1.109 J-2.015
X-1333.646 Y-74.936 Z14.595 I1.353 J1.86
X-1336.469 Y-72.27 Z14.434 I-2.258 J0.436
X-1337.683 Y-75.958 Z14.272 I0.564 J-2.23
X-1333.829 Y-75.492 Z14.111 I1.779 J1.458
X-1335.887 Y-72.2 Z13.95 I-2.075 J0.992
X-1337.993 Y-75.462 Z13.788 I-0.017 J-2.3
X-1333.815 Y-73.538 Z13.536 I2.089 J0.962
X-1335.307 Y-72.279 Z13.465 I-2.089 J-0.962
X-1338.168 Y-74.903 Z13.304 I-0.597 J-2.221
X-1333.64 Y-74.097 Z13.052 I2.264 J0.403
X-1334.766 Y-72.501 Z12.981 I-2.264 J-0.403
X-1338.197 Y-74.318 Z12.82 I-1.138 J-1.999
X-1335.095 Y-76.653 Z12.658 I2.293 J-0.182
X-1334.298 Y-72.853 Z12.497 I-0.809 J2.153
X-1338.077 Y-73.745 Z12.336 I-1.606 J-1.647
X-1335.665 Y-76.788 Z12.174 I2.173 J-0.755
X-1336.143 Y-72.212 Z11.922 I-0.239 J2.288
X-1337.816 Y-73.221 Z11.852 I0.239 J-2.288
X-1336.25 Y-76.774 Z11.69 I1.912 J-1.279
X-1335.558 Y-72.226 Z11.438 I0.346 J2.274
X-1337.431 Y-72.78 Z11.367 I-0.346 J-2.274
X-1336.813 Y-76.613 Z11.206 I1.527 J-1.72
X-1333.605 Y-74.426 Z11.045 I0.909 J2.113
X-1336.947 Y-72.45 Z10.883 I-2.299 J-0.074
X-1337.317 Y-76.315 Z10.722 I1.043 J-2.05
X-1333.661 Y-75.008 Z10.56 I1.413 J1.815
X-1336.396 Y-72.253 Z10.399 I-2.243 J0.508
X-1337.729 Y-75.9 Z10.238 I0.492 J-2.247
X-1333.862 Y-75.558 Z10.076 I1.825 J1.4
X-1335.813 Y-72.202 Z9.915 I-2.042 J1.058
X-1338.023 Y-75.393 Z9.754 I-0.091 J-2.298
X-1334.195 Y-76.039 Z9.592 I2.119 J0.893
X-1337.613 Y-72.961 Z9.34 I-1.709 J1.539
X-1338.18 Y-74.83 Z9.269 I1.709 J-1.539
X-1334.639 Y-76.421 Z9.108 I2.276 J0.33
X-1334.702 Y-72.539 Z8.947 I-1.265 J1.921
X-1338.19 Y-74.244 Z8.785 I-1.202 J-1.961
X-1335.165 Y-76.678 Z8.624 I2.286 J-0.256
X-1334.246 Y-72.906 Z8.462 I-0.739 J2.178
X-1338.051 Y-73.675 Z8.301 I-1.658 J-1.594
X-1335.739 Y-76.794 Z8.14 I2.147 J-0.825
X-1336.069 Y-72.206 Z7.887 I-0.165 J2.294
X-1337.773 Y-73.16 Z7.817 I0.165 J-2.294
X-1336.323 Y-76.761 Z7.656 I1.869 J-1.34
X-1333.678 Y-73.919 Z7.494 I0.419 J2.261
X-1337.375 Y-72.732 Z7.333 I-2.226 J-0.581
X-1336.881 Y-76.582 Z7.171 I1.471 J-1.768
X-1333.604 Y-74.5 Z7.01 I0.977 J2.082
X-1338.204 I-2.3
X-1335.904 Y-76.8 I2.3
X-1333.684 Y-75.102 J2.3
X-1333.604 Y-74.5 I-2.22 J0.602
G1 X-1333.601 Y-74.294 F850
X-1333.594 Y-74.247
X-1333.578 Y-73.967
X-1333.609 Y-73.689
X-1333.687 Y-73.42
X-1333.697 Y-73.394
X-1333.723 Y-73.34
X-1333.756 Y-73.285
X-1333.906 Y-73.068
X-1334.031 Y-72.889
X-1334.065 Y-72.85
X-1334.249 Y-72.685
X-1334.467 Y-72.495
X-1334.596 Y-72.415
X-1334.902 Y-72.254
X-1335.016 Y-72.197
X-1335.12 Y-72.164
X-1335.555 Y-72.057
X-1335.664 Y-72.044
X-1335.99
X-1336.208 Y-72.049
X-1336.425 Y-72.099
X-1336.643 Y-72.152
X-1336.795 Y-72.197
X-1336.861 Y-72.229
X-1337.214 Y-72.415
X-1337.296 Y-72.461
X-1337.514 Y-72.643
X-1337.731 Y-72.838
X-1337.743 Y-72.85
X-1337.904 Y-73.068
X-1338.054 Y-73.285
X-1338.087 Y-73.34
X-1338.113 Y-73.394
X-1338.167 Y-73.534
X-1338.237 Y-73.721
X-1338.307 Y-73.938
X-1338.335 Y-74.156
X-1338.361 Y-74.373
X-1338.37 Y-74.482
X-1338.365 Y-74.591
X-1338.313 Y-75.026
X-1338.29 Y-75.135
X-1338.25 Y-75.244
X-1338.167 Y-75.466
X-1338.076 Y-75.679
X-1337.929 Y-75.897
X-1337.775 Y-76.114
X-1337.731 Y-76.163
X-1337.514 Y-76.357
X-1337.296 Y-76.539
X-1337.28 Y-76.55
X-1337.078 Y-76.657
X-1336.861 Y-76.771
X-1336.752 Y-76.819
X-1336.643 Y-76.848
X-1336.425 Y-76.901
X-1336.208 Y-76.951
X-1335.99 Y-76.956
X-1335.664
X-1335.555 Y-76.943
X-1335.12 Y-76.836
X-1335.031 Y-76.809
X-1334.942 Y-76.767
X-1334.684 Y-76.632
X-1334.531 Y-76.55
X-1334.467 Y-76.505
X-1334.249 Y-76.315
X-1334.035 Y-76.114
X-1333.881 Y-75.897
X-1333.814 Y-75.799
X-1333.734 Y-75.679
X-1333.642 Y-75.461
X-1333.56 Y-75.244
X-1333.52 Y-75.135
X-1333.494 Y-75.026
X-1333.439 Y-74.591
X-1333.433 Y-74.482
X-1333.443 Y-74.373
X-1333.471 Y-74.156
X-1333.5 Y-73.938
X-1333.573 Y-73.721
X-1333.687 Y-73.42
X-1333.717 Y-73.374 Z7.017
X-1333.746 Y-73.33 Z7.036
X-1333.771 Y-73.292 Z7.067
X-1333.791 Y-73.261 Z7.108
X-1333.806 Y-73.238 Z7.157
X-1333.815 Y-73.229 Z7.2
X-1333.818 Y-73.226 Z7.246
G0 Z20
X-1334.403 Y-72.757
Z10.11
G1 Z9.51 F850
G3 X-1338.113 Y-73.859 Z9.349 I-1.501 J-1.743 F283.3
X-1335.57 Y-76.776 Z9.189 I2.209 J-0.641
X-1333.973 Y-73.251 Z9.028 I-0.334 J2.276
X-1337.843 Y-73.262 Z8.868 I-1.931 J-1.249
X-1336.225 Y-76.778 Z8.707 I1.938 J-1.238
X-1335.583 Y-72.222 Z8.455 I0.321 J2.278
X-1337.415 Y-72.766 Z8.386 I-0.321 J-2.278
X-1336.854 Y-76.595 Z8.225 I1.511 J-1.734
X-1333.604 Y-74.494 Z8.065 I0.95 J2.095
X-1336.865 Y-72.41 Z7.904 I-2.3 J-0.006
X-1337.406 Y-76.242 Z7.744 I0.961 J-2.09
X-1333.696 Y-75.143 Z7.583 I1.502 J1.742
X-1336.237 Y-72.224 Z7.423 I-2.208 J0.642
X-1337.836 Y-75.748 Z7.262 I0.333 J-2.276
X-1333.966 Y-75.739 Z7.102 I1.932 J1.248
X-1335.582 Y-72.223 Z6.941 I-1.938 J1.239
X-1338.109 Y-75.153 Z6.78 I-0.322 J-2.277
X-1334.394 Y-76.235 Z6.62 I2.205 J0.653
X-1334.953 Y-72.406 Z6.459 I-1.51 J1.735
X-1338.204 Y-74.505 Z6.299 I-0.951 J-2.094
X-1334.944 Y-76.59 Z6.138 I2.3 J0.005
X-1336.864 Y-72.41 Z5.886 I-0.96 J2.09
X-1338.112 Y-73.856 Z5.817 I0.96 J-2.09
X-1335.573 Y-76.776 Z5.656 I2.208 J-0.644
X-1333.971 Y-73.253 Z5.496 I-0.331 J2.276
X-1337.841 Y-73.26 Z5.335 I-1.933 J-1.247
X-1336.228 Y-76.777 Z5.175 I1.937 J-1.24
X-1333.698 Y-73.849 Z5.014 I0.324 J2.277
X-1337.413 Y-72.764 Z4.854 I-2.206 J-0.651
X-1336.857 Y-76.593 Z4.693 I1.509 J-1.736
X-1333.604 Y-74.497 Z4.532 I0.953 J2.093
X-1338.204 Y-74.503 Z4.28 I-2.3 J-0.003
X-1337.408 Y-76.24 Z4.211 I2.3 J0.003
X-1333.696 Y-75.145 Z4.051 I1.504 J1.74
X-1336.234 Y-72.224 Z3.89 I-2.208 J0.645
X-1337.838 Y-75.745 Z3.73 I0.33 J-2.276
X-1333.968 Y-75.742 Z3.569 I1.934 J1.245
X-1335.579 Y-72.223 Z3.408 I-1.936 J1.242
X-1336.229 Y-76.777 Z3.156 I-0.325 J-2.277
X-1334.95 Y-72.407 Z2.927 I0.325 J2.277
X-1338.204 Y-74.502 Z2.766 I-0.954 J-2.093
X-1334.947 Y-76.592 Z2.606 I2.3 J0.002
X-1336.861 Y-72.408 Z2.353 I-0.957 J2.092
X-1334.947 Y-76.592 Z2.101 I0.957 J-2.092
X-1333.97 Y-73.256 Z1.963 I-0.957 J2.092
X-1337.839 Y-73.257 Z1.803 I-1.934 J-1.244
X-1333.969 Y-75.743 Z1.551 I1.935 J-1.243
X-1333.697 Y-73.852 Z1.482 I-1.935 J1.243
X-1337.41 Y-72.762 Z1.321 I-2.207 J-0.648
X-1334.398 Y-76.238 Z1.069 I1.506 J-1.738
X-1333.604 Y-74.5 Z1 I-1.506 J1.738
X-1338.204 I-2.3
X-1335.904 Y-76.8 I2.3
X-1333.684 Y-75.102 J2.3
X-1333.604 Y-74.5 I-2.22 J0.602
G1 X-1333.601 Y-74.294 F850
X-1333.594 Y-74.247
X-1333.578 Y-73.967
X-1333.609 Y-73.689
X-1333.687 Y-73.42
X-1333.697 Y-73.394
X-1333.723 Y-73.34
X-1333.756 Y-73.285
X-1333.906 Y-73.068
X-1334.031 Y-72.889
X-1334.065 Y-72.85
X-1334.249 Y-72.685
X-1334.467 Y-72.495
X-1334.596 Y-72.415
X-1334.902 Y-72.254
X-1335.016 Y-72.197
X-1335.12 Y-72.164
X-1335.555 Y-72.057
X-1335.664 Y-72.044
X-1335.99
X-1336.208 Y-72.049
X-1336.425 Y-72.099
X-1336.643 Y-72.152
X-1336.795 Y-72.197
X-1336.861 Y-72.229
X-1337.214 Y-72.415
X-1337.296 Y-72.461
X-1337.514 Y-72.643
X-1337.731 Y-72.838
X-1337.743 Y-72.85
X-1337.904 Y-73.068
X-1338.054 Y-73.285
X-1338.087 Y-73.34
X-1338.113 Y-73.394
X-1338.167 Y-73.534
X-1338.237 Y-73.721
X-1338.307 Y-73.938
X-1338.335 Y-74.156
X-1338.361 Y-74.373
X-1338.37 Y-74.482
X-1338.365 Y-74.591
X-1338.313 Y-75.026
X-1338.29 Y-75.135
X-1338.25 Y-75.244
X-1338.167 Y-75.466
X-1338.076 Y-75.679
X-1337.929 Y-75.897
X-1337.775 Y-76.114
X-1337.731 Y-76.163
X-1337.514 Y-76.357
X-1337.296 Y-76.539
X-1337.28 Y-76.55
X-1337.078 Y-76.657
X-1336.861 Y-76.771
X-1336.752 Y-76.819
X-1336.643 Y-76.848
X-1336.425 Y-76.901
X-1336.208 Y-76.951
X-1335.99 Y-76.956
X-1335.664
X-1335.555 Y-76.943
X-1335.12 Y-76.836
X-1335.031 Y-76.809
X-1334.942 Y-76.767
X-1334.684 Y-76.632
X-1334.531 Y-76.55
X-1334.467 Y-76.505
X-1334.249 Y-76.315
X-1334.035 Y-76.114
X-1333.881 Y-75.897
X-1333.814 Y-75.799
X-1333.734 Y-75.679
X-1333.642 Y-75.461
X-1333.56 Y-75.244
X-1333.52 Y-75.135
X-1333.494 Y-75.026
X-1333.439 Y-74.591
X-1333.433 Y-74.482
X-1333.443 Y-74.373
X-1333.471 Y-74.156
X-1333.5 Y-73.938
X-1333.573 Y-73.721
X-1333.687 Y-73.42
G3 X-1333.818 Y-73.226 I-0.553 J-0.233
G1 X-1333.885 Y-73.16 Z1.007
X-1333.95 Y-73.095 Z1.029
X-1334.012 Y-73.034 Z1.065
X-1334.069 Y-72.978 Z1.115
X-1334.12 Y-72.928 Z1.176
X-1334.164 Y-72.885 Z1.247
X-1334.199 Y-72.85 Z1.328
X-1334.224 Y-72.825 Z1.415
X-1334.24 Y-72.809 Z1.506
X-1334.245 Y-72.804 Z1.6
G0 Z30

(2D Contour2)
S8000 M3
M9
X-1335.9 Y-74.5
Z30
Z20
G1 Z1 F850
G3 X-1335.84 Y-74.08 I-0.18 J0.24
G1 X-1337.28 Y-72.16
G3 X-1337.7 Y-72.1 I-0.24 J-0.18
Y-76.9 I1.8 J-2.4
X-1332.9 Y-74.5 I1.8 J2.4
X-1337.7 Y-72.1 I-3
Y-76.9 I1.8 J-2.4
X-1332.9 Y-74.5 I1.8 J2.4
X-1337.7 Y-72.1 I-3
X-1337.82 Y-72.94 I0.36 J-0.48
G1 X-1337.46 Y-73.42
X-1337.404 Y-73.495 Z1.007
X-1337.349 Y-73.568 Z1.029
X-1337.297 Y-73.638 Z1.065
X-1337.248 Y-73.702 Z1.115
X-1337.205 Y-73.759 Z1.176
X-1337.169 Y-73.808 Z1.247
X-1337.139 Y-73.848 Z1.328
X-1337.118 Y-73.877 Z1.415
X-1337.104 Y-73.894 Z1.506
X-1337.1 Y-73.9 Z1.6
G0 Z30

(2D Adaptive2)
S6000 M3
M9
X-1335.379 Y-264.261
Z30
Z20
Z18.1
G1 Z17.5 F850
G3 X-1336.429 Y-268.739 Z17.248 I-0.525 J-2.239 F283.3
X-1334.831 Y-264.466 Z17.016 I0.525 J2.239
X-1338.202 Y-266.392 Z16.854 I-1.073 J-2.034
X-1335.026 Y-268.626 Z16.693 I2.297 J-0.108
X-1334.352 Y-264.802 Z16.532 I-0.878 J2.126
X-1337.456 Y-268.198 Z16.279 I-1.552 J-1.698
X-1335.591 Y-268.779 Z16.209 I1.552 J1.698
X-1336.217 Y-264.221 Z15.957 I-0.313 J2.279
X-1337.856 Y-265.284 Z15.886 I0.313 J-2.279
X-1336.176 Y-268.784 Z15.725 I1.952 J-1.216
X-1335.632 Y-264.216 Z15.472 I0.272 J2.284
X-1336.744 Y-268.641 Z15.241 I-0.272 J-2.284
X-1333.609 Y-266.351 Z15.079 I0.84 J2.141
X-1337.013 Y-264.485 Z14.918 I-2.295 J-0.149
X-1337.257 Y-268.36 Z14.756 I1.109 J-2.015
X-1333.646 Y-266.936 Z14.595 I1.353 J1.86
X-1336.469 Y-264.27 Z14.434 I-2.258 J0.436
X-1337.683 Y-267.958 Z14.272 I0.564 J-2.23
X-1333.829 Y-267.492 Z14.111 I1.779 J1.458
X-1335.887 Y-264.2 Z13.95 I-2.075 J0.992
X-1337.993 Y-267.462 Z13.788 I-0.017 J-2.3
X-1333.815 Y-265.538 Z13.536 I2.089 J0.962
X-1335.307 Y-264.279 Z13.465 I-2.089 J-0.962
X-1338.168 Y-266.903 Z13.304 I-0.597 J-2.221
X-1333.64 Y-266.097 Z13.052 I2.264 J0.403
X-1334.766 Y-264.501 Z12.981 I-2.264 J-0.403
X-1338.197 Y-266.318 Z12.82 I-1.138 J-1.999
X-1335.095 Y-268.653 Z12.658 I2.293 J-0.182
X-1334.298 Y-264.853 Z12.497 I-0.809 J2.153
X-1338.077 Y-265.745 Z12.336 I-1.606 J-1.647
X-1335.665 Y-268.788 Z12.174 I2.173 J-0.755
X-1336.143 Y-264.212 Z11.922 I-0.239 J2.288
X-1337.816 Y-265.221 Z11.852 I0.239 J-2.288
X-1336.25 Y-268.774 Z11.69 I1.912 J-1.279
X-1335.558 Y-264.226 Z11.438 I0.346 J2.274
X-1337.431 Y-264.78 Z11.367 I-0.346 J-2.274
X-1336.813 Y-268.613 Z11.206 I1.527 J-1.72
X-1333.605 Y-266.426 Z11.045 I0.909 J2.113
X-1336.947 Y-264.45 Z10.883 I-2.299 J-0.074
X-1337.317 Y-268.315 Z10.722 I1.043 J-2.05
X-1333.661 Y-267.008 Z10.56 I1.413 J1.815
X-1336.396 Y-264.253 Z10.399 I-2.243 J0.508
X-1337.729 Y-267.9 Z10.238 I0.492 J-2.247
X-1333.862 Y-267.558 Z10.076 I1.825 J1.4
X-1335.813 Y-264.202 Z9.915 I-2.042 J1.058
X-1338.023 Y-267.393 Z9.754 I-0.091 J-2.298
X-1334.195 Y-268.039 Z9.592 I2.119 J0.893
X-1337.613 Y-264.961 Z9.34 I-1.709 J1.539
X-1338.18 Y-266.83 Z9.269 I1.709 J-1.539
X-1334.639 Y-268.421 Z9.108 I2.276 J0.33
X-1334.702 Y-264.539 Z8.947 I-1.265 J1.921
X-1338.19 Y-266.244 Z8.785 I-1.202 J-1.961
X-1335.165 Y-268.678 Z8.624 I2.286 J-0.256
X-1334.246 Y-264.906 Z8.462 I-0.739 J2.178
X-1338.051 Y-265.675 Z8.301 I-1.658 J-1.594
X-1335.739 Y-268.794 Z8.14 I2.147 J-0.825
X-1336.069 Y-264.206 Z7.887 I-0.165 J2.294
X-1337.773 Y-265.16 Z7.817 I0.165 J-2.294
X-1336.323 Y-268.761 Z7.656 I1.869 J-1.34
X-1333.678 Y-265.919 Z7.494 I0.419 J2.261
X-1337.375 Y-264.732 Z7.333 I-2.226 J-0.581
X-1336.881 Y-268.582 Z7.171 I1.471 J-1.768
X-1333.604 Y-266.5 Z7.01 I0.977 J2.082
X-1338.204 I-2.3
X-1335.904 Y-268.8 I2.3
X-1333.684 Y-267.102 J2.3
X-1333.604 Y-266.5 I-2.22 J0.602
G1 X-1333.601 Y-266.294 F850
X-1333.594 Y-266.247
X-1333.578 Y-265.967
X-1333.609 Y-265.689
X-1333.687 Y-265.42
X-1333.697 Y-265.394
X-1333.723 Y-265.34
X-1333.756 Y-265.285
X-1333.906 Y-265.068
X-1334.031 Y-264.889
X-1334.065 Y-264.85
X-1334.249 Y-264.685
X-1334.467 Y-264.495
X-1334.596 Y-264.415
X-1334.902 Y-264.254
X-1335.016 Y-264.197
X-1335.12 Y-264.164
X-1335.555 Y-264.057
X-1335.664 Y-264.044
X-1335.99
X-1336.208 Y-264.049
X-1336.425 Y-264.099
X-1336.643 Y-264.152
X-1336.795 Y-264.197
X-1336.861 Y-264.229
X-1337.214 Y-264.415
X-1337.296 Y-264.461
X-1337.514 Y-264.643
X-1337.731 Y-264.838
X-1337.743 Y-264.85
X-1337.904 Y-265.068
X-1338.054 Y-265.285
X-1338.087 Y-265.34
X-1338.113 Y-265.394
X-1338.167 Y-265.534
X-1338.237 Y-265.721
X-1338.307 Y-265.938
X-1338.335 Y-266.156
X-1338.361 Y-266.373
X-1338.37 Y-266.482
X-1338.365 Y-266.591
X-1338.313 Y-267.026
X-1338.29 Y-267.135
X-1338.25 Y-267.244
X-1338.167 Y-267.466
X-1338.076 Y-267.679
X-1337.929 Y-267.897
X-1337.775 Y-268.114
X-1337.731 Y-268.163
X-1337.514 Y-268.357
X-1337.296 Y-268.539
X-1337.28 Y-268.55
X-1337.078 Y-268.657
X-1336.861 Y-268.771
X-1336.752 Y-268.819
X-1336.643 Y-268.848
X-1336.425 Y-268.901
X-1336.208 Y-268.951
X-1335.99 Y-268.956
X-1335.664
X-1335.555 Y-268.943
X-1335.12 Y-268.836
X-1335.031 Y-268.809
X-1334.942 Y-268.767
X-1334.684 Y-268.632
X-1334.531 Y-268.55
X-1334.467 Y-268.505
X-1334.249 Y-268.315
X-1334.035 Y-268.114
X-1333.881 Y-267.897
X-1333.814 Y-267.799
X-1333.734 Y-267.679
X-1333.642 Y-267.461
X-1333.56 Y-267.244
X-1333.52 Y-267.135
X-1333.494 Y-267.026
X-1333.439 Y-266.591
X-1333.433 Y-266.482
X-1333.443 Y-266.373
X-1333.471 Y-266.156
X-1333.5 Y-265.938
X-1333.573 Y-265.721
X-1333.687 Y-265.42
X-1333.717 Y-265.374 Z7.017
X-1333.746 Y-265.33 Z7.036
X-1333.771 Y-265.292 Z7.067
X-1333.791 Y-265.261 Z7.108
X-1333.806 Y-265.238 Z7.157
X-1333.815 Y-265.229 Z7.2
X-1333.818 Y-265.226 Z7.246
G0 Z20
X-1334.403 Y-264.757
Z10.11
G1 Z9.51 F850
G3 X-1338.113 Y-265.859 Z9.349 I-1.501 J-1.743 F283.3
X-1335.57 Y-268.776 Z9.189 I2.209 J-0.641
X-1333.973 Y-265.251 Z9.028 I-0.334 J2.276
X-1337.843 Y-265.262 Z8.868 I-1.931 J-1.249
X-1336.225 Y-268.778 Z8.707 I1.938 J-1.238
X-1335.583 Y-264.222 Z8.455 I0.321 J2.278
X-1337.415 Y-264.766 Z8.386 I-0.321 J-2.278
X-1336.854 Y-268.595 Z8.225 I1.511 J-1.734
X-1333.604 Y-266.494 Z8.065 I0.95 J2.095
X-1336.865 Y-264.41 Z7.904 I-2.3 J-0.006
X-1337.406 Y-268.242 Z7.744 I0.961 J-2.09
X-1333.696 Y-267.143 Z7.583 I1.502 J1.742
X-1336.237 Y-264.224 Z7.423 I-2.208 J0.642
X-1337.836 Y-267.748 Z7.262 I0.333 J-2.276
X-1333.966 Y-267.739 Z7.102 I1.932 J1.248
X-1335.582 Y-264.223 Z6.941 I-1.938 J1.239
X-1338.109 Y-267.153 Z6.78 I-0.322 J-2.277
X-1334.394 Y-268.235 Z6.62 I2.205 J0.653
X-1334.953 Y-264.406 Z6.459 I-1.51 J1.735
X-1338.204 Y-266.505 Z6.299 I-0.951 J-2.094
X-1334.944 Y-268.59 Z6.138 I2.3 J0.005
X-1336.864 Y-264.41 Z5.886 I-0.96 J2.09
X-1338.112 Y-265.856 Z5.817 I0.96 J-2.09
X-1335.573 Y-268.776 Z5.656 I2.208 J-0.644
X-1333.971 Y-265.253 Z5.496 I-0.331 J2.276
X-1337.841 Y-265.26 Z5.335 I-1.933 J-1.247
X-1336.228 Y-268.777 Z5.175 I1.937 J-1.24
X-1333.698 Y-265.849 Z5.014 I0.324 J2.277
X-1337.413 Y-264.764 Z4.854 I-2.206 J-0.651
X-1336.857 Y-268.593 Z4.693 I1.509 J-1.736
X-1333.604 Y-266.497 Z4.532 I0.953 J2.093
X-1338.204 Y-266.503 Z4.28 I-2.3 J-0.003
X-1337.408 Y-268.24 Z4.211 I2.3 J0.003
X-1333.696 Y-267.145 Z4.051 I1.504 J1.74
X-1336.234 Y-264.224 Z3.89 I-2.208 J0.645
X-1337.838 Y-267.745 Z3.73 I0.33 J-2.276
X-1333.968 Y-267.742 Z3.569 I1.934 J1.245
X-1335.579 Y-264.223 Z3.408 I-1.936 J1.242
X-1336.229 Y-268.777 Z3.156 I-0.325 J-2.277
X-1334.95 Y-264.407 Z2.927 I0.325 J2.277
X-1338.204 Y-266.502 Z2.766 I-0.954 J-2.093
X-1334.947 Y-268.592 Z2.606 I2.3 J0.002
X-1336.861 Y-264.408 Z2.353 I-0.957 J2.092
X-1334.947 Y-268.592 Z2.101 I0.957 J-2.092
X-1333.97 Y-265.256 Z1.963 I-0.957 J2.092
X-1337.839 Y-265.257 Z1.803 I-1.934 J-1.244
X-1333.969 Y-267.743 Z1.551 I1.935 J-1.243
X-1333.697 Y-265.852 Z1.482 I-1.935 J1.243
X-1337.41 Y-264.762 Z1.321 I-2.207 J-0.648
X-1334.398 Y-268.238 Z1.069 I1.506 J-1.738
X-1333.604 Y-266.5 Z1 I-1.506 J1.738
X-1338.204 I-2.3
X-1335.904 Y-268.8 I2.3
X-1333.684 Y-267.102 J2.3
X-1333.604 Y-266.5 I-2.22 J0.602
G1 X-1333.601 Y-266.294 F850
X-1333.594 Y-266.247
X-1333.578 Y-265.967
X-1333.609 Y-265.689
X-1333.687 Y-265.42
X-1333.697 Y-265.394
X-1333.723 Y-265.34
X-1333.756 Y-265.285
X-1333.906 Y-265.068
X-1334.031 Y-264.889
X-1334.065 Y-264.85
X-1334.249 Y-264.685
X-1334.467 Y-264.495
X-1334.596 Y-264.415
X-1334.902 Y-264.254
X-1335.016 Y-264.197
X-1335.12 Y-264.164
X-1335.555 Y-264.057
X-1335.664 Y-264.044
X-1335.99
X-1336.208 Y-264.049
X-1336.425 Y-264.099
X-1336.643 Y-264.152
X-1336.795 Y-264.197
X-1336.861 Y-264.229
X-1337.214 Y-264.415
X-1337.296 Y-264.461
X-1337.514 Y-264.643
X-1337.731 Y-264.838
X-1337.743 Y-264.85
X-1337.904 Y-265.068
X-1338.054 Y-265.285
X-1338.087 Y-265.34
X-1338.113 Y-265.394
X-1338.167 Y-265.534
X-1338.237 Y-265.721
X-1338.307 Y-265.938
X-1338.335 Y-266.156
X-1338.361 Y-266.373
X-1338.37 Y-266.482
X-1338.365 Y-266.591
X-1338.313 Y-267.026
X-1338.29 Y-267.135
X-1338.25 Y-267.244
X-1338.167 Y-267.466
X-1338.076 Y-267.679
X-1337.929 Y-267.897
X-1337.775 Y-268.114
X-1337.731 Y-268.163
X-1337.514 Y-268.357
X-1337.296 Y-268.539
X-1337.28 Y-268.55
X-1337.078 Y-268.657
X-1336.861 Y-268.771
X-1336.752 Y-268.819
X-1336.643 Y-268.848
X-1336.425 Y-268.901
X-1336.208 Y-268.951
X-1335.99 Y-268.956
X-1335.664
X-1335.555 Y-268.943
X-1335.12 Y-268.836
X-1335.031 Y-268.809
X-1334.942 Y-268.767
X-1334.684 Y-268.632
X-1334.531 Y-268.55
X-1334.467 Y-268.505
X-1334.249 Y-268.315
X-1334.035 Y-268.114
X-1333.881 Y-267.897
X-1333.814 Y-267.799
X-1333.734 Y-267.679
X-1333.642 Y-267.461
X-1333.56 Y-267.244
X-1333.52 Y-267.135
X-1333.494 Y-267.026
X-1333.439 Y-266.591
X-1333.433 Y-266.482
X-1333.443 Y-266.373
X-1333.471 Y-266.156
X-1333.5 Y-265.938
X-1333.573 Y-265.721
X-1333.687 Y-265.42
G3 X-1333.818 Y-265.226 I-0.553 J-0.233
G1 X-1333.885 Y-265.16 Z1.007
X-1333.95 Y-265.095 Z1.029
X-1334.012 Y-265.034 Z1.065
X-1334.069 Y-264.978 Z1.115
X-1334.12 Y-264.928 Z1.176
X-1334.164 Y-264.885 Z1.247
X-1334.199 Y-264.85 Z1.328
X-1334.224 Y-264.825 Z1.415
X-1334.24 Y-264.809 Z1.506
X-1334.245 Y-264.804 Z1.6
G0 Z30

(2D Contour2)
S8000 M3
M9
X-1335.9 Y-266.5
Z30
Z20
G1 Z1 F850
G3 X-1335.84 Y-266.08 I-0.18 J0.24
G1 X-1337.28 Y-264.16
G3 X-1337.7 Y-264.1 I-0.24 J-0.18
Y-268.9 I1.8 J-2.4
X-1332.9 Y-266.5 I1.8 J2.4
X-1337.7 Y-264.1 I-3
Y-268.9 I1.8 J-2.4
X-1332.9 Y-266.5 I1.8 J2.4
X-1337.7 Y-264.1 I-3
X-1337.82 Y-264.94 I0.36 J-0.48
G1 X-1337.46 Y-265.42
X-1337.404 Y-265.495 Z1.007
X-1337.349 Y-265.568 Z1.029
X-1337.297 Y-265.638 Z1.065
X-1337.248 Y-265.702 Z1.115
X-1337.205 Y-265.759 Z1.176
X-1337.169 Y-265.808 Z1.247
X-1337.139 Y-265.848 Z1.328
X-1337.118 Y-265.877 Z1.415
X-1337.104 Y-265.894 Z1.506
X-1337.1 Y-265.9 Z1.6
G0 Z30

(2D Adaptive2)
S6000 M3
M9
X-1335.379 Y-456.261
Z30
Z20
Z18.1
G1 Z17.5 F850
G3 X-1336.429 Y-460.739 Z17.248 I-0.525 J-2.239 F283.3
X-1334.831 Y-456.466 Z17.016 I0.525 J2.239
X-1338.202 Y-458.392 Z16.854 I-1.073 J-2.034
X-1335.026 Y-460.626 Z16.693 I2.297 J-0.108
X-1334.352 Y-456.802 Z16.532 I-0.878 J2.126
X-1337.456 Y-460.198 Z16.279 I-1.552 J-1.698
X-1335.591 Y-460.779 Z16.209 I1.552 J1.698
X-1336.217 Y-456.221 Z15.957 I-0.313 J2.279
X-1337.856 Y-457.284 Z15.886 I0.313 J-2.279
X-1336.176 Y-460.784 Z15.725 I1.952 J-1.216
X-1335.632 Y-456.216 Z15.472 I0.272 J2.284
X-1336.744 Y-460.641 Z15.241 I-0.272 J-2.284
X-1333.609 Y-458.351 Z15.079 I0.84 J2.141
X-1337.013 Y-456.485 Z14.918 I-2.295 J-0.149
X-1337.257 Y-460.36 Z14.756 I1.109 J-2.015
X-1333.646 Y-458.936 Z14.595 I1.353 J1.86
X-1336.469 Y-456.27 Z14.434 I-2.258 J0.436
X-1337.683 Y-459.958 Z14.272 I0.564 J-2.23
X-1333.829 Y-459.492 Z14.111 I1.779 J1.458
X-1335.887 Y-456.2 Z13.95 I-2.075 J0.992
X-1337.993 Y-459.462 Z13.788 I-0.017 J-2.3
X-1333.815 Y-457.538 Z13.536 I2.089 J0.962
X-1335.307 Y-456.279 Z13.465 I-2.089 J-0.962
X-1338.168 Y-458.903 Z13.304 I-0.597 J-2.221
X-1333.64 Y-458.097 Z13.052 I2.264 J0.403
X-1334.766 Y-456.501 Z12.981 I-2.264 J-0.403
X-1338.197 Y-458.318 Z12.82 I-1.138 J-1.999
X-1335.095 Y-460.653 Z12.658 I2.293 J-0.182
X-1334.298 Y-456.853 Z12.497 I-0.809 J2.153
X-1338.077 Y-457.745 Z12.336 I-1.606 J-1.647
X-1335.665 Y-460.788 Z12.174 I2.173 J-0.755
X-1336.143 Y-456.212 Z11.922 I-0.239 J2.288
X-1337.816 Y-457.221 Z11.852 I0.239 J-2.288
X-1336.25 Y-460.774 Z11.69 I1.912 J-1.279
X-1335.558 Y-456.226 Z11.438 I0.346 J2.274
X-1337.431 Y-456.78 Z11.367 I-0.346 J-2.274
X-1336.813 Y-460.613 Z11.206 I1.527 J-1.72
X-1333.605 Y-458.426 Z11.045 I0.909 J2.113
X-1336.947 Y-456.45 Z10.883 I-2.299 J-0.074
X-1337.317 Y-460.315 Z10.722 I1.043 J-2.05
X-1333.661 Y-459.008 Z10.56 I1.413 J1.815
X-1336.396 Y-456.253 Z10.399 I-2.243 J0.508
X-1337.729 Y-459.9 Z10.238 I0.492 J-2.247
X-1333.862 Y-459.558 Z10.076 I1.825 J1.4
X-1335.813 Y-456.202 Z9.915 I-2.042 J1.058
X-1338.023 Y-459.393 Z9.754 I-0.091 J-2.298
X-1334.195 Y-460.039 Z9.592 I2.119 J0.893
X-1337.613 Y-456.961 Z9.34 I-1.709 J1.539
X-1338.18 Y-458.83 Z9.269 I1.709 J-1.539
X-1334.639 Y-460.421 Z9.108 I2.276 J0.33
X-1334.702 Y-456.539 Z8.947 I-1.265 J1.921
X-1338.19 Y-458.244 Z8.785 I-1.202 J-1.961
X-1335.165 Y-460.678 Z8.624 I2.286 J-0.256
X-1334.246 Y-456.906 Z8.462 I-0.739 J2.178
X-1338.051 Y-457.675 Z8.301 I-1.658 J-1.594
X-1335.739 Y-460.794 Z8.14 I2.147 J-0.825
X-1336.069 Y-456.206 Z7.887 I-0.165 J2.294
X-1337.773 Y-457.16 Z7.817 I0.165 J-2.294
X-1336.323 Y-460.761 Z7.656 I1.869 J-1.34
X-1333.678 Y-457.919 Z7.494 I0.419 J2.261
X-1337.375 Y-456.732 Z7.333 I-2.226 J-0.581
X-1336.881 Y-460.582 Z7.171 I1.471 J-1.768
X-1333.604 Y-458.5 Z7.01 I0.977 J2.082
X-1338.204 I-2.3
X-1335.904 Y-460.8 I2.3
X-1333.684 Y-459.102 J2.3
X-1333.604 Y-458.5 I-2.22 J0.602
G1 X-1333.601 Y-458.294 F850
X-1333.594 Y-458.247
X-1333.578 Y-457.967
X-1333.609 Y-457.689
X-1333.687 Y-457.42
X-1333.697 Y-457.394
X-1333.723 Y-457.34
X-1333.756 Y-457.285
X-1333.906 Y-457.068
X-1334.031 Y-456.889
X-1334.065 Y-456.85
X-1334.249 Y-456.685
X-1334.467 Y-456.495
X-1334.596 Y-456.415
X-1334.902 Y-456.254
X-1335.016 Y-456.197
X-1335.12 Y-456.164
X-1335.555 Y-456.057
X-1335.664 Y-456.044
X-1335.99
X-1336.208 Y-456.049
X-1336.425 Y-456.099
X-1336.643 Y-456.152
X-1336.795 Y-456.197
X-1336.861 Y-456.229
X-1337.214 Y-456.415
X-1337.296 Y-456.461
X-1337.514 Y-456.643
X-1337.731 Y-456.838
X-1337.743 Y-456.85
X-1337.904 Y-457.068
X-1338.054 Y-457.285
X-1338.087 Y-457.34
X-1338.113 Y-457.394
X-1338.167 Y-457.534
X-1338.237 Y-457.721
X-1338.307 Y-457.938
X-1338.335 Y-458.156
X-1338.361 Y-458.373
X-1338.37 Y-458.482
X-1338.365 Y-458.591
X-1338.313 Y-459.026
X-1338.29 Y-459.135
X-1338.25 Y-459.244
X-1338.167 Y-459.466
X-1338.076 Y-459.679
X-1337.929 Y-459.897
X-1337.775 Y-460.114
X-1337.731 Y-460.163
X-1337.514 Y-460.357
X-1337.296 Y-460.539
X-1337.28 Y-460.55
X-1337.078 Y-460.657
X-1336.861 Y-460.771
X-1336.752 Y-460.819
X-1336.643 Y-460.848
X-1336.425 Y-460.901
X-1336.208 Y-460.951
X-1335.99 Y-460.956
X-1335.664
X-1335.555 Y-460.943
X-1335.12 Y-460.836
X-1335.031 Y-460.809
X-1334.942 Y-460.767
X-1334.684 Y-460.632
X-1334.531 Y-460.55
X-1334.467 Y-460.505
X-1334.249 Y-460.315
X-1334.035 Y-460.114
X-1333.881 Y-459.897
X-1333.814 Y-459.799
X-1333.734 Y-459.679
X-1333.642 Y-459.461
X-1333.56 Y-459.244
X-1333.52 Y-459.135
X-1333.494 Y-459.026
X-1333.439 Y-458.591
X-1333.433 Y-458.482
X-1333.443 Y-458.373
X-1333.471 Y-458.156
X-1333.5 Y-457.938
X-1333.573 Y-457.721
X-1333.687 Y-457.42
X-1333.717 Y-457.374 Z7.017
X-1333.746 Y-457.33 Z7.036
X-1333.771 Y-457.292 Z7.067
X-1333.791 Y-457.261 Z7.108
X-1333.806 Y-457.238 Z7.157
X-1333.815 Y-457.229 Z7.2
X-1333.818 Y-457.226 Z7.246
G0 Z20
X-1334.403 Y-456.757
Z10.11
G1 Z9.51 F850
G3 X-1338.113 Y-457.859 Z9.349 I-1.501 J-1.743 F283.3
X-1335.57 Y-460.776 Z9.189 I2.209 J-0.641
X-1333.973 Y-457.251 Z9.028 I-0.334 J2.276
X-1337.843 Y-457.262 Z8.868 I-1.931 J-1.249
X-1336.225 Y-460.778 Z8.707 I1.938 J-1.238
X-1335.583 Y-456.222 Z8.455 I0.321 J2.278
X-1337.415 Y-456.766 Z8.386 I-0.321 J-2.278
X-1336.854 Y-460.595 Z8.225 I1.511 J-1.734
X-1333.604 Y-458.494 Z8.065 I0.95 J2.095
X-1336.865 Y-456.41 Z7.904 I-2.3 J-0.006
X-1337.406 Y-460.242 Z7.744 I0.961 J-2.09
X-1333.696 Y-459.143 Z7.583 I1.502 J1.742
X-1336.237 Y-456.224 Z7.423 I-2.208 J0.642
X-1337.836 Y-459.748 Z7.262 I0.333 J-2.276
X-1333.966 Y-459.739 Z7.102 I1.932 J1.248
X-1335.582 Y-456.223 Z6.941 I-1.938 J1.239
X-1338.109 Y-459.153 Z6.78 I-0.322 J-2.277
X-1334.394 Y-460.235 Z6.62 I2.205 J0.653
X-1334.953 Y-456.406 Z6.459 I-1.51 J1.735
X-1338.204 Y-458.505 Z6.299 I-0.951 J-2.094
X-1334.944 Y-460.59 Z6.138 I2.3 J0.005
X-1336.864 Y-456.41 Z5.886 I-0.96 J2.09
X-1338.112 Y-457.856 Z5.817 I0.96 J-2.09
X-1335.573 Y-460.776 Z5.656 I2.208 J-0.644
X-1333.971 Y-457.253 Z5.496 I-0.331 J2.276
X-1337.841 Y-457.26 Z5.335 I-1.933 J-1.247
X-1336.228 Y-460.777 Z5.175 I1.937 J-1.24
X-1333.698 Y-457.849 Z5.014 I0.324 J2.277
X-1337.413 Y-456.764 Z4.854 I-2.206 J-0.651
X-1336.857 Y-460.593 Z4.693 I1.509 J-1.736
X-1333.604 Y-458.497 Z4.532 I0.953 J2.093
X-1338.204 Y-458.503 Z4.28 I-2.3 J-0.003
X-1337.408 Y-460.24 Z4.211 I2.3 J0.003
X-1333.696 Y-459.145 Z4.051 I1.504 J1.74
X-1336.234 Y-456.224 Z3.89 I-2.208 J0.645
X-1337.838 Y-459.745 Z3.73 I0.33 J-2.276
X-1333.968 Y-459.742 Z3.569 I1.934 J1.245
X-1335.579 Y-456.223 Z3.408 I-1.936 J1.242
X-1336.229 Y-460.777 Z3.156 I-0.325 J-2.277
X-1334.95 Y-456.407 Z2.927 I0.325 J2.277
X-1338.204 Y-458.502 Z2.766 I-0.954 J-2.093
X-1334.947 Y-460.592 Z2.606 I2.3 J0.002
X-1336.861 Y-456.408 Z2.353 I-0.957 J2.092
X-1334.947 Y-460.592 Z2.101 I0.957 J-2.092
X-1333.97 Y-457.256 Z1.963 I-0.957 J2.092
X-1337.839 Y-457.257 Z1.803 I-1.934 J-1.244
X-1333.969 Y-459.743 Z1.551 I1.935 J-1.243
X-1333.697 Y-457.852 Z1.482 I-1.935 J1.243
X-1337.41 Y-456.762 Z1.321 I-2.207 J-0.648
X-1334.398 Y-460.238 Z1.069 I1.506 J-1.738
X-1333.604 Y-458.5 Z1 I-1.506 J1.738
X-1338.204 I-2.3
X-1335.904 Y-460.8 I2.3
X-1333.684 Y-459.102 J2.3
X-1333.604 Y-458.5 I-2.22 J0.602
G1 X-1333.601 Y-458.294 F850
X-1333.594 Y-458.247
X-1333.578 Y-457.967
X-1333.609 Y-457.689
X-1333.687 Y-457.42
X-1333.697 Y-457.394
X-1333.723 Y-457.34
X-1333.756 Y-457.285
X-1333.906 Y-457.068
X-1334.031 Y-456.889
X-1334.065 Y-456.85
X-1334.249 Y-456.685
X-1334.467 Y-456.495
X-1334.596 Y-456.415
X-1334.902 Y-456.254
X-1335.016 Y-456.197
X-1335.12 Y-456.164
X-1335.555 Y-456.057
X-1335.664 Y-456.044
X-1335.99
X-1336.208 Y-456.049
X-1336.425 Y-456.099
X-1336.643 Y-456.152
X-1336.795 Y-456.197
X-1336.861 Y-456.229
X-1337.214 Y-456.415
X-1337.296 Y-456.461
X-1337.514 Y-456.643
X-1337.731 Y-456.838
X-1337.743 Y-456.85
X-1337.904 Y-457.068
X-1338.054 Y-457.285
X-1338.087 Y-457.34
X-1338.113 Y-457.394
X-1338.167 Y-457.534
X-1338.237 Y-457.721
X-1338.307 Y-457.938
X-1338.335 Y-458.156
X-1338.361 Y-458.373
X-1338.37 Y-458.482
X-1338.365 Y-458.591
X-1338.313 Y-459.026
X-1338.29 Y-459.135
X-1338.25 Y-459.244
X-1338.167 Y-459.466
X-1338.076 Y-459.679
X-1337.929 Y-459.897
X-1337.775 Y-460.114
X-1337.731 Y-460.163
X-1337.514 Y-460.357
X-1337.296 Y-460.539
X-1337.28 Y-460.55
X-1337.078 Y-460.657
X-1336.861 Y-460.771
X-1336.752 Y-460.819
X-1336.643 Y-460.848
X-1336.425 Y-460.901
X-1336.208 Y-460.951
X-1335.99 Y-460.956
X-1335.664
X-1335.555 Y-460.943
X-1335.12 Y-460.836
X-1335.031 Y-460.809
X-1334.942 Y-460.767
X-1334.684 Y-460.632
X-1334.531 Y-460.55
X-1334.467 Y-460.505
X-1334.249 Y-460.315
X-1334.035 Y-460.114
X-1333.881 Y-459.897
X-1333.814 Y-459.799
X-1333.734 Y-459.679
X-1333.642 Y-459.461
X-1333.56 Y-459.244
X-1333.52 Y-459.135
X-1333.494 Y-459.026
X-1333.439 Y-458.591
X-1333.433 Y-458.482
X-1333.443 Y-458.373
X-1333.471 Y-458.156
X-1333.5 Y-457.938
X-1333.573 Y-457.721
X-1333.687 Y-457.42
G3 X-1333.818 Y-457.226 I-0.553 J-0.233
G1 X-1333.885 Y-457.16 Z1.007
X-1333.95 Y-457.095 Z1.029
X-1334.012 Y-457.034 Z1.065
X-1334.069 Y-456.978 Z1.115
X-1334.12 Y-456.928 Z1.176
X-1334.164 Y-456.885 Z1.247
X-1334.199 Y-456.85 Z1.328
X-1334.224 Y-456.825 Z1.415
X-1334.24 Y-456.809 Z1.506
X-1334.245 Y-456.804 Z1.6
G0 Z30

(2D Contour2)
S8000 M3
M9
X-1335.9 Y-458.5
Z30
Z20
G1 Z1 F850
G3 X-1335.84 Y-458.08 I-0.18 J0.24
G1 X-1337.28 Y-456.16
G3 X-1337.7 Y-456.1 I-0.24 J-0.18
Y-460.9 I1.8 J-2.4
X-1332.9 Y-458.5 I1.8 J2.4
X-1337.7 Y-456.1 I-3
Y-460.9 I1.8 J-2.4
X-1332.9 Y-458.5 I1.8 J2.4
X-1337.7 Y-456.1 I-3
X-1337.82 Y-456.94 I0.36 J-0.48
G1 X-1337.46 Y-457.42
X-1337.404 Y-457.495 Z1.007
X-1337.349 Y-457.568 Z1.029
X-1337.297 Y-457.638 Z1.065
X-1337.248 Y-457.702 Z1.115
X-1337.205 Y-457.759 Z1.176
X-1337.169 Y-457.808 Z1.247
X-1337.139 Y-457.848 Z1.328
X-1337.118 Y-457.877 Z1.415
X-1337.104 Y-457.894 Z1.506
X-1337.1 Y-457.9 Z1.6
G0 Z30

(2D Adaptive2)
S6000 M3
M9
X-1335.379 Y-648.261
Z30
Z20
Z18.1
G1 Z17.5 F850
G3 X-1336.429 Y-652.739 Z17.248 I-0.525 J-2.239 F283.3
X-1334.831 Y-648.466 Z17.016 I0.525 J2.239
X-1338.202 Y-650.392 Z16.854 I-1.073 J-2.034
X-1335.026 Y-652.626 Z16.693 I2.297 J-0.108
X-1334.352 Y-648.802 Z16.532 I-0.878 J2.126
X-1337.456 Y-652.198 Z16.279 I-1.552 J-1.698
X-1335.591 Y-652.779 Z16.209 I1.552 J1.698
X-1336.217 Y-648.221 Z15.957 I-0.313 J2.279
X-1337.856 Y-649.284 Z15.886 I0.313 J-2.279
X-1336.176 Y-652.784 Z15.725 I1.952 J-1.216
X-1335.632 Y-648.216 Z15.472 I0.272 J2.284
X-1336.744 Y-652.641 Z15.241 I-0.272 J-2.284
X-1333.609 Y-650.351 Z15.079 I0.84 J2.141
X-1337.013 Y-648.485 Z14.918 I-2.295 J-0.149
X-1337.257 Y-652.36 Z14.756 I1.109 J-2.015
X-1333.646 Y-650.936 Z14.595 I1.353 J1.86
X-1336.469 Y-648.27 Z14.434 I-2.258 J0.436
X-1337.683 Y-651.958 Z14.272 I0.564 J-2.23
X-1333.829 Y-651.492 Z14.111 I1.779 J1.458
X-1335.887 Y-648.2 Z13.95 I-2.075 J0.992
X-1337.993 Y-651.462 Z13.788 I-0.017 J-2.3
X-1333.815 Y-649.538 Z13.536 I2.089 J0.962
X-1335.307 Y-648.279 Z13.465 I-2.089 J-0.962
X-1338.168 Y-650.903 Z13.304 I-0.597 J-2.221
X-1333.64 Y-650.097 Z13.052 I2.264 J0.403
X-1334.766 Y-648.501 Z12.981 I-2.264 J-0.403
X-1338.197 Y-650.318 Z12.82 I-1.138 J-1.999
X-1335.095 Y-652.653 Z12.658 I2.293 J-0.182
X-1334.298 Y-648.853 Z12.497 I-0.809 J2.153
X-1338.077 Y-649.745 Z12.336 I-1.606 J-1.647
X-1335.665 Y-652.788 Z12.174 I2.173 J-0.755
X-1336.143 Y-648.212 Z11.922 I-0.239 J2.288
X-1337.816 Y-649.221 Z11.852 I0.239 J-2.288
X-1336.25 Y-652.774 Z11.69 I1.912 J-1.279
X-1335.558 Y-648.226 Z11.438 I0.346 J2.274
X-1337.431 Y-648.78 Z11.367 I-0.346 J-2.274
X-1336.813 Y-652.613 Z11.206 I1.527 J-1.72
X-1333.605 Y-650.426 Z11.045 I0.909 J2.113
X-1336.947 Y-648.45 Z10.883 I-2.299 J-0.074
X-1337.317 Y-652.315 Z10.722 I1.043 J-2.05
X-1333.661 Y-651.008 Z10.56 I1.413 J1.815
X-1336.396 Y-648.253 Z10.399 I-2.243 J0.508
X-1337.729 Y-651.9 Z10.238 I0.492 J-2.247
X-1333.862 Y-651.558 Z10.076 I1.825 J1.4
X-1335.813 Y-648.202 Z9.915 I-2.042 J1.058
X-1338.023 Y-651.393 Z9.754 I-0.091 J-2.298
X-1334.195 Y-652.039 Z9.592 I2.119 J0.893
X-1337.613 Y-648.961 Z9.34 I-1.709 J1.539
X-1338.18 Y-650.83 Z9.269 I1.709 J-1.539
X-1334.639 Y-652.421 Z9.108 I2.276 J0.33
X-1334.702 Y-648.539 Z8.947 I-1.265 J1.921
X-1338.19 Y-650.244 Z8.785 I-1.202 J-1.961
X-1335.165 Y-652.678 Z8.624 I2.286 J-0.256
X-1334.246 Y-648.906 Z8.462 I-0.739 J2.178
X-1338.051 Y-649.675 Z8.301 I-1.658 J-1.594
X-1335.739 Y-652.794 Z8.14 I2.147 J-0.825
X-1336.069 Y-648.206 Z7.887 I-0.165 J2.294
X-1337.773 Y-649.16 Z7.817 I0.165 J-2.294
X-1336.323 Y-652.761 Z7.656 I1.869 J-1.34
X-1333.678 Y-649.919 Z7.494 I0.419 J2.261
X-1337.375 Y-648.732 Z7.333 I-2.226 J-0.581
X-1336.881 Y-652.582 Z7.171 I1.471 J-1.768
X-1333.604 Y-650.5 Z7.01 I0.977 J2.082
X-1338.204 I-2.3
X-1335.904 Y-652.8 I2.3
X-1333.684 Y-651.102 J2.3
X-1333.604 Y-650.5 I-2.22 J0.602
G1 X-1333.601 Y-650.294 F850
X-1333.594 Y-650.247
X-1333.578 Y-649.967
X-1333.609 Y-649.689
X-1333.687 Y-649.42
X-1333.697 Y-649.394
X-1333.723 Y-649.34
X-1333.756 Y-649.285
X-1333.906 Y-649.068
X-1334.031 Y-648.889
X-1334.065 Y-648.85
X-1334.249 Y-648.685
X-1334.467 Y-648.495
X-1334.596 Y-648.415
X-1334.902 Y-648.254
X-1335.016 Y-648.197
X-1335.12 Y-648.164
X-1335.555 Y-648.057
X-1335.664 Y-648.044
X-1335.99
X-1336.208 Y-648.049
X-1336.425 Y-648.099
X-1336.643 Y-648.152
X-1336.795 Y-648.197
X-1336.861 Y-648.229
X-1337.214 Y-648.415
X-1337.296 Y-648.461
X-1337.514 Y-648.643
X-1337.731 Y-648.838
X-1337.743 Y-648.85
X-1337.904 Y-649.068
X-1338.054 Y-649.285
X-1338.087 Y-649.34
X-1338.113 Y-649.394
X-1338.167 Y-649.534
X-1338.237 Y-649.721
X-1338.307 Y-649.938
X-1338.335 Y-650.156
X-1338.361 Y-650.373
X-1338.37 Y-650.482
X-1338.365 Y-650.591
X-1338.313 Y-651.026
X-1338.29 Y-651.135
X-1338.25 Y-651.244
X-1338.167 Y-651.466
X-1338.076 Y-651.679
X-1337.929 Y-651.897
X-1337.775 Y-652.114
X-1337.731 Y-652.163
X-1337.514 Y-652.357
X-1337.296 Y-652.539
X-1337.28 Y-652.55
X-1337.078 Y-652.657
X-1336.861 Y-652.771
X-1336.752 Y-652.819
X-1336.643 Y-652.848
X-1336.425 Y-652.901
X-1336.208 Y-652.951
X-1335.99 Y-652.956
X-1335.664
X-1335.555 Y-652.943
X-1335.12 Y-652.836
X-1335.031 Y-652.809
X-1334.942 Y-652.767
X-1334.684 Y-652.632
X-1334.531 Y-652.55
X-1334.467 Y-652.505
X-1334.249 Y-652.315
X-1334.035 Y-652.114
X-1333.881 Y-651.897
X-1333.814 Y-651.799
X-1333.734 Y-651.679
X-1333.642 Y-651.461
X-1333.56 Y-651.244
X-1333.52 Y-651.135
X-1333.494 Y-651.026
X-1333.439 Y-650.591
X-1333.433 Y-650.482
X-1333.443 Y-650.373
X-1333.471 Y-650.156
X-1333.5 Y-649.938
X-1333.573 Y-649.721
X-1333.687 Y-649.42
X-1333.717 Y-649.374 Z7.017
X-1333.746 Y-649.33 Z7.036
X-1333.771 Y-649.292 Z7.067
X-1333.791 Y-649.261 Z7.108
X-1333.806 Y-649.238 Z7.157
X-1333.815 Y-649.229 Z7.2
X-1333.818 Y-649.226 Z7.246
G0 Z20
X-1334.403 Y-648.757
Z10.11
G1 Z9.51 F850
G3 X-1338.113 Y-649.859 Z9.349 I-1.501 J-1.743 F283.3
X-1335.57 Y-652.776 Z9.189 I2.209 J-0.641
X-1333.973 Y-649.251 Z9.028 I-0.334 J2.276
X-1337.843 Y-649.262 Z8.868 I-1.931 J-1.249
X-1336.225 Y-652.778 Z8.707 I1.938 J-1.238
X-1335.583 Y-648.222 Z8.455 I0.321 J2.278
X-1337.415 Y-648.766 Z8.386 I-0.321 J-2.278
X-1336.854 Y-652.595 Z8.225 I1.511 J-1.734
X-1333.604 Y-650.494 Z8.065 I0.95 J2.095
X-1336.865 Y-648.41 Z7.904 I-2.3 J-0.006
X-1337.406 Y-652.242 Z7.744 I0.961 J-2.09
X-1333.696 Y-651.143 Z7.583 I1.502 J1.742
X-1336.237 Y-648.224 Z7.423 I-2.208 J0.642
X-1337.836 Y-651.748 Z7.262 I0.333 J-2.276
X-1333.966 Y-651.739 Z7.102 I1.932 J1.248
X-1335.582 Y-648.223 Z6.941 I-1.938 J1.239
X-1338.109 Y-651.153 Z6.78 I-0.322 J-2.277
X-1334.394 Y-652.235 Z6.62 I2.205 J0.653
X-1334.953 Y-648.406 Z6.459 I-1.51 J1.735
X-1338.204 Y-650.505 Z6.299 I-0.951 J-2.094
X-1334.944 Y-652.59 Z6.138 I2.3 J0.005
X-1336.864 Y-648.41 Z5.886 I-0.96 J2.09
X-1338.112 Y-649.856 Z5.817 I0.96 J-2.09
X-1335.573 Y-652.776 Z5.656 I2.208 J-0.644
X-1333.971 Y-649.253 Z5.496 I-0.331 J2.276
X-1337.841 Y-649.26 Z5.335 I-1.933 J-1.247
X-1336.228 Y-652.777 Z5.175 I1.937 J-1.24
X-1333.698 Y-649.849 Z5.014 I0.324 J2.277
X-1337.413 Y-648.764 Z4.854 I-2.206 J-0.651
X-1336.857 Y-652.593 Z4.693 I1.509 J-1.736
X-1333.604 Y-650.497 Z4.532 I0.953 J2.093
X-1338.204 Y-650.503 Z4.28 I-2.3 J-0.003
X-1337.408 Y-652.24 Z4.211 I2.3 J0.003
X-1333.696 Y-651.145 Z4.051 I1.504 J1.74
X-1336.234 Y-648.224 Z3.89 I-2.208 J0.645
X-1337.838 Y-651.745 Z3.73 I0.33 J-2.276
X-1333.968 Y-651.742 Z3.569 I1.934 J1.245
X-1335.579 Y-648.223 Z3.408 I-1.936 J1.242
X-1336.229 Y-652.777 Z3.156 I-0.325 J-2.277
X-1334.95 Y-648.407 Z2.927 I0.325 J2.277
X-1338.204 Y-650.502 Z2.766 I-0.954 J-2.093
X-1334.947 Y-652.592 Z2.606 I2.3 J0.002
X-1336.861 Y-648.408 Z2.353 I-0.957 J2.092
X-1334.947 Y-652.592 Z2.101 I0.957 J-2.092
X-1333.97 Y-649.256 Z1.963 I-0.957 J2.092
X-1337.839 Y-649.257 Z1.803 I-1.934 J-1.244
X-1333.969 Y-651.743 Z1.551 I1.935 J-1.243
X-1333.697 Y-649.852 Z1.482 I-1.935 J1.243
X-1337.41 Y-648.762 Z1.321 I-2.207 J-0.648
X-1334.398 Y-652.238 Z1.069 I1.506 J-1.738
X-1333.604 Y-650.5 Z1 I-1.506 J1.738
X-1338.204 I-2.3
X-1335.904 Y-652.8 I2.3
X-1333.684 Y-651.102 J2.3
X-1333.604 Y-650.5 I-2.22 J0.602
G1 X-1333.601 Y-650.294 F850
X-1333.594 Y-650.247
X-1333.578 Y-649.967
X-1333.609 Y-649.689
X-1333.687 Y-649.42
X-1333.697 Y-649.394
X-1333.723 Y-649.34
X-1333.756 Y-649.285
X-1333.906 Y-649.068
X-1334.031 Y-648.889
X-1334.065 Y-648.85
X-1334.249 Y-648.685
X-1334.467 Y-648.495
X-1334.596 Y-648.415
X-1334.902 Y-648.254
X-1335.016 Y-648.197
X-1335.12 Y-648.164
X-1335.555 Y-648.057
X-1335.664 Y-648.044
X-1335.99
X-1336.208 Y-648.049
X-1336.425 Y-648.099
X-1336.643 Y-648.152
X-1336.795 Y-648.197
X-1336.861 Y-648.229
X-1337.214 Y-648.415
X-1337.296 Y-648.461
X-1337.514 Y-648.643
X-1337.731 Y-648.838
X-1337.743 Y-648.85
X-1337.904 Y-649.068
X-1338.054 Y-649.285
X-1338.087 Y-649.34
X-1338.113 Y-649.394
X-1338.167 Y-649.534
X-1338.237 Y-649.721
X-1338.307 Y-649.938
X-1338.335 Y-650.156
X-1338.361 Y-650.373
X-1338.37 Y-650.482
X-1338.365 Y-650.591
X-1338.313 Y-651.026
X-1338.29 Y-651.135
X-1338.25 Y-651.244
X-1338.167 Y-651.466
X-1338.076 Y-651.679
X-1337.929 Y-651.897
X-1337.775 Y-652.114
X-1337.731 Y-652.163
X-1337.514 Y-652.357
X-1337.296 Y-652.539
X-1337.28 Y-652.55
X-1337.078 Y-652.657
X-1336.861 Y-652.771
X-1336.752 Y-652.819
X-1336.643 Y-652.848
X-1336.425 Y-652.901
X-1336.208 Y-652.951
X-1335.99 Y-652.956
X-1335.664
X-1335.555 Y-652.943
X-1335.12 Y-652.836
X-1335.031 Y-652.809
X-1334.942 Y-652.767
X-1334.684 Y-652.632
X-1334.531 Y-652.55
X-1334.467 Y-652.505
X-1334.249 Y-652.315
X-1334.035 Y-652.114
X-1333.881 Y-651.897
X-1333.814 Y-651.799
X-1333.734 Y-651.679
X-1333.642 Y-651.461
X-1333.56 Y-651.244
X-1333.52 Y-651.135
X-1333.494 Y-651.026
X-1333.439 Y-650.591
X-1333.433 Y-650.482
X-1333.443 Y-650.373
X-1333.471 Y-650.156
X-1333.5 Y-649.938
X-1333.573 Y-649.721
X-1333.687 Y-649.42
G3 X-1333.818 Y-649.226 I-0.553 J-0.233
G1 X-1333.885 Y-649.16 Z1.007
X-1333.95 Y-649.095 Z1.029
X-1334.012 Y-649.034 Z1.065
X-1334.069 Y-648.978 Z1.115
X-1334.12 Y-648.928 Z1.176
X-1334.164 Y-648.885 Z1.247
X-1334.199 Y-648.85 Z1.328
X-1334.224 Y-648.825 Z1.415
X-1334.24 Y-648.809 Z1.506
X-1334.245 Y-648.804 Z1.6
G0 Z30

(2D Contour2)
S8000 M3
M9
X-1335.9 Y-650.5
Z30
Z20
G1 Z1 F850
G3 X-1335.84 Y-650.08 I-0.18 J0.24
G1 X-1337.28 Y-648.16
G3 X-1337.7 Y-648.1 I-0.24 J-0.18
Y-652.9 I1.8 J-2.4
X-1332.9 Y-650.5 I1.8 J2.4
X-1337.7 Y-648.1 I-3
Y-652.9 I1.8 J-2.4
X-1332.9 Y-650.5 I1.8 J2.4
X-1337.7 Y-648.1 I-3
X-1337.82 Y-648.94 I0.36 J-0.48
G1 X-1337.46 Y-649.42
X-1337.404 Y-649.495 Z1.007
X-1337.349 Y-649.568 Z1.029
X-1337.297 Y-649.638 Z1.065
X-1337.248 Y-649.702 Z1.115
X-1337.205 Y-649.759 Z1.176
X-1337.169 Y-649.808 Z1.247
X-1337.139 Y-649.848 Z1.328
X-1337.118 Y-649.877 Z1.415
X-1337.104 Y-649.894 Z1.506
X-1337.1 Y-649.9 Z1.6
G0 Z30

(2D Adaptive2)
S6000 M3
M9
X-937.379 Y-648.261
Z30
Z20
Z18.1
G1 Z17.5 F850
G3 X-938.429 Y-652.739 Z17.248 I-0.525 J-2.239 F283.3
X-936.831 Y-648.466 Z17.016 I0.525 J2.239
X-940.202 Y-650.392 Z16.854 I-1.073 J-2.034
X-937.026 Y-652.626 Z16.693 I2.297 J-0.108
X-936.352 Y-648.802 Z16.532 I-0.878 J2.126
X-939.456 Y-652.198 Z16.279 I-1.552 J-1.698
X-937.591 Y-652.779 Z16.209 I1.552 J1.698
X-938.217 Y-648.221 Z15.957 I-0.313 J2.279
X-939.856 Y-649.284 Z15.886 I0.313 J-2.279
X-938.176 Y-652.784 Z15.725 I1.952 J-1.216
X-937.632 Y-648.216 Z15.472 I0.272 J2.284
X-938.744 Y-652.641 Z15.241 I-0.272 J-2.284
X-935.609 Y-650.351 Z15.079 I0.84 J2.141
X-939.013 Y-648.485 Z14.918 I-2.295 J-0.149
X-939.257 Y-652.36 Z14.756 I1.109 J-2.015
X-935.646 Y-650.936 Z14.595 I1.353 J1.86
X-938.469 Y-648.27 Z14.434 I-2.258 J0.436
X-939.683 Y-651.958 Z14.272 I0.564 J-2.23
X-935.829 Y-651.492 Z14.111 I1.779 J1.458
X-937.887 Y-648.2 Z13.95 I-2.075 J0.992
X-939.993 Y-651.462 Z13.788 I-0.017 J-2.3
X-935.815 Y-649.538 Z13.536 I2.089 J0.962
X-937.307 Y-648.279 Z13.465 I-2.089 J-0.962
X-940.168 Y-650.903 Z13.304 I-0.597 J-2.221
X-935.64 Y-650.097 Z13.052 I2.264 J0.403
X-936.766 Y-648.501 Z12.981 I-2.264 J-0.403
X-940.197 Y-650.318 Z12.82 I-1.138 J-1.999
X-937.095 Y-652.653 Z12.658 I2.293 J-0.182
X-936.298 Y-648.853 Z12.497 I-0.809 J2.153
X-940.077 Y-649.745 Z12.336 I-1.606 J-1.647
X-937.665 Y-652.788 Z12.174 I2.173 J-0.755
X-938.143 Y-648.212 Z11.922 I-0.239 J2.288
X-939.816 Y-649.221 Z11.852 I0.239 J-2.288
X-938.25 Y-652.774 Z11.69 I1.912 J-1.279
X-937.558 Y-648.226 Z11.438 I0.346 J2.274
X-939.431 Y-648.78 Z11.367 I-0.346 J-2.274
X-938.813 Y-652.613 Z11.206 I1.527 J-1.72
X-935.605 Y-650.426 Z11.045 I0.909 J2.113
X-938.947 Y-648.45 Z10.883 I-2.299 J-0.074
X-939.317 Y-652.315 Z10.722 I1.043 J-2.05
X-935.661 Y-651.008 Z10.56 I1.413 J1.815
X-938.396 Y-648.253 Z10.399 I-2.243 J0.508
X-939.729 Y-651.9 Z10.238 I0.492 J-2.247
X-935.862 Y-651.558 Z10.076 I1.825 J1.4
X-937.813 Y-648.202 Z9.915 I-2.042 J1.058
X-940.023 Y-651.393 Z9.754 I-0.091 J-2.298
X-936.195 Y-652.039 Z9.592 I2.119 J0.893
X-939.613 Y-648.961 Z9.34 I-1.709 J1.539
X-940.18 Y-650.83 Z9.269 I1.709 J-1.539
X-936.639 Y-652.421 Z9.108 I2.276 J0.33
X-936.702 Y-648.539 Z8.947 I-1.265 J1.921
X-940.19 Y-650.244 Z8.785 I-1.202 J-1.961
X-937.165 Y-652.678 Z8.624 I2.286 J-0.256
X-936.246 Y-648.906 Z8.462 I-0.739 J2.178
X-940.051 Y-649.675 Z8.301 I-1.658 J-1.594
X-937.739 Y-652.794 Z8.14 I2.147 J-0.825
X-938.069 Y-648.206 Z7.887 I-0.165 J2.294
X-939.773 Y-649.16 Z7.817 I0.165 J-2.294
X-938.323 Y-652.761 Z7.656 I1.869 J-1.34
X-935.678 Y-649.919 Z7.494 I0.419 J2.261
X-939.375 Y-648.732 Z7.333 I-2.226 J-0.581
X-938.881 Y-652.582 Z7.171 I1.471 J-1.768
X-935.604 Y-650.5 Z7.01 I0.977 J2.082
X-940.204 I-2.3
X-937.904 Y-652.8 I2.3
X-935.684 Y-651.102 J2.3
X-935.604 Y-650.5 I-2.22 J0.602
G1 X-935.601 Y-650.294 F850
X-935.594 Y-650.247
X-935.578 Y-649.967
X-935.609 Y-649.689
X-935.687 Y-649.42
X-935.697 Y-649.394
X-935.723 Y-649.34
X-935.756 Y-649.285
X-935.906 Y-649.068
X-936.031 Y-648.889
X-936.065 Y-648.85
X-936.249 Y-648.685
X-936.467 Y-648.495
X-936.596 Y-648.415
X-936.902 Y-648.254
X-937.016 Y-648.197
X-937.12 Y-648.164
X-937.555 Y-648.057
X-937.664 Y-648.044
X-937.99
X-938.208 Y-648.049
X-938.425 Y-648.099
X-938.643 Y-648.152
X-938.795 Y-648.197
X-938.861 Y-648.229
X-939.214 Y-648.415
X-939.296 Y-648.461
X-939.514 Y-648.643
X-939.731 Y-648.838
X-939.743 Y-648.85
X-939.904 Y-649.068
X-940.054 Y-649.285
X-940.087 Y-649.34
X-940.113 Y-649.394
X-940.167 Y-649.534
X-940.237 Y-649.721
X-940.307 Y-649.938
X-940.335 Y-650.156
X-940.361 Y-650.373
X-940.37 Y-650.482
X-940.365 Y-650.591
X-940.313 Y-651.026
X-940.29 Y-651.135
X-940.25 Y-651.244
X-940.167 Y-651.466
X-940.076 Y-651.679
X-939.929 Y-651.897
X-939.775 Y-652.114
X-939.731 Y-652.163
X-939.514 Y-652.357
X-939.296 Y-652.539
X-939.28 Y-652.55
X-939.078 Y-652.657
X-938.861 Y-652.771
X-938.752 Y-652.819
X-938.643 Y-652.848
X-938.425 Y-652.901
X-938.208 Y-652.951
X-937.99 Y-652.956
X-937.664
X-937.555 Y-652.943
X-937.12 Y-652.836
X-937.031 Y-652.809
X-936.942 Y-652.767
X-936.684 Y-652.632
X-936.531 Y-652.55
X-936.467 Y-652.505
X-936.249 Y-652.315
X-936.035 Y-652.114
X-935.881 Y-651.897
X-935.814 Y-651.799
X-935.734 Y-651.679
X-935.642 Y-651.461
X-935.56 Y-651.244
X-935.52 Y-651.135
X-935.494 Y-651.026
X-935.439 Y-650.591
X-935.433 Y-650.482
X-935.443 Y-650.373
X-935.471 Y-650.156
X-935.5 Y-649.938
X-935.573 Y-649.721
X-935.687 Y-649.42
X-935.717 Y-649.374 Z7.017
X-935.746 Y-649.33 Z7.036
X-935.771 Y-649.292 Z7.067
X-935.791 Y-649.261 Z7.108
X-935.806 Y-649.238 Z7.157
X-935.815 Y-649.229 Z7.2
X-935.818 Y-649.226 Z7.246
G0 Z20
X-936.403 Y-648.757
Z10.11
G1 Z9.51 F850
G3 X-940.113 Y-649.859 Z9.349 I-1.501 J-1.743 F283.3
X-937.57 Y-652.776 Z9.189 I2.209 J-0.641
X-935.973 Y-649.251 Z9.028 I-0.334 J2.276
X-939.843 Y-649.262 Z8.868 I-1.931 J-1.249
X-938.225 Y-652.778 Z8.707 I1.938 J-1.238
X-937.583 Y-648.222 Z8.455 I0.321 J2.278
X-939.415 Y-648.766 Z8.386 I-0.321 J-2.278
X-938.854 Y-652.595 Z8.225 I1.511 J-1.734
X-935.604 Y-650.494 Z8.065 I0.95 J2.095
X-938.865 Y-648.41 Z7.904 I-2.3 J-0.006
X-939.406 Y-652.242 Z7.744 I0.961 J-2.09
X-935.696 Y-651.143 Z7.583 I1.502 J1.742
X-938.237 Y-648.224 Z7.423 I-2.208 J0.642
X-939.836 Y-651.748 Z7.262 I0.333 J-2.276
X-935.966 Y-651.739 Z7.102 I1.932 J1.248
X-937.582 Y-648.223 Z6.941 I-1.938 J1.239
X-940.109 Y-651.153 Z6.78 I-0.322 J-2.277
X-936.394 Y-652.235 Z6.62 I2.205 J0.653
X-936.953 Y-648.406 Z6.459 I-1.51 J1.735
X-940.204 Y-650.505 Z6.299 I-0.951 J-2.094
X-936.944 Y-652.59 Z6.138 I2.3 J0.005
X-938.864 Y-648.41 Z5.886 I-0.96 J2.09
X-940.112 Y-649.856 Z5.817 I0.96 J-2.09
X-937.573 Y-652.776 Z5.656 I2.208 J-0.644
X-935.971 Y-649.253 Z5.496 I-0.331 J2.276
X-939.841 Y-649.26 Z5.335 I-1.933 J-1.247
X-938.228 Y-652.777 Z5.175 I1.937 J-1.24
X-935.698 Y-649.849 Z5.014 I0.324 J2.277
X-939.413 Y-648.764 Z4.854 I-2.206 J-0.651
X-938.857 Y-652.593 Z4.693 I1.509 J-1.736
X-935.604 Y-650.497 Z4.532 I0.953 J2.093
X-940.204 Y-650.503 Z4.28 I-2.3 J-0.003
X-939.408 Y-652.24 Z4.211 I2.3 J0.003
X-935.696 Y-651.145 Z4.051 I1.504 J1.74
X-938.234 Y-648.224 Z3.89 I-2.208 J0.645
X-939.838 Y-651.745 Z3.73 I0.33 J-2.276
X-935.968 Y-651.742 Z3.569 I1.934 J1.245
X-937.579 Y-648.223 Z3.408 I-1.936 J1.242
X-938.229 Y-652.777 Z3.156 I-0.325 J-2.277
X-936.95 Y-648.407 Z2.927 I0.325 J2.277
X-940.204 Y-650.502 Z2.766 I-0.954 J-2.093
X-936.947 Y-652.592 Z2.606 I2.3 J0.002
X-938.861 Y-648.408 Z2.353 I-0.957 J2.092
X-936.947 Y-652.592 Z2.101 I0.957 J-2.092
X-935.97 Y-649.256 Z1.963 I-0.957 J2.092
X-939.839 Y-649.257 Z1.803 I-1.934 J-1.244
X-935.969 Y-651.743 Z1.551 I1.935 J-1.243
X-935.697 Y-649.852 Z1.482 I-1.935 J1.243
X-939.41 Y-648.762 Z1.321 I-2.207 J-0.648
X-936.398 Y-652.238 Z1.069 I1.506 J-1.738
X-935.604 Y-650.5 Z1 I-1.506 J1.738
X-940.204 I-2.3
X-937.904 Y-652.8 I2.3
X-935.684 Y-651.102 J2.3
X-935.604 Y-650.5 I-2.22 J0.602
G1 X-935.601 Y-650.294 F850
X-935.594 Y-650.247
X-935.578 Y-649.967
X-935.609 Y-649.689
X-935.687 Y-649.42
X-935.697 Y-649.394
X-935.723 Y-649.34
X-935.756 Y-649.285
X-935.906 Y-649.068
X-936.031 Y-648.889
X-936.065 Y-648.85
X-936.249 Y-648.685
X-936.467 Y-648.495
X-936.596 Y-648.415
X-936.902 Y-648.254
X-937.016 Y-648.197
X-937.12 Y-648.164
X-937.555 Y-648.057
X-937.664 Y-648.044
X-937.99
X-938.208 Y-648.049
X-938.425 Y-648.099
X-938.643 Y-648.152
X-938.795 Y-648.197
X-938.861 Y-648.229
X-939.214 Y-648.415
X-939.296 Y-648.461
X-939.514 Y-648.643
X-939.731 Y-648.838
X-939.743 Y-648.85
X-939.904 Y-649.068
X-940.054 Y-649.285
X-940.087 Y-649.34
X-940.113 Y-649.394
X-940.167 Y-649.534
X-940.237 Y-649.721
X-940.307 Y-649.938
X-940.335 Y-650.156
X-940.361 Y-650.373
X-940.37 Y-650.482
X-940.365 Y-650.591
X-940.313 Y-651.026
X-940.29 Y-651.135
X-940.25 Y-651.244
X-940.167 Y-651.466
X-940.076 Y-651.679
X-939.929 Y-651.897
X-939.775 Y-652.114
X-939.731 Y-652.163
X-939.514 Y-652.357
X-939.296 Y-652.539
X-939.28 Y-652.55
X-939.078 Y-652.657
X-938.861 Y-652.771
X-938.752 Y-652.819
X-938.643 Y-652.848
X-938.425 Y-652.901
X-938.208 Y-652.951
X-937.99 Y-652.956
X-937.664
X-937.555 Y-652.943
X-937.12 Y-652.836
X-937.031 Y-652.809
X-936.942 Y-652.767
X-936.684 Y-652.632
X-936.531 Y-652.55
X-936.467 Y-652.505
X-936.249 Y-652.315
X-936.035 Y-652.114
X-935.881 Y-651.897
X-935.814 Y-651.799
X-935.734 Y-651.679
X-935.642 Y-651.461
X-935.56 Y-651.244
X-935.52 Y-651.135
X-935.494 Y-651.026
X-935.439 Y-650.591
X-935.433 Y-650.482
X-935.443 Y-650.373
X-935.471 Y-650.156
X-935.5 Y-649.938
X-935.573 Y-649.721
X-935.687 Y-649.42
G3 X-935.818 Y-649.226 I-0.553 J-0.233
G1 X-935.885 Y-649.16 Z1.007
X-935.95 Y-649.095 Z1.029
X-936.012 Y-649.034 Z1.065
X-936.069 Y-648.978 Z1.115
X-936.12 Y-648.928 Z1.176
X-936.164 Y-648.885 Z1.247
X-936.199 Y-648.85 Z1.328
X-936.224 Y-648.825 Z1.415
X-936.24 Y-648.809 Z1.506
X-936.245 Y-648.804 Z1.6
G0 Z30

(2D Contour2)
S8000 M3
M9
X-937.9 Y-650.5
Z30
Z20
G1 Z1 F850
G3 X-937.84 Y-650.08 I-0.18 J0.24
G1 X-939.28 Y-648.16
G3 X-939.7 Y-648.1 I-0.24 J-0.18
Y-652.9 I1.8 J-2.4
X-934.9 Y-650.5 I1.8 J2.4
X-939.7 Y-648.1 I-3
Y-652.9 I1.8 J-2.4
X-934.9 Y-650.5 I1.8 J2.4
X-939.7 Y-648.1 I-3
X-939.82 Y-648.94 I0.36 J-0.48
G1 X-939.46 Y-649.42
X-939.404 Y-649.495 Z1.007
X-939.349 Y-649.568 Z1.029
X-939.297 Y-649.638 Z1.065
X-939.248 Y-649.702 Z1.115
X-939.205 Y-649.759 Z1.176
X-939.169 Y-649.808 Z1.247
X-939.139 Y-649.848 Z1.328
X-939.118 Y-649.877 Z1.415
X-939.104 Y-649.894 Z1.506
X-939.1 Y-649.9 Z1.6
G0 Z30

(2D Adaptive2)
S6000 M3
M9
X-937.379 Y-456.261
Z30
Z20
Z18.1
G1 Z17.5 F850
G3 X-938.429 Y-460.739 Z17.248 I-0.525 J-2.239 F283.3
X-936.831 Y-456.466 Z17.016 I0.525 J2.239
X-940.202 Y-458.392 Z16.854 I-1.073 J-2.034
X-937.026 Y-460.626 Z16.693 I2.297 J-0.108
X-936.352 Y-456.802 Z16.532 I-0.878 J2.126
X-939.456 Y-460.198 Z16.279 I-1.552 J-1.698
X-937.591 Y-460.779 Z16.209 I1.552 J1.698
X-938.217 Y-456.221 Z15.957 I-0.313 J2.279
X-939.856 Y-457.284 Z15.886 I0.313 J-2.279
X-938.176 Y-460.784 Z15.725 I1.952 J-1.216
X-937.632 Y-456.216 Z15.472 I0.272 J2.284
X-938.744 Y-460.641 Z15.241 I-0.272 J-2.284
X-935.609 Y-458.351 Z15.079 I0.84 J2.141
X-939.013 Y-456.485 Z14.918 I-2.295 J-0.149
X-939.257 Y-460.36 Z14.756 I1.109 J-2.015
X-935.646 Y-458.936 Z14.595 I1.353 J1.86
X-938.469 Y-456.27 Z14.434 I-2.258 J0.436
X-939.683 Y-459.958 Z14.272 I0.564 J-2.23
X-935.829 Y-459.492 Z14.111 I1.779 J1.458
X-937.887 Y-456.2 Z13.95 I-2.075 J0.992
X-939.993 Y-459.462 Z13.788 I-0.017 J-2.3
X-935.815 Y-457.538 Z13.536 I2.089 J0.962
X-937.307 Y-456.279 Z13.465 I-2.089 J-0.962
X-940.168 Y-458.903 Z13.304 I-0.597 J-2.221
X-935.64 Y-458.097 Z13.052 I2.264 J0.403
X-936.766 Y-456.501 Z12.981 I-2.264 J-0.403
X-940.197 Y-458.318 Z12.82 I-1.138 J-1.999
X-937.095 Y-460.653 Z12.658 I2.293 J-0.182
X-936.298 Y-456.853 Z12.497 I-0.809 J2.153
X-940.077 Y-457.745 Z12.336 I-1.606 J-1.647
X-937.665 Y-460.788 Z12.174 I2.173 J-0.755
X-938.143 Y-456.212 Z11.922 I-0.239 J2.288
X-939.816 Y-457.221 Z11.852 I0.239 J-2.288
X-938.25 Y-460.774 Z11.69 I1.912 J-1.279
X-937.558 Y-456.226 Z11.438 I0.346 J2.274
X-939.431 Y-456.78 Z11.367 I-0.346 J-2.274
X-938.813 Y-460.613 Z11.206 I1.527 J-1.72
X-935.605 Y-458.426 Z11.045 I0.909 J2.113
X-938.947 Y-456.45 Z10.883 I-2.299 J-0.074
X-939.317 Y-460.315 Z10.722 I1.043 J-2.05
X-935.661 Y-459.008 Z10.56 I1.413 J1.815
X-938.396 Y-456.253 Z10.399 I-2.243 J0.508
X-939.729 Y-459.9 Z10.238 I0.492 J-2.247
X-935.862 Y-459.558 Z10.076 I1.825 J1.4
X-937.813 Y-456.202 Z9.915 I-2.042 J1.058
X-940.023 Y-459.393 Z9.754 I-0.091 J-2.298
X-936.195 Y-460.039 Z9.592 I2.119 J0.893
X-939.613 Y-456.961 Z9.34 I-1.709 J1.539
X-940.18 Y-458.83 Z9.269 I1.709 J-1.539
X-936.639 Y-460.421 Z9.108 I2.276 J0.33
X-936.702 Y-456.539 Z8.947 I-1.265 J1.921
X-940.19 Y-458.244 Z8.785 I-1.202 J-1.961
X-937.165 Y-460.678 Z8.624 I2.286 J-0.256
X-936.246 Y-456.906 Z8.462 I-0.739 J2.178
X-940.051 Y-457.675 Z8.301 I-1.658 J-1.594
X-937.739 Y-460.794 Z8.14 I2.147 J-0.825
X-938.069 Y-456.206 Z7.887 I-0.165 J2.294
X-939.773 Y-457.16 Z7.817 I0.165 J-2.294
X-938.323 Y-460.761 Z7.656 I1.869 J-1.34
X-935.678 Y-457.919 Z7.494 I0.419 J2.261
X-939.375 Y-456.732 Z7.333 I-2.226 J-0.581
X-938.881 Y-460.582 Z7.171 I1.471 J-1.768
X-935.604 Y-458.5 Z7.01 I0.977 J2.082
X-940.204 I-2.3
X-937.904 Y-460.8 I2.3
X-935.684 Y-459.102 J2.3
X-935.604 Y-458.5 I-2.22 J0.602
G1 X-935.601 Y-458.294 F850
X-935.594 Y-458.247
X-935.578 Y-457.967
X-935.609 Y-457.689
X-935.687 Y-457.42
X-935.697 Y-457.394
X-935.723 Y-457.34
X-935.756 Y-457.285
X-935.906 Y-457.068
X-936.031 Y-456.889
X-936.065 Y-456.85
X-936.249 Y-456.685
X-936.467 Y-456.495
X-936.596 Y-456.415
X-936.902 Y-456.254
X-937.016 Y-456.197
X-937.12 Y-456.164
X-937.555 Y-456.057
X-937.664 Y-456.044
X-937.99
X-938.208 Y-456.049
X-938.425 Y-456.099
X-938.643 Y-456.152
X-938.795 Y-456.197
X-938.861 Y-456.229
X-939.214 Y-456.415
X-939.296 Y-456.461
X-939.514 Y-456.643
X-939.731 Y-456.838
X-939.743 Y-456.85
X-939.904 Y-457.068
X-940.054 Y-457.285
X-940.087 Y-457.34
X-940.113 Y-457.394
X-940.167 Y-457.534
X-940.237 Y-457.721
X-940.307 Y-457.938
X-940.335 Y-458.156
X-940.361 Y-458.373
X-940.37 Y-458.482
X-940.365 Y-458.591
X-940.313 Y-459.026
X-940.29 Y-459.135
X-940.25 Y-459.244
X-940.167 Y-459.466
X-940.076 Y-459.679
X-939.929 Y-459.897
X-939.775 Y-460.114
X-939.731 Y-460.163
X-939.514 Y-460.357
X-939.296 Y-460.539
X-939.28 Y-460.55
X-939.078 Y-460.657
X-938.861 Y-460.771
X-938.752 Y-460.819
X-938.643 Y-460.848
X-938.425 Y-460.901
X-938.208 Y-460.951
X-937.99 Y-460.956
X-937.664
X-937.555 Y-460.943
X-937.12 Y-460.836
X-937.031 Y-460.809
X-936.942 Y-460.767
X-936.684 Y-460.632
X-936.531 Y-460.55
X-936.467 Y-460.505
X-936.249 Y-460.315
X-936.035 Y-460.114
X-935.881 Y-459.897
X-935.814 Y-459.799
X-935.734 Y-459.679
X-935.642 Y-459.461
X-935.56 Y-459.244
X-935.52 Y-459.135
X-935.494 Y-459.026
X-935.439 Y-458.591
X-935.433 Y-458.482
X-935.443 Y-458.373
X-935.471 Y-458.156
X-935.5 Y-457.938
X-935.573 Y-457.721
X-935.687 Y-457.42
X-935.717 Y-457.374 Z7.017
X-935.746 Y-457.33 Z7.036
X-935.771 Y-457.292 Z7.067
X-935.791 Y-457.261 Z7.108
X-935.806 Y-457.238 Z7.157
X-935.815 Y-457.229 Z7.2
X-935.818 Y-457.226 Z7.246
G0 Z20
X-936.403 Y-456.757
Z10.11
G1 Z9.51 F850
G3 X-940.113 Y-457.859 Z9.349 I-1.501 J-1.743 F283.3
X-937.57 Y-460.776 Z9.189 I2.209 J-0.641
X-935.973 Y-457.251 Z9.028 I-0.334 J2.276
X-939.843 Y-457.262 Z8.868 I-1.931 J-1.249
X-938.225 Y-460.778 Z8.707 I1.938 J-1.238
X-937.583 Y-456.222 Z8.455 I0.321 J2.278
X-939.415 Y-456.766 Z8.386 I-0.321 J-2.278
X-938.854 Y-460.595 Z8.225 I1.511 J-1.734
X-935.604 Y-458.494 Z8.065 I0.95 J2.095
X-938.865 Y-456.41 Z7.904 I-2.3 J-0.006
X-939.406 Y-460.242 Z7.744 I0.961 J-2.09
X-935.696 Y-459.143 Z7.583 I1.502 J1.742
X-938.237 Y-456.224 Z7.423 I-2.208 J0.642
X-939.836 Y-459.748 Z7.262 I0.333 J-2.276
X-935.966 Y-459.739 Z7.102 I1.932 J1.248
X-937.582 Y-456.223 Z6.941 I-1.938 J1.239
X-940.109 Y-459.153 Z6.78 I-0.322 J-2.277
X-936.394 Y-460.235 Z6.62 I2.205 J0.653
X-936.953 Y-456.406 Z6.459 I-1.51 J1.735
X-940.204 Y-458.505 Z6.299 I-0.951 J-2.094
X-936.944 Y-460.59 Z6.138 I2.3 J0.005
X-938.864 Y-456.41 Z5.886 I-0.96 J2.09
X-940.112 Y-457.856 Z5.817 I0.96 J-2.09
X-937.573 Y-460.776 Z5.656 I2.208 J-0.644
X-935.971 Y-457.253 Z5.496 I-0.331 J2.276
X-939.841 Y-457.26 Z5.335 I-1.933 J-1.247
X-938.228 Y-460.777 Z5.175 I1.937 J-1.24
X-935.698 Y-457.849 Z5.014 I0.324 J2.277
X-939.413 Y-456.764 Z4.854 I-2.206 J-0.651
X-938.857 Y-460.593 Z4.693 I1.509 J-1.736
X-935.604 Y-458.497 Z4.532 I0.953 J2.093
X-940.204 Y-458.503 Z4.28 I-2.3 J-0.003
X-939.408 Y-460.24 Z4.211 I2.3 J0.003
X-935.696 Y-459.145 Z4.051 I1.504 J1.74
X-938.234 Y-456.224 Z3.89 I-2.208 J0.645
X-939.838 Y-459.745 Z3.73 I0.33 J-2.276
X-935.968 Y-459.742 Z3.569 I1.934 J1.245
X-937.579 Y-456.223 Z3.408 I-1.936 J1.242
X-938.229 Y-460.777 Z3.156 I-0.325 J-2.277
X-936.95 Y-456.407 Z2.927 I0.325 J2.277
X-940.204 Y-458.502 Z2.766 I-0.954 J-2.093
X-936.947 Y-460.592 Z2.606 I2.3 J0.002
X-938.861 Y-456.408 Z2.353 I-0.957 J2.092
X-936.947 Y-460.592 Z2.101 I0.957 J-2.092
X-935.97 Y-457.256 Z1.963 I-0.957 J2.092
X-939.839 Y-457.257 Z1.803 I-1.934 J-1.244
X-935.969 Y-459.743 Z1.551 I1.935 J-1.243
X-935.697 Y-457.852 Z1.482 I-1.935 J1.243
X-939.41 Y-456.762 Z1.321 I-2.207 J-0.648
X-936.398 Y-460.238 Z1.069 I1.506 J-1.738
X-935.604 Y-458.5 Z1 I-1.506 J1.738
X-940.204 I-2.3
X-937.904 Y-460.8 I2.3
X-935.684 Y-459.102 J2.3
X-935.604 Y-458.5 I-2.22 J0.602
G1 X-935.601 Y-458.294 F850
X-935.594 Y-458.247
X-935.578 Y-457.967
X-935.609 Y-457.689
X-935.687 Y-457.42
X-935.697 Y-457.394
X-935.723 Y-457.34
X-935.756 Y-457.285
X-935.906 Y-457.068
X-936.031 Y-456.889
X-936.065 Y-456.85
X-936.249 Y-456.685
X-936.467 Y-456.495
X-936.596 Y-456.415
X-936.902 Y-456.254
X-937.016 Y-456.197
X-937.12 Y-456.164
X-937.555 Y-456.057
X-937.664 Y-456.044
X-937.99
X-938.208 Y-456.049
X-938.425 Y-456.099
X-938.643 Y-456.152
X-938.795 Y-456.197
X-938.861 Y-456.229
X-939.214 Y-456.415
X-939.296 Y-456.461
X-939.514 Y-456.643
X-939.731 Y-456.838
X-939.743 Y-456.85
X-939.904 Y-457.068
X-940.054 Y-457.285
X-940.087 Y-457.34
X-940.113 Y-457.394
X-940.167 Y-457.534
X-940.237 Y-457.721
X-940.307 Y-457.938
X-940.335 Y-458.156
X-940.361 Y-458.373
X-940.37 Y-458.482
X-940.365 Y-458.591
X-940.313 Y-459.026
X-940.29 Y-459.135
X-940.25 Y-459.244
X-940.167 Y-459.466
X-940.076 Y-459.679
X-939.929 Y-459.897
X-939.775 Y-460.114
X-939.731 Y-460.163
X-939.514 Y-460.357
X-939.296 Y-460.539
X-939.28 Y-460.55
X-939.078 Y-460.657
X-938.861 Y-460.771
X-938.752 Y-460.819
X-938.643 Y-460.848
X-938.425 Y-460.901
X-938.208 Y-460.951
X-937.99 Y-460.956
X-937.664
X-937.555 Y-460.943
X-937.12 Y-460.836
X-937.031 Y-460.809
X-936.942 Y-460.767
X-936.684 Y-460.632
X-936.531 Y-460.55
X-936.467 Y-460.505
X-936.249 Y-460.315
X-936.035 Y-460.114
X-935.881 Y-459.897
X-935.814 Y-459.799
X-935.734 Y-459.679
X-935.642 Y-459.461
X-935.56 Y-459.244
X-935.52 Y-459.135
X-935.494 Y-459.026
X-935.439 Y-458.591
X-935.433 Y-458.482
X-935.443 Y-458.373
X-935.471 Y-458.156
X-935.5 Y-457.938
X-935.573 Y-457.721
X-935.687 Y-457.42
G3 X-935.818 Y-457.226 I-0.553 J-0.233
G1 X-935.885 Y-457.16 Z1.007
X-935.95 Y-457.095 Z1.029
X-936.012 Y-457.034 Z1.065
X-936.069 Y-456.978 Z1.115
X-936.12 Y-456.928 Z1.176
X-936.164 Y-456.885 Z1.247
X-936.199 Y-456.85 Z1.328
X-936.224 Y-456.825 Z1.415
X-936.24 Y-456.809 Z1.506
X-936.245 Y-456.804 Z1.6
G0 Z30

(2D Contour2)
S8000 M3
M9
X-937.9 Y-458.5
Z30
Z20
G1 Z1 F850
G3 X-937.84 Y-458.08 I-0.18 J0.24
G1 X-939.28 Y-456.16
G3 X-939.7 Y-456.1 I-0.24 J-0.18
Y-460.9 I1.8 J-2.4
X-934.9 Y-458.5 I1.8 J2.4
X-939.7 Y-456.1 I-3
Y-460.9 I1.8 J-2.4
X-934.9 Y-458.5 I1.8 J2.4
X-939.7 Y-456.1 I-3
X-939.82 Y-456.94 I0.36 J-0.48
G1 X-939.46 Y-457.42
X-939.404 Y-457.495 Z1.007
X-939.349 Y-457.568 Z1.029
X-939.297 Y-457.638 Z1.065
X-939.248 Y-457.702 Z1.115
X-939.205 Y-457.759 Z1.176
X-939.169 Y-457.808 Z1.247
X-939.139 Y-457.848 Z1.328
X-939.118 Y-457.877 Z1.415
X-939.104 Y-457.894 Z1.506
X-939.1 Y-457.9 Z1.6
G0 Z30

(2D Adaptive2)
S6000 M3
M9
X-937.379 Y-264.261
Z30
Z20
Z18.1
G1 Z17.5 F850
G3 X-938.429 Y-268.739 Z17.248 I-0.525 J-2.239 F283.3
X-936.831 Y-264.466 Z17.016 I0.525 J2.239
X-940.202 Y-266.392 Z16.854 I-1.073 J-2.034
X-937.026 Y-268.626 Z16.693 I2.297 J-0.108
X-936.352 Y-264.802 Z16.532 I-0.878 J2.126
X-939.456 Y-268.198 Z16.279 I-1.552 J-1.698
X-937.591 Y-268.779 Z16.209 I1.552 J1.698
X-938.217 Y-264.221 Z15.957 I-0.313 J2.279
X-939.856 Y-265.284 Z15.886 I0.313 J-2.279
X-938.176 Y-268.784 Z15.725 I1.952 J-1.216
X-937.632 Y-264.216 Z15.472 I0.272 J2.284
X-938.744 Y-268.641 Z15.241 I-0.272 J-2.284
X-935.609 Y-266.351 Z15.079 I0.84 J2.141
X-939.013 Y-264.485 Z14.918 I-2.295 J-0.149
X-939.257 Y-268.36 Z14.756 I1.109 J-2.015
X-935.646 Y-266.936 Z14.595 I1.353 J1.86
X-938.469 Y-264.27 Z14.434 I-2.258 J0.436
X-939.683 Y-267.958 Z14.272 I0.564 J-2.23
X-935.829 Y-267.492 Z14.111 I1.779 J1.458
X-937.887 Y-264.2 Z13.95 I-2.075 J0.992
X-939.993 Y-267.462 Z13.788 I-0.017 J-2.3
X-935.815 Y-265.538 Z13.536 I2.089 J0.962
X-937.307 Y-264.279 Z13.465 I-2.089 J-0.962
X-940.168 Y-266.903 Z13.304 I-0.597 J-2.221
X-935.64 Y-266.097 Z13.052 I2.264 J0.403
X-936.766 Y-264.501 Z12.981 I-2.264 J-0.403
X-940.197 Y-266.318 Z12.82 I-1.138 J-1.999
X-937.095 Y-268.653 Z12.658 I2.293 J-0.182
X-936.298 Y-264.853 Z12.497 I-0.809 J2.153
X-940.077 Y-265.745 Z12.336 I-1.606 J-1.647
X-937.665 Y-268.788 Z12.174 I2.173 J-0.755
X-938.143 Y-264.212 Z11.922 I-0.239 J2.288
X-939.816 Y-265.221 Z11.852 I0.239 J-2.288
X-938.25 Y-268.774 Z11.69 I1.912 J-1.279
X-937.558 Y-264.226 Z11.438 I0.346 J2.274
X-939.431 Y-264.78 Z11.367 I-0.346 J-2.274
X-938.813 Y-268.613 Z11.206 I1.527 J-1.72
X-935.605 Y-266.426 Z11.045 I0.909 J2.113
X-938.947 Y-264.45 Z10.883 I-2.299 J-0.074
X-939.317 Y-268.315 Z10.722 I1.043 J-2.05
X-935.661 Y-267.008 Z10.56 I1.413 J1.815
X-938.396 Y-264.253 Z10.399 I-2.243 J0.508
X-939.729 Y-267.9 Z10.238 I0.492 J-2.247
X-935.862 Y-267.558 Z10.076 I1.825 J1.4
X-937.813 Y-264.202 Z9.915 I-2.042 J1.058
X-940.023 Y-267.393 Z9.754 I-0.091 J-2.298
X-936.195 Y-268.039 Z9.592 I2.119 J0.893
X-939.613 Y-264.961 Z9.34 I-1.709 J1.539
X-940.18 Y-266.83 Z9.269 I1.709 J-1.539
X-936.639 Y-268.421 Z9.108 I2.276 J0.33
X-936.702 Y-264.539 Z8.947 I-1.265 J1.921
X-940.19 Y-266.244 Z8.785 I-1.202 J-1.961
X-937.165 Y-268.678 Z8.624 I2.286 J-0.256
X-936.246 Y-264.906 Z8.462 I-0.739 J2.178
X-940.051 Y-265.675 Z8.301 I-1.658 J-1.594
X-937.739 Y-268.794 Z8.14 I2.147 J-0.825
X-938.069 Y-264.206 Z7.887 I-0.165 J2.294
X-939.773 Y-265.16 Z7.817 I0.165 J-2.294
X-938.323 Y-268.761 Z7.656 I1.869 J-1.34
X-935.678 Y-265.919 Z7.494 I0.419 J2.261
X-939.375 Y-264.732 Z7.333 I-2.226 J-0.581
X-938.881 Y-268.582 Z7.171 I1.471 J-1.768
X-935.604 Y-266.5 Z7.01 I0.977 J2.082
X-940.204 I-2.3
X-937.904 Y-268.8 I2.3
X-935.684 Y-267.102 J2.3
X-935.604 Y-266.5 I-2.22 J0.602
G1 X-935.601 Y-266.294 F850
X-935.594 Y-266.247
X-935.578 Y-265.967
X-935.609 Y-265.689
X-935.687 Y-265.42
X-935.697 Y-265.394
X-935.723 Y-265.34
X-935.756 Y-265.285
X-935.906 Y-265.068
X-936.031 Y-264.889
X-936.065 Y-264.85
X-936.249 Y-264.685
X-936.467 Y-264.495
X-936.596 Y-264.415
X-936.902 Y-264.254
X-937.016 Y-264.197
X-937.12 Y-264.164
X-937.555 Y-264.057
X-937.664 Y-264.044
X-937.99
X-938.208 Y-264.049
X-938.425 Y-264.099
X-938.643 Y-264.152
X-938.795 Y-264.197
X-938.861 Y-264.229
X-939.214 Y-264.415
X-939.296 Y-264.461
X-939.514 Y-264.643
X-939.731 Y-264.838
X-939.743 Y-264.85
X-939.904 Y-265.068
X-940.054 Y-265.285
X-940.087 Y-265.34
X-940.113 Y-265.394
X-940.167 Y-265.534
X-940.237 Y-265.721
X-940.307 Y-265.938
X-940.335 Y-266.156
X-940.361 Y-266.373
X-940.37 Y-266.482
X-940.365 Y-266.591
X-940.313 Y-267.026
X-940.29 Y-267.135
X-940.25 Y-267.244
X-940.167 Y-267.466
X-940.076 Y-267.679
X-939.929 Y-267.897
X-939.775 Y-268.114
X-939.731 Y-268.163
X-939.514 Y-268.357
X-939.296 Y-268.539
X-939.28 Y-268.55
X-939.078 Y-268.657
X-938.861 Y-268.771
X-938.752 Y-268.819
X-938.643 Y-268.848
X-938.425 Y-268.901
X-938.208 Y-268.951
X-937.99 Y-268.956
X-937.664
X-937.555 Y-268.943
X-937.12 Y-268.836
X-937.031 Y-268.809
X-936.942 Y-268.767
X-936.684 Y-268.632
X-936.531 Y-268.55
X-936.467 Y-268.505
X-936.249 Y-268.315
X-936.035 Y-268.114
X-935.881 Y-267.897
X-935.814 Y-267.799
X-935.734 Y-267.679
X-935.642 Y-267.461
X-935.56 Y-267.244
X-935.52 Y-267.135
X-935.494 Y-267.026
X-935.439 Y-266.591
X-935.433 Y-266.482
X-935.443 Y-266.373
X-935.471 Y-266.156
X-935.5 Y-265.938
X-935.573 Y-265.721
X-935.687 Y-265.42
X-935.717 Y-265.374 Z7.017
X-935.746 Y-265.33 Z7.036
X-935.771 Y-265.292 Z7.067
X-935.791 Y-265.261 Z7.108
X-935.806 Y-265.238 Z7.157
X-935.815 Y-265.229 Z7.2
X-935.818 Y-265.226 Z7.246
G0 Z20
X-936.403 Y-264.757
Z10.11
G1 Z9.51 F850
G3 X-940.113 Y-265.859 Z9.349 I-1.501 J-1.743 F283.3
X-937.57 Y-268.776 Z9.189 I2.209 J-0.641
X-935.973 Y-265.251 Z9.028 I-0.334 J2.276
X-939.843 Y-265.262 Z8.868 I-1.931 J-1.249
X-938.225 Y-268.778 Z8.707 I1.938 J-1.238
X-937.583 Y-264.222 Z8.455 I0.321 J2.278
X-939.415 Y-264.766 Z8.386 I-0.321 J-2.278
X-938.854 Y-268.595 Z8.225 I1.511 J-1.734
X-935.604 Y-266.494 Z8.065 I0.95 J2.095
X-938.865 Y-264.41 Z7.904 I-2.3 J-0.006
X-939.406 Y-268.242 Z7.744 I0.961 J-2.09
X-935.696 Y-267.143 Z7.583 I1.502 J1.742
X-938.237 Y-264.224 Z7.423 I-2.208 J0.642
X-939.836 Y-267.748 Z7.262 I0.333 J-2.276
X-935.966 Y-267.739 Z7.102 I1.932 J1.248
X-937.582 Y-264.223 Z6.941 I-1.938 J1.239
X-940.109 Y-267.153 Z6.78 I-0.322 J-2.277
X-936.394 Y-268.235 Z6.62 I2.205 J0.653
X-936.953 Y-264.406 Z6.459 I-1.51 J1.735
X-940.204 Y-266.505 Z6.299 I-0.951 J-2.094
X-936.944 Y-268.59 Z6.138 I2.3 J0.005
X-938.864 Y-264.41 Z5.886 I-0.96 J2.09
X-940.112 Y-265.856 Z5.817 I0.96 J-2.09
X-937.573 Y-268.776 Z5.656 I2.208 J-0.644
X-935.971 Y-265.253 Z5.496 I-0.331 J2.276
X-939.841 Y-265.26 Z5.335 I-1.933 J-1.247
X-938.228 Y-268.777 Z5.175 I1.937 J-1.24
X-935.698 Y-265.849 Z5.014 I0.324 J2.277
X-939.413 Y-264.764 Z4.854 I-2.206 J-0.651
X-938.857 Y-268.593 Z4.693 I1.509 J-1.736
X-935.604 Y-266.497 Z4.532 I0.953 J2.093
X-940.204 Y-266.503 Z4.28 I-2.3 J-0.003
X-939.408 Y-268.24 Z4.211 I2.3 J0.003
X-935.696 Y-267.145 Z4.051 I1.504 J1.74
X-938.234 Y-264.224 Z3.89 I-2.208 J0.645
X-939.838 Y-267.745 Z3.73 I0.33 J-2.276
X-935.968 Y-267.742 Z3.569 I1.934 J1.245
X-937.579 Y-264.223 Z3.408 I-1.936 J1.242
X-938.229 Y-268.777 Z3.156 I-0.325 J-2.277
X-936.95 Y-264.407 Z2.927 I0.325 J2.277
X-940.204 Y-266.502 Z2.766 I-0.954 J-2.093
X-936.947 Y-268.592 Z2.606 I2.3 J0.002
X-938.861 Y-264.408 Z2.353 I-0.957 J2.092
X-936.947 Y-268.592 Z2.101 I0.957 J-2.092
X-935.97 Y-265.256 Z1.963 I-0.957 J2.092
X-939.839 Y-265.257 Z1.803 I-1.934 J-1.244
X-935.969 Y-267.743 Z1.551 I1.935 J-1.243
X-935.697 Y-265.852 Z1.482 I-1.935 J1.243
X-939.41 Y-264.762 Z1.321 I-2.207 J-0.648
X-936.398 Y-268.238 Z1.069 I1.506 J-1.738
X-935.604 Y-266.5 Z1 I-1.506 J1.738
X-940.204 I-2.3
X-937.904 Y-268.8 I2.3
X-935.684 Y-267.102 J2.3
X-935.604 Y-266.5 I-2.22 J0.602
G1 X-935.601 Y-266.294 F850
X-935.594 Y-266.247
X-935.578 Y-265.967
X-935.609 Y-265.689
X-935.687 Y-265.42
X-935.697 Y-265.394
X-935.723 Y-265.34
X-935.756 Y-265.285
X-935.906 Y-265.068
X-936.031 Y-264.889
X-936.065 Y-264.85
X-936.249 Y-264.685
X-936.467 Y-264.495
X-936.596 Y-264.415
X-936.902 Y-264.254
X-937.016 Y-264.197
X-937.12 Y-264.164
X-937.555 Y-264.057
X-937.664 Y-264.044
X-937.99
X-938.208 Y-264.049
X-938.425 Y-264.099
X-938.643 Y-264.152
X-938.795 Y-264.197
X-938.861 Y-264.229
X-939.214 Y-264.415
X-939.296 Y-264.461
X-939.514 Y-264.643
X-939.731 Y-264.838
X-939.743 Y-264.85
X-939.904 Y-265.068
X-940.054 Y-265.285
X-940.087 Y-265.34
X-940.113 Y-265.394
X-940.167 Y-265.534
X-940.237 Y-265.721
X-940.307 Y-265.938
X-940.335 Y-266.156
X-940.361 Y-266.373
X-940.37 Y-266.482
X-940.365 Y-266.591
X-940.313 Y-267.026
X-940.29 Y-267.135
X-940.25 Y-267.244
X-940.167 Y-267.466
X-940.076 Y-267.679
X-939.929 Y-267.897
X-939.775 Y-268.114
X-939.731 Y-268.163
X-939.514 Y-268.357
X-939.296 Y-268.539
X-939.28 Y-268.55
X-939.078 Y-268.657
X-938.861 Y-268.771
X-938.752 Y-268.819
X-938.643 Y-268.848
X-938.425 Y-268.901
X-938.208 Y-268.951
X-937.99 Y-268.956
X-937.664
X-937.555 Y-268.943
X-937.12 Y-268.836
X-937.031 Y-268.809
X-936.942 Y-268.767
X-936.684 Y-268.632
X-936.531 Y-268.55
X-936.467 Y-268.505
X-936.249 Y-268.315
X-936.035 Y-268.114
X-935.881 Y-267.897
X-935.814 Y-267.799
X-935.734 Y-267.679
X-935.642 Y-267.461
X-935.56 Y-267.244
X-935.52 Y-267.135
X-935.494 Y-267.026
X-935.439 Y-266.591
X-935.433 Y-266.482
X-935.443 Y-266.373
