%
(1001)
(z0 slate machine -5-5)
(T1  D=6 CR=0 - ZMIN=0.5 - flat end mill)
G90 G94
G17
G21

(2D Adaptive3)
M9
T1 M6
S6000 M3
G54
M9
G0 X-1356.834 Y-511.336
Z30
Z20
Z18.15
G1 Z17.55 F850
G3 X-1353.898 Y-507.468 Z17.347 I0.28 J2.836 F283.3
X-1358.675 Y-506.595 Z17.144 I-2.657 J-1.031
X-1357.296 Y-511.252 Z16.941 I2.12 J-1.904
X-1353.764 Y-507.918 Z16.738 I0.741 J2.752
X-1358.334 Y-506.273 Z16.535 I-2.79 J-0.582
X-1357.737 Y-511.093 Z16.332 I1.779 J-2.226
X-1355.372 Y-505.907 Z16.019 I1.183 J2.593
X-1357.944 Y-506.012 Z15.926 I-1.183 J-2.593
X-1358.146 Y-510.864 Z15.723 I1.39 J-2.488
X-1354.962 Y-506.136 Z15.411 I1.592 J2.364
X-1357.517 Y-505.817 Z15.317 I-1.592 J-2.364
X-1358.513 Y-510.571 Z15.114 I0.963 J-2.682
X-1353.822 Y-509.312 Z14.911 I1.958 J2.071
X-1357.064 Y-505.696 Z14.708 I-2.732 J0.812
X-1356.044 Y-511.304 Z14.396 I0.51 J-2.804
X-1356.597 Y-505.65 Z14.099 I-0.51 J2.804
X-1359.077 Y-509.825 Z13.896 I0.043 J-2.85
X-1354.232 Y-510.152 Z13.693 I2.523 J1.326
X-1358.877 Y-506.848 Z13.381 I-2.322 J1.652
X-1359.261 Y-509.394 Z13.288 I2.322 J-1.652
X-1354.535 Y-510.511 Z13.085 I2.706 J0.894
X-1355.673 Y-505.79 Z12.882 I-2.02 J2.011
X-1359.371 Y-508.937 Z12.679 I-0.882 J-2.71
X-1354.892 Y-510.815 Z12.476 I2.816 J0.438
X-1355.24 Y-505.971 Z12.273 I-1.662 J2.315
X-1359.404 Y-508.47 Z12.07 I-1.314 J-2.529
X-1353.704 Y-508.53 Z11.757 I2.85 J-0.03
X-1354.843 Y-506.221 Z11.664 I-2.85 J0.03
X-1359.361 Y-508.003 Z11.461 I-1.711 J-2.279
X-1353.748 Y-508.997 Z11.148 I2.806 J-0.497
X-1354.492 Y-506.532 Z11.055 I-2.806 J0.497
X-1359.241 Y-507.549 Z10.852 I-2.062 J-1.967
X-1353.868 Y-509.451 Z10.539 I2.687 J-0.951
X-1359.241 Y-507.549 Z10.226 I-2.687 J0.951
X-1353.868 Y-509.451 Z9.914 I2.687 J-0.951
X-1353.967 Y-507.306 Z9.837 I-2.687 J0.951
X-1358.789 Y-506.731 Z9.634 I-2.588 J-1.194
X-1357.124 Y-511.292 Z9.431 I2.234 J-1.769
X-1353.806 Y-507.746 Z9.228 I0.569 J2.793
X-1358.468 Y-506.388 Z9.025 I-2.749 J-0.753
X-1357.574 Y-511.161 Z8.822 I1.914 J-2.112
X-1353.719 Y-508.207 Z8.619 I1.02 J2.661
X-1358.096 Y-506.103 Z8.416 I-2.835 J-0.292
X-1357.997 Y-510.958 Z8.213 I1.542 J-2.397
X-1353.71 Y-508.676 Z8.01 I1.443 J2.458
X-1357.682 Y-505.882 Z7.807 I-2.844 J0.177
X-1358.38 Y-510.688 Z7.604 I1.127 J-2.618
X-1353.777 Y-509.141 Z7.401 I1.826 J2.188
X-1357.237 Y-505.733 Z7.198 I-2.777 J0.641
X-1358.715 Y-510.359 Z6.995 I0.683 J-2.767
X-1354.394 Y-506.641 Z6.683 I2.16 J1.859
X-1356.774 Y-505.658 Z6.589 I-2.16 J-1.859
X-1358.99 Y-509.979 Z6.386 I0.219 J-2.842
X-1354.118 Y-507.021 Z6.074 I2.436 J1.479
X-1356.305 Y-505.661 Z5.98 I-2.436 J-1.479
X-1359.2 Y-509.56 Z5.777 I-0.25 J-2.839
X-1354.414 Y-510.382 Z5.574 I2.646 J1.06
X-1355.842 Y-505.74 Z5.371 I-2.14 J1.882
X-1359.338 Y-509.111 Z5.168 I-0.712 J-2.76
X-1354.752 Y-510.707 Z4.965 I2.784 J0.611
X-1355.399 Y-505.894 Z4.762 I-1.803 J2.207
X-1359.401 Y-508.646 Z4.56 I-1.155 J-2.605
X-1355.138 Y-510.973 Z4.357 I2.846 J0.146
X-1354.988 Y-506.119 Z4.154 I-1.416 J2.473
X-1359.386 Y-508.177 Z3.951 I-1.567 J-2.381
X-1355.563 Y-511.172 Z3.748 I2.832 J-0.322
X-1354.618 Y-506.408 Z3.545 I-0.991 J2.672
X-1359.295 Y-507.717 Z3.342 I-1.936 J-2.091
X-1353.814 Y-509.282 Z3.029 I2.74 J-0.783
X-1354.301 Y-506.754 Z2.936 I-2.74 J0.783
X-1359.129 Y-507.278 Z2.733 I-2.253 J-1.745
X-1356.481 Y-511.349 Z2.53 I2.575 J-1.222
X-1354.046 Y-507.148 Z2.327 I-0.073 J2.849
X-1358.894 Y-506.872 Z2.124 I-2.509 J-1.352
X-1356.949 Y-511.322 Z1.921 I2.34 J-1.627
X-1353.858 Y-507.577 Z1.718 I0.395 J2.822
X-1358.595 Y-506.511 Z1.515 I-2.697 J-0.922
X-1357.407 Y-511.219 Z1.312 I2.041 J-1.989
X-1353.743 Y-508.032 Z1.109 I0.853 J2.719
X-1358.241 Y-506.203 Z0.906 I-2.811 J-0.468
X-1357.842 Y-511.043 Z0.703 I1.687 J-2.297
X-1353.704 Y-508.5 Z0.5 I1.287 J2.543
X-1355.904 Y-505.725 I-2.85
X-1359.182 Y-507.396 I-0.65 J-2.775
X-1358.081 Y-510.907 I2.628 J-1.104
X-1353.704 Y-508.5 I1.527 J2.407
G1 X-1353.691 Y-507.542 F850
X-1353.661 Y-507.426
X-1353.641 Y-507.278
X-1353.639 Y-507.128
X-1353.652 Y-506.978
X-1353.679 Y-506.831
X-1353.718 Y-506.686
X-1353.767 Y-506.544
X-1353.826 Y-506.406
X-1353.894 Y-506.272
X-1353.971 Y-506.143
X-1354.055 Y-506.019
X-1354.146 Y-505.899
X-1354.248 Y-505.782
X-1354.358 Y-505.666
X-1354.479 Y-505.555
X-1354.608 Y-505.448
X-1354.746 Y-505.346
X-1354.893 Y-505.25
X-1355.047 Y-505.16
X-1355.209 Y-505.079
X-1355.378 Y-505.005
X-1355.554 Y-504.94
X-1355.735 Y-504.885
X-1355.921 Y-504.839
X-1356.112 Y-504.803
X-1356.306 Y-504.778
X-1356.503 Y-504.763
X-1356.702 Y-504.76
X-1356.902 Y-504.768
X-1357.103 Y-504.788
X-1357.303 Y-504.818
X-1357.503 Y-504.861
X-1357.701 Y-504.915
X-1357.896 Y-504.98
X-1358.088 Y-505.056
X-1358.276 Y-505.143
X-1358.46 Y-505.241
X-1358.638 Y-505.35
X-1358.81 Y-505.468
X-1358.976 Y-505.597
X-1359.134 Y-505.735
X-1359.285 Y-505.882
X-1359.427 Y-506.037
X-1359.561 Y-506.2
X-1359.686 Y-506.371
X-1359.8 Y-506.549
X-1359.905 Y-506.733
X-1359.999 Y-506.923
X-1360.083 Y-507.118
X-1360.155 Y-507.318
X-1360.216 Y-507.521
X-1360.266 Y-507.728
X-1360.304 Y-507.937
X-1360.33 Y-508.148
X-1360.344 Y-508.361
X-1360.346 Y-508.574
X-1360.336 Y-508.787
X-1360.314 Y-508.999
X-1360.28 Y-509.209
X-1360.235 Y-509.418
X-1360.177 Y-509.623
X-1360.109 Y-509.825
X-1360.029 Y-510.023
X-1359.938 Y-510.216
X-1359.836 Y-510.404
X-1359.724 Y-510.585
X-1359.601 Y-510.76
X-1359.469 Y-510.928
X-1359.328 Y-511.088
X-1359.178 Y-511.24
X-1359.02 Y-511.384
X-1358.854 Y-511.518
X-1358.68 Y-511.643
X-1358.5 Y-511.757
X-1358.313 Y-511.862
X-1358.122 Y-511.955
X-1357.925 Y-512.038
X-1357.723 Y-512.11
X-1357.518 Y-512.17
X-1357.31 Y-512.218
X-1357.1 Y-512.255
X-1356.887 Y-512.28
X-1356.674 Y-512.292
X-1356.46 Y-512.293
X-1356.247 Y-512.282
X-1356.035 Y-512.259
X-1355.824 Y-512.223
X-1355.615 Y-512.176
X-1355.41 Y-512.118
X-1355.208 Y-512.047
X-1355.01 Y-511.966
X-1354.818 Y-511.874
X-1354.63 Y-511.771
X-1354.449 Y-511.657
X-1354.275 Y-511.534
X-1354.108 Y-511.4
X-1353.948 Y-511.258
X-1353.797 Y-511.107
X-1353.655 Y-510.948
X-1353.522 Y-510.781
X-1353.398 Y-510.606
X-1353.285 Y-510.425
X-1353.181 Y-510.238
X-1353.077 Y-510.021
X-1352.948 Y-509.709
X-1352.797 Y-509.273
X-1352.699 Y-508.931
X-1352.632 Y-508.634
X-1352.586 Y-508.362
X-1352.558 Y-508.107
X-1352.551 Y-507.979
X-1352.554 Y-507.722
X-1352.59 Y-507.467
X-1352.658 Y-507.218
X-1352.81 Y-506.781
X-1352.831 Y-506.727
X-1352.857 Y-506.672
X-1352.965 Y-506.498
X-1353.197 Y-506.128
X-1353.344 Y-505.91
X-1353.401 Y-505.852
X-1353.836 Y-505.42
X-1354.012 Y-505.258
X-1354.054 Y-505.23
X-1354.706 Y-504.82
X-1354.761 Y-504.789
X-1354.815 Y-504.765
X-1355.577 Y-504.496
X-1355.686 Y-504.47
X-1356.23 Y-504.408
X-1356.448 Y-504.384
X-1356.556 Y-504.376
X-1356.665 Y-504.385
X-1357.318 Y-504.458
X-1357.427 Y-504.471
X-1357.536 Y-504.497
X-1358.297 Y-504.766
X-1358.352 Y-504.79
X-1358.407 Y-504.822
X-1359.059 Y-505.232
X-1359.098 Y-505.258
X-1359.277 Y-505.422
X-1359.712 Y-505.854
X-1359.766 Y-505.91
X-1359.913 Y-506.128
X-1360.186 Y-506.563
X-1360.253 Y-506.672
X-1360.3 Y-506.781
X-1360.526 Y-507.434
X-1360.562 Y-507.538
X-1360.583 Y-507.643
X-1360.656 Y-508.304
X-1360.674 Y-508.522
X-1360.651 Y-508.739
X-1360.583 Y-509.358
X-1360.578 Y-509.392
X-1360.511 Y-509.61
X-1360.36 Y-510.045
X-1360.284 Y-510.263
X-1360.258 Y-510.317
X-1360.226 Y-510.372
X-1359.817 Y-511.024
X-1359.775 Y-511.079
X-1359.724 Y-511.133
X-1359.168 Y-511.685
X-1359.114 Y-511.731
X-1359.059 Y-511.768
X-1358.406 Y-512.178
X-1358.328 Y-512.221
X-1358.189 Y-512.273
X-1357.536 Y-512.503
X-1357.427 Y-512.529
X-1357.1 Y-512.566
X-1356.665 Y-512.615
X-1356.556 Y-512.624
X-1356.448 Y-512.616
X-1355.795 Y-512.542
X-1355.686 Y-512.53
X-1355.577 Y-512.504
X-1354.924 Y-512.274
X-1354.783 Y-512.221
X-1354.706 Y-512.18
X-1354.054 Y-511.77
X-1353.999 Y-511.733
X-1353.945 Y-511.687
X-1353.824 Y-511.569
X-1353.386 Y-511.133
X-1353.335 Y-511.079
X-1353.294 Y-511.024
X-1352.884 Y-510.372
X-1352.852 Y-510.317
X-1352.826 Y-510.263
X-1352.748 Y-510.04
X-1352.599 Y-509.61
X-1352.53 Y-509.39
X-1352.503 Y-509.175
X-1352.452 Y-508.739
X-1352.429 Y-508.522
X-1352.447 Y-508.304
X-1352.524 Y-507.651
X-1352.53 Y-507.612
X-1352.584 Y-507.434
X-1352.658 Y-507.218
G3 X-1352.784 Y-507.02 I-0.56 J-0.216
G1 X-1352.848 Y-506.953 Z0.507
X-1352.912 Y-506.886 Z0.529
X-1352.972 Y-506.823 Z0.565
X-1353.027 Y-506.765 Z0.615
X-1353.076 Y-506.713 Z0.676
X-1353.118 Y-506.669 Z0.747
X-1353.152 Y-506.633 Z0.828
X-1353.177 Y-506.607 Z0.915
X-1353.192 Y-506.591 Z1.006
X-1353.198 Y-506.586 Z1.1
G0 Z30

(2D Contour3)
S8000 M3
M9
X-1356.55 Y-508.5
Z30
Z20
G1 Z0.5 F850
G3 X-1356.25 Y-508.8 I0.3
G1 X-1352.2
G3 X-1351.9 Y-508.5 J0.3
X-1359.34 Y-504.78 I-4.65
Y-512.22 I2.79 J-3.72
X-1351.9 Y-508.5 I2.79 J3.72
X-1359.34 Y-504.78 I-4.65
Y-512.22 I2.79 J-3.72
X-1351.9 Y-508.5 I2.79 J3.72
X-1352.5 Y-507.9 I-0.6
G1 X-1353.1
G18 G3 X-1353.7 Z1.1 K0.6
G0 Z30
G17

(2D Adaptive3)
S6000 M3
M9
G0 X-1356.834 Y-219.336
Z30
Z20
Z18.15
G1 Z17.55 F850
G3 X-1353.898 Y-215.468 Z17.347 I0.28 J2.836 F283.3
X-1358.675 Y-214.595 Z17.144 I-2.657 J-1.031
X-1357.296 Y-219.252 Z16.941 I2.12 J-1.904
X-1353.764 Y-215.918 Z16.738 I0.741 J2.752
X-1358.334 Y-214.273 Z16.535 I-2.79 J-0.582
X-1357.737 Y-219.093 Z16.332 I1.779 J-2.226
X-1355.372 Y-213.907 Z16.019 I1.183 J2.593
X-1357.944 Y-214.012 Z15.926 I-1.183 J-2.593
X-1358.146 Y-218.864 Z15.723 I1.39 J-2.488
X-1354.962 Y-214.136 Z15.411 I1.592 J2.364
X-1357.517 Y-213.817 Z15.317 I-1.592 J-2.364
X-1358.513 Y-218.571 Z15.114 I0.963 J-2.682
X-1353.822 Y-217.312 Z14.911 I1.958 J2.071
X-1357.064 Y-213.696 Z14.708 I-2.732 J0.812
X-1356.044 Y-219.304 Z14.396 I0.51 J-2.804
X-1356.597 Y-213.65 Z14.099 I-0.51 J2.804
X-1359.077 Y-217.825 Z13.896 I0.043 J-2.85
X-1354.232 Y-218.152 Z13.693 I2.523 J1.326
X-1358.877 Y-214.848 Z13.381 I-2.322 J1.652
X-1359.261 Y-217.394 Z13.288 I2.322 J-1.652
X-1354.535 Y-218.511 Z13.085 I2.706 J0.894
X-1355.673 Y-213.79 Z12.882 I-2.02 J2.011
X-1359.371 Y-216.937 Z12.679 I-0.882 J-2.71
X-1354.892 Y-218.815 Z12.476 I2.816 J0.438
X-1355.24 Y-213.971 Z12.273 I-1.662 J2.315
X-1359.404 Y-216.47 Z12.07 I-1.314 J-2.529
X-1353.704 Y-216.53 Z11.757 I2.85 J-0.03
X-1354.843 Y-214.221 Z11.664 I-2.85 J0.03
X-1359.361 Y-216.003 Z11.461 I-1.711 J-2.279
X-1353.748 Y-216.997 Z11.148 I2.806 J-0.497
X-1354.492 Y-214.532 Z11.055 I-2.806 J0.497
X-1359.241 Y-215.549 Z10.852 I-2.062 J-1.967
X-1353.868 Y-217.451 Z10.539 I2.687 J-0.951
X-1359.241 Y-215.549 Z10.226 I-2.687 J0.951
X-1353.868 Y-217.451 Z9.914 I2.687 J-0.951
X-1353.967 Y-215.306 Z9.837 I-2.687 J0.951
X-1358.789 Y-214.731 Z9.634 I-2.588 J-1.194
X-1357.124 Y-219.292 Z9.431 I2.234 J-1.769
X-1353.806 Y-215.746 Z9.228 I0.569 J2.793
X-1358.468 Y-214.388 Z9.025 I-2.749 J-0.753
X-1357.574 Y-219.161 Z8.822 I1.914 J-2.112
X-1353.719 Y-216.207 Z8.619 I1.02 J2.661
X-1358.096 Y-214.103 Z8.416 I-2.835 J-0.292
X-1357.997 Y-218.958 Z8.213 I1.542 J-2.397
X-1353.71 Y-216.676 Z8.01 I1.443 J2.458
X-1357.682 Y-213.882 Z7.807 I-2.844 J0.177
X-1358.38 Y-218.688 Z7.604 I1.127 J-2.618
X-1353.777 Y-217.141 Z7.401 I1.826 J2.188
X-1357.237 Y-213.733 Z7.198 I-2.777 J0.641
X-1358.715 Y-218.359 Z6.995 I0.683 J-2.767
X-1354.394 Y-214.641 Z6.683 I2.16 J1.859
X-1356.774 Y-213.658 Z6.589 I-2.16 J-1.859
X-1358.99 Y-217.979 Z6.386 I0.219 J-2.842
X-1354.118 Y-215.021 Z6.074 I2.436 J1.479
X-1356.305 Y-213.661 Z5.98 I-2.436 J-1.479
X-1359.2 Y-217.56 Z5.777 I-0.25 J-2.839
X-1354.414 Y-218.382 Z5.574 I2.646 J1.06
X-1355.842 Y-213.74 Z5.371 I-2.14 J1.882
X-1359.338 Y-217.111 Z5.168 I-0.712 J-2.76
X-1354.752 Y-218.707 Z4.965 I2.784 J0.611
X-1355.399 Y-213.894 Z4.762 I-1.803 J2.207
X-1359.401 Y-216.646 Z4.56 I-1.155 J-2.605
X-1355.138 Y-218.973 Z4.357 I2.846 J0.146
X-1354.988 Y-214.119 Z4.154 I-1.416 J2.473
X-1359.386 Y-216.177 Z3.951 I-1.567 J-2.381
X-1355.563 Y-219.172 Z3.748 I2.832 J-0.322
X-1354.618 Y-214.408 Z3.545 I-0.991 J2.672
X-1359.295 Y-215.717 Z3.342 I-1.936 J-2.091
X-1353.814 Y-217.282 Z3.029 I2.74 J-0.783
X-1354.301 Y-214.754 Z2.936 I-2.74 J0.783
X-1359.129 Y-215.278 Z2.733 I-2.253 J-1.745
X-1356.481 Y-219.349 Z2.53 I2.575 J-1.222
X-1354.046 Y-215.148 Z2.327 I-0.073 J2.849
X-1358.894 Y-214.872 Z2.124 I-2.509 J-1.352
X-1356.949 Y-219.322 Z1.921 I2.34 J-1.627
X-1353.858 Y-215.577 Z1.718 I0.395 J2.822
X-1358.595 Y-214.511 Z1.515 I-2.697 J-0.922
X-1357.407 Y-219.219 Z1.312 I2.041 J-1.989
X-1353.743 Y-216.032 Z1.109 I0.853 J2.719
X-1358.241 Y-214.203 Z0.906 I-2.811 J-0.468
X-1357.842 Y-219.043 Z0.703 I1.687 J-2.297
X-1353.704 Y-216.5 Z0.5 I1.287 J2.543
X-1355.904 Y-213.725 I-2.85
X-1359.182 Y-215.396 I-0.65 J-2.775
X-1358.081 Y-218.907 I2.628 J-1.104
X-1353.704 Y-216.5 I1.527 J2.407
G1 X-1353.691 Y-215.542 F850
X-1353.661 Y-215.426
X-1353.641 Y-215.278
X-1353.639 Y-215.128
X-1353.652 Y-214.978
X-1353.679 Y-214.831
X-1353.718 Y-214.686
X-1353.767 Y-214.544
X-1353.826 Y-214.406
X-1353.894 Y-214.272
X-1353.971 Y-214.143
X-1354.055 Y-214.019
X-1354.146 Y-213.899
X-1354.248 Y-213.782
X-1354.358 Y-213.666
X-1354.479 Y-213.555
X-1354.608 Y-213.448
X-1354.746 Y-213.346
X-1354.893 Y-213.25
X-1355.047 Y-213.16
X-1355.209 Y-213.079
X-1355.378 Y-213.005
X-1355.554 Y-212.94
X-1355.735 Y-212.885
X-1355.921 Y-212.839
X-1356.112 Y-212.803
X-1356.306 Y-212.778
X-1356.503 Y-212.763
X-1356.702 Y-212.76
X-1356.902 Y-212.768
X-1357.103 Y-212.788
X-1357.303 Y-212.818
X-1357.503 Y-212.861
X-1357.701 Y-212.915
X-1357.896 Y-212.98
X-1358.088 Y-213.056
X-1358.276 Y-213.143
X-1358.46 Y-213.241
X-1358.638 Y-213.35
X-1358.81 Y-213.468
X-1358.976 Y-213.597
X-1359.134 Y-213.735
X-1359.285 Y-213.882
X-1359.427 Y-214.037
X-1359.561 Y-214.2
X-1359.686 Y-214.371
X-1359.8 Y-214.549
X-1359.905 Y-214.733
X-1359.999 Y-214.923
X-1360.083 Y-215.118
X-1360.155 Y-215.318
X-1360.216 Y-215.521
X-1360.266 Y-215.728
X-1360.304 Y-215.937
X-1360.33 Y-216.148
X-1360.344 Y-216.361
X-1360.346 Y-216.574
X-1360.336 Y-216.787
X-1360.314 Y-216.999
X-1360.28 Y-217.209
X-1360.235 Y-217.418
X-1360.177 Y-217.623
X-1360.109 Y-217.825
X-1360.029 Y-218.023
X-1359.938 Y-218.216
X-1359.836 Y-218.404
X-1359.724 Y-218.585
X-1359.601 Y-218.76
X-1359.469 Y-218.928
X-1359.328 Y-219.088
X-1359.178 Y-219.24
X-1359.02 Y-219.384
X-1358.854 Y-219.518
X-1358.68 Y-219.643
X-1358.5 Y-219.757
X-1358.313 Y-219.862
X-1358.122 Y-219.955
X-1357.925 Y-220.038
X-1357.723 Y-220.11
X-1357.518 Y-220.17
X-1357.31 Y-220.218
X-1357.1 Y-220.255
X-1356.887 Y-220.28
X-1356.674 Y-220.292
X-1356.46 Y-220.293
X-1356.247 Y-220.282
X-1356.035 Y-220.259
X-1355.824 Y-220.223
X-1355.615 Y-220.176
X-1355.41 Y-220.118
X-1355.208 Y-220.047
X-1355.01 Y-219.966
X-1354.818 Y-219.874
X-1354.63 Y-219.771
X-1354.449 Y-219.657
X-1354.275 Y-219.534
X-1354.108 Y-219.4
X-1353.948 Y-219.258
X-1353.797 Y-219.107
X-1353.655 Y-218.948
X-1353.522 Y-218.781
X-1353.398 Y-218.606
X-1353.285 Y-218.425
X-1353.181 Y-218.238
X-1353.077 Y-218.021
X-1352.948 Y-217.709
X-1352.797 Y-217.273
X-1352.699 Y-216.931
X-1352.632 Y-216.634
X-1352.586 Y-216.362
X-1352.558 Y-216.107
X-1352.551 Y-215.979
X-1352.554 Y-215.722
X-1352.59 Y-215.467
X-1352.658 Y-215.218
X-1352.81 Y-214.781
X-1352.831 Y-214.727
X-1352.857 Y-214.672
X-1352.965 Y-214.498
X-1353.197 Y-214.128
X-1353.344 Y-213.91
X-1353.401 Y-213.852
X-1353.836 Y-213.42
X-1354.012 Y-213.258
X-1354.054 Y-213.23
X-1354.706 Y-212.82
X-1354.761 Y-212.789
X-1354.815 Y-212.765
X-1355.577 Y-212.496
X-1355.686 Y-212.47
X-1356.23 Y-212.408
X-1356.448 Y-212.384
X-1356.556 Y-212.376
X-1356.665 Y-212.385
X-1357.318 Y-212.458
X-1357.427 Y-212.471
X-1357.536 Y-212.497
X-1358.297 Y-212.766
X-1358.352 Y-212.79
X-1358.407 Y-212.822
X-1359.059 Y-213.232
X-1359.098 Y-213.258
X-1359.277 Y-213.422
X-1359.712 Y-213.854
X-1359.766 Y-213.91
X-1359.913 Y-214.128
X-1360.186 Y-214.563
X-1360.253 Y-214.672
X-1360.3 Y-214.781
X-1360.526 Y-215.434
X-1360.562 Y-215.538
X-1360.583 Y-215.643
X-1360.656 Y-216.304
X-1360.674 Y-216.522
X-1360.651 Y-216.739
X-1360.583 Y-217.358
X-1360.578 Y-217.392
X-1360.511 Y-217.61
X-1360.36 Y-218.045
X-1360.284 Y-218.263
X-1360.258 Y-218.317
X-1360.226 Y-218.372
X-1359.817 Y-219.024
X-1359.775 Y-219.079
X-1359.724 Y-219.133
X-1359.168 Y-219.685
X-1359.114 Y-219.731
X-1359.059 Y-219.768
X-1358.406 Y-220.178
X-1358.328 Y-220.221
X-1358.189 Y-220.273
X-1357.536 Y-220.503
X-1357.427 Y-220.529
X-1357.1 Y-220.566
X-1356.665 Y-220.615
X-1356.556 Y-220.624
X-1356.448 Y-220.616
X-1355.795 Y-220.542
X-1355.686 Y-220.53
X-1355.577 Y-220.504
X-1354.924 Y-220.274
X-1354.783 Y-220.221
X-1354.706 Y-220.18
X-1354.054 Y-219.77
X-1353.999 Y-219.733
X-1353.945 Y-219.687
X-1353.824 Y-219.569
X-1353.386 Y-219.133
X-1353.335 Y-219.079
X-1353.294 Y-219.024
X-1352.884 Y-218.372
X-1352.852 Y-218.317
X-1352.826 Y-218.263
X-1352.748 Y-218.04
X-1352.599 Y-217.61
X-1352.53 Y-217.39
X-1352.503 Y-217.175
X-1352.452 Y-216.739
X-1352.429 Y-216.522
X-1352.447 Y-216.304
X-1352.524 Y-215.651
X-1352.53 Y-215.612
X-1352.584 Y-215.434
X-1352.658 Y-215.218
G3 X-1352.784 Y-215.02 I-0.56 J-0.216
G1 X-1352.848 Y-214.953 Z0.507
X-1352.912 Y-214.886 Z0.529
X-1352.972 Y-214.823 Z0.565
X-1353.027 Y-214.765 Z0.615
X-1353.076 Y-214.713 Z0.676
X-1353.118 Y-214.669 Z0.747
X-1353.152 Y-214.633 Z0.828
X-1353.177 Y-214.607 Z0.915
X-1353.192 Y-214.591 Z1.006
X-1353.198 Y-214.586 Z1.1
G0 Z30

(2D Contour3)
S8000 M3
M9
X-1356.55 Y-216.5
Z30
Z20
G1 Z0.5 F850
G3 X-1356.25 Y-216.8 I0.3
G1 X-1352.2
G3 X-1351.9 Y-216.5 J0.3
X-1359.34 Y-212.78 I-4.65
Y-220.22 I2.79 J-3.72
X-1351.9 Y-216.5 I2.79 J3.72
X-1359.34 Y-212.78 I-4.65
Y-220.22 I2.79 J-3.72
X-1351.9 Y-216.5 I2.79 J3.72
X-1352.5 Y-215.9 I-0.6
G1 X-1353.1
G18 G3 X-1353.7 Z1.1 K0.6
G0 Z30
G17

(2D Adaptive3)
S6000 M3
M9
G0 X-1304.184 Y-56.686
Z30
Z20
Z18.15
G1 Z17.55 F850
G3 X-1301.248 Y-52.818 Z17.347 I0.28 J2.836 F283.3
X-1306.025 Y-51.945 Z17.144 I-2.657 J-1.031
X-1304.646 Y-56.602 Z16.941 I2.12 J-1.904
X-1301.114 Y-53.268 Z16.738 I0.741 J2.752
X-1305.684 Y-51.623 Z16.535 I-2.79 J-0.582
X-1305.087 Y-56.443 Z16.332 I1.779 J-2.226
X-1302.722 Y-51.257 Z16.019 I1.183 J2.593
X-1305.294 Y-51.362 Z15.926 I-1.183 J-2.593
X-1305.496 Y-56.214 Z15.723 I1.39 J-2.488
X-1302.312 Y-51.486 Z15.411 I1.592 J2.364
X-1304.867 Y-51.167 Z15.317 I-1.592 J-2.364
X-1305.863 Y-55.921 Z15.114 I0.963 J-2.682
X-1301.172 Y-54.662 Z14.911 I1.958 J2.071
X-1304.414 Y-51.046 Z14.708 I-2.732 J0.812
X-1303.394 Y-56.654 Z14.396 I0.51 J-2.804
X-1303.947 Y-51 Z14.099 I-0.51 J2.804
X-1306.427 Y-55.175 Z13.896 I0.043 J-2.85
X-1301.582 Y-55.502 Z13.693 I2.523 J1.326
X-1306.226 Y-52.198 Z13.381 I-2.322 J1.652
X-1306.611 Y-54.743 Z13.288 I2.322 J-1.652
X-1301.885 Y-55.861 Z13.085 I2.706 J0.894
X-1303.023 Y-51.14 Z12.882 I-2.02 J2.011
X-1306.721 Y-54.287 Z12.679 I-0.882 J-2.71
X-1302.242 Y-56.165 Z12.476 I2.816 J0.438
X-1302.59 Y-51.321 Z12.273 I-1.662 J2.315
X-1306.754 Y-53.82 Z12.07 I-1.314 J-2.529
X-1301.054 Y-53.88 Z11.757 I2.85 J-0.03
X-1302.193 Y-51.571 Z11.664 I-2.85 J0.03
X-1306.711 Y-53.352 Z11.461 I-1.711 J-2.279
X-1301.098 Y-54.347 Z11.148 I2.806 J-0.497
X-1301.842 Y-51.882 Z11.055 I-2.806 J0.497
X-1306.591 Y-52.899 Z10.852 I-2.062 J-1.967
X-1301.218 Y-54.801 Z10.539 I2.687 J-0.951
X-1306.591 Y-52.899 Z10.226 I-2.687 J0.951
X-1301.218 Y-54.801 Z9.914 I2.687 J-0.951
X-1301.317 Y-52.656 Z9.837 I-2.687 J0.951
X-1306.139 Y-52.081 Z9.634 I-2.588 J-1.194
X-1304.474 Y-56.642 Z9.431 I2.234 J-1.769
X-1301.156 Y-53.096 Z9.228 I0.569 J2.793
X-1305.818 Y-51.738 Z9.025 I-2.749 J-0.753
X-1304.924 Y-56.511 Z8.822 I1.914 J-2.112
X-1301.069 Y-53.557 Z8.619 I1.02 J2.661
X-1305.446 Y-51.453 Z8.416 I-2.835 J-0.292
X-1305.347 Y-56.308 Z8.213 I1.542 J-2.397
X-1301.06 Y-54.026 Z8.01 I1.443 J2.458
X-1305.032 Y-51.232 Z7.807 I-2.844 J0.177
X-1305.73 Y-56.038 Z7.604 I1.127 J-2.618
X-1301.127 Y-54.491 Z7.401 I1.826 J2.188
X-1304.587 Y-51.083 Z7.198 I-2.777 J0.641
X-1306.065 Y-55.709 Z6.995 I0.683 J-2.767
X-1301.744 Y-51.991 Z6.683 I2.16 J1.859
X-1304.124 Y-51.008 Z6.589 I-2.16 J-1.859
X-1306.34 Y-55.329 Z6.386 I0.219 J-2.842
X-1301.468 Y-52.37 Z6.074 I2.436 J1.479
X-1303.655 Y-51.011 Z5.98 I-2.436 J-1.479
X-1306.55 Y-54.91 Z5.777 I-0.25 J-2.839
X-1301.764 Y-55.732 Z5.574 I2.646 J1.06
X-1303.192 Y-51.09 Z5.371 I-2.14 J1.882
X-1306.688 Y-54.461 Z5.168 I-0.712 J-2.76
X-1302.102 Y-56.057 Z4.965 I2.784 J0.611
X-1302.749 Y-51.244 Z4.762 I-1.803 J2.207
X-1306.751 Y-53.996 Z4.56 I-1.155 J-2.605
X-1302.488 Y-56.323 Z4.357 I2.846 J0.146
X-1302.338 Y-51.469 Z4.154 I-1.416 J2.473
X-1306.736 Y-53.527 Z3.951 I-1.567 J-2.381
X-1302.913 Y-56.522 Z3.748 I2.832 J-0.322
X-1301.968 Y-51.758 Z3.545 I-0.991 J2.672
X-1306.645 Y-53.067 Z3.342 I-1.936 J-2.091
X-1301.164 Y-54.632 Z3.029 I2.74 J-0.783
X-1301.651 Y-52.104 Z2.936 I-2.74 J0.783
X-1306.479 Y-52.628 Z2.733 I-2.253 J-1.745
X-1303.831 Y-56.699 Z2.53 I2.575 J-1.222
X-1301.396 Y-52.498 Z2.327 I-0.073 J2.849
X-1306.244 Y-52.222 Z2.124 I-2.509 J-1.352
X-1304.299 Y-56.672 Z1.921 I2.34 J-1.627
X-1301.208 Y-52.927 Z1.718 I0.395 J2.822
X-1305.945 Y-51.861 Z1.515 I-2.697 J-0.922
X-1304.757 Y-56.569 Z1.312 I2.041 J-1.989
X-1301.093 Y-53.382 Z1.109 I0.853 J2.719
X-1305.591 Y-51.553 Z0.906 I-2.811 J-0.468
X-1305.192 Y-56.393 Z0.703 I1.687 J-2.297
X-1301.054 Y-53.85 Z0.5 I1.287 J2.543
X-1303.254 Y-51.075 I-2.85
X-1306.532 Y-52.746 I-0.65 J-2.775
X-1305.431 Y-56.257 I2.628 J-1.104
X-1301.054 Y-53.85 I1.527 J2.407
G1 X-1301.041 Y-52.892 F850
X-1301.011 Y-52.776
X-1300.991 Y-52.628
X-1300.989 Y-52.478
X-1301.002 Y-52.328
X-1301.029 Y-52.181
X-1301.068 Y-52.036
X-1301.117 Y-51.894
X-1301.176 Y-51.756
X-1301.244 Y-51.622
X-1301.321 Y-51.493
X-1301.405 Y-51.369
X-1301.496 Y-51.249
X-1301.598 Y-51.132
X-1301.708 Y-51.016
X-1301.828 Y-50.905
X-1301.958 Y-50.798
X-1302.096 Y-50.696
X-1302.243 Y-50.6
X-1302.397 Y-50.51
X-1302.559 Y-50.429
X-1302.728 Y-50.355
X-1302.904 Y-50.29
X-1303.085 Y-50.234
X-1303.271 Y-50.189
X-1303.462 Y-50.153
X-1303.656 Y-50.128
X-1303.853 Y-50.113
X-1304.052 Y-50.11
X-1304.252 Y-50.118
X-1304.453 Y-50.138
X-1304.653 Y-50.168
X-1304.853 Y-50.211
X-1305.051 Y-50.265
X-1305.246 Y-50.33
X-1305.438 Y-50.406
X-1305.626 Y-50.493
X-1305.81 Y-50.591
X-1305.988 Y-50.7
X-1306.16 Y-50.818
X-1306.326 Y-50.947
X-1306.484 Y-51.085
X-1306.635 Y-51.232
X-1306.777 Y-51.387
X-1306.911 Y-51.55
X-1307.036 Y-51.721
X-1307.15 Y-51.899
X-1307.255 Y-52.083
X-1307.349 Y-52.273
X-1307.433 Y-52.468
X-1307.505 Y-52.668
X-1307.566 Y-52.871
X-1307.616 Y-53.078
X-1307.654 Y-53.287
X-1307.68 Y-53.498
X-1307.694 Y-53.711
X-1307.696 Y-53.924
X-1307.686 Y-54.137
X-1307.664 Y-54.349
X-1307.63 Y-54.559
X-1307.585 Y-54.768
X-1307.527 Y-54.973
X-1307.459 Y-55.175
X-1307.379 Y-55.373
X-1307.287 Y-55.566
X-1307.186 Y-55.754
X-1307.073 Y-55.935
X-1306.951 Y-56.11
X-1306.819 Y-56.278
X-1306.678 Y-56.438
X-1306.528 Y-56.59
X-1306.37 Y-56.734
X-1306.204 Y-56.868
X-1306.03 Y-56.993
X-1305.85 Y-57.107
X-1305.663 Y-57.212
X-1305.472 Y-57.305
X-1305.275 Y-57.388
X-1305.073 Y-57.46
X-1304.868 Y-57.52
X-1304.66 Y-57.568
X-1304.45 Y-57.605
X-1304.237 Y-57.63
X-1304.024 Y-57.642
X-1303.81 Y-57.643
X-1303.597 Y-57.632
X-1303.385 Y-57.609
X-1303.174 Y-57.573
X-1302.965 Y-57.526
X-1302.76 Y-57.468
X-1302.558 Y-57.397
X-1302.36 Y-57.316
X-1302.168 Y-57.224
X-1301.98 Y-57.12
X-1301.799 Y-57.007
X-1301.625 Y-56.884
X-1301.458 Y-56.75
X-1301.298 Y-56.608
X-1301.147 Y-56.457
X-1301.005 Y-56.298
X-1300.872 Y-56.13
X-1300.748 Y-55.956
X-1300.635 Y-55.775
X-1300.531 Y-55.588
X-1300.427 Y-55.371
X-1300.298 Y-55.059
X-1300.147 Y-54.623
X-1300.049 Y-54.281
X-1299.982 Y-53.984
X-1299.936 Y-53.712
X-1299.908 Y-53.457
X-1299.901 Y-53.329
X-1299.904 Y-53.072
X-1299.94 Y-52.817
X-1300.008 Y-52.568
X-1300.16 Y-52.131
X-1300.181 Y-52.076
X-1300.207 Y-52.022
X-1300.315 Y-51.848
X-1300.547 Y-51.478
X-1300.694 Y-51.26
X-1300.751 Y-51.202
X-1301.186 Y-50.77
X-1301.362 Y-50.608
X-1301.404 Y-50.58
X-1302.056 Y-50.17
X-1302.111 Y-50.139
X-1302.165 Y-50.115
X-1302.927 Y-49.846
X-1303.036 Y-49.82
X-1303.58 Y-49.758
X-1303.797 Y-49.734
X-1303.906 Y-49.726
X-1304.015 Y-49.735
X-1304.668 Y-49.808
X-1304.777 Y-49.821
X-1304.886 Y-49.847
X-1305.647 Y-50.116
X-1305.702 Y-50.14
X-1305.757 Y-50.172
X-1306.409 Y-50.582
X-1306.448 Y-50.608
X-1306.627 Y-50.772
X-1307.062 Y-51.204
X-1307.116 Y-51.26
X-1307.263 Y-51.478
X-1307.536 Y-51.913
X-1307.603 Y-52.022
X-1307.65 Y-52.131
X-1307.876 Y-52.784
X-1307.911 Y-52.888
X-1307.932 Y-52.993
X-1308.006 Y-53.654
X-1308.024 Y-53.872
X-1308.001 Y-54.089
X-1307.932 Y-54.708
X-1307.927 Y-54.742
X-1307.861 Y-54.96
X-1307.71 Y-55.395
X-1307.634 Y-55.613
X-1307.608 Y-55.667
X-1307.576 Y-55.722
X-1307.167 Y-56.374
X-1307.125 Y-56.429
X-1307.074 Y-56.483
X-1306.518 Y-57.035
X-1306.464 Y-57.081
X-1306.409 Y-57.118
X-1305.756 Y-57.528
X-1305.677 Y-57.571
X-1305.539 Y-57.623
X-1304.886 Y-57.853
X-1304.777 Y-57.879
X-1304.45 Y-57.916
X-1304.015 Y-57.965
X-1303.906 Y-57.974
X-1303.797 Y-57.966
X-1303.145 Y-57.892
X-1303.036 Y-57.88
X-1302.927 Y-57.854
X-1302.274 Y-57.624
X-1302.133 Y-57.571
X-1302.056 Y-57.53
X-1301.404 Y-57.12
X-1301.349 Y-57.083
X-1301.295 Y-57.037
X-1301.174 Y-56.918
X-1300.736 Y-56.483
X-1300.685 Y-56.429
X-1300.644 Y-56.374
X-1300.234 Y-55.722
X-1300.202 Y-55.667
X-1300.176 Y-55.613
X-1300.098 Y-55.39
X-1299.949 Y-54.96
X-1299.88 Y-54.74
X-1299.853 Y-54.525
X-1299.802 Y-54.089
X-1299.779 Y-53.872
X-1299.797 Y-53.654
X-1299.874 Y-53.001
X-1299.88 Y-52.962
X-1299.934 Y-52.784
X-1300.008 Y-52.568
G3 X-1300.134 Y-52.37 I-0.56 J-0.216
G1 X-1300.198 Y-52.302 Z0.507
X-1300.262 Y-52.236 Z0.529
X-1300.322 Y-52.173 Z0.565
X-1300.377 Y-52.115 Z0.615
X-1300.426 Y-52.063 Z0.676
X-1300.468 Y-52.019 Z0.747
X-1300.502 Y-51.983 Z0.828
X-1300.527 Y-51.957 Z0.915
X-1300.542 Y-51.941 Z1.006
X-1300.547 Y-51.936 Z1.1
G0 Z30

(2D Contour3)
S8000 M3
M9
X-1303.9 Y-53.85
Z30
Z20
G1 Z0.5 F850
G3 X-1303.6 Y-54.15 I0.3
G1 X-1299.55
G3 X-1299.25 Y-53.85 J0.3
X-1306.69 Y-50.13 I-4.65
Y-57.57 I2.79 J-3.72
X-1299.25 Y-53.85 I2.79 J3.72
X-1306.69 Y-50.13 I-4.65
Y-57.57 I2.79 J-3.72
X-1299.25 Y-53.85 I2.79 J3.72
X-1299.85 Y-53.25 I-0.6
G1 X-1300.45
G18 G3 X-1301.05 Z1.1 K0.6
G0 Z30
G17

(2D Adaptive3)
S6000 M3
M9
G0 X-174.184 Y-56.686
Z30
Z20
Z18.15
G1 Z17.55 F850
G3 X-171.248 Y-52.818 Z17.347 I0.28 J2.836 F283.3
X-176.025 Y-51.945 Z17.144 I-2.657 J-1.031
X-174.646 Y-56.602 Z16.941 I2.12 J-1.904
X-171.115 Y-53.268 Z16.738 I0.741 J2.752
X-175.684 Y-51.623 Z16.535 I-2.79 J-0.582
X-175.087 Y-56.443 Z16.332 I1.779 J-2.226
X-172.722 Y-51.257 Z16.019 I1.183 J2.593
X-175.294 Y-51.362 Z15.926 I-1.183 J-2.593
X-175.496 Y-56.214 Z15.723 I1.39 J-2.488
X-172.312 Y-51.486 Z15.411 I1.592 J2.364
X-174.867 Y-51.167 Z15.317 I-1.592 J-2.364
X-175.863 Y-55.921 Z15.114 I0.963 J-2.682
X-171.172 Y-54.662 Z14.911 I1.958 J2.071
X-174.414 Y-51.046 Z14.708 I-2.732 J0.812
X-173.395 Y-56.654 Z14.396 I0.51 J-2.804
X-173.947 Y-51 Z14.099 I-0.51 J2.804
X-176.427 Y-55.175 Z13.896 I0.043 J-2.85
X-171.582 Y-55.502 Z13.693 I2.523 J1.326
X-176.227 Y-52.198 Z13.381 I-2.322 J1.652
X-176.611 Y-54.743 Z13.288 I2.322 J-1.652
X-171.885 Y-55.861 Z13.085 I2.706 J0.894
X-173.023 Y-51.14 Z12.882 I-2.02 J2.011
X-176.721 Y-54.287 Z12.679 I-0.882 J-2.71
X-172.242 Y-56.165 Z12.476 I2.816 J0.438
X-172.59 Y-51.321 Z12.273 I-1.662 J2.315
X-176.754 Y-53.82 Z12.07 I-1.314 J-2.529
X-171.055 Y-53.88 Z11.757 I2.85 J-0.03
X-172.193 Y-51.571 Z11.664 I-2.85 J0.03
X-176.711 Y-53.352 Z11.461 I-1.711 J-2.279
X-171.098 Y-54.347 Z11.148 I2.806 J-0.497
X-171.842 Y-51.882 Z11.055 I-2.806 J0.497
X-176.591 Y-52.899 Z10.852 I-2.062 J-1.967
X-171.218 Y-54.801 Z10.539 I2.687 J-0.951
X-176.591 Y-52.899 Z10.226 I-2.687 J0.951
X-171.218 Y-54.801 Z9.914 I2.687 J-0.951
X-171.317 Y-52.656 Z9.837 I-2.687 J0.951
X-176.139 Y-52.081 Z9.634 I-2.588 J-1.194
X-174.474 Y-56.642 Z9.431 I2.234 J-1.769
X-171.156 Y-53.096 Z9.228 I0.569 J2.793
X-175.818 Y-51.738 Z9.025 I-2.749 J-0.753
X-174.924 Y-56.511 Z8.822 I1.914 J-2.112
X-171.069 Y-53.557 Z8.619 I1.02 J2.661
X-175.446 Y-51.453 Z8.416 I-2.835 J-0.292
X-175.347 Y-56.308 Z8.213 I1.542 J-2.397
X-171.06 Y-54.026 Z8.01 I1.443 J2.458
X-175.032 Y-51.232 Z7.807 I-2.844 J0.177
X-175.731 Y-56.038 Z7.604 I1.127 J-2.618
X-171.127 Y-54.491 Z7.401 I1.826 J2.188
X-174.587 Y-51.083 Z7.198 I-2.777 J0.641
X-176.065 Y-55.709 Z6.995 I0.683 J-2.767
X-171.744 Y-51.991 Z6.683 I2.16 J1.859
X-174.124 Y-51.008 Z6.589 I-2.16 J-1.859
X-176.34 Y-55.329 Z6.386 I0.219 J-2.842
X-171.468 Y-52.37 Z6.074 I2.436 J1.479
X-173.655 Y-51.011 Z5.98 I-2.436 J-1.479
X-176.55 Y-54.91 Z5.777 I-0.25 J-2.839
X-171.764 Y-55.732 Z5.574 I2.646 J1.06
X-173.193 Y-51.09 Z5.371 I-2.14 J1.882
X-176.688 Y-54.461 Z5.168 I-0.712 J-2.76
X-172.102 Y-56.057 Z4.965 I2.784 J0.611
X-172.749 Y-51.244 Z4.762 I-1.803 J2.207
X-176.751 Y-53.996 Z4.56 I-1.155 J-2.605
X-172.488 Y-56.323 Z4.357 I2.846 J0.146
X-172.338 Y-51.469 Z4.154 I-1.416 J2.473
X-176.736 Y-53.527 Z3.951 I-1.567 J-2.381
X-172.913 Y-56.522 Z3.748 I2.832 J-0.322
X-171.968 Y-51.758 Z3.545 I-0.991 J2.672
X-176.645 Y-53.067 Z3.342 I-1.936 J-2.091
X-171.164 Y-54.632 Z3.029 I2.74 J-0.783
X-171.651 Y-52.104 Z2.936 I-2.74 J0.783
X-176.479 Y-52.628 Z2.733 I-2.253 J-1.745
X-173.831 Y-56.699 Z2.53 I2.575 J-1.222
X-171.396 Y-52.498 Z2.327 I-0.073 J2.849
X-176.244 Y-52.222 Z2.124 I-2.509 J-1.352
X-174.3 Y-56.672 Z1.921 I2.34 J-1.627
X-171.208 Y-52.927 Z1.718 I0.395 J2.822
X-175.945 Y-51.861 Z1.515 I-2.697 J-0.922
X-174.757 Y-56.569 Z1.312 I2.041 J-1.989
X-171.093 Y-53.382 Z1.109 I0.853 J2.719
X-175.591 Y-51.553 Z0.906 I-2.811 J-0.468
X-175.192 Y-56.393 Z0.703 I1.687 J-2.297
X-171.054 Y-53.85 Z0.5 I1.287 J2.543
X-173.255 Y-51.075 I-2.85
X-176.532 Y-52.746 I-0.65 J-2.775
X-175.431 Y-56.257 I2.628 J-1.104
X-171.054 Y-53.85 I1.527 J2.407
G1 X-171.041 Y-52.892 F850
X-171.011 Y-52.776
X-170.991 Y-52.628
X-170.989 Y-52.478
X-171.003 Y-52.328
X-171.029 Y-52.181
X-171.068 Y-52.036
X-171.117 Y-51.894
X-171.176 Y-51.756
X-171.244 Y-51.622
X-171.321 Y-51.493
X-171.405 Y-51.369
X-171.496 Y-51.249
X-171.598 Y-51.132
X-171.708 Y-51.016
X-171.829 Y-50.905
X-171.958 Y-50.798
X-172.096 Y-50.696
X-172.243 Y-50.6
X-172.397 Y-50.51
X-172.559 Y-50.429
X-172.729 Y-50.355
X-172.904 Y-50.29
X-173.085 Y-50.234
X-173.271 Y-50.189
X-173.462 Y-50.153
X-173.656 Y-50.128
X-173.853 Y-50.113
X-174.052 Y-50.11
X-174.252 Y-50.118
X-174.453 Y-50.138
X-174.654 Y-50.168
X-174.853 Y-50.211
X-175.051 Y-50.265
X-175.246 Y-50.33
X-175.438 Y-50.406
X-175.626 Y-50.493
X-175.81 Y-50.591
X-175.988 Y-50.7
X-176.16 Y-50.818
X-176.326 Y-50.947
X-176.484 Y-51.085
X-176.635 Y-51.232
X-176.778 Y-51.387
X-176.911 Y-51.55
X-177.036 Y-51.721
X-177.151 Y-51.899
X-177.255 Y-52.083
X-177.349 Y-52.273
X-177.433 Y-52.468
X-177.505 Y-52.668
X-177.566 Y-52.871
X-177.616 Y-53.078
X-177.654 Y-53.287
X-177.68 Y-53.498
X-177.694 Y-53.711
X-177.696 Y-53.924
X-177.686 Y-54.137
X-177.664 Y-54.349
X-177.63 Y-54.559
X-177.585 Y-54.768
X-177.527 Y-54.973
X-177.459 Y-55.175
X-177.379 Y-55.373
X-177.288 Y-55.566
X-177.186 Y-55.754
X-177.074 Y-55.935
X-176.951 Y-56.11
X-176.819 Y-56.278
X-176.678 Y-56.438
X-176.528 Y-56.59
X-176.37 Y-56.734
X-176.204 Y-56.868
X-176.03 Y-56.993
X-175.85 Y-57.107
X-175.664 Y-57.212
X-175.472 Y-57.305
X-175.275 Y-57.388
X-175.073 Y-57.46
X-174.868 Y-57.52
X-174.66 Y-57.568
X-174.45 Y-57.605
X-174.237 Y-57.63
X-174.024 Y-57.642
X-173.81 Y-57.643
X-173.597 Y-57.632
X-173.385 Y-57.609
X-173.174 Y-57.573
X-172.965 Y-57.526
X-172.76 Y-57.468
X-172.558 Y-57.397
X-172.36 Y-57.316
X-172.168 Y-57.224
X-171.981 Y-57.12
X-171.8 Y-57.007
X-171.625 Y-56.884
X-171.458 Y-56.75
X-171.299 Y-56.608
X-171.147 Y-56.457
X-171.005 Y-56.298
X-170.872 Y-56.13
X-170.748 Y-55.956
X-170.635 Y-55.775
X-170.531 Y-55.588
X-170.427 Y-55.371
X-170.298 Y-55.059
X-170.147 Y-54.623
X-170.049 Y-54.281
X-169.982 Y-53.984
X-169.936 Y-53.712
X-169.908 Y-53.457
X-169.901 Y-53.329
X-169.904 Y-53.072
X-169.94 Y-52.817
X-170.009 Y-52.568
X-170.16 Y-52.131
X-170.181 Y-52.076
X-170.208 Y-52.022
X-170.316 Y-51.848
X-170.547 Y-51.478
X-170.694 Y-51.26
X-170.751 Y-51.202
X-171.186 Y-50.77
X-171.363 Y-50.608
X-171.404 Y-50.58
X-172.057 Y-50.17
X-172.111 Y-50.139
X-172.165 Y-50.115
X-172.927 Y-49.846
X-173.036 Y-49.82
X-173.58 Y-49.758
X-173.798 Y-49.734
X-173.906 Y-49.726
X-174.015 Y-49.735
X-174.668 Y-49.808
X-174.777 Y-49.821
X-174.886 Y-49.847
X-175.647 Y-50.116
X-175.702 Y-50.14
X-175.757 Y-50.172
X-176.409 Y-50.582
X-176.448 Y-50.608
X-176.627 Y-50.772
X-177.062 Y-51.204
X-177.116 Y-51.26
X-177.263 Y-51.478
X-177.536 Y-51.913
X-177.603 Y-52.022
X-177.65 Y-52.131
X-177.876 Y-52.784
X-177.912 Y-52.888
X-177.933 Y-52.993
X-178.006 Y-53.654
X-178.024 Y-53.872
X-178.002 Y-54.089
X-177.933 Y-54.708
X-177.928 Y-54.742
X-177.861 Y-54.96
X-177.71 Y-55.395
X-177.634 Y-55.613
X-177.609 Y-55.667
X-177.576 Y-55.722
X-177.167 Y-56.374
X-177.125 Y-56.429
X-177.074 Y-56.483
X-176.518 Y-57.035
X-176.464 Y-57.081
X-176.409 Y-57.118
X-175.756 Y-57.528
X-175.678 Y-57.571
X-175.539 Y-57.623
X-174.886 Y-57.853
X-174.777 Y-57.879
X-174.451 Y-57.916
X-174.015 Y-57.965
X-173.906 Y-57.974
X-173.798 Y-57.966
X-173.145 Y-57.892
X-173.036 Y-57.88
X-172.927 Y-57.854
X-172.274 Y-57.624
X-172.133 Y-57.571
X-172.057 Y-57.53
X-171.404 Y-57.12
X-171.349 Y-57.083
X-171.295 Y-57.037
X-171.174 Y-56.918
X-170.736 Y-56.483
X-170.685 Y-56.429
X-170.644 Y-56.374
X-170.234 Y-55.722
X-170.202 Y-55.667
X-170.176 Y-55.613
X-170.098 Y-55.39
X-169.949 Y-54.96
X-169.88 Y-54.74
X-169.854 Y-54.525
X-169.802 Y-54.089
X-169.779 Y-53.872
X-169.797 Y-53.654
X-169.874 Y-53.001
X-169.88 Y-52.962
X-169.934 Y-52.784
X-170.009 Y-52.568
G3 X-170.134 Y-52.37 I-0.56 J-0.216
G1 X-170.199 Y-52.302 Z0.507
X-170.262 Y-52.236 Z0.529
X-170.322 Y-52.173 Z0.565
X-170.377 Y-52.115 Z0.615
X-170.426 Y-52.063 Z0.676
X-170.469 Y-52.019 Z0.747
X-170.502 Y-51.983 Z0.828
X-170.527 Y-51.957 Z0.915
X-170.543 Y-51.941 Z1.006
X-170.548 Y-51.936 Z1.1
G0 Z30

(2D Contour3)
S8000 M3
M9
X-173.9 Y-53.85
Z30
Z20
G1 Z0.5 F850
G3 X-173.6 Y-54.15 I0.3
G1 X-169.55
G3 X-169.25 Y-53.85 J0.3
X-176.69 Y-50.13 I-4.65
Y-57.57 I2.79 J-3.72
X-169.25 Y-53.85 I2.79 J3.72
X-176.69 Y-50.13 I-4.65
Y-57.57 I2.79 J-3.72
X-169.25 Y-53.85 I2.79 J3.72
X-169.85 Y-53.25 I-0.6
G1 X-170.45
G18 G3 X-171.05 Z1.1 K0.6
G0 Z30
G17

(2D Adaptive2)
S6000 M3
M9
G0 X-1334.477 Y-74.245
Z30
Z20
Z18.1
G1 Z17.5 F850
G3 X-1336.79 Y-73.352 Z17.396 I-1.427 J-0.255 F283.3
X-1336.513 Y-75.816 Z17.292 I0.886 J-1.148
X-1334.456 Y-74.432 Z17.188 I0.609 J1.316
X-1336.634 Y-73.247 Z17.085 I-1.448 J-0.068
X-1336.678 Y-75.726 Z16.981 I0.73 J-1.253
X-1334.459 Y-74.62 Z16.877 I0.774 J1.226
X-1336.465 Y-73.163 Z16.773 I-1.445 J0.12
X-1336.83 Y-75.616 Z16.669 I0.562 J-1.337
X-1334.487 Y-74.805 Z16.565 I0.926 J1.116
X-1336.288 Y-73.102 Z16.461 I-1.417 J0.306
X-1336.966 Y-75.486 Z16.358 I0.384 J-1.398
X-1334.538 Y-74.986 Z16.254 I1.063 J0.987
X-1336.104 Y-73.064 Z16.15 I-1.366 J0.486
X-1337.085 Y-75.341 Z16.046 I0.2 J-1.436
X-1334.723 Y-73.659 Z15.887 I1.181 J0.841
X-1337.184 Y-75.181 Z15.734 I-1.181 J-0.841
X-1334.708 Y-75.32 Z15.63 I1.28 J0.681
X-1337.1 Y-73.679 Z15.471 I-1.196 J0.82
X-1337.261 Y-75.01 Z15.423 I1.196 J-0.82
X-1334.824 Y-75.468 Z15.319 I1.357 J0.51
X-1335.544 Y-73.095 Z15.215 I-1.079 J0.968
X-1337.316 Y-74.83 Z15.111 I-0.36 J-1.405
X-1334.959 Y-75.599 Z15.007 I1.412 J0.33
X-1335.366 Y-73.153 Z14.903 I-0.945 J1.1
X-1337.347 Y-74.645 Z14.8 I-0.538 J-1.346
X-1335.109 Y-75.712 Z14.696 I1.443 J0.145
X-1335.196 Y-73.234 Z14.592 I-0.795 J1.213
X-1336.612 Y-75.765 Z14.433 I-0.708 J-1.265
X-1335.272 Y-75.805 Z14.384 I0.708 J1.266
X-1335.038 Y-73.336 Z14.28 I-0.632 J1.305
X-1336.769 Y-75.663 Z14.121 I-0.865 J-1.163
X-1335.446 Y-75.876 Z14.073 I0.865 J1.163
X-1334.895 Y-73.458 Z13.969 I-0.458 J1.376
X-1336.913 Y-75.541 Z13.81 I-1.009 J-1.042
X-1335.628 Y-75.923 Z13.761 I1.009 J1.042
X-1334.769 Y-73.597 Z13.657 I-0.276 J1.424
X-1337.229 Y-73.91 Z13.553 I-1.135 J-0.902
X-1334.579 Y-75.089 Z13.394 I1.325 J-0.589
X-1337.141 Y-73.744 Z13.242 I-1.325 J0.589
X-1336.002 Y-75.946 Z13.138 I1.237 J-0.756
X-1334.576 Y-73.918 Z13.034 I0.098 J1.447
X-1337.033 Y-73.59 Z12.93 I-1.328 J-0.581
X-1336.189 Y-75.922 Z12.826 I1.129 J-0.909
X-1334.512 Y-74.095 Z12.722 I0.285 J1.422
X-1336.906 Y-73.452 Z12.619 I-1.392 J-0.405
X-1336.37 Y-75.873 Z12.515 I1.002 J-1.048
X-1334.471 Y-74.279 Z12.411 I0.466 J1.373
X-1336.762 Y-73.331 Z12.307 I-1.433 J-0.221
X-1336.544 Y-75.801 Z12.203 I0.858 J-1.169
X-1335.264 Y-73.198 Z12.044 I0.64 J1.301
X-1336.707 Y-75.707 Z11.891 I-0.64 J-1.301
X-1334.462 Y-74.653 Z11.788 I0.803 J1.208
X-1336.434 Y-73.15 Z11.684 I-1.442 J0.154
X-1336.856 Y-75.593 Z11.58 I0.53 J-1.35
X-1334.494 Y-74.839 Z11.476 I0.952 J1.094
X-1336.255 Y-73.093 Z11.372 I-1.41 J0.339
X-1336.989 Y-75.461 Z11.268 I0.351 J-1.407
X-1334.55 Y-75.018 Z11.164 I1.085 J0.961
X-1336.07 Y-73.059 Z11.061 I-1.354 J0.518
X-1337.105 Y-75.313 Z10.957 I0.166 J-1.44
X-1334.628 Y-75.189 Z10.853 I1.201 J0.813
X-1335.882 Y-73.05 Z10.749 I-1.276 J0.689
X-1337.2 Y-75.151 Z10.645 I-0.021 J-1.45
X-1334.608 Y-73.849 Z10.486 I1.296 J0.651
X-1335.695 Y-73.065 Z10.437 I-1.296 J-0.651
X-1337.273 Y-74.978 Z10.334 I-0.209 J-1.435
X-1334.535 Y-74.022 Z10.174 I1.369 J0.478
X-1335.511 Y-73.104 Z10.126 I-1.369 J-0.478
X-1337.323 Y-74.797 Z10.022 I-0.393 J-1.396
X-1334.985 Y-75.621 Z9.918 I1.419 J0.297
X-1335.334 Y-73.166 Z9.814 I-0.919 J1.121
X-1337.35 Y-74.611 Z9.71 I-0.57 J-1.333
X-1334.458 Y-74.389 Z9.551 I1.446 J0.111
X-1335.167 Y-73.251 Z9.503 I-1.446 J-0.111
X-1337.352 Y-74.423 Z9.399 I-0.737 J-1.249
X-1335.303 Y-75.819 Z9.295 I1.448 J-0.077
X-1335.011 Y-73.357 Z9.191 I-0.601 J1.32
X-1337.33 Y-74.236 Z9.087 I-0.893 J-1.143
X-1335.479 Y-75.886 Z8.983 I1.426 J-0.264
X-1336.329 Y-73.114 Z8.824 I-0.425 J1.386
X-1337.284 Y-74.054 Z8.776 I0.425 J-1.386
X-1335.661 Y-75.929 Z8.672 I1.38 J-0.446
X-1334.748 Y-73.624 Z8.568 I-0.242 J1.43
X-1337.215 Y-73.879 Z8.464 I-1.156 J-0.876
X-1335.848 Y-75.949 Z8.36 I1.311 J-0.62
X-1335.959 Y-73.051 Z8.201 I-0.056 J1.449
X-1337.123 Y-73.715 Z8.152 I0.056 J-1.449
X-1336.036 Y-75.944 Z8.049 I1.219 J-0.785
X-1334.562 Y-73.95 Z7.945 I0.132 J1.444
X-1337.012 Y-73.564 Z7.841 I-1.342 J-0.55
X-1336.222 Y-75.915 Z7.737 I1.108 J-0.936
X-1334.502 Y-74.128 Z7.633 I0.318 J1.415
X-1336.881 Y-73.429 Z7.529 I-1.401 J-0.372
X-1336.402 Y-75.862 Z7.425 I0.977 J-1.071
X-1334.466 Y-74.312 Z7.322 I0.498 J1.362
X-1336.735 Y-73.311 Z7.218 I-1.438 J-0.187
X-1336.574 Y-75.786 Z7.114 I0.831 J-1.188
X-1334.454 Y-74.5 Z7.01 I0.67 J1.286
X-1336.242 Y-73.09 I-1.45
X-1337.197 Y-75.157 I0.338 J-1.41
X-1335.247 Y-75.793 I1.293 J0.657
X-1334.454 Y-74.5 I-0.657 J1.293
G1 X-1334.453 Y-74.416 F850
X-1334.472 Y-74.25
X-1334.504 Y-74.085
X-1334.51 Y-74.064
X-1334.599 Y-73.863
X-1334.644 Y-73.766
X-1334.705 Y-73.668
X-1334.883 Y-73.46
X-1334.906 Y-73.435
X-1334.957 Y-73.388
X-1335.007 Y-73.35
X-1335.15 Y-73.259
X-1335.309 Y-73.166
X-1335.51 Y-73.1
X-1335.666 Y-73.058
X-1335.712 Y-73.05
X-1335.913 Y-73.046
X-1336.115 Y-73.052
X-1336.144 Y-73.058
X-1336.316 Y-73.105
X-1336.517 Y-73.173
X-1336.661 Y-73.259
X-1336.819 Y-73.362
X-1336.87 Y-73.403
X-1336.92 Y-73.453
X-1337.1 Y-73.662
X-1337.121 Y-73.691
X-1337.172 Y-73.777
X-1337.211 Y-73.863
X-1337.298 Y-74.064
X-1337.323 Y-74.169
X-1337.337 Y-74.266
X-1337.363 Y-74.467
X-1337.36 Y-74.568
X-1337.323 Y-74.831
X-1337.316 Y-74.87
X-1337.285 Y-74.97
X-1337.241 Y-75.071
X-1337.146 Y-75.272
X-1337.121 Y-75.31
X-1336.984 Y-75.474
X-1336.92 Y-75.547
X-1336.881 Y-75.587
X-1336.842 Y-75.62
X-1336.763 Y-75.675
X-1336.719 Y-75.704
X-1336.517 Y-75.827
X-1336.378 Y-75.877
X-1336.316 Y-75.895
X-1336.115 Y-75.948
X-1335.913 Y-75.954
X-1335.712 Y-75.95
X-1335.611 Y-75.93
X-1335.432 Y-75.877
X-1335.309 Y-75.835
X-1335.108 Y-75.714
X-1335.047 Y-75.675
X-1334.977 Y-75.628
X-1334.906 Y-75.564
X-1334.826 Y-75.474
X-1334.705 Y-75.332
X-1334.665 Y-75.272
X-1334.569 Y-75.071
X-1334.504 Y-74.916
X-1334.491 Y-74.87
X-1334.459 Y-74.668
X-1334.444 Y-74.568
X-1334.441 Y-74.467
X-1334.469 Y-74.266
X-1334.472 Y-74.25
X-1334.493 Y-74.2 Z7.017
X-1334.514 Y-74.152 Z7.036
X-1334.532 Y-74.11 Z7.067
X-1334.547 Y-74.076 Z7.108
X-1334.558 Y-74.051 Z7.157
X-1334.565 Y-74.04 Z7.2
X-1334.568 Y-74.037 Z7.246
G0 Z20
X-1335.918 Y-73.05
Z10.11
G1 Z9.51 F850
G3 X-1337.201 Y-75.149 Z9.407 I0.015 J-1.45 F283.3
X-1334.752 Y-75.38 Z9.305 I1.297 J0.649
X-1337.056 Y-73.619 Z9.146 I-1.152 J0.881
X-1337.307 Y-74.866 Z9.1 I1.152 J-0.881
X-1334.501 Y-74.133 Z8.941 I1.403 J0.367
X-1335.33 Y-73.168 Z8.895 I-1.403 J-0.367
X-1337.352 Y-74.568 Z8.792 I-0.574 J-1.332
X-1334.456 Y-74.432 Z8.633 I1.448 J0.068
X-1337.335 Y-74.267 Z8.485 I-1.448 J-0.068
X-1334.473 Y-74.733 Z8.326 I1.431 J-0.233
X-1337.256 Y-73.975 Z8.177 I-1.431 J0.233
X-1334.552 Y-75.024 Z8.018 I1.352 J-0.524
X-1334.659 Y-73.757 Z7.972 I-1.352 J0.524
X-1337.118 Y-73.707 Z7.87 I-1.245 J-0.743
X-1334.69 Y-75.293 Z7.71 I1.214 J-0.793
X-1334.532 Y-74.03 Z7.664 I-1.214 J0.793
X-1336.927 Y-73.473 Z7.562 I-1.372 J-0.469
X-1334.88 Y-75.527 Z7.403 I1.024 J-1.027
X-1334.465 Y-74.325 Z7.357 I-1.024 J1.027
X-1336.693 Y-73.283 Z7.254 I-1.439 J-0.175
X-1336.651 Y-75.742 Z7.152 I0.789 J-1.217
X-1335.156 Y-73.257 Z6.993 I0.747 J1.242
X-1336.651 Y-75.742 Z6.834 I-0.747 J-1.243
X-1334.517 Y-74.923 Z6.742 I0.747 J1.243
X-1336.132 Y-73.068 Z6.639 I-1.387 J0.423
X-1337.091 Y-75.333 Z6.537 I0.228 J-1.432
X-1334.635 Y-75.201 Z6.434 I1.187 J0.833
X-1337.173 Y-73.799 Z6.275 I-1.269 J0.701
X-1334.635 Y-75.201 Z6.116 I1.269 J-0.701
X-1335.532 Y-73.098 Z6.024 I-1.269 J0.701
X-1336.275 Y-75.901 Z5.865 I-0.371 J-1.402
X-1335.027 Y-75.655 Z5.819 I0.371 J1.402
X-1335.25 Y-73.205 Z5.716 I-0.876 J1.155
X-1337.354 Y-74.48 Z5.614 I-0.654 J-1.294
X-1335.286 Y-75.811 Z5.511 I1.45 J-0.02
X-1334.997 Y-73.369 Z5.409 I-0.618 J1.312
X-1337.318 Y-74.18 Z5.306 I-0.907 J-1.131
X-1334.49 Y-74.819 Z5.147 I1.414 J-0.319
X-1334.782 Y-73.581 Z5.101 I-1.414 J0.319
X-1337.222 Y-73.895 Z4.999 I-1.122 J-0.919
X-1335.87 Y-75.949 Z4.896 I1.318 J-0.605
X-1334.616 Y-73.833 Z4.794 I-0.034 J1.45
X-1337.068 Y-73.635 Z4.691 I-1.288 J-0.666
X-1334.74 Y-75.365 Z4.532 I1.164 J-0.865
X-1334.506 Y-74.114 Z4.486 I-1.164 J0.865
X-1336.864 Y-73.413 Z4.383 I-1.398 J-0.385
X-1336.46 Y-75.839 Z4.281 I0.96 J-1.087
X-1334.457 Y-74.412 Z4.178 I0.556 J1.339
X-1337.351 Y-74.587 Z4.019 I-1.447 J-0.088
X-1336.725 Y-75.695 Z3.973 I1.447 J0.088
X-1334.47 Y-74.714 Z3.871 I0.821 J1.195
X-1336.341 Y-73.117 Z3.768 I-1.434 J0.214
X-1336.955 Y-75.499 Z3.666 I0.437 J-1.383
X-1334.545 Y-75.006 Z3.563 I1.051 J0.999
X-1337.263 Y-73.994 Z3.404 I-1.359 J0.506
X-1337.139 Y-75.26 Z3.358 I1.359 J-0.506
X-1334.679 Y-75.276 Z3.256 I1.235 J0.76
X-1337.129 Y-73.723 Z3.097 I-1.225 J0.776
X-1334.867 Y-75.513 Z2.948 I1.225 J-0.776
X-1336.941 Y-73.487 Z2.789 I-1.037 J1.013
X-1335.099 Y-75.706 Z2.64 I1.037 J-1.013
X-1335.173 Y-73.247 Z2.538 I-0.805 J1.206
X-1337.35 Y-74.393 Z2.435 I-0.731 J-1.252
X-1334.458 Y-74.607 Z2.276 I1.446 J-0.107
X-1334.93 Y-73.426 Z2.23 I-1.446 J0.107
X-1337.296 Y-74.096 Z2.128 I-0.974 J-1.074
X-1334.511 Y-74.904 Z1.969 I1.392 J-0.404
X-1334.729 Y-73.651 Z1.923 I-1.393 J0.404
X-1337.183 Y-73.816 Z1.82 I-1.175 J-0.849
X-1334.625 Y-75.184 Z1.661 I1.279 J-0.684
X-1334.578 Y-73.912 Z1.615 I-1.279 J0.684
X-1337.23 Y-75.087 Z1.456 I-1.326 J-0.587
X-1336.256 Y-75.906 Z1.41 I1.326 J0.587
X-1334.485 Y-74.2 Z1.308 I0.353 J1.407
X-1336.796 Y-73.357 Z1.205 I-1.419 J-0.3
X-1336.54 Y-75.803 Z1.103 I0.892 J-1.143
X-1334.454 Y-74.5 Z1 I0.636 J1.303
X-1336.242 Y-73.09 I-1.45
X-1337.197 Y-75.157 I0.338 J-1.41
X-1335.247 Y-75.793 I1.293 J0.657
X-1334.454 Y-74.5 I-0.657 J1.293
G1 X-1334.453 Y-74.416 F850
X-1334.472 Y-74.25
X-1334.504 Y-74.085
X-1334.51 Y-74.064
X-1334.599 Y-73.863
X-1334.644 Y-73.766
X-1334.705 Y-73.668
X-1334.883 Y-73.46
X-1334.906 Y-73.435
X-1334.957 Y-73.388
X-1335.007 Y-73.35
X-1335.15 Y-73.259
X-1335.309 Y-73.166
X-1335.51 Y-73.1
X-1335.666 Y-73.058
X-1335.712 Y-73.05
X-1335.913 Y-73.046
X-1336.115 Y-73.052
X-1336.144 Y-73.058
X-1336.316 Y-73.105
X-1336.517 Y-73.173
X-1336.661 Y-73.259
X-1336.819 Y-73.362
X-1336.87 Y-73.403
X-1336.92 Y-73.453
X-1337.1 Y-73.662
X-1337.121 Y-73.691
X-1337.172 Y-73.777
X-1337.211 Y-73.863
X-1337.298 Y-74.064
X-1337.323 Y-74.169
X-1337.337 Y-74.266
X-1337.363 Y-74.467
X-1337.36 Y-74.568
X-1337.323 Y-74.831
X-1337.316 Y-74.87
X-1337.285 Y-74.97
X-1337.241 Y-75.071
X-1337.146 Y-75.272
X-1337.121 Y-75.31
X-1336.984 Y-75.474
X-1336.92 Y-75.547
X-1336.881 Y-75.587
X-1336.842 Y-75.62
X-1336.763 Y-75.675
X-1336.719 Y-75.704
X-1336.517 Y-75.827
X-1336.378 Y-75.877
X-1336.316 Y-75.895
X-1336.115 Y-75.948
X-1335.913 Y-75.954
X-1335.712 Y-75.95
X-1335.611 Y-75.93
X-1335.432 Y-75.877
X-1335.309 Y-75.835
X-1335.108 Y-75.714
X-1335.047 Y-75.675
X-1334.977 Y-75.628
X-1334.906 Y-75.564
X-1334.826 Y-75.474
X-1334.705 Y-75.332
X-1334.665 Y-75.272
X-1334.569 Y-75.071
X-1334.504 Y-74.916
X-1334.491 Y-74.87
X-1334.459 Y-74.668
X-1334.444 Y-74.568
X-1334.441 Y-74.467
X-1334.469 Y-74.266
X-1334.472 Y-74.25
G3 X-1334.568 Y-74.037 I-0.585 J-0.134
G1 X-1334.622 Y-73.96 Z1.007
X-1334.675 Y-73.885 Z1.029
X-1334.725 Y-73.815 Z1.065
X-1334.772 Y-73.749 Z1.115
X-1334.814 Y-73.691 Z1.176
X-1334.849 Y-73.641 Z1.247
X-1334.878 Y-73.601 Z1.328
X-1334.898 Y-73.572 Z1.415
X-1334.911 Y-73.554 Z1.506
X-1334.916 Y-73.548 Z1.6
G0 Z30

(2D Adaptive2)
M9
X-1334.477 Y-266.245
Z30
Z20
Z18.1
G1 Z17.5 F850
G3 X-1336.79 Y-265.352 Z17.396 I-1.427 J-0.255 F283.3
X-1336.513 Y-267.816 Z17.292 I0.886 J-1.148
X-1334.456 Y-266.432 Z17.188 I0.609 J1.316
X-1336.634 Y-265.247 Z17.085 I-1.448 J-0.068
X-1336.678 Y-267.726 Z16.981 I0.73 J-1.253
X-1334.459 Y-266.62 Z16.877 I0.774 J1.226
X-1336.465 Y-265.163 Z16.773 I-1.445 J0.12
X-1336.83 Y-267.616 Z16.669 I0.562 J-1.337
X-1334.487 Y-266.805 Z16.565 I0.926 J1.116
X-1336.288 Y-265.102 Z16.461 I-1.417 J0.306
X-1336.966 Y-267.486 Z16.358 I0.384 J-1.398
X-1334.538 Y-266.986 Z16.254 I1.063 J0.987
X-1336.104 Y-265.064 Z16.15 I-1.366 J0.486
X-1337.085 Y-267.341 Z16.046 I0.2 J-1.436
X-1334.723 Y-265.659 Z15.887 I1.181 J0.841
X-1337.184 Y-267.181 Z15.734 I-1.181 J-0.841
X-1334.708 Y-267.32 Z15.63 I1.28 J0.681
X-1337.1 Y-265.679 Z15.471 I-1.196 J0.82
X-1337.261 Y-267.01 Z15.423 I1.196 J-0.82
X-1334.824 Y-267.468 Z15.319 I1.357 J0.51
X-1335.544 Y-265.095 Z15.215 I-1.079 J0.968
X-1337.316 Y-266.83 Z15.111 I-0.36 J-1.405
X-1334.959 Y-267.599 Z15.007 I1.412 J0.33
X-1335.366 Y-265.153 Z14.903 I-0.945 J1.1
X-1337.347 Y-266.645 Z14.8 I-0.538 J-1.346
X-1335.109 Y-267.712 Z14.696 I1.443 J0.145
X-1335.196 Y-265.234 Z14.592 I-0.795 J1.213
X-1336.612 Y-267.765 Z14.433 I-0.708 J-1.265
X-1335.272 Y-267.805 Z14.384 I0.708 J1.266
X-1335.038 Y-265.336 Z14.28 I-0.632 J1.305
X-1336.769 Y-267.663 Z14.121 I-0.865 J-1.163
X-1335.446 Y-267.876 Z14.073 I0.865 J1.163
X-1334.895 Y-265.458 Z13.969 I-0.458 J1.376
X-1336.913 Y-267.541 Z13.81 I-1.009 J-1.042
X-1335.628 Y-267.923 Z13.761 I1.009 J1.042
X-1334.769 Y-265.597 Z13.657 I-0.276 J1.424
X-1337.229 Y-265.91 Z13.553 I-1.135 J-0.902
X-1334.579 Y-267.089 Z13.394 I1.325 J-0.589
X-1337.141 Y-265.744 Z13.242 I-1.325 J0.589
X-1336.002 Y-267.946 Z13.138 I1.237 J-0.756
X-1334.576 Y-265.918 Z13.034 I0.098 J1.447
X-1337.033 Y-265.59 Z12.93 I-1.328 J-0.581
X-1336.189 Y-267.922 Z12.826 I1.129 J-0.909
X-1334.512 Y-266.095 Z12.722 I0.285 J1.422
X-1336.906 Y-265.452 Z12.619 I-1.392 J-0.405
X-1336.37 Y-267.873 Z12.515 I1.002 J-1.048
X-1334.471 Y-266.279 Z12.411 I0.466 J1.373
X-1336.762 Y-265.331 Z12.307 I-1.433 J-0.221
X-1336.544 Y-267.801 Z12.203 I0.858 J-1.169
X-1335.264 Y-265.198 Z12.044 I0.64 J1.301
X-1336.707 Y-267.707 Z11.891 I-0.64 J-1.301
X-1334.462 Y-266.653 Z11.788 I0.803 J1.208
X-1336.434 Y-265.15 Z11.684 I-1.442 J0.154
X-1336.856 Y-267.593 Z11.58 I0.53 J-1.35
X-1334.494 Y-266.839 Z11.476 I0.952 J1.094
X-1336.255 Y-265.093 Z11.372 I-1.41 J0.339
X-1336.989 Y-267.461 Z11.268 I0.351 J-1.407
X-1334.55 Y-267.018 Z11.164 I1.085 J0.961
X-1336.07 Y-265.059 Z11.061 I-1.354 J0.518
X-1337.105 Y-267.313 Z10.957 I0.166 J-1.44
X-1334.628 Y-267.189 Z10.853 I1.201 J0.813
X-1335.882 Y-265.05 Z10.749 I-1.276 J0.689
X-1337.2 Y-267.151 Z10.645 I-0.021 J-1.45
X-1334.608 Y-265.849 Z10.486 I1.296 J0.651
X-1335.695 Y-265.065 Z10.437 I-1.296 J-0.651
X-1337.273 Y-266.978 Z10.334 I-0.209 J-1.435
X-1334.535 Y-266.022 Z10.174 I1.369 J0.478
X-1335.511 Y-265.104 Z10.126 I-1.369 J-0.478
X-1337.323 Y-266.797 Z10.022 I-0.393 J-1.396
X-1334.985 Y-267.621 Z9.918 I1.419 J0.297
X-1335.334 Y-265.166 Z9.814 I-0.919 J1.121
X-1337.35 Y-266.611 Z9.71 I-0.57 J-1.333
X-1334.458 Y-266.389 Z9.551 I1.446 J0.111
X-1335.167 Y-265.251 Z9.503 I-1.446 J-0.111
X-1337.352 Y-266.423 Z9.399 I-0.737 J-1.249
X-1335.303 Y-267.819 Z9.295 I1.448 J-0.077
X-1335.011 Y-265.357 Z9.191 I-0.601 J1.32
X-1337.33 Y-266.236 Z9.087 I-0.893 J-1.143
X-1335.479 Y-267.886 Z8.983 I1.426 J-0.264
X-1336.329 Y-265.114 Z8.824 I-0.425 J1.386
X-1337.284 Y-266.054 Z8.776 I0.425 J-1.386
X-1335.661 Y-267.929 Z8.672 I1.38 J-0.446
X-1334.748 Y-265.624 Z8.568 I-0.242 J1.43
X-1337.215 Y-265.879 Z8.464 I-1.156 J-0.876
X-1335.848 Y-267.949 Z8.36 I1.311 J-0.62
X-1335.959 Y-265.051 Z8.201 I-0.056 J1.449
X-1337.123 Y-265.715 Z8.152 I0.056 J-1.449
X-1336.036 Y-267.944 Z8.049 I1.219 J-0.785
X-1334.562 Y-265.95 Z7.945 I0.132 J1.444
X-1337.012 Y-265.564 Z7.841 I-1.342 J-0.55
X-1336.222 Y-267.915 Z7.737 I1.108 J-0.936
X-1334.502 Y-266.128 Z7.633 I0.318 J1.415
X-1336.881 Y-265.429 Z7.529 I-1.401 J-0.372
X-1336.402 Y-267.862 Z7.425 I0.977 J-1.071
X-1334.466 Y-266.312 Z7.322 I0.498 J1.362
X-1336.735 Y-265.311 Z7.218 I-1.438 J-0.187
X-1336.574 Y-267.786 Z7.114 I0.831 J-1.188
X-1334.454 Y-266.5 Z7.01 I0.67 J1.286
X-1336.242 Y-265.09 I-1.45
X-1337.197 Y-267.157 I0.338 J-1.41
X-1335.247 Y-267.793 I1.293 J0.657
X-1334.454 Y-266.5 I-0.657 J1.293
G1 X-1334.453 Y-266.416 F850
X-1334.472 Y-266.25
X-1334.504 Y-266.085
X-1334.51 Y-266.064
X-1334.599 Y-265.863
X-1334.644 Y-265.766
X-1334.705 Y-265.668
X-1334.883 Y-265.46
X-1334.906 Y-265.435
X-1334.957 Y-265.388
X-1335.007 Y-265.35
X-1335.15 Y-265.259
X-1335.309 Y-265.166
X-1335.51 Y-265.1
X-1335.666 Y-265.058
X-1335.712 Y-265.05
X-1335.913 Y-265.046
X-1336.115 Y-265.052
X-1336.144 Y-265.058
X-1336.316 Y-265.105
X-1336.517 Y-265.173
X-1336.661 Y-265.259
X-1336.819 Y-265.362
X-1336.87 Y-265.403
X-1336.92 Y-265.453
X-1337.1 Y-265.662
X-1337.121 Y-265.691
X-1337.172 Y-265.777
X-1337.211 Y-265.863
X-1337.298 Y-266.064
X-1337.323 Y-266.169
X-1337.337 Y-266.266
X-1337.363 Y-266.467
X-1337.36 Y-266.568
X-1337.323 Y-266.831
X-1337.316 Y-266.87
X-1337.285 Y-266.97
X-1337.241 Y-267.071
X-1337.146 Y-267.272
X-1337.121 Y-267.31
X-1336.984 Y-267.474
X-1336.92 Y-267.547
X-1336.881 Y-267.587
X-1336.842 Y-267.62
X-1336.763 Y-267.675
X-1336.719 Y-267.704
X-1336.517 Y-267.827
X-1336.378 Y-267.877
X-1336.316 Y-267.895
X-1336.115 Y-267.948
X-1335.913 Y-267.954
X-1335.712 Y-267.95
X-1335.611 Y-267.93
X-1335.432 Y-267.877
X-1335.309 Y-267.835
X-1335.108 Y-267.714
X-1335.047 Y-267.675
X-1334.977 Y-267.628
X-1334.906 Y-267.564
X-1334.826 Y-267.474
X-1334.705 Y-267.332
X-1334.665 Y-267.272
X-1334.569 Y-267.071
X-1334.504 Y-266.916
X-1334.491 Y-266.87
X-1334.459 Y-266.668
X-1334.444 Y-266.568
X-1334.441 Y-266.467
X-1334.469 Y-266.266
X-1334.472 Y-266.25
X-1334.493 Y-266.2 Z7.017
X-1334.514 Y-266.152 Z7.036
X-1334.532 Y-266.11 Z7.067
X-1334.547 Y-266.076 Z7.108
X-1334.558 Y-266.051 Z7.157
X-1334.565 Y-266.04 Z7.2
X-1334.568 Y-266.037 Z7.246
G0 Z20
X-1335.918 Y-265.05
Z10.11
G1 Z9.51 F850
G3 X-1337.201 Y-267.149 Z9.407 I0.015 J-1.45 F283.3
X-1334.752 Y-267.38 Z9.305 I1.297 J0.649
X-1337.056 Y-265.619 Z9.146 I-1.152 J0.881
X-1337.307 Y-266.866 Z9.1 I1.152 J-0.881
X-1334.501 Y-266.133 Z8.941 I1.403 J0.367
X-1335.33 Y-265.168 Z8.895 I-1.403 J-0.367
X-1337.352 Y-266.568 Z8.792 I-0.574 J-1.332
X-1334.456 Y-266.432 Z8.633 I1.448 J0.068
X-1337.335 Y-266.267 Z8.485 I-1.448 J-0.068
X-1334.473 Y-266.733 Z8.326 I1.431 J-0.233
X-1337.256 Y-265.975 Z8.177 I-1.431 J0.233
X-1334.552 Y-267.024 Z8.018 I1.352 J-0.524
X-1334.659 Y-265.757 Z7.972 I-1.352 J0.524
X-1337.118 Y-265.707 Z7.87 I-1.245 J-0.743
X-1334.69 Y-267.293 Z7.71 I1.214 J-0.793
X-1334.532 Y-266.03 Z7.664 I-1.214 J0.793
X-1336.927 Y-265.473 Z7.562 I-1.372 J-0.469
X-1334.88 Y-267.527 Z7.403 I1.024 J-1.027
X-1334.465 Y-266.325 Z7.357 I-1.024 J1.027
X-1336.693 Y-265.283 Z7.254 I-1.439 J-0.175
X-1336.651 Y-267.742 Z7.152 I0.789 J-1.217
X-1335.156 Y-265.257 Z6.993 I0.747 J1.242
X-1336.651 Y-267.742 Z6.834 I-0.747 J-1.243
X-1334.517 Y-266.923 Z6.742 I0.747 J1.243
X-1336.132 Y-265.068 Z6.639 I-1.387 J0.423
X-1337.091 Y-267.333 Z6.537 I0.228 J-1.432
X-1334.635 Y-267.201 Z6.434 I1.187 J0.833
X-1337.173 Y-265.799 Z6.275 I-1.269 J0.701
X-1334.635 Y-267.201 Z6.116 I1.269 J-0.701
X-1335.532 Y-265.098 Z6.024 I-1.269 J0.701
X-1336.275 Y-267.901 Z5.865 I-0.371 J-1.402
X-1335.027 Y-267.655 Z5.819 I0.371 J1.402
X-1335.25 Y-265.205 Z5.716 I-0.876 J1.155
X-1337.354 Y-266.48 Z5.614 I-0.654 J-1.294
X-1335.286 Y-267.811 Z5.511 I1.45 J-0.02
X-1334.997 Y-265.369 Z5.409 I-0.618 J1.312
X-1337.318 Y-266.18 Z5.306 I-0.907 J-1.131
X-1334.49 Y-266.819 Z5.147 I1.414 J-0.319
X-1334.782 Y-265.581 Z5.101 I-1.414 J0.319
X-1337.222 Y-265.895 Z4.999 I-1.122 J-0.919
X-1335.87 Y-267.949 Z4.896 I1.318 J-0.605
X-1334.616 Y-265.833 Z4.794 I-0.034 J1.45
X-1337.068 Y-265.635 Z4.691 I-1.288 J-0.666
X-1334.74 Y-267.365 Z4.532 I1.164 J-0.865
X-1334.506 Y-266.114 Z4.486 I-1.164 J0.865
X-1336.864 Y-265.413 Z4.383 I-1.398 J-0.385
X-1336.46 Y-267.839 Z4.281 I0.96 J-1.087
X-1334.457 Y-266.412 Z4.178 I0.556 J1.339
X-1337.351 Y-266.587 Z4.019 I-1.447 J-0.088
X-1336.725 Y-267.695 Z3.973 I1.447 J0.088
X-1334.47 Y-266.714 Z3.871 I0.821 J1.195
X-1336.341 Y-265.117 Z3.768 I-1.434 J0.214
X-1336.955 Y-267.499 Z3.666 I0.437 J-1.383
X-1334.545 Y-267.006 Z3.563 I1.051 J0.999
X-1337.263 Y-265.994 Z3.404 I-1.359 J0.506
X-1337.139 Y-267.26 Z3.358 I1.359 J-0.506
X-1334.679 Y-267.276 Z3.256 I1.235 J0.76
X-1337.129 Y-265.723 Z3.097 I-1.225 J0.776
X-1334.867 Y-267.513 Z2.948 I1.225 J-0.776
X-1336.941 Y-265.487 Z2.789 I-1.037 J1.013
X-1335.099 Y-267.706 Z2.64 I1.037 J-1.013
X-1335.173 Y-265.247 Z2.538 I-0.805 J1.206
X-1337.35 Y-266.393 Z2.435 I-0.731 J-1.252
X-1334.458 Y-266.607 Z2.276 I1.446 J-0.107
X-1334.93 Y-265.426 Z2.23 I-1.446 J0.107
X-1337.296 Y-266.096 Z2.128 I-0.974 J-1.074
X-1334.511 Y-266.904 Z1.969 I1.392 J-0.404
X-1334.729 Y-265.651 Z1.923 I-1.393 J0.404
X-1337.183 Y-265.816 Z1.82 I-1.175 J-0.849
X-1334.625 Y-267.184 Z1.661 I1.279 J-0.684
X-1334.578 Y-265.912 Z1.615 I-1.279 J0.684
X-1337.23 Y-267.087 Z1.456 I-1.326 J-0.587
X-1336.256 Y-267.906 Z1.41 I1.326 J0.587
X-1334.485 Y-266.2 Z1.308 I0.353 J1.407
X-1336.796 Y-265.357 Z1.205 I-1.419 J-0.3
X-1336.54 Y-267.803 Z1.103 I0.892 J-1.143
X-1334.454 Y-266.5 Z1 I0.636 J1.303
X-1336.242 Y-265.09 I-1.45
X-1337.197 Y-267.157 I0.338 J-1.41
X-1335.247 Y-267.793 I1.293 J0.657
X-1334.454 Y-266.5 I-0.657 J1.293
G1 X-1334.453 Y-266.416 F850
X-1334.472 Y-266.25
X-1334.504 Y-266.085
X-1334.51 Y-266.064
X-1334.599 Y-265.863
X-1334.644 Y-265.766
X-1334.705 Y-265.668
X-1334.883 Y-265.46
X-1334.906 Y-265.435
X-1334.957 Y-265.388
X-1335.007 Y-265.35
X-1335.15 Y-265.259
X-1335.309 Y-265.166
X-1335.51 Y-265.1
X-1335.666 Y-265.058
X-1335.712 Y-265.05
X-1335.913 Y-265.046
X-1336.115 Y-265.052
X-1336.144 Y-265.058
X-1336.316 Y-265.105
X-1336.517 Y-265.173
X-1336.661 Y-265.259
X-1336.819 Y-265.362
X-1336.87 Y-265.403
X-1336.92 Y-265.453
X-1337.1 Y-265.662
X-1337.121 Y-265.691
X-1337.172 Y-265.777
X-1337.211 Y-265.863
X-1337.298 Y-266.064
X-1337.323 Y-266.169
X-1337.337 Y-266.266
X-1337.363 Y-266.467
X-1337.36 Y-266.568
X-1337.323 Y-266.831
X-1337.316 Y-266.87
X-1337.285 Y-266.97
X-1337.241 Y-267.071
X-1337.146 Y-267.272
X-1337.121 Y-267.31
X-1336.984 Y-267.474
X-1336.92 Y-267.547
X-1336.881 Y-267.587
X-1336.842 Y-267.62
X-1336.763 Y-267.675
X-1336.719 Y-267.704
X-1336.517 Y-267.827
X-1336.378 Y-267.877
X-1336.316 Y-267.895
X-1336.115 Y-267.948
X-1335.913 Y-267.954
X-1335.712 Y-267.95
X-1335.611 Y-267.93
X-1335.432 Y-267.877
X-1335.309 Y-267.835
X-1335.108 Y-267.714
X-1335.047 Y-267.675
X-1334.977 Y-267.628
X-1334.906 Y-267.564
X-1334.826 Y-267.474
X-1334.705 Y-267.332
X-1334.665 Y-267.272
X-1334.569 Y-267.071
X-1334.504 Y-266.916
X-1334.491 Y-266.87
X-1334.459 Y-266.668
X-1334.444 Y-266.568
X-1334.441 Y-266.467
X-1334.469 Y-266.266
X-1334.472 Y-266.25
G3 X-1334.568 Y-266.037 I-0.585 J-0.134
G1 X-1334.622 Y-265.96 Z1.007
X-1334.675 Y-265.885 Z1.029
X-1334.725 Y-265.815 Z1.065
X-1334.772 Y-265.749 Z1.115
X-1334.814 Y-265.691 Z1.176
X-1334.849 Y-265.641 Z1.247
X-1334.878 Y-265.601 Z1.328
X-1334.898 Y-265.572 Z1.415
X-1334.911 Y-265.554 Z1.506
X-1334.916 Y-265.548 Z1.6
G0 Z30

(2D Adaptive2)
M9
X-1334.477 Y-458.245
Z30
Z20
Z18.1
G1 Z17.5 F850
G3 X-1336.79 Y-457.352 Z17.396 I-1.427 J-0.255 F283.3
X-1336.513 Y-459.816 Z17.292 I0.886 J-1.148
X-1334.456 Y-458.432 Z17.188 I0.609 J1.316
X-1336.634 Y-457.247 Z17.085 I-1.448 J-0.068
X-1336.678 Y-459.726 Z16.981 I0.73 J-1.253
X-1334.459 Y-458.62 Z16.877 I0.774 J1.226
X-1336.465 Y-457.163 Z16.773 I-1.445 J0.12
X-1336.83 Y-459.616 Z16.669 I0.562 J-1.337
X-1334.487 Y-458.805 Z16.565 I0.926 J1.116
X-1336.288 Y-457.102 Z16.461 I-1.417 J0.306
X-1336.966 Y-459.486 Z16.358 I0.384 J-1.398
X-1334.538 Y-458.986 Z16.254 I1.063 J0.987
X-1336.104 Y-457.064 Z16.15 I-1.366 J0.486
X-1337.085 Y-459.341 Z16.046 I0.2 J-1.436
X-1334.723 Y-457.659 Z15.887 I1.181 J0.841
X-1337.184 Y-459.181 Z15.734 I-1.181 J-0.841
X-1334.708 Y-459.32 Z15.63 I1.28 J0.681
X-1337.1 Y-457.679 Z15.471 I-1.196 J0.82
X-1337.261 Y-459.01 Z15.423 I1.196 J-0.82
X-1334.824 Y-459.468 Z15.319 I1.357 J0.51
X-1335.544 Y-457.095 Z15.215 I-1.079 J0.968
X-1337.316 Y-458.83 Z15.111 I-0.36 J-1.405
X-1334.959 Y-459.599 Z15.007 I1.412 J0.33
X-1335.366 Y-457.153 Z14.903 I-0.945 J1.1
X-1337.347 Y-458.645 Z14.8 I-0.538 J-1.346
X-1335.109 Y-459.712 Z14.696 I1.443 J0.145
X-1335.196 Y-457.234 Z14.592 I-0.795 J1.213
X-1336.612 Y-459.765 Z14.433 I-0.708 J-1.265
X-1335.272 Y-459.805 Z14.384 I0.708 J1.266
X-1335.038 Y-457.336 Z14.28 I-0.632 J1.305
X-1336.769 Y-459.663 Z14.121 I-0.865 J-1.163
X-1335.446 Y-459.876 Z14.073 I0.865 J1.163
X-1334.895 Y-457.458 Z13.969 I-0.458 J1.376
X-1336.913 Y-459.541 Z13.81 I-1.009 J-1.042
X-1335.628 Y-459.923 Z13.761 I1.009 J1.042
X-1334.769 Y-457.597 Z13.657 I-0.276 J1.424
X-1337.229 Y-457.91 Z13.553 I-1.135 J-0.902
X-1334.579 Y-459.089 Z13.394 I1.325 J-0.589
X-1337.141 Y-457.744 Z13.242 I-1.325 J0.589
X-1336.002 Y-459.946 Z13.138 I1.237 J-0.756
X-1334.576 Y-457.918 Z13.034 I0.098 J1.447
X-1337.033 Y-457.59 Z12.93 I-1.328 J-0.581
X-1336.189 Y-459.922 Z12.826 I1.129 J-0.909
X-1334.512 Y-458.095 Z12.722 I0.285 J1.422
X-1336.906 Y-457.452 Z12.619 I-1.392 J-0.405
X-1336.37 Y-459.873 Z12.515 I1.002 J-1.048
X-1334.471 Y-458.279 Z12.411 I0.466 J1.373
X-1336.762 Y-457.331 Z12.307 I-1.433 J-0.221
X-1336.544 Y-459.801 Z12.203 I0.858 J-1.169
X-1335.264 Y-457.198 Z12.044 I0.64 J1.301
X-1336.707 Y-459.707 Z11.891 I-0.64 J-1.301
X-1334.462 Y-458.653 Z11.788 I0.803 J1.208
X-1336.434 Y-457.15 Z11.684 I-1.442 J0.154
X-1336.856 Y-459.593 Z11.58 I0.53 J-1.35
X-1334.494 Y-458.839 Z11.476 I0.952 J1.094
X-1336.255 Y-457.093 Z11.372 I-1.41 J0.339
X-1336.989 Y-459.461 Z11.268 I0.351 J-1.407
X-1334.55 Y-459.018 Z11.164 I1.085 J0.961
X-1336.07 Y-457.059 Z11.061 I-1.354 J0.518
X-1337.105 Y-459.313 Z10.957 I0.166 J-1.44
X-1334.628 Y-459.189 Z10.853 I1.201 J0.813
X-1335.882 Y-457.05 Z10.749 I-1.276 J0.689
X-1337.2 Y-459.151 Z10.645 I-0.021 J-1.45
X-1334.608 Y-457.849 Z10.486 I1.296 J0.651
X-1335.695 Y-457.065 Z10.437 I-1.296 J-0.651
X-1337.273 Y-458.978 Z10.334 I-0.209 J-1.435
X-1334.535 Y-458.022 Z10.174 I1.369 J0.478
X-1335.511 Y-457.104 Z10.126 I-1.369 J-0.478
X-1337.323 Y-458.797 Z10.022 I-0.393 J-1.396
X-1334.985 Y-459.621 Z9.918 I1.419 J0.297
X-1335.334 Y-457.166 Z9.814 I-0.919 J1.121
X-1337.35 Y-458.611 Z9.71 I-0.57 J-1.333
X-1334.458 Y-458.389 Z9.551 I1.446 J0.111
X-1335.167 Y-457.251 Z9.503 I-1.446 J-0.111
X-1337.352 Y-458.423 Z9.399 I-0.737 J-1.249
X-1335.303 Y-459.819 Z9.295 I1.448 J-0.077
X-1335.011 Y-457.357 Z9.191 I-0.601 J1.32
X-1337.33 Y-458.236 Z9.087 I-0.893 J-1.143
X-1335.479 Y-459.886 Z8.983 I1.426 J-0.264
X-1336.329 Y-457.114 Z8.824 I-0.425 J1.386
X-1337.284 Y-458.054 Z8.776 I0.425 J-1.386
X-1335.661 Y-459.929 Z8.672 I1.38 J-0.446
X-1334.748 Y-457.624 Z8.568 I-0.242 J1.43
X-1337.215 Y-457.879 Z8.464 I-1.156 J-0.876
X-1335.848 Y-459.949 Z8.36 I1.311 J-0.62
X-1335.959 Y-457.051 Z8.201 I-0.056 J1.449
X-1337.123 Y-457.715 Z8.152 I0.056 J-1.449
X-1336.036 Y-459.944 Z8.049 I1.219 J-0.785
X-1334.562 Y-457.95 Z7.945 I0.132 J1.444
X-1337.012 Y-457.564 Z7.841 I-1.342 J-0.55
X-1336.222 Y-459.915 Z7.737 I1.108 J-0.936
X-1334.502 Y-458.128 Z7.633 I0.318 J1.415
X-1336.881 Y-457.429 Z7.529 I-1.401 J-0.372
X-1336.402 Y-459.862 Z7.425 I0.977 J-1.071
X-1334.466 Y-458.312 Z7.322 I0.498 J1.362
X-1336.735 Y-457.311 Z7.218 I-1.438 J-0.187
X-1336.574 Y-459.786 Z7.114 I0.831 J-1.188
X-1334.454 Y-458.5 Z7.01 I0.67 J1.286
X-1336.242 Y-457.09 I-1.45
X-1337.197 Y-459.157 I0.338 J-1.41
X-1335.247 Y-459.793 I1.293 J0.657
X-1334.454 Y-458.5 I-0.657 J1.293
G1 X-1334.453 Y-458.416 F850
X-1334.472 Y-458.25
X-1334.504 Y-458.085
X-1334.51 Y-458.064
X-1334.599 Y-457.863
X-1334.644 Y-457.766
X-1334.705 Y-457.668
X-1334.883 Y-457.46
X-1334.906 Y-457.435
X-1334.957 Y-457.388
X-1335.007 Y-457.35
X-1335.15 Y-457.259
X-1335.309 Y-457.166
X-1335.51 Y-457.1
X-1335.666 Y-457.058
X-1335.712 Y-457.05
X-1335.913 Y-457.046
X-1336.115 Y-457.052
X-1336.144 Y-457.058
X-1336.316 Y-457.105
X-1336.517 Y-457.173
X-1336.661 Y-457.259
X-1336.819 Y-457.362
X-1336.87 Y-457.403
X-1336.92 Y-457.453
X-1337.1 Y-457.662
X-1337.121 Y-457.691
X-1337.172 Y-457.777
X-1337.211 Y-457.863
X-1337.298 Y-458.064
X-1337.323 Y-458.169
X-1337.337 Y-458.266
X-1337.363 Y-458.467
X-1337.36 Y-458.568
X-1337.323 Y-458.831
X-1337.316 Y-458.87
X-1337.285 Y-458.97
X-1337.241 Y-459.071
X-1337.146 Y-459.272
X-1337.121 Y-459.31
X-1336.984 Y-459.474
X-1336.92 Y-459.547
X-1336.881 Y-459.587
X-1336.842 Y-459.62
X-1336.763 Y-459.675
X-1336.719 Y-459.704
X-1336.517 Y-459.827
X-1336.378 Y-459.877
X-1336.316 Y-459.895
X-1336.115 Y-459.948
X-1335.913 Y-459.954
X-1335.712 Y-459.95
X-1335.611 Y-459.93
X-1335.432 Y-459.877
X-1335.309 Y-459.835
X-1335.108 Y-459.714
X-1335.047 Y-459.675
X-1334.977 Y-459.628
X-1334.906 Y-459.564
X-1334.826 Y-459.474
X-1334.705 Y-459.332
X-1334.665 Y-459.272
X-1334.569 Y-459.071
X-1334.504 Y-458.916
X-1334.491 Y-458.87
X-1334.459 Y-458.668
X-1334.444 Y-458.568
X-1334.441 Y-458.467
X-1334.469 Y-458.266
X-1334.472 Y-458.25
X-1334.493 Y-458.2 Z7.017
X-1334.514 Y-458.152 Z7.036
X-1334.532 Y-458.11 Z7.067
X-1334.547 Y-458.076 Z7.108
X-1334.558 Y-458.051 Z7.157
X-1334.565 Y-458.04 Z7.2
X-1334.568 Y-458.037 Z7.246
G0 Z20
X-1335.918 Y-457.05
Z10.11
G1 Z9.51 F850
G3 X-1337.201 Y-459.149 Z9.407 I0.015 J-1.45 F283.3
X-1334.752 Y-459.38 Z9.305 I1.297 J0.649
X-1337.056 Y-457.619 Z9.146 I-1.152 J0.881
X-1337.307 Y-458.866 Z9.1 I1.152 J-0.881
X-1334.501 Y-458.133 Z8.941 I1.403 J0.367
X-1335.33 Y-457.168 Z8.895 I-1.403 J-0.367
X-1337.352 Y-458.568 Z8.792 I-0.574 J-1.332
X-1334.456 Y-458.432 Z8.633 I1.448 J0.068
X-1337.335 Y-458.267 Z8.485 I-1.448 J-0.068
X-1334.473 Y-458.733 Z8.326 I1.431 J-0.233
X-1337.256 Y-457.975 Z8.177 I-1.431 J0.233
X-1334.552 Y-459.024 Z8.018 I1.352 J-0.524
X-1334.659 Y-457.757 Z7.972 I-1.352 J0.524
X-1337.118 Y-457.707 Z7.87 I-1.245 J-0.743
X-1334.69 Y-459.293 Z7.71 I1.214 J-0.793
X-1334.532 Y-458.03 Z7.664 I-1.214 J0.793
X-1336.927 Y-457.473 Z7.562 I-1.372 J-0.469
X-1334.88 Y-459.527 Z7.403 I1.024 J-1.027
X-1334.465 Y-458.325 Z7.357 I-1.024 J1.027
X-1336.693 Y-457.283 Z7.254 I-1.439 J-0.175
X-1336.651 Y-459.742 Z7.152 I0.789 J-1.217
X-1335.156 Y-457.257 Z6.993 I0.747 J1.242
X-1336.651 Y-459.742 Z6.834 I-0.747 J-1.243
X-1334.517 Y-458.923 Z6.742 I0.747 J1.243
X-1336.132 Y-457.068 Z6.639 I-1.387 J0.423
X-1337.091 Y-459.333 Z6.537 I0.228 J-1.432
X-1334.635 Y-459.201 Z6.434 I1.187 J0.833
X-1337.173 Y-457.799 Z6.275 I-1.269 J0.701
X-1334.635 Y-459.201 Z6.116 I1.269 J-0.701
X-1335.532 Y-457.098 Z6.024 I-1.269 J0.701
X-1336.275 Y-459.901 Z5.865 I-0.371 J-1.402
X-1335.027 Y-459.655 Z5.819 I0.371 J1.402
X-1335.25 Y-457.205 Z5.716 I-0.876 J1.155
X-1337.354 Y-458.48 Z5.614 I-0.654 J-1.294
X-1335.286 Y-459.811 Z5.511 I1.45 J-0.02
X-1334.997 Y-457.369 Z5.409 I-0.618 J1.312
X-1337.318 Y-458.18 Z5.306 I-0.907 J-1.131
X-1334.49 Y-458.819 Z5.147 I1.414 J-0.319
X-1334.782 Y-457.581 Z5.101 I-1.414 J0.319
X-1337.222 Y-457.895 Z4.999 I-1.122 J-0.919
X-1335.87 Y-459.949 Z4.896 I1.318 J-0.605
X-1334.616 Y-457.833 Z4.794 I-0.034 J1.45
X-1337.068 Y-457.635 Z4.691 I-1.288 J-0.666
X-1334.74 Y-459.365 Z4.532 I1.164 J-0.865
X-1334.506 Y-458.114 Z4.486 I-1.164 J0.865
X-1336.864 Y-457.413 Z4.383 I-1.398 J-0.385
X-1336.46 Y-459.839 Z4.281 I0.96 J-1.087
X-1334.457 Y-458.412 Z4.178 I0.556 J1.339
X-1337.351 Y-458.587 Z4.019 I-1.447 J-0.088
X-1336.725 Y-459.695 Z3.973 I1.447 J0.088
X-1334.47 Y-458.714 Z3.871 I0.821 J1.195
X-1336.341 Y-457.117 Z3.768 I-1.434 J0.214
X-1336.955 Y-459.499 Z3.666 I0.437 J-1.383
X-1334.545 Y-459.006 Z3.563 I1.051 J0.999
X-1337.263 Y-457.994 Z3.404 I-1.359 J0.506
X-1337.139 Y-459.26 Z3.358 I1.359 J-0.506
X-1334.679 Y-459.276 Z3.256 I1.235 J0.76
X-1337.129 Y-457.723 Z3.097 I-1.225 J0.776
X-1334.867 Y-459.513 Z2.948 I1.225 J-0.776
X-1336.941 Y-457.487 Z2.789 I-1.037 J1.013
X-1335.099 Y-459.706 Z2.64 I1.037 J-1.013
X-1335.173 Y-457.247 Z2.538 I-0.805 J1.206
X-1337.35 Y-458.393 Z2.435 I-0.731 J-1.252
X-1334.458 Y-458.607 Z2.276 I1.446 J-0.107
X-1334.93 Y-457.426 Z2.23 I-1.446 J0.107
X-1337.296 Y-458.096 Z2.128 I-0.974 J-1.074
X-1334.511 Y-458.904 Z1.969 I1.392 J-0.404
X-1334.729 Y-457.651 Z1.923 I-1.393 J0.404
X-1337.183 Y-457.816 Z1.82 I-1.175 J-0.849
X-1334.625 Y-459.184 Z1.661 I1.279 J-0.684
X-1334.578 Y-457.912 Z1.615 I-1.279 J0.684
X-1337.23 Y-459.087 Z1.456 I-1.326 J-0.587
X-1336.256 Y-459.906 Z1.41 I1.326 J0.587
X-1334.485 Y-458.2 Z1.308 I0.353 J1.407
X-1336.796 Y-457.357 Z1.205 I-1.419 J-0.3
X-1336.54 Y-459.803 Z1.103 I0.892 J-1.143
X-1334.454 Y-458.5 Z1 I0.636 J1.303
X-1336.242 Y-457.09 I-1.45
X-1337.197 Y-459.157 I0.338 J-1.41
X-1335.247 Y-459.793 I1.293 J0.657
X-1334.454 Y-458.5 I-0.657 J1.293
G1 X-1334.453 Y-458.416 F850
X-1334.472 Y-458.25
X-1334.504 Y-458.085
X-1334.51 Y-458.064
X-1334.599 Y-457.863
X-1334.644 Y-457.766
X-1334.705 Y-457.668
X-1334.883 Y-457.46
X-1334.906 Y-457.435
X-1334.957 Y-457.388
X-1335.007 Y-457.35
X-1335.15 Y-457.259
X-1335.309 Y-457.166
X-1335.51 Y-457.1
X-1335.666 Y-457.058
X-1335.712 Y-457.05
X-1335.913 Y-457.046
X-1336.115 Y-457.052
X-1336.144 Y-457.058
X-1336.316 Y-457.105
X-1336.517 Y-457.173
X-1336.661 Y-457.259
X-1336.819 Y-457.362
X-1336.87 Y-457.403
X-1336.92 Y-457.453
X-1337.1 Y-457.662
X-1337.121 Y-457.691
X-1337.172 Y-457.777
X-1337.211 Y-457.863
X-1337.298 Y-458.064
X-1337.323 Y-458.169
X-1337.337 Y-458.266
X-1337.363 Y-458.467
X-1337.36 Y-458.568
X-1337.323 Y-458.831
X-1337.316 Y-458.87
X-1337.285 Y-458.97
X-1337.241 Y-459.071
X-1337.146 Y-459.272
X-1337.121 Y-459.31
X-1336.984 Y-459.474
X-1336.92 Y-459.547
X-1336.881 Y-459.587
X-1336.842 Y-459.62
X-1336.763 Y-459.675
X-1336.719 Y-459.704
X-1336.517 Y-459.827
X-1336.378 Y-459.877
X-1336.316 Y-459.895
X-1336.115 Y-459.948
X-1335.913 Y-459.954
X-1335.712 Y-459.95
X-1335.611 Y-459.93
X-1335.432 Y-459.877
X-1335.309 Y-459.835
X-1335.108 Y-459.714
X-1335.047 Y-459.675
X-1334.977 Y-459.628
X-1334.906 Y-459.564
X-1334.826 Y-459.474
X-1334.705 Y-459.332
X-1334.665 Y-459.272
X-1334.569 Y-459.071
X-1334.504 Y-458.916
X-1334.491 Y-458.87
X-1334.459 Y-458.668
X-1334.444 Y-458.568
X-1334.441 Y-458.467
X-1334.469 Y-458.266
X-1334.472 Y-458.25
G3 X-1334.568 Y-458.037 I-0.585 J-0.134
G1 X-1334.622 Y-457.96 Z1.007
X-1334.675 Y-457.885 Z1.029
X-1334.725 Y-457.815 Z1.065
X-1334.772 Y-457.749 Z1.115
X-1334.814 Y-457.691 Z1.176
X-1334.849 Y-457.641 Z1.247
X-1334.878 Y-457.601 Z1.328
X-1334.898 Y-457.572 Z1.415
X-1334.911 Y-457.554 Z1.506
X-1334.916 Y-457.548 Z1.6
G0 Z30

(2D Adaptive2)
M9
X-1334.477 Y-650.245
Z30
Z20
Z18.1
G1 Z17.5 F850
G3 X-1336.79 Y-649.352 Z17.396 I-1.427 J-0.255 F283.3
X-1336.513 Y-651.816 Z17.292 I0.886 J-1.148
X-1334.456 Y-650.432 Z17.188 I0.609 J1.316
X-1336.634 Y-649.247 Z17.085 I-1.448 J-0.068
X-1336.678 Y-651.726 Z16.981 I0.73 J-1.253
X-1334.459 Y-650.62 Z16.877 I0.774 J1.226
X-1336.465 Y-649.163 Z16.773 I-1.445 J0.12
X-1336.83 Y-651.616 Z16.669 I0.562 J-1.337
X-1334.487 Y-650.805 Z16.565 I0.926 J1.116
X-1336.288 Y-649.102 Z16.461 I-1.417 J0.306
X-1336.966 Y-651.486 Z16.358 I0.384 J-1.398
X-1334.538 Y-650.986 Z16.254 I1.063 J0.987
X-1336.104 Y-649.064 Z16.15 I-1.366 J0.486
X-1337.085 Y-651.341 Z16.046 I0.2 J-1.436
X-1334.723 Y-649.659 Z15.887 I1.181 J0.841
X-1337.184 Y-651.181 Z15.734 I-1.181 J-0.841
X-1334.708 Y-651.32 Z15.63 I1.28 J0.681
X-1337.1 Y-649.679 Z15.471 I-1.196 J0.82
X-1337.261 Y-651.01 Z15.423 I1.196 J-0.82
X-1334.824 Y-651.468 Z15.319 I1.357 J0.51
X-1335.544 Y-649.095 Z15.215 I-1.079 J0.968
X-1337.316 Y-650.83 Z15.111 I-0.36 J-1.405
X-1334.959 Y-651.599 Z15.007 I1.412 J0.33
X-1335.366 Y-649.153 Z14.903 I-0.945 J1.1
X-1337.347 Y-650.645 Z14.8 I-0.538 J-1.346
X-1335.109 Y-651.712 Z14.696 I1.443 J0.145
X-1335.196 Y-649.234 Z14.592 I-0.795 J1.213
X-1336.612 Y-651.765 Z14.433 I-0.708 J-1.265
X-1335.272 Y-651.805 Z14.384 I0.708 J1.266
X-1335.038 Y-649.336 Z14.28 I-0.632 J1.305
X-1336.769 Y-651.663 Z14.121 I-0.865 J-1.163
X-1335.446 Y-651.876 Z14.073 I0.865 J1.163
X-1334.895 Y-649.458 Z13.969 I-0.458 J1.376
X-1336.913 Y-651.541 Z13.81 I-1.009 J-1.042
X-1335.628 Y-651.923 Z13.761 I1.009 J1.042
X-1334.769 Y-649.597 Z13.657 I-0.276 J1.424
X-1337.229 Y-649.91 Z13.553 I-1.135 J-0.902
X-1334.579 Y-651.089 Z13.394 I1.325 J-0.589
X-1337.141 Y-649.744 Z13.242 I-1.325 J0.589
X-1336.002 Y-651.946 Z13.138 I1.237 J-0.756
X-1334.576 Y-649.918 Z13.034 I0.098 J1.447
X-1337.033 Y-649.59 Z12.93 I-1.328 J-0.581
X-1336.189 Y-651.922 Z12.826 I1.129 J-0.909
X-1334.512 Y-650.095 Z12.722 I0.285 J1.422
X-1336.906 Y-649.452 Z12.619 I-1.392 J-0.405
X-1336.37 Y-651.873 Z12.515 I1.002 J-1.048
X-1334.471 Y-650.279 Z12.411 I0.466 J1.373
X-1336.762 Y-649.331 Z12.307 I-1.433 J-0.221
X-1336.544 Y-651.801 Z12.203 I0.858 J-1.169
X-1335.264 Y-649.198 Z12.044 I0.64 J1.301
X-1336.707 Y-651.707 Z11.891 I-0.64 J-1.301
X-1334.462 Y-650.653 Z11.788 I0.803 J1.208
X-1336.434 Y-649.15 Z11.684 I-1.442 J0.154
X-1336.856 Y-651.593 Z11.58 I0.53 J-1.35
X-1334.494 Y-650.839 Z11.476 I0.952 J1.094
X-1336.255 Y-649.093 Z11.372 I-1.41 J0.339
X-1336.989 Y-651.461 Z11.268 I0.351 J-1.407
X-1334.55 Y-651.018 Z11.164 I1.085 J0.961
X-1336.07 Y-649.059 Z11.061 I-1.354 J0.518
X-1337.105 Y-651.313 Z10.957 I0.166 J-1.44
X-1334.628 Y-651.189 Z10.853 I1.201 J0.813
X-1335.882 Y-649.05 Z10.749 I-1.276 J0.689
X-1337.2 Y-651.151 Z10.645 I-0.021 J-1.45
X-1334.608 Y-649.849 Z10.486 I1.296 J0.651
X-1335.695 Y-649.065 Z10.437 I-1.296 J-0.651
X-1337.273 Y-650.978 Z10.334 I-0.209 J-1.435
X-1334.535 Y-650.022 Z10.174 I1.369 J0.478
X-1335.511 Y-649.104 Z10.126 I-1.369 J-0.478
X-1337.323 Y-650.797 Z10.022 I-0.393 J-1.396
X-1334.985 Y-651.621 Z9.918 I1.419 J0.297
X-1335.334 Y-649.166 Z9.814 I-0.919 J1.121
X-1337.35 Y-650.611 Z9.71 I-0.57 J-1.333
X-1334.458 Y-650.389 Z9.551 I1.446 J0.111
X-1335.167 Y-649.251 Z9.503 I-1.446 J-0.111
X-1337.352 Y-650.423 Z9.399 I-0.737 J-1.249
X-1335.303 Y-651.819 Z9.295 I1.448 J-0.077
X-1335.011 Y-649.357 Z9.191 I-0.601 J1.32
X-1337.33 Y-650.236 Z9.087 I-0.893 J-1.143
X-1335.479 Y-651.886 Z8.983 I1.426 J-0.264
X-1336.329 Y-649.114 Z8.824 I-0.425 J1.386
X-1337.284 Y-650.054 Z8.776 I0.425 J-1.386
X-1335.661 Y-651.929 Z8.672 I1.38 J-0.446
X-1334.748 Y-649.624 Z8.568 I-0.242 J1.43
X-1337.215 Y-649.879 Z8.464 I-1.156 J-0.876
X-1335.848 Y-651.949 Z8.36 I1.311 J-0.62
X-1335.959 Y-649.051 Z8.201 I-0.056 J1.449
X-1337.123 Y-649.715 Z8.152 I0.056 J-1.449
X-1336.036 Y-651.944 Z8.049 I1.219 J-0.785
X-1334.562 Y-649.95 Z7.945 I0.132 J1.444
X-1337.012 Y-649.564 Z7.841 I-1.342 J-0.55
X-1336.222 Y-651.915 Z7.737 I1.108 J-0.936
X-1334.502 Y-650.128 Z7.633 I0.318 J1.415
X-1336.881 Y-649.429 Z7.529 I-1.401 J-0.372
X-1336.402 Y-651.862 Z7.425 I0.977 J-1.071
X-1334.466 Y-650.312 Z7.322 I0.498 J1.362
X-1336.735 Y-649.311 Z7.218 I-1.438 J-0.187
X-1336.574 Y-651.786 Z7.114 I0.831 J-1.188
X-1334.454 Y-650.5 Z7.01 I0.67 J1.286
X-1336.242 Y-649.09 I-1.45
X-1337.197 Y-651.157 I0.338 J-1.41
X-1335.247 Y-651.793 I1.293 J0.657
X-1334.454 Y-650.5 I-0.657 J1.293
G1 X-1334.453 Y-650.416 F850
X-1334.472 Y-650.25
X-1334.504 Y-650.085
X-1334.51 Y-650.064
X-1334.599 Y-649.863
X-1334.644 Y-649.766
X-1334.705 Y-649.668
X-1334.883 Y-649.46
X-1334.906 Y-649.435
X-1334.957 Y-649.388
X-1335.007 Y-649.35
X-1335.15 Y-649.259
X-1335.309 Y-649.166
X-1335.51 Y-649.1
X-1335.666 Y-649.058
X-1335.712 Y-649.05
X-1335.913 Y-649.046
X-1336.115 Y-649.052
X-1336.144 Y-649.058
X-1336.316 Y-649.105
X-1336.517 Y-649.173
X-1336.661 Y-649.259
X-1336.819 Y-649.362
X-1336.87 Y-649.403
X-1336.92 Y-649.453
X-1337.1 Y-649.662
X-1337.121 Y-649.691
X-1337.172 Y-649.777
X-1337.211 Y-649.863
X-1337.298 Y-650.064
X-1337.323 Y-650.169
X-1337.337 Y-650.266
X-1337.363 Y-650.467
X-1337.36 Y-650.568
X-1337.323 Y-650.831
X-1337.316 Y-650.87
X-1337.285 Y-650.97
X-1337.241 Y-651.071
X-1337.146 Y-651.272
X-1337.121 Y-651.31
X-1336.984 Y-651.474
X-1336.92 Y-651.547
X-1336.881 Y-651.587
X-1336.842 Y-651.62
X-1336.763 Y-651.675
X-1336.719 Y-651.704
X-1336.517 Y-651.827
X-1336.378 Y-651.877
X-1336.316 Y-651.895
X-1336.115 Y-651.948
X-1335.913 Y-651.954
X-1335.712 Y-651.95
X-1335.611 Y-651.93
X-1335.432 Y-651.877
X-1335.309 Y-651.835
X-1335.108 Y-651.714
X-1335.047 Y-651.675
X-1334.977 Y-651.628
X-1334.906 Y-651.564
X-1334.826 Y-651.474
X-1334.705 Y-651.332
X-1334.665 Y-651.272
X-1334.569 Y-651.071
X-1334.504 Y-650.916
X-1334.491 Y-650.87
X-1334.459 Y-650.668
X-1334.444 Y-650.568
X-1334.441 Y-650.467
X-1334.469 Y-650.266
X-1334.472 Y-650.25
X-1334.493 Y-650.2 Z7.017
X-1334.514 Y-650.152 Z7.036
X-1334.532 Y-650.11 Z7.067
X-1334.547 Y-650.076 Z7.108
X-1334.558 Y-650.051 Z7.157
X-1334.565 Y-650.04 Z7.2
X-1334.568 Y-650.037 Z7.246
G0 Z20
X-1335.918 Y-649.05
Z10.11
G1 Z9.51 F850
G3 X-1337.201 Y-651.149 Z9.407 I0.015 J-1.45 F283.3
X-1334.752 Y-651.38 Z9.305 I1.297 J0.649
X-1337.056 Y-649.619 Z9.146 I-1.152 J0.881
X-1337.307 Y-650.866 Z9.1 I1.152 J-0.881
X-1334.501 Y-650.133 Z8.941 I1.403 J0.367
X-1335.33 Y-649.168 Z8.895 I-1.403 J-0.367
X-1337.352 Y-650.568 Z8.792 I-0.574 J-1.332
X-1334.456 Y-650.432 Z8.633 I1.448 J0.068
X-1337.335 Y-650.267 Z8.485 I-1.448 J-0.068
X-1334.473 Y-650.733 Z8.326 I1.431 J-0.233
X-1337.256 Y-649.975 Z8.177 I-1.431 J0.233
X-1334.552 Y-651.024 Z8.018 I1.352 J-0.524
X-1334.659 Y-649.757 Z7.972 I-1.352 J0.524
X-1337.118 Y-649.707 Z7.87 I-1.245 J-0.743
X-1334.69 Y-651.293 Z7.71 I1.214 J-0.793
X-1334.532 Y-650.03 Z7.664 I-1.214 J0.793
X-1336.927 Y-649.473 Z7.562 I-1.372 J-0.469
X-1334.88 Y-651.527 Z7.403 I1.024 J-1.027
X-1334.465 Y-650.325 Z7.357 I-1.024 J1.027
X-1336.693 Y-649.283 Z7.254 I-1.439 J-0.175
X-1336.651 Y-651.742 Z7.152 I0.789 J-1.217
X-1335.156 Y-649.257 Z6.993 I0.747 J1.242
X-1336.651 Y-651.742 Z6.834 I-0.747 J-1.243
X-1334.517 Y-650.923 Z6.742 I0.747 J1.243
X-1336.132 Y-649.068 Z6.639 I-1.387 J0.423
X-1337.091 Y-651.333 Z6.537 I0.228 J-1.432
X-1334.635 Y-651.201 Z6.434 I1.187 J0.833
X-1337.173 Y-649.799 Z6.275 I-1.269 J0.701
X-1334.635 Y-651.201 Z6.116 I1.269 J-0.701
X-1335.532 Y-649.098 Z6.024 I-1.269 J0.701
X-1336.275 Y-651.901 Z5.865 I-0.371 J-1.402
X-1335.027 Y-651.655 Z5.819 I0.371 J1.402
X-1335.25 Y-649.205 Z5.716 I-0.876 J1.155
X-1337.354 Y-650.48 Z5.614 I-0.654 J-1.294
X-1335.286 Y-651.811 Z5.511 I1.45 J-0.02
X-1334.997 Y-649.369 Z5.409 I-0.618 J1.312
X-1337.318 Y-650.18 Z5.306 I-0.907 J-1.131
X-1334.49 Y-650.819 Z5.147 I1.414 J-0.319
X-1334.782 Y-649.581 Z5.101 I-1.414 J0.319
X-1337.222 Y-649.895 Z4.999 I-1.122 J-0.919
X-1335.87 Y-651.949 Z4.896 I1.318 J-0.605
X-1334.616 Y-649.833 Z4.794 I-0.034 J1.45
X-1337.068 Y-649.635 Z4.691 I-1.288 J-0.666
X-1334.74 Y-651.365 Z4.532 I1.164 J-0.865
X-1334.506 Y-650.114 Z4.486 I-1.164 J0.865
X-1336.864 Y-649.413 Z4.383 I-1.398 J-0.385
X-1336.46 Y-651.839 Z4.281 I0.96 J-1.087
X-1334.457 Y-650.412 Z4.178 I0.556 J1.339
X-1337.351 Y-650.587 Z4.019 I-1.447 J-0.088
X-1336.725 Y-651.695 Z3.973 I1.447 J0.088
X-1334.47 Y-650.714 Z3.871 I0.821 J1.195
X-1336.341 Y-649.117 Z3.768 I-1.434 J0.214
X-1336.955 Y-651.499 Z3.666 I0.437 J-1.383
X-1334.545 Y-651.006 Z3.563 I1.051 J0.999
X-1337.263 Y-649.994 Z3.404 I-1.359 J0.506
X-1337.139 Y-651.26 Z3.358 I1.359 J-0.506
X-1334.679 Y-651.276 Z3.256 I1.235 J0.76
X-1337.129 Y-649.723 Z3.097 I-1.225 J0.776
X-1334.867 Y-651.513 Z2.948 I1.225 J-0.776
X-1336.941 Y-649.487 Z2.789 I-1.037 J1.013
X-1335.099 Y-651.706 Z2.64 I1.037 J-1.013
X-1335.173 Y-649.247 Z2.538 I-0.805 J1.206
X-1337.35 Y-650.393 Z2.435 I-0.731 J-1.252
X-1334.458 Y-650.607 Z2.276 I1.446 J-0.107
X-1334.93 Y-649.426 Z2.23 I-1.446 J0.107
X-1337.296 Y-650.096 Z2.128 I-0.974 J-1.074
X-1334.511 Y-650.904 Z1.969 I1.392 J-0.404
X-1334.729 Y-649.651 Z1.923 I-1.393 J0.404
X-1337.183 Y-649.816 Z1.82 I-1.175 J-0.849
X-1334.625 Y-651.184 Z1.661 I1.279 J-0.684
X-1334.578 Y-649.912 Z1.615 I-1.279 J0.684
X-1337.23 Y-651.087 Z1.456 I-1.326 J-0.587
X-1336.256 Y-651.906 Z1.41 I1.326 J0.587
X-1334.485 Y-650.2 Z1.308 I0.353 J1.407
X-1336.796 Y-649.357 Z1.205 I-1.419 J-0.3
X-1336.54 Y-651.803 Z1.103 I0.892 J-1.143
X-1334.454 Y-650.5 Z1 I0.636 J1.303
X-1336.242 Y-649.09 I-1.45
X-1337.197 Y-651.157 I0.338 J-1.41
X-1335.247 Y-651.793 I1.293 J0.657
X-1334.454 Y-650.5 I-0.657 J1.293
G1 X-1334.453 Y-650.416 F850
X-1334.472 Y-650.25
X-1334.504 Y-650.085
X-1334.51 Y-650.064
X-1334.599 Y-649.863
X-1334.644 Y-649.766
X-1334.705 Y-649.668
X-1334.883 Y-649.46
X-1334.906 Y-649.435
X-1334.957 Y-649.388
X-1335.007 Y-649.35
X-1335.15 Y-649.259
X-1335.309 Y-649.166
X-1335.51 Y-649.1
X-1335.666 Y-649.058
X-1335.712 Y-649.05
X-1335.913 Y-649.046
X-1336.115 Y-649.052
X-1336.144 Y-649.058
X-1336.316 Y-649.105
X-1336.517 Y-649.173
X-1336.661 Y-649.259
X-1336.819 Y-649.362
X-1336.87 Y-649.403
X-1336.92 Y-649.453
X-1337.1 Y-649.662
X-1337.121 Y-649.691
X-1337.172 Y-649.777
X-1337.211 Y-649.863
X-1337.298 Y-650.064
X-1337.323 Y-650.169
X-1337.337 Y-650.266
X-1337.363 Y-650.467
X-1337.36 Y-650.568
X-1337.323 Y-650.831
X-1337.316 Y-650.87
X-1337.285 Y-650.97
X-1337.241 Y-651.071
X-1337.146 Y-651.272
X-1337.121 Y-651.31
X-1336.984 Y-651.474
X-1336.92 Y-651.547
X-1336.881 Y-651.587
X-1336.842 Y-651.62
X-1336.763 Y-651.675
X-1336.719 Y-651.704
X-1336.517 Y-651.827
X-1336.378 Y-651.877
X-1336.316 Y-651.895
X-1336.115 Y-651.948
X-1335.913 Y-651.954
X-1335.712 Y-651.95
X-1335.611 Y-651.93
X-1335.432 Y-651.877
X-1335.309 Y-651.835
X-1335.108 Y-651.714
X-1335.047 Y-651.675
X-1334.977 Y-651.628
X-1334.906 Y-651.564
X-1334.826 Y-651.474
X-1334.705 Y-651.332
X-1334.665 Y-651.272
X-1334.569 Y-651.071
X-1334.504 Y-650.916
X-1334.491 Y-650.87
X-1334.459 Y-650.668
X-1334.444 Y-650.568
X-1334.441 Y-650.467
X-1334.469 Y-650.266
X-1334.472 Y-650.25
G3 X-1334.568 Y-650.037 I-0.585 J-0.134
G1 X-1334.622 Y-649.96 Z1.007
X-1334.675 Y-649.885 Z1.029
X-1334.725 Y-649.815 Z1.065
X-1334.772 Y-649.749 Z1.115
X-1334.814 Y-649.691 Z1.176
X-1334.849 Y-649.641 Z1.247
X-1334.878 Y-649.601 Z1.328
X-1334.898 Y-649.572 Z1.415
X-1334.911 Y-649.554 Z1.506
X-1334.916 Y-649.548 Z1.6
G0 Z30

(2D Adaptive2)
M9
X-936.477 Y-650.245
Z30
Z20
Z18.1
G1 Z17.5 F850
G3 X-938.79 Y-649.352 Z17.396 I-1.427 J-0.255 F283.3
X-938.513 Y-651.816 Z17.292 I0.886 J-1.148
X-936.456 Y-650.432 Z17.188 I0.609 J1.316
X-938.634 Y-649.247 Z17.085 I-1.448 J-0.068
X-938.678 Y-651.726 Z16.981 I0.73 J-1.253
X-936.459 Y-650.62 Z16.877 I0.774 J1.226
X-938.465 Y-649.163 Z16.773 I-1.445 J0.12
X-938.83 Y-651.616 Z16.669 I0.562 J-1.337
X-936.487 Y-650.805 Z16.565 I0.926 J1.116
X-938.288 Y-649.102 Z16.461 I-1.417 J0.306
X-938.966 Y-651.486 Z16.358 I0.384 J-1.398
X-936.538 Y-650.986 Z16.254 I1.063 J0.987
X-938.104 Y-649.064 Z16.15 I-1.366 J0.486
X-939.085 Y-651.341 Z16.046 I0.2 J-1.436
X-936.723 Y-649.659 Z15.887 I1.181 J0.841
X-939.184 Y-651.181 Z15.734 I-1.181 J-0.841
X-936.708 Y-651.32 Z15.63 I1.28 J0.681
X-939.1 Y-649.679 Z15.471 I-1.196 J0.82
X-939.261 Y-651.01 Z15.423 I1.196 J-0.82
X-936.824 Y-651.468 Z15.319 I1.357 J0.51
X-937.544 Y-649.095 Z15.215 I-1.079 J0.968
X-939.316 Y-650.83 Z15.111 I-0.36 J-1.405
X-936.959 Y-651.599 Z15.007 I1.412 J0.33
X-937.366 Y-649.153 Z14.903 I-0.945 J1.1
X-939.347 Y-650.645 Z14.8 I-0.538 J-1.346
X-937.109 Y-651.712 Z14.696 I1.443 J0.145
X-937.196 Y-649.234 Z14.592 I-0.795 J1.213
X-938.612 Y-651.765 Z14.433 I-0.708 J-1.265
X-937.272 Y-651.805 Z14.384 I0.708 J1.266
X-937.038 Y-649.336 Z14.28 I-0.632 J1.305
X-938.769 Y-651.663 Z14.121 I-0.865 J-1.163
X-937.446 Y-651.876 Z14.073 I0.865 J1.163
X-936.895 Y-649.458 Z13.969 I-0.458 J1.376
X-938.913 Y-651.541 Z13.81 I-1.009 J-1.042
X-937.628 Y-651.923 Z13.761 I1.009 J1.042
X-936.769 Y-649.597 Z13.657 I-0.276 J1.424
X-939.229 Y-649.91 Z13.553 I-1.135 J-0.902
X-936.579 Y-651.089 Z13.394 I1.325 J-0.589
X-939.141 Y-649.744 Z13.242 I-1.325 J0.589
X-938.002 Y-651.946 Z13.138 I1.237 J-0.756
X-936.576 Y-649.918 Z13.034 I0.098 J1.447
X-939.033 Y-649.59 Z12.93 I-1.328 J-0.581
X-938.189 Y-651.922 Z12.826 I1.129 J-0.909
X-936.512 Y-650.095 Z12.722 I0.285 J1.422
X-938.906 Y-649.452 Z12.619 I-1.392 J-0.405
X-938.37 Y-651.873 Z12.515 I1.002 J-1.048
X-936.471 Y-650.279 Z12.411 I0.466 J1.373
X-938.762 Y-649.331 Z12.307 I-1.433 J-0.221
X-938.544 Y-651.801 Z12.203 I0.858 J-1.169
X-937.264 Y-649.198 Z12.044 I0.64 J1.301
X-938.707 Y-651.707 Z11.891 I-0.64 J-1.301
X-936.462 Y-650.653 Z11.788 I0.803 J1.208
X-938.434 Y-649.15 Z11.684 I-1.442 J0.154
X-938.856 Y-651.593 Z11.58 I0.53 J-1.35
X-936.494 Y-650.839 Z11.476 I0.952 J1.094
X-938.255 Y-649.093 Z11.372 I-1.41 J0.339
X-938.989 Y-651.461 Z11.268 I0.351 J-1.407
X-936.55 Y-651.018 Z11.164 I1.085 J0.961
X-938.07 Y-649.059 Z11.061 I-1.354 J0.518
X-939.105 Y-651.313 Z10.957 I0.166 J-1.44
X-936.628 Y-651.189 Z10.853 I1.201 J0.813
X-937.882 Y-649.05 Z10.749 I-1.276 J0.689
X-939.2 Y-651.151 Z10.645 I-0.021 J-1.45
X-936.608 Y-649.849 Z10.486 I1.296 J0.651
X-937.695 Y-649.065 Z10.437 I-1.296 J-0.651
X-939.273 Y-650.978 Z10.334 I-0.209 J-1.435
X-936.535 Y-650.022 Z10.174 I1.369 J0.478
X-937.511 Y-649.104 Z10.126 I-1.369 J-0.478
X-939.323 Y-650.797 Z10.022 I-0.393 J-1.396
X-936.985 Y-651.621 Z9.918 I1.419 J0.297
X-937.334 Y-649.166 Z9.814 I-0.919 J1.121
X-939.35 Y-650.611 Z9.71 I-0.57 J-1.333
X-936.458 Y-650.389 Z9.551 I1.446 J0.111
X-937.167 Y-649.251 Z9.503 I-1.446 J-0.111
X-939.352 Y-650.423 Z9.399 I-0.737 J-1.249
X-937.303 Y-651.819 Z9.295 I1.448 J-0.077
X-937.011 Y-649.357 Z9.191 I-0.601 J1.32
X-939.33 Y-650.236 Z9.087 I-0.893 J-1.143
X-937.479 Y-651.886 Z8.983 I1.426 J-0.264
X-938.329 Y-649.114 Z8.824 I-0.425 J1.386
X-939.284 Y-650.054 Z8.776 I0.425 J-1.386
X-937.661 Y-651.929 Z8.672 I1.38 J-0.446
X-936.748 Y-649.624 Z8.568 I-0.242 J1.43
X-939.215 Y-649.879 Z8.464 I-1.156 J-0.876
X-937.848 Y-651.949 Z8.36 I1.311 J-0.62
X-937.959 Y-649.051 Z8.201 I-0.056 J1.449
X-939.123 Y-649.715 Z8.152 I0.056 J-1.449
X-938.036 Y-651.944 Z8.049 I1.219 J-0.785
X-936.562 Y-649.95 Z7.945 I0.132 J1.444
X-939.012 Y-649.564 Z7.841 I-1.342 J-0.55
X-938.222 Y-651.915 Z7.737 I1.108 J-0.936
X-936.502 Y-650.128 Z7.633 I0.318 J1.415
X-938.881 Y-649.429 Z7.529 I-1.401 J-0.372
X-938.402 Y-651.862 Z7.425 I0.977 J-1.071
X-936.466 Y-650.312 Z7.322 I0.498 J1.362
X-938.735 Y-649.311 Z7.218 I-1.438 J-0.187
X-938.574 Y-651.786 Z7.114 I0.831 J-1.188
X-936.454 Y-650.5 Z7.01 I0.67 J1.286
X-938.242 Y-649.09 I-1.45
X-939.197 Y-651.157 I0.338 J-1.41
X-937.247 Y-651.793 I1.293 J0.657
X-936.454 Y-650.5 I-0.657 J1.293
G1 X-936.453 Y-650.416 F850
X-936.472 Y-650.25
X-936.504 Y-650.085
X-936.51 Y-650.064
X-936.599 Y-649.863
X-936.644 Y-649.766
X-936.705 Y-649.668
X-936.883 Y-649.46
X-936.906 Y-649.435
X-936.957 Y-649.388
X-937.007 Y-649.35
X-937.15 Y-649.259
X-937.309 Y-649.166
X-937.51 Y-649.1
X-937.666 Y-649.058
X-937.712 Y-649.05
X-937.913 Y-649.046
X-938.115 Y-649.052
X-938.144 Y-649.058
X-938.316 Y-649.105
X-938.517 Y-649.173
X-938.661 Y-649.259
X-938.819 Y-649.362
X-938.87 Y-649.403
X-938.92 Y-649.453
X-939.1 Y-649.662
X-939.121 Y-649.691
X-939.172 Y-649.777
X-939.211 Y-649.863
X-939.298 Y-650.064
X-939.323 Y-650.169
X-939.337 Y-650.266
X-939.363 Y-650.467
X-939.36 Y-650.568
X-939.323 Y-650.831
X-939.316 Y-650.87
X-939.285 Y-650.97
X-939.241 Y-651.071
X-939.146 Y-651.272
X-939.121 Y-651.31
X-938.984 Y-651.474
X-938.92 Y-651.547
X-938.881 Y-651.587
X-938.842 Y-651.62
X-938.763 Y-651.675
X-938.719 Y-651.704
X-938.517 Y-651.827
X-938.378 Y-651.877
X-938.316 Y-651.895
X-938.115 Y-651.948
X-937.913 Y-651.954
X-937.712 Y-651.95
X-937.611 Y-651.93
X-937.432 Y-651.877
X-937.309 Y-651.835
X-937.108 Y-651.714
X-937.047 Y-651.675
X-936.977 Y-651.628
X-936.906 Y-651.564
X-936.826 Y-651.474
X-936.705 Y-651.332
X-936.665 Y-651.272
X-936.569 Y-651.071
X-936.504 Y-650.916
X-936.491 Y-650.87
X-936.459 Y-650.668
X-936.444 Y-650.568
X-936.441 Y-650.467
X-936.469 Y-650.266
X-936.472 Y-650.25
X-936.493 Y-650.2 Z7.017
X-936.514 Y-650.152 Z7.036
X-936.532 Y-650.11 Z7.067
X-936.547 Y-650.076 Z7.108
X-936.558 Y-650.051 Z7.157
X-936.565 Y-650.04 Z7.2
X-936.568 Y-650.037 Z7.246
G0 Z20
X-937.918 Y-649.05
Z10.11
G1 Z9.51 F850
G3 X-939.201 Y-651.149 Z9.407 I0.015 J-1.45 F283.3
X-936.752 Y-651.38 Z9.305 I1.297 J0.649
X-939.056 Y-649.619 Z9.146 I-1.152 J0.881
X-939.307 Y-650.866 Z9.1 I1.152 J-0.881
X-936.501 Y-650.133 Z8.941 I1.403 J0.367
X-937.33 Y-649.168 Z8.895 I-1.403 J-0.367
X-939.352 Y-650.568 Z8.792 I-0.574 J-1.332
X-936.456 Y-650.432 Z8.633 I1.448 J0.068
X-939.335 Y-650.267 Z8.485 I-1.448 J-0.068
X-936.473 Y-650.733 Z8.326 I1.431 J-0.233
X-939.256 Y-649.975 Z8.177 I-1.431 J0.233
X-936.552 Y-651.024 Z8.018 I1.352 J-0.524
X-936.659 Y-649.757 Z7.972 I-1.352 J0.524
X-939.118 Y-649.707 Z7.87 I-1.245 J-0.743
X-936.69 Y-651.293 Z7.71 I1.214 J-0.793
X-936.532 Y-650.03 Z7.664 I-1.214 J0.793
X-938.927 Y-649.473 Z7.562 I-1.372 J-0.469
X-936.88 Y-651.527 Z7.403 I1.024 J-1.027
X-936.465 Y-650.325 Z7.357 I-1.024 J1.027
X-938.693 Y-649.283 Z7.254 I-1.439 J-0.175
X-938.651 Y-651.742 Z7.152 I0.789 J-1.217
X-937.156 Y-649.257 Z6.993 I0.747 J1.242
X-938.651 Y-651.742 Z6.834 I-0.747 J-1.243
X-936.517 Y-650.923 Z6.742 I0.747 J1.243
X-938.132 Y-649.068 Z6.639 I-1.387 J0.423
X-939.091 Y-651.333 Z6.537 I0.228 J-1.432
X-936.635 Y-651.201 Z6.434 I1.187 J0.833
X-939.173 Y-649.799 Z6.275 I-1.269 J0.701
X-936.635 Y-651.201 Z6.116 I1.269 J-0.701
X-937.532 Y-649.098 Z6.024 I-1.269 J0.701
X-938.275 Y-651.901 Z5.865 I-0.371 J-1.402
X-937.027 Y-651.655 Z5.819 I0.371 J1.402
X-937.25 Y-649.205 Z5.716 I-0.876 J1.155
X-939.354 Y-650.48 Z5.614 I-0.654 J-1.294
X-937.286 Y-651.811 Z5.511 I1.45 J-0.02
X-936.997 Y-649.369 Z5.409 I-0.618 J1.312
X-939.318 Y-650.18 Z5.306 I-0.907 J-1.131
X-936.49 Y-650.819 Z5.147 I1.414 J-0.319
X-936.782 Y-649.581 Z5.101 I-1.414 J0.319
X-939.222 Y-649.895 Z4.999 I-1.122 J-0.919
X-937.87 Y-651.949 Z4.896 I1.318 J-0.605
X-936.616 Y-649.833 Z4.794 I-0.034 J1.45
X-939.068 Y-649.635 Z4.691 I-1.288 J-0.666
X-936.74 Y-651.365 Z4.532 I1.164 J-0.865
X-936.506 Y-650.114 Z4.486 I-1.164 J0.865
X-938.864 Y-649.413 Z4.383 I-1.398 J-0.385
X-938.46 Y-651.839 Z4.281 I0.96 J-1.087
X-936.457 Y-650.412 Z4.178 I0.556 J1.339
X-939.351 Y-650.587 Z4.019 I-1.447 J-0.088
X-938.725 Y-651.695 Z3.973 I1.447 J0.088
X-936.47 Y-650.714 Z3.871 I0.821 J1.195
X-938.341 Y-649.117 Z3.768 I-1.434 J0.214
X-938.955 Y-651.499 Z3.666 I0.437 J-1.383
X-936.545 Y-651.006 Z3.563 I1.051 J0.999
X-939.263 Y-649.994 Z3.404 I-1.359 J0.506
X-939.139 Y-651.26 Z3.358 I1.359 J-0.506
X-936.679 Y-651.276 Z3.256 I1.235 J0.76
X-939.129 Y-649.723 Z3.097 I-1.225 J0.776
X-936.867 Y-651.513 Z2.948 I1.225 J-0.776
X-938.941 Y-649.487 Z2.789 I-1.037 J1.013
X-937.099 Y-651.706 Z2.64 I1.037 J-1.013
X-937.173 Y-649.247 Z2.538 I-0.805 J1.206
X-939.35 Y-650.393 Z2.435 I-0.731 J-1.252
X-936.458 Y-650.607 Z2.276 I1.446 J-0.107
X-936.93 Y-649.426 Z2.23 I-1.446 J0.107
X-939.296 Y-650.096 Z2.128 I-0.974 J-1.074
X-936.511 Y-650.904 Z1.969 I1.392 J-0.404
X-936.729 Y-649.651 Z1.923 I-1.393 J0.404
X-939.183 Y-649.816 Z1.82 I-1.175 J-0.849
X-936.625 Y-651.184 Z1.661 I1.279 J-0.684
X-936.578 Y-649.912 Z1.615 I-1.279 J0.684
X-939.23 Y-651.087 Z1.456 I-1.326 J-0.587
X-938.256 Y-651.906 Z1.41 I1.326 J0.587
X-936.485 Y-650.2 Z1.308 I0.353 J1.407
X-938.796 Y-649.357 Z1.205 I-1.419 J-0.3
X-938.54 Y-651.803 Z1.103 I0.892 J-1.143
X-936.454 Y-650.5 Z1 I0.636 J1.303
X-938.242 Y-649.09 I-1.45
X-939.197 Y-651.157 I0.338 J-1.41
X-937.247 Y-651.793 I1.293 J0.657
X-936.454 Y-650.5 I-0.657 J1.293
G1 X-936.453 Y-650.416 F850
X-936.472 Y-650.25
X-936.504 Y-650.085
X-936.51 Y-650.064
X-936.599 Y-649.863
X-936.644 Y-649.766
X-936.705 Y-649.668
X-936.883 Y-649.46
X-936.906 Y-649.435
X-936.957 Y-649.388
X-937.007 Y-649.35
X-937.15 Y-649.259
X-937.309 Y-649.166
X-937.51 Y-649.1
X-937.666 Y-649.058
X-937.712 Y-649.05
X-937.913 Y-649.046
X-938.115 Y-649.052
X-938.144 Y-649.058
X-938.316 Y-649.105
X-938.517 Y-649.173
X-938.661 Y-649.259
X-938.819 Y-649.362
X-938.87 Y-649.403
X-938.92 Y-649.453
X-939.1 Y-649.662
X-939.121 Y-649.691
X-939.172 Y-649.777
X-939.211 Y-649.863
X-939.298 Y-650.064
X-939.323 Y-650.169
X-939.337 Y-650.266
X-939.363 Y-650.467
X-939.36 Y-650.568
X-939.323 Y-650.831
X-939.316 Y-650.87
X-939.285 Y-650.97
X-939.241 Y-651.071
X-939.146 Y-651.272
X-939.121 Y-651.31
X-938.984 Y-651.474
X-938.92 Y-651.547
X-938.881 Y-651.587
X-938.842 Y-651.62
X-938.763 Y-651.675
X-938.719 Y-651.704
X-938.517 Y-651.827
X-938.378 Y-651.877
X-938.316 Y-651.895
X-938.115 Y-651.948
X-937.913 Y-651.954
X-937.712 Y-651.95
X-937.611 Y-651.93
X-937.432 Y-651.877
X-937.309 Y-651.835
X-937.108 Y-651.714
X-937.047 Y-651.675
X-936.977 Y-651.628
X-936.906 Y-651.564
X-936.826 Y-651.474
X-936.705 Y-651.332
X-936.665 Y-651.272
X-936.569 Y-651.071
X-936.504 Y-650.916
X-936.491 Y-650.87
X-936.459 Y-650.668
X-936.444 Y-650.568
X-936.441 Y-650.467
X-936.469 Y-650.266
X-936.472 Y-650.25
G3 X-936.568 Y-650.037 I-0.585 J-0.134
G1 X-936.622 Y-649.96 Z1.007
X-936.675 Y-649.885 Z1.029
X-936.725 Y-649.815 Z1.065
X-936.772 Y-649.749 Z1.115
X-936.814 Y-649.691 Z1.176
X-936.849 Y-649.641 Z1.247
X-936.878 Y-649.601 Z1.328
X-936.898 Y-649.572 Z1.415
X-936.911 Y-649.554 Z1.506
X-936.916 Y-649.548 Z1.6
G0 Z30

(2D Adaptive2)
M9
X-936.477 Y-458.245
Z30
Z20
Z18.1
G1 Z17.5 F850
G3 X-938.79 Y-457.352 Z17.396 I-1.427 J-0.255 F283.3
X-938.513 Y-459.816 Z17.292 I0.886 J-1.148
X-936.456 Y-458.432 Z17.188 I0.609 J1.316
X-938.634 Y-457.247 Z17.085 I-1.448 J-0.068
X-938.678 Y-459.726 Z16.981 I0.73 J-1.253
X-936.459 Y-458.62 Z16.877 I0.774 J1.226
X-938.465 Y-457.163 Z16.773 I-1.445 J0.12
X-938.83 Y-459.616 Z16.669 I0.562 J-1.337
X-936.487 Y-458.805 Z16.565 I0.926 J1.116
X-938.288 Y-457.102 Z16.461 I-1.417 J0.306
X-938.966 Y-459.486 Z16.358 I0.384 J-1.398
X-936.538 Y-458.986 Z16.254 I1.063 J0.987
X-938.104 Y-457.064 Z16.15 I-1.366 J0.486
X-939.085 Y-459.341 Z16.046 I0.2 J-1.436
X-936.723 Y-457.659 Z15.887 I1.181 J0.841
X-939.184 Y-459.181 Z15.734 I-1.181 J-0.841
X-936.708 Y-459.32 Z15.63 I1.28 J0.681
X-939.1 Y-457.679 Z15.471 I-1.196 J0.82
X-939.261 Y-459.01 Z15.423 I1.196 J-0.82
X-936.824 Y-459.468 Z15.319 I1.357 J0.51
X-937.544 Y-457.095 Z15.215 I-1.079 J0.968
X-939.316 Y-458.83 Z15.111 I-0.36 J-1.405
X-936.959 Y-459.599 Z15.007 I1.412 J0.33
X-937.366 Y-457.153 Z14.903 I-0.945 J1.1
X-939.347 Y-458.645 Z14.8 I-0.538 J-1.346
X-937.109 Y-459.712 Z14.696 I1.443 J0.145
X-937.196 Y-457.234 Z14.592 I-0.795 J1.213
X-938.612 Y-459.765 Z14.433 I-0.708 J-1.265
X-937.272 Y-459.805 Z14.384 I0.708 J1.266
X-937.038 Y-457.336 Z14.28 I-0.632 J1.305
X-938.769 Y-459.663 Z14.121 I-0.865 J-1.163
X-937.446 Y-459.876 Z14.073 I0.865 J1.163
X-936.895 Y-457.458 Z13.969 I-0.458 J1.376
X-938.913 Y-459.541 Z13.81 I-1.009 J-1.042
X-937.628 Y-459.923 Z13.761 I1.009 J1.042
X-936.769 Y-457.597 Z13.657 I-0.276 J1.424
X-939.229 Y-457.91 Z13.553 I-1.135 J-0.902
X-936.579 Y-459.089 Z13.394 I1.325 J-0.589
X-939.141 Y-457.744 Z13.242 I-1.325 J0.589
X-938.002 Y-459.946 Z13.138 I1.237 J-0.756
X-936.576 Y-457.918 Z13.034 I0.098 J1.447
X-939.033 Y-457.59 Z12.93 I-1.328 J-0.581
X-938.189 Y-459.922 Z12.826 I1.129 J-0.909
X-936.512 Y-458.095 Z12.722 I0.285 J1.422
X-938.906 Y-457.452 Z12.619 I-1.392 J-0.405
X-938.37 Y-459.873 Z12.515 I1.002 J-1.048
X-936.471 Y-458.279 Z12.411 I0.466 J1.373
X-938.762 Y-457.331 Z12.307 I-1.433 J-0.221
X-938.544 Y-459.801 Z12.203 I0.858 J-1.169
X-937.264 Y-457.198 Z12.044 I0.64 J1.301
X-938.707 Y-459.707 Z11.891 I-0.64 J-1.301
X-936.462 Y-458.653 Z11.788 I0.803 J1.208
X-938.434 Y-457.15 Z11.684 I-1.442 J0.154
X-938.856 Y-459.593 Z11.58 I0.53 J-1.35
X-936.494 Y-458.839 Z11.476 I0.952 J1.094
X-938.255 Y-457.093 Z11.372 I-1.41 J0.339
X-938.989 Y-459.461 Z11.268 I0.351 J-1.407
X-936.55 Y-459.018 Z11.164 I1.085 J0.961
X-938.07 Y-457.059 Z11.061 I-1.354 J0.518
X-939.105 Y-459.313 Z10.957 I0.166 J-1.44
X-936.628 Y-459.189 Z10.853 I1.201 J0.813
X-937.882 Y-457.05 Z10.749 I-1.276 J0.689
X-939.2 Y-459.151 Z10.645 I-0.021 J-1.45
X-936.608 Y-457.849 Z10.486 I1.296 J0.651
X-937.695 Y-457.065 Z10.437 I-1.296 J-0.651
X-939.273 Y-458.978 Z10.334 I-0.209 J-1.435
X-936.535 Y-458.022 Z10.174 I1.369 J0.478
X-937.511 Y-457.104 Z10.126 I-1.369 J-0.478
X-939.323 Y-458.797 Z10.022 I-0.393 J-1.396
X-936.985 Y-459.621 Z9.918 I1.419 J0.297
X-937.334 Y-457.166 Z9.814 I-0.919 J1.121
X-939.35 Y-458.611 Z9.71 I-0.57 J-1.333
X-936.458 Y-458.389 Z9.551 I1.446 J0.111
X-937.167 Y-457.251 Z9.503 I-1.446 J-0.111
X-939.352 Y-458.423 Z9.399 I-0.737 J-1.249
X-937.303 Y-459.819 Z9.295 I1.448 J-0.077
X-937.011 Y-457.357 Z9.191 I-0.601 J1.32
X-939.33 Y-458.236 Z9.087 I-0.893 J-1.143
X-937.479 Y-459.886 Z8.983 I1.426 J-0.264
X-938.329 Y-457.114 Z8.824 I-0.425 J1.386
X-939.284 Y-458.054 Z8.776 I0.425 J-1.386
X-937.661 Y-459.929 Z8.672 I1.38 J-0.446
X-936.748 Y-457.624 Z8.568 I-0.242 J1.43
X-939.215 Y-457.879 Z8.464 I-1.156 J-0.876
X-937.848 Y-459.949 Z8.36 I1.311 J-0.62
X-937.959 Y-457.051 Z8.201 I-0.056 J1.449
X-939.123 Y-457.715 Z8.152 I0.056 J-1.449
X-938.036 Y-459.944 Z8.049 I1.219 J-0.785
X-936.562 Y-457.95 Z7.945 I0.132 J1.444
X-939.012 Y-457.564 Z7.841 I-1.342 J-0.55
X-938.222 Y-459.915 Z7.737 I1.108 J-0.936
X-936.502 Y-458.128 Z7.633 I0.318 J1.415
X-938.881 Y-457.429 Z7.529 I-1.401 J-0.372
X-938.402 Y-459.862 Z7.425 I0.977 J-1.071
X-936.466 Y-458.312 Z7.322 I0.498 J1.362
X-938.735 Y-457.311 Z7.218 I-1.438 J-0.187
X-938.574 Y-459.786 Z7.114 I0.831 J-1.188
X-936.454 Y-458.5 Z7.01 I0.67 J1.286
X-938.242 Y-457.09 I-1.45
X-939.197 Y-459.157 I0.338 J-1.41
X-937.247 Y-459.793 I1.293 J0.657
X-936.454 Y-458.5 I-0.657 J1.293
G1 X-936.453 Y-458.416 F850
X-936.472 Y-458.25
X-936.504 Y-458.085
X-936.51 Y-458.064
X-936.599 Y-457.863
X-936.644 Y-457.766
X-936.705 Y-457.668
X-936.883 Y-457.46
X-936.906 Y-457.435
X-936.957 Y-457.388
X-937.007 Y-457.35
X-937.15 Y-457.259
X-937.309 Y-457.166
X-937.51 Y-457.1
X-937.666 Y-457.058
X-937.712 Y-457.05
X-937.913 Y-457.046
X-938.115 Y-457.052
X-938.144 Y-457.058
X-938.316 Y-457.105
X-938.517 Y-457.173
X-938.661 Y-457.259
X-938.819 Y-457.362
X-938.87 Y-457.403
X-938.92 Y-457.453
X-939.1 Y-457.662
X-939.121 Y-457.691
X-939.172 Y-457.777
X-939.211 Y-457.863
X-939.298 Y-458.064
X-939.323 Y-458.169
X-939.337 Y-458.266
X-939.363 Y-458.467
X-939.36 Y-458.568
X-939.323 Y-458.831
X-939.316 Y-458.87
X-939.285 Y-458.97
X-939.241 Y-459.071
X-939.146 Y-459.272
X-939.121 Y-459.31
X-938.984 Y-459.474
X-938.92 Y-459.547
X-938.881 Y-459.587
X-938.842 Y-459.62
X-938.763 Y-459.675
X-938.719 Y-459.704
X-938.517 Y-459.827
X-938.378 Y-459.877
X-938.316 Y-459.895
X-938.115 Y-459.948
X-937.913 Y-459.954
X-937.712 Y-459.95
X-937.611 Y-459.93
X-937.432 Y-459.877
X-937.309 Y-459.835
X-937.108 Y-459.714
X-937.047 Y-459.675
X-936.977 Y-459.628
X-936.906 Y-459.564
X-936.826 Y-459.474
X-936.705 Y-459.332
X-936.665 Y-459.272
X-936.569 Y-459.071
X-936.504 Y-458.916
X-936.491 Y-458.87
X-936.459 Y-458.668
X-936.444 Y-458.568
X-936.441 Y-458.467
X-936.469 Y-458.266
X-936.472 Y-458.25
X-936.493 Y-458.2 Z7.017
X-936.514 Y-458.152 Z7.036
X-936.532 Y-458.11 Z7.067
X-936.547 Y-458.076 Z7.108
X-936.558 Y-458.051 Z7.157
X-936.565 Y-458.04 Z7.2
X-936.568 Y-458.037 Z7.246
G0 Z20
X-937.918 Y-457.05
Z10.11
G1 Z9.51 F850
G3 X-939.201 Y-459.149 Z9.407 I0.015 J-1.45 F283.3
X-936.752 Y-459.38 Z9.305 I1.297 J0.649
X-939.056 Y-457.619 Z9.146 I-1.152 J0.881
X-939.307 Y-458.866 Z9.1 I1.152 J-0.881
X-936.501 Y-458.133 Z8.941 I1.403 J0.367
X-937.33 Y-457.168 Z8.895 I-1.403 J-0.367
X-939.352 Y-458.568 Z8.792 I-0.574 J-1.332
X-936.456 Y-458.432 Z8.633 I1.448 J0.068
X-939.335 Y-458.267 Z8.485 I-1.448 J-0.068
X-936.473 Y-458.733 Z8.326 I1.431 J-0.233
X-939.256 Y-457.975 Z8.177 I-1.431 J0.233
X-936.552 Y-459.024 Z8.018 I1.352 J-0.524
X-936.659 Y-457.757 Z7.972 I-1.352 J0.524
X-939.118 Y-457.707 Z7.87 I-1.245 J-0.743
X-936.69 Y-459.293 Z7.71 I1.214 J-0.793
X-936.532 Y-458.03 Z7.664 I-1.214 J0.793
X-938.927 Y-457.473 Z7.562 I-1.372 J-0.469
X-936.88 Y-459.527 Z7.403 I1.024 J-1.027
X-936.465 Y-458.325 Z7.357 I-1.024 J1.027
X-938.693 Y-457.283 Z7.254 I-1.439 J-0.175
X-938.651 Y-459.742 Z7.152 I0.789 J-1.217
X-937.156 Y-457.257 Z6.993 I0.747 J1.242
X-938.651 Y-459.742 Z6.834 I-0.747 J-1.243
X-936.517 Y-458.923 Z6.742 I0.747 J1.243
X-938.132 Y-457.068 Z6.639 I-1.387 J0.423
X-939.091 Y-459.333 Z6.537 I0.228 J-1.432
X-936.635 Y-459.201 Z6.434 I1.187 J0.833
X-939.173 Y-457.799 Z6.275 I-1.269 J0.701
X-936.635 Y-459.201 Z6.116 I1.269 J-0.701
X-937.532 Y-457.098 Z6.024 I-1.269 J0.701
X-938.275 Y-459.901 Z5.865 I-0.371 J-1.402
X-937.027 Y-459.655 Z5.819 I0.371 J1.402
X-937.25 Y-457.205 Z5.716 I-0.876 J1.155
X-939.354 Y-458.48 Z5.614 I-0.654 J-1.294
X-937.286 Y-459.811 Z5.511 I1.45 J-0.02
X-936.997 Y-457.369 Z5.409 I-0.618 J1.312
X-939.318 Y-458.18 Z5.306 I-0.907 J-1.131
X-936.49 Y-458.819 Z5.147 I1.414 J-0.319
X-936.782 Y-457.581 Z5.101 I-1.414 J0.319
X-939.222 Y-457.895 Z4.999 I-1.122 J-0.919
X-937.87 Y-459.949 Z4.896 I1.318 J-0.605
X-936.616 Y-457.833 Z4.794 I-0.034 J1.45
X-939.068 Y-457.635 Z4.691 I-1.288 J-0.666
X-936.74 Y-459.365 Z4.532 I1.164 J-0.865
X-936.506 Y-458.114 Z4.486 I-1.164 J0.865
X-938.864 Y-457.413 Z4.383 I-1.398 J-0.385
X-938.46 Y-459.839 Z4.281 I0.96 J-1.087
X-936.457 Y-458.412 Z4.178 I0.556 J1.339
X-939.351 Y-458.587 Z4.019 I-1.447 J-0.088
X-938.725 Y-459.695 Z3.973 I1.447 J0.088
X-936.47 Y-458.714 Z3.871 I0.821 J1.195
X-938.341 Y-457.117 Z3.768 I-1.434 J0.214
X-938.955 Y-459.499 Z3.666 I0.437 J-1.383
X-936.545 Y-459.006 Z3.563 I1.051 J0.999
X-939.263 Y-457.994 Z3.404 I-1.359 J0.506
X-939.139 Y-459.26 Z3.358 I1.359 J-0.506
X-936.679 Y-459.276 Z3.256 I1.235 J0.76
X-939.129 Y-457.723 Z3.097 I-1.225 J0.776
X-936.867 Y-459.513 Z2.948 I1.225 J-0.776
X-938.941 Y-457.487 Z2.789 I-1.037 J1.013
X-937.099 Y-459.706 Z2.64 I1.037 J-1.013
X-937.173 Y-457.247 Z2.538 I-0.805 J1.206
X-939.35 Y-458.393 Z2.435 I-0.731 J-1.252
X-936.458 Y-458.607 Z2.276 I1.446 J-0.107
X-936.93 Y-457.426 Z2.23 I-1.446 J0.107
X-939.296 Y-458.096 Z2.128 I-0.974 J-1.074
X-936.511 Y-458.904 Z1.969 I1.392 J-0.404
X-936.729 Y-457.651 Z1.923 I-1.393 J0.404
X-939.183 Y-457.816 Z1.82 I-1.175 J-0.849
X-936.625 Y-459.184 Z1.661 I1.279 J-0.684
X-936.578 Y-457.912 Z1.615 I-1.279 J0.684
X-939.23 Y-459.087 Z1.456 I-1.326 J-0.587
X-938.256 Y-459.906 Z1.41 I1.326 J0.587
X-936.485 Y-458.2 Z1.308 I0.353 J1.407
X-938.796 Y-457.357 Z1.205 I-1.419 J-0.3
X-938.54 Y-459.803 Z1.103 I0.892 J-1.143
X-936.454 Y-458.5 Z1 I0.636 J1.303
X-938.242 Y-457.09 I-1.45
X-939.197 Y-459.157 I0.338 J-1.41
X-937.247 Y-459.793 I1.293 J0.657
X-936.454 Y-458.5 I-0.657 J1.293
G1 X-936.453 Y-458.416 F850
X-936.472 Y-458.25
X-936.504 Y-458.085
X-936.51 Y-458.064
X-936.599 Y-457.863
X-936.644 Y-457.766
X-936.705 Y-457.668
X-936.883 Y-457.46
X-936.906 Y-457.435
X-936.957 Y-457.388
X-937.007 Y-457.35
X-937.15 Y-457.259
X-937.309 Y-457.166
X-937.51 Y-457.1
X-937.666 Y-457.058
X-937.712 Y-457.05
X-937.913 Y-457.046
X-938.115 Y-457.052
X-938.144 Y-457.058
X-938.316 Y-457.105
X-938.517 Y-457.173
X-938.661 Y-457.259
X-938.819 Y-457.362
X-938.87 Y-457.403
X-938.92 Y-457.453
X-939.1 Y-457.662
X-939.121 Y-457.691
X-939.172 Y-457.777
X-939.211 Y-457.863
X-939.298 Y-458.064
X-939.323 Y-458.169
X-939.337 Y-458.266
X-939.363 Y-458.467
X-939.36 Y-458.568
X-939.323 Y-458.831
X-939.316 Y-458.87
X-939.285 Y-458.97
X-939.241 Y-459.071
X-939.146 Y-459.272
X-939.121 Y-459.31
X-938.984 Y-459.474
X-938.92 Y-459.547
X-938.881 Y-459.587
X-938.842 Y-459.62
X-938.763 Y-459.675
X-938.719 Y-459.704
X-938.517 Y-459.827
X-938.378 Y-459.877
