%
(1001)
(Dust Shoe)
(T1  D=3 CR=0 - ZMIN=0 - flat end mill)
G90 G94
G17
G21

(2D Contour4)
M9
T1 M6
S5000 M3
G54
M9
G0 X-2.4 Y-87.8
Z16.2
Z6.2
G1 Z2.2 F850
Z0.3 F283.3
G18 G2 X-2.1 Z0 I0.3
G1 X-1.8 F850
G17 G3 X-1.5 Y-87.5 J0.3
G1 Y87.5
G2 X0 Y89 I1.5
G1 X12
G2 X23.5 Y77.5 J-11.5
G1 Y72
G3 X42 Y53.5 I18.5
G1 X47.293
Z1.2
X53.293
Z0 F283.3
X58 F850
G2 X111.377 Y3.623 J-53.5
G1 Z1.2
G2 X111.447 Y-2.377 I-53.377 J-3.623
G1 Z0 F283.3
G2 X58 Y-53.5 I-53.447 J2.377 F850
G1 X53.005
Z1.2
X47.005
Z0 F283.3
X42 F850
G3 X23.5 Y-72 J-18.5
G1 Y-77.5
G2 X12 Y-89 I-11.5
G1 X0
G2 X-1.5 Y-87.5 J1.5
G3 X-1.8 Y-87.2 I-0.3
G1 X-2.1
G18 G3 X-2.4 Z0.3 K0.3
G0 Z16.2
G17

(2D Contour4 2)
M9
G0 X92.6 Y-0.3
Z16.2
Z6.2
G1 Z2.2 F850
Z0.3 F283.3
G18 G2 X92.9 Z0 I0.3
G1 X93.2 F850
G17 G3 X93.5 Y0 J0.3
X70 Y23.5 I-23.5
G1 X69.537
Z1.2
X63.537
Z0 F283.3
X41.76 F850
G3 X24.941 Y14.348 I1.587 J-22.947
X23.5 Y2.592 I24.579 J-8.979
G1 Z1.2
Y-3.408
Z0 F283.3
G3 X41.651 Y-23.5 I17.452 J-2.479 F850
G1 X63.659
Z1.2
X69.659
Z0 F283.3
X70 F850
G3 X93.5 Y0 J23.5
X93.2 Y0.3 I-0.3
G1 X92.9
G18 G3 X92.6 Z0.3 K0.3
G0 Z16.2
G17
M9
M30
%
