%
(1001)
(Dust Shoe acrylic top)
(T1  D=6 CR=0 - ZMIN=0 - flat end mill)
G90 G94
G17
G21

(2D Adaptive1)
M9
T1 M6
S8000 M3
G54
M9
G0 X70.747 Y57.366
Z33
Z21.15
G1 Z20.55 F250
G3 X67.04 Y53.037 Z20.237 I-1.854 J-2.165 F200
X70.747 Y57.366 Z19.925 I1.854 J2.165
X67.04 Y53.037 Z19.612 I-1.854 J-2.165
X70.747 Y57.366 Z19.299 I1.854 J2.165
X67.04 Y53.037 Z18.987 I-1.854 J-2.165
X70.747 Y57.366 Z18.674 I1.854 J2.165
X67.04 Y53.037 Z18.361 I-1.854 J-2.165
X70.747 Y57.366 Z18.049 I1.854 J2.165
X67.04 Y53.037 Z17.736 I-1.854 J-2.165
X70.747 Y57.366 Z17.423 I1.854 J2.165
X67.04 Y53.037 Z17.111 I-1.854 J-2.165
X70.747 Y57.366 Z16.798 I1.854 J2.165
X67.04 Y53.037 Z16.485 I-1.854 J-2.165
X70.747 Y57.366 Z16.173 I1.854 J2.165
X67.04 Y53.037 Z15.86 I-1.854 J-2.165
X70.747 Y57.366 Z15.547 I1.854 J2.165
X67.04 Y53.037 Z15.235 I-1.854 J-2.165
X70.747 Y57.366 Z14.922 I1.854 J2.165
X67.04 Y53.037 Z14.609 I-1.854 J-2.165
X70.747 Y57.366 Z14.297 I1.854 J2.165
X67.04 Y53.037 Z13.984 I-1.854 J-2.165
X70.747 Y57.366 Z13.671 I1.854 J2.165
X67.04 Y53.037 Z13.359 I-1.854 J-2.165
X70.747 Y57.366 Z13.046 I1.854 J2.165
X67.04 Y53.037 Z12.733 I-1.854 J-2.165
X70.747 Y57.366 Z12.421 I1.854 J2.165
X67.04 Y53.037 Z12.108 I-1.854 J-2.165
X70.747 Y57.366 Z11.795 I1.854 J2.165
X67.04 Y53.037 Z11.483 I-1.854 J-2.165
X70.747 Y57.366 Z11.17 I1.854 J2.165
X67.04 Y53.037 Z10.857 I-1.854 J-2.165
X70.747 Y57.366 Z10.545 I1.854 J2.165
X67.04 Y53.037 Z10.232 I-1.854 J-2.165
X70.747 Y57.366 Z9.919 I1.854 J2.165
X67.04 Y53.037 Z9.607 I-1.854 J-2.165
X70.747 Y57.366 Z9.294 I1.854 J2.165
X67.04 Y53.037 Z8.981 I-1.854 J-2.165
X70.747 Y57.366 Z8.669 I1.854 J2.165
X67.04 Y53.037 Z8.356 I-1.854 J-2.165
X70.747 Y57.366 Z8.043 I1.854 J2.165
X67.04 Y53.037 Z7.731 I-1.854 J-2.165
X70.747 Y57.366 Z7.418 I1.854 J2.165
X67.04 Y53.037 Z7.105 I-1.854 J-2.165
X70.747 Y57.366 Z6.793 I1.854 J2.165
X67.04 Y53.037 Z6.48 I-1.854 J-2.165
X70.747 Y57.366 Z6.167 I1.854 J2.165
X67.04 Y53.037 Z5.855 I-1.854 J-2.165
X70.747 Y57.366 Z5.542 I1.854 J2.165
X67.04 Y53.037 Z5.229 I-1.854 J-2.165
X70.747 Y57.366 Z4.917 I1.854 J2.165
X67.04 Y53.037 Z4.604 I-1.854 J-2.165
X70.747 Y57.366 Z4.291 I1.854 J2.165
X67.04 Y53.037 Z3.979 I-1.854 J-2.165
X70.747 Y57.366 Z3.666 I1.854 J2.165
X67.04 Y53.037 Z3.353 I-1.854 J-2.165
X70.747 Y57.366 Z3.041 I1.854 J2.165
X67.04 Y53.037 Z2.728 I-1.854 J-2.165
X70.747 Y57.366 Z2.415 I1.854 J2.165
X67.04 Y53.037 Z2.103 I-1.854 J-2.165
X70.747 Y57.366 Z1.79 I1.854 J2.165
X67.04 Y53.037 Z1.477 I-1.854 J-2.165
X70.747 Y57.366 Z1.165 I1.854 J2.165
X67.04 Y53.037 Z0.852 I-1.854 J-2.165
X70.747 Y57.366 Z0.539 I1.854 J2.165
X67.04 Y53.037 Z0.227 I-1.854 J-2.165
X71.743 Y55.201 Z0 I1.854 J2.165
X66.043 I-2.85
X71.743 I2.85
G1 X71.747 Y55.423 F850
X71.899 Y56.296
G3 X71.711 Y57.917 I-1.777 J0.616
X70.429 Y58.751 I-1.285 J-0.573
G1 X68.895
G3 X65.284 Y53.993 I0.005 J-3.753
X66.878 Y51.843 I3.623 J1.019
X68.893 Y51.251 I2.038 J3.215
G1 X69.699
G3 X72.673 Y52.906 I-0.049 J3.59
X73.666 Y54.977 I-5.831 J4.069
X73.653 Y57.808 I-4.719 J1.393
X72.332 Y58.758 I-1.337 J-0.467
X70.429 Y58.751 I-0.424 J-141.904
X70.201 Y58.697 I0.021 J-0.599 F250
X69.854 Y58.221 I0.249 J-0.546 F850
G1 X69.123 Y51.92
G3 X69.471 Y51.305 I0.596 J-0.069
X69.699 Y51.251 I0.249 J0.546 F250
X72.083 Y51.264 I0.597 J113.988 F850
X73.693 Y51.994 I-0.474 J3.188
X75.534 Y54.906 I-3.424 J4.201
X75.549 Y57.777 I-5.02 J1.463
X75.017 Y58.495 I-1.396 J-0.479
G1 X74.768 Y58.634
X74.495 Y58.721
X74.211 Y58.75
X73.322 Y58.751
X72.332 Y58.757
G3 X72.104 Y58.705 I0.017 J-0.6 F250
X71.75 Y58.195 I0.245 J-0.548 F850
G1 X71.355 Y51.896
G3 X71.705 Y51.312 I0.599 J-0.038
X71.933 Y51.258 I0.249 J0.546 F250
X73.943 I1.003 J51.637 F850
X75.803 Y52.159 I-0.441 J3.283
X77.393 Y54.8 I-3.702 J4.026
X77.456 Y57.704 I-5.081 J1.563
X76.913 Y58.481 I-1.444 J-0.43
G1 X76.663 Y58.624
X76.388 Y58.714
X76.101 Y58.745
X75.335 Y58.75
X74.211
G3 X73.983 Y58.697 I0.021 J-0.6 F250
X73.633 Y58.197 I0.249 J-0.546 F850
G1 X73.147 Y51.896
G3 X73.497 Y51.304 I0.598 J-0.046
X73.724 Y51.25 I0.249 J0.546 F250
G1 X75.335 F850
G3 X77.408 Y51.919 I0.194 J2.944
X78.918 Y53.827 I-3.015 J3.937
X79.427 Y57.357 I-5.225 J2.555
X79.014 Y58.293 I-2.019 J-0.331
X77.975 Y58.75 I-1.045 J-0.966
X76.101 Y58.745 I-0.179 J-255.552
X75.873 Y58.693 I0.018 J-0.6 F250
X75.521 Y58.187 I0.246 J-0.547 F850
G1 X75.082 Y51.889
G3 X75.428 Y51.303 I0.599 J-0.042
X75.656 Y51.247 I0.252 J0.544 F250
X77.733 Y51.258 I0.528 J97.335 F850
X79.581 Y52.153 I-0.411 J3.203
X81.163 Y54.786 I-3.684 J4.006
X81.224 Y57.703 I-5.103 J1.566
X80.676 Y58.489 I-1.45 J-0.426
G1 X80.424 Y58.632
X80.148 Y58.721
X79.86 Y58.751
X77.975 Y58.75
G3 X77.747 Y58.696 I0.021 J-0.6 F250
X77.397 Y58.189 I0.249 J-0.546 F850
G1 X76.991 Y51.888
G3 X77.341 Y51.304 I0.599 J-0.039
X77.569 Y51.25 I0.249 J0.546 F250
G1 X79.361 F850
G3 X81.208 Y51.94 I-0.055 J2.968
X82.895 Y54.319 I-3.193 J4.051
X83.188 Y57.39 I-5.267 J2.052
X82.779 Y58.298 I-1.912 J-0.315
X81.746 Y58.75 I-1.039 J-0.967
G1 X79.86 Y58.751
G3 X79.632 Y58.697 I0.021 J-0.6 F250
X79.283 Y58.198 I0.249 J-0.546 F850
G1 X78.783 Y51.897
G3 X79.133 Y51.304 I0.598 J-0.047
X79.361 Y51.25 I0.249 J0.546 F250
G1 X81.374 F850
G3 X83.116 Y51.953 I-0.183 J2.964
X84.796 Y54.36 I-3.242 J4.054
X85.066 Y57.422 I-5.266 J2.008
X84.66 Y58.303 I-1.847 J-0.318
X83.632 Y58.75 I-1.033 J-0.97
G1 X81.746
G3 X81.518 Y58.696 I0.021 J-0.6 F250
X81.168 Y58.186 I0.249 J-0.546 F850
G1 X80.796 Y51.885
G3 X81.146 Y51.304 I0.599 J-0.035
X81.374 Y51.25 I0.25 J0.546 F250
G1 X83.205 F850
G3 X84.976 Y51.935 I-0.123 J2.949
X86.476 Y53.858 I-3.056 J3.929
X86.962 Y57.387 I-5.239 J2.52
X86.551 Y58.297 I-1.956 J-0.334
X85.517 Y58.75 I-1.04 J-0.968
G1 X83.632
G3 X83.404 Y58.696 I0.021 J-0.6 F250
X83.054 Y58.191 I0.249 J-0.546 F850
G1 X82.628 Y51.89
G3 X82.978 Y51.304 I0.599 J-0.041
X83.205 Y51.25 I0.249 J0.546 F250
G1 X85.119 F850
G3 X86.861 Y51.933 I-0.153 J2.952
X88.55 Y54.312 I-3.192 J4.056
X88.846 Y57.386 I-5.269 J2.058
X88.437 Y58.297 I-1.923 J-0.315
X87.402 Y58.75 I-1.04 J-0.967
G1 X85.517
G3 X85.289 Y58.696 I0.021 J-0.6 F250
X84.939 Y58.188 I0.249 J-0.546 F850
G1 X84.541 Y51.887
G3 X84.891 Y51.304 I0.599 J-0.038
X85.119 Y51.25 I0.249 J0.546 F250
G1 X87.01 F850
G3 X88.746 Y51.933 I-0.158 J2.952
X90.435 Y54.311 I-3.193 J4.056
X90.731 Y57.386 I-5.27 J2.059
X90.322 Y58.297 I-1.923 J-0.315
X89.288 Y58.75 I-1.04 J-0.967
G1 X87.402
G3 X87.175 Y58.696 I0.021 J-0.6 F250
X86.825 Y58.188 I0.249 J-0.546 F850
G1 X86.432 Y51.887
G3 X86.782 Y51.304 I0.599 J-0.037
X87.01 Y51.25 I0.249 J0.546 F250
G1 X88.842 F850
G3 X90.633 Y51.935 I-0.101 J2.95
X92.321 Y54.312 I-3.188 J4.052
X92.617 Y57.386 I-5.268 J2.058
X92.208 Y58.297 I-1.923 J-0.315
X91.173 Y58.75 I-1.04 J-0.967
G1 X89.288
G3 X89.06 Y58.696 I0.021 J-0.6 F250
X88.71 Y58.193 I0.249 J-0.546 F850
G1 X88.264 Y51.892
G3 X88.614 Y51.304 I0.599 J-0.042
X88.842 Y51.25 I0.249 J0.546 F250
G1 X90.755 F850
G3 X92.518 Y51.934 I-0.13 J2.95
X94.206 Y54.312 I-3.19 J4.054
X94.502 Y57.386 I-5.269 J2.058
X94.093 Y58.297 I-1.923 J-0.315
X93.059 Y58.75 I-1.04 J-0.967
G1 X91.173
G3 X90.946 Y58.696 I0.021 J-0.6 F250
X90.596 Y58.19 I0.249 J-0.546 F850
G1 X90.177 Y51.889
G3 X90.527 Y51.304 I0.599 J-0.04
X90.755 Y51.25 I0.249 J0.546 F250
G1 X92.646 F850
G3 X94.403 Y51.933 I-0.136 J2.95
X96.092 Y54.311 I-3.19 J4.055
X96.388 Y57.386 I-5.269 J2.058
X95.979 Y58.297 I-1.923 J-0.315
X94.944 Y58.75 I-1.04 J-0.967
G1 X93.059
G3 X92.831 Y58.696 I0.021 J-0.6 F250
X92.481 Y58.19 I0.249 J-0.546 F850
G1 X92.068 Y51.889
G3 X92.418 Y51.304 I0.599 J-0.039
X92.646 Y51.25 I0.249 J0.546 F250
G1 X94.478 F850
G3 X96.289 Y51.936 I-0.082 J2.953
X97.977 Y54.312 I-3.188 J4.052
X98.273 Y57.386 I-5.268 J2.058
X97.864 Y58.297 I-1.923 J-0.315
X96.83 Y58.75 I-1.04 J-0.967
G1 X94.944
G3 X94.717 Y58.696 I0.021 J-0.6 F250
X94.367 Y58.195 I0.249 J-0.546 F850
G1 X93.9 Y51.894
G3 X94.25 Y51.304 I0.598 J-0.044
X94.478 Y51.25 I0.249 J0.546 F250
G1 X96.391 F850
G3 X98.174 Y51.935 I-0.11 J2.951
X99.863 Y54.312 I-3.189 J4.053
X100.158 Y57.386 I-5.268 J2.058
X99.75 Y58.297 I-1.922 J-0.315
X98.715 Y58.75 I-1.04 J-0.967
G1 X96.83
G3 X96.602 Y58.696 I0.021 J-0.6 F250
X96.252 Y58.192 I0.249 J-0.546 F850
G1 X95.814 Y51.891
G3 X96.163 Y51.304 I0.599 J-0.042
X96.391 Y51.25 I0.249 J0.546 F250
G1 X98.282 F850
G3 X100.059 Y51.934 I-0.116 J2.95
X101.748 Y54.312 I-3.189 J4.053
X102.044 Y57.386 I-5.268 J2.058
X101.635 Y58.297 I-1.923 J-0.315
X100.601 Y58.75 I-1.04 J-0.967
G1 X98.715
G3 X98.487 Y58.696 I0.021 J-0.6 F250
X98.138 Y58.191 I0.249 J-0.546 F850
G1 X97.705 Y51.891
G3 X98.054 Y51.304 I0.599 J-0.041
X98.282 Y51.25 I0.249 J0.546 F250
G1 X100.114 F850
G3 X101.946 Y51.937 I-0.065 J2.959
X103.633 Y54.313 I-3.188 J4.052
X103.929 Y57.386 I-5.267 J2.057
X103.52 Y58.297 I-1.922 J-0.315
X102.486 Y58.75 I-1.04 J-0.967
G1 X100.601
G3 X100.373 Y58.696 I0.021 J-0.6 F250
X100.023 Y58.197 I0.249 J-0.546 F850
G1 X99.537 Y51.896
G3 X99.886 Y51.304 I0.598 J-0.046
X100.114 Y51.25 I0.249 J0.546 F250
G1 X102.127 F850
G3 X103.875 Y51.967 I-0.197 J2.969
X105.549 Y54.393 I-3.275 J4.05
X105.801 Y57.447 I-5.264 J1.972
X105.397 Y58.307 I-1.795 J-0.318
X104.373 Y58.75 I-1.028 J-0.972
G1 X102.486
G3 X102.258 Y58.696 I0.021 J-0.6 F250
X101.908 Y58.184 I0.249 J-0.546 F850
G1 X101.549 Y51.884
G3 X101.899 Y51.304 I0.599 J-0.034
X102.127 Y51.25 I0.249 J0.546 F250
G1 X103.919 F850
G3 X105.717 Y51.936 I-0.095 J2.95
X107.217 Y53.86 I-3.055 J3.929
X107.703 Y57.387 I-5.239 J2.518
X107.292 Y58.297 I-1.955 J-0.333
X106.258 Y58.75 I-1.04 J-0.968
G1 X104.373
G3 X104.145 Y58.696 I0.021 J-0.6 F250
X103.795 Y58.194 I0.249 J-0.546 F850
G1 X103.341 Y51.893
G3 X103.691 Y51.304 I0.598 J-0.043
X103.919 Y51.25 I0.249 J0.546 F250
G1 X105.85 F850
G3 X107.601 Y51.934 I-0.143 J2.952
X109.291 Y54.312 I-3.192 J4.056
X109.586 Y57.386 I-5.268 J2.058
X109.178 Y58.297 I-1.922 J-0.315
X108.143 Y58.75 I-1.04 J-0.967
G1 X106.258
G3 X106.03 Y58.696 I0.021 J-0.6 F250
X105.68 Y58.189 I0.249 J-0.546 F850
G1 X105.272 Y51.888
G3 X105.622 Y51.304 I0.599 J-0.039
X105.85 Y51.25 I0.249 J0.546 F250
G1 X107.763 F850
G3 X109.5 Y51.942 I-0.173 J2.957
X111.185 Y54.334 I-3.217 J4.055
X111.468 Y57.403 I-5.269 J2.034
X111.06 Y58.3 I-1.887 J-0.317
X110.029 Y58.75 I-1.037 J-0.969
G1 X108.143
G3 X107.915 Y58.696 I0.021 J-0.6 F250
X107.565 Y58.186 I0.249 J-0.546 F850
G1 X107.185 Y51.886
G3 X107.535 Y51.304 I0.599 J-0.036
X107.763 Y51.25 I0.249 J0.546 F250
G1 X109.555 F850
G3 X111.375 Y51.936 I-0.075 J2.955
X113.062 Y54.314 I-3.19 J4.052
X113.357 Y57.386 I-5.265 J2.057
X112.949 Y58.297 I-1.922 J-0.315
X111.914 Y58.75 I-1.04 J-0.967
G1 X110.029
G3 X109.801 Y58.696 I0.021 J-0.6 F250
X109.452 Y58.195 I0.249 J-0.546 F850
G1 X108.977 Y51.895
G3 X109.327 Y51.304 I0.598 J-0.045
X109.555 Y51.25 I0.249 J0.546 F250
G1 X111.568 F850
G3 X113.321 Y51.98 I-0.21 J2.974
X114.989 Y54.426 I-3.307 J4.048
X115.225 Y57.47 I-5.258 J1.937
X114.823 Y58.311 I-1.745 J-0.318
X113.802 Y58.75 I-1.024 J-0.974
G1 X111.914
G3 X111.686 Y58.696 I0.021 J-0.6 F250
X111.336 Y58.183 I0.249 J-0.546 F850
G1 X110.99 Y51.883
G3 X111.34 Y51.304 I0.599 J-0.033
X111.568 Y51.25 I0.249 J0.546 F250
G1 X113.4 F850
G3 X115.144 Y51.932 I-0.147 J2.947
X116.647 Y53.86 I-3.06 J3.935
X117.132 Y57.388 I-5.244 J2.518
X116.721 Y58.297 I-1.953 J-0.333
X115.687 Y58.75 I-1.04 J-0.968
G1 X113.802
G3 X113.574 Y58.696 I0.021 J-0.6 F250
X113.224 Y58.189 I0.249 J-0.546 F850
G1 X112.822 Y51.888
G3 X113.172 Y51.304 I0.599 J-0.038
X113.4 Y51.25 I0.249 J0.546 F250
G1 X115.191 F850
G3 X117.032 Y51.937 I-0.057 J2.961
X118.719 Y54.314 I-3.188 J4.052
X119.015 Y57.386 I-5.265 J2.057
X118.606 Y58.297 I-1.921 J-0.315
X117.572 Y58.75 I-1.04 J-0.967
G1 X115.687
G3 X115.459 Y58.696 I0.021 J-0.6 F250
X115.11 Y58.197 I0.249 J-0.546 F850
G1 X114.614 Y51.897
G3 X114.963 Y51.304 I0.598 J-0.047
X115.191 Y51.25 I0.249 J0.546 F250
G1 X117.204 F850
G3 X118.948 Y51.957 I-0.187 J2.965
X120.627 Y54.371 I-3.252 J4.053
X120.891 Y57.43 I-5.266 J1.996
X120.486 Y58.304 I-1.831 J-0.318
X119.458 Y58.75 I-1.032 J-0.971
G1 X117.572
G3 X117.344 Y58.696 I0.021 J-0.6 F250
X116.994 Y58.185 I0.249 J-0.546 F850
G1 X116.626 Y51.885
G3 X116.976 Y51.304 I0.599 J-0.035
X117.204 Y51.25 I0.249 J0.546 F250
G1 X119.036 F850
G3 X120.803 Y51.935 I-0.127 J2.95
X122.303 Y53.858 I-3.057 J3.93
X122.789 Y57.387 I-5.239 J2.519
X122.378 Y58.297 I-1.956 J-0.334
X121.344 Y58.75 I-1.04 J-0.968
G1 X119.458
G3 X119.231 Y58.696 I0.021 J-0.6 F250
X118.881 Y58.191 I0.249 J-0.546 F850
G1 X118.458 Y51.89
G3 X118.808 Y51.304 I0.599 J-0.04
X119.036 Y51.25 I0.249 J0.546 F250
G1 X120.949 F850
G3 X122.687 Y51.933 I-0.157 J2.952
X124.377 Y54.312 I-3.193 J4.057
X124.672 Y57.386 I-5.269 J2.058
X124.263 Y58.297 I-1.923 J-0.315
X123.229 Y58.75 I-1.04 J-0.967
G1 X121.344
G3 X121.116 Y58.696 I0.021 J-0.6 F250
X120.766 Y58.188 I0.249 J-0.546 F850
G1 X120.371 Y51.887
G3 X120.721 Y51.304 I0.599 J-0.038
X120.949 Y51.25 I0.249 J0.546 F250
G1 X122.84 F850
G3 X124.573 Y51.932 I-0.162 J2.953
X126.262 Y54.311 I-3.193 J4.057
X126.558 Y57.386 I-5.27 J2.059
X126.149 Y58.297 I-1.923 J-0.315
X125.115 Y58.75 I-1.04 J-0.967
G1 X123.229
G3 X123.001 Y58.696 I0.021 J-0.6 F250
X122.651 Y58.187 I0.249 J-0.546 F850
G1 X122.262 Y51.887
G3 X122.612 Y51.304 I0.599 J-0.037
X122.84 Y51.25 I0.249 J0.546 F250
G1 X124.672 F850
G3 X126.459 Y51.935 I-0.105 J2.949
X128.148 Y54.312 I-3.188 J4.052
X128.443 Y57.386 I-5.268 J2.058
X128.034 Y58.297 I-1.923 J-0.315
X127 Y58.75 I-1.04 J-0.967
G1 X125.115
G3 X124.887 Y58.696 I0.021 J-0.6 F250
X124.537 Y58.192 I0.249 J-0.546 F850
G1 X124.094 Y51.892
G3 X124.444 Y51.304 I0.599 J-0.042
X124.672 Y51.25 I0.249 J0.546 F250
G1 X126.585 F850
G3 X128.344 Y51.934 I-0.134 J2.95
X130.033 Y54.311 I-3.19 J4.054
X130.329 Y57.386 I-5.269 J2.058
X129.92 Y58.297 I-1.923 J-0.315
X128.886 Y58.75 I-1.04 J-0.967
G1 X127
G3 X126.772 Y58.696 I0.021 J-0.6 F250
X126.422 Y58.19 I0.249 J-0.546 F850
G1 X126.008 Y51.889
G3 X126.357 Y51.304 I0.599 J-0.039
X126.585 Y51.25 I0.249 J0.546 F250
G1 X128.477 F850
G3 X130.23 Y51.933 I-0.14 J2.95
X131.919 Y54.311 I-3.191 J4.055
X132.214 Y57.386 I-5.269 J2.058
X131.805 Y58.297 I-1.923 J-0.315
X130.771 Y58.75 I-1.04 J-0.967
G1 X128.886
G3 X128.658 Y58.696 I0.021 J-0.6 F250
X128.308 Y58.189 I0.249 J-0.546 F850
G1 X127.899 Y51.889
G3 X128.249 Y51.304 I0.599 J-0.039
X128.477 Y51.25 I0.249 J0.546 F250
G1 X130.308 F850
G3 X132.116 Y51.936 I-0.086 J2.952
X133.804 Y54.312 I-3.188 J4.052
X134.1 Y57.386 I-5.268 J2.058
X133.691 Y58.297 I-1.922 J-0.315
X132.657 Y58.75 I-1.04 J-0.967
G1 X130.771
G3 X130.543 Y58.696 I0.021 J-0.6 F250
X130.194 Y58.194 I0.249 J-0.546 F850
G1 X129.731 Y51.894
G3 X130.08 Y51.304 I0.598 J-0.044
X130.308 Y51.25 I0.249 J0.546 F250
G1 X132.222 F850
G3 X134.001 Y51.935 I-0.114 J2.95
X135.689 Y54.312 I-3.189 J4.053
X135.985 Y57.386 I-5.268 J2.058
X135.576 Y58.297 I-1.923 J-0.315
X134.542 Y58.75 I-1.04 J-0.967
G1 X132.657
G3 X132.429 Y58.696 I0.021 J-0.6 F250
X132.079 Y58.192 I0.249 J-0.546 F850
G1 X131.644 Y51.891
G3 X131.994 Y51.304 I0.599 J-0.041
X132.222 Y51.25 I0.249 J0.546 F250
G1 X134.113 F850
G3 X135.886 Y51.934 I-0.119 J2.95
X137.575 Y54.312 I-3.189 J4.054
X137.871 Y57.386 I-5.269 J2.058
X137.462 Y58.297 I-1.923 J-0.315
X136.427 Y58.75 I-1.04 J-0.967
G1 X134.542
G3 X134.314 Y58.696 I0.021 J-0.6 F250
X133.964 Y58.191 I0.249 J-0.546 F850
G1 X133.535 Y51.89
G3 X133.885 Y51.304 I0.599 J-0.041
X134.113 Y51.25 I0.249 J0.546 F250
G1 X135.945 F850
G3 X137.772 Y51.936 I-0.068 J2.957
X139.46 Y54.313 I-3.188 J4.052
X139.756 Y57.386 I-5.267 J2.057
X139.347 Y58.297 I-1.922 J-0.315
X138.313 Y58.75 I-1.04 J-0.967
G1 X136.427
G3 X136.199 Y58.696 I0.021 J-0.6 F250
X135.85 Y58.196 I0.249 J-0.546 F850
G1 X135.367 Y51.895
G3 X135.717 Y51.304 I0.598 J-0.046
X135.945 Y51.25 I0.249 J0.546 F250
G1 X137.957 F850
G3 X139.707 Y51.971 I-0.201 J2.97
X141.379 Y54.403 I-3.284 J4.05
X141.627 Y57.454 I-5.263 J1.962
X141.223 Y58.308 I-1.78 J-0.318
X140.2 Y58.75 I-1.027 J-0.973
G1 X138.313
G3 X138.085 Y58.696 I0.021 J-0.6 F250
X137.735 Y58.184 I0.249 J-0.546 F850
G1 X137.379 Y51.883
G3 X137.73 Y51.304 I0.599 J-0.034
X137.957 Y51.25 I0.249 J0.546 F250
G1 X139.749 F850
G3 X141.544 Y51.935 I-0.098 J2.949
X143.045 Y53.861 I-3.056 J3.929
X143.53 Y57.387 I-5.239 J2.517
X143.119 Y58.297 I-1.954 J-0.333
X142.085 Y58.75 I-1.04 J-0.968
G1 X140.2
G3 X139.972 Y58.696 I0.021 J-0.6 F250
X139.622 Y58.193 I0.249 J-0.546 F850
G1 X139.171 Y51.892
G3 X139.521 Y51.304 I0.598 J-0.043
X139.749 Y51.25 I0.249 J0.546 F250
G1 X141.68 F850
G3 X143.428 Y51.934 I-0.147 J2.952
X145.118 Y54.312 I-3.192 J4.056
X145.413 Y57.386 I-5.268 J2.058
X145.005 Y58.297 I-1.922 J-0.315
X143.97 Y58.75 I-1.04 J-0.967
G1 X142.085
G3 X141.857 Y58.696 I0.021 J-0.6 F250
X141.507 Y58.189 I0.249 J-0.546 F850
G1 X141.103 Y51.888
G3 X141.453 Y51.304 I0.599 J-0.038
X141.68 Y51.25 I0.249 J0.546 F250
G1 X143.594 F850
G3 X145.332 Y51.946 I-0.176 J2.959
X147.015 Y54.344 I-3.226 J4.054
X147.293 Y57.41 I-5.269 J2.024
X146.886 Y58.301 I-1.872 J-0.317
X145.856 Y58.75 I-1.035 J-0.969
G1 X143.97
G3 X143.742 Y58.696 I0.021 J-0.6 F250
X143.392 Y58.186 I0.249 J-0.546 F850
G1 X143.016 Y51.885
G3 X143.366 Y51.304 I0.599 J-0.036
X143.594 Y51.25 I0.249 J0.546 F250
G1 X145.385 F850
G3 X147.202 Y51.936 I-0.079 J2.954
X148.7 Y53.858 I-3.053 J3.927
X149.186 Y57.386 I-5.238 J2.52
X148.776 Y58.297 I-1.956 J-0.334
X147.741 Y58.75 I-1.04 J-0.968
G1 X145.856
G3 X145.628 Y58.696 I0.021 J-0.6 F250
X145.279 Y58.195 I0.249 J-0.546 F850
G1 X144.808 Y51.894
G3 X145.157 Y51.304 I0.598 J-0.045
X145.385 Y51.25 I0.249 J0.546 F250
G1 X147.398 F850
G3 X149.153 Y51.984 I-0.214 J2.976
X150.82 Y54.436 I-3.317 J4.048
X151.05 Y57.476 I-5.256 J1.928
X150.649 Y58.312 I-1.731 J-0.317
X149.63 Y58.75 I-1.023 J-0.975
G1 X147.741
G3 X147.514 Y58.696 I0.021 J-0.6 F250
X147.163 Y58.183 I0.249 J-0.546 F850
G1 X146.82 Y51.882
G3 X147.17 Y51.304 I0.599 J-0.033
X147.398 Y51.25 I0.249 J0.546 F250
G1 X149.23 F850
G3 X150.97 Y51.932 I-0.15 J2.947
X152.474 Y53.86 I-3.061 J3.936
X152.959 Y57.388 I-5.246 J2.518
X152.549 Y58.297 I-1.953 J-0.333
X151.514 Y58.75 I-1.04 J-0.968
G1 X149.63
G3 X149.402 Y58.696 I0.021 J-0.6 F250
X149.052 Y58.188 I0.249 J-0.546 F850
G1 X148.652 Y51.888
G3 X149.002 Y51.304 I0.599 J-0.038
X149.23 Y51.25 I0.249 J0.546 F250
G1 X151.021 F850
G3 X152.859 Y51.937 I-0.06 J2.961
X154.547 Y54.314 I-3.188 J4.052
X154.842 Y57.386 I-5.265 J2.057
X154.452 Y58.277 I-1.946 J-0.323
X153.437 Y58.75 I-1.06 J-0.948
G1 X151.514
G3 X151.286 Y58.696 I0.021 J-0.6 F250
X150.937 Y58.197 I0.249 J-0.546 F850
G1 X150.444 Y51.896
G3 X150.794 Y51.304 I0.598 J-0.047
X151.021 Y51.25 I0.249 J0.546 F250
G1 X153.034 F850
G3 X154.78 Y51.961 I-0.191 J2.967
X156.457 Y54.379 I-3.261 J4.052
X156.814 Y56.162 I-5.417 J2.011
G1 X156.799 Y56.465
X156.72 Y56.758
X156.58 Y57.027
G3 X156.409 Y57.186 I-0.487 J-0.35 F250
X155.585 Y56.996 I-0.316 J-0.51 F850
G1 X152.548 Y52.169
G3 X152.807 Y51.304 I0.508 J-0.32
X153.034 Y51.25 I0.249 J0.546 F250
X155.048 Y51.615 I0.278 J4.202 F850
X156.256 Y52.526 I-1.708 J3.523
X157.065 Y55.944 I-2.862 J2.482
X155.661 Y58.021 I-3.709 J-0.994
G1 X155.45 Y58.154
G3 X153.481 Y58.747 I-2.004 J-3.088
G1 X153.489 Y58.897 F212.5
G3 X152.619 Y59.75 I-2.004 J-1.175 F850
G1 X152.3 Y59.94
X151.887 Y60.138
X151.344 Y60.346
X150.605 Y60.563
G3 X147.093 Y61.01 I-4.133 J-18.446
X140.007 Y61.136 I-5.951 J-135.123
G1 X138.234 Y61.146
X134.69 Y61.149
X118.74 Y61.15
X103.675
X79.75
X70.889 Y61.152
X70.003 Y61.129
X69.144 Y61.055
G3 X66.307 Y60.132 I0.876 J-7.512
X63.459 Y56.397 I3.008 J-5.247
X66.975 Y49.756 I5.479 J-1.35
G1 X67.608 Y49.544
X68.468 Y49.33
G3 X71.991 Y48.967 I4.224 J23.746
X79.965 Y48.861 I6.382 J179.614
G1 X82.623 Y48.852
X89.712 Y48.85
X117.182
X150.855
X151.741 Y48.855
X152.626 Y48.891
X153.41 Y48.978
G3 X156.157 Y49.948 I-1.038 J7.308
X158.984 Y54.187 I-3.097 J5.127
X157.222 Y59.105 I-5.618 J0.762
X154.418 Y61.268 I-17.028 J-19.17
X151.167 Y62.652 I-6.402 J-10.524
X146.794 Y63.32 I-5.652 J-22.372
X139.709 Y63.523 I-6.475 J-101.979
X133.506 Y63.548 I-5.033 J-490.402
G1 X128.19 Y63.55
X106.923
X80.337
G3 X71.478 Y63.535 I-3.357 J-656.866
X67.967 Y63.092 I0.31 J-16.595
G1 X67.148 Y62.844
G3 X63.992 Y61.011 I2.93 J-8.678
X61.441 Y56.575 I5.401 J-6.058
X64.927 Y48.543 I7.525 J-1.507
G1 X65.586 Y48.164
X66.311 Y47.823
X67.14 Y47.51
G3 X70.608 Y46.805 I5.164 J16.515
X76.8 Y46.5 I6.107 J60.904
X84.775 Y46.452 I6.577 J438.29
G1 X90.092 Y46.45
X107.815
X148.576
G3 X152.119 Y46.54 I0.643 J44.243
G1 X152.999 Y46.643
X153.872 Y46.797
X154.731 Y47.013
G3 X158.041 Y48.735 I-2.577 J8.994
X160.813 Y53.073 I-5.153 J6.349
X159.859 Y59.029 I-7.501 J1.853
X157.597 Y61.623 I-10.32 J-6.717
X152.23 Y64.637 I-9.547 J-10.71
X147.014 Y65.609 I-7.005 J-23.123
X140.82 Y65.892 I-6.51 J-74.66
X127.528 Y65.946 I-9.611 J-729.116
G1 X123.983 Y65.95
X77.905
G3 X71.703 Y65.899 I-1.799 J-157.486
X68.19 Y65.448 I1.081 J-22.315
X64.869 Y64.237 I2.856 J-12.998
X62.072 Y62.139 I5.253 J-9.917
X59.398 Y57.111 I7.383 J-7.151
X60.889 Y49.57 I9.631 J-2.013
X63.149 Y47.208 I8.443 J5.815
X66.257 Y45.53 I7.049 J9.34
X70.564 Y44.531 I6.556 J18.482
X76.751 Y44.134 I6.649 J55.148
X86.498 Y44.057 I7.799 J372.211
G1 X90.928 Y44.051
X123.715 Y44.05
X134.348
X146.754
G3 X151.183 Y44.138 I0.786 J72.159
X154.68 Y44.688 I-1.282 J19.548
X157.945 Y46.04 I-3.242 J12.453
X160.622 Y48.264 I-5.614 J9.478
X163.023 Y53.396 I-7.697 J6.729
X162.314 Y58.859 I-9.765 J1.511
X160.431 Y61.848 I-11.007 J-4.847
X153.972 Y66.386 I-12.15 J-10.43
X148.834 Y67.704 I-8.204 J-21.312
X141.77 Y68.238 I-7.737 J-55.356
X132.023 Y68.339 I-8.047 J-305.222
G1 X129.365 Y68.348
X124.048 Y68.35
X103.667
X78.856
G3 X72.654 Y68.298 I-1.532 J-188.272
X68.257 Y67.785 I1.059 J-28.163
X64.088 Y66.324 I3.318 J-16.143
X60.542 Y63.698 I6.353 J-12.286
X57.269 Y57.512 I9.085 J-8.766
X61.621 Y45.655 I11.81 J-2.393
X65.458 Y43.476 I8.83 J11.081
X70.612 Y42.221 I7.841 J20.999
X76.795 Y41.768 I7.142 J54.998
X88.314 Y41.66 I9.096 J357.013
G1 X92.744 Y41.651
X97.175 Y41.65
X145.026
G3 X151.225 Y41.798 I1.114 J83.534
X155.576 Y42.602 I-1.945 J22.696
X160.299 Y44.983 I-4.227 J14.256
X164.159 Y49.763 I-7.729 J10.191
X165.27 Y55.799 I-11.072 J5.158
X163.752 Y60.855 I-12.613 J-1.03
X159.782 Y65.57 I-13.853 J-7.636
X153.581 Y68.92 I-11.948 J-14.701
X149.017 Y70.002 I-8.325 J-24.95
G1 X148.947 Y70
X86.709
G2 X85.5 Y70.095 I-0.233 J4.779
G1 X85.3 Y70.159
G3 X82.525 Y70.564 I-3.609 J-14.997
X71.897 Y70.611 I-5.733 J-96.063
X67.518 Y69.959 I2.245 J-30.136
X61.818 Y67.586 I4.134 J-17.961
X56.088 Y60.987 I8.214 J-12.921
X54.871 Y54.074 I13.222 J-5.891
X60.722 Y43.569 I14.301 J1.084
X66.255 Y40.837 I10.392 J14.073
X72.341 Y39.694 I8.594 J28.993
X79.418 Y39.331 I7.715 J81.26
X83.829 Y39.273 I4.931 J208.099
X84.824 Y39.645 I-0.056 J1.669
G2 X86.507 Y39.996 I1.49 J-2.934
G1 X86.709 Y40
X152.322
X153.207 Y40.044
G3 X157.525 Y40.951 I-0.639 J13.778
X165.066 Y46.877 I-5.377 J14.603
X167.315 Y52.61 I-12.397 J8.171
X166.388 Y60.431 I-14.278 J2.273
X163.025 Y65.601 I-15.412 J-6.347
X158.878 Y68.957 I-13.948 J-12.995
G1 X158.783 Y68.99
X157.756 Y69.373
X157.555 Y69.422
X155.744 Y69.815
X155.538 Y69.847
X153.731 Y69.976
X153.53 Y69.989
X152.926 Y69.999
X152.523 Y70
X148.947
G3 X148.719 Y69.946 I0.021 J-0.6 F250
G1 X148.633 Y69.907 Z0.007
X148.55 Y69.869 Z0.029
X148.471 Y69.833 Z0.065
X148.398 Y69.8 Z0.115
X148.333 Y69.77 Z0.176
X148.277 Y69.745 Z0.247
X148.232 Y69.725 Z0.328
X148.199 Y69.71 Z0.415
X148.179 Y69.701 Z0.506
X148.173 Y69.698 Z0.6
G0 Z23
X152.038 Y40.745
Z1.2
G1 Z0.6 F250
X152.04 Y40.738 Z0.506
X152.043 Y40.716 Z0.415
X152.05 Y40.681 Z0.328
X152.059 Y40.632 Z0.247
X152.069 Y40.572 Z0.176
X152.082 Y40.501 Z0.115
X152.096 Y40.422 Z0.065
X152.111 Y40.337 Z0.029
X152.128 Y40.247 Z0.007
X152.144 Y40.154 Z0
G3 X152.322 Y40 I0.185 J0.033
X153.731 Y40.022 I0.281 J26.924 F850
G1 X155.542 Y40.154
X155.744 Y40.185
X157.555 Y40.578
X157.756 Y40.627
G3 X159.894 Y41.449 I-11.034 J31.883
G1 X161.178 Y42.154
X161.379 Y42.279
X161.782 Y42.534
X161.97 Y42.661
X163.191 Y43.575
X163.311 Y43.668
G3 X164.72 Y45.077 I-98.858 J100.217
G1 X165.002 Y45.413
X165.053 Y45.48
X166.008 Y46.755
X166.105 Y46.89
G3 X167.22 Y48.981 I-34.467 J19.716
X167.963 Y51.118 I-22.568 J9.041
X168.359 Y53.132 I-22.532 J5.479
X168.472 Y55.347 I-22.028 J2.232
X168.291 Y57.361 I-25.167 J-1.242
X167.82 Y59.397 I-31.181 J-6.142
G1 X167.678 Y59.778
X167.302 Y60.785
X167.015 Y61.442
X166.94 Y61.59
X166.28 Y62.798
X166.168 Y63
G3 X164.635 Y65.014 I-19.125 J-12.965
G1 X163.593 Y66.054
X163.392 Y66.254
X163.191 Y66.425
X161.983 Y67.33
X161.839 Y67.43
X161.379 Y67.727
X161.202 Y67.833
X159.97 Y68.505
G3 X158.783 Y68.988 I-4.428 J-9.183
G1 X158.707 Y69.009 F250
X158.629 Y69.019
X158.551
X158.457 Y69.013 Z0.007
X158.366 Y69.006 Z0.029
X158.279 Y69 Z0.065
X158.199 Y68.994 Z0.115
X158.128 Y68.989 Z0.176
X158.067 Y68.985 Z0.247
X158.018 Y68.981 Z0.328
X157.982 Y68.979 Z0.415
X157.96 Y68.977 Z0.506
X157.952 Z0.6
G0 Z23
X85.314 Y69.362
Z1.2
G1 Z0.6 F250
X85.315 Y69.369 Z0.506
X85.319 Y69.391 Z0.415
X85.325 Y69.426 Z0.328
X85.333 Y69.475 Z0.247
X85.344 Y69.535 Z0.176
X85.356 Y69.606 Z0.115
X85.369 Y69.685 Z0.065
X85.384 Y69.77 Z0.029
X85.399 Y69.861 Z0.007
X85.415 Y69.953 Z0
G3 X85.3 Y70.159 I-0.185 J0.032
G2 X83.877 Y71.169 I0.961 J2.861 F850
G3 X82.297 Y72.137 I-3.299 J-3.611
G1 X81.662 Y72.365
X80.807 Y72.595
G3 X76.404 Y73.031 I-4.55 J-23.535
X68.46 Y72.508 I-1.445 J-38.7
X63.38 Y70.972 I4.346 J-23.535
X57.554 Y67.005 I7.634 J-17.475
X53.428 Y60.261 I12.35 J-12.188
X54.155 Y48.164 I15.729 J-5.126
X60.547 Y40.98 I15.403 J7.271
X66.201 Y38.484 I11.164 J17.632
X73.174 Y37.275 I9.57 J34.483
X81.139 Y36.921 I8.378 J98.713
G1 X81.921 Y36.905
G3 X83.155 Y37.618 I0.015 J1.4
G1 X83.387 Y38.029
X83.617 Y38.432
G3 X83.684 Y38.656 I-0.531 J0.28 F250
G1 X83.693 Y38.75 Z0.007
X83.701 Y38.841 Z0.029
X83.709 Y38.927 Z0.065
X83.716 Y39.007 Z0.115
X83.723 Y39.079 Z0.176
X83.729 Y39.139 Z0.247
X83.733 Y39.188 Z0.328
X83.737 Y39.224 Z0.415
X83.739 Y39.246 Z0.506
Y39.254 Z0.6
G0 Z23
X83.546 Y70.382
Z1.2
G1 Z0.6 F250
X83.551 Y70.387 Z0.506
X83.566 Y70.403 Z0.415
X83.591 Y70.43 Z0.328
X83.625 Y70.465 Z0.247
X83.666 Y70.51 Z0.176
X83.715 Y70.562 Z0.115
X83.77 Y70.621 Z0.065
X83.83 Y70.685 Z0.029
X83.892 Y70.751 Z0.007
X83.956 Y70.82 Z0
G3 X83.974 Y71.055 I-0.137 J0.128
G1 X83.823 Y71.256 F850
X83.69 Y71.44
X83.563 Y71.659
X83.086 Y72.505
G3 X81.75 Y73.84 I-3.246 J-1.913
G1 X81.334 Y74.085
X80.801 Y74.34
X80.13 Y74.596
X79.279 Y74.844
G3 X74.884 Y75.328 I-4.403 J-19.8
X65.252 Y74.095 I-0.787 J-32.089
X58.881 Y71.048 I6.804 J-22.411
X51.746 Y62.207 I11.295 J-16.414
X50.384 Y54.406 I17.718 J-7.113
X58.003 Y40.013 I18.859 J0.77
X64.243 Y36.715 I13.201 J17.419
X71.143 Y35.15 I10.735 J31.356
X79.094 Y34.589 I9.186 J73.455
G1 X79.98 Y34.559
X80.714 Y34.574
G3 X81.908 Y35.413 I-0.113 J1.43
G1 X83.155 Y37.618
G3 X83.221 Y37.843 I-0.533 J0.276 F250
G1 X83.229 Y37.936 Z0.007
X83.236 Y38.027 Z0.029
X83.244 Y38.114 Z0.065
X83.251 Y38.194 Z0.115
X83.257 Y38.265 Z0.176
X83.262 Y38.326 Z0.247
X83.266 Y38.375 Z0.328
X83.269 Y38.411 Z0.415
X83.271 Y38.433 Z0.506
X83.272 Y38.441 Z0.6
G0 Z23
X82.576 Y71.892
Z1.2
G1 Z0.6 F250
X82.582 Y71.897 Z0.506
X82.599 Y71.911 Z0.415
X82.627 Y71.934 Z0.328
X82.665 Y71.965 Z0.247
X82.712 Y72.004 Z0.176
X82.767 Y72.05 Z0.115
X82.829 Y72.101 Z0.065
X82.896 Y72.156 Z0.029
X82.967 Y72.215 Z0.007
X83.039 Y72.275 Z0
G3 X83.086 Y72.505 I-0.119 J0.145
G1 X82.08 Y74.291 F850
G3 X80.367 Y76.136 I-3.94 J-1.94
G1 X79.909 Y76.396
X79.33 Y76.664
X78.615 Y76.928
G3 X75.132 Y77.537 I-4.188 J-13.668
X62.947 Y75.729 I-1.749 J-30.174
X55.391 Y71.191 I8.696 J-23.036
X49.763 Y63.326 I14.841 J-16.566
X48.343 Y52.035 I19.565 J-8.196
X56.873 Y38.029 I20.984 J3.179
X63.935 Y34.401 I14.567 J19.663
X71.717 Y32.728 I11.677 J35.393
X79.036 Y32.23 I8.384 J69.102
G1 X79.356 Y32.283
X79.657 Y32.403
X79.923 Y32.589
X80.138 Y32.831
X81.677 Y35.021
X81.808 Y35.236
X81.821 Y35.258
G3 X81.891 Y35.482 I-0.527 J0.287 F250
G1 X81.901 Y35.575 Z0.007
X81.91 Y35.666 Z0.029
X81.92 Y35.753 Z0.065
X81.928 Y35.833 Z0.115
X81.936 Y35.904 Z0.176
X81.942 Y35.965 Z0.247
X81.948 Y36.013 Z0.328
X81.951 Y36.049 Z0.415
X81.954 Y36.071 Z0.506
X81.955 Y36.078 Z0.6
G0 Z23
X81.352 Y74.061
Z1.2
G1 Z0.6 F250
X81.358 Y74.065 Z0.506
X81.374 Y74.08 Z0.415
X81.402 Y74.103 Z0.328
X81.439 Y74.135 Z0.247
X81.486 Y74.174 Z0.176
X81.541 Y74.22 Z0.115
X81.602 Y74.272 Z0.065
X81.668 Y74.328 Z0.029
X81.738 Y74.388 Z0.007
X81.81 Y74.448 Z0
G3 X81.854 Y74.68 I-0.121 J0.143
G1 X81.738 Y74.881 F850
X81.677 Y74.979
X80.067 Y77.271
G3 X78.728 Y78.477 I-3.518 J-2.558
G1 X78.284 Y78.726
X77.722 Y78.981
X77.03 Y79.23
X76.176 Y79.463
G3 X72.655 Y79.815 I-3.388 J-16.097
X59.017 Y76.467 I0.053 J-29.667
X52.043 Y71.069 I12.095 J-22.832
X46.073 Y58.436 I17.712 J-16.096
X54.375 Y37.096 I23.161 J-3.274
X62.826 Y32.351 I17.01 J20.398
X70.573 Y30.52 I12.59 J35.958
X77.096 Y29.932 I8.898 J62.224
X78.177 Y30.421 I0.006 J1.426
G1 X79.527 Y31.988
X79.664 Y32.156
X80.138 Y32.831
G3 X80.225 Y33.048 I-0.503 J0.328 F250
G1 X80.243 Y33.14 Z0.007
X80.26 Y33.23 Z0.029
X80.276 Y33.316 Z0.065
X80.29 Y33.395 Z0.115
X80.303 Y33.465 Z0.176
X80.315 Y33.525 Z0.247
X80.324 Y33.573 Z0.328
X80.33 Y33.609 Z0.415
X80.334 Y33.63 Z0.506
X80.336 Y33.638 Z0.6
G0 Z23
X79.621 Y76.611
Z1.2
G1 Z0.6 F250
X79.626 Y76.616 Z0.506
X79.641 Y76.631 Z0.415
X79.667 Y76.657 Z0.328
X79.701 Y76.692 Z0.247
X79.744 Y76.735 Z0.176
X79.795 Y76.786 Z0.115
X79.851 Y76.843 Z0.065
X79.912 Y76.905 Z0.029
X79.977 Y76.97 Z0.007
X80.043 Y77.037 Z0
G3 X80.067 Y77.271 I-0.133 J0.132
G1 X79.664 Y77.844 F850
G3 X77.647 Y80.174 I-78.011 J-65.497
X75.791 Y81.29 I-3.773 J-4.175
G1 X75.135 Y81.514
X74.325 Y81.718
G3 X70.798 Y81.981 I-2.894 J-15.034
X60.475 Y79.681 I1.154 J-29.5
X48.69 Y70.593 I10.545 J-25.86
X43.764 Y58.398 I21.085 J-15.609
X52.098 Y36.043 I25.473 J-3.235
X61.118 Y30.527 I19.164 J21.207
X68.798 Y28.435 I13.75 J35.327
X74.855 Y27.701 I9.991 J57.132
X75.926 Y28.081 I0.112 J1.384
G1 X77.07 Y29.168
X77.249 Y29.352
X77.652 Y29.812
X78.177 Y30.421
G3 X78.285 Y30.629 I-0.468 J0.376 F250
G1 X78.311 Y30.719 Z0.007
X78.337 Y30.807 Z0.029
X78.361 Y30.89 Z0.065
X78.384 Y30.967 Z0.115
X78.404 Y31.036 Z0.176
X78.421 Y31.095 Z0.247
X78.435 Y31.142 Z0.328
X78.445 Y31.177 Z0.415
X78.451 Y31.198 Z0.506
X78.453 Y31.205 Z0.6
G0 Z23
X77.508 Y79.214
Z1.2
G1 Z0.6 F250
X77.512 Y79.22 Z0.506
X77.526 Y79.237 Z0.415
X77.549 Y79.265 Z0.328
X77.58 Y79.303 Z0.247
X77.618 Y79.35 Z0.176
X77.664 Y79.406 Z0.115
X77.714 Y79.468 Z0.065
X77.769 Y79.536 Z0.029
X77.827 Y79.607 Z0.007
X77.886 Y79.68 Z0
G3 Y79.915 I-0.146 J0.118
G1 X77.45 Y80.421 F850
X76.97 Y80.922
X76.847 Y81.044
X75.279 Y82.533
G3 X73.564 Y83.518 I-3.316 J-3.789
G1 X72.965 Y83.711
X72.222 Y83.884
G3 X68.69 Y84.046 I-2.401 J-13.719
X60.102 Y82.015 I2.2 J-28.477
X46.338 Y71.256 I10.908 J-28.137
X41.289 Y56.344 I23.37 J-16.224
X50.667 Y34.242 I27.993 J-1.163
X60.461 Y28.304 I20.688 J23.076
X69.007 Y26.028 I14.784 J38.333
X72.349 Y25.566 I8.465 J48.872
X73.366 Y25.851 I0.16 J1.385
X74.951 Y27.155 I-10.113 J13.909
G1 X75.926 Y28.081
G3 X76.054 Y28.277 I-0.428 J0.42 F250
G1 X76.089 Y28.364 Z0.007
X76.123 Y28.449 Z0.029
X76.156 Y28.529 Z0.065
X76.186 Y28.604 Z0.115
X76.213 Y28.67 Z0.176
X76.236 Y28.727 Z0.247
X76.254 Y28.773 Z0.328
X76.267 Y28.806 Z0.415
X76.276 Y28.826 Z0.506
X76.278 Y28.833 Z0.6
G0 Z23
X74.972 Y81.798
Z1.2
G1 Z0.6 F250
X74.976 Y81.804 Z0.506
X74.988 Y81.822 Z0.415
X75.008 Y81.852 Z0.328
X75.035 Y81.894 Z0.247
X75.069 Y81.945 Z0.176
X75.108 Y82.004 Z0.115
X75.152 Y82.071 Z0.065
X75.2 Y82.144 Z0.029
X75.251 Y82.22 Z0.007
X75.302 Y82.299 Z0
G3 X75.279 Y82.533 I-0.157 J0.103
G1 X74.633 Y83.148 F850
X74.23 Y83.476
X74.149 Y83.54
X72.419 Y84.885
G3 X70.461 Y85.777 I-3.143 J-4.307
G1 X69.8 Y85.919
X68.983 Y86.025
G3 X65.45 Y85.867 I-1.095 J-15.11
X57.036 Y83.194 I4.7 J-29.376
X42.51 Y69.391 I13.657 J-28.917
X39.031 Y53.133 I27.069 J-14.294
X50.099 Y31.691 I30.344 J2.086
X60.04 Y25.982 I21.501 J25.928
X69.522 Y23.572 I15.853 J42.512
X70.464 Y23.768 I0.215 J1.326
G1 X71.412 Y24.364
X71.614 Y24.491
X71.675 Y24.537
X73.366 Y25.851
G3 X73.513 Y26.033 I-0.385 J0.461 F250
G1 X73.556 Y26.116 Z0.007
X73.599 Y26.198 Z0.029
X73.639 Y26.275 Z0.065
X73.677 Y26.346 Z0.115
X73.71 Y26.409 Z0.176
X73.738 Y26.463 Z0.247
X73.761 Y26.507 Z0.328
X73.778 Y26.539 Z0.415
X73.788 Y26.558 Z0.506
X73.791 Y26.565 Z0.6
G0 Z23
X72.186 Y84.123
Z1.2
G1 Z0.6 F250
X72.189 Y84.129 Z0.506
X72.199 Y84.149 Z0.415
X72.216 Y84.181 Z0.328
X72.239 Y84.224 Z0.247
X72.267 Y84.279 Z0.176
X72.301 Y84.342 Z0.115
X72.338 Y84.413 Z0.065
X72.378 Y84.49 Z0.029
X72.421 Y84.571 Z0.007
X72.465 Y84.654 Z0
G3 X72.419 Y84.885 I-0.166 J0.087
G1 X72.016 Y85.198 F850
X71.534 Y85.554
X71.412 Y85.636
X69.198 Y87.029
G3 X67.029 Y87.775 I-2.865 J-4.803
G1 X66.319 Y87.856
X65.441 Y87.882
G3 X61.936 Y87.399 I0.464 J-16.334
X52.988 Y83.633 I7.648 J-30.684
X38.589 Y66.218 I17.355 J-29.008
X40.189 Y40.411 I30.706 J-11.05
X52.722 Y26.978 I29.918 J15.35
X63.288 Y22.493 I20.451 J33.49
X66.295 Y21.768 I10.763 J38.051
G1 X66.604 Y21.738
X66.913 Y21.778
X67.204 Y21.885
X68.192 Y22.378
X68.393 Y22.482
X68.796 Y22.717
X70.465 Y23.767
G3 X70.629 Y23.934 I-0.337 J0.496 F250
G1 X70.681 Y24.013 Z0.007
X70.731 Y24.089 Z0.029
X70.779 Y24.162 Z0.065
X70.823 Y24.229 Z0.115
X70.862 Y24.289 Z0.176
X70.896 Y24.34 Z0.247
X70.923 Y24.381 Z0.328
X70.942 Y24.411 Z0.415
X70.954 Y24.429 Z0.506
X70.959 Y24.436 Z0.6
G0 Z23
X69.042 Y86.248
Z1.2
G1 Z0.6 F250
X69.045 Y86.255 Z0.506
X69.053 Y86.275 Z0.415
X69.067 Y86.308 Z0.328
X69.085 Y86.354 Z0.247
X69.108 Y86.411 Z0.176
X69.135 Y86.477 Z0.115
X69.165 Y86.551 Z0.065
X69.197 Y86.632 Z0.029
X69.232 Y86.717 Z0.007
X69.267 Y86.804 Z0
G3 X69.198 Y87.029 I-0.174 J0.07
X67.99 Y87.722 I-6.997 J-10.809 F850
G1 X65.576 Y88.927
G3 X63.916 Y89.404 I-2.276 J-4.79
G1 X63.288 Y89.462
X62.539 Y89.47
G3 X59.054 Y88.871 I0.63 J-14.109
X51.798 Y85.618 I8.712 J-29.147
X36.065 Y65.988 I18.474 J-30.927
X38.573 Y38.517 I33.217 J-10.818
X51.995 Y24.706 I31.653 J17.336
X62.71 Y20.226 I21.441 J36.224
G1 X62.995 Y20.175
X63.286 Y20.19
X63.566 Y20.264
G3 X65.374 Y20.973 I-14.123 J38.687
G1 X67.204 Y21.885
G3 X67.384 Y22.035 I-0.286 J0.527 F250
G1 X67.443 Y22.108 Z0.007
X67.501 Y22.179 Z0.029
X67.556 Y22.246 Z0.065
X67.606 Y22.309 Z0.115
X67.651 Y22.364 Z0.176
X67.69 Y22.412 Z0.247
X67.721 Y22.45 Z0.328
X67.743 Y22.478 Z0.415
X67.757 Y22.495 Z0.506
X67.762 Y22.501 Z0.6
G0 Z23
X65.497 Y88.133
Z1.2
G1 Z0.6 F250
X65.499 Y88.141 Z0.506
X65.506 Y88.162 Z0.415
X65.516 Y88.196 Z0.328
X65.53 Y88.243 Z0.247
X65.547 Y88.302 Z0.176
X65.567 Y88.371 Z0.115
X65.59 Y88.448 Z0.065
X65.614 Y88.531 Z0.029
X65.64 Y88.619 Z0.007
X65.666 Y88.709 Z0
G3 X65.576 Y88.927 I-0.18 J0.053
X64.501 Y89.379 I-5.114 J-10.648 F850
G1 X62.154 Y90.273
G3 X59.155 Y90.754 I-2.583 J-6.502
G1 X58.359 Y90.679
G3 X54.948 Y89.742 I2.253 J-14.88
X47.278 Y85.361 I12.19 J-30.248
X32.48 Y60.974 I22.685 J-30.447
X43.835 Y27.96 I36.836 J-5.791
X55.636 Y20.236 I27.548 J29.216
X58.728 Y19.016 I15.481 J34.696
G1 X59.002 Y18.947
X59.285 Y18.936
X59.564 Y18.982
X61.148 Y19.41
X61.349 Y19.468
X61.953 Y19.652
X62.154 Y19.727
X63.566 Y20.264
G3 X63.76 Y20.396 I-0.233 J0.553 F250
G1 X63.826 Y20.462 Z0.007
X63.891 Y20.527 Z0.029
X63.952 Y20.589 Z0.065
X64.008 Y20.646 Z0.115
X64.059 Y20.697 Z0.176
X64.102 Y20.741 Z0.247
X64.136 Y20.776 Z0.328
X64.162 Y20.801 Z0.415
X64.177 Y20.817 Z0.506
X64.182 Y20.822 Z0.6
G0 Z23
X61.403 Y89.737
Z1.2
G1 Z0.6 F250
X61.404 Y89.744 Z0.506
X61.407 Y89.766 Z0.415
X61.411 Y89.802 Z0.328
X61.417 Y89.851 Z0.247
X61.424 Y89.912 Z0.176
X61.433 Y89.983 Z0.115
X61.442 Y90.062 Z0.065
X61.452 Y90.149 Z0.029
X61.463 Y90.24 Z0.007
X61.474 Y90.333 Z0
G3 X61.349 Y90.532 I-0.186 J0.022
G1 X61.148 Y90.59 F850
X58.531 Y91.297
G3 X55.867 Y91.688 I-3.255 J-12.927
G1 X55.306 Y91.657
X54.624 Y91.57
X53.791 Y91.396
G3 X50.497 Y90.105 I4.282 J-15.774
X43.241 Y85.061 I15.897 J-30.607
X29.698 Y55.307 I26.515 J-30.028
X43.077 Y25.498 I39.711 J-0.083
X54.424 Y18.217 I28.384 J31.753
G1 X54.677 Y18.13
X54.943 Y18.096
X55.211 Y18.114
X57.726 Y18.532
G3 X59.564 Y18.982 I-3.614 J18.722
X59.77 Y19.093 I-0.177 J0.573 F250
G1 X59.842 Y19.153 Z0.007
X59.913 Y19.212 Z0.029
X59.98 Y19.267 Z0.065
X60.042 Y19.318 Z0.115
X60.097 Y19.364 Z0.176
X60.144 Y19.403 Z0.247
X60.182 Y19.434 Z0.328
X60.21 Y19.457 Z0.415
X60.227 Y19.471 Z0.506
X60.232 Y19.476 Z0.6
G0 Z23
X57.118 Y90.814
Z1.2
G1 Z0.6 F250
Y90.821 Z0.506
Y90.843 Z0.415
X57.117 Y90.879 Z0.328
Y90.929 Z0.247
X57.116 Y90.99 Z0.176
X57.115 Y91.061 Z0.115
X57.114 Y91.142 Z0.065
X57.113 Y91.228 Z0.029
X57.112 Y91.32 Z0.007
X57.111 Y91.414 Z0
G3 X56.96 Y91.595 I-0.188 J-0.002
G1 X55.11 Y91.903 F850
X54.5 Y91.998
X54.305 Y92.014
X52.292 Y92.147
G3 X49.963 Y91.885 I-0.392 J-7.003
G1 X49.13 Y91.623
G3 X45.974 Y90.022 I6.073 J-15.888
X38.571 Y83.726 I19.875 J-30.868
X28.056 Y47.61 I30.966 J-28.604
X43.227 Y22.315 I41.552 J7.724
X49.906 Y17.852 I26.952 J33.104
X50.883 Y17.775 I0.729 J3.009
G1 X51.084 Y17.774
X54.305 Y17.986
X54.506 Y18.003
X55.165 Y18.106
X55.211 Y18.114
G3 X55.427 Y18.203 I-0.118 J0.588 F250
G1 X55.505 Y18.256 Z0.007
X55.581 Y18.307 Z0.029
X55.653 Y18.355 Z0.065
X55.72 Y18.4 Z0.115
X55.78 Y18.439 Z0.176
X55.83 Y18.473 Z0.247
X55.871 Y18.501 Z0.328
X55.901 Y18.521 Z0.415
X55.919 Y18.533 Z0.506
X55.926 Y18.537 Z0.6
G0 Z23
X52.526 Y91.385
Z1.2
G1 Z0.6 F250
X52.525 Y91.392 Z0.506
X52.523 Y91.414 Z0.415
X52.519 Y91.45 Z0.328
X52.514 Y91.499 Z0.247
X52.507 Y91.559 Z0.176
X52.499 Y91.63 Z0.115
X52.49 Y91.71 Z0.065
X52.48 Y91.797 Z0.029
X52.47 Y91.888 Z0.007
X52.459 Y91.981 Z0
G3 X52.292 Y92.147 I-0.186 J-0.021
G1 X51.084 Y92.226 F850
X50.883 Y92.227
X50.481 Y92.226
X50.279 Y92.222
X47.663 Y92.134
G3 X45.526 Y91.779 I0.18 J-7.689
G1 X44.808 Y91.515
G3 X41.752 Y89.735 I5.91 J-13.659
X35.953 Y84.286 I20.966 J-28.124
X27.932 Y39.431 I33.468 J-29.129
X44.772 Y18.266 I42.053 J16.176
G1 X44.982 Y18.19
X45.199 Y18.144
X46.858 Y17.922
X47.059 Y17.902
X47.663 Y17.866
X50.279 Y17.778
X50.364 Y17.776
G3 X50.592 Y17.826 I-0.011 J0.6 F250
G1 X50.678 Y17.864 Z0.007
X50.762 Y17.9 Z0.029
X50.842 Y17.935 Z0.065
X50.916 Y17.967 Z0.115
X50.981 Y17.996 Z0.176
X51.037 Y18.02 Z0.247
X51.082 Y18.04 Z0.328
X51.115 Y18.054 Z0.415
X51.136 Y18.063 Z0.506
X51.142 Y18.066 Z0.6
G0 Z23
X47.588 Y91.384
Z1.2
G1 Z0.6 F250
X47.587 Y91.391 Z0.506
X47.581 Y91.412 Z0.415
X47.573 Y91.447 Z0.328
X47.561 Y91.495 Z0.247
X47.547 Y91.555 Z0.176
X47.53 Y91.624 Z0.115
X47.511 Y91.702 Z0.065
X47.491 Y91.787 Z0.029
X47.469 Y91.876 Z0.007
X47.447 Y91.967 Z0
G3 X47.26 Y92.11 I-0.182 J-0.044
G1 X47.059 Y92.098 F850
X46.858 Y92.078
X43.637 Y91.648
X43.436 Y91.608
X42.832 Y91.472
X41.423 Y91.139
X40.861 Y90.977
X40.31 Y90.768
X39.649 Y90.454
X38.881 Y90.012
G3 X35.492 Y87.172 I11.011 J-16.58
X29.103 Y78.707 I30.334 J-29.54
X35.655 Y22.95 I40.179 J-23.542
X39.362 Y19.451 I30.33 J28.41
X40.216 Y19.149 I1.579 J3.109
G1 X42.832 Y18.528
X43.436 Y18.39
X43.637 Y18.352
X45.199 Y18.144
G3 X45.432 Y18.167 I0.059 J0.597 F250
G1 X45.522 Y18.194 Z0.007
X45.61 Y18.221 Z0.029
X45.693 Y18.246 Z0.065
X45.77 Y18.269 Z0.115
X45.838 Y18.29 Z0.176
X45.897 Y18.308 Z0.247
X45.944 Y18.322 Z0.328
X45.978 Y18.333 Z0.415
X45.999 Y18.339 Z0.506
X46.006 Y18.341 Z0.6
G0 Z23
X41.871 Y90.48
Z1.2
G1 Z0.6 F250
X41.868 Y90.486 Z0.506
X41.859 Y90.507 Z0.415
X41.845 Y90.54 Z0.328
X41.825 Y90.585 Z0.247
X41.801 Y90.641 Z0.176
X41.773 Y90.707 Z0.115
X41.741 Y90.78 Z0.065
X41.706 Y90.86 Z0.029
X41.67 Y90.944 Z0.007
X41.632 Y91.03 Z0
G3 X41.423 Y91.139 I-0.172 J-0.075
G1 X40.216 Y90.854 F850
X39.992 Y90.79
X39.612 Y90.677
X39.411 Y90.611
X36.794 Y89.712
G3 X34.045 Y88.349 I4.785 J-13.106
X31.432 Y85.966 I8.854 J-12.335
X26.844 Y79.461 I28.443 J-24.93
X33.534 Y21.794 I42.415 J-24.301
G1 X33.688 Y21.684
X33.853 Y21.594
X35.989 Y20.614
X36.392 Y20.432
X36.593 Y20.357
X39.411 Y19.389
X39.612 Y19.325
X39.717 Y19.294
G3 X39.951 Y19.279 I0.153 J0.58 F250
G1 X40.044 Y19.292 Z0.007
X40.134 Y19.304 Z0.029
X40.22 Y19.316 Z0.065
X40.3 Y19.327 Z0.115
X40.371 Y19.336 Z0.176
X40.432 Y19.344 Z0.247
X40.48 Y19.351 Z0.328
X40.516 Y19.356 Z0.415
X40.538 Y19.359 Z0.506
X40.545 Y19.36 Z0.6
G0 Z23
X35.954 Y88.551
Z1.2
G1 Z0.6 F250
X35.95 Y88.557 Z0.506
X35.937 Y88.575 Z0.415
X35.917 Y88.604 Z0.328
X35.889 Y88.645 Z0.247
X35.854 Y88.695 Z0.176
X35.813 Y88.754 Z0.115
X35.767 Y88.82 Z0.065
X35.717 Y88.891 Z0.029
X35.665 Y88.966 Z0.007
X35.612 Y89.043 Z0
G3 X35.385 Y89.109 I-0.154 J-0.107
G1 X33.373 Y88.185 F850
X32.949 Y87.971
X32.769 Y87.872
X30.152 Y86.341
G3 X26.252 Y82.698 I7.089 J-11.497
X22.732 Y76.559 I28.88 J-20.642
X27.39 Y25.662 I46.441 J-21.411
G1 X27.501 Y25.556
X27.62 Y25.46
X29.75 Y23.912
X29.951 Y23.776
X32.568 Y22.246
X32.769 Y22.133
X33.373 Y21.815
X33.853 Y21.594
G3 X34.083 Y21.548 I0.231 J0.554 F250
G1 X34.177 Y21.547 Z0.007
X34.268 Z0.029
X34.355 Z0.065
X34.435 Z0.115
X34.507 Y21.546 Z0.176
X34.568 Z0.247
X34.617 Z0.328
X34.653 Z0.415
X34.675 Z0.506
X34.683 Z0.6
G0 Z23
X29.682 Y85.118
Z1.2
G1 Z0.6 F250
X29.677 Y85.124 Z0.506
X29.661 Y85.139 Z0.415
X29.635 Y85.164 Z0.328
X29.599 Y85.198 Z0.247
X29.555 Y85.24 Z0.176
X29.504 Y85.29 Z0.115
X29.446 Y85.345 Z0.065
X29.383 Y85.405 Z0.029
X29.317 Y85.469 Z0.007
X29.249 Y85.534 Z0
G3 X29.014 Y85.554 I-0.13 J-0.135
G1 X27.335 Y84.333 F850
X27.133 Y84.18
X26.731 Y83.865
X26.588 Y83.742
X24.517 Y81.897
X24.335 Y81.728
X23.913 Y81.309
X23.735 Y81.124
X22.504 Y79.786
G3 X20.086 Y76.092 I11.321 J-10.047
X17.416 Y68.591 I36.742 J-17.307
X20.915 Y32.104 I51.639 J-13.458
G1 X20.975 Y32.034 F212.5
X21.498 Y31.339 F850
X21.799 Y30.981
X23.913 Y28.683
X24.027 Y28.564
X24.517 Y28.104
X26.53 Y26.31
X26.965 Y25.946
X27.133 Y25.813
X27.62 Y25.46
G3 X27.835 Y25.369 I0.336 J0.497 F250
G1 X27.927 Y25.351 Z0.007
X28.017 Y25.332 Z0.029
X28.102 Y25.315 Z0.065
X28.181 Y25.299 Z0.115
X28.251 Y25.285 Z0.176
X28.311 Y25.272 Z0.247
X28.359 Y25.263 Z0.328
X28.395 Y25.255 Z0.415
X28.416 Y25.251 Z0.506
X28.423 Y25.25 Z0.6
G0 Z23
X23.245 Y79.491
Z1.2
G1 Z0.6 F250
X23.238 Y79.495 Z0.506
X23.22 Y79.506 Z0.415
X23.189 Y79.526 Z0.328
X23.148 Y79.552 Z0.247
X23.096 Y79.585 Z0.176
X23.036 Y79.623 Z0.115
X22.968 Y79.666 Z0.065
X22.895 Y79.713 Z0.029
X22.818 Y79.762 Z0.007
X22.738 Y79.813 Z0
G3 X22.504 Y79.786 I-0.101 J-0.158
X21.23 Y78.304 I10.937 J-10.699 F850
G1 X19.867 Y76.492
X19.718 Y76.291
X19.284 Y75.674
X19.167 Y75.485
X17.674 Y73.025
X17.584 Y72.867
X17.271 Y72.262
X17.174 Y72.062
X16.018 Y69.645
X15.929 Y69.444
X15.697 Y68.84
X14.75 Y66.222
X14.684 Y66.02
X14.627 Y65.819
X14.429 Y64.955
G3 X13.49 Y58.833 I31.87 J-8.021
X14.025 Y46.5 I53.551 J-3.857
G1 X14.541 Y44.473
X14.593 Y44.272
X14.792 Y43.668
X14.863 Y43.466
X15.737 Y41.05
X15.812 Y40.848
X16.074 Y40.244
X16.167 Y40.043
X17.323 Y37.626
X17.423 Y37.425
G3 X19.366 Y34.204 I66.339 J37.823
G1 X19.485 Y34.016
X20.975 Y32.034
G3 X21.155 Y31.884 I0.467 J0.377 F250
G1 X21.237 Y31.839 Z0.007
X21.318 Y31.795 Z0.029
X21.394 Y31.754 Z0.065
X21.465 Y31.715 Z0.115
X21.528 Y31.681 Z0.176
X21.581 Y31.652 Z0.247
X21.625 Y31.628 Z0.328
X21.656 Y31.611 Z0.415
X21.675 Y31.601 Z0.506
X21.682 Y31.597 Z0.6
G0 Z23
X15.397 Y65.694
Z1.2
G1 Z0.6 F250
X15.39 Y65.697 Z0.506
X15.369 Y65.705 Z0.415
X15.336 Y65.719 Z0.328
X15.29 Y65.737 Z0.247
X15.234 Y65.76 Z0.176
X15.167 Y65.787 Z0.115
X15.093 Y65.817 Z0.065
X15.012 Y65.85 Z0.029
X14.927 Y65.884 Z0.007
X14.84 Y65.919 Z0
G3 X14.627 Y65.819 I-0.06 J-0.149
G1 X14.513 Y65.416 F850
X13.85 Y62.797
X13.804 Y62.597
X13.682 Y61.993
G3 X13.18 Y58.57 I119.542 J-19.281
G1 X13.021 Y55.347
X13.015 Y55.146
X13.028 Y54.542
X13.036 Y54.341
X13.156 Y51.924
X13.169 Y51.723
X13.217 Y51.118
X13.246 Y50.917
X13.729 Y47.695
X13.829 Y47.292
X13.98 Y46.688
X14.028 Y46.5
X14.052 Y46.451 Z0.007 F250
X14.076 Y46.405 Z0.026
X14.096 Y46.364 Z0.057
X14.113 Y46.33 Z0.098
X14.125 Y46.306 Z0.147
X14.133 Y46.296 Z0.19
X14.136 Y46.293 Z0.236
G0 Z23
X52.228 Y181.762
Z21.15
G1 Z20.55 F250
G3 X48.521 Y177.433 Z20.237 I-1.854 J-2.165 F200
X52.228 Y181.762 Z19.925 I1.854 J2.165
X48.521 Y177.433 Z19.612 I-1.854 J-2.165
X52.228 Y181.762 Z19.299 I1.854 J2.165
X48.521 Y177.433 Z18.987 I-1.854 J-2.165
X52.228 Y181.762 Z18.674 I1.854 J2.165
X48.521 Y177.433 Z18.361 I-1.854 J-2.165
X52.228 Y181.762 Z18.049 I1.854 J2.165
X48.521 Y177.433 Z17.736 I-1.854 J-2.165
X52.228 Y181.762 Z17.423 I1.854 J2.165
X48.521 Y177.433 Z17.111 I-1.854 J-2.165
X52.228 Y181.762 Z16.798 I1.854 J2.165
X48.521 Y177.433 Z16.485 I-1.854 J-2.165
X52.228 Y181.762 Z16.173 I1.854 J2.165
X48.521 Y177.433 Z15.86 I-1.854 J-2.165
X52.228 Y181.762 Z15.547 I1.854 J2.165
X48.521 Y177.433 Z15.235 I-1.854 J-2.165
X52.228 Y181.762 Z14.922 I1.854 J2.165
X48.521 Y177.433 Z14.609 I-1.854 J-2.165
X52.228 Y181.762 Z14.297 I1.854 J2.165
X48.521 Y177.433 Z13.984 I-1.854 J-2.165
X52.228 Y181.762 Z13.671 I1.854 J2.165
X48.521 Y177.433 Z13.359 I-1.854 J-2.165
X52.228 Y181.762 Z13.046 I1.854 J2.165
X48.521 Y177.433 Z12.733 I-1.854 J-2.165
X52.228 Y181.762 Z12.421 I1.854 J2.165
X48.521 Y177.433 Z12.108 I-1.854 J-2.165
X52.228 Y181.762 Z11.795 I1.854 J2.165
X48.521 Y177.433 Z11.483 I-1.854 J-2.165
X52.228 Y181.762 Z11.17 I1.854 J2.165
X48.521 Y177.433 Z10.857 I-1.854 J-2.165
X52.228 Y181.762 Z10.545 I1.854 J2.165
X48.521 Y177.433 Z10.232 I-1.854 J-2.165
X52.228 Y181.762 Z9.919 I1.854 J2.165
X48.521 Y177.433 Z9.607 I-1.854 J-2.165
X52.228 Y181.762 Z9.294 I1.854 J2.165
X48.521 Y177.433 Z8.981 I-1.854 J-2.165
X52.228 Y181.762 Z8.669 I1.854 J2.165
X48.521 Y177.433 Z8.356 I-1.854 J-2.165
X52.228 Y181.762 Z8.043 I1.854 J2.165
X48.521 Y177.433 Z7.731 I-1.854 J-2.165
X52.228 Y181.762 Z7.418 I1.854 J2.165
X48.521 Y177.433 Z7.105 I-1.854 J-2.165
X52.228 Y181.762 Z6.793 I1.854 J2.165
X48.521 Y177.433 Z6.48 I-1.854 J-2.165
X52.228 Y181.762 Z6.167 I1.854 J2.165
X48.521 Y177.433 Z5.855 I-1.854 J-2.165
X52.228 Y181.762 Z5.542 I1.854 J2.165
X48.521 Y177.433 Z5.229 I-1.854 J-2.165
X52.228 Y181.762 Z4.917 I1.854 J2.165
X48.521 Y177.433 Z4.604 I-1.854 J-2.165
X52.228 Y181.762 Z4.291 I1.854 J2.165
X48.521 Y177.433 Z3.979 I-1.854 J-2.165
X52.228 Y181.762 Z3.666 I1.854 J2.165
X48.521 Y177.433 Z3.353 I-1.854 J-2.165
X52.228 Y181.762 Z3.041 I1.854 J2.165
X48.521 Y177.433 Z2.728 I-1.854 J-2.165
X52.228 Y181.762 Z2.415 I1.854 J2.165
X48.521 Y177.433 Z2.103 I-1.854 J-2.165
X52.228 Y181.762 Z1.79 I1.854 J2.165
X48.521 Y177.433 Z1.477 I-1.854 J-2.165
X52.228 Y181.762 Z1.165 I1.854 J2.165
X48.521 Y177.433 Z0.852 I-1.854 J-2.165
X52.228 Y181.762 Z0.539 I1.854 J2.165
X48.521 Y177.433 Z0.227 I-1.854 J-2.165
X53.224 Y179.597 Z0 I1.854 J2.165
X47.524 I-2.85
X52.145 Y177.364 I2.85
X53.224 Y179.597 I-1.771 J2.233
G1 X53.228 Y179.819 F850
X53.38 Y180.692
G3 X53.192 Y182.313 I-1.777 J0.616
X52.779 Y182.817 I-1.37 J-0.703
X50.374 Y183.748 I-2.594 J-3.129
X46.751 Y178.651 I-0.113 J-3.756
X49.246 Y176.379 I3.589 J1.435
X53.272 Y177.586 I1.135 J3.534
X52.947 Y182.661 I-2.858 J2.365
G1 X52.885 Y182.709 F250
X52.817 Y182.749
X52.744 Y182.779
X52.656 Y182.811 Z0.007
X52.57 Y182.842 Z0.029
X52.488 Y182.872 Z0.065
X52.413 Y182.9 Z0.115
X52.345 Y182.924 Z0.176
X52.288 Y182.945 Z0.247
X52.242 Y182.962 Z0.328
X52.208 Y182.974 Z0.415
X52.187 Y182.982 Z0.506
X52.18 Y182.984 Z0.6
G0 Z23
X77.994 Y182.165
Z21.15
G1 Z20.55 F250
G3 X74.286 Y177.835 Z20.237 I-1.854 J-2.165 F200
X77.994 Y182.165 Z19.925 I1.854 J2.165
X74.286 Y177.835 Z19.612 I-1.854 J-2.165
X77.994 Y182.165 Z19.299 I1.854 J2.165
X74.286 Y177.835 Z18.987 I-1.854 J-2.165
X77.994 Y182.165 Z18.674 I1.854 J2.165
X74.286 Y177.835 Z18.361 I-1.854 J-2.165
X77.994 Y182.165 Z18.049 I1.854 J2.165
X74.286 Y177.835 Z17.736 I-1.854 J-2.165
X77.994 Y182.165 Z17.423 I1.854 J2.165
X74.286 Y177.835 Z17.111 I-1.854 J-2.165
X77.994 Y182.165 Z16.798 I1.854 J2.165
X74.286 Y177.835 Z16.485 I-1.854 J-2.165
X77.994 Y182.165 Z16.173 I1.854 J2.165
X74.286 Y177.835 Z15.86 I-1.854 J-2.165
X77.994 Y182.165 Z15.547 I1.854 J2.165
X74.286 Y177.835 Z15.235 I-1.854 J-2.165
X77.994 Y182.165 Z14.922 I1.854 J2.165
X74.286 Y177.835 Z14.609 I-1.854 J-2.165
X77.994 Y182.165 Z14.297 I1.854 J2.165
X74.286 Y177.835 Z13.984 I-1.854 J-2.165
X77.994 Y182.165 Z13.671 I1.854 J2.165
X74.286 Y177.835 Z13.359 I-1.854 J-2.165
X77.994 Y182.165 Z13.046 I1.854 J2.165
X74.286 Y177.835 Z12.733 I-1.854 J-2.165
X77.994 Y182.165 Z12.421 I1.854 J2.165
X74.286 Y177.835 Z12.108 I-1.854 J-2.165
X77.994 Y182.165 Z11.795 I1.854 J2.165
X74.286 Y177.835 Z11.483 I-1.854 J-2.165
X77.994 Y182.165 Z11.17 I1.854 J2.165
X74.286 Y177.835 Z10.857 I-1.854 J-2.165
X77.994 Y182.165 Z10.545 I1.854 J2.165
X74.286 Y177.835 Z10.232 I-1.854 J-2.165
X77.994 Y182.165 Z9.919 I1.854 J2.165
X74.286 Y177.835 Z9.607 I-1.854 J-2.165
X77.994 Y182.165 Z9.294 I1.854 J2.165
X74.286 Y177.835 Z8.981 I-1.854 J-2.165
X77.994 Y182.165 Z8.669 I1.854 J2.165
X74.286 Y177.835 Z8.356 I-1.854 J-2.165
X77.994 Y182.165 Z8.043 I1.854 J2.165
X74.286 Y177.835 Z7.731 I-1.854 J-2.165
X77.994 Y182.165 Z7.418 I1.854 J2.165
X74.286 Y177.835 Z7.105 I-1.854 J-2.165
X77.994 Y182.165 Z6.793 I1.854 J2.165
X74.286 Y177.835 Z6.48 I-1.854 J-2.165
X77.994 Y182.165 Z6.167 I1.854 J2.165
X74.286 Y177.835 Z5.855 I-1.854 J-2.165
X77.994 Y182.165 Z5.542 I1.854 J2.165
X74.286 Y177.835 Z5.229 I-1.854 J-2.165
X77.994 Y182.165 Z4.917 I1.854 J2.165
X74.286 Y177.835 Z4.604 I-1.854 J-2.165
X77.994 Y182.165 Z4.291 I1.854 J2.165
X74.286 Y177.835 Z3.979 I-1.854 J-2.165
X77.994 Y182.165 Z3.666 I1.854 J2.165
X74.286 Y177.835 Z3.353 I-1.854 J-2.165
X77.994 Y182.165 Z3.041 I1.854 J2.165
X74.286 Y177.835 Z2.728 I-1.854 J-2.165
X77.994 Y182.165 Z2.415 I1.854 J2.165
X74.286 Y177.835 Z2.103 I-1.854 J-2.165
X77.994 Y182.165 Z1.79 I1.854 J2.165
X74.286 Y177.835 Z1.477 I-1.854 J-2.165
X77.994 Y182.165 Z1.165 I1.854 J2.165
X74.286 Y177.835 Z0.852 I-1.854 J-2.165
X77.994 Y182.165 Z0.539 I1.854 J2.165
X74.286 Y177.835 Z0.227 I-1.854 J-2.165
X78.99 Y180 Z0 I1.854 J2.165
X73.29 I-2.85
X78.99 I2.85
G1 X78.993 Y180.222 F850
X79.146 Y181.094
G3 X78.985 Y182.666 I-1.771 J0.613
X78.073 Y183.639 I-1.846 J-0.815
G1 X77.799 Y183.721
X77.516 Y183.75
X75.113
G3 X72.36 Y182.195 I0.063 J-3.327
X72.256 Y177.676 I3.484 J-2.341
X73.165 Y176.563 I3.715 J2.105
G1 X73.433 Y176.392
X73.732 Y176.286
X74.047 Y176.25
X77.167
G3 X79.928 Y177.816 I-0.064 J3.331
X81.004 Y180.247 I-5.323 J3.81
X80.718 Y183.067 I-4.587 J0.96
X79.505 Y183.751 I-1.233 J-0.767
G1 X77.516 Y183.75
G3 X77.288 Y183.696 I0.021 J-0.6 F250
X76.938 Y183.184 I0.249 J-0.546 F850
G1 X76.588 Y176.883
G3 X76.939 Y176.304 I0.599 J-0.033
X77.167 Y176.25 I0.249 J0.546 F250
G1 X79.18 F850
G3 X80.921 Y176.934 I-0.133 J2.896
X82.73 Y179.703 I-3.185 J4.055
X82.744 Y182.801 I-5.123 J1.572
X81.412 Y183.751 I-1.343 J-0.474
G1 X79.505 Y183.75
G3 X79.277 Y183.696 I0.021 J-0.6 F250
X78.927 Y183.181 I0.248 J-0.546 F850
G1 X78.601 Y176.881
G3 X78.952 Y176.304 I0.599 J-0.031
X79.18 Y176.25 I0.249 J0.546 F250
G1 X80.971 F850
G3 X82.798 Y176.929 I-0.054 J2.943
X84.458 Y179.267 I-3.127 J3.977
X84.753 Y182.372 I-5.328 J2.074
X84.34 Y183.297 I-1.96 J-0.32
X83.306 Y183.75 I-1.04 J-0.969
G1 X81.412
G3 X81.184 Y183.696 I0.021 J-0.6 F250
X80.834 Y183.192 I0.249 J-0.546 F850
G1 X80.393 Y176.891
G3 X80.743 Y176.304 I0.599 J-0.042
X80.971 Y176.25 I0.249 J0.546 F250
G1 X82.984 F850
G3 X84.714 Y176.961 I-0.195 J2.936
X86.381 Y179.375 I-3.362 J4.103
X86.627 Y182.445 I-5.389 J1.976
X86.22 Y183.308 I-1.816 J-0.329
X85.197 Y183.75 I-1.028 J-0.974
G1 X83.306
G3 X83.078 Y183.696 I0.021 J-0.6 F250
X82.728 Y183.181 I0.249 J-0.546 F850
G1 X82.406 Y176.88
G3 X82.756 Y176.304 I0.599 J-0.031
X82.984 Y176.25 I0.249 J0.546 F250
G1 X84.816 F850
G3 X86.549 Y176.929 I-0.15 J2.933
X88.044 Y178.848 I-3.049 J3.918
X88.53 Y182.384 I-5.253 J2.523
X88.118 Y183.297 I-1.963 J-0.334
X87.084 Y183.75 I-1.04 J-0.968
G1 X85.197
G3 X84.969 Y183.696 I0.021 J-0.6 F250
X84.619 Y183.187 I0.249 J-0.546 F850
G1 X84.238 Y176.886
G3 X84.588 Y176.304 I0.599 J-0.036
X84.816 Y176.25 I0.249 J0.546 F250
G1 X86.607 F850
G3 X88.432 Y176.935 I-0.066 J2.949
X90.118 Y179.309 I-3.183 J4.045
X90.413 Y182.385 I-5.272 J2.059
X90.004 Y183.297 I-1.925 J-0.315
X88.97 Y183.75 I-1.04 J-0.967
G1 X87.084
G3 X86.856 Y183.696 I0.021 J-0.6 F250
X86.507 Y183.196 I0.249 J-0.546 F850
G1 X86.03 Y176.895
G3 X86.379 Y176.304 I0.598 J-0.045
X86.607 Y176.25 I0.249 J0.546 F250
G1 X88.62 F850
G3 X90.368 Y176.972 I-0.202 J2.967
X92.044 Y179.405 I-3.391 J4.128
X92.347 Y182.104 I-5.52 J1.988
G1 X92.279 Y182.457
G3 X91.88 Y183.309 I-1.702 J-0.278
X90.858 Y183.75 I-1.025 J-0.971
G1 X88.97
G3 X88.742 Y183.696 I0.021 J-0.6 F250
X88.392 Y183.184 I0.249 J-0.546 F850
G1 X88.042 Y176.883
G3 X88.392 Y176.304 I0.599 J-0.033
X88.62 Y176.25 I0.249 J0.546 F250
G1 X90.452 F850
G3 X92.201 Y176.933 I-0.142 J2.947
X93.703 Y178.859 I-3.058 J3.931
X94.188 Y182.387 I-5.243 J2.518
X93.777 Y183.297 I-1.955 J-0.333
X92.743 Y183.75 I-1.04 J-0.968
G1 X90.858
G3 X90.63 Y183.696 I0.021 J-0.6 F250
X90.28 Y183.189 I0.249 J-0.546 F850
G1 X89.874 Y176.888
G3 X90.224 Y176.304 I0.599 J-0.039
X90.452 Y176.25 I0.249 J0.546 F250
G1 X92.244 F850
G3 X94.088 Y176.937 I-0.053 J2.962
X95.776 Y179.314 I-3.187 J4.051
X96.071 Y182.386 I-5.266 J2.057
X95.662 Y183.297 I-1.921 J-0.315
X94.628 Y183.75 I-1.04 J-0.967
G1 X92.743
G3 X92.515 Y183.696 I0.021 J-0.6 F250
X92.166 Y183.198 I0.249 J-0.546 F850
G1 X91.666 Y176.897
G3 X92.016 Y176.304 I0.598 J-0.047
X92.244 Y176.25 I0.249 J0.546 F250
G1 X94.256 F850
G3 X95.998 Y176.953 I-0.183 J2.963
X97.683 Y179.358 I-3.34 J4.133
X97.95 Y182.422 I-5.362 J2.009
X97.543 Y183.303 I-1.861 J-0.325
X96.514 Y183.75 I-1.033 J-0.971
G1 X94.628
G3 X94.4 Y183.696 I0.021 J-0.6 F250
X94.05 Y183.186 I0.249 J-0.546 F850
G1 X93.678 Y176.885
G3 X94.029 Y176.304 I0.599 J-0.035
X94.256 Y176.25 I0.249 J0.546 F250
G1 X96.088 F850
G3 X97.859 Y176.935 I-0.123 J2.949
X99.358 Y178.858 I-3.055 J3.928
X99.845 Y182.386 I-5.239 J2.52
X99.434 Y183.297 I-1.956 J-0.334
X98.4 Y183.75 I-1.04 J-0.968
G1 X96.514
G3 X96.286 Y183.696 I0.021 J-0.6 F250
X95.936 Y183.191 I0.249 J-0.546 F850
G1 X95.511 Y176.89
G3 X95.86 Y176.304 I0.599 J-0.04
X96.088 Y176.25 I0.249 J0.546 F250
G1 X98.002 F850
G3 X99.743 Y176.933 I-0.153 J2.952
X101.432 Y179.312 I-3.19 J4.054
X101.728 Y182.386 I-5.265 J2.058
X101.319 Y183.297 I-1.922 J-0.314
X100.285 Y183.75 I-1.04 J-0.967
G1 X98.4
G3 X98.172 Y183.696 I0.021 J-0.6 F250
X97.822 Y183.188 I0.249 J-0.546 F850
G1 X97.424 Y176.887
G3 X97.774 Y176.304 I0.599 J-0.038
X98.002 Y176.25 I0.249 J0.546 F250
G1 X99.893 F850
G3 X101.629 Y176.933 I-0.158 J2.952
X103.318 Y179.311 I-3.19 J4.054
X103.614 Y182.386 I-5.267 J2.058
X103.205 Y183.297 I-1.923 J-0.315
X102.171 Y183.75 I-1.04 J-0.967
G1 X100.285
G3 X100.057 Y183.696 I0.021 J-0.6 F250
X99.707 Y183.188 I0.249 J-0.546 F850
G1 X99.315 Y176.887
G3 X99.665 Y176.304 I0.599 J-0.037
X99.893 Y176.25 I0.249 J0.546 F250
G1 X101.725 F850
G3 X103.515 Y176.935 I-0.102 J2.949
X105.208 Y179.31 I-3.285 J4.132
X105.5 Y182.386 I-5.364 J2.061
X105.09 Y183.297 I-1.937 J-0.323
X104.056 Y183.75 I-1.04 J-0.968
G1 X102.171
G3 X101.943 Y183.696 I0.021 J-0.6 F250
X101.593 Y183.193 I0.249 J-0.546 F850
G1 X101.147 Y176.892
G3 X101.497 Y176.304 I0.599 J-0.042
X101.724 Y176.25 I0.249 J0.546 F250
G1 X103.638 F850
G3 X105.4 Y176.934 I-0.131 J2.95
X107.093 Y179.31 I-3.286 J4.133
X107.385 Y182.386 I-5.365 J2.061
X106.976 Y183.297 I-1.937 J-0.323
X105.941 Y183.75 I-1.04 J-0.968
G1 X104.056
G3 X103.828 Y183.696 I0.021 J-0.6 F250
X103.478 Y183.19 I0.249 J-0.546 F850
G1 X103.06 Y176.889
G3 X103.41 Y176.304 I0.599 J-0.04
X103.638 Y176.25 I0.249 J0.546 F250
G1 X105.529 F850
G3 X107.286 Y176.933 I-0.136 J2.95
X108.974 Y179.311 I-3.188 J4.052
X109.27 Y182.386 I-5.266 J2.058
X108.861 Y183.297 I-1.922 J-0.315
X107.827 Y183.75 I-1.04 J-0.967
G1 X105.941
G3 X105.714 Y183.696 I0.021 J-0.6 F250
X105.364 Y183.19 I0.249 J-0.546 F850
G1 X104.951 Y176.889
G3 X105.301 Y176.304 I0.599 J-0.039
X105.529 Y176.25 I0.249 J0.546 F250
G1 X107.361 F850
G3 X109.172 Y176.936 I-0.083 J2.953
X110.864 Y179.311 I-3.284 J4.131
X111.156 Y182.386 I-5.364 J2.061
X110.747 Y183.297 I-1.937 J-0.322
X109.712 Y183.75 I-1.04 J-0.968
G1 X107.827
G3 X107.599 Y183.696 I0.021 J-0.6 F250
X107.25 Y183.195 I0.249 J-0.546 F850
G1 X106.783 Y176.894
G3 X107.133 Y176.304 I0.598 J-0.044
X107.361 Y176.25 I0.249 J0.546 F250
G1 X109.274 F850
G3 X111.057 Y176.935 I-0.111 J2.95
X112.75 Y179.311 I-3.285 J4.132
X113.042 Y182.386 I-5.364 J2.061
X112.632 Y183.297 I-1.937 J-0.323
X111.598 Y183.75 I-1.04 J-0.968
G1 X109.712
G3 X109.484 Y183.696 I0.021 J-0.6 F250
X109.135 Y183.192 I0.249 J-0.546 F850
G1 X108.696 Y176.891
G3 X109.046 Y176.304 I0.599 J-0.042
X109.274 Y176.25 I0.249 J0.546 F250
G1 X111.165 F850
G3 X112.942 Y176.934 I-0.116 J2.95
X114.635 Y179.31 I-3.285 J4.133
X114.927 Y182.386 I-5.364 J2.061
X114.518 Y183.297 I-1.937 J-0.323
X113.483 Y183.75 I-1.04 J-0.968
G1 X111.598
G3 X111.37 Y183.696 I0.021 J-0.6 F250
X111.02 Y183.191 I0.249 J-0.546 F850
G1 X110.588 Y176.891
G3 X110.937 Y176.304 I0.599 J-0.041
X111.165 Y176.25 I0.249 J0.546 F250
G1 X112.997 F850
G3 X114.828 Y176.937 I-0.065 J2.958
X116.521 Y179.311 I-3.284 J4.131
X116.812 Y182.386 I-5.363 J2.06
X116.403 Y183.297 I-1.936 J-0.322
X115.368 Y183.75 I-1.04 J-0.967
G1 X113.483
G3 X113.255 Y183.696 I0.021 J-0.6 F250
X112.906 Y183.197 I0.249 J-0.546 F850
G1 X112.42 Y176.896
G3 X112.769 Y176.304 I0.598 J-0.046
X112.997 Y176.25 I0.249 J0.546 F250
G1 X115.01 F850
G3 X116.758 Y176.967 I-0.197 J2.969
X118.436 Y179.393 I-3.377 J4.131
X118.685 Y182.447 I-5.358 J1.973
X118.28 Y183.307 I-1.807 J-0.325
X117.255 Y183.75 I-1.028 J-0.973
G1 X115.368
G3 X115.141 Y183.696 I0.021 J-0.6 F250
X114.79 Y183.184 I0.249 J-0.546 F850
G1 X114.432 Y176.884
G3 X114.782 Y176.304 I0.599 J-0.034
X115.01 Y176.25 I0.249 J0.546 F250
G1 X116.801 F850
G3 X118.6 Y176.936 I-0.095 J2.95
X120.1 Y178.86 I-3.055 J3.928
X120.585 Y182.387 I-5.239 J2.518
X120.175 Y183.297 I-1.954 J-0.333
X119.14 Y183.75 I-1.04 J-0.968
G1 X117.255
G3 X117.028 Y183.696 I0.021 J-0.6 F250
X116.678 Y183.193 I0.249 J-0.546 F850
G1 X116.224 Y176.893
G3 X116.574 Y176.304 I0.598 J-0.043
X116.801 Y176.25 I0.249 J0.546 F250
G1 X118.733 F850
G3 X120.484 Y176.934 I-0.144 J2.951
X122.173 Y179.313 I-3.189 J4.054
X122.469 Y182.386 I-5.264 J2.058
X122.06 Y183.297 I-1.922 J-0.314
X121.026 Y183.75 I-1.04 J-0.967
G1 X119.14
G3 X118.913 Y183.696 I0.021 J-0.6 F250
X118.563 Y183.189 I0.249 J-0.546 F850
G1 X118.155 Y176.888
G3 X118.505 Y176.304 I0.599 J-0.039
X118.733 Y176.25 I0.249 J0.546 F250
G1 X120.646 F850
G3 X122.383 Y176.942 I-0.173 J2.958
X124.072 Y179.334 I-3.314 J4.134
X124.351 Y182.404 I-5.364 J2.036
X123.943 Y183.3 I-1.899 J-0.324
X122.912 Y183.75 I-1.037 J-0.969
G1 X121.026
G3 X120.798 Y183.696 I0.021 J-0.6 F250
X120.448 Y183.186 I0.249 J-0.546 F850
G1 X120.068 Y176.886
G3 X120.418 Y176.304 I0.599 J-0.036
X120.646 Y176.25 I0.249 J0.546 F250
G1 X122.438 F850
G3 X124.257 Y176.937 I-0.076 J2.955
X125.944 Y179.314 I-3.187 J4.05
X126.24 Y182.386 I-5.261 J2.057
X125.831 Y183.297 I-1.922 J-0.314
X124.797 Y183.75 I-1.04 J-0.967
G1 X122.912
G3 X122.684 Y183.696 I0.021 J-0.6 F250
X122.334 Y183.195 I0.249 J-0.546 F850
G1 X121.86 Y176.895
G3 X122.21 Y176.304 I0.598 J-0.045
X122.438 Y176.25 I0.249 J0.546 F250
G1 X124.451 F850
G3 X126.204 Y176.981 I-0.211 J2.974
X127.877 Y179.426 I-3.413 J4.13
X128.172 Y182.121 I-5.515 J1.967
G1 X128.103 Y182.47
G3 X127.705 Y183.311 I-1.673 J-0.277
X126.685 Y183.75 I-1.023 J-0.972
G1 X124.797
G3 X124.569 Y183.696 I0.021 J-0.6 F250
X124.219 Y183.183 I0.249 J-0.546 F850
G1 X123.872 Y176.883
G3 X124.223 Y176.304 I0.599 J-0.033
X124.451 Y176.25 I0.249 J0.546 F250
G1 X126.282 F850
G3 X128.026 Y176.932 I-0.147 J2.947
X129.529 Y178.86 I-3.059 J3.935
X130.014 Y182.388 I-5.244 J2.518
X129.604 Y183.297 I-1.953 J-0.333
X128.57 Y183.75 I-1.04 J-0.968
G1 X126.685
G3 X126.457 Y183.696 I0.021 J-0.6 F250
X126.107 Y183.189 I0.249 J-0.546 F850
G1 X125.705 Y176.888
G3 X126.055 Y176.304 I0.599 J-0.038
X126.282 Y176.25 I0.249 J0.546 F250
G1 X128.074 F850
G3 X129.914 Y176.937 I-0.057 J2.961
X131.607 Y179.313 I-3.285 J4.131
X131.899 Y182.386 I-5.361 J2.06
X131.489 Y183.297 I-1.935 J-0.322
X130.455 Y183.75 I-1.04 J-0.967
G1 X128.57
G3 X128.342 Y183.696 I0.021 J-0.6 F250
X127.992 Y183.197 I0.249 J-0.546 F850
G1 X127.497 Y176.897
G3 X127.846 Y176.304 I0.598 J-0.047
X128.074 Y176.25 I0.249 J0.546 F250
G1 X130.087 F850
G3 X131.831 Y176.957 I-0.188 J2.965
X133.514 Y179.37 I-3.352 J4.133
X133.774 Y182.431 I-5.36 J1.997
X133.368 Y183.305 I-1.843 J-0.326
X132.341 Y183.75 I-1.032 J-0.971
G1 X130.455
G3 X130.227 Y183.696 I0.021 J-0.6 F250
X129.877 Y183.185 I0.249 J-0.546 F850
G1 X129.509 Y176.885
G3 X129.859 Y176.304 I0.599 J-0.035
X130.087 Y176.25 I0.249 J0.546 F250
G1 X131.919 F850
G3 X133.685 Y176.935 I-0.127 J2.949
X135.185 Y178.858 I-3.056 J3.929
X135.671 Y182.387 I-5.239 J2.519
X135.261 Y183.297 I-1.956 J-0.334
X134.226 Y183.75 I-1.04 J-0.968
G1 X132.341
G3 X132.113 Y183.696 I0.021 J-0.6 F250
X131.763 Y183.19 I0.249 J-0.546 F850
G1 X131.341 Y176.89
G3 X131.691 Y176.304 I0.599 J-0.04
X131.919 Y176.25 I0.249 J0.546 F250
G1 X133.832 F850
G3 X135.57 Y176.933 I-0.157 J2.953
X137.259 Y179.312 I-3.19 J4.055
X137.555 Y182.386 I-5.265 J2.058
X137.146 Y183.297 I-1.922 J-0.314
X136.112 Y183.75 I-1.04 J-0.967
G1 X134.226
G3 X133.998 Y183.696 I0.021 J-0.6 F250
X133.648 Y183.188 I0.249 J-0.546 F850
G1 X133.254 Y176.887
G3 X133.604 Y176.304 I0.599 J-0.037
X133.832 Y176.25 I0.249 J0.546 F250
G1 X135.723 F850
G3 X137.455 Y176.932 I-0.163 J2.953
X139.144 Y179.311 I-3.191 J4.055
X139.44 Y182.386 I-5.267 J2.058
X139.032 Y183.297 I-1.923 J-0.315
X137.997 Y183.75 I-1.04 J-0.967
G1 X136.112
G3 X135.884 Y183.696 I0.021 J-0.6 F250
X135.534 Y183.187 I0.249 J-0.546 F850
G1 X135.145 Y176.887
G3 X135.495 Y176.304 I0.599 J-0.037
X135.723 Y176.25 I0.249 J0.546 F250
G1 X137.555 F850
G3 X139.342 Y176.935 I-0.105 J2.949
X141.035 Y179.31 I-3.285 J4.132
X141.327 Y182.386 I-5.364 J2.061
X140.917 Y183.297 I-1.937 J-0.323
X139.883 Y183.75 I-1.04 J-0.968
G1 X137.997
G3 X137.769 Y183.696 I0.021 J-0.6 F250
X137.42 Y183.192 I0.249 J-0.546 F850
G1 X136.977 Y176.892
G3 X137.327 Y176.304 I0.599 J-0.042
X137.555 Y176.25 I0.249 J0.546 F250
G1 X139.468 F850
G3 X141.227 Y176.934 I-0.134 J2.95
X142.92 Y179.31 I-3.286 J4.134
X143.212 Y182.386 I-5.365 J2.061
X142.803 Y183.297 I-1.937 J-0.323
X141.768 Y183.75 I-1.04 J-0.967
G1 X139.883
G3 X139.655 Y183.696 I0.021 J-0.6 F250
X139.305 Y183.19 I0.249 J-0.546 F850
G1 X138.89 Y176.889
G3 X139.24 Y176.304 I0.599 J-0.039
X139.468 Y176.25 I0.249 J0.546 F250
G1 X141.359 F850
G3 X143.112 Y176.933 I-0.14 J2.95
X144.801 Y179.311 I-3.188 J4.053
X145.097 Y182.386 I-5.266 J2.058
X144.688 Y183.297 I-1.923 J-0.315
X143.654 Y183.75 I-1.04 J-0.967
G1 X141.768
G3 X141.54 Y183.696 I0.021 J-0.6 F250
X141.19 Y183.189 I0.249 J-0.546 F850
G1 X140.782 Y176.888
G3 X141.131 Y176.304 I0.599 J-0.039
X141.359 Y176.25 I0.249 J0.546 F250
G1 X143.191 F850
G3 X144.999 Y176.936 I-0.086 J2.952
X146.691 Y179.311 I-3.284 J4.131
X146.983 Y182.386 I-5.364 J2.061
X146.573 Y183.297 I-1.937 J-0.323
X145.539 Y183.75 I-1.04 J-0.967
G1 X143.654
G3 X143.426 Y183.696 I0.021 J-0.6 F250
X143.076 Y183.194 I0.249 J-0.546 F850
G1 X142.614 Y176.894
G3 X142.963 Y176.304 I0.598 J-0.044
X143.191 Y176.25 I0.249 J0.546 F250
G1 X145.104 F850
G3 X146.883 Y176.935 I-0.114 J2.95
X148.577 Y179.31 I-3.285 J4.133
X148.868 Y182.386 I-5.364 J2.061
X148.459 Y183.297 I-1.937 J-0.323
X147.425 Y183.75 I-1.04 J-0.968
G1 X145.539
G3 X145.311 Y183.696 I0.021 J-0.6 F250
X144.961 Y183.192 I0.249 J-0.546 F850
G1 X144.527 Y176.891
G3 X144.877 Y176.304 I0.599 J-0.041
X145.104 Y176.25 I0.249 J0.546 F250
G1 X146.996 F850
G3 X148.769 Y176.934 I-0.12 J2.949
X150.462 Y179.31 I-3.285 J4.133
X150.754 Y182.386 I-5.364 J2.061
X150.344 Y183.297 I-1.937 J-0.323
X149.31 Y183.75 I-1.04 J-0.968
G1 X147.425
G3 X147.197 Y183.696 I0.021 J-0.6 F250
X146.847 Y183.191 I0.249 J-0.546 F850
G1 X146.418 Y176.89
G3 X146.768 Y176.304 I0.599 J-0.041
X146.996 Y176.25 I0.249 J0.546 F250
G1 X148.827 F850
G3 X150.655 Y176.936 I-0.068 J2.957
X152.347 Y179.311 I-3.284 J4.131
X152.639 Y182.386 I-5.363 J2.06
X152.23 Y183.297 I-1.936 J-0.322
X151.195 Y183.75 I-1.04 J-0.968
G1 X149.31
G3 X149.082 Y183.696 I0.021 J-0.6 F250
X148.733 Y183.196 I0.249 J-0.546 F850
G1 X148.25 Y176.895
G3 X148.599 Y176.304 I0.598 J-0.046
X148.827 Y176.25 I0.249 J0.546 F250
G1 X150.84 F850
G3 X152.59 Y176.971 I-0.201 J2.97
X154.267 Y179.402 I-3.387 J4.13
X154.573 Y182.101 I-5.518 J1.993
G1 X154.504 Y182.454
G3 X154.105 Y183.308 I-1.708 J-0.277
X153.082 Y183.75 I-1.026 J-0.97
G1 X151.195
G3 X150.967 Y183.696 I0.021 J-0.6 F250
X150.617 Y183.184 I0.249 J-0.546 F850
G1 X150.262 Y176.883
G3 X150.612 Y176.304 I0.599 J-0.034
X150.84 Y176.25 I0.249 J0.546 F250
G1 X152.632 F850
G3 X154.426 Y176.935 I-0.098 J2.949
X155.927 Y178.861 I-3.055 J3.929
X156.493 Y181.764 I-5.383 J2.555
X156.085 Y182.633 I-1.424 J-0.137
X155.886 Y182.756 I-0.409 J-0.439 F250
X155.153 Y182.49 I-0.21 J-0.562 F850
G1 X152.131 Y177.145
G3 X152.404 Y176.304 I0.522 J-0.295
X152.632 Y176.25 I0.249 J0.546 F250
G1 X153.431 F850
G3 X156.296 Y177.585 I-0.002 J3.745
X155.852 Y182.858 I-2.836 J2.417
X153.437 Y183.749 I-2.412 J-2.818
G1 X153.082 Y183.75
G3 X152.855 Y183.696 I0.021 J-0.6 F250
G1 X152.769 Y183.657 Z0.007
X152.686 Y183.619 Z0.029
X152.607 Y183.583 Z0.065
X152.534 Y183.55 Z0.115
X152.469 Y183.52 Z0.176
X152.413 Y183.495 Z0.247
X152.368 Y183.475 Z0.328
X152.335 Y183.46 Z0.415
X152.315 Y183.451 Z0.506
X152.309 Y183.448 Z0.6
G0 Z23
X75.203 Y182.975
Z1.2
G1 Z0.6 F250
X75.204 Y182.983 Z0.506
X75.206 Y183.005 Z0.415
X75.21 Y183.04 Z0.328
X75.215 Y183.089 Z0.247
X75.222 Y183.15 Z0.176
X75.23 Y183.221 Z0.115
X75.238 Y183.301 Z0.065
X75.248 Y183.388 Z0.029
X75.258 Y183.479 Z0.007
X75.268 Y183.572 Z0
G3 X75.113 Y183.75 I-0.16 J0.017
G1 X73.1 Y183.749 F850
G3 X71.326 Y182.98 I0.102 J-2.667
X70.014 Y180.552 I2.897 J-3.133
X70.526 Y176.992 I5.418 J-1.038
X71.76 Y176.25 I1.232 J0.653
X74.047 I1.19 J635.506
X74.275 Y176.304 I-0.021 J0.6 F250
X74.619 Y176.939 I-0.249 J0.546 F850
G1 X73.674 Y183.239
G3 X73.328 Y183.696 I-0.593 J-0.089
X73.1 Y183.749 I-0.248 J-0.547 F250
X71.216 Y183.744 I-0.64 J-107.998 F850
X69.424 Y182.769 I0.406 J-2.88
X68.214 Y180.32 I3.511 J-3.259
X68.444 Y177.094 I5.767 J-1.21
X69.409 Y176.287 I1.3 J0.575
G1 X69.732 Y176.25
G3 X71.76 I1.022 J980.719
X71.988 Y176.304 I-0.021 J0.6 F250
X72.338 Y176.885 I-0.249 J0.546 F850
G1 X71.968 Y183.186
G3 X71.618 Y183.696 I-0.599 J-0.035
X71.39 Y183.75 I-0.249 J-0.546 F250
X69.522 Y183.744 I-0.595 J-112.138 F850
X67.656 Y182.72 I0.433 J-3.002
X66.455 Y180.53 I3.697 J-3.451
X66.336 Y177.633 I5.693 J-1.686
G1 X66.451 Y177.338
X66.626 Y177.075
X66.855 Y176.857
G3 X67.069 Y176.763 I0.344 J0.491 F250
X67.751 Y177.113 I0.13 J0.586 F850
G1 X70.229 Y182.915
G3 X69.926 Y183.696 I-0.552 J0.236
X69.699 Y183.75 I-0.249 J-0.546 F250
G1 X68.9 F850
G3 X66.035 Y182.415 I0.002 J-3.745
X66.479 Y177.142 I2.836 J-2.417
X68.893 Y176.251 I2.412 J2.818
G1 X69.732 Y176.25
Y176.1 F212.5
G3 X70.609 Y175.245 I2.012 J1.187 F850
G1 X70.927 Y175.056
X71.342 Y174.858
X71.889 Y174.65
X72.634 Y174.432
G3 X76.145 Y173.989 I4.134 J18.603
X82.346 Y173.865 I5.481 J119.479
G1 X84.118 Y173.855
X86.777 Y173.852
X92.98 Y173.85
X119.563
X151.464
X152.35 Y173.874
X153.158 Y173.942
G3 X155.545 Y174.621 I-0.889 J7.671
X158.579 Y177.729 I-2.611 J5.584
X155.36 Y185.243 I-5.192 J2.222
G1 X154.729 Y185.455
X153.869 Y185.67
G3 X150.347 Y186.035 I-4.164 J-22.973
X142.373 Y186.14 I-6.449 J-187.364
G1 X139.715 Y186.148
X132.626 Y186.15
X104.27
X71.483
X70.597 Y186.145
X69.712 Y186.109
X68.953 Y186.027
G3 X66.188 Y185.055 I1.001 J-7.27
X63.346 Y180.812 I3.06 J-5.122
X65.818 Y175.342 I5.606 J-0.76
G1 X66.578 Y174.885
X68.095 Y173.97
G3 X73.041 Y172.093 I7.725 J12.901
X78.327 Y171.573 I5.979 J33.668
X86.301 Y171.462 I6.766 J199.356
G1 X88.959 Y171.453
X93.39 Y171.451
X116.429 Y171.45
X149.215
G3 X152.754 Y171.607 I0.455 J29.662
G1 X153.629 Y171.749
X154.493 Y171.947
G3 X157.314 Y173.203 I-2.46 J9.328
X160.344 Y176.717 I-4.587 J7.017
X159.241 Y184.872 I-7.029 J3.202
X156.648 Y186.884 I-6.209 J-5.327
G1 X155.891 Y187.231
G3 X152.465 Y188.102 I-5.198 J-13.266
X147.164 Y188.469 I-5.716 J-44.084
X137.417 Y188.548 I-7.935 J-380.871
G1 X132.1 Y188.55
X114.378
X73.616
G3 X70.074 Y188.447 I-0.627 J-39.607
G1 X69.195 Y188.337
X68.324 Y188.174
X67.487 Y187.953
G3 X64.195 Y186.186 I2.707 J-8.992
X61.492 Y181.828 I5.208 J-6.248
X63.295 Y174.896 I7.507 J-1.748
G1 X63.915 Y174.266
G3 X72.507 Y169.91 I12.245 J13.503
X78.663 Y169.218 I7.152 J35.911
X86.636 Y169.069 I7.092 J166.419
G1 X90.771 Y169.054
X94.907 Y169.048
X99.042 Y169.05
X146.893
G3 X152.204 Y169.227 I0.902 J52.593
X155.66 Y169.987 I-1.834 J16.589
X158.8 Y171.607 I-3.989 J11.582
X161.691 Y174.73 I-6.253 J8.687
X163.097 Y180.89 I-8.559 J5.194
X159.359 Y187.657 I-9.774 J-0.984
X156.282 Y189.391 I-7.22 J-9.213
X151.989 Y190.443 I-6.551 J-17.452
X145.804 Y190.861 I-6.664 J-52.545
X135.171 Y190.947 I-8.723 J-420.579
G1 X129.854 Y190.95
X86.434
G3 X78.944 Y191.145 I-6.413 J-102.145
X71.94 Y191.115 I-2.802 J-162.04
X67.394 Y190.417 I0.955 J-21.379
X62.899 Y188.077 I3.641 J-12.483
X59.092 Y180.836 I6.7 J-8.143
X61.66 Y173.379 I10.116 J-0.687
X65.809 Y169.954 I12.164 J10.508
X68.685 Y168.542 I9.254 J15.212
X76.494 Y167.019 I10.332 J32.205
X84.461 Y166.701 I7.868 J96.992
X96.866 Y166.651 I9.416 J804.022
G1 X115.475 Y166.65
X119.019
X145.603
G3 X150.917 Y166.779 I0.79 J77.164
X155.28 Y167.514 I-1.596 J22.789
X159.319 Y169.302 I-4.337 J15.257
X163.61 Y173.704 I-7.083 J11.196
X164.604 Y183.957 I-10.479 J6.191
X161.119 Y189.008 I-11.352 J-4.104
X157.364 Y191.324 I-9.01 J-10.402
X152.244 Y192.705 I-7.967 J-19.359
X146.067 Y193.215 I-7.203 J-49.556
X137.207 Y193.335 I-7.72 J-243.096
G1 X134.548 Y193.346
X131.004 Y193.349
X124.801 Y193.35
X89.356
G2 X84.041 Y193.477 I1.826 J188.2
G3 X73.408 Y193.533 I-7.036 J-325.75
X69.001 Y193.113 I0.926 J-33.03
X64.774 Y191.819 I3.132 J-17.792
X60.447 Y188.781 I5.865 J-12.951
X58.223 Y185.624 I9.105 J-8.778
G2 X57.282 Y184.756 I-1.298 J0.464
G1 X56.847 Y184.672
X55.968 Y184.783
X55.106 Y184.989
X54.254 Y185.233
X53.401 Y185.473
X52.539 Y185.677
G3 X49.995 Y185.794 I-1.636 J-7.825
X46.408 Y184.115 I0.735 J-6.241
X45.771 Y176.668 I3.917 J-4.086
X51.431 Y174.461 I4.596 J3.425
X53.867 Y175.611 I-1.047 J5.372
G2 X54.704 Y175.854 I0.79 J-1.156
G1 X55.144 Y175.804
X55.952 Y175.439
X56.679 Y174.932
X57.346 Y174.349
G2 X59.817 Y171.808 I-92.646 J-92.594
G3 X64.673 Y167.975 I17.476 J17.145
X69.558 Y165.913 I10.221 J17.398
X76.526 Y164.675 I9.749 J34.637
X83.886 Y164.325 I8.041 J91.485
X84.696 Y164.559 I0.039 J1.38
G2 X86.105 Y164.989 I1.521 J-2.46
G1 X86.508 Y164.999
X86.709 Y165
X152.322
X153.207 Y165.044
G3 X156.687 Y165.664 I-0.538 J13.1
X164.553 Y171.156 I-4.645 J15.034
X166.971 Y183.757 I-11.519 J8.742
X162.142 Y191.023 I-13.852 J-3.968
X156.716 Y193.958 I-10.698 J-13.291
X152.391 Y195.001 I-7.924 J-23.384
G1 X152.309 Y195
X86.709
G2 X85.702 Y195.05 I-0.172 J6.698
G1 X85.485 Y195.103
X85.3 Y195.163
G3 X82.411 Y195.697 I-3.867 J-12.844
X76.214 Y195.924 I-5.586 J-67.858
X69.148 Y195.476 I-0.864 J-42.344
X64.88 Y194.309 I3.861 J-22.51
X59.624 Y191.075 I6.293 J-16.115
G1 X58.99 Y190.457
X58.389 Y189.806
X57.826 Y189.121
X57.063 Y188.67
X56.215 Y188.414
X55.337 Y188.291
X54.452 Y188.246
X53.566 Y188.239
G3 X50.03 Y188.06 I-0.668 J-21.771
G1 X49.18 Y187.884
G3 X45.891 Y186.363 I2.09 J-8.838
X42.826 Y181.624 I4.753 J-6.434
X51.483 Y172.451 I7.525 J-1.57
G1 X52.353 Y172.621
X53.238 Y172.656
X54.105 Y172.473
X54.927 Y172.142
X55.702 Y171.713
G2 X58.524 Y169.573 I-14.928 J-22.621
G3 X62.801 Y166.42 I27.009 J32.161
X70.141 Y163.384 I13.226 J21.581
X77.133 Y162.271 I9.978 J40.165
X81.966 Y161.999 I6.588 J73.963
X83.209 Y162.712 I0.018 J1.406
G1 X83.534 Y163.286
X83.597 Y163.396
G3 X83.663 Y163.621 I-0.532 J0.278 F250
G1 X83.671 Y163.715 Z0.007
X83.679 Y163.806 Z0.029
X83.687 Y163.892 Z0.065
X83.694 Y163.972 Z0.115
X83.701 Y164.044 Z0.176
X83.706 Y164.104 Z0.247
X83.711 Y164.153 Z0.328
X83.714 Y164.189 Z0.415
X83.716 Y164.211 Z0.506
Y164.219 Z0.6
G0 Z23
X85.293 Y194.366
Z1.2
G1 Z0.6 F250
X85.295 Y194.373 Z0.506
X85.299 Y194.395 Z0.415
X85.306 Y194.43 Z0.328
X85.315 Y194.478 Z0.247
X85.327 Y194.538 Z0.176
X85.341 Y194.609 Z0.115
X85.357 Y194.687 Z0.065
X85.374 Y194.773 Z0.029
X85.391 Y194.862 Z0.007
X85.41 Y194.954 Z0
G3 X85.3 Y195.163 I-0.184 J0.036
G2 X83.8 Y196.27 I0.929 J2.829 F850
G3 X82.267 Y197.258 I-3.296 J-3.433
G1 X81.66 Y197.49
X80.842 Y197.729
G3 X77.332 Y198.183 I-4.262 J-19.136
X68.503 Y197.699 I-2.316 J-38.531
X63.425 Y196.158 I4.437 J-23.76
X58.895 Y193.405 I8.029 J-18.313
G1 X57.552 Y192.247
X56.79 Y191.795
X55.97 Y191.461
X55.117 Y191.22
X54.248 Y191.045
X53.372 Y190.911
X51.615 Y190.68
G3 X48.156 Y189.929 I2.428 J-19.514
X44.987 Y188.366 I3.809 J-11.712
X42.089 Y185.34 I6.01 J-8.658
X40.689 Y178.476 I8.386 J-5.285
X49.145 Y170.341 I9.673 J1.592
G1 X50.028 Y170.269
X50.914 Y170.261
X51.796 Y170.167
X52.657 Y169.96
X53.49 Y169.657
X54.29 Y169.277
G2 X57.268 Y167.359 I-12.367 J-22.465
G3 X61.671 Y164.382 I39.703 J53.979
X71.587 Y160.691 I15.501 J26.485
X78.614 Y159.799 I9.871 J49.589
G1 X79.498 Y159.736
X80.383 Y159.703
X80.759 Y159.719
G3 X81.922 Y160.43 I-0.056 J1.399
G1 X83.209 Y162.712
G3 X83.274 Y162.937 I-0.533 J0.276 F250
G1 X83.282 Y163.031 Z0.007
X83.29 Y163.122 Z0.029
X83.297 Y163.208 Z0.065
X83.304 Y163.288 Z0.115
X83.31 Y163.36 Z0.176
X83.315 Y163.421 Z0.247
X83.32 Y163.47 Z0.328
X83.323 Y163.506 Z0.415
X83.324 Y163.528 Z0.506
X83.325 Y163.535 Z0.6
G0 Z23
X83.447 Y195.489
Z1.2
G1 Z0.6 F250
X83.453 Y195.494 Z0.506
X83.468 Y195.51 Z0.415
X83.493 Y195.535 Z0.328
X83.528 Y195.57 Z0.247
X83.571 Y195.614 Z0.176
X83.621 Y195.665 Z0.115
X83.677 Y195.722 Z0.065
X83.738 Y195.784 Z0.029
X83.802 Y195.85 Z0.007
X83.868 Y195.917 Z0
G3 X83.891 Y196.151 I-0.134 J0.131
G1 X83.777 Y196.312 F850
X83.69 Y196.44
X83.287 Y197.148
X82.964 Y197.721
G3 X81.639 Y199.023 I-3.249 J-1.983
G1 X81.218 Y199.271
X80.681 Y199.527
X80 Y199.787
X79.149 Y200.036
G3 X74.754 Y200.519 I-4.375 J-19.564
X65.131 Y199.229 I-0.687 J-31.421
X58.058 Y195.628 I6.889 J-22.274
G1 X57.334 Y195.117
X56.568 Y194.672
X55.763 Y194.302
G2 X52.353 Y193.355 I-6.82 J17.951
G3 X48.05 Y192.304 I8.141 J-42.654
X44.063 Y190.402 I4.922 J-15.453
X40.852 Y187.377 I7.38 J-11.049
X38.401 Y179.933 I9.817 J-7.359
X48.555 Y168.242 I11.97 J0.141
G1 X49.43 Y168.103
G2 X52.8 Y167.043 I-1.993 J-12.22
X56.611 Y164.789 I-14.025 J-28.064
G3 X60.362 Y162.432 I50.397 J76.011
X71.973 Y158.249 I17.559 J30.537
X79.166 Y157.424 I9.247 J48.86
G1 X79.489 Y157.478
X79.792 Y157.598
X80.059 Y157.784
X80.276 Y158.027
X81.677 Y160.021
X81.705 Y160.064
X81.829 Y160.265
X81.922 Y160.43
G3 X81.987 Y160.655 I-0.533 J0.276 F250
G1 X81.995 Y160.748 Z0.007
X82.003 Y160.84 Z0.029
X82.011 Y160.926 Z0.065
X82.018 Y161.006 Z0.115
X82.024 Y161.078 Z0.176
X82.029 Y161.138 Z0.247
X82.033 Y161.187 Z0.328
X82.036 Y161.223 Z0.415
X82.038 Y161.245 Z0.506
X82.039 Y161.253 Z0.6
G0 Z23
X82.455 Y197.108
Z1.2
G1 Z0.6 F250
X82.46 Y197.113 Z0.506
X82.477 Y197.127 Z0.415
X82.505 Y197.15 Z0.328
X82.543 Y197.181 Z0.247
X82.59 Y197.22 Z0.176
X82.645 Y197.266 Z0.115
X82.707 Y197.317 Z0.065
X82.774 Y197.372 Z0.029
X82.845 Y197.431 Z0.007
X82.917 Y197.49 Z0
G3 X82.964 Y197.721 I-0.119 J0.145
G1 X81.829 Y199.735 F850
G3 X80.33 Y201.272 I-3.833 J-2.24
G1 X79.885 Y201.535
X79.331 Y201.802
X78.661 Y202.062
X77.811 Y202.315
G3 X74.301 Y202.762 I-3.872 J-16.432
X62.176 Y200.595 I-0.913 J-29.906
X57.507 Y198.066 I11.469 J-26.739
G2 X53.47 Y196.272 I-8.623 J13.971
X50.051 Y195.34 I-26.263 J89.604
G3 X45.855 Y193.928 I7.59 J-29.489
X41.353 Y191.135 I7.083 J-16.443
X37.607 Y186.244 I9.88 J-11.446
X36.225 Y179.362 I13.011 J-6.193
X46.606 Y166.419 I14.151 J0.715
G1 X47.461 Y166.187
G2 X51.644 Y164.75 I-4.887 J-21.025
X56.257 Y162.112 I-21.436 J-42.841
G3 X60.88 Y159.488 I36.386 J58.709
X72.66 Y155.76 I17.807 J35.793
X77.3 Y155.193 I7.66 J43.47
X78.404 Y155.683 I0.024 J1.433
X79.665 Y157.156 I-68.319 J59.785
G1 X80.276 Y158.027
G3 X80.363 Y158.244 I-0.503 J0.328 F250
G1 X80.38 Y158.336 Z0.007
X80.397 Y158.426 Z0.029
X80.413 Y158.512 Z0.065
X80.428 Y158.591 Z0.115
X80.441 Y158.661 Z0.176
X80.452 Y158.721 Z0.247
X80.461 Y158.769 Z0.328
X80.468 Y158.805 Z0.415
X80.472 Y158.826 Z0.506
X80.473 Y158.834 Z0.6
G0 Z23
X81.219 Y199.304
Z1.2
G1 Z0.6 F250
X81.225 Y199.309 Z0.506
X81.241 Y199.324 Z0.415
X81.268 Y199.348 Z0.328
X81.305 Y199.381 Z0.247
X81.351 Y199.421 Z0.176
X81.404 Y199.469 Z0.115
X81.464 Y199.523 Z0.065
X81.529 Y199.58 Z0.029
X81.597 Y199.641 Z0.007
X81.667 Y199.704 Z0
G3 X81.705 Y199.936 I-0.125 J0.14
G1 X81.677 Y199.979 F850
X79.868 Y202.554
G3 X78.604 Y203.668 I-3.472 J-2.666
G1 X78.159 Y203.915
X77.606 Y204.166
X76.919 Y204.414
X76.068 Y204.646
G3 X72.548 Y204.995 I-3.362 J-15.942
X57.38 Y200.719 I0.18 J-29.673
G2 X51.661 Y198.352 I-13.168 J23.722
G3 X47.432 Y197.031 I41.807 J-141.26
X42.608 Y194.816 I8.429 J-24.727
X37.906 Y190.811 I9.785 J-16.248
X34.223 Y182.861 I13.057 J-10.879
X44.98 Y164.6 I16.167 J-2.775
G2 X48.329 Y163.439 I-224.788 J-653.818
X53.878 Y160.685 I-13.013 J-33.194
G3 X58.504 Y158.065 I91.071 J155.377
X72.743 Y153.373 I20.724 J38.947
G1 X73.618 Y153.233
X74.496 Y153.115
X75.165 Y153.042
G3 X76.281 Y153.419 I0.152 J1.392
G1 X76.917 Y154.022
X77.048 Y154.152
X77.317 Y154.425
X78.186 Y155.432
X78.403 Y155.683
G3 X78.511 Y155.891 I-0.468 J0.376 F250
G1 X78.538 Y155.981 Z0.007
X78.563 Y156.069 Z0.029
X78.588 Y156.153 Z0.065
X78.61 Y156.23 Z0.115
X78.63 Y156.298 Z0.176
X78.647 Y156.357 Z0.247
X78.661 Y156.404 Z0.328
X78.671 Y156.439 Z0.415
X78.677 Y156.46 Z0.506
X78.679 Y156.467 Z0.6
G0 Z23
X79.422 Y201.894
Z1.2
G1 Z0.6 F250
X79.427 Y201.899 Z0.506
X79.442 Y201.915 Z0.415
X79.468 Y201.94 Z0.328
X79.502 Y201.975 Z0.247
X79.546 Y202.019 Z0.176
X79.596 Y202.069 Z0.115
X79.652 Y202.126 Z0.065
X79.714 Y202.188 Z0.029
X79.778 Y202.253 Z0.007
X79.844 Y202.32 Z0
G3 X79.868 Y202.554 I-0.133 J0.132
X79.054 Y203.56 I-7.51 J-5.248 F850
G1 X77.665 Y205.172
G3 X76.168 Y206.249 I-3.473 J-3.249
G1 X75.648 Y206.473
X74.999 Y206.694
X74.199 Y206.895
G3 X70.672 Y207.153 I-2.853 J-14.795
X61.182 Y205.136 I1.234 J-29.141
X57.162 Y203.28 I13.157 J-33.778
G2 X50.608 Y200.601 I-18.409 J35.679
G3 X45.59 Y198.847 I25.426 J-80.827
X40.138 Y195.917 I9.86 J-24.885
X35.161 Y190.916 I11.993 J-16.909
X31.744 Y180.096 I15.657 J-10.895
X43.42 Y162.79 I18.664
X46.713 Y161.48 I38.296 J91.478
G2 X53.063 Y158.34 I-18.922 J-46.252
G3 X58.526 Y155.404 I61.663 J108.22
X72.877 Y150.978 I21.17 J43.16
X73.892 Y151.261 I0.168 J1.359
G1 X74.078 Y151.404
X74.23 Y151.525
X74.834 Y152.043
X76.281 Y153.419
G3 X76.41 Y153.615 I-0.428 J0.42 F250
G1 X76.445 Y153.702 Z0.007
X76.479 Y153.786 Z0.029
X76.511 Y153.867 Z0.065
X76.541 Y153.942 Z0.115
X76.568 Y154.008 Z0.176
X76.591 Y154.065 Z0.247
X76.609 Y154.11 Z0.328
X76.623 Y154.144 Z0.415
X76.631 Y154.164 Z0.506
X76.634 Y154.171 Z0.6
G0 Z23
X77.287 Y204.471
Z1.2
G1 Z0.6 F250
X77.291 Y204.476 Z0.506
X77.305 Y204.493 Z0.415
X77.328 Y204.521 Z0.328
X77.359 Y204.56 Z0.247
X77.397 Y204.607 Z0.176
X77.442 Y204.663 Z0.115
X77.493 Y204.725 Z0.065
X77.548 Y204.793 Z0.029
X77.606 Y204.864 Z0.007
X77.665 Y204.937 Z0
G3 Y205.172 I-0.146 J0.118
G1 X77.317 Y205.575 F850
X77.048 Y205.848
X76.917 Y205.978
X75.221 Y207.589
G3 X73.378 Y208.691 I-3.482 J-3.733
G1 X72.79 Y208.88
X72.061 Y209.049
X71.184 Y209.179
G3 X66.768 Y209.01 I-1.534 J-17.677
X58.322 Y206.432 I4.713 J-30.567
G2 X54.292 Y204.59 I-160.358 J345.448
X48.475 Y202.441 I-31.777 J77.094
G3 X42.726 Y200.121 I16.903 J-50.161
X37.515 Y196.781 I12.161 J-24.708
X31.178 Y188.365 I14.194 J-17.28
X30.797 Y172.795 I19.386 J-8.263
X41.27 Y161.274 I19.65 J7.34
X45.316 Y159.472 I28.049 J57.543
G2 X51.671 Y156.337 I-27.333 J-63.418
G3 X57.956 Y153.059 I63.062 J113.246
X70.208 Y149.054 I22.041 J46.683
X71.222 Y149.244 I0.264 J1.391
X72.216 Y149.96 I-5.571 J8.779
G1 X73.892 Y151.26
G3 X74.039 Y151.443 I-0.385 J0.461 F250
G1 X74.083 Y151.526 Z0.007
X74.125 Y151.607 Z0.029
X74.166 Y151.684 Z0.065
X74.203 Y151.755 Z0.115
X74.236 Y151.818 Z0.176
X74.265 Y151.873 Z0.247
X74.287 Y151.916 Z0.328
X74.304 Y151.948 Z0.415
X74.314 Y151.968 Z0.506
X74.318 Y151.974 Z0.6
G0 Z23
X74.914 Y206.853
Z1.2
G1 Z0.6 F250
X74.918 Y206.859 Z0.506
X74.93 Y206.878 Z0.415
X74.95 Y206.908 Z0.328
X74.977 Y206.949 Z0.247
X75.011 Y207 Z0.176
X75.05 Y207.06 Z0.115
X75.094 Y207.127 Z0.065
X75.142 Y207.199 Z0.029
X75.193 Y207.276 Z0.007
X75.244 Y207.354 Z0
G3 X75.221 Y207.589 I-0.157 J0.103
G1 X74.834 Y207.957 F850
X74.23 Y208.475
X74.029 Y208.634
X72.265 Y210.004
G3 X70.27 Y210.929 I-3.181 J-4.251
G1 X69.622 Y211.068
X68.821 Y211.172
G3 X65.289 Y211.007 I-1.078 J-14.809
X58.498 Y209.036 I4.697 J-28.867
X54.43 Y207.279 I54.967 J-132.818
G2 X47.806 Y204.758 I-43.017 J103.076
G3 X42.073 Y202.395 I20.439 J-57.729
X36.108 Y198.593 I13.59 J-27.903
X29.192 Y189.508 I15.829 J-19.224
X27.494 Y176.501 I21.528 J-9.424
X39.326 Y159.72 I22.935 J3.609
X42.495 Y158.136 I18.75 J33.556
G2 X52.016 Y153.407 I-50.09 J-112.781
G3 X58.377 Y150.281 I46.265 J86.107
X67.27 Y147.295 I21.979 J50.729
X68.277 Y147.431 I0.327 J1.384
G1 X68.595 Y147.605
X68.796 Y147.718
X71.222 Y149.245
G3 X71.387 Y149.411 I-0.337 J0.496 F250
G1 X71.438 Y149.49 Z0.007
X71.489 Y149.566 Z0.029
X71.536 Y149.639 Z0.065
X71.58 Y149.706 Z0.115
X71.62 Y149.766 Z0.176
X71.653 Y149.817 Z0.247
X71.68 Y149.858 Z0.328
X71.7 Y149.888 Z0.415
X71.712 Y149.906 Z0.506
X71.716 Y149.913 Z0.6
G0 Z23
X72.031 Y209.243
Z1.2
G1 Z0.6 F250
X72.035 Y209.249 Z0.506
X72.045 Y209.269 Z0.415
X72.062 Y209.301 Z0.328
X72.085 Y209.344 Z0.247
X72.113 Y209.398 Z0.176
X72.146 Y209.462 Z0.115
X72.184 Y209.533 Z0.065
X72.224 Y209.61 Z0.029
X72.267 Y209.691 Z0.007
X72.31 Y209.774 Z0
G3 X72.264 Y210.005 I-0.166 J0.087
X71.455 Y210.61 I-30.038 J-39.373 F850
G1 X68.998 Y212.155
G3 X66.831 Y212.906 I-2.857 J-4.739
G1 X66.136 Y212.985
X65.274 Y213.011
G3 X61.771 Y212.522 I0.452 J-16.034
X56.736 Y210.829 I8.259 J-32.891
G2 X50.988 Y208.499 I-109.482 J261.904
G3 X44.358 Y205.989 I104.626 J-286.307
X38.789 Y203.269 I17.303 J-42.492
X31.893 Y197.752 I15.363 J-26.27
X25.3 Y184.433 I19.432 J-17.912
X37.653 Y158.039 I25.145 J-4.319
X42.373 Y155.596 I25.56 J43.606
G2 X51.853 Y150.783 I-97.128 J-203.038
G3 X58.268 Y147.769 I42.984 J83.163
X64.006 Y145.743 I22.958 J55.873
G1 X64.31 Y145.688
X64.618 Y145.7
X64.916 Y145.779
X65.173 Y145.879
X65.374 Y145.973
X67.991 Y147.278
X68.192 Y147.384
X68.277 Y147.431
G3 X68.451 Y147.588 I-0.307 J0.515 F250
G1 X68.507 Y147.663 Z0.007
X68.562 Y147.736 Z0.029
X68.614 Y147.806 Z0.065
X68.662 Y147.87 Z0.115
X68.705 Y147.928 Z0.176
X68.741 Y147.977 Z0.247
X68.771 Y148.016 Z0.328
X68.792 Y148.045 Z0.415
X68.805 Y148.063 Z0.506
X68.81 Y148.069 Z0.6
G0 Z23
X68.841 Y211.374
Z1.2
G1 Z0.6 F250
X68.844 Y211.381 Z0.506
X68.852 Y211.401 Z0.415
X68.865 Y211.434 Z0.328
X68.884 Y211.48 Z0.247
X68.907 Y211.537 Z0.176
X68.934 Y211.603 Z0.115
X68.964 Y211.678 Z0.065
X68.996 Y211.758 Z0.029
X69.031 Y211.843 Z0.007
X69.066 Y211.93 Z0
G3 X68.997 Y212.156 I-0.174 J0.07
X67.99 Y212.722 I-7 J-11.271 F850
G1 X65.374 Y214.027
G3 X63.512 Y214.533 I-2.403 J-5.167
G1 X62.856 Y214.576
X62.055 Y214.564
G3 X58.581 Y213.903 I1.12 J-15.357
X54.408 Y212.418 I13.841 J-45.489
G2 X45.306 Y208.932 I-233.794 J596.793
G3 X39.644 Y206.404 I23.667 J-60.615
X32.339 Y201.427 I16.445 J-31.982
X24.392 Y189.849 I19.634 J-21.994
X23.108 Y175.019 I26.353 J-9.751
X35.724 Y156.525 I27.347 J5.104
X40.369 Y153.945 I24.277 J38.238
G2 X50.636 Y148.722 I-213.854 J-433.092
G3 X58.701 Y145.058 I40.994 J79.519
G1 X59.533 Y144.752
X60.372 Y144.45
X60.642 Y144.386
X60.92 Y144.377
G3 X62.556 Y144.882 I-1.269 J7.007
G1 X64.569 Y145.646
X64.916 Y145.779
G3 X65.109 Y145.911 I-0.236 J0.552 F250
G1 X65.174 Y145.978 Z0.007
X65.238 Y146.044 Z0.029
X65.299 Y146.106 Z0.065
X65.355 Y146.163 Z0.115
X65.405 Y146.215 Z0.176
X65.448 Y146.258 Z0.247
X65.483 Y146.294 Z0.328
X65.508 Y146.319 Z0.415
X65.523 Y146.335 Z0.506
X65.528 Y146.34 Z0.6
G0 Z23
X65.285 Y213.239
Z1.2
G1 Z0.6 F250
X65.287 Y213.247 Z0.506
X65.293 Y213.268 Z0.415
X65.303 Y213.302 Z0.328
X65.317 Y213.349 Z0.247
X65.334 Y213.408 Z0.176
X65.354 Y213.477 Z0.115
X65.377 Y213.554 Z0.065
X65.401 Y213.637 Z0.029
X65.427 Y213.725 Z0.007
X65.454 Y213.815 Z0
G3 X65.363 Y214.033 I-0.18 J0.053
G1 X65.173 Y214.121 F850
G3 X61.676 Y215.446 I-47.594 J-120.42
X59.963 Y215.819 I-2.929 J-9.315
G1 X59.39 Y215.85
X58.678 Y215.831
X57.797 Y215.736
G3 X54.371 Y214.842 I3.546 J-20.611
X42.766 Y210.461 I80.765 J-231.491
X36.433 Y207.287 I20.893 J-49.583
X28.832 Y201.232 I18.509 J-31.035
X21.232 Y187.402 I22.79 J-21.526
X23.108 Y167.492 I29.347 J-7.279
X33.969 Y154.91 I27.48 J12.744
X39.343 Y151.82 I27.595 J41.772
G1 X44.473 Y149.201
X49.599 Y146.574
G3 X56.258 Y143.496 I44.038 J86.509
G1 X56.505 Y143.423
X56.76 Y143.395
G3 X58.732 Y143.758 I-1.075 J11.385
G1 X61.193 Y144.422
G3 X61.399 Y144.534 I-0.177 J0.573 F250
G1 X61.471 Y144.593 Z0.007
X61.542 Y144.652 Z0.029
X61.609 Y144.707 Z0.065
X61.671 Y144.759 Z0.115
X61.726 Y144.804 Z0.176
X61.773 Y144.843 Z0.247
X61.811 Y144.875 Z0.328
X61.839 Y144.898 Z0.415
X61.855 Y144.912 Z0.506
X61.861 Y144.916 Z0.6
G0 Z23
X61.028 Y214.851
Z1.2
G1 Z0.6 F250
X61.029 Y214.858 Z0.506
X61.031 Y214.88 Z0.415
X61.034 Y214.916 Z0.328
X61.038 Y214.965 Z0.247
X61.043 Y215.026 Z0.176
X61.05 Y215.097 Z0.115
X61.057 Y215.177 Z0.065
X61.064 Y215.264 Z0.029
X61.072 Y215.355 Z0.007
X61.08 Y215.448 Z0
G3 X60.949 Y215.644 I-0.187 J0.016
G1 X58.715 Y216.248 F850
X58.531 Y216.296
X57.927 Y216.431
X57.841 Y216.449
X56.317 Y216.703
X55.705 Y216.773
X55.134 Y216.793
X54.402 Y216.76
X53.523 Y216.648
G3 X49.259 Y215.462 I5.377 J-27.595
X39.386 Y211.528 I30.983 J-92.1
X32.514 Y207.499 I20.434 J-42.728
X23.84 Y198.715 I20.885 J-29.3
X18.167 Y183.054 I27.317 J-18.751
X31.541 Y153.784 I32.284 J-2.94
X37.579 Y150.083 I27.919 J38.779
X49.4 Y144.006 I242.076 J456.365
X51.772 Y142.891 I24.919 J49.917
G1 X52.006 Y142.854
X52.24 Y142.85
X54.305 Y142.986
X54.506 Y143.002
X55.11 Y143.097
X57.017 Y143.414
G3 X57.233 Y143.504 I-0.119 J0.588 F250
G1 X57.311 Y143.556 Z0.007
X57.387 Y143.607 Z0.029
X57.459 Y143.656 Z0.065
X57.526 Y143.701 Z0.115
X57.585 Y143.741 Z0.176
X57.636 Y143.775 Z0.247
X57.677 Y143.802 Z0.328
X57.706 Y143.823 Z0.415
X57.725 Y143.835 Z0.506
X57.731 Y143.839 Z0.6
G0 Z23
X56.475 Y215.921
Z1.2
G1 Z0.6 F250
Y215.929 Z0.506
Y215.951 Z0.415
X56.474 Y215.987 Z0.328
Y216.036 Z0.247
X56.473 Y216.097 Z0.176
X56.472 Y216.169 Z0.115
X56.471 Y216.249 Z0.065
X56.47 Y216.336 Z0.029
X56.469 Y216.428 Z0.007
X56.468 Y216.521 Z0
G3 X56.317 Y216.703 I-0.188 J-0.002
G1 X55.11 Y216.903 F850
X54.506 Y216.998
X54.305 Y217.014
X51.084 Y217.226
G3 X46.842 Y216.84 I-0.459 J-18.465
X40.175 Y214.457 I10.584 J-40.119
X29.526 Y208.16 I18.679 J-43.743
X22.238 Y200.464 I23.875 J-29.912
X15.741 Y178.782 I28.803 J-20.444
X30.441 Y151.721 I34.767 J1.362
X36.469 Y148.001 I30.22 J42.221
X45.919 Y143.08 I163.782 J303.043
X47.663 Y142.868 I1.84 J7.86
G1 X50.279 Y142.778
X50.481 Y142.774
X50.883 Y142.773
X51.084 Y142.774
X52.24 Y142.85
G3 X52.464 Y142.918 I-0.06 J0.597 F250
G1 X52.546 Y142.963 Z0.007
X52.627 Y143.006 Z0.029
X52.704 Y143.047 Z0.065
X52.774 Y143.085 Z0.115
X52.837 Y143.119 Z0.176
X52.891 Y143.148 Z0.247
X52.935 Y143.171 Z0.328
X52.966 Y143.188 Z0.415
X52.986 Y143.199 Z0.506
X52.992 Y143.202 Z0.6
G0 Z23
X49.783 Y216.46
Z1.2
G1 Z0.6 F250
X49.781 Y216.468 Z0.506
X49.777 Y216.489 Z0.415
X49.769 Y216.524 Z0.328
X49.759 Y216.573 Z0.247
X49.746 Y216.632 Z0.176
X49.731 Y216.702 Z0.115
X49.714 Y216.781 Z0.065
X49.696 Y216.866 Z0.029
X49.677 Y216.955 Z0.007
X49.657 Y217.047 Z0
G3 X49.474 Y217.195 I-0.183 J-0.039
G1 X47.663 Y217.134 F850
X47.059 Y217.098
X46.858 Y217.077
X43.637 Y216.648
X43.436 Y216.609
X42.832 Y216.472
X40.177 Y215.845
X39.509 Y215.644
X39.411 Y215.611
X36.794 Y214.712
X36.593 Y214.633
X36.099 Y214.436
X35.989 Y214.386
X33.373 Y213.186
X32.688 Y212.825
X32.343 Y212.623
X30.152 Y211.342
G3 X28.054 Y209.801 I11.099 J-17.321
X21.186 Y202.932 I20.398 J-27.261
X13.817 Y174.549 I29.689 J-22.855
X28.598 Y150.188 I36.729 J5.62
X34.559 Y146.362 I31.045 J41.812
X36.796 Y145.292 I6.023 J9.718
G1 X39.411 Y144.389
X39.509 Y144.356
X40.177 Y144.155
X42.832 Y143.528
X43.436 Y143.391
X43.637 Y143.352
X46.224 Y143.007
G3 X46.457 Y143.03 I0.058 J0.597 F250
G1 X46.547 Y143.057 Z0.007
X46.635 Y143.084 Z0.029
X46.718 Y143.109 Z0.065
X46.795 Y143.133 Z0.115
X46.863 Y143.154 Z0.176
X46.922 Y143.171 Z0.247
X46.969 Y143.186 Z0.328
X47.003 Y143.196 Z0.415
X47.024 Y143.203 Z0.506
X47.031 Y143.205 Z0.6
G0 Z23
X29.411 Y209.922
Z1.2
G1 Z0.6 F250
X29.406 Y209.927 Z0.506
X29.39 Y209.942 Z0.415
X29.364 Y209.967 Z0.328
X29.329 Y210.001 Z0.247
X29.284 Y210.044 Z0.176
X29.233 Y210.093 Z0.115
X29.175 Y210.149 Z0.065
X29.112 Y210.209 Z0.029
X29.046 Y210.272 Z0.007
X28.978 Y210.337 Z0
G3 X28.744 Y210.357 I-0.13 J-0.135
G1 X27.335 Y209.333 F850
X27.16 Y209.2
X26.661 Y208.797
X26.53 Y208.69
X24.316 Y206.718
X24.167 Y206.582
X23.786 Y206.179
X21.699 Y203.911
X21.58 Y203.763
X21.095 Y203.126
X19.606 Y201.145
X19.205 Y200.54
X19.078 Y200.339
X17.611 Y197.923
X17.491 Y197.721
G3 X15.861 Y194.298 I228.17 J-110.762
G1 X14.698 Y191.076
X14.655 Y190.957
X14.629 Y190.874
X13.813 Y187.652
X13.767 Y187.451
X13.661 Y186.847
X13.648 Y186.769
X13.268 Y184.229
X13.246 Y184.076
X13.175 Y183.423
X13.164 Y183.222
X13.014 Y180.201
X13.004 Y180
X13.034 Y179.396
X13.164 Y176.778
X13.175 Y176.577
X13.246 Y175.924
X13.268 Y175.771
X13.648 Y173.231
X13.661 Y173.153
X13.767 Y172.549
X13.813 Y172.348
X14.629 Y169.126
G3 X15.949 Y165.499 I116.387 J40.291
G1 X17.491 Y162.279
X17.611 Y162.077
X19.083 Y159.654
X19.205 Y159.46
X19.606 Y158.855
X21.12 Y156.842
X21.58 Y156.237
X21.699 Y156.089
X23.786 Y153.821
X24.167 Y153.418
X24.316 Y153.282
X26.53 Y151.31
X26.731 Y151.146
X27.16 Y150.8
G3 X29.951 Y148.778 I72.715 J97.405
G1 X30.277 Y148.585
X32.568 Y147.245
X32.688 Y147.175
X33.373 Y146.814
X35.445 Y145.863
G3 X35.674 Y145.817 I0.231 J0.554 F250
G1 X35.768 Z0.007
X35.86 Z0.029
X35.947 Z0.065
X36.027 Y145.816 Z0.115
X36.098 Z0.176
X36.16 Z0.247
X36.209 Z0.328
X36.245 Z0.415
X36.267 Z0.506
X36.274 Z0.6
G0 Z23
X152.038 Y165.745
Z1.2
G1 Z0.6 F250
X152.04 Y165.738 Z0.506
X152.043 Y165.716 Z0.415
X152.05 Y165.681 Z0.328
X152.059 Y165.632 Z0.247
X152.069 Y165.572 Z0.176
X152.082 Y165.501 Z0.115
X152.096 Y165.422 Z0.065
X152.111 Y165.337 Z0.029
X152.128 Y165.247 Z0.007
X152.144 Y165.154 Z0
G3 X152.322 Y165 I0.185 J0.033
X153.731 Y165.022 I0.281 J26.953 F850
G1 X155.542 Y165.154
X155.744 Y165.185
X157.555 Y165.578
X157.756 Y165.627
G3 X159.973 Y166.49 I-10.576 J30.464
G1 X161.178 Y167.154
X161.581 Y167.381
X161.782 Y167.519
X163.191 Y168.575
X163.368 Y168.723
X163.593 Y168.946
X164.6 Y169.952
X164.801 Y170.159
X164.943 Y170.334
X166.008 Y171.755
X166.137 Y171.945
X166.36 Y172.348
X167.019 Y173.556
X167.121 Y173.757
G3 X167.879 Y175.771 I-73.072 J28.629
X168.351 Y177.986 I-44.456 J10.65
G1 X168.478 Y179.799
X168.491 Y180
X168.478 Y180.201
X168.349 Y182.014
G3 X167.879 Y184.229 I-38.507 J-7.004
X167.022 Y186.455 I-36.175 J-12.65
G1 X166.36 Y187.652
X166.137 Y188.055
X166.008 Y188.245
X164.943 Y189.666
X164.801 Y189.841
X164.578 Y190.069
X163.572 Y191.076
X163.368 Y191.277
X163.191 Y191.425
X161.776 Y192.485
X161.581 Y192.619
X161.178 Y192.846
X159.97 Y193.505
X159.769 Y193.607
X159.165 Y193.846
X158.964 Y193.922
X157.756 Y194.373
X157.555 Y194.422
X155.744 Y194.815
X155.542 Y194.846
X153.731 Y194.976
G3 X152.309 Y194.999 I-1.061 J-21.73
G1 X152.256 Y194.987 Z0.007 F250
X152.205 Y194.976 Z0.026
X152.16 Y194.967 Z0.057
X152.124 Y194.959 Z0.098
X152.097 Y194.953 Z0.147
X152.085 Y194.948 Z0.19
X152.081 Y194.946 Z0.236
G0 Z23
X75.578 Y307.366
Z21.15
G1 Z20.55 F250
G3 X70.952 Y305.864 Z20.347 I-1.854 J-2.165 F200
X74.399 Y302.432 Z20.143 I2.772 J-0.662
X73.05 Y307.97 Z19.83 I-0.675 J2.769
X71.083 Y306.27 Z19.736 I0.675 J-2.769
X73.978 Y302.362 Z19.533 I2.642 J-1.069
X76.135 Y306.721 Z19.329 I-0.253 J2.839
X71.272 Y306.653 Z19.126 I-2.411 J-1.52
X73.551 Y302.356 Z18.922 I2.452 J-1.452
X73.898 Y308.046 Z18.61 I0.174 J2.845
X71.517 Y307.004 Z18.515 I-0.174 J-2.845
X73.127 Y302.414 Z18.312 I2.208 J-1.802
X74.322 Y307.988 Z17.999 I0.597 J2.787
X71.811 Y307.313 Z17.905 I-0.597 J-2.787
X72.717 Y302.535 Z17.701 I1.913 J-2.112
X74.731 Y307.867 Z17.389 I1.007 J2.666
X72.148 Y307.576 Z17.295 I-1.007 J-2.666
X72.33 Y302.715 Z17.091 I1.576 J-2.374
X75.119 Y307.687 Z16.778 I1.394 J2.486
X72.33 Y302.715 Z16.466 I-1.394 J-2.486
X75.119 Y307.687 Z16.153 I1.394 J2.486
X72.33 Y302.715 Z15.84 I-1.394 J-2.486
X75.119 Y307.687 Z15.528 I1.394 J2.486
X73.338 Y308.025 Z15.463 I-1.394 J-2.486
X71.388 Y303.57 Z15.26 I0.386 J-2.824
X76.061 Y306.833 Z14.947 I2.337 J1.631
X73.765 Y308.051 Z14.853 I-2.337 J-1.631
X71.17 Y303.937 Z14.65 I-0.04 J-2.85
X76.279 Y306.465 Z14.337 I2.554 J1.264
X71.17 Y303.937 Z14.024 I-2.554 J-1.264
X76.279 Y306.465 Z13.712 I2.554 J1.264
X70.911 Y304.749 Z13.429 I-2.554 J-1.264
X75.41 Y302.903 Z13.225 I2.814 J0.452
X75.001 Y307.749 Z13.022 I-1.686 J2.298
X72.448 Y302.653 Z12.709 I-1.276 J-2.548
X75.048 Y302.677 Z12.615 I1.276 J2.548
X75.367 Y307.53 Z12.411 I-1.323 J2.524
X72.082 Y302.872 Z12.099 I-1.643 J-2.329
X74.656 Y302.508 Z12.004 I1.643 J2.329
X72.793 Y307.895 Z11.692 I-0.931 J2.694
X70.994 Y306.018 Z11.598 I0.931 J-2.694
X74.243 Y302.399 Z11.394 I2.73 J-0.817
X73.206 Y308.004 Z11.081 I-0.518 J2.802
X71.147 Y306.417 Z10.987 I0.518 J-2.803
X73.818 Y302.353 Z10.784 I2.578 J-1.216
X76.217 Y306.583 Z10.58 I-0.093 J2.848
X71.232 Y303.819 Z10.268 I-2.492 J-1.382
X76.217 Y306.583 Z9.955 I2.492 J1.382
X71.622 Y307.125 Z9.766 I-2.492 J-1.382
X72.972 Y302.452 Z9.563 I2.103 J-1.924
X74.477 Y307.95 Z9.25 I0.753 J2.749
X71.933 Y307.418 Z9.156 I-0.753 J-2.749
X72.569 Y302.596 Z8.952 I1.792 J-2.216
X74.88 Y307.806 Z8.64 I1.155 J2.605
X72.284 Y307.66 Z8.546 I-1.155 J-2.605
X72.193 Y302.798 Z8.342 I1.44 J-2.459
X75.256 Y307.605 Z8.029 I1.532 J2.403
X72.193 Y302.798 Z7.717 I-1.532 J-2.403
X75.256 Y307.605 Z7.404 I1.532 J2.403
X73.075 Y307.976 Z7.325 I-1.532 J-2.403
X71.551 Y303.358 Z7.121 I0.649 J-2.775
X75.898 Y307.044 Z6.809 I2.174 J1.843
X73.498 Y308.042 Z6.714 I-2.174 J-1.843
X73.951 Y302.36 Z6.402 I0.227 J-2.841
X76.163 Y303.726 Z6.307 I-0.227 J2.841
X73.925 Y308.044 Z6.104 I-2.439 J1.475
X73.524 Y302.358 Z5.791 I-0.2 J-2.843
X75.915 Y303.378 Z5.697 I0.2 J2.843
X74.348 Y307.982 Z5.494 I-2.191 J1.823
X73.101 Y302.42 Z5.181 I-0.623 J-2.781
X75.618 Y303.071 Z5.087 I0.623 J2.781
X74.756 Y307.858 Z4.883 I-1.894 J2.13
X72.693 Y302.544 Z4.571 I-1.032 J-2.657
X75.278 Y302.812 Z4.476 I1.032 J2.657
X75.142 Y307.674 Z4.273 I-1.554 J2.389
X72.307 Y302.729 Z3.96 I-1.417 J-2.473
X75.142 Y307.674 Z3.647 I1.417 J2.473
X72.307 Y302.729 Z3.335 I-1.417 J-2.473
X74.503 Y302.46 Z3.255 I1.417 J2.473
X75.809 Y307.144 Z3.052 I-0.778 J2.742
X71.044 Y306.17 Z2.849 I-2.085 J-1.943
X74.084 Y302.374 Z2.645 I2.68 J-0.969
X73.365 Y308.028 Z2.332 I-0.36 J2.827
X71.219 Y306.56 Z2.238 I0.36 J-2.827
X73.658 Y302.352 Z2.035 I2.505 J-1.359
X73.791 Y308.05 Z1.722 I0.067 J2.849
X71.451 Y306.919 Z1.628 I-0.067 J-2.849
X73.232 Y302.394 Z1.424 I2.274 J-1.718
X74.216 Y308.008 Z1.112 I0.492 J2.807
X71.733 Y307.24 Z1.017 I-0.492 J-2.807
X72.818 Y302.499 Z0.814 I1.991 J-2.039
X74.631 Y307.903 Z0.501 I0.906 J2.702
X72.06 Y307.515 Z0.407 I-0.906 J-2.702
X75.389 Y302.888 Z0.094 I1.664 J-2.314
X76.574 Y305.201 Z0 I-1.664 J2.314
X74.374 Y307.976 I-2.85
X71.097 Y306.305 I-0.65 J-2.775
X72.198 Y302.794 I2.628 J-1.104
X76.574 Y305.201 I1.527 J2.407
G1 X76.578 Y305.423 F850
X76.73 Y306.296
G3 X76.569 Y307.867 I-1.771 J0.613
X75.264 Y308.751 I-1.326 J-0.552
G1 X74.932
X73.726
G3 X70.115 Y303.993 I0.006 J-3.753
X71.709 Y301.842 I3.623 J1.019
X73.724 Y301.251 I2.038 J3.215
G1 X74.529
G3 X77.504 Y302.905 I-0.048 J3.589
X78.495 Y304.975 I-5.846 J4.073
X78.485 Y307.8 I-4.717 J1.396
X77.155 Y308.75 I-1.337 J-0.467
G1 X75.264
G3 X75.036 Y308.697 I0.019 J-0.6 F250
X74.687 Y308.219 I0.247 J-0.547 F850
G1 X73.955 Y301.92
G3 X74.302 Y301.304 I0.596 J-0.069
X74.53 Y301.251 I0.249 J0.546 F250
X76.914 Y301.254 I0.9 J245.159 F850
X78.531 Y301.994 I-0.494 J3.217
X80.369 Y304.921 I-3.451 J4.207
X80.376 Y307.783 I-5.005 J1.443
X79.844 Y308.497 I-1.395 J-0.484
G1 X79.595 Y308.636
X79.323 Y308.722
X79.039 Y308.751
X78.556
X78.153 Y308.749
X77.155
G3 X76.927 Y308.695 I0.021 J-0.6 F250
X76.577 Y308.187 I0.249 J-0.546 F850
G1 X76.186 Y301.886
G3 X76.536 Y301.303 I0.599 J-0.037
X76.764 Y301.249 I0.249 J0.546 F250
G1 X78.153 F850
X78.556 Y301.251
G3 X80.376 Y301.945 I-0.097 J2.992
X82.074 Y304.327 I-3.298 J4.147
X82.364 Y307.393 I-5.35 J2.053
X81.957 Y308.296 I-1.914 J-0.32
X80.923 Y308.749 I-1.04 J-0.967
G1 X80.568
X80.166 Y308.751
X79.039
G3 X78.811 Y308.698 I0.021 J-0.6 F250
X78.461 Y308.198 I0.249 J-0.546 F850
G1 X77.978 Y301.897
G3 X78.328 Y301.305 I0.598 J-0.046
X78.556 Y301.251 I0.249 J0.546 F250
G1 X80.166 F850
G3 X82.24 Y301.921 I0.195 J2.945
X83.748 Y303.828 I-3.013 J3.932
X84.257 Y307.359 I-5.228 J2.555
X83.848 Y308.288 I-2.003 J-0.328
X82.815 Y308.747 I-1.047 J-0.963
G1 X82.581 Y308.748
X80.923
G3 X80.696 Y308.695 I0.021 J-0.6 F250
X80.345 Y308.19 I0.249 J-0.546 F850
G1 X79.913 Y301.89
G3 X80.259 Y301.304 I0.599 J-0.041
X80.487 Y301.249 I0.252 J0.544 F250
G1 X81.776 Y301.248 F850
X82.4
G3 X84.145 Y301.931 I-0.15 J2.955
X85.842 Y304.309 I-3.287 J4.14
X86.135 Y307.383 I-5.364 J2.063
X85.725 Y308.296 I-1.942 J-0.323
X84.691 Y308.749 I-1.04 J-0.967
G2 X82.815 Y308.747 I-1.785 J576.614
G3 X82.587 Y308.695 I0.017 J-0.599 F250
X82.234 Y308.186 I0.245 J-0.547 F850
G1 X81.823 Y301.887
G3 X82.172 Y301.302 I0.599 J-0.039
X82.4 Y301.248 I0.249 J0.546 F250
X84.455 Y301.259 I0.686 J66.215 F850
X86.297 Y302.152 I-0.436 J3.242
X87.878 Y304.787 I-3.693 J4.01
X87.94 Y307.701 I-5.096 J1.565
X87.392 Y308.49 I-1.452 J-0.425
G1 X87.139 Y308.632
X86.864 Y308.721
X86.576 Y308.751
X86.205
X85.4 Y308.749
X84.691
G3 X84.463 Y308.695 I0.021 J-0.6 F250
X84.113 Y308.197 I0.249 J-0.546 F850
G1 X83.615 Y301.896
G3 X83.964 Y301.303 I0.598 J-0.047
X84.192 Y301.249 I0.249 J0.546 F250
G1 X85.802 Y301.25 F850
G3 X87.945 Y301.953 I0.21 J2.977
X89.63 Y304.356 I-3.334 J4.13
X89.898 Y307.421 I-5.363 J2.012
X89.491 Y308.303 I-1.865 J-0.325
X88.463 Y308.751 I-1.032 J-0.967
G1 X86.576
G3 X86.348 Y308.697 I0.021 J-0.6 F250
X85.997 Y308.187 I0.249 J-0.546 F850
G1 X85.627 Y301.886
G3 X85.977 Y301.305 I0.599 J-0.035
X86.205 Y301.251 I0.249 J0.546 F250
G1 X88.036 F850
G3 X89.807 Y301.935 I-0.123 J2.949
X91.306 Y303.858 I-3.054 J3.928
X91.792 Y307.387 I-5.239 J2.52
X91.382 Y308.297 I-1.955 J-0.333
X90.347 Y308.75 I-1.04 J-0.968
G1 X88.463 Y308.751
G3 X88.235 Y308.697 I0.021 J-0.6 F250
X87.885 Y308.191 I0.248 J-0.546 F850
G1 X87.459 Y301.891
G3 X87.809 Y301.304 I0.599 J-0.04
X88.036 Y301.251 I0.249 J0.546 F250
G1 X89.95 Y301.25 F850
G3 X91.691 Y301.933 I-0.154 J2.952
X93.38 Y304.312 I-3.19 J4.055
X93.676 Y307.386 I-5.265 J2.058
X93.267 Y308.297 I-1.922 J-0.314
X92.233 Y308.75 I-1.04 J-0.967
G1 X90.347
G3 X90.12 Y308.696 I0.021 J-0.6 F250
X89.77 Y308.188 I0.249 J-0.546 F850
G1 X89.372 Y301.887
G3 X89.722 Y301.304 I0.599 J-0.038
X89.95 Y301.25 I0.249 J0.546 F250
G1 X91.841 F850
G3 X93.576 Y301.933 I-0.159 J2.952
X95.266 Y304.311 I-3.19 J4.055
X95.561 Y307.386 I-5.266 J2.058
X95.153 Y308.297 I-1.922 J-0.315
X94.118 Y308.75 I-1.04 J-0.967
G1 X92.233
G3 X92.005 Y308.696 I0.021 J-0.6 F250
X91.655 Y308.188 I0.249 J-0.546 F850
G1 X91.263 Y301.887
G3 X91.613 Y301.304 I0.599 J-0.037
X91.841 Y301.25 I0.249 J0.546 F250
G1 X93.673 F850
G3 X95.463 Y301.935 I-0.102 J2.949
X97.156 Y304.31 I-3.285 J4.132
X97.448 Y307.386 I-5.364 J2.061
X97.038 Y308.297 I-1.937 J-0.323
X96.004 Y308.75 I-1.04 J-0.967
G1 X94.118
G3 X93.89 Y308.696 I0.021 J-0.6 F250
X93.541 Y308.193 I0.249 J-0.546 F850
G1 X93.095 Y301.892
G3 X93.445 Y301.304 I0.599 J-0.042
X93.673 Y301.25 I0.249 J0.546 F250
G1 X95.586 F850
G3 X97.348 Y301.934 I-0.131 J2.95
X99.036 Y304.312 I-3.187 J4.052
X99.332 Y307.386 I-5.265 J2.058
X98.924 Y308.297 I-1.922 J-0.314
X97.889 Y308.75 I-1.04 J-0.967
G1 X96.004
G3 X95.776 Y308.696 I0.021 J-0.6 F250
X95.426 Y308.19 I0.249 J-0.546 F850
G1 X95.008 Y301.889
G3 X95.358 Y301.304 I0.599 J-0.04
X95.586 Y301.25 I0.249 J0.546 F250
G1 X97.477 F850
G3 X99.233 Y301.933 I-0.137 J2.95
X100.927 Y304.31 I-3.287 J4.134
X101.219 Y307.386 I-5.365 J2.061
X100.809 Y308.297 I-1.937 J-0.323
X99.775 Y308.75 I-1.04 J-0.967
G1 X97.889
G3 X97.661 Y308.696 I0.021 J-0.6 F250
