%
(1001)
(Dust Shoe acrylic top)
(T1  D=6 CR=0 - ZMIN=0 - flat end mill)
G90 G94
G17
G21

(2D Contour1)
M9
T1 M6
S7500 M3
G54
M9
G0 X61.961 Y287.348
Z33
Z23
G1 Z22 F300
Z21.1 F30
X61.96 Y287.341 Z21.006
X61.958 Y287.319 Z20.915
X61.953 Y287.283 Z20.828
X61.946 Y287.234 Z20.747
X61.938 Y287.174 Z20.676
X61.928 Y287.103 Z20.615
X61.918 Y287.023 Z20.565
X61.906 Y286.937 Z20.529
X61.894 Y286.846 Z20.507
X61.881 Y286.753 Z20.5
X61.801 Y286.159 F300
G3 X62.315 Y285.484 I0.595 J-0.08
G2 X99.949 Y263.75 Z18.943 I-7.671 J-56.734
G1 X157.894 Z16.92
G2 X192.894 Y228.75 Z15 J-35
X157.894 Y193.75 I-35 F850
G1 X99.949
G2 X1.615 Y207.174 I-45.305 J35
X1.394 Y208.305 I2.779 J1.131
G1 Y249.195
G2 X1.615 Y250.326 I3
X99.949 Y263.75 I53.029 J-21.576
G1 X157.894
G2 X192.894 Y228.75 J-35
X157.894 Y193.75 Z13.08 I-35 F300
G1 X126.963 Z12
X99.949 F850
G2 X1.615 Y207.174 I-45.305 J35
X1.394 Y208.305 I2.779 J1.131
G1 Y249.195
G2 X1.615 Y250.326 I3
X99.949 Y263.75 I53.029 J-21.576
G1 X157.894
G2 Y193.75 J-35
G1 X126.963
X99.949 Z11.057 F300
G2 X48.035 Y171.883 Z9 I-45.305 J35
X1.615 Y207.174 I6.61 J56.867 F850
X1.394 Y208.305 I2.779 J1.131
G1 Y249.195
G2 X1.615 Y250.326 I3
X99.949 Y263.75 I53.029 J-21.576
G1 X157.894
G2 Y193.75 J-35
G1 X99.949
G2 X48.035 Y171.883 I-45.305 J35
X1.615 Y207.174 Z6.863 I6.61 J56.867 F300
X1.394 Y208.305 Z6.823 I2.779 J1.131
G1 Y231.873 Z6
Y249.195 F850
G2 X1.615 Y250.326 I3
X99.949 Y263.75 I53.029 J-21.576
G1 X157.894
G2 Y193.75 J-35
G1 X99.949
G2 X1.615 Y207.174 I-45.305 J35
X1.394 Y208.305 I2.779 J1.131
G1 Y231.873
Y249.195 Z5.395 F300
G2 X1.615 Y250.326 Z5.355 I3
X54.265 Y285.999 Z3 I53.029 J-21.576
X99.949 Y263.75 I0.379 J-57.249 F850
G1 X157.894
G2 Y193.75 J-35
G1 X99.949
G2 X1.615 Y207.174 I-45.305 J35
X1.394 Y208.305 I2.779 J1.131
G1 Y249.195
G2 X1.615 Y250.326 I3
X54.265 Y285.999 I53.029 J-21.576
X99.949 Y263.75 Z1.161 I0.379 J-57.249 F300
G1 X123.173 Z0.35
Z1.5
X133.173
Z0.001 F30
X133.209 Z0 F300
X157.894 F850
G2 X178.854 Y256.78 J-35
G1 Z1.5
G2 X185.925 Y249.709 I-20.96 J-28.03
G1 Z0 F30
G2 Y207.791 I-28.031 J-20.959 F850
G1 Z1.5
G2 X178.854 Y200.72 I-28.031 J20.959
G1 Z0 F30
G2 X157.894 Y193.75 I-20.96 J28.03 F850
G1 X133.173
Z1.5
X123.173
Z0 F30
X99.949 F850
G2 X81.904 Y178.407 I-45.305 J35
G1 Z1.5
G2 X72.729 Y174.431 I-27.26 J50.343
G1 Z0 F30
G2 X23.95 Y180.424 I-18.084 J54.319 F850
G1 Z1.5
G2 X16.009 Y186.502 I30.694 J48.326
G1 Z0 F30
G2 X1.615 Y207.174 I38.635 J42.248 F850
X1.394 Y208.305 I2.779 J1.131
G1 Y249.195
G2 X1.615 Y250.326 I3
X16.009 Y270.998 I53.029 J-21.576
G1 Z1.5
G2 X23.95 Y277.076 I38.635 J-42.248
G1 Z0 F30
G2 X72.729 Y283.069 I30.694 J-48.326 F850
G1 Z1.5
G2 X81.904 Y279.093 I-18.084 J-54.319
G1 Z0 F30
G2 X99.949 Y263.75 I-27.26 J-50.343 F850
G1 X123.173
Z1.5
X133.173
Z0 F30
X133.209 F850
G3 X133.809 Y264.35 J0.6 F300
G1 Y264.95
G19 G3 Y265.55 Z0.6 K0.6
G0 Z23
X122.189 Y316.89
G1 Z22 F300
Z21.1 F30
G3 Y317.49 Z20.5 J0.6
G1 Y318.09 F300
G17 G3 X121.589 Y318.69 I-0.6
G1 X100.555 Z19.765
G2 X-1.713 Y347.967 Z15 I-45.305 J35
X100.555 Y388.69 I56.963 J5.723 F850
G1 X153.5
G2 Y318.69 J-35
G1 X100.555
G2 X-1.713 Y347.967 I-45.305 J35
X45.545 Y410.111 Z12 I56.963 J5.723 F300
X100.555 Y388.69 I9.705 J-56.421 F850
G1 X153.5
G2 Y318.69 J-35
G1 X100.555
G2 X9.945 Y388.69 I-45.305 J35
X45.545 Y410.111 I45.305 J-35
X100.555 Y388.69 Z9.834 I9.705 J-56.421 F300
G1 X124.441 Z9
X153.5 F850
G2 Y318.69 J-35
G1 X100.555
G2 X9.945 Y388.69 I-45.305 J35
X100.555 I45.305 J-35
G1 X124.441
X153.5 Z7.985 F300
G2 X188.5 Y353.69 Z6.065 J-35
X188.45 Y351.819 Z6 I-35
X153.5 Y318.69 I-34.95 J1.871 F850
G1 X100.555
G2 X9.945 Y388.69 I-45.305 J35
X100.555 I45.305 J-35
G1 X153.5
G2 X188.45 Y351.819 J-35
X153.5 Y318.69 Z4.145 I-34.95 J1.871 F300
G1 X120.697 Z3
X100.555 F850
G2 X9.945 Y388.69 I-45.305 J35
X100.555 I45.305 J-35
G1 X153.5
G2 Y318.69 J-35
G1 X120.697
X100.555 Z2.297 F300
G2 X83.426 Y303.853 Z1.5 I-45.305 J35
X74.898 Y299.917 I-28.176 J49.837
G1 Z1.172 F30
G2 X41.879 Y298.023 Z0 I-19.648 J53.773 F300
X28.861 Y302.885 I13.371 J55.667 F850
G1 Z1.5
G2 X20.423 Y308.252 I26.389 J50.805
G1 Z0 F30
G2 X-1.781 Y348.69 I34.827 J45.438 F850
G1 Z1.5
G2 Y358.69 I57.031 J5
G1 Z0 F30
G2 X20.422 Y399.128 I57.031 J-5 F850
G1 Z1.5
G2 X28.86 Y404.495 I34.828 J-45.438
G1 Z0 F30
G2 X74.898 Y407.463 I26.39 J-50.805 F850
G1 Z1.5
G2 X83.955 Y403.224 I-19.648 J-53.773
G1 Z0 F30
G2 X100.555 Y388.69 I-28.705 J-49.534 F850
G1 X121.279
Z1.5
X131.279
Z0 F30
X153.5 F850
G2 X174.459 Y381.72 J-35
G1 Z1.5
G2 X181.53 Y374.649 I-20.959 J-28.03
G1 Z0 F30
G2 Y332.73 I-28.03 J-20.959 F850
G1 Z1.5
G2 X174.459 Y325.659 I-28.03 J20.96
G1 Z0 F30
G2 X153.5 Y318.69 I-20.959 J28.031 F850
G1 X131.279
Z1.5
X121.279
Z0 F30
X100.555 F850
G2 X83.955 Y304.156 I-45.305 J35
G1 Z1.5
G2 X74.898 Y299.917 I-28.705 J49.534
G1 Z0 F30
G2 X41.879 Y298.023 I-19.648 J53.773 F850
G3 X41.155 Y297.58 I-0.14 J-0.583 F300
G1 X41.015 Y296.997
X40.993 Y296.905 Z0.007
X40.972 Y296.816 Z0.029
X40.952 Y296.732 Z0.065
X40.933 Y296.654 Z0.115
X40.916 Y296.584 Z0.176
X40.902 Y296.525 Z0.247
X40.89 Y296.477 Z0.328
X40.882 Y296.442 Z0.415
X40.877 Y296.42 Z0.506
X40.875 Y296.413 Z0.6
G0 Z23
X58.848 Y163.153
G1 Z22 F300
Z21.1 F30
Y163.146 Z21.006
X58.846 Y163.124 Z20.915
X58.843 Y163.088 Z20.828
X58.839 Y163.039 Z20.747
X58.834 Y162.978 Z20.676
X58.828 Y162.907 Z20.615
X58.822 Y162.827 Z20.565
X58.815 Y162.74 Z20.529
X58.807 Y162.649 Z20.507
X58.799 Y162.555 Z20.5
X58.751 Y161.957 F300
G3 X59.3 Y161.31 I0.598 J-0.049
G2 X99.949 Y139.25 Z18.837 I-4.656 J-57.06
G1 X157.894 Z16.814
G2 X192.763 Y107.279 Z15 J-35
X157.894 Y69.25 I-34.869 J-3.029 F850
G1 X99.949
G2 X1.615 Y82.674 I-45.305 J35
X1.394 Y83.805 I2.779 J1.131
G1 Y124.695
G2 X1.615 Y125.826 I3
X99.949 Y139.25 I53.029 J-21.576
G1 X157.894
G2 X192.763 Y107.279 J-35
X192.894 Y104.25 Z14.894 I-34.869 J-3.029 F300
X157.894 Y69.25 Z12.974 I-35
G1 X129.996 Z12
X99.949 F850
G2 X1.615 Y82.674 I-45.305 J35
X1.394 Y83.805 I2.779 J1.131
G1 Y124.695
G2 X1.615 Y125.826 I3
X99.949 Y139.25 I53.029 J-21.576
G1 X157.894
G2 Y69.25 J-35
G1 X129.996
X99.949 Z10.951 F300
G2 X51.055 Y47.113 Z9 I-45.305 J35
X1.615 Y82.674 I3.589 J57.137 F850
X1.394 Y83.805 I2.779 J1.131
G1 Y124.695
G2 X1.615 Y125.826 I3
X99.949 Y139.25 I53.029 J-21.576
G1 X157.894
G2 Y69.25 J-35
G1 X99.949
G2 X51.055 Y47.113 I-45.305 J35
X1.615 Y82.674 Z6.758 I3.589 J57.137 F300
X1.394 Y83.805 Z6.717 I2.779 J1.131
G1 Y104.34 Z6
Y124.695 F850
G2 X1.615 Y125.826 I3
X99.949 Y139.25 I53.029 J-21.576
G1 X157.894
G2 Y69.25 J-35
G1 X99.949
G2 X1.615 Y82.674 I-45.305 J35
X1.394 Y83.805 I2.779 J1.131
G1 Y104.34
Y124.695 Z5.289 F300
G2 X1.615 Y125.826 Z5.249 I3
X51.234 Y161.398 Z3 I53.029 J-21.576
X99.949 Y139.25 I3.41 J-57.148 F850
G1 X157.894
G2 Y69.25 J-35
G1 X99.949
G2 X1.615 Y82.674 I-45.305 J35
X1.394 Y83.805 I2.779 J1.131
G1 Y124.695
G2 X1.615 Y125.826 I3
X51.234 Y161.398 I53.029 J-21.576
X99.949 Y139.25 Z1.056 I3.41 J-57.148 F300
G1 X123.173 Z0.245
Z1.5
X130.176
X133.173 F850
Z0 F30
X157.894 F850
G2 X178.854 Y132.28 J-35
G1 Z1.5
G2 X185.925 Y125.209 I-20.96 J-28.03
G1 Z0 F30
G2 Y83.291 I-28.031 J-20.959 F850
G1 Z1.5
G2 X178.854 Y76.22 I-28.031 J20.959
G1 Z0 F30
G2 X157.894 Y69.25 I-20.96 J28.03 F850
G1 X133.173
Z1.5
X123.173
Z0 F30
X99.949 F850
G2 X81.904 Y53.907 I-45.305 J35
G1 Z1.5
G2 X72.729 Y49.931 I-27.26 J50.343
G1 Z0 F30
G2 X23.95 Y55.924 I-18.084 J54.319 F850
G1 Z1.5
G2 X16.009 Y62.002 I30.694 J48.326
G1 Z0 F30
G2 X1.615 Y82.674 I38.635 J42.248 F850
X1.394 Y83.805 I2.779 J1.131
G1 Y124.695
G2 X1.615 Y125.826 I3
X16.009 Y146.498 I53.029 J-21.576
G1 Z1.5
G2 X23.95 Y152.576 I38.635 J-42.248
G1 Z0 F30
G2 X72.729 Y158.569 I30.694 J-48.326 F850
G1 Z1.5
G2 X81.904 Y154.593 I-18.084 J-54.319
G1 Z0 F30
G2 X99.949 Y139.25 I-27.26 J-50.343 F850
G1 X123.173
Z1.5
X130.176
G3 X130.776 Y139.85 J0.6 F300
G1 Y141.05
G0 Z33
M9
M30
%
