%
(1001)
(Dust Shoe acrylic top)
(T1  D=3 CR=0 - ZMIN=0 - flat end mill)
G90 G94
G17
G21

(2D Contour4 3)
M9
T1 M6
S5000 M3
G54
M9
G0 X13.031 Y89.591
Z16.2
Z6.2
G1 Z2.2 F850
Z0.3 F283.3
X13.029 Y89.583 Z0.233
X13.023 Y89.562 Z0.17
X13.014 Y89.527 Z0.113
X13.002 Y89.481 Z0.065
X12.987 Y89.426 Z0.03
X12.971 Y89.365 Z0.008
X12.954 Y89.301 Z0
X12.877 Y89.011 F850
G3 X13.09 Y88.644 I0.29 J-0.077
G2 X22.175 Y77.5 I-2.536 J-11.342
G1 Y72.024
G3 X41.82 Y53.5 I19.08 J0.556
G1 X49.466
Z1.2
X55.466
Z0 F283.3
G2 X114.916 Y7.099 I3.781 J-56.441 F850
G3 X115.033 Y2.992 I75.033 J0.082
G1 Z1.2
G2 X115.032 Y-3.008 I-50.336 J-2.995
G1 Z0 F283.3
G2 X58.725 Y-53.499 I-55.022 J4.718 F850
G1 X52.745 Y-53.5
Z1.2
X46.745
Z0 F283.3
G3 X29.665 Y-57.462 I-3.624 J-23.175 F850
X22.175 Y-72.024 I10.622 J-14.672
G1 Y-77.501
G2 X10.112 Y-89 I-11.792 J0.293
G1 X0
G2 X-1.5 Y-87.5 J1.5
G1 Y87.5
G2 X0 Y89 I1.5
G1 X10.112
G2 X13.09 Y88.644 I-0.016 J-12.75
G3 X13.457 Y88.857 I0.077 J0.29
G1 X13.534 Y89.147
X13.551 Y89.211 Z0.008
X13.567 Y89.273 Z0.03
X13.582 Y89.328 Z0.065
X13.594 Y89.373 Z0.113
X13.603 Y89.408 Z0.17
X13.609 Y89.429 Z0.233
X13.611 Y89.437 Z0.3
G0 Z16.2

(2D Contour4 4)
M9
X72.587 Y22.563
Z16.2
Z6.2
G1 Z2.2 F850
Z0.3 F283.3
X72.588 Y22.57 Z0.233
Y22.592 Z0.17
X72.59 Y22.628 Z0.113
X72.592 Y22.676 Z0.065
X72.594 Y22.732 Z0.03
X72.596 Y22.796 Z0.008
X72.599 Y22.863 Z0
X72.611 Y23.162 F850
G3 X72.322 Y23.474 I-0.3 J0.012
X65.45 Y22.818 I-1.062 J-25.213
G1 X65.451 Y22.817 Z1.2
G3 X59.797 Y20.804 I5.472 J-24.318
G1 Z0 F283.3
G3 X59.043 Y-20.376 I9.617 J-20.773 F850
G1 X59.03 Y-20.402 Z1.2
G3 X64.609 Y-22.609 I11.751 J21.544
G1 Z0 F283.3
G3 X96.214 Y-3.034 I6.92 J24.129 F850
G1 X96.069 Y-3.008 Z1.2
G3 X96.07 Y2.992 I-21.448 J3.006
G1 Z0 F283.3
G3 X72.322 Y23.388 I-23.856 J-3.753 F850
G1 X72.272 Y23.397
X72.218 Y23.394
X72.164 Y23.377
X72.112 Y23.347
X72.068 Y23.304
X72.033 Y23.249
X72.011 Y23.186
X71.999 Y22.886
X71.997 Y22.819 Z0.008
X71.994 Y22.756 Z0.03
X71.992 Y22.699 Z0.065
X71.99 Y22.651 Z0.113
X71.989 Y22.616 Z0.17
X71.988 Y22.594 Z0.233
Y22.586 Z0.3
G0 Z16.2
M9
M30
%
