%
(1001)
(Dust Shoe acrylic top)
(T1  D=6 CR=0 - ZMIN=0 - flat end mill)
G90 G94
G17
G21

(2D Contour1)
M9
T1 M6
S7000 M3
G54
M9
G0 X87.568 Y179.727
Z33
Z23
G1 Z21.1 F300
X87.564 Y179.733 Z21.006 F30
X87.552 Y179.751 Z20.915
X87.531 Y179.781 Z20.828
X87.503 Y179.821 Z20.747
X87.469 Y179.872 Z20.676
X87.428 Y179.931 Z20.615
X87.383 Y179.997 Z20.565
X87.334 Y180.069 Z20.529
X87.282 Y180.144 Z20.507
X87.229 Y180.221 Z20.5
X86.889 Y180.716 F300
G2 X87.044 Y181.55 I0.495 J0.34
G3 X93.591 Y186.789 Z20.207 I-32.4 J47.2
G2 X111.959 Y194 Z19.502 I18.368 J-19.789
G1 X157.644 Z17.906
G3 X192.394 Y228.75 Z16 J34.75
X157.644 Y263.5 I-34.75 F850
G1 X111.959
G2 X93.591 Y270.711 J27
G3 X1.615 Y250.326 I-38.947 J-41.961
X1.394 Y249.195 I2.779 J-1.131
G1 Y208.305
G3 X1.615 Y207.174 I3
X93.591 Y186.789 I53.029 J21.576
G2 X111.959 Y194 I18.368 J-19.789
G1 X157.644
G3 X192.394 Y228.75 J34.75
X157.644 Y263.5 Z14.094 I-34.75 F300
G1 X154.957 Z14
X111.959 F850
G2 X93.591 Y270.711 J27
G3 X1.615 Y250.326 I-38.947 J-41.961
X1.394 Y249.195 I2.779 J-1.131
G1 Y208.305
G3 X1.615 Y207.174 I3
X93.591 Y186.789 I53.029 J21.576
G2 X111.959 Y194 I18.368 J-19.789
G1 X157.644
G3 Y263.5 J34.75
G1 X154.957
X111.959 Z12.498 F300
G2 X98.34 Y267.187 Z12 J27
X93.591 Y270.711 I13.619 J23.313 F850
G3 X1.615 Y250.326 I-38.947 J-41.961
X1.394 Y249.195 I2.779 J-1.131
G1 Y208.305
G3 X1.615 Y207.174 I3
X93.591 Y186.789 I53.029 J21.576
G2 X111.959 Y194 I18.368 J-19.789
G1 X157.644
G3 Y263.5 J34.75
G1 X111.959
G2 X98.34 Y267.187 J27
X93.591 Y270.711 Z11.793 I13.619 J23.313 F300
G3 X46.161 Y285.368 Z10 I-38.947 J-41.961
X1.615 Y250.326 I8.483 J-56.618 F850
X1.394 Y249.195 I2.779 J-1.131
G1 Y208.305
G3 X1.615 Y207.174 I3
X93.591 Y186.789 I53.029 J21.576
G2 X111.959 Y194 I18.368 J-19.789
G1 X157.644
G3 Y263.5 J34.75
G1 X111.959
G2 X93.591 Y270.711 J27
G3 X46.161 Y285.368 I-38.947 J-41.961
X2.409 Y252.182 Z8 I8.483 J-56.618 F300
X1.615 Y250.326 I52.235 J-23.432 F850
X1.394 Y249.195 I2.779 J-1.131
G1 Y208.305
G3 X1.615 Y207.174 I3
X93.591 Y186.789 I53.029 J21.576
G2 X111.959 Y194 I18.368 J-19.789
G1 X157.644
G3 Y263.5 J34.75
G1 X111.959
G2 X93.591 Y270.711 J27
G3 X2.409 Y252.182 I-38.947 J-41.961
X1.615 Y250.326 Z7.929 I52.235 J-23.432 F300
X1.394 Y249.195 Z7.889 I2.779 J-1.131
G1 Y208.305 Z6.461
G3 X1.615 Y207.174 Z6.421 I3
X7.291 Y196.575 Z6 I53.029 J21.576
X93.591 Y186.789 I47.354 J32.175 F850
G2 X111.959 Y194 I18.368 J-19.789
G1 X157.644
G3 Y263.5 J34.75
G1 X111.959
G2 X93.591 Y270.711 J27
G3 X1.615 Y250.326 I-38.947 J-41.961
X1.394 Y249.195 I2.779 J-1.131
G1 Y208.305
G3 X1.615 Y207.174 I3
X7.291 Y196.575 I53.029 J21.576
X56.155 Y171.52 Z4 I47.354 J32.175 F300
X93.591 Y186.789 I-1.511 J57.23 F850
G2 X111.959 Y194 I18.368 J-19.789
G1 X157.644
G3 Y263.5 J34.75
G1 X111.959
G2 X93.591 Y270.711 J27
G3 X1.615 Y250.326 I-38.947 J-41.961
X1.394 Y249.195 I2.779 J-1.131
G1 Y208.305
G3 X1.615 Y207.174 I3
X56.155 Y171.52 I53.029 J21.576
X93.591 Y186.789 Z2.557 I-1.511 J57.23 F300
G2 X107.727 Y193.666 Z2 I18.368 J-19.789
X111.959 Y194 I4.232 J-26.666 F850
G1 X157.644
G3 Y263.5 J34.75
G1 X111.959
G2 X93.591 Y270.711 J27
G3 X1.615 Y250.326 I-38.947 J-41.961
X1.394 Y249.195 I2.779 J-1.131
G1 Y208.305
G3 X1.615 Y207.174 I3
X93.591 Y186.789 I53.029 J21.576
G2 X107.727 Y193.666 I18.368 J-19.789
X111.959 Y194 Z1.852 I4.232 J-26.666 F300
G1 X157.644 Z0.256
G3 X164.928 Y194.772 Z0 J34.75
X178.425 Y200.898 I-7.284 J33.978 F850
G1 Z1.5
G3 X185.496 Y207.969 I-20.781 J27.852
G1 Z0 F30
G3 Y249.531 I-27.852 J20.781 F850
G1 Z1.5
G3 X178.425 Y256.602 I-27.852 J-20.781
G1 Z0 F30
G3 X157.644 Y263.5 I-20.781 J-27.852 F850
G1 X111.959
G2 X93.591 Y270.711 J27
G3 X74.408 Y282.48 I-38.947 J-41.961
G1 Z1.5
G3 X64.757 Y285.1 I-19.764 J-53.73
G1 Z0 F30
G3 X21.669 Y275.55 I-10.113 J-56.35 F850
G1 Z1.5
G3 X14.029 Y269.098 I32.975 J-46.8
G1 Z0 F30
G3 X1.615 Y250.326 I40.615 J-40.348 F850
X1.394 Y249.195 I2.779 J-1.131
G1 Y208.305
G3 X1.615 Y207.174 I3
X14.029 Y188.402 I53.029 J21.576
G1 Z1.5
G3 X21.669 Y181.95 I40.615 J40.348
G1 Z0 F30
G3 X64.757 Y172.4 I32.975 J46.8 F850
G1 Z1.5
G3 X74.408 Y175.02 I-10.113 J56.35
G1 Z0 F30
G3 X93.591 Y186.789 I-19.764 J53.73 F850
G2 X111.959 Y194 I18.368 J-19.789
G1 X157.644
G3 X178.425 Y200.898 J34.75
G1 Z1.5
G3 X185.496 Y207.969 I-20.781 J27.852
G1 Z0 F30
G3 Y249.531 I-27.852 J20.781 F850
G1 Z1.5
G3 X178.425 Y256.602 I-27.852 J-20.781
G1 Z0 F30
G3 X157.644 Y263.5 I-20.781 J-27.852 F850
G1 X111.959
G2 X93.591 Y270.711 J27
G3 X74.408 Y282.48 I-38.947 J-41.961
G1 Z1.5
G3 X64.757 Y285.1 I-19.764 J-53.73
G1 Z0 F30
G3 X21.669 Y275.55 I-10.113 J-56.35 F850
G1 Z1.5
G3 X14.029 Y269.098 I32.975 J-46.8
G1 Z0 F30
G3 X1.615 Y250.326 I40.615 J-40.348 F850
X1.394 Y249.195 I2.779 J-1.131
G1 Y208.305
G3 X1.615 Y207.174 I3
X14.029 Y188.402 I53.029 J21.576
G1 Z1.5
G3 X21.669 Y181.95 I40.615 J40.348
G1 Z0 F30
G3 X64.757 Y172.4 I32.975 J46.8 F850
G1 Z1.5
G3 X74.408 Y175.02 I-10.113 J56.35
G1 Z0 F30
G3 X93.591 Y186.789 I-19.764 J53.73 F850
G2 X111.959 Y194 I18.368 J-19.789
G1 X157.644
G3 X164.928 Y194.772 J34.75
G2 X165.64 Y194.311 I0.126 J-0.587 F300
G1 X165.766 Y193.724
X165.786 Y193.633 Z0.007
X165.805 Y193.543 Z0.029
X165.823 Y193.458 Z0.065
X165.84 Y193.38 Z0.115
X165.855 Y193.31 Z0.176
X165.868 Y193.25 Z0.247
X165.878 Y193.202 Z0.328
X165.886 Y193.166 Z0.415
X165.89 Y193.145 Z0.506
X165.892 Y193.138 Z0.6
G0 Z23
X90.096 Y57.023
G1 Z21.1 F300
X90.092 Y57.029 Z21.006 F30
X90.079 Y57.046 Z20.915
X90.057 Y57.075 Z20.828
X90.027 Y57.114 Z20.747
X89.989 Y57.162 Z20.676
X89.946 Y57.219 Z20.615
X89.897 Y57.283 Z20.565
X89.844 Y57.352 Z20.529
X89.788 Y57.425 Z20.507
X89.731 Y57.499 Z20.5
X89.366 Y57.975 F300
G2 X89.477 Y58.816 I0.476 J0.365
G3 X93.591 Y62.289 Z20.312 I-34.833 J45.434
G2 X111.959 Y69.5 Z19.607 I18.368 J-19.789
G1 X157.644 Z18.011
G3 X192.394 Y104.25 Z16.105 J34.75
X192.264 Y107.253 Z16 I-34.75
X157.644 Y139 I-34.62 J-3.003 F850
G1 X111.959
G2 X93.591 Y146.211 J27
G3 X1.615 Y125.826 I-38.947 J-41.961
X1.394 Y124.695 I2.779 J-1.131
G1 Y83.805
G3 X1.615 Y82.674 I3
X93.591 Y62.289 I53.029 J21.576
G2 X111.959 Y69.5 I18.368 J-19.789
G1 X157.644
G3 X192.264 Y107.253 J34.75
X157.644 Y139 Z14.199 I-34.62 J-3.003 F300
G1 X151.95 Z14
X111.959 F850
G2 X93.591 Y146.211 J27
G3 X1.615 Y125.826 I-38.947 J-41.961
X1.394 Y124.695 I2.779 J-1.131
G1 Y83.805
G3 X1.615 Y82.674 I3
X93.591 Y62.289 I53.029 J21.576
G2 X111.959 Y69.5 I18.368 J-19.789
G1 X157.644
G3 Y139 J34.75
G1 X151.95
X111.959 Z12.603 F300
G2 X95.833 Y144.345 Z12 J27
X93.591 Y146.211 I16.126 J21.655 F850
G3 X1.615 Y125.826 I-38.947 J-41.961
X1.394 Y124.695 I2.779 J-1.131
G1 Y83.805
G3 X1.615 Y82.674 I3
X93.591 Y62.289 I53.029 J21.576
G2 X111.959 Y69.5 I18.368 J-19.789
G1 X157.644
G3 Y139 J34.75
G1 X111.959
G2 X95.833 Y144.345 J27
X93.591 Y146.211 Z11.898 I16.126 J21.655 F300
G3 X43.2 Y160.345 Z10 I-38.947 J-41.961
X1.615 Y125.826 I11.444 J-56.095 F850
X1.394 Y124.695 I2.779 J-1.131
G1 Y83.805
G3 X1.615 Y82.674 I3
X93.591 Y62.289 I53.029 J21.576
G2 X111.959 Y69.5 I18.368 J-19.789
G1 X157.644
G3 Y139 J34.75
G1 X111.959
G2 X93.591 Y146.211 J27
G3 X43.2 Y160.345 I-38.947 J-41.961
X1.615 Y125.826 Z8.034 I11.444 J-56.095 F300
X1.399 Y124.866 Z8 I2.779 J-1.131
X1.394 Y124.695 I2.995 J-0.171 F850
G1 Y83.805
G3 X1.615 Y82.674 I3
X93.591 Y62.289 I53.029 J21.576
G2 X111.959 Y69.5 I18.368 J-19.789
G1 X157.644
G3 Y139 J34.75
G1 X111.959
G2 X93.591 Y146.211 J27
G3 X1.615 Y125.826 I-38.947 J-41.961
X1.399 Y124.866 I2.779 J-1.131
X1.394 Y124.695 Z7.994 I2.995 J-0.171 F300
G1 Y83.805 Z6.566
G3 X1.615 Y82.674 Z6.526 I3
X9.045 Y69.634 Z6 I53.029 J21.576
X93.591 Y62.289 I45.599 J34.616 F850
G2 X111.959 Y69.5 I18.368 J-19.789
G1 X157.644
G3 Y139 J34.75
G1 X111.959
G2 X93.591 Y146.211 J27
G3 X1.615 Y125.826 I-38.947 J-41.961
X1.394 Y124.695 I2.779 J-1.131
G1 Y83.805
G3 X1.615 Y82.674 I3
X9.045 Y69.634 I53.029 J21.576
X59.158 Y47.178 Z4 I45.599 J34.616 F300
X93.591 Y62.289 I-4.514 J57.072 F850
G2 X111.959 Y69.5 I18.368 J-19.789
G1 X157.644
G3 Y139 J34.75
G1 X111.959
G2 X93.591 Y146.211 J27
G3 X1.615 Y125.826 I-38.947 J-41.961
X1.394 Y124.695 I2.779 J-1.131
G1 Y83.805
G3 X1.615 Y82.674 I3
X59.158 Y47.178 I53.029 J21.576
X93.591 Y62.289 Z2.662 I-4.514 J57.072 F300
G2 X110.717 Y69.471 Z2 I18.368 J-19.789
X111.959 Y69.5 I1.242 J-26.971 F850
G1 X157.644
G3 Y139 J34.75
G1 X111.959
G2 X93.591 Y146.211 J27
G3 X1.615 Y125.826 I-38.947 J-41.961
X1.394 Y124.695 I2.779 J-1.131
G1 Y83.805
G3 X1.615 Y82.674 I3
X93.591 Y62.289 I53.029 J21.576
G2 X110.717 Y69.471 I18.368 J-19.789
X111.959 Y69.5 Z1.957 I1.242 J-26.971 F300
G1 X157.644 Z0.361
G3 X167.837 Y71.029 Z0 J34.75
X178.425 Y76.398 I-10.193 J33.221 F850
G1 Z1.5
G3 X185.496 Y83.469 I-20.781 J27.852
G1 Z0 F30
G3 Y125.031 I-27.852 J20.781 F850
G1 Z1.5
G3 X178.425 Y132.102 I-27.852 J-20.781
G1 Z0 F30
G3 X157.644 Y139 I-20.781 J-27.852 F850
G1 X111.959
G2 X93.591 Y146.211 J27
G3 X74.408 Y157.98 I-38.947 J-41.961
G1 Z1.5
G3 X64.757 Y160.6 I-19.764 J-53.73
G1 Z0 F30
G3 X21.669 Y151.05 I-10.113 J-56.35 F850
G1 Z1.5
G3 X14.029 Y144.598 I32.975 J-46.8
G1 Z0 F30
G3 X1.615 Y125.826 I40.615 J-40.348 F850
X1.394 Y124.695 I2.779 J-1.131
G1 Y83.805
G3 X1.615 Y82.674 I3
X14.029 Y63.902 I53.029 J21.576
G1 Z1.5
G3 X21.67 Y57.45 I40.615 J40.348
G1 Z0 F30
G3 X64.757 Y47.9 I32.975 J46.8 F850
G1 Z1.5
G3 X74.408 Y50.52 I-10.113 J56.35
G1 Z0 F30
G3 X93.591 Y62.289 I-19.764 J53.73 F850
G2 X111.959 Y69.5 I18.368 J-19.789
G1 X157.644
G3 X178.425 Y76.398 J34.75
G1 Z1.5
G3 X185.496 Y83.469 I-20.781 J27.852
G1 Z0 F30
G3 Y125.031 I-27.852 J20.781 F850
G1 Z1.5
G3 X178.425 Y132.102 I-27.852 J-20.781
G1 Z0 F30
G3 X157.644 Y139 I-20.781 J-27.852 F850
G1 X111.959
G2 X93.591 Y146.211 J27
G3 X74.408 Y157.98 I-38.947 J-41.961
G1 Z1.5
G3 X64.757 Y160.6 I-19.764 J-53.73
G1 Z0 F30
G3 X21.669 Y151.05 I-10.113 J-56.35 F850
G1 Z1.5
G3 X14.029 Y144.598 I32.975 J-46.8
G1 Z0 F30
G3 X1.615 Y125.826 I40.615 J-40.348 F850
X1.394 Y124.695 I2.779 J-1.131
G1 Y83.805
G3 X1.615 Y82.674 I3
X14.029 Y63.902 I53.029 J21.576
G1 Z1.5
G3 X21.67 Y57.45 I40.615 J40.348
G1 Z0 F30
G3 X64.757 Y47.9 I32.975 J46.8 F850
G1 Z1.5
G3 X74.408 Y50.52 I-10.113 J56.35
G1 Z0 F30
G3 X93.591 Y62.289 I-19.764 J53.73 F850
G2 X111.959 Y69.5 I18.368 J-19.789
G1 X157.644
G3 X167.837 Y71.029 J34.75
G2 X168.587 Y70.631 I0.176 J-0.574 F300
G1 X168.763 Y70.057
X168.79 Y69.968 Z0.007
X168.817 Y69.88 Z0.029
X168.843 Y69.797 Z0.065
X168.866 Y69.72 Z0.115
X168.887 Y69.652 Z0.176
X168.905 Y69.593 Z0.247
X168.92 Y69.546 Z0.328
X168.93 Y69.512 Z0.415
X168.937 Y69.491 Z0.506
X168.939 Y69.484 Z0.6
G0 Z23
X88.117 Y402.75
G1 Z21.1 F300
X88.113 Y402.744 Z21.006 F30
X88.101 Y402.726 Z20.915
X88.081 Y402.696 Z20.828
X88.054 Y402.655 Z20.747
X88.021 Y402.603 Z20.676
X87.982 Y402.544 Z20.615
X87.938 Y402.476 Z20.565
X87.89 Y402.404 Z20.529
X87.84 Y402.327 Z20.507
X87.788 Y402.249 Z20.5
X87.459 Y401.747 F300
G2 X86.629 Y401.574 I-0.502 J0.329
G3 X-2 Y353.69 Z16.2 I-31.379 J-47.884
X-1.714 Y347.974 Z16 I57.25
X94.013 Y311.559 I56.964 J5.716 F850
G2 X112.294 Y318.69 I18.281 J-19.869
G1 X153.5
G3 Y388.69 J35
G1 X112.294
G2 X94.013 Y395.82 I-0.001 J27
G3 X-2 Y353.69 I-38.763 J-42.13
X-1.714 Y347.974 I57.25
X29.302 Y302.658 Z14 I56.964 J5.716 F300
X94.013 Y311.559 I25.948 J51.032 F850
G2 X112.294 Y318.69 I18.281 J-19.869
G1 X153.5
G3 Y388.69 J35
G1 X112.294
G2 X94.013 Y395.82 I-0.001 J27
G3 X8.23 Y386.35 I-38.763 J-42.13
X29.302 Y302.658 I47.02 J-32.66
X84.192 Y304.294 Z12 I25.948 J51.032 F300
X94.013 Y311.559 I-28.942 J49.395 F850
G2 X112.294 Y318.69 I18.281 J-19.869
G1 X153.5
G3 Y388.69 J35
G1 X112.294
G2 X94.013 Y395.82 I-0.001 J27
G3 X16.487 Y311.559 I-38.763 J-42.13
X84.192 Y304.294 I38.763 J42.13
X94.013 Y311.559 Z11.573 I-28.942 J49.395 F300
G2 X112.294 Y318.69 Z10.871 I18.281 J-19.869
G1 X137.245 Z10
X153.5 F850
G3 Y388.69 J35
G1 X112.294
G2 X94.013 Y395.82 I-0.001 J27
G3 X16.487 Y311.559 I-38.763 J-42.13
X94.013 I38.763 J42.13
G2 X112.294 Y318.69 I18.281 J-19.869
G1 X137.245
X153.5 Z9.432 F300
G3 X185.752 Y340.097 Z8 J35
X153.5 Y388.69 I-32.252 J13.593 F850
G1 X112.294
G2 X94.013 Y395.82 I-0.001 J27
G3 X16.487 Y311.559 I-38.763 J-42.13
X94.013 I38.763 J42.13
G2 X112.294 Y318.69 I18.281 J-19.869
G1 X153.5
G3 X185.752 Y340.097 J35
X164.951 Y386.764 Z6 I-32.252 J13.593 F300
X153.5 Y388.69 I-11.451 J-33.074 F850
G1 X112.294
G2 X94.013 Y395.82 I-0.001 J27
G3 X16.487 Y311.559 I-38.763 J-42.13
X94.013 I38.763 J42.13
G2 X112.294 Y318.69 I18.281 J-19.869
G1 X153.5
G3 X164.951 Y386.764 J35
X153.5 Y388.69 Z5.593 I-11.451 J-33.074 F300
G1 X112.294 Z4.154
G2 X107.913 Y389.048 Z4 I-0.001 J27
X94.013 Y395.82 I4.381 J26.642 F850
G3 X16.487 Y311.559 I-38.763 J-42.13
X94.013 I38.763 J42.13
G2 X112.294 Y318.69 I18.281 J-19.869
G1 X153.5
G3 Y388.69 J35
G1 X112.294
G2 X107.913 Y389.048 I-0.001 J27
X94.013 Y395.82 Z3.452 I4.381 J26.642 F300
G3 X56.241 Y410.931 Z2 I-38.763 J-42.13
X54.259 Y296.448 I-0.991 J-57.241 F850
X94.013 Y311.559 I0.991 J57.241
G2 X112.294 Y318.69 I18.281 J-19.869
G1 X153.5
G3 Y388.69 J35
G1 X112.294
G2 X94.013 Y395.82 I-0.001 J27
G3 X56.241 Y410.931 I-38.763 J-42.13
X24.961 Y402.27 Z0.851 I-0.991 J-57.241 F300
G1 Z1.5
G3 X16.969 Y396.258 I30.289 J-48.581
G1 Z0.501 F30
G3 X7.606 Y385.432 Z0 I38.281 J-42.569 F300
X-1.781 Y358.69 I47.644 J-31.742 F850
G1 Z1.5
G3 Y348.69 I57.031 J-5
G1 Z0 F30
G3 X16.969 Y311.121 I57.031 J5 F850
G1 Z1.5
G3 X24.961 Y305.109 I38.281 J42.569
G1 Z0 F30
G3 X66.255 Y297.507 I30.289 J48.581 F850
G1 Z1.5
G3 X75.863 Y300.279 I-11.005 J56.182
G1 Z0 F30
G3 X94.013 Y311.559 I-20.613 J53.41 F850
G2 X112.294 Y318.69 I18.281 J-19.869
G1 X153.5
G3 X174.459 Y325.659 J35
G1 Z1.5
G3 X181.53 Y332.73 I-20.959 J28.031
G1 Z0 F30
G3 Y374.649 I-28.03 J20.96 F850
G1 Z1.5
G3 X174.459 Y381.72 I-28.03 J-20.959
G1 Z0 F30
G3 X153.5 Y388.69 I-20.959 J-28.03 F850
G1 X112.294
G2 X94.013 Y395.82 I-0.001 J27
G3 X75.863 Y407.1 I-38.763 J-42.13
G1 Z1.5
G3 X66.255 Y409.872 I-20.613 J-53.41
G1 Z0 F30
G3 X24.961 Y402.27 I-11.005 J-56.182 F850
G1 Z1.5
G3 X16.969 Y396.258 I30.289 J-48.581
G1 Z0 F30
G3 X-1.781 Y358.69 I38.281 J-42.569 F850
G1 Z1.5
G3 Y348.69 I57.031 J-5
G1 Z0 F30
G3 X16.969 Y311.121 I57.031 J5 F850
G1 Z1.5
G3 X24.961 Y305.109 I38.281 J42.569
G1 Z0 F30
G3 X66.255 Y297.507 I30.289 J48.581 F850
G1 Z1.5
G3 X75.863 Y300.279 I-11.005 J56.182
G1 Z0 F30
G3 X94.013 Y311.559 I-20.613 J53.41 F850
G2 X112.294 Y318.69 I18.281 J-19.869
G1 X153.5
G3 X174.459 Y325.659 J35
G1 Z1.5
G3 X181.53 Y332.73 I-20.959 J28.031
G1 Z0 F30
G3 Y374.649 I-28.03 J20.96 F850
G1 Z1.5
G3 X174.459 Y381.72 I-28.03 J-20.959
G1 Z0 F30
G3 X153.5 Y388.69 I-20.959 J-28.03 F850
G1 X112.294
G2 X94.013 Y395.82 I-0.001 J27
G3 X75.863 Y407.1 I-38.763 J-42.13
G1 Z1.5
G3 X66.255 Y409.872 I-20.613 J-53.41
G1 Z0 F30
G3 X24.961 Y402.27 I-11.005 J-56.182 F850
G1 Z1.5
G3 X16.969 Y396.258 I30.289 J-48.581
G1 Z0 F30
G3 X7.606 Y385.432 I38.281 J-42.569 F850
G2 X6.774 Y385.265 I-0.499 J0.333 F300
G1 X6.275 Y385.598
X6.196 Y385.65 Z0.007
X6.12 Y385.701 Z0.029
X6.048 Y385.749 Z0.065
X5.981 Y385.793 Z0.115
X5.922 Y385.833 Z0.176
X5.871 Y385.867 Z0.247
X5.83 Y385.894 Z0.328
X5.8 Y385.914 Z0.415
X5.781 Y385.926 Z0.506
X5.775 Y385.93 Z0.6
G0 Z33
M9
M30
%
