%
(1001)
(Dust Shoe acrylic top)
(T1  D=6 CR=0 - ZMIN=0 - flat end mill)
G90 G94
G17
G21

(2D Contour1)
M9
T1 M6
S7000 M3
G54
M9
G0 X88.033 Y180.042
Z33
Z23
G1 Z21.1 F300
X88.029 Y180.048 Z21.006 F30
X88.016 Y180.066 Z20.915
X87.996 Y180.096 Z20.828
X87.968 Y180.136 Z20.747
X87.932 Y180.186 Z20.676
X87.891 Y180.245 Z20.615
X87.845 Y180.311 Z20.565
X87.795 Y180.382 Z20.529
X87.743 Y180.457 Z20.507
X87.689 Y180.534 Z20.5
X87.345 Y181.025 F300
G2 X87.492 Y181.861 I0.491 J0.344
G3 X93.407 Y186.619 Z20.235 I-32.848 J46.889
G2 X111.689 Y193.75 Z19.533 I18.281 J-19.869
G1 X157.894 Z17.92
G3 X192.894 Y228.75 Z16 J35
X157.894 Y263.75 I-35 F850
G1 X111.689
G2 X93.407 Y270.881 J27
G3 X1.615 Y250.326 I-38.763 J-42.131
X1.394 Y249.195 I2.779 J-1.131
G1 Y208.305
G3 X1.615 Y207.174 I3
X93.407 Y186.619 I53.029 J21.576
G2 X111.689 Y193.75 I18.281 J-19.869
G1 X157.894
G3 X192.894 Y228.75 J35
X157.894 Y263.75 Z14.08 I-35 F300
G1 X155.599 Z14
X111.689 F850
G2 X93.407 Y270.881 J27
G3 X1.615 Y250.326 I-38.763 J-42.131
X1.394 Y249.195 I2.779 J-1.131
G1 Y208.305
G3 X1.615 Y207.174 I3
X93.407 Y186.619 I53.029 J21.576
G2 X111.689 Y193.75 I18.281 J-19.869
G1 X157.894
G3 Y263.75 J35
G1 X155.599
X111.689 Z12.467 F300
G2 X98.866 Y266.989 Z12 J27
X93.407 Y270.881 I12.823 J23.761 F850
G3 X1.615 Y250.326 I-38.763 J-42.131
X1.394 Y249.195 I2.779 J-1.131
G1 Y208.305
G3 X1.615 Y207.174 I3
X93.407 Y186.619 I53.029 J21.576
G2 X111.689 Y193.75 I18.281 J-19.869
G1 X157.894
G3 Y263.75 J35
G1 X111.689
G2 X98.866 Y266.989 J27
X93.407 Y270.881 Z11.765 I12.823 J23.761 F300
G3 X46.7 Y285.446 Z10 I-38.763 J-42.131
X1.615 Y250.326 I7.944 J-56.696 F850
X1.394 Y249.195 I2.779 J-1.131
G1 Y208.305
G3 X1.615 Y207.174 I3
X93.407 Y186.619 I53.029 J21.576
G2 X111.689 Y193.75 I18.281 J-19.869
G1 X157.894
G3 Y263.75 J35
G1 X111.689
G2 X93.407 Y270.881 J27
G3 X46.7 Y285.446 I-38.763 J-42.131
X2.635 Y252.678 Z8 I7.944 J-56.696 F300
X1.615 Y250.326 I52.01 J-23.928 F850
X1.394 Y249.195 I2.779 J-1.131
G1 Y208.305
G3 X1.615 Y207.174 I3
X93.407 Y186.619 I53.029 J21.576
G2 X111.689 Y193.75 I18.281 J-19.869
G1 X157.894
G3 Y263.75 J35
G1 X111.689
G2 X93.407 Y270.881 J27
G3 X2.635 Y252.678 I-38.763 J-42.131
X1.615 Y250.326 Z7.91 I52.01 J-23.928 F300
X1.394 Y249.195 Z7.87 I2.779 J-1.131
G1 Y208.305 Z6.442
G3 X1.615 Y207.174 Z6.402 I3
X6.987 Y197.028 Z6 I53.029 J21.576
X93.407 Y186.619 I47.658 J31.722 F850
G2 X111.689 Y193.75 I18.281 J-19.869
G1 X157.894
G3 Y263.75 J35
G1 X111.689
G2 X93.407 Y270.881 J27
G3 X1.615 Y250.326 I-38.763 J-42.131
X1.394 Y249.195 I2.779 J-1.131
G1 Y208.305
G3 X1.615 Y207.174 I3
X6.987 Y197.028 I53.029 J21.576
X55.611 Y171.508 Z4 I47.658 J31.722 F300
X93.407 Y186.619 I-0.966 J57.242 F850
G2 X111.689 Y193.75 I18.281 J-19.869
G1 X157.894
G3 Y263.75 J35
G1 X111.689
G2 X93.407 Y270.881 J27
G3 X1.615 Y250.326 I-38.763 J-42.131
X1.394 Y249.195 I2.779 J-1.131
G1 Y208.305
G3 X1.615 Y207.174 I3
X55.611 Y171.508 I53.029 J21.576
X93.407 Y186.619 Z2.547 I-0.966 J57.242 F300
G2 X107.283 Y193.388 Z2 I18.281 J-19.869
X111.689 Y193.75 I4.406 J-26.638 F850
G1 X157.894
G3 Y263.75 J35
G1 X111.689
G2 X93.407 Y270.881 J27
G3 X1.615 Y250.326 I-38.763 J-42.131
X1.394 Y249.195 I2.779 J-1.131
G1 Y208.305
G3 X1.615 Y207.174 I3
X93.407 Y186.619 I53.029 J21.576
G2 X107.283 Y193.388 I18.281 J-19.869
X111.689 Y193.75 Z1.845 I4.406 J-26.638 F300
G1 X157.894 Z0.232
G3 X164.496 Y194.378 Z0 J35
X178.854 Y200.72 I-6.602 J34.372 F850
G1 Z1.5
G3 X185.925 Y207.791 I-20.96 J28.03
G1 Z0 F30
G3 Y249.709 I-28.031 J20.959 F850
G1 Z1.5
G3 X178.854 Y256.78 I-28.031 J-20.959
G1 Z0 F30
G3 X157.894 Y263.75 I-20.96 J-28.03 F850
G1 X111.689
G2 X93.407 Y270.881 J27
G3 X74.232 Y282.545 I-38.763 J-42.131
G1 Z1.5
G3 X64.573 Y285.133 I-19.588 J-53.795
G1 Z0 F30
G3 X21.618 Y275.514 I-9.928 J-56.383 F850
G1 Z1.5
G3 X13.985 Y269.054 I33.026 J-46.764
G1 Z0 F30
G3 X1.615 Y250.326 I40.659 J-40.304 F850
X1.394 Y249.195 I2.779 J-1.131
G1 Y208.305
G3 X1.615 Y207.174 I3
X13.985 Y188.446 I53.029 J21.576
G1 Z1.5
G3 X21.618 Y181.986 I40.659 J40.304
G1 Z0 F30
G3 X64.573 Y172.367 I33.026 J46.764 F850
G1 Z1.5
G3 X74.232 Y174.955 I-9.928 J56.383
G1 Z0 F30
G3 X93.407 Y186.619 I-19.588 J53.795 F850
G2 X111.689 Y193.75 I18.281 J-19.869
G1 X157.894
G3 X178.854 Y200.72 J35
G1 Z1.5
G3 X185.925 Y207.791 I-20.96 J28.03
G1 Z0 F30
G3 Y249.709 I-28.031 J20.959 F850
G1 Z1.5
G3 X178.854 Y256.78 I-28.031 J-20.959
G1 Z0 F30
G3 X157.894 Y263.75 I-20.96 J-28.03 F850
G1 X111.689
G2 X93.407 Y270.881 J27
G3 X74.232 Y282.545 I-38.763 J-42.131
G1 Z1.5
G3 X64.573 Y285.133 I-19.588 J-53.795
G1 Z0 F30
G3 X21.618 Y275.514 I-9.928 J-56.383 F850
G1 Z1.5
G3 X13.985 Y269.054 I33.026 J-46.764
G1 Z0 F30
G3 X1.615 Y250.326 I40.659 J-40.304 F850
X1.394 Y249.195 I2.779 J-1.131
G1 Y208.305
G3 X1.615 Y207.174 I3
X13.985 Y188.446 I53.029 J21.576
G1 Z1.5
G3 X21.618 Y181.986 I40.659 J40.304
G1 Z0 F30
G3 X64.573 Y172.367 I33.026 J46.764 F850
G1 Z1.5
G3 X74.232 Y174.955 I-9.928 J56.383
G1 Z0 F30
G3 X93.407 Y186.619 I-19.588 J53.795 F850
G2 X111.689 Y193.75 I18.281 J-19.869
G1 X157.894
G3 X164.496 Y194.378 J35
G2 X165.198 Y193.902 I0.113 J-0.589 F300
G1 X165.311 Y193.313
X165.329 Y193.221 Z0.007
X165.346 Y193.131 Z0.029
X165.363 Y193.045 Z0.065
X165.378 Y192.967 Z0.115
X165.391 Y192.896 Z0.176
X165.403 Y192.836 Z0.247
X165.412 Y192.788 Z0.328
X165.419 Y192.753 Z0.415
X165.423 Y192.731 Z0.506
X165.424 Y192.724 Z0.6
G0 Z23
X90.566 Y57.379
G1 Z21.1 F300
X90.561 Y57.385 Z21.006 F30
X90.548 Y57.402 Z20.915
X90.525 Y57.43 Z20.828
X90.495 Y57.469 Z20.747
X90.457 Y57.517 Z20.676
X90.413 Y57.574 Z20.615
X90.364 Y57.637 Z20.565
X90.31 Y57.705 Z20.529
X90.254 Y57.777 Z20.507
X90.196 Y57.851 Z20.5
X89.826 Y58.324 F300
G2 X89.929 Y59.166 I0.472 J0.37
G3 X93.407 Y62.119 Z20.341 I-35.285 J45.084
G2 X111.689 Y69.25 Z19.639 I18.281 J-19.87
G1 X157.894 Z18.026
G3 X192.894 Y104.25 Z16.106 J35
X192.763 Y107.279 Z16 I-35
X157.894 Y139.25 I-34.869 J-3.029 F850
G1 X111.689
G2 X93.407 Y146.381 J27
G3 X1.615 Y125.826 I-38.763 J-42.131
X1.394 Y124.695 I2.779 J-1.131
G1 Y83.805
G3 X1.615 Y82.674 I3
X93.407 Y62.119 I53.029 J21.576
G2 X111.689 Y69.25 I18.281 J-19.87
G1 X157.894
G3 X192.763 Y107.279 J35
X157.894 Y139.25 Z14.186 I-34.869 J-3.029 F300
G1 X152.566 Z14
X111.689 F850
G2 X93.407 Y146.381 J27
G3 X1.615 Y125.826 I-38.763 J-42.131
X1.394 Y124.695 I2.779 J-1.131
G1 Y83.805
G3 X1.615 Y82.674 I3
X93.407 Y62.119 I53.029 J21.576
G2 X111.689 Y69.25 I18.281 J-19.87
G1 X157.894
G3 Y139.25 J35
G1 X152.566
X111.689 Z12.573 F300
G2 X96.283 Y144.077 Z12 J27
X93.407 Y146.381 I15.406 J22.174 F850
G3 X1.615 Y125.826 I-38.763 J-42.131
X1.394 Y124.695 I2.779 J-1.131
G1 Y83.805
G3 X1.615 Y82.674 I3
X93.407 Y62.119 I53.029 J21.576
G2 X111.689 Y69.25 I18.281 J-19.87
G1 X157.894
G3 Y139.25 J35
G1 X111.689
G2 X96.283 Y144.077 J27
X93.407 Y146.381 Z11.871 I15.406 J22.174 F300
G3 X43.709 Y160.446 Z10 I-38.763 J-42.131
X1.615 Y125.826 I10.935 J-56.196 F850
X1.394 Y124.695 I2.779 J-1.131
G1 Y83.805
G3 X1.615 Y82.674 I3
X93.407 Y62.119 I53.029 J21.576
G2 X111.689 Y69.25 I18.281 J-19.87
G1 X157.894
G3 Y139.25 J35
G1 X111.689
G2 X93.407 Y146.381 J27
G3 X43.709 Y160.446 I-38.763 J-42.131
X1.615 Y125.826 Z8.016 I10.935 J-56.196 F300
X1.473 Y125.379 Z8 I2.779 J-1.131
X1.394 Y124.695 I2.921 J-0.684 F850
G1 Y83.805
G3 X1.615 Y82.674 I3
X93.407 Y62.119 I53.029 J21.576
G2 X111.689 Y69.25 I18.281 J-19.87
G1 X157.894
G3 Y139.25 J35
G1 X111.689
G2 X93.407 Y146.381 J27
G3 X1.615 Y125.826 I-38.763 J-42.131
X1.473 Y125.379 I2.779 J-1.131
X1.394 Y124.695 Z7.976 I2.921 J-0.684 F300
G1 Y83.805 Z6.548
G3 X1.615 Y82.674 Z6.508 I3
X8.733 Y70.048 Z6 I53.029 J21.576
X93.407 Y62.119 I45.911 J34.202 F850
G2 X111.689 Y69.25 I18.281 J-19.87
G1 X157.894
G3 Y139.25 J35
G1 X111.689
G2 X93.407 Y146.381 J27
G3 X1.615 Y125.826 I-38.763 J-42.131
X1.394 Y124.695 I2.779 J-1.131
G1 Y83.805
G3 X1.615 Y82.674 I3
X8.733 Y70.048 I53.029 J21.576
X58.64 Y47.14 Z4 I45.911 J34.202 F300
X93.407 Y62.119 I-3.996 J57.11 F850
G2 X111.689 Y69.25 I18.281 J-19.87
G1 X157.894
G3 Y139.25 J35
G1 X111.689
G2 X93.407 Y146.381 J27
G3 X1.615 Y125.826 I-38.763 J-42.131
X1.394 Y124.695 I2.779 J-1.131
G1 Y83.805
G3 X1.615 Y82.674 I3
X58.64 Y47.14 I53.029 J21.576
X93.407 Y62.119 Z2.653 I-3.996 J57.11 F300
G2 X110.297 Y69.214 Z2 I18.281 J-19.87
X111.689 Y69.25 I1.392 J-26.964 F850
G1 X157.894
G3 Y139.25 J35
G1 X111.689
G2 X93.407 Y146.381 J27
G3 X1.615 Y125.826 I-38.763 J-42.131
X1.394 Y124.695 I2.779 J-1.131
G1 Y83.805
G3 X1.615 Y82.674 I3
X93.407 Y62.119 I53.029 J21.576
G2 X110.297 Y69.214 I18.281 J-19.87
X111.689 Y69.25 Z1.951 I1.392 J-26.964 F300
G1 X157.894 Z0.338
G3 X167.446 Y70.579 Z0 J35
X178.854 Y76.22 I-9.552 J33.671 F850
G1 Z1.5
G3 X185.925 Y83.291 I-20.96 J28.03
G1 Z0 F30
G3 Y125.209 I-28.031 J20.959 F850
G1 Z1.5
G3 X178.854 Y132.28 I-28.031 J-20.959
G1 Z0 F30
G3 X157.894 Y139.25 I-20.96 J-28.03 F850
G1 X111.689
G2 X93.407 Y146.381 J27
G3 X74.232 Y158.045 I-38.763 J-42.131
G1 Z1.5
G3 X64.573 Y160.633 I-19.588 J-53.795
G1 Z0 F30
G3 X21.618 Y151.014 I-9.928 J-56.383 F850
G1 Z1.5
G3 X13.985 Y144.554 I33.026 J-46.764
G1 Z0 F30
G3 X1.615 Y125.826 I40.659 J-40.304 F850
X1.394 Y124.695 I2.779 J-1.131
G1 Y83.805
G3 X1.615 Y82.674 I3
X13.985 Y63.946 I53.029 J21.576
G1 Z1.5
G3 X21.618 Y57.486 I40.659 J40.304
G1 Z0 F30
G3 X64.572 Y47.868 I33.026 J46.764 F850
G1 Z1.5
G3 X74.232 Y50.455 I-9.928 J56.382
G1 Z0 F30
G3 X93.407 Y62.119 I-19.588 J53.795 F850
G2 X111.689 Y69.25 I18.281 J-19.87
G1 X157.894
G3 X178.854 Y76.22 J35
G1 Z1.5
G3 X185.925 Y83.291 I-20.96 J28.03
G1 Z0 F30
G3 Y125.209 I-28.031 J20.959 F850
G1 Z1.5
G3 X178.854 Y132.28 I-28.031 J-20.959
G1 Z0 F30
G3 X157.894 Y139.25 I-20.96 J-28.03 F850
G1 X111.689
G2 X93.407 Y146.381 J27
G3 X74.232 Y158.045 I-38.763 J-42.131
G1 Z1.5
G3 X64.573 Y160.633 I-19.588 J-53.795
G1 Z0 F30
G3 X21.618 Y151.014 I-9.928 J-56.383 F850
G1 Z1.5
G3 X13.985 Y144.554 I33.026 J-46.764
G1 Z0 F30
G3 X1.615 Y125.826 I40.659 J-40.304 F850
X1.394 Y124.695 I2.779 J-1.131
G1 Y83.805
G3 X1.615 Y82.674 I3
X13.985 Y63.946 I53.029 J21.576
G1 Z1.5
G3 X21.618 Y57.486 I40.659 J40.304
G1 Z0 F30
G3 X64.572 Y47.868 I33.026 J46.764 F850
G1 Z1.5
G3 X74.232 Y50.455 I-9.928 J56.382
G1 Z0 F30
G3 X93.407 Y62.119 I-19.588 J53.795 F850
G2 X111.689 Y69.25 I18.281 J-19.87
G1 X157.894
G3 X167.446 Y70.579 J35
G2 X168.187 Y70.165 I0.164 J-0.577 F300
G1 X168.351 Y69.588
X168.376 Y69.498 Z0.007
X168.401 Y69.41 Z0.029
X168.425 Y69.326 Z0.065
X168.447 Y69.249 Z0.115
X168.466 Y69.18 Z0.176
X168.483 Y69.121 Z0.247
X168.496 Y69.074 Z0.328
X168.506 Y69.039 Z0.415
X168.512 Y69.018 Z0.506
X168.514 Y69.011 Z0.6
G0 Z23
X88.111 Y402.755
G1 Z21.1 F300
X88.107 Y402.749 Z21.006 F30
X88.095 Y402.73 Z20.915
X88.075 Y402.7 Z20.828
X88.048 Y402.659 Z20.747
X88.014 Y402.608 Z20.676
X87.975 Y402.548 Z20.615
X87.931 Y402.481 Z20.565
X87.883 Y402.408 Z20.529
X87.833 Y402.331 Z20.507
X87.782 Y402.253 Z20.5
X87.453 Y401.751 F300
G2 X86.622 Y401.578 I-0.502 J0.329
G3 X-1.713 Y347.966 Z16 I-31.372 J-47.888
X94.013 Y311.559 I56.963 J5.723 F850
G2 X112.294 Y318.69 I18.281 J-19.869
G1 X153.5
G3 Y388.69 J35
G1 X112.294
G2 X94.013 Y395.82 I-0.001 J27
G3 X-1.713 Y347.966 I-38.763 J-42.13
X29.309 Y302.654 Z14 I56.963 J5.723 F300
X94.013 Y311.559 I25.941 J51.035 F850
G2 X112.294 Y318.69 I18.281 J-19.869
G1 X153.5
G3 Y388.69 J35
G1 X112.294
G2 X94.013 Y395.82 I-0.001 J27
G3 X8.228 Y386.346 I-38.763 J-42.13
X29.309 Y302.654 I47.022 J-32.657
X84.198 Y304.298 Z12 I25.941 J51.035 F300
X94.013 Y311.559 I-28.948 J49.391 F850
G2 X112.294 Y318.69 I18.281 J-19.869
G1 X153.5
G3 Y388.69 J35
G1 X112.294
G2 X94.013 Y395.82 I-0.001 J27
G3 X16.487 Y311.559 I-38.763 J-42.13
X84.198 Y304.298 I38.763 J42.13
X94.013 Y311.559 Z11.573 I-28.948 J49.391 F300
G2 X112.294 Y318.69 Z10.872 I18.281 J-19.869
G1 X137.252 Z10
X153.5 F850
G3 Y388.69 J35
G1 X112.294
G2 X94.013 Y395.82 I-0.001 J27
G3 X16.487 Y311.559 I-38.763 J-42.13
X94.013 I38.763 J42.13
G2 X112.294 Y318.69 I18.281 J-19.869
G1 X137.252
X153.5 Z9.433 F300
G3 X185.755 Y340.104 Z8 J35
X153.5 Y388.69 I-32.255 J13.586 F850
G1 X112.294
G2 X94.013 Y395.82 I-0.001 J27
G3 X16.487 Y311.559 I-38.763 J-42.13
X94.013 I38.763 J42.13
G2 X112.294 Y318.69 I18.281 J-19.869
G1 X153.5
G3 X185.755 Y340.104 J35
X188.5 Y353.69 Z7.513 I-32.255 J13.586 F300
X164.944 Y386.766 Z6 I-35
X153.5 Y388.69 I-11.444 J-33.076 F850
G1 X112.294
G2 X94.013 Y395.82 I-0.001 J27
G3 X16.487 Y311.559 I-38.763 J-42.13
X94.013 I38.763 J42.13
G2 X112.294 Y318.69 I18.281 J-19.869
G1 X153.5
G3 X164.944 Y386.766 J35
X153.5 Y388.69 Z5.593 I-11.444 J-33.076 F300
G1 X112.294 Z4.154
G2 X107.905 Y389.049 Z4 I-0.001 J27
X94.013 Y395.82 I4.388 J26.641 F850
G3 X16.487 Y311.559 I-38.763 J-42.13
X94.013 I38.763 J42.13
G2 X112.294 Y318.69 I18.281 J-19.869
G1 X153.5
G3 Y388.69 J35
G1 X112.294
G2 X107.905 Y389.049 I-0.001 J27
X94.013 Y395.82 Z3.453 I4.388 J26.641 F300
G3 X56.233 Y410.931 Z2 I-38.763 J-42.13
X-2 Y353.69 I-0.983 J-57.241 F850
X94.013 Y311.559 I57.25
G2 X112.294 Y318.69 I18.281 J-19.869
G1 X153.5
G3 Y388.69 J35
G1 X112.294
G2 X94.013 Y395.82 I-0.001 J27
G3 X56.233 Y410.931 I-38.763 J-42.13
X24.961 Y402.27 Z1.5 I-0.983 J-57.241 F300
G1 Z0.851 F30
G3 X7.602 Y385.425 Z0 I30.289 J-48.581 F300
X-1.781 Y358.69 I47.648 J-31.736 F850
G1 Z1.5
G3 Y348.69 I57.031 J-5
G1 Z0 F30
G3 X16.969 Y311.121 I57.031 J5 F850
G1 Z1.5
G3 X24.961 Y305.109 I38.281 J42.569
G1 Z0 F30
G3 X66.255 Y297.507 I30.289 J48.581 F850
G1 Z1.5
G3 X75.863 Y300.279 I-11.005 J56.182
G1 Z0 F30
G3 X94.013 Y311.559 I-20.613 J53.41 F850
G2 X112.294 Y318.69 I18.281 J-19.869
G1 X153.5
G3 X174.459 Y325.659 J35
G1 Z1.5
G3 X181.53 Y332.73 I-20.959 J28.031
G1 Z0 F30
G3 Y374.649 I-28.03 J20.96 F850
G1 Z1.5
G3 X174.459 Y381.72 I-28.03 J-20.959
G1 Z0 F30
G3 X153.5 Y388.69 I-20.959 J-28.03 F850
G1 X112.294
G2 X94.013 Y395.82 I-0.001 J27
G3 X75.863 Y407.1 I-38.763 J-42.13
G1 Z1.5
G3 X66.255 Y409.872 I-20.613 J-53.41
G1 Z0 F30
G3 X24.961 Y402.27 I-11.005 J-56.182 F850
G1 Z1.5
G3 X16.969 Y396.258 I30.289 J-48.581
G1 Z0 F30
G3 X-1.781 Y358.69 I38.281 J-42.569 F850
G1 Z1.5
G3 Y348.69 I57.031 J-5
G1 Z0 F30
G3 X16.969 Y311.121 I57.031 J5 F850
G1 Z1.5
G3 X24.961 Y305.109 I38.281 J42.569
G1 Z0 F30
G3 X66.255 Y297.507 I30.289 J48.581 F850
G1 Z1.5
G3 X75.863 Y300.279 I-11.005 J56.182
G1 Z0 F30
G3 X94.013 Y311.559 I-20.613 J53.41 F850
G2 X112.294 Y318.69 I18.281 J-19.869
G1 X153.5
G3 X174.459 Y325.659 J35
G1 Z1.5
G3 X181.53 Y332.73 I-20.959 J28.031
G1 Z0 F30
G3 Y374.649 I-28.03 J20.96 F850
G1 Z1.5
G3 X174.459 Y381.72 I-28.03 J-20.959
G1 Z0 F30
G3 X153.5 Y388.69 I-20.959 J-28.03 F850
G1 X112.294
G2 X94.013 Y395.82 I-0.001 J27
G3 X75.863 Y407.1 I-38.763 J-42.13
G1 Z1.5
G3 X66.255 Y409.872 I-20.613 J-53.41
G1 Z0 F30
G3 X24.961 Y402.27 I-11.005 J-56.182 F850
G1 Z1.5
G3 X16.969 Y396.258 I30.289 J-48.581
G1 Z0 F30
G3 X7.602 Y385.425 I38.281 J-42.569 F850
G2 X6.77 Y385.259 I-0.499 J0.333 F300
G1 X6.27 Y385.591
X6.192 Y385.643 Z0.007
X6.116 Y385.694 Z0.029
X6.044 Y385.742 Z0.065
X5.977 Y385.787 Z0.115
X5.917 Y385.826 Z0.176
X5.866 Y385.86 Z0.247
X5.825 Y385.888 Z0.328
X5.795 Y385.908 Z0.415
X5.777 Y385.92 Z0.506
X5.771 Y385.924 Z0.6
G0 Z33
M9
M30
%
