%
(1001)
(Dust Shoe acrylic top)
(T1  D=6 CR=0 - ZMIN=0 - flat end mill)
G90 G94
G17
G21

(2D Contour2)
M9
T1 M6
S7000 M3
G54
M9
G0 X19.692 Y222.8
Z33
Z23
G1 Z21.1 F300
X19.685 Y222.799 Z21.006 F30
X19.663 Y222.796 Z20.915
X19.627 Y222.79 Z20.828
X19.579 Y222.783 Z20.747
X19.518 Y222.773 Z20.676
X19.447 Y222.763 Z20.615
X19.368 Y222.75 Z20.565
X19.282 Y222.737 Z20.529
X19.192 Y222.723 Z20.507
X19.099 Y222.709 Z20.5
X18.506 Y222.619 F300
G2 X17.822 Y223.121 I-0.091 J0.593
X24.682 Y250.882 Z19.475 I36.822 J5.629
G3 X24.226 Y254.938 Z19.318 I-2.413 J1.782
G2 X24.062 Y259.332 Z19.146 I1.957 J2.274
X28.457 Y259.169 Z18.974 I2.121 J-2.121
G3 X32.513 Y258.713 Z18.817 I2.273 J1.957
G2 X49.107 Y265.586 Z18.183 I22.131 J-29.963
G3 X51.653 Y268.776 Z18.027 I-0.446 J2.967
G2 X54.644 Y272 Z17.854 I2.992 J0.224
X57.636 Y268.776 Z17.682 J-3
G3 X60.182 Y265.586 Z17.525 I2.992 J-0.224
G2 X76.776 Y258.713 Z16.892 I-5.537 J-36.836
G3 X80.832 Y259.169 Z16.735 I1.782 J2.413
G2 X85.227 Y259.332 Z16.563 I2.274 J-1.958
X85.063 Y254.938 Z16.39 I-2.121 J-2.121
G3 X84.607 Y250.882 Z16.233 I1.957 J-2.274
G2 X88.076 Y245.177 Z16 I-29.963 J-22.131
G3 X90.769 Y243.5 I2.693 J1.323 F750
G1 X152.644
G3 X155.644 Y246.5 J3
G2 X157.785 Y248.495 I2
X159.624 Y246.218 I-0.141 J-1.995
G3 X161.757 Y242.915 I2.97 J-0.422
G2 X164.751 Y241.674 I-4.115 J-14.164
G3 X168.596 Y242.502 I1.446 J2.629
G2 X171.609 Y242.715 I1.599 J-1.201
X171.396 Y239.702 I-1.414 J-1.414
G3 X170.569 Y235.858 I1.802 J-2.399
G2 X171.809 Y232.864 I-12.926 J-7.106
G3 X175.112 Y230.73 I2.881 J0.836
G2 X177.394 Y228.75 I0.282 J-1.98
X175.112 Y226.77 I-2
G3 X171.809 Y224.636 I-0.422 J-2.97
G2 X170.569 Y221.642 I-14.166 J4.112
G3 X171.396 Y217.798 I2.629 J-1.445
G2 X171.609 Y214.785 I-1.201 J-1.599
X168.596 Y214.998 I-1.414 J1.414
G3 X164.751 Y215.826 I-2.399 J-1.801
G2 X161.757 Y214.585 I-7.109 J12.924
G3 X159.624 Y211.282 I0.837 J-2.881
G2 X157.785 Y209.005 I-1.98 J-0.282
X155.644 Y211 I-0.141 J1.995
G3 X152.644 Y214 I-3
G1 X90.769
G3 X88.076 Y212.323 J-3
G2 X84.607 Y206.618 I-33.432 J16.427
G3 X85.063 Y202.563 I2.413 J-1.782
G2 X85.227 Y198.168 I-1.957 J-2.274
X80.832 Y198.331 I-2.121 J2.121
G3 X76.776 Y198.787 I-2.273 J-1.957
G2 X60.182 Y191.914 I-22.131 J29.963
G3 X57.636 Y188.723 I0.446 J-2.967
G2 X54.644 Y185.5 I-2.992 J-0.223
X51.653 Y188.723 J3
G3 X49.107 Y191.914 I-2.992 J0.224
G2 X32.513 Y198.787 I5.537 J36.836
G3 X28.457 Y198.331 I-1.782 J-2.413
G2 X24.062 Y198.168 I-2.274 J1.957
X24.226 Y202.562 I2.121 J2.121
G3 X24.682 Y206.618 I-1.957 J2.274
G2 Y250.882 I29.963 J22.132
G3 X24.226 Y254.938 I-2.413 J1.782
G2 X24.062 Y259.332 I1.957 J2.274
X28.457 Y259.169 I2.121 J-2.121
G3 X32.513 Y258.713 I2.273 J1.957
G2 X49.107 Y265.586 I22.131 J-29.963
G3 X51.653 Y268.776 I-0.446 J2.967
G2 X54.644 Y272 I2.992 J0.224
X57.636 Y268.776 J-3
G3 X60.182 Y265.586 I2.992 J-0.224
G2 X76.776 Y258.713 I-5.537 J-36.836
G3 X80.832 Y259.169 I1.782 J2.413
G2 X85.227 Y259.332 I2.274 J-1.958
X85.063 Y254.938 I-2.121 J-2.121
G3 X84.607 Y250.882 I1.957 J-2.274
G2 X88.076 Y245.177 I-29.963 J-22.131
G3 X90.769 Y243.5 Z15.883 I2.693 J1.323 F300
G1 X144.699 Z14
X152.644 F750
G3 X155.644 Y246.5 J3
G2 X157.785 Y248.495 I2
X159.624 Y246.218 I-0.141 J-1.995
G3 X161.757 Y242.915 I2.97 J-0.422
G2 X164.751 Y241.674 I-4.115 J-14.164
G3 X168.596 Y242.502 I1.446 J2.629
G2 X171.609 Y242.715 I1.599 J-1.201
X171.396 Y239.702 I-1.414 J-1.414
G3 X170.569 Y235.858 I1.802 J-2.399
G2 X171.809 Y232.864 I-12.926 J-7.106
G3 X175.112 Y230.73 I2.881 J0.836
G2 X177.394 Y228.75 I0.282 J-1.98
X175.112 Y226.77 I-2
G3 X171.809 Y224.636 I-0.422 J-2.97
G2 X170.569 Y221.642 I-14.166 J4.112
G3 X171.396 Y217.798 I2.629 J-1.445
G2 X171.609 Y214.785 I-1.201 J-1.599
X168.596 Y214.998 I-1.414 J1.414
G3 X164.751 Y215.826 I-2.399 J-1.801
G2 X161.757 Y214.585 I-7.109 J12.924
G3 X159.624 Y211.282 I0.837 J-2.881
G2 X157.785 Y209.005 I-1.98 J-0.282
X155.644 Y211 I-0.141 J1.995
G3 X152.644 Y214 I-3
G1 X90.769
G3 X88.076 Y212.323 J-3
G2 X84.607 Y206.618 I-33.432 J16.427
G3 X85.063 Y202.563 I2.413 J-1.782
G2 X85.227 Y198.168 I-1.957 J-2.274
X80.832 Y198.331 I-2.121 J2.121
G3 X76.776 Y198.787 I-2.273 J-1.957
G2 X60.182 Y191.914 I-22.131 J29.963
G3 X57.636 Y188.723 I0.446 J-2.967
G2 X54.644 Y185.5 I-2.992 J-0.223
X51.653 Y188.723 J3
G3 X49.107 Y191.914 I-2.992 J0.224
G2 X32.513 Y198.787 I5.537 J36.836
G3 X28.457 Y198.331 I-1.782 J-2.413
G2 X24.062 Y198.168 I-2.274 J1.957
X24.226 Y202.562 I2.121 J2.121
G3 X24.682 Y206.618 I-1.957 J2.274
G2 Y250.882 I29.963 J22.132
G3 X24.226 Y254.938 I-2.413 J1.782
G2 X24.062 Y259.332 I1.957 J2.274
X28.457 Y259.169 I2.121 J-2.121
G3 X32.513 Y258.713 I2.273 J1.957
G2 X49.107 Y265.586 I22.131 J-29.963
G3 X51.653 Y268.776 I-0.446 J2.967
G2 X54.644 Y272 I2.992 J0.224
X57.636 Y268.776 J-3
G3 X60.182 Y265.586 I2.992 J-0.224
G2 X76.776 Y258.713 I-5.537 J-36.836
G3 X80.832 Y259.169 I1.782 J2.413
G2 X85.227 Y259.332 I2.274 J-1.958
X85.063 Y254.938 I-2.121 J-2.121
G3 X84.607 Y250.882 I1.957 J-2.274
G2 X88.076 Y245.177 I-29.963 J-22.131
G3 X90.769 Y243.5 I2.693 J1.323
G1 X144.699
X152.644 Z13.723 F300
G3 X155.644 Y246.5 Z13.558 J3
G2 X157.785 Y248.495 Z13.443 I2
X159.624 Y246.218 Z13.329 I-0.141 J-1.995
G3 X161.757 Y242.915 Z13.179 I2.97 J-0.422
G2 X164.751 Y241.674 Z13.066 I-4.115 J-14.164
G3 X168.596 Y242.502 Z12.916 I1.446 J2.629
G2 X171.609 Y242.715 Z12.796 I1.599 J-1.201
X171.396 Y239.702 Z12.677 I-1.414 J-1.414
G3 X170.569 Y235.858 Z12.527 I1.802 J-2.399
G2 X171.809 Y232.864 Z12.414 I-12.926 J-7.106
G3 X175.112 Y230.73 Z12.264 I2.881 J0.836
G2 X177.394 Y228.75 Z12.144 I0.282 J-1.98
X175.112 Y226.77 Z12.025 I-2
G3 X174.408 Y226.787 Z12 I-0.422 J-2.97
X171.809 Y224.636 I0.282 J-2.987 F750
G2 X170.569 Y221.642 I-14.166 J4.112
G3 X171.396 Y217.798 I2.629 J-1.445
G2 X171.609 Y214.785 I-1.201 J-1.599
X168.596 Y214.998 I-1.414 J1.414
G3 X164.751 Y215.826 I-2.399 J-1.801
G2 X161.757 Y214.585 I-7.109 J12.924
G3 X159.624 Y211.282 I0.837 J-2.881
G2 X157.785 Y209.005 I-1.98 J-0.282
X155.644 Y211 I-0.141 J1.995
G3 X152.644 Y214 I-3
G1 X90.769
G3 X88.076 Y212.323 J-3
G2 X84.607 Y206.618 I-33.432 J16.427
G3 X85.063 Y202.563 I2.413 J-1.782
G2 X85.227 Y198.168 I-1.957 J-2.274
X80.832 Y198.331 I-2.121 J2.121
G3 X76.776 Y198.787 I-2.273 J-1.957
G2 X60.182 Y191.914 I-22.131 J29.963
G3 X57.636 Y188.723 I0.446 J-2.967
G2 X54.644 Y185.5 I-2.992 J-0.223
X51.653 Y188.723 J3
G3 X49.107 Y191.914 I-2.992 J0.224
G2 X32.513 Y198.787 I5.537 J36.836
G3 X28.457 Y198.331 I-1.782 J-2.413
G2 X24.062 Y198.168 I-2.274 J1.957
X24.226 Y202.562 I2.121 J2.121
G3 X24.682 Y206.618 I-1.957 J2.274
G2 Y250.882 I29.963 J22.132
G3 X24.226 Y254.938 I-2.413 J1.782
G2 X24.062 Y259.332 I1.957 J2.274
X28.457 Y259.169 I2.121 J-2.121
G3 X32.513 Y258.713 I2.273 J1.957
G2 X49.107 Y265.586 I22.131 J-29.963
G3 X51.653 Y268.776 I-0.446 J2.967
G2 X54.644 Y272 I2.992 J0.224
X57.636 Y268.776 J-3
G3 X60.182 Y265.586 I2.992 J-0.224
G2 X76.776 Y258.713 I-5.537 J-36.836
G3 X80.832 Y259.169 I1.782 J2.413
G2 X85.227 Y259.332 I2.274 J-1.958
X85.063 Y254.938 I-2.121 J-2.121
G3 X84.607 Y250.882 I1.957 J-2.274
G2 X88.076 Y245.177 I-29.963 J-22.131
G3 X90.769 Y243.5 I2.693 J1.323
G1 X152.644
G3 X155.644 Y246.5 J3
G2 X157.785 Y248.495 I2
X159.624 Y246.218 I-0.141 J-1.995
G3 X161.757 Y242.915 I2.97 J-0.422
G2 X164.751 Y241.674 I-4.115 J-14.164
G3 X168.596 Y242.502 I1.446 J2.629
G2 X171.609 Y242.715 I1.599 J-1.201
X171.396 Y239.702 I-1.414 J-1.414
G3 X170.569 Y235.858 I1.802 J-2.399
G2 X171.809 Y232.864 I-12.926 J-7.106
G3 X175.112 Y230.73 I2.881 J0.836
G2 X177.394 Y228.75 I0.282 J-1.98
X175.112 Y226.77 I-2
G3 X174.408 Y226.787 I-0.422 J-2.97
X171.809 Y224.636 Z11.875 I0.282 J-2.987 F300
G2 X170.569 Y221.642 Z11.762 I-14.166 J4.112
G3 X171.396 Y217.798 Z11.612 I2.629 J-1.445
G2 X171.609 Y214.785 Z11.492 I-1.201 J-1.599
X168.596 Y214.998 Z11.373 I-1.414 J1.414
G3 X164.751 Y215.826 Z11.223 I-2.399 J-1.801
G2 X161.757 Y214.585 Z11.109 I-7.109 J12.924
G3 X159.624 Y211.282 Z10.96 I0.837 J-2.881
G2 X157.785 Y209.005 Z10.845 I-1.98 J-0.282
X155.644 Y211 Z10.73 I-0.141 J1.995
G3 X152.644 Y214 Z10.566 I-3
G1 X136.439 Z10
X90.769 F750
G3 X88.076 Y212.323 J-3
G2 X84.607 Y206.618 I-33.432 J16.427
G3 X85.063 Y202.563 I2.413 J-1.782
G2 X85.227 Y198.168 I-1.957 J-2.274
X80.832 Y198.331 I-2.121 J2.121
G3 X76.776 Y198.787 I-2.273 J-1.957
G2 X60.182 Y191.914 I-22.131 J29.963
G3 X57.636 Y188.723 I0.446 J-2.967
G2 X54.644 Y185.5 I-2.992 J-0.223
X51.653 Y188.723 J3
G3 X49.107 Y191.914 I-2.992 J0.224
G2 X32.513 Y198.787 I5.537 J36.836
G3 X28.457 Y198.331 I-1.782 J-2.413
G2 X24.062 Y198.168 I-2.274 J1.957
X24.226 Y202.562 I2.121 J2.121
G3 X24.682 Y206.618 I-1.957 J2.274
G2 Y250.882 I29.963 J22.132
G3 X24.226 Y254.938 I-2.413 J1.782
G2 X24.062 Y259.332 I1.957 J2.274
X28.457 Y259.169 I2.121 J-2.121
G3 X32.513 Y258.713 I2.273 J1.957
G2 X49.107 Y265.586 I22.131 J-29.963
G3 X51.653 Y268.776 I-0.446 J2.967
G2 X54.644 Y272 I2.992 J0.224
X57.636 Y268.776 J-3
G3 X60.182 Y265.586 I2.992 J-0.224
G2 X76.776 Y258.713 I-5.537 J-36.836
G3 X80.832 Y259.169 I1.782 J2.413
G2 X85.227 Y259.332 I2.274 J-1.958
X85.063 Y254.938 I-2.121 J-2.121
G3 X84.607 Y250.882 I1.957 J-2.274
G2 X88.076 Y245.177 I-29.963 J-22.131
G3 X90.769 Y243.5 I2.693 J1.323
G1 X152.644
G3 X155.644 Y246.5 J3
G2 X157.785 Y248.495 I2
X159.624 Y246.218 I-0.141 J-1.995
G3 X161.757 Y242.915 I2.97 J-0.422
G2 X164.751 Y241.674 I-4.115 J-14.164
G3 X168.596 Y242.502 I1.446 J2.629
G2 X171.609 Y242.715 I1.599 J-1.201
X171.396 Y239.702 I-1.414 J-1.414
G3 X170.569 Y235.858 I1.802 J-2.399
G2 X171.809 Y232.864 I-12.926 J-7.106
G3 X175.112 Y230.73 I2.881 J0.836
G2 X177.394 Y228.75 I0.282 J-1.98
X175.112 Y226.77 I-2
G3 X171.809 Y224.636 I-0.422 J-2.97
G2 X170.569 Y221.642 I-14.166 J4.112
G3 X171.396 Y217.798 I2.629 J-1.445
G2 X171.609 Y214.785 I-1.201 J-1.599
X168.596 Y214.998 I-1.414 J1.414
G3 X164.751 Y215.826 I-2.399 J-1.801
G2 X161.757 Y214.585 I-7.109 J12.924
G3 X159.624 Y211.282 I0.837 J-2.881
G2 X157.785 Y209.005 I-1.98 J-0.282
X155.644 Y211 I-0.141 J1.995
G3 X152.644 Y214 I-3
G1 X136.439
X90.769 Z8.405 F300
G3 X88.076 Y212.323 Z8.288 J-3
G2 X84.607 Y206.618 Z8.055 I-33.432 J16.427
G3 X84.038 Y205.169 Z8 I2.413 J-1.782
X85.063 Y202.563 I2.981 J-0.333 F750
G2 X85.227 Y198.168 I-1.957 J-2.274
X80.832 Y198.331 I-2.121 J2.121
G3 X76.776 Y198.787 I-2.273 J-1.957
G2 X60.182 Y191.914 I-22.131 J29.963
G3 X57.636 Y188.723 I0.446 J-2.967
G2 X54.644 Y185.5 I-2.992 J-0.223
X51.653 Y188.723 J3
G3 X49.107 Y191.914 I-2.992 J0.224
G2 X32.513 Y198.787 I5.537 J36.836
G3 X28.457 Y198.331 I-1.782 J-2.413
G2 X24.062 Y198.168 I-2.274 J1.957
X24.226 Y202.562 I2.121 J2.121
G3 X24.682 Y206.618 I-1.957 J2.274
G2 Y250.882 I29.963 J22.132
G3 X24.226 Y254.938 I-2.413 J1.782
G2 X24.062 Y259.332 I1.957 J2.274
X28.457 Y259.169 I2.121 J-2.121
G3 X32.513 Y258.713 I2.273 J1.957
G2 X49.107 Y265.586 I22.131 J-29.963
G3 X51.653 Y268.776 I-0.446 J2.967
G2 X54.644 Y272 I2.992 J0.224
X57.636 Y268.776 J-3
G3 X60.182 Y265.586 I2.992 J-0.224
G2 X76.776 Y258.713 I-5.537 J-36.836
G3 X80.832 Y259.169 I1.782 J2.413
G2 X85.227 Y259.332 I2.274 J-1.958
X85.063 Y254.938 I-2.121 J-2.121
G3 X84.607 Y250.882 I1.957 J-2.274
G2 X88.076 Y245.177 I-29.963 J-22.131
G3 X90.769 Y243.5 I2.693 J1.323
G1 X152.644
G3 X155.644 Y246.5 J3
G2 X157.785 Y248.495 I2
X159.624 Y246.218 I-0.141 J-1.995
G3 X161.757 Y242.915 I2.97 J-0.422
G2 X164.751 Y241.674 I-4.115 J-14.164
G3 X168.596 Y242.502 I1.446 J2.629
G2 X171.609 Y242.715 I1.599 J-1.201
X171.396 Y239.702 I-1.414 J-1.414
G3 X170.569 Y235.858 I1.802 J-2.399
G2 X171.809 Y232.864 I-12.926 J-7.106
G3 X175.112 Y230.73 I2.881 J0.836
G2 X177.394 Y228.75 I0.282 J-1.98
X175.112 Y226.77 I-2
G3 X171.809 Y224.636 I-0.422 J-2.97
G2 X170.569 Y221.642 I-14.166 J4.112
G3 X171.396 Y217.798 I2.629 J-1.445
G2 X171.609 Y214.785 I-1.201 J-1.599
X168.596 Y214.998 I-1.414 J1.414
G3 X164.751 Y215.826 I-2.399 J-1.801
G2 X161.757 Y214.585 I-7.109 J12.924
G3 X159.624 Y211.282 I0.837 J-2.881
G2 X157.785 Y209.005 I-1.98 J-0.282
X155.644 Y211 I-0.141 J1.995
G3 X152.644 Y214 I-3
G1 X90.769
G3 X88.076 Y212.323 J-3
G2 X84.607 Y206.618 I-33.432 J16.427
G3 X84.038 Y205.169 I2.413 J-1.782
X85.063 Y202.563 Z7.898 I2.981 J-0.333 F300
G2 X85.227 Y198.168 Z7.726 I-1.957 J-2.274
X80.832 Y198.331 Z7.553 I-2.121 J2.121
G3 X76.776 Y198.787 Z7.397 I-2.273 J-1.957
G2 X60.182 Y191.914 Z6.763 I-22.131 J29.963
G3 X57.636 Y188.723 Z6.607 I0.446 J-2.967
G2 X54.644 Y185.5 Z6.434 I-2.992 J-0.223
X51.653 Y188.723 Z6.262 J3
G3 X49.107 Y191.914 Z6.105 I-2.992 J0.224
G2 X46.153 Y192.481 Z6 I5.537 J36.836
X32.513 Y198.787 I8.491 J36.27 F750
G3 X28.457 Y198.331 I-1.782 J-2.413
G2 X24.062 Y198.168 I-2.274 J1.957
X24.226 Y202.562 I2.121 J2.121
G3 X24.682 Y206.618 I-1.957 J2.274
G2 Y250.882 I29.963 J22.132
G3 X24.226 Y254.938 I-2.413 J1.782
G2 X24.062 Y259.332 I1.957 J2.274
X28.457 Y259.169 I2.121 J-2.121
G3 X32.513 Y258.713 I2.273 J1.957
G2 X49.107 Y265.586 I22.131 J-29.963
G3 X51.653 Y268.776 I-0.446 J2.967
G2 X54.644 Y272 I2.992 J0.224
X57.636 Y268.776 J-3
G3 X60.182 Y265.586 I2.992 J-0.224
G2 X76.776 Y258.713 I-5.537 J-36.836
G3 X80.832 Y259.169 I1.782 J2.413
G2 X85.227 Y259.332 I2.274 J-1.958
X85.063 Y254.938 I-2.121 J-2.121
G3 X84.607 Y250.882 I1.957 J-2.274
G2 X88.076 Y245.177 I-29.963 J-22.131
G3 X90.769 Y243.5 I2.693 J1.323
G1 X152.644
G3 X155.644 Y246.5 J3
G2 X157.785 Y248.495 I2
X159.624 Y246.218 I-0.141 J-1.995
G3 X161.757 Y242.915 I2.97 J-0.422
G2 X164.751 Y241.674 I-4.115 J-14.164
G3 X168.596 Y242.502 I1.446 J2.629
G2 X171.609 Y242.715 I1.599 J-1.201
X171.396 Y239.702 I-1.414 J-1.414
G3 X170.569 Y235.858 I1.802 J-2.399
G2 X171.809 Y232.864 I-12.926 J-7.106
G3 X175.112 Y230.73 I2.881 J0.836
G2 X177.394 Y228.75 I0.282 J-1.98
X175.112 Y226.77 I-2
G3 X171.809 Y224.636 I-0.422 J-2.97
G2 X170.569 Y221.642 I-14.166 J4.112
G3 X171.396 Y217.798 I2.629 J-1.445
G2 X171.609 Y214.785 I-1.201 J-1.599
X168.596 Y214.998 I-1.414 J1.414
G3 X164.751 Y215.826 I-2.399 J-1.801
G2 X161.757 Y214.585 I-7.109 J12.924
G3 X159.624 Y211.282 I0.837 J-2.881
G2 X157.785 Y209.005 I-1.98 J-0.282
X155.644 Y211 I-0.141 J1.995
G3 X152.644 Y214 I-3
G1 X90.769
G3 X88.076 Y212.323 J-3
G2 X84.607 Y206.618 I-33.432 J16.427
G3 X85.063 Y202.563 I2.413 J-1.782
G2 X85.227 Y198.168 I-1.957 J-2.274
X80.832 Y198.331 I-2.121 J2.121
G3 X76.776 Y198.787 I-2.273 J-1.957
G2 X60.182 Y191.914 I-22.131 J29.963
G3 X57.636 Y188.723 I0.446 J-2.967
G2 X54.644 Y185.5 I-2.992 J-0.223
X51.653 Y188.723 J3
G3 X49.107 Y191.914 I-2.992 J0.224
G2 X46.153 Y192.481 I5.537 J36.836
X32.513 Y198.787 Z5.472 I8.491 J36.27 F300
G3 X28.457 Y198.331 Z5.315 I-1.782 J-2.413
G2 X24.062 Y198.168 Z5.142 I-2.274 J1.957
X24.226 Y202.562 Z4.97 I2.121 J2.121
G3 X24.682 Y206.618 Z4.813 I-1.957 J2.274
G2 X17.396 Y228.343 Z4 I29.963 J22.132
X24.682 Y250.882 I37.248 J0.407 F750
G3 X24.226 Y254.938 I-2.413 J1.782
G2 X24.062 Y259.332 I1.957 J2.274
X28.457 Y259.169 I2.121 J-2.121
G3 X32.513 Y258.713 I2.273 J1.957
G2 X49.107 Y265.586 I22.131 J-29.963
G3 X51.653 Y268.776 I-0.446 J2.967
G2 X54.644 Y272 I2.992 J0.224
X57.636 Y268.776 J-3
G3 X60.182 Y265.586 I2.992 J-0.224
G2 X76.776 Y258.713 I-5.537 J-36.836
G3 X80.832 Y259.169 I1.782 J2.413
G2 X85.227 Y259.332 I2.274 J-1.958
X85.063 Y254.938 I-2.121 J-2.121
G3 X84.607 Y250.882 I1.957 J-2.274
G2 X88.076 Y245.177 I-29.963 J-22.131
G3 X90.769 Y243.5 I2.693 J1.323
G1 X152.644
G3 X155.644 Y246.5 J3
G2 X157.785 Y248.495 I2
X159.624 Y246.218 I-0.141 J-1.995
G3 X161.757 Y242.915 I2.97 J-0.422
G2 X164.751 Y241.674 I-4.115 J-14.164
G3 X168.596 Y242.502 I1.446 J2.629
G2 X171.609 Y242.715 I1.599 J-1.201
X171.396 Y239.702 I-1.414 J-1.414
G3 X170.569 Y235.858 I1.802 J-2.399
G2 X171.809 Y232.864 I-12.926 J-7.106
G3 X175.112 Y230.73 I2.881 J0.836
G2 X177.394 Y228.75 I0.282 J-1.98
X175.112 Y226.77 I-2
G3 X171.809 Y224.636 I-0.422 J-2.97
G2 X170.569 Y221.642 I-14.166 J4.112
G3 X171.396 Y217.798 I2.629 J-1.445
G2 X171.609 Y214.785 I-1.201 J-1.599
X168.596 Y214.998 I-1.414 J1.414
G3 X164.751 Y215.826 I-2.399 J-1.801
G2 X161.757 Y214.585 I-7.109 J12.924
G3 X159.624 Y211.282 I0.837 J-2.881
G2 X157.785 Y209.005 I-1.98 J-0.282
X155.644 Y211 I-0.141 J1.995
G3 X152.644 Y214 I-3
G1 X90.769
G3 X88.076 Y212.323 J-3
G2 X84.607 Y206.618 I-33.432 J16.427
G3 X85.063 Y202.563 I2.413 J-1.782
G2 X85.227 Y198.168 I-1.957 J-2.274
X80.832 Y198.331 I-2.121 J2.121
G3 X76.776 Y198.787 I-2.273 J-1.957
G2 X60.182 Y191.914 I-22.131 J29.963
G3 X57.636 Y188.723 I0.446 J-2.967
G2 X54.644 Y185.5 I-2.992 J-0.223
X51.653 Y188.723 J3
G3 X49.107 Y191.914 I-2.992 J0.224
G2 X32.513 Y198.787 I5.537 J36.836
G3 X28.457 Y198.331 I-1.782 J-2.413
G2 X24.062 Y198.168 I-2.274 J1.957
X24.226 Y202.562 I2.121 J2.121
G3 X24.682 Y206.618 I-1.957 J2.274
G2 X17.396 Y228.343 I29.963 J22.132
X24.682 Y250.882 Z3.158 I37.248 J0.407 F300
G3 X24.226 Y254.938 Z3.001 I-2.413 J1.782
G2 X24.062 Y259.332 Z2.829 I1.957 J2.274
X28.457 Y259.169 Z2.657 I2.121 J-2.121
G3 X32.513 Y258.713 Z2.5 I2.273 J1.957
G2 X45.363 Y264.825 Z2 I22.131 J-29.963
X49.107 Y265.586 I9.281 J-36.075 F750
G3 X51.653 Y268.776 I-0.446 J2.967
G2 X54.644 Y272 I2.992 J0.224
X57.636 Y268.776 J-3
G3 X60.182 Y265.586 I2.992 J-0.224
G2 X76.776 Y258.713 I-5.537 J-36.836
G3 X80.832 Y259.169 I1.782 J2.413
G2 X85.227 Y259.332 I2.274 J-1.958
X85.063 Y254.938 I-2.121 J-2.121
G3 X84.607 Y250.882 I1.957 J-2.274
G2 X88.076 Y245.177 I-29.963 J-22.131
G3 X90.769 Y243.5 I2.693 J1.323
G1 X152.644
G3 X155.644 Y246.5 J3
G2 X157.785 Y248.495 I2
X159.624 Y246.218 I-0.141 J-1.995
G3 X161.757 Y242.915 I2.97 J-0.422
G2 X164.751 Y241.674 I-4.115 J-14.164
G3 X168.596 Y242.502 I1.446 J2.629
G2 X171.609 Y242.715 I1.599 J-1.201
X171.396 Y239.702 I-1.414 J-1.414
G3 X170.569 Y235.858 I1.802 J-2.399
G2 X171.809 Y232.864 I-12.926 J-7.106
G3 X175.112 Y230.73 I2.881 J0.836
G2 X177.394 Y228.75 I0.282 J-1.98
X175.112 Y226.77 I-2
G3 X171.809 Y224.636 I-0.422 J-2.97
G2 X170.569 Y221.642 I-14.166 J4.112
G3 X171.396 Y217.798 I2.629 J-1.445
G2 X171.609 Y214.785 I-1.201 J-1.599
X168.596 Y214.998 I-1.414 J1.414
G3 X164.751 Y215.826 I-2.399 J-1.801
G2 X161.757 Y214.585 I-7.109 J12.924
G3 X159.624 Y211.282 I0.837 J-2.881
G2 X157.785 Y209.005 I-1.98 J-0.282
X155.644 Y211 I-0.141 J1.995
G3 X152.644 Y214 I-3
G1 X90.769
G3 X88.076 Y212.323 J-3
G2 X84.607 Y206.618 I-33.432 J16.427
G3 X85.063 Y202.563 I2.413 J-1.782
G2 X85.227 Y198.168 I-1.957 J-2.274
X80.832 Y198.331 I-2.121 J2.121
G3 X76.776 Y198.787 I-2.273 J-1.957
G2 X60.182 Y191.914 I-22.131 J29.963
G3 X57.636 Y188.723 I0.446 J-2.967
G2 X54.644 Y185.5 I-2.992 J-0.223
X51.653 Y188.723 J3
G3 X49.107 Y191.914 I-2.992 J0.224
G2 X32.513 Y198.787 I5.537 J36.836
G3 X28.457 Y198.331 I-1.782 J-2.413
G2 X24.062 Y198.168 I-2.274 J1.957
X24.226 Y202.562 I2.121 J2.121
G3 X24.682 Y206.618 I-1.957 J2.274
G2 Y250.882 I29.963 J22.132
G3 X24.226 Y254.938 I-2.413 J1.782
G2 X24.062 Y259.332 I1.957 J2.274
X28.457 Y259.169 I2.121 J-2.121
G3 X32.513 Y258.713 I2.273 J1.957
G2 X45.363 Y264.825 I22.131 J-29.963
X49.107 Y265.586 Z1.867 I9.281 J-36.075 F300
G3 X51.653 Y268.776 Z1.71 I-0.446 J2.967
G2 X54.644 Y272 Z1.537 I2.992 J0.224
X57.636 Y268.776 Z1.365 J-3
G3 X60.182 Y265.586 Z1.208 I2.992 J-0.224
G2 X76.776 Y258.713 Z0.575 I-5.537 J-36.836
G3 X80.832 Y259.169 Z0.418 I1.782 J2.413
G2 X85.227 Y259.332 Z0.246 I2.274 J-1.958
X85.063 Y254.938 Z0.073 I-2.121 J-2.121
G3 X84.058 Y253.142 Z0 I1.957 J-2.274
X84.607 Y250.882 I2.962 J-0.478 F750
G2 X88.076 Y245.177 I-29.963 J-22.131
G3 X90.769 Y243.5 I2.693 J1.323
G1 X116.707
Z1.5
X126.707
Z0 F30
X152.644 F750
G3 X155.644 Y246.5 J3
G2 X157.785 Y248.495 I2
X159.624 Y246.218 I-0.141 J-1.995
G3 X161.757 Y242.915 I2.97 J-0.422
G2 X164.751 Y241.674 I-4.115 J-14.164
G3 X168.596 Y242.502 I1.446 J2.629
G2 X171.609 Y242.715 I1.599 J-1.201
X171.396 Y239.702 I-1.414 J-1.414
G3 X170.569 Y235.858 I1.802 J-2.399
G2 X171.809 Y232.864 I-12.926 J-7.106
G3 X175.112 Y230.73 I2.881 J0.836
G2 X177.394 Y228.75 I0.282 J-1.98
X175.112 Y226.77 I-2
G3 X171.809 Y224.636 I-0.422 J-2.97
G2 X170.569 Y221.642 I-14.166 J4.112
G3 X171.396 Y217.798 I2.629 J-1.445
G2 X171.609 Y214.785 I-1.201 J-1.599
X168.596 Y214.998 I-1.414 J1.414
G3 X164.751 Y215.826 I-2.399 J-1.801
G2 X161.757 Y214.585 I-7.109 J12.924
G3 X159.624 Y211.282 I0.837 J-2.881
G2 X157.785 Y209.005 I-1.98 J-0.282
X155.644 Y211 I-0.141 J1.995
G3 X152.644 Y214 I-3
G1 X126.707
Z1.5
X116.707
Z0 F30
X90.769 F750
G3 X88.076 Y212.323 J-3
G2 X84.607 Y206.618 I-33.432 J16.427
G3 X85.063 Y202.563 I2.413 J-1.782
G2 X85.227 Y198.168 I-1.957 J-2.274
X80.832 Y198.331 I-2.121 J2.121
G3 X76.776 Y198.787 I-2.273 J-1.957
G2 X60.182 Y191.914 I-22.131 J29.963
G3 X57.636 Y188.723 I0.446 J-2.967
G2 X54.644 Y185.5 I-2.992 J-0.223
X51.653 Y188.723 J3
G3 X49.107 Y191.914 I-2.992 J0.224
G2 X32.513 Y198.787 I5.537 J36.836
G3 X28.457 Y198.331 I-1.782 J-2.413
G2 X24.062 Y198.168 I-2.274 J1.957
X24.226 Y202.562 I2.121 J2.121
G3 X24.682 Y206.618 I-1.957 J2.274
G2 X17.731 Y223.75 I29.963 J22.132
G1 Z1.5
G2 Y233.75 I36.913 J5
G1 Z0 F30
G2 X24.682 Y250.882 I36.913 J-5 F750
G3 X24.226 Y254.938 I-2.413 J1.782
G2 X24.062 Y259.332 I1.957 J2.274
X28.457 Y259.169 I2.121 J-2.121
G3 X32.513 Y258.713 I2.273 J1.957
G2 X49.107 Y265.586 I22.131 J-29.963
G3 X51.653 Y268.776 I-0.446 J2.967
G2 X54.644 Y272 I2.992 J0.224
X57.636 Y268.776 J-3
G3 X60.182 Y265.586 I2.992 J-0.224
G2 X76.776 Y258.713 I-5.537 J-36.836
G3 X80.832 Y259.169 I1.782 J2.413
G2 X85.227 Y259.332 I2.274 J-1.958
X85.063 Y254.938 I-2.121 J-2.121
G3 X84.607 Y250.882 I1.957 J-2.274
G2 X88.076 Y245.177 I-29.963 J-22.131
G3 X90.769 Y243.5 I2.693 J1.323
G1 X116.707
Z1.5
X126.707
Z0 F30
X152.644 F750
G3 X155.644 Y246.5 J3
G2 X157.785 Y248.495 I2
X159.624 Y246.218 I-0.141 J-1.995
G3 X161.757 Y242.915 I2.97 J-0.422
G2 X164.751 Y241.674 I-4.115 J-14.164
G3 X168.596 Y242.502 I1.446 J2.629
G2 X171.609 Y242.715 I1.599 J-1.201
X171.396 Y239.702 I-1.414 J-1.414
G3 X170.569 Y235.858 I1.802 J-2.399
G2 X171.809 Y232.864 I-12.926 J-7.106
G3 X175.112 Y230.73 I2.881 J0.836
G2 X177.394 Y228.75 I0.282 J-1.98
X175.112 Y226.77 I-2
G3 X171.809 Y224.636 I-0.422 J-2.97
G2 X170.569 Y221.642 I-14.166 J4.112
G3 X171.396 Y217.798 I2.629 J-1.445
G2 X171.609 Y214.785 I-1.201 J-1.599
X168.596 Y214.998 I-1.414 J1.414
G3 X164.751 Y215.826 I-2.399 J-1.801
G2 X161.757 Y214.585 I-7.109 J12.924
G3 X159.624 Y211.282 I0.837 J-2.881
G2 X157.785 Y209.005 I-1.98 J-0.282
X155.644 Y211 I-0.141 J1.995
G3 X152.644 Y214 I-3
G1 X126.707
Z1.5
X116.707
Z0 F30
X90.769 F750
G3 X88.076 Y212.323 J-3
G2 X84.607 Y206.618 I-33.432 J16.427
G3 X85.063 Y202.563 I2.413 J-1.782
G2 X85.227 Y198.168 I-1.957 J-2.274
X80.832 Y198.331 I-2.121 J2.121
G3 X76.776 Y198.787 I-2.273 J-1.957
G2 X60.182 Y191.914 I-22.131 J29.963
G3 X57.636 Y188.723 I0.446 J-2.967
G2 X54.644 Y185.5 I-2.992 J-0.223
X51.653 Y188.723 J3
G3 X49.107 Y191.914 I-2.992 J0.224
G2 X32.513 Y198.787 I5.537 J36.836
G3 X28.457 Y198.331 I-1.782 J-2.413
G2 X24.062 Y198.168 I-2.274 J1.957
X24.226 Y202.562 I2.121 J2.121
G3 X24.682 Y206.618 I-1.957 J2.274
G2 X17.731 Y223.75 I29.963 J22.132
G1 Z1.5
G2 Y233.75 I36.913 J5
G1 Z0 F30
G2 X24.682 Y250.882 I36.913 J-5 F750
G3 X24.226 Y254.938 I-2.413 J1.782
G2 X24.062 Y259.332 I1.957 J2.274
X28.457 Y259.169 I2.121 J-2.121
G3 X32.513 Y258.713 I2.273 J1.957
G2 X49.107 Y265.586 I22.131 J-29.963
G3 X51.653 Y268.776 I-0.446 J2.967
G2 X54.644 Y272 I2.992 J0.224
X57.636 Y268.776 J-3
G3 X60.182 Y265.586 I2.992 J-0.224
G2 X76.776 Y258.713 I-5.537 J-36.836
G3 X80.832 Y259.169 I1.782 J2.413
G2 X85.227 Y259.332 I2.274 J-1.958
X85.063 Y254.938 I-2.121 J-2.121
G3 X84.058 Y253.142 I1.957 J-2.274
G2 X83.37 Y252.645 I-0.592 J0.096 F300
G1 X82.778 Y252.741
X82.685 Y252.756 Z0.007
X82.595 Y252.77 Z0.029
X82.509 Y252.784 Z0.065
X82.43 Y252.797 Z0.115
X82.359 Y252.809 Z0.176
X82.299 Y252.818 Z0.247
X82.25 Y252.826 Z0.328
X82.215 Y252.832 Z0.415
X82.193 Y252.835 Z0.506
X82.186 Y252.837 Z0.6
G0 Z23
X33.401 Y325.689
G1 Z21.1 F300
X33.398 Y325.682 Z21.006 F30
X33.391 Y325.661 Z20.915
X33.38 Y325.626 Z20.828
X33.365 Y325.58 Z20.747
X33.346 Y325.522 Z20.676
X33.324 Y325.454 Z20.615
X33.299 Y325.377 Z20.565
X33.272 Y325.295 Z20.529
X33.243 Y325.208 Z20.507
X33.214 Y325.118 Z20.5
X33.027 Y324.548 F300
G2 X32.27 Y324.165 I-0.57 J0.187
G3 X29.062 Y323.271 Z20.377 I-0.934 J-2.851
G2 X24.667 Y323.107 Z20.204 I-2.274 J1.957
X24.831 Y327.502 Z20.032 I2.121 J2.121
G3 X25.287 Y331.558 Z19.875 I-1.957 J2.274
G2 X18.414 Y348.152 Z19.242 I29.962 J22.132
G3 X15.224 Y350.698 Z19.085 I-2.967 J-0.446
G2 X12 Y353.69 Z18.913 I-0.224 J2.992
X15.224 Y356.681 Z18.74 I3
G3 X18.414 Y359.227 Z18.583 I0.224 J2.992
G2 X25.287 Y375.822 Z17.95 I36.836 J-5.537
G3 X24.832 Y379.878 Z17.793 I-2.413 J1.782
G2 X24.668 Y384.272 Z17.621 I1.957 J2.273
X29.062 Y384.108 Z17.449 I2.121 J-2.121
G3 X33.118 Y383.652 Z17.292 I2.274 J1.957
G2 X49.713 Y390.525 Z16.658 I22.131 J-29.962
G3 X52.258 Y393.716 Z16.502 I-0.446 J2.967
G2 X55.25 Y396.94 Z16.329 I2.992 J0.224
X58.242 Y393.716 Z16.157 J-3
G3 X60.787 Y390.525 Z16 I2.992 J-0.224
G2 X77.382 Y383.652 I-5.537 J-36.836 F750
G3 X81.438 Y384.108 I1.782 J2.413
G2 X85.832 Y384.272 I2.273 J-1.957
X85.668 Y379.878 I-2.121 J-2.121
G3 X85.213 Y375.822 I1.957 J-2.273
G2 X88.568 Y370.348 I-29.963 J-22.132
G3 X91.251 Y368.69 I2.683 J1.342
G1 X148.5
G3 X151.5 Y371.69 J3
G2 X153.64 Y373.685 I2
X155.481 Y371.412 I-0.139 J-1.995
G3 X157.627 Y368.111 I2.971 J-0.417
G2 X160.78 Y366.805 I-4.125 J-14.421
G3 X164.631 Y367.621 I1.456 J2.623
G2 X167.642 Y367.831 I1.597 J-1.204
X167.432 Y364.82 I-1.414 J-1.414
G3 X166.615 Y360.969 I1.806 J-2.395
G2 X167.922 Y357.815 I-13.114 J-7.282
G3 X171.222 Y355.67 I2.884 J0.826
G2 X173.5 Y353.69 I0.278 J-1.981
X171.222 Y351.709 I-2
G3 X167.922 Y349.564 I-0.416 J-2.971
G2 X166.615 Y346.41 I-14.421 J4.128
G3 X167.432 Y342.559 I2.623 J-1.456
G2 X167.642 Y339.548 I-1.204 J-1.597
X164.631 Y339.758 I-1.414 J1.414
G3 X160.78 Y340.574 I-2.395 J-1.807
G2 X157.627 Y339.268 I-7.279 J13.116
G3 X155.481 Y335.968 I0.825 J-2.884
G2 X153.639 Y333.695 I-1.981 J-0.278
X151.5 Y335.69 I-0.139 J1.995
G3 X148.5 Y338.69 I-3
G1 X91.251
G3 X88.568 Y337.032 J-3
G2 X85.213 Y331.558 I-33.318 J16.658
G3 X85.669 Y327.502 I2.413 J-1.782
G2 X85.833 Y323.107 I-1.957 J-2.274
X81.438 Y323.271 I-2.121 J2.121
G3 X77.382 Y323.727 I-2.274 J-1.957
G2 X60.787 Y316.854 I-22.131 J29.963
G3 X58.242 Y313.664 I0.446 J-2.967
G2 X55.25 Y310.44 I-2.992 J-0.224
X52.258 Y313.664 J3
G3 X49.713 Y316.854 I-2.992 J0.223
G2 X33.118 Y323.727 I5.537 J36.836
G3 X29.062 Y323.271 I-1.782 J-2.413
G2 X24.667 Y323.107 I-2.274 J1.957
X24.831 Y327.502 I2.121 J2.121
G3 X25.287 Y331.558 I-1.957 J2.274
G2 X18.414 Y348.152 I29.962 J22.132
G3 X15.224 Y350.698 I-2.967 J-0.446
G2 X12 Y353.69 I-0.224 J2.992
X15.224 Y356.681 I3
G3 X18.414 Y359.227 I0.224 J2.992
G2 X25.287 Y375.822 I36.836 J-5.537
G3 X24.832 Y379.878 I-2.413 J1.782
G2 X24.668 Y384.272 I1.957 J2.273
X29.062 Y384.108 I2.121 J-2.121
G3 X33.118 Y383.652 I2.274 J1.957
G2 X49.713 Y390.525 I22.131 J-29.962
G3 X52.258 Y393.716 I-0.446 J2.967
G2 X55.25 Y396.94 I2.992 J0.224
X58.242 Y393.716 J-3
G3 X60.787 Y390.525 I2.992 J-0.224
G2 X77.382 Y383.652 Z15.367 I-5.537 J-36.836 F300
G3 X81.438 Y384.108 Z15.21 I1.782 J2.413
G2 X85.832 Y384.272 Z15.037 I2.273 J-1.957
X85.668 Y379.878 Z14.865 I-2.121 J-2.121
G3 X85.213 Y375.822 Z14.708 I1.957 J-2.273
G2 X88.568 Y370.348 Z14.484 I-29.963 J-22.132
G3 X91.251 Y368.69 Z14.368 I2.683 J1.342
G1 X101.785 Z14
X148.5 F750
G3 X151.5 Y371.69 J3
G2 X153.64 Y373.685 I2
X155.481 Y371.412 I-0.139 J-1.995
G3 X157.627 Y368.111 I2.971 J-0.417
G2 X160.78 Y366.805 I-4.125 J-14.421
G3 X164.631 Y367.621 I1.456 J2.623
G2 X167.642 Y367.831 I1.597 J-1.204
X167.432 Y364.82 I-1.414 J-1.414
G3 X166.615 Y360.969 I1.806 J-2.395
G2 X167.922 Y357.815 I-13.114 J-7.282
G3 X171.222 Y355.67 I2.884 J0.826
G2 X173.5 Y353.69 I0.278 J-1.981
X171.222 Y351.709 I-2
G3 X167.922 Y349.564 I-0.416 J-2.971
G2 X166.615 Y346.41 I-14.421 J4.128
G3 X167.432 Y342.559 I2.623 J-1.456
G2 X167.642 Y339.548 I-1.204 J-1.597
X164.631 Y339.758 I-1.414 J1.414
G3 X160.78 Y340.574 I-2.395 J-1.807
G2 X157.627 Y339.268 I-7.279 J13.116
G3 X155.481 Y335.968 I0.825 J-2.884
G2 X153.639 Y333.695 I-1.981 J-0.278
X151.5 Y335.69 I-0.139 J1.995
G3 X148.5 Y338.69 I-3
G1 X91.251
G3 X88.568 Y337.032 J-3
G2 X85.213 Y331.558 I-33.318 J16.658
G3 X85.669 Y327.502 I2.413 J-1.782
G2 X85.833 Y323.107 I-1.957 J-2.274
X81.438 Y323.271 I-2.121 J2.121
G3 X77.382 Y323.727 I-2.274 J-1.957
G2 X60.787 Y316.854 I-22.131 J29.963
G3 X58.242 Y313.664 I0.446 J-2.967
G2 X55.25 Y310.44 I-2.992 J-0.224
X52.258 Y313.664 J3
G3 X49.713 Y316.854 I-2.992 J0.223
G2 X33.118 Y323.727 I5.537 J36.836
G3 X29.062 Y323.271 I-1.782 J-2.413
G2 X24.667 Y323.107 I-2.274 J1.957
X24.831 Y327.502 I2.121 J2.121
G3 X25.287 Y331.558 I-1.957 J2.274
G2 X18.414 Y348.152 I29.962 J22.132
G3 X15.224 Y350.698 I-2.967 J-0.446
G2 X12 Y353.69 I-0.224 J2.992
X15.224 Y356.681 I3
G3 X18.414 Y359.227 I0.224 J2.992
G2 X25.287 Y375.822 I36.836 J-5.537
G3 X24.832 Y379.878 I-2.413 J1.782
G2 X24.668 Y384.272 I1.957 J2.273
X29.062 Y384.108 I2.121 J-2.121
G3 X33.118 Y383.652 I2.274 J1.957
G2 X49.713 Y390.525 I22.131 J-29.962
G3 X52.258 Y393.716 I-0.446 J2.967
G2 X55.25 Y396.94 I2.992 J0.224
X58.242 Y393.716 J-3
G3 X60.787 Y390.525 I2.992 J-0.224
G2 X77.382 Y383.652 I-5.537 J-36.836
G3 X81.438 Y384.108 I1.782 J2.413
G2 X85.832 Y384.272 I2.273 J-1.957
X85.668 Y379.878 I-2.121 J-2.121
G3 X85.213 Y375.822 I1.957 J-2.273
G2 X88.568 Y370.348 I-29.963 J-22.132
G3 X91.251 Y368.69 I2.683 J1.342
G1 X101.785
X148.5 Z12.369 F300
G3 X151.5 Y371.69 Z12.204 J3
G2 X153.64 Y373.685 Z12.09 I2
X155.453 Y372.125 Z12 I-0.139 J-1.995
X155.481 Y371.412 I-1.952 J-0.435 F750
G3 X157.627 Y368.111 I2.971 J-0.417
G2 X160.78 Y366.805 I-4.125 J-14.421
G3 X164.631 Y367.621 I1.456 J2.623
G2 X167.642 Y367.831 I1.597 J-1.204
X167.432 Y364.82 I-1.414 J-1.414
G3 X166.615 Y360.969 I1.806 J-2.395
G2 X167.922 Y357.815 I-13.114 J-7.282
G3 X171.222 Y355.67 I2.884 J0.826
G2 X173.5 Y353.69 I0.278 J-1.981
X171.222 Y351.709 I-2
G3 X167.922 Y349.564 I-0.416 J-2.971
G2 X166.615 Y346.41 I-14.421 J4.128
G3 X167.432 Y342.559 I2.623 J-1.456
G2 X167.642 Y339.548 I-1.204 J-1.597
X164.631 Y339.758 I-1.414 J1.414
G3 X160.78 Y340.574 I-2.395 J-1.807
G2 X157.627 Y339.268 I-7.279 J13.116
G3 X155.481 Y335.968 I0.825 J-2.884
G2 X153.639 Y333.695 I-1.981 J-0.278
X151.5 Y335.69 I-0.139 J1.995
G3 X148.5 Y338.69 I-3
G1 X91.251
G3 X88.568 Y337.032 J-3
G2 X85.213 Y331.558 I-33.318 J16.658
G3 X85.669 Y327.502 I2.413 J-1.782
G2 X85.833 Y323.107 I-1.957 J-2.274
X81.438 Y323.271 I-2.121 J2.121
G3 X77.382 Y323.727 I-2.274 J-1.957
G2 X60.787 Y316.854 I-22.131 J29.963
G3 X58.242 Y313.664 I0.446 J-2.967
G2 X55.25 Y310.44 I-2.992 J-0.224
X52.258 Y313.664 J3
G3 X49.713 Y316.854 I-2.992 J0.223
G2 X33.118 Y323.727 I5.537 J36.836
G3 X29.062 Y323.271 I-1.782 J-2.413
G2 X24.667 Y323.107 I-2.274 J1.957
X24.831 Y327.502 I2.121 J2.121
G3 X25.287 Y331.558 I-1.957 J2.274
G2 X18.414 Y348.152 I29.962 J22.132
G3 X15.224 Y350.698 I-2.967 J-0.446
G2 X12 Y353.69 I-0.224 J2.992
X15.224 Y356.681 I3
G3 X18.414 Y359.227 I0.224 J2.992
G2 X25.287 Y375.822 I36.836 J-5.537
G3 X24.832 Y379.878 I-2.413 J1.782
G2 X24.668 Y384.272 I1.957 J2.273
X29.062 Y384.108 I2.121 J-2.121
G3 X33.118 Y383.652 I2.274 J1.957
G2 X49.713 Y390.525 I22.131 J-29.962
G3 X52.258 Y393.716 I-0.446 J2.967
G2 X55.25 Y396.94 I2.992 J0.224
X58.242 Y393.716 J-3
G3 X60.787 Y390.525 I2.992 J-0.224
G2 X77.382 Y383.652 I-5.537 J-36.836
G3 X81.438 Y384.108 I1.782 J2.413
G2 X85.832 Y384.272 I2.273 J-1.957
X85.668 Y379.878 I-2.121 J-2.121
G3 X85.213 Y375.822 I1.957 J-2.273
G2 X88.568 Y370.348 I-29.963 J-22.132
G3 X91.251 Y368.69 I2.683 J1.342
G1 X148.5
G3 X151.5 Y371.69 J3
G2 X155.453 Y372.125 I2
X155.481 Y371.412 Z11.975 I-1.952 J-0.435 F300
G3 X157.627 Y368.111 Z11.825 I2.971 J-0.417
G2 X160.78 Y366.805 Z11.706 I-4.125 J-14.421
G3 X164.631 Y367.621 Z11.556 I1.456 J2.623
G2 X167.642 Y367.831 Z11.436 I1.597 J-1.204
X167.432 Y364.82 Z11.317 I-1.414 J-1.414
G3 X166.615 Y360.969 Z11.167 I1.806 J-2.395
G2 X167.922 Y357.815 Z11.047 I-13.114 J-7.282
G3 X171.222 Y355.67 Z10.897 I2.884 J0.826
G2 X173.5 Y353.69 Z10.778 I0.278 J-1.981
X171.222 Y351.709 Z10.658 I-2
G3 X167.922 Y349.564 Z10.509 I-0.416 J-2.971
G2 X166.615 Y346.41 Z10.389 I-14.421 J4.128
G3 X167.432 Y342.559 Z10.239 I2.623 J-1.456
G2 X167.642 Y339.548 Z10.12 I-1.204 J-1.597
X164.631 Y339.758 Z10 I-1.414 J1.414
G3 X160.78 Y340.574 I-2.395 J-1.807 F750
G2 X157.627 Y339.268 I-7.279 J13.116
G3 X155.481 Y335.968 I0.825 J-2.884
G2 X153.639 Y333.695 I-1.981 J-0.278
X151.5 Y335.69 I-0.139 J1.995
G3 X148.5 Y338.69 I-3
G1 X91.251
G3 X88.568 Y337.032 J-3
G2 X85.213 Y331.558 I-33.318 J16.658
G3 X85.669 Y327.502 I2.413 J-1.782
G2 X85.833 Y323.107 I-1.957 J-2.274
X81.438 Y323.271 I-2.121 J2.121
G3 X77.382 Y323.727 I-2.274 J-1.957
G2 X60.787 Y316.854 I-22.131 J29.963
G3 X58.242 Y313.664 I0.446 J-2.967
G2 X55.25 Y310.44 I-2.992 J-0.224
X52.258 Y313.664 J3
G3 X49.713 Y316.854 I-2.992 J0.223
G2 X33.118 Y323.727 I5.537 J36.836
G3 X29.062 Y323.271 I-1.782 J-2.413
G2 X24.667 Y323.107 I-2.274 J1.957
X24.831 Y327.502 I2.121 J2.121
G3 X25.287 Y331.558 I-1.957 J2.274
G2 X18.414 Y348.152 I29.962 J22.132
G3 X15.224 Y350.698 I-2.967 J-0.446
G2 X12 Y353.69 I-0.224 J2.992
X15.224 Y356.681 I3
G3 X18.414 Y359.227 I0.224 J2.992
G2 X25.287 Y375.822 I36.836 J-5.537
G3 X24.832 Y379.878 I-2.413 J1.782
G2 X24.668 Y384.272 I1.957 J2.273
X29.062 Y384.108 I2.121 J-2.121
G3 X33.118 Y383.652 I2.274 J1.957
G2 X49.713 Y390.525 I22.131 J-29.962
G3 X52.258 Y393.716 I-0.446 J2.967
G2 X55.25 Y396.94 I2.992 J0.224
X58.242 Y393.716 J-3
G3 X60.787 Y390.525 I2.992 J-0.224
G2 X77.382 Y383.652 I-5.537 J-36.836
G3 X81.438 Y384.108 I1.782 J2.413
G2 X85.832 Y384.272 I2.273 J-1.957
X85.668 Y379.878 I-2.121 J-2.121
G3 X85.213 Y375.822 I1.957 J-2.273
G2 X88.568 Y370.348 I-29.963 J-22.132
G3 X91.251 Y368.69 I2.683 J1.342
G1 X148.5
G3 X151.5 Y371.69 J3
G2 X155.453 Y372.125 I2
X155.481 Y371.412 I-1.952 J-0.435
G3 X157.627 Y368.111 I2.971 J-0.417
G2 X160.78 Y366.805 I-4.125 J-14.421
G3 X164.631 Y367.621 I1.456 J2.623
G2 X167.642 Y367.831 I1.597 J-1.204
X167.432 Y364.82 I-1.414 J-1.414
G3 X166.615 Y360.969 I1.806 J-2.395
G2 X167.922 Y357.815 I-13.114 J-7.282
G3 X171.222 Y355.67 I2.884 J0.826
G2 X173.5 Y353.69 I0.278 J-1.981
X171.222 Y351.709 I-2
G3 X167.922 Y349.564 I-0.416 J-2.971
G2 X166.615 Y346.41 I-14.421 J4.128
G3 X167.432 Y342.559 I2.623 J-1.456
G2 X167.642 Y339.548 I-1.204 J-1.597
X164.631 Y339.758 I-1.414 J1.414
G3 X160.78 Y340.574 Z9.85 I-2.395 J-1.807 F300
G2 X157.627 Y339.268 Z9.731 I-7.279 J13.116
G3 X155.481 Y335.968 Z9.581 I0.825 J-2.884
G2 X153.639 Y333.695 Z9.466 I-1.981 J-0.278
X151.5 Y335.69 Z9.351 I-0.139 J1.995
G3 X148.5 Y338.69 Z9.187 I-3
G1 X114.511 Z8
X91.251 F750
G3 X88.568 Y337.032 J-3
G2 X85.213 Y331.558 I-33.318 J16.658
G3 X85.669 Y327.502 I2.413 J-1.782
G2 X85.833 Y323.107 I-1.957 J-2.274
X81.438 Y323.271 I-2.121 J2.121
G3 X77.382 Y323.727 I-2.274 J-1.957
G2 X60.787 Y316.854 I-22.131 J29.963
G3 X58.242 Y313.664 I0.446 J-2.967
G2 X55.25 Y310.44 I-2.992 J-0.224
X52.258 Y313.664 J3
G3 X49.713 Y316.854 I-2.992 J0.223
G2 X33.118 Y323.727 I5.537 J36.836
G3 X29.062 Y323.271 I-1.782 J-2.413
G2 X24.667 Y323.107 I-2.274 J1.957
X24.831 Y327.502 I2.121 J2.121
G3 X25.287 Y331.558 I-1.957 J2.274
G2 X18.414 Y348.152 I29.962 J22.132
G3 X15.224 Y350.698 I-2.967 J-0.446
G2 X12 Y353.69 I-0.224 J2.992
X15.224 Y356.681 I3
G3 X18.414 Y359.227 I0.224 J2.992
G2 X25.287 Y375.822 I36.836 J-5.537
G3 X24.832 Y379.878 I-2.413 J1.782
G2 X24.668 Y384.272 I1.957 J2.273
X29.062 Y384.108 I2.121 J-2.121
G3 X33.118 Y383.652 I2.274 J1.957
G2 X49.713 Y390.525 I22.131 J-29.962
G3 X52.258 Y393.716 I-0.446 J2.967
G2 X55.25 Y396.94 I2.992 J0.224
X58.242 Y393.716 J-3
G3 X60.787 Y390.525 I2.992 J-0.224
G2 X77.382 Y383.652 I-5.537 J-36.836
G3 X81.438 Y384.108 I1.782 J2.413
G2 X85.832 Y384.272 I2.273 J-1.957
X85.668 Y379.878 I-2.121 J-2.121
G3 X85.213 Y375.822 I1.957 J-2.273
G2 X88.568 Y370.348 I-29.963 J-22.132
G3 X91.251 Y368.69 I2.683 J1.342
G1 X148.5
G3 X151.5 Y371.69 J3
G2 X153.64 Y373.685 I2
X155.481 Y371.412 I-0.139 J-1.995
G3 X157.627 Y368.111 I2.971 J-0.417
G2 X160.78 Y366.805 I-4.125 J-14.421
G3 X164.631 Y367.621 I1.456 J2.623
G2 X167.642 Y367.831 I1.597 J-1.204
X167.432 Y364.82 I-1.414 J-1.414
G3 X166.615 Y360.969 I1.806 J-2.395
G2 X167.922 Y357.815 I-13.114 J-7.282
G3 X171.222 Y355.67 I2.884 J0.826
G2 X173.5 Y353.69 I0.278 J-1.981
X171.222 Y351.709 I-2
G3 X167.922 Y349.564 I-0.416 J-2.971
G2 X166.615 Y346.41 I-14.421 J4.128
G3 X167.432 Y342.559 I2.623 J-1.456
G2 X167.642 Y339.548 I-1.204 J-1.597
X164.631 Y339.758 I-1.414 J1.414
G3 X160.78 Y340.574 I-2.395 J-1.807
G2 X157.627 Y339.268 I-7.279 J13.116
G3 X155.481 Y335.968 I0.825 J-2.884
G2 X153.639 Y333.695 I-1.981 J-0.278
X151.5 Y335.69 I-0.139 J1.995
G3 X148.5 Y338.69 I-3
G1 X114.511
X91.251 Z7.188 F300
G3 X88.568 Y337.032 Z7.072 J-3
G2 X85.213 Y331.558 Z6.847 I-33.318 J16.658
G3 X85.669 Y327.502 Z6.691 I2.413 J-1.782
G2 X85.833 Y323.107 Z6.518 I-1.957 J-2.274
X81.438 Y323.271 Z6.346 I-2.121 J2.121
G3 X77.382 Y323.727 Z6.189 I-2.274 J-1.957
G2 X72.81 Y320.838 Z6 I-22.131 J29.963
X60.787 Y316.854 I-17.56 J32.852 F750
G3 X58.242 Y313.664 I0.446 J-2.967
G2 X55.25 Y310.44 I-2.992 J-0.224
X52.258 Y313.664 J3
G3 X49.713 Y316.854 I-2.992 J0.223
G2 X33.118 Y323.727 I5.537 J36.836
G3 X29.062 Y323.271 I-1.782 J-2.413
G2 X24.667 Y323.107 I-2.274 J1.957
X24.831 Y327.502 I2.121 J2.121
G3 X25.287 Y331.558 I-1.957 J2.274
G2 X18.414 Y348.152 I29.962 J22.132
G3 X15.224 Y350.698 I-2.967 J-0.446
G2 X12 Y353.69 I-0.224 J2.992
X15.224 Y356.681 I3
G3 X18.414 Y359.227 I0.224 J2.992
G2 X25.287 Y375.822 I36.836 J-5.537
G3 X24.832 Y379.878 I-2.413 J1.782
G2 X24.668 Y384.272 I1.957 J2.273
X29.062 Y384.108 I2.121 J-2.121
G3 X33.118 Y383.652 I2.274 J1.957
G2 X49.713 Y390.525 I22.131 J-29.962
G3 X52.258 Y393.716 I-0.446 J2.967
G2 X55.25 Y396.94 I2.992 J0.224
X58.242 Y393.716 J-3
G3 X60.787 Y390.525 I2.992 J-0.224
G2 X77.382 Y383.652 I-5.537 J-36.836
G3 X81.438 Y384.108 I1.782 J2.413
G2 X85.832 Y384.272 I2.273 J-1.957
X85.668 Y379.878 I-2.121 J-2.121
G3 X85.213 Y375.822 I1.957 J-2.273
G2 X88.568 Y370.348 I-29.963 J-22.132
G3 X91.251 Y368.69 I2.683 J1.342
G1 X148.5
G3 X151.5 Y371.69 J3
G2 X153.64 Y373.685 I2
X155.481 Y371.412 I-0.139 J-1.995
G3 X157.627 Y368.111 I2.971 J-0.417
G2 X160.78 Y366.805 I-4.125 J-14.421
G3 X164.631 Y367.621 I1.456 J2.623
G2 X167.642 Y367.831 I1.597 J-1.204
X167.432 Y364.82 I-1.414 J-1.414
G3 X166.615 Y360.969 I1.806 J-2.395
G2 X167.922 Y357.815 I-13.114 J-7.282
G3 X171.222 Y355.67 I2.884 J0.826
G2 X173.5 Y353.69 I0.278 J-1.981
X171.222 Y351.709 I-2
G3 X167.922 Y349.564 I-0.416 J-2.971
G2 X166.615 Y346.41 I-14.421 J4.128
G3 X167.432 Y342.559 I2.623 J-1.456
G2 X167.642 Y339.548 I-1.204 J-1.597
X164.631 Y339.758 I-1.414 J1.414
G3 X160.78 Y340.574 I-2.395 J-1.807
G2 X157.627 Y339.268 I-7.279 J13.116
G3 X155.481 Y335.968 I0.825 J-2.884
G2 X153.639 Y333.695 I-1.981 J-0.278
X151.5 Y335.69 I-0.139 J1.995
G3 X148.5 Y338.69 I-3
G1 X91.251
G3 X88.568 Y337.032 J-3
G2 X85.213 Y331.558 I-33.318 J16.658
G3 X85.669 Y327.502 I2.413 J-1.782
G2 X85.833 Y323.107 I-1.957 J-2.274
X81.438 Y323.271 I-2.121 J2.121
G3 X77.382 Y323.727 I-2.274 J-1.957
G2 X72.81 Y320.838 I-22.131 J29.963
X60.787 Y316.854 Z5.556 I-17.56 J32.852 F300
G3 X58.242 Y313.664 Z5.399 I0.446 J-2.967
G2 X55.25 Y310.44 Z5.226 I-2.992 J-0.224
X52.258 Y313.664 Z5.054 J3
G3 X49.713 Y316.854 Z4.897 I-2.992 J0.223
G2 X33.118 Y323.727 Z4.264 I5.537 J36.836
G3 X29.062 Y323.271 Z4.107 I-1.782 J-2.413
G2 X26.304 Y322.268 Z4 I-2.274 J1.957
X24.667 Y323.107 I0.485 J2.961 F750
X24.831 Y327.502 I2.121 J2.121
G3 X25.287 Y331.558 I-1.957 J2.274
G2 X18.414 Y348.152 I29.962 J22.132
G3 X15.224 Y350.698 I-2.967 J-0.446
G2 X12 Y353.69 I-0.224 J2.992
X15.224 Y356.681 I3
G3 X18.414 Y359.227 I0.224 J2.992
G2 X25.287 Y375.822 I36.836 J-5.537
G3 X24.832 Y379.878 I-2.413 J1.782
G2 X24.668 Y384.272 I1.957 J2.273
X29.062 Y384.108 I2.121 J-2.121
G3 X33.118 Y383.652 I2.274 J1.957
G2 X49.713 Y390.525 I22.131 J-29.962
G3 X52.258 Y393.716 I-0.446 J2.967
G2 X55.25 Y396.94 I2.992 J0.224
X58.242 Y393.716 J-3
G3 X60.787 Y390.525 I2.992 J-0.224
G2 X77.382 Y383.652 I-5.537 J-36.836
G3 X81.438 Y384.108 I1.782 J2.413
G2 X85.832 Y384.272 I2.273 J-1.957
X85.668 Y379.878 I-2.121 J-2.121
G3 X85.213 Y375.822 I1.957 J-2.273
G2 X88.568 Y370.348 I-29.963 J-22.132
G3 X91.251 Y368.69 I2.683 J1.342
G1 X148.5
G3 X151.5 Y371.69 J3
G2 X153.64 Y373.685 I2
X155.481 Y371.412 I-0.139 J-1.995
G3 X157.627 Y368.111 I2.971 J-0.417
G2 X160.78 Y366.805 I-4.125 J-14.421
G3 X164.631 Y367.621 I1.456 J2.623
G2 X167.642 Y367.831 I1.597 J-1.204
X167.432 Y364.82 I-1.414 J-1.414
G3 X166.615 Y360.969 I1.806 J-2.395
G2 X167.922 Y357.815 I-13.114 J-7.282
G3 X171.222 Y355.67 I2.884 J0.826
G2 X173.5 Y353.69 I0.278 J-1.981
X171.222 Y351.709 I-2
G3 X167.922 Y349.564 I-0.416 J-2.971
G2 X166.615 Y346.41 I-14.421 J4.128
G3 X167.432 Y342.559 I2.623 J-1.456
G2 X167.642 Y339.548 I-1.204 J-1.597
X164.631 Y339.758 I-1.414 J1.414
G3 X160.78 Y340.574 I-2.395 J-1.807
G2 X157.627 Y339.268 I-7.279 J13.116
G3 X155.481 Y335.968 I0.825 J-2.884
G2 X153.639 Y333.695 I-1.981 J-0.278
X151.5 Y335.69 I-0.139 J1.995
G3 X148.5 Y338.69 I-3
G1 X91.251
G3 X88.568 Y337.032 J-3
G2 X85.213 Y331.558 I-33.318 J16.658
G3 X85.669 Y327.502 I2.413 J-1.782
G2 X85.833 Y323.107 I-1.957 J-2.274
X81.438 Y323.271 I-2.121 J2.121
G3 X77.382 Y323.727 I-2.274 J-1.957
G2 X60.787 Y316.854 I-22.131 J29.963
G3 X58.242 Y313.664 I0.446 J-2.967
G2 X55.25 Y310.44 I-2.992 J-0.224
X52.258 Y313.664 J3
G3 X49.713 Y316.854 I-2.992 J0.223
G2 X33.118 Y323.727 I5.537 J36.836
G3 X29.062 Y323.271 I-1.782 J-2.413
G2 X26.304 Y322.268 I-2.274 J1.957
X24.667 Y323.107 Z3.935 I0.485 J2.961 F300
X24.831 Y327.502 Z3.762 I2.121 J2.121
G3 X25.287 Y331.558 Z3.606 I-1.957 J2.274
G2 X18.414 Y348.152 Z2.972 I29.962 J22.132
G3 X15.224 Y350.698 Z2.815 I-2.967 J-0.446
G2 X12 Y353.69 Z2.643 I-0.224 J2.992
X15.224 Y356.681 Z2.471 I3
G3 X18.414 Y359.227 Z2.314 I0.224 J2.992
G2 X20.804 Y367.868 Z2 I36.836 J-5.537
X25.287 Y375.822 I34.446 J-14.178 F750
G3 X24.832 Y379.878 I-2.413 J1.782
G2 X24.668 Y384.272 I1.957 J2.273
X29.062 Y384.108 I2.121 J-2.121
G3 X33.118 Y383.652 I2.274 J1.957
G2 X49.713 Y390.525 I22.131 J-29.962
G3 X52.258 Y393.716 I-0.446 J2.967
G2 X55.25 Y396.94 I2.992 J0.224
X58.242 Y393.716 J-3
G3 X60.787 Y390.525 I2.992 J-0.224
G2 X77.382 Y383.652 I-5.537 J-36.836
G3 X81.438 Y384.108 I1.782 J2.413
G2 X85.832 Y384.272 I2.273 J-1.957
X85.668 Y379.878 I-2.121 J-2.121
G3 X85.213 Y375.822 I1.957 J-2.273
G2 X88.568 Y370.348 I-29.963 J-22.132
G3 X91.251 Y368.69 I2.683 J1.342
G1 X148.5
G3 X151.5 Y371.69 J3
G2 X153.64 Y373.685 I2
X155.481 Y371.412 I-0.139 J-1.995
G3 X157.627 Y368.111 I2.971 J-0.417
G2 X160.78 Y366.805 I-4.125 J-14.421
G3 X164.631 Y367.621 I1.456 J2.623
G2 X167.642 Y367.831 I1.597 J-1.204
X167.432 Y364.82 I-1.414 J-1.414
G3 X166.615 Y360.969 I1.806 J-2.395
G2 X167.922 Y357.815 I-13.114 J-7.282
G3 X171.222 Y355.67 I2.884 J0.826
G2 X173.5 Y353.69 I0.278 J-1.981
X171.222 Y351.709 I-2
G3 X167.922 Y349.564 I-0.416 J-2.971
G2 X166.615 Y346.41 I-14.421 J4.128
G3 X167.432 Y342.559 I2.623 J-1.456
G2 X167.642 Y339.548 I-1.204 J-1.597
X164.631 Y339.758 I-1.414 J1.414
G3 X160.78 Y340.574 I-2.395 J-1.807
G2 X157.627 Y339.268 I-7.279 J13.116
G3 X155.481 Y335.968 I0.825 J-2.884
G2 X153.639 Y333.695 I-1.981 J-0.278
X151.5 Y335.69 I-0.139 J1.995
G3 X148.5 Y338.69 I-3
G1 X91.251
G3 X88.568 Y337.032 J-3
G2 X85.213 Y331.558 I-33.318 J16.658
G3 X85.669 Y327.502 I2.413 J-1.782
G2 X85.833 Y323.107 I-1.957 J-2.274
X81.438 Y323.271 I-2.121 J2.121
G3 X77.382 Y323.727 I-2.274 J-1.957
G2 X60.787 Y316.854 I-22.131 J29.963
G3 X58.242 Y313.664 I0.446 J-2.967
G2 X55.25 Y310.44 I-2.992 J-0.224
X52.258 Y313.664 J3
G3 X49.713 Y316.854 I-2.992 J0.223
G2 X33.118 Y323.727 I5.537 J36.836
G3 X29.062 Y323.271 I-1.782 J-2.413
G2 X24.667 Y323.107 I-2.274 J1.957
X24.831 Y327.502 I2.121 J2.121
G3 X25.287 Y331.558 I-1.957 J2.274
G2 X18.414 Y348.152 I29.962 J22.132
G3 X15.224 Y350.698 I-2.967 J-0.446
G2 X12 Y353.69 I-0.224 J2.992
X15.224 Y356.681 I3
G3 X18.414 Y359.227 I0.224 J2.992
G2 X20.804 Y367.868 I36.836 J-5.537
X25.287 Y375.822 Z1.68 I34.446 J-14.178 F300
G3 X24.832 Y379.878 Z1.524 I-2.413 J1.782
G2 X24.668 Y384.272 Z1.351 I1.957 J2.273
X29.062 Y384.108 Z1.179 I2.121 J-2.121
G3 X33.118 Y383.652 Z1.022 I2.274 J1.957
G2 X49.713 Y390.525 Z0.389 I22.131 J-29.962
G3 X52.258 Y393.716 Z0.232 I-0.446 J2.967
G2 X55.25 Y396.94 Z0.06 I2.992 J0.224
X56.864 Y396.469 Z0 J-3
X58.242 Y393.716 I-1.614 J-2.529 F750
G3 X60.787 Y390.525 I2.992 J-0.224
G2 X77.382 Y383.652 I-5.537 J-36.836
G3 X81.438 Y384.108 I1.782 J2.413
G2 X85.832 Y384.272 I2.273 J-1.957
X85.668 Y379.878 I-2.121 J-2.121
G3 X85.213 Y375.822 I1.957 J-2.273
G2 X88.568 Y370.348 I-29.963 J-22.132
G3 X91.251 Y368.69 I2.683 J1.342
G1 X114.875
Z1.5
X124.875
Z0 F30
X148.5 F750
G3 X151.5 Y371.69 J3
G2 X153.64 Y373.685 I2
X155.481 Y371.412 I-0.139 J-1.995
G3 X157.627 Y368.111 I2.971 J-0.417
G2 X160.78 Y366.805 I-4.125 J-14.421
G3 X164.631 Y367.621 I1.456 J2.623
G2 X167.642 Y367.831 I1.597 J-1.204
X167.432 Y364.82 I-1.414 J-1.414
G3 X166.615 Y360.969 I1.806 J-2.395
G2 X167.922 Y357.815 I-13.114 J-7.282
G3 X171.222 Y355.67 I2.884 J0.826
G2 X173.5 Y353.69 I0.278 J-1.981
X171.222 Y351.709 I-2
G3 X167.922 Y349.564 I-0.416 J-2.971
G2 X166.615 Y346.41 I-14.421 J4.128
G3 X167.432 Y342.559 I2.623 J-1.456
G2 X167.642 Y339.548 I-1.204 J-1.597
X164.631 Y339.758 I-1.414 J1.414
G3 X160.78 Y340.574 I-2.395 J-1.807
G2 X157.627 Y339.268 I-7.279 J13.116
G3 X155.481 Y335.968 I0.825 J-2.884
G2 X153.639 Y333.695 I-1.981 J-0.278
X151.5 Y335.69 I-0.139 J1.995
G3 X148.5 Y338.69 I-3
G1 X124.875
Z1.5
X114.875
Z0 F30
X91.251 F750
G3 X88.568 Y337.032 J-3
G2 X85.213 Y331.558 I-33.318 J16.658
G3 X85.669 Y327.502 I2.413 J-1.782
G2 X85.833 Y323.107 I-1.957 J-2.274
X81.438 Y323.271 I-2.121 J2.121
G3 X77.382 Y323.727 I-2.274 J-1.957
G2 X60.787 Y316.854 I-22.131 J29.963
G3 X58.242 Y313.664 I0.446 J-2.967
G2 X55.25 Y310.44 I-2.992 J-0.224
X52.258 Y313.664 J3
G3 X49.713 Y316.854 I-2.992 J0.223
G2 X33.118 Y323.727 I5.537 J36.836
G3 X29.062 Y323.271 I-1.782 J-2.413
G2 X24.667 Y323.107 I-2.274 J1.957
X24.831 Y327.502 I2.121 J2.121
G3 X25.287 Y331.558 I-1.957 J2.274
G2 X18.414 Y348.152 I29.962 J22.132
G3 X15.224 Y350.698 I-2.967 J-0.446
G2 X12 Y353.69 I-0.224 J2.992
X15.224 Y356.681 I3
G3 X18.414 Y359.227 I0.224 J2.992
G2 X25.287 Y375.822 I36.836 J-5.537
G3 X24.832 Y379.878 I-2.413 J1.782
G2 X24.668 Y384.272 I1.957 J2.273
X29.062 Y384.108 I2.121 J-2.121
G3 X33.118 Y383.652 I2.274 J1.957
G2 X49.713 Y390.525 I22.131 J-29.962
G3 X52.258 Y393.716 I-0.446 J2.967
G2 X56.864 Y396.469 I2.992 J0.224
X58.242 Y393.716 I-1.614 J-2.529
G3 X60.787 Y390.525 I2.992 J-0.224
G2 X77.382 Y383.652 I-5.537 J-36.836
G3 X81.438 Y384.108 I1.782 J2.413
G2 X85.832 Y384.272 I2.273 J-1.957
X85.668 Y379.878 I-2.121 J-2.121
G3 X85.213 Y375.822 I1.957 J-2.273
G2 X88.568 Y370.348 I-29.963 J-22.132
G3 X91.251 Y368.69 I2.683 J1.342
G1 X114.875
Z1.5
X124.875
Z0 F30
X148.5 F750
G3 X151.5 Y371.69 J3
G2 X153.64 Y373.685 I2
X155.481 Y371.412 I-0.139 J-1.995
G3 X157.627 Y368.111 I2.971 J-0.417
G2 X160.78 Y366.805 I-4.125 J-14.421
G3 X164.631 Y367.621 I1.456 J2.623
G2 X167.642 Y367.831 I1.597 J-1.204
X167.432 Y364.82 I-1.414 J-1.414
G3 X166.615 Y360.969 I1.806 J-2.395
G2 X167.922 Y357.815 I-13.114 J-7.282
G3 X171.222 Y355.67 I2.884 J0.826
G2 X173.5 Y353.69 I0.278 J-1.981
X171.222 Y351.709 I-2
G3 X167.922 Y349.564 I-0.416 J-2.971
G2 X166.615 Y346.41 I-14.421 J4.128
G3 X167.432 Y342.559 I2.623 J-1.456
G2 X167.642 Y339.548 I-1.204 J-1.597
X164.631 Y339.758 I-1.414 J1.414
G3 X160.78 Y340.574 I-2.395 J-1.807
G2 X157.627 Y339.268 I-7.279 J13.116
G3 X155.481 Y335.968 I0.825 J-2.884
G2 X153.639 Y333.695 I-1.981 J-0.278
X151.5 Y335.69 I-0.139 J1.995
G3 X148.5 Y338.69 I-3
G1 X124.875
Z1.5
X114.875
Z0 F30
X91.251 F750
G3 X88.568 Y337.032 J-3
G2 X85.213 Y331.558 I-33.318 J16.658
G3 X85.669 Y327.502 I2.413 J-1.782
G2 X85.833 Y323.107 I-1.957 J-2.274
X81.438 Y323.271 I-2.121 J2.121
G3 X77.382 Y323.727 I-2.274 J-1.957
G2 X60.787 Y316.854 I-22.131 J29.963
G3 X58.242 Y313.664 I0.446 J-2.967
G2 X55.25 Y310.44 I-2.992 J-0.224
X52.258 Y313.664 J3
G3 X49.713 Y316.854 I-2.992 J0.223
G2 X33.118 Y323.727 I5.537 J36.836
G3 X29.062 Y323.271 I-1.782 J-2.413
G2 X24.667 Y323.107 I-2.274 J1.957
X24.831 Y327.502 I2.121 J2.121
G3 X25.287 Y331.558 I-1.957 J2.274
G2 X18.414 Y348.152 I29.962 J22.132
G3 X15.224 Y350.698 I-2.967 J-0.446
G2 X12 Y353.69 I-0.224 J2.992
X15.224 Y356.681 I3
G3 X18.414 Y359.227 I0.224 J2.992
G2 X25.287 Y375.822 I36.836 J-5.537
G3 X24.832 Y379.878 I-2.413 J1.782
G2 X24.668 Y384.272 I1.957 J2.273
X29.062 Y384.108 I2.121 J-2.121
G3 X33.118 Y383.652 I2.274 J1.957
G2 X49.713 Y390.525 I22.131 J-29.962
G3 X52.258 Y393.716 I-0.446 J2.967
G2 X56.864 Y396.469 I2.992 J0.224
X57.047 Y395.64 I-0.323 J-0.506 F300
G1 X56.724 Y395.134
X56.674 Y395.055 Z0.007
X56.625 Y394.978 Z0.029
X56.578 Y394.905 Z0.065
X56.535 Y394.837 Z0.115
X56.496 Y394.777 Z0.176
X56.463 Y394.725 Z0.247
X56.437 Y394.684 Z0.328
X56.417 Y394.653 Z0.415
X56.405 Y394.635 Z0.506
X56.401 Y394.629 Z0.6
G0 Z23
X108.305 Y91.3
G1 Z21.1 F300
G19 G2 Y90.7 Z20.5 J-0.6 F30
G1 Y90.1 F300
G17 G2 X107.705 Y89.5 I-0.6
G1 X90.769 Z19.909
G3 X88.076 Y87.823 Z19.792 J-3
G2 X84.607 Y82.118 Z19.558 I-33.432 J16.427
G3 X85.063 Y78.063 Z19.402 I2.413 J-1.782
G2 X85.227 Y73.668 Z19.229 I-1.957 J-2.273
X80.832 Y73.832 Z19.057 I-2.121 J2.121
G3 X76.776 Y74.287 Z18.9 I-2.274 J-1.957
G2 X60.182 Y67.414 Z18.267 I-22.132 J29.963
G3 X57.636 Y64.224 Z18.11 I0.446 J-2.967
G2 X54.644 Y61 Z17.938 I-2.992 J-0.224
X51.653 Y64.224 Z17.765 J3
G3 X49.107 Y67.414 Z17.608 I-2.992 J0.224
G2 X32.513 Y74.287 Z16.975 I5.537 J36.836
G3 X28.457 Y73.832 Z16.818 I-1.782 J-2.413
G2 X24.062 Y73.668 Z16.646 I-2.274 J1.957
X24.226 Y78.062 Z16.473 I2.121 J2.121
G3 X24.682 Y82.118 Z16.317 I-1.957 J2.274
G2 X20.23 Y89.995 Z16 I29.963 J22.132
X24.682 Y126.382 I34.414 J14.255 F750
G3 X24.226 Y130.438 I-2.413 J1.782
G2 X24.062 Y134.832 I1.957 J2.274
X28.457 Y134.669 I2.121 J-2.121
G3 X32.513 Y134.213 I2.273 J1.957
G2 X49.107 Y141.086 I22.131 J-29.963
G3 X51.653 Y144.277 I-0.446 J2.967
G2 X54.644 Y147.5 I2.992 J0.223
X57.636 Y144.277 J-3
G3 X60.182 Y141.086 I2.992 J-0.224
G2 X76.776 Y134.213 I-5.537 J-36.836
G3 X80.832 Y134.669 I1.782 J2.413
G2 X85.227 Y134.832 I2.274 J-1.957
X85.063 Y130.438 I-2.121 J-2.121
G3 X84.607 Y126.382 I1.957 J-2.274
G2 X88.076 Y120.677 I-29.963 J-22.131
G3 X90.769 Y119 I2.693 J1.323
G1 X152.644
G3 X155.644 Y122 J3
G2 X157.785 Y123.995 I2
X159.624 Y121.718 I-0.141 J-1.995
G3 X161.757 Y118.415 I2.97 J-0.422
G2 X164.751 Y117.174 I-4.115 J-14.164
G3 X168.596 Y118.002 I1.446 J2.629
G2 X171.609 Y118.215 I1.599 J-1.201
X171.396 Y115.202 I-1.414 J-1.414
G3 X170.569 Y111.358 I1.802 J-2.399
G2 X171.809 Y108.364 I-12.926 J-7.106
G3 X175.112 Y106.23 I2.881 J0.836
G2 X177.394 Y104.25 I0.282 J-1.98
X175.112 Y102.27 I-2
G3 X171.809 Y100.136 I-0.422 J-2.97
G2 X170.569 Y97.142 I-14.165 J4.113
G3 X171.396 Y93.298 I2.629 J-1.445
G2 X171.609 Y90.285 I-1.201 J-1.599
X168.596 Y90.498 I-1.414 J1.414
G3 X164.751 Y91.325 I-2.399 J-1.802
G2 X161.757 Y90.085 I-7.107 J12.925
G3 X159.624 Y86.782 I0.837 J-2.881
G2 X157.785 Y84.505 I-1.98 J-0.282
X155.644 Y86.5 I-0.141 J1.995
G3 X152.644 Y89.5 I-3
G1 X90.769
G3 X88.076 Y87.823 J-3
G2 X84.607 Y82.118 I-33.432 J16.427
G3 X85.063 Y78.063 I2.413 J-1.782
G2 X85.227 Y73.668 I-1.957 J-2.273
X80.832 Y73.832 I-2.121 J2.121
G3 X76.776 Y74.287 I-2.274 J-1.957
G2 X60.182 Y67.414 I-22.132 J29.963
G3 X57.636 Y64.224 I0.446 J-2.967
G2 X54.644 Y61 I-2.992 J-0.224
X51.653 Y64.224 J3
G3 X49.107 Y67.414 I-2.992 J0.224
G2 X32.513 Y74.287 I5.537 J36.836
G3 X28.457 Y73.832 I-1.782 J-2.413
G2 X24.062 Y73.668 I-2.274 J1.957
X24.226 Y78.062 I2.121 J2.121
G3 X24.682 Y82.118 I-1.957 J2.274
G2 X20.23 Y89.995 I29.963 J22.132
X24.682 Y126.382 Z14.662 I34.414 J14.255 F300
G3 X24.226 Y130.438 Z14.505 I-2.413 J1.782
G2 X24.062 Y134.832 Z14.332 I1.957 J2.274
X28.457 Y134.669 Z14.16 I2.121 J-2.121
G3 X32.513 Y134.213 Z14.003 I2.273 J1.957
G1 X32.59 Y134.27 Z14
G2 X49.107 Y141.086 I22.054 J-30.02 F750
G3 X51.653 Y144.277 I-0.446 J2.967
G2 X54.644 Y147.5 I2.992 J0.223
X57.636 Y144.277 J-3
G3 X60.182 Y141.086 I2.992 J-0.224
G2 X76.776 Y134.213 I-5.537 J-36.836
G3 X80.832 Y134.669 I1.782 J2.413
G2 X85.227 Y134.832 I2.274 J-1.957
X85.063 Y130.438 I-2.121 J-2.121
G3 X84.607 Y126.382 I1.957 J-2.274
G2 X88.076 Y120.677 I-29.963 J-22.131
G3 X90.769 Y119 I2.693 J1.323
G1 X152.644
G3 X155.644 Y122 J3
G2 X157.785 Y123.995 I2
X159.624 Y121.718 I-0.141 J-1.995
G3 X161.757 Y118.415 I2.97 J-0.422
G2 X164.751 Y117.174 I-4.115 J-14.164
G3 X168.596 Y118.002 I1.446 J2.629
G2 X171.609 Y118.215 I1.599 J-1.201
X171.396 Y115.202 I-1.414 J-1.414
G3 X170.569 Y111.358 I1.802 J-2.399
G2 X171.809 Y108.364 I-12.926 J-7.106
G3 X175.112 Y106.23 I2.881 J0.836
G2 X177.394 Y104.25 I0.282 J-1.98
X175.112 Y102.27 I-2
G3 X171.809 Y100.136 I-0.422 J-2.97
G2 X170.569 Y97.142 I-14.165 J4.113
G3 X171.396 Y93.298 I2.629 J-1.445
G2 X171.609 Y90.285 I-1.201 J-1.599
X168.596 Y90.498 I-1.414 J1.414
G3 X164.751 Y91.325 I-2.399 J-1.802
G2 X161.757 Y90.085 I-7.107 J12.925
G3 X159.624 Y86.782 I0.837 J-2.881
G2 X157.785 Y84.505 I-1.98 J-0.282
X155.644 Y86.5 I-0.141 J1.995
G3 X152.644 Y89.5 I-3
G1 X90.769
G3 X88.076 Y87.823 J-3
G2 X84.607 Y82.118 I-33.432 J16.427
G3 X85.063 Y78.063 I2.413 J-1.782
G2 X85.227 Y73.668 I-1.957 J-2.273
X80.832 Y73.832 I-2.121 J2.121
G3 X76.776 Y74.287 I-2.274 J-1.957
G2 X60.182 Y67.414 I-22.132 J29.963
G3 X57.636 Y64.224 I0.446 J-2.967
G2 X54.644 Y61 I-2.992 J-0.224
X51.653 Y64.224 J3
G3 X49.107 Y67.414 I-2.992 J0.224
G2 X32.513 Y74.287 I5.537 J36.836
G3 X28.457 Y73.832 I-1.782 J-2.413
G2 X24.062 Y73.668 I-2.274 J1.957
X24.226 Y78.062 I2.121 J2.121
G3 X24.682 Y82.118 I-1.957 J2.274
G2 Y126.382 I29.963 J22.132
G3 X24.226 Y130.438 I-2.413 J1.782
G2 X24.062 Y134.832 I1.957 J2.274
X28.457 Y134.669 I2.121 J-2.121
G3 X32.513 Y134.213 I2.273 J1.957
G1 X32.59 Y134.27
G2 X49.107 Y141.086 Z13.367 I22.054 J-30.02 F300
G3 X51.653 Y144.277 Z13.21 I-0.446 J2.967
G2 X54.644 Y147.5 Z13.037 I2.992 J0.223
X57.636 Y144.277 Z12.865 J-3
G3 X60.182 Y141.086 Z12.708 I2.992 J-0.224
G2 X76.776 Y134.213 Z12.075 I-5.537 J-36.836
G3 X78.792 Y133.635 Z12 I1.782 J2.413
X80.832 Y134.669 I-0.234 J2.991 F750
G2 X85.227 Y134.832 I2.274 J-1.957
X85.063 Y130.438 I-2.121 J-2.121
G3 X84.607 Y126.382 I1.957 J-2.274
G2 X88.076 Y120.677 I-29.963 J-22.131
G3 X90.769 Y119 I2.693 J1.323
G1 X152.644
G3 X155.644 Y122 J3
G2 X157.785 Y123.995 I2
X159.624 Y121.718 I-0.141 J-1.995
G3 X161.757 Y118.415 I2.97 J-0.422
G2 X164.751 Y117.174 I-4.115 J-14.164
G3 X168.596 Y118.002 I1.446 J2.629
G2 X171.609 Y118.215 I1.599 J-1.201
X171.396 Y115.202 I-1.414 J-1.414
G3 X170.569 Y111.358 I1.802 J-2.399
G2 X171.809 Y108.364 I-12.926 J-7.106
G3 X175.112 Y106.23 I2.881 J0.836
G2 X177.394 Y104.25 I0.282 J-1.98
X175.112 Y102.27 I-2
G3 X171.809 Y100.136 I-0.422 J-2.97
G2 X170.569 Y97.142 I-14.165 J4.113
G3 X171.396 Y93.298 I2.629 J-1.445
G2 X171.609 Y90.285 I-1.201 J-1.599
X168.596 Y90.498 I-1.414 J1.414
G3 X164.751 Y91.325 I-2.399 J-1.802
G2 X161.757 Y90.085 I-7.107 J12.925
G3 X159.624 Y86.782 I0.837 J-2.881
G2 X157.785 Y84.505 I-1.98 J-0.282
X155.644 Y86.5 I-0.141 J1.995
G3 X152.644 Y89.5 I-3
G1 X90.769
G3 X88.076 Y87.823 J-3
G2 X84.607 Y82.118 I-33.432 J16.427
G3 X85.063 Y78.063 I2.413 J-1.782
G2 X85.227 Y73.668 I-1.957 J-2.273
X80.832 Y73.832 I-2.121 J2.121
G3 X76.776 Y74.287 I-2.274 J-1.957
G2 X60.182 Y67.414 I-22.132 J29.963
G3 X57.636 Y64.224 I0.446 J-2.967
G2 X54.644 Y61 I-2.992 J-0.224
X51.653 Y64.224 J3
G3 X49.107 Y67.414 I-2.992 J0.224
G2 X32.513 Y74.287 I5.537 J36.836
G3 X28.457 Y73.832 I-1.782 J-2.413
G2 X24.062 Y73.668 I-2.274 J1.957
X24.226 Y78.062 I2.121 J2.121
G3 X24.682 Y82.118 I-1.957 J2.274
G2 Y126.382 I29.963 J22.132
G3 X24.226 Y130.438 I-2.413 J1.782
G2 X24.062 Y134.832 I1.957 J2.274
X28.457 Y134.669 I2.121 J-2.121
G3 X32.513 Y134.213 I2.273 J1.957
G2 X49.107 Y141.086 I22.131 J-29.963
G3 X51.653 Y144.277 I-0.446 J2.967
G2 X54.644 Y147.5 I2.992 J0.223
X57.636 Y144.277 J-3
G3 X60.182 Y141.086 I2.992 J-0.224
G2 X76.776 Y134.213 I-5.537 J-36.836
G3 X78.792 Y133.635 I1.782 J2.413
X80.832 Y134.669 Z11.918 I-0.234 J2.991 F300
G2 X85.227 Y134.832 Z11.746 I2.274 J-1.957
X85.063 Y130.438 Z11.573 I-2.121 J-2.121
G3 X84.607 Y126.382 Z11.417 I1.957 J-2.274
G2 X88.076 Y120.677 Z11.183 I-29.963 J-22.131
G3 X90.769 Y119 Z11.066 I2.693 J1.323
G1 X121.307 Z10
X152.644 F750
G3 X155.644 Y122 J3
G2 X157.785 Y123.995 I2
X159.624 Y121.718 I-0.141 J-1.995
G3 X161.757 Y118.415 I2.97 J-0.422
G2 X164.751 Y117.174 I-4.115 J-14.164
G3 X168.596 Y118.002 I1.446 J2.629
G2 X171.609 Y118.215 I1.599 J-1.201
X171.396 Y115.202 I-1.414 J-1.414
G3 X170.569 Y111.358 I1.802 J-2.399
G2 X171.809 Y108.364 I-12.926 J-7.106
G3 X175.112 Y106.23 I2.881 J0.836
G2 X177.394 Y104.25 I0.282 J-1.98
X175.112 Y102.27 I-2
G3 X171.809 Y100.136 I-0.422 J-2.97
G2 X170.569 Y97.142 I-14.165 J4.113
G3 X171.396 Y93.298 I2.629 J-1.445
G2 X171.609 Y90.285 I-1.201 J-1.599
X168.596 Y90.498 I-1.414 J1.414
G3 X164.751 Y91.325 I-2.399 J-1.802
G2 X161.757 Y90.085 I-7.107 J12.925
G3 X159.624 Y86.782 I0.837 J-2.881
G2 X157.785 Y84.505 I-1.98 J-0.282
X155.644 Y86.5 I-0.141 J1.995
G3 X152.644 Y89.5 I-3
G1 X90.769
G3 X88.076 Y87.823 J-3
G2 X84.607 Y82.118 I-33.432 J16.427
G3 X85.063 Y78.063 I2.413 J-1.782
G2 X85.227 Y73.668 I-1.957 J-2.273
X80.832 Y73.832 I-2.121 J2.121
G3 X76.776 Y74.287 I-2.274 J-1.957
G2 X60.182 Y67.414 I-22.132 J29.963
G3 X57.636 Y64.224 I0.446 J-2.967
G2 X54.644 Y61 I-2.992 J-0.224
X51.653 Y64.224 J3
G3 X49.107 Y67.414 I-2.992 J0.224
G2 X32.513 Y74.287 I5.537 J36.836
G3 X28.457 Y73.832 I-1.782 J-2.413
G2 X24.062 Y73.668 I-2.274 J1.957
X24.226 Y78.062 I2.121 J2.121
G3 X24.682 Y82.118 I-1.957 J2.274
G2 Y126.382 I29.963 J22.132
G3 X24.226 Y130.438 I-2.413 J1.782
G2 X24.062 Y134.832 I1.957 J2.274
X28.457 Y134.669 I2.121 J-2.121
G3 X32.513 Y134.213 I2.273 J1.957
G2 X49.107 Y141.086 I22.131 J-29.963
G3 X51.653 Y144.277 I-0.446 J2.967
G2 X54.644 Y147.5 I2.992 J0.223
X57.636 Y144.277 J-3
G3 X60.182 Y141.086 I2.992 J-0.224
G2 X76.776 Y134.213 I-5.537 J-36.836
G3 X80.832 Y134.669 I1.782 J2.413
G2 X85.227 Y134.832 I2.274 J-1.957
X85.063 Y130.438 I-2.121 J-2.121
G3 X84.607 Y126.382 I1.957 J-2.274
G2 X88.076 Y120.677 I-29.963 J-22.131
G3 X90.769 Y119 I2.693 J1.323
G1 X121.307
X152.644 Z8.906 F300
G3 X155.644 Y122 Z8.741 J3
G2 X157.785 Y123.995 Z8.626 I2
X159.624 Y121.718 Z8.512 I-0.141 J-1.995
G3 X161.757 Y118.415 Z8.362 I2.97 J-0.422
G2 X164.751 Y117.174 Z8.249 I-4.115 J-14.164
G3 X168.596 Y118.002 Z8.099 I1.446 J2.629
G2 X171.136 Y118.565 Z8 I1.599 J-1.201
X171.609 Y118.215 I-0.941 J-1.765 F750
X171.396 Y115.202 I-1.414 J-1.414
G3 X170.569 Y111.358 I1.802 J-2.399
G2 X171.809 Y108.364 I-12.926 J-7.106
G3 X175.112 Y106.23 I2.881 J0.836
G2 X177.394 Y104.25 I0.282 J-1.98
X175.112 Y102.27 I-2
G3 X171.809 Y100.136 I-0.422 J-2.97
G2 X170.569 Y97.142 I-14.165 J4.113
G3 X171.396 Y93.298 I2.629 J-1.445
G2 X171.609 Y90.285 I-1.201 J-1.599
X168.596 Y90.498 I-1.414 J1.414
G3 X164.751 Y91.325 I-2.399 J-1.802
G2 X161.757 Y90.085 I-7.107 J12.925
G3 X159.624 Y86.782 I0.837 J-2.881
G2 X157.785 Y84.505 I-1.98 J-0.282
X155.644 Y86.5 I-0.141 J1.995
G3 X152.644 Y89.5 I-3
G1 X90.769
G3 X88.076 Y87.823 J-3
G2 X84.607 Y82.118 I-33.432 J16.427
G3 X85.063 Y78.063 I2.413 J-1.782
G2 X85.227 Y73.668 I-1.957 J-2.273
X80.832 Y73.832 I-2.121 J2.121
G3 X76.776 Y74.287 I-2.274 J-1.957
G2 X60.182 Y67.414 I-22.132 J29.963
G3 X57.636 Y64.224 I0.446 J-2.967
G2 X54.644 Y61 I-2.992 J-0.224
X51.653 Y64.224 J3
G3 X49.107 Y67.414 I-2.992 J0.224
G2 X32.513 Y74.287 I5.537 J36.836
G3 X28.457 Y73.832 I-1.782 J-2.413
G2 X24.062 Y73.668 I-2.274 J1.957
X24.226 Y78.062 I2.121 J2.121
G3 X24.682 Y82.118 I-1.957 J2.274
G2 Y126.382 I29.963 J22.132
G3 X24.226 Y130.438 I-2.413 J1.782
G2 X24.062 Y134.832 I1.957 J2.274
X28.457 Y134.669 I2.121 J-2.121
G3 X32.513 Y134.213 I2.273 J1.957
G2 X49.107 Y141.086 I22.131 J-29.963
G3 X51.653 Y144.277 I-0.446 J2.967
G2 X54.644 Y147.5 I2.992 J0.223
X57.636 Y144.277 J-3
G3 X60.182 Y141.086 I2.992 J-0.224
G2 X76.776 Y134.213 I-5.537 J-36.836
G3 X80.832 Y134.669 I1.782 J2.413
G2 X85.227 Y134.832 I2.274 J-1.957
X85.063 Y130.438 I-2.121 J-2.121
G3 X84.607 Y126.382 I1.957 J-2.274
G2 X88.076 Y120.677 I-29.963 J-22.131
G3 X90.769 Y119 I2.693 J1.323
G1 X152.644
G3 X155.644 Y122 J3
G2 X157.785 Y123.995 I2
X159.624 Y121.718 I-0.141 J-1.995
G3 X161.757 Y118.415 I2.97 J-0.422
G2 X164.751 Y117.174 I-4.115 J-14.164
G3 X168.596 Y118.002 I1.446 J2.629
G2 X171.136 Y118.565 I1.599 J-1.201
X171.609 Y118.215 Z7.979 I-0.941 J-1.765 F300
X171.396 Y115.202 Z7.86 I-1.414 J-1.414
G3 X170.569 Y111.358 Z7.71 I1.802 J-2.399
G2 X171.809 Y108.364 Z7.597 I-12.926 J-7.106
G3 X175.112 Y106.23 Z7.447 I2.881 J0.836
G2 X177.394 Y104.25 Z7.327 I0.282 J-1.98
X175.112 Y102.27 Z7.208 I-2
G3 X171.809 Y100.136 Z7.058 I-0.422 J-2.97
G2 X170.569 Y97.142 Z6.945 I-14.165 J4.113
G3 X171.396 Y93.298 Z6.795 I2.629 J-1.445
G2 X171.609 Y90.285 Z6.675 I-1.201 J-1.599
X168.596 Y90.498 Z6.556 I-1.414 J1.414
G3 X164.751 Y91.325 Z6.406 I-2.399 J-1.802
G2 X161.757 Y90.085 Z6.293 I-7.107 J12.925
G3 X159.624 Y86.782 Z6.143 I0.837 J-2.881
G2 X157.785 Y84.505 Z6.028 I-1.98 J-0.282
X156.99 Y84.61 Z6 I-0.141 J1.995
X155.644 Y86.5 I0.654 J1.89 F750
G3 X152.644 Y89.5 I-3
G1 X90.769
G3 X88.076 Y87.823 J-3
G2 X84.607 Y82.118 I-33.432 J16.427
G3 X85.063 Y78.063 I2.413 J-1.782
G2 X85.227 Y73.668 I-1.957 J-2.273
X80.832 Y73.832 I-2.121 J2.121
G3 X76.776 Y74.287 I-2.274 J-1.957
G2 X60.182 Y67.414 I-22.132 J29.963
G3 X57.636 Y64.224 I0.446 J-2.967
G2 X54.644 Y61 I-2.992 J-0.224
X51.653 Y64.224 J3
G3 X49.107 Y67.414 I-2.992 J0.224
G2 X32.513 Y74.287 I5.537 J36.836
G3 X28.457 Y73.832 I-1.782 J-2.413
G2 X24.062 Y73.668 I-2.274 J1.957
X24.226 Y78.062 I2.121 J2.121
G3 X24.682 Y82.118 I-1.957 J2.274
G2 Y126.382 I29.963 J22.132
G3 X24.226 Y130.438 I-2.413 J1.782
G2 X24.062 Y134.832 I1.957 J2.274
X28.457 Y134.669 I2.121 J-2.121
G3 X32.513 Y134.213 I2.273 J1.957
G2 X49.107 Y141.086 I22.131 J-29.963
G3 X51.653 Y144.277 I-0.446 J2.967
G2 X54.644 Y147.5 I2.992 J0.223
X57.636 Y144.277 J-3
G3 X60.182 Y141.086 I2.992 J-0.224
G2 X76.776 Y134.213 I-5.537 J-36.836
G3 X80.832 Y134.669 I1.782 J2.413
G2 X85.227 Y134.832 I2.274 J-1.957
X85.063 Y130.438 I-2.121 J-2.121
G3 X84.607 Y126.382 I1.957 J-2.274
G2 X88.076 Y120.677 I-29.963 J-22.131
G3 X90.769 Y119 I2.693 J1.323
G1 X152.644
G3 X155.644 Y122 J3
G2 X157.785 Y123.995 I2
X159.624 Y121.718 I-0.141 J-1.995
G3 X161.757 Y118.415 I2.97 J-0.422
G2 X164.751 Y117.174 I-4.115 J-14.164
G3 X168.596 Y118.002 I1.446 J2.629
G2 X171.609 Y118.215 I1.599 J-1.201
X171.396 Y115.202 I-1.414 J-1.414
G3 X170.569 Y111.358 I1.802 J-2.399
G2 X171.809 Y108.364 I-12.926 J-7.106
G3 X175.112 Y106.23 I2.881 J0.836
G2 X177.394 Y104.25 I0.282 J-1.98
X175.112 Y102.27 I-2
G3 X171.809 Y100.136 I-0.422 J-2.97
G2 X170.569 Y97.142 I-14.165 J4.113
G3 X171.396 Y93.298 I2.629 J-1.445
G2 X171.609 Y90.285 I-1.201 J-1.599
X168.596 Y90.498 I-1.414 J1.414
G3 X164.751 Y91.325 I-2.399 J-1.802
G2 X161.757 Y90.085 I-7.107 J12.925
G3 X159.624 Y86.782 I0.837 J-2.881
G2 X157.785 Y84.505 I-1.98 J-0.282
X156.99 Y84.61 I-0.141 J1.995
X155.644 Y86.5 Z5.914 I0.654 J1.89 F300
G3 X152.644 Y89.5 Z5.749 I-3
G1 X102.559 Z4
X90.769 F750
G3 X88.076 Y87.823 J-3
G2 X84.607 Y82.118 I-33.432 J16.427
G3 X85.063 Y78.063 I2.413 J-1.782
G2 X85.227 Y73.668 I-1.957 J-2.273
X80.832 Y73.832 I-2.121 J2.121
G3 X76.776 Y74.287 I-2.274 J-1.957
G2 X60.182 Y67.414 I-22.132 J29.963
G3 X57.636 Y64.224 I0.446 J-2.967
G2 X54.644 Y61 I-2.992 J-0.224
X51.653 Y64.224 J3
G3 X49.107 Y67.414 I-2.992 J0.224
G2 X32.513 Y74.287 I5.537 J36.836
G3 X28.457 Y73.832 I-1.782 J-2.413
G2 X24.062 Y73.668 I-2.274 J1.957
X24.226 Y78.062 I2.121 J2.121
G3 X24.682 Y82.118 I-1.957 J2.274
G2 Y126.382 I29.963 J22.132
G3 X24.226 Y130.438 I-2.413 J1.782
G2 X24.062 Y134.832 I1.957 J2.274
X28.457 Y134.669 I2.121 J-2.121
G3 X32.513 Y134.213 I2.273 J1.957
G2 X49.107 Y141.086 I22.131 J-29.963
G3 X51.653 Y144.277 I-0.446 J2.967
G2 X54.644 Y147.5 I2.992 J0.223
X57.636 Y144.277 J-3
G3 X60.182 Y141.086 I2.992 J-0.224
G2 X76.776 Y134.213 I-5.537 J-36.836
G3 X80.832 Y134.669 I1.782 J2.413
G2 X85.227 Y134.832 I2.274 J-1.957
X85.063 Y130.438 I-2.121 J-2.121
G3 X84.607 Y126.382 I1.957 J-2.274
G2 X88.076 Y120.677 I-29.963 J-22.131
G3 X90.769 Y119 I2.693 J1.323
G1 X152.644
G3 X155.644 Y122 J3
G2 X157.785 Y123.995 I2
X159.624 Y121.718 I-0.141 J-1.995
G3 X161.757 Y118.415 I2.97 J-0.422
G2 X164.751 Y117.174 I-4.115 J-14.164
G3 X168.596 Y118.002 I1.446 J2.629
G2 X171.609 Y118.215 I1.599 J-1.201
X171.396 Y115.202 I-1.414 J-1.414
G3 X170.569 Y111.358 I1.802 J-2.399
G2 X171.809 Y108.364 I-12.926 J-7.106
G3 X175.112 Y106.23 I2.881 J0.836
G2 X177.394 Y104.25 I0.282 J-1.98
X175.112 Y102.27 I-2
G3 X171.809 Y100.136 I-0.422 J-2.97
G2 X170.569 Y97.142 I-14.165 J4.113
G3 X171.396 Y93.298 I2.629 J-1.445
G2 X171.609 Y90.285 I-1.201 J-1.599
X168.596 Y90.498 I-1.414 J1.414
G3 X164.751 Y91.325 I-2.399 J-1.802
G2 X161.757 Y90.085 I-7.107 J12.925
G3 X159.624 Y86.782 I0.837 J-2.881
G2 X157.785 Y84.505 I-1.98 J-0.282
X155.644 Y86.5 I-0.141 J1.995
G3 X152.644 Y89.5 I-3
G1 X102.559
X90.769 Z3.588 F300
G3 X88.076 Y87.823 Z3.472 J-3
G2 X84.607 Y82.118 Z3.238 I-33.432 J16.427
G3 X85.063 Y78.063 Z3.081 I2.413 J-1.782
G2 X85.227 Y73.668 Z2.909 I-1.957 J-2.273
X80.832 Y73.832 Z2.737 I-2.121 J2.121
G3 X76.776 Y74.287 Z2.58 I-2.274 J-1.957
G2 X61.695 Y67.673 Z2 I-22.132 J29.963
X60.182 Y67.414 I-7.05 J36.577 F750
G3 X57.636 Y64.224 I0.446 J-2.967
G2 X54.644 Y61 I-2.992 J-0.224
X51.653 Y64.224 J3
G3 X49.107 Y67.414 I-2.992 J0.224
G2 X32.513 Y74.287 I5.537 J36.836
G3 X28.457 Y73.832 I-1.782 J-2.413
G2 X24.062 Y73.668 I-2.274 J1.957
X24.226 Y78.062 I2.121 J2.121
G3 X24.682 Y82.118 I-1.957 J2.274
G2 Y126.382 I29.963 J22.132
G3 X24.226 Y130.438 I-2.413 J1.782
G2 X24.062 Y134.832 I1.957 J2.274
X28.457 Y134.669 I2.121 J-2.121
G3 X32.513 Y134.213 I2.273 J1.957
G2 X49.107 Y141.086 I22.131 J-29.963
G3 X51.653 Y144.277 I-0.446 J2.967
G2 X54.644 Y147.5 I2.992 J0.223
X57.636 Y144.277 J-3
G3 X60.182 Y141.086 I2.992 J-0.224
G2 X76.776 Y134.213 I-5.537 J-36.836
G3 X80.832 Y134.669 I1.782 J2.413
G2 X85.227 Y134.832 I2.274 J-1.957
X85.063 Y130.438 I-2.121 J-2.121
G3 X84.607 Y126.382 I1.957 J-2.274
G2 X88.076 Y120.677 I-29.963 J-22.131
G3 X90.769 Y119 I2.693 J1.323
G1 X152.644
G3 X155.644 Y122 J3
G2 X157.785 Y123.995 I2
X159.624 Y121.718 I-0.141 J-1.995
G3 X161.757 Y118.415 I2.97 J-0.422
G2 X164.751 Y117.174 I-4.115 J-14.164
G3 X168.596 Y118.002 I1.446 J2.629
G2 X171.609 Y118.215 I1.599 J-1.201
X171.396 Y115.202 I-1.414 J-1.414
G3 X170.569 Y111.358 I1.802 J-2.399
G2 X171.809 Y108.364 I-12.926 J-7.106
G3 X175.112 Y106.23 I2.881 J0.836
G2 X177.394 Y104.25 I0.282 J-1.98
X175.112 Y102.27 I-2
G3 X171.809 Y100.136 I-0.422 J-2.97
G2 X170.569 Y97.142 I-14.165 J4.113
G3 X171.396 Y93.298 I2.629 J-1.445
G2 X171.609 Y90.285 I-1.201 J-1.599
X168.596 Y90.498 I-1.414 J1.414
G3 X164.751 Y91.325 I-2.399 J-1.802
G2 X161.757 Y90.085 I-7.107 J12.925
G3 X159.624 Y86.782 I0.837 J-2.881
G2 X157.785 Y84.505 I-1.98 J-0.282
X155.644 Y86.5 I-0.141 J1.995
G3 X152.644 Y89.5 I-3
G1 X90.769
G3 X88.076 Y87.823 J-3
G2 X84.607 Y82.118 I-33.432 J16.427
G3 X85.063 Y78.063 I2.413 J-1.782
G2 X85.227 Y73.668 I-1.957 J-2.273
X80.832 Y73.832 I-2.121 J2.121
G3 X76.776 Y74.287 I-2.274 J-1.957
G2 X61.695 Y67.673 I-22.132 J29.963
X60.182 Y67.414 Z1.946 I-7.05 J36.577 F300
G3 X57.636 Y64.224 Z1.79 I0.446 J-2.967
G2 X54.644 Y61 Z1.617 I-2.992 J-0.224
X51.653 Y64.224 Z1.445 J3
G3 X49.107 Y67.414 Z1.288 I-2.992 J0.224
G2 X32.513 Y74.287 Z0.655 I5.537 J36.836
G3 X28.457 Y73.832 Z0.498 I-1.782 J-2.413
G2 X24.062 Y73.668 Z0.326 I-2.274 J1.957
X24.226 Y78.062 Z0.153 I2.121 J2.121
G3 X24.741 Y82.035 Z0 I-1.957 J2.274
G1 X24.682 Y82.118 F750
G2 X17.731 Y99.25 I29.963 J22.132
G1 Z1.5
G2 Y109.25 I36.913 J5
G1 Z0 F30
G2 X24.682 Y126.382 I36.913 J-5 F750
G3 X24.226 Y130.438 I-2.413 J1.782
G2 X24.062 Y134.832 I1.957 J2.274
X28.457 Y134.669 I2.121 J-2.121
G3 X32.513 Y134.213 I2.273 J1.957
G2 X49.107 Y141.086 I22.131 J-29.963
G3 X51.653 Y144.277 I-0.446 J2.967
G2 X54.644 Y147.5 I2.992 J0.223
X57.636 Y144.277 J-3
G3 X60.182 Y141.086 I2.992 J-0.224
G2 X76.776 Y134.213 I-5.537 J-36.836
G3 X80.832 Y134.669 I1.782 J2.413
G2 X85.227 Y134.832 I2.274 J-1.957
X85.063 Y130.438 I-2.121 J-2.121
G3 X84.607 Y126.382 I1.957 J-2.274
G2 X88.076 Y120.677 I-29.963 J-22.131
G3 X90.769 Y119 I2.693 J1.323
G1 X116.707
Z1.5
X126.707
Z0 F30
X152.644 F750
G3 X155.644 Y122 J3
G2 X157.785 Y123.995 I2
X159.624 Y121.718 I-0.141 J-1.995
G3 X161.757 Y118.415 I2.97 J-0.422
G2 X164.751 Y117.174 I-4.115 J-14.164
G3 X168.596 Y118.002 I1.446 J2.629
G2 X171.609 Y118.215 I1.599 J-1.201
X171.396 Y115.202 I-1.414 J-1.414
G3 X170.569 Y111.358 I1.802 J-2.399
G2 X171.809 Y108.364 I-12.926 J-7.106
G3 X175.112 Y106.23 I2.881 J0.836
G2 X177.394 Y104.25 I0.282 J-1.98
X175.112 Y102.27 I-2
G3 X171.809 Y100.136 I-0.422 J-2.97
G2 X170.569 Y97.142 I-14.165 J4.113
G3 X171.396 Y93.298 I2.629 J-1.445
G2 X171.609 Y90.285 I-1.201 J-1.599
X168.596 Y90.498 I-1.414 J1.414
G3 X164.751 Y91.325 I-2.399 J-1.802
G2 X161.757 Y90.085 I-7.107 J12.925
G3 X159.624 Y86.782 I0.837 J-2.881
G2 X157.785 Y84.505 I-1.98 J-0.282
X155.644 Y86.5 I-0.141 J1.995
G3 X152.644 Y89.5 I-3
G1 X126.707
Z1.5
X116.707
Z0 F30
X90.769 F750
G3 X88.076 Y87.823 J-3
G2 X84.607 Y82.118 I-33.432 J16.427
G3 X85.063 Y78.063 I2.413 J-1.782
G2 X85.227 Y73.668 I-1.957 J-2.273
X80.832 Y73.832 I-2.121 J2.121
G3 X76.776 Y74.287 I-2.274 J-1.957
G2 X60.182 Y67.414 I-22.132 J29.963
G3 X57.636 Y64.224 I0.446 J-2.967
G2 X54.644 Y61 I-2.992 J-0.224
X51.653 Y64.224 J3
G3 X49.107 Y67.414 I-2.992 J0.224
G2 X32.513 Y74.287 I5.537 J36.836
G3 X28.457 Y73.832 I-1.782 J-2.413
G2 X24.062 Y73.668 I-2.274 J1.957
X24.226 Y78.062 I2.121 J2.121
G3 X24.682 Y82.118 I-1.957 J2.274
G2 X17.731 Y99.25 I29.963 J22.132
G1 Z1.5
G2 Y109.25 I36.913 J5
G1 Z0 F30
G2 X24.682 Y126.382 I36.913 J-5 F750
G3 X24.226 Y130.438 I-2.413 J1.782
G2 X24.062 Y134.832 I1.957 J2.274
X28.457 Y134.669 I2.121 J-2.121
G3 X32.513 Y134.213 I2.273 J1.957
G2 X49.107 Y141.086 I22.131 J-29.963
G3 X51.653 Y144.277 I-0.446 J2.967
G2 X54.644 Y147.5 I2.992 J0.223
X57.636 Y144.277 J-3
G3 X60.182 Y141.086 I2.992 J-0.224
G2 X76.776 Y134.213 I-5.537 J-36.836
G3 X80.832 Y134.669 I1.782 J2.413
G2 X85.227 Y134.832 I2.274 J-1.957
X85.063 Y130.438 I-2.121 J-2.121
G3 X84.607 Y126.382 I1.957 J-2.274
G2 X88.076 Y120.677 I-29.963 J-22.131
G3 X90.769 Y119 I2.693 J1.323
G1 X116.707
Z1.5
X126.707
Z0 F30
X152.644 F750
G3 X155.644 Y122 J3
G2 X157.785 Y123.995 I2
X159.624 Y121.718 I-0.141 J-1.995
G3 X161.757 Y118.415 I2.97 J-0.422
G2 X164.751 Y117.174 I-4.115 J-14.164
G3 X168.596 Y118.002 I1.446 J2.629
G2 X171.609 Y118.215 I1.599 J-1.201
X171.396 Y115.202 I-1.414 J-1.414
G3 X170.569 Y111.358 I1.802 J-2.399
G2 X171.809 Y108.364 I-12.926 J-7.106
G3 X175.112 Y106.23 I2.881 J0.836
G2 X177.394 Y104.25 I0.282 J-1.98
X175.112 Y102.27 I-2
G3 X171.809 Y100.136 I-0.422 J-2.97
G2 X170.569 Y97.142 I-14.165 J4.113
G3 X171.396 Y93.298 I2.629 J-1.445
G2 X171.609 Y90.285 I-1.201 J-1.599
X168.596 Y90.498 I-1.414 J1.414
G3 X164.751 Y91.325 I-2.399 J-1.802
G2 X161.757 Y90.085 I-7.107 J12.925
G3 X159.624 Y86.782 I0.837 J-2.881
G2 X157.785 Y84.505 I-1.98 J-0.282
X155.644 Y86.5 I-0.141 J1.995
G3 X152.644 Y89.5 I-3
G1 X126.707
Z1.5
X116.707
Z0 F30
X90.769 F750
G3 X88.076 Y87.823 J-3
G2 X84.607 Y82.118 I-33.432 J16.427
G3 X85.063 Y78.063 I2.413 J-1.782
G2 X85.227 Y73.668 I-1.957 J-2.273
X80.832 Y73.832 I-2.121 J2.121
G3 X76.776 Y74.287 I-2.274 J-1.957
G2 X60.182 Y67.414 I-22.132 J29.963
G3 X57.636 Y64.224 I0.446 J-2.967
G2 X54.644 Y61 I-2.992 J-0.224
X51.653 Y64.224 J3
G3 X49.107 Y67.414 I-2.992 J0.224
G2 X32.513 Y74.287 I5.537 J36.836
G3 X28.457 Y73.832 I-1.782 J-2.413
G2 X24.062 Y73.668 I-2.274 J1.957
X24.226 Y78.062 I2.121 J2.121
G3 X24.741 Y82.035 I-1.957 J2.274
G2 X24.895 Y82.87 I0.494 J0.34 F300
G1 X25.39 Y83.209
X25.467 Y83.263 Z0.007
X25.543 Y83.315 Z0.029
X25.614 Y83.364 Z0.065
X25.681 Y83.409 Z0.115
X25.74 Y83.45 Z0.176
X25.79 Y83.484 Z0.247
X25.831 Y83.512 Z0.328
X25.86 Y83.533 Z0.415
X25.878 Y83.545 Z0.506
X25.884 Y83.549 Z0.6
G0 Z33
M9
M30
%
