%
(1001)
(Dust Shoe acrylic top)
(T1  D=6 CR=0 - ZMIN=0 - flat end mill)
G90 G94
G17
G21

(2D Adaptive1)
M9
T1 M6
S7500 M3
G54
M9
G0 X57.412 Y355.756
Z33
Z21.15
G1 Z20.55 F700
G3 X53.704 Y351.426 Z20.237 I-1.854 J-2.165 F250
X56.233 Y350.822 Z20.143 I1.854 J2.165
X54.883 Y356.36 Z19.83 I-0.675 J2.769
X52.916 Y354.66 Z19.736 I0.675 J-2.769
X55.811 Y350.752 Z19.533 I2.642 J-1.069
X57.969 Y355.111 Z19.329 I-0.253 J2.839
X53.106 Y355.043 Z19.126 I-2.411 J-1.52
X55.384 Y350.746 Z18.922 I2.452 J-1.452
X55.732 Y356.436 Z18.61 I0.174 J2.845
X53.35 Y355.393 Z18.515 I-0.174 J-2.845
X54.961 Y350.804 Z18.312 I2.208 J-1.802
X56.155 Y356.378 Z17.999 I0.597 J2.787
X53.645 Y355.703 Z17.905 I-0.597 J-2.787
X54.551 Y350.925 Z17.701 I1.913 J-2.112
X56.565 Y356.257 Z17.389 I1.007 J2.666
X53.982 Y355.965 Z17.295 I-1.007 J-2.666
X54.164 Y351.105 Z17.091 I1.576 J-2.374
X56.952 Y356.077 Z16.778 I1.394 J2.486
X54.164 Y351.105 Z16.466 I-1.394 J-2.486
X56.952 Y356.077 Z16.153 I1.394 J2.486
X54.164 Y351.105 Z15.84 I-1.394 J-2.486
X56.952 Y356.077 Z15.528 I1.394 J2.486
X55.172 Y356.415 Z15.463 I-1.394 J-2.486
X53.221 Y351.959 Z15.26 I0.386 J-2.824
X57.895 Y355.222 Z14.947 I2.337 J1.631
X55.598 Y356.441 Z14.853 I-2.337 J-1.631
X53.004 Y352.327 Z14.65 I-0.04 J-2.85
X58.112 Y354.855 Z14.337 I2.554 J1.264
X53.004 Y352.327 Z14.024 I-2.554 J-1.264
X58.112 Y354.855 Z13.712 I2.554 J1.264
X53.004 Y352.327 Z13.399 I-2.554 J-1.264
X57.244 Y351.293 Z13.225 I2.554 J1.264
X56.834 Y356.139 Z13.022 I-1.686 J2.298
X54.282 Y351.043 Z12.709 I-1.276 J-2.548
X56.881 Y351.067 Z12.615 I1.276 J2.548
X57.201 Y355.92 Z12.411 I-1.323 J2.524
X53.915 Y351.262 Z12.099 I-1.643 J-2.329
X56.489 Y350.897 Z12.004 I1.643 J2.329
X54.627 Y356.284 Z11.692 I-0.931 J2.694
X52.828 Y354.408 Z11.598 I0.931 J-2.694
X56.076 Y350.788 Z11.394 I2.73 J-0.817
X55.04 Y356.393 Z11.081 I-0.518 J2.802
X52.98 Y354.807 Z10.987 I0.518 J-2.803
X55.651 Y350.742 Z10.784 I2.578 J-1.216
X58.05 Y354.973 Z10.58 I-0.093 J2.848
X53.066 Y352.209 Z10.268 I-2.492 J-1.382
X55.225 Y350.76 Z10.173 I2.492 J1.382
X55.892 Y356.421 Z9.861 I0.333 J2.83
X53.455 Y355.515 Z9.766 I-0.333 J-2.83
X54.805 Y350.842 Z9.563 I2.103 J-1.924
X56.311 Y356.34 Z9.25 I0.753 J2.749
X53.766 Y355.807 Z9.156 I-0.753 J-2.749
X54.403 Y350.986 Z8.952 I1.792 J-2.216
X56.713 Y356.196 Z8.64 I1.155 J2.605
X54.118 Y356.05 Z8.546 I-1.155 J-2.605
X54.026 Y351.188 Z8.342 I1.44 J-2.459
X57.09 Y355.994 Z8.029 I1.532 J2.403
X54.502 Y356.238 Z7.935 I-1.532 J-2.403
X53.684 Y351.443 Z7.732 I1.056 J-2.647
X57.432 Y355.738 Z7.419 I1.874 J2.147
X54.909 Y356.366 Z7.325 I-1.874 J-2.147
X53.384 Y351.748 Z7.121 I0.649 J-2.775
X57.732 Y355.434 Z6.809 I2.174 J1.843
X55.331 Y356.432 Z6.714 I-2.174 J-1.843
X55.785 Y350.75 Z6.402 I0.227 J-2.841
X57.997 Y352.116 Z6.307 I-0.227 J2.841
X55.758 Y356.434 Z6.104 I-2.439 J1.475
X55.358 Y350.748 Z5.791 I-0.2 J-2.843
X57.749 Y351.768 Z5.697 I0.2 J2.843
X56.181 Y356.372 Z5.494 I-2.191 J1.823
X54.935 Y350.81 Z5.181 I-0.623 J-2.781
X57.452 Y351.461 Z5.087 I0.623 J2.781
X56.59 Y356.248 Z4.883 I-1.894 J2.13
X54.526 Y350.934 Z4.571 I-1.032 J-2.657
X57.112 Y351.202 Z4.476 I1.032 J2.657
X56.975 Y356.063 Z4.273 I-1.554 J2.389
X54.141 Y351.118 Z3.96 I-1.417 J-2.473
X56.975 Y356.063 Z3.647 I1.417 J2.473
X54.141 Y351.118 Z3.335 I-1.417 J-2.473
X56.336 Y350.849 Z3.255 I1.417 J2.473
X57.643 Y355.534 Z3.052 I-0.778 J2.742
X53.473 Y351.648 Z2.739 I-2.085 J-1.943
X55.918 Y350.764 Z2.645 I2.085 J1.943
X55.198 Y356.418 Z2.332 I-0.36 J2.827
X53.053 Y354.95 Z2.238 I0.36 J-2.827
X55.491 Y350.742 Z2.035 I2.505 J-1.359
X55.625 Y356.44 Z1.722 I0.067 J2.849
X53.284 Y355.309 Z1.628 I-0.067 J-2.849
X55.066 Y350.784 Z1.424 I2.274 J-1.718
X56.05 Y356.398 Z1.112 I0.492 J2.807
X53.567 Y355.63 Z1.017 I-0.492 J-2.807
X54.652 Y350.889 Z0.814 I1.991 J-2.039
X56.464 Y356.293 Z0.501 I0.906 J2.702
X53.894 Y355.904 Z0.407 I-0.906 J-2.702
X57.222 Y351.277 Z0.094 I1.664 J-2.314
X58.408 Y353.591 Z0 I-1.664 J2.314
X52.93 Y354.695 I-2.85
X54.031 Y351.184 I2.628 J-1.104
X58.408 Y353.591 I1.527 J2.407
G1 X58.411 Y353.812 F850
X58.564 Y354.685
G3 X58.298 Y355.798 I-1.376 J0.26
X55.559 Y357.435 I-3.251 J-2.329
X52.335 Y351.231 I-0.39 J-3.737
X53.544 Y350.271 I3.38 J3.015
X58.942 Y354.397 I1.735 J3.324
X58.3 Y355.799 I-3.529 J-0.768
G1 X58.245 Y355.856 F700
X58.184 Y355.905
X58.117 Y355.946
X58.034 Y355.99 Z0.007
X57.953 Y356.033 Z0.029
X57.877 Y356.074 Z0.065
X57.806 Y356.111 Z0.115
X57.742 Y356.145 Z0.176
X57.688 Y356.174 Z0.247
X57.645 Y356.197 Z0.328
X57.613 Y356.214 Z0.415
X57.594 Y356.224 Z0.506
X57.587 Y356.228 Z0.6
G0 Z23
X75.924 Y356.158
Z21.15
G1 Z20.55 F700
G3 X72.216 Y351.829 Z20.237 I-1.854 J-2.165 F250
X74.745 Y351.225 Z20.143 I1.854 J2.165
X76.226 Y355.857 Z19.94 I-0.675 J2.769
X71.913 Y352.13 Z19.627 I-2.156 J-1.863
X74.323 Y351.155 Z19.533 I2.156 J1.863
X76.481 Y355.514 Z19.329 I-0.253 J2.839
X71.659 Y352.473 Z19.017 I-2.411 J-1.52
X76.481 Y355.514 Z18.704 I2.411 J1.52
X71.862 Y355.796 Z18.515 I-2.411 J-1.52
X73.473 Y351.207 Z18.312 I2.208 J-1.802
X74.667 Y356.78 Z17.999 I0.597 J2.787
X72.156 Y356.106 Z17.905 I-0.597 J-2.787
X73.063 Y351.327 Z17.701 I1.913 J-2.112
X75.077 Y356.66 Z17.389 I1.007 J2.666
X72.494 Y356.368 Z17.295 I-1.007 J-2.666
X72.676 Y351.508 Z17.091 I1.576 J-2.374
X75.464 Y356.479 Z16.778 I1.394 J2.486
X72.866 Y356.577 Z16.684 I-1.394 J-2.486
X72.32 Y351.744 Z16.481 I1.204 J-2.583
X75.82 Y356.243 Z16.168 I1.75 J2.249
X73.266 Y356.728 Z16.074 I-1.75 J-2.249
X72.003 Y352.031 Z15.87 I0.804 J-2.734
X76.759 Y353.049 Z15.667 I2.067 J1.962
X73.684 Y356.817 Z15.463 I-2.689 J0.944
X71.733 Y352.362 Z15.26 I0.386 J-2.824
X76.407 Y355.625 Z14.947 I2.337 J1.631
X74.11 Y356.843 Z14.853 I-2.337 J-1.631
X74.03 Y351.144 Z14.54 I-0.04 J-2.85
X76.36 Y352.297 Z14.446 I0.04 J2.85
X74.536 Y356.805 Z14.243 I-2.29 J1.697
X71.355 Y353.126 Z14.039 I-0.466 J-2.812
X76.08 Y351.973 Z13.836 I2.715 J0.868
X74.951 Y356.704 Z13.632 I-2.01 J2.02
X71.256 Y353.541 Z13.429 I-0.881 J-2.71
X76.884 Y354.446 Z13.116 I2.814 J0.452
X71.22 Y353.967 Z12.818 I-2.814 J-0.452
X75.393 Y351.469 Z12.615 I2.85 J0.027
X75.713 Y356.322 Z12.411 I-1.323 J2.524
X71.248 Y354.393 Z12.208 I-1.643 J-2.329
X75.001 Y351.3 Z12.004 I2.822 J-0.4
X76.042 Y356.051 Z11.801 I-0.931 J2.694
X72.097 Y351.936 Z11.488 I-1.972 J-2.057
X74.588 Y351.191 Z11.394 I1.972 J2.057
X76.328 Y355.733 Z11.191 I-0.518 J2.803
X71.812 Y352.254 Z10.878 I-2.258 J-1.739
X74.163 Y351.145 Z10.784 I2.258 J1.739
X76.562 Y355.376 Z10.58 I-0.093 J2.848
X71.703 Y355.581 Z10.377 I-2.492 J-1.382
X73.736 Y351.163 Z10.173 I2.367 J-1.588
X76.741 Y354.988 Z9.97 I0.333 J2.83
X71.399 Y352.999 Z9.657 I-2.671 J-0.994
X76.741 Y354.988 Z9.344 I2.671 J0.994
X72.278 Y356.21 Z9.156 I-2.671 J-0.994
X72.915 Y351.388 Z8.952 I1.792 J-2.216
X75.225 Y356.599 Z8.64 I1.155 J2.605
X72.63 Y356.453 Z8.546 I-1.155 J-2.605
X72.538 Y351.59 Z8.342 I1.44 J-2.459
X75.602 Y356.397 Z8.029 I1.532 J2.403
X73.013 Y356.641 Z7.935 I-1.532 J-2.403
X72.196 Y351.846 Z7.732 I1.056 J-2.647
X75.944 Y356.141 Z7.419 I1.874 J2.147
X73.421 Y356.769 Z7.325 I-1.874 J-2.147
X71.896 Y352.15 Z7.121 I0.649 J-2.775
X76.244 Y355.837 Z6.809 I2.174 J1.843
X73.843 Y356.835 Z6.714 I-2.174 J-1.843
X71.645 Y352.496 Z6.511 I0.227 J-2.841
X76.495 Y355.491 Z6.198 I2.425 J1.498
X74.27 Y356.836 Z6.104 I-2.425 J-1.498
X73.869 Y351.151 Z5.791 I-0.2 J-2.843
X76.261 Y352.171 Z5.697 I0.2 J2.843
X74.693 Y356.775 Z5.494 I-2.191 J1.823
X73.447 Y351.213 Z5.181 I-0.623 J-2.781
X75.964 Y351.864 Z5.087 I0.623 J2.781
X75.102 Y356.65 Z4.883 I-1.894 J2.13
X71.235 Y353.7 Z4.68 I-1.032 J-2.657
X76.905 Y354.287 Z4.367 I2.835 J0.293
X75.487 Y356.466 Z4.273 I-2.835 J-0.293
X72.653 Y351.521 Z3.96 I-1.417 J-2.473
X75.249 Y351.399 Z3.866 I1.417 J2.473
X75.841 Y356.226 Z3.662 I-1.179 J2.595
X72.299 Y351.761 Z3.35 I-1.771 J-2.233
X74.848 Y351.252 Z3.255 I1.771 J2.233
X76.155 Y355.937 Z3.052 I-0.778 J2.742
X71.985 Y352.05 Z2.739 I-2.085 J-1.943
X74.43 Y351.166 Z2.645 I2.085 J1.943
X76.422 Y355.603 Z2.442 I-0.36 J2.827
X71.565 Y355.353 Z2.238 I-2.352 J-1.61
X74.003 Y351.144 Z2.035 I2.505 J-1.359
X76.636 Y355.234 Z1.831 I0.067 J2.849
X71.504 Y352.754 Z1.519 I-2.566 J-1.24
X73.578 Y351.186 Z1.424 I2.566 J1.24
X74.562 Y356.801 Z1.112 I0.492 J2.807
X72.078 Y356.032 Z1.017 I-0.492 J-2.807
X73.164 Y351.291 Z0.814 I1.991 J-2.039
X74.976 Y356.696 Z0.501 I0.906 J2.702
X72.406 Y356.307 Z0.407 I-0.906 J-2.702
X72.77 Y351.457 Z0.203 I1.664 J-2.314
X76.92 Y353.994 Z0 I1.3 J2.536
X71.22 I-2.85
X75.84 Y351.76 I2.85
X76.92 Y353.994 I-1.771 J2.233
G1 X76.923 Y354.215 F850
X77.075 Y355.088
G3 X76.496 Y357.171 I-1.821 J0.616
G1 X76.238 Y357.317
X75.957 Y357.409
X75.664 Y357.44
X74.071 Y357.438
G3 X70.554 Y352.382 I0.012 J-3.76
X74.07 Y349.938 I3.532 J1.33
G1 X74.875 Y349.939
G3 X77.851 Y351.649 I-0.161 J3.726
X78.847 Y353.745 I-6.133 J4.198
X78.857 Y356.493 I-4.667 J1.391
X77.527 Y357.441 I-1.336 J-0.467
G1 X76.082
X75.664 Y357.44
G3 X75.436 Y357.386 I0.022 J-0.6 F700
X75.09 Y356.915 I0.249 J-0.546 F850
G1 X74.3 Y350.613
G3 X74.647 Y349.992 I0.595 J-0.075
X74.875 Y349.939 I0.248 J0.546 F700
X77.185 Y349.946 I0.284 J285.799 F850
X78.788 Y350.642 I-0.42 J3.162
X80.695 Y353.559 I-3.392 J4.301
X80.756 Y356.411 I-4.957 J1.532
X80.215 Y357.178 I-1.43 J-0.432
G1 X79.964 Y357.321
X79.688 Y357.41
X79.401 Y357.441
X78.497 Y357.442
X77.527 Y357.441
G3 X77.299 Y357.387 I0.021 J-0.6 F700
X76.95 Y356.89 I0.249 J-0.546 F850
G1 X76.432 Y350.589
G3 X76.781 Y349.994 I0.598 J-0.049
X77.009 Y349.941 I0.249 J0.546 F700
X79.091 Y349.948 I0.592 J135.494 F850
X80.973 Y350.856 I-0.44 J3.317
X82.579 Y353.504 I-3.811 J4.121
X82.717 Y356.08 I-5.288 J1.576
X82.313 Y356.985 I-1.882 J-0.299
X81.278 Y357.439 I-1.04 J-0.965
G1 X80.106
X79.401 Y357.441
G3 X79.173 Y357.387 I0.02 J-0.6 F700
X78.823 Y356.888 I0.248 J-0.546 F850
G1 X78.323 Y350.588
G3 X78.671 Y349.996 I0.598 J-0.047
X78.899 Y349.941 I0.25 J0.545 F700
X81.007 Y349.944 I0.876 J132.199 F850
X82.869 Y350.847 I-0.44 J3.279
X84.46 Y353.493 I-3.707 J4.031
X84.522 Y356.395 I-5.072 J1.56
X83.971 Y357.185 I-1.45 J-0.425
X82.924 Y357.44 I-0.866 J-1.277
G1 X82.521 Y357.439
X81.278
G3 X81.05 Y357.385 I0.021 J-0.6 F700
X80.7 Y356.881 I0.249 J-0.546 F850
G1 X80.252 Y350.581
G3 X80.602 Y349.992 I0.598 J-0.043
X80.83 Y349.939 I0.249 J0.546 F700
G1 X82.521 F850
G3 X84.526 Y350.652 I0.075 J2.964
X86.213 Y353.061 I-3.338 J4.133
X86.477 Y356.12 I-5.353 J2.003
X86.074 Y356.992 I-1.846 J-0.324
X85.054 Y357.441 I-1.035 J-0.968
G1 X84.533 Y357.444
X83.229
X83.151
G3 X82.923 Y357.389 I0.024 J-0.6 F700
X82.576 Y356.884 I0.251 J-0.545 F850
G1 X82.159 Y350.58
G3 X82.514 Y349.992 I0.599 J-0.04
X82.742 Y349.941 I0.244 J0.548 F700
X84.805 Y349.948 I0.647 J108.601 F850
X86.65 Y350.846 I-0.433 J3.234
X88.238 Y353.492 I-3.816 J4.091
X88.369 Y356.086 I-5.334 J1.569
X87.962 Y356.989 I-1.883 J-0.305
X86.929 Y357.44 I-1.038 J-0.967
G2 X85.054 Y357.441 I-0.886 J204.852
G3 X84.826 Y357.389 I0.017 J-0.6 F700
X84.472 Y356.878 I0.245 J-0.548 F850
G1 X84.081 Y350.58
G3 X84.427 Y349.999 I0.599 J-0.037
X84.655 Y349.943 I0.252 J0.544 F700
X86.695 Y349.945 I0.958 J76.029 F850
X88.545 Y350.852 I-0.446 J3.251
X90.128 Y353.502 I-3.826 J4.082
X90.252 Y356.095 I-5.334 J1.555
X89.846 Y356.99 I-1.867 J-0.307
X88.814 Y357.44 I-1.036 J-0.968
G1 X86.929
G3 X86.701 Y357.386 I0.021 J-0.6 F700
X86.351 Y356.877 I0.249 J-0.546 F850
G1 X85.967 Y350.576
G3 X86.317 Y349.994 I0.599 J-0.036
X86.545 Y349.94 I0.249 J0.546 F700
G1 X88.376 F850
G3 X90.158 Y350.626 I-0.113 J2.952
X91.847 Y353.005 I-3.19 J4.053
X92.142 Y356.077 I-5.26 J2.056
X91.734 Y356.987 I-1.92 J-0.314
X90.699 Y357.44 I-1.04 J-0.967
G1 X88.814
G3 X88.586 Y357.386 I0.021 J-0.6 F700
X88.237 Y356.882 I0.249 J-0.546 F850
G1 X87.799 Y350.581
G3 X88.148 Y349.994 I0.599 J-0.042
X88.376 Y349.94 I0.249 J0.546 F700
G1 X90.289 F850
G3 X92.043 Y350.624 I-0.14 J2.951
X93.737 Y353.001 I-3.288 J4.135
X94.029 Y356.076 I-5.364 J2.061
X93.619 Y356.987 I-1.936 J-0.323
X92.585 Y357.44 I-1.04 J-0.968
G1 X90.699
G3 X90.472 Y357.386 I0.021 J-0.6 F700
X90.122 Y356.879 I0.249 J-0.546 F850
G1 X89.711 Y350.579
G3 X90.061 Y349.994 I0.599 J-0.039
X90.289 Y349.94 I0.249 J0.546 F700
G1 X92.179 F850
G3 X93.929 Y350.623 I-0.144 J2.951
X95.617 Y353.002 I-3.189 J4.053
X95.913 Y356.076 I-5.266 J2.058
X95.505 Y356.987 I-1.922 J-0.315
X94.47 Y357.44 I-1.04 J-0.967
G1 X92.585
G3 X92.357 Y357.386 I0.021 J-0.6 F700
X92.007 Y356.879 I0.249 J-0.546 F850
G1 X91.601 Y350.578
G3 X91.951 Y349.994 I0.599 J-0.039
X92.179 Y349.94 I0.249 J0.546 F700
G1 X94.01 F850
G3 X95.815 Y350.625 I-0.089 J2.952
X97.508 Y353.001 I-3.284 J4.131
X97.8 Y356.076 I-5.364 J2.061
X97.39 Y356.987 I-1.936 J-0.322
X96.356 Y357.44 I-1.04 J-0.967
G1 X94.47
G3 X94.242 Y357.386 I0.021 J-0.6 F700
X93.893 Y356.884 I0.249 J-0.546 F850
G1 X93.433 Y350.583
G3 X93.782 Y349.994 I0.598 J-0.044
X94.01 Y349.94 I0.249 J0.546 F700
G1 X95.923 F850
G3 X97.7 Y350.625 I-0.116 J2.95
X99.393 Y353 I-3.285 J4.133
X99.685 Y356.076 I-5.364 J2.061
X99.275 Y356.987 I-1.937 J-0.322
X98.241 Y357.44 I-1.04 J-0.967
G1 X96.356
G3 X96.128 Y357.386 I0.021 J-0.6 F700
X95.778 Y356.881 I0.249 J-0.546 F850
G1 X95.345 Y350.581
G3 X95.695 Y349.994 I0.599 J-0.041
X95.923 Y349.94 I0.249 J0.546 F700
G1 X97.813 F850
G3 X99.585 Y350.624 I-0.121 J2.949
X101.278 Y353 I-3.286 J4.133
X101.57 Y356.076 I-5.364 J2.061
X101.161 Y356.987 I-1.937 J-0.323
X100.126 Y357.44 I-1.04 J-0.967
G1 X98.241
G3 X98.013 Y357.386 I0.021 J-0.6 F700
X97.663 Y356.881 I0.249 J-0.546 F850
G1 X97.236 Y350.58
G3 X97.585 Y349.994 I0.599 J-0.041
X97.813 Y349.94 I0.249 J0.546 F700
G1 X99.644 F850
G3 X101.471 Y350.626 I-0.068 J2.957
X103.164 Y353.001 I-3.284 J4.131
X103.456 Y356.076 I-5.363 J2.06
X103.046 Y356.987 I-1.936 J-0.322
X102.012 Y357.44 I-1.04 J-0.967
G1 X100.126
G3 X99.899 Y357.386 I0.021 J-0.6 F700
X99.549 Y356.886 I0.249 J-0.546 F850
G1 X99.067 Y350.585
G3 X99.416 Y349.994 I0.598 J-0.046
X99.644 Y349.94 I0.249 J0.546 F700
G1 X101.657 F850
G3 X103.406 Y350.66 I-0.2 J2.97
X105.083 Y353.091 I-3.386 J4.131
X105.389 Y355.79 I-5.518 J1.994
G1 X105.321 Y356.143
G3 X104.922 Y356.998 I-1.709 J-0.277
X103.899 Y357.44 I-1.026 J-0.97
G1 X102.012
G3 X101.784 Y357.386 I0.021 J-0.6 F700
X101.434 Y356.874 I0.249 J-0.546 F850
G1 X101.078 Y350.573
G3 X101.429 Y349.994 I0.599 J-0.034
X101.657 Y349.94 I0.249 J0.546 F700
G1 X103.447 F850
G3 X105.243 Y350.625 I-0.097 J2.949
X106.744 Y352.551 I-3.055 J3.929
X107.229 Y356.077 I-5.239 J2.517
X106.818 Y356.987 I-1.954 J-0.333
X105.784 Y357.44 I-1.04 J-0.968
G1 X103.899
G3 X103.671 Y357.386 I0.021 J-0.6 F700
X103.321 Y356.883 I0.249 J-0.546 F850
G1 X102.87 Y350.583
G3 X103.219 Y349.994 I0.598 J-0.043
X103.447 Y349.94 I0.249 J0.546 F700
G1 X105.378 F850
G3 X107.127 Y350.624 I-0.145 J2.952
X108.821 Y353.001 I-3.288 J4.135
X109.113 Y356.076 I-5.364 J2.061
X108.704 Y356.987 I-1.936 J-0.322
X107.669 Y357.44 I-1.04 J-0.967
G1 X105.784
G3 X105.556 Y357.386 I0.021 J-0.6 F700
X105.206 Y356.879 I0.249 J-0.546 F850
G1 X104.8 Y350.578
G3 X105.15 Y349.994 I0.599 J-0.039
X105.378 Y349.94 I0.249 J0.546 F700
G1 X107.291 F850
G3 X109.028 Y350.633 I-0.174 J2.958
X110.717 Y353.026 I-3.317 J4.134
X110.994 Y356.096 I-5.364 J2.033
X110.586 Y356.991 I-1.896 J-0.325
X109.555 Y357.44 I-1.036 J-0.969
G1 X107.669
G3 X107.441 Y357.386 I0.021 J-0.6 F700
X107.091 Y356.876 I0.249 J-0.546 F850
G1 X106.713 Y350.576
G3 X107.063 Y349.994 I0.599 J-0.036
X107.291 Y349.94 I0.249 J0.546 F700
G1 X109.081 F850
G3 X110.901 Y350.627 I-0.076 J2.955
X112.588 Y353.004 I-3.187 J4.05
X112.883 Y356.076 I-5.258 J2.056
X112.475 Y356.987 I-1.919 J-0.313
X111.44 Y357.44 I-1.04 J-0.967
G1 X109.555
G3 X109.327 Y357.386 I0.021 J-0.6 F700
X108.978 Y356.885 I0.249 J-0.546 F850
G1 X108.504 Y350.585
G3 X108.853 Y349.994 I0.598 J-0.045
X109.081 Y349.94 I0.249 J0.546 F700
G1 X111.094 F850
G3 X112.846 Y350.67 I-0.21 J2.974
X114.52 Y353.114 I-3.411 J4.13
X114.815 Y355.809 I-5.515 J1.969
G1 X114.746 Y356.159
G3 X114.348 Y357.001 I-1.675 J-0.277
X113.328 Y357.44 I-1.023 J-0.972
G1 X111.44
G3 X111.213 Y357.386 I0.021 J-0.6 F700
X110.862 Y356.873 I0.249 J-0.546 F850
G1 X110.515 Y350.573
G3 X110.866 Y349.994 I0.599 J-0.033
X111.094 Y349.94 I0.249 J0.546 F700
G1 X112.925 F850
G3 X114.67 Y350.622 I-0.146 J2.948
X116.173 Y352.55 I-3.059 J3.934
X116.658 Y356.078 I-5.243 J2.518
X116.248 Y356.987 I-1.953 J-0.333
X115.213 Y357.44 I-1.04 J-0.968
G1 X113.328
G3 X113.1 Y357.386 I0.021 J-0.6 F700
X112.75 Y356.879 I0.249 J-0.546 F850
G1 X112.347 Y350.578
G3 X112.697 Y349.994 I0.599 J-0.038
X112.925 Y349.94 I0.249 J0.546 F700
G1 X114.715 F850
G3 X116.558 Y350.627 I-0.056 J2.962
X118.25 Y353.003 I-3.285 J4.131
X118.601 Y355.71 I-5.516 J2.091
G1 X118.537 Y356.076
G3 X118.132 Y356.987 I-1.85 J-0.276
X117.098 Y357.44 I-1.039 J-0.964
G1 X115.213
G3 X114.985 Y357.386 I0.021 J-0.6 F700
X114.636 Y356.888 I0.249 J-0.546 F850
G1 X114.138 Y350.587
G3 X114.488 Y349.994 I0.598 J-0.047
X114.715 Y349.94 I0.249 J0.546 F700
G1 X116.728 F850
G3 X118.47 Y350.644 I-0.185 J2.964
X120.155 Y353.052 I-3.345 J4.133
X120.48 Y355.756 I-5.52 J2.036
G1 X120.414 Y356.115
G3 X120.012 Y356.993 I-1.77 J-0.278
X118.984 Y357.44 I-1.032 J-0.968
G1 X117.098
G3 X116.87 Y357.386 I0.021 J-0.6 F700
X116.52 Y356.876 I0.249 J-0.546 F850
G1 X116.15 Y350.575
G3 X116.5 Y349.994 I0.599 J-0.035
X116.728 Y349.94 I0.249 J0.546 F700
G1 X118.559 F850
G3 X120.329 Y350.625 I-0.123 J2.949
X121.829 Y352.548 I-3.055 J3.929
X122.315 Y356.077 I-5.239 J2.519
X121.904 Y356.987 I-1.956 J-0.334
X120.87 Y357.44 I-1.04 J-0.968
G1 X118.984
G3 X118.756 Y357.386 I0.021 J-0.6 F700
X118.407 Y356.881 I0.249 J-0.546 F850
G1 X117.981 Y350.58
G3 X118.331 Y349.994 I0.599 J-0.04
X118.559 Y349.94 I0.249 J0.546 F700
G1 X120.471 F850
G3 X122.213 Y350.623 I-0.153 J2.951
X123.902 Y353.002 I-3.19 J4.054
X124.198 Y356.076 I-5.263 J2.058
X123.789 Y356.987 I-1.92 J-0.313
X122.755 Y357.44 I-1.04 J-0.967
G1 X120.87
G3 X120.642 Y357.386 I0.021 J-0.6 F700
X120.292 Y356.878 I0.249 J-0.546 F850
G1 X119.893 Y350.578
G3 X120.243 Y349.994 I0.599 J-0.038
X120.471 Y349.94 I0.249 J0.546 F700
G1 X122.362 F850
G3 X124.099 Y350.623 I-0.157 J2.952
X125.788 Y353.001 I-3.19 J4.054
X126.084 Y356.076 I-5.264 J2.058
X125.675 Y356.987 I-1.92 J-0.313
X124.641 Y357.44 I-1.04 J-0.967
G1 X122.755
G3 X122.527 Y357.386 I0.021 J-0.6 F700
X122.177 Y356.878 I0.249 J-0.546 F850
G1 X121.784 Y350.577
G3 X122.134 Y349.994 I0.599 J-0.037
X122.362 Y349.94 I0.249 J0.546 F700
G1 X124.193 F850
G3 X125.985 Y350.625 I-0.1 J2.95
X127.678 Y353 I-3.284 J4.132
X128.029 Y355.709 I-5.52 J2.092
G1 X127.965 Y356.076
G3 X127.56 Y356.987 I-1.851 J-0.276
X126.526 Y357.44 I-1.039 J-0.965
G1 X124.641
G3 X124.413 Y357.386 I0.021 J-0.6 F700
X124.063 Y356.883 I0.249 J-0.546 F850
G1 X123.615 Y350.582
G3 X123.965 Y349.994 I0.598 J-0.043
X124.193 Y349.94 I0.249 J0.546 F700
G1 X126.105 F850
G3 X127.87 Y350.624 I-0.128 J2.949
X129.564 Y353 I-3.286 J4.133
X129.914 Y355.709 I-5.519 J2.092
G1 X129.85 Y356.076
G3 X129.446 Y356.987 I-1.852 J-0.276
X128.411 Y357.44 I-1.039 J-0.965
G1 X126.526
G3 X126.298 Y357.386 I0.021 J-0.6 F700
X125.948 Y356.88 I0.249 J-0.546 F850
G1 X125.527 Y350.58
G3 X125.877 Y349.994 I0.599 J-0.04
X126.105 Y349.94 I0.249 J0.546 F700
G1 X127.996 F850
G3 X129.756 Y350.624 I-0.133 J2.949
X131.449 Y353 I-3.286 J4.133
X131.8 Y355.709 I-5.52 J2.092
G1 X131.736 Y356.075
G3 X131.331 Y356.987 I-1.852 J-0.276
X130.297 Y357.44 I-1.039 J-0.965
G1 X128.411
G3 X128.184 Y357.386 I0.021 J-0.6 F700
X127.834 Y356.88 I0.249 J-0.546 F850
G1 X127.418 Y350.579
G3 X127.768 Y349.994 I0.599 J-0.04
X127.996 Y349.94 I0.249 J0.546 F700
G1 X129.827 F850
G3 X131.642 Y350.626 I-0.079 J2.954
X133.334 Y353.001 I-3.284 J4.131
X133.685 Y355.709 I-5.519 J2.092
G1 X133.621 Y356.076
G3 X133.216 Y356.987 I-1.851 J-0.276
X132.182 Y357.44 I-1.039 J-0.965
G1 X130.297
G3 X130.069 Y357.386 I0.021 J-0.6 F700
X129.72 Y356.885 I0.249 J-0.546 F850
G1 X129.249 Y350.584
G3 X129.599 Y349.994 I0.598 J-0.045
X129.827 Y349.94 I0.249 J0.546 F700
G1 X131.839 F850
G3 X133.593 Y350.673 I-0.213 J2.976
X135.265 Y353.122 I-3.421 J4.13
X135.556 Y355.817 I-5.514 J1.96
G1 X135.487 Y356.165
G3 X135.09 Y357.002 I-1.662 J-0.276
X134.07 Y357.44 I-1.022 J-0.972
G1 X132.182
G3 X131.954 Y357.386 I0.021 J-0.6 F700
X131.604 Y356.873 I0.249 J-0.546 F850
G1 X131.261 Y350.572
G3 X131.611 Y349.994 I0.599 J-0.033
X131.839 Y349.94 I0.249 J0.546 F700
G1 X133.63 F850
G3 X135.412 Y350.623 I-0.107 J2.946
X137.106 Y353.001 I-3.297 J4.142
X137.458 Y355.71 I-5.534 J2.095
G1 X137.393 Y356.077
G3 X136.989 Y356.987 I-1.847 J-0.276
X135.955 Y357.44 I-1.039 J-0.964
G1 X134.07
G3 X133.843 Y357.386 I0.021 J-0.6 F700
X133.493 Y356.882 I0.249 J-0.546 F850
G1 X133.052 Y350.582
G3 X133.402 Y349.994 I0.599 J-0.042
X133.63 Y349.94 I0.249 J0.546 F700
G1 X135.461 F850
G3 X137.3 Y350.627 I-0.059 J2.961
X138.992 Y353.003 I-3.285 J4.131
X139.343 Y355.71 I-5.516 J2.091
G1 X139.279 Y356.076
G3 X138.874 Y356.987 I-1.85 J-0.276
X137.84 Y357.44 I-1.039 J-0.964
G1 X135.955
G3 X135.727 Y357.386 I0.021 J-0.6 F700
X135.378 Y356.887 I0.249 J-0.546 F850
G1 X134.883 Y350.587
G3 X135.233 Y349.994 I0.598 J-0.047
X135.461 Y349.94 I0.249 J0.546 F700
G1 X137.473 F850
G3 X139.217 Y350.648 I-0.188 J2.966
X140.9 Y353.062 I-3.355 J4.133
X141.221 Y355.764 I-5.519 J2.026
G1 X141.154 Y356.122
G3 X140.753 Y356.995 I-1.754 J-0.278
X139.726 Y357.44 I-1.03 J-0.968
G1 X137.84
G3 X137.612 Y357.386 I0.021 J-0.6 F700
X137.262 Y356.875 I0.249 J-0.546 F850
G1 X136.895 Y350.575
G3 X137.245 Y349.994 I0.599 J-0.035
X137.473 Y349.94 I0.249 J0.546 F700
G1 X139.264 F850
G3 X141.071 Y350.626 I-0.087 J2.953
X142.571 Y352.549 I-3.054 J3.927
X143.057 Y356.077 I-5.237 J2.518
X142.646 Y356.987 I-1.955 J-0.333
X141.612 Y357.44 I-1.04 J-0.968
G1 X139.726
G3 X139.499 Y357.386 I0.021 J-0.6 F700
X139.149 Y356.884 I0.249 J-0.546 F850
G1 X138.686 Y350.584
G3 X139.036 Y349.994 I0.598 J-0.044
X139.264 Y349.94 I0.249 J0.546 F700
G1 X141.194 F850
G3 X142.955 Y350.624 I-0.133 J2.951
X144.649 Y353.001 I-3.287 J4.134
X145 Y355.709 I-5.519 J2.092
G1 X144.936 Y356.076
G3 X144.531 Y356.987 I-1.851 J-0.276
X143.497 Y357.44 I-1.039 J-0.965
G1 X141.612
G3 X141.384 Y357.386 I0.021 J-0.6 F700
X141.034 Y356.88 I0.249 J-0.546 F850
G1 X140.617 Y350.579
G3 X140.966 Y349.994 I0.599 J-0.04
X141.194 Y349.94 I0.249 J0.546 F700
G1 X143.107 F850
G3 X144.84 Y350.623 I-0.162 J2.953
X146.53 Y353.001 I-3.191 J4.055
X146.825 Y356.076 I-5.264 J2.058
X146.417 Y356.987 I-1.92 J-0.313
X145.382 Y357.44 I-1.04 J-0.967
G1 X143.497
G3 X143.269 Y357.386 I0.021 J-0.6 F700
X142.919 Y356.877 I0.249 J-0.546 F850
G1 X142.529 Y350.577
G3 X142.879 Y349.994 I0.599 J-0.037
X143.107 Y349.94 I0.249 J0.546 F700
G1 X144.898 F850
G3 X146.728 Y350.626 I-0.066 J2.957
X148.42 Y353.001 I-3.284 J4.131
X148.771 Y355.709 I-5.518 J2.092
G1 X148.707 Y356.076
G3 X148.302 Y356.987 I-1.851 J-0.276
X147.268 Y357.44 I-1.039 J-0.965
G1 X145.382
G3 X145.155 Y357.386 I0.021 J-0.6 F700
X144.805 Y356.886 I0.249 J-0.546 F850
G1 X144.32 Y350.586
G3 X144.67 Y349.994 I0.598 J-0.046
X144.898 Y349.94 I0.249 J0.546 F700
G1 X146.91 F850
G3 X148.658 Y350.657 I-0.197 J2.969
X150.336 Y353.084 I-3.378 J4.131
X150.646 Y355.784 I-5.519 J2.002
G1 X150.578 Y356.138
G3 X150.179 Y356.997 I-1.721 J-0.278
X149.155 Y357.44 I-1.027 J-0.97
G1 X147.268
G3 X147.04 Y357.386 I0.021 J-0.6 F700
X146.69 Y356.874 I0.249 J-0.546 F850
G1 X146.332 Y350.574
G3 X146.682 Y349.994 I0.599 J-0.034
X146.91 Y349.94 I0.249 J0.546 F700
G1 X148.741 F850
G3 X150.498 Y350.624 I-0.135 J2.948
X151.999 Y352.549 I-3.057 J3.93
X152.485 Y356.077 I-5.239 J2.518
X152.074 Y356.987 I-1.955 J-0.333
X151.04 Y357.44 I-1.04 J-0.968
G1 X149.155
G3 X148.927 Y357.386 I0.021 J-0.6 F700
X148.577 Y356.88 I0.249 J-0.546 F850
G1 X148.163 Y350.579
G3 X148.513 Y349.994 I0.599 J-0.039
X148.741 Y349.94 I0.249 J0.546 F700
G1 X150.654 F850
G3 X152.387 Y350.625 I-0.166 J2.955
X154.075 Y353.008 I-3.197 J4.055
X154.367 Y356.08 I-5.263 J2.051
X153.959 Y356.988 I-1.908 J-0.313
X152.924 Y357.44 I-1.038 J-0.968
G1 X152.544 Y357.439
X151.739 Y357.44
X151.04
G3 X150.812 Y357.386 I0.021 J-0.6 F700
X150.462 Y356.877 I0.249 J-0.546 F850
G1 X150.076 Y350.576
G3 X150.426 Y349.994 I0.599 J-0.037
X150.653 Y349.94 I0.249 J0.546 F700
G1 X152.142 F850
G3 X154.279 Y350.63 I0.223 J2.966
X155.97 Y353.018 I-3.305 J4.132
X156.329 Y355.543 I-5.536 J2.075
G1 X156.262 Y355.852
X156.131 Y356.139
X155.938 Y356.39
G3 X155.742 Y356.516 I-0.417 J-0.432 F700
X154.995 Y356.245 I-0.22 J-0.558 F850
G1 X152.039 Y350.826
G3 X152.316 Y349.993 I0.527 J-0.287
X152.544 Y349.939 I0.25 J0.545 F700
G1 X153.348 Y349.94 F850
G3 X157.031 Y354.397 I-0.008 J3.756
X153.349 Y357.441 I-3.707 J-0.735
G1 X152.924 Y357.44
Y357.59 F212.5
G3 X152.049 Y358.443 I-2.011 J-1.186 F850
G1 X151.73 Y358.633
X151.315 Y358.831
X150.769 Y359.039
X150.025 Y359.257
G3 X146.513 Y359.701 I-4.134 J-18.582
X140.312 Y359.825 I-5.482 J-119.403
G1 X138.54 Y359.835
X135.882 Y359.838
X129.679 Y359.84
X103.095
X87.143
X81.384 Y359.842
X75.625 Y359.835
X74.74 Y359.788
G3 X72.228 Y359.189 I0.597 J-8.071
X69.026 Y356.179 I2.404 J-5.766
X71.452 Y348.756 I5.102 J-2.44
G1 X71.882 Y348.554
X72.421 Y348.347
X73.152 Y348.131
G3 X76.663 Y347.682 I4.122 J18.272
X83.75 Y347.55 I6.212 J143.715
G1 X85.522 Y347.544
X88.18 Y347.541
X96.155 Y347.54
X128.056
X151.095
X151.981 Y347.551
X152.85 Y347.606
X153.604 Y347.714
G3 X156.669 Y349.056 I-1.211 J6.938
X158.947 Y353.528 I-3.614 J4.658
X156.985 Y357.921 I-5.668 J0.103
G1 X156.288 Y358.469
X154.818 Y359.459
G3 X149.95 Y361.516 I-7.682 J-11.395
X144.673 Y362.1 I-5.993 J-29.995
X137.585 Y362.227 I-6.638 J-172.81
G1 X135.813 Y362.234
X133.155 Y362.238
X127.838 Y362.24
X95.937
X88.848
X86.19 Y362.241
X79.101 Y362.24
G3 X75.558 Y362.167 I-0.674 J-52.781
G1 X74.677 Y362.074
X73.802 Y361.93
X72.94 Y361.724
G3 X70.115 Y360.436 I2.575 J-9.391
X67.137 Y356.907 I4.64 J-6.937
X67.936 Y349.24 I7.072 J-3.138
X70.289 Y347.119 I6.376 J4.708
G1 X70.948 Y346.759
X71.701 Y346.424
G3 X75.134 Y345.577 I5.209 J13.725
X80.436 Y345.219 I5.693 J44.927
X90.182 Y345.142 I7.961 J390.595
G1 X95.499 Y345.14
X129.172
X148.667
G3 X152.208 Y345.244 I0.604 J39.817
G1 X153.087 Y345.357
X153.958 Y345.523
X154.807 Y345.752
G3 X157.521 Y347.092 I-2.773 J9.033
X160.592 Y351.293 I-4.791 J6.727
X159.281 Y358.404 I-7.374 J2.317
G1 X158.769 Y359.012
G3 X151.249 Y363.486 I-11.681 J-11.076
X146.01 Y364.344 I-6.914 J-25.795
X139.814 Y364.59 I-6.476 J-85.045
X127.408 Y364.639 I-9.441 J-808.318
G1 X101.711 Y364.64
X80.444
G3 X76.016 Y364.529 I-0.707 J-59.92
X72.529 Y363.921 I1.332 J-17.96
X69.3 Y362.486 I3.516 J-12.255
X66.185 Y359.528 I5.776 J-9.202
X64.499 Y355.325 I8.15 J-5.71
X67.395 Y346.696 I9.651 J-1.561
X70.26 Y344.719 I7.649 J8.019
X74.479 Y343.412 I6.943 J14.949
X80.652 Y342.862 I6.854 J42.051
X89.512 Y342.753 I7.419 J241.914
G1 X92.171 Y342.743
X97.487 Y342.74
X116.096
X147.11
G3 X151.538 Y342.861 I0.653 J57.137
X155.02 Y343.498 I-1.428 J17.65
X158.233 Y344.966 I-3.562 J12.047
X161.304 Y347.958 I-5.863 J9.091
X163.046 Y353.275 I-8.351 J5.68
X161.667 Y358.637 I-9.889 J0.316
X159.457 Y361.394 I-10.987 J-6.546
X153.479 Y365.113 I-11.941 J-12.529
X147.454 Y366.518 I-8.584 J-23.193
X141.268 Y366.931 I-7.144 J-60.543
X128.863 Y367.037 I-10.06 J-447.409
G1 X123.546 Y367.04
X121.774
X82.784
G3 X76.584 Y366.915 I-1.174 J-95.358
X73.08 Y366.396 I1.871 J-24.71
X69.063 Y364.972 I5.069 J-20.678
X63.008 Y358.472 I5.76 J-11.435
G2 X61.528 Y357.737 I-1.231 J0.62
G1 X60.67 Y357.958
G3 X57.681 Y359.289 I-7.843 J-13.596
X53.972 Y359.402 I-2.075 J-7.134
X49.6 Y355.083 I1.438 J-5.828
X55.992 Y347.917 I5.707 J-1.343
X59.303 Y349.541 I-0.803 J5.822
G2 X60.75 Y349.812 I0.941 J-1.023
G1 X61.149 Y349.62
X61.809 Y349.029
G2 X63.573 Y347.058 I-29.502 J-28.181
G3 X64.974 Y345.59 I21.584 J19.188
X68.6 Y343.058 I13.767 J15.855
X73.595 Y341.287 I8.714 J16.652
X79.748 Y340.552 I7.562 J37.192
X88.606 Y340.364 I7.907 J163.11
G1 X90.378 Y340.349
X93.036 Y340.344
X96.581 Y340.341
X107.214 Y340.34
X114.303
X145.318
G3 X150.632 Y340.451 I0.836 J87.855
X155.001 Y341.152 I-1.533 J23.499
X159.802 Y343.375 I-3.898 J14.713
X163.848 Y348 I-7.406 J10.563
X165.208 Y353.985 I-10.859 J5.615
X163.884 Y359.093 I-12.255 J-0.451
X161.303 Y362.673 I-12.908 J-6.586
X154.708 Y367.053 I-13.559 J-13.259
X148.56 Y368.695 I-9.748 J-24.179
G1 X148.484 Y368.692
X148.332 Y368.69
X91.562
G2 X90.555 Y368.77 I-0.091 J5.207
G1 X90.5 Y368.789
X89.638 Y368.992
G3 X85.227 Y369.362 I-4.619 J-28.554
X77.254 Y369.309 I-3.351 J-94.802
X72.871 Y368.689 I1.87 J-29.059
X68.678 Y367.278 I4.982 J-21.739
X63.131 Y362.961 I6.585 J-14.186
G1 X62.811 Y362.654
X62.055 Y362.193
X61.201 Y361.957
X60.32 Y361.864
X59.433 Y361.852
X58.548 Y361.88
G3 X55.008 Y361.815 I-1.395 J-20.466
G1 X54.179 Y361.668
G3 X50.864 Y360.239 I1.856 J-8.869
X47.527 Y354.929 I4.59 J-6.587
X54.342 Y345.927 I7.781 J-1.19
X56.822 Y346.036 I0.893 J7.926
G1 X57.682 Y346.25
X58.566 Y346.309
X59.431 Y346.12
X60.249 Y345.777
X61.02 Y345.341
G2 X63.915 Y343.298 I-34.377 J-51.797
G3 X68.477 Y340.581 I16.473 J22.469
X75.277 Y338.659 I10.249 J23.279
X82.338 Y338.083 I8.137 J56.101
X88.845 Y337.966 I6.599 J187.233
X89.748 Y338.286 I-0.007 J1.453
G2 X90.958 Y338.668 I1.48 J-2.581
G1 X91.361 Y338.686
X91.562 Y338.69
X148.332
G2 X149.137 Y338.618 I0.117 J-3.205
G1 X149.723 Y338.514
G3 X153.257 Y338.545 I1.65 J13.306
X161.4 Y341.79 I-2.122 J17.159
X166.594 Y348.815 I-9.054 J12.128
X166.256 Y359.204 I-13.552 J4.759
X162.814 Y364.321 I-15.289 J-6.568
X158.014 Y367.972 I-14.244 J-13.744
G2 X156.458 Y368.685 I1.594 J5.537
G3 X152.254 Y370.262 I-9.899 J-19.989
X150.819 Y369.795 I-0.353 J-1.354
X150.716 Y369.585 I0.477 J-0.364 F700
X151.133 Y368.853 I0.58 J-0.154 F850
G1 X156.364 Y367.379
G3 X157.039 Y368.268 I0.163 J0.578
X156.881 Y368.44 I-0.513 J-0.312 F700
G2 X155.649 Y369.911 I1.705 J2.681 F850
G3 X152.99 Y371.84 I-3.774 J-2.405
X151.372 Y370.841 I-0.26 J-1.388
G1 X151.359 Y370.763 F700
X151.356 Y370.685
X151.363 Y370.607
G3 X151.745 Y370.136 I0.593 J0.091 F850
G1 X154.978 Y368.924
G3 X155.789 Y369.496 I0.211 J0.562
X155.74 Y369.725 I-0.6 J-0.01 F700
G2 X155.457 Y371.062 I2.682 J1.265 F850
G3 X153.082 Y373.217 I-2.692 J-0.58
X151.656 Y372.34 I-0.131 J-1.385
X151.622 Y372.109 I0.565 J-0.201 F700
X151.968 Y371.595 I0.599 J0.03 F850
G1 X154.612 Y370.365
G3 X155.421 Y370.683 I0.253 J0.544
X155.465 Y370.913 I-0.556 J0.226 F700
G2 X155.454 Y371.909 I15.66 J0.681 F850
G3 X154.574 Y373.335 I-1.994 J-0.247
X152.559 Y373.415 I-1.075 J-1.673
X151.607 Y372.21 I0.99 J-1.761
G2 X151.421 Y371.003 I-46.452 J6.55
G1 X151.373 Y370.841
G3 X151.363 Y370.607 I0.583 J-0.142 F700
G1 X151.377 Y370.514 Z0.007
X151.391 Y370.424 Z0.029
X151.404 Y370.338 Z0.065
X151.417 Y370.258 Z0.115
X151.428 Y370.187 Z0.176
X151.437 Y370.127 Z0.247
X151.444 Y370.078 Z0.328
X151.45 Y370.043 Z0.415
X151.453 Y370.021 Z0.506
X151.454 Y370.014 Z0.6
G0 Z23
X149.027 Y339.407
Z1.2
G1 Z0.6 F700
Y339.4 Z0.506
X149.026 Y339.378 Z0.415
X149.024 Y339.342 Z0.328
X149.022 Y339.293 Z0.247
X149.019 Y339.232 Z0.176
X149.015 Y339.16 Z0.115
X149.012 Y339.08 Z0.065
X149.007 Y338.993 Z0.029
X149.003 Y338.902 Z0.007
X148.998 Y338.808 Z0
G3 X149.137 Y338.618 I0.187 J-0.009
G2 X150.706 Y337.723 I-0.652 J-2.968 F850
G3 X152.495 Y336.942 I2.564 J3.428
X154.506 Y336.795 I1.561 J7.532
X155.704 Y337.584 I-0.105 J1.465
G2 X157.404 Y339.191 I2.756 J-1.212
G1 X159.002 Y339.754
X159.127 Y339.798
G3 X160.812 Y340.596 I-13.324 J30.337
G1 X161.336 Y340.805
G2 X162.143 Y340.964 I1.309 J-4.502
G3 X163.73 Y341.586 I-1.122 J5.199
X165.892 Y343.364 I-4.443 J7.605
X166.274 Y344.526 I-0.999 J0.972
G2 X166.531 Y346.24 I2.926 J0.438
G3 X167.462 Y348.253 I-32.028 J16.043
G1 X167.881 Y349.462
X167.96 Y349.663
X168.126 Y350.066
X168.237 Y350.267
G3 X169.07 Y352.045 I-4.927 J3.393
G1 X169.228 Y352.678
G3 X169.404 Y355.347 I-9.791 J1.986
X168.929 Y356.307 I-1.44 J-0.115
G2 X168.06 Y357.446 I1.821 J2.29
G1 X167.859 Y357.981
X167.457 Y359.133
X167.389 Y359.327
G2 X166.441 Y361.339 I431.088 J204.392
X166.245 Y362.15 I3.853 J1.358
G1 X166.131 Y362.594
X165.962 Y363.083
G3 X164.085 Y366.04 I-9.274 J-3.814
X162.626 Y366.457 I-1.058 J-0.942
G2 X161.335 Y366.572 I-0.395 J2.873
G1 X160.813 Y366.785
X160.612 Y366.88
X159.577 Y367.379
G3 X157.932 Y367.998 I-7.511 J-17.475
G1 X157.856 Y368.017 F700
X157.778 Y368.025
X157.699 Y368.024
G3 X157.411 Y366.933 I0.054 J-0.598 F850
G1 X165.334 Y361.433
G3 X166.248 Y361.744 I0.342 J0.493
X166.274 Y361.977 I-0.572 J0.181 F700
G2 X166.455 Y363.547 I3.036 J0.446 F850
G3 X165.747 Y366.636 I-3.869 J0.739
X163.916 Y366.952 I-1.092 J-0.869
X163.751 Y366.786 I0.334 J-0.498 F700
X163.728 Y366.158 I0.499 J-0.333 F850
G1 X165.328 Y363.333
G3 X166.279 Y363.209 I0.522 J0.296
X166.407 Y363.405 I-0.429 J0.419 F700
G2 X167.047 Y364.476 I2.95 J-1.036 F850
G3 X166.478 Y367.815 I-2.269 J1.331
G1 X166.186 Y367.96
G3 X164.685 Y367.64 I-0.506 J-1.305
G1 X164.626 Y367.581 F212.5
X164.214 Y367.178 F850
X164.034 Y367.029
X163.956 Y366.977
X163.916 Y366.952
G3 X163.751 Y366.786 I0.334 J-0.498 F700
X163.891 Y365.973 I0.499 J-0.333 F850
G1 X166.149 Y364.282
G3 X166.765 Y364.22 I0.36 J0.48
X166.953 Y364.36 I-0.257 J0.542 F700
G2 X167.782 Y365.204 I11.372 J-10.33 F850
G3 X168.177 Y366.674 I-1.65 J1.232
X168.044 Y367.178 I-4.697 J-0.975
X165.947 Y368.363 I-1.824 J-0.78
X164.836 Y367.8 I0.288 J-1.947
G1 X164.685 Y367.64
G3 X164.563 Y367.44 I0.441 J-0.407 F700
X164.534 Y367.133 I0.563 J-0.207 F850
G1 X167.295 Y350.732
G3 X168.189 Y350.313 I0.592 J0.1
X168.364 Y350.468 I-0.302 J0.518 F700
G2 X169.603 Y351.487 I2.447 J-1.714 F850
G3 X170.809 Y353.146 I-2.356 J2.981
X171.109 Y354.375 I-3.153 J1.419
X170.074 Y355.733 I-1.456 J-0.036
X169.84 Y355.747 I-0.152 J-0.581 F700
X169.335 Y355.281 I0.081 J-0.594 F850
G1 X168.64 Y352.095
G3 X169.241 Y351.367 I0.586 J-0.128
X169.47 Y351.419 I-0.015 J0.6 F700
G2 X170.625 Y351.734 I1.374 J-2.759 F850
G3 X172.465 Y354.491 I-0.85 J2.559
G1 X172.363 Y354.801
G3 X171.082 Y355.645 I-1.285 J-0.556
G1 X170.879 Y355.646
G3 X170.651 Y355.593 I0.019 J-0.6 F700
X170.306 Y355.144 I0.247 J-0.547 F850
G1 X169.855 Y352.413
G3 X170.245 Y351.75 I0.592 J-0.098
X170.476 Y351.716 I0.202 J0.565 F700
G2 X171.684 Y351.73 I0.747 J-12.437 F850
G3 X173.457 Y353.488 I-0.199 J1.974
X171.684 Y355.647 I-1.965 J0.194
G1 X171.282 Y355.645
X171.082
G3 X170.854 Y355.592 I0.019 J-0.6 F700
X170.606 Y355.383 I0.247 J-0.547 F850
G1 X161.391 Y341.866
G3 X161.698 Y340.959 I0.496 J-0.338
X161.931 Y340.93 I0.188 J0.57 F700
G2 X163.37 Y340.727 I0.315 J-2.961 F850
G3 X165.199 Y340.894 I0.62 J3.3
X166.416 Y341.534 I-1.28 J3.908
X166.709 Y343.356 I-0.893 J1.078
X166.542 Y343.52 I-0.497 J-0.336 F700
X165.897 Y343.53 I-0.331 J-0.501 F850
G1 X163.153 Y341.839
G3 X163.037 Y340.91 I0.315 J-0.511
X163.229 Y340.777 I0.431 J0.417 F700
G2 X164.265 Y340.163 I-1.132 J-3.09 F850
G3 X167.377 Y340.56 I1.278 J2.375
X167.389 Y342.564 I-0.962 J1.008
G2 X166.709 Y343.356 I2.392 J2.743
G3 X166.542 Y343.52 I-0.497 J-0.336 F700
X165.73 Y343.376 I-0.331 J-0.501 F850
G1 X164.032 Y341.084
G3 X163.985 Y340.444 I0.482 J-0.357
X164.134 Y340.263 I0.529 J0.283 F700
G2 X165.033 Y339.393 I-12.187 J-13.503 F850
G3 X166.047 Y339.003 I1.274 J1.797
X167.662 Y342.304 I0.176 J1.96
G1 X167.39 Y342.564
G3 X167.19 Y342.686 I-0.406 J-0.442 F700
X166.842 Y342.705 I-0.206 J-0.564 F850
G1 X150.897 Y338.821
G3 X150.477 Y338.028 I0.142 J-0.583
X150.6 Y337.828 I0.562 J0.21 F700
G2 X151.318 Y336.734 I-2.383 J-2.348 F850
G3 X153.603 Y335.275 I2.777 J1.831
X154.603 Y335.328 I0.413 J1.689
X155.469 Y336.514 I-0.53 J1.296
X155.433 Y336.745 I-0.599 J0.026 F700
X154.976 Y337.13 I-0.564 J-0.205 F850
G1 X151.917 Y337.685
G3 X151.21 Y337.099 I-0.107 J-0.59
X151.254 Y336.869 I0.6 J-0.004 F700
G2 X151.516 Y335.772 I-3.4 J-1.392 F850
G3 X152.599 Y334.298 I2.211 J0.491
X154.284 Y333.918 I1.299 J1.834
G1 X154.546 Y334.032
G3 X154.723 Y334.185 I-0.296 J0.522 F700
X154.559 Y335.069 I-0.473 J0.369 F850
G1 X152.421 Y336.35
G3 X151.537 Y336.005 I-0.309 J-0.515
X151.516 Y335.772 I0.576 J-0.169 F700
G1 X151.572 Y335.373 F850
G3 X152.962 Y333.805 I1.908 J0.292
X155.457 Y335.57 I0.541 J1.881
G1 X155.452 Y336.174
X155.458 Y336.376
X155.469 Y336.514
G3 X155.433 Y336.745 I-0.599 J0.026 F700
G1 X155.401 Y336.833 Z0.007
X155.369 Y336.919 Z0.029
X155.34 Y337.001 Z0.065
X155.312 Y337.077 Z0.115
X155.288 Y337.144 Z0.176
X155.267 Y337.201 Z0.247
X155.25 Y337.247 Z0.328
X155.238 Y337.281 Z0.415
X155.23 Y337.302 Z0.506
X155.228 Y337.309 Z0.6
G0 Z23
X90.566 Y367.994
Z1.2
G1 Z0.6 F700
X90.567 Y368.002 Z0.506
X90.569 Y368.023 Z0.415
X90.573 Y368.059 Z0.328
X90.578 Y368.108 Z0.247
X90.585 Y368.169 Z0.176
X90.592 Y368.24 Z0.115
X90.6 Y368.32 Z0.065
X90.609 Y368.407 Z0.029
X90.619 Y368.498 Z0.007
X90.628 Y368.591 Z0
G3 X90.5 Y368.789 I-0.187 J0.019
G2 X88.848 Y369.883 I0.835 J3.056 F850
G3 X87.208 Y370.86 I-3.319 J-3.701
G1 X86.546 Y371.09
X85.687 Y371.309
G3 X81.282 Y371.719 I-4.479 J-24.235
X73.342 Y371.143 I-1.246 J-37.847
X68.271 Y369.578 I4.868 J-24.764
X63.103 Y366.197 I7.451 J-17.03
G1 X62.4 Y365.658
X61.611 Y365.255
X60.772 Y364.97
X59.908 Y364.776
G2 X56.389 Y364.359 I-8.3 J55.099
G3 X52.921 Y363.651 I1.98 J-18.534
X49.755 Y362.095 I3.67 J-11.469
X46.463 Y358.356 I5.983 J-8.586
X51.029 Y344.728 I8.861 J-4.61
X54.855 Y343.788 I4.243 J9.008
G1 X55.742
X56.628 Y343.786
X57.505 Y343.662
X58.359 Y343.424
X59.184 Y343.102
G2 X62.279 Y341.381 I-10.729 J-22.938
G3 X66.112 Y339.16 I30.425 J48.105
X74.51 Y336.443 I12.864 J25.421
X81.559 Y335.749 I8.833 J53.522
X86.874 Y335.598 I6.426 J132.567
G1 X87.622 Y335.616
X87.721 Y335.643
X87.807 Y335.7
X87.87 Y335.781
X88.542 Y336.992
X88.602 Y337.096
G3 X88.67 Y337.32 I-0.53 J0.281 F700
G1 X88.678 Y337.413 Z0.007
X88.687 Y337.505 Z0.029
X88.695 Y337.591 Z0.065
X88.703 Y337.671 Z0.115
X88.71 Y337.742 Z0.176
X88.716 Y337.803 Z0.247
X88.72 Y337.852 Z0.328
X88.724 Y337.888 Z0.415
X88.726 Y337.91 Z0.506
Y337.917 Z0.6
G0 Z23
X88.636 Y368.997
Z1.2
G1 Z0.6 F700
X88.641 Y369.002 Z0.506
X88.655 Y369.019 Z0.415
X88.678 Y369.047 Z0.328
X88.709 Y369.085 Z0.247
X88.747 Y369.133 Z0.176
X88.793 Y369.188 Z0.115
X88.843 Y369.25 Z0.065
X88.898 Y369.318 Z0.029
X88.956 Y369.389 Z0.007
X89.016 Y369.461 Z0
G3 X89.017 Y369.697 I-0.145 J0.119
G1 X88.933 Y369.795 F850
X88.781 Y369.997
X88.649 Y370.198
X88.14 Y371.113
G3 X86.795 Y372.505 I-3.224 J-1.771
G1 X86.379 Y372.754
X85.857 Y373.007
X85.208 Y373.26
X84.359 Y373.514
G3 X80.851 Y373.979 I-4.125 J-17.656
X70.334 Y372.77 I-1.603 J-32.417
X64.686 Y370.245 I6.939 J-23.092
G1 X63.947 Y369.756
X63.228 Y369.238
X62.502 Y368.73
X61.732 Y368.29
X60.923 Y367.929
G2 X57.495 Y367.051 I-6.242 J17.225
G3 X54.021 Y366.348 I10.895 J-62.782
X49.893 Y364.771 I4.115 J-16.966
X45.845 Y361.377 I6.31 J-11.637
X43.34 Y355.772 I9.736 J-7.713
X46.09 Y345.843 I12.042 J-2.01
X53.713 Y341.715 I9.219 J7.924
G1 X54.594 Y341.61
G2 X58.01 Y340.711 I-1.466 J-12.522
X61.954 Y338.698 I-14.748 J-33.75
G3 X66.702 Y336.311 I26.797 J47.39
X76.104 Y333.858 I13.455 J32.322
X83.168 Y333.313 I8.822 J68.285
G1 X84.054 Y333.277
X84.94 Y333.253
X85.59 Y333.247
G3 X86.826 Y333.961 I0.009 J1.412
X87.87 Y335.781 I-26.83 J16.595
X87.934 Y336.006 I-0.534 J0.273 F700
G1 X87.941 Y336.099 Z0.007
X87.948 Y336.191 Z0.029
X87.955 Y336.277 Z0.065
X87.962 Y336.357 Z0.115
X87.967 Y336.429 Z0.176
X87.972 Y336.49 Z0.247
X87.976 Y336.539 Z0.328
X87.979 Y336.575 Z0.415
X87.981 Y336.597 Z0.506
Y336.604 Z0.6
G0 Z23
X87.576 Y370.595
Z1.2
G1 Z0.6 F700
X87.581 Y370.599 Z0.506
X87.598 Y370.613 Z0.415
X87.626 Y370.636 Z0.328
X87.664 Y370.667 Z0.247
X87.712 Y370.706 Z0.176
X87.767 Y370.751 Z0.115
X87.83 Y370.802 Z0.065
X87.897 Y370.857 Z0.029
X87.968 Y370.915 Z0.007
X88.041 Y370.974 Z0
G3 X88.089 Y371.204 I-0.119 J0.145
G1 X87.195 Y372.815 F850
G3 X86.417 Y373.959 I-6.864 J-3.827
X84.673 Y375.197 I-3.972 J-3.753
G1 X84.053 Y375.458
X83.27 Y375.716
G3 X79.771 Y376.236 I-4.034 J-15.117
X66.791 Y373.917 I-1.31 J-30.153
X62.9 Y371.809 I10.983 J-24.915
G2 X58.867 Y370.009 I-8.223 J13.006
X54.569 Y368.938 I-27.08 J99.566
G3 X50.374 Y367.525 I6.69 J-26.797
X45.272 Y364.058 I6.696 J-15.341
X41.075 Y355.455 I10.427 J-10.411
X42.722 Y346.886 I14.379 J-1.68
X52.374 Y339.715 I12.601 J6.878
G1 X53.238 Y339.517
G2 X58.26 Y337.809 I-4.576 J-21.687
X63.009 Y335.419 I-100.464 J-205.606
G3 X69.596 Y332.822 I18.651 J37.644
X79.187 Y331.18 I12.695 J45.327
X84.053 Y330.92 I5.881 J64.548
X85.202 Y331.546 I-0.036 J1.433
G1 X86.764 Y333.864
G3 X86.847 Y334.083 I-0.509 J0.318 F700
G1 X86.862 Y334.176 Z0.007
X86.877 Y334.266 Z0.029
X86.892 Y334.352 Z0.065
X86.905 Y334.431 Z0.115
X86.917 Y334.502 Z0.176
X86.927 Y334.562 Z0.247
X86.935 Y334.611 Z0.328
X86.941 Y334.646 Z0.415
X86.944 Y334.668 Z0.506
X86.946 Y334.675 Z0.6
G0 Z23
X86.34 Y372.784
Z1.2
G1 Z0.6 F700
X86.345 Y372.789 Z0.506
X86.362 Y372.803 Z0.415
X86.388 Y372.828 Z0.328
X86.425 Y372.861 Z0.247
X86.47 Y372.902 Z0.176
X86.523 Y372.95 Z0.115
X86.583 Y373.004 Z0.065
X86.647 Y373.062 Z0.029
X86.715 Y373.123 Z0.007
X86.785 Y373.186 Z0
G3 X86.821 Y373.419 I-0.126 J0.139
X85.052 Y376.054 I-231.992 J-153.915 F850
X83.684 Y377.216 I-3.612 J-2.867
G1 X83.196 Y377.472
X82.601 Y377.726
X81.877 Y377.969
G3 X78.377 Y378.474 I-3.76 J-13.687
X68.774 Y377.089 I-0.67 J-29.356
X63.096 Y374.621 I8.411 J-27.112
G2 X59.085 Y372.753 I-12.767 J22.177
X54.836 Y371.5 I-19.981 J59.919
G3 X49.807 Y369.786 I9.498 J-36.098
X45.26 Y367.058 I8.449 J-19.236
X39.988 Y360.051 I10.943 J-13.721
X40.939 Y345.524 I15.435 J-6.285
X50.39 Y337.937 I14.393 J8.25
G1 X53.78 Y336.901
G2 X59.479 Y334.467 I-13.682 J-39.937
G3 X64.303 Y332.232 I50.173 J101.977
X76.27 Y329.118 I17.035 J40.912
X82.45 Y328.614 I8.273 J63.236
G1 X83.061 Y328.645
X83.421 Y328.691
G3 X84.643 Y330.022 I-0.176 J1.389
X84.599 Y330.252 I-0.6 J0.004 F700
G1 X84.564 Y330.339 Z0.007
X84.529 Y330.423 Z0.029
X84.496 Y330.504 Z0.065
X84.466 Y330.578 Z0.115
X84.439 Y330.645 Z0.176
X84.416 Y330.701 Z0.247
X84.397 Y330.747 Z0.328
X84.384 Y330.78 Z0.415
X84.376 Y330.801 Z0.506
X84.373 Y330.807 Z0.6
G0 Z23
X84.718 Y375.201
Z1.2
G1 Z0.6 F700
X84.724 Y375.206 Z0.506
X84.74 Y375.221 Z0.415
X84.767 Y375.245 Z0.328
X84.803 Y375.278 Z0.247
X84.849 Y375.319 Z0.176
X84.902 Y375.367 Z0.115
X84.962 Y375.42 Z0.065
X85.027 Y375.478 Z0.029
X85.095 Y375.54 Z0.007
X85.165 Y375.602 Z0
G3 X85.202 Y375.835 I-0.125 J0.139
G2 X84.644 Y377.251 I2.634 J1.857 F850
G3 X83.711 Y378.679 I-2.984 J-0.931
X82.114 Y379.726 I-3.91 J-4.226
G1 X81.5 Y379.98
X80.739 Y380.225
G3 X77.234 Y380.691 I-3.616 J-13.783
X68.502 Y379.415 I-0.286 J-28.555
X62.765 Y377.081 I9.127 J-30.656
G2 X55.347 Y374.19 I-17.806 J34.717
G3 X51.133 Y372.822 I26.284 J-88.159
X45.577 Y370.092 I9.436 J-26.222
X39.888 Y364.57 I11.497 J-17.536
X36.513 Y353.736 I15.772 J-10.856
X48.962 Y336.049 I18.817 J0.02
X52.303 Y334.866 I31.194 J82.863
G2 X58.022 Y332.47 I-20.251 J-56.347
G3 X63.684 Y329.939 I51.642 J107.932
X76.538 Y326.719 I18.23 J45.505
X81.821 Y326.325 I5.838 J42.612
X83.688 Y326.683 I-0.217 J6.177
G1 X84.018 Y326.822
X84.187 Y326.91
G3 X84.841 Y328.672 I-0.646 J1.242
X84.707 Y328.864 I-0.549 J-0.242 F700
G1 X84.639 Y328.928 Z0.007
X84.573 Y328.992 Z0.029
X84.51 Y329.052 Z0.065
X84.452 Y329.107 Z0.115
X84.4 Y329.157 Z0.176
X84.356 Y329.199 Z0.247
X84.32 Y329.233 Z0.328
X84.294 Y329.258 Z0.415
X84.278 Y329.273 Z0.506
X84.273 Y329.278 Z0.6
G0 Z23
X83.977 Y376.711
Z1.2
G1 Z0.6 F700
X83.984 Y376.713 Z0.506
X84.005 Y376.72 Z0.415
X84.039 Y376.732 Z0.328
X84.086 Y376.748 Z0.247
X84.144 Y376.767 Z0.176
X84.211 Y376.791 Z0.115
X84.287 Y376.816 Z0.065
X84.37 Y376.845 Z0.029
X84.456 Y376.874 Z0.007
X84.545 Y376.904 Z0
G3 X84.671 Y377.104 I-0.061 J0.177
G2 X84.707 Y378.258 I2.846 J0.488 F850
G3 X84.231 Y379.833 I-2.631 J0.063
X82.796 Y381.266 I-4.208 J-2.778
G1 X82.328 Y381.559
X81.748 Y381.861
X81.079 Y382.142
X80.281 Y382.405
G3 X76.78 Y382.904 I-3.783 J-14.005
X68.894 Y381.921 I-0.546 J-27.731
X62.265 Y379.442 I9.097 J-34.435
G2 X53.985 Y376.309 I-25.36 J54.509
G3 X49.809 Y374.828 I25.241 J-77.813
X43.574 Y371.49 I10.876 J-27.803
X37.521 Y365.09 I13.513 J-18.843
X34.483 Y350.651 I18.098 J-11.348
X46.855 Y334.458 I20.858 J3.113
X50.969 Y332.815 I23.935 J53.965
G2 X58.299 Y329.679 I-37.985 J-98.923
G3 X64.854 Y326.985 I35.634 J77.375
X78.153 Y324.18 I17.908 J51.983
G2 X78.879 Y324.298 I37.697 J-229.127
X80.095 Y324.204 I0.266 J-4.472
G1 X80.967 Y324.156
X81.756 Y324.173
G3 X83.96 Y324.634 I-0.35 J7.164
X85.542 Y325.707 I-1.591 J4.049
X85.523 Y327.628 I-1.038 J0.951
G1 X85.444 Y327.719
X85.377 Y327.798
G3 X85.188 Y327.938 I-0.444 J-0.404 F700
X84.665 Y327.932 I-0.256 J-0.543 F850
G1 X79.555 Y325.386
G3 X79.472 Y324.362 I0.268 J-0.537
X79.685 Y324.265 I0.351 J0.487 F700
G2 X81.255 Y323.472 I-0.553 J-3.047 F850
G3 X83.724 Y322.936 I1.96 J3.072
X86.172 Y323.938 I-0.4 J4.469
G1 X86.359 Y324.137
X86.507 Y324.366
X86.607 Y324.62
G3 X86.619 Y324.853 I-0.582 J0.145 F700
X85.931 Y325.357 I-0.593 J-0.089 F850
G1 X81.406 Y324.639
G3 X80.956 Y323.794 I0.094 J-0.593
X81.094 Y323.605 I0.544 J0.252 F700
G1 X81.295 Y323.432 F850
X81.9 Y322.887
X82 Y322.8
X82.1 Y322.739
X82.589 Y322.484
X82.704 Y322.434
X82.906 Y322.385
X83.347 Y322.283
G3 X84.214 Y322.302 I0.329 J4.727
G1 X84.717 Y322.446
X84.846 Y322.484
G3 X85.539 Y322.887 I-3.832 J7.387
X86.114 Y323.491 I-2.66 J3.109
G1 X86.41 Y323.994
G3 X86.65 Y324.8 I-6.139 J2.272
G1 X86.656 Y324.9
X86.666 Y325.303
X86.668 Y325.504
G3 X86.479 Y326.31 I-5.393 J-0.842
G1 X86.267 Y326.712
X86.156 Y326.913
X86.127 Y326.955
X85.985 Y327.115
X85.552 Y327.596
G3 X85.36 Y327.729 I-0.432 J-0.417 F700
G1 X85.274 Y327.767 Z0.007
X85.19 Y327.803 Z0.029
X85.11 Y327.838 Z0.065
X85.036 Y327.87 Z0.115
X84.971 Y327.898 Z0.176
X84.914 Y327.923 Z0.247
X84.869 Y327.942 Z0.328
X84.836 Y327.957 Z0.415
X84.816 Y327.965 Z0.506
X84.809 Y327.968 Z0.6
G0 Z23
X83.896 Y377.975
Z1.2
G1 Z0.6 F700
X83.903 Z0.506
X83.925 Z0.415
X83.961 Y377.974 Z0.328
X84.011 Y377.973 Z0.247
X84.072 Y377.972 Z0.176
X84.143 Y377.971 Z0.115
X84.224 Y377.97 Z0.065
X84.311 Y377.968 Z0.029
X84.402 Y377.967 Z0.007
X84.496 Y377.965 Z0
G3 X84.682 Y378.11 I0.003 J0.188
G2 X85.078 Y379.189 I3.022 J-0.498 F850
G3 X84.913 Y381.006 I-2.428 J0.696
X83.792 Y382.596 I-4.367 J-1.887
X82.309 Y383.684 I-4.93 J-5.17
X80.878 Y383.61 I-0.654 J-1.243
G2 X77.274 Y383.731 I-1.721 J2.468
G3 X75.55 Y384.5 I-3.034 J-4.483
G1 X74.941 Y384.634
X74.184 Y384.738
G3 X70.651 Y384.589 I-1.158 J-14.539
X63.844 Y382.669 I4.686 J-29.642
X59.758 Y380.955 I58.789 J-145.827
G2 X53.093 Y378.547 I-37.081 J92.205
G3 X47.313 Y376.302 I19.871 J-59.741
X41.273 Y372.62 I12.834 J-27.845
X34.562 Y364.475 I15.455 J-19.571
X38.662 Y337.398 I20.863 J-10.69
X45.902 Y332.374 I17.269 J17.157
X49.982 Y330.649 I29.02 J62.971
G2 X58.116 Y327.134 I-82.613 J-202.276
G3 X65.556 Y324.272 I31.884 J71.808
X74.5 Y322.243 I17.289 J55.476
X75.478 Y322.463 I0.201 J1.387
G1 X77.323 Y323.692
X77.47 Y323.789
G3 X77.631 Y323.958 I-0.346 J0.49 F700
G1 X77.681 Y324.038 Z0.007
X77.73 Y324.115 Z0.029
X77.777 Y324.189 Z0.065
X77.82 Y324.257 Z0.115
X77.858 Y324.317 Z0.176
X77.891 Y324.369 Z0.247
X77.917 Y324.41 Z0.328
X77.936 Y324.441 Z0.415
X77.948 Y324.459 Z0.506
X77.952 Y324.466 Z0.6
G0 Z23
X76.891 Y383.079
Z1.2
G1 Z0.6 F700
X76.894 Y383.086 Z0.506
X76.903 Y383.106 Z0.415
X76.917 Y383.139 Z0.328
X76.937 Y383.185 Z0.247
X76.961 Y383.241 Z0.176
X76.99 Y383.306 Z0.115
X77.022 Y383.38 Z0.065
X77.056 Y383.46 Z0.029
X77.093 Y383.544 Z0.007
X77.13 Y383.63 Z0
G3 X77.067 Y383.857 I-0.172 J0.075
G1 X75.054 Y385.197 F850
X74.853 Y385.33
G3 X72.119 Y386.458 I-3.677 J-5.032
G1 X71.441 Y386.539
X70.598 Y386.571
G3 X67.091 Y386.109 I0.304 J-15.844
X62.043 Y384.457 I8.142 J-33.413
G2 X56.264 Y382.204 I-79.052 J194.22
G3 X49.59 Y379.816 I107.136 J-309.989
X43.97 Y377.201 I16.418 J-42.624
X36.38 Y371.152 I14.755 J-26.304
X30.002 Y357.728 I19.712 J-17.592
X35.306 Y337.753 I25.403 J-3.946
X44.24 Y330.627 I20.395 J16.404
X48.271 Y328.791 I24.408 J48.256
G2 X57.215 Y324.918 I-215.397 J-509.602
G3 X65.514 Y321.823 I32.552 J74.622
X71.246 Y320.415 I17.958 J60.718
G1 X71.564 Y320.39
X71.88 Y320.437
X72.177 Y320.554
X74.284 Y321.679
X74.45 Y321.779
X75.478 Y322.463
G3 X75.637 Y322.634 I-0.35 J0.487 F700
G1 X75.687 Y322.714 Z0.007
X75.735 Y322.792 Z0.029
X75.781 Y322.866 Z0.065
X75.824 Y322.934 Z0.115
X75.861 Y322.995 Z0.176
X75.894 Y323.047 Z0.247
X75.919 Y323.089 Z0.328
X75.938 Y323.119 Z0.415
X75.95 Y323.138 Z0.506
X75.954 Y323.144 Z0.6
G0 Z23
X73.762 Y385.101
Z1.2
G1 Z0.6 F700
X73.766 Y385.107 Z0.506
X73.779 Y385.125 Z0.415
X73.799 Y385.155 Z0.328
X73.827 Y385.195 Z0.247
X73.861 Y385.246 Z0.176
X73.901 Y385.305 Z0.115
X73.947 Y385.371 Z0.065
X73.996 Y385.443 Z0.029
X74.047 Y385.519 Z0.007
X74.1 Y385.596 Z0
G3 X74.048 Y385.826 I-0.133 J0.091
G1 X71.632 Y387.115 F850
G3 X69.48 Y387.976 I-4.77 J-8.804
G1 X68.978 Y388.064
X68.366 Y388.127
X67.639 Y388.142
X66.754 Y388.09
G3 X63.298 Y387.33 I2.131 J-17.953
X58.296 Y385.53 I24.889 J-76.993
G2 X50.798 Y382.815 I-182.359 J491.901
G3 X44.287 Y380.019 I21.108 J-58.136
X37.66 Y375.613 I16.206 J-31.56
X29.426 Y364.237 I19.069 J-22.471
X32.78 Y337.279 I26.035 J-10.448
X42.826 Y328.757 I23.07 J17.012
X47.633 Y326.489 I28.144 J53.419
X57.387 Y322.255 I361.303 J819.081
X66.593 Y319.072 I29.812 J71.306
G1 X67.453 Y318.855
G3 X68.45 Y318.889 I0.451 J1.4
G1 X70.827 Y319.874
G3 X72.177 Y320.554 I-8.504 J18.559
X72.353 Y320.709 I-0.301 J0.519 F700
G1 X72.41 Y320.784 Z0.007
X72.465 Y320.856 Z0.029
X72.518 Y320.925 Z0.065
X72.567 Y320.989 Z0.115
X72.61 Y321.046 Z0.176
X72.648 Y321.095 Z0.247
X72.677 Y321.134 Z0.328
X72.699 Y321.162 Z0.415
X72.713 Y321.18 Z0.506
X72.717 Y321.186 Z0.6
G0 Z23
X70.402 Y386.875
Z1.2
G1 Z0.6 F700
X70.403 Y386.882 Z0.506
X70.408 Y386.904 Z0.415
X70.415 Y386.939 Z0.328
X70.426 Y386.987 Z0.247
X70.439 Y387.047 Z0.176
X70.454 Y387.116 Z0.115
X70.471 Y387.195 Z0.065
X70.49 Y387.28 Z0.029
X70.51 Y387.369 Z0.007
X70.53 Y387.461 Z0
G3 X70.424 Y387.672 I-0.183 J0.04
G1 X68.21 Y388.589 F850
G3 X65.871 Y389.317 I-6.71 J-17.433
G1 X65.42 Y389.391
X64.883 Y389.436
X64.213 Y389.439
X63.364 Y389.375
G3 X59.92 Y388.559 I2.699 J-19.078
X52.392 Y385.927 I68.132 J-206.937
X44.187 Y382.594 I26.089 J-75.986
X37.418 Y378.4 I17.927 J-36.49
X29.268 Y369.145 I19.924 J-25.761
X27.207 Y342.674 I26.314 J-15.365
X40.278 Y327.533 I28.291 J11.209
X45.8 Y324.717 I26.049 J44.26
X57.176 Y319.77 I147.185 J322.972
X63.385 Y317.552 I32.704 J81.723
X64.183 Y317.544 I0.412 J1.409
G1 X64.385 Y317.593
X64.586 Y317.644
X67.404 Y318.502
G3 X68.45 Y318.889 I-4.795 J14.549
G1 X68.519 Y318.926 F700
X68.583 Y318.972
X68.64 Y319.026
X68.704 Y319.095 Z0.007
X68.766 Y319.162 Z0.029
X68.825 Y319.226 Z0.065
X68.88 Y319.284 Z0.115
X68.929 Y319.337 Z0.176
X68.971 Y319.381 Z0.247
X69.004 Y319.417 Z0.328
X69.029 Y319.444 Z0.415
X69.044 Y319.46 Z0.506
X69.049 Y319.465 Z0.6
G0 Z23
X66.453 Y388.388
Z1.2
G1 Z0.6 F700
X66.454 Y388.396 Z0.506
X66.456 Y388.418 Z0.415
X66.46 Y388.453 Z0.328
X66.466 Y388.502 Z0.247
X66.473 Y388.563 Z0.176
X66.482 Y388.634 Z0.115
X66.491 Y388.714 Z0.065
X66.501 Y388.8 Z0.029
X66.512 Y388.891 Z0.007
X66.523 Y388.984 Z0
G3 X66.398 Y389.184 I-0.186 J0.022
G1 X64.787 Y389.674 F850
X64.586 Y389.728
X64.183 Y389.833
X63.982 Y389.881
X61.768 Y390.325
X61.227 Y390.406
X60.687 Y390.442
X59.999 Y390.433
X59.117 Y390.351
G3 X55.674 Y389.525 I3.594 J-22.581
X44.88 Y385.519 I29.898 J-97.098
X37.921 Y381.642 I19.538 J-43.252
X29.051 Y373.055 I20.339 J-29.884
X23.265 Y359.283 I27.084 J-19.479
X37.768 Y326.365 I32.119 J-5.503
X43.979 Y322.962 I26.297 J40.617
X56.973 Y317.294 I104.123 J220.981
G1 X57.803 Y316.983
X58.633 Y316.673
X58.916 Y316.57
G3 X60.153 Y316.691 I0.49 J1.377
G1 X60.359 Y316.754
X60.56 Y316.806
X60.738 Y316.847
X63.982 Y317.498
X64.113 Y317.528
G3 X64.323 Y317.631 I-0.155 J0.58 F700
G1 X64.398 Y317.688 Z0.007
X64.47 Y317.743 Z0.029
X64.539 Y317.796 Z0.065
X64.603 Y317.845 Z0.115
X64.66 Y317.889 Z0.176
X64.708 Y317.926 Z0.247
X64.748 Y317.956 Z0.328
X64.776 Y317.978 Z0.415
X64.794 Y317.991 Z0.506
X64.799 Y317.995 Z0.6
G0 Z23
X61.9 Y389.539
Z1.2
G1 Z0.6 F700
Y389.546 Z0.506
Y389.568 Z0.415
X61.901 Y389.604 Z0.328
X61.902 Y389.654 Z0.247
X61.903 Y389.715 Z0.176
X61.905 Y389.786 Z0.115
X61.906 Y389.867 Z0.065
X61.908 Y389.954 Z0.029
X61.91 Y390.045 Z0.007
X61.912 Y390.139 Z0
G3 X61.768 Y390.325 I-0.187 J0.004
G1 X60.739 Y390.531 F850
G2 X59.4 Y391.113 I0.606 J3.227
G3 X57.817 Y391.595 I-1.992 J-3.704
G1 X57.265 Y391.643
X56.563 Y391.644
X55.679 Y391.576
G3 X51.38 Y390.532 I3.529 J-23.923
X40.763 Y386.101 I19.624 J-61.957
X32.103 Y379.976 I20.403 J-38.029
X21.896 Y363.64 I24.6 J-26.727
X21.15 Y346.979 I33.872 J-9.865
X36.037 Y324.731 I34.266 J6.825
X42.981 Y320.826 I28.473 J42.5
X55.965 Y315.14 I87.507 J182.152
G1 X56.383 Y314.992
X57.053 Y314.772
G3 X58.663 Y315.423 I0.39 J1.35
X58.729 Y315.647 I-0.531 J0.279 F700
G1 X58.737 Y315.741 Z0.007
X58.746 Y315.832 Z0.029
X58.754 Y315.919 Z0.065
X58.761 Y315.999 Z0.115
X58.767 Y316.07 Z0.176
X58.773 Y316.131 Z0.247
X58.778 Y316.18 Z0.328
X58.781 Y316.216 Z0.415
X58.783 Y316.238 Z0.506
Y316.245 Z0.6
G0 Z23
X59.313 Y390.26
Z1.2
G1 Z0.6 F700
X59.316 Y390.267 Z0.506
X59.326 Y390.286 Z0.415
X59.342 Y390.319 Z0.328
X59.364 Y390.363 Z0.247
X59.39 Y390.418 Z0.176
X59.422 Y390.482 Z0.115
X59.457 Y390.554 Z0.065
X59.495 Y390.633 Z0.029
X59.535 Y390.715 Z0.007
X59.577 Y390.799 Z0
G3 X59.524 Y391.029 I-0.168 J0.082
G2 X58.587 Y392.066 I1.841 J2.605 F850
G3 X56.998 Y393.035 I-2.462 J-2.249
G1 X56.587 Y393.154
X56.073 Y393.252
X55.476 Y393.318
X54.734 Y393.339
X53.849 Y393.293
X53.133 Y393.202
G3 X52.034 Y392.343 I0.173 J-1.354
G2 X49.688 Y390.521 I-2.786 J1.165
G1 X46.468 Y389.871
X46.267 Y389.826
G3 X42.844 Y388.796 I25.452 J-90.779
G1 X42.24 Y388.567
X41.838 Y388.401
X39.623 Y387.484
X39.422 Y387.394
G3 X36.202 Y385.687 I38.845 J-77.156
G1 X36 Y385.566
X33.479 Y383.888
X32.767 Y383.36
G3 X27.55 Y378.587 I16.533 J-23.307
X18.593 Y348.118 I28.219 J-24.848
X34.104 Y323.242 I36.846 J5.7
X39.619 Y319.887 I26.703 J37.696
G1 X42.121 Y318.861
X42.24 Y318.812
X42.844 Y318.584
X43.046 Y318.517
X45.885 Y317.653
X46.065 Y317.603
X46.267 Y317.552
X46.468 Y317.508
X49.689 Y316.862
X50.293 Y316.704
G2 X51.696 Y315.64 I-1.027 J-2.812
G1 X51.866 Y315.431
G3 X55.116 Y313.226 I6.654 J6.309
X56.859 Y312.894 I1.715 J4.273
X58.251 Y314.165 I-0.003 J1.4
X58.218 Y314.397 I-0.599 J0.034 F700
X57.838 Y314.77 I-0.567 J-0.197 F850
G1 X52.374 Y316.551
G3 X51.602 Y315.854 I-0.186 J-0.57
X51.695 Y315.639 I0.587 J0.126 F700
G2 X52.254 Y314.173 I-2.443 J-1.772 F850
G3 X53.528 Y312.291 I3.547 J1.029
X56.523 Y311.17 I3.006 J3.468
X57.374 Y311.452 I-0.045 J1.562
G1 X57.57 Y311.629
X57.731 Y311.839
G3 X57.806 Y312.06 I-0.52 J0.3 F700
X57.485 Y312.673 I-0.595 J0.078 F850
G1 X53.101 Y314.917
G3 X52.253 Y314.554 I-0.273 J-0.534
X52.231 Y314.321 I0.575 J-0.171 F700
G2 X52.313 Y313.022 I-13.083 J-1.484 F850
G1 X52.325 Y312.922
X52.35 Y312.821
X52.507 Y312.321
X52.543 Y312.217
X52.659 Y312.016
X52.91 Y311.613
G3 X53.546 Y311.009 I3.981 J3.552
G1 X53.917 Y310.803
X54.118 Y310.694
X54.319 Y310.631
X54.822 Y310.502
X54.923 Y310.489
X55.527 Y310.488
X55.628 Y310.493
X55.728 Y310.514
X56.131 Y310.618
X56.332 Y310.674
X56.534 Y310.776
X56.954 Y311.009
G3 X57.589 Y311.613 I-3.06 J3.854
G1 X57.841 Y312.016
X57.943 Y312.185
G3 X58.175 Y312.922 I-9.117 J3.281
G2 X58.249 Y314.165 I88.904 J-4.66
G1 Y314.244 F700
X58.239 Y314.321
X58.218 Y314.397
X58.187 Y314.486 Z0.007
X58.157 Y314.572 Z0.029
X58.129 Y314.654 Z0.065
X58.102 Y314.73 Z0.115
X58.079 Y314.798 Z0.176
X58.058 Y314.856 Z0.247
X58.042 Y314.902 Z0.328
X58.03 Y314.936 Z0.415
X58.023 Y314.957 Z0.506
X58.021 Y314.964 Z0.6
G0 Z23
X34.128 Y383.425
Z1.2
G1 Z0.6 F700
X34.123 Y383.431 Z0.506
X34.108 Y383.446 Z0.415
X34.083 Y383.472 Z0.328
X34.049 Y383.508 Z0.247
X34.007 Y383.552 Z0.176
X33.957 Y383.604 Z0.115
X33.901 Y383.662 Z0.065
X33.841 Y383.724 Z0.029
X33.778 Y383.79 Z0.007
X33.713 Y383.858 Z0
G3 X33.479 Y383.888 I-0.135 J-0.13
G2 X32.577 Y383.338 I-5.236 J7.577 F850
X31.018 Y383.076 I-1.284 J2.87
G3 X29.147 Y382.528 I0.449 J-5.004
G1 X28.558 Y382.208
G3 X26.043 Y380.179 I6.731 J-10.916
X25.681 Y378.653 I1.031 J-1.05
G1 X25.71 Y378.571
G3 X25.834 Y378.372 I0.561 J0.214 F700
X26.634 Y378.308 I0.436 J0.412 F850
G1 X31.469 Y382
G3 X31.392 Y383.003 I-0.364 J0.477
X31.168 Y383.073 I-0.287 J-0.527 F700
G2 X29.826 Y383.466 I0.191 J3.138 F850
G3 X27.934 Y383.471 I-0.954 J-3.346
X25.144 Y381.954 I1.358 J-5.821
G1 X24.902 Y381.679
X24.846 Y381.605
G3 X24.915 Y379.82 I1.112 J-0.85
G1 X25.059 Y379.66
G3 X25.251 Y379.526 I0.433 J0.416 F700
X25.828 Y379.579 I0.241 J0.55 F850
G1 X29.978 Y382.396
G3 X30.13 Y383.239 I-0.337 J0.496
X29.96 Y383.4 I-0.49 J-0.347 F700
G2 X28.935 Y384.188 I2.38 J4.158 F850
G3 X26.775 Y384.599 I-1.638 J-2.729
X24.361 Y383.591 I0.504 J-4.603
G1 X24.179 Y383.397
X24.037 Y383.172
X23.94 Y382.924
G3 X23.929 Y382.69 I0.582 J-0.145 F700
X24.647 Y382.192 I0.593 J0.089 F850
G1 X28.756 Y383.071
G3 X29.181 Y383.897 I-0.125 J0.587
X29.047 Y384.089 I-0.55 J-0.239 F700
G1 X28.551 Y384.536 F850
G3 X27.828 Y384.933 I-2.356 J-3.436
G1 X27.746 Y384.959
X27.142 Y385.098
G3 X26.337 Y385.087 I-0.331 J-5.019
X25.591 Y384.87 I1.24 J-5.657
X24.928 Y384.463 I2.835 J-5.37
G1 X24.525 Y384.062
X24.445 Y383.975
G3 X24.044 Y383.284 I4.255 J-2.93
G1 X23.927 Y382.881
X23.87 Y382.68
X23.85 Y382.579
X23.844 Y382.479
X23.834 Y382.076
X23.831 Y381.875
G3 X24.022 Y381.068 I5.644 J0.907
G1 X24.324 Y380.496
X24.343 Y380.465
X24.525 Y380.254
X24.915 Y379.82
G3 X25.107 Y379.686 I0.433 J0.416 F700
G1 X25.193 Y379.649 Z0.007
X25.277 Y379.612 Z0.029
X25.357 Y379.577 Z0.065
X25.43 Y379.545 Z0.115
X25.496 Y379.516 Z0.176
X25.552 Y379.492 Z0.247
X25.597 Y379.472 Z0.328
X25.63 Y379.458 Z0.415
X25.65 Y379.449 Z0.506
X25.657 Y379.446 Z0.6
G0 Z23
X58.152 Y391.335
Z1.2
G1 Z0.6 F700
X58.157 Y391.339 Z0.506
X58.175 Y391.353 Z0.415
X58.203 Y391.376 Z0.328
X58.241 Y391.406 Z0.247
X58.289 Y391.445 Z0.176
X58.344 Y391.49 Z0.115
X58.407 Y391.54 Z0.065
X58.475 Y391.594 Z0.029
X58.546 Y391.652 Z0.007
X58.619 Y391.711 Z0
G3 X58.67 Y391.941 I-0.117 J0.146
G2 X58.286 Y392.953 I2.866 J1.664 F850
G3 X57.23 Y394.24 I-2.419 J-0.908
X55.269 Y395.05 I-2.958 J-4.377
X53.468 Y395.12 I-1.079 J-4.626
X52.287 Y393.809 I0.217 J-1.383
G1 X52.274 Y393.551
X52.258 Y393.35
X52.232 Y393.149
G3 X52.255 Y392.916 I0.597 J-0.058 F700
X52.783 Y392.493 I0.574 J0.175 F850
G1 X57.684 Y392.115
G3 X58.313 Y392.573 I0.046 J0.598
X58.322 Y392.807 I-0.583 J0.14 F700
G2 X58.192 Y394.137 I8.98 J1.553 F850
G3 X57.138 Y395.812 I-2.779 J-0.579
X54.89 Y396.842 I-2.909 J-3.378
G1 X54.686 Y396.828
X54.486 Y396.791
G3 X54.279 Y396.682 I0.171 J-0.575 F700
X54.29 Y395.741 I0.378 J-0.466 F850
G1 X57.239 Y393.468
G3 X58.163 Y393.724 I0.366 J0.475
X58.205 Y393.954 I-0.558 J0.22 F700
G1 X58.184 Y394.356 F850
G3 X57.941 Y395.192 I-3.443 J-0.548
G1 X57.841 Y395.363
X57.59 Y395.766
G3 X56.954 Y396.37 I-3.468 J-3.013
G1 X56.534 Y396.603
X56.332 Y396.706
X56.131 Y396.761
X55.728 Y396.865
X55.628 Y396.887
G3 X54.822 Y396.878 I-0.326 J-7.047
G1 X54.219 Y396.722
G3 X53.514 Y396.35 I2.809 J-6.177
G1 X53.31 Y396.168
X52.993 Y395.867
X52.948 Y395.816
X52.91 Y395.765
X52.659 Y395.363
X52.543 Y395.162
X52.507 Y395.058
X52.35 Y394.558
X52.325 Y394.457
X52.316 Y394.357
X52.287 Y393.809
G3 X52.329 Y393.579 I0.6 J-0.01 F700
G1 X52.363 Y393.492 Z0.007
X52.397 Y393.406 Z0.029
X52.429 Y393.325 Z0.065
X52.458 Y393.251 Z0.115
X52.485 Y393.184 Z0.176
X52.507 Y393.127 Z0.247
X52.525 Y393.082 Z0.328
X52.538 Y393.048 Z0.415
X52.546 Y393.028 Z0.506
X52.549 Y393.021 Z0.6
G0 Z23
X84.225 Y379.208
Z1.2
G1 Z0.6 F700
X84.232 Y379.205 Z0.506
X84.253 Y379.197 Z0.415
X84.286 Y379.184 Z0.328
X84.332 Y379.166 Z0.247
X84.389 Y379.143 Z0.176
X84.455 Y379.116 Z0.115
X84.53 Y379.087 Z0.065
X84.61 Y379.055 Z0.029
X84.696 Y379.021 Z0.007
X84.783 Y378.986 Z0
G3 X85.008 Y379.056 I0.069 J0.174
G2 X85.621 Y379.863 I3.671 J-2.149 F850
G3 X85.965 Y381.506 I-1.94 J1.264
X85.193 Y383.484 I-4.217 J-0.506
X83.703 Y384.908 I-3.601 J-2.276
G1 X83.413 Y384.988
X83.116 Y385.013
X82.82 Y384.973
G3 X82.611 Y384.867 I0.163 J-0.578 F700
X82.445 Y384.128 I0.371 J-0.471 F850
G1 X84.553 Y379.899
G3 X85.33 Y379.617 I0.537 J0.268
X85.523 Y379.75 I-0.24 J0.55 F700
G1 X85.984 Y380.264 F850
X86.127 Y380.424
G3 X86.508 Y381.152 I-5.728 J3.462
G1 X86.529 Y381.234
X86.631 Y381.673
X86.668 Y381.875
G3 X86.635 Y382.68 I-5.667 J0.166
G1 X86.515 Y383.083
X86.456 Y383.284
X86.436 Y383.334
X86.41 Y383.385
X86.114 Y383.888
G3 X85.537 Y384.49 I-3.271 J-2.555
X84.849 Y384.896 I-3.993 J-5.974
X84.114 Y385.094 I-1.959 J-5.823
G1 X83.912 Y385.098
X83.509 Y385.109
X83.428 Y385.107
X83.346 Y385.096
X82.906 Y384.994
X82.704 Y384.945
X82.589 Y384.894
X82.1 Y384.64
X82 Y384.578
G2 X80.99 Y383.686 I-46.175 J51.311
G1 X80.878 Y383.61
G3 X80.718 Y383.439 I0.35 J-0.487 F700
G1 X80.668 Y383.359 Z0.007
X80.62 Y383.281 Z0.029
X80.574 Y383.207 Z0.065
X80.532 Y383.139 Z0.115
X80.494 Y383.078 Z0.176
X80.462 Y383.026 Z0.247
X80.436 Y382.984 Z0.328
X80.417 Y382.954 Z0.415
X80.406 Y382.935 Z0.506
X80.402 Y382.929 Z0.6
G0 Z23
X26.314 Y376.064
Z1.2
G1 Z0.6 F700
X26.307 Y376.066 Z0.506
X26.287 Y376.075 Z0.415
X26.253 Y376.088 Z0.328
X26.208 Y376.106 Z0.247
X26.151 Y376.129 Z0.176
X26.084 Y376.155 Z0.115
X26.01 Y376.185 Z0.065
X25.929 Y376.217 Z0.029
X25.844 Y376.251 Z0.007
X25.756 Y376.285 Z0
G3 X25.531 Y376.215 I-0.069 J-0.174
G1 X25.42 Y376.036 F850
X25.166 Y375.634
X23.424 Y373.016
X23.317 Y372.853
X23.116 Y372.492
X21.784 Y369.997
X21.583 Y369.594
X21.505 Y369.436
X20.403 Y366.775
X20.248 Y366.373
X20.171 Y366.171
X20.1 Y365.97
X19.304 Y363.353
X19.133 Y362.749
X19.089 Y362.578
X18.437 Y359.326
G2 X17.418 Y357.409 I-3.161 J0.451
G3 X16.639 Y355.951 I4.305 J-3.235
G1 X16.44 Y355.331
X16.253 Y354.536
G3 X16.026 Y351.611 I14.473 J-2.598
X16.876 Y350.341 I1.406 J0.021
G2 X18.394 Y348.253 I-1.432 J-2.637
G1 X19.043 Y345.033
X19.089 Y344.826
X19.243 Y344.227
X20.039 Y341.61
X20.096 Y341.435
X20.32 Y340.805
X21.404 Y338.188
X21.494 Y337.986
X21.707 Y337.543
X21.785 Y337.382
X23.181 Y334.765
X23.301 Y334.564
X23.692 Y333.96
X25.167 Y331.745
G2 X25.733 Y330.682 I-2.951 J-2.251
X25.88 Y329.654 I-3.36 J-1.004
G3 X26.317 Y328.112 I4.977 J0.579
G1 X26.595 Y327.547
X27.001 Y326.869
G3 X28.991 Y324.502 I12.333 J8.35
X30.399 Y324.159 I0.987 J0.993
G2 X33.177 Y323.683 I0.942 J-2.849
G1 X36 Y321.813
X36.201 Y321.687
X38.818 Y320.29
X39.367 Y320.013
G3 X39.595 Y319.959 I0.251 J0.545 F700
X39.964 Y321.049 I0.024 J0.6 F850
G1 X26.815 Y330.297
G3 X25.922 Y330.051 I-0.345 J-0.491
X25.87 Y329.823 I0.548 J-0.245 F700
G2 X25.598 Y328.524 I-2.99 J-0.053 F850
G3 X25.499 Y326.818 I2.903 J-1.025
X26.969 Y323.82 I6.204 J1.182
G1 X27.224 Y323.566
X27.382 Y323.43
G3 X29.227 Y323.45 I0.911 J1.063
X29.361 Y323.642 I-0.416 J0.433 F700
X29.322 Y324.198 I-0.55 J0.241 F850
G1 X26.632 Y328.545
G3 X25.751 Y328.702 I-0.51 J-0.316
X25.599 Y328.524 I0.37 J-0.472 F700
G2 X24.887 Y327.527 I-3.406 J1.681 F850
G3 X24.419 Y325.782 I2.468 J-1.597
X25.653 Y322.676 I4.681 J0.061
G1 X25.848 Y322.514
X26.067 Y322.387
X26.305 Y322.301
G3 X26.526 Y322.354 I0.057 J0.254 F700
X26.614 Y322.616 I-0.165 J0.201 F850
G1 X25.426 Y327.522
G3 X25.198 Y327.719 I-0.253 J-0.061
X24.985 Y327.64 I-0.025 J-0.259 F700
X24.321 Y326.884 I17.551 J-16.077 F850
G1 X24.233 Y326.712
X24.024 Y326.31
G3 X23.832 Y325.504 I4.656 J-1.533
X23.865 Y324.698 I5.454 J-0.179
G1 X23.985 Y324.296
X24.044 Y324.095
G3 X24.445 Y323.404 I5.607 J2.792
G1 X24.525 Y323.317
X24.928 Y322.915
G3 X25.654 Y322.484 I2.443 J3.288
G1 X25.733 Y322.461
X26.135 Y322.345
X26.337 Y322.293
G3 X27.142 Y322.281 I0.475 J4.966
G1 X27.746 Y322.42
G3 X28.551 Y322.843 I-1.347 J3.544
G1 X29.048 Y323.29
X29.227 Y323.45
G3 X29.361 Y323.642 I-0.416 J0.433 F700
G1 X29.399 Y323.728 Z0.007
X29.435 Y323.812 Z0.029
X29.47 Y323.892 Z0.065
X29.503 Y323.965 Z0.115
X29.531 Y324.031 Z0.176
X29.556 Y324.087 Z0.247
X29.576 Y324.132 Z0.328
X29.59 Y324.165 Z0.415
X29.599 Y324.185 Z0.506
X29.602 Y324.192 Z0.6
G0 Z23
X18.226 Y357.139
Z1.2
G1 Z0.6 F700
X18.221 Y357.143 Z0.506
X18.204 Y357.157 Z0.415
X18.176 Y357.18 Z0.328
X18.137 Y357.21 Z0.247
X18.09 Y357.249 Z0.176
X18.034 Y357.294 Z0.115
X17.971 Y357.344 Z0.065
X17.904 Y357.399 Z0.029
X17.832 Y357.456 Z0.007
X17.759 Y357.515 Z0
G3 X17.524 I-0.118 J-0.146
G2 X16.333 Y356.802 I-2.173 J2.279 F850
G3 X14.979 Y355.396 I1.747 J-3.039
X14.113 Y352.59 I5.482 J-3.229
G1 X14.112 Y352.233
G3 X14.446 Y351.213 I1.586 J-0.046
X15.577 Y350.705 I1.098 J0.932
G1 X15.655 Y350.706 F700
X15.732 Y350.717
X15.808 Y350.738
G3 X16.187 Y351.178 I-0.209 J0.563 F850
G1 X17.222 Y356.157
G3 X16.706 Y356.875 I-0.587 J0.122
X16.472 Y356.857 I-0.071 J-0.596 F700
G2 X15.355 Y356.667 I-1.116 J3.17 F850
G3 X13.844 Y355.903 I0.357 J-2.582
X12.373 Y352.676 I3.171 J-3.395
G1 X12.397 Y352.447
X12.457 Y352.226
X12.553 Y352.017
G3 X12.711 Y351.844 I0.513 J0.311 F700
X13.576 Y352.014 I0.355 J0.484 F850
G1 X15.876 Y355.75
G3 X15.586 Y356.622 I-0.511 J0.315
X15.355 Y356.664 I-0.22 J-0.558 F700
G1 X14.661 Y356.628 F850
X14.459 Y356.61
X14.258 Y356.551
X13.855 Y356.424
G3 X13.05 Y355.923 I1.437 J-3.21
G1 X12.648 Y355.499
G3 X12.245 Y354.8 I7.104 J-4.558
G1 X12.211 Y354.696
X12.107 Y354.293
X12.057 Y354.092
X12.048 Y353.891
Y353.488
X12.057 Y353.287
G3 X12.289 Y352.479 I4.261 J0.787
G1 X12.573 Y351.98
G3 X13.151 Y351.366 I3.282 J2.507
G1 X13.295 Y351.274
X13.654 Y351.05
X13.755 Y350.993
X13.855 Y350.955
X14.258 Y350.828
X14.459 Y350.769
X14.661 Y350.751
X15.452 Y350.71
X15.463 F700
X15.521 Y350.72 Z0.011
X15.574 Y350.73 Z0.036
X15.62 Y350.739 Z0.074
X15.655 Y350.745 Z0.122
X15.676 Y350.749 Z0.178
X15.683 Y350.752 Z0.236
G0 Z23
X56.607 Y106.111
Z21.15
G1 Z20.55 F700
G3 X52.899 Y101.782 Z20.237 I-1.854 J-2.165 F250
X56.607 Y106.111 Z19.925 I1.854 J2.165
X52.899 Y101.782 Z19.612 I-1.854 J-2.165
X56.607 Y106.111 Z19.299 I1.854 J2.165
X52.899 Y101.782 Z18.987 I-1.854 J-2.165
X56.607 Y106.111 Z18.674 I1.854 J2.165
X52.899 Y101.782 Z18.361 I-1.854 J-2.165
X56.607 Y106.111 Z18.049 I1.854 J2.165
X52.899 Y101.782 Z17.736 I-1.854 J-2.165
X56.607 Y106.111 Z17.423 I1.854 J2.165
X52.899 Y101.782 Z17.111 I-1.854 J-2.165
X56.607 Y106.111 Z16.798 I1.854 J2.165
X52.899 Y101.782 Z16.485 I-1.854 J-2.165
X56.607 Y106.111 Z16.173 I1.854 J2.165
X52.899 Y101.782 Z15.86 I-1.854 J-2.165
X56.607 Y106.111 Z15.547 I1.854 J2.165
X52.899 Y101.782 Z15.235 I-1.854 J-2.165
X56.607 Y106.111 Z14.922 I1.854 J2.165
X52.899 Y101.782 Z14.609 I-1.854 J-2.165
X56.607 Y106.111 Z14.297 I1.854 J2.165
X52.899 Y101.782 Z13.984 I-1.854 J-2.165
X56.607 Y106.111 Z13.671 I1.854 J2.165
X52.899 Y101.782 Z13.359 I-1.854 J-2.165
X56.607 Y106.111 Z13.046 I1.854 J2.165
X52.899 Y101.782 Z12.733 I-1.854 J-2.165
X56.607 Y106.111 Z12.421 I1.854 J2.165
X52.899 Y101.782 Z12.108 I-1.854 J-2.165
X56.607 Y106.111 Z11.795 I1.854 J2.165
X52.899 Y101.782 Z11.483 I-1.854 J-2.165
X56.607 Y106.111 Z11.17 I1.854 J2.165
X52.899 Y101.782 Z10.857 I-1.854 J-2.165
X56.607 Y106.111 Z10.545 I1.854 J2.165
X52.899 Y101.782 Z10.232 I-1.854 J-2.165
X56.607 Y106.111 Z9.919 I1.854 J2.165
X52.899 Y101.782 Z9.607 I-1.854 J-2.165
X56.607 Y106.111 Z9.294 I1.854 J2.165
X52.899 Y101.782 Z8.981 I-1.854 J-2.165
X56.607 Y106.111 Z8.669 I1.854 J2.165
X52.899 Y101.782 Z8.356 I-1.854 J-2.165
X56.607 Y106.111 Z8.043 I1.854 J2.165
X52.899 Y101.782 Z7.731 I-1.854 J-2.165
X56.607 Y106.111 Z7.418 I1.854 J2.165
X52.899 Y101.782 Z7.105 I-1.854 J-2.165
X56.607 Y106.111 Z6.793 I1.854 J2.165
X52.899 Y101.782 Z6.48 I-1.854 J-2.165
X56.607 Y106.111 Z6.167 I1.854 J2.165
X52.899 Y101.782 Z5.855 I-1.854 J-2.165
X56.607 Y106.111 Z5.542 I1.854 J2.165
X52.899 Y101.782 Z5.229 I-1.854 J-2.165
X56.607 Y106.111 Z4.917 I1.854 J2.165
X52.899 Y101.782 Z4.604 I-1.854 J-2.165
X56.607 Y106.111 Z4.291 I1.854 J2.165
X52.899 Y101.782 Z3.979 I-1.854 J-2.165
X56.607 Y106.111 Z3.666 I1.854 J2.165
X52.899 Y101.782 Z3.353 I-1.854 J-2.165
X56.607 Y106.111 Z3.041 I1.854 J2.165
X52.899 Y101.782 Z2.728 I-1.854 J-2.165
X56.607 Y106.111 Z2.415 I1.854 J2.165
X52.899 Y101.782 Z2.103 I-1.854 J-2.165
X56.607 Y106.111 Z1.79 I1.854 J2.165
X52.899 Y101.782 Z1.477 I-1.854 J-2.165
X56.607 Y106.111 Z1.165 I1.854 J2.165
X52.899 Y101.782 Z0.852 I-1.854 J-2.165
X56.607 Y106.111 Z0.539 I1.854 J2.165
X52.899 Y101.782 Z0.227 I-1.854 J-2.165
X57.603 Y103.946 Z0 I1.854 J2.165
X51.903 I-2.85
X57.603 I2.85
G1 X57.606 Y104.168 F850
X57.759 Y105.041
G3 X57.09 Y107.166 I-1.768 J0.611
X53.948 Y108.041 I-2.496 J-2.882
X50.879 Y103.946 I0.683 J-3.709
X52.743 Y101.089 I3.818 J0.454
X57.696 Y101.935 I2.017 J3.111
X57.839 Y106.361 I-2.908 J2.31
G1 X57.57 Y106.709
X57.521 Y106.765
X57.359 Y106.921
G3 X57.158 Y107.04 I-0.401 J-0.446 F700
G1 X57.07 Y107.071 Z0.007
X56.983 Y107.102 Z0.029
X56.901 Y107.131 Z0.065
X56.826 Y107.158 Z0.115
X56.758 Y107.182 Z0.176
X56.7 Y107.202 Z0.247
X56.654 Y107.218 Z0.328
X56.62 Y107.23 Z0.415
X56.599 Y107.238 Z0.506
X56.592 Y107.24 Z0.6
G0 Z23
X75.119 Y106.514
Z21.15
G1 Z20.55 F700
G3 X71.411 Y102.184 Z20.237 I-1.854 J-2.165 F250
X75.119 Y106.514 Z19.925 I1.854 J2.165
X71.411 Y102.184 Z19.612 I-1.854 J-2.165
X75.119 Y106.514 Z19.299 I1.854 J2.165
X71.411 Y102.184 Z18.987 I-1.854 J-2.165
X75.119 Y106.514 Z18.674 I1.854 J2.165
X71.411 Y102.184 Z18.361 I-1.854 J-2.165
X75.119 Y106.514 Z18.049 I1.854 J2.165
X71.411 Y102.184 Z17.736 I-1.854 J-2.165
X75.119 Y106.514 Z17.423 I1.854 J2.165
X71.411 Y102.184 Z17.111 I-1.854 J-2.165
X75.119 Y106.514 Z16.798 I1.854 J2.165
X71.411 Y102.184 Z16.485 I-1.854 J-2.165
X75.119 Y106.514 Z16.173 I1.854 J2.165
X71.411 Y102.184 Z15.86 I-1.854 J-2.165
X75.119 Y106.514 Z15.547 I1.854 J2.165
X71.411 Y102.184 Z15.235 I-1.854 J-2.165
X75.119 Y106.514 Z14.922 I1.854 J2.165
X71.411 Y102.184 Z14.609 I-1.854 J-2.165
X75.119 Y106.514 Z14.297 I1.854 J2.165
X71.411 Y102.184 Z13.984 I-1.854 J-2.165
X75.119 Y106.514 Z13.671 I1.854 J2.165
X71.411 Y102.184 Z13.359 I-1.854 J-2.165
X75.119 Y106.514 Z13.046 I1.854 J2.165
X71.411 Y102.184 Z12.733 I-1.854 J-2.165
X75.119 Y106.514 Z12.421 I1.854 J2.165
X71.411 Y102.184 Z12.108 I-1.854 J-2.165
X75.119 Y106.514 Z11.795 I1.854 J2.165
X71.411 Y102.184 Z11.483 I-1.854 J-2.165
X75.119 Y106.514 Z11.17 I1.854 J2.165
X71.411 Y102.184 Z10.857 I-1.854 J-2.165
X75.119 Y106.514 Z10.545 I1.854 J2.165
X71.411 Y102.184 Z10.232 I-1.854 J-2.165
X75.119 Y106.514 Z9.919 I1.854 J2.165
X71.411 Y102.184 Z9.607 I-1.854 J-2.165
X75.119 Y106.514 Z9.294 I1.854 J2.165
X71.411 Y102.184 Z8.981 I-1.854 J-2.165
X75.119 Y106.514 Z8.669 I1.854 J2.165
X71.411 Y102.184 Z8.356 I-1.854 J-2.165
X75.119 Y106.514 Z8.043 I1.854 J2.165
X71.411 Y102.184 Z7.731 I-1.854 J-2.165
X75.119 Y106.514 Z7.418 I1.854 J2.165
X71.411 Y102.184 Z7.105 I-1.854 J-2.165
X75.119 Y106.514 Z6.793 I1.854 J2.165
X71.411 Y102.184 Z6.48 I-1.854 J-2.165
X75.119 Y106.514 Z6.167 I1.854 J2.165
X71.411 Y102.184 Z5.855 I-1.854 J-2.165
X75.119 Y106.514 Z5.542 I1.854 J2.165
X71.411 Y102.184 Z5.229 I-1.854 J-2.165
X75.119 Y106.514 Z4.917 I1.854 J2.165
X71.411 Y102.184 Z4.604 I-1.854 J-2.165
X75.119 Y106.514 Z4.291 I1.854 J2.165
X71.411 Y102.184 Z3.979 I-1.854 J-2.165
X75.119 Y106.514 Z3.666 I1.854 J2.165
X71.411 Y102.184 Z3.353 I-1.854 J-2.165
X75.119 Y106.514 Z3.041 I1.854 J2.165
X71.411 Y102.184 Z2.728 I-1.854 J-2.165
X75.119 Y106.514 Z2.415 I1.854 J2.165
X71.411 Y102.184 Z2.103 I-1.854 J-2.165
X75.119 Y106.514 Z1.79 I1.854 J2.165
X71.411 Y102.184 Z1.477 I-1.854 J-2.165
X75.119 Y106.514 Z1.165 I1.854 J2.165
X71.411 Y102.184 Z0.852 I-1.854 J-2.165
X75.119 Y106.514 Z0.539 I1.854 J2.165
X71.411 Y102.184 Z0.227 I-1.854 J-2.165
X76.115 Y104.349 Z0 I1.854 J2.165
X70.415 I-2.85
X76.115 I2.85
G1 X76.118 Y104.571 F850
X76.271 Y105.444
G3 X76.11 Y107.015 I-1.771 J0.613
X75.041 Y107.967 I-1.514 J-0.623
G1 X74.729 Y107.998
X73.265
G3 X69.582 Y103.543 I0.008 J-3.756
X73.265 Y100.497 I3.707 J0.732
G1 X74.291 Y100.498
G3 X77.045 Y102.1 I-0.165 J3.451
X78.136 Y104.573 I-5.502 J3.903
X77.992 Y107.052 I-4.769 J0.968
X76.668 Y108.002 I-1.335 J-0.463
G2 X74.729 Y107.997 I-2.222 J500.878
G3 X74.501 Y107.944 I0.02 J-0.599 F700
X74.151 Y107.44 I0.248 J-0.546 F850
G1 X73.714 Y101.139
G3 X74.063 Y100.552 I0.599 J-0.042
X74.291 Y100.498 I0.249 J0.546 F700
X76.466 Y100.507 I0.709 J87.879 F850
X78.304 Y101.42 I-0.478 J3.27
X79.986 Y104.499 I-3.704 J4.022
X79.888 Y107.053 I-4.931 J1.09
X78.559 Y108 I-1.336 J-0.469
G1 X77.692 Y107.999
X76.668 Y108.002
G3 X76.44 Y107.949 I0.019 J-0.6 F700
X76.088 Y107.436 I0.247 J-0.547 F850
G1 X75.724 Y101.136
G3 X76.075 Y100.555 I0.599 J-0.035
X76.303 Y100.502 I0.248 J0.547 F700
X78.336 Y100.508 I0.851 J53.309 F850
X80.181 Y101.401 I-0.432 J3.244
X81.752 Y104.02 I-3.67 J3.982
X81.813 Y106.947 I-5.123 J1.571
X81.262 Y107.743 I-1.46 J-0.422
G1 X81.01 Y107.885
X80.734 Y107.974
X80.446 Y108.004
G3 X78.559 Y107.999 I0.662 J-616.623
X78.331 Y107.945 I0.021 J-0.6 F700
X77.982 Y107.443 I0.249 J-0.546 F850
G1 X77.517 Y101.143
G3 X77.866 Y100.553 I0.598 J-0.044
X78.094 Y100.499 I0.249 J0.546 F700
X80.256 Y100.509 I0.598 J102.608 F850
X82.114 Y101.448 I-0.485 J3.267
X83.663 Y104.12 I-3.782 J3.977
X83.678 Y107.02 I-5.087 J1.478
X83.143 Y107.745 I-1.405 J-0.477
X82.119 Y107.997 I-0.856 J-1.271
G1 X81.314 Y108.004
X80.446
G3 X80.218 Y107.95 I0.021 J-0.6 F700
X79.868 Y107.436 I0.249 J-0.546 F850
G1 X79.528 Y101.136
G3 X79.878 Y100.558 I0.599 J-0.032
X80.106 Y100.504 I0.249 J0.546 F700
G1 X81.314 F850
X81.937 Y100.5
G3 X83.67 Y101.173 I-0.142 J2.933
X85.173 Y103.087 I-3.034 J3.929
X85.67 Y106.621 I-5.247 J2.541
X85.259 Y107.545 I-1.988 J-0.332
X84.223 Y108.001 I-1.043 J-0.967
X82.336 Y108 I-0.893 J-130.009
X82.108 Y107.946 I0.021 J-0.6 F700
X81.758 Y107.438 I0.249 J-0.546 F850
G1 X81.362 Y101.138
G3 X81.71 Y100.555 I0.599 J-0.038
X81.937 Y100.5 I0.251 J0.545 F700
X84.165 Y100.528 I0.667 J36.444 F850
X86.075 Y101.641 I-0.788 J3.546
X87.611 Y106.242 I-4.317 J3.999
G1 X87.551 Y106.612
G3 X87.145 Y107.543 I-1.9 J-0.274
X86.107 Y108 I-1.043 J-0.963
G1 X84.223
G3 X83.995 Y107.947 I0.02 J-0.6 F700
X83.645 Y107.447 I0.248 J-0.546 F850
G1 X83.154 Y101.149
G3 X83.501 Y100.558 I0.598 J-0.047
X83.728 Y100.503 I0.252 J0.545 F700
G1 X84.131 Y100.5 F850
X85.74
G3 X87.483 Y101.207 I-0.188 J2.965
X89.162 Y103.621 I-3.25 J4.053
X89.426 Y106.681 I-5.271 J1.995
X89.02 Y107.555 I-1.829 J-0.317
X87.993 Y108 I-1.031 J-0.971
G1 X86.107
G3 X85.879 Y107.946 I0.021 J-0.6 F700
X85.529 Y107.435 I0.249 J-0.546 F850
G1 X85.162 Y101.134
G3 X85.512 Y100.554 I0.599 J-0.035
X85.74 Y100.5 I0.249 J0.546 F700
G1 X87.571 F850
G3 X89.338 Y101.185 I-0.127 J2.95
X90.838 Y103.108 I-3.056 J3.929
X91.324 Y106.637 I-5.24 J2.519
X90.913 Y107.547 I-1.956 J-0.334
X89.879 Y108 I-1.04 J-0.968
G1 X87.993
G3 X87.766 Y107.946 I0.021 J-0.6 F700
X87.416 Y107.44 I0.249 J-0.546 F850
G1 X86.994 Y101.14
G3 X87.344 Y100.554 I0.599 J-0.04
X87.571 Y100.5 I0.249 J0.546 F700
G1 X89.484 F850
G3 X91.222 Y101.183 I-0.156 J2.952
X92.912 Y103.562 I-3.193 J4.057
X93.207 Y106.636 I-5.269 J2.058
X92.799 Y107.547 I-1.923 J-0.315
X91.764 Y108 I-1.04 J-0.967
G1 X89.879
G3 X89.651 Y107.946 I0.021 J-0.6 F700
X89.301 Y107.438 I0.249 J-0.546 F850
G1 X88.906 Y101.137
G3 X89.256 Y100.554 I0.599 J-0.038
X89.484 Y100.5 I0.249 J0.546 F700
G1 X91.374 F850
G3 X93.108 Y101.182 I-0.161 J2.952
X94.797 Y103.561 I-3.193 J4.057
X95.093 Y106.636 I-5.27 J2.059
X94.684 Y107.547 I-1.923 J-0.315
X93.65 Y108 I-1.04 J-0.967
G1 X91.764
G3 X91.536 Y107.946 I0.021 J-0.6 F700
X91.186 Y107.437 I0.249 J-0.546 F850
G1 X90.796 Y101.137
G3 X91.147 Y100.554 I0.599 J-0.037
X91.374 Y100.5 I0.249 J0.546 F700
G1 X93.205 F850
G3 X94.994 Y101.185 I-0.103 J2.949
X96.683 Y103.562 I-3.188 J4.052
X96.978 Y106.636 I-5.268 J2.058
X96.57 Y107.547 I-1.923 J-0.315
X95.535 Y108 I-1.04 J-0.967
G1 X93.65
G3 X93.422 Y107.946 I0.021 J-0.6 F700
X93.072 Y107.443 I0.249 J-0.546 F850
G1 X92.628 Y101.142
G3 X92.978 Y100.554 I0.599 J-0.042
X93.205 Y100.5 I0.249 J0.546 F700
G1 X95.118 F850
G3 X96.879 Y101.184 I-0.132 J2.95
X98.568 Y103.562 I-3.19 J4.054
X98.864 Y106.636 I-5.269 J2.058
X98.455 Y107.547 I-1.923 J-0.315
X97.421 Y108 I-1.04 J-0.967
G1 X95.535
G3 X95.307 Y107.946 I0.021 J-0.6 F700
X94.957 Y107.44 I0.249 J-0.546 F850
G1 X94.54 Y101.139
G3 X94.89 Y100.554 I0.599 J-0.04
X95.118 Y100.5 I0.249 J0.546 F700
G1 X97.008 F850
G3 X98.765 Y101.183 I-0.137 J2.95
X100.454 Y103.561 I-3.191 J4.055
X100.749 Y106.636 I-5.269 J2.058
X100.341 Y107.547 I-1.923 J-0.315
X99.306 Y108 I-1.04 J-0.967
G1 X97.421
G3 X97.193 Y107.946 I0.021 J-0.6 F700
X96.843 Y107.44 I0.249 J-0.546 F850
G1 X96.431 Y101.139
G3 X96.781 Y100.554 I0.599 J-0.039
X97.008 Y100.5 I0.249 J0.546 F700
G1 X98.84 F850
G3 X100.651 Y101.186 I-0.082 J2.953
X102.339 Y103.562 I-3.188 J4.052
X102.635 Y106.636 I-5.268 J2.058
X102.226 Y107.547 I-1.922 J-0.315
X101.192 Y108 I-1.04 J-0.967
G1 X99.306
G3 X99.078 Y107.946 I0.021 J-0.6 F700
X98.729 Y107.445 I0.249 J-0.546 F850
G1 X98.262 Y101.144
G3 X98.612 Y100.554 I0.598 J-0.044
X98.839 Y100.5 I0.249 J0.546 F700
G1 X100.852 F850
G3 X102.608 Y101.237 I-0.217 J2.977
X104.273 Y103.693 I-3.325 J4.047
X104.499 Y106.732 I-5.255 J1.92
X104.098 Y107.563 I-1.72 J-0.317
X103.08 Y108 I-1.022 J-0.975
G1 X101.192
G3 X100.964 Y107.946 I0.021 J-0.6 F700
X100.613 Y107.433 I0.249 J-0.546 F850
G1 X100.273 Y101.132
G3 X100.624 Y100.554 I0.599 J-0.032
X100.852 Y100.5 I0.249 J0.546 F700
G1 X102.642 F850
G3 X104.421 Y101.183 I-0.11 J2.945
X105.924 Y103.111 I-3.057 J3.934
X106.409 Y106.638 I-5.246 J2.518
X105.999 Y107.547 I-1.952 J-0.333
X104.965 Y108 I-1.04 J-0.968
G1 X103.08
G3 X102.852 Y107.946 I0.021 J-0.6 F700
X102.502 Y107.442 I0.249 J-0.546 F850
G1 X102.065 Y101.141
G3 X102.415 Y100.554 I0.599 J-0.042
X102.642 Y100.5 I0.249 J0.546 F700
G1 X104.474 F850
G3 X106.309 Y101.187 I-0.062 J2.961
X107.997 Y103.564 I-3.188 J4.052
X108.293 Y106.636 I-5.264 J2.057
X107.884 Y107.547 I-1.921 J-0.314
X106.85 Y108 I-1.04 J-0.967
G1 X104.965
G3 X104.737 Y107.946 I0.021 J-0.6 F700
X104.387 Y107.447 I0.249 J-0.546 F850
G1 X103.896 Y101.146
G3 X104.246 Y100.554 I0.598 J-0.047
X104.474 Y100.5 I0.249 J0.546 F700
G1 X106.486 F850
G3 X108.231 Y101.212 I-0.192 J2.967
X109.908 Y103.633 I-3.264 J4.052
X110.167 Y106.689 I-5.265 J1.984
X109.762 Y107.556 I-1.812 J-0.318
X108.736 Y108 I-1.03 J-0.972
G1 X106.85
G3 X106.622 Y107.946 I0.021 J-0.6 F700
X106.272 Y107.435 I0.249 J-0.546 F850
G1 X105.908 Y101.134
G3 X106.258 Y100.554 I0.599 J-0.035
X106.486 Y100.5 I0.249 J0.546 F700
G1 X108.277 F850
G3 X110.081 Y101.186 I-0.09 J2.952
X111.581 Y103.11 I-3.055 J3.928
X112.066 Y106.637 I-5.238 J2.518
X111.656 Y107.547 I-1.955 J-0.333
X110.621 Y108 I-1.04 J-0.968
G1 X108.736
G3 X108.508 Y107.946 I0.021 J-0.6 F700
X108.159 Y107.444 I0.249 J-0.546 F850
G1 X107.699 Y101.143
G3 X108.049 Y100.554 I0.598 J-0.044
X108.276 Y100.5 I0.249 J0.546 F700
G1 X110.207 F850
G3 X111.965 Y101.184 I-0.137 J2.951
X113.654 Y103.563 I-3.191 J4.056
X113.95 Y106.636 I-5.268 J2.058
X113.541 Y107.547 I-1.922 J-0.315
X112.507 Y108 I-1.04 J-0.967
G1 X110.621
G3 X110.393 Y107.946 I0.021 J-0.6 F700
X110.043 Y107.44 I0.249 J-0.546 F850
G1 X109.629 Y101.139
G3 X109.979 Y100.554 I0.599 J-0.039
X110.207 Y100.5 I0.249 J0.546 F700
G1 X112.12 F850
G3 X113.853 Y101.185 I-0.165 J2.955
X115.541 Y103.566 I-3.199 J4.057
X115.834 Y106.64 I-5.27 J2.053
X115.426 Y107.548 I-1.915 J-0.315
X114.392 Y108 I-1.039 J-0.967
G1 X112.507
G3 X112.279 Y107.946 I0.021 J-0.6 F700
X111.929 Y107.437 I0.249 J-0.546 F850
G1 X111.542 Y101.136
G3 X111.892 Y100.554 I0.599 J-0.037
X112.12 Y100.5 I0.249 J0.546 F700
G1 X113.911 F850
G3 X115.737 Y101.186 I-0.069 J2.957
X117.425 Y103.563 I-3.188 J4.051
X117.721 Y106.636 I-5.267 J2.057
X117.312 Y107.547 I-1.922 J-0.315
X116.277 Y108 I-1.04 J-0.967
G1 X114.392
G3 X114.164 Y107.946 I0.021 J-0.6 F700
X113.815 Y107.446 I0.249 J-0.546 F850
G1 X113.333 Y101.145
G3 X113.683 Y100.554 I0.598 J-0.046
X113.911 Y100.5 I0.249 J0.546 F700
G1 X115.923 F850
G3 X117.672 Y101.221 I-0.201 J2.97
X119.344 Y103.654 I-3.285 J4.05
X119.591 Y106.704 I-5.263 J1.961
X119.188 Y107.558 I-1.779 J-0.318
X118.165 Y108 I-1.027 J-0.973
G1 X116.277
G3 X116.05 Y107.946 I0.021 J-0.6 F700
X115.699 Y107.434 I0.249 J-0.546 F850
G1 X115.345 Y101.133
G3 X115.695 Y100.554 I0.599 J-0.034
X115.923 Y100.5 I0.249 J0.546 F700
G1 X117.754 F850
G3 X119.508 Y101.183 I-0.138 J2.948
X121.009 Y103.11 I-3.059 J3.932
X121.495 Y106.637 I-5.241 J2.518
X121.084 Y107.547 I-1.955 J-0.333
X120.05 Y108 I-1.04 J-0.968
G1 X118.165
G3 X117.937 Y107.946 I0.021 J-0.6 F700
X117.587 Y107.439 I0.249 J-0.546 F850
G1 X117.176 Y101.139
G3 X117.526 Y100.554 I0.599 J-0.039
X117.754 Y100.5 I0.249 J0.546 F700
G1 X119.666 F850
G3 X121.401 Y101.189 I-0.17 J2.956
X123.088 Y103.576 I-3.208 J4.056
X123.376 Y106.647 I-5.268 J2.043
X122.968 Y107.549 I-1.9 J-0.316
X121.935 Y108 I-1.038 J-0.968
G1 X120.05
G3 X119.822 Y107.946 I0.021 J-0.6 F700
X119.472 Y107.437 I0.249 J-0.546 F850
G1 X119.088 Y101.136
G3 X119.438 Y100.554 I0.599 J-0.036
X119.666 Y100.5 I0.249 J0.546 F700
G1 X121.557 F850
G3 X123.294 Y101.193 I-0.174 J2.958
X124.978 Y103.587 I-3.22 J4.055
X125.26 Y106.655 I-5.267 J2.032
X124.852 Y107.55 I-1.884 J-0.317
X123.821 Y108 I-1.036 J-0.969
G1 X121.935
G3 X121.707 Y107.946 I0.021 J-0.6 F700
X121.357 Y107.436 I0.249 J-0.546 F850
G1 X120.979 Y101.136
G3 X121.329 Y100.554 I0.599 J-0.036
X121.557 Y100.5 I0.249 J0.546 F700
G1 X123.388 F850
G3 X125.166 Y101.185 I-0.115 J2.949
X126.665 Y103.106 I-3.054 J3.929
X127.152 Y106.636 I-5.24 J2.52
X126.741 Y107.547 I-1.957 J-0.334
X125.707 Y108 I-1.04 J-0.968
G1 X123.821
G3 X123.593 Y107.946 I0.021 J-0.6 F700
X123.243 Y107.442 I0.249 J-0.546 F850
G1 X122.81 Y101.141
G3 X123.16 Y100.554 I0.599 J-0.041
X123.388 Y100.5 I0.249 J0.546 F700
G1 X125.3 F850
G3 X127.05 Y101.183 I-0.144 J2.95
X128.739 Y103.562 I-3.191 J4.055
X129.035 Y106.636 I-5.269 J2.058
X128.626 Y107.547 I-1.923 J-0.315
X127.592 Y108 I-1.04 J-0.967
G1 X125.707
G3 X125.479 Y107.946 I0.021 J-0.6 F700
X125.129 Y107.439 I0.249 J-0.546 F850
G1 X124.723 Y101.138
G3 X125.072 Y100.554 I0.599 J-0.039
X125.3 Y100.5 I0.249 J0.546 F700
G1 X127.191 F850
G3 X128.936 Y101.183 I-0.148 J2.951
X130.625 Y103.561 I-3.192 J4.055
X130.921 Y106.636 I-5.27 J2.058
X130.512 Y107.547 I-1.923 J-0.315
X129.478 Y108 I-1.04 J-0.967
G1 X127.592
G3 X127.364 Y107.946 I0.021 J-0.6 F700
X127.014 Y107.438 I0.249 J-0.546 F850
G1 X126.613 Y101.138
G3 X126.963 Y100.554 I0.599 J-0.038
X127.191 Y100.5 I0.249 J0.546 F700
G1 X129.022 F850
G3 X130.822 Y101.185 I-0.092 J2.951
X132.51 Y103.562 I-3.188 J4.052
X132.806 Y106.636 I-5.268 J2.058
X132.397 Y107.547 I-1.923 J-0.315
X131.363 Y108 I-1.04 J-0.967
G1 X129.478
G3 X129.25 Y107.946 I0.021 J-0.6 F700
X128.9 Y107.444 I0.249 J-0.546 F850
G1 X128.444 Y101.143
G3 X128.794 Y100.554 I0.598 J-0.043
X129.022 Y100.5 I0.249 J0.546 F700
G1 X130.934 F850
G3 X132.707 Y101.184 I-0.12 J2.95
X134.396 Y103.562 I-3.189 J4.054
X134.692 Y106.636 I-5.269 J2.058
X134.283 Y107.547 I-1.923 J-0.315
X133.248 Y108 I-1.04 J-0.967
G1 X131.363
G3 X131.135 Y107.946 I0.021 J-0.6 F700
X130.785 Y107.441 I0.249 J-0.546 F850
G1 X130.357 Y101.14
G3 X130.706 Y100.554 I0.599 J-0.041
X130.934 Y100.5 I0.249 J0.546 F700
G1 X132.825 F850
G3 X134.593 Y101.184 I-0.125 J2.949
X136.281 Y103.562 I-3.19 J4.054
X136.577 Y106.636 I-5.269 J2.058
X136.168 Y107.547 I-1.923 J-0.315
X135.134 Y108 I-1.04 J-0.967
G1 X133.248
G3 X133.021 Y107.946 I0.021 J-0.6 F700
X132.671 Y107.441 I0.249 J-0.546 F850
G1 X132.247 Y101.14
G3 X132.597 Y100.554 I0.599 J-0.04
X132.825 Y100.5 I0.249 J0.546 F700
G1 X134.656 F850
G3 X136.479 Y101.186 I-0.072 J2.956
X138.167 Y103.563 I-3.188 J4.052
X138.462 Y106.636 I-5.267 J2.058
X138.053 Y107.547 I-1.922 J-0.315
X137.019 Y108 I-1.04 J-0.967
G1 X135.134
G3 X134.906 Y107.946 I0.021 J-0.6 F700
X134.557 Y107.446 I0.249 J-0.546 F850
G1 X134.079 Y101.145
G3 X134.428 Y100.554 I0.598 J-0.045
X134.656 Y100.5 I0.249 J0.546 F700
G1 X136.668 F850
G3 X138.419 Y101.225 I-0.205 J2.972
X140.09 Y103.664 I-3.295 J4.049
X140.331 Y106.711 I-5.261 J1.951
X139.929 Y107.56 I-1.764 J-0.318
X138.907 Y108 I-1.026 J-0.973
G1 X137.019
G3 X136.791 Y107.946 I0.021 J-0.6 F700
X136.441 Y107.434 I0.249 J-0.546 F850
G1 X136.09 Y101.133
G3 X136.44 Y100.554 I0.599 J-0.033
X136.668 Y100.5 I0.249 J0.546 F700
G1 X138.459 F850
G3 X140.25 Y101.185 I-0.101 J2.948
X141.751 Y103.111 I-3.056 J3.93
X142.236 Y106.637 I-5.241 J2.517
X141.826 Y107.547 I-1.953 J-0.333
X140.792 Y108 I-1.04 J-0.968
G1 X138.907
G3 X138.679 Y107.946 I0.021 J-0.6 F700
X138.329 Y107.443 I0.249 J-0.546 F850
G1 X137.881 Y101.142
G3 X138.231 Y100.554 I0.598 J-0.043
X138.459 Y100.5 I0.249 J0.546 F700
G1 X140.29 F850
G3 X142.136 Y101.188 I-0.053 J2.964
X143.824 Y103.564 I-3.189 J4.052
X144.12 Y106.636 I-5.265 J2.057
X143.711 Y107.547 I-1.921 J-0.314
X142.677 Y108 I-1.04 J-0.967
G1 X140.792
G3 X140.564 Y107.946 I0.021 J-0.6 F700
X140.214 Y107.448 I0.249 J-0.546 F850
G1 X139.713 Y101.147
G3 X140.062 Y100.554 I0.598 J-0.048
X140.29 Y100.5 I0.249 J0.546 F700
G1 X142.302 F850
G3 X144.043 Y101.2 I-0.18 J2.963
X145.725 Y103.604 I-3.236 J4.054
X145.998 Y106.668 I-5.267 J2.014
X145.592 Y107.552 I-1.857 J-0.317
X144.563 Y108 I-1.034 J-0.97
G1 X142.677
G3 X142.449 Y107.946 I0.021 J-0.6 F700
X142.099 Y107.436 I0.249 J-0.546 F850
G1 X141.724 Y101.135
G3 X142.074 Y100.554 I0.599 J-0.036
X142.302 Y100.5 I0.249 J0.546 F700
G1 X144.093 F850
G3 X145.908 Y101.187 I-0.08 J2.955
X147.407 Y103.108 I-3.054 J3.927
X147.893 Y106.637 I-5.238 J2.519
X147.482 Y107.547 I-1.956 J-0.334
X146.448 Y108 I-1.04 J-0.968
G1 X144.563
G3 X144.335 Y107.946 I0.021 J-0.6 F700
X143.985 Y107.445 I0.249 J-0.546 F850
G1 X143.515 Y101.144
G3 X143.865 Y100.554 I0.598 J-0.045
X144.093 Y100.5 I0.249 J0.546 F700
G1 X146.105 F850
G3 X147.86 Y101.235 I-0.215 J2.977
X149.527 Y103.688 I-3.319 J4.048
X149.756 Y106.728 I-5.255 J1.925
X149.355 Y107.562 I-1.728 J-0.317
X148.336 Y108 I-1.022 J-0.975
G1 X146.448
G3 X146.22 Y107.946 I0.021 J-0.6 F700
X145.87 Y107.433 I0.249 J-0.546 F850
G1 X145.527 Y101.132
G3 X145.877 Y100.554 I0.599 J-0.033
X146.105 Y100.5 I0.249 J0.546 F700
G1 X147.936 F850
G3 X149.676 Y101.181 I-0.15 J2.947
X151.18 Y103.111 I-3.061 J3.937
X151.665 Y106.638 I-5.246 J2.518
X151.255 Y107.547 I-1.952 J-0.333
X150.221 Y108 I-1.04 J-0.968
G1 X148.336
G3 X148.108 Y107.946 I0.021 J-0.6 F700
X147.758 Y107.438 I0.249 J-0.546 F850
G1 X147.358 Y101.138
G3 X147.708 Y100.554 I0.599 J-0.038
X147.936 Y100.5 I0.249 J0.546 F700
G1 X149.727 F850
G3 X151.565 Y101.187 I-0.059 J2.961
X153.253 Y103.564 I-3.188 J4.052
X153.549 Y106.636 I-5.265 J2.057
X153.14 Y107.547 I-1.921 J-0.314
X152.106 Y108 I-1.04 J-0.967
G1 X150.221
G3 X149.993 Y107.946 I0.021 J-0.6 F700
X149.643 Y107.447 I0.249 J-0.546 F850
G1 X149.15 Y101.147
G3 X149.499 Y100.554 I0.598 J-0.047
X149.727 Y100.5 I0.249 J0.546 F700
G1 X151.739 F850
G3 X153.483 Y101.209 I-0.189 J2.966
X155.162 Y103.625 I-3.257 J4.053
X155.424 Y106.683 I-5.266 J1.992
X155.019 Y107.555 I-1.824 J-0.318
X153.992 Y108 I-1.031 J-0.971
G1 X152.106
G3 X151.878 Y107.946 I0.021 J-0.6 F700
X151.528 Y107.435 I0.249 J-0.546 F850
G1 X151.161 Y101.134
G3 X151.511 Y100.554 I0.599 J-0.035
X151.739 Y100.5 I0.249 J0.546 F700
G1 X153.57 F850
G3 X155.336 Y101.185 I-0.128 J2.95
X156.836 Y103.109 I-3.057 J3.93
X157.322 Y106.637 I-5.239 J2.519
X156.912 Y107.547 I-1.956 J-0.334
X155.877 Y108 I-1.04 J-0.968
G1 X153.992
G3 X153.764 Y107.946 I0.021 J-0.6 F700
X153.414 Y107.44 I0.249 J-0.546 F850
G1 X152.992 Y101.14
G3 X153.342 Y100.554 I0.599 J-0.04
X153.57 Y100.5 I0.249 J0.546 F700
G1 X155.483 F850
G3 X157.221 Y101.183 I-0.157 J2.953
X158.91 Y103.562 I-3.193 J4.057
X159.206 Y106.636 I-5.269 J2.058
X158.816 Y107.525 I-1.943 J-0.322
X157.775 Y107.999 I-1.062 J-0.951
G1 X156.971 Y108
X156.568 Y107.999
X155.877 Y108
G3 X155.649 Y107.946 I0.021 J-0.6 F700
X155.299 Y107.438 I0.249 J-0.546 F850
G1 X154.905 Y101.137
G3 X155.255 Y100.554 I0.599 J-0.038
X155.483 Y100.5 I0.249 J0.546 F700
X157.525 Y100.505 I0.653 J160.945 F850
X159.368 Y101.399 I-0.433 J3.239
X160.951 Y104.036 I-3.697 J4.014
X161.183 Y105.476 I-5.504 J1.626
G1 X161.164 Y105.695
X161.112 Y105.909
X161.026 Y106.111
G3 X160.874 Y106.289 I-0.523 J-0.294 F700
X160.003 Y106.147 I-0.371 J-0.472 F850
G1 X156.893 Y101.43
G3 X157.145 Y100.554 I0.501 J-0.33
X157.373 Y100.5 I0.249 J0.546 F700
X158.983 Y100.705 I0.28 J4.216 F850
X161.289 Y105.558 I-1.213 J3.551
X157.845 Y107.998 I-3.524 J-1.324
G1 X157.853 Y108.146 F212.5
G3 X156.985 Y108.998 I-2.001 J-1.17 F850
G1 X156.667 Y109.188
X156.255 Y109.385
X155.714 Y109.593
X154.977 Y109.811
G3 X151.466 Y110.26 I-4.132 J-18.364
X144.379 Y110.386 I-5.951 J-134.591
G1 X142.607 Y110.396
X139.062 Y110.399
X123.112 Y110.4
X86.781
X82.646 Y110.404
X78.511 Y110.399
X74.375 Y110.386
X73.537 Y110.305
G3 X71.14 Y109.621 I0.908 J-7.718
X68.122 Y106.518 I2.615 J-5.564
X71.35 Y99.003 I5.196 J-2.219
G1 X71.984 Y98.791
X72.844 Y98.577
G3 X76.366 Y98.214 I4.164 J23.144
X84.34 Y98.11 I6.48 J191.094
G1 X86.999 Y98.102
X93.202 Y98.1
X121.557
X155.23
X156.116 Y98.105
X157.002 Y98.144
X157.765 Y98.23
G3 X160.947 Y99.507 I-1.006 J7.112
X163.324 Y103.46 I-3.499 J4.795
X161.544 Y108.367 I-5.601 J0.744
G1 X160.864 Y108.936
X160.181 Y109.5
G3 X157.166 Y111.342 I-7.864 J-9.481
X153.756 Y112.277 I-5.575 J-13.641
X148.46 Y112.703 I-5.842 J-39.552
X137.827 Y112.798 I-8.549 J-361.321
G1 X132.511 Y112.8
X111.244
X86.432
X82.888 Y112.801
X77.571 Y112.8
G3 X74.031 Y112.652 I-0.475 J-31.089
G1 X73.156 Y112.516
X72.291 Y112.323
X71.476 Y112.075
G3 X67.844 Y109.751 I2.92 J-8.561
X65.666 Y104.551 I5.812 J-5.491
X69.335 Y97.77 I7.677 J-0.229
G1 X69.997 Y97.393
X70.739 Y97.047
G3 X74.161 Y96.158 I5.191 J12.955
X79.461 Y95.784 I5.705 J43.041
X89.208 Y95.703 I7.97 J370.726
G1 X94.525 Y95.7
X112.247
X153.009
G3 X156.551 Y95.799 I0.627 J41.113
G1 X157.431 Y95.907
X158.302 Y96.068
X159.153 Y96.289
G3 X162.446 Y98.043 I-2.67 J8.981
X165.17 Y102.398 I-5.197 J6.28
X164.153 Y108.347 I-7.51 J1.776
X161.848 Y110.953 I-10.479 J-6.941
X156.459 Y113.927 I-9.465 J-10.782
X151.237 Y114.871 I-6.975 J-23.67
X145.042 Y115.144 I-6.495 J-77.066
X136.181 Y115.197 I-7.494 J-509.648
G1 X130.864 Y115.2
X128.206
X87.444
X81.241 Y115.201
G3 X76.4 Y115.175 I-0.718 J-325.387
X70.498 Y114.207 I-0.449 J-15.728
X65.603 Y110.6 I4.262 J-10.911
X64.086 Y100.805 I8.034 J-6.259
X68.888 Y95.447 I9.58 J3.757
X72.979 Y93.972 I6.819 J12.5
X77.7 Y93.344 I6.122 J27.958
X83.166 Y93.135 I5.789 J79.892
X88.483 Y93.093 I5.138 J315.668
G2 X95.567 Y93.281 I6.063 J-95.301
G1 X96.454 Y93.292
X98.226 Y93.296
X100.884 Y93.299
X109.746 Y93.3
X138.101
X151.393
G3 X155.822 Y93.411 I0.685 J61.274
X159.308 Y94.019 I-1.372 J18.147
X162.539 Y95.452 I-3.483 J12.213
X165.654 Y98.407 I-5.763 J9.197
X167.469 Y103.705 I-8.285 J5.798
X166.539 Y108.363 I-9.875 J0.45
X164.588 Y111.309 I-11.245 J-5.33
X158.876 Y115.408 I-11.875 J-10.515
X153.776 Y116.86 I-8.354 J-19.665
X147.605 Y117.438 I-7.441 J-46.229
X137.859 Y117.583 I-8.286 J-228.347
G1 X135.201 Y117.596
X131.656 Y117.599
X121.023 Y117.6
X108.617
X85.578 Y117.601
G3 X76.717 Y117.572 I-2.368 J-640.48
X72.319 Y117.08 I0.472 J-24.121
X67.406 Y115.114 I3.301 J-15.367
X63.559 Y111.493 I7.103 J-11.4
X62.503 Y109.675 I9.464 J-6.717
G2 X61.437 Y108.966 I-1.213 J0.667
G1 X60.552 Y108.938
X59.694 Y109.161
X58.006 Y109.7
X57.151 Y109.934
X56.405 Y110.081
G3 X53.014 Y109.825 I-1.176 J-7.017
X49.238 Y105.927 I1.863 J-5.584
X51.338 Y99.796 I5.492 J-1.544
X58.25 Y99.897 I3.392 J4.458
G2 X59.305 Y100.12 I0.788 J-1.122
G1 X60.16 Y99.885
X60.893 Y99.388
X61.564 Y98.808
X62.195 Y98.186
G3 X64.703 Y95.684 I33.306 J30.873
X70.829 Y92.221 I11.041 J12.382
X76.912 Y91.076 I8.188 J26.778
X83.991 Y90.747 I7.378 J82.318
X90.192 Y90.805 I2.268 J88.458
G2 X102.598 Y90.898 I10.48 J-571.998
G1 X108.8 Y90.9
X127.409
X149.562
G3 X155.761 Y91.065 I1.068 J76.479
X160.103 Y91.911 I-2.089 J22.287
X164.793 Y94.358 I-4.464 J14.274
X169.186 Y100.861 I-7.846 J10.035
X168.756 Y108.682 I-11.634 J3.284
X166.492 Y112.47 I-13.059 J-5.237
X160.207 Y117.269 I-13.585 J-11.276
X154.297 Y119.095 I-9.87 J-21.464
G1 X153.417 Y119.251
G3 X152.358 Y119.25 I-0.52 J-11.28
G1 X90.958
G2 X89.809 Y119.369 I-0.153 J4.129
G1 X89.26 Y119.513
G3 X85.739 Y119.884 I-4.163 J-22.603
X76.879 Y119.939 I-5.27 J-136.666
X71.615 Y119.252 I0.956 J-27.847
X65.941 Y116.818 I4.204 J-17.628
X62.631 Y113.894 I8.649 J-13.127
G1 X62.33 Y113.569
X61.61 Y113.053
X60.774 Y112.757
X59.9 Y112.612
X59.016 Y112.559
X58.13 Y112.553
G3 X54.591 Y112.42 I-0.876 J-23.928
G1 X53.722 Y112.261
G3 X50.39 Y110.805 I1.913 J-8.92
X47.221 Y106.133 I4.61 J-6.538
X54.479 Y96.657 I7.547 J-1.737
G1 X55.092 Y96.666
X55.702 Y96.72
X56.575 Y96.869
X57.457 Y96.959
X58.33 Y96.811
X59.161 Y96.504
X59.946 Y96.092
X60.693 Y95.616
G2 X63.539 Y93.504 I-74.608 J-103.496
G3 X68.119 Y90.822 I14.532 J19.569
X74.943 Y88.982 I10.228 J24.348
X82.006 Y88.423 I8.199 J58.738
X88.034 Y88.368 I3.887 J94.959
X88.944 Y88.716 I-0.024 J1.425
G2 X90.354 Y89.228 I1.674 J-2.412
G1 X90.757 Y89.249
X90.958 Y89.25
X152.358
G2 X153.567 Y89.174 I0.269 J-5.387
G1 X154.227 Y89.059
G3 X157.761 Y89.113 I1.559 J13.617
X165.889 Y92.397 I-2.241 J17.244
X169.494 Y96.272 I-9.403 J12.362
X171.68 Y102.029 I-12.32 J7.972
X170.661 Y109.838 I-14.318 J2.104
X167.248 Y114.976 I-15.477 J-6.579
X163.053 Y118.309 I-13.786 J-13.048
G2 X161.415 Y118.916 I4.574 J14.844
G1 X161.375 Y118.947
X159.798 Y119.755
G3 X156.453 Y120.925 I-7.301 J-15.498
X155.23 Y120.377 I-0.087 J-1.444
G1 X155.189 Y120.31 F700
X155.157 Y120.238
X155.134 Y120.163
G3 X155.548 Y119.452 I0.584 J-0.136 F850
G1 X160.886 Y117.863
G3 X161.546 Y118.787 I0.171 J0.575
X161.375 Y118.947 I-0.488 J-0.348 F700
G2 X160.041 Y120.493 I1.479 J2.625 F850
G3 X157.373 Y122.451 I-3.701 J-2.246
X155.879 Y121.717 I-0.271 J-1.336
G1 X155.781 Y121.436
X155.756 Y121.363
G3 X155.735 Y121.13 I0.575 J-0.17 F700
X156.146 Y120.622 I0.597 J0.063 F850
G1 X159.352 Y119.582
G3 X160.136 Y120.125 I0.185 J0.571
X160.101 Y120.356 I-0.599 J0.028 F700
G2 X159.854 Y121.564 I2.689 J1.181 F850
G3 X158.868 Y123.241 I-2.432 J-0.302
X157.275 Y123.837 I-1.63 J-1.928
X156.086 Y122.993 I0.115 J-1.421
G1 X156.063 Y122.918 F700
X156.049 Y122.841
X156.045 Y122.762
G3 X156.394 Y122.228 I0.6 J0.011 F850
G1 X159 Y121.025
G3 X159.804 Y121.335 I0.252 J0.545
X159.852 Y121.564 I-0.552 J0.234 F700
X159.835 Y122.571 I-11.269 J0.319 F850
X159.334 Y123.578 I-2.115 J-0.426
G1 X159.119 Y123.779
X159.061 Y123.83
G3 X155.981 Y122.683 I-1.164 J-1.583
G2 X155.783 Y121.436 I-12.756 J1.389
G1 X155.772 Y121.358 F700
Y121.28
X155.781 Y121.202
X155.8 Y121.11 Z0.007
X155.818 Y121.02 Z0.029
X155.835 Y120.935 Z0.065
X155.851 Y120.856 Z0.115
X155.865 Y120.786 Z0.176
X155.877 Y120.726 Z0.247
X155.887 Y120.678 Z0.328
X155.894 Y120.643 Z0.415
X155.898 Y120.621 Z0.506
X155.9 Y120.614 Z0.6
G0 Z23
X153.449 Y89.958
Z1.2
G1 Z0.6 F700
Y89.951 Z0.506
X153.448 Y89.929 Z0.415
X153.446 Y89.893 Z0.328
X153.444 Y89.844 Z0.247
X153.442 Y89.783 Z0.176
X153.439 Y89.711 Z0.115
X153.436 Y89.631 Z0.065
X153.433 Y89.544 Z0.029
X153.429 Y89.452 Z0.007
X153.425 Y89.359 Z0
G3 X153.566 Y89.17 I0.187 J-0.007
G2 X154.976 Y88.403 I-0.635 J-2.848 F850
G3 X156.636 Y87.56 I2.473 J2.815
X158.849 Y87.351 I1.764 J6.848
X160.098 Y88.145 I-0.034 J1.433
G2 X161.417 Y89.582 I2.817 J-1.262
G1 X161.619 Y89.669
G2 X163.511 Y90.356 I10.556 J-26.127
X165.643 Y91.346 I97.799 J-207.766
X166.478 Y91.513 I1.098 J-3.325
G3 X168.512 Y92.368 I-1.083 J5.424
G1 X169.044 Y92.742
X169.627 Y93.229
X170.241 Y93.833
G3 X170.682 Y94.776 I-1.044 J1.063
G2 X170.634 Y95.594 I19.76 J1.577
X170.839 Y96.6 I2.947 J-0.076
G1 X171.785 Y98.613
X172.205 Y99.821
X172.288 Y100.051
G2 X172.84 Y101.153 I3.453 J-1.039
G3 X173.596 Y103.038 I-5.414 J3.265
G1 X173.728 Y103.7
X173.818 Y104.481
X173.848 Y105.367
X173.828 Y105.806
G3 X173.295 Y106.887 I-1.501 J-0.068
G2 X172.293 Y108.442 I1.987 J2.38
G1 X171.853 Y109.686
G3 X170.876 Y111.795 I-28.501 J-11.93
G2 X170.675 Y112.505 I3.022 J1.239
G3 X170.04 Y114.454 I-6.28 J-0.967
X168.557 Y116.653 I-9.291 J-4.668
X167.255 Y117.058 I-0.992 J-0.892
G2 X165.044 Y117.43 I-0.627 J3.032
G3 X163.432 Y118.178 I-24.59 J-50.894
G1 X162.952 Y118.341
G3 X162.719 Y118.366 I-0.178 J-0.573 F700
X162.42 Y117.284 I0.055 J-0.597 F850
G1 X169.724 Y111.963
G3 X170.651 Y112.272 I0.353 J0.485
X170.675 Y112.505 I-0.574 J0.176 F700
G2 X170.874 Y114.166 I2.986 J0.485 F850
G3 X170.21 Y117.222 I-3.816 J0.771
X168.277 Y117.483 I-1.101 J-0.864
X168.126 Y117.304 I0.373 J-0.47 F700
X168.133 Y116.71 I0.525 J-0.291 F850
G1 X169.75 Y113.947
G3 X170.695 Y113.829 I0.518 J0.303
X170.824 Y114.025 I-0.427 J0.421 F700
G2 X171.44 Y115.036 I3.022 J-1.148 F850
G3 X171.606 Y117.486 I-2.09 J1.372
X170.871 Y118.443 I-1.995 J-0.771
X169.12 Y118.242 I-0.75 J-1.194
G2 X168.279 Y117.481 I-4.262 J3.866
G1 X168.22 Y117.429 F700
X168.169 Y117.37
X168.126 Y117.304
G3 X168.294 Y116.53 I0.525 J-0.291 F850
G1 X170.56 Y114.859
G3 X171.151 Y114.789 I0.356 J0.483
X171.344 Y114.921 I-0.234 J0.552 F700
G2 X172.139 Y115.725 I10.858 J-9.932 F850
G3 X170.275 Y118.912 I-1.522 J1.249
X169.121 Y118.241 I0.342 J-1.917
G1 X169.071 Y118.18 F700
X169.03 Y118.113
X168.998 Y118.041
G3 X168.97 Y117.737 I0.564 J-0.206 F850
G1 X171.702 Y101.315
G3 X172.573 Y100.882 I0.592 J0.098
X172.755 Y101.029 I-0.279 J0.531 F700
G2 X173.978 Y102.049 I2.702 J-1.996 F850
G3 X175.17 Y103.601 I-2.182 J2.912
X175.509 Y104.75 I-3.714 J1.719
X174.503 Y106.287 I-1.392 J0.187
X174.269 Y106.298 I-0.144 J-0.583 F700
X173.777 Y105.853 I0.09 J-0.593 F850
G1 X172.957 Y102.635
G3 X173.583 Y101.888 I0.581 J-0.148
X173.808 Y101.951 I-0.044 J0.598 F700
G2 X174.765 Y102.261 I1.463 J-2.883 F850
G3 X176.034 Y102.906 I-0.267 J2.097
X176.895 Y104.772 I-1.889 J2.004
X175.509 Y106.204 I-1.376 J0.056
G2 X174.502 Y106.283 I-0.103 J5.141
G1 X174.424 Y106.293 F700
X174.346 Y106.292
X174.269 Y106.281
G3 X173.806 Y105.623 I0.133 J-0.585 F850
G1 X174.149 Y102.788
G3 X174.534 Y102.299 I0.596 J0.072
X174.765 Y102.261 I0.211 J0.562 F700
G2 X176.022 Y102.291 I0.87 J-9.841 F850
G3 X175.912 Y106.212 I-0.126 J1.958
G1 X175.509 Y106.204
G3 X175.282 Y106.149 I0.026 J-0.599 F700
X175.04 Y105.944 I0.253 J-0.544 F850
G1 X165.785 Y92.429
G3 X166.078 Y91.525 I0.495 J-0.339
X166.31 Y91.49 I0.202 J0.565 F700
G2 X167.799 Y91.277 I0.319 J-3.084 F850
G3 X169.658 Y91.462 I0.606 J3.35
X170.684 Y91.984 I-1.226 J3.679
X171.126 Y93.867 I-0.855 J1.194
G1 X171.005 Y94.094
G3 X170.85 Y94.27 I-0.52 J-0.3 F700
X170.127 Y94.275 I-0.365 J-0.476 F850
G1 X167.549 Y92.354
G3 X167.468 Y91.464 I0.359 J-0.481
X167.658 Y91.327 I0.44 J0.408 F700
G2 X168.619 Y90.747 I-0.871 J-2.527 F850
G3 X171.104 Y90.671 I1.309 J2.167
X172.108 Y91.62 I-0.721 J1.769
G1 X172.185 Y91.937
G3 X171.781 Y93.127 I-1.387 J0.192
G2 X171.126 Y93.867 I2.99 J3.309
G3 X170.952 Y94.024 I-0.482 J-0.357 F700
X170.169 Y93.877 I-0.309 J-0.514 F850
G1 X168.44 Y91.643
G3 X168.367 Y91.032 I0.475 J-0.367
X168.502 Y90.841 I0.548 J0.244 F700
G1 X168.818 Y90.561 F850
G3 X169.468 Y89.927 I7.188 J6.716
X172.435 Y90.763 I1.148 J1.607
X172.138 Y92.776 I-1.84 J0.757
G1 X171.781 Y93.127
G3 X171.581 Y93.249 I-0.406 J-0.442 F700
X171.234 Y93.268 I-0.206 J-0.564 F850
G1 X155.258 Y89.411
G3 X154.845 Y88.596 I0.141 J-0.583
X154.975 Y88.402 I0.554 J0.231 F700
G2 X155.708 Y87.294 I-2.15 J-2.217 F850
G3 X157.436 Y85.975 I2.683 J1.725
X158.701 Y85.799 I0.981 J2.405
X159.863 Y87.121 I-0.237 J1.38
X159.819 Y87.351 I-0.6 J0.004 F700
X159.364 Y87.716 I-0.556 J-0.226 F850
G1 X156.306 Y88.238
G3 X155.605 Y87.661 I-0.101 J-0.591
X155.646 Y87.43 I0.6 J-0.014 F700
G2 X155.911 Y86.333 I-3.138 J-1.34 F850
G3 X156.987 Y84.859 I2.205 J0.48
X158.678 Y84.478 I1.296 J1.811
G1 X158.945 Y84.597
G3 X159.12 Y84.752 I-0.301 J0.519 F700
X158.951 Y85.63 I-0.477 J0.364 F850
G1 X156.816 Y86.909
G3 X155.933 Y86.566 I-0.308 J-0.515
X155.911 Y86.333 I0.575 J-0.172 F700
G1 X155.982 Y85.818 F850
G3 X159.852 Y86.131 I1.913 J0.431
G1 X159.847 Y86.534
X159.848 Y86.736
X159.863 Y87.121
G3 X159.819 Y87.351 I-0.6 J0.004 F700
G1 X159.784 Y87.438 Z0.007
X159.749 Y87.523 Z0.029
X159.716 Y87.603 Z0.065
X159.686 Y87.678 Z0.115
X159.659 Y87.744 Z0.176
X159.636 Y87.8 Z0.247
X159.618 Y87.846 Z0.328
X159.604 Y87.879 Z0.415
X159.596 Y87.9 Z0.506
X159.593 Y87.907 Z0.6
G0 Z23
X89.861 Y118.577
Z1.2
G1 Z0.6 F700
X89.862 Y118.584 Z0.506
X89.865 Y118.606 Z0.415
X89.869 Y118.642 Z0.328
X89.875 Y118.691 Z0.247
X89.883 Y118.751 Z0.176
X89.892 Y118.822 Z0.115
X89.901 Y118.902 Z0.065
X89.912 Y118.988 Z0.029
X89.923 Y119.079 Z0.007
X89.935 Y119.172 Z0
G3 X89.81 Y119.372 I-0.186 J0.023
G2 X88.21 Y120.479 I0.925 J3.048 F850
G3 X86.483 Y121.467 I-3.451 J-4.027
G1 X85.778 Y121.698
G3 X82.278 Y122.216 I-4.231 J-16.499
X74.315 Y122.07 I-3.155 J-45.148
