%
(1001)
(Dust Shoe acrylic top)
(T1  D=6 CR=0 - ZMIN=0 - flat end mill)
G90 G94
G17
G21

(2D Contour2)
M9
T1 M6
S7000 M3
G54
M9
G0 X19.734 Y222.558
Z33
Z23
G1 Z21.1 F300
X19.727 Y222.557 Z21.006 F30
X19.705 Y222.553 Z20.915
X19.669 Y222.547 Z20.828
X19.621 Y222.54 Z20.747
X19.561 Y222.53 Z20.676
X19.49 Y222.519 Z20.615
X19.411 Y222.506 Z20.565
X19.325 Y222.492 Z20.529
X19.234 Y222.478 Z20.507
X19.142 Y222.463 Z20.5
X18.549 Y222.368 F300
G2 X17.862 Y222.866 I-0.095 J0.592
X24.682 Y250.882 Z19.466 I36.782 J5.884
G3 X24.226 Y254.938 Z19.309 I-2.413 J1.782
G2 X24.062 Y259.332 Z19.137 I1.957 J2.274
X28.457 Y259.169 Z18.965 I2.121 J-2.121
G3 X32.513 Y258.713 Z18.808 I2.273 J1.957
G2 X49.107 Y265.586 Z18.174 I22.131 J-29.963
G3 X51.653 Y268.776 Z18.018 I-0.446 J2.967
G2 X54.644 Y272 Z17.845 I2.992 J0.224
X57.636 Y268.776 Z17.673 J-3
G3 X60.182 Y265.586 Z17.516 I2.992 J-0.224
G2 X76.776 Y258.713 Z16.883 I-5.537 J-36.836
G3 X80.832 Y259.169 Z16.726 I1.782 J2.413
G2 X85.227 Y259.332 Z16.554 I2.274 J-1.958
X85.063 Y254.938 Z16.381 I-2.121 J-2.121
G3 X84.607 Y250.882 Z16.224 I1.957 J-2.274
G2 X87.962 Y245.408 Z16 I-29.963 J-22.132
G3 X90.645 Y243.75 I2.683 J1.342 F750
G1 X152.894
G3 X155.894 Y246.75 J3
G2 X158.033 Y248.745 I2
X159.875 Y246.472 I-0.139 J-1.995
G3 X162.02 Y243.172 I2.971 J-0.416
G2 X165.174 Y241.865 I-4.128 J-14.421
G3 X169.025 Y242.682 I1.456 J2.623
G2 X172.036 Y242.892 I1.597 J-1.204
X171.826 Y239.881 I-1.414 J-1.414
G3 X171.009 Y236.03 I1.806 J-2.395
G2 X172.316 Y232.876 I-13.114 J-7.282
G3 X175.616 Y230.731 I2.884 J0.826
G2 X177.894 Y228.75 I0.278 J-1.981
X175.616 Y226.769 I-2
G3 X172.316 Y224.624 I-0.416 J-2.971
G2 X171.009 Y221.47 I-14.421 J4.128
G3 X171.826 Y217.619 I2.623 J-1.456
G2 X172.036 Y214.608 I-1.204 J-1.597
X169.025 Y214.818 I-1.414 J1.414
G3 X165.174 Y215.635 I-2.395 J-1.806
G2 X162.02 Y214.328 I-7.282 J13.114
G3 X159.875 Y211.028 I0.826 J-2.884
G2 X158.033 Y208.755 I-1.981 J-0.278
X155.894 Y210.75 I-0.139 J1.995
G3 X152.894 Y213.75 I-3
G1 X90.645
G3 X87.962 Y212.092 J-3
G2 X84.607 Y206.618 I-33.318 J16.658
G3 X85.063 Y202.563 I2.413 J-1.782
G2 X85.227 Y198.168 I-1.957 J-2.274
X80.832 Y198.331 I-2.121 J2.121
G3 X76.776 Y198.787 I-2.273 J-1.957
G2 X60.182 Y191.914 I-22.131 J29.963
G3 X57.636 Y188.723 I0.446 J-2.967
G2 X54.644 Y185.5 I-2.992 J-0.223
X51.653 Y188.723 J3
G3 X49.107 Y191.914 I-2.992 J0.224
G2 X32.513 Y198.787 I5.537 J36.836
G3 X28.457 Y198.331 I-1.782 J-2.413
G2 X24.062 Y198.168 I-2.274 J1.957
X24.226 Y202.562 I2.121 J2.121
G3 X24.682 Y206.618 I-1.957 J2.274
G2 Y250.882 I29.963 J22.132
G3 X24.226 Y254.938 I-2.413 J1.782
G2 X24.062 Y259.332 I1.957 J2.274
X28.457 Y259.169 I2.121 J-2.121
G3 X32.513 Y258.713 I2.273 J1.957
G2 X49.107 Y265.586 I22.131 J-29.963
G3 X51.653 Y268.776 I-0.446 J2.967
G2 X54.644 Y272 I2.992 J0.224
X57.636 Y268.776 J-3
G3 X60.182 Y265.586 I2.992 J-0.224
G2 X76.776 Y258.713 I-5.537 J-36.836
G3 X80.832 Y259.169 I1.782 J2.413
G2 X85.227 Y259.332 I2.274 J-1.958
X85.063 Y254.938 I-2.121 J-2.121
G3 X84.607 Y250.882 I1.957 J-2.274
G2 X87.962 Y245.408 I-29.963 J-22.132
G3 X90.645 Y243.75 Z15.884 I2.683 J1.342 F300
G1 X144.596 Z14
X152.894 F750
G3 X155.894 Y246.75 J3
G2 X158.033 Y248.745 I2
X159.875 Y246.472 I-0.139 J-1.995
G3 X162.02 Y243.172 I2.971 J-0.416
G2 X165.174 Y241.865 I-4.128 J-14.421
G3 X169.025 Y242.682 I1.456 J2.623
G2 X172.036 Y242.892 I1.597 J-1.204
X171.826 Y239.881 I-1.414 J-1.414
G3 X171.009 Y236.03 I1.806 J-2.395
G2 X172.316 Y232.876 I-13.114 J-7.282
G3 X175.616 Y230.731 I2.884 J0.826
G2 X177.894 Y228.75 I0.278 J-1.981
X175.616 Y226.769 I-2
G3 X172.316 Y224.624 I-0.416 J-2.971
G2 X171.009 Y221.47 I-14.421 J4.128
G3 X171.826 Y217.619 I2.623 J-1.456
G2 X172.036 Y214.608 I-1.204 J-1.597
X169.025 Y214.818 I-1.414 J1.414
G3 X165.174 Y215.635 I-2.395 J-1.806
G2 X162.02 Y214.328 I-7.282 J13.114
G3 X159.875 Y211.028 I0.826 J-2.884
G2 X158.033 Y208.755 I-1.981 J-0.278
X155.894 Y210.75 I-0.139 J1.995
G3 X152.894 Y213.75 I-3
G1 X90.645
G3 X87.962 Y212.092 J-3
G2 X84.607 Y206.618 I-33.318 J16.658
G3 X85.063 Y202.563 I2.413 J-1.782
G2 X85.227 Y198.168 I-1.957 J-2.274
X80.832 Y198.331 I-2.121 J2.121
G3 X76.776 Y198.787 I-2.273 J-1.957
G2 X60.182 Y191.914 I-22.131 J29.963
G3 X57.636 Y188.723 I0.446 J-2.967
G2 X54.644 Y185.5 I-2.992 J-0.223
X51.653 Y188.723 J3
G3 X49.107 Y191.914 I-2.992 J0.224
G2 X32.513 Y198.787 I5.537 J36.836
G3 X28.457 Y198.331 I-1.782 J-2.413
G2 X24.062 Y198.168 I-2.274 J1.957
X24.226 Y202.562 I2.121 J2.121
G3 X24.682 Y206.618 I-1.957 J2.274
G2 Y250.882 I29.963 J22.132
G3 X24.226 Y254.938 I-2.413 J1.782
G2 X24.062 Y259.332 I1.957 J2.274
X28.457 Y259.169 I2.121 J-2.121
G3 X32.513 Y258.713 I2.273 J1.957
G2 X49.107 Y265.586 I22.131 J-29.963
G3 X51.653 Y268.776 I-0.446 J2.967
G2 X54.644 Y272 I2.992 J0.224
X57.636 Y268.776 J-3
G3 X60.182 Y265.586 I2.992 J-0.224
G2 X76.776 Y258.713 I-5.537 J-36.836
G3 X80.832 Y259.169 I1.782 J2.413
G2 X85.227 Y259.332 I2.274 J-1.958
X85.063 Y254.938 I-2.121 J-2.121
G3 X84.607 Y250.882 I1.957 J-2.274
G2 X87.962 Y245.408 I-29.963 J-22.132
G3 X90.645 Y243.75 I2.683 J1.342
G1 X144.596
X152.894 Z13.71 F300
G3 X155.894 Y246.75 Z13.546 J3
G2 X158.033 Y248.745 Z13.431 I2
X159.875 Y246.472 Z13.317 I-0.139 J-1.995
G3 X162.02 Y243.172 Z13.167 I2.971 J-0.416
G2 X165.174 Y241.865 Z13.047 I-4.128 J-14.421
G3 X169.025 Y242.682 Z12.897 I1.456 J2.623
G2 X172.036 Y242.892 Z12.778 I1.597 J-1.204
X171.826 Y239.881 Z12.658 I-1.414 J-1.414
G3 X171.009 Y236.03 Z12.508 I1.806 J-2.395
G2 X172.316 Y232.876 Z12.389 I-13.114 J-7.282
G3 X175.616 Y230.731 Z12.239 I2.884 J0.826
G2 X177.894 Y228.75 Z12.119 I0.278 J-1.981
X175.616 Y226.769 Z12 I-2
G3 X172.316 Y224.624 I-0.416 J-2.971 F750
G2 X171.009 Y221.47 I-14.421 J4.128
G3 X171.826 Y217.619 I2.623 J-1.456
G2 X172.036 Y214.608 I-1.204 J-1.597
X169.025 Y214.818 I-1.414 J1.414
G3 X165.174 Y215.635 I-2.395 J-1.806
G2 X162.02 Y214.328 I-7.282 J13.114
G3 X159.875 Y211.028 I0.826 J-2.884
G2 X158.033 Y208.755 I-1.981 J-0.278
X155.894 Y210.75 I-0.139 J1.995
G3 X152.894 Y213.75 I-3
G1 X90.645
G3 X87.962 Y212.092 J-3
G2 X84.607 Y206.618 I-33.318 J16.658
G3 X85.063 Y202.563 I2.413 J-1.782
G2 X85.227 Y198.168 I-1.957 J-2.274
X80.832 Y198.331 I-2.121 J2.121
G3 X76.776 Y198.787 I-2.273 J-1.957
G2 X60.182 Y191.914 I-22.131 J29.963
G3 X57.636 Y188.723 I0.446 J-2.967
G2 X54.644 Y185.5 I-2.992 J-0.223
X51.653 Y188.723 J3
G3 X49.107 Y191.914 I-2.992 J0.224
G2 X32.513 Y198.787 I5.537 J36.836
G3 X28.457 Y198.331 I-1.782 J-2.413
G2 X24.062 Y198.168 I-2.274 J1.957
X24.226 Y202.562 I2.121 J2.121
G3 X24.682 Y206.618 I-1.957 J2.274
G2 Y250.882 I29.963 J22.132
G3 X24.226 Y254.938 I-2.413 J1.782
G2 X24.062 Y259.332 I1.957 J2.274
X28.457 Y259.169 I2.121 J-2.121
G3 X32.513 Y258.713 I2.273 J1.957
G2 X49.107 Y265.586 I22.131 J-29.963
G3 X51.653 Y268.776 I-0.446 J2.967
G2 X54.644 Y272 I2.992 J0.224
X57.636 Y268.776 J-3
G3 X60.182 Y265.586 I2.992 J-0.224
G2 X76.776 Y258.713 I-5.537 J-36.836
G3 X80.832 Y259.169 I1.782 J2.413
G2 X85.227 Y259.332 I2.274 J-1.958
X85.063 Y254.938 I-2.121 J-2.121
G3 X84.607 Y250.882 I1.957 J-2.274
G2 X87.962 Y245.408 I-29.963 J-22.132
G3 X90.645 Y243.75 I2.683 J1.342
G1 X152.894
G3 X155.894 Y246.75 J3
G2 X158.033 Y248.745 I2
X159.875 Y246.472 I-0.139 J-1.995
G3 X162.02 Y243.172 I2.971 J-0.416
G2 X165.174 Y241.865 I-4.128 J-14.421
G3 X169.025 Y242.682 I1.456 J2.623
G2 X172.036 Y242.892 I1.597 J-1.204
X171.826 Y239.881 I-1.414 J-1.414
G3 X171.009 Y236.03 I1.806 J-2.395
G2 X172.316 Y232.876 I-13.114 J-7.282
G3 X175.616 Y230.731 I2.884 J0.826
G2 X177.894 Y228.75 I0.278 J-1.981
X175.616 Y226.769 I-2
G3 X172.316 Y224.624 Z11.85 I-0.416 J-2.971 F300
G2 X171.009 Y221.47 Z11.731 I-14.421 J4.128
G3 X171.826 Y217.619 Z11.581 I2.623 J-1.456
G2 X172.036 Y214.608 Z11.461 I-1.204 J-1.597
X169.025 Y214.818 Z11.342 I-1.414 J1.414
G3 X165.174 Y215.635 Z11.192 I-2.395 J-1.806
G2 X162.02 Y214.328 Z11.072 I-7.282 J13.114
G3 X159.875 Y211.028 Z10.922 I0.826 J-2.884
G2 X158.033 Y208.755 Z10.808 I-1.981 J-0.278
X155.894 Y210.75 Z10.693 I-0.139 J1.995
G3 X152.894 Y213.75 Z10.529 I-3
G1 X137.754 Z10
X90.645 F750
G3 X87.962 Y212.092 J-3
G2 X84.607 Y206.618 I-33.318 J16.658
G3 X85.063 Y202.563 I2.413 J-1.782
G2 X85.227 Y198.168 I-1.957 J-2.274
X80.832 Y198.331 I-2.121 J2.121
G3 X76.776 Y198.787 I-2.273 J-1.957
G2 X60.182 Y191.914 I-22.131 J29.963
G3 X57.636 Y188.723 I0.446 J-2.967
G2 X54.644 Y185.5 I-2.992 J-0.223
X51.653 Y188.723 J3
G3 X49.107 Y191.914 I-2.992 J0.224
G2 X32.513 Y198.787 I5.537 J36.836
G3 X28.457 Y198.331 I-1.782 J-2.413
G2 X24.062 Y198.168 I-2.274 J1.957
X24.226 Y202.562 I2.121 J2.121
G3 X24.682 Y206.618 I-1.957 J2.274
G2 Y250.882 I29.963 J22.132
G3 X24.226 Y254.938 I-2.413 J1.782
G2 X24.062 Y259.332 I1.957 J2.274
X28.457 Y259.169 I2.121 J-2.121
G3 X32.513 Y258.713 I2.273 J1.957
G2 X49.107 Y265.586 I22.131 J-29.963
G3 X51.653 Y268.776 I-0.446 J2.967
G2 X54.644 Y272 I2.992 J0.224
X57.636 Y268.776 J-3
G3 X60.182 Y265.586 I2.992 J-0.224
G2 X76.776 Y258.713 I-5.537 J-36.836
G3 X80.832 Y259.169 I1.782 J2.413
G2 X85.227 Y259.332 I2.274 J-1.958
X85.063 Y254.938 I-2.121 J-2.121
G3 X84.607 Y250.882 I1.957 J-2.274
G2 X87.962 Y245.408 I-29.963 J-22.132
G3 X90.645 Y243.75 I2.683 J1.342
G1 X152.894
G3 X155.894 Y246.75 J3
G2 X158.033 Y248.745 I2
X159.875 Y246.472 I-0.139 J-1.995
G3 X162.02 Y243.172 I2.971 J-0.416
G2 X165.174 Y241.865 I-4.128 J-14.421
G3 X169.025 Y242.682 I1.456 J2.623
G2 X172.036 Y242.892 I1.597 J-1.204
X171.826 Y239.881 I-1.414 J-1.414
G3 X171.009 Y236.03 I1.806 J-2.395
G2 X172.316 Y232.876 I-13.114 J-7.282
G3 X175.616 Y230.731 I2.884 J0.826
G2 X177.894 Y228.75 I0.278 J-1.981
X175.616 Y226.769 I-2
G3 X172.316 Y224.624 I-0.416 J-2.971
G2 X171.009 Y221.47 I-14.421 J4.128
G3 X171.826 Y217.619 I2.623 J-1.456
G2 X172.036 Y214.608 I-1.204 J-1.597
X169.025 Y214.818 I-1.414 J1.414
G3 X165.174 Y215.635 I-2.395 J-1.806
G2 X162.02 Y214.328 I-7.282 J13.114
G3 X159.875 Y211.028 I0.826 J-2.884
G2 X158.033 Y208.755 I-1.981 J-0.278
X155.894 Y210.75 I-0.139 J1.995
G3 X152.894 Y213.75 I-3
G1 X137.754
X90.645 Z8.355 F300
G3 X87.962 Y212.092 Z8.239 J-3
G2 X84.607 Y206.618 Z8.014 I-33.318 J16.658
G3 X84.384 Y206.269 Z8 I2.413 J-1.782
X85.063 Y202.563 I2.636 J-1.433 F750
G2 X85.227 Y198.168 I-1.957 J-2.274
X80.832 Y198.331 I-2.121 J2.121
G3 X76.776 Y198.787 I-2.273 J-1.957
G2 X60.182 Y191.914 I-22.131 J29.963
G3 X57.636 Y188.723 I0.446 J-2.967
G2 X54.644 Y185.5 I-2.992 J-0.223
X51.653 Y188.723 J3
G3 X49.107 Y191.914 I-2.992 J0.224
G2 X32.513 Y198.787 I5.537 J36.836
G3 X28.457 Y198.331 I-1.782 J-2.413
G2 X24.062 Y198.168 I-2.274 J1.957
X24.226 Y202.562 I2.121 J2.121
G3 X24.682 Y206.618 I-1.957 J2.274
G2 Y250.882 I29.963 J22.132
G3 X24.226 Y254.938 I-2.413 J1.782
G2 X24.062 Y259.332 I1.957 J2.274
X28.457 Y259.169 I2.121 J-2.121
G3 X32.513 Y258.713 I2.273 J1.957
G2 X49.107 Y265.586 I22.131 J-29.963
G3 X51.653 Y268.776 I-0.446 J2.967
G2 X54.644 Y272 I2.992 J0.224
X57.636 Y268.776 J-3
G3 X60.182 Y265.586 I2.992 J-0.224
G2 X76.776 Y258.713 I-5.537 J-36.836
G3 X80.832 Y259.169 I1.782 J2.413
G2 X85.227 Y259.332 I2.274 J-1.958
X85.063 Y254.938 I-2.121 J-2.121
G3 X84.607 Y250.882 I1.957 J-2.274
G2 X87.962 Y245.408 I-29.963 J-22.132
G3 X90.645 Y243.75 I2.683 J1.342
G1 X152.894
G3 X155.894 Y246.75 J3
G2 X158.033 Y248.745 I2
X159.875 Y246.472 I-0.139 J-1.995
G3 X162.02 Y243.172 I2.971 J-0.416
G2 X165.174 Y241.865 I-4.128 J-14.421
G3 X169.025 Y242.682 I1.456 J2.623
G2 X172.036 Y242.892 I1.597 J-1.204
X171.826 Y239.881 I-1.414 J-1.414
G3 X171.009 Y236.03 I1.806 J-2.395
G2 X172.316 Y232.876 I-13.114 J-7.282
G3 X175.616 Y230.731 I2.884 J0.826
G2 X177.894 Y228.75 I0.278 J-1.981
X175.616 Y226.769 I-2
G3 X172.316 Y224.624 I-0.416 J-2.971
G2 X171.009 Y221.47 I-14.421 J4.128
G3 X171.826 Y217.619 I2.623 J-1.456
G2 X172.036 Y214.608 I-1.204 J-1.597
X169.025 Y214.818 I-1.414 J1.414
G3 X165.174 Y215.635 I-2.395 J-1.806
G2 X162.02 Y214.328 I-7.282 J13.114
G3 X159.875 Y211.028 I0.826 J-2.884
G2 X158.033 Y208.755 I-1.981 J-0.278
X155.894 Y210.75 I-0.139 J1.995
G3 X152.894 Y213.75 I-3
G1 X90.645
G3 X87.962 Y212.092 J-3
G2 X84.607 Y206.618 I-33.318 J16.658
G3 X84.384 Y206.269 I2.413 J-1.782
X85.063 Y202.563 Z7.858 I2.636 J-1.433 F300
G2 X85.227 Y198.168 Z7.685 I-1.957 J-2.274
X80.832 Y198.331 Z7.513 I-2.121 J2.121
G3 X76.776 Y198.787 Z7.356 I-2.273 J-1.957
G2 X60.182 Y191.914 Z6.723 I-22.131 J29.963
G3 X57.636 Y188.723 Z6.566 I0.446 J-2.967
G2 X54.644 Y185.5 Z6.394 I-2.992 J-0.223
X51.653 Y188.723 Z6.221 J3
G3 X49.107 Y191.914 Z6.065 I-2.992 J0.224
G2 X47.287 Y192.234 Z6 I5.537 J36.836
X32.513 Y198.787 I7.357 J36.516 F750
G3 X28.457 Y198.331 I-1.782 J-2.413
G2 X24.062 Y198.168 I-2.274 J1.957
X24.226 Y202.562 I2.121 J2.121
G3 X24.682 Y206.618 I-1.957 J2.274
G2 Y250.882 I29.963 J22.132
G3 X24.226 Y254.938 I-2.413 J1.782
G2 X24.062 Y259.332 I1.957 J2.274
X28.457 Y259.169 I2.121 J-2.121
G3 X32.513 Y258.713 I2.273 J1.957
G2 X49.107 Y265.586 I22.131 J-29.963
G3 X51.653 Y268.776 I-0.446 J2.967
G2 X54.644 Y272 I2.992 J0.224
X57.636 Y268.776 J-3
G3 X60.182 Y265.586 I2.992 J-0.224
G2 X76.776 Y258.713 I-5.537 J-36.836
G3 X80.832 Y259.169 I1.782 J2.413
G2 X85.227 Y259.332 I2.274 J-1.958
X85.063 Y254.938 I-2.121 J-2.121
G3 X84.607 Y250.882 I1.957 J-2.274
G2 X87.962 Y245.408 I-29.963 J-22.132
G3 X90.645 Y243.75 I2.683 J1.342
G1 X152.894
G3 X155.894 Y246.75 J3
G2 X158.033 Y248.745 I2
X159.875 Y246.472 I-0.139 J-1.995
G3 X162.02 Y243.172 I2.971 J-0.416
G2 X165.174 Y241.865 I-4.128 J-14.421
G3 X169.025 Y242.682 I1.456 J2.623
G2 X172.036 Y242.892 I1.597 J-1.204
X171.826 Y239.881 I-1.414 J-1.414
G3 X171.009 Y236.03 I1.806 J-2.395
G2 X172.316 Y232.876 I-13.114 J-7.282
G3 X175.616 Y230.731 I2.884 J0.826
G2 X177.894 Y228.75 I0.278 J-1.981
X175.616 Y226.769 I-2
G3 X172.316 Y224.624 I-0.416 J-2.971
G2 X171.009 Y221.47 I-14.421 J4.128
G3 X171.826 Y217.619 I2.623 J-1.456
G2 X172.036 Y214.608 I-1.204 J-1.597
X169.025 Y214.818 I-1.414 J1.414
G3 X165.174 Y215.635 I-2.395 J-1.806
G2 X162.02 Y214.328 I-7.282 J13.114
G3 X159.875 Y211.028 I0.826 J-2.884
G2 X158.033 Y208.755 I-1.981 J-0.278
X155.894 Y210.75 I-0.139 J1.995
G3 X152.894 Y213.75 I-3
G1 X90.645
G3 X87.962 Y212.092 J-3
G2 X84.607 Y206.618 I-33.318 J16.658
G3 X85.063 Y202.563 I2.413 J-1.782
G2 X85.227 Y198.168 I-1.957 J-2.274
X80.832 Y198.331 I-2.121 J2.121
G3 X76.776 Y198.787 I-2.273 J-1.957
G2 X60.182 Y191.914 I-22.131 J29.963
G3 X57.636 Y188.723 I0.446 J-2.967
G2 X54.644 Y185.5 I-2.992 J-0.223
X51.653 Y188.723 J3
G3 X49.107 Y191.914 I-2.992 J0.224
G2 X47.287 Y192.234 I5.537 J36.836
X32.513 Y198.787 Z5.431 I7.357 J36.516 F300
G3 X28.457 Y198.331 Z5.274 I-1.782 J-2.413
G2 X24.062 Y198.168 Z5.102 I-2.274 J1.957
X24.226 Y202.562 Z4.93 I2.121 J2.121
G3 X24.682 Y206.618 Z4.773 I-1.957 J2.274
G2 X17.427 Y227.183 Z4 I29.963 J22.132
X24.682 Y250.882 I37.217 J1.567 F750
G3 X24.226 Y254.938 I-2.413 J1.782
G2 X24.062 Y259.332 I1.957 J2.274
X28.457 Y259.169 I2.121 J-2.121
G3 X32.513 Y258.713 I2.273 J1.957
G2 X49.107 Y265.586 I22.131 J-29.963
G3 X51.653 Y268.776 I-0.446 J2.967
G2 X54.644 Y272 I2.992 J0.224
X57.636 Y268.776 J-3
G3 X60.182 Y265.586 I2.992 J-0.224
G2 X76.776 Y258.713 I-5.537 J-36.836
G3 X80.832 Y259.169 I1.782 J2.413
G2 X85.227 Y259.332 I2.274 J-1.958
X85.063 Y254.938 I-2.121 J-2.121
G3 X84.607 Y250.882 I1.957 J-2.274
G2 X87.962 Y245.408 I-29.963 J-22.132
G3 X90.645 Y243.75 I2.683 J1.342
G1 X152.894
G3 X155.894 Y246.75 J3
G2 X158.033 Y248.745 I2
X159.875 Y246.472 I-0.139 J-1.995
G3 X162.02 Y243.172 I2.971 J-0.416
G2 X165.174 Y241.865 I-4.128 J-14.421
G3 X169.025 Y242.682 I1.456 J2.623
G2 X172.036 Y242.892 I1.597 J-1.204
X171.826 Y239.881 I-1.414 J-1.414
G3 X171.009 Y236.03 I1.806 J-2.395
G2 X172.316 Y232.876 I-13.114 J-7.282
G3 X175.616 Y230.731 I2.884 J0.826
G2 X177.894 Y228.75 I0.278 J-1.981
X175.616 Y226.769 I-2
G3 X172.316 Y224.624 I-0.416 J-2.971
G2 X171.009 Y221.47 I-14.421 J4.128
G3 X171.826 Y217.619 I2.623 J-1.456
G2 X172.036 Y214.608 I-1.204 J-1.597
X169.025 Y214.818 I-1.414 J1.414
G3 X165.174 Y215.635 I-2.395 J-1.806
G2 X162.02 Y214.328 I-7.282 J13.114
G3 X159.875 Y211.028 I0.826 J-2.884
G2 X158.033 Y208.755 I-1.981 J-0.278
X155.894 Y210.75 I-0.139 J1.995
G3 X152.894 Y213.75 I-3
G1 X90.645
G3 X87.962 Y212.092 J-3
G2 X84.607 Y206.618 I-33.318 J16.658
G3 X85.063 Y202.563 I2.413 J-1.782
G2 X85.227 Y198.168 I-1.957 J-2.274
X80.832 Y198.331 I-2.121 J2.121
G3 X76.776 Y198.787 I-2.273 J-1.957
G2 X60.182 Y191.914 I-22.131 J29.963
G3 X57.636 Y188.723 I0.446 J-2.967
G2 X54.644 Y185.5 I-2.992 J-0.223
X51.653 Y188.723 J3
G3 X49.107 Y191.914 I-2.992 J0.224
G2 X32.513 Y198.787 I5.537 J36.836
G3 X28.457 Y198.331 I-1.782 J-2.413
G2 X24.062 Y198.168 I-2.274 J1.957
X24.226 Y202.562 I2.121 J2.121
G3 X24.682 Y206.618 I-1.957 J2.274
G2 X17.427 Y227.183 I29.963 J22.132
X24.682 Y250.882 Z3.118 I37.217 J1.567 F300
G3 X24.226 Y254.938 Z2.961 I-2.413 J1.782
G2 X24.062 Y259.332 Z2.789 I1.957 J2.274
X28.457 Y259.169 Z2.616 I2.121 J-2.121
G3 X32.513 Y258.713 Z2.459 I2.273 J1.957
G2 X44.244 Y264.519 Z2 I22.131 J-29.963
X49.107 Y265.586 I10.4 J-35.769 F750
G3 X51.653 Y268.776 I-0.446 J2.967
G2 X54.644 Y272 I2.992 J0.224
X57.636 Y268.776 J-3
G3 X60.182 Y265.586 I2.992 J-0.224
G2 X76.776 Y258.713 I-5.537 J-36.836
G3 X80.832 Y259.169 I1.782 J2.413
G2 X85.227 Y259.332 I2.274 J-1.958
X85.063 Y254.938 I-2.121 J-2.121
G3 X84.607 Y250.882 I1.957 J-2.274
G2 X87.962 Y245.408 I-29.963 J-22.132
G3 X90.645 Y243.75 I2.683 J1.342
G1 X152.894
G3 X155.894 Y246.75 J3
G2 X158.033 Y248.745 I2
X159.875 Y246.472 I-0.139 J-1.995
G3 X162.02 Y243.172 I2.971 J-0.416
G2 X165.174 Y241.865 I-4.128 J-14.421
G3 X169.025 Y242.682 I1.456 J2.623
G2 X172.036 Y242.892 I1.597 J-1.204
X171.826 Y239.881 I-1.414 J-1.414
G3 X171.009 Y236.03 I1.806 J-2.395
G2 X172.316 Y232.876 I-13.114 J-7.282
G3 X175.616 Y230.731 I2.884 J0.826
G2 X177.894 Y228.75 I0.278 J-1.981
X175.616 Y226.769 I-2
G3 X172.316 Y224.624 I-0.416 J-2.971
G2 X171.009 Y221.47 I-14.421 J4.128
G3 X171.826 Y217.619 I2.623 J-1.456
G2 X172.036 Y214.608 I-1.204 J-1.597
X169.025 Y214.818 I-1.414 J1.414
G3 X165.174 Y215.635 I-2.395 J-1.806
G2 X162.02 Y214.328 I-7.282 J13.114
G3 X159.875 Y211.028 I0.826 J-2.884
G2 X158.033 Y208.755 I-1.981 J-0.278
X155.894 Y210.75 I-0.139 J1.995
G3 X152.894 Y213.75 I-3
G1 X90.645
G3 X87.962 Y212.092 J-3
G2 X84.607 Y206.618 I-33.318 J16.658
G3 X85.063 Y202.563 I2.413 J-1.782
G2 X85.227 Y198.168 I-1.957 J-2.274
X80.832 Y198.331 I-2.121 J2.121
G3 X76.776 Y198.787 I-2.273 J-1.957
G2 X60.182 Y191.914 I-22.131 J29.963
G3 X57.636 Y188.723 I0.446 J-2.967
G2 X54.644 Y185.5 I-2.992 J-0.223
X51.653 Y188.723 J3
G3 X49.107 Y191.914 I-2.992 J0.224
G2 X32.513 Y198.787 I5.537 J36.836
G3 X28.457 Y198.331 I-1.782 J-2.413
G2 X24.062 Y198.168 I-2.274 J1.957
X24.226 Y202.562 I2.121 J2.121
G3 X24.682 Y206.618 I-1.957 J2.274
G2 Y250.882 I29.963 J22.132
G3 X24.226 Y254.938 I-2.413 J1.782
G2 X24.062 Y259.332 I1.957 J2.274
X28.457 Y259.169 I2.121 J-2.121
G3 X32.513 Y258.713 I2.273 J1.957
G2 X44.244 Y264.519 I22.131 J-29.963
X49.107 Y265.586 Z1.826 I10.4 J-35.769 F300
G3 X51.653 Y268.776 Z1.669 I-0.446 J2.967
G2 X54.644 Y272 Z1.497 I2.992 J0.224
X57.636 Y268.776 Z1.325 J-3
G3 X60.182 Y265.586 Z1.168 I2.992 J-0.224
G2 X76.776 Y258.713 Z0.534 I-5.537 J-36.836
G3 X80.832 Y259.169 Z0.378 I1.782 J2.413
G2 X85.227 Y259.332 Z0.205 I2.274 J-1.958
X85.063 Y254.938 Z0.033 I-2.121 J-2.121
G3 X84.457 Y254.224 Z0 I1.957 J-2.274
X84.607 Y250.882 I2.563 J-1.56 F750
G2 X87.962 Y245.408 I-29.963 J-22.132
G3 X90.645 Y243.75 I2.683 J1.342
G1 X116.77
Z1.5
X126.77
Z0 F30
X152.894 F750
G3 X155.894 Y246.75 J3
G2 X158.033 Y248.745 I2
X159.875 Y246.472 I-0.139 J-1.995
G3 X162.02 Y243.172 I2.971 J-0.416
G2 X165.174 Y241.865 I-4.128 J-14.421
G3 X169.025 Y242.682 I1.456 J2.623
G2 X172.036 Y242.892 I1.597 J-1.204
X171.826 Y239.881 I-1.414 J-1.414
G3 X171.009 Y236.03 I1.806 J-2.395
G2 X172.316 Y232.876 I-13.114 J-7.282
G3 X175.616 Y230.731 I2.884 J0.826
G2 X177.894 Y228.75 I0.278 J-1.981
X175.616 Y226.769 I-2
G3 X172.316 Y224.624 I-0.416 J-2.971
G2 X171.009 Y221.47 I-14.421 J4.128
G3 X171.826 Y217.619 I2.623 J-1.456
G2 X172.036 Y214.608 I-1.204 J-1.597
X169.025 Y214.818 I-1.414 J1.414
G3 X165.174 Y215.635 I-2.395 J-1.806
G2 X162.02 Y214.328 I-7.282 J13.114
G3 X159.875 Y211.028 I0.826 J-2.884
G2 X158.033 Y208.755 I-1.981 J-0.278
X155.894 Y210.75 I-0.139 J1.995
G3 X152.894 Y213.75 I-3
G1 X126.77
Z1.5
X116.77
Z0 F30
X90.645 F750
G3 X87.962 Y212.092 J-3
G2 X84.607 Y206.618 I-33.318 J16.658
G3 X85.063 Y202.563 I2.413 J-1.782
G2 X85.227 Y198.168 I-1.957 J-2.274
X80.832 Y198.331 I-2.121 J2.121
G3 X76.776 Y198.787 I-2.273 J-1.957
G2 X60.182 Y191.914 I-22.131 J29.963
G3 X57.636 Y188.723 I0.446 J-2.967
G2 X54.644 Y185.5 I-2.992 J-0.223
X51.653 Y188.723 J3
G3 X49.107 Y191.914 I-2.992 J0.224
G2 X32.513 Y198.787 I5.537 J36.836
G3 X28.457 Y198.331 I-1.782 J-2.413
G2 X24.062 Y198.168 I-2.274 J1.957
X24.226 Y202.562 I2.121 J2.121
G3 X24.682 Y206.618 I-1.957 J2.274
G2 X17.731 Y223.75 I29.963 J22.132
G1 Z1.5
G2 Y233.75 I36.913 J5
G1 Z0 F30
G2 X24.682 Y250.882 I36.913 J-5 F750
G3 X24.226 Y254.938 I-2.413 J1.782
G2 X24.062 Y259.332 I1.957 J2.274
X28.457 Y259.169 I2.121 J-2.121
G3 X32.513 Y258.713 I2.273 J1.957
G2 X49.107 Y265.586 I22.131 J-29.963
G3 X51.653 Y268.776 I-0.446 J2.967
G2 X54.644 Y272 I2.992 J0.224
X57.636 Y268.776 J-3
G3 X60.182 Y265.586 I2.992 J-0.224
G2 X76.776 Y258.713 I-5.537 J-36.836
G3 X80.832 Y259.169 I1.782 J2.413
G2 X85.227 Y259.332 I2.274 J-1.958
X85.063 Y254.938 I-2.121 J-2.121
G3 X84.607 Y250.882 I1.957 J-2.274
G2 X87.962 Y245.408 I-29.963 J-22.132
G3 X90.645 Y243.75 I2.683 J1.342
G1 X116.77
Z1.5
X126.77
Z0 F30
X152.894 F750
G3 X155.894 Y246.75 J3
G2 X158.033 Y248.745 I2
X159.875 Y246.472 I-0.139 J-1.995
G3 X162.02 Y243.172 I2.971 J-0.416
G2 X165.174 Y241.865 I-4.128 J-14.421
G3 X169.025 Y242.682 I1.456 J2.623
G2 X172.036 Y242.892 I1.597 J-1.204
X171.826 Y239.881 I-1.414 J-1.414
G3 X171.009 Y236.03 I1.806 J-2.395
G2 X172.316 Y232.876 I-13.114 J-7.282
G3 X175.616 Y230.731 I2.884 J0.826
G2 X177.894 Y228.75 I0.278 J-1.981
X175.616 Y226.769 I-2
G3 X172.316 Y224.624 I-0.416 J-2.971
G2 X171.009 Y221.47 I-14.421 J4.128
G3 X171.826 Y217.619 I2.623 J-1.456
G2 X172.036 Y214.608 I-1.204 J-1.597
X169.025 Y214.818 I-1.414 J1.414
G3 X165.174 Y215.635 I-2.395 J-1.806
G2 X162.02 Y214.328 I-7.282 J13.114
G3 X159.875 Y211.028 I0.826 J-2.884
G2 X158.033 Y208.755 I-1.981 J-0.278
X155.894 Y210.75 I-0.139 J1.995
G3 X152.894 Y213.75 I-3
G1 X126.77
Z1.5
X116.77
Z0 F30
X90.645 F750
G3 X87.962 Y212.092 J-3
G2 X84.607 Y206.618 I-33.318 J16.658
G3 X85.063 Y202.563 I2.413 J-1.782
G2 X85.227 Y198.168 I-1.957 J-2.274
X80.832 Y198.331 I-2.121 J2.121
G3 X76.776 Y198.787 I-2.273 J-1.957
G2 X60.182 Y191.914 I-22.131 J29.963
G3 X57.636 Y188.723 I0.446 J-2.967
G2 X54.644 Y185.5 I-2.992 J-0.223
X51.653 Y188.723 J3
G3 X49.107 Y191.914 I-2.992 J0.224
G2 X32.513 Y198.787 I5.537 J36.836
G3 X28.457 Y198.331 I-1.782 J-2.413
G2 X24.062 Y198.168 I-2.274 J1.957
X24.226 Y202.562 I2.121 J2.121
G3 X24.682 Y206.618 I-1.957 J2.274
G2 X17.731 Y223.75 I29.963 J22.132
G1 Z1.5
G2 Y233.75 I36.913 J5
G1 Z0 F30
G2 X24.682 Y250.882 I36.913 J-5 F750
G3 X24.226 Y254.938 I-2.413 J1.782
G2 X24.062 Y259.332 I1.957 J2.274
X28.457 Y259.169 I2.121 J-2.121
G3 X32.513 Y258.713 I2.273 J1.957
G2 X49.107 Y265.586 I22.131 J-29.963
G3 X51.653 Y268.776 I-0.446 J2.967
G2 X54.644 Y272 I2.992 J0.224
X57.636 Y268.776 J-3
G3 X60.182 Y265.586 I2.992 J-0.224
G2 X76.776 Y258.713 I-5.537 J-36.836
G3 X80.832 Y259.169 I1.782 J2.413
G2 X85.227 Y259.332 I2.274 J-1.958
X85.063 Y254.938 I-2.121 J-2.121
G3 X84.457 Y254.224 I1.957 J-2.274
G2 X83.633 Y254.023 I-0.513 J0.312 F300
G1 X83.12 Y254.335
X83.04 Y254.384 Z0.007
X82.962 Y254.431 Z0.029
X82.887 Y254.477 Z0.065
X82.819 Y254.518 Z0.115
X82.758 Y254.556 Z0.176
X82.706 Y254.587 Z0.247
X82.663 Y254.613 Z0.328
X82.633 Y254.632 Z0.415
X82.614 Y254.643 Z0.506
X82.608 Y254.647 Z0.6
G0 Z23
X33.401 Y325.689
G1 Z21.1 F300
X33.398 Y325.682 Z21.006 F30
X33.391 Y325.661 Z20.915
X33.38 Y325.626 Z20.828
X33.365 Y325.58 Z20.747
X33.346 Y325.522 Z20.676
X33.324 Y325.454 Z20.615
X33.299 Y325.377 Z20.565
X33.272 Y325.295 Z20.529
X33.243 Y325.208 Z20.507
X33.214 Y325.118 Z20.5
X33.027 Y324.548 F300
G2 X32.27 Y324.165 I-0.57 J0.187
G3 X29.062 Y323.271 Z20.377 I-0.934 J-2.851
G2 X24.667 Y323.107 Z20.204 I-2.274 J1.957
X24.831 Y327.502 Z20.032 I2.121 J2.121
G3 X25.287 Y331.558 Z19.875 I-1.957 J2.274
G2 X18.414 Y348.152 Z19.242 I29.962 J22.132
G3 X15.224 Y350.698 Z19.085 I-2.967 J-0.446
G2 X12 Y353.69 Z18.913 I-0.224 J2.992
X15.224 Y356.681 Z18.74 I3
G3 X18.414 Y359.227 Z18.583 I0.224 J2.992
G2 X25.287 Y375.822 Z17.95 I36.836 J-5.537
G3 X24.832 Y379.878 Z17.793 I-2.413 J1.782
G2 X24.668 Y384.272 Z17.621 I1.957 J2.273
X29.062 Y384.108 Z17.449 I2.121 J-2.121
G3 X33.118 Y383.652 Z17.292 I2.274 J1.957
G2 X49.713 Y390.525 Z16.658 I22.131 J-29.962
G3 X52.258 Y393.716 Z16.502 I-0.446 J2.967
G2 X55.25 Y396.94 Z16.329 I2.992 J0.224
X58.242 Y393.716 Z16.157 J-3
G3 X60.787 Y390.525 Z16 I2.992 J-0.224
G2 X77.382 Y383.652 I-5.537 J-36.836 F750
G3 X81.438 Y384.108 I1.782 J2.413
G2 X85.832 Y384.272 I2.273 J-1.957
X85.668 Y379.878 I-2.121 J-2.121
G3 X85.213 Y375.822 I1.957 J-2.273
G2 X88.568 Y370.348 I-29.963 J-22.132
G3 X91.251 Y368.69 I2.683 J1.342
G1 X148.5
G3 X151.5 Y371.69 J3
G2 X153.64 Y373.685 I2
X155.481 Y371.412 I-0.139 J-1.995
G3 X157.627 Y368.111 I2.971 J-0.417
G2 X160.78 Y366.805 I-4.125 J-14.421
G3 X164.631 Y367.621 I1.456 J2.623
G2 X167.642 Y367.831 I1.597 J-1.204
X167.432 Y364.82 I-1.414 J-1.414
G3 X166.615 Y360.969 I1.806 J-2.395
G2 X167.922 Y357.815 I-13.114 J-7.282
G3 X171.222 Y355.67 I2.884 J0.826
G2 X173.5 Y353.69 I0.278 J-1.981
X171.222 Y351.709 I-2
G3 X167.922 Y349.564 I-0.416 J-2.971
G2 X166.615 Y346.41 I-14.421 J4.128
G3 X167.432 Y342.559 I2.623 J-1.456
G2 X167.642 Y339.548 I-1.204 J-1.597
X164.631 Y339.758 I-1.414 J1.414
G3 X160.78 Y340.574 I-2.395 J-1.807
G2 X157.627 Y339.268 I-7.279 J13.116
G3 X155.481 Y335.968 I0.825 J-2.884
G2 X153.639 Y333.695 I-1.981 J-0.278
X151.5 Y335.69 I-0.139 J1.995
G3 X148.5 Y338.69 I-3
G1 X91.251
G3 X88.568 Y337.032 J-3
G2 X85.213 Y331.558 I-33.318 J16.658
G3 X85.669 Y327.502 I2.413 J-1.782
G2 X85.833 Y323.107 I-1.957 J-2.274
X81.438 Y323.271 I-2.121 J2.121
G3 X77.382 Y323.727 I-2.274 J-1.957
G2 X60.787 Y316.854 I-22.131 J29.963
G3 X58.242 Y313.664 I0.446 J-2.967
G2 X55.25 Y310.44 I-2.992 J-0.224
X52.258 Y313.664 J3
G3 X49.713 Y316.854 I-2.992 J0.224
G2 X33.118 Y323.727 I5.537 J36.836
G3 X29.062 Y323.271 I-1.782 J-2.413
G2 X24.667 Y323.107 I-2.274 J1.957
X24.831 Y327.502 I2.121 J2.121
G3 X25.287 Y331.558 I-1.957 J2.274
G2 X18.414 Y348.152 I29.962 J22.132
G3 X15.224 Y350.698 I-2.967 J-0.446
G2 X12 Y353.69 I-0.224 J2.992
X15.224 Y356.681 I3
G3 X18.414 Y359.227 I0.224 J2.992
G2 X25.287 Y375.822 I36.836 J-5.537
G3 X24.832 Y379.878 I-2.413 J1.782
G2 X24.668 Y384.272 I1.957 J2.273
X29.062 Y384.108 I2.121 J-2.121
G3 X33.118 Y383.652 I2.274 J1.957
G2 X49.713 Y390.525 I22.131 J-29.962
G3 X52.258 Y393.716 I-0.446 J2.967
G2 X55.25 Y396.94 I2.992 J0.224
X58.242 Y393.716 J-3
G3 X60.787 Y390.525 I2.992 J-0.224
G2 X77.382 Y383.652 Z15.367 I-5.537 J-36.836 F300
G3 X81.438 Y384.108 Z15.21 I1.782 J2.413
G2 X85.832 Y384.272 Z15.037 I2.273 J-1.957
X85.668 Y379.878 Z14.865 I-2.121 J-2.121
G3 X85.213 Y375.822 Z14.708 I1.957 J-2.273
G2 X88.568 Y370.348 Z14.484 I-29.963 J-22.132
G3 X91.251 Y368.69 Z14.368 I2.683 J1.342
G1 X101.785 Z14
X148.5 F750
G3 X151.5 Y371.69 J3
G2 X153.64 Y373.685 I2
X155.481 Y371.412 I-0.139 J-1.995
G3 X157.627 Y368.111 I2.971 J-0.417
G2 X160.78 Y366.805 I-4.125 J-14.421
G3 X164.631 Y367.621 I1.456 J2.623
G2 X167.642 Y367.831 I1.597 J-1.204
X167.432 Y364.82 I-1.414 J-1.414
G3 X166.615 Y360.969 I1.806 J-2.395
G2 X167.922 Y357.815 I-13.114 J-7.282
G3 X171.222 Y355.67 I2.884 J0.826
G2 X173.5 Y353.69 I0.278 J-1.981
X171.222 Y351.709 I-2
G3 X167.922 Y349.564 I-0.416 J-2.971
G2 X166.615 Y346.41 I-14.421 J4.128
G3 X167.432 Y342.559 I2.623 J-1.456
G2 X167.642 Y339.548 I-1.204 J-1.597
X164.631 Y339.758 I-1.414 J1.414
G3 X160.78 Y340.574 I-2.395 J-1.807
G2 X157.627 Y339.268 I-7.279 J13.116
G3 X155.481 Y335.968 I0.825 J-2.884
G2 X153.639 Y333.695 I-1.981 J-0.278
X151.5 Y335.69 I-0.139 J1.995
G3 X148.5 Y338.69 I-3
G1 X91.251
G3 X88.568 Y337.032 J-3
G2 X85.213 Y331.558 I-33.318 J16.658
G3 X85.669 Y327.502 I2.413 J-1.782
G2 X85.833 Y323.107 I-1.957 J-2.274
X81.438 Y323.271 I-2.121 J2.121
G3 X77.382 Y323.727 I-2.274 J-1.957
G2 X60.787 Y316.854 I-22.131 J29.963
G3 X58.242 Y313.664 I0.446 J-2.967
G2 X55.25 Y310.44 I-2.992 J-0.224
X52.258 Y313.664 J3
G3 X49.713 Y316.854 I-2.992 J0.224
G2 X33.118 Y323.727 I5.537 J36.836
G3 X29.062 Y323.271 I-1.782 J-2.413
G2 X24.667 Y323.107 I-2.274 J1.957
X24.831 Y327.502 I2.121 J2.121
G3 X25.287 Y331.558 I-1.957 J2.274
G2 X18.414 Y348.152 I29.962 J22.132
G3 X15.224 Y350.698 I-2.967 J-0.446
G2 X12 Y353.69 I-0.224 J2.992
X15.224 Y356.681 I3
G3 X18.414 Y359.227 I0.224 J2.992
G2 X25.287 Y375.822 I36.836 J-5.537
G3 X24.832 Y379.878 I-2.413 J1.782
G2 X24.668 Y384.272 I1.957 J2.273
X29.062 Y384.108 I2.121 J-2.121
G3 X33.118 Y383.652 I2.274 J1.957
G2 X49.713 Y390.525 I22.131 J-29.962
G3 X52.258 Y393.716 I-0.446 J2.967
G2 X55.25 Y396.94 I2.992 J0.224
X58.242 Y393.716 J-3
G3 X60.787 Y390.525 I2.992 J-0.224
G2 X77.382 Y383.652 I-5.537 J-36.836
G3 X81.438 Y384.108 I1.782 J2.413
G2 X85.832 Y384.272 I2.273 J-1.957
X85.668 Y379.878 I-2.121 J-2.121
G3 X85.213 Y375.822 I1.957 J-2.273
G2 X88.568 Y370.348 I-29.963 J-22.132
G3 X91.251 Y368.69 I2.683 J1.342
G1 X101.785
X148.5 Z12.369 F300
G3 X151.5 Y371.69 Z12.204 J3
G2 X153.64 Y373.685 Z12.09 I2
X155.453 Y372.125 Z12 I-0.139 J-1.995
X155.481 Y371.412 I-1.952 J-0.435 F750
G3 X157.627 Y368.111 I2.971 J-0.417
G2 X160.78 Y366.805 I-4.125 J-14.421
G3 X164.631 Y367.621 I1.456 J2.623
G2 X167.642 Y367.831 I1.597 J-1.204
X167.432 Y364.82 I-1.414 J-1.414
G3 X166.615 Y360.969 I1.806 J-2.395
G2 X167.922 Y357.815 I-13.114 J-7.282
G3 X171.222 Y355.67 I2.884 J0.826
G2 X173.5 Y353.69 I0.278 J-1.981
X171.222 Y351.709 I-2
G3 X167.922 Y349.564 I-0.416 J-2.971
G2 X166.615 Y346.41 I-14.421 J4.128
G3 X167.432 Y342.559 I2.623 J-1.456
G2 X167.642 Y339.548 I-1.204 J-1.597
X164.631 Y339.758 I-1.414 J1.414
G3 X160.78 Y340.574 I-2.395 J-1.807
G2 X157.627 Y339.268 I-7.279 J13.116
G3 X155.481 Y335.968 I0.825 J-2.884
G2 X153.639 Y333.695 I-1.981 J-0.278
X151.5 Y335.69 I-0.139 J1.995
G3 X148.5 Y338.69 I-3
G1 X91.251
G3 X88.568 Y337.032 J-3
G2 X85.213 Y331.558 I-33.318 J16.658
G3 X85.669 Y327.502 I2.413 J-1.782
G2 X85.833 Y323.107 I-1.957 J-2.274
X81.438 Y323.271 I-2.121 J2.121
G3 X77.382 Y323.727 I-2.274 J-1.957
G2 X60.787 Y316.854 I-22.131 J29.963
G3 X58.242 Y313.664 I0.446 J-2.967
G2 X55.25 Y310.44 I-2.992 J-0.224
X52.258 Y313.664 J3
G3 X49.713 Y316.854 I-2.992 J0.224
G2 X33.118 Y323.727 I5.537 J36.836
G3 X29.062 Y323.271 I-1.782 J-2.413
G2 X24.667 Y323.107 I-2.274 J1.957
X24.831 Y327.502 I2.121 J2.121
G3 X25.287 Y331.558 I-1.957 J2.274
G2 X18.414 Y348.152 I29.962 J22.132
G3 X15.224 Y350.698 I-2.967 J-0.446
G2 X12 Y353.69 I-0.224 J2.992
X15.224 Y356.681 I3
G3 X18.414 Y359.227 I0.224 J2.992
G2 X25.287 Y375.822 I36.836 J-5.537
G3 X24.832 Y379.878 I-2.413 J1.782
G2 X24.668 Y384.272 I1.957 J2.273
X29.062 Y384.108 I2.121 J-2.121
G3 X33.118 Y383.652 I2.274 J1.957
G2 X49.713 Y390.525 I22.131 J-29.962
G3 X52.258 Y393.716 I-0.446 J2.967
G2 X55.25 Y396.94 I2.992 J0.224
X58.242 Y393.716 J-3
G3 X60.787 Y390.525 I2.992 J-0.224
G2 X77.382 Y383.652 I-5.537 J-36.836
G3 X81.438 Y384.108 I1.782 J2.413
G2 X85.832 Y384.272 I2.273 J-1.957
X85.668 Y379.878 I-2.121 J-2.121
G3 X85.213 Y375.822 I1.957 J-2.273
G2 X88.568 Y370.348 I-29.963 J-22.132
G3 X91.251 Y368.69 I2.683 J1.342
G1 X148.5
G3 X151.5 Y371.69 J3
G2 X155.453 Y372.125 I2
X155.481 Y371.412 Z11.975 I-1.952 J-0.435 F300
G3 X157.627 Y368.111 Z11.825 I2.971 J-0.417
G2 X160.78 Y366.805 Z11.706 I-4.125 J-14.421
G3 X164.631 Y367.621 Z11.556 I1.456 J2.623
G2 X167.642 Y367.831 Z11.436 I1.597 J-1.204
X167.432 Y364.82 Z11.317 I-1.414 J-1.414
G3 X166.615 Y360.969 Z11.167 I1.806 J-2.395
G2 X167.922 Y357.815 Z11.047 I-13.114 J-7.282
G3 X171.222 Y355.67 Z10.897 I2.884 J0.826
G2 X173.5 Y353.69 Z10.778 I0.278 J-1.981
X171.222 Y351.709 Z10.658 I-2
G3 X167.922 Y349.564 Z10.509 I-0.416 J-2.971
G2 X166.615 Y346.41 Z10.389 I-14.421 J4.128
G3 X167.432 Y342.559 Z10.239 I2.623 J-1.456
G2 X167.642 Y339.548 Z10.12 I-1.204 J-1.597
X164.631 Y339.758 Z10 I-1.414 J1.414
G3 X160.78 Y340.574 I-2.395 J-1.807 F750
G2 X157.627 Y339.268 I-7.279 J13.116
G3 X155.481 Y335.968 I0.825 J-2.884
G2 X153.639 Y333.695 I-1.981 J-0.278
X151.5 Y335.69 I-0.139 J1.995
G3 X148.5 Y338.69 I-3
G1 X91.251
G3 X88.568 Y337.032 J-3
G2 X85.213 Y331.558 I-33.318 J16.658
G3 X85.669 Y327.502 I2.413 J-1.782
G2 X85.833 Y323.107 I-1.957 J-2.274
X81.438 Y323.271 I-2.121 J2.121
G3 X77.382 Y323.727 I-2.274 J-1.957
G2 X60.787 Y316.854 I-22.131 J29.963
G3 X58.242 Y313.664 I0.446 J-2.967
G2 X55.25 Y310.44 I-2.992 J-0.224
X52.258 Y313.664 J3
G3 X49.713 Y316.854 I-2.992 J0.224
G2 X33.118 Y323.727 I5.537 J36.836
G3 X29.062 Y323.271 I-1.782 J-2.413
G2 X24.667 Y323.107 I-2.274 J1.957
X24.831 Y327.502 I2.121 J2.121
G3 X25.287 Y331.558 I-1.957 J2.274
G2 X18.414 Y348.152 I29.962 J22.132
G3 X15.224 Y350.698 I-2.967 J-0.446
G2 X12 Y353.69 I-0.224 J2.992
X15.224 Y356.681 I3
G3 X18.414 Y359.227 I0.224 J2.992
G2 X25.287 Y375.822 I36.836 J-5.537
G3 X24.832 Y379.878 I-2.413 J1.782
G2 X24.668 Y384.272 I1.957 J2.273
X29.062 Y384.108 I2.121 J-2.121
G3 X33.118 Y383.652 I2.274 J1.957
G2 X49.713 Y390.525 I22.131 J-29.962
G3 X52.258 Y393.716 I-0.446 J2.967
G2 X55.25 Y396.94 I2.992 J0.224
X58.242 Y393.716 J-3
G3 X60.787 Y390.525 I2.992 J-0.224
G2 X77.382 Y383.652 I-5.537 J-36.836
G3 X81.438 Y384.108 I1.782 J2.413
G2 X85.832 Y384.272 I2.273 J-1.957
X85.668 Y379.878 I-2.121 J-2.121
G3 X85.213 Y375.822 I1.957 J-2.273
G2 X88.568 Y370.348 I-29.963 J-22.132
G3 X91.251 Y368.69 I2.683 J1.342
G1 X148.5
G3 X151.5 Y371.69 J3
G2 X155.453 Y372.125 I2
X155.481 Y371.412 I-1.952 J-0.435
G3 X157.627 Y368.111 I2.971 J-0.417
G2 X160.78 Y366.805 I-4.125 J-14.421
G3 X164.631 Y367.621 I1.456 J2.623
G2 X167.642 Y367.831 I1.597 J-1.204
X167.432 Y364.82 I-1.414 J-1.414
G3 X166.615 Y360.969 I1.806 J-2.395
G2 X167.922 Y357.815 I-13.114 J-7.282
G3 X171.222 Y355.67 I2.884 J0.826
G2 X173.5 Y353.69 I0.278 J-1.981
X171.222 Y351.709 I-2
G3 X167.922 Y349.564 I-0.416 J-2.971
G2 X166.615 Y346.41 I-14.421 J4.128
G3 X167.432 Y342.559 I2.623 J-1.456
G2 X167.642 Y339.548 I-1.204 J-1.597
X164.631 Y339.758 I-1.414 J1.414
G3 X160.78 Y340.574 Z9.85 I-2.395 J-1.807 F300
G2 X157.627 Y339.268 Z9.731 I-7.279 J13.116
G3 X155.481 Y335.968 Z9.581 I0.825 J-2.884
G2 X153.639 Y333.695 Z9.466 I-1.981 J-0.278
X151.5 Y335.69 Z9.351 I-0.139 J1.995
G3 X148.5 Y338.69 Z9.187 I-3
G1 X114.511 Z8
X91.251 F750
G3 X88.568 Y337.032 J-3
G2 X85.213 Y331.558 I-33.318 J16.658
G3 X85.669 Y327.502 I2.413 J-1.782
G2 X85.833 Y323.107 I-1.957 J-2.274
X81.438 Y323.271 I-2.121 J2.121
G3 X77.382 Y323.727 I-2.274 J-1.957
G2 X60.787 Y316.854 I-22.131 J29.963
G3 X58.242 Y313.664 I0.446 J-2.967
G2 X55.25 Y310.44 I-2.992 J-0.224
X52.258 Y313.664 J3
G3 X49.713 Y316.854 I-2.992 J0.224
G2 X33.118 Y323.727 I5.537 J36.836
G3 X29.062 Y323.271 I-1.782 J-2.413
G2 X24.667 Y323.107 I-2.274 J1.957
X24.831 Y327.502 I2.121 J2.121
G3 X25.287 Y331.558 I-1.957 J2.274
G2 X18.414 Y348.152 I29.962 J22.132
G3 X15.224 Y350.698 I-2.967 J-0.446
G2 X12 Y353.69 I-0.224 J2.992
X15.224 Y356.681 I3
G3 X18.414 Y359.227 I0.224 J2.992
G2 X25.287 Y375.822 I36.836 J-5.537
G3 X24.832 Y379.878 I-2.413 J1.782
G2 X24.668 Y384.272 I1.957 J2.273
X29.062 Y384.108 I2.121 J-2.121
G3 X33.118 Y383.652 I2.274 J1.957
G2 X49.713 Y390.525 I22.131 J-29.962
G3 X52.258 Y393.716 I-0.446 J2.967
G2 X55.25 Y396.94 I2.992 J0.224
X58.242 Y393.716 J-3
G3 X60.787 Y390.525 I2.992 J-0.224
G2 X77.382 Y383.652 I-5.537 J-36.836
G3 X81.438 Y384.108 I1.782 J2.413
G2 X85.832 Y384.272 I2.273 J-1.957
X85.668 Y379.878 I-2.121 J-2.121
G3 X85.213 Y375.822 I1.957 J-2.273
G2 X88.568 Y370.348 I-29.963 J-22.132
G3 X91.251 Y368.69 I2.683 J1.342
G1 X148.5
G3 X151.5 Y371.69 J3
G2 X153.64 Y373.685 I2
X155.481 Y371.412 I-0.139 J-1.995
G3 X157.627 Y368.111 I2.971 J-0.417
G2 X160.78 Y366.805 I-4.125 J-14.421
G3 X164.631 Y367.621 I1.456 J2.623
G2 X167.642 Y367.831 I1.597 J-1.204
X167.432 Y364.82 I-1.414 J-1.414
G3 X166.615 Y360.969 I1.806 J-2.395
G2 X167.922 Y357.815 I-13.114 J-7.282
G3 X171.222 Y355.67 I2.884 J0.826
G2 X173.5 Y353.69 I0.278 J-1.981
X171.222 Y351.709 I-2
G3 X167.922 Y349.564 I-0.416 J-2.971
G2 X166.615 Y346.41 I-14.421 J4.128
G3 X167.432 Y342.559 I2.623 J-1.456
G2 X167.642 Y339.548 I-1.204 J-1.597
X164.631 Y339.758 I-1.414 J1.414
G3 X160.78 Y340.574 I-2.395 J-1.807
G2 X157.627 Y339.268 I-7.279 J13.116
G3 X155.481 Y335.968 I0.825 J-2.884
G2 X153.639 Y333.695 I-1.981 J-0.278
X151.5 Y335.69 I-0.139 J1.995
G3 X148.5 Y338.69 I-3
G1 X114.511
X91.251 Z7.188 F300
G3 X88.568 Y337.032 Z7.072 J-3
G2 X85.213 Y331.558 Z6.847 I-33.318 J16.658
G3 X85.669 Y327.502 Z6.691 I2.413 J-1.782
G2 X85.833 Y323.107 Z6.518 I-1.957 J-2.274
X81.438 Y323.271 Z6.346 I-2.121 J2.121
G3 X77.382 Y323.727 Z6.189 I-2.274 J-1.957
G2 X72.81 Y320.838 Z6 I-22.131 J29.963
X60.787 Y316.854 I-17.56 J32.852 F750
G3 X58.242 Y313.664 I0.446 J-2.967
G2 X55.25 Y310.44 I-2.992 J-0.224
X52.258 Y313.664 J3
G3 X49.713 Y316.854 I-2.992 J0.224
G2 X33.118 Y323.727 I5.537 J36.836
G3 X29.062 Y323.271 I-1.782 J-2.413
G2 X24.667 Y323.107 I-2.274 J1.957
X24.831 Y327.502 I2.121 J2.121
G3 X25.287 Y331.558 I-1.957 J2.274
G2 X18.414 Y348.152 I29.962 J22.132
G3 X15.224 Y350.698 I-2.967 J-0.446
G2 X12 Y353.69 I-0.224 J2.992
X15.224 Y356.681 I3
G3 X18.414 Y359.227 I0.224 J2.992
G2 X25.287 Y375.822 I36.836 J-5.537
G3 X24.832 Y379.878 I-2.413 J1.782
G2 X24.668 Y384.272 I1.957 J2.273
X29.062 Y384.108 I2.121 J-2.121
G3 X33.118 Y383.652 I2.274 J1.957
G2 X49.713 Y390.525 I22.131 J-29.962
G3 X52.258 Y393.716 I-0.446 J2.967
G2 X55.25 Y396.94 I2.992 J0.224
X58.242 Y393.716 J-3
G3 X60.787 Y390.525 I2.992 J-0.224
G2 X77.382 Y383.652 I-5.537 J-36.836
G3 X81.438 Y384.108 I1.782 J2.413
G2 X85.832 Y384.272 I2.273 J-1.957
X85.668 Y379.878 I-2.121 J-2.121
G3 X85.213 Y375.822 I1.957 J-2.273
G2 X88.568 Y370.348 I-29.963 J-22.132
G3 X91.251 Y368.69 I2.683 J1.342
G1 X148.5
G3 X151.5 Y371.69 J3
G2 X153.64 Y373.685 I2
X155.481 Y371.412 I-0.139 J-1.995
G3 X157.627 Y368.111 I2.971 J-0.417
G2 X160.78 Y366.805 I-4.125 J-14.421
G3 X164.631 Y367.621 I1.456 J2.623
G2 X167.642 Y367.831 I1.597 J-1.204
X167.432 Y364.82 I-1.414 J-1.414
G3 X166.615 Y360.969 I1.806 J-2.395
G2 X167.922 Y357.815 I-13.114 J-7.282
G3 X171.222 Y355.67 I2.884 J0.826
G2 X173.5 Y353.69 I0.278 J-1.981
X171.222 Y351.709 I-2
G3 X167.922 Y349.564 I-0.416 J-2.971
G2 X166.615 Y346.41 I-14.421 J4.128
G3 X167.432 Y342.559 I2.623 J-1.456
G2 X167.642 Y339.548 I-1.204 J-1.597
X164.631 Y339.758 I-1.414 J1.414
G3 X160.78 Y340.574 I-2.395 J-1.807
G2 X157.627 Y339.268 I-7.279 J13.116
G3 X155.481 Y335.968 I0.825 J-2.884
G2 X153.639 Y333.695 I-1.981 J-0.278
X151.5 Y335.69 I-0.139 J1.995
G3 X148.5 Y338.69 I-3
G1 X91.251
G3 X88.568 Y337.032 J-3
G2 X85.213 Y331.558 I-33.318 J16.658
G3 X85.669 Y327.502 I2.413 J-1.782
G2 X85.833 Y323.107 I-1.957 J-2.274
X81.438 Y323.271 I-2.121 J2.121
G3 X77.382 Y323.727 I-2.274 J-1.957
G2 X72.81 Y320.838 I-22.131 J29.963
X60.787 Y316.854 Z5.556 I-17.56 J32.852 F300
G3 X58.242 Y313.664 Z5.399 I0.446 J-2.967
G2 X55.25 Y310.44 Z5.226 I-2.992 J-0.224
X52.258 Y313.664 Z5.054 J3
G3 X49.713 Y316.854 Z4.897 I-2.992 J0.224
G2 X33.118 Y323.727 Z4.264 I5.537 J36.836
G3 X29.062 Y323.271 Z4.107 I-1.782 J-2.413
G2 X26.304 Y322.268 Z4 I-2.274 J1.957
X24.667 Y323.107 I0.485 J2.961 F750
X24.831 Y327.502 I2.121 J2.121
G3 X25.287 Y331.558 I-1.957 J2.274
G2 X18.414 Y348.152 I29.962 J22.132
G3 X15.224 Y350.698 I-2.967 J-0.446
G2 X12 Y353.69 I-0.224 J2.992
X15.224 Y356.681 I3
G3 X18.414 Y359.227 I0.224 J2.992
G2 X25.287 Y375.822 I36.836 J-5.537
G3 X24.832 Y379.878 I-2.413 J1.782
G2 X24.668 Y384.272 I1.957 J2.273
X29.062 Y384.108 I2.121 J-2.121
G3 X33.118 Y383.652 I2.274 J1.957
G2 X49.713 Y390.525 I22.131 J-29.962
G3 X52.258 Y393.716 I-0.446 J2.967
G2 X55.25 Y396.94 I2.992 J0.224
X58.242 Y393.716 J-3
G3 X60.787 Y390.525 I2.992 J-0.224
G2 X77.382 Y383.652 I-5.537 J-36.836
G3 X81.438 Y384.108 I1.782 J2.413
G2 X85.832 Y384.272 I2.273 J-1.957
X85.668 Y379.878 I-2.121 J-2.121
G3 X85.213 Y375.822 I1.957 J-2.273
G2 X88.568 Y370.348 I-29.963 J-22.132
G3 X91.251 Y368.69 I2.683 J1.342
G1 X148.5
G3 X151.5 Y371.69 J3
G2 X153.64 Y373.685 I2
X155.481 Y371.412 I-0.139 J-1.995
G3 X157.627 Y368.111 I2.971 J-0.417
G2 X160.78 Y366.805 I-4.125 J-14.421
G3 X164.631 Y367.621 I1.456 J2.623
G2 X167.642 Y367.831 I1.597 J-1.204
X167.432 Y364.82 I-1.414 J-1.414
G3 X166.615 Y360.969 I1.806 J-2.395
G2 X167.922 Y357.815 I-13.114 J-7.282
G3 X171.222 Y355.67 I2.884 J0.826
G2 X173.5 Y353.69 I0.278 J-1.981
X171.222 Y351.709 I-2
G3 X167.922 Y349.564 I-0.416 J-2.971
G2 X166.615 Y346.41 I-14.421 J4.128
G3 X167.432 Y342.559 I2.623 J-1.456
G2 X167.642 Y339.548 I-1.204 J-1.597
X164.631 Y339.758 I-1.414 J1.414
G3 X160.78 Y340.574 I-2.395 J-1.807
G2 X157.627 Y339.268 I-7.279 J13.116
G3 X155.481 Y335.968 I0.825 J-2.884
G2 X153.639 Y333.695 I-1.981 J-0.278
X151.5 Y335.69 I-0.139 J1.995
G3 X148.5 Y338.69 I-3
G1 X91.251
G3 X88.568 Y337.032 J-3
G2 X85.213 Y331.558 I-33.318 J16.658
G3 X85.669 Y327.502 I2.413 J-1.782
G2 X85.833 Y323.107 I-1.957 J-2.274
X81.438 Y323.271 I-2.121 J2.121
G3 X77.382 Y323.727 I-2.274 J-1.957
G2 X60.787 Y316.854 I-22.131 J29.963
G3 X58.242 Y313.664 I0.446 J-2.967
G2 X55.25 Y310.44 I-2.992 J-0.224
X52.258 Y313.664 J3
G3 X49.713 Y316.854 I-2.992 J0.224
G2 X33.118 Y323.727 I5.537 J36.836
G3 X29.062 Y323.271 I-1.782 J-2.413
G2 X26.304 Y322.268 I-2.274 J1.957
X24.667 Y323.107 Z3.935 I0.485 J2.961 F300
X24.831 Y327.502 Z3.762 I2.121 J2.121
G3 X25.287 Y331.558 Z3.606 I-1.957 J2.274
G2 X18.414 Y348.152 Z2.972 I29.962 J22.132
G3 X15.224 Y350.698 Z2.815 I-2.967 J-0.446
G2 X12 Y353.69 Z2.643 I-0.224 J2.992
X15.224 Y356.681 Z2.471 I3
G3 X18.414 Y359.227 Z2.314 I0.224 J2.992
G2 X20.804 Y367.868 Z2 I36.836 J-5.537
X25.287 Y375.822 I34.446 J-14.178 F750
G3 X24.832 Y379.878 I-2.413 J1.782
G2 X24.668 Y384.272 I1.957 J2.273
X29.062 Y384.108 I2.121 J-2.121
G3 X33.118 Y383.652 I2.274 J1.957
G2 X49.713 Y390.525 I22.131 J-29.962
G3 X52.258 Y393.716 I-0.446 J2.967
G2 X55.25 Y396.94 I2.992 J0.224
X58.242 Y393.716 J-3
G3 X60.787 Y390.525 I2.992 J-0.224
G2 X77.382 Y383.652 I-5.537 J-36.836
G3 X81.438 Y384.108 I1.782 J2.413
G2 X85.832 Y384.272 I2.273 J-1.957
X85.668 Y379.878 I-2.121 J-2.121
G3 X85.213 Y375.822 I1.957 J-2.273
G2 X88.568 Y370.348 I-29.963 J-22.132
G3 X91.251 Y368.69 I2.683 J1.342
G1 X148.5
G3 X151.5 Y371.69 J3
G2 X153.64 Y373.685 I2
X155.481 Y371.412 I-0.139 J-1.995
G3 X157.627 Y368.111 I2.971 J-0.417
G2 X160.78 Y366.805 I-4.125 J-14.421
G3 X164.631 Y367.621 I1.456 J2.623
G2 X167.642 Y367.831 I1.597 J-1.204
X167.432 Y364.82 I-1.414 J-1.414
G3 X166.615 Y360.969 I1.806 J-2.395
G2 X167.922 Y357.815 I-13.114 J-7.282
G3 X171.222 Y355.67 I2.884 J0.826
G2 X173.5 Y353.69 I0.278 J-1.981
X171.222 Y351.709 I-2
G3 X167.922 Y349.564 I-0.416 J-2.971
G2 X166.615 Y346.41 I-14.421 J4.128
G3 X167.432 Y342.559 I2.623 J-1.456
G2 X167.642 Y339.548 I-1.204 J-1.597
X164.631 Y339.758 I-1.414 J1.414
G3 X160.78 Y340.574 I-2.395 J-1.807
G2 X157.627 Y339.268 I-7.279 J13.116
G3 X155.481 Y335.968 I0.825 J-2.884
G2 X153.639 Y333.695 I-1.981 J-0.278
X151.5 Y335.69 I-0.139 J1.995
G3 X148.5 Y338.69 I-3
G1 X91.251
G3 X88.568 Y337.032 J-3
G2 X85.213 Y331.558 I-33.318 J16.658
G3 X85.669 Y327.502 I2.413 J-1.782
G2 X85.833 Y323.107 I-1.957 J-2.274
X81.438 Y323.271 I-2.121 J2.121
G3 X77.382 Y323.727 I-2.274 J-1.957
G2 X60.787 Y316.854 I-22.131 J29.963
G3 X58.242 Y313.664 I0.446 J-2.967
G2 X55.25 Y310.44 I-2.992 J-0.224
X52.258 Y313.664 J3
G3 X49.713 Y316.854 I-2.992 J0.224
G2 X33.118 Y323.727 I5.537 J36.836
G3 X29.062 Y323.271 I-1.782 J-2.413
G2 X24.667 Y323.107 I-2.274 J1.957
X24.831 Y327.502 I2.121 J2.121
G3 X25.287 Y331.558 I-1.957 J2.274
G2 X18.414 Y348.152 I29.962 J22.132
G3 X15.224 Y350.698 I-2.967 J-0.446
G2 X12 Y353.69 I-0.224 J2.992
X15.224 Y356.681 I3
G3 X18.414 Y359.227 I0.224 J2.992
G2 X20.804 Y367.868 I36.836 J-5.537
X25.287 Y375.822 Z1.68 I34.446 J-14.178 F300
G3 X24.832 Y379.878 Z1.524 I-2.413 J1.782
G2 X24.668 Y384.272 Z1.351 I1.957 J2.273
X29.062 Y384.108 Z1.179 I2.121 J-2.121
G3 X33.118 Y383.652 Z1.022 I2.274 J1.957
G2 X49.713 Y390.525 Z0.389 I22.131 J-29.962
G3 X52.258 Y393.716 Z0.232 I-0.446 J2.967
G2 X55.25 Y396.94 Z0.06 I2.992 J0.224
X56.864 Y396.469 Z0 J-3
X58.242 Y393.716 I-1.614 J-2.529 F750
G3 X60.787 Y390.525 I2.992 J-0.224
G2 X77.382 Y383.652 I-5.537 J-36.836
G3 X81.438 Y384.108 I1.782 J2.413
G2 X85.832 Y384.272 I2.273 J-1.957
X85.668 Y379.878 I-2.121 J-2.121
G3 X85.213 Y375.822 I1.957 J-2.273
G2 X88.568 Y370.348 I-29.963 J-22.132
G3 X91.251 Y368.69 I2.683 J1.342
G1 X114.875
Z1.5
X124.875
Z0 F30
X148.5 F750
G3 X151.5 Y371.69 J3
G2 X153.64 Y373.685 I2
X155.481 Y371.412 I-0.139 J-1.995
G3 X157.627 Y368.111 I2.971 J-0.417
G2 X160.78 Y366.805 I-4.125 J-14.421
G3 X164.631 Y367.621 I1.456 J2.623
G2 X167.642 Y367.831 I1.597 J-1.204
X167.432 Y364.82 I-1.414 J-1.414
G3 X166.615 Y360.969 I1.806 J-2.395
G2 X167.922 Y357.815 I-13.114 J-7.282
G3 X171.222 Y355.67 I2.884 J0.826
G2 X173.5 Y353.69 I0.278 J-1.981
X171.222 Y351.709 I-2
G3 X167.922 Y349.564 I-0.416 J-2.971
G2 X166.615 Y346.41 I-14.421 J4.128
G3 X167.432 Y342.559 I2.623 J-1.456
G2 X167.642 Y339.548 I-1.204 J-1.597
X164.631 Y339.758 I-1.414 J1.414
G3 X160.78 Y340.574 I-2.395 J-1.807
G2 X157.627 Y339.268 I-7.279 J13.116
G3 X155.481 Y335.968 I0.825 J-2.884
G2 X153.639 Y333.695 I-1.981 J-0.278
X151.5 Y335.69 I-0.139 J1.995
G3 X148.5 Y338.69 I-3
G1 X124.875
Z1.5
X114.875
Z0 F30
X91.251 F750
G3 X88.568 Y337.032 J-3
G2 X85.213 Y331.558 I-33.318 J16.658
G3 X85.669 Y327.502 I2.413 J-1.782
G2 X85.833 Y323.107 I-1.957 J-2.274
X81.438 Y323.271 I-2.121 J2.121
G3 X77.382 Y323.727 I-2.274 J-1.957
G2 X60.787 Y316.854 I-22.131 J29.963
G3 X58.242 Y313.664 I0.446 J-2.967
G2 X55.25 Y310.44 I-2.992 J-0.224
X52.258 Y313.664 J3
G3 X49.713 Y316.854 I-2.992 J0.224
G2 X33.118 Y323.727 I5.537 J36.836
G3 X29.062 Y323.271 I-1.782 J-2.413
G2 X24.667 Y323.107 I-2.274 J1.957
X24.831 Y327.502 I2.121 J2.121
G3 X25.287 Y331.558 I-1.957 J2.274
G2 X18.414 Y348.152 I29.962 J22.132
G3 X15.224 Y350.698 I-2.967 J-0.446
G2 X12 Y353.69 I-0.224 J2.992
X15.224 Y356.681 I3
G3 X18.414 Y359.227 I0.224 J2.992
G2 X25.287 Y375.822 I36.836 J-5.537
G3 X24.832 Y379.878 I-2.413 J1.782
G2 X24.668 Y384.272 I1.957 J2.273
X29.062 Y384.108 I2.121 J-2.121
G3 X33.118 Y383.652 I2.274 J1.957
G2 X49.713 Y390.525 I22.131 J-29.962
G3 X52.258 Y393.716 I-0.446 J2.967
G2 X55.25 Y396.94 I2.992 J0.224
X58.242 Y393.716 J-3
G3 X60.787 Y390.525 I2.992 J-0.224
G2 X77.382 Y383.652 I-5.537 J-36.836
G3 X81.438 Y384.108 I1.782 J2.413
G2 X85.832 Y384.272 I2.273 J-1.957
X85.668 Y379.878 I-2.121 J-2.121
G3 X85.213 Y375.822 I1.957 J-2.273
G2 X88.568 Y370.348 I-29.963 J-22.132
G3 X91.251 Y368.69 I2.683 J1.342
G1 X114.875
Z1.5
X124.875
Z0 F30
X148.5 F750
G3 X151.5 Y371.69 J3
G2 X153.64 Y373.685 I2
X155.481 Y371.412 I-0.139 J-1.995
G3 X157.627 Y368.111 I2.971 J-0.417
G2 X160.78 Y366.805 I-4.125 J-14.421
G3 X164.631 Y367.621 I1.456 J2.623
G2 X167.642 Y367.831 I1.597 J-1.204
X167.432 Y364.82 I-1.414 J-1.414
G3 X166.615 Y360.969 I1.806 J-2.395
G2 X167.922 Y357.815 I-13.114 J-7.282
G3 X171.222 Y355.67 I2.884 J0.826
G2 X173.5 Y353.69 I0.278 J-1.981
X171.222 Y351.709 I-2
G3 X167.922 Y349.564 I-0.416 J-2.971
G2 X166.615 Y346.41 I-14.421 J4.128
G3 X167.432 Y342.559 I2.623 J-1.456
G2 X167.642 Y339.548 I-1.204 J-1.597
X164.631 Y339.758 I-1.414 J1.414
G3 X160.78 Y340.574 I-2.395 J-1.807
G2 X157.627 Y339.268 I-7.279 J13.116
G3 X155.481 Y335.968 I0.825 J-2.884
G2 X153.639 Y333.695 I-1.981 J-0.278
X151.5 Y335.69 I-0.139 J1.995
G3 X148.5 Y338.69 I-3
G1 X124.875
Z1.5
X114.875
Z0 F30
X91.251 F750
G3 X88.568 Y337.032 J-3
G2 X85.213 Y331.558 I-33.318 J16.658
G3 X85.669 Y327.502 I2.413 J-1.782
G2 X85.833 Y323.107 I-1.957 J-2.274
X81.438 Y323.271 I-2.121 J2.121
G3 X77.382 Y323.727 I-2.274 J-1.957
G2 X60.787 Y316.854 I-22.131 J29.963
G3 X58.242 Y313.664 I0.446 J-2.967
G2 X55.25 Y310.44 I-2.992 J-0.224
X52.258 Y313.664 J3
G3 X49.713 Y316.854 I-2.992 J0.224
G2 X33.118 Y323.727 I5.537 J36.836
G3 X29.062 Y323.271 I-1.782 J-2.413
G2 X24.667 Y323.107 I-2.274 J1.957
X24.831 Y327.502 I2.121 J2.121
G3 X25.287 Y331.558 I-1.957 J2.274
G2 X18.414 Y348.152 I29.962 J22.132
G3 X15.224 Y350.698 I-2.967 J-0.446
G2 X12 Y353.69 I-0.224 J2.992
X15.224 Y356.681 I3
G3 X18.414 Y359.227 I0.224 J2.992
G2 X25.287 Y375.822 I36.836 J-5.537
G3 X24.832 Y379.878 I-2.413 J1.782
G2 X24.668 Y384.272 I1.957 J2.273
X29.062 Y384.108 I2.121 J-2.121
G3 X33.118 Y383.652 I2.274 J1.957
G2 X49.713 Y390.525 I22.131 J-29.962
G3 X52.258 Y393.716 I-0.446 J2.967
G2 X55.25 Y396.94 I2.992 J0.224
X56.864 Y396.469 J-3
X57.047 Y395.64 I-0.323 J-0.506 F300
G1 X56.724 Y395.134
X56.674 Y395.055 Z0.007
X56.625 Y394.978 Z0.029
X56.578 Y394.905 Z0.065
X56.535 Y394.837 Z0.115
X56.496 Y394.777 Z0.176
X56.463 Y394.725 Z0.247
X56.437 Y394.684 Z0.328
X56.417 Y394.653 Z0.415
X56.405 Y394.635 Z0.506
X56.401 Y394.629 Z0.6
G0 Z23
X170.679 Y117.608
G1 Z21.1 F300
X170.687 Y117.609 Z21.006 F30
X170.708 Y117.614 Z20.915
X170.743 Y117.623 Z20.828
X170.791 Y117.634 Z20.747
X170.851 Y117.648 Z20.676
X170.92 Y117.664 Z20.615
X170.998 Y117.682 Z20.565
X171.083 Y117.702 Z20.529
X171.172 Y117.723 Z20.507
X171.264 Y117.745 Z20.5
X171.848 Y117.882 F300
G2 X172.569 Y117.434 I0.137 J-0.584
X171.826 Y115.381 Z20.419 I-1.947 J-0.456
G3 X171.009 Y111.53 Z20.269 I1.806 J-2.395
G2 X172.316 Y108.376 Z20.15 I-13.114 J-7.282
G3 X175.616 Y106.231 Z20 I2.884 J0.826
G2 X177.894 Y104.25 Z19.881 I0.278 J-1.981
X175.616 Y102.269 Z19.761 I-2
G3 X172.316 Y100.124 Z19.611 I-0.416 J-2.971
G2 X171.009 Y96.971 Z19.492 I-14.421 J4.128
G3 X171.826 Y93.119 Z19.342 I2.623 J-1.456
G2 X172.036 Y90.108 Z19.222 I-1.204 J-1.597
X169.025 Y90.318 Z19.103 I-1.414 J1.414
G3 X165.174 Y91.135 Z18.953 I-2.395 J-1.806
G2 X162.021 Y89.829 Z18.833 I-7.28 J13.115
G3 X159.875 Y86.528 Z18.683 I0.825 J-2.884
G2 X158.033 Y84.255 Z18.569 I-1.981 J-0.278
X155.894 Y86.25 Z18.454 I-0.139 J1.995
G3 X152.894 Y89.25 Z18.29 I-3
G1 X90.645 Z16.116
G3 X87.962 Y87.592 Z16 J-3
G2 X84.607 Y82.118 I-33.318 J16.658 F750
G3 X85.063 Y78.063 I2.413 J-1.782
G2 X85.227 Y73.668 I-1.957 J-2.273
X80.832 Y73.832 I-2.121 J2.121
G3 X76.776 Y74.287 I-2.274 J-1.957
G2 X60.182 Y67.414 I-22.132 J29.963
G3 X57.636 Y64.224 I0.446 J-2.967
G2 X54.644 Y61 I-2.992 J-0.224
X51.653 Y64.224 J3
G3 X49.107 Y67.414 I-2.992 J0.224
G2 X32.513 Y74.287 I5.537 J36.836
G3 X28.457 Y73.832 I-1.782 J-2.413
G2 X24.062 Y73.668 I-2.274 J1.957
X24.226 Y78.062 I2.121 J2.121
G3 X24.682 Y82.118 I-1.957 J2.274
G2 Y126.382 I29.963 J22.132
G3 X24.226 Y130.438 I-2.413 J1.782
G2 X24.062 Y134.832 I1.957 J2.274
X28.457 Y134.669 I2.121 J-2.121
G3 X32.513 Y134.213 I2.273 J1.957
G2 X49.107 Y141.086 I22.131 J-29.963
G3 X51.653 Y144.277 I-0.446 J2.967
G2 X54.644 Y147.5 I2.992 J0.223
X57.636 Y144.277 J-3
G3 X60.182 Y141.086 I2.992 J-0.224
G2 X76.776 Y134.213 I-5.537 J-36.836
G3 X80.832 Y134.669 I1.782 J2.413
G2 X85.227 Y134.832 I2.274 J-1.957
X85.063 Y130.438 I-2.121 J-2.121
G3 X84.607 Y126.382 I1.957 J-2.274
G2 X87.962 Y120.908 I-29.963 J-22.132
G3 X90.645 Y119.25 I2.683 J1.342
G1 X152.894
G3 X155.894 Y122.25 J3
G2 X158.033 Y124.245 I2
X159.875 Y121.972 I-0.139 J-1.995
G3 X162.02 Y118.672 I2.971 J-0.416
G2 X165.174 Y117.365 I-4.128 J-14.421
G3 X169.025 Y118.182 I1.456 J2.623
G2 X172.036 Y118.392 I1.597 J-1.204
X171.826 Y115.381 I-1.414 J-1.414
G3 X171.009 Y111.53 I1.806 J-2.395
G2 X172.316 Y108.376 I-13.114 J-7.282
G3 X175.616 Y106.231 I2.884 J0.826
G2 X177.894 Y104.25 I0.278 J-1.981
X175.616 Y102.269 I-2
G3 X172.316 Y100.124 I-0.416 J-2.971
G2 X171.009 Y96.971 I-14.421 J4.128
G3 X171.826 Y93.119 I2.623 J-1.456
G2 X172.036 Y90.108 I-1.204 J-1.597
X169.025 Y90.318 I-1.414 J1.414
G3 X165.174 Y91.135 I-2.395 J-1.806
G2 X162.021 Y89.829 I-7.28 J13.115
G3 X159.875 Y86.528 I0.825 J-2.884
G2 X158.033 Y84.255 I-1.981 J-0.278
X155.894 Y86.25 I-0.139 J1.995
G3 X152.894 Y89.25 I-3
G1 X90.645
G3 X87.962 Y87.592 J-3
G2 X84.607 Y82.118 Z15.776 I-33.318 J16.658 F300
G3 X85.063 Y78.063 Z15.619 I2.413 J-1.782
G2 X85.227 Y73.668 Z15.446 I-1.957 J-2.273
X80.832 Y73.832 Z15.274 I-2.121 J2.121
G3 X76.776 Y74.287 Z15.117 I-2.274 J-1.957
G2 X60.182 Y67.414 Z14.484 I-22.132 J29.963
G3 X57.636 Y64.224 Z14.327 I0.446 J-2.967
G2 X51.657 Y63.719 Z14 I-2.992 J-0.224
X51.653 Y64.224 I2.987 J0.281 F750
G3 X49.107 Y67.414 I-2.992 J0.224
G2 X32.513 Y74.287 I5.537 J36.836
G3 X28.457 Y73.832 I-1.782 J-2.413
G2 X24.062 Y73.668 I-2.274 J1.957
X24.226 Y78.062 I2.121 J2.121
G3 X24.682 Y82.118 I-1.957 J2.274
G2 Y126.382 I29.963 J22.132
G3 X24.226 Y130.438 I-2.413 J1.782
G2 X24.062 Y134.832 I1.957 J2.274
X28.457 Y134.669 I2.121 J-2.121
G3 X32.513 Y134.213 I2.273 J1.957
G2 X49.107 Y141.086 I22.131 J-29.963
G3 X51.653 Y144.277 I-0.446 J2.967
G2 X54.644 Y147.5 I2.992 J0.223
X57.636 Y144.277 J-3
G3 X60.182 Y141.086 I2.992 J-0.224
G2 X76.776 Y134.213 I-5.537 J-36.836
G3 X80.832 Y134.669 I1.782 J2.413
G2 X85.227 Y134.832 I2.274 J-1.957
X85.063 Y130.438 I-2.121 J-2.121
G3 X84.607 Y126.382 I1.957 J-2.274
G2 X87.962 Y120.908 I-29.963 J-22.132
G3 X90.645 Y119.25 I2.683 J1.342
G1 X152.894
G3 X155.894 Y122.25 J3
G2 X158.033 Y124.245 I2
X159.875 Y121.972 I-0.139 J-1.995
G3 X162.02 Y118.672 I2.971 J-0.416
G2 X165.174 Y117.365 I-4.128 J-14.421
G3 X169.025 Y118.182 I1.456 J2.623
G2 X172.036 Y118.392 I1.597 J-1.204
X171.826 Y115.381 I-1.414 J-1.414
G3 X171.009 Y111.53 I1.806 J-2.395
G2 X172.316 Y108.376 I-13.114 J-7.282
G3 X175.616 Y106.231 I2.884 J0.826
G2 X177.894 Y104.25 I0.278 J-1.981
X175.616 Y102.269 I-2
G3 X172.316 Y100.124 I-0.416 J-2.971
G2 X171.009 Y96.971 I-14.421 J4.128
G3 X171.826 Y93.119 I2.623 J-1.456
G2 X172.036 Y90.108 I-1.204 J-1.597
X169.025 Y90.318 I-1.414 J1.414
G3 X165.174 Y91.135 I-2.395 J-1.806
G2 X162.021 Y89.829 I-7.28 J13.115
G3 X159.875 Y86.528 I0.825 J-2.884
G2 X158.033 Y84.255 I-1.981 J-0.278
X155.894 Y86.25 I-0.139 J1.995
G3 X152.894 Y89.25 I-3
G1 X90.645
G3 X87.962 Y87.592 J-3
G2 X84.607 Y82.118 I-33.318 J16.658
G3 X85.063 Y78.063 I2.413 J-1.782
G2 X85.227 Y73.668 I-1.957 J-2.273
X80.832 Y73.832 I-2.121 J2.121
G3 X76.776 Y74.287 I-2.274 J-1.957
G2 X60.182 Y67.414 I-22.132 J29.963
G3 X57.636 Y64.224 I0.446 J-2.967
G2 X51.657 Y63.719 I-2.992 J-0.224
X51.653 Y64.224 Z13.982 I2.987 J0.281 F300
G3 X49.107 Y67.414 Z13.826 I-2.992 J0.224
G2 X32.513 Y74.287 Z13.192 I5.537 J36.836
G3 X28.457 Y73.832 Z13.035 I-1.782 J-2.413
G2 X24.062 Y73.668 Z12.863 I-2.274 J1.957
X24.226 Y78.062 Z12.691 I2.121 J2.121
G3 X24.682 Y82.118 Z12.534 I-1.957 J2.274
G2 X18.34 Y95.912 Z12 I29.963 J22.132
X24.682 Y126.382 I36.305 J8.338 F750
G3 X24.226 Y130.438 I-2.413 J1.782
G2 X24.062 Y134.832 I1.957 J2.274
X28.457 Y134.669 I2.121 J-2.121
G3 X32.513 Y134.213 I2.273 J1.957
G2 X49.107 Y141.086 I22.131 J-29.963
G3 X51.653 Y144.277 I-0.446 J2.967
G2 X54.644 Y147.5 I2.992 J0.223
X57.636 Y144.277 J-3
G3 X60.182 Y141.086 I2.992 J-0.224
G2 X76.776 Y134.213 I-5.537 J-36.836
G3 X80.832 Y134.669 I1.782 J2.413
G2 X85.227 Y134.832 I2.274 J-1.957
X85.063 Y130.438 I-2.121 J-2.121
G3 X84.607 Y126.382 I1.957 J-2.274
G2 X87.962 Y120.908 I-29.963 J-22.132
G3 X90.645 Y119.25 I2.683 J1.342
G1 X152.894
G3 X155.894 Y122.25 J3
G2 X158.033 Y124.245 I2
X159.875 Y121.972 I-0.139 J-1.995
G3 X162.02 Y118.672 I2.971 J-0.416
G2 X165.174 Y117.365 I-4.128 J-14.421
G3 X169.025 Y118.182 I1.456 J2.623
G2 X172.036 Y118.392 I1.597 J-1.204
X171.826 Y115.381 I-1.414 J-1.414
G3 X171.009 Y111.53 I1.806 J-2.395
G2 X172.316 Y108.376 I-13.114 J-7.282
G3 X175.616 Y106.231 I2.884 J0.826
G2 X177.894 Y104.25 I0.278 J-1.981
X175.616 Y102.269 I-2
G3 X172.316 Y100.124 I-0.416 J-2.971
G2 X171.009 Y96.971 I-14.421 J4.128
G3 X171.826 Y93.119 I2.623 J-1.456
G2 X172.036 Y90.108 I-1.204 J-1.597
X169.025 Y90.318 I-1.414 J1.414
G3 X165.174 Y91.135 I-2.395 J-1.806
G2 X162.021 Y89.829 I-7.28 J13.115
G3 X159.875 Y86.528 I0.825 J-2.884
G2 X158.033 Y84.255 I-1.981 J-0.278
X155.894 Y86.25 I-0.139 J1.995
G3 X152.894 Y89.25 I-3
G1 X90.645
G3 X87.962 Y87.592 J-3
G2 X84.607 Y82.118 I-33.318 J16.658
G3 X85.063 Y78.063 I2.413 J-1.782
G2 X85.227 Y73.668 I-1.957 J-2.273
X80.832 Y73.832 I-2.121 J2.121
G3 X76.776 Y74.287 I-2.274 J-1.957
G2 X60.182 Y67.414 I-22.132 J29.963
G3 X57.636 Y64.224 I0.446 J-2.967
G2 X54.644 Y61 I-2.992 J-0.224
X51.653 Y64.224 J3
G3 X49.107 Y67.414 I-2.992 J0.224
G2 X32.513 Y74.287 I5.537 J36.836
G3 X28.457 Y73.832 I-1.782 J-2.413
G2 X24.062 Y73.668 I-2.274 J1.957
X24.226 Y78.062 I2.121 J2.121
G3 X24.682 Y82.118 I-1.957 J2.274
G2 X18.34 Y95.912 I29.963 J22.132
X24.682 Y126.382 Z10.879 I36.305 J8.338 F300
G3 X24.226 Y130.438 Z10.722 I-2.413 J1.782
G2 X24.062 Y134.832 Z10.55 I1.957 J2.274
X28.457 Y134.669 Z10.377 I2.121 J-2.121
G3 X32.513 Y134.213 Z10.221 I2.273 J1.957
G2 X37.885 Y137.517 Z10 I22.131 J-29.963
X49.107 Y141.086 I16.759 J-33.267 F750
G3 X51.653 Y144.277 I-0.446 J2.967
G2 X54.644 Y147.5 I2.992 J0.223
X57.636 Y144.277 J-3
G3 X60.182 Y141.086 I2.992 J-0.224
G2 X76.776 Y134.213 I-5.537 J-36.836
G3 X80.832 Y134.669 I1.782 J2.413
G2 X85.227 Y134.832 I2.274 J-1.957
X85.063 Y130.438 I-2.121 J-2.121
G3 X84.607 Y126.382 I1.957 J-2.274
G2 X87.962 Y120.908 I-29.963 J-22.132
G3 X90.645 Y119.25 I2.683 J1.342
G1 X152.894
G3 X155.894 Y122.25 J3
G2 X158.033 Y124.245 I2
X159.875 Y121.972 I-0.139 J-1.995
G3 X162.02 Y118.672 I2.971 J-0.416
G2 X165.174 Y117.365 I-4.128 J-14.421
G3 X169.025 Y118.182 I1.456 J2.623
G2 X172.036 Y118.392 I1.597 J-1.204
X171.826 Y115.381 I-1.414 J-1.414
G3 X171.009 Y111.53 I1.806 J-2.395
G2 X172.316 Y108.376 I-13.114 J-7.282
G3 X175.616 Y106.231 I2.884 J0.826
G2 X177.894 Y104.25 I0.278 J-1.981
X175.616 Y102.269 I-2
G3 X172.316 Y100.124 I-0.416 J-2.971
G2 X171.009 Y96.971 I-14.421 J4.128
G3 X171.826 Y93.119 I2.623 J-1.456
G2 X172.036 Y90.108 I-1.204 J-1.597
X169.025 Y90.318 I-1.414 J1.414
G3 X165.174 Y91.135 I-2.395 J-1.806
G2 X162.021 Y89.829 I-7.28 J13.115
G3 X159.875 Y86.528 I0.825 J-2.884
G2 X158.033 Y84.255 I-1.981 J-0.278
X155.894 Y86.25 I-0.139 J1.995
G3 X152.894 Y89.25 I-3
G1 X90.645
G3 X87.962 Y87.592 J-3
G2 X84.607 Y82.118 I-33.318 J16.658
G3 X85.063 Y78.063 I2.413 J-1.782
G2 X85.227 Y73.668 I-1.957 J-2.273
X80.832 Y73.832 I-2.121 J2.121
G3 X76.776 Y74.287 I-2.274 J-1.957
G2 X60.182 Y67.414 I-22.132 J29.963
G3 X57.636 Y64.224 I0.446 J-2.967
G2 X54.644 Y61 I-2.992 J-0.224
X51.653 Y64.224 J3
G3 X49.107 Y67.414 I-2.992 J0.224
G2 X32.513 Y74.287 I5.537 J36.836
G3 X28.457 Y73.832 I-1.782 J-2.413
G2 X24.062 Y73.668 I-2.274 J1.957
X24.226 Y78.062 I2.121 J2.121
G3 X24.682 Y82.118 I-1.957 J2.274
G2 Y126.382 I29.963 J22.132
G3 X24.226 Y130.438 I-2.413 J1.782
G2 X24.062 Y134.832 I1.957 J2.274
X28.457 Y134.669 I2.121 J-2.121
G3 X32.513 Y134.213 I2.273 J1.957
G2 X37.885 Y137.517 I22.131 J-29.963
X49.107 Y141.086 Z9.587 I16.759 J-33.267 F300
G3 X51.653 Y144.277 Z9.43 I-0.446 J2.967
G2 X54.644 Y147.5 Z9.258 I2.992 J0.223
X57.636 Y144.277 Z9.086 J-3
G3 X60.182 Y141.086 Z8.929 I2.992 J-0.224
G2 X76.776 Y134.213 Z8.295 I-5.537 J-36.836
G3 X80.832 Y134.669 Z8.139 I1.782 J2.413
G2 X84.446 Y135.395 Z8 I2.274 J-1.957
X85.227 Y134.832 I-1.341 J-2.684 F750
X85.063 Y130.438 I-2.121 J-2.121
G3 X84.607 Y126.382 I1.957 J-2.274
G2 X87.962 Y120.908 I-29.963 J-22.132
G3 X90.645 Y119.25 I2.683 J1.342
G1 X152.894
G3 X155.894 Y122.25 J3
G2 X158.033 Y124.245 I2
X159.875 Y121.972 I-0.139 J-1.995
G3 X162.02 Y118.672 I2.971 J-0.416
G2 X165.174 Y117.365 I-4.128 J-14.421
G3 X169.025 Y118.182 I1.456 J2.623
G2 X172.036 Y118.392 I1.597 J-1.204
X171.826 Y115.381 I-1.414 J-1.414
G3 X171.009 Y111.53 I1.806 J-2.395
G2 X172.316 Y108.376 I-13.114 J-7.282
G3 X175.616 Y106.231 I2.884 J0.826
G2 X177.894 Y104.25 I0.278 J-1.981
X175.616 Y102.269 I-2
G3 X172.316 Y100.124 I-0.416 J-2.971
G2 X171.009 Y96.971 I-14.421 J4.128
G3 X171.826 Y93.119 I2.623 J-1.456
G2 X172.036 Y90.108 I-1.204 J-1.597
X169.025 Y90.318 I-1.414 J1.414
G3 X165.174 Y91.135 I-2.395 J-1.806
G2 X162.021 Y89.829 I-7.28 J13.115
G3 X159.875 Y86.528 I0.825 J-2.884
G2 X158.033 Y84.255 I-1.981 J-0.278
X155.894 Y86.25 I-0.139 J1.995
G3 X152.894 Y89.25 I-3
G1 X90.645
G3 X87.962 Y87.592 J-3
G2 X84.607 Y82.118 I-33.318 J16.658
G3 X85.063 Y78.063 I2.413 J-1.782
G2 X85.227 Y73.668 I-1.957 J-2.273
X80.832 Y73.832 I-2.121 J2.121
G3 X76.776 Y74.287 I-2.274 J-1.957
G2 X60.182 Y67.414 I-22.132 J29.963
G3 X57.636 Y64.224 I0.446 J-2.967
G2 X54.644 Y61 I-2.992 J-0.224
X51.653 Y64.224 J3
G3 X49.107 Y67.414 I-2.992 J0.224
G2 X32.513 Y74.287 I5.537 J36.836
G3 X28.457 Y73.832 I-1.782 J-2.413
G2 X24.062 Y73.668 I-2.274 J1.957
X24.226 Y78.062 I2.121 J2.121
G3 X24.682 Y82.118 I-1.957 J2.274
G2 Y126.382 I29.963 J22.132
G3 X24.226 Y130.438 I-2.413 J1.782
G2 X24.062 Y134.832 I1.957 J2.274
X28.457 Y134.669 I2.121 J-2.121
G3 X32.513 Y134.213 I2.273 J1.957
G2 X49.107 Y141.086 I22.131 J-29.963
G3 X51.653 Y144.277 I-0.446 J2.967
G2 X54.644 Y147.5 I2.992 J0.223
X57.636 Y144.277 J-3
G3 X60.182 Y141.086 I2.992 J-0.224
G2 X76.776 Y134.213 I-5.537 J-36.836
G3 X80.832 Y134.669 I1.782 J2.413
G2 X84.446 Y135.395 I2.274 J-1.957
X85.227 Y134.832 Z7.966 I-1.341 J-2.684 F300
X85.063 Y130.438 Z7.794 I-2.121 J-2.121
G3 X84.607 Y126.382 Z7.637 I1.957 J-2.274
G2 X87.962 Y120.908 Z7.413 I-29.963 J-22.132
G3 X90.645 Y119.25 Z7.297 I2.683 J1.342
G1 X127.777 Z6
X152.894 F750
G3 X155.894 Y122.25 J3
G2 X158.033 Y124.245 I2
X159.875 Y121.972 I-0.139 J-1.995
G3 X162.02 Y118.672 I2.971 J-0.416
G2 X165.174 Y117.365 I-4.128 J-14.421
G3 X169.025 Y118.182 I1.456 J2.623
G2 X172.036 Y118.392 I1.597 J-1.204
X171.826 Y115.381 I-1.414 J-1.414
G3 X171.009 Y111.53 I1.806 J-2.395
G2 X172.316 Y108.376 I-13.114 J-7.282
G3 X175.616 Y106.231 I2.884 J0.826
G2 X177.894 Y104.25 I0.278 J-1.981
X175.616 Y102.269 I-2
G3 X172.316 Y100.124 I-0.416 J-2.971
G2 X171.009 Y96.971 I-14.421 J4.128
G3 X171.826 Y93.119 I2.623 J-1.456
G2 X172.036 Y90.108 I-1.204 J-1.597
X169.025 Y90.318 I-1.414 J1.414
G3 X165.174 Y91.135 I-2.395 J-1.806
G2 X162.021 Y89.829 I-7.28 J13.115
G3 X159.875 Y86.528 I0.825 J-2.884
G2 X158.033 Y84.255 I-1.981 J-0.278
X155.894 Y86.25 I-0.139 J1.995
G3 X152.894 Y89.25 I-3
G1 X90.645
G3 X87.962 Y87.592 J-3
G2 X84.607 Y82.118 I-33.318 J16.658
G3 X85.063 Y78.063 I2.413 J-1.782
G2 X85.227 Y73.668 I-1.957 J-2.273
X80.832 Y73.832 I-2.121 J2.121
G3 X76.776 Y74.287 I-2.274 J-1.957
G2 X60.182 Y67.414 I-22.132 J29.963
G3 X57.636 Y64.224 I0.446 J-2.967
G2 X54.644 Y61 I-2.992 J-0.224
X51.653 Y64.224 J3
G3 X49.107 Y67.414 I-2.992 J0.224
G2 X32.513 Y74.287 I5.537 J36.836
G3 X28.457 Y73.832 I-1.782 J-2.413
G2 X24.062 Y73.668 I-2.274 J1.957
X24.226 Y78.062 I2.121 J2.121
G3 X24.682 Y82.118 I-1.957 J2.274
G2 Y126.382 I29.963 J22.132
G3 X24.226 Y130.438 I-2.413 J1.782
G2 X24.062 Y134.832 I1.957 J2.274
X28.457 Y134.669 I2.121 J-2.121
G3 X32.513 Y134.213 I2.273 J1.957
G2 X49.107 Y141.086 I22.131 J-29.963
G3 X51.653 Y144.277 I-0.446 J2.967
G2 X54.644 Y147.5 I2.992 J0.223
X57.636 Y144.277 J-3
G3 X60.182 Y141.086 I2.992 J-0.224
G2 X76.776 Y134.213 I-5.537 J-36.836
G3 X80.832 Y134.669 I1.782 J2.413
G2 X85.227 Y134.832 I2.274 J-1.957
X85.063 Y130.438 I-2.121 J-2.121
G3 X84.607 Y126.382 I1.957 J-2.274
G2 X87.962 Y120.908 I-29.963 J-22.132
G3 X90.645 Y119.25 I2.683 J1.342
G1 X127.777
X152.894 Z5.123 F300
G3 X155.894 Y122.25 Z4.958 J3
G2 X158.033 Y124.245 Z4.844 I2
X159.875 Y121.972 Z4.729 I-0.139 J-1.995
G3 X162.02 Y118.672 Z4.579 I2.971 J-0.416
G2 X165.174 Y117.365 Z4.46 I-4.128 J-14.421
G3 X169.025 Y118.182 Z4.31 I1.456 J2.623
G2 X172.036 Y118.392 Z4.19 I1.597 J-1.204
X171.826 Y115.381 Z4.071 I-1.414 J-1.414
G3 X170.723 Y113.72 Z4 I1.806 J-2.395
X171.009 Y111.53 I2.909 J-0.734 F750
G2 X172.316 Y108.376 I-13.114 J-7.282
G3 X175.616 Y106.231 I2.884 J0.826
G2 X177.894 Y104.25 I0.278 J-1.981
X175.616 Y102.269 I-2
G3 X172.316 Y100.124 I-0.416 J-2.971
G2 X171.009 Y96.971 I-14.421 J4.128
G3 X171.826 Y93.119 I2.623 J-1.456
G2 X172.036 Y90.108 I-1.204 J-1.597
X169.025 Y90.318 I-1.414 J1.414
G3 X165.174 Y91.135 I-2.395 J-1.806
G2 X162.021 Y89.829 I-7.28 J13.115
G3 X159.875 Y86.528 I0.825 J-2.884
G2 X158.033 Y84.255 I-1.981 J-0.278
X155.894 Y86.25 I-0.139 J1.995
G3 X152.894 Y89.25 I-3
G1 X90.645
G3 X87.962 Y87.592 J-3
G2 X84.607 Y82.118 I-33.318 J16.658
G3 X85.063 Y78.063 I2.413 J-1.782
G2 X85.227 Y73.668 I-1.957 J-2.273
X80.832 Y73.832 I-2.121 J2.121
G3 X76.776 Y74.287 I-2.274 J-1.957
G2 X60.182 Y67.414 I-22.132 J29.963
G3 X57.636 Y64.224 I0.446 J-2.967
G2 X54.644 Y61 I-2.992 J-0.224
X51.653 Y64.224 J3
G3 X49.107 Y67.414 I-2.992 J0.224
G2 X32.513 Y74.287 I5.537 J36.836
G3 X28.457 Y73.832 I-1.782 J-2.413
G2 X24.062 Y73.668 I-2.274 J1.957
X24.226 Y78.062 I2.121 J2.121
G3 X24.682 Y82.118 I-1.957 J2.274
G2 Y126.382 I29.963 J22.132
G3 X24.226 Y130.438 I-2.413 J1.782
G2 X24.062 Y134.832 I1.957 J2.274
X28.457 Y134.669 I2.121 J-2.121
G3 X32.513 Y134.213 I2.273 J1.957
G2 X49.107 Y141.086 I22.131 J-29.963
G3 X51.653 Y144.277 I-0.446 J2.967
G2 X54.644 Y147.5 I2.992 J0.223
X57.636 Y144.277 J-3
G3 X60.182 Y141.086 I2.992 J-0.224
G2 X76.776 Y134.213 I-5.537 J-36.836
G3 X80.832 Y134.669 I1.782 J2.413
G2 X85.227 Y134.832 I2.274 J-1.957
X85.063 Y130.438 I-2.121 J-2.121
G3 X84.607 Y126.382 I1.957 J-2.274
G2 X87.962 Y120.908 I-29.963 J-22.132
G3 X90.645 Y119.25 I2.683 J1.342
G1 X152.894
G3 X155.894 Y122.25 J3
G2 X158.033 Y124.245 I2
X159.875 Y121.972 I-0.139 J-1.995
G3 X162.02 Y118.672 I2.971 J-0.416
G2 X165.174 Y117.365 I-4.128 J-14.421
G3 X169.025 Y118.182 I1.456 J2.623
G2 X172.036 Y118.392 I1.597 J-1.204
X171.826 Y115.381 I-1.414 J-1.414
G3 X170.723 Y113.72 I1.806 J-2.395
X171.009 Y111.53 Z3.921 I2.909 J-0.734 F300
G2 X172.316 Y108.376 Z3.802 I-13.114 J-7.282
G3 X175.616 Y106.231 Z3.652 I2.884 J0.826
G2 X177.894 Y104.25 Z3.532 I0.278 J-1.981
X175.616 Y102.269 Z3.413 I-2
G3 X172.316 Y100.124 Z3.263 I-0.416 J-2.971
G2 X171.009 Y96.971 Z3.143 I-14.421 J4.128
G3 X171.826 Y93.119 Z2.993 I2.623 J-1.456
G2 X172.036 Y90.108 Z2.874 I-1.204 J-1.597
X169.025 Y90.318 Z2.754 I-1.414 J1.414
G3 X165.174 Y91.135 Z2.605 I-2.395 J-1.806
G2 X162.021 Y89.829 Z2.485 I-7.28 J13.115
G3 X159.875 Y86.528 Z2.335 I0.825 J-2.884
G2 X158.033 Y84.255 Z2.221 I-1.981 J-0.278
X155.894 Y86.25 Z2.106 I-0.139 J1.995
G3 X154.486 Y88.793 Z2 I-3
X152.894 Y89.25 I-1.592 J-2.543 F750
G1 X90.645
G3 X87.962 Y87.592 J-3
G2 X84.607 Y82.118 I-33.318 J16.658
G3 X85.063 Y78.063 I2.413 J-1.782
G2 X85.227 Y73.668 I-1.957 J-2.273
X80.832 Y73.832 I-2.121 J2.121
G3 X76.776 Y74.287 I-2.274 J-1.957
G2 X60.182 Y67.414 I-22.132 J29.963
G3 X57.636 Y64.224 I0.446 J-2.967
G2 X54.644 Y61 I-2.992 J-0.224
X51.653 Y64.224 J3
G3 X49.107 Y67.414 I-2.992 J0.224
G2 X32.513 Y74.287 I5.537 J36.836
G3 X28.457 Y73.832 I-1.782 J-2.413
G2 X24.062 Y73.668 I-2.274 J1.957
X24.226 Y78.062 I2.121 J2.121
G3 X24.682 Y82.118 I-1.957 J2.274
G2 Y126.382 I29.963 J22.132
G3 X24.226 Y130.438 I-2.413 J1.782
G2 X24.062 Y134.832 I1.957 J2.274
X28.457 Y134.669 I2.121 J-2.121
G3 X32.513 Y134.213 I2.273 J1.957
G2 X49.107 Y141.086 I22.131 J-29.963
G3 X51.653 Y144.277 I-0.446 J2.967
G2 X54.644 Y147.5 I2.992 J0.223
X57.636 Y144.277 J-3
G3 X60.182 Y141.086 I2.992 J-0.224
G2 X76.776 Y134.213 I-5.537 J-36.836
G3 X80.832 Y134.669 I1.782 J2.413
G2 X85.227 Y134.832 I2.274 J-1.957
X85.063 Y130.438 I-2.121 J-2.121
G3 X84.607 Y126.382 I1.957 J-2.274
G2 X87.962 Y120.908 I-29.963 J-22.132
G3 X90.645 Y119.25 I2.683 J1.342
G1 X152.894
G3 X155.894 Y122.25 J3
G2 X158.033 Y124.245 I2
X159.875 Y121.972 I-0.139 J-1.995
G3 X162.02 Y118.672 I2.971 J-0.416
G2 X165.174 Y117.365 I-4.128 J-14.421
G3 X169.025 Y118.182 I1.456 J2.623
G2 X172.036 Y118.392 I1.597 J-1.204
X171.826 Y115.381 I-1.414 J-1.414
G3 X171.009 Y111.53 I1.806 J-2.395
G2 X172.316 Y108.376 I-13.114 J-7.282
G3 X175.616 Y106.231 I2.884 J0.826
G2 X177.894 Y104.25 I0.278 J-1.981
X175.616 Y102.269 I-2
G3 X172.316 Y100.124 I-0.416 J-2.971
G2 X171.009 Y96.971 I-14.421 J4.128
G3 X171.826 Y93.119 I2.623 J-1.456
G2 X172.036 Y90.108 I-1.204 J-1.597
X169.025 Y90.318 I-1.414 J1.414
G3 X165.174 Y91.135 I-2.395 J-1.806
G2 X162.021 Y89.829 I-7.28 J13.115
G3 X159.875 Y86.528 I0.825 J-2.884
G2 X158.033 Y84.255 I-1.981 J-0.278
X155.894 Y86.25 I-0.139 J1.995
G3 X154.486 Y88.793 I-3
X152.894 Y89.25 Z1.941 I-1.592 J-2.543 F300
G1 X126.77 Z1.029
Z1.5
X116.77
Z0.68 F30
X97.3 Z0 F300
X90.645 F750
G3 X87.962 Y87.592 J-3
G2 X84.607 Y82.118 I-33.318 J16.658
G3 X85.063 Y78.063 I2.413 J-1.782
G2 X85.227 Y73.668 I-1.957 J-2.273
X80.832 Y73.832 I-2.121 J2.121
G3 X76.776 Y74.287 I-2.274 J-1.957
G2 X60.182 Y67.414 I-22.132 J29.963
G3 X57.636 Y64.224 I0.446 J-2.967
G2 X54.644 Y61 I-2.992 J-0.224
X51.653 Y64.224 J3
G3 X49.107 Y67.414 I-2.992 J0.224
G2 X32.513 Y74.287 I5.537 J36.836
G3 X28.457 Y73.832 I-1.782 J-2.413
G2 X24.062 Y73.668 I-2.274 J1.957
X24.226 Y78.062 I2.121 J2.121
G3 X24.682 Y82.118 I-1.957 J2.274
G2 X17.731 Y99.25 I29.963 J22.132
G1 Z1.5
G2 Y109.25 I36.913 J5
G1 Z0 F30
G2 X24.682 Y126.382 I36.913 J-5 F750
G3 X24.226 Y130.438 I-2.413 J1.782
G2 X24.062 Y134.832 I1.957 J2.274
X28.457 Y134.669 I2.121 J-2.121
G3 X32.513 Y134.213 I2.273 J1.957
G2 X49.107 Y141.086 I22.131 J-29.963
G3 X51.653 Y144.277 I-0.446 J2.967
G2 X54.644 Y147.5 I2.992 J0.223
X57.636 Y144.277 J-3
G3 X60.182 Y141.086 I2.992 J-0.224
G2 X76.776 Y134.213 I-5.537 J-36.836
G3 X80.832 Y134.669 I1.782 J2.413
G2 X85.227 Y134.832 I2.274 J-1.957
X85.063 Y130.438 I-2.121 J-2.121
G3 X84.607 Y126.382 I1.957 J-2.274
G2 X87.962 Y120.908 I-29.963 J-22.132
G3 X90.645 Y119.25 I2.683 J1.342
G1 X116.77
Z1.5
X126.77
Z0 F30
X152.894 F750
G3 X155.894 Y122.25 J3
G2 X158.033 Y124.245 I2
X159.875 Y121.972 I-0.139 J-1.995
G3 X162.02 Y118.672 I2.971 J-0.416
G2 X165.174 Y117.365 I-4.128 J-14.421
G3 X169.025 Y118.182 I1.456 J2.623
G2 X172.036 Y118.392 I1.597 J-1.204
X171.826 Y115.381 I-1.414 J-1.414
G3 X171.009 Y111.53 I1.806 J-2.395
G2 X172.316 Y108.376 I-13.114 J-7.282
G3 X175.616 Y106.231 I2.884 J0.826
G2 X177.894 Y104.25 I0.278 J-1.981
X175.616 Y102.269 I-2
G3 X172.316 Y100.124 I-0.416 J-2.971
G2 X171.009 Y96.971 I-14.421 J4.128
G3 X171.826 Y93.119 I2.623 J-1.456
G2 X172.036 Y90.108 I-1.204 J-1.597
X169.025 Y90.318 I-1.414 J1.414
G3 X165.174 Y91.135 I-2.395 J-1.806
G2 X162.021 Y89.829 I-7.28 J13.115
G3 X159.875 Y86.528 I0.825 J-2.884
G2 X158.033 Y84.255 I-1.981 J-0.278
X155.894 Y86.25 I-0.139 J1.995
G3 X152.894 Y89.25 I-3
G1 X126.77
Z1.5
X116.77
Z0 F30
X90.645 F750
G3 X87.962 Y87.592 J-3
G2 X84.607 Y82.118 I-33.318 J16.658
G3 X85.063 Y78.063 I2.413 J-1.782
G2 X85.227 Y73.668 I-1.957 J-2.273
X80.832 Y73.832 I-2.121 J2.121
G3 X76.776 Y74.287 I-2.274 J-1.957
G2 X60.182 Y67.414 I-22.132 J29.963
G3 X57.636 Y64.224 I0.446 J-2.967
G2 X54.644 Y61 I-2.992 J-0.224
X51.653 Y64.224 J3
G3 X49.107 Y67.414 I-2.992 J0.224
G2 X32.513 Y74.287 I5.537 J36.836
G3 X28.457 Y73.832 I-1.782 J-2.413
G2 X24.062 Y73.668 I-2.274 J1.957
X24.226 Y78.062 I2.121 J2.121
G3 X24.682 Y82.118 I-1.957 J2.274
G2 X17.731 Y99.25 I29.963 J22.132
G1 Z1.5
G2 Y109.25 I36.913 J5
G1 Z0 F30
G2 X24.682 Y126.382 I36.913 J-5 F750
G3 X24.226 Y130.438 I-2.413 J1.782
G2 X24.062 Y134.832 I1.957 J2.274
X28.457 Y134.669 I2.121 J-2.121
G3 X32.513 Y134.213 I2.273 J1.957
G2 X49.107 Y141.086 I22.131 J-29.963
G3 X51.653 Y144.277 I-0.446 J2.967
G2 X54.644 Y147.5 I2.992 J0.223
X57.636 Y144.277 J-3
G3 X60.182 Y141.086 I2.992 J-0.224
G2 X76.776 Y134.213 I-5.537 J-36.836
G3 X80.832 Y134.669 I1.782 J2.413
G2 X85.227 Y134.832 I2.274 J-1.957
X85.063 Y130.438 I-2.121 J-2.121
G3 X84.607 Y126.382 I1.957 J-2.274
G2 X87.962 Y120.908 I-29.963 J-22.132
G3 X90.645 Y119.25 I2.683 J1.342
G1 X116.77
Z1.5
X126.77
Z0 F30
X152.894 F750
G3 X155.894 Y122.25 J3
G2 X158.033 Y124.245 I2
X159.875 Y121.972 I-0.139 J-1.995
G3 X162.02 Y118.672 I2.971 J-0.416
G2 X165.174 Y117.365 I-4.128 J-14.421
G3 X169.025 Y118.182 I1.456 J2.623
G2 X172.036 Y118.392 I1.597 J-1.204
X171.826 Y115.381 I-1.414 J-1.414
G3 X171.009 Y111.53 I1.806 J-2.395
G2 X172.316 Y108.376 I-13.114 J-7.282
G3 X175.616 Y106.231 I2.884 J0.826
G2 X177.894 Y104.25 I0.278 J-1.981
X175.616 Y102.269 I-2
G3 X172.316 Y100.124 I-0.416 J-2.971
G2 X171.009 Y96.971 I-14.421 J4.128
G3 X171.826 Y93.119 I2.623 J-1.456
G2 X172.036 Y90.108 I-1.204 J-1.597
X169.025 Y90.318 I-1.414 J1.414
G3 X165.174 Y91.135 I-2.395 J-1.806
G2 X162.021 Y89.829 I-7.28 J13.115
G3 X159.875 Y86.528 I0.825 J-2.884
G2 X158.033 Y84.255 I-1.981 J-0.278
X155.894 Y86.25 I-0.139 J1.995
G3 X152.894 Y89.25 I-3
G1 X126.77
Z1.5
X116.77
Z0 F30
X97.3 F750
G2 X96.7 Y89.85 J0.6 F300
G1 Y90.45
G19 G3 Y91.05 Z0.6 K0.6
G0 Z33
G17
M9
M30
%
