%
(1001)
(Dust Shoe acrylic top)
(T1  D=6 CR=0 - ZMIN=0 - flat end mill)
G90 G94
G17
G21

(2D Contour1)
M9
T1 M6
S8000 M3
G54
M9
G0 X111.263 Y120.2
Z33
Z23
G1 Z22 F300
Z21.1 F30
G19 G3 Y120.8 Z20.5 J0.6
G1 Y121.4 F300
G17 G3 X110.663 Y122 I-0.6
G1 X30 Z17.683
G2 X-3 Y155 Z15.873 J33
G1 Y180 Z15
Y205 F850
G2 X30 Y238 I33
G1 X156.5
G2 X189.5 Y205 J-33
G1 Y155
G2 X156.5 Y122 I-33
G1 X30
G2 X-3 Y155 J33
G1 Y180
Y205 Z14.127 F300
G2 X30 Y238 Z12.317 I33
G1 X39.072 Z12
X156.5 F850
G2 X189.5 Y205 J-33
G1 Y155
G2 X156.5 Y122 I-33
G1 X30
G2 X-3 Y155 J33
G1 Y205
G2 X30 Y238 I33
G1 X39.072
X124.981 Z9 F300
X156.5 F850
G2 X189.5 Y205 J-33
G1 Y155
G2 X156.5 Y122 I-33
G1 X30
G2 X-3 Y155 J33
G1 Y205
G2 X30 Y238 I33
G1 X124.981
X156.5 Z7.899 F300
G2 X189.5 Y205 Z6.089 J-33
G1 Y202.446 Z6
Y155 F850
G2 X156.5 Y122 I-33
G1 X30
G2 X-3 Y155 J33
G1 Y205
G2 X30 Y238 I33
G1 X156.5
G2 X189.5 Y205 J-33
G1 Y202.446
Y155 Z4.343 F300
G2 X169.511 Y124.673 Z3 I-33
X156.5 Y122 I-13.011 J30.327 F850
G1 X30
G2 X-3 Y155 J33
G1 Y205
G2 X30 Y238 I33
G1 X156.5
G2 X189.5 Y205 J-33
G1 Y155
G2 X169.511 Y124.673 I-33
X156.5 Y122 Z2.533 I-13.011 J30.327 F300
G1 X126.919 Z1.5
X119.875
Z1.254 F30
X83.965 Z0 F300
X66.625 F850
Z1.5
X56.625
Z0 F30
X30 F850
G2 X-3 Y155 J33
G1 Y175
Z1.5
Y185
Z0 F30
Y205 F850
G2 X30 Y238 I33
G1 X56.625
Z1.5
X66.625
Z0 F30
X119.875 F850
Z1.5
X129.875
Z0 F30
X156.5 F850
G2 X189.5 Y205 J-33
G1 Y185
Z1.5
Y175
Z0 F30
Y155 F850
G2 X156.5 Y122 I-33
G1 X129.875
Z1.5
X119.875
Z0 F30
X83.965 F850
G3 X83.365 Y121.4 J-0.6 F300
G1 Y120.8
G19 G2 Y120.2 Z0.6 K0.6
G0 Z23
X84.581 Y-4.8
G1 Z22 F300
Z21.1 F30
G3 Y-4.2 Z20.5 J0.6
G1 Y-3.6 F300
G17 G3 X83.981 Y-3 I-0.6
G1 X30 Z18.615
G2 X-3 Y30 Z16.805 J33
G1 Y80 Z15.059
G2 X-2.957 Y81.682 Z15 I33
X30 Y113 I32.957 J-1.682 F850
G1 X156.5
G2 X189.5 Y80 J-33
G1 Y30
G2 X156.5 Y-3 I-33
G1 X30
G2 X-3 Y30 J33
G1 Y80
G2 X-2.957 Y81.682 I33
X30 Y113 Z13.249 I32.957 J-1.682 F300
G1 X65.755 Z12
X156.5 F850
G2 X189.5 Y80 J-33
G1 Y30
G2 X156.5 Y-3 I-33
G1 X30
G2 X-3 Y30 J33
G1 Y80
G2 X30 Y113 I33
G1 X65.755
X151.663 Z9 F300
X156.5 F850
G2 X189.5 Y80 J-33
G1 Y30
G2 X156.5 Y-3 I-33
G1 X30
G2 X-3 Y30 J33
G1 Y80
G2 X30 Y113 I33
G1 X151.663
X156.5 Z8.831 F300
G2 X189.5 Y80 Z7.021 J-33
G1 Y50.764 Z6
Y30 F850
G2 X156.5 Y-3 I-33
G1 X30
G2 X-3 Y30 J33
G1 Y80
G2 X30 Y113 I33
G1 X156.5
G2 X189.5 Y80 J-33
G1 Y50.764
Y30 Z5.275 F300
G2 X156.5 Y-3 Z3.465 I-33
G1 X143.192 Z3
X30 F850
G2 X-3 Y30 J33
G1 Y80
G2 X30 Y113 I33
G1 X156.5
G2 X189.5 Y80 J-33
G1 Y30
G2 X156.5 Y-3 I-33
G1 X143.192
X66.625 Z0.326 F300
Z1.5
X57.283
X56.625 F850
Z0 F30
X30 F850
G2 X-3 Y30 J33
G1 Y50
Z1.5
Y60
Z0 F30
Y80 F850
G2 X30 Y113 I33
G1 X56.625
Z1.5
X66.625
Z0 F30
X119.875 F850
Z1.5
X129.875
Z0 F30
X156.5 F850
G2 X189.5 Y80 J-33
G1 Y60
Z1.5
Y50
Z0 F30
Y30 F850
G2 X156.5 Y-3 I-33
G1 X129.875
Z1.5
X119.875
Z0 F30
X66.625 F850
Z1.5
X57.283
G3 X56.683 Y-3.6 J-0.6 F300
G1 Y-4.8
G0 Z23
X137.945 Y245.2
G1 Z22 F300
Z21.1 F30
G19 G3 Y245.8 Z20.5 J0.6
G1 Y246.4 F300
G17 G3 X137.345 Y247 I-0.6
G1 X30 Z16.751
G2 X-2.957 Y278.318 Z15 J33
X-3 Y280 I32.957 J1.682 F850
G1 Y330
G2 X30 Y363 I33
G1 X155.5
G2 X188.5 Y330 J-33
G1 Y280
G2 X155.5 Y247 I-33
G1 X30
G2 X-2.957 Y278.318 J33
X-3 Y280 Z14.941 I32.957 J1.682 F300
G1 Y330 Z13.195
G2 X13.214 Y358.412 Z12 I33
X30 Y363 I16.786 J-28.412 F850
G1 X155.5
G2 X188.5 Y330 J-33
G1 Y280
G2 X155.5 Y247 I-33
G1 X30
G2 X-3 Y280 J33
G1 Y330
G2 X13.214 Y358.412 I33
X30 Y363 Z11.385 I16.786 J-28.412 F300
G1 X98.299 Z9
X155.5 F850
G2 X188.5 Y330 J-33
G1 Y280
G2 X155.5 Y247 I-33
G1 X30
G2 X-3 Y280 J33
G1 Y330
G2 X30 Y363 I33
G1 X98.299
X155.5 Z7.002 F300
G2 X180.721 Y351.281 Z6 J-33
X188.5 Y330 I-25.221 J-21.281 F850
G1 Y280
G2 X155.5 Y247 I-33
G1 X30
G2 X-3 Y280 J33
G1 Y330
G2 X30 Y363 I33
G1 X155.5
G2 X180.721 Y351.281 J-33
X188.5 Y330 Z5.192 I-25.221 J-21.281 F300
G1 Y280 Z3.446
G2 X186.056 Y267.537 Z3 I-33
X155.5 Y247 I-30.556 J12.463 F850
G1 X30
G2 X-3 Y280 J33
G1 Y330
G2 X30 Y363 I33
G1 X155.5
G2 X188.5 Y330 J-33
G1 Y280
G2 X186.056 Y267.537 I-33
X155.5 Y247 Z1.636 I-30.556 J12.463 F300
G1 X129.125 Z0.715
Z1.5
X119.125
Z0.366 F30
X108.647 Z0 F300
X66.375 F850
Z1.5
X56.375
Z0 F30
X30 F850
G2 X-3 Y280 J33
G1 Y300
Z1.5
Y310
Z0 F30
Y330 F850
G2 X30 Y363 I33
G1 X56.375
Z1.5
X66.375
Z0 F30
X119.125 F850
Z1.5
X129.125
Z0 F30
X155.5 F850
G2 X188.5 Y330 J-33
G1 Y310
Z1.5
Y300
Z0 F30
Y280 F850
G2 X155.5 Y247 I-33
G1 X129.125
Z1.5
X119.125
Z0 F30
X108.647 F850
G3 X108.047 Y246.4 J-0.6 F300
G1 Y245.8
G19 G2 Y245.2 Z0.6 K0.6
G0 Z33
G17
M9
M30
%
