%
(1001)
(z0 slate machine -5-5)
(T1  D=6 CR=0 - ZMIN=0.5 - flat end mill)
G90 G94
G17
G21

(2D Adaptive3 2)
M9
T1 M6
S6000 M3
G54
M9
G0 X-1304.184 Y-56.736
Z30
Z20
Z18.15
G1 Z17.55 F850
G3 X-1301.247 Y-52.868 Z17.347 I0.28 J2.836 F283.3
X-1306.025 Y-51.996 Z17.144 I-2.657 J-1.032
X-1304.645 Y-56.652 Z16.941 I2.12 J-1.904
X-1301.114 Y-53.318 Z16.738 I0.741 J2.752
X-1305.683 Y-51.674 Z16.535 I-2.79 J-0.582
X-1305.087 Y-56.493 Z16.332 I1.779 J-2.226
X-1301.057 Y-53.784 Z16.129 I1.183 J2.593
X-1305.294 Y-51.412 Z15.926 I-2.848 J-0.116
X-1305.496 Y-56.264 Z15.723 I1.39 J-2.488
X-1302.312 Y-51.536 Z15.411 I1.592 J2.364
X-1304.867 Y-51.218 Z15.317 I-1.592 J-2.364
X-1305.862 Y-55.971 Z15.114 I0.963 J-2.682
X-1301.172 Y-54.712 Z14.911 I1.958 J2.071
X-1306.636 Y-53.088 Z14.599 I-2.732 J0.812
X-1306.176 Y-55.621 Z14.505 I2.732 J-0.812
X-1301.342 Y-55.149 Z14.302 I2.271 J1.721
X-1303.947 Y-51.05 Z14.099 I-2.562 J1.249
X-1306.427 Y-55.225 Z13.896 I0.043 J-2.85
X-1301.582 Y-55.552 Z13.693 I2.523 J1.326
X-1303.479 Y-51.082 Z13.49 I-2.322 J1.652
X-1306.61 Y-54.794 Z13.288 I-0.425 J-2.818
X-1301.198 Y-53.006 Z12.975 I2.706 J0.894
X-1303.022 Y-51.19 Z12.882 I-2.706 J-0.894
X-1306.72 Y-54.338 Z12.679 I-0.882 J-2.71
X-1302.242 Y-56.215 Z12.476 I2.816 J0.438
X-1302.59 Y-51.371 Z12.273 I-1.662 J2.315
X-1305.218 Y-56.429 Z11.96 I-1.314 J-2.529
X-1302.193 Y-51.621 Z11.664 I1.314 J2.529
X-1306.71 Y-53.403 Z11.461 I-1.711 J-2.279
X-1303.08 Y-56.628 Z11.258 I2.806 J-0.497
X-1301.842 Y-51.933 Z11.055 I-0.824 J2.728
X-1306.591 Y-52.949 Z10.852 I-2.062 J-1.967
X-1301.218 Y-54.851 Z10.539 I2.687 J-0.951
X-1301.547 Y-52.297 Z10.446 I-2.687 J0.951
X-1306.261 Y-55.502 Z10.133 I-2.357 J-1.602
X-1304.008 Y-56.748 Z10.04 I2.357 J1.602
X-1301.316 Y-52.706 Z9.837 I0.104 J2.848
X-1306.138 Y-52.131 Z9.634 I-2.588 J-1.194
X-1304.474 Y-56.693 Z9.431 I2.234 J-1.769
X-1301.156 Y-53.146 Z9.228 I0.569 J2.793
X-1306.653 Y-54.653 Z8.915 I-2.749 J-0.753
X-1304.924 Y-56.561 Z8.822 I2.749 J0.753
X-1301.069 Y-53.608 Z8.619 I1.02 J2.661
X-1306.739 Y-54.192 Z8.306 I-2.835 J-0.292
X-1301.06 Y-54.077 Z8.01 I2.835 J0.292
X-1305.031 Y-51.282 Z7.807 I-2.844 J0.177
X-1305.73 Y-56.088 Z7.604 I1.127 J-2.618
X-1301.127 Y-54.541 Z7.401 I1.826 J2.188
X-1304.587 Y-51.133 Z7.198 I-2.777 J0.641
X-1306.064 Y-55.759 Z6.995 I0.683 J-2.767
X-1301.27 Y-54.988 Z6.792 I2.16 J1.859
X-1304.124 Y-51.058 Z6.589 I-2.634 J1.088
X-1306.34 Y-55.379 Z6.386 I0.219 J-2.842
X-1301.468 Y-52.421 Z6.074 I2.436 J1.479
X-1303.655 Y-51.061 Z5.98 I-2.436 J-1.479
X-1306.55 Y-54.96 Z5.777 I-0.25 J-2.839
X-1301.764 Y-55.782 Z5.574 I2.646 J1.06
X-1303.192 Y-51.14 Z5.371 I-2.141 J1.882
X-1304.616 Y-56.66 Z5.059 I-0.712 J-2.76
X-1302.101 Y-56.107 Z4.965 I0.712 J2.76
X-1305.707 Y-51.693 Z4.653 I-1.803 J2.207
X-1306.75 Y-54.046 Z4.56 I1.803 J-2.207
X-1302.488 Y-56.373 Z4.357 I2.846 J0.146
X-1305.32 Y-51.427 Z4.044 I-1.416 J2.473
X-1306.736 Y-53.577 Z3.951 I1.416 J-2.473
X-1302.913 Y-56.572 Z3.748 I2.832 J-0.322
X-1301.968 Y-51.809 Z3.545 I-0.991 J2.672
X-1306.645 Y-53.117 Z3.342 I-1.936 J-2.091
X-1303.365 Y-56.698 Z3.139 I2.74 J-0.783
X-1301.651 Y-52.154 Z2.936 I-0.54 J2.798
X-1306.479 Y-52.678 Z2.733 I-2.253 J-1.745
X-1303.831 Y-56.749 Z2.53 I2.575 J-1.222
X-1301.395 Y-52.548 Z2.327 I-0.073 J2.849
X-1306.244 Y-52.273 Z2.124 I-2.509 J-1.352
X-1301.565 Y-55.527 Z1.811 I2.34 J-1.627
X-1301.208 Y-52.978 Z1.718 I-2.34 J1.627
X-1305.945 Y-51.911 Z1.515 I-2.697 J-0.922
X-1304.757 Y-56.619 Z1.312 I2.041 J-1.989
X-1301.093 Y-53.432 Z1.109 I0.853 J2.719
X-1306.716 Y-54.367 Z0.796 I-2.811 J-0.468
X-1305.192 Y-56.443 Z0.703 I2.811 J0.468
X-1301.054 Y-53.9 Z0.5 I1.287 J2.543
X-1303.254 Y-51.125 I-2.85
X-1306.532 Y-52.796 I-0.65 J-2.775
X-1305.431 Y-56.307 I2.628 J-1.104
X-1302.134 Y-56.133 I1.526 J2.407
X-1301.054 Y-53.9 I-1.771 J2.233
G1 X-1301.04 Y-52.942 F850
X-1301.011 Y-52.826
X-1300.991 Y-52.678
X-1300.989 Y-52.528
X-1301.002 Y-52.378
X-1301.029 Y-52.231
X-1301.067 Y-52.086
X-1301.117 Y-51.944
X-1301.176 Y-51.806
X-1301.244 Y-51.673
X-1301.32 Y-51.543
X-1301.405 Y-51.419
X-1301.496 Y-51.3
X-1301.597 Y-51.182
X-1301.708 Y-51.067
X-1301.828 Y-50.955
X-1301.958 Y-50.848
X-1302.096 Y-50.746
X-1302.242 Y-50.65
X-1302.397 Y-50.561
X-1302.559 Y-50.479
X-1302.728 Y-50.405
X-1302.904 Y-50.34
X-1303.085 Y-50.285
X-1303.271 Y-50.239
X-1303.462 Y-50.203
X-1303.656 Y-50.178
X-1303.853 Y-50.164
X-1304.052 Y-50.16
X-1304.252 Y-50.168
X-1304.453 Y-50.188
X-1304.653 Y-50.219
X-1304.853 Y-50.261
X-1305.051 Y-50.315
X-1305.246 Y-50.38
X-1305.438 Y-50.456
X-1305.626 Y-50.543
X-1305.81 Y-50.641
X-1305.988 Y-50.75
X-1306.16 Y-50.868
X-1306.326 Y-50.997
X-1306.484 Y-51.135
X-1306.635 Y-51.282
X-1306.777 Y-51.437
X-1306.911 Y-51.6
X-1307.035 Y-51.771
X-1307.15 Y-51.949
X-1307.255 Y-52.133
X-1307.349 Y-52.323
X-1307.432 Y-52.518
X-1307.505 Y-52.718
X-1307.566 Y-52.921
X-1307.615 Y-53.128
X-1307.653 Y-53.337
X-1307.679 Y-53.549
X-1307.693 Y-53.761
X-1307.696 Y-53.974
X-1307.686 Y-54.187
X-1307.664 Y-54.399
X-1307.63 Y-54.609
X-1307.584 Y-54.818
X-1307.527 Y-55.023
X-1307.458 Y-55.225
X-1307.378 Y-55.423
X-1307.287 Y-55.616
X-1307.186 Y-55.804
X-1307.073 Y-55.985
X-1306.951 Y-56.16
X-1306.819 Y-56.328
X-1306.678 Y-56.488
X-1306.528 Y-56.64
X-1306.37 Y-56.784
X-1306.203 Y-56.918
X-1306.03 Y-57.043
X-1305.85 Y-57.157
X-1305.663 Y-57.262
X-1305.471 Y-57.355
X-1305.274 Y-57.438
X-1305.073 Y-57.51
X-1304.868 Y-57.57
X-1304.66 Y-57.618
X-1304.449 Y-57.655
X-1304.237 Y-57.68
X-1304.024 Y-57.692
X-1303.81 Y-57.693
X-1303.597 Y-57.682
X-1303.384 Y-57.659
X-1303.174 Y-57.623
X-1302.965 Y-57.576
X-1302.76 Y-57.518
X-1302.558 Y-57.448
X-1302.36 Y-57.366
X-1302.167 Y-57.274
X-1301.98 Y-57.171
X-1301.799 Y-57.057
X-1301.625 Y-56.934
X-1301.458 Y-56.8
X-1301.298 Y-56.658
X-1301.147 Y-56.507
X-1301.005 Y-56.348
X-1300.871 Y-56.181
X-1300.748 Y-56.006
X-1300.634 Y-55.825
X-1300.531 Y-55.638
X-1300.427 Y-55.421
X-1300.298 Y-55.109
X-1300.146 Y-54.673
X-1300.049 Y-54.332
X-1299.981 Y-54.034
X-1299.936 Y-53.762
X-1299.908 Y-53.507
X-1299.906 Y-53.465
X-1299.903 Y-53.35
X-1299.906 Y-53.235
X-1299.917 Y-53.12
X-1299.926 Y-53.047
X-1299.953 Y-52.938
X-1300.218 Y-52.176
X-1300.253 Y-52.1
X-1300.299 Y-52.024
X-1300.611 Y-51.523
X-1300.734 Y-51.342
X-1300.767 Y-51.306
X-1301.205 Y-50.871
X-1301.387 Y-50.701
X-1301.459 Y-50.653
X-1302.04 Y-50.288
X-1302.165 Y-50.218
X-1302.257 Y-50.184
X-1302.91 Y-49.954
X-1303.019 Y-49.923
X-1303.128 Y-49.909
X-1303.781 Y-49.836
X-1303.889 Y-49.826
X-1303.998 Y-49.833
X-1304.76 Y-49.919
X-1304.869 Y-49.943
X-1305.522 Y-50.173
X-1305.645 Y-50.218
X-1305.739 Y-50.269
X-1306.392 Y-50.68
X-1306.445 Y-50.717
X-1306.499 Y-50.765
X-1307.045 Y-51.308
X-1307.093 Y-51.362
X-1307.131 Y-51.416
X-1307.543 Y-52.075
X-1307.592 Y-52.176
X-1307.857 Y-52.938
X-1307.882 Y-53.047
X-1307.955 Y-53.7
X-1307.973 Y-53.917
X-1307.952 Y-54.135
X-1307.903 Y-54.57
X-1307.876 Y-54.788
X-1307.808 Y-55.005
X-1307.656 Y-55.441
X-1307.578 Y-55.658
X-1307.48 Y-55.825
X-1307.177 Y-56.311
X-1307.12 Y-56.401
X-1307.045 Y-56.492
X-1306.481 Y-57.052
X-1306.392 Y-57.121
X-1305.739 Y-57.531
X-1305.646 Y-57.582
X-1305.522 Y-57.627
X-1304.869 Y-57.857
X-1304.76 Y-57.881
X-1303.998 Y-57.967
X-1303.889 Y-57.974
X-1303.781 Y-57.964
X-1303.128 Y-57.891
X-1303.019 Y-57.877
X-1302.91 Y-57.846
X-1302.257 Y-57.616
X-1302.148 Y-57.575
X-1302.04 Y-57.512
X-1301.514 Y-57.182
X-1301.387 Y-57.1
X-1301.24 Y-56.964
X-1300.802 Y-56.529
X-1300.734 Y-56.458
X-1300.633 Y-56.311
X-1300.299 Y-55.776
X-1300.232 Y-55.658
X-1300.154 Y-55.441
X-1300.002 Y-55.005
X-1299.932 Y-54.788
X-1299.904 Y-54.57
X-1299.852 Y-54.135
X-1299.829 Y-53.917
X-1299.848 Y-53.7
X-1299.917 Y-53.12
G3 X-1299.997 Y-52.9 I-0.593 J-0.092
G1 X-1300.046 Y-52.82 Z0.507
X-1300.094 Y-52.742 Z0.529
X-1300.139 Y-52.667 Z0.565
X-1300.181 Y-52.599 Z0.615
X-1300.218 Y-52.538 Z0.676
X-1300.25 Y-52.485 Z0.747
X-1300.276 Y-52.443 Z0.828
X-1300.294 Y-52.413 Z0.915
X-1300.306 Y-52.394 Z1.006
X-1300.31 Y-52.388 Z1.1
G0 Z30

(2D Contour3 2)
S8000 M3
M9
X-1303.9 Y-53.9
Z30
Z20
G1 Z0.5 F850
G3 X-1303.84 Y-53.48 I-0.18 J0.24
G1 X-1306.24 Y-50.28
G3 X-1306.66 Y-50.22 I-0.24 J-0.18
Y-57.58 I2.76 J-3.68
X-1299.3 Y-53.9 I2.76 J3.68
X-1306.66 Y-50.22 I-4.6
Y-57.58 I2.76 J-3.68
X-1299.3 Y-53.9 I2.76 J3.68
X-1306.66 Y-50.22 I-4.6
X-1306.78 Y-51.06 I0.36 J-0.48
G1 X-1306.42 Y-51.54
X-1306.364 Y-51.615 Z0.507
X-1306.309 Y-51.688 Z0.529
X-1306.257 Y-51.758 Z0.565
X-1306.208 Y-51.822 Z0.615
X-1306.165 Y-51.879 Z0.676
X-1306.129 Y-51.928 Z0.747
X-1306.099 Y-51.968 Z0.828
X-1306.078 Y-51.997 Z0.915
X-1306.064 Y-52.014 Z1.006
X-1306.06 Y-52.02 Z1.1
G0 Z30

(2D Adaptive3 2)
S6000 M3
M9
X-174.184 Y-56.736
Z30
Z20
Z18.15
G1 Z17.55 F850
G3 X-171.247 Y-52.868 Z17.347 I0.28 J2.836 F283.3
X-176.025 Y-51.996 Z17.144 I-2.657 J-1.032
X-174.645 Y-56.652 Z16.941 I2.12 J-1.904
X-171.114 Y-53.318 Z16.738 I0.741 J2.752
X-175.683 Y-51.674 Z16.535 I-2.79 J-0.582
X-175.087 Y-56.493 Z16.332 I1.779 J-2.226
X-171.057 Y-53.784 Z16.129 I1.183 J2.593
X-175.294 Y-51.412 Z15.926 I-2.848 J-0.116
X-175.496 Y-56.264 Z15.723 I1.39 J-2.488
X-172.312 Y-51.536 Z15.411 I1.592 J2.364
X-174.867 Y-51.218 Z15.317 I-1.592 J-2.364
X-175.862 Y-55.971 Z15.114 I0.963 J-2.682
X-171.172 Y-54.712 Z14.911 I1.958 J2.071
X-176.636 Y-53.088 Z14.599 I-2.732 J0.812
X-176.176 Y-55.621 Z14.505 I2.732 J-0.812
X-171.342 Y-55.149 Z14.302 I2.271 J1.721
X-173.947 Y-51.05 Z14.099 I-2.562 J1.249
X-176.427 Y-55.225 Z13.896 I0.043 J-2.85
X-171.582 Y-55.552 Z13.693 I2.523 J1.326
X-173.479 Y-51.082 Z13.49 I-2.322 J1.652
X-176.61 Y-54.794 Z13.288 I-0.425 J-2.818
X-171.198 Y-53.006 Z12.975 I2.706 J0.894
X-173.022 Y-51.19 Z12.882 I-2.706 J-0.894
X-176.72 Y-54.338 Z12.679 I-0.882 J-2.71
X-172.242 Y-56.215 Z12.476 I2.816 J0.438
X-172.59 Y-51.371 Z12.273 I-1.662 J2.315
X-175.218 Y-56.429 Z11.96 I-1.314 J-2.529
X-172.193 Y-51.621 Z11.664 I1.314 J2.529
X-176.71 Y-53.403 Z11.461 I-1.711 J-2.279
X-173.08 Y-56.628 Z11.258 I2.806 J-0.497
X-171.842 Y-51.933 Z11.055 I-0.824 J2.728
X-176.591 Y-52.949 Z10.852 I-2.062 J-1.967
X-171.218 Y-54.851 Z10.539 I2.687 J-0.951
X-171.547 Y-52.297 Z10.446 I-2.687 J0.951
X-176.261 Y-55.502 Z10.133 I-2.357 J-1.602
X-174.008 Y-56.748 Z10.04 I2.357 J1.602
X-171.316 Y-52.706 Z9.837 I0.104 J2.848
X-176.138 Y-52.131 Z9.634 I-2.588 J-1.194
X-174.474 Y-56.693 Z9.431 I2.234 J-1.769
X-171.156 Y-53.146 Z9.228 I0.569 J2.793
X-176.653 Y-54.653 Z8.915 I-2.749 J-0.753
X-174.924 Y-56.561 Z8.822 I2.749 J0.753
X-171.069 Y-53.608 Z8.619 I1.02 J2.661
X-176.739 Y-54.192 Z8.306 I-2.835 J-0.292
X-171.06 Y-54.077 Z8.01 I2.835 J0.292
X-175.031 Y-51.282 Z7.807 I-2.844 J0.177
X-175.73 Y-56.088 Z7.604 I1.127 J-2.618
X-171.127 Y-54.541 Z7.401 I1.826 J2.188
X-174.587 Y-51.133 Z7.198 I-2.777 J0.641
X-176.064 Y-55.759 Z6.995 I0.683 J-2.767
X-171.27 Y-54.988 Z6.792 I2.16 J1.859
X-174.124 Y-51.058 Z6.589 I-2.634 J1.088
X-176.34 Y-55.379 Z6.386 I0.219 J-2.842
X-171.468 Y-52.421 Z6.074 I2.436 J1.479
X-173.655 Y-51.061 Z5.98 I-2.436 J-1.479
X-176.55 Y-54.96 Z5.777 I-0.25 J-2.839
X-171.764 Y-55.782 Z5.574 I2.646 J1.06
X-173.192 Y-51.14 Z5.371 I-2.141 J1.882
X-174.616 Y-56.66 Z5.059 I-0.712 J-2.76
X-172.101 Y-56.107 Z4.965 I0.712 J2.76
X-175.707 Y-51.693 Z4.653 I-1.803 J2.207
X-176.75 Y-54.046 Z4.56 I1.803 J-2.207
X-172.488 Y-56.373 Z4.357 I2.846 J0.146
X-175.32 Y-51.427 Z4.044 I-1.416 J2.473
X-176.736 Y-53.577 Z3.951 I1.416 J-2.473
X-172.913 Y-56.572 Z3.748 I2.832 J-0.322
X-171.968 Y-51.809 Z3.545 I-0.991 J2.672
X-176.645 Y-53.117 Z3.342 I-1.936 J-2.091
X-173.365 Y-56.698 Z3.139 I2.74 J-0.783
X-171.651 Y-52.154 Z2.936 I-0.54 J2.798
X-176.479 Y-52.678 Z2.733 I-2.253 J-1.745
X-173.831 Y-56.749 Z2.53 I2.575 J-1.222
X-171.395 Y-52.548 Z2.327 I-0.073 J2.849
X-176.244 Y-52.273 Z2.124 I-2.509 J-1.352
X-171.565 Y-55.527 Z1.811 I2.34 J-1.627
X-171.208 Y-52.978 Z1.718 I-2.34 J1.627
X-175.945 Y-51.911 Z1.515 I-2.697 J-0.922
X-174.757 Y-56.619 Z1.312 I2.041 J-1.989
X-171.093 Y-53.432 Z1.109 I0.853 J2.719
X-176.716 Y-54.367 Z0.796 I-2.811 J-0.468
X-175.192 Y-56.443 Z0.703 I2.811 J0.468
X-171.054 Y-53.9 Z0.5 I1.287 J2.543
X-173.254 Y-51.125 I-2.85
X-176.532 Y-52.796 I-0.65 J-2.775
X-175.431 Y-56.307 I2.628 J-1.104
X-172.134 Y-56.133 I1.526 J2.407
X-171.054 Y-53.9 I-1.771 J2.233
G1 X-171.04 Y-52.942 F850
X-171.011 Y-52.826
X-170.991 Y-52.678
X-170.989 Y-52.528
X-171.002 Y-52.378
X-171.029 Y-52.231
X-171.067 Y-52.086
X-171.117 Y-51.944
X-171.176 Y-51.806
X-171.244 Y-51.673
X-171.32 Y-51.543
X-171.405 Y-51.419
X-171.496 Y-51.3
X-171.597 Y-51.182
X-171.708 Y-51.067
X-171.828 Y-50.955
X-171.958 Y-50.848
X-172.096 Y-50.746
X-172.242 Y-50.65
X-172.397 Y-50.561
X-172.559 Y-50.479
X-172.728 Y-50.405
X-172.904 Y-50.34
X-173.085 Y-50.285
X-173.271 Y-50.239
X-173.462 Y-50.203
X-173.656 Y-50.178
X-173.853 Y-50.164
X-174.052 Y-50.16
X-174.252 Y-50.168
X-174.453 Y-50.188
X-174.653 Y-50.219
X-174.853 Y-50.261
X-175.051 Y-50.315
X-175.246 Y-50.38
X-175.438 Y-50.456
X-175.626 Y-50.543
X-175.81 Y-50.641
X-175.988 Y-50.75
X-176.16 Y-50.868
X-176.326 Y-50.997
X-176.484 Y-51.135
X-176.635 Y-51.282
X-176.777 Y-51.437
X-176.911 Y-51.6
X-177.035 Y-51.771
X-177.15 Y-51.949
X-177.255 Y-52.133
X-177.349 Y-52.323
X-177.432 Y-52.518
X-177.505 Y-52.718
X-177.566 Y-52.921
X-177.615 Y-53.128
X-177.653 Y-53.337
X-177.679 Y-53.549
X-177.693 Y-53.761
X-177.696 Y-53.974
X-177.686 Y-54.187
X-177.664 Y-54.399
X-177.63 Y-54.609
X-177.584 Y-54.818
X-177.527 Y-55.023
X-177.458 Y-55.225
X-177.378 Y-55.423
X-177.287 Y-55.616
X-177.186 Y-55.804
X-177.073 Y-55.985
X-176.951 Y-56.16
X-176.819 Y-56.328
X-176.678 Y-56.488
X-176.528 Y-56.64
X-176.37 Y-56.784
X-176.203 Y-56.918
X-176.03 Y-57.043
X-175.85 Y-57.157
X-175.663 Y-57.262
X-175.471 Y-57.355
X-175.274 Y-57.438
X-175.073 Y-57.51
X-174.868 Y-57.57
X-174.66 Y-57.618
X-174.449 Y-57.655
X-174.237 Y-57.68
X-174.024 Y-57.692
X-173.81 Y-57.693
X-173.597 Y-57.682
X-173.384 Y-57.659
X-173.174 Y-57.623
X-172.965 Y-57.576
X-172.76 Y-57.518
X-172.558 Y-57.448
X-172.36 Y-57.366
X-172.167 Y-57.274
X-171.98 Y-57.171
X-171.799 Y-57.057
X-171.625 Y-56.934
X-171.458 Y-56.8
X-171.298 Y-56.658
X-171.147 Y-56.507
X-171.005 Y-56.348
X-170.871 Y-56.181
X-170.748 Y-56.006
X-170.634 Y-55.825
X-170.531 Y-55.638
X-170.427 Y-55.421
X-170.298 Y-55.109
X-170.146 Y-54.673
X-170.049 Y-54.332
X-169.981 Y-54.034
X-169.936 Y-53.762
X-169.908 Y-53.507
X-169.906 Y-53.465
X-169.903 Y-53.35
X-169.906 Y-53.235
X-169.917 Y-53.12
X-169.926 Y-53.047
X-169.953 Y-52.938
X-170.218 Y-52.176
X-170.253 Y-52.1
X-170.299 Y-52.024
X-170.611 Y-51.523
X-170.734 Y-51.342
X-170.767 Y-51.306
X-171.205 Y-50.871
X-171.387 Y-50.701
X-171.459 Y-50.653
X-172.04 Y-50.288
X-172.165 Y-50.218
X-172.257 Y-50.184
X-172.91 Y-49.954
X-173.019 Y-49.923
X-173.128 Y-49.909
X-173.781 Y-49.836
X-173.889 Y-49.826
X-173.998 Y-49.833
X-174.76 Y-49.919
X-174.869 Y-49.943
X-175.522 Y-50.173
X-175.645 Y-50.218
X-175.739 Y-50.269
X-176.392 Y-50.68
X-176.445 Y-50.717
X-176.499 Y-50.765
X-177.045 Y-51.308
X-177.093 Y-51.362
X-177.131 Y-51.416
X-177.543 Y-52.075
X-177.592 Y-52.176
X-177.857 Y-52.938
X-177.882 Y-53.047
X-177.955 Y-53.7
X-177.973 Y-53.917
X-177.952 Y-54.135
X-177.903 Y-54.57
X-177.876 Y-54.788
X-177.808 Y-55.005
X-177.656 Y-55.441
X-177.578 Y-55.658
X-177.48 Y-55.825
X-177.177 Y-56.311
X-177.12 Y-56.401
X-177.045 Y-56.492
X-176.481 Y-57.052
X-176.392 Y-57.121
X-175.739 Y-57.531
X-175.646 Y-57.582
X-175.522 Y-57.627
X-174.869 Y-57.857
X-174.76 Y-57.881
X-173.998 Y-57.967
X-173.889 Y-57.974
X-173.781 Y-57.964
X-173.128 Y-57.891
X-173.019 Y-57.877
X-172.91 Y-57.846
X-172.257 Y-57.616
X-172.148 Y-57.575
X-172.04 Y-57.512
X-171.514 Y-57.182
X-171.387 Y-57.1
X-171.24 Y-56.964
X-170.802 Y-56.529
X-170.734 Y-56.458
X-170.633 Y-56.311
X-170.299 Y-55.776
X-170.232 Y-55.658
X-170.154 Y-55.441
X-170.002 Y-55.005
X-169.932 Y-54.788
X-169.904 Y-54.57
X-169.852 Y-54.135
X-169.829 Y-53.917
X-169.848 Y-53.7
X-169.917 Y-53.12
G3 X-169.997 Y-52.9 I-0.593 J-0.092
G1 X-170.046 Y-52.82 Z0.507
X-170.094 Y-52.742 Z0.529
X-170.139 Y-52.667 Z0.565
X-170.181 Y-52.599 Z0.615
X-170.218 Y-52.538 Z0.676
X-170.25 Y-52.485 Z0.747
X-170.276 Y-52.443 Z0.828
X-170.294 Y-52.413 Z0.915
X-170.306 Y-52.394 Z1.006
X-170.31 Y-52.388 Z1.1
G0 Z30

(2D Contour3 2)
S8000 M3
M9
X-173.9 Y-53.9
Z30
Z20
G1 Z0.5 F850
G3 X-173.84 Y-53.48 I-0.18 J0.24
G1 X-176.24 Y-50.28
G3 X-176.66 Y-50.22 I-0.24 J-0.18
Y-57.58 I2.76 J-3.68
X-169.3 Y-53.9 I2.76 J3.68
X-176.66 Y-50.22 I-4.6
Y-57.58 I2.76 J-3.68
X-169.3 Y-53.9 I2.76 J3.68
X-176.66 Y-50.22 I-4.6
X-176.78 Y-51.06 I0.36 J-0.48
G1 X-176.42 Y-51.54
X-176.364 Y-51.615 Z0.507
X-176.309 Y-51.688 Z0.529
X-176.257 Y-51.758 Z0.565
X-176.208 Y-51.822 Z0.615
X-176.165 Y-51.879 Z0.676
X-176.129 Y-51.928 Z0.747
X-176.099 Y-51.968 Z0.828
X-176.078 Y-51.997 Z0.915
X-176.064 Y-52.014 Z1.006
X-176.06 Y-52.02 Z1.1
G0 Z30
M9
M30
%
