%
(1001)
(z0 slate machine -5-5)
(T1  D=6 CR=0 - ZMIN=2 - flat end mill)
G90 G94
G17
G21

(2D Adaptive3)
M9
T1 M6
S6000 M3
G54
M9
G0 X-1356.604 Y-538.5
Z30
Z20
Z15.65
G1 Z15.05 F850
Z2
X-1356.569 Y-538.513
X-1356.538 Y-538.491
X-1356.545 Y-538.454
X-1356.571 Y-538.428
X-1356.608 Y-538.419
X-1356.644 Y-538.428
X-1356.672 Y-538.453
X-1356.687 Y-538.488
X-1356.685 Y-538.525
X-1356.667 Y-538.558
X-1356.638 Y-538.582
X-1356.602 Y-538.592
X-1356.564 Y-538.593
X-1356.528 Y-538.582
X-1356.498 Y-538.56
X-1356.477 Y-538.529
X-1356.466 Y-538.493
X-1356.465 Y-538.456
X-1356.476 Y-538.42
X-1356.515 Y-538.355
X-1356.58 Y-538.319
X-1356.655 Y-538.315
X-1356.725 Y-538.342
X-1356.779 Y-538.395
X-1356.809 Y-538.463
X-1356.813 Y-538.538
X-1356.79 Y-538.609
X-1356.745 Y-538.67
X-1356.685 Y-538.714
X-1356.613 Y-538.737
X-1356.538 Y-538.738
X-1356.466 Y-538.718
X-1356.403 Y-538.678
X-1356.352 Y-538.622
X-1356.286 Y-538.488
X-1356.292 Y-538.338
X-1356.365 Y-538.207
X-1356.485 Y-538.117
X-1356.631 Y-538.082
X-1356.779 Y-538.103
X-1356.911 Y-538.175
X-1357.01 Y-538.288
X-1357.066 Y-538.427
X-1357.074 Y-538.577
X-1357.037 Y-538.722
X-1356.957 Y-538.849
X-1356.844 Y-538.948
X-1356.708 Y-539.01
X-1356.559 Y-539.031
X-1356.41 Y-539.012
X-1356.271 Y-538.956
X-1356.15 Y-538.867
X-1356.054 Y-538.752
X-1355.99 Y-538.617
X-1355.958 Y-538.47
X-1355.962 Y-538.32
X-1355.999 Y-538.175
X-1356.069 Y-538.042
X-1356.164 Y-537.926
X-1356.283 Y-537.834
X-1356.417 Y-537.768
X-1356.563 Y-537.731
X-1356.713 Y-537.724
X-1356.861 Y-537.745
X-1357.002 Y-537.797
X-1357.131 Y-537.872
X-1357.244 Y-537.971
X-1357.337 Y-538.089
X-1357.407 Y-538.222
X-1357.452 Y-538.365
X-1357.473 Y-538.513
X-1357.466 Y-538.663
X-1357.435 Y-538.81
X-1357.379 Y-538.949
X-1357.301 Y-539.077
X-1357.203 Y-539.191
X-1357.088 Y-539.287
X-1356.959 Y-539.364
X-1356.82 Y-539.419
X-1356.674 Y-539.453
X-1356.524 Y-539.464
X-1356.375 Y-539.452
X-1356.228 Y-539.419
X-1356.089 Y-539.364
X-1355.958 Y-539.29
X-1355.84 Y-539.198
X-1355.736 Y-539.089
X-1355.648 Y-538.968
X-1355.578 Y-538.835
X-1355.527 Y-538.694
X-1355.495 Y-538.547
X-1355.484 Y-538.398
X-1355.493 Y-538.248
X-1355.521 Y-538.101
X-1355.568 Y-537.958
X-1355.633 Y-537.823
X-1355.716 Y-537.698
X-1355.813 Y-537.584
X-1355.924 Y-537.482
X-1356.046 Y-537.396
X-1356.178 Y-537.325
X-1356.318 Y-537.271
X-1356.464 Y-537.234
X-1356.612 Y-537.215
X-1356.762 Y-537.214
X-1356.912 Y-537.23
X-1357.058 Y-537.263
X-1357.199 Y-537.314
X-1357.334 Y-537.379
X-1357.46 Y-537.46
X-1357.576 Y-537.555
X-1357.682 Y-537.662
X-1357.774 Y-537.78
X-1357.853 Y-537.908
X-1357.918 Y-538.043
X-1357.967 Y-538.185
X-1358.001 Y-538.331
X-1358.02 Y-538.48
X-1358.022 Y-538.63
X-1358.008 Y-538.779
X-1357.979 Y-538.926
X-1357.935 Y-539.069
X-1357.876 Y-539.208
X-1357.804 Y-539.339
X-1357.718 Y-539.462
X-1357.621 Y-539.576
X-1357.512 Y-539.679
X-1357.394 Y-539.772
X-1357.267 Y-539.852
X-1357.133 Y-539.919
X-1356.993 Y-539.973
X-1356.849 Y-540.013
X-1356.701 Y-540.039
X-1356.551 Y-540.051
X-1356.401 Y-540.049
X-1356.252 Y-540.032
X-1356.105 Y-540.002
X-1355.962 Y-539.958
X-1355.823 Y-539.901
X-1355.69 Y-539.832
X-1355.564 Y-539.75
X-1355.446 Y-539.658
X-1355.337 Y-539.555
X-1355.237 Y-539.443
X-1355.148 Y-539.322
X-1355.07 Y-539.194
X-1355.004 Y-539.059
X-1354.95 Y-538.919
X-1354.908 Y-538.775
X-1354.879 Y-538.628
X-1354.862 Y-538.479
X-1354.859 Y-538.329
X-1354.868 Y-538.18
X-1354.891 Y-538.031
X-1354.925 Y-537.885
X-1354.972 Y-537.743
X-1355.03 Y-537.605
X-1355.1 Y-537.472
X-1355.181 Y-537.345
X-1355.271 Y-537.226
X-1355.371 Y-537.114
X-1355.48 Y-537.011
X-1355.597 Y-536.917
X-1355.722 Y-536.833
X-1355.852 Y-536.759
X-1355.988 Y-536.696
X-1356.129 Y-536.644
X-1356.273 Y-536.603
X-1356.42 Y-536.573
X-1356.569 Y-536.555
X-1356.719 Y-536.549
X-1356.869 Y-536.555
X-1357.018 Y-536.572
X-1357.165 Y-536.6
X-1357.31 Y-536.64
X-1357.451 Y-536.691
X-1357.588 Y-536.752
X-1357.72 Y-536.823
X-1357.846 Y-536.904
X-1357.966 Y-536.995
X-1358.079 Y-537.094
X-1358.184 Y-537.201
X-1358.281 Y-537.315
X-1358.369 Y-537.436
X-1358.448 Y-537.564
X-1358.518 Y-537.697
X-1358.577 Y-537.834
X-1358.627 Y-537.976
X-1358.666 Y-538.121
X-1358.695 Y-538.268
X-1358.713 Y-538.417
X-1358.721 Y-538.567
X-1358.718 Y-538.717
X-1358.704 Y-538.866
X-1358.68 Y-539.014
X-1358.645 Y-539.16
X-1358.601 Y-539.303
X-1358.546 Y-539.443
X-1358.483 Y-539.579
X-1358.409 Y-539.71
X-1358.327 Y-539.835
X-1358.237 Y-539.955
X-1358.139 Y-540.068
X-1358.033 Y-540.174
X-1357.92 Y-540.273
X-1357.801 Y-540.365
X-1357.676 Y-540.448
X-1357.546 Y-540.522
X-1357.411 Y-540.588
X-1357.272 Y-540.644
X-1357.13 Y-540.691
X-1356.984 Y-540.729
X-1356.837 Y-540.757
X-1356.688 Y-540.776
X-1356.538 Y-540.784
X-1356.388 Y-540.783
X-1356.239 Y-540.772
X-1356.09 Y-540.752
X-1355.943 Y-540.722
X-1355.798 Y-540.683
X-1355.656 Y-540.635
X-1355.518 Y-540.578
X-1355.383 Y-540.512
X-1355.253 Y-540.437
X-1355.127 Y-540.355
X-1355.007 Y-540.265
X-1354.893 Y-540.168
X-1354.785 Y-540.063
X-1354.684 Y-539.953
X-1354.59 Y-539.836
X-1354.504 Y-539.713
X-1354.424 Y-539.586
X-1354.353 Y-539.454
X-1354.291 Y-539.318
X-1354.236 Y-539.178
X-1354.19 Y-539.035
X-1354.153 Y-538.89
X-1354.125 Y-538.742
X-1354.105 Y-538.594
X-1354.095 Y-538.444
X-1354.093 Y-538.294
X-1354.101 Y-538.144
X-1354.117 Y-537.995
X-1354.142 Y-537.847
X-1354.176 Y-537.701
X-1354.218 Y-537.557
X-1354.269 Y-537.416
X-1354.328 Y-537.278
X-1354.395 Y-537.144
X-1354.469 Y-537.013
X-1354.551 Y-536.888
X-1354.64 Y-536.767
X-1354.736 Y-536.652
X-1354.838 Y-536.542
X-1354.946 Y-536.438
X-1355.061 Y-536.341
X-1355.18 Y-536.25
X-1355.306 Y-536.166
X-1355.435 Y-536.089
X-1355.568 Y-536.02
X-1355.706 Y-535.958
X-1355.849 Y-535.903
X-1355.992 Y-535.858
X-1356.137 Y-535.82
X-1356.288 Y-535.79
X-1356.44 Y-535.768
X-1356.591 Y-535.756
X-1356.744 Y-535.751
X-1356.9 Y-535.756
X-1357.054 Y-535.769
X-1357.205 Y-535.791
X-1357.357 Y-535.821
X-1357.51 Y-535.861
X-1357.659 Y-535.908
X-1357.803 Y-535.964
X-1357.946 Y-536.028
X-1358.087 Y-536.102
X-1358.224 Y-536.182
X-1358.354 Y-536.27
X-1358.479 Y-536.365
X-1358.602 Y-536.469
X-1358.718 Y-536.58
X-1358.827 Y-536.696
X-1358.929 Y-536.818
X-1359.026 Y-536.947
X-1359.116 Y-537.083
X-1359.197 Y-537.223
X-1359.27 Y-537.366
X-1359.336 Y-537.514
X-1359.394 Y-537.668
X-1359.443 Y-537.826
X-1359.483 Y-537.984
X-1359.513 Y-538.144
X-1359.535 Y-538.307
X-1359.548 Y-538.473
X-1359.552 Y-538.64
X-1359.546 Y-538.806
X-1359.531 Y-538.971
X-1359.506 Y-539.135
X-1359.472 Y-539.3
X-1359.429 Y-539.464
X-1359.376 Y-539.624
X-1359.315 Y-539.781
X-1359.245 Y-539.934
X-1359.166 Y-540.084
X-1359.077 Y-540.231
X-1358.98 Y-540.373
X-1358.876 Y-540.509
X-1358.764 Y-540.638
X-1358.645 Y-540.762
X-1358.519 Y-540.879
X-1358.385 Y-540.989
X-1358.245 Y-541.093
X-1358.098 Y-541.188
X-1357.947 Y-541.275
X-1357.791 Y-541.353
X-1357.631 Y-541.423
X-1357.466 Y-541.484
X-1357.297 Y-541.535
X-1357.124 Y-541.578
X-1356.949 Y-541.61
X-1356.772 Y-541.633
X-1356.595 Y-541.646
X-1356.417 Y-541.648
X-1356.239 Y-541.641
X-1356.06 Y-541.623
X-1355.882 Y-541.596
X-1355.705 Y-541.558
X-1355.529 Y-541.51
X-1355.357 Y-541.452
X-1355.188 Y-541.385
X-1355.022 Y-541.308
X-1354.862 Y-541.221
X-1354.706 Y-541.126
X-1354.555 Y-541.022
X-1354.41 Y-540.909
X-1354.27 Y-540.787
X-1354.137 Y-540.657
X-1354.012 Y-540.52
X-1353.893 Y-540.375
X-1353.783 Y-540.224
X-1353.682 Y-540.066
X-1353.59 Y-539.903
X-1353.506 Y-539.735
X-1353.433 Y-539.561
X-1353.369 Y-539.384
X-1353.315 Y-539.203
X-1353.271 Y-539.018
X-1353.237 Y-538.831
X-1353.214 Y-538.642
X-1353.202 Y-538.451
X-1353.2 Y-538.259
X-1353.209 Y-538.066
X-1353.229 Y-537.874
X-1353.26 Y-537.683
X-1353.302 Y-537.494
X-1353.354 Y-537.307
X-1353.418 Y-537.122
X-1353.491 Y-536.941
X-1353.575 Y-536.764
X-1353.669 Y-536.591
X-1353.773 Y-536.424
X-1353.886 Y-536.263
X-1354.008 Y-536.107
X-1354.139 Y-535.959
X-1354.279 Y-535.818
X-1354.427 Y-535.684
X-1354.583 Y-535.559
X-1354.745 Y-535.442
X-1354.915 Y-535.335
X-1355.09 Y-535.237
X-1355.272 Y-535.149
X-1355.458 Y-535.07
X-1355.65 Y-535.003
X-1355.844 Y-534.946
X-1356.043 Y-534.9
X-1356.244 Y-534.865
X-1356.447 Y-534.842
X-1356.652 Y-534.83
X-1356.858
X-1357.063 Y-534.841
X-1357.269 Y-534.864
X-1357.473 Y-534.898
X-1357.675 Y-534.944
X-1357.875 Y-535.002
X-1358.072 Y-535.07
X-1358.266 Y-535.15
X-1358.454 Y-535.241
X-1358.638 Y-535.343
X-1358.816 Y-535.455
X-1358.988 Y-535.577
X-1359.154 Y-535.709
X-1359.311 Y-535.85
X-1359.462 Y-536.001
X-1359.603 Y-536.16
X-1359.736 Y-536.327
X-1359.859 Y-536.502
X-1359.973 Y-536.683
X-1360.077 Y-536.872
X-1360.17 Y-537.066
X-1360.252 Y-537.266
X-1360.323 Y-537.47
X-1360.382 Y-537.679
X-1360.43 Y-537.891
X-1360.465 Y-538.106
X-1360.489 Y-538.324
X-1360.5 Y-538.542
X-1360.499 Y-538.762
X-1360.486 Y-538.981
X-1360.46 Y-539.2
X-1360.422 Y-539.418
X-1360.372 Y-539.634
X-1360.309 Y-539.847
X-1360.234 Y-540.056
X-1360.148 Y-540.262
X-1360.049 Y-540.463
X-1359.94 Y-540.658
X-1359.819 Y-540.848
X-1359.687 Y-541.03
X-1359.545 Y-541.206
X-1359.393 Y-541.373
X-1359.232 Y-541.532
X-1359.062 Y-541.682
X-1358.882 Y-541.823
X-1358.695 Y-541.953
X-1358.5 Y-542.073
X-1358.298 Y-542.183
X-1358.091 Y-542.28
X-1357.877 Y-542.367
X-1357.659 Y-542.441
X-1357.436 Y-542.503
X-1357.209 Y-542.552
X-1356.98 Y-542.588
X-1356.748 Y-542.612
X-1356.515 Y-542.623
X-1356.281 Y-542.62
X-1356.047 Y-542.604
X-1355.814 Y-542.576
X-1355.69 Y-542.553
X-1355.588 Y-542.532
X-1355.487 Y-542.505
X-1355.387 Y-542.473
X-1354.924 Y-542.311
X-1354.776 Y-542.253
X-1354.706 Y-542.212
X-1354.054 Y-541.802
X-1353.999 Y-541.763
X-1353.945 Y-541.715
X-1353.394 Y-541.165
X-1353.344 Y-541.11
X-1353.305 Y-541.056
X-1352.965 Y-540.511
X-1352.838 Y-540.294
X-1352.748 Y-540.04
X-1352.608 Y-539.641
X-1352.536 Y-539.424
X-1352.53 Y-539.396
X-1352.506 Y-539.206
X-1352.431 Y-538.553
X-1352.428 Y-538.499
X-1352.43 Y-538.444
X-1352.519 Y-537.683
X-1352.53 Y-537.603
X-1352.571 Y-537.465
X-1352.799 Y-536.812
X-1352.84 Y-536.703
X-1352.899 Y-536.595
X-1353.307 Y-535.942
X-1353.348 Y-535.885
X-1353.401 Y-535.828
X-1353.941 Y-535.289
X-1353.997 Y-535.238
X-1354.054 Y-535.198
X-1354.706 Y-534.788
X-1354.815 Y-534.729
X-1354.924 Y-534.689
X-1355.577 Y-534.461
X-1355.662 Y-534.434
X-1355.748 Y-534.418
X-1356.448 Y-534.339
X-1356.556 Y-534.328
X-1356.665 Y-534.329
X-1357.46 Y-534.418
X-1357.536 Y-534.431
X-1357.753 Y-534.503
X-1358.189 Y-534.655
X-1358.406 Y-534.734
X-1358.624 Y-534.863
X-1359.163 Y-535.202
X-1359.215 Y-535.241
X-1359.277 Y-535.299
X-1359.813 Y-535.84
X-1359.859 Y-535.891
X-1359.896 Y-535.942
X-1360.308 Y-536.595
X-1360.365 Y-536.694
X-1360.411 Y-536.812
X-1360.639 Y-537.465
X-1360.672 Y-537.574
X-1360.688 Y-537.683
X-1360.772 Y-538.444
Y-538.553
X-1360.7 Y-539.206
X-1360.672 Y-539.424
X-1360.602 Y-539.641
X-1360.449 Y-540.077
X-1360.37 Y-540.294
X-1360.365 Y-540.306
X-1360.241 Y-540.512
X-1359.93 Y-541.005
X-1359.878 Y-541.085
X-1359.809 Y-541.165
X-1359.277 Y-541.701
X-1359.205 Y-541.767
X-1359.132 Y-541.817
X-1358.624 Y-542.137
X-1358.435 Y-542.253
X-1358.406 Y-542.267
X-1358.189 Y-542.345
X-1357.753 Y-542.497
X-1357.536 Y-542.569
X-1357.318 Y-542.597
X-1356.665 Y-542.671
X-1356.556 Y-542.672
X-1356.23 Y-542.636
X-1355.795 Y-542.587
X-1355.686 Y-542.572
X-1355.577 Y-542.539
X-1355.387 Y-542.473
G3 X-1355.19 Y-542.347 I-0.218 J0.559
G1 X-1355.122 Y-542.282 Z2.007
X-1355.056 Y-542.219 Z2.029
X-1354.993 Y-542.159 Z2.065
X-1354.935 Y-542.103 Z2.115
X-1354.884 Y-542.054 Z2.176
X-1354.84 Y-542.011 Z2.247
X-1354.804 Y-541.977 Z2.328
X-1354.778 Y-541.953 Z2.415
X-1354.762 Y-541.937 Z2.506
X-1354.757 Y-541.932 Z2.6
G0 Z30

(2D Contour3)
S8000 M3
M9
X-1356.6 Y-538.5
Z30
Z20
G1 Z2 F850
G3 X-1356.3 Y-538.8 I0.3
G1 X-1352.2
G3 X-1351.9 Y-538.5 J0.3
X-1359.42 Y-534.74 I-4.7
Y-542.26 I2.82 J-3.76
X-1351.9 Y-538.5 I2.82 J3.76
X-1359.42 Y-534.74 I-4.7
Y-542.26 I2.82 J-3.76
X-1351.9 Y-538.5 I2.82 J3.76
X-1352.5 Y-537.9 I-0.6
G1 X-1353.1
G18 G3 X-1353.7 Z2.6 K0.6
G0 Z30
G17

(2D Adaptive3)
S6000 M3
M9
G0 X-1356.604 Y-186.5
Z30
Z20
Z15.65
G1 Z15.05 F850
Z2
X-1356.569 Y-186.513
X-1356.538 Y-186.491
X-1356.545 Y-186.454
X-1356.571 Y-186.428
X-1356.608 Y-186.419
X-1356.644 Y-186.428
X-1356.672 Y-186.453
X-1356.687 Y-186.488
X-1356.685 Y-186.525
X-1356.667 Y-186.558
X-1356.638 Y-186.582
X-1356.602 Y-186.592
X-1356.564 Y-186.593
X-1356.528 Y-186.582
X-1356.498 Y-186.56
X-1356.477 Y-186.529
X-1356.466 Y-186.493
X-1356.465 Y-186.456
X-1356.476 Y-186.42
X-1356.515 Y-186.355
X-1356.58 Y-186.319
X-1356.655 Y-186.315
X-1356.725 Y-186.342
X-1356.779 Y-186.395
X-1356.809 Y-186.463
X-1356.813 Y-186.538
X-1356.79 Y-186.609
X-1356.745 Y-186.67
X-1356.685 Y-186.714
X-1356.613 Y-186.737
X-1356.538 Y-186.738
X-1356.466 Y-186.718
X-1356.403 Y-186.678
X-1356.352 Y-186.622
X-1356.286 Y-186.488
X-1356.292 Y-186.338
X-1356.365 Y-186.207
X-1356.485 Y-186.117
X-1356.631 Y-186.082
X-1356.779 Y-186.103
X-1356.911 Y-186.175
X-1357.01 Y-186.288
X-1357.066 Y-186.427
X-1357.074 Y-186.577
X-1357.037 Y-186.722
X-1356.957 Y-186.849
X-1356.844 Y-186.948
X-1356.708 Y-187.01
X-1356.559 Y-187.031
X-1356.41 Y-187.012
X-1356.271 Y-186.956
X-1356.15 Y-186.867
X-1356.054 Y-186.752
X-1355.99 Y-186.617
X-1355.958 Y-186.47
X-1355.962 Y-186.32
X-1355.999 Y-186.175
X-1356.069 Y-186.042
X-1356.164 Y-185.926
X-1356.283 Y-185.834
X-1356.417 Y-185.768
X-1356.563 Y-185.731
X-1356.713 Y-185.724
X-1356.861 Y-185.745
X-1357.002 Y-185.797
X-1357.131 Y-185.872
X-1357.244 Y-185.971
X-1357.337 Y-186.089
X-1357.407 Y-186.222
X-1357.452 Y-186.365
X-1357.473 Y-186.513
X-1357.466 Y-186.663
X-1357.435 Y-186.81
X-1357.379 Y-186.949
X-1357.301 Y-187.077
X-1357.203 Y-187.191
X-1357.088 Y-187.287
X-1356.959 Y-187.364
X-1356.82 Y-187.419
X-1356.674 Y-187.453
X-1356.524 Y-187.464
X-1356.375 Y-187.452
X-1356.228 Y-187.419
X-1356.089 Y-187.364
X-1355.958 Y-187.29
X-1355.84 Y-187.198
X-1355.736 Y-187.089
X-1355.648 Y-186.968
X-1355.578 Y-186.835
X-1355.527 Y-186.694
X-1355.495 Y-186.547
X-1355.484 Y-186.398
X-1355.493 Y-186.248
X-1355.521 Y-186.101
X-1355.568 Y-185.958
X-1355.633 Y-185.823
X-1355.716 Y-185.698
X-1355.813 Y-185.584
X-1355.924 Y-185.482
X-1356.046 Y-185.396
X-1356.178 Y-185.325
X-1356.318 Y-185.271
X-1356.464 Y-185.234
X-1356.612 Y-185.215
X-1356.762 Y-185.214
X-1356.912 Y-185.23
X-1357.058 Y-185.263
X-1357.199 Y-185.314
X-1357.334 Y-185.379
X-1357.46 Y-185.46
X-1357.576 Y-185.555
X-1357.682 Y-185.662
X-1357.774 Y-185.78
X-1357.853 Y-185.908
X-1357.918 Y-186.043
X-1357.967 Y-186.185
X-1358.001 Y-186.331
X-1358.02 Y-186.48
X-1358.022 Y-186.63
X-1358.008 Y-186.779
X-1357.979 Y-186.926
X-1357.935 Y-187.069
X-1357.876 Y-187.208
X-1357.804 Y-187.339
X-1357.718 Y-187.462
X-1357.621 Y-187.576
X-1357.512 Y-187.679
X-1357.394 Y-187.772
X-1357.267 Y-187.852
X-1357.133 Y-187.919
X-1356.993 Y-187.973
X-1356.849 Y-188.013
X-1356.701 Y-188.039
X-1356.551 Y-188.051
X-1356.401 Y-188.049
X-1356.252 Y-188.032
X-1356.105 Y-188.002
X-1355.962 Y-187.958
X-1355.823 Y-187.901
X-1355.69 Y-187.832
X-1355.564 Y-187.75
X-1355.446 Y-187.658
X-1355.337 Y-187.555
X-1355.237 Y-187.443
X-1355.148 Y-187.322
X-1355.07 Y-187.194
X-1355.004 Y-187.059
X-1354.95 Y-186.919
X-1354.908 Y-186.775
X-1354.879 Y-186.628
X-1354.862 Y-186.479
X-1354.859 Y-186.329
X-1354.868 Y-186.18
X-1354.891 Y-186.031
X-1354.925 Y-185.885
X-1354.972 Y-185.743
X-1355.03 Y-185.605
X-1355.1 Y-185.472
X-1355.181 Y-185.345
X-1355.271 Y-185.226
X-1355.371 Y-185.114
X-1355.48 Y-185.011
X-1355.597 Y-184.917
X-1355.722 Y-184.833
X-1355.852 Y-184.759
X-1355.988 Y-184.696
X-1356.129 Y-184.644
X-1356.273 Y-184.603
X-1356.42 Y-184.573
X-1356.569 Y-184.555
X-1356.719 Y-184.549
X-1356.869 Y-184.555
X-1357.018 Y-184.572
X-1357.165 Y-184.6
X-1357.31 Y-184.64
X-1357.451 Y-184.691
X-1357.588 Y-184.752
X-1357.72 Y-184.823
X-1357.846 Y-184.904
X-1357.966 Y-184.995
X-1358.079 Y-185.094
X-1358.184 Y-185.201
X-1358.281 Y-185.315
X-1358.369 Y-185.436
X-1358.448 Y-185.564
X-1358.518 Y-185.697
X-1358.577 Y-185.834
X-1358.627 Y-185.976
X-1358.666 Y-186.121
X-1358.695 Y-186.268
X-1358.713 Y-186.417
X-1358.721 Y-186.567
X-1358.718 Y-186.717
X-1358.704 Y-186.866
X-1358.68 Y-187.014
X-1358.645 Y-187.16
X-1358.601 Y-187.303
X-1358.546 Y-187.443
X-1358.483 Y-187.579
X-1358.409 Y-187.71
X-1358.327 Y-187.835
X-1358.237 Y-187.955
X-1358.139 Y-188.068
X-1358.033 Y-188.174
X-1357.92 Y-188.273
X-1357.801 Y-188.365
X-1357.676 Y-188.448
X-1357.546 Y-188.522
X-1357.411 Y-188.588
X-1357.272 Y-188.644
X-1357.13 Y-188.691
X-1356.984 Y-188.729
X-1356.837 Y-188.757
X-1356.688 Y-188.776
X-1356.538 Y-188.784
X-1356.388 Y-188.783
X-1356.239 Y-188.772
X-1356.09 Y-188.752
X-1355.943 Y-188.722
X-1355.798 Y-188.683
X-1355.656 Y-188.635
X-1355.518 Y-188.578
X-1355.383 Y-188.512
X-1355.253 Y-188.437
X-1355.127 Y-188.355
X-1355.007 Y-188.265
X-1354.893 Y-188.168
X-1354.785 Y-188.063
X-1354.684 Y-187.953
X-1354.59 Y-187.836
X-1354.504 Y-187.713
X-1354.424 Y-187.586
X-1354.353 Y-187.454
X-1354.291 Y-187.318
X-1354.236 Y-187.178
X-1354.19 Y-187.035
X-1354.153 Y-186.89
X-1354.125 Y-186.742
X-1354.105 Y-186.594
X-1354.095 Y-186.444
X-1354.093 Y-186.294
X-1354.101 Y-186.144
X-1354.117 Y-185.995
X-1354.142 Y-185.847
X-1354.176 Y-185.701
X-1354.218 Y-185.557
X-1354.269 Y-185.416
X-1354.328 Y-185.278
X-1354.395 Y-185.144
X-1354.469 Y-185.013
X-1354.551 Y-184.888
X-1354.64 Y-184.767
X-1354.736 Y-184.652
X-1354.838 Y-184.542
X-1354.946 Y-184.438
X-1355.061 Y-184.341
X-1355.18 Y-184.25
X-1355.306 Y-184.166
X-1355.435 Y-184.089
X-1355.568 Y-184.02
X-1355.706 Y-183.958
X-1355.849 Y-183.903
X-1355.992 Y-183.858
X-1356.137 Y-183.82
X-1356.288 Y-183.79
X-1356.44 Y-183.768
X-1356.591 Y-183.756
X-1356.744 Y-183.751
X-1356.9 Y-183.756
X-1357.054 Y-183.769
X-1357.205 Y-183.791
X-1357.357 Y-183.821
X-1357.51 Y-183.861
X-1357.659 Y-183.908
X-1357.803 Y-183.964
X-1357.946 Y-184.028
X-1358.087 Y-184.102
X-1358.224 Y-184.182
X-1358.354 Y-184.27
X-1358.479 Y-184.365
X-1358.602 Y-184.469
X-1358.718 Y-184.58
X-1358.827 Y-184.696
X-1358.929 Y-184.818
X-1359.026 Y-184.947
X-1359.116 Y-185.083
X-1359.197 Y-185.223
X-1359.27 Y-185.366
X-1359.336 Y-185.514
X-1359.394 Y-185.668
X-1359.443 Y-185.826
X-1359.483 Y-185.984
X-1359.513 Y-186.144
X-1359.535 Y-186.307
X-1359.548 Y-186.473
X-1359.552 Y-186.64
X-1359.546 Y-186.806
X-1359.531 Y-186.971
X-1359.506 Y-187.135
X-1359.472 Y-187.3
X-1359.429 Y-187.464
X-1359.376 Y-187.624
X-1359.315 Y-187.781
X-1359.245 Y-187.934
X-1359.166 Y-188.084
X-1359.077 Y-188.231
X-1358.98 Y-188.373
X-1358.876 Y-188.509
X-1358.764 Y-188.638
X-1358.645 Y-188.762
X-1358.519 Y-188.879
X-1358.385 Y-188.989
X-1358.245 Y-189.093
X-1358.098 Y-189.188
X-1357.947 Y-189.275
X-1357.791 Y-189.353
X-1357.631 Y-189.423
X-1357.466 Y-189.484
X-1357.297 Y-189.535
X-1357.124 Y-189.578
X-1356.949 Y-189.61
X-1356.772 Y-189.633
X-1356.595 Y-189.646
X-1356.417 Y-189.648
X-1356.239 Y-189.641
X-1356.06 Y-189.623
X-1355.882 Y-189.596
X-1355.705 Y-189.558
X-1355.529 Y-189.51
X-1355.357 Y-189.452
X-1355.188 Y-189.385
X-1355.022 Y-189.308
X-1354.862 Y-189.221
X-1354.706 Y-189.126
X-1354.555 Y-189.022
X-1354.41 Y-188.909
X-1354.27 Y-188.787
X-1354.137 Y-188.657
X-1354.012 Y-188.52
X-1353.893 Y-188.375
X-1353.783 Y-188.224
X-1353.682 Y-188.066
X-1353.59 Y-187.903
X-1353.506 Y-187.735
X-1353.433 Y-187.561
X-1353.369 Y-187.384
X-1353.315 Y-187.203
X-1353.271 Y-187.018
X-1353.237 Y-186.831
X-1353.214 Y-186.642
X-1353.202 Y-186.451
X-1353.2 Y-186.259
X-1353.209 Y-186.066
X-1353.229 Y-185.874
X-1353.26 Y-185.683
X-1353.302 Y-185.494
X-1353.354 Y-185.307
X-1353.418 Y-185.122
X-1353.491 Y-184.941
X-1353.575 Y-184.764
X-1353.669 Y-184.591
X-1353.773 Y-184.424
X-1353.886 Y-184.263
X-1354.008 Y-184.107
X-1354.139 Y-183.959
X-1354.279 Y-183.818
X-1354.427 Y-183.684
X-1354.583 Y-183.559
X-1354.745 Y-183.442
X-1354.915 Y-183.335
X-1355.09 Y-183.237
X-1355.272 Y-183.149
X-1355.458 Y-183.07
X-1355.65 Y-183.003
X-1355.844 Y-182.946
X-1356.043 Y-182.9
X-1356.244 Y-182.865
X-1356.447 Y-182.842
X-1356.652 Y-182.83
X-1356.858
X-1357.063 Y-182.841
X-1357.269 Y-182.864
X-1357.473 Y-182.898
X-1357.675 Y-182.944
X-1357.875 Y-183.002
X-1358.072 Y-183.07
X-1358.266 Y-183.15
X-1358.454 Y-183.241
X-1358.638 Y-183.343
X-1358.816 Y-183.455
X-1358.988 Y-183.577
X-1359.154 Y-183.709
X-1359.311 Y-183.85
X-1359.462 Y-184.001
X-1359.603 Y-184.16
X-1359.736 Y-184.327
X-1359.859 Y-184.502
X-1359.973 Y-184.683
X-1360.077 Y-184.872
X-1360.17 Y-185.066
X-1360.252 Y-185.266
X-1360.323 Y-185.47
X-1360.382 Y-185.679
X-1360.43 Y-185.891
X-1360.465 Y-186.106
X-1360.489 Y-186.324
X-1360.5 Y-186.542
X-1360.499 Y-186.762
X-1360.486 Y-186.981
X-1360.46 Y-187.2
X-1360.422 Y-187.418
X-1360.372 Y-187.634
X-1360.309 Y-187.847
X-1360.234 Y-188.056
X-1360.148 Y-188.262
X-1360.049 Y-188.463
X-1359.94 Y-188.658
X-1359.819 Y-188.848
X-1359.687 Y-189.03
X-1359.545 Y-189.206
X-1359.393 Y-189.373
X-1359.232 Y-189.532
X-1359.062 Y-189.682
X-1358.882 Y-189.823
X-1358.695 Y-189.953
X-1358.5 Y-190.073
X-1358.298 Y-190.183
X-1358.091 Y-190.28
X-1357.877 Y-190.367
X-1357.659 Y-190.441
X-1357.436 Y-190.503
X-1357.209 Y-190.552
X-1356.98 Y-190.588
X-1356.748 Y-190.612
X-1356.515 Y-190.623
X-1356.281 Y-190.62
X-1356.047 Y-190.604
X-1355.814 Y-190.576
X-1355.69 Y-190.553
X-1355.588 Y-190.532
X-1355.487 Y-190.505
X-1355.387 Y-190.473
X-1354.924 Y-190.311
X-1354.776 Y-190.253
X-1354.706 Y-190.212
X-1354.054 Y-189.802
X-1353.999 Y-189.763
X-1353.945 Y-189.715
X-1353.394 Y-189.165
X-1353.344 Y-189.11
X-1353.305 Y-189.056
X-1352.965 Y-188.511
X-1352.838 Y-188.294
X-1352.748 Y-188.04
X-1352.608 Y-187.641
X-1352.536 Y-187.424
X-1352.53 Y-187.396
X-1352.506 Y-187.206
X-1352.431 Y-186.553
X-1352.428 Y-186.499
X-1352.43 Y-186.444
X-1352.519 Y-185.683
X-1352.53 Y-185.603
X-1352.571 Y-185.465
X-1352.799 Y-184.812
X-1352.84 Y-184.703
X-1352.899 Y-184.595
X-1353.307 Y-183.942
X-1353.348 Y-183.885
X-1353.401 Y-183.828
X-1353.941 Y-183.289
X-1353.997 Y-183.238
X-1354.054 Y-183.198
X-1354.706 Y-182.788
X-1354.815 Y-182.729
X-1354.924 Y-182.689
X-1355.577 Y-182.461
X-1355.662 Y-182.434
X-1355.748 Y-182.418
X-1356.448 Y-182.339
X-1356.556 Y-182.328
X-1356.665 Y-182.329
X-1357.46 Y-182.418
X-1357.536 Y-182.431
X-1357.753 Y-182.503
X-1358.189 Y-182.655
X-1358.406 Y-182.734
X-1358.624 Y-182.863
X-1359.163 Y-183.202
X-1359.215 Y-183.241
X-1359.277 Y-183.299
X-1359.813 Y-183.84
X-1359.859 Y-183.891
X-1359.896 Y-183.942
X-1360.308 Y-184.595
X-1360.365 Y-184.694
X-1360.411 Y-184.812
X-1360.639 Y-185.465
X-1360.672 Y-185.574
X-1360.688 Y-185.683
X-1360.772 Y-186.444
Y-186.553
X-1360.7 Y-187.206
X-1360.672 Y-187.424
X-1360.602 Y-187.641
X-1360.449 Y-188.077
X-1360.37 Y-188.294
X-1360.365 Y-188.306
X-1360.241 Y-188.512
X-1359.93 Y-189.005
X-1359.878 Y-189.085
X-1359.809 Y-189.165
X-1359.277 Y-189.701
X-1359.205 Y-189.767
X-1359.132 Y-189.817
X-1358.624 Y-190.137
X-1358.435 Y-190.253
X-1358.406 Y-190.267
X-1358.189 Y-190.345
X-1357.753 Y-190.497
X-1357.536 Y-190.569
X-1357.318 Y-190.597
X-1356.665 Y-190.671
X-1356.556 Y-190.672
X-1356.23 Y-190.636
X-1355.795 Y-190.587
X-1355.686 Y-190.572
X-1355.577 Y-190.539
X-1355.387 Y-190.473
G3 X-1355.19 Y-190.347 I-0.218 J0.559
G1 X-1355.122 Y-190.282 Z2.007
X-1355.056 Y-190.219 Z2.029
X-1354.993 Y-190.159 Z2.065
X-1354.935 Y-190.103 Z2.115
X-1354.884 Y-190.054 Z2.176
X-1354.84 Y-190.011 Z2.247
X-1354.804 Y-189.977 Z2.328
X-1354.778 Y-189.953 Z2.415
X-1354.762 Y-189.937 Z2.506
X-1354.757 Y-189.932 Z2.6
G0 Z30

(2D Contour3)
S8000 M3
M9
X-1356.6 Y-186.5
Z30
Z20
G1 Z2 F850
G3 X-1356.3 Y-186.8 I0.3
G1 X-1352.2
G3 X-1351.9 Y-186.5 J0.3
X-1359.42 Y-182.74 I-4.7
Y-190.26 I2.82 J-3.76
X-1351.9 Y-186.5 I2.82 J3.76
X-1359.42 Y-182.74 I-4.7
Y-190.26 I2.82 J-3.76
X-1351.9 Y-186.5 I2.82 J3.76
X-1352.5 Y-185.9 I-0.6
G1 X-1353.1
G18 G3 X-1353.7 Z2.6 K0.6
G0 Z30
G17

(2D Adaptive3)
S6000 M3
M9
G0 X-1303.904 Y-53.8
Z30
Z20
Z15.65
G1 Z15.05 F850
Z2
X-1303.869 Y-53.813
X-1303.838 Y-53.791
X-1303.845 Y-53.754
X-1303.871 Y-53.728
X-1303.908 Y-53.719
X-1303.944 Y-53.728
X-1303.972 Y-53.753
X-1303.987 Y-53.788
X-1303.985 Y-53.825
X-1303.968 Y-53.859
X-1303.938 Y-53.882
X-1303.902 Y-53.892
X-1303.865 Y-53.893
X-1303.828 Y-53.882
X-1303.798 Y-53.86
X-1303.777 Y-53.829
X-1303.766 Y-53.793
Y-53.756
X-1303.776 Y-53.72
X-1303.815 Y-53.656
X-1303.88 Y-53.619
X-1303.955 Y-53.615
X-1304.025 Y-53.642
X-1304.079 Y-53.695
X-1304.109 Y-53.763
X-1304.113 Y-53.838
X-1304.09 Y-53.909
X-1304.046 Y-53.97
X-1303.985 Y-54.014
X-1303.913 Y-54.037
X-1303.838 Y-54.038
X-1303.766 Y-54.018
X-1303.703 Y-53.978
X-1303.652 Y-53.922
X-1303.586 Y-53.788
X-1303.592 Y-53.638
X-1303.665 Y-53.507
X-1303.785 Y-53.418
X-1303.931 Y-53.382
X-1304.079 Y-53.403
X-1304.211 Y-53.475
X-1304.31 Y-53.588
X-1304.366 Y-53.727
X-1304.375 Y-53.877
X-1304.337 Y-54.022
X-1304.257 Y-54.149
X-1304.144 Y-54.248
X-1304.008 Y-54.31
X-1303.859 Y-54.331
X-1303.71 Y-54.312
X-1303.571 Y-54.256
X-1303.45 Y-54.167
X-1303.354 Y-54.052
X-1303.29 Y-53.917
X-1303.258 Y-53.77
X-1303.262 Y-53.62
X-1303.299 Y-53.475
X-1303.369 Y-53.342
X-1303.464 Y-53.226
X-1303.583 Y-53.134
X-1303.717 Y-53.068
X-1303.863 Y-53.031
X-1304.013 Y-53.024
X-1304.161 Y-53.045
X-1304.302 Y-53.097
X-1304.432 Y-53.172
X-1304.544 Y-53.271
X-1304.637 Y-53.389
X-1304.707 Y-53.522
X-1304.752 Y-53.665
X-1304.773 Y-53.813
X-1304.766 Y-53.963
X-1304.735 Y-54.11
X-1304.679 Y-54.249
X-1304.601 Y-54.377
X-1304.503 Y-54.491
X-1304.388 Y-54.587
X-1304.259 Y-54.664
X-1304.12 Y-54.719
X-1303.974 Y-54.753
X-1303.824 Y-54.764
X-1303.675 Y-54.752
X-1303.528 Y-54.719
X-1303.389 Y-54.664
X-1303.258 Y-54.59
X-1303.14 Y-54.498
X-1303.036 Y-54.389
X-1302.948 Y-54.268
X-1302.878 Y-54.135
X-1302.827 Y-53.994
X-1302.795 Y-53.848
X-1302.784 Y-53.698
X-1302.793 Y-53.548
X-1302.821 Y-53.401
X-1302.869 Y-53.259
X-1302.933 Y-53.123
X-1303.016 Y-52.998
X-1303.113 Y-52.884
X-1303.224 Y-52.782
X-1303.346 Y-52.696
X-1303.478 Y-52.625
X-1303.618 Y-52.571
X-1303.764 Y-52.534
X-1303.912 Y-52.515
X-1304.063 Y-52.514
X-1304.212 Y-52.53
X-1304.358 Y-52.563
X-1304.499 Y-52.614
X-1304.634 Y-52.68
X-1304.76 Y-52.76
X-1304.876 Y-52.855
X-1304.982 Y-52.962
X-1305.074 Y-53.08
X-1305.153 Y-53.208
X-1305.218 Y-53.343
X-1305.267 Y-53.485
X-1305.301 Y-53.631
X-1305.32 Y-53.78
X-1305.322 Y-53.93
X-1305.308 Y-54.079
X-1305.279 Y-54.226
X-1305.235 Y-54.369
X-1305.176 Y-54.508
X-1305.104 Y-54.639
X-1305.018 Y-54.762
X-1304.921 Y-54.876
X-1304.812 Y-54.979
X-1304.694 Y-55.072
X-1304.567 Y-55.152
X-1304.433 Y-55.219
X-1304.293 Y-55.273
X-1304.149 Y-55.313
X-1304.001 Y-55.339
X-1303.851 Y-55.351
X-1303.701 Y-55.349
X-1303.552 Y-55.332
X-1303.405 Y-55.302
X-1303.262 Y-55.258
X-1303.123 Y-55.201
X-1302.99 Y-55.132
X-1302.864 Y-55.05
X-1302.746 Y-54.958
X-1302.637 Y-54.855
X-1302.537 Y-54.743
X-1302.448 Y-54.622
X-1302.37 Y-54.494
X-1302.304 Y-54.359
X-1302.25 Y-54.219
X-1302.208 Y-54.076
X-1302.179 Y-53.928
X-1302.162 Y-53.779
X-1302.159 Y-53.629
X-1302.168 Y-53.48
X-1302.191 Y-53.331
X-1302.225 Y-53.185
X-1302.272 Y-53.043
X-1302.33 Y-52.905
X-1302.4 Y-52.772
X-1302.481 Y-52.645
X-1302.571 Y-52.526
X-1302.672 Y-52.414
X-1302.781 Y-52.311
X-1302.897 Y-52.217
X-1303.022 Y-52.133
X-1303.152 Y-52.059
X-1303.288 Y-51.996
X-1303.429 Y-51.944
X-1303.573 Y-51.903
X-1303.72 Y-51.873
X-1303.869 Y-51.856
X-1304.019 Y-51.849
X-1304.169 Y-51.855
X-1304.318 Y-51.872
X-1304.465 Y-51.901
X-1304.61 Y-51.94
X-1304.751 Y-51.991
X-1304.888 Y-52.052
X-1305.02 Y-52.123
X-1305.146 Y-52.204
X-1305.266 Y-52.295
X-1305.379 Y-52.394
X-1305.484 Y-52.501
X-1305.581 Y-52.615
X-1305.669 Y-52.736
X-1305.748 Y-52.864
X-1305.818 Y-52.997
X-1305.877 Y-53.134
X-1305.927 Y-53.276
X-1305.966 Y-53.421
X-1305.995 Y-53.568
X-1306.013 Y-53.717
X-1306.021 Y-53.867
X-1306.018 Y-54.017
X-1306.004 Y-54.166
X-1305.98 Y-54.314
X-1305.945 Y-54.46
X-1305.901 Y-54.603
X-1305.846 Y-54.743
X-1305.783 Y-54.879
X-1305.709 Y-55.01
X-1305.627 Y-55.135
X-1305.537 Y-55.255
X-1305.439 Y-55.368
X-1305.333 Y-55.475
X-1305.22 Y-55.574
X-1305.101 Y-55.665
X-1304.976 Y-55.748
X-1304.846 Y-55.822
X-1304.711 Y-55.888
X-1304.572 Y-55.944
X-1304.43 Y-55.991
X-1304.284 Y-56.029
X-1304.137 Y-56.057
X-1303.988 Y-56.076
X-1303.838 Y-56.084
X-1303.688 Y-56.083
X-1303.539 Y-56.073
X-1303.39 Y-56.052
X-1303.243 Y-56.022
X-1303.098 Y-55.983
X-1302.956 Y-55.935
X-1302.818 Y-55.878
X-1302.683 Y-55.812
X-1302.553 Y-55.737
X-1302.427 Y-55.655
X-1302.307 Y-55.565
X-1302.193 Y-55.468
X-1302.085 Y-55.363
X-1301.984 Y-55.253
X-1301.89 Y-55.136
X-1301.804 Y-55.013
X-1301.724 Y-54.886
X-1301.653 Y-54.754
X-1301.591 Y-54.618
X-1301.536 Y-54.478
X-1301.49 Y-54.335
X-1301.453 Y-54.19
X-1301.425 Y-54.042
X-1301.405 Y-53.894
X-1301.395 Y-53.744
X-1301.393 Y-53.594
X-1301.401 Y-53.444
X-1301.417 Y-53.295
X-1301.442 Y-53.147
X-1301.476 Y-53.001
X-1301.518 Y-52.857
X-1301.569 Y-52.716
X-1301.628 Y-52.578
X-1301.695 Y-52.444
X-1301.769 Y-52.313
X-1301.851 Y-52.188
X-1301.94 Y-52.067
X-1302.036 Y-51.952
X-1302.138 Y-51.842
X-1302.246 Y-51.738
X-1302.361 Y-51.641
X-1302.48 Y-51.55
X-1302.606 Y-51.466
X-1302.735 Y-51.389
X-1302.868 Y-51.32
X-1303.006 Y-51.258
X-1303.149 Y-51.203
X-1303.292 Y-51.158
X-1303.437 Y-51.12
X-1303.588 Y-51.09
X-1303.74 Y-51.068
X-1303.891 Y-51.056
X-1304.044 Y-51.052
X-1304.2 Y-51.056
X-1304.354 Y-51.069
X-1304.505 Y-51.091
X-1304.657 Y-51.121
X-1304.81 Y-51.161
X-1304.959 Y-51.208
X-1305.103 Y-51.264
X-1305.246 Y-51.328
X-1305.387 Y-51.402
X-1305.524 Y-51.483
X-1305.654 Y-51.57
X-1305.78 Y-51.665
X-1305.902 Y-51.769
X-1306.018 Y-51.88
X-1306.127 Y-51.996
X-1306.229 Y-52.118
X-1306.326 Y-52.247
X-1306.416 Y-52.383
X-1306.497 Y-52.523
X-1306.57 Y-52.666
X-1306.636 Y-52.814
X-1306.694 Y-52.968
X-1306.743 Y-53.126
X-1306.783 Y-53.284
X-1306.813 Y-53.444
X-1306.835 Y-53.607
X-1306.848 Y-53.773
X-1306.852 Y-53.94
X-1306.846 Y-54.106
X-1306.831 Y-54.271
X-1306.807 Y-54.435
X-1306.772 Y-54.6
X-1306.729 Y-54.764
X-1306.676 Y-54.924
X-1306.615 Y-55.081
X-1306.545 Y-55.234
X-1306.466 Y-55.384
X-1306.377 Y-55.531
X-1306.28 Y-55.673
X-1306.176 Y-55.809
X-1306.064 Y-55.938
X-1305.945 Y-56.062
X-1305.819 Y-56.179
X-1305.685 Y-56.289
X-1305.545 Y-56.393
X-1305.398 Y-56.488
X-1305.247 Y-56.575
X-1305.091 Y-56.654
X-1304.931 Y-56.723
X-1304.766 Y-56.784
X-1304.597 Y-56.835
X-1304.424 Y-56.878
X-1304.249 Y-56.91
X-1304.073 Y-56.933
X-1303.895 Y-56.946
X-1303.717 Y-56.948
X-1303.539 Y-56.941
X-1303.36 Y-56.923
X-1303.182 Y-56.896
X-1303.005 Y-56.858
X-1302.829 Y-56.81
X-1302.657 Y-56.752
X-1302.488 Y-56.685
X-1302.323 Y-56.608
X-1302.162 Y-56.521
X-1302.006 Y-56.426
X-1301.855 Y-56.322
X-1301.71 Y-56.209
X-1301.57 Y-56.087
X-1301.437 Y-55.957
X-1301.312 Y-55.82
X-1301.193 Y-55.675
X-1301.083 Y-55.524
X-1300.982 Y-55.366
X-1300.89 Y-55.203
X-1300.807 Y-55.035
X-1300.733 Y-54.861
X-1300.669 Y-54.684
X-1300.615 Y-54.503
X-1300.571 Y-54.318
X-1300.537 Y-54.131
X-1300.514 Y-53.942
X-1300.502 Y-53.751
X-1300.5 Y-53.559
X-1300.509 Y-53.366
X-1300.529 Y-53.174
X-1300.56 Y-52.983
X-1300.602 Y-52.794
X-1300.655 Y-52.607
X-1300.718 Y-52.422
X-1300.791 Y-52.241
X-1300.875 Y-52.064
X-1300.969 Y-51.892
X-1301.073 Y-51.724
X-1301.186 Y-51.563
X-1301.308 Y-51.407
X-1301.439 Y-51.259
X-1301.579 Y-51.118
X-1301.727 Y-50.984
X-1301.883 Y-50.859
X-1302.045 Y-50.742
X-1302.215 Y-50.635
X-1302.391 Y-50.537
X-1302.572 Y-50.449
X-1302.758 Y-50.371
X-1302.95 Y-50.303
X-1303.144 Y-50.246
X-1303.343 Y-50.2
X-1303.544 Y-50.166
X-1303.747 Y-50.142
X-1303.952 Y-50.13
X-1304.158
X-1304.364 Y-50.141
X-1304.569 Y-50.164
X-1304.773 Y-50.198
X-1304.975 Y-50.244
X-1305.175 Y-50.302
X-1305.372 Y-50.37
X-1305.566 Y-50.45
X-1305.754 Y-50.541
X-1305.938 Y-50.643
X-1306.116 Y-50.755
X-1306.288 Y-50.877
X-1306.454 Y-51.009
X-1306.611 Y-51.15
X-1306.762 Y-51.301
X-1306.903 Y-51.46
X-1307.036 Y-51.627
X-1307.16 Y-51.802
X-1307.273 Y-51.983
X-1307.377 Y-52.172
X-1307.47 Y-52.366
X-1307.552 Y-52.566
X-1307.623 Y-52.771
X-1307.682 Y-52.979
X-1307.73 Y-53.191
X-1307.765 Y-53.406
X-1307.789 Y-53.624
X-1307.8 Y-53.842
X-1307.799 Y-54.062
X-1307.786 Y-54.281
X-1307.76 Y-54.5
X-1307.722 Y-54.718
X-1307.672 Y-54.934
X-1307.609 Y-55.147
X-1307.534 Y-55.356
X-1307.448 Y-55.562
X-1307.349 Y-55.763
X-1307.24 Y-55.958
X-1307.119 Y-56.148
X-1306.987 Y-56.33
X-1306.845 Y-56.506
X-1306.693 Y-56.673
X-1306.532 Y-56.832
X-1306.362 Y-56.982
X-1306.182 Y-57.123
X-1305.995 Y-57.253
X-1305.8 Y-57.373
X-1305.598 Y-57.483
X-1305.391 Y-57.58
X-1305.177 Y-57.667
X-1304.959 Y-57.741
X-1304.736 Y-57.803
X-1304.509 Y-57.852
X-1304.28 Y-57.888
X-1304.048 Y-57.912
X-1303.815 Y-57.923
X-1303.581 Y-57.92
X-1303.347 Y-57.904
X-1303.114 Y-57.876
X-1302.99 Y-57.853
X-1302.888 Y-57.832
X-1302.787 Y-57.805
X-1302.688 Y-57.773
X-1302.224 Y-57.611
X-1302.076 Y-57.553
X-1302.006 Y-57.512
X-1301.354 Y-57.102
X-1301.299 Y-57.063
X-1301.245 Y-57.015
X-1300.694 Y-56.465
X-1300.645 Y-56.41
X-1300.605 Y-56.356
X-1300.266 Y-55.811
X-1300.138 Y-55.594
X-1300.048 Y-55.34
X-1299.908 Y-54.941
X-1299.836 Y-54.724
X-1299.83 Y-54.696
X-1299.806 Y-54.506
X-1299.731 Y-53.853
X-1299.728 Y-53.799
X-1299.73 Y-53.744
X-1299.819 Y-52.983
X-1299.83 Y-52.903
X-1299.871 Y-52.765
X-1300.099 Y-52.112
X-1300.14 Y-52.003
X-1300.199 Y-51.895
X-1300.607 Y-51.242
X-1300.648 Y-51.185
X-1300.701 Y-51.128
X-1301.241 Y-50.589
X-1301.297 Y-50.538
X-1301.354 Y-50.498
X-1302.006 Y-50.088
X-1302.115 Y-50.029
X-1302.224 Y-49.989
X-1302.877 Y-49.761
X-1302.962 Y-49.734
X-1303.048 Y-49.719
X-1303.748 Y-49.639
X-1303.856 Y-49.628
X-1303.965 Y-49.629
X-1304.76 Y-49.719
X-1304.836 Y-49.731
X-1305.053 Y-49.803
X-1305.489 Y-49.955
X-1305.706 Y-50.034
X-1305.924 Y-50.163
X-1306.463 Y-50.502
X-1306.515 Y-50.541
X-1306.577 Y-50.599
X-1307.113 Y-51.14
X-1307.159 Y-51.191
X-1307.196 Y-51.242
X-1307.608 Y-51.895
X-1307.665 Y-51.995
X-1307.711 Y-52.112
X-1307.939 Y-52.765
X-1307.972 Y-52.874
X-1307.988 Y-52.983
X-1308.072 Y-53.744
Y-53.853
X-1308 Y-54.506
X-1307.972 Y-54.724
X-1307.902 Y-54.941
X-1307.75 Y-55.377
X-1307.67 Y-55.594
X-1307.665 Y-55.606
X-1307.541 Y-55.812
X-1307.23 Y-56.305
X-1307.178 Y-56.385
X-1307.109 Y-56.465
X-1306.577 Y-57.001
X-1306.505 Y-57.067
X-1306.432 Y-57.117
X-1305.924 Y-57.437
X-1305.735 Y-57.553
X-1305.706 Y-57.567
X-1305.489 Y-57.645
X-1305.053 Y-57.797
X-1304.836 Y-57.869
X-1304.618 Y-57.898
X-1303.965 Y-57.971
X-1303.856 Y-57.972
X-1303.53 Y-57.936
X-1303.095 Y-57.887
X-1302.986 Y-57.872
X-1302.877 Y-57.839
X-1302.688 Y-57.773
G3 X-1302.49 Y-57.647 I-0.218 J0.559
G1 X-1302.422 Y-57.582 Z2.007
X-1302.356 Y-57.519 Z2.029
X-1302.293 Y-57.459 Z2.065
X-1302.235 Y-57.403 Z2.115
X-1302.184 Y-57.354 Z2.176
X-1302.14 Y-57.312 Z2.247
X-1302.104 Y-57.277 Z2.328
X-1302.078 Y-57.253 Z2.415
X-1302.062 Y-57.237 Z2.506
X-1302.057 Y-57.232 Z2.6
G0 Z30

(2D Contour3)
S8000 M3
M9
X-1303.9 Y-53.8
Z30
Z20
G1 Z2 F850
G3 X-1303.6 Y-54.1 I0.3
G1 X-1299.5
G3 X-1299.2 Y-53.8 J0.3
X-1306.72 Y-50.04 I-4.7
Y-57.56 I2.82 J-3.76
X-1299.2 Y-53.8 I2.82 J3.76
X-1306.72 Y-50.04 I-4.7
Y-57.56 I2.82 J-3.76
X-1299.2 Y-53.8 I2.82 J3.76
X-1299.8 Y-53.2 I-0.6
G1 X-1300.4
G18 G3 X-1301 Z2.6 K0.6
G0 Z30
G17

(2D Adaptive3)
S6000 M3
M9
G0 X-173.904 Y-53.8
Z30
Z20
Z15.65
G1 Z15.05 F850
Z2
X-173.869 Y-53.813
X-173.838 Y-53.791
X-173.845 Y-53.754
X-173.871 Y-53.728
X-173.908 Y-53.719
X-173.944 Y-53.728
X-173.972 Y-53.753
X-173.987 Y-53.788
X-173.985 Y-53.825
X-173.968 Y-53.859
X-173.938 Y-53.882
X-173.902 Y-53.892
X-173.865 Y-53.893
X-173.828 Y-53.882
X-173.798 Y-53.86
X-173.777 Y-53.829
X-173.766 Y-53.793
Y-53.756
X-173.776 Y-53.72
X-173.815 Y-53.656
X-173.88 Y-53.619
X-173.955 Y-53.615
X-174.025 Y-53.642
X-174.079 Y-53.695
X-174.109 Y-53.763
X-174.113 Y-53.838
X-174.09 Y-53.909
X-174.046 Y-53.97
X-173.985 Y-54.014
X-173.913 Y-54.037
X-173.838 Y-54.038
X-173.766 Y-54.018
X-173.703 Y-53.978
X-173.652 Y-53.922
X-173.586 Y-53.788
X-173.592 Y-53.638
X-173.665 Y-53.507
X-173.785 Y-53.418
X-173.931 Y-53.382
X-174.079 Y-53.403
X-174.211 Y-53.475
X-174.31 Y-53.588
X-174.366 Y-53.727
X-174.375 Y-53.877
X-174.337 Y-54.022
X-174.257 Y-54.149
X-174.144 Y-54.248
X-174.008 Y-54.31
X-173.859 Y-54.331
X-173.71 Y-54.312
X-173.571 Y-54.256
X-173.45 Y-54.167
X-173.354 Y-54.052
X-173.29 Y-53.917
X-173.258 Y-53.77
X-173.262 Y-53.62
X-173.299 Y-53.475
X-173.369 Y-53.342
X-173.464 Y-53.226
X-173.583 Y-53.134
X-173.717 Y-53.068
X-173.863 Y-53.031
X-174.013 Y-53.024
X-174.161 Y-53.045
X-174.302 Y-53.097
X-174.432 Y-53.172
X-174.544 Y-53.271
X-174.637 Y-53.389
X-174.707 Y-53.522
X-174.752 Y-53.665
X-174.773 Y-53.813
X-174.766 Y-53.963
X-174.735 Y-54.11
X-174.679 Y-54.249
X-174.601 Y-54.377
X-174.503 Y-54.491
X-174.388 Y-54.587
X-174.259 Y-54.664
X-174.12 Y-54.719
X-173.974 Y-54.753
X-173.824 Y-54.764
X-173.675 Y-54.752
X-173.528 Y-54.719
X-173.389 Y-54.664
X-173.258 Y-54.59
X-173.14 Y-54.498
X-173.036 Y-54.389
X-172.948 Y-54.268
X-172.878 Y-54.135
X-172.827 Y-53.994
X-172.795 Y-53.848
X-172.784 Y-53.698
X-172.793 Y-53.548
X-172.821 Y-53.401
X-172.869 Y-53.259
X-172.933 Y-53.123
X-173.016 Y-52.998
X-173.113 Y-52.884
X-173.224 Y-52.782
X-173.346 Y-52.696
X-173.478 Y-52.625
X-173.618 Y-52.571
X-173.764 Y-52.534
X-173.912 Y-52.515
X-174.063 Y-52.514
X-174.212 Y-52.53
X-174.358 Y-52.563
X-174.499 Y-52.614
X-174.634 Y-52.68
X-174.76 Y-52.76
X-174.876 Y-52.855
X-174.982 Y-52.962
X-175.074 Y-53.08
X-175.153 Y-53.208
X-175.218 Y-53.343
X-175.267 Y-53.485
X-175.301 Y-53.631
X-175.32 Y-53.78
X-175.322 Y-53.93
X-175.308 Y-54.079
X-175.279 Y-54.226
X-175.235 Y-54.369
X-175.176 Y-54.508
X-175.104 Y-54.639
X-175.018 Y-54.762
X-174.921 Y-54.876
X-174.812 Y-54.979
X-174.694 Y-55.072
X-174.567 Y-55.152
X-174.433 Y-55.219
X-174.293 Y-55.273
X-174.149 Y-55.313
X-174.001 Y-55.339
X-173.851 Y-55.351
X-173.701 Y-55.349
X-173.552 Y-55.332
X-173.405 Y-55.302
X-173.262 Y-55.258
X-173.123 Y-55.201
X-172.99 Y-55.132
X-172.864 Y-55.05
X-172.746 Y-54.958
X-172.637 Y-54.855
X-172.537 Y-54.743
X-172.448 Y-54.622
X-172.37 Y-54.494
X-172.304 Y-54.359
X-172.25 Y-54.219
X-172.208 Y-54.076
X-172.179 Y-53.928
X-172.162 Y-53.779
X-172.159 Y-53.629
X-172.168 Y-53.48
X-172.191 Y-53.331
X-172.225 Y-53.185
X-172.272 Y-53.043
X-172.33 Y-52.905
X-172.4 Y-52.772
X-172.481 Y-52.645
X-172.571 Y-52.526
X-172.672 Y-52.414
X-172.781 Y-52.311
X-172.897 Y-52.217
X-173.022 Y-52.133
X-173.152 Y-52.059
X-173.288 Y-51.996
X-173.429 Y-51.944
X-173.573 Y-51.903
X-173.72 Y-51.873
X-173.869 Y-51.856
X-174.019 Y-51.849
X-174.169 Y-51.855
X-174.318 Y-51.872
X-174.465 Y-51.901
X-174.61 Y-51.94
X-174.751 Y-51.991
X-174.888 Y-52.052
X-175.02 Y-52.123
X-175.146 Y-52.204
X-175.266 Y-52.295
X-175.379 Y-52.394
X-175.484 Y-52.501
X-175.581 Y-52.615
X-175.669 Y-52.736
X-175.748 Y-52.864
X-175.818 Y-52.997
X-175.877 Y-53.134
X-175.927 Y-53.276
X-175.966 Y-53.421
X-175.995 Y-53.568
X-176.013 Y-53.717
X-176.021 Y-53.867
X-176.018 Y-54.017
X-176.004 Y-54.166
X-175.98 Y-54.314
X-175.945 Y-54.46
X-175.901 Y-54.603
X-175.846 Y-54.743
X-175.783 Y-54.879
X-175.709 Y-55.01
X-175.627 Y-55.135
X-175.537 Y-55.255
X-175.439 Y-55.368
X-175.333 Y-55.475
X-175.22 Y-55.574
X-175.101 Y-55.665
X-174.976 Y-55.748
X-174.846 Y-55.822
X-174.711 Y-55.888
X-174.572 Y-55.944
X-174.43 Y-55.991
X-174.284 Y-56.029
X-174.137 Y-56.057
X-173.988 Y-56.076
X-173.838 Y-56.084
X-173.688 Y-56.083
X-173.539 Y-56.073
X-173.39 Y-56.052
X-173.243 Y-56.022
X-173.098 Y-55.983
X-172.956 Y-55.935
X-172.818 Y-55.878
X-172.683 Y-55.812
X-172.553 Y-55.737
X-172.427 Y-55.655
X-172.307 Y-55.565
X-172.193 Y-55.468
X-172.085 Y-55.363
X-171.984 Y-55.253
X-171.89 Y-55.136
X-171.804 Y-55.013
X-171.724 Y-54.886
X-171.653 Y-54.754
X-171.591 Y-54.618
X-171.536 Y-54.478
X-171.49 Y-54.335
X-171.453 Y-54.19
X-171.425 Y-54.042
X-171.405 Y-53.894
X-171.395 Y-53.744
X-171.393 Y-53.594
X-171.401 Y-53.444
X-171.417 Y-53.295
X-171.442 Y-53.147
X-171.476 Y-53.001
X-171.518 Y-52.857
X-171.569 Y-52.716
X-171.628 Y-52.578
X-171.695 Y-52.444
X-171.769 Y-52.313
X-171.851 Y-52.188
X-171.94 Y-52.067
X-172.036 Y-51.952
X-172.138 Y-51.842
X-172.246 Y-51.738
X-172.361 Y-51.641
X-172.48 Y-51.55
X-172.606 Y-51.466
X-172.735 Y-51.389
X-172.868 Y-51.32
X-173.006 Y-51.258
X-173.149 Y-51.203
X-173.292 Y-51.158
X-173.437 Y-51.12
X-173.588 Y-51.09
X-173.74 Y-51.068
X-173.891 Y-51.056
X-174.044 Y-51.052
X-174.2 Y-51.056
X-174.354 Y-51.069
X-174.505 Y-51.091
X-174.657 Y-51.121
X-174.81 Y-51.161
X-174.959 Y-51.208
X-175.103 Y-51.264
X-175.246 Y-51.328
X-175.387 Y-51.402
X-175.524 Y-51.483
X-175.654 Y-51.57
X-175.78 Y-51.665
X-175.902 Y-51.769
X-176.018 Y-51.88
X-176.127 Y-51.996
X-176.229 Y-52.118
X-176.326 Y-52.247
X-176.416 Y-52.383
X-176.497 Y-52.523
X-176.57 Y-52.666
X-176.636 Y-52.814
X-176.694 Y-52.968
X-176.743 Y-53.126
X-176.783 Y-53.284
X-176.813 Y-53.444
X-176.835 Y-53.607
X-176.848 Y-53.773
X-176.852 Y-53.94
X-176.846 Y-54.106
X-176.831 Y-54.271
X-176.807 Y-54.435
X-176.772 Y-54.6
X-176.729 Y-54.764
X-176.676 Y-54.924
X-176.615 Y-55.081
X-176.545 Y-55.234
X-176.466 Y-55.384
X-176.377 Y-55.531
X-176.28 Y-55.673
X-176.176 Y-55.809
X-176.064 Y-55.938
X-175.945 Y-56.062
X-175.819 Y-56.179
X-175.685 Y-56.289
X-175.545 Y-56.393
X-175.398 Y-56.488
X-175.247 Y-56.575
X-175.091 Y-56.654
X-174.931 Y-56.723
X-174.766 Y-56.784
X-174.597 Y-56.835
X-174.424 Y-56.878
X-174.249 Y-56.91
X-174.073 Y-56.933
X-173.895 Y-56.946
X-173.717 Y-56.948
X-173.539 Y-56.941
X-173.36 Y-56.923
X-173.182 Y-56.896
X-173.005 Y-56.858
X-172.829 Y-56.81
X-172.657 Y-56.752
X-172.488 Y-56.685
X-172.323 Y-56.608
X-172.162 Y-56.521
X-172.006 Y-56.426
X-171.855 Y-56.322
X-171.71 Y-56.209
X-171.57 Y-56.087
X-171.437 Y-55.957
X-171.312 Y-55.82
X-171.193 Y-55.675
X-171.083 Y-55.524
X-170.982 Y-55.366
X-170.89 Y-55.203
X-170.807 Y-55.035
X-170.733 Y-54.861
X-170.669 Y-54.684
X-170.615 Y-54.503
X-170.571 Y-54.318
X-170.537 Y-54.131
X-170.514 Y-53.942
X-170.502 Y-53.751
X-170.5 Y-53.559
X-170.509 Y-53.366
X-170.529 Y-53.174
X-170.56 Y-52.983
X-170.602 Y-52.794
X-170.655 Y-52.607
X-170.718 Y-52.422
X-170.791 Y-52.241
X-170.875 Y-52.064
X-170.969 Y-51.892
X-171.073 Y-51.724
X-171.186 Y-51.563
X-171.308 Y-51.407
X-171.439 Y-51.259
X-171.579 Y-51.118
X-171.727 Y-50.984
X-171.883 Y-50.859
X-172.045 Y-50.742
X-172.215 Y-50.635
X-172.391 Y-50.537
X-172.572 Y-50.449
X-172.758 Y-50.371
X-172.95 Y-50.303
X-173.144 Y-50.246
X-173.343 Y-50.2
X-173.544 Y-50.166
X-173.747 Y-50.142
X-173.952 Y-50.13
X-174.158
X-174.364 Y-50.141
X-174.569 Y-50.164
X-174.773 Y-50.198
X-174.975 Y-50.244
X-175.175 Y-50.302
X-175.372 Y-50.37
X-175.566 Y-50.45
X-175.754 Y-50.541
X-175.938 Y-50.643
X-176.116 Y-50.755
X-176.288 Y-50.877
X-176.454 Y-51.009
X-176.611 Y-51.15
X-176.762 Y-51.301
X-176.903 Y-51.46
X-177.036 Y-51.627
X-177.16 Y-51.802
X-177.273 Y-51.983
X-177.377 Y-52.172
X-177.47 Y-52.366
X-177.552 Y-52.566
X-177.623 Y-52.771
X-177.682 Y-52.979
X-177.73 Y-53.191
X-177.765 Y-53.406
X-177.789 Y-53.624
X-177.8 Y-53.842
X-177.799 Y-54.062
X-177.786 Y-54.281
X-177.76 Y-54.5
X-177.722 Y-54.718
X-177.672 Y-54.934
X-177.609 Y-55.147
X-177.534 Y-55.356
X-177.448 Y-55.562
X-177.349 Y-55.763
X-177.24 Y-55.958
X-177.119 Y-56.148
X-176.987 Y-56.33
X-176.845 Y-56.506
X-176.693 Y-56.673
X-176.532 Y-56.832
X-176.362 Y-56.982
X-176.182 Y-57.123
X-175.995 Y-57.253
X-175.8 Y-57.373
X-175.598 Y-57.483
X-175.391 Y-57.58
X-175.177 Y-57.667
X-174.959 Y-57.741
X-174.736 Y-57.803
X-174.509 Y-57.852
X-174.28 Y-57.888
X-174.048 Y-57.912
X-173.815 Y-57.923
X-173.581 Y-57.92
X-173.347 Y-57.904
X-173.114 Y-57.876
X-172.99 Y-57.853
X-172.888 Y-57.832
X-172.787 Y-57.805
X-172.688 Y-57.773
X-172.224 Y-57.611
X-172.076 Y-57.553
X-172.006 Y-57.512
X-171.354 Y-57.102
X-171.299 Y-57.063
X-171.245 Y-57.015
X-170.694 Y-56.465
X-170.645 Y-56.41
X-170.605 Y-56.356
X-170.266 Y-55.811
X-170.138 Y-55.594
X-170.048 Y-55.34
X-169.908 Y-54.941
X-169.836 Y-54.724
X-169.83 Y-54.696
X-169.806 Y-54.506
X-169.731 Y-53.853
X-169.728 Y-53.799
X-169.73 Y-53.744
X-169.819 Y-52.983
X-169.83 Y-52.903
X-169.871 Y-52.765
X-170.099 Y-52.112
X-170.14 Y-52.003
X-170.199 Y-51.895
X-170.607 Y-51.242
X-170.648 Y-51.185
X-170.701 Y-51.128
X-171.241 Y-50.589
X-171.297 Y-50.538
X-171.354 Y-50.498
X-172.006 Y-50.088
X-172.115 Y-50.029
X-172.224 Y-49.989
X-172.877 Y-49.761
X-172.962 Y-49.734
X-173.048 Y-49.719
X-173.748 Y-49.639
X-173.856 Y-49.628
X-173.965 Y-49.629
X-174.76 Y-49.719
X-174.836 Y-49.731
X-175.053 Y-49.803
X-175.489 Y-49.955
X-175.706 Y-50.034
X-175.924 Y-50.163
X-176.463 Y-50.502
X-176.515 Y-50.541
X-176.577 Y-50.599
X-177.113 Y-51.14
X-177.159 Y-51.191
X-177.196 Y-51.242
X-177.608 Y-51.895
X-177.665 Y-51.995
X-177.711 Y-52.112
X-177.939 Y-52.765
X-177.972 Y-52.874
X-177.988 Y-52.983
X-178.072 Y-53.744
Y-53.853
X-178 Y-54.506
X-177.972 Y-54.724
X-177.902 Y-54.941
X-177.75 Y-55.377
X-177.67 Y-55.594
X-177.665 Y-55.606
X-177.541 Y-55.812
X-177.23 Y-56.305
X-177.178 Y-56.385
X-177.109 Y-56.465
X-176.577 Y-57.001
X-176.505 Y-57.067
X-176.432 Y-57.117
X-175.924 Y-57.437
X-175.735 Y-57.553
X-175.706 Y-57.567
X-175.489 Y-57.645
X-175.053 Y-57.797
X-174.836 Y-57.869
X-174.618 Y-57.898
X-173.965 Y-57.971
X-173.856 Y-57.972
X-173.53 Y-57.936
X-173.095 Y-57.887
X-172.986 Y-57.872
X-172.877 Y-57.839
X-172.688 Y-57.773
G3 X-172.49 Y-57.647 I-0.218 J0.559
G1 X-172.422 Y-57.582 Z2.007
X-172.356 Y-57.519 Z2.029
X-172.293 Y-57.459 Z2.065
X-172.235 Y-57.403 Z2.115
X-172.184 Y-57.354 Z2.176
X-172.14 Y-57.312 Z2.247
X-172.104 Y-57.277 Z2.328
X-172.078 Y-57.253 Z2.415
X-172.062 Y-57.237 Z2.506
X-172.057 Y-57.232 Z2.6
G0 Z30

(2D Contour3)
S8000 M3
M9
X-173.9 Y-53.8
Z30
Z20
G1 Z2 F850
G3 X-173.6 Y-54.1 I0.3
G1 X-169.5
G3 X-169.2 Y-53.8 J0.3
X-176.72 Y-50.04 I-4.7
Y-57.56 I2.82 J-3.76
X-169.2 Y-53.8 I2.82 J3.76
X-176.72 Y-50.04 I-4.7
Y-57.56 I2.82 J-3.76
X-169.2 Y-53.8 I2.82 J3.76
X-169.8 Y-53.2 I-0.6
G1 X-170.4
G18 G3 X-171 Z2.6 K0.6
G0 Z30
G17
M9
M30
%
