%
(1001)
(z0 slate machine -5-5)
(T1  D=6 CR=0 - ZMIN=0.5 - flat end mill)
G90 G94
G17
G21

(2D Adaptive3)
M9
T1 M6
S6000 M3
G54
M9
G0 X-1356.784 Y-541.337
Z30
Z20
Z18.15
G1 Z17.55 F850
G3 X-1353.848 Y-537.469 Z17.347 I0.28 J2.836 F283.3
X-1359.161 Y-539.532 Z17.034 I-2.657 J-1.031
X-1357.246 Y-541.253 Z16.941 I2.657 J1.032
X-1353.714 Y-537.919 Z16.738 I0.741 J2.752
X-1358.284 Y-536.274 Z16.535 I-2.79 J-0.582
X-1357.687 Y-541.094 Z16.332 I1.779 J-2.226
X-1353.657 Y-538.384 Z16.129 I1.183 J2.593
X-1359.352 Y-538.617 Z15.817 I-2.848 J-0.116
X-1358.096 Y-540.865 Z15.723 I2.848 J0.116
X-1353.676 Y-538.853 Z15.52 I1.592 J2.364
X-1357.467 Y-535.818 Z15.317 I-2.828 J0.353
X-1358.463 Y-540.571 Z15.114 I0.963 J-2.682
X-1353.772 Y-539.312 Z14.911 I1.958 J2.071
X-1357.014 Y-535.697 Z14.708 I-2.732 J0.812
X-1358.776 Y-540.222 Z14.505 I0.51 J-2.804
X-1353.943 Y-539.749 Z14.302 I2.271 J1.721
X-1356.547 Y-535.651 Z14.099 I-2.562 J1.249
X-1359.027 Y-539.826 Z13.896 I0.043 J-2.85
X-1354.182 Y-540.153 Z13.693 I2.523 J1.326
X-1358.826 Y-536.848 Z13.381 I-2.322 J1.652
X-1359.211 Y-539.394 Z13.288 I2.322 J-1.652
X-1354.485 Y-540.511 Z13.085 I2.706 J0.894
X-1355.623 Y-535.79 Z12.882 I-2.02 J2.011
X-1359.321 Y-538.938 Z12.679 I-0.882 J-2.71
X-1354.842 Y-540.815 Z12.476 I2.816 J0.438
X-1355.19 Y-535.972 Z12.273 I-1.662 J2.315
X-1359.354 Y-538.47 Z12.07 I-1.314 J-2.529
X-1353.654 Y-538.531 Z11.757 I2.85 J-0.03
X-1354.793 Y-536.222 Z11.664 I-2.85 J0.03
X-1358.216 Y-540.78 Z11.351 I-1.711 J-2.279
X-1355.68 Y-541.229 Z11.258 I1.711 J2.279
X-1354.442 Y-536.533 Z11.055 I-0.824 J2.728
X-1359.191 Y-537.55 Z10.852 I-2.062 J-1.967
X-1356.139 Y-541.327 Z10.649 I2.687 J-0.951
X-1354.148 Y-536.898 Z10.446 I-0.365 J2.827
X-1358.999 Y-537.122 Z10.243 I-2.357 J-1.602
X-1356.608 Y-541.349 Z10.04 I2.494 J-1.379
X-1353.917 Y-537.306 Z9.837 I0.104 J2.848
X-1358.739 Y-536.731 Z9.634 I-2.588 J-1.194
X-1357.074 Y-541.293 Z9.431 I2.234 J-1.769
X-1353.756 Y-537.747 Z9.228 I0.569 J2.793
X-1359.253 Y-539.254 Z8.915 I-2.749 J-0.753
X-1357.524 Y-541.162 Z8.822 I2.749 J0.754
X-1353.669 Y-538.208 Z8.619 I1.02 J2.661
X-1358.046 Y-536.103 Z8.416 I-2.835 J-0.292
X-1357.947 Y-540.959 Z8.213 I1.542 J-2.397
X-1353.66 Y-538.677 Z8.01 I1.443 J2.458
X-1357.632 Y-535.883 Z7.807 I-2.844 J0.177
X-1358.33 Y-540.689 Z7.604 I1.127 J-2.618
X-1353.727 Y-539.141 Z7.401 I1.826 J2.188
X-1357.187 Y-535.734 Z7.198 I-2.777 J0.641
X-1358.665 Y-540.359 Z6.995 I0.683 J-2.767
X-1353.87 Y-539.588 Z6.792 I2.16 J1.859
X-1356.724 Y-535.659 Z6.589 I-2.634 J1.088
X-1358.94 Y-539.98 Z6.386 I0.219 J-2.841
X-1354.084 Y-540.006 Z6.183 I2.436 J1.479
X-1358.924 Y-536.995 Z5.871 I-2.42 J1.505
X-1359.15 Y-539.56 Z5.777 I2.42 J-1.505
X-1354.364 Y-540.382 Z5.574 I2.646 J1.06
X-1355.792 Y-535.741 Z5.371 I-2.14 J1.882
X-1359.288 Y-539.112 Z5.168 I-0.712 J-2.76
X-1353.721 Y-537.889 Z4.856 I2.784 J0.611
X-1355.349 Y-535.895 Z4.762 I-2.784 J-0.611
X-1359.351 Y-538.647 Z4.56 I-1.155 J-2.605
X-1355.088 Y-540.974 Z4.357 I2.846 J0.146
X-1354.938 Y-536.12 Z4.154 I-1.416 J2.473
X-1359.336 Y-538.178 Z3.951 I-1.567 J-2.381
X-1355.513 Y-541.173 Z3.748 I2.832 J-0.322
X-1354.568 Y-536.409 Z3.545 I-0.991 J2.672
X-1359.245 Y-537.718 Z3.342 I-1.936 J-2.091
X-1355.965 Y-541.299 Z3.139 I2.74 J-0.783
X-1354.251 Y-536.755 Z2.936 I-0.54 J2.798
X-1359.079 Y-537.279 Z2.733 I-2.253 J-1.745
X-1356.431 Y-541.35 Z2.53 I2.575 J-1.222
X-1353.996 Y-537.148 Z2.327 I-0.073 J2.849
X-1358.844 Y-536.873 Z2.124 I-2.509 J-1.352
X-1356.899 Y-541.323 Z1.921 I2.34 J-1.627
X-1353.808 Y-537.578 Z1.718 I0.395 J2.823
X-1358.545 Y-536.511 Z1.515 I-2.697 J-0.922
X-1357.357 Y-541.22 Z1.312 I2.041 J-1.989
X-1353.693 Y-538.033 Z1.109 I0.853 J2.719
X-1358.191 Y-536.203 Z0.906 I-2.811 J-0.467
X-1357.792 Y-541.043 Z0.703 I1.687 J-2.297
X-1353.654 Y-538.501 Z0.5 I1.287 J2.543
X-1355.854 Y-535.726 I-2.85
X-1359.132 Y-537.397 I-0.65 J-2.775
X-1358.031 Y-540.907 I2.628 J-1.104
X-1354.734 Y-540.734 I1.527 J2.407
X-1353.654 Y-538.501 I-1.771 J2.233
G1 X-1353.641 Y-537.543 F850
X-1353.611 Y-537.427
X-1353.591 Y-537.278
X-1353.589 Y-537.128
X-1353.602 Y-536.979
X-1353.629 Y-536.831
X-1353.668 Y-536.686
X-1353.717 Y-536.545
X-1353.776 Y-536.407
X-1353.844 Y-536.273
X-1353.921 Y-536.144
X-1354.005 Y-536.02
X-1354.096 Y-535.9
X-1354.198 Y-535.782
X-1354.308 Y-535.667
X-1354.428 Y-535.556
X-1354.558 Y-535.448
X-1354.696 Y-535.346
X-1354.843 Y-535.25
X-1354.997 Y-535.161
X-1355.159 Y-535.079
X-1355.328 Y-535.006
X-1355.504 Y-534.941
X-1355.685 Y-534.885
X-1355.871 Y-534.839
X-1356.062 Y-534.804
X-1356.256 Y-534.779
X-1356.453 Y-534.764
X-1356.652 Y-534.761
X-1356.852 Y-534.769
X-1357.053 Y-534.788
X-1357.253 Y-534.819
X-1357.453 Y-534.862
X-1357.651 Y-534.915
X-1357.846 Y-534.98
X-1358.038 Y-535.057
X-1358.226 Y-535.144
X-1358.41 Y-535.242
X-1358.588 Y-535.35
X-1358.76 Y-535.469
X-1358.926 Y-535.598
X-1359.084 Y-535.735
X-1359.235 Y-535.882
X-1359.378 Y-536.038
X-1359.511 Y-536.201
X-1359.636 Y-536.372
X-1359.75 Y-536.549
X-1359.855 Y-536.734
X-1359.949 Y-536.924
X-1360.033 Y-537.119
X-1360.105 Y-537.318
X-1360.166 Y-537.522
X-1360.216 Y-537.729
X-1360.254 Y-537.938
X-1360.28 Y-538.149
X-1360.294 Y-538.362
X-1360.296 Y-538.575
X-1360.286 Y-538.788
X-1360.264 Y-539
X-1360.23 Y-539.21
X-1360.185 Y-539.418
X-1360.127 Y-539.624
X-1360.059 Y-539.826
X-1359.979 Y-540.024
X-1359.888 Y-540.217
X-1359.786 Y-540.404
X-1359.673 Y-540.586
X-1359.551 Y-540.761
X-1359.419 Y-540.929
X-1359.278 Y-541.089
X-1359.128 Y-541.241
X-1358.97 Y-541.384
X-1358.804 Y-541.519
X-1358.63 Y-541.643
X-1358.45 Y-541.758
X-1358.264 Y-541.862
X-1358.072 Y-541.956
X-1357.875 Y-542.039
X-1357.673 Y-542.11
X-1357.468 Y-542.17
X-1357.26 Y-542.219
X-1357.05 Y-542.256
X-1356.837 Y-542.28
X-1356.624 Y-542.293
X-1356.41 Y-542.294
X-1356.197 Y-542.283
X-1355.984 Y-542.259
X-1355.774 Y-542.224
X-1355.565 Y-542.177
X-1355.36 Y-542.118
X-1355.158 Y-542.048
X-1354.96 Y-541.967
X-1354.768 Y-541.874
X-1354.581 Y-541.771
X-1354.399 Y-541.658
X-1354.225 Y-541.534
X-1354.058 Y-541.401
X-1353.898 Y-541.259
X-1353.747 Y-541.108
X-1353.605 Y-540.948
X-1353.472 Y-540.781
X-1353.348 Y-540.607
X-1353.234 Y-540.426
X-1353.131 Y-540.239
X-1353.027 Y-540.022
X-1352.898 Y-539.709
X-1352.747 Y-539.274
X-1352.649 Y-538.932
X-1352.582 Y-538.635
X-1352.536 Y-538.363
X-1352.508 Y-538.108
X-1352.505 Y-538.063
X-1352.503 Y-537.949
X-1352.506 Y-537.835
X-1352.516 Y-537.721
X-1352.521 Y-537.683
X-1352.53 Y-537.622
X-1352.578 Y-537.465
X-1352.805 Y-536.812
X-1352.851 Y-536.703
X-1352.917 Y-536.595
X-1353.189 Y-536.159
X-1353.333 Y-535.942
X-1353.401 Y-535.872
X-1353.92 Y-535.356
X-1354.004 Y-535.289
X-1354.054 Y-535.257
X-1354.696 Y-534.854
X-1354.706 Y-534.848
X-1354.924 Y-534.761
X-1355.359 Y-534.608
X-1355.577 Y-534.534
X-1355.795 Y-534.502
X-1356.448 Y-534.429
X-1356.556
X-1357.318 Y-534.514
X-1357.427 Y-534.532
X-1357.536 Y-534.567
X-1358.189 Y-534.797
X-1358.251 Y-534.821
X-1358.314 Y-534.854
X-1359.007 Y-535.289
X-1359.059 Y-535.329
X-1359.277 Y-535.542
X-1359.494 Y-535.758
X-1359.677 Y-535.942
X-1359.712 Y-535.987
X-1359.821 Y-536.159
X-1360.147 Y-536.682
X-1360.18 Y-536.747
X-1360.205 Y-536.812
X-1360.432 Y-537.465
X-1360.467 Y-537.574
X-1360.486 Y-537.683
X-1360.572 Y-538.444
X-1360.574 Y-538.499
X-1360.572 Y-538.553
X-1360.499 Y-539.206
X-1360.468 Y-539.424
X-1360.395 Y-539.641
X-1360.244 Y-540.077
X-1360.16 Y-540.294
X-1360.147 Y-540.318
X-1359.755 Y-540.947
X-1359.712 Y-541.013
X-1359.572 Y-541.165
X-1359.135 Y-541.6
X-1359.059 Y-541.671
X-1358.839 Y-541.817
X-1358.406 Y-542.089
X-1358.297 Y-542.155
X-1358.189 Y-542.203
X-1357.536 Y-542.433
X-1357.417 Y-542.47
X-1357.318 Y-542.486
X-1356.556 Y-542.571
X-1356.448
X-1355.795 Y-542.498
X-1355.592 Y-542.47
X-1355.577 Y-542.466
X-1355.359 Y-542.392
X-1354.924 Y-542.239
X-1354.706 Y-542.153
X-1354.271 Y-541.88
X-1354.054 Y-541.743
X-1353.964 Y-541.683
X-1353.875 Y-541.6
X-1353.401 Y-541.128
X-1353.316 Y-541.037
X-1353.255 Y-540.947
X-1352.965 Y-540.483
X-1352.849 Y-540.294
X-1352.766 Y-540.077
X-1352.615 Y-539.641
X-1352.541 Y-539.424
X-1352.53 Y-539.377
X-1352.508 Y-539.206
X-1352.431 Y-538.553
X-1352.429 Y-538.499
X-1352.431 Y-538.444
X-1352.516 Y-537.721
G3 X-1352.597 Y-537.501 I-0.593 J-0.091
G1 X-1352.645 Y-537.421 Z0.507
X-1352.693 Y-537.343 Z0.529
X-1352.738 Y-537.268 Z0.565
X-1352.78 Y-537.2 Z0.615
X-1352.817 Y-537.138 Z0.676
X-1352.848 Y-537.086 Z0.747
X-1352.874 Y-537.044 Z0.828
X-1352.893 Y-537.013 Z0.915
X-1352.904 Y-536.995 Z1.006
X-1352.908 Y-536.988 Z1.1
G0 Z30

(2D Contour3)
S8000 M3
M9
X-1356.5 Y-538.5
Z30
Z20
G1 Z0.5 F850
G3 X-1356.2 Y-538.8 I0.3
G1 X-1352.2
G3 X-1351.9 Y-538.5 J0.3
X-1359.26 Y-534.82 I-4.6
Y-542.18 I2.76 J-3.68
X-1351.9 Y-538.5 I2.76 J3.68
X-1359.26 Y-534.82 I-4.6
Y-542.18 I2.76 J-3.68
X-1351.9 Y-538.5 I2.76 J3.68
X-1352.5 Y-537.9 I-0.6
G1 X-1353.1
G18 G3 X-1353.7 Z1.1 K0.6
G0 Z30
G17

(2D Adaptive3)
S6000 M3
M9
G0 X-1356.784 Y-189.337
Z30
Z20
Z18.15
G1 Z17.55 F850
G3 X-1353.848 Y-185.469 Z17.347 I0.28 J2.836 F283.3
X-1359.161 Y-187.532 Z17.034 I-2.657 J-1.031
X-1357.246 Y-189.253 Z16.941 I2.657 J1.032
X-1353.714 Y-185.919 Z16.738 I0.741 J2.752
X-1358.284 Y-184.274 Z16.535 I-2.79 J-0.582
X-1357.687 Y-189.094 Z16.332 I1.779 J-2.226
X-1353.657 Y-186.384 Z16.129 I1.183 J2.593
X-1359.352 Y-186.617 Z15.817 I-2.848 J-0.116
X-1358.096 Y-188.865 Z15.723 I2.848 J0.116
X-1353.676 Y-186.853 Z15.52 I1.592 J2.364
X-1357.467 Y-183.818 Z15.317 I-2.828 J0.353
X-1358.463 Y-188.571 Z15.114 I0.963 J-2.682
X-1353.772 Y-187.312 Z14.911 I1.958 J2.071
X-1357.014 Y-183.697 Z14.708 I-2.732 J0.812
X-1358.776 Y-188.222 Z14.505 I0.51 J-2.804
X-1353.943 Y-187.749 Z14.302 I2.271 J1.721
X-1356.547 Y-183.651 Z14.099 I-2.562 J1.249
X-1359.027 Y-187.826 Z13.896 I0.043 J-2.85
X-1354.182 Y-188.153 Z13.693 I2.523 J1.326
X-1358.826 Y-184.848 Z13.381 I-2.322 J1.652
X-1359.211 Y-187.394 Z13.288 I2.322 J-1.652
X-1354.485 Y-188.511 Z13.085 I2.706 J0.894
X-1355.623 Y-183.79 Z12.882 I-2.02 J2.011
X-1359.321 Y-186.938 Z12.679 I-0.882 J-2.71
X-1354.842 Y-188.815 Z12.476 I2.816 J0.438
X-1355.19 Y-183.972 Z12.273 I-1.662 J2.315
X-1359.354 Y-186.47 Z12.07 I-1.314 J-2.529
X-1353.654 Y-186.531 Z11.757 I2.85 J-0.03
X-1354.793 Y-184.222 Z11.664 I-2.85 J0.03
X-1358.216 Y-188.78 Z11.351 I-1.711 J-2.279
X-1355.68 Y-189.229 Z11.258 I1.711 J2.279
X-1354.442 Y-184.533 Z11.055 I-0.824 J2.728
X-1359.191 Y-185.55 Z10.852 I-2.062 J-1.967
X-1356.139 Y-189.327 Z10.649 I2.687 J-0.951
X-1354.148 Y-184.898 Z10.446 I-0.365 J2.827
X-1358.999 Y-185.122 Z10.243 I-2.357 J-1.602
X-1356.608 Y-189.349 Z10.04 I2.494 J-1.379
X-1353.917 Y-185.306 Z9.837 I0.104 J2.848
X-1358.739 Y-184.731 Z9.634 I-2.588 J-1.194
X-1357.074 Y-189.293 Z9.431 I2.234 J-1.769
X-1353.756 Y-185.747 Z9.228 I0.569 J2.793
X-1359.253 Y-187.254 Z8.915 I-2.749 J-0.753
X-1357.524 Y-189.162 Z8.822 I2.749 J0.754
X-1353.669 Y-186.208 Z8.619 I1.02 J2.661
X-1358.046 Y-184.103 Z8.416 I-2.835 J-0.292
X-1357.947 Y-188.959 Z8.213 I1.542 J-2.397
X-1353.66 Y-186.677 Z8.01 I1.443 J2.458
X-1357.632 Y-183.883 Z7.807 I-2.844 J0.177
X-1358.33 Y-188.689 Z7.604 I1.127 J-2.618
X-1353.727 Y-187.141 Z7.401 I1.826 J2.188
X-1357.187 Y-183.734 Z7.198 I-2.777 J0.641
X-1358.665 Y-188.359 Z6.995 I0.683 J-2.767
X-1353.87 Y-187.588 Z6.792 I2.16 J1.859
X-1356.724 Y-183.659 Z6.589 I-2.634 J1.088
X-1358.94 Y-187.98 Z6.386 I0.219 J-2.841
X-1354.084 Y-188.006 Z6.183 I2.436 J1.479
X-1358.924 Y-184.995 Z5.871 I-2.42 J1.505
X-1359.15 Y-187.56 Z5.777 I2.42 J-1.505
X-1354.364 Y-188.382 Z5.574 I2.646 J1.06
X-1355.792 Y-183.741 Z5.371 I-2.14 J1.882
X-1359.288 Y-187.112 Z5.168 I-0.712 J-2.76
X-1353.721 Y-185.889 Z4.856 I2.784 J0.611
X-1355.349 Y-183.895 Z4.762 I-2.784 J-0.611
X-1359.351 Y-186.647 Z4.56 I-1.155 J-2.605
X-1355.088 Y-188.974 Z4.357 I2.846 J0.146
X-1354.938 Y-184.12 Z4.154 I-1.416 J2.473
X-1359.336 Y-186.178 Z3.951 I-1.567 J-2.381
X-1355.513 Y-189.173 Z3.748 I2.832 J-0.322
X-1354.568 Y-184.409 Z3.545 I-0.991 J2.672
X-1359.245 Y-185.718 Z3.342 I-1.936 J-2.091
X-1355.965 Y-189.299 Z3.139 I2.74 J-0.783
X-1354.251 Y-184.755 Z2.936 I-0.54 J2.798
X-1359.079 Y-185.279 Z2.733 I-2.253 J-1.745
X-1356.431 Y-189.35 Z2.53 I2.575 J-1.222
X-1353.996 Y-185.148 Z2.327 I-0.073 J2.849
X-1358.844 Y-184.873 Z2.124 I-2.509 J-1.352
X-1356.899 Y-189.323 Z1.921 I2.34 J-1.627
X-1353.808 Y-185.578 Z1.718 I0.395 J2.823
X-1358.545 Y-184.511 Z1.515 I-2.697 J-0.922
X-1357.357 Y-189.22 Z1.312 I2.041 J-1.989
X-1353.693 Y-186.033 Z1.109 I0.853 J2.719
X-1358.191 Y-184.203 Z0.906 I-2.811 J-0.467
X-1357.792 Y-189.043 Z0.703 I1.687 J-2.297
X-1353.654 Y-186.501 Z0.5 I1.287 J2.543
X-1355.854 Y-183.726 I-2.85
X-1359.132 Y-185.397 I-0.65 J-2.775
X-1358.031 Y-188.907 I2.628 J-1.104
X-1354.734 Y-188.734 I1.527 J2.407
X-1353.654 Y-186.501 I-1.771 J2.233
G1 X-1353.641 Y-185.543 F850
X-1353.611 Y-185.427
X-1353.591 Y-185.278
X-1353.589 Y-185.128
X-1353.602 Y-184.979
X-1353.629 Y-184.831
X-1353.668 Y-184.686
X-1353.717 Y-184.545
X-1353.776 Y-184.407
X-1353.844 Y-184.273
X-1353.921 Y-184.144
X-1354.005 Y-184.02
X-1354.096 Y-183.9
X-1354.198 Y-183.782
X-1354.308 Y-183.667
X-1354.428 Y-183.556
X-1354.558 Y-183.448
X-1354.696 Y-183.346
X-1354.843 Y-183.25
X-1354.997 Y-183.161
X-1355.159 Y-183.079
X-1355.328 Y-183.006
X-1355.504 Y-182.941
X-1355.685 Y-182.885
X-1355.871 Y-182.839
X-1356.062 Y-182.804
X-1356.256 Y-182.779
X-1356.453 Y-182.764
X-1356.652 Y-182.761
X-1356.852 Y-182.769
X-1357.053 Y-182.788
X-1357.253 Y-182.819
X-1357.453 Y-182.862
X-1357.651 Y-182.915
X-1357.846 Y-182.98
X-1358.038 Y-183.057
X-1358.226 Y-183.144
X-1358.41 Y-183.242
X-1358.588 Y-183.35
X-1358.76 Y-183.469
X-1358.926 Y-183.598
X-1359.084 Y-183.735
X-1359.235 Y-183.882
X-1359.378 Y-184.038
X-1359.511 Y-184.201
X-1359.636 Y-184.372
X-1359.75 Y-184.549
X-1359.855 Y-184.734
X-1359.949 Y-184.924
X-1360.033 Y-185.119
X-1360.105 Y-185.318
X-1360.166 Y-185.522
X-1360.216 Y-185.729
X-1360.254 Y-185.938
X-1360.28 Y-186.149
X-1360.294 Y-186.362
X-1360.296 Y-186.575
X-1360.286 Y-186.788
X-1360.264 Y-187
X-1360.23 Y-187.21
X-1360.185 Y-187.418
X-1360.127 Y-187.624
X-1360.059 Y-187.826
X-1359.979 Y-188.024
X-1359.888 Y-188.217
X-1359.786 Y-188.404
X-1359.673 Y-188.586
X-1359.551 Y-188.761
X-1359.419 Y-188.929
X-1359.278 Y-189.089
X-1359.128 Y-189.241
X-1358.97 Y-189.384
X-1358.804 Y-189.519
X-1358.63 Y-189.643
X-1358.45 Y-189.758
X-1358.264 Y-189.862
X-1358.072 Y-189.956
X-1357.875 Y-190.039
X-1357.673 Y-190.11
X-1357.468 Y-190.17
X-1357.26 Y-190.219
X-1357.05 Y-190.256
X-1356.837 Y-190.28
X-1356.624 Y-190.293
X-1356.41 Y-190.294
X-1356.197 Y-190.283
X-1355.984 Y-190.259
X-1355.774 Y-190.224
X-1355.565 Y-190.177
X-1355.36 Y-190.118
X-1355.158 Y-190.048
X-1354.96 Y-189.967
X-1354.768 Y-189.874
X-1354.581 Y-189.771
X-1354.399 Y-189.658
X-1354.225 Y-189.534
X-1354.058 Y-189.401
X-1353.898 Y-189.259
X-1353.747 Y-189.108
X-1353.605 Y-188.948
X-1353.472 Y-188.781
X-1353.348 Y-188.607
X-1353.234 Y-188.426
X-1353.131 Y-188.239
X-1353.027 Y-188.022
X-1352.898 Y-187.709
X-1352.747 Y-187.274
X-1352.649 Y-186.932
X-1352.582 Y-186.635
X-1352.536 Y-186.363
X-1352.508 Y-186.108
X-1352.505 Y-186.063
X-1352.503 Y-185.949
X-1352.506 Y-185.835
X-1352.516 Y-185.721
X-1352.521 Y-185.683
X-1352.53 Y-185.622
X-1352.578 Y-185.465
X-1352.805 Y-184.812
X-1352.851 Y-184.703
X-1352.917 Y-184.595
X-1353.189 Y-184.159
X-1353.333 Y-183.942
X-1353.401 Y-183.872
X-1353.92 Y-183.356
X-1354.004 Y-183.289
X-1354.054 Y-183.257
X-1354.696 Y-182.854
X-1354.706 Y-182.848
X-1354.924 Y-182.761
X-1355.359 Y-182.608
X-1355.577 Y-182.534
X-1355.795 Y-182.502
X-1356.448 Y-182.429
X-1356.556
X-1357.318 Y-182.514
X-1357.427 Y-182.532
X-1357.536 Y-182.567
X-1358.189 Y-182.797
X-1358.251 Y-182.821
X-1358.314 Y-182.854
X-1359.007 Y-183.289
X-1359.059 Y-183.329
X-1359.277 Y-183.542
X-1359.494 Y-183.758
X-1359.677 Y-183.942
X-1359.712 Y-183.987
X-1359.821 Y-184.159
X-1360.147 Y-184.682
X-1360.18 Y-184.747
X-1360.205 Y-184.812
X-1360.432 Y-185.465
X-1360.467 Y-185.574
X-1360.486 Y-185.683
X-1360.572 Y-186.444
X-1360.574 Y-186.499
X-1360.572 Y-186.553
X-1360.499 Y-187.206
X-1360.468 Y-187.424
X-1360.395 Y-187.641
X-1360.244 Y-188.077
X-1360.16 Y-188.294
X-1360.147 Y-188.318
X-1359.755 Y-188.947
X-1359.712 Y-189.013
X-1359.572 Y-189.165
X-1359.135 Y-189.6
X-1359.059 Y-189.671
X-1358.839 Y-189.817
X-1358.406 Y-190.089
X-1358.297 Y-190.155
X-1358.189 Y-190.203
X-1357.536 Y-190.433
X-1357.417 Y-190.47
X-1357.318 Y-190.486
X-1356.556 Y-190.571
X-1356.448
X-1355.795 Y-190.498
X-1355.592 Y-190.47
X-1355.577 Y-190.466
X-1355.359 Y-190.392
X-1354.924 Y-190.239
X-1354.706 Y-190.153
X-1354.271 Y-189.88
X-1354.054 Y-189.743
X-1353.964 Y-189.683
X-1353.875 Y-189.6
X-1353.401 Y-189.128
X-1353.316 Y-189.037
X-1353.255 Y-188.947
X-1352.965 Y-188.483
X-1352.849 Y-188.294
X-1352.766 Y-188.077
X-1352.615 Y-187.641
X-1352.541 Y-187.424
X-1352.53 Y-187.377
X-1352.508 Y-187.206
X-1352.431 Y-186.553
X-1352.429 Y-186.499
X-1352.431 Y-186.444
X-1352.516 Y-185.721
G3 X-1352.597 Y-185.501 I-0.593 J-0.091
G1 X-1352.645 Y-185.421 Z0.507
X-1352.693 Y-185.343 Z0.529
X-1352.738 Y-185.268 Z0.565
X-1352.78 Y-185.2 Z0.615
X-1352.817 Y-185.138 Z0.676
X-1352.848 Y-185.086 Z0.747
X-1352.874 Y-185.044 Z0.828
X-1352.893 Y-185.013 Z0.915
X-1352.904 Y-184.995 Z1.006
X-1352.908 Y-184.988 Z1.1
G0 Z30

(2D Contour3)
S8000 M3
M9
X-1356.5 Y-186.5
Z30
Z20
G1 Z0.5 F850
G3 X-1356.2 Y-186.8 I0.3
G1 X-1352.2
G3 X-1351.9 Y-186.5 J0.3
X-1359.26 Y-182.82 I-4.6
Y-190.18 I2.76 J-3.68
X-1351.9 Y-186.5 I2.76 J3.68
X-1359.26 Y-182.82 I-4.6
Y-190.18 I2.76 J-3.68
X-1351.9 Y-186.5 I2.76 J3.68
X-1352.5 Y-185.9 I-0.6
G1 X-1353.1
G18 G3 X-1353.7 Z1.1 K0.6
G0 Z30
G17

(2D Adaptive3)
S6000 M3
M9
G0 X-1304.184 Y-56.737
Z30
Z20
Z18.15
G1 Z17.55 F850
G3 X-1301.248 Y-52.869 Z17.347 I0.28 J2.836 F283.3
X-1306.561 Y-54.932 Z17.034 I-2.657 J-1.031
X-1304.646 Y-56.653 Z16.941 I2.657 J1.032
X-1301.114 Y-53.319 Z16.738 I0.741 J2.752
X-1305.684 Y-51.674 Z16.535 I-2.79 J-0.582
X-1305.087 Y-56.494 Z16.332 I1.779 J-2.226
X-1301.057 Y-53.784 Z16.129 I1.183 J2.593
X-1306.752 Y-54.017 Z15.817 I-2.848 J-0.116
X-1305.496 Y-56.265 Z15.723 I2.848 J0.116
X-1301.076 Y-54.253 Z15.52 I1.592 J2.364
X-1304.867 Y-51.218 Z15.317 I-2.828 J0.353
X-1305.863 Y-55.971 Z15.114 I0.963 J-2.682
X-1301.172 Y-54.712 Z14.911 I1.958 J2.071
X-1304.414 Y-51.097 Z14.708 I-2.732 J0.812
X-1306.176 Y-55.622 Z14.505 I0.51 J-2.804
X-1301.343 Y-55.149 Z14.302 I2.271 J1.721
X-1303.947 Y-51.051 Z14.099 I-2.562 J1.249
X-1306.427 Y-55.226 Z13.896 I0.043 J-2.85
X-1301.582 Y-55.553 Z13.693 I2.523 J1.326
X-1306.226 Y-52.248 Z13.381 I-2.322 J1.652
X-1306.611 Y-54.794 Z13.288 I2.322 J-1.652
X-1301.885 Y-55.911 Z13.085 I2.706 J0.894
X-1303.023 Y-51.19 Z12.882 I-2.02 J2.011
X-1306.721 Y-54.338 Z12.679 I-0.882 J-2.71
X-1302.242 Y-56.215 Z12.476 I2.816 J0.438
X-1302.59 Y-51.372 Z12.273 I-1.662 J2.315
X-1306.754 Y-53.87 Z12.07 I-1.314 J-2.529
X-1301.054 Y-53.931 Z11.757 I2.85 J-0.03
X-1302.193 Y-51.622 Z11.664 I-2.85 J0.03
X-1305.616 Y-56.18 Z11.351 I-1.711 J-2.279
X-1303.08 Y-56.629 Z11.258 I1.711 J2.279
X-1301.842 Y-51.933 Z11.055 I-0.824 J2.728
X-1306.591 Y-52.95 Z10.852 I-2.062 J-1.967
X-1303.539 Y-56.727 Z10.649 I2.687 J-0.951
X-1301.548 Y-52.298 Z10.446 I-0.365 J2.827
X-1306.399 Y-52.522 Z10.243 I-2.357 J-1.602
X-1304.008 Y-56.749 Z10.04 I2.494 J-1.379
X-1301.317 Y-52.706 Z9.837 I0.104 J2.848
X-1306.139 Y-52.131 Z9.634 I-2.588 J-1.194
X-1304.474 Y-56.693 Z9.431 I2.234 J-1.769
X-1301.156 Y-53.147 Z9.228 I0.569 J2.793
X-1306.653 Y-54.654 Z8.915 I-2.749 J-0.753
X-1304.924 Y-56.562 Z8.822 I2.749 J0.754
X-1301.069 Y-53.608 Z8.619 I1.02 J2.661
X-1305.446 Y-51.503 Z8.416 I-2.835 J-0.292
X-1305.347 Y-56.359 Z8.213 I1.542 J-2.397
X-1301.06 Y-54.077 Z8.01 I1.443 J2.458
X-1305.032 Y-51.283 Z7.807 I-2.844 J0.177
X-1305.73 Y-56.089 Z7.604 I1.127 J-2.618
X-1301.127 Y-54.541 Z7.401 I1.826 J2.188
X-1304.587 Y-51.134 Z7.198 I-2.777 J0.641
X-1306.065 Y-55.76 Z6.995 I0.683 J-2.767
X-1301.27 Y-54.988 Z6.792 I2.16 J1.859
X-1304.124 Y-51.059 Z6.589 I-2.634 J1.088
X-1306.34 Y-55.38 Z6.386 I0.219 J-2.841
X-1301.484 Y-55.406 Z6.183 I2.436 J1.479
X-1306.324 Y-52.395 Z5.871 I-2.42 J1.505
X-1306.55 Y-54.96 Z5.777 I2.42 J-1.505
X-1301.764 Y-55.782 Z5.574 I2.646 J1.06
X-1303.192 Y-51.141 Z5.371 I-2.14 J1.882
X-1306.688 Y-54.512 Z5.168 I-0.712 J-2.76
X-1301.121 Y-53.289 Z4.856 I2.784 J0.611
X-1302.749 Y-51.295 Z4.762 I-2.784 J-0.611
X-1306.751 Y-54.047 Z4.56 I-1.155 J-2.605
X-1302.488 Y-56.374 Z4.357 I2.846 J0.146
X-1302.338 Y-51.52 Z4.154 I-1.416 J2.473
X-1306.736 Y-53.578 Z3.951 I-1.567 J-2.381
X-1302.913 Y-56.573 Z3.748 I2.832 J-0.322
X-1301.968 Y-51.809 Z3.545 I-0.991 J2.672
X-1306.645 Y-53.118 Z3.342 I-1.936 J-2.091
X-1303.365 Y-56.699 Z3.139 I2.74 J-0.783
X-1301.651 Y-52.155 Z2.936 I-0.54 J2.798
X-1306.479 Y-52.679 Z2.733 I-2.253 J-1.745
X-1303.831 Y-56.75 Z2.53 I2.575 J-1.222
X-1301.396 Y-52.548 Z2.327 I-0.073 J2.849
X-1306.244 Y-52.273 Z2.124 I-2.509 J-1.352
X-1304.299 Y-56.723 Z1.921 I2.34 J-1.627
X-1301.208 Y-52.978 Z1.718 I0.395 J2.823
X-1305.945 Y-51.911 Z1.515 I-2.697 J-0.922
X-1304.757 Y-56.62 Z1.312 I2.041 J-1.989
X-1301.093 Y-53.433 Z1.109 I0.853 J2.719
X-1305.591 Y-51.604 Z0.906 I-2.811 J-0.467
X-1305.192 Y-56.443 Z0.703 I1.687 J-2.297
X-1301.054 Y-53.901 Z0.5 I1.287 J2.543
X-1303.254 Y-51.126 I-2.85
X-1306.532 Y-52.797 I-0.65 J-2.775
X-1305.431 Y-56.307 I2.628 J-1.104
X-1302.134 Y-56.134 I1.527 J2.407
X-1301.054 Y-53.901 I-1.771 J2.233
G1 X-1301.041 Y-52.943 F850
X-1301.011 Y-52.827
X-1300.991 Y-52.678
X-1300.989 Y-52.528
X-1301.002 Y-52.379
X-1301.029 Y-52.231
X-1301.068 Y-52.086
X-1301.117 Y-51.945
X-1301.176 Y-51.807
X-1301.244 Y-51.673
X-1301.321 Y-51.544
X-1301.405 Y-51.42
X-1301.496 Y-51.3
X-1301.598 Y-51.182
X-1301.708 Y-51.067
X-1301.828 Y-50.956
X-1301.958 Y-50.848
X-1302.096 Y-50.746
X-1302.243 Y-50.65
X-1302.397 Y-50.561
X-1302.559 Y-50.479
X-1302.729 Y-50.406
X-1302.904 Y-50.341
X-1303.085 Y-50.285
X-1303.271 Y-50.239
X-1303.462 Y-50.204
X-1303.656 Y-50.179
X-1303.853 Y-50.164
X-1304.052 Y-50.161
X-1304.252 Y-50.169
X-1304.453 Y-50.188
X-1304.653 Y-50.219
X-1304.853 Y-50.262
X-1305.051 Y-50.315
X-1305.246 Y-50.38
X-1305.438 Y-50.457
X-1305.626 Y-50.544
X-1305.81 Y-50.642
X-1305.988 Y-50.75
X-1306.16 Y-50.869
X-1306.326 Y-50.998
X-1306.484 Y-51.135
X-1306.635 Y-51.282
X-1306.778 Y-51.438
X-1306.911 Y-51.601
X-1307.036 Y-51.772
X-1307.15 Y-51.95
X-1307.255 Y-52.134
X-1307.349 Y-52.324
X-1307.433 Y-52.519
X-1307.505 Y-52.718
X-1307.566 Y-52.922
X-1307.616 Y-53.129
X-1307.654 Y-53.338
X-1307.68 Y-53.549
X-1307.694 Y-53.762
X-1307.696 Y-53.975
X-1307.686 Y-54.188
X-1307.664 Y-54.4
X-1307.63 Y-54.61
X-1307.585 Y-54.818
X-1307.527 Y-55.024
X-1307.459 Y-55.226
X-1307.379 Y-55.424
X-1307.288 Y-55.617
X-1307.186 Y-55.804
X-1307.073 Y-55.986
X-1306.951 Y-56.161
X-1306.819 Y-56.329
X-1306.678 Y-56.489
X-1306.528 Y-56.641
X-1306.37 Y-56.784
X-1306.204 Y-56.919
X-1306.03 Y-57.043
X-1305.85 Y-57.158
X-1305.664 Y-57.262
X-1305.472 Y-57.356
X-1305.275 Y-57.439
X-1305.073 Y-57.51
X-1304.868 Y-57.57
X-1304.66 Y-57.619
X-1304.45 Y-57.656
X-1304.237 Y-57.68
X-1304.024 Y-57.693
X-1303.81 Y-57.694
X-1303.597 Y-57.683
X-1303.385 Y-57.659
X-1303.174 Y-57.624
X-1302.965 Y-57.577
X-1302.76 Y-57.518
X-1302.558 Y-57.448
X-1302.36 Y-57.367
X-1302.168 Y-57.274
X-1301.981 Y-57.171
X-1301.799 Y-57.058
X-1301.625 Y-56.934
X-1301.458 Y-56.801
X-1301.298 Y-56.659
X-1301.147 Y-56.508
X-1301.005 Y-56.348
X-1300.872 Y-56.181
X-1300.748 Y-56.007
X-1300.635 Y-55.826
X-1300.531 Y-55.639
X-1300.427 Y-55.422
X-1300.298 Y-55.109
X-1300.147 Y-54.674
X-1300.049 Y-54.332
X-1299.982 Y-54.035
X-1299.936 Y-53.763
X-1299.908 Y-53.508
X-1299.906 Y-53.463
X-1299.903 Y-53.349
X-1299.906 Y-53.235
X-1299.917 Y-53.121
X-1299.921 Y-53.083
X-1299.93 Y-53.022
X-1299.978 Y-52.865
X-1300.205 Y-52.212
X-1300.251 Y-52.103
X-1300.317 Y-51.995
X-1300.589 Y-51.559
X-1300.733 Y-51.342
X-1300.801 Y-51.272
X-1301.32 Y-50.756
X-1301.404 Y-50.689
X-1301.454 Y-50.657
X-1302.096 Y-50.254
X-1302.106 Y-50.248
X-1302.324 Y-50.161
X-1302.759 Y-50.008
X-1302.977 Y-49.934
X-1303.195 Y-49.902
X-1303.848 Y-49.829
X-1303.956
X-1304.718 Y-49.914
X-1304.827 Y-49.932
X-1304.936 Y-49.967
X-1305.589 Y-50.197
X-1305.651 Y-50.221
X-1305.714 Y-50.254
X-1306.407 Y-50.689
X-1306.459 Y-50.729
X-1306.677 Y-50.942
X-1306.894 Y-51.158
X-1307.077 Y-51.342
X-1307.112 Y-51.388
X-1307.221 Y-51.559
X-1307.547 Y-52.082
X-1307.58 Y-52.147
X-1307.605 Y-52.212
X-1307.832 Y-52.865
X-1307.867 Y-52.974
X-1307.886 Y-53.083
X-1307.972 Y-53.844
X-1307.974 Y-53.899
X-1307.972 Y-53.953
X-1307.899 Y-54.606
X-1307.868 Y-54.824
X-1307.795 Y-55.041
X-1307.644 Y-55.477
X-1307.56 Y-55.694
X-1307.547 Y-55.718
X-1307.155 Y-56.347
X-1307.112 Y-56.413
X-1306.972 Y-56.565
X-1306.535 Y-57
X-1306.459 Y-57.071
X-1306.239 Y-57.217
X-1305.806 Y-57.489
X-1305.697 Y-57.555
X-1305.589 Y-57.603
X-1304.936 Y-57.833
X-1304.817 Y-57.87
X-1304.718 Y-57.886
X-1303.956 Y-57.971
X-1303.848
X-1303.195 Y-57.898
X-1302.992 Y-57.87
X-1302.977 Y-57.866
X-1302.759 Y-57.792
X-1302.324 Y-57.639
X-1302.106 Y-57.553
X-1301.671 Y-57.28
X-1301.454 Y-57.143
X-1301.365 Y-57.083
X-1301.276 Y-57
X-1300.801 Y-56.528
X-1300.716 Y-56.437
X-1300.655 Y-56.347
X-1300.365 Y-55.883
X-1300.249 Y-55.694
X-1300.167 Y-55.477
X-1300.015 Y-55.041
X-1299.941 Y-54.824
X-1299.93 Y-54.777
X-1299.908 Y-54.606
X-1299.831 Y-53.953
X-1299.829 Y-53.899
X-1299.831 Y-53.844
X-1299.917 Y-53.121
G3 X-1299.997 Y-52.901 I-0.593 J-0.091
G1 X-1300.045 Y-52.821 Z0.507
X-1300.093 Y-52.743 Z0.529
X-1300.138 Y-52.668 Z0.565
X-1300.18 Y-52.6 Z0.615
X-1300.217 Y-52.539 Z0.676
X-1300.248 Y-52.486 Z0.747
X-1300.274 Y-52.444 Z0.828
X-1300.293 Y-52.413 Z0.915
X-1300.304 Y-52.395 Z1.006
X-1300.308 Y-52.388 Z1.1
G0 Z30

(2D Contour3)
S8000 M3
M9
X-1303.9 Y-53.9
Z30
Z20
G1 Z0.5 F850
G3 X-1303.6 Y-54.2 I0.3
G1 X-1299.6
G3 X-1299.3 Y-53.9 J0.3
X-1306.66 Y-50.22 I-4.6
Y-57.58 I2.76 J-3.68
X-1299.3 Y-53.9 I2.76 J3.68
X-1306.66 Y-50.22 I-4.6
Y-57.58 I2.76 J-3.68
X-1299.3 Y-53.9 I2.76 J3.68
X-1299.9 Y-53.3 I-0.6
G1 X-1300.5
G18 G3 X-1301.1 Z1.1 K0.6
G0 Z30
G17

(2D Adaptive3)
S6000 M3
M9
G0 X-174.184 Y-56.737
Z30
Z20
Z18.15
G1 Z17.55 F850
G3 X-171.247 Y-52.869 Z17.347 I0.28 J2.836 F283.3
X-176.561 Y-54.932 Z17.034 I-2.657 J-1.031
X-174.646 Y-56.653 Z16.941 I2.657 J1.032
X-171.114 Y-53.319 Z16.738 I0.741 J2.752
X-175.683 Y-51.674 Z16.535 I-2.79 J-0.582
X-175.087 Y-56.494 Z16.332 I1.779 J-2.226
X-171.057 Y-53.784 Z16.129 I1.183 J2.593
X-176.752 Y-54.017 Z15.817 I-2.848 J-0.116
X-175.496 Y-56.265 Z15.723 I2.848 J0.116
X-171.076 Y-54.253 Z15.52 I1.592 J2.364
X-174.867 Y-51.218 Z15.317 I-2.828 J0.353
X-175.862 Y-55.971 Z15.114 I0.963 J-2.682
X-171.172 Y-54.712 Z14.911 I1.958 J2.071
X-174.414 Y-51.097 Z14.708 I-2.732 J0.812
X-176.176 Y-55.622 Z14.505 I0.51 J-2.804
X-171.342 Y-55.149 Z14.302 I2.271 J1.721
X-173.947 Y-51.051 Z14.099 I-2.562 J1.249
X-176.427 Y-55.226 Z13.896 I0.043 J-2.85
X-171.582 Y-55.553 Z13.693 I2.523 J1.326
X-176.226 Y-52.248 Z13.381 I-2.322 J1.652
X-176.61 Y-54.794 Z13.288 I2.322 J-1.652
X-171.885 Y-55.911 Z13.085 I2.706 J0.894
X-173.023 Y-51.19 Z12.882 I-2.02 J2.011
X-176.72 Y-54.338 Z12.679 I-0.882 J-2.71
X-172.242 Y-56.215 Z12.476 I2.816 J0.438
X-172.59 Y-51.372 Z12.273 I-1.662 J2.315
X-176.754 Y-53.87 Z12.07 I-1.314 J-2.529
X-171.054 Y-53.931 Z11.757 I2.85 J-0.03
X-172.193 Y-51.622 Z11.664 I-2.85 J0.03
X-175.615 Y-56.18 Z11.351 I-1.711 J-2.279
X-173.08 Y-56.629 Z11.258 I1.711 J2.279
X-171.842 Y-51.933 Z11.055 I-0.824 J2.728
X-176.591 Y-52.95 Z10.852 I-2.062 J-1.967
X-173.539 Y-56.727 Z10.649 I2.687 J-0.951
X-171.547 Y-52.298 Z10.446 I-0.365 J2.827
X-176.398 Y-52.522 Z10.243 I-2.357 J-1.602
X-174.008 Y-56.749 Z10.04 I2.494 J-1.379
X-171.317 Y-52.706 Z9.837 I0.104 J2.848
X-176.139 Y-52.131 Z9.634 I-2.588 J-1.194
X-174.474 Y-56.693 Z9.431 I2.234 J-1.769
X-171.156 Y-53.147 Z9.228 I0.569 J2.793
X-176.653 Y-54.654 Z8.915 I-2.749 J-0.753
X-174.924 Y-56.562 Z8.822 I2.749 J0.754
X-171.069 Y-53.608 Z8.619 I1.02 J2.661
X-175.446 Y-51.503 Z8.416 I-2.835 J-0.292
X-175.347 Y-56.359 Z8.213 I1.542 J-2.397
X-171.06 Y-54.077 Z8.01 I1.443 J2.458
X-175.031 Y-51.283 Z7.807 I-2.844 J0.177
X-175.73 Y-56.089 Z7.604 I1.127 J-2.618
X-171.127 Y-54.541 Z7.401 I1.826 J2.188
X-174.587 Y-51.134 Z7.198 I-2.777 J0.641
X-176.065 Y-55.76 Z6.995 I0.683 J-2.767
X-171.27 Y-54.988 Z6.792 I2.16 J1.859
X-174.124 Y-51.059 Z6.589 I-2.634 J1.088
X-176.34 Y-55.38 Z6.386 I0.219 J-2.841
X-171.484 Y-55.406 Z6.183 I2.436 J1.479
X-176.324 Y-52.395 Z5.871 I-2.42 J1.505
X-176.55 Y-54.96 Z5.777 I2.42 J-1.505
X-171.764 Y-55.782 Z5.574 I2.646 J1.06
X-173.192 Y-51.141 Z5.371 I-2.14 J1.882
X-176.688 Y-54.512 Z5.168 I-0.712 J-2.76
X-171.121 Y-53.289 Z4.856 I2.784 J0.611
X-172.749 Y-51.295 Z4.762 I-2.784 J-0.611
X-176.75 Y-54.047 Z4.56 I-1.155 J-2.605
X-172.488 Y-56.374 Z4.357 I2.846 J0.146
X-172.337 Y-51.52 Z4.154 I-1.416 J2.473
X-176.736 Y-53.578 Z3.951 I-1.567 J-2.381
X-172.913 Y-56.573 Z3.748 I2.832 J-0.322
X-171.968 Y-51.809 Z3.545 I-0.991 J2.672
X-176.645 Y-53.118 Z3.342 I-1.936 J-2.091
X-173.365 Y-56.699 Z3.139 I2.74 J-0.783
X-171.651 Y-52.155 Z2.936 I-0.54 J2.798
X-176.479 Y-52.679 Z2.733 I-2.253 J-1.745
X-173.831 Y-56.75 Z2.53 I2.575 J-1.222
X-171.396 Y-52.548 Z2.327 I-0.073 J2.849
X-176.244 Y-52.273 Z2.124 I-2.509 J-1.352
X-174.299 Y-56.723 Z1.921 I2.34 J-1.627
X-171.208 Y-52.978 Z1.718 I0.395 J2.823
X-175.945 Y-51.911 Z1.515 I-2.697 J-0.922
X-174.757 Y-56.62 Z1.312 I2.041 J-1.989
X-171.093 Y-53.433 Z1.109 I0.853 J2.719
X-175.591 Y-51.604 Z0.906 I-2.811 J-0.467
X-175.192 Y-56.443 Z0.703 I1.687 J-2.297
X-171.054 Y-53.901 Z0.5 I1.287 J2.543
X-173.254 Y-51.126 I-2.85
X-176.532 Y-52.797 I-0.65 J-2.775
X-175.431 Y-56.307 I2.628 J-1.104
X-172.134 Y-56.134 I1.527 J2.407
X-171.054 Y-53.901 I-1.771 J2.233
G1 X-171.04 Y-52.943 F850
X-171.011 Y-52.827
X-170.991 Y-52.678
X-170.989 Y-52.528
X-171.002 Y-52.379
X-171.029 Y-52.231
X-171.068 Y-52.086
X-171.117 Y-51.945
X-171.176 Y-51.807
X-171.244 Y-51.673
X-171.321 Y-51.544
X-171.405 Y-51.42
X-171.496 Y-51.3
X-171.597 Y-51.182
X-171.708 Y-51.067
X-171.828 Y-50.956
X-171.958 Y-50.848
X-172.096 Y-50.746
X-172.242 Y-50.65
X-172.397 Y-50.561
X-172.559 Y-50.479
X-172.728 Y-50.406
X-172.904 Y-50.341
X-173.085 Y-50.285
X-173.271 Y-50.239
X-173.462 Y-50.204
X-173.656 Y-50.179
X-173.853 Y-50.164
X-174.052 Y-50.161
X-174.252 Y-50.169
X-174.453 Y-50.188
X-174.653 Y-50.219
X-174.853 Y-50.262
X-175.051 Y-50.315
X-175.246 Y-50.38
X-175.438 Y-50.457
X-175.626 Y-50.544
X-175.81 Y-50.642
X-175.988 Y-50.75
X-176.16 Y-50.869
X-176.326 Y-50.998
X-176.484 Y-51.135
X-176.635 Y-51.282
X-176.777 Y-51.438
X-176.911 Y-51.601
X-177.036 Y-51.772
X-177.15 Y-51.95
X-177.255 Y-52.134
X-177.349 Y-52.324
X-177.433 Y-52.519
X-177.505 Y-52.718
X-177.566 Y-52.922
X-177.616 Y-53.129
X-177.653 Y-53.338
X-177.679 Y-53.549
X-177.694 Y-53.762
X-177.696 Y-53.975
X-177.686 Y-54.188
X-177.664 Y-54.4
X-177.63 Y-54.61
X-177.584 Y-54.818
X-177.527 Y-55.024
X-177.458 Y-55.226
X-177.378 Y-55.424
X-177.287 Y-55.617
X-177.186 Y-55.804
X-177.073 Y-55.986
X-176.951 Y-56.161
X-176.819 Y-56.329
X-176.678 Y-56.489
X-176.528 Y-56.641
X-176.37 Y-56.784
X-176.203 Y-56.919
X-176.03 Y-57.043
X-175.85 Y-57.158
X-175.663 Y-57.262
X-175.471 Y-57.356
X-175.274 Y-57.439
X-175.073 Y-57.51
X-174.868 Y-57.57
X-174.66 Y-57.619
X-174.449 Y-57.656
X-174.237 Y-57.68
X-174.024 Y-57.693
X-173.81 Y-57.694
X-173.597 Y-57.683
X-173.384 Y-57.659
X-173.174 Y-57.624
X-172.965 Y-57.577
X-172.76 Y-57.518
X-172.558 Y-57.448
X-172.36 Y-57.367
X-172.168 Y-57.274
X-171.98 Y-57.171
X-171.799 Y-57.058
X-171.625 Y-56.934
X-171.458 Y-56.801
X-171.298 Y-56.659
X-171.147 Y-56.508
X-171.005 Y-56.348
X-170.872 Y-56.181
X-170.748 Y-56.007
X-170.634 Y-55.826
X-170.531 Y-55.639
X-170.427 Y-55.422
X-170.298 Y-55.109
X-170.146 Y-54.674
X-170.049 Y-54.332
X-169.981 Y-54.035
X-169.936 Y-53.763
X-169.908 Y-53.508
X-169.905 Y-53.463
X-169.903 Y-53.349
X-169.906 Y-53.235
X-169.916 Y-53.121
X-169.921 Y-53.083
X-169.93 Y-53.022
X-169.978 Y-52.865
X-170.205 Y-52.212
X-170.251 Y-52.103
X-170.317 Y-51.995
X-170.589 Y-51.559
X-170.733 Y-51.342
X-170.801 Y-51.272
X-171.32 Y-50.756
X-171.404 Y-50.689
X-171.453 Y-50.657
X-172.096 Y-50.254
X-172.106 Y-50.248
X-172.324 Y-50.161
X-172.759 Y-50.008
X-172.977 Y-49.934
X-173.195 Y-49.902
X-173.847 Y-49.829
X-173.956
X-174.718 Y-49.914
X-174.827 Y-49.932
X-174.936 Y-49.967
X-175.589 Y-50.197
X-175.651 Y-50.221
X-175.714 Y-50.254
X-176.407 Y-50.689
X-176.459 Y-50.729
X-176.677 Y-50.942
X-176.894 Y-51.158
X-177.076 Y-51.342
X-177.112 Y-51.388
X-177.221 Y-51.559
X-177.547 Y-52.082
X-177.58 Y-52.147
X-177.605 Y-52.212
X-177.832 Y-52.865
X-177.867 Y-52.974
X-177.886 Y-53.083
X-177.971 Y-53.844
X-177.974 Y-53.899
X-177.971 Y-53.953
X-177.899 Y-54.606
X-177.868 Y-54.824
X-177.795 Y-55.041
X-177.643 Y-55.477
X-177.56 Y-55.694
X-177.547 Y-55.718
X-177.155 Y-56.347
X-177.112 Y-56.413
X-176.972 Y-56.565
X-176.534 Y-57
X-176.459 Y-57.071
X-176.238 Y-57.217
X-175.806 Y-57.489
X-175.697 Y-57.555
X-175.589 Y-57.603
X-174.936 Y-57.833
X-174.816 Y-57.87
X-174.718 Y-57.886
X-173.956 Y-57.971
X-173.847
X-173.195 Y-57.898
X-172.992 Y-57.87
X-172.977 Y-57.866
X-172.759 Y-57.792
X-172.324 Y-57.639
X-172.106 Y-57.553
X-171.671 Y-57.28
X-171.453 Y-57.143
X-171.364 Y-57.083
X-171.275 Y-57
X-170.801 Y-56.528
X-170.716 Y-56.437
X-170.655 Y-56.347
X-170.365 Y-55.883
X-170.249 Y-55.694
X-170.166 Y-55.477
X-170.015 Y-55.041
X-169.941 Y-54.824
X-169.93 Y-54.777
X-169.908 Y-54.606
X-169.831 Y-53.953
X-169.829 Y-53.899
X-169.831 Y-53.844
X-169.916 Y-53.121
G3 X-169.996 Y-52.901 I-0.593 J-0.091
G1 X-170.045 Y-52.821 Z0.507
X-170.093 Y-52.743 Z0.529
X-170.138 Y-52.668 Z0.565
X-170.179 Y-52.6 Z0.615
X-170.217 Y-52.539 Z0.676
X-170.248 Y-52.486 Z0.747
X-170.274 Y-52.444 Z0.828
X-170.292 Y-52.413 Z0.915
X-170.304 Y-52.395 Z1.006
X-170.308 Y-52.388 Z1.1
G0 Z30

(2D Contour3)
S8000 M3
M9
X-173.9 Y-53.9
Z30
Z20
G1 Z0.5 F850
G3 X-173.6 Y-54.2 I0.3
G1 X-169.6
G3 X-169.3 Y-53.9 J0.3
X-176.66 Y-50.22 I-4.6
Y-57.58 I2.76 J-3.68
X-169.3 Y-53.9 I2.76 J3.68
X-176.66 Y-50.22 I-4.6
Y-57.58 I2.76 J-3.68
X-169.3 Y-53.9 I2.76 J3.68
X-169.9 Y-53.3 I-0.6
G1 X-170.5
G18 G3 X-171.1 Z1.1 K0.6
G0 Z30
G17
M9
M30
%
