%
(1001)
(z0 slate machine -5-5)
(T1  D=6 CR=0 - ZMIN=0.5 - flat end mill)
G90 G94
G17
G21

(2D Adaptive3)
M9
T1 M6
S6000 M3
G54
M9
G0 X-1356.884 Y-541.337
Z30
Z20
Z18.15
G1 Z17.55 F850
G3 X-1353.947 Y-537.469 Z17.347 I0.28 J2.836 F283.3
X-1358.724 Y-536.596 Z17.144 I-2.657 J-1.031
X-1357.345 Y-541.253 Z16.941 I2.12 J-1.904
X-1353.814 Y-537.919 Z16.738 I0.741 J2.752
X-1358.383 Y-536.274 Z16.535 I-2.79 J-0.582
X-1357.787 Y-541.094 Z16.332 I1.779 J-2.226
X-1353.756 Y-538.385 Z16.129 I1.183 J2.593
X-1357.994 Y-536.013 Z15.926 I-2.848 J-0.116
X-1358.196 Y-540.865 Z15.723 I1.39 J-2.488
X-1355.012 Y-536.137 Z15.411 I1.592 J2.364
X-1358.562 Y-540.571 Z15.114 I-1.592 J-2.364
X-1353.872 Y-539.312 Z14.911 I1.958 J2.071
X-1357.114 Y-535.697 Z14.708 I-2.732 J0.812
X-1356.094 Y-541.305 Z14.396 I0.51 J-2.804
X-1356.647 Y-535.651 Z14.099 I-0.51 J2.804
X-1359.127 Y-539.826 Z13.896 I0.043 J-2.85
X-1354.282 Y-540.153 Z13.693 I2.523 J1.326
X-1356.179 Y-535.683 Z13.49 I-2.322 J1.652
X-1359.31 Y-539.394 Z13.288 I-0.425 J-2.818
X-1353.898 Y-537.607 Z12.975 I2.706 J0.894
X-1359.42 Y-538.938 Z12.679 I-2.706 J-0.894
X-1353.788 Y-538.063 Z12.366 I2.816 J0.438
X-1355.29 Y-535.972 Z12.273 I-2.816 J-0.438
X-1357.918 Y-541.03 Z11.96 I-1.314 J-2.529
X-1354.893 Y-536.222 Z11.664 I1.314 J2.529
X-1359.41 Y-538.003 Z11.461 I-1.711 J-2.279
X-1353.798 Y-538.998 Z11.148 I2.806 J-0.497
X-1354.542 Y-536.533 Z11.055 I-2.806 J0.497
X-1359.291 Y-537.55 Z10.852 I-2.062 J-1.967
X-1356.239 Y-541.327 Z10.649 I2.687 J-0.951
X-1354.247 Y-536.898 Z10.446 I-0.365 J2.827
X-1358.961 Y-540.103 Z10.133 I-2.357 J-1.602
X-1356.708 Y-541.349 Z10.04 I2.357 J1.602
X-1354.016 Y-537.307 Z9.837 I0.104 J2.848
X-1358.838 Y-536.731 Z9.634 I-2.588 J-1.194
X-1357.173 Y-541.293 Z9.431 I2.234 J-1.769
X-1353.855 Y-537.747 Z9.228 I0.569 J2.793
X-1358.518 Y-536.389 Z9.025 I-2.749 J-0.753
X-1357.624 Y-541.162 Z8.822 I1.914 J-2.112
X-1353.769 Y-538.208 Z8.619 I1.02 J2.661
X-1358.145 Y-536.103 Z8.416 I-2.835 J-0.292
X-1358.046 Y-540.959 Z8.213 I1.541 J-2.397
X-1353.76 Y-538.677 Z8.01 I1.442 J2.458
X-1357.731 Y-535.883 Z7.807 I-2.844 J0.177
X-1358.43 Y-540.689 Z7.604 I1.127 J-2.618
X-1353.827 Y-539.142 Z7.401 I1.826 J2.188
X-1357.287 Y-535.734 Z7.198 I-2.777 J0.641
X-1358.764 Y-540.36 Z6.995 I0.683 J-2.767
X-1353.97 Y-539.588 Z6.792 I2.16 J1.859
X-1359.238 Y-537.413 Z6.48 I-2.634 J1.088
X-1353.97 Y-539.588 Z6.167 I2.634 J-1.088
X-1356.354 Y-535.662 Z5.98 I-2.634 J1.088
X-1359.25 Y-539.56 Z5.777 I-0.25 J-2.839
X-1354.464 Y-540.382 Z5.574 I2.646 J1.06
X-1358.745 Y-536.619 Z5.262 I-2.141 J1.882
X-1359.388 Y-539.112 Z5.168 I2.141 J-1.882
X-1354.801 Y-540.708 Z4.965 I2.784 J0.611
X-1355.449 Y-535.895 Z4.762 I-1.803 J2.207
X-1359.45 Y-538.647 Z4.56 I-1.155 J-2.605
X-1355.188 Y-540.974 Z4.357 I2.846 J0.146
X-1358.02 Y-536.027 Z4.044 I-1.416 J2.473
X-1355.613 Y-541.173 Z3.748 I1.416 J-2.473
X-1354.668 Y-536.409 Z3.545 I-0.991 J2.672
X-1359.344 Y-537.718 Z3.342 I-1.936 J-2.091
X-1356.064 Y-541.299 Z3.139 I2.74 J-0.783
X-1354.351 Y-536.755 Z2.936 I-0.54 J2.798
X-1359.179 Y-537.279 Z2.733 I-2.253 J-1.745
X-1356.531 Y-541.35 Z2.53 I2.575 J-1.222
X-1354.095 Y-537.148 Z2.327 I-0.073 J2.849
X-1358.944 Y-536.873 Z2.124 I-2.509 J-1.352
X-1356.999 Y-541.323 Z1.921 I2.34 J-1.627
X-1353.907 Y-537.578 Z1.718 I0.395 J2.822
X-1359.301 Y-539.423 Z1.405 I-2.697 J-0.922
X-1357.457 Y-541.22 Z1.312 I2.697 J0.922
X-1353.793 Y-538.033 Z1.109 I0.853 J2.719
X-1359.415 Y-538.968 Z0.796 I-2.811 J-0.468
X-1353.754 Y-538.501 Z0.5 I2.811 J0.468
X-1355.954 Y-535.726 I-2.85
X-1359.232 Y-537.397 I-0.65 J-2.775
X-1358.13 Y-540.907 I2.628 J-1.104
X-1354.833 Y-540.734 I1.526 J2.407
X-1353.754 Y-538.501 I-1.771 J2.233
G1 X-1353.74 Y-537.543 F850
X-1353.711 Y-537.427
X-1353.691 Y-537.278
X-1353.689 Y-537.128
X-1353.702 Y-536.979
X-1353.729 Y-536.831
X-1353.767 Y-536.686
X-1353.817 Y-536.545
X-1353.876 Y-536.407
X-1353.944 Y-536.273
X-1354.02 Y-536.144
X-1354.104 Y-536.02
X-1354.196 Y-535.9
X-1354.297 Y-535.782
X-1354.408 Y-535.667
X-1354.528 Y-535.556
X-1354.657 Y-535.448
X-1354.796 Y-535.346
X-1354.942 Y-535.25
X-1355.097 Y-535.161
X-1355.259 Y-535.08
X-1355.428 Y-535.006
X-1355.604 Y-534.941
X-1355.785 Y-534.885
X-1355.971 Y-534.839
X-1356.161 Y-534.804
X-1356.355 Y-534.779
X-1356.552 Y-534.764
X-1356.751 Y-534.761
X-1356.952 Y-534.769
X-1357.153 Y-534.788
X-1357.353 Y-534.819
X-1357.553 Y-534.862
X-1357.75 Y-534.915
X-1357.946 Y-534.98
X-1358.138 Y-535.057
X-1358.326 Y-535.144
X-1358.51 Y-535.242
X-1358.688 Y-535.351
X-1358.86 Y-535.469
X-1359.026 Y-535.598
X-1359.184 Y-535.736
X-1359.335 Y-535.882
X-1359.477 Y-536.038
X-1359.611 Y-536.201
X-1359.735 Y-536.372
X-1359.85 Y-536.55
X-1359.955 Y-536.734
X-1360.049 Y-536.924
X-1360.132 Y-537.119
X-1360.205 Y-537.318
X-1360.266 Y-537.522
X-1360.315 Y-537.729
X-1360.353 Y-537.938
X-1360.379 Y-538.149
X-1360.393 Y-538.362
X-1360.395 Y-538.575
X-1360.385 Y-538.788
X-1360.364 Y-539
X-1360.33 Y-539.21
X-1360.284 Y-539.419
X-1360.227 Y-539.624
X-1360.158 Y-539.826
X-1360.078 Y-540.024
X-1359.987 Y-540.217
X-1359.885 Y-540.404
X-1359.773 Y-540.586
X-1359.651 Y-540.761
X-1359.519 Y-540.929
X-1359.378 Y-541.089
X-1359.228 Y-541.241
X-1359.069 Y-541.385
X-1358.903 Y-541.519
X-1358.73 Y-541.643
X-1358.55 Y-541.758
X-1358.363 Y-541.862
X-1358.171 Y-541.956
X-1357.974 Y-542.039
X-1357.773 Y-542.11
X-1357.568 Y-542.171
X-1357.36 Y-542.219
X-1357.149 Y-542.256
X-1356.937 Y-542.28
X-1356.724 Y-542.293
X-1356.51 Y-542.294
X-1356.297 Y-542.283
X-1356.084 Y-542.259
X-1355.873 Y-542.224
X-1355.665 Y-542.177
X-1355.459 Y-542.118
X-1355.258 Y-542.048
X-1355.06 Y-541.967
X-1354.867 Y-541.874
X-1354.68 Y-541.771
X-1354.499 Y-541.658
X-1354.325 Y-541.534
X-1354.157 Y-541.401
X-1353.998 Y-541.259
X-1353.847 Y-541.108
X-1353.705 Y-540.948
X-1353.571 Y-540.781
X-1353.448 Y-540.607
X-1353.334 Y-540.426
X-1353.231 Y-540.239
X-1353.127 Y-540.022
X-1352.998 Y-539.709
X-1352.846 Y-539.274
X-1352.749 Y-538.932
X-1352.681 Y-538.635
X-1352.636 Y-538.363
X-1352.608 Y-538.108
X-1352.595 Y-537.865
X-1352.596 Y-537.626
X-1352.615 Y-537.442
X-1352.651 Y-537.261
X-1352.704 Y-537.084
X-1352.799 Y-536.812
X-1352.84 Y-536.703
X-1352.899 Y-536.595
X-1353.307 Y-535.942
X-1353.348 Y-535.885
X-1353.401 Y-535.828
X-1353.941 Y-535.289
X-1353.997 Y-535.238
X-1354.054 Y-535.198
X-1354.706 Y-534.788
X-1354.815 Y-534.729
X-1354.924 Y-534.689
X-1355.577 Y-534.461
X-1355.662 Y-534.434
X-1355.748 Y-534.418
X-1356.448 Y-534.339
X-1356.556 Y-534.328
X-1356.665 Y-534.329
X-1357.46 Y-534.418
X-1357.536 Y-534.431
X-1357.753 Y-534.503
X-1358.189 Y-534.655
X-1358.406 Y-534.734
X-1358.624 Y-534.863
X-1359.163 Y-535.202
X-1359.215 Y-535.241
X-1359.277 Y-535.299
X-1359.813 Y-535.84
X-1359.859 Y-535.891
X-1359.896 Y-535.942
X-1360.308 Y-536.595
X-1360.365 Y-536.694
X-1360.411 Y-536.812
X-1360.639 Y-537.465
X-1360.672 Y-537.574
X-1360.688 Y-537.683
X-1360.772 Y-538.444
Y-538.553
X-1360.7 Y-539.206
X-1360.672 Y-539.424
X-1360.602 Y-539.641
X-1360.449 Y-540.077
X-1360.37 Y-540.294
X-1360.365 Y-540.306
X-1360.241 Y-540.512
X-1359.93 Y-541.005
X-1359.878 Y-541.085
X-1359.809 Y-541.165
X-1359.277 Y-541.701
X-1359.205 Y-541.767
X-1359.132 Y-541.817
X-1358.624 Y-542.137
X-1358.435 Y-542.253
X-1358.406 Y-542.267
X-1358.189 Y-542.345
X-1357.753 Y-542.497
X-1357.536 Y-542.569
X-1357.318 Y-542.597
X-1356.665 Y-542.671
X-1356.556 Y-542.672
X-1356.23 Y-542.636
X-1355.795 Y-542.587
X-1355.686 Y-542.572
X-1355.577 Y-542.539
X-1354.924 Y-542.311
X-1354.776 Y-542.253
X-1354.706 Y-542.212
X-1354.054 Y-541.802
X-1353.999 Y-541.763
X-1353.945 Y-541.715
X-1353.394 Y-541.165
X-1353.344 Y-541.11
X-1353.305 Y-541.056
X-1352.965 Y-540.511
X-1352.838 Y-540.294
X-1352.748 Y-540.04
X-1352.608 Y-539.641
X-1352.536 Y-539.424
X-1352.53 Y-539.396
X-1352.506 Y-539.206
X-1352.431 Y-538.553
X-1352.428 Y-538.499
X-1352.43 Y-538.444
X-1352.519 Y-537.683
X-1352.53 Y-537.603
X-1352.571 Y-537.465
X-1352.704 Y-537.084
G3 X-1352.83 Y-536.886 I-0.559 J-0.218
G1 X-1352.895 Y-536.819 Z0.507
X-1352.959 Y-536.753 Z0.529
X-1353.019 Y-536.69 Z0.565
X-1353.074 Y-536.632 Z0.615
X-1353.124 Y-536.58 Z0.676
X-1353.166 Y-536.536 Z0.747
X-1353.2 Y-536.501 Z0.828
X-1353.225 Y-536.475 Z0.915
X-1353.24 Y-536.459 Z1.006
X-1353.246 Y-536.453 Z1.1
G0 Z30

(2D Contour3)
S8000 M3
M9
X-1356.6 Y-538.5
Z30
Z20
G1 Z0.5 F850
G3 X-1356.3 Y-538.8 I0.3
G1 X-1352.2
G3 X-1351.9 Y-538.5 J0.3
X-1359.42 Y-534.74 I-4.7
Y-542.26 I2.82 J-3.76
X-1351.9 Y-538.5 I2.82 J3.76
X-1359.42 Y-534.74 I-4.7
Y-542.26 I2.82 J-3.76
X-1351.9 Y-538.5 I2.82 J3.76
X-1352.5 Y-537.9 I-0.6
G1 X-1353.1
G18 G3 X-1353.7 Z1.1 K0.6
G0 Z30
G17

(2D Adaptive3)
S6000 M3
M9
G0 X-1356.884 Y-189.337
Z30
Z20
Z18.15
G1 Z17.55 F850
G3 X-1353.947 Y-185.469 Z17.347 I0.28 J2.836 F283.3
X-1358.724 Y-184.596 Z17.144 I-2.657 J-1.031
X-1357.345 Y-189.253 Z16.941 I2.12 J-1.904
X-1353.814 Y-185.919 Z16.738 I0.741 J2.752
X-1358.383 Y-184.274 Z16.535 I-2.79 J-0.582
X-1357.787 Y-189.094 Z16.332 I1.779 J-2.226
X-1353.756 Y-186.385 Z16.129 I1.183 J2.593
X-1357.994 Y-184.013 Z15.926 I-2.848 J-0.116
X-1358.196 Y-188.865 Z15.723 I1.39 J-2.488
X-1355.012 Y-184.137 Z15.411 I1.592 J2.364
X-1358.562 Y-188.571 Z15.114 I-1.592 J-2.364
X-1353.872 Y-187.312 Z14.911 I1.958 J2.071
X-1357.114 Y-183.697 Z14.708 I-2.732 J0.812
X-1356.094 Y-189.305 Z14.396 I0.51 J-2.804
X-1356.647 Y-183.651 Z14.099 I-0.51 J2.804
X-1359.127 Y-187.826 Z13.896 I0.043 J-2.85
X-1354.282 Y-188.153 Z13.693 I2.523 J1.326
X-1356.179 Y-183.683 Z13.49 I-2.322 J1.652
X-1359.31 Y-187.394 Z13.288 I-0.425 J-2.818
X-1353.898 Y-185.607 Z12.975 I2.706 J0.894
X-1359.42 Y-186.938 Z12.679 I-2.706 J-0.894
X-1353.788 Y-186.063 Z12.366 I2.816 J0.438
X-1355.29 Y-183.972 Z12.273 I-2.816 J-0.438
X-1357.918 Y-189.03 Z11.96 I-1.314 J-2.529
X-1354.893 Y-184.222 Z11.664 I1.314 J2.529
X-1359.41 Y-186.003 Z11.461 I-1.711 J-2.279
X-1353.798 Y-186.998 Z11.148 I2.806 J-0.497
X-1354.542 Y-184.533 Z11.055 I-2.806 J0.497
X-1359.291 Y-185.55 Z10.852 I-2.062 J-1.967
X-1356.239 Y-189.327 Z10.649 I2.687 J-0.951
X-1354.247 Y-184.898 Z10.446 I-0.365 J2.827
X-1358.961 Y-188.103 Z10.133 I-2.357 J-1.602
X-1356.708 Y-189.349 Z10.04 I2.357 J1.602
X-1354.016 Y-185.307 Z9.837 I0.104 J2.848
X-1358.838 Y-184.731 Z9.634 I-2.588 J-1.194
X-1357.173 Y-189.293 Z9.431 I2.234 J-1.769
X-1353.855 Y-185.747 Z9.228 I0.569 J2.793
X-1358.518 Y-184.389 Z9.025 I-2.749 J-0.753
X-1357.624 Y-189.162 Z8.822 I1.914 J-2.112
X-1353.769 Y-186.208 Z8.619 I1.02 J2.661
X-1358.145 Y-184.103 Z8.416 I-2.835 J-0.292
X-1358.046 Y-188.959 Z8.213 I1.541 J-2.397
X-1353.76 Y-186.677 Z8.01 I1.442 J2.458
X-1357.731 Y-183.883 Z7.807 I-2.844 J0.177
X-1358.43 Y-188.689 Z7.604 I1.127 J-2.618
X-1353.827 Y-187.142 Z7.401 I1.826 J2.188
X-1357.287 Y-183.734 Z7.198 I-2.777 J0.641
X-1358.764 Y-188.36 Z6.995 I0.683 J-2.767
X-1353.97 Y-187.588 Z6.792 I2.16 J1.859
X-1359.238 Y-185.413 Z6.48 I-2.634 J1.088
X-1353.97 Y-187.588 Z6.167 I2.634 J-1.088
X-1356.354 Y-183.662 Z5.98 I-2.634 J1.088
X-1359.25 Y-187.56 Z5.777 I-0.25 J-2.839
X-1354.464 Y-188.382 Z5.574 I2.646 J1.06
X-1358.745 Y-184.619 Z5.262 I-2.141 J1.882
X-1359.388 Y-187.112 Z5.168 I2.141 J-1.882
X-1354.801 Y-188.708 Z4.965 I2.784 J0.611
X-1355.449 Y-183.895 Z4.762 I-1.803 J2.207
X-1359.45 Y-186.647 Z4.56 I-1.155 J-2.605
X-1355.188 Y-188.974 Z4.357 I2.846 J0.146
X-1358.02 Y-184.027 Z4.044 I-1.416 J2.473
X-1355.613 Y-189.173 Z3.748 I1.416 J-2.473
X-1354.668 Y-184.409 Z3.545 I-0.991 J2.672
X-1359.344 Y-185.718 Z3.342 I-1.936 J-2.091
X-1356.064 Y-189.299 Z3.139 I2.74 J-0.783
X-1354.351 Y-184.755 Z2.936 I-0.54 J2.798
X-1359.179 Y-185.279 Z2.733 I-2.253 J-1.745
X-1356.531 Y-189.35 Z2.53 I2.575 J-1.222
X-1354.095 Y-185.148 Z2.327 I-0.073 J2.849
X-1358.944 Y-184.873 Z2.124 I-2.509 J-1.352
X-1356.999 Y-189.323 Z1.921 I2.34 J-1.627
X-1353.907 Y-185.578 Z1.718 I0.395 J2.822
X-1359.301 Y-187.423 Z1.405 I-2.697 J-0.922
X-1357.457 Y-189.22 Z1.312 I2.697 J0.922
X-1353.793 Y-186.033 Z1.109 I0.853 J2.719
X-1359.415 Y-186.968 Z0.796 I-2.811 J-0.468
X-1353.754 Y-186.501 Z0.5 I2.811 J0.468
X-1355.954 Y-183.726 I-2.85
X-1359.232 Y-185.397 I-0.65 J-2.775
X-1358.13 Y-188.907 I2.628 J-1.104
X-1354.833 Y-188.734 I1.526 J2.407
X-1353.754 Y-186.501 I-1.771 J2.233
G1 X-1353.74 Y-185.543 F850
X-1353.711 Y-185.427
X-1353.691 Y-185.278
X-1353.689 Y-185.128
X-1353.702 Y-184.979
X-1353.729 Y-184.831
X-1353.767 Y-184.686
X-1353.817 Y-184.545
X-1353.876 Y-184.407
X-1353.944 Y-184.273
X-1354.02 Y-184.144
X-1354.104 Y-184.02
X-1354.196 Y-183.9
X-1354.297 Y-183.782
X-1354.408 Y-183.667
X-1354.528 Y-183.556
X-1354.657 Y-183.448
X-1354.796 Y-183.346
X-1354.942 Y-183.25
X-1355.097 Y-183.161
X-1355.259 Y-183.08
X-1355.428 Y-183.006
X-1355.604 Y-182.941
X-1355.785 Y-182.885
X-1355.971 Y-182.839
X-1356.161 Y-182.804
X-1356.355 Y-182.779
X-1356.552 Y-182.764
X-1356.751 Y-182.761
X-1356.952 Y-182.769
X-1357.153 Y-182.788
X-1357.353 Y-182.819
X-1357.553 Y-182.862
X-1357.75 Y-182.915
X-1357.946 Y-182.98
X-1358.138 Y-183.057
X-1358.326 Y-183.144
X-1358.51 Y-183.242
X-1358.688 Y-183.351
X-1358.86 Y-183.469
X-1359.026 Y-183.598
X-1359.184 Y-183.736
X-1359.335 Y-183.882
X-1359.477 Y-184.038
X-1359.611 Y-184.201
X-1359.735 Y-184.372
X-1359.85 Y-184.55
X-1359.955 Y-184.734
X-1360.049 Y-184.924
X-1360.132 Y-185.119
X-1360.205 Y-185.318
X-1360.266 Y-185.522
X-1360.315 Y-185.729
X-1360.353 Y-185.938
X-1360.379 Y-186.149
X-1360.393 Y-186.362
X-1360.395 Y-186.575
X-1360.385 Y-186.788
X-1360.364 Y-187
X-1360.33 Y-187.21
X-1360.284 Y-187.419
X-1360.227 Y-187.624
X-1360.158 Y-187.826
X-1360.078 Y-188.024
X-1359.987 Y-188.217
X-1359.885 Y-188.404
X-1359.773 Y-188.586
X-1359.651 Y-188.761
X-1359.519 Y-188.929
X-1359.378 Y-189.089
X-1359.228 Y-189.241
X-1359.069 Y-189.385
X-1358.903 Y-189.519
X-1358.73 Y-189.643
X-1358.55 Y-189.758
X-1358.363 Y-189.862
X-1358.171 Y-189.956
X-1357.974 Y-190.039
X-1357.773 Y-190.11
X-1357.568 Y-190.171
X-1357.36 Y-190.219
X-1357.149 Y-190.256
X-1356.937 Y-190.28
X-1356.724 Y-190.293
X-1356.51 Y-190.294
X-1356.297 Y-190.283
X-1356.084 Y-190.259
X-1355.873 Y-190.224
X-1355.665 Y-190.177
X-1355.459 Y-190.118
X-1355.258 Y-190.048
X-1355.06 Y-189.967
X-1354.867 Y-189.874
X-1354.68 Y-189.771
X-1354.499 Y-189.658
X-1354.325 Y-189.534
X-1354.157 Y-189.401
X-1353.998 Y-189.259
X-1353.847 Y-189.108
X-1353.705 Y-188.948
X-1353.571 Y-188.781
X-1353.448 Y-188.607
X-1353.334 Y-188.426
X-1353.231 Y-188.239
X-1353.127 Y-188.022
X-1352.998 Y-187.709
X-1352.846 Y-187.274
X-1352.749 Y-186.932
X-1352.681 Y-186.635
X-1352.636 Y-186.363
X-1352.608 Y-186.108
X-1352.595 Y-185.865
X-1352.596 Y-185.626
X-1352.615 Y-185.442
X-1352.651 Y-185.261
X-1352.704 Y-185.084
X-1352.799 Y-184.812
X-1352.84 Y-184.703
X-1352.899 Y-184.595
X-1353.307 Y-183.942
X-1353.348 Y-183.885
X-1353.401 Y-183.828
X-1353.941 Y-183.289
X-1353.997 Y-183.238
X-1354.054 Y-183.198
X-1354.706 Y-182.788
X-1354.815 Y-182.729
X-1354.924 Y-182.689
X-1355.577 Y-182.461
X-1355.662 Y-182.434
X-1355.748 Y-182.418
X-1356.448 Y-182.339
X-1356.556 Y-182.328
X-1356.665 Y-182.329
X-1357.46 Y-182.418
X-1357.536 Y-182.431
X-1357.753 Y-182.503
X-1358.189 Y-182.655
X-1358.406 Y-182.734
X-1358.624 Y-182.863
X-1359.163 Y-183.202
X-1359.215 Y-183.241
X-1359.277 Y-183.299
X-1359.813 Y-183.84
X-1359.859 Y-183.891
X-1359.896 Y-183.942
X-1360.308 Y-184.595
X-1360.365 Y-184.694
X-1360.411 Y-184.812
X-1360.639 Y-185.465
X-1360.672 Y-185.574
X-1360.688 Y-185.683
X-1360.772 Y-186.444
Y-186.553
X-1360.7 Y-187.206
X-1360.672 Y-187.424
X-1360.602 Y-187.641
X-1360.449 Y-188.077
X-1360.37 Y-188.294
X-1360.365 Y-188.306
X-1360.241 Y-188.512
X-1359.93 Y-189.005
X-1359.878 Y-189.085
X-1359.809 Y-189.165
X-1359.277 Y-189.701
X-1359.205 Y-189.767
X-1359.132 Y-189.817
X-1358.624 Y-190.137
X-1358.435 Y-190.253
X-1358.406 Y-190.267
X-1358.189 Y-190.345
X-1357.753 Y-190.497
X-1357.536 Y-190.569
X-1357.318 Y-190.597
X-1356.665 Y-190.671
X-1356.556 Y-190.672
X-1356.23 Y-190.636
X-1355.795 Y-190.587
X-1355.686 Y-190.572
X-1355.577 Y-190.539
X-1354.924 Y-190.311
X-1354.776 Y-190.253
X-1354.706 Y-190.212
X-1354.054 Y-189.802
X-1353.999 Y-189.763
X-1353.945 Y-189.715
X-1353.394 Y-189.165
X-1353.344 Y-189.11
X-1353.305 Y-189.056
X-1352.965 Y-188.511
X-1352.838 Y-188.294
X-1352.748 Y-188.04
X-1352.608 Y-187.641
X-1352.536 Y-187.424
X-1352.53 Y-187.396
X-1352.506 Y-187.206
X-1352.431 Y-186.553
X-1352.428 Y-186.499
X-1352.43 Y-186.444
X-1352.519 Y-185.683
X-1352.53 Y-185.603
X-1352.571 Y-185.465
X-1352.704 Y-185.084
G3 X-1352.83 Y-184.886 I-0.559 J-0.218
G1 X-1352.895 Y-184.819 Z0.507
X-1352.959 Y-184.753 Z0.529
X-1353.019 Y-184.69 Z0.565
X-1353.074 Y-184.632 Z0.615
X-1353.124 Y-184.58 Z0.676
X-1353.166 Y-184.536 Z0.747
X-1353.2 Y-184.501 Z0.828
X-1353.225 Y-184.475 Z0.915
X-1353.24 Y-184.459 Z1.006
X-1353.246 Y-184.453 Z1.1
G0 Z30

(2D Contour3)
S8000 M3
M9
X-1356.6 Y-186.5
Z30
Z20
G1 Z0.5 F850
G3 X-1356.3 Y-186.8 I0.3
G1 X-1352.2
G3 X-1351.9 Y-186.5 J0.3
X-1359.42 Y-182.74 I-4.7
Y-190.26 I2.82 J-3.76
X-1351.9 Y-186.5 I2.82 J3.76
X-1359.42 Y-182.74 I-4.7
Y-190.26 I2.82 J-3.76
X-1351.9 Y-186.5 I2.82 J3.76
X-1352.5 Y-185.9 I-0.6
G1 X-1353.1
G18 G3 X-1353.7 Z1.1 K0.6
G0 Z30
G17

(2D Adaptive3)
S6000 M3
M9
G0 X-1304.184 Y-56.637
Z30
Z20
Z18.15
G1 Z17.55 F850
G3 X-1301.247 Y-52.769 Z17.347 I0.28 J2.836 F283.3
X-1306.024 Y-51.896 Z17.144 I-2.657 J-1.031
X-1304.645 Y-56.553 Z16.941 I2.12 J-1.904
X-1301.114 Y-53.219 Z16.738 I0.741 J2.752
X-1305.683 Y-51.574 Z16.535 I-2.79 J-0.582
X-1305.087 Y-56.394 Z16.332 I1.779 J-2.226
X-1301.056 Y-53.685 Z16.129 I1.183 J2.593
X-1305.294 Y-51.313 Z15.926 I-2.848 J-0.116
X-1305.496 Y-56.165 Z15.723 I1.39 J-2.488
X-1302.312 Y-51.437 Z15.411 I1.592 J2.364
X-1305.862 Y-55.871 Z15.114 I-1.592 J-2.364
X-1301.172 Y-54.612 Z14.911 I1.958 J2.071
X-1304.414 Y-50.997 Z14.708 I-2.732 J0.812
X-1303.394 Y-56.605 Z14.396 I0.51 J-2.804
X-1303.947 Y-50.951 Z14.099 I-0.51 J2.804
X-1306.427 Y-55.126 Z13.896 I0.043 J-2.85
X-1301.582 Y-55.453 Z13.693 I2.523 J1.326
X-1303.479 Y-50.983 Z13.49 I-2.322 J1.652
X-1306.61 Y-54.694 Z13.288 I-0.425 J-2.818
X-1301.198 Y-52.907 Z12.975 I2.706 J0.894
X-1306.72 Y-54.238 Z12.679 I-2.706 J-0.894
X-1301.088 Y-53.363 Z12.366 I2.816 J0.438
X-1302.59 Y-51.272 Z12.273 I-2.816 J-0.438
X-1305.218 Y-56.33 Z11.96 I-1.314 J-2.529
X-1302.193 Y-51.522 Z11.664 I1.314 J2.529
X-1306.71 Y-53.303 Z11.461 I-1.711 J-2.279
X-1301.098 Y-54.298 Z11.148 I2.806 J-0.497
X-1301.842 Y-51.833 Z11.055 I-2.806 J0.497
X-1306.591 Y-52.85 Z10.852 I-2.062 J-1.967
X-1303.539 Y-56.627 Z10.649 I2.687 J-0.951
X-1301.547 Y-52.198 Z10.446 I-0.365 J2.827
X-1306.261 Y-55.403 Z10.133 I-2.357 J-1.602
X-1304.008 Y-56.649 Z10.04 I2.357 J1.602
X-1301.316 Y-52.607 Z9.837 I0.104 J2.848
X-1306.138 Y-52.031 Z9.634 I-2.588 J-1.194
X-1304.473 Y-56.593 Z9.431 I2.234 J-1.769
X-1301.156 Y-53.047 Z9.228 I0.569 J2.793
X-1305.818 Y-51.689 Z9.025 I-2.749 J-0.753
X-1304.924 Y-56.462 Z8.822 I1.914 J-2.112
X-1301.069 Y-53.508 Z8.619 I1.02 J2.661
X-1305.445 Y-51.404 Z8.416 I-2.835 J-0.292
X-1305.346 Y-56.259 Z8.213 I1.541 J-2.397
X-1301.06 Y-53.977 Z8.01 I1.442 J2.458
X-1305.031 Y-51.183 Z7.807 I-2.844 J0.177
X-1305.73 Y-55.989 Z7.604 I1.127 J-2.618
X-1301.127 Y-54.442 Z7.401 I1.826 J2.188
X-1304.587 Y-51.034 Z7.198 I-2.777 J0.641
X-1306.064 Y-55.66 Z6.995 I0.683 J-2.767
X-1301.27 Y-54.888 Z6.792 I2.16 J1.859
X-1306.538 Y-52.713 Z6.48 I-2.634 J1.088
X-1301.27 Y-54.888 Z6.167 I2.634 J-1.088
X-1303.654 Y-50.962 Z5.98 I-2.634 J1.088
X-1306.55 Y-54.86 Z5.777 I-0.25 J-2.839
X-1301.764 Y-55.682 Z5.574 I2.646 J1.06
X-1306.045 Y-51.919 Z5.262 I-2.141 J1.882
X-1306.688 Y-54.412 Z5.168 I2.141 J-1.882
X-1302.101 Y-56.008 Z4.965 I2.784 J0.611
X-1302.749 Y-51.195 Z4.762 I-1.803 J2.207
X-1306.75 Y-53.947 Z4.56 I-1.155 J-2.605
X-1302.488 Y-56.274 Z4.357 I2.846 J0.146
X-1305.32 Y-51.328 Z4.044 I-1.416 J2.473
X-1302.913 Y-56.473 Z3.748 I1.416 J-2.473
X-1301.968 Y-51.709 Z3.545 I-0.991 J2.672
X-1306.645 Y-53.018 Z3.342 I-1.936 J-2.091
X-1303.365 Y-56.599 Z3.139 I2.74 J-0.783
X-1301.651 Y-52.055 Z2.936 I-0.54 J2.798
X-1306.479 Y-52.579 Z2.733 I-2.253 J-1.745
X-1303.831 Y-56.65 Z2.53 I2.575 J-1.222
X-1301.395 Y-52.448 Z2.327 I-0.073 J2.849
X-1306.244 Y-52.173 Z2.124 I-2.509 J-1.352
X-1304.299 Y-56.623 Z1.921 I2.34 J-1.627
X-1301.207 Y-52.878 Z1.718 I0.395 J2.822
X-1306.601 Y-54.723 Z1.405 I-2.697 J-0.922
X-1304.757 Y-56.52 Z1.312 I2.697 J0.922
X-1301.093 Y-53.333 Z1.109 I0.853 J2.719
X-1306.715 Y-54.268 Z0.796 I-2.811 J-0.468
X-1301.054 Y-53.801 Z0.5 I2.811 J0.468
X-1303.254 Y-51.026 I-2.85
X-1306.532 Y-52.697 I-0.65 J-2.775
X-1305.431 Y-56.207 I2.628 J-1.104
X-1302.133 Y-56.034 I1.526 J2.407
X-1301.054 Y-53.801 I-1.771 J2.233
G1 X-1301.04 Y-52.843 F850
X-1301.011 Y-52.727
X-1300.991 Y-52.578
X-1300.989 Y-52.428
X-1301.002 Y-52.279
X-1301.029 Y-52.131
X-1301.067 Y-51.986
X-1301.117 Y-51.845
X-1301.176 Y-51.707
X-1301.244 Y-51.573
X-1301.32 Y-51.444
X-1301.404 Y-51.32
X-1301.496 Y-51.2
X-1301.597 Y-51.083
X-1301.708 Y-50.967
X-1301.828 Y-50.856
X-1301.958 Y-50.748
X-1302.096 Y-50.646
X-1302.242 Y-50.551
X-1302.397 Y-50.461
X-1302.559 Y-50.38
X-1302.728 Y-50.306
X-1302.904 Y-50.241
X-1303.085 Y-50.185
X-1303.271 Y-50.14
X-1303.461 Y-50.104
X-1303.656 Y-50.079
X-1303.853 Y-50.064
X-1304.052 Y-50.061
X-1304.252 Y-50.069
X-1304.453 Y-50.089
X-1304.653 Y-50.119
X-1304.853 Y-50.162
X-1305.051 Y-50.215
X-1305.246 Y-50.281
X-1305.438 Y-50.357
X-1305.626 Y-50.444
X-1305.81 Y-50.542
X-1305.988 Y-50.651
X-1306.16 Y-50.769
X-1306.326 Y-50.898
X-1306.484 Y-51.036
X-1306.635 Y-51.182
X-1306.777 Y-51.338
X-1306.911 Y-51.501
X-1307.035 Y-51.672
X-1307.15 Y-51.85
X-1307.255 Y-52.034
X-1307.349 Y-52.224
X-1307.432 Y-52.419
X-1307.505 Y-52.618
X-1307.566 Y-52.822
X-1307.615 Y-53.029
X-1307.653 Y-53.238
X-1307.679 Y-53.449
X-1307.693 Y-53.662
X-1307.695 Y-53.875
X-1307.686 Y-54.088
X-1307.664 Y-54.3
X-1307.63 Y-54.51
X-1307.584 Y-54.719
X-1307.527 Y-54.924
X-1307.458 Y-55.126
X-1307.378 Y-55.324
X-1307.287 Y-55.517
X-1307.185 Y-55.704
X-1307.073 Y-55.886
X-1306.951 Y-56.061
X-1306.819 Y-56.229
X-1306.678 Y-56.389
X-1306.528 Y-56.541
X-1306.37 Y-56.685
X-1306.203 Y-56.819
X-1306.03 Y-56.943
X-1305.85 Y-57.058
X-1305.663 Y-57.163
X-1305.471 Y-57.256
X-1305.274 Y-57.339
X-1305.073 Y-57.411
X-1304.868 Y-57.471
X-1304.66 Y-57.519
X-1304.449 Y-57.556
X-1304.237 Y-57.581
X-1304.024 Y-57.593
X-1303.81 Y-57.594
X-1303.597 Y-57.583
X-1303.384 Y-57.559
X-1303.173 Y-57.524
X-1302.965 Y-57.477
X-1302.76 Y-57.419
X-1302.558 Y-57.348
X-1302.36 Y-57.267
X-1302.167 Y-57.174
X-1301.98 Y-57.071
X-1301.799 Y-56.958
X-1301.625 Y-56.834
X-1301.458 Y-56.701
X-1301.298 Y-56.559
X-1301.147 Y-56.408
X-1301.005 Y-56.248
X-1300.871 Y-56.081
X-1300.748 Y-55.907
X-1300.634 Y-55.726
X-1300.531 Y-55.539
X-1300.427 Y-55.322
X-1300.298 Y-55.01
X-1300.146 Y-54.574
X-1300.049 Y-54.232
X-1299.981 Y-53.935
X-1299.936 Y-53.663
X-1299.908 Y-53.408
X-1299.895 Y-53.165
X-1299.896 Y-52.926
X-1299.915 Y-52.742
X-1299.952 Y-52.561
X-1300.005 Y-52.384
X-1300.099 Y-52.112
X-1300.14 Y-52.003
X-1300.199 Y-51.895
X-1300.607 Y-51.242
X-1300.648 Y-51.185
X-1300.701 Y-51.128
X-1301.241 Y-50.589
X-1301.297 Y-50.538
X-1301.354 Y-50.498
X-1302.006 Y-50.088
X-1302.115 Y-50.029
X-1302.224 Y-49.989
X-1302.877 Y-49.761
X-1302.962 Y-49.734
X-1303.048 Y-49.719
X-1303.748 Y-49.639
X-1303.856 Y-49.628
X-1303.965 Y-49.629
X-1304.76 Y-49.719
X-1304.836 Y-49.731
X-1305.053 Y-49.803
X-1305.489 Y-49.955
X-1305.706 Y-50.034
X-1305.924 Y-50.163
X-1306.463 Y-50.502
X-1306.515 Y-50.541
X-1306.577 Y-50.599
X-1307.113 Y-51.14
X-1307.159 Y-51.191
X-1307.196 Y-51.242
X-1307.608 Y-51.895
X-1307.665 Y-51.995
X-1307.711 Y-52.112
X-1307.939 Y-52.765
X-1307.972 Y-52.874
X-1307.988 Y-52.983
X-1308.072 Y-53.744
Y-53.853
X-1308 Y-54.506
X-1307.972 Y-54.724
X-1307.902 Y-54.941
X-1307.75 Y-55.377
X-1307.67 Y-55.594
X-1307.665 Y-55.606
X-1307.541 Y-55.812
X-1307.23 Y-56.305
X-1307.178 Y-56.385
X-1307.109 Y-56.465
X-1306.577 Y-57.001
X-1306.505 Y-57.067
X-1306.432 Y-57.117
X-1305.924 Y-57.437
X-1305.735 Y-57.553
X-1305.706 Y-57.567
X-1305.489 Y-57.645
X-1305.053 Y-57.797
X-1304.836 Y-57.869
X-1304.618 Y-57.898
X-1303.965 Y-57.971
X-1303.856 Y-57.972
X-1303.53 Y-57.936
X-1303.095 Y-57.887
X-1302.986 Y-57.872
X-1302.877 Y-57.839
X-1302.224 Y-57.611
X-1302.076 Y-57.553
X-1302.006 Y-57.512
X-1301.354 Y-57.102
X-1301.299 Y-57.063
X-1301.245 Y-57.015
X-1300.694 Y-56.465
X-1300.645 Y-56.41
X-1300.605 Y-56.356
X-1300.266 Y-55.811
X-1300.138 Y-55.594
X-1300.048 Y-55.34
X-1299.908 Y-54.941
X-1299.836 Y-54.724
X-1299.83 Y-54.696
X-1299.806 Y-54.506
X-1299.731 Y-53.853
X-1299.728 Y-53.799
X-1299.73 Y-53.744
X-1299.819 Y-52.983
X-1299.83 Y-52.903
X-1299.871 Y-52.765
X-1300.005 Y-52.384
G3 X-1300.13 Y-52.187 I-0.559 J-0.218
G1 X-1300.195 Y-52.119 Z0.507
X-1300.259 Y-52.053 Z0.529
X-1300.319 Y-51.99 Z0.565
X-1300.374 Y-51.932 Z0.615
X-1300.424 Y-51.88 Z0.676
X-1300.466 Y-51.836 Z0.747
X-1300.5 Y-51.801 Z0.828
X-1300.525 Y-51.775 Z0.915
X-1300.541 Y-51.759 Z1.006
X-1300.546 Y-51.753 Z1.1
G0 Z30

(2D Contour3)
S8000 M3
M9
X-1303.9 Y-53.8
Z30
Z20
G1 Z0.5 F850
G3 X-1303.6 Y-54.1 I0.3
G1 X-1299.5
G3 X-1299.2 Y-53.8 J0.3
X-1306.72 Y-50.04 I-4.7
Y-57.56 I2.82 J-3.76
X-1299.2 Y-53.8 I2.82 J3.76
X-1306.72 Y-50.04 I-4.7
Y-57.56 I2.82 J-3.76
X-1299.2 Y-53.8 I2.82 J3.76
X-1299.8 Y-53.2 I-0.6
G1 X-1300.4
G18 G3 X-1301 Z1.1 K0.6
G0 Z30
G17

(2D Adaptive3)
S6000 M3
M9
G0 X-174.184 Y-56.637
Z30
Z20
Z18.15
G1 Z17.55 F850
G3 X-171.247 Y-52.769 Z17.347 I0.28 J2.836 F283.3
X-176.024 Y-51.896 Z17.144 I-2.657 J-1.031
X-174.645 Y-56.553 Z16.941 I2.12 J-1.904
X-171.114 Y-53.219 Z16.738 I0.741 J2.752
X-175.683 Y-51.574 Z16.535 I-2.79 J-0.582
X-175.087 Y-56.394 Z16.332 I1.779 J-2.226
X-171.056 Y-53.685 Z16.129 I1.183 J2.593
X-175.294 Y-51.313 Z15.926 I-2.848 J-0.116
X-175.496 Y-56.165 Z15.723 I1.39 J-2.488
X-172.312 Y-51.437 Z15.411 I1.592 J2.364
X-175.862 Y-55.871 Z15.114 I-1.592 J-2.364
X-171.172 Y-54.612 Z14.911 I1.958 J2.071
X-174.414 Y-50.997 Z14.708 I-2.732 J0.812
X-173.394 Y-56.605 Z14.396 I0.51 J-2.804
X-173.947 Y-50.951 Z14.099 I-0.51 J2.804
X-176.427 Y-55.126 Z13.896 I0.043 J-2.85
X-171.582 Y-55.453 Z13.693 I2.523 J1.326
X-173.479 Y-50.983 Z13.49 I-2.322 J1.652
X-176.61 Y-54.694 Z13.288 I-0.425 J-2.818
X-171.198 Y-52.907 Z12.975 I2.706 J0.894
X-176.72 Y-54.238 Z12.679 I-2.706 J-0.894
X-171.088 Y-53.363 Z12.366 I2.816 J0.438
X-172.59 Y-51.272 Z12.273 I-2.816 J-0.438
X-175.218 Y-56.33 Z11.96 I-1.314 J-2.529
X-172.193 Y-51.522 Z11.664 I1.314 J2.529
X-176.71 Y-53.303 Z11.461 I-1.711 J-2.279
X-171.098 Y-54.298 Z11.148 I2.806 J-0.497
X-171.842 Y-51.833 Z11.055 I-2.806 J0.497
X-176.591 Y-52.85 Z10.852 I-2.062 J-1.967
X-173.539 Y-56.627 Z10.649 I2.687 J-0.951
X-171.547 Y-52.198 Z10.446 I-0.365 J2.827
X-176.261 Y-55.403 Z10.133 I-2.357 J-1.602
X-174.008 Y-56.649 Z10.04 I2.357 J1.602
X-171.316 Y-52.607 Z9.837 I0.104 J2.848
X-176.138 Y-52.031 Z9.634 I-2.588 J-1.194
X-174.473 Y-56.593 Z9.431 I2.234 J-1.769
X-171.156 Y-53.047 Z9.228 I0.569 J2.793
X-175.818 Y-51.689 Z9.025 I-2.749 J-0.753
X-174.924 Y-56.462 Z8.822 I1.914 J-2.112
X-171.069 Y-53.508 Z8.619 I1.02 J2.661
X-175.445 Y-51.404 Z8.416 I-2.835 J-0.292
X-175.346 Y-56.259 Z8.213 I1.541 J-2.397
X-171.06 Y-53.977 Z8.01 I1.442 J2.458
X-175.031 Y-51.183 Z7.807 I-2.844 J0.177
X-175.73 Y-55.989 Z7.604 I1.127 J-2.618
X-171.127 Y-54.442 Z7.401 I1.826 J2.188
X-174.587 Y-51.034 Z7.198 I-2.777 J0.641
X-176.064 Y-55.66 Z6.995 I0.683 J-2.767
X-171.27 Y-54.888 Z6.792 I2.16 J1.859
X-176.538 Y-52.713 Z6.48 I-2.634 J1.088
X-171.27 Y-54.888 Z6.167 I2.634 J-1.088
X-173.654 Y-50.962 Z5.98 I-2.634 J1.088
X-176.55 Y-54.86 Z5.777 I-0.25 J-2.839
X-171.764 Y-55.682 Z5.574 I2.646 J1.06
X-176.045 Y-51.919 Z5.262 I-2.141 J1.882
X-176.688 Y-54.412 Z5.168 I2.141 J-1.882
X-172.101 Y-56.008 Z4.965 I2.784 J0.611
X-172.749 Y-51.195 Z4.762 I-1.803 J2.207
X-176.75 Y-53.947 Z4.56 I-1.155 J-2.605
X-172.488 Y-56.274 Z4.357 I2.846 J0.146
X-175.32 Y-51.328 Z4.044 I-1.416 J2.473
X-172.913 Y-56.473 Z3.748 I1.416 J-2.473
X-171.968 Y-51.709 Z3.545 I-0.991 J2.672
X-176.645 Y-53.018 Z3.342 I-1.936 J-2.091
X-173.365 Y-56.599 Z3.139 I2.74 J-0.783
X-171.651 Y-52.055 Z2.936 I-0.54 J2.798
X-176.479 Y-52.579 Z2.733 I-2.253 J-1.745
X-173.831 Y-56.65 Z2.53 I2.575 J-1.222
X-171.395 Y-52.448 Z2.327 I-0.073 J2.849
X-176.244 Y-52.173 Z2.124 I-2.509 J-1.352
X-174.299 Y-56.623 Z1.921 I2.34 J-1.627
X-171.207 Y-52.878 Z1.718 I0.395 J2.822
X-176.601 Y-54.723 Z1.405 I-2.697 J-0.922
X-174.757 Y-56.52 Z1.312 I2.697 J0.922
X-171.093 Y-53.333 Z1.109 I0.853 J2.719
X-176.715 Y-54.268 Z0.796 I-2.811 J-0.468
X-171.054 Y-53.801 Z0.5 I2.811 J0.468
X-173.254 Y-51.026 I-2.85
X-176.532 Y-52.697 I-0.65 J-2.775
X-175.431 Y-56.207 I2.628 J-1.104
X-172.133 Y-56.034 I1.526 J2.407
X-171.054 Y-53.801 I-1.771 J2.233
G1 X-171.04 Y-52.843 F850
X-171.011 Y-52.727
X-170.991 Y-52.578
X-170.989 Y-52.428
X-171.002 Y-52.279
X-171.029 Y-52.131
X-171.067 Y-51.986
X-171.117 Y-51.845
X-171.176 Y-51.707
X-171.244 Y-51.573
X-171.32 Y-51.444
X-171.404 Y-51.32
X-171.496 Y-51.2
X-171.597 Y-51.083
X-171.708 Y-50.967
X-171.828 Y-50.856
X-171.958 Y-50.748
X-172.096 Y-50.646
X-172.242 Y-50.551
X-172.397 Y-50.461
X-172.559 Y-50.38
X-172.728 Y-50.306
X-172.904 Y-50.241
X-173.085 Y-50.185
X-173.271 Y-50.14
X-173.461 Y-50.104
X-173.656 Y-50.079
X-173.853 Y-50.064
X-174.052 Y-50.061
X-174.252 Y-50.069
X-174.453 Y-50.089
X-174.653 Y-50.119
X-174.853 Y-50.162
X-175.051 Y-50.215
X-175.246 Y-50.281
X-175.438 Y-50.357
X-175.626 Y-50.444
X-175.81 Y-50.542
X-175.988 Y-50.651
X-176.16 Y-50.769
X-176.326 Y-50.898
X-176.484 Y-51.036
X-176.635 Y-51.182
X-176.777 Y-51.338
X-176.911 Y-51.501
X-177.035 Y-51.672
X-177.15 Y-51.85
X-177.255 Y-52.034
X-177.349 Y-52.224
X-177.432 Y-52.419
X-177.505 Y-52.618
X-177.566 Y-52.822
X-177.615 Y-53.029
X-177.653 Y-53.238
X-177.679 Y-53.449
X-177.693 Y-53.662
X-177.695 Y-53.875
X-177.686 Y-54.088
X-177.664 Y-54.3
X-177.63 Y-54.51
X-177.584 Y-54.719
X-177.527 Y-54.924
X-177.458 Y-55.126
X-177.378 Y-55.324
X-177.287 Y-55.517
X-177.185 Y-55.704
X-177.073 Y-55.886
X-176.951 Y-56.061
X-176.819 Y-56.229
X-176.678 Y-56.389
X-176.528 Y-56.541
X-176.37 Y-56.685
X-176.203 Y-56.819
X-176.03 Y-56.943
X-175.85 Y-57.058
X-175.663 Y-57.163
X-175.471 Y-57.256
X-175.274 Y-57.339
X-175.073 Y-57.411
X-174.868 Y-57.471
X-174.66 Y-57.519
X-174.449 Y-57.556
X-174.237 Y-57.581
X-174.024 Y-57.593
X-173.81 Y-57.594
X-173.597 Y-57.583
X-173.384 Y-57.559
X-173.173 Y-57.524
X-172.965 Y-57.477
X-172.76 Y-57.419
X-172.558 Y-57.348
X-172.36 Y-57.267
X-172.167 Y-57.174
X-171.98 Y-57.071
X-171.799 Y-56.958
X-171.625 Y-56.834
X-171.458 Y-56.701
X-171.298 Y-56.559
X-171.147 Y-56.408
X-171.005 Y-56.248
X-170.871 Y-56.081
X-170.748 Y-55.907
X-170.634 Y-55.726
X-170.531 Y-55.539
X-170.427 Y-55.322
X-170.298 Y-55.01
X-170.146 Y-54.574
X-170.049 Y-54.232
X-169.981 Y-53.935
X-169.936 Y-53.663
X-169.908 Y-53.408
X-169.895 Y-53.165
X-169.896 Y-52.926
X-169.915 Y-52.742
X-169.952 Y-52.561
X-170.005 Y-52.384
X-170.099 Y-52.112
X-170.14 Y-52.003
X-170.199 Y-51.895
X-170.607 Y-51.242
X-170.648 Y-51.185
X-170.701 Y-51.128
X-171.241 Y-50.589
X-171.297 Y-50.538
X-171.354 Y-50.498
X-172.006 Y-50.088
X-172.115 Y-50.029
X-172.224 Y-49.989
X-172.877 Y-49.761
X-172.962 Y-49.734
X-173.048 Y-49.719
X-173.748 Y-49.639
X-173.856 Y-49.628
X-173.965 Y-49.629
X-174.76 Y-49.719
X-174.836 Y-49.731
X-175.053 Y-49.803
X-175.489 Y-49.955
X-175.706 Y-50.034
X-175.924 Y-50.163
X-176.463 Y-50.502
X-176.515 Y-50.541
X-176.577 Y-50.599
X-177.113 Y-51.14
X-177.159 Y-51.191
X-177.196 Y-51.242
X-177.608 Y-51.895
X-177.665 Y-51.995
X-177.711 Y-52.112
X-177.939 Y-52.765
X-177.972 Y-52.874
X-177.988 Y-52.983
X-178.072 Y-53.744
Y-53.853
X-178 Y-54.506
X-177.972 Y-54.724
X-177.902 Y-54.941
X-177.75 Y-55.377
X-177.67 Y-55.594
X-177.665 Y-55.606
X-177.541 Y-55.812
X-177.23 Y-56.305
X-177.178 Y-56.385
X-177.109 Y-56.465
X-176.577 Y-57.001
X-176.505 Y-57.067
X-176.432 Y-57.117
X-175.924 Y-57.437
X-175.735 Y-57.553
X-175.706 Y-57.567
X-175.489 Y-57.645
X-175.053 Y-57.797
X-174.836 Y-57.869
X-174.618 Y-57.898
X-173.965 Y-57.971
X-173.856 Y-57.972
X-173.53 Y-57.936
X-173.095 Y-57.887
X-172.986 Y-57.872
X-172.877 Y-57.839
X-172.224 Y-57.611
X-172.076 Y-57.553
X-172.006 Y-57.512
X-171.354 Y-57.102
X-171.299 Y-57.063
X-171.245 Y-57.015
X-170.694 Y-56.465
X-170.645 Y-56.41
X-170.605 Y-56.356
X-170.266 Y-55.811
X-170.138 Y-55.594
X-170.048 Y-55.34
X-169.908 Y-54.941
X-169.836 Y-54.724
X-169.83 Y-54.696
X-169.806 Y-54.506
X-169.731 Y-53.853
X-169.728 Y-53.799
X-169.73 Y-53.744
X-169.819 Y-52.983
X-169.83 Y-52.903
X-169.871 Y-52.765
X-170.005 Y-52.384
G3 X-170.13 Y-52.187 I-0.559 J-0.218
G1 X-170.195 Y-52.119 Z0.507
X-170.259 Y-52.053 Z0.529
X-170.319 Y-51.99 Z0.565
X-170.374 Y-51.932 Z0.615
X-170.424 Y-51.88 Z0.676
X-170.466 Y-51.836 Z0.747
X-170.5 Y-51.801 Z0.828
X-170.525 Y-51.775 Z0.915
X-170.541 Y-51.759 Z1.006
X-170.546 Y-51.753 Z1.1
G0 Z30

(2D Contour3)
S8000 M3
M9
X-173.9 Y-53.8
Z30
Z20
G1 Z0.5 F850
G3 X-173.6 Y-54.1 I0.3
G1 X-169.5
G3 X-169.2 Y-53.8 J0.3
X-176.72 Y-50.04 I-4.7
Y-57.56 I2.82 J-3.76
X-169.2 Y-53.8 I2.82 J3.76
X-176.72 Y-50.04 I-4.7
Y-57.56 I2.82 J-3.76
X-169.2 Y-53.8 I2.82 J3.76
X-169.8 Y-53.2 I-0.6
G1 X-170.4
G18 G3 X-171 Z1.1 K0.6
G0 Z30
G17
M9
M30
%
