%
(1001)
(z0 slate machine -5-5)
(T1  D=6 CR=0 - ZMIN=0.5 - flat end mill)
G90 G94
G17
G21

(2D Adaptive3 3)
M9
T1 M6
S6000 M3
G54
M9
G0 X-1356.784 Y-511.336
Z30
Z20
Z18.15
G1 Z17.55 F850
G3 X-1353.848 Y-507.469 Z17.347 I0.28 J2.836 F283.3
X-1358.625 Y-506.596 Z17.144 I-2.657 J-1.032
X-1357.246 Y-511.252 Z16.941 I2.12 J-1.904
X-1353.714 Y-507.918 Z16.738 I0.741 J2.752
X-1358.284 Y-506.274 Z16.535 I-2.79 J-0.582
X-1357.687 Y-511.093 Z16.332 I1.779 J-2.226
X-1353.657 Y-508.384 Z16.129 I1.183 J2.593
X-1357.894 Y-506.012 Z15.926 I-2.848 J-0.116
X-1358.096 Y-510.864 Z15.723 I1.39 J-2.488
X-1353.676 Y-508.853 Z15.52 I1.592 J2.364
X-1357.467 Y-505.818 Z15.317 I-2.828 J0.353
X-1358.463 Y-510.571 Z15.114 I0.963 J-2.682
X-1353.772 Y-509.312 Z14.911 I1.958 J2.071
X-1357.014 Y-505.696 Z14.708 I-2.732 J0.812
X-1358.776 Y-510.222 Z14.505 I0.51 J-2.804
X-1353.943 Y-509.749 Z14.302 I2.271 J1.721
X-1356.547 Y-505.65 Z14.099 I-2.562 J1.249
X-1359.027 Y-509.826 Z13.896 I0.043 J-2.85
X-1354.182 Y-510.152 Z13.693 I2.523 J1.326
X-1356.079 Y-505.682 Z13.49 I-2.322 J1.652
X-1359.211 Y-509.394 Z13.288 I-0.425 J-2.818
X-1354.485 Y-510.511 Z13.085 I2.706 J0.894
X-1355.623 Y-505.79 Z12.882 I-2.02 J2.011
X-1359.321 Y-508.938 Z12.679 I-0.882 J-2.71
X-1354.842 Y-510.815 Z12.476 I2.816 J0.438
X-1355.19 Y-505.971 Z12.273 I-1.663 J2.315
X-1359.354 Y-508.47 Z12.07 I-1.314 J-2.529
X-1355.244 Y-511.056 Z11.867 I2.85 J-0.03
X-1354.793 Y-506.221 Z11.664 I-1.26 J2.556
X-1359.311 Y-508.003 Z11.461 I-1.711 J-2.279
X-1355.681 Y-511.228 Z11.258 I2.806 J-0.497
X-1354.442 Y-506.533 Z11.055 I-0.824 J2.728
X-1359.191 Y-507.549 Z10.852 I-2.062 J-1.967
X-1353.818 Y-509.451 Z10.539 I2.687 J-0.951
X-1354.148 Y-506.898 Z10.446 I-2.687 J0.951
X-1358.861 Y-510.103 Z10.133 I-2.357 J-1.603
X-1356.608 Y-511.348 Z10.04 I2.357 J1.602
X-1353.917 Y-507.306 Z9.837 I0.103 J2.848
X-1358.739 Y-506.731 Z9.634 I-2.588 J-1.194
X-1357.074 Y-511.293 Z9.431 I2.234 J-1.769
X-1353.756 Y-507.747 Z9.228 I0.569 J2.793
X-1358.418 Y-506.388 Z9.025 I-2.749 J-0.754
X-1357.524 Y-511.161 Z8.822 I1.914 J-2.112
X-1353.669 Y-508.208 Z8.619 I1.02 J2.661
X-1359.339 Y-508.793 Z8.306 I-2.835 J-0.292
X-1357.947 Y-510.958 Z8.213 I2.835 J0.292
X-1353.66 Y-508.677 Z8.01 I1.442 J2.458
X-1357.632 Y-505.883 Z7.807 I-2.845 J0.177
X-1358.33 Y-510.688 Z7.604 I1.127 J-2.618
X-1353.727 Y-509.141 Z7.401 I1.826 J2.188
X-1359.281 Y-507.859 Z7.089 I-2.777 J0.641
X-1358.665 Y-510.359 Z6.995 I2.777 J-0.641
X-1353.87 Y-509.588 Z6.792 I2.16 J1.859
X-1356.724 Y-505.659 Z6.589 I-2.634 J1.088
X-1358.94 Y-509.979 Z6.386 I0.219 J-2.842
X-1354.084 Y-510.005 Z6.183 I2.436 J1.479
X-1356.255 Y-505.661 Z5.98 I-2.42 J1.505
X-1359.15 Y-509.56 Z5.777 I-0.25 J-2.839
X-1354.364 Y-510.382 Z5.574 I2.646 J1.06
X-1355.792 Y-505.74 Z5.371 I-2.141 J1.882
X-1359.288 Y-509.111 Z5.168 I-0.712 J-2.76
X-1354.702 Y-510.707 Z4.965 I2.784 J0.611
X-1355.349 Y-505.895 Z4.762 I-1.803 J2.207
X-1359.351 Y-508.647 Z4.56 I-1.155 J-2.605
X-1353.658 Y-508.354 Z4.247 I2.846 J0.146
X-1354.938 Y-506.119 Z4.154 I-2.846 J-0.146
X-1359.336 Y-508.178 Z3.951 I-1.567 J-2.381
X-1355.513 Y-511.172 Z3.748 I2.832 J-0.323
X-1354.568 Y-506.409 Z3.545 I-0.991 J2.672
X-1359.245 Y-507.717 Z3.342 I-1.936 J-2.091
X-1355.965 Y-511.299 Z3.139 I2.74 J-0.783
X-1354.251 Y-506.755 Z2.936 I-0.54 J2.798
X-1359.079 Y-507.279 Z2.733 I-2.253 J-1.745
X-1356.431 Y-511.349 Z2.53 I2.575 J-1.222
X-1353.996 Y-507.148 Z2.327 I-0.073 J2.849
X-1358.844 Y-506.873 Z2.124 I-2.509 J-1.352
X-1354.165 Y-510.128 Z1.811 I2.34 J-1.627
X-1353.808 Y-507.578 Z1.718 I-2.34 J1.627
X-1358.545 Y-506.511 Z1.515 I-2.697 J-0.922
X-1357.357 Y-511.22 Z1.312 I2.041 J-1.989
X-1353.693 Y-508.033 Z1.109 I0.853 J2.719
X-1358.191 Y-506.203 Z0.906 I-2.811 J-0.468
X-1357.792 Y-511.043 Z0.703 I1.687 J-2.297
X-1353.654 Y-508.5 Z0.5 I1.287 J2.543
X-1355.854 Y-505.725 I-2.85
X-1359.132 Y-507.396 I-0.65 J-2.775
X-1358.031 Y-510.907 I2.628 J-1.104
X-1354.734 Y-510.733 I1.526 J2.407
X-1353.654 Y-508.5 I-1.771 J2.233
G1 X-1353.641 Y-507.543 F850
X-1353.611 Y-507.426
X-1353.591 Y-507.278
X-1353.589 Y-507.128
X-1353.602 Y-506.978
X-1353.629 Y-506.831
X-1353.668 Y-506.686
X-1353.717 Y-506.544
X-1353.776 Y-506.406
X-1353.844 Y-506.273
X-1353.921 Y-506.144
X-1354.005 Y-506.019
X-1354.096 Y-505.9
X-1354.198 Y-505.782
X-1354.308 Y-505.667
X-1354.428 Y-505.555
X-1354.558 Y-505.448
X-1354.696 Y-505.346
X-1354.843 Y-505.25
X-1354.997 Y-505.161
X-1355.159 Y-505.079
X-1355.328 Y-505.005
X-1355.504 Y-504.94
X-1355.685 Y-504.885
X-1355.871 Y-504.839
X-1356.062 Y-504.803
X-1356.256 Y-504.778
X-1356.453 Y-504.764
X-1356.652 Y-504.76
X-1356.852 Y-504.768
X-1357.053 Y-504.788
X-1357.253 Y-504.819
X-1357.453 Y-504.861
X-1357.651 Y-504.915
X-1357.846 Y-504.98
X-1358.038 Y-505.056
X-1358.226 Y-505.143
X-1358.41 Y-505.241
X-1358.588 Y-505.35
X-1358.76 Y-505.469
X-1358.926 Y-505.597
X-1359.084 Y-505.735
X-1359.235 Y-505.882
X-1359.378 Y-506.037
X-1359.511 Y-506.2
X-1359.636 Y-506.371
X-1359.75 Y-506.549
X-1359.855 Y-506.733
X-1359.949 Y-506.923
X-1360.033 Y-507.118
X-1360.105 Y-507.318
X-1360.166 Y-507.521
X-1360.216 Y-507.728
X-1360.254 Y-507.938
X-1360.28 Y-508.149
X-1360.294 Y-508.361
X-1360.296 Y-508.574
X-1360.286 Y-508.787
X-1360.264 Y-508.999
X-1360.23 Y-509.21
X-1360.185 Y-509.418
X-1360.127 Y-509.623
X-1360.059 Y-509.825
X-1359.979 Y-510.023
X-1359.888 Y-510.216
X-1359.786 Y-510.404
X-1359.674 Y-510.586
X-1359.551 Y-510.761
X-1359.419 Y-510.928
X-1359.278 Y-511.089
X-1359.128 Y-511.241
X-1358.97 Y-511.384
X-1358.804 Y-511.518
X-1358.63 Y-511.643
X-1358.45 Y-511.758
X-1358.264 Y-511.862
X-1358.072 Y-511.956
X-1357.875 Y-512.038
X-1357.673 Y-512.11
X-1357.468 Y-512.17
X-1357.26 Y-512.219
X-1357.05 Y-512.255
X-1356.837 Y-512.28
X-1356.624 Y-512.293
X-1356.41
X-1356.197 Y-512.282
X-1355.984 Y-512.259
X-1355.774 Y-512.224
X-1355.565 Y-512.177
X-1355.36 Y-512.118
X-1355.158 Y-512.048
X-1354.96 Y-511.966
X-1354.768 Y-511.874
X-1354.581 Y-511.771
X-1354.399 Y-511.657
X-1354.225 Y-511.534
X-1354.058 Y-511.401
X-1353.898 Y-511.258
X-1353.747 Y-511.107
X-1353.605 Y-510.948
X-1353.472 Y-510.781
X-1353.348 Y-510.606
X-1353.234 Y-510.425
X-1353.131 Y-510.238
X-1353.027 Y-510.021
X-1352.898 Y-509.709
X-1352.747 Y-509.273
X-1352.649 Y-508.932
X-1352.582 Y-508.634
X-1352.536 Y-508.362
X-1352.508 Y-508.107
X-1352.506 Y-508.063
X-1352.503 Y-507.949
X-1352.506 Y-507.834
X-1352.517 Y-507.72
X-1352.525 Y-507.651
X-1352.53 Y-507.621
X-1352.589 Y-507.434
X-1352.816 Y-506.781
X-1352.869 Y-506.672
X-1353.276 Y-506.019
X-1353.315 Y-505.965
X-1353.362 Y-505.91
X-1353.836 Y-505.439
X-1353.944 Y-505.335
X-1354.054 Y-505.257
X-1354.706 Y-504.847
X-1354.756 Y-504.822
X-1354.924 Y-504.761
X-1355.368 Y-504.605
X-1355.577 Y-504.534
X-1355.795 Y-504.502
X-1356.448 Y-504.429
X-1356.556
X-1357.318 Y-504.514
X-1357.427 Y-504.532
X-1357.536 Y-504.567
X-1358.189 Y-504.797
X-1358.253 Y-504.822
X-1358.406 Y-504.911
X-1358.958 Y-505.258
X-1359.059 Y-505.328
X-1359.21 Y-505.475
X-1359.647 Y-505.91
X-1359.712 Y-505.987
X-1359.802 Y-506.128
X-1360.074 Y-506.563
X-1360.147 Y-506.683
X-1360.194 Y-506.781
X-1360.459 Y-507.543
X-1360.483 Y-507.651
X-1360.556 Y-508.304
X-1360.573 Y-508.522
X-1360.551 Y-508.739
X-1360.502 Y-509.175
X-1360.475 Y-509.392
X-1360.406 Y-509.61
X-1360.254 Y-510.045
X-1360.176 Y-510.263
X-1360.147 Y-510.318
X-1359.775 Y-510.916
X-1359.712 Y-511.014
X-1359.604 Y-511.133
X-1359.166 Y-511.569
X-1359.059 Y-511.671
X-1358.888 Y-511.786
X-1358.406 Y-512.089
X-1358.297 Y-512.156
X-1358.189 Y-512.203
X-1357.518 Y-512.439
X-1357.418 Y-512.47
X-1357.318 Y-512.486
X-1356.556 Y-512.571
X-1356.448
X-1355.795 Y-512.498
X-1355.577 Y-512.466
X-1355.492 Y-512.439
X-1354.873 Y-512.221
X-1354.706 Y-512.152
X-1354.468 Y-512.004
X-1354.054 Y-511.743
X-1353.949 Y-511.669
X-1353.836 Y-511.561
X-1353.401 Y-511.128
X-1353.305 Y-511.022
X-1353.235 Y-510.916
X-1352.964 Y-510.48
X-1352.834 Y-510.263
X-1352.748 Y-510.023
X-1352.604 Y-509.61
X-1352.533 Y-509.392
X-1352.53 Y-509.377
X-1352.504 Y-509.175
X-1352.453 Y-508.739
X-1352.429 Y-508.522
X-1352.448 Y-508.304
X-1352.517 Y-507.72
G3 X-1352.597 Y-507.5 I-0.593 J-0.092
G1 X-1352.646 Y-507.42 Z0.507
X-1352.693 Y-507.342 Z0.529
X-1352.739 Y-507.267 Z0.565
X-1352.78 Y-507.199 Z0.615
X-1352.817 Y-507.137 Z0.676
X-1352.849 Y-507.085 Z0.747
X-1352.875 Y-507.043 Z0.828
X-1352.894 Y-507.012 Z0.915
X-1352.905 Y-506.994 Z1.006
X-1352.909 Y-506.987 Z1.1
G0 Z30

(2D Contour3 3)
S8000 M3
M9
X-1356.5 Y-508.5
Z30
Z20
G1 Z0.5 F850
G3 X-1356.2 Y-508.8 I0.3
G1 X-1352.2
G3 X-1351.9 Y-508.5 J0.3
X-1359.26 Y-504.82 I-4.6
Y-512.18 I2.76 J-3.68
X-1351.9 Y-508.5 I2.76 J3.68
X-1359.26 Y-504.82 I-4.6
Y-512.18 I2.76 J-3.68
X-1351.9 Y-508.5 I2.76 J3.68
X-1352.5 Y-507.9 I-0.6
G1 X-1353.1
G18 G3 X-1353.7 Z1.1 K0.6
G0 Z30
G17

(2D Adaptive3 3)
S6000 M3
M9
G0 X-1356.784 Y-219.336
Z30
Z20
Z18.15
G1 Z17.55 F850
G3 X-1353.848 Y-215.469 Z17.347 I0.28 J2.836 F283.3
X-1358.625 Y-214.596 Z17.144 I-2.657 J-1.032
X-1357.246 Y-219.252 Z16.941 I2.12 J-1.904
X-1353.714 Y-215.918 Z16.738 I0.741 J2.752
X-1358.284 Y-214.274 Z16.535 I-2.79 J-0.582
X-1357.687 Y-219.093 Z16.332 I1.779 J-2.226
X-1353.657 Y-216.384 Z16.129 I1.183 J2.593
X-1357.894 Y-214.012 Z15.926 I-2.848 J-0.116
X-1358.096 Y-218.864 Z15.723 I1.39 J-2.488
X-1353.676 Y-216.853 Z15.52 I1.592 J2.364
X-1357.467 Y-213.818 Z15.317 I-2.828 J0.353
X-1358.463 Y-218.571 Z15.114 I0.963 J-2.682
X-1353.772 Y-217.312 Z14.911 I1.958 J2.071
X-1357.014 Y-213.696 Z14.708 I-2.732 J0.812
X-1358.776 Y-218.222 Z14.505 I0.51 J-2.804
X-1353.943 Y-217.749 Z14.302 I2.271 J1.721
X-1356.547 Y-213.65 Z14.099 I-2.562 J1.249
X-1359.027 Y-217.826 Z13.896 I0.043 J-2.85
X-1354.182 Y-218.152 Z13.693 I2.523 J1.326
X-1356.079 Y-213.682 Z13.49 I-2.322 J1.652
X-1359.211 Y-217.394 Z13.288 I-0.425 J-2.818
X-1354.485 Y-218.511 Z13.085 I2.706 J0.894
X-1355.623 Y-213.79 Z12.882 I-2.02 J2.011
X-1359.321 Y-216.938 Z12.679 I-0.882 J-2.71
X-1354.842 Y-218.815 Z12.476 I2.816 J0.438
X-1355.19 Y-213.971 Z12.273 I-1.663 J2.315
X-1359.354 Y-216.47 Z12.07 I-1.314 J-2.529
X-1355.244 Y-219.056 Z11.867 I2.85 J-0.03
X-1354.793 Y-214.221 Z11.664 I-1.26 J2.556
X-1359.311 Y-216.003 Z11.461 I-1.711 J-2.279
X-1355.681 Y-219.228 Z11.258 I2.806 J-0.497
X-1354.442 Y-214.533 Z11.055 I-0.824 J2.728
X-1359.191 Y-215.549 Z10.852 I-2.062 J-1.967
X-1353.818 Y-217.451 Z10.539 I2.687 J-0.951
X-1354.148 Y-214.898 Z10.446 I-2.687 J0.951
X-1358.861 Y-218.103 Z10.133 I-2.357 J-1.603
X-1356.608 Y-219.348 Z10.04 I2.357 J1.602
X-1353.917 Y-215.306 Z9.837 I0.103 J2.848
X-1358.739 Y-214.731 Z9.634 I-2.588 J-1.194
X-1357.074 Y-219.293 Z9.431 I2.234 J-1.769
X-1353.756 Y-215.747 Z9.228 I0.569 J2.793
X-1358.418 Y-214.388 Z9.025 I-2.749 J-0.754
X-1357.524 Y-219.161 Z8.822 I1.914 J-2.112
X-1353.669 Y-216.208 Z8.619 I1.02 J2.661
X-1359.339 Y-216.793 Z8.306 I-2.835 J-0.292
X-1357.947 Y-218.958 Z8.213 I2.835 J0.292
X-1353.66 Y-216.677 Z8.01 I1.442 J2.458
X-1357.632 Y-213.883 Z7.807 I-2.845 J0.177
X-1358.33 Y-218.688 Z7.604 I1.127 J-2.618
X-1353.727 Y-217.141 Z7.401 I1.826 J2.188
X-1359.281 Y-215.859 Z7.089 I-2.777 J0.641
X-1358.665 Y-218.359 Z6.995 I2.777 J-0.641
X-1353.87 Y-217.588 Z6.792 I2.16 J1.859
X-1356.724 Y-213.659 Z6.589 I-2.634 J1.088
X-1358.94 Y-217.979 Z6.386 I0.219 J-2.842
X-1354.084 Y-218.005 Z6.183 I2.436 J1.479
X-1356.255 Y-213.661 Z5.98 I-2.42 J1.505
X-1359.15 Y-217.56 Z5.777 I-0.25 J-2.839
X-1354.364 Y-218.382 Z5.574 I2.646 J1.06
X-1355.792 Y-213.74 Z5.371 I-2.141 J1.882
X-1359.288 Y-217.111 Z5.168 I-0.712 J-2.76
X-1354.702 Y-218.707 Z4.965 I2.784 J0.611
X-1355.349 Y-213.895 Z4.762 I-1.803 J2.207
X-1359.351 Y-216.647 Z4.56 I-1.155 J-2.605
X-1353.658 Y-216.354 Z4.247 I2.846 J0.146
X-1354.938 Y-214.119 Z4.154 I-2.846 J-0.146
X-1359.336 Y-216.178 Z3.951 I-1.567 J-2.381
X-1355.513 Y-219.172 Z3.748 I2.832 J-0.323
X-1354.568 Y-214.409 Z3.545 I-0.991 J2.672
X-1359.245 Y-215.717 Z3.342 I-1.936 J-2.091
X-1355.965 Y-219.299 Z3.139 I2.74 J-0.783
X-1354.251 Y-214.755 Z2.936 I-0.54 J2.798
X-1359.079 Y-215.279 Z2.733 I-2.253 J-1.745
X-1356.431 Y-219.349 Z2.53 I2.575 J-1.222
X-1353.996 Y-215.148 Z2.327 I-0.073 J2.849
X-1358.844 Y-214.873 Z2.124 I-2.509 J-1.352
X-1354.165 Y-218.128 Z1.811 I2.34 J-1.627
X-1353.808 Y-215.578 Z1.718 I-2.34 J1.627
X-1358.545 Y-214.511 Z1.515 I-2.697 J-0.922
X-1357.357 Y-219.22 Z1.312 I2.041 J-1.989
X-1353.693 Y-216.033 Z1.109 I0.853 J2.719
X-1358.191 Y-214.203 Z0.906 I-2.811 J-0.468
X-1357.792 Y-219.043 Z0.703 I1.687 J-2.297
X-1353.654 Y-216.5 Z0.5 I1.287 J2.543
X-1355.854 Y-213.725 I-2.85
X-1359.132 Y-215.396 I-0.65 J-2.775
X-1358.031 Y-218.907 I2.628 J-1.104
X-1354.734 Y-218.733 I1.526 J2.407
X-1353.654 Y-216.5 I-1.771 J2.233
G1 X-1353.641 Y-215.543 F850
X-1353.611 Y-215.426
X-1353.591 Y-215.278
X-1353.589 Y-215.128
X-1353.602 Y-214.978
X-1353.629 Y-214.831
X-1353.668 Y-214.686
X-1353.717 Y-214.544
X-1353.776 Y-214.406
X-1353.844 Y-214.273
X-1353.921 Y-214.144
X-1354.005 Y-214.019
X-1354.096 Y-213.9
X-1354.198 Y-213.782
X-1354.308 Y-213.667
X-1354.428 Y-213.555
X-1354.558 Y-213.448
X-1354.696 Y-213.346
X-1354.843 Y-213.25
X-1354.997 Y-213.161
X-1355.159 Y-213.079
X-1355.328 Y-213.005
X-1355.504 Y-212.94
X-1355.685 Y-212.885
X-1355.871 Y-212.839
X-1356.062 Y-212.803
X-1356.256 Y-212.778
X-1356.453 Y-212.764
X-1356.652 Y-212.76
X-1356.852 Y-212.768
X-1357.053 Y-212.788
X-1357.253 Y-212.819
X-1357.453 Y-212.861
X-1357.651 Y-212.915
X-1357.846 Y-212.98
X-1358.038 Y-213.056
X-1358.226 Y-213.143
X-1358.41 Y-213.241
X-1358.588 Y-213.35
X-1358.76 Y-213.469
X-1358.926 Y-213.597
X-1359.084 Y-213.735
X-1359.235 Y-213.882
X-1359.378 Y-214.037
X-1359.511 Y-214.2
X-1359.636 Y-214.371
X-1359.75 Y-214.549
X-1359.855 Y-214.733
X-1359.949 Y-214.923
X-1360.033 Y-215.118
X-1360.105 Y-215.318
X-1360.166 Y-215.521
X-1360.216 Y-215.728
X-1360.254 Y-215.938
X-1360.28 Y-216.149
X-1360.294 Y-216.361
X-1360.296 Y-216.574
X-1360.286 Y-216.787
X-1360.264 Y-216.999
X-1360.23 Y-217.21
X-1360.185 Y-217.418
X-1360.127 Y-217.623
X-1360.059 Y-217.825
X-1359.979 Y-218.023
X-1359.888 Y-218.216
X-1359.786 Y-218.404
X-1359.674 Y-218.586
X-1359.551 Y-218.761
X-1359.419 Y-218.928
X-1359.278 Y-219.089
X-1359.128 Y-219.241
X-1358.97 Y-219.384
X-1358.804 Y-219.518
X-1358.63 Y-219.643
X-1358.45 Y-219.758
X-1358.264 Y-219.862
X-1358.072 Y-219.956
X-1357.875 Y-220.038
X-1357.673 Y-220.11
X-1357.468 Y-220.17
X-1357.26 Y-220.219
X-1357.05 Y-220.255
X-1356.837 Y-220.28
X-1356.624 Y-220.293
X-1356.41
X-1356.197 Y-220.282
X-1355.984 Y-220.259
X-1355.774 Y-220.224
X-1355.565 Y-220.177
X-1355.36 Y-220.118
X-1355.158 Y-220.048
X-1354.96 Y-219.966
X-1354.768 Y-219.874
X-1354.581 Y-219.771
X-1354.399 Y-219.657
X-1354.225 Y-219.534
X-1354.058 Y-219.401
X-1353.898 Y-219.258
X-1353.747 Y-219.107
X-1353.605 Y-218.948
X-1353.472 Y-218.781
X-1353.348 Y-218.606
X-1353.234 Y-218.425
X-1353.131 Y-218.238
X-1353.027 Y-218.021
X-1352.898 Y-217.709
X-1352.747 Y-217.273
X-1352.649 Y-216.932
X-1352.582 Y-216.634
X-1352.536 Y-216.362
X-1352.508 Y-216.107
X-1352.506 Y-216.063
X-1352.503 Y-215.949
X-1352.506 Y-215.834
X-1352.517 Y-215.72
X-1352.525 Y-215.651
X-1352.53 Y-215.621
X-1352.589 Y-215.434
X-1352.816 Y-214.781
X-1352.869 Y-214.672
X-1353.276 Y-214.019
X-1353.315 Y-213.965
X-1353.362 Y-213.91
X-1353.836 Y-213.439
X-1353.944 Y-213.335
X-1354.054 Y-213.257
X-1354.706 Y-212.847
X-1354.756 Y-212.822
X-1354.924 Y-212.761
X-1355.368 Y-212.605
X-1355.577 Y-212.534
X-1355.795 Y-212.502
X-1356.448 Y-212.429
X-1356.556
X-1357.318 Y-212.514
X-1357.427 Y-212.532
X-1357.536 Y-212.567
X-1358.189 Y-212.797
X-1358.253 Y-212.822
X-1358.406 Y-212.911
X-1358.958 Y-213.258
X-1359.059 Y-213.328
X-1359.21 Y-213.475
X-1359.647 Y-213.91
X-1359.712 Y-213.987
X-1359.802 Y-214.128
X-1360.074 Y-214.563
X-1360.147 Y-214.683
X-1360.194 Y-214.781
X-1360.459 Y-215.543
X-1360.483 Y-215.651
X-1360.556 Y-216.304
X-1360.573 Y-216.522
X-1360.551 Y-216.739
X-1360.502 Y-217.175
X-1360.475 Y-217.392
X-1360.406 Y-217.61
X-1360.254 Y-218.045
X-1360.176 Y-218.263
X-1360.147 Y-218.318
X-1359.775 Y-218.916
X-1359.712 Y-219.014
X-1359.604 Y-219.133
X-1359.166 Y-219.569
X-1359.059 Y-219.671
X-1358.888 Y-219.786
X-1358.406 Y-220.089
X-1358.297 Y-220.156
X-1358.189 Y-220.203
X-1357.518 Y-220.439
X-1357.418 Y-220.47
X-1357.318 Y-220.486
X-1356.556 Y-220.571
X-1356.448
X-1355.795 Y-220.498
X-1355.577 Y-220.466
X-1355.492 Y-220.439
X-1354.873 Y-220.221
X-1354.706 Y-220.152
X-1354.468 Y-220.004
X-1354.054 Y-219.743
X-1353.949 Y-219.669
X-1353.836 Y-219.561
X-1353.401 Y-219.128
X-1353.305 Y-219.022
X-1353.235 Y-218.916
X-1352.964 Y-218.48
X-1352.834 Y-218.263
X-1352.748 Y-218.023
X-1352.604 Y-217.61
X-1352.533 Y-217.392
X-1352.53 Y-217.377
X-1352.504 Y-217.175
X-1352.453 Y-216.739
X-1352.429 Y-216.522
X-1352.448 Y-216.304
X-1352.517 Y-215.72
G3 X-1352.597 Y-215.5 I-0.593 J-0.092
G1 X-1352.646 Y-215.42 Z0.507
X-1352.693 Y-215.342 Z0.529
X-1352.739 Y-215.267 Z0.565
X-1352.78 Y-215.199 Z0.615
X-1352.817 Y-215.137 Z0.676
X-1352.849 Y-215.085 Z0.747
X-1352.875 Y-215.043 Z0.828
X-1352.894 Y-215.012 Z0.915
X-1352.905 Y-214.994 Z1.006
X-1352.909 Y-214.987 Z1.1
G0 Z30

(2D Contour3 3)
S8000 M3
M9
X-1356.5 Y-216.5
Z30
Z20
G1 Z0.5 F850
G3 X-1356.2 Y-216.8 I0.3
G1 X-1352.2
G3 X-1351.9 Y-216.5 J0.3
X-1359.26 Y-212.82 I-4.6
Y-220.18 I2.76 J-3.68
X-1351.9 Y-216.5 I2.76 J3.68
X-1359.26 Y-212.82 I-4.6
Y-220.18 I2.76 J-3.68
X-1351.9 Y-216.5 I2.76 J3.68
X-1352.5 Y-215.9 I-0.6
G1 X-1353.1
G18 G3 X-1353.7 Z1.1 K0.6
G0 Z30
G17
M9
M30
%
