%
(1001)
(z0 machine x-5 y-5 slate bed)
(T1  D=6 CR=0 - ZMIN=0.5 - flat end mill)
G90 G94
G17
G21

(2D Adaptive1)
M9
T1 M6
S6000 M3
G54
M9
G0 X-1353.994 Y-568.028
Z30
Z20
Z18.1
G1 Z17.5 F850
G3 X-1358.461 Y-566.18 Z17.299 I-2.811 J-0.473 F283.3
X-1358.165 Y-571.005 Z17.097 I1.656 J-2.32
X-1353.958 Y-568.626 Z16.896 I1.36 J2.505
X-1357.939 Y-565.885 Z16.694 I-2.847 J0.126
X-1358.659 Y-570.665 Z16.493 I1.134 J-2.615
X-1354.047 Y-569.219 Z16.291 I1.854 J2.165
X-1357.367 Y-565.706 Z16.09 I-2.758 J0.719
X-1359.071 Y-570.229 Z15.888 I0.562 J-2.794
X-1354.258 Y-569.78 Z15.687 I2.266 J1.729
X-1356.77 Y-565.65 Z15.485 I-2.547 J1.28
X-1359.382 Y-569.717 Z15.284 I-0.035 J-2.85
X-1354.582 Y-570.284 Z15.083 I2.577 J1.217
X-1356.174 Y-565.721 Z14.881 I-2.223 J1.784
X-1359.58 Y-569.151 Z14.68 I-0.63 J-2.779
X-1355.005 Y-570.71 Z14.478 I2.775 J0.651
X-1355.607 Y-565.914 Z14.277 I-1.8 J2.21
X-1359.654 Y-568.556 Z14.075 I-1.198 J-2.586
X-1355.507 Y-571.037 Z13.874 I2.849 J0.056
X-1355.093 Y-566.222 Z13.672 I-1.298 J2.537
X-1359.603 Y-567.959 Z13.471 I-1.712 J-2.278
X-1356.066 Y-571.253 Z13.27 I2.798 J-0.542
X-1354.654 Y-566.63 Z13.068 I-0.739 J2.753
X-1359.428 Y-567.385 Z12.867 I-2.151 J-1.87
X-1356.658 Y-571.346 Z12.665 I2.623 J-1.115
X-1354.31 Y-567.122 Z12.464 I-0.146 J2.846
X-1359.136 Y-566.861 Z12.262 I-2.495 J-1.378
X-1354.473 Y-570.139 Z11.95 I2.332 J-1.639
X-1354.077 Y-567.674 Z11.859 I-2.332 J1.639
X-1358.742 Y-566.41 Z11.658 I-2.728 J-0.826
X-1357.836 Y-571.157 Z11.456 I1.937 J-2.09
X-1353.965 Y-568.263 Z11.255 I1.031 J2.657
X-1358.262 Y-566.051 Z11.054 I-2.84 J-0.237
X-1358.369 Y-570.883 Z10.852 I1.457 J-2.449
X-1355.241 Y-566.117 Z10.539 I1.564 J2.383
X-1357.717 Y-565.8 Z10.449 I-1.564 J-2.383
X-1355.892 Y-571.2 Z10.137 I0.912 J-2.7
X-1354.116 Y-569.446 Z10.046 I-0.912 J2.7
X-1357.132 Y-565.669 Z9.845 I-2.689 J0.946
X-1356.477 Y-571.331 Z9.532 I0.328 J-2.831
X-1354.374 Y-569.987 Z9.442 I-0.328 J2.831
X-1356.533 Y-565.663 Z9.24 I-2.431 J1.487
X-1359.474 Y-569.498 Z9.039 I-0.272 J-2.837
X-1354.135 Y-567.502 Z8.726 I2.67 J0.998
X-1359.624 Y-568.918 Z8.435 I-2.67 J-0.998
X-1355.195 Y-570.852 Z8.233 I2.819 J0.417
X-1355.396 Y-566.023 Z8.032 I-1.61 J2.352
X-1359.649 Y-568.319 Z7.83 I-1.409 J-2.477
X-1355.722 Y-571.137 Z7.629 I2.844 J-0.181
X-1354.909 Y-566.372 Z7.427 I-1.083 J2.636
X-1359.548 Y-567.728 Z7.226 I-1.896 J-2.128
X-1356.298 Y-571.305 Z7.025 I2.743 J-0.772
X-1354.506 Y-566.816 Z6.823 I-0.507 J2.805
X-1359.326 Y-567.171 Z6.622 I-2.299 J-1.684
X-1356.896 Y-571.349 Z6.42 I2.521 J-1.329
X-1354.204 Y-567.334 Z6.219 I0.091 J2.849
X-1359.405 Y-569.666 Z5.906 I-2.601 J-1.166
X-1357.49 Y-571.267 Z5.816 I2.601 J1.166
X-1354.018 Y-567.904 Z5.614 I0.685 J2.767
X-1358.561 Y-566.256 Z5.413 I-2.787 J-0.596
X-1358.053 Y-571.062 Z5.211 I1.757 J-2.244
X-1353.955 Y-568.5 Z5.01 I1.248 J2.562
X-1356.155 Y-565.725 I-2.85
X-1359.432 Y-567.396 I-0.65 J-2.775
X-1358.331 Y-570.907 I2.628 J-1.104
X-1355.034 Y-570.733 I1.527 J2.407
X-1353.955 Y-568.5 I-1.771 J2.233
G1 X-1353.951 Y-568.261 F850
X-1353.801 Y-567.315
X-1353.778 Y-567.167
X-1353.77 Y-567.017
X-1353.777 Y-566.867
X-1353.796 Y-566.718
X-1353.827 Y-566.571
X-1353.869 Y-566.425
X-1353.924 Y-566.275
X-1353.992 Y-566.121
X-1354.074 Y-565.965
X-1354.172 Y-565.808
X-1354.284 Y-565.653
X-1354.411 Y-565.5
X-1354.554 Y-565.351
X-1354.711 Y-565.208
X-1354.883 Y-565.073
X-1355.069 Y-564.946
X-1355.269 Y-564.829
X-1355.48 Y-564.724
X-1355.703 Y-564.632
X-1355.937 Y-564.554
X-1356.179 Y-564.492
X-1356.429 Y-564.445
X-1356.685 Y-564.416
X-1356.946 Y-564.404
X-1357.211 Y-564.411
X-1357.476 Y-564.436
X-1357.742 Y-564.48
X-1358.007 Y-564.542
X-1358.269 Y-564.624
X-1358.526 Y-564.724
X-1358.776 Y-564.842
X-1359.02 Y-564.978
X-1359.255 Y-565.131
X-1359.479 Y-565.301
X-1359.692 Y-565.487
X-1359.892 Y-565.688
X-1360.078 Y-565.902
X-1360.25 Y-566.13
X-1360.406 Y-566.37
X-1360.545 Y-566.62
X-1360.666 Y-566.88
X-1360.77 Y-567.148
X-1360.854 Y-567.423
X-1360.92 Y-567.703
X-1360.966 Y-567.988
X-1360.993 Y-568.276
X-1360.999 Y-568.565
X-1360.985 Y-568.854
X-1360.952 Y-569.141
X-1360.898 Y-569.426
X-1360.825 Y-569.706
X-1360.733 Y-569.981
X-1360.621 Y-570.249
X-1360.492 Y-570.508
X-1360.344 Y-570.758
X-1360.18 Y-570.998
X-1360 Y-571.225
X-1359.804 Y-571.44
X-1359.593 Y-571.64
X-1359.37 Y-571.826
X-1359.134 Y-571.995
X-1358.886 Y-572.148
X-1358.629 Y-572.283
X-1358.363 Y-572.401
X-1358.089 Y-572.499
X-1357.81 Y-572.579
X-1357.525 Y-572.638
X-1357.237 Y-572.678
X-1356.947 Y-572.698
X-1356.656
X-1356.366 Y-572.678
X-1356.078 Y-572.637
X-1355.793 Y-572.577
X-1355.513 Y-572.497
X-1355.24 Y-572.398
X-1354.974 Y-572.281
X-1354.716 Y-572.145
X-1354.469 Y-571.992
X-1354.233 Y-571.822
X-1354.009 Y-571.636
X-1353.799 Y-571.435
X-1353.603 Y-571.219
X-1353.422 Y-570.991
X-1353.258 Y-570.751
X-1353.086 Y-570.459
X-1352.833 Y-569.949
X-1352.617 Y-569.428
X-1352.538 Y-569.192
X-1352.505 Y-569.081
X-1352.48 Y-568.967
X-1352.463 Y-568.852
X-1352.432 Y-568.585
X-1352.427 Y-568.476
X-1352.438 Y-568.367
X-1352.512 Y-567.714
X-1352.53 Y-567.566
X-1352.547 Y-567.496
X-1352.622 Y-567.279
X-1352.776 Y-566.844
X-1352.855 Y-566.626
X-1352.965 Y-566.437
X-1353.257 Y-565.973
X-1353.402 Y-565.755
X-1353.618 Y-565.535
X-1353.836 Y-565.318
X-1354.054 Y-565.102
X-1354.271 Y-564.955
X-1354.73 Y-564.667
X-1354.924 Y-564.552
X-1355.142 Y-564.474
X-1355.577 Y-564.322
X-1355.795 Y-564.246
X-1355.851 Y-564.232
X-1356.012 Y-564.211
X-1356.665 Y-564.138
X-1356.774 Y-564.127
X-1356.883 Y-564.131
X-1357.536 Y-564.205
X-1357.758 Y-564.232
X-1357.971 Y-564.3
X-1358.624 Y-564.528
X-1358.733 Y-564.576
X-1358.88 Y-564.667
X-1359.494 Y-565.053
X-1359.557 Y-565.103
X-1359.776 Y-565.32
X-1360.147 Y-565.691
X-1360.209 Y-565.755
X-1360.353 Y-565.973
X-1360.627 Y-566.408
X-1360.755 Y-566.626
X-1360.8 Y-566.748
X-1361.018 Y-567.364
X-1361.063 Y-567.496
X-1361.095 Y-567.714
X-1361.165 Y-568.367
X-1361.176 Y-568.476
X-1361.171 Y-568.585
X-1361.1 Y-569.237
X-1361.074 Y-569.455
X-1361.018 Y-569.636
X-1360.774 Y-570.325
X-1360.752 Y-570.38
X-1360.725 Y-570.434
X-1360.365 Y-571.009
X-1360.246 Y-571.196
X-1360.147 Y-571.309
X-1359.607 Y-571.849
X-1359.551 Y-571.902
X-1359.494 Y-571.946
X-1358.841 Y-572.357
X-1358.733 Y-572.424
X-1358.624 Y-572.472
X-1357.916 Y-572.719
X-1357.753 Y-572.769
X-1357.536 Y-572.795
X-1356.883 Y-572.869
X-1356.774 Y-572.873
X-1356.665 Y-572.862
X-1356.012 Y-572.789
X-1355.795 Y-572.754
X-1355.577 Y-572.678
X-1355.071 Y-572.502
X-1354.924 Y-572.448
X-1354.706 Y-572.318
X-1354.271 Y-572.045
X-1354.054 Y-571.898
X-1354.003 Y-571.849
X-1353.567 Y-571.414
X-1353.401 Y-571.244
X-1353.364 Y-571.196
X-1353.183 Y-570.91
X-1352.953 Y-570.543
X-1352.886 Y-570.434
X-1352.857 Y-570.38
X-1352.836 Y-570.325
X-1352.605 Y-569.673
X-1352.534 Y-569.455
X-1352.53 Y-569.434
X-1352.506 Y-569.237
X-1352.463 Y-568.852
X-1352.461 Y-568.805 Z5.015
X-1352.469 Y-568.754 Z5.032
X-1352.476 Y-568.709 Z5.059
X-1352.482 Y-568.671 Z5.097
X-1352.486 Y-568.643 Z5.142
X-1352.489 Y-568.625 Z5.192
X-1352.49 Y-568.619 Z5.246
G0 Z20
X-1353.994 Y-156.027
Z18.1
G1 Z17.5 F850
G3 X-1359.615 Y-156.972 Z17.187 I-2.811 J-0.473 F283.3
X-1358.165 Y-159.004 Z17.097 I2.811 J0.473
X-1353.957 Y-156.626 Z16.896 I1.36 J2.505
X-1357.939 Y-153.885 Z16.694 I-2.847 J0.126
X-1358.659 Y-158.664 Z16.493 I1.134 J-2.615
X-1354.047 Y-157.219 Z16.291 I1.854 J2.165
X-1357.367 Y-153.706 Z16.09 I-2.758 J0.719
X-1359.07 Y-158.229 Z15.888 I0.562 J-2.794
X-1354.258 Y-157.78 Z15.687 I2.266 J1.729
X-1356.77 Y-153.65 Z15.485 I-2.547 J1.28
X-1359.382 Y-157.717 Z15.284 I-0.035 J-2.85
X-1354.227 Y-155.283 Z14.971 I2.577 J1.217
X-1359.579 Y-157.15 Z14.68 I-2.577 J-1.217
X-1354.03 Y-155.849 Z14.367 I2.775 J0.651
X-1355.607 Y-153.914 Z14.277 I-2.775 J-0.651
X-1359.654 Y-156.556 Z14.075 I-1.198 J-2.586
X-1355.507 Y-159.037 Z13.874 I2.849 J0.056
X-1355.092 Y-154.222 Z13.672 I-1.298 J2.537
X-1358.517 Y-158.778 Z13.36 I-1.712 J-2.278
X-1354.654 Y-154.63 Z13.068 I1.712 J2.278
X-1359.428 Y-155.385 Z12.867 I-2.151 J-1.87
X-1356.658 Y-159.346 Z12.665 I2.623 J-1.115
X-1354.31 Y-155.122 Z12.464 I-0.146 J2.846
X-1359.299 Y-157.878 Z12.151 I-2.495 J-1.378
X-1354.31 Y-155.122 Z11.838 I2.495 J1.378
X-1358.742 Y-154.41 Z11.658 I-2.495 J-1.378
X-1357.835 Y-159.157 Z11.456 I1.937 J-2.09
X-1353.965 Y-156.263 Z11.255 I1.031 J2.657
X-1359.645 Y-156.737 Z10.942 I-2.84 J-0.237
X-1358.368 Y-158.883 Z10.852 I2.84 J0.237
X-1353.978 Y-156.862 Z10.651 I1.564 J2.383
X-1359.632 Y-156.138 Z10.338 I-2.827 J0.362
X-1358.832 Y-158.503 Z10.248 I2.827 J-0.362
X-1354.116 Y-157.445 Z10.046 I2.028 J2.003
X-1357.132 Y-153.669 Z9.845 I-2.689 J0.946
X-1359.206 Y-158.034 Z9.643 I0.327 J-2.831
X-1354.373 Y-157.987 Z9.442 I2.402 J1.534
X-1359.236 Y-155.013 Z9.129 I-2.431 J1.487
X-1354.373 Y-157.987 Z8.817 I2.431 J-1.487
X-1355.945 Y-153.783 Z8.636 I-2.431 J1.487
X-1359.624 Y-156.917 Z8.435 I-0.859 J-2.717
X-1353.985 Y-156.082 Z8.122 I2.819 J0.417
X-1355.396 Y-154.022 Z8.032 I-2.819 J-0.418
X-1359.649 Y-156.318 Z7.83 I-1.409 J-2.477
X-1355.722 Y-159.136 Z7.629 I2.844 J-0.182
X-1354.909 Y-154.372 Z7.427 I-1.083 J2.636
X-1359.548 Y-155.727 Z7.226 I-1.896 J-2.128
X-1356.298 Y-159.304 Z7.025 I2.743 J-0.772
X-1354.505 Y-154.816 Z6.823 I-0.507 J2.805
X-1359.326 Y-155.171 Z6.622 I-2.299 J-1.684
X-1356.896 Y-159.348 Z6.42 I2.521 J-1.329
X-1354.204 Y-155.334 Z6.219 I0.091 J2.849
X-1358.992 Y-154.673 Z6.017 I-2.601 J-1.166
X-1357.489 Y-159.266 Z5.816 I2.187 J-1.827
X-1354.018 Y-155.904 Z5.614 I0.685 J2.767
X-1359.592 Y-157.096 Z5.302 I-2.787 J-0.596
X-1358.053 Y-159.062 Z5.211 I2.787 J0.596
X-1353.955 Y-156.5 Z5.01 I1.248 J2.562
X-1356.155 Y-153.725 I-2.85
X-1359.432 Y-155.396 I-0.65 J-2.775
X-1358.331 Y-158.907 I2.628 J-1.104
X-1355.034 Y-158.733 I1.526 J2.407
X-1353.955 Y-156.5 I-1.771 J2.233
G1 X-1353.951 Y-156.261 F850
X-1353.8 Y-155.315
X-1353.778 Y-155.167
X-1353.77 Y-155.017
X-1353.777 Y-154.867
X-1353.796 Y-154.718
X-1353.827 Y-154.571
X-1353.869 Y-154.425
X-1353.923 Y-154.275
X-1353.992 Y-154.121
X-1354.074 Y-153.965
X-1354.172 Y-153.808
X-1354.284 Y-153.653
X-1354.411 Y-153.5
X-1354.554 Y-153.351
X-1354.711 Y-153.208
X-1354.883 Y-153.072
X-1355.069 Y-152.945
X-1355.269 Y-152.829
X-1355.48 Y-152.724
X-1355.703 Y-152.632
X-1355.937 Y-152.554
X-1356.179 Y-152.491
X-1356.429 Y-152.445
X-1356.685 Y-152.416
X-1356.946 Y-152.404
X-1357.21 Y-152.411
X-1357.476 Y-152.436
X-1357.742 Y-152.479
X-1358.007 Y-152.542
X-1358.268 Y-152.623
X-1358.525 Y-152.723
X-1358.776 Y-152.842
X-1359.02 Y-152.978
X-1359.254 Y-153.131
X-1359.479 Y-153.301
X-1359.692 Y-153.487
X-1359.892 Y-153.687
X-1360.078 Y-153.902
X-1360.25 Y-154.13
X-1360.405 Y-154.369
X-1360.544 Y-154.62
X-1360.666 Y-154.88
X-1360.77 Y-155.148
X-1360.854 Y-155.423
X-1360.92 Y-155.703
X-1360.966 Y-155.988
X-1360.992 Y-156.275
X-1360.999 Y-156.564
X-1360.985 Y-156.853
X-1360.951 Y-157.141
X-1360.898 Y-157.425
X-1360.825 Y-157.706
X-1360.732 Y-157.981
X-1360.621 Y-158.249
X-1360.491 Y-158.508
X-1360.344 Y-158.758
X-1360.18 Y-158.998
X-1359.999 Y-159.225
X-1359.803 Y-159.44
X-1359.593 Y-159.64
X-1359.37 Y-159.826
X-1359.133 Y-159.995
X-1358.886 Y-160.148
X-1358.629 Y-160.283
X-1358.363 Y-160.4
X-1358.089 Y-160.499
X-1357.809 Y-160.578
X-1357.525 Y-160.638
X-1357.237 Y-160.678
X-1356.947 Y-160.698
X-1356.656
X-1356.365 Y-160.678
X-1356.077 Y-160.637
X-1355.793 Y-160.577
X-1355.513 Y-160.497
X-1355.239 Y-160.398
X-1354.973 Y-160.281
X-1354.716 Y-160.145
X-1354.469 Y-159.991
X-1354.233 Y-159.821
X-1354.009 Y-159.635
X-1353.799 Y-159.434
X-1353.603 Y-159.219
X-1353.422 Y-158.991
X-1353.258 Y-158.751
X-1353.086 Y-158.459
X-1352.833 Y-157.949
X-1352.617 Y-157.428
X-1352.538 Y-157.193
X-1352.505 Y-157.081
X-1352.48 Y-156.967
X-1352.463 Y-156.852
X-1352.438 Y-156.633
X-1352.427 Y-156.524
X-1352.432 Y-156.415
X-1352.506 Y-155.763
X-1352.53 Y-155.566
X-1352.534 Y-155.545
X-1352.605 Y-155.327
X-1352.836 Y-154.675
X-1352.857 Y-154.62
X-1352.886 Y-154.566
X-1352.965 Y-154.437
X-1353.226 Y-154.022
X-1353.364 Y-153.804
X-1353.401 Y-153.756
X-1353.567 Y-153.586
X-1354.003 Y-153.151
X-1354.054 Y-153.102
X-1354.271 Y-152.955
X-1354.706 Y-152.682
X-1354.924 Y-152.552
X-1355.071 Y-152.498
X-1355.694 Y-152.281
X-1355.795 Y-152.246
X-1356.012 Y-152.211
X-1356.665 Y-152.138
X-1356.774 Y-152.127
X-1356.883 Y-152.131
X-1357.536 Y-152.205
X-1357.753 Y-152.231
X-1357.916 Y-152.281
X-1358.624 Y-152.528
X-1358.733 Y-152.576
X-1358.841 Y-152.643
X-1359.494 Y-153.054
X-1359.551 Y-153.098
X-1359.607 Y-153.151
X-1360.147 Y-153.691
X-1360.246 Y-153.804
X-1360.384 Y-154.022
X-1360.725 Y-154.566
X-1360.752 Y-154.62
X-1360.774 Y-154.675
X-1361.018 Y-155.364
X-1361.074 Y-155.545
X-1361.1 Y-155.763
X-1361.171 Y-156.415
X-1361.176 Y-156.524
X-1361.165 Y-156.633
X-1361.095 Y-157.286
X-1361.063 Y-157.504
X-1361.018 Y-157.636
X-1360.8 Y-158.252
X-1360.755 Y-158.374
X-1360.627 Y-158.592
X-1360.353 Y-159.027
X-1360.209 Y-159.245
X-1360.147 Y-159.309
X-1359.712 Y-159.744
X-1359.557 Y-159.897
X-1359.494 Y-159.947
X-1358.841 Y-160.357
X-1358.733 Y-160.424
X-1358.624 Y-160.472
X-1357.971 Y-160.7
X-1357.753 Y-160.769
X-1357.536 Y-160.795
X-1356.883 Y-160.869
X-1356.774 Y-160.873
X-1356.665 Y-160.862
X-1356.012 Y-160.789
X-1355.851 Y-160.768
X-1355.795 Y-160.754
X-1355.359 Y-160.602
X-1355.142 Y-160.526
X-1354.924 Y-160.448
X-1354.73 Y-160.333
X-1354.271 Y-160.045
X-1354.053 Y-159.897
X-1353.833 Y-159.68
X-1353.616 Y-159.462
X-1353.401 Y-159.244
X-1353.257 Y-159.027
X-1352.965 Y-158.563
X-1352.855 Y-158.374
X-1352.748 Y-158.076
X-1352.622 Y-157.721
X-1352.547 Y-157.504
X-1352.53 Y-157.434
X-1352.512 Y-157.286
X-1352.463 Y-156.852
X-1352.461 Y-156.805 Z5.015
X-1352.469 Y-156.755 Z5.032
X-1352.476 Y-156.709 Z5.059
X-1352.482 Y-156.672 Z5.097
X-1352.486 Y-156.643 Z5.142
X-1352.489 Y-156.625 Z5.192
X-1352.49 Y-156.619 Z5.246
G0 Z20
X-1271.095 Y-53.127
Z18.1
G1 Z17.5 F850
G3 X-1275.561 Y-51.28 Z17.299 I-2.811 J-0.473 F283.3
X-1275.266 Y-56.104 Z17.097 I1.656 J-2.32
X-1271.058 Y-53.726 Z16.896 I1.36 J2.505
X-1276.753 Y-53.474 Z16.583 I-2.847 J0.126
X-1275.76 Y-55.764 Z16.493 I2.847 J-0.126
X-1272.052 Y-51.435 Z16.18 I1.854 J2.165
X-1276.171 Y-55.329 Z15.888 I-1.854 J-2.165
X-1271.359 Y-54.88 Z15.687 I2.266 J1.729
X-1273.871 Y-50.75 Z15.485 I-2.547 J1.28
X-1273.941 Y-56.45 Z15.173 I-0.035 J-2.85
X-1273.275 Y-50.82 Z14.881 I0.035 J2.85
X-1276.68 Y-54.25 Z14.68 I-0.63 J-2.779
X-1271.131 Y-52.949 Z14.367 I2.775 J0.651
X-1272.708 Y-51.014 Z14.277 I-2.775 J-0.651
X-1276.755 Y-53.656 Z14.075 I-1.198 J-2.586
X-1272.608 Y-56.137 Z13.874 I2.849 J0.056
X-1272.193 Y-51.322 Z13.672 I-1.298 J2.537
X-1275.618 Y-55.878 Z13.36 I-1.712 J-2.278
X-1271.755 Y-51.73 Z13.068 I1.712 J2.278
X-1276.529 Y-52.485 Z12.867 I-2.151 J-1.87
X-1271.283 Y-54.715 Z12.554 I2.623 J-1.115
X-1271.411 Y-52.222 Z12.464 I-2.623 J1.115
X-1276.237 Y-51.961 Z12.262 I-2.495 J-1.378
X-1271.574 Y-55.239 Z11.95 I2.332 J-1.639
X-1271.178 Y-52.774 Z11.859 I-2.332 J1.639
X-1275.843 Y-51.509 Z11.658 I-2.728 J-0.826
X-1271.968 Y-55.69 Z11.345 I1.937 J-2.09
X-1271.066 Y-53.363 Z11.255 I-1.937 J2.09
X-1275.363 Y-51.151 Z11.054 I-2.84 J-0.237
X-1275.469 Y-55.983 Z10.852 I1.457 J-2.449
X-1271.079 Y-53.962 Z10.651 I1.564 J2.383
X-1276.733 Y-53.238 Z10.338 I-2.827 J0.362
X-1275.933 Y-55.603 Z10.248 I2.827 J-0.362
X-1271.217 Y-54.545 Z10.046 I2.028 J2.003
X-1274.233 Y-50.769 Z9.845 I-2.689 J0.946
X-1276.307 Y-55.134 Z9.643 I0.328 J-2.831
X-1271.504 Y-52.066 Z9.331 I2.402 J1.534
X-1273.634 Y-50.763 Z9.24 I-2.402 J-1.534
X-1274.178 Y-56.437 Z8.928 I-0.272 J-2.837
X-1273.046 Y-50.883 Z8.636 I0.272 J2.837
X-1276.725 Y-54.017 Z8.435 I-0.859 J-2.717
X-1271.086 Y-53.182 Z8.122 I2.819 J0.417
X-1272.497 Y-51.122 Z8.032 I-2.819 J-0.418
X-1276.75 Y-53.418 Z7.83 I-1.409 J-2.477
X-1272.823 Y-56.236 Z7.629 I2.844 J-0.181
X-1272.01 Y-51.472 Z7.427 I-1.083 J2.636
X-1276.649 Y-52.827 Z7.226 I-1.896 J-2.128
X-1273.399 Y-56.404 Z7.025 I2.743 J-0.772
X-1271.607 Y-51.916 Z6.823 I-0.507 J2.805
X-1276.427 Y-52.271 Z6.622 I-2.299 J-1.684
X-1273.996 Y-56.448 Z6.42 I2.521 J-1.329
X-1273.815 Y-50.751 Z6.107 I0.091 J2.849
X-1276.093 Y-51.773 Z6.017 I-0.091 J-2.849
X-1274.59 Y-56.366 Z5.816 I2.187 J-1.827
X-1271.119 Y-53.004 Z5.614 I0.685 J2.767
X-1275.662 Y-51.356 Z5.413 I-2.787 J-0.596
X-1275.154 Y-56.162 Z5.211 I1.757 J-2.244
X-1271.056 Y-53.6 Z5.01 I1.248 J2.562
X-1273.256 Y-50.825 I-2.85
X-1276.533 Y-52.496 I-0.65 J-2.775
X-1275.432 Y-56.007 I2.628 J-1.104
X-1272.135 Y-55.833 I1.526 J2.407
X-1271.056 Y-53.6 I-1.771 J2.233
G1 X-1271.052 Y-53.36 F850
X-1270.901 Y-52.415
X-1270.883 Y-52.296
X-1270.873 Y-52.147
X-1270.877 Y-51.997
X-1270.893 Y-51.848
X-1270.922 Y-51.7
X-1270.961 Y-51.556
X-1271.013 Y-51.406
X-1271.078 Y-51.253
X-1271.158 Y-51.097
X-1271.252 Y-50.941
X-1271.361 Y-50.785
X-1271.485 Y-50.632
X-1271.624 Y-50.482
X-1271.779 Y-50.338
X-1271.948 Y-50.2
X-1272.131 Y-50.071
X-1272.327 Y-49.952
X-1272.536 Y-49.845
X-1272.757 Y-49.75
X-1272.988 Y-49.669
X-1273.229 Y-49.603
X-1273.477 Y-49.554
X-1273.732 Y-49.521
X-1273.992 Y-49.505
X-1274.256 Y-49.508
X-1274.521 Y-49.529
X-1274.788 Y-49.569
X-1275.052 Y-49.627
X-1275.315 Y-49.705
X-1275.573 Y-49.801
X-1275.825 Y-49.915
X-1276.07 Y-50.048
X-1276.307 Y-50.197
X-1276.534 Y-50.364
X-1276.749 Y-50.546
X-1276.952 Y-50.744
X-1277.141 Y-50.956
X-1277.316 Y-51.181
X-1277.475 Y-51.418
X-1277.618 Y-51.666
X-1277.743 Y-51.924
X-1277.85 Y-52.191
X-1277.939 Y-52.464
X-1278.009 Y-52.744
X-1278.059 Y-53.028
X-1278.089 Y-53.315
X-1278.1 Y-53.604
X-1278.091 Y-53.893
X-1278.061 Y-54.181
X-1278.012 Y-54.466
X-1277.943 Y-54.747
X-1277.854 Y-55.023
X-1277.747 Y-55.293
X-1277.621 Y-55.554
X-1277.478 Y-55.806
X-1277.317 Y-56.048
X-1277.14 Y-56.278
X-1276.947 Y-56.496
X-1276.74 Y-56.699
X-1276.519 Y-56.888
X-1276.285 Y-57.061
X-1276.04 Y-57.217
X-1275.785 Y-57.356
X-1275.52 Y-57.477
X-1275.248 Y-57.58
X-1274.97 Y-57.663
X-1274.686 Y-57.727
X-1274.398 Y-57.771
X-1274.109 Y-57.796
X-1273.818 Y-57.8
X-1273.527 Y-57.783
X-1273.239 Y-57.747
X-1272.953 Y-57.691
X-1272.672 Y-57.616
X-1272.397 Y-57.521
X-1272.13 Y-57.407
X-1271.87 Y-57.275
X-1271.621 Y-57.125
X-1271.382 Y-56.958
X-1271.156 Y-56.776
X-1270.943 Y-56.578
X-1270.744 Y-56.366
X-1270.56 Y-56.14
X-1270.392 Y-55.902
X-1270.236 Y-55.646
X-1269.989 Y-55.166
X-1269.757 Y-54.627
X-1269.646 Y-54.311
X-1269.609 Y-54.192
X-1269.581 Y-54.07
X-1269.562 Y-53.947
X-1269.534 Y-53.7
X-1269.527 Y-53.591
X-1269.536 Y-53.482
X-1269.612 Y-52.81
X-1269.642 Y-52.612
X-1269.717 Y-52.394
X-1269.871 Y-51.959
X-1269.949 Y-51.741
X-1270.048 Y-51.566
X-1270.347 Y-51.088
X-1270.483 Y-50.879
X-1270.489 Y-50.871
X-1270.701 Y-50.653
X-1271.137 Y-50.218
X-1271.191 Y-50.171
X-1271.245 Y-50.134
X-1271.806 Y-49.783
X-1272.006 Y-49.661
X-1272.224 Y-49.58
X-1272.891 Y-49.347
X-1272.993 Y-49.325
X-1273.747 Y-49.24
X-1273.856 Y-49.228
X-1273.965 Y-49.229
X-1274.618 Y-49.303
X-1274.836 Y-49.328
X-1274.919 Y-49.347
X-1275.706 Y-49.622
X-1275.815 Y-49.666
X-1275.924 Y-49.732
X-1276.577 Y-50.142
X-1276.674 Y-50.218
X-1277.23 Y-50.773
X-1277.321 Y-50.871
X-1277.447 Y-51.064
X-1277.736 Y-51.523
X-1277.861 Y-51.741
X-1277.882 Y-51.798
X-1278.1 Y-52.414
X-1278.166 Y-52.612
X-1278.196 Y-52.829
X-1278.267 Y-53.482
X-1278.276 Y-53.591
X-1278.269 Y-53.7
X-1278.198 Y-54.353
X-1278.171 Y-54.57
X-1278.099 Y-54.788
X-1277.869 Y-55.441
X-1277.845 Y-55.495
X-1277.816 Y-55.549
X-1277.447 Y-56.136
X-1277.335 Y-56.311
X-1277.23 Y-56.427
X-1276.693 Y-56.964
X-1276.635 Y-57.017
X-1276.577 Y-57.058
X-1275.924 Y-57.468
X-1275.815 Y-57.533
X-1275.706 Y-57.578
X-1274.973 Y-57.834
X-1274.904 Y-57.857
X-1274.836 Y-57.872
X-1274.183 Y-57.946
X-1273.965 Y-57.971
X-1273.856 Y-57.972
X-1273.747 Y-57.96
X-1272.986 Y-57.874
X-1272.877 Y-57.848
X-1272.215 Y-57.617
X-1272.006 Y-57.539
X-1271.776 Y-57.399
X-1271.245 Y-57.066
X-1271.19 Y-57.028
X-1271.136 Y-56.981
X-1271.117 Y-56.964
X-1270.682 Y-56.529
X-1270.483 Y-56.321
X-1270.475 Y-56.311
X-1270.336 Y-56.093
X-1269.987 Y-55.537
X-1269.962 Y-55.489
X-1269.941 Y-55.441
X-1269.711 Y-54.788
X-1269.637 Y-54.57
X-1269.612 Y-54.39
X-1269.562 Y-53.947
X-1269.56 Y-53.9 Z5.015
X-1269.568 Y-53.85 Z5.032
X-1269.575 Y-53.805 Z5.059
X-1269.581 Y-53.767 Z5.097
X-1269.586 Y-53.738 Z5.142
X-1269.589 Y-53.721 Z5.192
X-1269.59 Y-53.715 Z5.246
G0 Z20
X-201.094 Y-53.128
Z18.1
G1 Z17.5 F850
G3 X-206.715 Y-54.073 Z17.187 I-2.811 J-0.473 F283.3
X-201.094 Y-53.128 Z16.875 I2.811 J0.473
X-206.715 Y-54.073 Z16.562 I-2.811 J-0.473
X-201.094 Y-53.128 Z16.249 I2.811 J0.473
X-206.715 Y-54.073 Z15.937 I-2.811 J-0.473
X-201.094 Y-53.128 Z15.624 I2.811 J0.473
X-206.715 Y-54.073 Z15.311 I-2.811 J-0.473
X-201.094 Y-53.128 Z14.999 I2.811 J0.473
X-206.715 Y-54.073 Z14.686 I-2.811 J-0.473
X-201.094 Y-53.128 Z14.373 I2.811 J0.473
X-206.715 Y-54.073 Z14.061 I-2.811 J-0.473
X-201.094 Y-53.128 Z13.748 I2.811 J0.473
X-206.715 Y-54.073 Z13.435 I-2.811 J-0.473
X-201.094 Y-53.128 Z13.123 I2.811 J0.473
X-206.715 Y-54.073 Z12.81 I-2.811 J-0.473
X-201.094 Y-53.128 Z12.497 I2.811 J0.473
X-206.715 Y-54.073 Z12.185 I-2.811 J-0.473
X-201.094 Y-53.128 Z11.872 I2.811 J0.473
X-206.715 Y-54.073 Z11.559 I-2.811 J-0.473
X-201.094 Y-53.128 Z11.247 I2.811 J0.473
X-206.715 Y-54.073 Z10.934 I-2.811 J-0.473
X-201.094 Y-53.128 Z10.621 I2.811 J0.473
X-206.715 Y-54.073 Z10.309 I-2.811 J-0.473
X-201.094 Y-53.128 Z9.996 I2.811 J0.473
X-206.715 Y-54.073 Z9.683 I-2.811 J-0.473
X-201.094 Y-53.128 Z9.371 I2.811 J0.473
X-206.715 Y-54.073 Z9.058 I-2.811 J-0.473
X-201.094 Y-53.128 Z8.745 I2.811 J0.473
X-206.715 Y-54.073 Z8.433 I-2.811 J-0.473
X-201.094 Y-53.128 Z8.12 I2.811 J0.473
X-206.715 Y-54.073 Z7.807 I-2.811 J-0.473
X-201.094 Y-53.128 Z7.495 I2.811 J0.473
X-206.715 Y-54.073 Z7.182 I-2.811 J-0.473
X-201.094 Y-53.128 Z6.869 I2.811 J0.473
X-206.715 Y-54.073 Z6.557 I-2.811 J-0.473
X-201.094 Y-53.128 Z6.244 I2.811 J0.473
X-206.715 Y-54.073 Z5.931 I-2.811 J-0.473
X-201.094 Y-53.128 Z5.619 I2.811 J0.473
X-206.715 Y-54.073 Z5.306 I-2.811 J-0.473
X-201.055 Y-53.601 Z5.01 I2.811 J0.473
X-206.755 I-2.85
X-202.134 Y-55.834 I2.85
X-201.055 Y-53.601 I-1.771 J2.233
G1 X-201.051 Y-53.361 F850
X-200.9 Y-52.416
X-200.882 Y-52.297
X-200.872 Y-52.148
X-200.876 Y-51.998
X-200.892 Y-51.849
X-200.921 Y-51.701
X-200.96 Y-51.556
X-201.012 Y-51.407
X-201.077 Y-51.253
X-201.157 Y-51.098
X-201.251 Y-50.942
X-201.36 Y-50.786
X-201.484 Y-50.632
X-201.623 Y-50.483
X-201.778 Y-50.338
X-201.947 Y-50.201
X-202.13 Y-50.072
X-202.326 Y-49.953
X-202.535 Y-49.846
X-202.756 Y-49.751
X-202.987 Y-49.67
X-203.228 Y-49.604
X-203.476 Y-49.554
X-203.731 Y-49.521
X-203.991 Y-49.506
X-204.255 Y-49.509
X-204.521 Y-49.53
X-204.787 Y-49.57
X-205.052 Y-49.628
X-205.314 Y-49.706
X-205.572 Y-49.802
X-205.824 Y-49.916
X-206.069 Y-50.049
X-206.306 Y-50.198
X-206.533 Y-50.365
X-206.748 Y-50.547
X-206.951 Y-50.745
X-207.14 Y-50.957
X-207.315 Y-51.182
X-207.474 Y-51.419
X-207.617 Y-51.667
X-207.742 Y-51.925
X-207.849 Y-52.192
X-207.938 Y-52.465
X-208.008 Y-52.745
X-208.058 Y-53.029
X-208.089 Y-53.316
X-208.099 Y-53.604
X-208.09 Y-53.894
X-208.06 Y-54.181
X-208.011 Y-54.467
X-207.942 Y-54.748
X-207.853 Y-55.024
X-207.746 Y-55.294
X-207.62 Y-55.555
X-207.477 Y-55.807
X-207.316 Y-56.049
X-207.139 Y-56.279
X-206.946 Y-56.496
X-206.739 Y-56.7
X-206.518 Y-56.889
X-206.284 Y-57.062
X-206.039 Y-57.218
X-205.784 Y-57.357
X-205.519 Y-57.478
X-205.247 Y-57.581
X-204.969 Y-57.664
X-204.685 Y-57.728
X-204.398 Y-57.772
X-204.108 Y-57.796
X-203.817 Y-57.8
X-203.526 Y-57.784
X-203.238 Y-57.748
X-202.952 Y-57.692
X-202.671 Y-57.616
X-202.396 Y-57.521
X-202.129 Y-57.408
X-201.869 Y-57.276
X-201.62 Y-57.126
X-201.381 Y-56.959
X-201.155 Y-56.777
X-200.942 Y-56.579
X-200.743 Y-56.366
X-200.559 Y-56.141
X-200.391 Y-55.903
X-200.235 Y-55.647
X-199.988 Y-55.167
X-199.756 Y-54.628
X-199.652 Y-54.333
X-199.615 Y-54.214
X-199.587 Y-54.092
X-199.569 Y-53.968
X-199.538 Y-53.7
X-199.531 Y-53.591
X-199.54 Y-53.482
X-199.614 Y-52.829
X-199.645 Y-52.612
X-199.735 Y-52.346
X-199.87 Y-51.959
X-199.947 Y-51.741
X-199.952 Y-51.729
X-200.072 Y-51.523
X-200.388 Y-51.02
X-200.487 Y-50.871
X-200.605 Y-50.747
X-201.135 Y-50.218
X-201.196 Y-50.166
X-201.258 Y-50.125
X-201.911 Y-49.715
X-202.02 Y-49.654
X-202.129 Y-49.613
X-202.888 Y-49.347
X-202.944 Y-49.333
X-202.999 Y-49.324
X-203.652 Y-49.251
X-203.87 Y-49.227
X-204.087 Y-49.243
X-204.74 Y-49.316
X-204.92 Y-49.347
X-204.958 Y-49.359
X-205.611 Y-49.588
X-205.828 Y-49.673
X-206.046 Y-49.808
X-206.578 Y-50.142
X-206.674 Y-50.218
X-207.134 Y-50.677
X-207.322 Y-50.871
X-207.352 Y-50.91
X-207.787 Y-51.602
X-207.862 Y-51.741
X-208.016 Y-52.176
X-208.092 Y-52.394
X-208.165 Y-52.612
X-208.196 Y-52.829
X-208.27 Y-53.482
X-208.279 Y-53.591
X-208.272 Y-53.7
X-208.198 Y-54.353
X-208.17 Y-54.57
X-208.098 Y-54.788
X-207.869 Y-55.441
X-207.834 Y-55.519
X-207.787 Y-55.598
X-207.352 Y-56.29
X-207.336 Y-56.311
X-207.128 Y-56.529
X-206.693 Y-56.964
X-206.64 Y-57.012
X-206.587 Y-57.052
X-206.035 Y-57.399
X-205.828 Y-57.527
X-205.597 Y-57.617
X-204.958 Y-57.841
X-204.849 Y-57.87
X-204.74 Y-57.884
X-204.087 Y-57.957
X-203.87 Y-57.973
X-203.434 Y-57.925
X-202.999 Y-57.876
X-202.917 Y-57.861
X-202.834 Y-57.834
X-202.129 Y-57.587
X-202.02 Y-57.546
X-201.911 Y-57.485
X-201.258 Y-57.075
X-201.187 Y-57.026
X-201.116 Y-56.964
X-200.605 Y-56.453
X-200.473 Y-56.311
X-200.388 Y-56.18
X-200.06 Y-55.658
X-199.952 Y-55.471
X-199.94 Y-55.441
X-199.711 Y-54.788
X-199.64 Y-54.57
X-199.612 Y-54.353
X-199.569 Y-53.968
X-199.567 Y-53.922 Z5.015
X-199.575 Y-53.871 Z5.031
X-199.582 Y-53.826 Z5.059
X-199.588 Y-53.788 Z5.097
X-199.593 Y-53.759 Z5.142
X-199.595 Y-53.741 Z5.192
X-199.596 Y-53.735 Z5.246
G0 Z20
X-1356.098 Y-571.261
Z8.11
G1 Z7.51 F850
G3 X-1354.513 Y-566.806 Z7.315 I-0.707 J2.761 F283.3
X-1359.237 Y-567.014 Z7.121 I-2.292 J-1.694
X-1357.267 Y-571.312 Z6.926 I2.432 J-1.486
X-1354.025 Y-567.87 Z6.731 I0.462 J2.812
X-1358.434 Y-566.162 Z6.536 I-2.78 J-0.63
X-1358.358 Y-570.89 Z6.342 I1.629 J-2.338
X-1354.006 Y-569.04 Z6.147 I1.553 J2.389
X-1357.357 Y-565.704 Z5.952 I-2.798 J0.54
X-1359.188 Y-570.064 Z5.758 I0.552 J-2.796
X-1354.46 Y-570.12 Z5.563 I2.383 J1.564
X-1356.187 Y-565.718 Z5.368 I-2.345 J1.619
X-1359.615 Y-568.974 Z5.173 I-0.618 J-2.782
X-1355.308 Y-570.926 Z4.979 I2.81 J0.474
X-1355.121 Y-566.201 Z4.784 I-1.497 J2.425
X-1359.569 Y-567.805 Z4.589 I-1.684 J-2.299
X-1356.409 Y-571.323 Z4.394 I2.764 J-0.695
X-1354.339 Y-567.072 Z4.2 I-0.396 J2.822
X-1359.056 Y-566.753 Z4.005 I-2.466 J-1.428
X-1357.577 Y-571.244 Z3.81 I2.251 J-1.747
X-1353.973 Y-568.183 Z3.616 I0.772 J2.743
X-1358.164 Y-565.995 Z3.421 I-2.832 J-0.317
X-1358.614 Y-570.702 Z3.226 I1.359 J-2.505
X-1354.084 Y-569.348 Z3.031 I1.81 J2.202
X-1359.526 Y-567.652 Z2.719 I-2.721 J0.848
X-1359.347 Y-569.789 Z2.642 I2.721 J-0.848
X-1354.654 Y-570.37 Z2.447 I2.542 J1.289
X-1355.881 Y-565.804 Z2.253 I-2.151 J1.87
X-1359.65 Y-568.659 Z2.058 I-0.924 J-2.696
X-1353.959 Y-568.341 Z1.745 I2.846 J0.159
X-1359.474 Y-567.502 Z1.474 I-2.846 J-0.159
X-1356.725 Y-571.349 Z1.279 I2.669 J-0.998
X-1354.195 Y-567.355 Z1.084 I-0.079 J2.849
X-1358.848 Y-566.513 Z0.889 I-2.61 J-1.145
X-1357.877 Y-571.141 Z0.695 I2.043 J-1.987
X-1353.955 Y-568.5 Z0.5 I1.072 J2.641
X-1356.155 Y-565.725 I-2.85
X-1359.432 Y-567.396 I-0.65 J-2.775
X-1358.331 Y-570.907 I2.628 J-1.104
X-1355.034 Y-570.733 I1.527 J2.407
X-1353.955 Y-568.5 I-1.771 J2.233
G1 X-1353.951 Y-568.261 F850
X-1353.801 Y-567.315
X-1353.778 Y-567.167
X-1353.77 Y-567.017
X-1353.777 Y-566.867
X-1353.796 Y-566.718
X-1353.827 Y-566.571
X-1353.869 Y-566.425
X-1353.924 Y-566.275
X-1353.992 Y-566.121
X-1354.074 Y-565.965
X-1354.172 Y-565.808
X-1354.284 Y-565.653
X-1354.411 Y-565.5
X-1354.554 Y-565.351
X-1354.711 Y-565.208
X-1354.883 Y-565.073
X-1355.069 Y-564.946
X-1355.269 Y-564.829
X-1355.48 Y-564.724
X-1355.703 Y-564.632
X-1355.937 Y-564.554
X-1356.179 Y-564.492
X-1356.429 Y-564.445
X-1356.685 Y-564.416
X-1356.946 Y-564.404
X-1357.211 Y-564.411
X-1357.476 Y-564.436
X-1357.742 Y-564.48
X-1358.007 Y-564.542
X-1358.269 Y-564.624
X-1358.526 Y-564.724
X-1358.776 Y-564.842
X-1359.02 Y-564.978
X-1359.255 Y-565.131
X-1359.479 Y-565.301
X-1359.692 Y-565.487
X-1359.892 Y-565.688
X-1360.078 Y-565.902
X-1360.25 Y-566.13
X-1360.406 Y-566.37
X-1360.545 Y-566.62
X-1360.666 Y-566.88
X-1360.77 Y-567.148
X-1360.854 Y-567.423
X-1360.92 Y-567.703
X-1360.966 Y-567.988
X-1360.993 Y-568.276
X-1360.999 Y-568.565
X-1360.985 Y-568.854
X-1360.952 Y-569.141
X-1360.898 Y-569.426
X-1360.825 Y-569.706
X-1360.733 Y-569.981
X-1360.621 Y-570.249
X-1360.492 Y-570.508
X-1360.344 Y-570.758
X-1360.18 Y-570.998
X-1360 Y-571.225
X-1359.804 Y-571.44
X-1359.593 Y-571.64
X-1359.37 Y-571.826
X-1359.134 Y-571.995
X-1358.886 Y-572.148
X-1358.629 Y-572.283
X-1358.363 Y-572.401
X-1358.089 Y-572.499
X-1357.81 Y-572.579
X-1357.525 Y-572.638
X-1357.237 Y-572.678
X-1356.947 Y-572.698
X-1356.656
X-1356.366 Y-572.678
X-1356.078 Y-572.637
X-1355.793 Y-572.577
X-1355.513 Y-572.497
X-1355.24 Y-572.398
X-1354.974 Y-572.281
X-1354.716 Y-572.145
X-1354.469 Y-571.992
X-1354.233 Y-571.822
X-1354.009 Y-571.636
X-1353.799 Y-571.435
X-1353.603 Y-571.219
X-1353.422 Y-570.991
X-1353.258 Y-570.751
X-1353.086 Y-570.459
X-1352.833 Y-569.949
X-1352.617 Y-569.428
X-1352.538 Y-569.192
X-1352.505 Y-569.081
X-1352.48 Y-568.967
X-1352.463 Y-568.852
X-1352.432 Y-568.585
X-1352.427 Y-568.476
X-1352.438 Y-568.367
X-1352.512 Y-567.714
X-1352.53 Y-567.566
X-1352.547 Y-567.496
X-1352.622 Y-567.279
X-1352.776 Y-566.844
X-1352.855 Y-566.626
X-1352.965 Y-566.437
X-1353.257 Y-565.973
X-1353.402 Y-565.755
X-1353.618 Y-565.535
X-1353.836 Y-565.318
X-1354.054 Y-565.102
X-1354.271 Y-564.955
X-1354.73 Y-564.667
X-1354.924 Y-564.552
X-1355.142 Y-564.474
X-1355.577 Y-564.322
X-1355.795 Y-564.246
X-1355.851 Y-564.232
X-1356.012 Y-564.211
X-1356.665 Y-564.138
X-1356.774 Y-564.127
X-1356.883 Y-564.131
X-1357.536 Y-564.205
X-1357.758 Y-564.232
X-1357.971 Y-564.3
X-1358.624 Y-564.528
X-1358.733 Y-564.576
X-1358.88 Y-564.667
X-1359.494 Y-565.053
X-1359.557 Y-565.103
X-1359.776 Y-565.32
X-1360.147 Y-565.691
X-1360.209 Y-565.755
X-1360.353 Y-565.973
X-1360.627 Y-566.408
X-1360.755 Y-566.626
X-1360.8 Y-566.748
X-1361.018 Y-567.364
X-1361.063 Y-567.496
X-1361.095 Y-567.714
X-1361.165 Y-568.367
X-1361.176 Y-568.476
X-1361.171 Y-568.585
X-1361.1 Y-569.237
X-1361.074 Y-569.455
X-1361.018 Y-569.636
X-1360.774 Y-570.325
X-1360.752 Y-570.38
X-1360.725 Y-570.434
X-1360.365 Y-571.009
X-1360.246 Y-571.196
X-1360.147 Y-571.309
X-1359.607 Y-571.849
X-1359.551 Y-571.902
X-1359.494 Y-571.946
X-1358.841 Y-572.357
X-1358.733 Y-572.424
X-1358.624 Y-572.472
X-1357.916 Y-572.719
X-1357.753 Y-572.769
X-1357.536 Y-572.795
X-1356.883 Y-572.869
X-1356.774 Y-572.873
X-1356.665 Y-572.862
X-1356.012 Y-572.789
X-1355.795 Y-572.754
X-1355.577 Y-572.678
X-1355.071 Y-572.502
X-1354.924 Y-572.448
X-1354.706 Y-572.318
X-1354.271 Y-572.045
X-1354.054 Y-571.898
X-1354.003 Y-571.849
X-1353.567 Y-571.414
X-1353.401 Y-571.244
X-1353.364 Y-571.196
X-1353.183 Y-570.91
X-1352.953 Y-570.543
X-1352.886 Y-570.434
X-1352.857 Y-570.38
X-1352.836 Y-570.325
X-1352.605 Y-569.673
X-1352.534 Y-569.455
X-1352.53 Y-569.434
X-1352.506 Y-569.237
X-1352.463 Y-568.852
X-1352.461 Y-568.805 Z0.505
X-1352.469 Y-568.754 Z0.522
X-1352.476 Y-568.709 Z0.549
X-1352.482 Y-568.671 Z0.587
X-1352.486 Y-568.643 Z0.632
X-1352.489 Y-568.625 Z0.682
X-1352.49 Y-568.619 Z0.736
G0 Z20
X-1356.098 Y-159.261
Z8.11
G1 Z7.51 F850
G3 X-1354.513 Y-154.806 Z7.315 I-0.707 J2.761 F283.3
X-1359.236 Y-155.014 Z7.121 I-2.292 J-1.694
X-1357.267 Y-159.312 Z6.926 I2.432 J-1.486
X-1354.025 Y-155.87 Z6.731 I0.462 J2.812
X-1358.434 Y-154.162 Z6.536 I-2.78 J-0.63
X-1355.175 Y-158.838 Z6.224 I1.629 J-2.338
X-1354.006 Y-157.04 Z6.147 I-1.629 J2.338
X-1357.357 Y-153.704 Z5.952 I-2.798 J0.54
X-1359.188 Y-158.064 Z5.758 I0.552 J-2.796
X-1354.422 Y-154.936 Z5.445 I2.383 J1.564
X-1356.187 Y-153.718 Z5.368 I-2.383 J-1.564
X-1359.615 Y-156.974 Z5.173 I-0.618 J-2.782
X-1355.308 Y-158.925 Z4.979 I2.81 J0.474
X-1355.121 Y-154.201 Z4.784 I-1.497 J2.425
X-1359.569 Y-155.805 Z4.589 I-1.684 J-2.299
X-1356.409 Y-159.322 Z4.394 I2.764 J-0.695
X-1354.339 Y-155.071 Z4.2 I-0.396 J2.822
X-1359.056 Y-154.752 Z4.005 I-2.466 J-1.428
X-1357.577 Y-159.243 Z3.81 I2.251 J-1.747
X-1353.972 Y-156.183 Z3.616 I0.772 J2.743
X-1359.637 Y-156.817 Z3.303 I-2.832 J-0.317
X-1358.614 Y-158.702 Z3.226 I2.832 J0.317
X-1354.084 Y-157.348 Z3.031 I1.809 J2.202
X-1357.043 Y-153.66 Z2.837 I-2.721 J0.848
X-1359.347 Y-157.789 Z2.642 I0.238 J-2.84
X-1354.654 Y-158.37 Z2.447 I2.542 J1.289
X-1355.881 Y-153.804 Z2.253 I-2.151 J1.87
X-1357.728 Y-159.196 Z1.94 I-0.924 J-2.696
X-1355.881 Y-153.804 Z1.627 I0.924 J2.696
X-1357.728 Y-159.196 Z1.315 I-0.924 J-2.696
X-1356.725 Y-159.349 Z1.279 I0.924 J2.696
X-1354.195 Y-155.354 Z1.084 I-0.079 J2.849
X-1358.848 Y-154.513 Z0.889 I-2.61 J-1.145
X-1357.877 Y-159.141 Z0.695 I2.043 J-1.987
X-1353.955 Y-156.5 Z0.5 I1.072 J2.641
X-1356.155 Y-153.725 I-2.85
X-1359.432 Y-155.396 I-0.65 J-2.775
X-1358.331 Y-158.907 I2.628 J-1.104
X-1355.034 Y-158.733 I1.526 J2.407
X-1353.955 Y-156.5 I-1.771 J2.233
G1 X-1353.951 Y-156.261 F850
X-1353.8 Y-155.315
X-1353.778 Y-155.167
X-1353.77 Y-155.017
X-1353.777 Y-154.867
X-1353.796 Y-154.718
X-1353.827 Y-154.571
X-1353.869 Y-154.425
X-1353.923 Y-154.275
X-1353.992 Y-154.121
X-1354.074 Y-153.965
X-1354.172 Y-153.808
X-1354.284 Y-153.653
X-1354.411 Y-153.5
X-1354.554 Y-153.351
X-1354.711 Y-153.208
X-1354.883 Y-153.072
X-1355.069 Y-152.945
X-1355.269 Y-152.829
X-1355.48 Y-152.724
X-1355.703 Y-152.632
X-1355.937 Y-152.554
X-1356.179 Y-152.491
X-1356.429 Y-152.445
X-1356.685 Y-152.416
X-1356.946 Y-152.404
X-1357.21 Y-152.411
X-1357.476 Y-152.436
X-1357.742 Y-152.479
X-1358.007 Y-152.542
X-1358.268 Y-152.623
X-1358.525 Y-152.723
X-1358.776 Y-152.842
X-1359.02 Y-152.978
X-1359.254 Y-153.131
X-1359.479 Y-153.301
X-1359.692 Y-153.487
X-1359.892 Y-153.687
X-1360.078 Y-153.902
X-1360.25 Y-154.13
X-1360.405 Y-154.369
X-1360.544 Y-154.62
X-1360.666 Y-154.88
X-1360.77 Y-155.148
X-1360.854 Y-155.423
X-1360.92 Y-155.703
X-1360.966 Y-155.988
X-1360.992 Y-156.275
X-1360.999 Y-156.564
X-1360.985 Y-156.853
X-1360.951 Y-157.141
X-1360.898 Y-157.425
X-1360.825 Y-157.706
X-1360.732 Y-157.981
X-1360.621 Y-158.249
X-1360.491 Y-158.508
X-1360.344 Y-158.758
X-1360.18 Y-158.998
X-1359.999 Y-159.225
X-1359.803 Y-159.44
X-1359.593 Y-159.64
X-1359.37 Y-159.826
X-1359.133 Y-159.995
X-1358.886 Y-160.148
X-1358.629 Y-160.283
X-1358.363 Y-160.4
X-1358.089 Y-160.499
X-1357.809 Y-160.578
X-1357.525 Y-160.638
X-1357.237 Y-160.678
X-1356.947 Y-160.698
X-1356.656
X-1356.365 Y-160.678
X-1356.077 Y-160.637
X-1355.793 Y-160.577
X-1355.513 Y-160.497
X-1355.239 Y-160.398
X-1354.973 Y-160.281
X-1354.716 Y-160.145
X-1354.469 Y-159.991
X-1354.233 Y-159.821
X-1354.009 Y-159.635
X-1353.799 Y-159.434
X-1353.603 Y-159.219
X-1353.422 Y-158.991
X-1353.258 Y-158.751
X-1353.086 Y-158.459
X-1352.833 Y-157.949
X-1352.617 Y-157.428
X-1352.538 Y-157.193
X-1352.505 Y-157.081
X-1352.48 Y-156.967
X-1352.463 Y-156.852
X-1352.438 Y-156.633
X-1352.427 Y-156.524
X-1352.432 Y-156.415
X-1352.506 Y-155.763
X-1352.53 Y-155.566
X-1352.534 Y-155.545
X-1352.605 Y-155.327
X-1352.836 Y-154.675
X-1352.857 Y-154.62
X-1352.886 Y-154.566
X-1352.965 Y-154.437
X-1353.226 Y-154.022
X-1353.364 Y-153.804
X-1353.401 Y-153.756
X-1353.567 Y-153.586
X-1354.003 Y-153.151
X-1354.054 Y-153.102
X-1354.271 Y-152.955
X-1354.706 Y-152.682
X-1354.924 Y-152.552
X-1355.071 Y-152.498
X-1355.694 Y-152.281
X-1355.795 Y-152.246
X-1356.012 Y-152.211
X-1356.665 Y-152.138
X-1356.774 Y-152.127
X-1356.883 Y-152.131
X-1357.536 Y-152.205
X-1357.753 Y-152.231
X-1357.916 Y-152.281
X-1358.624 Y-152.528
X-1358.733 Y-152.576
X-1358.841 Y-152.643
X-1359.494 Y-153.054
X-1359.551 Y-153.098
X-1359.607 Y-153.151
X-1360.147 Y-153.691
X-1360.246 Y-153.804
X-1360.384 Y-154.022
X-1360.725 Y-154.566
X-1360.752 Y-154.62
X-1360.774 Y-154.675
X-1361.018 Y-155.364
X-1361.074 Y-155.545
X-1361.1 Y-155.763
X-1361.171 Y-156.415
X-1361.176 Y-156.524
X-1361.165 Y-156.633
X-1361.095 Y-157.286
X-1361.063 Y-157.504
X-1361.018 Y-157.636
X-1360.8 Y-158.252
X-1360.755 Y-158.374
X-1360.627 Y-158.592
X-1360.353 Y-159.027
X-1360.209 Y-159.245
X-1360.147 Y-159.309
X-1359.712 Y-159.744
X-1359.557 Y-159.897
X-1359.494 Y-159.947
X-1358.841 Y-160.357
X-1358.733 Y-160.424
X-1358.624 Y-160.472
X-1357.971 Y-160.7
X-1357.753 Y-160.769
X-1357.536 Y-160.795
X-1356.883 Y-160.869
X-1356.774 Y-160.873
X-1356.665 Y-160.862
X-1356.012 Y-160.789
X-1355.851 Y-160.768
X-1355.795 Y-160.754
X-1355.359 Y-160.602
X-1355.142 Y-160.526
X-1354.924 Y-160.448
X-1354.73 Y-160.333
X-1354.271 Y-160.045
X-1354.053 Y-159.897
X-1353.833 Y-159.68
X-1353.616 Y-159.462
X-1353.401 Y-159.244
X-1353.257 Y-159.027
X-1352.965 Y-158.563
X-1352.855 Y-158.374
X-1352.748 Y-158.076
X-1352.622 Y-157.721
X-1352.547 Y-157.504
X-1352.53 Y-157.434
X-1352.512 Y-157.286
X-1352.463 Y-156.852
X-1352.461 Y-156.805 Z0.505
X-1352.469 Y-156.755 Z0.522
X-1352.476 Y-156.709 Z0.549
X-1352.482 Y-156.672 Z0.587
X-1352.486 Y-156.643 Z0.632
X-1352.489 Y-156.625 Z0.682
X-1352.49 Y-156.619 Z0.736
G0 Z20
X-1273.199 Y-56.361
Z8.11
G1 Z7.51 F850
G3 X-1271.614 Y-51.906 Z7.315 I-0.707 J2.761 F283.3
X-1276.337 Y-52.114 Z7.121 I-2.292 J-1.694
X-1274.368 Y-56.412 Z6.926 I2.432 J-1.486
X-1273.443 Y-50.788 Z6.613 I0.462 J2.812
X-1275.535 Y-51.262 Z6.536 I-0.462 J-2.812
X-1275.459 Y-55.989 Z6.342 I1.629 J-2.338
X-1271.107 Y-54.14 Z6.147 I1.553 J2.389
X-1274.458 Y-50.804 Z5.952 I-2.798 J0.54
X-1276.288 Y-55.163 Z5.758 I0.552 J-2.796
X-1271.523 Y-52.036 Z5.445 I2.383 J1.564
X-1273.288 Y-50.818 Z5.368 I-2.383 J-1.564
X-1276.716 Y-54.074 Z5.173 I-0.618 J-2.782
X-1272.409 Y-56.025 Z4.979 I2.81 J0.474
X-1272.222 Y-51.301 Z4.784 I-1.497 J2.425
X-1276.67 Y-52.905 Z4.589 I-1.684 J-2.299
X-1273.51 Y-56.422 Z4.394 I2.764 J-0.695
X-1271.439 Y-52.171 Z4.2 I-0.396 J2.822
X-1276.157 Y-51.852 Z4.005 I-2.466 J-1.428
X-1274.678 Y-56.343 Z3.81 I2.251 J-1.747
X-1271.073 Y-53.283 Z3.616 I0.772 J2.743
X-1275.265 Y-51.095 Z3.421 I-2.832 J-0.317
X-1275.715 Y-55.802 Z3.226 I1.359 J-2.505
X-1271.185 Y-54.448 Z3.031 I1.81 J2.202
X-1274.144 Y-50.76 Z2.837 I-2.721 J0.848
X-1276.448 Y-54.889 Z2.642 I0.238 J-2.84
X-1271.755 Y-55.47 Z2.447 I2.542 J1.289
X-1272.982 Y-50.904 Z2.253 I-2.151 J1.87
X-1274.829 Y-56.296 Z1.94 I-0.924 J-2.696
X-1272.982 Y-50.904 Z1.627 I0.924 J2.696
X-1274.829 Y-56.296 Z1.315 I-0.924 J-2.696
X-1273.826 Y-56.449 Z1.279 I0.924 J2.696
X-1271.296 Y-52.454 Z1.084 I-0.079 J2.849
X-1275.949 Y-51.613 Z0.889 I-2.61 J-1.145
X-1274.978 Y-56.24 Z0.695 I2.043 J-1.987
X-1271.056 Y-53.6 Z0.5 I1.072 J2.641
X-1273.256 Y-50.825 I-2.85
X-1276.533 Y-52.496 I-0.65 J-2.775
X-1275.432 Y-56.007 I2.628 J-1.104
X-1272.135 Y-55.833 I1.526 J2.407
X-1271.056 Y-53.6 I-1.771 J2.233
G1 X-1271.052 Y-53.36 F850
X-1270.901 Y-52.415
X-1270.883 Y-52.296
X-1270.873 Y-52.147
X-1270.877 Y-51.997
X-1270.893 Y-51.848
X-1270.922 Y-51.7
X-1270.961 Y-51.556
X-1271.013 Y-51.406
X-1271.078 Y-51.253
X-1271.158 Y-51.097
X-1271.252 Y-50.941
X-1271.361 Y-50.785
X-1271.485 Y-50.632
X-1271.624 Y-50.482
X-1271.779 Y-50.338
X-1271.948 Y-50.2
X-1272.131 Y-50.071
X-1272.327 Y-49.952
X-1272.536 Y-49.845
X-1272.757 Y-49.75
X-1272.988 Y-49.669
X-1273.229 Y-49.603
X-1273.477 Y-49.554
X-1273.732 Y-49.521
X-1273.992 Y-49.505
X-1274.256 Y-49.508
X-1274.521 Y-49.529
X-1274.788 Y-49.569
X-1275.052 Y-49.627
X-1275.315 Y-49.705
X-1275.573 Y-49.801
X-1275.825 Y-49.915
X-1276.07 Y-50.048
X-1276.307 Y-50.197
X-1276.534 Y-50.364
X-1276.749 Y-50.546
X-1276.952 Y-50.744
X-1277.141 Y-50.956
X-1277.316 Y-51.181
X-1277.475 Y-51.418
X-1277.618 Y-51.666
X-1277.743 Y-51.924
X-1277.85 Y-52.191
X-1277.939 Y-52.464
X-1278.009 Y-52.744
X-1278.059 Y-53.028
X-1278.089 Y-53.315
X-1278.1 Y-53.604
X-1278.091 Y-53.893
X-1278.061 Y-54.181
X-1278.012 Y-54.466
X-1277.943 Y-54.747
X-1277.854 Y-55.023
X-1277.747 Y-55.293
X-1277.621 Y-55.554
X-1277.478 Y-55.806
X-1277.317 Y-56.048
X-1277.14 Y-56.278
X-1276.947 Y-56.496
X-1276.74 Y-56.699
X-1276.519 Y-56.888
X-1276.285 Y-57.061
X-1276.04 Y-57.217
X-1275.785 Y-57.356
X-1275.52 Y-57.477
X-1275.248 Y-57.58
X-1274.97 Y-57.663
X-1274.686 Y-57.727
X-1274.398 Y-57.771
X-1274.109 Y-57.796
X-1273.818 Y-57.8
X-1273.527 Y-57.783
X-1273.239 Y-57.747
X-1272.953 Y-57.691
X-1272.672 Y-57.616
X-1272.397 Y-57.521
X-1272.13 Y-57.407
X-1271.87 Y-57.275
X-1271.621 Y-57.125
X-1271.382 Y-56.958
X-1271.156 Y-56.776
X-1270.943 Y-56.578
X-1270.744 Y-56.366
X-1270.56 Y-56.14
X-1270.392 Y-55.902
X-1270.236 Y-55.646
X-1269.989 Y-55.166
X-1269.757 Y-54.627
X-1269.646 Y-54.311
X-1269.609 Y-54.192
X-1269.581 Y-54.07
X-1269.562 Y-53.947
X-1269.534 Y-53.7
X-1269.527 Y-53.591
X-1269.536 Y-53.482
X-1269.612 Y-52.81
X-1269.642 Y-52.612
X-1269.717 Y-52.394
X-1269.871 Y-51.959
X-1269.949 Y-51.741
X-1270.048 Y-51.566
X-1270.347 Y-51.088
X-1270.483 Y-50.879
X-1270.489 Y-50.871
X-1270.701 Y-50.653
X-1271.137 Y-50.218
X-1271.191 Y-50.171
X-1271.245 Y-50.134
X-1271.806 Y-49.783
X-1272.006 Y-49.661
X-1272.224 Y-49.58
X-1272.891 Y-49.347
X-1272.993 Y-49.325
X-1273.747 Y-49.24
X-1273.856 Y-49.228
X-1273.965 Y-49.229
X-1274.618 Y-49.303
X-1274.836 Y-49.328
X-1274.919 Y-49.347
X-1275.706 Y-49.622
X-1275.815 Y-49.666
X-1275.924 Y-49.732
X-1276.577 Y-50.142
X-1276.674 Y-50.218
X-1277.23 Y-50.773
X-1277.321 Y-50.871
X-1277.447 Y-51.064
X-1277.736 Y-51.523
X-1277.861 Y-51.741
X-1277.882 Y-51.798
X-1278.1 Y-52.414
X-1278.166 Y-52.612
X-1278.196 Y-52.829
X-1278.267 Y-53.482
X-1278.276 Y-53.591
X-1278.269 Y-53.7
X-1278.198 Y-54.353
X-1278.171 Y-54.57
X-1278.099 Y-54.788
X-1277.869 Y-55.441
X-1277.845 Y-55.495
X-1277.816 Y-55.549
X-1277.447 Y-56.136
X-1277.335 Y-56.311
X-1277.23 Y-56.427
X-1276.693 Y-56.964
X-1276.635 Y-57.017
X-1276.577 Y-57.058
X-1275.924 Y-57.468
X-1275.815 Y-57.533
X-1275.706 Y-57.578
X-1274.973 Y-57.834
X-1274.904 Y-57.857
X-1274.836 Y-57.872
X-1274.183 Y-57.946
X-1273.965 Y-57.971
X-1273.856 Y-57.972
X-1273.747 Y-57.96
X-1272.986 Y-57.874
X-1272.877 Y-57.848
X-1272.215 Y-57.617
X-1272.006 Y-57.539
X-1271.776 Y-57.399
X-1271.245 Y-57.066
X-1271.19 Y-57.028
X-1271.136 Y-56.981
X-1271.117 Y-56.964
X-1270.682 Y-56.529
X-1270.483 Y-56.321
X-1270.475 Y-56.311
X-1270.336 Y-56.093
X-1269.987 Y-55.537
X-1269.962 Y-55.489
X-1269.941 Y-55.441
X-1269.711 Y-54.788
X-1269.637 Y-54.57
X-1269.612 Y-54.39
X-1269.562 Y-53.947
X-1269.56 Y-53.9 Z0.505
X-1269.568 Y-53.85 Z0.522
X-1269.575 Y-53.805 Z0.549
X-1269.581 Y-53.767 Z0.587
X-1269.586 Y-53.738 Z0.632
X-1269.589 Y-53.721 Z0.682
X-1269.59 Y-53.715 Z0.736
G0 Z20
X-203.198 Y-56.362
Z8.11
G1 Z7.51 F850
G3 X-204.612 Y-50.84 Z7.197 I-0.707 J2.761 F283.3
X-203.198 Y-56.362 Z6.885 I0.707 J-2.761
X-204.612 Y-50.84 Z6.572 I-0.707 J2.761
X-203.198 Y-56.362 Z6.259 I0.707 J-2.761
X-204.612 Y-50.84 Z5.947 I-0.707 J2.761
X-203.198 Y-56.362 Z5.634 I0.707 J-2.761
X-204.612 Y-50.84 Z5.321 I-0.707 J2.761
X-203.198 Y-56.362 Z5.009 I0.707 J-2.761
X-204.612 Y-50.84 Z4.696 I-0.707 J2.761
X-203.198 Y-56.362 Z4.383 I0.707 J-2.761
X-204.612 Y-50.84 Z4.071 I-0.707 J2.761
X-203.198 Y-56.362 Z3.758 I0.707 J-2.761
X-204.612 Y-50.84 Z3.445 I-0.707 J2.761
X-203.198 Y-56.362 Z3.133 I0.707 J-2.761
X-204.612 Y-50.84 Z2.82 I-0.707 J2.761
X-203.198 Y-56.362 Z2.507 I0.707 J-2.761
X-204.612 Y-50.84 Z2.195 I-0.707 J2.761
X-203.198 Y-56.362 Z1.882 I0.707 J-2.761
X-204.612 Y-50.84 Z1.569 I-0.707 J2.761
X-203.198 Y-56.362 Z1.257 I0.707 J-2.761
X-204.612 Y-50.84 Z0.944 I-0.707 J2.761
X-203.198 Y-56.362 Z0.631 I0.707 J-2.761
X-201.055 Y-53.601 Z0.5 I-0.707 J2.761
X-206.755 I-2.85
X-202.134 Y-55.834 I2.85
X-201.055 Y-53.601 I-1.771 J2.233
G1 X-201.051 Y-53.361 F850
X-200.9 Y-52.416
X-200.882 Y-52.297
X-200.872 Y-52.148
X-200.876 Y-51.998
X-200.892 Y-51.849
X-200.921 Y-51.701
X-200.96 Y-51.556
X-201.012 Y-51.407
X-201.077 Y-51.253
X-201.157 Y-51.098
X-201.251 Y-50.942
X-201.36 Y-50.786
X-201.484 Y-50.632
X-201.623 Y-50.483
X-201.778 Y-50.338
X-201.947 Y-50.201
X-202.13 Y-50.072
X-202.326 Y-49.953
X-202.535 Y-49.846
X-202.756 Y-49.751
X-202.987 Y-49.67
X-203.228 Y-49.604
X-203.476 Y-49.554
X-203.731 Y-49.521
X-203.991 Y-49.506
X-204.255 Y-49.509
X-204.521 Y-49.53
X-204.787 Y-49.57
X-205.052 Y-49.628
X-205.314 Y-49.706
X-205.572 Y-49.802
X-205.824 Y-49.916
X-206.069 Y-50.049
X-206.306 Y-50.198
X-206.533 Y-50.365
X-206.748 Y-50.547
X-206.951 Y-50.745
X-207.14 Y-50.957
X-207.315 Y-51.182
X-207.474 Y-51.419
X-207.617 Y-51.667
X-207.742 Y-51.925
X-207.849 Y-52.192
X-207.938 Y-52.465
X-208.008 Y-52.745
X-208.058 Y-53.029
X-208.089 Y-53.316
X-208.099 Y-53.604
X-208.09 Y-53.894
X-208.06 Y-54.181
X-208.011 Y-54.467
X-207.942 Y-54.748
X-207.853 Y-55.024
X-207.746 Y-55.294
X-207.62 Y-55.555
X-207.477 Y-55.807
X-207.316 Y-56.049
X-207.139 Y-56.279
X-206.946 Y-56.496
X-206.739 Y-56.7
X-206.518 Y-56.889
X-206.284 Y-57.062
X-206.039 Y-57.218
X-205.784 Y-57.357
X-205.519 Y-57.478
X-205.247 Y-57.581
X-204.969 Y-57.664
X-204.685 Y-57.728
X-204.398 Y-57.772
X-204.108 Y-57.796
X-203.817 Y-57.8
X-203.526 Y-57.784
X-203.238 Y-57.748
X-202.952 Y-57.692
X-202.671 Y-57.616
X-202.396 Y-57.521
X-202.129 Y-57.408
X-201.869 Y-57.276
X-201.62 Y-57.126
X-201.381 Y-56.959
X-201.155 Y-56.777
X-200.942 Y-56.579
X-200.743 Y-56.366
X-200.559 Y-56.141
X-200.391 Y-55.903
X-200.235 Y-55.647
X-199.988 Y-55.167
X-199.756 Y-54.628
X-199.652 Y-54.333
X-199.615 Y-54.214
X-199.587 Y-54.092
X-199.569 Y-53.968
X-199.538 Y-53.7
X-199.531 Y-53.591
X-199.54 Y-53.482
X-199.614 Y-52.829
X-199.645 Y-52.612
X-199.735 Y-52.346
X-199.87 Y-51.959
X-199.947 Y-51.741
X-199.952 Y-51.729
X-200.072 Y-51.523
X-200.388 Y-51.02
X-200.487 Y-50.871
X-200.605 Y-50.747
X-201.135 Y-50.218
X-201.196 Y-50.166
X-201.258 Y-50.125
X-201.911 Y-49.715
X-202.02 Y-49.654
X-202.129 Y-49.613
X-202.888 Y-49.347
X-202.944 Y-49.333
X-202.999 Y-49.324
X-203.652 Y-49.251
X-203.87 Y-49.227
X-204.087 Y-49.243
X-204.74 Y-49.316
X-204.92 Y-49.347
X-204.958 Y-49.359
X-205.611 Y-49.588
X-205.828 Y-49.673
X-206.046 Y-49.808
X-206.578 Y-50.142
X-206.674 Y-50.218
X-207.134 Y-50.677
X-207.322 Y-50.871
X-207.352 Y-50.91
X-207.787 Y-51.602
X-207.862 Y-51.741
X-208.016 Y-52.176
X-208.092 Y-52.394
X-208.165 Y-52.612
X-208.196 Y-52.829
X-208.27 Y-53.482
X-208.279 Y-53.591
X-208.272 Y-53.7
X-208.198 Y-54.353
X-208.17 Y-54.57
X-208.098 Y-54.788
X-207.869 Y-55.441
X-207.834 Y-55.519
X-207.787 Y-55.598
X-207.352 Y-56.29
X-207.336 Y-56.311
X-207.128 Y-56.529
X-206.693 Y-56.964
X-206.64 Y-57.012
X-206.587 Y-57.052
X-206.035 Y-57.399
X-205.828 Y-57.527
X-205.597 Y-57.617
X-204.958 Y-57.841
X-204.849 Y-57.87
X-204.74 Y-57.884
X-204.087 Y-57.957
X-203.87 Y-57.973
X-203.434 Y-57.925
X-202.999 Y-57.876
X-202.917 Y-57.861
X-202.834 Y-57.834
X-202.129 Y-57.587
X-202.02 Y-57.546
X-201.911 Y-57.485
X-201.258 Y-57.075
X-201.187 Y-57.026
X-201.116 Y-56.964
X-200.605 Y-56.453
X-200.473 Y-56.311
X-200.388 Y-56.18
X-200.06 Y-55.658
X-199.952 Y-55.471
X-199.94 Y-55.441
X-199.711 Y-54.788
X-199.64 Y-54.57
X-199.612 Y-54.353
X-199.569 Y-53.968
G3 X-199.596 Y-53.735 I-0.598 J0.046
G1 X-199.626 Y-53.646 Z0.507
X-199.654 Y-53.559 Z0.529
X-199.681 Y-53.477 Z0.565
X-199.706 Y-53.4 Z0.615
X-199.728 Y-53.332 Z0.676
X-199.747 Y-53.274 Z0.747
X-199.762 Y-53.227 Z0.828
X-199.773 Y-53.193 Z0.915
X-199.78 Y-53.172 Z1.006
X-199.783 Y-53.165 Z1.1
G0 Z30

(2D Contour1)
S8000 M3
M9
X-1270.8 Y-54.2
Z30
Z20
G1 Z16 F283.3
Z1.1
G18 G2 X-1270.2 Z0.5 I0.6
G1 X-1269.6 F850
G17 G3 X-1269 Y-53.6 J0.6
X-1273.9 Y-48.7 I-4.9
X-1278.8 Y-53.6 J-4.9
X-1269 I4.9
X-1269.6 Y-53 I-0.6
G1 X-1270.2
G18 G3 X-1270.8 Z1.1 K0.6
G0 Z20
X-1353.686 Y-157.024
G1 Z16 F283.3
Z1.1
X-1353.679 Z1.006
X-1353.657 Y-157.023 Z0.915
X-1353.621 Y-157.022 Z0.828
X-1353.572 Y-157.021 Z0.747
X-1353.511 Y-157.019 Z0.676
X-1353.439 Y-157.018 Z0.615
X-1353.359 Y-157.016 Z0.565
X-1353.272 Y-157.014 Z0.529
X-1353.18 Y-157.011 Z0.507
X-1353.086 Y-157.009 Z0.5
X-1352.487 Y-156.994 F850
G17 G3 X-1351.901 Y-156.38 I-0.015 J0.6
X-1361.7 Y-156.5 I-4.899 J-0.12
X-1351.9 I4.9
X-1351.901 Y-156.38 I-4.9
X-1352.516 Y-155.795 I-0.6 J-0.015
G1 X-1353.116 Y-155.809
X-1353.21 Y-155.812 Z0.507
X-1353.301 Y-155.814 Z0.529
X-1353.388 Y-155.816 Z0.565
X-1353.468 Y-155.818 Z0.615
X-1353.54 Y-155.82 Z0.676
X-1353.601 Y-155.821 Z0.747
X-1353.65 Y-155.822 Z0.828
X-1353.686 Y-155.823 Z0.915
X-1353.708 Y-155.824 Z1.006
X-1353.716 Z1.1
G0 Z20
X-1353.7 Y-569.1
G1 Z16 F283.3
Z1.1
G18 G2 X-1353.1 Z0.5 I0.6
G1 X-1352.5 F850
G17 G3 X-1351.9 Y-568.5 J0.6
X-1356.8 Y-563.6 I-4.9
X-1361.7 Y-568.5 J-4.9
X-1351.9 I4.9
X-1352.5 Y-567.9 I-0.6
G1 X-1353.1
G18 G3 X-1353.7 Z1.1 K0.6
G0 Z20
X-200.791 Y-54.124
G1 Z16 F283.3
Z1.1
X-200.784 Z1.006
X-200.762 Y-54.123 Z0.915
X-200.726 Y-54.122 Z0.828
X-200.677 Y-54.121 Z0.747
X-200.616 Y-54.119 Z0.676
X-200.544 Y-54.118 Z0.615
X-200.464 Y-54.116 Z0.565
X-200.377 Y-54.114 Z0.529
X-200.285 Y-54.111 Z0.507
X-200.191 Y-54.109 Z0.5
X-199.592 Y-54.094 F850
G17 G3 X-199.006 Y-53.48 I-0.015 J0.6
X-208.804 Y-53.72 I-4.899 J-0.12
X-199.005 Y-53.6 I4.899 J0.12
X-199.006 Y-53.48 I-4.9
X-199.621 Y-52.895 I-0.6 J-0.015
G1 X-200.221 Y-52.909
X-200.315 Y-52.912 Z0.507
X-200.406 Y-52.914 Z0.529
X-200.493 Y-52.916 Z0.565
X-200.573 Y-52.918 Z0.615
X-200.645 Y-52.92 Z0.676
X-200.706 Y-52.921 Z0.747
X-200.755 Y-52.922 Z0.828
X-200.791 Y-52.923 Z0.915
X-200.813 Y-52.924 Z1.006
X-200.821 Z1.1
G0 Z30
M9
M30
%
