%
(1001)
(drill base board holes)
(T2  D=6 CR=0 TAPER=118deg - ZMIN=-19.803 - drill)
G90 G94
G17
G21

(Drill4)
M9
T2 M6
S5000 M3
G54
M9
G0 X-20 Y-90.426
Z15
Z5
Z2
G1 Z-6 F175
G0 Z0
G1 Z-12 F175
G0 Z-6
G1 Z-18 F175
G0 Z-12
G1 Z-19.803 F175
G4 P0.25
G0 Z5
Y-303.759
Z2
G1 Z-6 F175
G0 Z0
G1 Z-12 F175
G0 Z-6
G1 Z-18 F175
G0 Z-12
G1 Z-19.803 F175
G4 P0.25
G0 Z5
X-376.25
Z2
G1 Z-6 F175
G0 Z0
G1 Z-12 F175
G0 Z-6
G1 Z-18 F175
G0 Z-12
G1 Z-19.803 F175
G4 P0.25
G0 Z5
Y-90.426
Z2
G1 Z-6 F175
G0 Z0
G1 Z-12 F175
G0 Z-6
G1 Z-18 F175
G0 Z-12
G1 Z-19.803 F175
G4 P0.25
G0 Z5
X-732.5 Y-303.759
Z2
G1 Z-6 F175
G0 Z0
G1 Z-12 F175
G0 Z-6
G1 Z-18 F175
G0 Z-12
G1 Z-19.803 F175
G4 P0.25
G0 Z5
Y-90.426
Z2
G1 Z-6 F175
G0 Z0
G1 Z-12 F175
G0 Z-6
G1 Z-18 F175
G0 Z-12
G1 Z-19.803 F175
G4 P0.25
G0 Z5
X-1088.75
Z2
G1 Z-6 F175
G0 Z0
G1 Z-12 F175
G0 Z-6
G1 Z-18 F175
G0 Z-12
G1 Z-19.803 F175
G4 P0.25
G0 Z5
Y-303.759
Z2
G1 Z-6 F175
G0 Z0
G1 Z-12 F175
G0 Z-6
G1 Z-18 F175
G0 Z-12
G1 Z-19.803 F175
G4 P0.25
G0 Z5
X-1445
Z2
G1 Z-6 F175
G0 Z0
G1 Z-12 F175
G0 Z-6
G1 Z-18 F175
G0 Z-12
G1 Z-19.803 F175
G4 P0.25
G0 Z5
Y-90.426
Z2
G1 Z-6 F175
G0 Z0
G1 Z-12 F175
G0 Z-6
G1 Z-18 F175
G0 Z-12
G1 Z-19.803 F175
G4 P0.25
G0 Z5
Z15
M9
M30
%
