%
(1001)
(z0 centre circle stock bottom)
(T1  D=6 CR=0 - ZMIN=0 - flat end mill)
G90 G94
G17
G21

(2D Adaptive1)
M9
T1 M6
S6000 M3
G54
M9
G0 X0 Y0
Z27
Z17
Z12.65
G1 Z12.05 F850
Z0
X-0.037 Y-0.004
X-0.054 Y-0.038
X-0.037 Y-0.071
X-0.004 Y-0.089
X0.033 Y-0.091
X0.068 Y-0.076
X0.094 Y-0.05
X0.109 Y-0.015
X0.112 Y0.022
X0.101 Y0.058
X0.079 Y0.089
X0.049 Y0.111
X-0.023 Y0.133
X-0.096 Y0.119
X-0.157 Y0.075
X-0.194 Y0.01
X-0.202 Y-0.065
X-0.183 Y-0.137
X-0.141 Y-0.2
X-0.082 Y-0.246
X-0.012 Y-0.271
X0.063 Y-0.276
X0.137 Y-0.261
X0.27 Y-0.192
X0.353 Y-0.067
X0.372 Y0.082
X0.332 Y0.226
X0.24 Y0.345
X0.114 Y0.426
X-0.032 Y0.462
X-0.181 Y0.451
X-0.32 Y0.395
X-0.438 Y0.301
X-0.525 Y0.179
X-0.576 Y0.038
X-0.589 Y-0.111
X-0.564 Y-0.259
X-0.504 Y-0.397
X-0.414 Y-0.516
X-0.299 Y-0.612
X-0.166 Y-0.681
X-0.021 Y-0.722
X0.128 Y-0.732
X0.277 Y-0.712
X0.419 Y-0.663
X0.549 Y-0.588
X0.662 Y-0.49
X0.755 Y-0.372
X0.826 Y-0.24
X0.871 Y-0.097
X0.892 Y0.052
X0.887 Y0.202
X0.858 Y0.349
X0.805 Y0.489
X0.732 Y0.62
X0.638 Y0.737
X0.528 Y0.84
X0.404 Y0.924
X0.269 Y0.989
X0.126 Y1.033
X-0.022 Y1.057
X-0.172 Y1.06
X-0.321 Y1.043
X-0.466 Y1.004
X-0.605 Y0.948
X-0.735 Y0.873
X-0.854 Y0.781
X-0.96 Y0.675
X-1.052 Y0.557
X-1.128 Y0.428
X-1.188 Y0.29
X-1.23 Y0.146
X-1.255 Y-0.002
X-1.262 Y-0.152
X-1.251 Y-0.301
X-1.222 Y-0.449
X-1.177 Y-0.592
X-1.116 Y-0.729
X-1.04 Y-0.858
X-0.95 Y-0.978
X-0.848 Y-1.088
X-0.734 Y-1.185
X-0.611 Y-1.271
X-0.479 Y-1.342
X-0.341 Y-1.4
X-0.197 Y-1.443
X-0.05 Y-1.471
X0.1 Y-1.483
X0.25 Y-1.481
X0.399 Y-1.463
X0.545 Y-1.431
X0.688 Y-1.385
X0.825 Y-1.324
X0.956 Y-1.251
X1.08 Y-1.166
X1.194 Y-1.069
X1.299 Y-0.962
X1.394 Y-0.846
X1.477 Y-0.721
X1.549 Y-0.589
X1.608 Y-0.451
X1.655 Y-0.309
X1.689 Y-0.163
X1.71 Y-0.014
X1.718 Y0.136
X1.712 Y0.285
X1.694 Y0.434
X1.663 Y0.581
X1.619 Y0.725
X1.564 Y0.864
X1.497 Y0.998
X1.419 Y1.127
X1.331 Y1.248
X1.233 Y1.362
X1.126 Y1.467
X1.011 Y1.563
X0.889 Y1.65
X0.76 Y1.727
X0.626 Y1.794
X0.487 Y1.849
X0.343 Y1.894
X0.197 Y1.927
X0.049 Y1.949
X-0.101 Y1.959
X-0.251 Y1.958
X-0.4 Y1.946
X-0.549 Y1.923
X-0.695 Y1.888
X-0.838 Y1.843
X-0.977 Y1.787
X-1.112 Y1.721
X-1.241 Y1.646
X-1.365 Y1.561
X-1.482 Y1.468
X-1.593 Y1.366
X-1.695 Y1.257
X-1.79 Y1.14
X-1.877 Y1.018
X-1.955 Y0.888
X-2.023 Y0.755
X-2.083 Y0.614
X-2.132 Y0.472
X-2.171 Y0.327
X-2.201 Y0.174
X-2.22 Y0.025
X-2.229 Y-0.132
X-2.227 Y-0.288
X-2.214 Y-0.441
X-2.19 Y-0.599
X-2.155 Y-0.752
X-2.11 Y-0.904
X-2.053 Y-1.055
X-1.987 Y-1.199
X-1.909 Y-1.343
X-1.821 Y-1.48
X-1.726 Y-1.609
X-1.618 Y-1.736
X-1.502 Y-1.854
X-1.379 Y-1.963
X-1.246 Y-2.066
X-1.106 Y-2.159
X-0.962 Y-2.241
X-0.808 Y-2.315
X-0.649 Y-2.379
X-0.488 Y-2.43
X-0.321 Y-2.471
X-0.149 Y-2.501
X0.023 Y-2.519
X0.196 Y-2.524
X0.373 Y-2.518
X0.548 Y-2.499
X0.721 Y-2.469
X0.894 Y-2.426
X1.066 Y-2.37
X1.232 Y-2.303
X1.393 Y-2.225
X1.551 Y-2.134
X1.704 Y-2.032
X1.849 Y-1.92
X1.985 Y-1.798
X2.115 Y-1.665
X2.236 Y-1.522
X2.347 Y-1.371
X2.447 Y-1.213
X2.537 Y-1.048
X2.616 Y-0.873
X2.683 Y-0.693
X2.737 Y-0.51
X2.778 Y-0.323
X2.807 Y-0.132
X2.823 Y0.064
X2.825 Y0.26
X2.813 Y0.457
X2.788 Y0.652
X2.749 Y0.845
X2.697 Y1.038
X2.63 Y1.228
X2.551 Y1.414
X2.458 Y1.595
X2.353 Y1.768
X2.236 Y1.935
X2.107 Y2.093
X1.966 Y2.244
X1.814 Y2.386
X1.651 Y2.517
X1.48 Y2.638
X1.299 Y2.746
X1.112 Y2.842
X0.917 Y2.925
X0.717 Y2.995
X0.511 Y3.051
X0.3 Y3.092
X0.086 Y3.119
X-0.131 Y3.132
X-0.349 Y3.129
X-0.567 Y3.111
X-0.785 Y3.078
X-1.001 Y3.03
X-1.213 Y2.967
X-1.422 Y2.888
X-1.625 Y2.796
X-1.822 Y2.689
X-2.013 Y2.568
X-2.195 Y2.433
X-2.368 Y2.286
X-2.531 Y2.126
X-2.684 Y1.955
X-2.825 Y1.772
X-2.953 Y1.58
X-3.069 Y1.378
X-3.17 Y1.168
X-3.257 Y0.95
X-3.33 Y0.725
X-3.386 Y0.496
X-3.427 Y0.261
X-3.452 Y0.024
X-3.46 Y-0.216
X-3.452 Y-0.456
X-3.427 Y-0.697
X-3.385 Y-0.936
X-3.326 Y-1.173
X-3.251 Y-1.407
X-3.159 Y-1.635
X-3.051 Y-1.858
X-2.928 Y-2.073
X-2.79 Y-2.28
X-2.636 Y-2.478
X-2.469 Y-2.666
X-2.289 Y-2.842
X-2.096 Y-3.007
X-1.891 Y-3.158
X-1.675 Y-3.294
X-1.581 Y-3.346
X-1.502 Y-3.386
X-1.42 Y-3.422
X-1.337 Y-3.453
X-1.067 Y-3.548
X-0.834 Y-3.626
X-0.602 Y-3.657
X-0.136 Y-3.709
X-0.02 Y-3.72
X0.096 Y-3.714
X0.562 Y-3.661
X0.794 Y-3.634
X1.027 Y-3.562
X1.492 Y-3.399
X1.609 Y-3.355
X1.725 Y-3.287
X2.19 Y-2.995
X2.306 Y-2.92
X2.423 Y-2.812
X2.676 Y-2.559
X2.888 Y-2.345
X2.904 Y-2.326
X3.056 Y-2.093
X3.202 Y-1.861
X3.345 Y-1.628
X3.353 Y-1.611
X3.433 Y-1.396
X3.596 Y-0.93
X3.63 Y-0.814
X3.646 Y-0.698
X3.698 Y-0.233
X3.721 Y0
X3.698 Y0.233
X3.646 Y0.698
X3.63 Y0.814
X3.596 Y0.93
X3.433 Y1.396
X3.353 Y1.611
X3.345 Y1.628
X3.202 Y1.861
X3.056 Y2.093
X2.904 Y2.326
X2.888 Y2.345
X2.655 Y2.579
X2.423 Y2.812
X2.306 Y2.92
X2.19 Y2.995
X1.725 Y3.287
X1.609 Y3.355
X1.492 Y3.399
X1.027 Y3.562
X0.794 Y3.634
X0.562 Y3.661
X0.096 Y3.714
X-0.02 Y3.72
X-0.136 Y3.709
X-0.602 Y3.657
X-0.834 Y3.626
X-1.067 Y3.548
X-1.532 Y3.385
X-1.59 Y3.363
X-1.648 Y3.334
X-1.774 Y3.257
X-2.23 Y2.97
X-2.337 Y2.894
X-2.463 Y2.772
X-2.695 Y2.539
X-2.903 Y2.326
X-2.928 Y2.294
X-3.056 Y2.093
X-3.202 Y1.861
X-3.345 Y1.628
X-3.393 Y1.509
X-3.596 Y0.93
X-3.626 Y0.834
X-3.646 Y0.698
X-3.698 Y0.233
X-3.721 Y0
X-3.698 Y-0.233
X-3.646 Y-0.698
X-3.626 Y-0.834
X-3.596 Y-0.93
X-3.393 Y-1.509
X-3.345 Y-1.628
X-3.202 Y-1.861
X-3.056 Y-2.093
X-2.928 Y-2.294
X-2.903 Y-2.326
X-2.676 Y-2.559
X-2.443 Y-2.791
X-2.337 Y-2.894
X-2.23 Y-2.97
X-1.765 Y-3.262
X-1.648 Y-3.334
X-1.59 Y-3.363
X-1.532 Y-3.385
X-1.337 Y-3.453
X-1.287 Y-3.461 Z0.006
X-1.239 Y-3.468 Z0.022
X-1.196 Y-3.475 Z0.049
X-1.159 Y-3.48 Z0.085
X-1.129 Y-3.479 Z0.13
X-1.111 Y-3.478 Z0.182
X-1.104 Z0.236
G0 Z17
X20 Y0
Z12.65
G1 Z12.05 F850
Z0 F283.3
X19.963 Y0.004 F850
X19.971 Y-0.032
X20.006 Y-0.046
X20.039 Y-0.029
X20.05 Y0.007
X20.036 Y0.042
X20.008 Y0.067
X19.972 Y0.077
X19.936 Y0.069
X19.907 Y0.045
X19.888 Y0.012
X19.883 Y-0.025
X19.89 Y-0.062
X19.908 Y-0.095
X19.935 Y-0.12
X19.968 Y-0.138
X20.005 Y-0.146
X20.08 Y-0.141
X20.143 Y-0.101
X20.183 Y-0.037
X20.195 Y0.037
X20.18 Y0.111
X20.142 Y0.175
X20.085 Y0.224
X20.016 Y0.254
X19.941 Y0.261
X19.868 Y0.249
X19.732 Y0.184
X19.646 Y0.062
X19.621 Y-0.086
X19.658 Y-0.232
X19.746 Y-0.353
X19.87 Y-0.438
X20.014 Y-0.478
X20.164 Y-0.469
X20.304 Y-0.416
X20.423 Y-0.325
X20.513 Y-0.204
X20.567 Y-0.064
X20.583 Y0.085
X20.56 Y0.233
X20.503 Y0.372
X20.415 Y0.493
X20.301 Y0.591
X20.169 Y0.662
X20.025 Y0.705
X19.876 Y0.716
X19.727 Y0.699
X19.584 Y0.651
X19.454 Y0.578
X19.339 Y0.481
X19.245 Y0.364
X19.172 Y0.233
X19.125 Y0.091
X19.102 Y-0.058
X19.106 Y-0.208
X19.133 Y-0.355
X19.184 Y-0.496
X19.256 Y-0.628
X19.349 Y-0.746
X19.457 Y-0.849
X19.581 Y-0.934
X19.715 Y-1.001
X19.858 Y-1.047
X20.006 Y-1.072
X20.156 Y-1.076
X20.305 Y-1.06
X20.45 Y-1.023
X20.59 Y-0.967
X20.72 Y-0.893
X20.84 Y-0.803
X20.947 Y-0.698
X21.04 Y-0.58
X21.117 Y-0.451
X21.178 Y-0.314
X21.221 Y-0.171
X21.247 Y-0.023
X21.255 Y0.127
X21.245 Y0.277
X21.217 Y0.424
X21.174 Y0.567
X21.113 Y0.705
X21.038 Y0.835
X20.949 Y0.955
X20.848 Y1.066
X20.735 Y1.164
X20.612 Y1.251
X20.48 Y1.323
X20.342 Y1.381
X20.199 Y1.425
X20.052 Y1.454
X19.902 Y1.467
X19.752 Y1.465
X19.603 Y1.449
X19.456 Y1.417
X19.314 Y1.372
X19.176 Y1.312
X19.045 Y1.24
X18.921 Y1.155
X18.806 Y1.059
X18.7 Y0.952
X18.605 Y0.836
X18.521 Y0.712
X18.448 Y0.581
X18.388 Y0.443
X18.341 Y0.301
X18.306 Y0.155
X18.285 Y0.006
X18.276 Y-0.143
X18.281 Y-0.293
X18.299 Y-0.442
X18.329 Y-0.589
X18.372 Y-0.733
X18.427 Y-0.873
X18.493 Y-1.007
X18.57 Y-1.136
X18.658 Y-1.257
X18.755 Y-1.372
X18.862 Y-1.477
X18.976 Y-1.574
X19.098 Y-1.662
X19.226 Y-1.739
X19.361 Y-1.806
X19.5 Y-1.862
X19.643 Y-1.907
X19.789 Y-1.941
X19.937 Y-1.963
X20.087 Y-1.974
X20.237
X20.386 Y-1.962
X20.535 Y-1.939
X20.681 Y-1.905
X20.824 Y-1.86
X20.963 Y-1.805
X21.098 Y-1.74
X21.228 Y-1.665
X21.352 Y-1.581
X21.47 Y-1.487
X21.581 Y-1.386
X21.684 Y-1.277
X21.779 Y-1.161
X21.866 Y-1.039
X21.944 Y-0.91
X22.013 Y-0.776
X22.073 Y-0.636
X22.123 Y-0.494
X22.162 Y-0.349
X22.193 Y-0.196
X22.212 Y-0.047
X22.221 Y0.109
X22.22 Y0.265
X22.208 Y0.418
X22.184 Y0.576
X22.15 Y0.73
X22.105 Y0.881
X22.049 Y1.033
X21.983 Y1.177
X21.906 Y1.32
X21.818 Y1.458
X21.723 Y1.588
X21.616 Y1.714
X21.5 Y1.833
X21.379 Y1.942
X21.246 Y2.045
X21.106 Y2.139
X20.962 Y2.221
X20.809 Y2.296
X20.649 Y2.36
X20.489 Y2.412
X20.323 Y2.453
X20.15 Y2.484
X19.979 Y2.502
X19.806 Y2.508
X19.629 Y2.502
X19.453 Y2.484
X19.281 Y2.454
X19.108 Y2.412
X18.936 Y2.357
X18.769 Y2.29
X18.608 Y2.213
X18.45 Y2.123
X18.296 Y2.021
X18.151 Y1.909
X18.015 Y1.788
X17.885 Y1.655
X17.763 Y1.512
X17.652 Y1.362
X17.551 Y1.204
X17.461 Y1.039
X17.382 Y0.865
X17.314 Y0.686
X17.259 Y0.502
X17.217 Y0.315
X17.188 Y0.125
X17.172 Y-0.071
X17.169 Y-0.267
X17.18 Y-0.464
X17.204 Y-0.659
X17.242 Y-0.852
X17.294 Y-1.045
X17.36 Y-1.235
X17.439 Y-1.421
X17.531 Y-1.602
X17.636 Y-1.776
X17.752 Y-1.943
X17.88 Y-2.101
X18.021 Y-2.252
X18.172 Y-2.395
X18.334 Y-2.527
X18.506 Y-2.647
X18.685 Y-2.757
X18.873 Y-2.853
X19.067 Y-2.937
X19.267 Y-3.007
X19.473 Y-3.063
X19.683 Y-3.106
X19.897 Y-3.134
X20.114 Y-3.147
X20.332 Y-3.145
X20.55 Y-3.128
X20.768 Y-3.095
X20.984 Y-3.048
X21.196 Y-2.985
X21.405 Y-2.908
X21.609 Y-2.816
X21.806 Y-2.709
X21.997 Y-2.589
X22.18 Y-2.455
X22.353 Y-2.308
X22.517 Y-2.149
X22.67 Y-1.978
X22.811 Y-1.796
X22.941 Y-1.604
X23.057 Y-1.403
X23.159 Y-1.193
X23.247 Y-0.975
X23.32 Y-0.751
X23.377 Y-0.522
X23.419 Y-0.288
X23.444 Y-0.051
X23.453 Y0.189
X23.445 Y0.43
X23.421 Y0.67
X23.38 Y0.91
X23.322 Y1.147
X23.248 Y1.38
X23.157 Y1.609
X23.05 Y1.832
X22.927 Y2.047
X22.789 Y2.255
X22.637 Y2.453
X22.47 Y2.642
X22.291 Y2.818
X22.098 Y2.983
X21.894 Y3.135
X21.679 Y3.272
X21.454 Y3.395
X21.22 Y3.503
X20.978 Y3.594
X20.73 Y3.669
X20.61 Y3.696
X20.549 Y3.708
X20.489 Y3.718
X20.428 Y3.726
X20.103 Y3.763
X19.987 Y3.77
X19.87 Y3.76
X19.405 Y3.708
X19.172 Y3.679
X18.94 Y3.603
X18.475 Y3.44
X18.358 Y3.394
X18.242 Y3.325
X17.762 Y3.024
X17.653 Y2.951
X17.544 Y2.849
X17.079 Y2.383
X17.033 Y2.326
X16.846 Y2.031
X16.739 Y1.861
X16.614 Y1.657
X16.599 Y1.628
X16.514 Y1.396
X16.352 Y0.93
X16.319 Y0.814
X16.304 Y0.698
X16.252 Y0.233
X16.229 Y0
X16.252 Y-0.233
X16.304 Y-0.698
X16.319 Y-0.814
X16.352 Y-0.93
X16.514 Y-1.396
X16.599 Y-1.628
X16.614 Y-1.657
X16.739 Y-1.861
X16.885 Y-2.093
X17.033 Y-2.326
X17.079 Y-2.383
X17.544 Y-2.849
X17.653 Y-2.951
X17.777 Y-3.033
X18.242 Y-3.325
X18.358 Y-3.394
X18.475 Y-3.44
X18.94 Y-3.603
X19.172 Y-3.679
X19.405 Y-3.708
X19.87 Y-3.76
X19.987 Y-3.77
X20.103 Y-3.763
X20.568 Y-3.711
X20.801 Y-3.683
X21.034 Y-3.612
X21.499 Y-3.449
X21.615 Y-3.407
X21.731 Y-3.342
X22.238 Y-3.024
X22.334 Y-2.961
X22.429 Y-2.875
X22.895 Y-2.41
X22.967 Y-2.326
X23.127 Y-2.073
X23.36 Y-1.703
X23.401 Y-1.628
X23.486 Y-1.396
X23.648 Y-0.93
X23.681 Y-0.814
X23.696 Y-0.698
X23.748 Y-0.233
X23.771 Y0
X23.748 Y0.233
X23.696 Y0.698
X23.681 Y0.814
X23.648 Y0.93
X23.486 Y1.396
X23.401 Y1.628
X23.36 Y1.703
X23.115 Y2.093
X22.967 Y2.326
X22.895 Y2.41
X22.429 Y2.875
X22.334 Y2.961
X22.238 Y3.024
X21.731 Y3.342
X21.615 Y3.407
X21.499 Y3.449
X21.034 Y3.612
X20.801 Y3.683
X20.428 Y3.726
X20.382 Y3.728 Z0.005
X20.331 Y3.72 Z0.021
X20.286 Y3.713 Z0.049
X20.248 Y3.707 Z0.087
X20.219 Y3.702 Z0.132
X20.202 Y3.7 Z0.182
X20.196 Y3.699 Z0.236
G0 Z17
X40 Y0
Z12.65
G1 Z12.05 F850
Z0 F283.3
X39.963 Y0.004 F850
X39.971 Y-0.032
X40.006 Y-0.046
X40.039 Y-0.029
X40.05 Y0.007
X40.036 Y0.042
X40.008 Y0.067
X39.972 Y0.077
X39.936 Y0.069
X39.907 Y0.045
X39.888 Y0.012
X39.883 Y-0.025
X39.89 Y-0.062
X39.908 Y-0.095
X39.935 Y-0.12
X39.968 Y-0.138
X40.005 Y-0.146
X40.08 Y-0.141
X40.143 Y-0.101
X40.183 Y-0.037
X40.195 Y0.037
X40.18 Y0.111
X40.142 Y0.175
X40.085 Y0.224
X40.016 Y0.254
X39.941 Y0.261
X39.868 Y0.249
X39.732 Y0.184
X39.646 Y0.062
X39.621 Y-0.086
X39.658 Y-0.232
X39.746 Y-0.353
X39.87 Y-0.438
X40.014 Y-0.478
X40.164 Y-0.469
X40.304 Y-0.416
X40.423 Y-0.325
X40.513 Y-0.204
X40.567 Y-0.064
X40.583 Y0.085
X40.56 Y0.233
X40.503 Y0.372
X40.415 Y0.493
X40.301 Y0.591
X40.169 Y0.662
X40.025 Y0.705
X39.876 Y0.716
X39.727 Y0.699
X39.584 Y0.651
X39.454 Y0.578
X39.339 Y0.481
X39.245 Y0.364
X39.172 Y0.233
X39.125 Y0.091
X39.102 Y-0.058
X39.106 Y-0.208
X39.133 Y-0.355
X39.184 Y-0.496
X39.256 Y-0.628
X39.349 Y-0.746
X39.457 Y-0.849
X39.581 Y-0.934
X39.715 Y-1.001
X39.858 Y-1.047
X40.006 Y-1.072
X40.156 Y-1.076
X40.305 Y-1.06
X40.45 Y-1.023
X40.59 Y-0.967
X40.72 Y-0.893
X40.84 Y-0.803
X40.947 Y-0.698
X41.04 Y-0.58
X41.117 Y-0.451
X41.178 Y-0.314
X41.221 Y-0.171
X41.247 Y-0.023
X41.255 Y0.127
X41.245 Y0.277
X41.217 Y0.424
X41.174 Y0.567
X41.113 Y0.705
X41.038 Y0.835
X40.949 Y0.955
X40.848 Y1.066
X40.735 Y1.164
X40.612 Y1.251
X40.48 Y1.323
X40.342 Y1.381
X40.199 Y1.425
X40.052 Y1.454
X39.902 Y1.467
X39.752 Y1.465
X39.603 Y1.449
X39.456 Y1.417
X39.314 Y1.372
X39.176 Y1.312
X39.045 Y1.24
X38.921 Y1.155
X38.806 Y1.059
X38.7 Y0.952
X38.605 Y0.836
X38.521 Y0.712
X38.448 Y0.581
X38.388 Y0.443
X38.341 Y0.301
X38.306 Y0.155
X38.285 Y0.006
X38.276 Y-0.143
X38.281 Y-0.293
X38.299 Y-0.442
X38.329 Y-0.589
X38.372 Y-0.733
X38.427 Y-0.873
X38.493 Y-1.007
X38.57 Y-1.136
X38.658 Y-1.257
X38.755 Y-1.372
X38.862 Y-1.477
X38.976 Y-1.574
X39.098 Y-1.662
X39.226 Y-1.739
X39.361 Y-1.806
X39.5 Y-1.862
X39.643 Y-1.907
X39.789 Y-1.941
X39.937 Y-1.963
X40.087 Y-1.974
X40.237
X40.386 Y-1.962
X40.535 Y-1.939
X40.681 Y-1.905
X40.824 Y-1.86
X40.963 Y-1.805
X41.098 Y-1.74
X41.228 Y-1.665
X41.352 Y-1.581
X41.47 Y-1.487
X41.581 Y-1.386
X41.684 Y-1.277
X41.779 Y-1.161
X41.866 Y-1.039
X41.944 Y-0.91
X42.013 Y-0.776
X42.073 Y-0.636
X42.123 Y-0.494
X42.162 Y-0.349
X42.193 Y-0.196
X42.212 Y-0.047
X42.221 Y0.109
X42.22 Y0.265
X42.208 Y0.418
X42.184 Y0.576
X42.15 Y0.73
X42.105 Y0.881
X42.049 Y1.033
X41.983 Y1.177
X41.906 Y1.32
X41.818 Y1.458
X41.723 Y1.588
X41.616 Y1.714
X41.5 Y1.833
X41.379 Y1.942
X41.246 Y2.045
X41.106 Y2.139
X40.962 Y2.221
X40.809 Y2.296
X40.649 Y2.36
X40.489 Y2.412
X40.323 Y2.453
X40.15 Y2.484
X39.979 Y2.502
X39.806 Y2.508
X39.629 Y2.502
X39.453 Y2.484
X39.281 Y2.454
X39.108 Y2.412
X38.936 Y2.357
X38.769 Y2.29
X38.608 Y2.213
X38.45 Y2.123
X38.296 Y2.021
X38.151 Y1.909
X38.015 Y1.788
X37.885 Y1.655
X37.763 Y1.512
X37.652 Y1.362
X37.551 Y1.204
X37.461 Y1.039
X37.382 Y0.865
X37.314 Y0.686
X37.259 Y0.502
X37.217 Y0.315
X37.188 Y0.125
X37.172 Y-0.071
X37.169 Y-0.267
X37.18 Y-0.464
X37.204 Y-0.659
X37.242 Y-0.852
X37.294 Y-1.045
X37.36 Y-1.235
X37.439 Y-1.421
X37.531 Y-1.602
X37.636 Y-1.776
X37.752 Y-1.943
X37.88 Y-2.101
X38.021 Y-2.252
X38.172 Y-2.395
X38.334 Y-2.527
X38.506 Y-2.647
X38.685 Y-2.757
X38.873 Y-2.853
X39.067 Y-2.937
X39.267 Y-3.007
X39.473 Y-3.063
X39.683 Y-3.106
X39.897 Y-3.134
X40.114 Y-3.147
X40.332 Y-3.145
X40.55 Y-3.128
X40.768 Y-3.095
X40.984 Y-3.048
X41.196 Y-2.985
X41.405 Y-2.908
X41.609 Y-2.816
X41.806 Y-2.709
X41.997 Y-2.589
X42.18 Y-2.455
X42.353 Y-2.308
X42.517 Y-2.149
X42.67 Y-1.978
X42.811 Y-1.796
X42.941 Y-1.604
X43.057 Y-1.403
X43.159 Y-1.193
X43.247 Y-0.975
X43.32 Y-0.751
X43.377 Y-0.522
X43.419 Y-0.288
X43.444 Y-0.051
X43.453 Y0.189
X43.445 Y0.43
X43.421 Y0.67
X43.38 Y0.91
X43.322 Y1.147
X43.248 Y1.38
X43.157 Y1.609
X43.05 Y1.832
X42.927 Y2.047
X42.789 Y2.255
X42.637 Y2.453
X42.47 Y2.642
X42.291 Y2.818
X42.098 Y2.983
X41.894 Y3.135
X41.679 Y3.272
X41.454 Y3.395
X41.22 Y3.503
X40.978 Y3.594
X40.73 Y3.669
X40.61 Y3.696
X40.549 Y3.708
X40.489 Y3.718
X40.428 Y3.726
X40.11 Y3.762
X39.993 Y3.771
X39.877 Y3.761
X39.412 Y3.708
X39.179 Y3.68
X38.946 Y3.605
X38.481 Y3.443
X38.365 Y3.397
X38.249 Y3.329
X37.762 Y3.024
X37.657 Y2.954
X37.551 Y2.855
X37.085 Y2.389
X37.034 Y2.326
X36.853 Y2.042
X36.62 Y1.67
X36.599 Y1.628
X36.514 Y1.396
X36.352 Y0.93
X36.319 Y0.814
X36.304 Y0.698
X36.252 Y0.233
X36.229 Y0
X36.252 Y-0.233
X36.304 Y-0.698
X36.319 Y-0.814
X36.352 Y-0.93
X36.514 Y-1.396
X36.599 Y-1.628
X36.62 Y-1.67
X36.853 Y-2.042
X37.034 Y-2.326
X37.085 Y-2.389
X37.551 Y-2.855
X37.657 Y-2.954
X37.783 Y-3.037
X38.249 Y-3.329
X38.365 Y-3.397
X38.481 Y-3.443
X38.946 Y-3.605
X39.179 Y-3.68
X39.412 Y-3.708
X39.877 Y-3.761
X39.993 Y-3.771
X40.11 Y-3.762
X40.575 Y-3.71
X40.808 Y-3.682
X41.04 Y-3.61
X41.505 Y-3.447
X41.622 Y-3.403
X41.738 Y-3.338
X42.238 Y-3.024
X42.337 Y-2.959
X42.436 Y-2.869
X42.901 Y-2.403
X42.967 Y-2.326
X43.134 Y-2.063
X43.367 Y-1.692
X43.401 Y-1.628
X43.486 Y-1.396
X43.648 Y-0.93
X43.681 Y-0.814
X43.696 Y-0.698
X43.748 Y-0.233
X43.771 Y0
X43.748 Y0.233
X43.696 Y0.698
X43.681 Y0.814
X43.648 Y0.93
X43.486 Y1.396
X43.401 Y1.628
X43.367 Y1.692
X43.115 Y2.093
X42.967 Y2.326
X42.901 Y2.403
X42.436 Y2.869
X42.337 Y2.959
X42.238 Y3.024
X41.738 Y3.338
X41.622 Y3.403
X41.505 Y3.447
X41.04 Y3.61
X40.808 Y3.682
X40.47 Y3.722
X40.428 Y3.726
X40.382 Y3.728 Z0.005
X40.331 Y3.72 Z0.021
X40.286 Y3.713 Z0.049
X40.248 Y3.707 Z0.087
X40.219 Y3.702 Z0.132
X40.202 Y3.7 Z0.182
X40.196 Y3.699 Z0.236
G0 Z17
X60 Y0
Z12.65
G1 Z12.05 F850
Z0 F283.3
X59.996 Y0.037 F850
X59.962 Y0.021
X59.956 Y-0.016
X59.98 Y-0.045
X60.018 Y-0.047
X60.049 Y-0.026
X60.067 Y0.007
X60.069 Y0.044
X60.053 Y0.078
X60.023 Y0.101
X59.987 Y0.112
X59.95 Y0.108
X59.915 Y0.093
X59.887 Y0.069
X59.868 Y0.037
X59.858 Y0
X59.859 Y-0.037
X59.881 Y-0.109
X59.934 Y-0.162
X60.005 Y-0.186
X60.08 Y-0.182
X60.148 Y-0.151
X60.202 Y-0.099
X60.238 Y-0.033
X60.251 Y0.041
X60.242 Y0.115
X60.213 Y0.184
X60.12 Y0.302
X59.981 Y0.359
X59.832 Y0.35
X59.698 Y0.282
X59.599 Y0.169
X59.544 Y0.03
X59.538 Y-0.12
X59.579 Y-0.264
X59.662 Y-0.389
X59.778 Y-0.485
X59.915 Y-0.545
X60.063 Y-0.567
X60.212 Y-0.549
X60.352 Y-0.494
X60.474 Y-0.408
X60.573 Y-0.295
X60.643 Y-0.162
X60.683 Y-0.017
X60.693 Y0.132
X60.671 Y0.281
X60.62 Y0.422
X60.543 Y0.55
X60.442 Y0.661
X60.322 Y0.751
X60.187 Y0.817
X60.043 Y0.859
X59.894 Y0.873
X59.744 Y0.862
X59.599 Y0.826
X59.461 Y0.766
X59.335 Y0.685
X59.223 Y0.585
X59.128 Y0.469
X59.051 Y0.34
X58.996 Y0.201
X58.961 Y0.055
X58.948 Y-0.095
X58.956 Y-0.244
X58.986 Y-0.392
X59.035 Y-0.533
X59.103 Y-0.667
X59.188 Y-0.79
X59.29 Y-0.901
X59.404 Y-0.998
X59.531 Y-1.079
X59.666 Y-1.143
X59.809 Y-1.19
X59.956 Y-1.218
X60.105 Y-1.229
X60.255 Y-1.221
X60.403 Y-1.195
X60.547 Y-1.152
X60.684 Y-1.093
X60.814 Y-1.018
X60.935 Y-0.928
X61.045 Y-0.827
X61.143 Y-0.713
X61.228 Y-0.589
X61.299 Y-0.457
X61.355 Y-0.318
X61.397 Y-0.174
X61.423 Y-0.026
X61.433 Y0.123
X61.429 Y0.273
X61.409 Y0.422
X61.374 Y0.568
X61.324 Y0.709
X61.261 Y0.845
X61.184 Y0.974
X61.096 Y1.095
X60.996 Y1.207
X60.885 Y1.309
X60.766 Y1.4
X60.639 Y1.479
X60.505 Y1.546
X60.365 Y1.601
X60.221 Y1.642
X60.073 Y1.67
X59.924 Y1.684
X59.774 Y1.686
X59.625 Y1.674
X59.477 Y1.648
X59.332 Y1.61
X59.19 Y1.56
X59.054 Y1.498
X58.923 Y1.424
X58.799 Y1.34
X58.683 Y1.245
X58.575 Y1.141
X58.475 Y1.029
X58.386 Y0.908
X58.306 Y0.781
X58.237 Y0.648
X58.179 Y0.51
X58.132 Y0.367
X58.097 Y0.221
X58.073 Y0.073
X58.061 Y-0.076
Y-0.226
X58.072 Y-0.376
X58.094 Y-0.524
X58.128 Y-0.67
X58.173 Y-0.814
X58.228 Y-0.953
X58.294 Y-1.088
X58.37 Y-1.217
X58.454 Y-1.341
X58.548 Y-1.458
X58.65 Y-1.568
X58.76 Y-1.67
X58.877 Y-1.764
X59 Y-1.85
X59.129 Y-1.926
X59.264 Y-1.993
X59.402 Y-2.05
X59.546 Y-2.098
X59.691 Y-2.135
X59.841 Y-2.163
X59.991 Y-2.179
X60.141 Y-2.186
X60.297 Y-2.182
X60.447 Y-2.167
X60.601 Y-2.141
X60.753 Y-2.105
X60.899 Y-2.059
X61.048 Y-2.001
X61.19 Y-1.934
X61.328 Y-1.856
X61.463 Y-1.767
X61.589 Y-1.671
X61.711 Y-1.564
X61.826 Y-1.448
X61.931 Y-1.327
X62.031 Y-1.194
X62.121 Y-1.055
X62.2 Y-0.912
X62.271 Y-0.759
X62.331 Y-0.602
X62.38 Y-0.443
X62.418 Y-0.278
X62.445 Y-0.108
X62.46 Y0.06
X62.464 Y0.232
X62.455 Y0.406
X62.434 Y0.577
X62.402 Y0.747
X62.357 Y0.919
X62.3 Y1.086
X62.233 Y1.247
X62.153 Y1.406
X62.061 Y1.562
X61.959 Y1.71
X61.848 Y1.85
X61.724 Y1.984
X61.591 Y2.11
X61.449 Y2.227
X61.301 Y2.333
X61.143 Y2.43
X60.976 Y2.517
X60.805 Y2.593
X60.629 Y2.655
X60.448 Y2.706
X60.261 Y2.745
X60.071 Y2.771
X59.879 Y2.784
X59.688 Y2.783
X59.496 Y2.769
X59.302 Y2.742
X59.109 Y2.701
X58.92 Y2.646
X58.736 Y2.579
X58.555 Y2.499
X58.379 Y2.405
X58.208 Y2.299
X58.044 Y2.18
X57.889 Y2.05
X57.743 Y1.91
X57.606 Y1.759
X57.48 Y1.599
X57.364 Y1.428
X57.259 Y1.249
X57.166 Y1.062
X57.086 Y0.868
X57.02 Y0.668
X56.968 Y0.464
X56.929 Y0.256
X56.905 Y0.045
X56.896 Y-0.168
X56.902 Y-0.382
X56.922 Y-0.597
X56.957 Y-0.811
X57.008 Y-1.023
X57.073 Y-1.232
X57.153 Y-1.438
X57.248 Y-1.637
X57.356 Y-1.831
X57.478 Y-2.017
X57.613 Y-2.195
X57.761 Y-2.364
X57.92 Y-2.523
X58.092 Y-2.671
X58.273 Y-2.808
X58.465 Y-2.932
X58.666 Y-3.043
X58.874 Y-3.141
X59.09 Y-3.224
X59.313 Y-3.292
X59.54 Y-3.345
X59.772 Y-3.382
X60.006 Y-3.404
X60.243 Y-3.408
X60.48 Y-3.397
X60.717 Y-3.369
X60.953 Y-3.324
X61.186 Y-3.263
X61.415 Y-3.186
X61.639 Y-3.093
X61.857 Y-2.983
X62.068 Y-2.859
X62.271 Y-2.72
X62.464 Y-2.566
X62.647 Y-2.398
X62.819 Y-2.218
X62.979 Y-2.025
X63.125 Y-1.821
X63.257 Y-1.606
X63.375 Y-1.382
X63.477 Y-1.149
X63.564 Y-0.909
X63.633 Y-0.662
X63.686 Y-0.41
X63.721 Y-0.154
X63.739 Y0.105
Y0.366
X63.72 Y0.627
X63.683 Y0.887
X63.654 Y1.024
X63.638 Y1.093
X63.619 Y1.161
X63.597 Y1.228
X63.538 Y1.396
X63.456 Y1.628
X63.373 Y1.775
X63.027 Y2.326
X62.975 Y2.397
X62.908 Y2.467
X62.443 Y2.932
X62.387 Y2.983
X62.331 Y3.024
X61.745 Y3.392
X61.64 Y3.45
X61.512 Y3.497
X61.047 Y3.66
X60.863 Y3.722
X60.814 Y3.732
X60.349 Y3.785
X60.116 Y3.812
X60 Y3.821
X59.884 Y3.812
X59.418 Y3.759
X59.186 Y3.732
X59.137 Y3.722
X58.953 Y3.66
X58.464 Y3.489
X58.36 Y3.45
X58.255 Y3.392
X57.669 Y3.024
X57.613 Y2.983
X57.557 Y2.932
X57.092 Y2.467
X57.025 Y2.397
X56.973 Y2.326
X56.627 Y1.775
X56.544 Y1.628
X56.462 Y1.396
X56.299 Y0.93
X56.268 Y0.814
X56.254 Y0.698
X56.202 Y0.233
X56.179 Y0
X56.202 Y-0.233
X56.254 Y-0.698
X56.268 Y-0.814
X56.299 Y-0.93
X56.462 Y-1.396
X56.544 Y-1.628
X56.627 Y-1.775
X56.973 Y-2.326
X57.025 Y-2.397
X57.092 Y-2.467
X57.557 Y-2.932
X57.613 Y-2.983
X57.669 Y-3.024
X58.255 Y-3.392
X58.36 Y-3.45
X58.488 Y-3.497
X58.953 Y-3.66
X59.137 Y-3.722
X59.186 Y-3.732
X59.651 Y-3.785
X59.884 Y-3.812
X60 Y-3.821
X60.116 Y-3.812
X60.582 Y-3.759
X60.814 Y-3.732
X60.863 Y-3.722
X61.047 Y-3.66
X61.536 Y-3.489
X61.64 Y-3.45
X61.745 Y-3.392
X62.331 Y-3.024
X62.387 Y-2.983
X62.443 Y-2.932
X62.908 Y-2.467
X62.975 Y-2.397
X63.027 Y-2.326
X63.373 Y-1.775
X63.456 Y-1.628
X63.538 Y-1.396
X63.701 Y-0.93
X63.732 Y-0.814
X63.746 Y-0.698
X63.798 Y-0.233
X63.821 Y0
X63.798 Y0.233
X63.746 Y0.698
X63.732 Y0.814
X63.701 Y0.93
X63.597 Y1.228
X63.568 Y1.275 Z0.007
X63.541 Y1.319 Z0.026
X63.517 Y1.358 Z0.057
X63.497 Y1.39 Z0.098
X63.483 Y1.412 Z0.147
X63.474 Y1.422 Z0.19
X63.471 Y1.425 Z0.236
G0 Z17
X80 Y0
Z12.65
G1 Z12.05 F850
Z0 F283.3
X80.004 Y-0.037 F850
X80.038 Y-0.021
X80.044 Y0.016
X80.02 Y0.045
X79.982 Y0.047
X79.951 Y0.026
X79.933 Y-0.007
X79.931 Y-0.044
X79.947 Y-0.078
X79.977 Y-0.101
X80.013 Y-0.112
X80.05 Y-0.108
X80.085 Y-0.093
X80.113 Y-0.069
X80.132 Y-0.037
X80.142 Y0
X80.141 Y0.037
X80.119 Y0.109
X80.066 Y0.162
X79.995 Y0.186
X79.92 Y0.182
X79.852 Y0.151
X79.798 Y0.099
X79.762 Y0.033
X79.749 Y-0.041
X79.758 Y-0.115
X79.787 Y-0.184
X79.88 Y-0.302
X80.019 Y-0.359
X80.168 Y-0.35
X80.302 Y-0.282
X80.401 Y-0.169
X80.456 Y-0.03
X80.462 Y0.12
X80.421 Y0.264
X80.338 Y0.389
X80.222 Y0.485
X80.085 Y0.545
X79.937 Y0.567
X79.788 Y0.549
X79.648 Y0.494
X79.526 Y0.408
X79.427 Y0.295
X79.357 Y0.162
X79.317 Y0.017
X79.307 Y-0.132
X79.329 Y-0.281
X79.38 Y-0.422
X79.457 Y-0.55
X79.558 Y-0.661
X79.678 Y-0.751
X79.813 Y-0.817
X79.957 Y-0.859
X80.106 Y-0.873
X80.256 Y-0.862
X80.401 Y-0.826
X80.539 Y-0.766
X80.665 Y-0.685
X80.777 Y-0.585
X80.872 Y-0.469
X80.949 Y-0.34
X81.004 Y-0.201
X81.039 Y-0.055
X81.052 Y0.095
X81.044 Y0.244
X81.014 Y0.392
X80.965 Y0.533
X80.897 Y0.667
X80.812 Y0.79
X80.71 Y0.901
X80.596 Y0.998
X80.469 Y1.079
X80.334 Y1.143
X80.191 Y1.19
X80.044 Y1.218
X79.895 Y1.229
X79.745 Y1.221
X79.597 Y1.195
X79.453 Y1.152
X79.316 Y1.093
X79.186 Y1.018
X79.065 Y0.928
X78.955 Y0.827
X78.857 Y0.713
X78.772 Y0.589
X78.701 Y0.457
X78.645 Y0.318
X78.603 Y0.174
X78.577 Y0.026
X78.567 Y-0.123
X78.571 Y-0.273
X78.591 Y-0.422
X78.626 Y-0.568
X78.676 Y-0.709
X78.739 Y-0.845
X78.816 Y-0.974
X78.904 Y-1.095
X79.004 Y-1.207
X79.115 Y-1.309
X79.234 Y-1.4
X79.361 Y-1.479
X79.495 Y-1.546
X79.635 Y-1.601
X79.779 Y-1.642
X79.927 Y-1.67
X80.076 Y-1.684
X80.226 Y-1.686
X80.375 Y-1.674
X80.523 Y-1.648
X80.668 Y-1.61
X80.81 Y-1.56
X80.946 Y-1.498
X81.077 Y-1.424
X81.201 Y-1.34
X81.317 Y-1.245
X81.425 Y-1.141
X81.525 Y-1.029
X81.614 Y-0.908
X81.694 Y-0.781
X81.763 Y-0.648
X81.821 Y-0.51
X81.868 Y-0.367
X81.903 Y-0.221
X81.927 Y-0.073
X81.939 Y0.076
Y0.226
X81.928 Y0.376
X81.906 Y0.524
X81.872 Y0.67
X81.827 Y0.814
X81.772 Y0.953
X81.706 Y1.088
X81.63 Y1.217
X81.546 Y1.341
X81.452 Y1.458
X81.35 Y1.568
X81.24 Y1.67
X81.123 Y1.764
X81 Y1.85
X80.871 Y1.926
X80.736 Y1.993
X80.598 Y2.05
X80.454 Y2.098
X80.309 Y2.135
X80.159 Y2.163
X80.009 Y2.179
X79.859 Y2.186
X79.703 Y2.182
X79.553 Y2.167
X79.399 Y2.141
X79.247 Y2.105
X79.101 Y2.059
X78.952 Y2.001
X78.81 Y1.934
X78.672 Y1.856
X78.537 Y1.767
X78.411 Y1.671
X78.289 Y1.564
X78.174 Y1.448
X78.069 Y1.327
X77.969 Y1.194
X77.879 Y1.055
X77.8 Y0.912
X77.729 Y0.759
X77.669 Y0.602
X77.62 Y0.443
X77.582 Y0.278
X77.555 Y0.108
X77.54 Y-0.06
X77.536 Y-0.232
X77.545 Y-0.406
X77.566 Y-0.577
X77.598 Y-0.747
X77.643 Y-0.919
X77.7 Y-1.086
X77.767 Y-1.247
X77.847 Y-1.406
X77.939 Y-1.562
X78.041 Y-1.71
X78.152 Y-1.85
X78.276 Y-1.984
X78.409 Y-2.11
X78.551 Y-2.227
X78.699 Y-2.333
X78.857 Y-2.43
X79.024 Y-2.517
X79.195 Y-2.593
X79.371 Y-2.655
X79.552 Y-2.706
X79.739 Y-2.745
X79.929 Y-2.771
X80.121 Y-2.784
X80.312 Y-2.783
X80.504 Y-2.769
X80.698 Y-2.742
X80.891 Y-2.701
X81.08 Y-2.646
X81.264 Y-2.579
X81.445 Y-2.499
X81.621 Y-2.405
X81.792 Y-2.299
X81.956 Y-2.18
X82.111 Y-2.05
X82.257 Y-1.91
X82.394 Y-1.759
X82.52 Y-1.599
X82.636 Y-1.428
X82.741 Y-1.249
X82.834 Y-1.062
X82.914 Y-0.868
X82.98 Y-0.668
X83.032 Y-0.464
X83.071 Y-0.256
X83.095 Y-0.045
X83.104 Y0.168
X83.098 Y0.382
X83.078 Y0.597
X83.043 Y0.811
X82.992 Y1.023
X82.927 Y1.232
X82.847 Y1.438
X82.752 Y1.637
X82.644 Y1.831
X82.522 Y2.017
X82.387 Y2.195
X82.239 Y2.364
X82.08 Y2.523
X81.908 Y2.671
X81.727 Y2.808
X81.535 Y2.932
X81.334 Y3.043
X81.126 Y3.141
X80.91 Y3.224
X80.687 Y3.292
X80.46 Y3.345
X80.228 Y3.382
X79.994 Y3.404
X79.757 Y3.408
X79.52 Y3.397
X79.283 Y3.369
X79.047 Y3.324
X78.814 Y3.263
X78.585 Y3.186
X78.361 Y3.093
X78.143 Y2.983
X77.932 Y2.859
X77.729 Y2.72
X77.536 Y2.566
X77.353 Y2.398
X77.181 Y2.218
X77.021 Y2.025
X76.875 Y1.821
X76.743 Y1.606
X76.625 Y1.382
X76.523 Y1.149
X76.436 Y0.909
X76.367 Y0.662
X76.314 Y0.41
X76.279 Y0.154
X76.261 Y-0.105
Y-0.366
X76.28 Y-0.627
X76.317 Y-0.887
X76.346 Y-1.024
X76.362 Y-1.093
X76.381 Y-1.161
X76.403 Y-1.228
X76.462 Y-1.396
X76.545 Y-1.628
X76.633 Y-1.786
X76.973 Y-2.326
X77.028 Y-2.4
X77.099 Y-2.474
X77.564 Y-2.939
X77.616 Y-2.986
X77.669 Y-3.024
X78.262 Y-3.397
X78.363 Y-3.452
X78.495 Y-3.5
X78.96 Y-3.663
X79.138 Y-3.722
X79.192 Y-3.733
X79.89 Y-3.812
X80.007 Y-3.821
X80.123 Y-3.811
X80.588 Y-3.758
X80.821 Y-3.731
X80.863 Y-3.722
X81.053 Y-3.658
X81.536 Y-3.489
X81.644 Y-3.448
X81.751 Y-3.388
X82.331 Y-3.024
X82.39 Y-2.98
X82.449 Y-2.926
X82.915 Y-2.46
X82.978 Y-2.393
X83.027 Y-2.326
X83.38 Y-1.765
X83.456 Y-1.628
X83.538 Y-1.396
X83.701 Y-0.93
X83.732 Y-0.814
X83.746 Y-0.698
X83.798 Y-0.233
X83.821 Y0
X83.798 Y0.233
X83.746 Y0.698
X83.732 Y0.814
X83.701 Y0.93
X83.538 Y1.396
X83.456 Y1.628
X83.38 Y1.765
X83.027 Y2.326
X82.978 Y2.393
X82.915 Y2.46
X82.449 Y2.926
X82.39 Y2.98
X82.331 Y3.024
X81.751 Y3.388
X81.644 Y3.448
X81.519 Y3.495
X81.053 Y3.658
X80.863 Y3.722
X80.821 Y3.731
X80.588 Y3.758
X80.123 Y3.811
X80.007 Y3.821
X79.89 Y3.812
X79.192 Y3.733
X79.138 Y3.722
X78.96 Y3.663
X78.464 Y3.489
X78.363 Y3.452
X78.262 Y3.397
X77.669 Y3.024
X77.616 Y2.986
X77.564 Y2.939
X77.099 Y2.474
X77.028 Y2.4
X76.973 Y2.326
X76.633 Y1.786
X76.545 Y1.628
X76.462 Y1.396
X76.299 Y0.93
X76.268 Y0.814
X76.254 Y0.698
X76.202 Y0.233
X76.179 Y0
X76.202 Y-0.233
X76.254 Y-0.698
X76.268 Y-0.814
X76.299 Y-0.93
X76.403 Y-1.228
X76.432 Y-1.275 Z0.007
X76.459 Y-1.319 Z0.026
X76.483 Y-1.358 Z0.057
X76.503 Y-1.39 Z0.098
X76.517 Y-1.412 Z0.147
X76.526 Y-1.422 Z0.19
X76.529 Y-1.425 Z0.236
G0 Z17
X100 Y0
Z12.65
G1 Z12.05 F850
Z0 F283.3
X100.032 Y-0.02 F850
X100.04 Y0.017
X100.015 Y0.044
X99.977 Y0.043
X99.952 Y0.015
X99.95 Y-0.022
X99.963 Y-0.057
X99.992 Y-0.082
X100.028 Y-0.09
X100.064 Y-0.081
X100.095 Y-0.06
X100.116 Y-0.028
X100.126 Y0.008
X100.124 Y0.045
X100.111 Y0.08
X100.089 Y0.11
X100.059 Y0.134
X99.989 Y0.161
X99.915 Y0.153
X99.852 Y0.112
X99.808 Y0.051
X99.79 Y-0.022
X99.796 Y-0.096
X99.826 Y-0.165
X99.875 Y-0.222
X99.939 Y-0.261
X100.011 Y-0.281
X100.161 Y-0.282
X100.292 Y-0.21
X100.379 Y-0.087
X100.409 Y0.06
X100.382 Y0.208
X100.307 Y0.338
X100.194 Y0.436
X100.056 Y0.494
X99.907 Y0.507
X99.76 Y0.476
X99.627 Y0.407
X99.518 Y0.304
X99.438 Y0.177
X99.394 Y0.033
X99.386 Y-0.116
X99.412 Y-0.264
X99.472 Y-0.402
X99.56 Y-0.523
X99.671 Y-0.624
X99.801 Y-0.699
X99.943 Y-0.748
X100.092 Y-0.767
X100.241 Y-0.758
X100.387 Y-0.72
X100.522 Y-0.656
X100.644 Y-0.569
X100.749 Y-0.461
X100.834 Y-0.338
X100.896 Y-0.201
X100.935 Y-0.057
X100.95 Y0.093
X100.942 Y0.242
X100.91 Y0.389
X100.857 Y0.529
X100.783 Y0.66
X100.691 Y0.778
X100.582 Y0.881
X100.46 Y0.968
X100.327 Y1.037
X100.185 Y1.087
X100.038 Y1.117
X99.889 Y1.127
X99.739 Y1.117
X99.592 Y1.088
X99.45 Y1.04
X99.315 Y0.974
X99.19 Y0.892
X99.075 Y0.795
X98.974 Y0.684
X98.887 Y0.562
X98.815 Y0.431
X98.758 Y0.291
X98.719 Y0.147
X98.696 Y-0.002
X98.691 Y-0.151
X98.702 Y-0.301
X98.73 Y-0.448
X98.774 Y-0.592
X98.833 Y-0.73
X98.906 Y-0.861
X98.993 Y-0.983
X99.092 Y-1.096
X99.202 Y-1.197
X99.322 Y-1.287
X99.451 Y-1.364
X99.587 Y-1.428
X99.728 Y-1.477
X99.874 Y-1.513
X100.023 Y-1.534
X100.173 Y-1.54
X100.322 Y-1.531
X100.471 Y-1.509
X100.616 Y-1.472
X100.758 Y-1.422
X100.894 Y-1.359
X101.023 Y-1.284
X101.146 Y-1.197
X101.259 Y-1.099
X101.364 Y-0.991
X101.459 Y-0.875
X101.542 Y-0.75
X101.615 Y-0.619
X101.676 Y-0.482
X101.725 Y-0.34
X101.761 Y-0.195
X101.785 Y-0.047
X101.796 Y0.103
X101.795 Y0.253
X101.781 Y0.402
X101.755 Y0.55
X101.717 Y0.695
X101.667 Y0.837
X101.606 Y0.974
X101.534 Y1.105
X101.452 Y1.231
X101.36 Y1.349
X101.259 Y1.46
X101.15 Y1.563
X101.033 Y1.657
X100.909 Y1.741
X100.779 Y1.816
X100.644 Y1.881
X100.504 Y1.936
X100.36 Y1.979
X100.214 Y2.012
X100.066 Y2.034
X99.916 Y2.044
X99.766
X99.616 Y2.033
X99.468 Y2.011
X99.322 Y1.978
X99.178 Y1.935
X99.038 Y1.882
X98.902 Y1.819
X98.77 Y1.746
X98.644 Y1.664
X98.524 Y1.573
X98.409 Y1.473
X98.302 Y1.367
X98.204 Y1.253
X98.11 Y1.129
X98.028 Y1.003
X97.952 Y0.866
X97.885 Y0.725
X97.83 Y0.582
X97.782 Y0.429
X97.746 Y0.276
X97.721 Y0.12
X97.706 Y-0.041
X97.702 Y-0.199
X97.71 Y-0.362
X97.729 Y-0.524
X97.758 Y-0.682
X97.8 Y-0.842
X97.853 Y-1
X97.915 Y-1.151
X97.99 Y-1.301
X98.075 Y-1.446
X98.169 Y-1.583
X98.275 Y-1.717
X98.39 Y-1.844
X98.512 Y-1.96
X98.644 Y-2.07
X98.786 Y-2.172
X98.933 Y-2.263
X99.085 Y-2.343
X99.248 Y-2.415
X99.414 Y-2.475
X99.582 Y-2.523
X99.756 Y-2.56
X99.935 Y-2.585
X100.114 Y-2.598
X100.293
X100.475 Y-2.585
X100.657 Y-2.56
X100.837 Y-2.522
X101.012 Y-2.472
X101.186 Y-2.409
X101.359 Y-2.334
X101.524 Y-2.246
X101.683 Y-2.148
X101.836 Y-2.039
X101.983 Y-1.916
X102.122 Y-1.784
X102.251 Y-1.642
X102.37 Y-1.493
X102.479 Y-1.333
X102.579 Y-1.164
X102.666 Y-0.989
X102.742 Y-0.807
X102.804 Y-0.621
X102.854 Y-0.43
X102.891 Y-0.234
X102.914 Y-0.034
X102.924 Y0.169
X102.919 Y0.371
X102.901 Y0.573
X102.868 Y0.774
X102.822 Y0.973
X102.761 Y1.17
X102.686 Y1.363
X102.598 Y1.553
X102.496 Y1.736
X102.381 Y1.912
X102.254 Y2.08
X102.116 Y2.24
X101.966 Y2.39
X101.805 Y2.531
X101.634 Y2.66
X101.453 Y2.778
X101.264 Y2.884
X101.066 Y2.977
X100.862 Y3.056
X100.652 Y3.122
X100.437 Y3.173
X100.218 Y3.209
X99.997 Y3.229
X99.773 Y3.235
X99.549 Y3.225
X99.325 Y3.199
X99.103 Y3.158
X98.883 Y3.101
X98.666 Y3.029
X98.454 Y2.941
X98.247 Y2.839
X98.048 Y2.722
X97.856 Y2.591
X97.673 Y2.446
X97.499 Y2.288
X97.336 Y2.118
X97.185 Y1.936
X97.045 Y1.744
X96.92 Y1.541
X96.807 Y1.329
X96.71 Y1.109
X96.627 Y0.882
X96.56 Y0.648
X96.51 Y0.409
X96.475 Y0.167
X96.458 Y-0.079
X96.457 Y-0.326
X96.474 Y-0.573
X96.508 Y-0.82
X96.559 Y-1.065
X96.628 Y-1.307
X96.713 Y-1.544
X96.815 Y-1.776
X96.933 Y-2.001
X97.067 Y-2.219
X97.216 Y-2.427
X97.38 Y-2.626
X97.559 Y-2.813
X97.75 Y-2.988
X97.954 Y-3.15
X98.169 Y-3.298
X98.395 Y-3.432
X98.631 Y-3.55
X98.875 Y-3.652
X99.127 Y-3.737
X99.277 Y-3.776
X99.355 Y-3.794
X99.433 Y-3.809
X99.513 Y-3.82
X99.897 Y-3.863
X100.013 Y-3.87
X100.13 Y-3.86
X100.595 Y-3.808
X100.828 Y-3.78
X101.022 Y-3.722
X101.525 Y-3.546
X101.676 Y-3.489
X101.758 Y-3.443
X102.223 Y-3.151
X102.416 Y-3.024
X102.456 Y-2.989
X102.921 Y-2.524
X103.016 Y-2.425
X103.086 Y-2.326
X103.455 Y-1.738
X103.486 Y-1.683
X103.51 Y-1.628
X103.754 Y-0.93
X103.771 Y-0.872
X103.782 Y-0.814
X103.852 Y-0.204
X103.871 Y0
X103.849 Y0.233
X103.782 Y0.814
X103.771 Y0.872
X103.754 Y0.93
X103.51 Y1.628
X103.486 Y1.683
X103.455 Y1.738
X103.086 Y2.326
X103.016 Y2.425
X102.921 Y2.524
X102.456 Y2.989
X102.416 Y3.024
X102.223 Y3.151
X101.758 Y3.443
X101.676 Y3.489
X101.525 Y3.546
X101.022 Y3.722
X100.828 Y3.78
X100.595 Y3.808
X100.13 Y3.86
X100.013 Y3.87
X99.897 Y3.863
X99.199 Y3.784
X99.089 Y3.76
X98.501 Y3.555
X98.326 Y3.489
X98.269 Y3.459
X97.803 Y3.167
X97.585 Y3.024
X97.571 Y3.012
X97.338 Y2.783
X97.105 Y2.551
X96.995 Y2.438
X96.914 Y2.326
X96.549 Y1.745
X96.516 Y1.686
X96.491 Y1.628
X96.246 Y0.93
X96.229 Y0.872
X96.218 Y0.814
X96.152 Y0.233
X96.129 Y0
X96.152 Y-0.233
X96.218 Y-0.814
X96.229 Y-0.872
X96.246 Y-0.93
X96.491 Y-1.628
X96.516 Y-1.686
X96.549 Y-1.745
X96.914 Y-2.326
X96.995 Y-2.438
X97.113 Y-2.559
X97.346 Y-2.791
X97.571 Y-3.012
X97.585 Y-3.024
X97.803 Y-3.167
X98.269 Y-3.459
X98.326 Y-3.489
X98.501 Y-3.555
X99.089 Y-3.76
X99.199 Y-3.784
X99.513 Y-3.82
X99.559 Y-3.822 Z0.005
X99.609 Y-3.814 Z0.021
X99.655 Y-3.806 Z0.049
X99.693 Y-3.8 Z0.087
X99.721 Y-3.796 Z0.132
X99.739 Y-3.793 Z0.182
X99.745 Y-3.792 Z0.236
G0 Z17
X120 Y0
Z12.65
G1 Z12.05 F850
Z0 F283.3
X120.032 Y0.02 F850
X120.002 Y0.043
X119.966 Y0.032
X119.951 Y-0.002
X119.965 Y-0.037
X119.998 Y-0.055
X120.035 Y-0.058
X120.07 Y-0.043
X120.093 Y-0.014
X120.101 Y0.023
X120.095 Y0.06
X120.076 Y0.092
X120.047 Y0.117
X120.013 Y0.132
X119.976 Y0.135
X119.939 Y0.128
X119.905 Y0.111
X119.85 Y0.06
X119.825 Y-0.011
X119.834 Y-0.085
X119.871 Y-0.151
X119.928 Y-0.199
X119.999 Y-0.225
X120.073 Y-0.229
X120.146 Y-0.208
X120.209 Y-0.168
X120.259 Y-0.112
X120.324 Y0.023
X120.316 Y0.173
X120.242 Y0.304
X120.123 Y0.394
X119.978 Y0.435
X119.829 Y0.423
X119.691 Y0.364
X119.579 Y0.265
X119.503 Y0.135
X119.467 Y-0.01
X119.472 Y-0.16
X119.517 Y-0.303
X119.598 Y-0.43
X119.707 Y-0.532
X119.839 Y-0.604
X119.983 Y-0.644
X120.133 Y-0.65
X120.281 Y-0.623
X120.42 Y-0.567
X120.544 Y-0.482
X120.649 Y-0.376
X120.731 Y-0.25
X120.787 Y-0.111
X120.817 Y0.036
X120.818 Y0.186
X120.792 Y0.334
X120.74 Y0.475
X120.666 Y0.605
X120.569 Y0.72
X120.456 Y0.819
X120.328 Y0.897
X120.19 Y0.955
X120.044 Y0.989
X119.894 Y1.002
X119.745 Y0.992
X119.598 Y0.96
X119.458 Y0.907
X119.326 Y0.834
X119.207 Y0.744
X119.1 Y0.638
X119.01 Y0.518
X118.936 Y0.388
X118.88 Y0.249
X118.843 Y0.104
X118.825 Y-0.045
Y-0.195
X118.845 Y-0.344
X118.883 Y-0.489
X118.939 Y-0.628
X119.011 Y-0.76
X119.098 Y-0.882
X119.199 Y-0.993
X119.313 Y-1.091
X119.437 Y-1.176
X119.57 Y-1.245
X119.709 Y-1.3
X119.854 Y-1.339
X120.002 Y-1.362
X120.152 Y-1.368
X120.302 Y-1.359
X120.45 Y-1.334
X120.594 Y-1.293
X120.734 Y-1.238
X120.866 Y-1.168
X120.992 Y-1.086
X121.108 Y-0.991
X121.214 Y-0.885
X121.309 Y-0.769
X121.392 Y-0.644
X121.462 Y-0.511
X121.52 Y-0.373
X121.564 Y-0.229
X121.594 Y-0.082
X121.61 Y0.067
X121.612 Y0.217
X121.6 Y0.366
X121.575 Y0.514
X121.536 Y0.659
X121.484 Y0.8
X121.42 Y0.936
X121.344 Y1.065
X121.258 Y1.187
X121.16 Y1.301
X121.054 Y1.407
X120.938 Y1.503
X120.815 Y1.588
X120.685 Y1.663
X120.55 Y1.727
X120.409 Y1.78
X120.265 Y1.82
X120.117 Y1.849
X119.968 Y1.865
X119.818 Y1.869
X119.668 Y1.861
X119.52 Y1.842
X119.373 Y1.81
X119.229 Y1.767
X119.089 Y1.713
X118.954 Y1.649
X118.824 Y1.574
X118.7 Y1.489
X118.583 Y1.395
X118.474 Y1.293
X118.372 Y1.182
X118.279 Y1.064
X118.195 Y0.94
X118.121 Y0.81
X118.056 Y0.675
X118.002 Y0.535
X117.957 Y0.392
X117.923 Y0.246
X117.9 Y0.097
X117.887 Y-0.052
X117.885 Y-0.202
X117.894 Y-0.352
X117.913 Y-0.502
X117.942 Y-0.649
X117.983 Y-0.796
X118.033 Y-0.938
X118.092 Y-1.076
X118.164 Y-1.215
X118.242 Y-1.343
X118.332 Y-1.471
X118.43 Y-1.592
X118.536 Y-1.704
X118.653 Y-1.813
X118.775 Y-1.912
X118.904 Y-2.002
X119.043 Y-2.085
X119.184 Y-2.157
X119.334 Y-2.221
X119.488 Y-2.274
X119.644 Y-2.316
X119.806 Y-2.348
X119.971 Y-2.369
X120.134 Y-2.378
X120.302 Y-2.375
X120.47 Y-2.361
X120.634 Y-2.336
X120.8 Y-2.299
X120.964 Y-2.25
X121.122 Y-2.19
X121.278 Y-2.119
X121.432 Y-2.035
X121.577 Y-1.942
X121.716 Y-1.839
X121.851 Y-1.724
X121.977 Y-1.601
X122.093 Y-1.47
X122.202 Y-1.329
X122.302 Y-1.178
X122.391 Y-1.022
X122.468 Y-0.861
X122.536 Y-0.692
X122.592 Y-0.517
X122.636 Y-0.339
X122.667 Y-0.159
X122.686 Y0.026
X122.692 Y0.214
X122.685 Y0.4
X122.665 Y0.586
X122.633 Y0.771
X122.586 Y0.957
X122.527 Y1.14
X122.455 Y1.318
X122.372 Y1.49
X122.276 Y1.657
X122.167 Y1.82
X122.046 Y1.975
X121.915 Y2.122
X121.774 Y2.259
X121.624 Y2.386
X121.463 Y2.504
X121.293 Y2.612
X121.115 Y2.708
X120.93 Y2.792
X120.74 Y2.863
X120.545 Y2.92
X120.346 Y2.965
X120.142 Y2.995
X119.935 Y3.012
X119.726 Y3.014
X119.516 Y3.001
X119.308 Y2.974
X119.101 Y2.933
X118.897 Y2.877
X118.697 Y2.807
X118.501 Y2.723
X118.31 Y2.625
X118.126 Y2.513
X117.948 Y2.388
X117.779 Y2.251
X117.619 Y2.101
X117.469 Y1.94
X117.33 Y1.768
X117.203 Y1.587
X117.088 Y1.396
X116.986 Y1.197
X116.898 Y0.991
X116.824 Y0.778
X116.765 Y0.559
X116.721 Y0.336
X116.692 Y0.11
X116.679 Y-0.12
X116.682 Y-0.35
X116.701 Y-0.581
X116.736 Y-0.81
X116.787 Y-1.038
X116.854 Y-1.263
X116.937 Y-1.484
X117.035 Y-1.699
X117.148 Y-1.908
X117.277 Y-2.109
X117.419 Y-2.302
X117.575 Y-2.485
X117.744 Y-2.658
X117.926 Y-2.819
X118.119 Y-2.969
X118.323 Y-3.105
X118.536 Y-3.227
X118.759 Y-3.334
X118.989 Y-3.426
X119.226 Y-3.502
X119.47 Y-3.562
X119.717 Y-3.606
X119.968 Y-3.632
X120.221 Y-3.64
X120.475 Y-3.631
X120.729 Y-3.605
X120.982 Y-3.56
X121.232 Y-3.498
X121.478 Y-3.419
X121.718 Y-3.322
X121.953 Y-3.209
X122.18 Y-3.079
X122.398 Y-2.933
X122.606 Y-2.772
X122.804 Y-2.595
X122.99 Y-2.405
X123.089 Y-2.288
X123.139 Y-2.226
X123.186 Y-2.162
X123.23 Y-2.096
X123.459 Y-1.733
X123.487 Y-1.68
X123.509 Y-1.628
X123.754 Y-0.93
X123.771 Y-0.872
X123.782 Y-0.814
X123.796 Y-0.698
X123.858 Y-0.145
X123.871 Y0
X123.858 Y0.145
X123.796 Y0.698
X123.782 Y0.814
X123.771 Y0.872
X123.754 Y0.93
X123.509 Y1.628
X123.487 Y1.68
X123.459 Y1.733
X123.086 Y2.326
X123.02 Y2.422
X122.928 Y2.517
X122.463 Y2.983
X122.415 Y3.024
X122.23 Y3.146
X121.765 Y3.439
X121.676 Y3.489
X121.532 Y3.543
X121.022 Y3.722
X120.834 Y3.779
X120.602 Y3.807
X120.136 Y3.859
X120.02 Y3.87
X119.904 Y3.864
X119.206 Y3.785
X119.092 Y3.761
X118.508 Y3.557
X118.325 Y3.489
X118.275 Y3.463
X117.81 Y3.171
X117.585 Y3.024
X117.577 Y3.018
X117.345 Y2.79
X117.112 Y2.557
X116.998 Y2.442
X116.914 Y2.326
X116.549 Y1.745
X116.516 Y1.686
X116.491 Y1.628
X116.246 Y0.93
X116.229 Y0.872
X116.218 Y0.814
X116.151 Y0.233
X116.129 Y0
X116.151 Y-0.233
X116.218 Y-0.814
X116.229 Y-0.872
X116.246 Y-0.93
X116.491 Y-1.628
X116.516 Y-1.686
X116.549 Y-1.745
X116.914 Y-2.326
X116.998 Y-2.442
X117.114 Y-2.559
X117.346 Y-2.791
X117.577 Y-3.018
X117.585 Y-3.024
X117.81 Y-3.171
X118.275 Y-3.463
X118.325 Y-3.489
X118.508 Y-3.557
X119.092 Y-3.761
X119.206 Y-3.785
X119.904 Y-3.864
X120.02 Y-3.87
X120.136 Y-3.859
X120.602 Y-3.807
X120.834 Y-3.779
X121.022 Y-3.722
X121.532 Y-3.543
X121.676 Y-3.489
X121.765 Y-3.439
X122.23 Y-3.146
X122.415 Y-3.024
X122.463 Y-2.983
X122.928 Y-2.517
X123.02 Y-2.422
X123.086 Y-2.326
X123.23 Y-2.096
G3 X123.306 Y-1.875 I-0.519 J0.301
G1 X123.319 Y-1.782 Z0.007
X123.331 Y-1.691 Z0.029
X123.342 Y-1.605 Z0.065
X123.353 Y-1.525 Z0.115
X123.363 Y-1.454 Z0.176
X123.371 Y-1.394 Z0.247
X123.377 Y-1.345 Z0.328
X123.382 Y-1.309 Z0.415
X123.385 Y-1.287 Z0.506
X123.386 Y-1.28 Z0.6
G0 Z27

(2D Contour1)
S8000 M3
M9
X63.05 Y-0.6
Z27
Z17
G1 Z13 F283.3
Z0.6
G18 G2 X63.65 Z0 I0.6
G1 X64.25 F850
G17 G3 X64.85 Y0 J0.6
X55.15 I-4.85
X64.85 I4.85
X64.25 Y0.6 I-0.6
G1 X63.65
G18 G3 X63.05 Z0.6 K0.6
G0 Z17
X83.064 Y-0.525
G1 Z13 F283.3
Z0.6
X83.071 Z0.506
X83.093 Y-0.524 Z0.415
X83.129 Y-0.523 Z0.328
X83.178 Y-0.522 Z0.247
X83.239 Y-0.521 Z0.176
X83.311 Y-0.519 Z0.115
X83.391 Y-0.517 Z0.065
X83.478 Y-0.515 Z0.029
X83.57 Y-0.513 Z0.007
X83.664 Y-0.51 Z0
X84.263 Y-0.496 F850
G17 G3 X84.849 Y0.119 I-0.015 J0.6
X75.151 Y-0.119 I-4.849 J-0.119
X84.85 Y0 I4.849 J0.119
X84.849 Y0.119 I-4.85
X84.234 Y0.704 I-0.6 J-0.015
G1 X83.634 Y0.689
X83.54 Y0.687 Z0.007
X83.449 Y0.685 Z0.029
X83.362 Y0.683 Z0.065
X83.282 Y0.681 Z0.115
X83.21 Y0.679 Z0.176
X83.149 Y0.677 Z0.247
X83.1 Y0.676 Z0.328
X83.064 Y0.675 Z0.415
X83.042 Z0.506
X83.034 Z0.6
G0 Z17
X103.1 Y-0.6
G1 Z13 F283.3
Z0.6
G18 G2 X103.7 Z0 I0.6
G1 X104.3 F850
G17 G3 X104.9 Y0 J0.6
X95.1 I-4.9
X104.9 I4.9
X104.3 Y0.6 I-0.6
G1 X103.7
G18 G3 X103.1 Z0.6 K0.6
G0 Z17
X123.1 Y-0.6
G1 Z13 F283.3
Z0.6
G2 X123.7 Z0 I0.6
G1 X124.3 F850
G17 G3 X124.9 Y0 J0.6
X115.1 I-4.9
X124.9 I4.9
X124.3 Y0.6 I-0.6
G1 X123.7
G18 G3 X123.1 Z0.6 K0.6
G0 Z17
X43 Y-0.6
G1 Z13 F283.3
Z0.6
G2 X43.6 Z0 I0.6
G1 X44.2 F850
G17 G3 X44.8 Y0 J0.6
X35.2 I-4.8
X44.8 I4.8
X44.2 Y0.6 I-0.6
G1 X43.6
G18 G3 X43 Z0.6 K0.6
G0 Z17
X23 Y-0.6
G1 Z13 F283.3
Z0.6
G2 X23.6 Z0 I0.6
G1 X24.2 F850
G17 G3 X24.8 Y0 J0.6
X15.2 I-4.8
X24.8 I4.8
X24.2 Y0.6 I-0.6
G1 X23.6
G18 G3 X23 Z0.6 K0.6
G0 Z17
X2.964 Y-0.527
G1 Z13 F283.3
Z0.6
X2.971 Z0.506
X2.993 Z0.415
X3.029 Y-0.526 Z0.328
X3.078 Y-0.525 Z0.247
X3.14 Y-0.523 Z0.176
X3.211 Y-0.521 Z0.115
X3.291 Y-0.519 Z0.065
X3.378 Y-0.517 Z0.029
X3.47 Y-0.515 Z0.007
X3.564 Y-0.513 Z0
X4.163 Y-0.498 F850
G17 G3 X4.749 Y0.117 I-0.015 J0.6
X-4.749 Y-0.117 I-4.749 J-0.117
X4.749 Y0.117 I4.749 J0.117
X4.134 Y0.702 I-0.6 J-0.015
G1 X3.534 Y0.687
X3.44 Y0.685 Z0.007
X3.349 Y0.682 Z0.029
X3.262 Y0.68 Z0.065
X3.182 Y0.678 Z0.115
X3.11 Y0.677 Z0.176
X3.049 Y0.675 Z0.247
X3 Y0.674 Z0.328
X2.964 Y0.673 Z0.415
X2.942 Y0.672 Z0.506
X2.934 Z0.6
G0 Z27
M9
M30
%
