%
(1001)
(originhole top centre)
(T1  D=5 CR=0 - ZMIN=-6 - flat end mill)
G90 G94
G17
G21

(2D Adaptive1)
M9
T1 M6
S5500 M3
G54
G0 X0.198 Y-2.367
Z15
Z5
Z2.5
G3 X-0.198 Y2.367 Z2.239 I-0.198 J2.367 F333.3
X0.198 Y-2.367 Z1.979 I0.198 J-2.367
X-0.198 Y2.367 Z1.718 I-0.198 J2.367
X0.198 Y-2.367 Z1.458 I0.198 J-2.367
X-0.198 Y2.367 Z1.197 I-0.198 J2.367
X0.198 Y-2.367 Z0.937 I0.198 J-2.367
X-0.198 Y2.367 Z0.676 I-0.198 J2.367
X0.198 Y-2.367 Z0.416 I0.198 J-2.367
X-0.198 Y2.367 Z0.155 I-0.198 J2.367
X0.198 Y-2.367 Z-0.106 I0.198 J-2.367
X-0.198 Y2.367 Z-0.366 I-0.198 J2.367
X0.198 Y-2.367 Z-0.627 I0.198 J-2.367
X2.375 Y0 Z-0.75 I-0.198 J2.367
X-2.375 I-2.375
X2.375 I2.375
G1 X2.386 Y0.643 F850
X2.384 Y0.793
X2.362 Y0.941
X2.325 Y1.086
X2.274 Y1.228
X2.212 Y1.364
X2.139 Y1.496
X2.058 Y1.621
X1.968 Y1.741
X1.87 Y1.855
X1.765 Y1.962
X1.653 Y2.062
X1.536 Y2.155
X1.413 Y2.241
X1.285 Y2.32
X1.152 Y2.39
X1.016 Y2.453
X0.876 Y2.508
X0.734 Y2.554
X0.589 Y2.593
X0.442 Y2.622
X0.293 Y2.644
X0.144 Y2.657
X-0.006 Y2.661
X-0.156 Y2.657
X-0.305 Y2.644
X-0.454 Y2.623
X-0.601 Y2.593
X-0.746 Y2.556
X-0.889 Y2.51
X-1.029 Y2.456
X-1.166 Y2.394
X-1.299 Y2.325
X-1.428 Y2.248
X-1.552 Y2.164
X-1.671 Y2.073
X-1.785 Y1.976
X-1.894 Y1.872
X-1.996 Y1.763
X-2.092 Y1.647
X-2.182 Y1.527
X-2.264 Y1.402
X-2.34 Y1.272
X-2.408 Y1.138
X-2.468 Y1.001
X-2.52 Y0.86
X-2.565 Y0.717
X-2.601 Y0.572
X-2.629 Y0.424
X-2.649 Y0.276
X-2.66 Y0.126
X-2.663 Y-0.024
X-2.657 Y-0.174
X-2.643 Y-0.323
X-2.621 Y-0.472
X-2.59 Y-0.618
X-2.551 Y-0.763
X-2.504 Y-0.906
X-2.449 Y-1.045
X-2.387 Y-1.182
X-2.316 Y-1.314
X-2.239 Y-1.442
X-2.154 Y-1.566
X-2.062 Y-1.685
X-1.964 Y-1.798
X-1.86 Y-1.906
X-1.75 Y-2.008
X-1.634 Y-2.103
X-1.513 Y-2.192
X-1.387 Y-2.273
X-1.257 Y-2.348
X-1.123 Y-2.415
X-0.985 Y-2.474
X-0.844 Y-2.526
X-0.7 Y-2.569
X-0.555 Y-2.605
X-0.407 Y-2.632
X-0.258 Y-2.651
X-0.109 Y-2.661
X0.041 Y-2.663
X0.191 Y-2.656
X0.34 Y-2.641
X0.489 Y-2.618
X0.635 Y-2.586
X0.78 Y-2.546
X0.922 Y-2.498
X1.061 Y-2.443
X1.197 Y-2.379
X1.329 Y-2.308
X1.457 Y-2.229
X1.58 Y-2.144
X1.698 Y-2.051
X1.811 Y-1.952
X1.918 Y-1.847
X2.019 Y-1.737
X2.114 Y-1.62
X2.202 Y-1.498
X2.282 Y-1.372
X2.356 Y-1.241
X2.422 Y-1.107
X2.481 Y-0.969
X2.531 Y-0.828
X2.574 Y-0.684
X2.611 Y-0.538
X2.647 Y-0.374
X2.676 Y-0.213
X2.699 Y-0.065
X2.715 Y0.085
X2.725 Y0.234
X2.727 Y0.384
X2.721 Y0.534
X2.707 Y0.683
X2.684 Y0.832
X2.652 Y0.978
X2.611 Y1.122
X2.561 Y1.264
X2.502 Y1.402
X2.435 Y1.536
X2.361 Y1.666
X2.278 Y1.792
X2.189 Y1.912
X2.093 Y2.027
X1.99 Y2.137
X1.882 Y2.24
X1.767 Y2.338
X1.648 Y2.428
X1.524 Y2.512
X1.395 Y2.59
X1.263 Y2.66
X1.127 Y2.723
X0.987 Y2.779
X0.845 Y2.827
X0.701 Y2.868
X0.555 Y2.901
X0.407 Y2.927
X0.258 Y2.945
X0.108 Y2.955
X-0.042 Y2.958
X-0.191 Y2.952
X-0.341 Y2.939
X-0.489 Y2.919
X-0.637 Y2.891
X-0.783 Y2.855
X-0.926 Y2.812
X-1.068 Y2.762
X-1.206 Y2.705
X-1.342 Y2.64
X-1.474 Y2.569
X-1.602 Y2.491
X-1.726 Y2.407
X-1.846 Y2.317
X-1.961 Y2.22
X-2.071 Y2.118
X-2.175 Y2.011
X-2.275 Y1.898
X-2.368 Y1.781
X-2.455 Y1.659
X-2.536 Y1.532
X-2.61 Y1.402
X-2.678 Y1.268
X-2.738 Y1.131
X-2.792 Y0.991
X-2.839 Y0.848
X-2.878 Y0.704
X-2.91 Y0.557
X-2.935 Y0.409
X-2.952 Y0.26
X-2.961 Y0.11
X-2.963 Y-0.04
X-2.957 Y-0.189
X-2.943 Y-0.339
X-2.922 Y-0.487
X-2.894 Y-0.635
X-2.858 Y-0.78
X-2.815 Y-0.924
X-2.765 Y-1.065
X-2.708 Y-1.204
X-2.643 Y-1.339
X-2.572 Y-1.471
X-2.494 Y-1.6
X-2.41 Y-1.724
X-2.319 Y-1.843
X-2.223 Y-1.959
X-2.121 Y-2.069
X-2.014 Y-2.173
X-1.901 Y-2.273
X-1.784 Y-2.366
X-1.662 Y-2.453
X-1.536 Y-2.534
X-1.405 Y-2.608
X-1.272 Y-2.676
X-1.135 Y-2.737
X-0.995 Y-2.791
X-0.852 Y-2.838
X-0.707 Y-2.877
X-0.561 Y-2.91
X-0.413 Y-2.934
X-0.264 Y-2.951
X-0.114 Y-2.961
X0.036 Y-2.963
X0.186 Y-2.957
X0.335 Y-2.944
X0.484 Y-2.923
X0.631 Y-2.895
X0.777 Y-2.859
X0.92 Y-2.817
X1.062 Y-2.766
X1.2 Y-2.709
X1.336 Y-2.645
X1.468 Y-2.574
X1.596 Y-2.496
X1.721 Y-2.412
X1.841 Y-2.322
X1.956 Y-2.226
X2.066 Y-2.124
X2.171 Y-2.017
X2.27 Y-1.904
X2.364 Y-1.787
X2.451 Y-1.665
X2.532 Y-1.539
X2.607 Y-1.409
X2.675 Y-1.275
X2.738 Y-1.139
X2.795 Y-1
X2.847 Y-0.86
X2.893 Y-0.717
X2.934 Y-0.573
X2.969 Y-0.427
X2.997 Y-0.279
X3.019 Y-0.131
X3.035 Y0.018
X3.044 Y0.168
X3.045 Y0.318
X3.04 Y0.468
X3.027 Y0.617
X3.007 Y0.766
X2.979 Y0.913
X2.943 Y1.059
X2.9 Y1.203
X2.85 Y1.344
X2.793 Y1.483
X2.728 Y1.618
X2.657 Y1.75
X2.579 Y1.878
X2.494 Y2.002
X2.403 Y2.121
X2.323 Y2.212
X2.251 Y2.286
X2.174 Y2.357
X2.017 Y2.497
X2.009 Y2.504
X1.953 Y2.551
X1.807 Y2.662
X1.769 Y2.688
X1.731 Y2.712
X1.691 Y2.734
G3 X1.183 Y1.877 I-0.217 J-0.451
G1 X1.326 Y1.774
G3 X1.953 Y2.551 I0.291 J0.406
G1 X1.825 Y2.659
X1.762 Y2.696
X1.315 Y2.931
X1.278 Y2.95
X1.249 Y2.966
X1.107 Y3.026
G3 X0.398 Y2.681 I-0.154 J-0.584
X1.503 Y2.205 I0.553 J-0.238
X1.249 Y2.966 I-0.553 J0.238
G1 X1.153 Y3.013
X1.057 Y3.042
X0.567 Y3.163
X0.48 Y3.184
X0.384 Y3.202
X0.288 Y3.206
X-0.288
X-0.384 Y3.202
X-0.48 Y3.184
X-1.057 Y3.042
X-1.153 Y3.013
X-1.249 Y2.966
X-1.762 Y2.696
X-1.825 Y2.659
X-2.017 Y2.497
X-2.279 Y2.263
X-2.316 Y2.23
X-2.423 Y2.124
X-2.448 Y2.095
X-2.459 Y2.079
G3 X-1.707 Y1.434 I0.42 J-0.272
G1 X-1.663 Y1.474
G3 X-2.316 Y2.23 I-0.332 J0.373
G1 X-2.401 Y2.154
X-2.432 Y2.118
X-2.593 Y1.887
X-2.747 Y1.665
X-2.768 Y1.634
X-2.785 Y1.609
X-2.868 Y1.473
G3 X-2.598 Y0.643 I0.62 J-0.258
X-1.904 Y1.78 I0.347 J0.569
X-2.785 Y1.609 I-0.347 J-0.569
G1 X-2.832 Y1.541
X-2.859 Y1.492
X-2.881 Y1.444
X-3.064 Y0.963
X-3.085 Y0.905
X-3.099 Y0.864
X-3.137 Y0.738
G3 X-2.777 Y0.196 I0.508 J-0.053
X-2.486 Y1.16 I0.145 J0.482
X-3.099 Y0.864 I-0.145 J-0.482
G1 X-3.133 Y0.77
X-3.16 Y0.578
X-3.206 Y0.193
X-3.212 Y0.134
X-3.217 Y0.094
X-3.223 Y-0.031
G3 X-2.769 Y-0.448 I0.479 J0.066
X-2.719 Y0.505 I0.025 J0.476
X-3.217 Y0.094 I-0.025 J-0.476
G1 X-3.226 Y0
X-3.206 Y-0.193
X-3.16 Y-0.578
X-3.152 Y-0.636
X-3.146 Y-0.677
X-3.128 Y-0.758
X-3.106 Y-0.838
X-3.08 Y-0.917
G3 X-2.137 Y-0.586 I0.465 J0.185
G1 X-2.17 Y-0.479
G3 X-3.146 Y-0.677 I-0.478 J-0.146
G1 X-3.133 Y-0.77
X-3.064 Y-0.963
X-2.918 Y-1.348
X-2.907 Y-1.377
X-2.893 Y-1.414
X-2.855 Y-1.499
G3 X-2.313 Y-1.669 I0.369 J0.226
X-2.658 Y-0.882 I-0.172 J0.394
X-2.893 Y-1.414 I0.172 J-0.394
G1 X-2.881 Y-1.444
X-2.859 Y-1.492
X-2.832 Y-1.541
X-2.526 Y-1.984
X-2.497 Y-2.025
X-2.478 Y-2.053
X-2.421 Y-2.122
X-2.36 Y-2.187
X-2.295 Y-2.249
G3 X-1.619 Y-1.514 I0.321 J0.383
G1 X-1.703 Y-1.429
G3 X-2.478 Y-2.053 I-0.355 J-0.352
G1 X-2.432 Y-2.118
X-2.401 Y-2.154
X-2.209 Y-2.326
X-2.009 Y-2.504
X-1.908 Y-2.589
X-1.883 Y-2.61
X-1.818 Y-2.657
X-1.751 Y-2.7
X-1.681 Y-2.739
G3 X-1.212 Y-1.857 I0.217 J0.451
G1 X-1.294 Y-1.808
G3 X-1.883 Y-2.61 I-0.253 J-0.431
G1 X-1.825 Y-2.659
X-1.762 Y-2.696
X-1.315 Y-2.931
X-1.249 Y-2.966
X-1.153 Y-3.013
X-1.057 Y-3.042
X-0.48 Y-3.184
X-0.384 Y-3.202
X-0.288 Y-3.206
X0.288
X0.384 Y-3.202
X0.48 Y-3.184
X1.057 Y-3.042
X1.153 Y-3.013
X1.249 Y-2.966
X1.762 Y-2.696
X1.825 Y-2.659
X2.017 Y-2.497
X2.279 Y-2.263
X2.316 Y-2.23
X2.423 Y-2.124
X2.448 Y-2.095
X2.459 Y-2.08
G3 X1.708 Y-1.434 I-0.42 J0.272
G1 X1.663 Y-1.473
G3 X2.316 Y-2.23 I0.332 J-0.374
G1 X2.401 Y-2.154
X2.432 Y-2.118
X2.593 Y-1.887
X2.785 Y-1.609
X2.832 Y-1.541
X2.859 Y-1.492
X2.881 Y-1.444
X3.064 Y-0.963
X3.133 Y-0.77
X3.16 Y-0.578
X3.206 Y-0.193
X3.226 Y0
X3.206 Y0.193
X3.16 Y0.578
X3.133 Y0.77
X3.064 Y0.963
X2.881 Y1.444
X2.859 Y1.492
X2.832 Y1.541
X2.567 Y1.926
X2.432 Y2.118
X2.401 Y2.154
X2.174 Y2.357
G3 X1.916 Y2.468 I-0.318 J-0.386
G1 X1.856 Y2.471 Z-0.746
X1.789 Y2.458 Z-0.733
X1.724 Y2.445 Z-0.71
X1.662 Y2.432 Z-0.678
X1.611 Y2.398 Z-0.633
X1.566 Y2.367 Z-0.58
X1.529 Y2.341 Z-0.519
X1.499 Y2.321 Z-0.451
X1.483 Y2.304 Z-0.386
X1.474 Y2.293 Z-0.319
X1.471 Y2.29 Z-0.25
G0 Z5
X0.198 Y-2.367
Z1.75
G3 X-0.198 Y2.367 Z1.489 I-0.198 J2.367 F333.3
X0.198 Y-2.367 Z1.229 I0.198 J-2.367
X-0.198 Y2.367 Z0.968 I-0.198 J2.367
X0.198 Y-2.367 Z0.708 I0.198 J-2.367
X-0.198 Y2.367 Z0.447 I-0.198 J2.367
X0.198 Y-2.367 Z0.187 I0.198 J-2.367
X-0.198 Y2.367 Z-0.074 I-0.198 J2.367
X0.198 Y-2.367 Z-0.334 I0.198 J-2.367
X-0.198 Y2.367 Z-0.595 I-0.198 J2.367
X0.198 Y-2.367 Z-0.856 I0.198 J-2.367
X-0.198 Y2.367 Z-1.116 I-0.198 J2.367
X0.198 Y-2.367 Z-1.377 I0.198 J-2.367
X2.375 Y0 Z-1.5 I-0.198 J2.367
X-2.375 I-2.375
X2.375 I2.375
G1 X2.386 Y0.643 F850
X2.384 Y0.793
X2.362 Y0.941
X2.325 Y1.086
X2.274 Y1.228
X2.212 Y1.364
X2.139 Y1.496
X2.058 Y1.621
X1.968 Y1.741
X1.87 Y1.855
X1.765 Y1.962
X1.653 Y2.062
X1.536 Y2.155
X1.413 Y2.241
X1.285 Y2.32
X1.152 Y2.39
X1.016 Y2.453
X0.876 Y2.508
X0.734 Y2.554
X0.589 Y2.593
X0.442 Y2.622
X0.293 Y2.644
X0.144 Y2.657
X-0.006 Y2.661
X-0.156 Y2.657
X-0.305 Y2.644
X-0.454 Y2.623
X-0.601 Y2.593
X-0.746 Y2.556
X-0.889 Y2.51
X-1.029 Y2.456
X-1.166 Y2.394
X-1.299 Y2.325
X-1.428 Y2.248
X-1.552 Y2.164
X-1.671 Y2.073
X-1.785 Y1.976
X-1.894 Y1.872
X-1.996 Y1.763
X-2.092 Y1.647
X-2.182 Y1.527
X-2.264 Y1.402
X-2.34 Y1.272
X-2.408 Y1.138
X-2.468 Y1.001
X-2.52 Y0.86
X-2.565 Y0.717
X-2.601 Y0.572
X-2.629 Y0.424
X-2.649 Y0.276
X-2.66 Y0.126
X-2.663 Y-0.024
X-2.657 Y-0.174
X-2.643 Y-0.323
X-2.621 Y-0.472
X-2.59 Y-0.618
X-2.551 Y-0.763
X-2.504 Y-0.906
X-2.449 Y-1.045
X-2.387 Y-1.182
X-2.316 Y-1.314
X-2.239 Y-1.442
X-2.154 Y-1.566
X-2.062 Y-1.685
X-1.964 Y-1.798
X-1.86 Y-1.906
X-1.75 Y-2.008
X-1.634 Y-2.103
X-1.513 Y-2.192
X-1.387 Y-2.273
X-1.257 Y-2.348
X-1.123 Y-2.415
X-0.985 Y-2.474
X-0.844 Y-2.526
X-0.7 Y-2.569
X-0.555 Y-2.605
X-0.407 Y-2.632
X-0.258 Y-2.651
X-0.109 Y-2.661
X0.041 Y-2.663
X0.191 Y-2.656
X0.34 Y-2.641
X0.489 Y-2.618
X0.635 Y-2.586
X0.78 Y-2.546
X0.922 Y-2.498
X1.061 Y-2.443
X1.197 Y-2.379
X1.329 Y-2.308
X1.457 Y-2.229
X1.58 Y-2.144
X1.698 Y-2.051
X1.811 Y-1.952
X1.918 Y-1.847
X2.019 Y-1.737
X2.114 Y-1.62
X2.202 Y-1.498
X2.282 Y-1.372
X2.356 Y-1.241
X2.422 Y-1.107
X2.481 Y-0.969
X2.531 Y-0.828
X2.574 Y-0.684
X2.611 Y-0.538
X2.647 Y-0.374
X2.676 Y-0.213
X2.699 Y-0.065
X2.715 Y0.085
X2.725 Y0.234
X2.727 Y0.384
X2.721 Y0.534
X2.707 Y0.683
X2.684 Y0.832
X2.652 Y0.978
X2.611 Y1.122
X2.561 Y1.264
X2.502 Y1.402
X2.435 Y1.536
X2.361 Y1.666
X2.278 Y1.792
X2.189 Y1.912
X2.093 Y2.027
X1.99 Y2.137
X1.882 Y2.24
X1.767 Y2.338
X1.648 Y2.428
X1.524 Y2.512
X1.395 Y2.59
X1.263 Y2.66
X1.127 Y2.723
X0.987 Y2.779
X0.845 Y2.827
X0.701 Y2.868
X0.555 Y2.901
X0.407 Y2.927
X0.258 Y2.945
X0.108 Y2.955
X-0.042 Y2.958
X-0.191 Y2.952
X-0.341 Y2.939
X-0.489 Y2.919
X-0.637 Y2.891
X-0.783 Y2.855
X-0.926 Y2.812
X-1.068 Y2.762
X-1.206 Y2.705
X-1.342 Y2.64
X-1.474 Y2.569
X-1.602 Y2.491
X-1.726 Y2.407
X-1.846 Y2.317
X-1.961 Y2.22
X-2.071 Y2.118
X-2.175 Y2.011
X-2.275 Y1.898
X-2.368 Y1.781
X-2.455 Y1.659
X-2.536 Y1.532
X-2.61 Y1.402
X-2.678 Y1.268
X-2.738 Y1.131
X-2.792 Y0.991
X-2.839 Y0.848
X-2.878 Y0.704
X-2.91 Y0.557
X-2.935 Y0.409
X-2.952 Y0.26
X-2.961 Y0.11
X-2.963 Y-0.04
X-2.957 Y-0.189
X-2.943 Y-0.339
X-2.922 Y-0.487
X-2.894 Y-0.635
X-2.858 Y-0.78
X-2.815 Y-0.924
X-2.765 Y-1.065
X-2.708 Y-1.204
X-2.643 Y-1.339
X-2.572 Y-1.471
X-2.494 Y-1.6
X-2.41 Y-1.724
X-2.319 Y-1.843
X-2.223 Y-1.959
X-2.121 Y-2.069
X-2.014 Y-2.173
X-1.901 Y-2.273
X-1.784 Y-2.366
X-1.662 Y-2.453
X-1.536 Y-2.534
X-1.405 Y-2.608
X-1.272 Y-2.676
X-1.135 Y-2.737
X-0.995 Y-2.791
X-0.852 Y-2.838
X-0.707 Y-2.877
X-0.561 Y-2.91
X-0.413 Y-2.934
X-0.264 Y-2.951
X-0.114 Y-2.961
X0.036 Y-2.963
X0.186 Y-2.957
X0.335 Y-2.944
X0.484 Y-2.923
X0.631 Y-2.895
X0.777 Y-2.859
X0.92 Y-2.817
X1.062 Y-2.766
X1.2 Y-2.709
X1.336 Y-2.645
X1.468 Y-2.574
X1.596 Y-2.496
X1.721 Y-2.412
X1.841 Y-2.322
X1.956 Y-2.226
X2.066 Y-2.124
X2.171 Y-2.017
X2.27 Y-1.904
X2.364 Y-1.787
X2.451 Y-1.665
X2.532 Y-1.539
X2.607 Y-1.409
X2.675 Y-1.275
X2.738 Y-1.139
X2.795 Y-1
X2.847 Y-0.86
X2.893 Y-0.717
X2.934 Y-0.573
X2.969 Y-0.427
X2.997 Y-0.279
X3.019 Y-0.131
X3.035 Y0.018
X3.044 Y0.168
X3.045 Y0.318
X3.04 Y0.468
X3.027 Y0.617
X3.007 Y0.766
X2.979 Y0.913
X2.943 Y1.059
X2.9 Y1.203
X2.85 Y1.344
X2.793 Y1.483
X2.728 Y1.618
X2.657 Y1.75
X2.579 Y1.878
X2.494 Y2.002
X2.403 Y2.121
X2.323 Y2.212
X2.251 Y2.286
X2.174 Y2.357
X2.017 Y2.497
X2.009 Y2.504
X1.953 Y2.551
X1.807 Y2.662
X1.769 Y2.688
X1.731 Y2.712
X1.691 Y2.734
G3 X1.183 Y1.877 I-0.217 J-0.451
G1 X1.326 Y1.774
G3 X1.953 Y2.551 I0.291 J0.406
G1 X1.825 Y2.659
X1.762 Y2.696
X1.315 Y2.931
X1.278 Y2.95
X1.249 Y2.966
X1.107 Y3.026
G3 X0.398 Y2.681 I-0.154 J-0.584
X1.503 Y2.205 I0.553 J-0.238
X1.249 Y2.966 I-0.553 J0.238
G1 X1.153 Y3.013
X1.057 Y3.042
X0.567 Y3.163
X0.48 Y3.184
X0.384 Y3.202
X0.288 Y3.206
X-0.288
X-0.384 Y3.202
X-0.48 Y3.184
X-1.057 Y3.042
X-1.153 Y3.013
X-1.249 Y2.966
X-1.762 Y2.696
X-1.825 Y2.659
X-2.017 Y2.497
X-2.279 Y2.263
X-2.316 Y2.23
X-2.423 Y2.124
X-2.448 Y2.095
X-2.459 Y2.079
G3 X-1.707 Y1.434 I0.42 J-0.272
G1 X-1.663 Y1.474
G3 X-2.316 Y2.23 I-0.332 J0.373
G1 X-2.401 Y2.154
X-2.432 Y2.118
X-2.593 Y1.887
X-2.747 Y1.665
X-2.768 Y1.634
X-2.785 Y1.609
X-2.868 Y1.473
G3 X-2.598 Y0.643 I0.62 J-0.258
X-1.904 Y1.78 I0.347 J0.569
X-2.785 Y1.609 I-0.347 J-0.569
G1 X-2.832 Y1.541
X-2.859 Y1.492
X-2.881 Y1.444
X-3.064 Y0.963
X-3.085 Y0.905
X-3.099 Y0.864
X-3.137 Y0.738
G3 X-2.777 Y0.196 I0.508 J-0.053
X-2.486 Y1.16 I0.145 J0.482
X-3.099 Y0.864 I-0.145 J-0.482
G1 X-3.133 Y0.77
X-3.16 Y0.578
X-3.206 Y0.193
X-3.212 Y0.134
X-3.217 Y0.094
X-3.223 Y-0.031
G3 X-2.769 Y-0.448 I0.479 J0.066
X-2.719 Y0.505 I0.025 J0.476
X-3.217 Y0.094 I-0.025 J-0.476
G1 X-3.226 Y0
X-3.206 Y-0.193
X-3.16 Y-0.578
X-3.152 Y-0.636
X-3.146 Y-0.677
X-3.128 Y-0.758
X-3.106 Y-0.838
X-3.08 Y-0.917
G3 X-2.137 Y-0.586 I0.465 J0.185
G1 X-2.17 Y-0.479
G3 X-3.146 Y-0.677 I-0.478 J-0.146
G1 X-3.133 Y-0.77
X-3.064 Y-0.963
X-2.918 Y-1.348
X-2.907 Y-1.377
X-2.893 Y-1.414
X-2.855 Y-1.499
G3 X-2.313 Y-1.669 I0.369 J0.226
X-2.658 Y-0.882 I-0.172 J0.394
X-2.893 Y-1.414 I0.172 J-0.394
G1 X-2.881 Y-1.444
X-2.859 Y-1.492
X-2.832 Y-1.541
X-2.526 Y-1.984
X-2.497 Y-2.025
X-2.478 Y-2.053
X-2.421 Y-2.122
X-2.36 Y-2.187
X-2.295 Y-2.249
G3 X-1.619 Y-1.514 I0.321 J0.383
G1 X-1.703 Y-1.429
G3 X-2.478 Y-2.053 I-0.355 J-0.352
G1 X-2.432 Y-2.118
X-2.401 Y-2.154
X-2.209 Y-2.326
X-2.009 Y-2.504
X-1.908 Y-2.589
X-1.883 Y-2.61
X-1.818 Y-2.657
X-1.751 Y-2.7
X-1.681 Y-2.739
G3 X-1.212 Y-1.857 I0.217 J0.451
G1 X-1.294 Y-1.808
G3 X-1.883 Y-2.61 I-0.253 J-0.431
G1 X-1.825 Y-2.659
X-1.762 Y-2.696
X-1.315 Y-2.931
X-1.249 Y-2.966
X-1.153 Y-3.013
X-1.057 Y-3.042
X-0.48 Y-3.184
X-0.384 Y-3.202
X-0.288 Y-3.206
X0.288
X0.384 Y-3.202
X0.48 Y-3.184
X1.057 Y-3.042
X1.153 Y-3.013
X1.249 Y-2.966
X1.762 Y-2.696
X1.825 Y-2.659
X2.017 Y-2.497
X2.279 Y-2.263
X2.316 Y-2.23
X2.423 Y-2.124
X2.448 Y-2.095
X2.459 Y-2.08
G3 X1.708 Y-1.434 I-0.42 J0.272
G1 X1.663 Y-1.473
G3 X2.316 Y-2.23 I0.332 J-0.374
G1 X2.401 Y-2.154
X2.432 Y-2.118
X2.593 Y-1.887
X2.785 Y-1.609
X2.832 Y-1.541
X2.859 Y-1.492
X2.881 Y-1.444
X3.064 Y-0.963
X3.133 Y-0.77
X3.16 Y-0.578
X3.206 Y-0.193
X3.226 Y0
X3.206 Y0.193
X3.16 Y0.578
X3.133 Y0.77
X3.064 Y0.963
X2.881 Y1.444
X2.859 Y1.492
X2.832 Y1.541
X2.567 Y1.926
X2.432 Y2.118
X2.401 Y2.154
X2.174 Y2.357
G3 X1.916 Y2.468 I-0.318 J-0.386
G1 X1.856 Y2.471 Z-1.496
X1.789 Y2.458 Z-1.483
X1.724 Y2.445 Z-1.46
X1.662 Y2.432 Z-1.428
X1.611 Y2.398 Z-1.383
X1.566 Y2.367 Z-1.33
X1.529 Y2.341 Z-1.269
X1.499 Y2.321 Z-1.201
X1.483 Y2.304 Z-1.136
X1.474 Y2.293 Z-1.069
X1.471 Y2.29 Z-1
G0 Z5
X0.198 Y-2.367
Z1
G3 X-0.198 Y2.367 Z0.739 I-0.198 J2.367 F333.3
X0.198 Y-2.367 Z0.479 I0.198 J-2.367
X-0.198 Y2.367 Z0.218 I-0.198 J2.367
X0.198 Y-2.367 Z-0.042 I0.198 J-2.367
X-0.198 Y2.367 Z-0.303 I-0.198 J2.367
X0.198 Y-2.367 Z-0.563 I0.198 J-2.367
X-0.198 Y2.367 Z-0.824 I-0.198 J2.367
X0.198 Y-2.367 Z-1.084 I0.198 J-2.367
X-0.198 Y2.367 Z-1.345 I-0.198 J2.367
X0.198 Y-2.367 Z-1.606 I0.198 J-2.367
X-0.198 Y2.367 Z-1.866 I-0.198 J2.367
X0.198 Y-2.367 Z-2.127 I0.198 J-2.367
X2.375 Y0 Z-2.25 I-0.198 J2.367
X-2.375 I-2.375
X2.375 I2.375
G1 X2.386 Y0.643 F850
X2.384 Y0.793
X2.362 Y0.941
X2.325 Y1.086
X2.274 Y1.228
X2.212 Y1.364
X2.139 Y1.496
X2.058 Y1.621
X1.968 Y1.741
X1.87 Y1.855
X1.765 Y1.962
X1.653 Y2.062
X1.536 Y2.155
X1.413 Y2.241
X1.285 Y2.32
X1.152 Y2.39
X1.016 Y2.453
X0.876 Y2.508
X0.734 Y2.554
X0.589 Y2.593
X0.442 Y2.622
X0.293 Y2.644
X0.144 Y2.657
X-0.006 Y2.661
X-0.156 Y2.657
X-0.305 Y2.644
X-0.454 Y2.623
X-0.601 Y2.593
X-0.746 Y2.556
X-0.889 Y2.51
X-1.029 Y2.456
X-1.166 Y2.394
X-1.299 Y2.325
X-1.428 Y2.248
X-1.552 Y2.164
X-1.671 Y2.073
X-1.785 Y1.976
X-1.894 Y1.872
X-1.996 Y1.763
X-2.092 Y1.647
X-2.182 Y1.527
X-2.264 Y1.402
X-2.34 Y1.272
X-2.408 Y1.138
X-2.468 Y1.001
X-2.52 Y0.86
X-2.565 Y0.717
X-2.601 Y0.572
X-2.629 Y0.424
X-2.649 Y0.276
X-2.66 Y0.126
X-2.663 Y-0.024
X-2.657 Y-0.174
X-2.643 Y-0.323
X-2.621 Y-0.472
X-2.59 Y-0.618
X-2.551 Y-0.763
X-2.504 Y-0.906
X-2.449 Y-1.045
X-2.387 Y-1.182
X-2.316 Y-1.314
X-2.239 Y-1.442
X-2.154 Y-1.566
X-2.062 Y-1.685
X-1.964 Y-1.798
X-1.86 Y-1.906
X-1.75 Y-2.008
X-1.634 Y-2.103
X-1.513 Y-2.192
X-1.387 Y-2.273
X-1.257 Y-2.348
X-1.123 Y-2.415
X-0.985 Y-2.474
X-0.844 Y-2.526
X-0.7 Y-2.569
X-0.555 Y-2.605
X-0.407 Y-2.632
X-0.258 Y-2.651
X-0.109 Y-2.661
X0.041 Y-2.663
X0.191 Y-2.656
X0.34 Y-2.641
X0.489 Y-2.618
X0.635 Y-2.586
X0.78 Y-2.546
X0.922 Y-2.498
X1.061 Y-2.443
X1.197 Y-2.379
X1.329 Y-2.308
X1.457 Y-2.229
X1.58 Y-2.144
X1.698 Y-2.051
X1.811 Y-1.952
X1.918 Y-1.847
X2.019 Y-1.737
X2.114 Y-1.62
X2.202 Y-1.498
X2.282 Y-1.372
X2.356 Y-1.241
X2.422 Y-1.107
X2.481 Y-0.969
X2.531 Y-0.828
X2.574 Y-0.684
X2.611 Y-0.538
X2.647 Y-0.374
X2.676 Y-0.213
X2.699 Y-0.065
X2.715 Y0.085
X2.725 Y0.234
X2.727 Y0.384
X2.721 Y0.534
X2.707 Y0.683
X2.684 Y0.832
X2.652 Y0.978
X2.611 Y1.122
X2.561 Y1.264
X2.502 Y1.402
X2.435 Y1.536
X2.361 Y1.666
X2.278 Y1.792
X2.189 Y1.912
X2.093 Y2.027
X1.99 Y2.137
X1.882 Y2.24
X1.767 Y2.338
X1.648 Y2.428
X1.524 Y2.512
X1.395 Y2.59
X1.263 Y2.66
X1.127 Y2.723
X0.987 Y2.779
X0.845 Y2.827
X0.701 Y2.868
X0.555 Y2.901
X0.407 Y2.927
X0.258 Y2.945
X0.108 Y2.955
X-0.042 Y2.958
X-0.191 Y2.952
X-0.341 Y2.939
X-0.489 Y2.919
X-0.637 Y2.891
X-0.783 Y2.855
X-0.926 Y2.812
X-1.068 Y2.762
X-1.206 Y2.705
X-1.342 Y2.64
X-1.474 Y2.569
X-1.602 Y2.491
X-1.726 Y2.407
X-1.846 Y2.317
X-1.961 Y2.22
X-2.071 Y2.118
X-2.175 Y2.011
X-2.275 Y1.898
X-2.368 Y1.781
X-2.455 Y1.659
X-2.536 Y1.532
X-2.61 Y1.402
X-2.678 Y1.268
X-2.738 Y1.131
X-2.792 Y0.991
X-2.839 Y0.848
X-2.878 Y0.704
X-2.91 Y0.557
X-2.935 Y0.409
X-2.952 Y0.26
X-2.961 Y0.11
X-2.963 Y-0.04
X-2.957 Y-0.189
X-2.943 Y-0.339
X-2.922 Y-0.487
X-2.894 Y-0.635
X-2.858 Y-0.78
X-2.815 Y-0.924
X-2.765 Y-1.065
X-2.708 Y-1.204
X-2.643 Y-1.339
X-2.572 Y-1.471
X-2.494 Y-1.6
X-2.41 Y-1.724
X-2.319 Y-1.843
X-2.223 Y-1.959
X-2.121 Y-2.069
X-2.014 Y-2.173
X-1.901 Y-2.273
X-1.784 Y-2.366
X-1.662 Y-2.453
X-1.536 Y-2.534
X-1.405 Y-2.608
X-1.272 Y-2.676
X-1.135 Y-2.737
X-0.995 Y-2.791
X-0.852 Y-2.838
X-0.707 Y-2.877
X-0.561 Y-2.91
X-0.413 Y-2.934
X-0.264 Y-2.951
X-0.114 Y-2.961
X0.036 Y-2.963
X0.186 Y-2.957
X0.335 Y-2.944
X0.484 Y-2.923
X0.631 Y-2.895
X0.777 Y-2.859
X0.92 Y-2.817
X1.062 Y-2.766
X1.2 Y-2.709
X1.336 Y-2.645
X1.468 Y-2.574
X1.596 Y-2.496
X1.721 Y-2.412
X1.841 Y-2.322
X1.956 Y-2.226
X2.066 Y-2.124
X2.171 Y-2.017
X2.27 Y-1.904
X2.364 Y-1.787
X2.451 Y-1.665
X2.532 Y-1.539
X2.607 Y-1.409
X2.675 Y-1.275
X2.738 Y-1.139
X2.795 Y-1
X2.847 Y-0.86
X2.893 Y-0.717
X2.934 Y-0.573
X2.969 Y-0.427
X2.997 Y-0.279
X3.019 Y-0.131
X3.035 Y0.018
X3.044 Y0.168
X3.045 Y0.318
X3.04 Y0.468
X3.027 Y0.617
X3.007 Y0.766
X2.979 Y0.913
X2.943 Y1.059
X2.9 Y1.203
X2.85 Y1.344
X2.793 Y1.483
X2.728 Y1.618
X2.657 Y1.75
X2.579 Y1.878
X2.494 Y2.002
X2.403 Y2.121
X2.323 Y2.212
X2.251 Y2.286
X2.174 Y2.357
X2.017 Y2.497
X2.009 Y2.504
X1.953 Y2.551
X1.807 Y2.662
X1.769 Y2.688
X1.731 Y2.712
X1.691 Y2.734
G3 X1.183 Y1.877 I-0.217 J-0.451
G1 X1.326 Y1.774
G3 X1.953 Y2.551 I0.291 J0.406
G1 X1.825 Y2.659
X1.762 Y2.696
X1.315 Y2.931
X1.278 Y2.95
X1.249 Y2.966
X1.107 Y3.026
G3 X0.398 Y2.681 I-0.154 J-0.584
X1.503 Y2.205 I0.553 J-0.238
X1.249 Y2.966 I-0.553 J0.238
G1 X1.153 Y3.013
X1.057 Y3.042
X0.567 Y3.163
X0.48 Y3.184
X0.384 Y3.202
X0.288 Y3.206
X-0.288
X-0.384 Y3.202
X-0.48 Y3.184
X-1.057 Y3.042
X-1.153 Y3.013
X-1.249 Y2.966
X-1.762 Y2.696
X-1.825 Y2.659
X-2.017 Y2.497
X-2.279 Y2.263
X-2.316 Y2.23
X-2.423 Y2.124
X-2.448 Y2.095
X-2.459 Y2.079
G3 X-1.707 Y1.434 I0.42 J-0.272
G1 X-1.663 Y1.474
G3 X-2.316 Y2.23 I-0.332 J0.373
G1 X-2.401 Y2.154
X-2.432 Y2.118
X-2.593 Y1.887
X-2.747 Y1.665
X-2.768 Y1.634
X-2.785 Y1.609
X-2.868 Y1.473
G3 X-2.598 Y0.643 I0.62 J-0.258
X-1.904 Y1.78 I0.347 J0.569
X-2.785 Y1.609 I-0.347 J-0.569
G1 X-2.832 Y1.541
X-2.859 Y1.492
X-2.881 Y1.444
X-3.064 Y0.963
X-3.085 Y0.905
X-3.099 Y0.864
X-3.137 Y0.738
G3 X-2.777 Y0.196 I0.508 J-0.053
X-2.486 Y1.16 I0.145 J0.482
X-3.099 Y0.864 I-0.145 J-0.482
G1 X-3.133 Y0.77
X-3.16 Y0.578
X-3.206 Y0.193
X-3.212 Y0.134
X-3.217 Y0.094
X-3.223 Y-0.031
G3 X-2.769 Y-0.448 I0.479 J0.066
X-2.719 Y0.505 I0.025 J0.476
X-3.217 Y0.094 I-0.025 J-0.476
G1 X-3.226 Y0
X-3.206 Y-0.193
X-3.16 Y-0.578
X-3.152 Y-0.636
X-3.146 Y-0.677
X-3.128 Y-0.758
X-3.106 Y-0.838
X-3.08 Y-0.917
G3 X-2.137 Y-0.586 I0.465 J0.185
G1 X-2.17 Y-0.479
G3 X-3.146 Y-0.677 I-0.478 J-0.146
G1 X-3.133 Y-0.77
X-3.064 Y-0.963
X-2.918 Y-1.348
X-2.907 Y-1.377
X-2.893 Y-1.414
X-2.855 Y-1.499
G3 X-2.313 Y-1.669 I0.369 J0.226
X-2.658 Y-0.882 I-0.172 J0.394
X-2.893 Y-1.414 I0.172 J-0.394
G1 X-2.881 Y-1.444
X-2.859 Y-1.492
X-2.832 Y-1.541
X-2.526 Y-1.984
X-2.497 Y-2.025
X-2.478 Y-2.053
X-2.421 Y-2.122
X-2.36 Y-2.187
X-2.295 Y-2.249
G3 X-1.619 Y-1.514 I0.321 J0.383
G1 X-1.703 Y-1.429
G3 X-2.478 Y-2.053 I-0.355 J-0.352
G1 X-2.432 Y-2.118
X-2.401 Y-2.154
X-2.209 Y-2.326
X-2.009 Y-2.504
X-1.908 Y-2.589
X-1.883 Y-2.61
X-1.818 Y-2.657
X-1.751 Y-2.7
X-1.681 Y-2.739
G3 X-1.212 Y-1.857 I0.217 J0.451
G1 X-1.294 Y-1.808
G3 X-1.883 Y-2.61 I-0.253 J-0.431
G1 X-1.825 Y-2.659
X-1.762 Y-2.696
X-1.315 Y-2.931
X-1.249 Y-2.966
X-1.153 Y-3.013
X-1.057 Y-3.042
X-0.48 Y-3.184
X-0.384 Y-3.202
X-0.288 Y-3.206
X0.288
X0.384 Y-3.202
X0.48 Y-3.184
X1.057 Y-3.042
X1.153 Y-3.013
X1.249 Y-2.966
X1.762 Y-2.696
X1.825 Y-2.659
X2.017 Y-2.497
X2.279 Y-2.263
X2.316 Y-2.23
X2.423 Y-2.124
X2.448 Y-2.095
X2.459 Y-2.08
G3 X1.708 Y-1.434 I-0.42 J0.272
G1 X1.663 Y-1.473
G3 X2.316 Y-2.23 I0.332 J-0.374
G1 X2.401 Y-2.154
X2.432 Y-2.118
X2.593 Y-1.887
X2.785 Y-1.609
X2.832 Y-1.541
X2.859 Y-1.492
X2.881 Y-1.444
X3.064 Y-0.963
X3.133 Y-0.77
X3.16 Y-0.578
X3.206 Y-0.193
X3.226 Y0
X3.206 Y0.193
X3.16 Y0.578
X3.133 Y0.77
X3.064 Y0.963
X2.881 Y1.444
X2.859 Y1.492
X2.832 Y1.541
X2.567 Y1.926
X2.432 Y2.118
X2.401 Y2.154
X2.174 Y2.357
G3 X1.916 Y2.468 I-0.318 J-0.386
G1 X1.856 Y2.471 Z-2.246
X1.789 Y2.458 Z-2.233
X1.724 Y2.445 Z-2.21
X1.662 Y2.432 Z-2.178
X1.611 Y2.398 Z-2.133
X1.566 Y2.367 Z-2.08
X1.529 Y2.341 Z-2.019
X1.499 Y2.321 Z-1.951
X1.483 Y2.304 Z-1.886
X1.474 Y2.293 Z-1.819
X1.471 Y2.29 Z-1.75
G0 Z5
X0.198 Y-2.367
Z0.25
G3 X-0.198 Y2.367 Z-0.011 I-0.198 J2.367 F333.3
X0.198 Y-2.367 Z-0.271 I0.198 J-2.367
X-0.198 Y2.367 Z-0.532 I-0.198 J2.367
X0.198 Y-2.367 Z-0.792 I0.198 J-2.367
X-0.198 Y2.367 Z-1.053 I-0.198 J2.367
X0.198 Y-2.367 Z-1.313 I0.198 J-2.367
X-0.198 Y2.367 Z-1.574 I-0.198 J2.367
X0.198 Y-2.367 Z-1.834 I0.198 J-2.367
X-0.198 Y2.367 Z-2.095 I-0.198 J2.367
X0.198 Y-2.367 Z-2.356 I0.198 J-2.367
X-0.198 Y2.367 Z-2.616 I-0.198 J2.367
X0.198 Y-2.367 Z-2.877 I0.198 J-2.367
X2.375 Y0 Z-3 I-0.198 J2.367
X-2.375 I-2.375
X2.375 I2.375
G1 X2.386 Y0.643 F850
X2.384 Y0.793
X2.362 Y0.941
X2.325 Y1.086
X2.274 Y1.228
X2.212 Y1.364
X2.139 Y1.496
X2.058 Y1.621
X1.968 Y1.741
X1.87 Y1.855
X1.765 Y1.962
X1.653 Y2.062
X1.536 Y2.155
X1.413 Y2.241
X1.285 Y2.32
X1.152 Y2.39
X1.016 Y2.453
X0.876 Y2.508
X0.734 Y2.554
X0.589 Y2.593
X0.442 Y2.622
X0.293 Y2.644
X0.144 Y2.657
X-0.006 Y2.661
X-0.156 Y2.657
X-0.305 Y2.644
X-0.454 Y2.623
X-0.601 Y2.593
X-0.746 Y2.556
X-0.889 Y2.51
X-1.029 Y2.456
X-1.166 Y2.394
X-1.299 Y2.325
X-1.428 Y2.248
X-1.552 Y2.164
X-1.671 Y2.073
X-1.785 Y1.976
X-1.894 Y1.872
X-1.996 Y1.763
X-2.092 Y1.647
X-2.182 Y1.527
X-2.264 Y1.402
X-2.34 Y1.272
X-2.408 Y1.138
X-2.468 Y1.001
X-2.52 Y0.86
X-2.565 Y0.717
X-2.601 Y0.572
X-2.629 Y0.424
X-2.649 Y0.276
X-2.66 Y0.126
X-2.663 Y-0.024
X-2.657 Y-0.174
X-2.643 Y-0.323
X-2.621 Y-0.472
X-2.59 Y-0.618
X-2.551 Y-0.763
X-2.504 Y-0.906
X-2.449 Y-1.045
X-2.387 Y-1.182
X-2.316 Y-1.314
X-2.239 Y-1.442
X-2.154 Y-1.566
X-2.062 Y-1.685
X-1.964 Y-1.798
X-1.86 Y-1.906
X-1.75 Y-2.008
X-1.634 Y-2.103
X-1.513 Y-2.192
X-1.387 Y-2.273
X-1.257 Y-2.348
X-1.123 Y-2.415
X-0.985 Y-2.474
X-0.844 Y-2.526
X-0.7 Y-2.569
X-0.555 Y-2.605
X-0.407 Y-2.632
X-0.258 Y-2.651
X-0.109 Y-2.661
X0.041 Y-2.663
X0.191 Y-2.656
X0.34 Y-2.641
X0.489 Y-2.618
X0.635 Y-2.586
X0.78 Y-2.546
X0.922 Y-2.498
X1.061 Y-2.443
X1.197 Y-2.379
X1.329 Y-2.308
X1.457 Y-2.229
X1.58 Y-2.144
X1.698 Y-2.051
X1.811 Y-1.952
X1.918 Y-1.847
X2.019 Y-1.737
X2.114 Y-1.62
X2.202 Y-1.498
X2.282 Y-1.372
X2.356 Y-1.241
X2.422 Y-1.107
X2.481 Y-0.969
X2.531 Y-0.828
X2.574 Y-0.684
X2.611 Y-0.538
X2.647 Y-0.374
X2.676 Y-0.213
X2.699 Y-0.065
X2.715 Y0.085
X2.725 Y0.234
X2.727 Y0.384
X2.721 Y0.534
X2.707 Y0.683
X2.684 Y0.832
X2.652 Y0.978
X2.611 Y1.122
X2.561 Y1.264
X2.502 Y1.402
X2.435 Y1.536
X2.361 Y1.666
X2.278 Y1.792
X2.189 Y1.912
X2.093 Y2.027
X1.99 Y2.137
X1.882 Y2.24
X1.767 Y2.338
X1.648 Y2.428
X1.524 Y2.512
X1.395 Y2.59
X1.263 Y2.66
X1.127 Y2.723
X0.987 Y2.779
X0.845 Y2.827
X0.701 Y2.868
X0.555 Y2.901
X0.407 Y2.927
X0.258 Y2.945
X0.108 Y2.955
X-0.042 Y2.958
X-0.191 Y2.952
X-0.341 Y2.939
X-0.489 Y2.919
X-0.637 Y2.891
X-0.783 Y2.855
X-0.926 Y2.812
X-1.068 Y2.762
X-1.206 Y2.705
X-1.342 Y2.64
X-1.474 Y2.569
X-1.602 Y2.491
X-1.726 Y2.407
X-1.846 Y2.317
X-1.961 Y2.22
X-2.071 Y2.118
X-2.175 Y2.011
X-2.275 Y1.898
X-2.368 Y1.781
X-2.455 Y1.659
X-2.536 Y1.532
X-2.61 Y1.402
X-2.678 Y1.268
X-2.738 Y1.131
X-2.792 Y0.991
X-2.839 Y0.848
X-2.878 Y0.704
X-2.91 Y0.557
X-2.935 Y0.409
X-2.952 Y0.26
X-2.961 Y0.11
X-2.963 Y-0.04
X-2.957 Y-0.189
X-2.943 Y-0.339
X-2.922 Y-0.487
X-2.894 Y-0.635
X-2.858 Y-0.78
X-2.815 Y-0.924
X-2.765 Y-1.065
X-2.708 Y-1.204
X-2.643 Y-1.339
X-2.572 Y-1.471
X-2.494 Y-1.6
X-2.41 Y-1.724
X-2.319 Y-1.843
X-2.223 Y-1.959
X-2.121 Y-2.069
X-2.014 Y-2.173
X-1.901 Y-2.273
X-1.784 Y-2.366
X-1.662 Y-2.453
X-1.536 Y-2.534
X-1.405 Y-2.608
X-1.272 Y-2.676
X-1.135 Y-2.737
X-0.995 Y-2.791
X-0.852 Y-2.838
X-0.707 Y-2.877
X-0.561 Y-2.91
X-0.413 Y-2.934
X-0.264 Y-2.951
X-0.114 Y-2.961
X0.036 Y-2.963
X0.186 Y-2.957
X0.335 Y-2.944
X0.484 Y-2.923
X0.631 Y-2.895
X0.777 Y-2.859
X0.92 Y-2.817
X1.062 Y-2.766
X1.2 Y-2.709
X1.336 Y-2.645
X1.468 Y-2.574
X1.596 Y-2.496
X1.721 Y-2.412
X1.841 Y-2.322
X1.956 Y-2.226
X2.066 Y-2.124
X2.171 Y-2.017
X2.27 Y-1.904
X2.364 Y-1.787
X2.451 Y-1.665
X2.532 Y-1.539
X2.607 Y-1.409
X2.675 Y-1.275
X2.738 Y-1.139
X2.795 Y-1
X2.847 Y-0.86
X2.893 Y-0.717
X2.934 Y-0.573
X2.969 Y-0.427
X2.997 Y-0.279
X3.019 Y-0.131
X3.035 Y0.018
X3.044 Y0.168
X3.045 Y0.318
X3.04 Y0.468
X3.027 Y0.617
X3.007 Y0.766
X2.979 Y0.913
X2.943 Y1.059
X2.9 Y1.203
X2.85 Y1.344
X2.793 Y1.483
X2.728 Y1.618
X2.657 Y1.75
X2.579 Y1.878
X2.494 Y2.002
X2.403 Y2.121
X2.323 Y2.212
X2.251 Y2.286
X2.174 Y2.357
X2.017 Y2.497
X2.009 Y2.504
X1.953 Y2.551
X1.807 Y2.662
X1.769 Y2.688
X1.731 Y2.712
X1.691 Y2.734
G3 X1.183 Y1.877 I-0.217 J-0.451
G1 X1.326 Y1.774
G3 X1.953 Y2.551 I0.291 J0.406
G1 X1.825 Y2.659
X1.762 Y2.696
X1.315 Y2.931
X1.278 Y2.95
X1.249 Y2.966
X1.107 Y3.026
G3 X0.398 Y2.681 I-0.154 J-0.584
X1.503 Y2.205 I0.553 J-0.238
X1.249 Y2.966 I-0.553 J0.238
G1 X1.153 Y3.013
X1.057 Y3.042
X0.567 Y3.163
X0.48 Y3.184
X0.384 Y3.202
X0.288 Y3.206
X-0.288
X-0.384 Y3.202
X-0.48 Y3.184
X-1.057 Y3.042
X-1.153 Y3.013
X-1.249 Y2.966
X-1.762 Y2.696
X-1.825 Y2.659
X-2.017 Y2.497
X-2.279 Y2.263
X-2.316 Y2.23
X-2.423 Y2.124
X-2.448 Y2.095
X-2.459 Y2.079
G3 X-1.707 Y1.434 I0.42 J-0.272
G1 X-1.663 Y1.474
G3 X-2.316 Y2.23 I-0.332 J0.373
G1 X-2.401 Y2.154
X-2.432 Y2.118
X-2.593 Y1.887
X-2.747 Y1.665
X-2.768 Y1.634
X-2.785 Y1.609
X-2.868 Y1.473
G3 X-2.598 Y0.643 I0.62 J-0.258
X-1.904 Y1.78 I0.347 J0.569
X-2.785 Y1.609 I-0.347 J-0.569
G1 X-2.832 Y1.541
X-2.859 Y1.492
X-2.881 Y1.444
X-3.064 Y0.963
X-3.085 Y0.905
X-3.099 Y0.864
X-3.137 Y0.738
G3 X-2.777 Y0.196 I0.508 J-0.053
X-2.486 Y1.16 I0.145 J0.482
X-3.099 Y0.864 I-0.145 J-0.482
G1 X-3.133 Y0.77
X-3.16 Y0.578
X-3.206 Y0.193
X-3.212 Y0.134
X-3.217 Y0.094
X-3.223 Y-0.031
G3 X-2.769 Y-0.448 I0.479 J0.066
X-2.719 Y0.505 I0.025 J0.476
X-3.217 Y0.094 I-0.025 J-0.476
G1 X-3.226 Y0
X-3.206 Y-0.193
X-3.16 Y-0.578
X-3.152 Y-0.636
X-3.146 Y-0.677
X-3.128 Y-0.758
X-3.106 Y-0.838
X-3.08 Y-0.917
G3 X-2.137 Y-0.586 I0.465 J0.185
G1 X-2.17 Y-0.479
G3 X-3.146 Y-0.677 I-0.478 J-0.146
G1 X-3.133 Y-0.77
X-3.064 Y-0.963
X-2.918 Y-1.348
X-2.907 Y-1.377
X-2.893 Y-1.414
X-2.855 Y-1.499
G3 X-2.313 Y-1.669 I0.369 J0.226
X-2.658 Y-0.882 I-0.172 J0.394
X-2.893 Y-1.414 I0.172 J-0.394
G1 X-2.881 Y-1.444
X-2.859 Y-1.492
X-2.832 Y-1.541
X-2.526 Y-1.984
X-2.497 Y-2.025
X-2.478 Y-2.053
X-2.421 Y-2.122
X-2.36 Y-2.187
X-2.295 Y-2.249
G3 X-1.619 Y-1.514 I0.321 J0.383
G1 X-1.703 Y-1.429
G3 X-2.478 Y-2.053 I-0.355 J-0.352
G1 X-2.432 Y-2.118
X-2.401 Y-2.154
X-2.209 Y-2.326
X-2.009 Y-2.504
X-1.908 Y-2.589
X-1.883 Y-2.61
X-1.818 Y-2.657
X-1.751 Y-2.7
X-1.681 Y-2.739
G3 X-1.212 Y-1.857 I0.217 J0.451
G1 X-1.294 Y-1.808
G3 X-1.883 Y-2.61 I-0.253 J-0.431
G1 X-1.825 Y-2.659
X-1.762 Y-2.696
X-1.315 Y-2.931
X-1.249 Y-2.966
X-1.153 Y-3.013
X-1.057 Y-3.042
X-0.48 Y-3.184
X-0.384 Y-3.202
X-0.288 Y-3.206
X0.288
X0.384 Y-3.202
X0.48 Y-3.184
X1.057 Y-3.042
X1.153 Y-3.013
X1.249 Y-2.966
X1.762 Y-2.696
X1.825 Y-2.659
X2.017 Y-2.497
X2.279 Y-2.263
X2.316 Y-2.23
X2.423 Y-2.124
X2.448 Y-2.095
X2.459 Y-2.08
G3 X1.708 Y-1.434 I-0.42 J0.272
G1 X1.663 Y-1.473
G3 X2.316 Y-2.23 I0.332 J-0.374
G1 X2.401 Y-2.154
X2.432 Y-2.118
X2.593 Y-1.887
X2.785 Y-1.609
X2.832 Y-1.541
X2.859 Y-1.492
X2.881 Y-1.444
X3.064 Y-0.963
X3.133 Y-0.77
X3.16 Y-0.578
X3.206 Y-0.193
X3.226 Y0
X3.206 Y0.193
X3.16 Y0.578
X3.133 Y0.77
X3.064 Y0.963
X2.881 Y1.444
X2.859 Y1.492
X2.832 Y1.541
X2.567 Y1.926
X2.432 Y2.118
X2.401 Y2.154
X2.174 Y2.357
G3 X1.916 Y2.468 I-0.318 J-0.386
G1 X1.856 Y2.471 Z-2.996
X1.789 Y2.458 Z-2.983
X1.724 Y2.445 Z-2.96
X1.662 Y2.432 Z-2.928
X1.611 Y2.398 Z-2.883
X1.566 Y2.367 Z-2.83
X1.529 Y2.341 Z-2.769
X1.499 Y2.321 Z-2.701
X1.483 Y2.304 Z-2.636
X1.474 Y2.293 Z-2.569
X1.471 Y2.29 Z-2.5
G0 Z5
X0.198 Y-2.367
Z-0.5
G3 X-0.198 Y2.367 Z-0.761 I-0.198 J2.367 F333.3
X0.198 Y-2.367 Z-1.021 I0.198 J-2.367
X-0.198 Y2.367 Z-1.282 I-0.198 J2.367
X0.198 Y-2.367 Z-1.542 I0.198 J-2.367
X-0.198 Y2.367 Z-1.803 I-0.198 J2.367
X0.198 Y-2.367 Z-2.063 I0.198 J-2.367
X-0.198 Y2.367 Z-2.324 I-0.198 J2.367
X0.198 Y-2.367 Z-2.584 I0.198 J-2.367
X-0.198 Y2.367 Z-2.845 I-0.198 J2.367
X0.198 Y-2.367 Z-3.106 I0.198 J-2.367
X-0.198 Y2.367 Z-3.366 I-0.198 J2.367
X0.198 Y-2.367 Z-3.627 I0.198 J-2.367
X2.375 Y0 Z-3.75 I-0.198 J2.367
X-2.375 I-2.375
X2.375 I2.375
G1 X2.386 Y0.643 F850
X2.384 Y0.793
X2.362 Y0.941
X2.325 Y1.086
X2.274 Y1.228
X2.212 Y1.364
X2.139 Y1.496
X2.058 Y1.621
X1.968 Y1.741
X1.87 Y1.855
X1.765 Y1.962
X1.653 Y2.062
X1.536 Y2.155
X1.413 Y2.241
X1.285 Y2.32
X1.152 Y2.39
X1.016 Y2.453
X0.876 Y2.508
X0.734 Y2.554
X0.589 Y2.593
X0.442 Y2.622
X0.293 Y2.644
X0.144 Y2.657
X-0.006 Y2.661
X-0.156 Y2.657
X-0.305 Y2.644
X-0.454 Y2.623
X-0.601 Y2.593
X-0.746 Y2.556
X-0.889 Y2.51
X-1.029 Y2.456
X-1.166 Y2.394
X-1.299 Y2.325
X-1.428 Y2.248
X-1.552 Y2.164
X-1.671 Y2.073
X-1.785 Y1.976
X-1.894 Y1.872
X-1.996 Y1.763
X-2.092 Y1.647
X-2.182 Y1.527
X-2.264 Y1.402
X-2.34 Y1.272
X-2.408 Y1.138
X-2.468 Y1.001
X-2.52 Y0.86
X-2.565 Y0.717
X-2.601 Y0.572
X-2.629 Y0.424
X-2.649 Y0.276
X-2.66 Y0.126
X-2.663 Y-0.024
X-2.657 Y-0.174
X-2.643 Y-0.323
X-2.621 Y-0.472
X-2.59 Y-0.618
X-2.551 Y-0.763
X-2.504 Y-0.906
X-2.449 Y-1.045
X-2.387 Y-1.182
X-2.316 Y-1.314
X-2.239 Y-1.442
X-2.154 Y-1.566
X-2.062 Y-1.685
X-1.964 Y-1.798
X-1.86 Y-1.906
X-1.75 Y-2.008
X-1.634 Y-2.103
X-1.513 Y-2.192
X-1.387 Y-2.273
X-1.257 Y-2.348
X-1.123 Y-2.415
X-0.985 Y-2.474
X-0.844 Y-2.526
X-0.7 Y-2.569
X-0.555 Y-2.605
X-0.407 Y-2.632
X-0.258 Y-2.651
X-0.109 Y-2.661
X0.041 Y-2.663
X0.191 Y-2.656
X0.34 Y-2.641
X0.489 Y-2.618
X0.635 Y-2.586
X0.78 Y-2.546
X0.922 Y-2.498
X1.061 Y-2.443
X1.197 Y-2.379
X1.329 Y-2.308
X1.457 Y-2.229
X1.58 Y-2.144
X1.698 Y-2.051
X1.811 Y-1.952
X1.918 Y-1.847
X2.019 Y-1.737
X2.114 Y-1.62
X2.202 Y-1.498
X2.282 Y-1.372
X2.356 Y-1.241
X2.422 Y-1.107
X2.481 Y-0.969
X2.531 Y-0.828
X2.574 Y-0.684
X2.611 Y-0.538
X2.647 Y-0.374
X2.676 Y-0.213
X2.699 Y-0.065
X2.715 Y0.085
X2.725 Y0.234
X2.727 Y0.384
X2.721 Y0.534
X2.707 Y0.683
X2.684 Y0.832
X2.652 Y0.978
X2.611 Y1.122
X2.561 Y1.264
X2.502 Y1.402
X2.435 Y1.536
X2.361 Y1.666
X2.278 Y1.792
X2.189 Y1.912
X2.093 Y2.027
X1.99 Y2.137
X1.882 Y2.24
X1.767 Y2.338
X1.648 Y2.428
X1.524 Y2.512
X1.395 Y2.59
X1.263 Y2.66
X1.127 Y2.723
X0.987 Y2.779
X0.845 Y2.827
X0.701 Y2.868
X0.555 Y2.901
X0.407 Y2.927
X0.258 Y2.945
X0.108 Y2.955
X-0.042 Y2.958
X-0.191 Y2.952
X-0.341 Y2.939
X-0.489 Y2.919
X-0.637 Y2.891
X-0.783 Y2.855
X-0.926 Y2.812
X-1.068 Y2.762
X-1.206 Y2.705
X-1.342 Y2.64
X-1.474 Y2.569
X-1.602 Y2.491
X-1.726 Y2.407
X-1.846 Y2.317
X-1.961 Y2.22
X-2.071 Y2.118
X-2.175 Y2.011
X-2.275 Y1.898
X-2.368 Y1.781
X-2.455 Y1.659
X-2.536 Y1.532
X-2.61 Y1.402
X-2.678 Y1.268
X-2.738 Y1.131
X-2.792 Y0.991
X-2.839 Y0.848
X-2.878 Y0.704
X-2.91 Y0.557
X-2.935 Y0.409
X-2.952 Y0.26
X-2.961 Y0.11
X-2.963 Y-0.04
X-2.957 Y-0.189
X-2.943 Y-0.339
X-2.922 Y-0.487
X-2.894 Y-0.635
X-2.858 Y-0.78
X-2.815 Y-0.924
X-2.765 Y-1.065
X-2.708 Y-1.204
X-2.643 Y-1.339
X-2.572 Y-1.471
X-2.494 Y-1.6
X-2.41 Y-1.724
X-2.319 Y-1.843
X-2.223 Y-1.959
X-2.121 Y-2.069
X-2.014 Y-2.173
X-1.901 Y-2.273
X-1.784 Y-2.366
X-1.662 Y-2.453
X-1.536 Y-2.534
X-1.405 Y-2.608
X-1.272 Y-2.676
X-1.135 Y-2.737
X-0.995 Y-2.791
X-0.852 Y-2.838
X-0.707 Y-2.877
X-0.561 Y-2.91
X-0.413 Y-2.934
X-0.264 Y-2.951
X-0.114 Y-2.961
X0.036 Y-2.963
X0.186 Y-2.957
X0.335 Y-2.944
X0.484 Y-2.923
X0.631 Y-2.895
X0.777 Y-2.859
X0.92 Y-2.817
X1.062 Y-2.766
X1.2 Y-2.709
X1.336 Y-2.645
X1.468 Y-2.574
X1.596 Y-2.496
X1.721 Y-2.412
X1.841 Y-2.322
X1.956 Y-2.226
X2.066 Y-2.124
X2.171 Y-2.017
X2.27 Y-1.904
X2.364 Y-1.787
X2.451 Y-1.665
X2.532 Y-1.539
X2.607 Y-1.409
X2.675 Y-1.275
X2.738 Y-1.139
X2.795 Y-1
X2.847 Y-0.86
X2.893 Y-0.717
X2.934 Y-0.573
X2.969 Y-0.427
X2.997 Y-0.279
X3.019 Y-0.131
X3.035 Y0.018
X3.044 Y0.168
X3.045 Y0.318
X3.04 Y0.468
X3.027 Y0.617
X3.007 Y0.766
X2.979 Y0.913
X2.943 Y1.059
X2.9 Y1.203
X2.85 Y1.344
X2.793 Y1.483
X2.728 Y1.618
X2.657 Y1.75
X2.579 Y1.878
X2.494 Y2.002
X2.403 Y2.121
X2.323 Y2.212
X2.251 Y2.286
X2.174 Y2.357
X2.017 Y2.497
X2.009 Y2.504
X1.953 Y2.551
X1.807 Y2.662
X1.769 Y2.688
X1.731 Y2.712
X1.691 Y2.734
G3 X1.183 Y1.877 I-0.217 J-0.451
G1 X1.326 Y1.774
G3 X1.953 Y2.551 I0.291 J0.406
G1 X1.825 Y2.659
X1.762 Y2.696
X1.315 Y2.931
X1.278 Y2.95
X1.249 Y2.966
X1.107 Y3.026
G3 X0.398 Y2.681 I-0.154 J-0.584
X1.503 Y2.205 I0.553 J-0.238
X1.249 Y2.966 I-0.553 J0.238
G1 X1.153 Y3.013
X1.057 Y3.042
X0.567 Y3.163
X0.48 Y3.184
X0.384 Y3.202
X0.288 Y3.206
X-0.288
X-0.384 Y3.202
X-0.48 Y3.184
X-1.057 Y3.042
X-1.153 Y3.013
X-1.249 Y2.966
X-1.762 Y2.696
X-1.825 Y2.659
X-2.017 Y2.497
X-2.279 Y2.263
X-2.316 Y2.23
X-2.423 Y2.124
X-2.448 Y2.095
X-2.459 Y2.079
G3 X-1.707 Y1.434 I0.42 J-0.272
G1 X-1.663 Y1.474
G3 X-2.316 Y2.23 I-0.332 J0.373
G1 X-2.401 Y2.154
X-2.432 Y2.118
X-2.593 Y1.887
X-2.747 Y1.665
X-2.768 Y1.634
X-2.785 Y1.609
X-2.868 Y1.473
G3 X-2.598 Y0.643 I0.62 J-0.258
X-1.904 Y1.78 I0.347 J0.569
X-2.785 Y1.609 I-0.347 J-0.569
G1 X-2.832 Y1.541
X-2.859 Y1.492
X-2.881 Y1.444
X-3.064 Y0.963
X-3.085 Y0.905
X-3.099 Y0.864
X-3.137 Y0.738
G3 X-2.777 Y0.196 I0.508 J-0.053
X-2.486 Y1.16 I0.145 J0.482
X-3.099 Y0.864 I-0.145 J-0.482
G1 X-3.133 Y0.77
X-3.16 Y0.578
X-3.206 Y0.193
X-3.212 Y0.134
X-3.217 Y0.094
X-3.223 Y-0.031
G3 X-2.769 Y-0.448 I0.479 J0.066
X-2.719 Y0.505 I0.025 J0.476
X-3.217 Y0.094 I-0.025 J-0.476
G1 X-3.226 Y0
X-3.206 Y-0.193
X-3.16 Y-0.578
X-3.152 Y-0.636
X-3.146 Y-0.677
X-3.128 Y-0.758
X-3.106 Y-0.838
X-3.08 Y-0.917
G3 X-2.137 Y-0.586 I0.465 J0.185
G1 X-2.17 Y-0.479
G3 X-3.146 Y-0.677 I-0.478 J-0.146
G1 X-3.133 Y-0.77
X-3.064 Y-0.963
X-2.918 Y-1.348
X-2.907 Y-1.377
X-2.893 Y-1.414
X-2.855 Y-1.499
G3 X-2.313 Y-1.669 I0.369 J0.226
X-2.658 Y-0.882 I-0.172 J0.394
X-2.893 Y-1.414 I0.172 J-0.394
G1 X-2.881 Y-1.444
X-2.859 Y-1.492
X-2.832 Y-1.541
X-2.526 Y-1.984
X-2.497 Y-2.025
X-2.478 Y-2.053
X-2.421 Y-2.122
X-2.36 Y-2.187
X-2.295 Y-2.249
G3 X-1.619 Y-1.514 I0.321 J0.383
G1 X-1.703 Y-1.429
G3 X-2.478 Y-2.053 I-0.355 J-0.352
G1 X-2.432 Y-2.118
X-2.401 Y-2.154
X-2.209 Y-2.326
X-2.009 Y-2.504
X-1.908 Y-2.589
X-1.883 Y-2.61
X-1.818 Y-2.657
X-1.751 Y-2.7
X-1.681 Y-2.739
G3 X-1.212 Y-1.857 I0.217 J0.451
G1 X-1.294 Y-1.808
G3 X-1.883 Y-2.61 I-0.253 J-0.431
G1 X-1.825 Y-2.659
X-1.762 Y-2.696
X-1.315 Y-2.931
X-1.249 Y-2.966
X-1.153 Y-3.013
X-1.057 Y-3.042
X-0.48 Y-3.184
X-0.384 Y-3.202
X-0.288 Y-3.206
X0.288
X0.384 Y-3.202
X0.48 Y-3.184
X1.057 Y-3.042
X1.153 Y-3.013
X1.249 Y-2.966
X1.762 Y-2.696
X1.825 Y-2.659
X2.017 Y-2.497
X2.279 Y-2.263
X2.316 Y-2.23
X2.423 Y-2.124
X2.448 Y-2.095
X2.459 Y-2.08
G3 X1.708 Y-1.434 I-0.42 J0.272
G1 X1.663 Y-1.473
G3 X2.316 Y-2.23 I0.332 J-0.374
G1 X2.401 Y-2.154
X2.432 Y-2.118
X2.593 Y-1.887
X2.785 Y-1.609
X2.832 Y-1.541
X2.859 Y-1.492
X2.881 Y-1.444
X3.064 Y-0.963
X3.133 Y-0.77
X3.16 Y-0.578
X3.206 Y-0.193
X3.226 Y0
X3.206 Y0.193
X3.16 Y0.578
X3.133 Y0.77
X3.064 Y0.963
X2.881 Y1.444
X2.859 Y1.492
X2.832 Y1.541
X2.567 Y1.926
X2.432 Y2.118
X2.401 Y2.154
X2.174 Y2.357
G3 X1.916 Y2.468 I-0.318 J-0.386
G1 X1.856 Y2.471 Z-3.746
X1.789 Y2.458 Z-3.733
X1.724 Y2.445 Z-3.71
X1.662 Y2.432 Z-3.678
X1.611 Y2.398 Z-3.633
X1.566 Y2.367 Z-3.58
X1.529 Y2.341 Z-3.519
X1.499 Y2.321 Z-3.451
X1.483 Y2.304 Z-3.386
X1.474 Y2.293 Z-3.319
X1.471 Y2.29 Z-3.25
G0 Z5
X0.198 Y-2.367
Z-1.25
G3 X-0.198 Y2.367 Z-1.511 I-0.198 J2.367 F333.3
X0.198 Y-2.367 Z-1.771 I0.198 J-2.367
X-0.198 Y2.367 Z-2.032 I-0.198 J2.367
X0.198 Y-2.367 Z-2.292 I0.198 J-2.367
X-0.198 Y2.367 Z-2.553 I-0.198 J2.367
X0.198 Y-2.367 Z-2.813 I0.198 J-2.367
X-0.198 Y2.367 Z-3.074 I-0.198 J2.367
X0.198 Y-2.367 Z-3.334 I0.198 J-2.367
X-0.198 Y2.367 Z-3.595 I-0.198 J2.367
X0.198 Y-2.367 Z-3.856 I0.198 J-2.367
X-0.198 Y2.367 Z-4.116 I-0.198 J2.367
X0.198 Y-2.367 Z-4.377 I0.198 J-2.367
X2.375 Y0 Z-4.5 I-0.198 J2.367
X-2.375 I-2.375
X2.375 I2.375
G1 X2.386 Y0.643 F850
X2.384 Y0.793
X2.362 Y0.941
X2.325 Y1.086
X2.274 Y1.228
X2.212 Y1.364
X2.139 Y1.496
X2.058 Y1.621
X1.968 Y1.741
X1.87 Y1.855
X1.765 Y1.962
X1.653 Y2.062
X1.536 Y2.155
X1.413 Y2.241
X1.285 Y2.32
X1.152 Y2.39
X1.016 Y2.453
X0.876 Y2.508
X0.734 Y2.554
X0.589 Y2.593
X0.442 Y2.622
X0.293 Y2.644
X0.144 Y2.657
X-0.006 Y2.661
X-0.156 Y2.657
X-0.305 Y2.644
X-0.454 Y2.623
X-0.601 Y2.593
X-0.746 Y2.556
X-0.889 Y2.51
X-1.029 Y2.456
X-1.166 Y2.394
X-1.299 Y2.325
X-1.428 Y2.248
X-1.552 Y2.164
X-1.671 Y2.073
X-1.785 Y1.976
X-1.894 Y1.872
X-1.996 Y1.763
X-2.092 Y1.647
X-2.182 Y1.527
X-2.264 Y1.402
X-2.34 Y1.272
X-2.408 Y1.138
X-2.468 Y1.001
X-2.52 Y0.86
X-2.565 Y0.717
X-2.601 Y0.572
X-2.629 Y0.424
X-2.649 Y0.276
X-2.66 Y0.126
X-2.663 Y-0.024
X-2.657 Y-0.174
X-2.643 Y-0.323
X-2.621 Y-0.472
X-2.59 Y-0.618
X-2.551 Y-0.763
X-2.504 Y-0.906
X-2.449 Y-1.045
X-2.387 Y-1.182
X-2.316 Y-1.314
X-2.239 Y-1.442
X-2.154 Y-1.566
X-2.062 Y-1.685
X-1.964 Y-1.798
X-1.86 Y-1.906
X-1.75 Y-2.008
X-1.634 Y-2.103
X-1.513 Y-2.192
X-1.387 Y-2.273
X-1.257 Y-2.348
X-1.123 Y-2.415
X-0.985 Y-2.474
X-0.844 Y-2.526
X-0.7 Y-2.569
X-0.555 Y-2.605
X-0.407 Y-2.632
X-0.258 Y-2.651
X-0.109 Y-2.661
X0.041 Y-2.663
X0.191 Y-2.656
X0.34 Y-2.641
X0.489 Y-2.618
X0.635 Y-2.586
X0.78 Y-2.546
X0.922 Y-2.498
X1.061 Y-2.443
X1.197 Y-2.379
X1.329 Y-2.308
X1.457 Y-2.229
X1.58 Y-2.144
X1.698 Y-2.051
X1.811 Y-1.952
X1.918 Y-1.847
X2.019 Y-1.737
X2.114 Y-1.62
X2.202 Y-1.498
X2.282 Y-1.372
X2.356 Y-1.241
X2.422 Y-1.107
X2.481 Y-0.969
X2.531 Y-0.828
X2.574 Y-0.684
X2.611 Y-0.538
X2.647 Y-0.374
X2.676 Y-0.213
X2.699 Y-0.065
X2.715 Y0.085
X2.725 Y0.234
X2.727 Y0.384
X2.721 Y0.534
X2.707 Y0.683
X2.684 Y0.832
X2.652 Y0.978
X2.611 Y1.122
X2.561 Y1.264
X2.502 Y1.402
X2.435 Y1.536
X2.361 Y1.666
X2.278 Y1.792
X2.189 Y1.912
X2.093 Y2.027
X1.99 Y2.137
X1.882 Y2.24
X1.767 Y2.338
X1.648 Y2.428
X1.524 Y2.512
X1.395 Y2.59
X1.263 Y2.66
X1.127 Y2.723
X0.987 Y2.779
X0.845 Y2.827
X0.701 Y2.868
X0.555 Y2.901
X0.407 Y2.927
X0.258 Y2.945
X0.108 Y2.955
X-0.042 Y2.958
X-0.191 Y2.952
X-0.341 Y2.939
X-0.489 Y2.919
X-0.637 Y2.891
X-0.783 Y2.855
X-0.926 Y2.812
X-1.068 Y2.762
X-1.206 Y2.705
X-1.342 Y2.64
X-1.474 Y2.569
X-1.602 Y2.491
X-1.726 Y2.407
X-1.846 Y2.317
X-1.961 Y2.22
X-2.071 Y2.118
X-2.175 Y2.011
X-2.275 Y1.898
X-2.368 Y1.781
X-2.455 Y1.659
X-2.536 Y1.532
X-2.61 Y1.402
X-2.678 Y1.268
X-2.738 Y1.131
X-2.792 Y0.991
X-2.839 Y0.848
X-2.878 Y0.704
X-2.91 Y0.557
X-2.935 Y0.409
X-2.952 Y0.26
X-2.961 Y0.11
X-2.963 Y-0.04
X-2.957 Y-0.189
X-2.943 Y-0.339
X-2.922 Y-0.487
X-2.894 Y-0.635
X-2.858 Y-0.78
X-2.815 Y-0.924
X-2.765 Y-1.065
X-2.708 Y-1.204
X-2.643 Y-1.339
X-2.572 Y-1.471
X-2.494 Y-1.6
X-2.41 Y-1.724
X-2.319 Y-1.843
X-2.223 Y-1.959
X-2.121 Y-2.069
X-2.014 Y-2.173
X-1.901 Y-2.273
X-1.784 Y-2.366
X-1.662 Y-2.453
X-1.536 Y-2.534
X-1.405 Y-2.608
X-1.272 Y-2.676
X-1.135 Y-2.737
X-0.995 Y-2.791
X-0.852 Y-2.838
X-0.707 Y-2.877
X-0.561 Y-2.91
X-0.413 Y-2.934
X-0.264 Y-2.951
X-0.114 Y-2.961
X0.036 Y-2.963
X0.186 Y-2.957
X0.335 Y-2.944
X0.484 Y-2.923
X0.631 Y-2.895
X0.777 Y-2.859
X0.92 Y-2.817
X1.062 Y-2.766
X1.2 Y-2.709
X1.336 Y-2.645
X1.468 Y-2.574
X1.596 Y-2.496
X1.721 Y-2.412
X1.841 Y-2.322
X1.956 Y-2.226
X2.066 Y-2.124
X2.171 Y-2.017
X2.27 Y-1.904
X2.364 Y-1.787
X2.451 Y-1.665
X2.532 Y-1.539
X2.607 Y-1.409
X2.675 Y-1.275
X2.738 Y-1.139
X2.795 Y-1
X2.847 Y-0.86
X2.893 Y-0.717
X2.934 Y-0.573
X2.969 Y-0.427
X2.997 Y-0.279
X3.019 Y-0.131
X3.035 Y0.018
X3.044 Y0.168
X3.045 Y0.318
X3.04 Y0.468
X3.027 Y0.617
X3.007 Y0.766
X2.979 Y0.913
X2.943 Y1.059
X2.9 Y1.203
X2.85 Y1.344
X2.793 Y1.483
X2.728 Y1.618
X2.657 Y1.75
X2.579 Y1.878
X2.494 Y2.002
X2.403 Y2.121
X2.323 Y2.212
X2.251 Y2.286
X2.174 Y2.357
X2.017 Y2.497
X2.009 Y2.504
X1.953 Y2.551
X1.807 Y2.662
X1.769 Y2.688
X1.731 Y2.712
X1.691 Y2.734
G3 X1.183 Y1.877 I-0.217 J-0.451
G1 X1.326 Y1.774
G3 X1.953 Y2.551 I0.291 J0.406
G1 X1.825 Y2.659
X1.762 Y2.696
X1.315 Y2.931
X1.278 Y2.95
X1.249 Y2.966
X1.107 Y3.026
G3 X0.398 Y2.681 I-0.154 J-0.584
X1.503 Y2.205 I0.553 J-0.238
X1.249 Y2.966 I-0.553 J0.238
G1 X1.153 Y3.013
X1.057 Y3.042
X0.567 Y3.163
X0.48 Y3.184
X0.384 Y3.202
X0.288 Y3.206
X-0.288
X-0.384 Y3.202
X-0.48 Y3.184
X-1.057 Y3.042
X-1.153 Y3.013
X-1.249 Y2.966
X-1.762 Y2.696
X-1.825 Y2.659
X-2.017 Y2.497
X-2.279 Y2.263
X-2.316 Y2.23
X-2.423 Y2.124
X-2.448 Y2.095
X-2.459 Y2.079
G3 X-1.707 Y1.434 I0.42 J-0.272
G1 X-1.663 Y1.474
G3 X-2.316 Y2.23 I-0.332 J0.373
G1 X-2.401 Y2.154
X-2.432 Y2.118
X-2.593 Y1.887
X-2.747 Y1.665
X-2.768 Y1.634
X-2.785 Y1.609
X-2.868 Y1.473
G3 X-2.598 Y0.643 I0.62 J-0.258
X-1.904 Y1.78 I0.347 J0.569
X-2.785 Y1.609 I-0.347 J-0.569
G1 X-2.832 Y1.541
X-2.859 Y1.492
X-2.881 Y1.444
X-3.064 Y0.963
X-3.085 Y0.905
X-3.099 Y0.864
X-3.137 Y0.738
G3 X-2.777 Y0.196 I0.508 J-0.053
X-2.486 Y1.16 I0.145 J0.482
X-3.099 Y0.864 I-0.145 J-0.482
G1 X-3.133 Y0.77
X-3.16 Y0.578
X-3.206 Y0.193
X-3.212 Y0.134
X-3.217 Y0.094
X-3.223 Y-0.031
G3 X-2.769 Y-0.448 I0.479 J0.066
X-2.719 Y0.505 I0.025 J0.476
X-3.217 Y0.094 I-0.025 J-0.476
G1 X-3.226 Y0
X-3.206 Y-0.193
X-3.16 Y-0.578
X-3.152 Y-0.636
X-3.146 Y-0.677
X-3.128 Y-0.758
X-3.106 Y-0.838
X-3.08 Y-0.917
G3 X-2.137 Y-0.586 I0.465 J0.185
G1 X-2.17 Y-0.479
G3 X-3.146 Y-0.677 I-0.478 J-0.146
G1 X-3.133 Y-0.77
X-3.064 Y-0.963
X-2.918 Y-1.348
X-2.907 Y-1.377
X-2.893 Y-1.414
X-2.855 Y-1.499
G3 X-2.313 Y-1.669 I0.369 J0.226
X-2.658 Y-0.882 I-0.172 J0.394
X-2.893 Y-1.414 I0.172 J-0.394
G1 X-2.881 Y-1.444
X-2.859 Y-1.492
X-2.832 Y-1.541
X-2.526 Y-1.984
X-2.497 Y-2.025
X-2.478 Y-2.053
X-2.421 Y-2.122
X-2.36 Y-2.187
X-2.295 Y-2.249
G3 X-1.619 Y-1.514 I0.321 J0.383
G1 X-1.703 Y-1.429
G3 X-2.478 Y-2.053 I-0.355 J-0.352
G1 X-2.432 Y-2.118
X-2.401 Y-2.154
X-2.209 Y-2.326
X-2.009 Y-2.504
X-1.908 Y-2.589
X-1.883 Y-2.61
X-1.818 Y-2.657
X-1.751 Y-2.7
X-1.681 Y-2.739
G3 X-1.212 Y-1.857 I0.217 J0.451
G1 X-1.294 Y-1.808
G3 X-1.883 Y-2.61 I-0.253 J-0.431
G1 X-1.825 Y-2.659
X-1.762 Y-2.696
X-1.315 Y-2.931
X-1.249 Y-2.966
X-1.153 Y-3.013
X-1.057 Y-3.042
X-0.48 Y-3.184
X-0.384 Y-3.202
X-0.288 Y-3.206
X0.288
X0.384 Y-3.202
X0.48 Y-3.184
X1.057 Y-3.042
X1.153 Y-3.013
X1.249 Y-2.966
X1.762 Y-2.696
X1.825 Y-2.659
X2.017 Y-2.497
X2.279 Y-2.263
X2.316 Y-2.23
X2.423 Y-2.124
X2.448 Y-2.095
X2.459 Y-2.08
G3 X1.708 Y-1.434 I-0.42 J0.272
G1 X1.663 Y-1.473
G3 X2.316 Y-2.23 I0.332 J-0.374
G1 X2.401 Y-2.154
X2.432 Y-2.118
X2.593 Y-1.887
X2.785 Y-1.609
X2.832 Y-1.541
X2.859 Y-1.492
X2.881 Y-1.444
X3.064 Y-0.963
X3.133 Y-0.77
X3.16 Y-0.578
X3.206 Y-0.193
X3.226 Y0
X3.206 Y0.193
X3.16 Y0.578
X3.133 Y0.77
X3.064 Y0.963
X2.881 Y1.444
X2.859 Y1.492
X2.832 Y1.541
X2.567 Y1.926
X2.432 Y2.118
X2.401 Y2.154
X2.174 Y2.357
G3 X1.916 Y2.468 I-0.318 J-0.386
G1 X1.856 Y2.471 Z-4.496
X1.789 Y2.458 Z-4.483
X1.724 Y2.445 Z-4.46
X1.662 Y2.432 Z-4.428
X1.611 Y2.398 Z-4.383
X1.566 Y2.367 Z-4.33
X1.529 Y2.341 Z-4.269
X1.499 Y2.321 Z-4.201
X1.483 Y2.304 Z-4.136
X1.474 Y2.293 Z-4.069
X1.471 Y2.29 Z-4
G0 Z5
X0.198 Y-2.367
Z-2
G3 X-0.198 Y2.367 Z-2.261 I-0.198 J2.367 F333.3
X0.198 Y-2.367 Z-2.521 I0.198 J-2.367
X-0.198 Y2.367 Z-2.782 I-0.198 J2.367
X0.198 Y-2.367 Z-3.042 I0.198 J-2.367
X-0.198 Y2.367 Z-3.303 I-0.198 J2.367
X0.198 Y-2.367 Z-3.563 I0.198 J-2.367
X-0.198 Y2.367 Z-3.824 I-0.198 J2.367
X0.198 Y-2.367 Z-4.084 I0.198 J-2.367
X-0.198 Y2.367 Z-4.345 I-0.198 J2.367
X0.198 Y-2.367 Z-4.606 I0.198 J-2.367
X-0.198 Y2.367 Z-4.866 I-0.198 J2.367
X0.198 Y-2.367 Z-5.127 I0.198 J-2.367
X2.375 Y0 Z-5.25 I-0.198 J2.367
X-2.375 I-2.375
X2.375 I2.375
G1 X2.386 Y0.643 F850
X2.384 Y0.793
X2.362 Y0.941
X2.325 Y1.086
X2.274 Y1.228
X2.212 Y1.364
X2.139 Y1.496
X2.058 Y1.621
X1.968 Y1.741
X1.87 Y1.855
X1.765 Y1.962
X1.653 Y2.062
X1.536 Y2.155
X1.413 Y2.241
X1.285 Y2.32
X1.152 Y2.39
X1.016 Y2.453
X0.876 Y2.508
X0.734 Y2.554
X0.589 Y2.593
X0.442 Y2.622
X0.293 Y2.644
X0.144 Y2.657
X-0.006 Y2.661
X-0.156 Y2.657
X-0.305 Y2.644
X-0.454 Y2.623
X-0.601 Y2.593
X-0.746 Y2.556
X-0.889 Y2.51
X-1.029 Y2.456
X-1.166 Y2.394
X-1.299 Y2.325
X-1.428 Y2.248
X-1.552 Y2.164
X-1.671 Y2.073
X-1.785 Y1.976
X-1.894 Y1.872
X-1.996 Y1.763
X-2.092 Y1.647
X-2.182 Y1.527
X-2.264 Y1.402
X-2.34 Y1.272
X-2.408 Y1.138
X-2.468 Y1.001
X-2.52 Y0.86
X-2.565 Y0.717
X-2.601 Y0.572
X-2.629 Y0.424
X-2.649 Y0.276
X-2.66 Y0.126
X-2.663 Y-0.024
X-2.657 Y-0.174
X-2.643 Y-0.323
X-2.621 Y-0.472
X-2.59 Y-0.618
X-2.551 Y-0.763
X-2.504 Y-0.906
X-2.449 Y-1.045
X-2.387 Y-1.182
X-2.316 Y-1.314
X-2.239 Y-1.442
X-2.154 Y-1.566
X-2.062 Y-1.685
X-1.964 Y-1.798
X-1.86 Y-1.906
X-1.75 Y-2.008
X-1.634 Y-2.103
X-1.513 Y-2.192
X-1.387 Y-2.273
X-1.257 Y-2.348
X-1.123 Y-2.415
X-0.985 Y-2.474
X-0.844 Y-2.526
X-0.7 Y-2.569
X-0.555 Y-2.605
X-0.407 Y-2.632
X-0.258 Y-2.651
X-0.109 Y-2.661
X0.041 Y-2.663
X0.191 Y-2.656
X0.34 Y-2.641
X0.489 Y-2.618
X0.635 Y-2.586
X0.78 Y-2.546
X0.922 Y-2.498
X1.061 Y-2.443
X1.197 Y-2.379
X1.329 Y-2.308
X1.457 Y-2.229
X1.58 Y-2.144
X1.698 Y-2.051
X1.811 Y-1.952
X1.918 Y-1.847
X2.019 Y-1.737
X2.114 Y-1.62
X2.202 Y-1.498
X2.282 Y-1.372
X2.356 Y-1.241
X2.422 Y-1.107
X2.481 Y-0.969
X2.531 Y-0.828
X2.574 Y-0.684
X2.611 Y-0.538
X2.647 Y-0.374
X2.676 Y-0.213
X2.699 Y-0.065
X2.715 Y0.085
X2.725 Y0.234
X2.727 Y0.384
X2.721 Y0.534
X2.707 Y0.683
X2.684 Y0.832
X2.652 Y0.978
X2.611 Y1.122
X2.561 Y1.264
X2.502 Y1.402
X2.435 Y1.536
X2.361 Y1.666
X2.278 Y1.792
X2.189 Y1.912
X2.093 Y2.027
X1.99 Y2.137
X1.882 Y2.24
X1.767 Y2.338
X1.648 Y2.428
X1.524 Y2.512
X1.395 Y2.59
X1.263 Y2.66
X1.127 Y2.723
X0.987 Y2.779
X0.845 Y2.827
X0.701 Y2.868
X0.555 Y2.901
X0.407 Y2.927
X0.258 Y2.945
X0.108 Y2.955
X-0.042 Y2.958
X-0.191 Y2.952
X-0.341 Y2.939
X-0.489 Y2.919
X-0.637 Y2.891
X-0.783 Y2.855
X-0.926 Y2.812
X-1.068 Y2.762
X-1.206 Y2.705
X-1.342 Y2.64
X-1.474 Y2.569
X-1.602 Y2.491
X-1.726 Y2.407
X-1.846 Y2.317
X-1.961 Y2.22
X-2.071 Y2.118
X-2.175 Y2.011
X-2.275 Y1.898
X-2.368 Y1.781
X-2.455 Y1.659
X-2.536 Y1.532
X-2.61 Y1.402
X-2.678 Y1.268
X-2.738 Y1.131
X-2.792 Y0.991
X-2.839 Y0.848
X-2.878 Y0.704
X-2.91 Y0.557
X-2.935 Y0.409
X-2.952 Y0.26
X-2.961 Y0.11
X-2.963 Y-0.04
X-2.957 Y-0.189
X-2.943 Y-0.339
X-2.922 Y-0.487
X-2.894 Y-0.635
X-2.858 Y-0.78
X-2.815 Y-0.924
X-2.765 Y-1.065
X-2.708 Y-1.204
X-2.643 Y-1.339
X-2.572 Y-1.471
X-2.494 Y-1.6
X-2.41 Y-1.724
X-2.319 Y-1.843
X-2.223 Y-1.959
X-2.121 Y-2.069
X-2.014 Y-2.173
X-1.901 Y-2.273
X-1.784 Y-2.366
X-1.662 Y-2.453
X-1.536 Y-2.534
X-1.405 Y-2.608
X-1.272 Y-2.676
X-1.135 Y-2.737
X-0.995 Y-2.791
X-0.852 Y-2.838
X-0.707 Y-2.877
X-0.561 Y-2.91
X-0.413 Y-2.934
X-0.264 Y-2.951
X-0.114 Y-2.961
X0.036 Y-2.963
X0.186 Y-2.957
X0.335 Y-2.944
X0.484 Y-2.923
X0.631 Y-2.895
X0.777 Y-2.859
X0.92 Y-2.817
X1.062 Y-2.766
X1.2 Y-2.709
X1.336 Y-2.645
X1.468 Y-2.574
X1.596 Y-2.496
X1.721 Y-2.412
X1.841 Y-2.322
X1.956 Y-2.226
X2.066 Y-2.124
X2.171 Y-2.017
X2.27 Y-1.904
X2.364 Y-1.787
X2.451 Y-1.665
X2.532 Y-1.539
X2.607 Y-1.409
X2.675 Y-1.275
X2.738 Y-1.139
X2.795 Y-1
X2.847 Y-0.86
X2.893 Y-0.717
X2.934 Y-0.573
X2.969 Y-0.427
X2.997 Y-0.279
X3.019 Y-0.131
X3.035 Y0.018
X3.044 Y0.168
X3.045 Y0.318
X3.04 Y0.468
X3.027 Y0.617
X3.007 Y0.766
X2.979 Y0.913
X2.943 Y1.059
X2.9 Y1.203
X2.85 Y1.344
X2.793 Y1.483
X2.728 Y1.618
X2.657 Y1.75
X2.579 Y1.878
X2.494 Y2.002
X2.403 Y2.121
X2.323 Y2.212
X2.251 Y2.286
X2.174 Y2.357
X2.017 Y2.497
X2.009 Y2.504
X1.953 Y2.551
X1.807 Y2.662
X1.769 Y2.688
X1.731 Y2.712
X1.691 Y2.734
G3 X1.183 Y1.877 I-0.217 J-0.451
G1 X1.326 Y1.774
G3 X1.953 Y2.551 I0.291 J0.406
G1 X1.825 Y2.659
X1.762 Y2.696
X1.315 Y2.931
X1.278 Y2.95
X1.249 Y2.966
X1.107 Y3.026
G3 X0.398 Y2.681 I-0.154 J-0.584
X1.503 Y2.205 I0.553 J-0.238
X1.249 Y2.966 I-0.553 J0.238
G1 X1.153 Y3.013
X1.057 Y3.042
X0.567 Y3.163
X0.48 Y3.184
X0.384 Y3.202
X0.288 Y3.206
X-0.288
X-0.384 Y3.202
X-0.48 Y3.184
X-1.057 Y3.042
X-1.153 Y3.013
X-1.249 Y2.966
X-1.762 Y2.696
X-1.825 Y2.659
X-2.017 Y2.497
X-2.279 Y2.263
X-2.316 Y2.23
X-2.423 Y2.124
X-2.448 Y2.095
X-2.459 Y2.079
G3 X-1.707 Y1.434 I0.42 J-0.272
G1 X-1.663 Y1.474
G3 X-2.316 Y2.23 I-0.332 J0.373
G1 X-2.401 Y2.154
X-2.432 Y2.118
X-2.593 Y1.887
X-2.747 Y1.665
X-2.768 Y1.634
X-2.785 Y1.609
X-2.868 Y1.473
G3 X-2.598 Y0.643 I0.62 J-0.258
X-1.904 Y1.78 I0.347 J0.569
X-2.785 Y1.609 I-0.347 J-0.569
G1 X-2.832 Y1.541
X-2.859 Y1.492
X-2.881 Y1.444
X-3.064 Y0.963
X-3.085 Y0.905
X-3.099 Y0.864
X-3.137 Y0.738
G3 X-2.777 Y0.196 I0.508 J-0.053
X-2.486 Y1.16 I0.145 J0.482
X-3.099 Y0.864 I-0.145 J-0.482
G1 X-3.133 Y0.77
X-3.16 Y0.578
X-3.206 Y0.193
X-3.212 Y0.134
X-3.217 Y0.094
X-3.223 Y-0.031
G3 X-2.769 Y-0.448 I0.479 J0.066
X-2.719 Y0.505 I0.025 J0.476
X-3.217 Y0.094 I-0.025 J-0.476
G1 X-3.226 Y0
X-3.206 Y-0.193
X-3.16 Y-0.578
X-3.152 Y-0.636
X-3.146 Y-0.677
X-3.128 Y-0.758
X-3.106 Y-0.838
X-3.08 Y-0.917
G3 X-2.137 Y-0.586 I0.465 J0.185
G1 X-2.17 Y-0.479
G3 X-3.146 Y-0.677 I-0.478 J-0.146
G1 X-3.133 Y-0.77
X-3.064 Y-0.963
X-2.918 Y-1.348
X-2.907 Y-1.377
X-2.893 Y-1.414
X-2.855 Y-1.499
G3 X-2.313 Y-1.669 I0.369 J0.226
X-2.658 Y-0.882 I-0.172 J0.394
X-2.893 Y-1.414 I0.172 J-0.394
G1 X-2.881 Y-1.444
X-2.859 Y-1.492
X-2.832 Y-1.541
X-2.526 Y-1.984
X-2.497 Y-2.025
X-2.478 Y-2.053
X-2.421 Y-2.122
X-2.36 Y-2.187
X-2.295 Y-2.249
G3 X-1.619 Y-1.514 I0.321 J0.383
G1 X-1.703 Y-1.429
G3 X-2.478 Y-2.053 I-0.355 J-0.352
G1 X-2.432 Y-2.118
X-2.401 Y-2.154
X-2.209 Y-2.326
X-2.009 Y-2.504
X-1.908 Y-2.589
X-1.883 Y-2.61
X-1.818 Y-2.657
X-1.751 Y-2.7
X-1.681 Y-2.739
G3 X-1.212 Y-1.857 I0.217 J0.451
G1 X-1.294 Y-1.808
G3 X-1.883 Y-2.61 I-0.253 J-0.431
G1 X-1.825 Y-2.659
X-1.762 Y-2.696
X-1.315 Y-2.931
X-1.249 Y-2.966
X-1.153 Y-3.013
X-1.057 Y-3.042
X-0.48 Y-3.184
X-0.384 Y-3.202
X-0.288 Y-3.206
X0.288
X0.384 Y-3.202
X0.48 Y-3.184
X1.057 Y-3.042
X1.153 Y-3.013
X1.249 Y-2.966
X1.762 Y-2.696
X1.825 Y-2.659
X2.017 Y-2.497
X2.279 Y-2.263
X2.316 Y-2.23
X2.423 Y-2.124
X2.448 Y-2.095
X2.459 Y-2.08
G3 X1.708 Y-1.434 I-0.42 J0.272
G1 X1.663 Y-1.473
G3 X2.316 Y-2.23 I0.332 J-0.374
G1 X2.401 Y-2.154
X2.432 Y-2.118
X2.593 Y-1.887
X2.785 Y-1.609
X2.832 Y-1.541
X2.859 Y-1.492
X2.881 Y-1.444
X3.064 Y-0.963
X3.133 Y-0.77
X3.16 Y-0.578
X3.206 Y-0.193
X3.226 Y0
X3.206 Y0.193
X3.16 Y0.578
X3.133 Y0.77
X3.064 Y0.963
X2.881 Y1.444
X2.859 Y1.492
X2.832 Y1.541
X2.567 Y1.926
X2.432 Y2.118
X2.401 Y2.154
X2.174 Y2.357
G3 X1.916 Y2.468 I-0.318 J-0.386
G1 X1.856 Y2.471 Z-5.246
X1.789 Y2.458 Z-5.233
X1.724 Y2.445 Z-5.21
X1.662 Y2.432 Z-5.178
X1.611 Y2.398 Z-5.133
X1.566 Y2.367 Z-5.08
X1.529 Y2.341 Z-5.019
X1.499 Y2.321 Z-4.951
X1.483 Y2.304 Z-4.886
X1.474 Y2.293 Z-4.819
X1.471 Y2.29 Z-4.75
G0 Z5
X0.198 Y-2.367
Z-2.75
G3 X-0.198 Y2.367 Z-3.011 I-0.198 J2.367 F333.3
X0.198 Y-2.367 Z-3.271 I0.198 J-2.367
X-0.198 Y2.367 Z-3.532 I-0.198 J2.367
X0.198 Y-2.367 Z-3.792 I0.198 J-2.367
X-0.198 Y2.367 Z-4.053 I-0.198 J2.367
X0.198 Y-2.367 Z-4.313 I0.198 J-2.367
X-0.198 Y2.367 Z-4.574 I-0.198 J2.367
X0.198 Y-2.367 Z-4.834 I0.198 J-2.367
X-0.198 Y2.367 Z-5.095 I-0.198 J2.367
X0.198 Y-2.367 Z-5.356 I0.198 J-2.367
X-0.198 Y2.367 Z-5.616 I-0.198 J2.367
X0.198 Y-2.367 Z-5.877 I0.198 J-2.367
X2.375 Y0 Z-6 I-0.198 J2.367
X-2.375 I-2.375
X2.375 I2.375
G1 X2.386 Y0.643 F850
X2.384 Y0.793
X2.362 Y0.941
X2.325 Y1.086
X2.274 Y1.228
X2.212 Y1.364
X2.139 Y1.496
X2.058 Y1.621
X1.968 Y1.741
X1.87 Y1.855
X1.765 Y1.962
X1.653 Y2.062
X1.536 Y2.155
X1.413 Y2.241
X1.285 Y2.32
X1.152 Y2.39
X1.016 Y2.453
X0.876 Y2.508
X0.734 Y2.554
X0.589 Y2.593
X0.442 Y2.622
X0.293 Y2.644
X0.144 Y2.657
X-0.006 Y2.661
X-0.156 Y2.657
X-0.305 Y2.644
X-0.454 Y2.623
X-0.601 Y2.593
X-0.746 Y2.556
X-0.889 Y2.51
X-1.029 Y2.456
X-1.166 Y2.394
X-1.299 Y2.325
X-1.428 Y2.248
X-1.552 Y2.164
X-1.671 Y2.073
X-1.785 Y1.976
X-1.894 Y1.872
X-1.996 Y1.763
X-2.092 Y1.647
X-2.182 Y1.527
X-2.264 Y1.402
X-2.34 Y1.272
X-2.408 Y1.138
X-2.468 Y1.001
X-2.52 Y0.86
X-2.565 Y0.717
X-2.601 Y0.572
X-2.629 Y0.424
X-2.649 Y0.276
X-2.66 Y0.126
X-2.663 Y-0.024
X-2.657 Y-0.174
X-2.643 Y-0.323
X-2.621 Y-0.472
X-2.59 Y-0.618
X-2.551 Y-0.763
X-2.504 Y-0.906
X-2.449 Y-1.045
X-2.387 Y-1.182
X-2.316 Y-1.314
X-2.239 Y-1.442
X-2.154 Y-1.566
X-2.062 Y-1.685
X-1.964 Y-1.798
X-1.86 Y-1.906
X-1.75 Y-2.008
X-1.634 Y-2.103
X-1.513 Y-2.192
X-1.387 Y-2.273
X-1.257 Y-2.348
X-1.123 Y-2.415
X-0.985 Y-2.474
X-0.844 Y-2.526
X-0.7 Y-2.569
X-0.555 Y-2.605
X-0.407 Y-2.632
X-0.258 Y-2.651
X-0.109 Y-2.661
X0.041 Y-2.663
X0.191 Y-2.656
X0.34 Y-2.641
X0.489 Y-2.618
X0.635 Y-2.586
X0.78 Y-2.546
X0.922 Y-2.498
X1.061 Y-2.443
X1.197 Y-2.379
X1.329 Y-2.308
X1.457 Y-2.229
X1.58 Y-2.144
X1.698 Y-2.051
X1.811 Y-1.952
X1.918 Y-1.847
X2.019 Y-1.737
X2.114 Y-1.62
X2.202 Y-1.498
X2.282 Y-1.372
X2.356 Y-1.241
X2.422 Y-1.107
X2.481 Y-0.969
X2.531 Y-0.828
X2.574 Y-0.684
X2.611 Y-0.538
X2.647 Y-0.374
X2.676 Y-0.213
X2.699 Y-0.065
X2.715 Y0.085
X2.725 Y0.234
X2.727 Y0.384
X2.721 Y0.534
X2.707 Y0.683
X2.684 Y0.832
X2.652 Y0.978
X2.611 Y1.122
X2.561 Y1.264
X2.502 Y1.402
X2.435 Y1.536
X2.361 Y1.666
X2.278 Y1.792
X2.189 Y1.912
X2.093 Y2.027
X1.99 Y2.137
X1.882 Y2.24
X1.767 Y2.338
X1.648 Y2.428
X1.524 Y2.512
X1.395 Y2.59
X1.263 Y2.66
X1.127 Y2.723
X0.987 Y2.779
X0.845 Y2.827
X0.701 Y2.868
X0.555 Y2.901
X0.407 Y2.927
X0.258 Y2.945
X0.108 Y2.955
X-0.042 Y2.958
X-0.191 Y2.952
X-0.341 Y2.939
X-0.489 Y2.919
X-0.637 Y2.891
X-0.783 Y2.855
X-0.926 Y2.812
X-1.068 Y2.762
X-1.206 Y2.705
X-1.342 Y2.64
X-1.474 Y2.569
X-1.602 Y2.491
X-1.726 Y2.407
X-1.846 Y2.317
X-1.961 Y2.22
X-2.071 Y2.118
X-2.175 Y2.011
X-2.275 Y1.898
X-2.368 Y1.781
X-2.455 Y1.659
X-2.536 Y1.532
X-2.61 Y1.402
X-2.678 Y1.268
X-2.738 Y1.131
X-2.792 Y0.991
X-2.839 Y0.848
X-2.878 Y0.704
X-2.91 Y0.557
X-2.935 Y0.409
X-2.952 Y0.26
X-2.961 Y0.11
X-2.963 Y-0.04
X-2.957 Y-0.189
X-2.943 Y-0.339
X-2.922 Y-0.487
X-2.894 Y-0.635
X-2.858 Y-0.78
X-2.815 Y-0.924
X-2.765 Y-1.065
X-2.708 Y-1.204
X-2.643 Y-1.339
X-2.572 Y-1.471
X-2.494 Y-1.6
X-2.41 Y-1.724
X-2.319 Y-1.843
X-2.223 Y-1.959
X-2.121 Y-2.069
X-2.014 Y-2.173
X-1.901 Y-2.273
X-1.784 Y-2.366
X-1.662 Y-2.453
X-1.536 Y-2.534
X-1.405 Y-2.608
X-1.272 Y-2.676
X-1.135 Y-2.737
X-0.995 Y-2.791
X-0.852 Y-2.838
X-0.707 Y-2.877
X-0.561 Y-2.91
X-0.413 Y-2.934
X-0.264 Y-2.951
X-0.114 Y-2.961
X0.036 Y-2.963
X0.186 Y-2.957
X0.335 Y-2.944
X0.484 Y-2.923
X0.631 Y-2.895
X0.777 Y-2.859
X0.92 Y-2.817
X1.062 Y-2.766
X1.2 Y-2.709
X1.336 Y-2.645
X1.468 Y-2.574
X1.596 Y-2.496
X1.721 Y-2.412
X1.841 Y-2.322
X1.956 Y-2.226
X2.066 Y-2.124
X2.171 Y-2.017
X2.27 Y-1.904
X2.364 Y-1.787
X2.451 Y-1.665
X2.532 Y-1.539
X2.607 Y-1.409
X2.675 Y-1.275
X2.738 Y-1.139
X2.795 Y-1
X2.847 Y-0.86
X2.893 Y-0.717
X2.934 Y-0.573
X2.969 Y-0.427
X2.997 Y-0.279
X3.019 Y-0.131
X3.035 Y0.018
X3.044 Y0.168
X3.045 Y0.318
X3.04 Y0.468
X3.027 Y0.617
X3.007 Y0.766
X2.979 Y0.913
X2.943 Y1.059
X2.9 Y1.203
X2.85 Y1.344
X2.793 Y1.483
X2.728 Y1.618
X2.657 Y1.75
X2.579 Y1.878
X2.494 Y2.002
X2.403 Y2.121
X2.323 Y2.212
X2.251 Y2.286
X2.174 Y2.357
X2.017 Y2.497
X2.009 Y2.504
X1.953 Y2.551
X1.807 Y2.662
X1.769 Y2.688
X1.731 Y2.712
X1.691 Y2.734
G3 X1.183 Y1.877 I-0.217 J-0.451
G1 X1.326 Y1.774
G3 X1.953 Y2.551 I0.291 J0.406
G1 X1.825 Y2.659
X1.762 Y2.696
X1.315 Y2.931
X1.278 Y2.95
X1.249 Y2.966
X1.107 Y3.026
G3 X0.398 Y2.681 I-0.154 J-0.584
X1.503 Y2.205 I0.553 J-0.238
X1.249 Y2.966 I-0.553 J0.238
G1 X1.153 Y3.013
X1.057 Y3.042
X0.567 Y3.163
X0.48 Y3.184
X0.384 Y3.202
X0.288 Y3.206
X-0.288
X-0.384 Y3.202
X-0.48 Y3.184
X-1.057 Y3.042
X-1.153 Y3.013
X-1.249 Y2.966
X-1.762 Y2.696
X-1.825 Y2.659
X-2.017 Y2.497
X-2.279 Y2.263
X-2.316 Y2.23
X-2.423 Y2.124
X-2.448 Y2.095
X-2.459 Y2.079
G3 X-1.707 Y1.434 I0.42 J-0.272
G1 X-1.663 Y1.474
G3 X-2.316 Y2.23 I-0.332 J0.373
G1 X-2.401 Y2.154
X-2.432 Y2.118
X-2.593 Y1.887
X-2.747 Y1.665
X-2.768 Y1.634
X-2.785 Y1.609
X-2.868 Y1.473
G3 X-2.598 Y0.643 I0.62 J-0.258
X-1.904 Y1.78 I0.347 J0.569
X-2.785 Y1.609 I-0.347 J-0.569
G1 X-2.832 Y1.541
X-2.859 Y1.492
X-2.881 Y1.444
X-3.064 Y0.963
X-3.085 Y0.905
X-3.099 Y0.864
X-3.137 Y0.738
G3 X-2.777 Y0.196 I0.508 J-0.053
X-2.486 Y1.16 I0.145 J0.482
X-3.099 Y0.864 I-0.145 J-0.482
G1 X-3.133 Y0.77
X-3.16 Y0.578
X-3.206 Y0.193
X-3.212 Y0.134
X-3.217 Y0.094
X-3.223 Y-0.031
G3 X-2.769 Y-0.448 I0.479 J0.066
X-2.719 Y0.505 I0.025 J0.476
X-3.217 Y0.094 I-0.025 J-0.476
G1 X-3.226 Y0
X-3.206 Y-0.193
X-3.16 Y-0.578
X-3.152 Y-0.636
X-3.146 Y-0.677
X-3.128 Y-0.758
X-3.106 Y-0.838
X-3.08 Y-0.917
G3 X-2.137 Y-0.586 I0.465 J0.185
G1 X-2.17 Y-0.479
G3 X-3.146 Y-0.677 I-0.478 J-0.146
G1 X-3.133 Y-0.77
X-3.064 Y-0.963
X-2.918 Y-1.348
X-2.907 Y-1.377
X-2.893 Y-1.414
X-2.855 Y-1.499
G3 X-2.313 Y-1.669 I0.369 J0.226
X-2.658 Y-0.882 I-0.172 J0.394
X-2.893 Y-1.414 I0.172 J-0.394
G1 X-2.881 Y-1.444
X-2.859 Y-1.492
X-2.832 Y-1.541
X-2.526 Y-1.984
X-2.497 Y-2.025
X-2.478 Y-2.053
X-2.421 Y-2.122
X-2.36 Y-2.187
X-2.295 Y-2.249
G3 X-1.619 Y-1.514 I0.321 J0.383
G1 X-1.703 Y-1.429
G3 X-2.478 Y-2.053 I-0.355 J-0.352
G1 X-2.432 Y-2.118
X-2.401 Y-2.154
X-2.209 Y-2.326
X-2.009 Y-2.504
X-1.908 Y-2.589
X-1.883 Y-2.61
X-1.818 Y-2.657
X-1.751 Y-2.7
X-1.681 Y-2.739
G3 X-1.212 Y-1.857 I0.217 J0.451
G1 X-1.294 Y-1.808
G3 X-1.883 Y-2.61 I-0.253 J-0.431
G1 X-1.825 Y-2.659
X-1.762 Y-2.696
X-1.315 Y-2.931
X-1.249 Y-2.966
X-1.153 Y-3.013
X-1.057 Y-3.042
X-0.48 Y-3.184
X-0.384 Y-3.202
X-0.288 Y-3.206
X0.288
X0.384 Y-3.202
X0.48 Y-3.184
X1.057 Y-3.042
X1.153 Y-3.013
X1.249 Y-2.966
X1.762 Y-2.696
X1.825 Y-2.659
X2.017 Y-2.497
X2.279 Y-2.263
X2.316 Y-2.23
X2.423 Y-2.124
X2.448 Y-2.095
X2.459 Y-2.08
G3 X1.708 Y-1.434 I-0.42 J0.272
G1 X1.663 Y-1.473
G3 X2.316 Y-2.23 I0.332 J-0.374
G1 X2.401 Y-2.154
X2.432 Y-2.118
X2.593 Y-1.887
X2.785 Y-1.609
X2.832 Y-1.541
X2.859 Y-1.492
X2.881 Y-1.444
X3.064 Y-0.963
X3.133 Y-0.77
X3.16 Y-0.578
X3.206 Y-0.193
X3.226 Y0
X3.206 Y0.193
X3.16 Y0.578
X3.133 Y0.77
X3.064 Y0.963
X2.881 Y1.444
X2.859 Y1.492
X2.832 Y1.541
X2.567 Y1.926
X2.432 Y2.118
X2.401 Y2.154
X2.174 Y2.357
G3 X1.471 Y2.29 I-0.318 J-0.386
G1 X1.415 Y2.223 Z-5.992
X1.362 Y2.158 Z-5.97
X1.311 Y2.097 Z-5.933
X1.266 Y2.042 Z-5.883
X1.227 Y1.994 Z-5.821
X1.195 Y1.956 Z-5.75
X1.171 Y1.927 Z-5.671
X1.157 Y1.91 Z-5.587
X1.152 Y1.904 Z-5.5
G0 Z15
M30
%
