%
(1001)
(z0 centre circle stock bottom)
(T1  D=6 CR=0 - ZMIN=0 - flat end mill)
G90 G94
G17
G21

(2D Adaptive1)
M9
T1 M6
S6000 M3
G54
M9
G0 X-0.317 Y-2.832
Z27
Z17
Z15.15
G1 Z14.55 F850
G3 X0.317 Y2.832 Z14.237 I0.317 J2.832 F283.3
X-0.317 Y-2.832 Z13.925 I-0.317 J-2.832
X0.317 Y2.832 Z13.612 I0.317 J2.832
X-0.317 Y-2.832 Z13.299 I-0.317 J-2.832
X0.317 Y2.832 Z12.987 I0.317 J2.832
X-0.317 Y-2.832 Z12.674 I-0.317 J-2.832
X0.317 Y2.832 Z12.361 I0.317 J2.832
X-0.317 Y-2.832 Z12.049 I-0.317 J-2.832
X0.317 Y2.832 Z11.736 I0.317 J2.832
X-0.317 Y-2.832 Z11.423 I-0.317 J-2.832
X0.317 Y2.832 Z11.111 I0.317 J2.832
X-0.317 Y-2.832 Z10.798 I-0.317 J-2.832
X0.317 Y2.832 Z10.485 I0.317 J2.832
X-0.317 Y-2.832 Z10.173 I-0.317 J-2.832
X0.317 Y2.832 Z9.86 I0.317 J2.832
X-0.317 Y-2.832 Z9.547 I-0.317 J-2.832
X0.317 Y2.832 Z9.235 I0.317 J2.832
X-0.317 Y-2.832 Z8.922 I-0.317 J-2.832
X0.317 Y2.832 Z8.609 I0.317 J2.832
X-0.317 Y-2.832 Z8.297 I-0.317 J-2.832
X0.317 Y2.832 Z7.984 I0.317 J2.832
X-0.317 Y-2.832 Z7.671 I-0.317 J-2.832
X0.317 Y2.832 Z7.359 I0.317 J2.832
X-0.317 Y-2.832 Z7.046 I-0.317 J-2.832
X0.317 Y2.832 Z6.733 I0.317 J2.832
X-0.317 Y-2.832 Z6.421 I-0.317 J-2.832
X0.317 Y2.832 Z6.108 I0.317 J2.832
X-0.317 Y-2.832 Z5.795 I-0.317 J-2.832
X0.317 Y2.832 Z5.483 I0.317 J2.832
X-0.317 Y-2.832 Z5.17 I-0.317 J-2.832
X0.317 Y2.832 Z4.857 I0.317 J2.832
X-0.317 Y-2.832 Z4.545 I-0.317 J-2.832
X0.317 Y2.832 Z4.232 I0.317 J2.832
X-0.317 Y-2.832 Z3.919 I-0.317 J-2.832
X0.317 Y2.832 Z3.607 I0.317 J2.832
X-0.317 Y-2.832 Z3.294 I-0.317 J-2.832
X0.317 Y2.832 Z2.981 I0.317 J2.832
X-0.317 Y-2.832 Z2.669 I-0.317 J-2.832
X0.317 Y2.832 Z2.356 I0.317 J2.832
X-0.317 Y-2.832 Z2.043 I-0.317 J-2.832
X0.317 Y2.832 Z1.731 I0.317 J2.832
X-0.317 Y-2.832 Z1.418 I-0.317 J-2.832
X0.317 Y2.832 Z1.105 I0.317 J2.832
X-0.317 Y-2.832 Z0.793 I-0.317 J-2.832
X0.317 Y2.832 Z0.48 I0.317 J2.832
X-0.317 Y-2.832 Z0.167 I-0.317 J-2.832
X2.85 Y0 Z0 I0.317 J2.832
X-2.85 I-2.85
X2.85 I2.85
G1 X2.854 Y0.256 F850
X3.023 Y1.253
X3.038 Y1.403
Y1.553
X3.025 Y1.702
X3 Y1.85
X2.964 Y1.996
X2.916 Y2.144
X2.855 Y2.297
X2.779 Y2.453
X2.689 Y2.609
X2.585 Y2.766
X2.464 Y2.921
X2.355 Y3.033
X2.235 Y3.134
X2.107 Y3.223
X1.861 Y3.378
X1.675 Y3.489
X1.628 Y3.509
X0.93 Y3.754
X0.872 Y3.771
X0.814 Y3.782
X0.233 Y3.848
X0 Y3.871
X-0.233 Y3.848
X-0.814 Y3.782
X-0.872 Y3.771
X-0.93 Y3.754
X-1.628 Y3.509
X-1.675 Y3.489
X-1.861 Y3.378
X-2.326 Y3.086
X-2.416 Y3.024
X-2.559 Y2.886
X-2.886 Y2.559
X-3.024 Y2.416
X-3.086 Y2.326
X-3.378 Y1.861
X-3.489 Y1.675
X-3.509 Y1.628
X-3.754 Y0.93
X-3.771 Y0.872
X-3.782 Y0.814
X-3.848 Y0.233
X-3.871 Y0
X-3.848 Y-0.233
X-3.782 Y-0.814
X-3.771 Y-0.872
X-3.754 Y-0.93
X-3.509 Y-1.628
X-3.489 Y-1.675
X-3.378 Y-1.861
X-3.086 Y-2.326
X-3.024 Y-2.416
X-2.886 Y-2.559
X-2.559 Y-2.886
X-2.416 Y-3.024
X-2.326 Y-3.086
X-1.861 Y-3.378
X-1.675 Y-3.489
X-1.628 Y-3.509
X-0.93 Y-3.754
X-0.872 Y-3.771
X-0.814 Y-3.782
X-0.233 Y-3.848
X0 Y-3.871
X0.233 Y-3.848
X0.814 Y-3.782
X0.872 Y-3.771
X0.93 Y-3.754
X1.628 Y-3.509
X1.675 Y-3.489
X1.861 Y-3.378
X2.326 Y-3.086
X2.416 Y-3.024
X2.559 Y-2.886
X2.886 Y-2.559
X3.024 Y-2.416
X3.086 Y-2.326
X3.378 Y-1.861
X3.489 Y-1.675
X3.509 Y-1.628
X3.754 Y-0.93
X3.771 Y-0.872
X3.782 Y-0.814
X3.848 Y-0.233
X3.871 Y0
X3.848 Y0.233
X3.782 Y0.814
X3.771 Y0.872
X3.754 Y0.93
X3.509 Y1.628
X3.489 Y1.675
X3.378 Y1.861
X3.086 Y2.326
X3.024 Y2.416
X2.886 Y2.559
X2.559 Y2.886
X2.416 Y3.024
X2.326 Y3.086
X2.107 Y3.223
G3 X1.885 Y3.299 I-0.301 J-0.519
G1 X1.792 Y3.312 Z0.007
X1.702 Y3.324 Z0.029
X1.615 Y3.335 Z0.065
X1.536 Y3.346 Z0.115
X1.465 Y3.356 Z0.176
X1.404 Y3.364 Z0.247
X1.356 Y3.37 Z0.328
X1.32 Y3.375 Z0.415
X1.298 Y3.378 Z0.506
X1.291 Y3.379 Z0.6
G0 Z27

(2D Contour1)
S8000 M3
M9
X3.1 Y-0.6
Z27
Z17
G1 Z13 F283.3
Z0.6
G18 G2 X3.7 Z0 I0.6
G1 X4.3 F850
G17 G3 X4.9 Y0 J0.6
X-4.9 I-4.9
X4.9 I4.9
X4.3 Y0.6 I-0.6
G1 X3.7
G18 G3 X3.1 Z0.6 K0.6
G0 Z27
G17
M9
M30
%
