%
(1001)
(z0 centre circle stock bottom)
(T1  D=6 CR=0 - ZMIN=0 - flat end mill)
G90 G94
G17
G21

(2D Adaptive1)
M9
T1 M6
S6000 M3
G54
M9
G0 X2.811 Y0.472
Z30
Z20
Z18.1
G1 Z17.5 F850
G3 X-2.81 Y-0.473 Z17.187 I-2.811 J-0.473 F283.3
X2.811 Y0.472 Z16.875 I2.811 J0.473
X-2.81 Y-0.473 Z16.562 I-2.811 J-0.473
X2.811 Y0.472 Z16.249 I2.811 J0.473
X-2.81 Y-0.473 Z15.937 I-2.811 J-0.473
X2.811 Y0.472 Z15.624 I2.811 J0.473
X-2.81 Y-0.473 Z15.311 I-2.811 J-0.473
X2.811 Y0.472 Z14.999 I2.811 J0.473
X-2.81 Y-0.473 Z14.686 I-2.811 J-0.473
X2.811 Y0.472 Z14.373 I2.811 J0.473
X-2.81 Y-0.473 Z14.061 I-2.811 J-0.473
X2.811 Y0.472 Z13.748 I2.811 J0.473
X-2.81 Y-0.473 Z13.435 I-2.811 J-0.473
X2.811 Y0.472 Z13.123 I2.811 J0.473
X-2.81 Y-0.473 Z12.81 I-2.811 J-0.473
X2.811 Y0.472 Z12.497 I2.811 J0.473
X-2.81 Y-0.473 Z12.185 I-2.811 J-0.473
X2.811 Y0.472 Z11.872 I2.811 J0.473
X-2.81 Y-0.473 Z11.559 I-2.811 J-0.473
X2.811 Y0.472 Z11.247 I2.811 J0.473
X-2.81 Y-0.473 Z10.934 I-2.811 J-0.473
X2.811 Y0.472 Z10.621 I2.811 J0.473
X-2.81 Y-0.473 Z10.309 I-2.811 J-0.473
X2.811 Y0.472 Z9.996 I2.811 J0.473
X-2.81 Y-0.473 Z9.683 I-2.811 J-0.473
X2.811 Y0.472 Z9.371 I2.811 J0.473
X-2.81 Y-0.473 Z9.058 I-2.811 J-0.473
X2.811 Y0.472 Z8.745 I2.811 J0.473
X-2.81 Y-0.473 Z8.433 I-2.811 J-0.473
X2.811 Y0.472 Z8.12 I2.811 J0.473
X-2.81 Y-0.473 Z7.807 I-2.811 J-0.473
X2.811 Y0.472 Z7.495 I2.811 J0.473
X-2.81 Y-0.473 Z7.182 I-2.811 J-0.473
X2.811 Y0.472 Z6.869 I2.811 J0.473
X-2.81 Y-0.473 Z6.557 I-2.811 J-0.473
X2.811 Y0.472 Z6.244 I2.811 J0.473
X-2.81 Y-0.473 Z5.931 I-2.811 J-0.473
X2.811 Y0.472 Z5.619 I2.811 J0.473
X-2.81 Y-0.473 Z5.306 I-2.811 J-0.473
X2.85 Y0 Z5.01 I2.811 J0.473
X-2.85 I-2.85
X2.85 I2.85
G1 X2.854 Y0.256 F850
X2.977 Y0.983
X3 Y1.3
X2.963 Y1.615
X2.867 Y1.917
X2.715 Y2.196
X2.513 Y2.441
X2.279 Y2.675
X2.21 Y2.74
X1.977 Y2.894
X1.586 Y3.14
X1.512 Y3.179
X1.279 Y3.263
X0.967 Y3.373
X0.814 Y3.425
X0.581 Y3.459
X0.116 Y3.512
X0 Y3.521
X-0.116 Y3.512
X-0.581 Y3.459
X-0.814 Y3.425
X-1.047 Y3.345
X-1.279 Y3.263
X-1.512 Y3.179
X-1.586 Y3.14
X-1.977 Y2.894
X-2.21 Y2.74
X-2.279 Y2.675
X-2.675 Y2.279
X-2.741 Y2.21
X-2.894 Y1.977
X-3.14 Y1.586
X-3.179 Y1.512
X-3.263 Y1.279
X-3.373 Y0.967
X-3.425 Y0.814
X-3.459 Y0.581
X-3.512 Y0.116
X-3.521 Y0
X-3.512 Y-0.116
X-3.459 Y-0.581
X-3.425 Y-0.814
X-3.345 Y-1.047
X-3.263 Y-1.279
X-3.179 Y-1.512
X-3.14 Y-1.586
X-2.894 Y-1.977
X-2.741 Y-2.21
X-2.675 Y-2.279
X-2.279 Y-2.675
X-2.21 Y-2.74
X-1.977 Y-2.894
X-1.586 Y-3.14
X-1.512 Y-3.179
X-1.279 Y-3.263
X-0.967 Y-3.373
X-0.814 Y-3.425
X-0.581 Y-3.459
X-0.116 Y-3.512
X0 Y-3.521
X0.116 Y-3.512
X0.581 Y-3.459
X0.814 Y-3.425
X1.047 Y-3.345
X1.279 Y-3.263
X1.512 Y-3.179
X1.586 Y-3.14
X1.977 Y-2.894
X2.21 Y-2.74
X2.279 Y-2.675
X2.675 Y-2.279
X2.741 Y-2.21
X2.894 Y-1.977
X3.14 Y-1.586
X3.179 Y-1.512
X3.263 Y-1.279
X3.373 Y-0.967
X3.425 Y-0.814
X3.459 Y-0.581
X3.512 Y-0.116
X3.521 Y0
X3.512 Y0.116
X3.459 Y0.581
X3.425 Y0.814
X3.345 Y1.047
X3.263 Y1.279
X3.179 Y1.512
X3.14 Y1.586
X2.894 Y1.977
X2.741 Y2.21
X2.675 Y2.279
X2.513 Y2.441
X2.466 Y2.47 Z5.017
X2.423 Y2.498 Z5.036
X2.384 Y2.523 Z5.067
X2.352 Y2.543 Z5.108
X2.33 Y2.558 Z5.157
X2.318 Y2.562 Z5.2
X2.314 Y2.564 Z5.246
G0 Z20
X2.845 Y-0.173
Z8.11
G1 Z7.51 F850
G3 X-2.845 Y0.173 Z7.197 I-2.845 J0.173 F283.3
X2.845 Y-0.173 Z6.885 I2.845 J-0.173
X-2.845 Y0.173 Z6.572 I-2.845 J0.173
X2.845 Y-0.173 Z6.259 I2.845 J-0.173
X-2.845 Y0.173 Z5.947 I-2.845 J0.173
X2.845 Y-0.173 Z5.634 I2.845 J-0.173
X-2.845 Y0.173 Z5.321 I-2.845 J0.173
X2.845 Y-0.173 Z5.009 I2.845 J-0.173
X-2.845 Y0.173 Z4.696 I-2.845 J0.173
X2.845 Y-0.173 Z4.383 I2.845 J-0.173
X-2.845 Y0.173 Z4.071 I-2.845 J0.173
X2.845 Y-0.173 Z3.758 I2.845 J-0.173
X-2.845 Y0.173 Z3.445 I-2.845 J0.173
X2.845 Y-0.173 Z3.133 I2.845 J-0.173
X-2.845 Y0.173 Z2.82 I-2.845 J0.173
X2.845 Y-0.173 Z2.507 I2.845 J-0.173
X-2.845 Y0.173 Z2.195 I-2.845 J0.173
X2.845 Y-0.173 Z1.882 I2.845 J-0.173
X-2.845 Y0.173 Z1.569 I-2.845 J0.173
X2.845 Y-0.173 Z1.257 I2.845 J-0.173
X-2.845 Y0.173 Z0.944 I-2.845 J0.173
X2.845 Y-0.173 Z0.631 I2.845 J-0.173
X-2.845 Y0.173 Z0.319 I-2.845 J0.173
X-0.087 Y-2.849 Z0.159 I2.845 J-0.173
X2.85 Y0 Z0 I0.087 J2.849
X-2.85 I-2.85
X2.85 I2.85
G1 X2.854 Y0.256 F850
X2.977 Y0.983
X3 Y1.3
X2.963 Y1.615
X2.867 Y1.917
X2.715 Y2.196
X2.513 Y2.441
X2.279 Y2.675
X2.21 Y2.74
X1.977 Y2.894
X1.586 Y3.14
X1.512 Y3.179
X1.279 Y3.263
X0.967 Y3.373
X0.814 Y3.425
X0.581 Y3.459
X0.116 Y3.512
X0 Y3.521
X-0.116 Y3.512
X-0.581 Y3.459
X-0.814 Y3.425
X-1.047 Y3.345
X-1.279 Y3.263
X-1.512 Y3.179
X-1.586 Y3.14
X-1.977 Y2.894
X-2.21 Y2.74
X-2.279 Y2.675
X-2.675 Y2.279
X-2.741 Y2.21
X-2.894 Y1.977
X-3.14 Y1.586
X-3.179 Y1.512
X-3.263 Y1.279
X-3.373 Y0.967
X-3.425 Y0.814
X-3.459 Y0.581
X-3.512 Y0.116
X-3.521 Y0
X-3.512 Y-0.116
X-3.459 Y-0.581
X-3.425 Y-0.814
X-3.345 Y-1.047
X-3.263 Y-1.279
X-3.179 Y-1.512
X-3.14 Y-1.586
X-2.894 Y-1.977
X-2.741 Y-2.21
X-2.675 Y-2.279
X-2.279 Y-2.675
X-2.21 Y-2.74
X-1.977 Y-2.894
X-1.586 Y-3.14
X-1.512 Y-3.179
X-1.279 Y-3.263
X-0.967 Y-3.373
X-0.814 Y-3.425
X-0.581 Y-3.459
X-0.116 Y-3.512
X0 Y-3.521
X0.116 Y-3.512
X0.581 Y-3.459
X0.814 Y-3.425
X1.047 Y-3.345
X1.279 Y-3.263
X1.512 Y-3.179
X1.586 Y-3.14
X1.977 Y-2.894
X2.21 Y-2.74
X2.279 Y-2.675
X2.675 Y-2.279
X2.741 Y-2.21
X2.894 Y-1.977
X3.14 Y-1.586
X3.179 Y-1.512
X3.263 Y-1.279
X3.373 Y-0.967
X3.425 Y-0.814
X3.459 Y-0.581
X3.512 Y-0.116
X3.521 Y0
X3.512 Y0.116
X3.459 Y0.581
X3.425 Y0.814
X3.345 Y1.047
X3.263 Y1.279
X3.179 Y1.512
X3.14 Y1.586
X2.894 Y1.977
X2.741 Y2.21
X2.675 Y2.279
X2.513 Y2.441
G3 X2.314 Y2.564 I-0.409 J-0.439
G1 X2.226 Y2.597 Z0.007
X2.14 Y2.629 Z0.029
X2.058 Y2.659 Z0.065
X1.983 Y2.687 Z0.115
X1.916 Y2.712 Z0.176
X1.859 Y2.734 Z0.247
X1.813 Y2.751 Z0.328
X1.779 Y2.764 Z0.415
X1.758 Y2.771 Z0.506
X1.752 Y2.774 Z0.6
G0 Z30

(2D Contour1)
S8000 M3
M9
X2.75 Y-0.6
Z30
Z20
G1 Z16 F283.3
Z0.6
G18 G2 X3.35 Z0 I0.6
G1 X3.95 F850
G17 G3 X4.55 Y0 J0.6
X-4.55 I-4.55
X4.55 I4.55
X3.95 Y0.6 I-0.6
G1 X3.35
G18 G3 X2.75 Z0.6 K0.6
G0 Z30
G17
M9
M30
%
