%
(1001)
(z0 centre circle stock bottom)
(T1  D=6 CR=0 - ZMIN=0 - flat end mill)
G90 G94
G17
G21

(2D Adaptive1)
M9
T1 M6
S6000 M3
G54
M9
G0 X-0.317 Y-2.832
Z27
Z17
Z15.15
G1 Z14.55 F850
G3 X0.317 Y2.832 Z14.237 I0.317 J2.832 F283.3
X-0.317 Y-2.832 Z13.925 I-0.317 J-2.832
X0.317 Y2.832 Z13.612 I0.317 J2.832
X-0.317 Y-2.832 Z13.299 I-0.317 J-2.832
X0.317 Y2.832 Z12.987 I0.317 J2.832
X-0.317 Y-2.832 Z12.674 I-0.317 J-2.832
X0.317 Y2.832 Z12.361 I0.317 J2.832
X-0.317 Y-2.832 Z12.049 I-0.317 J-2.832
X0.317 Y2.832 Z11.736 I0.317 J2.832
X-0.317 Y-2.832 Z11.423 I-0.317 J-2.832
X0.317 Y2.832 Z11.111 I0.317 J2.832
X-0.317 Y-2.832 Z10.798 I-0.317 J-2.832
X0.317 Y2.832 Z10.485 I0.317 J2.832
X-0.317 Y-2.832 Z10.173 I-0.317 J-2.832
X0.317 Y2.832 Z9.86 I0.317 J2.832
X-0.317 Y-2.832 Z9.547 I-0.317 J-2.832
X0.317 Y2.832 Z9.235 I0.317 J2.832
X-0.317 Y-2.832 Z8.922 I-0.317 J-2.832
X0.317 Y2.832 Z8.609 I0.317 J2.832
X-0.317 Y-2.832 Z8.297 I-0.317 J-2.832
X0.317 Y2.832 Z7.984 I0.317 J2.832
X-0.317 Y-2.832 Z7.671 I-0.317 J-2.832
X0.317 Y2.832 Z7.359 I0.317 J2.832
X-0.317 Y-2.832 Z7.046 I-0.317 J-2.832
X0.317 Y2.832 Z6.733 I0.317 J2.832
X-0.317 Y-2.832 Z6.421 I-0.317 J-2.832
X0.317 Y2.832 Z6.108 I0.317 J2.832
X-0.317 Y-2.832 Z5.795 I-0.317 J-2.832
X0.317 Y2.832 Z5.483 I0.317 J2.832
X-0.317 Y-2.832 Z5.17 I-0.317 J-2.832
X0.317 Y2.832 Z4.857 I0.317 J2.832
X-0.317 Y-2.832 Z4.545 I-0.317 J-2.832
X0.317 Y2.832 Z4.232 I0.317 J2.832
X-0.317 Y-2.832 Z3.919 I-0.317 J-2.832
X0.317 Y2.832 Z3.607 I0.317 J2.832
X-0.317 Y-2.832 Z3.294 I-0.317 J-2.832
X0.317 Y2.832 Z2.981 I0.317 J2.832
X-0.317 Y-2.832 Z2.669 I-0.317 J-2.832
X0.317 Y2.832 Z2.356 I0.317 J2.832
X-0.317 Y-2.832 Z2.043 I-0.317 J-2.832
X0.317 Y2.832 Z1.731 I0.317 J2.832
X-0.317 Y-2.832 Z1.418 I-0.317 J-2.832
X0.317 Y2.832 Z1.105 I0.317 J2.832
X-0.317 Y-2.832 Z0.793 I-0.317 J-2.832
X0.317 Y2.832 Z0.48 I0.317 J2.832
X-0.317 Y-2.832 Z0.167 I-0.317 J-2.832
X2.85 Y0 Z0 I0.317 J2.832
X-2.85 I-2.85
X2.85 I2.85
G1 X2.854 Y0.256 F850
X3.023 Y1.253
X3.038 Y1.403
Y1.553
X3.025 Y1.702
X3 Y1.85
X2.964 Y1.996
X2.956 Y2.019
X2.856 Y2.262
X2.719 Y2.486
X2.549 Y2.686
X2.442 Y2.793
X2.327 Y2.903
X2.142 Y3.025
X1.772 Y3.258
X1.629 Y3.345
X1.396 Y3.433
X0.931 Y3.596
X0.814 Y3.63
X0.698 Y3.646
X0.233 Y3.698
X0 Y3.721
X-0.233 Y3.698
X-0.698 Y3.646
X-0.814 Y3.63
X-0.931 Y3.596
X-1.396 Y3.433
X-1.629 Y3.345
X-1.772 Y3.258
X-2.142 Y3.025
X-2.327 Y2.903
X-2.442 Y2.793
X-2.793 Y2.442
X-2.903 Y2.327
X-3.025 Y2.142
X-3.258 Y1.772
X-3.345 Y1.629
X-3.433 Y1.396
X-3.596 Y0.931
X-3.63 Y0.814
X-3.646 Y0.698
X-3.698 Y0.233
X-3.721 Y0
X-3.698 Y-0.233
X-3.646 Y-0.698
X-3.63 Y-0.814
X-3.596 Y-0.931
X-3.433 Y-1.396
X-3.345 Y-1.629
X-3.258 Y-1.772
X-3.025 Y-2.142
X-2.903 Y-2.327
X-2.793 Y-2.442
X-2.442 Y-2.793
X-2.327 Y-2.903
X-2.142 Y-3.025
X-1.772 Y-3.258
X-1.629 Y-3.345
X-1.396 Y-3.433
X-0.931 Y-3.596
X-0.814 Y-3.63
X-0.698 Y-3.646
X-0.233 Y-3.698
X0 Y-3.721
X0.233 Y-3.698
X0.698 Y-3.646
X0.814 Y-3.63
X0.931 Y-3.596
X1.396 Y-3.433
X1.629 Y-3.345
X1.772 Y-3.258
X2.142 Y-3.025
X2.327 Y-2.903
X2.442 Y-2.793
X2.793 Y-2.442
X2.903 Y-2.327
X3.025 Y-2.142
X3.258 Y-1.772
X3.345 Y-1.629
X3.433 Y-1.396
X3.596 Y-0.931
X3.63 Y-0.814
X3.646 Y-0.698
X3.698 Y-0.233
X3.721 Y0
X3.698 Y0.233
X3.646 Y0.698
X3.63 Y0.814
X3.596 Y0.931
X3.433 Y1.396
X3.345 Y1.629
X3.258 Y1.772
X3.025 Y2.142
X2.903 Y2.327
X2.793 Y2.442
X2.549 Y2.686
G3 X2.35 Y2.809 I-0.409 J-0.439
G1 X2.262 Y2.842 Z0.007
X2.176 Y2.874 Z0.029
X2.095 Y2.904 Z0.065
X2.019 Y2.932 Z0.115
X1.952 Y2.957 Z0.176
X1.895 Y2.979 Z0.247
X1.849 Y2.996 Z0.328
X1.815 Y3.009 Z0.415
X1.795 Y3.016 Z0.506
X1.788 Y3.019 Z0.6
G0 Z27

(2D Contour1)
S8000 M3
M9
X2.95 Y-0.6
Z27
Z17
G1 Z13 F283.3
Z0.6
G18 G2 X3.55 Z0 I0.6
G1 X4.15 F850
G17 G3 X4.75 Y0 J0.6
X-4.75 I-4.75
X4.75 I4.75
X4.15 Y0.6 I-0.6
G1 X3.55
G18 G3 X2.95 Z0.6 K0.6
G0 Z27
G17
M9
M30
%
