%
(1001)
(z0 centre circle stock bottom)
(T1  D=6 CR=0 - ZMIN=0 - flat end mill)
G90 G94
G17
G21

(2D Adaptive1)
M9
T1 M6
S6000 M3
G54
M9
G0 X-19.268 Y-15.32
Z27
Z17
Z15.1
G1 Z14.5 F850
G3 X-14.511 Y-18.459 Z14.187 I2.379 J-1.57 F283.3
X-19.268 Y-15.32 Z13.875 I-2.379 J1.57
X-14.511 Y-18.459 Z13.562 I2.379 J-1.57
X-19.268 Y-15.32 Z13.249 I-2.379 J1.57
X-14.511 Y-18.459 Z12.937 I2.379 J-1.57
X-19.268 Y-15.32 Z12.624 I-2.379 J1.57
X-14.511 Y-18.459 Z12.311 I2.379 J-1.57
X-19.268 Y-15.32 Z11.999 I-2.379 J1.57
X-14.511 Y-18.459 Z11.686 I2.379 J-1.57
X-19.268 Y-15.32 Z11.373 I-2.379 J1.57
X-14.511 Y-18.459 Z11.061 I2.379 J-1.57
X-19.268 Y-15.32 Z10.748 I-2.379 J1.57
X-14.511 Y-18.459 Z10.435 I2.379 J-1.57
X-19.268 Y-15.32 Z10.123 I-2.379 J1.57
X-14.511 Y-18.459 Z9.81 I2.379 J-1.57
X-19.268 Y-15.32 Z9.497 I-2.379 J1.57
X-14.511 Y-18.459 Z9.185 I2.379 J-1.57
X-19.268 Y-15.32 Z8.872 I-2.379 J1.57
X-14.511 Y-18.459 Z8.559 I2.379 J-1.57
X-19.268 Y-15.32 Z8.247 I-2.379 J1.57
X-14.511 Y-18.459 Z7.934 I2.379 J-1.57
X-19.268 Y-15.32 Z7.621 I-2.379 J1.57
X-14.511 Y-18.459 Z7.309 I2.379 J-1.57
X-19.268 Y-15.32 Z6.996 I-2.379 J1.57
X-14.511 Y-18.459 Z6.683 I2.379 J-1.57
X-19.268 Y-15.32 Z6.371 I-2.379 J1.57
X-14.511 Y-18.459 Z6.058 I2.379 J-1.57
X-14.039 Y-16.89 Z6 I-2.379 J1.57
X-19.739 I-2.85
X-14.039 I2.85
G1 X-14.036 Y-16.634 F850
X-13.912 Y-15.907
X-13.889 Y-15.59
X-13.927 Y-15.275
X-14.023 Y-14.973
X-14.175 Y-14.694
X-14.377 Y-14.449
X-14.626 Y-14.201
X-14.667 Y-14.16
X-14.858 Y-14.03
X-15.323 Y-13.738
X-15.416 Y-13.695
X-16.021 Y-13.483
X-16.085 Y-13.463
X-16.254 Y-13.437
X-16.835 Y-13.371
X-16.893 Y-13.369
X-16.951 Y-13.372
X-17.417 Y-13.425
X-17.649 Y-13.453
X-17.695 Y-13.463
X-17.882 Y-13.526
X-18.365 Y-13.695
X-18.418 Y-13.718
X-18.472 Y-13.748
X-19.045 Y-14.108
X-19.112 Y-14.16
X-19.346 Y-14.393
X-19.579 Y-14.626
X-19.631 Y-14.681
X-19.673 Y-14.736
X-20.042 Y-15.323
X-20.071 Y-15.382
X-20.093 Y-15.44
X-20.297 Y-16.021
X-20.328 Y-16.137
X-20.343 Y-16.254
X-20.408 Y-16.835
X-20.411 Y-16.893
X-20.408 Y-16.951
X-20.355 Y-17.417
X-20.327 Y-17.649
X-20.254 Y-17.882
X-20.091 Y-18.347
X-20.07 Y-18.401
X-20.042 Y-18.455
X-19.743 Y-18.933
X-19.672 Y-19.045
X-19.599 Y-19.134
X-19.134 Y-19.599
X-19.045 Y-19.672
X-18.563 Y-19.975
X-18.455 Y-20.042
X-18.401 Y-20.07
X-18.347 Y-20.091
X-17.882 Y-20.254
X-17.649 Y-20.327
X-17.417 Y-20.355
X-16.951 Y-20.408
X-16.893 Y-20.411
X-16.835 Y-20.408
X-16.254 Y-20.343
X-16.137 Y-20.328
X-16.021 Y-20.297
X-15.44 Y-20.093
X-15.382 Y-20.071
X-15.323 Y-20.042
X-14.736 Y-19.673
X-14.681 Y-19.631
X-14.626 Y-19.579
X-14.324 Y-19.277
X-14.16 Y-19.112
X-14.108 Y-19.045
X-13.748 Y-18.472
X-13.718 Y-18.418
X-13.695 Y-18.365
X-13.526 Y-17.882
X-13.463 Y-17.695
X-13.453 Y-17.649
X-13.425 Y-17.417
X-13.372 Y-16.951
X-13.369 Y-16.893
X-13.371 Y-16.835
X-13.437 Y-16.254
X-13.463 Y-16.085
X-13.483 Y-16.021
X-13.695 Y-15.416
X-13.738 Y-15.323
X-14.03 Y-14.858
X-14.16 Y-14.667
X-14.201 Y-14.626
X-14.377 Y-14.449
X-14.423 Y-14.42 Z6.007
X-14.467 Y-14.392 Z6.026
X-14.506 Y-14.367 Z6.057
X-14.537 Y-14.347 Z6.098
X-14.56 Y-14.332 Z6.147
X-14.572 Y-14.328 Z6.19
X-14.576 Y-14.326 Z6.236
G0 Z17
X-19.268 Y-15.32
Z9.1
G1 Z8.5 F850
G3 X-14.511 Y-18.459 Z8.187 I2.379 J-1.57 F283.3
X-19.268 Y-15.32 Z7.875 I-2.379 J1.57
X-14.511 Y-18.459 Z7.562 I2.379 J-1.57
X-19.268 Y-15.32 Z7.249 I-2.379 J1.57
X-14.511 Y-18.459 Z6.937 I2.379 J-1.57
X-19.268 Y-15.32 Z6.624 I-2.379 J1.57
X-14.511 Y-18.459 Z6.311 I2.379 J-1.57
X-19.268 Y-15.32 Z5.999 I-2.379 J1.57
X-14.511 Y-18.459 Z5.686 I2.379 J-1.57
X-19.268 Y-15.32 Z5.373 I-2.379 J1.57
X-14.511 Y-18.459 Z5.061 I2.379 J-1.57
X-19.268 Y-15.32 Z4.748 I-2.379 J1.57
X-14.511 Y-18.459 Z4.435 I2.379 J-1.57
X-19.268 Y-15.32 Z4.123 I-2.379 J1.57
X-14.511 Y-18.459 Z3.81 I2.379 J-1.57
X-19.268 Y-15.32 Z3.497 I-2.379 J1.57
X-14.511 Y-18.459 Z3.185 I2.379 J-1.57
X-19.268 Y-15.32 Z2.872 I-2.379 J1.57
X-14.511 Y-18.459 Z2.559 I2.379 J-1.57
X-19.268 Y-15.32 Z2.247 I-2.379 J1.57
X-14.511 Y-18.459 Z1.934 I2.379 J-1.57
X-19.268 Y-15.32 Z1.621 I-2.379 J1.57
X-14.511 Y-18.459 Z1.309 I2.379 J-1.57
X-19.268 Y-15.32 Z0.996 I-2.379 J1.57
X-14.511 Y-18.459 Z0.683 I2.379 J-1.57
X-19.268 Y-15.32 Z0.371 I-2.379 J1.57
X-14.511 Y-18.459 Z0.058 I2.379 J-1.57
X-14.039 Y-16.89 Z0 I-2.379 J1.57
X-19.739 I-2.85
X-14.039 I2.85
G1 X-14.036 Y-16.634 F850
X-13.912 Y-15.907
X-13.889 Y-15.59
X-13.927 Y-15.275
X-14.023 Y-14.973
X-14.175 Y-14.694
X-14.377 Y-14.449
X-14.626 Y-14.201
X-14.667 Y-14.16
X-14.858 Y-14.03
X-15.323 Y-13.738
X-15.416 Y-13.695
X-16.021 Y-13.483
X-16.085 Y-13.463
X-16.254 Y-13.437
X-16.835 Y-13.371
X-16.893 Y-13.369
X-16.951 Y-13.372
X-17.417 Y-13.425
X-17.649 Y-13.453
X-17.695 Y-13.463
X-17.882 Y-13.526
X-18.365 Y-13.695
X-18.418 Y-13.718
X-18.472 Y-13.748
X-19.045 Y-14.108
X-19.112 Y-14.16
X-19.346 Y-14.393
X-19.579 Y-14.626
X-19.631 Y-14.681
X-19.673 Y-14.736
X-20.042 Y-15.323
X-20.071 Y-15.382
X-20.093 Y-15.44
X-20.297 Y-16.021
X-20.328 Y-16.137
X-20.343 Y-16.254
X-20.408 Y-16.835
X-20.411 Y-16.893
X-20.408 Y-16.951
X-20.355 Y-17.417
X-20.327 Y-17.649
X-20.254 Y-17.882
X-20.091 Y-18.347
X-20.07 Y-18.401
X-20.042 Y-18.455
X-19.743 Y-18.933
X-19.672 Y-19.045
X-19.599 Y-19.134
X-19.134 Y-19.599
X-19.045 Y-19.672
X-18.563 Y-19.975
X-18.455 Y-20.042
X-18.401 Y-20.07
X-18.347 Y-20.091
X-17.882 Y-20.254
X-17.649 Y-20.327
X-17.417 Y-20.355
X-16.951 Y-20.408
X-16.893 Y-20.411
X-16.835 Y-20.408
X-16.254 Y-20.343
X-16.137 Y-20.328
X-16.021 Y-20.297
X-15.44 Y-20.093
X-15.382 Y-20.071
X-15.323 Y-20.042
X-14.736 Y-19.673
X-14.681 Y-19.631
X-14.626 Y-19.579
X-14.324 Y-19.277
X-14.16 Y-19.112
X-14.108 Y-19.045
X-13.748 Y-18.472
X-13.718 Y-18.418
X-13.695 Y-18.365
X-13.526 Y-17.882
X-13.463 Y-17.695
X-13.453 Y-17.649
X-13.425 Y-17.417
X-13.372 Y-16.951
X-13.369 Y-16.893
X-13.371 Y-16.835
X-13.437 Y-16.254
X-13.463 Y-16.085
X-13.483 Y-16.021
X-13.695 Y-15.416
X-13.738 Y-15.323
X-14.03 Y-14.858
X-14.16 Y-14.667
X-14.201 Y-14.626
X-14.377 Y-14.449
G3 X-14.576 Y-14.326 I-0.409 J-0.439
G1 X-14.664 Y-14.293 Z0.007
X-14.75 Y-14.261 Z0.029
X-14.831 Y-14.231 Z0.065
X-14.906 Y-14.203 Z0.115
X-14.974 Y-14.178 Z0.176
X-15.031 Y-14.156 Z0.247
X-15.077 Y-14.139 Z0.328
X-15.111 Y-14.126 Z0.415
X-15.131 Y-14.119 Z0.506
X-15.138 Y-14.116 Z0.6
G0 Z27

(2D Contour1)
S8000 M3
M9
X-14.14 Y-17.49
Z27
Z17
G1 Z13 F283.3
Z0.6
G18 G2 X-13.54 Z0 I0.6
G1 X-12.94 F850
G17 G3 X-12.34 Y-16.89 J0.6
X-21.44 I-4.55
X-12.34 I4.55
X-12.94 Y-16.29 I-0.6
G1 X-13.54
G18 G3 X-14.14 Z0.6 K0.6
G0 Z27
G17
M9
M30
%
