%
(1001)
(z0 centre circle stock bottom)
(T1  D=6 CR=0 - ZMIN=10 - flat end mill)
G90 G94
G17
G21

(2D Adaptive2)
M9
T1 M6
S6000 M3
G54
M9
G0 X2.55 Y-1.272
Z30
Z20
Z18.15
G1 Z17.55 F850
G3 X-2.55 Y1.273 Z17.237 I-2.55 J1.272 F283.3
X2.55 Y-1.272 Z16.925 I2.55 J-1.272
X-2.55 Y1.273 Z16.612 I-2.55 J1.272
X2.55 Y-1.272 Z16.299 I2.55 J-1.272
X-2.55 Y1.273 Z15.987 I-2.55 J1.272
X2.55 Y-1.272 Z15.674 I2.55 J-1.272
X-2.55 Y1.273 Z15.361 I-2.55 J1.272
X2.55 Y-1.272 Z15.049 I2.55 J-1.272
X-2.55 Y1.273 Z14.736 I-2.55 J1.272
X2.55 Y-1.272 Z14.423 I2.55 J-1.272
X-2.55 Y1.273 Z14.111 I-2.55 J1.272
X2.55 Y-1.272 Z13.798 I2.55 J-1.272
X-2.55 Y1.273 Z13.485 I-2.55 J1.272
X2.55 Y-1.272 Z13.173 I2.55 J-1.272
X-2.55 Y1.273 Z12.86 I-2.55 J1.272
X2.55 Y-1.272 Z12.547 I2.55 J-1.272
X-2.55 Y1.273 Z12.235 I-2.55 J1.272
X2.55 Y-1.272 Z11.922 I2.55 J-1.272
X-2.55 Y1.273 Z11.609 I-2.55 J1.272
X2.55 Y-1.272 Z11.297 I2.55 J-1.272
X-2.55 Y1.273 Z10.984 I-2.55 J1.272
X2.55 Y-1.272 Z10.671 I2.55 J-1.272
X-2.55 Y1.273 Z10.359 I-2.55 J1.272
X2.55 Y-1.272 Z10.046 I2.55 J-1.272
X2.85 Y0 Z10 I-2.55 J1.272
X-2.85 I-2.85
X2.85 I2.85
G1 X2.865 Y1.025 F850
X2.885 Y1.128
X2.901 Y1.277
X2.899 Y1.427
X2.882 Y1.576
X2.852 Y1.723
X2.81 Y1.867
X2.757 Y2.008
X2.695 Y2.145
X2.624 Y2.277
X2.545 Y2.404
X2.532 Y2.423
X2.367 Y2.627
X2.176 Y2.808
X1.963 Y2.962
X1.656 Y3.155
X1.539 Y3.221
X1.423 Y3.265
X0.842 Y3.468
X0.783 Y3.483
X0.725 Y3.493
X0.26 Y3.545
X0.027 Y3.57
X-0.205 Y3.552
X-0.67 Y3.499
X-0.787 Y3.483
X-0.903 Y3.447
X-1.486 Y3.243
X-1.543 Y3.22
X-1.601 Y3.189
X-2.066 Y2.897
X-2.19 Y2.819
X-2.298 Y2.725
X-2.67 Y2.353
X-2.764 Y2.259
X-2.818 Y2.19
X-2.863 Y2.121
X-3.155 Y1.656
X-3.229 Y1.523
X-3.265 Y1.423
X-3.461 Y0.863
X-3.481 Y0.794
X-3.493 Y0.725
X-3.545 Y0.26
X-3.57 Y0.027
X-3.552 Y-0.205
X-3.499 Y-0.67
X-3.487 Y-0.767
X-3.461 Y-0.863
X-3.285 Y-1.368
X-3.229 Y-1.523
X-3.189 Y-1.601
X-2.897 Y-2.066
X-2.764 Y-2.259
X-2.725 Y-2.298
X-2.298 Y-2.725
X-2.259 Y-2.764
X-2.066 Y-2.897
X-1.601 Y-3.189
X-1.523 Y-3.229
X-1.368 Y-3.285
X-0.863 Y-3.461
X-0.767 Y-3.487
X-0.67 Y-3.499
X-0.205 Y-3.552
X0.027 Y-3.57
X0.26 Y-3.545
X0.725 Y-3.493
X0.794 Y-3.481
X0.863 Y-3.461
X1.423 Y-3.265
X1.523 Y-3.229
X1.656 Y-3.155
X2.121 Y-2.863
X2.19 Y-2.818
X2.259 Y-2.764
X2.493 Y-2.531
X2.725 Y-2.298
X2.819 Y-2.19
X2.897 Y-2.066
X3.189 Y-1.601
X3.22 Y-1.543
X3.243 Y-1.486
X3.447 Y-0.903
X3.483 Y-0.787
X3.499 Y-0.67
X3.552 Y-0.205
X3.57 Y0.027
X3.545 Y0.26
X3.493 Y0.725
X3.483 Y0.783
X3.468 Y0.842
X3.265 Y1.423
X3.221 Y1.539
X3.155 Y1.656
X2.863 Y2.121
X2.819 Y2.189
X2.752 Y2.271
X2.272 Y2.752
X2.231 Y2.788
X2.19 Y2.819
X1.963 Y2.962
G3 X1.741 Y3.038 I-0.301 J-0.519
G1 X1.648 Y3.05 Z10.007
X1.558 Y3.062 Z10.029
X1.471 Y3.074 Z10.065
X1.392 Y3.085 Z10.115
X1.321 Y3.094 Z10.176
X1.26 Y3.102 Z10.247
X1.212 Y3.109 Z10.328
X1.176 Y3.114 Z10.415
X1.154 Y3.117 Z10.506
X1.147 Z10.6
G0 Z30

(2D Contour1 2)
S8000 M3
M9
X2.8 Y-0.6
Z30
Z20
G1 Z16 F283.3
Z10.6
G18 G2 X3.4 Z10 I0.6
G1 X4 F850
G17 G3 X4.6 Y0 J0.6
X-4.6 I-4.6
X4.6 I4.6
X4 Y0.6 I-0.6
G1 X3.4
G18 G3 X2.8 Z10.6 K0.6
G0 Z30
G17
M9
M30
%
