%
(1001)
(z0 centre circle stock bottom)
(T1  D=6 CR=0 - ZMIN=0 - flat end mill)
G90 G94
G17
G21

(2D Adaptive1)
M9
T1 M6
S6000 M3
G54
M9
G0 X0 Y0
Z27
Z17
Z12.65
G1 Z12.05 F850
Z0
X0.035 Y-0.012
X0.065 Y0.01
X0.064 Y0.048
X0.042 Y0.079
X0.009 Y0.096
X-0.028 Y0.098
X-0.064 Y0.086
X-0.092 Y0.061
X-0.11 Y0.029
X-0.116 Y-0.008
X-0.11 Y-0.045
X-0.092 Y-0.078
X-0.037 Y-0.13
X0.035 Y-0.149
X0.109 Y-0.136
X0.17 Y-0.093
X0.21 Y-0.029
X0.225 Y0.044
X0.214 Y0.119
X0.181 Y0.186
X0.128 Y0.239
X0.063 Y0.276
X-0.01 Y0.294
X-0.16 Y0.29
X-0.289 Y0.214
X-0.371 Y0.088
X-0.397 Y-0.06
X-0.366 Y-0.206
X-0.288 Y-0.334
X-0.172 Y-0.43
X-0.032 Y-0.485
X0.117 Y-0.494
X0.264 Y-0.461
X0.395 Y-0.389
X0.503 Y-0.285
X0.579 Y-0.156
X0.621 Y-0.011
X0.626 Y0.138
X0.597 Y0.286
X0.535 Y0.422
X0.445 Y0.542
X0.333 Y0.642
X0.202 Y0.715
X0.059 Y0.762
X-0.09 Y0.779
X-0.239 Y0.768
X-0.384 Y0.728
X-0.519 Y0.662
X-0.64 Y0.574
X-0.743 Y0.465
X-0.826 Y0.34
X-0.887 Y0.203
X-0.925 Y0.058
X-0.938 Y-0.092
X-0.928 Y-0.241
X-0.895 Y-0.387
X-0.84 Y-0.527
X-0.765 Y-0.657
X-0.671 Y-0.774
X-0.562 Y-0.876
X-0.439 Y-0.962
X-0.305 Y-1.03
X-0.163 Y-1.079
X-0.016 Y-1.107
X0.134 Y-1.116
X0.284 Y-1.105
X0.43 Y-1.075
X0.572 Y-1.025
X0.706 Y-0.958
X0.831 Y-0.875
X0.945 Y-0.777
X1.045 Y-0.666
X1.132 Y-0.543
X1.203 Y-0.411
X1.258 Y-0.271
X1.296 Y-0.126
X1.317 Y0.022
X1.322 Y0.172
X1.31 Y0.322
X1.281 Y0.469
X1.236 Y0.612
X1.176 Y0.749
X1.102 Y0.88
X1.014 Y1.002
X0.915 Y1.114
X0.803 Y1.215
X0.683 Y1.304
X0.554 Y1.38
X0.417 Y1.443
X0.276 Y1.492
X0.13 Y1.526
X-0.019 Y1.546
X-0.169 Y1.551
X-0.319 Y1.542
X-0.467 Y1.519
X-0.612 Y1.482
X-0.753 Y1.43
X-0.889 Y1.367
X-1.018 Y1.291
X-1.14 Y1.203
X-1.253 Y1.105
X-1.357 Y0.996
X-1.451 Y0.88
X-1.534 Y0.755
X-1.606 Y0.623
X-1.666 Y0.486
X-1.714 Y0.344
X-1.75 Y0.198
X-1.773 Y0.05
X-1.784 Y-0.1
X-1.782 Y-0.25
X-1.767 Y-0.399
X-1.741 Y-0.547
X-1.702 Y-0.692
X-1.651 Y-0.833
X-1.59 Y-0.97
X-1.517 Y-1.101
X-1.434 Y-1.226
X-1.342 Y-1.344
X-1.241 Y-1.455
X-1.131 Y-1.557
X-1.014 Y-1.651
X-0.889 Y-1.735
X-0.759 Y-1.809
X-0.624 Y-1.873
X-0.484 Y-1.927
X-0.34 Y-1.97
X-0.193 Y-2.003
X-0.045 Y-2.024
X0.105 Y-2.034
X0.255 Y-2.033
X0.404 Y-2.021
X0.553 Y-1.999
X0.699 Y-1.965
X0.842 Y-1.922
X0.982 Y-1.868
X1.118 Y-1.804
X1.249 Y-1.731
X1.376 Y-1.648
X1.495 Y-1.558
X1.61 Y-1.457
X1.716 Y-1.35
X1.814 Y-1.236
X1.908 Y-1.112
X1.989 Y-0.985
X2.065 Y-0.848
X2.131 Y-0.707
X2.186 Y-0.563
X2.233 Y-0.41
X2.268 Y-0.258
X2.293 Y-0.101
X2.307 Y0.06
X2.311 Y0.219
X2.302 Y0.381
X2.283 Y0.543
X2.253 Y0.701
X2.211 Y0.862
X2.157 Y1.019
X2.094 Y1.17
X2.019 Y1.32
X1.933 Y1.465
X1.839 Y1.602
X1.732 Y1.735
X1.616 Y1.862
X1.494 Y1.978
X1.361 Y2.087
X1.219 Y2.189
X1.072 Y2.279
X0.919 Y2.359
X0.756 Y2.431
X0.59 Y2.49
X0.422 Y2.537
X0.247 Y2.574
X0.068 Y2.598
X-0.111 Y2.61
X-0.29 Y2.609
X-0.472 Y2.596
X-0.654 Y2.57
X-0.833 Y2.532
X-1.008 Y2.481
X-1.183 Y2.418
X-1.355 Y2.341
X-1.52 Y2.254
X-1.678 Y2.155
X-1.831 Y2.044
X-1.978 Y1.922
X-2.116 Y1.789
X-2.245 Y1.647
X-2.363 Y1.496
X-2.472 Y1.337
X-2.571 Y1.167
X-2.658 Y0.991
X-2.733 Y0.809
X-2.795 Y0.622
X-2.844 Y0.431
X-2.88 Y0.235
X-2.903 Y0.035
X-2.912 Y-0.168
X-2.906 Y-0.37
X-2.887 Y-0.572
X-2.854 Y-0.773
X-2.807 Y-0.972
X-2.745 Y-1.169
X-2.669 Y-1.362
X-2.58 Y-1.551
X-2.478 Y-1.734
X-2.362 Y-1.91
X-2.235 Y-2.078
X-2.095 Y-2.237
X-1.945 Y-2.387
X-1.784 Y-2.527
X-1.612 Y-2.656
X-1.431 Y-2.773
X-1.241 Y-2.878
X-1.043 Y-2.971
X-0.839 Y-3.049
X-0.628 Y-3.114
X-0.413 Y-3.164
X-0.194 Y-3.199
X0.028 Y-3.219
X0.251 Y-3.224
X0.475 Y-3.213
X0.699 Y-3.187
X0.922 Y-3.145
X1.142 Y-3.087
X1.358 Y-3.014
X1.57 Y-2.926
X1.776 Y-2.822
X1.975 Y-2.705
X2.167 Y-2.573
X2.35 Y-2.427
X2.523 Y-2.269
X2.685 Y-2.098
X2.836 Y-1.916
X2.974 Y-1.723
X3.1 Y-1.52
X3.211 Y-1.307
X3.308 Y-1.086
X3.39 Y-0.859
X3.456 Y-0.625
X3.506 Y-0.386
X3.539 Y-0.143
X3.556 Y0.102
X3.555 Y0.35
X3.538 Y0.597
X3.503 Y0.844
X3.451 Y1.089
X3.381 Y1.331
X3.295 Y1.568
X3.193 Y1.8
X3.074 Y2.025
X2.939 Y2.241
X2.789 Y2.449
X2.624 Y2.647
X2.445 Y2.834
X2.253 Y3.008
X2.048 Y3.17
X1.832 Y3.318
X1.605 Y3.45
X1.369 Y3.567
X1.125 Y3.668
X0.872 Y3.752
X0.821 Y3.766
X0.745 Y3.783
X0.669 Y3.798
X0.591 Y3.808
X0.233 Y3.848
X0 Y3.871
X-0.233 Y3.848
X-0.814 Y3.782
X-0.872 Y3.771
X-0.93 Y3.754
X-1.628 Y3.509
X-1.675 Y3.489
X-1.861 Y3.378
X-2.326 Y3.086
X-2.416 Y3.024
X-2.559 Y2.886
X-2.886 Y2.559
X-3.024 Y2.416
X-3.086 Y2.326
X-3.378 Y1.861
X-3.489 Y1.675
X-3.509 Y1.628
X-3.754 Y0.93
X-3.771 Y0.872
X-3.782 Y0.814
X-3.848 Y0.233
X-3.871 Y0
X-3.848 Y-0.233
X-3.782 Y-0.814
X-3.771 Y-0.872
X-3.754 Y-0.93
X-3.509 Y-1.628
X-3.489 Y-1.675
X-3.378 Y-1.861
X-3.086 Y-2.326
X-3.024 Y-2.416
X-2.886 Y-2.559
X-2.559 Y-2.886
X-2.416 Y-3.024
X-2.326 Y-3.086
X-1.861 Y-3.378
X-1.675 Y-3.489
X-1.628 Y-3.509
X-0.93 Y-3.754
X-0.872 Y-3.771
X-0.814 Y-3.782
X-0.233 Y-3.848
X0 Y-3.871
X0.233 Y-3.848
X0.814 Y-3.782
X0.872 Y-3.771
X0.93 Y-3.754
X1.628 Y-3.509
X1.675 Y-3.489
X1.861 Y-3.378
X2.326 Y-3.086
X2.416 Y-3.024
X2.559 Y-2.886
X2.886 Y-2.559
X3.024 Y-2.416
X3.086 Y-2.326
X3.378 Y-1.861
X3.489 Y-1.675
X3.509 Y-1.628
X3.754 Y-0.93
X3.771 Y-0.872
X3.782 Y-0.814
X3.848 Y-0.233
X3.871 Y0
X3.848 Y0.233
X3.782 Y0.814
X3.771 Y0.872
X3.754 Y0.93
X3.509 Y1.628
X3.489 Y1.675
X3.378 Y1.861
X3.086 Y2.326
X3.024 Y2.416
X2.886 Y2.559
X2.559 Y2.886
X2.416 Y3.024
X2.326 Y3.086
X1.861 Y3.378
X1.675 Y3.489
X1.628 Y3.509
X0.93 Y3.754
X0.872 Y3.771
X0.814 Y3.782
X0.591 Y3.808
G3 X0.359 Y3.78 I-0.046 J-0.598
G1 X0.27 Y3.751 Z0.007
X0.183 Y3.723 Z0.029
X0.1 Y3.696 Z0.065
X0.024 Y3.671 Z0.115
X-0.045 Y3.649 Z0.176
X-0.103 Y3.63 Z0.247
X-0.149 Y3.614 Z0.328
X-0.184 Y3.603 Z0.415
X-0.205 Y3.596 Z0.506
X-0.212 Y3.594 Z0.6
G0 Z27

(2D Contour1)
S8000 M3
M9
X3.1 Y-0.6
Z27
Z17
G1 Z13 F283.3
Z0.6
G18 G2 X3.7 Z0 I0.6
G1 X4.3 F850
G17 G3 X4.9 Y0 J0.6
X-4.9 I-4.9
X4.9 I4.9
X4.3 Y0.6 I-0.6
G1 X3.7
G18 G3 X3.1 Z0.6 K0.6
G0 Z27
G17
M9
M30
%
