%
(1001)
(z0 centre circle stock bottom)
(T1  D=6 CR=0 - ZMIN=0 - flat end mill)
G90 G94
G17
G21

(2D Adaptive1)
M9
T1 M6
S6000 M3
G54
M9
G0 X-0.317 Y-2.832
Z27
Z17
Z15.15
G1 Z14.55 F850
G3 X0.317 Y2.832 Z14.237 I0.317 J2.832 F283.3
X-0.317 Y-2.832 Z13.925 I-0.317 J-2.832
X0.317 Y2.832 Z13.612 I0.317 J2.832
X-0.317 Y-2.832 Z13.299 I-0.317 J-2.832
X0.317 Y2.832 Z12.987 I0.317 J2.832
X-0.317 Y-2.832 Z12.674 I-0.317 J-2.832
X0.317 Y2.832 Z12.361 I0.317 J2.832
X-0.317 Y-2.832 Z12.049 I-0.317 J-2.832
X0.317 Y2.832 Z11.736 I0.317 J2.832
X-0.317 Y-2.832 Z11.423 I-0.317 J-2.832
X0.317 Y2.832 Z11.111 I0.317 J2.832
X-0.317 Y-2.832 Z10.798 I-0.317 J-2.832
X0.317 Y2.832 Z10.485 I0.317 J2.832
X-0.317 Y-2.832 Z10.173 I-0.317 J-2.832
X0.317 Y2.832 Z9.86 I0.317 J2.832
X-0.317 Y-2.832 Z9.547 I-0.317 J-2.832
X0.317 Y2.832 Z9.235 I0.317 J2.832
X-0.317 Y-2.832 Z8.922 I-0.317 J-2.832
X0.317 Y2.832 Z8.609 I0.317 J2.832
X-0.317 Y-2.832 Z8.297 I-0.317 J-2.832
X0.317 Y2.832 Z7.984 I0.317 J2.832
X-0.317 Y-2.832 Z7.671 I-0.317 J-2.832
X0.317 Y2.832 Z7.359 I0.317 J2.832
X-0.317 Y-2.832 Z7.046 I-0.317 J-2.832
X0.317 Y2.832 Z6.733 I0.317 J2.832
X-0.317 Y-2.832 Z6.421 I-0.317 J-2.832
X0.317 Y2.832 Z6.108 I0.317 J2.832
X-0.317 Y-2.832 Z5.795 I-0.317 J-2.832
X0.317 Y2.832 Z5.483 I0.317 J2.832
X-0.317 Y-2.832 Z5.17 I-0.317 J-2.832
X0.317 Y2.832 Z4.857 I0.317 J2.832
X-0.317 Y-2.832 Z4.545 I-0.317 J-2.832
X0.317 Y2.832 Z4.232 I0.317 J2.832
X-0.317 Y-2.832 Z3.919 I-0.317 J-2.832
X0.317 Y2.832 Z3.607 I0.317 J2.832
X-0.317 Y-2.832 Z3.294 I-0.317 J-2.832
X0.317 Y2.832 Z2.981 I0.317 J2.832
X-0.317 Y-2.832 Z2.669 I-0.317 J-2.832
X0.317 Y2.832 Z2.356 I0.317 J2.832
X-0.317 Y-2.832 Z2.043 I-0.317 J-2.832
X0.317 Y2.832 Z1.731 I0.317 J2.832
X-0.317 Y-2.832 Z1.418 I-0.317 J-2.832
X0.317 Y2.832 Z1.105 I0.317 J2.832
X-0.317 Y-2.832 Z0.793 I-0.317 J-2.832
X0.317 Y2.832 Z0.48 I0.317 J2.832
X-0.317 Y-2.832 Z0.167 I-0.317 J-2.832
X2.85 Y0 Z0 I0.317 J2.832
X-2.85 I-2.85
X2.85 I2.85
G1 X2.854 Y0.256 F850
X2.998 Y1.103
X3.021 Y1.42
X2.983 Y1.735
X2.887 Y2.038
X2.735 Y2.316
X2.533 Y2.561
X2.307 Y2.787
X2.252 Y2.833
X2.198 Y2.872
X1.626 Y3.232
X1.592 Y3.252
X1.394 Y3.328
X0.929 Y3.491
X0.813 Y3.528
X0.697 Y3.546
X0.232 Y3.599
X0 Y3.621
X-0.232 Y3.599
X-0.697 Y3.546
X-0.813 Y3.528
X-0.949 Y3.484
X-1.394 Y3.328
X-1.592 Y3.252
X-1.626 Y3.232
X-2.198 Y2.872
X-2.252 Y2.833
X-2.307 Y2.787
X-2.787 Y2.307
X-2.833 Y2.252
X-2.872 Y2.198
X-3.232 Y1.626
X-3.252 Y1.592
X-3.328 Y1.394
X-3.491 Y0.929
X-3.528 Y0.813
X-3.546 Y0.697
X-3.599 Y0.232
X-3.621 Y0
X-3.599 Y-0.232
X-3.546 Y-0.697
X-3.528 Y-0.813
X-3.484 Y-0.949
X-3.328 Y-1.394
X-3.252 Y-1.592
X-3.232 Y-1.626
X-2.872 Y-2.198
X-2.833 Y-2.252
X-2.787 Y-2.307
X-2.307 Y-2.787
X-2.252 Y-2.833
X-2.198 Y-2.872
X-1.626 Y-3.232
X-1.592 Y-3.252
X-1.394 Y-3.328
X-0.929 Y-3.491
X-0.813 Y-3.528
X-0.697 Y-3.546
X-0.232 Y-3.599
X0 Y-3.621
X0.232 Y-3.599
X0.697 Y-3.546
X0.813 Y-3.528
X0.949 Y-3.484
X1.394 Y-3.328
X1.592 Y-3.252
X1.626 Y-3.232
X2.198 Y-2.872
X2.252 Y-2.833
X2.307 Y-2.787
X2.787 Y-2.307
X2.833 Y-2.252
X2.872 Y-2.198
X3.232 Y-1.626
X3.252 Y-1.592
X3.328 Y-1.394
X3.491 Y-0.929
X3.528 Y-0.813
X3.546 Y-0.697
X3.599 Y-0.232
X3.621 Y0
X3.599 Y0.232
X3.546 Y0.697
X3.528 Y0.813
X3.484 Y0.949
X3.328 Y1.394
X3.252 Y1.592
X3.232 Y1.626
X2.872 Y2.198
X2.833 Y2.252
X2.787 Y2.307
X2.533 Y2.561
G3 X2.334 Y2.684 I-0.409 J-0.439
G1 X2.246 Y2.717 Z0.007
X2.16 Y2.749 Z0.029
X2.079 Y2.78 Z0.065
X2.003 Y2.808 Z0.115
X1.936 Y2.833 Z0.176
X1.879 Y2.854 Z0.247
X1.833 Y2.871 Z0.328
X1.799 Y2.884 Z0.415
X1.779 Y2.892 Z0.506
X1.772 Y2.894 Z0.6
G0 Z27

(2D Contour1)
S8000 M3
M9
X2.85 Y-0.6
Z27
Z17
G1 Z13 F283.3
Z0.6
G18 G2 X3.45 Z0 I0.6
G1 X4.05 F850
G17 G3 X4.65 Y0 J0.6
X-4.65 I-4.65
X4.65 I4.65
X4.05 Y0.6 I-0.6
G1 X3.45
G18 G3 X2.85 Z0.6 K0.6
G0 Z27
G17
M9
M30
%
