%
(1001)
(Z0 top bottom left)
(T1  D=6 CR=0 - ZMIN=-6 - flat end mill)
G90 G94
G17
G21

(2D Contour2)
M9
T1 M6
S6000 M3
G54
M9
G0 X243.272 Y106.484
Z15
Z5
G1 Z3.1 F283.3
X243.267 Y106.489 Z3.006
X243.252 Y106.505 Z2.915
X243.226 Y106.53 Z2.828
X243.191 Y106.565 Z2.747
X243.148 Y106.608 Z2.676
X243.097 Y106.659 Z2.615
X243.041 Y106.716 Z2.565
X242.979 Y106.777 Z2.529
X242.914 Y106.842 Z2.507
X242.848 Y106.908 Z2.5
X242.424 Y107.333 F850
G3 X241.575 I-0.424 J-0.424
G1 X152.121 Y17.879 Z-1.918 F283.3
G2 X150 Y17 Z-2 I-2.121 J2.121
X147.879 Y17.879 J3 F850
G1 X17.879 Y147.879
G2 Y152.121 I2.121 J2.121
G1 X147.879 Y282.121
G2 X152.121 I2.121 J-2.121
G1 X282.121 Y152.121
G2 Y147.879 I-2.121 J-2.121
G1 X152.121 Y17.879
G2 X150 Y17 I-2.121 J2.121
G3 X149.4 Y16.4 J-0.6
G1 Y15.8
G19 G2 Y15.2 Z-1.4 K0.6
G0 Z15
X261.45 Y74.169
Z5
G1 Z3.1 F283.3
X261.444 Y74.174 Z3.006
X261.426 Y74.186 Z2.915
X261.396 Y74.206 Z2.828
X261.356 Y74.234 Z2.747
X261.305 Y74.269 Z2.676
X261.246 Y74.309 Z2.615
X261.18 Y74.355 Z2.565
X261.108 Y74.404 Z2.529
X261.033 Y74.456 Z2.507
X260.956 Y74.509 Z2.5
X260.461 Y74.849 F850
G17 G3 X259.627 Y74.694 I-0.34 J-0.495
G2 X150 Y17 Z-2 I-109.627 J75.306 F283.3
Y283 J133 F850
Y17 J-133
X71.825 Y42.401 Z-4 J133 F283.3
X228.175 Y257.599 I78.175 J107.599 F850
X71.825 Y42.401 I-78.175 J-107.599
G3 X70.986 Y42.268 I-0.353 J-0.485
G1 X70.634 Y41.783
X70.579 Y41.707 Z-3.993
X70.525 Y41.633 Z-3.971
X70.474 Y41.562 Z-3.935
X70.427 Y41.497 Z-3.885
X70.384 Y41.439 Z-3.824
X70.348 Y41.39 Z-3.753
X70.32 Y41.35 Z-3.672
X70.298 Y41.321 Z-3.585
X70.285 Y41.303 Z-3.494
X70.281 Y41.297 Z-3.4
G0 Z15
X15.2 Y20.537
Z5
G1 Z3.1 F283.3
G18 G2 X15.8 Z2.5 I0.6
G1 X16.4 F850
G17 G3 X17 Y21.137 J0.6
G1 Y150 Z-2 F283.3
Y280 F850
G2 X20 Y283 I3
G1 X280
G2 X283 Y280 J-3
G1 Y20
G2 X280 Y17 I-3
G1 X20
G2 X17 Y20 J3
G1 Y150
Y255.885 Z-4 F283.3
Y280 F850
G2 X20 Y283 I3
G1 X280
G2 X283 Y280 J-3
G1 Y20
G2 X280 Y17 I-3
G1 X20
G2 X17 Y20 J3
G1 Y150
Y255.885
Y280 Z-4.455 F283.3
G2 X20 Y283 Z-4.545 I3
G1 X97.058 Z-6
X280 F850
G2 X283 Y280 J-3
G1 Y20
G2 X280 Y17 I-3
G1 X20
G2 X17 Y20 J3
G1 Y255.885
Y280
G2 X20 Y283 I3
G1 X97.058
G3 X97.658 Y283.6 J0.6
G1 Y284.2
G19 G3 Y284.8 Z-5.4 K0.6
G0 Z15
G17
M9
M30
%
