%
(1001)
(Z0 stock bottom)
(T1  D=22 CR=0 - ZMIN=45 - flat end mill)
G90 G94
G17
G21

(Face1 2)
M9
T1 M6
(22mm Facing Bit)
S5000 M3
G54
M9
G0 X169.625 Y6.898
Z70
Z60
G1 Z56.2 F850
G18 G3 X167.425 Z54 I-2.2
G1 X157.487
X-2.487
X-2.5
G17 G2 Y26.086 J9.594
G1 X157.5
G3 Y45.275 J9.594
G1 X-2.5
G2 Y64.464 J9.594
G1 X157.5
G3 Y83.652 J9.594
G1 X-2.5
G2 Y102.841 J9.594
G1 X157.5
G18 G2 X159.7 Z56.2 K2.2
G0 Z60
X169.625 Y6.898
G1 Z54.7 F850
G3 X167.425 Z52.5 I-2.2
G1 X157.487
X-2.487
X-2.5
G17 G2 Y26.086 J9.594
G1 X157.5
G3 Y45.275 J9.594
G1 X-2.5
G2 Y64.464 J9.594
G1 X157.5
G3 Y83.652 J9.594
G1 X-2.5
G2 Y102.841 J9.594
G1 X157.5
G18 G2 X159.7 Z54.7 K2.2
G0 Z60
X169.625 Y6.898
G1 Z53.2 F850
G3 X167.425 Z51 I-2.2
G1 X157.487
X-2.487
X-2.5
G17 G2 Y26.086 J9.594
G1 X157.5
G3 Y45.275 J9.594
G1 X-2.5
G2 Y64.464 J9.594
G1 X157.5
G3 Y83.652 J9.594
G1 X-2.5
G2 Y102.841 J9.594
G1 X157.5
G18 G2 X159.7 Z53.2 K2.2
G0 Z60
X169.625 Y6.898
G1 Z51.7 F850
G3 X167.425 Z49.5 I-2.2
G1 X157.487
X-2.487
X-2.5
G17 G2 Y26.086 J9.594
G1 X157.5
G3 Y45.275 J9.594
G1 X-2.5
G2 Y64.464 J9.594
G1 X157.5
G3 Y83.652 J9.594
G1 X-2.5
G2 Y102.841 J9.594
G1 X157.5
G18 G2 X159.7 Z51.7 K2.2
G0 Z60
X169.625 Y6.898
G1 Z50.2 F850
G3 X167.425 Z48 I-2.2
G1 X157.487
X-2.487
X-2.5
G17 G2 Y26.086 J9.594
G1 X157.5
G3 Y45.275 J9.594
G1 X-2.5
G2 Y64.464 J9.594
G1 X157.5
G3 Y83.652 J9.594
G1 X-2.5
G2 Y102.841 J9.594
G1 X157.5
G18 G2 X159.7 Z50.2 K2.2
G0 Z60
X169.625 Y6.898
G1 Z48.7 F850
G3 X167.425 Z46.5 I-2.2
G1 X157.487
X-2.487
X-2.5
G17 G2 Y26.086 J9.594
G1 X157.5
G3 Y45.275 J9.594
G1 X-2.5
G2 Y64.464 J9.594
G1 X157.5
G3 Y83.652 J9.594
G1 X-2.5
G2 Y102.841 J9.594
G1 X157.5
G18 G2 X159.7 Z48.7 K2.2
G0 Z60
X169.625 Y6.898
G1 Z47.2 F850
G3 X167.425 Z45 I-2.2
G1 X157.487
X-2.487
X-2.5
G17 G2 Y26.086 J9.594
G1 X157.5
G3 Y45.275 J9.594
G1 X-2.5
G2 Y64.464 J9.594
G1 X157.5
G3 Y83.652 J9.594
G1 X-2.5
G2 Y102.841 J9.594
G1 X157.5
G18 G2 X159.7 Z47.2 K2.2
G0 Z70
G17
M9
M30
%
