%
(1001)
(Z0 stock top)
(T0  D=20 CR=0 - ZMIN=-1 - flat end mill)
G90 G94
G17
G21

(Face3)
M9
T0 M6
S6000 M3
G54
M9
G0 X177.785 Y-2.92
Z15
Z5
G1 Z1 F300
G18 G3 X175.785 Z-1 I-2
G1 X165
X-10 F750
G17 G2 Y13.97 J8.445
G1 X165
G3 Y30.86 J8.445
G1 X-10
G2 Y47.75 J8.445
G1 X165
G3 Y64.64 J8.445
G1 X-10
G2 Y81.53 J8.445
G1 X165
G3 Y98.42 J8.445
G1 X-10
G2 Y115.31 J8.445
G1 X165
G18 G2 X167 Z1 K2 F300
G0 Z15
G17
M9
M30
%
