%
(1001)
(Z0 stock bottom)
(T1  D=12.7 CR=0 - ZMIN=0 - flat end mill)
G90 G94
G17
G21

(2D Contour5)
M9
T1 M6
S6000 M3
G54
M9
G0 X-9.16 Y-53.097
Z62
Z52
G1 Z50.77 F850
G18 G2 X-7.89 Z49.5 I1.27
G1 X-6.62
G17 G3 X-5.35 Y-51.827 J1.27
G1 Y-16.5 Z48.266 F283.3
G2 X16 Y4.85 Z47.095 I21.35
G1 X76 Z45
X136 F850
G2 X157.35 Y-16.5 J-21.35
G1 Y-91.5
G2 X136 Y-112.85 I-21.35
G1 X16
G2 X-5.35 Y-91.5 J21.35
G1 Y-16.5
G2 X16 Y4.85 I21.35
G1 X76
X133.273 Z43 F283.3
X136 F850
G2 X157.35 Y-16.5 J-21.35
G1 Y-91.5
G2 X136 Y-112.85 I-21.35
G1 X16
G2 X-5.35 Y-91.5 J21.35
G1 Y-16.5
G2 X16 Y4.85 I21.35
G1 X76
X133.273
X136 Z42.905 F283.3
G2 X157.35 Y-16.5 Z41.734 J-21.35
G1 Y-37.509 Z41
Y-91.5 F850
G2 X136 Y-112.85 I-21.35
G1 X16
G2 X-5.35 Y-91.5 J21.35
G1 Y-16.5
G2 X16 Y4.85 I21.35
G1 X133.273
X136
G2 X157.35 Y-16.5 J-21.35
G1 Y-37.509
Y-91.5 Z39.115 F283.3
G2 X157.098 Y-94.768 Z39 I-21.35
X136 Y-112.85 I-21.098 J3.268 F850
G1 X16
G2 X-5.35 Y-91.5 J21.35
G1 Y-16.5
G2 X16 Y4.85 I21.35
G1 X136
G2 X157.35 Y-16.5 J-21.35
G1 Y-91.5
G2 X157.098 Y-94.768 I-21.35
X136 Y-112.85 Z37.943 I-21.098 J3.268 F283.3
G1 X108.983 Z37
X16 F850
G2 X-5.35 Y-91.5 J21.35
G1 Y-16.5
G2 X16 Y4.85 I21.35
G1 X136
G2 X157.35 Y-16.5 J-21.35
G1 Y-91.5
G2 X136 Y-112.85 I-21.35
G1 X108.983
X51.71 Z35 F283.3
X16 F850
G2 X-5.35 Y-91.5 J21.35
G1 Y-16.5
G2 X16 Y4.85 I21.35
G1 X136
G2 X157.35 Y-16.5 J-21.35
G1 Y-91.5
G2 X136 Y-112.85 I-21.35
G1 X51.71
X16 Z33.753 F283.3
G2 X-2.079 Y-102.856 Z33 J21.35
X-5.35 Y-91.5 I18.079 J11.356 F850
G1 Y-16.5
G2 X16 Y4.85 I21.35
G1 X136
G2 X157.35 Y-16.5 J-21.35
G1 Y-91.5
G2 X136 Y-112.85 I-21.35
G1 X51.71
X16
G2 X-2.079 Y-102.856 J21.35
X-5.35 Y-91.5 Z32.582 I18.079 J11.356 F283.3
G1 Y-46.202 Z31
Y-16.5 F850
G2 X16 Y4.85 I21.35
G1 X136
G2 X157.35 Y-16.5 J-21.35
G1 Y-91.5
G2 X136 Y-112.85 I-21.35
G1 X16
G2 X-5.35 Y-91.5 J21.35
G1 Y-46.202
Y-16.5 Z29.963 F283.3
G2 X10.111 Y4.022 Z29 I21.35
X16 Y4.85 I5.889 J-20.522 F850
G1 X136
G2 X157.35 Y-16.5 J-21.35
G1 Y-91.5
G2 X136 Y-112.85 I-21.35
G1 X16
G2 X-5.35 Y-91.5 J21.35
G1 Y-46.202
Y-16.5
G2 X10.111 Y4.022 I21.35
X16 Y4.85 Z28.792 I5.889 J-20.522 F283.3
G1 X67.307 Z27
X136 F850
G2 X157.35 Y-16.5 J-21.35
G1 Y-91.5
G2 X136 Y-112.85 I-21.35
G1 X16
G2 X-5.35 Y-91.5 J21.35
G1 Y-16.5
G2 X16 Y4.85 I21.35
G1 X67.307
X124.579 Z25 F283.3
X136 F850
G2 X157.35 Y-16.5 J-21.35
G1 Y-91.5
G2 X136 Y-112.85 I-21.35
G1 X16
G2 X-5.35 Y-91.5 J21.35
G1 Y-16.5
G2 X16 Y4.85 I21.35
G1 X124.579
X136 Z24.601 F283.3
G2 X157.35 Y-16.5 Z23.43 J-21.35
G1 Y-28.815 Z23
Y-91.5 F850
G2 X136 Y-112.85 I-21.35
G1 X16
G2 X-5.35 Y-91.5 J21.35
G1 Y-16.5
G2 X16 Y4.85 I21.35
G1 X124.579
X136
G2 X157.35 Y-16.5 J-21.35
G1 Y-28.815
Y-86.088 Z21 F283.3
Y-91.5 F850
G2 X136 Y-112.85 I-21.35
G1 X16
G2 X-5.35 Y-91.5 J21.35
G1 Y-16.5
G2 X16 Y4.85 I21.35
G1 X136
G2 X157.35 Y-16.5 J-21.35
G1 Y-86.088
Y-91.5 Z20.811 F283.3
G2 X136 Y-112.85 Z19.64 I-21.35
G1 X117.676 Z19
X16 F850
G2 X-5.35 Y-91.5 J21.35
G1 Y-16.5
G2 X16 Y4.85 I21.35
G1 X136
G2 X157.35 Y-16.5 J-21.35
G1 Y-86.088
Y-91.5
G2 X136 Y-112.85 I-21.35
G1 X117.676
X60.404 Z17 F283.3
X16 F850
G2 X-5.35 Y-91.5 J21.35
G1 Y-16.5
G2 X16 Y4.85 I21.35
G1 X136
G2 X157.35 Y-16.5 J-21.35
G1 Y-91.5
G2 X136 Y-112.85 I-21.35
G1 X60.404
X16 Z15.449 F283.3
G2 X3.897 Y-109.088 Z15 J21.35
X-5.35 Y-91.5 I12.103 J17.588 F850
G1 Y-16.5
G2 X16 Y4.85 I21.35
G1 X136
G2 X157.35 Y-16.5 J-21.35
G1 Y-91.5
G2 X136 Y-112.85 I-21.35
G1 X60.404
X16
G2 X3.897 Y-109.088 J21.35
X-5.35 Y-91.5 Z14.278 I12.103 J17.588 F283.3
G1 Y-54.895 Z13
Y-16.5 F850
G2 X16 Y4.85 I21.35
G1 X136
G2 X157.35 Y-16.5 J-21.35
G1 Y-91.5
G2 X136 Y-112.85 I-21.35
G1 X16
G2 X-5.35 Y-91.5 J21.35
G1 Y-54.895
Y-16.5 Z11.659 F283.3
G2 X2.466 Y0.012 Z11 I21.35
X16 Y4.85 I13.534 J-16.512 F850
G1 X136
G2 X157.35 Y-16.5 J-21.35
G1 Y-91.5
G2 X136 Y-112.85 I-21.35
G1 X16
G2 X-5.35 Y-91.5 J21.35
G1 Y-16.5
G2 X2.466 Y0.012 I21.35
X16 Y4.85 Z10.488 I13.534 J-16.512 F283.3
G1 X58.613 Z9
X136 F850
G2 X157.35 Y-16.5 J-21.35
G1 Y-91.5
G2 X136 Y-112.85 I-21.35
G1 X16
G2 X-5.35 Y-91.5 J21.35
G1 Y-16.5
G2 X16 Y4.85 I21.35
G1 X58.613
X115.886 Z7 F283.3
X136 F850
G2 X157.35 Y-16.5 J-21.35
G1 Y-91.5
G2 X136 Y-112.85 I-21.35
G1 X16
G2 X-5.35 Y-91.5 J21.35
G1 Y-16.5
G2 X16 Y4.85 I21.35
G1 X115.886
X136 Z6.298 F283.3
G2 X157.35 Y-16.5 Z5.126 J-21.35
G1 Y-20.122 Z5
Y-91.5 F850
G2 X136 Y-112.85 I-21.35
G1 X16
G2 X-5.35 Y-91.5 J21.35
G1 Y-16.5
G2 X16 Y4.85 I21.35
G1 X115.886
X136
G2 X157.35 Y-16.5 J-21.35
G1 Y-20.122
Y-77.394 Z3 F283.3
Y-91.5 F850
G2 X136 Y-112.85 I-21.35
G1 X16
G2 X-5.35 Y-91.5 J21.35
G1 Y-16.5
G2 X16 Y4.85 I21.35
G1 X136
G2 X157.35 Y-16.5 J-21.35
G1 Y-77.394
Y-91.5 Z2.507 F283.3
G2 X136 Y-112.85 Z1.336 I-21.35
G1 X126.37 Z1
X16 F850
G2 X-5.35 Y-91.5 J21.35
G1 Y-16.5
G2 X16 Y4.85 I21.35
G1 X136
G2 X157.35 Y-16.5 J-21.35
G1 Y-77.394
Y-91.5
G2 X136 Y-112.85 I-21.35
G1 X126.37
X97.734 Z0 F283.3
X16 F850
G2 X-5.35 Y-91.5 J21.35
G1 Y-16.5
G2 X16 Y4.85 I21.35
G1 X136
G2 X157.35 Y-16.5 J-21.35
G1 Y-91.5
G2 X136 Y-112.85 I-21.35
G1 X97.734
G3 X96.464 Y-114.12 J-1.27
G1 Y-115.39
G19 G2 Y-116.66 Z1.27 K1.27
G0 Z62
G17
M9
M30
%
