%
(1001)
(Z0 stock bottom)
(T1  D=3.2 CR=0 - ZMIN=40 - flat end mill)
G90 G94
G17
G21

(2D Contour6)
M9
T1 M6
S10000 M3
G54
M9
G0 X65.6 Y-4.064
Z60
Z50
G1 Z47.82 F850
G19 G2 Y-4.373 Z47.5 J-0.32 F283.3
G1 Y-103.4 Z44.042
X66.4 Z44.014
Y-103 Z44
Y-1.6 F850
X65.6
Y-103.4
X66.4
Y-103
Y-74.364 Z43 F283.3
Y-1.6 F850
X65.6
Y-103.4
X66.4
Y-74.364
Y-45.727 Z42 F283.3
Y-1.6 F850
X65.6
Y-103.4
X66.4
Y-74.364
Y-45.727
Y-17.091 Z41 F283.3
Y-1.6 F850
X65.6
Y-103.4
X66.4
Y-45.727
Y-17.091
Y-1.6 Z40.459 F283.3
X65.6 Z40.431
Y-13.945 Z40
Y-103.4 F850
X66.4
Y-17.091
Y-1.6
X65.6
Y-13.945
G17 G3 X65.604 Y-13.995 Z40.004 I0.32
X65.615 Y-14.042 Z40.016 I0.316 J0.05
X65.632 Y-14.085 Z40.035 I0.305 J0.097
X65.654 Y-14.122 Z40.061 I0.288 J0.14
X65.677 Y-14.153 Z40.094 I0.266 J0.177
X65.699 Y-14.177 Z40.132 I0.243 J0.208
X65.719 Y-14.194 Z40.175 I0.221 J0.232
X65.734 Y-14.206 Z40.221 I0.201 J0.249
X65.744 Y-14.212 Z40.27 I0.186 J0.26
G1 X65.747 Y-14.214 Z40.32
G0 Z60

(2D Contour6 2)
M9
X57.6 Y-7.392
Z60
Z50
G1 Z47.82 F850
G19 G2 Y-7.701 Z47.5 J-0.32 F283.3
G1 Y-17.454 Z47.159
X58.08 Y-18.203 Z47.128
G17 G2 X58.109 Y-18.25 Z47.126 I-1.347 J-0.864
G1 X58.4 Y-18.74 Z47.107
Y-1.6 Z46.508
X57.6 Z46.48
Y-17.454 Z45.926
X58.08 Y-18.203 Z45.895
G2 X58.109 Y-18.25 Z45.893 I-1.347 J-0.864
G1 X58.4 Y-18.74 Z45.873
Y-1.6 Z45.275
X57.6 Z45.247
Y-17.454 Z44.693
X58.08 Y-18.203 Z44.662
G2 X58.109 Y-18.25 Z44.66 I-1.347 J-0.864
G1 X58.4 Y-18.74 Z44.64
Y-1.6 Z44.042
X57.6 Z44.014
Y-2 Z44
Y-17.454 F850
X58.08 Y-18.203
G2 X58.109 Y-18.25 I-1.347 J-0.864
G1 X58.4 Y-18.74
Y-1.6
X57.6
Y-2
Y-17.454 Z43.46 F283.3
X58.08 Y-18.203 Z43.429
G2 X58.109 Y-18.25 Z43.427 I-1.347 J-0.864
G1 X58.4 Y-18.74 Z43.407
Y-7.073 Z43
Y-1.6 F850
X57.6
Y-17.454
X58.08 Y-18.203
G2 X58.109 Y-18.25 I-1.347 J-0.864
G1 X58.4 Y-18.74
Y-7.073
Y-1.6 Z42.809 F283.3
X57.6 Z42.781
Y-17.454 Z42.227
X58.08 Y-18.203 Z42.196
G2 X58.109 Y-18.25 Z42.194 I-1.347 J-0.864
G1 X58.4 Y-18.74 Z42.174
Y-13.746 Z42
Y-7.073 F850
Y-1.6
X57.6
Y-17.454
X58.08 Y-18.203
G2 X58.109 Y-18.25 I-1.347 J-0.864
G1 X58.4 Y-18.74
Y-13.746
Y-1.6 Z41.576 F283.3
X57.6 Z41.548
Y-17.29 Z41
Y-17.454 F850
X58.08 Y-18.203
G2 X58.109 Y-18.25 I-1.347 J-0.864
G1 X58.4 Y-18.74
Y-1.6
X57.6
Y-17.29
Y-17.454 Z40.994 F283.3
X58.08 Y-18.203 Z40.963
G2 X58.109 Y-18.25 Z40.961 I-1.347 J-0.864
G1 X58.4 Y-18.74 Z40.941
Y-1.6 Z40.343
X57.6 Z40.315
Y-10.617 Z40
Y-17.29 F850
Y-17.454
X58.08 Y-18.203
G2 X58.109 Y-18.25 I-1.347 J-0.864
G1 X58.4 Y-18.74
Y-1.6
X57.6
Y-10.617
G3 X57.604 Y-10.667 Z40.004 I0.32
X57.615 Y-10.714 Z40.016 I0.316 J0.05
X57.632 Y-10.758 Z40.035 I0.305 J0.097
X57.654 Y-10.795 Z40.061 I0.288 J0.14
X57.677 Y-10.825 Z40.094 I0.266 J0.177
X57.699 Y-10.849 Z40.132 I0.243 J0.208
X57.719 Y-10.866 Z40.175 I0.221 J0.232
X57.734 Y-10.878 Z40.221 I0.201 J0.249
X57.744 Y-10.884 Z40.27 I0.186 J0.26
G1 X57.747 Y-10.886 Z40.32
G0 Z60

(2D Contour6 3)
M9
X57.6 Y-92.821
Z60
Z50
G1 Z47.82 F850
G19 G2 Y-93.13 Z47.5 J-0.32 F283.3
G1 Y-103.4 Z47.141
X58.4 Z47.113
Y-86.26 Z46.515
X58.109 Y-86.75 Z46.495
G17 G2 X58.08 Y-86.797 Z46.493 I-1.376 J0.816
G1 X57.6 Y-87.546 Z46.462
Y-103.4 Z45.908
X58.4 Z45.88
Y-86.26 Z45.282
X58.109 Y-86.75 Z45.262
G2 X58.08 Y-86.797 Z45.26 I-1.376 J0.816
G1 X57.6 Y-87.546 Z45.229
Y-103.4 Z44.675
X58.4 Z44.647
Y-86.26 Z44.049
X58.109 Y-86.75 Z44.029
G2 X58.08 Y-86.797 Z44.027 I-1.376 J0.816
G1 X57.663 Y-87.447 Z44
X57.6 Y-87.546 F850
Y-103.4
X58.4
Y-86.26
X58.109 Y-86.75
G2 X58.08 Y-86.797 I-1.376 J0.816
G1 X57.663 Y-87.447
X57.6 Y-87.546 Z43.996 F283.3
Y-103.4 Z43.442
X58.4 Z43.414
Y-91.535 Z43
Y-86.26 F850
X58.109 Y-86.75
G2 X58.08 Y-86.797 I-1.376 J0.816
G1 X57.663 Y-87.447
X57.6 Y-87.546
Y-103.4
X58.4
Y-91.535
Y-86.26 Z42.816 F283.3
X58.109 Y-86.75 Z42.796
G2 X58.08 Y-86.797 Z42.794 I-1.376 J0.816
G1 X57.6 Y-87.546 Z42.763
Y-103.4 Z42.209
X58.4 Z42.181
Y-98.208 Z42
Y-91.535 F850
Y-86.26
X58.109 Y-86.75
G2 X58.08 Y-86.797 I-1.376 J0.816
G1 X57.6 Y-87.546
Y-103.4
X58.4
Y-98.208
Y-86.26 Z41.583 F283.3
X58.109 Y-86.75 Z41.563
G2 X58.08 Y-86.797 Z41.561 I-1.376 J0.816
G1 X57.6 Y-87.546 Z41.53
Y-102.719 Z41
Y-103.4 F850
X58.4
Y-86.26
X58.109 Y-86.75
G2 X58.08 Y-86.797 I-1.376 J0.816
G1 X57.6 Y-87.546
Y-102.719
Y-103.4 Z40.976 F283.3
X58.4 Z40.948
Y-86.26 Z40.35
X58.109 Y-86.75 Z40.33
G2 X58.08 Y-86.797 Z40.328 I-1.376 J0.816
G1 X57.6 Y-87.546 Z40.297
Y-96.046 Z40
Y-102.719 F850
Y-103.4
X58.4
Y-86.26
X58.109 Y-86.75
G2 X58.08 Y-86.797 I-1.376 J0.816
G1 X57.6 Y-87.546
Y-96.046
G3 X57.604 Y-96.096 Z40.004 I0.32
X57.615 Y-96.143 Z40.016 I0.316 J0.05
X57.632 Y-96.186 Z40.035 I0.305 J0.097
X57.654 Y-96.223 Z40.061 I0.288 J0.14
X57.677 Y-96.254 Z40.094 I0.266 J0.177
X57.699 Y-96.277 Z40.132 I0.243 J0.208
X57.719 Y-96.295 Z40.175 I0.221 J0.232
X57.734 Y-96.306 Z40.221 I0.201 J0.249
X57.744 Y-96.313 Z40.27 I0.186 J0.26
G1 X57.747 Y-96.315 Z40.32
G0 Z60

(2D Contour6 4)
M9
X49.6 Y-4.232
Z60
Z50
G1 Z47.82 F850
G19 G2 Y-4.541 Z47.5 J-0.32 F283.3
G1 Y-8.993 Z47.345
X49.689 Y-9.05 Z47.341
G17 G2 X49.754 Y-9.095 Z47.338 I-0.866 J-1.346
G1 X50.4 Y-9.556 Z47.31
Y-1.6 Z47.033
X49.6 Z47.005
Y-8.993 Z46.746
X49.689 Y-9.05 Z46.743
G2 X49.754 Y-9.095 Z46.74 I-0.866 J-1.346
G1 X50.4 Y-9.556 Z46.712
Y-1.6 Z46.434
X49.6 Z46.406
Y-8.993 Z46.148
X49.689 Y-9.05 Z46.145
G2 X49.754 Y-9.095 Z46.142 I-0.866 J-1.346
G1 X50.4 Y-9.556 Z46.114
Y-1.6 Z45.836
X49.6 Z45.808
Y-8.993 Z45.55
X49.689 Y-9.05 Z45.546
G2 X49.754 Y-9.095 Z45.544 I-0.866 J-1.346
G1 X50.4 Y-9.556 Z45.516
Y-1.6 Z45.238
X49.6 Z45.21
Y-8.993 Z44.952
X49.689 Y-9.05 Z44.948
G2 X49.754 Y-9.095 Z44.946 I-0.866 J-1.346
G1 X50.4 Y-9.556 Z44.918
Y-1.6 Z44.64
X49.6 Z44.612
Y-8.993 Z44.354
X49.689 Y-9.05 Z44.35
G2 X49.754 Y-9.095 Z44.347 I-0.866 J-1.346
G1 X50.4 Y-9.556 Z44.32
Y-1.6 Z44.042
X49.6 Z44.014
Y-2 Z44
Y-8.993 F850
X49.689 Y-9.05
G2 X49.754 Y-9.095 I-0.866 J-1.346
G1 X50.4 Y-9.556
Y-1.6
X49.6
Y-2
Y-8.993 Z43.756 F283.3
X49.689 Y-9.05 Z43.752
G2 X49.754 Y-9.095 Z43.749 I-0.866 J-1.346
G1 X50.4 Y-9.556 Z43.722
Y-1.6 Z43.444
X49.6 Z43.416
Y-8.993 Z43.158
X49.689 Y-9.05 Z43.154
G2 X49.754 Y-9.095 Z43.151 I-0.866 J-1.346
G1 X50.4 Y-9.556 Z43.124
Y-6.02 Z43
Y-1.6 F850
X49.6
Y-8.993
X49.689 Y-9.05
G2 X49.754 Y-9.095 I-0.866 J-1.346
G1 X50.4 Y-9.556
Y-6.02
Y-1.6 Z42.846 F283.3
X49.6 Z42.818
Y-8.993 Z42.56
X49.689 Y-9.05 Z42.556
G2 X49.754 Y-9.095 Z42.553 I-0.866 J-1.346
G1 X50.4 Y-9.556 Z42.525
Y-1.6 Z42.248
X49.6 Z42.22
Y-7.889 Z42
Y-8.993 F850
X49.689 Y-9.05
G2 X49.754 Y-9.095 I-0.866 J-1.346
G1 X50.4 Y-9.556
Y-1.6
X49.6
Y-7.889
Y-8.993 Z41.961 F283.3
X49.689 Y-9.05 Z41.958
G2 X49.754 Y-9.095 Z41.955 I-0.866 J-1.346
G1 X50.4 Y-9.556 Z41.927
Y-1.6 Z41.649
X49.6 Z41.621
Y-8.993 Z41.363
X49.689 Y-9.05 Z41.36
G2 X49.754 Y-9.095 Z41.357 I-0.866 J-1.346
G1 X50.4 Y-9.556 Z41.329
Y-1.6 Z41.051
X49.6 Z41.023
Y-2.269 Z41
Y-7.889 F850
Y-8.993
X49.689 Y-9.05
G2 X49.754 Y-9.095 I-0.866 J-1.346
G1 X50.4 Y-9.556
Y-1.6
X49.6
Y-2.269
Y-8.993 Z40.765 F283.3
X49.689 Y-9.05 Z40.761
G2 X49.754 Y-9.095 Z40.759 I-0.866 J-1.346
G1 X50.4 Y-9.556 Z40.731
Y-1.6 Z40.453
X49.6 Z40.425
Y-8.993 Z40.167
X49.689 Y-9.05 Z40.163
G2 X49.754 Y-9.095 Z40.161 I-0.866 J-1.346
G1 X50.4 Y-9.556 Z40.133
Y-5.751 Z40
Y-1.6 F850
X49.6
Y-8.993
X49.689 Y-9.05
G2 X49.754 Y-9.095 I-0.866 J-1.346
G1 X50.4 Y-9.556
Y-5.751
G3 X50.396 Y-5.701 Z40.004 I-0.32
X50.385 Y-5.654 Z40.016 I-0.316 J-0.05
X50.368 Y-5.611 Z40.035 I-0.305 J-0.097
X50.346 Y-5.573 Z40.061 I-0.288 J-0.14
X50.323 Y-5.543 Z40.094 I-0.266 J-0.177
X50.301 Y-5.519 Z40.132 I-0.243 J-0.208
X50.281 Y-5.502 Z40.175 I-0.221 J-0.232
X50.266 Y-5.49 Z40.221 I-0.201 J-0.249
X50.256 Y-5.484 Z40.27 I-0.186 J-0.26
G1 X50.253 Y-5.482 Z40.32
G0 Z60

(2D Contour6 5)
M9
X50.4 Y-102.368
Z60
Z50
G1 Z47.82 F850
G19 G3 Y-102.059 Z47.5 J0.32 F283.3
G1 Y-95.444 Z47.269
X49.754 Y-95.905 Z47.241
G17 G2 X49.689 Y-95.95 Z47.239 I-0.931 J1.301
G1 X49.6 Y-96.007 Z47.235
Y-103.4 Z46.977
X50.4 Z46.949
Y-95.444 Z46.671
X49.754 Y-95.905 Z46.643
G2 X49.689 Y-95.95 Z46.64 I-0.931 J1.301
G1 X49.6 Y-96.007 Z46.637
Y-103.4 Z46.379
X50.4 Z46.351
Y-95.444 Z46.073
X49.754 Y-95.905 Z46.045
G2 X49.689 Y-95.95 Z46.042 I-0.931 J1.301
G1 X49.6 Y-96.007 Z46.039
Y-103.4 Z45.78
X50.4 Z45.752
Y-95.444 Z45.475
X49.754 Y-95.905 Z45.447
G2 X49.689 Y-95.95 Z45.444 I-0.931 J1.301
G1 X49.6 Y-96.007 Z45.44
Y-103.4 Z45.182
X50.4 Z45.154
Y-95.444 Z44.876
X49.754 Y-95.905 Z44.849
G2 X49.689 Y-95.95 Z44.846 I-0.931 J1.301
G1 X49.6 Y-96.007 Z44.842
Y-103.4 Z44.584
X50.4 Z44.556
Y-95.444 Z44.278
X49.754 Y-95.905 Z44.251
G2 X49.689 Y-95.95 Z44.248 I-0.931 J1.301
G1 X49.6 Y-96.007 Z44.244
Y-103 Z44
Y-103.4 F850
X50.4
Y-95.444
X49.754 Y-95.905
G2 X49.689 Y-95.95 I-0.931 J1.301
G1 X49.6 Y-96.007
Y-103
Y-103.4 Z43.986 F283.3
X50.4 Z43.958
Y-95.444 Z43.68
X49.754 Y-95.905 Z43.653
G2 X49.689 Y-95.95 Z43.65 I-0.931 J1.301
G1 X49.6 Y-96.007 Z43.646
Y-103.4 Z43.388
X50.4 Z43.36
Y-95.444 Z43.082
X49.754 Y-95.905 Z43.054
G2 X49.689 Y-95.95 Z43.052 I-0.931 J1.301
G1 X49.6 Y-96.007 Z43.048
Y-97.38 Z43
Y-103 F850
Y-103.4
X50.4
Y-95.444
X49.754 Y-95.905
G2 X49.689 Y-95.95 I-0.931 J1.301
G1 X49.6 Y-96.007
Y-97.38
Y-103.4 Z42.79 F283.3
X50.4 Z42.762
Y-95.444 Z42.484
X49.754 Y-95.905 Z42.456
G2 X49.689 Y-95.95 Z42.454 I-0.931 J1.301
G1 X49.6 Y-96.007 Z42.45
Y-103.4 Z42.192
X50.4 Z42.164
Y-98.711 Z42
Y-95.444 F850
X49.754 Y-95.905
G2 X49.689 Y-95.95 I-0.931 J1.301
G1 X49.6 Y-96.007
Y-103.4
X50.4
Y-98.711
Y-95.444 Z41.886 F283.3
X49.754 Y-95.905 Z41.858
G2 X49.689 Y-95.95 Z41.855 I-0.931 J1.301
G1 X49.6 Y-96.007 Z41.852
Y-103.4 Z41.594
X50.4 Z41.566
Y-95.444 Z41.288
X49.754 Y-95.905 Z41.26
G2 X49.689 Y-95.95 Z41.257 I-0.931 J1.301
G1 X49.6 Y-96.007 Z41.254
Y-103.269 Z41
Y-103.4 F850
X50.4
Y-98.711
Y-95.444
X49.754 Y-95.905
G2 X49.689 Y-95.95 I-0.931 J1.301
G1 X49.6 Y-96.007
Y-103.269
Y-103.4 Z40.995 F283.3
X50.4 Z40.967
Y-95.444 Z40.69
X49.754 Y-95.905 Z40.662
G2 X49.689 Y-95.95 Z40.659 I-0.931 J1.301
G1 X49.6 Y-96.007 Z40.655
Y-103.4 Z40.397
X50.4 Z40.369
Y-95.444 Z40.092
X49.754 Y-95.905 Z40.064
G2 X49.689 Y-95.95 Z40.061 I-0.931 J1.301
G1 X49.6 Y-96.007 Z40.057
Y-97.649 Z40
Y-103.269 F850
Y-103.4
X50.4
Y-95.444
X49.754 Y-95.905
G2 X49.689 Y-95.95 I-0.931 J1.301
G1 X49.6 Y-96.007
Y-97.649
G3 X49.604 Y-97.699 Z40.004 I0.32
X49.615 Y-97.746 Z40.016 I0.316 J0.05
X49.632 Y-97.789 Z40.035 I0.305 J0.097
X49.654 Y-97.827 Z40.061 I0.288 J0.14
X49.677 Y-97.857 Z40.094 I0.266 J0.177
X49.699 Y-97.881 Z40.132 I0.243 J0.208
X49.719 Y-97.898 Z40.175 I0.221 J0.232
X49.734 Y-97.91 Z40.221 I0.201 J0.249
X49.744 Y-97.916 Z40.27 I0.186 J0.26
G1 X49.747 Y-97.918 Z40.32
G0 Z60

(2D Contour6 6)
M9
X42.4 Y-2.907
Z60
Z50
G1 Z47.82 F850
G19 G3 Y-2.598 Z47.5 J0.32 F283.3
G1 Y-1.6 Z47.465
X41.6 Z47.437
Y-5.992 Z47.284
X42.179 Y-6.055 Z47.263
G17 G2 X42.292 Y-6.071 Z47.26 I-0.173 J-1.591
G1 X42.4 Y-6.09 Z47.256
Y-1.6 Z47.099
X41.6 Z47.071
Y-5.992 Z46.918
X42.179 Y-6.055 Z46.897
G2 X42.292 Y-6.071 Z46.893 I-0.173 J-1.591
G1 X42.4 Y-6.09 Z46.889
Y-1.6 Z46.733
X41.6 Z46.705
Y-5.992 Z46.551
X42.179 Y-6.055 Z46.531
G2 X42.292 Y-6.071 Z46.527 I-0.173 J-1.591
G1 X42.4 Y-6.09 Z46.523
Y-1.6 Z46.366
X41.6 Z46.338
Y-5.992 Z46.185
X42.179 Y-6.055 Z46.165
G2 X42.292 Y-6.071 Z46.161 I-0.173 J-1.591
G1 X42.4 Y-6.09 Z46.157
Y-1.6 Z46
X41.6 Z45.972
Y-5.992 Z45.819
X42.179 Y-6.055 Z45.798
G2 X42.292 Y-6.071 Z45.794 I-0.173 J-1.591
G1 X42.4 Y-6.09 Z45.791
Y-1.6 Z45.634
X41.6 Z45.606
Y-5.992 Z45.453
X42.179 Y-6.055 Z45.432
G2 X42.292 Y-6.071 Z45.428 I-0.173 J-1.591
G1 X42.4 Y-6.09 Z45.424
Y-1.6 Z45.268
X41.6 Z45.24
Y-5.992 Z45.086
X42.179 Y-6.055 Z45.066
G2 X42.292 Y-6.071 Z45.062 I-0.173 J-1.591
G1 X42.4 Y-6.09 Z45.058
Y-1.6 Z44.901
X41.6 Z44.873
Y-5.992 Z44.72
X42.179 Y-6.055 Z44.7
G2 X42.292 Y-6.071 Z44.696 I-0.173 J-1.591
G1 X42.4 Y-6.09 Z44.692
Y-1.6 Z44.535
X41.6 Z44.507
Y-5.992 Z44.354
X42.179 Y-6.055 Z44.333
G2 X42.292 Y-6.071 Z44.329 I-0.173 J-1.591
G1 X42.4 Y-6.09 Z44.326
Y-1.6 Z44.169
X41.6 Z44.141
Y-5.633 Z44
Y-5.992 F850
X42.179 Y-6.055
G2 X42.292 Y-6.071 I-0.173 J-1.591
G1 X42.4 Y-6.09
Y-1.6
X41.6
Y-5.633
Y-5.992 Z43.987 F283.3
X42.179 Y-6.055 Z43.967
G2 X42.292 Y-6.071 Z43.963 I-0.173 J-1.591
G1 X42.4 Y-6.09 Z43.959
Y-1.6 Z43.802
X41.6 Z43.775
Y-5.992 Z43.621
X42.179 Y-6.055 Z43.601
G2 X42.292 Y-6.071 Z43.597 I-0.173 J-1.591
G1 X42.4 Y-6.09 Z43.593
Y-1.6 Z43.436
X41.6 Z43.408
Y-5.992 Z43.255
X42.179 Y-6.055 Z43.235
G2 X42.292 Y-6.071 Z43.231 I-0.173 J-1.591
G1 X42.4 Y-6.09 Z43.227
Y-1.6 Z43.07
X41.6 Z43.042
Y-2.804 Z43
Y-5.633 F850
Y-5.992
X42.179 Y-6.055
G2 X42.292 Y-6.071 I-0.173 J-1.591
G1 X42.4 Y-6.09
Y-1.6
X41.6
Y-2.804
Y-5.992 Z42.889 F283.3
X42.179 Y-6.055 Z42.868
G2 X42.292 Y-6.071 Z42.864 I-0.173 J-1.591
G1 X42.4 Y-6.09 Z42.861
Y-1.6 Z42.704
X41.6 Z42.676
Y-5.992 Z42.522
X42.179 Y-6.055 Z42.502
G2 X42.292 Y-6.071 Z42.498 I-0.173 J-1.591
G1 X42.4 Y-6.09 Z42.494
Y-1.6 Z42.337
X41.6 Z42.31
Y-5.992 Z42.156
X42.179 Y-6.055 Z42.136
G2 X42.292 Y-6.071 Z42.132 I-0.173 J-1.591
G1 X42.4 Y-6.09 Z42.128
Y-2.425 Z42
Y-1.6 F850
X41.6
Y-5.992
X42.179 Y-6.055
G2 X42.292 Y-6.071 I-0.173 J-1.591
G1 X42.4 Y-6.09
Y-2.425
Y-1.6 Z41.971 F283.3
X41.6 Z41.943
Y-5.992 Z41.79
X42.179 Y-6.055 Z41.77
G2 X42.292 Y-6.071 Z41.766 I-0.173 J-1.591
G1 X42.4 Y-6.09 Z41.762
Y-1.6 Z41.605
X41.6 Z41.577
Y-5.992 Z41.424
X42.179 Y-6.055 Z41.403
G2 X42.292 Y-6.071 Z41.399 I-0.173 J-1.591
G1 X42.4 Y-6.09 Z41.395
Y-1.6 Z41.239
X41.6 Z41.211
Y-5.992 Z41.057
X42.179 Y-6.055 Z41.037
G2 X42.292 Y-6.071 Z41.033 I-0.173 J-1.591
G1 X42.4 Y-6.09 Z41.029
Y-5.254 Z41
Y-2.425 F850
Y-1.6
X41.6
Y-5.992
X42.179 Y-6.055
G2 X42.292 Y-6.071 I-0.173 J-1.591
G1 X42.4 Y-6.09
Y-5.254
Y-1.6 Z40.872 F283.3
X41.6 Z40.844
Y-5.992 Z40.691
X42.179 Y-6.055 Z40.671
G2 X42.292 Y-6.071 Z40.667 I-0.173 J-1.591
G1 X42.4 Y-6.09 Z40.663
Y-1.6 Z40.506
X41.6 Z40.478
Y-5.992 Z40.325
X42.179 Y-6.055 Z40.304
G2 X42.292 Y-6.071 Z40.3 I-0.173 J-1.591
G1 X42.4 Y-6.09 Z40.297
Y-1.6 Z40.14
X41.6 Z40.112
Y-4.805 Z40
Y-5.992 F850
X42.179 Y-6.055
G2 X42.292 Y-6.071 I-0.173 J-1.591
G1 X42.4 Y-6.09
Y-1.6
X41.6
Y-4.805
G3 X41.604 Y-4.855 Z40.004 I0.32
X41.615 Y-4.902 Z40.016 I0.316 J0.05
X41.632 Y-4.945 Z40.035 I0.305 J0.097
X41.654 Y-4.982 Z40.061 I0.288 J0.14
X41.677 Y-5.013 Z40.094 I0.266 J0.177
X41.699 Y-5.037 Z40.132 I0.243 J0.208
X41.719 Y-5.054 Z40.175 I0.221 J0.232
X41.734 Y-5.066 Z40.221 I0.201 J0.249
X41.744 Y-5.072 Z40.27 I0.186 J0.26
G1 X41.747 Y-5.074 Z40.32
G0 Z60

(2D Contour6 7)
M9
X42.259 Y-99.902
Z60
Z50
G1 Z47.82 F850
Y-99.896 Z47.758
X42.257 Y-99.878 Z47.698
X42.254 Y-99.849 Z47.642
X42.249 Y-99.809 Z47.594
X42.244 Y-99.761 Z47.554
X42.238 Y-99.706 Z47.524
X42.232 Y-99.646 Z47.506
X42.225 Y-99.584 Z47.5
X42.19 Y-99.266
G3 X41.838 Y-98.983 I-0.318 J-0.035
G1 X41.6 Y-99.008 Z47.492 F283.3
Y-103.4 Z47.338
X42.4 Z47.31
Y-98.91 Z47.154
X42.292 Y-98.929 Z47.15
G2 X42.179 Y-98.945 Z47.146 I-0.285 J1.574
G1 X41.6 Y-99.008 Z47.125
Y-103.4 Z46.972
X42.4 Z46.944
Y-98.91 Z46.787
X42.292 Y-98.929 Z46.783
G2 X42.179 Y-98.945 Z46.779 I-0.285 J1.574
G1 X41.6 Y-99.008 Z46.759
Y-103.4 Z46.606
X42.4 Z46.578
Y-98.91 Z46.421
X42.292 Y-98.929 Z46.417
G2 X42.179 Y-98.945 Z46.413 I-0.285 J1.574
G1 X41.6 Y-99.008 Z46.393
Y-103.4 Z46.239
X42.4 Z46.212
Y-98.91 Z46.055
X42.292 Y-98.929 Z46.051
G2 X42.179 Y-98.945 Z46.047 I-0.285 J1.574
G1 X41.6 Y-99.008 Z46.027
Y-103.4 Z45.873
X42.4 Z45.845
Y-98.91 Z45.688
X42.292 Y-98.929 Z45.685
G2 X42.179 Y-98.945 Z45.681 I-0.285 J1.574
G1 X41.6 Y-99.008 Z45.66
Y-103.4 Z45.507
X42.4 Z45.479
Y-98.91 Z45.322
X42.292 Y-98.929 Z45.318
G2 X42.179 Y-98.945 Z45.314 I-0.285 J1.574
G1 X41.6 Y-99.008 Z45.294
Y-103.4 Z45.141
X42.4 Z45.113
Y-98.91 Z44.956
X42.292 Y-98.929 Z44.952
G2 X42.179 Y-98.945 Z44.948 I-0.285 J1.574
G1 X41.6 Y-99.008 Z44.928
Y-103.4 Z44.774
X42.4 Z44.746
Y-98.91 Z44.59
X42.292 Y-98.929 Z44.586
G2 X42.179 Y-98.945 Z44.582 I-0.285 J1.574
G1 X41.6 Y-99.008 Z44.562
Y-103.4 Z44.408
X42.4 Z44.38
Y-98.91 Z44.223
X42.292 Y-98.929 Z44.22
G2 X42.179 Y-98.945 Z44.216 I-0.285 J1.574
G1 X41.6 Y-99.008 Z44.195
Y-103.4 Z44.042
X42.4 Z44.014
Y-103 Z44
Y-98.91 F850
X42.292 Y-98.929
G2 X42.179 Y-98.945 I-0.285 J1.574
G1 X41.6 Y-99.008
Y-103.4
X42.4
Y-103
Y-98.91 Z43.857 F283.3
X42.292 Y-98.929 Z43.853
G2 X42.179 Y-98.945 Z43.849 I-0.285 J1.574
G1 X41.6 Y-99.008 Z43.829
Y-103.4 Z43.676
X42.4 Z43.648
Y-98.91 Z43.491
X42.292 Y-98.929 Z43.487
G2 X42.179 Y-98.945 Z43.483 I-0.285 J1.574
G1 X41.6 Y-99.008 Z43.463
Y-103.4 Z43.309
X42.4 Z43.281
Y-98.91 Z43.125
X42.292 Y-98.929 Z43.121
G2 X42.179 Y-98.945 Z43.117 I-0.285 J1.574
G1 X41.6 Y-99.008 Z43.096
Y-101.771 Z43
Y-103.4 F850
X42.4
Y-98.91
X42.292 Y-98.929
G2 X42.179 Y-98.945 I-0.285 J1.574
G1 X41.6 Y-99.008
Y-101.771
Y-103.4 Z42.943 F283.3
X42.4 Z42.915
Y-98.91 Z42.758
X42.292 Y-98.929 Z42.755
G2 X42.179 Y-98.945 Z42.751 I-0.285 J1.574
G1 X41.6 Y-99.008 Z42.73
Y-103.4 Z42.577
X42.4 Z42.549
Y-98.91 Z42.392
X42.292 Y-98.929 Z42.388
G2 X42.179 Y-98.945 Z42.384 I-0.285 J1.574
G1 X41.6 Y-99.008 Z42.364
Y-103.4 Z42.211
X42.4 Z42.183
Y-98.91 Z42.026
X42.292 Y-98.929 Z42.022
G2 X42.179 Y-98.945 Z42.018 I-0.285 J1.574
G1 X41.666 Y-99.001 Z42
X41.6 Y-99.008 F850
Y-101.771
Y-103.4
X42.4
Y-98.91
X42.292 Y-98.929
G2 X42.179 Y-98.945 I-0.285 J1.574
G1 X41.666 Y-99.001
X41.6 Y-99.008 Z41.998 F283.3
Y-103.4 Z41.844
X42.4 Z41.816
Y-98.91 Z41.66
X42.292 Y-98.929 Z41.656
G2 X42.179 Y-98.945 Z41.652 I-0.285 J1.574
G1 X41.6 Y-99.008 Z41.631
Y-103.4 Z41.478
X42.4 Z41.45
Y-98.91 Z41.293
X42.292 Y-98.929 Z41.289
G2 X42.179 Y-98.945 Z41.285 I-0.285 J1.574
G1 X41.6 Y-99.008 Z41.265
Y-103.4 Z41.112
X42.4 Z41.084
Y-100.999 Z41
Y-98.91 F850
X42.292 Y-98.929
G2 X42.179 Y-98.945 I-0.285 J1.574
G1 X41.666 Y-99.001
X41.6 Y-99.008
Y-103.4
X42.4
Y-100.999
Y-98.91 Z40.927 F283.3
X42.292 Y-98.929 Z40.923
G2 X42.179 Y-98.945 Z40.919 I-0.285 J1.574
G1 X41.6 Y-99.008 Z40.899
Y-103.4 Z40.746
X42.4 Z40.718
Y-98.91 Z40.561
X42.292 Y-98.929 Z40.557
G2 X42.179 Y-98.945 Z40.553 I-0.285 J1.574
G1 X41.6 Y-99.008 Z40.533
Y-103.4 Z40.379
X42.4 Z40.351
Y-98.91 Z40.195
X42.292 Y-98.929 Z40.191
G2 X42.179 Y-98.945 Z40.187 I-0.285 J1.574
G1 X41.6 Y-99.008 Z40.166
Y-103.4 Z40.013
X41.972 Z40
X42.4 F850
Y-100.999
Y-98.91
X42.292 Y-98.929
G2 X42.179 Y-98.945 I-0.285 J1.574
G1 X41.6 Y-99.008
Y-103.4
X41.972
G3 X42.292 Y-103.08 J0.32
G1 Y-102.76
G19 G3 Y-102.44 Z40.32 K0.32
G0 Z60
G17

(2D Contour6 8)
M9
G0 X34.4 Y-6.068
Z60
Z50
G1 Z47.82 F850
G19 G3 Y-5.759 Z47.5 J0.32 F283.3
G1 Y-1.6 Z47.355
X33.6 Z47.327
Y-7.251 Z47.129
X34.382 Y-6.933 Z47.1
G17 G2 X34.4 Y-6.925 Z47.099 I0.604 J-1.482
G1 Y-1.6 Z46.913
X33.6 Z46.885
Y-7.251 Z46.688
X34.382 Y-6.933 Z46.659
G2 X34.4 Y-6.925 Z46.658 I0.604 J-1.482
G1 Y-1.6 Z46.472
X33.6 Z46.444
Y-7.251 Z46.247
X34.382 Y-6.933 Z46.217
G2 X34.4 Y-6.925 Z46.216 I0.604 J-1.482
G1 Y-1.6 Z46.031
X33.6 Z46.003
Y-7.251 Z45.805
X34.382 Y-6.933 Z45.776
G2 X34.4 Y-6.925 Z45.775 I0.604 J-1.482
G1 Y-1.6 Z45.589
X33.6 Z45.561
Y-7.251 Z45.364
X34.382 Y-6.933 Z45.334
G2 X34.4 Y-6.925 I0.604 J-1.482
G1 Y-1.6 Z45.148
X33.6 Z45.12
Y-7.251 Z44.922
X34.382 Y-6.933 Z44.893
G2 X34.4 Y-6.925 Z44.892 I0.604 J-1.482
G1 Y-1.6 Z44.706
X33.6 Z44.678
Y-7.251 Z44.481
X34.382 Y-6.933 Z44.451
G2 X34.4 Y-6.925 I0.604 J-1.482
G1 Y-1.6 Z44.265
X33.6 Z44.237
Y-7.251 Z44.04
X34.382 Y-6.933 Z44.01
G2 X34.4 Y-6.925 Z44.009 I0.604 J-1.482
G1 Y-6.656 Z44
Y-1.6 F850
X33.6
Y-7.251
X34.382 Y-6.933
G2 X34.4 Y-6.925 I0.604 J-1.482
G1 Y-6.656
Y-1.6 Z43.823 F283.3
X33.6 Z43.795
Y-7.251 Z43.598
X34.382 Y-6.933 Z43.569
G2 X34.4 Y-6.925 Z43.568 I0.604 J-1.482
G1 Y-1.6 Z43.382
X33.6 Z43.354
Y-7.251 Z43.157
X34.382 Y-6.933 Z43.127
G2 X34.4 Y-6.925 I0.604 J-1.482
G1 Y-3.301 Z43
Y-1.6 F850
X33.6
Y-7.251
X34.382 Y-6.933
G2 X34.4 Y-6.925 I0.604 J-1.482
G1 Y-3.301
Y-1.6 Z42.941 F283.3
X33.6 Z42.913
Y-7.251 Z42.715
X34.382 Y-6.933 Z42.686
G2 X34.4 Y-6.925 Z42.685 I0.604 J-1.482
G1 Y-1.6 Z42.499
X33.6 Z42.471
Y-7.251 Z42.274
X34.382 Y-6.933 Z42.244
G2 X34.4 Y-6.925 I0.604 J-1.482
G1 Y-1.6 Z42.058
X33.6 Z42.03
Y-2.454 Z42
Y-7.251 F850
X34.382 Y-6.933
G2 X34.4 Y-6.925 I0.604 J-1.482
G1 Y-3.301
Y-1.6
X33.6
Y-2.454
Y-7.251 Z41.832 F283.3
X34.382 Y-6.933 Z41.803
G2 X34.4 Y-6.925 Z41.802 I0.604 J-1.482
G1 Y-1.6 Z41.616
X33.6 Z41.588
Y-7.251 Z41.391
X34.382 Y-6.933 Z41.362
G2 X34.4 Y-6.925 Z41.361 I0.604 J-1.482
G1 Y-1.6 Z41.175
X33.6 Z41.147
Y-5.809 Z41
Y-7.251 F850
X34.382 Y-6.933
G2 X34.4 Y-6.925 I0.604 J-1.482
G1 Y-1.6
X33.6
Y-5.809
Y-7.251 Z40.95 F283.3
X34.382 Y-6.933 Z40.92
G2 X34.4 Y-6.925 Z40.919 I0.604 J-1.482
G1 Y-1.6 Z40.733
X33.6 Z40.706
Y-7.251 Z40.508
X34.382 Y-6.933 Z40.479
G2 X34.4 Y-6.925 Z40.478 I0.604 J-1.482
G1 Y-1.6 Z40.292
X33.6 Z40.264
Y-7.251 Z40.067
X34.382 Y-6.933 Z40.037
G2 X34.4 Y-6.925 I0.604 J-1.482
G1 Y-5.876 Z40
Y-1.6 F850
X33.6
Y-5.809
Y-7.251
X34.382 Y-6.933
G2 X34.4 Y-6.925 I0.604 J-1.482
G1 Y-5.876
G3 X34.396 Y-5.827 Z40.004 I-0.32
X34.385 Y-5.779 Z40.016 I-0.316 J-0.05
X34.368 Y-5.736 Z40.035 I-0.305 J-0.097
X34.346 Y-5.699 Z40.061 I-0.288 J-0.14
X34.323 Y-5.669 Z40.094 I-0.266 J-0.177
X34.301 Y-5.645 Z40.132 I-0.243 J-0.208
X34.281 Y-5.628 Z40.175 I-0.221 J-0.232
X34.266 Y-5.616 Z40.221 I-0.201 J-0.249
X34.256 Y-5.609 Z40.27 I-0.186 J-0.26
G1 X34.253 Y-5.607 Z40.32
G0 Z60

(2D Contour6 9)
M9
X33.778 Y-102.44
Z60
Z50
G1 Z47.82 F850
G19 G2 Y-102.76 Z47.5 J-0.32
G1 Y-103.08
G17 G3 X34.098 Y-103.4 I0.32
G1 X34.4 Z47.489 F283.3
Y-98.075 Z47.303
G2 X34.382 Y-98.067 I0.585 J1.489
G1 X33.6 Y-97.749 Z47.273
Y-103.4 Z47.076
X34.4 Z47.048
Y-98.075 Z46.862
G2 X34.382 Y-98.067 Z46.861 I0.585 J1.489
G1 X33.6 Y-97.749 Z46.832
Y-103.4 Z46.635
X34.4 Z46.607
Y-98.075 Z46.421
G2 X34.382 Y-98.067 Z46.42 I0.585 J1.489
G1 X33.6 Y-97.749 Z46.39
Y-103.4 Z46.193
X34.4 Z46.165
Y-98.075 Z45.979
G2 X34.382 Y-98.067 I0.585 J1.489
G1 X33.6 Y-97.749 Z45.949
Y-103.4 Z45.752
X34.4 Z45.724
Y-98.075 Z45.538
G2 X34.382 Y-98.067 Z45.537 I0.585 J1.489
G1 X33.6 Y-97.749 Z45.508
Y-103.4 Z45.31
X34.4 Z45.282
Y-98.075 Z45.096
G2 X34.382 Y-98.067 I0.585 J1.489
G1 X33.6 Y-97.749 Z45.066
Y-103.4 Z44.869
X34.4 Z44.841
Y-98.075 Z44.655
G2 X34.382 Y-98.067 Z44.654 I0.585 J1.489
G1 X33.6 Y-97.749 Z44.625
Y-103.4 Z44.427
X34.4 Z44.4
Y-98.075 Z44.214
G2 X34.382 Y-98.067 Z44.213 I0.585 J1.489
G1 X33.6 Y-97.749 Z44.183
Y-103 Z44
Y-103.4 F850
X34.4
Y-98.075
G2 X34.382 Y-98.067 I0.585 J1.489
G1 X33.6 Y-97.749
Y-103
Y-103.4 Z43.986 F283.3
X34.4 Z43.958
Y-98.075 Z43.772
G2 X34.382 Y-98.067 Z43.771 I0.585 J1.489
G1 X33.6 Y-97.749 Z43.742
Y-103.4 Z43.545
X34.4 Z43.517
Y-98.075 Z43.331
G2 X34.382 Y-98.067 Z43.33 I0.585 J1.489
G1 X33.6 Y-97.749 Z43.301
Y-103.4 Z43.103
X34.4 Z43.075
Y-101.245 Z43
Y-98.075 F850
G2 X34.382 Y-98.067 I0.585 J1.489
G1 X33.6 Y-97.749
Y-103
Y-103.4
X34.4
Y-101.245
Y-98.075 Z42.889 F283.3
G2 X34.382 Y-98.067 I0.585 J1.489
G1 X33.6 Y-97.749 Z42.859
Y-103.4 Z42.662
X34.4 Z42.634
Y-98.075 Z42.448
G2 X34.382 Y-98.067 Z42.447 I0.585 J1.489
G1 X33.6 Y-97.749 Z42.418
Y-103.4 Z42.22
X34.4 Z42.192
Y-98.075 Z42.006
G2 X34.382 Y-98.067 I0.585 J1.489
G1 X34.229 Y-98.005 Z42
X33.6 Y-97.749 F850
Y-103.4
X34.4
Y-98.075
G2 X34.382 Y-98.067 I0.585 J1.489
G1 X34.229 Y-98.005
X33.6 Y-97.749 Z41.976 F283.3
Y-103.4 Z41.779
X34.4 Z41.751
Y-98.075 Z41.565
G2 X34.382 Y-98.067 Z41.564 I0.585 J1.489
G1 X33.6 Y-97.749 Z41.535
Y-103.4 Z41.338
X34.4 Z41.31
Y-98.075 Z41.124
G2 X34.382 Y-98.067 Z41.123 I0.585 J1.489
G1 X33.6 Y-97.749 Z41.093
Y-100.425 Z41
Y-103.4 F850
X34.4
Y-98.075
G2 X34.382 Y-98.067 I0.585 J1.489
G1 X33.6 Y-97.749
Y-100.425
Y-103.4 Z40.896 F283.3
X34.4 Z40.868
Y-98.075 Z40.682
G2 X34.382 Y-98.067 I0.585 J1.489
G1 X33.6 Y-97.749 Z40.652
Y-103.4 Z40.455
X34.4 Z40.427
Y-98.075 Z40.241
G2 X34.382 Y-98.067 Z40.24 I0.585 J1.489
G1 X33.6 Y-97.749 Z40.211
Y-103.4 Z40.013
X33.98 Z40
X34.4 F850
Y-98.075
G2 X34.382 Y-98.067 I0.585 J1.489
G1 X33.6 Y-97.749
Y-103.4
X33.98
G3 X34.3 Y-103.08 J0.32
G1 Y-102.76
G19 G3 Y-102.44 Z40.32 K0.32
G0 Z60
G17

(2D Contour6 10)
M9
G0 X26.4 Y-4.993
Z60
Z50
G1 Z47.82 F850
G19 G3 Y-4.685 Z47.5 J0.32 F283.3
G1 Y-1.6 Z47.392
X25.6 Z47.364
Y-13.236 Z46.958
X25.963 Y-12.827 Z46.939
G17 G2 X26.011 Y-12.776 Z46.936 I1.196 J-1.063
G1 X26.4 Y-12.374 Z46.917
Y-1.6 Z46.541
X25.6 Z46.513
Y-13.236 Z46.106
X25.963 Y-12.827 Z46.087
G2 X26.011 Y-12.776 Z46.085 I1.196 J-1.063
G1 X26.4 Y-12.374 Z46.065
Y-1.6 Z45.689
X25.6 Z45.661
Y-13.236 Z45.255
X25.963 Y-12.827 Z45.236
G2 X26.011 Y-12.776 Z45.233 I1.196 J-1.063
G1 X26.4 Y-12.374 Z45.214
Y-1.6 Z44.838
X25.6 Z44.81
Y-13.236 Z44.403
X25.963 Y-12.827 Z44.384
G2 X26.011 Y-12.776 Z44.382 I1.196 J-1.063
G1 X26.4 Y-12.374 Z44.362
Y-2 Z44
Y-1.6 F850
X25.6
Y-13.236
X25.963 Y-12.827
G2 X26.011 Y-12.776 I1.196 J-1.063
G1 X26.4 Y-12.374
Y-2
Y-1.6 Z43.986 F283.3
X25.6 Z43.958
Y-13.236 Z43.552
X25.963 Y-12.827 Z43.533
G2 X26.011 Y-12.776 Z43.53 I1.196 J-1.063
G1 X26.4 Y-12.374 Z43.511
Y-1.6 Z43.134
X25.6 Z43.107
Y-4.651 Z43
Y-13.236 F850
X25.963 Y-12.827
G2 X26.011 Y-12.776 I1.196 J-1.063
G1 X26.4 Y-12.374
Y-2
Y-1.6
X25.6
Y-4.651
Y-13.236 Z42.7 F283.3
X25.963 Y-12.827 Z42.681
G2 X26.011 Y-12.776 Z42.679 I1.196 J-1.063
G1 X26.4 Y-12.374 Z42.659
Y-1.6 Z42.283
X25.6 Z42.255
Y-8.901 Z42
Y-13.236 F850
X25.963 Y-12.827
G2 X26.011 Y-12.776 I1.196 J-1.063
G1 X26.4 Y-12.374
Y-1.6
X25.6
Y-8.901
Y-13.236 Z41.849 F283.3
X25.963 Y-12.827 Z41.83
G2 X26.011 Y-12.776 Z41.827 I1.196 J-1.063
G1 X26.4 Y-12.374 Z41.808
Y-1.6 Z41.431
X25.6 Z41.403
Y-13.152 Z41
Y-13.236 F850
X25.963 Y-12.827
G2 X26.011 Y-12.776 I1.196 J-1.063
G1 X26.4 Y-12.374
Y-1.6
X25.6
Y-8.901
Y-13.152
Y-13.236 Z40.997 F283.3
X25.963 Y-12.827 Z40.978
G2 X26.011 Y-12.776 Z40.976 I1.196 J-1.063
G1 X26.4 Y-12.374 Z40.956
Y-1.6 Z40.58
X25.6 Z40.552
Y-13.236 Z40.146
X25.963 Y-12.827 Z40.126
G2 X26.011 Y-12.776 Z40.124 I1.196 J-1.063
G1 X26.4 Y-12.374 Z40.104
Y-9.383 Z40
Y-1.6 F850
X25.6
Y-13.152
Y-13.236
X25.963 Y-12.827
G2 X26.011 Y-12.776 I1.196 J-1.063
G1 X26.4 Y-12.374
Y-9.383
G3 X26.396 Y-9.333 Z40.004 I-0.32
X26.385 Y-9.285 Z40.016 I-0.316 J-0.05
X26.368 Y-9.242 Z40.035 I-0.305 J-0.097
X26.346 Y-9.205 Z40.061 I-0.288 J-0.14
X26.323 Y-9.175 Z40.094 I-0.266 J-0.177
X26.301 Y-9.151 Z40.132 I-0.243 J-0.208
X26.281 Y-9.134 Z40.175 I-0.221 J-0.232
X26.266 Y-9.122 Z40.221 I-0.201 J-0.249
X26.256 Y-9.116 Z40.27 I-0.186 J-0.26
G1 X26.253 Y-9.114 Z40.32
G0 Z60

(2D Contour6 11)
M9
X26.4 Y-93.42
Z60
Z50
G1 Z47.82 F850
G19 G3 Y-93.111 Z47.5 J0.32 F283.3
G1 Y-92.626 Z47.483
X26.011 Y-92.224 Z47.464
G17 G2 X25.963 Y-92.173 Z47.461 I1.148 J1.114
G1 X25.6 Y-91.764 Z47.442
Y-103.4 Z47.036
X26.4 Z47.008
Y-92.626 Z46.631
X26.011 Y-92.224 Z46.612
G2 X25.963 Y-92.173 Z46.61 I1.148 J1.114
G1 X25.6 Y-91.764 Z46.59
Y-103.4 Z46.184
X26.4 Z46.156
Y-92.626 Z45.78
X26.011 Y-92.224 Z45.76
G2 X25.963 Y-92.173 Z45.758 I1.148 J1.114
G1 X25.6 Y-91.764 Z45.739
Y-103.4 Z45.333
X26.4 Z45.305
Y-92.626 Z44.928
X26.011 Y-92.224 Z44.909
G2 X25.963 Y-92.173 Z44.906 I1.148 J1.114
G1 X25.6 Y-91.764 Z44.887
Y-103.4 Z44.481
X26.4 Z44.453
Y-92.626 Z44.077
X26.011 Y-92.224 Z44.057
G2 X25.963 Y-92.173 Z44.055 I1.148 J1.114
G1 X25.6 Y-91.764 Z44.036
Y-92.788 Z44
Y-103.4 F850
X26.4
Y-92.626
X26.011 Y-92.224
G2 X25.963 Y-92.173 I1.148 J1.114
G1 X25.6 Y-91.764
Y-92.788
Y-103.4 Z43.629 F283.3
X26.4 Z43.601
Y-92.626 Z43.225
X26.011 Y-92.224 Z43.206
G2 X25.963 Y-92.173 Z43.203 I1.148 J1.114
G1 X25.6 Y-91.764 Z43.184
Y-97.039 Z43
Y-103.4 F850
X26.4
Y-92.626
X26.011 Y-92.224
G2 X25.963 Y-92.173 I1.148 J1.114
G1 X25.6 Y-91.764
Y-97.039
Y-103.4 Z42.778 F283.3
X26.4 Z42.75
Y-92.626 Z42.374
X26.011 Y-92.224 Z42.354
G2 X25.963 Y-92.173 Z42.352 I1.148 J1.114
G1 X25.6 Y-91.764 Z42.333
Y-101.289 Z42
Y-103.4 F850
X26.4
Y-92.626
X26.011 Y-92.224
G2 X25.963 Y-92.173 I1.148 J1.114
G1 X25.6 Y-91.764
Y-97.039
Y-101.289
Y-103.4 Z41.926 F283.3
X26.4 Z41.898
Y-92.626 Z41.522
X26.011 Y-92.224 Z41.503
G2 X25.963 Y-92.173 Z41.5 I1.148 J1.114
G1 X25.6 Y-91.764 Z41.481
Y-103.4 Z41.075
X26.4 Z41.047
Y-102.06 Z41
Y-92.626 F850
X26.011 Y-92.224
G2 X25.963 Y-92.173 I1.148 J1.114
G1 X25.6 Y-91.764
Y-101.289
Y-103.4
X26.4
Y-102.06
Y-92.626 Z40.671 F283.3
X26.011 Y-92.224 Z40.651
G2 X25.963 Y-92.173 Z40.649 I1.148 J1.114
G1 X25.6 Y-91.764 Z40.629
Y-103.4 Z40.223
X26.4 Z40.195
Y-97.809 Z40
Y-92.626 F850
X26.011 Y-92.224
G2 X25.963 Y-92.173 I1.148 J1.114
G1 X25.6 Y-91.764
Y-103.4
X26.4
Y-97.809
G3 X26.396 Y-97.76 Z40.004 I-0.32
X26.385 Y-97.712 Z40.016 I-0.316 J-0.05
X26.368 Y-97.669 Z40.035 I-0.305 J-0.097
X26.346 Y-97.632 Z40.061 I-0.288 J-0.14
X26.323 Y-97.602 Z40.094 I-0.266 J-0.177
X26.301 Y-97.578 Z40.132 I-0.243 J-0.208
X26.281 Y-97.561 Z40.175 I-0.221 J-0.232
X26.266 Y-97.549 Z40.221 I-0.201 J-0.249
X26.256 Y-97.542 Z40.27 I-0.186 J-0.26
G1 X26.253 Y-97.54 Z40.32
G0 Z60

(2D Contour6 12)
M9
X18.271 Y-25.514
Z60
Z50
G1 Z47.82 F850
X18.274 Y-25.507 Z47.75 F283.3
X18.283 Y-25.486 Z47.684
X18.296 Y-25.452 Z47.624
X18.314 Y-25.407 Z47.574
X18.336 Y-25.352 Z47.535
X18.36 Y-25.292 Z47.51
X18.386 Y-25.227 Z47.5
X18.4 Y-25.192 Z47.499
Y-1.6 Z46.675
X17.6 Z46.647
Y-27.266 Z45.751
X17.914 Y-26.409 Z45.719
G2 X17.931 Y-26.366 Z45.717 I1.502 J-0.551
G1 X18.4 Y-25.192 Z45.673
Y-1.6 Z44.849
X17.6 Z44.821
Y-25.115 Z44
Y-27.266 F850
X17.914 Y-26.409
G2 X17.931 Y-26.366 I1.502 J-0.551
G1 X18.4 Y-25.192
Y-1.6
X17.6
Y-25.115
Y-27.266 Z43.925 F283.3
X17.914 Y-26.409 Z43.893
G2 X17.931 Y-26.366 Z43.891 I1.502 J-0.551
G1 X18.4 Y-25.192 Z43.847
Y-1.6 Z43.023
X17.73 Z43
X17.6 F850
Y-25.115
Y-27.266
X17.914 Y-26.409
G2 X17.931 Y-26.366 I1.502 J-0.551
G1 X18.4 Y-25.192
Y-1.6
X17.73
X17.6 Z42.995 F283.3
Y-27.266 Z42.099
X17.914 Y-26.409 Z42.067
G2 X17.931 Y-26.366 Z42.066 I1.502 J-0.551
G1 X18.4 Y-25.192 Z42.022
Y-24.576 Z42
Y-1.6 F850
X17.73
X17.6
Y-27.266
X17.914 Y-26.409
G2 X17.931 Y-26.366 I1.502 J-0.551
G1 X18.4 Y-25.192
Y-24.576
Y-1.6 Z41.198 F283.3
X17.6 Z41.17
Y-6.46 Z41
Y-27.266 F850
X17.914 Y-26.409
G2 X17.931 Y-26.366 I1.502 J-0.551
G1 X18.4 Y-25.192
Y-1.6
X17.6
Y-6.46
Y-27.266 Z40.273 F283.3
X17.914 Y-26.409 Z40.242
G2 X17.931 Y-26.366 Z40.24 I1.502 J-0.551
G1 X18.4 Y-25.192 Z40.196
Y-19.585 Z40
Y-1.6 F850
X17.6
Y-27.266
X17.914 Y-26.409
G2 X17.931 Y-26.366 I1.502 J-0.551
G1 X18.4 Y-25.192
Y-19.585
G3 X18.396 Y-19.535 Z40.004 I-0.32
X18.385 Y-19.488 Z40.016 I-0.316 J-0.05
X18.368 Y-19.445 Z40.035 I-0.305 J-0.097
X18.346 Y-19.408 Z40.061 I-0.288 J-0.14
X18.323 Y-19.377 Z40.094 I-0.266 J-0.177
X18.301 Y-19.354 Z40.132 I-0.243 J-0.208
X18.281 Y-19.336 Z40.175 I-0.221 J-0.232
X18.266 Y-19.325 Z40.221 I-0.201 J-0.249
X18.256 Y-19.318 Z40.27 I-0.186 J-0.26
G1 X18.253 Y-19.316 Z40.32
G0 Z60

(2D Contour6 13)
M9
X17.6 Y-79.615
Z60
Z50
G1 Z47.82 F850
G19 G2 Y-79.924 Z47.5 J-0.32 F283.3
G1 Y-103.4 Z46.68
X18.4 Z46.652
Y-79.808 Z45.828
X17.931 Y-78.634 Z45.784
G17 G2 X17.914 Y-78.591 Z45.783 I1.486 J0.594
G1 X17.6 Y-77.734 Z45.751
Y-103.4 Z44.854
X18.4 Z44.827
Y-79.808 Z44.003
X18.371 Y-79.736 Z44
X17.931 Y-78.634 F850
G2 X17.914 Y-78.591 I1.486 J0.594
G1 X17.6 Y-77.734
Y-103.4
X18.4
Y-79.808
X18.371 Y-79.736
X17.931 Y-78.634 Z43.959 F283.3
G2 X17.914 Y-78.591 Z43.957 I1.486 J0.594
G1 X17.6 Y-77.734 Z43.925
Y-103.4 Z43.029
X18.4 Z43.001
Y-103.376 Z43
Y-79.808 F850
X17.931 Y-78.634
G2 X17.914 Y-78.591 I1.486 J0.594
G1 X17.6 Y-77.734
Y-103.4
X18.4
Y-103.376
Y-79.808 Z42.177 F283.3
X17.931 Y-78.634 Z42.133
G2 X17.914 Y-78.591 Z42.131 I1.486 J0.594
G1 X17.6 Y-77.734 Z42.099
Y-80.578 Z42
Y-103.4 F850
X18.4
Y-79.808
X17.931 Y-78.634
G2 X17.914 Y-78.591 I1.486 J0.594
G1 X17.6 Y-77.734
Y-80.578
Y-103.4 Z41.203 F283.3
X18.4 Z41.175
Y-98.386 Z41
Y-79.808 F850
X17.931 Y-78.634
G2 X17.914 Y-78.591 I1.486 J0.594
G1 X17.6 Y-77.734
Y-103.4
X18.4
Y-98.386
Y-79.808 Z40.351 F283.3
X17.931 Y-78.634 Z40.307
G2 X17.914 Y-78.591 Z40.305 I1.486 J0.594
G1 X17.6 Y-77.734 Z40.274
Y-85.569 Z40
Y-103.4 F850
X18.4
Y-79.808
X17.931 Y-78.634
G2 X17.914 Y-78.591 I1.486 J0.594
G1 X17.6 Y-77.734
Y-85.569
G3 X17.604 Y-85.619 Z40.004 I0.32
X17.615 Y-85.666 Z40.016 I0.316 J0.05
X17.632 Y-85.709 Z40.035 I0.305 J0.097
X17.654 Y-85.746 Z40.061 I0.288 J0.14
X17.677 Y-85.777 Z40.094 I0.266 J0.177
X17.699 Y-85.8 Z40.132 I0.243 J0.208
X17.719 Y-85.818 Z40.175 I0.221 J0.232
X17.734 Y-85.829 Z40.221 I0.201 J0.249
X17.744 Y-85.836 Z40.27 I0.186 J0.26
G1 X17.747 Y-85.838 Z40.32
G0 Z60
M9
M30
%
