%
(1001)
(Z0 stock bottom)
(T1  D=12.7 CR=0 - ZMIN=0 - flat end mill)
G90 G94
G17
G21

(2D Contour1)
M9
T1 M6
S5500 M3
G54
M8
G0 X128.017 Y-26.41
Z62
Z52
G1 Z50.77 F850
G19 G3 Y-25.14 Z49.5 J1.27
G1 Y-23.87
G17 G2 X129.287 Y-22.6 I1.27
G1 X132.65 Z49.383 F283.3
Y-85.4 Z47.19
X90.85 Z45.73
Y-64.5 Z45
Y-22.6 F850
X132.65
Y-85.4
X90.85
Y-64.5
Y-22.6 Z43.537 F283.3
X106.223 Z43
X132.65 F850
Y-85.4
X90.85
Y-22.6
X106.223
X132.65 Z42.077 F283.3
Y-53.445 Z41
Y-85.4 F850
X90.85
Y-22.6
X132.65
Y-53.445
Y-85.4 Z39.884 F283.3
X107.332 Z39
X90.85 F850
Y-22.6
X132.65
Y-85.4
X107.332
X90.85 Z38.424 F283.3
Y-44.61 Z37
Y-22.6 F850
X132.65
Y-85.4
X90.85
Y-44.61
Y-22.6 Z36.231 F283.3
X126.113 Z35
X132.65 F850
Y-85.4
X90.85
Y-22.6
X126.113
X132.65 Z34.772 F283.3
Y-73.335 Z33
Y-85.4 F850
X90.85
Y-22.6
X132.65
Y-73.335
Y-85.4 Z32.579 F283.3
X90.85 Z31.119
Y-81.992 Z31
Y-22.6 F850
X132.65
Y-85.4
X90.85
Y-81.992
Y-24.72 Z29 F283.3
Y-22.6 F850
X132.65
Y-85.4
X90.85
Y-24.72
Y-22.6 Z28.926 F283.3
X132.65 Z27.466
Y-35.953 Z27
Y-85.4 F850
X90.85
Y-22.6
X132.65
Y-35.953
Y-85.4 Z25.273 F283.3
X124.825 Z25
X90.85 F850
Y-22.6
X132.65
Y-85.4
X124.825
X90.85 Z23.814 F283.3
Y-62.102 Z23
Y-22.6 F850
X132.65
Y-85.4
X90.85
Y-62.102
Y-22.6 Z21.621 F283.3
X108.62 Z21
X132.65 F850
Y-85.4
X90.85
Y-22.6
X108.62
X132.65 Z20.161 F283.3
Y-55.843 Z19
Y-85.4 F850
X90.85
Y-22.6
X132.65
Y-55.843
Y-85.4 Z17.968 F283.3
X104.935 Z17
X90.85 F850
Y-22.6
X132.65
Y-85.4
X104.935
X90.85 Z16.508 F283.3
Y-42.212 Z15
Y-22.6 F850
X132.65
Y-85.4
X90.85
Y-42.212
Y-22.6 Z14.315 F283.3
X128.51 Z13
X132.65 F850
Y-85.4
X90.85
Y-22.6
X128.51
X132.65 Z12.855 F283.3
Y-75.733 Z11
Y-85.4 F850
X90.85
Y-22.6
X132.65
Y-75.733
Y-85.4 Z10.662 F283.3
X90.85 Z9.203
Y-79.595 Z9
Y-22.6 F850
X132.65
Y-85.4
X90.85
Y-79.595
Y-22.6 Z7.01 F283.3
X91.128 Z7
X132.65 F850
Y-85.4
X90.85
Y-22.6
X91.128
X132.65 Z5.55 F283.3
Y-38.35 Z5
Y-85.4 F850
X90.85
Y-22.6
X132.65
Y-38.35
Y-85.4 Z3.357 F283.3
X122.427 Z3
X90.85 F850
Y-22.6
X132.65
Y-85.4
X122.427
X90.85 Z1.897 F283.3
Y-59.705 Z1
Y-22.6 F850
X132.65
Y-85.4
X90.85
Y-59.705
Y-31.069 Z0 F283.3
Y-22.6 F850
X132.65
Y-85.4
X90.85
Y-31.069
G2 X92.12 Y-29.799 I1.27
G1 X93.39
G18 G2 X94.66 Z1.27 K1.27
G0 Z62
G17
M9
M30
%
