%
(1001)
(Z0 stock bottom)
(T1  D=12.7 CR=0 - ZMIN=3 - flat end mill)
G90 G94
G17
G21

(2D Contour3)
M9
T1 M6
S6000 M3
G54
M9
G0 X103.85 Y-24.41
Z62
Z52
G1 Z50.77 F850
G19 G3 Y-23.14 Z49.5 J1.27
G1 Y-21.87
G17 G3 X102.58 Y-20.6 I-1.27
G1 X83.5 Z48.834 F283.3
G3 Y-21.9 Z48.762 J-0.65
G2 X89.85 Y-28.25 Z48.414 J-6.35
G1 Y-85.75 Z46.406
G2 X83.5 Y-92.1 Z46.058 I-6.35
G3 Y-93.4 Z45.987 J-0.65
G1 X111.75 Z45
X140 F850
G3 Y-92.1 J0.65
G2 X133.65 Y-85.75 J6.35
G1 Y-28.25
G2 X140 Y-21.9 I6.35
G3 Y-20.6 J0.65
G1 X83.5
G3 Y-21.9 J-0.65
G2 X89.85 Y-28.25 J-6.35
G1 Y-85.75
G2 X83.5 Y-92.1 I-6.35
G3 Y-93.4 J-0.65
G1 X111.75
X140 Z44.013 F283.3
G3 Y-92.1 Z43.942 J0.65
G2 X133.65 Y-85.75 Z43.594 J6.35
G1 Y-68.744 Z43
Y-28.25 F850
G2 X140 Y-21.9 I6.35
G3 Y-20.6 J0.65
G1 X83.5
G3 Y-21.9 J-0.65
G2 X89.85 Y-28.25 J-6.35
G1 Y-85.75
G2 X83.5 Y-92.1 I-6.35
G3 Y-93.4 J-0.65
G1 X111.75
X140
G3 Y-92.1 J0.65
G2 X133.65 Y-85.75 J6.35
G1 Y-68.744
Y-28.25 Z41.586 F283.3
G2 X140 Y-21.9 Z41.238 I6.35
G3 Y-20.6 Z41.166 J0.65
G1 X135.238 Z41
X83.5 F850
G3 Y-21.9 J-0.65
G2 X89.85 Y-28.25 J-6.35
G1 Y-85.75
G2 X83.5 Y-92.1 I-6.35
G3 Y-93.4 J-0.65
G1 X140
G3 Y-92.1 J0.65
G2 X133.65 Y-85.75 J6.35
G1 Y-28.25
G2 X140 Y-21.9 I6.35
G3 Y-20.6 J0.65
G1 X135.238
X83.5 Z39.193 F283.3
G3 Y-21.9 Z39.122 J-0.65
G2 X86.819 Y-22.836 Z39 J-6.35
X89.85 Y-28.25 I-3.319 J-5.414 F850
G1 Y-85.75
G2 X83.5 Y-92.1 I-6.35
G3 Y-93.4 J-0.65
G1 X140
G3 Y-92.1 J0.65
G2 X133.65 Y-85.75 J6.35
G1 Y-28.25
G2 X140 Y-21.9 I6.35
G3 Y-20.6 J0.65
G1 X83.5
G3 Y-21.9 J-0.65
G2 X86.819 Y-22.836 J-6.35
X89.85 Y-28.25 Z38.774 I-3.319 J-5.414 F283.3
G1 Y-79.04 Z37
Y-85.75 F850
G2 X83.5 Y-92.1 I-6.35
G3 Y-93.4 J-0.65
G1 X140
G3 Y-92.1 J0.65
G2 X133.65 Y-85.75 J6.35
G1 Y-28.25
G2 X140 Y-21.9 I6.35
G3 Y-20.6 J0.65
G1 X83.5
G3 Y-21.9 J-0.65
G2 X89.85 Y-28.25 J-6.35
G1 Y-79.04
Y-85.75 Z36.766 F283.3
G2 X83.5 Y-92.1 Z36.417 I-6.35
G3 Y-93.4 Z36.346 J-0.65
G1 X122.046 Z35
X140 F850
G3 Y-92.1 J0.65
G2 X133.65 Y-85.75 J6.35
G1 Y-28.25
G2 X140 Y-21.9 I6.35
G3 Y-20.6 J0.65
G1 X83.5
G3 Y-21.9 J-0.65
G2 X89.85 Y-28.25 J-6.35
G1 Y-79.04
Y-85.75
G2 X83.5 Y-92.1 I-6.35
G3 Y-93.4 J-0.65
G1 X122.046
X140 Z34.373 F283.3
G3 Y-92.1 Z34.302 J0.65
G2 X133.65 Y-85.75 Z33.953 J6.35
G1 Y-58.448 Z33
Y-28.25 F850
G2 X140 Y-21.9 I6.35
G3 Y-20.6 J0.65
G1 X83.5
G3 Y-21.9 J-0.65
G2 X89.85 Y-28.25 J-6.35
G1 Y-85.75
G2 X83.5 Y-92.1 I-6.35
G3 Y-93.4 J-0.65
G1 X122.046
X140
G3 Y-92.1 J0.65
G2 X133.65 Y-85.75 J6.35
G1 Y-58.448
Y-28.25 Z31.945 F283.3
G2 X140 Y-21.9 Z31.597 I6.35
G3 Y-20.6 Z31.526 J0.65
G1 X124.942 Z31
X83.5 F850
G3 Y-21.9 J-0.65
G2 X89.85 Y-28.25 J-6.35
G1 Y-85.75
G2 X83.5 Y-92.1 I-6.35
G3 Y-93.4 J-0.65
G1 X140
G3 Y-92.1 J0.65
G2 X133.65 Y-85.75 J6.35
G1 Y-28.25
G2 X140 Y-21.9 I6.35
G3 Y-20.6 J0.65
G1 X124.942
X83.5 Z29.553 F283.3
G3 Y-21.9 Z29.482 J-0.65
G2 X89.85 Y-28.25 Z29.133 J-6.35
G1 Y-32.064 Z29
Y-85.75 F850
G2 X83.5 Y-92.1 I-6.35
G3 Y-93.4 J-0.65
G1 X140
G3 Y-92.1 J0.65
G2 X133.65 Y-85.75 J6.35
G1 Y-28.25
G2 X140 Y-21.9 I6.35
G3 Y-20.6 J0.65
G1 X83.5
G3 Y-21.9 J-0.65
G2 X89.85 Y-28.25 J-6.35
G1 Y-32.064
Y-85.75 Z27.125 F283.3
G2 X88.864 Y-89.149 Z27 I-6.35
X83.5 Y-92.1 I-5.364 J3.399 F850
G3 Y-93.4 J-0.65
G1 X140
G3 Y-92.1 J0.65
G2 X133.65 Y-85.75 J6.35
G1 Y-28.25
G2 X140 Y-21.9 I6.35
G3 Y-20.6 J0.65
G1 X83.5
G3 Y-21.9 J-0.65
G2 X89.85 Y-28.25 J-6.35
G1 Y-85.75
G2 X88.864 Y-89.149 I-6.35
X83.5 Y-92.1 Z26.777 I-5.364 J3.399 F283.3
G3 Y-93.4 Z26.706 J-0.65
G1 X132.342 Z25
X140 F850
G3 Y-92.1 J0.65
G2 X133.65 Y-85.75 J6.35
G1 Y-28.25
G2 X140 Y-21.9 I6.35
G3 Y-20.6 J0.65
G1 X83.5
G3 Y-21.9 J-0.65
G2 X89.85 Y-28.25 J-6.35
G1 Y-85.75
G2 X83.5 Y-92.1 I-6.35
G3 Y-93.4 J-0.65
G1 X132.342
X140 Z24.733 F283.3
G3 Y-92.1 Z24.661 J0.65
G2 X133.65 Y-85.75 Z24.313 J6.35
G1 Y-48.152 Z23
Y-28.25 F850
G2 X140 Y-21.9 I6.35
G3 Y-20.6 J0.65
G1 X83.5
G3 Y-21.9 J-0.65
G2 X89.85 Y-28.25 J-6.35
G1 Y-85.75
G2 X83.5 Y-92.1 I-6.35
G3 Y-93.4 J-0.65
G1 X132.342
X140
G3 Y-92.1 J0.65
G2 X133.65 Y-85.75 J6.35
G1 Y-48.152
Y-28.25 Z22.305 F283.3
G2 X140 Y-21.9 Z21.957 I6.35
G3 Y-20.6 Z21.885 J0.65
G1 X114.646 Z21
X83.5 F850
G3 Y-21.9 J-0.65
G2 X89.85 Y-28.25 J-6.35
G1 Y-85.75
G2 X83.5 Y-92.1 I-6.35
G3 Y-93.4 J-0.65
G1 X140
G3 Y-92.1 J0.65
G2 X133.65 Y-85.75 J6.35
G1 Y-48.152
Y-28.25
G2 X140 Y-21.9 I6.35
G3 Y-20.6 J0.65
G1 X114.646
X83.5 Z19.912 F283.3
G3 Y-21.9 Z19.841 J-0.65
G2 X89.85 Y-28.25 Z19.493 J-6.35
G1 Y-42.36 Z19
Y-85.75 F850
G2 X83.5 Y-92.1 I-6.35
G3 Y-93.4 J-0.65
G1 X140
G3 Y-92.1 J0.65
G2 X133.65 Y-85.75 J6.35
G1 Y-28.25
G2 X140 Y-21.9 I6.35
G3 Y-20.6 J0.65
G1 X83.5
G3 Y-21.9 J-0.65
G2 X89.85 Y-28.25 J-6.35
G1 Y-42.36
Y-85.75 Z17.485 F283.3
G2 X83.5 Y-92.1 Z17.136 I-6.35
G3 Y-93.4 Z17.065 J-0.65
G1 X85.366 Z17
X140 F850
G3 Y-92.1 J0.65
G2 X133.65 Y-85.75 J6.35
G1 Y-28.25
G2 X140 Y-21.9 I6.35
G3 Y-20.6 J0.65
G1 X83.5
G3 Y-21.9 J-0.65
G2 X89.85 Y-28.25 J-6.35
G1 Y-85.75
G2 X83.5 Y-92.1 I-6.35
G3 Y-93.4 J-0.65
G1 X85.366
X140 Z15.092 F283.3
G3 Y-92.1 Z15.021 J0.65
G2 X139.404 Y-92.072 Z15 J6.35
X133.65 Y-85.75 I0.596 J6.322 F850
G1 Y-28.25
G2 X140 Y-21.9 I6.35
G3 Y-20.6 J0.65
G1 X83.5
G3 Y-21.9 J-0.65
G2 X89.85 Y-28.25 J-6.35
G1 Y-85.75
G2 X83.5 Y-92.1 I-6.35
G3 Y-93.4 J-0.65
G1 X140
G3 Y-92.1 J0.65
G2 X139.404 Y-92.072 J6.35
X133.65 Y-85.75 Z14.673 I0.596 J6.322 F283.3
G1 Y-37.856 Z13
Y-28.25 F850
G2 X140 Y-21.9 I6.35
G3 Y-20.6 J0.65
G1 X83.5
G3 Y-21.9 J-0.65
G2 X89.85 Y-28.25 J-6.35
G1 Y-85.75
G2 X83.5 Y-92.1 I-6.35
G3 Y-93.4 J-0.65
G1 X140
G3 Y-92.1 J0.65
G2 X133.65 Y-85.75 J6.35
G1 Y-37.856
Y-28.25 Z12.665 F283.3
G2 X140 Y-21.9 Z12.316 I6.35
G3 Y-20.6 Z12.245 J0.65
G1 X104.35 Z11
X83.5 F850
G3 Y-21.9 J-0.65
G2 X89.85 Y-28.25 J-6.35
G1 Y-85.75
G2 X83.5 Y-92.1 I-6.35
G3 Y-93.4 J-0.65
G1 X140
G3 Y-92.1 J0.65
G2 X133.65 Y-85.75 J6.35
G1 Y-37.856
Y-28.25
G2 X140 Y-21.9 I6.35
G3 Y-20.6 J0.65
G1 X104.35
X83.5 Z10.272 F283.3
G3 Y-21.9 Z10.201 J-0.65
G2 X89.85 Y-28.25 Z9.852 J-6.35
G1 Y-52.656 Z9
Y-85.75 F850
G2 X83.5 Y-92.1 I-6.35
G3 Y-93.4 J-0.65
G1 X140
G3 Y-92.1 J0.65
G2 X133.65 Y-85.75 J6.35
G1 Y-28.25
G2 X140 Y-21.9 I6.35
G3 Y-20.6 J0.65
G1 X104.35
X83.5
G3 Y-21.9 J-0.65
G2 X89.85 Y-28.25 J-6.35
G1 Y-52.656
Y-85.75 Z7.844 F283.3
G2 X83.5 Y-92.1 Z7.496 I-6.35
G3 Y-93.4 Z7.425 J-0.65
G1 X95.662 Z7
X140 F850
G3 Y-92.1 J0.65
G2 X133.65 Y-85.75 J6.35
G1 Y-28.25
G2 X140 Y-21.9 I6.35
G3 Y-20.6 J0.65
G1 X83.5
G3 Y-21.9 J-0.65
G2 X89.85 Y-28.25 J-6.35
G1 Y-85.75
G2 X83.5 Y-92.1 I-6.35
G3 Y-93.4 J-0.65
G1 X95.662
X140 Z5.452 F283.3
G3 Y-92.1 Z5.38 J0.65
G2 X133.65 Y-85.75 Z5.032 J6.35
G1 Y-84.832 Z5
Y-28.25 F850
G2 X140 Y-21.9 I6.35
G3 Y-20.6 J0.65
G1 X83.5
G3 Y-21.9 J-0.65
G2 X89.85 Y-28.25 J-6.35
G1 Y-85.75
G2 X83.5 Y-92.1 I-6.35
G3 Y-93.4 J-0.65
G1 X140
G3 Y-92.1 J0.65
G2 X133.65 Y-85.75 J6.35
G1 Y-84.832
Y-28.25 Z3.024 F283.3
G2 X133.688 Y-27.561 Z3 I6.35
X140 Y-21.9 I6.312 J-0.689 F850
G3 Y-20.6 J0.65
G1 X83.5
G3 Y-21.9 J-0.65
G2 X89.85 Y-28.25 J-6.35
G1 Y-85.75
G2 X83.5 Y-92.1 I-6.35
G3 Y-93.4 J-0.65
G1 X140
G3 Y-92.1 J0.65
G2 X133.65 Y-85.75 J6.35
G1 Y-28.25
G2 X133.688 Y-27.561 I6.35
G3 X132.563 Y-26.16 I-1.262 J0.138
G1 X131.3 Y-26.023
X131.159 Y-26.007 Z3.008
X131.019 Y-25.992 Z3.032
X130.883 Y-25.977 Z3.071
X130.753 Y-25.963 Z3.126
X130.629 Y-25.949 Z3.195
X130.513 Y-25.937 Z3.277
X130.408 Y-25.925 Z3.372
X130.313 Y-25.915 Z3.478
X130.231 Y-25.906 Z3.594
X130.163 Y-25.898 Z3.719
X130.109 Y-25.892 Z3.851
X130.07 Y-25.888 Z3.987
X130.046 Y-25.886 Z4.128
X130.038 Y-25.885 Z4.27
G0 Z62
M9
M30
%
