%
(1001)
(Z0 stock top)
(T1  D=3.2 CR=0 - ZMIN=-5 - flat end mill)
G90 G94
G17
G21

(2D Contour6)
M9
T1 M6
S10000 M3
G54
M9
G0 X65.6 Y-4.064
Z15
Z5
G1 Z2.82 F850
G19 G2 Y-4.373 Z2.5 J-0.32 F283.3
G1 Y-103.4 Z-0.958
X66.4 Z-0.986
Y-103 Z-1
Y-1.6 F850
X65.6
Y-103.4
X66.4
Y-103
Y-74.364 Z-2 F283.3
Y-1.6 F850
X65.6
Y-103.4
X66.4
Y-74.364
Y-45.727 Z-3 F283.3
Y-1.6 F850
X65.6
Y-103.4
X66.4
Y-74.364
Y-45.727
Y-17.091 Z-4 F283.3
Y-1.6 F850
X65.6
Y-103.4
X66.4
Y-45.727
Y-17.091
Y-1.6 Z-4.541 F283.3
X65.6 Z-4.569
Y-13.945 Z-5
Y-103.4 F850
X66.4
Y-17.091
Y-1.6
X65.6
Y-13.945
G17 G3 X65.604 Y-13.995 Z-4.996 I0.32
X65.615 Y-14.042 Z-4.984 I0.316 J0.05
X65.632 Y-14.085 Z-4.965 I0.305 J0.097
X65.654 Y-14.122 Z-4.939 I0.288 J0.14
X65.677 Y-14.153 Z-4.906 I0.266 J0.177
X65.699 Y-14.177 Z-4.868 I0.243 J0.208
X65.719 Y-14.194 Z-4.825 I0.221 J0.232
X65.734 Y-14.206 Z-4.779 I0.201 J0.249
X65.744 Y-14.212 Z-4.73 I0.186 J0.26
G1 X65.747 Y-14.214 Z-4.68
G0 Z15

(2D Contour6 2)
M9
X57.6 Y-7.392
Z15
Z5
G1 Z2.82 F850
G19 G2 Y-7.701 Z2.5 J-0.32 F283.3
G1 Y-17.454 Z2.159
X58.08 Y-18.203 Z2.128
G17 G2 X58.109 Y-18.25 Z2.126 I-1.347 J-0.864
G1 X58.4 Y-18.74 Z2.107
Y-1.6 Z1.508
X57.6 Z1.48
Y-17.454 Z0.926
X58.08 Y-18.203 Z0.895
G2 X58.109 Y-18.25 Z0.893 I-1.347 J-0.864
G1 X58.4 Y-18.74 Z0.873
Y-1.6 Z0.275
X57.6 Z0.247
Y-17.454 Z-0.307
X58.08 Y-18.203 Z-0.338
G2 X58.109 Y-18.25 Z-0.34 I-1.347 J-0.864
G1 X58.4 Y-18.74 Z-0.36
Y-1.6 Z-0.958
X57.6 Z-0.986
Y-2 Z-1
Y-17.454 F850
X58.08 Y-18.203
G2 X58.109 Y-18.25 I-1.347 J-0.864
G1 X58.4 Y-18.74
Y-1.6
X57.6
Y-2
Y-17.454 Z-1.54 F283.3
X58.08 Y-18.203 Z-1.571
G2 X58.109 Y-18.25 Z-1.573 I-1.347 J-0.864
G1 X58.4 Y-18.74 Z-1.593
Y-7.073 Z-2
Y-1.6 F850
X57.6
Y-17.454
X58.08 Y-18.203
G2 X58.109 Y-18.25 I-1.347 J-0.864
G1 X58.4 Y-18.74
Y-7.073
Y-1.6 Z-2.191 F283.3
X57.6 Z-2.219
Y-17.454 Z-2.773
X58.08 Y-18.203 Z-2.804
G2 X58.109 Y-18.25 Z-2.806 I-1.347 J-0.864
G1 X58.4 Y-18.74 Z-2.826
Y-13.746 Z-3
Y-7.073 F850
Y-1.6
X57.6
Y-17.454
X58.08 Y-18.203
G2 X58.109 Y-18.25 I-1.347 J-0.864
G1 X58.4 Y-18.74
Y-13.746
Y-1.6 Z-3.424 F283.3
X57.6 Z-3.452
Y-17.29 Z-4
Y-17.454 F850
X58.08 Y-18.203
G2 X58.109 Y-18.25 I-1.347 J-0.864
G1 X58.4 Y-18.74
Y-1.6
X57.6
Y-17.29
Y-17.454 Z-4.006 F283.3
X58.08 Y-18.203 Z-4.037
G2 X58.109 Y-18.25 Z-4.039 I-1.347 J-0.864
G1 X58.4 Y-18.74 Z-4.059
Y-1.6 Z-4.657
X57.6 Z-4.685
Y-10.617 Z-5
Y-17.29 F850
Y-17.454
X58.08 Y-18.203
G2 X58.109 Y-18.25 I-1.347 J-0.864
G1 X58.4 Y-18.74
Y-1.6
X57.6
Y-10.617
G3 X57.604 Y-10.667 Z-4.996 I0.32
X57.615 Y-10.714 Z-4.984 I0.316 J0.05
X57.632 Y-10.758 Z-4.965 I0.305 J0.097
X57.654 Y-10.795 Z-4.939 I0.288 J0.14
X57.677 Y-10.825 Z-4.906 I0.266 J0.177
X57.699 Y-10.849 Z-4.868 I0.243 J0.208
X57.719 Y-10.866 Z-4.825 I0.221 J0.232
X57.734 Y-10.878 Z-4.779 I0.201 J0.249
X57.744 Y-10.884 Z-4.73 I0.186 J0.26
G1 X57.747 Y-10.886 Z-4.68
G0 Z15

(2D Contour6 3)
M9
X57.6 Y-92.821
Z15
Z5
G1 Z2.82 F850
G19 G2 Y-93.13 Z2.5 J-0.32 F283.3
G1 Y-103.4 Z2.141
X58.4 Z2.113
Y-86.26 Z1.515
X58.109 Y-86.75 Z1.495
G17 G2 X58.08 Y-86.797 Z1.493 I-1.376 J0.816
G1 X57.6 Y-87.546 Z1.462
Y-103.4 Z0.908
X58.4 Z0.88
Y-86.26 Z0.282
X58.109 Y-86.75 Z0.262
G2 X58.08 Y-86.797 Z0.26 I-1.376 J0.816
G1 X57.6 Y-87.546 Z0.229
Y-103.4 Z-0.325
X58.4 Z-0.353
Y-86.26 Z-0.951
X58.109 Y-86.75 Z-0.971
G2 X58.08 Y-86.797 Z-0.973 I-1.376 J0.816
G1 X57.663 Y-87.447 Z-1
X57.6 Y-87.546 F850
Y-103.4
X58.4
Y-86.26
X58.109 Y-86.75
G2 X58.08 Y-86.797 I-1.376 J0.816
G1 X57.663 Y-87.447
X57.6 Y-87.546 Z-1.004 F283.3
Y-103.4 Z-1.558
X58.4 Z-1.586
Y-91.535 Z-2
Y-86.26 F850
X58.109 Y-86.75
G2 X58.08 Y-86.797 I-1.376 J0.816
G1 X57.663 Y-87.447
X57.6 Y-87.546
Y-103.4
X58.4
Y-91.535
Y-86.26 Z-2.184 F283.3
X58.109 Y-86.75 Z-2.204
G2 X58.08 Y-86.797 Z-2.206 I-1.376 J0.816
G1 X57.6 Y-87.546 Z-2.237
Y-103.4 Z-2.791
X58.4 Z-2.819
Y-98.208 Z-3
Y-91.535 F850
Y-86.26
X58.109 Y-86.75
G2 X58.08 Y-86.797 I-1.376 J0.816
G1 X57.6 Y-87.546
Y-103.4
X58.4
Y-98.208
Y-86.26 Z-3.417 F283.3
X58.109 Y-86.75 Z-3.437
G2 X58.08 Y-86.797 Z-3.439 I-1.376 J0.816
G1 X57.6 Y-87.546 Z-3.47
Y-102.719 Z-4
Y-103.4 F850
X58.4
Y-86.26
X58.109 Y-86.75
G2 X58.08 Y-86.797 I-1.376 J0.816
G1 X57.6 Y-87.546
Y-102.719
Y-103.4 Z-4.024 F283.3
X58.4 Z-4.052
Y-86.26 Z-4.65
X58.109 Y-86.75 Z-4.67
G2 X58.08 Y-86.797 Z-4.672 I-1.376 J0.816
G1 X57.6 Y-87.546 Z-4.703
Y-96.046 Z-5
Y-102.719 F850
Y-103.4
X58.4
Y-86.26
X58.109 Y-86.75
G2 X58.08 Y-86.797 I-1.376 J0.816
G1 X57.6 Y-87.546
Y-96.046
G3 X57.604 Y-96.096 Z-4.996 I0.32
X57.615 Y-96.143 Z-4.984 I0.316 J0.05
X57.632 Y-96.186 Z-4.965 I0.305 J0.097
X57.654 Y-96.223 Z-4.939 I0.288 J0.14
X57.677 Y-96.254 Z-4.906 I0.266 J0.177
X57.699 Y-96.277 Z-4.868 I0.243 J0.208
X57.719 Y-96.295 Z-4.825 I0.221 J0.232
X57.734 Y-96.306 Z-4.779 I0.201 J0.249
X57.744 Y-96.313 Z-4.73 I0.186 J0.26
G1 X57.747 Y-96.315 Z-4.68
G0 Z15

(2D Contour6 4)
M9
X49.6 Y-4.232
Z15
Z5
G1 Z2.82 F850
G19 G2 Y-4.541 Z2.5 J-0.32 F283.3
G1 Y-8.993 Z2.345
X49.689 Y-9.05 Z2.341
G17 G2 X49.754 Y-9.095 Z2.338 I-0.866 J-1.346
G1 X50.4 Y-9.556 Z2.31
Y-1.6 Z2.033
X49.6 Z2.005
Y-8.993 Z1.746
X49.689 Y-9.05 Z1.743
G2 X49.754 Y-9.095 Z1.74 I-0.866 J-1.346
G1 X50.4 Y-9.556 Z1.712
Y-1.6 Z1.434
X49.6 Z1.406
Y-8.993 Z1.148
X49.689 Y-9.05 Z1.145
G2 X49.754 Y-9.095 Z1.142 I-0.866 J-1.346
G1 X50.4 Y-9.556 Z1.114
Y-1.6 Z0.836
X49.6 Z0.808
Y-8.993 Z0.55
X49.689 Y-9.05 Z0.546
G2 X49.754 Y-9.095 Z0.544 I-0.866 J-1.346
G1 X50.4 Y-9.556 Z0.516
Y-1.6 Z0.238
X49.6 Z0.21
Y-8.993 Z-0.048
X49.689 Y-9.05 Z-0.052
G2 X49.754 Y-9.095 Z-0.054 I-0.866 J-1.346
G1 X50.4 Y-9.556 Z-0.082
Y-1.6 Z-0.36
X49.6 Z-0.388
Y-8.993 Z-0.646
X49.689 Y-9.05 Z-0.65
G2 X49.754 Y-9.095 Z-0.653 I-0.866 J-1.346
G1 X50.4 Y-9.556 Z-0.68
Y-1.6 Z-0.958
X49.6 Z-0.986
Y-2 Z-1
Y-8.993 F850
X49.689 Y-9.05
G2 X49.754 Y-9.095 I-0.866 J-1.346
G1 X50.4 Y-9.556
Y-1.6
X49.6
Y-2
Y-8.993 Z-1.244 F283.3
X49.689 Y-9.05 Z-1.248
G2 X49.754 Y-9.095 Z-1.251 I-0.866 J-1.346
G1 X50.4 Y-9.556 Z-1.278
Y-1.6 Z-1.556
X49.6 Z-1.584
Y-8.993 Z-1.842
X49.689 Y-9.05 Z-1.846
G2 X49.754 Y-9.095 Z-1.849 I-0.866 J-1.346
G1 X50.4 Y-9.556 Z-1.876
Y-6.02 Z-2
Y-1.6 F850
X49.6
Y-8.993
X49.689 Y-9.05
G2 X49.754 Y-9.095 I-0.866 J-1.346
G1 X50.4 Y-9.556
Y-6.02
Y-1.6 Z-2.154 F283.3
X49.6 Z-2.182
Y-8.993 Z-2.44
X49.689 Y-9.05 Z-2.444
G2 X49.754 Y-9.095 Z-2.447 I-0.866 J-1.346
G1 X50.4 Y-9.556 Z-2.475
Y-1.6 Z-2.752
X49.6 Z-2.78
Y-7.889 Z-3
Y-8.993 F850
X49.689 Y-9.05
G2 X49.754 Y-9.095 I-0.866 J-1.346
G1 X50.4 Y-9.556
Y-1.6
X49.6
Y-7.889
Y-8.993 Z-3.039 F283.3
X49.689 Y-9.05 Z-3.042
G2 X49.754 Y-9.095 Z-3.045 I-0.866 J-1.346
G1 X50.4 Y-9.556 Z-3.073
Y-1.6 Z-3.351
X49.6 Z-3.379
Y-8.993 Z-3.637
X49.689 Y-9.05 Z-3.64
G2 X49.754 Y-9.095 Z-3.643 I-0.866 J-1.346
G1 X50.4 Y-9.556 Z-3.671
Y-1.6 Z-3.949
X49.6 Z-3.977
Y-2.269 Z-4
Y-7.889 F850
Y-8.993
X49.689 Y-9.05
G2 X49.754 Y-9.095 I-0.866 J-1.346
G1 X50.4 Y-9.556
Y-1.6
X49.6
Y-2.269
Y-8.993 Z-4.235 F283.3
X49.689 Y-9.05 Z-4.239
G2 X49.754 Y-9.095 Z-4.241 I-0.866 J-1.346
G1 X50.4 Y-9.556 Z-4.269
Y-1.6 Z-4.547
X49.6 Z-4.575
Y-8.993 Z-4.833
X49.689 Y-9.05 Z-4.837
G2 X49.754 Y-9.095 Z-4.839 I-0.866 J-1.346
G1 X50.4 Y-9.556 Z-4.867
Y-5.751 Z-5
Y-1.6 F850
X49.6
Y-8.993
X49.689 Y-9.05
G2 X49.754 Y-9.095 I-0.866 J-1.346
G1 X50.4 Y-9.556
Y-5.751
G3 X50.396 Y-5.701 Z-4.996 I-0.32
X50.385 Y-5.654 Z-4.984 I-0.316 J-0.05
X50.368 Y-5.611 Z-4.965 I-0.305 J-0.097
X50.346 Y-5.573 Z-4.939 I-0.288 J-0.14
X50.323 Y-5.543 Z-4.906 I-0.266 J-0.177
X50.301 Y-5.519 Z-4.868 I-0.243 J-0.208
X50.281 Y-5.502 Z-4.825 I-0.221 J-0.232
X50.266 Y-5.49 Z-4.779 I-0.201 J-0.249
X50.256 Y-5.484 Z-4.73 I-0.186 J-0.26
G1 X50.253 Y-5.482 Z-4.68
G0 Z15

(2D Contour6 5)
M9
X50.4 Y-102.368
Z15
Z5
G1 Z2.82 F850
G19 G3 Y-102.059 Z2.5 J0.32 F283.3
G1 Y-95.444 Z2.269
X49.754 Y-95.905 Z2.241
G17 G2 X49.689 Y-95.95 Z2.239 I-0.931 J1.301
G1 X49.6 Y-96.007 Z2.235
Y-103.4 Z1.977
X50.4 Z1.949
Y-95.444 Z1.671
X49.754 Y-95.905 Z1.643
G2 X49.689 Y-95.95 Z1.64 I-0.931 J1.301
G1 X49.6 Y-96.007 Z1.637
Y-103.4 Z1.379
X50.4 Z1.351
Y-95.444 Z1.073
X49.754 Y-95.905 Z1.045
G2 X49.689 Y-95.95 Z1.042 I-0.931 J1.301
G1 X49.6 Y-96.007 Z1.039
Y-103.4 Z0.78
X50.4 Z0.752
Y-95.444 Z0.475
X49.754 Y-95.905 Z0.447
G2 X49.689 Y-95.95 Z0.444 I-0.931 J1.301
G1 X49.6 Y-96.007 Z0.44
Y-103.4 Z0.182
X50.4 Z0.154
Y-95.444 Z-0.124
X49.754 Y-95.905 Z-0.151
G2 X49.689 Y-95.95 Z-0.154 I-0.931 J1.301
G1 X49.6 Y-96.007 Z-0.158
Y-103.4 Z-0.416
X50.4 Z-0.444
Y-95.444 Z-0.722
X49.754 Y-95.905 Z-0.749
G2 X49.689 Y-95.95 Z-0.752 I-0.931 J1.301
G1 X49.6 Y-96.007 Z-0.756
Y-103 Z-1
Y-103.4 F850
X50.4
Y-95.444
X49.754 Y-95.905
G2 X49.689 Y-95.95 I-0.931 J1.301
G1 X49.6 Y-96.007
Y-103
Y-103.4 Z-1.014 F283.3
X50.4 Z-1.042
Y-95.444 Z-1.32
X49.754 Y-95.905 Z-1.347
G2 X49.689 Y-95.95 Z-1.35 I-0.931 J1.301
G1 X49.6 Y-96.007 Z-1.354
Y-103.4 Z-1.612
X50.4 Z-1.64
Y-95.444 Z-1.918
X49.754 Y-95.905 Z-1.946
G2 X49.689 Y-95.95 Z-1.948 I-0.931 J1.301
G1 X49.6 Y-96.007 Z-1.952
Y-97.38 Z-2
Y-103 F850
Y-103.4
X50.4
Y-95.444
X49.754 Y-95.905
G2 X49.689 Y-95.95 I-0.931 J1.301
G1 X49.6 Y-96.007
Y-97.38
Y-103.4 Z-2.21 F283.3
X50.4 Z-2.238
Y-95.444 Z-2.516
X49.754 Y-95.905 Z-2.544
G2 X49.689 Y-95.95 Z-2.546 I-0.931 J1.301
G1 X49.6 Y-96.007 Z-2.55
Y-103.4 Z-2.808
X50.4 Z-2.836
Y-98.711 Z-3
Y-95.444 F850
X49.754 Y-95.905
G2 X49.689 Y-95.95 I-0.931 J1.301
G1 X49.6 Y-96.007
Y-103.4
X50.4
Y-98.711
Y-95.444 Z-3.114 F283.3
X49.754 Y-95.905 Z-3.142
G2 X49.689 Y-95.95 Z-3.145 I-0.931 J1.301
G1 X49.6 Y-96.007 Z-3.148
Y-103.4 Z-3.406
X50.4 Z-3.434
Y-95.444 Z-3.712
X49.754 Y-95.905 Z-3.74
G2 X49.689 Y-95.95 Z-3.743 I-0.931 J1.301
G1 X49.6 Y-96.007 Z-3.746
Y-103.269 Z-4
Y-103.4 F850
X50.4
Y-98.711
Y-95.444
X49.754 Y-95.905
G2 X49.689 Y-95.95 I-0.931 J1.301
G1 X49.6 Y-96.007
Y-103.269
Y-103.4 Z-4.005 F283.3
X50.4 Z-4.033
Y-95.444 Z-4.31
X49.754 Y-95.905 Z-4.338
G2 X49.689 Y-95.95 Z-4.341 I-0.931 J1.301
G1 X49.6 Y-96.007 Z-4.345
Y-103.4 Z-4.603
X50.4 Z-4.631
Y-95.444 Z-4.908
X49.754 Y-95.905 Z-4.936
G2 X49.689 Y-95.95 Z-4.939 I-0.931 J1.301
G1 X49.6 Y-96.007 Z-4.943
Y-97.649 Z-5
Y-103.269 F850
Y-103.4
X50.4
Y-95.444
X49.754 Y-95.905
G2 X49.689 Y-95.95 I-0.931 J1.301
G1 X49.6 Y-96.007
Y-97.649
G3 X49.604 Y-97.699 Z-4.996 I0.32
X49.615 Y-97.746 Z-4.984 I0.316 J0.05
X49.632 Y-97.789 Z-4.965 I0.305 J0.097
X49.654 Y-97.827 Z-4.939 I0.288 J0.14
X49.677 Y-97.857 Z-4.906 I0.266 J0.177
X49.699 Y-97.881 Z-4.868 I0.243 J0.208
X49.719 Y-97.898 Z-4.825 I0.221 J0.232
X49.734 Y-97.91 Z-4.779 I0.201 J0.249
X49.744 Y-97.916 Z-4.73 I0.186 J0.26
G1 X49.747 Y-97.918 Z-4.68
G0 Z15

(2D Contour6 6)
M9
X42.4 Y-2.907
Z15
Z5
G1 Z2.82 F850
G19 G3 Y-2.598 Z2.5 J0.32 F283.3
G1 Y-1.6 Z2.465
X41.6 Z2.437
Y-5.992 Z2.284
X42.179 Y-6.055 Z2.263
G17 G2 X42.292 Y-6.071 Z2.26 I-0.173 J-1.591
G1 X42.4 Y-6.09 Z2.256
Y-1.6 Z2.099
X41.6 Z2.071
Y-5.992 Z1.918
X42.179 Y-6.055 Z1.897
G2 X42.292 Y-6.071 Z1.893 I-0.173 J-1.591
G1 X42.4 Y-6.09 Z1.889
Y-1.6 Z1.733
X41.6 Z1.705
Y-5.992 Z1.551
X42.179 Y-6.055 Z1.531
G2 X42.292 Y-6.071 Z1.527 I-0.173 J-1.591
G1 X42.4 Y-6.09 Z1.523
Y-1.6 Z1.366
X41.6 Z1.338
Y-5.992 Z1.185
X42.179 Y-6.055 Z1.165
G2 X42.292 Y-6.071 Z1.161 I-0.173 J-1.591
G1 X42.4 Y-6.09 Z1.157
Y-1.6 Z1
X41.6 Z0.972
Y-5.992 Z0.819
X42.179 Y-6.055 Z0.798
G2 X42.292 Y-6.071 Z0.794 I-0.173 J-1.591
G1 X42.4 Y-6.09 Z0.791
Y-1.6 Z0.634
X41.6 Z0.606
Y-5.992 Z0.453
X42.179 Y-6.055 Z0.432
G2 X42.292 Y-6.071 Z0.428 I-0.173 J-1.591
G1 X42.4 Y-6.09 Z0.424
Y-1.6 Z0.268
X41.6 Z0.24
Y-5.992 Z0.086
X42.179 Y-6.055 Z0.066
G2 X42.292 Y-6.071 Z0.062 I-0.173 J-1.591
G1 X42.4 Y-6.09 Z0.058
Y-1.6 Z-0.099
X41.6 Z-0.127
Y-5.992 Z-0.28
X42.179 Y-6.055 Z-0.3
G2 X42.292 Y-6.071 Z-0.304 I-0.173 J-1.591
G1 X42.4 Y-6.09 Z-0.308
Y-1.6 Z-0.465
X41.6 Z-0.493
Y-5.992 Z-0.646
X42.179 Y-6.055 Z-0.667
G2 X42.292 Y-6.071 Z-0.671 I-0.173 J-1.591
G1 X42.4 Y-6.09 Z-0.674
Y-1.6 Z-0.831
X41.6 Z-0.859
Y-5.633 Z-1
Y-5.992 F850
X42.179 Y-6.055
G2 X42.292 Y-6.071 I-0.173 J-1.591
G1 X42.4 Y-6.09
Y-1.6
X41.6
Y-5.633
Y-5.992 Z-1.013 F283.3
X42.179 Y-6.055 Z-1.033
G2 X42.292 Y-6.071 Z-1.037 I-0.173 J-1.591
G1 X42.4 Y-6.09 Z-1.041
Y-1.6 Z-1.198
X41.6 Z-1.225
Y-5.992 Z-1.379
X42.179 Y-6.055 Z-1.399
G2 X42.292 Y-6.071 Z-1.403 I-0.173 J-1.591
G1 X42.4 Y-6.09 Z-1.407
Y-1.6 Z-1.564
X41.6 Z-1.592
Y-5.992 Z-1.745
X42.179 Y-6.055 Z-1.765
G2 X42.292 Y-6.071 Z-1.769 I-0.173 J-1.591
G1 X42.4 Y-6.09 Z-1.773
Y-1.6 Z-1.93
X41.6 Z-1.958
Y-2.804 Z-2
Y-5.633 F850
Y-5.992
X42.179 Y-6.055
G2 X42.292 Y-6.071 I-0.173 J-1.591
G1 X42.4 Y-6.09
Y-1.6
X41.6
Y-2.804
Y-5.992 Z-2.111 F283.3
X42.179 Y-6.055 Z-2.132
G2 X42.292 Y-6.071 Z-2.136 I-0.173 J-1.591
G1 X42.4 Y-6.09 Z-2.139
Y-1.6 Z-2.296
X41.6 Z-2.324
Y-5.992 Z-2.478
X42.179 Y-6.055 Z-2.498
G2 X42.292 Y-6.071 Z-2.502 I-0.173 J-1.591
G1 X42.4 Y-6.09 Z-2.506
Y-1.6 Z-2.663
X41.6 Z-2.69
Y-5.992 Z-2.844
X42.179 Y-6.055 Z-2.864
G2 X42.292 Y-6.071 Z-2.868 I-0.173 J-1.591
G1 X42.4 Y-6.09 Z-2.872
Y-2.425 Z-3
Y-1.6 F850
X41.6
Y-5.992
X42.179 Y-6.055
G2 X42.292 Y-6.071 I-0.173 J-1.591
G1 X42.4 Y-6.09
Y-2.425
Y-1.6 Z-3.029 F283.3
X41.6 Z-3.057
Y-5.992 Z-3.21
X42.179 Y-6.055 Z-3.23
G2 X42.292 Y-6.071 Z-3.234 I-0.173 J-1.591
G1 X42.4 Y-6.09 Z-3.238
Y-1.6 Z-3.395
X41.6 Z-3.423
Y-5.992 Z-3.576
X42.179 Y-6.055 Z-3.597
G2 X42.292 Y-6.071 Z-3.601 I-0.173 J-1.591
G1 X42.4 Y-6.09 Z-3.605
Y-1.6 Z-3.761
X41.6 Z-3.789
Y-5.992 Z-3.943
X42.179 Y-6.055 Z-3.963
G2 X42.292 Y-6.071 Z-3.967 I-0.173 J-1.591
G1 X42.4 Y-6.09 Z-3.971
Y-5.254 Z-4
Y-2.425 F850
Y-1.6
X41.6
Y-5.992
X42.179 Y-6.055
G2 X42.292 Y-6.071 I-0.173 J-1.591
G1 X42.4 Y-6.09
Y-5.254
Y-1.6 Z-4.128 F283.3
X41.6 Z-4.156
Y-5.992 Z-4.309
X42.179 Y-6.055 Z-4.329
G2 X42.292 Y-6.071 Z-4.333 I-0.173 J-1.591
G1 X42.4 Y-6.09 Z-4.337
Y-1.6 Z-4.494
X41.6 Z-4.522
Y-5.992 Z-4.675
X42.179 Y-6.055 Z-4.696
G2 X42.292 Y-6.071 Z-4.7 I-0.173 J-1.591
G1 X42.4 Y-6.09 Z-4.703
Y-1.6 Z-4.86
X41.6 Z-4.888
Y-4.805 Z-5
Y-5.992 F850
X42.179 Y-6.055
G2 X42.292 Y-6.071 I-0.173 J-1.591
G1 X42.4 Y-6.09
Y-1.6
X41.6
Y-4.805
G3 X41.604 Y-4.855 Z-4.996 I0.32
X41.615 Y-4.902 Z-4.984 I0.316 J0.05
X41.632 Y-4.945 Z-4.965 I0.305 J0.097
X41.654 Y-4.982 Z-4.939 I0.288 J0.14
X41.677 Y-5.013 Z-4.906 I0.266 J0.177
X41.699 Y-5.037 Z-4.868 I0.243 J0.208
X41.719 Y-5.054 Z-4.825 I0.221 J0.232
X41.734 Y-5.066 Z-4.779 I0.201 J0.249
X41.744 Y-5.072 Z-4.73 I0.186 J0.26
G1 X41.747 Y-5.074 Z-4.68
G0 Z15

(2D Contour6 7)
M9
X42.259 Y-99.902
Z15
Z5
G1 Z2.82 F850
Y-99.896 Z2.758
X42.257 Y-99.878 Z2.698
X42.254 Y-99.849 Z2.642
X42.249 Y-99.809 Z2.594
X42.244 Y-99.761 Z2.554
X42.238 Y-99.706 Z2.524
X42.232 Y-99.646 Z2.506
X42.225 Y-99.584 Z2.5
X42.19 Y-99.266
G3 X41.838 Y-98.983 I-0.318 J-0.035
G1 X41.6 Y-99.008 Z2.492 F283.3
Y-103.4 Z2.338
X42.4 Z2.31
Y-98.91 Z2.154
X42.292 Y-98.929 Z2.15
G2 X42.179 Y-98.945 Z2.146 I-0.285 J1.574
G1 X41.6 Y-99.008 Z2.125
Y-103.4 Z1.972
X42.4 Z1.944
Y-98.91 Z1.787
X42.292 Y-98.929 Z1.783
G2 X42.179 Y-98.945 Z1.779 I-0.285 J1.574
G1 X41.6 Y-99.008 Z1.759
Y-103.4 Z1.606
X42.4 Z1.578
Y-98.91 Z1.421
X42.292 Y-98.929 Z1.417
G2 X42.179 Y-98.945 Z1.413 I-0.285 J1.574
G1 X41.6 Y-99.008 Z1.393
Y-103.4 Z1.239
X42.4 Z1.212
Y-98.91 Z1.055
X42.292 Y-98.929 Z1.051
G2 X42.179 Y-98.945 Z1.047 I-0.285 J1.574
G1 X41.6 Y-99.008 Z1.027
Y-103.4 Z0.873
X42.4 Z0.845
Y-98.91 Z0.688
X42.292 Y-98.929 Z0.685
G2 X42.179 Y-98.945 Z0.681 I-0.285 J1.574
G1 X41.6 Y-99.008 Z0.66
Y-103.4 Z0.507
X42.4 Z0.479
Y-98.91 Z0.322
X42.292 Y-98.929 Z0.318
G2 X42.179 Y-98.945 Z0.314 I-0.285 J1.574
G1 X41.6 Y-99.008 Z0.294
Y-103.4 Z0.141
X42.4 Z0.113
Y-98.91 Z-0.044
X42.292 Y-98.929 Z-0.048
G2 X42.179 Y-98.945 Z-0.052 I-0.285 J1.574
G1 X41.6 Y-99.008 Z-0.072
Y-103.4 Z-0.226
X42.4 Z-0.254
Y-98.91 Z-0.41
X42.292 Y-98.929 Z-0.414
G2 X42.179 Y-98.945 Z-0.418 I-0.285 J1.574
G1 X41.6 Y-99.008 Z-0.438
Y-103.4 Z-0.592
X42.4 Z-0.62
Y-98.91 Z-0.777
X42.292 Y-98.929 Z-0.78
G2 X42.179 Y-98.945 Z-0.784 I-0.285 J1.574
G1 X41.6 Y-99.008 Z-0.805
Y-103.4 Z-0.958
X42.4 Z-0.986
Y-103 Z-1
Y-98.91 F850
X42.292 Y-98.929
G2 X42.179 Y-98.945 I-0.285 J1.574
G1 X41.6 Y-99.008
Y-103.4
X42.4
Y-103
Y-98.91 Z-1.143 F283.3
X42.292 Y-98.929 Z-1.147
G2 X42.179 Y-98.945 Z-1.151 I-0.285 J1.574
G1 X41.6 Y-99.008 Z-1.171
Y-103.4 Z-1.324
X42.4 Z-1.352
Y-98.91 Z-1.509
X42.292 Y-98.929 Z-1.513
G2 X42.179 Y-98.945 Z-1.517 I-0.285 J1.574
G1 X41.6 Y-99.008 Z-1.537
Y-103.4 Z-1.691
X42.4 Z-1.719
Y-98.91 Z-1.875
X42.292 Y-98.929 Z-1.879
G2 X42.179 Y-98.945 Z-1.883 I-0.285 J1.574
G1 X41.6 Y-99.008 Z-1.904
Y-101.771 Z-2
Y-103.4 F850
X42.4
Y-98.91
X42.292 Y-98.929
G2 X42.179 Y-98.945 I-0.285 J1.574
G1 X41.6 Y-99.008
Y-101.771
Y-103.4 Z-2.057 F283.3
X42.4 Z-2.085
Y-98.91 Z-2.242
X42.292 Y-98.929 Z-2.245
G2 X42.179 Y-98.945 Z-2.249 I-0.285 J1.574
G1 X41.6 Y-99.008 Z-2.27
Y-103.4 Z-2.423
X42.4 Z-2.451
Y-98.91 Z-2.608
X42.292 Y-98.929 Z-2.612
G2 X42.179 Y-98.945 Z-2.616 I-0.285 J1.574
G1 X41.6 Y-99.008 Z-2.636
Y-103.4 Z-2.789
X42.4 Z-2.817
Y-98.91 Z-2.974
X42.292 Y-98.929 Z-2.978
G2 X42.179 Y-98.945 Z-2.982 I-0.285 J1.574
G1 X41.666 Y-99.001 Z-3
X41.6 Y-99.008 F850
Y-101.771
Y-103.4
X42.4
Y-98.91
X42.292 Y-98.929
G2 X42.179 Y-98.945 I-0.285 J1.574
G1 X41.666 Y-99.001
X41.6 Y-99.008 Z-3.002 F283.3
Y-103.4 Z-3.156
X42.4 Z-3.184
Y-98.91 Z-3.34
X42.292 Y-98.929 Z-3.344
G2 X42.179 Y-98.945 Z-3.348 I-0.285 J1.574
G1 X41.6 Y-99.008 Z-3.369
Y-103.4 Z-3.522
X42.4 Z-3.55
Y-98.91 Z-3.707
X42.292 Y-98.929 Z-3.711
G2 X42.179 Y-98.945 Z-3.715 I-0.285 J1.574
G1 X41.6 Y-99.008 Z-3.735
Y-103.4 Z-3.888
X42.4 Z-3.916
Y-100.999 Z-4
Y-98.91 F850
X42.292 Y-98.929
G2 X42.179 Y-98.945 I-0.285 J1.574
G1 X41.666 Y-99.001
X41.6 Y-99.008
Y-103.4
X42.4
Y-100.999
Y-98.91 Z-4.073 F283.3
X42.292 Y-98.929 Z-4.077
G2 X42.179 Y-98.945 Z-4.081 I-0.285 J1.574
G1 X41.6 Y-99.008 Z-4.101
Y-103.4 Z-4.254
X42.4 Z-4.282
Y-98.91 Z-4.439
X42.292 Y-98.929 Z-4.443
G2 X42.179 Y-98.945 Z-4.447 I-0.285 J1.574
G1 X41.6 Y-99.008 Z-4.467
Y-103.4 Z-4.621
X42.4 Z-4.649
Y-98.91 Z-4.805
X42.292 Y-98.929 Z-4.809
G2 X42.179 Y-98.945 Z-4.813 I-0.285 J1.574
G1 X41.6 Y-99.008 Z-4.834
Y-103.4 Z-4.987
X41.972 Z-5
X42.4 F850
Y-100.999
Y-98.91
X42.292 Y-98.929
G2 X42.179 Y-98.945 I-0.285 J1.574
G1 X41.6 Y-99.008
Y-103.4
X41.972
G3 X42.292 Y-103.08 J0.32
G1 Y-102.76
G19 G3 Y-102.44 Z-4.68 K0.32
G0 Z15
G17

(2D Contour6 8)
M9
G0 X34.4 Y-6.068
Z15
Z5
G1 Z2.82 F850
G19 G3 Y-5.759 Z2.5 J0.32 F283.3
G1 Y-1.6 Z2.355
X33.6 Z2.327
Y-7.251 Z2.129
X34.382 Y-6.933 Z2.1
G17 G2 X34.4 Y-6.925 Z2.099 I0.604 J-1.482
G1 Y-1.6 Z1.913
X33.6 Z1.885
Y-7.251 Z1.688
X34.382 Y-6.933 Z1.659
G2 X34.4 Y-6.925 Z1.658 I0.604 J-1.482
G1 Y-1.6 Z1.472
X33.6 Z1.444
Y-7.251 Z1.247
X34.382 Y-6.933 Z1.217
G2 X34.4 Y-6.925 Z1.216 I0.604 J-1.482
G1 Y-1.6 Z1.031
X33.6 Z1.003
Y-7.251 Z0.805
X34.382 Y-6.933 Z0.776
G2 X34.4 Y-6.925 Z0.775 I0.604 J-1.482
G1 Y-1.6 Z0.589
X33.6 Z0.561
Y-7.251 Z0.364
X34.382 Y-6.933 Z0.334
G2 X34.4 Y-6.925 I0.604 J-1.482
G1 Y-1.6 Z0.148
X33.6 Z0.12
Y-7.251 Z-0.078
X34.382 Y-6.933 Z-0.107
G2 X34.4 Y-6.925 Z-0.108 I0.604 J-1.482
G1 Y-1.6 Z-0.294
X33.6 Z-0.322
Y-7.251 Z-0.519
X34.382 Y-6.933 Z-0.549
G2 X34.4 Y-6.925 I0.604 J-1.482
G1 Y-1.6 Z-0.735
X33.6 Z-0.763
Y-7.251 Z-0.96
X34.382 Y-6.933 Z-0.99
G2 X34.4 Y-6.925 Z-0.991 I0.604 J-1.482
G1 Y-6.656 Z-1
Y-1.6 F850
X33.6
Y-7.251
X34.382 Y-6.933
G2 X34.4 Y-6.925 I0.604 J-1.482
G1 Y-6.656
Y-1.6 Z-1.177 F283.3
X33.6 Z-1.205
Y-7.251 Z-1.402
X34.382 Y-6.933 Z-1.431
G2 X34.4 Y-6.925 Z-1.432 I0.604 J-1.482
G1 Y-1.6 Z-1.618
X33.6 Z-1.646
Y-7.251 Z-1.843
X34.382 Y-6.933 Z-1.873
G2 X34.4 Y-6.925 I0.604 J-1.482
G1 Y-3.301 Z-2
Y-1.6 F850
X33.6
Y-7.251
X34.382 Y-6.933
G2 X34.4 Y-6.925 I0.604 J-1.482
G1 Y-3.301
Y-1.6 Z-2.059 F283.3
X33.6 Z-2.087
Y-7.251 Z-2.285
X34.382 Y-6.933 Z-2.314
G2 X34.4 Y-6.925 Z-2.315 I0.604 J-1.482
G1 Y-1.6 Z-2.501
X33.6 Z-2.529
Y-7.251 Z-2.726
X34.382 Y-6.933 Z-2.756
G2 X34.4 Y-6.925 I0.604 J-1.482
G1 Y-1.6 Z-2.942
X33.6 Z-2.97
Y-2.454 Z-3
Y-7.251 F850
X34.382 Y-6.933
G2 X34.4 Y-6.925 I0.604 J-1.482
G1 Y-3.301
Y-1.6
X33.6
Y-2.454
Y-7.251 Z-3.168 F283.3
X34.382 Y-6.933 Z-3.197
G2 X34.4 Y-6.925 Z-3.198 I0.604 J-1.482
G1 Y-1.6 Z-3.384
X33.6 Z-3.412
Y-7.251 Z-3.609
X34.382 Y-6.933 Z-3.638
G2 X34.4 Y-6.925 Z-3.639 I0.604 J-1.482
G1 Y-1.6 Z-3.825
X33.6 Z-3.853
Y-5.809 Z-4
Y-7.251 F850
X34.382 Y-6.933
G2 X34.4 Y-6.925 I0.604 J-1.482
G1 Y-1.6
X33.6
Y-5.809
Y-7.251 Z-4.05 F283.3
X34.382 Y-6.933 Z-4.08
G2 X34.4 Y-6.925 Z-4.081 I0.604 J-1.482
G1 Y-1.6 Z-4.267
X33.6 Z-4.294
Y-7.251 Z-4.492
X34.382 Y-6.933 Z-4.521
G2 X34.4 Y-6.925 Z-4.522 I0.604 J-1.482
G1 Y-1.6 Z-4.708
X33.6 Z-4.736
Y-7.251 Z-4.933
X34.382 Y-6.933 Z-4.963
G2 X34.4 Y-6.925 I0.604 J-1.482
G1 Y-5.876 Z-5
Y-1.6 F850
X33.6
Y-5.809
Y-7.251
X34.382 Y-6.933
G2 X34.4 Y-6.925 I0.604 J-1.482
G1 Y-5.876
G3 X34.396 Y-5.827 Z-4.996 I-0.32
X34.385 Y-5.779 Z-4.984 I-0.316 J-0.05
X34.368 Y-5.736 Z-4.965 I-0.305 J-0.097
X34.346 Y-5.699 Z-4.939 I-0.288 J-0.14
X34.323 Y-5.669 Z-4.906 I-0.266 J-0.177
X34.301 Y-5.645 Z-4.868 I-0.243 J-0.208
X34.281 Y-5.628 Z-4.825 I-0.221 J-0.232
X34.266 Y-5.616 Z-4.779 I-0.201 J-0.249
X34.256 Y-5.609 Z-4.73 I-0.186 J-0.26
G1 X34.253 Y-5.607 Z-4.68
G0 Z15

(2D Contour6 9)
M9
X33.778 Y-102.44
Z15
Z5
G1 Z2.82 F850
G19 G2 Y-102.76 Z2.5 J-0.32
G1 Y-103.08
G17 G3 X34.098 Y-103.4 I0.32
G1 X34.4 Z2.489 F283.3
Y-98.075 Z2.303
G2 X34.382 Y-98.067 I0.585 J1.489
G1 X33.6 Y-97.749 Z2.273
Y-103.4 Z2.076
X34.4 Z2.048
Y-98.075 Z1.862
G2 X34.382 Y-98.067 Z1.861 I0.585 J1.489
G1 X33.6 Y-97.749 Z1.832
Y-103.4 Z1.635
X34.4 Z1.607
Y-98.075 Z1.421
G2 X34.382 Y-98.067 Z1.42 I0.585 J1.489
G1 X33.6 Y-97.749 Z1.39
Y-103.4 Z1.193
X34.4 Z1.165
Y-98.075 Z0.979
G2 X34.382 Y-98.067 I0.585 J1.489
G1 X33.6 Y-97.749 Z0.949
Y-103.4 Z0.752
X34.4 Z0.724
Y-98.075 Z0.538
G2 X34.382 Y-98.067 Z0.537 I0.585 J1.489
G1 X33.6 Y-97.749 Z0.508
Y-103.4 Z0.31
X34.4 Z0.282
Y-98.075 Z0.096
G2 X34.382 Y-98.067 I0.585 J1.489
G1 X33.6 Y-97.749 Z0.066
Y-103.4 Z-0.131
X34.4 Z-0.159
Y-98.075 Z-0.345
G2 X34.382 Y-98.067 Z-0.346 I0.585 J1.489
G1 X33.6 Y-97.749 Z-0.375
Y-103.4 Z-0.573
X34.4 Z-0.6
Y-98.075 Z-0.786
G2 X34.382 Y-98.067 Z-0.787 I0.585 J1.489
G1 X33.6 Y-97.749 Z-0.817
Y-103 Z-1
Y-103.4 F850
X34.4
Y-98.075
G2 X34.382 Y-98.067 I0.585 J1.489
G1 X33.6 Y-97.749
Y-103
Y-103.4 Z-1.014 F283.3
X34.4 Z-1.042
Y-98.075 Z-1.228
G2 X34.382 Y-98.067 Z-1.229 I0.585 J1.489
G1 X33.6 Y-97.749 Z-1.258
Y-103.4 Z-1.455
X34.4 Z-1.483
Y-98.075 Z-1.669
G2 X34.382 Y-98.067 Z-1.67 I0.585 J1.489
G1 X33.6 Y-97.749 Z-1.699
Y-103.4 Z-1.897
X34.4 Z-1.925
Y-101.245 Z-2
Y-98.075 F850
G2 X34.382 Y-98.067 I0.585 J1.489
G1 X33.6 Y-97.749
Y-103
Y-103.4
X34.4
Y-101.245
Y-98.075 Z-2.111 F283.3
G2 X34.382 Y-98.067 I0.585 J1.489
G1 X33.6 Y-97.749 Z-2.141
Y-103.4 Z-2.338
X34.4 Z-2.366
Y-98.075 Z-2.552
G2 X34.382 Y-98.067 Z-2.553 I0.585 J1.489
G1 X33.6 Y-97.749 Z-2.582
Y-103.4 Z-2.78
X34.4 Z-2.808
Y-98.075 Z-2.994
G2 X34.382 Y-98.067 I0.585 J1.489
G1 X34.229 Y-98.005 Z-3
X33.6 Y-97.749 F850
Y-103.4
X34.4
Y-98.075
G2 X34.382 Y-98.067 I0.585 J1.489
G1 X34.229 Y-98.005
X33.6 Y-97.749 Z-3.024 F283.3
Y-103.4 Z-3.221
X34.4 Z-3.249
Y-98.075 Z-3.435
G2 X34.382 Y-98.067 Z-3.436 I0.585 J1.489
G1 X33.6 Y-97.749 Z-3.465
Y-103.4 Z-3.662
X34.4 Z-3.69
Y-98.075 Z-3.876
G2 X34.382 Y-98.067 Z-3.877 I0.585 J1.489
G1 X33.6 Y-97.749 Z-3.907
Y-100.425 Z-4
Y-103.4 F850
X34.4
Y-98.075
G2 X34.382 Y-98.067 I0.585 J1.489
G1 X33.6 Y-97.749
Y-100.425
Y-103.4 Z-4.104 F283.3
X34.4 Z-4.132
Y-98.075 Z-4.318
G2 X34.382 Y-98.067 I0.585 J1.489
G1 X33.6 Y-97.749 Z-4.348
Y-103.4 Z-4.545
X34.4 Z-4.573
Y-98.075 Z-4.759
G2 X34.382 Y-98.067 Z-4.76 I0.585 J1.489
G1 X33.6 Y-97.749 Z-4.789
Y-103.4 Z-4.987
X33.98 Z-5
X34.4 F850
Y-98.075
G2 X34.382 Y-98.067 I0.585 J1.489
G1 X33.6 Y-97.749
Y-103.4
X33.98
G3 X34.3 Y-103.08 J0.32
G1 Y-102.76
G19 G3 Y-102.44 Z-4.68 K0.32
G0 Z15
G17

(2D Contour6 10)
M9
G0 X26.4 Y-4.993
Z15
Z5
G1 Z2.82 F850
G19 G3 Y-4.685 Z2.5 J0.32 F283.3
G1 Y-1.6 Z2.392
X25.6 Z2.364
Y-13.236 Z1.958
X25.963 Y-12.827 Z1.939
G17 G2 X26.011 Y-12.776 Z1.936 I1.196 J-1.063
G1 X26.4 Y-12.374 Z1.917
Y-1.6 Z1.541
X25.6 Z1.513
Y-13.236 Z1.106
X25.963 Y-12.827 Z1.087
G2 X26.011 Y-12.776 Z1.085 I1.196 J-1.063
G1 X26.4 Y-12.374 Z1.065
Y-1.6 Z0.689
X25.6 Z0.661
Y-13.236 Z0.255
X25.963 Y-12.827 Z0.236
G2 X26.011 Y-12.776 Z0.233 I1.196 J-1.063
G1 X26.4 Y-12.374 Z0.214
Y-1.6 Z-0.162
X25.6 Z-0.19
Y-13.236 Z-0.597
X25.963 Y-12.827 Z-0.616
G2 X26.011 Y-12.776 Z-0.618 I1.196 J-1.063
G1 X26.4 Y-12.374 Z-0.638
Y-2 Z-1
Y-1.6 F850
X25.6
Y-13.236
X25.963 Y-12.827
G2 X26.011 Y-12.776 I1.196 J-1.063
G1 X26.4 Y-12.374
Y-2
Y-1.6 Z-1.014 F283.3
X25.6 Z-1.042
Y-13.236 Z-1.448
X25.963 Y-12.827 Z-1.467
G2 X26.011 Y-12.776 Z-1.47 I1.196 J-1.063
G1 X26.4 Y-12.374 Z-1.489
Y-1.6 Z-1.866
X25.6 Z-1.893
Y-4.651 Z-2
Y-13.236 F850
X25.963 Y-12.827
G2 X26.011 Y-12.776 I1.196 J-1.063
G1 X26.4 Y-12.374
Y-2
Y-1.6
X25.6
Y-4.651
Y-13.236 Z-2.3 F283.3
X25.963 Y-12.827 Z-2.319
G2 X26.011 Y-12.776 Z-2.321 I1.196 J-1.063
G1 X26.4 Y-12.374 Z-2.341
Y-1.6 Z-2.717
X25.6 Z-2.745
Y-8.901 Z-3
Y-13.236 F850
X25.963 Y-12.827
G2 X26.011 Y-12.776 I1.196 J-1.063
G1 X26.4 Y-12.374
Y-1.6
X25.6
Y-8.901
Y-13.236 Z-3.151 F283.3
X25.963 Y-12.827 Z-3.17
G2 X26.011 Y-12.776 Z-3.173 I1.196 J-1.063
G1 X26.4 Y-12.374 Z-3.192
Y-1.6 Z-3.569
X25.6 Z-3.597
Y-13.152 Z-4
Y-13.236 F850
X25.963 Y-12.827
G2 X26.011 Y-12.776 I1.196 J-1.063
G1 X26.4 Y-12.374
Y-1.6
X25.6
Y-8.901
Y-13.152
Y-13.236 Z-4.003 F283.3
X25.963 Y-12.827 Z-4.022
G2 X26.011 Y-12.776 Z-4.024 I1.196 J-1.063
G1 X26.4 Y-12.374 Z-4.044
Y-1.6 Z-4.42
X25.6 Z-4.448
Y-13.236 Z-4.854
X25.963 Y-12.827 Z-4.874
G2 X26.011 Y-12.776 Z-4.876 I1.196 J-1.063
G1 X26.4 Y-12.374 Z-4.896
Y-9.383 Z-5
Y-1.6 F850
X25.6
Y-13.152
Y-13.236
X25.963 Y-12.827
G2 X26.011 Y-12.776 I1.196 J-1.063
G1 X26.4 Y-12.374
Y-9.383
G3 X26.396 Y-9.333 Z-4.996 I-0.32
X26.385 Y-9.285 Z-4.984 I-0.316 J-0.05
X26.368 Y-9.242 Z-4.965 I-0.305 J-0.097
X26.346 Y-9.205 Z-4.939 I-0.288 J-0.14
X26.323 Y-9.175 Z-4.906 I-0.266 J-0.177
X26.301 Y-9.151 Z-4.868 I-0.243 J-0.208
X26.281 Y-9.134 Z-4.825 I-0.221 J-0.232
X26.266 Y-9.122 Z-4.779 I-0.201 J-0.249
X26.256 Y-9.116 Z-4.73 I-0.186 J-0.26
G1 X26.253 Y-9.114 Z-4.68
G0 Z15

(2D Contour6 11)
M9
X26.4 Y-93.42
Z15
Z5
G1 Z2.82 F850
G19 G3 Y-93.111 Z2.5 J0.32 F283.3
G1 Y-92.626 Z2.483
X26.011 Y-92.224 Z2.464
G17 G2 X25.963 Y-92.173 Z2.461 I1.148 J1.114
G1 X25.6 Y-91.764 Z2.442
Y-103.4 Z2.036
X26.4 Z2.008
Y-92.626 Z1.631
X26.011 Y-92.224 Z1.612
G2 X25.963 Y-92.173 Z1.61 I1.148 J1.114
G1 X25.6 Y-91.764 Z1.59
Y-103.4 Z1.184
X26.4 Z1.156
Y-92.626 Z0.78
X26.011 Y-92.224 Z0.76
G2 X25.963 Y-92.173 Z0.758 I1.148 J1.114
G1 X25.6 Y-91.764 Z0.739
Y-103.4 Z0.333
X26.4 Z0.305
Y-92.626 Z-0.072
X26.011 Y-92.224 Z-0.091
G2 X25.963 Y-92.173 Z-0.094 I1.148 J1.114
G1 X25.6 Y-91.764 Z-0.113
Y-103.4 Z-0.519
X26.4 Z-0.547
Y-92.626 Z-0.923
X26.011 Y-92.224 Z-0.943
G2 X25.963 Y-92.173 Z-0.945 I1.148 J1.114
G1 X25.6 Y-91.764 Z-0.964
Y-92.788 Z-1
Y-103.4 F850
X26.4
Y-92.626
X26.011 Y-92.224
G2 X25.963 Y-92.173 I1.148 J1.114
G1 X25.6 Y-91.764
Y-92.788
Y-103.4 Z-1.371 F283.3
X26.4 Z-1.399
Y-92.626 Z-1.775
X26.011 Y-92.224 Z-1.794
G2 X25.963 Y-92.173 Z-1.797 I1.148 J1.114
G1 X25.6 Y-91.764 Z-1.816
Y-97.039 Z-2
Y-103.4 F850
X26.4
Y-92.626
X26.011 Y-92.224
G2 X25.963 Y-92.173 I1.148 J1.114
G1 X25.6 Y-91.764
Y-97.039
Y-103.4 Z-2.222 F283.3
X26.4 Z-2.25
Y-92.626 Z-2.626
X26.011 Y-92.224 Z-2.646
G2 X25.963 Y-92.173 Z-2.648 I1.148 J1.114
G1 X25.6 Y-91.764 Z-2.667
Y-101.289 Z-3
Y-103.4 F850
X26.4
Y-92.626
X26.011 Y-92.224
G2 X25.963 Y-92.173 I1.148 J1.114
G1 X25.6 Y-91.764
Y-97.039
Y-101.289
Y-103.4 Z-3.074 F283.3
X26.4 Z-3.102
Y-92.626 Z-3.478
X26.011 Y-92.224 Z-3.497
G2 X25.963 Y-92.173 Z-3.5 I1.148 J1.114
G1 X25.6 Y-91.764 Z-3.519
Y-103.4 Z-3.925
X26.4 Z-3.953
Y-102.06 Z-4
Y-92.626 F850
X26.011 Y-92.224
G2 X25.963 Y-92.173 I1.148 J1.114
G1 X25.6 Y-91.764
Y-101.289
Y-103.4
X26.4
Y-102.06
Y-92.626 Z-4.329 F283.3
X26.011 Y-92.224 Z-4.349
G2 X25.963 Y-92.173 Z-4.351 I1.148 J1.114
G1 X25.6 Y-91.764 Z-4.371
Y-103.4 Z-4.777
X26.4 Z-4.805
Y-97.809 Z-5
Y-92.626 F850
X26.011 Y-92.224
G2 X25.963 Y-92.173 I1.148 J1.114
G1 X25.6 Y-91.764
Y-103.4
X26.4
Y-97.809
G3 X26.396 Y-97.76 Z-4.996 I-0.32
X26.385 Y-97.712 Z-4.984 I-0.316 J-0.05
X26.368 Y-97.669 Z-4.965 I-0.305 J-0.097
X26.346 Y-97.632 Z-4.939 I-0.288 J-0.14
X26.323 Y-97.602 Z-4.906 I-0.266 J-0.177
X26.301 Y-97.578 Z-4.868 I-0.243 J-0.208
X26.281 Y-97.561 Z-4.825 I-0.221 J-0.232
X26.266 Y-97.549 Z-4.779 I-0.201 J-0.249
X26.256 Y-97.542 Z-4.73 I-0.186 J-0.26
G1 X26.253 Y-97.54 Z-4.68
G0 Z15

(2D Contour6 12)
M9
X18.271 Y-25.514
Z15
Z5
G1 Z2.82 F850
X18.274 Y-25.507 Z2.75 F283.3
X18.283 Y-25.486 Z2.684
X18.296 Y-25.452 Z2.624
X18.314 Y-25.407 Z2.574
X18.336 Y-25.352 Z2.535
X18.36 Y-25.292 Z2.51
X18.386 Y-25.227 Z2.5
X18.4 Y-25.192 Z2.499
Y-1.6 Z1.675
X17.6 Z1.647
Y-27.266 Z0.751
X17.914 Y-26.409 Z0.719
G2 X17.931 Y-26.366 Z0.717 I1.502 J-0.551
G1 X18.4 Y-25.192 Z0.673
Y-1.6 Z-0.151
X17.6 Z-0.179
Y-25.115 Z-1
Y-27.266 F850
X17.914 Y-26.409
G2 X17.931 Y-26.366 I1.502 J-0.551
G1 X18.4 Y-25.192
Y-1.6
X17.6
Y-25.115
Y-27.266 Z-1.075 F283.3
X17.914 Y-26.409 Z-1.107
G2 X17.931 Y-26.366 Z-1.109 I1.502 J-0.551
G1 X18.4 Y-25.192 Z-1.153
Y-1.6 Z-1.977
X17.73 Z-2
X17.6 F850
Y-25.115
Y-27.266
X17.914 Y-26.409
G2 X17.931 Y-26.366 I1.502 J-0.551
G1 X18.4 Y-25.192
Y-1.6
X17.73
X17.6 Z-2.005 F283.3
Y-27.266 Z-2.901
X17.914 Y-26.409 Z-2.933
G2 X17.931 Y-26.366 Z-2.934 I1.502 J-0.551
G1 X18.4 Y-25.192 Z-2.978
Y-24.576 Z-3
Y-1.6 F850
X17.73
X17.6
Y-27.266
X17.914 Y-26.409
G2 X17.931 Y-26.366 I1.502 J-0.551
G1 X18.4 Y-25.192
Y-24.576
Y-1.6 Z-3.802 F283.3
X17.6 Z-3.83
Y-6.46 Z-4
Y-27.266 F850
X17.914 Y-26.409
G2 X17.931 Y-26.366 I1.502 J-0.551
G1 X18.4 Y-25.192
Y-1.6
X17.6
Y-6.46
Y-27.266 Z-4.727 F283.3
X17.914 Y-26.409 Z-4.758
G2 X17.931 Y-26.366 Z-4.76 I1.502 J-0.551
G1 X18.4 Y-25.192 Z-4.804
Y-19.585 Z-5
Y-1.6 F850
X17.6
Y-27.266
X17.914 Y-26.409
G2 X17.931 Y-26.366 I1.502 J-0.551
G1 X18.4 Y-25.192
Y-19.585
G3 X18.396 Y-19.535 Z-4.996 I-0.32
X18.385 Y-19.488 Z-4.984 I-0.316 J-0.05
X18.368 Y-19.445 Z-4.965 I-0.305 J-0.097
X18.346 Y-19.408 Z-4.939 I-0.288 J-0.14
X18.323 Y-19.377 Z-4.906 I-0.266 J-0.177
X18.301 Y-19.354 Z-4.868 I-0.243 J-0.208
X18.281 Y-19.336 Z-4.825 I-0.221 J-0.232
X18.266 Y-19.325 Z-4.779 I-0.201 J-0.249
X18.256 Y-19.318 Z-4.73 I-0.186 J-0.26
G1 X18.253 Y-19.316 Z-4.68
G0 Z15

(2D Contour6 13)
M9
X17.6 Y-79.615
Z15
Z5
G1 Z2.82 F850
G19 G2 Y-79.924 Z2.5 J-0.32 F283.3
G1 Y-103.4 Z1.68
X18.4 Z1.652
Y-79.808 Z0.828
X17.931 Y-78.634 Z0.784
G17 G2 X17.914 Y-78.591 Z0.783 I1.486 J0.594
G1 X17.6 Y-77.734 Z0.751
Y-103.4 Z-0.146
X18.4 Z-0.173
Y-79.808 Z-0.997
X18.371 Y-79.736 Z-1
X17.931 Y-78.634 F850
G2 X17.914 Y-78.591 I1.486 J0.594
G1 X17.6 Y-77.734
Y-103.4
X18.4
Y-79.808
X18.371 Y-79.736
X17.931 Y-78.634 Z-1.041 F283.3
G2 X17.914 Y-78.591 Z-1.043 I1.486 J0.594
G1 X17.6 Y-77.734 Z-1.075
Y-103.4 Z-1.971
X18.4 Z-1.999
Y-103.376 Z-2
Y-79.808 F850
X17.931 Y-78.634
G2 X17.914 Y-78.591 I1.486 J0.594
G1 X17.6 Y-77.734
Y-103.4
X18.4
Y-103.376
Y-79.808 Z-2.823 F283.3
X17.931 Y-78.634 Z-2.867
G2 X17.914 Y-78.591 Z-2.869 I1.486 J0.594
G1 X17.6 Y-77.734 Z-2.901
Y-80.578 Z-3
Y-103.4 F850
X18.4
Y-79.808
X17.931 Y-78.634
G2 X17.914 Y-78.591 I1.486 J0.594
G1 X17.6 Y-77.734
Y-80.578
Y-103.4 Z-3.797 F283.3
X18.4 Z-3.825
Y-98.386 Z-4
Y-79.808 F850
X17.931 Y-78.634
G2 X17.914 Y-78.591 I1.486 J0.594
G1 X17.6 Y-77.734
Y-103.4
X18.4
Y-98.386
Y-79.808 Z-4.649 F283.3
X17.931 Y-78.634 Z-4.693
G2 X17.914 Y-78.591 Z-4.695 I1.486 J0.594
G1 X17.6 Y-77.734 Z-4.726
Y-85.569 Z-5
Y-103.4 F850
X18.4
Y-79.808
X17.931 Y-78.634
G2 X17.914 Y-78.591 I1.486 J0.594
G1 X17.6 Y-77.734
Y-85.569
G3 X17.604 Y-85.619 Z-4.996 I0.32
X17.615 Y-85.666 Z-4.984 I0.316 J0.05
X17.632 Y-85.709 Z-4.965 I0.305 J0.097
X17.654 Y-85.746 Z-4.939 I0.288 J0.14
X17.677 Y-85.777 Z-4.906 I0.266 J0.177
X17.699 Y-85.8 Z-4.868 I0.243 J0.208
X17.719 Y-85.818 Z-4.825 I0.221 J0.232
X17.734 Y-85.829 Z-4.779 I0.201 J0.249
X17.744 Y-85.836 Z-4.73 I0.186 J0.26
G1 X17.747 Y-85.838 Z-4.68
G0 Z15
M9
M30
%
