%
(1001)
(Z0 stock bottom)
(T1  D=12.7 CR=0 - ZMIN=0 - flat end mill)
G90 G94
G17
G21

(2D Contour1)
M9
T1 M6
S5500 M3
G54
M8
G0 X129.517 Y-28.41
Z70
Z60
G1 Z58.77 F850
G19 G3 Y-27.14 Z57.5 J1.27
G1 Y-25.87
G17 G2 X130.787 Y-24.6 I1.27
G1 X134.15 Z57.383 F283.3
Y-87.4 Z55.19
X92.35 Z53.73
Y-66.5 Z53
Y-24.6 F850
X134.15
Y-87.4
X92.35
Y-66.5
Y-24.6 Z51.537 F283.3
X107.723 Z51
X134.15 F850
Y-87.4
X92.35
Y-24.6
X107.723
X134.15 Z50.077 F283.3
Y-55.445 Z49
Y-87.4 F850
X92.35
Y-24.6
X134.15
Y-55.445
Y-87.4 Z47.884 F283.3
X108.832 Z47
X92.35 F850
Y-24.6
X134.15
Y-87.4
X108.832
X92.35 Z46.424 F283.3
Y-46.61 Z45
Y-24.6 F850
X134.15
Y-87.4
X92.35
Y-46.61
Y-24.6 Z44.231 F283.3
X127.613 Z43
X134.15 F850
Y-87.4
X92.35
Y-24.6
X127.613
X134.15 Z42.772 F283.3
Y-75.335 Z41
Y-87.4 F850
X92.35
Y-24.6
X134.15
Y-75.335
Y-87.4 Z40.579 F283.3
X92.35 Z39.119
Y-83.992 Z39
Y-24.6 F850
X134.15
Y-87.4
X92.35
Y-83.992
Y-26.72 Z37 F283.3
Y-24.6 F850
X134.15
Y-87.4
X92.35
Y-26.72
Y-24.6 Z36.926 F283.3
X134.15 Z35.466
Y-37.953 Z35
Y-87.4 F850
X92.35
Y-24.6
X134.15
Y-37.953
Y-87.4 Z33.273 F283.3
X126.325 Z33
X92.35 F850
Y-24.6
X134.15
Y-87.4
X126.325
X92.35 Z31.814 F283.3
Y-64.102 Z31
Y-24.6 F850
X134.15
Y-87.4
X92.35
Y-64.102
Y-24.6 Z29.621 F283.3
X110.12 Z29
X134.15 F850
Y-87.4
X92.35
Y-24.6
X110.12
X134.15 Z28.161 F283.3
Y-57.843 Z27
Y-87.4 F850
X92.35
Y-24.6
X134.15
Y-57.843
Y-87.4 Z25.968 F283.3
X106.435 Z25
X92.35 F850
Y-24.6
X134.15
Y-87.4
X106.435
X92.35 Z24.508 F283.3
Y-44.212 Z23
Y-24.6 F850
X134.15
Y-87.4
X92.35
Y-44.212
Y-24.6 Z22.315 F283.3
X130.01 Z21
X134.15 F850
Y-87.4
X92.35
Y-24.6
X130.01
X134.15 Z20.855 F283.3
Y-77.733 Z19
Y-87.4 F850
X92.35
Y-24.6
X134.15
Y-77.733
Y-87.4 Z18.662 F283.3
X92.35 Z17.203
Y-81.595 Z17
Y-24.6 F850
X134.15
Y-87.4
X92.35
Y-81.595
Y-24.6 Z15.01 F283.3
X92.628 Z15
X134.15 F850
Y-87.4
X92.35
Y-24.6
X92.628
X134.15 Z13.55 F283.3
Y-40.35 Z13
Y-87.4 F850
X92.35
Y-24.6
X134.15
Y-40.35
Y-87.4 Z11.357 F283.3
X123.927 Z11
X92.35 F850
Y-24.6
X134.15
Y-87.4
X123.927
X92.35 Z9.897 F283.3
Y-61.705 Z9
Y-24.6 F850
X134.15
Y-87.4
X92.35
Y-61.705
Y-24.6 Z7.704 F283.3
X112.518 Z7
X134.15 F850
Y-87.4
X92.35
Y-24.6
X112.518
X134.15 Z6.245 F283.3
Y-60.24 Z5
Y-87.4 F850
X92.35
Y-24.6
X134.15
Y-60.24
Y-87.4 Z4.052 F283.3
X104.037 Z3
X92.35 F850
Y-24.6
X134.15
Y-87.4
X104.037
X92.35 Z2.592 F283.3
Y-41.815 Z1
Y-24.6 F850
X134.15
Y-87.4
X92.35
Y-41.815
Y-24.6 Z0.399 F283.3
X103.771 Z0
X134.15 F850
Y-87.4
X92.35
Y-24.6
X103.771
G2 X105.041 Y-25.87 J-1.27
G1 Y-27.14
G19 G2 Y-28.41 Z1.27 K1.27
G0 Z70
G17
M9
M30
%
