%
(1001)
(Z0 stock bottom)
(T1  D=12.7 CR=0 - ZMIN=3 - flat end mill)
G90 G94
G17
G21

(2D Contour1)
M9
T1 M6
S5500 M3
G54
M8
G0 X105.35 Y20.41
Z70
Z50
G1 Z48.77 F850
G19 G2 Y19.14 Z47.5 J-1.27
G1 Y17.87
G17 G2 X104.08 Y16.6 I-1.27
G1 X85 Z46.834 F283.3
G2 Y17.9 Z46.762 J0.65
G3 X91.35 Y24.25 Z46.414 J6.35
G1 Y81.75 Z44.406
G3 X85 Y88.1 Z44.058 I-6.35
G2 Y89.4 Z43.987 J0.65
G1 X113.25 Z43
X141.5 F850
G2 Y88.1 J-0.65
G3 X135.15 Y81.75 J-6.35
G1 Y24.25
G3 X141.5 Y17.9 I6.35
G2 Y16.6 J-0.65
G1 X85
G2 Y17.9 J0.65
G3 X91.35 Y24.25 J6.35
G1 Y81.75
G3 X85 Y88.1 I-6.35
G2 Y89.4 J0.65
G1 X113.25
X141.5 Z42.013 F283.3
G2 Y88.1 Z41.942 J-0.65
G3 X135.15 Y81.75 Z41.594 J-6.35
G1 Y64.744 Z41
Y24.25 F850
G3 X141.5 Y17.9 I6.35
G2 Y16.6 J-0.65
G1 X85
G2 Y17.9 J0.65
G3 X91.35 Y24.25 J6.35
G1 Y81.75
G3 X85 Y88.1 I-6.35
G2 Y89.4 J0.65
G1 X141.5
G2 Y88.1 J-0.65
G3 X135.15 Y81.75 J-6.35
G1 Y64.744
Y24.25 Z39.586 F283.3
G3 X141.5 Y17.9 Z39.238 I6.35
G2 Y16.6 Z39.166 J-0.65
G1 X136.738 Z39
X85 F850
G2 Y17.9 J0.65
G3 X91.35 Y24.25 J6.35
G1 Y81.75
G3 X85 Y88.1 I-6.35
G2 Y89.4 J0.65
G1 X141.5
G2 Y88.1 J-0.65
G3 X135.15 Y81.75 J-6.35
G1 Y24.25
G3 X141.5 Y17.9 I6.35
G2 Y16.6 J-0.65
G1 X136.738
X85 Z37.193 F283.3
G2 Y17.9 Z37.122 J0.65
G3 X88.319 Y18.836 Z37 J6.35
X91.35 Y24.25 I-3.319 J5.414 F850
G1 Y81.75
G3 X85 Y88.1 I-6.35
G2 Y89.4 J0.65
G1 X141.5
G2 Y88.1 J-0.65
G3 X135.15 Y81.75 J-6.35
G1 Y24.25
G3 X141.5 Y17.9 I6.35
G2 Y16.6 J-0.65
G1 X85
G2 Y17.9 J0.65
G3 X88.319 Y18.836 J6.35
X91.35 Y24.25 Z36.774 I-3.319 J5.414 F283.3
G1 Y75.04 Z35
Y81.75 F850
G3 X85 Y88.1 I-6.35
G2 Y89.4 J0.65
G1 X141.5
G2 Y88.1 J-0.65
G3 X135.15 Y81.75 J-6.35
G1 Y24.25
G3 X141.5 Y17.9 I6.35
G2 Y16.6 J-0.65
G1 X85
G2 Y17.9 J0.65
G3 X91.35 Y24.25 J6.35
G1 Y75.04
Y81.75 Z34.766 F283.3
G3 X85 Y88.1 Z34.417 I-6.35
G2 Y89.4 Z34.346 J0.65
G1 X123.546 Z33
X141.5 F850
G2 Y88.1 J-0.65
G3 X135.15 Y81.75 J-6.35
G1 Y24.25
G3 X141.5 Y17.9 I6.35
G2 Y16.6 J-0.65
G1 X85
G2 Y17.9 J0.65
G3 X91.35 Y24.25 J6.35
G1 Y81.75
G3 X85 Y88.1 I-6.35
G2 Y89.4 J0.65
G1 X123.546
X141.5 Z32.373 F283.3
G2 Y88.1 Z32.302 J-0.65
G3 X135.15 Y81.75 Z31.953 J-6.35
G1 Y54.448 Z31
Y24.25 F850
G3 X141.5 Y17.9 I6.35
G2 Y16.6 J-0.65
G1 X85
G2 Y17.9 J0.65
G3 X91.35 Y24.25 J6.35
G1 Y81.75
G3 X85 Y88.1 I-6.35
G2 Y89.4 J0.65
G1 X141.5
G2 Y88.1 J-0.65
G3 X135.15 Y81.75 J-6.35
G1 Y54.448
Y24.25 Z29.945 F283.3
G3 X141.5 Y17.9 Z29.597 I6.35
G2 Y16.6 Z29.526 J-0.65
G1 X126.442 Z29
X85 F850
G2 Y17.9 J0.65
G3 X91.35 Y24.25 J6.35
G1 Y81.75
G3 X85 Y88.1 I-6.35
G2 Y89.4 J0.65
G1 X141.5
G2 Y88.1 J-0.65
G3 X135.15 Y81.75 J-6.35
G1 Y24.25
G3 X141.5 Y17.9 I6.35
G2 Y16.6 J-0.65
G1 X126.442
X85 Z27.553 F283.3
G2 Y17.9 Z27.482 J0.65
G3 X91.35 Y24.25 Z27.133 J6.35
G1 Y28.064 Z27
Y81.75 F850
G3 X85 Y88.1 I-6.35
G2 Y89.4 J0.65
G1 X141.5
G2 Y88.1 J-0.65
G3 X135.15 Y81.75 J-6.35
G1 Y24.25
G3 X141.5 Y17.9 I6.35
G2 Y16.6 J-0.65
G1 X85
G2 Y17.9 J0.65
G3 X91.35 Y24.25 J6.35
G1 Y28.064
Y81.75 Z25.125 F283.3
G3 X90.364 Y85.149 Z25 I-6.35
X85 Y88.1 I-5.364 J-3.399 F850
G2 Y89.4 J0.65
G1 X141.5
G2 Y88.1 J-0.65
G3 X135.15 Y81.75 J-6.35
G1 Y24.25
G3 X141.5 Y17.9 I6.35
G2 Y16.6 J-0.65
G1 X85
G2 Y17.9 J0.65
G3 X91.35 Y24.25 J6.35
G1 Y81.75
G3 X90.364 Y85.149 I-6.35
X85 Y88.1 Z24.777 I-5.364 J-3.399 F283.3
G2 Y89.4 Z24.706 J0.65
G1 X133.842 Z23
X141.5 F850
G2 Y88.1 J-0.65
G3 X135.15 Y81.75 J-6.35
G1 Y24.25
G3 X141.5 Y17.9 I6.35
G2 Y16.6 J-0.65
G1 X85
G2 Y17.9 J0.65
G3 X91.35 Y24.25 J6.35
G1 Y81.75
G3 X85 Y88.1 I-6.35
G2 Y89.4 J0.65
G1 X133.842
X141.5 Z22.733 F283.3
G2 Y88.1 Z22.661 J-0.65
G3 X135.15 Y81.75 Z22.313 J-6.35
G1 Y44.152 Z21
Y24.25 F850
G3 X141.5 Y17.9 I6.35
G2 Y16.6 J-0.65
G1 X85
G2 Y17.9 J0.65
G3 X91.35 Y24.25 J6.35
G1 Y81.75
G3 X85 Y88.1 I-6.35
G2 Y89.4 J0.65
G1 X141.5
G2 Y88.1 J-0.65
G3 X135.15 Y81.75 J-6.35
G1 Y44.152
Y24.25 Z20.305 F283.3
G3 X141.5 Y17.9 Z19.957 I6.35
G2 Y16.6 Z19.885 J-0.65
G1 X116.146 Z19
X85 F850
G2 Y17.9 J0.65
G3 X91.35 Y24.25 J6.35
G1 Y81.75
G3 X85 Y88.1 I-6.35
G2 Y89.4 J0.65
G1 X141.5
G2 Y88.1 J-0.65
G3 X135.15 Y81.75 J-6.35
G1 Y24.25
G3 X141.5 Y17.9 I6.35
G2 Y16.6 J-0.65
G1 X116.146
X85 Z17.912 F283.3
G2 Y17.9 Z17.841 J0.65
G3 X91.35 Y24.25 Z17.493 J6.35
G1 Y38.36 Z17
Y81.75 F850
G3 X85 Y88.1 I-6.35
G2 Y89.4 J0.65
G1 X141.5
G2 Y88.1 J-0.65
G3 X135.15 Y81.75 J-6.35
G1 Y24.25
G3 X141.5 Y17.9 I6.35
G2 Y16.6 J-0.65
G1 X85
G2 Y17.9 J0.65
G3 X91.35 Y24.25 J6.35
G1 Y38.36
Y81.75 Z15.485 F283.3
G3 X85 Y88.1 Z15.136 I-6.35
G2 Y89.4 Z15.065 J0.65
G1 X86.866 Z15
X141.5 F850
G2 Y88.1 J-0.65
G3 X135.15 Y81.75 J-6.35
G1 Y24.25
G3 X141.5 Y17.9 I6.35
G2 Y16.6 J-0.65
G1 X85
G2 Y17.9 J0.65
G3 X91.35 Y24.25 J6.35
G1 Y81.75
G3 X85 Y88.1 I-6.35
G2 Y89.4 J0.65
G1 X86.866
X141.5 Z13.092 F283.3
G2 Y88.1 Z13.021 J-0.65
G3 X140.904 Y88.072 Z13 J-6.35
X135.15 Y81.75 I0.596 J-6.322 F850
G1 Y24.25
G3 X141.5 Y17.9 I6.35
G2 Y16.6 J-0.65
G1 X85
G2 Y17.9 J0.65
G3 X91.35 Y24.25 J6.35
G1 Y81.75
G3 X85 Y88.1 I-6.35
G2 Y89.4 J0.65
G1 X141.5
G2 Y88.1 J-0.65
G3 X140.904 Y88.072 J-6.35
X135.15 Y81.75 Z12.673 I0.596 J-6.322 F283.3
G1 Y33.856 Z11
Y24.25 F850
G3 X141.5 Y17.9 I6.35
G2 Y16.6 J-0.65
G1 X85
G2 Y17.9 J0.65
G3 X91.35 Y24.25 J6.35
G1 Y81.75
G3 X85 Y88.1 I-6.35
G2 Y89.4 J0.65
G1 X141.5
G2 Y88.1 J-0.65
G3 X135.15 Y81.75 J-6.35
G1 Y33.856
Y24.25 Z10.665 F283.3
G3 X141.5 Y17.9 Z10.316 I6.35
G2 Y16.6 Z10.245 J-0.65
G1 X105.85 Z9
X85 F850
G2 Y17.9 J0.65
G3 X91.35 Y24.25 J6.35
G1 Y81.75
G3 X85 Y88.1 I-6.35
G2 Y89.4 J0.65
G1 X141.5
G2 Y88.1 J-0.65
G3 X135.15 Y81.75 J-6.35
G1 Y24.25
G3 X141.5 Y17.9 I6.35
G2 Y16.6 J-0.65
G1 X105.85
X85 Z8.272 F283.3
G2 Y17.9 Z8.201 J0.65
G3 X91.35 Y24.25 Z7.852 J6.35
G1 Y48.656 Z7
Y81.75 F850
G3 X85 Y88.1 I-6.35
G2 Y89.4 J0.65
G1 X141.5
G2 Y88.1 J-0.65
G3 X135.15 Y81.75 J-6.35
G1 Y24.25
G3 X141.5 Y17.9 I6.35
G2 Y16.6 J-0.65
G1 X85
G2 Y17.9 J0.65
G3 X91.35 Y24.25 J6.35
G1 Y48.656
Y81.75 Z5.844 F283.3
G3 X85 Y88.1 Z5.496 I-6.35
G2 Y89.4 Z5.425 J0.65
G1 X97.162 Z5
X141.5 F850
G2 Y88.1 J-0.65
G3 X135.15 Y81.75 J-6.35
G1 Y24.25
G3 X141.5 Y17.9 I6.35
G2 Y16.6 J-0.65
G1 X85
G2 Y17.9 J0.65
G3 X91.35 Y24.25 J6.35
G1 Y81.75
G3 X85 Y88.1 I-6.35
G2 Y89.4 J0.65
G1 X97.162
X141.5 Z3.452 F283.3
G2 Y88.1 Z3.38 J-0.65
G3 X135.15 Y81.75 Z3.032 J-6.35
G1 Y80.832 Z3
Y24.25 F850
G3 X141.5 Y17.9 I6.35
G2 Y16.6 J-0.65
G1 X85
G2 Y17.9 J0.65
G3 X91.35 Y24.25 J6.35
G1 Y81.75
G3 X85 Y88.1 I-6.35
G2 Y89.4 J0.65
G1 X141.5
G2 Y88.1 J-0.65
G3 X135.15 Y81.75 J-6.35
G1 Y80.832
G2 X133.88 Y79.562 I-1.27
G1 X132.61
G18 G3 X131.34 Z4.27 K1.27
G0 Z70
G17
M9
M30
%
