%
(1001)
(Z0 stock bottom)
(T1  D=12.7 CR=0 - ZMIN=0 - flat end mill)
G90 G94
G17
G21

(2D Contour1)
M9
T1 M6
S5500 M3
G54
M8
G0 X96.16 Y82.767
Z70
Z60
G1 Z58.77 F850
G18 G3 X94.89 Z57.5 I-1.27
G1 X93.62
G17 G2 X92.35 Y84.037 J1.27
G1 Y87.4 Z57.383 F283.3
X134.15 Z55.923
Y24.6 Z53.73
X113.25 Z53
X92.35 F850
Y87.4
X134.15
Y24.6
X113.25
X92.35 Z52.27 F283.3
Y60.973 Z51
Y87.4 F850
X134.15
Y24.6
X92.35
Y60.973
Y87.4 Z50.077 F283.3
X123.195 Z49
X134.15 F850
Y24.6
X92.35
Y87.4
X123.195
X134.15 Z48.617 F283.3
Y41.082 Z47
Y24.6 F850
X92.35
Y87.4
X134.15
Y41.082
Y24.6 Z46.424 F283.3
X93.36 Z45
X92.35 F850
Y87.4
X134.15
Y24.6
X93.36
X92.35 Z44.965 F283.3
Y80.863 Z43
Y87.4 F850
X134.15
Y24.6
X92.35
Y80.863
Y87.4 Z42.772 F283.3
X134.15 Z41.312
Y78.465 Z41
Y24.6 F850
X92.35
Y87.4
X134.15
Y78.465
Y24.6 Z39.119 F283.3
X130.742 Z39
X92.35 F850
Y87.4
X134.15
Y24.6
X130.742
X92.35 Z37.659 F283.3
Y43.48 Z37
Y87.4 F850
X134.15
Y24.6
X92.35
Y43.48
Y87.4 Z35.466 F283.3
X105.703 Z35
X134.15 F850
Y24.6
X92.35
Y87.4
X105.703
X134.15 Z34.007 F283.3
Y58.575 Z33
Y24.6 F850
X92.35
Y87.4
X134.15
Y58.575
Y24.6 Z31.814 F283.3
X110.852 Z31
X92.35 F850
Y87.4
X134.15
Y24.6
X110.852
X92.35 Z30.354 F283.3
Y63.37 Z29
Y87.4 F850
X134.15
Y24.6
X92.35
Y63.37
Y87.4 Z28.161 F283.3
X125.593 Z27
X134.15 F850
Y24.6
X92.35
Y87.4
X125.593
X134.15 Z26.701 F283.3
Y38.685 Z25
Y24.6 F850
X92.35
Y87.4
X134.15
Y38.685
Y24.6 Z24.508 F283.3
X92.35 Z23.048
Y25.988 Z23
Y87.4 F850
X134.15
Y24.6
X92.35
Y25.988
Y83.26 Z21 F283.3
Y87.4 F850
X134.15
Y24.6
X92.35
Y83.26
Y87.4 Z20.855 F283.3
X134.15 Z19.396
Y76.067 Z19
Y24.6 F850
X92.35
Y87.4
X134.15
Y76.067
Y24.6 Z17.203 F283.3
X128.345 Z17
X92.35 F850
Y87.4
X134.15
Y24.6
X128.345
X92.35 Z15.743 F283.3
Y45.878 Z15
Y87.4 F850
X134.15
Y24.6
X92.35
Y45.878
Y87.4 Z13.55 F283.3
X108.1 Z13
X134.15 F850
Y24.6
X92.35
Y87.4
X108.1
X134.15 Z12.09 F283.3
Y56.177 Z11
Y24.6 F850
X92.35
Y87.4
X134.15
Y56.177
Y24.6 Z9.897 F283.3
X108.455 Z9
X92.35 F850
Y87.4
X134.15
Y24.6
X108.455
X92.35 Z8.438 F283.3
Y65.768 Z7
Y87.4 F850
X134.15
Y24.6
X92.35
Y65.768
Y87.4 Z6.245 F283.3
X127.99 Z5
X134.15 F850
Y24.6
X92.35
Y87.4
X127.99
X134.15 Z4.785 F283.3
Y36.287 Z3
Y24.6 F850
X92.35
Y87.4
X134.15
Y36.287
Y24.6 Z2.592 F283.3
X92.35 Z1.132
Y28.385 Z1
Y87.4 F850
X134.15
Y24.6
X92.35
Y28.385
Y57.021 Z0 F283.3
Y87.4 F850
X134.15
Y24.6
X92.35
Y57.021
G2 X93.62 Y58.291 I1.27
G1 X94.89
G18 G2 X96.16 Z1.27 K1.27
G0 Z70
G17
M9
M30
%
