%
(1001)
(Z0 stock bottom)
(T1  D=12.7 CR=0 - ZMIN=5 - flat end mill)
G90 G94
G17
G21

(2D Adaptive12)
M9
T1 M6
S6000 M3
G54
M9
G0 X43.914 Y-59.094
Z62
Z52
Z50.77
G1 Z49.5 F850
G3 X38.086 Y-48.53 Z48.838 I-2.914 J5.282 F283.3
X43.914 Y-59.094 Z48.176 I2.914 J-5.282
X38.086 Y-48.53 Z47.515 I-2.914 J5.282
X43.914 Y-59.094 Z46.853 I2.914 J-5.282
X38.086 Y-48.53 Z46.191 I-2.914 J5.282
X43.914 Y-59.094 Z45.529 I2.914 J-5.282
X38.086 Y-48.53 Z44.867 I-2.914 J5.282
X43.914 Y-59.094 Z44.206 I2.914 J-5.282
X38.086 Y-48.53 Z43.544 I-2.914 J5.282
X43.914 Y-59.094 Z42.882 I2.914 J-5.282
X38.086 Y-48.53 Z42.22 I-2.914 J5.282
X43.914 Y-59.094 Z41.558 I2.914 J-5.282
X38.086 Y-48.53 Z40.897 I-2.914 J5.282
X43.914 Y-59.094 Z40.235 I2.914 J-5.282
X47.033 Y-53.812 Z40.01 I-2.914 J5.282
X34.968 I-6.032
X47.033 I6.032
G1 X47.048 Y-52.52 F850
X47.071 Y-52.443
X47.108 Y-52.298
X47.132 Y-52.15
X47.148 Y-52
X47.154 Y-51.851
X47.152 Y-51.701
X47.144 Y-51.551
X47.128 Y-51.402
X47.105 Y-51.246
X47.075 Y-51.083
X47.035 Y-50.915
X46.987 Y-50.741
X46.929 Y-50.562
X46.86 Y-50.378
X46.782 Y-50.192
X46.693 Y-50.003
X46.593 Y-49.812
X46.482 Y-49.62
X46.36 Y-49.428
X46.227 Y-49.236
X46.083 Y-49.047
X45.928 Y-48.859
X45.762 Y-48.675
X45.585 Y-48.495
X45.398 Y-48.32
X45.201 Y-48.15
X44.994 Y-47.987
X44.778 Y-47.83
X44.553 Y-47.681
X44.319 Y-47.54
X44.077 Y-47.408
X43.828 Y-47.285
X43.572 Y-47.172
X43.31 Y-47.068
X43.041 Y-46.976
X42.768 Y-46.894
X42.489 Y-46.823
X42.207 Y-46.764
X41.921 Y-46.717
X41.632 Y-46.681
X41.341 Y-46.658
X41.048 Y-46.646
X40.754 Y-46.648
X40.46 Y-46.661
X40.166 Y-46.687
X39.872 Y-46.725
X39.58 Y-46.776
X39.289 Y-46.839
X39.001 Y-46.914
X38.716 Y-47.002
X38.434 Y-47.101
X38.157 Y-47.213
X37.884 Y-47.336
X37.616 Y-47.471
X37.354 Y-47.616
X37.099 Y-47.773
X36.849 Y-47.941
X36.607 Y-48.119
X36.373 Y-48.307
X36.146 Y-48.505
X35.928 Y-48.713
X35.718 Y-48.929
X35.518 Y-49.154
X35.328 Y-49.388
X35.147 Y-49.629
X34.976 Y-49.878
X34.817 Y-50.134
X34.668 Y-50.396
X34.53 Y-50.665
X34.403 Y-50.939
X34.288 Y-51.218
X34.185 Y-51.502
X34.094 Y-51.79
X34.015 Y-52.082
X33.949 Y-52.376
X33.894 Y-52.674
X33.853 Y-52.973
X33.824 Y-53.274
X33.807 Y-53.576
X33.804 Y-53.878
X33.813 Y-54.18
X33.834 Y-54.481
X33.869 Y-54.782
X33.916 Y-55.08
X33.975 Y-55.377
X34.047 Y-55.671
X34.131 Y-55.961
X34.228 Y-56.248
X34.336 Y-56.53
X34.456 Y-56.807
X34.587 Y-57.08
X34.73 Y-57.346
X34.884 Y-57.606
X35.049 Y-57.86
X35.224 Y-58.106
X35.41 Y-58.345
X35.605 Y-58.576
X35.81 Y-58.799
X36.024 Y-59.012
X36.247 Y-59.217
X36.478 Y-59.412
X36.717 Y-59.597
X36.964 Y-59.771
X37.218 Y-59.936
X37.479 Y-60.089
X37.746 Y-60.232
X38.018 Y-60.363
X38.296 Y-60.482
X38.579 Y-60.59
X38.865 Y-60.686
X39.156 Y-60.769
X39.45 Y-60.841
X39.747 Y-60.9
X40.046 Y-60.946
X40.346 Y-60.98
X40.648 Y-61.001
X40.95 Y-61.009
X41.253 Y-61.005
X41.555 Y-60.988
X41.856 Y-60.959
X42.155 Y-60.916
X42.452 Y-60.861
X42.747 Y-60.794
X43.039 Y-60.715
X43.327 Y-60.623
X43.611 Y-60.519
X43.891 Y-60.403
X44.165 Y-60.276
X44.434 Y-60.137
X44.697 Y-59.988
X44.953 Y-59.827
X45.202 Y-59.655
X45.444 Y-59.474
X45.678 Y-59.282
X45.904 Y-59.081
X46.121 Y-58.87
X46.329 Y-58.65
X46.527 Y-58.422
X46.716 Y-58.186
X46.895 Y-57.942
X47.063 Y-57.691
X47.221 Y-57.433
X47.367 Y-57.168
X47.502 Y-56.897
X47.626 Y-56.622
X47.75 Y-56.311
X47.964 Y-55.703
X48.131 Y-55.156
X48.251 Y-54.693
X48.339 Y-54.285
X48.404 Y-53.906
X48.45 Y-53.55
X48.479 Y-53.213
X48.493 Y-52.887
Y-52.57
X48.481 Y-52.261
X48.456 Y-51.958
X48.419 Y-51.66
X48.37 Y-51.368
X48.309 Y-51.08
X48.236 Y-50.796
X48.152 Y-50.516
X48.056 Y-50.24
X47.948 Y-49.967
X47.828 Y-49.698
X47.697 Y-49.433
X47.554 Y-49.173
X47.399 Y-48.918
X47.233 Y-48.668
X47.056 Y-48.424
X46.867 Y-48.186
X46.666 Y-47.954
X46.455 Y-47.729
X46.233 Y-47.512
X46 Y-47.303
X45.757 Y-47.102
X45.504 Y-46.911
X45.241 Y-46.729
X44.97 Y-46.557
X44.689 Y-46.396
X44.4 Y-46.246
X44.104 Y-46.107
X43.8 Y-45.98
X43.49 Y-45.865
X43.174 Y-45.763
X42.852 Y-45.674
X42.525 Y-45.599
X42.194 Y-45.537
X41.859 Y-45.488
X41.522 Y-45.454
X41.182 Y-45.433
X40.841 Y-45.427
X40.499 Y-45.436
X40.157 Y-45.459
X39.814 Y-45.496
X39.473 Y-45.548
X39.134 Y-45.614
X38.797 Y-45.694
X38.463 Y-45.789
X38.133 Y-45.898
X37.807 Y-46.021
X37.486 Y-46.158
X37.171 Y-46.308
X36.862 Y-46.472
X36.56 Y-46.648
X36.265 Y-46.838
X35.977 Y-47.04
X35.699 Y-47.254
X35.429 Y-47.479
X35.169 Y-47.716
X34.919 Y-47.964
X34.679 Y-48.223
X34.451 Y-48.491
X34.233 Y-48.769
X34.028 Y-49.056
X33.834 Y-49.351
X33.653 Y-49.655
X33.485 Y-49.966
X33.33 Y-50.284
X33.189 Y-50.608
X33.061 Y-50.938
X32.947 Y-51.273
X32.847 Y-51.613
X32.762 Y-51.956
X32.691 Y-52.303
X32.635 Y-52.653
X32.593 Y-53.005
X32.567 Y-53.359
X32.555 Y-53.713
X32.558 Y-54.067
X32.576 Y-54.421
X32.609 Y-54.774
X32.656 Y-55.126
X32.719 Y-55.475
X32.796 Y-55.821
X32.887 Y-56.164
X32.993 Y-56.503
X33.113 Y-56.836
X33.247 Y-57.165
X33.394 Y-57.488
X33.555 Y-57.804
X33.729 Y-58.113
X33.917 Y-58.415
X34.116 Y-58.708
X34.328 Y-58.993
X34.551 Y-59.269
X34.786 Y-59.535
X35.032 Y-59.791
X35.288 Y-60.036
X35.555 Y-60.271
X35.831 Y-60.494
X36.116 Y-60.705
X36.41 Y-60.904
X36.712 Y-61.091
X37.021 Y-61.264
X37.338 Y-61.425
X37.661 Y-61.572
X37.99 Y-61.706
X38.324 Y-61.825
X38.663 Y-61.93
X39.006 Y-62.021
X39.353 Y-62.098
X39.703 Y-62.16
X40.054 Y-62.207
X40.408 Y-62.239
X40.762 Y-62.257
X41.117 Y-62.259
X41.472 Y-62.247
X41.826 Y-62.22
X42.179 Y-62.178
X42.529 Y-62.121
X42.877 Y-62.049
X43.221 Y-61.963
X43.562 Y-61.862
X43.898 Y-61.748
X44.228 Y-61.619
X44.554 Y-61.476
X44.872 Y-61.32
X45.185 Y-61.151
X45.489 Y-60.969
X45.786 Y-60.774
X46.074 Y-60.567
X46.353 Y-60.347
X46.623 Y-60.117
X46.883 Y-59.875
X47.133 Y-59.622
X47.372 Y-59.359
X47.603 Y-59.082
X47.846 Y-58.765
X48.088 Y-58.419
X48.321 Y-58.055
X48.543 Y-57.673
X48.751 Y-57.279
X48.942 Y-56.878
X49.114 Y-56.473
X49.266 Y-56.068
X49.398 Y-55.665
X49.511 Y-55.264
X49.605 Y-54.867
X49.681 Y-54.473
X49.74 Y-54.081
X49.782 Y-53.693
X49.807 Y-53.309
X49.816 Y-52.929
X49.808 Y-52.552
X49.786 Y-52.18
X49.748 Y-51.812
X49.694 Y-51.449
X49.626 Y-51.09
X49.544 Y-50.736
X49.447 Y-50.387
X49.335 Y-50.044
X49.21 Y-49.705
X49.07 Y-49.372
X48.917 Y-49.046
X48.749 Y-48.726
X48.569 Y-48.412
X48.374 Y-48.106
X48.167 Y-47.807
X47.946 Y-47.517
X47.713 Y-47.235
X47.467 Y-46.963
X47.209 Y-46.7
X46.939 Y-46.447
X46.658 Y-46.204
X46.366 Y-45.973
X46.062 Y-45.753
X45.749 Y-45.545
X45.425 Y-45.35
X45.093 Y-45.168
X44.751 Y-44.999
X44.402 Y-44.844
X44.045 Y-44.704
X43.681 Y-44.578
X43.311 Y-44.467
X42.935 Y-44.372
X42.554 Y-44.292
X42.169 Y-44.228
X41.78 Y-44.18
X41.389 Y-44.148
X40.995 Y-44.133
X40.601 Y-44.134
X40.205 Y-44.152
X39.81 Y-44.187
X39.416 Y-44.238
X39.023 Y-44.306
X38.633 Y-44.391
X38.246 Y-44.492
X37.862 Y-44.609
X37.484 Y-44.743
X37.111 Y-44.893
X36.744 Y-45.058
X36.383 Y-45.239
X36.03 Y-45.435
X35.686 Y-45.647
X35.35 Y-45.872
X35.023 Y-46.112
X34.707 Y-46.366
X34.401 Y-46.633
X34.106 Y-46.913
X33.823 Y-47.205
X33.553 Y-47.509
X33.295 Y-47.825
X33.051 Y-48.151
X32.82 Y-48.487
X32.604 Y-48.833
X32.402 Y-49.188
X32.216 Y-49.551
X32.044 Y-49.922
X31.889 Y-50.3
X31.749 Y-50.684
X31.625 Y-51.074
X31.518 Y-51.469
X31.428 Y-51.868
X31.354 Y-52.271
X31.298 Y-52.677
X31.258 Y-53.085
X31.236 Y-53.494
X31.231 Y-53.903
X31.243 Y-54.313
X31.272 Y-54.722
X31.319 Y-55.129
X31.382 Y-55.534
X31.463 Y-55.937
X31.56 Y-56.335
X31.674 Y-56.729
X31.805 Y-57.118
X31.951 Y-57.501
X32.114 Y-57.878
X32.292 Y-58.248
X32.486 Y-58.609
X32.695 Y-58.963
X32.919 Y-59.307
X33.156 Y-59.641
X33.408 Y-59.966
X33.673 Y-60.279
X33.951 Y-60.581
X34.242 Y-60.871
X34.544 Y-61.149
X34.858 Y-61.414
X35.182 Y-61.665
X35.517 Y-61.903
X35.862 Y-62.126
X36.216 Y-62.334
X36.578 Y-62.528
X36.948 Y-62.706
X37.325 Y-62.868
X37.709 Y-63.015
X38.098 Y-63.145
X38.493 Y-63.259
X38.892 Y-63.356
X39.295 Y-63.436
X39.701 Y-63.499
X40.109 Y-63.545
X40.518 Y-63.574
X40.929 Y-63.585
X41.339 Y-63.58
X41.75 Y-63.557
X42.158 Y-63.517
X42.565 Y-63.46
X42.969 Y-63.385
X43.369 Y-63.294
X43.766 Y-63.186
X44.157 Y-63.062
X44.543 Y-62.921
X44.922 Y-62.764
X45.295 Y-62.591
X45.66 Y-62.403
X46.017 Y-62.2
X46.366 Y-61.981
X46.709 Y-61.746
X47.046 Y-61.492
X47.378 Y-61.22
X47.703 Y-60.931
X48.02 Y-60.623
X48.329 Y-60.297
X48.629 Y-59.953
X48.917 Y-59.592
X49.193 Y-59.216
X49.454 Y-58.827
X49.698 Y-58.427
X49.926 Y-58.017
X50.135 Y-57.599
X50.326 Y-57.174
X50.498 Y-56.743
X50.651 Y-56.309
X50.785 Y-55.871
X50.899 Y-55.431
X50.994 Y-54.99
X51.07 Y-54.548
X51.127 Y-54.107
X51.165 Y-53.668
X51.184 Y-53.23
X51.185 Y-52.794
X51.168 Y-52.361
X51.132 Y-51.931
X51.079 Y-51.505
X51.009 Y-51.083
X50.92 Y-50.665
X50.815 Y-50.253
X50.693 Y-49.846
X50.554 Y-49.445
X50.398 Y-49.051
X50.226 Y-48.663
X50.038 Y-48.284
X49.833 Y-47.912
X49.614 Y-47.549
X49.378 Y-47.194
X49.128 Y-46.85
X48.863 Y-46.516
X48.584 Y-46.192
X48.29 Y-45.88
X47.984 Y-45.58
X47.663 Y-45.292
X47.331 Y-45.017
X46.986 Y-44.756
X46.629 Y-44.509
X46.261 Y-44.276
X45.883 Y-44.058
X45.495 Y-43.856
X45.097 Y-43.67
X44.691 Y-43.5
X44.277 Y-43.347
X43.856 Y-43.211
X43.428 Y-43.092
X42.994 Y-42.992
X42.555 Y-42.909
X42.113 Y-42.845
X41.666 Y-42.799
X41.217 Y-42.772
X40.766 Y-42.764
X40.315 Y-42.775
X39.863 Y-42.805
X39.412 Y-42.854
X38.962 Y-42.922
X38.515 Y-43.009
X38.071 Y-43.115
X37.631 Y-43.24
X37.196 Y-43.383
X36.767 Y-43.545
X36.344 Y-43.725
X35.929 Y-43.922
X35.522 Y-44.138
X35.123 Y-44.37
X34.735 Y-44.62
X34.357 Y-44.885
X33.99 Y-45.167
X33.634 Y-45.464
X33.292 Y-45.776
X32.962 Y-46.102
X32.646 Y-46.443
X32.345 Y-46.796
X32.058 Y-47.162
X31.787 Y-47.54
X31.532 Y-47.93
X31.293 Y-48.33
X31.071 Y-48.74
X30.867 Y-49.159
X30.68 Y-49.586
X30.511 Y-50.021
X30.361 Y-50.463
X30.229 Y-50.911
X30.117 Y-51.365
X30.023 Y-51.823
X29.949 Y-52.284
X29.894 Y-52.749
X29.858 Y-53.215
X29.842 Y-53.683
X29.846 Y-54.15
X29.87 Y-54.618
X29.913 Y-55.084
X29.976 Y-55.548
X30.058 Y-56.009
X30.159 Y-56.466
X30.28 Y-56.919
X30.42 Y-57.366
X30.578 Y-57.807
X30.755 Y-58.241
X30.949 Y-58.667
X31.162 Y-59.085
X31.392 Y-59.494
X31.639 Y-59.892
X31.902 Y-60.28
X32.181 Y-60.656
X32.477 Y-61.021
X32.787 Y-61.372
X33.111 Y-61.711
X33.45 Y-62.035
X33.802 Y-62.345
X34.167 Y-62.64
X34.543 Y-62.919
X34.931 Y-63.182
X35.33 Y-63.429
X35.739 Y-63.659
X36.157 Y-63.871
X36.584 Y-64.066
X37.019 Y-64.242
X37.46 Y-64.4
X37.908 Y-64.54
X38.362 Y-64.66
X38.82 Y-64.761
X39.282 Y-64.843
X39.746 Y-64.906
X40.214 Y-64.949
X40.682 Y-64.972
X41.151 Y-64.975
X41.62 Y-64.959
X42.088 Y-64.923
X42.554 Y-64.868
X43.017 Y-64.793
X43.476 Y-64.698
X43.931 Y-64.585
X44.382 Y-64.452
X44.826 Y-64.3
X45.266 Y-64.129
X45.7 Y-63.939
X46.128 Y-63.73
X46.549 Y-63.502
X46.964 Y-63.254
X47.372 Y-62.986
X47.772 Y-62.699
X48.163 Y-62.392
X48.544 Y-62.067
X48.914 Y-61.723
X49.271 Y-61.362
X49.614 Y-60.984
X49.943 Y-60.59
X50.255 Y-60.182
X50.551 Y-59.76
X50.829 Y-59.326
X51.089 Y-58.881
X51.329 Y-58.425
X51.55 Y-57.961
X51.751 Y-57.488
X51.931 Y-57.01
X52.09 Y-56.525
X52.228 Y-56.037
X52.345 Y-55.545
X52.441 Y-55.05
X52.515 Y-54.554
X52.569 Y-54.056
X52.602 Y-53.559
X52.613 Y-53.063
X52.604 Y-52.568
X52.574 Y-52.076
X52.523 Y-51.587
X52.453 Y-51.101
X52.362 Y-50.62
X52.251 Y-50.144
X52.12 Y-49.673
X51.97 Y-49.209
X51.801 Y-48.752
X51.612 Y-48.303
X51.405 Y-47.862
X51.18 Y-47.43
X50.936 Y-47.008
X50.675 Y-46.596
X50.397 Y-46.195
X50.102 Y-45.806
X49.79 Y-45.429
X49.462 Y-45.065
X49.118 Y-44.714
X48.76 Y-44.378
X48.387 Y-44.056
X48 Y-43.75
X47.6 Y-43.46
X47.187 Y-43.186
X46.761 Y-42.929
X46.325 Y-42.69
X45.878 Y-42.469
X45.421 Y-42.266
X44.954 Y-42.082
X44.48 Y-41.918
X43.998 Y-41.773
X43.509 Y-41.649
X43.014 Y-41.545
X42.514 Y-41.462
X42.01 Y-41.399
X41.503 Y-41.358
X40.993 Y-41.338
X40.482 Y-41.339
X39.971 Y-41.362
X39.46 Y-41.407
X38.95 Y-41.473
X38.443 Y-41.561
X37.939 Y-41.67
X37.44 Y-41.8
X36.946 Y-41.951
X36.457 Y-42.124
X35.976 Y-42.316
X35.502 Y-42.53
X35.038 Y-42.763
X34.583 Y-43.016
X34.138 Y-43.288
X33.705 Y-43.579
X33.284 Y-43.888
X32.876 Y-44.214
X32.482 Y-44.558
X32.102 Y-44.919
X31.738 Y-45.295
X31.389 Y-45.687
X31.057 Y-46.093
X30.742 Y-46.514
X30.445 Y-46.947
X30.166 Y-47.393
X29.905 Y-47.85
X29.665 Y-48.318
X29.443 Y-48.796
X29.243 Y-49.283
X29.062 Y-49.779
X28.903 Y-50.282
X28.765 Y-50.791
X28.648 Y-51.305
X28.553 Y-51.825
X28.48 Y-52.348
X28.429 Y-52.874
X28.399 Y-53.401
X28.393 Y-53.93
X28.408 Y-54.458
X28.446 Y-54.986
X28.505 Y-55.511
X28.587 Y-56.034
X28.691 Y-56.552
X28.816 Y-57.067
X28.963 Y-57.575
X29.131 Y-58.077
X29.32 Y-58.571
X29.53 Y-59.057
X29.76 Y-59.534
X30.01 Y-60.001
X30.279 Y-60.457
X30.568 Y-60.901
X30.874 Y-61.333
X31.199 Y-61.752
X31.541 Y-62.157
X31.899 Y-62.547
X32.274 Y-62.921
X32.664 Y-63.28
X33.069 Y-63.621
X33.488 Y-63.946
X33.92 Y-64.253
X34.365 Y-64.541
X34.821 Y-64.81
X35.289 Y-65.06
X35.766 Y-65.29
X36.253 Y-65.5
X36.748 Y-65.689
X37.251 Y-65.857
X37.76 Y-66.004
X38.275 Y-66.129
X38.795 Y-66.233
X39.318 Y-66.315
X39.845 Y-66.374
X40.374 Y-66.412
X40.904 Y-66.427
X41.434 Y-66.42
X41.963 Y-66.391
X42.491 Y-66.339
X43.016 Y-66.265
X43.539 Y-66.169
X44.059 Y-66.051
X44.574 Y-65.911
X45.084 Y-65.749
X45.589 Y-65.565
X46.089 Y-65.359
X46.581 Y-65.131
X47.066 Y-64.881
X47.543 Y-64.61
X48.011 Y-64.317
X48.468 Y-64.002
X48.915 Y-63.667
X49.349 Y-63.312
X49.77 Y-62.937
X50.176 Y-62.544
X50.566 Y-62.132
X50.94 Y-61.703
X51.296 Y-61.258
X51.634 Y-60.797
X51.953 Y-60.323
X52.251 Y-59.835
X52.528 Y-59.336
X52.784 Y-58.825
X53.018 Y-58.305
X53.229 Y-57.777
X53.418 Y-57.241
X53.584 Y-56.699
X53.726 Y-56.152
X53.845 Y-55.6
X53.941 Y-55.045
X54.013 Y-54.488
X54.061 Y-53.93
X54.086 Y-53.372
X54.088 Y-52.815
X54.066 Y-52.259
X54.02 Y-51.705
X53.952 Y-51.155
X53.861 Y-50.609
X53.747 Y-50.068
X53.61 Y-49.533
X53.452 Y-49.004
X53.271 Y-48.483
X53.069 Y-47.971
X52.845 Y-47.467
X52.601 Y-46.973
X52.336 Y-46.49
X52.05 Y-46.019
X51.745 Y-45.559
X51.421 Y-45.112
X51.078 Y-44.679
X50.717 Y-44.26
X50.338 Y-43.857
X49.942 Y-43.469
X49.529 Y-43.098
X49.1 Y-42.743
X48.656 Y-42.407
X48.198 Y-42.089
X47.726 Y-41.79
X47.241 Y-41.51
X46.743 Y-41.251
X46.234 Y-41.012
X45.715 Y-40.795
X45.186 Y-40.599
X44.648 Y-40.425
X44.102 Y-40.274
X43.55 Y-40.145
X42.991 Y-40.04
X42.428 Y-39.958
X41.86 Y-39.9
X41.29 Y-39.865
X40.718 Y-39.855
X40.144 Y-39.868
X39.571 Y-39.906
X38.999 Y-39.968
X38.43 Y-40.054
X37.863 Y-40.164
X37.301 Y-40.298
X36.744 Y-40.456
X36.194 Y-40.637
X35.651 Y-40.841
X35.116 Y-41.068
X34.591 Y-41.318
X34.076 Y-41.59
X33.573 Y-41.884
X33.082 Y-42.199
X32.604 Y-42.534
X32.14 Y-42.89
X31.691 Y-43.265
X31.257 Y-43.659
X30.841 Y-44.072
X30.442 Y-44.501
X30.061 Y-44.948
X29.698 Y-45.41
X29.356 Y-45.888
X29.033 Y-46.379
X28.731 Y-46.885
X28.451 Y-47.402
X28.193 Y-47.932
X27.956 Y-48.472
X27.743 Y-49.021
X27.553 Y-49.58
X27.386 Y-50.146
X27.243 Y-50.718
X27.125 Y-51.297
X27.031 Y-51.88
X26.961 Y-52.467
X26.916 Y-53.056
X26.896 Y-53.647
X26.901 Y-54.238
X26.93 Y-54.829
X26.984 Y-55.418
X27.063 Y-56.004
X27.167 Y-56.587
X27.295 Y-57.165
X27.447 Y-57.737
X27.624 Y-58.302
X27.823 Y-58.86
X28.046 Y-59.408
X28.292 Y-59.947
X28.561 Y-60.475
X28.851 Y-60.992
X29.163 Y-61.495
X29.496 Y-61.986
X29.849 Y-62.462
X30.222 Y-62.922
X30.614 Y-63.367
X31.024 Y-63.795
X31.452 Y-64.205
X31.896 Y-64.597
X32.357 Y-64.97
X32.833 Y-65.323
X33.324 Y-65.656
X33.828 Y-65.968
X34.345 Y-66.259
X34.873 Y-66.527
X35.413 Y-66.773
X35.962 Y-66.997
X36.52 Y-67.197
X37.087 Y-67.373
X37.66 Y-67.526
X38.239 Y-67.654
X38.822 Y-67.758
X39.41 Y-67.837
X40.001 Y-67.891
X40.594 Y-67.921
X41.187 Y-67.926
X41.781 Y-67.905
X42.374 Y-67.86
X42.966 Y-67.79
X43.556 Y-67.695
X44.142 Y-67.574
X44.724 Y-67.429
X45.301 Y-67.259
X45.873 Y-67.065
X46.438 Y-66.845
X46.995 Y-66.601
X47.545 Y-66.333
X48.084 Y-66.041
X48.613 Y-65.725
X49.13 Y-65.386
X49.634 Y-65.024
X50.124 Y-64.64
X50.599 Y-64.234
X51.058 Y-63.808
X51.5 Y-63.362
X51.923 Y-62.897
X52.327 Y-62.413
X52.711 Y-61.913
X53.073 Y-61.396
X53.414 Y-60.865
X53.732 Y-60.32
X54.027 Y-59.762
X54.297 Y-59.192
X54.544 Y-58.613
X54.765 Y-58.024
X54.962 Y-57.426
X55.133 Y-56.822
X55.278 Y-56.213
X55.397 Y-55.598
X55.491 Y-54.981
X55.558 Y-54.36
X55.599 Y-53.739
X55.613 Y-53.117
X55.602 Y-52.496
X55.565 Y-51.877
X55.501 Y-51.261
X55.412 Y-50.649
X55.298 Y-50.041
X55.158 Y-49.44
X54.993 Y-48.845
X54.803 Y-48.258
X54.589 Y-47.68
X54.351 Y-47.111
X54.089 Y-46.553
X53.804 Y-46.007
X53.496 Y-45.472
X53.166 Y-44.951
X52.814 Y-44.444
X52.441 Y-43.952
X52.047 Y-43.476
X51.634 Y-43.016
X51.2 Y-42.573
X50.748 Y-42.149
X50.278 Y-41.743
X49.791 Y-41.357
X49.287 Y-40.992
X48.768 Y-40.647
X48.234 Y-40.324
X47.686 Y-40.023
X47.125 Y-39.746
X46.552 Y-39.491
X45.967 Y-39.261
X45.373 Y-39.055
X44.769 Y-38.874
X44.158 Y-38.718
X43.539 Y-38.587
X42.915 Y-38.483
X42.285 Y-38.405
X41.652 Y-38.353
X41.017 Y-38.328
X40.38 Y-38.33
X39.742 Y-38.358
X39.106 Y-38.413
X38.472 Y-38.495
X37.84 Y-38.604
X37.213 Y-38.739
X36.592 Y-38.901
X35.977 Y-39.089
X35.369 Y-39.303
X34.771 Y-39.543
X34.182 Y-39.808
X33.605 Y-40.097
X33.04 Y-40.411
X32.487 Y-40.749
X31.949 Y-41.11
X31.427 Y-41.493
X30.92 Y-41.899
X30.43 Y-42.326
X29.958 Y-42.773
X29.506 Y-43.24
X29.073 Y-43.726
X28.66 Y-44.231
X28.269 Y-44.752
X27.9 Y-45.29
X27.553 Y-45.843
X27.23 Y-46.411
X26.931 Y-46.991
X26.656 Y-47.585
X26.407 Y-48.189
X26.183 Y-48.804
X25.985 Y-49.428
X25.813 Y-50.059
X25.668 Y-50.698
X25.55 Y-51.343
X25.458 Y-51.992
X25.395 Y-52.644
X25.358 Y-53.299
X25.35 Y-53.955
X25.369 Y-54.611
X25.415 Y-55.265
X25.489 Y-55.918
X25.59 Y-56.566
X25.719 Y-57.21
X25.874 Y-57.848
X26.056 Y-58.48
X26.265 Y-59.103
X26.499 Y-59.716
X26.759 Y-60.32
X27.045 Y-60.912
X27.354 Y-61.492
X27.689 Y-62.058
X28.046 Y-62.609
X28.427 Y-63.146
X28.829 Y-63.665
X29.254 Y-64.168
X29.698 Y-64.652
X30.163 Y-65.117
X30.648 Y-65.562
X31.15 Y-65.987
X31.67 Y-66.39
X32.206 Y-66.771
X32.758 Y-67.129
X33.325 Y-67.463
X33.905 Y-67.774
X34.497 Y-68.059
X35.101 Y-68.32
X35.716 Y-68.555
X36.34 Y-68.764
X36.972 Y-68.947
X37.611 Y-69.103
X38.257 Y-69.232
X38.908 Y-69.333
X39.562 Y-69.408
X40.22 Y-69.455
X40.879 Y-69.474
X41.54 Y-69.465
X42.201 Y-69.429
X42.86 Y-69.365
X43.517 Y-69.273
X44.172 Y-69.153
X44.822 Y-69.006
X45.467 Y-68.83
X46.106 Y-68.628
X46.738 Y-68.398
X47.362 Y-68.141
X47.975 Y-67.857
X48.579 Y-67.546
X49.17 Y-67.21
X49.749 Y-66.848
X50.313 Y-66.46
X50.862 Y-66.049
X51.395 Y-65.613
X51.91 Y-65.155
X52.406 Y-64.674
X52.882 Y-64.172
X53.338 Y-63.65
X53.771 Y-63.109
X54.182 Y-62.549
X54.569 Y-61.973
X54.932 Y-61.38
X55.269 Y-60.773
X55.581 Y-60.152
X55.866 Y-59.52
X56.124 Y-58.876
X56.354 Y-58.222
X56.557 Y-57.56
X56.731 Y-56.89
X56.878 Y-56.215
X56.995 Y-55.535
X57.084 Y-54.851
X57.143 Y-54.165
X57.174 Y-53.478
X57.176 Y-52.791
X57.149 Y-52.105
X57.094 Y-51.421
X57.01 Y-50.741
X56.897 Y-50.066
X56.756 Y-49.396
X56.587 Y-48.734
X56.391 Y-48.079
X56.168 Y-47.433
X55.917 Y-46.798
X55.64 Y-46.173
X55.337 Y-45.561
X55.009 Y-44.962
X54.655 Y-44.377
X54.278 Y-43.807
X53.876 Y-43.253
X53.451 Y-42.716
X53.004 Y-42.198
X52.535 Y-41.698
X52.044 Y-41.217
X51.534 Y-40.758
X51.004 Y-40.319
X50.456 Y-39.903
X49.89 Y-39.51
X49.307 Y-39.141
X48.708 Y-38.796
X48.095 Y-38.476
X47.468 Y-38.181
X46.828 Y-37.913
X46.177 Y-37.672
X45.515 Y-37.457
X44.843 Y-37.271
X44.164 Y-37.113
X43.477 Y-36.983
X42.785 Y-36.882
X42.088 Y-36.81
X41.388 Y-36.768
X40.686 Y-36.755
X39.982 Y-36.771
X39.28 Y-36.817
X38.579 Y-36.893
X37.88 Y-36.998
X37.186 Y-37.132
X36.498 Y-37.296
X35.816 Y-37.489
X35.142 Y-37.71
X34.477 Y-37.96
X33.823 Y-38.238
X33.18 Y-38.543
X32.55 Y-38.876
X31.934 Y-39.235
X31.334 Y-39.62
X30.749 Y-40.03
X30.182 Y-40.465
X29.632 Y-40.923
X29.103 Y-41.405
X28.593 Y-41.908
X28.105 Y-42.433
X27.639 Y-42.979
X27.197 Y-43.544
X26.778 Y-44.127
X26.383 Y-44.728
X26.014 Y-45.345
X25.672 Y-45.977
X25.355 Y-46.624
X25.067 Y-47.283
X24.806 Y-47.955
X24.573 Y-48.637
X24.369 Y-49.328
X24.195 Y-50.028
X24.049 Y-50.735
X23.934 Y-51.447
X23.849 Y-52.164
X23.794 Y-52.884
X23.769 Y-53.605
X23.774 Y-54.328
X23.81 Y-55.049
X23.876 Y-55.769
X23.972 Y-56.485
X24.099 Y-57.197
X24.255 Y-57.903
X24.441 Y-58.602
X24.656 Y-59.293
X24.899 Y-59.974
X25.172 Y-60.644
X25.472 Y-61.303
X25.799 Y-61.948
X26.154 Y-62.579
X26.535 Y-63.195
X26.941 Y-63.794
X27.372 Y-64.375
X27.827 Y-64.938
X28.306 Y-65.482
X28.807 Y-66.005
X29.329 Y-66.506
X29.873 Y-66.985
X30.436 Y-67.441
X31.017 Y-67.873
X31.616 Y-68.28
X32.232 Y-68.661
X32.863 Y-69.016
X33.509 Y-69.345
X34.168 Y-69.646
X34.839 Y-69.919
X35.521 Y-70.164
X36.213 Y-70.38
X36.914 Y-70.566
X37.622 Y-70.723
X38.336 Y-70.851
X39.055 Y-70.948
X39.779 Y-71.015
X40.505 Y-71.051
X41.234 Y-71.057
X41.962 Y-71.033
X42.69 Y-70.978
X43.417 Y-70.892
X44.14 Y-70.775
X44.86 Y-70.628
X45.574 Y-70.45
X46.282 Y-70.242
X46.982 Y-70.004
X47.673 Y-69.736
X48.354 Y-69.438
X49.023 Y-69.111
X49.68 Y-68.756
X50.323 Y-68.372
X50.951 Y-67.961
X51.562 Y-67.523
X52.155 Y-67.058
X52.729 Y-66.569
X53.283 Y-66.054
X53.816 Y-65.516
X54.326 Y-64.956
X54.813 Y-64.374
X55.275 Y-63.772
X55.711 Y-63.15
X56.122 Y-62.511
X56.505 Y-61.854
X56.86 Y-61.183
X57.187 Y-60.497
X57.484 Y-59.798
X57.752 Y-59.087
X57.989 Y-58.367
X58.196 Y-57.637
X58.372 Y-56.9
X58.516 Y-56.157
X58.629 Y-55.409
X58.711 Y-54.658
X58.761 Y-53.904
X58.779 Y-53.15
X58.766 Y-52.396
X58.72 Y-51.644
X58.644 Y-50.895
X58.536 Y-50.15
X58.397 Y-49.411
X58.227 Y-48.679
X58.026 Y-47.954
X57.795 Y-47.239
X57.535 Y-46.535
X57.245 Y-45.842
X56.926 Y-45.162
X56.579 Y-44.495
X56.204 Y-43.844
X55.802 Y-43.209
X55.374 Y-42.591
X54.919 Y-41.992
X54.44 Y-41.411
X53.936 Y-40.851
X53.409 Y-40.312
X52.859 Y-39.795
X52.288 Y-39.302
X51.695 Y-38.832
X51.083 Y-38.388
X50.452 Y-37.969
X49.804 Y-37.576
X49.138 Y-37.211
X48.457 Y-36.873
X47.762 Y-36.564
X47.053 Y-36.284
X46.333 Y-36.034
X45.601 Y-35.814
X44.86 Y-35.625
X44.111 Y-35.467
X43.355 Y-35.34
X42.593 Y-35.246
X41.828 Y-35.183
X41.059 Y-35.152
X40.288 Y-35.154
X39.518 Y-35.188
X38.749 Y-35.254
X37.982 Y-35.353
X37.219 Y-35.484
X36.462 Y-35.647
X35.711 Y-35.843
X34.969 Y-36.069
X34.236 Y-36.327
X33.513 Y-36.616
X32.803 Y-36.935
X32.106 Y-37.284
X31.424 Y-37.663
X30.758 Y-38.07
X30.109 Y-38.505
X29.479 Y-38.967
X28.867 Y-39.456
X28.277 Y-39.97
X27.708 Y-40.509
X27.162 Y-41.072
X26.64 Y-41.658
X26.143 Y-42.265
X25.671 Y-42.893
X25.226 Y-43.541
X24.808 Y-44.208
X24.419 Y-44.891
X24.058 Y-45.591
X23.727 Y-46.305
X23.426 Y-47.033
X23.156 Y-47.774
X22.917 Y-48.525
X22.71 Y-49.286
X22.535 Y-50.055
X22.473 Y-50.389
X22.449 Y-50.541
X22.432 Y-50.693
X22.422 Y-50.847
X22.409 Y-51.146
X22.385 Y-51.907
X22.366 Y-52.668
X22.358 Y-53.049
X22.356 Y-53.81
Y-54.19
X22.357 Y-54.571
X22.425 Y-55.861
X22.481 Y-56.511
X22.567 Y-57.18
X22.684 Y-57.864
X22.833 Y-58.556
X23.014 Y-59.252
X23.226 Y-59.949
X23.471 Y-60.645
X23.747 Y-61.338
X24.057 Y-62.027
X24.398 Y-62.708
X24.77 Y-63.38
X25.172 Y-64.039
X25.604 Y-64.684
X26.064 Y-65.313
X26.552 Y-65.924
X27.067 Y-66.515
X27.607 Y-67.085
X28.172 Y-67.633
X28.759 Y-68.158
X29.369 Y-68.658
X30 Y-69.132
X30.651 Y-69.58
X31.321 Y-70
X32.008 Y-70.392
X32.711 Y-70.755
X33.429 Y-71.088
X34.161 Y-71.391
X34.905 Y-71.663
X35.66 Y-71.904
X36.425 Y-72.112
X37.199 Y-72.289
X37.98 Y-72.433
X38.767 Y-72.544
X39.558 Y-72.622
X40.353 Y-72.667
X41.15 Y-72.678
X41.948 Y-72.656
X42.745 Y-72.6
X43.541 Y-72.51
X44.333 Y-72.387
X45.121 Y-72.231
X45.904 Y-72.041
X46.679 Y-71.818
X47.446 Y-71.562
X48.202 Y-71.274
X48.948 Y-70.953
X49.681 Y-70.601
X50.4 Y-70.217
X51.104 Y-69.803
X51.791 Y-69.359
X52.46 Y-68.885
X53.109 Y-68.383
X53.738 Y-67.853
X54.344 Y-67.296
X54.928 Y-66.714
X55.487 Y-66.107
X56.02 Y-65.477
X56.527 Y-64.824
X57.006 Y-64.151
X57.457 Y-63.457
X57.878 Y-62.746
X58.269 Y-62.017
X58.629 Y-61.272
X58.957 Y-60.513
X59.253 Y-59.741
X59.333 Y-59.505
X59.412 Y-59.228
X59.468 Y-58.944
X59.498 Y-58.657
X59.539 Y-57.996
X59.575 Y-57.235
X59.591 Y-56.854
X59.615 Y-56.093
X59.625 Y-55.712
X59.642 Y-54.951
X59.644 Y-54.19
Y-53.81
X59.642 Y-53.049
X59.625 Y-52.288
X59.615 Y-51.907
X59.591 Y-51.146
X59.575 Y-50.765
X59.539 Y-50.004
X59.492 Y-49.243
X59.384 Y-48.313
X59.304 Y-47.811
X59.201 Y-47.301
X59.066 Y-46.753
X58.898 Y-46.175
X58.696 Y-45.578
X58.466 Y-44.98
X58.201 Y-44.369
X57.898 Y-43.745
X57.559 Y-43.115
X57.184 Y-42.484
X56.775 Y-41.856
X56.332 Y-41.236
X55.857 Y-40.626
X55.351 Y-40.03
X54.816 Y-39.45
X54.252 Y-38.889
X53.661 Y-38.349
X53.045 Y-37.831
X52.404 Y-37.337
X51.74 Y-36.868
X51.055 Y-36.426
X50.349 Y-36.012
X49.624 Y-35.626
X48.881 Y-35.27
X48.123 Y-34.945
X47.349 Y-34.652
X46.562 Y-34.391
X45.764 Y-34.162
X44.955 Y-33.967
X44.138 Y-33.806
X43.313 Y-33.68
X42.483 Y-33.587
X41.648 Y-33.53
X40.81 Y-33.508
X39.971 Y-33.521
X39.133 Y-33.569
X38.296 Y-33.653
X37.462 Y-33.772
X36.634 Y-33.926
X35.812 Y-34.115
X34.997 Y-34.338
X34.192 Y-34.596
X33.398 Y-34.888
X32.615 Y-35.213
X31.847 Y-35.57
X31.094 Y-35.961
X30.357 Y-36.382
X29.637 Y-36.835
X28.937 Y-37.318
X28.258 Y-37.831
X27.6 Y-38.371
X26.965 Y-38.94
X26.354 Y-39.535
X25.768 Y-40.155
X25.209 Y-40.8
X24.676 Y-41.468
X24.172 Y-42.159
X23.698 Y-42.87
X23.405 Y-43.351
X23.194 Y-43.76
X23.041 Y-44.193
X22.951 Y-44.644
X22.898 Y-45.057
X22.807 Y-45.819
X22.765 Y-46.199
X22.69 Y-46.96
X22.618 Y-47.721
X22.586 Y-48.102
X22.533 Y-48.863
X22.508 Y-49.243
X22.461 Y-50.004
X22.422 Y-50.847
X22.413 Y-51.345
X22.366 Y-54.072
X22.357 Y-54.571
X22.358 Y-54.951
X22.375 Y-55.712
X22.385 Y-56.093
X22.409 Y-56.854
X22.425 Y-57.235
X22.461 Y-57.996
X22.508 Y-58.757
X22.533 Y-59.137
X22.586 Y-59.898
X22.618 Y-60.279
X22.654 Y-60.659
X22.749 Y-61.309
X22.813 Y-61.649
X22.902 Y-62.029
X23.014 Y-62.435
X23.152 Y-62.859
X23.325 Y-63.326
X23.525 Y-63.804
X23.758 Y-64.3
X24.033 Y-64.826
X24.348 Y-65.374
X24.696 Y-65.922
X25.078 Y-66.472
X25.503 Y-67.032
X25.968 Y-67.594
X26.472 Y-68.153
X27.011 Y-68.704
X27.585 Y-69.243
X28.191 Y-69.765
X28.827 Y-70.269
X29.49 Y-70.749
X30.178 Y-71.205
X30.889 Y-71.635
X31.623 Y-72.037
X32.377 Y-72.41
X33.15 Y-72.753
X33.94 Y-73.064
X34.745 Y-73.343
X35.563 Y-73.588
X36.393 Y-73.799
X37.233 Y-73.976
X38.081 Y-74.117
X38.936 Y-74.223
X39.796 Y-74.293
X40.66 Y-74.327
X41.526 Y-74.325
X42.393 Y-74.286
X43.259 Y-74.21
X44.122 Y-74.098
X44.982 Y-73.95
X45.836 Y-73.765
X46.683 Y-73.544
X47.522 Y-73.287
X48.351 Y-72.995
X49.168 Y-72.667
X49.972 Y-72.305
X50.762 Y-71.909
X51.535 Y-71.479
X52.292 Y-71.016
X53.029 Y-70.521
X53.746 Y-69.995
X54.441 Y-69.438
X55.113 Y-68.852
X55.76 Y-68.237
X56.382 Y-67.595
X56.976 Y-66.927
X57.543 Y-66.235
X58.08 Y-65.518
X58.48 Y-64.935
X58.681 Y-64.602
X58.841 Y-64.247
X58.958 Y-63.876
X59.031 Y-63.493
X59.103 Y-62.943
X59.237 Y-61.801
X59.31 Y-61.04
X59.38 Y-60.279
X59.414 Y-59.898
X59.467 Y-59.137
X59.498 Y-58.657
G3 X59.499 Y-58.623 I-1.27 J0.034
G1 X59.498 Y-58.159
X59.493 Y-49.742
X59.492 Y-49.277
G3 Y-49.243 I-1.27 J-0.001
G1 X59.46 Y-48.76
X59.414 Y-48.102
X59.345 Y-47.341
X59.31 Y-46.96
X59.237 Y-46.199
X59.103 Y-45.057
X59.026 Y-44.468
X58.934 Y-43.961
X58.864 Y-43.649
X58.772 Y-43.308
X58.659 Y-42.949
X58.514 Y-42.549
X58.349 Y-42.146
X58.146 Y-41.706
X57.906 Y-41.236
X57.64 Y-40.767
X57.33 Y-40.271
X56.976 Y-39.751
X56.58 Y-39.222
X56.155 Y-38.7
X55.688 Y-38.174
X55.177 Y-37.644
X54.624 Y-37.117
X54.033 Y-36.599
X53.405 Y-36.095
X52.745 Y-35.608
X52.053 Y-35.142
X51.334 Y-34.7
X50.589 Y-34.284
X49.82 Y-33.897
X49.03 Y-33.539
X48.219 Y-33.212
X47.39 Y-32.918
X46.544 Y-32.658
X45.684 Y-32.432
X44.812 Y-32.241
X43.929 Y-32.087
X43.037 Y-31.97
X42.139 Y-31.89
X41.236 Y-31.848
X40.331 Y-31.844
X39.424 Y-31.878
X38.518 Y-31.95
X37.615 Y-32.06
X36.716 Y-32.208
X35.823 Y-32.394
X34.937 Y-32.618
X34.06 Y-32.879
X33.195 Y-33.177
X32.342 Y-33.511
X31.503 Y-33.882
X30.679 Y-34.287
X29.873 Y-34.727
X29.085 Y-35.201
X28.317 Y-35.709
X27.571 Y-36.248
X26.847 Y-36.818
X26.148 Y-37.419
X25.474 Y-38.049
X24.826 Y-38.708
X24.34 Y-39.245
X24.063 Y-39.598
X23.836 Y-39.984
X23.664 Y-40.398
X23.549 Y-40.831
X23.47 Y-41.252
X23.338 Y-42.029
X23.217 Y-42.774
X23.156 Y-43.155
X23.047 Y-43.916
X22.996 Y-44.296
X22.951 Y-44.644
G3 X22.946 Y-44.739 I1.264 J-0.119
G1 X22.938 Y-45.142
X22.66 Y-60.161
X22.652 Y-60.561
G3 X22.654 Y-60.659 I1.27 J-0.024
G1 X22.69 Y-61.04
X22.765 Y-61.801
X22.807 Y-62.181
X22.898 Y-62.943
X22.996 Y-63.704
X23.047 Y-64.084
X23.102 Y-64.465
X23.163 Y-64.781
X23.226 Y-65.045
X23.31 Y-65.342
X23.412 Y-65.653
X23.54 Y-65.992
X23.695 Y-66.358
X23.873 Y-66.732
X24.092 Y-67.146
X24.337 Y-67.567
X24.619 Y-68.005
X24.947 Y-68.473
X25.315 Y-68.953
X25.711 Y-69.428
X26.157 Y-69.918
X26.651 Y-70.416
X27.189 Y-70.917
X27.768 Y-71.411
X28.379 Y-71.89
X29.023 Y-72.352
X29.706 Y-72.8
X30.425 Y-73.23
X31.177 Y-73.637
X31.958 Y-74.018
X32.765 Y-74.371
X33.595 Y-74.694
X34.445 Y-74.984
X35.314 Y-75.239
X36.198 Y-75.46
X37.095 Y-75.644
X38.003 Y-75.791
X38.921 Y-75.9
X39.845 Y-75.97
X40.774 Y-76.002
X41.707 Y-75.995
X42.641 Y-75.948
X43.574 Y-75.862
X44.505 Y-75.737
X45.432 Y-75.572
X46.353 Y-75.368
X47.266 Y-75.125
X48.171 Y-74.843
X49.064 Y-74.523
X49.945 Y-74.165
X50.811 Y-73.77
X51.662 Y-73.337
X52.495 Y-72.869
X53.308 Y-72.366
X54.101 Y-71.828
X54.872 Y-71.256
X55.619 Y-70.652
X56.341 Y-70.016
X57.036 Y-69.35
X57.665 Y-68.693
X57.7 Y-68.654
X57.971 Y-68.301
X58.192 Y-67.915
X58.359 Y-67.503
X58.469 Y-67.072
X58.529 Y-66.748
X58.659 Y-65.987
X58.722 Y-65.606
X58.784 Y-65.226
X58.845 Y-64.845
X58.952 Y-64.084
X59.019 Y-63.588
X59.031 Y-63.493
G3 X59.037 Y-63.373 I-1.264 J0.12
G1 Y-62.995
X59.032 Y-44.966
Y-44.587
G3 X59.026 Y-44.468 I-1.27
G1 X59.004 Y-44.296
X58.952 Y-43.916
X58.845 Y-43.155
X58.784 Y-42.774
X58.699 Y-42.256
X58.659 Y-42.013
X58.529 Y-41.252
X58.49 Y-41.043
X58.39 Y-40.62
X58.315 Y-40.354
X58.226 Y-40.084
X58.111 Y-39.776
X57.978 Y-39.464
X57.814 Y-39.117
X57.623 Y-38.754
X57.403 Y-38.376
X57.138 Y-37.963
X56.849 Y-37.55
X56.517 Y-37.117
X56.136 Y-36.659
X55.713 Y-36.194
X55.26 Y-35.735
X54.755 Y-35.265
X54.199 Y-34.79
X53.598 Y-34.318
X52.954 Y-33.855
X52.278 Y-33.411
X51.57 Y-32.987
X50.822 Y-32.581
X50.039 Y-32.198
X49.223 Y-31.84
X48.378 Y-31.511
X47.508 Y-31.214
X46.617 Y-30.951
X45.706 Y-30.723
X44.779 Y-30.532
X43.839 Y-30.379
X42.887 Y-30.265
X41.927 Y-30.191
X40.961 Y-30.158
X39.992 Y-30.164
X39.02 Y-30.212
X38.049 Y-30.301
X37.08 Y-30.43
X36.115 Y-30.601
X35.157 Y-30.812
X34.207 Y-31.064
X33.268 Y-31.356
X32.34 Y-31.688
X31.425 Y-32.059
X30.527 Y-32.468
X29.645 Y-32.915
X28.782 Y-33.399
X27.94 Y-33.92
X27.119 Y-34.475
X26.322 Y-35.066
X25.607 Y-35.644
X25.254 Y-35.954
X24.969 Y-36.238
X24.72 Y-36.554
X24.511 Y-36.899
X24.346 Y-37.266
X24.227 Y-37.651
X24.093 Y-38.208
X23.926 Y-38.969
X23.845 Y-39.349
X23.688 Y-40.111
X23.549 Y-40.831
G3 X23.533 Y-41.005 I1.255 J-0.198
G1 X23.527 Y-41.329
X23.101 Y-63.966
X23.095 Y-64.305
G3 X23.102 Y-64.465 I1.27 J-0.024
G1 X23.156 Y-64.845
X23.217 Y-65.226
X23.341 Y-65.987
X23.47 Y-66.748
X23.541 Y-67.128
X23.615 Y-67.509
X23.686 Y-67.801
X23.755 Y-68.036
X23.843 Y-68.296
X23.947 Y-68.567
X24.079 Y-68.87
X24.228 Y-69.176
X24.413 Y-69.521
X24.619 Y-69.868
X24.862 Y-70.24
X25.147 Y-70.64
X25.455 Y-71.034
X25.81 Y-71.453
X26.216 Y-71.892
X26.653 Y-72.327
X27.131 Y-72.764
X27.663 Y-73.21
X28.246 Y-73.66
X28.876 Y-74.105
X29.54 Y-74.533
X30.237 Y-74.942
X30.981 Y-75.337
X31.765 Y-75.713
X32.586 Y-76.064
X33.439 Y-76.388
X34.32 Y-76.68
X35.226 Y-76.939
X36.153 Y-77.162
X37.099 Y-77.349
X38.059 Y-77.496
X39.032 Y-77.604
X40.015 Y-77.671
X41.006 Y-77.697
X42.001 Y-77.681
X42.998 Y-77.624
X43.996 Y-77.524
X44.993 Y-77.382
X45.985 Y-77.197
X46.971 Y-76.97
X47.95 Y-76.702
X48.918 Y-76.392
X49.875 Y-76.04
X50.817 Y-75.649
X51.745 Y-75.217
X52.654 Y-74.745
X53.545 Y-74.235
X54.415 Y-73.687
X55.262 Y-73.103
X56.077 Y-72.488
X56.667 Y-72.003
X56.804 Y-71.88
X57.147 Y-71.523
X57.433 Y-71.118
X57.655 Y-70.676
X57.808 Y-70.205
X57.907 Y-69.792
X58.074 Y-69.031
X58.238 Y-68.27
X58.469 Y-67.072
G3 X58.483 Y-66.886 I-1.256 J0.187
G1 Y-66.574
X58.504 Y-41.541
Y-41.231
G3 X58.49 Y-41.043 I-1.27 J0.001
G1 X58.459 Y-40.872
X58.238 Y-39.73
X58.074 Y-38.969
X57.907 Y-38.208
X57.749 Y-37.668
X57.673 Y-37.443
X57.573 Y-37.186
X57.46 Y-36.926
X57.316 Y-36.631
X57.156 Y-36.335
X56.961 Y-36.007
X56.738 Y-35.666
X56.484 Y-35.312
X56.183 Y-34.926
X55.857 Y-34.544
X55.487 Y-34.144
X55.063 Y-33.724
X54.601 Y-33.304
X54.105 Y-32.888
X53.552 Y-32.463
X52.943 Y-32.035
X52.285 Y-31.612
X51.593 Y-31.207
X50.865 Y-30.822
X50.089 Y-30.452
X49.268 Y-30.102
X48.409 Y-29.778
X47.517 Y-29.483
X46.594 Y-29.221
X45.646 Y-28.994
X44.676 Y-28.804
X43.688 Y-28.654
X42.685 Y-28.545
X41.671 Y-28.477
X40.647 Y-28.452
X39.618 Y-28.469
X38.585 Y-28.531
X37.552 Y-28.636
X36.52 Y-28.785
X35.493 Y-28.977
X34.472 Y-29.214
X33.459 Y-29.493
X32.457 Y-29.816
X31.468 Y-30.181
X30.493 Y-30.588
X29.535 Y-31.037
X28.595 Y-31.525
X27.685 Y-32.048
X26.913 Y-32.536
X26.332 Y-32.938
X26.172 Y-33.059
X25.856 Y-33.332
X25.577 Y-33.642
X25.339 Y-33.985
X25.146 Y-34.355
X25.001 Y-34.747
X24.877 Y-35.164
X24.667 Y-35.925
X24.564 Y-36.305
X24.371 Y-37.066
X24.227 Y-37.651
G3 X24.201 Y-37.882 I1.244 J-0.257
G1 X24.196 Y-38.147
X23.605 Y-67.011
X23.599 Y-67.285
G3 X23.615 Y-67.509 I1.27 J-0.026
G1 X23.688 Y-67.889
X23.845 Y-68.651
X23.926 Y-69.031
X24.098 Y-69.816
X24.184 Y-70.173
X24.298 Y-70.555
X24.371 Y-70.768
X24.466 Y-71.009
X24.575 Y-71.258
X24.709 Y-71.53
X24.866 Y-71.818
X25.047 Y-72.12
X25.265 Y-72.45
X25.502 Y-72.779
X25.786 Y-73.138
X26.103 Y-73.509
X26.452 Y-73.882
X26.854 Y-74.277
X27.302 Y-74.683
X27.777 Y-75.078
X28.31 Y-75.484
X28.899 Y-75.896
X29.541 Y-76.305
X30.214 Y-76.695
X30.931 Y-77.071
X31.7 Y-77.434
X32.517 Y-77.779
X33.376 Y-78.1
X34.272 Y-78.392
X35.201 Y-78.652
X36.158 Y-78.878
X37.14 Y-79.066
X38.14 Y-79.214
X39.157 Y-79.321
X40.186 Y-79.386
X41.227 Y-79.408
X42.276 Y-79.386
X43.331 Y-79.319
X44.388 Y-79.208
X45.447 Y-79.051
X46.502 Y-78.849
X47.553 Y-78.602
X48.595 Y-78.31
X49.628 Y-77.973
X50.648 Y-77.593
X51.654 Y-77.168
X52.643 Y-76.701
X53.614 Y-76.192
X54.555 Y-75.646
X55.251 Y-75.203
X55.804 Y-74.817
X55.893 Y-74.749
X56.206 Y-74.477
X56.483 Y-74.168
X56.719 Y-73.827
X56.911 Y-73.458
X57.054 Y-73.069
X57.123 Y-72.836
X57.333 Y-72.075
X57.434 Y-71.695
X57.629 Y-70.934
X57.808 Y-70.205
G3 X57.835 Y-69.95 I-1.243 J0.258
G1 X57.836 Y-69.708
X57.927 Y-38.705
X57.928 Y-38.44
G3 X57.907 Y-38.208 I-1.27 J0.004
G1 X57.816 Y-37.827
X57.629 Y-37.066
X57.434 Y-36.305
X57.333 Y-35.925
X57.179 Y-35.364
X57.079 Y-35.063
X57.002 Y-34.857
X56.902 Y-34.623
X56.789 Y-34.386
X56.648 Y-34.118
X56.491 Y-33.85
X56.299 Y-33.551
X56.085 Y-33.246
X55.837 Y-32.923
X55.546 Y-32.575
X55.234 Y-32.232
X54.87 Y-31.864
X54.459 Y-31.483
X54.023 Y-31.111
X53.529 Y-30.724
X52.975 Y-30.327
X52.381 Y-29.938
X51.75 Y-29.561
X51.058 Y-29.187
X50.31 Y-28.821
X49.509 Y-28.472
X48.662 Y-28.143
X47.784 Y-27.844
X46.877 Y-27.578
X45.93 Y-27.342
X44.948 Y-27.141
X43.937 Y-26.978
X42.901 Y-26.855
X41.846 Y-26.775
X40.776 Y-26.739
X39.695 Y-26.748
X38.607 Y-26.803
X37.514 Y-26.904
X36.421 Y-27.052
X35.33 Y-27.246
X34.243 Y-27.487
X33.164 Y-27.775
X32.094 Y-28.109
X31.037 Y-28.488
X29.997 Y-28.911
X29.005 Y-29.364
X28.172 Y-29.788
X27.561 Y-30.132
X27.248 Y-30.326
X26.89 Y-30.582
X26.569 Y-30.884
X26.292 Y-31.226
X26.062 Y-31.601
X25.884 Y-32.004
X25.842 Y-32.119
X25.619 Y-32.777
X25.459 Y-33.261
X25.22 Y-34.022
X25.104 Y-34.403
X25.001 Y-34.747
G3 X26.205 Y-36.337 I1.229 J-0.32
G1 X55.918 Y-36.928
G3 X57.179 Y-35.364 I0.025 J1.27
G1 X57.123 Y-35.164
X56.896 Y-34.403
X56.798 Y-34.08
X56.541 Y-33.261
X56.377 Y-32.765
X56.257 Y-32.46
X56.165 Y-32.252
X56.061 Y-32.041
X55.931 Y-31.802
X55.785 Y-31.561
X55.609 Y-31.293
X55.41 Y-31.018
X55.181 Y-30.727
X54.913 Y-30.415
X54.624 Y-30.107
X54.285 Y-29.774
X53.908 Y-29.433
X53.497 Y-29.092
X53.024 Y-28.731
X52.503 Y-28.368
X51.951 Y-28.016
X51.332 Y-27.658
X50.652 Y-27.302
X49.92 Y-26.957
X49.161 Y-26.637
X48.345 Y-26.333
X47.471 Y-26.048
X46.546 Y-25.79
X45.576 Y-25.562
X44.566 Y-25.369
X43.523 Y-25.215
X42.454 Y-25.103
X41.366 Y-25.035
X40.261 Y-25.012
X39.141 Y-25.036
X38.006 Y-25.109
X36.863 Y-25.23
X35.714 Y-25.401
X34.565 Y-25.621
X33.419 Y-25.892
X32.281 Y-26.211
X31.161 Y-26.577
X30.144 Y-26.957
X29.345 Y-27.295
X28.737 Y-27.582
X28.269 Y-27.828
X27.913 Y-28.067
X27.59 Y-28.351
X27.307 Y-28.674
X27.069 Y-29.031
X26.878 Y-29.416
X26.707 Y-29.836
X26.553 Y-30.217
X26.261 Y-30.978
X26.119 Y-31.358
X25.884 Y-32.004
G3 X27.059 Y-33.665 I1.208 J-0.392
G1 X55.126 Y-34.396
G3 X56.377 Y-32.765 I0.033 J1.27
G1 X56.288 Y-32.5
X56.159 Y-32.119
X55.881 Y-31.358
X55.739 Y-30.978
X55.446 Y-30.217
X55.32 Y-29.942
X55.216 Y-29.739
X55.1 Y-29.533
X54.956 Y-29.302
X54.796 Y-29.067
X54.606 Y-28.813
X54.389 Y-28.547
X54.145 Y-28.271
X53.857 Y-27.973
X53.55 Y-27.68
X53.188 Y-27.363
X52.788 Y-27.041
X52.356 Y-26.722
X51.86 Y-26.388
X51.314 Y-26.051
X50.738 Y-25.73
X50.092 Y-25.403
X49.376 Y-25.079
X48.612 Y-24.771
X47.815 Y-24.488
X46.951 Y-24.221
X46.026 Y-23.977
X45.048 Y-23.763
X44.024 Y-23.584
X42.961 Y-23.444
X41.869 Y-23.346
X40.756 Y-23.294
X39.621 Y-23.288
X38.461 Y-23.33
X37.281 Y-23.424
X36.087 Y-23.569
X34.886 Y-23.766
X33.685 Y-24.016
X32.514 Y-24.311
X31.486 Y-24.617
X30.647 Y-24.905
X30.035 Y-25.145
X29.581 Y-25.344
X29.549 Y-25.36
X29.179 Y-25.573
X28.839 Y-25.832
X28.536 Y-26.133
X28.274 Y-26.47
X28.058 Y-26.838
X27.889 Y-27.172
X27.707 Y-27.553
X27.521 Y-27.948
X27.356 Y-28.314
X27.02 Y-29.075
X26.878 Y-29.416
G3 X28.03 Y-31.132 I1.189 J-0.446
G1 X54.208 Y-31.9
G3 X55.446 Y-30.217 I0.037 J1.269
G1 X55.277 Y-29.795
X55.138 Y-29.456
X54.979 Y-29.075
X54.645 Y-28.314
X54.517 Y-28.032
X54.373 Y-27.724
X54.24 Y-27.474
X54.123 Y-27.276
X53.994 Y-27.076
X53.835 Y-26.852
X53.661 Y-26.626
X53.455 Y-26.38
X53.222 Y-26.126
X52.96 Y-25.862
X52.652 Y-25.579
X52.325 Y-25.301
X51.939 Y-25.001
X51.519 Y-24.701
X51.06 Y-24.402
X50.533 Y-24.089
X49.964 Y-23.784
X49.353 Y-23.487
X48.665 Y-23.189
X47.907 Y-22.897
X47.119 Y-22.631
X46.273 Y-22.385
X45.356 Y-22.16
X44.38 Y-21.963
X43.351 Y-21.8
X42.275 Y-21.675
X41.168 Y-21.594
X40.039 Y-21.559
X38.874 Y-21.572
X37.676 Y-21.635
X36.453 Y-21.752
X35.222 Y-21.921
X34.026 Y-22.138
X32.974 Y-22.374
X32.122 Y-22.604
X31.493 Y-22.802
X31.026 Y-22.971
X30.993 Y-22.984
X30.605 Y-23.174
X30.245 Y-23.413
X29.919 Y-23.696
X29.634 Y-24.02
X29.393 Y-24.379
X29.041 Y-24.982
X28.878 Y-25.27
X28.661 Y-25.664
X28.466 Y-26.031
X28.272 Y-26.411
X28.058 Y-26.838
G3 X29.166 Y-28.638 I1.154 J-0.531
G1 X53.16 Y-29.493
G3 X54.373 Y-27.724 I0.045 J1.269
G1 X54.292 Y-27.553
X54.111 Y-27.172
X53.728 Y-26.411
X53.533 Y-26.031
X53.332 Y-25.65
X53.123 Y-25.27
X52.911 Y-24.938
X52.777 Y-24.747
X52.618 Y-24.54
X52.441 Y-24.328
X52.229 Y-24.095
X52.001 Y-23.864
X51.726 Y-23.608
X51.433 Y-23.359
X51.088 Y-23.088
X50.708 Y-22.815
X50.29 Y-22.542
X49.808 Y-22.253
X49.297 Y-21.976
X48.728 Y-21.698
X48.083 Y-21.416
X47.397 Y-21.15
X46.66 Y-20.899
X45.843 Y-20.658
X44.953 Y-20.436
X44.01 Y-20.242
X43.042 Y-20.086
X42.011 Y-19.963
X40.918 Y-19.88
X39.772 Y-19.84
X38.583 Y-19.85
X37.372 Y-19.91
X36.178 Y-20.02
X35.05 Y-20.172
X34.063 Y-20.347
X33.372 Y-20.5
X32.828 Y-20.645
X32.726 Y-20.677
X32.343 Y-20.823
X31.981 Y-21.015
X31.646 Y-21.251
X31.342 Y-21.526
X31.075 Y-21.837
X30.943 Y-22.012
X30.787 Y-22.225
X30.562 Y-22.543
X30.182 Y-23.109
X29.778 Y-23.748
X29.539 Y-24.128
X29.393 Y-24.379
G3 X30.461 Y-26.247 I1.119 J-0.6
G1 X51.938 Y-27.11
G3 X53.123 Y-25.27 I0.051 J1.269
G1 X52.996 Y-25.047
X52.461 Y-24.128
X52.227 Y-23.748
X51.855 Y-23.167
X51.734 Y-22.987
X51.592 Y-22.778
X51.335 Y-22.44
X51.176 Y-22.248
X51.003 Y-22.055
X50.793 Y-21.841
X50.565 Y-21.627
X50.298 Y-21.397
X50.001 Y-21.161
X49.67 Y-20.921
X49.284 Y-20.665
X48.878 Y-20.419
X48.401 Y-20.157
X47.886 Y-19.902
X47.32 Y-19.651
X46.678 Y-19.398
X45.991 Y-19.16
X45.259 Y-18.94
X44.443 Y-18.732
X43.547 Y-18.544
X42.607 Y-18.387
X41.624 Y-18.265
X40.565 Y-18.178
X39.453 Y-18.134
X38.316 Y-18.137
X37.196 Y-18.187
X36.175 Y-18.276
X35.425 Y-18.373
X34.834 Y-18.475
X34.781 Y-18.486
X34.313 Y-18.624
X33.87 Y-18.83
X33.463 Y-19.098
X33.099 Y-19.424
X32.844 Y-19.69
X32.608 Y-19.942
X32.464 Y-20.108
X31.645 Y-21.084
X31.075 Y-21.837
G3 X32.053 Y-23.836 I1.039 J-0.73
G1 X50.457 Y-24.725
G3 X51.592 Y-22.778 I0.061 J1.269
G1 X51.214 Y-22.225
X51.095 Y-22.063
X50.355 Y-21.084
X50.043 Y-20.703
X49.574 Y-20.151
X49.184 Y-19.751
X48.992 Y-19.571
X48.761 Y-19.371
X48.512 Y-19.173
X48.219 Y-18.96
X47.898 Y-18.746
X47.533 Y-18.525
X47.12 Y-18.297
X46.673 Y-18.075
X46.15 Y-17.842
X45.605 Y-17.625
X44.989 Y-17.411
X44.291 Y-17.2
X43.569 Y-17.015
X42.769 Y-16.845
X41.885 Y-16.696
X40.939 Y-16.576
X39.968 Y-16.496
X39.005 Y-16.456
X38.116 Y-16.457
X37.628 Y-16.478
X37.185 Y-16.527
X36.751 Y-16.636
X36.337 Y-16.802
X35.949 Y-17.023
X35.886 Y-17.065
X35.586 Y-17.279
X35.067 Y-17.659
X34.745 Y-17.898
X34.58 Y-18.04
X33.722 Y-18.801
X33.604 Y-18.911
X33.333 Y-19.181
X33.099 Y-19.424
G3 X33.987 Y-21.541 I0.946 J-0.848
G1 X48.52 Y-22.208
G3 X49.574 Y-20.151 I0.058 J1.269
G1 X49.389 Y-19.942
X49.194 Y-19.726
X49.037 Y-19.562
X48.667 Y-19.181
X48.433 Y-18.948
X48.278 Y-18.801
X48.053 Y-18.592
X47.422 Y-18.04
X47.293 Y-17.932
X46.941 Y-17.659
X46.152 Y-17.095
X45.864 Y-16.898
X45.772 Y-16.845
X45.189 Y-16.517
X45.011 Y-16.417
X44.631 Y-16.236
X43.87 Y-15.903
X43.49 Y-15.773
X42.73 Y-15.558
X42.35 Y-15.492
X41.589 Y-15.384
X41.517 Y-15.376
X41.209 Y-15.374
X40.448 Y-15.384
X40.068 Y-15.427
X39.308 Y-15.554
X38.927 Y-15.649
X38.547 Y-15.761
X38.167 Y-15.888
X37.787 Y-16.046
X37.026 Y-16.396
X36.795 Y-16.517
X36.137 Y-16.898
X35.949 Y-17.023
G3 X35.445 Y-17.787 I0.738 J-1.034
G1 X24.188 Y-69.649
G3 X24.182 Y-69.677 I1.241 J-0.269
X24.184 Y-70.173 I1.247 J-0.242
G1 X24.371 Y-70.934
X24.564 Y-71.695
X24.667 Y-72.075
X24.859 Y-72.77
X24.952 Y-73.052
X25.026 Y-73.248
X25.122 Y-73.473
X25.231 Y-73.701
X25.365 Y-73.953
X25.518 Y-74.216
X25.698 Y-74.495
X25.91 Y-74.796
X26.143 Y-75.098
X26.422 Y-75.432
X26.725 Y-75.764
X27.07 Y-76.111
X27.467 Y-76.479
X27.891 Y-76.84
X28.363 Y-77.209
X28.897 Y-77.591
X29.482 Y-77.973
X30.094 Y-78.337
X30.769 Y-78.702
X31.505 Y-79.059
X32.295 Y-79.404
X33.134 Y-79.728
X34.002 Y-80.022
X34.905 Y-80.287
X35.854 Y-80.522
X36.84 Y-80.722
X37.859 Y-80.885
X38.904 Y-81.008
X39.972 Y-81.088
X41.057 Y-81.123
X42.156 Y-81.113
X43.265 Y-81.056
X44.381 Y-80.951
X45.499 Y-80.799
X46.617 Y-80.598
X47.731 Y-80.349
X48.84 Y-80.053
X49.939 Y-79.708
X51.027 Y-79.317
X52.098 Y-78.879
X53.095 Y-78.422
X53.921 Y-78.001
X54.521 Y-77.663
X54.826 Y-77.474
X55.194 Y-77.208
X55.522 Y-76.895
X55.804 Y-76.539
X56.035 Y-76.148
X56.21 Y-75.729
X56.418 Y-75.111
X56.541 Y-74.739
X56.798 Y-73.92
X56.896 Y-73.597
X57.054 Y-73.069
G3 X55.837 Y-71.478 I-1.229 J0.321
G1 X26.106 Y-71.205
G3 X24.859 Y-72.77 I-0.012 J-1.27
G1 X24.877 Y-72.836
X25.104 Y-73.597
X25.22 Y-73.978
X25.459 Y-74.739
X25.619 Y-75.223
X25.761 Y-75.583
X25.849 Y-75.782
X25.953 Y-75.991
X26.076 Y-76.217
X26.221 Y-76.458
X26.388 Y-76.71
X26.588 Y-76.985
X26.806 Y-77.261
X27.066 Y-77.563
X27.349 Y-77.865
X27.673 Y-78.183
X28.047 Y-78.52
X28.444 Y-78.849
X28.899 Y-79.195
X29.415 Y-79.553
X29.955 Y-79.896
X30.554 Y-80.242
X31.217 Y-80.589
X31.941 Y-80.929
X32.694 Y-81.245
X33.498 Y-81.543
X34.362 Y-81.824
X35.283 Y-82.08
X36.252 Y-82.306
X37.263 Y-82.498
X38.312 Y-82.651
X39.388 Y-82.763
X40.483 Y-82.83
X41.599 Y-82.852
X42.736 Y-82.826
X43.891 Y-82.751
X45.057 Y-82.626
X46.23 Y-82.45
X47.405 Y-82.223
X48.578 Y-81.945
X49.745 Y-81.615
X50.887 Y-81.241
X51.924 Y-80.852
X52.723 Y-80.513
X53.338 Y-80.221
X53.8 Y-79.978
X53.818 Y-79.968
X54.176 Y-79.726
X54.5 Y-79.44
X54.783 Y-79.115
X55.022 Y-78.754
X55.211 Y-78.366
X55.294 Y-78.164
X55.446 Y-77.783
X55.739 Y-77.022
X55.881 Y-76.642
X56.159 Y-75.881
X56.21 Y-75.729
G3 X55.016 Y-74.094 I-1.216 J0.365
G1 X26.859 Y-73.59
G3 X25.619 Y-75.223 I-0.023 J-1.27
G1 X25.842 Y-75.881
X26.119 Y-76.642
X26.261 Y-77.022
X26.488 Y-77.612
X26.651 Y-77.98
X26.747 Y-78.175
X26.854 Y-78.37
X26.988 Y-78.593
X27.136 Y-78.816
X27.315 Y-79.064
X27.514 Y-79.315
X27.745 Y-79.583
X28.01 Y-79.866
X28.301 Y-80.151
X28.645 Y-80.461
X29.011 Y-80.765
X29.427 Y-81.081
X29.901 Y-81.411
X30.401 Y-81.728
X30.958 Y-82.05
X31.584 Y-82.377
X32.263 Y-82.696
X32.973 Y-82.994
X33.756 Y-83.285
X34.608 Y-83.561
X35.519 Y-83.815
X36.476 Y-84.038
X37.458 Y-84.225
X38.487 Y-84.375
X39.564 Y-84.487
X40.682 Y-84.556
X41.833 Y-84.578
X43.011 Y-84.551
X44.21 Y-84.474
X45.424 Y-84.343
X46.648 Y-84.16
X47.872 Y-83.923
X49.07 Y-83.64
X50.185 Y-83.325
X51.152 Y-83.008
X51.819 Y-82.758
X52.334 Y-82.539
X52.513 Y-82.455
X52.894 Y-82.242
X53.244 Y-81.981
X53.556 Y-81.676
X53.825 Y-81.332
X54.046 Y-80.956
X54.111 Y-80.828
X54.292 Y-80.447
X54.517 Y-79.968
X54.645 Y-79.686
X54.979 Y-78.925
X55.138 Y-78.544
X55.211 Y-78.366
G3 X54.055 Y-76.657 I-1.191 J0.44
G1 X27.723 Y-75.929
G3 X26.488 Y-77.612 I-0.035 J-1.27
G1 X26.553 Y-77.783
X26.76 Y-78.294
X26.862 Y-78.544
X27.02 Y-78.925
X27.356 Y-79.686
X27.521 Y-80.052
X27.714 Y-80.424
X27.82 Y-80.609
X27.948 Y-80.812
X28.092 Y-81.02
X28.266 Y-81.251
X28.455 Y-81.48
X28.684 Y-81.736
X28.931 Y-81.988
X29.222 Y-82.262
X29.545 Y-82.542
X29.9 Y-82.824
X30.314 Y-83.126
X30.753 Y-83.418
X31.248 Y-83.719
X31.813 Y-84.03
X32.405 Y-84.325
X33.06 Y-84.617
X33.786 Y-84.904
X34.577 Y-85.18
X35.396 Y-85.428
X36.274 Y-85.653
X37.223 Y-85.855
X38.235 Y-86.026
X39.303 Y-86.16
X40.419 Y-86.253
X41.564 Y-86.3
X42.732 Y-86.299
X43.934 Y-86.248
X45.166 Y-86.143
X46.412 Y-85.984
X47.644 Y-85.774
X48.772 Y-85.532
X49.721 Y-85.287
X50.414 Y-85.076
X50.923 Y-84.898
X51.09 Y-84.832
X51.486 Y-84.643
X51.853 Y-84.403
X52.185 Y-84.117
X52.476 Y-83.789
X52.721 Y-83.425
X52.996 Y-82.953
X53.123 Y-82.73
X53.332 Y-82.35
X53.533 Y-81.969
X53.756 Y-81.532
X54.046 Y-80.956
G3 X52.937 Y-79.156 I-1.154 J0.531
G1 X28.741 Y-78.302
G3 X27.521 Y-80.052 I-0.045 J-1.269
G1 X27.707 Y-80.447
X27.901 Y-80.851
X28.281 Y-81.606
X28.466 Y-81.969
X28.669 Y-82.35
X28.784 Y-82.559
X28.991 Y-82.895
X29.114 Y-83.076
X29.264 Y-83.279
X29.429 Y-83.484
X29.629 Y-83.711
X29.844 Y-83.936
X30.102 Y-84.184
X30.38 Y-84.429
X30.702 Y-84.691
X31.065 Y-84.961
X31.46 Y-85.23
X31.918 Y-85.515
X32.406 Y-85.79
X32.945 Y-86.065
X33.558 Y-86.346
X34.213 Y-86.613
X34.917 Y-86.866
X35.704 Y-87.113
X36.569 Y-87.344
X37.468 Y-87.545
X38.418 Y-87.715
X39.438 Y-87.854
X40.521 Y-87.955
X41.66 Y-88.014
X42.845 Y-88.025
X44.062 Y-87.985
X45.279 Y-87.894
X46.452 Y-87.757
X47.528 Y-87.584
X48.374 Y-87.412
X49.029 Y-87.25
X49.361 Y-87.152
X49.757 Y-87.008
X50.131 Y-86.815
X50.478 Y-86.576
X50.791 Y-86.294
X51.066 Y-85.975
X51.095 Y-85.937
X51.214 Y-85.775
X51.734 Y-85.013
X51.855 Y-84.833
X52.236 Y-84.238
X52.461 Y-83.872
X52.721 Y-83.425
G3 X51.651 Y-81.556 I-1.119 J0.6
G1 X29.967 Y-80.717
G3 X28.784 Y-82.559 I-0.049 J-1.269
G1 X28.878 Y-82.73
X29.041 Y-83.018
X29.539 Y-83.872
X29.802 Y-84.291
X30.182 Y-84.891
X30.342 Y-85.129
X30.551 Y-85.409
X30.698 Y-85.589
X30.877 Y-85.791
X31.072 Y-85.992
X31.307 Y-86.216
X31.557 Y-86.435
X31.855 Y-86.674
X32.175 Y-86.91
X32.545 Y-87.159
X32.96 Y-87.414
X33.409 Y-87.664
X33.929 Y-87.927
X34.482 Y-88.176
X35.09 Y-88.421
X35.779 Y-88.665
X36.518 Y-88.893
X37.301 Y-89.098
X38.173 Y-89.288
X39.125 Y-89.454
X40.138 Y-89.587
X41.174 Y-89.679
X42.274 Y-89.73
X43.415 Y-89.735
X44.56 Y-89.691
X45.63 Y-89.606
X46.479 Y-89.502
X47.146 Y-89.392
X47.366 Y-89.346
X47.844 Y-89.208
X48.296 Y-89
X48.711 Y-88.726
X49.08 Y-88.393
X49.194 Y-88.274
X49.389 Y-88.058
X49.574 Y-87.849
X50.043 Y-87.297
X50.355 Y-86.916
X51.066 Y-85.975
G3 X50.081 Y-83.976 I-1.039 J0.73
G1 X31.474 Y-83.188
G3 X30.342 Y-85.129 I-0.054 J-1.269
G1 X30.562 Y-85.457
X30.787 Y-85.775
X30.943 Y-85.988
X31.645 Y-86.916
X32.283 Y-87.677
X32.584 Y-88.001
X32.76 Y-88.176
X32.976 Y-88.372
X33.206 Y-88.564
X33.484 Y-88.778
X33.778 Y-88.984
X34.128 Y-89.209
X34.501 Y-89.427
X34.931 Y-89.654
X35.411 Y-89.883
X35.93 Y-90.104
X36.534 Y-90.331
X37.169 Y-90.541
X37.867 Y-90.739
X38.652 Y-90.926
X39.5 Y-91.091
X40.376 Y-91.224
X41.33 Y-91.327
X42.329 Y-91.394
X43.313 Y-91.417
X44.176 Y-91.402
X44.625 Y-91.375
X45.084 Y-91.315
X45.529 Y-91.192
X45.953 Y-91.007
X46.347 Y-90.766
X46.941 Y-90.341
X47.293 Y-90.068
X47.422 Y-89.96
X48.053 Y-89.408
X48.278 Y-89.199
X48.433 Y-89.052
X48.667 Y-88.819
X49.061 Y-88.413
X49.08 Y-88.393
G3 X48.187 Y-86.28 I-0.949 J0.844
G1 X33.34 Y-85.627
G3 X32.283 Y-87.677 I-0.056 J-1.269
G1 X32.464 Y-87.892
X32.608 Y-88.058
X32.844 Y-88.31
X33.333 Y-88.819
X33.604 Y-89.089
X33.722 Y-89.199
X34.58 Y-89.96
X34.745 Y-90.102
X35.125 Y-90.384
X35.586 Y-90.721
X35.886 Y-90.935
X36.137 Y-91.102
X36.646 Y-91.397
X37.079 Y-91.619
X37.465 Y-91.797
X37.927 Y-91.987
X38.406 Y-92.161
X38.965 Y-92.338
X39.299 Y-92.428
X39.405 Y-92.455
X39.511 Y-92.478
X39.618 Y-92.497
G3 X40.112 Y-92.465 I0.165 J1.259
X40.227 Y-90.048 I-0.329 J1.227
G1 X37.764 Y-89.13
G3 X36.285 Y-91.057 I-0.444 J-1.19
X36.646 Y-91.397 I1.034 J0.737
G1 X36.795 Y-91.483
X37.026 Y-91.604
X37.787 Y-91.954
X38.167 Y-92.112
X38.547 Y-92.239
X38.927 Y-92.351
X39.308 Y-92.446
X40.068 Y-92.573
X40.448 Y-92.616
X41.209 Y-92.626
X41.517 Y-92.624
X41.589 Y-92.616
X42.35 Y-92.508
X42.73 Y-92.442
X43.49 Y-92.227
X43.87 Y-92.097
X44.631 Y-91.764
X45.011 Y-91.583
X45.772 Y-91.155
X45.864 Y-91.102
X46.152 Y-90.905
X46.347 Y-90.766
X46.408 Y-90.705 Z40.018
X46.467 Y-90.647 Z40.04
X46.522 Y-90.592 Z40.076
X46.572 Y-90.542 Z40.125
X46.607 Y-90.491 Z40.186
X46.635 Y-90.449 Z40.258
X46.656 Y-90.418 Z40.337
X46.669 Y-90.399 Z40.421
X46.673 Y-90.393 Z40.509
G0 Z52
X43.914 Y-59.094
Z43.78
G1 Z42.51 F850
G3 X38.086 Y-48.53 Z41.848 I-2.914 J5.282 F283.3
X43.914 Y-59.094 Z41.186 I2.914 J-5.282
X38.086 Y-48.53 Z40.525 I-2.914 J5.282
X43.914 Y-59.094 Z39.863 I2.914 J-5.282
X38.086 Y-48.53 Z39.201 I-2.914 J5.282
X43.914 Y-59.094 Z38.539 I2.914 J-5.282
X38.086 Y-48.53 Z37.877 I-2.914 J5.282
X43.914 Y-59.094 Z37.216 I2.914 J-5.282
X38.086 Y-48.53 Z36.554 I-2.914 J5.282
X43.914 Y-59.094 Z35.892 I2.914 J-5.282
X38.086 Y-48.53 Z35.23 I-2.914 J5.282
X43.914 Y-59.094 Z34.568 I2.914 J-5.282
X38.086 Y-48.53 Z33.907 I-2.914 J5.282
X43.914 Y-59.094 Z33.245 I2.914 J-5.282
X47.033 Y-53.812 Z33.02 I-2.914 J5.282
X34.968 I-6.032
X47.033 I6.032
G1 X47.048 Y-52.52 F850
X47.071 Y-52.443
X47.108 Y-52.298
X47.132 Y-52.15
X47.148 Y-52
X47.154 Y-51.851
X47.152 Y-51.701
X47.144 Y-51.551
X47.128 Y-51.402
X47.105 Y-51.246
X47.075 Y-51.083
X47.035 Y-50.915
X46.987 Y-50.741
X46.929 Y-50.562
X46.86 Y-50.378
X46.782 Y-50.192
X46.693 Y-50.003
X46.593 Y-49.812
X46.482 Y-49.62
X46.36 Y-49.428
X46.227 Y-49.236
X46.083 Y-49.047
X45.928 Y-48.859
X45.762 Y-48.675
X45.585 Y-48.495
X45.398 Y-48.32
X45.201 Y-48.15
X44.994 Y-47.987
X44.778 Y-47.83
X44.553 Y-47.681
X44.319 Y-47.54
X44.077 Y-47.408
X43.828 Y-47.285
X43.572 Y-47.172
X43.31 Y-47.068
X43.041 Y-46.976
X42.768 Y-46.894
X42.489 Y-46.823
X42.207 Y-46.764
X41.921 Y-46.717
X41.632 Y-46.681
X41.341 Y-46.658
X41.048 Y-46.646
X40.754 Y-46.648
X40.46 Y-46.661
X40.166 Y-46.687
X39.872 Y-46.725
X39.58 Y-46.776
X39.289 Y-46.839
X39.001 Y-46.914
X38.716 Y-47.002
X38.434 Y-47.101
X38.157 Y-47.213
X37.884 Y-47.336
X37.616 Y-47.471
X37.354 Y-47.616
X37.099 Y-47.773
X36.849 Y-47.941
X36.607 Y-48.119
X36.373 Y-48.307
X36.146 Y-48.505
X35.928 Y-48.713
X35.718 Y-48.929
X35.518 Y-49.154
X35.328 Y-49.388
X35.147 Y-49.629
X34.976 Y-49.878
X34.817 Y-50.134
X34.668 Y-50.396
X34.53 Y-50.665
X34.403 Y-50.939
X34.288 Y-51.218
X34.185 Y-51.502
X34.094 Y-51.79
X34.015 Y-52.082
X33.949 Y-52.376
X33.894 Y-52.674
X33.853 Y-52.973
X33.824 Y-53.274
X33.807 Y-53.576
X33.804 Y-53.878
X33.813 Y-54.18
X33.834 Y-54.481
X33.869 Y-54.782
X33.916 Y-55.08
X33.975 Y-55.377
X34.047 Y-55.671
X34.131 Y-55.961
X34.228 Y-56.248
X34.336 Y-56.53
X34.456 Y-56.807
X34.587 Y-57.08
X34.73 Y-57.346
X34.884 Y-57.606
X35.049 Y-57.86
X35.224 Y-58.106
X35.41 Y-58.345
X35.605 Y-58.576
X35.81 Y-58.799
X36.024 Y-59.012
X36.247 Y-59.217
X36.478 Y-59.412
X36.717 Y-59.597
X36.964 Y-59.771
X37.218 Y-59.936
X37.479 Y-60.089
X37.746 Y-60.232
X38.018 Y-60.363
X38.296 Y-60.482
X38.579 Y-60.59
X38.865 Y-60.686
X39.156 Y-60.769
X39.45 Y-60.841
X39.747 Y-60.9
X40.046 Y-60.946
X40.346 Y-60.98
X40.648 Y-61.001
X40.95 Y-61.009
X41.253 Y-61.005
X41.555 Y-60.988
X41.856 Y-60.959
X42.155 Y-60.916
X42.452 Y-60.861
X42.747 Y-60.794
X43.039 Y-60.715
X43.327 Y-60.623
X43.611 Y-60.519
X43.891 Y-60.403
X44.165 Y-60.276
X44.434 Y-60.137
X44.697 Y-59.988
X44.953 Y-59.827
X45.202 Y-59.655
X45.444 Y-59.474
X45.678 Y-59.282
X45.904 Y-59.081
X46.121 Y-58.87
X46.329 Y-58.65
X46.527 Y-58.422
X46.716 Y-58.186
X46.895 Y-57.942
X47.063 Y-57.691
X47.221 Y-57.433
X47.367 Y-57.168
X47.502 Y-56.897
X47.626 Y-56.622
X47.75 Y-56.311
X47.964 Y-55.703
X48.131 Y-55.156
X48.251 Y-54.693
X48.339 Y-54.285
X48.404 Y-53.906
X48.45 Y-53.55
X48.479 Y-53.213
X48.493 Y-52.887
Y-52.57
X48.481 Y-52.261
X48.456 Y-51.958
X48.419 Y-51.66
X48.37 Y-51.368
X48.309 Y-51.08
X48.236 Y-50.796
X48.152 Y-50.516
X48.056 Y-50.24
X47.948 Y-49.967
X47.828 Y-49.698
X47.697 Y-49.433
X47.554 Y-49.173
X47.399 Y-48.918
X47.233 Y-48.668
X47.056 Y-48.424
X46.867 Y-48.186
X46.666 Y-47.954
X46.455 Y-47.729
X46.233 Y-47.512
X46 Y-47.303
X45.757 Y-47.102
X45.504 Y-46.911
X45.241 Y-46.729
X44.97 Y-46.557
X44.689 Y-46.396
X44.4 Y-46.246
X44.104 Y-46.107
X43.8 Y-45.98
X43.49 Y-45.865
X43.174 Y-45.763
X42.852 Y-45.674
X42.525 Y-45.599
X42.194 Y-45.537
X41.859 Y-45.488
X41.522 Y-45.454
X41.182 Y-45.433
X40.841 Y-45.427
X40.499 Y-45.436
X40.157 Y-45.459
X39.814 Y-45.496
X39.473 Y-45.548
X39.134 Y-45.614
X38.797 Y-45.694
X38.463 Y-45.789
X38.133 Y-45.898
X37.807 Y-46.021
X37.486 Y-46.158
X37.171 Y-46.308
X36.862 Y-46.472
X36.56 Y-46.648
X36.265 Y-46.838
X35.977 Y-47.04
X35.699 Y-47.254
X35.429 Y-47.479
X35.169 Y-47.716
X34.919 Y-47.964
X34.679 Y-48.223
X34.451 Y-48.491
X34.233 Y-48.769
X34.028 Y-49.056
X33.834 Y-49.351
X33.653 Y-49.655
X33.485 Y-49.966
X33.33 Y-50.284
X33.189 Y-50.608
X33.061 Y-50.938
X32.947 Y-51.273
X32.847 Y-51.613
X32.762 Y-51.956
X32.691 Y-52.303
X32.635 Y-52.653
X32.593 Y-53.005
X32.567 Y-53.359
X32.555 Y-53.713
X32.558 Y-54.067
X32.576 Y-54.421
X32.609 Y-54.774
X32.656 Y-55.126
X32.719 Y-55.475
X32.796 Y-55.821
X32.887 Y-56.164
X32.993 Y-56.503
X33.113 Y-56.836
X33.247 Y-57.165
X33.394 Y-57.488
X33.555 Y-57.804
X33.729 Y-58.113
X33.917 Y-58.415
X34.116 Y-58.708
X34.328 Y-58.993
X34.551 Y-59.269
X34.786 Y-59.535
X35.032 Y-59.791
X35.288 Y-60.036
X35.555 Y-60.271
X35.831 Y-60.494
X36.116 Y-60.705
X36.41 Y-60.904
X36.712 Y-61.091
X37.021 Y-61.264
X37.338 Y-61.425
X37.661 Y-61.572
X37.99 Y-61.706
X38.324 Y-61.825
X38.663 Y-61.93
X39.006 Y-62.021
X39.353 Y-62.098
X39.703 Y-62.16
X40.054 Y-62.207
X40.408 Y-62.239
X40.762 Y-62.257
X41.117 Y-62.259
X41.472 Y-62.247
X41.826 Y-62.22
X42.179 Y-62.178
X42.529 Y-62.121
X42.877 Y-62.049
X43.221 Y-61.963
X43.562 Y-61.862
X43.898 Y-61.748
X44.228 Y-61.619
X44.554 Y-61.476
X44.872 Y-61.32
X45.185 Y-61.151
X45.489 Y-60.969
X45.786 Y-60.774
X46.074 Y-60.567
X46.353 Y-60.347
X46.623 Y-60.117
X46.883 Y-59.875
X47.133 Y-59.622
X47.372 Y-59.359
X47.603 Y-59.082
X47.846 Y-58.765
X48.088 Y-58.419
X48.321 Y-58.055
X48.543 Y-57.673
X48.751 Y-57.279
X48.942 Y-56.878
X49.114 Y-56.473
X49.266 Y-56.068
X49.398 Y-55.665
X49.511 Y-55.264
X49.605 Y-54.867
X49.681 Y-54.473
X49.74 Y-54.081
X49.782 Y-53.693
X49.807 Y-53.309
X49.816 Y-52.929
X49.808 Y-52.552
X49.786 Y-52.18
X49.748 Y-51.812
X49.694 Y-51.449
X49.626 Y-51.09
X49.544 Y-50.736
X49.447 Y-50.387
X49.335 Y-50.044
X49.21 Y-49.705
X49.07 Y-49.372
X48.917 Y-49.046
X48.749 Y-48.726
X48.569 Y-48.412
X48.374 Y-48.106
X48.167 Y-47.807
X47.946 Y-47.517
X47.713 Y-47.235
X47.467 Y-46.963
X47.209 Y-46.7
X46.939 Y-46.447
X46.658 Y-46.204
X46.366 Y-45.973
X46.062 Y-45.753
X45.749 Y-45.545
X45.425 Y-45.35
X45.093 Y-45.168
X44.751 Y-44.999
X44.402 Y-44.844
X44.045 Y-44.704
X43.681 Y-44.578
X43.311 Y-44.467
X42.935 Y-44.372
X42.554 Y-44.292
X42.169 Y-44.228
X41.78 Y-44.18
X41.389 Y-44.148
X40.995 Y-44.133
X40.601 Y-44.134
X40.205 Y-44.152
X39.81 Y-44.187
X39.416 Y-44.238
X39.023 Y-44.306
X38.633 Y-44.391
X38.246 Y-44.492
X37.862 Y-44.609
X37.484 Y-44.743
X37.111 Y-44.893
X36.744 Y-45.058
X36.383 Y-45.239
X36.03 Y-45.435
X35.686 Y-45.647
X35.35 Y-45.872
X35.023 Y-46.112
X34.707 Y-46.366
X34.401 Y-46.633
X34.106 Y-46.913
X33.823 Y-47.205
X33.553 Y-47.509
X33.295 Y-47.825
X33.051 Y-48.151
X32.82 Y-48.487
X32.604 Y-48.833
X32.402 Y-49.188
X32.216 Y-49.551
X32.044 Y-49.922
X31.889 Y-50.3
X31.749 Y-50.684
X31.625 Y-51.074
X31.518 Y-51.469
X31.428 Y-51.868
X31.354 Y-52.271
X31.298 Y-52.677
X31.258 Y-53.085
X31.236 Y-53.494
X31.231 Y-53.903
X31.243 Y-54.313
X31.272 Y-54.722
X31.319 Y-55.129
X31.382 Y-55.534
X31.463 Y-55.937
X31.56 Y-56.335
X31.674 Y-56.729
X31.805 Y-57.118
X31.951 Y-57.501
X32.114 Y-57.878
X32.292 Y-58.248
X32.486 Y-58.609
X32.695 Y-58.963
X32.919 Y-59.307
X33.156 Y-59.641
X33.408 Y-59.966
X33.673 Y-60.279
X33.951 Y-60.581
X34.242 Y-60.871
X34.544 Y-61.149
X34.858 Y-61.414
X35.182 Y-61.665
X35.517 Y-61.903
X35.862 Y-62.126
X36.216 Y-62.334
X36.578 Y-62.528
X36.948 Y-62.706
X37.325 Y-62.868
X37.709 Y-63.015
X38.098 Y-63.145
X38.493 Y-63.259
X38.892 Y-63.356
X39.295 Y-63.436
X39.701 Y-63.499
X40.109 Y-63.545
X40.518 Y-63.574
X40.929 Y-63.585
X41.339 Y-63.58
X41.75 Y-63.557
X42.158 Y-63.517
X42.565 Y-63.46
X42.969 Y-63.385
X43.369 Y-63.294
X43.766 Y-63.186
X44.157 Y-63.062
X44.543 Y-62.921
X44.922 Y-62.764
X45.295 Y-62.591
X45.66 Y-62.403
X46.017 Y-62.2
X46.366 Y-61.981
X46.709 Y-61.746
X47.046 Y-61.492
X47.378 Y-61.22
X47.703 Y-60.931
X48.02 Y-60.623
X48.329 Y-60.297
X48.629 Y-59.953
X48.917 Y-59.592
X49.193 Y-59.216
X49.454 Y-58.827
X49.698 Y-58.427
X49.926 Y-58.017
X50.135 Y-57.599
X50.326 Y-57.174
X50.498 Y-56.743
X50.651 Y-56.309
X50.785 Y-55.871
X50.899 Y-55.431
X50.994 Y-54.99
X51.07 Y-54.548
X51.127 Y-54.107
X51.165 Y-53.668
X51.184 Y-53.23
X51.185 Y-52.794
X51.168 Y-52.361
X51.132 Y-51.931
X51.079 Y-51.505
X51.009 Y-51.083
X50.92 Y-50.665
X50.815 Y-50.253
X50.693 Y-49.846
X50.554 Y-49.445
X50.398 Y-49.051
X50.226 Y-48.663
X50.038 Y-48.284
X49.833 Y-47.912
X49.614 Y-47.549
X49.378 Y-47.194
X49.128 Y-46.85
X48.863 Y-46.516
X48.584 Y-46.192
X48.29 Y-45.88
X47.984 Y-45.58
X47.663 Y-45.292
X47.331 Y-45.017
X46.986 Y-44.756
X46.629 Y-44.509
X46.261 Y-44.276
X45.883 Y-44.058
X45.495 Y-43.856
X45.097 Y-43.67
X44.691 Y-43.5
X44.277 Y-43.347
X43.856 Y-43.211
X43.428 Y-43.092
X42.994 Y-42.992
X42.555 Y-42.909
X42.113 Y-42.845
X41.666 Y-42.799
X41.217 Y-42.772
X40.766 Y-42.764
X40.315 Y-42.775
X39.863 Y-42.805
X39.412 Y-42.854
X38.962 Y-42.922
X38.515 Y-43.009
X38.071 Y-43.115
X37.631 Y-43.24
X37.196 Y-43.383
X36.767 Y-43.545
X36.344 Y-43.725
X35.929 Y-43.922
X35.522 Y-44.138
X35.123 Y-44.37
X34.735 Y-44.62
X34.357 Y-44.885
X33.99 Y-45.167
X33.634 Y-45.464
X33.292 Y-45.776
X32.962 Y-46.102
X32.646 Y-46.443
X32.345 Y-46.796
X32.058 Y-47.162
X31.787 Y-47.54
X31.532 Y-47.93
X31.293 Y-48.33
X31.071 Y-48.74
X30.867 Y-49.159
X30.68 Y-49.586
X30.511 Y-50.021
X30.361 Y-50.463
X30.229 Y-50.911
X30.117 Y-51.365
X30.023 Y-51.823
X29.949 Y-52.284
X29.894 Y-52.749
X29.858 Y-53.215
X29.842 Y-53.683
X29.846 Y-54.15
X29.87 Y-54.618
X29.913 Y-55.084
X29.976 Y-55.548
X30.058 Y-56.009
X30.159 Y-56.466
X30.28 Y-56.919
X30.42 Y-57.366
X30.578 Y-57.807
X30.755 Y-58.241
X30.949 Y-58.667
X31.162 Y-59.085
X31.392 Y-59.494
X31.639 Y-59.892
X31.902 Y-60.28
X32.181 Y-60.656
X32.477 Y-61.021
X32.787 Y-61.372
X33.111 Y-61.711
X33.45 Y-62.035
X33.802 Y-62.345
X34.167 Y-62.64
X34.543 Y-62.919
X34.931 Y-63.182
X35.33 Y-63.429
X35.739 Y-63.659
X36.157 Y-63.871
X36.584 Y-64.066
X37.019 Y-64.242
X37.46 Y-64.4
X37.908 Y-64.54
X38.362 Y-64.66
X38.82 Y-64.761
X39.282 Y-64.843
X39.746 Y-64.906
X40.214 Y-64.949
X40.682 Y-64.972
X41.151 Y-64.975
X41.62 Y-64.959
X42.088 Y-64.923
X42.554 Y-64.868
X43.017 Y-64.793
X43.476 Y-64.698
X43.931 Y-64.585
X44.382 Y-64.452
X44.826 Y-64.3
X45.266 Y-64.129
X45.7 Y-63.939
X46.128 Y-63.73
X46.549 Y-63.502
X46.964 Y-63.254
X47.372 Y-62.986
X47.772 Y-62.699
X48.163 Y-62.392
X48.544 Y-62.067
X48.914 Y-61.723
X49.271 Y-61.362
X49.614 Y-60.984
X49.943 Y-60.59
X50.255 Y-60.182
X50.551 Y-59.76
X50.829 Y-59.326
X51.089 Y-58.881
X51.329 Y-58.425
X51.55 Y-57.961
X51.751 Y-57.488
X51.931 Y-57.01
X52.09 Y-56.525
X52.228 Y-56.037
X52.345 Y-55.545
X52.441 Y-55.05
X52.515 Y-54.554
X52.569 Y-54.056
X52.602 Y-53.559
X52.613 Y-53.063
X52.604 Y-52.568
X52.574 Y-52.076
X52.523 Y-51.587
X52.453 Y-51.101
X52.362 Y-50.62
X52.251 Y-50.144
X52.12 Y-49.673
X51.97 Y-49.209
X51.801 Y-48.752
X51.612 Y-48.303
X51.405 Y-47.862
X51.18 Y-47.43
X50.936 Y-47.008
X50.675 Y-46.596
X50.397 Y-46.195
X50.102 Y-45.806
X49.79 Y-45.429
X49.462 Y-45.065
X49.118 Y-44.714
X48.76 Y-44.378
X48.387 Y-44.056
X48 Y-43.75
X47.6 Y-43.46
X47.187 Y-43.186
X46.761 Y-42.929
X46.325 Y-42.69
X45.878 Y-42.469
X45.421 Y-42.266
X44.954 Y-42.082
X44.48 Y-41.918
X43.998 Y-41.773
X43.509 Y-41.649
X43.014 Y-41.545
X42.514 Y-41.462
X42.01 Y-41.399
X41.503 Y-41.358
X40.993 Y-41.338
X40.482 Y-41.339
X39.971 Y-41.362
X39.46 Y-41.407
X38.95 Y-41.473
X38.443 Y-41.561
X37.939 Y-41.67
X37.44 Y-41.8
X36.946 Y-41.951
X36.457 Y-42.124
X35.976 Y-42.316
X35.502 Y-42.53
X35.038 Y-42.763
X34.583 Y-43.016
X34.138 Y-43.288
X33.705 Y-43.579
X33.284 Y-43.888
X32.876 Y-44.214
X32.482 Y-44.558
X32.102 Y-44.919
X31.738 Y-45.295
X31.389 Y-45.687
X31.057 Y-46.093
X30.742 Y-46.514
X30.445 Y-46.947
X30.166 Y-47.393
X29.905 Y-47.85
X29.665 Y-48.318
X29.443 Y-48.796
X29.243 Y-49.283
X29.062 Y-49.779
X28.903 Y-50.282
X28.765 Y-50.791
X28.648 Y-51.305
X28.553 Y-51.825
X28.48 Y-52.348
X28.429 Y-52.874
X28.399 Y-53.401
X28.393 Y-53.93
X28.408 Y-54.458
X28.446 Y-54.986
X28.505 Y-55.511
X28.587 Y-56.034
X28.691 Y-56.552
X28.816 Y-57.067
X28.963 Y-57.575
X29.131 Y-58.077
X29.32 Y-58.571
X29.53 Y-59.057
X29.76 Y-59.534
X30.01 Y-60.001
X30.279 Y-60.457
X30.568 Y-60.901
X30.874 Y-61.333
X31.199 Y-61.752
X31.541 Y-62.157
X31.899 Y-62.547
X32.274 Y-62.921
X32.664 Y-63.28
X33.069 Y-63.621
X33.488 Y-63.946
X33.92 Y-64.253
X34.365 Y-64.541
X34.821 Y-64.81
X35.289 Y-65.06
X35.766 Y-65.29
X36.253 Y-65.5
X36.748 Y-65.689
X37.251 Y-65.857
X37.76 Y-66.004
X38.275 Y-66.129
X38.795 Y-66.233
X39.318 Y-66.315
X39.845 Y-66.374
X40.374 Y-66.412
X40.904 Y-66.427
X41.434 Y-66.42
X41.963 Y-66.391
X42.491 Y-66.339
X43.016 Y-66.265
X43.539 Y-66.169
X44.059 Y-66.051
X44.574 Y-65.911
X45.084 Y-65.749
X45.589 Y-65.565
X46.089 Y-65.359
X46.581 Y-65.131
X47.066 Y-64.881
X47.543 Y-64.61
X48.011 Y-64.317
X48.468 Y-64.002
X48.915 Y-63.667
X49.349 Y-63.312
X49.77 Y-62.937
X50.176 Y-62.544
X50.566 Y-62.132
X50.94 Y-61.703
X51.296 Y-61.258
X51.634 Y-60.797
X51.953 Y-60.323
X52.251 Y-59.835
X52.528 Y-59.336
X52.784 Y-58.825
X53.018 Y-58.305
X53.229 Y-57.777
X53.418 Y-57.241
X53.584 Y-56.699
X53.726 Y-56.152
X53.845 Y-55.6
X53.941 Y-55.045
X54.013 Y-54.488
X54.061 Y-53.93
X54.086 Y-53.372
X54.088 Y-52.815
X54.066 Y-52.259
X54.02 Y-51.705
X53.952 Y-51.155
X53.861 Y-50.609
X53.747 Y-50.068
X53.61 Y-49.533
X53.452 Y-49.004
X53.271 Y-48.483
X53.069 Y-47.971
X52.845 Y-47.467
X52.601 Y-46.973
X52.336 Y-46.49
X52.05 Y-46.019
X51.745 Y-45.559
X51.421 Y-45.112
X51.078 Y-44.679
X50.717 Y-44.26
X50.338 Y-43.857
X49.942 Y-43.469
X49.529 Y-43.098
X49.1 Y-42.743
X48.656 Y-42.407
X48.198 Y-42.089
X47.726 Y-41.79
X47.241 Y-41.51
X46.743 Y-41.251
X46.234 Y-41.012
X45.715 Y-40.795
X45.186 Y-40.599
X44.648 Y-40.425
X44.102 Y-40.274
X43.55 Y-40.145
X42.991 Y-40.04
X42.428 Y-39.958
X41.86 Y-39.9
X41.29 Y-39.865
X40.718 Y-39.855
X40.144 Y-39.868
X39.571 Y-39.906
X38.999 Y-39.968
X38.43 Y-40.054
X37.863 Y-40.164
X37.301 Y-40.298
X36.744 Y-40.456
X36.194 Y-40.637
X35.651 Y-40.841
X35.116 Y-41.068
X34.591 Y-41.318
X34.076 Y-41.59
X33.573 Y-41.884
X33.082 Y-42.199
X32.604 Y-42.534
X32.14 Y-42.89
X31.691 Y-43.265
X31.257 Y-43.659
X30.841 Y-44.072
X30.442 Y-44.501
X30.061 Y-44.948
X29.698 Y-45.41
X29.356 Y-45.888
X29.033 Y-46.379
X28.731 Y-46.885
X28.451 Y-47.402
X28.193 Y-47.932
X27.956 Y-48.472
X27.743 Y-49.021
X27.553 Y-49.58
X27.386 Y-50.146
X27.243 Y-50.718
X27.125 Y-51.297
X27.031 Y-51.88
X26.961 Y-52.467
X26.916 Y-53.056
X26.896 Y-53.647
X26.901 Y-54.238
X26.93 Y-54.829
X26.984 Y-55.418
X27.063 Y-56.004
X27.167 Y-56.587
X27.295 Y-57.165
X27.447 Y-57.737
X27.624 Y-58.302
X27.823 Y-58.86
X28.046 Y-59.408
X28.292 Y-59.947
X28.561 Y-60.475
X28.851 Y-60.992
X29.163 Y-61.495
X29.496 Y-61.986
X29.849 Y-62.462
X30.222 Y-62.922
X30.614 Y-63.367
X31.024 Y-63.795
X31.452 Y-64.205
X31.896 Y-64.597
X32.357 Y-64.97
X32.833 Y-65.323
X33.324 Y-65.656
X33.828 Y-65.968
X34.345 Y-66.259
X34.873 Y-66.527
X35.413 Y-66.773
X35.962 Y-66.997
X36.52 Y-67.197
X37.087 Y-67.373
X37.66 Y-67.526
X38.239 Y-67.654
X38.822 Y-67.758
X39.41 Y-67.837
X40.001 Y-67.891
X40.594 Y-67.921
X41.187 Y-67.926
X41.781 Y-67.905
X42.374 Y-67.86
X42.966 Y-67.79
X43.556 Y-67.695
X44.142 Y-67.574
X44.724 Y-67.429
X45.301 Y-67.259
X45.873 Y-67.065
X46.438 Y-66.845
X46.995 Y-66.601
X47.545 Y-66.333
X48.084 Y-66.041
X48.613 Y-65.725
X49.13 Y-65.386
X49.634 Y-65.024
X50.124 Y-64.64
X50.599 Y-64.234
X51.058 Y-63.808
X51.5 Y-63.362
X51.923 Y-62.897
X52.327 Y-62.413
X52.711 Y-61.913
X53.073 Y-61.396
X53.414 Y-60.865
X53.732 Y-60.32
X54.027 Y-59.762
X54.297 Y-59.192
X54.544 Y-58.613
X54.765 Y-58.024
X54.962 Y-57.426
X55.133 Y-56.822
X55.278 Y-56.213
X55.397 Y-55.598
X55.491 Y-54.981
X55.558 Y-54.36
X55.599 Y-53.739
X55.613 Y-53.117
X55.602 Y-52.496
X55.565 Y-51.877
X55.501 Y-51.261
X55.412 Y-50.649
X55.298 Y-50.041
X55.158 Y-49.44
X54.993 Y-48.845
X54.803 Y-48.258
X54.589 Y-47.68
X54.351 Y-47.111
X54.089 Y-46.553
X53.804 Y-46.007
X53.496 Y-45.472
X53.166 Y-44.951
X52.814 Y-44.444
X52.441 Y-43.952
X52.047 Y-43.476
X51.634 Y-43.016
X51.2 Y-42.573
X50.748 Y-42.149
X50.278 Y-41.743
X49.791 Y-41.357
X49.287 Y-40.992
X48.768 Y-40.647
X48.234 Y-40.324
X47.686 Y-40.023
X47.125 Y-39.746
X46.552 Y-39.491
X45.967 Y-39.261
X45.373 Y-39.055
X44.769 Y-38.874
X44.158 Y-38.718
X43.539 Y-38.587
X42.915 Y-38.483
X42.285 Y-38.405
X41.652 Y-38.353
X41.017 Y-38.328
X40.38 Y-38.33
X39.742 Y-38.358
X39.106 Y-38.413
X38.472 Y-38.495
X37.84 Y-38.604
X37.213 Y-38.739
X36.592 Y-38.901
X35.977 Y-39.089
X35.369 Y-39.303
X34.771 Y-39.543
X34.182 Y-39.808
X33.605 Y-40.097
X33.04 Y-40.411
X32.487 Y-40.749
X31.949 Y-41.11
X31.427 Y-41.493
X30.92 Y-41.899
X30.43 Y-42.326
X29.958 Y-42.773
X29.506 Y-43.24
X29.073 Y-43.726
X28.66 Y-44.231
X28.269 Y-44.752
X27.9 Y-45.29
X27.553 Y-45.843
X27.23 Y-46.411
X26.931 Y-46.991
X26.656 Y-47.585
X26.407 Y-48.189
X26.183 Y-48.804
X25.985 Y-49.428
X25.813 Y-50.059
X25.668 Y-50.698
X25.55 Y-51.343
X25.458 Y-51.992
X25.395 Y-52.644
X25.358 Y-53.299
X25.35 Y-53.955
X25.369 Y-54.611
X25.415 Y-55.265
X25.489 Y-55.918
X25.59 Y-56.566
X25.719 Y-57.21
X25.874 Y-57.848
X26.056 Y-58.48
X26.265 Y-59.103
X26.499 Y-59.716
X26.759 Y-60.32
X27.045 Y-60.912
X27.354 Y-61.492
X27.689 Y-62.058
X28.046 Y-62.609
X28.427 Y-63.146
X28.829 Y-63.665
X29.254 Y-64.168
X29.698 Y-64.652
X30.163 Y-65.117
X30.648 Y-65.562
X31.15 Y-65.987
X31.67 Y-66.39
X32.206 Y-66.771
X32.758 Y-67.129
X33.325 Y-67.463
X33.905 Y-67.774
X34.497 Y-68.059
X35.101 Y-68.32
X35.716 Y-68.555
X36.34 Y-68.764
X36.972 Y-68.947
X37.611 Y-69.103
X38.257 Y-69.232
X38.908 Y-69.333
X39.562 Y-69.408
X40.22 Y-69.455
X40.879 Y-69.474
X41.54 Y-69.465
X42.201 Y-69.429
X42.86 Y-69.365
X43.517 Y-69.273
X44.172 Y-69.153
X44.822 Y-69.006
X45.467 Y-68.83
X46.106 Y-68.628
X46.738 Y-68.398
X47.362 Y-68.141
X47.975 Y-67.857
X48.579 Y-67.546
X49.17 Y-67.21
X49.749 Y-66.848
X50.313 Y-66.46
X50.862 Y-66.049
X51.395 Y-65.613
X51.91 Y-65.155
X52.406 Y-64.674
X52.882 Y-64.172
X53.338 Y-63.65
X53.771 Y-63.109
X54.182 Y-62.549
X54.569 Y-61.973
X54.932 Y-61.38
X55.269 Y-60.773
X55.581 Y-60.152
X55.866 Y-59.52
X56.124 Y-58.876
X56.354 Y-58.222
X56.557 Y-57.56
X56.731 Y-56.89
X56.878 Y-56.215
X56.995 Y-55.535
X57.084 Y-54.851
X57.143 Y-54.165
X57.174 Y-53.478
X57.176 Y-52.791
X57.149 Y-52.105
X57.094 Y-51.421
X57.01 Y-50.741
X56.897 Y-50.066
X56.756 Y-49.396
X56.587 Y-48.734
X56.391 Y-48.079
X56.168 Y-47.433
X55.917 Y-46.798
X55.64 Y-46.173
X55.337 Y-45.561
X55.009 Y-44.962
X54.655 Y-44.377
X54.278 Y-43.807
X53.876 Y-43.253
X53.451 Y-42.716
X53.004 Y-42.198
X52.535 Y-41.698
X52.044 Y-41.217
X51.534 Y-40.758
X51.004 Y-40.319
X50.456 Y-39.903
X49.89 Y-39.51
X49.307 Y-39.141
X48.708 Y-38.796
X48.095 Y-38.476
X47.468 Y-38.181
X46.828 Y-37.913
X46.177 Y-37.672
X45.515 Y-37.457
X44.843 Y-37.271
X44.164 Y-37.113
X43.477 Y-36.983
X42.785 Y-36.882
X42.088 Y-36.81
X41.388 Y-36.768
X40.686 Y-36.755
X39.982 Y-36.771
X39.28 Y-36.817
X38.579 Y-36.893
X37.88 Y-36.998
X37.186 Y-37.132
X36.498 Y-37.296
X35.816 Y-37.489
X35.142 Y-37.71
X34.477 Y-37.96
X33.823 Y-38.238
X33.18 Y-38.543
X32.55 Y-38.876
X31.934 Y-39.235
X31.334 Y-39.62
X30.749 Y-40.03
X30.182 Y-40.465
X29.632 Y-40.923
X29.103 Y-41.405
X28.593 Y-41.908
X28.105 Y-42.433
X27.639 Y-42.979
X27.197 Y-43.544
X26.778 Y-44.127
X26.383 Y-44.728
X26.014 Y-45.345
X25.672 Y-45.977
X25.355 Y-46.624
X25.067 Y-47.283
X24.806 Y-47.955
X24.573 Y-48.637
X24.369 Y-49.328
X24.195 Y-50.028
X24.049 Y-50.735
X23.934 Y-51.447
X23.849 Y-52.164
X23.794 Y-52.884
X23.769 Y-53.605
X23.774 Y-54.328
X23.81 Y-55.049
X23.876 Y-55.769
X23.972 Y-56.485
X24.099 Y-57.197
X24.255 Y-57.903
X24.441 Y-58.602
X24.656 Y-59.293
X24.899 Y-59.974
X25.172 Y-60.644
X25.472 Y-61.303
X25.799 Y-61.948
X26.154 Y-62.579
X26.535 Y-63.195
X26.941 Y-63.794
X27.372 Y-64.375
X27.827 Y-64.938
X28.306 Y-65.482
X28.807 Y-66.005
X29.329 Y-66.506
X29.873 Y-66.985
X30.436 Y-67.441
X31.017 Y-67.873
X31.616 Y-68.28
X32.232 Y-68.661
X32.863 Y-69.016
X33.509 Y-69.345
X34.168 Y-69.646
X34.839 Y-69.919
X35.521 Y-70.164
X36.213 Y-70.38
X36.914 Y-70.566
X37.622 Y-70.723
X38.336 Y-70.851
X39.055 Y-70.948
X39.779 Y-71.015
X40.505 Y-71.051
X41.234 Y-71.057
X41.962 Y-71.033
X42.69 Y-70.978
X43.417 Y-70.892
X44.14 Y-70.775
X44.86 Y-70.628
X45.574 Y-70.45
X46.282 Y-70.242
X46.982 Y-70.004
X47.673 Y-69.736
X48.354 Y-69.438
X49.023 Y-69.111
X49.68 Y-68.756
X50.323 Y-68.372
X50.951 Y-67.961
X51.562 Y-67.523
X52.155 Y-67.058
X52.729 Y-66.569
X53.283 Y-66.054
X53.816 Y-65.516
X54.326 Y-64.956
X54.813 Y-64.374
X55.275 Y-63.772
X55.711 Y-63.15
X56.122 Y-62.511
X56.505 Y-61.854
X56.86 Y-61.183
X57.187 Y-60.497
X57.484 Y-59.798
X57.752 Y-59.087
X57.989 Y-58.367
X58.196 Y-57.637
X58.372 Y-56.9
X58.516 Y-56.157
X58.629 Y-55.409
X58.711 Y-54.658
X58.761 Y-53.904
X58.779 Y-53.15
X58.766 Y-52.396
X58.72 Y-51.644
X58.644 Y-50.895
X58.536 Y-50.15
X58.397 Y-49.411
X58.227 Y-48.679
X58.026 Y-47.954
X57.795 Y-47.239
X57.535 Y-46.535
X57.245 Y-45.842
X56.926 Y-45.162
X56.579 Y-44.495
X56.204 Y-43.844
X55.802 Y-43.209
X55.374 Y-42.591
X54.919 Y-41.992
X54.44 Y-41.411
X53.936 Y-40.851
X53.409 Y-40.312
X52.859 Y-39.795
X52.288 Y-39.302
X51.695 Y-38.832
X51.083 Y-38.388
X50.452 Y-37.969
X49.804 Y-37.576
X49.138 Y-37.211
X48.457 Y-36.873
X47.762 Y-36.564
X47.053 Y-36.284
X46.333 Y-36.034
X45.601 Y-35.814
X44.86 Y-35.625
X44.111 Y-35.467
X43.355 Y-35.34
X42.593 Y-35.246
X41.828 Y-35.183
X41.059 Y-35.152
X40.288 Y-35.154
X39.518 Y-35.188
X38.749 Y-35.254
X37.982 Y-35.353
X37.219 Y-35.484
X36.462 Y-35.647
X35.711 Y-35.843
X34.969 Y-36.069
X34.236 Y-36.327
X33.513 Y-36.616
X32.803 Y-36.935
X32.106 Y-37.284
X31.424 Y-37.663
X30.758 Y-38.07
X30.109 Y-38.505
X29.479 Y-38.967
X28.867 Y-39.456
X28.277 Y-39.97
X27.708 Y-40.509
X27.162 Y-41.072
X26.64 Y-41.658
X26.143 Y-42.265
X25.671 Y-42.893
X25.226 Y-43.541
X24.808 Y-44.208
X24.419 Y-44.891
X24.058 Y-45.591
X23.727 Y-46.305
X23.426 Y-47.033
X23.156 Y-47.774
X22.917 Y-48.525
X22.71 Y-49.286
X22.535 Y-50.055
X22.473 Y-50.389
X22.449 Y-50.541
X22.432 Y-50.693
X22.422 Y-50.847
X22.409 Y-51.146
X22.385 Y-51.907
X22.366 Y-52.668
X22.358 Y-53.049
X22.356 Y-53.81
Y-54.19
X22.357 Y-54.571
X22.425 Y-55.861
X22.481 Y-56.511
X22.567 Y-57.18
X22.684 Y-57.864
X22.833 Y-58.556
X23.014 Y-59.252
X23.226 Y-59.949
X23.471 Y-60.645
X23.747 Y-61.338
X24.057 Y-62.027
X24.398 Y-62.708
X24.77 Y-63.38
X25.172 Y-64.039
X25.604 Y-64.684
X26.064 Y-65.313
X26.552 Y-65.924
X27.067 Y-66.515
X27.607 Y-67.085
X28.172 Y-67.633
X28.759 Y-68.158
X29.369 Y-68.658
X30 Y-69.132
X30.651 Y-69.58
X31.321 Y-70
X32.008 Y-70.392
X32.711 Y-70.755
X33.429 Y-71.088
X34.161 Y-71.391
X34.905 Y-71.663
X35.66 Y-71.904
X36.425 Y-72.112
X37.199 Y-72.289
X37.98 Y-72.433
X38.767 Y-72.544
X39.558 Y-72.622
X40.353 Y-72.667
X41.15 Y-72.678
X41.948 Y-72.656
X42.745 Y-72.6
X43.541 Y-72.51
X44.333 Y-72.387
X45.121 Y-72.231
X45.904 Y-72.041
X46.679 Y-71.818
X47.446 Y-71.562
X48.202 Y-71.274
X48.948 Y-70.953
X49.681 Y-70.601
X50.4 Y-70.217
X51.104 Y-69.803
X51.791 Y-69.359
X52.46 Y-68.885
X53.109 Y-68.383
X53.738 Y-67.853
X54.344 Y-67.296
X54.928 Y-66.714
X55.487 Y-66.107
X56.02 Y-65.477
X56.527 Y-64.824
X57.006 Y-64.151
X57.457 Y-63.457
X57.878 Y-62.746
X58.269 Y-62.017
X58.629 Y-61.272
X58.957 Y-60.513
X59.253 Y-59.741
X59.333 Y-59.505
X59.412 Y-59.228
X59.468 Y-58.944
X59.498 Y-58.657
X59.539 Y-57.996
X59.575 Y-57.235
X59.591 Y-56.854
X59.615 Y-56.093
X59.625 Y-55.712
X59.642 Y-54.951
X59.644 Y-54.19
Y-53.81
X59.642 Y-53.049
X59.625 Y-52.288
X59.615 Y-51.907
X59.591 Y-51.146
X59.575 Y-50.765
X59.539 Y-50.004
X59.492 Y-49.243
X59.384 Y-48.313
X59.304 Y-47.811
X59.201 Y-47.301
X59.066 Y-46.753
X58.898 Y-46.175
X58.696 Y-45.578
X58.466 Y-44.98
X58.201 Y-44.369
X57.898 Y-43.745
X57.559 Y-43.115
X57.184 Y-42.484
X56.775 Y-41.856
X56.332 Y-41.236
X55.857 Y-40.626
X55.351 Y-40.03
X54.816 Y-39.45
X54.252 Y-38.889
X53.661 Y-38.349
X53.045 Y-37.831
X52.404 Y-37.337
X51.74 Y-36.868
X51.055 Y-36.426
X50.349 Y-36.012
X49.624 Y-35.626
X48.881 Y-35.27
X48.123 Y-34.945
X47.349 Y-34.652
X46.562 Y-34.391
X45.764 Y-34.162
X44.955 Y-33.967
X44.138 Y-33.806
X43.313 Y-33.68
X42.483 Y-33.587
X41.648 Y-33.53
X40.81 Y-33.508
X39.971 Y-33.521
X39.133 Y-33.569
X38.296 Y-33.653
X37.462 Y-33.772
X36.634 Y-33.926
X35.812 Y-34.115
X34.997 Y-34.338
X34.192 Y-34.596
X33.398 Y-34.888
X32.615 Y-35.213
X31.847 Y-35.57
X31.094 Y-35.961
X30.357 Y-36.382
X29.637 Y-36.835
X28.937 Y-37.318
X28.258 Y-37.831
X27.6 Y-38.371
X26.965 Y-38.94
X26.354 Y-39.535
X25.768 Y-40.155
X25.209 Y-40.8
X24.676 Y-41.468
X24.172 Y-42.159
X23.698 Y-42.87
X23.405 Y-43.351
X23.194 Y-43.76
X23.041 Y-44.193
X22.951 Y-44.644
X22.898 Y-45.057
X22.807 Y-45.819
X22.765 Y-46.199
X22.69 Y-46.96
X22.618 Y-47.721
X22.586 Y-48.102
X22.533 Y-48.863
X22.508 Y-49.243
X22.461 Y-50.004
X22.422 Y-50.847
X22.413 Y-51.345
X22.366 Y-54.072
X22.357 Y-54.571
X22.358 Y-54.951
X22.375 Y-55.712
X22.385 Y-56.093
X22.409 Y-56.854
X22.425 Y-57.235
X22.461 Y-57.996
X22.508 Y-58.757
X22.533 Y-59.137
X22.586 Y-59.898
X22.618 Y-60.279
X22.654 Y-60.659
X22.749 Y-61.309
X22.813 Y-61.649
X22.902 Y-62.029
X23.014 Y-62.435
X23.152 Y-62.859
X23.325 Y-63.326
X23.525 Y-63.804
X23.758 Y-64.3
X24.033 Y-64.826
X24.348 Y-65.374
X24.696 Y-65.922
X25.078 Y-66.472
X25.503 Y-67.032
X25.968 Y-67.594
X26.472 Y-68.153
X27.011 Y-68.704
X27.585 Y-69.243
X28.191 Y-69.765
X28.827 Y-70.269
X29.49 Y-70.749
X30.178 Y-71.205
X30.889 Y-71.635
X31.623 Y-72.037
X32.377 Y-72.41
X33.15 Y-72.753
X33.94 Y-73.064
X34.745 Y-73.343
X35.563 Y-73.588
X36.393 Y-73.799
X37.233 Y-73.976
X38.081 Y-74.117
X38.936 Y-74.223
X39.796 Y-74.293
X40.66 Y-74.327
X41.526 Y-74.325
X42.393 Y-74.286
X43.259 Y-74.21
X44.122 Y-74.098
X44.982 Y-73.95
X45.836 Y-73.765
X46.683 Y-73.544
X47.522 Y-73.287
X48.351 Y-72.995
X49.168 Y-72.667
X49.972 Y-72.305
X50.762 Y-71.909
X51.535 Y-71.479
X52.292 Y-71.016
X53.029 Y-70.521
X53.746 Y-69.995
X54.441 Y-69.438
X55.113 Y-68.852
X55.76 Y-68.237
X56.382 Y-67.595
X56.976 Y-66.927
X57.543 Y-66.235
X58.08 Y-65.518
X58.48 Y-64.935
X58.681 Y-64.602
X58.841 Y-64.247
X58.958 Y-63.876
X59.031 Y-63.493
X59.103 Y-62.943
X59.237 Y-61.801
X59.31 Y-61.04
X59.38 Y-60.279
X59.414 Y-59.898
X59.467 Y-59.137
X59.498 Y-58.657
G3 X59.499 Y-58.623 I-1.27 J0.034
G1 X59.498 Y-58.159
X59.493 Y-49.742
X59.492 Y-49.277
G3 Y-49.243 I-1.27 J-0.001
G1 X59.46 Y-48.76
X59.414 Y-48.102
X59.345 Y-47.341
X59.31 Y-46.96
X59.237 Y-46.199
X59.103 Y-45.057
X59.026 Y-44.468
X58.934 Y-43.961
X58.864 Y-43.649
X58.772 Y-43.308
X58.659 Y-42.949
X58.514 Y-42.549
X58.349 Y-42.146
X58.146 Y-41.706
X57.906 Y-41.236
X57.64 Y-40.767
X57.33 Y-40.271
X56.976 Y-39.751
X56.58 Y-39.222
X56.155 Y-38.7
X55.688 Y-38.174
X55.177 Y-37.644
X54.624 Y-37.117
X54.033 Y-36.599
X53.405 Y-36.095
X52.745 Y-35.608
X52.053 Y-35.142
X51.334 Y-34.7
X50.589 Y-34.284
X49.82 Y-33.897
X49.03 Y-33.539
X48.219 Y-33.212
X47.39 Y-32.918
X46.544 Y-32.658
X45.684 Y-32.432
X44.812 Y-32.241
X43.929 Y-32.087
X43.037 Y-31.97
X42.139 Y-31.89
X41.236 Y-31.848
X40.331 Y-31.844
X39.424 Y-31.878
X38.518 Y-31.95
X37.615 Y-32.06
X36.716 Y-32.208
X35.823 Y-32.394
X34.937 Y-32.618
X34.06 Y-32.879
X33.195 Y-33.177
X32.342 Y-33.511
X31.503 Y-33.882
X30.679 Y-34.287
X29.873 Y-34.727
X29.085 Y-35.201
X28.317 Y-35.709
X27.571 Y-36.248
X26.847 Y-36.818
X26.148 Y-37.419
X25.474 Y-38.049
X24.826 Y-38.708
X24.34 Y-39.245
X24.063 Y-39.598
X23.836 Y-39.984
X23.664 Y-40.398
X23.549 Y-40.831
X23.47 Y-41.252
X23.338 Y-42.029
X23.217 Y-42.774
X23.156 Y-43.155
X23.047 Y-43.916
X22.996 Y-44.296
X22.951 Y-44.644
G3 X22.946 Y-44.739 I1.264 J-0.119
G1 X22.938 Y-45.142
X22.66 Y-60.161
X22.652 Y-60.561
G3 X22.654 Y-60.659 I1.27 J-0.024
G1 X22.69 Y-61.04
X22.765 Y-61.801
X22.807 Y-62.181
X22.898 Y-62.943
X22.996 Y-63.704
X23.047 Y-64.084
X23.102 Y-64.465
X23.163 Y-64.781
X23.226 Y-65.045
X23.31 Y-65.342
X23.412 Y-65.653
X23.54 Y-65.992
X23.695 Y-66.358
X23.873 Y-66.732
X24.092 Y-67.146
X24.337 Y-67.567
X24.619 Y-68.005
X24.947 Y-68.473
X25.315 Y-68.953
X25.711 Y-69.428
X26.157 Y-69.918
X26.651 Y-70.416
X27.189 Y-70.917
X27.768 Y-71.411
X28.379 Y-71.89
X29.023 Y-72.352
X29.706 Y-72.8
X30.425 Y-73.23
X31.177 Y-73.637
X31.958 Y-74.018
X32.765 Y-74.371
X33.595 Y-74.694
X34.445 Y-74.984
X35.314 Y-75.239
X36.198 Y-75.46
X37.095 Y-75.644
X38.003 Y-75.791
X38.921 Y-75.9
X39.845 Y-75.97
X40.774 Y-76.002
X41.707 Y-75.995
X42.641 Y-75.948
X43.574 Y-75.862
X44.505 Y-75.737
X45.432 Y-75.572
X46.353 Y-75.368
X47.266 Y-75.125
X48.171 Y-74.843
X49.064 Y-74.523
X49.945 Y-74.165
X50.811 Y-73.77
X51.662 Y-73.337
X52.495 Y-72.869
X53.308 Y-72.366
X54.101 Y-71.828
X54.872 Y-71.256
X55.619 Y-70.652
X56.341 Y-70.016
X57.036 Y-69.35
X57.665 Y-68.693
X57.7 Y-68.654
X57.971 Y-68.301
X58.192 Y-67.915
X58.359 Y-67.503
X58.469 Y-67.072
X58.529 Y-66.748
X58.659 Y-65.987
X58.722 Y-65.606
X58.784 Y-65.226
X58.845 Y-64.845
X58.952 Y-64.084
X59.019 Y-63.588
X59.031 Y-63.493
G3 X59.037 Y-63.373 I-1.264 J0.12
G1 Y-62.995
X59.032 Y-44.966
Y-44.587
G3 X59.026 Y-44.468 I-1.27
G1 X59.004 Y-44.296
X58.952 Y-43.916
X58.845 Y-43.155
X58.784 Y-42.774
X58.699 Y-42.256
X58.659 Y-42.013
X58.529 Y-41.252
X58.49 Y-41.043
X58.39 Y-40.62
X58.315 Y-40.354
X58.226 Y-40.084
X58.111 Y-39.776
X57.978 Y-39.464
X57.814 Y-39.117
X57.623 Y-38.754
X57.403 Y-38.376
X57.138 Y-37.963
X56.849 Y-37.55
X56.517 Y-37.117
X56.136 Y-36.659
X55.713 Y-36.194
X55.26 Y-35.735
X54.755 Y-35.265
X54.199 Y-34.79
X53.598 Y-34.318
X52.954 Y-33.855
X52.278 Y-33.411
X51.57 Y-32.987
X50.822 Y-32.581
X50.039 Y-32.198
X49.223 Y-31.84
X48.378 Y-31.511
X47.508 Y-31.214
X46.617 Y-30.951
X45.706 Y-30.723
X44.779 Y-30.532
X43.839 Y-30.379
X42.887 Y-30.265
X41.927 Y-30.191
X40.961 Y-30.158
X39.992 Y-30.164
X39.02 Y-30.212
X38.049 Y-30.301
X37.08 Y-30.43
X36.115 Y-30.601
X35.157 Y-30.812
X34.207 Y-31.064
X33.268 Y-31.356
X32.34 Y-31.688
X31.425 Y-32.059
X30.527 Y-32.468
X29.645 Y-32.915
X28.782 Y-33.399
X27.94 Y-33.92
X27.119 Y-34.475
X26.322 Y-35.066
X25.607 Y-35.644
X25.254 Y-35.954
X24.969 Y-36.238
X24.72 Y-36.554
X24.511 Y-36.899
X24.346 Y-37.266
X24.227 Y-37.651
X24.093 Y-38.208
X23.926 Y-38.969
X23.845 Y-39.349
X23.688 Y-40.111
X23.549 Y-40.831
G3 X23.533 Y-41.005 I1.255 J-0.198
G1 X23.527 Y-41.329
X23.101 Y-63.966
X23.095 Y-64.305
G3 X23.102 Y-64.465 I1.27 J-0.024
G1 X23.156 Y-64.845
X23.217 Y-65.226
X23.341 Y-65.987
X23.47 Y-66.748
X23.541 Y-67.128
X23.615 Y-67.509
X23.686 Y-67.801
X23.755 Y-68.036
X23.843 Y-68.296
X23.947 Y-68.567
X24.079 Y-68.87
X24.228 Y-69.176
X24.413 Y-69.521
X24.619 Y-69.868
X24.862 Y-70.24
X25.147 Y-70.64
X25.455 Y-71.034
X25.81 Y-71.453
X26.216 Y-71.892
X26.653 Y-72.327
X27.131 Y-72.764
X27.663 Y-73.21
X28.246 Y-73.66
X28.876 Y-74.105
X29.54 Y-74.533
X30.237 Y-74.942
X30.981 Y-75.337
X31.765 Y-75.713
X32.586 Y-76.064
X33.439 Y-76.388
X34.32 Y-76.68
X35.226 Y-76.939
X36.153 Y-77.162
X37.099 Y-77.349
X38.059 Y-77.496
X39.032 Y-77.604
X40.015 Y-77.671
X41.006 Y-77.697
X42.001 Y-77.681
X42.998 Y-77.624
X43.996 Y-77.524
X44.993 Y-77.382
X45.985 Y-77.197
X46.971 Y-76.97
X47.95 Y-76.702
X48.918 Y-76.392
X49.875 Y-76.04
X50.817 Y-75.649
X51.745 Y-75.217
X52.654 Y-74.745
X53.545 Y-74.235
X54.415 Y-73.687
X55.262 Y-73.103
X56.077 Y-72.488
X56.667 Y-72.003
X56.804 Y-71.88
X57.147 Y-71.523
X57.433 Y-71.118
X57.655 Y-70.676
X57.808 Y-70.205
X57.907 Y-69.792
X58.074 Y-69.031
X58.238 Y-68.27
X58.469 Y-67.072
G3 X58.483 Y-66.886 I-1.256 J0.187
G1 Y-66.574
X58.504 Y-41.541
Y-41.231
G3 X58.49 Y-41.043 I-1.27 J0.001
G1 X58.459 Y-40.872
X58.238 Y-39.73
X58.074 Y-38.969
X57.907 Y-38.208
X57.749 Y-37.668
X57.673 Y-37.443
X57.573 Y-37.186
X57.46 Y-36.926
X57.316 Y-36.631
X57.156 Y-36.335
X56.961 Y-36.007
X56.738 Y-35.666
X56.484 Y-35.312
X56.183 Y-34.926
X55.857 Y-34.544
X55.487 Y-34.144
X55.063 Y-33.724
X54.601 Y-33.304
X54.105 Y-32.888
X53.552 Y-32.463
X52.943 Y-32.035
X52.285 Y-31.612
X51.593 Y-31.207
X50.865 Y-30.822
X50.089 Y-30.452
X49.268 Y-30.102
X48.409 Y-29.778
X47.517 Y-29.483
X46.594 Y-29.221
X45.646 Y-28.994
X44.676 Y-28.804
X43.688 Y-28.654
X42.685 Y-28.545
X41.671 Y-28.477
X40.647 Y-28.452
X39.618 Y-28.469
X38.585 Y-28.531
X37.552 Y-28.636
X36.52 Y-28.785
X35.493 Y-28.977
X34.472 Y-29.214
X33.459 Y-29.493
X32.457 Y-29.816
X31.468 Y-30.181
X30.493 Y-30.588
X29.535 Y-31.037
X28.595 Y-31.525
X27.685 Y-32.048
X26.913 Y-32.536
X26.332 Y-32.938
X26.172 Y-33.059
X25.856 Y-33.332
X25.577 Y-33.642
X25.339 Y-33.985
X25.146 Y-34.355
X25.001 Y-34.747
X24.877 Y-35.164
X24.667 Y-35.925
X24.564 Y-36.305
X24.371 Y-37.066
X24.227 Y-37.651
G3 X24.201 Y-37.882 I1.244 J-0.257
G1 X24.196 Y-38.147
X23.605 Y-67.011
X23.599 Y-67.285
G3 X23.615 Y-67.509 I1.27 J-0.026
G1 X23.688 Y-67.889
X23.845 Y-68.651
X23.926 Y-69.031
X24.098 Y-69.816
X24.184 Y-70.173
X24.298 Y-70.555
X24.371 Y-70.768
X24.466 Y-71.009
X24.575 Y-71.258
X24.709 Y-71.53
X24.866 Y-71.818
X25.047 Y-72.12
X25.265 Y-72.45
X25.502 Y-72.779
X25.786 Y-73.138
X26.103 Y-73.509
X26.452 Y-73.882
X26.854 Y-74.277
X27.302 Y-74.683
X27.777 Y-75.078
X28.31 Y-75.484
X28.899 Y-75.896
X29.541 Y-76.305
X30.214 Y-76.695
X30.931 Y-77.071
X31.7 Y-77.434
X32.517 Y-77.779
X33.376 Y-78.1
X34.272 Y-78.392
X35.201 Y-78.652
X36.158 Y-78.878
X37.14 Y-79.066
X38.14 Y-79.214
X39.157 Y-79.321
X40.186 Y-79.386
X41.227 Y-79.408
X42.276 Y-79.386
X43.331 Y-79.319
X44.388 Y-79.208
X45.447 Y-79.051
X46.502 Y-78.849
X47.553 Y-78.602
X48.595 Y-78.31
X49.628 Y-77.973
X50.648 Y-77.593
X51.654 Y-77.168
X52.643 Y-76.701
X53.614 Y-76.192
X54.555 Y-75.646
X55.251 Y-75.203
X55.804 Y-74.817
X55.893 Y-74.749
X56.206 Y-74.477
X56.483 Y-74.168
X56.719 Y-73.827
X56.911 Y-73.458
X57.054 Y-73.069
X57.123 Y-72.836
X57.333 Y-72.075
X57.434 Y-71.695
X57.629 Y-70.934
X57.808 Y-70.205
G3 X57.835 Y-69.95 I-1.243 J0.258
G1 X57.836 Y-69.708
X57.927 Y-38.705
X57.928 Y-38.44
G3 X57.907 Y-38.208 I-1.27 J0.004
G1 X57.816 Y-37.827
X57.629 Y-37.066
X57.434 Y-36.305
X57.333 Y-35.925
X57.179 Y-35.364
X57.079 Y-35.063
X57.002 Y-34.857
X56.902 Y-34.623
X56.789 Y-34.386
X56.648 Y-34.118
X56.491 Y-33.85
X56.299 Y-33.551
X56.085 Y-33.246
X55.837 Y-32.923
X55.546 Y-32.575
X55.234 Y-32.232
X54.87 Y-31.864
X54.459 Y-31.483
X54.023 Y-31.111
X53.529 Y-30.724
X52.975 Y-30.327
X52.381 Y-29.938
X51.75 Y-29.561
X51.058 Y-29.187
X50.31 Y-28.821
X49.509 Y-28.472
X48.662 Y-28.143
X47.784 Y-27.844
X46.877 Y-27.578
X45.93 Y-27.342
X44.948 Y-27.141
X43.937 Y-26.978
X42.901 Y-26.855
X41.846 Y-26.775
X40.776 Y-26.739
X39.695 Y-26.748
X38.607 Y-26.803
X37.514 Y-26.904
X36.421 Y-27.052
X35.33 Y-27.246
X34.243 Y-27.487
X33.164 Y-27.775
X32.094 Y-28.109
X31.037 Y-28.488
X29.997 Y-28.911
X29.005 Y-29.364
X28.172 Y-29.788
X27.561 Y-30.132
X27.248 Y-30.326
X26.89 Y-30.582
X26.569 Y-30.884
X26.292 Y-31.226
X26.062 Y-31.601
X25.884 Y-32.004
X25.842 Y-32.119
X25.619 Y-32.777
X25.459 Y-33.261
X25.22 Y-34.022
X25.104 Y-34.403
X25.001 Y-34.747
G3 X26.205 Y-36.337 I1.229 J-0.32
G1 X55.918 Y-36.928
G3 X57.179 Y-35.364 I0.025 J1.27
G1 X57.123 Y-35.164
X56.896 Y-34.403
X56.798 Y-34.08
X56.541 Y-33.261
X56.377 Y-32.765
X56.257 Y-32.46
X56.165 Y-32.252
X56.061 Y-32.041
X55.931 Y-31.802
X55.785 Y-31.561
X55.609 Y-31.293
X55.41 Y-31.018
X55.181 Y-30.727
X54.913 Y-30.415
X54.624 Y-30.107
X54.285 Y-29.774
X53.908 Y-29.433
X53.497 Y-29.092
X53.024 Y-28.731
X52.503 Y-28.368
X51.951 Y-28.016
X51.332 Y-27.658
X50.652 Y-27.302
X49.92 Y-26.957
X49.161 Y-26.637
X48.345 Y-26.333
X47.471 Y-26.048
X46.546 Y-25.79
X45.576 Y-25.562
X44.566 Y-25.369
X43.523 Y-25.215
X42.454 Y-25.103
X41.366 Y-25.035
X40.261 Y-25.012
X39.141 Y-25.036
X38.006 Y-25.109
X36.863 Y-25.23
X35.714 Y-25.401
X34.565 Y-25.621
X33.419 Y-25.892
X32.281 Y-26.211
X31.161 Y-26.577
X30.144 Y-26.957
X29.345 Y-27.295
X28.737 Y-27.582
X28.269 Y-27.828
X27.913 Y-28.067
X27.59 Y-28.351
X27.307 Y-28.674
X27.069 Y-29.031
X26.878 Y-29.416
X26.707 Y-29.836
X26.553 Y-30.217
X26.261 Y-30.978
X26.119 Y-31.358
X25.884 Y-32.004
G3 X27.059 Y-33.665 I1.208 J-0.392
G1 X55.126 Y-34.396
G3 X56.377 Y-32.765 I0.033 J1.27
G1 X56.288 Y-32.5
X56.159 Y-32.119
X55.881 Y-31.358
X55.739 Y-30.978
X55.446 Y-30.217
X55.32 Y-29.942
X55.216 Y-29.739
X55.1 Y-29.533
X54.956 Y-29.302
X54.796 Y-29.067
X54.606 Y-28.813
X54.389 Y-28.547
X54.145 Y-28.271
X53.857 Y-27.973
X53.55 Y-27.68
X53.188 Y-27.363
X52.788 Y-27.041
X52.356 Y-26.722
X51.86 Y-26.388
X51.314 Y-26.051
X50.738 Y-25.73
X50.092 Y-25.403
X49.376 Y-25.079
X48.612 Y-24.771
X47.815 Y-24.488
X46.951 Y-24.221
X46.026 Y-23.977
X45.048 Y-23.763
X44.024 Y-23.584
X42.961 Y-23.444
X41.869 Y-23.346
X40.756 Y-23.294
X39.621 Y-23.288
X38.461 Y-23.33
X37.281 Y-23.424
X36.087 Y-23.569
X34.886 Y-23.766
X33.685 Y-24.016
X32.514 Y-24.311
X31.486 Y-24.617
X30.647 Y-24.905
X30.035 Y-25.145
X29.581 Y-25.344
X29.549 Y-25.36
X29.179 Y-25.573
X28.839 Y-25.832
X28.536 Y-26.133
X28.274 Y-26.47
X28.058 Y-26.838
X27.889 Y-27.172
X27.707 Y-27.553
X27.521 Y-27.948
X27.356 Y-28.314
X27.02 Y-29.075
X26.878 Y-29.416
G3 X28.03 Y-31.132 I1.189 J-0.446
G1 X54.208 Y-31.9
G3 X55.446 Y-30.217 I0.037 J1.269
G1 X55.277 Y-29.795
X55.138 Y-29.456
X54.979 Y-29.075
X54.645 Y-28.314
X54.517 Y-28.032
X54.373 Y-27.724
X54.24 Y-27.474
X54.123 Y-27.276
X53.994 Y-27.076
X53.835 Y-26.852
X53.661 Y-26.626
X53.455 Y-26.38
X53.222 Y-26.126
X52.96 Y-25.862
X52.652 Y-25.579
X52.325 Y-25.301
X51.939 Y-25.001
X51.519 Y-24.701
X51.06 Y-24.402
X50.533 Y-24.089
X49.964 Y-23.784
X49.353 Y-23.487
X48.665 Y-23.189
X47.907 Y-22.897
X47.119 Y-22.631
X46.273 Y-22.385
X45.356 Y-22.16
X44.38 Y-21.963
X43.351 Y-21.8
X42.275 Y-21.675
X41.168 Y-21.594
X40.039 Y-21.559
X38.874 Y-21.572
X37.676 Y-21.635
X36.453 Y-21.752
X35.222 Y-21.921
X34.026 Y-22.138
X32.974 Y-22.374
X32.122 Y-22.604
X31.493 Y-22.802
X31.026 Y-22.971
X30.993 Y-22.984
X30.605 Y-23.174
X30.245 Y-23.413
X29.919 Y-23.696
X29.634 Y-24.02
X29.393 Y-24.379
X29.041 Y-24.982
X28.878 Y-25.27
X28.661 Y-25.664
X28.466 Y-26.031
X28.272 Y-26.411
X28.058 Y-26.838
G3 X29.166 Y-28.638 I1.154 J-0.531
G1 X53.16 Y-29.493
G3 X54.373 Y-27.724 I0.045 J1.269
G1 X54.292 Y-27.553
X54.111 Y-27.172
X53.728 Y-26.411
X53.533 Y-26.031
X53.332 Y-25.65
X53.123 Y-25.27
X52.911 Y-24.938
X52.777 Y-24.747
X52.618 Y-24.54
X52.441 Y-24.328
X52.229 Y-24.095
X52.001 Y-23.864
X51.726 Y-23.608
X51.433 Y-23.359
X51.088 Y-23.088
X50.708 Y-22.815
X50.29 Y-22.542
X49.808 Y-22.253
X49.297 Y-21.976
X48.728 Y-21.698
X48.083 Y-21.416
X47.397 Y-21.15
X46.66 Y-20.899
X45.843 Y-20.658
X44.953 Y-20.436
X44.01 Y-20.242
X43.042 Y-20.086
X42.011 Y-19.963
X40.918 Y-19.88
X39.772 Y-19.84
X38.583 Y-19.85
X37.372 Y-19.91
X36.178 Y-20.02
X35.05 Y-20.172
X34.063 Y-20.347
X33.372 Y-20.5
X32.828 Y-20.645
X32.726 Y-20.677
X32.343 Y-20.823
X31.981 Y-21.015
X31.646 Y-21.251
X31.342 Y-21.526
X31.075 Y-21.837
X30.943 Y-22.012
X30.787 Y-22.225
X30.562 Y-22.543
X30.182 Y-23.109
X29.778 Y-23.748
X29.539 Y-24.128
X29.393 Y-24.379
G3 X30.461 Y-26.247 I1.119 J-0.6
G1 X51.938 Y-27.11
G3 X53.123 Y-25.27 I0.051 J1.269
G1 X52.996 Y-25.047
X52.461 Y-24.128
X52.227 Y-23.748
X51.855 Y-23.167
X51.734 Y-22.987
X51.592 Y-22.778
X51.335 Y-22.44
X51.176 Y-22.248
X51.003 Y-22.055
X50.793 Y-21.841
X50.565 Y-21.627
X50.298 Y-21.397
X50.001 Y-21.161
X49.67 Y-20.921
X49.284 Y-20.665
X48.878 Y-20.419
X48.401 Y-20.157
X47.886 Y-19.902
X47.32 Y-19.651
X46.678 Y-19.398
X45.991 Y-19.16
X45.259 Y-18.94
X44.443 Y-18.732
X43.547 Y-18.544
X42.607 Y-18.387
X41.624 Y-18.265
X40.565 Y-18.178
X39.453 Y-18.134
X38.316 Y-18.137
X37.196 Y-18.187
X36.175 Y-18.276
X35.425 Y-18.373
X34.834 Y-18.475
X34.781 Y-18.486
X34.313 Y-18.624
X33.87 Y-18.83
X33.463 Y-19.098
X33.099 Y-19.424
X32.844 Y-19.69
X32.608 Y-19.942
X32.464 Y-20.108
X31.645 Y-21.084
X31.075 Y-21.837
G3 X32.053 Y-23.836 I1.039 J-0.73
G1 X50.457 Y-24.725
G3 X51.592 Y-22.778 I0.061 J1.269
G1 X51.214 Y-22.225
X51.095 Y-22.063
X50.355 Y-21.084
X50.043 Y-20.703
X49.574 Y-20.151
X49.184 Y-19.751
X48.992 Y-19.571
X48.761 Y-19.371
X48.512 Y-19.173
X48.219 Y-18.96
X47.898 Y-18.746
X47.533 Y-18.525
X47.12 Y-18.297
X46.673 Y-18.075
X46.15 Y-17.842
X45.605 Y-17.625
X44.989 Y-17.411
X44.291 Y-17.2
X43.569 Y-17.015
X42.769 Y-16.845
X41.885 Y-16.696
X40.939 Y-16.576
X39.968 Y-16.496
X39.005 Y-16.456
X38.116 Y-16.457
X37.628 Y-16.478
X37.185 Y-16.527
X36.751 Y-16.636
X36.337 Y-16.802
X35.949 Y-17.023
X35.886 Y-17.065
X35.586 Y-17.279
X35.067 Y-17.659
X34.745 Y-17.898
X34.58 Y-18.04
X33.722 Y-18.801
X33.604 Y-18.911
X33.333 Y-19.181
X33.099 Y-19.424
G3 X33.987 Y-21.541 I0.946 J-0.848
G1 X48.52 Y-22.208
G3 X49.574 Y-20.151 I0.058 J1.269
G1 X49.389 Y-19.942
X49.194 Y-19.726
X49.037 Y-19.562
X48.667 Y-19.181
X48.433 Y-18.948
X48.278 Y-18.801
X48.053 Y-18.592
X47.422 Y-18.04
X47.293 Y-17.932
X46.941 Y-17.659
X46.152 Y-17.095
X45.864 Y-16.898
X45.772 Y-16.845
X45.189 Y-16.517
X45.011 Y-16.417
X44.631 Y-16.236
X43.87 Y-15.903
X43.49 Y-15.773
X42.73 Y-15.558
X42.35 Y-15.492
X41.589 Y-15.384
X41.517 Y-15.376
X41.209 Y-15.374
X40.448 Y-15.384
X40.068 Y-15.427
X39.308 Y-15.554
X38.927 Y-15.649
X38.547 Y-15.761
X38.167 Y-15.888
X37.787 Y-16.046
X37.026 Y-16.396
X36.795 Y-16.517
X36.137 Y-16.898
X35.949 Y-17.023
G3 X35.445 Y-17.787 I0.738 J-1.034
G1 X24.188 Y-69.649
G3 X24.182 Y-69.677 I1.241 J-0.269
X24.184 Y-70.173 I1.247 J-0.242
G1 X24.371 Y-70.934
X24.564 Y-71.695
X24.667 Y-72.075
X24.859 Y-72.77
X24.952 Y-73.052
X25.026 Y-73.248
X25.122 Y-73.473
X25.231 Y-73.701
X25.365 Y-73.953
X25.518 Y-74.216
X25.698 Y-74.495
X25.91 Y-74.796
X26.143 Y-75.098
X26.422 Y-75.432
X26.725 Y-75.764
X27.07 Y-76.111
X27.467 Y-76.479
X27.891 Y-76.84
X28.363 Y-77.209
X28.897 Y-77.591
X29.482 Y-77.973
X30.094 Y-78.337
X30.769 Y-78.702
X31.505 Y-79.059
X32.295 Y-79.404
X33.134 Y-79.728
X34.002 Y-80.022
X34.905 Y-80.287
X35.854 Y-80.522
X36.84 Y-80.722
X37.859 Y-80.885
X38.904 Y-81.008
X39.972 Y-81.088
X41.057 Y-81.123
X42.156 Y-81.113
X43.265 Y-81.056
X44.381 Y-80.951
X45.499 Y-80.799
X46.617 Y-80.598
X47.731 Y-80.349
X48.84 Y-80.053
X49.939 Y-79.708
X51.027 Y-79.317
X52.098 Y-78.879
X53.095 Y-78.422
X53.921 Y-78.001
X54.521 Y-77.663
X54.826 Y-77.474
X55.194 Y-77.208
X55.522 Y-76.895
X55.804 Y-76.539
X56.035 Y-76.148
X56.21 Y-75.729
X56.418 Y-75.111
X56.541 Y-74.739
X56.798 Y-73.92
X56.896 Y-73.597
X57.054 Y-73.069
G3 X55.837 Y-71.478 I-1.229 J0.321
G1 X26.106 Y-71.205
G3 X24.859 Y-72.77 I-0.012 J-1.27
G1 X24.877 Y-72.836
X25.104 Y-73.597
X25.22 Y-73.978
X25.459 Y-74.739
X25.619 Y-75.223
X25.761 Y-75.583
X25.849 Y-75.782
X25.953 Y-75.991
X26.076 Y-76.217
X26.221 Y-76.458
X26.388 Y-76.71
X26.588 Y-76.985
X26.806 Y-77.261
X27.066 Y-77.563
X27.349 Y-77.865
X27.673 Y-78.183
X28.047 Y-78.52
X28.444 Y-78.849
X28.899 Y-79.195
X29.415 Y-79.553
X29.955 Y-79.896
X30.554 Y-80.242
X31.217 Y-80.589
X31.941 Y-80.929
X32.694 Y-81.245
X33.498 Y-81.543
X34.362 Y-81.824
X35.283 Y-82.08
X36.252 Y-82.306
X37.263 Y-82.498
X38.312 Y-82.651
X39.388 Y-82.763
X40.483 Y-82.83
X41.599 Y-82.852
X42.736 Y-82.826
X43.891 Y-82.751
X45.057 Y-82.626
X46.23 Y-82.45
X47.405 Y-82.223
X48.578 Y-81.945
X49.745 Y-81.615
X50.887 Y-81.241
X51.924 Y-80.852
X52.723 Y-80.513
X53.338 Y-80.221
X53.8 Y-79.978
X53.818 Y-79.968
X54.176 Y-79.726
X54.5 Y-79.44
X54.783 Y-79.115
X55.022 Y-78.754
X55.211 Y-78.366
X55.294 Y-78.164
X55.446 Y-77.783
X55.739 Y-77.022
X55.881 Y-76.642
X56.159 Y-75.881
X56.21 Y-75.729
G3 X55.016 Y-74.094 I-1.216 J0.365
G1 X26.859 Y-73.59
G3 X25.619 Y-75.223 I-0.023 J-1.27
G1 X25.842 Y-75.881
X26.119 Y-76.642
X26.261 Y-77.022
X26.488 Y-77.612
X26.651 Y-77.98
X26.747 Y-78.175
X26.854 Y-78.37
X26.988 Y-78.593
X27.136 Y-78.816
X27.315 Y-79.064
X27.514 Y-79.315
X27.745 Y-79.583
X28.01 Y-79.866
X28.301 Y-80.151
X28.645 Y-80.461
X29.011 Y-80.765
X29.427 Y-81.081
X29.901 Y-81.411
X30.401 Y-81.728
X30.958 Y-82.05
X31.584 Y-82.377
X32.263 Y-82.696
X32.973 Y-82.994
X33.756 Y-83.285
X34.608 Y-83.561
X35.519 Y-83.815
X36.476 Y-84.038
X37.458 Y-84.225
X38.487 Y-84.375
X39.564 Y-84.487
X40.682 Y-84.556
X41.833 Y-84.578
X43.011 Y-84.551
X44.21 Y-84.474
X45.424 Y-84.343
X46.648 Y-84.16
X47.872 Y-83.923
X49.07 Y-83.64
X50.185 Y-83.325
X51.152 Y-83.008
X51.819 Y-82.758
X52.334 Y-82.539
X52.513 Y-82.455
X52.894 Y-82.242
X53.244 Y-81.981
X53.556 Y-81.676
X53.825 Y-81.332
X54.046 Y-80.956
X54.111 Y-80.828
X54.292 Y-80.447
X54.517 Y-79.968
X54.645 Y-79.686
X54.979 Y-78.925
X55.138 Y-78.544
X55.211 Y-78.366
G3 X54.055 Y-76.657 I-1.191 J0.44
G1 X27.723 Y-75.929
G3 X26.488 Y-77.612 I-0.035 J-1.27
G1 X26.553 Y-77.783
X26.76 Y-78.294
X26.862 Y-78.544
X27.02 Y-78.925
X27.356 Y-79.686
X27.521 Y-80.052
X27.714 Y-80.424
X27.82 Y-80.609
X27.948 Y-80.812
X28.092 Y-81.02
X28.266 Y-81.251
X28.455 Y-81.48
X28.684 Y-81.736
X28.931 Y-81.988
X29.222 Y-82.262
X29.545 Y-82.542
X29.9 Y-82.824
X30.314 Y-83.126
X30.753 Y-83.418
X31.248 Y-83.719
X31.813 Y-84.03
X32.405 Y-84.325
X33.06 Y-84.617
X33.786 Y-84.904
X34.577 Y-85.18
X35.396 Y-85.428
X36.274 Y-85.653
X37.223 Y-85.855
X38.235 Y-86.026
X39.303 Y-86.16
X40.419 Y-86.253
X41.564 Y-86.3
X42.732 Y-86.299
X43.934 Y-86.248
X45.166 Y-86.143
X46.412 Y-85.984
X47.644 Y-85.774
X48.772 Y-85.532
X49.721 Y-85.287
X50.414 Y-85.076
X50.923 Y-84.898
X51.09 Y-84.832
X51.486 Y-84.643
X51.853 Y-84.403
X52.185 Y-84.117
X52.476 Y-83.789
X52.721 Y-83.425
X52.996 Y-82.953
X53.123 Y-82.73
X53.332 Y-82.35
X53.533 Y-81.969
X53.756 Y-81.532
X54.046 Y-80.956
G3 X52.937 Y-79.156 I-1.154 J0.531
G1 X28.741 Y-78.302
G3 X27.521 Y-80.052 I-0.045 J-1.269
G1 X27.707 Y-80.447
X27.901 Y-80.851
X28.281 Y-81.606
X28.466 Y-81.969
X28.669 Y-82.35
X28.784 Y-82.559
X28.991 Y-82.895
X29.114 Y-83.076
X29.264 Y-83.279
X29.429 Y-83.484
X29.629 Y-83.711
X29.844 Y-83.936
X30.102 Y-84.184
X30.38 Y-84.429
X30.702 Y-84.691
X31.065 Y-84.961
X31.46 Y-85.23
X31.918 Y-85.515
X32.406 Y-85.79
X32.945 Y-86.065
X33.558 Y-86.346
X34.213 Y-86.613
X34.917 Y-86.866
X35.704 Y-87.113
X36.569 Y-87.344
X37.468 Y-87.545
X38.418 Y-87.715
X39.438 Y-87.854
X40.521 Y-87.955
X41.66 Y-88.014
X42.845 Y-88.025
X44.062 Y-87.985
X45.279 Y-87.894
X46.452 Y-87.757
X47.528 Y-87.584
X48.374 Y-87.412
X49.029 Y-87.25
X49.361 Y-87.152
X49.757 Y-87.008
X50.131 Y-86.815
X50.478 Y-86.576
X50.791 Y-86.294
X51.066 Y-85.975
X51.095 Y-85.937
X51.214 Y-85.775
X51.734 Y-85.013
X51.855 Y-84.833
X52.236 Y-84.238
X52.461 Y-83.872
X52.721 Y-83.425
G3 X51.651 Y-81.556 I-1.119 J0.6
G1 X29.967 Y-80.717
G3 X28.784 Y-82.559 I-0.049 J-1.269
G1 X28.878 Y-82.73
X29.041 Y-83.018
X29.539 Y-83.872
X29.802 Y-84.291
X30.182 Y-84.891
X30.342 Y-85.129
X30.551 Y-85.409
X30.698 Y-85.589
X30.877 Y-85.791
X31.072 Y-85.992
X31.307 Y-86.216
X31.557 Y-86.435
X31.855 Y-86.674
X32.175 Y-86.91
X32.545 Y-87.159
X32.96 Y-87.414
X33.409 Y-87.664
X33.929 Y-87.927
X34.482 Y-88.176
X35.09 Y-88.421
X35.779 Y-88.665
X36.518 Y-88.893
X37.301 Y-89.098
X38.173 Y-89.288
X39.125 Y-89.454
X40.138 Y-89.587
X41.174 Y-89.679
X42.274 Y-89.73
X43.415 Y-89.735
X44.56 Y-89.691
X45.63 Y-89.606
X46.479 Y-89.502
X47.146 Y-89.392
X47.366 Y-89.346
X47.844 Y-89.208
X48.296 Y-89
X48.711 Y-88.726
X49.08 Y-88.393
X49.194 Y-88.274
X49.389 Y-88.058
X49.574 Y-87.849
X50.043 Y-87.297
X50.355 Y-86.916
X51.066 Y-85.975
G3 X50.081 Y-83.976 I-1.039 J0.73
G1 X31.474 Y-83.188
G3 X30.342 Y-85.129 I-0.054 J-1.269
G1 X30.562 Y-85.457
X30.787 Y-85.775
X30.943 Y-85.988
X31.645 Y-86.916
X32.283 Y-87.677
X32.584 Y-88.001
X32.76 Y-88.176
X32.976 Y-88.372
X33.206 Y-88.564
X33.484 Y-88.778
X33.778 Y-88.984
X34.128 Y-89.209
X34.501 Y-89.427
X34.931 Y-89.654
X35.411 Y-89.883
X35.93 Y-90.104
X36.534 Y-90.331
X37.169 Y-90.541
X37.867 Y-90.739
X38.652 Y-90.926
X39.5 Y-91.091
X40.376 Y-91.224
X41.33 Y-91.327
X42.329 Y-91.394
X43.313 Y-91.417
X44.176 Y-91.402
X44.625 Y-91.375
X45.084 Y-91.315
X45.529 Y-91.192
X45.953 Y-91.007
X46.347 Y-90.766
X46.941 Y-90.341
X47.293 Y-90.068
X47.422 Y-89.96
X48.053 Y-89.408
X48.278 Y-89.199
X48.433 Y-89.052
X48.667 Y-88.819
X49.061 Y-88.413
X49.08 Y-88.393
G3 X48.187 Y-86.28 I-0.949 J0.844
G1 X33.34 Y-85.627
G3 X32.283 Y-87.677 I-0.056 J-1.269
G1 X32.464 Y-87.892
X32.608 Y-88.058
X32.844 Y-88.31
X33.333 Y-88.819
X33.604 Y-89.089
X33.722 Y-89.199
X34.58 Y-89.96
X34.745 Y-90.102
X35.125 Y-90.384
X35.586 Y-90.721
X35.886 Y-90.935
X36.137 Y-91.102
X36.646 Y-91.397
X37.079 Y-91.619
X37.465 Y-91.797
X37.927 Y-91.987
X38.406 Y-92.161
X38.965 Y-92.338
X39.299 Y-92.428
X39.405 Y-92.455
X39.511 Y-92.478
X39.618 Y-92.497
G3 X40.112 Y-92.465 I0.165 J1.259
X40.227 Y-90.048 I-0.329 J1.227
G1 X37.764 Y-89.13
G3 X36.285 Y-91.057 I-0.444 J-1.19
X36.646 Y-91.397 I1.034 J0.737
G1 X36.795 Y-91.483
X37.026 Y-91.604
X37.787 Y-91.954
X38.167 Y-92.112
X38.547 Y-92.239
X38.927 Y-92.351
X39.308 Y-92.446
X40.068 Y-92.573
X40.448 Y-92.616
X41.209 Y-92.626
X41.517 Y-92.624
X41.589 Y-92.616
X42.35 Y-92.508
X42.73 Y-92.442
X43.49 Y-92.227
X43.87 Y-92.097
X44.631 Y-91.764
X45.011 Y-91.583
X45.772 Y-91.155
X45.864 Y-91.102
X46.152 Y-90.905
X46.347 Y-90.766
X46.408 Y-90.705 Z33.028
X46.467 Y-90.647 Z33.05
X46.522 Y-90.592 Z33.086
X46.572 Y-90.542 Z33.135
X46.607 Y-90.491 Z33.196
X46.635 Y-90.449 Z33.268
X46.656 Y-90.418 Z33.347
X46.669 Y-90.399 Z33.431
X46.673 Y-90.393 Z33.519
G0 Z52
X43.914 Y-59.094
Z36.79
G1 Z35.52 F850
G3 X38.086 Y-48.53 Z34.858 I-2.914 J5.282 F283.3
X43.914 Y-59.094 Z34.196 I2.914 J-5.282
X38.086 Y-48.53 Z33.535 I-2.914 J5.282
X43.914 Y-59.094 Z32.873 I2.914 J-5.282
X38.086 Y-48.53 Z32.211 I-2.914 J5.282
X43.914 Y-59.094 Z31.549 I2.914 J-5.282
X38.086 Y-48.53 Z30.887 I-2.914 J5.282
X43.914 Y-59.094 Z30.226 I2.914 J-5.282
X38.086 Y-48.53 Z29.564 I-2.914 J5.282
X43.914 Y-59.094 Z28.902 I2.914 J-5.282
X38.086 Y-48.53 Z28.24 I-2.914 J5.282
X43.914 Y-59.094 Z27.578 I2.914 J-5.282
X38.086 Y-48.53 Z26.917 I-2.914 J5.282
X43.914 Y-59.094 Z26.255 I2.914 J-5.282
X47.033 Y-53.812 Z26.03 I-2.914 J5.282
X34.968 I-6.032
X47.033 I6.032
G1 X47.048 Y-52.52 F850
X47.071 Y-52.443
X47.108 Y-52.298
X47.132 Y-52.15
X47.148 Y-52
X47.154 Y-51.851
X47.152 Y-51.701
X47.144 Y-51.551
X47.128 Y-51.402
X47.105 Y-51.246
X47.075 Y-51.083
X47.035 Y-50.915
X46.987 Y-50.741
X46.929 Y-50.562
X46.86 Y-50.378
X46.782 Y-50.192
X46.693 Y-50.003
X46.593 Y-49.812
X46.482 Y-49.62
X46.36 Y-49.428
X46.227 Y-49.236
X46.083 Y-49.047
X45.928 Y-48.859
X45.762 Y-48.675
X45.585 Y-48.495
X45.398 Y-48.32
X45.201 Y-48.15
X44.994 Y-47.987
X44.778 Y-47.83
X44.553 Y-47.681
X44.319 Y-47.54
X44.077 Y-47.408
X43.828 Y-47.285
X43.572 Y-47.172
X43.31 Y-47.068
X43.041 Y-46.976
X42.768 Y-46.894
X42.489 Y-46.823
X42.207 Y-46.764
X41.921 Y-46.717
X41.632 Y-46.681
X41.341 Y-46.658
X41.048 Y-46.646
X40.754 Y-46.648
X40.46 Y-46.661
X40.166 Y-46.687
X39.872 Y-46.725
X39.58 Y-46.776
X39.289 Y-46.839
X39.001 Y-46.914
X38.716 Y-47.002
X38.434 Y-47.101
X38.157 Y-47.213
X37.884 Y-47.336
X37.616 Y-47.471
X37.354 Y-47.616
X37.099 Y-47.773
X36.849 Y-47.941
X36.607 Y-48.119
X36.373 Y-48.307
X36.146 Y-48.505
X35.928 Y-48.713
X35.718 Y-48.929
X35.518 Y-49.154
X35.328 Y-49.388
X35.147 Y-49.629
X34.976 Y-49.878
X34.817 Y-50.134
X34.668 Y-50.396
X34.53 Y-50.665
X34.403 Y-50.939
X34.288 Y-51.218
X34.185 Y-51.502
X34.094 Y-51.79
X34.015 Y-52.082
X33.949 Y-52.376
X33.894 Y-52.674
X33.853 Y-52.973
X33.824 Y-53.274
X33.807 Y-53.576
X33.804 Y-53.878
X33.813 Y-54.18
X33.834 Y-54.481
X33.869 Y-54.782
X33.916 Y-55.08
X33.975 Y-55.377
X34.047 Y-55.671
