%
(1001)
(Z0 stock top)
(T1  D=3.2 CR=0 - ZMIN=-5 - flat end mill)
G90 G94
G17
G21

(2D Contour6)
M9
T1 M6
S10000 M3
G54
M9
G0 X65.6 Y-4.064
Z15
Z5
G1 Z2.82 F850
G19 G2 Y-4.373 Z2.5 J-0.32 F283.3
G1 Y-103.4 Z-0.958
X66.4 Z-0.986
Y-103 Z-1
Y-1.6 F850
X65.6
Y-103.4
X66.4
Y-103
Y-74.364 Z-2 F283.3
Y-1.6 F850
X65.6
Y-103.4
X66.4
Y-74.364
Y-45.727 Z-3 F283.3
Y-1.6 F850
X65.6
Y-103.4
X66.4
Y-74.364
Y-45.727
Y-17.091 Z-4 F283.3
Y-1.6 F850
X65.6
Y-103.4
X66.4
Y-45.727
Y-17.091
Y-1.6 Z-4.541 F283.3
X65.6 Z-4.569
Y-13.945 Z-5
Y-103.4 F850
X66.4
Y-17.091
Y-1.6
X65.6
Y-13.945
G17 G3 X65.604 Y-13.995 Z-4.996 I0.32
X65.615 Y-14.042 Z-4.984 I0.316 J0.05
X65.632 Y-14.085 Z-4.965 I0.305 J0.097
X65.654 Y-14.122 Z-4.939 I0.288 J0.14
X65.677 Y-14.153 Z-4.906 I0.266 J0.177
X65.699 Y-14.177 Z-4.868 I0.243 J0.208
X65.719 Y-14.194 Z-4.825 I0.221 J0.232
X65.734 Y-14.206 Z-4.779 I0.201 J0.249
X65.744 Y-14.212 Z-4.73 I0.186 J0.26
G1 X65.747 Y-14.214 Z-4.68
G0 Z15

(2D Contour6 2)
M9
X58.4 Y-100.936
Z15
Z5
G1 Z2.82 F850
G19 G3 Y-100.627 Z2.5 J0.32 F283.3
G1 Y-1.6 Z-0.958
X57.6 Z-0.986
Y-2 Z-1
Y-103.4 F850
X58.4
Y-1.6
X57.6
Y-2
Y-30.636 Z-2 F283.3
Y-103.4 F850
X58.4
Y-1.6
X57.6
Y-30.636
Y-59.273 Z-3 F283.3
Y-103.4 F850
X58.4
Y-1.6
X57.6
Y-30.636
Y-59.273
Y-87.909 Z-4 F283.3
Y-103.4 F850
X58.4
Y-1.6
X57.6
Y-59.273
Y-87.909
Y-103.4 Z-4.541 F283.3
X58.4 Z-4.569
Y-91.055 Z-5
Y-1.6 F850
X57.6
Y-87.909
Y-103.4
X58.4
Y-91.055
G17 G3 X58.396 Y-91.005 Z-4.996 I-0.32
X58.385 Y-90.958 Z-4.984 I-0.316 J-0.05
X58.368 Y-90.915 Z-4.965 I-0.305 J-0.097
X58.346 Y-90.878 Z-4.939 I-0.288 J-0.14
X58.323 Y-90.847 Z-4.906 I-0.266 J-0.177
X58.301 Y-90.823 Z-4.868 I-0.243 J-0.208
X58.281 Y-90.806 Z-4.825 I-0.221 J-0.232
X58.266 Y-90.794 Z-4.779 I-0.201 J-0.249
X58.256 Y-90.788 Z-4.73 I-0.186 J-0.26
G1 X58.253 Y-90.786 Z-4.68
G0 Z15

(2D Contour6 3)
M9
X50.4 Y-100.936
Z15
Z5
G1 Z2.82 F850
G19 G3 Y-100.627 Z2.5 J0.32 F283.3
G1 Y-1.6 Z-0.958
X49.6 Z-0.986
Y-2 Z-1
Y-103.4 F850
X50.4
Y-1.6
X49.6
Y-2
Y-30.636 Z-2 F283.3
Y-103.4 F850
X50.4
Y-1.6
X49.6
Y-30.636
Y-59.273 Z-3 F283.3
Y-103.4 F850
X50.4
Y-1.6
X49.6
Y-30.636
Y-59.273
Y-87.909 Z-4 F283.3
Y-103.4 F850
X50.4
Y-1.6
X49.6
Y-59.273
Y-87.909
Y-103.4 Z-4.541 F283.3
X50.4 Z-4.569
Y-91.055 Z-5
Y-1.6 F850
X49.6
Y-87.909
Y-103.4
X50.4
Y-91.055
G17 G3 X50.396 Y-91.005 Z-4.996 I-0.32
X50.385 Y-90.958 Z-4.984 I-0.316 J-0.05
X50.368 Y-90.915 Z-4.965 I-0.305 J-0.097
X50.346 Y-90.878 Z-4.939 I-0.288 J-0.14
X50.323 Y-90.847 Z-4.906 I-0.266 J-0.177
X50.301 Y-90.823 Z-4.868 I-0.243 J-0.208
X50.281 Y-90.806 Z-4.825 I-0.221 J-0.232
X50.266 Y-90.794 Z-4.779 I-0.201 J-0.249
X50.256 Y-90.788 Z-4.73 I-0.186 J-0.26
G1 X50.253 Y-90.786 Z-4.68
G0 Z15

(2D Contour6 4)
M9
X41.6 Y-4.064
Z15
Z5
G1 Z2.82 F850
G19 G2 Y-4.373 Z2.5 J-0.32 F283.3
G1 Y-103.4 Z-0.958
X42.4 Z-0.986
Y-103 Z-1
Y-1.6 F850
X41.6
Y-103.4
X42.4
Y-103
Y-74.364 Z-2 F283.3
Y-1.6 F850
X41.6
Y-103.4
X42.4
Y-74.364
Y-45.727 Z-3 F283.3
Y-1.6 F850
X41.6
Y-103.4
X42.4
Y-74.364
Y-45.727
Y-17.091 Z-4 F283.3
Y-1.6 F850
X41.6
Y-103.4
X42.4
Y-45.727
Y-17.091
Y-1.6 Z-4.541 F283.3
X41.6 Z-4.569
Y-13.945 Z-5
Y-103.4 F850
X42.4
Y-17.091
Y-1.6
X41.6
Y-13.945
G17 G3 X41.604 Y-13.995 Z-4.996 I0.32
X41.615 Y-14.042 Z-4.984 I0.316 J0.05
X41.632 Y-14.085 Z-4.965 I0.305 J0.097
X41.654 Y-14.122 Z-4.939 I0.288 J0.14
X41.677 Y-14.153 Z-4.906 I0.266 J0.177
X41.699 Y-14.177 Z-4.868 I0.243 J0.208
X41.719 Y-14.194 Z-4.825 I0.221 J0.232
X41.734 Y-14.206 Z-4.779 I0.201 J0.249
X41.744 Y-14.212 Z-4.73 I0.186 J0.26
G1 X41.747 Y-14.214 Z-4.68
G0 Z15

(2D Contour6 5)
M9
X33.6 Y-4.064
Z15
Z5
G1 Z2.82 F850
G19 G2 Y-4.373 Z2.5 J-0.32 F283.3
G1 Y-103.4 Z-0.958
X34.4 Z-0.986
Y-103 Z-1
Y-1.6 F850
X33.6
Y-103.4
X34.4
Y-103
Y-74.364 Z-2 F283.3
Y-1.6 F850
X33.6
Y-103.4
X34.4
Y-74.364
Y-45.727 Z-3 F283.3
Y-1.6 F850
X33.6
Y-103.4
X34.4
Y-74.364
Y-45.727
Y-17.091 Z-4 F283.3
Y-1.6 F850
X33.6
Y-103.4
X34.4
Y-45.727
Y-17.091
Y-1.6 Z-4.541 F283.3
X33.6 Z-4.569
Y-13.945 Z-5
Y-103.4 F850
X34.4
Y-17.091
Y-1.6
X33.6
Y-13.945
G17 G3 X33.604 Y-13.995 Z-4.996 I0.32
X33.615 Y-14.042 Z-4.984 I0.316 J0.05
X33.632 Y-14.085 Z-4.965 I0.305 J0.097
X33.654 Y-14.122 Z-4.939 I0.288 J0.14
X33.677 Y-14.153 Z-4.906 I0.266 J0.177
X33.699 Y-14.177 Z-4.868 I0.243 J0.208
X33.719 Y-14.194 Z-4.825 I0.221 J0.232
X33.734 Y-14.206 Z-4.779 I0.201 J0.249
X33.744 Y-14.212 Z-4.73 I0.186 J0.26
G1 X33.747 Y-14.214 Z-4.68
G0 Z15

(2D Contour6 6)
M9
X25.6 Y-4.064
Z15
Z5
G1 Z2.82 F850
G19 G2 Y-4.373 Z2.5 J-0.32 F283.3
G1 Y-103.4 Z-0.958
X26.4 Z-0.986
Y-103 Z-1
Y-1.6 F850
X25.6
Y-103.4
X26.4
Y-103
Y-74.364 Z-2 F283.3
Y-1.6 F850
X25.6
Y-103.4
X26.4
Y-74.364
Y-45.727 Z-3 F283.3
Y-1.6 F850
X25.6
Y-103.4
X26.4
Y-74.364
Y-45.727
Y-17.091 Z-4 F283.3
Y-1.6 F850
X25.6
Y-103.4
X26.4
Y-45.727
Y-17.091
Y-1.6 Z-4.541 F283.3
X25.6 Z-4.569
Y-13.945 Z-5
Y-103.4 F850
X26.4
Y-17.091
Y-1.6
X25.6
Y-13.945
G17 G3 X25.604 Y-13.995 Z-4.996 I0.32
X25.615 Y-14.042 Z-4.984 I0.316 J0.05
X25.632 Y-14.085 Z-4.965 I0.305 J0.097
X25.654 Y-14.122 Z-4.939 I0.288 J0.14
X25.677 Y-14.153 Z-4.906 I0.266 J0.177
X25.699 Y-14.177 Z-4.868 I0.243 J0.208
X25.719 Y-14.194 Z-4.825 I0.221 J0.232
X25.734 Y-14.206 Z-4.779 I0.201 J0.249
X25.744 Y-14.212 Z-4.73 I0.186 J0.26
G1 X25.747 Y-14.214 Z-4.68
G0 Z15

(2D Contour6 7)
M9
X17.6 Y-4.064
Z15
Z5
G1 Z2.82 F850
G19 G2 Y-4.373 Z2.5 J-0.32 F283.3
G1 Y-103.4 Z-0.958
X18.4 Z-0.986
Y-103 Z-1
Y-1.6 F850
X17.6
Y-103.4
X18.4
Y-103
Y-74.364 Z-2 F283.3
Y-1.6 F850
X17.6
Y-103.4
X18.4
Y-74.364
Y-45.727 Z-3 F283.3
Y-1.6 F850
X17.6
Y-103.4
X18.4
Y-74.364
Y-45.727
Y-17.091 Z-4 F283.3
Y-1.6 F850
X17.6
Y-103.4
X18.4
Y-45.727
Y-17.091
Y-1.6 Z-4.541 F283.3
X17.6 Z-4.569
Y-13.945 Z-5
Y-103.4 F850
X18.4
Y-17.091
Y-1.6
X17.6
Y-13.945
G17 G3 X17.604 Y-13.995 Z-4.996 I0.32
X17.615 Y-14.042 Z-4.984 I0.316 J0.05
X17.632 Y-14.085 Z-4.965 I0.305 J0.097
X17.654 Y-14.122 Z-4.939 I0.288 J0.14
X17.677 Y-14.153 Z-4.906 I0.266 J0.177
X17.699 Y-14.177 Z-4.868 I0.243 J0.208
X17.719 Y-14.194 Z-4.825 I0.221 J0.232
X17.734 Y-14.206 Z-4.779 I0.201 J0.249
X17.744 Y-14.212 Z-4.73 I0.186 J0.26
G1 X17.747 Y-14.214 Z-4.68
G0 Z15
M9
M30
%
