%
(1001)
(origin stock bottom)
(T1  D=6 CR=0 TAPER=118deg - ZMIN=-4.303 - drill)
G90 G94
G17
G21

(Drill1)
M9
T1 M6
S5000 M3
G54
G0 X-45 Y-200
Z27
Z23
Z20
G1 Z13 F750
G0 Z13.12
G1 Z8 F750
G0 Z8.12
G1 Z3 F750
G0 Z3.12
G1 Z-2 F750
G0 Z23
Z0
G1 Z-4.303 F750
G0 Z23
Z27
M30
%
