%
(1001)
(origin stock bottom)
(T1  D=6 CR=0 - ZMIN=0 - flat end mill)
G90 G94
G17
G21

(2D Contour1)
M9
T1 M6
S6500 M3
G54
G0 X-83 Y-181.794
Z27
Z17
G1 Z15 F283.3
Z14.5
Y-165 Z10
Y-95 F850
G2 X-80 Y-92 I3
G1 X-10
G2 X-7 Y-95 J-3
G1 Y-200
G2 X-83 I-38
G1 Y-165
Y-124.119 Z8 F283.3
Y-95 F850
G2 X-80 Y-92 I3
G1 X-10
G2 X-7 Y-95 J-3
G1 Y-200
G2 X-83 I-38
G1 Y-124.119
Y-95 Z6.575 F283.3
G2 X-80 Y-92 Z6.345 I3
G1 X-72.951 Z6
X-10 F850
G2 X-7 Y-95 J-3
G1 Y-200
G2 X-83 I-38
G1 Y-124.119
Y-95
G2 X-80 Y-92 I3
G1 X-72.951
X-32.071 Z4 F283.3
X-10 F850
G2 X-7 Y-95 J-3
G1 Y-200
G2 X-83 I-38
G1 Y-95
G2 X-80 Y-92 I3
G1 X-32.071
X-10 Z2.92 F283.3
G2 X-7 Y-95 Z2.69 J-3
G1 Y-109.097 Z2
Y-141.5 F850
Z3
Y-153.5
Z2 F283.3
Y-200 F850
G2 X-39 Y-237.523 I-38
G1 Z3
G2 X-51 I-6 J37.523
G1 Z2 F283.3
G2 X-83 Y-200 I6 J37.523 F850
G1 Y-153.5
Z3
Y-141.5
Z2 F283.3
Y-95 F850
G2 X-80 Y-92 I3
G1 X-51
Z3
X-39
Z2 F283.3
X-10 F850
G2 X-7 Y-95 J-3
G1 Y-109.097
Y-141.5 Z0.415 F283.3
Z3
Y-149.978
Y-153.5 F850
Z0 F283.3
Y-200 F850
G2 X-39 Y-237.523 I-38
G1 Z3
G2 X-51 I-6 J37.523
G1 Z0 F283.3
G2 X-83 Y-200 I6 J37.523 F850
G1 Y-153.5
Z3
Y-141.5
Z0 F283.3
Y-95 F850
G2 X-80 Y-92 I3
G1 X-51
Z3
X-39
Z0 F283.3
X-10 F850
G2 X-7 Y-95 J-3
G1 Y-141.5
Z3
Y-149.978
G0 Z27
M30
%
