%
(1001)
(origin stock top)
(T1  D=1.587 CR=0 - ZMIN=-4.5 - flat end mill)
G90 G94
G17
G21

(2D Contour2)
M9
T1 M6
S24000 M3
G54
G0 X-227.588 Y-70.953
Z15
Z5
G1 Z2.5 F283.2
Y-63.019 Z-0.388
Y-62.99 Z-0.398
X-227.589 Y-62.97 Z-0.406
Y-62.901 Z-0.431
Y-62.871 Z-0.441
X-227.59 Y-62.851 Z-0.449
Y-62.821 Z-0.46
X-227.592 Y-62.72 Z-0.497
X-227.593 Y-62.711 Z-0.5
G3 X-233.551 Y-47.824 I-27.769 J-2.478 F849.6
X-248.129 Y-41.6 I-14.107 J-12.858
X-263.088 Y-47.605 I-1.042 J-19.04
X-269.484 Y-62.686 I21.19 J-17.884
G1 X-269.468 Y-70.246
X-269.46 Y-77.807
X-269.461 Y-85.367
X-269.447 Y-97.398
X-269.444 Y-102.556
G3 X-269.447 Y-104.24 I22.679 J-0.884
X-269.434 Y-104.557 I22.683 J0.8 F212.4
X-268.31 Y-104.575 I1.524 J60.521 F849.6
X-267.993 Y-104.576 I0.4 J60.539 F212.4
G1 X-267.991 Y-63.472 F849.6
G2 X-267.007 Y-57.751 I15.913 J0.208
X-259.366 Y-46.128 I20.763 J-5.328
X-245.784 Y-43.199 I10.618 J-16.277
X-233.569 Y-50.209 I-1.261 J-16.344
X-229.119 Y-63.364 I-16.311 J-12.847
G1 X-229.072 Y-67.022
X-229.036 Y-70.68
X-229.012 Y-74.338
X-229 Y-77.996
X-228.999 Y-81.654
X-229.01 Y-85.313
X-229.019 Y-90.376
X-229.023 Y-92.064
X-229.026 Y-93.751
X-229.03 Y-95.439
X-229.033 Y-97.127
X-229.039 Y-102.188
Y-104.16
Y-104.477 F212.4
X-227.905 F849.6
X-227.588 F212.4
Y-63.123 F849.6
G3 X-227.592 Y-62.71 I-16.543 J0.018
G1 X-227.594 Y-62.689 F283.2
X-227.595 Y-62.669 Z-0.501
Y-62.639
X-227.598 Y-62.578 Z-0.502
X-227.606 Y-62.478 Z-0.504
X-227.612 Y-62.42 Z-0.505
X-227.624 Y-62.328 Z-0.506
X-227.628 Y-62.301 Z-0.507
X-227.631 Y-62.276
X-227.69 Y-61.816 Z-0.514
X-227.754 Y-61.364 Z-0.522
X-227.823 Y-60.915 Z-0.529
X-227.9 Y-60.468 Z-0.536
X-227.982 Y-60.023 Z-0.543
X-228.071 Y-59.581 Z-0.551
X-228.166 Y-59.141 Z-0.558
X-228.267 Y-58.705 Z-0.565
X-228.375 Y-58.269 Z-0.572
X-228.489 Y-57.837 Z-0.579
X-228.61 Y-57.406 Z-0.587
X-228.737 Y-56.978 Z-0.594
X-228.871 Y-56.551 Z-0.601
X-229.011 Y-56.127 Z-0.608
X-229.158 Y-55.705 Z-0.615
X-229.312 Y-55.284 Z-0.622
X-229.471 Y-54.865 Z-0.63
X-229.638 Y-54.449 Z-0.637
X-229.813 Y-54.033 Z-0.644
X-229.993 Y-53.62 Z-0.651
X-230.181 Y-53.208 Z-0.658
X-230.375 Y-52.798 Z-0.666
X-230.577 Y-52.389 Z-0.673
X-230.785 Y-51.984 Z-0.68
X-230.913 Y-51.746 Z-0.685
X-231.044 Y-51.508 Z-0.689
X-231.177 Y-51.273 Z-0.693
X-231.313 Y-51.04 Z-0.698
X-231.451 Y-50.809 Z-0.702
X-231.59 Y-50.58 Z-0.706
X-231.731 Y-50.356 Z-0.71
X-231.875 Y-50.132 Z-0.715
X-232.02 Y-49.912 Z-0.719
X-232.167 Y-49.695 Z-0.723
X-232.317 Y-49.479 Z-0.727
X-232.469 Y-49.267 Z-0.731
X-232.622 Y-49.057 Z-0.736
X-232.777 Y-48.851 Z-0.74
X-232.936 Y-48.645 Z-0.744
X-233.096 Y-48.443 Z-0.748
X-233.257 Y-48.244 Z-0.752
X-233.421 Y-48.048 Z-0.756
X-233.587 Y-47.854 Z-0.76
X-233.755 Y-47.663 Z-0.764
X-233.926 Y-47.475 Z-0.768
X-234.099 Y-47.288 Z-0.773
X-234.273 Y-47.105 Z-0.777
X-234.449 Y-46.927 Z-0.781
X-234.698 Y-46.683 Z-0.786
X-234.953 Y-46.443 Z-0.792
X-235.212 Y-46.209 Z-0.797
X-235.475 Y-45.98 Z-0.803
X-235.742 Y-45.757 Z-0.808
X-236.014 Y-45.539 Z-0.814
X-236.291 Y-45.326 Z-0.82
X-236.572 Y-45.119 Z-0.825
X-236.857 Y-44.917 Z-0.831
X-237.147 Y-44.721 Z-0.836
X-237.443 Y-44.53 Z-0.842
X-237.742 Y-44.344 Z-0.848
X-238.047 Y-44.164 Z-0.853
X-238.356 Y-43.99 Z-0.859
X-238.671 Y-43.821 Z-0.865
X-238.989 Y-43.658 Z-0.87
X-239.314 Y-43.5 Z-0.876
X-239.643 Y-43.348 Z-0.882
X-239.978 Y-43.202 Z-0.888
X-240.317 Y-43.061 Z-0.894
X-240.662 Y-42.927 Z-0.9
X-241.013 Y-42.798 Z-0.906
X-241.369 Y-42.674 Z-0.912
X-241.729 Y-42.557 Z-0.918
X-242.151 Y-42.43 Z-0.925
X-242.572 Y-42.311 Z-0.932
X-242.996 Y-42.201 Z-0.939
X-243.419 Y-42.1 Z-0.946
X-243.844 Y-42.008 Z-0.953
X-244.269 Y-41.924 Z-0.96
X-244.696 Y-41.849 Z-0.967
X-245.122 Y-41.783 Z-0.974
X-245.55 Y-41.725 Z-0.98
X-245.978 Y-41.676 Z-0.987
X-246.408 Y-41.634 Z-0.994
X-246.766 Y-41.607 Z-1
G3 X-258.993 Y-44.203 I-1.752 J-21.834 F849.6
X-267.919 Y-56.178 I11.964 J-18.232
X-269.461 Y-63.029 I17.378 J-7.51
G1 X-269.464 Y-74.198
X-269.461 Y-85.367
X-269.447 Y-97.398
X-269.444 Y-102.556
G3 X-269.447 Y-104.24 I22.679 J-0.884
X-269.434 Y-104.557 I22.683 J0.8 F212.4
X-268.31 Y-104.575 I1.524 J60.521 F849.6
X-267.993 Y-104.576 I0.4 J60.539 F212.4
G1 X-267.991 Y-63.472 F849.6
G2 X-267.007 Y-57.751 I15.913 J0.208
X-259.366 Y-46.128 I20.763 J-5.328
X-245.784 Y-43.199 I10.618 J-16.277
X-233.569 Y-50.209 I-1.261 J-16.344
X-229.119 Y-63.364 I-16.311 J-12.847
G1 X-229.072 Y-67.022
X-229.036 Y-70.68
X-229.012 Y-74.338
X-229 Y-77.996
X-228.999 Y-81.654
X-229.01 Y-85.313
X-229.019 Y-90.376
X-229.023 Y-92.064
X-229.026 Y-93.751
X-229.03 Y-95.439
X-229.033 Y-97.127
X-229.039 Y-102.188
Y-104.16
Y-104.477 F212.4
X-227.905 F849.6
X-227.588 F212.4
Y-63.123 F849.6
G3 X-227.982 Y-60.023 I-12.005 J0.047
X-234.237 Y-47.073 I-26.139 J-4.639
X-246.765 Y-41.634 I-13.391 J-13.694
G1 X-246.838 Y-41.602 Z-1.001 F283.2
X-247.267 Y-41.577 Z-1.008
X-247.698 Y-41.561 Z-1.015
X-248.13 Y-41.553 Z-1.022
X-248.562 Z-1.029
X-248.995 Y-41.561 Z-1.036
X-249.428 Y-41.577 Z-1.043
X-249.861 Y-41.601 Z-1.05
X-250.295 Y-41.633 Z-1.057
X-250.729 Y-41.672 Z-1.064
X-251.163 Y-41.72 Z-1.071
X-251.598 Y-41.775 Z-1.078
X-252.036 Y-41.838 Z-1.085
X-252.542 Y-41.916 Z-1.093
X-253.039 Y-42.005 Z-1.101
X-253.529 Y-42.106 Z-1.109
X-254.014 Y-42.219 Z-1.117
X-254.493 Y-42.343 Z-1.125
X-254.967 Y-42.479 Z-1.133
X-255.435 Y-42.627 Z-1.141
X-255.897 Y-42.787 Z-1.148
X-256.353 Y-42.958 Z-1.156
X-256.804 Y-43.142 Z-1.164
X-257.249 Y-43.338 Z-1.172
X-257.688 Y-43.546 Z-1.18
X-258.121 Y-43.767 Z-1.187
X-258.548 Y-44 Z-1.195
X-258.97 Y-44.245 Z-1.203
X-259.386 Y-44.504 Z-1.211
X-259.796 Y-44.774 Z-1.219
X-260.199 Y-45.058 Z-1.227
X-260.598 Y-45.355 Z-1.234
X-260.99 Y-45.665 Z-1.242
X-261.376 Y-45.989 Z-1.251
X-261.755 Y-46.325 Z-1.259
X-262.129 Y-46.676 Z-1.267
X-262.501 Y-47.043 Z-1.275
X-262.786 Y-47.334 Z-1.282
X-263.063 Y-47.629 Z-1.288
X-263.333 Y-47.928 Z-1.295
X-263.597 Y-48.233 Z-1.301
X-263.854 Y-48.542 Z-1.308
X-264.104 Y-48.856 Z-1.314
X-264.349 Y-49.174 Z-1.32
X-264.587 Y-49.496 Z-1.327
X-264.818 Y-49.823 Z-1.333
X-265.044 Y-50.154 Z-1.34
X-265.263 Y-50.489 Z-1.346
X-265.476 Y-50.829 Z-1.352
X-265.684 Y-51.173 Z-1.359
X-265.887 Y-51.52 Z-1.365
X-266.083 Y-51.871 Z-1.372
X-266.272 Y-52.226 Z-1.378
X-266.458 Y-52.584 Z-1.385
X-266.637 Y-52.946 Z-1.391
X-266.811 Y-53.312 Z-1.398
X-266.98 Y-53.68 Z-1.404
X-267.143 Y-54.052 Z-1.411
X-267.301 Y-54.427 Z-1.417
X-267.454 Y-54.804 Z-1.424
X-267.603 Y-55.186 Z-1.43
X-267.725 Y-55.511 Z-1.436
X-267.846 Y-55.838 Z-1.441
X-267.966 Y-56.164 Z-1.447
X-268.083 Y-56.49 Z-1.452
X-268.197 Y-56.815 Z-1.458
X-268.309 Y-57.14 Z-1.463
X-268.416 Y-57.464 Z-1.469
X-268.521 Y-57.789 Z-1.474
X-268.621 Y-58.114 Z-1.48
X-268.718 Y-58.439 Z-1.485
X-268.81 Y-58.764 Z-1.491
X-268.897 Y-59.087 Z-1.496
X-268.957 Y-59.331 Z-1.5
G3 X-269.447 Y-63.03 I15.094 J-3.881 F849.6
G1 X-269.462 Y-70.476
X-269.466 Y-77.921
X-269.461 Y-85.367
X-269.447 Y-97.398
X-269.444 Y-102.556
G3 X-269.447 Y-104.24 I22.679 J-0.884
X-269.434 Y-104.557 I22.683 J0.8 F212.4
X-268.31 Y-104.575 I1.524 J60.521 F849.6
X-267.993 Y-104.576 I0.4 J60.539 F212.4
G1 X-267.991 Y-63.472 F849.6
G2 X-267.007 Y-57.751 I15.913 J0.208
X-259.366 Y-46.128 I20.763 J-5.328
X-245.784 Y-43.199 I10.618 J-16.277
X-233.569 Y-50.209 I-1.261 J-16.344
X-229.119 Y-63.364 I-16.311 J-12.847
G1 X-229.072 Y-67.022
X-229.036 Y-70.68
X-229.012 Y-74.338
X-229 Y-77.996
X-228.999 Y-81.654
X-229.01 Y-85.313
X-229.019 Y-90.376
X-229.023 Y-92.064
X-229.026 Y-93.751
X-229.03 Y-95.439
X-229.033 Y-97.127
X-229.039 Y-102.188
Y-104.16
Y-104.477 F212.4
X-227.905 F849.6
X-227.588 F212.4
Y-63.123 F849.6
G3 X-227.982 Y-60.023 I-12.005 J0.047
X-234.237 Y-47.073 I-26.139 J-4.639
X-248.992 Y-41.607 I-13.578 J-14.007
X-266.232 Y-52.245 I-0.324 J-18.763
X-268.957 Y-59.33 I29.826 J-15.538
G1 X-268.977 Y-59.412 Z-1.501 F283.2
X-269.053 Y-59.737 Z-1.507
X-269.124 Y-60.062 Z-1.512
X-269.188 Y-60.389 Z-1.517
X-269.246 Y-60.715 Z-1.523
X-269.296 Y-61.041 Z-1.528
X-269.34 Y-61.369 Z-1.533
X-269.377 Y-61.698 Z-1.539
X-269.405 Y-62.026 Z-1.544
X-269.426 Y-62.358 Z-1.549
X-269.439 Y-62.691 Z-1.554
X-269.444 Y-63.03 Z-1.56
X-269.454 Y-66.463 Z-1.615
X-269.458 Y-68.181 Z-1.642
X-269.461 Y-69.9 Z-1.67
X-269.465 Y-73.337 Z-1.725
Y-75.055 Z-1.752
X-269.466 Y-76.774 Z-1.78
Y-78.492 Z-1.807
X-269.464 Y-81.929 Z-1.862
X-269.462 Y-83.648 Z-1.89
X-269.461 Y-85.367 Z-1.917
X-269.455 Y-90.528 Z-2
X-269.447 Y-97.398 F849.6
X-269.444 Y-102.556
G3 X-269.447 Y-104.24 I22.679 J-0.884
X-269.434 Y-104.557 I22.683 J0.8 F212.4
X-268.31 Y-104.575 I1.524 J60.521 F849.6
X-267.993 Y-104.576 I0.4 J60.539 F212.4
G1 X-267.991 Y-63.472 F849.6
G2 X-267.007 Y-57.751 I15.913 J0.208
X-259.366 Y-46.128 I20.763 J-5.328
X-245.784 Y-43.199 I10.618 J-16.277
X-233.569 Y-50.209 I-1.261 J-16.344
X-229.119 Y-63.364 I-16.311 J-12.847
G1 X-229.072 Y-67.022
X-229.036 Y-70.68
X-229.012 Y-74.338
X-229 Y-77.996
X-228.999 Y-81.654
X-229.01 Y-85.313
X-229.019 Y-90.376
X-229.023 Y-92.064
X-229.026 Y-93.751
X-229.03 Y-95.439
X-229.033 Y-97.127
X-229.039 Y-102.188
Y-104.16
Y-104.477 F212.4
X-227.905 F849.6
X-227.588 F212.4
Y-63.123 F849.6
G3 X-227.982 Y-60.023 I-12.005 J0.047
X-234.237 Y-47.073 I-26.139 J-4.639
X-249.424 Y-41.627 I-13.618 J-14.075
X-266.042 Y-51.891 I0.02 J-18.618
X-269.476 Y-62.352 I24.936 J-13.979
G1 X-269.465 Y-73.859
X-269.461 Y-85.367
X-269.455 Y-90.528
X-269.447 Y-97.398 Z-2.11 F283.2
X-269.444 Y-102.556 Z-2.193
Y-104.265 Z-2.22
X-269.443 Y-104.297
Y-104.316 Z-2.221
Y-104.349
Y-104.372 Z-2.222
X-269.434 Y-104.557 Z-2.225
X-269.411 Y-104.558
X-269.17 Y-104.563 Z-2.229
X-268.684 Y-104.571 Z-2.237
X-268.2 Y-104.575 Z-2.244
X-268.074 Z-2.246
X-267.993 Y-104.576 Z-2.248
Y-88.808 Z-2.5
X-267.991 Y-63.472 F849.6
G2 X-267.007 Y-57.751 I15.913 J0.208
X-259.366 Y-46.128 I20.763 J-5.328
X-245.784 Y-43.199 I10.618 J-16.277
X-233.569 Y-50.209 I-1.261 J-16.344
X-229.119 Y-63.364 I-16.311 J-12.847
G1 X-229.072 Y-67.022
X-229.036 Y-70.68
X-229.012 Y-74.338
X-229 Y-77.996
X-228.999 Y-81.654
X-229.01 Y-85.313
X-229.019 Y-90.376
X-229.023 Y-92.064
X-229.026 Y-93.751
X-229.03 Y-95.439
X-229.033 Y-97.127
X-229.039 Y-102.188
Y-104.16
Y-104.477 F212.4
X-227.905 F849.6
X-227.588 F212.4
Y-63.123 F849.6
G3 X-227.982 Y-60.023 I-12.005 J0.047
X-234.237 Y-47.073 I-26.139 J-4.639
X-249.424 Y-41.627 I-13.618 J-14.075
X-266.042 Y-51.891 I0.02 J-18.618
X-269.475 Y-62.352 I24.957 J-13.983
G1 X-269.465 Y-73.86
X-269.461 Y-85.367
X-269.447 Y-97.398
X-269.444 Y-102.556
G3 X-269.447 Y-104.24 I22.679 J-0.884
X-269.434 Y-104.557 I22.683 J0.8 F212.4
X-268.31 Y-104.575 I1.524 J60.521 F849.6
X-267.993 Y-104.576 I0.4 J60.539 F212.4
G1 Y-88.808 F849.6
Y-63.334 Z-2.908 F283.2
Y-63.322
X-267.992 Y-63.258 Z-2.909
Y-63.053 Z-2.912
Y-63.042
X-267.991 Y-62.976 Z-2.913
Y-62.911 Z-2.914
Y-62.9 Z-2.915
X-267.988 Y-62.685 Z-2.918
X-267.987 Y-62.674
X-267.986 Y-62.608 Z-2.919
X-267.985 Y-62.542 Z-2.92
X-267.984 Y-62.531 Z-2.921
X-267.982 Y-62.459 Z-2.922
Y-62.448
X-267.979 Y-62.382 Z-2.923
X-267.977 Y-62.317 Z-2.924
Y-62.305
X-267.971 Y-62.163 Z-2.926
X-267.97 Y-62.152 Z-2.927
X-267.962 Y-62.01 Z-2.929
Y-61.999
X-267.947 Y-61.789 Z-2.932
X-267.946 Y-61.778 Z-2.933
X-267.94 Y-61.709 Z-2.934
X-267.936 Y-61.675
X-267.931 Y-61.642 Z-2.935
X-267.847 Y-61.158 Z-2.943
X-267.845 Y-61.146
X-267.754 Y-60.663 Z-2.951
X-267.752 Y-60.653
X-267.655 Y-60.173 Z-2.959
X-267.653 Y-60.162
X-267.549 Y-59.684 Z-2.967
X-267.546 Y-59.672
X-267.435 Y-59.197 Z-2.975
X-267.432 Y-59.185
X-267.314 Y-58.712 Z-2.983
X-267.311 Y-58.699
X-267.185 Y-58.229 Z-2.991
X-267.181 Y-58.217
X-267.048 Y-57.75 Z-2.999
X-267.044 Y-57.737
X-267.026 Y-57.675 Z-3
G2 X-260.058 Y-46.646 I21.609 J-5.936 F849.6
X-246.2 Y-43.159 I11.217 J-15.298
X-233.401 Y-50.436 I-0.919 J-16.51
X-229.12 Y-63.364 I-16.421 J-12.61
G1 X-229.072 Y-67.022
X-229.036 Y-70.68
X-229.012 Y-74.338
X-229 Y-77.996
X-228.999 Y-81.654
X-229.01 Y-85.313
X-229.019 Y-90.376
X-229.023 Y-92.064
X-229.026 Y-93.751
X-229.03 Y-95.439
X-229.033 Y-97.127
X-229.039 Y-102.188
Y-104.16
Y-104.477 F212.4
X-227.905 F849.6
X-227.588 F212.4
Y-63.123 F849.6
G3 X-227.982 Y-60.023 I-12.005 J0.047
X-234.237 Y-47.073 I-26.139 J-4.639
X-249.424 Y-41.627 I-13.618 J-14.075
X-266.042 Y-51.891 I0.02 J-18.618
X-269.475 Y-62.352 I24.957 J-13.983
G1 X-269.465 Y-73.86
X-269.461 Y-85.367
X-269.447 Y-97.398
X-269.444 Y-102.556
G3 X-269.447 Y-104.24 I22.679 J-0.884
X-269.434 Y-104.557 I22.683 J0.8 F212.4
X-268.31 Y-104.575 I1.524 J60.521 F849.6
X-267.993 Y-104.576 I0.4 J60.539 F212.4
G1 X-267.991 Y-63.472 F849.6
G2 X-267.114 Y-58.05 I15.913 J0.208
X-267.007 Y-57.751 I15.036 J-5.214 F212.4
G1 X-267.026 Y-57.676 F849.6
X-266.903 Y-57.273 Z-3.007 F283.2
X-266.899 Y-57.259
X-266.75 Y-56.798 Z-3.015
X-266.746 Y-56.785
X-266.589 Y-56.327 Z-3.023
X-266.584 Y-56.313
X-266.419 Y-55.859 Z-3.031
X-266.414 Y-55.844
X-266.24 Y-55.393 Z-3.039
X-266.234 Y-55.378
X-266.051 Y-54.93 Z-3.047
X-266.045 Y-54.915
X-265.853 Y-54.471 Z-3.055
X-265.846 Y-54.457
X-265.645 Y-54.016 Z-3.063
X-265.638 Y-54.001
X-265.428 Y-53.565 Z-3.071
X-265.421 Y-53.549
X-265.201 Y-53.116 Z-3.079
X-265.193 Y-53.102
X-264.964 Y-52.673 Z-3.087
X-264.956 Y-52.658
X-264.717 Y-52.233 Z-3.095
X-264.707 Y-52.217
X-264.457 Y-51.796 Z-3.103
X-264.448 Y-51.781
X-264.188 Y-51.365 Z-3.111
X-264.179 Y-51.35
X-263.909 Y-50.939 Z-3.119
X-263.898 Y-50.923 Z-3.12
X-263.617 Y-50.516 Z-3.127
X-263.609 Y-50.504 Z-3.128
X-263.357 Y-50.153 Z-3.135
X-263.346 Y-50.138
X-263.088 Y-49.796 Z-3.142
X-263.078 Y-49.783
X-262.815 Y-49.448 Z-3.149
X-262.802 Y-49.433
X-262.532 Y-49.107 Z-3.156
X-262.521 Y-49.094
X-262.246 Y-48.776 Z-3.163
X-262.232 Y-48.761
X-261.95 Y-48.452 Z-3.17
X-261.938 Y-48.439
X-261.651 Y-48.138 Z-3.177
X-261.636 Y-48.124
X-261.342 Y-47.832 Z-3.184
X-261.328 Y-47.818
X-261.028 Y-47.534 Z-3.191
X-261.014 Y-47.521
X-260.708 Y-47.246 Z-3.198
X-260.692 Y-47.232
X-260.379 Y-46.965 Z-3.205
X-260.363 Y-46.952
X-260.044 Y-46.694 Z-3.212
X-260.027 Y-46.681
X-259.701 Y-46.431 Z-3.218
X-259.685 Y-46.419 Z-3.219
X-259.353 Y-46.178 Z-3.225
X-259.337 Y-46.167 Z-3.226
X-258.999 Y-45.934 Z-3.232
X-258.98 Y-45.922 Z-3.233
X-258.634 Y-45.698 Z-3.239
X-258.617 Y-45.688 Z-3.24
X-258.265 Y-45.473 Z-3.246
X-258.247 Y-45.462
X-257.888 Y-45.255 Z-3.253
X-257.869 Y-45.245
X-257.503 Y-45.047 Z-3.26
X-257.486 Y-45.038
X-257.114 Y-44.849 Z-3.267
X-257.094 Y-44.84
X-256.714 Y-44.66 Z-3.274
X-256.695 Y-44.651
X-256.308 Y-44.48 Z-3.281
X-256.29 Y-44.472 Z-3.282
X-255.896 Y-44.309 Z-3.288
X-255.877 Y-44.302 Z-3.289
X-255.476 Y-44.148 Z-3.296
X-255.453 Y-44.139
X-255.073 Y-44.007 Z-3.302
X-255.056 Y-44.001 Z-3.303
X-254.675 Y-43.878 Z-3.309
X-254.659 Y-43.873
X-254.278 Y-43.759 Z-3.316
X-254.261 Y-43.754
X-253.879 Y-43.649 Z-3.322
X-253.862 Y-43.644 Z-3.323
X-253.48 Y-43.548 Z-3.329
X-253.463 Y-43.544
X-253.079 Y-43.456 Z-3.336
X-253.063 Y-43.452
X-252.68 Y-43.373 Z-3.342
X-252.663 Y-43.369
X-252.278 Y-43.298 Z-3.349
X-252.262 Y-43.295
X-251.877 Y-43.232 Z-3.355
X-251.861 Y-43.23
X-251.476 Y-43.175 Z-3.362
X-251.46 Y-43.173
X-251.073 Y-43.125 Z-3.368
X-251.058 Y-43.124
X-250.671 Y-43.084 Z-3.375
X-250.655 Y-43.083
X-250.267 Y-43.051 Z-3.381
X-250.252 Y-43.049
X-249.863 Y-43.025 Z-3.388
X-249.849 Y-43.024
X-249.459 Y-43.006 Z-3.394
X-249.444
X-249.054 Y-42.996 Z-3.4
X-249.04 Y-42.995 Z-3.401
X-248.648 Y-42.992 Z-3.407
X-248.634
X-248.242 Y-42.995 Z-3.413
X-248.229 Z-3.414
X-247.836 Y-43.005 Z-3.42
X-247.823 Y-43.006
X-247.429 Y-43.022 Z-3.427
X-247.417 Y-43.023
X-247.022 Y-43.045 Z-3.433
X-247.009 Y-43.046
X-246.613 Y-43.075 Z-3.44
X-246.602 Y-43.076
X-246.205 Y-43.111 Z-3.446
X-246.193 Y-43.112
X-245.794 Y-43.153 Z-3.453
X-245.777 Y-43.155
X-245.343 Y-43.209 Z-3.46
X-245.327 Y-43.211
X-244.896 Y-43.273 Z-3.467
X-244.88 Y-43.276 Z-3.468
X-244.452 Y-43.347 Z-3.474
X-244.435 Y-43.35 Z-3.475
X-244.011 Y-43.43 Z-3.482
X-243.993 Y-43.433
X-243.572 Y-43.523 Z-3.489
X-243.554 Y-43.527
X-243.138 Y-43.625 Z-3.496
X-243.12 Y-43.63
X-242.888 Y-43.69 Z-3.5
G2 X-233.399 Y-50.435 I-4.221 J-15.986 F849.6
X-229.119 Y-63.364 I-16.455 J-12.62
G1 X-229.072 Y-67.022
X-229.036 Y-70.68
X-229.012 Y-74.338
X-229 Y-77.996
X-228.999 Y-81.654
X-229.01 Y-85.313
X-229.019 Y-90.376
X-229.023 Y-92.064
X-229.026 Y-93.751
X-229.03 Y-95.439
X-229.033 Y-97.127
X-229.039 Y-102.188
Y-104.16
Y-104.477 F212.4
X-227.905 F849.6
X-227.588 F212.4
Y-63.123 F849.6
G3 X-227.982 Y-60.023 I-12.005 J0.047
X-234.237 Y-47.073 I-26.139 J-4.639
X-249.424 Y-41.627 I-13.618 J-14.075
X-266.042 Y-51.891 I0.02 J-18.618
X-269.475 Y-62.352 I24.957 J-13.983
G1 X-269.465 Y-73.86
X-269.461 Y-85.367
X-269.447 Y-97.398
X-269.444 Y-102.556
G3 X-269.447 Y-104.24 I22.679 J-0.884
X-269.434 Y-104.557 I22.683 J0.8 F212.4
X-268.31 Y-104.575 I1.524 J60.521 F849.6
X-267.993 Y-104.576 I0.4 J60.539 F212.4
G1 X-267.991 Y-63.472 F849.6
G2 X-267.007 Y-57.751 I15.913 J0.208
X-259.366 Y-46.128 I20.763 J-5.328
X-245.784 Y-43.199 I10.618 J-16.277
X-242.897 Y-43.696 I-0.681 J-12.581
G1 X-242.707 Y-43.738 Z-3.503 F283.2
X-242.689 Y-43.743
X-242.28 Y-43.86 Z-3.51
X-242.261 Y-43.866 Z-3.511
X-241.856 Y-43.993 Z-3.517
X-241.836 Y-44 Z-3.518
X-241.436 Y-44.137 Z-3.524
X-241.417 Y-44.144 Z-3.525
X-241.02 Y-44.292 Z-3.532
X-240.999 Y-44.3
X-240.608 Y-44.458 Z-3.539
X-240.589 Y-44.466
X-240.202 Y-44.635 Z-3.546
X-240.181 Y-44.644
X-239.799 Y-44.824 Z-3.553
X-239.779 Y-44.834
X-239.402 Y-45.025 Z-3.56
X-239.381 Y-45.035
X-239.009 Y-45.237 Z-3.567
X-238.989 Y-45.249 Z-3.568
X-238.622 Y-45.462 Z-3.574
X-238.602 Y-45.474 Z-3.575
X-238.24 Y-45.699 Z-3.581
X-238.219 Y-45.712 Z-3.582
X-237.863 Y-45.949 Z-3.589
X-237.843 Y-45.963
X-237.493 Y-46.212 Z-3.596
X-237.474 Y-46.226
X-237.129 Y-46.487 Z-3.603
X-237.11 Y-46.502 Z-3.604
X-236.771 Y-46.775 Z-3.611
X-236.752 Y-46.791
X-236.419 Y-47.077 Z-3.618
X-236.401 Y-47.093
X-236.074 Y-47.392 Z-3.626
X-236.064 Y-47.401
X-235.856 Y-47.597 Z-3.63
X-235.644 Y-47.802 Z-3.635
X-235.638 Y-47.808
X-235.436 Y-48.008 Z-3.64
X-235.428 Y-48.016
X-235.223 Y-48.225 Z-3.645
X-235.028 Y-48.428 Z-3.649
X-235.02 Y-48.436
X-234.829 Y-48.641 Z-3.654
X-234.823 Y-48.648
X-234.629 Y-48.862 Z-3.659
X-234.444 Y-49.07 Z-3.663
X-234.436 Y-49.079
X-234.25 Y-49.294 Z-3.668
X-234.071 Y-49.505 Z-3.672
X-234.062 Y-49.516
X-233.884 Y-49.735 Z-3.677
X-233.712 Y-49.949 Z-3.681
X-233.704 Y-49.959 Z-3.682
X-233.536 Y-50.175 Z-3.686
X-233.53 Y-50.183
X-233.365 Y-50.4 Z-3.69
X-233.36 Y-50.408 Z-3.691
X-233.198 Y-50.627 Z-3.695
X-233.19 Y-50.637
X-233.033 Y-50.858 Z-3.699
X-233.027 Y-50.866 Z-3.7
X-232.872 Y-51.088 Z-3.704
X-232.865 Y-51.098
X-232.71 Y-51.328 Z-3.709
X-232.561 Y-51.554 Z-3.713
X-232.554 Y-51.564
X-232.409 Y-51.791 Z-3.717
X-232.403 Y-51.801 Z-3.718
X-232.258 Y-52.036 Z-3.722
X-232.119 Y-52.265 Z-3.726
X-232.112 Y-52.276 Z-3.727
X-231.977 Y-52.507 Z-3.731
X-231.973 Y-52.516
X-231.841 Y-52.748 Z-3.735
X-231.835 Y-52.759
X-231.623 Y-53.145 Z-3.743
X-231.615 Y-53.161
X-231.412 Y-53.551 Z-3.75
X-231.404 Y-53.567
X-231.21 Y-53.961 Z-3.757
X-231.203 Y-53.975
X-231.017 Y-54.373 Z-3.764
X-231.009 Y-54.391 Z-3.765
X-230.833 Y-54.792 Z-3.772
X-230.827 Y-54.807
X-230.659 Y-55.212 Z-3.779
X-230.652 Y-55.228
X-230.493 Y-55.637 Z-3.786
X-230.487 Y-55.654 Z-3.787
X-230.337 Y-56.066 Z-3.794
X-230.332 Y-56.081
X-230.19 Y-56.497 Z-3.801
X-230.184 Y-56.515
X-230.052 Y-56.934 Z-3.808
X-230.047 Y-56.949 Z-3.809
X-229.923 Y-57.372 Z-3.816
X-229.919 Y-57.388
X-229.804 Y-57.814 Z-3.823
X-229.799 Y-57.831
X-229.693 Y-58.26 Z-3.83
X-229.689 Y-58.276 Z-3.831
X-229.592 Y-58.709 Z-3.838
X-229.589 Y-58.726
X-229.501 Y-59.161 Z-3.845
X-229.498 Y-59.176
X-229.418 Y-59.615 Z-3.852
X-229.415 Y-59.631 Z-3.853
X-229.344 Y-60.073 Z-3.86
X-229.342 Y-60.091
X-229.281 Y-60.536 Z-3.867
X-229.279 Y-60.55 Z-3.868
X-229.226 Y-60.998 Z-3.875
X-229.224 Y-61.014
X-229.18 Y-61.465 Z-3.882
X-229.179 Y-61.481 Z-3.883
X-229.144 Y-61.934 Z-3.89
X-229.143 Y-61.95
X-229.117 Y-62.406 Z-3.897
X-229.116 Y-62.422 Z-3.898
X-229.099 Y-62.881 Z-3.905
X-229.098 Y-62.895
X-229.089 Y-63.364 Z-3.913
X-229.072 Y-65.052 Z-3.94
X-229.057 Y-66.74 Z-3.967
X-229.044 Y-68.429 Z-3.994
X-229.042 Y-68.821 Z-4
X-229.017 Y-74.318 F849.6
X-229.006 Y-79.815
X-229.01 Y-85.313
X-229.019 Y-90.376
X-229.023 Y-92.064
X-229.026 Y-93.751
X-229.03 Y-95.439
X-229.033 Y-97.127
X-229.039 Y-102.188
Y-104.16
Y-104.477 F212.4
X-227.905 F849.6
X-227.588 F212.4
Y-63.123 F849.6
G3 X-227.982 Y-60.023 I-12.005 J0.047
X-234.237 Y-47.073 I-26.139 J-4.639
X-249.424 Y-41.627 I-13.618 J-14.075
X-266.042 Y-51.891 I0.02 J-18.618
X-269.475 Y-62.352 I24.957 J-13.983
G1 X-269.465 Y-73.86
X-269.461 Y-85.367
X-269.447 Y-97.398
X-269.444 Y-102.556
G3 X-269.447 Y-104.24 I22.679 J-0.884
X-269.434 Y-104.557 I22.683 J0.8 F212.4
X-268.31 Y-104.575 I1.524 J60.521 F849.6
X-267.993 Y-104.576 I0.4 J60.539 F212.4
G1 X-267.991 Y-63.472 F849.6
G2 X-267.007 Y-57.751 I15.913 J0.208
X-259.366 Y-46.128 I20.763 J-5.328
X-245.784 Y-43.199 I10.618 J-16.277
X-233.569 Y-50.209 I-1.262 J-16.345
X-229.119 Y-63.364 I-16.312 J-12.848
X-229.044 Y-68.818 I-175.722 J-5.153
G1 X-229.034 Y-70.118 Z-4.021 F283.2
X-229.025 Y-71.806 Z-4.048
X-229.018 Y-73.495 Z-4.075
X-229.013 Y-75.183 Z-4.102
X-229.01 Y-76.872 Z-4.129
X-229.008 Y-78.56 Z-4.156
X-229.007 Y-80.248 Z-4.183
Y-81.936 Z-4.21
X-229.008 Y-83.625 Z-4.237
X-229.01 Y-85.313 Z-4.264
X-229.019 Y-90.376 Z-4.345
X-229.023 Y-92.064 Z-4.372
X-229.026 Y-93.751 Z-4.399
X-229.03 Y-95.439 Z-4.426
X-229.033 Y-97.127 Z-4.453
X-229.037 Y-100.057 Z-4.5
X-229.039 Y-102.188 F849.6
Y-104.16
Y-104.477 F212.4
X-227.905 F849.6
X-227.588 F212.4
Y-63.123 F849.6
G3 X-227.982 Y-60.023 I-12.005 J0.047
X-234.237 Y-47.073 I-26.139 J-4.639
X-249.424 Y-41.627 I-13.618 J-14.075
X-266.042 Y-51.891 I0.02 J-18.618
X-269.475 Y-62.352 I24.957 J-13.983
G1 X-269.465 Y-73.86
X-269.461 Y-85.367
X-269.447 Y-97.398
X-269.444 Y-102.556
G3 X-269.447 Y-104.24 I22.679 J-0.884
X-269.434 Y-104.557 I22.683 J0.8 F212.4
X-268.31 Y-104.575 I1.524 J60.521 F849.6
X-267.993 Y-104.576 I0.4 J60.539 F212.4
G1 X-267.991 Y-63.472 F849.6
G2 X-267.007 Y-57.751 I15.913 J0.208
X-259.366 Y-46.128 I20.763 J-5.328
X-245.784 Y-43.199 I10.618 J-16.277
X-233.569 Y-50.209 I-1.261 J-16.344
X-229.119 Y-63.364 I-16.311 J-12.847
G1 X-229.072 Y-67.022
X-229.036 Y-70.68
X-229.012 Y-74.338
X-229 Y-77.996
X-228.999 Y-81.654
X-229.01 Y-85.313
X-229.019 Y-90.376
X-229.037 Y-100.057
G0 Z5
X-192.635 Y-74.868
G1 Z2.5 F283.2
X-192.537 Y-74.766 Z2.448
X-192.529 Y-74.759 Z2.444
X-192.391 Y-74.62 Z2.373
X-192.212 Y-74.444 Z2.282
X-192.204 Y-74.436 Z2.278
X-192.023 Y-74.262 Z2.187
X-192.014 Y-74.253 Z2.182
X-191.83 Y-74.083 Z2.09
X-191.82 Y-74.074 Z2.086
X-191.633 Y-73.906 Z1.994
X-191.626 Y-73.899 Z1.991
X-191.437 Y-73.734 Z1.899
X-191.427 Y-73.726 Z1.895
X-191.235 Y-73.563 Z1.803
X-191.227 Y-73.556 Z1.799
X-191.033 Y-73.396 Z1.708
X-191.023 Y-73.389 Z1.703
X-190.826 Y-73.231 Z1.611
X-190.817 Y-73.224 Z1.607
X-190.611 Y-73.064 Z1.512
X-190.41 Y-72.912 Z1.42
X-190.4 Y-72.905 Z1.416
X-190.196 Y-72.755 Z1.324
X-190.188 Y-72.749 Z1.32
X-189.982 Y-72.601 Z1.228
X-189.973 Y-72.595 Z1.224
X-189.756 Y-72.444 Z1.128
X-189.539 Y-72.297 Z1.032
X-189.327 Y-72.156 Z0.94
X-189.318 Y-72.15 Z0.936
X-189.103 Y-72.012 Z0.843
X-188.873 Y-71.867 Z0.744
X-188.655 Y-71.732 Z0.65
X-188.646 Y-71.727 Z0.647
X-188.419 Y-71.591 Z0.55
X-188.19 Y-71.457 Z0.454
X-187.959 Y-71.324 Z0.357
X-187.726 Y-71.194 Z0.26
X-187.493 Y-71.066 Z0.163
X-187.269 Y-70.946 Z0.071
X-187.163 Y-70.886 Z0.026
X-187.111 Y-70.858 Z0.005
X-187.008 Y-70.801 Z-0.038
X-186.899 Y-70.741 Z-0.084
X-186.847 Y-70.712 Z-0.105
X-186.789 Y-70.68 Z-0.129
X-186.738 Y-70.652 Z-0.15
X-186.674 Y-70.617 Z-0.177
X-186.938 Y-70.011 Z-0.418
X-187.029 Y-69.804 Z-0.5
X-193.203 Y-55.695 F849.6
X-199.386 Y-41.589
X-199.514 Y-41.299 F212.4
X-200.533 Y-41.298 F849.6
X-200.692
X-201.009 F212.4
X-198.602 Y-46.906 F849.6
X-196.182 Y-52.507
X-193.748 Y-58.103
X-191.301 Y-63.693
X-188.84 Y-69.277
X-188.804 Y-69.383
X-188.783 Y-69.491
X-188.777 Y-69.602
X-188.786 Y-69.712
X-188.81 Y-69.82
X-188.849 Y-69.923
X-188.901 Y-70.02
X-188.967 Y-70.108
X-189.043 Y-70.187
X-189.13 Y-70.254
G3 X-196.298 Y-77.263 I10.643 J-18.055
X-196.788 Y-95.447 I18.178 J-9.588
X-186.886 Y-103.029 I14.226 J8.321
X-174.276 Y-104.378 I9.682 J30.898
X-169.358 Y-103.909 I0.12 J24.742
X-169.047 Y-103.846 I-4.797 J24.272 F212.4
X-169.066 Y-83.215 I-411.769 J9.931 F849.6
X-169.075 Y-82.898 I-411.75 J-10.699 F212.4
G1 X-169.984 F849.6
X-170.301 F212.4
Y-96.851 F849.6
G2 X-170.343 Y-101.831 I-91.674 J-1.724
G1 X-170.357 Y-101.934
X-170.385 Y-102.035
X-170.425 Y-102.13
X-170.478 Y-102.22
X-170.541 Y-102.302
X-170.615 Y-102.375
G2 X-171.081 Y-102.619 I-0.58 J0.542
X-185.771 Y-101.934 I-5.562 J38.617
X-193.106 Y-97.994 I5.771 J19.541
X-197.097 Y-88.982 I10.583 J10.076
X-187.475 Y-71.104 I17.014 J2.372
X-186.952 Y-70.771 I4.45 J-6.423
X-186.674 Y-70.617 I3.927 J-6.756 F212.4
G1 X-186.938 Y-70.011 F849.6
X-187.029 Y-69.804
X-187.498 Y-68.731 Z-0.525 F283.2
X-188.057 Y-67.453 Z-0.555
X-188.615 Y-66.176 Z-0.585
X-189.173 Y-64.901 Z-0.614
X-189.731 Y-63.626 Z-0.644
X-190.288 Y-62.353 Z-0.674
X-190.845 Y-61.081 Z-0.703
X-191.401 Y-59.809 Z-0.733
X-191.957 Y-58.54 Z-0.763
X-192.513 Y-57.27 Z-0.792
X-193.069 Y-56.002 Z-0.822
X-193.624 Y-54.734 Z-0.851
X-194.179 Y-53.467 Z-0.881
X-194.734 Y-52.201 Z-0.91
X-195.289 Y-50.936 Z-0.94
X-195.843 Y-49.67 Z-0.969
X-196.397 Y-48.406 Z-0.999
X-196.42 Y-48.354 Z-1
X-196.952 Y-47.142 F849.6
X-198.06 Y-44.614
X-199.386 Y-41.589
X-199.514 Y-41.298 F212.4
X-200.692 F849.6
X-201.009 F212.4
X-200.841 Y-41.693 F849.6
X-198.466 Y-47.221
X-196.079 Y-52.743
X-193.679 Y-58.26
X-191.266 Y-63.772
X-188.841 Y-69.278
X-188.805 Y-69.383
X-188.783 Y-69.491
X-188.777 Y-69.602
X-188.786 Y-69.712
X-188.81 Y-69.82
X-188.849 Y-69.923
X-188.901 Y-70.02
X-188.967 Y-70.108
X-189.043 Y-70.187
X-189.13 Y-70.254
G3 X-196.298 Y-77.263 I10.643 J-18.055
X-196.788 Y-95.447 I18.178 J-9.588
X-186.886 Y-103.029 I14.226 J8.321
X-174.276 Y-104.378 I9.682 J30.898
X-169.358 Y-103.909 I0.12 J24.742
X-169.047 Y-103.846 I-4.797 J24.272 F212.4
X-169.066 Y-83.215 I-411.769 J9.931 F849.6
X-169.075 Y-82.898 I-411.75 J-10.699 F212.4
G1 X-169.984 F849.6
X-170.301 F212.4
Y-96.851 F849.6
G2 X-170.343 Y-101.831 I-91.674 J-1.724
G1 X-170.357 Y-101.934
X-170.385 Y-102.035
X-170.425 Y-102.13
X-170.478 Y-102.22
X-170.541 Y-102.302
X-170.615 Y-102.375
G2 X-171.081 Y-102.619 I-0.58 J0.542
X-185.771 Y-101.934 I-5.562 J38.617
X-193.106 Y-97.994 I5.771 J19.541
X-197.097 Y-88.982 I10.583 J10.076
X-187.475 Y-71.104 I17.014 J2.372
X-186.952 Y-70.771 I4.45 J-6.423
X-186.674 Y-70.617 I3.927 J-6.756 F212.4
G1 X-191.544 Y-59.484 F849.6
X-196.42 Y-48.354
X-196.952 Y-47.142 Z-1.028 F283.2
X-198.06 Y-44.614 Z-1.087
X-199.514 Y-41.298 Z-1.165
X-201.009 Z-1.196
X-200.629 Y-42.189 Z-1.217
X-200.416 Y-42.687 Z-1.229
X-200.203 Y-43.185 Z-1.24
X-199.778 Y-44.179 Z-1.263
X-199.564 Y-44.676 Z-1.275
X-199.35 Y-45.174 Z-1.286
X-199.138 Y-45.669 Z-1.298
X-198.924 Y-46.165 Z-1.31
X-198.711 Y-46.662 Z-1.321
X-198.498 Y-47.158 Z-1.333
X-198.284 Y-47.653 Z-1.344
X-198.071 Y-48.149 Z-1.356
X-197.857 Y-48.643 Z-1.367
X-197.644 Y-49.139 Z-1.379
X-197.43 Y-49.633 Z-1.39
X-197.217 Y-50.128 Z-1.402
X-196.576 Y-51.61 Z-1.436
X-196.362 Y-52.103 Z-1.448
X-195.379 Y-54.351 Z-1.5
X-194.484 Y-56.396 F849.6
X-191.665 Y-62.838
X-188.851 Y-69.282
G2 X-189.13 Y-70.254 I-0.728 J-0.317
G3 X-196.298 Y-77.263 I10.643 J-18.055
X-196.788 Y-95.447 I18.178 J-9.588
X-186.886 Y-103.029 I14.226 J8.321
X-174.276 Y-104.378 I9.682 J30.898
X-169.358 Y-103.909 I0.12 J24.742
X-169.047 Y-103.846 I-4.797 J24.272 F212.4
X-169.066 Y-83.215 I-411.769 J9.931 F849.6
X-169.075 Y-82.898 I-411.75 J-10.699 F212.4
G1 X-169.984 F849.6
X-170.301 F212.4
Y-96.851 F849.6
G2 X-170.343 Y-101.831 I-91.674 J-1.724
G1 X-170.357 Y-101.934
X-170.385 Y-102.035
X-170.425 Y-102.13
X-170.478 Y-102.22
X-170.541 Y-102.302
X-170.615 Y-102.375
G2 X-171.081 Y-102.619 I-0.58 J0.542
X-185.771 Y-101.934 I-5.562 J38.617
X-193.106 Y-97.994 I5.771 J19.541
X-197.097 Y-88.982 I10.583 J10.076
X-187.475 Y-71.104 I17.014 J2.372
X-186.952 Y-70.771 I4.45 J-6.423
X-186.674 Y-70.617 I3.927 J-6.756 F212.4
G1 X-193.025 Y-56.101 F849.6
X-199.387 Y-41.589
X-199.514 Y-41.299 F212.4
X-200.533 Y-41.298 F849.6
X-200.692
X-201.009 F212.4
X-199.145 Y-45.655 F849.6
X-197.269 Y-50.006
X-195.381 Y-54.352
X-194.485 Y-56.394 Z-1.548 F283.2
X-192.92 Y-59.969 Z-1.631
X-192.294 Y-61.4 Z-1.664
X-191.668 Y-62.831 Z-1.698
X-191.042 Y-64.263 Z-1.731
X-190.416 Y-65.696 Z-1.764
X-189.79 Y-67.13 Z-1.798
X-189.477 Y-67.847 Z-1.815
X-189.164 Y-68.564 Z-1.831
X-188.851 Y-69.282 Z-1.848
G2 X-189.13 Y-70.254 Z-1.871 I-0.728 J-0.317
G1 X-189.173 Y-70.284 Z-1.872
X-189.208 Y-70.307 Z-1.873
X-189.24 Y-70.329 Z-1.874
X-189.278 Y-70.355 Z-1.875
X-189.305 Y-70.373 Z-1.876
X-189.336 Y-70.395 Z-1.877
X-189.374 Y-70.42 Z-1.878
X-189.403 Y-70.44
X-189.429 Y-70.458 Z-1.879
X-189.462 Y-70.481 Z-1.88
X-189.492 Y-70.501 Z-1.881
X-189.522 Y-70.522 Z-1.882
X-189.548 Y-70.54
X-189.561 Y-70.549 Z-1.883
X-189.588 Y-70.566
X-189.618 Y-70.587 Z-1.884
X-189.677 Y-70.627 Z-1.886
X-189.738 Y-70.667 Z-1.887
X-189.752 Y-70.676
X-189.778 Y-70.692 Z-1.888
X-189.802 Y-70.708 Z-1.889
X-189.824 Y-70.721
X-189.85 Y-70.737 Z-1.89
X-189.875 Y-70.753 Z-1.891
X-189.885 Y-70.759
X-189.942 Y-70.793 Z-1.892
X-189.997 Y-70.827 Z-1.894
X-190.023 Y-70.843
X-190.098 Y-70.892 Z-1.896
X-190.149 Y-70.926 Z-1.897
X-190.179 Y-70.946 Z-1.898
X-190.211 Y-70.967 Z-1.899
X-190.318 Y-71.038 Z-1.902
X-190.348 Y-71.058 Z-1.903
X-190.357 Y-71.064
X-190.38 Y-71.079
X-190.403 Y-71.094 Z-1.904
X-190.414 Y-71.101
X-190.472 Y-71.139 Z-1.906
X-190.484 Y-71.146
X-190.513 Y-71.164 Z-1.907
X-190.572 Y-71.201 Z-1.908
X-190.592 Y-71.213 Z-1.909
X-190.664 Y-71.263 Z-1.911
X-190.752 Y-71.325 Z-1.913
X-190.841 Y-71.388 Z-1.915
X-190.931 Y-71.452 Z-1.918
X-191.02 Y-71.516 Z-1.92
X-191.108 Y-71.58 Z-1.922
X-191.195 Y-71.645 Z-1.925
X-191.282 Y-71.71 Z-1.927
X-191.369 Y-71.775 Z-1.929
X-191.454 Y-71.84 Z-1.931
X-191.542 Y-71.907 Z-1.934
X-191.627 Y-71.973 Z-1.936
X-191.71 Y-72.038 Z-1.938
X-191.794 Y-72.105 Z-1.941
X-191.88 Y-72.174 Z-1.943
X-191.963 Y-72.241 Z-1.945
X-192.046 Y-72.309 Z-1.948
X-192.128 Y-72.377 Z-1.95
X-192.21 Y-72.446 Z-1.952
X-192.292 Y-72.515 Z-1.954
X-192.373 Y-72.584 Z-1.957
X-192.453 Y-72.653 Z-1.959
X-192.533 Y-72.723 Z-1.961
X-192.609 Y-72.79 Z-1.963
X-192.899 Y-73.056 Z-1.972
X-193.182 Y-73.326 Z-1.98
X-193.459 Y-73.6 Z-1.988
X-193.729 Y-73.88 Z-1.997
X-193.832 Y-73.991 Z-2
G3 X-198.381 Y-89.965 I13.967 J-12.612 F849.6
X-189.442 Y-102.031 I14.523 J1.415
X-178.035 Y-104.422 I10.947 J23.816
X-169.357 Y-103.918 I2.067 J39.341
X-169.044 Y-103.863 I-6.611 J38.837 F212.4
X-169.066 Y-83.215 I-420.809 J9.88 F849.6
X-169.074 Y-82.898 I-420.787 J-10.768 F212.4
G1 X-169.984 F849.6
X-170.301 F212.4
Y-96.851 F849.6
G2 X-170.343 Y-101.831 I-91.674 J-1.724
G1 X-170.357 Y-101.934
X-170.385 Y-102.035
X-170.425 Y-102.13
X-170.478 Y-102.22
X-170.541 Y-102.302
X-170.615 Y-102.375
G2 X-171.081 Y-102.619 I-0.58 J0.542
X-185.771 Y-101.934 I-5.562 J38.617
X-193.106 Y-97.994 I5.771 J19.541
X-197.097 Y-88.982 I10.583 J10.076
X-187.475 Y-71.104 I17.014 J2.372
X-186.952 Y-70.771 I4.45 J-6.423
X-186.674 Y-70.617 I3.927 J-6.756 F212.4
G1 X-193.025 Y-56.101 F849.6
X-199.387 Y-41.589
X-199.514 Y-41.299 F212.4
X-200.533 Y-41.298 F849.6
X-200.692
X-201.009 F212.4
X-198.602 Y-46.906 F849.6
X-196.182 Y-52.507
X-193.748 Y-58.103
X-191.301 Y-63.693
X-188.84 Y-69.277
X-188.804 Y-69.383
X-188.783 Y-69.491
X-188.777 Y-69.602
X-188.786 Y-69.712
X-188.81 Y-69.82
X-188.849 Y-69.923
X-188.901 Y-70.02
X-188.967 Y-70.108
X-189.043 Y-70.187
X-189.13 Y-70.254
X-189.64 Y-70.575
X-190.142 Y-70.907
X-190.637 Y-71.251
X-191.123 Y-71.606
X-191.601 Y-71.972
X-192.07 Y-72.349
X-192.531 Y-72.738
X-192.982 Y-73.136
X-193.424 Y-73.545
X-193.856 Y-73.965
X-193.993 Y-74.165 Z-2.005 F283.2
X-194.249 Y-74.454 Z-2.013
X-194.5 Y-74.749 Z-2.022
X-194.744 Y-75.049 Z-2.03
X-194.98 Y-75.353 Z-2.038
X-195.211 Y-75.663 Z-2.046
X-195.433 Y-75.978 Z-2.055
X-195.649 Y-76.298 Z-2.063
X-195.859 Y-76.624 Z-2.071
X-196.061 Y-76.954 Z-2.079
X-196.256 Y-77.289 Z-2.088
X-196.445 Y-77.631 Z-2.096
X-196.627 Y-77.978 Z-2.104
X-196.8 Y-78.329 Z-2.113
X-196.967 Y-78.686 Z-2.121
X-197.127 Y-79.049 Z-2.13
X-197.279 Y-79.417 Z-2.138
X-197.424 Y-79.792 Z-2.147
X-197.562 Y-80.172 Z-2.155
X-197.691 Y-80.553 Z-2.164
X-197.811 Y-80.951 Z-2.173
X-197.925 Y-81.356 Z-2.182
X-198.031 Y-81.761 Z-2.191
X-198.13 Y-82.167 Z-2.2
X-198.219 Y-82.573 Z-2.208
X-198.301 Y-82.98 Z-2.217
X-198.374 Y-83.388 Z-2.226
X-198.44 Y-83.797 Z-2.235
X-198.498 Y-84.206 Z-2.244
X-198.547 Y-84.614 Z-2.253
X-198.587 Y-85.024 Z-2.261
X-198.62 Y-85.435 Z-2.27
X-198.644 Y-85.846 Z-2.279
X-198.661 Y-86.258 Z-2.288
X-198.668 Y-86.669 Z-2.297
X-198.667 Y-87.081 Z-2.305
X-198.659 Y-87.494 Z-2.314
X-198.641 Y-87.907 Z-2.323
X-198.616 Y-88.32 Z-2.332
X-198.583 Y-88.733 Z-2.341
X-198.54 Y-89.146 Z-2.35
X-198.489 Y-89.56 Z-2.359
X-198.429 Y-89.974 Z-2.367
X-198.361 Y-90.395 Z-2.377
X-198.276 Y-90.901 Z-2.388
X-198.179 Y-91.39 Z-2.398
X-198.07 Y-91.872 Z-2.409
X-197.949 Y-92.346 Z-2.419
X-197.815 Y-92.811 Z-2.429
X-197.669 Y-93.267 Z-2.44
X-197.509 Y-93.715 Z-2.45
X-197.337 Y-94.156 Z-2.46
X-197.152 Y-94.587 Z-2.47
X-196.954 Y-95.011 Z-2.48
X-196.744 Y-95.426 Z-2.49
X-196.518 Y-95.834 Z-2.5
X-196.515 Y-95.84
G3 X-186.884 Y-103.023 I13.796 J8.45 F849.6
X-174.815 Y-104.404 I9.544 J29.974
X-169.358 Y-103.911 I0.215 J28.083
X-169.046 Y-103.85 I-5.242 J27.591 F212.4
X-169.066 Y-83.215 I-414.21 J9.917 F849.6
X-169.075 Y-82.898 I-414.19 J-10.718 F212.4
G1 X-169.984 F849.6
X-170.301 F212.4
Y-96.851 F849.6
G2 X-170.343 Y-101.831 I-91.674 J-1.724
G1 X-170.357 Y-101.934
X-170.385 Y-102.035
X-170.425 Y-102.13
X-170.478 Y-102.22
X-170.541 Y-102.302
X-170.615 Y-102.375
G2 X-171.081 Y-102.619 I-0.58 J0.542
X-185.771 Y-101.934 I-5.562 J38.617
X-193.106 Y-97.994 I5.771 J19.541
X-197.097 Y-88.982 I10.583 J10.076
X-187.475 Y-71.104 I17.014 J2.372
X-186.952 Y-70.771 I4.45 J-6.423
X-186.674 Y-70.617 I3.927 J-6.756 F212.4
G1 X-193.025 Y-56.101 F849.6
X-199.387 Y-41.589
X-199.514 Y-41.299 F212.4
X-200.533 Y-41.298 F849.6
X-200.692
X-201.009 F212.4
X-198.602 Y-46.906 F849.6
X-196.182 Y-52.507
X-193.748 Y-58.103
X-191.301 Y-63.693
X-188.84 Y-69.277
X-188.804 Y-69.383
X-188.783 Y-69.491
X-188.777 Y-69.602
X-188.786 Y-69.712
X-188.81 Y-69.82
X-188.849 Y-69.923
X-188.901 Y-70.02
X-188.967 Y-70.108
X-189.043 Y-70.187
X-189.13 Y-70.254
G3 X-196.298 Y-77.263 I10.643 J-18.055
X-196.788 Y-95.447 I18.178 J-9.588
G1 X-196.518 Y-95.834
X-196.515 Y-95.839
X-196.281 Y-96.234 Z-2.51 F283.2
X-196.03 Y-96.624 Z-2.52
X-195.764 Y-97.008 Z-2.53
X-195.485 Y-97.384 Z-2.54
X-195.191 Y-97.752 Z-2.55
X-194.885 Y-98.112 Z-2.56
X-194.563 Y-98.464 Z-2.57
X-194.227 Y-98.808 Z-2.58
X-193.876 Y-99.144 Z-2.591
X-193.51 Y-99.473 Z-2.601
X-193.129 Y-99.794 Z-2.612
X-192.731 Y-100.108 Z-2.623
X-192.515 Y-100.27 Z-2.628
X-192.291 Y-100.43 Z-2.634
X-192.066 Y-100.587 Z-2.64
X-191.839 Y-100.74 Z-2.646
X-191.61 Y-100.89 Z-2.652
X-191.377 Y-101.036 Z-2.658
X-191.145 Y-101.178 Z-2.664
X-190.91 Y-101.316 Z-2.669
X-190.672 Y-101.452 Z-2.675
X-190.434 Y-101.583 Z-2.681
X-190.194 Y-101.71 Z-2.687
X-189.951 Y-101.834 Z-2.693
X-189.705 Y-101.955 Z-2.698
X-189.459 Y-102.072 Z-2.704
X-189.211 Y-102.187 Z-2.71
X-188.961 Y-102.297 Z-2.716
X-188.709 Y-102.405 Z-2.722
X-188.457 Y-102.509 Z-2.728
X-188.199 Y-102.61 Z-2.734
X-187.943 Y-102.708 Z-2.739
X-187.683 Y-102.803 Z-2.745
X-187.423 Y-102.896 Z-2.751
X-187.162 Y-102.983 Z-2.757
X-186.896 Y-103.07 Z-2.763
X-186.385 Y-103.229 Z-2.774
X-185.876 Y-103.375 Z-2.786
X-185.364 Y-103.511 Z-2.797
X-184.85 Y-103.637 Z-2.808
X-184.335 Y-103.754 Z-2.82
X-183.818 Y-103.861 Z-2.831
X-183.301 Y-103.959 Z-2.842
X-182.781 Y-104.046 Z-2.853
X-182.259 Y-104.125 Z-2.865
X-181.736 Y-104.197 Z-2.876
X-181.211 Y-104.258 Z-2.887
X-180.684 Y-104.313 Z-2.899
X-180.157 Y-104.359 Z-2.91
X-179.628 Y-104.398 Z-2.921
X-179.098 Y-104.429 Z-2.933
X-178.567 Y-104.454 Z-2.944
X-178.034 Y-104.472 Z-2.955
X-177.499 Y-104.482 Z-2.967
X-176.964 Y-104.487 Z-2.978
X-176.426 Y-104.486 Z-2.99
X-175.94 Y-104.481 Z-3
G3 X-169.357 Y-103.919 I-0.135 J40.443 F849.6
X-169.044 Y-103.865 I-6.719 J39.882 F212.4
X-169.066 Y-83.215 I-421.599 J9.876 F849.6
X-169.074 Y-82.898 I-421.577 J-10.774 F212.4
G1 X-169.984 F849.6
X-170.301 F212.4
Y-96.851 F849.6
G2 X-170.343 Y-101.831 I-91.674 J-1.724
G1 X-170.357 Y-101.934
X-170.385 Y-102.035
X-170.425 Y-102.13
X-170.478 Y-102.22
X-170.541 Y-102.302
X-170.615 Y-102.375
G2 X-171.081 Y-102.619 I-0.58 J0.542
X-185.771 Y-101.934 I-5.562 J38.617
X-193.106 Y-97.994 I5.771 J19.541
X-197.097 Y-88.982 I10.583 J10.076
X-187.475 Y-71.104 I17.014 J2.372
X-186.952 Y-70.771 I4.45 J-6.423
X-186.674 Y-70.617 I3.927 J-6.756 F212.4
G1 X-193.025 Y-56.101 F849.6
X-199.387 Y-41.589
X-199.514 Y-41.299 F212.4
X-200.533 Y-41.298 F849.6
X-200.692
X-201.009 F212.4
X-198.602 Y-46.906 F849.6
X-196.182 Y-52.507
X-193.748 Y-58.103
X-191.301 Y-63.693
X-188.84 Y-69.277
X-188.804 Y-69.383
X-188.783 Y-69.491
X-188.777 Y-69.602
X-188.786 Y-69.712
X-188.81 Y-69.82
X-188.849 Y-69.923
X-188.901 Y-70.02
X-188.967 Y-70.108
X-189.043 Y-70.187
X-189.13 Y-70.254
G3 X-196.298 Y-77.263 I10.643 J-18.055
X-196.788 Y-95.447 I18.178 J-9.588
X-186.886 Y-103.03 I14.23 J8.325
X-175.942 Y-104.446 I9.321 J29.034
G1 X-175.889 Y-104.48 Z-3.001 F283.2
X-175.351 Y-104.468 Z-3.013
X-174.811 Y-104.451 Z-3.024
X-174.271 Y-104.428 Z-3.036
X-173.77 Y-104.402 Z-3.046
X-173.522 Y-104.389 Z-3.052
X-173.273 Y-104.374 Z-3.057
X-173.025 Y-104.358 Z-3.062
X-172.778 Y-104.341 Z-3.068
X-172.532 Y-104.324 Z-3.073
X-172.288 Y-104.304 Z-3.078
X-172.044 Y-104.283 Z-3.083
X-171.801 Y-104.261 Z-3.089
X-171.56 Y-104.237 Z-3.094
X-171.318 Y-104.21 Z-3.099
X-171.077 Y-104.183 Z-3.104
X-170.838 Y-104.153 Z-3.109
X-170.6 Y-104.121 Z-3.114
X-170.364 Y-104.086 Z-3.119
X-170.125 Y-104.049 Z-3.125
X-169.889 Y-104.011 Z-3.13
X-169.655 Y-103.968 Z-3.135
X-169.422 Y-103.924 Z-3.14
X-169.19 Y-103.876 Z-3.145
X-169.047 Y-103.845 Z-3.148
X-169.038 Y-103.672 Z-3.152
X-169.015 Y-103.05 Z-3.165
X-168.996 Y-102.284 Z-3.181
X-168.979 Y-101.392 Z-3.2
X-168.965 Y-100.39 Z-3.222
X-168.954 Y-99.296 Z-3.245
X-168.945 Y-98.124 Z-3.27
X-168.939 Y-96.893 Z-3.297
X-168.936 Y-95.617 Z-3.324
Y-94.313 Z-3.352
X-168.938 Y-92.996 Z-3.38
X-168.942 Y-91.684 Z-3.408
X-168.949 Y-90.393 Z-3.435
X-168.959 Y-89.138 Z-3.462
X-168.971 Y-87.935 Z-3.488
X-168.978 Y-87.364 Z-3.5
G3 X-169.069 Y-83.215 I-153.71 J-1.299 F849.6
X-169.08 Y-82.898 I-153.619 J-5.448 F212.4
G1 X-169.984 F849.6
X-170.301 F212.4
Y-96.851 F849.6
G2 X-170.343 Y-101.831 I-91.674 J-1.724
G1 X-170.357 Y-101.934
X-170.385 Y-102.035
X-170.425 Y-102.13
X-170.478 Y-102.22
X-170.541 Y-102.302
X-170.615 Y-102.375
G2 X-171.081 Y-102.619 I-0.58 J0.542
X-185.771 Y-101.934 I-5.562 J38.617
X-193.106 Y-97.994 I5.771 J19.541
X-197.097 Y-88.982 I10.583 J10.076
X-187.475 Y-71.104 I17.014 J2.372
X-186.952 Y-70.771 I4.45 J-6.423
X-186.674 Y-70.617 I3.927 J-6.756 F212.4
G1 X-193.025 Y-56.101 F849.6
X-199.387 Y-41.589
X-199.514 Y-41.299 F212.4
X-200.533 Y-41.298 F849.6
X-200.692
X-201.009 F212.4
X-198.602 Y-46.906 F849.6
X-196.182 Y-52.507
X-193.748 Y-58.103
X-191.301 Y-63.693
X-188.84 Y-69.277
X-188.804 Y-69.383
X-188.783 Y-69.491
X-188.777 Y-69.602
X-188.786 Y-69.712
X-188.81 Y-69.82
X-188.849 Y-69.923
X-188.901 Y-70.02
X-188.967 Y-70.108
X-189.043 Y-70.187
X-189.13 Y-70.254
G3 X-196.298 Y-77.263 I10.643 J-18.055
X-196.788 Y-95.447 I18.178 J-9.588
X-186.886 Y-103.029 I14.226 J8.321
X-174.814 Y-104.407 I9.572 J30.309
X-169.358 Y-103.911 I0.163 J28.504
X-169.046 Y-103.851 I-5.294 J28.008 F212.4
X-168.985 Y-87.364 I-395.758 J9.7 F849.6
G1 Y-86.802 Z-3.512 F283.2
X-169.002 Y-85.753 Z-3.534
X-169.021 Y-84.806 Z-3.555
X-169.041 Y-83.977 Z-3.572
X-169.065 Y-83.284 Z-3.587
X-169.083 Y-82.898 Z-3.595
X-170.301 Z-3.621
Y-97.055 Z-3.924
X-170.297 Y-97.873 Z-3.941
X-170.293 Y-98.282 Z-3.95
X-170.289 Y-99.108 Z-3.968
Y-99.523 Z-3.976
X-170.291 Y-99.946 Z-3.985
X-170.297 Y-100.357 Z-3.994
X-170.301 Y-100.565 Z-3.999
X-170.303 Y-100.628 Z-4
G2 X-170.352 Y-101.83 I-33.24 J0.764 F849.6
X-170.615 Y-102.375 I-0.793 J0.046
X-171.081 Y-102.619 I-0.58 J0.542
X-185.771 Y-101.934 I-5.562 J38.617
X-193.106 Y-97.994 I5.771 J19.541
X-197.097 Y-88.982 I10.583 J10.076
X-187.475 Y-71.104 I17.014 J2.372
X-186.952 Y-70.771 I4.45 J-6.423
X-186.674 Y-70.617 I3.927 J-6.756 F212.4
G1 X-193.025 Y-56.101 F849.6
X-199.387 Y-41.589
X-199.514 Y-41.299 F212.4
X-200.533 Y-41.298 F849.6
X-200.692
X-201.009 F212.4
X-198.602 Y-46.906 F849.6
X-196.182 Y-52.507
X-193.748 Y-58.103
X-191.301 Y-63.693
X-188.84 Y-69.277
X-188.804 Y-69.383
X-188.783 Y-69.491
X-188.777 Y-69.602
X-188.786 Y-69.712
X-188.81 Y-69.82
X-188.849 Y-69.923
X-188.901 Y-70.02
X-188.967 Y-70.108
X-189.043 Y-70.187
X-189.13 Y-70.254
G3 X-196.298 Y-77.263 I10.643 J-18.055
X-196.788 Y-95.447 I18.178 J-9.588
X-186.886 Y-103.029 I14.226 J8.321
X-174.276 Y-104.378 I9.682 J30.898
X-169.358 Y-103.909 I0.12 J24.742
X-169.047 Y-103.846 I-4.797 J24.272 F212.4
X-169.066 Y-83.215 I-411.769 J9.931 F849.6
X-169.075 Y-82.898 I-411.75 J-10.699 F212.4
G1 X-169.984 F849.6
X-170.301 F212.4
Y-96.852 F849.6
G2 X-170.299 Y-100.628 I-198.099 J-2.007
G1 X-170.306 Y-100.775 Z-4.003 F283.2
X-170.321 Y-101.202 Z-4.012
X-170.33 Y-101.408 Z-4.017
X-170.341 Y-101.624 Z-4.021
X-170.353 Y-101.83 Z-4.026
G2 X-170.615 Y-102.375 Z-4.039 I-0.792 J0.046
X-171.081 Y-102.619 Z-4.05 I-0.58 J0.542
G1 X-171.454 Y-102.673 Z-4.058
X-171.464 Y-102.674 Z-4.059
X-171.844 Y-102.724 Z-4.067
X-172.215 Y-102.769 Z-4.075
X-172.226 Y-102.77
X-172.604 Y-102.811 Z-4.083
X-172.982 Y-102.848 Z-4.091
X-173.359 Y-102.88 Z-4.099
X-173.732 Y-102.909 Z-4.107
X-174.099 Y-102.934 Z-4.115
X-174.11 Y-102.935
X-174.483 Y-102.955 Z-4.123
X-174.855 Y-102.971 Z-4.131
X-175.225 Y-102.984 Z-4.139
X-175.597 Y-102.995 Z-4.147
X-175.966 Y-103.001 Z-4.155
X-176.336 Y-103.004 Z-4.163
X-176.697 Y-103.003 Z-4.171
X-177.068 Y-103 Z-4.179
X-177.435 Y-102.993 Z-4.186
X-177.8 Y-102.984 Z-4.194
X-178.165 Y-102.972 Z-4.202
X-178.522 Y-102.957 Z-4.21
X-178.884 Y-102.94 Z-4.217
X-179.251 Y-102.92 Z-4.225
X-179.607 Y-102.898 Z-4.233
X-179.967 Y-102.874 Z-4.241
X-180.326 Y-102.848 Z-4.248
X-180.337 Y-102.847 Z-4.249
X-180.699 Y-102.815 Z-4.256
X-181.054 Y-102.781 Z-4.264
X-181.065 Y-102.78
X-181.426 Y-102.74 Z-4.272
X-181.78 Y-102.698 Z-4.279
X-181.79 Y-102.697 Z-4.28
X-182.144 Y-102.65 Z-4.287
X-182.507 Y-102.598 Z-4.295
X-182.517 Y-102.596
X-182.87 Y-102.54 Z-4.303
X-182.882 Y-102.538
X-183.234 Y-102.477 Z-4.311
X-183.594 Y-102.41 Z-4.319
X-183.605 Y-102.408
X-183.955 Y-102.338 Z-4.327
X-183.966 Y-102.336
X-184.315 Y-102.261 Z-4.334
X-184.328 Y-102.258 Z-4.335
X-184.676 Y-102.177 Z-4.342
X-184.687 Y-102.174 Z-4.343
X-185.034 Y-102.088 Z-4.35
X-185.045 Y-102.086
X-185.391 Y-101.995 Z-4.358
X-185.404 Y-101.991
X-185.749 Y-101.894 Z-4.366
X-185.76 Y-101.891
X-186.103 Y-101.789 Z-4.374
X-186.118 Y-101.784
X-186.46 Y-101.675 Z-4.382
X-186.471 Y-101.672
X-186.811 Y-101.558 Z-4.39
X-186.825 Y-101.553
X-187.163 Y-101.433 Z-4.398
X-187.177 Y-101.428
X-187.514 Y-101.301 Z-4.406
X-187.527 Y-101.296
X-187.862 Y-101.163 Z-4.414
X-187.875 Y-101.157
X-188.208 Y-101.018 Z-4.422
X-188.224 Y-101.011
X-188.555 Y-100.865 Z-4.43
X-188.957 Y-100.687 Z-4.439
X-188.975 Y-100.678 Z-4.44
X-189.369 Y-100.491 Z-4.449
X-189.387 Y-100.482 Z-4.45
X-189.774 Y-100.286 Z-4.459
X-189.793 Y-100.277
X-190.172 Y-100.072 Z-4.468
X-190.19 Y-100.062 Z-4.469
X-190.562 Y-99.848 Z-4.478
X-190.582 Y-99.836 Z-4.479
X-190.945 Y-99.613 Z-4.488
X-190.966 Y-99.6
X-191.32 Y-99.368 Z-4.497
X-191.339 Y-99.355 Z-4.498
X-191.428 Y-99.293 Z-4.5
G2 X-196.762 Y-90.861 I7.133 J10.416 F849.6
X-187.25 Y-70.988 I16.76 J4.19
X-186.95 Y-70.773 I1.937 J-2.373
X-186.674 Y-70.617 I1.637 J-2.588 F212.4
G1 X-193.025 Y-56.101 F849.6
X-199.387 Y-41.589
X-199.514 Y-41.299 F212.4
X-200.533 Y-41.298 F849.6
X-200.692
X-201.009 F212.4
X-198.602 Y-46.906 F849.6
X-196.182 Y-52.507
X-193.748 Y-58.103
X-191.301 Y-63.693
X-188.84 Y-69.277
X-188.804 Y-69.383
X-188.783 Y-69.491
X-188.777 Y-69.602
X-188.786 Y-69.712
X-188.81 Y-69.82
X-188.849 Y-69.923
X-188.901 Y-70.02
X-188.967 Y-70.108
X-189.043 Y-70.187
X-189.13 Y-70.254
G3 X-196.298 Y-77.263 I10.643 J-18.055
X-196.788 Y-95.447 I18.178 J-9.588
X-186.886 Y-103.029 I14.226 J8.321
X-174.276 Y-104.378 I9.682 J30.898
X-169.358 Y-103.909 I0.12 J24.742
X-169.047 Y-103.846 I-4.797 J24.272 F212.4
X-169.066 Y-83.215 I-411.769 J9.931 F849.6
X-169.075 Y-82.898 I-411.75 J-10.699 F212.4
G1 X-169.984 F849.6
X-170.301 F212.4
Y-96.851 F849.6
G2 X-170.343 Y-101.831 I-91.674 J-1.724
G1 X-170.357 Y-101.934
X-170.385 Y-102.035
X-170.425 Y-102.13
X-170.478 Y-102.22
X-170.541 Y-102.302
X-170.615 Y-102.375
G2 X-171.081 Y-102.619 I-0.58 J0.542
X-185.771 Y-101.934 I-5.562 J38.617
X-191.44 Y-99.312 I7.473 J23.598
G0 X-191.428 Y-99.292 Z5
X-169.049 Y-57.606
G1 Z2.5 F283.2
Y-49.363 Z-0.5
Y-41.666 F849.6
Y-41.348 F212.4
X-169.943 F849.6
X-170.261 F212.4
G3 X-170.203 Y-62.062 I397.852 J-9.247 F849.6
X-170.194 Y-62.379 I397.794 J11.467 F212.4
G1 X-169.366 F849.6
X-169.049 F212.4
Y-49.363 F849.6
Y-44.701 Z-1 F283.2
Y-41.666 F849.6
Y-41.348 F212.4
X-169.943 F849.6
X-170.261 F212.4
G3 X-170.203 Y-62.062 I397.852 J-9.247 F849.6
X-170.194 Y-62.379 I397.794 J11.467 F212.4
G1 X-169.366 F849.6
X-169.049 F212.4
Y-44.701 F849.6
Y-41.348 Z-1.36 F283.2
X-170.261 Z-1.49
X-170.264 Y-41.446 Z-1.5
G3 X-170.203 Y-62.062 I401.463 J-9.117 F849.6
X-170.194 Y-62.379 I401.402 J11.499 F212.4
G1 X-169.366 F849.6
X-169.049 F212.4
Y-41.666 F849.6
Y-41.348 F212.4
X-169.943 F849.6
X-170.261 F212.4
X-170.264 Y-41.445 F849.6
X-170.282 Y-41.901 Z-1.549 F283.2
X-170.301 Y-42.653 Z-1.63
X-170.319 Y-43.538 Z-1.725
X-170.333 Y-44.539 Z-1.832
X-170.344 Y-45.64 Z-1.95
X-170.348 Y-46.108 Z-2
G3 X-170.199 Y-62.062 I386.648 J-4.38 F849.6
X-170.19 Y-62.379 I386.5 J11.574 F212.4
G1 X-169.366 F849.6
X-169.049 F212.4
Y-41.666 F849.6
Y-41.348 F212.4
X-169.943 F849.6
X-170.261 F212.4
G3 X-170.346 Y-46.107 I144.737 J-4.983 F849.6
G1 X-170.353 Y-46.822 Z-2.077 F283.2
X-170.358 Y-48.068 Z-2.21
X-170.361 Y-49.363 Z-2.349
X-170.36 Y-50.689 Z-2.491
Y-50.769 Z-2.5
G3 X-170.202 Y-62.062 I336.779 J-0.925 F849.6
X-170.192 Y-62.379 I336.62 J10.367 F212.4
G1 X-169.366 F849.6
X-169.049 F212.4
Y-41.666 F849.6
Y-41.348 F212.4
X-169.943 F849.6
X-170.261 F212.4
G3 X-170.359 Y-50.769 I285.297 J-7.683 F849.6
G1 X-170.357 Y-52.029 Z-2.635 F283.2
X-170.351 Y-53.367 Z-2.779
X-170.342 Y-54.686 Z-2.92
X-170.335 Y-55.432 Z-3
G3 X-170.198 Y-62.062 I199.07 J0.81 F849.6
X-170.186 Y-62.379 I198.933 J7.44 F212.4
G1 X-169.366 F849.6
X-169.049 F212.4
Y-41.666 F849.6
Y-41.348 F212.4
X-169.943 F849.6
X-170.261 F212.4
G3 X-170.329 Y-55.431 I358.513 J-8.769 F849.6
G1 X-170.33 Y-55.969 Z-3.058 F283.2
X-170.316 Y-57.199 Z-3.19
X-170.299 Y-58.359 Z-3.314
X-170.279 Y-59.433 Z-3.429
X-170.264 Y-60.093 Z-3.5
G3 X-170.197 Y-62.062 I69.315 J1.368 F849.6
X-170.181 Y-62.379 I69.248 J3.337 F212.4
G1 X-169.366 F849.6
X-169.049 F212.4
Y-41.666 F849.6
Y-41.348 F212.4
X-169.943 F849.6
X-170.261 F212.4
G3 X-170.26 Y-60.093 I414.168 J-9.365 F849.6
G1 X-170.257 Y-60.403 Z-3.533 F283.2
X-170.231 Y-61.252 Z-3.624
X-170.203 Y-61.961 Z-3.7
X-170.18 Y-62.379 Z-3.745
X-169.049 Z-3.867
Y-61.136 Z-4
Y-41.666 F849.6
Y-41.348 F212.4
X-169.943 F849.6
X-170.261 F212.4
G3 X-170.204 Y-62.062 I399.307 J-9.267 F849.6
X-170.195 Y-62.379 I399.251 J11.447 F212.4
G1 X-169.366 F849.6
X-169.049 F212.4
Y-61.136 F849.6
Y-56.473 Z-4.5 F283.2
Y-41.666 F849.6
Y-41.348 F212.4
X-169.943 F849.6
X-170.261 F212.4
G3 X-170.203 Y-62.062 I397.852 J-9.247 F849.6
X-170.194 Y-62.379 I397.794 J11.467 F212.4
G1 X-169.366 F849.6
X-169.049 F212.4
Y-56.473 F849.6
G0 Z5
X-118.28 Y-91.321
G1 Z2.5 F283.2
X-118.693 Y-92.296 Z2.115
X-119.181 Y-93.444 Z1.661
X-120.16 Y-95.747 Z0.75
X-120.65 Y-96.901 Z0.293
X-121.143 Y-98.059 Z-0.164
G2 X-121.867 Y-98.542 Z-0.5 I-0.73 J0.311
G1 X-121.898 Y-98.541 F849.6
G2 X-122.654 Y-98.059 I-0.025 J0.793
G1 X-123.674 Y-95.656
X-124.694 Y-93.257
X-125.714 Y-90.861
X-128.771 Y-83.687
X-130.806 Y-78.916
X-141.964 Y-52.776
X-143.986 Y-48.032
X-144.996 Y-45.66
X-146.006 Y-43.288
X-146.686 Y-41.69
X-146.81 Y-41.398 F212.4
X-148.004 F849.6
X-148.322 F212.4
X-147.642 Y-42.993 F849.6
X-140.743 Y-59.177
X-139.594 Y-61.873
X-137.293 Y-67.267
X-132.195 Y-79.213
X-127.09 Y-91.157
X-121.977 Y-103.098
X-121.852 Y-103.389 F212.4
X-112.464 Y-81.291 F849.6
X-103.067 Y-59.196
X-100.777 Y-53.81
X-99.632 Y-51.117
X-98.487 Y-48.424
X-96.197 Y-43.037
X-95.646 Y-41.74
X-95.522 Y-41.448 F212.4
X-96.718 F849.6
X-97.035 F212.4
X-100.776 Y-50.218 F849.6
X-104.511 Y-58.99
X-108.238 Y-67.766
G2 X-108.969 Y-68.251 I-0.731 J0.309
G1 X-120.762
X-121.079 F212.4
Y-69.136 F849.6
Y-69.454 F212.4
X-114.151 F849.6
G2 X-110.16 Y-69.494 I1.345 J-63.524
G1 X-110.052 Y-69.51
X-109.947 Y-69.54
X-109.847 Y-69.584
X-109.754 Y-69.641
X-109.67 Y-69.71
X-109.596 Y-69.79
X-109.534 Y-69.879
X-109.484 Y-69.975
X-109.448 Y-70.078
X-109.426 Y-70.184
X-109.419 Y-70.291
X-109.426 Y-70.399
X-109.448 Y-70.505
X-109.484 Y-70.607
X-115.311 Y-84.334
X-121.143 Y-98.059
G2 X-121.867 Y-98.542 I-0.73 J0.31
G1 X-121.898 Y-98.541 Z-0.501 F283.2
G2 X-122.654 Y-98.059 Z-0.516 I-0.025 J0.793
G1 X-123.674 Y-95.656 Z-0.56
X-124.694 Y-93.257 Z-0.603
X-125.714 Y-90.861 Z-0.646
X-128.771 Y-83.687 Z-0.776
X-130.806 Y-78.916 Z-0.862
X-131.823 Y-76.533 Z-0.906
X-132.84 Y-74.152 Z-0.949
X-133.856 Y-71.772 Z-0.992
X-134.054 Y-71.308 Z-1
X-141.964 Y-52.776 F849.6
X-143.986 Y-48.032
X-144.996 Y-45.66
X-146.006 Y-43.288
X-146.686 Y-41.69
X-146.81 Y-41.398 F212.4
X-148.004 F849.6
X-148.322 F212.4
X-147.642 Y-42.993 F849.6
X-140.743 Y-59.177
X-139.594 Y-61.873
X-137.293 Y-67.267
X-132.195 Y-79.213
X-127.09 Y-91.157
X-121.977 Y-103.098
X-121.852 Y-103.389 F212.4
X-112.464 Y-81.291 F849.6
X-103.067 Y-59.196
X-100.777 Y-53.81
X-99.632 Y-51.117
X-98.487 Y-48.424
X-96.197 Y-43.037
X-95.646 Y-41.74
X-95.522 Y-41.448 F212.4
X-96.718 F849.6
X-97.035 F212.4
X-100.776 Y-50.218 F849.6
X-104.511 Y-58.99
X-108.238 Y-67.766
G2 X-108.969 Y-68.251 I-0.731 J0.309
G1 X-120.762
X-121.079 F212.4
Y-69.136 F849.6
Y-69.454 F212.4
X-114.151 F849.6
G2 X-110.16 Y-69.494 I1.345 J-63.524
G1 X-110.052 Y-69.51
X-109.947 Y-69.54
X-109.847 Y-69.584
X-109.754 Y-69.641
X-109.67 Y-69.71
X-109.596 Y-69.79
X-109.534 Y-69.879
X-109.484 Y-69.975
X-109.448 Y-70.078
X-109.426 Y-70.184
X-109.419 Y-70.291
X-109.426 Y-70.399
X-109.448 Y-70.505
X-109.484 Y-70.607
X-115.311 Y-84.334
X-121.143 Y-98.059
G2 X-121.898 Y-98.541 I-0.73 J0.31
X-122.654 Y-98.059 I-0.025 J0.793
G1 X-123.674 Y-95.656
X-124.694 Y-93.257
X-125.714 Y-90.861
X-128.771 Y-83.687
X-130.806 Y-78.916
X-131.823 Y-76.533
X-132.84 Y-74.152
X-133.856 Y-71.772
X-134.054 Y-71.308
X-134.871 Y-69.394 Z-1.035 F283.2
X-135.886 Y-67.018 Z-1.078
X-136.9 Y-64.642 Z-1.121
X-137.914 Y-62.268 Z-1.164
X-138.927 Y-59.894 Z-1.206
X-139.94 Y-57.521 Z-1.249
X-140.952 Y-55.148 Z-1.292
X-141.964 Y-52.776 Z-1.335
X-143.986 Y-48.032 Z-1.421
X-144.996 Y-45.66 Z-1.464
X-145.849 Y-43.657 Z-1.5
X-146.006 Y-43.288 F849.6
X-146.686 Y-41.69
X-146.81 Y-41.398 F212.4
X-148.004 F849.6
X-148.322 F212.4
X-147.642 Y-42.993 F849.6
X-140.743 Y-59.177
X-139.594 Y-61.873
X-137.293 Y-67.267
X-132.195 Y-79.213
X-127.09 Y-91.157
X-121.977 Y-103.098
X-121.852 Y-103.389 F212.4
X-112.464 Y-81.291 F849.6
X-103.067 Y-59.196
X-100.777 Y-53.81
X-99.632 Y-51.117
X-98.487 Y-48.424
X-96.197 Y-43.037
X-95.646 Y-41.74
X-95.522 Y-41.448 F212.4
X-96.718 F849.6
X-97.035 F212.4
X-100.776 Y-50.218 F849.6
X-104.511 Y-58.99
X-108.238 Y-67.766
G2 X-108.969 Y-68.251 I-0.731 J0.309
G1 X-120.762
X-121.079 F212.4
Y-69.136 F849.6
Y-69.454 F212.4
X-114.151 F849.6
G2 X-110.16 Y-69.494 I1.345 J-63.524
G1 X-110.052 Y-69.51
X-109.947 Y-69.54
X-109.847 Y-69.584
X-109.754 Y-69.641
X-109.67 Y-69.71
X-109.596 Y-69.79
X-109.534 Y-69.879
X-109.484 Y-69.975
X-109.448 Y-70.078
X-109.426 Y-70.184
X-109.419 Y-70.291
X-109.426 Y-70.399
X-109.448 Y-70.505
X-109.484 Y-70.607
X-115.311 Y-84.334
X-121.143 Y-98.059
G2 X-121.898 Y-98.541 I-0.73 J0.31
X-122.654 Y-98.059 I-0.025 J0.793
G1 X-123.674 Y-95.656
X-124.694 Y-93.257
X-125.714 Y-90.861
X-128.771 Y-83.687
X-130.806 Y-78.916
X-141.964 Y-52.776
X-143.986 Y-48.032
X-144.996 Y-45.66
X-145.849 Y-43.657
X-146.006 Y-43.288 Z-1.507 F283.2
X-146.81 Y-41.398 Z-1.541
X-148.322 Z-1.566
X-147.642 Y-42.993 Z-1.595
X-146.492 Y-45.692 Z-1.644
X-145.342 Y-48.39 Z-1.692
X-144.192 Y-51.087 Z-1.741
X-143.042 Y-53.784 Z-1.79
X-141.893 Y-56.481 Z-1.839
X-140.743 Y-59.177 Z-1.887
X-139.594 Y-61.873 Z-1.936
X-138.088 Y-65.403 Z-2
X-132.726 Y-77.971 F849.6
X-127.355 Y-90.536
X-121.977 Y-103.097
X-121.852 Y-103.389 F212.4
X-112.464 Y-81.291 F849.6
X-103.067 Y-59.196
X-100.777 Y-53.81
X-99.632 Y-51.117
X-98.487 Y-48.424
X-96.197 Y-43.037
X-95.646 Y-41.74
X-95.522 Y-41.448 F212.4
X-96.718 F849.6
X-97.035 F212.4
X-100.776 Y-50.218 F849.6
X-104.511 Y-58.99
X-108.238 Y-67.766
G2 X-108.969 Y-68.251 I-0.731 J0.309
G1 X-120.762
X-121.079 F212.4
Y-69.136 F849.6
Y-69.454 F212.4
X-114.151 F849.6
G2 X-110.16 Y-69.494 I1.345 J-63.524
G1 X-110.052 Y-69.51
X-109.947 Y-69.54
X-109.847 Y-69.584
X-109.754 Y-69.641
X-109.67 Y-69.71
X-109.596 Y-69.79
X-109.534 Y-69.879
X-109.484 Y-69.975
X-109.448 Y-70.078
X-109.426 Y-70.184
X-109.419 Y-70.291
X-109.426 Y-70.399
X-109.448 Y-70.505
X-109.484 Y-70.607
X-115.311 Y-84.334
X-121.143 Y-98.059
G2 X-121.898 Y-98.541 I-0.73 J0.31
X-122.654 Y-98.059 I-0.025 J0.793
G1 X-123.674 Y-95.656
X-124.694 Y-93.257
X-125.714 Y-90.861
X-128.771 Y-83.687
X-130.806 Y-78.916
X-141.964 Y-52.776
X-143.986 Y-48.032
X-146.686 Y-41.69
X-146.81 Y-41.398 F212.4
X-148.004 F849.6
X-148.322 F212.4
X-147.642 Y-42.993 F849.6
X-146.492 Y-45.692
X-138.088 Y-65.403
X-136.144 Y-69.962 Z-2.082 F283.2
X-134.993 Y-72.659 Z-2.131
X-133.841 Y-75.357 Z-2.18
X-132.689 Y-78.055 Z-2.229
X-131.537 Y-80.754 Z-2.278
X-130.383 Y-83.453 Z-2.326
X-129.229 Y-86.154 Z-2.375
X-128.074 Y-88.856 Z-2.424
X-126.918 Y-91.559 Z-2.473
X-126.281 Y-93.049 Z-2.5
X-121.977 Y-103.097 F849.6
X-121.852 Y-103.389 F212.4
X-112.464 Y-81.291 F849.6
X-103.067 Y-59.196
X-100.777 Y-53.81
X-99.632 Y-51.117
X-98.487 Y-48.424
X-96.197 Y-43.037
X-95.646 Y-41.74
X-95.522 Y-41.448 F212.4
X-96.718 F849.6
X-97.035 F212.4
X-100.776 Y-50.218 F849.6
X-104.511 Y-58.99
X-108.238 Y-67.766
G2 X-108.969 Y-68.251 I-0.731 J0.309
G1 X-120.762
X-121.079 F212.4
Y-69.136 F849.6
Y-69.454 F212.4
X-114.151 F849.6
G2 X-110.16 Y-69.494 I1.345 J-63.524
G1 X-110.052 Y-69.51
X-109.947 Y-69.54
X-109.847 Y-69.584
X-109.754 Y-69.641
X-109.67 Y-69.71
X-109.596 Y-69.79
X-109.534 Y-69.879
X-109.484 Y-69.975
X-109.448 Y-70.078
X-109.426 Y-70.184
X-109.419 Y-70.291
X-109.426 Y-70.399
X-109.448 Y-70.505
X-109.484 Y-70.607
X-115.311 Y-84.334
X-121.143 Y-98.059
G2 X-121.898 Y-98.541 I-0.73 J0.31
X-122.654 Y-98.059 I-0.025 J0.793
G1 X-123.674 Y-95.656
X-124.694 Y-93.257
X-125.714 Y-90.861
X-128.771 Y-83.687
X-130.806 Y-78.916
X-141.964 Y-52.776
X-143.986 Y-48.032
X-144.996 Y-45.66
X-146.006 Y-43.288
X-146.686 Y-41.69
X-146.81 Y-41.398 F212.4
X-148.004 F849.6
X-148.322 F212.4
X-147.642 Y-42.993 F849.6
X-140.743 Y-59.177
X-139.594 Y-61.873
X-137.302 Y-67.247
X-131.795 Y-80.149
X-126.281 Y-93.049
X-125.76 Y-94.264 Z-2.522 F283.2
X-124.602 Y-96.97 Z-2.571
X-123.442 Y-99.678 Z-2.62
X-122.281 Y-102.387 Z-2.669
X-121.852 Y-103.389 Z-2.687
X-120.278 Y-99.68 Z-2.754
X-119.128 Y-96.972 Z-2.803
X-117.979 Y-94.266 Z-2.852
X-116.83 Y-91.561 Z-2.901
X-115.681 Y-88.858 Z-2.95
X-114.497 Y-86.074 Z-3
X-113.384 Y-83.457 F849.6
X-103.067 Y-59.196
X-100.777 Y-53.81
X-99.632 Y-51.117
X-98.487 Y-48.424
X-96.197 Y-43.037
X-95.646 Y-41.74
X-95.522 Y-41.448 F212.4
X-96.718 F849.6
X-97.035 F212.4
X-100.776 Y-50.218 F849.6
X-104.511 Y-58.99
X-108.238 Y-67.766
G2 X-108.969 Y-68.251 I-0.731 J0.309
G1 X-120.762
X-121.079 F212.4
Y-69.136 F849.6
Y-69.454 F212.4
X-114.151 F849.6
G2 X-110.16 Y-69.494 I1.345 J-63.524
G1 X-110.052 Y-69.51
X-109.947 Y-69.54
X-109.847 Y-69.584
X-109.754 Y-69.641
X-109.67 Y-69.71
X-109.596 Y-69.79
X-109.534 Y-69.879
X-109.484 Y-69.975
X-109.448 Y-70.078
X-109.426 Y-70.184
X-109.419 Y-70.291
X-109.426 Y-70.399
X-109.448 Y-70.505
X-109.484 Y-70.607
X-115.311 Y-84.334
X-121.143 Y-98.059
G2 X-121.898 Y-98.541 I-0.73 J0.31
X-122.654 Y-98.059 I-0.025 J0.793
G1 X-123.674 Y-95.656
X-124.694 Y-93.257
X-125.714 Y-90.861
X-128.771 Y-83.687
X-130.806 Y-78.916
X-141.964 Y-52.776
X-143.986 Y-48.032
X-144.996 Y-45.66
X-146.006 Y-43.288
X-146.686 Y-41.69
X-146.81 Y-41.398 F212.4
X-148.004 F849.6
X-148.322 F212.4
X-147.642 Y-42.993 F849.6
X-140.743 Y-59.177
X-139.594 Y-61.873
X-137.293 Y-67.267
X-132.195 Y-79.213
X-127.09 Y-91.157
X-121.977 Y-103.098
X-121.852 Y-103.389 F212.4
X-114.497 Y-86.074 F849.6
X-113.384 Y-83.457 Z-3.047 F283.2
X-112.238 Y-80.758 Z-3.096
X-111.09 Y-78.06 Z-3.145
X-109.943 Y-75.362 Z-3.194
X-108.796 Y-72.666 Z-3.242
X-107.65 Y-69.971 Z-3.291
X-106.504 Y-67.277 Z-3.34
X-105.358 Y-64.582 Z-3.388
X-104.213 Y-61.889 Z-3.437
X-103.067 Y-59.196 Z-3.486
X-102.733 Y-58.409 Z-3.5
X-100.777 Y-53.81 F849.6
X-99.632 Y-51.117
X-98.487 Y-48.424
X-96.197 Y-43.037
X-95.646 Y-41.74
X-95.522 Y-41.448 F212.4
X-96.718 F849.6
X-97.035 F212.4
X-100.776 Y-50.218 F849.6
X-104.511 Y-58.99
X-108.238 Y-67.766
G2 X-108.969 Y-68.251 I-0.731 J0.309
G1 X-120.762
X-121.079 F212.4
Y-69.136 F849.6
Y-69.454 F212.4
X-114.151 F849.6
G2 X-110.16 Y-69.494 I1.345 J-63.524
G1 X-110.052 Y-69.51
X-109.947 Y-69.54
X-109.847 Y-69.584
X-109.754 Y-69.641
X-109.67 Y-69.71
X-109.596 Y-69.79
X-109.534 Y-69.879
X-109.484 Y-69.975
X-109.448 Y-70.078
X-109.426 Y-70.184
X-109.419 Y-70.291
X-109.426 Y-70.399
X-109.448 Y-70.505
X-109.484 Y-70.607
X-115.311 Y-84.334
X-121.143 Y-98.059
G2 X-121.898 Y-98.541 I-0.73 J0.31
X-122.654 Y-98.059 I-0.025 J0.793
G1 X-123.674 Y-95.656
X-124.694 Y-93.257
X-125.714 Y-90.861
X-128.771 Y-83.687
X-130.806 Y-78.916
X-141.964 Y-52.776
X-143.986 Y-48.032
X-144.996 Y-45.66
X-146.006 Y-43.288
X-146.686 Y-41.69
X-146.81 Y-41.398 F212.4
X-148.004 F849.6
X-148.322 F212.4
X-147.642 Y-42.993 F849.6
X-140.743 Y-59.177
X-139.594 Y-61.873
X-137.293 Y-67.267
X-132.195 Y-79.213
X-127.09 Y-91.157
X-121.977 Y-103.098
X-121.852 Y-103.389 F212.4
X-112.297 Y-80.898 F849.6
X-102.733 Y-58.409
X-100.777 Y-53.81 Z-3.583 F283.2
X-99.632 Y-51.117 Z-3.632
X-98.487 Y-48.424 Z-3.68
X-96.197 Y-43.037 Z-3.778
X-95.522 Y-41.448 Z-3.807
X-97.035 Z-3.832
X-97.303 Y-42.079 Z-3.843
X-97.778 Y-43.194 Z-3.863
X-98.252 Y-44.309 Z-3.883
X-98.727 Y-45.424 Z-3.904
X-99.202 Y-46.539 Z-3.924
X-99.678 Y-47.655 Z-3.944
X-100.63 Y-49.885 Z-3.984
X-101.002 Y-50.756 Z-4
X-103.421 Y-56.423 F849.6
X-105.834 Y-62.093
X-108.238 Y-67.766
X-108.284 Y-67.858
X-108.342 Y-67.943
X-108.411 Y-68.021
X-108.488 Y-68.089
X-108.574 Y-68.146
X-108.667 Y-68.191
X-108.765 Y-68.224
X-108.866 Y-68.244
X-108.969 Y-68.251
X-120.762
X-121.079 F212.4
Y-69.136 F849.6
Y-69.454 F212.4
X-114.151 F849.6
G2 X-110.16 Y-69.494 I1.345 J-63.524
G1 X-110.052 Y-69.51
X-109.947 Y-69.54
X-109.847 Y-69.584
X-109.754 Y-69.641
X-109.67 Y-69.71
X-109.596 Y-69.79
X-109.534 Y-69.879
X-109.484 Y-69.975
X-109.448 Y-70.078
X-109.426 Y-70.184
X-109.419 Y-70.291
X-109.426 Y-70.399
X-109.448 Y-70.505
X-109.484 Y-70.607
X-115.311 Y-84.334
X-121.143 Y-98.059
G2 X-121.898 Y-98.541 I-0.73 J0.31
X-122.654 Y-98.059 I-0.025 J0.793
G1 X-123.674 Y-95.656
X-124.694 Y-93.257
X-125.714 Y-90.861
X-128.771 Y-83.687
X-130.806 Y-78.916
X-141.964 Y-52.776
X-143.986 Y-48.032
X-144.996 Y-45.66
X-146.006 Y-43.288
X-146.686 Y-41.69
X-146.81 Y-41.398 F212.4
X-148.004 F849.6
X-148.322 F212.4
X-147.642 Y-42.993 F849.6
X-140.743 Y-59.177
X-139.594 Y-61.873
X-137.293 Y-67.267
X-132.195 Y-79.213
X-127.09 Y-91.157
X-121.977 Y-103.098
X-121.852 Y-103.389 F212.4
X-112.464 Y-81.291 F849.6
X-103.067 Y-59.196
X-100.777 Y-53.81
X-99.632 Y-51.117
X-98.487 Y-48.424
X-96.197 Y-43.037
X-95.646 Y-41.74
X-95.522 Y-41.448 F212.4
X-96.718 F849.6
X-97.035 F212.4
X-99.016 Y-46.103 F849.6
X-101.001 Y-50.755
X-101.106 Y-51.001 Z-4.004 F283.2
X-102.058 Y-53.232 Z-4.045
X-102.535 Y-54.349 Z-4.065
X-103.011 Y-55.465 Z-4.085
X-103.488 Y-56.582 Z-4.105
X-103.964 Y-57.698 Z-4.126
X-104.916 Y-59.933 Z-4.166
X-105.392 Y-61.051 Z-4.186
X-105.866 Y-62.169 Z-4.206
X-106.341 Y-63.288 Z-4.227
X-106.816 Y-64.407 Z-4.247
X-107.291 Y-65.526 Z-4.267
X-107.765 Y-66.646 Z-4.287
X-108.238 Y-67.766 Z-4.307
G2 X-108.969 Y-68.251 Z-4.323 I-0.731 J0.309
G1 X-119.615 Z-4.5
X-120.762 F849.6
X-121.079 F212.4
Y-69.136 F849.6
Y-69.454 F212.4
X-114.151 F849.6
G2 X-110.16 Y-69.494 I1.345 J-63.524
G1 X-110.052 Y-69.51
X-109.947 Y-69.54
X-109.847 Y-69.584
X-109.754 Y-69.641
X-109.67 Y-69.71
X-109.596 Y-69.79
X-109.534 Y-69.879
X-109.484 Y-69.975
X-109.448 Y-70.078
X-109.426 Y-70.184
X-109.419 Y-70.291
X-109.426 Y-70.399
X-109.448 Y-70.505
X-109.484 Y-70.607
X-115.311 Y-84.334
X-121.143 Y-98.059
G2 X-121.898 Y-98.541 I-0.73 J0.31
X-122.654 Y-98.059 I-0.025 J0.793
G1 X-123.674 Y-95.656
X-124.694 Y-93.257
X-125.714 Y-90.861
X-128.771 Y-83.687
X-130.806 Y-78.916
X-141.964 Y-52.776
X-143.986 Y-48.032
X-144.996 Y-45.66
X-146.006 Y-43.288
X-146.686 Y-41.69
X-146.81 Y-41.398 F212.4
X-148.004 F849.6
X-148.322 F212.4
X-147.642 Y-42.993 F849.6
X-140.743 Y-59.177
X-139.594 Y-61.873
X-137.293 Y-67.267
X-132.195 Y-79.213
X-127.09 Y-91.157
X-121.977 Y-103.098
X-121.852 Y-103.389 F212.4
X-112.464 Y-81.291 F849.6
X-103.067 Y-59.196
X-100.777 Y-53.81
X-99.632 Y-51.117
X-98.487 Y-48.424
X-96.197 Y-43.037
X-95.646 Y-41.74
X-95.522 Y-41.448 F212.4
X-96.718 F849.6
X-97.035 F212.4
X-102.644 Y-54.604 F849.6
X-108.238 Y-67.766
G2 X-108.969 Y-68.251 I-0.731 J0.309
G1 X-119.615
G0 Z5
X-294.049 Y-54.609
G1 Z2.5 F283.2
Y-46.366 Z-0.5
Y-41.815 F849.6
Y-41.498 F212.4
X-294.934 F849.6
X-295.251 F212.4
Y-62.111 F849.6
Y-62.429 F212.4
X-294.366 F849.6
X-294.049 F212.4
Y-46.366 F849.6
Y-41.719 Z-1 F283.2
Y-41.498 F212.4
X-294.934 F849.6
X-295.251 F212.4
Y-62.111 F849.6
Y-62.429 F212.4
X-294.366 F849.6
X-294.049 F212.4
Y-41.719 F849.6
Y-41.498 Z-1.024 F283.2
X-295.251 Z-1.153
Y-44.721 Z-1.5
Y-62.111 F849.6
Y-62.429 F212.4
X-294.366 F849.6
X-294.049 F212.4
Y-41.815 F849.6
Y-41.498 F212.4
X-294.934 F849.6
X-295.251 F212.4
Y-44.721 F849.6
Y-49.369 Z-2 F283.2
Y-62.111 F849.6
Y-62.429 F212.4
X-294.366 F849.6
X-294.049 F212.4
Y-41.815 F849.6
Y-41.498 F212.4
X-294.934 F849.6
X-295.251 F212.4
Y-49.369 F849.6
Y-54.016 Z-2.5 F283.2
Y-62.111 F849.6
Y-62.429 F212.4
X-294.366 F849.6
X-294.049 F212.4
Y-41.815 F849.6
Y-41.498 F212.4
X-294.934 F849.6
X-295.251 F212.4
Y-54.016 F849.6
Y-58.664 Z-3 F283.2
Y-62.111 F849.6
Y-62.429 F212.4
X-294.366 F849.6
X-294.049 F212.4
Y-41.815 F849.6
Y-41.498 F212.4
X-294.934 F849.6
X-295.251 F212.4
Y-58.664 F849.6
Y-62.429 Z-3.405 F283.2
X-294.369 Z-3.5
X-294.049 F212.4
Y-41.815 F849.6
Y-41.498 F212.4
X-294.934 F849.6
X-295.251 F212.4
Y-62.111 F849.6
Y-62.429 F212.4
X-294.369 F849.6
X-294.049 Z-3.534 F283.2
Y-58.101 Z-4
Y-41.815 F849.6
Y-41.498 F212.4
X-294.934 F849.6
X-295.251 F212.4
Y-62.111 F849.6
Y-62.429 F212.4
X-294.366 F849.6
X-294.049 F212.4
Y-58.101 F849.6
Y-53.454 Z-4.5 F283.2
Y-41.815 F849.6
Y-41.498 F212.4
X-294.934 F849.6
X-295.251 F212.4
Y-62.111 F849.6
Y-62.429 F212.4
X-294.366 F849.6
X-294.049 F212.4
Y-53.454 F849.6
G0 Z5
X-305.77 Y-66.742
G1 Z2.5 F283.2
X-304.349 Y-68.185 Z1.763
X-303.038 Y-69.517 Z1.083
X-301.725 Y-70.849 Z0.402
X-300.412 Y-72.181 Z-0.279
G2 X-300.183 Y-72.728 Z-0.5 I-0.565 J-0.557
X-300.41 Y-73.294 I-0.794 J-0.011 F849.6
G1 X-310.573 Y-83.648
X-320.729 Y-94.009
X-330.878 Y-104.376
X-331.1 Y-104.603 F212.4
G3 X-329.543 Y-104.568 I0.591 J8.362 F849.6
X-329.229 Y-104.526 I-0.965 J8.327 F212.4
X-328.538 Y-103.963 I-4.569 J6.306 F849.6
G1 X-322.224 Y-97.526
X-315.903 Y-91.095
X-312.09 Y-87.215
X-309.266 Y-84.379
X-306.452 Y-81.533
X-303.65 Y-78.676
X-300.857 Y-75.809
X-298.076 Y-72.931
X-297.855 Y-72.702 F212.4
X-303.412 Y-67.072 F849.6
X-308.965 Y-61.438
X-328.097 Y-42.008
G3 X-328.78 Y-41.456 I-0.933 J-0.456
X-330.372 Y-41.378 I-1.625 J-17.021
X-330.689 Y-41.381 I-0.033 J-17.098 F212.4
G1 X-320.604 Y-51.654 F849.6
X-310.512 Y-61.922
X-300.413 Y-72.183
X-300.347 Y-72.259
X-300.291 Y-72.342
X-300.246 Y-72.433
X-300.212 Y-72.528
X-300.191 Y-72.627
X-300.183 Y-72.728
G2 X-300.41 Y-73.294 Z-0.517 I-0.794 J-0.011 F283.2
G1 X-301.742 Y-74.652 Z-0.567
X-303.075 Y-76.008 Z-0.617
X-304.405 Y-77.365 Z-0.667
X-305.737 Y-78.721 Z-0.717
X-307.066 Y-80.076 Z-0.767
X-308.397 Y-81.431 Z-0.817
X-309.725 Y-82.785 Z-0.867
X-311.053 Y-84.138 Z-0.917
X-312.38 Y-85.491 Z-0.967
X-313.263 Y-86.391 Z-1
X-322.074 Y-95.38 F849.6
X-330.877 Y-104.377
X-331.099 Y-104.604 F212.4
G3 X-329.544 Y-104.568 I0.583 J8.471 F849.6
X-329.229 Y-104.526 I-0.972 J8.435 F212.4
X-328.538 Y-103.963 I-4.612 J6.355 F849.6
G1 X-322.224 Y-97.526
X-315.903 Y-91.095
X-312.09 Y-87.215
X-309.266 Y-84.379
X-306.452 Y-81.533
X-303.65 Y-78.676
X-300.857 Y-75.809
X-298.076 Y-72.931
X-297.855 Y-72.702 F212.4
X-303.412 Y-67.072 F849.6
X-308.965 Y-61.438
X-328.097 Y-42.008
G3 X-328.78 Y-41.456 I-0.933 J-0.456
X-330.372 Y-41.378 I-1.625 J-17.021
X-330.689 Y-41.381 I-0.033 J-17.098 F212.4
G1 X-320.604 Y-51.654 F849.6
X-310.512 Y-61.922
X-300.413 Y-72.183
X-300.34 Y-72.267
X-300.28 Y-72.362
X-300.234 Y-72.464
X-300.203 Y-72.571
X-300.186 Y-72.682
Y-72.793
X-300.202 Y-72.904
X-300.233 Y-73.012
X-300.278 Y-73.114
X-300.338 Y-73.209
X-300.41 Y-73.294
X-313.263 Y-86.391
X-313.707 Y-86.844 Z-1.017 F283.2
X-315.033 Y-88.196 Z-1.067
X-316.358 Y-89.548 Z-1.117
X-317.683 Y-90.899 Z-1.166
X-319.007 Y-92.25 Z-1.216
X-320.33 Y-93.6 Z-1.266
X-321.652 Y-94.949 Z-1.316
X-322.973 Y-96.298 Z-1.366
X-324.293 Y-97.646 Z-1.415
X-325.613 Y-98.994 Z-1.465
X-326.571 Y-99.974 Z-1.5
X-330.877 Y-104.377 F849.6
X-331.099 Y-104.604 F212.4
G3 X-329.544 Y-104.568 I0.583 J8.478 F849.6
X-329.229 Y-104.526 I-0.972 J8.442 F212.4
X-328.538 Y-103.963 I-4.614 J6.358 F849.6
G1 X-322.224 Y-97.526
X-315.903 Y-91.095
X-312.09 Y-87.215
X-309.266 Y-84.379
X-306.452 Y-81.533
X-303.65 Y-78.676
X-300.857 Y-75.809
X-298.076 Y-72.931
X-297.855 Y-72.702 F212.4
X-303.412 Y-67.072 F849.6
X-308.965 Y-61.438
X-328.097 Y-42.008
G3 X-328.78 Y-41.456 I-0.933 J-0.456
X-330.372 Y-41.378 I-1.625 J-17.021
X-330.689 Y-41.381 I-0.033 J-17.098 F212.4
G1 X-320.604 Y-51.654 F849.6
X-310.512 Y-61.922
X-300.413 Y-72.183
X-300.34 Y-72.267
X-300.28 Y-72.362
X-300.234 Y-72.464
X-300.203 Y-72.571
X-300.186 Y-72.682
Y-72.793
X-300.202 Y-72.904
X-300.233 Y-73.012
X-300.278 Y-73.114
X-300.338 Y-73.209
X-300.41 Y-73.294
X-313.482 Y-86.614
X-326.543 Y-99.945
X-326.93 Y-100.342 Z-1.515 F283.2
X-328.247 Y-101.689 Z-1.564
X-329.565 Y-103.035 Z-1.614
X-330.88 Y-104.381 Z-1.663
X-331.099 Y-104.604 Z-1.672
X-330.831 Z-1.679
X-330.811
X-330.781 Y-104.605 Z-1.68
X-330.71 Z-1.682
X-330.69
X-330.66 Y-104.606 Z-1.683
X-330.629 Z-1.684
X-330.609 Z-1.685
X-330.538 Y-104.608 Z-1.686
X-330.508 Z-1.687
X-330.489 Z-1.688
X-330.367 Y-104.611 Z-1.691
X-330.346 Y-104.612 Z-1.692
X-330.316 Y-104.614
X-330.245 Y-104.616 Z-1.694
X-330.226 Z-1.695
X-330.195 Y-104.618 Z-1.696
X-330.164
X-330.145 Y-104.619 Z-1.697
X-329.982 Y-104.627 Z-1.701
X-329.932 Y-104.631 Z-1.702
X-329.901 Z-1.703
X-329.829 Y-104.627 Z-1.705
X-329.765 Y-104.622 Z-1.707
X-329.699 Y-104.613 Z-1.709
X-329.632 Y-104.603 Z-1.71
X-329.575 Y-104.592 Z-1.712
X-329.519 Y-104.578 Z-1.713
X-329.457 Y-104.561 Z-1.715
X-329.399 Y-104.543 Z-1.717
X-329.345 Y-104.524 Z-1.718
X-329.29 Y-104.502 Z-1.72
X-329.236 Y-104.478 Z-1.721
X-329.183 Y-104.452 Z-1.723
X-329.127 Y-104.423 Z-1.725
X-329.069 Y-104.389 Z-1.726
X-329.015 Y-104.356 Z-1.728
X-328.961 Y-104.319 Z-1.73
X-328.9 Y-104.275 Z-1.732
X-328.842 Y-104.232 Z-1.734
X-328.785 Y-104.186 Z-1.736
X-328.726 Y-104.136 Z-1.738
X-328.664 Y-104.081 Z-1.74
X-328.602 Y-104.022 Z-1.742
X-328.539 Y-103.962 Z-1.744
X-326.018 Y-101.39 Z-1.839
X-324.754 Y-100.102 Z-1.887
X-323.489 Y-98.815 Z-1.934
X-322.224 Y-97.527 Z-1.982
X-321.743 Y-97.038 Z-2
X-315.903 Y-91.095 F849.6
X-312.09 Y-87.215
X-309.266 Y-84.379
X-306.452 Y-81.533
X-303.65 Y-78.676
X-300.857 Y-75.809
X-298.076 Y-72.931
X-297.855 Y-72.702 F212.4
X-303.412 Y-67.072 F849.6
X-308.965 Y-61.438
X-328.097 Y-42.008
G3 X-328.78 Y-41.456 I-0.933 J-0.456
X-330.372 Y-41.378 I-1.625 J-17.021
X-330.689 Y-41.381 I-0.033 J-17.098 F212.4
G1 X-320.604 Y-51.654 F849.6
X-310.512 Y-61.922
X-300.413 Y-72.183
X-300.34 Y-72.267
X-300.28 Y-72.362
X-300.234 Y-72.464
X-300.203 Y-72.571
X-300.186 Y-72.682
Y-72.793
X-300.202 Y-72.904
X-300.233 Y-73.012
X-300.278 Y-73.114
X-300.338 Y-73.209
X-300.41 Y-73.294
X-310.573 Y-83.648
X-320.729 Y-94.009
X-330.878 Y-104.376
X-331.1 Y-104.603 F212.4
G3 X-329.543 Y-104.568 I0.591 J8.362 F849.6
X-329.229 Y-104.526 I-0.965 J8.327 F212.4
X-328.538 Y-103.963 I-4.569 J6.306 F849.6
G1 X-325.143 Y-100.498
X-321.743 Y-97.038
X-320.96 Y-96.241 Z-2.029 F283.2
X-319.696 Y-94.954 Z-2.077
X-317.168 Y-92.381 Z-2.172
X-315.903 Y-91.095 Z-2.22
X-312.111 Y-87.237 Z-2.362
X-310.847 Y-85.951 Z-2.41
X-309.582 Y-84.665 Z-2.457
X-308.425 Y-83.488 Z-2.5
G3 X-298.074 Y-72.933 I-488.023 J488.958 F849.6
X-297.854 Y-72.704 I-498.374 J478.403 F212.4
G1 X-303.412 Y-67.073 F849.6
X-308.965 Y-61.438
X-328.097 Y-42.008
G3 X-328.78 Y-41.456 I-0.933 J-0.456
X-330.372 Y-41.378 I-1.625 J-17.021
X-330.689 Y-41.381 I-0.033 J-17.098 F212.4
G1 X-320.604 Y-51.654 F849.6
X-310.512 Y-61.922
X-300.413 Y-72.183
X-300.34 Y-72.267
X-300.28 Y-72.362
X-300.234 Y-72.464
X-300.203 Y-72.571
X-300.186 Y-72.682
Y-72.793
X-300.202 Y-72.904
X-300.233 Y-73.012
X-300.278 Y-73.114
X-300.338 Y-73.209
X-300.41 Y-73.294
X-310.573 Y-83.648
X-320.729 Y-94.009
X-330.878 Y-104.376
X-331.1 Y-104.603 F212.4
G3 X-329.543 Y-104.568 I0.591 J8.362 F849.6
X-329.229 Y-104.526 I-0.965 J8.327 F212.4
X-328.538 Y-103.963 I-4.569 J6.306 F849.6
G1 X-322.224 Y-97.526
X-315.903 Y-91.095
X-312.111 Y-87.237
X-310.847 Y-85.951
X-309.582 Y-84.665
X-308.442 Y-83.504
X-305.79 Y-80.806 Z-2.6 F283.2
X-304.526 Y-79.519 Z-2.647
X-303.262 Y-78.232 Z-2.695
X-301.997 Y-76.944 Z-2.742
X-300.734 Y-75.656 Z-2.79
X-299.47 Y-74.368 Z-2.837
X-298.206 Y-73.079 Z-2.885
X-298.133 Y-73.006 Z-2.888
X-298.07 Y-72.94 Z-2.89
X-298.039 Y-72.907 Z-2.891
X-298.032 Y-72.9 Z-2.892
X-298 Y-72.866 Z-2.893
X-297.974 Y-72.838 Z-2.894
X-297.945 Y-72.805 Z-2.895
X-297.907 Y-72.765 Z-2.896
X-297.854 Y-72.704 Z-2.899
X-297.893 Y-72.66 Z-2.9
X-297.925 Y-72.624 Z-2.901
X-297.967 Y-72.579 Z-2.903
X-297.996 Y-72.546 Z-2.904
X-298.031 Y-72.51 Z-2.905
X-298.061 Y-72.479 Z-2.907
X-298.097 Y-72.443 Z-2.908
X-298.127 Y-72.412 Z-2.909
X-298.158 Y-72.383 Z-2.91
X-298.192 Y-72.351 Z-2.911
X-298.223 Y-72.322 Z-2.913
X-298.26 Y-72.29 Z-2.914
X-298.282 Y-72.27 Z-2.915
X-298.303 Y-72.25
X-298.746 Y-71.801 Z-2.932
X-299.189 Y-71.352 Z-2.949
X-299.632 Y-70.902 Z-2.965
X-300.076 Y-70.452 Z-2.982
X-300.558 Y-69.963 Z-3
X-300.964 Y-69.551 F849.6
X-308.965 Y-61.438
X-328.097 Y-42.008
G3 X-328.78 Y-41.456 I-0.933 J-0.456
X-330.372 Y-41.378 I-1.625 J-17.021
X-330.689 Y-41.381 I-0.033 J-17.098 F212.4
G1 X-320.604 Y-51.654 F849.6
X-310.512 Y-61.922
X-300.413 Y-72.183
X-300.34 Y-72.267
X-300.28 Y-72.362
X-300.234 Y-72.464
X-300.203 Y-72.571
X-300.186 Y-72.682
Y-72.793
X-300.202 Y-72.904
X-300.233 Y-73.012
X-300.278 Y-73.114
X-300.338 Y-73.209
X-300.41 Y-73.294
X-310.573 Y-83.648
X-320.729 Y-94.009
X-330.878 Y-104.376
X-331.1 Y-104.603 F212.4
G3 X-329.543 Y-104.568 I0.591 J8.362 F849.6
X-329.229 Y-104.526 I-0.965 J8.327 F212.4
X-328.538 Y-103.963 I-4.569 J6.306 F849.6
G1 X-322.224 Y-97.526
X-315.903 Y-91.095
X-312.088 Y-87.213
X-309.267 Y-84.374
X-306.456 Y-81.527
X-303.653 Y-78.67
X-300.86 Y-75.805
X-298.075 Y-72.932
X-297.854 Y-72.703 F212.4
G3 X-300.558 Y-69.963 I-47.617 J-44.282 F849.6
G1 X-300.964 Y-69.551 Z-3.015 F283.2
X-301.409 Y-69.101 Z-3.032
X-302.299 Y-68.198 Z-3.065
X-303.189 Y-67.295 Z-3.099
X-304.079 Y-66.393 Z-3.132
X-304.525 Y-65.941 Z-3.149
X-305.415 Y-65.038 Z-3.182
X-305.86 Y-64.587 Z-3.199
X-306.304 Y-64.137 Z-3.216
X-306.749 Y-63.686 Z-3.232
X-307.193 Y-63.236 Z-3.249
X-307.636 Y-62.786 Z-3.266
X-308.08 Y-62.337 Z-3.282
X-308.523 Y-61.887 Z-3.299
X-308.965 Y-61.438 Z-3.315
X-313.878 Y-56.449 Z-3.5
X-328.097 Y-42.008 F849.6
G3 X-328.78 Y-41.456 I-0.933 J-0.456
X-330.372 Y-41.378 I-1.625 J-17.021
X-330.689 Y-41.381 I-0.033 J-17.098 F212.4
G1 X-320.604 Y-51.654 F849.6
X-310.512 Y-61.922
X-300.413 Y-72.183
X-300.34 Y-72.267
X-300.28 Y-72.362
X-300.234 Y-72.464
X-300.203 Y-72.571
X-300.186 Y-72.682
Y-72.793
X-300.202 Y-72.904
X-300.233 Y-73.012
X-300.278 Y-73.114
X-300.338 Y-73.209
X-300.41 Y-73.294
X-310.573 Y-83.648
X-320.729 Y-94.009
X-330.878 Y-104.376
X-331.1 Y-104.603 F212.4
G3 X-329.543 Y-104.568 I0.591 J8.362 F849.6
X-329.229 Y-104.526 I-0.965 J8.327 F212.4
X-328.538 Y-103.963 I-4.569 J6.306 F849.6
G1 X-322.224 Y-97.526
X-315.903 Y-91.095
X-312.09 Y-87.215
X-309.266 Y-84.379
X-306.452 Y-81.533
X-303.65 Y-78.676
X-300.857 Y-75.809
X-298.076 Y-72.931
X-297.855 Y-72.702 F212.4
X-303.412 Y-67.072 F849.6
X-308.965 Y-61.438
X-313.878 Y-56.449
X-327.194 Y-42.925 Z-4 F283.2
G3 X-328.398 Y-41.686 I-41.533 J-39.147 F849.6
X-328.623 Y-41.462 I-40.33 J-40.385 F212.4
X-330.372 Y-41.383 I-2.308 J-31.687 F849.6
X-330.689 Y-41.379 I-0.559 J-31.766 F212.4
G1 X-320.604 Y-51.654 F849.6
X-310.512 Y-61.921
X-300.413 Y-72.183
X-300.34 Y-72.267
X-300.28 Y-72.362
X-300.234 Y-72.463
X-300.202 Y-72.571
X-300.186 Y-72.682
Y-72.793
X-300.202 Y-72.904
X-300.232 Y-73.012
X-300.278 Y-73.114
X-300.338 Y-73.209
X-300.41 Y-73.294
X-310.573 Y-83.648
X-320.729 Y-94.009
X-330.878 Y-104.376
X-331.1 Y-104.603 F212.4
G3 X-329.543 Y-104.568 I0.591 J8.362 F849.6
X-329.229 Y-104.526 I-0.965 J8.327 F212.4
X-328.538 Y-103.963 I-4.569 J6.306 F849.6
G1 X-322.224 Y-97.526
X-315.903 Y-91.095
X-312.09 Y-87.215
X-309.266 Y-84.379
X-306.452 Y-81.533
X-303.65 Y-78.676
X-300.857 Y-75.809
X-298.076 Y-72.931
X-297.855 Y-72.702 F212.4
X-303.412 Y-67.072 F849.6
X-308.965 Y-61.438
X-327.192 Y-42.927
X-328.097 Y-42.008 Z-4.034 F283.2
X-328.142 Y-41.962 Z-4.036
X-328.179 Y-41.923 Z-4.037
X-328.19 Y-41.911 Z-4.038
X-328.23 Y-41.868 Z-4.039
X-328.266 Y-41.828 Z-4.04
X-328.304 Y-41.786 Z-4.042
X-328.311 Y-41.777
X-328.376 Y-41.703 Z-4.045
X-328.41 Y-41.665 Z-4.046
X-328.443 Y-41.628 Z-4.048
X-328.469 Y-41.6 Z-4.049
X-328.493 Y-41.574
X-328.52 Y-41.547 Z-4.05
X-328.545 Y-41.523 Z-4.051
X-328.564 Y-41.506 Z-4.052
X-328.58 Y-41.492 Z-4.053
X-328.592 Y-41.482
X-328.606 Y-41.48
X-328.682 Y-41.469 Z-4.055
X-328.708 Y-41.465 Z-4.056
X-328.767 Y-41.457 Z-4.058
X-328.826 Y-41.45 Z-4.059
X-328.888 Y-41.442 Z-4.061
X-329.014 Y-41.432 Z-4.064
X-329.154 Y-41.422 Z-4.068
X-329.293 Y-41.414 Z-4.072
X-329.433 Y-41.406 Z-4.075
X-329.573 Y-41.399 Z-4.079
X-329.714 Y-41.393 Z-4.083
X-329.855 Y-41.388 Z-4.086
X-329.997 Y-41.384 Z-4.09
X-330.14 Y-41.381 Z-4.094
X-330.284 Y-41.38 Z-4.098
X-330.429 Y-41.378 Z-4.102
X-330.576 Z-4.105
X-330.689 Y-41.379 Z-4.108
X-327.976 Y-44.143 Z-4.21
X-326.656 Y-45.488 Z-4.26
X-325.338 Y-46.831 Z-4.31
X-324.021 Y-48.173 Z-4.359
X-322.705 Y-49.513 Z-4.409
X-321.391 Y-50.852 Z-4.458
X-320.278 Y-51.984 Z-4.5
X-310.35 Y-62.088 F849.6
X-300.412 Y-72.181
G2 X-300.41 Y-73.294 I-0.565 J-0.557
G1 X-310.573 Y-83.648
X-320.729 Y-94.009
X-330.878 Y-104.376
X-331.1 Y-104.603 F212.4
G3 X-329.543 Y-104.568 I0.591 J8.362 F849.6
X-329.229 Y-104.526 I-0.965 J8.327 F212.4
X-328.538 Y-103.963 I-4.569 J6.306 F849.6
G1 X-322.224 Y-97.526
X-315.903 Y-91.095
X-312.09 Y-87.215
X-309.266 Y-84.379
X-306.452 Y-81.533
X-303.65 Y-78.676
X-300.857 Y-75.809
X-298.076 Y-72.931
X-297.855 Y-72.702 F212.4
X-303.412 Y-67.072 F849.6
X-308.965 Y-61.438
X-328.097 Y-42.008
G3 X-328.78 Y-41.456 I-0.933 J-0.456
X-330.372 Y-41.378 I-1.625 J-17.021
X-330.689 Y-41.381 I-0.033 J-17.098 F212.4
G1 X-330.622 Y-41.448 F849.6
X-320.279 Y-51.984
G0 Z5
X-354.68 Y-70.827
G1 Z2.5 F283.2
Y-62.935 Z-0.373
X-354.681 Y-62.892 Z-0.388
Y-62.876 Z-0.394
Y-62.834 Z-0.409
X-354.682 Y-62.791 Z-0.425
Y-62.775 Z-0.431
Y-62.732 Z-0.446
X-354.684 Y-62.592 Z-0.497
X-354.685 Y-62.586 Z-0.5
G3 X-361.037 Y-47.364 I-26.566 J-2.15 F849.6
X-376.415 Y-41.64 I-13.824 J-13.619
X-393.528 Y-52.8 I0.138 J-18.911
X-396.52 Y-63.42 I21.766 J-11.865
G1 X-396.505 Y-69.073
X-396.5 Y-74.727
X-396.507 Y-80.38
X-396.501 Y-87.17
X-396.492 Y-93.956
X-396.486 Y-100.737
G3 X-396.485 Y-104.24 I37.03 J-1.742
X-396.469 Y-104.557 I37.029 J1.761 F212.4
X-395.351 Y-104.575 I1.534 J60.053 F849.6
X-395.034 Y-104.576 I0.417 J60.071 F212.4
G1 Y-98.813 F849.6
X-395.061 Y-91.638
X-395.076 Y-84.462
X-395.078 Y-77.287
X-395.069 Y-70.111
X-395.047 Y-62.936
G2 X-390.322 Y-49.982 I27.333 J-2.631
X-374.505 Y-43.059 I14.152 J-10.804
X-359.887 Y-51.212 I0.089 J-17.021
X-356.206 Y-63.746 I-16.736 J-11.722
G1 X-356.16 Y-67.523
X-356.125 Y-71.301
X-356.102 Y-75.079
X-356.091 Y-78.857
Y-82.635
X-356.103 Y-86.413
X-356.121 Y-95.171
G3 X-356.111 Y-104.287 I336.92 J-4.179
X-356.106 Y-104.605 I336.91 J4.937 F212.4
X-354.997 Y-104.636 I0.809 J8.879 F849.6
X-354.68 Y-104.62 I-0.3 J8.911 F212.4
G1 Y-63.173 F849.6
G3 X-354.685 Y-62.585 I-28.791 J0.051
G1 X-354.692 Y-62.396 Z-0.503 F283.2
X-354.703 Y-62.198 Z-0.506
X-354.706 Y-62.159 Z-0.507
X-354.72 Y-62.012 Z-0.509
X-354.724 Y-61.974 Z-0.51
X-354.795 Y-61.435 Z-0.518
X-354.874 Y-60.9 Z-0.527
X-354.963 Y-60.369 Z-0.536
X-355.06 Y-59.841 Z-0.544
X-355.166 Y-59.317 Z-0.553
X-355.282 Y-58.796 Z-0.561
X-355.406 Y-58.279 Z-0.57
X-355.539 Y-57.767 Z-0.578
X-355.682 Y-57.258 Z-0.587
X-355.834 Y-56.752 Z-0.595
X-355.995 Y-56.251 Z-0.604
X-356.166 Y-55.753 Z-0.612
X-356.346 Y-55.258 Z-0.621
X-356.536 Y-54.768 Z-0.629
X-356.736 Y-54.281 Z-0.637
X-356.945 Y-53.798 Z-0.646
X-357.165 Y-53.317 Z-0.654
X-357.394 Y-52.841 Z-0.663
X-357.633 Y-52.368 Z-0.671
X-357.883 Y-51.898 Z-0.68
X-358.143 Y-51.432 Z-0.688
X-358.412 Y-50.97 Z-0.697
X-358.693 Y-50.512 Z-0.705
X-358.984 Y-50.057 Z-0.714
X-359.307 Y-49.577 Z-0.723
X-359.64 Y-49.112 Z-0.732
X-359.983 Y-48.66 Z-0.742
X-360.334 Y-48.223 Z-0.75
X-360.696 Y-47.8 Z-0.759
X-361.067 Y-47.39 Z-0.768
X-361.448 Y-46.995 Z-0.777
X-361.839 Y-46.613 Z-0.786
X-362.24 Y-46.244 Z-0.794
X-362.648 Y-45.89 Z-0.803
X-363.069 Y-45.55 Z-0.812
X-363.499 Y-45.223 Z-0.82
X-363.938 Y-44.91 Z-0.829
X-364.388 Y-44.61 Z-0.838
X-364.847 Y-44.324 Z-0.846
X-365.316 Y-44.052 Z-0.855
X-365.797 Y-43.793 Z-0.864
X-366.286 Y-43.548 Z-0.873
X-366.786 Y-43.317 Z-0.881
X-367.297 Y-43.099 Z-0.89
X-367.819 Y-42.895 Z-0.899
X-368.35 Y-42.705 Z-0.908
X-368.892 Y-42.528 Z-0.917
X-369.452 Y-42.363 Z-0.927
X-369.739 Y-42.281 Z-0.931
X-370.026 Y-42.205 Z-0.936
X-370.313 Y-42.134 Z-0.941
X-370.6 Y-42.067 Z-0.946
X-370.888 Y-42.005 Z-0.95
X-371.175 Y-41.947 Z-0.955
X-371.462 Y-41.894 Z-0.96
X-371.751 Y-41.845 Z-0.964
X-372.038 Y-41.801 Z-0.969
X-372.327 Y-41.761 Z-0.974
X-372.616 Y-41.725 Z-0.978
X-372.906 Y-41.693 Z-0.983
X-373.195 Y-41.665 Z-0.988
X-373.486 Y-41.64 Z-0.992
X-373.777 Y-41.62 Z-0.997
X-373.966 Y-41.609 Z-1
G3 X-387.002 Y-44.899 I-1.617 J-21.066 F849.6
X-394.776 Y-55.639 I13.191 J-17.732
X-396.444 Y-65.678 I19.142 J-8.339
X-396.507 Y-80.38 I723.432 J-10.48
G1 X-396.501 Y-87.17
X-396.492 Y-93.956
X-396.486 Y-100.737
G3 X-396.485 Y-104.24 I37.03 J-1.742
X-396.469 Y-104.557 I37.029 J1.761 F212.4
X-395.351 Y-104.575 I1.534 J60.053 F849.6
X-395.034 Y-104.576 I0.417 J60.071 F212.4
G1 Y-98.813 F849.6
X-395.061 Y-91.638
X-395.076 Y-84.462
X-395.078 Y-77.287
X-395.069 Y-70.111
X-395.047 Y-62.936
G2 X-390.322 Y-49.982 I27.333 J-2.631
X-374.505 Y-43.059 I14.152 J-10.804
X-359.887 Y-51.212 I0.089 J-17.021
X-356.206 Y-63.746 I-16.736 J-11.722
G1 X-356.16 Y-67.523
X-356.125 Y-71.301
X-356.102 Y-75.079
X-356.091 Y-78.857
Y-82.635
X-356.103 Y-86.413
X-356.121 Y-95.171
G3 X-356.111 Y-104.287 I336.92 J-4.179
X-356.106 Y-104.605 I336.91 J4.937 F212.4
X-354.997 Y-104.636 I0.809 J8.879 F849.6
X-354.68 Y-104.62 I-0.3 J8.911 F212.4
G1 Y-63.173 F849.6
G3 X-355.282 Y-58.796 I-15.087 J0.153
X-361.806 Y-46.581 I-24.897 J-5.447
X-373.966 Y-41.621 I-12.976 J-14.427
G1 X-374.068 Y-41.604 Z-1.002 F283.2
X-374.36 Y-41.591 Z-1.006
X-374.652 Y-41.581 Z-1.011
X-374.946 Y-41.576 Z-1.016
X-375.24 Y-41.573 Z-1.02
X-375.534 Y-41.574 Z-1.025
X-375.829 Y-41.579 Z-1.03
X-376.126 Y-41.586 Z-1.035
X-376.419 Y-41.597 Z-1.039
X-377.005 Y-41.627 Z-1.049
X-377.583 Y-41.671 Z-1.058
X-378.156 Y-41.729 Z-1.067
X-378.723 Y-41.8 Z-1.076
X-379.285 Y-41.885 Z-1.085
X-379.841 Y-41.983 Z-1.094
X-380.391 Y-42.096 Z-1.103
X-380.936 Y-42.223 Z-1.112
X-381.473 Y-42.365 Z-1.121
X-382.005 Y-42.522 Z-1.13
X-382.531 Y-42.693 Z-1.139
X-383.051 Y-42.879 Z-1.148
X-383.563 Y-43.081 Z-1.157
X-384.07 Y-43.298 Z-1.165
X-384.571 Y-43.531 Z-1.174
X-385.065 Y-43.78 Z-1.183
X-385.553 Y-44.045 Z-1.192
X-386.033 Y-44.326 Z-1.201
X-386.507 Y-44.625 Z-1.21
X-386.975 Y-44.94 Z-1.219
X-387.436 Y-45.272 Z-1.228
X-387.89 Y-45.622 Z-1.237
X-388.336 Y-45.989 Z-1.246
X-388.781 Y-46.379 Z-1.256
X-389.043 Y-46.615 Z-1.261
X-389.297 Y-46.854 Z-1.267
X-389.548 Y-47.098 Z-1.273
X-389.794 Y-47.347 Z-1.278
X-390.035 Y-47.599 Z-1.284
X-390.271 Y-47.855 Z-1.289
X-390.501 Y-48.116 Z-1.295
X-390.729 Y-48.382 Z-1.301
X-390.95 Y-48.65 Z-1.306
X-391.167 Y-48.922 Z-1.312
X-391.38 Y-49.199 Z-1.317
X-391.588 Y-49.479 Z-1.323
X-391.791 Y-49.763 Z-1.328
X-391.989 Y-50.05 Z-1.334
X-392.183 Y-50.34 Z-1.34
X-392.372 Y-50.634 Z-1.345
X-392.556 Y-50.932 Z-1.351
X-392.737 Y-51.232 Z-1.356
X-392.911 Y-51.536 Z-1.362
X-393.083 Y-51.843 Z-1.368
X-393.249 Y-52.153 Z-1.373
X-393.412 Y-52.466 Z-1.379
X-393.569 Y-52.781 Z-1.385
X-393.723 Y-53.1 Z-1.39
X-393.806 Y-53.278 Z-1.393
X-393.889 Y-53.457 Z-1.396
X-393.97 Y-53.636 Z-1.4
X-394.054 Y-53.818 Z-1.403
X-394.134 Y-53.996 Z-1.406
X-394.294 Y-54.359 Z-1.412
X-394.372 Y-54.539 Z-1.415
X-394.45 Y-54.719 Z-1.419
X-394.526 Y-54.899 Z-1.422
X-394.602 Y-55.08 Z-1.425
X-394.675 Y-55.259 Z-1.428
X-394.821 Y-55.624 Z-1.434
X-394.892 Y-55.804 Z-1.437
X-394.961 Y-55.986 Z-1.44
X-395.031 Y-56.168 Z-1.444
X-395.098 Y-56.349 Z-1.447
X-395.164 Y-56.532 Z-1.45
X-395.229 Y-56.713 Z-1.453
X-395.292 Y-56.895 Z-1.456
X-395.355 Y-57.079 Z-1.459
X-395.416 Y-57.261 Z-1.462
X-395.474 Y-57.441 Z-1.465
X-395.549 Y-57.681 Z-1.469
X-395.622 Y-57.923 Z-1.473
X-395.691 Y-58.163 Z-1.477
X-395.758 Y-58.406 Z-1.481
X-395.823 Y-58.649 Z-1.485
X-395.885 Y-58.891 Z-1.489
X-395.943 Y-59.134 Z-1.493
X-396 Y-59.38 Z-1.497
X-396.034 Y-59.536 Z-1.5
G3 X-396.471 Y-66.245 I24.508 J-4.965 F849.6
G1 X-396.495 Y-69.778
X-396.509 Y-73.312
X-396.513 Y-76.846
X-396.507 Y-80.38
X-396.501 Y-87.17
X-396.492 Y-93.956
X-396.486 Y-100.737
G3 X-396.485 Y-104.24 I37.03 J-1.742
X-396.469 Y-104.557 I37.029 J1.761 F212.4
X-395.351 Y-104.575 I1.534 J60.053 F849.6
X-395.034 Y-104.576 I0.417 J60.071 F212.4
G1 Y-98.813 F849.6
X-395.061 Y-91.638
X-395.076 Y-84.462
X-395.078 Y-77.287
X-395.069 Y-70.111
X-395.047 Y-62.936
G2 X-390.322 Y-49.982 I27.333 J-2.631
X-374.505 Y-43.059 I14.152 J-10.804
X-359.887 Y-51.212 I0.089 J-17.021
X-356.206 Y-63.746 I-16.736 J-11.722
G1 X-356.16 Y-67.523
X-356.125 Y-71.301
X-356.102 Y-75.079
X-356.091 Y-78.857
Y-82.635
X-356.103 Y-86.413
X-356.121 Y-95.171
G3 X-356.111 Y-104.287 I336.92 J-4.179
X-356.106 Y-104.605 I336.91 J4.937 F212.4
X-354.997 Y-104.636 I0.809 J8.879 F849.6
X-354.68 Y-104.62 I-0.3 J8.911 F212.4
G1 Y-63.173 F849.6
G3 X-355.282 Y-58.796 I-15.087 J0.153
X-361.806 Y-46.581 I-24.897 J-5.447
X-377 Y-41.675 I-13.166 J-14.792
X-393.37 Y-52.486 I0.64 J-18.768
X-396.042 Y-59.546 I24.67 J-13.373
G1 X-396.054 Y-59.624 Z-1.501 F283.2
X-396.104 Y-59.87 Z-1.505
X-396.152 Y-60.117 Z-1.509
X-396.197 Y-60.362 Z-1.513
X-396.239 Y-60.61 Z-1.517
X-396.278 Y-60.858 Z-1.521
X-396.314 Y-61.106 Z-1.525
X-396.346 Y-61.355 Z-1.529
X-396.375 Y-61.604 Z-1.533
X-396.401 Y-61.856 Z-1.537
X-396.424 Y-62.107 Z-1.541
X-396.443 Y-62.36 Z-1.545
X-396.46 Y-62.613 Z-1.55
X-396.472 Y-62.865 Z-1.554
X-396.48 Y-63.119 Z-1.558
X-396.485 Y-63.373 Z-1.562
Y-63.422 Z-1.563
X-396.493 Y-65.682 Z-1.599
X-396.494 Y-66.246 Z-1.608
X-396.496 Y-66.812 Z-1.617
X-396.498 Y-67.941 Z-1.635
X-396.5 Y-68.506 Z-1.644
X-396.503 Y-70.2 Z-1.671
Y-70.764 Z-1.68
X-396.505 Y-71.895 Z-1.698
Y-72.46 Z-1.707
X-396.506 Y-73.026 Z-1.716
Y-73.59 Z-1.725
X-396.507 Y-74.156 Z-1.734
Y-76.418 Z-1.77
X-396.508 Y-76.984 Z-1.779
X-396.507 Y-78.115 Z-1.798
Y-80.38 Z-1.834
X-396.501 Y-87.17 Z-1.942
X-396.499 Y-88.301 Z-1.96
X-396.498 Y-89.433 Z-1.979
X-396.496 Y-90.564 Z-1.997
Y-90.772 Z-2
X-396.494 Y-92.826 F849.6
X-396.492 Y-93.956
X-396.486 Y-100.737
G3 X-396.485 Y-104.24 I37.03 J-1.742
X-396.469 Y-104.557 I37.029 J1.761 F212.4
X-395.351 Y-104.575 I1.534 J60.053 F849.6
X-395.034 Y-104.576 I0.417 J60.071 F212.4
G1 Y-98.813 F849.6
X-395.061 Y-91.638
X-395.076 Y-84.462
X-395.078 Y-77.287
X-395.069 Y-70.111
X-395.047 Y-62.936
G2 X-390.322 Y-49.982 I27.333 J-2.631
X-374.505 Y-43.059 I14.152 J-10.804
X-359.887 Y-51.212 I0.089 J-17.021
X-356.206 Y-63.746 I-16.736 J-11.722
G1 X-356.16 Y-67.523
X-356.125 Y-71.301
X-356.102 Y-75.079
X-356.091 Y-78.857
Y-82.635
X-356.103 Y-86.413
X-356.121 Y-95.171
G3 X-356.111 Y-104.287 I336.92 J-4.179
X-356.106 Y-104.605 I336.91 J4.937 F212.4
X-354.997 Y-104.636 I0.809 J8.879 F849.6
X-354.68 Y-104.62 I-0.3 J8.911 F212.4
G1 Y-63.173 F849.6
G3 X-355.282 Y-58.796 I-15.087 J0.153
X-361.806 Y-46.581 I-24.897 J-5.447
X-377 Y-41.674 I-13.167 J-14.795
X-393.37 Y-52.485 I0.643 J-18.772
X-396.525 Y-63.42 I22.053 J-12.285
G1 X-396.505 Y-69.073
X-396.499 Y-74.726
X-396.507 Y-80.38
X-396.501 Y-87.17
X-396.496 Y-90.772
X-396.494 Y-92.826 Z-2.033 F283.2
X-396.492 Y-93.956 Z-2.051
X-396.486 Y-100.737 Z-2.159
Y-101.867 Z-2.177
X-396.485 Y-102.995 Z-2.196
Y-104.167 Z-2.214
X-396.483 Y-104.296 Z-2.216
X-396.479 Y-104.376 Z-2.218
X-396.474 Y-104.463 Z-2.219
X-396.473 Y-104.479
X-396.471 Y-104.518 Z-2.22
X-396.469 Y-104.557 Z-2.221
X-396.239 Y-104.562 Z-2.224
X-396.115 Y-104.564 Z-2.226
X-395.998 Y-104.567 Z-2.228
X-395.884 Y-104.569 Z-2.23
X-395.759 Y-104.57 Z-2.232
X-395.641 Y-104.572 Z-2.234
X-395.278 Y-104.575 Z-2.24
X-395.15 Z-2.242
X-395.034 Y-104.576 Z-2.243
Y-98.861 Z-2.335
X-395.035 Y-97.255 Z-2.361
Y-94.041 Z-2.412
X-395.036 Y-92.434 Z-2.438
Y-90.827 Z-2.463
X-395.037 Y-88.503 Z-2.5
X-395.068 Y-84.301 F849.6
X-395.087 Y-80.1
X-395.096 Y-75.898
X-395.093 Y-71.696
X-395.079 Y-67.495
X-395.053 Y-63.293
G2 X-390.066 Y-49.651 I26.676 J-2.019
X-374.505 Y-43.06 I13.896 J-11.141
X-359.887 Y-51.212 I0.091 J-17.019
X-356.206 Y-63.746 I-16.735 J-11.722
G1 X-356.16 Y-67.523
X-356.125 Y-71.301
X-356.102 Y-75.079
X-356.09 Y-78.857
X-356.091 Y-82.635
X-356.103 Y-86.413
X-356.121 Y-95.171
G3 X-356.111 Y-104.287 I336.92 J-4.179
X-356.106 Y-104.605 I336.91 J4.937 F212.4
X-354.997 Y-104.636 I0.809 J8.879 F849.6
X-354.68 Y-104.62 I-0.3 J8.911 F212.4
G1 Y-63.173 F849.6
G3 X-355.282 Y-58.796 I-15.087 J0.153
X-361.806 Y-46.581 I-24.897 J-5.447
X-377 Y-41.674 I-13.167 J-14.795
X-393.37 Y-52.485 I0.643 J-18.772
X-396.525 Y-63.42 I22.071 J-12.289
G1 X-396.505 Y-69.073
X-396.499 Y-74.726
X-396.507 Y-80.38
X-396.501 Y-87.17
X-396.492 Y-93.956
X-396.486 Y-100.737
G3 X-396.485 Y-104.24 I37.03 J-1.742
X-396.469 Y-104.557 I37.029 J1.761 F212.4
X-395.351 Y-104.575 I1.534 J60.053 F849.6
X-395.034 Y-104.576 I0.417 J60.071 F212.4
G1 Y-98.861 F849.6
X-395.035 Y-97.255
X-395.037 Y-88.54
X-395.039 Y-86.005 Z-2.541 F283.2
X-395.041 Y-84.397 Z-2.566
X-395.042 Y-82.789 Z-2.592
X-395.044 Y-81.182 Z-2.618
X-395.047 Y-79.575 Z-2.643
X-395.049 Y-77.967 Z-2.669
X-395.055 Y-74.753 Z-2.721
X-395.063 Y-71.54 Z-2.772
X-395.078 Y-66.723 Z-2.849
X-395.084 Y-65.12 Z-2.875
X-395.086 Y-64.764 Z-2.88
Y-64.753 Z-2.881
X-395.083 Y-64.398 Z-2.886
X-395.082 Y-64.384
X-395.073 Y-64.031 Z-2.892
Y-64.018
X-395.058 Y-63.657 Z-2.898
X-395.039 Y-63.307 Z-2.904
X-395.038 Y-63.293
X-395.013 Y-62.945 Z-2.909
X-394.983 Y-62.589 Z-2.915
X-394.982 Y-62.575
X-394.947 Y-62.23 Z-2.921
X-394.945 Y-62.218
X-394.905 Y-61.875 Z-2.927
X-394.904 Y-61.863
X-394.859 Y-61.521 Z-2.932
X-394.857 Y-61.509 Z-2.933
X-394.807 Y-61.168 Z-2.938
X-394.806 Y-61.156
X-394.751 Y-60.817 Z-2.944
X-394.749 Y-60.805
X-394.689 Y-60.468 Z-2.949
X-394.687 Y-60.458 Z-2.95
X-394.623 Y-60.122 Z-2.955
X-394.62 Y-60.11
X-394.551 Y-59.775 Z-2.961
X-394.549 Y-59.763
X-394.475 Y-59.429 Z-2.966
X-394.473 Y-59.42 Z-2.967
X-394.395 Y-59.087 Z-2.972
X-394.392 Y-59.076
X-394.309 Y-58.744 Z-2.978
X-394.306 Y-58.733
X-394.218 Y-58.403 Z-2.983
X-394.123 Y-58.065 Z-2.989
X-394.121 Y-58.055
X-394.025 Y-57.728 Z-2.995
X-394.021 Y-57.716
X-393.922 Y-57.396 Z-3
G2 X-388.378 Y-47.787 I22.283 J-6.455 F849.6
X-373.962 Y-43.099 I12.289 J-13.278
X-360.287 Y-50.633 I-0.287 J-16.7
X-356.204 Y-63.746 I-16.5 J-12.33
G1 X-356.158 Y-67.524
X-356.124 Y-71.301
X-356.102 Y-75.079
X-356.091 Y-78.857
Y-82.635
X-356.103 Y-86.413
X-356.121 Y-95.171
G3 X-356.111 Y-104.287 I336.92 J-4.179
X-356.106 Y-104.605 I336.91 J4.937 F212.4
X-354.997 Y-104.636 I0.809 J8.879 F849.6
X-354.68 Y-104.62 I-0.3 J8.911 F212.4
G1 Y-63.173 F849.6
G3 X-355.282 Y-58.796 I-15.087 J0.153
X-361.806 Y-46.581 I-24.897 J-5.447
X-377 Y-41.674 I-13.167 J-14.795
X-393.37 Y-52.485 I0.643 J-18.772
X-396.525 Y-63.42 I22.071 J-12.289
G1 X-396.505 Y-69.073
X-396.499 Y-74.726
X-396.507 Y-80.38
X-396.501 Y-87.17
X-396.492 Y-93.956
X-396.486 Y-100.737
G3 X-396.485 Y-104.24 I37.03 J-1.742
X-396.469 Y-104.557 I37.029 J1.761 F212.4
X-395.351 Y-104.575 I1.534 J60.053 F849.6
X-395.034 Y-104.576 I0.417 J60.071 F212.4
G1 Y-98.813 F849.6
X-395.061 Y-91.638
X-395.076 Y-84.462
X-395.078 Y-77.287
X-395.069 Y-70.111
X-395.047 Y-62.936
G2 X-393.924 Y-57.403 I27.603 J-2.721
G1 X-393.917 Y-57.381 F283.2
X-393.809 Y-57.046 Z-3.006
X-393.7 Y-56.722 Z-3.011
X-393.622 Y-56.49 Z-3.015
X-393.581 Y-56.372 Z-3.017
X-393.498 Y-56.142 Z-3.021
X-393.373 Y-55.8 Z-3.027
X-393.329 Y-55.683 Z-3.029
X-393.197 Y-55.342 Z-3.035
X-393.151 Y-55.225 Z-3.037
X-393.013 Y-54.886 Z-3.043
X-392.919 Y-54.658 Z-3.047
X-392.869 Y-54.542 Z-3.049
X-392.723 Y-54.204 Z-3.055
X-392.625 Y-53.983 Z-3.059
X-392.62 Y-53.973
X-392.449 Y-53.601 Z-3.065
X-392.442 Y-53.587 Z-3.066
X-392.264 Y-53.22 Z-3.072
X-392.258 Y-53.207
X-392.074 Y-52.845 Z-3.079
X-392.067 Y-52.832
X-391.877 Y-52.475 Z-3.085
X-391.869 Y-52.46 Z-3.086
X-391.672 Y-52.109 Z-3.092
X-391.663 Y-52.094
X-391.459 Y-51.747 Z-3.099
X-391.452 Y-51.735
X-391.243 Y-51.393 Z-3.106
X-391.233 Y-51.377
X-391.016 Y-51.041 Z-3.112
X-391.007 Y-51.026 Z-3.113
X-390.783 Y-50.695 Z-3.119
X-390.774 Y-50.682
X-390.544 Y-50.355 Z-3.126
X-390.534 Y-50.341
X-390.297 Y-50.02 Z-3.132
X-390.286 Y-50.006 Z-3.133
X-390.042 Y-49.691 Z-3.139
X-390.031 Y-49.677
X-389.78 Y-49.366 Z-3.146
X-389.769 Y-49.353
X-389.511 Y-49.048 Z-3.152
X-389.499 Y-49.035 Z-3.153
X-389.234 Y-48.736 Z-3.159
X-389.221 Y-48.721
X-388.948 Y-48.428 Z-3.166
X-388.936 Y-48.415
X-388.656 Y-48.127 Z-3.172
X-388.643 Y-48.115 Z-3.173
X-388.356 Y-47.833 Z-3.179
X-388.343 Y-47.82
X-388.049 Y-47.544 Z-3.186
X-388.035 Y-47.531
X-387.733 Y-47.261 Z-3.193
X-387.719 Y-47.248
X-387.409 Y-46.984 Z-3.199
X-387.395 Y-46.973 Z-3.2
X-387.078 Y-46.714 Z-3.206
X-387.065 Y-46.704 Z-3.207
X-386.741 Y-46.451 Z-3.213
X-386.725 Y-46.439
X-386.392 Y-46.193 Z-3.22
X-386.369 Y-46.177
X-385.919 Y-45.869 Z-3.229
X-385.896 Y-45.854 Z-3.23
X-385.44 Y-45.564 Z-3.238
X-385.419 Y-45.551 Z-3.239
X-384.96 Y-45.279 Z-3.247
X-384.936 Y-45.265 Z-3.248
X-384.471 Y-45.011 Z-3.256
X-384.448 Y-44.999 Z-3.257
X-383.98 Y-44.762 Z-3.265
X-383.957 Y-44.751
X-383.483 Y-44.531 Z-3.274
X-383.46 Y-44.52
X-382.983 Y-44.317 Z-3.282
X-382.959 Y-44.308 Z-3.283
X-382.478 Y-44.121 Z-3.291
X-382.454 Y-44.112
X-381.969 Y-43.942 Z-3.3
X-381.945 Y-43.934
X-381.456 Y-43.779 Z-3.308
X-381.433 Y-43.772 Z-3.309
X-380.941 Y-43.633 Z-3.317
X-380.917 Y-43.626
X-380.42 Y-43.502 Z-3.325
X-380.398 Y-43.497 Z-3.326
X-379.898 Y-43.387 Z-3.334
X-379.875 Y-43.383
X-379.372 Y-43.288 Z-3.343
X-379.35 Y-43.284
X-378.843 Y-43.203 Z-3.351
X-378.821 Y-43.2
X-378.31 Y-43.133 Z-3.36
X-378.289 Y-43.131
X-377.776 Y-43.077 Z-3.368
X-377.756 Y-43.075 Z-3.369
X-377.239 Y-43.035 Z-3.377
X-377.219 Y-43.034
X-376.699 Y-43.006 Z-3.386
X-376.68 Y-43.005
X-376.157 Y-42.99 Z-3.394
X-376.138 Z-3.395
X-375.612 Y-42.987 Z-3.403
X-375.594
X-375.065 Y-42.996 Z-3.412
X-375.048 Y-42.997
X-374.517 Y-43.018 Z-3.421
X-374.501
X-373.957 Y-43.051 Z-3.429
X-373.437 Y-43.088 Z-3.438
X-373.418 Y-43.089
X-372.903 Y-43.138 Z-3.446
X-372.885 Y-43.14 Z-3.447
X-372.375 Y-43.2 Z-3.455
X-372.355 Y-43.203
X-371.85 Y-43.275 Z-3.463
X-371.83 Y-43.278 Z-3.464
X-371.331 Y-43.363 Z-3.472
X-371.31 Y-43.367
X-370.817 Y-43.465 Z-3.48
X-370.796 Y-43.469 Z-3.481
X-370.309 Y-43.58 Z-3.489
X-370.287 Y-43.585
X-369.805 Y-43.708 Z-3.497
X-369.783 Y-43.714
X-369.619 Y-43.761 Z-3.5
G2 X-360.29 Y-50.635 I-4.535 J-15.922 F849.6
X-356.205 Y-63.746 I-16.441 J-12.314
G1 X-356.159 Y-67.523
X-356.125 Y-71.301
X-356.102 Y-75.079
X-356.091 Y-78.857
Y-82.635
X-356.103 Y-86.413
X-356.121 Y-95.171
G3 X-356.111 Y-104.287 I336.92 J-4.179
X-356.106 Y-104.605 I336.91 J4.937 F212.4
X-354.997 Y-104.636 I0.809 J8.879 F849.6
X-354.68 Y-104.62 I-0.3 J8.911 F212.4
G1 Y-63.173 F849.6
G3 X-355.282 Y-58.796 I-15.087 J0.153
X-361.806 Y-46.581 I-24.897 J-5.447
X-377 Y-41.674 I-13.167 J-14.795
X-393.37 Y-52.485 I0.643 J-18.772
X-396.525 Y-63.42 I22.071 J-12.289
G1 X-396.505 Y-69.073
X-396.499 Y-74.726
X-396.507 Y-80.38
X-396.501 Y-87.17
X-396.492 Y-93.956
X-396.486 Y-100.737
G3 X-396.485 Y-104.24 I37.03 J-1.742
X-396.469 Y-104.557 I37.029 J1.761 F212.4
X-395.351 Y-104.575 I1.534 J60.053 F849.6
X-395.034 Y-104.576 I0.417 J60.071 F212.4
G1 Y-98.813 F849.6
X-395.061 Y-91.638
X-395.076 Y-84.462
X-395.078 Y-77.287
X-395.069 Y-70.111
X-395.047 Y-62.936
G2 X-390.322 Y-49.982 I27.339 J-2.633
X-374.505 Y-43.059 I14.152 J-10.805
X-369.616 Y-43.766 I-0.082 J-17.84
G1 X-369.307 Y-43.851 Z-3.505 F283.2
X-369.284 Y-43.858 Z-3.506
X-368.814 Y-44.008 Z-3.513
X-368.791 Y-44.016 Z-3.514
X-368.327 Y-44.18 Z-3.522
X-368.304 Y-44.189
X-367.846 Y-44.367 Z-3.53
X-367.822 Y-44.377
X-367.371 Y-44.569 Z-3.538
X-367.348 Y-44.579 Z-3.539
X-366.903 Y-44.786 Z-3.546
X-366.88 Y-44.798 Z-3.547
X-366.441 Y-45.019 Z-3.555
X-366.418 Y-45.032
X-365.986 Y-45.268 Z-3.563
X-365.963 Y-45.281
X-365.537 Y-45.533 Z-3.571
X-365.514 Y-45.547 Z-3.572
X-365.095 Y-45.815 Z-3.58
X-365.072 Y-45.83
X-364.66 Y-46.113 Z-3.588
X-364.639 Y-46.128 Z-3.589
X-364.233 Y-46.427 Z-3.597
X-364.211 Y-46.444
X-363.813 Y-46.759 Z-3.605
X-363.793 Y-46.775 Z-3.606
X-363.401 Y-47.107 Z-3.614
X-363.381 Y-47.125
X-362.997 Y-47.473 Z-3.623
X-362.979 Y-47.49
X-362.601 Y-47.855 Z-3.631
X-362.579 Y-47.877 Z-3.632
X-362.091 Y-48.386 Z-3.643
X-362.075 Y-48.403 Z-3.644
X-361.606 Y-48.922 Z-3.655
X-361.591 Y-48.94
X-361.141 Y-49.468 Z-3.666
X-361.126 Y-49.487 Z-3.667
X-360.695 Y-50.025 Z-3.678
X-360.679 Y-50.045
X-360.269 Y-50.592 Z-3.689
X-360.255 Y-50.612
X-359.864 Y-51.168 Z-3.7
X-359.849 Y-51.189 Z-3.701
X-359.478 Y-51.754 Z-3.711
X-359.465 Y-51.776 Z-3.712
X-359.114 Y-52.35 Z-3.723
X-359.101 Y-52.371
X-358.769 Y-52.954 Z-3.734
X-358.756 Y-52.978
X-358.446 Y-53.57 Z-3.745
X-358.435 Y-53.592
X-358.144 Y-54.191 Z-3.756
X-358.133 Y-54.215
X-357.863 Y-54.823 Z-3.767
X-357.853 Y-54.847
X-357.603 Y-55.463 Z-3.778
X-357.593 Y-55.488
X-357.364 Y-56.112 Z-3.789
X-357.355 Y-56.136
X-357.146 Y-56.767 Z-3.8
X-357.138 Y-56.794 Z-3.801
X-356.951 Y-57.433 Z-3.811
X-356.944 Y-57.457 Z-3.812
X-356.777 Y-58.104 Z-3.822
X-356.771 Y-58.13 Z-3.823
X-356.626 Y-58.784 Z-3.833
X-356.621 Y-58.808 Z-3.834
X-356.496 Y-59.469 Z-3.845
X-356.492 Y-59.496
X-356.389 Y-60.164 Z-3.856
X-356.385 Y-60.189
X-356.303 Y-60.864 Z-3.867
X-356.3 Y-60.89 Z-3.868
X-356.24 Y-61.571 Z-3.878
X-356.239 Y-61.596 Z-3.879
X-356.2 Y-62.284 Z-3.89
X-356.198 Y-62.31
X-356.181 Y-63.004 Z-3.901
Y-63.015 Z-3.902
X-356.173 Y-63.747 Z-3.913
X-356.152 Y-65.944 Z-3.948
X-356.146 Y-66.677 Z-3.96
X-356.129 Y-69.166 Z-4
X-356.126 Y-69.605 F849.6
X-356.105 Y-75.208
X-356.098 Y-80.811
X-356.103 Y-86.413
X-356.121 Y-95.171
G3 X-356.111 Y-104.287 I336.92 J-4.179
X-356.106 Y-104.605 I336.91 J4.937 F212.4
X-354.997 Y-104.636 I0.809 J8.879 F849.6
X-354.68 Y-104.62 I-0.3 J8.911 F212.4
G1 Y-63.173 F849.6
G3 X-355.282 Y-58.796 I-15.087 J0.153
X-361.806 Y-46.581 I-24.897 J-5.447
X-377 Y-41.674 I-13.167 J-14.795
X-393.37 Y-52.485 I0.643 J-18.772
X-396.525 Y-63.42 I22.071 J-12.289
G1 X-396.505 Y-69.073
X-396.499 Y-74.726
X-396.507 Y-80.38
X-396.501 Y-87.17
X-396.492 Y-93.956
X-396.486 Y-100.737
G3 X-396.485 Y-104.24 I37.03 J-1.742
X-396.469 Y-104.557 I37.029 J1.761 F212.4
X-395.351 Y-104.575 I1.534 J60.053 F849.6
X-395.034 Y-104.576 I0.417 J60.071 F212.4
G1 Y-98.813 F849.6
X-395.061 Y-91.638
X-395.076 Y-84.462
X-395.078 Y-77.287
X-395.069 Y-70.111
X-395.047 Y-62.936
G2 X-390.322 Y-49.982 I27.333 J-2.631
X-374.505 Y-43.059 I14.152 J-10.804
X-359.887 Y-51.212 I0.089 J-17.021
X-356.206 Y-63.746 I-16.736 J-11.722
X-356.13 Y-69.166 I-172.289 J-5.114
G1 X-356.126 Y-69.605 Z-4.007 F283.2
X-356.122 Y-70.338 Z-4.019
X-356.119 Y-71.07 Z-4.03
X-356.115 Y-71.801 Z-4.042
X-356.113 Y-72.534 Z-4.054
X-356.11 Y-73.264 Z-4.066
X-356.108 Y-73.996 Z-4.077
X-356.105 Y-74.727 Z-4.089
X-356.104 Y-75.46 Z-4.101
X-356.102 Y-76.19 Z-4.112
X-356.099 Y-78.385 Z-4.147
Y-79.116 Z-4.159
X-356.098 Y-79.847 Z-4.171
Y-80.579 Z-4.183
X-356.099 Y-81.551 Z-4.198
Y-82.523 Z-4.214
X-356.103 Y-86.413 Z-4.276
X-356.121 Y-95.166 Z-4.416
X-356.122 Y-96.139 Z-4.431
X-356.126 Y-98.086 Z-4.463
X-356.129 Y-100.423 Z-4.5
X-356.131 Y-102.952 F849.6
Y-104.284
Y-104.602 F212.4
G3 X-354.997 Y-104.635 I0.844 J9.422 F849.6
X-354.68 Y-104.62 I-0.29 J9.455 F212.4
G1 Y-63.173 F849.6
G3 X-355.282 Y-58.796 I-15.087 J0.153
X-361.806 Y-46.581 I-24.897 J-5.447
X-377 Y-41.674 I-13.167 J-14.795
X-393.37 Y-52.485 I0.643 J-18.772
X-396.525 Y-63.42 I22.071 J-12.289
G1 X-396.505 Y-69.073
X-396.499 Y-74.726
X-396.507 Y-80.38
X-396.501 Y-87.17
X-396.492 Y-93.956
X-396.486 Y-100.737
G3 X-396.485 Y-104.24 I37.03 J-1.742
X-396.469 Y-104.557 I37.029 J1.761 F212.4
X-395.351 Y-104.575 I1.534 J60.053 F849.6
X-395.034 Y-104.576 I0.417 J60.071 F212.4
G1 Y-98.813 F849.6
X-395.061 Y-91.638
X-395.076 Y-84.462
X-395.078 Y-77.287
X-395.069 Y-70.111
X-395.047 Y-62.936
G2 X-390.322 Y-49.982 I27.333 J-2.631
X-374.505 Y-43.059 I14.152 J-10.804
X-359.887 Y-51.212 I0.089 J-17.021
X-356.206 Y-63.746 I-16.736 J-11.722
G1 X-356.16 Y-67.523
X-356.125 Y-71.301
X-356.102 Y-75.079
X-356.091 Y-78.857
Y-82.635
X-356.103 Y-86.413
X-356.121 Y-95.165
X-356.129 Y-100.423
G0 Z5
X-294.049 Y-90.969
G1 Z2.5 F283.2
Y-82.727 Z-0.5
Y-82.419 F849.6
Y-82.101 F212.4
X-294.983 F849.6
X-295.3 F212.4
Y-104.21 F849.6
Y-104.527 F212.4
X-294.366 F849.6
X-294.049 F212.4
Y-82.727 F849.6
Y-82.101 Z-0.563 F283.2
X-295.3 Z-0.689
Y-85.196 Z-1
Y-104.21 F849.6
Y-104.527 F212.4
X-294.366 F849.6
X-294.049 F212.4
Y-82.419 F849.6
Y-82.101 F212.4
X-294.983 F849.6
X-295.3 F212.4
Y-85.196 F849.6
Y-90.167 Z-1.5 F283.2
Y-104.21 F849.6
Y-104.527 F212.4
X-294.366 F849.6
X-294.049 F212.4
Y-82.419 F849.6
Y-82.101 F212.4
X-294.983 F849.6
X-295.3 F212.4
Y-90.167 F849.6
Y-95.139 Z-2 F283.2
Y-104.21 F849.6
Y-104.527 F212.4
X-294.366 F849.6
X-294.049 F212.4
Y-82.419 F849.6
Y-82.101 F212.4
X-294.983 F849.6
X-295.3 F212.4
Y-95.139 F849.6
Y-100.111 Z-2.5 F283.2
Y-104.21 F849.6
Y-104.527 F212.4
X-294.366 F849.6
X-294.049 F212.4
Y-82.419 F849.6
Y-82.101 F212.4
X-294.983 F849.6
X-295.3 F212.4
Y-100.111 F849.6
Y-104.527 Z-2.944 F283.2
X-294.745 Z-3
X-294.366 F849.6
X-294.049 F212.4
Y-82.419 F849.6
Y-82.101 F212.4
X-294.983 F849.6
X-295.3 F212.4
Y-104.21 F849.6
Y-104.527 F212.4
X-294.745 F849.6
X-294.049 Z-3.07 F283.2
Y-100.252 Z-3.5
Y-82.419 F849.6
Y-82.101 F212.4
X-294.983 F849.6
X-295.3 F212.4
Y-104.21 F849.6
Y-104.527 F212.4
X-294.366 F849.6
X-294.049 F212.4
Y-100.252 F849.6
Y-95.28 Z-4 F283.2
Y-82.419 F849.6
Y-82.101 F212.4
X-294.983 F849.6
X-295.3 F212.4
Y-104.21 F849.6
Y-104.527 F212.4
X-294.366 F849.6
X-294.049 F212.4
Y-95.28 F849.6
Y-90.309 Z-4.5 F283.2
Y-82.419 F849.6
Y-82.101 F212.4
X-294.983 F849.6
X-295.3 F212.4
Y-104.21 F849.6
Y-104.527 F212.4
X-294.366 F849.6
X-294.049 F212.4
Y-90.309 F849.6
G0 Z15
M30
%
