%
(1001)
(origin stock bottom)
(T1  D=6 CR=0 - ZMIN=0 - flat end mill)
G90 G94
G17
G21

(2D Contour1)
M9
T1 M6
S6500 M3
G54
G0 X-668.206 Y-140
Z33
Z23
G1 Z21 F283.3
Z20.5
X-685 Z16
X-1330 F850
G2 Y-74 J33
G1 X-1210
G2 X-1207 Y-77 J-3
G1 Y-92
X-1153
Y-77
G2 X-1150 Y-74 I3
G1 X-220
G2 X-217 Y-77 J-3
G1 Y-92
X-163
Y-77
G2 X-160 Y-74 I3
G1 X-10
G2 X-7 Y-77 J-3
G1 Y-137
G2 X-10 Y-140 I-3
G1 X-685
G0 Z23
X-701.794 Y-4
G1 Z21 F283.3
Z20.5
X-685 Z16
X-10 F850
G2 X-7 Y-7 J-3
G1 Y-67
G2 X-10 Y-70 I-3
G1 X-160
G2 X-163 Y-67 J3
G1 Y-52
X-217
Y-67
G2 X-220 Y-70 I-3
G1 X-1150
G2 X-1153 Y-67 J3
G1 Y-52
X-1207
Y-67
G2 X-1210 Y-70 I-3
G1 X-1330
G2 Y-4 J33
G1 X-685
G0 Z23
X-701.794
G1 Z19 F283.3
Z18.5
X-685 Z14
X-10 F850
G2 X-7 Y-7 J-3
G1 Y-67
G2 X-10 Y-70 I-3
G1 X-160
G2 X-163 Y-67 J3
G1 Y-52
X-217
Y-67
G2 X-220 Y-70 I-3
G1 X-1150
G2 X-1153 Y-67 J3
G1 Y-52
X-1207
Y-67
G2 X-1210 Y-70 I-3
G1 X-1330
G2 Y-4 J33
G1 X-685
G0 Z23
X-668.206 Y-140
G1 Z19 F283.3
Z18.5
X-685 Z14
X-1330 F850
G2 Y-74 J33
G1 X-1210
G2 X-1207 Y-77 J-3
G1 Y-92
X-1153
Y-77
G2 X-1150 Y-74 I3
G1 X-220
G2 X-217 Y-77 J-3
G1 Y-92
X-163
Y-77
G2 X-160 Y-74 I3
G1 X-10
G2 X-7 Y-77 J-3
G1 Y-137
G2 X-10 Y-140 I-3
G1 X-685
X-972.995 Z12 F283.3
X-1330 F850
G2 Y-74 J33
G1 X-1210
G2 X-1207 Y-77 J-3
G1 Y-92
X-1153
Y-77
G2 X-1150 Y-74 I3
G1 X-220
G2 X-217 Y-77 J-3
G1 Y-92
X-163
Y-77
G2 X-160 Y-74 I3
G1 X-10
G2 X-7 Y-77 J-3
G1 Y-137
G2 X-10 Y-140 I-3
G1 X-685
X-972.995
G0 Z23
X-701.794 Y-4
G1 Z17 F283.3
Z16.5
X-685 Z12
X-10 F850
G2 X-7 Y-7 J-3
G1 Y-67
G2 X-10 Y-70 I-3
G1 X-160
G2 X-163 Y-67 J3
G1 Y-52
X-217
Y-67
G2 X-220 Y-70 I-3
G1 X-1150
G2 X-1153 Y-67 J3
G1 Y-52
X-1207
Y-67
G2 X-1210 Y-70 I-3
G1 X-1330
G2 Y-4 J33
G1 X-685
G0 Z23
X-701.794
G1 Z15 F283.3
Z14.5
X-685 Z10
X-10 F850
G2 X-7 Y-7 J-3
G1 Y-67
G2 X-10 Y-70 I-3
G1 X-160
G2 X-163 Y-67 J3
G1 Y-52
X-217
Y-67
G2 X-220 Y-70 I-3
G1 X-1150
G2 X-1153 Y-67 J3
G1 Y-52
X-1207
Y-67
G2 X-1210 Y-70 I-3
G1 X-1330
G2 Y-4 J33
G1 X-685
G0 Z23
X-668.206 Y-140
G1 Z15 F283.3
Z14.5
X-685 Z10
X-1330 F850
G2 Y-74 J33
G1 X-1210
G2 X-1207 Y-77 J-3
G1 Y-92
X-1153
Y-77
G2 X-1150 Y-74 I3
G1 X-220
G2 X-217 Y-77 J-3
G1 Y-92
X-163
Y-77
G2 X-160 Y-74 I3
G1 X-10
G2 X-7 Y-77 J-3
G1 Y-137
G2 X-10 Y-140 I-3
G1 X-685
X-972.995 Z8 F283.3
X-1330 F850
G2 Y-74 J33
G1 X-1210
G2 X-1207 Y-77 J-3
G1 Y-92
X-1153
Y-77
G2 X-1150 Y-74 I3
G1 X-220
G2 X-217 Y-77 J-3
G1 Y-92
X-163
Y-77
G2 X-160 Y-74 I3
G1 X-10
G2 X-7 Y-77 J-3
G1 Y-137
G2 X-10 Y-140 I-3
G1 X-685
X-972.995
G0 Z23
X-701.794 Y-4
G1 Z13 F283.3
Z12.5
X-685 Z8
X-10 F850
G2 X-7 Y-7 J-3
G1 Y-67
G2 X-10 Y-70 I-3
G1 X-160
G2 X-163 Y-67 J3
G1 Y-52
X-217
Y-67
G2 X-220 Y-70 I-3
G1 X-1150
G2 X-1153 Y-67 J3
G1 Y-52
X-1207
Y-67
G2 X-1210 Y-70 I-3
G1 X-1330
G2 Y-4 J33
G1 X-685
G0 Z23
X-701.794
G1 Z11 F283.3
Z10.5
X-685 Z6
X-10 F850
G2 X-7 Y-7 J-3
G1 Y-67
G2 X-10 Y-70 I-3
G1 X-160
G2 X-163 Y-67 J3
G1 Y-52
X-217
Y-67
G2 X-220 Y-70 I-3
G1 X-1150
G2 X-1153 Y-67 J3
G1 Y-52
X-1207
Y-67
G2 X-1210 Y-70 I-3
G1 X-1330
G2 Y-4 J33
G1 X-685
G0 Z23
X-668.206 Y-140
G1 Z11 F283.3
Z10.5
X-685 Z6
X-1330 F850
G2 Y-74 J33
G1 X-1210
G2 X-1207 Y-77 J-3
G1 Y-92
X-1153
Y-77
G2 X-1150 Y-74 I3
G1 X-220
G2 X-217 Y-77 J-3
G1 Y-92
X-163
Y-77
G2 X-160 Y-74 I3
G1 X-10
G2 X-7 Y-77 J-3
G1 Y-137
G2 X-10 Y-140 I-3
G1 X-685
X-972.995 Z4 F283.3
X-1330 F850
G2 Y-74 J33
G1 X-1210
G2 X-1207 Y-77 J-3
G1 Y-92
X-1153
Y-77
G2 X-1150 Y-74 I3
G1 X-220
G2 X-217 Y-77 J-3
G1 Y-92
X-163
Y-77
G2 X-160 Y-74 I3
G1 X-10
G2 X-7 Y-77 J-3
G1 Y-137
G2 X-10 Y-140 I-3
G1 X-685
X-972.995
G0 Z23
X-701.794 Y-4
G1 Z9 F283.3
Z8.5
X-685 Z4
X-10 F850
G2 X-7 Y-7 J-3
G1 Y-67
G2 X-10 Y-70 I-3
G1 X-160
G2 X-163 Y-67 J3
G1 Y-52
X-217
Y-67
G2 X-220 Y-70 I-3
G1 X-1150
G2 X-1153 Y-67 J3
G1 Y-52
X-1207
Y-67
G2 X-1210 Y-70 I-3
G1 X-1330
G2 Y-4 J33
G1 X-685
G0 Z23
X-701.794
G1 Z7 F283.3
Z6.5
X-685 Z2
X-676 F850
Z3
X-664
Z2 F283.3
X-574.462 F850
Z3
X-562.462
Z2 F283.3
X-472.923 F850
Z3
X-460.923
Z2 F283.3
X-371.385 F850
Z3
X-359.385
Z2 F283.3
X-269.846 F850
Z3
X-257.846
Z2 F283.3
X-168.308 F850
Z3
X-156.308
Z2 F283.3
X-66.769 F850
Z3
X-54.769
Z2 F283.3
X-10 F850
G2 X-7 Y-7 J-3
G1 Y-67
G2 X-10 Y-70 I-3
G1 X-79
Z3
X-91
Z2 F283.3
X-160 F850
G2 X-163 Y-67 J3
G1 Y-52
X-217
Y-67
G2 X-220 Y-70 I-3
G1 X-265.667
Z3
X-277.667
Z2 F283.3
X-369 F850
Z3
X-381
Z2 F283.3
X-472.333 F850
Z3
X-484.333
Z2 F283.3
X-575.667 F850
Z3
X-587.667
Z2 F283.3
X-679 F850
Z3
X-691
Z2 F283.3
X-782.333 F850
Z3
X-794.333
Z2 F283.3
X-885.667 F850
Z3
X-897.667
Z2 F283.3
X-989 F850
Z3
X-1001
Z2 F283.3
X-1092.33 F850
Z3
X-1104.33
Z2 F283.3
X-1150 F850
G2 X-1153 Y-67 J3
G1 Y-52
X-1207
Y-67
G2 X-1210 Y-70 I-3
G1 X-1264
Z3
X-1276
Z2 F283.3
X-1330 F850
G2 Y-4 J33
G1 X-1285.23
Z3
X-1273.23
Z2 F283.3
X-1183.69 F850
Z3
X-1171.69
Z2 F283.3
X-1082.15 F850
Z3
X-1070.15
Z2 F283.3
X-980.615 F850
Z3
X-968.615
Z2 F283.3
X-879.077 F850
Z3
X-867.077
Z2 F283.3
X-777.538 F850
Z3
X-765.538
Z2 F283.3
X-685 F850
G0 Z23
X-668.206 Y-140
G1 Z7 F283.3
Z6.5
X-685 Z2
X-765.538 F850
Z3
X-777.538
Z2 F283.3
X-867.077 F850
Z3
X-879.077
Z2 F283.3
X-968.615 F850
Z3
X-980.615
Z2 F283.3
X-1070.15 F850
Z3
X-1082.15
Z2 F283.3
X-1171.69 F850
Z3
X-1183.69
Z2 F283.3
X-1273.23 F850
Z3
X-1285.23
Z2 F283.3
X-1330 F850
G2 Y-74 J33
G1 X-1276
Z3
X-1264
Z2 F283.3
X-1210 F850
G2 X-1207 Y-77 J-3
G1 Y-92
X-1153
Y-77
G2 X-1150 Y-74 I3
G1 X-1104.33
Z3
X-1092.33
Z2 F283.3
X-1001 F850
Z3
X-989
Z2 F283.3
X-897.667 F850
Z3
X-885.667
Z2 F283.3
X-794.333 F850
Z3
X-782.333
Z2 F283.3
X-691 F850
Z3
X-679
Z2 F283.3
X-587.667 F850
Z3
X-575.667
Z2 F283.3
X-484.333 F850
Z3
X-472.333
Z2 F283.3
X-381 F850
Z3
X-369
Z2 F283.3
X-277.667 F850
Z3
X-265.667
Z2 F283.3
X-220 F850
G2 X-217 Y-77 J-3
G1 Y-92
X-163
Y-77
G2 X-160 Y-74 I3
G1 X-91
Z3
X-79
Z2 F283.3
X-10 F850
G2 X-7 Y-77 J-3
G1 Y-137
G2 X-10 Y-140 I-3
G1 X-54.769
Z3
X-66.769
Z2 F283.3
X-156.308 F850
Z3
X-168.308
Z2 F283.3
X-257.846 F850
Z3
X-269.846
Z2 F283.3
X-359.385 F850
Z3
X-371.385
Z2 F283.3
X-460.923 F850
Z3
X-472.923
Z2 F283.3
X-562.462 F850
Z3
X-574.462
Z2 F283.3
X-664 F850
Z3
X-676
Z2 F283.3
X-685 F850
X-765.538 Z1.441 F283.3
Z3
X-777.538
Z1.357
X-867.077 Z0.736
Z3
X-879.077
Z0.652
X-968.615 Z0.03
Z3
X-972.995
X-980.615 F850
Z0 F283.3
X-1070.15 F850
Z3
X-1082.15
Z0 F283.3
X-1171.69 F850
Z3
X-1183.69
Z0 F283.3
X-1273.23 F850
Z3
X-1285.23
Z0 F283.3
X-1330 F850
G2 Y-74 J33
G1 X-1276
Z3
X-1264
Z0 F283.3
X-1210 F850
G2 X-1207 Y-77 J-3
G1 Y-92
X-1153
Y-77
G2 X-1150 Y-74 I3
G1 X-1104.33
Z3
X-1092.33
Z0 F283.3
X-1001 F850
Z3
X-989
Z0 F283.3
X-897.667 F850
Z3
X-885.667
Z0 F283.3
X-794.333 F850
Z3
X-782.333
Z0 F283.3
X-691 F850
Z3
X-679
Z0 F283.3
X-587.667 F850
Z3
X-575.667
Z0 F283.3
X-484.333 F850
Z3
X-472.333
Z0 F283.3
X-381 F850
Z3
X-369
Z0 F283.3
X-277.667 F850
Z3
X-265.667
Z0 F283.3
X-220 F850
G2 X-217 Y-77 J-3
G1 Y-92
X-163
Y-77
G2 X-160 Y-74 I3
G1 X-91
Z3
X-79
Z0 F283.3
X-10 F850
G2 X-7 Y-77 J-3
G1 Y-137
G2 X-10 Y-140 I-3
G1 X-54.769
Z3
X-66.769
Z0 F283.3
X-156.308 F850
Z3
X-168.308
Z0 F283.3
X-257.846 F850
Z3
X-269.846
Z0 F283.3
X-359.385 F850
Z3
X-371.385
Z0 F283.3
X-460.923 F850
Z3
X-472.923
Z0 F283.3
X-562.462 F850
Z3
X-574.462
Z0 F283.3
X-664 F850
Z3
X-676
Z0 F283.3
X-765.538 F850
Z3
X-777.538
Z0 F283.3
X-867.077 F850
Z3
X-879.077
Z0 F283.3
X-968.615 F850
Z3
X-972.995
G0 Z23
X-701.794 Y-4
G1 Z5 F283.3
Z4.5
X-685 Z0
X-676 F850
Z3
X-664
Z0 F283.3
X-574.462 F850
Z3
X-562.462
Z0 F283.3
X-472.923 F850
Z3
X-460.923
Z0 F283.3
X-371.385 F850
Z3
X-359.385
Z0 F283.3
X-269.846 F850
Z3
X-257.846
Z0 F283.3
X-168.308 F850
Z3
X-156.308
Z0 F283.3
X-66.769 F850
Z3
X-54.769
Z0 F283.3
X-10 F850
G2 X-7 Y-7 J-3
G1 Y-67
G2 X-10 Y-70 I-3
G1 X-79
Z3
X-91
Z0 F283.3
X-160 F850
G2 X-163 Y-67 J3
G1 Y-52
X-217
Y-67
G2 X-220 Y-70 I-3
G1 X-265.667
Z3
X-277.667
Z0 F283.3
X-369 F850
Z3
X-381
Z0 F283.3
X-472.333 F850
Z3
X-484.333
Z0 F283.3
X-575.667 F850
Z3
X-587.667
Z0 F283.3
X-679 F850
Z3
X-691
Z0 F283.3
X-782.333 F850
Z3
X-794.333
Z0 F283.3
X-885.667 F850
Z3
X-897.667
Z0 F283.3
X-989 F850
Z3
X-1001
Z0 F283.3
X-1092.33 F850
Z3
X-1104.33
Z0 F283.3
X-1150 F850
G2 X-1153 Y-67 J3
G1 Y-52
X-1207
Y-67
G2 X-1210 Y-70 I-3
G1 X-1264
Z3
X-1276
Z0 F283.3
X-1330 F850
G2 Y-4 J33
G1 X-1285.23
Z3
X-1273.23
Z0 F283.3
X-1183.69 F850
Z3
X-1171.69
Z0 F283.3
X-1082.15 F850
Z3
X-1070.15
Z0 F283.3
X-980.615 F850
Z3
X-968.615
Z0 F283.3
X-879.077 F850
Z3
X-867.077
Z0 F283.3
X-777.538 F850
Z3
X-765.538
Z0 F283.3
X-685 F850
G0 Z33
M30
%
