%
(1001)
(Dust Shoe)
(T1  D=12.7 CR=0 - ZMIN=0 - flat end mill)
G90 G94
G17
G21

(2D Contour2)
M9
T1 M6
S3000 M3
G54
M8
G0 X-10.16 Y77.121
Z61
Z51
G1 Z49.77 F283.3
G18 G2 X-8.89 Z48.5 I1.27
G1 X-7.62 F850
G17 G3 X-6.35 Y78.391 J1.27
G1 Y87.5 Z48.182 F283.3
G2 X0 Y93.85 Z47.834 I6.35
G1 X2 Z47.764
G2 X18.35 Y77.5 Z46.867 J-16.35
G1 Y72 Z46.675
G3 X32 Y58.35 Z45.926 I13.65
G1 X48 Z45.367
G2 X106.35 Y0 Z42.167 J-58.35
X48 Y-58.35 I-58.35 F850
G1 X32
G3 X18.35 Y-72 J-13.65
G1 Y-77.5
G2 X2 Y-93.85 I-16.35
G1 X0
G2 X-6.35 Y-87.5 J6.35
G1 Y-35
G2 X3.121 Y-29.47 I6.35
G3 X32.003 Y-33.65 I22.445 J53.216
G1 X48
G3 Y33.65 J33.65
G1 X31.999
G3 X3.071 Y29.593 I-6.508 J-58.757
G1 X2.8 Y29.444
X2.522 Y29.309
X2.237 Y29.188
X1.946 Y29.081
X1.651 Y28.989
X1.351 Y28.911
X1.047 Y28.848
X0.741 Y28.801
X0.432 Y28.768
X0.122 Y28.752
X-0.189 Y28.75
X-0.499 Y28.764
X-0.809 Y28.793
X-1.117 Y28.838
X-1.422 Y28.898
X-1.724 Y28.973
X-2.023 Y29.063
X-2.316 Y29.168
X-2.604 Y29.288
X-2.886 Y29.421
X-3.161 Y29.569
X-3.429 Y29.73
X-3.688 Y29.904
X-3.939 Y30.091
X-4.18 Y30.291
X-4.411 Y30.502
X-4.631 Y30.725
X-4.84 Y30.958
X-5.038 Y31.202
X-5.223 Y31.455
X-5.395 Y31.717
X-5.554 Y31.987
X-5.7 Y32.266
X-5.832 Y32.551
X-5.949 Y32.843
X-6.052 Y33.14
X-6.14 Y33.442
X-6.213 Y33.748
X-6.27 Y34.058
X-6.312 Y34.371
X-6.339 Y34.685
X-6.35 Y35
Y87.5
G2 X0 Y93.85 I6.35
G1 X2
G2 X18.35 Y77.5 J-16.35
G1 Y72
G3 X32 Y58.35 I13.65
G1 X48
G2 X106.35 Y0 J-58.35
X48 Y-58.35 Z38.966 I-58.35 F283.3
G1 X32 Z38.407
X31.295 Y-58.368 Z38.383
X30.592 Y-58.423 Z38.358
X29.892 Y-58.514 Z38.333
G3 X18.35 Y-72 I2.108 J-13.486 F850
G1 Y-77.5
G2 X2 Y-93.85 I-16.35
G1 X0
G2 X-6.35 Y-87.5 J6.35
G1 Y-35
G2 X3.121 Y-29.47 I6.35
G3 X32.003 Y-33.65 I22.445 J53.216
G1 X48
G3 Y33.65 J33.65
G1 X31.999
G3 X3.071 Y29.593 I-6.508 J-58.757
G1 X2.8 Y29.444
X2.522 Y29.309
X2.237 Y29.188
X1.946 Y29.081
X1.651 Y28.989
X1.351 Y28.911
X1.047 Y28.848
X0.741 Y28.801
X0.432 Y28.768
X0.122 Y28.752
X-0.189 Y28.75
X-0.499 Y28.764
X-0.809 Y28.793
X-1.117 Y28.838
X-1.422 Y28.898
X-1.724 Y28.973
X-2.023 Y29.063
X-2.316 Y29.168
X-2.604 Y29.288
X-2.886 Y29.421
X-3.161 Y29.569
X-3.429 Y29.73
X-3.688 Y29.904
X-3.939 Y30.091
X-4.18 Y30.291
X-4.411 Y30.502
X-4.631 Y30.725
X-4.84 Y30.958
X-5.038 Y31.202
X-5.223 Y31.455
X-5.395 Y31.717
X-5.554 Y31.987
X-5.7 Y32.266
X-5.832 Y32.551
X-5.949 Y32.843
X-6.052 Y33.14
X-6.14 Y33.442
X-6.213 Y33.748
X-6.27 Y34.058
X-6.312 Y34.371
X-6.339 Y34.685
X-6.35 Y35
Y87.5
G2 X0 Y93.85 I6.35
G1 X2
G2 X18.35 Y77.5 J-16.35
G1 Y72
G3 X32 Y58.35 I13.65
G1 X48
G2 Y-58.35 J-58.35
G1 X32
X31.295 Y-58.368
X30.592 Y-58.423
X29.892 Y-58.514
G3 X18.35 Y-72 Z37.658 I2.108 J-13.486 F283.3
G1 Y-77.5 Z37.466
G2 X2 Y-93.85 Z36.57 I-16.35
G1 X0 Z36.5
G2 X-6.35 Y-87.5 Z36.151 J6.35
G1 Y-40.21 Z34.5
Y-35 F850
G2 X3.121 Y-29.47 I6.35
G3 X32.003 Y-33.65 I22.445 J53.216
G1 X48
G3 Y33.65 J33.65
G1 X31.999
G3 X3.071 Y29.593 I-6.508 J-58.757
G1 X2.8 Y29.444
X2.522 Y29.309
X2.237 Y29.188
X1.946 Y29.081
X1.651 Y28.989
X1.351 Y28.911
X1.047 Y28.848
X0.741 Y28.801
X0.432 Y28.768
X0.122 Y28.752
X-0.189 Y28.75
X-0.499 Y28.764
X-0.809 Y28.793
X-1.117 Y28.838
X-1.422 Y28.898
X-1.724 Y28.973
X-2.023 Y29.063
X-2.316 Y29.168
X-2.604 Y29.288
X-2.886 Y29.421
X-3.161 Y29.569
X-3.429 Y29.73
X-3.688 Y29.904
X-3.939 Y30.091
X-4.18 Y30.291
X-4.411 Y30.502
X-4.631 Y30.725
X-4.84 Y30.958
X-5.038 Y31.202
X-5.223 Y31.455
X-5.395 Y31.717
X-5.554 Y31.987
X-5.7 Y32.266
X-5.832 Y32.551
X-5.949 Y32.843
X-6.052 Y33.14
X-6.14 Y33.442
X-6.213 Y33.748
X-6.27 Y34.058
X-6.312 Y34.371
X-6.339 Y34.685
X-6.35 Y35
Y87.5
G2 X0 Y93.85 I6.35
G1 X2
G2 X18.35 Y77.5 J-16.35
G1 Y72
G3 X32 Y58.35 I13.65
G1 X48
G2 Y-58.35 J-58.35
G1 X32
G3 X18.35 Y-72 J-13.65
G1 Y-77.5
G2 X2 Y-93.85 I-16.35
G1 X0
G2 X-6.35 Y-87.5 J6.35
G1 Y-40.21
Y-35 Z34.318 F283.3
G2 X3.121 Y-29.47 Z33.856 I6.35
G1 X3.582 Y-29.73 Z33.837
X3.993 Y-29.95 Z33.821
X4.417 Y-30.165 Z33.804
X4.854 Y-30.374 Z33.788
X5.305 Y-30.578 Z33.77
X5.769 Y-30.776 Z33.753
X6.246 Y-30.969 Z33.735
X6.738 Y-31.155 Z33.716
X7.244 Y-31.335 Z33.698
X7.764 Y-31.509 Z33.678
X8.3 Y-31.676 Z33.659
X8.85 Y-31.836 Z33.639
X9.416 Y-31.989 Z33.618
X9.999 Y-32.136 Z33.597
X10.598 Y-32.274 Z33.576
X11.213 Y-32.406 Z33.554
X11.846 Y-32.53 Z33.531
X12.496 Y-32.646 Z33.508
X13.164 Y-32.755 Z33.485
X13.849 Y-32.856 Z33.46
X14.552 Y-32.95 Z33.436
X15.272 Y-33.036 Z33.41
X16.009 Y-33.115 Z33.385
X16.762 Y-33.188 Z33.358
X17.531 Y-33.253 Z33.331
X18.314 Y-33.312 Z33.304
X19.11 Y-33.364 Z33.276
X19.919 Y-33.411 Z33.248
X20.74 Y-33.452 Z33.219
X21.571 Y-33.488 Z33.19
X22.411 Y-33.52 Z33.16
X23.26 Y-33.546 Z33.131
X24.116 Y-33.569 Z33.101
X24.979 Y-33.589 Z33.071
X25.847 Y-33.605 Z33.04
X26.72 Y-33.618 Z33.01
X27.596 Y-33.628 Z32.979
X28.474 Y-33.636 Z32.949
X29.355 Y-33.643 Z32.918
X30.237 Y-33.647 Z32.887
X31.118 Y-33.649 Z32.856
X32.003 Y-33.65 Z32.825
X48 Z32.267
G3 X80.917 Y-6.984 Z30.667 J33.65
X48 Y33.65 I-32.917 J6.984 F850
G1 X31.999
G3 X3.071 Y29.593 I-6.508 J-58.757
G1 X2.8 Y29.444
X2.522 Y29.309
X2.237 Y29.188
X1.946 Y29.081
X1.651 Y28.989
X1.351 Y28.911
X1.047 Y28.848
X0.741 Y28.801
X0.432 Y28.768
X0.122 Y28.752
X-0.189 Y28.75
X-0.499 Y28.764
X-0.809 Y28.793
X-1.117 Y28.838
X-1.422 Y28.898
X-1.724 Y28.973
X-2.023 Y29.063
X-2.316 Y29.168
X-2.604 Y29.288
X-2.886 Y29.421
X-3.161 Y29.569
X-3.429 Y29.73
X-3.688 Y29.904
X-3.939 Y30.091
X-4.18 Y30.291
X-4.411 Y30.502
X-4.631 Y30.725
X-4.84 Y30.958
X-5.038 Y31.202
X-5.223 Y31.455
X-5.395 Y31.717
X-5.554 Y31.987
X-5.7 Y32.266
X-5.832 Y32.551
X-5.949 Y32.843
X-6.052 Y33.14
X-6.14 Y33.442
X-6.213 Y33.748
X-6.27 Y34.058
X-6.312 Y34.371
X-6.339 Y34.685
X-6.35 Y35
Y87.5
G2 X0 Y93.85 I6.35
G1 X2
G2 X18.35 Y77.5 J-16.35
G1 Y72
G3 X32 Y58.35 I13.65
G1 X48
G2 Y-58.35 J-58.35
G1 X32
G3 X18.35 Y-72 J-13.65
G1 Y-77.5
G2 X2 Y-93.85 I-16.35
G1 X0
G2 X-6.35 Y-87.5 J6.35
G1 Y-35
G2 X3.121 Y-29.47 I6.35
G3 X32.003 Y-33.65 I22.445 J53.216
G1 X48
G3 X80.917 Y-6.984 J33.65
X48 Y33.65 Z28.575 I-32.917 J6.984 F283.3
G1 X32.003 Z28.017
X31.118 Y33.649 Z27.986
X30.237 Y33.647 Z27.955
X29.355 Y33.643 Z27.924
X28.474 Y33.636 Z27.893
X27.596 Y33.628 Z27.863
X26.72 Y33.618 Z27.832
X25.847 Y33.605 Z27.802
X24.979 Y33.589 Z27.771
X24.116 Y33.569 Z27.741
X23.26 Y33.546 Z27.711
X22.411 Y33.52 Z27.682
X21.571 Y33.488 Z27.652
X20.74 Y33.452 Z27.623
X19.919 Y33.411 Z27.594
X19.11 Y33.364 Z27.566
X18.314 Y33.312 Z27.538
X17.531 Y33.253 Z27.511
X16.762 Y33.188 Z27.484
X16.009 Y33.115 Z27.458
X15.272 Y33.036 Z27.432
X14.552 Y32.95 Z27.406
X13.849 Y32.856 Z27.382
X13.164 Y32.755 Z27.357
X12.496 Y32.646 Z27.334
X11.846 Y32.53 Z27.311
X11.213 Y32.406 Z27.288
X10.598 Y32.274 Z27.266
X9.999 Y32.136 Z27.245
X9.416 Y31.989 Z27.224
X8.85 Y31.836 Z27.203
X8.3 Y31.676 Z27.183
X7.764 Y31.509 Z27.164
X7.244 Y31.335 Z27.144
X6.738 Y31.155 Z27.126
X6.246 Y30.969 Z27.107
X5.769 Y30.776 Z27.089
X5.305 Y30.578 Z27.072
X4.854 Y30.374 Z27.054
X4.417 Y30.165 Z27.038
X3.993 Y29.95 Z27.021
X3.582 Y29.73 Z27.005
X3.121 Y29.47 Z26.986
G2 X-1.109 Y28.748 Z26.833 I-3.121 J5.53
X-6.35 Y35 I1.109 J6.252 F850
G1 Y87.5
G2 X0 Y93.85 I6.35
G1 X2
G2 X18.35 Y77.5 J-16.35
G1 Y72
G3 X32 Y58.35 I13.65
G1 X48
G2 Y-58.35 J-58.35
G1 X32
G3 X18.35 Y-72 J-13.65
G1 Y-77.5
G2 X2 Y-93.85 I-16.35
G1 X0
G2 X-6.35 Y-87.5 J6.35
G1 Y-35
G2 X3.121 Y-29.47 I6.35
G3 X32.003 Y-33.65 I22.445 J53.216
G1 X48
G3 Y33.65 J33.65
G1 X31.999
G3 X3.071 Y29.593 I-6.508 J-58.757
G1 X2.804 Y29.439
X2.53 Y29.299
X2.248 Y29.172
X1.961 Y29.059
X1.667 Y28.961
X1.369 Y28.876
X1.066 Y28.807
X0.76 Y28.752
X0.451 Y28.713
X0.14 Y28.689
X-0.173 Y28.681
X-0.485 Y28.687
X-0.798 Y28.71
X-1.109 Y28.748
G2 X-6.35 Y35 Z26.524 I1.109 J6.252 F283.3
G1 Y87.5 Z24.691
G2 X0 Y93.85 Z24.342 I6.35
G1 X2 Z24.272
G2 X18.35 Y77.5 Z23.376 J-16.35
G1 Y72 Z23.184
G3 X19.349 Y66.873 Z23 I13.65
X32 Y58.35 I12.651 J5.127 F850
G1 X48
G2 Y-58.35 J-58.35
G1 X32
G3 X18.35 Y-72 J-13.65
G1 Y-77.5
G2 X2 Y-93.85 I-16.35
G1 X0
G2 X-6.35 Y-87.5 J6.35
G1 Y-35
G2 X3.121 Y-29.47 I6.35
G3 X32.003 Y-33.65 I22.445 J53.216
G1 X48
G3 Y33.65 J33.65
G1 X31.999
G3 X3.071 Y29.593 I-6.508 J-58.757
G1 X2.8 Y29.444
X2.522 Y29.309
X2.237 Y29.188
X1.946 Y29.081
X1.651 Y28.989
X1.351 Y28.911
X1.047 Y28.848
X0.741 Y28.801
X0.432 Y28.768
X0.122 Y28.752
X-0.189 Y28.75
X-0.499 Y28.764
X-0.809 Y28.793
X-1.117 Y28.838
X-1.422 Y28.898
X-1.724 Y28.973
X-2.023 Y29.063
X-2.316 Y29.168
X-2.604 Y29.288
X-2.886 Y29.421
X-3.161 Y29.569
X-3.429 Y29.73
X-3.688 Y29.904
X-3.939 Y30.091
X-4.18 Y30.291
X-4.411 Y30.502
X-4.631 Y30.725
X-4.84 Y30.958
X-5.038 Y31.202
X-5.223 Y31.455
X-5.395 Y31.717
X-5.554 Y31.987
X-5.7 Y32.266
X-5.832 Y32.551
X-5.949 Y32.843
X-6.052 Y33.14
X-6.14 Y33.442
X-6.213 Y33.748
X-6.27 Y34.058
X-6.312 Y34.371
X-6.339 Y34.685
X-6.35 Y35
Y87.5
G2 X0 Y93.85 I6.35
G1 X2
G2 X18.35 Y77.5 J-16.35
G1 Y72
G3 X19.349 Y66.873 I13.65
X32 Y58.35 Z22.435 I12.651 J5.127 F283.3
G1 X48 Z21.876
G2 X104.662 Y13.933 Z19.167 J-58.35
X48 Y-58.35 I-56.662 J-13.933 F850
G1 X32
G3 X18.35 Y-72 J-13.65
G1 Y-77.5
G2 X2 Y-93.85 I-16.35
G1 X0
G2 X-6.35 Y-87.5 J6.35
G1 Y-35
G2 X3.121 Y-29.47 I6.35
G3 X32.003 Y-33.65 I22.445 J53.216
G1 X48
G3 Y33.65 J33.65
G1 X31.999
G3 X3.071 Y29.593 I-6.508 J-58.757
G1 X2.8 Y29.444
X2.522 Y29.309
X2.237 Y29.188
X1.946 Y29.081
X1.651 Y28.989
X1.351 Y28.911
X1.047 Y28.848
X0.741 Y28.801
X0.432 Y28.768
X0.122 Y28.752
X-0.189 Y28.75
X-0.499 Y28.764
X-0.809 Y28.793
X-1.117 Y28.838
X-1.422 Y28.898
X-1.724 Y28.973
X-2.023 Y29.063
X-2.316 Y29.168
X-2.604 Y29.288
X-2.886 Y29.421
X-3.161 Y29.569
X-3.429 Y29.73
X-3.688 Y29.904
X-3.939 Y30.091
X-4.18 Y30.291
X-4.411 Y30.502
X-4.631 Y30.725
X-4.84 Y30.958
X-5.038 Y31.202
X-5.223 Y31.455
X-5.395 Y31.717
X-5.554 Y31.987
X-5.7 Y32.266
X-5.832 Y32.551
X-5.949 Y32.843
X-6.052 Y33.14
X-6.14 Y33.442
X-6.213 Y33.748
X-6.27 Y34.058
X-6.312 Y34.371
X-6.339 Y34.685
X-6.35 Y35
Y87.5
G2 X0 Y93.85 I6.35
G1 X2
G2 X18.35 Y77.5 J-16.35
G1 Y72
G3 X32 Y58.35 I13.65
G1 X48
G2 X104.662 Y13.933 J-58.35
X48 Y-58.35 Z15.475 I-56.662 J-13.933 F283.3
G1 X43.953 Z15.333
X32 F850
G3 X18.35 Y-72 J-13.65
G1 Y-77.5
G2 X2 Y-93.85 I-16.35
G1 X0
G2 X-6.35 Y-87.5 J6.35
G1 Y-35
G2 X3.121 Y-29.47 I6.35
G3 X32.003 Y-33.65 I22.445 J53.216
G1 X48
G3 Y33.65 J33.65
G1 X31.999
G3 X3.071 Y29.593 I-6.508 J-58.757
G1 X2.8 Y29.444
X2.522 Y29.309
X2.237 Y29.188
X1.946 Y29.081
X1.651 Y28.989
X1.351 Y28.911
X1.047 Y28.848
X0.741 Y28.801
X0.432 Y28.768
X0.122 Y28.752
X-0.189 Y28.75
X-0.499 Y28.764
X-0.809 Y28.793
X-1.117 Y28.838
X-1.422 Y28.898
X-1.724 Y28.973
X-2.023 Y29.063
X-2.316 Y29.168
X-2.604 Y29.288
X-2.886 Y29.421
X-3.161 Y29.569
X-3.429 Y29.73
X-3.688 Y29.904
X-3.939 Y30.091
X-4.18 Y30.291
X-4.411 Y30.502
X-4.631 Y30.725
X-4.84 Y30.958
X-5.038 Y31.202
X-5.223 Y31.455
X-5.395 Y31.717
X-5.554 Y31.987
X-5.7 Y32.266
X-5.832 Y32.551
X-5.949 Y32.843
X-6.052 Y33.14
X-6.14 Y33.442
X-6.213 Y33.748
X-6.27 Y34.058
X-6.312 Y34.371
X-6.339 Y34.685
X-6.35 Y35
Y87.5
G2 X0 Y93.85 I6.35
G1 X2
G2 X18.35 Y77.5 J-16.35
G1 Y72
G3 X32 Y58.35 I13.65
G1 X48
G2 Y-58.35 J-58.35
G1 X43.953
X32 Z14.916 F283.3
G3 X18.35 Y-72 Z14.167 J-13.65
G1 Y-77.5 Z13.975
G2 X2 Y-93.85 Z13.078 I-16.35
G1 X0 Z13.008
G2 X-6.35 Y-87.5 Z12.66 J6.35
G1 Y-54.279 Z11.5
Y-35 F850
G2 X3.121 Y-29.47 I6.35
G3 X32.003 Y-33.65 I22.445 J53.216
G1 X48
G3 Y33.65 J33.65
G1 X31.999
G3 X3.071 Y29.593 I-6.508 J-58.757
G1 X2.8 Y29.444
X2.522 Y29.309
X2.237 Y29.188
X1.946 Y29.081
X1.651 Y28.989
X1.351 Y28.911
X1.047 Y28.848
X0.741 Y28.801
X0.432 Y28.768
X0.122 Y28.752
X-0.189 Y28.75
X-0.499 Y28.764
X-0.809 Y28.793
X-1.117 Y28.838
X-1.422 Y28.898
X-1.724 Y28.973
X-2.023 Y29.063
X-2.316 Y29.168
X-2.604 Y29.288
X-2.886 Y29.421
X-3.161 Y29.569
X-3.429 Y29.73
X-3.688 Y29.904
X-3.939 Y30.091
X-4.18 Y30.291
X-4.411 Y30.502
X-4.631 Y30.725
X-4.84 Y30.958
X-5.038 Y31.202
X-5.223 Y31.455
X-5.395 Y31.717
X-5.554 Y31.987
X-5.7 Y32.266
X-5.832 Y32.551
X-5.949 Y32.843
X-6.052 Y33.14
X-6.14 Y33.442
X-6.213 Y33.748
X-6.27 Y34.058
X-6.312 Y34.371
X-6.339 Y34.685
X-6.35 Y35
Y87.5
G2 X0 Y93.85 I6.35
G1 X2
G2 X18.35 Y77.5 J-16.35
G1 Y72
G3 X32 Y58.35 I13.65
G1 X48
G2 Y-58.35 J-58.35
G1 X32
G3 X18.35 Y-72 J-13.65
G1 Y-77.5
G2 X2 Y-93.85 I-16.35
G1 X0
G2 X-6.35 Y-87.5 J6.35
G1 Y-54.279
Y-35 Z10.827 F283.3
G2 X3.121 Y-29.47 Z10.364 I6.35
G1 X3.582 Y-29.73 Z10.346
X3.993 Y-29.95 Z10.33
X4.417 Y-30.165 Z10.313
X4.854 Y-30.374 Z10.296
X5.305 Y-30.578 Z10.279
X5.769 Y-30.776 Z10.261
X6.246 Y-30.969 Z10.243
X6.738 Y-31.155 Z10.225
X7.244 Y-31.335 Z10.206
X7.764 Y-31.509 Z10.187
X8.3 Y-31.676 Z10.167
X8.85 Y-31.836 Z10.147
X9.416 Y-31.989 Z10.127
X9.999 Y-32.136 Z10.106
X10.598 Y-32.274 Z10.085
X11.213 Y-32.406 Z10.063
X11.846 Y-32.53 Z10.04
X12.496 Y-32.646 Z10.017
X13.164 Y-32.755 Z9.993
X13.849 Y-32.856 Z9.969
X14.552 Y-32.95 Z9.944
X15.272 Y-33.036 Z9.919
X16.009 Y-33.115 Z9.893
X16.762 Y-33.188 Z9.867
X17.531 Y-33.253 Z9.84
X18.314 Y-33.312 Z9.812
X19.11 Y-33.364 Z9.785
X19.919 Y-33.411 Z9.756
X20.74 Y-33.452 Z9.728
X21.571 Y-33.488 Z9.699
X22.411 Y-33.52 Z9.669
X23.26 Y-33.546 Z9.639
X24.116 Y-33.569 Z9.61
X24.979 Y-33.589 Z9.579
X25.847 Y-33.605 Z9.549
X26.72 Y-33.618 Z9.519
X27.596 Y-33.628 Z9.488
X28.474 Y-33.636 Z9.457
X29.355 Y-33.643 Z9.427
X30.237 Y-33.647 Z9.396
X31.118 Y-33.649 Z9.365
X32.003 Y-33.65 Z9.334
X48 Z8.776
G3 X75.246 Y-19.747 Z7.667 J33.65
X48 Y33.65 I-27.246 J19.747 F850
G1 X31.999
G3 X3.071 Y29.593 I-6.508 J-58.757
G1 X2.8 Y29.444
X2.522 Y29.309
X2.237 Y29.188
X1.946 Y29.081
X1.651 Y28.989
X1.351 Y28.911
X1.047 Y28.848
X0.741 Y28.801
X0.432 Y28.768
X0.122 Y28.752
X-0.189 Y28.75
X-0.499 Y28.764
X-0.809 Y28.793
X-1.117 Y28.838
X-1.422 Y28.898
X-1.724 Y28.973
X-2.023 Y29.063
X-2.316 Y29.168
X-2.604 Y29.288
X-2.886 Y29.421
X-3.161 Y29.569
X-3.429 Y29.73
X-3.688 Y29.904
X-3.939 Y30.091
X-4.18 Y30.291
X-4.411 Y30.502
X-4.631 Y30.725
X-4.84 Y30.958
X-5.038 Y31.202
X-5.223 Y31.455
X-5.395 Y31.717
X-5.554 Y31.987
X-5.7 Y32.266
X-5.832 Y32.551
X-5.949 Y32.843
X-6.052 Y33.14
X-6.14 Y33.442
X-6.213 Y33.748
X-6.27 Y34.058
X-6.312 Y34.371
X-6.339 Y34.685
X-6.35 Y35
Y87.5
G2 X0 Y93.85 I6.35
G1 X2
G2 X18.35 Y77.5 J-16.35
G1 Y72
G3 X32 Y58.35 I13.65
G1 X48
G2 Y-58.35 J-58.35
G1 X32
G3 X18.35 Y-72 J-13.65
G1 Y-77.5
G2 X2 Y-93.85 I-16.35
G1 X0
G2 X-6.35 Y-87.5 J6.35
G1 Y-35
G2 X3.121 Y-29.47 I6.35
G3 X32.003 Y-33.65 I22.445 J53.216
G1 X48
G3 X75.246 Y-19.747 J33.65
X48 Y33.65 Z5.084 I-27.246 J19.747 F283.3
G1 X32.003 Z4.525
X31.118 Y33.649 Z4.494
X30.237 Y33.647 Z4.464
X29.355 Y33.643 Z4.433
X28.474 Y33.636 Z4.402
X27.596 Y33.628 Z4.371
X26.72 Y33.618 Z4.341
X25.847 Y33.605 Z4.31
X24.979 Y33.589 Z4.28
X24.116 Y33.569 Z4.25
X23.26 Y33.546 Z4.22
X22.411 Y33.52 Z4.19
X21.571 Y33.488 Z4.161
X20.74 Y33.452 Z4.132
X19.919 Y33.411 Z4.103
X19.11 Y33.364 Z4.075
X18.314 Y33.312 Z4.047
X17.531 Y33.253 Z4.02
X16.762 Y33.188 Z3.993
X16.009 Y33.115 Z3.966
X15.272 Y33.036 Z3.94
X14.552 Y32.95 Z3.915
X13.849 Y32.856 Z3.89
X13.164 Y32.755 Z3.866
X12.496 Y32.646 Z3.842
X12.24 Y32.6 Z3.833
G3 X3.121 Y29.47 I4.192 J-27.059 F850
G2 X-6.35 Y35 I-3.121 J5.53
G1 Y87.5
G2 X0 Y93.85 I6.35
G1 X2
G2 X18.35 Y77.5 J-16.35
G1 Y72
G3 X32 Y58.35 I13.65
G1 X48
G2 Y-58.35 J-58.35
G1 X32
G3 X18.35 Y-72 J-13.65
G1 Y-77.5
G2 X2 Y-93.85 I-16.35
G1 X0
G2 X-6.35 Y-87.5 J6.35
G1 Y-35
G2 X3.121 Y-29.47 I6.35
G3 X32.003 Y-33.65 I22.445 J53.216
G1 X48
G3 Y33.65 J33.65
G1 X32.001
G3 X12.236 Y32.629 I-3.552 J-123.006
G1 X11.846 Y32.53 Z3.819 F283.3
X11.213 Y32.406 Z3.797
X10.598 Y32.274 Z3.775
X9.999 Y32.136 Z3.753
X9.416 Y31.989 Z3.732
X8.85 Y31.836 Z3.712
X8.3 Y31.676 Z3.692
X7.764 Y31.509 Z3.672
X7.244 Y31.335 Z3.653
X6.738 Y31.155 Z3.634
X6.246 Y30.969 Z3.616
X5.769 Y30.776 Z3.598
X5.305 Y30.578 Z3.58
X4.854 Y30.374 Z3.563
X4.417 Y30.165 Z3.546
X3.993 Y29.95 Z3.53
X3.582 Y29.73 Z3.513
X3.121 Y29.47 Z3.495
G2 X-6.35 Y35 Z3.033 I-3.121 J5.53
G1 Y87.5 Z1.199
G2 X0 Y93.85 Z0.851 I6.35
G1 X2 Z0.781
G2 X18.015 Y80.791 Z0 J-16.35
X18.35 Y77.5 I-16.015 J-3.291 F850
G1 Y72
G3 X32 Y58.35 I13.65
G1 X33.463
Z3
X48
X49.055 Y58.34
X50.109 Y58.312
X51.163 Y58.264
Z0 F283.3
G2 X52.49 Y-58.177 I-3.163 J-58.264 F850
G1 Z3
X50.995 Y-58.273
X49.498 Y-58.331
X48 Y-58.35
X34.79
Z0 F283.3
X32 F850
G3 X18.35 Y-72 J-13.65
G1 Y-77.5
G2 X2 Y-93.85 I-16.35
G1 X0
G2 X-6.35 Y-87.5 J6.35
G1 Y-35
G2 X3.121 Y-29.47 I6.35
G3 X25.229 Y-33.593 I19.048 J40.802
G1 Z3
G3 X32.003 Y-33.65 I6.391 J358.4
G1 X42.929
Z0 F283.3
X48 F850
G3 Y33.65 J33.65
G1 X40.85
Z3
X32.003
G3 X23.15 Y33.543 I-0.822 J-298.194
G1 Z0 F283.3
G3 X3.094 Y29.527 I-2.082 J-41.693 F850
G1 X2.819 Y29.379
X2.538 Y29.244
X2.249 Y29.124
X1.955 Y29.018
X1.656 Y28.927
X1.353 Y28.851
X1.047 Y28.79
X0.737 Y28.744
X0.426 Y28.714
X0.114 Y28.699
X-0.199
X-0.512 Y28.716
X-0.823 Y28.747
X-1.133 Y28.794
X-1.44 Y28.857
X-1.743 Y28.934
X-2.043 Y29.027
X-2.337 Y29.134
X-2.626 Y29.256
X-2.909 Y29.392
X-3.184 Y29.542
X-3.452 Y29.706
X-3.711 Y29.882
X-3.962 Y30.072
X-4.202 Y30.273
X-4.433 Y30.487
X-4.652 Y30.711
X-4.861 Y30.946
X-5.057 Y31.192
X-5.241 Y31.447
X-5.412 Y31.71
X-5.57 Y31.982
X-5.714 Y32.262
X-5.845 Y32.548
X-5.96 Y32.841
X-6.062 Y33.139
X-6.148 Y33.442
X-6.219 Y33.748
X-6.275 Y34.058
X-6.316 Y34.371
X-6.341 Y34.685
X-6.35 Y35
Y87.5
G2 X0 Y93.85 I6.35
G1 X2
G2 X18.015 Y80.791 J-16.35
G3 X19.515 Y79.803 I1.244 J0.256
G1 X20.759 Y80.058
X20.898 Y80.087 Z0.008
X21.036 Y80.115 Z0.032
X21.17 Y80.143 Z0.071
X21.299 Y80.169 Z0.126
X21.421 Y80.194 Z0.195
X21.535 Y80.218 Z0.277
X21.639 Y80.239 Z0.372
X21.732 Y80.258 Z0.478
X21.812 Y80.275 Z0.594
X21.88 Y80.288 Z0.719
X21.933 Y80.299 Z0.851
X21.972 Y80.307 Z0.987
X21.995 Y80.312 Z1.128
X22.003 Y80.314 Z1.27
G0 Z61
M9
M30
%
