%
(1001)
(Dust Shoe acrylic top)
(T1  D=6 CR=0 - ZMIN=0 - flat end mill)
G90 G94
G17
G21
G28 G91 Z0
G90

(2D Contour1)
M9
T1 M6
S7000 M3
G54
M9
G0 X83.167 Y177.042
Z33
Z23
G1 Z21.1 F300
X83.163 Y177.048 Z21.006 F30
X83.152 Y177.067 Z20.915
X83.134 Y177.099 Z20.828
X83.11 Y177.142 Z20.747
X83.08 Y177.195 Z20.676
X83.045 Y177.257 Z20.615
X83.005 Y177.327 Z20.565
X82.963 Y177.403 Z20.529
X82.918 Y177.482 Z20.507
X82.872 Y177.564 Z20.5
X82.576 Y178.087 F300
G2 X82.804 Y178.904 I0.522 J0.295
G3 X93.591 Y186.789 Z20.032 I-28.159 J49.846
G2 X111.959 Y194 Z19.327 I18.368 J-19.789
G1 X152.644 Z17.906
G3 X187.394 Y228.75 Z16 J34.75
X152.644 Y263.5 I-34.75 F850
G1 X111.959
G2 X93.591 Y270.711 J27
G3 X1.615 Y250.326 I-38.947 J-41.961
X1.394 Y249.195 I2.779 J-1.131
G1 Y208.305
G3 X1.615 Y207.174 I3
X93.591 Y186.789 I53.029 J21.576
G2 X111.959 Y194 I18.368 J-19.789
G1 X152.644
G3 X187.394 Y228.75 J34.75
X152.644 Y263.5 Z14.094 I-34.75 F300
G1 X149.957 Z14
X111.959 F850
G2 X93.591 Y270.711 J27
G3 X1.615 Y250.326 I-38.947 J-41.961
X1.394 Y249.195 I2.779 J-1.131
G1 Y208.305
G3 X1.615 Y207.174 I3
X93.591 Y186.789 I53.029 J21.576
G2 X111.959 Y194 I18.368 J-19.789
G1 X152.644
G3 Y263.5 J34.75
G1 X149.957
X111.959 Z12.673 F300
G2 X94.28 Y270.093 Z12 J27
X93.591 Y270.711 I17.679 J20.407 F850
G3 X1.615 Y250.326 I-38.947 J-41.961
X1.394 Y249.195 I2.779 J-1.131
G1 Y208.305
G3 X1.615 Y207.174 I3
X93.591 Y186.789 I53.029 J21.576
G2 X111.959 Y194 I18.368 J-19.789
G1 X152.644
G3 Y263.5 J34.75
G1 X111.959
G2 X94.28 Y270.093 J27
X93.591 Y270.711 Z11.968 I17.679 J20.407 F300
G3 X41.255 Y284.412 Z10 I-38.947 J-41.961
X1.615 Y250.326 I13.389 J-55.662 F850
X1.394 Y249.195 I2.779 J-1.131
G1 Y208.305
G3 X1.615 Y207.174 I3
X93.591 Y186.789 I53.029 J21.576
G2 X111.959 Y194 I18.368 J-19.789
G1 X152.644
G3 Y263.5 J34.75
G1 X111.959
G2 X93.591 Y270.711 J27
G3 X41.255 Y284.412 I-38.947 J-41.961
X1.615 Y250.326 Z8.104 I13.389 J-55.662 F300
X1.394 Y249.195 Z8.064 I2.779 J-1.131
G1 Y247.373 Z8
Y208.305 F850
G3 X1.615 Y207.174 I3
X93.591 Y186.789 I53.029 J21.576
G2 X111.959 Y194 I18.368 J-19.789
G1 X152.644
G3 Y263.5 J34.75
G1 X111.959
G2 X93.591 Y270.711 J27
G3 X1.615 Y250.326 I-38.947 J-41.961
X1.394 Y249.195 I2.779 J-1.131
G1 Y247.373
Y208.305 Z6.636 F300
G3 X1.615 Y207.174 Z6.595 I3
X10.278 Y192.568 Z6 I53.029 J21.576
X93.591 Y186.789 I44.367 J36.182 F850
G2 X111.959 Y194 I18.368 J-19.789
G1 X152.644
G3 Y263.5 J34.75
G1 X111.959
G2 X93.591 Y270.711 J27
G3 X1.615 Y250.326 I-38.947 J-41.961
X1.394 Y249.195 I2.779 J-1.131
G1 Y208.305
G3 X1.615 Y207.174 I3
X10.278 Y192.568 I53.029 J21.576
X61.142 Y171.87 Z4 I44.367 J36.182 F300
X93.591 Y186.789 I-6.497 J56.88 F850
G2 X111.959 Y194 I18.368 J-19.789
G1 X152.644
G3 Y263.5 J34.75
G1 X111.959
G2 X93.591 Y270.711 J27
G3 X1.615 Y250.326 I-38.947 J-41.961
X1.394 Y249.195 I2.779 J-1.131
G1 Y208.305
G3 X1.615 Y207.174 I3
X61.142 Y171.87 I53.029 J21.576
X93.591 Y186.789 Z2.732 I-6.497 J56.88 F300
G2 X111.959 Y194 Z2.026 I18.368 J-19.789
G1 X112.71 Z2
X152.644 F850
G3 Y263.5 J34.75
G1 X111.959
G2 X93.591 Y270.711 J27
G3 X1.615 Y250.326 I-38.947 J-41.961
X1.394 Y249.195 I2.779 J-1.131
G1 Y208.305
G3 X1.615 Y207.174 I3
X93.591 Y186.789 I53.029 J21.576
G2 X111.959 Y194 I18.368 J-19.789
G1 X112.71
X152.644 Z0.605 F300
G3 X169.272 Y198.237 Z0 J34.75
X173.425 Y200.898 I-16.628 J30.513 F850
G1 Z1.5
G3 X180.496 Y207.969 I-20.781 J27.852
G1 Z0 F30
G3 Y249.531 I-27.852 J20.781 F850
G1 Z1.5
G3 X173.425 Y256.602 I-27.852 J-20.781
G1 Z0 F30
G3 X152.644 Y263.5 I-20.781 J-27.852 F850
G1 X111.959
G2 X93.591 Y270.711 J27
G3 X74.408 Y282.48 I-38.947 J-41.961
G1 Z1.5
G3 X64.757 Y285.1 I-19.764 J-53.73
G1 Z0 F30
G3 X21.669 Y275.55 I-10.113 J-56.35 F850
G1 Z1.5
G3 X14.029 Y269.098 I32.975 J-46.8
G1 Z0 F30
G3 X1.615 Y250.326 I40.615 J-40.348 F850
X1.394 Y249.195 I2.779 J-1.131
G1 Y208.305
G3 X1.615 Y207.174 I3
X14.029 Y188.402 I53.029 J21.576
G1 Z1.5
G3 X21.669 Y181.95 I40.615 J40.348
G1 Z0 F30
G3 X64.757 Y172.4 I32.975 J46.8 F850
G1 Z1.5
G3 X74.408 Y175.02 I-10.113 J56.35
G1 Z0 F30
G3 X93.591 Y186.789 I-19.764 J53.73 F850
G2 X111.959 Y194 I18.368 J-19.789
G1 X152.644
G3 X173.425 Y200.898 J34.75
G1 Z1.5
G3 X180.496 Y207.969 I-20.781 J27.852
G1 Z0 F30
G3 Y249.531 I-27.852 J20.781 F850
G1 Z1.5
G3 X173.425 Y256.602 I-27.852 J-20.781
G1 Z0 F30
G3 X152.644 Y263.5 I-20.781 J-27.852 F850
G1 X111.959
G2 X93.591 Y270.711 J27
G3 X74.408 Y282.48 I-38.947 J-41.961
G1 Z1.5
G3 X64.757 Y285.1 I-19.764 J-53.73
G1 Z0 F30
G3 X21.669 Y275.55 I-10.113 J-56.35 F850
G1 Z1.5
G3 X14.029 Y269.098 I32.975 J-46.8
G1 Z0 F30
G3 X1.615 Y250.326 I40.615 J-40.348 F850
X1.394 Y249.195 I2.779 J-1.131
G1 Y208.305
G3 X1.615 Y207.174 I3
X14.029 Y188.402 I53.029 J21.576
G1 Z1.5
G3 X21.669 Y181.95 I40.615 J40.348
G1 Z0 F30
G3 X64.757 Y172.4 I32.975 J46.8 F850
G1 Z1.5
G3 X74.408 Y175.02 I-10.113 J56.35
G1 Z0 F30
G3 X93.591 Y186.789 I-19.764 J53.73 F850
G2 X111.959 Y194 I18.368 J-19.789
G1 X152.644
G3 X169.272 Y198.237 J34.75
G2 X170.086 Y197.997 I0.287 J-0.527 F300
G1 X170.373 Y197.47
X170.418 Y197.387 Z0.007
X170.462 Y197.307 Z0.029
X170.503 Y197.231 Z0.065
X170.542 Y197.16 Z0.115
X170.576 Y197.097 Z0.176
X170.605 Y197.044 Z0.247
X170.629 Y197 Z0.328
X170.646 Y196.969 Z0.415
X170.657 Y196.95 Z0.506
X170.66 Y196.943 Z0.6
G0 Z23
X85.815 Y54.094
G1 Z21.1 F300
X85.811 Y54.1 Z21.006 F30
X85.799 Y54.118 Z20.915
X85.78 Y54.149 Z20.828
X85.753 Y54.19 Z20.747
X85.721 Y54.242 Z20.676
X85.682 Y54.302 Z20.615
X85.639 Y54.37 Z20.565
X85.592 Y54.444 Z20.529
X85.543 Y54.521 Z20.507
X85.493 Y54.6 Z20.5
X85.171 Y55.106 F300
G2 X85.356 Y55.935 I0.506 J0.322
G3 X93.591 Y62.289 Z20.136 I-30.711 J48.315
G2 X111.959 Y69.5 Z19.431 I18.368 J-19.789
G1 X152.644 Z18.01
G3 X187.394 Y104.25 Z16.104 J34.75
X187.267 Y107.222 Z16 I-34.75
X152.644 Y139 I-34.623 J-2.972 F850
G1 X111.959
G2 X93.591 Y146.211 J27
G3 X1.615 Y125.826 I-38.947 J-41.961
X1.394 Y124.695 I2.779 J-1.131
G1 Y83.805
G3 X1.615 Y82.674 I3
X93.591 Y62.289 I53.029 J21.576
G2 X111.959 Y69.5 I18.368 J-19.789
G1 X152.644
G3 X187.267 Y107.222 J34.75
X152.644 Y139 Z14.198 I-34.623 J-2.972 F300
G1 X146.981 Z14
X111.959 F850
G2 X93.591 Y146.211 J27
G3 X1.615 Y125.826 I-38.947 J-41.961
X1.394 Y124.695 I2.779 J-1.131
G1 Y83.805
G3 X1.615 Y82.674 I3
X93.591 Y62.289 I53.029 J21.576
G2 X111.959 Y69.5 I18.368 J-19.789
G1 X152.644
G3 Y139 J34.75
G1 X146.981
X111.959 Z12.777 F300
G2 X93.591 Y146.211 Z12.072 J27
G3 X92.064 Y147.578 Z12 I-38.947 J-41.961
X1.615 Y125.826 I-37.419 J-43.328 F850
X1.394 Y124.695 I2.779 J-1.131
G1 Y83.805
G3 X1.615 Y82.674 I3
X93.591 Y62.289 I53.029 J21.576
G2 X111.959 Y69.5 I18.368 J-19.789
G1 X152.644
G3 Y139 J34.75
G1 X111.959
G2 X93.591 Y146.211 J27
G3 X92.064 Y147.578 I-38.947 J-41.961
X38.381 Y159.141 Z10 I-37.419 J-43.328 F300
X1.615 Y125.826 I16.263 J-54.891 F850
X1.394 Y124.695 I2.779 J-1.131
G1 Y83.805
G3 X1.615 Y82.674 I3
X93.591 Y62.289 I53.029 J21.576
G2 X111.959 Y69.5 I18.368 J-19.789
G1 X152.644
G3 Y139 J34.75
G1 X111.959
G2 X93.591 Y146.211 J27
G3 X38.381 Y159.141 I-38.947 J-41.961
X1.615 Y125.826 Z8.208 I16.263 J-54.891 F300
X1.394 Y124.695 Z8.168 I2.779 J-1.131
G1 Y119.897 Z8
Y83.805 F850
G3 X1.615 Y82.674 I3
X93.591 Y62.289 I53.029 J21.576
G2 X111.959 Y69.5 I18.368 J-19.789
G1 X152.644
G3 Y139 J34.75
G1 X111.959
G2 X93.591 Y146.211 J27
G3 X1.615 Y125.826 I-38.947 J-41.961
X1.394 Y124.695 I2.779 J-1.131
G1 Y119.897
Y83.805 Z6.74 F300
G3 X1.615 Y82.674 Z6.699 I3
X12.217 Y65.811 Z6 I53.029 J21.576
X93.591 Y62.289 I42.427 J38.439 F850
G2 X111.959 Y69.5 I18.368 J-19.789
G1 X152.644
G3 Y139 J34.75
G1 X111.959
G2 X93.591 Y146.211 J27
G3 X1.615 Y125.826 I-38.947 J-41.961
X1.394 Y124.695 I2.779 J-1.131
G1 Y83.805
G3 X1.615 Y82.674 I3
X12.217 Y65.811 I53.029 J21.576
X64.088 Y47.784 Z4 I42.427 J38.439 F300
X93.591 Y62.289 I-9.444 J56.466 F850
G2 X111.959 Y69.5 I18.368 J-19.789
G1 X152.644
G3 Y139 J34.75
G1 X111.959
G2 X93.591 Y146.211 J27
G3 X1.615 Y125.826 I-38.947 J-41.961
X1.394 Y124.695 I2.779 J-1.131
G1 Y83.805
G3 X1.615 Y82.674 I3
X64.088 Y47.784 I53.029 J21.576
X93.591 Y62.289 Z2.836 I-9.444 J56.466 F300
G2 X111.959 Y69.5 Z2.13 I18.368 J-19.789
G1 X115.686 Z2
X152.644 F850
G3 Y139 J34.75
G1 X111.959
G2 X93.591 Y146.211 J27
G3 X1.615 Y125.826 I-38.947 J-41.961
X1.394 Y124.695 I2.779 J-1.131
G1 Y83.805
G3 X1.615 Y82.674 I3
X93.591 Y62.289 I53.029 J21.576
G2 X111.959 Y69.5 I18.368 J-19.789
G1 X115.686
X152.644 Z0.709 F300
G3 X171.821 Y75.271 Z0 J34.75
X173.425 Y76.398 I-19.177 J28.979 F850
G1 Z1.5
G3 X180.496 Y83.469 I-20.781 J27.852
G1 Z0 F30
G3 Y125.031 I-27.852 J20.781 F850
G1 Z1.5
G3 X173.425 Y132.102 I-27.852 J-20.781
G1 Z0 F30
G3 X152.644 Y139 I-20.781 J-27.852 F850
G1 X111.959
G2 X93.591 Y146.211 J27
G3 X74.408 Y157.98 I-38.947 J-41.961
G1 Z1.5
G3 X64.757 Y160.6 I-19.764 J-53.73
G1 Z0 F30
G3 X21.669 Y151.05 I-10.113 J-56.35 F850
G1 Z1.5
G3 X14.029 Y144.598 I32.975 J-46.8
G1 Z0 F30
G3 X1.615 Y125.826 I40.615 J-40.348 F850
X1.394 Y124.695 I2.779 J-1.131
G1 Y83.805
G3 X1.615 Y82.674 I3
X14.029 Y63.902 I53.029 J21.576
G1 Z1.5
G3 X21.67 Y57.45 I40.615 J40.348
G1 Z0 F30
G3 X64.757 Y47.9 I32.975 J46.8 F850
G1 Z1.5
G3 X74.408 Y50.52 I-10.113 J56.35
G1 Z0 F30
G3 X93.591 Y62.289 I-19.764 J53.73 F850
G2 X111.959 Y69.5 I18.368 J-19.789
G1 X152.644
G3 X173.425 Y76.398 J34.75
G1 Z1.5
G3 X180.496 Y83.469 I-20.781 J27.852
G1 Z0 F30
G3 Y125.031 I-27.852 J20.781 F850
G1 Z1.5
G3 X173.425 Y132.102 I-27.852 J-20.781
G1 Z0 F30
G3 X152.644 Y139 I-20.781 J-27.852 F850
G1 X111.959
G2 X93.591 Y146.211 J27
G3 X74.408 Y157.98 I-38.947 J-41.961
G1 Z1.5
G3 X64.757 Y160.6 I-19.764 J-53.73
G1 Z0 F30
G3 X21.669 Y151.05 I-10.113 J-56.35 F850
G1 Z1.5
G3 X14.029 Y144.598 I32.975 J-46.8
G1 Z0 F30
G3 X1.615 Y125.826 I40.615 J-40.348 F850
X1.394 Y124.695 I2.779 J-1.131
G1 Y83.805
G3 X1.615 Y82.674 I3
X14.029 Y63.902 I53.029 J21.576
G1 Z1.5
G3 X21.67 Y57.45 I40.615 J40.348
G1 Z0 F30
G3 X64.757 Y47.9 I32.975 J46.8 F850
G1 Z1.5
G3 X74.408 Y50.52 I-10.113 J56.35
G1 Z0 F30
G3 X93.591 Y62.289 I-19.764 J53.73 F850
G2 X111.959 Y69.5 I18.368 J-19.789
G1 X152.644
G3 X171.821 Y75.271 J34.75
G2 X172.653 Y75.101 I0.331 J-0.5 F300
G1 X172.984 Y74.601
X173.035 Y74.523 Z0.007
X173.086 Y74.446 Z0.029
X173.134 Y74.374 Z0.065
X173.178 Y74.307 Z0.115
X173.218 Y74.247 Z0.176
X173.252 Y74.196 Z0.247
X173.279 Y74.155 Z0.328
X173.299 Y74.125 Z0.415
X173.311 Y74.107 Z0.506
X173.315 Y74.101 Z0.6
G0 Z23
X88.168 Y402.716
G1 Z21.1 F300
X88.164 Y402.71 Z21.006 F30
X88.152 Y402.692 Z20.915
X88.132 Y402.661 Z20.828
X88.105 Y402.62 Z20.747
X88.072 Y402.569 Z20.676
X88.033 Y402.509 Z20.615
X87.989 Y402.442 Z20.565
X87.941 Y402.37 Z20.529
X87.891 Y402.293 Z20.507
X87.839 Y402.215 Z20.5
X87.51 Y401.713 F300
G2 X86.679 Y401.541 I-0.502 J0.329
G3 X-1.72 Y348.033 Z16 I-31.429 J-47.851
X94.013 Y311.559 I56.97 J5.656 F850
G2 X112.294 Y318.69 I18.281 J-19.869
G1 X153.5
G3 Y388.69 J35
G1 X112.294
G2 X94.013 Y395.82 I-0.001 J27
G3 X-1.72 Y348.033 I-38.763 J-42.13
X29.249 Y302.685 Z14 I56.97 J5.656 F300
X94.013 Y311.559 I26.001 J51.005 F850
G2 X112.294 Y318.69 I18.281 J-19.869
G1 X153.5
G3 Y388.69 J35
G1 X112.294
G2 X94.013 Y395.82 I-0.001 J27
G3 X8.247 Y386.374 I-38.763 J-42.13
X29.249 Y302.685 I47.003 J-32.685
X84.14 Y304.264 Z12 I26.001 J51.005 F300
X94.013 Y311.559 I-28.89 J49.426 F850
G2 X112.294 Y318.69 I18.281 J-19.869
G1 X153.5
G3 Y388.69 J35
G1 X112.294
G2 X94.013 Y395.82 I-0.001 J27
G3 X16.487 Y311.559 I-38.763 J-42.13
X84.14 Y304.264 I38.763 J42.13
X94.013 Y311.559 Z11.57 I-28.89 J49.426 F300
G2 X112.294 Y318.69 Z10.869 I18.281 J-19.869
G1 X137.185 Z10
X153.5 F850
G3 Y388.69 J35
G1 X112.294
G2 X94.013 Y395.82 I-0.001 J27
G3 X16.487 Y311.559 I-38.763 J-42.13
X94.013 I38.763 J42.13
G2 X112.294 Y318.69 I18.281 J-19.869
G1 X137.185
X153.5 Z9.43 F300
G3 X185.729 Y340.042 Z8 J35
X153.5 Y388.69 I-32.229 J13.648 F850
G1 X112.294
G2 X94.013 Y395.82 I-0.001 J27
G3 X16.487 Y311.559 I-38.763 J-42.13
X94.013 I38.763 J42.13
G2 X112.294 Y318.69 I18.281 J-19.869
G1 X153.5
G3 X185.729 Y340.042 J35
X165.008 Y386.744 Z6 I-32.229 J13.648 F300
X153.5 Y388.69 I-11.508 J-33.054 F850
G1 X112.294
G2 X94.013 Y395.82 I-0.001 J27
G3 X16.487 Y311.559 I-38.763 J-42.13
X94.013 I38.763 J42.13
G2 X112.294 Y318.69 I18.281 J-19.869
G1 X153.5
G3 X165.008 Y386.744 J35
X153.5 Y388.69 Z5.591 I-11.508 J-33.054 F300
G1 X112.294 Z4.152
G2 X107.972 Y389.038 Z4 I-0.001 J27
X94.013 Y395.82 I4.322 J26.652 F850
G3 X16.487 Y311.559 I-38.763 J-42.13
X94.013 I38.763 J42.13
G2 X112.294 Y318.69 I18.281 J-19.869
G1 X153.5
G3 Y388.69 J35
G1 X112.294
G2 X107.972 Y389.038 I-0.001 J27
X94.013 Y395.82 Z3.45 I4.322 J26.652 F300
G3 X56.301 Y410.93 Z2 I-38.763 J-42.13
X54.199 Y296.449 I-1.051 J-57.24 F850
X94.013 Y311.559 I1.051 J57.24
G2 X112.294 Y318.69 I18.281 J-19.869
G1 X153.5
G3 Y388.69 J35
G1 X112.294
G2 X94.013 Y395.82 I-0.001 J27
G3 X56.301 Y410.93 I-38.763 J-42.13
X24.961 Y402.27 Z0.849 I-1.051 J-57.24 F300
G1 Z1.5
G3 X16.969 Y396.258 I30.289 J-48.581
G1 Z0.499 F30
G3 X7.639 Y385.482 Z0 I38.281 J-42.569 F300
X-1.781 Y358.69 I47.611 J-31.792 F850
G1 Z1.5
G3 Y348.69 I57.031 J-5
G1 Z0 F30
G3 X16.969 Y311.121 I57.031 J5 F850
G1 Z1.5
G3 X24.961 Y305.109 I38.281 J42.569
G1 Z0 F30
G3 X66.255 Y297.507 I30.289 J48.581 F850
G1 Z1.5
G3 X75.863 Y300.279 I-11.005 J56.182
G1 Z0 F30
G3 X94.013 Y311.559 I-20.613 J53.41 F850
G2 X112.294 Y318.69 I18.281 J-19.869
G1 X153.5
G3 X174.459 Y325.659 J35
G1 Z1.5
G3 X181.53 Y332.73 I-20.959 J28.031
G1 Z0 F30
G3 Y374.649 I-28.03 J20.96 F850
G1 Z1.5
G3 X174.459 Y381.72 I-28.03 J-20.959
G1 Z0 F30
G3 X153.5 Y388.69 I-20.959 J-28.03 F850
G1 X112.294
G2 X94.013 Y395.82 I-0.001 J27
G3 X75.863 Y407.1 I-38.763 J-42.13
G1 Z1.5
G3 X66.255 Y409.872 I-20.613 J-53.41
G1 Z0 F30
G3 X24.961 Y402.27 I-11.005 J-56.182 F850
G1 Z1.5
G3 X16.969 Y396.258 I30.289 J-48.581
G1 Z0 F30
G3 X-1.781 Y358.69 I38.281 J-42.569 F850
G1 Z1.5
G3 Y348.69 I57.031 J-5
G1 Z0 F30
G3 X16.969 Y311.121 I57.031 J5 F850
G1 Z1.5
G3 X24.961 Y305.109 I38.281 J42.569
G1 Z0 F30
G3 X66.255 Y297.507 I30.289 J48.581 F850
G1 Z1.5
G3 X75.863 Y300.279 I-11.005 J56.182
G1 Z0 F30
G3 X94.013 Y311.559 I-20.613 J53.41 F850
G2 X112.294 Y318.69 I18.281 J-19.869
G1 X153.5
G3 X174.459 Y325.659 J35
G1 Z1.5
G3 X181.53 Y332.73 I-20.959 J28.031
G1 Z0 F30
G3 Y374.649 I-28.03 J20.96 F850
G1 Z1.5
G3 X174.459 Y381.72 I-28.03 J-20.959
G1 Z0 F30
G3 X153.5 Y388.69 I-20.959 J-28.03 F850
G1 X112.294
G2 X94.013 Y395.82 I-0.001 J27
G3 X75.863 Y407.1 I-38.763 J-42.13
G1 Z1.5
G3 X66.255 Y409.872 I-20.613 J-53.41
G1 Z0 F30
G3 X24.961 Y402.27 I-11.005 J-56.182 F850
G1 Z1.5
G3 X16.969 Y396.258 I30.289 J-48.581
G1 Z0 F30
G3 X7.639 Y385.482 I38.281 J-42.569 F850
G2 X6.807 Y385.316 I-0.499 J0.333 F300
G1 X6.308 Y385.649
X6.23 Y385.701 Z0.007
X6.154 Y385.752 Z0.029
X6.081 Y385.8 Z0.065
X6.015 Y385.845 Z0.115
X5.955 Y385.885 Z0.176
X5.904 Y385.919 Z0.247
X5.863 Y385.946 Z0.328
X5.833 Y385.966 Z0.415
X5.815 Y385.978 Z0.506
X5.809 Y385.982 Z0.6
G0 Z33
M9
G28 G91 Z0
G28 X0 Y0
M30
%
