%
(1001)
(Dust Shoe acrylic top)
(T1  D=6 CR=0 - ZMIN=0 - flat end mill)
G90 G94
G17
G21
G28 G91 Z0
G90

(2D Contour2)
M9
T1 M6
S7000 M3
G54
M9
G0 X19.692 Y222.8
Z33
Z23
G1 Z21.1 F300
X19.685 Y222.799 Z21.006 F30
X19.663 Y222.796 Z20.915
X19.627 Y222.79 Z20.828
X19.579 Y222.783 Z20.747
X19.518 Y222.773 Z20.676
X19.447 Y222.763 Z20.615
X19.368 Y222.75 Z20.565
X19.282 Y222.737 Z20.529
X19.192 Y222.723 Z20.507
X19.099 Y222.709 Z20.5
X18.506 Y222.619 F300
G2 X17.822 Y223.121 I-0.091 J0.593
X24.682 Y250.882 Z19.475 I36.822 J5.629
G3 X24.226 Y254.938 Z19.318 I-2.413 J1.782
G2 X24.062 Y259.332 Z19.146 I1.957 J2.274
X28.457 Y259.169 Z18.974 I2.121 J-2.121
G3 X32.513 Y258.713 Z18.817 I2.273 J1.957
G2 X49.107 Y265.586 Z18.183 I22.131 J-29.963
G3 X51.653 Y268.776 Z18.027 I-0.446 J2.967
G2 X54.644 Y272 Z17.854 I2.992 J0.224
X57.636 Y268.776 Z17.682 J-3
G3 X60.182 Y265.586 Z17.525 I2.992 J-0.224
G2 X76.776 Y258.713 Z16.892 I-5.537 J-36.836
G3 X80.832 Y259.169 Z16.735 I1.782 J2.413
G2 X85.227 Y259.332 Z16.563 I2.274 J-1.958
X85.063 Y254.938 Z16.39 I-2.121 J-2.121
G3 X84.607 Y250.882 Z16.233 I1.957 J-2.274
G2 X88.076 Y245.177 Z16 I-29.963 J-22.131
G3 X90.769 Y243.5 I2.693 J1.323 F750
G1 X147.644
G3 X150.644 Y246.5 J3
G2 X152.785 Y248.495 I2
X154.624 Y246.218 I-0.141 J-1.995
G3 X156.757 Y242.915 I2.97 J-0.422
G2 X159.751 Y241.674 I-4.115 J-14.164
G3 X163.596 Y242.502 I1.446 J2.629
G2 X166.609 Y242.715 I1.599 J-1.201
X166.396 Y239.702 I-1.414 J-1.414
G3 X165.569 Y235.858 I1.802 J-2.399
G2 X166.809 Y232.864 I-12.926 J-7.106
G3 X170.112 Y230.73 I2.881 J0.836
G2 X172.394 Y228.75 I0.282 J-1.98
X170.112 Y226.77 I-2
G3 X166.809 Y224.636 I-0.422 J-2.97
G2 X165.569 Y221.642 I-14.166 J4.112
G3 X166.396 Y217.798 I2.629 J-1.445
G2 X166.609 Y214.785 I-1.201 J-1.599
X163.596 Y214.998 I-1.414 J1.414
G3 X159.751 Y215.826 I-2.399 J-1.801
G2 X156.757 Y214.585 I-7.109 J12.924
G3 X154.624 Y211.282 I0.837 J-2.881
G2 X152.785 Y209.005 I-1.98 J-0.282
X150.644 Y211 I-0.141 J1.995
G3 X147.644 Y214 I-3
G1 X90.769
G3 X88.076 Y212.323 J-3
G2 X84.607 Y206.618 I-33.432 J16.427
G3 X85.063 Y202.563 I2.413 J-1.782
G2 X85.227 Y198.168 I-1.957 J-2.274
X80.832 Y198.331 I-2.121 J2.121
G3 X76.776 Y198.787 I-2.273 J-1.957
G2 X60.182 Y191.914 I-22.131 J29.963
G3 X57.636 Y188.723 I0.446 J-2.967
G2 X54.644 Y185.5 I-2.992 J-0.223
X51.653 Y188.723 J3
G3 X49.107 Y191.914 I-2.992 J0.224
G2 X32.513 Y198.787 I5.537 J36.836
G3 X28.457 Y198.331 I-1.782 J-2.413
G2 X24.062 Y198.168 I-2.274 J1.957
X24.226 Y202.562 I2.121 J2.121
G3 X24.682 Y206.618 I-1.957 J2.274
G2 Y250.882 I29.963 J22.132
G3 X24.226 Y254.938 I-2.413 J1.782
G2 X24.062 Y259.332 I1.957 J2.274
X28.457 Y259.169 I2.121 J-2.121
G3 X32.513 Y258.713 I2.273 J1.957
G2 X49.107 Y265.586 I22.131 J-29.963
G3 X51.653 Y268.776 I-0.446 J2.967
G2 X54.644 Y272 I2.992 J0.224
X57.636 Y268.776 J-3
G3 X60.182 Y265.586 I2.992 J-0.224
G2 X76.776 Y258.713 I-5.537 J-36.836
G3 X80.832 Y259.169 I1.782 J2.413
G2 X85.227 Y259.332 I2.274 J-1.958
X85.063 Y254.938 I-2.121 J-2.121
G3 X84.607 Y250.882 I1.957 J-2.274
G2 X88.076 Y245.177 I-29.963 J-22.131
G3 X90.769 Y243.5 Z15.883 I2.693 J1.323 F300
G1 X144.699 Z14
X147.644 F750
G3 X150.644 Y246.5 J3
G2 X152.785 Y248.495 I2
X154.624 Y246.218 I-0.141 J-1.995
G3 X156.757 Y242.915 I2.97 J-0.422
G2 X159.751 Y241.674 I-4.115 J-14.164
G3 X163.596 Y242.502 I1.446 J2.629
G2 X166.609 Y242.715 I1.599 J-1.201
X166.396 Y239.702 I-1.414 J-1.414
G3 X165.569 Y235.858 I1.802 J-2.399
G2 X166.809 Y232.864 I-12.926 J-7.106
G3 X170.112 Y230.73 I2.881 J0.836
G2 X172.394 Y228.75 I0.282 J-1.98
X170.112 Y226.77 I-2
G3 X166.809 Y224.636 I-0.422 J-2.97
G2 X165.569 Y221.642 I-14.166 J4.112
G3 X166.396 Y217.798 I2.629 J-1.445
G2 X166.609 Y214.785 I-1.201 J-1.599
X163.596 Y214.998 I-1.414 J1.414
G3 X159.751 Y215.826 I-2.399 J-1.801
G2 X156.757 Y214.585 I-7.109 J12.924
G3 X154.624 Y211.282 I0.837 J-2.881
G2 X152.785 Y209.005 I-1.98 J-0.282
X150.644 Y211 I-0.141 J1.995
G3 X147.644 Y214 I-3
G1 X90.769
G3 X88.076 Y212.323 J-3
G2 X84.607 Y206.618 I-33.432 J16.427
G3 X85.063 Y202.563 I2.413 J-1.782
G2 X85.227 Y198.168 I-1.957 J-2.274
X80.832 Y198.331 I-2.121 J2.121
G3 X76.776 Y198.787 I-2.273 J-1.957
G2 X60.182 Y191.914 I-22.131 J29.963
G3 X57.636 Y188.723 I0.446 J-2.967
G2 X54.644 Y185.5 I-2.992 J-0.223
X51.653 Y188.723 J3
G3 X49.107 Y191.914 I-2.992 J0.224
G2 X32.513 Y198.787 I5.537 J36.836
G3 X28.457 Y198.331 I-1.782 J-2.413
G2 X24.062 Y198.168 I-2.274 J1.957
X24.226 Y202.562 I2.121 J2.121
G3 X24.682 Y206.618 I-1.957 J2.274
G2 Y250.882 I29.963 J22.132
G3 X24.226 Y254.938 I-2.413 J1.782
G2 X24.062 Y259.332 I1.957 J2.274
X28.457 Y259.169 I2.121 J-2.121
G3 X32.513 Y258.713 I2.273 J1.957
G2 X49.107 Y265.586 I22.131 J-29.963
G3 X51.653 Y268.776 I-0.446 J2.967
G2 X54.644 Y272 I2.992 J0.224
X57.636 Y268.776 J-3
G3 X60.182 Y265.586 I2.992 J-0.224
G2 X76.776 Y258.713 I-5.537 J-36.836
G3 X80.832 Y259.169 I1.782 J2.413
G2 X85.227 Y259.332 I2.274 J-1.958
X85.063 Y254.938 I-2.121 J-2.121
G3 X84.607 Y250.882 I1.957 J-2.274
G2 X88.076 Y245.177 I-29.963 J-22.131
G3 X90.769 Y243.5 I2.693 J1.323
G1 X144.699
X147.644 Z13.897 F300
G3 X150.644 Y246.5 Z13.733 J3
G2 X152.785 Y248.495 Z13.618 I2
X154.624 Y246.218 Z13.503 I-0.141 J-1.995
G3 X156.757 Y242.915 Z13.354 I2.97 J-0.422
G2 X159.751 Y241.674 Z13.24 I-4.115 J-14.164
G3 X163.596 Y242.502 Z13.09 I1.446 J2.629
G2 X166.609 Y242.715 Z12.971 I1.599 J-1.201
X166.396 Y239.702 Z12.851 I-1.414 J-1.414
G3 X165.569 Y235.858 Z12.702 I1.802 J-2.399
G2 X166.809 Y232.864 Z12.588 I-12.926 J-7.106
G3 X170.112 Y230.73 Z12.438 I2.881 J0.836
G2 X172.394 Y228.75 Z12.319 I0.282 J-1.98
X170.112 Y226.77 Z12.199 I-2
G3 X166.809 Y224.636 Z12.05 I-0.422 J-2.97
G2 X166.349 Y223.296 Z12 I-14.166 J4.112
X165.569 Y221.642 I-13.705 J5.453 F750
G3 X166.396 Y217.798 I2.629 J-1.445
G2 X166.609 Y214.785 I-1.201 J-1.599
X163.596 Y214.998 I-1.414 J1.414
G3 X159.751 Y215.826 I-2.399 J-1.801
G2 X156.757 Y214.585 I-7.109 J12.924
G3 X154.624 Y211.282 I0.837 J-2.881
G2 X152.785 Y209.005 I-1.98 J-0.282
X150.644 Y211 I-0.141 J1.995
G3 X147.644 Y214 I-3
G1 X90.769
G3 X88.076 Y212.323 J-3
G2 X84.607 Y206.618 I-33.432 J16.427
G3 X85.063 Y202.563 I2.413 J-1.782
G2 X85.227 Y198.168 I-1.957 J-2.274
X80.832 Y198.331 I-2.121 J2.121
G3 X76.776 Y198.787 I-2.273 J-1.957
G2 X60.182 Y191.914 I-22.131 J29.963
G3 X57.636 Y188.723 I0.446 J-2.967
G2 X54.644 Y185.5 I-2.992 J-0.223
X51.653 Y188.723 J3
G3 X49.107 Y191.914 I-2.992 J0.224
G2 X32.513 Y198.787 I5.537 J36.836
G3 X28.457 Y198.331 I-1.782 J-2.413
G2 X24.062 Y198.168 I-2.274 J1.957
X24.226 Y202.562 I2.121 J2.121
G3 X24.682 Y206.618 I-1.957 J2.274
G2 Y250.882 I29.963 J22.132
G3 X24.226 Y254.938 I-2.413 J1.782
G2 X24.062 Y259.332 I1.957 J2.274
X28.457 Y259.169 I2.121 J-2.121
G3 X32.513 Y258.713 I2.273 J1.957
G2 X49.107 Y265.586 I22.131 J-29.963
G3 X51.653 Y268.776 I-0.446 J2.967
G2 X54.644 Y272 I2.992 J0.224
X57.636 Y268.776 J-3
G3 X60.182 Y265.586 I2.992 J-0.224
G2 X76.776 Y258.713 I-5.537 J-36.836
G3 X80.832 Y259.169 I1.782 J2.413
G2 X85.227 Y259.332 I2.274 J-1.958
X85.063 Y254.938 I-2.121 J-2.121
G3 X84.607 Y250.882 I1.957 J-2.274
G2 X88.076 Y245.177 I-29.963 J-22.131
G3 X90.769 Y243.5 I2.693 J1.323
G1 X147.644
G3 X150.644 Y246.5 J3
G2 X152.785 Y248.495 I2
X154.624 Y246.218 I-0.141 J-1.995
G3 X156.757 Y242.915 I2.97 J-0.422
G2 X159.751 Y241.674 I-4.115 J-14.164
G3 X163.596 Y242.502 I1.446 J2.629
G2 X166.609 Y242.715 I1.599 J-1.201
X166.396 Y239.702 I-1.414 J-1.414
G3 X165.569 Y235.858 I1.802 J-2.399
G2 X166.809 Y232.864 I-12.926 J-7.106
G3 X170.112 Y230.73 I2.881 J0.836
G2 X172.394 Y228.75 I0.282 J-1.98
X170.112 Y226.77 I-2
G3 X166.809 Y224.636 I-0.422 J-2.97
G2 X166.349 Y223.296 I-14.166 J4.112
X165.569 Y221.642 Z11.936 I-13.705 J5.453 F300
G3 X166.396 Y217.798 Z11.786 I2.629 J-1.445
G2 X166.609 Y214.785 Z11.667 I-1.201 J-1.599
X163.596 Y214.998 Z11.547 I-1.414 J1.414
G3 X159.751 Y215.826 Z11.397 I-2.399 J-1.801
G2 X156.757 Y214.585 Z11.284 I-7.109 J12.924
G3 X154.624 Y211.282 Z11.134 I0.837 J-2.881
G2 X152.785 Y209.005 Z11.02 I-1.98 J-0.282
X150.644 Y211 Z10.905 I-0.141 J1.995
G3 X147.644 Y214 Z10.741 I-3
G1 X126.439 Z10
X90.769 F750
G3 X88.076 Y212.323 J-3
G2 X84.607 Y206.618 I-33.432 J16.427
G3 X85.063 Y202.563 I2.413 J-1.782
G2 X85.227 Y198.168 I-1.957 J-2.274
X80.832 Y198.331 I-2.121 J2.121
G3 X76.776 Y198.787 I-2.273 J-1.957
G2 X60.182 Y191.914 I-22.131 J29.963
G3 X57.636 Y188.723 I0.446 J-2.967
G2 X54.644 Y185.5 I-2.992 J-0.223
X51.653 Y188.723 J3
G3 X49.107 Y191.914 I-2.992 J0.224
G2 X32.513 Y198.787 I5.537 J36.836
G3 X28.457 Y198.331 I-1.782 J-2.413
G2 X24.062 Y198.168 I-2.274 J1.957
X24.226 Y202.562 I2.121 J2.121
G3 X24.682 Y206.618 I-1.957 J2.274
G2 Y250.882 I29.963 J22.132
G3 X24.226 Y254.938 I-2.413 J1.782
G2 X24.062 Y259.332 I1.957 J2.274
X28.457 Y259.169 I2.121 J-2.121
G3 X32.513 Y258.713 I2.273 J1.957
G2 X49.107 Y265.586 I22.131 J-29.963
G3 X51.653 Y268.776 I-0.446 J2.967
G2 X54.644 Y272 I2.992 J0.224
X57.636 Y268.776 J-3
G3 X60.182 Y265.586 I2.992 J-0.224
G2 X76.776 Y258.713 I-5.537 J-36.836
G3 X80.832 Y259.169 I1.782 J2.413
G2 X85.227 Y259.332 I2.274 J-1.958
X85.063 Y254.938 I-2.121 J-2.121
G3 X84.607 Y250.882 I1.957 J-2.274
G2 X88.076 Y245.177 I-29.963 J-22.131
G3 X90.769 Y243.5 I2.693 J1.323
G1 X147.644
G3 X150.644 Y246.5 J3
G2 X152.785 Y248.495 I2
X154.624 Y246.218 I-0.141 J-1.995
G3 X156.757 Y242.915 I2.97 J-0.422
G2 X159.751 Y241.674 I-4.115 J-14.164
G3 X163.596 Y242.502 I1.446 J2.629
G2 X166.609 Y242.715 I1.599 J-1.201
X166.396 Y239.702 I-1.414 J-1.414
G3 X165.569 Y235.858 I1.802 J-2.399
G2 X166.809 Y232.864 I-12.926 J-7.106
G3 X170.112 Y230.73 I2.881 J0.836
G2 X172.394 Y228.75 I0.282 J-1.98
X170.112 Y226.77 I-2
G3 X166.809 Y224.636 I-0.422 J-2.97
G2 X165.569 Y221.642 I-14.166 J4.112
G3 X166.396 Y217.798 I2.629 J-1.445
G2 X166.609 Y214.785 I-1.201 J-1.599
X163.596 Y214.998 I-1.414 J1.414
G3 X159.751 Y215.826 I-2.399 J-1.801
G2 X156.757 Y214.585 I-7.109 J12.924
G3 X154.624 Y211.282 I0.837 J-2.881
G2 X152.785 Y209.005 I-1.98 J-0.282
X150.644 Y211 I-0.141 J1.995
G3 X147.644 Y214 I-3
G1 X126.439
X90.769 Z8.754 F300
G3 X88.076 Y212.323 Z8.638 J-3
G2 X84.607 Y206.618 Z8.404 I-33.432 J16.427
G3 X85.063 Y202.563 Z8.247 I2.413 J-1.782
G2 X83.311 Y197.296 Z8 I-1.957 J-2.274
X80.832 Y198.331 I-0.206 J2.993 F750
G3 X76.776 Y198.787 I-2.273 J-1.957
G2 X60.182 Y191.914 I-22.131 J29.963
G3 X57.636 Y188.723 I0.446 J-2.967
G2 X54.644 Y185.5 I-2.992 J-0.223
X51.653 Y188.723 J3
G3 X49.107 Y191.914 I-2.992 J0.224
G2 X32.513 Y198.787 I5.537 J36.836
G3 X28.457 Y198.331 I-1.782 J-2.413
G2 X24.062 Y198.168 I-2.274 J1.957
X24.226 Y202.562 I2.121 J2.121
G3 X24.682 Y206.618 I-1.957 J2.274
G2 Y250.882 I29.963 J22.132
G3 X24.226 Y254.938 I-2.413 J1.782
G2 X24.062 Y259.332 I1.957 J2.274
X28.457 Y259.169 I2.121 J-2.121
G3 X32.513 Y258.713 I2.273 J1.957
G2 X49.107 Y265.586 I22.131 J-29.963
G3 X51.653 Y268.776 I-0.446 J2.967
G2 X54.644 Y272 I2.992 J0.224
X57.636 Y268.776 J-3
G3 X60.182 Y265.586 I2.992 J-0.224
G2 X76.776 Y258.713 I-5.537 J-36.836
G3 X80.832 Y259.169 I1.782 J2.413
G2 X85.227 Y259.332 I2.274 J-1.958
X85.063 Y254.938 I-2.121 J-2.121
G3 X84.607 Y250.882 I1.957 J-2.274
G2 X88.076 Y245.177 I-29.963 J-22.131
G3 X90.769 Y243.5 I2.693 J1.323
G1 X147.644
G3 X150.644 Y246.5 J3
G2 X152.785 Y248.495 I2
X154.624 Y246.218 I-0.141 J-1.995
G3 X156.757 Y242.915 I2.97 J-0.422
G2 X159.751 Y241.674 I-4.115 J-14.164
G3 X163.596 Y242.502 I1.446 J2.629
G2 X166.609 Y242.715 I1.599 J-1.201
X166.396 Y239.702 I-1.414 J-1.414
G3 X165.569 Y235.858 I1.802 J-2.399
G2 X166.809 Y232.864 I-12.926 J-7.106
G3 X170.112 Y230.73 I2.881 J0.836
G2 X172.394 Y228.75 I0.282 J-1.98
X170.112 Y226.77 I-2
G3 X166.809 Y224.636 I-0.422 J-2.97
G2 X165.569 Y221.642 I-14.166 J4.112
G3 X166.396 Y217.798 I2.629 J-1.445
G2 X166.609 Y214.785 I-1.201 J-1.599
X163.596 Y214.998 I-1.414 J1.414
G3 X159.751 Y215.826 I-2.399 J-1.801
G2 X156.757 Y214.585 I-7.109 J12.924
G3 X154.624 Y211.282 I0.837 J-2.881
G2 X152.785 Y209.005 I-1.98 J-0.282
X150.644 Y211 I-0.141 J1.995
G3 X147.644 Y214 I-3
G1 X90.769
G3 X88.076 Y212.323 J-3
G2 X84.607 Y206.618 I-33.432 J16.427
G3 X85.063 Y202.563 I2.413 J-1.782
G2 X83.311 Y197.296 I-1.957 J-2.274
X80.832 Y198.331 Z7.903 I-0.206 J2.993 F300
G3 X76.776 Y198.787 Z7.746 I-2.273 J-1.957
G2 X60.182 Y191.914 Z7.112 I-22.131 J29.963
G3 X57.636 Y188.723 Z6.956 I0.446 J-2.967
G2 X54.644 Y185.5 Z6.783 I-2.992 J-0.223
X51.653 Y188.723 Z6.611 J3
G3 X49.107 Y191.914 Z6.454 I-2.992 J0.224
G2 X36.837 Y196.032 Z6 I5.537 J36.836
X32.513 Y198.787 I17.807 J32.718 F750
G3 X28.457 Y198.331 I-1.782 J-2.413
G2 X24.062 Y198.168 I-2.274 J1.957
X24.226 Y202.562 I2.121 J2.121
G3 X24.682 Y206.618 I-1.957 J2.274
G2 Y250.882 I29.963 J22.132
G3 X24.226 Y254.938 I-2.413 J1.782
G2 X24.062 Y259.332 I1.957 J2.274
X28.457 Y259.169 I2.121 J-2.121
G3 X32.513 Y258.713 I2.273 J1.957
G2 X49.107 Y265.586 I22.131 J-29.963
G3 X51.653 Y268.776 I-0.446 J2.967
G2 X54.644 Y272 I2.992 J0.224
X57.636 Y268.776 J-3
G3 X60.182 Y265.586 I2.992 J-0.224
G2 X76.776 Y258.713 I-5.537 J-36.836
G3 X80.832 Y259.169 I1.782 J2.413
G2 X85.227 Y259.332 I2.274 J-1.958
X85.063 Y254.938 I-2.121 J-2.121
G3 X84.607 Y250.882 I1.957 J-2.274
G2 X88.076 Y245.177 I-29.963 J-22.131
G3 X90.769 Y243.5 I2.693 J1.323
G1 X147.644
G3 X150.644 Y246.5 J3
G2 X152.785 Y248.495 I2
X154.624 Y246.218 I-0.141 J-1.995
G3 X156.757 Y242.915 I2.97 J-0.422
G2 X159.751 Y241.674 I-4.115 J-14.164
G3 X163.596 Y242.502 I1.446 J2.629
G2 X166.609 Y242.715 I1.599 J-1.201
X166.396 Y239.702 I-1.414 J-1.414
G3 X165.569 Y235.858 I1.802 J-2.399
G2 X166.809 Y232.864 I-12.926 J-7.106
G3 X170.112 Y230.73 I2.881 J0.836
G2 X172.394 Y228.75 I0.282 J-1.98
X170.112 Y226.77 I-2
G3 X166.809 Y224.636 I-0.422 J-2.97
G2 X165.569 Y221.642 I-14.166 J4.112
G3 X166.396 Y217.798 I2.629 J-1.445
G2 X166.609 Y214.785 I-1.201 J-1.599
X163.596 Y214.998 I-1.414 J1.414
G3 X159.751 Y215.826 I-2.399 J-1.801
G2 X156.757 Y214.585 I-7.109 J12.924
G3 X154.624 Y211.282 I0.837 J-2.881
G2 X152.785 Y209.005 I-1.98 J-0.282
X150.644 Y211 I-0.141 J1.995
G3 X147.644 Y214 I-3
G1 X90.769
G3 X88.076 Y212.323 J-3
G2 X84.607 Y206.618 I-33.432 J16.427
G3 X85.063 Y202.563 I2.413 J-1.782
G2 X85.227 Y198.168 I-1.957 J-2.274
X80.832 Y198.331 I-2.121 J2.121
G3 X76.776 Y198.787 I-2.273 J-1.957
G2 X60.182 Y191.914 I-22.131 J29.963
G3 X57.636 Y188.723 I0.446 J-2.967
G2 X54.644 Y185.5 I-2.992 J-0.223
X51.653 Y188.723 J3
G3 X49.107 Y191.914 I-2.992 J0.224
G2 X36.837 Y196.032 I5.537 J36.836
X32.513 Y198.787 Z5.821 I17.807 J32.718 F300
G3 X28.457 Y198.331 Z5.664 I-1.782 J-2.413
G2 X24.062 Y198.168 Z5.492 I-2.274 J1.957
X24.226 Y202.562 Z5.319 I2.121 J2.121
G3 X24.682 Y206.618 Z5.163 I-1.957 J2.274
G2 X18.623 Y238.237 Z4 I29.963 J22.132
X24.682 Y250.882 I36.022 J-9.487 F750
G3 X24.226 Y254.938 I-2.413 J1.782
G2 X24.062 Y259.332 I1.957 J2.274
X28.457 Y259.169 I2.121 J-2.121
G3 X32.513 Y258.713 I2.273 J1.957
G2 X49.107 Y265.586 I22.131 J-29.963
G3 X51.653 Y268.776 I-0.446 J2.967
G2 X54.644 Y272 I2.992 J0.224
X57.636 Y268.776 J-3
G3 X60.182 Y265.586 I2.992 J-0.224
G2 X76.776 Y258.713 I-5.537 J-36.836
G3 X80.832 Y259.169 I1.782 J2.413
G2 X85.227 Y259.332 I2.274 J-1.958
X85.063 Y254.938 I-2.121 J-2.121
G3 X84.607 Y250.882 I1.957 J-2.274
G2 X88.076 Y245.177 I-29.963 J-22.131
G3 X90.769 Y243.5 I2.693 J1.323
G1 X147.644
G3 X150.644 Y246.5 J3
G2 X152.785 Y248.495 I2
X154.624 Y246.218 I-0.141 J-1.995
G3 X156.757 Y242.915 I2.97 J-0.422
G2 X159.751 Y241.674 I-4.115 J-14.164
G3 X163.596 Y242.502 I1.446 J2.629
G2 X166.609 Y242.715 I1.599 J-1.201
X166.396 Y239.702 I-1.414 J-1.414
G3 X165.569 Y235.858 I1.802 J-2.399
G2 X166.809 Y232.864 I-12.926 J-7.106
G3 X170.112 Y230.73 I2.881 J0.836
G2 X172.394 Y228.75 I0.282 J-1.98
X170.112 Y226.77 I-2
G3 X166.809 Y224.636 I-0.422 J-2.97
G2 X165.569 Y221.642 I-14.166 J4.112
G3 X166.396 Y217.798 I2.629 J-1.445
G2 X166.609 Y214.785 I-1.201 J-1.599
X163.596 Y214.998 I-1.414 J1.414
G3 X159.751 Y215.826 I-2.399 J-1.801
G2 X156.757 Y214.585 I-7.109 J12.924
G3 X154.624 Y211.282 I0.837 J-2.881
G2 X152.785 Y209.005 I-1.98 J-0.282
X150.644 Y211 I-0.141 J1.995
G3 X147.644 Y214 I-3
G1 X90.769
G3 X88.076 Y212.323 J-3
G2 X84.607 Y206.618 I-33.432 J16.427
G3 X85.063 Y202.563 I2.413 J-1.782
G2 X85.227 Y198.168 I-1.957 J-2.274
X80.832 Y198.331 I-2.121 J2.121
G3 X76.776 Y198.787 I-2.273 J-1.957
G2 X60.182 Y191.914 I-22.131 J29.963
G3 X57.636 Y188.723 I0.446 J-2.967
G2 X54.644 Y185.5 I-2.992 J-0.223
X51.653 Y188.723 J3
G3 X49.107 Y191.914 I-2.992 J0.224
G2 X32.513 Y198.787 I5.537 J36.836
G3 X28.457 Y198.331 I-1.782 J-2.413
G2 X24.062 Y198.168 I-2.274 J1.957
X24.226 Y202.562 I2.121 J2.121
G3 X24.682 Y206.618 I-1.957 J2.274
G2 X18.623 Y238.237 I29.963 J22.132
X24.682 Y250.882 Z3.507 I36.022 J-9.487 F300
G3 X24.226 Y254.938 Z3.351 I-2.413 J1.782
G2 X24.062 Y259.332 Z3.178 I1.957 J2.274
X28.457 Y259.169 Z3.006 I2.121 J-2.121
G3 X32.513 Y258.713 Z2.849 I2.273 J1.957
G2 X49.107 Y265.586 Z2.216 I22.131 J-29.963
G3 X51.653 Y268.776 Z2.059 I-0.446 J2.967
G2 X51.995 Y270.408 Z2 I2.992 J0.224
X54.644 Y272 I2.649 J-1.408 F750
X57.636 Y268.776 J-3
G3 X60.182 Y265.586 I2.992 J-0.224
G2 X76.776 Y258.713 I-5.537 J-36.836
G3 X80.832 Y259.169 I1.782 J2.413
G2 X85.227 Y259.332 I2.274 J-1.958
X85.063 Y254.938 I-2.121 J-2.121
G3 X84.607 Y250.882 I1.957 J-2.274
G2 X88.076 Y245.177 I-29.963 J-22.131
G3 X90.769 Y243.5 I2.693 J1.323
G1 X147.644
G3 X150.644 Y246.5 J3
G2 X152.785 Y248.495 I2
X154.624 Y246.218 I-0.141 J-1.995
G3 X156.757 Y242.915 I2.97 J-0.422
G2 X159.751 Y241.674 I-4.115 J-14.164
G3 X163.596 Y242.502 I1.446 J2.629
G2 X166.609 Y242.715 I1.599 J-1.201
X166.396 Y239.702 I-1.414 J-1.414
G3 X165.569 Y235.858 I1.802 J-2.399
G2 X166.809 Y232.864 I-12.926 J-7.106
G3 X170.112 Y230.73 I2.881 J0.836
G2 X172.394 Y228.75 I0.282 J-1.98
X170.112 Y226.77 I-2
G3 X166.809 Y224.636 I-0.422 J-2.97
G2 X165.569 Y221.642 I-14.166 J4.112
G3 X166.396 Y217.798 I2.629 J-1.445
G2 X166.609 Y214.785 I-1.201 J-1.599
X163.596 Y214.998 I-1.414 J1.414
G3 X159.751 Y215.826 I-2.399 J-1.801
G2 X156.757 Y214.585 I-7.109 J12.924
G3 X154.624 Y211.282 I0.837 J-2.881
G2 X152.785 Y209.005 I-1.98 J-0.282
X150.644 Y211 I-0.141 J1.995
G3 X147.644 Y214 I-3
G1 X90.769
G3 X88.076 Y212.323 J-3
G2 X84.607 Y206.618 I-33.432 J16.427
G3 X85.063 Y202.563 I2.413 J-1.782
G2 X85.227 Y198.168 I-1.957 J-2.274
X80.832 Y198.331 I-2.121 J2.121
G3 X76.776 Y198.787 I-2.273 J-1.957
G2 X60.182 Y191.914 I-22.131 J29.963
G3 X57.636 Y188.723 I0.446 J-2.967
G2 X54.644 Y185.5 I-2.992 J-0.223
X51.653 Y188.723 J3
G3 X49.107 Y191.914 I-2.992 J0.224
G2 X32.513 Y198.787 I5.537 J36.836
G3 X28.457 Y198.331 I-1.782 J-2.413
G2 X24.062 Y198.168 I-2.274 J1.957
X24.226 Y202.562 I2.121 J2.121
G3 X24.682 Y206.618 I-1.957 J2.274
G2 Y250.882 I29.963 J22.132
G3 X24.226 Y254.938 I-2.413 J1.782
G2 X24.062 Y259.332 I1.957 J2.274
X28.457 Y259.169 I2.121 J-2.121
G3 X32.513 Y258.713 I2.273 J1.957
G2 X49.107 Y265.586 I22.131 J-29.963
G3 X51.653 Y268.776 I-0.446 J2.967
G2 X51.995 Y270.408 I2.992 J0.224
X54.644 Y272 Z1.887 I2.649 J-1.408 F300
X57.636 Y268.776 Z1.714 J-3
G3 X60.182 Y265.586 Z1.557 I2.992 J-0.224
G2 X76.776 Y258.713 Z0.924 I-5.537 J-36.836
G3 X80.832 Y259.169 Z0.767 I1.782 J2.413
G2 X85.227 Y259.332 Z0.595 I2.274 J-1.958
X85.063 Y254.938 Z0.423 I-2.121 J-2.121
G3 X84.607 Y250.882 Z0.266 I1.957 J-2.274
G2 X88.076 Y245.177 Z0.032 I-29.963 J-22.131
G3 X88.605 Y244.422 Z0 I2.693 J1.323
X90.769 Y243.5 I2.164 J2.078 F750
G1 X114.207
Z1.5
X124.207
Z0 F30
X147.644 F750
G3 X150.644 Y246.5 J3
G2 X152.785 Y248.495 I2
X154.624 Y246.218 I-0.141 J-1.995
G3 X156.757 Y242.915 I2.97 J-0.422
G2 X159.751 Y241.674 I-4.115 J-14.164
G3 X163.596 Y242.502 I1.446 J2.629
G2 X166.609 Y242.715 I1.599 J-1.201
X166.396 Y239.702 I-1.414 J-1.414
G3 X165.569 Y235.858 I1.802 J-2.399
G2 X166.809 Y232.864 I-12.926 J-7.106
G3 X170.112 Y230.73 I2.881 J0.836
G2 X172.394 Y228.75 I0.282 J-1.98
X170.112 Y226.77 I-2
G3 X166.809 Y224.636 I-0.422 J-2.97
G2 X165.569 Y221.642 I-14.166 J4.112
G3 X166.396 Y217.798 I2.629 J-1.445
G2 X166.609 Y214.785 I-1.201 J-1.599
X163.596 Y214.998 I-1.414 J1.414
G3 X159.751 Y215.826 I-2.399 J-1.801
G2 X156.757 Y214.585 I-7.109 J12.924
G3 X154.624 Y211.282 I0.837 J-2.881
G2 X152.785 Y209.005 I-1.98 J-0.282
X150.644 Y211 I-0.141 J1.995
G3 X147.644 Y214 I-3
G1 X124.207
Z1.5
X114.207
Z0 F30
X90.769 F750
G3 X88.076 Y212.323 J-3
G2 X84.607 Y206.618 I-33.432 J16.427
G3 X85.063 Y202.563 I2.413 J-1.782
G2 X85.227 Y198.168 I-1.957 J-2.274
X80.832 Y198.331 I-2.121 J2.121
G3 X76.776 Y198.787 I-2.273 J-1.957
G2 X60.182 Y191.914 I-22.131 J29.963
G3 X57.636 Y188.723 I0.446 J-2.967
G2 X54.644 Y185.5 I-2.992 J-0.223
X51.653 Y188.723 J3
G3 X49.107 Y191.914 I-2.992 J0.224
G2 X32.513 Y198.787 I5.537 J36.836
G3 X28.457 Y198.331 I-1.782 J-2.413
G2 X24.062 Y198.168 I-2.274 J1.957
X24.226 Y202.562 I2.121 J2.121
G3 X24.682 Y206.618 I-1.957 J2.274
G2 X17.731 Y223.75 I29.963 J22.132
G1 Z1.5
G2 Y233.75 I36.913 J5
G1 Z0 F30
G2 X24.682 Y250.882 I36.913 J-5 F750
G3 X24.226 Y254.938 I-2.413 J1.782
G2 X24.062 Y259.332 I1.957 J2.274
X28.457 Y259.169 I2.121 J-2.121
G3 X32.513 Y258.713 I2.273 J1.957
G2 X49.107 Y265.586 I22.131 J-29.963
G3 X51.653 Y268.776 I-0.446 J2.967
G2 X54.644 Y272 I2.992 J0.224
X57.636 Y268.776 J-3
G3 X60.182 Y265.586 I2.992 J-0.224
G2 X76.776 Y258.713 I-5.537 J-36.836
G3 X80.832 Y259.169 I1.782 J2.413
G2 X85.227 Y259.332 I2.274 J-1.958
X85.063 Y254.938 I-2.121 J-2.121
G3 X84.607 Y250.882 I1.957 J-2.274
G2 X88.076 Y245.177 I-29.963 J-22.131
G3 X90.769 Y243.5 I2.693 J1.323
G1 X114.207
Z1.5
X124.207
Z0 F30
X147.644 F750
G3 X150.644 Y246.5 J3
G2 X152.785 Y248.495 I2
X154.624 Y246.218 I-0.141 J-1.995
G3 X156.757 Y242.915 I2.97 J-0.422
G2 X159.751 Y241.674 I-4.115 J-14.164
G3 X163.596 Y242.502 I1.446 J2.629
G2 X166.609 Y242.715 I1.599 J-1.201
X166.396 Y239.702 I-1.414 J-1.414
G3 X165.569 Y235.858 I1.802 J-2.399
G2 X166.809 Y232.864 I-12.926 J-7.106
G3 X170.112 Y230.73 I2.881 J0.836
G2 X172.394 Y228.75 I0.282 J-1.98
X170.112 Y226.77 I-2
G3 X166.809 Y224.636 I-0.422 J-2.97
G2 X165.569 Y221.642 I-14.166 J4.112
G3 X166.396 Y217.798 I2.629 J-1.445
G2 X166.609 Y214.785 I-1.201 J-1.599
X163.596 Y214.998 I-1.414 J1.414
G3 X159.751 Y215.826 I-2.399 J-1.801
G2 X156.757 Y214.585 I-7.109 J12.924
G3 X154.624 Y211.282 I0.837 J-2.881
G2 X152.785 Y209.005 I-1.98 J-0.282
X150.644 Y211 I-0.141 J1.995
G3 X147.644 Y214 I-3
G1 X124.207
Z1.5
X114.207
Z0 F30
X90.769 F750
G3 X88.076 Y212.323 J-3
G2 X84.607 Y206.618 I-33.432 J16.427
G3 X85.063 Y202.563 I2.413 J-1.782
G2 X85.227 Y198.168 I-1.957 J-2.274
X80.832 Y198.331 I-2.121 J2.121
G3 X76.776 Y198.787 I-2.273 J-1.957
G2 X60.182 Y191.914 I-22.131 J29.963
G3 X57.636 Y188.723 I0.446 J-2.967
G2 X54.644 Y185.5 I-2.992 J-0.223
X51.653 Y188.723 J3
G3 X49.107 Y191.914 I-2.992 J0.224
G2 X32.513 Y198.787 I5.537 J36.836
G3 X28.457 Y198.331 I-1.782 J-2.413
G2 X24.062 Y198.168 I-2.274 J1.957
X24.226 Y202.562 I2.121 J2.121
G3 X24.682 Y206.618 I-1.957 J2.274
G2 X17.731 Y223.75 I29.963 J22.132
G1 Z1.5
G2 Y233.75 I36.913 J5
G1 Z0 F30
G2 X24.682 Y250.882 I36.913 J-5 F750
G3 X24.226 Y254.938 I-2.413 J1.782
G2 X24.062 Y259.332 I1.957 J2.274
X28.457 Y259.169 I2.121 J-2.121
G3 X32.513 Y258.713 I2.273 J1.957
G2 X49.107 Y265.586 I22.131 J-29.963
G3 X51.653 Y268.776 I-0.446 J2.967
G2 X54.644 Y272 I2.992 J0.224
X57.636 Y268.776 J-3
G3 X60.182 Y265.586 I2.992 J-0.224
G2 X76.776 Y258.713 I-5.537 J-36.836
G3 X80.832 Y259.169 I1.782 J2.413
G2 X85.227 Y259.332 I2.274 J-1.958
X85.063 Y254.938 I-2.121 J-2.121
G3 X84.607 Y250.882 I1.957 J-2.274
G2 X88.076 Y245.177 I-29.963 J-22.131
G3 X88.605 Y244.422 I2.693 J1.323
G2 X88.588 Y243.574 I-0.433 J-0.416 F300
G1 X88.155 Y243.158
X88.088 Y243.093 Z0.007
X88.022 Y243.03 Z0.029
X87.959 Y242.969 Z0.065
X87.901 Y242.914 Z0.115
X87.849 Y242.864 Z0.176
X87.805 Y242.822 Z0.247
X87.77 Y242.788 Z0.328
X87.744 Y242.763 Z0.415
X87.728 Y242.747 Z0.506
X87.723 Y242.742 Z0.6
G0 Z23
X33.401 Y325.689
G1 Z21.1 F300
X33.398 Y325.682 Z21.006 F30
X33.391 Y325.661 Z20.915
X33.38 Y325.626 Z20.828
X33.365 Y325.58 Z20.747
X33.346 Y325.522 Z20.676
X33.324 Y325.454 Z20.615
X33.299 Y325.377 Z20.565
X33.272 Y325.295 Z20.529
X33.243 Y325.208 Z20.507
X33.214 Y325.118 Z20.5
X33.027 Y324.548 F300
G2 X32.27 Y324.165 I-0.57 J0.187
G3 X29.062 Y323.271 Z20.377 I-0.934 J-2.851
G2 X24.667 Y323.107 Z20.204 I-2.274 J1.957
X24.831 Y327.502 Z20.032 I2.121 J2.121
G3 X25.287 Y331.558 Z19.875 I-1.957 J2.274
G2 X18.414 Y348.152 Z19.242 I29.962 J22.132
G3 X15.224 Y350.698 Z19.085 I-2.967 J-0.446
G2 X12 Y353.69 Z18.913 I-0.224 J2.992
X15.224 Y356.681 Z18.74 I3
G3 X18.414 Y359.227 Z18.583 I0.224 J2.992
G2 X25.287 Y375.822 Z17.95 I36.836 J-5.537
G3 X24.832 Y379.878 Z17.793 I-2.413 J1.782
G2 X24.668 Y384.272 Z17.621 I1.957 J2.273
X29.062 Y384.108 Z17.449 I2.121 J-2.121
G3 X33.118 Y383.652 Z17.292 I2.274 J1.957
G2 X49.713 Y390.525 Z16.658 I22.131 J-29.962
G3 X52.258 Y393.716 Z16.502 I-0.446 J2.967
G2 X55.25 Y396.94 Z16.329 I2.992 J0.224
X58.242 Y393.716 Z16.157 J-3
G3 X60.787 Y390.525 Z16 I2.992 J-0.224
G2 X77.382 Y383.652 I-5.537 J-36.836 F750
G3 X81.438 Y384.108 I1.782 J2.413
G2 X85.832 Y384.272 I2.273 J-1.957
X85.668 Y379.878 I-2.121 J-2.121
G3 X85.213 Y375.822 I1.957 J-2.273
G2 X88.568 Y370.348 I-29.963 J-22.132
G3 X91.251 Y368.69 I2.683 J1.342
G1 X148.5
G3 X151.5 Y371.69 J3
G2 X153.64 Y373.685 I2
X155.481 Y371.412 I-0.139 J-1.995
G3 X157.627 Y368.111 I2.971 J-0.417
G2 X160.78 Y366.805 I-4.125 J-14.421
G3 X164.631 Y367.621 I1.456 J2.623
G2 X167.642 Y367.831 I1.597 J-1.204
X167.432 Y364.82 I-1.414 J-1.414
G3 X166.615 Y360.969 I1.806 J-2.395
G2 X167.922 Y357.815 I-13.114 J-7.282
G3 X171.222 Y355.67 I2.884 J0.826
G2 X173.5 Y353.69 I0.278 J-1.981
X171.222 Y351.709 I-2
G3 X167.922 Y349.564 I-0.416 J-2.971
G2 X166.615 Y346.41 I-14.421 J4.128
G3 X167.432 Y342.559 I2.623 J-1.456
G2 X167.642 Y339.548 I-1.204 J-1.597
X164.631 Y339.758 I-1.414 J1.414
G3 X160.78 Y340.574 I-2.395 J-1.807
G2 X157.627 Y339.268 I-7.279 J13.116
G3 X155.481 Y335.968 I0.825 J-2.884
G2 X153.639 Y333.695 I-1.981 J-0.278
X151.5 Y335.69 I-0.139 J1.995
G3 X148.5 Y338.69 I-3
G1 X91.251
G3 X88.568 Y337.032 J-3
G2 X85.213 Y331.558 I-33.318 J16.658
G3 X85.669 Y327.502 I2.413 J-1.782
G2 X85.833 Y323.107 I-1.957 J-2.274
X81.438 Y323.271 I-2.121 J2.121
G3 X77.382 Y323.727 I-2.274 J-1.957
G2 X60.787 Y316.854 I-22.131 J29.963
G3 X58.242 Y313.664 I0.446 J-2.967
G2 X55.25 Y310.44 I-2.992 J-0.224
X52.258 Y313.664 J3
G3 X49.713 Y316.854 I-2.992 J0.223
G2 X33.118 Y323.727 I5.537 J36.836
G3 X29.062 Y323.271 I-1.782 J-2.413
G2 X24.667 Y323.107 I-2.274 J1.957
X24.831 Y327.502 I2.121 J2.121
G3 X25.287 Y331.558 I-1.957 J2.274
G2 X18.414 Y348.152 I29.962 J22.132
G3 X15.224 Y350.698 I-2.967 J-0.446
G2 X12 Y353.69 I-0.224 J2.992
X15.224 Y356.681 I3
G3 X18.414 Y359.227 I0.224 J2.992
G2 X25.287 Y375.822 I36.836 J-5.537
G3 X24.832 Y379.878 I-2.413 J1.782
G2 X24.668 Y384.272 I1.957 J2.273
X29.062 Y384.108 I2.121 J-2.121
G3 X33.118 Y383.652 I2.274 J1.957
G2 X49.713 Y390.525 I22.131 J-29.962
G3 X52.258 Y393.716 I-0.446 J2.967
G2 X55.25 Y396.94 I2.992 J0.224
X58.242 Y393.716 J-3
G3 X60.787 Y390.525 I2.992 J-0.224
G2 X77.382 Y383.652 Z15.367 I-5.537 J-36.836 F300
G3 X81.438 Y384.108 Z15.21 I1.782 J2.413
G2 X85.832 Y384.272 Z15.037 I2.273 J-1.957
X85.668 Y379.878 Z14.865 I-2.121 J-2.121
G3 X85.213 Y375.822 Z14.708 I1.957 J-2.273
G2 X88.568 Y370.348 Z14.484 I-29.963 J-22.132
G3 X91.251 Y368.69 Z14.368 I2.683 J1.342
G1 X101.785 Z14
X148.5 F750
G3 X151.5 Y371.69 J3
G2 X153.64 Y373.685 I2
X155.481 Y371.412 I-0.139 J-1.995
G3 X157.627 Y368.111 I2.971 J-0.417
G2 X160.78 Y366.805 I-4.125 J-14.421
G3 X164.631 Y367.621 I1.456 J2.623
G2 X167.642 Y367.831 I1.597 J-1.204
X167.432 Y364.82 I-1.414 J-1.414
G3 X166.615 Y360.969 I1.806 J-2.395
G2 X167.922 Y357.815 I-13.114 J-7.282
G3 X171.222 Y355.67 I2.884 J0.826
G2 X173.5 Y353.69 I0.278 J-1.981
X171.222 Y351.709 I-2
G3 X167.922 Y349.564 I-0.416 J-2.971
G2 X166.615 Y346.41 I-14.421 J4.128
G3 X167.432 Y342.559 I2.623 J-1.456
G2 X167.642 Y339.548 I-1.204 J-1.597
X164.631 Y339.758 I-1.414 J1.414
G3 X160.78 Y340.574 I-2.395 J-1.807
G2 X157.627 Y339.268 I-7.279 J13.116
G3 X155.481 Y335.968 I0.825 J-2.884
G2 X153.639 Y333.695 I-1.981 J-0.278
X151.5 Y335.69 I-0.139 J1.995
G3 X148.5 Y338.69 I-3
G1 X91.251
G3 X88.568 Y337.032 J-3
G2 X85.213 Y331.558 I-33.318 J16.658
G3 X85.669 Y327.502 I2.413 J-1.782
G2 X85.833 Y323.107 I-1.957 J-2.274
X81.438 Y323.271 I-2.121 J2.121
G3 X77.382 Y323.727 I-2.274 J-1.957
G2 X60.787 Y316.854 I-22.131 J29.963
G3 X58.242 Y313.664 I0.446 J-2.967
G2 X55.25 Y310.44 I-2.992 J-0.224
X52.258 Y313.664 J3
G3 X49.713 Y316.854 I-2.992 J0.223
G2 X33.118 Y323.727 I5.537 J36.836
G3 X29.062 Y323.271 I-1.782 J-2.413
G2 X24.667 Y323.107 I-2.274 J1.957
X24.831 Y327.502 I2.121 J2.121
G3 X25.287 Y331.558 I-1.957 J2.274
G2 X18.414 Y348.152 I29.962 J22.132
G3 X15.224 Y350.698 I-2.967 J-0.446
G2 X12 Y353.69 I-0.224 J2.992
X15.224 Y356.681 I3
G3 X18.414 Y359.227 I0.224 J2.992
G2 X25.287 Y375.822 I36.836 J-5.537
G3 X24.832 Y379.878 I-2.413 J1.782
G2 X24.668 Y384.272 I1.957 J2.273
X29.062 Y384.108 I2.121 J-2.121
G3 X33.118 Y383.652 I2.274 J1.957
G2 X49.713 Y390.525 I22.131 J-29.962
G3 X52.258 Y393.716 I-0.446 J2.967
G2 X55.25 Y396.94 I2.992 J0.224
X58.242 Y393.716 J-3
G3 X60.787 Y390.525 I2.992 J-0.224
G2 X77.382 Y383.652 I-5.537 J-36.836
G3 X81.438 Y384.108 I1.782 J2.413
G2 X85.832 Y384.272 I2.273 J-1.957
X85.668 Y379.878 I-2.121 J-2.121
G3 X85.213 Y375.822 I1.957 J-2.273
G2 X88.568 Y370.348 I-29.963 J-22.132
G3 X91.251 Y368.69 I2.683 J1.342
G1 X101.785
X148.5 Z12.369 F300
G3 X151.5 Y371.69 Z12.204 J3
G2 X153.64 Y373.685 Z12.09 I2
X155.453 Y372.125 Z12 I-0.139 J-1.995
X155.481 Y371.412 I-1.952 J-0.435 F750
G3 X157.627 Y368.111 I2.971 J-0.417
G2 X160.78 Y366.805 I-4.125 J-14.421
G3 X164.631 Y367.621 I1.456 J2.623
G2 X167.642 Y367.831 I1.597 J-1.204
X167.432 Y364.82 I-1.414 J-1.414
G3 X166.615 Y360.969 I1.806 J-2.395
G2 X167.922 Y357.815 I-13.114 J-7.282
G3 X171.222 Y355.67 I2.884 J0.826
G2 X173.5 Y353.69 I0.278 J-1.981
X171.222 Y351.709 I-2
G3 X167.922 Y349.564 I-0.416 J-2.971
G2 X166.615 Y346.41 I-14.421 J4.128
G3 X167.432 Y342.559 I2.623 J-1.456
G2 X167.642 Y339.548 I-1.204 J-1.597
X164.631 Y339.758 I-1.414 J1.414
G3 X160.78 Y340.574 I-2.395 J-1.807
G2 X157.627 Y339.268 I-7.279 J13.116
G3 X155.481 Y335.968 I0.825 J-2.884
G2 X153.639 Y333.695 I-1.981 J-0.278
X151.5 Y335.69 I-0.139 J1.995
G3 X148.5 Y338.69 I-3
G1 X91.251
G3 X88.568 Y337.032 J-3
G2 X85.213 Y331.558 I-33.318 J16.658
G3 X85.669 Y327.502 I2.413 J-1.782
G2 X85.833 Y323.107 I-1.957 J-2.274
X81.438 Y323.271 I-2.121 J2.121
G3 X77.382 Y323.727 I-2.274 J-1.957
G2 X60.787 Y316.854 I-22.131 J29.963
G3 X58.242 Y313.664 I0.446 J-2.967
G2 X55.25 Y310.44 I-2.992 J-0.224
X52.258 Y313.664 J3
G3 X49.713 Y316.854 I-2.992 J0.223
G2 X33.118 Y323.727 I5.537 J36.836
G3 X29.062 Y323.271 I-1.782 J-2.413
G2 X24.667 Y323.107 I-2.274 J1.957
X24.831 Y327.502 I2.121 J2.121
G3 X25.287 Y331.558 I-1.957 J2.274
G2 X18.414 Y348.152 I29.962 J22.132
G3 X15.224 Y350.698 I-2.967 J-0.446
G2 X12 Y353.69 I-0.224 J2.992
X15.224 Y356.681 I3
G3 X18.414 Y359.227 I0.224 J2.992
G2 X25.287 Y375.822 I36.836 J-5.537
G3 X24.832 Y379.878 I-2.413 J1.782
G2 X24.668 Y384.272 I1.957 J2.273
X29.062 Y384.108 I2.121 J-2.121
G3 X33.118 Y383.652 I2.274 J1.957
G2 X49.713 Y390.525 I22.131 J-29.962
G3 X52.258 Y393.716 I-0.446 J2.967
G2 X55.25 Y396.94 I2.992 J0.224
X58.242 Y393.716 J-3
G3 X60.787 Y390.525 I2.992 J-0.224
G2 X77.382 Y383.652 I-5.537 J-36.836
G3 X81.438 Y384.108 I1.782 J2.413
G2 X85.832 Y384.272 I2.273 J-1.957
X85.668 Y379.878 I-2.121 J-2.121
G3 X85.213 Y375.822 I1.957 J-2.273
G2 X88.568 Y370.348 I-29.963 J-22.132
G3 X91.251 Y368.69 I2.683 J1.342
G1 X148.5
G3 X151.5 Y371.69 J3
G2 X155.453 Y372.125 I2
X155.481 Y371.412 Z11.975 I-1.952 J-0.435 F300
G3 X157.627 Y368.111 Z11.825 I2.971 J-0.417
G2 X160.78 Y366.805 Z11.706 I-4.125 J-14.421
G3 X164.631 Y367.621 Z11.556 I1.456 J2.623
G2 X167.642 Y367.831 Z11.436 I1.597 J-1.204
X167.432 Y364.82 Z11.317 I-1.414 J-1.414
G3 X166.615 Y360.969 Z11.167 I1.806 J-2.395
G2 X167.922 Y357.815 Z11.047 I-13.114 J-7.282
G3 X171.222 Y355.67 Z10.897 I2.884 J0.826
G2 X173.5 Y353.69 Z10.778 I0.278 J-1.981
X171.222 Y351.709 Z10.658 I-2
G3 X167.922 Y349.564 Z10.509 I-0.416 J-2.971
G2 X166.615 Y346.41 Z10.389 I-14.421 J4.128
G3 X167.432 Y342.559 Z10.239 I2.623 J-1.456
G2 X167.642 Y339.548 Z10.12 I-1.204 J-1.597
X164.631 Y339.758 Z10 I-1.414 J1.414
G3 X160.78 Y340.574 I-2.395 J-1.807 F750
G2 X157.627 Y339.268 I-7.279 J13.116
G3 X155.481 Y335.968 I0.825 J-2.884
G2 X153.639 Y333.695 I-1.981 J-0.278
X151.5 Y335.69 I-0.139 J1.995
G3 X148.5 Y338.69 I-3
G1 X91.251
G3 X88.568 Y337.032 J-3
G2 X85.213 Y331.558 I-33.318 J16.658
G3 X85.669 Y327.502 I2.413 J-1.782
G2 X85.833 Y323.107 I-1.957 J-2.274
X81.438 Y323.271 I-2.121 J2.121
G3 X77.382 Y323.727 I-2.274 J-1.957
G2 X60.787 Y316.854 I-22.131 J29.963
G3 X58.242 Y313.664 I0.446 J-2.967
G2 X55.25 Y310.44 I-2.992 J-0.224
X52.258 Y313.664 J3
G3 X49.713 Y316.854 I-2.992 J0.223
G2 X33.118 Y323.727 I5.537 J36.836
G3 X29.062 Y323.271 I-1.782 J-2.413
G2 X24.667 Y323.107 I-2.274 J1.957
X24.831 Y327.502 I2.121 J2.121
G3 X25.287 Y331.558 I-1.957 J2.274
G2 X18.414 Y348.152 I29.962 J22.132
G3 X15.224 Y350.698 I-2.967 J-0.446
G2 X12 Y353.69 I-0.224 J2.992
X15.224 Y356.681 I3
G3 X18.414 Y359.227 I0.224 J2.992
G2 X25.287 Y375.822 I36.836 J-5.537
G3 X24.832 Y379.878 I-2.413 J1.782
G2 X24.668 Y384.272 I1.957 J2.273
X29.062 Y384.108 I2.121 J-2.121
G3 X33.118 Y383.652 I2.274 J1.957
G2 X49.713 Y390.525 I22.131 J-29.962
G3 X52.258 Y393.716 I-0.446 J2.967
G2 X55.25 Y396.94 I2.992 J0.224
X58.242 Y393.716 J-3
G3 X60.787 Y390.525 I2.992 J-0.224
G2 X77.382 Y383.652 I-5.537 J-36.836
G3 X81.438 Y384.108 I1.782 J2.413
G2 X85.832 Y384.272 I2.273 J-1.957
X85.668 Y379.878 I-2.121 J-2.121
G3 X85.213 Y375.822 I1.957 J-2.273
G2 X88.568 Y370.348 I-29.963 J-22.132
G3 X91.251 Y368.69 I2.683 J1.342
G1 X148.5
G3 X151.5 Y371.69 J3
G2 X155.453 Y372.125 I2
X155.481 Y371.412 I-1.952 J-0.435
G3 X157.627 Y368.111 I2.971 J-0.417
G2 X160.78 Y366.805 I-4.125 J-14.421
G3 X164.631 Y367.621 I1.456 J2.623
G2 X167.642 Y367.831 I1.597 J-1.204
X167.432 Y364.82 I-1.414 J-1.414
G3 X166.615 Y360.969 I1.806 J-2.395
G2 X167.922 Y357.815 I-13.114 J-7.282
G3 X171.222 Y355.67 I2.884 J0.826
G2 X173.5 Y353.69 I0.278 J-1.981
X171.222 Y351.709 I-2
G3 X167.922 Y349.564 I-0.416 J-2.971
G2 X166.615 Y346.41 I-14.421 J4.128
G3 X167.432 Y342.559 I2.623 J-1.456
G2 X167.642 Y339.548 I-1.204 J-1.597
X164.631 Y339.758 I-1.414 J1.414
G3 X160.78 Y340.574 Z9.85 I-2.395 J-1.807 F300
G2 X157.627 Y339.268 Z9.731 I-7.279 J13.116
G3 X155.481 Y335.968 Z9.581 I0.825 J-2.884
G2 X153.639 Y333.695 Z9.466 I-1.981 J-0.278
X151.5 Y335.69 Z9.351 I-0.139 J1.995
G3 X148.5 Y338.69 Z9.187 I-3
G1 X114.511 Z8
X91.251 F750
G3 X88.568 Y337.032 J-3
G2 X85.213 Y331.558 I-33.318 J16.658
G3 X85.669 Y327.502 I2.413 J-1.782
G2 X85.833 Y323.107 I-1.957 J-2.274
X81.438 Y323.271 I-2.121 J2.121
G3 X77.382 Y323.727 I-2.274 J-1.957
G2 X60.787 Y316.854 I-22.131 J29.963
G3 X58.242 Y313.664 I0.446 J-2.967
G2 X55.25 Y310.44 I-2.992 J-0.224
X52.258 Y313.664 J3
G3 X49.713 Y316.854 I-2.992 J0.223
G2 X33.118 Y323.727 I5.537 J36.836
G3 X29.062 Y323.271 I-1.782 J-2.413
G2 X24.667 Y323.107 I-2.274 J1.957
X24.831 Y327.502 I2.121 J2.121
G3 X25.287 Y331.558 I-1.957 J2.274
G2 X18.414 Y348.152 I29.962 J22.132
G3 X15.224 Y350.698 I-2.967 J-0.446
G2 X12 Y353.69 I-0.224 J2.992
X15.224 Y356.681 I3
G3 X18.414 Y359.227 I0.224 J2.992
G2 X25.287 Y375.822 I36.836 J-5.537
G3 X24.832 Y379.878 I-2.413 J1.782
G2 X24.668 Y384.272 I1.957 J2.273
X29.062 Y384.108 I2.121 J-2.121
G3 X33.118 Y383.652 I2.274 J1.957
G2 X49.713 Y390.525 I22.131 J-29.962
G3 X52.258 Y393.716 I-0.446 J2.967
G2 X55.25 Y396.94 I2.992 J0.224
X58.242 Y393.716 J-3
G3 X60.787 Y390.525 I2.992 J-0.224
G2 X77.382 Y383.652 I-5.537 J-36.836
G3 X81.438 Y384.108 I1.782 J2.413
G2 X85.832 Y384.272 I2.273 J-1.957
X85.668 Y379.878 I-2.121 J-2.121
G3 X85.213 Y375.822 I1.957 J-2.273
G2 X88.568 Y370.348 I-29.963 J-22.132
G3 X91.251 Y368.69 I2.683 J1.342
G1 X148.5
G3 X151.5 Y371.69 J3
G2 X153.64 Y373.685 I2
X155.481 Y371.412 I-0.139 J-1.995
G3 X157.627 Y368.111 I2.971 J-0.417
G2 X160.78 Y366.805 I-4.125 J-14.421
G3 X164.631 Y367.621 I1.456 J2.623
G2 X167.642 Y367.831 I1.597 J-1.204
X167.432 Y364.82 I-1.414 J-1.414
G3 X166.615 Y360.969 I1.806 J-2.395
G2 X167.922 Y357.815 I-13.114 J-7.282
G3 X171.222 Y355.67 I2.884 J0.826
G2 X173.5 Y353.69 I0.278 J-1.981
X171.222 Y351.709 I-2
G3 X167.922 Y349.564 I-0.416 J-2.971
G2 X166.615 Y346.41 I-14.421 J4.128
G3 X167.432 Y342.559 I2.623 J-1.456
G2 X167.642 Y339.548 I-1.204 J-1.597
X164.631 Y339.758 I-1.414 J1.414
G3 X160.78 Y340.574 I-2.395 J-1.807
G2 X157.627 Y339.268 I-7.279 J13.116
G3 X155.481 Y335.968 I0.825 J-2.884
G2 X153.639 Y333.695 I-1.981 J-0.278
X151.5 Y335.69 I-0.139 J1.995
G3 X148.5 Y338.69 I-3
G1 X114.511
X91.251 Z7.188 F300
G3 X88.568 Y337.032 Z7.072 J-3
G2 X85.213 Y331.558 Z6.847 I-33.318 J16.658
G3 X85.669 Y327.502 Z6.691 I2.413 J-1.782
G2 X85.833 Y323.107 Z6.518 I-1.957 J-2.274
X81.438 Y323.271 Z6.346 I-2.121 J2.121
G3 X77.382 Y323.727 Z6.189 I-2.274 J-1.957
G2 X72.81 Y320.838 Z6 I-22.131 J29.963
X60.787 Y316.854 I-17.56 J32.852 F750
G3 X58.242 Y313.664 I0.446 J-2.967
G2 X55.25 Y310.44 I-2.992 J-0.224
X52.258 Y313.664 J3
G3 X49.713 Y316.854 I-2.992 J0.223
G2 X33.118 Y323.727 I5.537 J36.836
G3 X29.062 Y323.271 I-1.782 J-2.413
G2 X24.667 Y323.107 I-2.274 J1.957
X24.831 Y327.502 I2.121 J2.121
G3 X25.287 Y331.558 I-1.957 J2.274
G2 X18.414 Y348.152 I29.962 J22.132
G3 X15.224 Y350.698 I-2.967 J-0.446
G2 X12 Y353.69 I-0.224 J2.992
X15.224 Y356.681 I3
G3 X18.414 Y359.227 I0.224 J2.992
G2 X25.287 Y375.822 I36.836 J-5.537
G3 X24.832 Y379.878 I-2.413 J1.782
G2 X24.668 Y384.272 I1.957 J2.273
X29.062 Y384.108 I2.121 J-2.121
G3 X33.118 Y383.652 I2.274 J1.957
G2 X49.713 Y390.525 I22.131 J-29.962
G3 X52.258 Y393.716 I-0.446 J2.967
G2 X55.25 Y396.94 I2.992 J0.224
X58.242 Y393.716 J-3
G3 X60.787 Y390.525 I2.992 J-0.224
G2 X77.382 Y383.652 I-5.537 J-36.836
G3 X81.438 Y384.108 I1.782 J2.413
G2 X85.832 Y384.272 I2.273 J-1.957
X85.668 Y379.878 I-2.121 J-2.121
G3 X85.213 Y375.822 I1.957 J-2.273
G2 X88.568 Y370.348 I-29.963 J-22.132
G3 X91.251 Y368.69 I2.683 J1.342
G1 X148.5
G3 X151.5 Y371.69 J3
G2 X153.64 Y373.685 I2
X155.481 Y371.412 I-0.139 J-1.995
G3 X157.627 Y368.111 I2.971 J-0.417
G2 X160.78 Y366.805 I-4.125 J-14.421
G3 X164.631 Y367.621 I1.456 J2.623
G2 X167.642 Y367.831 I1.597 J-1.204
X167.432 Y364.82 I-1.414 J-1.414
G3 X166.615 Y360.969 I1.806 J-2.395
G2 X167.922 Y357.815 I-13.114 J-7.282
G3 X171.222 Y355.67 I2.884 J0.826
G2 X173.5 Y353.69 I0.278 J-1.981
X171.222 Y351.709 I-2
G3 X167.922 Y349.564 I-0.416 J-2.971
G2 X166.615 Y346.41 I-14.421 J4.128
G3 X167.432 Y342.559 I2.623 J-1.456
G2 X167.642 Y339.548 I-1.204 J-1.597
X164.631 Y339.758 I-1.414 J1.414
G3 X160.78 Y340.574 I-2.395 J-1.807
G2 X157.627 Y339.268 I-7.279 J13.116
G3 X155.481 Y335.968 I0.825 J-2.884
G2 X153.639 Y333.695 I-1.981 J-0.278
X151.5 Y335.69 I-0.139 J1.995
G3 X148.5 Y338.69 I-3
G1 X91.251
G3 X88.568 Y337.032 J-3
G2 X85.213 Y331.558 I-33.318 J16.658
G3 X85.669 Y327.502 I2.413 J-1.782
G2 X85.833 Y323.107 I-1.957 J-2.274
X81.438 Y323.271 I-2.121 J2.121
G3 X77.382 Y323.727 I-2.274 J-1.957
G2 X72.81 Y320.838 I-22.131 J29.963
X60.787 Y316.854 Z5.556 I-17.56 J32.852 F300
G3 X58.242 Y313.664 Z5.399 I0.446 J-2.967
G2 X55.25 Y310.44 Z5.226 I-2.992 J-0.224
X52.258 Y313.664 Z5.054 J3
G3 X49.713 Y316.854 Z4.897 I-2.992 J0.223
G2 X33.118 Y323.727 Z4.264 I5.537 J36.836
G3 X29.062 Y323.271 Z4.107 I-1.782 J-2.413
G2 X26.304 Y322.268 Z4 I-2.274 J1.957
X24.667 Y323.107 I0.485 J2.961 F750
X24.831 Y327.502 I2.121 J2.121
G3 X25.287 Y331.558 I-1.957 J2.274
G2 X18.414 Y348.152 I29.962 J22.132
G3 X15.224 Y350.698 I-2.967 J-0.446
G2 X12 Y353.69 I-0.224 J2.992
X15.224 Y356.681 I3
G3 X18.414 Y359.227 I0.224 J2.992
G2 X25.287 Y375.822 I36.836 J-5.537
G3 X24.832 Y379.878 I-2.413 J1.782
G2 X24.668 Y384.272 I1.957 J2.273
X29.062 Y384.108 I2.121 J-2.121
G3 X33.118 Y383.652 I2.274 J1.957
G2 X49.713 Y390.525 I22.131 J-29.962
G3 X52.258 Y393.716 I-0.446 J2.967
G2 X55.25 Y396.94 I2.992 J0.224
X58.242 Y393.716 J-3
G3 X60.787 Y390.525 I2.992 J-0.224
G2 X77.382 Y383.652 I-5.537 J-36.836
G3 X81.438 Y384.108 I1.782 J2.413
G2 X85.832 Y384.272 I2.273 J-1.957
X85.668 Y379.878 I-2.121 J-2.121
G3 X85.213 Y375.822 I1.957 J-2.273
G2 X88.568 Y370.348 I-29.963 J-22.132
G3 X91.251 Y368.69 I2.683 J1.342
G1 X148.5
G3 X151.5 Y371.69 J3
G2 X153.64 Y373.685 I2
X155.481 Y371.412 I-0.139 J-1.995
G3 X157.627 Y368.111 I2.971 J-0.417
G2 X160.78 Y366.805 I-4.125 J-14.421
G3 X164.631 Y367.621 I1.456 J2.623
G2 X167.642 Y367.831 I1.597 J-1.204
X167.432 Y364.82 I-1.414 J-1.414
G3 X166.615 Y360.969 I1.806 J-2.395
G2 X167.922 Y357.815 I-13.114 J-7.282
G3 X171.222 Y355.67 I2.884 J0.826
G2 X173.5 Y353.69 I0.278 J-1.981
X171.222 Y351.709 I-2
G3 X167.922 Y349.564 I-0.416 J-2.971
G2 X166.615 Y346.41 I-14.421 J4.128
G3 X167.432 Y342.559 I2.623 J-1.456
G2 X167.642 Y339.548 I-1.204 J-1.597
X164.631 Y339.758 I-1.414 J1.414
G3 X160.78 Y340.574 I-2.395 J-1.807
G2 X157.627 Y339.268 I-7.279 J13.116
G3 X155.481 Y335.968 I0.825 J-2.884
G2 X153.639 Y333.695 I-1.981 J-0.278
X151.5 Y335.69 I-0.139 J1.995
G3 X148.5 Y338.69 I-3
G1 X91.251
G3 X88.568 Y337.032 J-3
G2 X85.213 Y331.558 I-33.318 J16.658
G3 X85.669 Y327.502 I2.413 J-1.782
G2 X85.833 Y323.107 I-1.957 J-2.274
X81.438 Y323.271 I-2.121 J2.121
G3 X77.382 Y323.727 I-2.274 J-1.957
G2 X60.787 Y316.854 I-22.131 J29.963
G3 X58.242 Y313.664 I0.446 J-2.967
G2 X55.25 Y310.44 I-2.992 J-0.224
X52.258 Y313.664 J3
G3 X49.713 Y316.854 I-2.992 J0.223
G2 X33.118 Y323.727 I5.537 J36.836
G3 X29.062 Y323.271 I-1.782 J-2.413
G2 X26.304 Y322.268 I-2.274 J1.957
X24.667 Y323.107 Z3.935 I0.485 J2.961 F300
X24.831 Y327.502 Z3.762 I2.121 J2.121
G3 X25.287 Y331.558 Z3.606 I-1.957 J2.274
G2 X18.414 Y348.152 Z2.972 I29.962 J22.132
G3 X15.224 Y350.698 Z2.815 I-2.967 J-0.446
G2 X12 Y353.69 Z2.643 I-0.224 J2.992
X15.224 Y356.681 Z2.471 I3
G3 X18.414 Y359.227 Z2.314 I0.224 J2.992
G2 X20.804 Y367.868 Z2 I36.836 J-5.537
X25.287 Y375.822 I34.446 J-14.178 F750
G3 X24.832 Y379.878 I-2.413 J1.782
G2 X24.668 Y384.272 I1.957 J2.273
X29.062 Y384.108 I2.121 J-2.121
G3 X33.118 Y383.652 I2.274 J1.957
G2 X49.713 Y390.525 I22.131 J-29.962
G3 X52.258 Y393.716 I-0.446 J2.967
G2 X55.25 Y396.94 I2.992 J0.224
X58.242 Y393.716 J-3
G3 X60.787 Y390.525 I2.992 J-0.224
G2 X77.382 Y383.652 I-5.537 J-36.836
G3 X81.438 Y384.108 I1.782 J2.413
G2 X85.832 Y384.272 I2.273 J-1.957
X85.668 Y379.878 I-2.121 J-2.121
G3 X85.213 Y375.822 I1.957 J-2.273
G2 X88.568 Y370.348 I-29.963 J-22.132
G3 X91.251 Y368.69 I2.683 J1.342
G1 X148.5
G3 X151.5 Y371.69 J3
G2 X153.64 Y373.685 I2
X155.481 Y371.412 I-0.139 J-1.995
G3 X157.627 Y368.111 I2.971 J-0.417
G2 X160.78 Y366.805 I-4.125 J-14.421
G3 X164.631 Y367.621 I1.456 J2.623
G2 X167.642 Y367.831 I1.597 J-1.204
X167.432 Y364.82 I-1.414 J-1.414
G3 X166.615 Y360.969 I1.806 J-2.395
G2 X167.922 Y357.815 I-13.114 J-7.282
G3 X171.222 Y355.67 I2.884 J0.826
G2 X173.5 Y353.69 I0.278 J-1.981
X171.222 Y351.709 I-2
G3 X167.922 Y349.564 I-0.416 J-2.971
G2 X166.615 Y346.41 I-14.421 J4.128
G3 X167.432 Y342.559 I2.623 J-1.456
G2 X167.642 Y339.548 I-1.204 J-1.597
X164.631 Y339.758 I-1.414 J1.414
G3 X160.78 Y340.574 I-2.395 J-1.807
G2 X157.627 Y339.268 I-7.279 J13.116
G3 X155.481 Y335.968 I0.825 J-2.884
G2 X153.639 Y333.695 I-1.981 J-0.278
X151.5 Y335.69 I-0.139 J1.995
G3 X148.5 Y338.69 I-3
G1 X91.251
G3 X88.568 Y337.032 J-3
G2 X85.213 Y331.558 I-33.318 J16.658
G3 X85.669 Y327.502 I2.413 J-1.782
G2 X85.833 Y323.107 I-1.957 J-2.274
X81.438 Y323.271 I-2.121 J2.121
G3 X77.382 Y323.727 I-2.274 J-1.957
G2 X60.787 Y316.854 I-22.131 J29.963
G3 X58.242 Y313.664 I0.446 J-2.967
G2 X55.25 Y310.44 I-2.992 J-0.224
X52.258 Y313.664 J3
G3 X49.713 Y316.854 I-2.992 J0.223
G2 X33.118 Y323.727 I5.537 J36.836
G3 X29.062 Y323.271 I-1.782 J-2.413
G2 X24.667 Y323.107 I-2.274 J1.957
X24.831 Y327.502 I2.121 J2.121
G3 X25.287 Y331.558 I-1.957 J2.274
G2 X18.414 Y348.152 I29.962 J22.132
G3 X15.224 Y350.698 I-2.967 J-0.446
G2 X12 Y353.69 I-0.224 J2.992
X15.224 Y356.681 I3
G3 X18.414 Y359.227 I0.224 J2.992
G2 X20.804 Y367.868 I36.836 J-5.537
X25.287 Y375.822 Z1.68 I34.446 J-14.178 F300
G3 X24.832 Y379.878 Z1.524 I-2.413 J1.782
G2 X24.668 Y384.272 Z1.351 I1.957 J2.273
X29.062 Y384.108 Z1.179 I2.121 J-2.121
G3 X33.118 Y383.652 Z1.022 I2.274 J1.957
G2 X49.713 Y390.525 Z0.389 I22.131 J-29.962
G3 X52.258 Y393.716 Z0.232 I-0.446 J2.967
G2 X55.25 Y396.94 Z0.06 I2.992 J0.224
X56.864 Y396.469 Z0 J-3
X58.242 Y393.716 I-1.614 J-2.529 F750
G3 X60.787 Y390.525 I2.992 J-0.224
G2 X77.382 Y383.652 I-5.537 J-36.836
G3 X81.438 Y384.108 I1.782 J2.413
G2 X85.832 Y384.272 I2.273 J-1.957
X85.668 Y379.878 I-2.121 J-2.121
G3 X85.213 Y375.822 I1.957 J-2.273
G2 X88.568 Y370.348 I-29.963 J-22.132
G3 X91.251 Y368.69 I2.683 J1.342
G1 X114.875
Z1.5
X124.875
Z0 F30
X148.5 F750
G3 X151.5 Y371.69 J3
G2 X153.64 Y373.685 I2
X155.481 Y371.412 I-0.139 J-1.995
G3 X157.627 Y368.111 I2.971 J-0.417
G2 X160.78 Y366.805 I-4.125 J-14.421
G3 X164.631 Y367.621 I1.456 J2.623
G2 X167.642 Y367.831 I1.597 J-1.204
X167.432 Y364.82 I-1.414 J-1.414
G3 X166.615 Y360.969 I1.806 J-2.395
G2 X167.922 Y357.815 I-13.114 J-7.282
G3 X171.222 Y355.67 I2.884 J0.826
G2 X173.5 Y353.69 I0.278 J-1.981
X171.222 Y351.709 I-2
G3 X167.922 Y349.564 I-0.416 J-2.971
G2 X166.615 Y346.41 I-14.421 J4.128
G3 X167.432 Y342.559 I2.623 J-1.456
G2 X167.642 Y339.548 I-1.204 J-1.597
X164.631 Y339.758 I-1.414 J1.414
G3 X160.78 Y340.574 I-2.395 J-1.807
G2 X157.627 Y339.268 I-7.279 J13.116
G3 X155.481 Y335.968 I0.825 J-2.884
G2 X153.639 Y333.695 I-1.981 J-0.278
X151.5 Y335.69 I-0.139 J1.995
G3 X148.5 Y338.69 I-3
G1 X124.875
Z1.5
X114.875
Z0 F30
X91.251 F750
G3 X88.568 Y337.032 J-3
G2 X85.213 Y331.558 I-33.318 J16.658
G3 X85.669 Y327.502 I2.413 J-1.782
G2 X85.833 Y323.107 I-1.957 J-2.274
X81.438 Y323.271 I-2.121 J2.121
G3 X77.382 Y323.727 I-2.274 J-1.957
G2 X60.787 Y316.854 I-22.131 J29.963
G3 X58.242 Y313.664 I0.446 J-2.967
G2 X55.25 Y310.44 I-2.992 J-0.224
X52.258 Y313.664 J3
G3 X49.713 Y316.854 I-2.992 J0.223
G2 X33.118 Y323.727 I5.537 J36.836
G3 X29.062 Y323.271 I-1.782 J-2.413
G2 X24.667 Y323.107 I-2.274 J1.957
X24.831 Y327.502 I2.121 J2.121
G3 X25.287 Y331.558 I-1.957 J2.274
G2 X18.414 Y348.152 I29.962 J22.132
G3 X15.224 Y350.698 I-2.967 J-0.446
G2 X12 Y353.69 I-0.224 J2.992
X15.224 Y356.681 I3
G3 X18.414 Y359.227 I0.224 J2.992
G2 X25.287 Y375.822 I36.836 J-5.537
G3 X24.832 Y379.878 I-2.413 J1.782
G2 X24.668 Y384.272 I1.957 J2.273
X29.062 Y384.108 I2.121 J-2.121
G3 X33.118 Y383.652 I2.274 J1.957
G2 X49.713 Y390.525 I22.131 J-29.962
G3 X52.258 Y393.716 I-0.446 J2.967
G2 X56.864 Y396.469 I2.992 J0.224
X58.242 Y393.716 I-1.614 J-2.529
G3 X60.787 Y390.525 I2.992 J-0.224
G2 X77.382 Y383.652 I-5.537 J-36.836
G3 X81.438 Y384.108 I1.782 J2.413
G2 X85.832 Y384.272 I2.273 J-1.957
X85.668 Y379.878 I-2.121 J-2.121
G3 X85.213 Y375.822 I1.957 J-2.273
G2 X88.568 Y370.348 I-29.963 J-22.132
G3 X91.251 Y368.69 I2.683 J1.342
G1 X114.875
Z1.5
X124.875
Z0 F30
X148.5 F750
G3 X151.5 Y371.69 J3
G2 X153.64 Y373.685 I2
X155.481 Y371.412 I-0.139 J-1.995
G3 X157.627 Y368.111 I2.971 J-0.417
G2 X160.78 Y366.805 I-4.125 J-14.421
G3 X164.631 Y367.621 I1.456 J2.623
G2 X167.642 Y367.831 I1.597 J-1.204
X167.432 Y364.82 I-1.414 J-1.414
G3 X166.615 Y360.969 I1.806 J-2.395
G2 X167.922 Y357.815 I-13.114 J-7.282
G3 X171.222 Y355.67 I2.884 J0.826
G2 X173.5 Y353.69 I0.278 J-1.981
X171.222 Y351.709 I-2
G3 X167.922 Y349.564 I-0.416 J-2.971
G2 X166.615 Y346.41 I-14.421 J4.128
G3 X167.432 Y342.559 I2.623 J-1.456
G2 X167.642 Y339.548 I-1.204 J-1.597
X164.631 Y339.758 I-1.414 J1.414
G3 X160.78 Y340.574 I-2.395 J-1.807
G2 X157.627 Y339.268 I-7.279 J13.116
G3 X155.481 Y335.968 I0.825 J-2.884
G2 X153.639 Y333.695 I-1.981 J-0.278
X151.5 Y335.69 I-0.139 J1.995
G3 X148.5 Y338.69 I-3
G1 X124.875
Z1.5
X114.875
Z0 F30
X91.251 F750
G3 X88.568 Y337.032 J-3
G2 X85.213 Y331.558 I-33.318 J16.658
G3 X85.669 Y327.502 I2.413 J-1.782
G2 X85.833 Y323.107 I-1.957 J-2.274
X81.438 Y323.271 I-2.121 J2.121
G3 X77.382 Y323.727 I-2.274 J-1.957
G2 X60.787 Y316.854 I-22.131 J29.963
G3 X58.242 Y313.664 I0.446 J-2.967
G2 X55.25 Y310.44 I-2.992 J-0.224
X52.258 Y313.664 J3
G3 X49.713 Y316.854 I-2.992 J0.223
G2 X33.118 Y323.727 I5.537 J36.836
G3 X29.062 Y323.271 I-1.782 J-2.413
G2 X24.667 Y323.107 I-2.274 J1.957
X24.831 Y327.502 I2.121 J2.121
G3 X25.287 Y331.558 I-1.957 J2.274
G2 X18.414 Y348.152 I29.962 J22.132
G3 X15.224 Y350.698 I-2.967 J-0.446
G2 X12 Y353.69 I-0.224 J2.992
X15.224 Y356.681 I3
G3 X18.414 Y359.227 I0.224 J2.992
G2 X25.287 Y375.822 I36.836 J-5.537
G3 X24.832 Y379.878 I-2.413 J1.782
G2 X24.668 Y384.272 I1.957 J2.273
X29.062 Y384.108 I2.121 J-2.121
G3 X33.118 Y383.652 I2.274 J1.957
G2 X49.713 Y390.525 I22.131 J-29.962
G3 X52.258 Y393.716 I-0.446 J2.967
G2 X56.864 Y396.469 I2.992 J0.224
X57.047 Y395.64 I-0.323 J-0.506 F300
G1 X56.724 Y395.134
X56.674 Y395.055 Z0.007
X56.625 Y394.978 Z0.029
X56.578 Y394.905 Z0.065
X56.535 Y394.837 Z0.115
X56.496 Y394.777 Z0.176
X56.463 Y394.725 Z0.247
X56.437 Y394.684 Z0.328
X56.417 Y394.653 Z0.415
X56.405 Y394.635 Z0.506
X56.401 Y394.629 Z0.6
G0 Z23
X108.305 Y91.3
G1 Z21.1 F300
G19 G2 Y90.7 Z20.5 J-0.6 F30
G1 Y90.1 F300
G17 G2 X107.705 Y89.5 I-0.6
G1 X90.769 Z19.909
G3 X88.076 Y87.823 Z19.792 J-3
G2 X84.607 Y82.118 Z19.558 I-33.432 J16.427
G3 X85.063 Y78.063 Z19.402 I2.413 J-1.782
G2 X85.227 Y73.668 Z19.229 I-1.957 J-2.273
X80.832 Y73.832 Z19.057 I-2.121 J2.121
G3 X76.776 Y74.287 Z18.9 I-2.274 J-1.957
G2 X60.182 Y67.414 Z18.267 I-22.132 J29.963
G3 X57.636 Y64.224 Z18.11 I0.446 J-2.967
G2 X54.644 Y61 Z17.938 I-2.992 J-0.224
X51.653 Y64.224 Z17.765 J3
G3 X49.107 Y67.414 Z17.608 I-2.992 J0.224
G2 X32.513 Y74.287 Z16.975 I5.537 J36.836
G3 X28.457 Y73.832 Z16.818 I-1.782 J-2.413
G2 X24.062 Y73.668 Z16.646 I-2.274 J1.957
X24.226 Y78.062 Z16.473 I2.121 J2.121
G3 X24.682 Y82.118 Z16.317 I-1.957 J2.274
G2 X20.23 Y89.995 Z16 I29.963 J22.132
X24.682 Y126.382 I34.414 J14.255 F750
G3 X24.226 Y130.438 I-2.413 J1.782
G2 X24.062 Y134.832 I1.957 J2.274
X28.457 Y134.669 I2.121 J-2.121
G3 X32.513 Y134.213 I2.273 J1.957
G2 X49.107 Y141.086 I22.131 J-29.963
G3 X51.653 Y144.277 I-0.446 J2.967
G2 X54.644 Y147.5 I2.992 J0.223
X57.636 Y144.277 J-3
G3 X60.182 Y141.086 I2.992 J-0.224
G2 X76.776 Y134.213 I-5.537 J-36.836
G3 X80.832 Y134.669 I1.782 J2.413
G2 X85.227 Y134.832 I2.274 J-1.957
X85.063 Y130.438 I-2.121 J-2.121
G3 X84.607 Y126.382 I1.957 J-2.274
G2 X88.076 Y120.677 I-29.963 J-22.131
G3 X90.769 Y119 I2.693 J1.323
G1 X147.644
G3 X150.644 Y122 J3
G2 X152.785 Y123.995 I2
X154.624 Y121.718 I-0.141 J-1.995
G3 X156.757 Y118.415 I2.97 J-0.422
G2 X159.751 Y117.174 I-4.115 J-14.164
G3 X163.596 Y118.002 I1.446 J2.629
G2 X166.609 Y118.215 I1.599 J-1.201
X166.396 Y115.202 I-1.414 J-1.414
G3 X165.569 Y111.358 I1.802 J-2.399
G2 X166.809 Y108.364 I-12.926 J-7.106
G3 X170.112 Y106.23 I2.881 J0.836
G2 X172.394 Y104.25 I0.282 J-1.98
X170.112 Y102.27 I-2
G3 X166.809 Y100.136 I-0.422 J-2.97
G2 X165.569 Y97.142 I-14.165 J4.113
G3 X166.396 Y93.298 I2.629 J-1.445
G2 X166.609 Y90.285 I-1.201 J-1.599
X163.596 Y90.498 I-1.414 J1.414
G3 X159.751 Y91.325 I-2.399 J-1.802
G2 X156.757 Y90.085 I-7.107 J12.925
G3 X154.624 Y86.782 I0.837 J-2.881
G2 X152.785 Y84.505 I-1.98 J-0.282
X150.644 Y86.5 I-0.141 J1.995
G3 X147.644 Y89.5 I-3
G1 X90.769
G3 X88.076 Y87.823 J-3
G2 X84.607 Y82.118 I-33.432 J16.427
G3 X85.063 Y78.063 I2.413 J-1.782
G2 X85.227 Y73.668 I-1.957 J-2.273
X80.832 Y73.832 I-2.121 J2.121
G3 X76.776 Y74.287 I-2.274 J-1.957
G2 X60.182 Y67.414 I-22.132 J29.963
G3 X57.636 Y64.224 I0.446 J-2.967
G2 X54.644 Y61 I-2.992 J-0.224
X51.653 Y64.224 J3
G3 X49.107 Y67.414 I-2.992 J0.224
G2 X32.513 Y74.287 I5.537 J36.836
G3 X28.457 Y73.832 I-1.782 J-2.413
G2 X24.062 Y73.668 I-2.274 J1.957
X24.226 Y78.062 I2.121 J2.121
G3 X24.682 Y82.118 I-1.957 J2.274
G2 X20.23 Y89.995 I29.963 J22.132
X24.682 Y126.382 Z14.662 I34.414 J14.255 F300
G3 X24.226 Y130.438 Z14.505 I-2.413 J1.782
G2 X24.062 Y134.832 Z14.332 I1.957 J2.274
X28.457 Y134.669 Z14.16 I2.121 J-2.121
G3 X32.513 Y134.213 Z14.003 I2.273 J1.957
G1 X32.59 Y134.27 Z14
G2 X49.107 Y141.086 I22.054 J-30.02 F750
G3 X51.653 Y144.277 I-0.446 J2.967
G2 X54.644 Y147.5 I2.992 J0.223
X57.636 Y144.277 J-3
G3 X60.182 Y141.086 I2.992 J-0.224
G2 X76.776 Y134.213 I-5.537 J-36.836
G3 X80.832 Y134.669 I1.782 J2.413
G2 X85.227 Y134.832 I2.274 J-1.957
X85.063 Y130.438 I-2.121 J-2.121
G3 X84.607 Y126.382 I1.957 J-2.274
G2 X88.076 Y120.677 I-29.963 J-22.131
G3 X90.769 Y119 I2.693 J1.323
G1 X147.644
G3 X150.644 Y122 J3
G2 X152.785 Y123.995 I2
X154.624 Y121.718 I-0.141 J-1.995
G3 X156.757 Y118.415 I2.97 J-0.422
G2 X159.751 Y117.174 I-4.115 J-14.164
G3 X163.596 Y118.002 I1.446 J2.629
G2 X166.609 Y118.215 I1.599 J-1.201
X166.396 Y115.202 I-1.414 J-1.414
G3 X165.569 Y111.358 I1.802 J-2.399
G2 X166.809 Y108.364 I-12.926 J-7.106
G3 X170.112 Y106.23 I2.881 J0.836
G2 X172.394 Y104.25 I0.282 J-1.98
X170.112 Y102.27 I-2
G3 X166.809 Y100.136 I-0.422 J-2.97
G2 X165.569 Y97.142 I-14.165 J4.113
G3 X166.396 Y93.298 I2.629 J-1.445
G2 X166.609 Y90.285 I-1.201 J-1.599
X163.596 Y90.498 I-1.414 J1.414
G3 X159.751 Y91.325 I-2.399 J-1.802
G2 X156.757 Y90.085 I-7.107 J12.925
G3 X154.624 Y86.782 I0.837 J-2.881
G2 X152.785 Y84.505 I-1.98 J-0.282
X150.644 Y86.5 I-0.141 J1.995
G3 X147.644 Y89.5 I-3
G1 X90.769
G3 X88.076 Y87.823 J-3
G2 X84.607 Y82.118 I-33.432 J16.427
G3 X85.063 Y78.063 I2.413 J-1.782
G2 X85.227 Y73.668 I-1.957 J-2.273
X80.832 Y73.832 I-2.121 J2.121
G3 X76.776 Y74.287 I-2.274 J-1.957
G2 X60.182 Y67.414 I-22.132 J29.963
G3 X57.636 Y64.224 I0.446 J-2.967
G2 X54.644 Y61 I-2.992 J-0.224
X51.653 Y64.224 J3
G3 X49.107 Y67.414 I-2.992 J0.224
G2 X32.513 Y74.287 I5.537 J36.836
G3 X28.457 Y73.832 I-1.782 J-2.413
G2 X24.062 Y73.668 I-2.274 J1.957
X24.226 Y78.062 I2.121 J2.121
G3 X24.682 Y82.118 I-1.957 J2.274
G2 Y126.382 I29.963 J22.132
G3 X24.226 Y130.438 I-2.413 J1.782
G2 X24.062 Y134.832 I1.957 J2.274
X28.457 Y134.669 I2.121 J-2.121
G3 X32.513 Y134.213 I2.273 J1.957
G1 X32.59 Y134.27
G2 X49.107 Y141.086 Z13.367 I22.054 J-30.02 F300
G3 X51.653 Y144.277 Z13.21 I-0.446 J2.967
G2 X54.644 Y147.5 Z13.037 I2.992 J0.223
X57.636 Y144.277 Z12.865 J-3
G3 X60.182 Y141.086 Z12.708 I2.992 J-0.224
G2 X76.776 Y134.213 Z12.075 I-5.537 J-36.836
G3 X78.792 Y133.635 Z12 I1.782 J2.413
X80.832 Y134.669 I-0.234 J2.991 F750
G2 X85.227 Y134.832 I2.274 J-1.957
X85.063 Y130.438 I-2.121 J-2.121
G3 X84.607 Y126.382 I1.957 J-2.274
G2 X88.076 Y120.677 I-29.963 J-22.131
G3 X90.769 Y119 I2.693 J1.323
G1 X147.644
G3 X150.644 Y122 J3
G2 X152.785 Y123.995 I2
X154.624 Y121.718 I-0.141 J-1.995
G3 X156.757 Y118.415 I2.97 J-0.422
G2 X159.751 Y117.174 I-4.115 J-14.164
G3 X163.596 Y118.002 I1.446 J2.629
G2 X166.609 Y118.215 I1.599 J-1.201
X166.396 Y115.202 I-1.414 J-1.414
G3 X165.569 Y111.358 I1.802 J-2.399
G2 X166.809 Y108.364 I-12.926 J-7.106
G3 X170.112 Y106.23 I2.881 J0.836
G2 X172.394 Y104.25 I0.282 J-1.98
X170.112 Y102.27 I-2
G3 X166.809 Y100.136 I-0.422 J-2.97
G2 X165.569 Y97.142 I-14.165 J4.113
G3 X166.396 Y93.298 I2.629 J-1.445
G2 X166.609 Y90.285 I-1.201 J-1.599
X163.596 Y90.498 I-1.414 J1.414
G3 X159.751 Y91.325 I-2.399 J-1.802
G2 X156.757 Y90.085 I-7.107 J12.925
G3 X154.624 Y86.782 I0.837 J-2.881
G2 X152.785 Y84.505 I-1.98 J-0.282
X150.644 Y86.5 I-0.141 J1.995
G3 X147.644 Y89.5 I-3
G1 X90.769
G3 X88.076 Y87.823 J-3
G2 X84.607 Y82.118 I-33.432 J16.427
G3 X85.063 Y78.063 I2.413 J-1.782
G2 X85.227 Y73.668 I-1.957 J-2.273
X80.832 Y73.832 I-2.121 J2.121
G3 X76.776 Y74.287 I-2.274 J-1.957
G2 X60.182 Y67.414 I-22.132 J29.963
G3 X57.636 Y64.224 I0.446 J-2.967
G2 X54.644 Y61 I-2.992 J-0.224
X51.653 Y64.224 J3
G3 X49.107 Y67.414 I-2.992 J0.224
G2 X32.513 Y74.287 I5.537 J36.836
G3 X28.457 Y73.832 I-1.782 J-2.413
G2 X24.062 Y73.668 I-2.274 J1.957
X24.226 Y78.062 I2.121 J2.121
G3 X24.682 Y82.118 I-1.957 J2.274
G2 Y126.382 I29.963 J22.132
G3 X24.226 Y130.438 I-2.413 J1.782
G2 X24.062 Y134.832 I1.957 J2.274
X28.457 Y134.669 I2.121 J-2.121
G3 X32.513 Y134.213 I2.273 J1.957
G2 X49.107 Y141.086 I22.131 J-29.963
G3 X51.653 Y144.277 I-0.446 J2.967
G2 X54.644 Y147.5 I2.992 J0.223
X57.636 Y144.277 J-3
G3 X60.182 Y141.086 I2.992 J-0.224
G2 X76.776 Y134.213 I-5.537 J-36.836
G3 X78.792 Y133.635 I1.782 J2.413
X80.832 Y134.669 Z11.918 I-0.234 J2.991 F300
G2 X85.227 Y134.832 Z11.746 I2.274 J-1.957
X85.063 Y130.438 Z11.573 I-2.121 J-2.121
G3 X84.607 Y126.382 Z11.417 I1.957 J-2.274
G2 X88.076 Y120.677 Z11.183 I-29.963 J-22.131
G3 X90.769 Y119 Z11.066 I2.693 J1.323
G1 X121.307 Z10
X147.644 F750
G3 X150.644 Y122 J3
G2 X152.785 Y123.995 I2
X154.624 Y121.718 I-0.141 J-1.995
G3 X156.757 Y118.415 I2.97 J-0.422
G2 X159.751 Y117.174 I-4.115 J-14.164
G3 X163.596 Y118.002 I1.446 J2.629
G2 X166.609 Y118.215 I1.599 J-1.201
X166.396 Y115.202 I-1.414 J-1.414
G3 X165.569 Y111.358 I1.802 J-2.399
G2 X166.809 Y108.364 I-12.926 J-7.106
G3 X170.112 Y106.23 I2.881 J0.836
G2 X172.394 Y104.25 I0.282 J-1.98
X170.112 Y102.27 I-2
G3 X166.809 Y100.136 I-0.422 J-2.97
G2 X165.569 Y97.142 I-14.165 J4.113
G3 X166.396 Y93.298 I2.629 J-1.445
G2 X166.609 Y90.285 I-1.201 J-1.599
X163.596 Y90.498 I-1.414 J1.414
G3 X159.751 Y91.325 I-2.399 J-1.802
G2 X156.757 Y90.085 I-7.107 J12.925
G3 X154.624 Y86.782 I0.837 J-2.881
G2 X152.785 Y84.505 I-1.98 J-0.282
X150.644 Y86.5 I-0.141 J1.995
G3 X147.644 Y89.5 I-3
G1 X90.769
G3 X88.076 Y87.823 J-3
G2 X84.607 Y82.118 I-33.432 J16.427
G3 X85.063 Y78.063 I2.413 J-1.782
G2 X85.227 Y73.668 I-1.957 J-2.273
X80.832 Y73.832 I-2.121 J2.121
G3 X76.776 Y74.287 I-2.274 J-1.957
G2 X60.182 Y67.414 I-22.132 J29.963
G3 X57.636 Y64.224 I0.446 J-2.967
G2 X54.644 Y61 I-2.992 J-0.224
X51.653 Y64.224 J3
G3 X49.107 Y67.414 I-2.992 J0.224
G2 X32.513 Y74.287 I5.537 J36.836
G3 X28.457 Y73.832 I-1.782 J-2.413
G2 X24.062 Y73.668 I-2.274 J1.957
X24.226 Y78.062 I2.121 J2.121
G3 X24.682 Y82.118 I-1.957 J2.274
G2 Y126.382 I29.963 J22.132
G3 X24.226 Y130.438 I-2.413 J1.782
G2 X24.062 Y134.832 I1.957 J2.274
X28.457 Y134.669 I2.121 J-2.121
G3 X32.513 Y134.213 I2.273 J1.957
G2 X49.107 Y141.086 I22.131 J-29.963
G3 X51.653 Y144.277 I-0.446 J2.967
G2 X54.644 Y147.5 I2.992 J0.223
X57.636 Y144.277 J-3
G3 X60.182 Y141.086 I2.992 J-0.224
G2 X76.776 Y134.213 I-5.537 J-36.836
G3 X80.832 Y134.669 I1.782 J2.413
G2 X85.227 Y134.832 I2.274 J-1.957
X85.063 Y130.438 I-2.121 J-2.121
G3 X84.607 Y126.382 I1.957 J-2.274
G2 X88.076 Y120.677 I-29.963 J-22.131
G3 X90.769 Y119 I2.693 J1.323
G1 X121.307
X147.644 Z9.08 F300
G3 X150.644 Y122 Z8.916 J3
G2 X152.785 Y123.995 Z8.801 I2
X154.624 Y121.718 Z8.686 I-0.141 J-1.995
G3 X156.757 Y118.415 Z8.537 I2.97 J-0.422
G2 X159.751 Y117.174 Z8.423 I-4.115 J-14.164
G3 X163.596 Y118.002 Z8.274 I1.446 J2.629
G2 X166.609 Y118.215 Z8.154 I1.599 J-1.201
X166.396 Y115.202 Z8.034 I-1.414 J-1.414
G3 X165.719 Y114.492 Z8 I1.802 J-2.399
X165.569 Y111.358 I2.479 J-1.689 F750
G2 X166.809 Y108.364 I-12.926 J-7.106
G3 X170.112 Y106.23 I2.881 J0.836
G2 X172.394 Y104.25 I0.282 J-1.98
X170.112 Y102.27 I-2
G3 X166.809 Y100.136 I-0.422 J-2.97
G2 X165.569 Y97.142 I-14.165 J4.113
G3 X166.396 Y93.298 I2.629 J-1.445
G2 X166.609 Y90.285 I-1.201 J-1.599
X163.596 Y90.498 I-1.414 J1.414
G3 X159.751 Y91.325 I-2.399 J-1.802
G2 X156.757 Y90.085 I-7.107 J12.925
G3 X154.624 Y86.782 I0.837 J-2.881
G2 X152.785 Y84.505 I-1.98 J-0.282
X150.644 Y86.5 I-0.141 J1.995
G3 X147.644 Y89.5 I-3
G1 X90.769
G3 X88.076 Y87.823 J-3
G2 X84.607 Y82.118 I-33.432 J16.427
G3 X85.063 Y78.063 I2.413 J-1.782
G2 X85.227 Y73.668 I-1.957 J-2.273
X80.832 Y73.832 I-2.121 J2.121
G3 X76.776 Y74.287 I-2.274 J-1.957
G2 X60.182 Y67.414 I-22.132 J29.963
G3 X57.636 Y64.224 I0.446 J-2.967
G2 X54.644 Y61 I-2.992 J-0.224
X51.653 Y64.224 J3
G3 X49.107 Y67.414 I-2.992 J0.224
G2 X32.513 Y74.287 I5.537 J36.836
G3 X28.457 Y73.832 I-1.782 J-2.413
G2 X24.062 Y73.668 I-2.274 J1.957
X24.226 Y78.062 I2.121 J2.121
G3 X24.682 Y82.118 I-1.957 J2.274
G2 Y126.382 I29.963 J22.132
G3 X24.226 Y130.438 I-2.413 J1.782
G2 X24.062 Y134.832 I1.957 J2.274
X28.457 Y134.669 I2.121 J-2.121
G3 X32.513 Y134.213 I2.273 J1.957
G2 X49.107 Y141.086 I22.131 J-29.963
G3 X51.653 Y144.277 I-0.446 J2.967
G2 X54.644 Y147.5 I2.992 J0.223
X57.636 Y144.277 J-3
G3 X60.182 Y141.086 I2.992 J-0.224
G2 X76.776 Y134.213 I-5.537 J-36.836
G3 X80.832 Y134.669 I1.782 J2.413
G2 X85.227 Y134.832 I2.274 J-1.957
X85.063 Y130.438 I-2.121 J-2.121
G3 X84.607 Y126.382 I1.957 J-2.274
G2 X88.076 Y120.677 I-29.963 J-22.131
G3 X90.769 Y119 I2.693 J1.323
G1 X147.644
G3 X150.644 Y122 J3
G2 X152.785 Y123.995 I2
X154.624 Y121.718 I-0.141 J-1.995
G3 X156.757 Y118.415 I2.97 J-0.422
G2 X159.751 Y117.174 I-4.115 J-14.164
G3 X163.596 Y118.002 I1.446 J2.629
G2 X166.609 Y118.215 I1.599 J-1.201
X166.396 Y115.202 I-1.414 J-1.414
G3 X165.719 Y114.492 I1.802 J-2.399
X165.569 Y111.358 Z7.885 I2.479 J-1.689 F300
G2 X166.809 Y108.364 Z7.771 I-12.926 J-7.106
G3 X170.112 Y106.23 Z7.622 I2.881 J0.836
G2 X172.394 Y104.25 Z7.502 I0.282 J-1.98
X170.112 Y102.27 Z7.382 I-2
G3 X166.809 Y100.136 Z7.233 I-0.422 J-2.97
G2 X165.569 Y97.142 Z7.119 I-14.165 J4.113
G3 X166.396 Y93.298 Z6.97 I2.629 J-1.445
G2 X166.609 Y90.285 Z6.85 I-1.201 J-1.599
X163.596 Y90.498 Z6.73 I-1.414 J1.414
G3 X159.751 Y91.325 Z6.581 I-2.399 J-1.802
G2 X156.757 Y90.085 Z6.467 I-7.107 J12.925
G3 X154.624 Y86.782 Z6.317 I0.837 J-2.881
G2 X152.785 Y84.505 Z6.203 I-1.98 J-0.282
X150.644 Y86.5 Z6.088 I-0.141 J1.995
G3 X149.643 Y88.737 Z6 I-3
X147.644 Y89.5 I-1.999 J-2.237 F750
G1 X90.769
G3 X88.076 Y87.823 J-3
G2 X84.607 Y82.118 I-33.432 J16.427
G3 X85.063 Y78.063 I2.413 J-1.782
G2 X85.227 Y73.668 I-1.957 J-2.273
X80.832 Y73.832 I-2.121 J2.121
G3 X76.776 Y74.287 I-2.274 J-1.957
G2 X60.182 Y67.414 I-22.132 J29.963
G3 X57.636 Y64.224 I0.446 J-2.967
G2 X54.644 Y61 I-2.992 J-0.224
X51.653 Y64.224 J3
G3 X49.107 Y67.414 I-2.992 J0.224
G2 X32.513 Y74.287 I5.537 J36.836
G3 X28.457 Y73.832 I-1.782 J-2.413
G2 X24.062 Y73.668 I-2.274 J1.957
X24.226 Y78.062 I2.121 J2.121
G3 X24.682 Y82.118 I-1.957 J2.274
G2 Y126.382 I29.963 J22.132
G3 X24.226 Y130.438 I-2.413 J1.782
G2 X24.062 Y134.832 I1.957 J2.274
X28.457 Y134.669 I2.121 J-2.121
G3 X32.513 Y134.213 I2.273 J1.957
G2 X49.107 Y141.086 I22.131 J-29.963
G3 X51.653 Y144.277 I-0.446 J2.967
G2 X54.644 Y147.5 I2.992 J0.223
X57.636 Y144.277 J-3
G3 X60.182 Y141.086 I2.992 J-0.224
G2 X76.776 Y134.213 I-5.537 J-36.836
G3 X80.832 Y134.669 I1.782 J2.413
G2 X85.227 Y134.832 I2.274 J-1.957
X85.063 Y130.438 I-2.121 J-2.121
G3 X84.607 Y126.382 I1.957 J-2.274
G2 X88.076 Y120.677 I-29.963 J-22.131
G3 X90.769 Y119 I2.693 J1.323
G1 X147.644
G3 X150.644 Y122 J3
G2 X152.785 Y123.995 I2
X154.624 Y121.718 I-0.141 J-1.995
G3 X156.757 Y118.415 I2.97 J-0.422
G2 X159.751 Y117.174 I-4.115 J-14.164
G3 X163.596 Y118.002 I1.446 J2.629
G2 X166.609 Y118.215 I1.599 J-1.201
X166.396 Y115.202 I-1.414 J-1.414
G3 X165.569 Y111.358 I1.802 J-2.399
G2 X166.809 Y108.364 I-12.926 J-7.106
G3 X170.112 Y106.23 I2.881 J0.836
G2 X172.394 Y104.25 I0.282 J-1.98
X170.112 Y102.27 I-2
G3 X166.809 Y100.136 I-0.422 J-2.97
G2 X165.569 Y97.142 I-14.165 J4.113
G3 X166.396 Y93.298 I2.629 J-1.445
G2 X166.609 Y90.285 I-1.201 J-1.599
X163.596 Y90.498 I-1.414 J1.414
G3 X159.751 Y91.325 I-2.399 J-1.802
G2 X156.757 Y90.085 I-7.107 J12.925
G3 X154.624 Y86.782 I0.837 J-2.881
G2 X152.785 Y84.505 I-1.98 J-0.282
X150.644 Y86.5 I-0.141 J1.995
G3 X149.643 Y88.737 I-3
X147.644 Y89.5 Z5.924 I-1.999 J-2.237 F300
G1 X92.559 Z4
X90.769 F750
G3 X88.076 Y87.823 J-3
G2 X84.607 Y82.118 I-33.432 J16.427
G3 X85.063 Y78.063 I2.413 J-1.782
G2 X85.227 Y73.668 I-1.957 J-2.273
X80.832 Y73.832 I-2.121 J2.121
G3 X76.776 Y74.287 I-2.274 J-1.957
G2 X60.182 Y67.414 I-22.132 J29.963
G3 X57.636 Y64.224 I0.446 J-2.967
G2 X54.644 Y61 I-2.992 J-0.224
X51.653 Y64.224 J3
G3 X49.107 Y67.414 I-2.992 J0.224
G2 X32.513 Y74.287 I5.537 J36.836
G3 X28.457 Y73.832 I-1.782 J-2.413
G2 X24.062 Y73.668 I-2.274 J1.957
X24.226 Y78.062 I2.121 J2.121
G3 X24.682 Y82.118 I-1.957 J2.274
G2 Y126.382 I29.963 J22.132
G3 X24.226 Y130.438 I-2.413 J1.782
G2 X24.062 Y134.832 I1.957 J2.274
X28.457 Y134.669 I2.121 J-2.121
G3 X32.513 Y134.213 I2.273 J1.957
G2 X49.107 Y141.086 I22.131 J-29.963
G3 X51.653 Y144.277 I-0.446 J2.967
G2 X54.644 Y147.5 I2.992 J0.223
X57.636 Y144.277 J-3
G3 X60.182 Y141.086 I2.992 J-0.224
G2 X76.776 Y134.213 I-5.537 J-36.836
G3 X80.832 Y134.669 I1.782 J2.413
G2 X85.227 Y134.832 I2.274 J-1.957
X85.063 Y130.438 I-2.121 J-2.121
G3 X84.607 Y126.382 I1.957 J-2.274
G2 X88.076 Y120.677 I-29.963 J-22.131
G3 X90.769 Y119 I2.693 J1.323
G1 X147.644
G3 X150.644 Y122 J3
G2 X152.785 Y123.995 I2
X154.624 Y121.718 I-0.141 J-1.995
G3 X156.757 Y118.415 I2.97 J-0.422
G2 X159.751 Y117.174 I-4.115 J-14.164
G3 X163.596 Y118.002 I1.446 J2.629
G2 X166.609 Y118.215 I1.599 J-1.201
X166.396 Y115.202 I-1.414 J-1.414
G3 X165.569 Y111.358 I1.802 J-2.399
G2 X166.809 Y108.364 I-12.926 J-7.106
G3 X170.112 Y106.23 I2.881 J0.836
G2 X172.394 Y104.25 I0.282 J-1.98
X170.112 Y102.27 I-2
G3 X166.809 Y100.136 I-0.422 J-2.97
G2 X165.569 Y97.142 I-14.165 J4.113
G3 X166.396 Y93.298 I2.629 J-1.445
G2 X166.609 Y90.285 I-1.201 J-1.599
X163.596 Y90.498 I-1.414 J1.414
G3 X159.751 Y91.325 I-2.399 J-1.802
G2 X156.757 Y90.085 I-7.107 J12.925
G3 X154.624 Y86.782 I0.837 J-2.881
G2 X152.785 Y84.505 I-1.98 J-0.282
X150.644 Y86.5 I-0.141 J1.995
G3 X147.644 Y89.5 I-3
G1 X92.559
X90.769 Z3.937 F300
G3 X88.076 Y87.823 Z3.821 J-3
G2 X84.607 Y82.118 Z3.587 I-33.432 J16.427
G3 X85.063 Y78.063 Z3.431 I2.413 J-1.782
G2 X85.227 Y73.668 Z3.258 I-1.957 J-2.273
X80.832 Y73.832 Z3.086 I-2.121 J2.121
G3 X76.776 Y74.287 Z2.929 I-2.274 J-1.957
G2 X60.182 Y67.414 Z2.296 I-22.132 J29.963
G3 X57.636 Y64.224 Z2.139 I0.446 J-2.967
G2 X55.588 Y61.152 Z2 I-2.992 J-0.224
X51.653 Y64.224 I-0.944 J2.848 F750
G3 X49.107 Y67.414 I-2.992 J0.224
G2 X32.513 Y74.287 I5.537 J36.836
G3 X28.457 Y73.832 I-1.782 J-2.413
G2 X24.062 Y73.668 I-2.274 J1.957
X24.226 Y78.062 I2.121 J2.121
G3 X24.682 Y82.118 I-1.957 J2.274
G2 Y126.382 I29.963 J22.132
G3 X24.226 Y130.438 I-2.413 J1.782
G2 X24.062 Y134.832 I1.957 J2.274
X28.457 Y134.669 I2.121 J-2.121
G3 X32.513 Y134.213 I2.273 J1.957
G2 X49.107 Y141.086 I22.131 J-29.963
G3 X51.653 Y144.277 I-0.446 J2.967
G2 X54.644 Y147.5 I2.992 J0.223
X57.636 Y144.277 J-3
G3 X60.182 Y141.086 I2.992 J-0.224
G2 X76.776 Y134.213 I-5.537 J-36.836
G3 X80.832 Y134.669 I1.782 J2.413
G2 X85.227 Y134.832 I2.274 J-1.957
X85.063 Y130.438 I-2.121 J-2.121
G3 X84.607 Y126.382 I1.957 J-2.274
G2 X88.076 Y120.677 I-29.963 J-22.131
G3 X90.769 Y119 I2.693 J1.323
G1 X147.644
G3 X150.644 Y122 J3
G2 X152.785 Y123.995 I2
X154.624 Y121.718 I-0.141 J-1.995
G3 X156.757 Y118.415 I2.97 J-0.422
G2 X159.751 Y117.174 I-4.115 J-14.164
G3 X163.596 Y118.002 I1.446 J2.629
G2 X166.609 Y118.215 I1.599 J-1.201
X166.396 Y115.202 I-1.414 J-1.414
G3 X165.569 Y111.358 I1.802 J-2.399
G2 X166.809 Y108.364 I-12.926 J-7.106
G3 X170.112 Y106.23 I2.881 J0.836
G2 X172.394 Y104.25 I0.282 J-1.98
X170.112 Y102.27 I-2
G3 X166.809 Y100.136 I-0.422 J-2.97
G2 X165.569 Y97.142 I-14.165 J4.113
G3 X166.396 Y93.298 I2.629 J-1.445
G2 X166.609 Y90.285 I-1.201 J-1.599
X163.596 Y90.498 I-1.414 J1.414
G3 X159.751 Y91.325 I-2.399 J-1.802
G2 X156.757 Y90.085 I-7.107 J12.925
G3 X154.624 Y86.782 I0.837 J-2.881
G2 X152.785 Y84.505 I-1.98 J-0.282
X150.644 Y86.5 I-0.141 J1.995
G3 X147.644 Y89.5 I-3
G1 X90.769
G3 X88.076 Y87.823 J-3
G2 X84.607 Y82.118 I-33.432 J16.427
G3 X85.063 Y78.063 I2.413 J-1.782
G2 X85.227 Y73.668 I-1.957 J-2.273
X80.832 Y73.832 I-2.121 J2.121
G3 X76.776 Y74.287 I-2.274 J-1.957
G2 X60.182 Y67.414 I-22.132 J29.963
G3 X57.636 Y64.224 I0.446 J-2.967
G2 X55.588 Y61.152 I-2.992 J-0.224
X51.653 Y64.224 Z1.794 I-0.944 J2.848 F300
G3 X49.107 Y67.414 Z1.637 I-2.992 J0.224
G2 X32.513 Y74.287 Z1.004 I5.537 J36.836
G3 X28.457 Y73.832 Z0.847 I-1.782 J-2.413
G2 X24.062 Y73.668 Z0.675 I-2.274 J1.957
X24.226 Y78.062 Z0.502 I2.121 J2.121
G3 X24.682 Y82.118 Z0.346 I-1.957 J2.274
G2 X19.921 Y90.763 Z0 I29.963 J22.132
X17.731 Y99.25 I34.723 J13.487 F750
G1 Z1.5
G2 Y109.25 I36.913 J5
G1 Z0 F30
G2 X24.682 Y126.382 I36.913 J-5 F750
G3 X24.226 Y130.438 I-2.413 J1.782
G2 X24.062 Y134.832 I1.957 J2.274
X28.457 Y134.669 I2.121 J-2.121
G3 X32.513 Y134.213 I2.273 J1.957
G2 X49.107 Y141.086 I22.131 J-29.963
G3 X51.653 Y144.277 I-0.446 J2.967
G2 X54.644 Y147.5 I2.992 J0.223
X57.636 Y144.277 J-3
G3 X60.182 Y141.086 I2.992 J-0.224
G2 X76.776 Y134.213 I-5.537 J-36.836
G3 X80.832 Y134.669 I1.782 J2.413
G2 X85.227 Y134.832 I2.274 J-1.957
X85.063 Y130.438 I-2.121 J-2.121
G3 X84.607 Y126.382 I1.957 J-2.274
G2 X88.076 Y120.677 I-29.963 J-22.131
G3 X90.769 Y119 I2.693 J1.323
G1 X114.207
Z1.5
X124.207
Z0 F30
X147.644 F750
G3 X150.644 Y122 J3
G2 X152.785 Y123.995 I2
X154.624 Y121.718 I-0.141 J-1.995
G3 X156.757 Y118.415 I2.97 J-0.422
G2 X159.751 Y117.174 I-4.115 J-14.164
G3 X163.596 Y118.002 I1.446 J2.629
G2 X166.609 Y118.215 I1.599 J-1.201
X166.396 Y115.202 I-1.414 J-1.414
G3 X165.569 Y111.358 I1.802 J-2.399
G2 X166.809 Y108.364 I-12.926 J-7.106
G3 X170.112 Y106.23 I2.881 J0.836
G2 X172.394 Y104.25 I0.282 J-1.98
X170.112 Y102.27 I-2
G3 X166.809 Y100.136 I-0.422 J-2.97
G2 X165.569 Y97.142 I-14.165 J4.113
G3 X166.396 Y93.298 I2.629 J-1.445
G2 X166.609 Y90.285 I-1.201 J-1.599
X163.596 Y90.498 I-1.414 J1.414
G3 X159.751 Y91.325 I-2.399 J-1.802
G2 X156.757 Y90.085 I-7.107 J12.925
G3 X154.624 Y86.782 I0.837 J-2.881
G2 X152.785 Y84.505 I-1.98 J-0.282
X150.644 Y86.5 I-0.141 J1.995
G3 X147.644 Y89.5 I-3
G1 X124.207
Z1.5
X114.207
Z0 F30
X90.769 F750
G3 X88.076 Y87.823 J-3
G2 X84.607 Y82.118 I-33.432 J16.427
G3 X85.063 Y78.063 I2.413 J-1.782
G2 X85.227 Y73.668 I-1.957 J-2.273
X80.832 Y73.832 I-2.121 J2.121
G3 X76.776 Y74.287 I-2.274 J-1.957
G2 X60.182 Y67.414 I-22.132 J29.963
G3 X57.636 Y64.224 I0.446 J-2.967
G2 X54.644 Y61 I-2.992 J-0.224
X51.653 Y64.224 J3
G3 X49.107 Y67.414 I-2.992 J0.224
G2 X32.513 Y74.287 I5.537 J36.836
G3 X28.457 Y73.832 I-1.782 J-2.413
G2 X24.062 Y73.668 I-2.274 J1.957
X24.226 Y78.062 I2.121 J2.121
G3 X24.682 Y82.118 I-1.957 J2.274
G2 X17.731 Y99.25 I29.963 J22.132
G1 Z1.5
G2 Y109.25 I36.913 J5
G1 Z0 F30
G2 X24.682 Y126.382 I36.913 J-5 F750
G3 X24.226 Y130.438 I-2.413 J1.782
G2 X24.062 Y134.832 I1.957 J2.274
X28.457 Y134.669 I2.121 J-2.121
G3 X32.513 Y134.213 I2.273 J1.957
G2 X49.107 Y141.086 I22.131 J-29.963
G3 X51.653 Y144.277 I-0.446 J2.967
G2 X54.644 Y147.5 I2.992 J0.223
X57.636 Y144.277 J-3
G3 X60.182 Y141.086 I2.992 J-0.224
G2 X76.776 Y134.213 I-5.537 J-36.836
G3 X80.832 Y134.669 I1.782 J2.413
G2 X85.227 Y134.832 I2.274 J-1.957
X85.063 Y130.438 I-2.121 J-2.121
G3 X84.607 Y126.382 I1.957 J-2.274
G2 X88.076 Y120.677 I-29.963 J-22.131
G3 X90.769 Y119 I2.693 J1.323
G1 X114.207
Z1.5
X124.207
Z0 F30
X147.644 F750
G3 X150.644 Y122 J3
G2 X152.785 Y123.995 I2
X154.624 Y121.718 I-0.141 J-1.995
G3 X156.757 Y118.415 I2.97 J-0.422
G2 X159.751 Y117.174 I-4.115 J-14.164
G3 X163.596 Y118.002 I1.446 J2.629
G2 X166.609 Y118.215 I1.599 J-1.201
X166.396 Y115.202 I-1.414 J-1.414
G3 X165.569 Y111.358 I1.802 J-2.399
G2 X166.809 Y108.364 I-12.926 J-7.106
G3 X170.112 Y106.23 I2.881 J0.836
G2 X172.394 Y104.25 I0.282 J-1.98
X170.112 Y102.27 I-2
G3 X166.809 Y100.136 I-0.422 J-2.97
G2 X165.569 Y97.142 I-14.165 J4.113
G3 X166.396 Y93.298 I2.629 J-1.445
G2 X166.609 Y90.285 I-1.201 J-1.599
X163.596 Y90.498 I-1.414 J1.414
G3 X159.751 Y91.325 I-2.399 J-1.802
G2 X156.757 Y90.085 I-7.107 J12.925
G3 X154.624 Y86.782 I0.837 J-2.881
G2 X152.785 Y84.505 I-1.98 J-0.282
X150.644 Y86.5 I-0.141 J1.995
G3 X147.644 Y89.5 I-3
G1 X124.207
Z1.5
X114.207
Z0 F30
X90.769 F750
G3 X88.076 Y87.823 J-3
G2 X84.607 Y82.118 I-33.432 J16.427
G3 X85.063 Y78.063 I2.413 J-1.782
G2 X85.227 Y73.668 I-1.957 J-2.273
X80.832 Y73.832 I-2.121 J2.121
G3 X76.776 Y74.287 I-2.274 J-1.957
G2 X60.182 Y67.414 I-22.132 J29.963
G3 X57.636 Y64.224 I0.446 J-2.967
G2 X54.644 Y61 I-2.992 J-0.224
X51.653 Y64.224 J3
G3 X49.107 Y67.414 I-2.992 J0.224
G2 X32.513 Y74.287 I5.537 J36.836
G3 X28.457 Y73.832 I-1.782 J-2.413
G2 X24.062 Y73.668 I-2.274 J1.957
X24.226 Y78.062 I2.121 J2.121
G3 X24.682 Y82.118 I-1.957 J2.274
G2 X19.921 Y90.763 I29.963 J22.132
X20.263 Y91.54 I0.559 J0.217 F300
G1 X20.823 Y91.757
X20.91 Y91.791 Z0.007
X20.996 Y91.824 Z0.029
X21.077 Y91.856 Z0.065
X21.152 Y91.885 Z0.115
X21.218 Y91.911 Z0.176
X21.275 Y91.933 Z0.247
X21.321 Y91.951 Z0.328
X21.355 Y91.964 Z0.415
X21.375 Y91.972 Z0.506
X21.382 Y91.974 Z0.6
G0 Z33
M9
G28 G91 Z0
G28 X0 Y0
M30
%
