%
(1001)
(drill base board holes)
(T1  D=8.839 CR=0 TAPER=118deg - ZMIN=-15 - drill)
G90 G94
G17
G21

(Drill1)
M9
T1 M6
S5000 M3
G54
M9
G0 X-1445 Y-40
Z15
Z5
Z2
G1 Z-6 F175
G0 Z0
G1 Z-12 F175
G0 Z-6
G1 Z-15 F175
G4 P0.25
G0 Z5
Y-253.333
Z2
G1 Z-6 F175
G0 Z0
G1 Z-12 F175
G0 Z-6
G1 Z-15 F175
G4 P0.25
G0 Z5
Y-466.667
Z2
G1 Z-6 F175
G0 Z0
G1 Z-12 F175
G0 Z-6
G1 Z-15 F175
G4 P0.25
G0 Z5
Y-680
Z2
G1 Z-6 F175
G0 Z0
G1 Z-12 F175
G0 Z-6
G1 Z-15 F175
G4 P0.25
G0 Z5
X-1088.75
Z2
G1 Z-6 F175
G0 Z0
G1 Z-12 F175
G0 Z-6
G1 Z-15 F175
G4 P0.25
G0 Z5
Y-466.667
Z2
G1 Z-6 F175
G0 Z0
G1 Z-12 F175
G0 Z-6
G1 Z-15 F175
G4 P0.25
G0 Z5
Y-253.333
Z2
G1 Z-6 F175
G0 Z0
G1 Z-12 F175
G0 Z-6
G1 Z-15 F175
G4 P0.25
G0 Z5
Y-40
Z2
G1 Z-6 F175
G0 Z0
G1 Z-12 F175
G0 Z-6
G1 Z-15 F175
G4 P0.25
G0 Z5
X-732.5
Z2
G1 Z-6 F175
G0 Z0
G1 Z-12 F175
G0 Z-6
G1 Z-15 F175
G4 P0.25
G0 Z5
Y-253.333
Z2
G1 Z-6 F175
G0 Z0
G1 Z-12 F175
G0 Z-6
G1 Z-15 F175
G4 P0.25
G0 Z5
Y-466.667
Z2
G1 Z-6 F175
G0 Z0
G1 Z-12 F175
G0 Z-6
G1 Z-15 F175
G4 P0.25
G0 Z5
Y-680
Z2
G1 Z-6 F175
G0 Z0
G1 Z-12 F175
G0 Z-6
G1 Z-15 F175
G4 P0.25
G0 Z5
X-376.25
Z2
G1 Z-6 F175
G0 Z0
G1 Z-12 F175
G0 Z-6
G1 Z-15 F175
G4 P0.25
G0 Z5
Y-466.667
Z2
G1 Z-6 F175
G0 Z0
G1 Z-12 F175
G0 Z-6
G1 Z-15 F175
G4 P0.25
G0 Z5
Y-253.333
Z2
G1 Z-6 F175
G0 Z0
G1 Z-12 F175
G0 Z-6
G1 Z-15 F175
G4 P0.25
G0 Z5
Y-40
Z2
G1 Z-6 F175
G0 Z0
G1 Z-12 F175
G0 Z-6
G1 Z-15 F175
G4 P0.25
G0 Z5
X-20
Z2
G1 Z-6 F175
G0 Z0
G1 Z-12 F175
G0 Z-6
G1 Z-15 F175
G4 P0.25
G0 Z5
Y-253.333
Z2
G1 Z-6 F175
G0 Z0
G1 Z-12 F175
G0 Z-6
G1 Z-15 F175
G4 P0.25
G0 Z5
Y-466.667
Z2
G1 Z-6 F175
G0 Z0
G1 Z-12 F175
G0 Z-6
G1 Z-15 F175
G4 P0.25
G0 Z5
Y-680
Z2
G1 Z-6 F175
G0 Z0
G1 Z-12 F175
G0 Z-6
G1 Z-15 F175
G4 P0.25
G0 Z5
Z15
M9
M30
%
