%
(1001)
(origin stock bottom)
(T1  D=12.7 CR=0 - ZMIN=10 - flat end mill)
G90 G94
G17
G21

(2D Contour4)
M9
T1 M6
S7000 M3
G54
G0 X-48.16 Y-563.27
Z33
Z23
G1 Z19 F283.3
Z11.27
G18 G2 X-46.89 Z10 I1.27
G1 X-45.62 F849.6
G17 G3 X-44.35 Y-562 J1.27
G1 Y-12.35
X-95.65
Y-587.65
X-44.35
Y-562
G3 X-45.62 Y-560.73 I-1.27
G1 X-46.89
G18 G3 X-48.16 Z11.27 K1.27
G0 Z23
X-169.16 Y-484.27
G1 Z19 F283.3
Z11.27
G2 X-167.89 Z10 I1.27
G1 X-166.62 F849.6
G17 G3 X-165.35 Y-483 J1.27
G1 Y-62.35
X-216.65
Y-508.65
X-165.35
Y-483
G3 X-166.62 Y-481.73 I-1.27
G1 X-167.89
G18 G3 X-169.16 Z11.27 K1.27
G0 Z33
G17
M30
%
