%
(1_18mm_mdf_facia_halfinch)
(origin stock bottom)
(T1  D=12.7 CR=0 - ZMIN=10 - flat end mill)
G90 G94
G17
G21

(2D Adaptive1)
M9
T1 M6
S6000 M3
G54
G0 X-67.481 Y-57.77
Z33
Z23
Z20.55
G3 X-72.519 Y-46.808 Z18.892 I-2.519 J5.481 F283.3
X-67.481 Y-57.77 Z17.234 I2.519 J-5.481
X-72.519 Y-46.808 Z15.576 I-2.519 J5.481
X-67.481 Y-57.77 Z13.918 I2.519 J-5.481
X-72.519 Y-46.808 Z12.26 I-2.519 J5.481
X-67.481 Y-57.77 Z10.602 I2.519 J-5.481
X-63.967 Y-52.289 Z10 I-2.519 J5.481
X-76.033 I-6.033
X-63.967 I6.033
G1 X-63.964 Y-51.966 F849.6
X-63.932 Y-51.645
X-63.691 Y-50.375
X-63.642 Y-50.221
X-63.599 Y-50.046
X-63.565 Y-49.851
X-63.542 Y-49.638
X-63.532 Y-49.407
X-63.538 Y-49.16
X-63.562 Y-48.897
X-63.606 Y-48.619
X-63.671 Y-48.329
X-63.761 Y-48.028
X-63.876 Y-47.719
X-64.018 Y-47.404
X-64.187 Y-47.086
X-64.385 Y-46.766
X-64.612 Y-46.449
X-64.869 Y-46.137
X-65.154 Y-45.833
X-65.469 Y-45.54
X-65.812 Y-45.26
X-66.181 Y-44.998
X-66.577 Y-44.755
X-66.996 Y-44.534
X-67.438 Y-44.337
X-67.9 Y-44.168
X-68.38 Y-44.027
X-68.876 Y-43.916
X-69.384 Y-43.838
X-69.903 Y-43.793
X-70.429 Y-43.782
X-70.96 Y-43.807
X-71.493 Y-43.867
X-72.024 Y-43.963
X-72.552 Y-44.095
X-73.074 Y-44.263
X-73.586 Y-44.467
X-74.085 Y-44.705
X-74.571 Y-44.976
X-75.039 Y-45.281
X-75.487 Y-45.617
X-75.913 Y-45.984
X-76.316 Y-46.379
X-76.692 Y-46.801
X-77.04 Y-47.248
X-77.358 Y-47.718
X-77.645 Y-48.209
X-77.9 Y-48.718
X-78.12 Y-49.245
X-78.305 Y-49.785
X-78.454 Y-50.337
X-78.566 Y-50.898
X-78.641 Y-51.466
X-78.678 Y-52.038
X-78.677 Y-52.612
X-78.638 Y-53.185
X-78.561 Y-53.754
X-78.446 Y-54.317
X-78.294 Y-54.872
X-78.106 Y-55.415
X-77.882 Y-55.945
X-77.623 Y-56.459
X-77.33 Y-56.955
X-77.006 Y-57.43
X-76.65 Y-57.883
X-76.265 Y-58.312
X-75.853 Y-58.714
X-75.414 Y-59.088
X-74.952 Y-59.432
X-74.468 Y-59.744
X-73.964 Y-60.024
X-73.443 Y-60.27
X-72.906 Y-60.481
X-72.357 Y-60.656
X-71.797 Y-60.794
X-71.229 Y-60.894
X-70.656 Y-60.957
X-70.08 Y-60.981
X-69.503 Y-60.967
X-68.929 Y-60.915
X-68.359 Y-60.826
X-67.797 Y-60.698
X-67.244 Y-60.533
X-66.703 Y-60.333
X-66.177 Y-60.096
X-65.668 Y-59.826
X-65.178 Y-59.522
X-64.709 Y-59.186
X-64.263 Y-58.82
X-63.842 Y-58.425
X-63.449 Y-58.003
X-63.084 Y-57.556
X-62.75 Y-57.086
X-62.448 Y-56.595
X-61.879 Y-55.515
X-61.433 Y-54.513
X-61.125 Y-53.674
X-60.904 Y-52.923
X-60.746 Y-52.213
X-60.642 Y-51.542
X-60.586 Y-50.896
X-60.573 Y-50.264
X-60.601 Y-49.644
X-60.67 Y-49.036
X-60.778 Y-48.44
X-60.924 Y-47.855
X-61.108 Y-47.281
X-61.331 Y-46.721
X-61.591 Y-46.174
X-61.889 Y-45.642
X-62.224 Y-45.127
X-62.596 Y-44.631
X-63.003 Y-44.156
X-63.446 Y-43.705
X-63.924 Y-43.279
X-64.433 Y-42.882
X-64.974 Y-42.515
X-65.545 Y-42.181
X-66.142 Y-41.883
X-66.763 Y-41.623
X-67.406 Y-41.403
X-68.068 Y-41.224
X-68.746 Y-41.088
X-69.437 Y-40.997
X-70.139 Y-40.951
X-70.847 Y-40.953
X-71.559 Y-41.001
X-72.27 Y-41.097
X-72.979 Y-41.241
X-73.68 Y-41.433
X-74.371 Y-41.673
X-75.048 Y-41.959
X-75.709 Y-42.291
X-76.348 Y-42.668
X-76.963 Y-43.088
X-77.552 Y-43.549
X-78.11 Y-44.05
X-78.635 Y-44.589
X-79.125 Y-45.163
X-79.577 Y-45.77
X-79.988 Y-46.406
X-80.357 Y-47.07
X-80.682 Y-47.758
X-80.961 Y-48.467
X-81.192 Y-49.195
X-81.375 Y-49.937
X-81.509 Y-50.69
X-81.592 Y-51.451
X-81.625 Y-52.217
X-81.607 Y-52.984
X-81.538 Y-53.749
X-81.418 Y-54.508
X-81.248 Y-55.258
X-81.029 Y-55.995
X-80.761 Y-56.717
X-80.446 Y-57.419
X-80.085 Y-58.1
X-79.679 Y-58.755
X-79.23 Y-59.382
X-78.741 Y-59.978
X-78.213 Y-60.54
X-77.649 Y-61.067
X-77.051 Y-61.554
X-76.422 Y-62.002
X-75.765 Y-62.406
X-75.082 Y-62.766
X-74.377 Y-63.08
X-73.652 Y-63.347
X-72.911 Y-63.565
X-72.158 Y-63.733
X-71.394 Y-63.851
X-70.625 Y-63.919
X-69.852 Y-63.935
X-69.081 Y-63.899
X-68.313 Y-63.813
X-67.553 Y-63.676
X-66.803 Y-63.489
X-66.067 Y-63.252
X-65.349 Y-62.967
X-64.651 Y-62.636
X-63.977 Y-62.258
X-63.329 Y-61.837
X-62.711 Y-61.374
X-62.061 Y-60.816
X-61.433 Y-60.201
X-60.8 Y-59.491
X-60.198 Y-58.719
X-59.647 Y-57.907
X-59.156 Y-57.067
X-58.728 Y-56.21
X-58.364 Y-55.344
X-58.065 Y-54.472
X-57.829 Y-53.599
X-57.655 Y-52.73
X-57.541 Y-51.866
X-57.485 Y-51.009
X-57.486 Y-50.16
X-57.543 Y-49.32
X-57.655 Y-48.491
X-57.82 Y-47.675
X-58.039 Y-46.873
X-58.311 Y-46.089
X-58.634 Y-45.324
X-59.007 Y-44.581
X-59.43 Y-43.862
X-59.902 Y-43.171
X-60.421 Y-42.509
X-60.985 Y-41.881
X-61.593 Y-41.288
X-62.242 Y-40.733
X-62.931 Y-40.22
X-63.656 Y-39.751
X-64.415 Y-39.329
X-65.206 Y-38.956
X-66.025 Y-38.633
X-66.868 Y-38.365
X-67.733 Y-38.151
X-68.615 Y-37.994
X-69.512 Y-37.896
X-70.419 Y-37.857
X-71.331 Y-37.878
X-72.246 Y-37.96
X-73.157 Y-38.104
X-74.062 Y-38.308
X-74.956 Y-38.574
X-75.834 Y-38.9
X-76.691 Y-39.284
X-77.525 Y-39.727
X-78.331 Y-40.225
X-79.104 Y-40.778
X-79.841 Y-41.382
X-80.538 Y-42.036
X-81.192 Y-42.737
X-81.799 Y-43.481
X-82.357 Y-44.266
X-82.863 Y-45.087
X-83.314 Y-45.942
X-83.708 Y-46.826
X-84.043 Y-47.736
X-84.318 Y-48.667
X-84.53 Y-49.615
X-84.679 Y-50.577
X-84.764 Y-51.548
X-84.784 Y-52.522
X-84.74 Y-53.497
X-84.631 Y-54.468
X-84.458 Y-55.429
X-84.221 Y-56.378
X-83.922 Y-57.31
X-83.562 Y-58.22
X-83.141 Y-59.104
X-82.663 Y-59.959
X-82.129 Y-60.781
X-81.541 Y-61.566
X-80.903 Y-62.31
X-80.216 Y-63.011
X-79.484 Y-63.665
X-78.711 Y-64.268
X-77.898 Y-64.82
X-77.051 Y-65.316
X-76.173 Y-65.755
X-75.267 Y-66.135
X-74.338 Y-66.454
X-73.39 Y-66.711
X-72.427 Y-66.904
X-71.453 Y-67.033
X-70.472 Y-67.097
X-69.49 Y-67.096
X-68.509 Y-67.03
X-67.535 Y-66.899
X-66.572 Y-66.704
X-65.624 Y-66.445
X-64.695 Y-66.124
X-63.775 Y-65.736
X-62.868 Y-65.28
X-61.971 Y-64.752
X-61.09 Y-64.151
X-60.236 Y-63.482
X-59.416 Y-62.747
X-58.636 Y-61.948
X-57.905 Y-61.092
X-57.228 Y-60.183
X-56.612 Y-59.231
X-56.062 Y-58.243
X-55.581 Y-57.226
X-55.172 Y-56.188
X-54.836 Y-55.134
X-54.573 Y-54.069
X-54.382 Y-52.998
X-54.264 Y-51.924
X-54.217 Y-50.851
X-54.242 Y-49.783
X-54.337 Y-48.724
X-54.501 Y-47.676
X-54.735 Y-46.644
X-55.035 Y-45.631
X-55.402 Y-44.64
X-55.835 Y-43.676
X-56.33 Y-42.741
X-56.888 Y-41.84
X-57.505 Y-40.975
X-58.181 Y-40.152
X-58.911 Y-39.372
X-59.695 Y-38.641
X-60.528 Y-37.96
X-61.408 Y-37.334
X-62.331 Y-36.765
X-63.295 Y-36.256
X-64.294 Y-35.81
X-65.325 Y-35.43
X-66.385 Y-35.118
X-67.468 Y-34.875
X-68.569 Y-34.704
X-69.685 Y-34.606
X-70.81 Y-34.582
X-71.939 Y-34.633
X-73.067 Y-34.759
X-74.19 Y-34.961
X-75.301 Y-35.238
X-76.395 Y-35.589
X-77.468 Y-36.014
X-78.514 Y-36.51
X-79.528 Y-37.077
X-80.505 Y-37.712
X-81.44 Y-38.412
X-82.33 Y-39.174
X-83.168 Y-39.996
X-83.953 Y-40.873
X-84.678 Y-41.803
X-85.342 Y-42.78
X-85.94 Y-43.801
X-86.471 Y-44.861
X-86.93 Y-45.956
X-87.317 Y-47.08
X-87.628 Y-48.229
X-87.863 Y-49.397
X-88.02 Y-50.579
X-88.098 Y-51.77
X-88.097 Y-52.965
X-88.017 Y-54.158
X-87.858 Y-55.344
X-87.62 Y-56.517
X-87.305 Y-57.673
X-86.913 Y-58.806
X-86.448 Y-59.911
X-85.909 Y-60.983
X-85.301 Y-62.017
X-84.625 Y-63.009
X-83.885 Y-63.955
X-83.083 Y-64.849
X-82.223 Y-65.689
X-81.31 Y-66.47
X-80.346 Y-67.188
X-79.337 Y-67.842
X-78.286 Y-68.427
X-77.199 Y-68.941
X-76.08 Y-69.382
X-74.934 Y-69.748
X-73.767 Y-70.037
X-72.582 Y-70.248
X-71.386 Y-70.38
X-70.184 Y-70.432
X-68.981 Y-70.405
X-67.782 Y-70.298
X-66.59 Y-70.111
X-65.406 Y-69.844
X-64.233 Y-69.496
X-63.072 Y-69.066
X-61.928 Y-68.554
X-60.808 Y-67.96
X-59.716 Y-67.285
X-58.664 Y-66.534
X-57.665 Y-65.716
X-56.72 Y-64.834
X-55.835 Y-63.893
X-55.012 Y-62.896
X-54.255 Y-61.85
X-53.566 Y-60.757
X-52.948 Y-59.622
X-52.405 Y-58.45
X-51.938 Y-57.245
X-51.55 Y-56.012
X-51.244 Y-54.757
X-51.02 Y-53.485
X-50.88 Y-52.2
X-50.824 Y-50.909
X-50.855 Y-49.618
X-50.97 Y-48.332
X-51.17 Y-47.06
X-51.454 Y-45.804
X-51.821 Y-44.571
X-52.268 Y-43.365
X-52.795 Y-42.191
X-53.398 Y-41.053
X-54.077 Y-39.956
X-54.828 Y-38.906
X-55.648 Y-37.907
X-56.531 Y-36.964
X-57.476 Y-36.082
X-58.476 Y-35.264
X-59.527 Y-34.513
X-60.626 Y-33.833
X-61.766 Y-33.226
X-62.944 Y-32.695
X-64.154 Y-32.241
X-65.39 Y-31.866
X-66.649 Y-31.572
X-67.923 Y-31.359
X-69.208 Y-31.229
X-70.5 Y-31.18
X-71.791 Y-31.213
X-73.078 Y-31.328
X-74.355 Y-31.523
X-75.618 Y-31.797
X-76.861 Y-32.15
X-78.079 Y-32.58
X-79.269 Y-33.084
X-80.426 Y-33.66
X-81.544 Y-34.306
X-82.621 Y-35.02
X-83.651 Y-35.8
X-84.631 Y-36.642
X-85.558 Y-37.543
X-86.427 Y-38.499
X-87.236 Y-39.506
X-87.982 Y-40.561
X-88.663 Y-41.659
X-89.276 Y-42.796
X-89.82 Y-43.968
X-90.292 Y-45.171
X-90.691 Y-46.4
X-91.014 Y-47.651
X-91.261 Y-48.919
X-91.43 Y-50.2
X-91.52 Y-51.489
X-91.533 Y-52.781
X-91.467 Y-54.072
X-91.325 Y-55.356
X-91.106 Y-56.629
X-90.811 Y-57.887
X-90.442 Y-59.125
X-89.999 Y-60.339
X-89.484 Y-61.524
X-88.898 Y-62.675
X-88.243 Y-63.789
X-87.522 Y-64.861
X-86.738 Y-65.888
X-85.894 Y-66.867
X-84.993 Y-67.793
X-84.038 Y-68.664
X-83.034 Y-69.476
X-81.983 Y-70.228
X-80.888 Y-70.915
X-79.755 Y-71.534
X-78.585 Y-72.084
X-77.385 Y-72.562
X-76.158 Y-72.967
X-74.909 Y-73.298
X-73.643 Y-73.554
X-72.363 Y-73.734
X-71.075 Y-73.838
X-69.784 Y-73.866
X-68.493 Y-73.816
X-67.207 Y-73.689
X-65.931 Y-73.484
X-64.67 Y-73.203
X-63.427 Y-72.849
X-62.207 Y-72.423
X-61.014 Y-71.928
X-59.851 Y-71.366
X-58.721 Y-70.738
X-57.63 Y-70.046
X-56.58 Y-69.293
X-55.574 Y-68.482
X-54.615 Y-67.617
X-53.704 Y-66.7
X-52.845 Y-65.736
X-52.04 Y-64.725
X-51.293 Y-63.671
X-50.606 Y-62.576
X-49.98 Y-61.446
X-49.417 Y-60.283
X-48.918 Y-59.091
X-48.485 Y-57.874
X-48.12 Y-56.635
X-47.826 Y-55.376
X-47.604 Y-54.104
X-47.452 Y-52.82
X-47.371 Y-51.531
X-47.362 Y-50.239
X-47.425 Y-48.948
X-47.562 Y-47.664
X-47.772 Y-46.389
X-48.053 Y-45.128
X-48.405 Y-43.885
X-48.826 Y-42.663
X-49.314 Y-41.466
X-49.868 Y-40.299
X-50.489 Y-39.166
X-51.173 Y-38.07
X-51.918 Y-37.015
X-52.721 Y-36.002
X-53.579 Y-35.036
X-54.488 Y-34.118
X-55.448 Y-33.254
X-56.456 Y-32.445
X-57.508 Y-31.694
X-58.599 Y-31.003
X-59.728 Y-30.373
X-60.888 Y-29.806
X-62.078 Y-29.303
X-63.295 Y-28.867
X-64.534 Y-28.501
X-65.791 Y-28.203
X-67.063 Y-27.974
X-68.345 Y-27.814
X-69.634 Y-27.723
X-70.926 Y-27.702
X-72.217 Y-27.751
X-73.503 Y-27.872
X-74.781 Y-28.061
X-76.047 Y-28.318
X-77.298 Y-28.642
X-78.53 Y-29.032
X-79.74 Y-29.485
X-80.924 Y-30.003
X-82.077 Y-30.585
X-83.199 Y-31.227
X-84.284 Y-31.927
X-85.332 Y-32.684
X-86.338 Y-33.494
X-87.301 Y-34.356
X-88.216 Y-35.268
X-89.082 Y-36.227
X-89.895 Y-37.231
X-90.655 Y-38.276
X-91.36 Y-39.358
X-92.009 Y-40.476
X-92.599 Y-41.625
X-93.128 Y-42.804
X-93.594 Y-44.009
X-93.995 Y-45.237
X-94.333 Y-46.485
X-94.605 Y-47.748
X-94.812 Y-49.023
X-94.953 Y-50.307
X-95.027 Y-51.597
X-95.032 Y-52.889
X-94.97 Y-54.18
X-94.842 Y-55.466
X-94.648 Y-56.743
X-94.389 Y-58.009
X-94.067 Y-59.26
X-93.679 Y-60.492
X-93.226 Y-61.703
X-92.711 Y-62.888
X-92.136 Y-64.044
X-91.501 Y-65.17
X-90.81 Y-66.262
X-90.064 Y-67.317
X-89.265 Y-68.332
X-88.414 Y-69.304
X-87.513 Y-70.23
X-86.566 Y-71.109
X-85.575 Y-71.938
X-84.543 Y-72.716
X-83.473 Y-73.44
X-82.367 Y-74.107
X-81.227 Y-74.715
X-80.057 Y-75.263
X-78.86 Y-75.75
X-77.639 Y-76.174
X-76.399 Y-76.537
X-75.142 Y-76.835
X-73.871 Y-77.07
X-72.59 Y-77.237
X-71.302 Y-77.337
X-70.01 Y-77.371
X-68.719 Y-77.339
X-67.43 Y-77.24
X-66.149 Y-77.077
X-64.877 Y-76.849
X-63.619 Y-76.556
X-62.377 Y-76.199
X-61.154 Y-75.781
X-59.955 Y-75.301
X-58.78 Y-74.763
X-57.633 Y-74.167
X-56.517 Y-73.517
X-55.434 Y-72.812
X-54.388 Y-72.054
X-53.38 Y-71.246
X-52.412 Y-70.39
X-51.487 Y-69.488
X-50.606 Y-68.543
X-49.77 Y-67.557
X-48.983 Y-66.532
X-48.247 Y-65.471
X-47.563 Y-64.375
X-46.932 Y-63.247
X-46.357 Y-62.09
X-45.837 Y-60.907
X-45.375 Y-59.701
X-44.97 Y-58.474
X-44.625 Y-57.228
X-44.43 Y-56.364
X-44.386 Y-56.124
X-44.359 Y-55.882
X-44.35 Y-55.639
Y-48.861
X-44.415 Y-47.57
X-44.51 Y-46.282
X-44.691 Y-45.003
X-44.95 Y-43.737
X-45.284 Y-42.489
X-45.689 Y-41.262
X-46.161 Y-40.059
X-46.698 Y-38.884
X-47.295 Y-37.738
X-47.95 Y-36.624
X-48.66 Y-35.545
X-49.423 Y-34.502
X-50.236 Y-33.498
X-51.099 Y-32.536
X-52.008 Y-31.619
X-52.963 Y-30.747
X-53.958 Y-29.924
X-54.992 Y-29.149
X-56.062 Y-28.425
X-57.165 Y-27.752
X-58.3 Y-27.134
X-59.244 Y-26.678
X-59.704 Y-26.497
X-60.186 Y-26.387
X-60.679 Y-26.35
X-77.445
X-78.483 Y-26.402
X-79.334 Y-26.501
X-80.288 Y-26.678
X-81.295 Y-26.934
X-82.381 Y-27.289
X-83.548 Y-27.757
X-84.713 Y-28.317
X-85.84 Y-28.949
X-86.928 Y-29.645
X-87.976 Y-30.401
X-88.983 Y-31.211
X-89.947 Y-32.071
X-90.866 Y-32.979
X-91.739 Y-33.932
X-92.564 Y-34.926
X-93.342 Y-35.958
X-94.07 Y-37.025
X-94.748 Y-38.125
X-95.236 Y-39.004
X-95.415 Y-39.381
X-95.545 Y-39.778
X-95.624 Y-40.188
X-95.65 Y-40.605
Y-60.669
X-95.594 Y-61.783
X-95.507 Y-62.529
X-95.353 Y-63.36
X-95.128 Y-64.246
X-94.806 Y-65.231
X-94.378 Y-66.298
X-93.835 Y-67.428
X-93.199 Y-68.553
X-92.493 Y-69.635
X-91.725 Y-70.674
X-90.899 Y-71.668
X-90.022 Y-72.616
X-89.098 Y-73.519
X-88.13 Y-74.375
X-87.122 Y-75.184
X-86.077 Y-75.944
X-84.998 Y-76.654
X-83.886 Y-77.313
X-82.745 Y-77.918
X-81.577 Y-78.47
X-80.384 Y-78.968
X-79.171 Y-79.411
X-77.938 Y-79.799
X-76.69 Y-80.131
X-75.427 Y-80.407
X-74.154 Y-80.626
X-72.872 Y-80.786
X-71.584 Y-80.886
X-70.292 Y-80.929
X-69 Y-80.914
X-67.71 Y-80.841
X-66.425 Y-80.711
X-65.146 Y-80.524
X-63.878 Y-80.28
X-62.621 Y-79.98
X-61.379 Y-79.624
X-60.154 Y-79.213
X-58.948 Y-78.748
X-57.764 Y-78.232
X-56.603 Y-77.665
X-55.468 Y-77.048
X-54.36 Y-76.383
X-53.282 Y-75.67
X-52.237 Y-74.911
X-51.225 Y-74.108
X-50.249 Y-73.261
X-49.309 Y-72.374
X-48.408 Y-71.448
X-47.547 Y-70.485
X-46.727 Y-69.486
X-45.951 Y-68.454
X-45.219 Y-67.389
X-44.852 Y-66.802
X-44.636 Y-66.395
X-44.478 Y-65.962
X-44.382 Y-65.512
X-44.35 Y-65.052
Y-55.639
G3 X-44.78 Y-54.731 I-1.269 J-0.044
G1 X-76.65 Y-26.666
G3 X-77.445 Y-26.35 I-0.839 J-0.953
G1 X-84.303
X-84.833 Y-26.377
X-85.398 Y-26.443
X-86.007 Y-26.555
X-86.708 Y-26.733
X-87.441 Y-26.973
X-88.266 Y-27.304
X-89.168 Y-27.738
X-90.108 Y-28.269
X-91.112 Y-28.929
X-92.143 Y-29.708
X-93.122 Y-30.552
X-94.049 Y-31.451
X-94.773 Y-32.234
X-95.079 Y-32.619
X-95.325 Y-33.045
X-95.504 Y-33.504
X-95.613 Y-33.984
X-95.65 Y-34.474
Y-40.605
G3 X-93.377 Y-41.339 I1.269 J0.044
G1 X-83.344 Y-28.397
G3 X-84.303 Y-26.35 I-1.004 J0.778
G1 X-89.256
X-89.961 Y-26.385
X-90.41 Y-26.438
X-90.936 Y-26.535
X-91.494 Y-26.677
X-92.129 Y-26.884
X-92.791 Y-27.15
X-93.507 Y-27.494
X-94.173 Y-27.871
X-94.54 Y-28.151
X-94.865 Y-28.481
X-95.14 Y-28.853
X-95.36 Y-29.26
X-95.52 Y-29.694
X-95.617 Y-30.147
X-95.65 Y-30.608
G3 X-93.744 Y-31.663 I1.269 J0.044
G1 X-88.663 Y-28.718
G3 X-89.256 Y-26.35 I-0.637 J1.099
G1 X-93.656
X-93.842 Y-26.359
X-94.206 Y-26.436
X-94.549 Y-26.577
X-94.862 Y-26.777
X-95.133 Y-27.031
X-95.353 Y-27.33
X-95.516 Y-27.663
X-95.616 Y-28.021
X-95.65 Y-28.391
G3 X-93.187 Y-30.182 I1.932 J0.067
X-93.656 Y-26.35 I-0.537 J1.879
G1 X-94.399
X-94.589 Y-26.37
X-94.67 Y-26.387
X-94.82 Y-26.434
X-94.97 Y-26.503
X-95.14 Y-26.613
X-95.31 Y-26.768
X-95.351 Y-26.815
X-95.47 Y-26.982
X-95.554 Y-27.149
X-95.616 Y-27.339
X-95.646 Y-27.53
X-95.65 Y-27.911
Y-34.474
G3 X-94.74 Y-35.648 I1.269 J0.044
G1 X-45.979 Y-50.035
G3 X-44.35 Y-48.861 I0.359 J1.218
G1 Y-40.1
X-44.4 Y-39.106
X-44.475 Y-38.464
X-44.606 Y-37.753
X-44.813 Y-36.942
X-45.091 Y-36.089
X-45.469 Y-35.148
X-45.96 Y-34.126
X-46.574 Y-33.04
X-47.283 Y-31.96
X-48.059 Y-30.927
X-48.892 Y-29.94
X-49.779 Y-28.999
X-50.712 Y-28.106
X-51.689 Y-27.261
X-51.951 Y-27.055
X-52.313 Y-26.807
X-52.706 Y-26.61
X-53.121 Y-26.466
X-53.551 Y-26.379
X-53.989 Y-26.35
X-60.679
G3 X-61.445 Y-28.597 I0.044 J-1.269
G1 X-46.429 Y-41.034
G3 X-44.35 Y-40.1 I0.81 J0.978
G1 Y-34.005
X-44.371 Y-33.591
X-44.431 Y-33.075
X-44.531 Y-32.533
X-44.691 Y-31.904
X-44.908 Y-31.24
X-45.204 Y-30.503
X-45.596 Y-29.688
X-46.075 Y-28.841
X-46.657 Y-27.955
X-46.88 Y-27.66
X-47.164 Y-27.331
X-47.49 Y-27.042
X-47.85 Y-26.799
X-48.24 Y-26.605
X-48.651 Y-26.464
X-49.078 Y-26.379
X-49.512 Y-26.35
X-53.989
G3 X-54.715 Y-28.63 I0.044 J-1.269
G1 X-46.389 Y-34.971
G3 X-44.35 Y-34.005 I0.77 J1.01
G1 Y-29.434
X-44.376 Y-28.921
X-44.412 Y-28.611
X-44.441 Y-28.452
X-44.56 Y-28.023
X-44.751 Y-27.62
X-45.008 Y-27.257
X-45.324 Y-26.944
X-45.69 Y-26.69
X-46.094 Y-26.503
X-46.524 Y-26.389
X-46.967 Y-26.35
G3 X-47.945 Y-28.372 I0.044 J-1.269
G1 X-46.642 Y-30.143
G3 X-44.35 Y-29.434 I1.023 J0.753
G1 Y-27.911
X-44.354 Y-27.53
X-44.384 Y-27.339
X-44.446 Y-27.149
X-44.541 Y-26.963
X-44.604 Y-26.871
X-44.681 Y-26.778
X-44.69 Y-26.768
X-44.783 Y-26.677
X-44.876 Y-26.6
X-45.062 Y-26.486
X-45.195 Y-26.428
X-45.329 Y-26.387
X-45.443 Y-26.364
X-45.824 Y-26.35
X-49.512
G3 X-50.221 Y-26.597 I0.044 J-1.269
G1 X-50.24 Y-26.611
X-95.134 Y-59.691
G3 X-95.65 Y-60.669 I0.753 J-1.022
G1 Y-67.145
X-95.621 Y-67.722
X-95.557 Y-68.267
X-95.452 Y-68.837
X-95.283 Y-69.502
X-95.057 Y-70.193
X-94.743 Y-70.975
X-94.334 Y-71.827
X-93.831 Y-72.715
X-93.201 Y-73.675
X-92.432 Y-74.693
X-91.586 Y-75.67
X-90.682 Y-76.593
X-89.729 Y-77.465
X-88.731 Y-78.285
X-87.693 Y-79.056
X-86.621 Y-79.776
X-85.516 Y-80.446
X-84.381 Y-81.065
X-83.221 Y-81.633
X-82.038 Y-82.151
X-80.833 Y-82.619
X-79.611 Y-83.037
X-78.372 Y-83.404
X-77.119 Y-83.72
X-75.855 Y-83.986
X-74.58 Y-84.199
X-73.298 Y-84.36
X-72.011 Y-84.468
X-70.72 Y-84.524
X-69.428 Y-84.529
X-68.137 Y-84.482
X-66.848 Y-84.384
X-65.565 Y-84.236
X-64.288 Y-84.037
X-63.02 Y-83.787
X-61.764 Y-83.487
X-60.52 Y-83.136
X-59.291 Y-82.737
X-58.079 Y-82.291
X-56.885 Y-81.797
X-55.71 Y-81.258
X-54.558 Y-80.674
X-53.429 Y-80.047
X-52.324 Y-79.376
X-51.247 Y-78.662
X-50.199 Y-77.907
X-49.18 Y-77.112
X-48.193 Y-76.278
X-47.238 Y-75.408
X-46.317 Y-74.502
X-45.431 Y-73.562
X-45.165 Y-73.258
X-44.88 Y-72.88
X-44.652 Y-72.465
X-44.485 Y-72.021
X-44.384 Y-71.559
X-44.35 Y-71.086
Y-65.052
G3 X-45.674 Y-63.827 I-1.269 J-0.044
G1 X-94.435 Y-65.92
G3 X-95.65 Y-67.145 I0.054 J-1.269
G1 Y-72.096
X-95.621 Y-72.673
X-95.57 Y-73.11
X-95.474 Y-73.631
X-95.338 Y-74.165
X-95.135 Y-74.788
X-94.878 Y-75.427
X-94.53 Y-76.152
X-94.094 Y-76.922
X-93.56 Y-77.735
X-92.896 Y-78.613
X-92.094 Y-79.54
X-91.185 Y-80.458
X-90.22 Y-81.317
X-89.208 Y-82.12
X-88.155 Y-82.869
X-87.066 Y-83.564
X-85.946 Y-84.208
X-84.798 Y-84.802
X-83.626 Y-85.345
X-82.432 Y-85.84
X-81.22 Y-86.287
X-79.991 Y-86.686
X-78.748 Y-87.037
X-77.492 Y-87.341
X-76.226 Y-87.598
X-74.951 Y-87.808
X-73.669 Y-87.97
X-72.382 Y-88.084
X-71.092 Y-88.15
X-69.8 Y-88.17
X-68.508 Y-88.143
X-67.218 Y-88.069
X-65.931 Y-87.95
X-64.65 Y-87.784
X-63.375 Y-87.573
X-62.109 Y-87.317
X-60.852 Y-87.016
X-59.608 Y-86.67
X-58.376 Y-86.279
X-57.159 Y-85.845
X-55.958 Y-85.369
X-54.774 Y-84.851
X-53.609 Y-84.292
X-52.464 Y-83.693
X-51.341 Y-83.055
X-50.241 Y-82.378
X-49.165 Y-81.663
X-48.114 Y-80.91
X-47.091 Y-80.121
X-46.096 Y-79.297
X-45.454 Y-78.725
X-45.131 Y-78.393
X-44.857 Y-78.02
X-44.639 Y-77.611
X-44.479 Y-77.177
X-44.382 Y-76.724
X-44.35 Y-76.262
Y-71.086
G3 X-45.646 Y-69.861 I-1.269 J-0.044
G1 X-94.407 Y-70.871
G3 X-95.65 Y-72.096 I0.026 J-1.27
G1 Y-76.667
X-95.627 Y-77.123
X-95.576 Y-77.558
X-95.494 Y-78.003
X-95.363 Y-78.519
X-95.185 Y-79.065
X-94.941 Y-79.673
X-94.634 Y-80.31
X-94.23 Y-81.024
X-93.75 Y-81.756
X-93.153 Y-82.545
X-92.424 Y-83.387
X-91.553 Y-84.268
X-90.585 Y-85.124
X-89.566 Y-85.919
X-88.504 Y-86.655
X-87.406 Y-87.336
X-86.277 Y-87.963
X-85.12 Y-88.539
X-83.94 Y-89.065
X-82.739 Y-89.543
X-81.521 Y-89.974
X-80.288 Y-90.358
X-79.041 Y-90.698
X-77.783 Y-90.992
X-76.515 Y-91.242
X-75.24 Y-91.448
X-73.958 Y-91.61
X-72.671 Y-91.728
X-71.381 Y-91.802
X-70.09 Y-91.832
X-68.798 Y-91.82
X-67.507 Y-91.764
X-66.218 Y-91.667
X-64.934 Y-91.527
X-63.655 Y-91.346
X-62.382 Y-91.123
X-61.117 Y-90.859
X-59.861 Y-90.555
X-58.616 Y-90.21
X-57.383 Y-89.824
X-56.163 Y-89.399
X-54.957 Y-88.935
X-53.767 Y-88.433
X-52.593 Y-87.892
X-51.437 Y-87.315
X-50.3 Y-86.702
X-49.183 Y-86.053
X-48.087 Y-85.369
X-47.013 Y-84.651
X-45.965 Y-83.894
X-45.571 Y-83.575
X-45.215 Y-83.24
X-44.913 Y-82.856
X-44.671 Y-82.431
X-44.494 Y-81.976
X-44.386 Y-81.499
X-44.35 Y-81.012
Y-76.262
G3 X-45.63 Y-75.036 I-1.269 J-0.044
G1 X-94.391 Y-75.442
G3 X-95.65 Y-76.667 I0.011 J-1.27
G1 Y-80.857
X-95.625 Y-81.354
X-95.579 Y-81.747
X-95.499 Y-82.179
X-95.374 Y-82.671
X-95.209 Y-83.177
X-94.975 Y-83.76
X-94.69 Y-84.353
X-94.316 Y-85.014
X-93.855 Y-85.716
X-93.303 Y-86.446
X-92.622 Y-87.233
X-91.803 Y-88.06
X-90.836 Y-88.916
X-89.813 Y-89.706
X-88.746 Y-90.435
X-87.642 Y-91.106
X-86.506 Y-91.721
X-85.343 Y-92.284
X-84.157 Y-92.797
X-82.952 Y-93.262
X-81.729 Y-93.68
X-80.492 Y-94.054
X-79.243 Y-94.383
X-77.983 Y-94.669
X-76.714 Y-94.913
X-75.438 Y-95.115
X-74.156 Y-95.276
X-72.869 Y-95.396
X-71.58 Y-95.475
X-70.288 Y-95.513
X-68.996 Y-95.512
X-67.705 Y-95.47
X-66.415 Y-95.389
X-65.129 Y-95.269
X-63.847 Y-95.11
X-62.57 Y-94.913
X-61.299 Y-94.678
X-60.036 Y-94.406
X-58.782 Y-94.096
X-57.537 Y-93.749
X-56.303 Y-93.366
X-55.081 Y-92.946
X-53.872 Y-92.49
X-52.678 Y-91.998
X-51.498 Y-91.472
X-50.334 Y-90.911
X-49.186 Y-90.317
X-48.057 Y-89.689
X-46.948 Y-89.027
X-45.953 Y-88.369
X-45.652 Y-88.141
X-45.325 Y-87.856
X-45.038 Y-87.531
X-44.796 Y-87.171
X-44.603 Y-86.783
X-44.463 Y-86.372
X-44.378 Y-85.947
X-44.35 Y-85.514
Y-81.012
G3 X-45.615 Y-79.786 I-1.269 J-0.044
G1 X-94.377 Y-79.632
G3 X-95.65 Y-80.857 I-0.004 J-1.27
G1 Y-85.047
X-95.632 Y-85.416
X-95.589 Y-85.783
X-95.509 Y-86.215
X-95.394 Y-86.668
X-95.228 Y-87.174
X-95.009 Y-87.721
X-94.728 Y-88.305
X-94.375 Y-88.929
X-93.926 Y-89.612
X-93.403 Y-90.305
X-92.753 Y-91.055
X-91.97 Y-91.847
X-91.041 Y-92.669
X-90.019 Y-93.459
X-88.95 Y-94.184
X-87.842 Y-94.85
X-86.702 Y-95.458
X-85.536 Y-96.014
X-84.346 Y-96.518
X-83.137 Y-96.975
X-81.912 Y-97.385
X-80.673 Y-97.751
X-79.422 Y-98.074
X-78.161 Y-98.355
X-76.892 Y-98.596
X-75.615 Y-98.796
X-74.333 Y-98.957
X-73.047 Y-99.079
X-71.758 Y-99.163
X-70.466 Y-99.209
X-69.174 Y-99.217
X-67.883 Y-99.187
X-66.592 Y-99.121
X-65.304 Y-99.018
X-64.02 Y-98.879
X-62.74 Y-98.704
X-61.465 Y-98.493
X-60.196 Y-98.248
X-58.935 Y-97.968
X-57.682 Y-97.654
X-56.437 Y-97.305
X-55.203 Y-96.923
X-53.98 Y-96.507
X-52.769 Y-96.058
X-51.57 Y-95.575
X-50.385 Y-95.06
X-49.215 Y-94.513
X-48.061 Y-93.931
X-46.928 Y-93.31
X-46.021 Y-92.745
X-45.723 Y-92.53
X-45.379 Y-92.246
X-45.077 Y-91.918
X-44.822 Y-91.552
X-44.618 Y-91.155
X-44.47 Y-90.734
X-44.38 Y-90.297
X-44.35 Y-89.852
Y-85.514
G3 X-45.607 Y-84.289 I-1.269 J-0.044
G1 X-94.369 Y-83.822
G3 X-95.65 Y-85.047 I-0.012 J-1.27
G1 Y-88.857
X-95.624 Y-89.384
X-95.581 Y-89.745
X-95.503 Y-90.171
X-95.393 Y-90.603
X-95.228 Y-91.108
X-95.022 Y-91.622
X-94.741 Y-92.206
X-94.405 Y-92.799
X-93.968 Y-93.465
X-93.459 Y-94.138
X-92.834 Y-94.86
X-92.076 Y-95.626
X-91.177 Y-96.422
X-90.154 Y-97.212
X-89.084 Y-97.935
X-87.974 Y-98.597
X-86.831 Y-99.2
X-85.662 Y-99.75
X-84.47 Y-100.248
X-83.258 Y-100.698
X-82.031 Y-101.102
X-80.79 Y-101.462
X-79.538 Y-101.78
X-78.276 Y-102.057
X-77.006 Y-102.295
X-75.729 Y-102.494
X-74.447 Y-102.655
X-73.161 Y-102.779
X-71.872 Y-102.866
X-70.581 Y-102.918
X-69.289 Y-102.934
X-67.997 Y-102.914
X-66.706 Y-102.859
X-65.417 Y-102.77
X-64.131 Y-102.647
X-62.849 Y-102.49
X-61.571 Y-102.3
X-60.298 Y-102.077
X-59.032 Y-101.821
X-57.772 Y-101.534
X-56.52 Y-101.214
X-55.277 Y-100.862
X-54.043 Y-100.48
X-52.819 Y-100.066
X-51.606 Y-99.62
X-50.405 Y-99.144
X-49.217 Y-98.635
X-48.047 Y-98.088
X-46.899 Y-97.495
X-46.044 Y-96.98
X-45.765 Y-96.785
X-45.411 Y-96.501
X-45.1 Y-96.172
X-44.837 Y-95.802
X-44.627 Y-95.4
X-44.474 Y-94.973
X-44.381 Y-94.529
X-44.35 Y-94.077
Y-89.852
G3 X-45.593 Y-88.626 I-1.269 J-0.044
G1 X-94.355 Y-87.631
G3 X-95.65 Y-88.857 I-0.026 J-1.27
G1 Y-92.875
X-95.631 Y-93.263
X-95.588 Y-93.625
X-95.512 Y-94.04
X-95.403 Y-94.467
X-95.24 Y-94.966
X-95.039 Y-95.466
X-94.76 Y-96.046
X-94.434 Y-96.623
X-94.007 Y-97.273
X-93.505 Y-97.937
X-92.896 Y-98.641
X-92.155 Y-99.39
X-91.274 Y-100.17
X-90.251 Y-100.96
X-89.18 Y-101.682
X-88.068 Y-102.34
X-86.923 Y-102.94
X-85.752 Y-103.485
X-84.558 Y-103.978
X-83.345 Y-104.424
X-82.116 Y-104.823
X-80.874 Y-105.179
X-79.621 Y-105.494
X-78.358 Y-105.768
X-77.088 Y-106.004
X-75.811 Y-106.202
X-74.529 Y-106.364
X-73.244 Y-106.49
X-71.955 Y-106.581
X-70.664 Y-106.638
X-69.372 Y-106.66
X-68.08 Y-106.649
X-66.789 Y-106.605
X-65.499 Y-106.528
X-64.212 Y-106.419
X-62.927 Y-106.277
X-61.647 Y-106.105
X-60.371 Y-105.901
X-59.1 Y-105.666
X-57.836 Y-105.401
X-56.578 Y-105.106
X-55.327 Y-104.781
X-54.085 Y-104.427
X-52.851 Y-104.042
X-51.627 Y-103.628
X-50.414 Y-103.184
X-49.214 Y-102.704
X-48.032 Y-102.184
X-46.921 Y-101.633
X-46.096 Y-101.153
X-45.805 Y-100.957
X-45.442 Y-100.674
X-45.122 Y-100.342
X-44.852 Y-99.97
X-44.635 Y-99.563
X-44.478 Y-99.131
X-44.382 Y-98.68
X-44.35 Y-98.221
Y-94.077
G3 X-45.588 Y-92.852 I-1.269 J-0.044
G1 X-94.349 Y-91.65
G3 X-95.65 Y-92.875 I-0.031 J-1.27
G1 Y-96.856
X-95.638 Y-97.099
X-95.596 Y-97.461
X-95.521 Y-97.866
X-95.412 Y-98.292
X-95.252 Y-98.783
X-95.053 Y-99.278
X-94.778 Y-99.851
X-94.456 Y-100.42
X-94.037 Y-101.059
X-93.539 Y-101.717
X-92.94 Y-102.408
X-92.211 Y-103.145
X-91.344 Y-103.913
X-90.322 Y-104.702
X-89.25 Y-105.423
X-88.137 Y-106.079
X-86.991 Y-106.677
X-85.818 Y-107.218
X-84.623 Y-107.709
X-83.409 Y-108.151
X-82.179 Y-108.547
X-80.936 Y-108.9
X-79.682 Y-109.213
X-78.42 Y-109.486
X-77.149 Y-109.721
X-75.872 Y-109.919
X-74.591 Y-110.082
X-73.305 Y-110.211
X-72.016 Y-110.305
X-70.726 Y-110.367
X-69.434 Y-110.396
X-68.142 Y-110.393
X-66.85 Y-110.358
X-65.56 Y-110.292
X-64.272 Y-110.195
X-62.986 Y-110.067
X-61.703 Y-109.91
X-60.425 Y-109.723
X-59.151 Y-109.507
X-57.883 Y-109.262
X-56.62 Y-108.988
X-55.364 Y-108.686
X-54.114 Y-108.356
X-52.873 Y-107.997
X-51.641 Y-107.609
X-50.419 Y-107.189
X-49.21 Y-106.733
X-48.019 Y-106.233
X-46.953 Y-105.721
X-46.146 Y-105.265
X-45.839 Y-105.063
X-45.468 Y-104.781
X-45.141 Y-104.448
X-44.864 Y-104.073
X-44.643 Y-103.663
X-44.481 Y-103.226
X-44.383 Y-102.77
X-44.35 Y-102.305
Y-98.221
G3 X-45.584 Y-96.996 I-1.269 J-0.044
G1 X-94.345 Y-95.63
G3 X-95.65 Y-96.856 I-0.036 J-1.27
G1 Y-100.665
X-95.638 Y-100.912
X-95.595 Y-101.273
X-95.522 Y-101.67
X-95.414 Y-102.096
X-95.256 Y-102.578
X-95.058 Y-103.072
X-94.786 Y-103.637
X-94.467 Y-104.202
X-94.054 Y-104.832
X-93.559 Y-105.486
X-92.969 Y-106.167
X-92.249 Y-106.895
X-91.391 Y-107.654
X-90.38 Y-108.435
X-89.308 Y-109.156
X-88.194 Y-109.812
X-87.048 Y-110.407
X-85.874 Y-110.948
X-84.678 Y-111.436
X-83.463 Y-111.876
X-82.233 Y-112.271
X-80.99 Y-112.623
X-79.736 Y-112.935
X-78.473 Y-113.207
X-77.203 Y-113.443
X-75.926 Y-113.642
X-74.645 Y-113.807
X-73.359 Y-113.939
X-72.071 Y-114.037
X-70.781 Y-114.104
X-69.489 Y-114.139
X-68.197 Y-114.143
X-66.905 Y-114.118
X-65.614 Y-114.062
X-64.325 Y-113.976
X-63.038 Y-113.862
X-61.754 Y-113.718
X-60.473 Y-113.547
X-59.197 Y-113.347
X-57.925 Y-113.12
X-56.658 Y-112.865
X-55.397 Y-112.584
X-54.143 Y-112.274
X-52.896 Y-111.937
X-51.657 Y-111.569
X-50.428 Y-111.17
X-49.212 Y-110.733
X-48.014 Y-110.248
X-46.983 Y-109.765
X-46.19 Y-109.328
X-45.867 Y-109.12
X-45.49 Y-108.838
X-45.157 Y-108.505
X-44.874 Y-108.128
X-44.648 Y-107.714
X-44.484 Y-107.273
X-44.384 Y-106.813
X-44.35 Y-106.343
Y-102.305
G3 X-45.577 Y-101.08 I-1.269 J-0.044
G1 X-94.338 Y-99.44
G3 X-95.65 Y-100.665 I-0.043 J-1.269
G1 Y-104.302
X-95.63 Y-104.708
X-95.587 Y-105.069
X-95.515 Y-105.459
X-95.407 Y-105.885
X-95.252 Y-106.359
X-95.054 Y-106.853
X-94.786 Y-107.41
X-94.467 Y-107.974
X-94.059 Y-108.595
X-93.566 Y-109.248
X-92.983 Y-109.921
X-92.27 Y-110.642
X-91.419 Y-111.395
X-90.416 Y-112.17
X-89.344 Y-112.89
X-88.23 Y-113.546
X-87.083 Y-114.14
X-85.909 Y-114.68
X-84.713 Y-115.167
X-83.497 Y-115.606
X-82.267 Y-116
X-81.023 Y-116.351
X-79.769 Y-116.662
X-78.506 Y-116.935
X-77.236 Y-117.172
X-75.96 Y-117.373
X-74.679 Y-117.54
X-73.394 Y-117.674
X-72.106 Y-117.777
X-70.816 Y-117.848
X-69.524 Y-117.889
X-68.232 Y-117.901
X-66.94 Y-117.883
X-65.649 Y-117.836
X-64.359 Y-117.761
X-63.071 Y-117.658
X-61.786 Y-117.527
X-60.503 Y-117.369
X-59.225 Y-117.184
X-57.95 Y-116.973
X-56.68 Y-116.735
X-55.415 Y-116.471
X-54.157 Y-116.179
X-52.905 Y-115.859
X-51.661 Y-115.509
X-50.427 Y-115.125
X-49.206 Y-114.702
X-48.004 Y-114.23
X-47.003 Y-113.77
X-46.223 Y-113.348
X-45.888 Y-113.136
X-45.506 Y-112.855
X-45.169 Y-112.521
X-44.882 Y-112.143
X-44.653 Y-111.727
X-44.486 Y-111.283
X-44.384 Y-110.819
X-44.35 Y-110.346
Y-106.343
G3 X-45.566 Y-105.119 I-1.269 J-0.044
G1 X-94.328 Y-103.078
G3 X-95.65 Y-104.302 I-0.053 J-1.269
G1 Y-108.112
X-95.632 Y-108.473
X-95.59 Y-108.835
X-95.518 Y-109.222
X-95.41 Y-109.648
X-95.256 Y-110.118
X-95.058 Y-110.612
X-94.792 Y-111.164
X-94.473 Y-111.728
X-94.068 Y-112.345
X-93.576 Y-112.997
X-92.996 Y-113.666
X-92.287 Y-114.383
X-91.44 Y-115.132
X-90.442 Y-115.904
X-89.37 Y-116.624
X-88.256 Y-117.279
X-87.109 Y-117.873
X-85.934 Y-118.412
X-84.738 Y-118.899
X-83.522 Y-119.338
X-82.292 Y-119.731
X-81.048 Y-120.083
X-79.794 Y-120.394
X-78.532 Y-120.668
X-77.262 Y-120.905
X-75.986 Y-121.108
X-74.705 Y-121.278
X-73.42 Y-121.416
X-72.132 Y-121.522
X-70.843 Y-121.599
X-69.551 Y-121.645
X-68.259 Y-121.663
X-66.967 Y-121.653
X-65.676 Y-121.615
X-64.386 Y-121.55
X-63.097 Y-121.457
X-61.81 Y-121.338
X-60.526 Y-121.193
X-59.246 Y-121.021
X-57.969 Y-120.824
X-56.696 Y-120.6
X-55.429 Y-120.351
X-54.167 Y-120.074
X-52.911 Y-119.768
X-51.664 Y-119.432
X-50.426 Y-119.062
X-49.201 Y-118.65
X-47.995 Y-118.187
X-47.017 Y-117.745
X-46.247 Y-117.334
X-45.906 Y-117.122
X-45.52 Y-116.841
X-45.178 Y-116.507
X-44.889 Y-116.127
X-44.657 Y-115.71
X-44.487 Y-115.263
X-44.385 Y-114.797
X-44.35 Y-114.32
Y-110.346
G3 X-45.561 Y-109.122 I-1.269 J-0.044
G1 X-94.323 Y-106.887
G3 X-95.65 Y-108.112 I-0.058 J-1.269
G1 Y-111.711
X-95.624 Y-112.24
X-95.581 Y-112.602
X-95.51 Y-112.985
X-95.402 Y-113.411
X-95.25 Y-113.877
X-95.052 Y-114.371
X-94.788 Y-114.918
X-94.469 Y-115.482
X-94.067 Y-116.095
X-93.575 Y-116.746
X-92.999 Y-117.411
X-92.293 Y-118.125
X-91.45 Y-118.871
X-90.455 Y-119.64
X-89.382 Y-120.361
X-88.268 Y-121.015
X-87.121 Y-121.61
X-85.947 Y-122.148
X-84.75 Y-122.634
X-83.534 Y-123.073
X-82.304 Y-123.467
X-81.06 Y-123.819
X-79.807 Y-124.131
X-78.544 Y-124.406
X-77.274 Y-124.645
X-75.999 Y-124.85
X-74.718 Y-125.023
X-73.434 Y-125.164
X-72.147 Y-125.274
X-70.857 Y-125.355
X-69.566 Y-125.407
X-68.274 Y-125.432
X-66.982 Y-125.428
X-65.691 Y-125.398
X-64.4 Y-125.342
X-63.11 Y-125.259
X-61.823 Y-125.15
X-60.538 Y-125.016
X-59.256 Y-124.856
X-57.977 Y-124.671
X-56.702 Y-124.46
X-55.432 Y-124.223
X-54.167 Y-123.959
X-52.909 Y-123.665
X-51.659 Y-123.341
X-50.418 Y-122.981
X-49.19 Y-122.578
X-47.981 Y-122.122
X-47.022 Y-121.694
X-46.263 Y-121.293
X-45.919 Y-121.081
X-45.53 Y-120.8
X-45.185 Y-120.466
X-44.893 Y-120.086
X-44.659 Y-119.667
X-44.489 Y-119.218
X-44.385 Y-118.75
X-44.35 Y-118.272
Y-114.32
G3 X-45.551 Y-113.096 I-1.269 J-0.044
G1 X-94.313 Y-110.487
G3 X-95.65 Y-111.711 I-0.068 J-1.268
G1 Y-115.52
X-95.627 Y-115.985
X-95.584 Y-116.347
X-95.514 Y-116.729
X-95.405 Y-117.156
X-95.254 Y-117.62
X-95.055 Y-118.114
X-94.793 Y-118.66
X-94.474 Y-119.224
X-94.072 Y-119.836
X-93.58 Y-120.487
X-93.005 Y-121.15
X-92.3 Y-121.863
X-91.458 Y-122.608
X-90.464 Y-123.377
X-89.392 Y-124.097
X-88.278 Y-124.752
X-87.13 Y-125.346
X-85.956 Y-125.884
X-84.759 Y-126.371
X-83.544 Y-126.81
X-82.313 Y-127.205
X-81.07 Y-127.557
X-79.817 Y-127.871
X-78.555 Y-128.147
X-77.286 Y-128.388
X-76.01 Y-128.596
X-74.73 Y-128.771
X-73.446 Y-128.916
X-72.159 Y-129.031
X-70.87 Y-129.117
X-69.579 Y-129.174
X-68.288 Y-129.205
X-66.996 Y-129.208
X-65.704 Y-129.186
X-64.413 Y-129.137
X-63.123 Y-129.064
X-61.834 Y-128.965
X-60.548 Y-128.84
X-59.265 Y-128.691
X-57.985 Y-128.517
X-56.708 Y-128.317
X-55.436 Y-128.091
X-54.169 Y-127.837
X-52.909 Y-127.554
X-51.656 Y-127.239
X-50.412 Y-126.887
X-49.182 Y-126.492
X-47.971 Y-126.042
X-47.026 Y-125.624
X-46.274 Y-125.231
X-45.929 Y-125.02
X-45.538 Y-124.739
X-45.191 Y-124.405
X-44.897 Y-124.024
X-44.662 Y-123.604
X-44.49 Y-123.154
X-44.385 Y-122.684
X-44.35 Y-122.204
Y-118.272
G3 X-45.548 Y-117.048 I-1.269 J-0.044
G1 X-94.309 Y-114.297
G3 X-95.65 Y-115.52 I-0.072 J-1.268
G1 Y-119.329
X-95.63 Y-119.727
X-95.588 Y-120.089
X-95.517 Y-120.471
X-95.409 Y-120.897
X-95.257 Y-121.361
X-95.059 Y-121.855
X-94.797 Y-122.4
X-94.478 Y-122.964
X-94.077 Y-123.575
X-93.585 Y-124.226
X-93.011 Y-124.889
X-92.306 Y-125.601
X-91.464 Y-126.346
X-90.47 Y-127.115
X-89.397 Y-127.835
X-88.283 Y-128.49
X-87.136 Y-129.084
X-85.962 Y-129.623
X-84.765 Y-130.11
X-83.55 Y-130.55
X-82.32 Y-130.945
X-81.077 Y-131.299
X-79.824 Y-131.614
X-78.563 Y-131.892
X-77.294 Y-132.136
X-76.019 Y-132.346
X-74.739 Y-132.525
X-73.456 Y-132.673
X-72.169 Y-132.792
X-70.88 Y-132.883
X-69.59 Y-132.946
X-68.298 Y-132.982
X-67.006 Y-132.992
X-65.714 Y-132.977
X-64.423 Y-132.936
X-63.133 Y-132.87
X-61.844 Y-132.78
X-60.557 Y-132.665
X-59.272 Y-132.525
X-57.991 Y-132.36
X-56.713 Y-132.17
X-55.439 Y-131.953
X-54.17 Y-131.708
X-52.908 Y-131.434
X-51.653 Y-131.127
X-50.407 Y-130.783
X-49.175 Y-130.394
X-47.962 Y-129.948
X-47.028 Y-129.539
X-46.283 Y-129.152
X-45.937 Y-128.942
X-45.544 Y-128.662
X-45.196 Y-128.327
X-44.9 Y-127.946
X-44.663 Y-127.525
X-44.491 Y-127.074
X-44.385 Y-126.603
X-44.35 Y-126.121
Y-122.204
G3 X-45.544 Y-120.981 I-1.269 J-0.044
G1 X-94.306 Y-118.106
G3 X-95.65 Y-119.329 I-0.075 J-1.268
G1 Y-123.139
X-95.634 Y-123.468
X-95.591 Y-123.829
X-95.521 Y-124.211
X-95.412 Y-124.637
X-95.261 Y-125.101
X-95.063 Y-125.595
X-94.801 Y-126.14
X-94.482 Y-126.704
X-94.081 Y-127.314
X-93.589 Y-127.965
X-93.015 Y-128.628
X-92.31 Y-129.341
X-91.467 Y-130.086
X-90.472 Y-130.855
X-89.4 Y-131.576
X-88.286 Y-132.231
X-87.139 Y-132.825
X-85.965 Y-133.364
X-84.768 Y-133.852
X-83.554 Y-134.293
X-82.324 Y-134.689
X-81.082 Y-135.045
X-79.829 Y-135.361
X-78.568 Y-135.642
X-77.299 Y-135.888
X-76.025 Y-136.101
X-74.746 Y-136.283
X-73.463 Y-136.435
X-72.177 Y-136.558
X-70.888 Y-136.653
X-69.598 Y-136.721
X-68.306 Y-136.763
X-67.014 Y-136.779
X-65.722 Y-136.771
X-64.431 Y-136.737
X-63.14 Y-136.679
X-61.851 Y-136.597
X-60.563 Y-136.49
X-59.278 Y-136.358
X-57.995 Y-136.202
X-56.716 Y-136.019
X-55.441 Y-135.811
X-54.171 Y-135.574
X-52.906 Y-135.307
X-51.65 Y-135.007
X-50.403 Y-134.669
X-49.169 Y-134.285
X-47.955 Y-133.844
X-47.03 Y-133.441
X-46.29 Y-133.059
X-45.944 Y-132.85
X-45.55 Y-132.571
X-45.2 Y-132.236
X-44.903 Y-131.854
X-44.665 Y-131.432
X-44.491 Y-130.98
X-44.385 Y-130.508
X-44.35 Y-130.025
Y-126.121
G3 X-45.542 Y-124.898 I-1.269 J-0.044
G1 X-94.303 Y-121.915
G3 X-95.65 Y-123.139 I-0.078 J-1.268
G1 Y-126.948
X-95.637 Y-127.207
X-95.595 Y-127.569
X-95.524 Y-127.951
X-95.416 Y-128.377
X-95.264 Y-128.84
X-95.066 Y-129.334
X-94.804 Y-129.879
X-94.485 Y-130.444
X-94.084 Y-131.054
X-93.592 Y-131.705
X-93.017 Y-132.369
X-92.312 Y-133.082
X-91.468 Y-133.828
X-90.472 Y-134.598
X-89.399 Y-135.319
X-88.286 Y-135.974
X-87.139 Y-136.569
X-85.965 Y-137.109
X-84.769 Y-137.598
X-83.554 Y-138.039
X-82.325 Y-138.437
X-81.083 Y-138.794
X-79.831 Y-139.112
X-78.57 Y-139.395
X-77.302 Y-139.644
X-76.029 Y-139.86
X-74.75 Y-140.045
X-73.467 Y-140.2
X-72.181 Y-140.328
X-70.893 Y-140.427
X-69.603 Y-140.5
X-68.312 Y-140.548
X-67.02 Y-140.57
X-65.728 Y-140.567
X-64.436 Y-140.54
X-63.145 Y-140.489
X-61.856 Y-140.413
X-60.567 Y-140.314
X-59.281 Y-140.19
X-57.998 Y-140.041
X-56.718 Y-139.866
X-55.441 Y-139.664
X-54.17 Y-139.434
X-52.905 Y-139.174
X-51.646 Y-138.879
X-50.398 Y-138.546
X-49.163 Y-138.167
X-47.947 Y-137.729
X-47.03 Y-137.332
X-46.295 Y-136.954
X-45.95 Y-136.747
X-45.554 Y-136.467
X-45.203 Y-136.133
X-44.905 Y-135.75
X-44.666 Y-135.328
X-44.492 Y-134.875
X-44.386 Y-134.402
X-44.35 Y-133.918
Y-130.025
G3 X-45.539 Y-128.802 I-1.269 J-0.044
G1 X-94.301 Y-125.725
G3 X-95.65 Y-126.948 I-0.08 J-1.267
G1 Y-130.585
X-95.631 Y-130.956
X-95.589 Y-131.318
X-95.519 Y-131.698
X-95.41 Y-132.125
X-95.259 Y-132.587
X-95.061 Y-133.081
X-94.799 Y-133.626
X-94.48 Y-134.19
X-94.08 Y-134.8
X-93.587 Y-135.452
X-93.013 Y-136.115
X-92.307 Y-136.828
X-91.463 Y-137.575
X-90.465 Y-138.347
X-89.392 Y-139.067
X-88.279 Y-139.722
X-87.132 Y-140.318
X-85.958 Y-140.858
X-84.763 Y-141.348
X-83.549 Y-141.79
X-82.32 Y-142.189
X-81.078 Y-142.548
X-79.827 Y-142.868
X-78.566 Y-143.153
X-77.299 Y-143.404
X-76.026 Y-143.623
X-74.747 Y-143.811
X-73.465 Y-143.971
X-72.18 Y-144.102
X-70.892 Y-144.206
X-69.602 Y-144.283
X-68.311 Y-144.336
X-67.019 Y-144.363
X-65.727 Y-144.366
X-64.436 Y-144.344
X-63.144 Y-144.299
X-61.854 Y-144.23
X-60.565 Y-144.137
X-59.279 Y-144.02
X-57.995 Y-143.877
X-56.714 Y-143.708
X-55.436 Y-143.513
X-54.164 Y-143.289
X-52.897 Y-143.033
X-51.638 Y-142.744
X-50.388 Y-142.415
X-49.152 Y-142.039
X-47.936 Y-141.604
X-47.026 Y-141.212
X-46.296 Y-140.838
X-45.954 Y-140.633
X-45.557 Y-140.354
X-45.205 Y-140.019
X-44.906 Y-139.636
X-44.667 Y-139.213
X-44.492 Y-138.76
X-44.386 Y-138.287
X-44.35 Y-137.802
Y-133.918
G3 X-45.533 Y-132.696 I-1.269 J-0.044
G1 X-94.294 Y-129.363
G3 X-95.65 Y-130.585 I-0.087 J-1.267
G1 Y-134.185
X-95.624 Y-134.705
X-95.582 Y-135.067
X-95.511 Y-135.447
X-95.403 Y-135.873
X-95.252 Y-136.335
X-95.054 Y-136.829
X-94.792 Y-137.374
X-94.473 Y-137.938
X-94.072 Y-138.548
X-93.58 Y-139.2
X-93.005 Y-139.864
X-92.298 Y-140.578
X-91.453 Y-141.326
X-90.453 Y-142.099
X-89.381 Y-142.819
X-88.267 Y-143.475
X-87.121 Y-144.07
X-85.947 Y-144.611
X-84.752 Y-145.102
X-83.538 Y-145.546
X-82.31 Y-145.946
X-81.069 Y-146.306
X-79.818 Y-146.629
X-78.558 Y-146.916
X-77.291 Y-147.169
X-76.018 Y-147.391
X-74.741 Y-147.582
X-73.459 Y-147.745
X-72.174 Y-147.879
X-70.886 Y-147.987
X-69.597 Y-148.069
X-68.306 Y-148.126
X-67.014 Y-148.158
X-65.722 Y-148.166
X-64.43 Y-148.15
X-63.139 Y-148.111
X-61.848 Y-148.047
X-60.559 Y-147.96
X-59.272 Y-147.848
X-57.987 Y-147.711
X-56.706 Y-147.548
X-55.428 Y-147.358
X-54.154 Y-147.138
X-52.887 Y-146.888
X-51.627 Y-146.602
X-50.376 Y-146.277
X-49.139 Y-145.904
X-47.922 Y-145.471
X-47.019 Y-145.083
X-46.293 Y-144.712
X-45.956 Y-144.511
X-45.559 Y-144.231
X-45.207 Y-143.896
X-44.907 Y-143.513
X-44.667 Y-143.09
X-44.492 Y-142.637
X-44.386 Y-142.163
X-44.35 Y-141.678
Y-137.802
G3 X-45.525 Y-136.58 I-1.269 J-0.044
G1 X-94.287 Y-132.963
G3 X-95.65 Y-134.185 I-0.094 J-1.267
G1 Y-137.994
X-95.628 Y-138.443
X-95.585 Y-138.804
X-95.515 Y-139.186
X-95.406 Y-139.613
X-95.255 Y-140.077
X-95.056 Y-140.571
X-94.794 Y-141.117
X-94.475 Y-141.681
X-94.073 Y-142.294
X-93.58 Y-142.946
X-93.003 Y-143.611
X-92.295 Y-144.327
X-91.447 Y-145.077
X-90.444 Y-145.852
X-89.372 Y-146.573
X-88.258 Y-147.229
X-87.112 Y-147.825
X-85.939 Y-148.367
X-84.744 Y-148.858
X-83.531 Y-149.303
X-82.303 Y-149.705
X-81.063 Y-150.067
X-79.812 Y-150.391
X-78.553 Y-150.681
X-77.287 Y-150.937
X-76.014 Y-151.161
X-74.737 Y-151.356
X-73.456 Y-151.521
X-72.171 Y-151.66
X-70.884 Y-151.772
X-69.595 Y-151.858
X-68.304 Y-151.919
X-67.012 Y-151.956
X-65.72 Y-151.968
X-64.428 Y-151.957
X-63.137 Y-151.923
X-61.846 Y-151.864
X-60.557 Y-151.782
X-59.269 Y-151.675
X-57.984 Y-151.544
X-56.701 Y-151.385
X-55.423 Y-151.2
X-54.149 Y-150.985
X-52.88 Y-150.738
X-51.619 Y-150.456
X-50.368 Y-150.135
X-49.13 Y-149.764
X-47.912 Y-149.333
X-47.015 Y-148.948
X-46.293 Y-148.58
X-45.903 Y-148.348
X-45.519 Y-148.078
X-45.178 Y-147.755
X-44.889 Y-147.385
X-44.657 Y-146.977
X-44.488 Y-146.539
X-44.385 Y-146.081
X-44.35 Y-145.612
Y-141.678
G3 X-45.524 Y-140.456 I-1.269 J-0.044
G1 X-94.285 Y-136.772
G3 X-95.65 Y-137.994 I-0.096 J-1.266
G1 Y-141.803
X-95.631 Y-142.185
X-95.589 Y-142.547
X-95.518 Y-142.93
X-95.409 Y-143.356
X-95.257 Y-143.821
X-95.059 Y-144.315
X-94.795 Y-144.864
X-94.476 Y-145.428
X-94.073 Y-146.042
X-93.58 Y-146.694
X-93.002 Y-147.362
X-92.292 Y-148.079
X-91.442 Y-148.831
X-90.436 Y-149.609
X-89.364 Y-150.329
X-88.251 Y-150.985
X-87.105 Y-151.582
X-85.932 Y-152.125
X-84.737 Y-152.617
X-83.525 Y-153.064
X-82.298 Y-153.467
X-81.058 Y-153.831
X-79.808 Y-154.157
X-78.549 Y-154.449
X-77.283 Y-154.707
X-76.011 Y-154.935
X-74.734 Y-155.132
X-73.453 Y-155.301
X-72.169 Y-155.443
X-70.882 Y-155.558
X-69.593 Y-155.649
X-68.303 Y-155.714
X-67.011 Y-155.755
X-65.719 Y-155.772
X-64.427 Y-155.765
X-63.136 Y-155.735
X-61.845 Y-155.681
X-60.555 Y-155.604
X-59.267 Y-155.502
X-57.981 Y-155.375
X-56.698 Y-155.221
X-55.419 Y-155.039
X-54.144 Y-154.828
X-52.875 Y-154.585
X-51.614 Y-154.307
X-50.362 Y-153.988
X-49.123 Y-153.62
X-47.904 Y-153.191
X-47.002 Y-152.806
X-46.279 Y-152.44
X-45.961 Y-152.251
X-45.562 Y-151.973
X-45.209 Y-151.639
X-44.909 Y-151.256
X-44.669 Y-150.834
X-44.493 Y-150.38
X-44.386 Y-149.906
X-44.35 Y-149.421
Y-145.612
G3 X-45.52 Y-144.39 I-1.269 J-0.044
G1 X-94.282 Y-140.581
G3 X-95.65 Y-141.803 I-0.099 J-1.266
G1 Y-145.612
X-95.634 Y-145.931
X-95.592 Y-146.293
X-95.521 Y-146.677
X-95.412 Y-147.103
X-95.26 Y-147.57
X-95.062 Y-148.064
X-94.797 Y-148.613
X-94.478 Y-149.178
X-94.074 Y-149.793
X-93.581 Y-150.446
X-93.001 Y-151.115
X-92.289 Y-151.835
X-91.437 Y-152.589
X-90.428 Y-153.369
X-89.355 Y-154.089
X-88.242 Y-154.745
X-87.097 Y-155.343
X-85.925 Y-155.886
X-84.731 Y-156.38
X-83.518 Y-156.828
X-82.292 Y-157.233
X-81.052 Y-157.598
X-79.803 Y-157.926
X-78.544 Y-158.22
X-77.279 Y-158.481
X-76.008 Y-158.711
X-74.731 Y-158.911
X-73.451 Y-159.084
X-72.167 Y-159.229
X-70.88 Y-159.348
X-69.592 Y-159.441
X-68.301 Y-159.51
X-67.01 Y-159.555
X-65.718 Y-159.576
X-64.426 Y-159.574
X-63.134 Y-159.548
X-61.843 Y-159.498
X-60.553 Y-159.425
X-59.265 Y-159.327
X-57.979 Y-159.204
X-56.695 Y-159.054
X-55.416 Y-158.876
X-54.14 Y-158.669
X-52.871 Y-158.429
X-51.608 Y-158.153
X-50.356 Y-157.837
X-49.116 Y-157.471
X-47.9 Y-157.046
X-47.011 Y-156.667
X-46.295 Y-156.304
X-45.966 Y-156.109
X-45.566 Y-155.83
X-45.212 Y-155.495
X-44.911 Y-155.111
X-44.67 Y-154.688
X-44.493 Y-154.233
X-44.386 Y-153.757
X-44.35 Y-153.271
Y-149.421
G3 X-45.52 Y-148.2 I-1.269 J-0.044
G1 X-94.282 Y-144.39
G3 X-95.65 Y-145.612 I-0.099 J-1.266
G1 Y-149.421
X-95.637 Y-149.681
X-95.595 Y-150.042
X-95.524 Y-150.427
X-95.415 Y-150.853
X-95.262 Y-151.321
X-95.064 Y-151.815
X-94.799 Y-152.366
X-94.48 Y-152.931
X-94.075 Y-153.547
X-93.581 Y-154.201
X-93 Y-154.872
X-92.286 Y-155.593
X-91.432 Y-156.349
X-90.419 Y-157.132
X-89.347 Y-157.852
X-88.234 Y-158.509
X-87.089 Y-159.107
X-85.917 Y-159.651
X-84.723 Y-160.146
X-83.512 Y-160.595
X-82.285 Y-161.001
X-81.047 Y-161.368
X-79.797 Y-161.699
X-78.54 Y-161.995
X-77.275 Y-162.258
X-76.004 Y-162.49
X-74.728 Y-162.694
X-73.448 Y-162.869
X-72.164 Y-163.017
X-70.878 Y-163.139
X-69.589 Y-163.236
X-68.299 Y-163.308
X-67.008 Y-163.357
X-65.716 Y-163.382
X-64.424 Y-163.383
X-63.133 Y-163.361
X-61.841 Y-163.315
X-60.551 Y-163.246
X-59.263 Y-163.151
X-57.976 Y-163.032
X-56.692 Y-162.885
X-55.412 Y-162.711
X-54.136 Y-162.507
X-52.866 Y-162.27
X-51.603 Y-161.997
X-50.35 Y-161.683
X-49.11 Y-161.319
X-47.901 Y-160.897
X-47.015 Y-160.52
X-46.3 Y-160.158
X-45.968 Y-159.962
X-45.568 Y-159.682
X-45.213 Y-159.347
X-44.912 Y-158.964
X-44.67 Y-158.54
X-44.494 Y-158.085
X-44.386 Y-157.609
X-44.35 Y-157.122
Y-153.271
G3 X-45.519 Y-152.049 I-1.269 J-0.044
G1 X-94.281 Y-148.2
G3 X-95.65 Y-149.421 I-0.1 J-1.266
G1 Y-153.059
X-95.631 Y-153.443
X-95.589 Y-153.804
X-95.517 Y-154.188
X-95.409 Y-154.615
X-95.256 Y-155.082
X-95.058 Y-155.576
X-94.793 Y-156.128
X-94.474 Y-156.692
X-94.069 Y-157.309
X-93.574 Y-157.964
X-92.992 Y-158.636
X-92.278 Y-159.358
X-91.421 Y-160.115
X-90.406 Y-160.9
X-89.334 Y-161.621
X-88.221 Y-162.277
X-87.076 Y-162.876
X-85.904 Y-163.421
X-84.711 Y-163.916
X-83.5 Y-164.366
X-82.274 Y-164.774
X-81.036 Y-165.143
X-79.787 Y-165.475
X-78.53 Y-165.773
X-77.265 Y-166.039
X-75.995 Y-166.273
X-74.719 Y-166.479
X-73.44 Y-166.657
X-72.156 Y-166.808
X-70.87 Y-166.933
X-69.582 Y-167.033
X-68.292 Y-167.108
X-67.001 Y-167.16
X-65.71 Y-167.188
X-64.418 Y-167.193
X-63.126 Y-167.174
X-61.834 Y-167.131
X-60.544 Y-167.065
X-59.255 Y-166.974
X-57.968 Y-166.858
X-56.684 Y-166.714
X-55.404 Y-166.543
X-54.127 Y-166.341
X-52.857 Y-166.107
X-51.593 Y-165.836
X-50.34 Y-165.524
X-49.1 Y-165.16
X-47.898 Y-164.742
X-47.014 Y-164.366
X-46.3 Y-164.006
X-45.97 Y-163.81
X-45.569 Y-163.531
X-45.214 Y-163.196
X-44.912 Y-162.812
X-44.67 Y-162.388
X-44.494 Y-161.933
X-44.386 Y-161.457
X-44.35 Y-160.97
Y-157.122
G3 X-45.514 Y-155.901 I-1.269 J-0.044
G1 X-94.275 Y-151.838
G3 X-95.65 Y-153.059 I-0.105 J-1.266
G1 Y-156.659
X-95.623 Y-157.207
X-95.58 Y-157.568
X-95.509 Y-157.953
X-95.401 Y-158.379
X-95.248 Y-158.847
X-95.05 Y-159.341
X-94.784 Y-159.893
X-94.465 Y-160.458
X-94.059 Y-161.075
X-93.564 Y-161.73
X-92.981 Y-162.403
X-92.266 Y-163.126
X-91.408 Y-163.885
X-90.39 Y-164.672
X-89.318 Y-165.393
X-88.205 Y-166.05
X-87.06 Y-166.648
X-85.889 Y-167.194
X-84.696 Y-167.691
X-83.486 Y-168.142
X-82.26 Y-168.551
X-81.022 Y-168.921
X-79.774 Y-169.255
X-78.517 Y-169.555
X-77.253 Y-169.822
X-75.983 Y-170.059
X-74.708 Y-170.267
X-73.428 Y-170.447
X-72.145 Y-170.6
X-70.86 Y-170.728
X-69.572 Y-170.831
X-68.282 Y-170.909
X-66.991 Y-170.964
X-65.699 Y-170.995
X-64.407 Y-171.002
X-63.115 Y-170.987
X-61.824 Y-170.947
X-60.534 Y-170.884
X-59.244 Y-170.796
X-57.957 Y-170.682
X-56.673 Y-170.541
X-55.392 Y-170.372
X-54.116 Y-170.173
X-52.845 Y-169.94
X-51.581 Y-169.671
X-50.327 Y-169.36
X-49.087 Y-168.998
X-47.892 Y-168.582
X-47.011 Y-168.208
X-46.299 Y-167.849
X-45.971 Y-167.655
X-45.57 Y-167.376
X-45.215 Y-167.041
X-44.913 Y-166.657
X-44.671 Y-166.233
X-44.494 Y-165.778
X-44.386 Y-165.301
X-44.35 Y-164.814
Y-160.97
G3 X-45.507 Y-159.749 I-1.269 J-0.044
G1 X-94.269 Y-155.438
G3 X-95.65 Y-156.659 I-0.112 J-1.265
G1 Y-160.468
X-95.625 Y-160.961
X-95.583 Y-161.322
X-95.512 Y-161.709
X-95.403 Y-162.135
X-95.25 Y-162.606
X-95.051 Y-163.099
X-94.784 Y-163.655
X-94.465 Y-164.219
X-94.058 Y-164.839
X-93.563 Y-165.494
X-92.978 Y-166.17
X-92.26 Y-166.895
X-91.4 Y-167.656
X-90.379 Y-168.445
X-89.306 Y-169.166
X-88.194 Y-169.823
X-87.049 Y-170.423
X-85.878 Y-170.969
X-84.686 Y-171.466
X-83.476 Y-171.919
X-82.251 Y-172.329
X-81.013 Y-172.701
X-79.765 Y-173.037
X-78.509 Y-173.338
X-77.245 Y-173.607
X-75.976 Y-173.846
X-74.701 Y-174.056
X-73.422 Y-174.239
X-72.139 Y-174.395
X-70.854 Y-174.525
X-69.566 Y-174.63
X-68.276 Y-174.711
X-66.985 Y-174.769
X-65.694 Y-174.802
X-64.402 Y-174.813
X-63.11 Y-174.8
X-61.818 Y-174.763
X-60.528 Y-174.702
X-59.238 Y-174.617
X-57.951 Y-174.506
X-56.667 Y-174.367
X-55.385 Y-174.201
X-54.108 Y-174.003
X-52.837 Y-173.772
X-51.573 Y-173.505
X-50.319 Y-173.195
X-49.078 Y-172.834
X-47.89 Y-172.421
X-47.011 Y-172.049
X-46.3 Y-171.69
X-45.972 Y-171.497
X-45.571 Y-171.218
X-45.215 Y-170.883
X-44.913 Y-170.499
X-44.671 Y-170.075
X-44.494 Y-169.619
X-44.386 Y-169.142
X-44.35 Y-168.655
Y-164.814
G3 X-45.506 Y-163.594 I-1.269 J-0.044
G1 X-94.268 Y-159.247
G3 X-95.65 Y-160.468 I-0.113 J-1.265
G1 Y-164.277
X-95.628 Y-164.721
X-95.586 Y-165.082
X-95.514 Y-165.47
X-95.405 Y-165.897
X-95.251 Y-166.369
X-95.053 Y-166.862
X-94.785 Y-167.42
X-94.466 Y-167.984
X-94.058 Y-168.606
X-93.562 Y-169.261
X-92.975 Y-169.939
X-92.256 Y-170.666
X-91.393 Y-171.43
X-90.371 Y-172.22
X-89.298 Y-172.94
X-88.186 Y-173.598
X-87.042 Y-174.198
X-85.871 Y-174.745
X-84.679 Y-175.244
X-83.47 Y-175.697
X-82.245 Y-176.109
X-81.008 Y-176.482
X-79.761 Y-176.819
X-78.505 Y-177.123
X-77.241 Y-177.394
X-75.972 Y-177.635
X-74.698 Y-177.847
X-73.419 Y-178.032
X-72.136 Y-178.19
X-70.851 Y-178.323
X-69.564 Y-178.43
X-68.274 Y-178.514
X-66.984 Y-178.574
X-65.692 Y-178.61
X-64.4 Y-178.623
X-63.108 Y-178.613
X-61.816 Y-178.578
X-60.526 Y-178.52
X-59.236 Y-178.437
X-57.949 Y-178.328
X-56.664 Y-178.192
X-55.382 Y-178.028
X-54.105 Y-177.832
X-52.834 Y-177.603
X-51.569 Y-177.337
X-50.315 Y-177.029
X-49.074 Y-176.668
X-47.89 Y-176.258
X-47.012 Y-175.887
X-46.302 Y-175.529
X-45.974 Y-175.336
X-45.572 Y-175.057
X-45.216 Y-174.722
X-44.914 Y-174.338
X-44.671 Y-173.913
X-44.494 Y-173.458
X-44.386 Y-172.981
X-44.35 Y-172.493
Y-168.655
G3 X-45.506 Y-167.435 I-1.269 J-0.044
G1 X-94.267 Y-163.056
G3 X-95.65 Y-164.277 I-0.114 J-1.265
G1 Y-168.086
X-95.63 Y-168.485
X-95.588 Y-168.847
X-95.516 Y-169.236
X-95.407 Y-169.662
X-95.253 Y-170.135
X-95.055 Y-170.629
X-94.786 Y-171.188
X-94.467 Y-171.752
X-94.058 Y-172.375
X-93.562 Y-173.032
X-92.973 Y-173.711
X-92.252 Y-174.44
X-91.387 Y-175.205
X-90.365 Y-175.996
X-89.293 Y-176.717
X-88.181 Y-177.375
X-87.037 Y-177.975
X-85.867 Y-178.523
X-84.675 Y-179.023
X-83.466 Y-179.478
X-82.241 Y-179.891
X-81.005 Y-180.265
X-79.758 Y-180.604
X-78.502 Y-180.909
X-77.24 Y-181.182
X-75.971 Y-181.425
X-74.696 Y-181.639
X-73.418 Y-181.826
X-72.136 Y-181.986
X-70.851 Y-182.121
X-69.563 Y-182.231
X-68.274 Y-182.317
X-66.984 Y-182.38
X-65.692 Y-182.418
X-64.4 Y-182.434
X-63.108 Y-182.425
X-61.817 Y-182.394
X-60.526 Y-182.338
X-59.236 Y-182.257
X-57.949 Y-182.15
X-56.663 Y-182.016
X-55.382 Y-181.854
X-54.104 Y-181.66
X-52.832 Y-181.433
X-51.568 Y-181.168
X-50.313 Y-180.861
X-49.072 Y-180.501
X-47.891 Y-180.093
X-47.014 Y-179.723
X-46.305 Y-179.366
X-45.976 Y-179.173
X-45.574 Y-178.894
X-45.217 Y-178.559
X-44.914 Y-178.174
X-44.672 Y-177.75
X-44.494 Y-177.294
X-44.386 Y-176.817
X-44.35 Y-176.329
Y-172.493
G3 X-45.505 Y-171.273 I-1.269 J-0.044
G1 X-94.266 Y-166.866
G3 X-95.65 Y-168.086 I-0.114 J-1.265
G1 Y-171.895
X-95.632 Y-172.253
X-95.59 Y-172.615
X-95.518 Y-173.005
X-95.409 Y-173.431
X-95.254 Y-173.906
X-95.056 Y-174.399
X-94.787 Y-174.959
X-94.468 Y-175.524
X-94.058 Y-176.148
X-93.561 Y-176.805
X-92.971 Y-177.486
X-92.248 Y-178.217
X-91.381 Y-178.984
X-90.359 Y-179.774
X-89.287 Y-180.495
X-88.175 Y-181.154
X-87.032 Y-181.755
X-85.862 Y-182.304
X-84.671 Y-182.804
X-83.462 Y-183.26
X-82.238 Y-183.675
X-81.002 Y-184.051
X-79.756 Y-184.391
X-78.5 Y-184.698
X-77.238 Y-184.972
X-75.969 Y-185.217
X-74.695 Y-185.433
X-73.417 Y-185.622
X-72.135 Y-185.784
X-70.851 Y-185.921
X-69.563 Y-186.033
X-68.274 Y-186.122
X-66.984 Y-186.186
X-65.693 Y-186.227
X-64.401 Y-186.244
X-63.109 Y-186.238
X-61.817 Y-186.209
X-60.526 Y-186.155
X-59.236 Y-186.076
X-57.948 Y-185.971
X-56.663 Y-185.839
X-55.381 Y-185.678
X-54.104 Y-185.486
X-52.831 Y-185.26
X-51.566 Y-184.997
X-50.311 Y-184.691
X-49.07 Y-184.332
X-47.892 Y-183.925
X-47.016 Y-183.556
X-46.307 Y-183.201
X-45.88 Y-182.949
X-45.502 Y-182.687
X-45.166 Y-182.372
X-44.881 Y-182.011
X-44.653 Y-181.612
X-44.486 Y-181.183
X-44.384 Y-180.734
X-44.35 Y-180.275
Y-176.329
G3 X-45.504 Y-175.108 I-1.269 J-0.044
G1 X-94.266 Y-170.675
G3 X-95.65 Y-171.895 I-0.115 J-1.265
G1 Y-175.704
X-95.634 Y-176.025
X-95.592 Y-176.386
X-95.52 Y-176.777
X-95.411 Y-177.203
X-95.256 Y-177.679
X-95.057 Y-178.173
X-94.788 Y-178.733
X-94.468 Y-179.298
X-94.058 Y-179.924
X-93.56 Y-180.582
X-92.969 Y-181.264
X-92.245 Y-181.996
X-91.376 Y-182.765
X-90.354 Y-183.555
X-89.282 Y-184.277
X-88.17 Y-184.935
X-87.027 Y-185.537
X-85.858 Y-186.087
X-84.667 Y-186.588
X-83.458 Y-187.045
X-82.235 Y-187.461
X-80.999 Y-187.838
X-79.753 Y-188.18
X-78.498 Y-188.488
X-77.236 Y-188.764
X-75.968 Y-189.011
X-74.694 Y-189.228
X-73.416 Y-189.419
X-72.135 Y-189.583
X-70.85 Y-189.722
X-69.563 Y-189.836
X-68.274 Y-189.926
X-66.984 Y-189.993
X-65.693 Y-190.036
X-64.401 Y-190.055
X-63.109 Y-190.051
X-61.817 Y-190.023
X-60.526 Y-189.971
X-59.236 Y-189.895
X-57.948 Y-189.792
X-56.663 Y-189.661
X-55.381 Y-189.502
X-54.103 Y-189.311
X-52.83 Y-189.086
X-51.565 Y-188.824
X-50.31 Y-188.519
X-49.068 Y-188.161
X-47.852 Y-187.742
X-46.969 Y-187.37
X-46.26 Y-187.015
X-45.979 Y-186.85
X-45.576 Y-186.571
X-45.219 Y-186.236
X-44.916 Y-185.852
X-44.672 Y-185.427
X-44.495 Y-184.97
X-44.386 Y-184.493
X-44.35 Y-184.004
Y-180.275
G3 X-45.501 Y-179.055 I-1.269 J-0.044
G1 X-94.262 Y-174.484
G3 X-95.65 Y-175.704 I-0.119 J-1.264
G1 Y-179.513
X-95.636 Y-179.799
X-95.593 Y-180.16
X-95.521 Y-180.552
X-95.413 Y-180.978
X-95.257 Y-181.455
X-95.059 Y-181.949
X-94.789 Y-182.51
X-94.469 Y-183.076
X-94.058 Y-183.702
X-93.56 Y-184.361
X-92.968 Y-185.045
X-92.242 Y-185.778
X-91.371 Y-186.549
X-90.349 Y-187.339
X-89.277 Y-188.06
X-88.166 Y-188.719
X-87.023 Y-189.322
X-85.854 Y-189.872
X-84.663 Y-190.374
X-83.455 Y-190.832
X-82.232 Y-191.249
X-80.997 Y-191.628
X-79.751 Y-191.97
X-78.497 Y-192.28
X-77.235 Y-192.558
X-75.967 Y-192.806
X-74.693 Y-193.025
X-73.416 Y-193.217
X-72.134 Y-193.383
X-70.85 Y-193.524
X-69.563 Y-193.64
X-68.274 Y-193.732
X-66.984 Y-193.8
X-65.693 Y-193.845
X-64.401 Y-193.866
X-63.109 Y-193.864
X-61.817 Y-193.838
X-60.526 Y-193.787
X-59.236 Y-193.712
X-57.948 Y-193.611
X-56.663 Y-193.482
X-55.38 Y-193.324
X-54.102 Y-193.134
X-52.829 Y-192.911
X-51.564 Y-192.649
X-50.308 Y-192.346
X-49.066 Y-191.99
X-47.898 Y-191.59
X-47.026 Y-191.225
X-46.319 Y-190.872
X-45.928 Y-190.644
X-45.538 Y-190.375
X-45.192 Y-190.051
X-44.898 Y-189.68
X-44.662 Y-189.269
X-44.49 Y-188.828
X-44.385 Y-188.366
X-44.35 Y-187.893
Y-184.004
G3 X-45.503 Y-182.784 I-1.269 J-0.044
G1 X-94.264 Y-178.293
G3 X-95.65 Y-179.513 I-0.116 J-1.265
G1 Y-183.323
X-95.637 Y-183.576
X-95.595 Y-183.937
X-95.523 Y-184.329
X-95.414 Y-184.756
X-95.258 Y-185.233
X-95.06 Y-185.727
X-94.79 Y-186.289
X-94.47 Y-186.856
X-94.058 Y-187.483
X-93.559 Y-188.143
X-92.966 Y-188.827
X-92.239 Y-189.562
X-91.366 Y-190.334
X-90.344 Y-191.124
X-89.272 Y-191.846
X-88.161 Y-192.506
X-87.019 Y-193.108
X-85.85 Y-193.659
X-84.66 Y-194.162
X-83.452 Y-194.621
X-82.229 Y-195.039
X-80.994 Y-195.419
X-79.749 Y-195.763
X-78.495 Y-196.074
X-77.233 Y-196.353
X-75.965 Y-196.602
X-74.692 Y-196.823
X-73.415 Y-197.017
X-72.134 Y-197.184
X-70.85 Y-197.327
X-69.563 Y-197.444
X-68.274 Y-197.538
X-66.984 Y-197.607
X-65.693 Y-197.654
X-64.401 Y-197.677
X-63.109 Y-197.676
X-61.817 Y-197.652
X-60.526 Y-197.603
X-59.236 Y-197.529
X-57.948 Y-197.429
X-56.662 Y-197.302
X-55.38 Y-197.145
X-54.101 Y-196.957
X-52.829 Y-196.735
X-51.563 Y-196.475
X-50.307 Y-196.172
X-49.065 Y-195.816
X-47.873 Y-195.407
X-46.995 Y-195.04
X-46.288 Y-194.686
X-45.947 Y-194.487
X-45.552 Y-194.215
X-45.202 Y-193.887
X-44.904 Y-193.511
X-44.666 Y-193.095
X-44.492 Y-192.648
X-44.386 Y-192.181
X-44.35 Y-191.703
Y-187.893
G3 X-45.501 Y-186.673 I-1.269 J-0.044
G1 X-94.262 Y-182.102
G3 X-95.65 Y-183.323 I-0.119 J-1.264
G1 Y-186.96
X-95.63 Y-187.365
X-95.587 Y-187.726
X-95.515 Y-188.118
X-95.407 Y-188.544
X-95.251 Y-189.021
X-95.053 Y-189.515
X-94.782 Y-190.077
X-94.462 Y-190.643
X-94.05 Y-191.271
X-93.551 Y-191.931
X-92.958 Y-192.616
X-92.23 Y-193.351
X-91.357 Y-194.124
X-90.335 Y-194.914
X-89.263 Y-195.636
X-88.152 Y-196.296
X-87.009 Y-196.899
X-85.841 Y-197.45
X-84.651 Y-197.954
X-83.444 Y-198.414
X-82.221 Y-198.832
X-80.986 Y-199.213
X-79.741 Y-199.558
X-78.487 Y-199.87
X-77.226 Y-200.15
X-75.959 Y-200.401
X-74.686 Y-200.623
X-73.409 Y-200.818
X-72.128 Y-200.987
X-70.844 Y-201.131
X-69.557 Y-201.25
X-68.268 Y-201.344
X-66.978 Y-201.416
X-65.687 Y-201.463
X-64.395 Y-201.488
X-63.103
X-61.811 Y-201.465
X-60.52 Y-201.418
X-59.23 Y-201.345
X-57.942 Y-201.247
X-56.656 Y-201.12
X-55.373 Y-200.965
X-54.095 Y-200.778
X-52.822 Y-200.556
X-51.556 Y-200.297
X-50.3 Y-199.995
X-49.058 Y-199.64
X-47.88 Y-199.236
X-47.006 Y-198.871
X-46.3 Y-198.519
X-45.963 Y-198.322
X-45.564 Y-198.048
X-45.211 Y-197.717
X-44.91 Y-197.338
X-44.669 Y-196.918
X-44.493 Y-196.467
X-44.386 Y-195.994
X-44.35 Y-195.512
Y-191.703
G3 X-45.496 Y-190.483 I-1.269 J-0.044
G1 X-94.258 Y-185.741
G3 X-95.65 Y-186.96 I-0.123 J-1.264
G1 Y-190.769
X-95.631 Y-191.143
X-95.589 Y-191.505
X-95.516 Y-191.898
X-95.408 Y-192.324
X-95.252 Y-192.803
X-95.053 Y-193.297
X-94.782 Y-193.86
X-94.462 Y-194.427
X-94.049 Y-195.056
X-93.55 Y-195.716
X-92.955 Y-196.403
X-92.226 Y-197.14
X-91.351 Y-197.914
X-90.329 Y-198.704
X-89.257 Y-199.426
X-88.147 Y-200.086
X-87.004 Y-200.69
X-85.836 Y-201.242
X-84.646 Y-201.746
X-83.439 Y-202.207
X-82.217 Y-202.626
X-80.983 Y-203.008
X-79.738 Y-203.354
X-78.484 Y-203.667
X-77.223 Y-203.948
X-75.956 Y-204.2
X-74.683 Y-204.423
X-73.406 Y-204.62
X-72.125 Y-204.79
X-70.842 Y-204.935
X-69.555 Y-205.055
X-68.267 Y-205.151
X-66.977 Y-205.224
X-65.685 Y-205.273
X-64.394 Y-205.298
X-63.102 Y-205.301
X-61.81 Y-205.279
X-60.519 Y-205.233
X-59.228 Y-205.162
X-57.94 Y-205.064
X-56.654 Y-204.939
X-55.371 Y-204.784
X-54.093 Y-204.598
X-52.82 Y-204.378
X-51.554 Y-204.119
X-50.297 Y-203.818
X-49.055 Y-203.463
X-47.885 Y-203.063
X-47.013 Y-202.698
X-46.307 Y-202.347
X-45.976 Y-202.153
X-45.574 Y-201.876
X-45.218 Y-201.543
X-44.915 Y-201.161
X-44.672 Y-200.738
X-44.494 Y-200.283
X-44.386 Y-199.807
X-44.35 Y-199.321
Y-195.512
G3 X-45.496 Y-194.292 I-1.269 J-0.044
G1 X-94.258 Y-189.55
G3 X-95.65 Y-190.769 I-0.123 J-1.264
G1 Y-194.578
X-95.633 Y-194.926
X-95.59 Y-195.288
X-95.518 Y-195.682
X-95.409 Y-196.108
X-95.252 Y-196.588
X-95.054 Y-197.082
X-94.783 Y-197.646
X-94.462 Y-198.213
X-94.049 Y-198.843
X-93.549 Y-199.504
X-92.953 Y-200.192
X-92.223 Y-200.93
X-91.346 Y-201.706
X-90.324 Y-202.496
X-89.253 Y-203.218
X-88.142 Y-203.878
X-87 Y-204.482
X-85.832 Y-205.035
X-84.643 Y-205.54
X-83.436 Y-206.001
X-82.214 Y-206.421
X-80.98 Y-206.804
X-79.735 Y-207.151
X-78.482 Y-207.465
X-77.221 Y-207.747
X-75.954 Y-208
X-74.682 Y-208.224
X-73.405 Y-208.422
X-72.124 Y-208.593
X-70.84 Y-208.739
X-69.554 Y-208.861
X-68.266 Y-208.958
X-66.976 Y-209.032
X-65.685 Y-209.083
X-64.393 Y-209.109
X-63.101 Y-209.113
X-61.809 Y-209.092
X-60.518 Y-209.047
X-59.227 Y-208.977
X-57.939 Y-208.881
X-56.653 Y-208.757
X-55.37 Y-208.603
X-54.091 Y-208.418
X-52.818 Y-208.198
X-51.552 Y-207.94
X-50.296 Y-207.639
X-49.053 Y-207.285
X-47.888 Y-206.886
X-47.018 Y-206.523
X-46.313 Y-206.171
X-45.986 Y-205.98
X-45.581 Y-205.702
X-45.223 Y-205.367
X-44.918 Y-204.982
X-44.674 Y-204.556
X-44.495 Y-204.099
X-44.387 Y-203.62
X-44.35 Y-203.131
Y-199.321
G3 X-45.496 Y-198.101 I-1.269 J-0.044
G1 X-94.258 Y-193.359
G3 X-95.65 Y-194.578 I-0.123 J-1.264
G1 Y-198.178
X-95.623 Y-198.723
X-95.58 Y-199.085
X-95.508 Y-199.478
X-95.399 Y-199.904
X-95.243 Y-200.383
X-95.045 Y-200.877
X-94.774 Y-201.44
X-94.453 Y-202.008
X-94.04 Y-202.637
X-93.539 Y-203.299
X-92.944 Y-203.987
X-92.213 Y-204.725
X-91.336 Y-205.501
X-90.314 Y-206.291
X-89.242 Y-207.014
X-88.132 Y-207.674
X-86.99 Y-208.279
X-85.822 Y-208.831
X-84.633 Y-209.337
X-83.426 Y-209.798
X-82.205 Y-210.219
X-80.971 Y-210.603
X-79.726 Y-210.95
X-78.473 Y-211.265
X-77.213 Y-211.548
X-75.946 Y-211.802
X-74.674 Y-212.028
X-73.397 Y-212.226
X-72.116 Y-212.398
X-70.833 Y-212.545
X-69.546 Y-212.668
X-68.258 Y-212.766
X-66.968 Y-212.841
X-65.677 Y-212.893
X-64.385 Y-212.92
X-63.093 Y-212.925
X-61.802 Y-212.905
X-60.51 Y-212.861
X-59.22 Y-212.792
X-57.931 Y-212.697
X-56.645 Y-212.573
X-55.362 Y-212.42
X-54.084 Y-212.236
X-52.81 Y-212.016
X-51.544 Y-211.759
X-50.288 Y-211.458
X-49.045 Y-211.103
X-47.887 Y-210.707
X-47.018 Y-210.343
X-46.314 Y-209.992
X-45.985 Y-209.8
X-45.581 Y-209.521
X-45.222 Y-209.186
X-44.918 Y-208.801
X-44.674 Y-208.376
X-44.495 Y-207.919
X-44.386 Y-207.44
X-44.35 Y-206.951
Y-203.131
G3 X-45.491 Y-201.912 I-1.269 J-0.044
G1 X-94.252 Y-196.959
G3 X-95.65 Y-198.178 I-0.128 J-1.264
G1 Y-201.987
X-95.624 Y-202.507
X-95.582 Y-202.869
X-95.509 Y-203.263
X-95.4 Y-203.69
X-95.243 Y-204.17
X-95.045 Y-204.664
X-94.773 Y-205.229
X-94.453 Y-205.797
X-94.038 Y-206.427
X-93.538 Y-207.09
X-92.941 Y-207.779
X-92.209 Y-208.519
X-91.33 Y-209.296
X-90.308 Y-210.086
X-89.237 Y-210.809
X-88.127 Y-211.469
X-86.985 Y-212.074
X-85.817 Y-212.627
X-84.628 Y-213.133
X-83.422 Y-213.596
X-82.201 Y-214.017
X-80.967 Y-214.401
X-79.723 Y-214.75
X-78.47 Y-215.065
X-77.209 Y-215.349
X-75.943 Y-215.604
X-74.671 Y-215.83
X-73.394 Y-216.03
X-72.114 Y-216.203
X-70.83 Y-216.351
X-69.544 Y-216.475
X-68.256 Y-216.574
X-66.966 Y-216.65
X-65.675 Y-216.703
X-64.383 Y-216.731
X-63.091 Y-216.737
X-61.799 Y-216.718
X-60.508 Y-216.675
X-59.218 Y-216.607
X-57.929 Y-216.512
X-56.643 Y-216.39
X-55.36 Y-216.237
X-54.081 Y-216.053
X-52.807 Y-215.835
X-51.541 Y-215.578
X-50.285 Y-215.277
X-49.042 Y-214.922
X-47.885 Y-214.526
X-47.017 Y-214.163
X-46.313 Y-213.811
X-45.984 Y-213.62
X-45.58 Y-213.341
X-45.222 Y-213.006
X-44.918 Y-212.621
X-44.673 Y-212.196
X-44.495 Y-211.738
X-44.386 Y-211.26
X-44.35 Y-210.771
Y-206.951
G3 X-45.491 Y-205.732 I-1.269 J-0.044
G1 X-94.252 Y-200.768
G3 X-95.65 Y-201.987 I-0.129 J-1.263
G1 Y-205.796
X-95.625 Y-206.296
X-95.583 Y-206.657
X-95.51 Y-207.052
X-95.401 Y-207.479
X-95.244 Y-207.96
X-95.046 Y-208.454
X-94.774 Y-209.02
X-94.453 Y-209.588
X-94.038 Y-210.219
X-93.537 Y-210.882
X-92.939 Y-211.573
X-92.206 Y-212.313
X-91.326 Y-213.092
X-90.304 Y-213.882
X-89.233 Y-214.605
X-88.123 Y-215.266
X-86.981 Y-215.871
X-85.814 Y-216.424
X-84.625 Y-216.931
X-83.419 Y-217.394
X-82.198 Y-217.816
X-80.964 Y-218.2
X-79.72 Y-218.55
X-78.467 Y-218.866
X-77.207 Y-219.151
X-75.941 Y-219.407
X-74.669 Y-219.634
X-73.392 Y-219.834
X-72.112 Y-220.008
X-70.829 Y-220.158
X-69.543 Y-220.282
X-68.254 Y-220.383
X-66.965 Y-220.459
X-65.674 Y-220.513
X-64.382 Y-220.542
X-63.09 Y-220.549
X-61.798 Y-220.531
X-60.507 Y-220.489
X-59.216 Y-220.421
X-57.928 Y-220.328
X-56.641 Y-220.206
X-55.358 Y-220.054
X-54.079 Y-219.871
X-52.806 Y-219.653
X-51.54 Y-219.396
X-50.283 Y-219.095
X-49.04 Y-218.741
X-47.884 Y-218.345
X-47.016 Y-217.982
X-46.313 Y-217.631
X-45.985 Y-217.439
X-45.581 Y-217.161
X-45.222 Y-216.825
X-44.918 Y-216.441
X-44.673 Y-216.015
X-44.495 Y-215.558
X-44.386 Y-215.079
X-44.35 Y-214.59
Y-210.771
G3 X-45.49 Y-209.552 I-1.269 J-0.044
G1 X-94.252 Y-204.577
G3 X-95.65 Y-205.796 I-0.129 J-1.263
G1 Y-209.605
X-95.626 Y-210.087
X-95.584 Y-210.448
X-95.511 Y-210.844
X-95.402 Y-211.27
X-95.245 Y-211.753
X-95.046 Y-212.246
X-94.774 Y-212.813
X-94.453 Y-213.381
X-94.038 Y-214.013
X-93.536 Y-214.677
X-92.938 Y-215.368
X-92.204 Y-216.109
X-91.323 Y-216.889
X-90.3 Y-217.679
X-89.229 Y-218.402
X-88.119 Y-219.063
X-86.978 Y-219.668
X-85.811 Y-220.222
X-84.622 Y-220.729
X-83.416 Y-221.193
X-82.195 Y-221.616
X-80.962 Y-222.001
X-79.718 Y-222.351
X-78.466 Y-222.668
X-77.206 Y-222.954
X-75.939 Y-223.21
X-74.667 Y-223.438
X-73.391 Y-223.639
X-72.111 Y-223.814
X-70.828 Y-223.964
X-69.542 Y-224.09
X-68.254 Y-224.191
X-66.964 Y-224.269
X-65.673 Y-224.323
X-64.381 Y-224.353
X-63.089 Y-224.36
X-61.797 Y-224.344
X-60.506 Y-224.302
X-59.216 Y-224.236
X-57.927 Y-224.142
X-56.641 Y-224.021
X-55.357 Y-223.87
X-54.078 Y-223.687
X-52.805 Y-223.47
X-51.538 Y-223.213
X-50.282 Y-222.913
X-49.039 Y-222.559
X-47.884 Y-222.163
X-47.016 Y-221.8
X-46.313 Y-221.45
X-45.985 Y-221.258
X-45.581 Y-220.98
X-45.222 Y-220.644
X-44.918 Y-220.26
X-44.674 Y-219.834
X-44.495 Y-219.377
X-44.386 Y-218.898
X-44.35 Y-218.409
Y-214.59
G3 X-45.49 Y-213.371 I-1.269 J-0.044
G1 X-94.252 Y-208.386
G3 X-95.65 Y-209.605 I-0.129 J-1.263
G1 Y-213.415
X-95.627 Y-213.879
X-95.584 Y-214.241
X-95.511 Y-214.637
X-95.403 Y-215.063
X-95.245 Y-215.546
X-95.047 Y-216.04
X-94.774 Y-216.607
X-94.453 Y-217.176
X-94.037 Y-217.809
X-93.535 Y-218.472
X-92.936 Y-219.164
X-92.202 Y-219.906
X-91.32 Y-220.687
X-90.297 Y-221.477
X-89.226 Y-222.2
X-88.116 Y-222.861
X-86.975 Y-223.467
X-85.808 Y-224.021
X-84.62 Y-224.529
X-83.414 Y-224.993
X-82.193 Y-225.416
X-80.96 Y-225.802
X-79.717 Y-226.152
X-78.464 Y-226.47
X-77.204 Y-226.757
X-75.938 Y-227.014
X-74.666 Y-227.243
X-73.39 Y-227.444
X-72.11 Y-227.62
X-70.827 Y-227.771
X-69.541 Y-227.897
X-68.253 Y-227.999
X-66.963 Y-228.078
X-65.673 Y-228.133
X-64.381 Y-228.164
X-63.089 Y-228.172
X-61.797 Y-228.156
X-60.505 Y-228.115
X-59.215 Y-228.049
X-57.926 Y-227.957
X-56.64 Y-227.836
X-55.357 Y-227.686
X-54.078 Y-227.503
X-52.804 Y-227.286
X-51.537 Y-227.03
X-50.281 Y-226.73
X-49.038 Y-226.376
X-47.884 Y-225.981
X-47.016 Y-225.618
X-46.313 Y-225.268
X-45.985 Y-225.076
X-45.581 Y-224.798
X-45.223 Y-224.463
X-44.918 Y-224.078
X-44.674 Y-223.652
X-44.495 Y-223.195
X-44.386 Y-222.716
X-44.35 Y-222.227
Y-218.409
G3 X-45.49 Y-217.19 I-1.269 J-0.044
G1 X-94.251 Y-212.195
G3 X-95.65 Y-213.415 I-0.129 J-1.263
G1 Y-217.224
X-95.627 Y-217.674
X-95.585 Y-218.035
X-95.512 Y-218.432
X-95.403 Y-218.858
X-95.246 Y-219.342
X-95.047 Y-219.836
X-94.775 Y-220.403
X-94.453 Y-220.972
X-94.037 Y-221.605
X-93.535 Y-222.269
X-92.935 Y-222.962
X-92.2 Y-223.705
X-91.317 Y-224.486
X-90.295 Y-225.276
X-89.224 Y-225.999
X-88.114 Y-226.661
X-86.973 Y-227.267
X-85.806 Y-227.821
X-84.618 Y-228.329
X-83.412 Y-228.794
X-82.191 Y-229.217
X-80.958 Y-229.604
X-79.715 Y-229.955
X-78.463 Y-230.273
X-77.203 Y-230.56
X-75.937 Y-230.818
X-74.665 Y-231.048
X-73.389 Y-231.25
X-72.109 Y-231.427
X-70.826 Y-231.578
X-69.541 Y-231.705
X-68.253 Y-231.808
X-66.963 Y-231.887
X-65.672 Y-231.943
X-64.38 Y-231.975
X-63.088 Y-231.984
X-61.796 Y-231.968
X-60.505 Y-231.928
X-59.215 Y-231.863
X-57.926 Y-231.771
X-56.639 Y-231.651
X-55.356 Y-231.501
X-54.077 Y-231.319
X-52.803 Y-231.102
X-51.537 Y-230.846
X-50.28 Y-230.547
X-49.037 Y-230.193
X-47.884 Y-229.798
X-47.017 Y-229.436
X-46.314 Y-229.086
X-45.986 Y-228.894
X-45.581 Y-228.616
X-45.223 Y-228.28
X-44.918 Y-227.896
X-44.674 Y-227.47
X-44.495 Y-227.013
X-44.387 Y-226.534
X-44.35 Y-226.045
Y-222.227
G3 X-45.49 Y-221.008 I-1.269 J-0.044
G1 X-94.251 Y-216.005
G3 X-95.65 Y-217.224 I-0.13 J-1.263
G1 Y-221.033
X-95.628 Y-221.47
X-95.586 Y-221.831
X-95.512 Y-222.228
X-95.404 Y-222.655
X-95.246 Y-223.139
X-95.048 Y-223.633
X-94.775 Y-224.2
X-94.453 Y-224.769
X-94.037 Y-225.403
X-93.534 Y-226.068
X-92.934 Y-226.761
X-92.198 Y-227.504
X-91.314 Y-228.287
X-90.292 Y-229.077
X-89.221 Y-229.8
X-88.112 Y-230.461
X-86.97 Y-231.067
X-85.804 Y-231.623
X-84.616 Y-232.131
X-83.41 Y-232.595
X-82.19 Y-233.02
X-80.957 Y-233.407
X-79.714 Y-233.758
X-78.462 Y-234.077
X-77.202 Y-234.365
X-75.936 Y-234.623
X-74.665 Y-234.853
X-73.389 Y-235.057
X-72.109 Y-235.234
X-70.826 Y-235.386
X-69.54 Y-235.514
X-68.252 Y-235.617
X-66.963 Y-235.697
X-65.672 Y-235.753
X-64.38 Y-235.786
X-63.088 Y-235.795
X-61.796 Y-235.781
X-60.505 Y-235.741
X-59.214 Y-235.676
X-57.925 Y-235.585
X-56.639 Y-235.465
X-55.356 Y-235.316
X-54.076 Y-235.134
X-52.803 Y-234.918
X-51.536 Y-234.662
X-50.279 Y-234.363
X-49.036 Y-234.009
X-47.884 Y-233.615
X-47.017 Y-233.253
X-46.314 Y-232.903
X-45.986 Y-232.711
X-45.582 Y-232.433
X-45.223 Y-232.098
X-44.918 Y-231.713
X-44.674 Y-231.287
X-44.495 Y-230.83
X-44.387 Y-230.351
X-44.35 Y-229.861
Y-226.045
G3 X-45.489 Y-224.826 I-1.269 J-0.044
G1 X-94.251 Y-219.814
G3 X-95.65 Y-221.033 I-0.13 J-1.263
G1 Y-224.842
X-95.629 Y-225.267
X-95.586 Y-225.629
X-95.513 Y-226.026
X-95.405 Y-226.452
X-95.246 Y-226.937
X-95.048 Y-227.431
X-94.775 Y-227.998
X-94.453 Y-228.568
X-94.037 Y-229.202
X-93.534 Y-229.867
X-92.933 Y-230.561
X-92.197 Y-231.305
X-91.312 Y-232.088
X-90.29 Y-232.878
X-89.219 Y-233.601
X-88.109 Y-234.263
X-86.968 Y-234.869
X-85.802 Y-235.424
X-84.614 Y-235.933
X-83.409 Y-236.398
X-82.188 Y-236.823
X-80.956 Y-237.21
X-79.713 Y-237.562
X-78.461 Y-237.882
X-77.201 Y-238.17
X-75.935 Y-238.429
X-74.664 Y-238.66
X-73.388 Y-238.863
X-72.108 Y-239.041
X-70.825 Y-239.194
X-69.54 Y-239.322
X-68.252 Y-239.426
X-66.962 Y-239.507
X-65.671 Y-239.564
X-64.38 Y-239.597
X-63.088 Y-239.607
X-61.796 Y-239.593
X-60.504 Y-239.554
X-59.214 Y-239.489
X-57.925 Y-239.398
X-56.639 Y-239.279
X-55.355 Y-239.13
X-54.076 Y-238.949
X-52.802 Y-238.733
X-51.535 Y-238.478
X-50.278 Y-238.178
X-49.036 Y-237.825
X-47.884 Y-237.431
X-47.017 Y-237.069
X-46.314 Y-236.719
X-45.986 Y-236.528
X-45.582 Y-236.249
X-45.223 Y-235.914
X-44.918 Y-235.529
X-44.674 Y-235.104
X-44.495 Y-234.646
X-44.387 Y-234.167
X-44.35 Y-233.678
Y-229.861
G3 X-45.489 Y-228.642 I-1.269 J-0.044
G1 X-94.251 Y-223.623
G3 X-95.65 Y-224.842 I-0.13 J-1.263
G1 Y-228.651
X-95.629 Y-229.065
X-95.587 Y-229.427
X-95.513 Y-229.825
X-95.405 Y-230.251
X-95.247 Y-230.736
X-95.048 Y-231.23
X-94.775 Y-231.798
X-94.453 Y-232.367
X-94.036 Y-233.002
X-93.534 Y-233.667
X-92.932 Y-234.362
X-92.195 Y-235.106
X-91.31 Y-235.89
X-90.288 Y-236.68
X-89.217 Y-237.403
X-88.107 Y-238.065
X-86.967 Y-238.672
X-85.8 Y-239.227
X-84.612 Y-239.736
X-83.407 Y-240.201
X-82.187 Y-240.626
X-80.954 Y-241.014
X-79.711 Y-241.367
X-78.46 Y-241.687
X-77.2 Y-241.975
X-75.934 Y-242.235
X-74.663 Y-242.466
X-73.388 Y-242.67
X-72.108 Y-242.849
X-70.825 Y-243.002
X-69.539 Y-243.131
X-68.251 Y-243.236
X-66.962 Y-243.317
X-65.671 Y-243.374
X-64.38 Y-243.408
X-63.088 Y-243.418
X-61.796 Y-243.404
X-60.504 Y-243.366
X-59.214 Y-243.302
X-57.925 Y-243.212
X-56.638 Y-243.093
X-55.355 Y-242.944
X-54.075 Y-242.763
X-52.801 Y-242.547
X-51.535 Y-242.292
X-50.278 Y-241.993
X-49.035 Y-241.64
X-47.884 Y-241.247
X-47.017 Y-240.885
X-46.315 Y-240.535
X-45.987 Y-240.344
X-45.582 Y-240.066
X-45.223 Y-239.73
X-44.918 Y-239.345
X-44.674 Y-238.92
X-44.495 Y-238.462
X-44.387 Y-237.983
X-44.35 Y-237.494
Y-233.678
G3 X-45.489 Y-232.459 I-1.269 J-0.044
G1 X-94.251 Y-227.432
G3 X-95.65 Y-228.651 I-0.13 J-1.263
G1 Y-232.46
X-95.63 Y-232.865
X-95.587 Y-233.227
X-95.514 Y-233.624
X-95.405 Y-234.051
X-95.247 Y-234.536
X-95.049 Y-235.03
X-94.775 Y-235.598
X-94.453 Y-236.168
X-94.036 Y-236.803
X-93.533 Y-237.469
X-92.932 Y-238.163
X-92.194 Y-238.909
X-91.308 Y-239.693
X-90.286 Y-240.483
X-89.215 Y-241.206
X-88.106 Y-241.868
X-86.965 Y-242.475
X-85.798 Y-243.031
X-84.611 Y-243.539
X-83.406 Y-244.005
X-82.186 Y-244.431
X-80.953 Y-244.819
X-79.71 Y-245.172
X-78.459 Y-245.492
X-77.199 Y-245.781
X-75.934 Y-246.041
X-74.663 Y-246.273
X-73.387 Y-246.478
X-72.107 Y-246.657
X-70.824 Y-246.811
X-69.539 Y-246.94
X-68.251 Y-247.045
X-66.962 Y-247.127
X-65.671 Y-247.184
X-64.379 Y-247.219
X-63.087 Y-247.23
X-61.795 Y-247.216
X-60.504 Y-247.178
X-59.213 Y-247.115
X-57.924 Y-247.025
X-56.638 Y-246.906
X-55.354 Y-246.758
X-54.075 Y-246.577
X-52.801 Y-246.362
X-51.534 Y-246.107
X-50.277 Y-245.808
X-49.034 Y-245.455
X-47.884 Y-245.062
X-47.017 Y-244.701
X-46.315 Y-244.351
X-45.987 Y-244.16
X-45.582 Y-243.881
X-45.224 Y-243.546
X-44.919 Y-243.161
X-44.674 Y-242.735
X-44.495 Y-242.278
X-44.387 Y-241.799
X-44.35 Y-241.309
Y-237.494
G3 X-45.489 Y-236.275 I-1.269 J-0.044
G1 X-94.25 Y-231.241
G3 X-95.65 Y-232.46 I-0.13 J-1.263
G1 Y-236.269
X-95.63 Y-236.665
X-95.588 Y-237.027
X-95.514 Y-237.425
X-95.406 Y-237.851
X-95.247 Y-238.337
X-95.049 Y-238.831
X-94.775 Y-239.4
X-94.453 Y-239.969
X-94.036 Y-240.605
X-93.533 Y-241.271
X-92.931 Y-241.966
X-92.193 Y-242.712
X-91.306 Y-243.496
X-90.284 Y-244.286
X-89.213 Y-245.009
X-88.104 Y-245.672
X-86.963 Y-246.279
X-85.797 Y-246.835
X-84.609 Y-247.344
X-83.404 Y-247.81
X-82.185 Y-248.236
X-80.952 Y-248.624
X-79.709 Y-248.978
X-78.458 Y-249.298
X-77.199 Y-249.588
X-75.933 Y-249.848
X-74.662 Y-250.08
X-73.386 Y-250.286
X-72.107 Y-250.465
X-70.824 Y-250.619
X-69.539 Y-250.749
X-68.251 Y-250.855
X-66.961 Y-250.936
X-65.671 Y-250.995
X-64.379 Y-251.03
X-63.087 Y-251.041
X-61.795 Y-251.028
X-60.504 Y-250.99
X-59.213 Y-250.927
X-57.924 Y-250.837
X-56.637 Y-250.719
X-55.354 Y-250.571
X-54.074 Y-250.391
X-52.801 Y-250.176
X-51.534 Y-249.921
X-50.277 Y-249.623
X-49.034 Y-249.27
X-47.883 Y-248.877
X-47.018 Y-248.516
X-46.315 Y-248.166
X-45.987 Y-247.975
X-45.583 Y-247.696
X-45.224 Y-247.361
X-44.919 Y-246.976
X-44.674 Y-246.55
X-44.495 Y-246.093
X-44.387 Y-245.614
X-44.35 Y-245.124
Y-241.309
G3 X-45.489 Y-240.09 I-1.269 J-0.044
G1 X-94.25 Y-235.05
G3 X-95.65 Y-236.269 I-0.131 J-1.263
G1 Y-240.078
X-95.631 Y-240.467
X-95.588 Y-240.828
X-95.515 Y-241.227
X-95.406 Y-241.653
X-95.248 Y-242.139
X-95.049 Y-242.633
X-94.776 Y-243.202
X-94.453 Y-243.772
X-94.036 Y-244.408
X-93.533 Y-245.074
X-92.93 Y-245.769
X-92.192 Y-246.515
X-91.305 Y-247.3
X-90.282 Y-248.09
X-89.212 Y-248.814
X-88.102 Y-249.476
X-86.962 Y-250.083
X-85.796 Y-250.639
X-84.608 Y-251.149
X-83.403 Y-251.615
X-82.183 Y-252.041
X-80.951 Y-252.43
X-79.709 Y-252.784
X-78.457 Y-253.105
X-77.198 Y-253.395
X-75.932 Y-253.655
X-74.662 Y-253.888
X-73.386 Y-254.094
X-72.106 Y-254.273
X-70.824 Y-254.428
X-69.538 Y-254.558
X-68.251 Y-254.664
X-66.961 Y-254.747
X-65.67 Y-254.805
X-64.379 Y-254.841
X-63.087 Y-254.852
X-61.795 Y-254.839
X-60.503 Y-254.802
X-59.213 Y-254.74
X-57.924 Y-254.65
X-56.637 Y-254.532
X-55.354 Y-254.384
X-54.074 Y-254.205
X-52.8 Y-253.989
X-51.533 Y-253.735
X-50.276 Y-253.437
X-49.033 Y-253.084
X-47.883 Y-252.691
X-47.018 Y-252.33
X-46.316 Y-251.981
X-45.987 Y-251.789
X-45.583 Y-251.511
X-45.224 Y-251.176
X-44.919 Y-250.791
X-44.674 Y-250.365
X-44.495 Y-249.908
X-44.387 Y-249.429
X-44.35 Y-248.939
Y-245.124
G3 X-45.489 Y-243.905 I-1.269 J-0.044
G1 X-94.25 Y-238.859
G3 X-95.65 Y-240.078 I-0.131 J-1.263
G1 Y-243.887
X-95.631 Y-244.269
X-95.589 Y-244.631
X-95.515 Y-245.029
X-95.406 Y-245.456
X-95.248 Y-245.942
X-95.049 Y-246.436
X-94.776 Y-247.005
X-94.453 Y-247.575
X-94.036 Y-248.211
X-93.532 Y-248.877
X-92.93 Y-249.573
X-92.191 Y-250.32
X-91.303 Y-251.105
X-90.281 Y-251.895
X-89.21 Y-252.619
X-88.101 Y-253.281
X-86.96 Y-253.888
X-85.794 Y-254.444
X-84.607 Y-254.954
X-83.402 Y-255.421
X-82.182 Y-255.847
X-80.95 Y-256.236
X-79.708 Y-256.59
X-78.456 Y-256.911
X-77.197 Y-257.202
X-75.932 Y-257.463
X-74.661 Y-257.696
X-73.386 Y-257.902
X-72.106 Y-258.082
X-70.823 Y-258.237
X-69.538 Y-258.367
X-68.25 Y-258.474
X-66.961 Y-258.557
X-65.67 Y-258.616
X-64.379 Y-258.651
X-63.087 Y-258.663
X-61.795 Y-258.651
X-60.503 Y-258.614
X-59.213 Y-258.552
X-57.924 Y-258.463
X-56.637 Y-258.345
X-55.353 Y-258.197
X-54.074 Y-258.018
X-52.8 Y-257.803
X-51.533 Y-257.549
X-50.276 Y-257.251
X-49.033 Y-256.898
X-47.883 Y-256.506
X-47.018 Y-256.145
X-46.316 Y-255.795
X-45.988 Y-255.604
X-45.583 Y-255.326
X-45.224 Y-254.99
X-44.919 Y-254.605
X-44.674 Y-254.179
X-44.495 Y-253.722
X-44.387 Y-253.243
X-44.35 Y-252.753
Y-248.939
G3 X-45.488 Y-247.72 I-1.269 J-0.044
G1 X-94.25 Y-242.668
G3 X-95.65 Y-243.887 I-0.131 J-1.263
G1 Y-247.697
X-95.631 Y-248.072
X-95.589 Y-248.434
X-95.515 Y-248.833
X-95.407 Y-249.259
X-95.248 Y-249.745
X-95.05 Y-250.239
X-94.776 Y-250.809
X-94.453 Y-251.379
X-94.036 Y-252.015
X-93.532 Y-252.681
X-92.929 Y-253.378
X-92.19 Y-254.125
X-91.302 Y-254.91
X-90.28 Y-255.701
X-89.209 Y-256.424
X-88.1 Y-257.087
X-86.959 Y-257.694
X-85.793 Y-258.25
X-84.606 Y-258.76
X-83.401 Y-259.227
X-82.182 Y-259.653
X-80.95 Y-260.043
X-79.707 Y-260.397
X-78.456 Y-260.719
X-77.197 Y-261.009
X-75.931 Y-261.271
X-74.661 Y-261.504
X-73.385 Y-261.71
X-72.106 Y-261.891
X-70.823 Y-262.046
X-69.538 Y-262.177
X-68.25 Y-262.284
X-66.961 Y-262.367
X-65.67 Y-262.426
X-64.378 Y-262.462
X-63.086 Y-262.474
X-61.794 Y-262.462
X-60.503 Y-262.426
X-59.212 Y-262.364
X-57.923 Y-262.275
X-56.637 Y-262.158
X-55.353 Y-262.01
X-54.073 Y-261.831
X-52.799 Y-261.616
X-51.532 Y-261.362
X-50.275 Y-261.064
X-49.032 Y-260.711
X-47.883 Y-260.319
X-47.018 Y-259.959
X-46.316 Y-259.609
X-45.988 Y-259.418
X-45.583 Y-259.14
X-45.224 Y-258.804
X-44.919 Y-258.419
X-44.674 Y-257.994
X-44.495 Y-257.536
X-44.387 Y-257.057
X-44.35 Y-256.567
Y-252.753
G3 X-45.488 Y-251.534 I-1.269 J-0.044
G1 X-94.25 Y-246.478
G3 X-95.65 Y-247.697 I-0.131 J-1.263
G1 Y-251.506
X-95.631 Y-251.876
X-95.589 Y-252.237
X-95.515 Y-252.636
X-95.407 Y-253.063
X-95.248 Y-253.549
X-95.05 Y-254.044
X-94.776 Y-254.613
X-94.453 Y-255.183
X-94.035 Y-255.82
X-93.532 Y-256.486
X-92.928 Y-257.183
X-92.189 Y-257.93
X-91.301 Y-258.716
X-90.278 Y-259.506
X-89.208 Y-260.23
X-88.099 Y-260.892
X-86.958 Y-261.5
X-85.792 Y-262.056
X-84.605 Y-262.566
X-83.4 Y-263.033
X-82.181 Y-263.46
X-80.949 Y-263.85
X-79.706 Y-264.204
X-78.455 Y-264.526
X-77.196 Y-264.817
X-75.931 Y-265.079
X-74.66 Y-265.312
X-73.385 Y-265.519
X-72.105 Y-265.7
X-70.823 Y-265.855
X-69.537 Y-265.986
X-68.25 Y-266.094
X-66.96 Y-266.177
X-65.67 Y-266.237
X-64.378 Y-266.273
X-63.086 Y-266.285
X-61.794 Y-266.274
X-60.503 Y-266.237
X-59.212 Y-266.176
X-57.923 Y-266.087
X-56.636 Y-265.97
X-55.353 Y-265.823
X-54.073 Y-265.644
X-52.799 Y-265.429
X-51.532 Y-265.175
X-50.275 Y-264.877
X-49.032 Y-264.525
X-47.883 Y-264.133
X-47.018 Y-263.772
X-46.316 Y-263.423
X-45.988 Y-263.232
X-45.583 Y-262.953
X-45.224 Y-262.618
X-44.919 Y-262.233
X-44.674 Y-261.807
X-44.495 Y-261.35
X-44.387 Y-260.871
X-44.35 Y-260.381
Y-256.567
G3 X-45.488 Y-255.348 I-1.269 J-0.044
G1 X-94.25 Y-250.287
G3 X-95.65 Y-251.506 I-0.131 J-1.263
G1 Y-255.315
X-95.632 Y-255.68
X-95.589 Y-256.042
X-95.516 Y-256.441
X-95.407 Y-256.867
X-95.248 Y-257.354
X-95.05 Y-257.848
X-94.776 Y-258.418
X-94.453 Y-258.988
X-94.035 Y-259.625
X-93.531 Y-260.292
X-92.928 Y-260.988
X-92.188 Y-261.736
X-91.299 Y-262.522
X-90.277 Y-263.313
X-89.207 Y-264.036
X-88.097 Y-264.699
X-86.957 Y-265.306
X-85.791 Y-265.863
X-84.604 Y-266.373
X-83.399 Y-266.84
X-82.18 Y-267.267
X-80.948 Y-267.657
X-79.706 Y-268.012
X-78.454 Y-268.334
X-77.196 Y-268.625
X-75.93 Y-268.887
X-74.66 Y-269.121
X-73.384 Y-269.328
X-72.105 Y-269.509
X-70.822 Y-269.665
X-69.537 Y-269.796
X-68.249 Y-269.904
X-66.96 Y-269.987
X-65.669 Y-270.047
X-64.378 Y-270.084
X-63.086 Y-270.096
X-61.794 Y-270.085
X-60.502 Y-270.049
X-59.212 Y-269.987
X-57.923 Y-269.899
X-56.636 Y-269.782
X-55.352 Y-269.635
X-54.073 Y-269.456
X-52.799 Y-269.242
X-51.532 Y-268.988
X-50.274 Y-268.69
X-49.031 Y-268.338
X-47.883 Y-267.946
X-47.018 Y-267.586
X-46.316 Y-267.237
X-45.988 Y-267.045
X-45.583 Y-266.767
X-45.224 Y-266.432
X-44.919 Y-266.047
X-44.674 Y-265.621
X-44.495 Y-265.163
X-44.387 Y-264.684
X-44.35 Y-264.194
Y-260.381
G3 X-45.488 Y-259.162 I-1.269 J-0.044
G1 X-94.25 Y-254.096
G3 X-95.65 Y-255.315 I-0.131 J-1.263
G1 Y-259.124
X-95.632 Y-259.485
X-95.59 Y-259.847
X-95.516 Y-260.246
X-95.407 Y-260.672
X-95.249 Y-261.159
X-95.05 Y-261.654
X-94.776 Y-262.223
X-94.453 Y-262.794
X-94.035 Y-263.431
X-93.531 Y-264.097
X-92.928 Y-264.795
X-92.188 Y-265.542
X-91.298 Y-266.329
X-90.276 Y-267.119
X-89.206 Y-267.843
X-88.096 Y-268.506
X-86.956 Y-269.113
X-85.79 Y-269.67
X-84.603 Y-270.18
X-83.399 Y-270.647
X-82.179 Y-271.075
X-80.947 Y-271.465
X-79.705 Y-271.82
X-78.454 Y-272.142
X-77.195 Y-272.433
X-75.93 Y-272.695
X-74.659 Y-272.93
X-73.384 Y-273.137
X-72.105 Y-273.318
X-70.822 Y-273.474
X-69.537 Y-273.606
X-68.249 Y-273.714
X-66.96 Y-273.797
X-65.669 Y-273.858
X-64.378 Y-273.895
X-63.086 Y-273.908
X-61.794 Y-273.896
X-60.502 Y-273.86
X-59.212 Y-273.799
X-57.923 Y-273.711
X-56.636 Y-273.594
X-55.352 Y-273.448
X-54.072 Y-273.269
X-52.798 Y-273.054
X-51.531 Y-272.801
X-50.274 Y-272.503
X-49.031 Y-272.151
X-47.883 Y-271.759
X-47.018 Y-271.399
X-46.316 Y-271.05
X-45.988 Y-270.859
X-45.583 Y-270.58
X-45.224 Y-270.245
X-44.919 Y-269.86
X-44.674 Y-269.434
X-44.495 Y-268.977
X-44.387 Y-268.497
X-44.35 Y-268.008
Y-264.194
G3 X-45.488 Y-262.975 I-1.269 J-0.044
G1 X-94.249 Y-257.905
G3 X-95.65 Y-259.124 I-0.131 J-1.263
G1 Y-262.933
X-95.632 Y-263.291
X-95.59 Y-263.652
X-95.516 Y-264.052
X-95.408 Y-264.478
X-95.249 Y-264.965
X-95.05 Y-265.459
X-94.776 Y-266.029
X-94.453 Y-266.6
X-94.035 Y-267.237
X-93.531 Y-267.904
X-92.927 Y-268.601
X-92.187 Y-269.349
X-91.297 Y-270.136
X-90.275 Y-270.926
X-89.205 Y-271.65
X-88.096 Y-272.313
X-86.955 Y-272.92
X-85.789 Y-273.477
X-84.602 Y-273.988
X-83.398 Y-274.455
X-82.179 Y-274.882
X-80.947 Y-275.273
X-79.705 Y-275.628
X-78.453 Y-275.95
X-77.195 Y-276.242
X-75.93 Y-276.504
X-74.659 Y-276.738
X-73.384 Y-276.946
X-72.104 Y-277.127
X-70.822 Y-277.284
X-69.537 Y-277.416
X-68.249 Y-277.524
X-66.96 Y-277.608
X-65.669 Y-277.668
X-64.378 Y-277.705
X-63.086 Y-277.719
X-61.794 Y-277.708
X-60.502 Y-277.672
X-59.211 Y-277.611
X-57.922 Y-277.523
X-56.636 Y-277.406
X-55.352 Y-277.26
X-54.072 Y-277.081
X-52.798 Y-276.867
X-51.531 Y-276.613
X-50.274 Y-276.316
X-49.031 Y-275.964
X-47.883 Y-275.572
X-47.018 Y-275.212
X-46.317 Y-274.863
X-45.988 Y-274.672
X-45.583 Y-274.393
X-45.224 Y-274.058
X-44.919 Y-273.673
X-44.674 Y-273.247
X-44.495 Y-272.79
X-44.387 Y-272.31
X-44.35 Y-271.821
Y-268.008
G3 X-45.488 Y-266.789 I-1.269 J-0.044
G1 X-94.249 Y-261.714
G3 X-95.65 Y-262.933 I-0.131 J-1.263
G1 Y-266.742
X-95.632 Y-267.097
X-95.59 Y-267.458
X-95.516 Y-267.858
X-95.408 Y-268.284
X-95.249 Y-268.771
X-95.05 Y-269.266
X-94.776 Y-269.836
X-94.453 Y-270.406
X-94.035 Y-271.044
X-93.531 Y-271.71
X-92.927 Y-272.408
X-92.186 Y-273.156
X-91.297 Y-273.944
X-90.274 Y-274.734
X-89.204 Y-275.457
X-88.095 Y-276.12
X-86.954 Y-276.728
X-85.789 Y-277.285
X-84.602 Y-277.795
X-83.397 Y-278.263
X-82.178 Y-278.69
X-80.946 Y-279.081
X-79.704 Y-279.436
X-78.453 Y-279.759
X-77.194 Y-280.051
X-75.929 Y-280.313
X-74.659 Y-280.548
X-73.383 Y-280.755
X-72.104 Y-280.937
X-70.822 Y-281.094
X-69.536 Y-281.226
X-68.249 Y-281.334
X-66.96 Y-281.418
X-65.669 Y-281.479
X-64.377 Y-281.516
X-63.085 Y-281.529
X-61.793 Y-281.519
X-60.502 Y-281.483
X-59.211 Y-281.422
X-57.922 Y-281.334
X-56.635 Y-281.218
X-55.352 Y-281.072
X-54.072 Y-280.893
X-52.798 Y-280.679
X-51.531 Y-280.426
X-50.273 Y-280.128
X-49.03 Y-279.776
X-47.883 Y-279.385
X-47.018 Y-279.025
X-46.317 Y-278.676
X-45.988 Y-278.484
X-45.584 Y-278.206
X-45.224 Y-277.871
X-44.919 Y-277.486
X-44.674 Y-277.06
X-44.495 Y-276.602
X-44.387 Y-276.123
X-44.35 Y-275.633
Y-271.821
G3 X-45.488 Y-270.602 I-1.269 J-0.044
G1 X-94.249 Y-265.523
G3 X-95.65 Y-266.742 I-0.132 J-1.263
G1 Y-270.551
X-95.632 Y-270.903
X-95.59 Y-271.264
X-95.516 Y-271.664
X-95.408 Y-272.09
X-95.249 Y-272.578
X-95.05 Y-273.072
X-94.776 Y-273.642
X-94.453 Y-274.213
X-94.035 Y-274.85
X-93.531 Y-275.518
X-92.926 Y-276.215
X-92.186 Y-276.964
X-91.296 Y-277.751
X-90.273 Y-278.541
X-89.203 Y-279.265
X-88.094 Y-279.928
X-86.954 Y-280.536
X-85.788 Y-281.093
X-84.601 Y-281.603
X-83.397 Y-282.071
X-82.177 Y-282.499
X-80.946 Y-282.889
X-79.704 Y-283.245
X-78.453 Y-283.568
X-77.194 Y-283.86
X-75.929 Y-284.122
X-74.658 Y-284.357
X-73.383 Y-284.565
X-72.104 Y-284.747
X-70.821 Y-284.903
X-69.536 Y-285.036
X-68.249 Y-285.144
X-66.959 Y-285.229
X-65.669 Y-285.29
X-64.377 Y-285.327
X-63.085 Y-285.34
X-61.793 Y-285.33
X-60.502 Y-285.295
X-59.211 Y-285.234
X-57.922 Y-285.146
X-56.635 Y-285.03
X-55.351 Y-284.884
X-54.072 Y-284.705
X-52.797 Y-284.491
X-51.53 Y-284.238
X-50.273 Y-283.941
X-49.03 Y-283.588
X-47.883 Y-283.197
X-47.018 Y-282.837
X-46.317 Y-282.488
X-45.989 Y-282.297
X-45.584 Y-282.019
X-45.224 Y-281.684
X-44.919 Y-281.299
X-44.674 Y-280.873
X-44.495 Y-280.415
X-44.387 Y-279.936
X-44.35 Y-279.446
Y-275.633
G3 X-45.488 Y-274.414 I-1.269 J-0.044
G1 X-94.249 Y-269.332
G3 X-95.65 Y-270.551 I-0.132 J-1.263
G1 Y-274.36
X-95.633 Y-274.71
X-95.59 Y-275.071
X-95.516 Y-275.471
X-95.408 Y-275.897
X-95.249 Y-276.385
X-95.05 Y-276.879
X-94.776 Y-277.449
X-94.453 Y-278.02
X-94.035 Y-278.658
X-93.53 Y-279.325
X-92.926 Y-280.023
X-92.185 Y-280.771
X-91.295 Y-281.559
X-90.273 Y-282.349
X-89.202 Y-283.073
X-88.093 Y-283.736
X-86.953 Y-284.344
X-85.787 Y-284.901
X-84.601 Y-285.412
X-83.396 Y-285.879
X-82.177 Y-286.307
X-80.945 Y-286.698
X-79.703 Y-287.053
X-78.452 Y-287.376
X-77.194 Y-287.669
X-75.929 Y-287.931
X-74.658 Y-288.166
X-73.383 Y-288.374
X-72.104 Y-288.556
X-70.821 Y-288.713
X-69.536 Y-288.846
X-68.248 Y-288.954
X-66.959 Y-289.039
X-65.669 Y-289.1
X-64.377 Y-289.138
X-63.085 Y-289.151
X-61.793 Y-289.141
X-60.501 Y-289.106
X-59.211 Y-289.045
X-57.922 Y-288.958
X-56.635 Y-288.842
X-55.351 Y-288.695
X-54.071 Y-288.517
X-52.797 Y-288.303
X-51.53 Y-288.05
X-50.273 Y-287.753
X-49.03 Y-287.401
X-47.883 Y-287.01
X-47.018 Y-286.649
X-46.317 Y-286.301
X-45.989 Y-286.11
X-45.584 Y-285.831
X-45.225 Y-285.496
X-44.919 Y-285.111
X-44.674 Y-284.685
X-44.496 Y-284.227
X-44.387 Y-283.748
X-44.35 Y-283.258
Y-279.446
G3 X-45.487 Y-278.227 I-1.269 J-0.044
G1 X-94.249 Y-273.141
G3 X-95.65 Y-274.36 I-0.132 J-1.263
G1 Y-278.169
X-95.633 Y-278.517
X-95.59 Y-278.878
X-95.516 Y-279.278
X-95.408 Y-279.704
X-95.249 Y-280.192
X-95.05 Y-280.686
X-94.776 Y-281.257
X-94.453 Y-281.828
X-94.035 Y-282.465
X-93.53 Y-283.133
X-92.926 Y-283.831
X-92.185 Y-284.579
X-91.294 Y-285.367
X-90.272 Y-286.157
X-89.202 Y-286.881
X-88.093 Y-287.544
X-86.952 Y-288.152
X-85.787 Y-288.709
X-84.6 Y-289.22
X-83.396 Y-289.688
X-82.176 Y-290.116
X-80.945 Y-290.507
X-79.703 Y-290.862
X-78.452 Y-291.186
X-77.193 Y-291.478
X-75.928 Y-291.741
X-74.658 Y-291.976
X-73.383 Y-292.184
X-72.103 Y-292.366
X-70.821 Y-292.523
X-69.536 Y-292.656
X-68.248 Y-292.765
X-66.959 Y-292.849
X-65.668 Y-292.911
X-64.377 Y-292.948
X-63.085 Y-292.962
X-61.793 Y-292.952
X-60.501 Y-292.917
X-59.211 Y-292.856
X-57.922 Y-292.769
X-56.635 Y-292.653
X-55.351 Y-292.507
X-54.071 Y-292.329
X-52.797 Y-292.115
X-51.53 Y-291.862
X-50.273 Y-291.565
X-49.029 Y-291.213
X-47.883 Y-290.822
X-47.018 Y-290.462
X-46.317 Y-290.113
X-45.989 Y-289.922
X-45.584 Y-289.644
X-45.225 Y-289.308
X-44.919 Y-288.923
X-44.674 Y-288.497
X-44.496 Y-288.04
X-44.387 Y-287.561
X-44.35 Y-287.071
Y-283.258
G3 X-45.487 Y-282.039 I-1.269 J-0.044
G1 X-94.249 Y-276.951
G3 X-95.65 Y-278.169 I-0.132 J-1.263
G1 Y-281.979
X-95.633 Y-282.324
X-95.59 Y-282.686
X-95.517 Y-283.086
X-95.408 Y-283.512
X-95.249 Y-284
X-95.05 Y-284.494
X-94.776 Y-285.064
X-94.453 Y-285.635
X-94.034 Y-286.273
X-93.53 Y-286.941
X-92.925 Y-287.639
X-92.184 Y-288.388
X-91.294 Y-289.176
X-90.271 Y-289.966
X-89.201 Y-290.689
X-88.092 Y-291.353
X-86.952 Y-291.96
X-85.786 Y-292.518
X-84.599 Y-293.029
X-83.395 Y-293.497
X-82.176 Y-293.925
X-80.945 Y-294.316
X-79.702 Y-294.671
X-78.451 Y-294.995
X-77.193 Y-295.287
X-75.928 Y-295.55
X-74.657 Y-295.785
X-73.382 Y-295.994
X-72.103 Y-296.176
X-70.821 Y-296.333
X-69.536 Y-296.466
X-68.248 Y-296.575
X-66.959 Y-296.66
X-65.668 Y-296.721
X-64.377 Y-296.759
X-63.085 Y-296.773
X-61.793 Y-296.763
X-60.501 Y-296.728
X-59.211 Y-296.668
X-57.921 Y-296.58
X-56.635 Y-296.465
X-55.351 Y-296.319
X-54.071 Y-296.14
X-52.797 Y-295.927
X-51.53 Y-295.674
X-50.272 Y-295.377
X-49.029 Y-295.025
X-47.883 Y-294.634
X-47.018 Y-294.274
X-46.317 Y-293.925
X-45.989 Y-293.734
X-45.584 Y-293.456
X-45.225 Y-293.12
X-44.919 Y-292.736
X-44.674 Y-292.31
X-44.496 Y-291.852
X-44.387 Y-291.373
X-44.35 Y-290.883
Y-287.071
G3 X-45.487 Y-285.852 I-1.269 J-0.044
G1 X-94.249 Y-280.76
G3 X-95.65 Y-281.979 I-0.132 J-1.263
G1 Y-285.788
X-95.633 Y-286.132
X-95.59 Y-286.494
X-95.517 Y-286.893
X-95.408 Y-287.32
X-95.249 Y-287.807
X-95.05 Y-288.302
X-94.776 Y-288.872
X-94.453 Y-289.443
X-94.034 Y-290.081
X-93.53 Y-290.749
X-92.925 Y-291.447
X-92.184 Y-292.196
X-91.293 Y-292.984
X-90.271 Y-293.775
X-89.2 Y-294.498
X-88.091 Y-295.161
X-86.951 Y-295.769
X-85.786 Y-296.327
X-84.599 Y-296.838
X-83.395 Y-297.306
X-82.176 Y-297.734
X-80.944 Y-298.125
X-79.702 Y-298.481
X-78.451 Y-298.804
X-77.193 Y-299.097
X-75.928 Y-299.36
X-74.657 Y-299.595
X-73.382 Y-299.803
X-72.103 Y-299.986
X-70.821 Y-300.143
X-69.535 Y-300.276
X-68.248 Y-300.385
X-66.959 Y-300.47
X-65.668 Y-300.532
X-64.377 Y-300.57
X-63.085 Y-300.584
X-61.793 Y-300.574
X-60.501 Y-300.539
X-59.21 Y-300.479
X-57.921 Y-300.392
X-56.634 Y-300.276
X-55.351 Y-300.13
X-54.071 Y-299.952
X-52.797 Y-299.738
X-51.53 Y-299.486
X-50.272 Y-299.188
X-49.029 Y-298.837
X-47.883 Y-298.446
X-47.018 Y-298.086
X-46.317 Y-297.737
X-45.989 Y-297.546
X-45.584 Y-297.268
X-45.225 Y-296.933
X-44.919 Y-296.548
X-44.674 Y-296.122
X-44.496 Y-295.664
X-44.387 Y-295.185
X-44.35 Y-294.695
Y-290.883
G3 X-45.487 Y-289.664 I-1.269 J-0.044
G1 X-94.249 Y-284.569
G3 X-95.65 Y-285.788 I-0.132 J-1.263
G1 Y-289.597
X-95.633 Y-289.94
X-95.591 Y-290.302
X-95.517 Y-290.702
X-95.408 Y-291.128
X-95.249 Y-291.616
X-95.05 Y-292.11
X-94.776 Y-292.681
X-94.453 Y-293.252
X-94.034 Y-293.89
X-93.53 Y-294.557
X-92.925 Y-295.256
X-92.184 Y-296.005
X-91.293 Y-296.793
X-90.27 Y-297.583
X-89.2 Y-298.307
X-88.091 Y-298.97
X-86.951 Y-299.578
X-85.785 Y-300.136
X-84.599 Y-300.647
X-83.394 Y-301.115
X-82.175 Y-301.543
X-80.944 Y-301.934
X-79.702 Y-302.29
X-78.451 Y-302.614
X-77.192 Y-302.906
X-75.927 Y-303.169
X-74.657 Y-303.405
X-73.382 Y-303.613
X-72.103 Y-303.796
X-70.82 Y-303.954
X-69.535 Y-304.087
X-68.248 Y-304.196
X-66.959 Y-304.281
X-65.668 Y-304.343
X-64.376 Y-304.381
X-63.085 Y-304.395
X-61.792 Y-304.385
X-60.501 Y-304.35
X-59.21 Y-304.29
X-57.921 Y-304.203
X-56.634 Y-304.087
X-55.35 Y-303.942
X-54.071 Y-303.764
X-52.796 Y-303.55
X-51.529 Y-303.297
X-50.272 Y-303
X-49.029 Y-302.648
X-47.883 Y-302.258
X-47.018 Y-301.898
X-46.317 Y-301.549
X-45.989 Y-301.358
X-45.584 Y-301.08
X-45.225 Y-300.744
X-44.919 Y-300.36
X-44.674 Y-299.934
X-44.496 Y-299.476
X-44.387 Y-298.997
X-44.35 Y-298.507
Y-294.695
G3 X-45.487 Y-293.476 I-1.269 J-0.044
G1 X-94.249 Y-288.378
G3 X-95.65 Y-289.597 I-0.132 J-1.263
G1 Y-293.406
X-95.633 Y-293.748
X-95.591 Y-294.11
X-95.517 Y-294.51
X-95.408 Y-294.936
X-95.249 Y-295.424
X-95.05 Y-295.919
X-94.776 Y-296.489
X-94.453 Y-297.06
X-94.034 Y-297.698
X-93.53 Y-298.366
X-92.925 Y-299.064
X-92.183 Y-299.814
X-91.292 Y-300.602
X-90.27 Y-301.392
X-89.199 Y-302.116
X-88.09 Y-302.779
X-86.95 Y-303.387
X-85.785 Y-303.945
X-84.598 Y-304.456
X-83.394 Y-304.924
X-82.175 Y-305.352
X-80.943 Y-305.743
X-79.701 Y-306.1
X-78.451 Y-306.423
X-77.192 Y-306.716
X-75.927 Y-306.979
X-74.657 Y-307.215
X-73.382 Y-307.423
X-72.103 Y-307.606
X-70.82 Y-307.764
X-69.535 Y-307.897
X-68.248 Y-308.006
X-66.958 Y-308.091
X-65.668 Y-308.153
X-64.376 Y-308.191
X-63.084 Y-308.206
X-61.792 Y-308.196
X-60.501 Y-308.161
X-59.21 Y-308.101
X-57.921 Y-308.014
X-56.634 Y-307.899
X-55.35 Y-307.753
X-54.071 Y-307.575
X-52.796 Y-307.362
X-51.529 Y-307.109
X-50.272 Y-306.812
X-49.029 Y-306.46
X-47.883 Y-306.07
X-47.018 Y-305.709
X-46.317 Y-305.361
X-45.989 Y-305.17
X-45.584 Y-304.892
X-45.225 Y-304.556
X-44.919 Y-304.171
X-44.674 Y-303.745
X-44.496 Y-303.288
X-44.387 Y-302.808
X-44.35 Y-302.318
Y-298.507
G3 X-45.487 Y-297.288 I-1.269 J-0.044
G1 X-94.249 Y-292.187
G3 X-95.65 Y-293.406 I-0.132 J-1.263
G1 Y-297.215
X-95.633 Y-297.557
X-95.591 Y-297.918
X-95.517 Y-298.318
X-95.408 Y-298.745
X-95.249 Y-299.233
X-95.05 Y-299.727
X-94.776 Y-300.298
X-94.453 Y-300.869
X-94.034 Y-301.507
X-93.529 Y-302.175
X-92.924 Y-302.873
X-92.183 Y-303.623
X-91.292 Y-304.411
X-90.269 Y-305.201
X-89.199 Y-305.925
X-88.09 Y-306.588
X-86.95 Y-307.196
X-85.784 Y-307.754
X-84.598 Y-308.265
X-83.394 Y-308.733
X-82.175 Y-309.162
X-80.943 Y-309.553
X-79.701 Y-309.909
X-78.45 Y-310.233
X-77.192 Y-310.526
X-75.927 Y-310.789
X-74.657 Y-311.025
X-73.382 Y-311.233
X-72.102 Y-311.416
X-70.82 Y-311.574
X-69.535 Y-311.707
X-68.248 Y-311.817
X-66.958 Y-311.902
X-65.668 Y-311.964
X-64.376 Y-312.002
X-63.084 Y-312.017
X-61.792 Y-312.007
X-60.501 Y-311.972
X-59.21 Y-311.912
X-57.921 Y-311.826
X-56.634 Y-311.71
X-55.35 Y-311.564
X-54.07 Y-311.387
X-52.796 Y-311.173
X-51.529 Y-310.92
X-50.272 Y-310.623
X-49.028 Y-310.271
X-47.883 Y-309.881
X-47.018 Y-309.521
X-46.317 Y-309.173
X-45.989 Y-308.982
X-45.584 Y-308.703
X-45.225 Y-308.368
X-44.919 Y-307.983
X-44.674 Y-307.557
X-44.496 Y-307.099
X-44.387 Y-306.62
X-44.35 Y-306.13
Y-302.318
G3 X-45.487 Y-301.1 I-1.269 J-0.044
G1 X-94.249 Y-295.996
G3 X-95.65 Y-297.215 I-0.132 J-1.263
G1 Y-301.024
X-95.633 Y-301.365
X-95.591 Y-301.727
X-95.517 Y-302.127
X-95.408 Y-302.553
X-95.249 Y-303.041
X-95.05 Y-303.536
X-94.776 Y-304.107
X-94.453 Y-304.678
X-94.034 Y-305.316
X-93.529 Y-305.984
X-92.924 Y-306.682
X-92.183 Y-307.432
X-91.291 Y-308.221
X-90.269 Y-309.011
X-89.198 Y-309.734
X-88.09 Y-310.398
X-86.95 Y-311.006
X-85.784 Y-311.563
X-84.597 Y-312.075
X-83.393 Y-312.543
X-82.174 Y-312.971
X-80.943 Y-313.362
X-79.701 Y-313.719
X-78.45 Y-314.043
X-77.192 Y-314.336
X-75.927 Y-314.599
X-74.656 Y-314.835
X-73.381 Y-315.044
X-72.102 Y-315.227
X-70.82 Y-315.384
X-69.535 Y-315.518
X-68.247 Y-315.627
X-66.958 Y-315.713
X-65.668 Y-315.775
X-64.376 Y-315.813
X-63.084 Y-315.827
X-61.792 Y-315.818
X-60.501 Y-315.783
X-59.21 Y-315.723
X-57.921 Y-315.637
X-56.634 Y-315.521
X-55.35 Y-315.376
X-54.07 Y-315.198
X-52.796 Y-314.984
X-51.529 Y-314.732
X-50.271 Y-314.435
X-49.028 Y-314.083
X-47.883 Y-313.693
X-47.018 Y-313.333
X-46.317 Y-312.984
X-45.989 Y-312.793
X-45.584 Y-312.515
X-45.225 Y-312.18
X-44.919 Y-311.795
X-44.674 Y-311.369
X-44.496 Y-310.911
X-44.387 Y-310.432
X-44.35 Y-309.942
Y-306.13
G3 X-45.487 Y-304.911 I-1.269 J-0.044
G1 X-94.249 Y-299.805
G3 X-95.65 Y-301.024 I-0.132 J-1.263
G1 Y-304.833
X-95.633 Y-305.174
X-95.591 Y-305.536
X-95.517 Y-305.936
X-95.408 Y-306.362
X-95.249 Y-306.85
X-95.05 Y-307.345
X-94.776 Y-307.916
X-94.453 Y-308.487
X-94.034 Y-309.125
X-93.529 Y-309.793
X-92.924 Y-310.492
X-92.182 Y-311.241
X-91.291 Y-312.03
X-90.268 Y-312.82
X-89.198 Y-313.544
X-88.089 Y-314.207
X-86.949 Y-314.815
X-85.784 Y-315.373
X-84.597 Y-315.884
X-83.393 Y-316.353
X-82.174 Y-316.781
X-80.943 Y-317.172
X-79.701 Y-317.529
X-78.45 Y-317.853
X-77.191 Y-318.145
X-75.927 Y-318.409
X-74.656 Y-318.645
X-73.381 Y-318.854
X-72.102 Y-319.037
X-70.82 Y-319.195
X-69.535 Y-319.328
X-68.247 Y-319.438
X-66.958 Y-319.523
X-65.667 Y-319.585
X-64.376 Y-319.624
X-63.084 Y-319.638
X-61.792 Y-319.629
X-60.5 Y-319.594
X-59.21 Y-319.535
X-57.921 Y-319.448
X-56.634 Y-319.332
X-55.35 Y-319.187
X-54.07 Y-319.009
X-52.796 Y-318.796
X-51.529 Y-318.543
X-50.271 Y-318.246
X-49.028 Y-317.894
X-47.882 Y-317.504
X-47.018 Y-317.144
X-46.317 Y-316.796
X-45.989 Y-316.605
X-45.584 Y-316.327
X-45.225 Y-315.991
X-44.919 Y-315.606
X-44.674 Y-315.18
X-44.496 Y-314.723
X-44.387 Y-314.243
X-44.35 Y-313.753
Y-309.942
G3 X-45.487 Y-308.723 I-1.269 J-0.044
G1 X-94.248 Y-303.614
G3 X-95.65 Y-304.833 I-0.132 J-1.263
G1 Y-308.642
X-95.633 Y-308.983
X-95.591 Y-309.345
X-95.517 Y-309.745
X-95.408 Y-310.171
X-95.249 Y-310.659
X-95.05 Y-311.154
X-94.776 Y-311.725
X-94.453 Y-312.296
X-94.034 Y-312.934
X-93.529 Y-313.602
X-92.924 Y-314.301
X-92.182 Y-315.051
X-91.29 Y-315.84
X-90.268 Y-316.63
X-89.198 Y-317.353
X-88.089 Y-318.017
X-86.949 Y-318.625
X-85.783 Y-319.183
X-84.597 Y-319.694
X-83.393 Y-320.162
X-82.174 Y-320.591
X-80.942 Y-320.982
X-79.7 Y-321.339
X-78.45 Y-321.662
X-77.191 Y-321.955
X-75.926 Y-322.219
X-74.656 Y-322.455
X-73.381 Y-322.664
X-72.102 Y-322.847
X-70.82 Y-323.005
X-69.535 Y-323.139
X-68.247 Y-323.248
X-66.958 Y-323.334
X-65.667 Y-323.396
X-64.376 Y-323.434
X-63.084 Y-323.449
X-61.792 Y-323.44
X-60.5 Y-323.405
X-59.21 Y-323.346
X-57.92 Y-323.259
X-56.634 Y-323.144
X-55.35 Y-322.998
X-54.07 Y-322.82
X-52.796 Y-322.607
X-51.528 Y-322.355
X-50.271 Y-322.057
X-49.028 Y-321.706
X-47.882 Y-321.316
X-47.018 Y-320.956
X-46.317 Y-320.607
X-45.989 Y-320.416
X-45.584 Y-320.138
X-45.225 Y-319.803
X-44.919 Y-319.418
X-44.674 Y-318.992
X-44.496 Y-318.534
X-44.387 Y-318.055
X-44.35 Y-317.565
Y-313.753
G3 X-45.487 Y-312.535 I-1.269 J-0.044
G1 X-94.248 Y-307.424
G3 X-95.65 Y-308.642 I-0.132 J-1.263
G1 Y-312.451
X-95.633 Y-312.792
X-95.591 Y-313.154
X-95.517 Y-313.554
X-95.408 Y-313.981
X-95.249 Y-314.469
X-95.05 Y-314.963
X-94.776 Y-315.534
X-94.453 Y-316.105
X-94.034 Y-316.744
X-93.529 Y-317.412
X-92.924 Y-318.11
X-92.182 Y-318.86
X-91.29 Y-319.649
X-90.268 Y-320.439
X-89.197 Y-321.163
X-88.089 Y-321.826
X-86.949 Y-322.435
X-85.783 Y-322.992
X-84.597 Y-323.504
X-83.392 Y-323.972
X-82.174 Y-324.401
X-80.942 Y-324.792
X-79.7 Y-325.149
X-78.449 Y-325.472
X-77.191 Y-325.766
X-75.926 Y-326.029
X-74.656 Y-326.265
X-73.381 Y-326.474
X-72.102 Y-326.657
X-70.82 Y-326.816
X-69.534 Y-326.949
X-68.247 Y-327.059
X-66.958 Y-327.144
X-65.667 Y-327.207
X-64.376 Y-327.245
X-63.084 Y-327.26
X-61.792 Y-327.25
X-60.5 Y-327.216
X-59.21 Y-327.157
X-57.92 Y-327.07
X-56.633 Y-326.955
X-55.35 Y-326.809
X-54.07 Y-326.632
X-52.795 Y-326.418
X-51.528 Y-326.166
X-50.271 Y-325.869
X-49.028 Y-325.517
X-47.882 Y-325.127
X-47.018 Y-324.767
X-46.317 Y-324.419
X-45.989 Y-324.228
X-45.584 Y-323.949
X-45.225 Y-323.614
X-44.919 Y-323.229
X-44.674 Y-322.803
X-44.496 Y-322.345
X-44.387 Y-321.866
X-44.35 Y-321.376
Y-317.565
G3 X-45.487 Y-316.346 I-1.269 J-0.044
G1 X-94.248 Y-311.233
G3 X-95.65 Y-312.451 I-0.132 J-1.263
G1 Y-316.261
X-95.633 Y-316.602
X-95.591 Y-316.963
X-95.517 Y-317.364
X-95.408 Y-317.79
X-95.249 Y-318.278
X-95.05 Y-318.773
X-94.776 Y-319.344
X-94.453 Y-319.915
X-94.034 Y-320.553
X-93.529 Y-321.221
X-92.923 Y-321.92
X-92.182 Y-322.67
X-91.29 Y-323.459
X-90.267 Y-324.249
X-89.197 Y-324.973
X-88.088 Y-325.636
X-86.948 Y-326.244
X-85.783 Y-326.802
X-84.596 Y-327.313
X-83.392 Y-327.782
X-82.173 Y-328.211
X-80.942 Y-328.602
X-79.7 Y-328.959
X-78.449 Y-329.283
X-77.191 Y-329.576
X-75.926 Y-329.84
X-74.656 Y-330.076
X-73.381 Y-330.285
X-72.102 Y-330.468
X-70.819 Y-330.626
X-69.534 Y-330.76
X-68.247 Y-330.869
X-66.958 Y-330.955
X-65.667 Y-331.017
X-64.376 Y-331.056
X-63.084 Y-331.071
X-61.792 Y-331.061
X-60.5 Y-331.027
X-59.209 Y-330.967
X-57.92 Y-330.881
X-56.633 Y-330.766
X-55.349 Y-330.62
X-54.07 Y-330.443
X-52.795 Y-330.229
X-51.528 Y-329.977
X-50.271 Y-329.68
X-49.027 Y-329.328
X-47.882 Y-328.938
X-47.018 Y-328.578
X-46.317 Y-328.23
X-45.989 Y-328.039
X-45.584 Y-327.761
X-45.225 Y-327.425
X-44.919 Y-327.041
X-44.674 Y-326.614
X-44.496 Y-326.157
X-44.387 Y-325.678
X-44.35 Y-325.187
Y-321.376
G3 X-45.487 Y-320.157 I-1.269 J-0.044
G1 X-94.248 Y-315.042
G3 X-95.65 Y-316.261 I-0.133 J-1.263
G1 Y-320.07
X-95.633 Y-320.411
X-95.591 Y-320.773
X-95.517 Y-321.173
X-95.408 Y-321.6
X-95.249 Y-322.088
X-95.05 Y-322.582
X-94.776 Y-323.153
X-94.453 Y-323.724
X-94.033 Y-324.363
X-93.529 Y-325.031
X-92.923 Y-325.73
X-92.181 Y-326.48
X-91.289 Y-327.269
X-90.267 Y-328.059
X-89.197 Y-328.783
X-88.088 Y-329.446
X-86.948 Y-330.054
X-85.783 Y-330.612
X-84.596 Y-331.123
X-83.392 Y-331.592
X-82.173 Y-332.021
X-80.942 Y-332.412
X-79.7 Y-332.769
X-78.449 Y-333.093
X-77.191 Y-333.386
X-75.926 Y-333.65
X-74.656 Y-333.886
X-73.381 Y-334.095
X-72.102 Y-334.278
X-70.819 Y-334.436
X-69.534 Y-334.57
X-68.247 Y-334.68
X-66.958 Y-334.766
X-65.667 Y-334.828
X-64.376 Y-334.867
X-63.084 Y-334.882
X-61.792 Y-334.872
X-60.5 Y-334.838
X-59.209 Y-334.778
X-57.92 Y-334.692
X-56.633 Y-334.577
X-55.349 Y-334.431
X-54.07 Y-334.254
X-52.795 Y-334.041
X-51.528 Y-333.788
X-50.271 Y-333.491
X-49.027 Y-333.14
X-47.882 Y-332.749
X-47.018 Y-332.39
X-46.317 Y-332.041
X-45.989 Y-331.85
X-45.584 Y-331.572
X-45.225 Y-331.237
X-44.919 Y-330.852
X-44.674 Y-330.426
X-44.496 Y-329.968
X-44.387 Y-329.489
X-44.35 Y-328.999
Y-325.187
G3 X-45.487 Y-323.969 I-1.269 J-0.044
G1 X-94.248 Y-318.851
G3 X-95.65 Y-320.07 I-0.133 J-1.263
G1 Y-323.879
X-95.633 Y-324.221
X-95.591 Y-324.582
X-95.517 Y-324.983
X-95.408 Y-325.409
X-95.249 Y-325.897
X-95.05 Y-326.392
X-94.776 Y-326.963
X-94.453 Y-327.534
X-94.033 Y-328.173
X-93.528 Y-328.841
X-92.923 Y-329.54
X-92.181 Y-330.289
X-91.289 Y-331.079
X-90.267 Y-331.869
X-89.197 Y-332.593
X-88.088 Y-333.256
X-86.948 Y-333.864
X-85.782 Y-334.422
X-84.596 Y-334.933
X-83.392 Y-335.402
X-82.173 Y-335.831
X-80.942 Y-336.222
X-79.7 Y-336.579
X-78.449 Y-336.903
X-77.191 Y-337.196
X-75.926 Y-337.46
X-74.655 Y-337.696
X-73.38 Y-337.905
X-72.101 Y-338.089
X-70.819 Y-338.247
X-69.534 Y-338.381
X-68.247 Y-338.49
X-66.957 Y-338.576
X-65.667 Y-338.639
X-64.375 Y-338.677
X-63.083 Y-338.692
X-61.791 Y-338.683
X-60.5 Y-338.649
X-59.209 Y-338.589
X-57.92 Y-338.503
X-56.633 Y-338.388
X-55.349 Y-338.243
X-54.069 Y-338.065
X-52.795 Y-337.852
X-51.528 Y-337.599
X-50.27 Y-337.302
X-49.027 Y-336.951
X-47.882 Y-336.561
X-47.018 Y-336.201
X-46.317 Y-335.853
X-45.989 Y-335.662
X-45.584 Y-335.383
X-45.225 Y-335.048
X-44.919 Y-334.663
X-44.674 Y-334.237
X-44.496 Y-333.779
X-44.387 Y-333.3
X-44.35 Y-332.81
Y-328.999
G3 X-45.487 Y-327.78 I-1.269 J-0.044
G1 X-94.248 Y-322.66
G3 X-95.65 Y-323.879 I-0.133 J-1.263
G1 Y-327.688
X-95.633 Y-328.03
X-95.591 Y-328.392
X-95.517 Y-328.793
X-95.408 Y-329.219
X-95.249 Y-329.707
X-95.05 Y-330.202
X-94.776 Y-330.773
X-94.453 Y-331.344
X-94.033 Y-331.983
X-93.528 Y-332.65
X-92.923 Y-333.349
X-92.181 Y-334.099
X-91.289 Y-334.889
X-90.267 Y-335.679
X-89.196 Y-336.403
X-88.087 Y-337.066
X-86.948 Y-337.674
X-85.782 Y-338.232
X-84.596 Y-338.743
X-83.391 Y-339.212
X-82.173 Y-339.641
X-80.941 Y-340.032
X-79.7 Y-340.389
X-78.449 Y-340.713
X-77.19 Y-341.006
X-75.926 Y-341.27
X-74.655 Y-341.507
X-73.38 Y-341.716
X-72.101 Y-341.899
X-70.819 Y-342.057
X-69.534 Y-342.191
X-68.247 Y-342.301
X-66.957 Y-342.387
X-65.667 Y-342.449
X-64.375 Y-342.488
X-63.083 Y-342.503
X-61.791 Y-342.494
X-60.5 Y-342.46
X-59.209 Y-342.4
X-57.92 Y-342.314
X-56.633 Y-342.199
X-55.349 Y-342.054
X-54.069 Y-341.876
X-52.795 Y-341.663
X-51.528 Y-341.41
X-50.27 Y-341.113
X-49.027 Y-340.762
X-47.882 Y-340.372
X-47.018 Y-340.012
X-46.317 Y-339.664
X-45.989 Y-339.473
X-45.584 Y-339.195
X-45.225 Y-338.859
X-44.919 Y-338.474
X-44.674 Y-338.048
X-44.496 Y-337.59
X-44.387 Y-337.111
X-44.35 Y-336.621
Y-332.81
G3 X-45.487 Y-331.591 I-1.269 J-0.044
G1 X-94.248 Y-326.469
G3 X-95.65 Y-327.688 I-0.133 J-1.263
G1 Y-331.497
X-95.633 Y-331.84
X-95.591 Y-332.202
X-95.517 Y-332.602
X-95.408 Y-333.029
X-95.249 Y-333.517
X-95.05 Y-334.012
X-94.776 Y-334.582
X-94.453 Y-335.154
X-94.033 Y-335.792
X-93.528 Y-336.46
X-92.923 Y-337.159
X-92.181 Y-337.909
X-91.289 Y-338.699
X-90.266 Y-339.489
X-89.196 Y-340.213
X-88.087 Y-340.876
X-86.947 Y-341.484
X-85.782 Y-342.042
X-84.595 Y-342.554
X-83.391 Y-343.022
X-82.172 Y-343.451
X-80.941 Y-343.842
X-79.699 Y-344.199
X-78.449 Y-344.523
X-77.19 Y-344.817
X-75.926 Y-345.081
X-74.655 Y-345.317
X-73.38 Y-345.526
X-72.101 Y-345.71
X-70.819 Y-345.868
X-69.534 Y-346.002
X-68.246 Y-346.112
X-66.957 Y-346.198
X-65.667 Y-346.26
X-64.375 Y-346.299
X-63.083 Y-346.314
X-61.791 Y-346.305
X-60.5 Y-346.271
X-59.209 Y-346.211
X-57.92 Y-346.125
X-56.633 Y-346.01
X-55.349 Y-345.865
X-54.069 Y-345.687
X-52.795 Y-345.474
X-51.528 Y-345.221
X-50.27 Y-344.925
X-49.027 Y-344.573
X-47.882 Y-344.183
