%
(1001)
(origin stock bottom)
(T1  D=12.7 CR=0 - ZMIN=10 - flat end mill)
G90 G94
G17
G21

(2D Adaptive1)
M9
T1 M6
S6000 M3
G54
G0 X-188.481 Y-488.179
Z33
Z23
Z20.55
G3 X-193.519 Y-477.216 Z18.892 I-2.519 J5.481 F283.3
X-188.481 Y-488.179 Z17.234 I2.519 J-5.481
X-193.519 Y-477.216 Z15.576 I-2.519 J5.481
X-188.481 Y-488.179 Z13.918 I2.519 J-5.481
X-193.519 Y-477.216 Z12.26 I-2.519 J5.481
X-188.481 Y-488.179 Z10.602 I2.519 J-5.481
X-184.967 Y-482.698 Z10 I-2.519 J5.481
X-197.033 I-6.033
X-184.967 I6.033
G1 X-184.964 Y-482.375 F849.6
X-184.932 Y-482.053
X-184.691 Y-480.784
X-184.642 Y-480.63
X-184.599 Y-480.454
X-184.565 Y-480.26
X-184.542 Y-480.047
X-184.532 Y-479.816
X-184.538 Y-479.569
X-184.562 Y-479.305
X-184.606 Y-479.028
X-184.671 Y-478.738
X-184.761 Y-478.437
X-184.876 Y-478.128
X-185.018 Y-477.813
X-185.187 Y-477.494
X-185.385 Y-477.175
X-185.612 Y-476.858
X-185.869 Y-476.546
X-186.154 Y-476.241
X-186.469 Y-475.948
X-186.812 Y-475.669
X-187.181 Y-475.406
X-187.577 Y-475.163
X-187.996 Y-474.942
X-188.438 Y-474.746
X-188.9 Y-474.576
X-189.38 Y-474.435
X-189.876 Y-474.325
X-190.384 Y-474.247
X-190.903 Y-474.202
X-191.429 Y-474.191
X-191.96 Y-474.216
X-192.493 Y-474.276
X-193.024 Y-474.372
X-193.552 Y-474.504
X-194.074 Y-474.672
X-194.586 Y-474.875
X-195.085 Y-475.113
X-195.571 Y-475.385
X-196.039 Y-475.69
X-196.487 Y-476.026
X-196.913 Y-476.393
X-197.316 Y-476.788
X-197.692 Y-477.21
X-198.04 Y-477.656
X-198.358 Y-478.126
X-198.645 Y-478.617
X-198.9 Y-479.127
X-199.12 Y-479.653
X-199.305 Y-480.194
X-199.454 Y-480.746
X-199.566 Y-481.307
X-199.641 Y-481.875
X-199.678 Y-482.447
X-199.677 Y-483.021
X-199.638 Y-483.594
X-199.561 Y-484.163
X-199.446 Y-484.726
X-199.294 Y-485.28
X-199.106 Y-485.824
X-198.882 Y-486.354
X-198.623 Y-486.868
X-198.33 Y-487.363
X-198.006 Y-487.839
X-197.65 Y-488.292
X-197.265 Y-488.72
X-196.853 Y-489.122
X-196.414 Y-489.496
X-195.952 Y-489.84
X-195.468 Y-490.153
X-194.964 Y-490.433
X-194.443 Y-490.679
X-193.906 Y-490.89
X-193.357 Y-491.064
X-192.797 Y-491.202
X-192.229 Y-491.303
X-191.656 Y-491.366
X-191.08 Y-491.39
X-190.503 Y-491.376
X-189.929 Y-491.324
X-189.359 Y-491.234
X-188.797 Y-491.107
X-188.244 Y-490.942
X-187.703 Y-490.741
X-187.177 Y-490.505
X-186.668 Y-490.234
X-186.178 Y-489.931
X-185.709 Y-489.595
X-185.263 Y-489.229
X-184.842 Y-488.834
X-184.449 Y-488.412
X-184.084 Y-487.965
X-183.75 Y-487.495
X-183.448 Y-487.004
X-182.879 Y-485.923
X-182.433 Y-484.922
X-182.125 Y-484.082
X-181.904 Y-483.332
X-181.746 Y-482.622
X-181.642 Y-481.951
X-181.586 Y-481.305
X-181.573 Y-480.672
X-181.601 Y-480.053
X-181.67 Y-479.445
X-181.778 Y-478.848
X-181.924 Y-478.263
X-182.108 Y-477.69
X-182.331 Y-477.129
X-182.591 Y-476.582
X-182.889 Y-476.051
X-183.224 Y-475.536
X-183.596 Y-475.04
X-184.003 Y-474.565
X-184.446 Y-474.114
X-184.924 Y-473.688
X-185.433 Y-473.291
X-185.974 Y-472.924
X-186.545 Y-472.59
X-187.142 Y-472.292
X-187.763 Y-472.032
X-188.406 Y-471.812
X-189.068 Y-471.633
X-189.746 Y-471.497
X-190.437 Y-471.406
X-191.139 Y-471.36
X-191.847 Y-471.361
X-192.559 Y-471.41
X-193.27 Y-471.506
X-193.979 Y-471.65
X-194.68 Y-471.842
X-195.371 Y-472.081
X-196.048 Y-472.368
X-196.709 Y-472.7
X-197.348 Y-473.076
X-197.963 Y-473.496
X-198.552 Y-473.958
X-199.11 Y-474.459
X-199.635 Y-474.998
X-200.125 Y-475.572
X-200.577 Y-476.178
X-200.988 Y-476.815
X-201.357 Y-477.479
X-201.682 Y-478.167
X-201.961 Y-478.876
X-202.192 Y-479.603
X-202.375 Y-480.345
X-202.509 Y-481.099
X-202.592 Y-481.86
X-202.625 Y-482.626
X-202.607 Y-483.393
X-202.538 Y-484.158
X-202.418 Y-484.917
X-202.248 Y-485.667
X-202.029 Y-486.404
X-201.761 Y-487.126
X-201.446 Y-487.828
X-201.085 Y-488.509
X-200.679 Y-489.164
X-200.23 Y-489.791
X-199.741 Y-490.387
X-199.213 Y-490.949
X-198.649 Y-491.475
X-198.051 Y-491.963
X-197.422 Y-492.41
X-196.765 Y-492.815
X-196.082 Y-493.175
X-195.377 Y-493.489
X-194.652 Y-493.756
X-193.911 Y-493.974
X-193.158 Y-494.142
X-192.394 Y-494.26
X-191.625 Y-494.327
X-190.852 Y-494.343
X-190.081 Y-494.308
X-189.313 Y-494.222
X-188.553 Y-494.085
X-187.803 Y-493.898
X-187.067 Y-493.661
X-186.349 Y-493.376
X-185.651 Y-493.044
X-184.977 Y-492.667
X-184.329 Y-492.246
X-183.711 Y-491.782
X-183.061 Y-491.225
X-182.433 Y-490.609
X-181.8 Y-489.9
X-181.198 Y-489.128
X-180.647 Y-488.316
X-180.156 Y-487.476
X-179.728 Y-486.619
X-179.364 Y-485.752
X-179.065 Y-484.88
X-178.829 Y-484.007
X-178.655 Y-483.138
X-178.541 Y-482.275
X-178.485 Y-481.418
X-178.486 Y-480.568
X-178.543 Y-479.728
X-178.655 Y-478.9
X-178.82 Y-478.083
X-179.039 Y-477.282
X-179.311 Y-476.498
X-179.634 Y-475.733
X-180.007 Y-474.99
X-180.43 Y-474.271
X-180.902 Y-473.58
X-181.421 Y-472.918
X-181.985 Y-472.29
X-182.593 Y-471.697
X-183.242 Y-471.142
X-183.93 Y-470.629
X-184.656 Y-470.16
X-185.415 Y-469.738
X-186.206 Y-469.364
X-187.025 Y-469.042
X-187.868 Y-468.773
X-188.733 Y-468.56
X-189.615 Y-468.403
X-190.512 Y-468.305
X-191.419 Y-468.266
X-192.331 Y-468.287
X-193.246 Y-468.369
X-194.157 Y-468.513
X-195.062 Y-468.717
X-195.956 Y-468.983
X-196.834 Y-469.308
X-197.691 Y-469.693
X-198.525 Y-470.135
X-199.331 Y-470.634
X-200.104 Y-471.187
X-200.841 Y-471.791
X-201.538 Y-472.445
X-202.192 Y-473.146
X-202.799 Y-473.89
X-203.357 Y-474.674
X-203.863 Y-475.496
X-204.314 Y-476.351
X-204.708 Y-477.235
X-205.043 Y-478.144
X-205.318 Y-479.076
X-205.53 Y-480.024
X-205.679 Y-480.986
X-205.764 Y-481.956
X-205.784 Y-482.931
X-205.74 Y-483.906
X-205.631 Y-484.876
X-205.458 Y-485.838
X-205.221 Y-486.787
X-204.922 Y-487.719
X-204.562 Y-488.629
X-204.141 Y-489.513
X-203.663 Y-490.368
X-203.129 Y-491.19
X-202.541 Y-491.975
X-201.903 Y-492.719
X-201.216 Y-493.42
X-200.484 Y-494.073
X-199.711 Y-494.677
X-198.898 Y-495.229
X-198.051 Y-495.725
X-197.173 Y-496.164
X-196.267 Y-496.544
X-195.338 Y-496.863
X-194.39 Y-497.12
X-193.427 Y-497.313
X-192.453 Y-497.442
X-191.472 Y-497.506
X-190.49 Y-497.505
X-189.509 Y-497.439
X-188.535 Y-497.308
X-187.572 Y-497.112
X-186.624 Y-496.854
X-185.695 Y-496.532
X-184.775 Y-496.144
X-183.868 Y-495.689
X-182.971 Y-495.161
X-182.09 Y-494.56
X-181.236 Y-493.891
X-180.416 Y-493.155
X-179.636 Y-492.357
X-178.905 Y-491.5
X-178.228 Y-490.592
X-177.612 Y-489.64
X-177.062 Y-488.652
X-176.581 Y-487.635
X-176.172 Y-486.597
X-175.836 Y-485.543
X-175.573 Y-484.478
X-175.382 Y-483.406
X-175.264 Y-482.332
X-175.217 Y-481.26
X-175.242 Y-480.192
X-175.337 Y-479.133
X-175.501 Y-478.085
X-175.735 Y-477.053
X-176.035 Y-476.04
X-176.402 Y-475.049
X-176.835 Y-474.085
X-177.33 Y-473.15
X-177.888 Y-472.248
X-178.505 Y-471.384
X-179.181 Y-470.561
X-179.911 Y-469.781
X-180.695 Y-469.049
X-181.528 Y-468.369
X-182.408 Y-467.742
X-183.331 Y-467.173
X-184.295 Y-466.665
X-185.294 Y-466.219
X-186.325 Y-465.839
X-187.385 Y-465.527
X-188.468 Y-465.284
X-189.569 Y-465.113
X-190.685 Y-465.015
X-191.81 Y-464.991
X-192.939 Y-465.042
X-194.067 Y-465.168
X-195.19 Y-465.37
X-196.301 Y-465.647
X-197.395 Y-465.998
X-198.468 Y-466.423
X-199.514 Y-466.919
X-200.528 Y-467.486
X-201.505 Y-468.121
X-202.44 Y-468.821
X-203.33 Y-469.583
X-204.168 Y-470.405
X-204.953 Y-471.282
X-205.678 Y-472.212
X-206.342 Y-473.189
X-206.94 Y-474.21
X-207.471 Y-475.27
X-207.93 Y-476.365
X-208.317 Y-477.489
X-208.628 Y-478.637
X-208.863 Y-479.805
X-209.02 Y-480.988
X-209.098 Y-482.179
X-209.097 Y-483.374
X-209.017 Y-484.567
X-208.858 Y-485.753
X-208.62 Y-486.926
X-208.305 Y-488.082
X-207.913 Y-489.215
X-207.448 Y-490.319
X-206.909 Y-491.392
X-206.301 Y-492.426
X-205.625 Y-493.418
X-204.885 Y-494.363
X-204.083 Y-495.258
X-203.223 Y-496.097
X-202.31 Y-496.878
X-201.346 Y-497.597
X-200.337 Y-498.25
X-199.286 Y-498.835
X-198.199 Y-499.35
X-197.08 Y-499.791
X-195.934 Y-500.157
X-194.767 Y-500.446
X-193.582 Y-500.657
X-192.386 Y-500.789
X-191.184 Y-500.841
X-189.981 Y-500.814
X-188.782 Y-500.707
X-187.59 Y-500.52
X-186.406 Y-500.253
X-185.233 Y-499.905
X-184.072 Y-499.475
X-182.928 Y-498.963
X-181.808 Y-498.369
X-180.716 Y-497.694
X-179.664 Y-496.943
X-178.665 Y-496.124
X-177.72 Y-495.242
X-176.835 Y-494.301
X-176.012 Y-493.305
X-175.255 Y-492.259
X-174.566 Y-491.166
X-173.948 Y-490.031
X-173.405 Y-488.858
X-172.938 Y-487.654
X-172.55 Y-486.421
X-172.244 Y-485.166
X-172.02 Y-483.893
X-171.88 Y-482.609
X-171.824 Y-481.318
X-171.855 Y-480.026
X-171.97 Y-478.741
X-172.17 Y-477.468
X-172.454 Y-476.213
X-172.821 Y-474.98
X-173.268 Y-473.774
X-173.795 Y-472.599
X-174.398 Y-471.462
X-175.077 Y-470.365
X-175.828 Y-469.314
X-176.648 Y-468.315
X-177.531 Y-467.373
X-178.476 Y-466.491
X-179.476 Y-465.673
X-180.527 Y-464.922
X-181.626 Y-464.242
X-182.766 Y-463.635
X-183.944 Y-463.103
X-185.154 Y-462.65
X-186.39 Y-462.275
X-187.649 Y-461.981
X-188.923 Y-461.768
X-190.208 Y-461.637
X-191.5 Y-461.589
X-192.791 Y-461.622
X-194.078 Y-461.736
X-195.355 Y-461.931
X-196.618 Y-462.206
X-197.861 Y-462.559
X-199.079 Y-462.988
X-200.269 Y-463.492
X-201.426 Y-464.069
X-202.544 Y-464.715
X-203.621 Y-465.429
X-204.651 Y-466.209
X-205.631 Y-467.051
X-206.558 Y-467.952
X-207.427 Y-468.908
X-208.236 Y-469.915
X-208.982 Y-470.97
X-209.663 Y-472.068
X-210.276 Y-473.205
X-210.82 Y-474.377
X-211.292 Y-475.58
X-211.691 Y-476.809
X-212.014 Y-478.06
X-212.261 Y-479.328
X-212.43 Y-480.609
X-212.52 Y-481.898
X-212.533 Y-483.19
X-212.467 Y-484.48
X-212.325 Y-485.765
X-212.106 Y-487.038
X-211.811 Y-488.296
X-211.442 Y-489.534
X-210.999 Y-490.748
X-210.484 Y-491.933
X-209.898 Y-493.084
X-209.243 Y-494.198
X-208.522 Y-495.27
X-207.738 Y-496.297
X-206.894 Y-497.275
X-205.993 Y-498.202
X-205.038 Y-499.073
X-204.034 Y-499.885
X-202.983 Y-500.637
X-201.888 Y-501.324
X-200.755 Y-501.943
X-199.585 Y-502.493
X-198.385 Y-502.971
X-197.158 Y-503.376
X-195.909 Y-503.707
X-194.643 Y-503.963
X-193.363 Y-504.143
X-192.075 Y-504.247
X-190.784 Y-504.275
X-189.493 Y-504.225
X-188.207 Y-504.097
X-186.931 Y-503.893
X-185.67 Y-503.612
X-184.427 Y-503.258
X-183.207 Y-502.832
X-182.014 Y-502.337
X-180.851 Y-501.775
X-179.721 Y-501.147
X-178.63 Y-500.455
X-177.58 Y-499.702
X-176.574 Y-498.891
X-175.615 Y-498.026
X-174.704 Y-497.109
X-173.845 Y-496.144
X-173.04 Y-495.134
X-172.293 Y-494.079
X-171.606 Y-492.985
X-170.98 Y-491.855
X-170.417 Y-490.692
X-169.918 Y-489.5
X-169.485 Y-488.283
X-169.12 Y-487.043
X-168.826 Y-485.785
X-168.604 Y-484.512
X-168.452 Y-483.229
X-168.371 Y-481.94
X-168.362 Y-480.648
X-168.425 Y-479.357
X-168.562 Y-478.072
X-168.772 Y-476.797
X-169.053 Y-475.536
X-169.405 Y-474.293
X-169.826 Y-473.072
X-170.314 Y-471.875
X-170.868 Y-470.708
X-171.489 Y-469.575
X-172.173 Y-468.479
X-172.918 Y-467.423
X-173.721 Y-466.411
X-174.579 Y-465.445
X-175.488 Y-464.527
X-176.448 Y-463.662
X-177.456 Y-462.854
X-178.508 Y-462.103
X-179.599 Y-461.412
X-180.728 Y-460.782
X-181.888 Y-460.215
X-183.078 Y-459.712
X-184.295 Y-459.276
X-185.534 Y-458.91
X-186.791 Y-458.612
X-188.063 Y-458.383
X-189.345 Y-458.223
X-190.634 Y-458.132
X-191.926 Y-458.11
X-193.217 Y-458.16
X-194.503 Y-458.28
X-195.781 Y-458.47
X-197.047 Y-458.727
X-198.298 Y-459.051
X-199.53 Y-459.44
X-200.74 Y-459.894
X-201.924 Y-460.412
X-203.077 Y-460.994
X-204.199 Y-461.636
X-205.284 Y-462.336
X-206.332 Y-463.093
X-207.338 Y-463.903
X-208.301 Y-464.764
X-209.216 Y-465.676
X-210.082 Y-466.636
X-210.895 Y-467.64
X-211.655 Y-468.685
X-212.36 Y-469.767
X-213.009 Y-470.885
X-213.599 Y-472.034
X-214.128 Y-473.213
X-214.594 Y-474.418
X-214.995 Y-475.646
X-215.333 Y-476.893
X-215.605 Y-478.156
X-215.812 Y-479.432
X-215.953 Y-480.716
X-216.027 Y-482.006
X-216.032 Y-483.298
X-215.97 Y-484.589
X-215.842 Y-485.874
X-215.648 Y-487.152
X-215.389 Y-488.418
X-215.067 Y-489.669
X-214.679 Y-490.901
X-214.226 Y-492.112
X-213.711 Y-493.296
X-213.136 Y-494.453
X-212.501 Y-495.579
X-211.81 Y-496.67
X-211.064 Y-497.726
X-210.265 Y-498.741
X-209.414 Y-499.713
X-208.513 Y-500.639
X-207.566 Y-501.518
X-206.575 Y-502.347
X-205.543 Y-503.124
X-204.473 Y-503.848
X-203.367 Y-504.516
X-202.227 Y-505.124
X-201.057 Y-505.672
X-199.86 Y-506.159
X-198.639 Y-506.583
X-197.399 Y-506.945
X-196.142 Y-507.244
X-194.871 Y-507.478
X-193.59 Y-507.646
X-192.302 Y-507.746
X-191.01 Y-507.78
X-189.719 Y-507.747
X-188.43 Y-507.649
X-187.149 Y-507.486
X-185.877 Y-507.258
X-184.619 Y-506.965
X-183.377 Y-506.608
X-182.154 Y-506.189
X-180.955 Y-505.71
X-179.78 Y-505.172
X-178.633 Y-504.576
X-177.517 Y-503.925
X-176.434 Y-503.22
X-175.388 Y-502.463
X-174.38 Y-501.654
X-173.412 Y-500.798
X-172.487 Y-499.897
X-171.606 Y-498.952
X-170.77 Y-497.966
X-169.983 Y-496.941
X-169.247 Y-495.88
X-168.563 Y-494.783
X-167.932 Y-493.656
X-167.357 Y-492.499
X-166.837 Y-491.316
X-166.375 Y-490.109
X-165.97 Y-488.882
X-165.625 Y-487.637
X-165.43 Y-486.772
X-165.386 Y-486.533
X-165.359 Y-486.291
X-165.35 Y-486.048
Y-479.269
X-165.415 Y-477.979
X-165.51 Y-476.69
X-165.691 Y-475.411
X-165.95 Y-474.145
X-166.284 Y-472.897
X-166.689 Y-471.67
X-167.161 Y-470.467
X-167.698 Y-469.292
X-168.295 Y-468.146
X-168.951 Y-467.033
X-169.661 Y-465.953
X-170.423 Y-464.91
X-171.236 Y-463.906
X-172.099 Y-462.944
X-173.009 Y-462.027
X-173.963 Y-461.156
X-174.959 Y-460.332
X-175.993 Y-459.558
X-177.063 Y-458.833
X-178.166 Y-458.161
X-179.3 Y-457.542
X-180.464 Y-456.981
X-181.654 Y-456.477
X-182.866 Y-456.03
X-184.099 Y-455.643
X-185.348 Y-455.313
X-186.611 Y-455.043
X-187.886 Y-454.832
X-189.17 Y-454.683
X-190.459 Y-454.595
X-191.75 Y-454.57
X-193.042 Y-454.605
X-194.331 Y-454.701
X-195.613 Y-454.856
X-196.887 Y-455.071
X-198.15 Y-455.343
X-199.399 Y-455.676
X-200.63 Y-456.067
X-201.842 Y-456.515
X-203.032 Y-457.019
X-204.197 Y-457.578
X-205.335 Y-458.19
X-206.444 Y-458.853
X-207.522 Y-459.566
X-208.564 Y-460.328
X-209.57 Y-461.139
X-210.538 Y-461.996
X-211.464 Y-462.896
X-212.349 Y-463.838
X-213.19 Y-464.819
X-213.986 Y-465.836
X-214.735 Y-466.889
X-215.435 Y-467.975
X-216.083 Y-469.093
X-216.278 Y-469.467
X-216.439 Y-469.828
X-216.556 Y-470.206
X-216.626 Y-470.595
X-216.65 Y-470.99
Y-491.079
X-216.594 Y-492.191
X-216.507 Y-492.938
X-216.353 Y-493.769
X-216.128 Y-494.655
X-215.806 Y-495.64
X-215.378 Y-496.707
X-214.835 Y-497.837
X-214.199 Y-498.961
X-213.493 Y-500.044
X-212.725 Y-501.082
X-211.899 Y-502.076
X-211.022 Y-503.025
X-210.098 Y-503.928
X-209.13 Y-504.784
X-208.122 Y-505.593
X-207.077 Y-506.352
X-205.998 Y-507.062
X-204.886 Y-507.721
X-203.745 Y-508.327
X-203.731 Y-508.334
X-203.278 Y-508.508
X-202.805 Y-508.614
X-202.321 Y-508.65
X-182.976
X-181.904 Y-508.596
X-181.116 Y-508.504
X-180.217 Y-508.338
X-179.229 Y-508.087
X-178.181 Y-507.745
X-177.041 Y-507.287
X-175.877 Y-506.727
X-174.75 Y-506.095
X-173.662 Y-505.398
X-172.613 Y-504.643
X-171.604 Y-503.836
X-170.636 Y-502.981
X-169.708 Y-502.082
X-168.824 Y-501.14
X-167.983 Y-500.158
X-167.188 Y-499.14
X-166.44 Y-498.087
X-165.88 Y-497.222
X-165.652 Y-496.807
X-165.485 Y-496.364
X-165.384 Y-495.901
X-165.35 Y-495.429
Y-486.048
G3 X-167.627 Y-485.32 I-1.269 J-0.044
G1 X-183.94 Y-506.608
G3 X-182.976 Y-508.65 I1.008 J-0.772
G1 X-176.5
X-175.676 Y-508.609
X-175.11 Y-508.543
X-174.508 Y-508.431
X-173.808 Y-508.253
X-173.07 Y-508.012
X-172.242 Y-507.68
X-171.328 Y-507.24
X-170.347 Y-506.686
X-169.313 Y-506.007
X-168.283 Y-505.228
X-167.302 Y-504.386
X-166.372 Y-503.49
X-166.241 Y-503.35
X-165.93 Y-502.964
X-165.681 Y-502.535
X-165.498 Y-502.073
X-165.387 Y-501.59
X-165.35 Y-501.095
Y-495.429
G3 X-167.598 Y-494.664 I-1.269 J-0.044
G1 X-177.434 Y-506.572
G3 X-176.5 Y-508.65 I0.979 J-0.809
G1 X-171.166
X-170.553 Y-508.619
X-170.093 Y-508.566
X-169.564 Y-508.468
X-168.992 Y-508.322
X-168.349 Y-508.112
X-167.693 Y-507.849
X-167.087 Y-507.558
X-167.026 Y-507.523
X-166.612 Y-507.246
X-166.245 Y-506.91
X-165.933 Y-506.523
X-165.682 Y-506.094
X-165.499 Y-505.631
X-165.387 Y-505.146
X-165.35 Y-504.65
G3 X-167.27 Y-503.604 I-1.269 J-0.044
G1 X-171.772 Y-506.29
G3 X-171.166 Y-508.65 I0.651 J-1.091
G1 X-167.147
X-166.952 Y-508.64
X-166.63 Y-508.573
X-166.326 Y-508.448
X-166.049 Y-508.27
X-165.809 Y-508.045
X-165.613 Y-507.78
X-165.469 Y-507.484
X-165.38 Y-507.167
X-165.35 Y-506.84
G3 X-167.536 Y-505.221 I-1.737 J-0.061
X-167.147 Y-508.65 I0.45 J-1.686
G1 X-166.594 Y-508.649
X-166.445 Y-508.636
X-166.296 Y-508.604
X-166.213 Y-508.578
X-166.023 Y-508.493
X-165.832 Y-508.366
X-165.679 Y-508.223
X-165.606 Y-508.134
X-165.544 Y-508.045
X-165.451 Y-507.867
X-165.441 Y-507.842
X-165.382 Y-507.651
X-165.353 Y-507.461
X-165.35 Y-507.08
Y-501.095
G3 X-166.364 Y-499.896 I-1.269 J-0.044
G1 X-215.125 Y-489.879
G3 X-216.65 Y-491.079 I-0.256 J-1.244
G1 Y-497.556
X-216.621 Y-498.131
X-216.558 Y-498.675
X-216.452 Y-499.246
X-216.283 Y-499.911
X-216.058 Y-500.601
X-215.743 Y-501.383
X-215.334 Y-502.235
X-214.832 Y-503.124
X-214.201 Y-504.084
X-213.432 Y-505.102
X-212.586 Y-506.078
X-211.682 Y-507.002
X-210.729 Y-507.873
X-210.698 Y-507.899
X-210.328 Y-508.162
X-209.926 Y-508.373
X-209.499 Y-508.526
X-209.054 Y-508.619
X-208.602 Y-508.65
X-202.321
G3 X-201.603 Y-506.366 I-0.044 J1.269
G1 X-214.618 Y-496.585
G3 X-216.65 Y-497.556 I-0.763 J-1.015
G1 Y-502.508
X-216.621 Y-503.082
X-216.57 Y-503.519
X-216.474 Y-504.04
X-216.338 Y-504.574
X-216.135 Y-505.197
X-215.878 Y-505.836
X-215.53 Y-506.559
X-215.172 Y-507.192
X-214.896 Y-507.555
X-214.57 Y-507.875
X-214.203 Y-508.147
X-213.801 Y-508.364
X-213.373 Y-508.522
X-212.926 Y-508.618
X-212.471 Y-508.65
G3 X-211.423 Y-506.733 I-0.044 J1.269
G1 X-214.289 Y-501.904
G3 X-216.65 Y-502.508 I-1.092 J-0.648
G1 Y-506.699
X-216.64 Y-506.89
X-216.566 Y-507.244
X-216.429 Y-507.579
X-216.234 Y-507.883
X-215.987 Y-508.146
X-215.696 Y-508.361
X-215.371 Y-508.52
X-215.023 Y-508.617
X-214.663 Y-508.65
G3 X-212.909 Y-506.252 I-0.066 J1.889
X-216.65 Y-506.699 I-1.836 J-0.514
G1 Y-507.08
X-216.647 Y-507.461
X-216.618 Y-507.651
X-216.559 Y-507.842
X-216.502 Y-507.964
X-216.424 Y-508.093
X-216.321 Y-508.223
X-216.221 Y-508.321
X-216.121 Y-508.401
X-215.931 Y-508.516
X-215.74 Y-508.592
X-215.702 Y-508.604
X-215.531 Y-508.639
X-215.359 Y-508.65
X-208.602
G3 X-207.939 Y-508.436 I-0.044 J1.269
G1 X-207.873 Y-508.391
X-165.912 Y-480.28
G3 X-165.35 Y-479.269 I-0.707 J1.055
G1 Y-470.507
X-165.4 Y-469.515
X-165.475 Y-468.873
X-165.606 Y-468.161
X-165.813 Y-467.351
X-166.091 Y-466.498
X-166.469 Y-465.557
X-166.96 Y-464.535
X-167.574 Y-463.449
X-168.283 Y-462.369
X-169.059 Y-461.335
X-169.892 Y-460.348
X-170.778 Y-459.408
X-171.712 Y-458.515
X-172.689 Y-457.669
X-173.705 Y-456.871
X-174.757 Y-456.121
X-175.842 Y-455.419
X-176.957 Y-454.767
X-178.1 Y-454.164
X-179.268 Y-453.611
X-180.459 Y-453.11
X-181.67 Y-452.661
X-182.9 Y-452.265
X-184.146 Y-451.921
X-185.404 Y-451.631
X-186.675 Y-451.393
X-187.954 Y-451.21
X-189.239 Y-451.08
X-190.529 Y-451.003
X-191.821 Y-450.982
X-193.112 Y-451.014
X-194.402 Y-451.101
X-195.686 Y-451.241
X-196.964 Y-451.433
X-198.232 Y-451.679
X-199.489 Y-451.977
X-200.733 Y-452.325
X-201.962 Y-452.725
X-203.173 Y-453.176
X-204.364 Y-453.676
X-205.534 Y-454.225
X-206.68 Y-454.822
X-207.8 Y-455.465
X-208.894 Y-456.153
X-209.958 Y-456.886
X-210.992 Y-457.661
X-211.993 Y-458.477
X-212.96 Y-459.335
X-213.891 Y-460.231
X-214.784 Y-461.164
X-215.639 Y-462.133
X-215.911 Y-462.468
X-216.17 Y-462.836
X-216.377 Y-463.236
X-216.528 Y-463.66
X-216.619 Y-464.1
X-216.65 Y-464.549
Y-470.99
G3 X-215.368 Y-472.215 I1.269 J0.044
G1 X-166.607 Y-471.732
G3 X-165.35 Y-470.507 I-0.013 J1.27
G1 Y-464.411
X-165.371 Y-464
X-165.431 Y-463.484
X-165.531 Y-462.942
X-165.691 Y-462.313
X-165.908 Y-461.649
X-166.204 Y-460.912
X-166.596 Y-460.097
X-167.075 Y-459.25
X-167.677 Y-458.332
X-168.417 Y-457.354
X-169.263 Y-456.377
X-170.168 Y-455.455
X-171.125 Y-454.587
X-172.126 Y-453.77
X-173.166 Y-453.004
X-174.241 Y-452.286
X-175.347 Y-451.618
X-176.481 Y-450.999
X-177.641 Y-450.43
X-178.823 Y-449.909
X-180.026 Y-449.436
X-181.246 Y-449.012
X-182.482 Y-448.636
X-183.732 Y-448.307
X-184.993 Y-448.027
X-186.264 Y-447.795
X-187.543 Y-447.612
X-188.828 Y-447.478
X-190.117 Y-447.393
X-191.409 Y-447.358
X-192.701 Y-447.371
X-193.992 Y-447.432
X-195.279 Y-447.541
X-196.562 Y-447.697
X-197.837 Y-447.901
X-199.105 Y-448.151
X-200.362 Y-448.449
X-201.607 Y-448.794
X-202.839 Y-449.185
X-204.055 Y-449.622
X-205.254 Y-450.103
X-206.435 Y-450.628
X-207.595 Y-451.196
X-208.734 Y-451.806
X-209.85 Y-452.457
X-210.942 Y-453.148
X-212.007 Y-453.879
X-213.044 Y-454.65
X-214.052 Y-455.458
X-215.03 Y-456.303
X-215.599 Y-456.833
X-215.907 Y-457.162
X-216.168 Y-457.53
X-216.376 Y-457.931
X-216.527 Y-458.356
X-216.619 Y-458.798
X-216.65 Y-459.248
Y-464.549
G3 X-215.377 Y-465.775 I1.269 J0.044
G1 X-166.616 Y-465.637
G3 X-165.35 Y-464.411 I-0.004 J1.27
G1 Y-459.84
X-165.382 Y-459.194
X-165.433 Y-458.757
X-165.527 Y-458.253
X-165.659 Y-457.732
X-165.856 Y-457.128
X-166.108 Y-456.502
X-166.444 Y-455.803
X-166.874 Y-455.043
X-167.392 Y-454.254
X-168.039 Y-453.397
X-168.828 Y-452.487
X-169.736 Y-451.568
X-170.702 Y-450.71
X-171.715 Y-449.908
X-172.769 Y-449.161
X-173.859 Y-448.466
X-174.979 Y-447.822
X-176.126 Y-447.228
X-177.297 Y-446.682
X-178.49 Y-446.184
X-179.7 Y-445.733
X-180.927 Y-445.328
X-182.168 Y-444.968
X-183.421 Y-444.653
X-184.685 Y-444.383
X-185.957 Y-444.158
X-187.236 Y-443.978
X-188.521 Y-443.842
X-189.81 Y-443.752
X-191.101 Y-443.707
X-192.393 Y-443.706
X-193.685 Y-443.75
X-194.974 Y-443.837
X-196.259 Y-443.967
X-197.54 Y-444.14
X-198.814 Y-444.357
X-200.079 Y-444.616
X-201.336 Y-444.917
X-202.581 Y-445.261
X-203.814 Y-445.647
X-205.034 Y-446.075
X-206.238 Y-446.543
X-207.426 Y-447.051
X-208.596 Y-447.598
X-209.748 Y-448.183
X-210.88 Y-448.807
X-211.99 Y-449.467
X-213.078 Y-450.164
X-214.142 Y-450.897
X-215.178 Y-451.669
X-215.471 Y-451.915
X-215.815 Y-452.249
X-216.107 Y-452.629
X-216.341 Y-453.048
X-216.511 Y-453.497
X-216.615 Y-453.965
X-216.65 Y-454.443
Y-459.248
G3 X-215.396 Y-460.473 I1.269 J0.044
G1 X-166.635 Y-461.065
G3 X-165.35 Y-459.84 I0.015 J1.27
G1 Y-455.268
X-165.373 Y-454.813
X-165.423 Y-454.383
X-165.504 Y-453.946
X-165.635 Y-453.43
X-165.809 Y-452.898
X-166.052 Y-452.292
X-166.353 Y-451.667
X-166.751 Y-450.962
X-167.228 Y-450.235
X-167.818 Y-449.455
X-168.541 Y-448.62
X-169.409 Y-447.743
X-170.376 Y-446.887
X-171.395 Y-446.093
X-172.457 Y-445.357
X-173.555 Y-444.675
X-174.684 Y-444.047
X-175.839 Y-443.469
X-177.018 Y-442.94
X-178.217 Y-442.458
X-179.433 Y-442.022
X-180.665 Y-441.63
X-181.909 Y-441.283
X-183.165 Y-440.978
X-184.43 Y-440.716
X-185.703 Y-440.496
X-186.983 Y-440.319
X-188.268 Y-440.182
X-189.556 Y-440.088
X-190.847 Y-440.035
X-192.139 Y-440.023
X-193.431 Y-440.052
X-194.721 Y-440.122
X-196.008 Y-440.232
X-197.292 Y-440.381
X-198.57 Y-440.57
X-199.842 Y-440.798
X-201.106 Y-441.066
X-202.361 Y-441.371
X-203.607 Y-441.716
X-204.841 Y-442.098
X-206.062 Y-442.519
X-207.27 Y-442.977
X-208.464 Y-443.472
X-209.642 Y-444.003
X-210.803 Y-444.57
X-211.946 Y-445.171
X-213.071 Y-445.808
X-214.175 Y-446.479
X-215.143 Y-447.133
X-215.374 Y-447.313
X-215.745 Y-447.649
X-216.061 Y-448.037
X-216.314 Y-448.468
X-216.499 Y-448.933
X-216.612 Y-449.42
X-216.65 Y-449.919
Y-454.443
G3 X-215.402 Y-455.669 I1.269 J0.044
G1 X-166.641 Y-456.494
G3 X-165.35 Y-455.268 I0.021 J1.27
G1 Y-451.077
X-165.373 Y-450.615
X-165.418 Y-450.228
X-165.498 Y-449.795
X-165.622 Y-449.309
X-165.787 Y-448.803
X-166.019 Y-448.225
X-166.304 Y-447.634
X-166.675 Y-446.977
X-167.136 Y-446.275
X-167.685 Y-445.548
X-168.365 Y-444.764
X-169.183 Y-443.936
X-170.151 Y-443.08
X-171.173 Y-442.29
X-172.24 Y-441.561
X-173.344 Y-440.889
X-174.479 Y-440.272
X-175.64 Y-439.706
X-176.824 Y-439.189
X-178.028 Y-438.719
X-179.248 Y-438.295
X-180.483 Y-437.915
X-181.73 Y-437.577
X-182.988 Y-437.281
X-184.255 Y-437.026
X-185.529 Y-436.811
X-186.809 Y-436.636
X-188.094 Y-436.5
X-189.382 Y-436.403
X-190.673 Y-436.344
X-191.965 Y-436.324
X-193.257 Y-436.343
X-194.548 Y-436.399
X-195.836 Y-436.493
X-197.122 Y-436.624
X-198.403 Y-436.791
X-199.679 Y-436.995
X-200.948 Y-437.235
X-202.21 Y-437.511
X-203.464 Y-437.823
X-204.709 Y-438.17
X-205.943 Y-438.551
X-207.166 Y-438.968
X-208.377 Y-439.42
X-209.574 Y-439.905
X-210.757 Y-440.424
X-211.925 Y-440.977
X-213.076 Y-441.565
X-214.205 Y-442.193
X-215.082 Y-442.751
X-215.302 Y-442.913
X-215.64 Y-443.197
X-215.937 Y-443.524
X-216.187 Y-443.888
X-216.387 Y-444.282
X-216.532 Y-444.7
X-216.62 Y-445.133
X-216.65 Y-445.573
Y-449.919
G3 X-215.411 Y-451.144 I1.269 J0.044
G1 X-166.649 Y-452.303
G3 X-165.35 Y-451.077 I0.03 J1.27
G1 Y-446.887
X-165.366 Y-446.569
X-165.409 Y-446.203
X-165.489 Y-445.77
X-165.603 Y-445.319
X-165.769 Y-444.813
X-165.987 Y-444.268
X-166.268 Y-443.684
X-166.621 Y-443.061
X-167.07 Y-442.377
X-167.594 Y-441.683
X-168.245 Y-440.932
X-169.031 Y-440.137
X-169.965 Y-439.311
X-170.987 Y-438.521
X-172.056 Y-437.795
X-173.163 Y-437.128
X-174.301 Y-436.517
X-175.466 Y-435.959
X-176.654 Y-435.45
X-177.861 Y-434.989
X-179.084 Y-434.573
X-180.321 Y-434.2
X-181.57 Y-433.869
X-182.829 Y-433.578
X-184.096 Y-433.327
X-185.371 Y-433.115
X-186.651 Y-432.94
X-187.936 Y-432.803
X-189.224 Y-432.703
X-190.515 Y-432.639
X-191.806 Y-432.612
X-193.098 Y-432.621
X-194.39 Y-432.665
X-195.679 Y-432.745
X-196.966 Y-432.859
X-198.25 Y-433.008
X-199.529 Y-433.191
X-200.802 Y-433.408
X-202.07 Y-433.658
X-203.331 Y-433.942
X-204.583 Y-434.258
X-205.827 Y-434.607
X-207.062 Y-434.989
X-208.286 Y-435.403
X-209.498 Y-435.849
X-210.699 Y-436.327
X-211.885 Y-436.839
X-213.054 Y-437.389
X-214.19 Y-437.982
X-215.023 Y-438.491
X-215.252 Y-438.652
X-215.601 Y-438.936
X-215.909 Y-439.265
X-216.169 Y-439.633
X-216.376 Y-440.033
X-216.527 Y-440.458
X-216.619 Y-440.899
X-216.65 Y-441.349
Y-445.573
G3 X-215.415 Y-446.798 I1.269 J0.044
G1 X-166.653 Y-448.112
G3 X-165.35 Y-446.887 I0.034 J1.27
G1 Y-443.077
X-165.374 Y-442.604
X-165.416 Y-442.243
X-165.495 Y-441.816
X-165.605 Y-441.384
X-165.77 Y-440.879
X-165.976 Y-440.364
X-166.257 Y-439.78
X-166.594 Y-439.185
X-167.032 Y-438.518
X-167.542 Y-437.842
X-168.171 Y-437.117
X-168.933 Y-436.346
X-169.839 Y-435.544
X-170.862 Y-434.754
X-171.932 Y-434.03
X-173.041 Y-433.367
X-174.182 Y-432.761
X-175.35 Y-432.209
X-176.54 Y-431.706
X-177.75 Y-431.251
X-178.975 Y-430.841
X-180.214 Y-430.474
X-181.464 Y-430.148
X-182.724 Y-429.862
X-183.992 Y-429.614
X-185.267 Y-429.404
X-186.547 Y-429.23
X-187.832 Y-429.092
X-189.12 Y-428.99
X-190.41 Y-428.922
X-191.702 Y-428.889
X-192.994
X-194.285 Y-428.924
X-195.576 Y-428.992
X-196.864 Y-429.092
X-198.149 Y-429.226
X-199.43 Y-429.391
X-200.707 Y-429.589
X-201.979 Y-429.818
X-203.244 Y-430.078
X-204.503 Y-430.369
X-205.754 Y-430.691
X-206.998 Y-431.043
X-208.232 Y-431.426
X-209.456 Y-431.839
X-210.669 Y-432.284
X-211.868 Y-432.765
X-213.05 Y-433.287
X-214.132 Y-433.828
X-214.944 Y-434.303
X-215.203 Y-434.479
X-215.564 Y-434.763
X-215.882 Y-435.093
X-216.151 Y-435.465
X-216.366 Y-435.871
X-216.523 Y-436.302
X-216.618 Y-436.752
X-216.65 Y-437.209
Y-441.349
G3 X-215.426 Y-442.574 I1.269 J0.044
G1 X-166.664 Y-444.302
G3 X-165.35 Y-443.077 I0.045 J1.269
G1 Y-439.267
X-165.378 Y-438.71
X-165.42 Y-438.348
X-165.497 Y-437.933
X-165.606 Y-437.506
X-165.769 Y-437.006
X-165.97 Y-436.505
X-166.249 Y-435.925
X-166.576 Y-435.347
X-167.004 Y-434.695
X-167.508 Y-434.028
X-168.121 Y-433.32
X-168.866 Y-432.567
X-169.754 Y-431.782
X-170.776 Y-430.991
X-171.847 Y-430.269
X-172.958 Y-429.609
X-174.101 Y-429.007
X-175.271 Y-428.458
X-176.463 Y-427.961
X-177.674 Y-427.51
X-178.901 Y-427.105
X-180.141 Y-426.742
X-181.393 Y-426.42
X-182.653 Y-426.137
X-183.922 Y-425.891
X-185.197 Y-425.682
X-186.477 Y-425.509
X-187.762 Y-425.37
X-189.05 Y-425.265
X-190.34 Y-425.194
X-191.631 Y-425.155
X-192.923 Y-425.149
X-194.215 Y-425.174
X-195.506 Y-425.232
X-196.795 Y-425.321
X-198.081 Y-425.441
X-199.364 Y-425.592
X-200.644 Y-425.772
X-201.919 Y-425.983
X-203.188 Y-426.223
X-204.452 Y-426.492
X-205.709 Y-426.791
X-206.959 Y-427.118
X-208.201 Y-427.475
X-209.433 Y-427.862
X-210.656 Y-428.281
X-211.864 Y-428.737
X-213.055 Y-429.238
X-214.095 Y-429.741
X-214.888 Y-430.192
X-215.168 Y-430.377
X-215.537 Y-430.66
X-215.863 Y-430.992
X-216.139 Y-431.366
X-216.359 Y-431.776
X-216.52 Y-432.212
X-216.617 Y-432.667
X-216.65 Y-433.131
Y-437.209
G3 X-215.434 Y-438.434 I1.269 J0.044
G1 X-166.673 Y-440.492
G3 X-165.35 Y-439.267 I0.054 J1.269
G1 Y-435.248
X-165.369 Y-434.872
X-165.411 Y-434.51
X-165.486 Y-434.103
X-165.595 Y-433.677
X-165.756 Y-433.184
X-165.955 Y-432.688
X-166.231 Y-432.113
X-166.554 Y-431.542
X-166.976 Y-430.9
X-167.476 Y-430.239
X-168.078 Y-429.543
X-168.813 Y-428.801
X-169.688 Y-428.026
X-170.71 Y-427.236
X-171.782 Y-426.515
X-172.894 Y-425.857
X-174.039 Y-425.257
X-175.21 Y-424.712
X-176.404 Y-424.217
X-177.616 Y-423.77
X-178.844 Y-423.368
X-180.085 Y-423.008
X-181.336 Y-422.688
X-182.598 Y-422.407
X-183.866 Y-422.163
X-185.141 Y-421.954
X-186.422 Y-421.78
X-187.706 Y-421.64
X-188.994 Y-421.532
X-190.283 Y-421.457
X-191.575 Y-421.413
X-192.867 Y-421.4
X-194.159 Y-421.418
X-195.45 Y-421.466
X-196.74 Y-421.544
X-198.027 Y-421.652
X-199.312 Y-421.789
X-200.593 Y-421.955
X-201.871 Y-422.149
X-203.143 Y-422.372
X-204.411 Y-422.622
X-205.673 Y-422.9
X-206.928 Y-423.206
X-208.176 Y-423.542
X-209.415 Y-423.907
X-210.644 Y-424.305
X-211.86 Y-424.742
X-213.058 Y-425.228
X-214.063 Y-425.701
X-214.842 Y-426.134
X-215.139 Y-426.326
X-215.515 Y-426.608
X-215.847 Y-426.941
X-216.128 Y-427.317
X-216.353 Y-427.73
X-216.517 Y-428.171
X-216.617 Y-428.63
X-216.65 Y-429.099
Y-433.131
G3 X-215.436 Y-434.355 I1.269 J0.044
G1 X-166.674 Y-436.473
G3 X-165.35 Y-435.248 I0.055 J1.269
G1 Y-431.438
X-165.369 Y-431.051
X-165.412 Y-430.69
X-165.485 Y-430.29
X-165.594 Y-429.864
X-165.752 Y-429.379
X-165.951 Y-428.885
X-166.224 Y-428.317
X-166.544 Y-427.75
X-166.96 Y-427.117
X-167.457 Y-426.459
X-168.052 Y-425.773
X-168.777 Y-425.039
X-169.643 Y-424.273
X-170.664 Y-423.484
X-171.737 Y-422.763
X-172.849 Y-422.107
X-173.995 Y-421.509
X-175.167 Y-420.966
X-176.362 Y-420.474
X-177.575 Y-420.029
X-178.803 Y-419.629
X-180.045 Y-419.271
X-181.297 Y-418.952
X-182.558 Y-418.672
X-183.827 Y-418.428
X-185.102 Y-418.219
X-186.382 Y-418.044
X-187.667 Y-417.902
X-188.954 Y-417.791
X-190.244 Y-417.712
X-191.535 Y-417.663
X-192.827 Y-417.644
X-194.119 Y-417.655
X-195.41 Y-417.695
X-196.7 Y-417.763
X-197.989 Y-417.86
X-199.275 Y-417.984
X-200.558 Y-418.137
X-201.837 Y-418.316
X-203.113 Y-418.523
X-204.383 Y-418.757
X-205.649 Y-419.018
X-206.908 Y-419.306
X-208.161 Y-419.624
X-209.405 Y-419.972
X-210.639 Y-420.354
X-211.86 Y-420.776
X-213.063 Y-421.25
X-214.041 Y-421.701
X-214.808 Y-422.119
X-215.117 Y-422.315
X-215.498 Y-422.597
X-215.835 Y-422.93
X-216.12 Y-423.308
X-216.348 Y-423.723
X-216.515 Y-424.167
X-216.616 Y-424.63
X-216.65 Y-425.102
Y-429.099
G3 X-215.442 Y-430.323 I1.269 J0.044
G1 X-166.68 Y-432.663
G3 X-165.35 Y-431.438 I0.061 J1.269
G1 Y-427.629
X-165.369 Y-427.255
X-165.411 Y-426.893
X-165.484 Y-426.499
X-165.592 Y-426.073
X-165.749 Y-425.594
X-165.947 Y-425.1
X-166.218 Y-424.537
X-166.537 Y-423.972
X-166.949 Y-423.345
X-167.443 Y-422.691
X-168.032 Y-422.011
X-168.752 Y-421.283
X-169.612 Y-420.523
X-170.625 Y-419.739
X-171.698 Y-419.019
X-172.811 Y-418.363
X-173.957 Y-417.766
X-175.129 Y-417.224
X-176.325 Y-416.733
X-177.538 Y-416.289
X-178.767 Y-415.89
X-180.009 Y-415.533
X-181.261 Y-415.215
X-182.522 Y-414.935
X-183.791 Y-414.69
X-185.066 Y-414.48
X-186.346 Y-414.303
X-187.63 Y-414.158
X-188.917 Y-414.045
X-190.206 Y-413.961
X-191.497 Y-413.907
X-192.789 Y-413.882
X-194.081 Y-413.886
X-195.372 Y-413.917
X-196.663 Y-413.976
X-197.952 Y-414.063
X-199.239 Y-414.176
X-200.524 Y-414.316
X-201.805 Y-414.483
X-203.083 Y-414.676
X-204.356 Y-414.895
X-205.624 Y-415.141
X-206.887 Y-415.414
X-208.143 Y-415.717
X-209.392 Y-416.051
X-210.63 Y-416.419
X-211.855 Y-416.83
X-213.061 Y-417.294
X-214.021 Y-417.729
X-214.779 Y-418.136
X-215.099 Y-418.336
X-215.484 Y-418.617
X-215.824 Y-418.951
X-216.113 Y-419.33
X-216.344 Y-419.747
X-216.513 Y-420.193
X-216.616 Y-420.658
X-216.65 Y-421.134
Y-425.102
G3 X-215.447 Y-426.326 I1.269 J0.044
G1 X-166.685 Y-428.853
G3 X-165.35 Y-427.629 I0.066 J1.268
G1 Y-423.819
X-165.367 Y-423.475
X-165.41 Y-423.113
X-165.482 Y-422.723
X-165.59 Y-422.296
X-165.745 Y-421.822
X-165.943 Y-421.328
X-166.212 Y-420.77
X-166.531 Y-420.206
X-166.939 Y-419.583
X-167.434 Y-418.93
X-168.018 Y-418.254
X-168.734 Y-417.531
X-169.589 Y-416.775
X-170.598 Y-415.995
X-171.67 Y-415.274
X-172.783 Y-414.619
X-173.929 Y-414.022
X-175.103 Y-413.481
X-176.298 Y-412.991
X-177.512 Y-412.548
X-178.741 Y-412.149
X-179.982 Y-411.792
X-181.235 Y-411.474
X-182.496 Y-411.193
X-183.764 Y-410.947
X-185.039 Y-410.736
X-186.319 Y-410.557
X-187.602 Y-410.409
X-188.889 Y-410.292
X-190.178 Y-410.204
X-191.469 Y-410.145
X-192.76 Y-410.114
X-194.052 Y-410.111
X-195.344 Y-410.135
X-196.635 Y-410.186
X-197.925 Y-410.263
X-199.213 Y-410.366
X-200.499 Y-410.495
X-201.781 Y-410.65
X-203.061 Y-410.83
X-204.336 Y-411.037
X-205.607 Y-411.27
X-206.872 Y-411.531
X-208.131 Y-411.821
X-209.383 Y-412.144
X-210.624 Y-412.501
X-211.852 Y-412.903
X-213.061 Y-413.359
X-214.007 Y-413.782
X-214.757 Y-414.179
X-215.084 Y-414.381
X-215.473 Y-414.662
X-215.816 Y-414.996
X-216.108 Y-415.377
X-216.341 Y-415.795
X-216.512 Y-416.243
X-216.615 Y-416.711
X-216.65 Y-417.189
Y-421.134
G3 X-215.451 Y-422.358 I1.269 J0.044
G1 X-166.689 Y-425.043
G3 X-165.35 Y-423.819 I0.07 J1.268
G1 Y-420.219
X-165.376 Y-419.695
X-165.418 Y-419.334
X-165.49 Y-418.947
X-165.598 Y-418.521
X-165.752 Y-418.051
X-165.95 Y-417.557
X-166.216 Y-417.004
X-166.535 Y-416.44
X-166.941 Y-415.822
X-167.434 Y-415.169
X-168.016 Y-414.498
X-168.728 Y-413.778
X-169.579 Y-413.025
X-170.584 Y-412.248
X-171.657 Y-411.527
X-172.77 Y-410.872
X-173.916 Y-410.276
X-175.09 Y-409.735
X-176.285 Y-409.245
X-177.499 Y-408.802
X-178.728 Y-408.403
X-179.97 Y-408.046
X-181.222 Y-407.727
X-182.483 Y-407.446
X-183.751 Y-407.199
X-185.025 Y-406.986
X-186.305 Y-406.804
X-187.588 Y-406.654
X-188.874 Y-406.533
X-190.163 Y-406.441
X-191.454 Y-406.378
X-192.745 Y-406.342
X-194.037 Y-406.332
X-195.329 Y-406.349
X-196.62 Y-406.392
X-197.911 Y-406.46
X-199.199 Y-406.554
X-200.486 Y-406.673
X-201.77 Y-406.818
X-203.051 Y-406.988
X-204.328 Y-407.184
X-205.6 Y-407.407
X-206.868 Y-407.657
X-208.129 Y-407.937
X-209.383 Y-408.25
X-210.627 Y-408.599
X-211.857 Y-408.994
X-213.068 Y-409.444
X-214.001 Y-409.857
X-214.744 Y-410.247
X-215.074 Y-410.448
X-215.464 Y-410.729
X-215.81 Y-411.063
X-216.104 Y-411.444
X-216.339 Y-411.864
X-216.511 Y-412.313
X-216.615 Y-412.783
X-216.65 Y-413.262
Y-417.189
G3 X-215.46 Y-418.412 I1.269 J0.044
G1 X-166.698 Y-421.442
G3 X-165.35 Y-420.219 I0.079 J1.268
G1 Y-416.409
X-165.374 Y-415.939
X-165.416 Y-415.577
X-165.487 Y-415.191
X-165.596 Y-414.765
X-165.749 Y-414.296
X-165.947 Y-413.802
X-166.212 Y-413.251
X-166.531 Y-412.687
X-166.936 Y-412.07
X-167.429 Y-411.417
X-168.009 Y-410.748
X-168.72 Y-410.029
X-169.57 Y-409.277
X-170.574 Y-408.501
X-171.646 Y-407.781
X-172.76 Y-407.125
X-173.906 Y-406.529
X-175.08 Y-405.988
X-176.275 Y-405.498
X-177.489 Y-405.055
X-178.718 Y-404.656
X-179.959 Y-404.298
X-181.211 Y-403.979
X-182.472 Y-403.696
X-183.74 Y-403.447
X-185.014 Y-403.232
X-186.293 Y-403.048
X-187.575 Y-402.894
X-188.862 Y-402.77
X-190.15 Y-402.674
X-191.44 Y-402.606
X-192.732 Y-402.564
X-194.024 Y-402.549
X-195.316 Y-402.559
X-196.607 Y-402.595
X-197.898 Y-402.655
X-199.187 Y-402.741
X-200.474 Y-402.851
X-201.759 Y-402.987
X-203.041 Y-403.147
X-204.32 Y-403.334
X-205.594 Y-403.547
X-206.863 Y-403.789
X-208.127 Y-404.061
X-209.382 Y-404.365
X-210.628 Y-404.708
X-211.86 Y-405.096
X-213.073 Y-405.541
X-213.997 Y-405.946
X-214.734 Y-406.33
X-215.065 Y-406.532
X-215.458 Y-406.812
X-215.805 Y-407.146
X-216.101 Y-407.528
X-216.337 Y-407.948
X-216.51 Y-408.399
X-216.615 Y-408.87
X-216.65 Y-409.351
Y-413.262
G3 X-215.463 Y-414.485 I1.269 J0.044
G1 X-166.701 Y-417.632
G3 X-165.35 Y-416.409 I0.082 J1.267
G1 Y-412.6
X-165.371 Y-412.185
X-165.413 Y-411.823
X-165.484 Y-411.438
X-165.593 Y-411.012
X-165.745 Y-410.544
X-165.944 Y-410.05
X-166.208 Y-409.5
X-166.527 Y-408.936
X-166.932 Y-408.32
X-167.425 Y-407.667
X-168.004 Y-406.998
X-168.714 Y-406.281
X-169.564 Y-405.529
X-170.567 Y-404.753
X-171.64 Y-404.033
X-172.753 Y-403.377
X-173.9 Y-402.781
X-175.073 Y-402.24
X-176.268 Y-401.749
X-177.482 Y-401.306
X-178.71 Y-400.906
X-179.952 Y-400.547
X-181.203 Y-400.226
X-182.464 Y-399.942
X-183.731 Y-399.692
X-185.005 Y-399.474
X-186.283 Y-399.287
X-187.566 Y-399.131
X-188.851 Y-399.003
X-190.14 Y-398.902
X-191.43 Y-398.829
X-192.721 Y-398.783
X-194.013 Y-398.761
X-195.305 Y-398.766
X-196.597 Y-398.794
X-197.887 Y-398.848
X-199.177 Y-398.926
X-200.465 Y-399.029
X-201.751 Y-399.156
X-203.034 Y-399.309
X-204.314 Y-399.487
X-205.589 Y-399.693
X-206.86 Y-399.926
X-208.125 Y-400.191
X-209.382 Y-400.489
X-210.629 Y-400.825
X-211.863 Y-401.208
X-213.078 Y-401.649
X-213.993 Y-402.048
X-214.726 Y-402.428
X-215.058 Y-402.628
X-215.452 Y-402.908
X-215.801 Y-403.243
X-216.098 Y-403.625
X-216.336 Y-404.046
X-216.509 Y-404.498
X-216.615 Y-404.97
X-216.65 Y-405.452
Y-409.351
G3 X-215.465 Y-410.574 I1.269 J0.044
G1 X-166.704 Y-413.822
G3 X-165.35 Y-412.6 I0.084 J1.267
G1 Y-408.79
X-165.368 Y-408.433
X-165.41 Y-408.072
X-165.481 Y-407.687
X-165.59 Y-407.261
X-165.742 Y-406.794
X-165.941 Y-406.3
X-166.205 Y-405.75
X-166.524 Y-405.185
X-166.928 Y-404.57
X-167.421 Y-403.918
X-168 Y-403.249
X-168.711 Y-402.531
X-169.56 Y-401.78
X-170.564 Y-401.003
X-171.637 Y-400.283
X-172.75 Y-399.627
X-173.896 Y-399.031
X-175.069 Y-398.489
X-176.265 Y-397.998
X-177.478 Y-397.554
X-178.706 Y-397.153
X-179.947 Y-396.793
X-181.198 Y-396.471
X-182.458 Y-396.185
X-183.725 Y-395.932
X-184.999 Y-395.712
X-186.277 Y-395.523
X-187.559 Y-395.363
X-188.844 Y-395.231
X-190.132 Y-395.127
X-191.422 Y-395.049
X-192.713 Y-394.998
X-194.004 Y-394.971
X-195.297 Y-394.969
X-196.588 Y-394.992
X-197.88 Y-395.039
X-199.17 Y-395.11
X-200.458 Y-395.206
X-201.745 Y-395.326
X-203.028 Y-395.472
X-204.309 Y-395.643
X-205.586 Y-395.842
X-206.858 Y-396.069
X-208.124 Y-396.327
X-209.382 Y-396.62
X-210.631 Y-396.951
X-211.866 Y-397.33
X-213.082 Y-397.767
X-213.991 Y-398.161
X-214.72 Y-398.536
X-215.063 Y-398.743
X-215.456 Y-399.021
X-215.804 Y-399.353
X-216.1 Y-399.733
X-216.336 Y-400.152
X-216.509 Y-400.602
X-216.615 Y-401.071
X-216.65 Y-401.551
Y-405.452
G3 X-215.467 Y-406.675 I1.269 J0.044
G1 X-166.706 Y-410.013
G3 X-165.35 Y-408.79 I0.087 J1.267
G1 Y-404.98
X-165.365 Y-404.683
X-165.407 Y-404.321
X-165.478 Y-403.937
X-165.587 Y-403.511
X-165.739 Y-403.043
X-165.937 Y-402.55
X-166.202 Y-402
X-166.521 Y-401.435
X-166.925 Y-400.82
X-167.418 Y-400.167
X-167.998 Y-399.499
X-168.708 Y-398.78
X-169.558 Y-398.028
X-170.564 Y-397.251
X-171.636 Y-396.53
X-172.75 Y-395.874
X-173.896 Y-395.278
X-175.069 Y-394.736
X-176.263 Y-394.244
X-177.476 Y-393.799
X-178.704 Y-393.397
X-179.945 Y-393.036
X-181.196 Y-392.712
X-182.455 Y-392.424
X-183.722 Y-392.169
X-184.995 Y-391.946
X-186.272 Y-391.754
X-187.554 Y-391.591
X-188.839 Y-391.456
X-190.126 Y-391.348
X-191.416 Y-391.266
X-192.707 Y-391.209
X-193.998 Y-391.178
X-195.29 Y-391.171
X-196.582 Y-391.188
X-197.874 Y-391.229
X-199.164 Y-391.294
X-200.453 Y-391.384
X-201.74 Y-391.498
X-203.025 Y-391.637
X-204.306 Y-391.802
X-205.584 Y-391.995
X-206.857 Y-392.217
X-208.124 Y-392.469
X-209.383 Y-392.757
X-210.633 Y-393.084
X-211.87 Y-393.459
X-213.087 Y-393.893
X-213.991 Y-394.284
X-214.718 Y-394.656
X-215.046 Y-394.853
X-215.443 Y-395.132
X-215.795 Y-395.467
X-216.094 Y-395.85
X-216.333 Y-396.272
X-216.508 Y-396.725
X-216.614 Y-397.199
X-216.65 Y-397.683
Y-401.551
G3 X-215.47 Y-402.774 I1.269 J0.044
G1 X-166.708 Y-406.203
G3 X-165.35 Y-404.98 I0.089 J1.267
G1 Y-401.17
X-165.362 Y-400.933
X-165.404 Y-400.571
X-165.475 Y-400.187
X-165.584 Y-399.76
X-165.736 Y-399.293
X-165.935 Y-398.799
X-166.199 Y-398.249
X-166.518 Y-397.685
X-166.923 Y-397.069
X-167.416 Y-396.416
X-167.996 Y-395.746
X-168.707 Y-395.027
X-169.558 Y-394.274
X-170.566 Y-393.496
X-171.638 Y-392.775
X-172.751 Y-392.119
X-173.897 Y-391.522
X-175.07 Y-390.98
X-176.264 Y-390.487
X-177.477 Y-390.041
X-178.705 Y-389.638
X-179.945 Y-389.275
X-181.195 Y-388.95
X-182.454 Y-388.659
X-183.72 Y-388.402
X-184.993 Y-388.177
X-186.27 Y-387.982
X-187.551 Y-387.816
X-188.836 Y-387.677
X-190.123 Y-387.565
X-191.412 Y-387.479
X-192.703 Y-387.418
X-193.994 Y-387.382
X-195.286 Y-387.37
X-196.578 Y-387.383
X-197.87 Y-387.418
X-199.16 Y-387.478
X-200.45 Y-387.562
X-201.737 Y-387.67
X-203.022 Y-387.804
X-204.305 Y-387.964
X-205.583 Y-388.151
X-206.857 Y-388.368
X-208.125 Y-388.616
X-209.385 Y-388.9
X-210.636 Y-389.223
X-211.874 Y-389.595
X-213.091 Y-390.026
X-213.685 Y-390.282
X-214.48 Y-390.664
X-215.15 Y-391.043
X-215.162 Y-391.051
X-215.532 Y-391.334
X-215.859 Y-391.666
X-216.136 Y-392.041
X-216.358 Y-392.451
X-216.519 Y-392.888
X-216.617 Y-393.344
X-216.65 Y-393.809
Y-397.683
G3 X-215.471 Y-398.906 I1.269 J0.044
G1 X-166.71 Y-402.393
G3 X-165.35 Y-401.17 I0.091 J1.267
G1 Y-397.532
X-165.368 Y-397.173
X-165.41 Y-396.811
X-165.481 Y-396.428
X-165.59 Y-396.001
X-165.742 Y-395.535
X-165.94 Y-395.041
X-166.205 Y-394.491
X-166.524 Y-393.927
X-166.928 Y-393.312
X-167.421 Y-392.658
X-168.001 Y-391.989
X-168.713 Y-391.27
X-169.565 Y-390.516
X-170.574 Y-389.736
X-171.646 Y-389.015
X-172.759 Y-388.359
X-173.905 Y-387.762
X-175.077 Y-387.219
X-176.272 Y-386.726
X-177.484 Y-386.279
X-178.711 Y-385.874
X-179.951 Y-385.51
X-181.201 Y-385.183
X-182.459 Y-384.891
X-183.725 Y-384.632
X-184.997 Y-384.404
X-186.274 Y-384.206
X-187.554 Y-384.037
X-188.839 Y-383.895
X-190.126 Y-383.779
X-191.415 Y-383.69
X-192.705 Y-383.625
X-193.996 Y-383.585
X-195.288 Y-383.568
X-196.58 Y-383.576
X-197.872 Y-383.607
X-199.163 Y-383.662
X-200.453 Y-383.741
X-201.74 Y-383.844
X-203.026 Y-383.973
X-204.309 Y-384.129
X-205.588 Y-384.312
X-206.862 Y-384.524
X-208.131 Y-384.768
X-209.392 Y-385.048
X-210.644 Y-385.368
X-211.882 Y-385.74
X-213.1 Y-386.17
X-213.987 Y-386.55
X-214.723 Y-386.925
X-215.04 Y-387.115
X-215.439 Y-387.394
X-215.792 Y-387.729
X-216.091 Y-388.112
X-216.332 Y-388.535
X-216.507 Y-388.989
X-216.614 Y-389.464
X-216.65 Y-389.949
Y-393.809
G3 X-215.477 Y-395.031 I1.269 J0.044
G1 X-166.716 Y-398.754
G3 X-165.35 Y-397.532 I0.097 J1.266
G1 Y-393.932
X-165.376 Y-393.413
X-165.418 Y-393.051
X-165.489 Y-392.668
X-165.598 Y-392.242
X-165.75 Y-391.775
X-165.948 Y-391.281
X-166.212 Y-390.732
X-166.531 Y-390.167
X-166.936 Y-389.552
X-167.43 Y-388.898
X-168.01 Y-388.229
X-168.722 Y-387.509
X-169.575 Y-386.754
X-170.586 Y-385.973
X-171.658 Y-385.252
X-172.771 Y-384.596
X-173.917 Y-383.998
X-175.089 Y-383.454
X-176.283 Y-382.96
X-177.495 Y-382.512
X-178.721 Y-382.107
X-179.961 Y-381.741
X-181.21 Y-381.412
X-182.468 Y-381.118
X-183.734 Y-380.857
X-185.005 Y-380.627
X-186.281 Y-380.426
X-187.562 Y-380.254
X-188.846 Y-380.109
X-190.132 Y-379.991
X-191.421 Y-379.898
X-192.711 Y-379.829
X-194.003 Y-379.785
X-195.295 Y-379.765
X-196.587 Y-379.768
X-197.878 Y-379.795
X-199.169 Y-379.846
X-200.459 Y-379.921
X-201.748 Y-380.02
X-203.034 Y-380.145
X-204.317 Y-380.296
X-205.596 Y-380.475
X-206.871 Y-380.684
X-208.141 Y-380.925
X-209.403 Y-381.203
X-210.655 Y-381.52
X-211.894 Y-381.889
X-213.109 Y-382.316
X-213.703 Y-382.57
X-214.488 Y-382.947
X-215.159 Y-383.326
X-215.53 Y-383.609
X-215.858 Y-383.941
X-216.135 Y-384.316
X-216.357 Y-384.727
X-216.519 Y-385.165
X-216.617 Y-385.621
X-216.65 Y-386.086
Y-389.949
G3 X-215.484 Y-391.17 I1.269 J0.044
G1 X-166.723 Y-395.154
G3 X-165.35 Y-393.932 I0.103 J1.266
G1 Y-390.122
X-165.373 Y-389.664
X-165.415 Y-389.302
X-165.486 Y-388.917
X-165.595 Y-388.491
X-165.748 Y-388.023
X-165.946 Y-387.529
X-166.211 Y-386.977
X-166.53 Y-386.413
X-166.936 Y-385.796
X-167.43 Y-385.142
X-168.012 Y-384.47
X-168.726 Y-383.748
X-169.581 Y-382.991
X-170.595 Y-382.208
X-171.667 Y-381.487
X-172.78 Y-380.831
X-173.925 Y-380.233
X-175.097 Y-379.688
X-176.29 Y-379.193
X-177.502 Y-378.744
X-178.728 Y-378.337
X-179.967 Y-377.97
X-181.216 Y-377.639
X-182.474 Y-377.344
X-183.739 Y-377.08
X-185.01 Y-376.848
X-186.286 Y-376.645
X-187.566 Y-376.47
X-188.849 Y-376.322
X-190.136 Y-376.2
X-191.424 Y-376.104
X-192.714 Y-376.032
X-194.005 Y-375.984
X-195.297 Y-375.96
X-196.589
X-197.881 Y-375.983
X-199.172 Y-376.03
X-200.462 Y-376.101
X-201.751 Y-376.196
X-203.037 Y-376.317
X-204.321 Y-376.465
X-205.601 Y-376.64
X-206.877 Y-376.846
X-208.146 Y-377.084
X-209.409 Y-377.359
X-210.662 Y-377.674
X-211.9 Y-378.042
X-213.114 Y-378.468
X-213.991 Y-378.842
X-214.722 Y-379.213
X-215.036 Y-379.4
X-215.435 Y-379.679
X-215.789 Y-380.014
X-216.09 Y-380.397
X-216.331 Y-380.821
X-216.507 Y-381.275
X-216.614 Y-381.751
X-216.65 Y-382.237
Y-386.086
G3 X-215.486 Y-387.307 I1.269 J0.044
G1 X-166.724 Y-391.344
G3 X-165.35 Y-390.122 I0.105 J1.266
G1 Y-386.313
X-165.37 Y-385.91
X-165.412 Y-385.549
X-165.484 Y-385.163
X-165.592 Y-384.736
X-165.745 Y-384.267
X-165.944 Y-383.773
X-166.21 Y-383.219
X-166.529 Y-382.655
X-166.935 Y-382.036
X-167.43 Y-381.382
X-168.013 Y-380.708
X-168.729 Y-379.985
X-169.586 Y-379.227
X-170.603 Y-378.441
X-171.675 Y-377.72
X-172.788 Y-377.064
X-173.933 Y-376.465
X-175.104 Y-375.92
X-176.297 Y-375.424
X-177.508 Y-374.974
X-178.734 Y-374.565
X-179.973 Y-374.197
X-181.221 Y-373.864
X-182.478 Y-373.566
X-183.743 Y-373.301
X-185.013 Y-373.066
X-186.289 Y-372.861
X-187.569 Y-372.683
X-188.852 Y-372.533
X-190.138 Y-372.408
X-191.426 Y-372.308
X-192.716 Y-372.233
X-194.007 Y-372.182
X-195.299 Y-372.155
X-196.591 Y-372.151
X-197.883 Y-372.171
X-199.174 Y-372.214
X-200.465 Y-372.281
X-201.753 Y-372.373
X-203.04 Y-372.491
X-204.324 Y-372.635
X-205.604 Y-372.808
X-206.88 Y-373.01
X-208.151 Y-373.246
X-209.414 Y-373.519
X-210.667 Y-373.833
X-211.907 Y-374.197
X-213.109 Y-374.617
X-213.992 Y-374.993
X-214.706 Y-375.354
X-215.097 Y-375.586
X-215.481 Y-375.854
X-215.822 Y-376.176
X-216.111 Y-376.544
X-216.343 Y-376.951
X-216.512 Y-377.388
X-216.615 Y-377.845
X-216.65 Y-378.312
Y-382.237
G3 X-215.487 Y-383.458 I1.269 J0.044
G1 X-166.725 Y-387.534
G3 X-165.35 Y-386.313 I0.106 J1.266
G1 Y-382.503
X-165.368 Y-382.153
X-165.41 Y-381.791
X-165.481 Y-381.404
X-165.59 Y-380.978
X-165.743 Y-380.507
X-165.942 Y-380.014
X-166.209 Y-379.458
X-166.528 Y-378.894
X-166.935 Y-378.274
X-167.43 Y-377.619
X-168.014 Y-376.944
X-168.732 Y-376.219
X-169.591 Y-375.459
X-170.61 Y-374.671
X-171.683 Y-373.95
X-172.795 Y-373.293
X-173.94 Y-372.694
X-175.111 Y-372.149
X-176.304 Y-371.652
X-177.515 Y-371.2
X-178.74 Y-370.791
X-179.978 Y-370.42
X-181.226 Y-370.086
X-182.483 Y-369.787
X-183.747 Y-369.519
X-185.017 Y-369.282
X-186.292 Y-369.074
X-187.572 Y-368.894
X-188.855 Y-368.741
X-190.14 Y-368.614
X-191.428 Y-368.511
X-192.718 Y-368.433
X-194.009 Y-368.379
X-195.301 Y-368.348
X-196.593 Y-368.341
X-197.885 Y-368.358
X-199.176 Y-368.398
X-200.467 Y-368.462
X-201.756 Y-368.551
X-203.043 Y-368.665
X-204.327 Y-368.807
X-205.608 Y-368.977
X-206.884 Y-369.177
X-208.155 Y-369.411
X-209.418 Y-369.681
X-210.672 Y-369.993
X-211.912 Y-370.356
X-213.132 Y-370.781
X-214.02 Y-371.158
X-214.734 Y-371.518
X-215.057 Y-371.709
X-215.451 Y-371.983
X-215.8 Y-372.313
X-216.097 Y-372.69
X-216.335 Y-373.108
X-216.509 Y-373.555
X-216.614 Y-374.024
X-216.65 Y-374.503
Y-378.312
G3 X-215.49 Y-379.533 I1.269 J0.044
G1 X-166.728 Y-383.724
G3 X-165.35 Y-382.503 I0.109 J1.265
G1 Y-378.693
X-165.365 Y-378.392
X-165.407 Y-378.031
X-165.479 Y-377.643
X-165.587 Y-377.217
X-165.741 Y-376.745
X-165.94 Y-376.251
X-166.207 Y-375.695
X-166.526 Y-375.131
X-166.934 Y-374.509
X-167.43 Y-373.854
X-168.016 Y-373.177
X-168.735 Y-372.451
X-169.596 Y-371.688
X-170.618 Y-370.898
X-171.691 Y-370.178
X-172.803 Y-369.52
X-173.948 Y-368.921
X-175.118 Y-368.374
X-176.311 Y-367.877
X-177.521 Y-367.424
X-178.746 Y-367.013
X-179.983 Y-366.641
X-181.231 Y-366.306
X-182.487 Y-366.004
X-183.751 Y-365.735
X-185.021 Y-365.496
X-186.296 Y-365.286
X-187.575 Y-365.103
X-188.857 Y-364.948
X-190.143 Y-364.818
X-191.431 Y-364.713
X-192.72 Y-364.632
X-194.011 Y-364.575
X-195.303 Y-364.542
X-196.595 Y-364.532
X-197.887 Y-364.545
X-199.178 Y-364.582
X-200.469 Y-364.644
X-201.758 Y-364.73
X-203.045 Y-364.842
X-204.33 Y-364.981
X-205.611 Y-365.148
X-206.888 Y-365.346
X-208.159 Y-365.578
X-209.423 Y-365.846
X-210.677 Y-366.156
X-211.918 Y-366.517
X-213.117 Y-366.932
X-213.998 Y-367.304
X-214.709 Y-367.662
X-215.025 Y-367.849
X-215.427 Y-368.127
X-215.783 Y-368.463
X-216.086 Y-368.847
X-216.329 Y-369.271
X-216.506 Y-369.727
X-216.614 Y-370.204
X-216.65 Y-370.692
Y-374.503
G3 X-215.49 Y-375.724 I1.269 J0.044
G1 X-166.728 Y-379.914
G3 X-165.35 Y-378.693 I0.109 J1.265
G1 Y-374.884
X-165.363 Y-374.629
X-165.405 Y-374.267
X-165.477 Y-373.879
X-165.585 Y-373.453
X-165.74 Y-372.98
X-165.938 Y-372.486
X-166.206 Y-371.928
X-166.525 Y-371.364
X-166.934 Y-370.741
X-167.43 Y-370.085
X-168.017 Y-369.407
X-168.738 Y-368.679
X-169.601 Y-367.915
X-170.623 Y-367.125
X-171.696 Y-366.404
X-172.808 Y-365.746
X-173.952 Y-365.146
X-175.122 Y-364.599
X-176.314 Y-364.1
X-177.524 Y-363.646
X-178.749 Y-363.234
X-179.986 Y-362.861
X-181.233 Y-362.524
X-182.489 Y-362.22
X-183.752 Y-361.949
X-185.021 Y-361.708
X-186.296 Y-361.496
X-187.575 Y-361.311
X-188.857 Y-361.153
X-190.142 Y-361.021
X-191.43 Y-360.913
X-192.719 Y-360.83
X-194.01 Y-360.77
X-195.301 Y-360.734
X-196.593 Y-360.722
X-197.886 Y-360.732
X-199.177 Y-360.767
X-200.468 Y-360.826
X-201.757 Y-360.909
X-203.045 Y-361.019
X-204.329 Y-361.155
X-205.611 Y-361.32
X-206.888 Y-361.516
X-208.16 Y-361.746
X-209.424 Y-362.012
X-210.679 Y-362.32
X-211.92 Y-362.68
X-213.104 Y-363.089
X-213.982 Y-363.46
X-214.692 Y-363.816
X-215.024 Y-364.011
X-215.426 Y-364.29
X-215.782 Y-364.625
X-216.085 Y-365.009
X-216.328 Y-365.434
X-216.506 Y-365.89
X-216.614 Y-366.367
X-216.65 Y-366.855
Y-370.692
G3 X-215.49 Y-371.913 I1.269 J0.044
G1 X-166.728 Y-376.105
G3 X-165.35 Y-374.884 I0.109 J1.265
G1 Y-371.245
X-165.37 Y-370.853
X-165.412 Y-370.492
X-165.484 Y-370.104
X-165.592 Y-369.678
X-165.746 Y-369.205
X-165.945 Y-368.711
X-166.213 Y-368.153
X-166.532 Y-367.589
X-166.941 Y-366.966
X-167.437 Y-366.31
X-168.025 Y-365.631
X-168.746 Y-364.902
X-169.611 Y-364.137
X-170.633 Y-363.347
X-171.706 Y-362.626
X-172.817 Y-361.968
X-173.961 Y-361.367
X-175.132 Y-360.819
X-176.323 Y-360.319
X-177.532 Y-359.865
X-178.757 Y-359.451
X-179.993 Y-359.077
X-181.24 Y-358.738
X-182.496 Y-358.433
X-183.759 Y-358.16
X-185.028 Y-357.917
X-186.302 Y-357.703
X-187.58 Y-357.517
X-188.862 Y-357.356
X-190.147 Y-357.222
X-191.435 Y-357.112
X-192.724 Y-357.026
X-194.015 Y-356.964
X-195.306 Y-356.926
X-196.598 Y-356.911
X-197.89 Y-356.92
X-199.182 Y-356.952
X-200.472 Y-357.009
X-201.762 Y-357.09
X-203.05 Y-357.197
X-204.335 Y-357.331
X-205.616 Y-357.495
X-206.894 Y-357.689
X-208.166 Y-357.916
X-209.43 Y-358.181
X-210.685 Y-358.488
X-211.926 Y-358.848
X-213.108 Y-359.256
X-213.984 Y-359.626
X-214.694 Y-359.982
X-215.024 Y-360.176
X-215.426 Y-360.455
X-215.782 Y-360.79
X-216.085 Y-361.174
X-216.328 Y-361.599
X-216.506 Y-362.055
X-216.614 Y-362.532
X-216.65 Y-363.02
Y-366.855
G3 X-215.495 Y-368.076 I1.269 J0.044
G1 X-166.733 Y-372.466
G3 X-165.35 Y-371.245 I0.114 J1.265
G1 Y-367.436
X-165.367 Y-367.087
X-165.41 Y-366.726
X-165.482 Y-366.336
X-165.59 Y-365.91
X-165.745 Y-365.436
X-165.943 Y-364.942
X-166.212 Y-364.382
X-166.532 Y-363.817
X-166.941 Y-363.193
X-167.438 Y-362.536
X-168.028 Y-361.855
X-168.751 Y-361.125
X-169.618 Y-360.358
X-170.64 Y-359.568
X-171.712 Y-358.846
X-172.824 Y-358.188
X-173.967 Y-357.587
X-175.137 Y-357.038
X-176.328 Y-356.538
X-177.537 Y-356.082
X-178.761 Y-355.667
X-179.997 Y-355.291
X-181.243 Y-354.951
X-182.499 Y-354.645
X-183.761 Y-354.37
X-185.03 Y-354.125
X-186.304 Y-353.909
X-187.582 Y-353.721
X-188.864 Y-353.559
X-190.149 Y-353.422
X-191.436 Y-353.31
X-192.725 Y-353.222
X-194.015 Y-353.158
X-195.307 Y-353.118
X-196.599 Y-353.101
X-197.891 Y-353.107
X-199.182 Y-353.137
X-200.473 Y-353.192
X-201.763 Y-353.271
X-203.051 Y-353.376
X-204.336 Y-353.508
X-205.618 Y-353.67
X-206.896 Y-353.862
X-208.168 Y-354.088
X-209.433 Y-354.352
X-210.688 Y-354.658
X-211.929 Y-355.017
X-213.108 Y-355.423
X-213.984 Y-355.792
X-214.692 Y-356.148
X-215.022 Y-356.342
X-215.425 Y-356.621
X-215.782 Y-356.956
X-216.085 Y-357.34
X-216.328 Y-357.765
X-216.506 Y-358.221
X-216.614 Y-358.699
X-216.65 Y-359.187
Y-363.02
G3 X-215.495 Y-364.241 I1.269 J0.044
G1 X-166.734 Y-368.656
G3 X-165.35 Y-367.436 I0.115 J1.265
G1 Y-363.836
X-165.377 Y-363.305
X-165.419 Y-362.944
X-165.491 Y-362.555
X-165.599 Y-362.129
X-165.754 Y-361.655
X-165.952 Y-361.161
X-166.221 Y-360.602
X-166.541 Y-360.037
X-166.95 Y-359.413
X-167.448 Y-358.754
X-168.038 Y-358.073
X-168.761 Y-357.342
X-169.629 Y-356.574
X-170.652 Y-355.784
X-171.723 Y-355.063
X-172.835 Y-354.404
X-173.978 Y-353.802
X-175.148 Y-353.253
X-176.339 Y-352.752
X-177.547 Y-352.295
X-178.771 Y-351.879
X-180.007 Y-351.502
X-181.253 Y-351.161
X-182.508 Y-350.853
X-183.77 Y-350.577
X-185.038 Y-350.331
X-186.312 Y-350.113
X-187.59 Y-349.923
X-188.871 Y-349.759
X-190.156 Y-349.621
X-191.443 Y-349.507
X-192.732 Y-349.417
X-194.022 Y-349.352
X-195.314 Y-349.309
X-196.606 Y-349.29
X-197.898 Y-349.295
X-199.189 Y-349.323
X-200.48 Y-349.375
X-201.77 Y-349.453
X-203.058 Y-349.556
X-204.343 Y-349.687
X-205.626 Y-349.847
X-206.903 Y-350.038
X-208.176 Y-350.263
X-209.441 Y-350.526
X-210.696 Y-350.831
X-211.938 Y-351.19
X-213.112 Y-351.595
X-213.986 Y-351.963
X-214.693 Y-352.318
X-215.022 Y-352.511
X-215.424 Y-352.789
X-215.781 Y-353.125
X-216.085 Y-353.509
X-216.328 Y-353.934
X-216.506 Y-354.39
X-216.614 Y-354.868
X-216.65 Y-355.356
Y-359.187
G3 X-215.501 Y-360.407 I1.269 J0.044
G1 X-166.74 Y-365.055
G3 X-165.35 Y-363.836 I0.121 J1.264
G1 Y-360.026
X-165.375 Y-359.535
X-165.417 Y-359.174
X-165.489 Y-358.783
X-165.598 Y-358.357
X-165.753 Y-357.881
X-165.951 Y-357.387
X-166.221 Y-356.826
X-166.541 Y-356.261
X-166.952 Y-355.635
X-167.449 Y-354.976
X-168.041 Y-354.293
X-168.766 Y-353.56
X-169.636 Y-352.79
X-170.658 Y-352
X-171.73 Y-351.279
X-172.842 Y-350.62
X-173.985 Y-350.017
X-175.154 Y-349.467
X-176.344 Y-348.965
X-177.553 Y-348.507
X-178.776 Y-348.091
X-180.011 Y-347.713
X-181.257 Y-347.37
X-182.511 Y-347.061
X-183.773 Y-346.783
X-185.041 Y-346.536
X-186.315 Y-346.317
X-187.592 Y-346.125
X-188.874 Y-345.959
X-190.158 Y-345.819
X-191.445 Y-345.704
X-192.734 Y-345.612
X-194.024 Y-345.544
X-195.316 Y-345.5
X-196.607 Y-345.48
X-197.9 Y-345.482
X-199.191 Y-345.509
X-200.482 Y-345.559
X-201.772 Y-345.635
X-203.06 Y-345.737
X-204.346 Y-345.866
X-205.628 Y-346.025
X-206.906 Y-346.215
X-208.179 Y-346.439
X-209.444 Y-346.7
X-210.7 Y-347.005
X-211.941 Y-347.363
X-213.112 Y-347.766
X-213.985 Y-348.134
X-214.692 Y-348.488
X-215.021 Y-348.681
X-215.424 Y-348.959
X-215.781 Y-349.295
X-216.084 Y-349.679
X-216.328 Y-350.104
X-216.505 Y-350.56
X-216.614 Y-351.038
X-216.65 Y-351.526
Y-355.356
G3 X-215.502 Y-356.576 I1.269 J0.044
G1 X-166.74 Y-361.246
G3 X-165.35 Y-360.026 I0.121 J1.264
G1 Y-356.216
X-165.373 Y-355.76
X-165.415 Y-355.399
X-165.487 Y-355.007
X-165.596 Y-354.581
X-165.752 Y-354.103
X-165.95 Y-353.61
X-166.22 Y-353.048
X-166.54 Y-352.482
X-166.952 Y-351.855
X-167.45 Y-351.195
X-168.043 Y-350.511
X-168.77 Y-349.776
X-169.642 Y-349.005
X-170.664 Y-348.215
X-171.736 Y-347.493
X-172.847 Y-346.833
X-173.99 Y-346.231
X-175.158 Y-345.68
X-176.349 Y-345.177
X-177.557 Y-344.719
X-178.779 Y-344.301
X-180.014 Y-343.922
X-181.26 Y-343.578
X-182.514 Y-343.267
X-183.776 Y-342.988
X-185.043 Y-342.739
X-186.317 Y-342.519
X-187.594 Y-342.326
X-188.875 Y-342.158
X-190.16 Y-342.017
X-191.446 Y-341.899
X-192.735 Y-341.806
X-194.025 Y-341.737
X-195.316 Y-341.691
X-196.608 Y-341.669
X-197.9 Y-341.67
X-199.192 Y-341.695
X-200.483 Y-341.744
X-201.773 Y-341.818
X-203.061 Y-341.918
X-204.347 Y-342.046
X-205.629 Y-342.204
X-206.908 Y-342.392
X-208.18 Y-342.615
X-209.446 Y-342.876
X-210.702 Y-343.18
X-211.943 Y-343.537
X-213.112 Y-343.939
X-213.985 Y-344.306
X-214.691 Y-344.66
X-215.02 Y-344.852
X-215.423 Y-345.131
X-215.78 Y-345.466
X-216.084 Y-345.851
X-216.327 Y-346.276
X-216.505 Y-346.732
X-216.614 Y-347.21
X-216.65 Y-347.699
Y-351.526
G3 X-215.502 Y-352.746 I1.269 J0.044
G1 X-166.741 Y-357.436
G3 X-165.35 Y-356.216 I0.122 J1.264
G1 Y-352.406
X-165.371 Y-351.982
X-165.414 Y-351.62
X-165.486 Y-351.228
X-165.595 Y-350.801
X-165.751 Y-350.323
X-165.949 Y-349.829
X-166.22 Y-349.266
X-166.54 Y-348.7
X-166.952 Y-348.072
X-167.451 Y-347.412
X-168.045 Y-346.726
X-168.773 Y-345.99
X-169.647 Y-345.217
X-170.669 Y-344.427
X-171.74 Y-343.705
X-172.851 Y-343.046
X-173.994 Y-342.442
X-175.162 Y-341.891
X-176.352 Y-341.388
X-177.56 Y-340.928
X-178.782 Y-340.509
X-180.017 Y-340.129
X-181.262 Y-339.784
X-182.516 Y-339.472
X-183.777 Y-339.192
X-185.045 Y-338.942
X-186.318 Y-338.72
X-187.595 Y-338.525
X-188.876 Y-338.357
X-190.16 Y-338.213
X-191.447 Y-338.095
X-192.735 Y-338
X-194.026 Y-337.929
X-195.317 Y-337.882
X-196.609 Y-337.858
X-197.901 Y-337.857
X-199.192 Y-337.881
X-200.484 Y-337.928
X-201.774 Y-338.001
X-203.062 Y-338.1
X-204.348 Y-338.227
X-205.63 Y-338.383
X-206.909 Y-338.571
X-208.182 Y-338.793
X-209.447 Y-339.053
X-210.703 Y-339.356
X-211.945 Y-339.713
X-213.112 Y-340.114
X-213.984 Y-340.48
X-214.69 Y-340.833
X-215.019 Y-341.026
X-215.422 Y-341.304
X-215.78 Y-341.64
X-216.084 Y-342.024
X-216.327 Y-342.449
X-216.505 Y-342.906
X-216.614 Y-343.384
X-216.65 Y-343.873
Y-347.699
G3 X-215.503 Y-348.919 I1.269 J0.044
G1 X-166.741 Y-353.626
G3 X-165.35 Y-352.406 I0.122 J1.264
G1 Y-348.597
X-165.37 Y-348.2
X-165.412 Y-347.839
X-165.485 Y-347.446
X-165.593 Y-347.019
X-165.75 Y-346.54
X-165.948 Y-346.046
X-166.219 Y-345.483
X-166.539 Y-344.916
X-166.952 Y-344.287
X-167.452 Y-343.626
X-168.047 Y-342.939
X-168.776 Y-342.203
X-169.651 Y-341.428
X-170.673 Y-340.638
X-171.745 Y-339.916
X-172.855 Y-339.256
X-173.998 Y-338.652
X-175.166 Y-338.1
X-176.356 Y-337.596
X-177.563 Y-337.136
X-178.785 Y-336.716
X-180.019 Y-336.335
X-181.264 Y-335.989
X-182.518 Y-335.676
X-183.779 Y-335.395
X-185.046 Y-335.143
X-186.319 Y-334.92
X-187.596 Y-334.724
X-188.877 Y-334.554
X-190.161 Y-334.41
X-191.447 Y-334.289
X-192.736 Y-334.193
X-194.026 Y-334.121
X-195.317 Y-334.072
X-196.609 Y-334.047
X-197.901 Y-334.045
X-199.193 Y-334.067
X-200.484 Y-334.114
X-201.774 Y-334.185
X-203.062 Y-334.283
X-204.348 Y-334.409
X-205.631 Y-334.564
X-206.909 Y-334.75
X-208.182 Y-334.971
X-209.448 Y-335.231
X-210.704 Y-335.533
X-211.946 Y-335.889
X-213.112 Y-336.289
X-213.983 Y-336.655
X-214.688 Y-337.008
X-215.018 Y-337.2
X-215.421 Y-337.479
X-215.779 Y-337.814
X-216.083 Y-338.199
X-216.327 Y-338.624
X-216.505 Y-339.081
X-216.614 Y-339.559
X-216.65 Y-340.048
Y-343.873
G3 X-215.503 Y-345.092 I1.269 J0.044
G1 X-166.742 Y-349.817
G3 X-165.35 Y-348.597 I0.122 J1.264
G1 Y-344.787
X-165.369 Y-344.417
X-165.411 Y-344.055
X-165.484 Y-343.661
X-165.592 Y-343.235
X-165.749 Y-342.755
X-165.947 Y-342.261
X-166.218 Y-341.697
X-166.539 Y-341.13
X-166.953 Y-340.5
X-167.453 Y-339.839
X-168.048 Y-339.151
X-168.778 Y-338.413
X-169.655 Y-337.637
X-170.677 Y-336.847
X-171.749 Y-336.125
X-172.859 Y-335.464
X-174.001 Y-334.86
X-175.169 Y-334.308
X-176.359 Y-333.803
X-177.566 Y-333.342
X-178.787 Y-332.922
X-180.022 Y-332.539
X-181.266 Y-332.193
X-182.52 Y-331.879
X-183.781 Y-331.596
X-185.048 Y-331.344
X-186.32 Y-331.119
X-187.597 Y-330.922
X-188.878 Y-330.751
X-190.161 Y-330.605
X-191.448 Y-330.484
X-192.736 Y-330.386
X-194.026 Y-330.313
X-195.317 Y-330.263
X-196.609 Y-330.236
X-197.901 Y-330.233
X-199.193 Y-330.254
X-200.484 Y-330.299
X-201.774 Y-330.37
X-203.063 Y-330.466
X-204.349 Y-330.591
X-205.632 Y-330.745
X-206.91 Y-330.931
X-208.183 Y-331.151
X-209.449 Y-331.41
X-210.706 Y-331.712
X-211.948 Y-332.067
X-213.111 Y-332.466
X-213.982 Y-332.831
X-214.687 Y-333.184
X-215.017 Y-333.377
X-215.421 Y-333.655
X-215.779 Y-333.99
X-216.083 Y-334.375
X-216.327 Y-334.8
X-216.505 Y-335.257
X-216.614 Y-335.735
X-216.65 Y-336.224
Y-340.048
G3 X-215.504 Y-341.268 I1.269 J0.044
G1 X-166.742 Y-346.007
G3 X-165.35 Y-344.787 I0.123 J1.264
G1 Y-340.977
X-165.367 Y-340.631
X-165.41 Y-340.269
X-165.483 Y-339.875
X-165.591 Y-339.448
X-165.748 Y-338.968
X-165.946 Y-338.474
X-166.218 Y-337.909
X-166.539 Y-337.342
X-166.953 Y-336.711
X-167.453 Y-336.049
X-168.05 Y-335.36
X-168.781 Y-334.621
X-169.659 Y-333.844
X-170.681 Y-333.054
X-171.752 Y-332.332
X-172.863 Y-331.671
X-174.005 Y-331.067
X-175.172 Y-330.514
X-176.362 Y-330.009
X-177.568 Y-329.547
X-178.79 Y-329.126
X-180.024 Y-328.743
X-181.268 Y-328.395
X-182.521 Y-328.08
X-183.782 Y-327.797
X-185.049 Y-327.543
X-186.321 Y-327.318
X-187.598 Y-327.119
X-188.878 Y-326.947
X-190.162 Y-326.8
X-191.448 Y-326.677
X-192.736 Y-326.579
X-194.026 Y-326.504
X-195.317 Y-326.453
X-196.609 Y-326.425
X-197.901 Y-326.421
X-199.193 Y-326.441
X-200.484 Y-326.485
X-201.775 Y-326.554
X-203.063 Y-326.65
X-204.349 Y-326.774
X-205.632 Y-326.927
X-206.911 Y-327.112
X-208.184 Y-327.332
X-209.45 Y-327.59
X-210.707 Y-327.891
X-211.949 Y-328.246
X-213.111 Y-328.644
X-213.981 Y-329.009
X-214.686 Y-329.361
X-215.016 Y-329.554
X-215.42 Y-329.832
X-215.778 Y-330.168
X-216.083 Y-330.552
X-216.327 Y-330.978
X-216.505 Y-331.435
X-216.614 Y-331.913
X-216.65 Y-332.402
Y-336.224
G3 X-215.504 Y-337.444 I1.269 J0.044
G1 X-166.742 Y-342.197
G3 X-165.35 Y-340.977 I0.123 J1.264
G1 Y-337.168
X-165.366 Y-336.843
X-165.409 Y-336.481
X-165.482 Y-336.086
X-165.59 Y-335.66
X-165.747 Y-335.178
X-165.945 Y-334.685
X-166.217 Y-334.119
X-166.538 Y-333.552
X-166.953 Y-332.92
X-167.454 Y-332.258
X-168.051 Y-331.568
X-168.783 Y-330.828
X-169.662 Y-330.05
X-170.684 Y-329.26
X-171.756 Y-328.538
X-172.866 Y-327.877
X-174.008 Y-327.272
X-175.175 Y-326.719
X-176.364 Y-326.213
X-177.571 Y-325.75
X-178.792 Y-325.329
X-180.026 Y-324.945
X-181.27 Y-324.596
X-182.523 Y-324.281
X-183.783 Y-323.996
X-185.05 Y-323.742
X-186.322 Y-323.515
X-187.598 Y-323.316
X-188.879 Y-323.142
X-190.162 Y-322.994
X-191.449 Y-322.871
X-192.737 Y-322.771
X-194.027 Y-322.695
X-195.318 Y-322.643
X-196.609 Y-322.614
X-197.901 Y-322.609
X-199.193 Y-322.628
X-200.485 Y-322.671
X-201.775 Y-322.739
X-203.063 Y-322.834
X-204.35 Y-322.957
X-205.633 Y-323.11
X-206.911 Y-323.294
X-208.185 Y-323.513
X-209.451 Y-323.77
X-210.708 Y-324.071
X-211.95 Y-324.426
X-213.111 Y-324.824
X-213.98 Y-325.187
X-214.685 Y-325.539
X-215.016 Y-325.732
X-215.42 Y-326.011
X-215.778 Y-326.346
X-216.082 Y-326.731
X-216.327 Y-327.156
X-216.505 Y-327.613
X-216.614 Y-328.092
X-216.65 Y-328.581
Y-332.402
G3 X-215.504 Y-333.622 I1.269 J0.044
G1 X-166.743 Y-338.387
G3 X-165.35 Y-337.168 I0.124 J1.264
G1 Y-333.358
X-165.365 Y-333.053
X-165.408 Y-332.691
X-165.481 Y-332.296
X-165.589 Y-331.869
X-165.746 Y-331.387
X-165.945 Y-330.894
X-166.217 Y-330.328
X-166.538 Y-329.76
X-166.953 Y-329.128
X-167.454 Y-328.465
X-168.052 Y-327.774
X-168.785 Y-327.033
X-169.665 Y-326.254
X-170.688 Y-325.464
X-171.759 Y-324.742
X-172.869 Y-324.081
X-174.011 Y-323.476
X-175.178 Y-322.922
X-176.367 Y-322.415
X-177.573 Y-321.952
X-178.794 Y-321.53
X-180.027 Y-321.146
X-181.271 Y-320.796
X-182.524 Y-320.48
X-183.784 Y-320.195
X-185.051 Y-319.939
X-186.323 Y-319.712
X-187.599 Y-319.512
X-188.879 Y-319.337
X-190.163 Y-319.188
X-191.449 Y-319.064
X-192.737 Y-318.963
X-194.027 Y-318.887
X-195.318 Y-318.833
X-196.609 Y-318.804
X-197.902 Y-318.797
X-199.193 Y-318.815
X-200.485 Y-318.858
X-201.775 Y-318.925
X-203.064 Y-319.019
X-204.35 Y-319.141
X-205.633 Y-319.293
X-206.912 Y-319.477
X-208.186 Y-319.695
X-209.452 Y-319.952
X-210.708 Y-320.252
X-211.951 Y-320.607
X-213.111 Y-321.004
X-213.98 Y-321.367
X-214.684 Y-321.718
X-215.015 Y-321.911
X-215.419 Y-322.19
X-215.777 Y-322.525
X-216.082 Y-322.91
X-216.326 Y-323.336
X-216.505 Y-323.793
X-216.614 Y-324.271
X-216.65 Y-324.761
Y-328.581
G3 X-215.505 Y-329.801 I1.269 J0.044
G1 X-166.743 Y-334.578
G3 X-165.35 Y-333.358 I0.124 J1.264
G1 Y-329.548
X-165.364 Y-329.261
X-165.407 Y-328.9
X-165.48 Y-328.504
X-165.588 Y-328.077
X-165.746 Y-327.595
X-165.944 Y-327.101
X-166.217 Y-326.534
X-166.538 Y-325.966
X-166.953 Y-325.334
X-167.455 Y-324.67
X-168.053 Y-323.979
X-168.787 Y-323.237
X-169.668 Y-322.457
X-170.691 Y-321.667
X-171.762 Y-320.945
X-172.872 Y-320.283
X-174.013 Y-319.678
X-175.18 Y-319.124
X-176.369 Y-318.617
X-177.575 Y-318.154
X-178.796 Y-317.731
X-180.029 Y-317.345
X-181.273 Y-316.995
X-182.525 Y-316.678
X-183.785 Y-316.392
X-185.052 Y-316.136
X-186.324 Y-315.908
X-187.6 Y-315.707
X-188.88 Y-315.532
X-190.163 Y-315.382
X-191.449 Y-315.256
X-192.737 Y-315.155
X-194.027 Y-315.077
X-195.318 Y-315.023
X-196.61 Y-314.993
X-197.902 Y-314.986
X-199.194 Y-315.003
X-200.485 Y-315.044
X-201.775 Y-315.111
X-203.064 Y-315.204
X-204.35 Y-315.326
X-205.634 Y-315.477
X-206.913 Y-315.66
X-208.186 Y-315.878
X-209.453 Y-316.134
X-210.709 Y-316.434
X-211.952 Y-316.788
X-213.11 Y-317.184
X-213.979 Y-317.548
X-214.684 Y-317.899
X-215.014 Y-318.092
X-215.419 Y-318.37
X-215.777 Y-318.705
X-216.082 Y-319.09
X-216.326 Y-319.516
X-216.505 Y-319.973
X-216.613 Y-320.452
X-216.65 Y-320.941
Y-324.761
G3 X-215.505 Y-325.98 I1.269 J0.044
G1 X-166.743 Y-330.768
G3 X-165.35 Y-329.548 I0.124 J1.264
G1 Y-325.739
X-165.364 Y-325.468
X-165.406 Y-325.106
X-165.479 Y-324.71
X-165.588 Y-324.284
X-165.745 Y-323.801
X-165.944 Y-323.307
X-166.216 Y-322.74
X-166.538 Y-322.171
X-166.953 Y-321.538
X-167.455 Y-320.874
X-168.054 Y-320.182
X-168.789 Y-319.44
X-169.671 Y-318.659
X-170.693 Y-317.869
X-171.764 Y-317.146
X-172.874 Y-316.485
X-174.016 Y-315.879
X-175.183 Y-315.325
X-176.371 Y-314.817
X-177.577 Y-314.354
X-178.798 Y-313.93
X-180.031 Y-313.544
X-181.274 Y-313.194
X-182.527 Y-312.876
X-183.787 Y-312.589
X-185.053 Y-312.332
X-186.324 Y-312.103
X-187.601 Y-311.902
X-188.881 Y-311.726
X-190.164 Y-311.575
X-191.45 Y-311.449
X-192.738 Y-311.347
X-194.027 Y-311.268
X-195.318 Y-311.213
X-196.61 Y-311.182
X-197.902 Y-311.174
X-199.194 Y-311.19
X-200.485 Y-311.231
X-201.776 Y-311.297
X-203.064 Y-311.39
X-204.351 Y-311.51
X-205.634 Y-311.661
X-206.913 Y-311.843
X-208.187 Y-312.061
X-209.453 Y-312.317
X-210.71 Y-312.617
X-211.953 Y-312.97
X-213.11 Y-313.366
X-213.979 Y-313.729
X-214.683 Y-314.08
X-215.014 Y-314.273
X-215.418 Y-314.551
X-215.777 Y-314.887
X-216.082 Y-315.271
X-216.326 Y-315.697
X-216.505 Y-316.154
X-216.613 Y-316.633
X-216.65 Y-317.123
Y-320.941
G3 X-215.505 Y-322.161 I1.269 J0.044
G1 X-166.744 Y-326.958
G3 X-165.35 Y-325.739 I0.124 J1.264
G1 Y-321.929
X-165.363 Y-321.673
X-165.405 Y-321.312
X-165.478 Y-320.915
X-165.587 Y-320.489
X-165.745 Y-320.005
X-165.943 Y-319.511
X-166.216 Y-318.944
X-166.537 Y-318.375
X-166.953 Y-317.741
X-167.456 Y-317.077
X-168.055 Y-316.385
X-168.791 Y-315.641
X-169.674 Y-314.86
X-170.696 Y-314.07
X-171.767 Y-313.347
X-172.877 Y-312.685
X-174.018 Y-312.079
X-175.185 Y-311.525
X-176.373 Y-311.017
X-177.579 Y-310.553
X-178.799 Y-310.129
X-180.032 Y-309.742
X-181.276 Y-309.391
X-182.528 Y-309.073
X-183.788 Y-308.786
X-185.054 Y-308.528
X-186.325 Y-308.298
X-187.601 Y-308.096
X-188.881 Y-307.919
X-190.164 Y-307.768
X-191.45 Y-307.641
X-192.738 Y-307.538
X-194.028 Y-307.459
X-195.318 Y-307.403
X-196.61 Y-307.371
X-197.902 Y-307.362
X-199.194 Y-307.378
X-200.486 Y-307.418
X-201.776 Y-307.484
X-203.065 Y-307.576
X-204.351 Y-307.696
X-205.634 Y-307.846
X-206.914 Y-308.028
X-208.187 Y-308.245
X-209.454 Y-308.5
X-210.711 Y-308.8
X-211.954 Y-309.153
X-213.11 Y-309.548
X-213.979 Y-309.911
X-214.682 Y-310.261
X-215.013 Y-310.455
X-215.418 Y-310.733
X-215.777 Y-311.068
X-216.082 Y-311.453
X-216.326 Y-311.879
X-216.505 Y-312.336
X-216.613 Y-312.815
X-216.65 Y-313.305
Y-317.123
G3 X-215.505 Y-318.342 I1.269 J0.044
G1 X-166.744 Y-323.148
G3 X-165.35 Y-321.929 I0.125 J1.264
G1 Y-318.119
X-165.362 Y-317.877
X-165.404 Y-317.515
X-165.478 Y-317.118
X-165.586 Y-316.692
X-165.744 Y-316.208
X-165.943 Y-315.714
X-166.216 Y-315.146
X-166.537 Y-314.578
X-166.954 Y-313.943
X-167.456 Y-313.279
X-168.056 Y-312.586
X-168.792 Y-311.842
X-169.676 Y-311.06
X-170.698 Y-310.27
X-171.769 Y-309.547
X-172.879 Y-308.885
X-174.02 Y-308.279
X-175.187 Y-307.724
X-176.375 Y-307.216
X-177.58 Y-306.751
X-178.801 Y-306.326
X-180.034 Y-305.94
X-181.277 Y-305.588
X-182.529 Y-305.269
X-183.788 Y-304.981
X-185.054 Y-304.723
X-186.326 Y-304.493
X-187.602 Y-304.289
X-188.882 Y-304.112
X-190.165 Y-303.96
X-191.45 Y-303.832
X-192.738 Y-303.729
X-194.028 Y-303.649
X-195.319 Y-303.593
X-196.61 Y-303.56
X-197.902 Y-303.551
X-199.194 Y-303.566
X-200.486 Y-303.605
X-201.776 Y-303.67
X-203.065 Y-303.762
X-204.352 Y-303.881
X-205.635 Y-304.031
X-206.914 Y-304.212
X-208.188 Y-304.429
X-209.455 Y-304.684
X-210.711 Y-304.983
X-211.954 Y-305.337
X-213.11 Y-305.731
X-213.978 Y-306.094
X-214.682 Y-306.444
X-215.126 Y-306.703
X-215.502 Y-306.962
X-215.837 Y-307.274
X-216.121 Y-307.633
X-216.348 Y-308.029
X-216.515 Y-308.455
X-216.616 Y-308.901
X-216.65 Y-309.357
Y-313.305
G3 X-215.506 Y-314.524 I1.269 J0.044
G1 X-166.744 Y-319.339
G3 X-165.35 Y-318.119 I0.125 J1.264
G1 Y-314.481
X-165.371 Y-314.07
X-165.413 Y-313.709
X-165.486 Y-313.313
X-165.594 Y-312.887
X-165.752 Y-312.403
X-165.951 Y-311.909
X-166.223 Y-311.342
X-166.545 Y-310.774
X-166.961 Y-310.14
X-167.463 Y-309.475
X-168.063 Y-308.782
X-168.799 Y-308.039
X-169.683 Y-307.256
X-170.706 Y-306.466
X-171.777 Y-305.743
X-172.886 Y-305.081
X-174.027 Y-304.475
X-175.194 Y-303.92
X-176.382 Y-303.412
X-177.587 Y-302.947
X-178.807 Y-302.522
X-180.04 Y-302.135
X-181.283 Y-301.783
X-182.535 Y-301.463
X-183.795 Y-301.175
X-185.061 Y-300.916
X-186.332 Y-300.686
X-187.608 Y-300.482
X-188.888 Y-300.304
X-190.171 Y-300.152
X-191.456 Y-300.023
X-192.744 Y-299.919
X-194.034 Y-299.839
X-195.325 Y-299.782
X-196.616 Y-299.749
X-197.908 Y-299.74
X-199.2 Y-299.754
X-200.492 Y-299.793
X-201.782 Y-299.858
X-203.071 Y-299.949
X-204.357 Y-300.068
X-205.641 Y-300.217
X-206.92 Y-300.398
X-208.194 Y-300.615
X-209.461 Y-300.87
X-210.718 Y-301.169
X-211.96 Y-301.522
X-213.159 Y-301.932
X-214.036 Y-302.297
X-214.74 Y-302.648
X-215.013 Y-302.807
X-215.418 Y-303.086
X-215.776 Y-303.421
X-216.081 Y-303.806
X-216.326 Y-304.232
X-216.505 Y-304.689
X-216.613 Y-305.168
X-216.65 Y-305.658
Y-309.357
G3 X-215.514 Y-310.576 I1.269 J0.044
G1 X-166.752 Y-315.7
G3 X-165.35 Y-314.481 I0.133 J1.263
G1 Y-310.671
X-165.37 Y-310.275
X-165.412 Y-309.914
X-165.486 Y-309.516
X-165.594 Y-309.09
X-165.752 Y-308.606
X-165.95 Y-308.112
X-166.223 Y-307.544
X-166.545 Y-306.975
X-166.962 Y-306.34
X-167.465 Y-305.675
X-168.065 Y-304.982
X-168.802 Y-304.237
X-169.687 Y-303.454
X-170.709 Y-302.664
X-171.78 Y-301.941
X-172.89 Y-301.279
X-174.031 Y-300.672
X-175.197 Y-300.117
X-176.385 Y-299.608
X-177.59 Y-299.143
X-178.81 Y-298.718
X-180.043 Y-298.33
X-181.286 Y-297.978
X-182.538 Y-297.658
X-183.797 Y-297.369
X-185.063 Y-297.11
X-186.334 Y-296.879
X-187.61 Y-296.675
X-188.89 Y-296.496
X-190.173 Y-296.343
X-191.458 Y-296.215
X-192.746 Y-296.11
X-194.036 Y-296.029
X-195.326 Y-295.972
X-196.618 Y-295.938
X-197.91 Y-295.928
X-199.202 Y-295.942
X-200.493 Y-295.981
X-201.784 Y-296.045
X-203.073 Y-296.135
X-204.359 Y-296.254
X-205.643 Y-296.403
X-206.922 Y-296.584
X-208.196 Y-296.8
X-209.463 Y-297.055
X-210.72 Y-297.353
X-211.963 Y-297.705
X-213.11 Y-298.094
X-213.974 Y-298.453
X-214.676 Y-298.801
X-215.104 Y-299.05
X-215.486 Y-299.312
X-215.825 Y-299.628
X-216.113 Y-299.991
X-216.344 Y-300.392
X-216.513 Y-300.824
X-216.615 Y-301.276
X-216.65 Y-301.738
Y-305.658
G3 X-215.511 Y-306.877 I1.269 J0.044
G1 X-166.749 Y-311.89
G3 X-165.35 Y-310.671 I0.13 J1.263
G1 Y-306.862
X-165.369 Y-306.477
X-165.412 Y-306.115
X-165.485 Y-305.718
X-165.593 Y-305.291
X-165.752 Y-304.807
X-165.95 Y-304.312
X-166.223 Y-303.744
X-166.545 Y-303.175
X-166.962 Y-302.54
X-167.465 Y-301.874
X-168.067 Y-301.18
X-168.804 Y-300.435
X-169.69 Y-299.651
X-170.712 Y-298.861
X-171.783 Y-298.138
X-172.892 Y-297.476
X-174.033 Y-296.869
X-175.199 Y-296.314
X-176.387 Y-295.805
X-177.592 Y-295.339
X-178.812 Y-294.914
X-180.045 Y-294.526
X-181.288 Y-294.173
X-182.539 Y-293.852
X-183.799 Y-293.563
X-185.064 Y-293.304
X-186.335 Y-293.072
X-187.611 Y-292.867
X-188.891 Y-292.689
X-190.174 Y-292.535
X-191.459 Y-292.406
X-192.747 Y-292.301
X-194.037 Y-292.219
X-195.327 Y-292.162
X-196.619 Y-292.127
X-197.911 Y-292.117
X-199.203 Y-292.13
X-200.494 Y-292.169
X-201.785 Y-292.232
X-203.074 Y-292.322
X-204.36 Y-292.441
X-205.644 Y-292.589
X-206.923 Y-292.77
X-208.197 Y-292.985
X-209.464 Y-293.239
X-210.721 Y-293.537
X-211.964 Y-293.89
X-213.151 Y-294.294
X-214.025 Y-294.657
X-214.728 Y-295.007
X-215.011 Y-295.171
X-215.416 Y-295.45
X-215.775 Y-295.785
X-216.081 Y-296.17
X-216.325 Y-296.596
X-216.504 Y-297.054
X-216.613 Y-297.533
X-216.65 Y-298.023
Y-301.738
G3 X-215.514 Y-302.956 I1.269 J0.044
G1 X-166.752 Y-308.08
G3 X-165.35 Y-306.862 I0.133 J1.263
G1 Y-303.052
X-165.369 Y-302.677
X-165.411 Y-302.316
X-165.485 Y-301.918
X-165.593 Y-301.491
X-165.751 Y-301.006
X-165.95 Y-300.512
X-166.223 Y-299.943
X-166.545 Y-299.374
X-166.963 Y-298.738
X-167.466 Y-298.073
X-168.068 Y-297.378
X-168.805 Y-296.632
X-169.692 Y-295.848
X-170.714 Y-295.058
X-171.785 Y-294.334
X-172.894 Y-293.672
X-174.035 Y-293.065
X-175.201 Y-292.51
X-176.389 Y-292
X-177.594 Y-291.534
X-178.814 Y-291.109
X-180.046 Y-290.72
X-181.289 Y-290.367
X-182.54 Y-290.047
X-183.8 Y-289.757
X-185.065 Y-289.497
X-186.336 Y-289.265
X-187.612 Y-289.06
X-188.892 Y-288.88
X-190.174 Y-288.726
X-191.46 Y-288.597
X-192.748 Y-288.491
X-194.037 Y-288.409
X-195.328 Y-288.351
X-196.619 Y-288.317
X-197.911 Y-288.306
X-199.203 Y-288.319
X-200.495 Y-288.356
X-201.785 Y-288.42
X-203.074 Y-288.509
X-204.361 Y-288.628
X-205.645 Y-288.776
X-206.924 Y-288.956
X-208.198 Y-289.171
X-209.465 Y-289.425
X-210.722 Y-289.722
X-211.966 Y-290.073
X-213.11 Y-290.462
X-213.974 Y-290.821
X-214.676 Y-291.168
X-215.091 Y-291.409
X-215.476 Y-291.673
X-215.818 Y-291.992
X-216.108 Y-292.357
X-216.341 Y-292.762
X-216.512 Y-293.197
X-216.615 Y-293.652
X-216.65 Y-294.118
Y-298.023
G3 X-215.511 Y-299.242 I1.269 J0.044
G1 X-166.75 Y-304.271
G3 X-165.35 Y-303.052 I0.13 J1.263
G1 Y-299.242
X-165.368 Y-298.876
X-165.411 Y-298.515
X-165.484 Y-298.116
X-165.593 Y-297.69
X-165.751 Y-297.204
X-165.95 Y-296.71
X-166.223 Y-296.141
X-166.545 Y-295.572
X-166.963 Y-294.936
X-167.466 Y-294.27
X-168.068 Y-293.575
X-168.806 Y-292.829
X-169.693 Y-292.044
X-170.716 Y-291.254
X-171.786 Y-290.53
X-172.896 Y-289.868
X-174.036 Y-289.261
X-175.203 Y-288.705
X-176.39 Y-288.196
X-177.595 Y-287.729
X-178.815 Y-287.303
X-180.047 Y-286.915
X-181.29 Y-286.561
X-182.541 Y-286.24
X-183.8 Y-285.95
X-185.066 Y-285.69
X-186.337 Y-285.457
X-187.613 Y-285.252
X-188.892 Y-285.072
X-190.175 Y-284.918
X-191.46 Y-284.788
X-192.748 Y-284.682
X-194.037 Y-284.599
X-195.328 Y-284.541
X-196.62 Y-284.506
X-197.912 Y-284.494
X-199.204 Y-284.507
X-200.495 Y-284.544
X-201.786 Y-284.607
X-203.075 Y-284.697
X-204.361 Y-284.814
X-205.645 Y-284.962
X-206.925 Y-285.142
X-208.199 Y-285.356
X-209.466 Y-285.61
X-210.723 Y-285.907
X-211.966 Y-286.259
X-213.146 Y-286.66
X-214.018 Y-287.023
X-214.721 Y-287.372
X-215.083 Y-287.583
X-215.47 Y-287.849
X-215.813 Y-288.169
X-216.105 Y-288.537
X-216.34 Y-288.944
X-216.511 Y-289.382
X-216.615 Y-289.84
X-216.65 Y-290.309
Y-294.118
G3 X-215.514 Y-295.337 I1.269 J0.044
G1 X-166.752 Y-300.461
G3 X-165.35 Y-299.242 I0.133 J1.263
G1 Y-295.433
X-165.368 Y-295.074
X-165.41 Y-294.713
X-165.484 Y-294.314
X-165.592 Y-293.888
X-165.751 Y-293.402
X-165.949 Y-292.908
X-166.223 Y-292.339
X-166.545 Y-291.769
X-166.963 Y-291.133
X-167.466 Y-290.467
X-168.069 Y-289.771
X-168.807 Y-289.024
X-169.695 Y-288.239
X-170.717 Y-287.449
X-171.788 Y-286.726
X-172.897 Y-286.063
X-174.038 Y-285.456
X-175.204 Y-284.9
X-176.391 Y-284.39
X-177.596 Y-283.924
X-178.816 Y-283.498
X-180.048 Y-283.109
X-181.291 Y-282.755
X-182.542 Y-282.433
X-183.801 Y-282.143
X-185.067 Y-281.882
X-186.338 Y-281.65
X-187.613 Y-281.444
X-188.893 Y-281.264
X-190.175 Y-281.109
X-191.461 Y-280.978
X-192.748 Y-280.872
X-194.038 Y-280.789
X-195.328 Y-280.73
X-196.62 Y-280.695
X-197.912 Y-280.683
X-199.204 Y-280.695
X-200.496 Y-280.732
X-201.786 Y-280.795
X-203.075 Y-280.884
X-204.362 Y-281.001
X-205.645 Y-281.148
X-206.925 Y-281.328
X-208.199 Y-281.542
X-209.466 Y-281.796
X-210.724 Y-282.093
X-211.967 Y-282.444
X-213.139 Y-282.841
X-214.008 Y-283.202
X-214.711 Y-283.55
X-215.074 Y-283.76
X-215.463 Y-284.027
X-215.809 Y-284.349
X-216.102 Y-284.719
X-216.338 Y-285.128
X-216.51 Y-285.568
X-216.615 Y-286.028
X-216.65 Y-286.499
Y-290.309
G3 X-215.514 Y-291.527 I1.269 J0.044
G1 X-166.752 Y-296.651
G3 X-165.35 Y-295.433 I0.133 J1.263
G1 Y-291.623
X-165.368 Y-291.272
X-165.41 Y-290.91
X-165.484 Y-290.511
X-165.592 Y-290.085
X-165.751 Y-289.599
X-165.949 Y-289.104
X-166.223 Y-288.535
X-166.545 Y-287.965
X-166.963 Y-287.329
X-167.467 Y-286.663
X-168.07 Y-285.967
X-168.808 Y-285.22
X-169.696 Y-284.434
X-170.719 Y-283.644
X-171.789 Y-282.921
X-172.899 Y-282.258
X-174.039 Y-281.651
X-175.205 Y-281.094
X-176.392 Y-280.585
X-177.597 Y-280.118
X-178.817 Y-279.691
X-180.049 Y-279.302
X-181.291 Y-278.948
X-182.543 Y-278.626
X-183.802 Y-278.336
X-185.067 Y-278.075
X-186.338 Y-277.842
X-187.613 Y-277.635
X-188.893 Y-277.455
X-190.176 Y-277.3
X-191.461 Y-277.169
X-192.749 Y-277.062
X-194.038 Y-276.979
X-195.329 Y-276.92
X-196.62 Y-276.884
X-197.912 Y-276.872
X-199.204 Y-276.884
X-200.496 Y-276.92
X-201.786 Y-276.982
X-203.075 Y-277.071
X-204.362 Y-277.188
X-205.646 Y-277.335
X-206.925 Y-277.514
X-208.2 Y-277.728
X-209.467 Y-277.981
X-210.724 Y-278.278
X-211.968 Y-278.629
X-213.136 Y-279.025
X-214.005 Y-279.385
X-214.707 Y-279.732
X-215.068 Y-279.942
X-215.459 Y-280.21
X-215.806 Y-280.532
X-216.1 Y-280.903
X-216.337 Y-281.314
X-216.509 Y-281.755
X-216.615 Y-282.217
X-216.65 Y-282.689
Y-286.499
G3 X-215.514 Y-287.718 I1.269 J0.044
G1 X-166.752 Y-292.842
G3 X-165.35 Y-291.623 I0.133 J1.263
G1 Y-287.813
X-165.367 Y-287.468
X-165.41 Y-287.107
X-165.483 Y-286.708
X-165.592 Y-286.281
X-165.75 Y-285.795
X-165.949 Y-285.301
X-166.223 Y-284.731
X-166.545 Y-284.161
X-166.963 Y-283.524
X-167.467 Y-282.858
X-168.07 Y-282.162
X-168.809 Y-281.414
X-169.698 Y-280.628
X-170.72 Y-279.838
X-171.791 Y-279.115
X-172.9 Y-278.452
X-174.04 Y-277.845
X-175.206 Y-277.288
X-176.393 Y-276.778
X-177.598 Y-276.312
X-178.818 Y-275.885
X-180.05 Y-275.495
X-181.292 Y-275.141
X-182.543 Y-274.819
X-183.802 Y-274.528
X-185.068 Y-274.267
X-186.338 Y-274.033
X-187.614 Y-273.827
X-188.893 Y-273.646
X-190.176 Y-273.49
X-191.461 Y-273.359
X-192.749 Y-273.252
X-194.038 Y-273.169
X-195.329 Y-273.109
X-196.62 Y-273.073
X-197.912 Y-273.061
X-199.204 Y-273.072
X-200.496 Y-273.109
X-201.787 Y-273.17
X-203.076 Y-273.259
X-204.362 Y-273.375
X-205.646 Y-273.522
X-206.926 Y-273.701
X-208.2 Y-273.915
X-209.467 Y-274.167
X-210.725 Y-274.464
X-211.968 Y-274.814
X-213.134 Y-275.209
X-214.002 Y-275.569
X-214.704 Y-275.917
X-215.064 Y-276.125
X-215.456 Y-276.394
X-215.803 Y-276.717
X-216.099 Y-277.089
X-216.336 Y-277.5
X-216.509 Y-277.943
X-216.615 Y-278.406
X-216.65 Y-278.879
Y-282.689
G3 X-215.514 Y-283.908 I1.269 J0.044
G1 X-166.752 Y-289.032
G3 X-165.35 Y-287.813 I0.133 J1.263
G1 Y-284.213
X-165.378 Y-283.653
X-165.42 Y-283.291
X-165.494 Y-282.894
X-165.602 Y-282.467
X-165.761 Y-281.982
X-165.959 Y-281.488
X-166.232 Y-280.92
X-166.555 Y-280.35
X-166.972 Y-279.714
X-167.476 Y-279.048
X-168.078 Y-278.352
X-168.817 Y-277.605
X-169.705 Y-276.82
X-170.727 Y-276.029
X-171.798 Y-275.306
X-172.907 Y-274.643
X-174.048 Y-274.036
X-175.214 Y-273.48
X-176.401 Y-272.97
X-177.605 Y-272.503
X-178.825 Y-272.076
X-180.057 Y-271.686
X-181.299 Y-271.332
X-182.551 Y-271.01
X-183.81 Y-270.719
X-185.075 Y-270.457
X-186.346 Y-270.224
X-187.621 Y-270.017
X-188.9 Y-269.836
X-190.183 Y-269.68
X-191.468 Y-269.549
X-192.756 Y-269.442
X-194.045 Y-269.358
X-195.336 Y-269.298
X-196.627 Y-269.262
X-197.919 Y-269.249
X-199.211 Y-269.261
X-200.503 Y-269.297
X-201.794 Y-269.359
X-203.083 Y-269.447
X-204.369 Y-269.563
X-205.653 Y-269.71
X-206.933 Y-269.889
X-208.207 Y-270.102
X-209.474 Y-270.355
X-210.732 Y-270.652
X-211.975 Y-271.002
X-213.137 Y-271.396
X-214.004 Y-271.756
X-214.705 Y-272.103
X-215.061 Y-272.31
X-215.454 Y-272.579
X-215.802 Y-272.903
X-216.098 Y-273.276
X-216.335 Y-273.688
X-216.509 Y-274.131
X-216.615 Y-274.595
X-216.65 Y-275.07
Y-278.879
G3 X-215.519 Y-280.098 I1.269 J0.044
G1 X-166.757 Y-285.431
G3 X-165.35 Y-284.213 I0.138 J1.262
G1 Y-280.403
X-165.378 Y-279.852
X-165.42 Y-279.49
X-165.494 Y-279.092
X-165.602 Y-278.665
X-165.761 Y-278.179
X-165.959 Y-277.685
X-166.233 Y-277.116
X-166.555 Y-276.546
X-166.973 Y-275.909
X-167.477 Y-275.243
X-168.08 Y-274.546
X-168.819 Y-273.799
X-169.708 Y-273.013
X-170.73 Y-272.223
X-171.801 Y-271.499
X-172.91 Y-270.836
X-174.05 Y-270.229
X-175.216 Y-269.672
X-176.403 Y-269.162
X-177.608 Y-268.695
X-178.828 Y-268.268
X-180.059 Y-267.878
X-181.302 Y-267.524
X-182.553 Y-267.201
X-183.812 Y-266.91
X-185.077 Y-266.648
X-186.348 Y-266.415
X-187.623 Y-266.208
X-188.903 Y-266.027
X-190.185 Y-265.871
X-191.47 Y-265.739
X-192.758 Y-265.632
X-194.047 Y-265.548
X-195.338 Y-265.488
X-196.63 Y-265.451
X-197.922 Y-265.438
X-199.214 Y-265.449
X-200.505 Y-265.485
X-201.796 Y-265.547
X-203.085 Y-265.635
X-204.372 Y-265.751
X-205.655 Y-265.897
X-206.935 Y-266.076
X-208.209 Y-266.289
X-209.476 Y-266.542
X-210.734 Y-266.839
X-211.978 Y-267.189
X-213.137 Y-267.583
X-214.004 Y-267.943
X-214.705 Y-268.29
X-215.058 Y-268.495
X-215.452 Y-268.764
X-215.8 Y-269.089
X-216.097 Y-269.463
X-216.335 Y-269.876
X-216.509 Y-270.32
X-216.614 Y-270.785
X-216.65 Y-271.26
Y-275.07
G3 X-215.519 Y-276.288 I1.269 J0.044
G1 X-166.757 Y-281.621
G3 X-165.35 Y-280.403 I0.138 J1.262
G1 Y-276.594
X-165.377 Y-276.048
X-165.42 Y-275.687
X-165.493 Y-275.288
X-165.602 Y-274.861
X-165.761 Y-274.375
X-165.959 Y-273.88
X-166.233 Y-273.311
X-166.555 Y-272.741
X-166.974 Y-272.104
X-167.478 Y-271.437
X-168.081 Y-270.74
X-168.821 Y-269.993
X-169.71 Y-269.206
X-170.732 Y-268.416
X-171.803 Y-267.692
X-172.912 Y-267.03
X-174.052 Y-266.422
X-175.218 Y-265.865
X-176.405 Y-265.355
X-177.61 Y-264.888
X-178.829 Y-264.46
X-180.061 Y-264.071
X-181.303 Y-263.716
X-182.554 Y-263.393
X-183.813 Y-263.102
X-185.078 Y-262.84
X-186.349 Y-262.606
X-187.624 Y-262.398
X-188.904 Y-262.217
X-190.186 Y-262.061
X-191.472 Y-261.929
X-192.759 Y-261.821
X-194.048 Y-261.737
X-195.339 Y-261.677
X-196.631 Y-261.64
X-197.923 Y-261.627
X-199.215 Y-261.638
X-200.506 Y-261.674
X-201.797 Y-261.735
X-203.086 Y-261.823
X-204.373 Y-261.939
X-205.656 Y-262.085
X-206.936 Y-262.263
X-208.21 Y-262.477
X-209.478 Y-262.729
X-210.735 Y-263.025
X-211.979 Y-263.376
X-213.137 Y-263.769
X-214.003 Y-264.129
X-214.704 Y-264.476
X-215.056 Y-264.68
X-215.45 Y-264.951
X-215.799 Y-265.276
X-216.096 Y-265.65
X-216.334 Y-266.064
X-216.508 Y-266.509
X-216.614 Y-266.974
X-216.65 Y-267.45
Y-271.26
G3 X-215.519 Y-272.478 I1.269 J0.044
G1 X-166.757 Y-277.812
G3 X-165.35 Y-276.594 I0.138 J1.262
G1 Y-272.784
X-165.377 Y-272.244
X-165.419 Y-271.882
X-165.493 Y-271.483
X-165.602 Y-271.056
X-165.76 Y-270.57
X-165.959 Y-270.075
X-166.233 Y-269.505
X-166.556 Y-268.935
X-166.974 Y-268.298
X-167.478 Y-267.631
X-168.082 Y-266.934
X-168.822 Y-266.186
X-169.711 Y-265.399
X-170.733 Y-264.609
X-171.804 Y-263.885
X-172.913 Y-263.222
X-174.053 Y-262.615
X-175.219 Y-262.058
X-176.406 Y-261.547
X-177.611 Y-261.08
X-178.83 Y-260.653
X-180.062 Y-260.263
X-181.304 Y-259.907
X-182.555 Y-259.585
X-183.814 Y-259.293
X-185.079 Y-259.031
X-186.35 Y-258.797
X-187.625 Y-258.589
X-188.904 Y-258.408
X-190.187 Y-258.251
X-191.472 Y-258.119
X-192.76 Y-258.011
X-194.049 Y-257.927
X-195.34 Y-257.866
X-196.631 Y-257.829
X-197.923 Y-257.816
X-199.215 Y-257.827
X-200.507 Y-257.862
X-201.797 Y-257.923
X-203.086 Y-258.01
X-204.373 Y-258.126
X-205.657 Y-258.272
X-206.937 Y-258.45
X-208.211 Y-258.664
X-209.478 Y-258.916
X-210.736 Y-259.213
X-211.979 Y-259.563
X-213.136 Y-259.956
X-214.002 Y-260.316
X-214.703 Y-260.663
X-215.053 Y-260.866
X-215.448 Y-261.137
X-215.798 Y-261.463
X-216.095 Y-261.837
X-216.334 Y-262.252
X-216.508 Y-262.697
X-216.614 Y-263.164
X-216.65 Y-263.641
Y-267.45
G3 X-215.519 Y-268.669 I1.269 J0.044
G1 X-166.757 Y-274.002
G3 X-165.35 Y-272.784 I0.138 J1.262
G1 Y-268.974
X-165.377 Y-268.438
X-165.419 Y-268.076
X-165.493 Y-267.677
X-165.601 Y-267.251
X-165.76 Y-266.764
X-165.959 Y-266.269
X-166.233 Y-265.699
X-166.556 Y-265.129
X-166.974 Y-264.491
X-167.478 Y-263.824
X-168.082 Y-263.127
X-168.822 Y-262.379
X-169.712 Y-261.591
X-170.735 Y-260.801
X-171.805 Y-260.078
X-172.914 Y-259.415
X-174.054 Y-258.807
X-175.22 Y-258.25
X-176.407 Y-257.74
X-177.612 Y-257.272
X-178.831 Y-256.845
X-180.063 Y-256.454
X-181.305 Y-256.099
X-182.556 Y-255.776
X-183.814 Y-255.484
X-185.08 Y-255.222
X-186.35 Y-254.987
X-187.625 Y-254.78
X-188.905 Y-254.598
X-190.187 Y-254.441
X-191.472 Y-254.309
X-192.76 Y-254.201
X-194.049 Y-254.116
X-195.34 Y-254.056
X-196.631 Y-254.018
X-197.923 Y-254.005
X-199.215 Y-254.015
X-200.507 Y-254.05
X-201.798 Y-254.111
X-203.087 Y-254.198
X-204.374 Y-254.314
X-205.657 Y-254.46
X-206.937 Y-254.638
X-208.211 Y-254.851
X-209.479 Y-255.104
X-210.736 Y-255.4
X-211.98 Y-255.751
X-213.136 Y-256.143
X-214.001 Y-256.503
X-214.702 Y-256.85
X-215.051 Y-257.053
X-215.446 Y-257.324
X-215.797 Y-257.65
X-216.095 Y-258.025
X-216.333 Y-258.44
X-216.508 Y-258.886
X-216.614 Y-259.353
X-216.65 Y-259.831
Y-263.641
G3 X-215.519 Y-264.859 I1.269 J0.044
G1 X-166.757 Y-270.192
G3 X-165.35 Y-268.974 I0.138 J1.262
G1 Y-265.165
X-165.377 Y-264.632
X-165.419 Y-264.27
X-165.493 Y-263.871
X-165.601 Y-263.444
X-165.76 Y-262.957
X-165.959 Y-262.463
X-166.233 Y-261.893
X-166.556 Y-261.322
X-166.974 Y-260.684
X-167.478 Y-260.017
X-168.083 Y-259.32
X-168.823 Y-258.571
X-169.713 Y-257.784
X-170.735 Y-256.994
X-171.806 Y-256.27
X-172.915 Y-255.607
X-174.055 Y-254.999
X-175.221 Y-254.442
X-176.408 Y-253.932
X-177.612 Y-253.464
X-178.831 Y-253.036
X-180.063 Y-252.646
X-181.305 Y-252.29
X-182.556 Y-251.967
X-183.815 Y-251.676
X-185.08 Y-251.413
X-186.351 Y-251.178
X-187.626 Y-250.97
X-188.905 Y-250.788
X-190.187 Y-250.631
X-191.473 Y-250.499
X-192.76 Y-250.391
X-194.049 Y-250.306
X-195.34 Y-250.245
X-196.632 Y-250.207
X-197.924 Y-250.193
X-199.216 Y-250.204
X-200.507 Y-250.239
X-201.798 Y-250.299
X-203.087 Y-250.387
X-204.374 Y-250.502
X-205.658 Y-250.648
X-206.937 Y-250.826
X-208.212 Y-251.039
X-209.479 Y-251.291
X-210.736 Y-251.588
X-211.98 Y-251.938
X-213.135 Y-252.331
X-214.001 Y-252.69
X-214.701 Y-253.037
X-215.049 Y-253.239
X-215.445 Y-253.51
X-215.795 Y-253.837
X-216.094 Y-254.213
X-216.333 Y-254.629
X-216.508 Y-255.075
X-216.614 Y-255.543
X-216.65 Y-256.021
Y-259.831
G3 X-215.519 Y-261.049 I1.269 J0.044
G1 X-166.757 Y-266.383
G3 X-165.35 Y-265.165 I0.138 J1.262
G1 Y-261.355
X-165.377 Y-260.825
X-165.419 Y-260.464
X-165.493 Y-260.064
X-165.601 Y-259.638
X-165.76 Y-259.15
X-165.959 Y-258.656
X-166.233 Y-258.086
X-166.556 Y-257.515
X-166.974 Y-256.877
X-167.479 Y-256.21
X-168.083 Y-255.512
X-168.824 Y-254.764
X-169.714 Y-253.976
X-170.736 Y-253.186
X-171.807 Y-252.462
X-172.916 Y-251.799
X-174.056 Y-251.191
X-175.222 Y-250.634
X-176.408 Y-250.123
X-177.613 Y-249.656
X-178.832 Y-249.228
X-180.064 Y-248.837
X-181.306 Y-248.482
X-182.557 Y-248.159
X-183.815 Y-247.866
X-185.08 Y-247.604
X-186.351 Y-247.369
X-187.626 Y-247.161
X-188.905 Y-246.978
X-190.188 Y-246.821
X-191.473 Y-246.689
X-192.76 Y-246.58
X-194.05 Y-246.495
X-195.34 Y-246.434
X-196.632 Y-246.396
X-197.924 Y-246.382
X-199.216 Y-246.392
X-200.507 Y-246.427
X-201.798 Y-246.488
X-203.087 Y-246.575
X-204.374 Y-246.69
X-205.658 Y-246.836
X-206.938 Y-247.014
X-208.212 Y-247.227
X-209.479 Y-247.479
X-210.737 Y-247.775
X-211.98 Y-248.126
X-213.135 Y-248.518
X-214 Y-248.877
X-214.7 Y-249.225
X-215.047 Y-249.426
X-215.443 Y-249.698
X-215.794 Y-250.025
X-216.093 Y-250.401
X-216.333 Y-250.817
X-216.508 Y-251.265
X-216.614 Y-251.733
X-216.65 Y-252.212
Y-256.021
G3 X-215.519 Y-257.239 I1.269 J0.044
G1 X-166.757 Y-262.573
G3 X-165.35 Y-261.355 I0.138 J1.262
G1 Y-257.545
X-165.376 Y-257.018
X-165.419 Y-256.657
X-165.493 Y-256.257
X-165.601 Y-255.83
X-165.76 Y-255.343
X-165.959 Y-254.848
X-166.233 Y-254.278
X-166.556 Y-253.707
X-166.974 Y-253.07
X-167.479 Y-252.402
X-168.083 Y-251.704
X-168.824 Y-250.956
X-169.715 Y-250.168
X-170.737 Y-249.378
X-171.807 Y-248.654
X-172.916 Y-247.991
X-174.056 Y-247.383
X-175.222 Y-246.826
X-176.409 Y-246.315
X-177.613 Y-245.847
X-178.832 Y-245.419
X-180.064 Y-245.028
X-181.306 Y-244.673
X-182.557 Y-244.349
X-183.816 Y-244.057
X-185.081 Y-243.794
X-186.351 Y-243.559
X-187.626 Y-243.351
X-188.905 Y-243.168
X-190.188 Y-243.011
X-191.473 Y-242.878
X-192.761 Y-242.77
X-194.05 Y-242.685
X-195.34 Y-242.623
X-196.632 Y-242.585
X-197.924 Y-242.571
X-199.216 Y-242.581
X-200.507 Y-242.616
X-201.798 Y-242.676
X-203.087 Y-242.763
X-204.374 Y-242.878
X-205.658 Y-243.024
X-206.938 Y-243.202
X-208.212 Y-243.415
X-209.479 Y-243.667
X-210.737 Y-243.963
X-211.98 Y-244.314
X-213.134 Y-244.706
X-213.999 Y-245.065
X-214.699 Y-245.412
X-215.045 Y-245.613
X-215.442 Y-245.885
X-215.793 Y-246.213
X-216.093 Y-246.589
X-216.332 Y-247.006
X-216.507 Y-247.454
X-216.614 Y-247.923
X-216.65 Y-248.402
Y-252.212
G3 X-215.519 Y-253.43 I1.269 J0.044
G1 X-166.757 Y-258.763
G3 X-165.35 Y-257.545 I0.138 J1.262
G1 Y-253.735
X-165.376 Y-253.211
X-165.419 Y-252.849
X-165.492 Y-252.449
X-165.601 Y-252.023
X-165.76 Y-251.535
X-165.959 Y-251.041
X-166.233 Y-250.471
X-166.556 Y-249.9
X-166.974 Y-249.262
X-167.479 Y-248.594
X-168.084 Y-247.896
X-168.825 Y-247.147
X-169.715 Y-246.359
X-170.738 Y-245.569
X-171.808 Y-244.846
X-172.917 Y-244.182
X-174.057 Y-243.575
X-175.223 Y-243.017
X-176.409 Y-242.506
X-177.614 Y-242.038
X-178.833 Y-241.61
X-180.064 Y-241.219
X-181.306 Y-240.863
X-182.557 Y-240.54
X-183.816 Y-240.248
X-185.081 Y-239.985
X-186.351 Y-239.749
X-187.627 Y-239.541
X-188.906 Y-239.358
X-190.188 Y-239.201
X-191.473 Y-239.068
X-192.761 Y-238.959
X-194.05 Y-238.874
X-195.341 Y-238.812
X-196.632 Y-238.774
X-197.924 Y-238.76
X-199.216 Y-238.77
X-200.508 Y-238.805
X-201.798 Y-238.865
X-203.087 Y-238.951
X-204.374 Y-239.067
X-205.658 Y-239.212
X-206.938 Y-239.39
X-208.212 Y-239.603
X-209.48 Y-239.855
X-210.737 Y-240.151
X-211.981 Y-240.502
X-213.134 Y-240.894
X-213.998 Y-241.253
X-214.699 Y-241.6
X-215.044 Y-241.801
X-215.441 Y-242.073
X-215.793 Y-242.401
X-216.092 Y-242.778
X-216.332 Y-243.195
X-216.507 Y-243.643
X-216.614 Y-244.112
X-216.65 Y-244.592
Y-248.402
G3 X-215.519 Y-249.62 I1.269 J0.044
G1 X-166.757 Y-254.954
G3 X-165.35 Y-253.735 I0.138 J1.262
G1 Y-249.926
X-165.376 Y-249.403
X-165.418 Y-249.042
X-165.492 Y-248.642
X-165.601 Y-248.215
X-165.76 Y-247.728
X-165.959 Y-247.233
X-166.233 Y-246.663
X-166.556 Y-246.092
X-166.975 Y-245.454
X-167.479 Y-244.786
X-168.084 Y-244.088
X-168.825 Y-243.339
X-169.716 Y-242.551
X-170.738 Y-241.76
X-171.809 Y-241.037
X-172.918 Y-240.374
X-174.058 Y-239.766
X-175.223 Y-239.208
X-176.41 Y-238.697
X-177.614 Y-238.229
X-178.833 Y-237.801
X-180.065 Y-237.41
X-181.307 Y-237.054
X-182.558 Y-236.731
X-183.816 Y-236.438
X-185.081 Y-236.175
X-186.352 Y-235.94
X-187.627 Y-235.731
X-188.906 Y-235.548
X-190.188 Y-235.391
X-191.473 Y-235.258
X-192.761 Y-235.149
X-194.05 Y-235.063
X-195.341 Y-235.002
X-196.632 Y-234.963
X-197.924 Y-234.949
X-199.216 Y-234.959
X-200.508 Y-234.993
X-201.798 Y-235.053
X-203.088 Y-235.14
X-204.374 Y-235.255
X-205.658 Y-235.4
X-206.938 Y-235.578
X-208.212 Y-235.791
X-209.48 Y-236.043
X-210.737 Y-236.339
X-211.981 Y-236.69
X-213.133 Y-237.082
X-213.998 Y-237.441
X-214.698 Y-237.788
X-215.042 Y-237.988
X-215.439 Y-238.261
X-215.792 Y-238.589
X-216.091 Y-238.966
X-216.332 Y-239.384
X-216.507 Y-239.832
X-216.614 Y-240.302
X-216.65 Y-240.783
Y-244.592
G3 X-215.519 Y-245.81 I1.269 J0.044
G1 X-166.757 Y-251.144
G3 X-165.35 Y-249.926 I0.138 J1.262
G1 Y-246.116
X-165.376 Y-245.595
X-165.418 Y-245.234
X-165.492 Y-244.833
X-165.601 Y-244.407
X-165.76 Y-243.919
X-165.959 Y-243.425
X-166.233 Y-242.854
X-166.556 Y-242.283
X-166.975 Y-241.645
X-167.479 Y-240.978
X-168.084 Y-240.279
X-168.825 Y-239.53
X-169.716 Y-238.742
X-170.739 Y-237.952
X-171.809 Y-237.228
X-172.918 Y-236.565
X-174.058 Y-235.957
X-175.224 Y-235.399
X-176.41 Y-234.888
X-177.615 Y-234.42
X-178.834 Y-233.992
X-180.065 Y-233.601
X-181.307 Y-233.245
X-182.558 Y-232.921
X-183.816 Y-232.628
X-185.081 Y-232.365
X-186.352 Y-232.13
X-187.627 Y-231.921
X-188.906 Y-231.738
X-190.188 Y-231.58
X-191.474 Y-231.447
X-192.761 Y-231.338
X-194.05 Y-231.253
X-195.341 Y-231.191
X-196.632 Y-231.152
X-197.924 Y-231.138
X-199.216 Y-231.148
X-200.508 Y-231.182
X-201.799 Y-231.242
X-203.088 Y-231.328
X-204.375 Y-231.443
X-205.658 Y-231.589
X-206.938 Y-231.766
X-208.213 Y-231.979
X-209.48 Y-232.231
X-210.737 Y-232.528
X-211.981 Y-232.878
X-213.133 Y-233.27
X-213.997 Y-233.629
X-214.698 Y-233.976
X-215.041 Y-234.176
X-215.438 Y-234.448
X-215.791 Y-234.777
X-216.091 Y-235.155
X-216.331 Y-235.573
X-216.507 Y-236.022
X-216.614 Y-236.492
X-216.65 Y-236.973
Y-240.783
G3 X-215.519 Y-242.001 I1.269 J0.044
G1 X-166.757 Y-247.334
G3 X-165.35 Y-246.116 I0.138 J1.262
G1 Y-242.306
X-165.376 Y-241.787
X-165.418 Y-241.425
X-165.492 Y-241.025
X-165.601 Y-240.599
X-165.76 Y-240.111
X-165.959 Y-239.616
X-166.233 Y-239.046
X-166.556 Y-238.475
X-166.975 Y-237.837
X-167.479 Y-237.169
X-168.084 Y-236.471
X-168.826 Y-235.721
X-169.717 Y-234.933
X-170.739 Y-234.143
X-171.81 Y-233.419
X-172.919 Y-232.756
X-174.059 Y-232.148
X-175.224 Y-231.59
X-176.411 Y-231.079
X-177.615 Y-230.611
X-178.834 Y-230.182
X-180.065 Y-229.791
X-181.307 Y-229.435
X-182.558 Y-229.111
X-183.817 Y-228.819
X-185.082 Y-228.555
X-186.352 Y-228.32
X-187.627 Y-228.111
X-188.906 Y-227.928
X-190.189 Y-227.77
X-191.474 Y-227.637
X-192.761 Y-227.528
X-194.05 Y-227.442
X-195.341 Y-227.38
X-196.632 Y-227.342
X-197.924 Y-227.327
X-199.216 Y-227.336
X-200.508 Y-227.371
X-201.799 Y-227.43
X-203.088 Y-227.517
X-204.375 Y-227.632
X-205.659 Y-227.777
X-206.938 Y-227.955
X-208.213 Y-228.168
X-209.48 Y-228.42
X-210.738 Y-228.716
X-211.981 Y-229.067
X-213.132 Y-229.458
X-213.997 Y-229.817
X-214.697 Y-230.165
X-215.039 Y-230.364
X-215.437 Y-230.637
X-215.79 Y-230.966
X-216.09 Y-231.344
X-216.331 Y-231.762
X-216.507 Y-232.211
X-216.614 Y-232.682
X-216.65 Y-233.163
Y-236.973
G3 X-215.519 Y-238.191 I1.269 J0.044
G1 X-166.757 Y-243.525
G3 X-165.35 Y-242.306 I0.138 J1.262
G1 Y-238.497
X-165.376 Y-237.978
X-165.418 Y-237.617
X-165.492 Y-237.217
X-165.601 Y-236.79
X-165.76 Y-236.302
X-165.959 Y-235.808
X-166.233 Y-235.237
X-166.556 Y-234.666
X-166.975 Y-234.028
X-167.48 Y-233.36
X-168.085 Y-232.662
X-168.826 Y-231.912
X-169.717 Y-231.123
X-170.74 Y-230.333
X-171.81 Y-229.61
X-172.919 Y-228.946
X-174.059 Y-228.338
X-175.225 Y-227.781
X-176.411 Y-227.27
X-177.615 Y-226.801
X-178.834 Y-226.373
X-180.066 Y-225.982
X-181.308 Y-225.625
X-182.559 Y-225.302
X-183.817 Y-225.009
X-185.082 Y-224.745
X-186.352 Y-224.509
X-187.627 Y-224.301
X-188.906 Y-224.118
X-190.189 Y-223.96
X-191.474 Y-223.826
X-192.761 Y-223.717
X-194.05 Y-223.631
X-195.341 Y-223.569
X-196.632 Y-223.531
X-197.924 Y-223.516
X-199.216 Y-223.525
X-200.508 Y-223.559
X-201.799 Y-223.619
X-203.088 Y-223.706
X-204.375 Y-223.821
X-205.659 Y-223.966
X-206.939 Y-224.143
X-208.213 Y-224.356
X-209.48 Y-224.608
X-210.738 Y-224.904
X-211.981 Y-225.255
X-213.132 Y-225.646
X-213.996 Y-226.006
X-214.696 Y-226.353
X-215.038 Y-226.551
X-215.436 Y-226.825
X-215.79 Y-227.154
X-216.09 Y-227.532
X-216.331 Y-227.951
X-216.507 Y-228.401
X-216.614 Y-228.872
X-216.65 Y-229.353
Y-233.163
G3 X-215.519 Y-234.381 I1.269 J0.044
G1 X-166.757 Y-239.715
G3 X-165.35 Y-238.497 I0.138 J1.262
G1 Y-234.687
X-165.376 Y-234.17
X-165.418 Y-233.808
X-165.492 Y-233.408
X-165.601 Y-232.982
X-165.76 Y-232.494
X-165.958 Y-231.999
X-166.233 Y-231.428
X-166.556 Y-230.857
X-166.975 Y-230.219
X-167.48 Y-229.551
X-168.085 Y-228.852
X-168.826 Y-228.103
X-169.718 Y-227.314
X-170.74 Y-226.524
X-171.811 Y-225.8
X-172.919 Y-225.137
X-174.059 Y-224.529
X-175.225 Y-223.971
X-176.411 Y-223.46
X-177.616 Y-222.992
X-178.835 Y-222.563
X-180.066 Y-222.172
X-181.308 Y-221.816
X-182.559 Y-221.492
X-183.817 Y-221.199
X-185.082 Y-220.935
X-186.352 Y-220.699
X-187.627 Y-220.49
X-188.906 Y-220.307
X-190.189 Y-220.149
X-191.474 Y-220.016
X-192.761 Y-219.906
X-194.051 Y-219.82
X-195.341 Y-219.758
X-196.633 Y-219.72
X-197.925 Y-219.705
X-199.217 Y-219.714
X-200.508 Y-219.748
X-201.799 Y-219.808
X-203.088 Y-219.894
X-204.375 Y-220.009
X-205.659 Y-220.154
X-206.939 Y-220.332
X-208.213 Y-220.545
X-209.48 Y-220.797
X-210.738 Y-221.093
X-211.981 Y-221.444
X-213.131 Y-221.835
X-213.996 Y-222.194
X-214.696 Y-222.541
X-215.037 Y-222.74
X-215.435 Y-223.013
X-215.789 Y-223.343
X-216.09 Y-223.721
X-216.331 Y-224.14
X-216.507 Y-224.59
X-216.614 Y-225.062
X-216.65 Y-225.544
Y-229.353
G3 X-215.519 Y-230.572 I1.269 J0.044
G1 X-166.757 Y-235.905
G3 X-165.35 Y-234.687 I0.138 J1.262
G1 Y-230.877
X-165.376 Y-230.361
X-165.418 Y-229.999
X-165.492 Y-229.599
X-165.601 Y-229.173
X-165.76 Y-228.685
X-165.958 Y-228.19
X-166.233 Y-227.619
X-166.556 Y-227.048
X-166.975 Y-226.41
X-167.48 Y-225.742
X-168.085 Y-225.043
X-168.827 Y-224.294
X-169.718 Y-223.505
X-170.741 Y-222.714
X-171.811 Y-221.991
X-172.92 Y-221.328
X-174.06 Y-220.719
X-175.225 Y-220.162
X-176.412 Y-219.65
X-177.616 Y-219.182
X-178.835 Y-218.753
X-180.066 Y-218.362
X-181.308 Y-218.006
X-182.559 Y-217.682
X-183.817 Y-217.389
X-185.082 Y-217.125
X-186.353 Y-216.889
X-187.628 Y-216.68
X-188.907 Y-216.497
X-190.189 Y-216.339
X-191.474 Y-216.205
X-192.761 Y-216.096
X-194.051 Y-216.01
X-195.341 Y-215.947
X-196.633 Y-215.909
X-197.925 Y-215.894
X-199.217 Y-215.903
X-200.508 Y-215.937
X-201.799 Y-215.997
X-203.088 Y-216.083
X-204.375 Y-216.198
X-205.659 Y-216.343
X-206.939 Y-216.52
X-208.213 Y-216.733
X-209.48 Y-216.985
X-210.738 Y-217.282
X-211.981 Y-217.633
X-213.131 Y-218.023
X-213.995 Y-218.383
X-214.696 Y-218.73
X-215.036 Y-218.928
X-215.435 Y-219.201
X-215.788 Y-219.531
X-216.089 Y-219.91
X-216.33 Y-220.329
X-216.507 Y-220.78
X-216.614 Y-221.252
X-216.65 Y-221.734
Y-225.544
G3 X-215.519 Y-226.762 I1.269 J0.044
G1 X-166.757 Y-232.095
G3 X-165.35 Y-230.877 I0.138 J1.262
G1 Y-227.068
X-165.376 Y-226.552
X-165.418 Y-226.19
X-165.492 Y-225.79
X-165.601 Y-225.363
X-165.76 Y-224.875
X-165.958 Y-224.381
X-166.233 Y-223.81
X-166.556 Y-223.239
X-166.975 Y-222.6
X-167.48 Y-221.933
X-168.085 Y-221.234
X-168.827 Y-220.484
X-169.719 Y-219.695
X-170.741 Y-218.905
X-171.811 Y-218.181
X-172.92 Y-217.518
X-174.06 Y-216.91
X-175.226 Y-216.352
X-176.412 Y-215.841
X-177.616 Y-215.372
X-178.835 Y-214.944
X-180.067 Y-214.552
X-181.308 Y-214.196
X-182.559 Y-213.872
X-183.818 Y-213.579
X-185.082 Y-213.315
X-186.353 Y-213.079
X-187.628 Y-212.87
X-188.907 Y-212.686
X-190.189 Y-212.528
X-191.474 Y-212.395
X-192.762 Y-212.285
X-194.051 Y-212.199
X-195.341 Y-212.137
X-196.633 Y-212.098
X-197.925 Y-212.083
X-199.217 Y-212.092
X-200.508 Y-212.126
X-201.799 Y-212.186
X-203.088 Y-212.272
X-204.375 Y-212.387
X-205.659 Y-212.532
X-206.939 Y-212.709
X-208.213 Y-212.922
X-209.481 Y-213.174
X-210.738 Y-213.47
X-211.982 Y-213.821
X-213.131 Y-214.212
X-213.995 Y-214.571
X-214.695 Y-214.919
X-215.035 Y-215.116
X-215.434 Y-215.39
X-215.788 Y-215.72
X-216.089 Y-216.099
X-216.33 Y-216.519
X-216.507 Y-216.97
X-216.614 Y-217.442
X-216.65 Y-217.924
Y-221.734
G3 X-215.519 Y-222.952 I1.269 J0.044
G1 X-166.757 Y-228.286
G3 X-165.35 Y-227.068 I0.138 J1.262
G1 Y-223.258
X-165.376 Y-222.742
X-165.418 Y-222.381
X-165.492 Y-221.98
X-165.601 Y-221.554
X-165.76 Y-221.066
X-165.958 Y-220.571
X-166.233 Y-220.001
X-166.556 Y-219.429
X-166.975 Y-218.791
X-167.48 Y-218.123
X-168.085 Y-217.424
X-168.827 Y-216.674
X-169.719 Y-215.885
X-170.741 Y-215.095
X-171.812 Y-214.371
X-172.92 Y-213.708
X-174.06 Y-213.1
X-175.226 Y-212.542
X-176.412 Y-212.031
X-177.617 Y-211.562
X-178.835 Y-211.134
X-180.067 Y-210.742
X-181.309 Y-210.386
X-182.559 Y-210.062
X-183.818 Y-209.768
X-185.083 Y-209.504
X-186.353 Y-209.268
X-187.628 Y-209.059
X-188.907 Y-208.876
X-190.189 Y-208.718
X-191.474 Y-208.584
X-192.762 Y-208.474
X-194.051 Y-208.388
X-195.341 Y-208.326
X-196.633 Y-208.287
X-197.925 Y-208.272
X-199.217 Y-208.281
X-200.508 Y-208.315
X-201.799 Y-208.375
X-203.088 Y-208.461
X-204.375 Y-208.576
X-205.659 Y-208.721
X-206.939 Y-208.898
X-208.213 Y-209.111
X-209.481 Y-209.363
X-210.738 Y-209.659
X-211.982 Y-210.01
X-213.131 Y-210.401
X-213.994 Y-210.76
X-214.695 Y-211.107
X-215.033 Y-211.304
X-215.433 Y-211.578
X-215.787 Y-211.909
X-216.088 Y-212.288
X-216.33 Y-212.708
X-216.506 Y-213.159
X-216.614 Y-213.632
X-216.65 Y-214.115
Y-217.924
G3 X-215.519 Y-219.143 I1.269 J0.044
G1 X-166.757 Y-224.476
G3 X-165.35 Y-223.258 I0.138 J1.262
G1 Y-219.448
X-165.376 Y-218.933
