%
(1001)
(origin stock bottom)
(T1  D=6.15 CR=0 - ZMIN=0 - flat end mill)
G90 G94
G17
G21

(2D Contour2)
M9
T1 M6
S6000 M3
G54
M8
G0 X-178.165 Y-504.075
Z33
Z23
G1 Z21 F333.3
Z20.5
X-203.686 Z16 F350
X-241 F850
G2 X-244.075 Y-501 J3.075
G1 Y-289
G2 X-241 Y-285.925 I3.075
G1 X-141
G2 X-137.925 Y-289 J-3.075
G1 Y-501
G2 X-141 Y-504.075 I-3.075
G1 X-203.686
G0 Z23
X-56.37 Y-16.925
G1 Z21 F333.3
Z20.5
X-30.849 Z16 F350
X-20 F850
G2 X-16.925 Y-20 J-3.075
G1 Y-580
G2 X-20 Y-583.075 I-3.075
G1 X-164
G2 X-167.075 Y-579.962 J3.075
G1 X-167.057 Y-578.519
X-167.055 Y-578.435
X-167 Y-577.049
X-166.996 Y-576.983
X-166.955 Y-576.312
X-166.952 Y-576.262
X-166.901 Y-575.604
X-166.897 Y-575.561
X-166.838 Y-574.918
X-166.833 Y-574.868
X-166.765 Y-574.24
X-166.759 Y-574.189
X-166.682 Y-573.574
X-166.675 Y-573.52
X-166.589 Y-572.919
X-166.581 Y-572.868
X-166.487 Y-572.282
X-166.477 Y-572.22
X-166.373 Y-571.647
X-166.362 Y-571.592
X-166.25 Y-571.033
X-166.238 Y-570.976
X-166.118 Y-570.431
X-166.103 Y-570.366
X-165.974 Y-569.835
X-165.959 Y-569.775
X-165.822 Y-569.257
X-165.804 Y-569.193
X-165.659 Y-568.689
X-165.638 Y-568.619
X-165.484 Y-568.128
X-165.464 Y-568.065
X-165.303 Y-567.588
X-165.279 Y-567.521
X-165.11 Y-567.056
X-165.082 Y-566.983
X-164.905 Y-566.532
X-164.877 Y-566.461
X-164.692 Y-566.022
X-164.66 Y-565.95
X-164.468 Y-565.525
X-164.436 Y-565.456
X-164.237 Y-565.043
X-164.202 Y-564.973
X-163.996 Y-564.572
X-163.954 Y-564.492
X-163.74 Y-564.104
X-163.701 Y-564.036
X-163.481 Y-563.66
X-163.434 Y-563.583
X-163.207 Y-563.22
X-163.161 Y-563.148
X-162.927 Y-562.796
X-162.882 Y-562.73
X-162.643 Y-562.39
X-162.583 Y-562.308
X-162.336 Y-561.98
X-162.287 Y-561.917
X-162.035 Y-561.599
X-161.979 Y-561.531
X-161.721 Y-561.225
X-161.658 Y-561.153
X-161.394 Y-560.859
X-161.339 Y-560.798
X-161.07 Y-560.514
X-160.999 Y-560.443
X-160.724 Y-560.171
X-160.659 Y-560.108
X-160.378 Y-559.846
X-160.318 Y-559.791
X-160.033 Y-559.539
X-159.961 Y-559.478
X-159.671 Y-559.237
X-159.602 Y-559.181
X-159.307 Y-558.95
X-159.235 Y-558.895
X-158.935 Y-558.674
X-158.87 Y-558.628
X-158.566 Y-558.416
X-158.493 Y-558.367
X-158.185 Y-558.165
X-158.117 Y-558.121
X-157.805 Y-557.928
X-157.697 Y-557.864
X-157.06 Y-557.505
X-156.917 Y-557.429
X-156.266 Y-557.106
X-156.133 Y-557.045
X-155.469 Y-556.754
X-155.335 Y-556.699
X-154.659 Y-556.44
X-154.533 Y-556.394
X-153.847 Y-556.165
X-153.726 Y-556.128
X-153.03 Y-555.927
X-152.92 Y-555.897
X-152.217 Y-555.722
X-152.109 Y-555.697
X-151.398 Y-555.547
X-151.3 Y-555.528
X-150.584 Y-555.401
X-150.494 Y-555.387
X-149.773 Y-555.281
X-149.697 Y-555.27
X-148.972 Y-555.182
X-148.891 Y-555.174
X-148.163 Y-555.105
X-148.104 Y-555.1
X-147.373 Y-555.045
X-147.314 Y-555.041
X-146.582 Y-555
X-146.513 Y-554.997
X-145.045 Y-554.948
X-144.98 Y-554.946
X-143.51 Y-554.928
X-143.478
X-142.006 Y-554.925
X-140.55 Y-554.922
X-139.128 Y-554.905
X-137.727 Y-554.858
X-137.059 Y-554.82
X-136.387 Y-554.77
X-135.729 Y-554.708
X-135.083 Y-554.629
X-134.445 Y-554.535
X-133.823 Y-554.425
X-133.215 Y-554.297
X-132.621 Y-554.149
X-132.041 Y-553.981
X-131.478 Y-553.794
X-130.933 Y-553.584
X-130.402 Y-553.352
X-129.889 Y-553.097
X-129.377 Y-552.809
X-129.153 Y-552.67
X-128.916 Y-552.515
X-128.681 Y-552.351
X-128.449 Y-552.18
X-128.225 Y-552.005
X-128.006 Y-551.822
X-127.786 Y-551.628
X-127.568 Y-551.425
X-127.361 Y-551.22
X-127.155 Y-551.002
X-126.95 Y-550.774
X-126.751 Y-550.539
X-126.552 Y-550.288
X-126.36 Y-550.032
X-126.173 Y-549.766
X-125.984 Y-549.483
X-125.804 Y-549.195
X-125.627 Y-548.892
X-125.453 Y-548.578
X-125.286 Y-548.252
X-125.121 Y-547.908
X-124.96 Y-547.554
X-124.805 Y-547.186
X-124.657 Y-546.807
X-124.513 Y-546.412
X-124.374 Y-546
X-124.241 Y-545.576
X-124.115 Y-545.139
X-123.995 Y-544.683
X-123.881 Y-544.214
X-123.774 Y-543.73
X-123.674 Y-543.227
X-123.58 Y-542.713
X-123.495 Y-542.184
X-123.417 Y-541.635
X-123.346 Y-541.072
X-123.284 Y-540.495
X-123.229 Y-539.899
X-123.182 Y-539.287
X-123.144 Y-538.674
X-123.092 Y-537.363
X-123.075 Y-535.981
Y-64.019
X-123.092 Y-62.637
X-123.144 Y-61.326
X-123.182 Y-60.712
X-123.229 Y-60.102
X-123.284 Y-59.505
X-123.346 Y-58.927
X-123.417 Y-58.365
X-123.495 Y-57.817
X-123.58 Y-57.287
X-123.674 Y-56.773
X-123.774 Y-56.27
X-123.881 Y-55.786
X-123.995 Y-55.317
X-124.115 Y-54.862
X-124.241 Y-54.424
X-124.374 Y-54
X-124.513 Y-53.588
X-124.657 Y-53.193
X-124.805 Y-52.814
X-124.961 Y-52.446
X-125.121 Y-52.091
X-125.286 Y-51.749
X-125.453 Y-51.423
X-125.627 Y-51.109
X-125.805 Y-50.805
X-125.985 Y-50.516
X-126.172 Y-50.234
X-126.36 Y-49.967
X-126.552 Y-49.711
X-126.75 Y-49.462
X-126.95 Y-49.226
X-127.154 Y-48.998
X-127.361 Y-48.78
X-127.569 Y-48.574
X-127.785 Y-48.372
X-128.005 Y-48.178
X-128.226 Y-47.995
X-128.451 Y-47.819
X-128.68 Y-47.649
X-128.915 Y-47.486
X-129.153 Y-47.329
X-129.376 Y-47.192
X-129.889 Y-46.903
X-130.402 Y-46.648
X-130.932 Y-46.416
X-131.479 Y-46.207
X-132.041 Y-46.019
X-132.621 Y-45.852
X-133.215 Y-45.704
X-133.824 Y-45.575
X-134.447 Y-45.465
X-135.082 Y-45.371
X-135.73 Y-45.293
X-136.389 Y-45.23
X-137.059 Y-45.18
X-137.728 Y-45.142
X-139.128 Y-45.095
X-140.55 Y-45.078
X-143.477 Y-45.072
X-143.51
X-144.98 Y-45.054
X-145.045 Y-45.053
X-146.513 Y-45.003
X-146.582 Y-45
X-147.314 Y-44.959
X-147.371 Y-44.955
X-148.102 Y-44.901
X-148.167 Y-44.895
X-148.895 Y-44.825
X-148.968 Y-44.817
X-149.693 Y-44.73
X-149.775 Y-44.719
X-150.496 Y-44.613
X-150.585 Y-44.598
X-151.301 Y-44.471
X-151.398 Y-44.452
X-152.109 Y-44.302
X-152.216 Y-44.278
X-152.919 Y-44.103
X-153.03 Y-44.073
X-153.726 Y-43.872
X-153.847 Y-43.834
X-154.533 Y-43.605
X-154.659 Y-43.56
X-155.335 Y-43.301
X-155.468 Y-43.247
X-156.132 Y-42.956
X-156.268 Y-42.893
X-156.919 Y-42.569
X-157.058 Y-42.495
X-157.695 Y-42.137
X-157.804 Y-42.073
X-158.116 Y-41.88
X-158.186 Y-41.835
X-158.494 Y-41.633
X-158.564 Y-41.586
X-158.868 Y-41.374
X-158.936 Y-41.325
X-159.236 Y-41.104
X-159.308 Y-41.049
X-159.603 Y-40.818
X-159.672 Y-40.762
X-159.962 Y-40.521
X-160.031 Y-40.462
X-160.316 Y-40.21
X-160.378 Y-40.154
X-160.659 Y-39.892
X-160.727 Y-39.827
X-161.002 Y-39.554
X-161.067 Y-39.487
X-161.336 Y-39.204
X-161.395 Y-39.14
X-161.659 Y-38.846
X-161.719 Y-38.777
X-161.977 Y-38.471
X-162.035 Y-38.401
X-162.286 Y-38.085
X-162.337 Y-38.019
X-162.584 Y-37.691
X-162.643 Y-37.61
X-162.882 Y-37.27
X-162.926 Y-37.205
X-163.16 Y-36.853
X-163.209 Y-36.778
X-163.436 Y-36.415
X-163.481 Y-36.34
X-163.701 Y-35.964
X-163.74 Y-35.896
X-163.954 Y-35.508
X-163.995 Y-35.429
X-164.201 Y-35.029
X-164.237 Y-34.957
X-164.436 Y-34.544
X-164.469 Y-34.474
X-164.661 Y-34.048
X-164.691 Y-33.979
X-164.876 Y-33.54
X-164.906 Y-33.468
X-165.083 Y-33.016
X-165.11 Y-32.945
X-165.279 Y-32.481
X-165.303 Y-32.412
X-165.464 Y-31.934
X-165.484 Y-31.872
X-165.638 Y-31.381
X-165.659 Y-31.311
X-165.804 Y-30.807
X-165.822 Y-30.743
X-165.959 Y-30.225
X-165.974 Y-30.164
X-166.103 Y-29.633
X-166.118 Y-29.569
X-166.238 Y-29.024
X-166.25 Y-28.967
X-166.362 Y-28.408
X-166.373 Y-28.353
X-166.477 Y-27.781
X-166.487 Y-27.718
X-166.581 Y-27.131
X-166.589 Y-27.08
X-166.675 Y-26.48
X-166.682 Y-26.426
X-166.759 Y-25.812
X-166.765 Y-25.76
X-166.833 Y-25.131
X-166.838 Y-25.082
X-166.897 Y-24.439
X-166.901 Y-24.396
X-166.952 Y-23.738
X-166.955 Y-23.688
X-166.996 Y-23.016
X-167 Y-22.951
X-167.055 Y-21.565
X-167.057 Y-21.482
X-167.075 Y-20.038
G2 X-164 Y-16.925 I3.075 J0.038
G1 X-30.849
X-20 Z15.854 F350
G2 X-16.925 Y-20 Z15.789 J-3.075
G1 Y-152.875 Z14
Y-580 F850
G2 X-20 Y-583.075 I-3.075
G1 X-164
G2 X-167.075 Y-579.962 J3.075
G1 X-167.057 Y-578.519
X-167.055 Y-578.435
X-167 Y-577.049
X-166.996 Y-576.983
X-166.955 Y-576.312
X-166.952 Y-576.262
X-166.901 Y-575.604
X-166.897 Y-575.561
X-166.838 Y-574.918
X-166.833 Y-574.868
X-166.765 Y-574.24
X-166.759 Y-574.189
X-166.682 Y-573.574
X-166.675 Y-573.52
X-166.589 Y-572.919
X-166.581 Y-572.868
X-166.487 Y-572.282
X-166.477 Y-572.22
X-166.373 Y-571.647
X-166.362 Y-571.592
X-166.25 Y-571.033
X-166.238 Y-570.976
X-166.118 Y-570.431
X-166.103 Y-570.366
X-165.974 Y-569.835
X-165.959 Y-569.775
X-165.822 Y-569.257
X-165.804 Y-569.193
X-165.659 Y-568.689
X-165.638 Y-568.619
X-165.484 Y-568.128
X-165.464 Y-568.065
X-165.303 Y-567.588
X-165.279 Y-567.521
X-165.11 Y-567.056
X-165.082 Y-566.983
X-164.905 Y-566.532
X-164.877 Y-566.461
X-164.692 Y-566.022
X-164.66 Y-565.95
X-164.468 Y-565.525
X-164.436 Y-565.456
X-164.237 Y-565.043
X-164.202 Y-564.973
X-163.996 Y-564.572
X-163.954 Y-564.492
X-163.74 Y-564.104
X-163.701 Y-564.036
X-163.481 Y-563.66
X-163.434 Y-563.583
X-163.207 Y-563.22
X-163.161 Y-563.148
X-162.927 Y-562.796
X-162.882 Y-562.73
X-162.643 Y-562.39
X-162.583 Y-562.308
X-162.336 Y-561.98
X-162.287 Y-561.917
X-162.035 Y-561.599
X-161.979 Y-561.531
X-161.721 Y-561.225
X-161.658 Y-561.153
X-161.394 Y-560.859
X-161.339 Y-560.798
X-161.07 Y-560.514
X-160.999 Y-560.443
X-160.724 Y-560.171
X-160.659 Y-560.108
X-160.378 Y-559.846
X-160.318 Y-559.791
X-160.033 Y-559.539
X-159.961 Y-559.478
X-159.671 Y-559.237
X-159.602 Y-559.181
X-159.307 Y-558.95
X-159.235 Y-558.895
X-158.935 Y-558.674
X-158.87 Y-558.628
X-158.566 Y-558.416
X-158.493 Y-558.367
X-158.185 Y-558.165
X-158.117 Y-558.121
X-157.805 Y-557.928
X-157.697 Y-557.864
X-157.06 Y-557.505
X-156.917 Y-557.429
X-156.266 Y-557.106
X-156.133 Y-557.045
X-155.469 Y-556.754
X-155.335 Y-556.699
X-154.659 Y-556.44
X-154.533 Y-556.394
X-153.847 Y-556.165
X-153.726 Y-556.128
X-153.03 Y-555.927
X-152.92 Y-555.897
X-152.217 Y-555.722
X-152.109 Y-555.697
X-151.398 Y-555.547
X-151.3 Y-555.528
X-150.584 Y-555.401
X-150.494 Y-555.387
X-149.773 Y-555.281
X-149.697 Y-555.27
X-148.972 Y-555.182
X-148.891 Y-555.174
X-148.163 Y-555.105
X-148.104 Y-555.1
X-147.373 Y-555.045
X-147.314 Y-555.041
X-146.582 Y-555
X-146.513 Y-554.997
X-145.045 Y-554.948
X-144.98 Y-554.946
X-143.51 Y-554.928
X-143.478
X-142.006 Y-554.925
X-140.55 Y-554.922
X-139.128 Y-554.905
X-137.727 Y-554.858
X-137.059 Y-554.82
X-136.387 Y-554.77
X-135.729 Y-554.708
X-135.083 Y-554.629
X-134.445 Y-554.535
X-133.823 Y-554.425
X-133.215 Y-554.297
X-132.621 Y-554.149
X-132.041 Y-553.981
X-131.478 Y-553.794
X-130.933 Y-553.584
X-130.402 Y-553.352
X-129.889 Y-553.097
X-129.377 Y-552.809
X-129.153 Y-552.67
X-128.916 Y-552.515
X-128.681 Y-552.351
X-128.449 Y-552.18
X-128.225 Y-552.005
X-128.006 Y-551.822
X-127.786 Y-551.628
X-127.568 Y-551.425
X-127.361 Y-551.22
X-127.155 Y-551.002
X-126.95 Y-550.774
X-126.751 Y-550.539
X-126.552 Y-550.288
X-126.36 Y-550.032
X-126.173 Y-549.766
X-125.984 Y-549.483
X-125.804 Y-549.195
X-125.627 Y-548.892
X-125.453 Y-548.578
X-125.286 Y-548.252
X-125.121 Y-547.908
X-124.96 Y-547.554
X-124.805 Y-547.186
X-124.657 Y-546.807
X-124.513 Y-546.412
X-124.374 Y-546
X-124.241 Y-545.576
X-124.115 Y-545.139
X-123.995 Y-544.683
X-123.881 Y-544.214
X-123.774 Y-543.73
X-123.674 Y-543.227
X-123.58 Y-542.713
X-123.495 Y-542.184
X-123.417 Y-541.635
X-123.346 Y-541.072
X-123.284 Y-540.495
X-123.229 Y-539.899
X-123.182 Y-539.287
X-123.144 Y-538.674
X-123.092 Y-537.363
X-123.075 Y-535.981
Y-64.019
X-123.092 Y-62.637
X-123.144 Y-61.326
X-123.182 Y-60.712
X-123.229 Y-60.102
X-123.284 Y-59.505
X-123.346 Y-58.927
X-123.417 Y-58.365
X-123.495 Y-57.817
X-123.58 Y-57.287
X-123.674 Y-56.773
X-123.774 Y-56.27
X-123.881 Y-55.786
X-123.995 Y-55.317
X-124.115 Y-54.862
X-124.241 Y-54.424
X-124.374 Y-54
X-124.513 Y-53.588
X-124.657 Y-53.193
X-124.805 Y-52.814
X-124.961 Y-52.446
X-125.121 Y-52.091
X-125.286 Y-51.749
X-125.453 Y-51.423
X-125.627 Y-51.109
X-125.805 Y-50.805
X-125.985 Y-50.516
X-126.172 Y-50.234
X-126.36 Y-49.967
X-126.552 Y-49.711
X-126.75 Y-49.462
X-126.95 Y-49.226
X-127.154 Y-48.998
X-127.361 Y-48.78
X-127.569 Y-48.574
X-127.785 Y-48.372
X-128.005 Y-48.178
X-128.226 Y-47.995
X-128.451 Y-47.819
X-128.68 Y-47.649
X-128.915 Y-47.486
X-129.153 Y-47.329
X-129.376 Y-47.192
X-129.889 Y-46.903
X-130.402 Y-46.648
X-130.932 Y-46.416
X-131.479 Y-46.207
X-132.041 Y-46.019
X-132.621 Y-45.852
X-133.215 Y-45.704
X-133.824 Y-45.575
X-134.447 Y-45.465
X-135.082 Y-45.371
X-135.73 Y-45.293
X-136.389 Y-45.23
X-137.059 Y-45.18
X-137.728 Y-45.142
X-139.128 Y-45.095
X-140.55 Y-45.078
X-143.477 Y-45.072
X-143.51
X-144.98 Y-45.054
X-145.045 Y-45.053
X-146.513 Y-45.003
X-146.582 Y-45
X-147.314 Y-44.959
X-147.371 Y-44.955
X-148.102 Y-44.901
X-148.167 Y-44.895
X-148.895 Y-44.825
X-148.968 Y-44.817
X-149.693 Y-44.73
X-149.775 Y-44.719
X-150.496 Y-44.613
X-150.585 Y-44.598
X-151.301 Y-44.471
X-151.398 Y-44.452
X-152.109 Y-44.302
X-152.216 Y-44.278
X-152.919 Y-44.103
X-153.03 Y-44.073
X-153.726 Y-43.872
X-153.847 Y-43.834
X-154.533 Y-43.605
X-154.659 Y-43.56
X-155.335 Y-43.301
X-155.468 Y-43.247
X-156.132 Y-42.956
X-156.268 Y-42.893
X-156.919 Y-42.569
X-157.058 Y-42.495
X-157.695 Y-42.137
X-157.804 Y-42.073
X-158.116 Y-41.88
X-158.186 Y-41.835
X-158.494 Y-41.633
X-158.564 Y-41.586
X-158.868 Y-41.374
X-158.936 Y-41.325
X-159.236 Y-41.104
X-159.308 Y-41.049
X-159.603 Y-40.818
X-159.672 Y-40.762
X-159.962 Y-40.521
X-160.031 Y-40.462
X-160.316 Y-40.21
X-160.378 Y-40.154
X-160.659 Y-39.892
X-160.727 Y-39.827
X-161.002 Y-39.554
X-161.067 Y-39.487
X-161.336 Y-39.204
X-161.395 Y-39.14
X-161.659 Y-38.846
X-161.719 Y-38.777
X-161.977 Y-38.471
X-162.035 Y-38.401
X-162.286 Y-38.085
X-162.337 Y-38.019
X-162.584 Y-37.691
X-162.643 Y-37.61
X-162.882 Y-37.27
X-162.926 Y-37.205
X-163.16 Y-36.853
X-163.209 Y-36.778
X-163.436 Y-36.415
X-163.481 Y-36.34
X-163.701 Y-35.964
X-163.74 Y-35.896
X-163.954 Y-35.508
X-163.995 Y-35.429
X-164.201 Y-35.029
X-164.237 Y-34.957
X-164.436 Y-34.544
X-164.469 Y-34.474
X-164.661 Y-34.048
X-164.691 Y-33.979
X-164.876 Y-33.54
X-164.906 Y-33.468
X-165.083 Y-33.016
X-165.11 Y-32.945
X-165.279 Y-32.481
X-165.303 Y-32.412
X-165.464 Y-31.934
X-165.484 Y-31.872
X-165.638 Y-31.381
X-165.659 Y-31.311
X-165.804 Y-30.807
X-165.822 Y-30.743
X-165.959 Y-30.225
X-165.974 Y-30.164
X-166.103 Y-29.633
X-166.118 Y-29.569
X-166.238 Y-29.024
X-166.25 Y-28.967
X-166.362 Y-28.408
X-166.373 Y-28.353
X-166.477 Y-27.781
X-166.487 Y-27.718
X-166.581 Y-27.131
X-166.589 Y-27.08
X-166.675 Y-26.48
X-166.682 Y-26.426
X-166.759 Y-25.812
X-166.765 Y-25.76
X-166.833 Y-25.131
X-166.838 Y-25.082
X-166.897 Y-24.439
X-166.901 Y-24.396
X-166.952 Y-23.738
X-166.955 Y-23.688
X-166.996 Y-23.016
X-167 Y-22.951
X-167.055 Y-21.565
X-167.057 Y-21.482
X-167.075 Y-20.038
G2 X-164 Y-16.925 I3.075 J0.038
G1 X-30.849
X-20
G2 X-16.925 Y-20 J-3.075
G1 Y-152.875
Y-301.429 Z12 F350
Y-580 F850
G2 X-20 Y-583.075 I-3.075
G1 X-164
G2 X-167.075 Y-579.962 J3.075
G1 X-167.057 Y-578.519
X-167.055 Y-578.435
X-167 Y-577.049
X-166.996 Y-576.983
X-166.955 Y-576.312
X-166.952 Y-576.262
X-166.901 Y-575.604
X-166.897 Y-575.561
X-166.838 Y-574.918
X-166.833 Y-574.868
X-166.765 Y-574.24
X-166.759 Y-574.189
X-166.682 Y-573.574
X-166.675 Y-573.52
X-166.589 Y-572.919
X-166.581 Y-572.868
X-166.487 Y-572.282
X-166.477 Y-572.22
X-166.373 Y-571.647
X-166.362 Y-571.592
X-166.25 Y-571.033
X-166.238 Y-570.976
X-166.118 Y-570.431
X-166.103 Y-570.366
X-165.974 Y-569.835
X-165.959 Y-569.775
X-165.822 Y-569.257
X-165.804 Y-569.193
X-165.659 Y-568.689
X-165.638 Y-568.619
X-165.484 Y-568.128
X-165.464 Y-568.065
X-165.303 Y-567.588
X-165.279 Y-567.521
X-165.11 Y-567.056
X-165.082 Y-566.983
X-164.905 Y-566.532
X-164.877 Y-566.461
X-164.692 Y-566.022
X-164.66 Y-565.95
X-164.468 Y-565.525
X-164.436 Y-565.456
X-164.237 Y-565.043
X-164.202 Y-564.973
X-163.996 Y-564.572
X-163.954 Y-564.492
X-163.74 Y-564.104
X-163.701 Y-564.036
X-163.481 Y-563.66
X-163.434 Y-563.583
X-163.207 Y-563.22
X-163.161 Y-563.148
X-162.927 Y-562.796
X-162.882 Y-562.73
X-162.643 Y-562.39
X-162.583 Y-562.308
X-162.336 Y-561.98
X-162.287 Y-561.917
X-162.035 Y-561.599
X-161.979 Y-561.531
X-161.721 Y-561.225
X-161.658 Y-561.153
X-161.394 Y-560.859
X-161.339 Y-560.798
X-161.07 Y-560.514
X-160.999 Y-560.443
X-160.724 Y-560.171
X-160.659 Y-560.108
X-160.378 Y-559.846
X-160.318 Y-559.791
X-160.033 Y-559.539
X-159.961 Y-559.478
X-159.671 Y-559.237
X-159.602 Y-559.181
X-159.307 Y-558.95
X-159.235 Y-558.895
X-158.935 Y-558.674
X-158.87 Y-558.628
X-158.566 Y-558.416
X-158.493 Y-558.367
X-158.185 Y-558.165
X-158.117 Y-558.121
X-157.805 Y-557.928
X-157.697 Y-557.864
X-157.06 Y-557.505
X-156.917 Y-557.429
X-156.266 Y-557.106
X-156.133 Y-557.045
X-155.469 Y-556.754
X-155.335 Y-556.699
X-154.659 Y-556.44
X-154.533 Y-556.394
X-153.847 Y-556.165
X-153.726 Y-556.128
X-153.03 Y-555.927
X-152.92 Y-555.897
X-152.217 Y-555.722
X-152.109 Y-555.697
X-151.398 Y-555.547
X-151.3 Y-555.528
X-150.584 Y-555.401
X-150.494 Y-555.387
X-149.773 Y-555.281
X-149.697 Y-555.27
X-148.972 Y-555.182
X-148.891 Y-555.174
X-148.163 Y-555.105
X-148.104 Y-555.1
X-147.373 Y-555.045
X-147.314 Y-555.041
X-146.582 Y-555
X-146.513 Y-554.997
X-145.045 Y-554.948
X-144.98 Y-554.946
X-143.51 Y-554.928
X-143.478
X-142.006 Y-554.925
X-140.55 Y-554.922
X-139.128 Y-554.905
X-137.727 Y-554.858
X-137.059 Y-554.82
X-136.387 Y-554.77
X-135.729 Y-554.708
X-135.083 Y-554.629
X-134.445 Y-554.535
X-133.823 Y-554.425
X-133.215 Y-554.297
X-132.621 Y-554.149
X-132.041 Y-553.981
X-131.478 Y-553.794
X-130.933 Y-553.584
X-130.402 Y-553.352
X-129.889 Y-553.097
X-129.377 Y-552.809
X-129.153 Y-552.67
X-128.916 Y-552.515
X-128.681 Y-552.351
X-128.449 Y-552.18
X-128.225 Y-552.005
X-128.006 Y-551.822
X-127.786 Y-551.628
X-127.568 Y-551.425
X-127.361 Y-551.22
X-127.155 Y-551.002
X-126.95 Y-550.774
X-126.751 Y-550.539
X-126.552 Y-550.288
X-126.36 Y-550.032
X-126.173 Y-549.766
X-125.984 Y-549.483
X-125.804 Y-549.195
X-125.627 Y-548.892
X-125.453 Y-548.578
X-125.286 Y-548.252
X-125.121 Y-547.908
X-124.96 Y-547.554
X-124.805 Y-547.186
X-124.657 Y-546.807
X-124.513 Y-546.412
X-124.374 Y-546
X-124.241 Y-545.576
X-124.115 Y-545.139
X-123.995 Y-544.683
X-123.881 Y-544.214
X-123.774 Y-543.73
X-123.674 Y-543.227
X-123.58 Y-542.713
X-123.495 Y-542.184
X-123.417 Y-541.635
X-123.346 Y-541.072
X-123.284 Y-540.495
X-123.229 Y-539.899
X-123.182 Y-539.287
X-123.144 Y-538.674
X-123.092 Y-537.363
X-123.075 Y-535.981
Y-64.019
X-123.092 Y-62.637
X-123.144 Y-61.326
X-123.182 Y-60.712
X-123.229 Y-60.102
X-123.284 Y-59.505
X-123.346 Y-58.927
X-123.417 Y-58.365
X-123.495 Y-57.817
X-123.58 Y-57.287
X-123.674 Y-56.773
X-123.774 Y-56.27
X-123.881 Y-55.786
X-123.995 Y-55.317
X-124.115 Y-54.862
X-124.241 Y-54.424
X-124.374 Y-54
X-124.513 Y-53.588
X-124.657 Y-53.193
X-124.805 Y-52.814
X-124.961 Y-52.446
X-125.121 Y-52.091
X-125.286 Y-51.749
X-125.453 Y-51.423
X-125.627 Y-51.109
X-125.805 Y-50.805
X-125.985 Y-50.516
X-126.172 Y-50.234
X-126.36 Y-49.967
X-126.552 Y-49.711
X-126.75 Y-49.462
X-126.95 Y-49.226
X-127.154 Y-48.998
X-127.361 Y-48.78
X-127.569 Y-48.574
X-127.785 Y-48.372
X-128.005 Y-48.178
X-128.226 Y-47.995
X-128.451 Y-47.819
X-128.68 Y-47.649
X-128.915 Y-47.486
X-129.153 Y-47.329
X-129.376 Y-47.192
X-129.889 Y-46.903
X-130.402 Y-46.648
X-130.932 Y-46.416
X-131.479 Y-46.207
X-132.041 Y-46.019
X-132.621 Y-45.852
X-133.215 Y-45.704
X-133.824 Y-45.575
X-134.447 Y-45.465
X-135.082 Y-45.371
X-135.73 Y-45.293
X-136.389 Y-45.23
X-137.059 Y-45.18
X-137.728 Y-45.142
X-139.128 Y-45.095
X-140.55 Y-45.078
X-143.477 Y-45.072
X-143.51
X-144.98 Y-45.054
X-145.045 Y-45.053
X-146.513 Y-45.003
X-146.582 Y-45
X-147.314 Y-44.959
X-147.371 Y-44.955
X-148.102 Y-44.901
X-148.167 Y-44.895
X-148.895 Y-44.825
X-148.968 Y-44.817
X-149.693 Y-44.73
X-149.775 Y-44.719
X-150.496 Y-44.613
X-150.585 Y-44.598
X-151.301 Y-44.471
X-151.398 Y-44.452
X-152.109 Y-44.302
X-152.216 Y-44.278
X-152.919 Y-44.103
X-153.03 Y-44.073
X-153.726 Y-43.872
X-153.847 Y-43.834
X-154.533 Y-43.605
X-154.659 Y-43.56
X-155.335 Y-43.301
X-155.468 Y-43.247
X-156.132 Y-42.956
X-156.268 Y-42.893
X-156.919 Y-42.569
X-157.058 Y-42.495
X-157.695 Y-42.137
X-157.804 Y-42.073
X-158.116 Y-41.88
X-158.186 Y-41.835
X-158.494 Y-41.633
X-158.564 Y-41.586
X-158.868 Y-41.374
X-158.936 Y-41.325
X-159.236 Y-41.104
X-159.308 Y-41.049
X-159.603 Y-40.818
X-159.672 Y-40.762
X-159.962 Y-40.521
X-160.031 Y-40.462
X-160.316 Y-40.21
X-160.378 Y-40.154
X-160.659 Y-39.892
X-160.727 Y-39.827
X-161.002 Y-39.554
X-161.067 Y-39.487
X-161.336 Y-39.204
X-161.395 Y-39.14
X-161.659 Y-38.846
X-161.719 Y-38.777
X-161.977 Y-38.471
X-162.035 Y-38.401
X-162.286 Y-38.085
X-162.337 Y-38.019
X-162.584 Y-37.691
X-162.643 Y-37.61
X-162.882 Y-37.27
X-162.926 Y-37.205
X-163.16 Y-36.853
X-163.209 Y-36.778
X-163.436 Y-36.415
X-163.481 Y-36.34
X-163.701 Y-35.964
X-163.74 Y-35.896
X-163.954 Y-35.508
X-163.995 Y-35.429
X-164.201 Y-35.029
X-164.237 Y-34.957
X-164.436 Y-34.544
X-164.469 Y-34.474
X-164.661 Y-34.048
X-164.691 Y-33.979
X-164.876 Y-33.54
X-164.906 Y-33.468
X-165.083 Y-33.016
X-165.11 Y-32.945
X-165.279 Y-32.481
X-165.303 Y-32.412
X-165.464 Y-31.934
X-165.484 Y-31.872
X-165.638 Y-31.381
X-165.659 Y-31.311
X-165.804 Y-30.807
X-165.822 Y-30.743
X-165.959 Y-30.225
X-165.974 Y-30.164
X-166.103 Y-29.633
X-166.118 Y-29.569
X-166.238 Y-29.024
X-166.25 Y-28.967
X-166.362 Y-28.408
X-166.373 Y-28.353
X-166.477 Y-27.781
X-166.487 Y-27.718
X-166.581 Y-27.131
X-166.589 Y-27.08
X-166.675 Y-26.48
X-166.682 Y-26.426
X-166.759 Y-25.812
X-166.765 Y-25.76
X-166.833 Y-25.131
X-166.838 Y-25.082
X-166.897 Y-24.439
X-166.901 Y-24.396
X-166.952 Y-23.738
X-166.955 Y-23.688
X-166.996 Y-23.016
X-167 Y-22.951
X-167.055 Y-21.565
X-167.057 Y-21.482
X-167.075 Y-20.038
G2 X-164 Y-16.925 I3.075 J0.038
G1 X-20
G2 X-16.925 Y-20 J-3.075
G1 Y-301.429
Y-449.984 Z10 F350
Y-580 F850
G2 X-20 Y-583.075 I-3.075
G1 X-164
G2 X-167.075 Y-579.962 J3.075
G1 X-167.057 Y-578.519
X-167.055 Y-578.435
X-167 Y-577.049
X-166.996 Y-576.983
X-166.955 Y-576.312
X-166.952 Y-576.262
X-166.901 Y-575.604
X-166.897 Y-575.561
X-166.838 Y-574.918
X-166.833 Y-574.868
X-166.765 Y-574.24
X-166.759 Y-574.189
X-166.682 Y-573.574
X-166.675 Y-573.52
X-166.589 Y-572.919
X-166.581 Y-572.868
X-166.487 Y-572.282
X-166.477 Y-572.22
X-166.373 Y-571.647
X-166.362 Y-571.592
X-166.25 Y-571.033
X-166.238 Y-570.976
X-166.118 Y-570.431
X-166.103 Y-570.366
X-165.974 Y-569.835
X-165.959 Y-569.775
X-165.822 Y-569.257
X-165.804 Y-569.193
X-165.659 Y-568.689
X-165.638 Y-568.619
X-165.484 Y-568.128
X-165.464 Y-568.065
X-165.303 Y-567.588
X-165.279 Y-567.521
X-165.11 Y-567.056
X-165.082 Y-566.983
X-164.905 Y-566.532
X-164.877 Y-566.461
X-164.692 Y-566.022
X-164.66 Y-565.95
X-164.468 Y-565.525
X-164.436 Y-565.456
X-164.237 Y-565.043
X-164.202 Y-564.973
X-163.996 Y-564.572
X-163.954 Y-564.492
X-163.74 Y-564.104
X-163.701 Y-564.036
X-163.481 Y-563.66
X-163.434 Y-563.583
X-163.207 Y-563.22
X-163.161 Y-563.148
X-162.927 Y-562.796
X-162.882 Y-562.73
X-162.643 Y-562.39
X-162.583 Y-562.308
X-162.336 Y-561.98
X-162.287 Y-561.917
X-162.035 Y-561.599
X-161.979 Y-561.531
X-161.721 Y-561.225
X-161.658 Y-561.153
X-161.394 Y-560.859
X-161.339 Y-560.798
X-161.07 Y-560.514
X-160.999 Y-560.443
X-160.724 Y-560.171
X-160.659 Y-560.108
X-160.378 Y-559.846
X-160.318 Y-559.791
X-160.033 Y-559.539
X-159.961 Y-559.478
X-159.671 Y-559.237
X-159.602 Y-559.181
X-159.307 Y-558.95
X-159.235 Y-558.895
X-158.935 Y-558.674
X-158.87 Y-558.628
X-158.566 Y-558.416
X-158.493 Y-558.367
X-158.185 Y-558.165
X-158.117 Y-558.121
X-157.805 Y-557.928
X-157.697 Y-557.864
X-157.06 Y-557.505
X-156.917 Y-557.429
X-156.266 Y-557.106
X-156.133 Y-557.045
X-155.469 Y-556.754
X-155.335 Y-556.699
X-154.659 Y-556.44
X-154.533 Y-556.394
X-153.847 Y-556.165
X-153.726 Y-556.128
X-153.03 Y-555.927
X-152.92 Y-555.897
X-152.217 Y-555.722
X-152.109 Y-555.697
X-151.398 Y-555.547
X-151.3 Y-555.528
X-150.584 Y-555.401
X-150.494 Y-555.387
X-149.773 Y-555.281
X-149.697 Y-555.27
X-148.972 Y-555.182
X-148.891 Y-555.174
X-148.163 Y-555.105
X-148.104 Y-555.1
X-147.373 Y-555.045
X-147.314 Y-555.041
X-146.582 Y-555
X-146.513 Y-554.997
X-145.045 Y-554.948
X-144.98 Y-554.946
X-143.51 Y-554.928
X-143.478
X-142.006 Y-554.925
X-140.55 Y-554.922
X-139.128 Y-554.905
X-137.727 Y-554.858
X-137.059 Y-554.82
X-136.387 Y-554.77
X-135.729 Y-554.708
X-135.083 Y-554.629
X-134.445 Y-554.535
X-133.823 Y-554.425
X-133.215 Y-554.297
X-132.621 Y-554.149
X-132.041 Y-553.981
X-131.478 Y-553.794
X-130.933 Y-553.584
X-130.402 Y-553.352
X-129.889 Y-553.097
X-129.377 Y-552.809
X-129.153 Y-552.67
X-128.916 Y-552.515
X-128.681 Y-552.351
X-128.449 Y-552.18
X-128.225 Y-552.005
X-128.006 Y-551.822
X-127.786 Y-551.628
X-127.568 Y-551.425
X-127.361 Y-551.22
X-127.155 Y-551.002
X-126.95 Y-550.774
X-126.751 Y-550.539
X-126.552 Y-550.288
X-126.36 Y-550.032
X-126.173 Y-549.766
X-125.984 Y-549.483
X-125.804 Y-549.195
X-125.627 Y-548.892
X-125.453 Y-548.578
X-125.286 Y-548.252
X-125.121 Y-547.908
X-124.96 Y-547.554
X-124.805 Y-547.186
X-124.657 Y-546.807
X-124.513 Y-546.412
X-124.374 Y-546
X-124.241 Y-545.576
X-124.115 Y-545.139
X-123.995 Y-544.683
X-123.881 Y-544.214
X-123.774 Y-543.73
X-123.674 Y-543.227
X-123.58 Y-542.713
X-123.495 Y-542.184
X-123.417 Y-541.635
X-123.346 Y-541.072
X-123.284 Y-540.495
X-123.229 Y-539.899
X-123.182 Y-539.287
X-123.144 Y-538.674
X-123.092 Y-537.363
X-123.075 Y-535.981
Y-64.019
X-123.092 Y-62.637
X-123.144 Y-61.326
X-123.182 Y-60.712
X-123.229 Y-60.102
X-123.284 Y-59.505
X-123.346 Y-58.927
X-123.417 Y-58.365
X-123.495 Y-57.817
X-123.58 Y-57.287
X-123.674 Y-56.773
X-123.774 Y-56.27
X-123.881 Y-55.786
X-123.995 Y-55.317
X-124.115 Y-54.862
X-124.241 Y-54.424
X-124.374 Y-54
X-124.513 Y-53.588
X-124.657 Y-53.193
X-124.805 Y-52.814
X-124.961 Y-52.446
X-125.121 Y-52.091
X-125.286 Y-51.749
X-125.453 Y-51.423
X-125.627 Y-51.109
X-125.805 Y-50.805
X-125.985 Y-50.516
X-126.172 Y-50.234
X-126.36 Y-49.967
X-126.552 Y-49.711
X-126.75 Y-49.462
X-126.95 Y-49.226
X-127.154 Y-48.998
X-127.361 Y-48.78
X-127.569 Y-48.574
X-127.785 Y-48.372
X-128.005 Y-48.178
X-128.226 Y-47.995
X-128.451 Y-47.819
X-128.68 Y-47.649
X-128.915 Y-47.486
X-129.153 Y-47.329
X-129.376 Y-47.192
X-129.889 Y-46.903
X-130.402 Y-46.648
X-130.932 Y-46.416
X-131.479 Y-46.207
X-132.041 Y-46.019
X-132.621 Y-45.852
X-133.215 Y-45.704
X-133.824 Y-45.575
X-134.447 Y-45.465
X-135.082 Y-45.371
X-135.73 Y-45.293
X-136.389 Y-45.23
X-137.059 Y-45.18
X-137.728 Y-45.142
X-139.128 Y-45.095
X-140.55 Y-45.078
X-143.477 Y-45.072
X-143.51
X-144.98 Y-45.054
X-145.045 Y-45.053
X-146.513 Y-45.003
X-146.582 Y-45
X-147.314 Y-44.959
X-147.371 Y-44.955
X-148.102 Y-44.901
X-148.167 Y-44.895
X-148.895 Y-44.825
X-148.968 Y-44.817
X-149.693 Y-44.73
X-149.775 Y-44.719
X-150.496 Y-44.613
X-150.585 Y-44.598
X-151.301 Y-44.471
X-151.398 Y-44.452
X-152.109 Y-44.302
X-152.216 Y-44.278
X-152.919 Y-44.103
X-153.03 Y-44.073
X-153.726 Y-43.872
X-153.847 Y-43.834
X-154.533 Y-43.605
X-154.659 Y-43.56
X-155.335 Y-43.301
X-155.468 Y-43.247
X-156.132 Y-42.956
X-156.268 Y-42.893
X-156.919 Y-42.569
X-157.058 Y-42.495
X-157.695 Y-42.137
X-157.804 Y-42.073
X-158.116 Y-41.88
X-158.186 Y-41.835
X-158.494 Y-41.633
X-158.564 Y-41.586
X-158.868 Y-41.374
X-158.936 Y-41.325
X-159.236 Y-41.104
X-159.308 Y-41.049
X-159.603 Y-40.818
X-159.672 Y-40.762
X-159.962 Y-40.521
X-160.031 Y-40.462
X-160.316 Y-40.21
X-160.378 Y-40.154
X-160.659 Y-39.892
X-160.727 Y-39.827
X-161.002 Y-39.554
X-161.067 Y-39.487
X-161.336 Y-39.204
X-161.395 Y-39.14
X-161.659 Y-38.846
X-161.719 Y-38.777
X-161.977 Y-38.471
X-162.035 Y-38.401
X-162.286 Y-38.085
X-162.337 Y-38.019
X-162.584 Y-37.691
X-162.643 Y-37.61
X-162.882 Y-37.27
X-162.926 Y-37.205
X-163.16 Y-36.853
X-163.209 Y-36.778
X-163.436 Y-36.415
X-163.481 Y-36.34
X-163.701 Y-35.964
X-163.74 Y-35.896
X-163.954 Y-35.508
X-163.995 Y-35.429
X-164.201 Y-35.029
X-164.237 Y-34.957
X-164.436 Y-34.544
X-164.469 Y-34.474
X-164.661 Y-34.048
X-164.691 Y-33.979
X-164.876 Y-33.54
X-164.906 Y-33.468
X-165.083 Y-33.016
X-165.11 Y-32.945
X-165.279 Y-32.481
X-165.303 Y-32.412
X-165.464 Y-31.934
X-165.484 Y-31.872
X-165.638 Y-31.381
X-165.659 Y-31.311
X-165.804 Y-30.807
X-165.822 Y-30.743
X-165.959 Y-30.225
X-165.974 Y-30.164
X-166.103 Y-29.633
X-166.118 Y-29.569
X-166.238 Y-29.024
X-166.25 Y-28.967
X-166.362 Y-28.408
X-166.373 Y-28.353
X-166.477 Y-27.781
X-166.487 Y-27.718
X-166.581 Y-27.131
X-166.589 Y-27.08
X-166.675 Y-26.48
X-166.682 Y-26.426
X-166.759 Y-25.812
X-166.765 Y-25.76
X-166.833 Y-25.131
X-166.838 Y-25.082
X-166.897 Y-24.439
X-166.901 Y-24.396
X-166.952 Y-23.738
X-166.955 Y-23.688
X-166.996 Y-23.016
X-167 Y-22.951
X-167.055 Y-21.565
X-167.057 Y-21.482
X-167.075 Y-20.038
G2 X-164 Y-16.925 I3.075 J0.038
G1 X-20
G2 X-16.925 Y-20 J-3.075
G1 Y-301.429
Y-449.984
Y-580 Z8.25 F350
G2 X-20 Y-583.075 Z8.185 I-3.075
G1 X-33.708 Z8
X-164 F850
G2 X-167.075 Y-579.962 J3.075
G1 X-167.057 Y-578.519
X-167.055 Y-578.435
X-167 Y-577.049
X-166.996 Y-576.983
X-166.955 Y-576.312
X-166.952 Y-576.262
X-166.901 Y-575.604
X-166.897 Y-575.561
X-166.838 Y-574.918
X-166.833 Y-574.868
X-166.765 Y-574.24
X-166.759 Y-574.189
X-166.682 Y-573.574
X-166.675 Y-573.52
X-166.589 Y-572.919
X-166.581 Y-572.868
X-166.487 Y-572.282
X-166.477 Y-572.22
X-166.373 Y-571.647
X-166.362 Y-571.592
X-166.25 Y-571.033
X-166.238 Y-570.976
X-166.118 Y-570.431
X-166.103 Y-570.366
X-165.974 Y-569.835
X-165.959 Y-569.775
X-165.822 Y-569.257
X-165.804 Y-569.193
X-165.659 Y-568.689
X-165.638 Y-568.619
X-165.484 Y-568.128
X-165.464 Y-568.065
X-165.303 Y-567.588
X-165.279 Y-567.521
X-165.11 Y-567.056
X-165.082 Y-566.983
X-164.905 Y-566.532
X-164.877 Y-566.461
X-164.692 Y-566.022
X-164.66 Y-565.95
X-164.468 Y-565.525
X-164.436 Y-565.456
X-164.237 Y-565.043
X-164.202 Y-564.973
X-163.996 Y-564.572
X-163.954 Y-564.492
X-163.74 Y-564.104
X-163.701 Y-564.036
X-163.481 Y-563.66
X-163.434 Y-563.583
X-163.207 Y-563.22
X-163.161 Y-563.148
X-162.927 Y-562.796
X-162.882 Y-562.73
X-162.643 Y-562.39
X-162.583 Y-562.308
X-162.336 Y-561.98
X-162.287 Y-561.917
X-162.035 Y-561.599
X-161.979 Y-561.531
X-161.721 Y-561.225
X-161.658 Y-561.153
X-161.394 Y-560.859
X-161.339 Y-560.798
X-161.07 Y-560.514
X-160.999 Y-560.443
X-160.724 Y-560.171
X-160.659 Y-560.108
X-160.378 Y-559.846
X-160.318 Y-559.791
X-160.033 Y-559.539
X-159.961 Y-559.478
X-159.671 Y-559.237
X-159.602 Y-559.181
X-159.307 Y-558.95
X-159.235 Y-558.895
X-158.935 Y-558.674
X-158.87 Y-558.628
X-158.566 Y-558.416
X-158.493 Y-558.367
X-158.185 Y-558.165
X-158.117 Y-558.121
X-157.805 Y-557.928
X-157.697 Y-557.864
X-157.06 Y-557.505
X-156.917 Y-557.429
X-156.266 Y-557.106
X-156.133 Y-557.045
X-155.469 Y-556.754
X-155.335 Y-556.699
X-154.659 Y-556.44
X-154.533 Y-556.394
X-153.847 Y-556.165
X-153.726 Y-556.128
X-153.03 Y-555.927
X-152.92 Y-555.897
X-152.217 Y-555.722
X-152.109 Y-555.697
X-151.398 Y-555.547
X-151.3 Y-555.528
X-150.584 Y-555.401
X-150.494 Y-555.387
X-149.773 Y-555.281
X-149.697 Y-555.27
X-148.972 Y-555.182
X-148.891 Y-555.174
X-148.163 Y-555.105
X-148.104 Y-555.1
X-147.373 Y-555.045
X-147.314 Y-555.041
X-146.582 Y-555
X-146.513 Y-554.997
X-145.045 Y-554.948
X-144.98 Y-554.946
X-143.51 Y-554.928
X-143.478
X-142.006 Y-554.925
X-140.55 Y-554.922
X-139.128 Y-554.905
X-137.727 Y-554.858
X-137.059 Y-554.82
X-136.387 Y-554.77
X-135.729 Y-554.708
X-135.083 Y-554.629
X-134.445 Y-554.535
X-133.823 Y-554.425
X-133.215 Y-554.297
X-132.621 Y-554.149
X-132.041 Y-553.981
X-131.478 Y-553.794
X-130.933 Y-553.584
X-130.402 Y-553.352
X-129.889 Y-553.097
X-129.377 Y-552.809
X-129.153 Y-552.67
X-128.916 Y-552.515
X-128.681 Y-552.351
X-128.449 Y-552.18
X-128.225 Y-552.005
X-128.006 Y-551.822
X-127.786 Y-551.628
X-127.568 Y-551.425
X-127.361 Y-551.22
X-127.155 Y-551.002
X-126.95 Y-550.774
X-126.751 Y-550.539
X-126.552 Y-550.288
X-126.36 Y-550.032
X-126.173 Y-549.766
X-125.984 Y-549.483
X-125.804 Y-549.195
X-125.627 Y-548.892
X-125.453 Y-548.578
X-125.286 Y-548.252
X-125.121 Y-547.908
X-124.96 Y-547.554
X-124.805 Y-547.186
X-124.657 Y-546.807
X-124.513 Y-546.412
X-124.374 Y-546
X-124.241 Y-545.576
X-124.115 Y-545.139
X-123.995 Y-544.683
X-123.881 Y-544.214
X-123.774 Y-543.73
X-123.674 Y-543.227
X-123.58 Y-542.713
X-123.495 Y-542.184
X-123.417 Y-541.635
X-123.346 Y-541.072
X-123.284 Y-540.495
X-123.229 Y-539.899
X-123.182 Y-539.287
X-123.144 Y-538.674
X-123.092 Y-537.363
X-123.075 Y-535.981
Y-64.019
X-123.092 Y-62.637
X-123.144 Y-61.326
X-123.182 Y-60.712
X-123.229 Y-60.102
X-123.284 Y-59.505
X-123.346 Y-58.927
X-123.417 Y-58.365
X-123.495 Y-57.817
X-123.58 Y-57.287
X-123.674 Y-56.773
X-123.774 Y-56.27
X-123.881 Y-55.786
X-123.995 Y-55.317
X-124.115 Y-54.862
X-124.241 Y-54.424
X-124.374 Y-54
X-124.513 Y-53.588
X-124.657 Y-53.193
X-124.805 Y-52.814
X-124.961 Y-52.446
X-125.121 Y-52.091
X-125.286 Y-51.749
X-125.453 Y-51.423
X-125.627 Y-51.109
X-125.805 Y-50.805
X-125.985 Y-50.516
X-126.172 Y-50.234
X-126.36 Y-49.967
X-126.552 Y-49.711
X-126.75 Y-49.462
X-126.95 Y-49.226
X-127.154 Y-48.998
X-127.361 Y-48.78
X-127.569 Y-48.574
X-127.785 Y-48.372
X-128.005 Y-48.178
X-128.226 Y-47.995
X-128.451 Y-47.819
X-128.68 Y-47.649
X-128.915 Y-47.486
X-129.153 Y-47.329
X-129.376 Y-47.192
X-129.889 Y-46.903
X-130.402 Y-46.648
X-130.932 Y-46.416
X-131.479 Y-46.207
X-132.041 Y-46.019
X-132.621 Y-45.852
X-133.215 Y-45.704
X-133.824 Y-45.575
X-134.447 Y-45.465
X-135.082 Y-45.371
X-135.73 Y-45.293
X-136.389 Y-45.23
X-137.059 Y-45.18
X-137.728 Y-45.142
X-139.128 Y-45.095
X-140.55 Y-45.078
X-143.477 Y-45.072
X-143.51
X-144.98 Y-45.054
X-145.045 Y-45.053
X-146.513 Y-45.003
X-146.582 Y-45
X-147.314 Y-44.959
X-147.371 Y-44.955
X-148.102 Y-44.901
X-148.167 Y-44.895
X-148.895 Y-44.825
X-148.968 Y-44.817
X-149.693 Y-44.73
X-149.775 Y-44.719
X-150.496 Y-44.613
X-150.585 Y-44.598
X-151.301 Y-44.471
X-151.398 Y-44.452
X-152.109 Y-44.302
X-152.216 Y-44.278
X-152.919 Y-44.103
X-153.03 Y-44.073
X-153.726 Y-43.872
X-153.847 Y-43.834
X-154.533 Y-43.605
X-154.659 Y-43.56
X-155.335 Y-43.301
X-155.468 Y-43.247
X-156.132 Y-42.956
X-156.268 Y-42.893
X-156.919 Y-42.569
X-157.058 Y-42.495
X-157.695 Y-42.137
X-157.804 Y-42.073
X-158.116 Y-41.88
X-158.186 Y-41.835
X-158.494 Y-41.633
X-158.564 Y-41.586
X-158.868 Y-41.374
X-158.936 Y-41.325
X-159.236 Y-41.104
X-159.308 Y-41.049
X-159.603 Y-40.818
X-159.672 Y-40.762
X-159.962 Y-40.521
X-160.031 Y-40.462
X-160.316 Y-40.21
X-160.378 Y-40.154
X-160.659 Y-39.892
X-160.727 Y-39.827
X-161.002 Y-39.554
X-161.067 Y-39.487
X-161.336 Y-39.204
X-161.395 Y-39.14
X-161.659 Y-38.846
X-161.719 Y-38.777
X-161.977 Y-38.471
X-162.035 Y-38.401
X-162.286 Y-38.085
X-162.337 Y-38.019
X-162.584 Y-37.691
X-162.643 Y-37.61
X-162.882 Y-37.27
X-162.926 Y-37.205
X-163.16 Y-36.853
X-163.209 Y-36.778
X-163.436 Y-36.415
X-163.481 Y-36.34
X-163.701 Y-35.964
X-163.74 Y-35.896
X-163.954 Y-35.508
X-163.995 Y-35.429
X-164.201 Y-35.029
X-164.237 Y-34.957
X-164.436 Y-34.544
X-164.469 Y-34.474
X-164.661 Y-34.048
X-164.691 Y-33.979
X-164.876 Y-33.54
X-164.906 Y-33.468
X-165.083 Y-33.016
X-165.11 Y-32.945
X-165.279 Y-32.481
X-165.303 Y-32.412
X-165.464 Y-31.934
X-165.484 Y-31.872
X-165.638 Y-31.381
X-165.659 Y-31.311
X-165.804 Y-30.807
X-165.822 Y-30.743
X-165.959 Y-30.225
X-165.974 Y-30.164
X-166.103 Y-29.633
X-166.118 Y-29.569
X-166.238 Y-29.024
X-166.25 Y-28.967
X-166.362 Y-28.408
X-166.373 Y-28.353
X-166.477 Y-27.781
X-166.487 Y-27.718
X-166.581 Y-27.131
X-166.589 Y-27.08
X-166.675 Y-26.48
X-166.682 Y-26.426
X-166.759 Y-25.812
X-166.765 Y-25.76
X-166.833 Y-25.131
X-166.838 Y-25.082
X-166.897 Y-24.439
X-166.901 Y-24.396
X-166.952 Y-23.738
X-166.955 Y-23.688
X-166.996 Y-23.016
X-167 Y-22.951
X-167.055 Y-21.565
X-167.057 Y-21.482
X-167.075 Y-20.038
G2 X-164 Y-16.925 I3.075 J0.038
G1 X-20
G2 X-16.925 Y-20 J-3.075
G1 Y-449.984
Y-580
G2 X-20 Y-583.075 I-3.075
G1 X-33.708
X-164 Z6.246 F350
G2 X-167.075 Y-579.962 Z6.18 J3.075
G1 X-167.057 Y-578.519 Z6.161
X-167.055 Y-578.435 Z6.16
X-167 Y-577.049 Z6.141
X-166.996 Y-576.983 Z6.14
X-166.955 Y-576.312 Z6.131
X-166.952 Y-576.262 Z6.13
X-166.901 Y-575.604 Z6.122
X-166.897 Y-575.561 Z6.121
X-166.838 Y-574.918 Z6.112
X-166.833 Y-574.868
X-166.765 Y-574.24 Z6.103
X-166.759 Y-574.189 Z6.102
X-166.682 Y-573.574 Z6.094
X-166.675 Y-573.52 Z6.093
X-166.589 Y-572.919 Z6.085
X-166.581 Y-572.868 Z6.084
X-166.487 Y-572.282 Z6.077
X-166.477 Y-572.22 Z6.076
X-166.373 Y-571.647 Z6.068
X-166.362 Y-571.592 Z6.067
X-166.25 Y-571.033 Z6.059
X-166.238 Y-570.976
X-166.118 Y-570.431 Z6.051
X-166.103 Y-570.366 Z6.05
X-165.974 Y-569.835 Z6.043
X-165.959 Y-569.775 Z6.042
X-165.822 Y-569.257 Z6.035
X-165.804 Y-569.193 Z6.034
X-165.659 Y-568.689 Z6.027
X-165.638 Y-568.619 Z6.026
X-165.484 Y-568.128 Z6.019
X-165.464 Y-568.065 Z6.018
X-165.303 Y-567.588 Z6.011
X-165.279 Y-567.521 Z6.01
X-165.11 Y-567.056 Z6.004
X-165.082 Y-566.983 Z6.003
X-165.012 Y-566.804 Z6
X-164.905 Y-566.532 F850
X-164.877 Y-566.461
X-164.692 Y-566.022
X-164.66 Y-565.95
X-164.468 Y-565.525
X-164.436 Y-565.456
X-164.237 Y-565.043
X-164.202 Y-564.973
X-163.996 Y-564.572
X-163.954 Y-564.492
X-163.74 Y-564.104
X-163.701 Y-564.036
X-163.481 Y-563.66
X-163.434 Y-563.583
X-163.207 Y-563.22
X-163.161 Y-563.148
X-162.927 Y-562.796
X-162.882 Y-562.73
X-162.643 Y-562.39
X-162.583 Y-562.308
X-162.336 Y-561.98
X-162.287 Y-561.917
X-162.035 Y-561.599
X-161.979 Y-561.531
X-161.721 Y-561.225
X-161.658 Y-561.153
X-161.394 Y-560.859
X-161.339 Y-560.798
X-161.07 Y-560.514
X-160.999 Y-560.443
X-160.724 Y-560.171
X-160.659 Y-560.108
X-160.378 Y-559.846
X-160.318 Y-559.791
X-160.033 Y-559.539
X-159.961 Y-559.478
X-159.671 Y-559.237
X-159.602 Y-559.181
X-159.307 Y-558.95
X-159.235 Y-558.895
X-158.935 Y-558.674
X-158.87 Y-558.628
X-158.566 Y-558.416
X-158.493 Y-558.367
X-158.185 Y-558.165
X-158.117 Y-558.121
X-157.805 Y-557.928
X-157.697 Y-557.864
X-157.06 Y-557.505
X-156.917 Y-557.429
X-156.266 Y-557.106
X-156.133 Y-557.045
X-155.469 Y-556.754
X-155.335 Y-556.699
X-154.659 Y-556.44
X-154.533 Y-556.394
X-153.847 Y-556.165
X-153.726 Y-556.128
X-153.03 Y-555.927
X-152.92 Y-555.897
X-152.217 Y-555.722
X-152.109 Y-555.697
X-151.398 Y-555.547
X-151.3 Y-555.528
X-150.584 Y-555.401
X-150.494 Y-555.387
X-149.773 Y-555.281
X-149.697 Y-555.27
X-148.972 Y-555.182
X-148.891 Y-555.174
X-148.163 Y-555.105
X-148.104 Y-555.1
X-147.373 Y-555.045
X-147.314 Y-555.041
X-146.582 Y-555
X-146.513 Y-554.997
X-145.045 Y-554.948
X-144.98 Y-554.946
X-143.51 Y-554.928
X-143.478
X-142.006 Y-554.925
X-140.55 Y-554.922
X-139.128 Y-554.905
X-137.727 Y-554.858
X-137.059 Y-554.82
X-136.387 Y-554.77
X-135.729 Y-554.708
X-135.083 Y-554.629
X-134.445 Y-554.535
X-133.823 Y-554.425
X-133.215 Y-554.297
X-132.621 Y-554.149
X-132.041 Y-553.981
X-131.478 Y-553.794
X-130.933 Y-553.584
X-130.402 Y-553.352
X-129.889 Y-553.097
X-129.377 Y-552.809
X-129.153 Y-552.67
X-128.916 Y-552.515
X-128.681 Y-552.351
X-128.449 Y-552.18
X-128.225 Y-552.005
X-128.006 Y-551.822
X-127.786 Y-551.628
X-127.568 Y-551.425
X-127.361 Y-551.22
X-127.155 Y-551.002
X-126.95 Y-550.774
X-126.751 Y-550.539
X-126.552 Y-550.288
X-126.36 Y-550.032
X-126.173 Y-549.766
X-125.984 Y-549.483
X-125.804 Y-549.195
X-125.627 Y-548.892
X-125.453 Y-548.578
X-125.286 Y-548.252
X-125.121 Y-547.908
X-124.96 Y-547.554
X-124.805 Y-547.186
X-124.657 Y-546.807
X-124.513 Y-546.412
X-124.374 Y-546
X-124.241 Y-545.576
X-124.115 Y-545.139
X-123.995 Y-544.683
X-123.881 Y-544.214
X-123.774 Y-543.73
X-123.674 Y-543.227
X-123.58 Y-542.713
X-123.495 Y-542.184
X-123.417 Y-541.635
X-123.346 Y-541.072
X-123.284 Y-540.495
X-123.229 Y-539.899
X-123.182 Y-539.287
X-123.144 Y-538.674
X-123.092 Y-537.363
X-123.075 Y-535.981
Y-64.019
X-123.092 Y-62.637
X-123.144 Y-61.326
X-123.182 Y-60.712
X-123.229 Y-60.102
X-123.284 Y-59.505
X-123.346 Y-58.927
X-123.417 Y-58.365
X-123.495 Y-57.817
X-123.58 Y-57.287
X-123.674 Y-56.773
X-123.774 Y-56.27
X-123.881 Y-55.786
X-123.995 Y-55.317
X-124.115 Y-54.862
X-124.241 Y-54.424
X-124.374 Y-54
X-124.513 Y-53.588
X-124.657 Y-53.193
X-124.805 Y-52.814
X-124.961 Y-52.446
X-125.121 Y-52.091
X-125.286 Y-51.749
X-125.453 Y-51.423
X-125.627 Y-51.109
X-125.805 Y-50.805
X-125.985 Y-50.516
X-126.172 Y-50.234
X-126.36 Y-49.967
X-126.552 Y-49.711
X-126.75 Y-49.462
X-126.95 Y-49.226
X-127.154 Y-48.998
X-127.361 Y-48.78
X-127.569 Y-48.574
X-127.785 Y-48.372
X-128.005 Y-48.178
X-128.226 Y-47.995
X-128.451 Y-47.819
X-128.68 Y-47.649
X-128.915 Y-47.486
X-129.153 Y-47.329
X-129.376 Y-47.192
X-129.889 Y-46.903
X-130.402 Y-46.648
X-130.932 Y-46.416
X-131.479 Y-46.207
X-132.041 Y-46.019
X-132.621 Y-45.852
X-133.215 Y-45.704
X-133.824 Y-45.575
X-134.447 Y-45.465
X-135.082 Y-45.371
X-135.73 Y-45.293
X-136.389 Y-45.23
X-137.059 Y-45.18
X-137.728 Y-45.142
X-139.128 Y-45.095
X-140.55 Y-45.078
X-143.477 Y-45.072
X-143.51
X-144.98 Y-45.054
X-145.045 Y-45.053
X-146.513 Y-45.003
X-146.582 Y-45
X-147.314 Y-44.959
X-147.371 Y-44.955
X-148.102 Y-44.901
X-148.167 Y-44.895
X-148.895 Y-44.825
X-148.968 Y-44.817
X-149.693 Y-44.73
X-149.775 Y-44.719
X-150.496 Y-44.613
X-150.585 Y-44.598
X-151.301 Y-44.471
X-151.398 Y-44.452
X-152.109 Y-44.302
X-152.216 Y-44.278
X-152.919 Y-44.103
X-153.03 Y-44.073
X-153.726 Y-43.872
X-153.847 Y-43.834
X-154.533 Y-43.605
X-154.659 Y-43.56
X-155.335 Y-43.301
X-155.468 Y-43.247
X-156.132 Y-42.956
X-156.268 Y-42.893
X-156.919 Y-42.569
X-157.058 Y-42.495
X-157.695 Y-42.137
X-157.804 Y-42.073
X-158.116 Y-41.88
X-158.186 Y-41.835
X-158.494 Y-41.633
X-158.564 Y-41.586
X-158.868 Y-41.374
X-158.936 Y-41.325
X-159.236 Y-41.104
X-159.308 Y-41.049
X-159.603 Y-40.818
X-159.672 Y-40.762
X-159.962 Y-40.521
X-160.031 Y-40.462
X-160.316 Y-40.21
X-160.378 Y-40.154
X-160.659 Y-39.892
X-160.727 Y-39.827
X-161.002 Y-39.554
X-161.067 Y-39.487
X-161.336 Y-39.204
X-161.395 Y-39.14
X-161.659 Y-38.846
X-161.719 Y-38.777
X-161.977 Y-38.471
X-162.035 Y-38.401
X-162.286 Y-38.085
X-162.337 Y-38.019
X-162.584 Y-37.691
X-162.643 Y-37.61
X-162.882 Y-37.27
X-162.926 Y-37.205
X-163.16 Y-36.853
X-163.209 Y-36.778
X-163.436 Y-36.415
X-163.481 Y-36.34
X-163.701 Y-35.964
X-163.74 Y-35.896
X-163.954 Y-35.508
X-163.995 Y-35.429
X-164.201 Y-35.029
X-164.237 Y-34.957
X-164.436 Y-34.544
X-164.469 Y-34.474
X-164.661 Y-34.048
X-164.691 Y-33.979
X-164.876 Y-33.54
X-164.906 Y-33.468
X-165.083 Y-33.016
X-165.11 Y-32.945
X-165.279 Y-32.481
X-165.303 Y-32.412
X-165.464 Y-31.934
X-165.484 Y-31.872
X-165.638 Y-31.381
X-165.659 Y-31.311
X-165.804 Y-30.807
X-165.822 Y-30.743
X-165.959 Y-30.225
X-165.974 Y-30.164
X-166.103 Y-29.633
X-166.118 Y-29.569
X-166.238 Y-29.024
X-166.25 Y-28.967
X-166.362 Y-28.408
X-166.373 Y-28.353
X-166.477 Y-27.781
X-166.487 Y-27.718
X-166.581 Y-27.131
X-166.589 Y-27.08
X-166.675 Y-26.48
X-166.682 Y-26.426
X-166.759 Y-25.812
X-166.765 Y-25.76
X-166.833 Y-25.131
X-166.838 Y-25.082
X-166.897 Y-24.439
X-166.901 Y-24.396
X-166.952 Y-23.738
X-166.955 Y-23.688
X-166.996 Y-23.016
X-167 Y-22.951
X-167.055 Y-21.565
X-167.057 Y-21.482
X-167.075 Y-20.038
G2 X-164 Y-16.925 I3.075 J0.038
G1 X-20
G2 X-16.925 Y-20 J-3.075
G1 Y-580
G2 X-20 Y-583.075 I-3.075
G1 X-164
G2 X-167.075 Y-579.962 J3.075
G1 X-167.057 Y-578.519
X-167.055 Y-578.435
X-167 Y-577.049
X-166.996 Y-576.983
X-166.955 Y-576.312
X-166.952 Y-576.262
X-166.901 Y-575.604
X-166.897 Y-575.561
X-166.838 Y-574.918
X-166.833 Y-574.868
X-166.765 Y-574.24
X-166.759 Y-574.189
X-166.682 Y-573.574
X-166.675 Y-573.52
X-166.589 Y-572.919
X-166.581 Y-572.868
X-166.487 Y-572.282
X-166.477 Y-572.22
X-166.373 Y-571.647
X-166.362 Y-571.592
X-166.25 Y-571.033
X-166.238 Y-570.976
X-166.118 Y-570.431
X-166.103 Y-570.366
X-165.974 Y-569.835
X-165.959 Y-569.775
X-165.822 Y-569.257
X-165.804 Y-569.193
X-165.659 Y-568.689
X-165.638 Y-568.619
X-165.484 Y-568.128
X-165.464 Y-568.065
X-165.303 Y-567.588
X-165.279 Y-567.521
X-165.11 Y-567.056
X-165.082 Y-566.983
X-165.012 Y-566.804
X-164.905 Y-566.532 Z5.996 F350
X-164.877 Y-566.461 Z5.995
X-164.692 Y-566.022 Z5.989
X-164.66 Y-565.95 Z5.988
X-164.468 Y-565.525 Z5.981
X-164.436 Y-565.456 Z5.98
X-164.237 Y-565.043 Z5.974
X-164.202 Y-564.973 Z5.973
X-163.996 Y-564.572 Z5.967
X-163.954 Y-564.492 Z5.966
X-163.74 Y-564.104 Z5.96
X-163.701 Y-564.036 Z5.959
X-163.481 Y-563.66 Z5.953
X-163.434 Y-563.583 Z5.952
X-163.207 Y-563.22 Z5.946
X-163.161 Y-563.148 Z5.945
X-162.927 Y-562.796 Z5.939
X-162.882 Y-562.73 Z5.938
X-162.643 Y-562.39 Z5.932
X-162.583 Y-562.308 Z5.931
X-162.336 Y-561.98 Z5.925
X-162.287 Y-561.917 Z5.924
X-162.035 Y-561.599 Z5.919
X-161.979 Y-561.531 Z5.918
X-161.721 Y-561.225 Z5.912
X-161.658 Y-561.153 Z5.911
X-161.394 Y-560.859 Z5.906
X-161.339 Y-560.798 Z5.905
X-161.07 Y-560.514 Z5.899
X-160.999 Y-560.443 Z5.898
X-160.724 Y-560.171 Z5.893
X-160.659 Y-560.108 Z5.892
X-160.378 Y-559.846 Z5.886
X-160.318 Y-559.791 Z5.885
X-160.033 Y-559.539 Z5.88
X-159.961 Y-559.478 Z5.879
X-159.671 Y-559.237 Z5.874
X-159.602 Y-559.181 Z5.873
X-159.307 Y-558.95 Z5.868
X-159.235 Y-558.895 Z5.866
X-158.935 Y-558.674 Z5.861
X-158.87 Y-558.628 Z5.86
X-158.566 Y-558.416 Z5.855
X-158.493 Y-558.367 Z5.854
X-158.185 Y-558.165 Z5.849
X-158.117 Y-558.121 Z5.848
X-157.805 Y-557.928 Z5.843
X-157.697 Y-557.864 Z5.841
X-157.06 Y-557.505 Z5.832
X-156.917 Y-557.429 Z5.829
X-156.266 Y-557.106 Z5.82
X-156.133 Y-557.045 Z5.818
X-155.469 Y-556.754 Z5.808
X-155.335 Y-556.699 Z5.806
X-154.659 Y-556.44 Z5.796
X-154.533 Y-556.394 Z5.794
X-153.847 Y-556.165 Z5.785
X-153.726 Y-556.128 Z5.783
X-153.03 Y-555.927 Z5.773
X-152.92 Y-555.897 Z5.772
X-152.217 Y-555.722 Z5.762
X-152.109 Y-555.697 Z5.76
X-151.398 Y-555.547 Z5.751
X-151.3 Y-555.528 Z5.749
X-150.584 Y-555.401 Z5.74
X-150.494 Y-555.387 Z5.738
X-149.773 Y-555.281 Z5.728
X-149.697 Y-555.27 Z5.727
X-148.972 Y-555.182 Z5.718
X-148.891 Y-555.174 Z5.717
X-148.163 Y-555.105 Z5.707
X-148.104 Y-555.1 Z5.706
X-147.373 Y-555.045 Z5.696
X-147.314 Y-555.041 Z5.695
X-146.582 Y-555 Z5.685
X-146.513 Y-554.997 Z5.684
X-145.045 Y-554.948 Z5.665
X-144.98 Y-554.946 Z5.664
X-143.51 Y-554.928 Z5.644
X-143.478
X-140.55 Y-554.922 Z5.604
X-139.128 Y-554.905 Z5.585
X-137.727 Y-554.858 Z5.566
X-137.059 Y-554.82 Z5.557
X-136.387 Y-554.77 Z5.548
X-135.729 Y-554.708 Z5.539
X-135.083 Y-554.629 Z5.53
X-134.445 Y-554.535 Z5.522
X-133.823 Y-554.425 Z5.513
X-133.215 Y-554.297 Z5.505
X-132.621 Y-554.149 Z5.497
X-132.041 Y-553.981 Z5.488
X-131.478 Y-553.794 Z5.48
X-130.933 Y-553.584 Z5.473
X-130.402 Y-553.352 Z5.465
X-129.889 Y-553.097 Z5.457
X-129.377 Y-552.809 Z5.449
X-129.153 Y-552.67 Z5.446
X-128.916 Y-552.515 Z5.442
X-128.681 Y-552.351 Z5.438
X-128.449 Y-552.18 Z5.434
X-128.225 Y-552.005 Z5.43
X-128.006 Y-551.822 Z5.426
X-127.786 Y-551.628 Z5.422
X-127.568 Y-551.425 Z5.418
X-127.361 Y-551.22 Z5.415
X-127.155 Y-551.002 Z5.41
X-126.95 Y-550.774 Z5.406
X-126.751 Y-550.539 Z5.402
X-126.552 Y-550.288 Z5.398
X-126.36 Y-550.032 Z5.394
X-126.173 Y-549.766 Z5.389
X-125.984 Y-549.483 Z5.385
X-125.804 Y-549.195 Z5.38
X-125.627 Y-548.892 Z5.375
X-125.453 Y-548.578 Z5.371
X-125.286 Y-548.252 Z5.366
X-125.121 Y-547.908 Z5.36
X-124.96 Y-547.554 Z5.355
X-124.805 Y-547.186 Z5.35
X-124.657 Y-546.807 Z5.344
X-124.513 Y-546.412 Z5.339
X-124.374 Y-546 Z5.333
X-124.241 Y-545.576 Z5.327
X-124.115 Y-545.139 Z5.321
X-123.995 Y-544.683 Z5.314
X-123.881 Y-544.214 Z5.308
X-123.774 Y-543.73 Z5.301
X-123.674 Y-543.227 Z5.294
X-123.58 Y-542.713 Z5.287
X-123.495 Y-542.184 Z5.28
X-123.417 Y-541.635 Z5.273
X-123.346 Y-541.072 Z5.265
X-123.284 Y-540.495 Z5.257
X-123.229 Y-539.899 Z5.249
X-123.182 Y-539.287 Z5.241
X-123.144 Y-538.674 Z5.233
X-123.092 Y-537.363 Z5.215
X-123.075 Y-535.981 Z5.196
Y-447.125 Z4
Y-64.019 F850
X-123.092 Y-62.637
X-123.144 Y-61.326
X-123.182 Y-60.712
X-123.229 Y-60.102
X-123.284 Y-59.505
X-123.346 Y-58.927
X-123.417 Y-58.365
X-123.495 Y-57.817
X-123.58 Y-57.287
X-123.674 Y-56.773
X-123.774 Y-56.27
X-123.881 Y-55.786
X-123.995 Y-55.317
X-124.115 Y-54.862
X-124.241 Y-54.424
X-124.374 Y-54
X-124.513 Y-53.588
X-124.657 Y-53.193
X-124.805 Y-52.814
X-124.961 Y-52.446
X-125.121 Y-52.091
X-125.286 Y-51.749
X-125.453 Y-51.423
X-125.627 Y-51.109
X-125.805 Y-50.805
X-125.985 Y-50.516
X-126.172 Y-50.234
X-126.36 Y-49.967
X-126.552 Y-49.711
X-126.75 Y-49.462
X-126.95 Y-49.226
X-127.154 Y-48.998
X-127.361 Y-48.78
X-127.569 Y-48.574
X-127.785 Y-48.372
X-128.005 Y-48.178
X-128.226 Y-47.995
X-128.451 Y-47.819
X-128.68 Y-47.649
X-128.915 Y-47.486
X-129.153 Y-47.329
X-129.376 Y-47.192
X-129.889 Y-46.903
X-130.402 Y-46.648
X-130.932 Y-46.416
X-131.479 Y-46.207
X-132.041 Y-46.019
X-132.621 Y-45.852
X-133.215 Y-45.704
X-133.824 Y-45.575
X-134.447 Y-45.465
X-135.082 Y-45.371
X-135.73 Y-45.293
X-136.389 Y-45.23
X-137.059 Y-45.18
X-137.728 Y-45.142
X-139.128 Y-45.095
X-140.55 Y-45.078
X-143.477 Y-45.072
X-143.51
X-144.98 Y-45.054
X-145.045 Y-45.053
X-146.513 Y-45.003
X-146.582 Y-45
X-147.314 Y-44.959
X-147.371 Y-44.955
X-148.102 Y-44.901
X-148.167 Y-44.895
X-148.895 Y-44.825
X-148.968 Y-44.817
X-149.693 Y-44.73
X-149.775 Y-44.719
X-150.496 Y-44.613
X-150.585 Y-44.598
X-151.301 Y-44.471
X-151.398 Y-44.452
X-152.109 Y-44.302
X-152.216 Y-44.278
X-152.919 Y-44.103
X-153.03 Y-44.073
X-153.726 Y-43.872
X-153.847 Y-43.834
X-154.533 Y-43.605
X-154.659 Y-43.56
X-155.335 Y-43.301
X-155.468 Y-43.247
X-156.132 Y-42.956
X-156.268 Y-42.893
X-156.919 Y-42.569
X-157.058 Y-42.495
X-157.695 Y-42.137
X-157.804 Y-42.073
X-158.116 Y-41.88
X-158.186 Y-41.835
X-158.494 Y-41.633
X-158.564 Y-41.586
X-158.868 Y-41.374
X-158.936 Y-41.325
X-159.236 Y-41.104
X-159.308 Y-41.049
X-159.603 Y-40.818
X-159.672 Y-40.762
X-159.962 Y-40.521
X-160.031 Y-40.462
X-160.316 Y-40.21
X-160.378 Y-40.154
X-160.659 Y-39.892
X-160.727 Y-39.827
X-161.002 Y-39.554
X-161.067 Y-39.487
X-161.336 Y-39.204
X-161.395 Y-39.14
X-161.659 Y-38.846
X-161.719 Y-38.777
X-161.977 Y-38.471
X-162.035 Y-38.401
X-162.286 Y-38.085
X-162.337 Y-38.019
X-162.584 Y-37.691
X-162.643 Y-37.61
X-162.882 Y-37.27
X-162.926 Y-37.205
X-163.16 Y-36.853
X-163.209 Y-36.778
X-163.436 Y-36.415
X-163.481 Y-36.34
X-163.701 Y-35.964
X-163.74 Y-35.896
X-163.954 Y-35.508
X-163.995 Y-35.429
X-164.201 Y-35.029
X-164.237 Y-34.957
X-164.436 Y-34.544
X-164.469 Y-34.474
X-164.661 Y-34.048
X-164.691 Y-33.979
X-164.876 Y-33.54
X-164.906 Y-33.468
X-165.083 Y-33.016
X-165.11 Y-32.945
X-165.279 Y-32.481
X-165.303 Y-32.412
X-165.464 Y-31.934
X-165.484 Y-31.872
X-165.638 Y-31.381
X-165.659 Y-31.311
X-165.804 Y-30.807
X-165.822 Y-30.743
X-165.959 Y-30.225
X-165.974 Y-30.164
X-166.103 Y-29.633
X-166.118 Y-29.569
X-166.238 Y-29.024
X-166.25 Y-28.967
X-166.362 Y-28.408
X-166.373 Y-28.353
X-166.477 Y-27.781
X-166.487 Y-27.718
X-166.581 Y-27.131
X-166.589 Y-27.08
X-166.675 Y-26.48
X-166.682 Y-26.426
X-166.759 Y-25.812
X-166.765 Y-25.76
X-166.833 Y-25.131
X-166.838 Y-25.082
X-166.897 Y-24.439
X-166.901 Y-24.396
X-166.952 Y-23.738
X-166.955 Y-23.688
X-166.996 Y-23.016
X-167 Y-22.951
X-167.055 Y-21.565
X-167.057 Y-21.482
X-167.075 Y-20.038
G2 X-164 Y-16.925 I3.075 J0.038
G1 X-20
G2 X-16.925 Y-20 J-3.075
G1 Y-580
G2 X-20 Y-583.075 I-3.075
G1 X-164
G2 X-167.075 Y-579.962 J3.075
G1 X-167.057 Y-578.519
X-167.055 Y-578.435
X-167 Y-577.049
X-166.996 Y-576.983
X-166.955 Y-576.312
X-166.952 Y-576.262
X-166.901 Y-575.604
X-166.897 Y-575.561
X-166.838 Y-574.918
X-166.833 Y-574.868
X-166.765 Y-574.24
X-166.759 Y-574.189
X-166.682 Y-573.574
X-166.675 Y-573.52
X-166.589 Y-572.919
X-166.581 Y-572.868
X-166.487 Y-572.282
X-166.477 Y-572.22
X-166.373 Y-571.647
X-166.362 Y-571.592
X-166.25 Y-571.033
X-166.238 Y-570.976
X-166.118 Y-570.431
X-166.103 Y-570.366
X-165.974 Y-569.835
X-165.959 Y-569.775
X-165.822 Y-569.257
X-165.804 Y-569.193
X-165.659 Y-568.689
X-165.638 Y-568.619
X-165.484 Y-568.128
X-165.464 Y-568.065
X-165.303 Y-567.588
X-165.279 Y-567.521
X-165.11 Y-567.056
X-165.082 Y-566.983
X-164.905 Y-566.532
X-164.877 Y-566.461
X-164.692 Y-566.022
X-164.66 Y-565.95
X-164.468 Y-565.525
X-164.436 Y-565.456
X-164.237 Y-565.043
X-164.202 Y-564.973
X-163.996 Y-564.572
X-163.954 Y-564.492
X-163.74 Y-564.104
X-163.701 Y-564.036
X-163.481 Y-563.66
X-163.434 Y-563.583
X-163.207 Y-563.22
X-163.161 Y-563.148
X-162.927 Y-562.796
X-162.882 Y-562.73
X-162.643 Y-562.39
X-162.583 Y-562.308
X-162.336 Y-561.98
X-162.287 Y-561.917
X-162.035 Y-561.599
X-161.979 Y-561.531
X-161.721 Y-561.225
X-161.658 Y-561.153
X-161.394 Y-560.859
X-161.339 Y-560.798
X-161.07 Y-560.514
X-160.999 Y-560.443
X-160.724 Y-560.171
X-160.659 Y-560.108
X-160.378 Y-559.846
X-160.318 Y-559.791
X-160.033 Y-559.539
X-159.961 Y-559.478
X-159.671 Y-559.237
X-159.602 Y-559.181
X-159.307 Y-558.95
X-159.235 Y-558.895
X-158.935 Y-558.674
X-158.87 Y-558.628
X-158.566 Y-558.416
X-158.493 Y-558.367
X-158.185 Y-558.165
X-158.117 Y-558.121
X-157.805 Y-557.928
X-157.697 Y-557.864
X-157.06 Y-557.505
X-156.917 Y-557.429
X-156.266 Y-557.106
X-156.133 Y-557.045
X-155.469 Y-556.754
X-155.335 Y-556.699
X-154.659 Y-556.44
X-154.533 Y-556.394
X-153.847 Y-556.165
X-153.726 Y-556.128
X-153.03 Y-555.927
X-152.92 Y-555.897
X-152.217 Y-555.722
X-152.109 Y-555.697
X-151.398 Y-555.547
X-151.3 Y-555.528
X-150.584 Y-555.401
X-150.494 Y-555.387
X-149.773 Y-555.281
X-149.697 Y-555.27
X-148.972 Y-555.182
X-148.891 Y-555.174
X-148.163 Y-555.105
X-148.104 Y-555.1
X-147.373 Y-555.045
X-147.314 Y-555.041
X-146.582 Y-555
X-146.513 Y-554.997
X-145.045 Y-554.948
X-144.98 Y-554.946
X-143.51 Y-554.928
X-143.478
X-142.006 Y-554.925
X-140.55 Y-554.922
X-139.128 Y-554.905
X-137.727 Y-554.858
X-137.059 Y-554.82
X-136.387 Y-554.77
X-135.729 Y-554.708
X-135.083 Y-554.629
X-134.445 Y-554.535
X-133.823 Y-554.425
X-133.215 Y-554.297
X-132.621 Y-554.149
X-132.041 Y-553.981
X-131.478 Y-553.794
X-130.933 Y-553.584
X-130.402 Y-553.352
X-129.889 Y-553.097
X-129.377 Y-552.809
X-129.153 Y-552.67
X-128.916 Y-552.515
X-128.681 Y-552.351
X-128.449 Y-552.18
X-128.225 Y-552.005
X-128.006 Y-551.822
X-127.786 Y-551.628
X-127.568 Y-551.425
X-127.361 Y-551.22
X-127.155 Y-551.002
X-126.95 Y-550.774
X-126.751 Y-550.539
X-126.552 Y-550.288
X-126.36 Y-550.032
X-126.173 Y-549.766
X-125.984 Y-549.483
X-125.804 Y-549.195
X-125.627 Y-548.892
X-125.453 Y-548.578
X-125.286 Y-548.252
X-125.121 Y-547.908
X-124.96 Y-547.554
X-124.805 Y-547.186
X-124.657 Y-546.807
X-124.513 Y-546.412
X-124.374 Y-546
X-124.241 Y-545.576
X-124.115 Y-545.139
X-123.995 Y-544.683
X-123.881 Y-544.214
X-123.774 Y-543.73
X-123.674 Y-543.227
X-123.58 Y-542.713
X-123.495 Y-542.184
X-123.417 Y-541.635
X-123.346 Y-541.072
X-123.284 Y-540.495
X-123.229 Y-539.899
X-123.182 Y-539.287
X-123.144 Y-538.674
X-123.092 Y-537.363
X-123.075 Y-535.981
Y-447.125
Y-365.15 Z2.896 F350
Z3
Y-352.85
Z2.731 F333.3
Y-298.571 Z2 F350
Y-247.15 F850
Z3
Y-234.85
Z2 F333.3
Y-129.15 F850
Z3
Y-116.85
Z2 F333.3
Y-64.019 F850
X-123.092 Y-62.637
X-123.144 Y-61.326
X-123.182 Y-60.712
X-123.229 Y-60.102
X-123.284 Y-59.505
X-123.346 Y-58.927
X-123.417 Y-58.365
X-123.495 Y-57.817
X-123.58 Y-57.287
X-123.674 Y-56.773
X-123.774 Y-56.27
X-123.881 Y-55.786
X-123.995 Y-55.317
X-124.115 Y-54.862
X-124.241 Y-54.424
X-124.374 Y-54
X-124.513 Y-53.588
X-124.657 Y-53.193
X-124.805 Y-52.814
X-124.961 Y-52.446
X-125.121 Y-52.091
X-125.286 Y-51.749
X-125.453 Y-51.423
X-125.627 Y-51.109
X-125.805 Y-50.805
X-125.985 Y-50.516
X-126.172 Y-50.234
X-126.36 Y-49.967
X-126.552 Y-49.711
X-126.75 Y-49.462
X-126.95 Y-49.226
X-127.154 Y-48.998
X-127.361 Y-48.78
X-127.569 Y-48.574
X-127.785 Y-48.372
X-128.005 Y-48.178
X-128.226 Y-47.995
X-128.451 Y-47.819
X-128.68 Y-47.649
X-128.915 Y-47.486
X-129.153 Y-47.329
X-129.376 Y-47.192
X-129.889 Y-46.903
X-130.402 Y-46.648
X-130.932 Y-46.416
X-131.479 Y-46.207
X-132.041 Y-46.019
X-132.621 Y-45.852
X-133.215 Y-45.704
X-133.824 Y-45.575
X-134.447 Y-45.465
X-135.082 Y-45.371
X-135.73 Y-45.293
X-136.389 Y-45.23
X-137.059 Y-45.18
X-137.728 Y-45.142
X-139.128 Y-45.095
X-140.55 Y-45.078
X-143.477 Y-45.072
X-143.51
X-144.98 Y-45.054
X-145.045 Y-45.053
X-146.513 Y-45.003
X-146.582 Y-45
X-147.314 Y-44.959
X-147.371 Y-44.955
X-148.102 Y-44.901
X-148.167 Y-44.895
X-148.895 Y-44.825
X-148.968 Y-44.817
X-149.693 Y-44.73
X-149.775 Y-44.719
X-150.496 Y-44.613
X-150.585 Y-44.598
X-151.301 Y-44.471
X-151.398 Y-44.452
X-152.109 Y-44.302
X-152.216 Y-44.278
X-152.919 Y-44.103
X-153.03 Y-44.073
X-153.726 Y-43.872
X-153.847 Y-43.834
X-154.533 Y-43.605
X-154.659 Y-43.56
X-155.335 Y-43.301
X-155.468 Y-43.247
X-156.132 Y-42.956
X-156.268 Y-42.893
X-156.919 Y-42.569
X-157.058 Y-42.495
X-157.695 Y-42.137
X-157.804 Y-42.073
X-158.116 Y-41.88
X-158.186 Y-41.835
X-158.494 Y-41.633
X-158.564 Y-41.586
X-158.868 Y-41.374
X-158.936 Y-41.325
X-159.236 Y-41.104
X-159.308 Y-41.049
X-159.603 Y-40.818
X-159.672 Y-40.762
X-159.962 Y-40.521
X-160.031 Y-40.462
X-160.316 Y-40.21
X-160.378 Y-40.154
X-160.659 Y-39.892
X-160.727 Y-39.827
X-161.002 Y-39.554
X-161.067 Y-39.487
X-161.336 Y-39.204
X-161.395 Y-39.14
X-161.659 Y-38.846
X-161.719 Y-38.777
X-161.977 Y-38.471
X-162.035 Y-38.401
X-162.286 Y-38.085
X-162.337 Y-38.019
X-162.584 Y-37.691
X-162.643 Y-37.61
X-162.882 Y-37.27
X-162.926 Y-37.205
X-163.16 Y-36.853
X-163.209 Y-36.778
X-163.436 Y-36.415
X-163.481 Y-36.34
X-163.701 Y-35.964
X-163.74 Y-35.896
X-163.954 Y-35.508
X-163.995 Y-35.429
X-164.201 Y-35.029
X-164.237 Y-34.957
X-164.436 Y-34.544
X-164.469 Y-34.474
X-164.661 Y-34.048
X-164.691 Y-33.979
X-164.876 Y-33.54
X-164.906 Y-33.468
X-165.083 Y-33.016
X-165.11 Y-32.945
X-165.279 Y-32.481
X-165.303 Y-32.412
X-165.464 Y-31.934
X-165.484 Y-31.872
X-165.638 Y-31.381
X-165.659 Y-31.311
X-165.804 Y-30.807
X-165.822 Y-30.743
X-165.959 Y-30.225
X-165.974 Y-30.164
X-166.103 Y-29.633
X-166.118 Y-29.569
X-166.238 Y-29.024
X-166.25 Y-28.967
X-166.362 Y-28.408
X-166.373 Y-28.353
X-166.477 Y-27.781
X-166.487 Y-27.718
X-166.581 Y-27.131
X-166.589 Y-27.08
X-166.675 Y-26.48
X-166.682 Y-26.426
X-166.759 Y-25.812
X-166.765 Y-25.76
X-166.833 Y-25.131
X-166.838 Y-25.082
X-166.897 Y-24.439
X-166.901 Y-24.396
X-166.952 Y-23.738
X-166.955 Y-23.688
X-166.996 Y-23.016
X-167 Y-22.951
X-167.055 Y-21.565
X-167.057 Y-21.482
X-167.075 Y-20.038
G2 X-164 Y-16.925 I3.075 J0.038
G1 X-98.15
Z3
X-85.85
Z2 F333.3
X-20 F850
G2 X-16.925 Y-20 J-3.075
G1 Y-69.85
Z3
Y-82.15
Z2 F333.3
Y-181.85 F850
Z3
Y-194.15
Z2 F333.3
Y-293.85 F850
Z3
Y-306.15
Z2 F333.3
Y-405.85 F850
Z3
Y-418.15
Z2 F333.3
Y-517.85 F850
Z3
Y-530.15
Z2 F333.3
Y-580 F850
G2 X-20 Y-583.075 I-3.075
G1 X-85.85
Z3
X-98.15
Z2 F333.3
X-164 F850
G2 X-167.075 Y-579.962 J3.075
G1 X-167.057 Y-578.519
X-167.055 Y-578.435
X-167 Y-577.049
X-166.996 Y-576.983
X-166.955 Y-576.312
X-166.952 Y-576.262
X-166.901 Y-575.604
X-166.897 Y-575.561
X-166.838 Y-574.918
X-166.833 Y-574.868
X-166.765 Y-574.24
X-166.759 Y-574.189
X-166.682 Y-573.574
X-166.675 Y-573.52
X-166.589 Y-572.919
X-166.581 Y-572.868
X-166.487 Y-572.282
X-166.477 Y-572.22
X-166.373 Y-571.647
X-166.362 Y-571.592
X-166.25 Y-571.033
X-166.238 Y-570.976
X-166.118 Y-570.431
X-166.103 Y-570.366
X-165.974 Y-569.835
X-165.959 Y-569.775
X-165.822 Y-569.257
X-165.804 Y-569.193
X-165.659 Y-568.689
X-165.638 Y-568.619
X-165.484 Y-568.128
X-165.464 Y-568.065
X-165.303 Y-567.588
X-165.279 Y-567.521
X-165.11 Y-567.056
X-165.082 Y-566.983
X-164.905 Y-566.532
X-164.877 Y-566.461
X-164.692 Y-566.022
X-164.66 Y-565.95
X-164.468 Y-565.525
X-164.436 Y-565.456
X-164.237 Y-565.043
X-164.202 Y-564.973
X-163.996 Y-564.572
X-163.954 Y-564.492
X-163.74 Y-564.104
X-163.701 Y-564.036
X-163.481 Y-563.66
X-163.434 Y-563.583
X-163.207 Y-563.22
X-163.161 Y-563.148
X-162.927 Y-562.796
X-162.882 Y-562.73
X-162.643 Y-562.39
X-162.583 Y-562.308
X-162.336 Y-561.98
X-162.287 Y-561.917
X-162.035 Y-561.599
X-161.979 Y-561.531
X-161.721 Y-561.225
X-161.658 Y-561.153
X-161.394 Y-560.859
X-161.339 Y-560.798
X-161.07 Y-560.514
X-160.999 Y-560.443
X-160.724 Y-560.171
X-160.659 Y-560.108
X-160.378 Y-559.846
X-160.318 Y-559.791
X-160.033 Y-559.539
X-159.961 Y-559.478
X-159.671 Y-559.237
X-159.602 Y-559.181
X-159.307 Y-558.95
X-159.235 Y-558.895
X-158.935 Y-558.674
X-158.87 Y-558.628
X-158.566 Y-558.416
X-158.493 Y-558.367
X-158.185 Y-558.165
X-158.117 Y-558.121
X-157.805 Y-557.928
X-157.697 Y-557.864
X-157.06 Y-557.505
X-156.917 Y-557.429
X-156.266 Y-557.106
X-156.133 Y-557.045
X-155.469 Y-556.754
X-155.335 Y-556.699
X-154.659 Y-556.44
X-154.533 Y-556.394
X-153.847 Y-556.165
X-153.726 Y-556.128
X-153.03 Y-555.927
X-152.92 Y-555.897
X-152.217 Y-555.722
X-152.109 Y-555.697
X-151.398 Y-555.547
X-151.3 Y-555.528
X-150.584 Y-555.401
X-150.494 Y-555.387
X-149.773 Y-555.281
X-149.697 Y-555.27
X-148.972 Y-555.182
X-148.891 Y-555.174
X-148.163 Y-555.105
X-148.104 Y-555.1
X-147.373 Y-555.045
X-147.314 Y-555.041
X-146.582 Y-555
X-146.513 Y-554.997
X-145.045 Y-554.948
X-144.98 Y-554.946
X-143.51 Y-554.928
X-143.478
X-140.55 Y-554.922
X-139.128 Y-554.905
X-137.727 Y-554.858
X-137.059 Y-554.82
X-136.387 Y-554.77
X-135.729 Y-554.708
X-135.083 Y-554.629
X-134.445 Y-554.535
X-133.823 Y-554.425
X-133.215 Y-554.297
X-132.621 Y-554.149
X-132.041 Y-553.981
X-131.478 Y-553.794
X-130.933 Y-553.584
X-130.402 Y-553.352
X-129.889 Y-553.097
X-129.377 Y-552.809
X-129.153 Y-552.67
X-128.916 Y-552.515
X-128.681 Y-552.351
X-128.449 Y-552.18
X-128.225 Y-552.005
X-128.006 Y-551.822
X-127.786 Y-551.628
X-127.568 Y-551.425
X-127.361 Y-551.22
X-127.155 Y-551.002
X-126.95 Y-550.774
X-126.751 Y-550.539
X-126.552 Y-550.288
X-126.36 Y-550.032
X-126.173 Y-549.766
X-125.984 Y-549.483
X-125.804 Y-549.195
X-125.627 Y-548.892
X-125.453 Y-548.578
X-125.286 Y-548.252
X-125.121 Y-547.908
X-124.96 Y-547.554
X-124.805 Y-547.186
X-124.657 Y-546.807
X-124.513 Y-546.412
X-124.374 Y-546
X-124.241 Y-545.576
X-124.115 Y-545.139
X-123.995 Y-544.683
X-123.881 Y-544.214
X-123.774 Y-543.73
X-123.674 Y-543.227
X-123.58 Y-542.713
X-123.495 Y-542.184
X-123.417 Y-541.635
X-123.346 Y-541.072
X-123.284 Y-540.495
X-123.229 Y-539.899
X-123.182 Y-539.287
X-123.144 Y-538.674
X-123.092 Y-537.363
X-123.075 Y-535.981
Y-483.15
Z3
Y-470.85
Z2 F333.3
Y-365.15 F850
Z3
Y-352.85
Z2 F333.3
Y-298.571 F850
Y-247.15 Z1.308 F350
Z3
Y-234.85
Z1.142 F333.3
Y-150.016 Z0 F350
Y-129.15 F850
Z3
Y-116.85
Z0 F333.3
Y-64.019 F850
X-123.092 Y-62.637
X-123.144 Y-61.326
X-123.182 Y-60.712
X-123.229 Y-60.102
X-123.284 Y-59.505
X-123.346 Y-58.927
X-123.417 Y-58.365
X-123.495 Y-57.817
X-123.58 Y-57.287
X-123.674 Y-56.773
X-123.774 Y-56.27
X-123.881 Y-55.786
X-123.995 Y-55.317
X-124.115 Y-54.862
X-124.241 Y-54.424
X-124.374 Y-54
X-124.513 Y-53.588
X-124.657 Y-53.193
X-124.805 Y-52.814
X-124.961 Y-52.446
X-125.121 Y-52.091
X-125.286 Y-51.749
X-125.453 Y-51.423
X-125.627 Y-51.109
X-125.805 Y-50.805
X-125.985 Y-50.516
X-126.172 Y-50.234
X-126.36 Y-49.967
X-126.552 Y-49.711
X-126.75 Y-49.462
X-126.95 Y-49.226
X-127.154 Y-48.998
X-127.361 Y-48.78
X-127.569 Y-48.574
X-127.785 Y-48.372
X-128.005 Y-48.178
X-128.226 Y-47.995
X-128.451 Y-47.819
X-128.68 Y-47.649
X-128.915 Y-47.486
X-129.153 Y-47.329
X-129.376 Y-47.192
X-129.889 Y-46.903
X-130.402 Y-46.648
X-130.932 Y-46.416
X-131.479 Y-46.207
X-132.041 Y-46.019
X-132.621 Y-45.852
X-133.215 Y-45.704
X-133.824 Y-45.575
X-134.447 Y-45.465
X-135.082 Y-45.371
X-135.73 Y-45.293
X-136.389 Y-45.23
X-137.059 Y-45.18
X-137.728 Y-45.142
X-139.128 Y-45.095
X-140.55 Y-45.078
X-143.477 Y-45.072
X-143.51
X-144.98 Y-45.054
X-145.045 Y-45.053
X-146.513 Y-45.003
X-146.582 Y-45
X-147.314 Y-44.959
X-147.371 Y-44.955
X-148.102 Y-44.901
X-148.167 Y-44.895
X-148.895 Y-44.825
X-148.968 Y-44.817
X-149.693 Y-44.73
X-149.775 Y-44.719
X-150.496 Y-44.613
X-150.585 Y-44.598
X-151.301 Y-44.471
X-151.398 Y-44.452
X-152.109 Y-44.302
X-152.216 Y-44.278
X-152.919 Y-44.103
X-153.03 Y-44.073
X-153.726 Y-43.872
X-153.847 Y-43.834
X-154.533 Y-43.605
X-154.659 Y-43.56
X-155.335 Y-43.301
X-155.468 Y-43.247
X-156.132 Y-42.956
X-156.268 Y-42.893
X-156.919 Y-42.569
X-157.058 Y-42.495
X-157.695 Y-42.137
X-157.804 Y-42.073
X-158.116 Y-41.88
X-158.186 Y-41.835
X-158.494 Y-41.633
X-158.564 Y-41.586
X-158.868 Y-41.374
X-158.936 Y-41.325
X-159.236 Y-41.104
X-159.308 Y-41.049
X-159.603 Y-40.818
X-159.672 Y-40.762
X-159.962 Y-40.521
X-160.031 Y-40.462
X-160.316 Y-40.21
X-160.378 Y-40.154
X-160.659 Y-39.892
X-160.727 Y-39.827
X-161.002 Y-39.554
X-161.067 Y-39.487
X-161.336 Y-39.204
X-161.395 Y-39.14
X-161.659 Y-38.846
X-161.719 Y-38.777
X-161.977 Y-38.471
X-162.035 Y-38.401
X-162.286 Y-38.085
X-162.337 Y-38.019
X-162.584 Y-37.691
X-162.643 Y-37.61
X-162.882 Y-37.27
X-162.926 Y-37.205
X-163.16 Y-36.853
X-163.209 Y-36.778
X-163.436 Y-36.415
X-163.481 Y-36.34
X-163.701 Y-35.964
X-163.74 Y-35.896
X-163.954 Y-35.508
X-163.995 Y-35.429
X-164.201 Y-35.029
X-164.237 Y-34.957
X-164.436 Y-34.544
X-164.469 Y-34.474
X-164.661 Y-34.048
X-164.691 Y-33.979
X-164.876 Y-33.54
X-164.906 Y-33.468
X-165.083 Y-33.016
X-165.11 Y-32.945
X-165.279 Y-32.481
X-165.303 Y-32.412
X-165.464 Y-31.934
X-165.484 Y-31.872
X-165.638 Y-31.381
X-165.659 Y-31.311
X-165.804 Y-30.807
X-165.822 Y-30.743
X-165.959 Y-30.225
X-165.974 Y-30.164
X-166.103 Y-29.633
X-166.118 Y-29.569
X-166.238 Y-29.024
X-166.25 Y-28.967
X-166.362 Y-28.408
X-166.373 Y-28.353
X-166.477 Y-27.781
X-166.487 Y-27.718
X-166.581 Y-27.131
X-166.589 Y-27.08
X-166.675 Y-26.48
X-166.682 Y-26.426
X-166.759 Y-25.812
X-166.765 Y-25.76
X-166.833 Y-25.131
X-166.838 Y-25.082
X-166.897 Y-24.439
X-166.901 Y-24.396
X-166.952 Y-23.738
X-166.955 Y-23.688
X-166.996 Y-23.016
X-167 Y-22.951
X-167.055 Y-21.565
X-167.057 Y-21.482
X-167.075 Y-20.038
G2 X-164 Y-16.925 I3.075 J0.038
G1 X-98.15
Z3
X-85.85
Z0 F333.3
X-20 F850
G2 X-16.925 Y-20 J-3.075
G1 Y-69.85
Z3
Y-82.15
Z0 F333.3
Y-181.85 F850
Z3
Y-194.15
Z0 F333.3
Y-293.85 F850
Z3
Y-306.15
Z0 F333.3
Y-405.85 F850
Z3
Y-418.15
Z0 F333.3
Y-517.85 F850
Z3
Y-530.15
Z0 F333.3
Y-580 F850
G2 X-20 Y-583.075 I-3.075
G1 X-85.85
Z3
X-98.15
Z0 F333.3
X-164 F850
G2 X-167.075 Y-579.962 J3.075
G1 X-167.057 Y-578.519
X-167.055 Y-578.435
X-167 Y-577.049
X-166.996 Y-576.983
X-166.955 Y-576.312
X-166.952 Y-576.262
X-166.901 Y-575.604
X-166.897 Y-575.561
X-166.838 Y-574.918
X-166.833 Y-574.868
X-166.765 Y-574.24
X-166.759 Y-574.189
X-166.682 Y-573.574
X-166.675 Y-573.52
X-166.589 Y-572.919
X-166.581 Y-572.868
X-166.487 Y-572.282
X-166.477 Y-572.22
X-166.373 Y-571.647
X-166.362 Y-571.592
X-166.25 Y-571.033
X-166.238 Y-570.976
X-166.118 Y-570.431
X-166.103 Y-570.366
X-165.974 Y-569.835
X-165.959 Y-569.775
X-165.822 Y-569.257
X-165.804 Y-569.193
X-165.659 Y-568.689
X-165.638 Y-568.619
X-165.484 Y-568.128
X-165.464 Y-568.065
X-165.303 Y-567.588
X-165.279 Y-567.521
X-165.11 Y-567.056
X-165.082 Y-566.983
X-164.905 Y-566.532
X-164.877 Y-566.461
X-164.692 Y-566.022
X-164.66 Y-565.95
X-164.468 Y-565.525
X-164.436 Y-565.456
X-164.237 Y-565.043
X-164.202 Y-564.973
X-163.996 Y-564.572
X-163.954 Y-564.492
X-163.74 Y-564.104
X-163.701 Y-564.036
X-163.481 Y-563.66
X-163.434 Y-563.583
X-163.207 Y-563.22
X-163.161 Y-563.148
X-162.927 Y-562.796
X-162.882 Y-562.73
X-162.643 Y-562.39
X-162.583 Y-562.308
X-162.336 Y-561.98
X-162.287 Y-561.917
X-162.035 Y-561.599
X-161.979 Y-561.531
X-161.721 Y-561.225
X-161.658 Y-561.153
X-161.394 Y-560.859
X-161.339 Y-560.798
X-161.07 Y-560.514
X-160.999 Y-560.443
X-160.724 Y-560.171
X-160.659 Y-560.108
X-160.378 Y-559.846
X-160.318 Y-559.791
X-160.033 Y-559.539
X-159.961 Y-559.478
X-159.671 Y-559.237
X-159.602 Y-559.181
X-159.307 Y-558.95
X-159.235 Y-558.895
X-158.935 Y-558.674
X-158.87 Y-558.628
X-158.566 Y-558.416
X-158.493 Y-558.367
X-158.185 Y-558.165
X-158.117 Y-558.121
X-157.805 Y-557.928
X-157.697 Y-557.864
X-157.06 Y-557.505
X-156.917 Y-557.429
X-156.266 Y-557.106
X-156.133 Y-557.045
X-155.469 Y-556.754
X-155.335 Y-556.699
X-154.659 Y-556.44
X-154.533 Y-556.394
X-153.847 Y-556.165
X-153.726 Y-556.128
X-153.03 Y-555.927
X-152.92 Y-555.897
X-152.217 Y-555.722
X-152.109 Y-555.697
X-151.398 Y-555.547
X-151.3 Y-555.528
X-150.584 Y-555.401
X-150.494 Y-555.387
X-149.773 Y-555.281
X-149.697 Y-555.27
X-148.972 Y-555.182
X-148.891 Y-555.174
X-148.163 Y-555.105
X-148.104 Y-555.1
X-147.373 Y-555.045
X-147.314 Y-555.041
X-146.582 Y-555
X-146.513 Y-554.997
X-145.045 Y-554.948
X-144.98 Y-554.946
X-143.51 Y-554.928
X-143.478
X-140.55 Y-554.922
X-139.128 Y-554.905
X-137.727 Y-554.858
X-137.059 Y-554.82
X-136.387 Y-554.77
X-135.729 Y-554.708
X-135.083 Y-554.629
X-134.445 Y-554.535
X-133.823 Y-554.425
X-133.215 Y-554.297
X-132.621 Y-554.149
X-132.041 Y-553.981
X-131.478 Y-553.794
X-130.933 Y-553.584
X-130.402 Y-553.352
X-129.889 Y-553.097
X-129.377 Y-552.809
X-129.153 Y-552.67
X-128.916 Y-552.515
X-128.681 Y-552.351
X-128.449 Y-552.18
X-128.225 Y-552.005
X-128.006 Y-551.822
X-127.786 Y-551.628
X-127.568 Y-551.425
X-127.361 Y-551.22
X-127.155 Y-551.002
X-126.95 Y-550.774
X-126.751 Y-550.539
X-126.552 Y-550.288
X-126.36 Y-550.032
X-126.173 Y-549.766
X-125.984 Y-549.483
X-125.804 Y-549.195
X-125.627 Y-548.892
X-125.453 Y-548.578
X-125.286 Y-548.252
X-125.121 Y-547.908
X-124.96 Y-547.554
X-124.805 Y-547.186
X-124.657 Y-546.807
X-124.513 Y-546.412
X-124.374 Y-546
X-124.241 Y-545.576
X-124.115 Y-545.139
X-123.995 Y-544.683
X-123.881 Y-544.214
X-123.774 Y-543.73
X-123.674 Y-543.227
X-123.58 Y-542.713
X-123.495 Y-542.184
X-123.417 Y-541.635
X-123.346 Y-541.072
X-123.284 Y-540.495
X-123.229 Y-539.899
X-123.182 Y-539.287
X-123.144 Y-538.674
X-123.092 Y-537.363
X-123.075 Y-535.981
Y-483.15
Z3
Y-470.85
Z0 F333.3
Y-365.15 F850
Z3
Y-352.85
Z0 F333.3
Y-247.15 F850
Z3
Y-234.85
Z0 F333.3
Y-150.016 F850
G0 Z23
X-232.398 Y-66.925
G1 Z21 F333.3
Z20.5
X-206.877 Z16 F350
X-141 F850
G2 X-137.925 Y-70 J-3.075
G1 Y-282
G2 X-141 Y-285.075 I-3.075
G1 X-241
G2 X-244.075 Y-282 J3.075
G1 Y-70
G2 X-241 Y-66.925 I3.075
G1 X-206.877
G0 Z23
X-246.925 Y-25.521
G1 Z21 F333.3
Z20.5
Y0 Z16 F350
Y-602 F850
G2 X-250 Y-605.075 I-3.075
G1 X-462
G2 X-465.075 Y-602 J3.075
G1 Y0
G0 Z23
X-465.925 Y-25.521
G1 Z21 F333.3
Z20.5
Y0 Z16 F350
Y-602 F850
G2 X-469 Y-605.075 I-3.075
G1 X-681
G2 X-684.075 Y-602 J3.075
G1 Y0
G0 Z23
X-684.925 Y-25.521
G1 Z21 F333.3
Z20.5
Y0 Z16 F350
Y-602 F850
G2 X-688 Y-605.075 I-3.075
G1 X-1060
G2 X-1063.075 Y-602 J3.075
G1 Y0
G0 Z23
X-684.925 Y-25.521
G1 Z19 F333.3
Z18.5
Y0 Z14 F350
Y-602 F850
G2 X-688 Y-605.075 I-3.075
G1 X-1060
G2 X-1063.075 Y-602 J3.075
G1 Y0
G0 Z23
X-465.925 Y-25.521
G1 Z19 F333.3
Z18.5
Y0 Z14 F350
Y-602 F850
G2 X-469 Y-605.075 I-3.075
G1 X-681
G2 X-684.075 Y-602 J3.075
G1 Y0
G0 Z23
X-684.925 Y-25.521
G1 Z17 F333.3
Z16.5
Y0 Z12 F350
Y-602 F850
G2 X-688 Y-605.075 I-3.075
G1 X-1060
G2 X-1063.075 Y-602 J3.075
G1 Y0
G0 Z23
X-246.925 Y-25.521
G1 Z19 F333.3
Z18.5
Y0 Z14 F350
Y-602 F850
G2 X-250 Y-605.075 I-3.075
G1 X-462
G2 X-465.075 Y-602 J3.075
G1 Y0
G0 Z23
X-465.925 Y-25.521
G1 Z17 F333.3
Z16.5
Y0 Z12 F350
Y-602 F850
G2 X-469 Y-605.075 I-3.075
G1 X-681
G2 X-684.075 Y-602 J3.075
G1 Y0
G0 Z23
X-684.925 Y-25.521
G1 Z15 F333.3
Z14.5
Y0 Z10 F350
Y-602 F850
G2 X-688 Y-605.075 I-3.075
G1 X-1060
G2 X-1063.075 Y-602 J3.075
G1 Y0
G0 Z23
X-232.398 Y-66.925
G1 Z19 F333.3
Z18.5
X-206.877 Z14 F350
X-141 F850
G2 X-137.925 Y-70 J-3.075
G1 Y-282
G2 X-141 Y-285.075 I-3.075
G1 X-241
G2 X-244.075 Y-282 J3.075
G1 Y-70
G2 X-241 Y-66.925 I3.075
G1 X-206.877
G0 Z23
X-178.165 Y-504.075
G1 Z19 F333.3
Z18.5
X-203.686 Z14 F350
X-241 F850
G2 X-244.075 Y-501 J3.075
G1 Y-289
G2 X-241 Y-285.925 I3.075
G1 X-141
G2 X-137.925 Y-289 J-3.075
G1 Y-501
G2 X-141 Y-504.075 I-3.075
G1 X-203.686
G0 Z23
X-178.165
G1 Z17 F333.3
Z16.5
X-203.686 Z12 F350
X-241 F850
G2 X-244.075 Y-501 J3.075
G1 Y-289
G2 X-241 Y-285.925 I3.075
G1 X-141
G2 X-137.925 Y-289 J-3.075
G1 Y-501
G2 X-141 Y-504.075 I-3.075
G1 X-203.686
G0 Z23
X-232.398 Y-66.925
G1 Z17 F333.3
Z16.5
X-206.877 Z12 F350
X-141 F850
G2 X-137.925 Y-70 J-3.075
G1 Y-282
G2 X-141 Y-285.075 I-3.075
G1 X-241
G2 X-244.075 Y-282 J3.075
G1 Y-70
G2 X-241 Y-66.925 I3.075
G1 X-206.877
G0 Z23
X-246.925 Y-25.521
G1 Z17 F333.3
Z16.5
Y0 Z12 F350
Y-602 F850
G2 X-250 Y-605.075 I-3.075
G1 X-462
G2 X-465.075 Y-602 J3.075
G1 Y0
G0 Z23
X-465.925 Y-25.521
G1 Z15 F333.3
Z14.5
Y0 Z10 F350
Y-602 F850
G2 X-469 Y-605.075 I-3.075
G1 X-681
G2 X-684.075 Y-602 J3.075
G1 Y0
G0 Z23
X-684.925 Y-25.521
G1 Z13 F333.3
Z12.5
Y0 Z8 F350
Y-602 F850
G2 X-688 Y-605.075 I-3.075
G1 X-1060
G2 X-1063.075 Y-602 J3.075
G1 Y0
G0 Z23
X-246.925 Y-25.521
G1 Z15 F333.3
Z14.5
Y0 Z10 F350
Y-602 F850
G2 X-250 Y-605.075 I-3.075
G1 X-462
G2 X-465.075 Y-602 J3.075
G1 Y0
G0 Z23
X-465.925 Y-25.521
G1 Z13 F333.3
Z12.5
Y0 Z8 F350
Y-602 F850
G2 X-469 Y-605.075 I-3.075
G1 X-681
G2 X-684.075 Y-602 J3.075
G1 Y0
G0 Z23
X-684.925 Y-25.521
G1 Z11 F333.3
Z10.5
Y0 Z6 F350
Y-602 F850
G2 X-688 Y-605.075 I-3.075
G1 X-1060
G2 X-1063.075 Y-602 J3.075
G1 Y0
G0 Z23
X-232.398 Y-66.925
G1 Z15 F333.3
Z14.5
X-206.877 Z10 F350
X-141 F850
G2 X-137.925 Y-70 J-3.075
G1 Y-282
G2 X-141 Y-285.075 I-3.075
G1 X-241
G2 X-244.075 Y-282 J3.075
G1 Y-70
G2 X-241 Y-66.925 I3.075
G1 X-206.877
G0 Z23
X-178.165 Y-504.075
G1 Z15 F333.3
Z14.5
X-203.686 Z10 F350
X-241 F850
G2 X-244.075 Y-501 J3.075
G1 Y-289
G2 X-241 Y-285.925 I3.075
G1 X-141
G2 X-137.925 Y-289 J-3.075
G1 Y-501
G2 X-141 Y-504.075 I-3.075
G1 X-203.686
G0 Z23
X-178.165
G1 Z13 F333.3
Z12.5
X-203.686 Z8 F350
X-241 F850
G2 X-244.075 Y-501 J3.075
G1 Y-289
G2 X-241 Y-285.925 I3.075
G1 X-141
G2 X-137.925 Y-289 J-3.075
G1 Y-501
G2 X-141 Y-504.075 I-3.075
G1 X-203.686
G0 Z23
X-232.398 Y-66.925
G1 Z13 F333.3
Z12.5
X-206.877 Z8 F350
X-141 F850
G2 X-137.925 Y-70 J-3.075
G1 Y-282
G2 X-141 Y-285.075 I-3.075
G1 X-241
G2 X-244.075 Y-282 J3.075
G1 Y-70
G2 X-241 Y-66.925 I3.075
G1 X-206.877
G0 Z23
X-246.925 Y-25.521
G1 Z13 F333.3
Z12.5
Y0 Z8 F350
Y-602 F850
G2 X-250 Y-605.075 I-3.075
G1 X-462
G2 X-465.075 Y-602 J3.075
G1 Y0
G0 Z23
X-465.925 Y-25.521
G1 Z11 F333.3
Z10.5
Y0 Z6 F350
Y-602 F850
G2 X-469 Y-605.075 I-3.075
G1 X-681
G2 X-684.075 Y-602 J3.075
G1 Y0
G0 Z23
X-684.925 Y-25.521
G1 Z9 F333.3
Z8.5
Y0 Z4 F350
Y-602 F850
G2 X-688 Y-605.075 I-3.075
G1 X-1060
G2 X-1063.075 Y-602 J3.075
G1 Y0
G0 Z23
X-246.925 Y-25.521
G1 Z11 F333.3
Z10.5
Y0 Z6 F350
Y-602 F850
G2 X-250 Y-605.075 I-3.075
G1 X-462
G2 X-465.075 Y-602 J3.075
G1 Y0
G0 Z23
X-465.925 Y-25.521
G1 Z9 F333.3
Z8.5
Y0 Z4 F350
Y-602 F850
G2 X-469 Y-605.075 I-3.075
G1 X-681
G2 X-684.075 Y-602 J3.075
G1 Y0
G0 Z23
X-684.925 Y-25.521
G1 Z7 F333.3
Z6.5
Y0 Z2 F350
Y-44.017 F850
Z3
Y-56.317
Z2 F333.3
Y-144.35 F850
Z3
Y-156.65
Z2 F333.3
Y-244.683 F850
Z3
Y-256.983
Z2 F333.3
Y-345.017 F850
Z3
Y-357.317
Z2 F333.3
Y-445.35 F850
Z3
Y-457.65
Z2 F333.3
Y-545.683 F850
Z3
Y-557.983
Z2 F333.3
Y-602 F850
G2 X-688 Y-605.075 I-3.075
G1 X-743.85
Z3
X-756.15
Z2 F333.3
X-867.85 F850
Z3
X-880.15
Z2 F333.3
X-991.85 F850
Z3
X-1004.15
Z2 F333.3
X-1060 F850
G2 X-1063.075 Y-602 J3.075
G1 Y-557.983
Z3
Y-545.683
Z2 F333.3
Y-457.65 F850
Z3
Y-445.35
Z2 F333.3
Y-357.317 F850
Z3
Y-345.017
Z2 F333.3
Y-256.983 F850
Z3
Y-244.683
Z2 F333.3
Y-156.65 F850
Z3
Y-144.35
Z2 F333.3
Y-56.317 F850
Z3
Y-44.017
Z2 F333.3
Y0 F850
G0 Z23
X-232.398 Y-66.925
G1 Z11 F333.3
Z10.5
X-206.877 Z6 F350
X-141 F850
G2 X-137.925 Y-70 J-3.075
G1 Y-282
G2 X-141 Y-285.075 I-3.075
G1 X-241
G2 X-244.075 Y-282 J3.075
G1 Y-70
G2 X-241 Y-66.925 I3.075
G1 X-206.877
G0 Z23
X-178.165 Y-504.075
G1 Z11 F333.3
Z10.5
X-203.686 Z6 F350
X-241 F850
G2 X-244.075 Y-501 J3.075
G1 Y-289
G2 X-241 Y-285.925 I3.075
G1 X-141
G2 X-137.925 Y-289 J-3.075
G1 Y-501
G2 X-141 Y-504.075 I-3.075
G1 X-203.686
G0 Z23
X-178.165
G1 Z9 F333.3
Z8.5
X-203.686 Z4 F350
X-241 F850
G2 X-244.075 Y-501 J3.075
G1 Y-289
G2 X-241 Y-285.925 I3.075
G1 X-141
G2 X-137.925 Y-289 J-3.075
G1 Y-501
G2 X-141 Y-504.075 I-3.075
G1 X-203.686
G0 Z23
X-232.398 Y-66.925
G1 Z9 F333.3
Z8.5
X-206.877 Z4 F350
X-141 F850
G2 X-137.925 Y-70 J-3.075
G1 Y-282
G2 X-141 Y-285.075 I-3.075
G1 X-241
G2 X-244.075 Y-282 J3.075
G1 Y-70
G2 X-241 Y-66.925 I3.075
G1 X-206.877
G0 Z23
X-246.925 Y-25.521
G1 Z9 F333.3
Z8.5
Y0 Z4 F350
Y-602 F850
G2 X-250 Y-605.075 I-3.075
G1 X-462
G2 X-465.075 Y-602 J3.075
G1 Y0
G0 Z23
X-465.925 Y-25.521
G1 Z7 F333.3
Z6.5
Y0 Z2 F350
Y-44.017 F850
Z3
Y-56.317
Z2 F333.3
Y-144.35 F850
Z3
Y-156.65
Z2 F333.3
Y-244.683 F850
Z3
Y-256.983
Z2 F333.3
Y-345.017 F850
Z3
Y-357.317
Z2 F333.3
Y-445.35 F850
Z3
Y-457.65
Z2 F333.3
Y-545.683 F850
Z3
Y-557.983
Z2 F333.3
Y-602 F850
G2 X-469 Y-605.075 I-3.075
G1 X-515.85
Z3
X-528.15
Z2 F333.3
X-621.85 F850
Z3
X-634.15
Z2 F333.3
X-681 F850
G2 X-684.075 Y-602 J3.075
G1 Y-557.983
Z3
Y-545.683
Z2 F333.3
Y-457.65 F850
Z3
Y-445.35
Z2 F333.3
Y-357.317 F850
Z3
Y-345.017
Z2 F333.3
Y-256.983 F850
Z3
Y-244.683
Z2 F333.3
Y-156.65 F850
Z3
Y-144.35
Z2 F333.3
Y-56.317 F850
Z3
Y-44.017
Z2 F333.3
Y0 F850
G0 Z23
X-684.925 Y-25.521
G1 Z5 F333.3
Z4.5
Y0 Z0 F350
Y-44.017 F850
Z3
Y-56.317
Z0 F333.3
Y-144.35 F850
Z3
Y-156.65
Z0 F333.3
Y-244.683 F850
Z3
Y-256.983
Z0 F333.3
Y-345.017 F850
Z3
Y-357.317
Z0 F333.3
Y-445.35 F850
Z3
Y-457.65
Z0 F333.3
Y-545.683 F850
Z3
Y-557.983
Z0 F333.3
Y-602 F850
G2 X-688 Y-605.075 I-3.075
G1 X-743.85
Z3
X-756.15
Z0 F333.3
X-867.85 F850
Z3
X-880.15
Z0 F333.3
X-991.85 F850
Z3
X-1004.15
Z0 F333.3
X-1060 F850
G2 X-1063.075 Y-602 J3.075
G1 Y-557.983
Z3
Y-545.683
Z0 F333.3
Y-457.65 F850
Z3
Y-445.35
Z0 F333.3
Y-357.317 F850
Z3
Y-345.017
Z0 F333.3
Y-256.983 F850
Z3
Y-244.683
Z0 F333.3
Y-156.65 F850
Z3
Y-144.35
Z0 F333.3
Y-56.317 F850
Z3
Y-44.017
Z0 F333.3
Y0 F850
G0 Z23
X-246.925 Y-25.521
G1 Z7 F333.3
Z6.5
Y0 Z2 F350
Y-44.017 F850
Z3
Y-56.317
Z2 F333.3
Y-116.85 F850
Z3
Y-129.15
Z2 F333.3
Y-144.35 F850
Z3
Y-156.65
Z2 F333.3
Y-222.85 F850
Z3
Y-235.15
Z2 F333.3
Y-244.683 F850
Z3
Y-256.983
Z2 F333.3
Y-335.85 F850
Z3
Y-357.317
Z2 F333.3
Y-441.85 F850
Z3
Y-457.65
Z2 F333.3
Y-545.683 F850
Z3
Y-557.983
Z2 F333.3
Y-602 F850
G2 X-250 Y-605.075 I-3.075
G1 X-296.85
Z3
X-309.15
Z2 F333.3
X-402.85 F850
Z3
X-415.15
Z2 F333.3
X-462 F850
G2 X-465.075 Y-602 J3.075
G1 Y-557.983
Z3
Y-545.683
Z2 F333.3
Y-457.65 F850
Z3
Y-445.35
Z2 F333.3
Y-357.317 F850
Z3
Y-345.017
Z2 F333.3
Y-256.983 F850
Z3
Y-244.683
Z2 F333.3
Y-156.65 F850
Z3
Y-144.35
Z2 F333.3
Y-56.317 F850
Z3
Y-44.017
Z2 F333.3
Y0 F850
G0 Z23
X-465.925 Y-25.521
G1 Z5 F333.3
Z4.5
Y0 Z0 F350
Y-44.017 F850
Z3
Y-56.317
Z0 F333.3
Y-144.35 F850
Z3
Y-156.65
Z0 F333.3
Y-244.683 F850
Z3
Y-256.983
Z0 F333.3
Y-345.017 F850
Z3
Y-357.317
Z0 F333.3
Y-445.35 F850
Z3
Y-457.65
Z0 F333.3
Y-545.683 F850
Z3
Y-557.983
Z0 F333.3
Y-602 F850
G2 X-469 Y-605.075 I-3.075
G1 X-515.85
Z3
X-528.15
Z0 F333.3
X-621.85 F850
Z3
X-634.15
Z0 F333.3
X-681 F850
G2 X-684.075 Y-602 J3.075
G1 Y-557.983
Z3
Y-545.683
Z0 F333.3
Y-457.65 F850
Z3
Y-445.35
Z0 F333.3
Y-357.317 F850
Z3
Y-345.017
Z0 F333.3
Y-256.983 F850
Z3
Y-244.683
Z0 F333.3
Y-156.65 F850
Z3
Y-144.35
Z0 F333.3
Y-56.317 F850
Z3
Y-44.017
Z0 F333.3
Y0 F850
G0 Z23
X-232.398 Y-66.925
G1 Z7 F333.3
Z6.5
X-206.877 Z2 F350
X-197.15 F850
Z3
X-184.85
Z2 F333.3
X-141 F850
G2 X-137.925 Y-70 J-3.075
G1 Y-116.85
Z3
Y-129.15
Z2 F333.3
Y-222.85 F850
Z3
Y-235.15
Z2 F333.3
Y-282 F850
G2 X-141 Y-285.075 I-3.075
G1 X-184.85
Z3
X-197.15
Z2 F333.3
X-241 F850
G2 X-244.075 Y-282 J3.075
G1 Y-256.983
Z3
Y-244.683
Z2 F333.3
Y-235.15 F850
Z3
Y-222.85
Z2 F333.3
Y-156.65 F850
Z3
Y-144.35
Z2 F333.3
Y-129.15 F850
Z3
Y-116.85
Z2 F333.3
Y-70 F850
G2 X-241 Y-66.925 I3.075
G1 X-206.877
G0 Z23
X-178.165 Y-504.075
G1 Z7 F333.3
Z6.5
X-203.686 Z2 F350
X-241 F850
G2 X-244.075 Y-501 J3.075
G1 Y-457.65
Z3
Y-441.85
Z2 F333.3
Y-357.317 F850
Z3
Y-335.85
Z2 F333.3
Y-289 F850
G2 X-241 Y-285.925 I3.075
G1 X-197.15
Z3
X-184.85
Z2 F333.3
X-141 F850
G2 X-137.925 Y-289 J-3.075
G1 Y-335.85
Z3
Y-348.15
Z2 F333.3
Y-441.85 F850
Z3
Y-454.15
Z2 F333.3
Y-501 F850
G2 X-141 Y-504.075 I-3.075
G1 X-184.85
Z3
X-197.15
Z2 F333.3
X-203.686 F850
G0 Z23
X-178.165
G1 Z5 F333.3
Z4.5
X-186.672 Z3 F350
X-197.15
Z1.152 F333.3
X-203.686 Z0 F350
X-241 F850
G2 X-244.075 Y-501 J3.075
G1 Y-457.65
Z3
Y-441.85
Z0 F333.3
Y-357.317 F850
Z3
Y-335.85
Z0 F333.3
Y-289 F850
G2 X-241 Y-285.925 I3.075
G1 X-197.15
Z3
X-184.85
Z0 F333.3
X-141 F850
G2 X-137.925 Y-289 J-3.075
G1 Y-335.85
Z3
Y-348.15
Z0 F333.3
Y-441.85 F850
Z3
Y-454.15
Z0 F333.3
Y-501 F850
G2 X-141 Y-504.075 I-3.075
G1 X-184.85
Z3
X-197.15
Z0 F333.3
X-203.686 F850
G0 Z23
X-232.398 Y-66.925
G1 Z5 F333.3
Z4.5
X-206.877 Z0 F350
X-197.15 F850
Z3
X-184.85
Z0 F333.3
X-141 F850
G2 X-137.925 Y-70 J-3.075
G1 Y-116.85
Z3
Y-129.15
Z0 F333.3
Y-222.85 F850
Z3
Y-235.15
Z0 F333.3
Y-282 F850
G2 X-141 Y-285.075 I-3.075
G1 X-184.85
Z3
X-197.15
Z0 F333.3
X-241 F850
G2 X-244.075 Y-282 J3.075
G1 Y-256.983
Z3
Y-244.683
Z0 F333.3
Y-235.15 F850
Z3
Y-222.85
Z0 F333.3
Y-156.65 F850
Z3
Y-144.35
Z0 F333.3
Y-129.15 F850
Z3
Y-116.85
Z0 F333.3
Y-70 F850
G2 X-241 Y-66.925 I3.075
G1 X-206.877
G0 Z23
X-246.925 Y-25.521
G1 Z5 F333.3
Z4.5
Y0 Z0 F350
Y-44.017 F850
Z3
Y-56.317
Z0 F333.3
Y-116.85 F850
Z3
Y-129.15
Z0 F333.3
Y-144.35 F850
Z3
Y-156.65
Z0 F333.3
Y-222.85 F850
Z3
Y-235.15
Z0 F333.3
Y-244.683 F850
Z3
Y-256.983
Z0 F333.3
Y-335.85 F850
Z3
Y-357.317
Z0 F333.3
Y-441.85 F850
Z3
Y-457.65
Z0 F333.3
Y-545.683 F850
Z3
Y-557.983
Z0 F333.3
Y-602 F850
G2 X-250 Y-605.075 I-3.075
G1 X-296.85
Z3
X-309.15
Z0 F333.3
X-402.85 F850
Z3
X-415.15
Z0 F333.3
X-462 F850
G2 X-465.075 Y-602 J3.075
G1 Y-557.983
Z3
Y-545.683
Z0 F333.3
Y-457.65 F850
Z3
Y-445.35
Z0 F333.3
Y-357.317 F850
Z3
Y-345.017
Z0 F333.3
Y-256.983 F850
Z3
Y-244.683
Z0 F333.3
Y-156.65 F850
Z3
Y-144.35
Z0 F333.3
Y-56.317 F850
Z3
Y-44.017
Z0 F333.3
Y0 F850
G0 Z33
M9
M30
%
