%
(1001)
(origin stock bottom)
(T1  D=6.15 CR=0 - ZMIN=0 - flat end mill)
G90 G94
G17
G21

(2D Contour1)
M9
T1 M6
S6000 M3
G54
M8
G0 X-405.925 Y-25.521
Z33
Z23
G1 Z21 F333.3
Z20.5
Y0 Z16 F350
Y-602 F850
G2 X-409 Y-605.075 I-3.075
G1 X-781
G2 X-784.075 Y-602 J3.075
G1 Y0
G0 Z23
X-784.925 Y-25.521
G1 Z21 F333.3
Z20.5
Y0 Z16 F350
Y-602 F850
G2 X-788 Y-605.075 I-3.075
G1 X-1160
G2 X-1163.075 Y-602 J3.075
G1 Y0
Y-602 Z15.241 F350
G3 X-1160 Y-605.075 Z15.235 I3.075
G1 X-788 Z14.765
G3 X-784.925 Y-602 Z14.759 J3.075
G1 Y0 Z14
Y-602 F850
G2 X-788 Y-605.075 I-3.075
G1 X-1160
G2 X-1163.075 Y-602 J3.075
G1 Y0
G0 Z23
X-26.925 Y-25.521
G1 Z21 F333.3
Z20.5
Y0 Z16 F350
Y-602 F850
G2 X-30 Y-605.075 I-3.075
G1 X-402
G2 X-405.075 Y-602 J3.075
G1 Y0
G0 Z23
X-405.925 Y-25.521
G1 Z19 F333.3
Z18.5
Y0 Z14 F350
Y-602 F850
G2 X-409 Y-605.075 I-3.075
G1 X-781
G2 X-784.075 Y-602 J3.075
G1 Y0
G0 Z23
X-784.925 Y-25.521
G1 Z17 F333.3
Z16.5
Y0 Z12 F350
Y-602 F850
G2 X-788 Y-605.075 I-3.075
G1 X-1160
G2 X-1163.075 Y-602 J3.075
G1 Y0
G0 Z23
X-26.925 Y-25.521
G1 Z19 F333.3
Z18.5
Y0 Z14 F350
Y-602 F850
G2 X-30 Y-605.075 I-3.075
G1 X-402
G2 X-405.075 Y-602 J3.075
G1 Y0
G0 Z23
X-405.925 Y-25.521
G1 Z17 F333.3
Z16.5
Y0 Z12 F350
Y-602 F850
G2 X-409 Y-605.075 I-3.075
G1 X-781
G2 X-784.075 Y-602 J3.075
G1 Y0
G0 Z23
X-784.925 Y-25.521
G1 Z15 F333.3
Z14.5
Y0 Z10 F350
Y-602 F850
G2 X-788 Y-605.075 I-3.075
G1 X-1160
G2 X-1163.075 Y-602 J3.075
G1 Y0
G0 Z23
X-26.925 Y-25.521
G1 Z17 F333.3
Z16.5
Y0 Z12 F350
Y-602 F850
G2 X-30 Y-605.075 I-3.075
G1 X-402
G2 X-405.075 Y-602 J3.075
G1 Y0
G0 Z23
X-405.925 Y-25.521
G1 Z15 F333.3
Z14.5
Y0 Z10 F350
Y-602 F850
G2 X-409 Y-605.075 I-3.075
G1 X-781
G2 X-784.075 Y-602 J3.075
G1 Y0
G0 Z23
X-784.925 Y-25.521
G1 Z13 F333.3
Z12.5
Y0 Z8 F350
Y-602 F850
G2 X-788 Y-605.075 I-3.075
G1 X-1160
G2 X-1163.075 Y-602 J3.075
G1 Y0
G0 Z23
X-26.925 Y-25.521
G1 Z15 F333.3
Z14.5
Y0 Z10 F350
Y-602 F850
G2 X-30 Y-605.075 I-3.075
G1 X-402
G2 X-405.075 Y-602 J3.075
G1 Y0
G0 Z23
X-405.925 Y-25.521
G1 Z13 F333.3
Z12.5
Y0 Z8 F350
Y-602 F850
G2 X-409 Y-605.075 I-3.075
G1 X-781
G2 X-784.075 Y-602 J3.075
G1 Y0
G0 Z23
X-784.925 Y-25.521
G1 Z11 F333.3
Z10.5
Y0 Z6 F350
Y-602 F850
G2 X-788 Y-605.075 I-3.075
G1 X-1160
G2 X-1163.075 Y-602 J3.075
G1 Y0
G0 Z23
X-26.925 Y-25.521
G1 Z13 F333.3
Z12.5
Y0 Z8 F350
Y-602 F850
G2 X-30 Y-605.075 I-3.075
G1 X-402
G2 X-405.075 Y-602 J3.075
G1 Y0
G0 Z23
X-405.925 Y-25.521
G1 Z11 F333.3
Z10.5
Y0 Z6 F350
Y-602 F850
G2 X-409 Y-605.075 I-3.075
G1 X-781
G2 X-784.075 Y-602 J3.075
G1 Y0
G0 Z23
X-784.925 Y-25.521
G1 Z9 F333.3
Z8.5
Y0 Z4 F350
Y-602 F850
G2 X-788 Y-605.075 I-3.075
G1 X-1160
G2 X-1163.075 Y-602 J3.075
G1 Y0
G0 Z23
X-26.925 Y-25.521
G1 Z11 F333.3
Z10.5
Y0 Z6 F350
Y-602 F850
G2 X-30 Y-605.075 I-3.075
G1 X-402
G2 X-405.075 Y-602 J3.075
G1 Y0
G0 Z23
X-405.925 Y-25.521
G1 Z9 F333.3
Z8.5
Y0 Z4 F350
Y-602 F850
G2 X-409 Y-605.075 I-3.075
G1 X-781
G2 X-784.075 Y-602 J3.075
G1 Y0
G0 Z23
X-784.925 Y-25.521
G1 Z7 F333.3
Z6.5
Y0 Z2 F350
Y-44.017 F850
Z3
Y-56.317
Z2 F333.3
Y-144.35 F850
Z3
Y-156.65
Z2 F333.3
Y-244.683 F850
Z3
Y-256.983
Z2 F333.3
Y-345.017 F850
Z3
Y-357.317
Z2 F333.3
Y-445.35 F850
Z3
Y-457.65
Z2 F333.3
Y-545.683 F850
Z3
Y-557.983
Z2 F333.3
Y-602 F850
G2 X-788 Y-605.075 I-3.075
G1 X-843.85
Z3
X-856.15
Z2 F333.3
X-967.85 F850
Z3
X-980.15
Z2 F333.3
X-1091.85 F850
Z3
X-1104.15
Z2 F333.3
X-1160 F850
G2 X-1163.075 Y-602 J3.075
G1 Y-557.983
Z3
Y-545.683
Z2 F333.3
Y-457.65 F850
Z3
Y-445.35
Z2 F333.3
Y-357.317 F850
Z3
Y-345.017
Z2 F333.3
Y-256.983 F850
Z3
Y-244.683
Z2 F333.3
Y-156.65 F850
Z3
Y-144.35
Z2 F333.3
Y-56.317 F850
Z3
Y-44.017
Z2 F333.3
Y0 F850
G0 Z23
X-26.925 Y-25.521
G1 Z9 F333.3
Z8.5
Y0 Z4 F350
Y-602 F850
G2 X-30 Y-605.075 I-3.075
G1 X-402
G2 X-405.075 Y-602 J3.075
G1 Y0
G0 Z23
X-405.925 Y-25.521
G1 Z7 F333.3
Z6.5
Y0 Z2 F350
Y-44.017 F850
Z3
Y-56.317
Z2 F333.3
Y-144.35 F850
Z3
Y-156.65
Z2 F333.3
Y-244.683 F850
Z3
Y-256.983
Z2 F333.3
Y-345.017 F850
Z3
Y-357.317
Z2 F333.3
Y-445.35 F850
Z3
Y-457.65
Z2 F333.3
Y-545.683 F850
Z3
Y-557.983
Z2 F333.3
Y-602 F850
G2 X-409 Y-605.075 I-3.075
G1 X-464.85
Z3
X-477.15
Z2 F333.3
X-588.85 F850
Z3
X-601.15
Z2 F333.3
X-712.85 F850
Z3
X-725.15
Z2 F333.3
X-781 F850
G2 X-784.075 Y-602 J3.075
G1 Y-557.983
Z3
Y-545.683
Z2 F333.3
Y-457.65 F850
Z3
Y-445.35
Z2 F333.3
Y-357.317 F850
Z3
Y-345.017
Z2 F333.3
Y-256.983 F850
Z3
Y-244.683
Z2 F333.3
Y-156.65 F850
Z3
Y-144.35
Z2 F333.3
Y-56.317 F850
Z3
Y-44.017
Z2 F333.3
Y0 F850
G0 Z23
X-784.925 Y-25.521
G1 Z5 F333.3
Z4.5
Y0 Z0 F350
Y-44.017 F850
Z3
Y-56.317
Z0 F333.3
Y-144.35 F850
Z3
Y-156.65
Z0 F333.3
Y-244.683 F850
Z3
Y-256.983
Z0 F333.3
Y-345.017 F850
Z3
Y-357.317
Z0 F333.3
Y-445.35 F850
Z3
Y-457.65
Z0 F333.3
Y-545.683 F850
Z3
Y-557.983
Z0 F333.3
Y-602 F850
G2 X-788 Y-605.075 I-3.075
G1 X-843.85
Z3
X-856.15
Z0 F333.3
X-967.85 F850
Z3
X-980.15
Z0 F333.3
X-1091.85 F850
Z3
X-1104.15
Z0 F333.3
X-1160 F850
G2 X-1163.075 Y-602 J3.075
G1 Y-557.983
Z3
Y-545.683
Z0 F333.3
Y-457.65 F850
Z3
Y-445.35
Z0 F333.3
Y-357.317 F850
Z3
Y-345.017
Z0 F333.3
Y-256.983 F850
Z3
Y-244.683
Z0 F333.3
Y-156.65 F850
Z3
Y-144.35
Z0 F333.3
Y-56.317 F850
Z3
Y-44.017
Z0 F333.3
Y0 F850
G0 Z23
X-26.925 Y-25.521
G1 Z7 F333.3
Z6.5
Y0 Z2 F350
Y-44.017 F850
Z3
Y-56.317
Z2 F333.3
Y-144.35 F850
Z3
Y-156.65
Z2 F333.3
Y-244.683 F850
Z3
Y-256.983
Z2 F333.3
Y-345.017 F850
Z3
Y-357.317
Z2 F333.3
Y-445.35 F850
Z3
Y-457.65
Z2 F333.3
Y-545.683 F850
Z3
Y-557.983
Z2 F333.3
Y-602 F850
G2 X-30 Y-605.075 I-3.075
G1 X-85.85
Z3
X-98.15
Z2 F333.3
X-209.85 F850
Z3
X-222.15
Z2 F333.3
X-333.85 F850
Z3
X-346.15
Z2 F333.3
X-402 F850
G2 X-405.075 Y-602 J3.075
G1 Y-557.983
Z3
Y-545.683
Z2 F333.3
Y-457.65 F850
Z3
Y-445.35
Z2 F333.3
Y-357.317 F850
Z3
Y-345.017
Z2 F333.3
Y-256.983 F850
Z3
Y-244.683
Z2 F333.3
Y-156.65 F850
Z3
Y-144.35
Z2 F333.3
Y-56.317 F850
Z3
Y-44.017
Z2 F333.3
Y0 F850
G0 Z23
X-405.925 Y-25.521
G1 Z5 F333.3
Z4.5
Y0 Z0 F350
Y-44.017 F850
Z3
Y-56.317
Z0 F333.3
Y-144.35 F850
Z3
Y-156.65
Z0 F333.3
Y-244.683 F850
Z3
Y-256.983
Z0 F333.3
Y-345.017 F850
Z3
Y-357.317
Z0 F333.3
Y-445.35 F850
Z3
Y-457.65
Z0 F333.3
Y-545.683 F850
Z3
Y-557.983
Z0 F333.3
Y-602 F850
G2 X-409 Y-605.075 I-3.075
G1 X-464.85
Z3
X-477.15
Z0 F333.3
X-588.85 F850
Z3
X-601.15
Z0 F333.3
X-712.85 F850
Z3
X-725.15
Z0 F333.3
X-781 F850
G2 X-784.075 Y-602 J3.075
G1 Y-557.983
Z3
Y-545.683
Z0 F333.3
Y-457.65 F850
Z3
Y-445.35
Z0 F333.3
Y-357.317 F850
Z3
Y-345.017
Z0 F333.3
Y-256.983 F850
Z3
Y-244.683
Z0 F333.3
Y-156.65 F850
Z3
Y-144.35
Z0 F333.3
Y-56.317 F850
Z3
Y-44.017
Z0 F333.3
Y0 F850
G0 Z23
X-26.925 Y-25.521
G1 Z5 F333.3
Z4.5
Y0 Z0 F350
Y-44.017 F850
Z3
Y-56.317
Z0 F333.3
Y-144.35 F850
Z3
Y-156.65
Z0 F333.3
Y-244.683 F850
Z3
Y-256.983
Z0 F333.3
Y-345.017 F850
Z3
Y-357.317
Z0 F333.3
Y-445.35 F850
Z3
Y-457.65
Z0 F333.3
Y-545.683 F850
Z3
Y-557.983
Z0 F333.3
Y-602 F850
G2 X-30 Y-605.075 I-3.075
G1 X-85.85
Z3
X-98.15
Z0 F333.3
X-209.85 F850
Z3
X-222.15
Z0 F333.3
X-333.85 F850
Z3
X-346.15
Z0 F333.3
X-402 F850
G2 X-405.075 Y-602 J3.075
G1 Y-557.983
Z3
Y-545.683
Z0 F333.3
Y-457.65 F850
Z3
Y-445.35
Z0 F333.3
Y-357.317 F850
Z3
Y-345.017
Z0 F333.3
Y-256.983 F850
Z3
Y-244.683
Z0 F333.3
Y-156.65 F850
Z3
Y-144.35
Z0 F333.3
Y-56.317 F850
Z3
Y-44.017
Z0 F333.3
Y0 F850
G0 Z33
M9
M30
%
