%
(3_18mm_mdf_sides_6.15mm_0)
(origin stock top)
(T1  D=6.15 CR=0 - ZMIN=0 - flat end mill)
G90 G94
G17
G21

(2D Contour1)
M9
T1 M6
S6000 M3
G54
M8
G0 X-395.925 Y-25.521
Z33
Z23
G1 Z21 F333.3
Z20.5
Y0 Z16 F350
Y-602 F850
G2 X-399 Y-605.075 I-3.075
G1 X-771
G2 X-774.075 Y-602 J3.075
G1 Y0
G0 Z23
X-774.925 Y-25.521
G1 Z21 F333.3
Z20.5
Y0 Z16 F350
Y-602 F850
G2 X-778 Y-605.075 I-3.075
G1 X-1150
G2 X-1153.075 Y-602 J3.075
G1 Y0
Y-602 Z15.241 F350
G3 X-1150 Y-605.075 Z15.235 I3.075
G1 X-778 Z14.765
G3 X-774.925 Y-602 Z14.759 J3.075
G1 Y0 Z14
Y-602 F850
G2 X-778 Y-605.075 I-3.075
G1 X-1150
G2 X-1153.075 Y-602 J3.075
G1 Y0
G0 Z23
X-16.925 Y-25.521
G1 Z21 F333.3
Z20.5
Y0 Z16 F350
Y-602 F850
G2 X-20 Y-605.075 I-3.075
G1 X-392
G2 X-395.075 Y-602 J3.075
G1 Y0
G0 Z23
X-395.925 Y-25.521
G1 Z19 F333.3
Z18.5
Y0 Z14 F350
Y-602 F850
G2 X-399 Y-605.075 I-3.075
G1 X-771
G2 X-774.075 Y-602 J3.075
G1 Y0
G0 Z23
X-774.925 Y-25.521
G1 Z17 F333.3
Z16.5
Y0 Z12 F350
Y-602 F850
G2 X-778 Y-605.075 I-3.075
G1 X-1150
G2 X-1153.075 Y-602 J3.075
G1 Y0
G0 Z23
X-16.925 Y-25.521
G1 Z19 F333.3
Z18.5
Y0 Z14 F350
Y-602 F850
G2 X-20 Y-605.075 I-3.075
G1 X-392
G2 X-395.075 Y-602 J3.075
G1 Y0
G0 Z23
X-395.925 Y-25.521
G1 Z17 F333.3
Z16.5
Y0 Z12 F350
Y-602 F850
G2 X-399 Y-605.075 I-3.075
G1 X-771
G2 X-774.075 Y-602 J3.075
G1 Y0
G0 Z23
X-774.925 Y-25.521
G1 Z15 F333.3
Z14.5
Y0 Z10 F350
Y-602 F850
G2 X-778 Y-605.075 I-3.075
G1 X-1150
G2 X-1153.075 Y-602 J3.075
G1 Y0
G0 Z23
X-16.925 Y-25.521
G1 Z17 F333.3
Z16.5
Y0 Z12 F350
Y-602 F850
G2 X-20 Y-605.075 I-3.075
G1 X-392
G2 X-395.075 Y-602 J3.075
G1 Y0
G0 Z23
X-395.925 Y-25.521
G1 Z15 F333.3
Z14.5
Y0 Z10 F350
Y-602 F850
G2 X-399 Y-605.075 I-3.075
G1 X-771
G2 X-774.075 Y-602 J3.075
G1 Y0
G0 Z23
X-774.925 Y-25.521
G1 Z13 F333.3
Z12.5
Y0 Z8 F350
Y-602 F850
G2 X-778 Y-605.075 I-3.075
G1 X-1150
G2 X-1153.075 Y-602 J3.075
G1 Y0
G0 Z23
X-16.925 Y-25.521
G1 Z15 F333.3
Z14.5
Y0 Z10 F350
Y-602 F850
G2 X-20 Y-605.075 I-3.075
G1 X-392
G2 X-395.075 Y-602 J3.075
G1 Y0
G0 Z23
X-395.925 Y-25.521
G1 Z13 F333.3
Z12.5
Y0 Z8 F350
Y-602 F850
G2 X-399 Y-605.075 I-3.075
G1 X-771
G2 X-774.075 Y-602 J3.075
G1 Y0
G0 Z23
X-774.925 Y-25.521
G1 Z11 F333.3
Z10.5
Y0 Z6 F350
Y-602 F850
G2 X-778 Y-605.075 I-3.075
G1 X-1150
G2 X-1153.075 Y-602 J3.075
G1 Y0
G0 Z23
X-16.925 Y-25.521
G1 Z13 F333.3
Z12.5
Y0 Z8 F350
Y-602 F850
G2 X-20 Y-605.075 I-3.075
G1 X-392
G2 X-395.075 Y-602 J3.075
G1 Y0
G0 Z23
X-395.925 Y-25.521
G1 Z11 F333.3
Z10.5
Y0 Z6 F350
Y-602 F850
G2 X-399 Y-605.075 I-3.075
G1 X-771
G2 X-774.075 Y-602 J3.075
G1 Y0
G0 Z23
X-774.925 Y-25.521
G1 Z9 F333.3
Z8.5
Y0 Z4 F350
Y-602 F850
G2 X-778 Y-605.075 I-3.075
G1 X-1150
G2 X-1153.075 Y-602 J3.075
G1 Y0
G0 Z23
X-16.925 Y-25.521
G1 Z11 F333.3
Z10.5
Y0 Z6 F350
Y-602 F850
G2 X-20 Y-605.075 I-3.075
G1 X-392
G2 X-395.075 Y-602 J3.075
G1 Y0
G0 Z23
X-395.925 Y-25.521
G1 Z9 F333.3
Z8.5
Y0 Z4 F350
Y-602 F850
G2 X-399 Y-605.075 I-3.075
G1 X-771
G2 X-774.075 Y-602 J3.075
G1 Y0
G0 Z23
X-774.925 Y-25.521
G1 Z7 F333.3
Z6.5
Y0 Z2 F350
Y-44.017 F850
Z3
Y-56.317
Z2 F333.3
Y-144.35 F850
Z3
Y-156.65
Z2 F333.3
Y-244.683 F850
Z3
Y-256.983
Z2 F333.3
Y-345.017 F850
Z3
Y-357.317
Z2 F333.3
Y-445.35 F850
Z3
Y-457.65
Z2 F333.3
Y-545.683 F850
Z3
Y-557.983
Z2 F333.3
Y-602 F850
G2 X-778 Y-605.075 I-3.075
G1 X-833.85
Z3
X-846.15
Z2 F333.3
X-957.85 F850
Z3
X-970.15
Z2 F333.3
X-1081.85 F850
Z3
X-1094.15
Z2 F333.3
X-1150 F850
G2 X-1153.075 Y-602 J3.075
G1 Y-557.983
Z3
Y-545.683
Z2 F333.3
Y-457.65 F850
Z3
Y-445.35
Z2 F333.3
Y-357.317 F850
Z3
Y-345.017
Z2 F333.3
Y-256.983 F850
Z3
Y-244.683
Z2 F333.3
Y-156.65 F850
Z3
Y-144.35
Z2 F333.3
Y-56.317 F850
Z3
Y-44.017
Z2 F333.3
Y0 F850
G0 Z23
X-16.925 Y-25.521
G1 Z9 F333.3
Z8.5
Y0 Z4 F350
Y-602 F850
G2 X-20 Y-605.075 I-3.075
G1 X-392
G2 X-395.075 Y-602 J3.075
G1 Y0
G0 Z23
X-395.925 Y-25.521
G1 Z7 F333.3
Z6.5
Y0 Z2 F350
Y-44.017 F850
Z3
Y-56.317
Z2 F333.3
Y-144.35 F850
Z3
Y-156.65
Z2 F333.3
Y-244.683 F850
Z3
Y-256.983
Z2 F333.3
Y-345.017 F850
Z3
Y-357.317
Z2 F333.3
Y-445.35 F850
Z3
Y-457.65
Z2 F333.3
Y-545.683 F850
Z3
Y-557.983
Z2 F333.3
Y-602 F850
G2 X-399 Y-605.075 I-3.075
G1 X-454.85
Z3
X-467.15
Z2 F333.3
X-578.85 F850
Z3
X-591.15
Z2 F333.3
X-702.85 F850
Z3
X-715.15
Z2 F333.3
X-771 F850
G2 X-774.075 Y-602 J3.075
G1 Y-557.983
Z3
Y-545.683
Z2 F333.3
Y-457.65 F850
Z3
Y-445.35
Z2 F333.3
Y-357.317 F850
Z3
Y-345.017
Z2 F333.3
Y-256.983 F850
Z3
Y-244.683
Z2 F333.3
Y-156.65 F850
Z3
Y-144.35
Z2 F333.3
Y-56.317 F850
Z3
Y-44.017
Z2 F333.3
Y0 F850
G0 Z23
X-774.925 Y-25.521
G1 Z5 F333.3
Z4.5
Y0 Z0 F350
Y-44.017 F850
Z3
Y-56.317
Z0 F333.3
Y-144.35 F850
Z3
Y-156.65
Z0 F333.3
Y-244.683 F850
Z3
Y-256.983
Z0 F333.3
Y-345.017 F850
Z3
Y-357.317
Z0 F333.3
Y-445.35 F850
Z3
Y-457.65
Z0 F333.3
Y-545.683 F850
Z3
Y-557.983
Z0 F333.3
Y-602 F850
G2 X-778 Y-605.075 I-3.075
G1 X-833.85
Z3
X-846.15
Z0 F333.3
X-957.85 F850
Z3
X-970.15
Z0 F333.3
X-1081.85 F850
Z3
X-1094.15
Z0 F333.3
X-1150 F850
G2 X-1153.075 Y-602 J3.075
G1 Y-557.983
Z3
Y-545.683
Z0 F333.3
Y-457.65 F850
Z3
Y-445.35
Z0 F333.3
Y-357.317 F850
Z3
Y-345.017
Z0 F333.3
Y-256.983 F850
Z3
Y-244.683
Z0 F333.3
Y-156.65 F850
Z3
Y-144.35
Z0 F333.3
Y-56.317 F850
Z3
Y-44.017
Z0 F333.3
Y0 F850
G0 Z23
X-16.925 Y-25.521
G1 Z7 F333.3
Z6.5
Y0 Z2 F350
Y-44.017 F850
Z3
Y-56.317
Z2 F333.3
Y-144.35 F850
Z3
Y-156.65
Z2 F333.3
Y-244.683 F850
Z3
Y-256.983
Z2 F333.3
Y-345.017 F850
Z3
Y-357.317
Z2 F333.3
Y-445.35 F850
Z3
Y-457.65
Z2 F333.3
Y-545.683 F850
Z3
Y-557.983
Z2 F333.3
Y-602 F850
G2 X-20 Y-605.075 I-3.075
G1 X-75.85
Z3
X-88.15
Z2 F333.3
X-199.85 F850
Z3
X-212.15
Z2 F333.3
X-323.85 F850
Z3
X-336.15
Z2 F333.3
X-392 F850
G2 X-395.075 Y-602 J3.075
G1 Y-557.983
Z3
Y-545.683
Z2 F333.3
Y-457.65 F850
Z3
Y-445.35
Z2 F333.3
Y-357.317 F850
Z3
Y-345.017
Z2 F333.3
Y-256.983 F850
Z3
Y-244.683
Z2 F333.3
Y-156.65 F850
Z3
Y-144.35
Z2 F333.3
Y-56.317 F850
Z3
Y-44.017
Z2 F333.3
Y0 F850
G0 Z23
X-395.925 Y-25.521
G1 Z5 F333.3
Z4.5
Y0 Z0 F350
Y-44.017 F850
Z3
Y-56.317
Z0 F333.3
Y-144.35 F850
Z3
Y-156.65
Z0 F333.3
Y-244.683 F850
Z3
Y-256.983
Z0 F333.3
Y-345.017 F850
Z3
Y-357.317
Z0 F333.3
Y-445.35 F850
Z3
Y-457.65
Z0 F333.3
Y-545.683 F850
Z3
Y-557.983
Z0 F333.3
Y-602 F850
G2 X-399 Y-605.075 I-3.075
G1 X-454.85
Z3
X-467.15
Z0 F333.3
X-578.85 F850
Z3
X-591.15
Z0 F333.3
X-702.85 F850
Z3
X-715.15
Z0 F333.3
X-771 F850
G2 X-774.075 Y-602 J3.075
G1 Y-557.983
Z3
Y-545.683
Z0 F333.3
Y-457.65 F850
Z3
Y-445.35
Z0 F333.3
Y-357.317 F850
Z3
Y-345.017
Z0 F333.3
Y-256.983 F850
Z3
Y-244.683
Z0 F333.3
Y-156.65 F850
Z3
Y-144.35
Z0 F333.3
Y-56.317 F850
Z3
Y-44.017
Z0 F333.3
Y0 F850
G0 Z23
X-16.925 Y-25.521
G1 Z5 F333.3
Z4.5
Y0 Z0 F350
Y-44.017 F850
Z3
Y-56.317
Z0 F333.3
Y-144.35 F850
Z3
Y-156.65
Z0 F333.3
Y-244.683 F850
Z3
Y-256.983
Z0 F333.3
Y-345.017 F850
Z3
Y-357.317
Z0 F333.3
Y-445.35 F850
Z3
Y-457.65
Z0 F333.3
Y-545.683 F850
Z3
Y-557.983
Z0 F333.3
Y-602 F850
G2 X-20 Y-605.075 I-3.075
G1 X-75.85
Z3
X-88.15
Z0 F333.3
X-199.85 F850
Z3
X-212.15
Z0 F333.3
X-323.85 F850
Z3
X-336.15
Z0 F333.3
X-392 F850
G2 X-395.075 Y-602 J3.075
G1 Y-557.983
Z3
Y-545.683
Z0 F333.3
Y-457.65 F850
Z3
Y-445.35
Z0 F333.3
Y-357.317 F850
Z3
Y-345.017
Z0 F333.3
Y-256.983 F850
Z3
Y-244.683
Z0 F333.3
Y-156.65 F850
Z3
Y-144.35
Z0 F333.3
Y-56.317 F850
Z3
Y-44.017
Z0 F333.3
Y0 F850
G0 Z33
M9
M30
%
