%
(1001)
(origin stock bottom)
(T1  D=6.15 CR=0 - ZMIN=23 - flat end mill)
G90 G94
G17
G21

(2D Adaptive12)
M9
T1 M6
S6000 M3
G54
M8
G0 X-295 Y-22
Z59
Z49
Z47.165
G1 Z46.55 F850
Z26 F333.3
X-295.035 Y-21.987 F850
X-295.062 Y-22.013
X-295.052 Y-22.049
X-295.024 Y-22.074
X-294.987 Y-22.08
X-294.951 Y-22.068
X-294.925 Y-22.042
X-294.913 Y-22.006
X-294.918 Y-21.969
X-294.938 Y-21.937
X-294.969 Y-21.916
X-295.006 Y-21.909
X-295.043 Y-21.911
X-295.078 Y-21.925
X-295.106 Y-21.95
X-295.124 Y-21.982
X-295.132 Y-22.019
X-295.128 Y-22.057
X-295.114 Y-22.091
X-295.092 Y-22.121
X-295.032 Y-22.166
X-294.958 Y-22.177
X-294.886 Y-22.154
X-294.831 Y-22.104
X-294.799 Y-22.036
X-294.795 Y-21.961
X-294.818 Y-21.889
X-294.865 Y-21.831
X-294.928 Y-21.79
X-295 Y-21.77
X-295.075 Y-21.773
X-295.146 Y-21.798
X-295.206 Y-21.843
X-295.251 Y-21.903
X-295.278 Y-21.973
X-295.293 Y-22.122
X-295.233 Y-22.259
X-295.117 Y-22.355
X-294.973 Y-22.395
X-294.824 Y-22.375
X-294.694 Y-22.3
X-294.599 Y-22.184
X-294.55 Y-22.042
X-294.551 Y-21.892
X-294.6 Y-21.751
X-294.691 Y-21.631
X-294.814 Y-21.545
X-294.957 Y-21.499
X-295.107 Y-21.496
X-295.251 Y-21.535
X-295.379 Y-21.613
X-295.485 Y-21.72
X-295.559 Y-21.851
X-295.599 Y-21.995
X-295.601 Y-22.145
X-295.57 Y-22.292
X-295.502 Y-22.426
X-295.408 Y-22.542
X-295.289 Y-22.633
X-295.153 Y-22.697
X-295.007 Y-22.73
X-294.857 Y-22.731
X-294.71 Y-22.702
X-294.572 Y-22.642
X-294.448 Y-22.557
X-294.344 Y-22.45
X-294.262 Y-22.324
X-294.204 Y-22.185
X-294.175 Y-22.038
X-294.171 Y-21.888
X-294.196 Y-21.74
X-294.246 Y-21.599
X-294.32 Y-21.468
X-294.415 Y-21.353
X-294.529 Y-21.254
X-294.657 Y-21.178
X-294.797 Y-21.122
X-294.944 Y-21.091
X-295.093 Y-21.084
X-295.243 Y-21.1
X-295.387 Y-21.14
X-295.524 Y-21.202
X-295.65 Y-21.283
X-295.762 Y-21.382
X-295.859 Y-21.497
X-295.937 Y-21.625
X-295.996 Y-21.763
X-296.034 Y-21.908
X-296.051 Y-22.057
X-296.048 Y-22.207
X-296.022 Y-22.355
X-295.978 Y-22.498
X-295.914 Y-22.634
X-295.832 Y-22.76
X-295.734 Y-22.874
X-295.622 Y-22.973
X-295.498 Y-23.057
X-295.364 Y-23.125
X-295.222 Y-23.174
X-295.076 Y-23.205
X-294.926 Y-23.218
X-294.776 Y-23.211
X-294.628 Y-23.187
X-294.484 Y-23.144
X-294.347 Y-23.084
X-294.217 Y-23.009
X-294.098 Y-22.917
X-293.99 Y-22.813
X-293.895 Y-22.697
X-293.815 Y-22.57
X-293.749 Y-22.436
X-293.699 Y-22.294
X-293.666 Y-22.148
X-293.649 Y-21.999
Y-21.849
X-293.666 Y-21.7
X-293.699 Y-21.553
X-293.748 Y-21.412
X-293.811 Y-21.276
X-293.889 Y-21.148
X-293.981 Y-21.029
X-294.084 Y-20.92
X-294.198 Y-20.823
X-294.322 Y-20.738
X-294.454 Y-20.667
X-294.593 Y-20.61
X-294.737 Y-20.567
X-294.884 Y-20.539
X-295.033 Y-20.526
X-295.183 Y-20.528
X-295.333 Y-20.544
X-295.479 Y-20.576
X-295.622 Y-20.621
X-295.76 Y-20.681
X-295.891 Y-20.753
X-296.015 Y-20.838
X-296.13 Y-20.934
X-296.236 Y-21.041
X-296.33 Y-21.157
X-296.414 Y-21.281
X-296.486 Y-21.413
X-296.545 Y-21.551
X-296.591 Y-21.694
X-296.623 Y-21.84
X-296.643 Y-21.989
X-296.649 Y-22.139
X-296.641 Y-22.289
X-296.62 Y-22.437
X-296.586 Y-22.583
X-296.538 Y-22.726
X-296.479 Y-22.863
X-296.408 Y-22.995
X-296.325 Y-23.121
X-296.232 Y-23.238
X-296.129 Y-23.347
X-296.017 Y-23.447
X-295.897 Y-23.537
X-295.77 Y-23.617
X-295.636 Y-23.685
X-295.498 Y-23.742
X-295.355 Y-23.788
X-295.208 Y-23.821
X-295.06 Y-23.842
X-294.91 Y-23.851
X-294.76 Y-23.847
X-294.611 Y-23.831
X-294.464 Y-23.803
X-294.319 Y-23.764
X-294.178 Y-23.713
X-294.041 Y-23.651
X-293.91 Y-23.578
X-293.785 Y-23.495
X-293.667 Y-23.403
X-293.556 Y-23.301
X-293.454 Y-23.191
X-293.361 Y-23.074
X-293.277 Y-22.95
X-293.202 Y-22.819
X-293.138 Y-22.684
X-293.085 Y-22.544
X-293.042 Y-22.4
X-293.01 Y-22.253
X-292.989 Y-22.105
X-292.98 Y-21.955
X-292.981 Y-21.805
X-292.994 Y-21.656
X-293.018 Y-21.508
X-293.053 Y-21.362
X-293.098 Y-21.219
X-293.153 Y-21.079
X-293.219 Y-20.944
X-293.294 Y-20.815
X-293.378 Y-20.691
X-293.471 Y-20.573
X-293.573 Y-20.462
X-293.681 Y-20.359
X-293.797 Y-20.264
X-293.92 Y-20.177
X-294.048 Y-20.099
X-294.181 Y-20.03
X-294.319 Y-19.971
X-294.46 Y-19.921
X-294.605 Y-19.881
X-294.752 Y-19.852
X-294.901 Y-19.832
X-295.05 Y-19.823
X-295.2 Y-19.824
X-295.35 Y-19.835
X-295.498 Y-19.856
X-295.645 Y-19.887
X-295.789 Y-19.928
X-295.931 Y-19.979
X-296.068 Y-20.039
X-296.202 Y-20.108
X-296.33 Y-20.185
X-296.453 Y-20.271
X-296.57 Y-20.365
X-296.681 Y-20.466
X-296.785 Y-20.574
X-296.881 Y-20.689
X-296.97 Y-20.809
X-297.052 Y-20.936
X-297.124 Y-21.067
X-297.188 Y-21.202
X-297.244 Y-21.342
X-297.29 Y-21.484
X-297.327 Y-21.63
X-297.355 Y-21.777
X-297.374 Y-21.926
X-297.383 Y-22.076
Y-22.226
X-297.374 Y-22.375
X-297.355 Y-22.524
X-297.327 Y-22.671
X-297.29 Y-22.817
X-297.244 Y-22.96
X-297.189 Y-23.099
X-297.126 Y-23.235
X-297.055 Y-23.367
X-296.976 Y-23.495
X-296.889 Y-23.617
X-296.795 Y-23.734
X-296.694 Y-23.845
X-296.587 Y-23.95
X-296.473 Y-24.048
X-296.354 Y-24.139
X-296.23 Y-24.223
X-296.101 Y-24.299
X-295.967 Y-24.368
X-295.83 Y-24.429
X-295.689 Y-24.481
X-295.546 Y-24.525
X-295.4 Y-24.561
X-295.253 Y-24.588
X-295.104 Y-24.607
X-294.954 Y-24.617
X-294.804 Y-24.618
X-294.655 Y-24.61
X-294.505 Y-24.594
X-294.357 Y-24.57
X-294.211 Y-24.537
X-294.067 Y-24.496
X-293.925 Y-24.446
X-293.787 Y-24.389
X-293.651 Y-24.324
X-293.52 Y-24.251
X-293.393 Y-24.172
X-293.271 Y-24.085
X-293.153 Y-23.992
X-293.04 Y-23.891
X-292.934 Y-23.785
X-292.834 Y-23.673
X-292.738 Y-23.554
X-292.65 Y-23.431
X-292.57 Y-23.304
X-292.496 Y-23.172
X-292.428 Y-23.033
X-292.369 Y-22.892
X-292.318 Y-22.749
X-292.274 Y-22.602
X-292.238 Y-22.45
X-292.211 Y-22.298
X-292.192 Y-22.146
X-292.182 Y-21.992
X-292.18 Y-21.834
X-292.187 Y-21.677
X-292.203 Y-21.524
X-292.227 Y-21.369
X-292.26 Y-21.214
X-292.302 Y-21.061
X-292.352 Y-20.912
X-292.409 Y-20.766
X-292.477 Y-20.62
X-292.552 Y-20.478
X-292.634 Y-20.341
X-292.724 Y-20.21
X-292.821 Y-20.083
X-292.928 Y-19.959
X-293.04 Y-19.842
X-293.158 Y-19.732
X-293.281 Y-19.629
X-293.412 Y-19.532
X-293.55 Y-19.441
X-293.692 Y-19.358
X-293.837 Y-19.283
X-293.987 Y-19.217
X-294.141 Y-19.158
X-294.3 Y-19.108
X-294.461 Y-19.066
X-294.625 Y-19.033
X-294.788 Y-19.01
X-294.954 Y-18.996
X-295.123 Y-18.991
X-295.292 Y-18.995
X-295.461 Y-19.009
X-295.628 Y-19.031
X-295.793 Y-19.063
X-295.957 Y-19.105
X-296.121 Y-19.156
X-296.282 Y-19.216
X-296.439 Y-19.284
X-296.592 Y-19.362
X-296.74 Y-19.447
X-296.884 Y-19.541
X-297.023 Y-19.644
X-297.158 Y-19.755
X-297.287 Y-19.874
X-297.408 Y-19.999
X-297.522 Y-20.13
X-297.629 Y-20.268
X-297.729 Y-20.412
X-297.82 Y-20.562
X-297.904 Y-20.718
X-297.98 Y-20.88
X-298.046 Y-21.045
X-298.103 Y-21.213
X-298.151 Y-21.385
X-298.189 Y-21.559
X-298.218 Y-21.735
X-298.237 Y-21.913
X-298.246 Y-22.093
X-298.245 Y-22.274
X-298.234 Y-22.456
X-298.213 Y-22.636
X-298.182 Y-22.816
X-298.141 Y-22.994
X-298.09 Y-23.169
X-298.029 Y-23.341
X-297.959 Y-23.51
X-297.88 Y-23.676
X-297.791 Y-23.837
X-297.692 Y-23.994
X-297.585 Y-24.146
X-297.469 Y-24.292
X-297.345 Y-24.432
X-297.214 Y-24.565
X-297.074 Y-24.691
X-296.928 Y-24.809
X-296.775 Y-24.919
X-296.617 Y-25.02
X-296.452 Y-25.113
X-296.282 Y-25.197
X-296.107 Y-25.271
X-295.928 Y-25.336
X-295.746 Y-25.39
X-295.56 Y-25.435
X-295.371 Y-25.469
X-295.18 Y-25.493
X-294.988 Y-25.507
X-294.794 Y-25.51
X-294.601 Y-25.502
X-294.407 Y-25.483
X-294.215 Y-25.454
X-294.024 Y-25.413
X-293.835 Y-25.363
X-293.648 Y-25.301
X-293.465 Y-25.23
X-293.286 Y-25.148
X-293.111 Y-25.055
X-292.941 Y-24.954
X-292.776 Y-24.842
X-292.618 Y-24.722
X-292.466 Y-24.592
X-292.321 Y-24.455
X-292.184 Y-24.309
X-292.055 Y-24.155
X-291.934 Y-23.993
X-291.822 Y-23.826
X-291.719 Y-23.652
X-291.626 Y-23.471
X-291.543 Y-23.286
X-291.47 Y-23.096
X-291.408 Y-22.902
X-291.356 Y-22.704
X-291.315 Y-22.503
X-291.286 Y-22.299
X-291.267 Y-22.094
X-291.26 Y-21.888
X-291.265 Y-21.681
X-291.28 Y-21.474
X-291.308 Y-21.268
X-291.347 Y-21.064
X-291.397 Y-20.861
X-291.458 Y-20.661
X-291.531 Y-20.464
X-291.615 Y-20.271
X-291.709 Y-20.083
X-291.814 Y-19.9
X-291.929 Y-19.722
X-292.054 Y-19.551
X-292.189 Y-19.386
X-292.333 Y-19.229
X-292.486 Y-19.08
X-292.647 Y-18.939
X-292.816 Y-18.807
X-292.993 Y-18.684
X-293.176 Y-18.571
X-293.366 Y-18.468
X-293.561 Y-18.376
X-293.763 Y-18.294
X-293.968 Y-18.224
X-294.178 Y-18.164
X-294.391 Y-18.117
X-294.607 Y-18.081
X-294.825 Y-18.057
X-295.045 Y-18.045
X-295.265 Y-18.046
X-295.486 Y-18.058
X-295.706 Y-18.083
X-295.924 Y-18.12
X-296.141 Y-18.169
X-296.355 Y-18.231
X-296.566 Y-18.304
X-296.773 Y-18.389
X-296.976 Y-18.486
X-297.173 Y-18.593
X-297.364 Y-18.712
X-297.549 Y-18.842
X-297.727 Y-18.981
X-297.897 Y-19.131
X-298.059 Y-19.291
X-298.213 Y-19.459
X-298.357 Y-19.637
X-298.491 Y-19.822
X-298.615 Y-20.014
X-298.728 Y-20.214
X-298.831 Y-20.42
X-298.922 Y-20.632
X-299.001 Y-20.849
X-299.069 Y-21.071
X-299.124 Y-21.297
X-299.166 Y-21.526
X-299.196 Y-21.757
X-299.213 Y-21.99
X-299.217 Y-22.224
X-299.209 Y-22.458
X-299.187 Y-22.692
X-299.152 Y-22.925
X-299.104 Y-23.156
X-299.044 Y-23.385
X-298.97 Y-23.611
X-298.884 Y-23.832
X-298.786 Y-24.049
X-298.676 Y-24.261
X-298.553 Y-24.467
X-298.42 Y-24.666
X-298.275 Y-24.857
X-298.12 Y-25.041
X-297.954 Y-25.216
X-297.779 Y-25.382
X-297.594 Y-25.538
X-297.4 Y-25.685
X-297.199 Y-25.82
X-296.989 Y-25.945
X-296.773 Y-26.057
X-296.55 Y-26.158
X-296.321 Y-26.247
X-296.088 Y-26.323
X-295.85 Y-26.386
X-295.608 Y-26.436
X-295.364 Y-26.473
X-295.117 Y-26.495
X-294.869 Y-26.505
X-294.62 Y-26.5
X-294.372 Y-26.482
X-294.124 Y-26.45
X-293.878 Y-26.404
X-293.634 Y-26.345
X-293.394 Y-26.272
X-293.157 Y-26.185
X-292.925 Y-26.086
X-292.699 Y-25.973
X-292.479 Y-25.848
X-292.265 Y-25.711
X-292.059 Y-25.561
X-291.861 Y-25.401
X-291.672 Y-25.229
X-291.493 Y-25.046
X-291.323 Y-24.854
X-291.165 Y-24.652
X-291.017 Y-24.441
X-290.881 Y-24.222
X-290.757 Y-23.995
X-290.645 Y-23.761
X-290.547 Y-23.521
X-290.461 Y-23.276
X-290.39 Y-23.025
X-290.332 Y-22.771
X-290.288 Y-22.513
X-290.259 Y-22.253
X-290.244 Y-21.991
X-290.243 Y-21.728
X-290.257 Y-21.464
X-290.286 Y-21.202
X-290.329 Y-20.941
X-290.387 Y-20.682
X-290.459 Y-20.427
X-290.546 Y-20.175
X-290.646 Y-19.928
X-290.76 Y-19.686
X-290.888 Y-19.451
X-291.029 Y-19.223
X-291.182 Y-19.002
X-291.348 Y-18.79
X-291.525 Y-18.587
X-291.714 Y-18.394
X-291.914 Y-18.211
X-292.124 Y-18.039
X-292.343 Y-17.878
X-292.572 Y-17.73
X-292.809 Y-17.595
X-293.053 Y-17.472
X-293.305 Y-17.363
X-293.562 Y-17.268
X-293.825 Y-17.187
X-294.092 Y-17.121
X-294.364 Y-17.069
X-294.638 Y-17.033
X-294.914 Y-17.012
X-295.192 Y-17.006
X-295.47 Y-17.015
X-295.748 Y-17.04
X-296.024 Y-17.08
X-296.298 Y-17.136
X-296.569 Y-17.207
X-296.837 Y-17.293
X-297.099 Y-17.393
X-297.357 Y-17.509
X-297.607 Y-17.639
X-297.851 Y-17.782
X-298.087 Y-17.94
X-298.314 Y-18.11
X-298.532 Y-18.293
X-298.74 Y-18.488
X-298.937 Y-18.695
X-299.123 Y-18.913
X-299.296 Y-19.141
X-299.457 Y-19.379
X-299.605 Y-19.626
X-299.739 Y-19.881
X-299.859 Y-20.143
X-299.965 Y-20.413
X-300.056 Y-20.688
X-300.131 Y-20.968
X-300.191 Y-21.253
X-300.235 Y-21.541
X-300.263 Y-21.832
X-300.275 Y-22.124
X-300.271 Y-22.417
X-300.25 Y-22.71
X-300.214 Y-23.002
X-300.161 Y-23.292
X-300.092 Y-23.579
X-300.007 Y-23.862
X-299.906 Y-24.141
X-299.79 Y-24.414
X-299.659 Y-24.681
X-299.512 Y-24.94
X-299.352 Y-25.192
X-299.177 Y-25.434
X-298.989 Y-25.667
X-298.788 Y-25.89
X-298.575 Y-26.102
X-298.349 Y-26.301
X-298.113 Y-26.489
X-297.866 Y-26.663
X-297.609 Y-26.824
X-297.344 Y-26.97
X-297.07 Y-27.102
X-296.789 Y-27.218
X-296.501 Y-27.319
X-296.208 Y-27.404
X-295.91 Y-27.473
X-295.608 Y-27.526
X-295.303 Y-27.561
X-294.996 Y-27.58
X-294.687 Y-27.581
X-294.379 Y-27.566
X-294.072 Y-27.533
X-293.766 Y-27.484
X-293.463 Y-27.417
X-293.163 Y-27.334
X-292.868 Y-27.234
X-292.579 Y-27.117
X-292.295 Y-26.985
X-292.02 Y-26.836
X-291.752 Y-26.673
X-291.493 Y-26.494
X-291.245 Y-26.301
X-291.007 Y-26.095
X-290.78 Y-25.875
X-290.565 Y-25.642
X-290.364 Y-25.398
X-290.175 Y-25.142
X-290.001 Y-24.876
X-289.842 Y-24.6
X-289.698 Y-24.315
X-289.57 Y-24.022
X-289.458 Y-23.722
X-289.363 Y-23.416
X-289.284 Y-23.105
X-289.223 Y-22.789
X-289.179 Y-22.469
X-289.154 Y-22.147
X-289.145 Y-21.824
X-289.155 Y-21.5
X-289.183 Y-21.177
X-289.229 Y-20.855
X-289.293 Y-20.536
X-289.374 Y-20.22
X-289.473 Y-19.908
X-289.589 Y-19.602
X-289.722 Y-19.303
X-289.872 Y-19.01
X-290.038 Y-18.726
X-290.22 Y-18.452
X-290.417 Y-18.187
X-290.629 Y-17.933
X-290.854 Y-17.691
X-291.094 Y-17.461
X-291.346 Y-17.245
X-291.61 Y-17.042
X-291.886 Y-16.854
X-292.172 Y-16.682
X-292.467 Y-16.525
X-292.771 Y-16.385
X-293.083 Y-16.261
X-293.402 Y-16.155
X-293.727 Y-16.066
X-294.057 Y-15.996
X-294.391 Y-15.943
X-294.728 Y-15.909
X-295.067 Y-15.894
X-295.406 Y-15.898
X-295.746 Y-15.921
X-296.084 Y-15.962
X-296.42 Y-16.022
X-296.752 Y-16.101
X-297.081 Y-16.198
X-297.404 Y-16.313
X-297.72 Y-16.447
X-298.029 Y-16.598
X-298.33 Y-16.766
X-298.622 Y-16.95
X-298.903 Y-17.151
X-299.173 Y-17.368
X-299.432 Y-17.599
X-299.677 Y-17.845
X-299.909 Y-18.105
X-300.126 Y-18.377
X-300.328 Y-18.662
X-300.515 Y-18.957
X-300.685 Y-19.264
X-300.838 Y-19.579
X-300.974 Y-19.903
X-301.092 Y-20.235
X-301.191 Y-20.573
X-301.272 Y-20.917
X-301.333 Y-21.265
X-301.376 Y-21.616
X-301.398 Y-21.97
X-301.402 Y-22.326
X-301.385 Y-22.681
X-301.349 Y-23.036
X-301.293 Y-23.388
X-301.217 Y-23.738
X-301.122 Y-24.083
X-301.008 Y-24.423
X-300.875 Y-24.757
X-300.724 Y-25.083
X-300.555 Y-25.401
X-300.367 Y-25.71
X-300.163 Y-26.008
X-299.942 Y-26.295
X-299.706 Y-26.57
X-299.454 Y-26.831
X-299.187 Y-27.079
X-298.907 Y-27.312
X-298.614 Y-27.529
X-298.308 Y-27.73
X-297.992 Y-27.914
X-297.665 Y-28.081
X-297.33 Y-28.229
X-296.986 Y-28.359
X-296.634 Y-28.47
X-296.277 Y-28.561
X-295.914 Y-28.632
X-295.548 Y-28.684
X-295.178 Y-28.715
X-294.807 Y-28.725
X-294.436 Y-28.715
X-294.064 Y-28.685
X-293.695 Y-28.634
X-293.328 Y-28.562
X-292.966 Y-28.47
X-292.608 Y-28.358
X-292.257 Y-28.226
X-291.913 Y-28.074
X-291.577 Y-27.904
X-291.251 Y-27.715
X-290.936 Y-27.507
X-290.631 Y-27.283
X-290.34 Y-27.041
X-290.061 Y-26.783
X-289.797 Y-26.51
X-289.549 Y-26.222
X-289.316 Y-25.921
X-289.1 Y-25.606
X-288.901 Y-25.28
X-288.72 Y-24.942
X-288.559 Y-24.595
X-288.416 Y-24.238
X-288.293 Y-23.874
X-288.191 Y-23.503
X-288.109 Y-23.126
X-288.047 Y-22.745
X-288.008 Y-22.36
X-287.989 Y-21.973
X-287.992 Y-21.585
X-288.016 Y-21.198
X-288.062 Y-20.811
X-288.129 Y-20.428
X-288.218 Y-20.048
X-288.327 Y-19.673
X-288.458 Y-19.304
X-288.609 Y-18.942
X-288.779 Y-18.589
X-288.97 Y-18.245
X-289.179 Y-17.911
X-289.407 Y-17.59
X-289.653 Y-17.281
X-289.916 Y-16.986
X-290.196 Y-16.705
X-290.49 Y-16.44
X-290.8 Y-16.191
X-291.123 Y-15.959
X-291.459 Y-15.745
X-291.807 Y-15.55
X-292.166 Y-15.375
X-292.535 Y-15.219
X-292.912 Y-15.083
X-293.296 Y-14.969
X-293.687 Y-14.876
X-294.083 Y-14.804
X-294.483 Y-14.755
X-294.886 Y-14.727
X-295.29 Y-14.722
X-295.695 Y-14.74
X-296.098 Y-14.78
X-296.499 Y-14.842
X-296.897 Y-14.926
X-297.29 Y-15.033
X-297.677 Y-15.161
X-298.057 Y-15.311
X-298.428 Y-15.482
X-298.79 Y-15.673
X-299.142 Y-15.884
X-299.481 Y-16.115
X-299.808 Y-16.365
X-300.121 Y-16.633
X-300.419 Y-16.918
X-300.701 Y-17.219
X-300.966 Y-17.536
X-301.214 Y-17.868
X-301.443 Y-18.214
X-301.653 Y-18.572
X-301.844 Y-18.942
X-302.013 Y-19.322
X-302.162 Y-19.712
X-302.289 Y-20.11
X-302.394 Y-20.514
X-302.476 Y-20.925
X-302.536 Y-21.34
X-302.573 Y-21.759
X-302.586 Y-22.179
X-302.576 Y-22.6
X-302.543 Y-23.02
X-302.487 Y-23.439
X-302.407 Y-23.854
X-302.304 Y-24.265
X-302.179 Y-24.67
X-302.031 Y-25.068
X-301.861 Y-25.458
X-301.669 Y-25.839
X-301.457 Y-26.208
X-301.223 Y-26.566
X-300.971 Y-26.911
X-300.699 Y-27.242
X-300.408 Y-27.557
X-300.101 Y-27.857
X-299.776 Y-28.139
X-299.436 Y-28.403
X-299.082 Y-28.649
X-298.714 Y-28.875
X-298.333 Y-29.08
X-297.941 Y-29.264
X-297.539 Y-29.427
X-297.129 Y-29.567
X-296.71 Y-29.684
X-296.285 Y-29.778
X-295.855 Y-29.849
X-295.421 Y-29.895
X-294.984 Y-29.918
X-294.546 Y-29.916
X-294.109 Y-29.89
X-293.673 Y-29.84
X-293.239 Y-29.766
X-292.81 Y-29.667
X-292.387 Y-29.545
X-291.97 Y-29.4
X-291.562 Y-29.231
X-291.163 Y-29.04
X-290.774 Y-28.826
X-290.398 Y-28.591
X-290.034 Y-28.336
X-289.685 Y-28.06
X-289.351 Y-27.765
X-289.034 Y-27.451
X-288.734 Y-27.12
X-288.453 Y-26.772
X-288.191 Y-26.409
X-287.949 Y-26.032
X-287.728 Y-25.641
X-287.528 Y-25.238
X-287.352 Y-24.823
X-287.198 Y-24.4
X-287.067 Y-23.967
X-286.961 Y-23.528
X-286.879 Y-23.083
X-286.822 Y-22.633
X-286.789 Y-22.181
X-286.782 Y-21.726
X-286.8 Y-21.272
X-286.843 Y-20.818
X-286.912 Y-20.367
X-287.005 Y-19.92
X-287.123 Y-19.478
X-287.266 Y-19.043
X-287.432 Y-18.615
X-287.623 Y-18.197
X-287.836 Y-17.79
X-288.072 Y-17.395
X-288.33 Y-17.013
X-288.609 Y-16.645
X-288.908 Y-16.293
X-289.227 Y-15.957
X-289.564 Y-15.639
X-289.919 Y-15.34
X-290.291 Y-15.061
X-290.677 Y-14.802
X-291.078 Y-14.565
X-291.492 Y-14.35
X-291.918 Y-14.158
X-292.355 Y-13.99
X-292.8 Y-13.846
X-293.254 Y-13.727
X-293.714 Y-13.633
X-294.179 Y-13.564
X-294.648 Y-13.521
X-295.119 Y-13.505
X-295.591 Y-13.514
X-296.062 Y-13.55
X-296.531 Y-13.611
X-296.997 Y-13.699
X-297.457 Y-13.812
X-297.912 Y-13.951
X-298.358 Y-14.116
X-298.795 Y-14.304
X-299.222 Y-14.517
X-299.636 Y-14.754
X-300.038 Y-15.013
X-300.425 Y-15.295
X-300.796 Y-15.598
X-301.15 Y-15.922
X-301.487 Y-16.265
X-301.804 Y-16.627
X-302.101 Y-17.006
X-302.377 Y-17.401
X-302.631 Y-17.812
X-302.862 Y-18.237
X-303.069 Y-18.674
X-303.252 Y-19.123
X-303.411 Y-19.582
X-303.543 Y-20.049
X-303.65 Y-20.524
X-303.731 Y-21.004
X-303.784 Y-21.489
X-303.811 Y-21.977
Y-22.466
X-303.784 Y-22.954
X-303.73 Y-23.442
X-303.648 Y-23.926
X-303.54 Y-24.405
X-303.406 Y-24.878
X-303.245 Y-25.344
X-303.058 Y-25.8
X-302.846 Y-26.246
X-302.61 Y-26.681
X-302.349 Y-27.101
X-302.065 Y-27.508
X-301.759 Y-27.898
X-301.431 Y-28.272
X-301.083 Y-28.627
X-300.715 Y-28.963
X-300.328 Y-29.278
X-299.925 Y-29.571
X-299.505 Y-29.843
X-299.07 Y-30.09
X-298.621 Y-30.314
X-298.16 Y-30.513
X-297.689 Y-30.686
X-297.208 Y-30.833
X-296.719 Y-30.953
X-296.223 Y-31.046
X-295.722 Y-31.112
X-295.218 Y-31.149
X-294.712 Y-31.159
X-294.206 Y-31.141
X-293.701 Y-31.095
X-293.198 Y-31.02
X-292.7 Y-30.918
X-292.208 Y-30.788
X-291.723 Y-30.631
X-291.246 Y-30.448
X-290.781 Y-30.237
X-290.327 Y-30.001
X-289.886 Y-29.74
X-289.46 Y-29.455
X-289.049 Y-29.146
X-288.656 Y-28.815
X-288.282 Y-28.461
X-287.927 Y-28.088
X-287.593 Y-27.694
X-287.281 Y-27.282
X-286.992 Y-26.854
X-286.727 Y-26.409
X-286.487 Y-25.95
X-286.272 Y-25.477
X-286.083 Y-24.993
X-285.922 Y-24.498
X-285.787 Y-23.995
X-285.681 Y-23.485
X-285.603 Y-22.968
X-285.554 Y-22.448
X-285.534 Y-21.925
X-285.542 Y-21.401
X-285.58 Y-20.878
X-285.646 Y-20.357
X-285.742 Y-19.84
X-285.866 Y-19.329
X-286.018 Y-18.824
X-286.199 Y-18.328
X-286.406 Y-17.843
X-286.641 Y-17.369
X-286.902 Y-16.908
X-287.188 Y-16.462
X-287.499 Y-16.032
X-287.833 Y-15.619
X-288.191 Y-15.225
X-288.57 Y-14.851
X-288.969 Y-14.498
X-289.388 Y-14.167
X-289.826 Y-13.86
X-290.28 Y-13.577
X-290.749 Y-13.319
X-291.233 Y-13.088
X-291.73 Y-12.883
X-292.237 Y-12.706
X-292.754 Y-12.557
X-293.28 Y-12.437
X-293.811 Y-12.346
X-294.348 Y-12.284
X-294.888 Y-12.253
X-295.429 Y-12.251
X-295.97 Y-12.279
X-296.509 Y-12.337
X-297.045 Y-12.426
X-297.576 Y-12.543
X-298.1 Y-12.691
X-298.616 Y-12.867
X-299.122 Y-13.071
X-299.616 Y-13.304
X-300.097 Y-13.564
X-300.564 Y-13.85
X-301.014 Y-14.163
X-301.447 Y-14.5
X-301.862 Y-14.861
X-302.256 Y-15.245
X-302.628 Y-15.65
X-302.978 Y-16.076
X-303.304 Y-16.521
X-303.605 Y-16.984
X-303.881 Y-17.464
X-304.13 Y-17.959
X-304.351 Y-18.467
X-304.544 Y-18.987
X-304.708 Y-19.518
X-304.843 Y-20.058
X-304.948 Y-20.604
X-305.022 Y-21.157
X-305.065 Y-21.713
X-305.078 Y-22.272
X-305.06 Y-22.831
X-305.011 Y-23.389
X-304.931 Y-23.944
X-304.82 Y-24.494
X-304.679 Y-25.037
X-304.508 Y-25.573
X-304.307 Y-26.099
X-304.077 Y-26.614
X-303.818 Y-27.115
X-303.532 Y-27.603
X-303.219 Y-28.074
X-302.88 Y-28.527
X-302.516 Y-28.962
X-302.128 Y-29.376
X-301.718 Y-29.768
X-301.285 Y-30.138
X-300.833 Y-30.483
X-300.361 Y-30.803
X-299.872 Y-31.097
X-299.367 Y-31.364
X-298.847 Y-31.602
X-298.315 Y-31.812
X-297.771 Y-31.992
X-297.217 Y-32.142
X-296.655 Y-32.261
X-296.087 Y-32.349
X-295.514 Y-32.405
X-294.938 Y-32.429
X-294.361 Y-32.422
X-293.785 Y-32.383
X-293.211 Y-32.311
X-292.642 Y-32.208
X-292.078 Y-32.074
X-291.522 Y-31.908
X-290.976 Y-31.711
X-290.441 Y-31.485
X-289.918 Y-31.228
X-289.41 Y-30.943
X-288.918 Y-30.63
X-288.444 Y-30.29
X-287.989 Y-29.923
X-287.554 Y-29.532
X-287.141 Y-29.116
X-286.751 Y-28.678
X-286.386 Y-28.219
X-286.046 Y-27.739
X-285.734 Y-27.241
X-285.449 Y-26.726
X-285.192 Y-26.195
X-284.965 Y-25.65
X-284.769 Y-25.093
X-284.603 Y-24.525
X-284.469 Y-23.949
X-284.367 Y-23.365
X-284.298 Y-22.776
X-284.261 Y-22.183
X-284.257 Y-21.589
X-284.286 Y-20.994
X-284.347 Y-20.402
X-284.442 Y-19.813
X-284.569 Y-19.23
X-284.729 Y-18.654
X-284.92 Y-18.087
X-285.143 Y-17.531
X-285.396 Y-16.988
X-285.68 Y-16.459
X-285.992 Y-15.946
X-286.333 Y-15.45
X-286.702 Y-14.974
X-287.096 Y-14.518
X-287.515 Y-14.085
X-287.959 Y-13.674
X-288.425 Y-13.289
X-288.912 Y-12.929
X-289.418 Y-12.597
X-289.943 Y-12.293
X-290.485 Y-12.018
X-291.041 Y-11.774
X-291.611 Y-11.56
X-292.192 Y-11.378
X-292.783 Y-11.229
X-293.382 Y-11.112
X-293.987 Y-11.028
X-294.597 Y-10.978
X-295.209 Y-10.962
X-295.822 Y-10.98
X-296.433 Y-11.031
X-297.041 Y-11.117
X-297.644 Y-11.236
X-298.241 Y-11.389
X-298.828 Y-11.574
X-299.405 Y-11.793
X-299.969 Y-12.042
X-300.52 Y-12.324
X-301.054 Y-12.635
X-301.571 Y-12.976
X-302.069 Y-13.345
X-302.546 Y-13.742
X-303.001 Y-14.165
X-303.432 Y-14.613
X-303.838 Y-15.085
X-304.218 Y-15.579
X-304.57 Y-16.093
X-304.894 Y-16.628
X-305.187 Y-17.179
X-305.45 Y-17.747
X-305.682 Y-18.329
X-305.881 Y-18.923
X-306.047 Y-19.528
X-306.179 Y-20.143
X-306.277 Y-20.764
X-306.341 Y-21.39
X-306.37 Y-22.019
X-306.364 Y-22.65
X-306.323 Y-23.28
X-306.248 Y-23.907
X-306.137 Y-24.53
X-305.992 Y-25.147
X-305.813 Y-25.755
X-305.6 Y-26.353
X-305.355 Y-26.939
X-305.077 Y-27.51
X-304.767 Y-28.066
X-304.427 Y-28.605
X-304.057 Y-29.125
X-303.659 Y-29.623
X-303.233 Y-30.1
X-302.781 Y-30.552
X-302.304 Y-30.979
X-301.803 Y-31.38
X-301.281 Y-31.753
X-300.738 Y-32.096
X-300.177 Y-32.409
X-299.598 Y-32.691
X-299.005 Y-32.941
X-298.397 Y-33.158
X-297.778 Y-33.341
X-297.15 Y-33.489
X-296.513 Y-33.603
X-295.87 Y-33.681
X-295.224 Y-33.723
X-294.575 Y-33.73
X-293.926 Y-33.701
X-293.28 Y-33.635
X-292.637 Y-33.534
X-292 Y-33.398
X-291.371 Y-33.226
X-290.752 Y-33.019
X-290.145 Y-32.779
X-289.551 Y-32.504
X-288.973 Y-32.197
X-288.413 Y-31.858
X-287.871 Y-31.489
X-287.35 Y-31.089
X-286.852 Y-30.661
X-286.378 Y-30.205
X-285.929 Y-29.723
X-285.507 Y-29.217
X-285.113 Y-28.688
X-284.749 Y-28.137
X-284.416 Y-27.566
X-284.115 Y-26.977
X-283.846 Y-26.372
X-283.611 Y-25.752
X-283.41 Y-25.12
X-283.245 Y-24.476
X-283.116 Y-23.824
X-283.022 Y-23.166
X-282.966 Y-22.502
X-282.946 Y-21.836
X-282.963 Y-21.168
X-283.017 Y-20.503
X-283.107 Y-19.84
X-283.235 Y-19.183
X-283.399 Y-18.534
X-283.598 Y-17.893
X-283.834 Y-17.265
X-284.103 Y-16.649
X-284.407 Y-16.05
X-284.744 Y-15.467
X-285.113 Y-14.903
X-285.513 Y-14.36
X-285.943 Y-13.839
X-286.401 Y-13.343
X-286.887 Y-12.872
X-287.398 Y-12.429
X-287.934 Y-12.014
X-288.493 Y-11.629
X-289.072 Y-11.275
X-289.671 Y-10.953
X-290.287 Y-10.665
X-290.919 Y-10.411
X-291.565 Y-10.193
X-292.222 Y-10.01
X-292.889 Y-9.864
X-293.564 Y-9.755
X-294.244 Y-9.683
X-294.928 Y-9.649
X-295.614 Y-9.653
X-296.299 Y-9.695
X-296.981 Y-9.775
X-297.658 Y-9.893
X-298.329 Y-10.048
X-298.99 Y-10.24
X-299.64 Y-10.469
X-300.278 Y-10.733
X-300.9 Y-11.033
X-301.505 Y-11.367
X-302.091 Y-11.735
X-302.657 Y-12.134
X-303.2 Y-12.565
X-303.719 Y-13.026
X-304.212 Y-13.515
X-304.678 Y-14.031
X-305.115 Y-14.573
X-305.521 Y-15.139
X-305.896 Y-15.726
X-306.238 Y-16.335
X-306.546 Y-16.961
X-306.82 Y-17.605
X-307.057 Y-18.263
X-307.258 Y-18.934
X-307.421 Y-19.616
X-307.547 Y-20.306
X-307.634 Y-21.003
X-307.683 Y-21.704
X-307.693 Y-22.408
X-307.663 Y-23.112
X-307.595 Y-23.813
X-307.488 Y-24.511
X-307.342 Y-25.202
X-307.158 Y-25.884
X-306.937 Y-26.556
X-306.678 Y-27.216
X-306.383 Y-27.86
X-306.052 Y-28.488
X-305.687 Y-29.097
X-305.289 Y-29.685
X-304.857 Y-30.251
X-304.395 Y-30.793
X-303.903 Y-31.309
X-303.383 Y-31.797
X-302.836 Y-32.256
X-302.264 Y-32.684
X-301.669 Y-33.081
X-301.052 Y-33.444
X-300.415 Y-33.773
X-299.76 Y-34.066
X-299.09 Y-34.323
X-298.406 Y-34.542
X-297.71 Y-34.724
X-297.004 Y-34.866
X-296.291 Y-34.97
X-295.573 Y-35.034
X-294.851 Y-35.058
X-294.129 Y-35.042
X-293.408 Y-34.986
X-292.69 Y-34.891
X-291.978 Y-34.755
X-291.275 Y-34.58
X-290.581 Y-34.366
X-289.9 Y-34.114
X-289.233 Y-33.825
X-288.582 Y-33.498
X-287.95 Y-33.136
X-287.339 Y-32.739
X-286.75 Y-32.308
X-286.185 Y-31.845
X-285.646 Y-31.351
X-285.135 Y-30.827
X-284.653 Y-30.276
X-284.202 Y-29.698
X-283.784 Y-29.095
X-283.399 Y-28.47
X-283.049 Y-27.824
X-282.735 Y-27.158
X-282.458 Y-26.476
X-282.22 Y-25.779
X-282.02 Y-25.069
X-281.859 Y-24.349
X-281.738 Y-23.62
X-281.658 Y-22.885
X-281.619 Y-22.145
X-281.621 Y-21.405
X-281.663 Y-20.664
X-281.747 Y-19.927
X-281.872 Y-19.195
X-282.037 Y-18.47
X-282.242 Y-17.755
X-282.487 Y-17.051
X-282.77 Y-16.362
X-283.092 Y-15.689
X-283.45 Y-15.034
X-283.845 Y-14.399
X-284.274 Y-13.787
X-284.737 Y-13.199
X-285.233 Y-12.637
X-285.759 Y-12.102
X-286.315 Y-11.598
X-286.898 Y-11.124
X-287.507 Y-10.683
X-288.14 Y-10.276
X-288.795 Y-9.904
X-289.471 Y-9.569
X-290.164 Y-9.272
X-290.874 Y-9.013
X-291.597 Y-8.794
X-292.332 Y-8.615
X-293.077 Y-8.477
X-293.828 Y-8.38
X-294.585 Y-8.325
X-295.344 Y-8.312
X-296.103 Y-8.341
X-296.86 Y-8.412
X-297.613 Y-8.524
X-298.359 Y-8.679
X-299.096 Y-8.875
X-299.821 Y-9.111
X-300.533 Y-9.388
X-301.23 Y-9.703
X-301.908 Y-10.058
X-302.566 Y-10.449
X-303.202 Y-10.877
X-303.814 Y-11.34
X-304.399 Y-11.836
X-304.957 Y-12.364
X-305.486 Y-12.923
X-305.982 Y-13.511
X-306.446 Y-14.126
X-306.876 Y-14.766
X-307.27 Y-15.43
X-307.626 Y-16.115
X-307.945 Y-16.819
X-308.224 Y-17.54
X-308.463 Y-18.277
X-308.662 Y-19.026
X-308.818 Y-19.786
X-308.932 Y-20.553
X-309.004 Y-21.327
X-309.033 Y-22.104
X-309.018 Y-22.882
X-308.961 Y-23.659
X-308.86 Y-24.432
X-308.717 Y-25.199
X-308.532 Y-25.957
X-308.304 Y-26.705
X-308.035 Y-27.439
X-307.726 Y-28.159
X-307.377 Y-28.86
X-306.989 Y-29.542
X-306.564 Y-30.201
X-306.103 Y-30.837
X-305.607 Y-31.447
X-305.077 Y-32.028
X-304.516 Y-32.58
X-303.924 Y-33.101
X-303.304 Y-33.588
X-302.657 Y-34.041
X-301.985 Y-34.457
X-301.291 Y-34.836
X-300.577 Y-35.176
X-299.844 Y-35.477
X-299.095 Y-35.736
X-298.332 Y-35.954
X-297.558 Y-36.13
X-296.774 Y-36.262
X-295.984 Y-36.351
X-295.189 Y-36.396
X-294.392 Y-36.397
X-293.596 Y-36.354
X-292.803 Y-36.266
X-292.015 Y-36.135
X-291.235 Y-35.961
X-290.465 Y-35.743
X-289.708 Y-35.482
X-288.966 Y-35.18
X-288.241 Y-34.837
X-287.535 Y-34.454
X-286.852 Y-34.032
X-286.192 Y-33.573
X-285.558 Y-33.077
X-284.952 Y-32.547
X-284.376 Y-31.983
X-283.831 Y-31.388
X-283.32 Y-30.763
X-282.844 Y-30.111
X-282.405 Y-29.432
X-282.003 Y-28.73
X-281.64 Y-28.005
X-281.318 Y-27.261
X-281.038 Y-26.5
X-280.799 Y-25.724
X-280.604 Y-24.935
X-280.453 Y-24.136
X-280.346 Y-23.33
X-280.284 Y-22.517
X-280.267 Y-21.702
X-280.295 Y-20.887
X-280.369 Y-20.074
X-280.487 Y-19.265
X-280.65 Y-18.464
X-280.857 Y-17.672
X-281.109 Y-16.892
X-281.403 Y-16.127
X-281.739 Y-15.379
X-282.117 Y-14.65
X-282.534 Y-13.942
X-282.991 Y-13.258
X-283.485 Y-12.6
X-284.015 Y-11.969
X-284.58 Y-11.369
X-285.178 Y-10.8
X-285.807 Y-10.264
X-286.465 Y-9.764
X-287.15 Y-9.301
X-287.86 Y-8.876
X-288.594 Y-8.491
X-289.348 Y-8.146
X-290.121 Y-7.844
X-290.91 Y-7.585
X-291.712 Y-7.37
X-292.526 Y-7.199
X-293.349 Y-7.073
X-294.179 Y-6.994
X-295.012 Y-6.96
X-295.846 Y-6.972
X-296.679 Y-7.031
X-297.508 Y-7.136
X-298.331 Y-7.286
X-299.145 Y-7.483
X-299.947 Y-7.724
X-300.736 Y-8.009
X-301.508 Y-8.338
X-302.261 Y-8.709
X-302.993 Y-9.122
X-303.702 Y-9.575
X-304.385 Y-10.067
X-305.04 Y-10.597
X-305.665 Y-11.162
X-306.259 Y-11.762
X-306.819 Y-12.394
X-307.343 Y-13.057
X-307.831 Y-13.748
X-308.279 Y-14.466
X-308.688 Y-15.208
X-309.055 Y-15.972
X-309.38 Y-16.756
X-309.66 Y-17.557
X-309.897 Y-18.373
X-310.088 Y-19.202
X-310.232 Y-20.041
X-310.331 Y-20.887
X-310.382 Y-21.738
X-310.386 Y-22.591
X-310.342 Y-23.443
X-310.252 Y-24.293
X-310.115 Y-25.137
X-309.93 Y-25.973
X-309.7 Y-26.798
X-309.424 Y-27.609
X-309.104 Y-28.405
X-308.739 Y-29.182
X-308.332 Y-29.938
X-307.883 Y-30.671
X-307.394 Y-31.379
X-306.866 Y-32.06
X-306.301 Y-32.71
X-305.7 Y-33.329
X-305.065 Y-33.913
X-304.399 Y-34.463
X-303.702 Y-34.974
X-302.978 Y-35.447
X-302.228 Y-35.88
X-301.454 Y-36.27
X-300.66 Y-36.618
X-299.847 Y-36.921
X-299.018 Y-37.178
X-298.175 Y-37.39
X-297.321 Y-37.555
X-296.458 Y-37.672
X-295.59 Y-37.741
X-294.718 Y-37.763
X-293.846 Y-37.736
X-292.976 Y-37.66
X-292.111 Y-37.537
X-291.254 Y-37.365
X-290.406 Y-37.147
X-289.572 Y-36.881
X-288.752 Y-36.57
X-287.951 Y-36.213
X-287.17 Y-35.812
X-286.412 Y-35.368
X-285.679 Y-34.883
X-284.973 Y-34.357
X-284.298 Y-33.792
X-283.654 Y-33.191
X-283.043 Y-32.554
X-282.469 Y-31.884
X-281.932 Y-31.183
X-281.434 Y-30.453
X-280.978 Y-29.695
X-280.563 Y-28.913
X-280.193 Y-28.108
X-279.867 Y-27.284
X-279.587 Y-26.442
X-279.354 Y-25.585
X-279.168 Y-24.716
X-279.031 Y-23.838
X-278.943 Y-22.952
X-278.904 Y-22.063
X-278.914 Y-21.172
X-278.973 Y-20.282
X-279.082 Y-19.396
X-279.24 Y-18.517
X-279.446 Y-17.647
X-279.701 Y-16.789
X-280.003 Y-15.947
X-280.351 Y-15.121
X-280.744 Y-14.316
X-281.182 Y-13.533
X-281.663 Y-12.775
X-282.185 Y-12.045
X-282.746 Y-11.345
X-283.345 Y-10.678
X-283.981 Y-10.044
X-284.65 Y-9.446
X-285.351 Y-8.886
X-286.081 Y-8.365
X-286.84 Y-7.886
X-287.623 Y-7.449
X-288.43 Y-7.055
X-289.256 Y-6.707
X-290.101 Y-6.404
X-290.961 Y-6.148
X-291.834 Y-5.939
X-292.716 Y-5.779
X-293.606 Y-5.667
X-294.501 Y-5.604
X-295.399 Y-5.589
X-296.295 Y-5.624
X-297.188 Y-5.708
X-298.076 Y-5.84
X-298.955 Y-6.02
X-299.823 Y-6.248
X-300.677 Y-6.522
X-301.515 Y-6.843
X-302.334 Y-7.209
X-303.132 Y-7.618
X-303.907 Y-8.071
X-304.656 Y-8.565
X-305.377 Y-9.099
X-306.068 Y-9.671
X-306.727 Y-10.28
X-307.353 Y-10.923
X-307.942 Y-11.6
X-308.494 Y-12.307
X-309.008 Y-13.042
X-309.481 Y-13.805
X-309.912 Y-14.592
X-310.3 Y-15.401
X-310.645 Y-16.229
X-310.944 Y-17.075
X-311.198 Y-17.935
X-311.405 Y-18.809
X-311.565 Y-19.691
X-311.677 Y-20.581
X-311.742 Y-21.476
X-311.759 Y-22.373
X-311.728 Y-23.27
X-311.649 Y-24.164
X-311.523 Y-25.052
X-311.349 Y-25.932
X-311.129 Y-26.802
X-310.863 Y-27.659
X-310.551 Y-28.501
X-310.196 Y-29.324
X-309.797 Y-30.128
X-309.356 Y-30.909
X-308.874 Y-31.666
X-308.352 Y-32.396
X-307.792 Y-33.097
X-307.195 Y-33.767
X-306.564 Y-34.404
X-305.9 Y-35.008
X-305.205 Y-35.575
X-304.481 Y-36.105
X-303.73 Y-36.596
X-302.954 Y-37.046
X-302.155 Y-37.456
X-301.336 Y-37.822
X-300.499 Y-38.145
X-299.647 Y-38.424
X-298.78 Y-38.658
X-297.903 Y-38.846
X-297.017 Y-38.988
X-296.125 Y-39.083
X-295.229 Y-39.132
X-294.332 Y-39.133
X-293.436 Y-39.087
X-292.543 Y-38.994
X-291.657 Y-38.854
X-290.78 Y-38.667
X-289.913 Y-38.435
X-289.06 Y-38.158
X-288.222 Y-37.837
X-287.402 Y-37.472
X-286.602 Y-37.066
X-285.824 Y-36.619
X-285.071 Y-36.132
X-284.344 Y-35.606
X-283.645 Y-35.044
X-282.975 Y-34.446
X-282.338 Y-33.814
X-281.734 Y-33.151
X-281.165 Y-32.457
X-280.634 Y-31.734
X-280.141 Y-30.984
X-279.688 Y-30.21
X-279.276 Y-29.413
X-279.218 Y-29.286
X-279.13 Y-29.055
X-279.069 Y-28.816
X-279.038 Y-28.571
X-279.034 Y-28.518
X-279.032 Y-28.506
X-278.909 Y-28.012
X-278.83 Y-27.809
X-278.81 Y-27.762
X-278.736 Y-27.605
X-278.668 Y-27.461
X-278.431 Y-26.878
X-278.2 Y-26.206
X-277.996 Y-25.482
X-277.826 Y-24.724
X-277.689 Y-23.899
X-277.593 Y-23.027
X-277.545 Y-22.131
X-277.546 Y-21.234
X-277.595 Y-20.338
X-277.691 Y-19.446
X-277.832 Y-18.56
X-278.02 Y-17.682
X-278.026 Y-17.658
X-278.108 Y-17.413
X-278.221 Y-17.18
X-278.361 Y-16.962
X-278.606 Y-16.626
X-278.625 Y-16.599
X-278.736 Y-16.395
X-278.81 Y-16.238
X-278.83 Y-16.191
X-278.909 Y-15.988
X-279.011 Y-15.58
X-279.266 Y-14.738
X-279.471 Y-14.178
X-279.715 Y-13.608
X-280.031 Y-12.972
X-280.415 Y-12.296
X-280.862 Y-11.601
X-281.358 Y-10.917
X-281.91 Y-10.237
X-282.514 Y-9.573
X-283.153 Y-8.943
X-283.824 Y-8.348
X-284.526 Y-7.789
X-285.255 Y-7.266
X-286.01 Y-6.781
X-286.789 Y-6.335
X-287.589 Y-5.929
X-288.408 Y-5.564
X-289.245 Y-5.241
X-290.097 Y-4.96
X-290.963 Y-4.723
X-291.839 Y-4.53
X-292.724 Y-4.383
X-293.615 Y-4.281
X-294.511 Y-4.224
X-295.408 Y-4.212
X-296.305 Y-4.245
X-297.198 Y-4.323
X-298.087 Y-4.445
X-298.969 Y-4.612
X-299.841 Y-4.822
X-300.702 Y-5.076
X-301.549 Y-5.372
X-302.379 Y-5.711
X-303.192 Y-6.091
X-303.984 Y-6.513
X-304.754 Y-6.974
X-305.5 Y-7.473
X-306.219 Y-8.008
X-306.912 Y-8.579
X-307.575 Y-9.183
X-308.207 Y-9.82
X-308.807 Y-10.487
X-309.373 Y-11.183
X-309.904 Y-11.906
X-310.399 Y-12.655
X-310.636 Y-13.055
X-310.795 Y-13.388
X-310.892 Y-13.744
X-310.925 Y-14.112
Y-14.765
X-310.931 Y-14.968
X-310.959 Y-15.376
X-310.984 Y-15.58
X-311.029 Y-15.786
X-311.091 Y-15.988
X-311.175 Y-16.191
X-311.267 Y-16.395
X-311.374 Y-16.599
X-311.515 Y-16.803
X-311.584 Y-16.891
X-311.746 Y-17.121
X-311.9 Y-17.369
X-312.062 Y-17.664
X-312.22 Y-17.993
X-312.389 Y-18.403
X-312.543 Y-18.845
X-312.696 Y-19.377
X-312.836 Y-19.989
X-312.946 Y-20.634
X-313.031 Y-21.373
X-313.078 Y-22.183
X-313.081 Y-23.046
X-313.034 Y-23.942
X-312.938 Y-24.834
X-312.853 Y-25.363
X-312.759 Y-25.719
X-312.598 Y-26.049
X-312.377 Y-26.342
X-312.102 Y-26.586
X-311.864 Y-26.79
X-311.844 Y-26.807
X-311.64 Y-27.037
X-311.515 Y-27.197
X-311.374 Y-27.401
X-311.267 Y-27.605
X-311.175 Y-27.809
X-311.091 Y-28.012
X-311.028 Y-28.216
X-310.984 Y-28.42
X-310.959 Y-28.624
X-310.931 Y-29.032
X-310.928 Y-29.144
X-310.904 Y-29.452
X-310.868 Y-29.718
X-310.814 Y-30.003
X-310.727 Y-30.352
X-310.617 Y-30.708
X-310.457 Y-31.142
X-310.265 Y-31.583
X-310.003 Y-32.105
X-309.691 Y-32.648
X-309.317 Y-33.224
X-308.863 Y-33.845
X-308.335 Y-34.488
X-307.74 Y-35.137
X-307.098 Y-35.763
X-306.423 Y-36.354
X-305.718 Y-36.91
X-304.986 Y-37.428
X-304.228 Y-37.908
X-303.447 Y-38.35
X-302.645 Y-38.752
X-301.824 Y-39.115
X-300.987 Y-39.437
X-300.135 Y-39.719
X-299.27 Y-39.959
X-298.395 Y-40.157
X-297.512 Y-40.312
X-296.622 Y-40.425
X-295.727 Y-40.495
X-294.83 Y-40.521
X-293.933 Y-40.504
X-293.038 Y-40.442
X-292.147 Y-40.336
X-291.262 Y-40.187
X-290.386 Y-39.994
X-289.52 Y-39.76
X-288.666 Y-39.484
X-287.827 Y-39.168
X-287.003 Y-38.811
X-286.198 Y-38.416
X-285.412 Y-37.982
X-284.648 Y-37.512
X-283.908 Y-37.006
X-283.192 Y-36.465
X-282.503 Y-35.889
X-281.844 Y-35.281
X-281.214 Y-34.642
X-280.616 Y-33.973
X-280.051 Y-33.276
X-279.52 Y-32.553
X-279.42 Y-32.402
X-279.271 Y-32.137
X-279.163 Y-31.854
X-279.097 Y-31.558
X-279.075 Y-31.256
Y-29.235
X-279.069 Y-29.032
X-279.038 Y-28.571
Y-28.561
X-279.047 Y-28.457
X-279.045 Y-28.388
X-279.036 Y-28.319
X-279.019 Y-28.252
X-278.903 Y-27.88
X-278.879 Y-27.815
X-278.847 Y-27.753
X-278.809 Y-27.696
X-278.743 Y-27.614
X-278.736 Y-27.605
X-278.625 Y-27.401
X-278.606 Y-27.374
X-278.403 Y-27.094
X-278.328 Y-26.993
X-278.199 Y-26.853
X-278.128 Y-26.79
X-277.995 Y-26.677
X-277.869 Y-26.56
X-277.756 Y-26.443
X-277.64 Y-26.307
X-277.521 Y-26.152
X-277.387 Y-25.955
X-277.251 Y-25.73
X-277.115 Y-25.474
X-276.965 Y-25.15
X-276.831 Y-24.812
X-276.687 Y-24.379
X-276.564 Y-23.927
X-276.444 Y-23.369
X-276.349 Y-22.762
X-276.281 Y-22.089
X-276.247 Y-21.328
X-276.256 Y-20.499
X-276.314 Y-19.622
X-276.349 Y-19.339
X-276.431 Y-18.955
X-276.582 Y-18.592
X-276.796 Y-18.263
X-277.066 Y-17.977
X-277.383 Y-17.745
X-277.495 Y-17.678
G3 X-278.406 Y-18.171 I-0.298 J-0.538
G1 X-278.988 Y-26.149
G3 X-277.995 Y-26.677 I0.613 J-0.045
G1 X-277.791 Y-26.505
X-277.587 Y-26.377
X-277.383 Y-26.255
X-277.22 Y-26.178
X-277.084 Y-26.114
X-276.957 Y-26.035
X-276.837 Y-25.945
X-276.721 Y-25.848
X-276.605 Y-25.739
X-276.476 Y-25.603
X-276.35 Y-25.455
X-276.21 Y-25.269
X-276.076 Y-25.071
X-275.929 Y-24.825
X-275.792 Y-24.563
X-275.645 Y-24.241
X-275.513 Y-23.903
X-275.376 Y-23.484
X-275.259 Y-23.048
X-275.15 Y-22.526
X-275.061 Y-21.94
X-275.005 Y-21.347
X-274.986 Y-20.857
X-274.992 Y-20.481
X-275.017 Y-20.127
X-275.055 Y-19.83
X-275.104 Y-19.56
X-275.111 Y-19.531
X-275.235 Y-19.169
X-275.424 Y-18.835
X-275.671 Y-18.542
X-275.967 Y-18.299
X-276.303 Y-18.115
X-276.667 Y-17.996
G3 X-277.395 Y-18.544 I-0.116 J-0.604
G1 X-278.034 Y-25.541
G3 X-277.22 Y-26.178 I0.612 J-0.056
G1 X-277.179 Y-26.162
X-276.975 Y-26.087
X-276.771 Y-26.028
X-276.567 Y-25.981
X-276.526 Y-25.974
X-276.38 Y-25.943
X-276.239 Y-25.891
X-276.103 Y-25.828
X-275.972 Y-25.755
X-275.846 Y-25.673
X-275.724 Y-25.582
X-275.592 Y-25.473
X-275.457 Y-25.349
X-275.313 Y-25.2
X-275.168 Y-25.032
X-275.02 Y-24.841
X-274.866 Y-24.618
X-274.716 Y-24.372
X-274.559 Y-24.078
X-274.414 Y-23.769
X-274.268 Y-23.404
X-274.135 Y-23.01
X-274.022 Y-22.603
X-273.931 Y-22.19
X-273.865 Y-21.778
X-273.823 Y-21.378
X-273.807 Y-21.05
X-273.809 Y-20.712
X-273.826 Y-20.442
X-273.857 Y-20.173
X-273.902 Y-19.919
X-273.951 Y-19.706
X-274.02 Y-19.47
X-274.031 Y-19.439
X-274.179 Y-19.113
X-274.382 Y-18.817
X-274.634 Y-18.561
X-274.927 Y-18.354
X-275.252 Y-18.2
X-275.598 Y-18.106
X-275.956 Y-18.074
X-276.159 Y-18.067
X-276.363 Y-18.053
X-276.567 Y-18.019
X-276.667 Y-17.996
G3 X-277.398 Y-18.616 I-0.116 J-0.604
G1 X-277.22 Y-25.381
G3 X-276.526 Y-25.974 I0.615 J0.016
G1 X-276.363 Y-25.947
X-276.159 Y-25.933
X-275.956 Y-25.926
X-275.843
X-275.694 Y-25.918
X-275.546 Y-25.893
X-275.401 Y-25.853
X-275.26 Y-25.802
X-275.123 Y-25.741
X-274.99 Y-25.671
X-274.853 Y-25.588
X-274.715 Y-25.494
X-274.568 Y-25.382
X-274.415 Y-25.25
X-274.26 Y-25.102
X-274.095 Y-24.925
X-273.937 Y-24.735
X-273.772 Y-24.515
X-273.607 Y-24.266
X-273.453 Y-24.002
X-273.302 Y-23.709
X-273.16 Y-23.389
X-273.033 Y-23.056
X-272.923 Y-22.71
X-272.834 Y-22.363
X-272.764 Y-22.015
X-272.715 Y-21.669
X-272.686 Y-21.331
X-272.675 Y-21.002
X-272.682 Y-20.723
X-272.706 Y-20.431
X-272.738 Y-20.194
X-272.786 Y-19.945
X-272.842 Y-19.722
X-272.904 Y-19.523
X-272.94 Y-19.425
X-273.094 Y-19.101
X-273.302 Y-18.807
X-273.558 Y-18.555
X-273.853 Y-18.35
X-274.179 Y-18.199
X-274.526 Y-18.106
X-274.884 Y-18.075
X-275.956 Y-18.074
G3 X-276.55 Y-18.699 I0.02 J-0.615
G1 X-276.438 Y-25.321
G3 X-275.843 Y-25.926 I0.615 J0.01
G1 X-274.936 Y-25.925
X-274.786 Y-25.917
X-274.637 Y-25.899
X-274.491 Y-25.868
X-274.347 Y-25.825
X-274.206 Y-25.772
X-274.07 Y-25.711
X-273.932 Y-25.64
X-273.784 Y-25.552
X-273.631 Y-25.45
X-273.475 Y-25.333
X-273.309 Y-25.194
X-273.146 Y-25.041
X-272.979 Y-24.866
X-272.809 Y-24.665
X-272.644 Y-24.449
X-272.485 Y-24.213
X-272.329 Y-23.953
X-272.181 Y-23.671
X-272.044 Y-23.373
X-271.922 Y-23.061
X-271.816 Y-22.739
X-271.728 Y-22.41
X-271.658 Y-22.078
X-271.608 Y-21.747
X-271.576 Y-21.421
X-271.563 Y-21.102
X-271.567 Y-20.813
X-271.588 Y-20.521
X-271.62 Y-20.262
X-271.663 Y-20.028
X-271.722 Y-19.783
X-271.782 Y-19.582
X-271.86 Y-19.368
X-271.872 Y-19.338
X-272.034 Y-19.032
X-272.244 Y-18.757
X-272.497 Y-18.521
X-272.786 Y-18.33
X-273.102 Y-18.19
X-273.437 Y-18.104
X-273.782 Y-18.075
X-274.884
G3 X-275.478 Y-18.685 I0.021 J-0.615
G1 X-275.53 Y-25.306
G3 X-274.936 Y-25.925 I0.615 J-0.005
G1 X-273.855
X-273.705 Y-25.917
X-273.556 Y-25.897
X-273.41 Y-25.864
X-273.266 Y-25.821
X-273.126 Y-25.768
X-272.985 Y-25.705
X-272.842 Y-25.632
X-272.687 Y-25.542
X-272.531 Y-25.439
X-272.371 Y-25.319
X-272.202 Y-25.178
X-272.035 Y-25.024
X-271.868 Y-24.85
X-271.698 Y-24.652
X-271.531 Y-24.434
X-271.373 Y-24.202
X-271.22 Y-23.949
X-271.075 Y-23.676
X-270.94 Y-23.384
X-270.818 Y-23.078
X-270.713 Y-22.763
X-270.625 Y-22.439
X-270.555 Y-22.112
X-270.503 Y-21.787
X-270.471 Y-21.462
X-270.456 Y-21.144
X-270.459 Y-20.831
X-270.477 Y-20.564
X-270.511 Y-20.282
X-270.553 Y-20.05
X-270.609 Y-19.81
X-270.674 Y-19.591
X-270.744 Y-19.396
X-270.765 Y-19.346
X-270.925 Y-19.038
X-271.135 Y-18.761
X-271.389 Y-18.524
X-271.678 Y-18.332
X-271.995 Y-18.19
X-272.331 Y-18.104
X-272.677 Y-18.075
X-273.782
G3 X-274.375 Y-18.683 I0.021 J-0.615
G1 X-274.448 Y-25.304
G3 X-273.855 Y-25.925 I0.615 J-0.007
G1 X-272.785
X-272.635 Y-25.917
X-272.486 Y-25.899
X-272.339 Y-25.869
X-272.195 Y-25.827
X-272.054 Y-25.777
X-271.916 Y-25.718
X-271.771 Y-25.646
X-271.616 Y-25.559
X-271.462 Y-25.46
X-271.3 Y-25.344
X-271.132 Y-25.208
X-270.967 Y-25.059
X-270.799 Y-24.888
X-270.628 Y-24.695
X-270.463 Y-24.486
X-270.304 Y-24.261
X-270.149 Y-24.013
X-270.002 Y-23.745
X-269.864 Y-23.459
X-269.741 Y-23.16
X-269.632 Y-22.849
X-269.539 Y-22.529
X-269.465 Y-22.204
X-269.408 Y-21.876
X-269.37 Y-21.55
X-269.351 Y-21.229
X-269.35 Y-20.915
X-269.364 Y-20.64
X-269.394 Y-20.356
X-269.434 Y-20.111
X-269.486 Y-19.878
X-269.55 Y-19.647
X-269.617 Y-19.452
X-269.648 Y-19.374
X-269.807 Y-19.06
X-270.016 Y-18.778
X-270.27 Y-18.535
X-270.562 Y-18.338
X-270.882 Y-18.193
X-271.222 Y-18.105
X-271.573 Y-18.075
X-272.677
G3 X-273.271 Y-18.68 I0.021 J-0.615
G1 X-273.378 Y-25.3
G3 X-272.785 Y-25.925 I0.615 J-0.01
G1 X-271.673
X-271.524 Y-25.917
X-271.375 Y-25.898
X-271.228 Y-25.867
X-271.084 Y-25.826
X-270.943 Y-25.775
X-270.8 Y-25.714
X-270.657 Y-25.642
X-270.504 Y-25.556
X-270.344 Y-25.453
X-270.185 Y-25.338
X-270.018 Y-25.202
X-269.848 Y-25.047
X-269.683 Y-24.879
X-269.515 Y-24.689
X-269.348 Y-24.476
X-269.186 Y-24.246
X-269.034 Y-24.001
X-268.889 Y-23.736
X-268.754 Y-23.452
X-268.63 Y-23.151
X-268.521 Y-22.838
X-268.43 Y-22.518
X-268.356 Y-22.192
X-268.3 Y-21.865
X-268.264 Y-21.541
X-268.245 Y-21.219
X-268.244 Y-20.905
X-268.259 Y-20.632
X-268.291 Y-20.343
X-268.33 Y-20.107
X-268.384 Y-19.863
X-268.447 Y-19.64
X-268.515 Y-19.443
X-268.545 Y-19.369
X-268.704 Y-19.056
X-268.913 Y-18.775
X-269.167 Y-18.533
X-269.458 Y-18.337
X-269.778 Y-18.193
X-270.118 Y-18.105
X-270.467 Y-18.075
X-271.573
G3 X-272.166 Y-18.68 I0.021 J-0.615
G1 X-272.267 Y-25.301
G3 X-271.673 Y-25.925 I0.615 J-0.009
G1 X-270.542
X-270.392 Y-25.917
X-270.243 Y-25.896
X-270.097 Y-25.863
X-269.953 Y-25.82
X-269.813 Y-25.767
X-269.668 Y-25.704
X-269.523 Y-25.63
X-269.37 Y-25.541
X-269.208 Y-25.435
X-269.049 Y-25.317
X-268.883 Y-25.179
X-268.712 Y-25.021
X-268.546 Y-24.848
X-268.38 Y-24.656
X-268.214 Y-24.441
X-268.052 Y-24.206
X-267.9 Y-23.955
X-267.758 Y-23.689
X-267.625 Y-23.403
X-267.505 Y-23.101
X-267.399 Y-22.786
X-267.31 Y-22.466
X-267.239 Y-22.138
X-267.187 Y-21.811
X-267.153 Y-21.486
X-267.138 Y-21.164
X-267.14 Y-20.854
X-267.158 Y-20.583
X-267.192 Y-20.298
X-267.232 Y-20.067
X-267.29 Y-19.821
X-267.353 Y-19.605
X-267.423 Y-19.406
X-267.447 Y-19.35
X-267.607 Y-19.042
X-267.817 Y-18.764
X-268.07 Y-18.526
X-268.36 Y-18.333
X-268.678 Y-18.191
X-269.015 Y-18.104
X-269.361 Y-18.075
X-270.467
G3 X-271.061 Y-18.683 I0.021 J-0.615
G1 X-271.135 Y-25.303
G3 X-270.542 Y-25.925 I0.615 J-0.007
G1 X-269.43
X-269.281 Y-25.917
X-269.132 Y-25.896
X-268.986 Y-25.862
X-268.842 Y-25.819
X-268.702 Y-25.766
X-268.558 Y-25.703
X-268.414 Y-25.629
X-268.258 Y-25.538
X-268.099 Y-25.434
X-267.939 Y-25.315
X-267.771 Y-25.176
X-267.602 Y-25.019
X-267.437 Y-24.847
X-267.27 Y-24.653
X-267.103 Y-24.436
X-266.944 Y-24.203
X-266.793 Y-23.955
X-266.65 Y-23.686
X-266.517 Y-23.398
X-266.396 Y-23.095
X-266.29 Y-22.779
X-266.202 Y-22.458
X-266.131 Y-22.131
X-266.08 Y-21.805
X-266.047 Y-21.48
X-266.032 Y-21.159
X-266.034 Y-20.847
X-266.052 Y-20.577
X-266.086 Y-20.293
X-266.127 Y-20.061
X-266.184 Y-19.818
X-266.249 Y-19.599
X-266.319 Y-19.402
X-266.341 Y-19.348
X-266.502 Y-19.04
X-266.712 Y-18.763
X-266.965 Y-18.525
X-267.255 Y-18.332
X-267.572 Y-18.191
X-267.909 Y-18.104
X-268.255 Y-18.075
X-269.361
G3 X-269.955 Y-18.683 I0.021 J-0.615
G1 X-270.024 Y-25.304
G3 X-269.43 Y-25.925 I0.615 J-0.006
G1 X-268.349
X-268.199 Y-25.917
X-268.051 Y-25.898
X-267.904 Y-25.867
X-267.76 Y-25.826
X-267.619 Y-25.775
X-267.48 Y-25.715
X-267.335 Y-25.643
X-267.18 Y-25.555
X-267.025 Y-25.455
X-266.864 Y-25.339
X-266.696 Y-25.202
X-266.531 Y-25.052
X-266.364 Y-24.883
X-266.194 Y-24.69
X-266.029 Y-24.479
X-265.87 Y-24.254
X-265.717 Y-24.007
X-265.571 Y-23.739
X-265.435 Y-23.454
X-265.311 Y-23.153
X-265.203 Y-22.841
X-265.111 Y-22.522
X-265.037 Y-22.196
X-264.982 Y-21.869
X-264.945 Y-21.543
X-264.926 Y-21.222
Y-20.908
X-264.94 Y-20.633
X-264.972 Y-20.347
X-265.012 Y-20.105
X-265.064 Y-19.869
X-265.129 Y-19.64
X-265.196 Y-19.444
X-265.227 Y-19.369
X-265.386 Y-19.056
X-265.595 Y-18.775
X-265.849 Y-18.533
X-266.14 Y-18.337
X-266.46 Y-18.193
X-266.8 Y-18.105
X-267.149 Y-18.075
X-268.255
G3 X-268.849 Y-18.681 I0.021 J-0.615
G1 X-268.943 Y-25.302
G3 X-268.349 Y-25.925 I0.615 J-0.009
G1 X-267.279
X-267.128 Y-25.917
X-266.979 Y-25.902
X-266.832 Y-25.873
X-266.687 Y-25.834
X-266.545 Y-25.785
X-266.406 Y-25.728
X-266.265 Y-25.66
X-266.111 Y-25.576
X-265.957 Y-25.48
X-265.798 Y-25.368
X-265.63 Y-25.235
X-265.465 Y-25.089
X-265.299 Y-24.925
X-265.129 Y-24.737
X-264.962 Y-24.531
X-264.803 Y-24.311
X-264.648 Y-24.069
X-264.499 Y-23.806
X-264.36 Y-23.524
X-264.233 Y-23.227
X-264.121 Y-22.919
X-264.026 Y-22.601
X-263.947 Y-22.278
X-263.887 Y-21.95
X-263.846 Y-21.624
X-263.823 Y-21.301
X-263.818 Y-20.985
X-263.829 Y-20.703
X-263.856 Y-20.416
X-263.894 Y-20.164
X-263.943 Y-19.931
X-264.007 Y-19.693
X-264.071 Y-19.496
X-264.11 Y-19.396
X-264.267 Y-19.077
X-264.476 Y-18.79
X-264.73 Y-18.543
X-265.024 Y-18.343
X-265.346 Y-18.196
X-265.69 Y-18.105
X-266.043 Y-18.075
X-267.149
G3 X-267.743 Y-18.678 I0.021 J-0.615
G1 X-267.872 Y-25.298
G3 X-267.279 Y-25.925 I0.615 J-0.012
G1 X-266.168
X-266.018 Y-25.917
X-265.869 Y-25.901
X-265.722 Y-25.872
X-265.577 Y-25.833
X-265.435 Y-25.784
X-265.294 Y-25.725
X-265.151 Y-25.656
X-265.001 Y-25.574
X-264.842 Y-25.474
X-264.684 Y-25.362
X-264.52 Y-25.231
X-264.35 Y-25.08
X-264.184 Y-24.916
X-264.017 Y-24.731
X-263.85 Y-24.524
X-263.687 Y-24.296
X-263.533 Y-24.055
X-263.387 Y-23.795
X-263.25 Y-23.515
X-263.124 Y-23.218
X-263.012 Y-22.908
X-262.917 Y-22.59
X-262.839 Y-22.264
X-262.779 Y-21.937
X-262.739 Y-21.613
X-262.716 Y-21.289
X-262.712 Y-20.973
X-262.724 Y-20.694
X-262.753 Y-20.401
X-262.79 Y-20.158
X-262.841 Y-19.915
X-262.903 Y-19.685
X-262.969 Y-19.488
X-263.006 Y-19.391
X-263.164 Y-19.074
X-263.372 Y-18.788
X-263.627 Y-18.541
X-263.92 Y-18.342
X-264.242 Y-18.195
X-264.585 Y-18.105
X-264.938 Y-18.075
X-266.043
G3 X-266.637 Y-18.678 I0.021 J-0.615
G1 X-266.761 Y-25.299
G3 X-266.168 Y-25.925 I0.615 J-0.012
G1 X-265.036
X-264.886 Y-25.917
X-264.737 Y-25.899
X-264.591 Y-25.868
X-264.446 Y-25.826
X-264.305 Y-25.776
X-264.163 Y-25.715
X-264.017 Y-25.643
X-263.867 Y-25.558
X-263.707 Y-25.455
X-263.547 Y-25.339
X-263.383 Y-25.207
X-263.213 Y-25.052
X-263.046 Y-24.883
X-262.881 Y-24.696
X-262.715 Y-24.486
X-262.552 Y-24.254
X-262.398 Y-24.007
X-262.254 Y-23.744
X-262.12 Y-23.463
X-261.997 Y-23.164
X-261.888 Y-22.852
X-261.796 Y-22.533
X-261.721 Y-22.205
X-261.665 Y-21.878
X-261.628 Y-21.552
X-261.609 Y-21.229
X-261.608 Y-20.916
X-261.622 Y-20.641
X-261.654 Y-20.351
X-261.692 Y-20.116
X-261.747 Y-19.868
X-261.809 Y-19.647
X-261.877 Y-19.448
X-261.909 Y-19.371
X-262.067 Y-19.058
X-262.277 Y-18.776
X-262.531 Y-18.534
X-262.822 Y-18.337
X-263.142 Y-18.193
X-263.482 Y-18.105
X-263.832 Y-18.075
X-264.938
G3 X-265.531 Y-18.68 I0.021 J-0.615
G1 X-265.629 Y-25.301
G3 X-265.036 Y-25.925 I0.615 J-0.009
G1 X-263.925
X-263.775 Y-25.917
X-263.626 Y-25.898
X-263.479 Y-25.867
X-263.335 Y-25.825
X-263.194 Y-25.775
X-263.051 Y-25.713
X-262.908 Y-25.642
X-262.755 Y-25.555
X-262.595 Y-25.452
X-262.436 Y-25.337
X-262.271 Y-25.202
X-262.101 Y-25.047
X-261.936 Y-24.879
X-261.769 Y-24.69
X-261.602 Y-24.477
X-261.441 Y-24.247
X-261.289 Y-24.002
X-261.145 Y-23.737
X-261.01 Y-23.454
X-260.887 Y-23.153
X-260.778 Y-22.84
X-260.687 Y-22.52
X-260.612 Y-22.193
X-260.557 Y-21.867
X-260.521 Y-21.541
X-260.503 Y-21.219
X-260.502 Y-20.905
X-260.517 Y-20.631
X-260.549 Y-20.342
X-260.588 Y-20.106
X-260.643 Y-19.862
X-260.706 Y-19.639
X-260.774 Y-19.442
X-260.804 Y-19.368
X-260.963 Y-19.055
X-261.173 Y-18.774
X-261.426 Y-18.532
X-261.717 Y-18.337
X-262.037 Y-18.193
X-262.376 Y-18.105
X-262.726 Y-18.075
X-263.832
G3 X-264.425 Y-18.681 I0.021 J-0.615
G1 X-264.518 Y-25.302
G3 X-263.925 Y-25.925 I0.615 J-0.009
G1 X-262.793
X-262.643 Y-25.917
X-262.495 Y-25.896
X-262.348 Y-25.863
X-262.205 Y-25.819
X-262.064 Y-25.767
X-261.92 Y-25.703
X-261.775 Y-25.629
X-261.622 Y-25.54
X-261.46 Y-25.433
X-261.301 Y-25.315
X-261.136 Y-25.178
X-260.965 Y-25.019
X-260.799 Y-24.847
X-260.633 Y-24.655
X-260.468 Y-24.44
X-260.306 Y-24.204
X-260.155 Y-23.953
X-260.013 Y-23.687
X-259.88 Y-23.401
X-259.76 Y-23.099
X-259.654 Y-22.784
X-259.566 Y-22.463
X-259.495 Y-22.135
X-259.444 Y-21.808
X-259.41 Y-21.482
X-259.395 Y-21.16
X-259.398 Y-20.85
X-259.416 Y-20.579
X-259.45 Y-20.294
X-259.491 Y-20.063
X-259.549 Y-19.817
X-259.612 Y-19.602
X-259.683 Y-19.402
X-259.706 Y-19.348
X-259.866 Y-19.04
X-260.076 Y-18.763
X-260.329 Y-18.525
X-260.619 Y-18.332
X-260.936 Y-18.191
X-261.273 Y-18.104
X-261.619 Y-18.075
X-262.726
G3 X-263.319 Y-18.683 I0.021 J-0.615
G1 X-263.386 Y-25.304
G3 X-262.793 Y-25.925 I0.615 J-0.006
G1 X-261.682
X-261.532 Y-25.917
X-261.383 Y-25.895
X-261.237 Y-25.862
X-261.094 Y-25.818
X-260.953 Y-25.765
X-260.81 Y-25.702
X-260.665 Y-25.627
X-260.509 Y-25.536
X-260.35 Y-25.431
X-260.19 Y-25.312
X-260.023 Y-25.173
X-259.854 Y-25.015
X-259.689 Y-24.843
X-259.522 Y-24.649
X-259.356 Y-24.432
X-259.196 Y-24.198
X-259.046 Y-23.949
X-258.903 Y-23.68
X-258.77 Y-23.392
X-258.65 Y-23.089
X-258.545 Y-22.773
X-258.457 Y-22.451
X-258.387 Y-22.124
X-258.336 Y-21.798
X-258.303 Y-21.472
X-258.289 Y-21.152
X-258.292 Y-20.84
X-258.31 Y-20.57
X-258.345 Y-20.286
X-258.386 Y-20.055
X-258.444 Y-19.812
X-258.508 Y-19.594
X-258.579 Y-19.397
X-258.6 Y-19.345
X-258.761 Y-19.037
X-258.971 Y-18.761
X-259.224 Y-18.523
X-259.514 Y-18.331
X-259.831 Y-18.19
X-260.167 Y-18.104
X-260.513 Y-18.075
X-261.619
G3 X-262.213 Y-18.684 I0.021 J-0.615
G1 X-262.275 Y-25.305
G3 X-261.682 Y-25.925 I0.615 J-0.006
G1 X-260.6
X-260.451 Y-25.917
X-260.302 Y-25.898
X-260.155 Y-25.867
X-260.011 Y-25.825
X-259.87 Y-25.773
X-259.731 Y-25.713
X-259.586 Y-25.641
X-259.431 Y-25.552
X-259.276 Y-25.453
X-259.115 Y-25.335
X-258.947 Y-25.198
X-258.782 Y-25.048
X-258.616 Y-24.878
X-258.446 Y-24.685
X-258.28 Y-24.473
X-258.123 Y-24.247
X-257.969 Y-24
X-257.824 Y-23.732
X-257.688 Y-23.446
X-257.565 Y-23.145
X-257.457 Y-22.833
X-257.366 Y-22.512
X-257.292 Y-22.187
X-257.237 Y-21.859
X-257.201 Y-21.534
X-257.183 Y-21.212
Y-20.899
X-257.198 Y-20.624
X-257.23 Y-20.339
X-257.271 Y-20.098
X-257.324 Y-19.861
X-257.389 Y-19.633
X-257.456 Y-19.438
X-257.486 Y-19.366
X-257.645 Y-19.054
X-257.854 Y-18.773
X-258.108 Y-18.531
X-258.399 Y-18.336
X-258.718 Y-18.192
X-259.058 Y-18.105
X-259.407 Y-18.075
X-260.513
G3 X-261.106 Y-18.681 I0.021 J-0.615
G1 X-261.194 Y-25.302
G3 X-260.6 Y-25.925 I0.615 J-0.008
G1 X-259.53
X-259.381 Y-25.917
X-259.231 Y-25.901
X-259.084 Y-25.873
X-258.939 Y-25.833
X-258.798 Y-25.784
X-258.659 Y-25.727
X-258.517 Y-25.658
X-258.363 Y-25.574
X-258.21 Y-25.477
X-258.05 Y-25.365
X-257.882 Y-25.232
X-257.718 Y-25.086
X-257.551 Y-24.921
X-257.381 Y-24.733
X-257.215 Y-24.526
X-257.056 Y-24.305
X-256.901 Y-24.062
X-256.752 Y-23.799
X-256.614 Y-23.517
X-256.487 Y-23.22
X-256.376 Y-22.911
X-256.281 Y-22.593
X-256.203 Y-22.269
X-256.143 Y-21.941
X-256.102 Y-21.615
X-256.079 Y-21.292
X-256.075 Y-20.977
X-256.087 Y-20.696
X-256.114 Y-20.408
X-256.153 Y-20.157
X-256.202 Y-19.924
X-256.266 Y-19.687
X-256.331 Y-19.49
X-256.369 Y-19.393
X-256.526 Y-19.075
X-256.735 Y-18.789
X-256.989 Y-18.542
X-257.282 Y-18.342
X-257.605 Y-18.195
X-257.947 Y-18.105
X-258.301 Y-18.075
X-259.407
G3 X-260 Y-18.678 I0.021 J-0.615
G1 X-260.124 Y-25.299
G3 X-259.53 Y-25.925 I0.615 J-0.011
G1 X-258.419
X-258.269 Y-25.917
X-258.12 Y-25.901
X-257.973 Y-25.871
X-257.828 Y-25.832
X-257.687 Y-25.782
X-257.546 Y-25.723
X-257.403 Y-25.654
X-257.252 Y-25.57
X-257.093 Y-25.47
X-256.935 Y-25.358
X-256.77 Y-25.226
X-256.6 Y-25.075
X-256.434 Y-24.909
X-256.268 Y-24.724
X-256.101 Y-24.516
X-255.938 Y-24.288
X-255.784 Y-24.046
X-255.639 Y-23.785
X-255.502 Y-23.505
X-255.376 Y-23.207
X-255.265 Y-22.896
X-255.171 Y-22.578
X-255.093 Y-22.252
X-255.035 Y-21.925
X-254.995 Y-21.6
X-254.973 Y-21.277
X-254.97 Y-20.961
X-254.982 Y-20.683
X-255.011 Y-20.39
X-255.049 Y-20.149
X-255.101 Y-19.906
X-255.163 Y-19.677
X-255.229 Y-19.48
X-255.265 Y-19.387
X-255.423 Y-19.071
X-255.632 Y-18.785
X-255.886 Y-18.54
X-256.179 Y-18.341
X-256.501 Y-18.195
X-256.843 Y-18.105
X-257.195 Y-18.075
X-258.301
G3 X-258.894 Y-18.679 I0.021 J-0.615
G1 X-259.012 Y-25.299
G3 X-258.419 Y-25.925 I0.615 J-0.011
G1 X-257.287
X-257.137 Y-25.917
X-256.989 Y-25.898
X-256.842 Y-25.867
X-256.698 Y-25.825
X-256.557 Y-25.774
X-256.414 Y-25.713
X-256.269 Y-25.64
X-256.118 Y-25.555
X-255.957 Y-25.451
X-255.798 Y-25.335
X-255.634 Y-25.202
X-255.464 Y-25.046
X-255.296 Y-24.876
X-255.131 Y-24.688
X-254.966 Y-24.478
X-254.803 Y-24.245
X-254.649 Y-23.997
X-254.506 Y-23.734
X-254.372 Y-23.452
X-254.249 Y-23.153
X-254.141 Y-22.84
X-254.05 Y-22.52
X-253.976 Y-22.192
X-253.92 Y-21.866
X-253.884 Y-21.54
X-253.866 Y-21.216
X-253.865 Y-20.904
X-253.88 Y-20.63
X-253.912 Y-20.34
X-253.951 Y-20.106
X-254.007 Y-19.859
X-254.069 Y-19.639
X-254.138 Y-19.44
X-254.167 Y-19.367
X-254.327 Y-19.055
X-254.536 Y-18.774
X-254.79 Y-18.532
X-255.081 Y-18.336
X-255.4 Y-18.193
X-255.74 Y-18.105
X-256.089 Y-18.075
X-257.195
G3 X-257.788 Y-18.681 I0.021 J-0.615
G1 X-257.881 Y-25.302
G3 X-257.287 Y-25.925 I0.615 J-0.009
G1 X-256.176
X-256.026 Y-25.917
X-255.877 Y-25.898
X-255.731 Y-25.866
X-255.587 Y-25.824
X-255.446 Y-25.773
X-255.303 Y-25.711
X-255.159 Y-25.639
X-255.006 Y-25.551
X-254.846 Y-25.448
X-254.687 Y-25.332
X-254.521 Y-25.196
X-254.351 Y-25.041
X-254.187 Y-24.873
X-254.02 Y-24.682
X-253.853 Y-24.469
X-253.692 Y-24.238
X-253.541 Y-23.992
X-253.396 Y-23.727
X-253.262 Y-23.442
X-253.139 Y-23.142
X-253.031 Y-22.828
X-252.94 Y-22.508
X-252.867 Y-22.18
X-252.813 Y-21.854
X-252.777 Y-21.529
X-252.759 Y-21.207
X-252.76 Y-20.893
X-252.775 Y-20.62
X-252.807 Y-20.332
X-252.847 Y-20.096
X-252.902 Y-19.853
X-252.966 Y-19.63
X-253.034 Y-19.433
X-253.063 Y-19.363
X-253.222 Y-19.052
X-253.432 Y-18.772
X-253.686 Y-18.531
X-253.976 Y-18.336
X-254.295 Y-18.192
X-254.634 Y-18.105
X-254.983 Y-18.075
X-256.089
G3 X-256.682 Y-18.682 I0.021 J-0.615
G1 X-256.769 Y-25.302
G3 X-256.176 Y-25.925 I0.615 J-0.008
G1 X-255.095
X-254.945 Y-25.917
X-254.796 Y-25.9
X-254.649 Y-25.871
X-254.504 Y-25.831
X-254.363 Y-25.781
X-254.223 Y-25.722
X-254.081 Y-25.653
X-253.926 Y-25.567
X-253.771 Y-25.469
X-253.612 Y-25.355
X-253.444 Y-25.221
X-253.279 Y-25.073
X-253.113 Y-24.907
X-252.944 Y-24.718
X-252.777 Y-24.509
X-252.618 Y-24.286
X-252.464 Y-24.042
X-252.317 Y-23.778
X-252.179 Y-23.495
X-252.054 Y-23.196
X-251.943 Y-22.885
X-251.85 Y-22.567
X-251.773 Y-22.242
X-251.715 Y-21.915
X-251.676 Y-21.589
X-251.655 Y-21.267
X-251.652 Y-20.952
X-251.664 Y-20.673
X-251.694 Y-20.385
X-251.733 Y-20.138
X-251.783 Y-19.903
X-251.847 Y-19.67
X-251.913 Y-19.473
X-251.948 Y-19.384
X-252.106 Y-19.068
X-252.315 Y-18.783
X-252.57 Y-18.538
X-252.862 Y-18.34
X-253.183 Y-18.194
X-253.525 Y-18.105
X-253.877 Y-18.075
X-254.983
G3 X-255.576 Y-18.679 I0.021 J-0.615
G1 X-255.688 Y-25.3
G3 X-255.095 Y-25.925 I0.615 J-0.01
G1 X-253.974
X-253.824 Y-25.917
X-253.676 Y-25.899
X-253.529 Y-25.868
X-253.385 Y-25.827
X-253.243 Y-25.776
X-253.101 Y-25.715
X-252.957 Y-25.644
X-252.806 Y-25.558
X-252.646 Y-25.455
X-252.487 Y-25.341
X-252.322 Y-25.207
X-252.152 Y-25.053
X-251.986 Y-24.884
X-251.82 Y-24.696
X-251.654 Y-24.485
X-251.491 Y-24.254
X-251.338 Y-24.008
X-251.194 Y-23.745
X-251.059 Y-23.463
X-250.935 Y-23.164
X-250.826 Y-22.851
X-250.734 Y-22.532
X-250.66 Y-22.205
X-250.604 Y-21.878
X-250.567 Y-21.553
X-250.548 Y-21.23
X-250.547 Y-20.916
X-250.561 Y-20.641
X-250.593 Y-20.351
X-250.631 Y-20.115
X-250.686 Y-19.869
X-250.749 Y-19.647
X-250.816 Y-19.449
X-250.847 Y-19.371
X-251.006 Y-19.058
X-251.216 Y-18.776
X-251.47 Y-18.534
X-251.761 Y-18.337
X-252.081 Y-18.193
X-252.421 Y-18.105
X-252.771 Y-18.075
X-253.877
G3 X-254.47 Y-18.681 I0.021 J-0.615
G1 X-254.568 Y-25.301
G3 X-253.974 Y-25.925 I0.615 J-0.009
G1 X-252.913
X-252.748 Y-25.917
X-252.599 Y-25.901
X-252.452 Y-25.873
X-252.307 Y-25.834
X-252.165 Y-25.785
X-252.026 Y-25.727
X-251.884 Y-25.659
X-251.73 Y-25.575
X-251.576 Y-25.478
X-251.417 Y-25.366
X-251.25 Y-25.234
X-251.085 Y-25.088
X-250.919 Y-24.924
X-250.75 Y-24.738
X-250.582 Y-24.531
X-250.423 Y-24.31
X-250.268 Y-24.069
X-250.12 Y-23.806
X-249.981 Y-23.525
X-249.855 Y-23.228
X-249.743 Y-22.92
X-249.647 Y-22.602
X-249.569 Y-22.278
X-249.508 Y-21.95
X-249.467 Y-21.624
X-249.444 Y-21.301
X-249.439 Y-20.986
X-249.45 Y-20.704
X-249.478 Y-20.415
X-249.516 Y-20.164
X-249.565 Y-19.93
X-249.628 Y-19.693
X-249.693 Y-19.496
X-249.732 Y-19.396
X-249.889 Y-19.077
X-250.097 Y-18.79
X-250.352 Y-18.543
X-250.645 Y-18.343
X-250.968 Y-18.196
X-251.311 Y-18.105
X-251.665 Y-18.075
X-252.771
G3 X-253.364 Y-18.676 I0.021 J-0.615
G1 X-253.507 Y-25.297
G3 X-252.913 Y-25.925 I0.615 J-0.013
G1 X-251.782
X-251.632 Y-25.917
X-251.483 Y-25.9
X-251.336 Y-25.871
X-251.191 Y-25.831
X-251.049 Y-25.782
X-250.909 Y-25.723
X-250.765 Y-25.653
X-250.615 Y-25.57
X-250.455 Y-25.469
X-250.297 Y-25.356
X-250.133 Y-25.225
X-249.963 Y-25.073
X-249.796 Y-24.907
X-249.631 Y-24.722
X-249.464 Y-24.514
X-249.301 Y-24.286
X-249.147 Y-24.043
X-249.001 Y-23.782
X-248.865 Y-23.502
X-248.739 Y-23.205
X-248.628 Y-22.894
X-248.534 Y-22.576
X-248.457 Y-22.25
X-248.398 Y-21.923
X-248.359 Y-21.598
X-248.337 Y-21.274
X-248.334 Y-20.959
X-248.346 Y-20.681
X-248.376 Y-20.388
X-248.413 Y-20.148
X-248.466 Y-19.903
X-248.528 Y-19.676
X-248.594 Y-19.478
X-248.63 Y-19.386
X-248.787 Y-19.07
X-248.996 Y-18.785
X-249.251 Y-18.539
X-249.543 Y-18.341
X-249.865 Y-18.195
X-250.207 Y-18.105
X-250.559 Y-18.075
X-251.665
G3 X-252.258 Y-18.679 I0.021 J-0.615
G1 X-252.375 Y-25.3
G3 X-251.782 Y-25.925 I0.615 J-0.011
G1 X-250.67
X-250.52 Y-25.917
X-250.372 Y-25.9
X-250.224 Y-25.87
X-250.08 Y-25.83
X-249.938 Y-25.78
X-249.796 Y-25.72
X-249.653 Y-25.65
X-249.502 Y-25.566
X-249.342 Y-25.465
X-249.184 Y-25.352
X-249.02 Y-25.22
X-248.85 Y-25.067
X-248.684 Y-24.901
X-248.518 Y-24.715
X-248.351 Y-24.506
X-248.189 Y-24.277
X-248.036 Y-24.034
X-247.89 Y-23.772
X-247.754 Y-23.491
X-247.629 Y-23.193
X-247.518 Y-22.881
X-247.425 Y-22.563
X-247.348 Y-22.236
X-247.291 Y-21.91
X-247.252 Y-21.584
X-247.231 Y-21.261
X-247.228 Y-20.946
X-247.241 Y-20.669
X-247.271 Y-20.377
X-247.309 Y-20.137
X-247.362 Y-19.894
X-247.425 Y-19.667
X-247.491 Y-19.469
X-247.526 Y-19.382
X-247.684 Y-19.066
X-247.893 Y-18.782
X-248.147 Y-18.538
X-248.439 Y-18.34
X-248.76 Y-18.194
X-249.102 Y-18.105
X-249.453 Y-18.075
X-250.559
G3 X-251.153 Y-18.679 I0.021 J-0.615
G1 X-251.264 Y-25.3
G3 X-250.67 Y-25.925 I0.615 J-0.01
G1 X-249.539
X-249.389 Y-25.917
X-249.24 Y-25.898
X-249.094 Y-25.866
X-248.95 Y-25.824
X-248.809 Y-25.772
X-248.666 Y-25.71
X-248.52 Y-25.637
X-248.369 Y-25.551
X-248.208 Y-25.446
X-248.048 Y-25.33
X-247.884 Y-25.195
X-247.714 Y-25.039
X-247.547 Y-24.869
X-247.382 Y-24.68
X-247.216 Y-24.468
X-247.054 Y-24.234
X-246.901 Y-23.986
X-246.758 Y-23.722
X-246.624 Y-23.439
X-246.502 Y-23.139
X-246.394 Y-22.825
X-246.304 Y-22.505
X-246.231 Y-22.177
X-246.177 Y-21.851
X-246.141 Y-21.525
X-246.124 Y-21.202
Y-20.89
X-246.14 Y-20.616
X-246.172 Y-20.328
X-246.212 Y-20.095
X-246.268 Y-19.848
X-246.331 Y-19.629
X-246.4 Y-19.43
X-246.428 Y-19.362
X-246.587 Y-19.051
X-246.797 Y-18.771
X-247.051 Y-18.53
X-247.341 Y-18.335
X-247.66 Y-18.192
X-247.999 Y-18.104
X-248.347 Y-18.075
X-249.453
G3 X-250.047 Y-18.682 I0.021 J-0.615
G1 X-250.132 Y-25.302
G3 X-249.539 Y-25.925 I0.615 J-0.008
G1 X-248.427
X-248.277 Y-25.917
X-248.129 Y-25.897
X-247.982 Y-25.865
X-247.838 Y-25.823
X-247.698 Y-25.771
X-247.554 Y-25.708
X-247.411 Y-25.636
X-247.256 Y-25.547
X-247.097 Y-25.443
X-246.938 Y-25.327
X-246.771 Y-25.19
X-246.602 Y-25.034
X-246.437 Y-24.865
X-246.27 Y-24.673
X-246.104 Y-24.459
X-245.943 Y-24.227
X-245.792 Y-23.981
X-245.648 Y-23.714
X-245.514 Y-23.429
X-245.392 Y-23.127
X-245.285 Y-22.813
X-245.195 Y-22.492
X-245.122 Y-22.165
X-245.069 Y-21.839
X-245.034 Y-21.513
X-245.017 Y-21.192
X-245.018 Y-20.878
X-245.034 Y-20.607
X-245.067 Y-20.32
X-245.108 Y-20.085
X-245.163 Y-19.842
X-245.227 Y-19.621
X-245.296 Y-19.423
X-245.323 Y-19.358
X-245.483 Y-19.048
X-245.692 Y-18.769
X-245.946 Y-18.529
X-246.236 Y-18.334
X-246.555 Y-18.192
X-246.893 Y-18.104
X-247.241 Y-18.075
X-248.347
G3 X-248.941 Y-18.682 I0.021 J-0.615
G1 X-249.021 Y-25.303
G3 X-248.427 Y-25.925 I0.615 J-0.007
G1 X-247.346
X-247.196 Y-25.917
X-247.047 Y-25.9
X-246.9 Y-25.87
X-246.756 Y-25.829
X-246.615 Y-25.779
X-246.475 Y-25.72
X-246.332 Y-25.649
X-246.177 Y-25.563
X-246.022 Y-25.464
X-245.863 Y-25.35
X-245.695 Y-25.215
X-245.53 Y-25.066
X-245.364 Y-24.899
X-245.194 Y-24.709
X-245.028 Y-24.499
X-244.869 Y-24.275
X-244.715 Y-24.03
X-244.568 Y-23.765
X-244.431 Y-23.481
X-244.307 Y-23.182
X-244.197 Y-22.871
X-244.104 Y-22.552
X-244.028 Y-22.227
X-243.971 Y-21.9
X-243.932 Y-21.574
X-243.912 Y-21.252
X-243.91 Y-20.937
X-243.923 Y-20.66
X-243.953 Y-20.372
X-243.993 Y-20.127
X-244.044 Y-19.891
X-244.108 Y-19.66
X-244.175 Y-19.463
X-244.208 Y-19.379
X-244.367 Y-19.064
X-244.576 Y-18.781
X-244.83 Y-18.537
X-245.122 Y-18.339
X-245.443 Y-18.194
X-245.784 Y-18.105
X-246.135 Y-18.075
X-247.241
G3 X-247.834 Y-18.68 I0.021 J-0.615
G1 X-247.939 Y-25.301
G3 X-247.346 Y-25.925 I0.615 J-0.01
G1 X-246.276
X-246.112 Y-25.917
X-245.963 Y-25.901
X-245.816 Y-25.873
X-245.671 Y-25.834
X-245.529 Y-25.785
X-245.389 Y-25.727
X-245.248 Y-25.659
X-245.096 Y-25.576
X-244.94 Y-25.478
X-244.782 Y-25.367
X-244.615 Y-25.235
X-244.448 Y-25.088
X-244.283 Y-24.924
X-244.114 Y-24.738
X-243.946 Y-24.531
X-243.786 Y-24.309
X-243.632 Y-24.068
X-243.484 Y-23.806
X-243.346 Y-23.526
X-243.219 Y-23.228
X-243.106 Y-22.919
X-243.011 Y-22.601
X-242.932 Y-22.277
X-242.872 Y-21.95
X-242.831 Y-21.625
X-242.808 Y-21.302
X-242.803 Y-20.987
X-242.814 Y-20.705
X-242.842 Y-20.414
X-242.88 Y-20.165
X-242.929 Y-19.929
X-242.992 Y-19.693
X-243.057 Y-19.496
X-243.096 Y-19.396
X-243.253 Y-19.077
X-243.461 Y-18.79
X-243.716 Y-18.543
X-244.009 Y-18.343
X-244.332 Y-18.196
X-244.675 Y-18.105
X-245.029 Y-18.075
X-246.135
G3 X-246.728 Y-18.677 I0.021 J-0.615
G1 X-246.869 Y-25.297
G3 X-246.276 Y-25.925 I0.615 J-0.013
G1 X-245.165
X-245.009 Y-25.917
X-244.86 Y-25.901
X-244.712 Y-25.873
X-244.567 Y-25.834
X-244.425 Y-25.785
X-244.285 Y-25.727
X-244.143 Y-25.659
X-243.993 Y-25.577
X-243.834 Y-25.478
X-243.676 Y-25.367
X-243.512 Y-25.237
X-243.342 Y-25.087
X-243.177 Y-24.924
X-243.01 Y-24.74
X-242.842 Y-24.533
X-242.679 Y-24.307
X-242.526 Y-24.067
X-242.379 Y-23.807
X-242.241 Y-23.528
X-242.114 Y-23.232
X-242.002 Y-22.922
X-241.906 Y-22.604
X-241.827 Y-22.279
X-241.767 Y-21.953
X-241.725 Y-21.628
X-241.702 Y-21.304
X-241.697 Y-20.988
X-241.708 Y-20.707
X-241.736 Y-20.414
X-241.773 Y-20.169
X-241.824 Y-19.927
X-241.886 Y-19.695
X-241.95 Y-19.497
X-241.99 Y-19.396
X-242.147 Y-19.078
X-242.355 Y-18.791
X-242.61 Y-18.543
X-242.903 Y-18.343
X-243.226 Y-18.196
X-243.569 Y-18.105
X-243.923 Y-18.075
X-245.029
G3 X-245.622 Y-18.677 I0.021 J-0.615
G1 X-245.758 Y-25.298
G3 X-245.165 Y-25.925 I0.615 J-0.013
G1 X-244.033
X-243.883 Y-25.917
X-243.734 Y-25.9
X-243.587 Y-25.87
X-243.443 Y-25.829
X-243.301 Y-25.78
X-243.16 Y-25.72
X-243.015 Y-25.649
X-242.865 Y-25.565
X-242.705 Y-25.464
X-242.546 Y-25.35
X-242.383 Y-25.218
X-242.212 Y-25.066
X-242.045 Y-24.898
X-241.88 Y-24.712
X-241.714 Y-24.504
X-241.551 Y-24.274
X-241.396 Y-24.029
X-241.252 Y-23.768
X-241.116 Y-23.488
X-240.992 Y-23.19
X-240.882 Y-22.879
X-240.788 Y-22.56
X-240.712 Y-22.233
X-240.654 Y-21.907
X-240.615 Y-21.581
X-240.595 Y-21.257
X-240.592 Y-20.943
X-240.606 Y-20.666
X-240.636 Y-20.374
X-240.674 Y-20.136
X-240.727 Y-19.89
X-240.789 Y-19.665
X-240.856 Y-19.467
X-240.89 Y-19.381
X-241.048 Y-19.065
X-241.258 Y-18.782
X-241.512 Y-18.537
X-241.804 Y-18.339
X-242.125 Y-18.194
X-242.466 Y-18.105
X-242.817 Y-18.075
X-243.923
G3 X-244.517 Y-18.679 I0.021 J-0.615
G1 X-244.626 Y-25.3
G3 X-244.033 Y-25.925 I0.615 J-0.01
G1 X-242.922
X-242.772 Y-25.917
X-242.623 Y-25.899
X-242.476 Y-25.869
X-242.332 Y-25.828
X-242.19 Y-25.778
X-242.048 Y-25.718
X-241.905 Y-25.647
X-241.753 Y-25.562
X-241.593 Y-25.46
X-241.435 Y-25.346
X-241.27 Y-25.213
X-241.1 Y-25.06
X-240.935 Y-24.893
X-240.768 Y-24.706
X-240.601 Y-24.495
X-240.439 Y-24.266
X-240.287 Y-24.023
X-240.142 Y-23.76
X-240.006 Y-23.478
X-239.882 Y-23.179
X-239.772 Y-22.866
X-239.679 Y-22.547
X-239.603 Y-22.22
X-239.547 Y-21.894
X-239.508 Y-21.568
X-239.489 Y-21.246
X-239.487 Y-20.931
X-239.501 Y-20.655
X-239.531 Y-20.365
X-239.57 Y-20.126
X-239.623 Y-19.882
X-239.686 Y-19.656
X-239.753 Y-19.459
X-239.786 Y-19.377
X-239.944 Y-19.062
X-240.154 Y-18.779
X-240.408 Y-18.536
X-240.699 Y-18.339
X-241.02 Y-18.194
X-241.361 Y-18.105
X-241.711 Y-18.075
X-242.817
G3 X-243.411 Y-18.68 I0.021 J-0.615
G1 X-243.515 Y-25.301
G3 X-242.922 Y-25.925 I0.615 J-0.01
G1 X-241.79
X-241.64 Y-25.917
X-241.491 Y-25.897
X-241.345 Y-25.865
X-241.201 Y-25.822
X-241.06 Y-25.77
X-240.917 Y-25.708
X-240.771 Y-25.634
X-240.62 Y-25.547
X-240.459 Y-25.442
X-240.299 Y-25.324
X-240.135 Y-25.189
X-239.964 Y-25.032
X-239.797 Y-24.861
X-239.632 Y-24.671
X-239.467 Y-24.458
X-239.305 Y-24.223
X-239.152 Y-23.974
X-239.009 Y-23.709
X-238.876 Y-23.425
X-238.755 Y-23.124
X-238.648 Y-22.81
X-238.558 Y-22.49
X-238.486 Y-22.162
X-238.433 Y-21.835
X-238.398 Y-21.509
X-238.381 Y-21.186
X-238.383 Y-20.875
X-238.399 Y-20.602
X-238.432 Y-20.316
X-238.472 Y-20.083
X-238.529 Y-19.837
X-238.592 Y-19.619
X-238.662 Y-19.42
X-238.688 Y-19.357
X-238.848 Y-19.047
X-239.058 Y-18.768
X-239.311 Y-18.528
X-239.601 Y-18.334
X-239.92 Y-18.192
X-240.257 Y-18.104
X-240.605 Y-18.075
X-241.711
G3 X-242.305 Y-18.682 I0.021 J-0.615
G1 X-242.383 Y-25.303
G3 X-241.79 Y-25.925 I0.615 J-0.007
G1 X-240.679
X-240.529 Y-25.917
X-240.38 Y-25.897
X-240.234 Y-25.864
X-240.09 Y-25.821
X-239.949 Y-25.769
X-239.806 Y-25.706
X-239.662 Y-25.633
X-239.507 Y-25.543
X-239.348 Y-25.439
X-239.189 Y-25.322
X-239.022 Y-25.184
X-238.852 Y-25.027
X-238.688 Y-24.857
X-238.521 Y-24.664
X-238.354 Y-24.449
X-238.194 Y-24.217
X-238.043 Y-23.969
X-237.9 Y-23.702
X-237.766 Y-23.416
X-237.645 Y-23.113
X-237.538 Y-22.798
X-237.449 Y-22.477
X-237.377 Y-22.15
X-237.325 Y-21.824
X-237.291 Y-21.498
X-237.275 Y-21.177
X-237.277 Y-20.864
X-237.294 Y-20.593
X-237.327 Y-20.307
X-237.368 Y-20.074
X-237.424 Y-19.83
X-237.488 Y-19.611
X-237.558 Y-19.413
X-237.583 Y-19.353
X-237.743 Y-19.044
X-237.953 Y-18.766
X-238.206 Y-18.527
X-238.496 Y-18.333
X-238.814 Y-18.191
X-239.152 Y-18.104
X-239.499 Y-18.075
X-240.605
G3 X-241.199 Y-18.683 I0.021 J-0.615
G1 X-241.272 Y-25.304
G3 X-240.679 Y-25.925 I0.615 J-0.007
G1 X-239.597
X-239.447 Y-25.917
X-239.299 Y-25.899
X-239.152 Y-25.868
X-239.007 Y-25.827
X-238.866 Y-25.777
X-238.727 Y-25.717
X-238.583 Y-25.646
X-238.428 Y-25.559
X-238.274 Y-25.46
X-238.113 Y-25.344
X-237.945 Y-25.208
X-237.78 Y-25.059
X-237.614 Y-24.891
X-237.445 Y-24.7
X-237.278 Y-24.489
X-237.12 Y-24.265
X-236.966 Y-24.019
X-236.82 Y-23.753
X-236.683 Y-23.468
X-236.559 Y-23.168
X-236.45 Y-22.857
X-236.358 Y-22.537
X-236.283 Y-22.212
X-236.227 Y-21.884
X-236.189 Y-21.559
X-236.17 Y-21.237
X-236.168 Y-20.923
X-236.182 Y-20.647
X-236.213 Y-20.36
X-236.253 Y-20.116
X-236.305 Y-19.88
X-236.369 Y-19.65
X-236.436 Y-19.454
X-236.468 Y-19.374
X-236.627 Y-19.06
X-236.836 Y-18.778
X-237.09 Y-18.535
X-237.382 Y-18.338
X-237.702 Y-18.193
X-238.042 Y-18.105
X-238.393 Y-18.075
X-239.499
G3 X-240.092 Y-18.68 I0.021 J-0.615
G1 X-240.191 Y-25.301
G3 X-239.597 Y-25.925 I0.615 J-0.009
G1 X-238.527
X-238.37 Y-25.917
X-238.221 Y-25.901
X-238.074 Y-25.873
X-237.929 Y-25.834
X-237.787 Y-25.785
X-237.648 Y-25.728
X-237.507 Y-25.66
X-237.354 Y-25.576
X-237.199 Y-25.479
X-237.04 Y-25.367
X-236.873 Y-25.235
X-236.707 Y-25.089
X-236.541 Y-24.925
X-236.372 Y-24.738
X-236.204 Y-24.531
X-236.045 Y-24.31
X-235.89 Y-24.069
X-235.742 Y-23.806
X-235.603 Y-23.525
X-235.476 Y-23.228
X-235.364 Y-22.919
X-235.269 Y-22.602
X-235.19 Y-22.278
X-235.13 Y-21.95
X-235.089 Y-21.624
X-235.066 Y-21.302
X-235.061 Y-20.986
X-235.072 Y-20.704
X-235.1 Y-20.415
X-235.137 Y-20.165
X-235.187 Y-19.93
X-235.25 Y-19.693
X-235.315 Y-19.496
X-235.354 Y-19.396
X-235.51 Y-19.077
X-235.719 Y-18.79
X-235.974 Y-18.543
X-236.267 Y-18.343
X-236.59 Y-18.196
X-236.933 Y-18.105
X-237.287 Y-18.075
X-238.393
G3 X-238.986 Y-18.677 I0.021 J-0.615
G1 X-239.121 Y-25.298
G3 X-238.527 Y-25.925 I0.615 J-0.012
G1 X-237.416
X-237.266 Y-25.917
X-237.117 Y-25.902
X-236.97 Y-25.873
X-236.825 Y-25.834
X-236.683 Y-25.786
X-236.542 Y-25.727
X-236.4 Y-25.659
X-236.25 Y-25.577
X-236.091 Y-25.478
X-235.934 Y-25.367
X-235.769 Y-25.237
X-235.599 Y-25.087
X-235.434 Y-24.923
X-235.267 Y-24.739
X-235.099 Y-24.532
X-234.936 Y-24.306
X-234.783 Y-24.066
X-234.636 Y-23.806
X-234.498 Y-23.527
X-234.371 Y-23.231
X-234.259 Y-22.921
X-234.163 Y-22.603
X-234.084 Y-22.277
X-234.024 Y-21.951
X-233.983 Y-21.626
X-233.96 Y-21.303
X-233.955 Y-20.987
X-233.966 Y-20.706
X-233.994 Y-20.412
X-234.031 Y-20.168
X-234.082 Y-19.926
X-234.144 Y-19.694
X-234.209 Y-19.496
X-234.248 Y-19.396
X-234.405 Y-19.077
X-234.614 Y-18.79
X-234.868 Y-18.543
X-235.161 Y-18.343
X-235.484 Y-18.196
X-235.827 Y-18.105
X-236.181 Y-18.075
X-237.287
G3 X-237.88 Y-18.678 I0.021 J-0.615
G1 X-238.009 Y-25.298
G3 X-237.416 Y-25.925 I0.615 J-0.012
G1 X-236.284
X-236.134 Y-25.917
X-235.985 Y-25.899
X-235.839 Y-25.869
X-235.694 Y-25.828
X-235.553 Y-25.778
X-235.412 Y-25.717
X-235.266 Y-25.645
X-235.116 Y-25.561
X-234.956 Y-25.459
X-234.796 Y-25.344
X-234.633 Y-25.212
X-234.463 Y-25.059
X-234.295 Y-24.889
X-234.13 Y-24.703
X-233.965 Y-24.494
X-233.802 Y-24.263
X-233.647 Y-24.016
X-233.503 Y-23.755
X-233.368 Y-23.474
X-233.244 Y-23.177
X-233.135 Y-22.865
X-233.042 Y-22.546
X-232.967 Y-22.218
X-232.91 Y-21.892
X-232.872 Y-21.566
X-232.852 Y-21.242
X-232.851 Y-20.928
X-232.865 Y-20.652
X-232.895 Y-20.361
X-232.934 Y-20.125
X-232.988 Y-19.878
X-233.05 Y-19.656
X-233.118 Y-19.457
X-233.15 Y-19.376
X-233.309 Y-19.061
X-233.518 Y-18.779
X-233.772 Y-18.535
X-234.063 Y-18.338
X-234.384 Y-18.193
X-234.725 Y-18.105
X-235.075 Y-18.075
X-236.181
G3 X-236.774 Y-18.68 I0.021 J-0.615
G1 X-236.878 Y-25.301
G3 X-236.284 Y-25.925 I0.615 J-0.01
G1 X-235.173
X-235.023 Y-25.917
X-234.874 Y-25.899
X-234.727 Y-25.868
X-234.583 Y-25.827
X-234.442 Y-25.776
X-234.299 Y-25.715
X-234.156 Y-25.644
X-234.003 Y-25.558
X-233.843 Y-25.455
X-233.685 Y-25.341
X-233.52 Y-25.207
X-233.35 Y-25.053
X-233.185 Y-24.886
X-233.018 Y-24.697
X-232.852 Y-24.486
X-232.69 Y-24.256
X-232.538 Y-24.011
X-232.393 Y-23.747
X-232.258 Y-23.464
X-232.134 Y-23.165
X-232.025 Y-22.852
X-231.933 Y-22.532
X-231.858 Y-22.205
X-231.802 Y-21.879
X-231.765 Y-21.553
X-231.746 Y-21.231
X-231.745 Y-20.917
X-231.759 Y-20.642
X-231.791 Y-20.352
X-231.83 Y-20.115
X-231.884 Y-19.871
X-231.947 Y-19.647
X-232.014 Y-19.449
X-232.046 Y-19.372
X-232.205 Y-19.058
X-232.414 Y-18.776
X-232.668 Y-18.534
X-232.959 Y-18.337
X-233.279 Y-18.193
X-233.619 Y-18.105
X-233.969 Y-18.075
X-235.075
G3 X-235.669 Y-18.681 I0.021 J-0.615
G1 X-235.766 Y-25.301
G3 X-235.173 Y-25.925 I0.615 J-0.009
G1 X-234.041
X-233.891 Y-25.917
X-233.743 Y-25.896
X-233.596 Y-25.863
X-233.453 Y-25.82
X-233.312 Y-25.768
X-233.168 Y-25.705
X-233.023 Y-25.631
X-232.871 Y-25.543
X-232.709 Y-25.437
X-232.55 Y-25.319
X-232.385 Y-25.183
X-232.214 Y-25.025
X-232.048 Y-24.853
X-231.883 Y-24.662
X-231.717 Y-24.448
X-231.555 Y-24.212
X-231.403 Y-23.962
X-231.261 Y-23.696
X-231.128 Y-23.412
X-231.007 Y-23.11
X-230.901 Y-22.795
X-230.812 Y-22.475
X-230.741 Y-22.147
X-230.688 Y-21.82
X-230.654 Y-21.494
X-230.639 Y-21.172
X-230.641 Y-20.861
X-230.658 Y-20.589
X-230.692 Y-20.304
X-230.732 Y-20.072
X-230.79 Y-19.826
X-230.853 Y-19.609
X-230.923 Y-19.41
X-230.947 Y-19.352
X-231.108 Y-19.043
X-231.318 Y-18.765
X-231.571 Y-18.526
X-231.861 Y-18.333
X-232.179 Y-18.191
X-232.516 Y-18.104
X-232.863 Y-18.075
X-233.969
G3 X-234.563 Y-18.683 I0.021 J-0.615
G1 X-234.635 Y-25.304
G3 X-234.041 Y-25.925 I0.615 J-0.007
G1 X-232.93
X-232.78 Y-25.917
X-232.632 Y-25.896
X-232.485 Y-25.863
X-232.342 Y-25.819
X-232.201 Y-25.767
X-232.057 Y-25.703
X-231.913 Y-25.63
X-231.758 Y-25.539
X-231.599 Y-25.435
X-231.439 Y-25.316
X-231.272 Y-25.177
X-231.103 Y-25.02
X-230.938 Y-24.849
X-230.771 Y-24.656
X-230.604 Y-24.439
X-230.445 Y-24.206
X-230.294 Y-23.958
X-230.151 Y-23.69
X-230.018 Y-23.403
X-229.897 Y-23.1
X-229.791 Y-22.784
X-229.703 Y-22.463
X-229.632 Y-22.135
X-229.581 Y-21.809
X-229.547 Y-21.484
X-229.532 Y-21.163
X-229.535 Y-20.85
X-229.552 Y-20.58
X-229.587 Y-20.296
X-229.628 Y-20.063
X-229.685 Y-19.82
X-229.749 Y-19.601
X-229.819 Y-19.404
X-229.842 Y-19.349
X-230.003 Y-19.04
X-230.213 Y-18.763
X-230.466 Y-18.525
X-230.756 Y-18.332
X-231.073 Y-18.191
X-231.41 Y-18.104
X-231.756 Y-18.075
X-232.863
G3 X-233.456 Y-18.683 I0.021 J-0.615
G1 X-233.523 Y-25.304
G3 X-232.93 Y-25.925 I0.615 J-0.006
G1 X-231.849
X-231.699 Y-25.917
X-231.55 Y-25.898
X-231.403 Y-25.867
X-231.259 Y-25.826
X-231.118 Y-25.775
X-230.979 Y-25.715
X-230.834 Y-25.643
X-230.679 Y-25.555
X-230.525 Y-25.456
X-230.364 Y-25.339
X-230.196 Y-25.203
X-230.031 Y-25.053
X-229.864 Y-24.884
X-229.695 Y-24.691
X-229.529 Y-24.48
X-229.371 Y-24.255
X-229.218 Y-24.008
X-229.072 Y-23.741
X-228.935 Y-23.456
X-228.812 Y-23.155
X-228.704 Y-22.843
X-228.612 Y-22.523
X-228.538 Y-22.198
X-228.482 Y-21.87
X-228.445 Y-21.545
X-228.427 Y-21.223
X-228.426 Y-20.909
X-228.441 Y-20.634
X-228.472 Y-20.348
X-228.512 Y-20.106
X-228.565 Y-19.869
X-228.63 Y-19.64
X-228.697 Y-19.445
X-228.728 Y-19.369
X-228.887 Y-19.056
X-229.096 Y-18.775
X-229.35 Y-18.533
X-229.641 Y-18.337
X-229.961 Y-18.193
X-230.301 Y-18.105
X-230.65 Y-18.075
X-231.756
G3 X-232.35 Y-18.681 I0.021 J-0.615
G1 X-232.442 Y-25.302
G3 X-231.849 Y-25.925 I0.615 J-0.009
G1 X-230.779
X-230.628 Y-25.917
X-230.478 Y-25.902
X-230.331 Y-25.873
X-230.186 Y-25.834
X-230.044 Y-25.785
X-229.906 Y-25.728
X-229.764 Y-25.66
X-229.611 Y-25.576
X-229.457 Y-25.48
X-229.298 Y-25.368
X-229.13 Y-25.235
X-228.965 Y-25.09
X-228.799 Y-24.925
X-228.629 Y-24.738
X-228.462 Y-24.531
X-228.303 Y-24.311
X-228.148 Y-24.069
X-228 Y-23.806
X-227.86 Y-23.524
X-227.734 Y-23.228
X-227.622 Y-22.919
X-227.526 Y-22.602
X-227.448 Y-22.278
X-227.388 Y-21.95
X-227.346 Y-21.624
X-227.323 Y-21.301
X-227.318 Y-20.986
X-227.329 Y-20.703
X-227.357 Y-20.416
X-227.395 Y-20.164
X-227.444 Y-19.93
X-227.507 Y-19.693
X-227.572 Y-19.496
X-227.611 Y-19.396
X-227.768 Y-19.077
X-227.977 Y-18.79
X-228.231 Y-18.543
X-228.524 Y-18.343
X-228.847 Y-18.196
X-229.191 Y-18.105
X-229.544 Y-18.075
X-230.65
G3 X-231.244 Y-18.678 I0.021 J-0.615
G1 X-231.372 Y-25.298
G3 X-230.779 Y-25.925 I0.615 J-0.012
G1 X-229.667
X-229.517 Y-25.917
X-229.368 Y-25.901
X-229.221 Y-25.872
X-229.076 Y-25.833
X-228.935 Y-25.784
X-228.794 Y-25.725
X-228.651 Y-25.656
X-228.501 Y-25.573
X-228.342 Y-25.473
X-228.184 Y-25.362
X-228.019 Y-25.231
X-227.849 Y-25.08
X-227.684 Y-24.915
X-227.517 Y-24.731
X-227.35 Y-24.523
X-227.187 Y-24.296
X-227.033 Y-24.054
X-226.887 Y-23.794
X-226.75 Y-23.514
X-226.624 Y-23.218
X-226.512 Y-22.907
X-226.417 Y-22.589
X-226.339 Y-22.263
X-226.28 Y-21.937
X-226.239 Y-21.612
X-226.217 Y-21.288
X-226.213 Y-20.972
X-226.225 Y-20.693
X-226.253 Y-20.4
X-226.291 Y-20.158
X-226.342 Y-19.914
X-226.404 Y-19.685
X-226.47 Y-19.487
X-226.507 Y-19.391
X-226.665 Y-19.073
X-226.873 Y-18.787
X-227.128 Y-18.541
X-227.421 Y-18.342
X-227.743 Y-18.195
X-228.086 Y-18.105
X-228.438 Y-18.075
X-229.544
G3 X-230.138 Y-18.678 I0.021 J-0.615
G1 X-230.261 Y-25.299
G3 X-229.667 Y-25.925 I0.615 J-0.011
G1 X-228.535
X-228.386 Y-25.917
X-228.237 Y-25.899
X-228.09 Y-25.868
X-227.946 Y-25.826
X-227.805 Y-25.776
X-227.663 Y-25.715
X-227.517 Y-25.643
X-227.367 Y-25.557
X-227.206 Y-25.454
X-227.046 Y-25.339
X-226.883 Y-25.206
X-226.713 Y-25.052
X-226.545 Y-24.882
X-226.38 Y-24.695
X-226.215 Y-24.485
X-226.052 Y-24.253
X-225.898 Y-24.005
X-225.754 Y-23.743
X-225.619 Y-23.461
X-225.497 Y-23.163
X-225.388 Y-22.851
X-225.296 Y-22.531
X-225.221 Y-22.204
X-225.165 Y-21.877
X-225.128 Y-21.551
X-225.109 Y-21.228
Y-20.915
X-225.123 Y-20.639
X-225.154 Y-20.35
X-225.193 Y-20.114
X-225.248 Y-19.867
X-225.31 Y-19.646
X-225.379 Y-19.447
X-225.409 Y-19.371
X-225.568 Y-19.058
X-225.778 Y-18.776
X-226.032 Y-18.533
X-226.323 Y-18.337
X-226.643 Y-18.193
X-226.983 Y-18.105
X-227.333 Y-18.075
X-228.438
G3 X-229.032 Y-18.681 I0.021 J-0.615
G1 X-229.129 Y-25.301
G3 X-228.535 Y-25.925 I0.615 J-0.009
G1 X-227.424
X-227.274 Y-25.917
X-227.126 Y-25.898
X-226.979 Y-25.867
X-226.835 Y-25.825
X-226.694 Y-25.774
X-226.551 Y-25.713
X-226.407 Y-25.641
X-226.254 Y-25.554
X-226.094 Y-25.451
X-225.936 Y-25.336
X-225.77 Y-25.201
X-225.6 Y-25.046
X-225.435 Y-24.878
X-225.269 Y-24.689
X-225.102 Y-24.476
X-224.941 Y-24.246
X-224.789 Y-24.001
X-224.644 Y-23.736
X-224.509 Y-23.452
X-224.386 Y-23.152
X-224.278 Y-22.838
X-224.187 Y-22.518
X-224.113 Y-22.191
X-224.058 Y-21.865
X-224.021 Y-21.539
X-224.003 Y-21.217
Y-20.903
X-224.018 Y-20.63
X-224.05 Y-20.341
X-224.089 Y-20.104
X-224.144 Y-19.861
X-224.207 Y-19.637
X-224.275 Y-19.44
X-224.305 Y-19.367
X-224.464 Y-19.055
X-224.674 Y-18.774
X-224.927 Y-18.532
X-225.218 Y-18.336
X-225.538 Y-18.193
X-225.877 Y-18.105
X-226.226 Y-18.075
X-227.333
G3 X-227.926 Y-18.681 I0.021 J-0.615
G1 X-228.018 Y-25.302
G3 X-227.424 Y-25.925 I0.615 J-0.009
G1 X-226.292
X-226.143 Y-25.917
X-225.994 Y-25.896
X-225.848 Y-25.862
X-225.704 Y-25.819
X-225.564 Y-25.766
X-225.42 Y-25.703
X-225.274 Y-25.628
X-225.121 Y-25.539
X-224.96 Y-25.433
X-224.8 Y-25.314
X-224.635 Y-25.177
X-224.464 Y-25.018
X-224.298 Y-24.846
X-224.133 Y-24.653
X-223.968 Y-24.438
X-223.806 Y-24.202
X-223.654 Y-23.951
X-223.512 Y-23.685
X-223.38 Y-23.399
X-223.26 Y-23.097
X-223.154 Y-22.782
X-223.066 Y-22.461
X-222.996 Y-22.132
X-222.944 Y-21.806
X-222.911 Y-21.48
X-222.896 Y-21.158
X-222.899 Y-20.848
X-222.916 Y-20.577
X-222.951 Y-20.293
X-222.992 Y-20.062
X-223.05 Y-19.816
X-223.113 Y-19.6
X-223.184 Y-19.401
X-223.206 Y-19.347
X-223.367 Y-19.039
X-223.577 Y-18.762
X-223.83 Y-18.524
X-224.12 Y-18.332
X-224.437 Y-18.191
X-224.774 Y-18.104
X-225.12 Y-18.075
X-226.226
G3 X-226.82 Y-18.683 I0.021 J-0.615
G1 X-226.886 Y-25.304
G3 X-226.292 Y-25.925 I0.615 J-0.006
G1 X-225.222
X-225.073 Y-25.917
X-224.924 Y-25.899
X-224.777 Y-25.869
X-224.632 Y-25.828
X-224.491 Y-25.778
X-224.353 Y-25.719
X-224.208 Y-25.648
X-224.053 Y-25.561
X-223.899 Y-25.463
X-223.738 Y-25.347
X-223.57 Y-25.212
X-223.407 Y-25.064
X-223.239 Y-24.896
X-223.069 Y-24.704
X-222.905 Y-24.496
X-222.746 Y-24.273
X-222.592 Y-24.026
X-222.445 Y-23.76
X-222.308 Y-23.475
X-222.184 Y-23.177
X-222.075 Y-22.866
X-221.982 Y-22.547
X-221.906 Y-22.222
X-221.849 Y-21.894
X-221.811 Y-21.568
X-221.791 Y-21.245
X-221.789 Y-20.931
X-221.803 Y-20.653
X-221.833 Y-20.368
X-221.873 Y-20.121
X-221.924 Y-19.888
X-221.989 Y-19.655
X-222.055 Y-19.459
X-222.088 Y-19.377
X-222.247 Y-19.062
X-222.456 Y-18.779
X-222.71 Y-18.536
X-223.002 Y-18.339
X-223.322 Y-18.194
X-223.663 Y-18.105
X-224.014 Y-18.075
X-225.12
G3 X-225.713 Y-18.68 I0.021 J-0.615
G1 X-225.816 Y-25.301
G3 X-225.222 Y-25.925 I0.615 J-0.01
G1 X-224.1
X-223.95 Y-25.917
X-223.801 Y-25.898
X-223.655 Y-25.866
X-223.511 Y-25.824
X-223.37 Y-25.773
X-223.227 Y-25.711
X-223.083 Y-25.638
X-222.931 Y-25.552
X-222.77 Y-25.447
X-222.611 Y-25.331
X-222.446 Y-25.196
X-222.276 Y-25.04
X-222.11 Y-24.87
X-221.944 Y-24.681
X-221.778 Y-24.468
X-221.616 Y-24.235
X-221.463 Y-23.988
X-221.32 Y-23.724
X-221.186 Y-23.44
X-221.063 Y-23.14
X-220.956 Y-22.826
X-220.865 Y-22.505
X-220.792 Y-22.178
X-220.737 Y-21.851
X-220.702 Y-21.526
X-220.684 Y-21.203
X-220.685 Y-20.891
X-220.7 Y-20.618
X-220.733 Y-20.33
X-220.772 Y-20.095
X-220.828 Y-19.85
X-220.891 Y-19.63
X-220.96 Y-19.431
X-220.988 Y-19.363
X-221.148 Y-19.051
X-221.357 Y-18.771
X-221.611 Y-18.53
X-221.901 Y-18.335
X-222.221 Y-18.192
X-222.559 Y-18.104
X-222.908 Y-18.075
X-224.014
G3 X-224.607 Y-18.682 I0.021 J-0.615
G1 X-224.693 Y-25.302
G3 X-224.1 Y-25.925 I0.615 J-0.008
G1 X-223.03
X-222.88 Y-25.917
X-222.731 Y-25.901
X-222.584 Y-25.873
X-222.439 Y-25.833
X-222.297 Y-25.784
X-222.159 Y-25.726
X-222.016 Y-25.657
X-221.862 Y-25.572
X-221.708 Y-25.476
X-221.548 Y-25.363
X-221.38 Y-25.23
X-221.216 Y-25.084
X-221.05 Y-24.918
X-220.88 Y-24.73
X-220.714 Y-24.524
X-220.555 Y-24.303
X-220.4 Y-24.059
X-220.251 Y-23.796
X-220.113 Y-23.513
X-219.987 Y-23.216
X-219.876 Y-22.908
X-219.781 Y-22.59
X-219.703 Y-22.266
X-219.643 Y-21.937
X-219.603 Y-21.611
X-219.58 Y-21.288
X-219.576 Y-20.973
X-219.588 Y-20.692
X-219.616 Y-20.405
X-219.655 Y-20.154
X-219.704 Y-19.921
X-219.768 Y-19.684
X-219.833 Y-19.487
X-219.87 Y-19.391
X-220.028 Y-19.074
X-220.237 Y-18.788
X-220.491 Y-18.541
X-220.784 Y-18.342
X-221.106 Y-18.195
X-221.449 Y-18.105
X-221.802 Y-18.075
X-222.908
G3 X-223.501 Y-18.678 I0.021 J-0.615
G1 X-223.623 Y-25.299
G3 X-223.03 Y-25.925 I0.615 J-0.011
G1 X-221.918
X-221.769 Y-25.917
X-221.62 Y-25.9
X-221.473 Y-25.871
X-221.328 Y-25.831
X-221.186 Y-25.782
X-221.045 Y-25.723
X-220.902 Y-25.653
X-220.752 Y-25.57
X-220.592 Y-25.469
X-220.434 Y-25.357
X-220.27 Y-25.225
X-220.1 Y-25.073
X-219.934 Y-24.908
X-219.768 Y-24.723
X-219.601 Y-24.514
X-219.438 Y-24.286
X-219.284 Y-24.044
X-219.138 Y-23.783
X-219.002 Y-23.502
X-218.876 Y-23.205
X-218.765 Y-22.894
X-218.671 Y-22.575
X-218.594 Y-22.249
X-218.535 Y-21.922
X-218.496 Y-21.598
X-218.474 Y-21.274
X-218.471 Y-20.959
X-218.483 Y-20.681
X-218.513 Y-20.388
X-218.55 Y-20.147
X-218.602 Y-19.904
X-218.665 Y-19.675
X-218.731 Y-19.478
X-218.767 Y-19.386
X-218.924 Y-19.07
X-219.133 Y-18.785
X-219.388 Y-18.539
X-219.68 Y-18.341
X-220.002 Y-18.195
X-220.344 Y-18.105
X-220.696 Y-18.075
X-221.802
G3 X-222.395 Y-18.679 I0.021 J-0.615
G1 X-222.512 Y-25.3
G3 X-221.918 Y-25.925 I0.615 J-0.011
G1 X-220.787
X-220.637 Y-25.917
X-220.488 Y-25.898
X-220.342 Y-25.867
X-220.197 Y-25.825
X-220.056 Y-25.774
X-219.914 Y-25.712
X-219.768 Y-25.64
X-219.617 Y-25.554
X-219.457 Y-25.45
X-219.297 Y-25.334
X-219.133 Y-25.2
X-218.963 Y-25.045
X-218.796 Y-24.874
X-218.631 Y-24.687
X-218.465 Y-24.476
X-218.303 Y-24.243
X-218.149 Y-23.994
X-218.005 Y-23.731
X-217.871 Y-23.449
X-217.749 Y-23.15
X-217.641 Y-22.837
X-217.55 Y-22.517
X-217.476 Y-22.189
X-217.421 Y-21.862
X-217.385 Y-21.536
X-217.367 Y-21.213
Y-20.901
X-217.382 Y-20.627
X-217.414 Y-20.338
X-217.453 Y-20.104
X-217.508 Y-19.857
X-217.571 Y-19.637
X-217.64 Y-19.438
X-217.669 Y-19.366
X-217.828 Y-19.054
X-218.038 Y-18.773
X-218.291 Y-18.532
X-218.582 Y-18.336
X-218.902 Y-18.192
X-219.241 Y-18.105
X-219.59 Y-18.075
X-220.696
G3 X-221.29 Y-18.681 I0.021 J-0.615
G1 X-221.38 Y-25.302
G3 X-220.787 Y-25.925 I0.615 J-0.008
G1 X-219.675
X-219.526 Y-25.917
X-219.377 Y-25.898
X-219.23 Y-25.866
X-219.086 Y-25.824
X-218.945 Y-25.772
X-218.802 Y-25.71
X-218.659 Y-25.638
X-218.505 Y-25.55
X-218.345 Y-25.447
X-218.187 Y-25.331
X-218.02 Y-25.195
X-217.851 Y-25.04
X-217.686 Y-24.871
X-217.519 Y-24.68
X-217.352 Y-24.467
X-217.192 Y-24.236
X-217.04 Y-23.99
X-216.896 Y-23.724
X-216.761 Y-23.44
X-216.639 Y-23.138
X-216.531 Y-22.824
X-216.441 Y-22.504
X-216.367 Y-22.177
X-216.313 Y-21.851
X-216.278 Y-21.525
X-216.26 Y-21.204
X-216.261 Y-20.89
X-216.276 Y-20.617
X-216.309 Y-20.329
X-216.349 Y-20.094
X-216.404 Y-19.85
X-216.468 Y-19.628
X-216.536 Y-19.431
X-216.564 Y-19.362
X-216.724 Y-19.051
X-216.933 Y-18.771
X-217.187 Y-18.53
X-217.478 Y-18.335
X-217.797 Y-18.192
X-218.135 Y-18.104
X-218.484 Y-18.075
X-219.59
G3 X-220.184 Y-18.682 I0.021 J-0.615
G1 X-220.269 Y-25.302
G3 X-219.675 Y-25.925 I0.615 J-0.008
G1 X-218.594
X-218.444 Y-25.917
X-218.295 Y-25.9
X-218.148 Y-25.87
X-218.004 Y-25.83
X-217.862 Y-25.78
X-217.723 Y-25.721
X-217.58 Y-25.652
X-217.426 Y-25.566
X-217.271 Y-25.468
X-217.111 Y-25.354
X-216.944 Y-25.219
X-216.778 Y-25.071
X-216.612 Y-24.905
X-216.443 Y-24.716
X-216.276 Y-24.506
X-216.117 Y-24.283
X-215.964 Y-24.039
X-215.816 Y-23.775
X-215.679 Y-23.492
X-215.554 Y-23.193
X-215.443 Y-22.882
X-215.35 Y-22.564
X-215.273 Y-22.239
X-215.215 Y-21.911
X-215.176 Y-21.586
X-215.155 Y-21.263
X-215.153 Y-20.949
X-215.166 Y-20.67
X-215.195 Y-20.382
X-215.234 Y-20.136
X-215.285 Y-19.9
X-215.349 Y-19.667
X-215.415 Y-19.471
X-215.45 Y-19.383
X-215.608 Y-19.067
X-215.817 Y-18.783
X-216.071 Y-18.538
X-216.363 Y-18.34
X-216.685 Y-18.194
X-217.026 Y-18.105
X-217.378 Y-18.075
X-218.484
G3 X-219.077 Y-18.679 I0.021 J-0.615
G1 X-219.188 Y-25.3
G3 X-218.594 Y-25.925 I0.615 J-0.01
G1 X-217.474
X-217.324 Y-25.917
X-217.175 Y-25.899
X-217.028 Y-25.868
X-216.884 Y-25.826
X-216.743 Y-25.775
X-216.601 Y-25.715
X-216.456 Y-25.643
X-216.305 Y-25.557
X-216.145 Y-25.454
X-215.986 Y-25.339
X-215.822 Y-25.206
X-215.651 Y-25.051
X-215.485 Y-24.882
X-215.319 Y-24.694
X-215.153 Y-24.483
X-214.99 Y-24.252
X-214.837 Y-24.006
X-214.693 Y-23.742
X-214.558 Y-23.46
X-214.435 Y-23.161
X-214.326 Y-22.848
X-214.235 Y-22.528
X-214.16 Y-22.202
X-214.104 Y-21.875
X-214.067 Y-21.549
X-214.049 Y-21.226
X-214.048 Y-20.913
X-214.062 Y-20.638
X-214.094 Y-20.348
X-214.133 Y-20.112
X-214.188 Y-19.867
X-214.25 Y-19.644
X-214.318 Y-19.446
X-214.349 Y-19.37
X-214.508 Y-19.057
X-214.717 Y-18.776
X-214.971 Y-18.533
X-215.262 Y-18.337
X-215.582 Y-18.193
X-215.922 Y-18.105
X-216.272 Y-18.075
X-217.378
G3 X-217.971 Y-18.681 I0.021 J-0.615
G1 X-218.067 Y-25.301
G3 X-217.474 Y-25.925 I0.615 J-0.009
G1 X-216.413
X-216.249 Y-25.917
X-216.1 Y-25.901
X-215.952 Y-25.873
X-215.808 Y-25.834
X-215.666 Y-25.785
X-215.527 Y-25.727
X-215.385 Y-25.659
X-215.231 Y-25.575
X-215.077 Y-25.479
X-214.918 Y-25.367
X-214.751 Y-25.234
X-214.586 Y-25.089
X-214.42 Y-24.925
X-214.25 Y-24.737
X-214.083 Y-24.531
X-213.924 Y-24.311
X-213.77 Y-24.069
X-213.621 Y-23.806
X-213.482 Y-23.525
X-213.356 Y-23.228
X-213.244 Y-22.92
X-213.148 Y-22.602
X-213.07 Y-22.278
X-213.009 Y-21.95
X-212.968 Y-21.624
X-212.945 Y-21.301
X-212.94 Y-20.986
X-212.951 Y-20.704
X-212.979 Y-20.416
X-213.017 Y-20.164
X-213.066 Y-19.93
X-213.129 Y-19.693
X-213.194 Y-19.496
X-213.233 Y-19.396
X-213.39 Y-19.077
X-213.598 Y-18.79
X-213.853 Y-18.543
X-214.146 Y-18.343
X-214.469 Y-18.196
X-214.812 Y-18.105
X-215.166 Y-18.075
X-216.272
G3 X-216.865 Y-18.677 I0.021 J-0.615
G1 X-217.006 Y-25.297
G3 X-216.413 Y-25.925 I0.615 J-0.013
G1 X-215.281
X-215.131 Y-25.917
X-214.982 Y-25.9
X-214.835 Y-25.871
X-214.691 Y-25.831
X-214.549 Y-25.781
X-214.408 Y-25.722
X-214.264 Y-25.652
X-214.114 Y-25.569
X-213.955 Y-25.468
X-213.796 Y-25.355
X-213.632 Y-25.224
X-213.462 Y-25.072
X-213.296 Y-24.905
X-213.13 Y-24.72
X-212.963 Y-24.512
X-212.8 Y-24.283
X-212.646 Y-24.04
X-212.501 Y-23.779
X-212.364 Y-23.499
X-212.239 Y-23.202
X-212.128 Y-22.891
X-212.034 Y-22.572
X-211.957 Y-22.246
X-211.899 Y-21.919
X-211.859 Y-21.594
X-211.838 Y-21.271
X-211.835 Y-20.955
X-211.847 Y-20.678
X-211.877 Y-20.385
X-211.915 Y-20.145
X-211.967 Y-19.9
X-212.029 Y-19.673
X-212.095 Y-19.475
X-212.131 Y-19.385
X-212.289 Y-19.069
X-212.498 Y-18.784
X-212.752 Y-18.539
X-213.045 Y-18.34
X-213.366 Y-18.194
X-213.708 Y-18.105
X-214.06 Y-18.075
X-215.166
G3 X-215.759 Y-18.679 I0.021 J-0.615
G1 X-215.875 Y-25.3
G3 X-215.281 Y-25.925 I0.615 J-0.011
G1 X-214.17
X-214.02 Y-25.917
X-213.871 Y-25.9
X-213.724 Y-25.87
X-213.58 Y-25.83
X-213.438 Y-25.78
X-213.296 Y-25.72
X-213.153 Y-25.65
X-213.001 Y-25.565
X-212.842 Y-25.463
X-212.684 Y-25.35
X-212.519 Y-25.218
X-212.349 Y-25.065
X-212.184 Y-24.9
X-212.017 Y-24.713
X-211.85 Y-24.503
X-211.688 Y-24.274
X-211.535 Y-24.032
X-211.39 Y-23.77
X-211.253 Y-23.488
X-211.129 Y-23.19
X-211.018 Y-22.878
X-210.925 Y-22.559
X-210.849 Y-22.233
X-210.791 Y-21.907
X-210.752 Y-21.581
X-210.732 Y-21.258
X-210.729 Y-20.943
X-210.742 Y-20.666
X-210.773 Y-20.375
X-210.811 Y-20.135
X-210.864 Y-19.891
X-210.926 Y-19.664
X-210.993 Y-19.467
X-211.027 Y-19.381
X-211.185 Y-19.065
X-211.394 Y-18.782
X-211.649 Y-18.537
X-211.941 Y-18.339
X-212.262 Y-18.194
X-212.603 Y-18.105
X-212.954 Y-18.075
X-214.06
G3 X-214.654 Y-18.679 I0.021 J-0.615
G1 X-214.763 Y-25.3
G3 X-214.17 Y-25.925 I0.615 J-0.01
G1 X-213.038
X-212.888 Y-25.917
X-212.74 Y-25.897
X-212.593 Y-25.865
X-212.449 Y-25.823
X-212.308 Y-25.772
X-212.165 Y-25.71
X-212.019 Y-25.637
X-211.868 Y-25.55
X-211.707 Y-25.445
X-211.548 Y-25.329
X-211.383 Y-25.194
X-211.213 Y-25.038
X-211.046 Y-24.867
X-210.881 Y-24.678
X-210.716 Y-24.466
X-210.553 Y-24.232
X-210.4 Y-23.983
X-210.257 Y-23.719
X-210.124 Y-23.435
X-210.002 Y-23.135
X-209.894 Y-22.822
X-209.804 Y-22.502
X-209.731 Y-22.174
X-209.677 Y-21.847
X-209.642 Y-21.521
X-209.624 Y-21.198
X-209.625 Y-20.887
X-209.641 Y-20.613
X-209.674 Y-20.326
X-209.713 Y-20.092
X-209.77 Y-19.845
X-209.832 Y-19.627
X-209.902 Y-19.428
X-209.929 Y-19.361
X-210.089 Y-19.05
X-210.298 Y-18.77
X-210.552 Y-18.53
X-210.842 Y-18.335
X-211.161 Y-18.192
X-211.5 Y-18.104
X-211.848 Y-18.075
X-212.954
G3 X-213.548 Y-18.682 I0.021 J-0.615
G1 X-213.632 Y-25.303
G3 X-213.038 Y-25.925 I0.615 J-0.008
G1 X-211.927
X-211.777 Y-25.917
X-211.628 Y-25.897
X-211.482 Y-25.865
X-211.338 Y-25.822
X-211.197 Y-25.77
X-211.054 Y-25.708
X-210.91 Y-25.635
X-210.756 Y-25.546
X-210.596 Y-25.442
X-210.437 Y-25.326
X-210.271 Y-25.189
X-210.101 Y-25.033
X-209.936 Y-24.863
X-209.77 Y-24.671
X-209.603 Y-24.457
X-209.442 Y-24.225
X-209.291 Y-23.978
X-209.148 Y-23.712
X-209.014 Y-23.426
X-208.892 Y-23.124
X-208.785 Y-22.81
X-208.695 Y-22.489
X-208.623 Y-22.162
X-208.569 Y-21.836
X-208.535 Y-21.51
X-208.518 Y-21.189
X-208.519 Y-20.875
X-208.536 Y-20.604
X-208.569 Y-20.317
X-208.609 Y-20.083
X-208.665 Y-19.839
X-208.729 Y-19.618
X-208.798 Y-19.421
X-208.824 Y-19.357
X-208.984 Y-19.047
X-209.194 Y-18.768
X-209.447 Y-18.528
X-209.738 Y-18.334
X-210.056 Y-18.192
X-210.394 Y-18.104
X-210.742 Y-18.075
X-211.848
G3 X-212.442 Y-18.682 I0.021 J-0.615
G1 X-212.52 Y-25.303
G3 X-211.927 Y-25.925 I0.615 J-0.007
G1 X-210.845
X-210.696 Y-25.917
X-210.547 Y-25.899
X-210.4 Y-25.869
X-210.255 Y-25.829
X-210.114 Y-25.778
X-209.975 Y-25.719
X-209.831 Y-25.649
X-209.677 Y-25.562
X-209.522 Y-25.463
X-209.362 Y-25.348
X-209.194 Y-25.213
X-209.029 Y-25.065
X-208.863 Y-24.897
X-208.694 Y-24.707
X-208.527 Y-24.497
X-208.368 Y-24.273
X-208.215 Y-24.028
X-208.068 Y-23.762
X-207.931 Y-23.478
X-207.806 Y-23.179
X-207.697 Y-22.868
X-207.604 Y-22.549
X-207.528 Y-22.224
X-207.471 Y-21.896
X-207.433 Y-21.571
X-207.413 Y-21.249
X-207.411 Y-20.934
X-207.425 Y-20.657
X-207.455 Y-20.37
X-207.494 Y-20.125
X-207.546 Y-19.889
X-207.61 Y-19.657
X-207.676 Y-19.461
X-207.71 Y-19.378
X-207.868 Y-19.063
X-208.077 Y-18.78
X-208.331 Y-18.536
X-208.623 Y-18.339
X-208.944 Y-18.194
X-209.285 Y-18.105
X-209.636 Y-18.075
X-210.742
G3 X-211.335 Y-18.68 I0.021 J-0.615
G1 X-211.439 Y-25.301
G3 X-210.845 Y-25.925 I0.615 J-0.01
G1 X-209.775
X-209.613 Y-25.917
X-209.464 Y-25.901
X-209.317 Y-25.873
X-209.172 Y-25.834
X-209.03 Y-25.785
X-208.89 Y-25.727
X-208.749 Y-25.66
X-208.597 Y-25.576
X-208.441 Y-25.478
X-208.283 Y-25.367
X-208.116 Y-25.235
X-207.949 Y-25.088
X-207.784 Y-24.925
X-207.615 Y-24.738
X-207.447 Y-24.531
X-207.287 Y-24.309
X-207.133 Y-24.068
X-206.985 Y-23.806
X-206.846 Y-23.526
X-206.72 Y-23.228
X-206.607 Y-22.919
X-206.512 Y-22.601
X-206.433 Y-22.277
X-206.373 Y-21.95
X-206.332 Y-21.625
X-206.309 Y-21.302
X-206.304 Y-20.987
X-206.315 Y-20.705
X-206.343 Y-20.415
X-206.38 Y-20.165
X-206.43 Y-19.929
X-206.493 Y-19.693
X-206.558 Y-19.496
X-206.597 Y-19.396
X-206.754 Y-19.077
X-206.962 Y-18.79
X-207.217 Y-18.543
X-207.51 Y-18.343
X-207.833 Y-18.196
X-208.176 Y-18.105
X-208.53 Y-18.075
X-209.636
G3 X-210.229 Y-18.677 I0.021 J-0.615
G1 X-210.369 Y-25.297
G3 X-209.775 Y-25.925 I0.615 J-0.013
G1 X-208.664
X-208.51 Y-25.917
X-208.36 Y-25.901
X-208.213 Y-25.873
X-208.068 Y-25.834
X-207.926 Y-25.786
X-207.786 Y-25.727
X-207.644 Y-25.659
X-207.493 Y-25.577
X-207.335 Y-25.478
X-207.177 Y-25.367
X-207.013 Y-25.237
X-206.843 Y-25.087
X-206.678 Y-24.924
X-206.511 Y-24.74
X-206.343 Y-24.533
X-206.18 Y-24.307
X-206.026 Y-24.067
X-205.88 Y-23.807
X-205.742 Y-23.528
X-205.615 Y-23.232
X-205.502 Y-22.922
X-205.407 Y-22.604
X-205.328 Y-22.279
X-205.268 Y-21.953
X-205.226 Y-21.628
X-205.203 Y-21.304
X-205.198 Y-20.988
X-205.209 Y-20.707
X-205.237 Y-20.414
X-205.274 Y-20.169
X-205.324 Y-19.927
X-205.387 Y-19.695
X-205.451 Y-19.497
X-205.491 Y-19.396
X-205.648 Y-19.078
X-205.856 Y-18.791
X-206.111 Y-18.543
X-206.404 Y-18.343
X-206.727 Y-18.196
X-207.07 Y-18.105
X-207.424 Y-18.075
X-208.53
G3 X-209.123 Y-18.677 I0.021 J-0.615
G1 X-209.257 Y-25.298
G3 X-208.664 Y-25.925 I0.615 J-0.012
G1 X-207.532
X-207.383 Y-25.917
X-207.234 Y-25.9
X-207.087 Y-25.87
X-206.942 Y-25.829
X-206.801 Y-25.779
X-206.659 Y-25.719
X-206.514 Y-25.648
X-206.365 Y-25.564
X-206.205 Y-25.463
X-206.045 Y-25.348
X-205.882 Y-25.217
X-205.712 Y-25.064
X-205.544 Y-24.896
X-205.379 Y-24.711
X-205.213 Y-24.502
X-205.05 Y-24.272
X-204.896 Y-24.026
X-204.751 Y-23.765
X-204.615 Y-23.485
X-204.491 Y-23.187
X-204.381 Y-22.876
X-204.288 Y-22.557
X-204.212 Y-22.23
X-204.155 Y-21.903
X-204.116 Y-21.578
X-204.096 Y-21.254
X-204.093 Y-20.939
X-204.107 Y-20.663
X-204.137 Y-20.371
X-204.175 Y-20.134
X-204.229 Y-19.887
X-204.291 Y-19.663
X-204.358 Y-19.464
X-204.392 Y-19.379
X-204.55 Y-19.065
X-204.759 Y-18.781
X-205.013 Y-18.537
X-205.305 Y-18.339
X-205.626 Y-18.194
X-205.967 Y-18.105
X-206.318 Y-18.075
X-207.424
G3 X-208.017 Y-18.68 I0.021 J-0.615
G1 X-208.126 Y-25.3
G3 X-207.532 Y-25.925 I0.615 J-0.01
G1 X-206.421
X-206.271 Y-25.917
X-206.122 Y-25.899
X-205.975 Y-25.869
X-205.831 Y-25.828
X-205.69 Y-25.778
X-205.547 Y-25.717
X-205.404 Y-25.647
X-205.252 Y-25.561
X-205.092 Y-25.459
X-204.934 Y-25.345
X-204.769 Y-25.212
X-204.599 Y-25.058
X-204.434 Y-24.892
X-204.267 Y-24.704
X-204.101 Y-24.493
X-203.939 Y-24.264
X-203.786 Y-24.02
X-203.641 Y-23.757
X-203.505 Y-23.475
X-203.381 Y-23.176
X-203.272 Y-22.863
X-203.179 Y-22.544
X-203.103 Y-22.217
X-203.047 Y-21.891
X-203.009 Y-21.565
X-202.989 Y-21.243
X-202.988 Y-20.928
X-203.002 Y-20.652
X-203.032 Y-20.362
X-203.071 Y-20.123
X-203.125 Y-19.88
X-203.188 Y-19.654
X-203.255 Y-19.457
X-203.287 Y-19.375
X-203.446 Y-19.061
X-203.655 Y-18.779
X-203.909 Y-18.535
X-204.201 Y-18.338
X-204.521 Y-18.193
X-204.862 Y-18.105
X-205.212 Y-18.075
X-206.318
G3 X-206.912 Y-18.68 I0.021 J-0.615
G1 X-207.014 Y-25.301
G3 X-206.421 Y-25.925 I0.615 J-0.01
G1 X-205.289
X-205.139 Y-25.917
X-204.991 Y-25.897
X-204.844 Y-25.864
X-204.701 Y-25.822
X-204.56 Y-25.77
X-204.416 Y-25.707
X-204.271 Y-25.633
X-204.119 Y-25.546
X-203.958 Y-25.441
X-203.798 Y-25.323
X-203.634 Y-25.188
X-203.463 Y-25.03
X-203.297 Y-24.859
X-203.131 Y-24.669
X-202.966 Y-24.455
X-202.804 Y-24.221
X-202.651 Y-23.971
X-202.509 Y-23.706
X-202.376 Y-23.422
X-202.254 Y-23.121
X-202.148 Y-22.807
X-202.058 Y-22.486
X-201.986 Y-22.158
X-201.933 Y-21.832
X-201.898 Y-21.506
X-201.882 Y-21.183
X-201.884 Y-20.872
X-201.9 Y-20.6
X-201.933 Y-20.313
X-201.974 Y-20.081
X-202.031 Y-19.834
X-202.093 Y-19.617
X-202.163 Y-19.418
X-202.189 Y-19.356
X-202.349 Y-19.046
X-202.559 Y-18.767
X-202.812 Y-18.528
X-203.102 Y-18.334
X-203.421 Y-18.191
X-203.758 Y-18.104
X-204.106 Y-18.075
X-205.212
G3 X-205.806 Y-18.682 I0.021 J-0.615
G1 X-205.883 Y-25.303
G3 X-205.289 Y-25.925 I0.615 J-0.007
G1 X-204.178
X-204.028 Y-25.917
X-203.88 Y-25.896
X-203.733 Y-25.864
X-203.59 Y-25.821
X-203.449 Y-25.768
X-203.305 Y-25.705
X-203.161 Y-25.632
X-203.006 Y-25.542
X-202.847 Y-25.438
X-202.688 Y-25.32
X-202.521 Y-25.182
X-202.352 Y-25.026
X-202.187 Y-24.855
X-202.02 Y-24.662
X-201.853 Y-24.447
X-201.693 Y-24.214
X-201.543 Y-23.967
X-201.399 Y-23.699
X-201.266 Y-23.413
X-201.144 Y-23.11
X-201.038 Y-22.795
X-200.949 Y-22.474
X-200.878 Y-22.146
X-200.825 Y-21.821
X-200.791 Y-21.495
X-200.776 Y-21.174
X-200.778 Y-20.861
X-200.795 Y-20.59
X-200.829 Y-20.305
X-200.869 Y-20.071
X-200.926 Y-19.828
X-200.99 Y-19.609
X-201.059 Y-19.411
X-201.084 Y-19.352
X-201.244 Y-19.043
X-201.454 Y-18.765
X-201.708 Y-18.526
X-201.997 Y-18.333
X-202.315 Y-18.191
X-202.653 Y-18.104
X-203 Y-18.075
X-204.106
G3 X-204.699 Y-18.683 I0.021 J-0.615
G1 X-204.771 Y-25.304
G3 X-204.178 Y-25.925 I0.615 J-0.007
G1 X-203.097
X-202.947 Y-25.917
X-202.798 Y-25.899
X-202.651 Y-25.868
X-202.507 Y-25.827
X-202.366 Y-25.776
X-202.227 Y-25.717
X-202.083 Y-25.646
X-201.928 Y-25.558
X-201.773 Y-25.459
X-201.613 Y-25.343
X-201.445 Y-25.207
X-201.28 Y-25.058
X-201.113 Y-24.889
X-200.944 Y-24.698
X-200.778 Y-24.487
X-200.619 Y-24.263
X-200.466 Y-24.017
X-200.32 Y-23.75
X-200.183 Y-23.465
X-200.059 Y-23.165
X-199.95 Y-22.854
X-199.858 Y-22.534
X-199.783 Y-22.209
X-199.727 Y-21.881
X-199.69 Y-21.556
X-199.67 Y-21.234
X-199.669 Y-20.92
X-199.684 Y-20.644
X-199.714 Y-20.357
X-199.754 Y-20.114
X-199.806 Y-19.878
X-199.871 Y-19.648
X-199.938 Y-19.452
X-199.97 Y-19.373
X-200.128 Y-19.059
X-200.338 Y-18.777
X-200.592 Y-18.534
X-200.883 Y-18.338
X-201.203 Y-18.193
X-201.543 Y-18.105
X-201.893 Y-18.075
X-203
G3 X-203.593 Y-18.681 I0.021 J-0.615
G1 X-203.69 Y-25.301
G3 X-203.097 Y-25.925 I0.615 J-0.009
G1 X-202.027
X-201.871 Y-25.917
X-201.722 Y-25.901
X-201.575 Y-25.873
X-201.43 Y-25.834
X-201.288 Y-25.785
X-201.149 Y-25.728
X-201.007 Y-25.66
X-200.854 Y-25.576
X-200.7 Y-25.479
X-200.541 Y-25.368
X-200.374 Y-25.235
X-200.208 Y-25.089
X-200.042 Y-24.925
X-199.873 Y-24.738
X-199.705 Y-24.531
X-199.546 Y-24.31
X-199.391 Y-24.069
X-199.243 Y-23.806
X-199.104 Y-23.525
X-198.977 Y-23.228
X-198.865 Y-22.919
X-198.77 Y-22.602
X-198.691 Y-22.278
X-198.631 Y-21.95
X-198.589 Y-21.624
X-198.566 Y-21.301
X-198.562 Y-20.986
X-198.573 Y-20.704
X-198.6 Y-20.415
X-198.638 Y-20.165
X-198.687 Y-19.93
X-198.751 Y-19.693
X-198.815 Y-19.496
X-198.854 Y-19.396
X-199.011 Y-19.077
X-199.22 Y-18.79
X-199.475 Y-18.543
X-199.768 Y-18.343
X-200.091 Y-18.196
X-200.434 Y-18.105
X-200.787 Y-18.075
X-201.893
G3 X-202.487 Y-18.677 I0.021 J-0.615
G1 X-202.62 Y-25.298
G3 X-202.027 Y-25.925 I0.615 J-0.012
G1 X-200.915
X-200.766 Y-25.917
X-200.616 Y-25.902
X-200.469 Y-25.873
X-200.324 Y-25.834
X-200.182 Y-25.785
X-200.042 Y-25.727
X-199.899 Y-25.659
X-199.749 Y-25.576
X-199.59 Y-25.477
X-199.433 Y-25.366
X-199.268 Y-25.236
X-199.098 Y-25.085
X-198.933 Y-24.922
X-198.766 Y-24.737
X-198.599 Y-24.53
X-198.436 Y-24.304
X-198.282 Y-24.063
X-198.135 Y-23.804
X-197.997 Y-23.524
X-197.871 Y-23.228
X-197.759 Y-22.918
X-197.663 Y-22.6
X-197.585 Y-22.274
X-197.525 Y-21.948
X-197.484 Y-21.623
X-197.461 Y-21.3
X-197.456 Y-20.984
X-197.467 Y-20.703
X-197.495 Y-20.41
X-197.533 Y-20.166
X-197.583 Y-19.924
X-197.645 Y-19.692
X-197.71 Y-19.494
X-197.749 Y-19.395
X-197.906 Y-19.076
X-198.115 Y-18.79
X-198.369 Y-18.543
X-198.662 Y-18.343
X-198.985 Y-18.195
X-199.328 Y-18.105
X-199.682 Y-18.075
X-200.787
G3 X-201.381 Y-18.678 I0.021 J-0.615
G1 X-201.509 Y-25.298
G3 X-200.915 Y-25.925 I0.615 J-0.012
G1 X-199.784
X-199.634 Y-25.917
X-199.485 Y-25.899
X-199.338 Y-25.868
X-199.194 Y-25.827
X-199.053 Y-25.777
X-198.911 Y-25.717
X-198.765 Y-25.645
X-198.615 Y-25.56
X-198.455 Y-25.458
X-198.295 Y-25.343
X-198.132 Y-25.211
X-197.962 Y-25.057
X-197.794 Y-24.888
X-197.629 Y-24.702
X-197.464 Y-24.492
X-197.301 Y-24.261
X-197.146 Y-24.014
X-197.002 Y-23.752
X-196.867 Y-23.471
X-196.744 Y-23.174
X-196.635 Y-22.862
X-196.542 Y-22.543
X-196.467 Y-22.215
X-196.41 Y-21.888
X-196.373 Y-21.562
X-196.353 Y-21.239
X-196.352 Y-20.925
X-196.366 Y-20.65
X-196.397 Y-20.359
X-196.435 Y-20.123
X-196.489 Y-19.876
X-196.551 Y-19.654
X-196.619 Y-19.454
X-196.651 Y-19.374
X-196.81 Y-19.061
X-197.019 Y-18.778
X-197.273 Y-18.535
X-197.565 Y-18.338
X-197.885 Y-18.193
X-198.226 Y-18.105
X-198.576 Y-18.075
X-199.682
G3 X-200.275 Y-18.68 I0.021 J-0.615
G1 X-200.377 Y-25.301
G3 X-199.784 Y-25.925 I0.615 J-0.009
G1 X-198.672
X-198.522 Y-25.917
X-198.374 Y-25.899
X-198.227 Y-25.868
X-198.083 Y-25.826
X-197.942 Y-25.776
X-197.799 Y-25.715
X-197.655 Y-25.644
X-197.503 Y-25.557
X-197.343 Y-25.454
X-197.185 Y-25.34
X-197.019 Y-25.205
X-196.849 Y-25.051
X-196.684 Y-24.884
X-196.518 Y-24.695
X-196.351 Y-24.483
X-196.189 Y-24.253
X-196.037 Y-24.009
X-195.892 Y-23.745
X-195.757 Y-23.462
X-195.634 Y-23.162
X-195.525 Y-22.849
X-195.433 Y-22.529
X-195.358 Y-22.202
X-195.303 Y-21.876
X-195.266 Y-21.55
X-195.247 Y-21.228
X-195.246 Y-20.914
X-195.26 Y-20.639
X-195.292 Y-20.35
X-195.331 Y-20.112
X-195.385 Y-19.869
X-195.448 Y-19.645
X-195.516 Y-19.447
X-195.547 Y-19.371
X-195.706 Y-19.058
X-195.915 Y-18.776
X-196.169 Y-18.533
X-196.46 Y-18.337
X-196.78 Y-18.193
X-197.12 Y-18.105
X-197.47 Y-18.075
X-198.576
G3 X-199.169 Y-18.681 I0.021 J-0.615
G1 X-199.266 Y-25.301
G3 X-198.672 Y-25.925 I0.615 J-0.009
G1 X-197.541
X-197.391 Y-25.917
X-197.242 Y-25.896
X-197.096 Y-25.863
X-196.952 Y-25.82
X-196.812 Y-25.768
