%
(1001)
(origin stock bottom)
(T1  D=6.15 CR=0 - ZMIN=0 - flat end mill)
G90 G94
G17
G21

(2D Contour12)
M9
T1 M6
S6000 M3
G54
M8
G0 X-276.725 Y-301.081
Z33
Z23
G1 Z20.5 F333.3
Y-319.9 Z16.5 F350
Y-320.725 F850
X-45.275
Y-206.275
X-276.725
Y-319.9
G0 Z23
X-45.725 Y-300.754
G1 Z20.5 F333.3
Y-317 Z17.047 F350
G2 X-46.684 Y-319.316 Z16.5 I-3.275
X-49 Y-320.275 I-2.316 J2.316 F850
G1 X-273
G2 X-276.275 Y-317 J3.275
G1 Y-210
G2 X-273 Y-206.725 I3.275
G1 X-49
G2 X-45.725 Y-210 J-3.275
G1 Y-317
G2 X-46.684 Y-319.316 I-3.275
G0 Z23
X-45.725 Y-300.754
G1 Z19 F333.3
Y-317 Z15.547 F350
G2 X-46.684 Y-319.316 Z15 I-3.275
X-49 Y-320.275 I-2.316 J2.316 F850
G1 X-273
G2 X-276.275 Y-317 J3.275
G1 Y-210
G2 X-273 Y-206.725 I3.275
G1 X-49
G2 X-45.725 Y-210 J-3.275
G1 Y-317
G2 X-46.684 Y-319.316 I-3.275
G0 Z23
X-276.725 Y-301.081
G1 Z19 F333.3
Y-319.9 Z15 F350
Y-320.725 F850
X-45.275
Y-206.275
X-276.725
Y-319.9
Y-320.725 Z14.976 F350
X-232.584 Z13.7
X-45.275 F850
Y-206.275
X-276.725
Y-319.9
Y-320.725
X-232.584
G0 Z23
X-45.725 Y-301.695
G1 Z17.5 F333.3
Y-317 Z14.247 F350
G2 X-46.684 Y-319.316 Z13.7 I-3.275
X-49 Y-320.275 I-2.316 J2.316 F850
G1 X-273
G2 X-276.275 Y-317 J3.275
G1 Y-210
G2 X-273 Y-206.725 I3.275
G1 X-49
G2 X-45.725 Y-210 J-3.275
G1 Y-317
G2 X-46.684 Y-319.316 I-3.275
G0 Z23
X-258.732 Y-358.275
G1 Z20.5 F333.3
X-276.725 Z16.675 F350
Y-359.1 Z16.5
Y-469.725 F850
X-45.275
Y-358.275
X-273
X-276.725
Y-359.1
G0 Z23
X-276.275 Y-378.246
G1 Z20.5 F333.3
Y-362 Z17.047 F350
G2 X-275.316 Y-359.684 Z16.5 I3.275
X-273 Y-358.725 I2.316 J-2.316 F850
G1 X-49
G2 X-45.725 Y-362 J-3.275
G1 Y-466
G2 X-49 Y-469.275 I-3.275
G1 X-273
G2 X-276.275 Y-466 J3.275
G1 Y-362
G2 X-275.316 Y-359.684 I3.275
G0 Z23
X-276.275 Y-378.246
G1 Z19 F333.3
Y-362 Z15.547 F350
G2 X-275.316 Y-359.684 Z15 I3.275
X-273 Y-358.725 I2.316 J-2.316 F850
G1 X-49
G2 X-45.725 Y-362 J-3.275
G1 Y-466
G2 X-49 Y-469.275 I-3.275
G1 X-273
G2 X-276.275 Y-466 J3.275
G1 Y-362
G2 X-275.316 Y-359.684 I3.275
G0 Z23
X-258.732 Y-358.275
G1 Z19 F333.3
X-276.725 Z15.175 F350
Y-359.1 Z15
Y-469.725 F850
X-45.275
Y-358.275
X-273
X-276.725
Y-359.1
Y-403.677 Z13.7 F350
Y-469.725 F850
X-45.275
Y-358.275
X-273
X-276.725
Y-403.677
G0 Z23
X-276.275 Y-377.305
G1 Z17.5 F333.3
Y-362 Z14.247 F350
G2 X-275.316 Y-359.684 Z13.7 I3.275
X-273 Y-358.725 I2.316 J-2.316 F850
G1 X-49
G2 X-45.725 Y-362 J-3.275
G1 Y-466
G2 X-49 Y-469.275 I-3.275
G1 X-273
G2 X-276.275 Y-466 J3.275
G1 Y-362
G2 X-275.316 Y-359.684 I3.275
G0 Z23
X-314.275 Y-380.919
G1 Z20.5 F333.3
Y-362.1 Z16.5 F350
Y-361.275 F850
X-545.725
Y-469.725
X-318
X-314.275
Y-362.1
G0 Z23
X-334.246 Y-361.725
G1 Z20.5 F333.3
X-318 Z17.047 F350
G2 X-315.684 Y-362.684 Z16.5 J-3.275
X-314.725 Y-365 I-2.316 J-2.316 F850
G1 Y-466
G2 X-318 Y-469.275 I-3.275
G1 X-542
G2 X-545.275 Y-466 J3.275
G1 Y-365
G2 X-542 Y-361.725 I3.275
G1 X-318
G2 X-315.684 Y-362.684 J-3.275
X-314.725 Y-365 Z16.423 I-2.316 J-2.316 F350
G1 Y-412.721 Z15
Y-466 F850
G2 X-318 Y-469.275 I-3.275
G1 X-542
G2 X-545.275 Y-466 J3.275
G1 Y-365
G2 X-542 Y-361.725 I3.275
G1 X-318
G2 X-314.725 Y-365 J-3.275
G1 Y-412.721
G0 Z23
X-314.275 Y-380.919
G1 Z19 F333.3
Y-362.1 Z15 F350
Y-361.275 F850
X-545.725
Y-469.725
X-318
X-314.275
Y-362.1
G0 Z23
Y-379.978
G1 Z17.5 F333.3
Y-362.1 Z13.7 F350
Y-361.275 F850
X-545.725
Y-469.725
X-318
X-314.275
Y-362.1
G0 Z23
X-333.305 Y-361.725
G1 Z17.5 F333.3
X-318 Z14.247 F350
G2 X-315.684 Y-362.684 Z13.7 J-3.275
X-314.725 Y-365 I-2.316 J-2.316 F850
G1 Y-466
G2 X-318 Y-469.275 I-3.275
G1 X-542
G2 X-545.275 Y-466 J3.275
G1 Y-365
G2 X-542 Y-361.725 I3.275
G1 X-318
G2 X-315.684 Y-362.684 J-3.275
G0 Z23
X-332.268 Y-320.725
G1 Z20.5 F333.3
X-314.275 Z16.675 F350
Y-319.9 Z16.5
Y-212.275 F850
X-545.725
Y-320.725
X-542
X-314.275
Y-319.9
G0 Z23
X-314.725 Y-300.754
G1 Z20.5 F333.3
Y-317 Z17.047 F350
G2 X-315.684 Y-319.316 Z16.5 I-3.275
X-318 Y-320.275 I-2.316 J2.316 F850
G1 X-542
G2 X-545.275 Y-317 J3.275
G1 Y-216
G2 X-542 Y-212.725 I3.275
G1 X-318
G2 X-314.725 Y-216 J-3.275
G1 Y-317
G2 X-315.684 Y-319.316 I-3.275
X-318 Y-320.275 Z16.423 I-2.316 J2.316 F350
G1 X-365.721 Z15
X-542 F850
G2 X-545.275 Y-317 J3.275
G1 Y-216
G2 X-542 Y-212.725 I3.275
G1 X-318
G2 X-314.725 Y-216 J-3.275
G1 Y-317
G2 X-318 Y-320.275 I-3.275
G1 X-365.721
G0 Z23
X-332.268 Y-320.725
G1 Z19 F333.3
X-314.275 Z15.175 F350
Y-319.9 Z15
Y-212.275 F850
X-545.725
Y-320.725
X-542
X-314.275
Y-319.9
G0 Z23
X-331.327 Y-320.725
G1 Z17.5 F333.3
X-314.275 Z13.875 F350
Y-319.9 Z13.7
Y-212.275 F850
X-545.725
Y-320.725
X-542
X-314.275
Y-319.9
G0 Z23
X-314.725 Y-301.695
G1 Z17.5 F333.3
Y-317 Z14.247 F350
G2 X-315.684 Y-319.316 Z13.7 I-3.275
X-318 Y-320.275 I-2.316 J2.316 F850
G1 X-542
G2 X-545.275 Y-317 J3.275
G1 Y-216
G2 X-542 Y-212.725 I3.275
G1 X-318
G2 X-314.725 Y-216 J-3.275
G1 Y-317
G2 X-315.684 Y-319.316 I-3.275
G0 Z23
X-314.275 Y-48.268
G1 Z20.5 F333.3
Y-30.275 Z16.675 F350
X-315.1 Z16.5
X-545.725 F850
Y-34
Y-168.725
X-314.275
Y-30.275
X-315.1
G0 Z23
X-334.246 Y-30.725
G1 Z20.5 F333.3
X-318 Z17.047 F350
G2 X-315.684 Y-31.684 Z16.5 J-3.275
X-314.725 Y-34 I-2.316 J-2.316 F850
G1 Y-165
G2 X-318 Y-168.275 I-3.275
G1 X-542
G2 X-545.275 Y-165 J3.275
G1 Y-34
G2 X-542 Y-30.725 I3.275
G1 X-318
G2 X-315.684 Y-31.684 J-3.275
G0 Z23
X-334.246 Y-30.725
G1 Z19 F333.3
X-318 Z15.547 F350
G2 X-315.684 Y-31.684 Z15 J-3.275
X-314.725 Y-34 I-2.316 J-2.316 F850
G1 Y-165
G2 X-318 Y-168.275 I-3.275
G1 X-542
G2 X-545.275 Y-165 J3.275
G1 Y-34
G2 X-542 Y-30.725 I3.275
G1 X-318
G2 X-315.684 Y-31.684 J-3.275
G0 Z23
X-314.275 Y-48.268
G1 Z19 F333.3
Y-30.275 Z15.175 F350
X-315.1 Z15
X-545.725 F850
Y-34
Y-168.725
X-314.275
Y-30.275
X-315.1
X-363.188 Z13.7 F350
X-545.725 F850
Y-34
Y-168.725
X-314.275
Y-30.275
X-363.188
G0 Z23
X-333.305 Y-30.725
G1 Z17.5 F333.3
X-318 Z14.247 F350
G2 X-315.684 Y-31.684 Z13.7 J-3.275
X-314.725 Y-34 I-2.316 J-2.316 F850
G1 Y-165
G2 X-318 Y-168.275 I-3.275
G1 X-542
G2 X-545.275 Y-165 J3.275
G1 Y-34
G2 X-542 Y-30.725 I3.275
G1 X-318
G2 X-315.684 Y-31.684 J-3.275
G0 Z23
X-45.275 Y-47.919
G1 Z20.5 F333.3
Y-29.101 Z16.5 F350
Y-28.275 F850
X-276.725
Y-168.725
X-45.275
Y-29.101
G0 Z23
X-256.754 Y-168.275
G1 Z20.5 F333.3
X-273 Z17.047 F350
G2 X-275.316 Y-167.316 Z16.5 J3.275
X-276.275 Y-165 I2.316 J2.316 F850
G1 Y-32
G2 X-273 Y-28.725 I3.275
G1 X-49
G2 X-45.725 Y-32 J-3.275
G1 Y-165
G2 X-49 Y-168.275 I-3.275
G1 X-273
G2 X-275.316 Y-167.316 J3.275
G0 Z23
X-256.754 Y-168.275
G1 Z19 F333.3
X-273 Z15.547 F350
G2 X-275.316 Y-167.316 Z15 J3.275
X-276.275 Y-165 I2.316 J2.316 F850
G1 Y-32
G2 X-273 Y-28.725 I3.275
G1 X-49
G2 X-45.725 Y-32 J-3.275
G1 Y-165
G2 X-49 Y-168.275 I-3.275
G1 X-273
G2 X-275.316 Y-167.316 J3.275
G0 Z23
X-45.275 Y-47.919
G1 Z19 F333.3
Y-29.101 Z15 F350
Y-28.275 F850
X-276.725
Y-168.725
X-45.275
Y-29.101
Y-28.275 Z14.978 F350
X-92.796 Z13.7
X-276.725 F850
Y-168.725
X-45.275
Y-29.101
Y-28.275
X-92.796
G0 Z23
X-257.695 Y-168.275
G1 Z17.5 F333.3
X-273 Z14.247 F350
G2 X-275.316 Y-167.316 Z13.7 J3.275
X-276.275 Y-165 I2.316 J2.316 F850
G1 Y-32
G2 X-273 Y-28.725 I3.275
G1 X-49
G2 X-45.725 Y-32 J-3.275
G1 Y-165
G2 X-49 Y-168.275 I-3.275
G1 X-273
G2 X-275.316 Y-167.316 J3.275
G0 Z33

(2D Contour12 2)
S7500 M3
X-275.9 Y-320.925
Z33
Z23
G1 Z19 F333.3
Z13.5
X-45.075 F850
Y-206.075
X-276.925
Y-320.925
X-275.9
G0 Z23
X-275.174 Y-319.174
G1 Z19 F333.3
Z13.5
G2 X-276.075 Y-317 I2.174 J2.174 F850
G1 Y-210
G2 X-273 Y-206.925 I3.075
G1 X-49
G2 X-45.925 Y-210 J-3.075
G1 Y-317
G2 X-49 Y-320.075 I-3.075
G1 X-273
G2 X-275.174 Y-319.174 J3.075
G0 Z23
X-275.9 Y-358.075
G1 Z19 F333.3
Z13.5
X-276.925 F850
Y-469.925
X-45.075
Y-358.075
X-273
X-275.9
G0 Z23
X-275.174 Y-359.826
G1 Z19 F333.3
Z13.5
G2 X-273 Y-358.925 I2.174 J-2.174 F850
G1 X-49
G2 X-45.925 Y-362 J-3.075
G1 Y-466
G2 X-49 Y-469.075 I-3.075
G1 X-273
G2 X-276.075 Y-466 J3.075
G1 Y-362
G2 X-275.174 Y-359.826 I3.075
G0 Z23
X-314.075 Y-362.1
G1 Z19 F333.3
Z13.5
Y-361.075 F850
X-545.925
Y-469.925
X-318
X-314.075
Y-362.1
G0 Z23
X-315.826 Y-362.826
G1 Z19 F333.3
Z13.5
G2 X-314.925 Y-365 I-2.174 J-2.174 F850
G1 Y-466
G2 X-318 Y-469.075 I-3.075
G1 X-542
G2 X-545.075 Y-466 J3.075
G1 Y-365
G2 X-542 Y-361.925 I3.075
G1 X-318
G2 X-315.826 Y-362.826 J-3.075
G0 Z23
X-314.075 Y-319.9
G1 Z19 F333.3
Z13.5
Y-212.075 F850
X-545.925
Y-320.925
X-542
X-314.075
Y-319.9
G0 Z23
X-315.826 Y-319.174
G1 Z19 F333.3
Z13.5
G2 X-318 Y-320.075 I-2.174 J2.174 F850
G1 X-542
G2 X-545.075 Y-317 J3.075
G1 Y-216
G2 X-542 Y-212.925 I3.075
G1 X-318
G2 X-314.925 Y-216 J-3.075
G1 Y-317
G2 X-315.826 Y-319.174 I-3.075
G0 Z23
X-314.075 Y-167.899
G1 Z19 F333.3
Z13.5
Y-30.075 F850
X-545.925
Y-168.925
X-314.075
Y-167.899
G0 Z23
X-315.826 Y-167.174
G1 Z19 F333.3
Z13.5
G2 X-318 Y-168.075 I-2.174 J2.174 F850
G1 X-542
G2 X-545.075 Y-165 J3.075
G1 Y-34
G2 X-542 Y-30.925 I3.075
G1 X-318
G2 X-314.925 Y-34 J-3.075
G1 Y-165
G2 X-315.826 Y-167.174 I-3.075
G0 Z23
X-275.9 Y-168.925
G1 Z19 F333.3
Z13.5
X-45.075 F850
Y-28.075
X-276.925
Y-168.925
X-275.9
G0 Z23
X-275.174 Y-167.174
G1 Z19 F333.3
Z13.5
G2 X-276.075 Y-165 I2.174 J2.174 F850
G1 Y-32
G2 X-273 Y-28.925 I3.075
G1 X-49
G2 X-45.925 Y-32 J-3.075
G1 Y-165
G2 X-49 Y-168.075 I-3.075
G1 X-273
G2 X-275.174 Y-167.174 J3.075
G0 Z33

(2D Contour13)
S6000 M3
X-564.275 Y-267.819
Z33
Z23
G1 Z20.5 F333.3
Y-249 Z16.5 F350
Y-197 F850
G2 X-561 Y-193.725 I3.275
G1 X-299
G2 X-295.725 Y-197 J-3.275
G1 Y-336
G2 X-299 Y-339.275 I-3.275
G1 X-561
G2 X-564.275 Y-336 J3.275
G1 Y-249
G0 Z23
X-368.182 Y-11.725
G1 Z20.5 F333.3
X-349.364 Z16.5 F350
X-299 F850
G2 X-295.725 Y-15 J-3.275
G1 Y-184
G2 X-299 Y-187.275 I-3.275
G1 X-561
G2 X-564.275 Y-184 J3.275
G1 Y-15
G2 X-561 Y-11.725 I3.275
G1 X-349.364
G0 Z23
X-295.275 Y-26.687
G1 Z20.5 F333.3
Y-13 Z17.591 F350
G2 X-292.013 Y-9.725 Z16.5 I3.275
G1 X-292 F850
X-30
G2 X-26.725 Y-13 J-3.275
G1 Y-184
G2 X-30 Y-187.275 I-3.275
G1 X-292
G2 X-295.275 Y-184 J3.275
G1 Y-13
G2 X-292.013 Y-9.725 I3.275
G0 Z23
X-26.725 Y-230.181
G1 Z20.5 F333.3
Y-249 Z16.5 F350
Y-336 F850
G2 X-30 Y-339.275 I-3.275
G1 X-292
G2 X-295.275 Y-336 J3.275
G1 Y-191
G2 X-292 Y-187.725 I3.275
G1 X-30
G2 X-26.725 Y-191 J-3.275
G1 Y-249
G0 Z23
X-295.275 Y-26.687
G1 Z19 F333.3
Y-13 Z16.091 F350
G2 X-292.013 Y-9.725 Z15 I3.275
G1 X-292 F850
X-30
G2 X-26.725 Y-13 J-3.275
G1 Y-184
G2 X-30 Y-187.275 I-3.275
G1 X-292
G2 X-295.275 Y-184 J3.275
G1 Y-13
G2 X-292.013 Y-9.725 I3.275
G0 Z23
X-368.182 Y-11.725
G1 Z19 F333.3
X-349.364 Z15 F350
X-299 F850
G2 X-295.725 Y-15 J-3.275
G1 Y-184
G2 X-299 Y-187.275 I-3.275
G1 X-561
G2 X-564.275 Y-184 J3.275
G1 Y-15
G2 X-561 Y-11.725 I3.275
G1 X-349.364
G0 Z23
X-295.725 Y-471.313
G1 Z20.5 F333.3
Y-485 Z17.591 F350
G2 X-298.987 Y-488.275 Z16.5 I-3.275
G1 X-299 F850
X-561
G2 X-564.275 Y-485 J3.275
G1 Y-346
G2 X-561 Y-342.725 I3.275
G1 X-299
G2 X-295.725 Y-346 J-3.275
G1 Y-485
G2 X-298.987 Y-488.275 I-3.275
G0 Z23
X-273.194
G1 Z20.5 F333.3
X-292 Z16.503 F350
X-292.013 Z16.5
G2 X-295.275 Y-485 I0.013 J3.275 F850
G1 Y-343
G2 X-292 Y-339.725 I3.275
G1 X-30
G2 X-26.725 Y-343 J-3.275
G1 Y-485
G2 X-30 Y-488.275 I-3.275
G1 X-292
X-292.013
G0 Z23
X-273.194
G1 Z19 F333.3
X-292 Z15.003 F350
X-292.013 Z15
G2 X-295.275 Y-485 I0.013 J3.275 F850
G1 Y-343
G2 X-292 Y-339.725 I3.275
G1 X-30
G2 X-26.725 Y-343 J-3.275
G1 Y-485
G2 X-30 Y-488.275 I-3.275
G1 X-292
X-292.013
G0 Z23
X-295.725 Y-471.313
G1 Z19 F333.3
Y-485 Z16.091 F350
G2 X-298.987 Y-488.275 Z15 I-3.275
G1 X-299 F850
X-561
G2 X-564.275 Y-485 J3.275
G1 Y-346
G2 X-561 Y-342.725 I3.275
G1 X-299
G2 X-295.725 Y-346 J-3.275
G1 Y-485
G2 X-298.987 Y-488.275 I-3.275
G0 Z23
X-564.275 Y-267.819
G1 Z19 F333.3
Y-249 Z15 F350
Y-197 F850
G2 X-561 Y-193.725 I3.275
G1 X-299
G2 X-295.725 Y-197 J-3.275
G1 Y-336
G2 X-299 Y-339.275 I-3.275
G1 X-561
G2 X-564.275 Y-336 J3.275
G1 Y-249
G0 Z23
X-26.725 Y-230.181
G1 Z19 F333.3
Y-249 Z15 F350
Y-336 F850
G2 X-30 Y-339.275 I-3.275
G1 X-292
G2 X-295.275 Y-336 J3.275
G1 Y-191
G2 X-292 Y-187.725 I3.275
G1 X-30
G2 X-26.725 Y-191 J-3.275
G1 Y-249
G0 Z23
Y-230.181
G1 Z17.5 F333.3
Y-249 Z13.5 F350
Y-336 F850
G2 X-30 Y-339.275 I-3.275
G1 X-292
G2 X-295.275 Y-336 J3.275
G1 Y-191
G2 X-292 Y-187.725 I3.275
G1 X-30
G2 X-26.725 Y-191 J-3.275
G1 Y-249
G0 Z23
X-295.275 Y-26.687
G1 Z17.5 F333.3
Y-13 Z14.591 F350
G2 X-292.013 Y-9.725 Z13.5 I3.275
G1 X-292 F850
X-30
G2 X-26.725 Y-13 J-3.275
G1 Y-184
G2 X-30 Y-187.275 I-3.275
G1 X-292
G2 X-295.275 Y-184 J3.275
G1 Y-13
G2 X-292.013 Y-9.725 I3.275
G0 Z23
X-368.182 Y-11.725
G1 Z17.5 F333.3
X-349.364 Z13.5 F350
X-299 F850
G2 X-295.725 Y-15 J-3.275
G1 Y-184
G2 X-299 Y-187.275 I-3.275
G1 X-561
G2 X-564.275 Y-184 J3.275
G1 Y-15
G2 X-561 Y-11.725 I3.275
G1 X-349.364
G0 Z23
X-368.182
G1 Z16 F333.3
X-349.364 Z12 F350
X-299 F850
G2 X-295.725 Y-15 J-3.275
G1 Y-184
G2 X-299 Y-187.275 I-3.275
G1 X-561
G2 X-564.275 Y-184 J3.275
G1 Y-15
G2 X-561 Y-11.725 I3.275
G1 X-349.364
G0 Z23
X-295.275 Y-26.687
G1 Z16 F333.3
Y-13 Z13.091 F350
G2 X-292.013 Y-9.725 Z12 I3.275
G1 X-292 F850
X-30
G2 X-26.725 Y-13 J-3.275
G1 Y-184
G2 X-30 Y-187.275 I-3.275
G1 X-292
G2 X-295.275 Y-184 J3.275
G1 Y-13
G2 X-292.013 Y-9.725 I3.275
G0 Z23
X-564.275 Y-267.819
G1 Z17.5 F333.3
Y-249 Z13.5 F350
Y-197 F850
G2 X-561 Y-193.725 I3.275
G1 X-299
G2 X-295.725 Y-197 J-3.275
G1 Y-336
G2 X-299 Y-339.275 I-3.275
G1 X-561
G2 X-564.275 Y-336 J3.275
G1 Y-249
G0 Z23
X-295.725 Y-471.313
G1 Z17.5 F333.3
Y-485 Z14.591 F350
G2 X-298.987 Y-488.275 Z13.5 I-3.275
G1 X-299 F850
X-561
G2 X-564.275 Y-485 J3.275
G1 Y-346
G2 X-561 Y-342.725 I3.275
G1 X-299
G2 X-295.725 Y-346 J-3.275
G1 Y-485
G2 X-298.987 Y-488.275 I-3.275
G0 Z23
X-273.194
G1 Z17.5 F333.3
X-292 Z13.503 F350
X-292.013 Z13.5
G2 X-295.275 Y-485 I0.013 J3.275 F850
G1 Y-343
G2 X-292 Y-339.725 I3.275
G1 X-30
G2 X-26.725 Y-343 J-3.275
G1 Y-485
G2 X-30 Y-488.275 I-3.275
G1 X-292
X-292.013
G0 Z23
X-273.194
G1 Z16 F333.3
X-292 Z12.003 F350
X-292.013 Z12
G2 X-295.275 Y-485 I0.013 J3.275 F850
G1 Y-343
G2 X-292 Y-339.725 I3.275
G1 X-30
G2 X-26.725 Y-343 J-3.275
G1 Y-485
G2 X-30 Y-488.275 I-3.275
G1 X-292
X-292.013
G0 Z23
X-295.725 Y-471.313
G1 Z16 F333.3
Y-485 Z13.091 F350
G2 X-298.987 Y-488.275 Z12 I-3.275
G1 X-299 F850
X-561
G2 X-564.275 Y-485 J3.275
G1 Y-346
G2 X-561 Y-342.725 I3.275
G1 X-299
G2 X-295.725 Y-346 J-3.275
G1 Y-485
G2 X-298.987 Y-488.275 I-3.275
G0 Z23
X-564.275 Y-267.819
G1 Z16 F333.3
Y-249 Z12 F350
Y-197 F850
G2 X-561 Y-193.725 I3.275
G1 X-299
G2 X-295.725 Y-197 J-3.275
G1 Y-336
G2 X-299 Y-339.275 I-3.275
G1 X-561
G2 X-564.275 Y-336 J3.275
G1 Y-249
G0 Z23
X-26.725 Y-230.181
G1 Z16 F333.3
Y-249 Z12 F350
Y-336 F850
G2 X-30 Y-339.275 I-3.275
G1 X-292
G2 X-295.275 Y-336 J3.275
G1 Y-191
G2 X-292 Y-187.725 I3.275
G1 X-30
G2 X-26.725 Y-191 J-3.275
G1 Y-249
G0 Z23
Y-230.181
G1 Z14.5 F333.3
Y-249 Z10.5 F350
Y-336 F850
G2 X-30 Y-339.275 I-3.275
G1 X-292
G2 X-295.275 Y-336 J3.275
G1 Y-191
G2 X-292 Y-187.725 I3.275
G1 X-30
G2 X-26.725 Y-191 J-3.275
G1 Y-249
G0 Z23
X-295.275 Y-26.687
G1 Z14.5 F333.3
Y-13 Z11.591 F350
G2 X-292.013 Y-9.725 Z10.5 I3.275
G1 X-292 F850
X-30
G2 X-26.725 Y-13 J-3.275
G1 Y-184
G2 X-30 Y-187.275 I-3.275
G1 X-292
G2 X-295.275 Y-184 J3.275
G1 Y-13
G2 X-292.013 Y-9.725 I3.275
G0 Z23
X-368.182 Y-11.725
G1 Z14.5 F333.3
X-349.364 Z10.5 F350
X-299 F850
G2 X-295.725 Y-15 J-3.275
G1 Y-184
G2 X-299 Y-187.275 I-3.275
G1 X-561
G2 X-564.275 Y-184 J3.275
G1 Y-15
G2 X-561 Y-11.725 I3.275
G1 X-349.364
G0 Z23
X-368.182
G1 Z13 F333.3
X-349.364 Z9 F350
X-299 F850
G2 X-295.725 Y-15 J-3.275
G1 Y-184
G2 X-299 Y-187.275 I-3.275
G1 X-561
G2 X-564.275 Y-184 J3.275
G1 Y-15
G2 X-561 Y-11.725 I3.275
G1 X-349.364
G0 Z23
X-295.275 Y-26.687
G1 Z13 F333.3
Y-13 Z10.091 F350
G2 X-292.013 Y-9.725 Z9 I3.275
G1 X-292 F850
X-30
G2 X-26.725 Y-13 J-3.275
G1 Y-184
G2 X-30 Y-187.275 I-3.275
G1 X-292
G2 X-295.275 Y-184 J3.275
G1 Y-13
G2 X-292.013 Y-9.725 I3.275
G0 Z23
X-564.275 Y-267.819
G1 Z14.5 F333.3
Y-249 Z10.5 F350
Y-197 F850
G2 X-561 Y-193.725 I3.275
G1 X-299
G2 X-295.725 Y-197 J-3.275
G1 Y-336
G2 X-299 Y-339.275 I-3.275
G1 X-561
G2 X-564.275 Y-336 J3.275
G1 Y-249
G0 Z23
X-295.725 Y-471.313
G1 Z14.5 F333.3
Y-485 Z11.591 F350
G2 X-298.987 Y-488.275 Z10.5 I-3.275
G1 X-299 F850
X-561
G2 X-564.275 Y-485 J3.275
G1 Y-346
G2 X-561 Y-342.725 I3.275
G1 X-299
G2 X-295.725 Y-346 J-3.275
G1 Y-485
G2 X-298.987 Y-488.275 I-3.275
G0 Z23
X-273.194
G1 Z14.5 F333.3
X-292 Z10.503 F350
X-292.013 Z10.5
G2 X-295.275 Y-485 I0.013 J3.275 F850
G1 Y-343
G2 X-292 Y-339.725 I3.275
G1 X-30
G2 X-26.725 Y-343 J-3.275
G1 Y-485
G2 X-30 Y-488.275 I-3.275
G1 X-292
X-292.013
G0 Z23
X-273.194
G1 Z13 F333.3
X-292 Z9.003 F350
X-292.013 Z9
G2 X-295.275 Y-485 I0.013 J3.275 F850
G1 Y-343
G2 X-292 Y-339.725 I3.275
G1 X-30
G2 X-26.725 Y-343 J-3.275
G1 Y-485
G2 X-30 Y-488.275 I-3.275
G1 X-292
X-292.013
G0 Z23
X-295.725 Y-471.313
G1 Z13 F333.3
Y-485 Z10.091 F350
G2 X-298.987 Y-488.275 Z9 I-3.275
G1 X-299 F850
X-561
G2 X-564.275 Y-485 J3.275
G1 Y-346
G2 X-561 Y-342.725 I3.275
G1 X-299
G2 X-295.725 Y-346 J-3.275
G1 Y-485
G2 X-298.987 Y-488.275 I-3.275
G0 Z23
X-564.275 Y-267.819
G1 Z13 F333.3
Y-249 Z9 F350
Y-197 F850
G2 X-561 Y-193.725 I3.275
G1 X-299
G2 X-295.725 Y-197 J-3.275
G1 Y-336
G2 X-299 Y-339.275 I-3.275
G1 X-561
G2 X-564.275 Y-336 J3.275
G1 Y-249
G0 Z23
X-26.725 Y-230.181
G1 Z13 F333.3
Y-249 Z9 F350
Y-336 F850
G2 X-30 Y-339.275 I-3.275
G1 X-292
G2 X-295.275 Y-336 J3.275
G1 Y-191
G2 X-292 Y-187.725 I3.275
G1 X-30
G2 X-26.725 Y-191 J-3.275
G1 Y-249
G0 Z23
Y-230.181
G1 Z11.5 F333.3
Y-249 Z7.5 F350
Y-336 F850
G2 X-30 Y-339.275 I-3.275
G1 X-292
G2 X-295.275 Y-336 J3.275
G1 Y-191
G2 X-292 Y-187.725 I3.275
G1 X-30
G2 X-26.725 Y-191 J-3.275
G1 Y-249
G0 Z23
X-295.275 Y-26.687
G1 Z11.5 F333.3
Y-13 Z8.591 F350
G2 X-292.013 Y-9.725 Z7.5 I3.275
G1 X-292 F850
X-30
G2 X-26.725 Y-13 J-3.275
G1 Y-184
G2 X-30 Y-187.275 I-3.275
G1 X-292
G2 X-295.275 Y-184 J3.275
G1 Y-13
G2 X-292.013 Y-9.725 I3.275
G0 Z23
X-368.182 Y-11.725
G1 Z11.5 F333.3
X-349.364 Z7.5 F350
X-299 F850
G2 X-295.725 Y-15 J-3.275
G1 Y-184
G2 X-299 Y-187.275 I-3.275
G1 X-561
G2 X-564.275 Y-184 J3.275
G1 Y-15
G2 X-561 Y-11.725 I3.275
G1 X-349.364
G0 Z23
X-368.182
G1 Z10 F333.3
X-349.364 Z6 F350
X-299 F850
G2 X-295.725 Y-15 J-3.275
G1 Y-184
G2 X-299 Y-187.275 I-3.275
G1 X-561
G2 X-564.275 Y-184 J3.275
G1 Y-15
G2 X-561 Y-11.725 I3.275
G1 X-349.364
G0 Z23
X-295.275 Y-26.687
G1 Z10 F333.3
Y-13 Z7.091 F350
G2 X-292.013 Y-9.725 Z6 I3.275
G1 X-292 F850
X-30
G2 X-26.725 Y-13 J-3.275
G1 Y-184
G2 X-30 Y-187.275 I-3.275
G1 X-292
G2 X-295.275 Y-184 J3.275
G1 Y-13
G2 X-292.013 Y-9.725 I3.275
G0 Z23
X-564.275 Y-267.819
G1 Z11.5 F333.3
Y-249 Z7.5 F350
Y-197 F850
G2 X-561 Y-193.725 I3.275
G1 X-299
G2 X-295.725 Y-197 J-3.275
G1 Y-336
G2 X-299 Y-339.275 I-3.275
G1 X-561
G2 X-564.275 Y-336 J3.275
G1 Y-249
G0 Z23
X-295.725 Y-471.313
G1 Z11.5 F333.3
Y-485 Z8.591 F350
G2 X-298.987 Y-488.275 Z7.5 I-3.275
G1 X-299 F850
X-561
G2 X-564.275 Y-485 J3.275
G1 Y-346
G2 X-561 Y-342.725 I3.275
G1 X-299
G2 X-295.725 Y-346 J-3.275
G1 Y-485
G2 X-298.987 Y-488.275 I-3.275
G0 Z23
X-273.194
G1 Z11.5 F333.3
X-292 Z7.503 F350
X-292.013 Z7.5
G2 X-295.275 Y-485 I0.013 J3.275 F850
G1 Y-343
G2 X-292 Y-339.725 I3.275
G1 X-30
G2 X-26.725 Y-343 J-3.275
G1 Y-485
G2 X-30 Y-488.275 I-3.275
G1 X-292
X-292.013
G0 Z23
X-273.194
G1 Z10 F333.3
X-292 Z6.003 F350
X-292.013 Z6
G2 X-295.275 Y-485 I0.013 J3.275 F850
G1 Y-343
G2 X-292 Y-339.725 I3.275
G1 X-30
G2 X-26.725 Y-343 J-3.275
G1 Y-485
G2 X-30 Y-488.275 I-3.275
G1 X-292
X-292.013
G0 Z23
X-295.725 Y-471.313
G1 Z10 F333.3
Y-485 Z7.091 F350
G2 X-298.987 Y-488.275 Z6 I-3.275
G1 X-299 F850
X-561
G2 X-564.275 Y-485 J3.275
G1 Y-346
G2 X-561 Y-342.725 I3.275
G1 X-299
G2 X-295.725 Y-346 J-3.275
G1 Y-485
G2 X-298.987 Y-488.275 I-3.275
G0 Z23
X-564.275 Y-267.819
G1 Z10 F333.3
Y-249 Z6 F350
Y-197 F850
G2 X-561 Y-193.725 I3.275
G1 X-299
G2 X-295.725 Y-197 J-3.275
G1 Y-336
G2 X-299 Y-339.275 I-3.275
G1 X-561
G2 X-564.275 Y-336 J3.275
G1 Y-249
G0 Z23
X-26.725 Y-230.181
G1 Z10 F333.3
Y-249 Z6 F350
Y-336 F850
G2 X-30 Y-339.275 I-3.275
G1 X-292
G2 X-295.275 Y-336 J3.275
G1 Y-191
G2 X-292 Y-187.725 I3.275
G1 X-30
G2 X-26.725 Y-191 J-3.275
G1 Y-249
G0 Z23
Y-230.181
G1 Z8.5 F333.3
Y-249 Z4.5 F350
Y-336 F850
G2 X-30 Y-339.275 I-3.275
G1 X-292
G2 X-295.275 Y-336 J3.275
G1 Y-191
G2 X-292 Y-187.725 I3.275
G1 X-30
G2 X-26.725 Y-191 J-3.275
G1 Y-249
G0 Z23
X-295.275 Y-26.687
G1 Z8.5 F333.3
Y-13 Z5.591 F350
G2 X-292.013 Y-9.725 Z4.5 I3.275
G1 X-292 F850
X-30
G2 X-26.725 Y-13 J-3.275
G1 Y-184
G2 X-30 Y-187.275 I-3.275
G1 X-292
G2 X-295.275 Y-184 J3.275
G1 Y-13
G2 X-292.013 Y-9.725 I3.275
G0 Z23
X-368.182 Y-11.725
G1 Z8.5 F333.3
X-349.364 Z4.5 F350
X-299 F850
G2 X-295.725 Y-15 J-3.275
G1 Y-184
G2 X-299 Y-187.275 I-3.275
G1 X-561
G2 X-564.275 Y-184 J3.275
G1 Y-15
G2 X-561 Y-11.725 I3.275
G1 X-349.364
G0 Z23
X-368.182
G1 Z7 F333.3
X-349.364 Z3 F350
X-299 F850
G2 X-295.725 Y-15 J-3.275
G1 Y-184
G2 X-299 Y-187.275 I-3.275
G1 X-561
G2 X-564.275 Y-184 J3.275
G1 Y-15
G2 X-561 Y-11.725 I3.275
G1 X-349.364
G0 Z23
X-295.275 Y-26.687
G1 Z7 F333.3
Y-13 Z4.091 F350
G2 X-292.013 Y-9.725 Z3 I3.275
G1 X-292 F850
X-30
G2 X-26.725 Y-13 J-3.275
G1 Y-184
G2 X-30 Y-187.275 I-3.275
G1 X-292
G2 X-295.275 Y-184 J3.275
G1 Y-13
G2 X-292.013 Y-9.725 I3.275
G0 Z23
X-564.275 Y-267.819
G1 Z8.5 F333.3
Y-249 Z4.5 F350
Y-197 F850
G2 X-561 Y-193.725 I3.275
G1 X-299
G2 X-295.725 Y-197 J-3.275
G1 Y-336
G2 X-299 Y-339.275 I-3.275
G1 X-561
G2 X-564.275 Y-336 J3.275
G1 Y-249
G0 Z23
X-295.725 Y-471.313
G1 Z8.5 F333.3
Y-485 Z5.591 F350
G2 X-298.987 Y-488.275 Z4.5 I-3.275
G1 X-299 F850
X-561
G2 X-564.275 Y-485 J3.275
G1 Y-346
G2 X-561 Y-342.725 I3.275
G1 X-299
G2 X-295.725 Y-346 J-3.275
G1 Y-485
G2 X-298.987 Y-488.275 I-3.275
G0 Z23
X-273.194
G1 Z8.5 F333.3
X-292 Z4.503 F350
X-292.013 Z4.5
G2 X-295.275 Y-485 I0.013 J3.275 F850
G1 Y-343
G2 X-292 Y-339.725 I3.275
G1 X-30
G2 X-26.725 Y-343 J-3.275
G1 Y-485
G2 X-30 Y-488.275 I-3.275
G1 X-292
X-292.013
G0 Z23
X-273.194
G1 Z7 F333.3
X-292 Z3.003 F350
X-292.013 Z3
G2 X-295.275 Y-485 I0.013 J3.275 F850
G1 Y-343
G2 X-292 Y-339.725 I3.275
G1 X-30
G2 X-26.725 Y-343 J-3.275
G1 Y-485
G2 X-30 Y-488.275 I-3.275
G1 X-292
X-292.013
G0 Z23
X-295.725 Y-471.313
G1 Z7 F333.3
Y-485 Z4.091 F350
G2 X-298.987 Y-488.275 Z3 I-3.275
G1 X-299 F850
X-561
G2 X-564.275 Y-485 J3.275
G1 Y-346
G2 X-561 Y-342.725 I3.275
G1 X-299
G2 X-295.725 Y-346 J-3.275
G1 Y-485
G2 X-298.987 Y-488.275 I-3.275
G0 Z23
X-564.275 Y-267.819
G1 Z7 F333.3
Y-249 Z3 F350
Y-197 F850
G2 X-561 Y-193.725 I3.275
G1 X-299
G2 X-295.725 Y-197 J-3.275
G1 Y-336
G2 X-299 Y-339.275 I-3.275
G1 X-561
G2 X-564.275 Y-336 J3.275
G1 Y-249
G0 Z23
X-26.725 Y-230.181
G1 Z7 F333.3
Y-249 Z3 F350
Y-336 F850
G2 X-30 Y-339.275 I-3.275
G1 X-292
G2 X-295.275 Y-336 J3.275
G1 Y-191
G2 X-292 Y-187.725 I3.275
G1 X-30
G2 X-26.725 Y-191 J-3.275
G1 Y-249
G0 Z23
Y-230.181
G1 Z5.5 F333.3
Y-249 Z1.5 F350
Y-255.925 F850
Z2.5
Y-271.075
Z1.5 F333.3
Y-336 F850
G2 X-30 Y-339.275 I-3.275
G1 X-87.925
Z2.5
X-103.075
Z1.5 F333.3
X-218.925 F850
Z2.5
X-234.075
Z1.5 F333.3
X-292 F850
G2 X-295.275 Y-336 J3.275
G1 Y-274.075
Z2.5
Y-255.925
Z1.5 F333.3
Y-191 F850
G2 X-292 Y-187.725 I3.275
G1 X-234.075
Z2.5
X-218.925
Z1.5 F333.3
X-103.075 F850
Z2.5
X-87.925
Z1.5 F333.3
X-30 F850
G2 X-26.725 Y-191 J-3.275
G1 Y-249
G0 Z23
X-295.275 Y-26.687
G1 Z5.5 F333.3
Y-13 Z2.591 F350
G2 X-292.013 Y-9.725 Z1.5 I3.275
G1 X-292 F850
X-234.075
Z2.5
X-218.925
Z1.5 F333.3
X-103.075 F850
Z2.5
X-87.925
Z1.5 F333.3
X-30 F850
G2 X-26.725 Y-13 J-3.275
G1 Y-90.925
Z2.5
Y-106.075
Z1.5 F333.3
Y-184 F850
G2 X-30 Y-187.275 I-3.275
G1 X-87.925
Z2.5
X-103.075
Z1.5 F333.3
X-218.925 F850
Z2.5
X-234.075
Z1.5 F333.3
X-292 F850
G2 X-295.275 Y-184 J3.275
G1 Y-107.075
Z2.5
Y-90.925
Z1.5 F333.3
Y-13 F850
G2 X-292.013 Y-9.725 I3.275
G0 Z23
X-368.182 Y-11.725
G1 Z5.5 F333.3
X-349.364 Z1.5 F350
X-299 F850
G2 X-295.725 Y-15 J-3.275
G1 Y-90.925
Z2.5
Y-107.075
Z1.5 F333.3
Y-184 F850
G2 X-299 Y-187.275 I-3.275
G1 X-356.925
Z2.5
X-372.075
Z1.5 F333.3
X-487.925 F850
Z2.5
X-503.075
Z1.5 F333.3
X-561 F850
G2 X-564.275 Y-184 J3.275
G1 Y-107.075
Z2.5
Y-91.925
Z1.5 F333.3
Y-15 F850
G2 X-561 Y-11.725 I3.275
G1 X-503.075
Z2.5
X-487.925
Z1.5 F333.3
X-372.075 F850
Z2.5
X-356.925
Z1.5 F333.3
X-349.364 F850
G0 Z23
X-367.241
G1 Z4 F333.3
X-360.184 Z2.5 F350
X-356.925
Z1.807 F333.3
X-349.364 Z0.2 F350
X-299 F850
G2 X-295.725 Y-15 J-3.275
G1 Y-90.925
Z2.5
Y-107.075
Z0.2 F333.3
Y-184 F850
G2 X-299 Y-187.275 I-3.275
G1 X-356.925
Z2.5
X-372.075
Z0.2 F333.3
X-487.925 F850
Z2.5
X-503.075
Z0.2 F333.3
X-561 F850
G2 X-564.275 Y-184 J3.275
G1 Y-107.075
Z2.5
Y-91.925
Z0.2 F333.3
Y-15 F850
G2 X-561 Y-11.725 I3.275
G1 X-503.075
Z2.5
X-487.925
Z0.2 F333.3
X-372.075 F850
Z2.5
X-356.925
Z0.2 F333.3
X-349.364 F850
G0 Z23
X-295.275 Y-25.746
G1 Z4 F333.3
Y-13 Z1.291 F350
G2 X-292.013 Y-9.725 Z0.2 I3.275
G1 X-292 F850
X-234.075
Z2.5
X-218.925
Z0.2 F333.3
X-103.075 F850
Z2.5
X-87.925
Z0.2 F333.3
X-30 F850
G2 X-26.725 Y-13 J-3.275
G1 Y-90.925
Z2.5
Y-106.075
Z0.2 F333.3
Y-184 F850
G2 X-30 Y-187.275 I-3.275
G1 X-87.925
Z2.5
X-103.075
Z0.2 F333.3
X-218.925 F850
Z2.5
X-234.075
Z0.2 F333.3
X-292 F850
G2 X-295.275 Y-184 J3.275
G1 Y-107.075
Z2.5
Y-90.925
Z0.2 F333.3
Y-13 F850
G2 X-292.013 Y-9.725 I3.275
G0 Z23
X-564.275 Y-267.819
G1 Z5.5 F333.3
Y-249 Z1.5 F350
Y-197 F850
G2 X-561 Y-193.725 I3.275
G1 X-503.075
Z2.5
X-487.925
Z1.5 F333.3
X-372.075 F850
Z2.5
X-356.925
Z1.5 F333.3
X-299 F850
G2 X-295.725 Y-197 J-3.275
G1 Y-255.925
Z2.5
Y-274.075
Z1.5 F333.3
Y-336 F850
G2 X-299 Y-339.275 I-3.275
G1 X-356.925
Z2.5
X-372.075
Z1.5 F333.3
X-487.925 F850
Z2.5
X-503.075
Z1.5 F333.3
X-561 F850
G2 X-564.275 Y-336 J3.275
G1 Y-274.075
Z2.5
Y-258.925
Z1.5 F333.3
Y-249 F850
G0 Z23
X-295.725 Y-471.313
G1 Z5.5 F333.3
Y-485 Z2.591 F350
G2 X-298.987 Y-488.275 Z1.5 I-3.275
G1 X-299 F850
X-356.925
Z2.5
X-372.075
Z1.5 F333.3
X-487.925 F850
Z2.5
X-503.075
Z1.5 F333.3
X-561 F850
G2 X-564.275 Y-485 J3.275
G1 Y-423.075
Z2.5
Y-407.925
Z1.5 F333.3
Y-346 F850
G2 X-561 Y-342.725 I3.275
G1 X-503.075
Z2.5
X-487.925
Z1.5 F333.3
X-372.075 F850
Z2.5
X-356.925
Z1.5 F333.3
X-299 F850
G2 X-295.725 Y-346 J-3.275
G1 Y-406.425
Z2.5
Y-423.075
Z1.5 F333.3
Y-485 F850
G2 X-298.987 Y-488.275 I-3.275
G0 Z23
X-273.194
G1 Z5.5 F333.3
X-292 Z1.503 F350
X-292.013 Z1.5
G2 X-295.275 Y-485 I0.013 J3.275 F850
G1 Y-423.075
Z2.5
Y-406.425
Z1.5 F333.3
Y-343 F850
G2 X-292 Y-339.725 I3.275
G1 X-234.075
Z2.5
X-218.925
Z1.5 F333.3
X-103.075 F850
Z2.5
X-87.925
Z1.5 F333.3
X-30 F850
G2 X-26.725 Y-343 J-3.275
G1 Y-406.425
Z2.5
Y-421.575
Z1.5 F333.3
Y-485 F850
G2 X-30 Y-488.275 I-3.275
G1 X-87.925
Z2.5
X-103.075
Z1.5 F333.3
X-218.925 F850
Z2.5
X-234.075
Z1.5 F333.3
X-292 F850
X-292.013
G0 Z23
X-274.135
G1 Z4 F333.3
X-292 Z0.203 F350
X-292.013 Z0.2
G2 X-295.275 Y-485 I0.013 J3.275 F850
G1 Y-423.075
Z2.5
Y-406.425
Z0.2 F333.3
Y-343 F850
G2 X-292 Y-339.725 I3.275
G1 X-234.075
Z2.5
X-218.925
Z0.2 F333.3
X-103.075 F850
Z2.5
X-87.925
Z0.2 F333.3
X-30 F850
G2 X-26.725 Y-343 J-3.275
G1 Y-406.425
Z2.5
Y-421.575
Z0.2 F333.3
Y-485 F850
G2 X-30 Y-488.275 I-3.275
G1 X-87.925
Z2.5
X-103.075
Z0.2 F333.3
X-218.925 F850
Z2.5
X-234.075
Z0.2 F333.3
X-292 F850
X-292.013
G0 Z23
X-295.725 Y-472.254
G1 Z4 F333.3
Y-485 Z1.291 F350
G2 X-298.987 Y-488.275 Z0.2 I-3.275
G1 X-299 F850
X-356.925
Z2.5
X-372.075
Z0.2 F333.3
X-487.925 F850
Z2.5
X-503.075
Z0.2 F333.3
X-561 F850
G2 X-564.275 Y-485 J3.275
G1 Y-423.075
Z2.5
Y-407.925
Z0.2 F333.3
Y-346 F850
G2 X-561 Y-342.725 I3.275
G1 X-503.075
Z2.5
X-487.925
Z0.2 F333.3
X-372.075 F850
Z2.5
X-356.925
Z0.2 F333.3
X-299 F850
G2 X-295.725 Y-346 J-3.275
G1 Y-406.425
Z2.5
Y-423.075
Z0.2 F333.3
Y-485 F850
G2 X-298.987 Y-488.275 I-3.275
G0 Z23
X-564.275 Y-266.878
G1 Z4 F333.3
Y-259.821 Z2.5 F350
Y-258.925
Z2.31 F333.3
Y-249 Z0.2 F350
Y-197 F850
G2 X-561 Y-193.725 I3.275
G1 X-503.075
Z2.5
X-487.925
Z0.2 F333.3
X-372.075 F850
Z2.5
X-356.925
Z0.2 F333.3
X-299 F850
G2 X-295.725 Y-197 J-3.275
G1 Y-255.925
Z2.5
Y-274.075
Z0.2 F333.3
Y-336 F850
G2 X-299 Y-339.275 I-3.275
G1 X-356.925
Z2.5
X-372.075
Z0.2 F333.3
X-487.925 F850
Z2.5
X-503.075
Z0.2 F333.3
X-561 F850
G2 X-564.275 Y-336 J3.275
G1 Y-274.075
Z2.5
Y-258.925
Z0.2 F333.3
Y-249 F850
G0 Z23
X-26.725 Y-231.122
G1 Z4 F333.3
Y-249 Z0.2 F350
Y-255.925 F850
Z2.5
Y-271.075
Z0.2 F333.3
Y-336 F850
G2 X-30 Y-339.275 I-3.275
G1 X-87.925
Z2.5
X-103.075
Z0.2 F333.3
X-218.925 F850
Z2.5
X-234.075
Z0.2 F333.3
X-292 F850
G2 X-295.275 Y-336 J3.275
G1 Y-274.075
Z2.5
Y-255.925
Z0.2 F333.3
Y-191 F850
G2 X-292 Y-187.725 I3.275
G1 X-234.075
Z2.5
X-218.925
Z0.2 F333.3
X-103.075 F850
Z2.5
X-87.925
Z0.2 F333.3
X-30 F850
G2 X-26.725 Y-191 J-3.275
G1 Y-249
G0 Z33

(2D Contour13 2)
S7500 M3
X-298.764 Y-193.934
Z33
Z23
G1 Z19 F333.3
Z0
G2 X-295.925 Y-197 I-0.236 J-3.066 F850
G1 Y-255.925
Z2.5
Y-274.075
Z0 F333.3
Y-336 F850
G2 X-299 Y-339.075 I-3.075
G1 X-356.925
Z2.5
X-372.075
Z0 F333.3
X-487.925 F850
Z2.5
X-503.075
Z0 F333.3
X-561 F850
G2 X-564.075 Y-336 J3.075
G1 Y-274.075
Z2.5
Y-258.925
Z0 F333.3
Y-197 F850
G2 X-561 Y-193.925 I3.075
G1 X-503.075
Z2.5
X-487.925
Z0 F333.3
X-372.075 F850
Z2.5
X-356.925
Z0 F333.3
X-299 F850
X-298.882 Y-193.927
X-298.764 Y-193.934
G0 Z23
X-295.075 Y-191
G1 Z19 F333.3
Z0
G2 X-292 Y-187.925 I3.075 F850
G1 X-234.075
Z2.5
X-218.925
Z0 F333.3
X-103.075 F850
Z2.5
X-87.925
Z0 F333.3
X-30 F850
G2 X-26.925 Y-191 J-3.075
G1 Y-255.925
Z2.5
Y-271.075
Z0 F333.3
Y-336 F850
G2 X-30 Y-339.075 I-3.075
G1 X-87.925
Z2.5
X-103.075
Z0 F333.3
X-218.925 F850
Z2.5
X-234.075
Z0 F333.3
X-292 F850
G2 X-295.075 Y-336 J3.075
G1 Y-274.075
Z2.5
Y-255.925
Z0 F333.3
Y-191 F850
G0 Z23
X-294.174 Y-186.174
G1 Z19 F333.3
Z0
G2 X-295.075 Y-184 I2.174 J2.174 F850
G1 Y-107.075
Z2.5
Y-90.925
Z0 F333.3
Y-13 F850
G2 X-292 Y-9.925 I3.075
G1 X-234.075
Z2.5
X-218.925
Z0 F333.3
X-103.075 F850
Z2.5
X-87.925
Z0 F333.3
X-30 F850
G2 X-26.925 Y-13 J-3.075
G1 Y-90.925
Z2.5
Y-106.075
Z0 F333.3
Y-184 F850
G2 X-30 Y-187.075 I-3.075
G1 X-87.925
Z2.5
X-103.075
Z0 F333.3
X-218.925 F850
Z2.5
X-234.075
Z0 F333.3
X-292 F850
G2 X-294.174 Y-186.174 J3.075
G0 Z23
X-298.764 Y-187.066
G1 Z19 F333.3
Z0
X-298.882 Y-187.073 F850
X-299 Y-187.075
X-356.925
Z2.5
X-372.075
Z0 F333.3
X-487.925 F850
Z2.5
X-503.075
Z0 F333.3
X-561 F850
G2 X-564.075 Y-184 J3.075
G1 Y-107.075
Z2.5
Y-91.925
Z0 F333.3
Y-15 F850
G2 X-561 Y-11.925 I3.075
G1 X-503.075
Z2.5
X-487.925
Z0 F333.3
X-372.075 F850
Z2.5
X-356.925
Z0 F333.3
X-299 F850
G2 X-295.925 Y-15 J-3.075
G1 Y-90.925
Z2.5
Y-107.075
Z0 F333.3
Y-184 F850
G2 X-298.764 Y-187.066 I-3.075
G0 Z23
X-294.855 Y-341.858
G1 Z19 F333.3
Z0
G2 X-292 Y-339.925 I2.855 J-1.142 F850
G1 X-234.075
Z2.5
X-218.925
Z0 F333.3
X-103.075 F850
Z2.5
X-87.925
Z0 F333.3
X-30 F850
G2 X-26.925 Y-343 J-3.075
G1 Y-406.425
Z2.5
Y-421.575
Z0 F333.3
Y-485 F850
G2 X-30 Y-488.075 I-3.075
G1 X-87.925
Z2.5
X-103.075
Z0 F333.3
X-218.925 F850
Z2.5
X-234.075
Z0 F333.3
X-292 F850
G2 X-295.075 Y-485 J3.075
G1 Y-423.075
Z2.5
Y-406.425
Z0 F333.3
Y-343 F850
G2 X-294.855 Y-341.858 I3.075
G0 Z23
X-297.858 Y-343.145
G1 Z19 F333.3
Z0
G2 X-295.925 Y-346 I-1.142 J-2.855 F850
G1 Y-406.425
Z2.5
Y-423.075
Z0 F333.3
Y-485 F850
G2 X-299 Y-488.075 I-3.075
G1 X-356.925
Z2.5
X-372.075
Z0 F333.3
X-487.925 F850
Z2.5
X-503.075
Z0 F333.3
X-561 F850
G2 X-564.075 Y-485 J3.075
G1 Y-423.075
Z2.5
Y-407.925
Z0 F333.3
Y-346 F850
G2 X-561 Y-342.925 I3.075
G1 X-503.075
Z2.5
X-487.925
Z0 F333.3
X-372.075 F850
Z2.5
X-356.925
Z0 F333.3
X-299 F850
G2 X-297.858 Y-343.145 J-3.075
G0 Z33
M9
M30
%
