%
(1001)
(origin stock bottom)
(T1  D=12.7 CR=0 TAPER=45deg - ZMIN=14 - chamfer mill)
G90 G94
G17
G21

(2D Chamfer2)
M9
T1 M6
S12000 M3
G54
G0 X-219.5 Y-322.802
Z33
Z23
G1 Z20 F283.2
Z15
X-43.198 F849.6
Y-204.198
X-278.802
Y-322.802
X-219.5
G0 Z23
X-43.198 Y-414
G1 Z20 F283.2
Z15
Y-356.198 F849.6
X-278.802
Y-471.802
X-43.198
Y-414
G0 Z23
Y-98.5
G1 Z20 F283.2
Z15
Y-26.198 F849.6
X-278.802
Y-170.802
X-43.198
Y-98.5
G0 Z23
X-476.5 Y-170.802
G1 Z20 F283.2
Z15
X-312.198 F849.6
Y-28.198
X-547.802
Y-170.802
X-476.5
G0 Z23
X-312.198 Y-266.5
G1 Z20 F283.2
Z15
Y-210.198 F849.6
X-547.802
Y-322.802
X-312.198
Y-266.5
G0 Z23
X-491.5 Y-471.802
G1 Z20 F283.2
Z15
X-312.198 F849.6
Y-359.198
X-547.802
Y-471.802
X-491.5
G0 Z33

(2D Chamfer2 2)
X-273.158 Y-209.879
Z33
Z23
G1 Z20 F283.2
Z14
X-273.126 Y-209.847 F849.6
X-273.088 Y-209.822
X-273.045 Y-209.807
X-273 Y-209.802
X-49
G2 X-48.802 Y-210 J-0.198
G1 Y-317
G2 X-49 Y-317.198 I-0.198
G1 X-273
G2 X-273.198 Y-317 J0.198
G1 Y-210
X-273.194 Y-209.957
X-273.18 Y-209.916
X-273.158 Y-209.879
G0 Z23
X-273.14 Y-165.14
G1 Z20 F283.2
Z14
X-273.172 Y-165.099 F849.6
X-273.192 Y-165.051
X-273.198 Y-165
Y-32
G2 X-273 Y-31.802 I0.198
G1 X-49
G2 X-48.802 Y-32 J-0.198
G1 Y-165
G2 X-49 Y-165.198 I-0.198
G1 X-273
X-273.051 Y-165.192
X-273.099 Y-165.172
X-273.14 Y-165.14
G0 Z23
X-317.879 Y-165.158
G1 Z20 F283.2
Z14
X-317.916 Y-165.18 F849.6
X-317.957 Y-165.194
X-318 Y-165.198
X-542
G2 X-542.198 Y-165 J0.198
G1 Y-34
G2 X-542 Y-33.802 I0.198
G1 X-318
G2 X-317.802 Y-34 J-0.198
G1 Y-165
X-317.807 Y-165.045
X-317.822 Y-165.088
X-317.847 Y-165.126
X-317.879 Y-165.158
G0 Z23
Y-215.842
G1 Z20 F283.2
Z14
X-317.847 Y-215.874 F849.6
X-317.822 Y-215.912
X-317.807 Y-215.955
X-317.802 Y-216
Y-317
G2 X-318 Y-317.198 I-0.198
G1 X-542
G2 X-542.198 Y-317 J0.198
G1 Y-216
G2 X-542 Y-215.802 I0.198
G1 X-318
X-317.957 Y-215.806
X-317.916 Y-215.82
X-317.879 Y-215.842
G0 Z23
X-317.869 Y-364.851
G1 Z20 F283.2
Z14
X-317.833 Y-364.893 F849.6
X-317.81 Y-364.944
X-317.802 Y-365
Y-466
G2 X-318 Y-466.198 I-0.198
G1 X-542
G2 X-542.198 Y-466 J0.198
G1 Y-365
G2 X-542 Y-364.802 I0.198
G1 X-318
X-317.953 Y-364.807
X-317.909 Y-364.824
X-317.869 Y-364.851
G0 Z23
X-273.198 Y-362
G1 Z20 F283.2
Z14
G2 X-273 Y-361.802 I0.198 F849.6
G1 X-49
G2 X-48.802 Y-362 J-0.198
G1 Y-466
G2 X-49 Y-466.198 I-0.198
G1 X-273
G2 X-273.198 Y-466 J0.198
G1 Y-362
G0 Z33
M30
%
