%
(1001)
(origin stock bottom)
(T1  D=6.15 CR=0 - ZMIN=21 - flat end mill)
G90 G94
G17
G21

(Bore4)
M9
T1 M6
S6000 M3
G54
G0 X-295.615 Y-23.388
Z59
Z46
G1 Z44.615 F850
G19 G2 Y-24.003 Z44 J-0.615
G1 Y-24.31
G17 G3 X-295 Y-24.925 I0.615
Y-19.075 Z43.5 J2.925
Y-24.925 Z43 J-2.925
Y-19.075 Z42.5 J2.925
Y-24.925 Z42 J-2.925
Y-19.075 Z41.5 J2.925
Y-24.925 Z41 J-2.925
Y-19.075 Z40.5 J2.925
Y-24.925 Z40 J-2.925
Y-19.075 Z39.5 J2.925
Y-24.925 Z39 J-2.925
Y-19.075 Z38.5 J2.925
Y-24.925 Z38 J-2.925
Y-19.075 Z37.5 J2.925
Y-24.925 Z37 J-2.925
Y-19.075 Z36.5 J2.925
Y-24.925 Z36 J-2.925
Y-19.075 Z35.5 J2.925
Y-24.925 Z35 J-2.925
Y-19.075 Z34.5 J2.925
Y-24.925 Z34 J-2.925
Y-19.075 Z33.5 J2.925
Y-24.925 Z33 J-2.925
Y-19.075 Z32.5 J2.925
Y-24.925 Z32 J-2.925
Y-19.075 Z31.5 J2.925
Y-24.925 Z31 J-2.925
Y-19.075 Z30.5 J2.925
Y-24.925 Z30 J-2.925
Y-19.075 Z29.5 J2.925
Y-24.925 Z29 J-2.925
Y-19.075 Z28.5 J2.925
Y-24.925 Z28 J-2.925
Y-19.075 Z27.5 J2.925
Y-24.925 Z27 J-2.925
Y-19.075 Z26.5 J2.925
Y-24.925 Z26 J-2.925
Y-19.075 Z25.5 J2.925
Y-24.925 Z25 J-2.925
Y-19.075 Z24.5 J2.925
Y-24.925 Z24 J-2.925
Y-19.075 Z23.5 J2.925
Y-24.925 Z23 J-2.925
Y-19.075 Z22.5 J2.925
Y-24.925 Z22 J-2.925
Y-19.075 Z21.5 J2.925
Y-24.925 Z21 J-2.925
Y-19.075 J2.925
Y-24.925 J-2.925
X-294.385 Y-24.31 J0.615
G1 Y-24.003
G19 G3 Y-23.388 Z21.615 K0.615
G0 Z49
X-595.615
Z46
G1 Z44.615 F850
G2 Y-24.003 Z44 J-0.615
G1 Y-24.31
G17 G3 X-595 Y-24.925 I0.615
Y-19.075 Z43.5 J2.925
Y-24.925 Z43 J-2.925
Y-19.075 Z42.5 J2.925
Y-24.925 Z42 J-2.925
Y-19.075 Z41.5 J2.925
Y-24.925 Z41 J-2.925
Y-19.075 Z40.5 J2.925
Y-24.925 Z40 J-2.925
Y-19.075 Z39.5 J2.925
Y-24.925 Z39 J-2.925
Y-19.075 Z38.5 J2.925
Y-24.925 Z38 J-2.925
Y-19.075 Z37.5 J2.925
Y-24.925 Z37 J-2.925
Y-19.075 Z36.5 J2.925
Y-24.925 Z36 J-2.925
Y-19.075 Z35.5 J2.925
Y-24.925 Z35 J-2.925
Y-19.075 Z34.5 J2.925
Y-24.925 Z34 J-2.925
Y-19.075 Z33.5 J2.925
Y-24.925 Z33 J-2.925
Y-19.075 Z32.5 J2.925
Y-24.925 Z32 J-2.925
Y-19.075 Z31.5 J2.925
Y-24.925 Z31 J-2.925
Y-19.075 Z30.5 J2.925
Y-24.925 Z30 J-2.925
Y-19.075 Z29.5 J2.925
Y-24.925 Z29 J-2.925
Y-19.075 Z28.5 J2.925
Y-24.925 Z28 J-2.925
Y-19.075 Z27.5 J2.925
Y-24.925 Z27 J-2.925
Y-19.075 Z26.5 J2.925
Y-24.925 Z26 J-2.925
Y-19.075 Z25.5 J2.925
Y-24.925 Z25 J-2.925
Y-19.075 Z24.5 J2.925
Y-24.925 Z24 J-2.925
Y-19.075 Z23.5 J2.925
Y-24.925 Z23 J-2.925
Y-19.075 Z22.5 J2.925
Y-24.925 Z22 J-2.925
Y-19.075 Z21.5 J2.925
Y-24.925 Z21 J-2.925
Y-19.075 J2.925
Y-24.925 J-2.925
X-594.385 Y-24.31 J0.615
G1 Y-24.003
G19 G3 Y-23.388 Z21.615 K0.615
G0 Z59
G17
M30
%
