%
(1001)
(origin stock top)
(T1  D=12.7 CR=0 TAPER=45deg - ZMIN=13.308 - chamfer mill)
G90 G94
G17
G21

(Engrave1)
M9
T1 M6
S12000 M3
G54
G0 X-129.909 Y-185.797
Z33
Z23
G1 Z18 F849.6
X-129.254 Y-185.531 Z17.566
X-128.636 Y-185.276 Z17.158
X-128.04 Y-185.023 Z16.768
X-127.757 Y-184.9 Z16.585
X-127.484 Y-184.779 Z16.409
X-126.955 Y-184.536 Z16.072
X-126.709 Y-184.419 Z15.917
X-126.47 Y-184.302 Z15.769
X-126.043 Y-184.086 Z15.507
X-126.089 Y-183.891 Z15.644
X-126.209 Y-183.366 Z16.01
X-126.316 Y-182.871 Z16.351
X-126.416 Y-182.385 Z16.681
X-126.598 Y-181.455 Z17.303
X-126.767 Y-180.548 Z17.902
X-126.794 Y-180.4 Z18
X-126.767 Y-180.548 Z17.902
X-126.598 Y-181.455 Z17.303
X-126.416 Y-182.385 Z16.681
X-126.316 Y-182.871 Z16.351
X-126.209 Y-183.366 Z16.01
X-126.089 Y-183.891 Z15.644
X-126.043 Y-184.086 Z15.507
X-125.794 Y-184.172 Z15.57
X-125.523 Y-184.26 Z15.636
X-125.31 Y-184.326 Z15.689
X-124.977 Y-184.423 Z15.769
X-124.554 Y-184.536 Z15.864
X-124.134 Y-184.638 Z15.952
X-123.878 Y-184.694 Z16.001
X-123.691 Y-184.722 Z16.047
X-123.264 Y-184.777 Z16.144
X-122.846 Y-184.823 Z16.233
X-122.513 Y-184.854 Z16.298
X-122.032 Y-184.891 Z16.387
X-121.773 Y-184.906 Z16.432
X-121.258 Y-184.931 Z16.519
X-120.876 Y-184.943 Z16.58
X-120.321 Y-184.954 Z16.668
X-119.789 Y-184.957 Z16.756
X-119.698 Y-184.956 Z16.77
X-119.607 Y-184.952 Z16.781
X-119.495 Y-184.942 Z16.791
X-119.384 Y-184.928 Z16.797
X-118.917 Y-184.857 Z16.813
X-118.376 Y-184.764 Z16.838
X-118.241 Y-184.74 Z16.843
X-118.009 Y-184.694 Z16.855
X-117.657 Y-184.621 Z16.87
X-117.34 Y-184.546 Z16.885
X-116.985 Y-184.455 Z16.898
X-116.635 Y-184.352 Z16.911
X-116.299 Y-184.244 Z16.918
X-115.932 Y-184.107 Z16.927
X-115.689 Y-184.009 Z16.925
X-115.577 Y-183.96 Z16.927
X-115.231 Y-183.798 Z16.924
X-115.157 Y-183.761 Z16.921
X-114.882 Y-183.614 Z16.913
X-114.543 Y-183.419 Z16.895
X-114.221 Y-183.213 Z16.874
X-113.958 Y-183.036 Z16.849
X-113.606 Y-182.78 Z16.817
X-113.414 Y-182.633 Z16.794
X-113.305 Y-182.547 Z16.782
X-113.022 Y-182.316 Z16.748
X-112.88 Y-182.198 Z16.729
X-112.473 Y-181.843 Z16.675
X-112.353 Y-181.737 Z16.658
X-111.948 Y-181.367 Z16.603
X-111.7 Y-181.135 Z16.569
X-111.61 Y-181.047 Z16.555
X-111.522 Y-180.954 Z16.536
X-111.438 Y-180.858 Z16.512
X-110.866 Y-180.171 Z16.333
X-110.4 Y-179.6 Z16.189
X-110.053 Y-179.169 Z16.08
X-109.709 Y-178.736 Z15.971
X-109.588 Y-178.581 Z15.931
X-109.391 Y-178.274 Z15.89
X-109.09 Y-177.797 Z15.823
X-108.79 Y-177.311 Z15.751
X-108.496 Y-176.823 Z15.677
X-108.199 Y-176.313 Z15.594
X-107.925 Y-175.829 Z15.511
X-107.63 Y-175.285 Z15.416
X-107.354 Y-174.757 Z15.322
X-107.159 Y-174.372 Z15.251
X-106.838 Y-173.712 Z15.132
X-106.593 Y-173.182 Z15.038
X-106.479 Y-172.93 Z14.992
X-106.361 Y-172.66 Z14.946
X-106.174 Y-172.225 Z14.87
X-106.135 Y-172.131 Z14.856
X-105.911 Y-171.58 Z14.766
X-105.63 Y-170.845 Z14.656
X-105.387 Y-170.162 Z14.567
X-105.173 Y-169.524 Z14.493
X-104.936 Y-168.772 Z14.418
X-104.722 Y-168.054 Z14.358
X-104.515 Y-167.326 Z14.308
X-104.313 Y-166.582 Z14.266
X-104.115 Y-165.821 Z14.231
X-103.919 Y-165.045 Z14.203
X-103.726 Y-164.256 Z14.179
X-103.535 Y-163.454 Z14.16
X-103.345 Y-162.637 Z14.145
X-102.981 Y-161.055 Z14.12
X-100.602 Y-149.483 Z14.214
X-100.54 Y-149.206 Z14.211
X-100.485 Y-148.992 Z14.202
X-100.424 Y-148.78 Z14.187
X-100.357 Y-148.569 Z14.165
X-100.284 Y-148.359 Z14.138
X-100.205 Y-148.151 Z14.104
X-100.12 Y-147.943 Z14.065
X-100.115 Y-147.712 Z14.109
X-100.105 Y-147.482 Z14.146
X-100.087 Y-147.254 Z14.177
X-100.063 Y-147.026 Z14.201
X-100.033 Y-146.8 Z14.219
X-99.997 Y-146.576 Z14.23
X-99.954 Y-146.353 Z14.235
X-98.605 Y-139.831 Z14.28
X-98.391 Y-138.806 Z14.289
X-98.067 Y-137.236 Z14.3
X-97.852 Y-136.174 Z14.303
X-97.641 Y-135.104 Z14.3
X-97.433 Y-134.019 Z14.291
X-97.332 Y-133.474 Z14.284
X-97.232 Y-132.919 Z14.274
X-97.135 Y-132.371 Z14.261
X-97.04 Y-131.823 Z14.247
X-96.946 Y-131.26 Z14.229
X-96.855 Y-130.702 Z14.208
X-96.769 Y-130.153 Z14.186
X-96.683 Y-129.6 Z14.161
X-96.521 Y-128.52 Z14.109
X-96.287 Y-126.923 Z14.025
X-96.258 Y-126.701 Z14.01
X-96.235 Y-126.478 Z13.99
X-96.217 Y-126.253 Z13.963
X-96.206 Y-126.028 Z13.93
X-96.2 Y-125.801 Z13.891
X-96.193 Y-125.143 Z13.769
Y-124.765 Z13.695
X-96.197 Y-124.353 Z13.611
X-96.207 Y-123.915 Z13.515
X-96.227 Y-123.432 Z13.401
X-96.241 Y-123.181 Z13.337
X-96.249 Y-123.07 Z13.308
X-90.304 Y-117.259 Z17.999
X-96.249 Y-123.07 Z13.308
X-96.594 Y-122.87 Z13.565
X-96.745 Y-122.786 Z13.674
X-97.231 Y-122.522 Z14.018
X-97.414 Y-122.43 Z14.141
X-97.889 Y-122.196 Z14.454
X-98.071 Y-122.112 Z14.567
X-98.353 Y-121.988 Z14.739
X-98.539 Y-121.908 Z14.85
X-98.725 Y-121.834 Z14.955
X-98.997 Y-121.729 Z15.106
X-99.191 Y-121.658 Z15.209
X-99.383 Y-121.594 Z15.305
X-99.649 Y-121.51 Z15.435
X-99.822 Y-121.458 Z15.516
X-99.993 Y-121.412 Z15.591
X-100.394 Y-121.313 Z15.758
X-100.53 Y-121.284 Z15.81
X-100.911 Y-121.21 Z15.949
X-101.025 Y-121.192 Z15.986
X-101.295 Y-121.153 Z16.072
X-101.468 Y-121.131 Z16.124
X-101.742 Y-121.102 Z16.2
X-101.881 Y-121.089 Z16.236
X-102.272 Y-121.063 Z16.33
X-102.644 Y-121.047 Z16.41
X-103.003 Y-121.04 Z16.479
X-103.349 Z16.54
X-103.685 Y-121.044 Z16.594
X-104.017 Y-121.05 Z16.645
X-104.654 Y-121.069 Z16.738
X-104.761 Y-121.074 Z16.751
X-104.868 Y-121.083 Z16.761
X-106.019 Y-121.206 Z16.84
X-106.725 Y-121.285 Z16.885
X-107.43 Y-121.37 Z16.923
X-107.9 Y-121.43 Z16.945
X-108.591 Y-121.524 Z16.973
X-108.751 Y-121.547 Z16.979
X-109.611 Y-120.662 Z17.999
X-108.751 Y-121.547 Z16.979
X-109.032 Y-121.802 Z17.202
X-109.663 Y-122.378 Z17.704
X-110.036 Y-122.72 Z18
G0 Z23
X-100.12 Y-147.943
G1 Z14.065 F849.6
X-99.633 Y-148.041 Z14.518
X-99.17 Y-148.133 Z14.937
X-98.946 Y-148.178 Z15.134
X-98.727 Y-148.222 Z15.323
X-98.512 Y-148.265 Z15.503
X-98.301 Y-148.307 Z15.673
X-98.093 Y-148.349 Z15.834
X-97.888 Y-148.39 Z15.984
X-97.685 Y-148.431 Z16.123
X-97.584 Y-148.451 Z16.187
X-97.484 Y-148.471 Z16.248
X-97.384 Y-148.491 Z16.304
X-97.285 Y-148.511 Z16.357
X-97.186 Y-148.53 Z16.406
X-97.087 Y-148.55 Z16.45
X-96.988 Y-148.57 Z16.489
X-96.889 Y-148.59 Z16.522
X-96.791 Y-148.609 Z16.551
X-96.693 Y-148.629 Z16.573
X-96.536 Y-148.656 Z16.601
X-96.38 Y-148.676 Z16.62
X-96.224 Y-148.688 Z16.632
X-96.068 Y-148.691 Z16.636
X-72.591
X-72.435 Y-148.695 Z16.632
X-72.279 Y-148.707 Z16.62
X-72.122 Y-148.727 Z16.601
X-71.966 Y-148.754 Z16.573
X-71.866 Y-148.774 Z16.55
X-71.766 Y-148.794 Z16.522
X-71.666 Y-148.814 Z16.487
X-71.566 Y-148.834 Z16.447
X-71.466 Y-148.854 Z16.402
X-71.365 Y-148.874 Z16.353
X-71.265 Y-148.894 Z16.299
X-71.163 Y-148.915 Z16.241
X-71.062 Y-148.935 Z16.179
X-70.857 Y-148.976 Z16.044
X-70.754 Y-148.996 Z15.972
X-70.546 Y-149.038 Z15.819
X-70.335 Y-149.08 Z15.655
X-70.12 Y-149.123 Z15.481
X-69.902 Y-149.167 Z15.298
X-69.68 Y-149.211 Z15.106
X-69.453 Y-149.257 Z14.906
X-68.983 Y-149.351 Z14.479
X-68.489 Y-149.449 Z14.019
X-68.493 Y-149.68 Z14.06
X-68.503 Y-149.909 Z14.095
X-68.518 Y-150.137 Z14.124
X-68.541 Y-150.364 Z14.147
X-68.569 Y-150.589 Z14.163
X-68.604 Y-150.813 Z14.172
X-68.645 Y-151.036 Z14.175
X-72.783 Y-171.895 Z14.18
X-72.817 Y-172.078 Z14.177
X-73.82 Y-172.954 Z14.99
X-75.686 Y-174.577 Z16.505
X-77.505 Y-176.071 Z18
X-75.686 Y-174.577 Z16.505
X-73.82 Y-172.954 Z14.99
X-72.817 Y-172.078 Z14.177
X-72.62 Y-172.289 Z14.4
X-72.422 Y-172.489 Z14.612
X-72.226 Y-172.678 Z14.813
X-72.03 Y-172.857 Z15.004
X-71.835 Y-173.025 Z15.184
X-71.661 Y-173.165 Z15.336
X-71.488 Y-173.296 Z15.48
X-71.315 Y-173.419 Z15.615
X-71.143 Y-173.534 Z15.742
X-70.972 Y-173.64 Z15.86
X-70.801 Y-173.737 Z15.97
X-70.631 Y-173.826 Z16.071
X-70.461 Y-173.907 Z16.164
X-70.292 Y-173.979 Z16.248
X-70.124 Y-174.043 Z16.324
X-69.956 Y-174.098 Z16.391
X-69.789 Y-174.145 Z16.45
X-69.65 Y-174.176 Z16.494
X-69.512 Y-174.202 Z16.532
X-69.374 Y-174.222 Z16.563
X-69.237 Y-174.236 Z16.589
X-69.1 Y-174.244 Z16.609
X-68.617 Y-174.26 Z16.669
X-68.24 Y-174.27 Z16.715
X-67.746 Y-174.278 Z16.773
X-67.359 Y-174.28 Z16.816
X-66.856 Y-174.274 Z16.865
X-66.144 Y-174.253 Z16.932
X-66.046 Y-174.248 Z16.939
X-65.937 Y-174.238 Z16.942
X-64.93 Y-174.118 Z16.964
X-64.415 Y-174.049 Z16.976
X-63.9 Y-173.976 Z16.988
X-63.379 Y-173.894 Z16.998
X-63.199 Y-173.864 Z17
X-62.862 Y-173.803 Z17.007
X-62.319 Y-173.698 Z17.011
X-61.822 Y-173.589 Z17.013
X-61.346 Y-173.474 Z17.009
X-61.302 Y-173.462 Z17.008
X-60.785 Y-173.32 Z16.997
X-60.621 Y-173.271 Z16.99
X-60.268 Y-173.16 Z16.98
X-59.748 Y-172.982 Z16.953
X-59.241 Y-172.785 Z16.92
X-59.028 Y-172.697 Z16.9
X-58.743 Y-172.572 Z16.879
X-58.252 Y-172.345 Z16.831
X-57.771 Y-172.101 Z16.782
X-57.558 Y-171.988 Z16.756
X-57.301 Y-171.845 Z16.73
X-56.837 Y-171.577 Z16.677
X-56.386 Y-171.298 Z16.627
X-56.21 Y-171.187 Z16.605
X-55.942 Y-171.008 Z16.579
X-55.511 Y-170.714 Z16.534
X-55.273 Y-170.544 Z16.512
X-54.973 Y-170.324 Z16.487
X-54.679 Y-170.101 Z16.467
X-54.283 Y-169.788 Z16.446
X-54.196 Y-169.716 Z16.441
X-54.111 Y-169.641 Z16.432
X-54.039 Y-169.571 Z16.422
X-53.851 Y-169.384 Z16.393
X-53.598 Y-169.124 Z16.358
X-53.305 Y-168.814 Z16.323
X-53.104 Y-168.593 Z16.3
X-52.862 Y-168.319 Z16.277
X-52.595 Y-168.006 Z16.255
X-52.396 Y-167.764 Z16.24
X-52.251 Y-167.58 Z16.232
X-51.914 Y-167.143 Z16.21
X-51.586 Y-166.688 Z16.192
X-51.484 Y-166.542 Z16.184
X-51.268 Y-166.219 Z16.173
X-51.057 Y-165.892 Z16.157
X-50.961 Y-165.735 Z16.152
X-50.651 Y-165.209 Z16.126
X-50.384 Y-164.715 Z16.1
X-50.27 Y-164.492 Z16.083
X-50.118 Y-164.181 Z16.064
X-49.912 Y-163.734 Z16.027
X-49.872 Y-163.641 Z16.019
X-49.646 Y-163.098 Z15.968
X-49.592 Y-162.961 Z15.953
X-49.439 Y-162.555 Z15.912
X-49.247 Y-162.01 Z15.849
X-49.07 Y-161.466 Z15.782
X-49.024 Y-161.317 Z15.761
X-48.907 Y-160.925 Z15.712
X-48.753 Y-160.386 Z15.639
X-48.611 Y-159.851 Z15.565
X-48.485 Y-159.351 Z15.495
X-48.342 Y-158.761 Z15.411
X-50.015 Y-157.61 Z17.181
X-50.152 Y-157.52 Z17.322
X-50.829 Y-157.097 Z17.999
X-50.152 Y-157.52 Z17.322
X-50.015 Y-157.61 Z17.181
X-48.342 Y-158.761 Z15.411
X-48.287 Y-158.702 Z15.44
X-47.619 Y-157.97 Z15.804
X-46.245 Y-156.438 Z16.575
X-44.854 Y-154.863 Z17.378
X-43.79 Y-153.65 Z18
G0 Z23
X-68.489 Y-149.449
G1 Z14.019 F849.6
X-68.445 Y-149.341 Z14.04
X-68.366 Y-149.149 Z14.07
X-68.289 Y-148.963 Z14.089
X-68.214 Y-148.782 Z14.099
X-68.14 Y-148.603
X-68.067 Y-148.424 Z14.09
X-67.991 Y-148.241 Z14.071
X-67.913 Y-148.052 Z14.042
X-67.864 Y-147.934 Z14.019
X-67.371 Y-148.032 Z14.479
X-66.901 Y-148.126 Z14.906
X-66.674 Y-148.172 Z15.106
X-66.452 Y-148.216 Z15.298
X-66.234 Y-148.26 Z15.481
X-66.019 Y-148.303 Z15.655
X-65.808 Y-148.345 Z15.819
X-65.6 Y-148.387 Z15.972
X-65.394 Y-148.428 Z16.113
X-65.292 Y-148.448 Z16.179
X-65.19 Y-148.468 Z16.241
X-65.089 Y-148.489 Z16.299
X-64.988 Y-148.509 Z16.353
X-64.888 Y-148.529 Z16.402
X-64.788 Y-148.549 Z16.447
X-64.687 Y-148.569 Z16.487
X-64.588 Y-148.589 Z16.522
X-64.488 Y-148.609 Z16.55
X-64.388 Y-148.629 Z16.573
X-64.232 Y-148.656 Z16.601
X-64.075 Y-148.676 Z16.62
X-63.919 Y-148.688 Z16.632
X-63.763 Y-148.691 Z16.636
X-60.345
X-57.396 Y-147.328 Z18
X-60.345 Y-148.691 Z16.636
X-59.714 Y-150.055 Z17.999
X-60.345 Y-148.691 Z16.636
X-63.763
X-63.919 Y-148.688 Z16.632
X-64.075 Y-148.676 Z16.62
X-64.232 Y-148.656 Z16.601
X-64.388 Y-148.629 Z16.573
X-64.488 Y-148.609 Z16.55
X-64.588 Y-148.589 Z16.522
X-64.687 Y-148.569 Z16.487
X-64.788 Y-148.549 Z16.447
X-64.888 Y-148.529 Z16.402
X-64.988 Y-148.509 Z16.353
X-65.089 Y-148.489 Z16.299
X-65.19 Y-148.468 Z16.241
X-65.292 Y-148.448 Z16.179
X-65.394 Y-148.428 Z16.113
X-65.6 Y-148.387 Z15.972
X-65.808 Y-148.345 Z15.819
X-66.019 Y-148.303 Z15.655
X-66.234 Y-148.26 Z15.481
X-66.452 Y-148.216 Z15.298
X-66.674 Y-148.172 Z15.106
X-66.901 Y-148.126 Z14.906
X-67.371 Y-148.032 Z14.479
X-67.864 Y-147.934 Z14.019
X-67.861 Y-147.702 Z14.061
X-67.851 Y-147.472 Z14.096
X-67.834 Y-147.243 Z14.126
X-67.811 Y-147.016 Z14.148
X-67.782 Y-146.789 Z14.165
X-67.747 Y-146.564 Z14.174
X-67.705 Y-146.34 Z14.178
X-67.115 Y-143.399 Z14.18
X-66.747 Y-141.833 Z14.233
X-66.551 Y-141.008 Z14.264
X-66.354 Y-140.199 Z14.299
X-66.155 Y-139.404 Z14.338
X-65.954 Y-138.625 Z14.382
X-65.749 Y-137.862 Z14.434
X-65.539 Y-137.114 Z14.493
X-65.32 Y-136.383 Z14.558
X-65.093 Y-135.668 Z14.631
X-64.86 Y-134.974 Z14.713
X-64.608 Y-134.279 Z14.806
X-64.485 Y-133.959 Z14.856
X-64.342 Y-133.596 Z14.909
X-64.072 Y-132.946 Z15.019
X-63.742 Y-132.207 Z15.15
X-63.619 Y-131.945 Z15.201
X-63.404 Y-131.498 Z15.283
X-63.134 Y-130.958 Z15.391
X-63.091 Y-130.874 Z15.406
X-62.655 Y-130.059 Z15.565
X-62.335 Y-129.493 Z15.676
X-62.058 Y-129.023 Z15.765
X-61.806 Y-128.609 Z15.841
X-61.486 Y-128.104 Z15.93
X-61.189 Y-127.655 Z16.004
X-60.888 Y-127.215 Z16.071
X-60.578 Y-126.78 Z16.131
X-60.263 Y-126.354 Z16.182
X-59.94 Y-125.935 Z16.224
X-59.914 Y-125.9 Z16.227
X-59.575 Y-125.545 Z16.298
X-59.203 Y-125.169 Z16.364
X-58.822 Y-124.802 Z16.42
X-58.432 Y-124.444 Z16.466
X-58.033 Y-124.097 Z16.502
X-57.707 Y-123.827 Z16.522
X-57.625 Y-123.761 Z16.527
X-57.208 Y-123.437 Z16.544
X-56.784 Y-123.127 Z16.553
X-56.474 Y-122.91 Z16.552
X-56.355 Y-122.829 Z16.554
X-55.918 Y-122.543 Z16.55
X-55.473 Y-122.27 Z16.543
X-55.208 Y-122.114 Z16.534
X-55.021 Y-122.007 Z16.532
X-54.57 Y-121.759 Z16.519
X-54.099 Y-121.518 Z16.508
X-53.929 Y-121.433 Z16.502
X-53.628 Y-121.292 Z16.498
X-53.287 Y-121.137 Z16.488
X-52.685 Y-120.879 Z16.485
X-51.991 Y-120.613 Z16.486
X-51.7 Y-120.51 Z16.493
X-51.325 Y-120.381 Z16.499
X-50.709 Y-120.184 Z16.522
X-49.942 Y-119.959 Z16.556
X-49.228 Y-119.765 Z16.599
X-48.708 Y-119.633 Z16.638
X-48.602 Y-119.608 Z16.644
X-48.495 Y-119.587 Z16.646
X-48.312 Y-119.561 Z16.643
X-48.167 Y-119.549 Z16.632
X-48.021 Y-119.543 Z16.615
X-47.729 Y-119.539 Z16.575
X-46.95 Y-119.535 Z16.473
X-46.255 Y-119.542 Z16.383
X-45.655 Y-119.555 Z16.304
X-45.045 Y-119.577 Z16.219
X-44.427 Y-119.609 Z16.126
X-43.933 Y-119.643 Z16.044
X-43.804 Y-119.663 Z16.034
X-43.176 Y-119.774 Z15.971
X-42.542 Y-119.903 Z15.895
X-41.97 Y-120.038 Z15.814
X-41.755 Y-120.093 Z15.783
X-41.467 Y-120.174 Z15.734
X-41.237 Y-120.24 Z15.698
X-41.081 Y-120.288 Z15.67
X-40.571 Y-120.458 Z15.576
X-40.51 Y-120.479 Z15.564
X-40.063 Y-120.653 Z15.472
X-39.89 Y-120.724 Z15.438
X-39.72 Y-120.797 Z15.402
X-39.234 Y-121.023 Z15.296
X-39.078 Y-121.103 Z15.263
X-38.853 Y-121.222 Z15.211
X-38.599 Y-121.364 Z15.157
X-38.494 Y-121.424 Z15.134
X-38.15 Y-121.638 Z15.059
X-37.993 Y-121.741 Z15.028
X-37.872 Y-121.822 Z15.003
X-37.466 Y-122.112 Z14.919
X-37.421 Y-122.146 Z14.91
X-37.119 Y-122.378 Z14.848
X-37.019 Y-122.458 Z14.829
X-37.023 Y-122.698 Z14.993
X-37.049 Y-123.598 Z15.602
X-37.085 Y-124.442 Z16.165
X-37.128 Y-125.252 Z16.699
X-37.176 Y-126.036 Z17.21
X-37.258 Y-127.252 Z17.999
X-37.176 Y-126.036 Z17.21
X-37.128 Y-125.252 Z16.699
X-37.085 Y-124.442 Z16.165
X-37.049 Y-123.598 Z15.602
X-37.023 Y-122.698 Z14.993
X-37.019 Y-122.458 Z14.829
X-36.616 Y-122.403 Z15.079
X-36.013 Y-122.328 Z15.459
X-35.371 Y-122.256 Z15.869
X-34.7 Y-122.187 Z16.303
X-34.002 Y-122.121 Z16.757
X-33.282 Y-122.058 Z17.229
X-32.112 Y-121.959 Z18
G0 Z33
M30
%
