%
(1001)
(origin stock top)
(T1  D=12.7 CR=0 TAPER=45deg - ZMIN=-4.692 - chamfer mill)
G90 G94
G17
G21

(Engrave1)
M9
T1 M6
S12000 M3
G54
G0 X-129.909 Y-185.797
Z15
Z5
G1 Z0 F849.6
X-129.254 Y-185.531 Z-0.434
X-128.636 Y-185.276 Z-0.842
X-128.04 Y-185.023 Z-1.232
X-127.757 Y-184.9 Z-1.415
X-127.484 Y-184.779 Z-1.591
X-126.955 Y-184.536 Z-1.928
X-126.709 Y-184.419 Z-2.083
X-126.47 Y-184.302 Z-2.231
X-126.043 Y-184.086 Z-2.493
X-126.089 Y-183.891 Z-2.356
X-126.209 Y-183.366 Z-1.99
X-126.316 Y-182.871 Z-1.649
X-126.416 Y-182.385 Z-1.319
X-126.598 Y-181.455 Z-0.697
X-126.767 Y-180.548 Z-0.098
X-126.794 Y-180.4 Z0
X-126.767 Y-180.548 Z-0.098
X-126.598 Y-181.455 Z-0.697
X-126.416 Y-182.385 Z-1.319
X-126.316 Y-182.871 Z-1.649
X-126.209 Y-183.366 Z-1.99
X-126.089 Y-183.891 Z-2.356
X-126.043 Y-184.086 Z-2.493
X-125.794 Y-184.172 Z-2.43
X-125.523 Y-184.26 Z-2.364
X-125.31 Y-184.326 Z-2.311
X-124.977 Y-184.423 Z-2.231
X-124.554 Y-184.536 Z-2.136
X-124.134 Y-184.638 Z-2.048
X-123.878 Y-184.694 Z-1.999
X-123.691 Y-184.722 Z-1.953
X-123.264 Y-184.777 Z-1.856
X-122.846 Y-184.823 Z-1.767
X-122.513 Y-184.854 Z-1.702
X-122.032 Y-184.891 Z-1.613
X-121.773 Y-184.906 Z-1.568
X-121.258 Y-184.931 Z-1.481
X-120.876 Y-184.943 Z-1.42
X-120.321 Y-184.954 Z-1.332
X-119.789 Y-184.957 Z-1.244
X-119.698 Y-184.956 Z-1.23
X-119.607 Y-184.952 Z-1.219
X-119.495 Y-184.942 Z-1.209
X-119.384 Y-184.928 Z-1.203
X-118.917 Y-184.857 Z-1.187
X-118.376 Y-184.764 Z-1.162
X-118.241 Y-184.74 Z-1.157
X-118.009 Y-184.694 Z-1.145
X-117.657 Y-184.621 Z-1.13
X-117.34 Y-184.546 Z-1.115
X-116.985 Y-184.455 Z-1.102
X-116.635 Y-184.352 Z-1.089
X-116.299 Y-184.244 Z-1.082
X-115.932 Y-184.107 Z-1.073
X-115.689 Y-184.009 Z-1.075
X-115.577 Y-183.96 Z-1.073
X-115.231 Y-183.798 Z-1.076
X-115.157 Y-183.761 Z-1.079
X-114.882 Y-183.614 Z-1.087
X-114.543 Y-183.419 Z-1.105
X-114.221 Y-183.213 Z-1.126
X-113.958 Y-183.036 Z-1.151
X-113.606 Y-182.78 Z-1.183
X-113.414 Y-182.633 Z-1.206
X-113.305 Y-182.547 Z-1.218
X-113.022 Y-182.316 Z-1.252
X-112.88 Y-182.198 Z-1.271
X-112.473 Y-181.843 Z-1.325
X-112.353 Y-181.737 Z-1.342
X-111.948 Y-181.367 Z-1.397
X-111.7 Y-181.135 Z-1.431
X-111.61 Y-181.047 Z-1.445
X-111.522 Y-180.954 Z-1.464
X-111.438 Y-180.858 Z-1.488
X-110.866 Y-180.171 Z-1.667
X-110.4 Y-179.6 Z-1.811
X-110.053 Y-179.169 Z-1.92
X-109.709 Y-178.736 Z-2.029
X-109.588 Y-178.581 Z-2.069
X-109.391 Y-178.274 Z-2.11
X-109.09 Y-177.797 Z-2.177
X-108.79 Y-177.311 Z-2.249
X-108.496 Y-176.823 Z-2.323
X-108.199 Y-176.313 Z-2.406
X-107.925 Y-175.829 Z-2.489
X-107.63 Y-175.285 Z-2.584
X-107.354 Y-174.757 Z-2.678
X-107.159 Y-174.372 Z-2.749
X-106.838 Y-173.712 Z-2.868
X-106.593 Y-173.182 Z-2.962
X-106.479 Y-172.93 Z-3.008
X-106.361 Y-172.66 Z-3.054
X-106.174 Y-172.225 Z-3.13
X-106.135 Y-172.131 Z-3.144
X-105.911 Y-171.58 Z-3.234
X-105.63 Y-170.845 Z-3.344
X-105.387 Y-170.162 Z-3.433
X-105.173 Y-169.524 Z-3.507
X-104.936 Y-168.772 Z-3.582
X-104.722 Y-168.054 Z-3.642
X-104.515 Y-167.326 Z-3.692
X-104.313 Y-166.582 Z-3.734
X-104.115 Y-165.821 Z-3.769
X-103.919 Y-165.045 Z-3.797
X-103.726 Y-164.256 Z-3.821
X-103.535 Y-163.454 Z-3.84
X-103.345 Y-162.637 Z-3.855
X-102.981 Y-161.055 Z-3.88
X-100.602 Y-149.483 Z-3.786
X-100.54 Y-149.206 Z-3.789
X-100.485 Y-148.992 Z-3.798
X-100.424 Y-148.78 Z-3.813
X-100.357 Y-148.569 Z-3.835
X-100.284 Y-148.359 Z-3.862
X-100.205 Y-148.151 Z-3.896
X-100.12 Y-147.943 Z-3.935
X-100.115 Y-147.712 Z-3.891
X-100.105 Y-147.482 Z-3.854
X-100.087 Y-147.254 Z-3.823
X-100.063 Y-147.026 Z-3.799
X-100.033 Y-146.8 Z-3.781
X-99.997 Y-146.576 Z-3.77
X-99.954 Y-146.353 Z-3.765
X-98.605 Y-139.831 Z-3.72
X-98.391 Y-138.806 Z-3.711
X-98.067 Y-137.236 Z-3.7
X-97.852 Y-136.174 Z-3.697
X-97.641 Y-135.104 Z-3.7
X-97.433 Y-134.019 Z-3.709
X-97.332 Y-133.474 Z-3.716
X-97.232 Y-132.919 Z-3.726
X-97.135 Y-132.371 Z-3.739
X-97.04 Y-131.823 Z-3.753
X-96.946 Y-131.26 Z-3.771
X-96.855 Y-130.702 Z-3.792
X-96.769 Y-130.153 Z-3.814
X-96.683 Y-129.6 Z-3.839
X-96.521 Y-128.52 Z-3.891
X-96.287 Y-126.923 Z-3.975
X-96.258 Y-126.701 Z-3.99
X-96.235 Y-126.478 Z-4.01
X-96.217 Y-126.253 Z-4.037
X-96.206 Y-126.028 Z-4.07
X-96.2 Y-125.801 Z-4.109
X-96.193 Y-125.143 Z-4.231
Y-124.765 Z-4.305
X-96.197 Y-124.353 Z-4.389
X-96.207 Y-123.915 Z-4.485
X-96.227 Y-123.432 Z-4.599
X-96.241 Y-123.181 Z-4.663
X-96.249 Y-123.07 Z-4.692
X-90.304 Y-117.259 Z-0.001
X-96.249 Y-123.07 Z-4.692
X-96.594 Y-122.87 Z-4.435
X-96.745 Y-122.786 Z-4.326
X-97.231 Y-122.522 Z-3.982
X-97.414 Y-122.43 Z-3.859
X-97.889 Y-122.196 Z-3.546
X-98.071 Y-122.112 Z-3.433
X-98.353 Y-121.988 Z-3.261
X-98.539 Y-121.908 Z-3.15
X-98.725 Y-121.834 Z-3.045
X-98.997 Y-121.729 Z-2.894
X-99.191 Y-121.658 Z-2.791
X-99.383 Y-121.594 Z-2.695
X-99.649 Y-121.51 Z-2.565
X-99.822 Y-121.458 Z-2.484
X-99.993 Y-121.412 Z-2.409
X-100.394 Y-121.313 Z-2.242
X-100.53 Y-121.284 Z-2.19
X-100.911 Y-121.21 Z-2.051
X-101.025 Y-121.192 Z-2.014
X-101.295 Y-121.153 Z-1.928
X-101.468 Y-121.131 Z-1.876
X-101.742 Y-121.102 Z-1.8
X-101.881 Y-121.089 Z-1.764
X-102.272 Y-121.063 Z-1.67
X-102.644 Y-121.047 Z-1.59
X-103.003 Y-121.04 Z-1.521
X-103.349 Z-1.46
X-103.685 Y-121.044 Z-1.406
X-104.017 Y-121.05 Z-1.355
X-104.654 Y-121.069 Z-1.262
X-104.761 Y-121.074 Z-1.249
X-104.868 Y-121.083 Z-1.239
X-106.019 Y-121.206 Z-1.16
X-106.725 Y-121.285 Z-1.115
X-107.43 Y-121.37 Z-1.077
X-107.9 Y-121.43 Z-1.055
X-108.591 Y-121.524 Z-1.027
X-108.751 Y-121.547 Z-1.021
X-109.611 Y-120.662 Z-0.001
X-108.751 Y-121.547 Z-1.021
X-109.032 Y-121.802 Z-0.798
X-109.663 Y-122.378 Z-0.296
X-110.036 Y-122.72 Z0
G0 Z5
X-100.12 Y-147.943
G1 Z-3.935 F849.6
X-99.633 Y-148.041 Z-3.482
X-99.17 Y-148.133 Z-3.063
X-98.946 Y-148.178 Z-2.866
X-98.727 Y-148.222 Z-2.677
X-98.512 Y-148.265 Z-2.497
X-98.301 Y-148.307 Z-2.327
X-98.093 Y-148.349 Z-2.166
X-97.888 Y-148.39 Z-2.016
X-97.685 Y-148.431 Z-1.877
X-97.584 Y-148.451 Z-1.813
X-97.484 Y-148.471 Z-1.752
X-97.384 Y-148.491 Z-1.696
X-97.285 Y-148.511 Z-1.643
X-97.186 Y-148.53 Z-1.594
X-97.087 Y-148.55 Z-1.55
X-96.988 Y-148.57 Z-1.511
X-96.889 Y-148.59 Z-1.478
X-96.791 Y-148.609 Z-1.449
X-96.693 Y-148.629 Z-1.427
X-96.536 Y-148.656 Z-1.399
X-96.38 Y-148.676 Z-1.38
X-96.224 Y-148.688 Z-1.368
X-96.068 Y-148.691 Z-1.364
X-72.591
X-72.435 Y-148.695 Z-1.368
X-72.279 Y-148.707 Z-1.38
X-72.122 Y-148.727 Z-1.399
X-71.966 Y-148.754 Z-1.427
X-71.866 Y-148.774 Z-1.45
X-71.766 Y-148.794 Z-1.478
X-71.666 Y-148.814 Z-1.513
X-71.566 Y-148.834 Z-1.553
X-71.466 Y-148.854 Z-1.598
X-71.365 Y-148.874 Z-1.647
X-71.265 Y-148.894 Z-1.701
X-71.163 Y-148.915 Z-1.759
X-71.062 Y-148.935 Z-1.821
X-70.857 Y-148.976 Z-1.956
X-70.754 Y-148.996 Z-2.028
X-70.546 Y-149.038 Z-2.181
X-70.335 Y-149.08 Z-2.345
X-70.12 Y-149.123 Z-2.519
X-69.902 Y-149.167 Z-2.702
X-69.68 Y-149.211 Z-2.894
X-69.453 Y-149.257 Z-3.094
X-68.983 Y-149.351 Z-3.521
X-68.489 Y-149.449 Z-3.981
X-68.493 Y-149.68 Z-3.94
X-68.503 Y-149.909 Z-3.905
X-68.518 Y-150.137 Z-3.876
X-68.541 Y-150.364 Z-3.853
X-68.569 Y-150.589 Z-3.837
X-68.604 Y-150.813 Z-3.828
X-68.645 Y-151.036 Z-3.825
X-72.783 Y-171.895 Z-3.82
X-72.817 Y-172.078 Z-3.823
X-73.82 Y-172.954 Z-3.01
X-75.686 Y-174.577 Z-1.495
X-77.505 Y-176.071 Z0
X-75.686 Y-174.577 Z-1.495
X-73.82 Y-172.954 Z-3.01
X-72.817 Y-172.078 Z-3.823
X-72.62 Y-172.289 Z-3.6
X-72.422 Y-172.489 Z-3.388
X-72.226 Y-172.678 Z-3.187
X-72.03 Y-172.857 Z-2.996
X-71.835 Y-173.025 Z-2.816
X-71.661 Y-173.165 Z-2.664
X-71.488 Y-173.296 Z-2.52
X-71.315 Y-173.419 Z-2.385
X-71.143 Y-173.534 Z-2.258
X-70.972 Y-173.64 Z-2.14
X-70.801 Y-173.737 Z-2.03
X-70.631 Y-173.826 Z-1.929
X-70.461 Y-173.907 Z-1.836
X-70.292 Y-173.979 Z-1.752
X-70.124 Y-174.043 Z-1.676
X-69.956 Y-174.098 Z-1.609
X-69.789 Y-174.145 Z-1.55
X-69.65 Y-174.176 Z-1.506
X-69.512 Y-174.202 Z-1.468
X-69.374 Y-174.222 Z-1.437
X-69.237 Y-174.236 Z-1.411
X-69.1 Y-174.244 Z-1.391
X-68.617 Y-174.26 Z-1.331
X-68.24 Y-174.27 Z-1.285
X-67.746 Y-174.278 Z-1.227
X-67.359 Y-174.28 Z-1.184
X-66.856 Y-174.274 Z-1.135
X-66.144 Y-174.253 Z-1.068
X-66.046 Y-174.248 Z-1.061
X-65.937 Y-174.238 Z-1.058
X-64.93 Y-174.118 Z-1.036
X-64.415 Y-174.049 Z-1.024
X-63.9 Y-173.976 Z-1.012
X-63.379 Y-173.894 Z-1.002
X-63.199 Y-173.864 Z-1
X-62.862 Y-173.803 Z-0.993
X-62.319 Y-173.698 Z-0.989
X-61.822 Y-173.589 Z-0.987
X-61.346 Y-173.474 Z-0.991
X-61.302 Y-173.462 Z-0.992
X-60.785 Y-173.32 Z-1.003
X-60.621 Y-173.271 Z-1.01
X-60.268 Y-173.16 Z-1.02
X-59.748 Y-172.982 Z-1.047
X-59.241 Y-172.785 Z-1.08
X-59.028 Y-172.697 Z-1.1
X-58.743 Y-172.572 Z-1.121
X-58.252 Y-172.345 Z-1.169
X-57.771 Y-172.101 Z-1.218
X-57.558 Y-171.988 Z-1.244
X-57.301 Y-171.845 Z-1.27
X-56.837 Y-171.577 Z-1.323
X-56.386 Y-171.298 Z-1.373
X-56.21 Y-171.187 Z-1.395
X-55.942 Y-171.008 Z-1.421
X-55.511 Y-170.714 Z-1.466
X-55.273 Y-170.544 Z-1.488
X-54.973 Y-170.324 Z-1.513
X-54.679 Y-170.101 Z-1.533
X-54.283 Y-169.788 Z-1.554
X-54.196 Y-169.716 Z-1.559
X-54.111 Y-169.641 Z-1.568
X-54.039 Y-169.571 Z-1.578
X-53.851 Y-169.384 Z-1.607
X-53.598 Y-169.124 Z-1.642
X-53.305 Y-168.814 Z-1.677
X-53.104 Y-168.593 Z-1.7
X-52.862 Y-168.319 Z-1.723
X-52.595 Y-168.006 Z-1.745
X-52.396 Y-167.764 Z-1.76
X-52.251 Y-167.58 Z-1.768
X-51.914 Y-167.143 Z-1.79
X-51.586 Y-166.688 Z-1.808
X-51.484 Y-166.542 Z-1.816
X-51.268 Y-166.219 Z-1.827
X-51.057 Y-165.892 Z-1.843
X-50.961 Y-165.735 Z-1.848
X-50.651 Y-165.209 Z-1.874
X-50.384 Y-164.715 Z-1.9
X-50.27 Y-164.492 Z-1.917
X-50.118 Y-164.181 Z-1.936
X-49.912 Y-163.734 Z-1.973
X-49.872 Y-163.641 Z-1.981
X-49.646 Y-163.098 Z-2.032
X-49.592 Y-162.961 Z-2.047
X-49.439 Y-162.555 Z-2.088
X-49.247 Y-162.01 Z-2.151
X-49.07 Y-161.466 Z-2.218
X-49.024 Y-161.317 Z-2.239
X-48.907 Y-160.925 Z-2.288
X-48.753 Y-160.386 Z-2.361
X-48.611 Y-159.851 Z-2.435
X-48.485 Y-159.351 Z-2.505
X-48.342 Y-158.761 Z-2.589
X-50.015 Y-157.61 Z-0.819
X-50.152 Y-157.52 Z-0.678
X-50.829 Y-157.097 Z-0.001
X-50.152 Y-157.52 Z-0.678
X-50.015 Y-157.61 Z-0.819
X-48.342 Y-158.761 Z-2.589
X-48.287 Y-158.702 Z-2.56
X-47.619 Y-157.97 Z-2.196
X-46.245 Y-156.438 Z-1.425
X-44.854 Y-154.863 Z-0.622
X-43.79 Y-153.65 Z0
G0 Z5
X-68.489 Y-149.449
G1 Z-3.981 F849.6
X-68.445 Y-149.341 Z-3.96
X-68.366 Y-149.149 Z-3.93
X-68.289 Y-148.963 Z-3.911
X-68.214 Y-148.782 Z-3.901
X-68.14 Y-148.603
X-68.067 Y-148.424 Z-3.91
X-67.991 Y-148.241 Z-3.929
X-67.913 Y-148.052 Z-3.958
X-67.864 Y-147.934 Z-3.981
X-67.371 Y-148.032 Z-3.521
X-66.901 Y-148.126 Z-3.094
X-66.674 Y-148.172 Z-2.894
X-66.452 Y-148.216 Z-2.702
X-66.234 Y-148.26 Z-2.519
X-66.019 Y-148.303 Z-2.345
X-65.808 Y-148.345 Z-2.181
X-65.6 Y-148.387 Z-2.028
X-65.394 Y-148.428 Z-1.887
X-65.292 Y-148.448 Z-1.821
X-65.19 Y-148.468 Z-1.759
X-65.089 Y-148.489 Z-1.701
X-64.988 Y-148.509 Z-1.647
X-64.888 Y-148.529 Z-1.598
X-64.788 Y-148.549 Z-1.553
X-64.687 Y-148.569 Z-1.513
X-64.588 Y-148.589 Z-1.478
X-64.488 Y-148.609 Z-1.45
X-64.388 Y-148.629 Z-1.427
X-64.232 Y-148.656 Z-1.399
X-64.075 Y-148.676 Z-1.38
X-63.919 Y-148.688 Z-1.368
X-63.763 Y-148.691 Z-1.364
X-60.345
X-57.396 Y-147.328 Z0
X-60.345 Y-148.691 Z-1.364
X-59.714 Y-150.055 Z-0.001
X-60.345 Y-148.691 Z-1.364
X-63.763
X-63.919 Y-148.688 Z-1.368
X-64.075 Y-148.676 Z-1.38
X-64.232 Y-148.656 Z-1.399
X-64.388 Y-148.629 Z-1.427
X-64.488 Y-148.609 Z-1.45
X-64.588 Y-148.589 Z-1.478
X-64.687 Y-148.569 Z-1.513
X-64.788 Y-148.549 Z-1.553
X-64.888 Y-148.529 Z-1.598
X-64.988 Y-148.509 Z-1.647
X-65.089 Y-148.489 Z-1.701
X-65.19 Y-148.468 Z-1.759
X-65.292 Y-148.448 Z-1.821
X-65.394 Y-148.428 Z-1.887
X-65.6 Y-148.387 Z-2.028
X-65.808 Y-148.345 Z-2.181
X-66.019 Y-148.303 Z-2.345
X-66.234 Y-148.26 Z-2.519
X-66.452 Y-148.216 Z-2.702
X-66.674 Y-148.172 Z-2.894
X-66.901 Y-148.126 Z-3.094
X-67.371 Y-148.032 Z-3.521
X-67.864 Y-147.934 Z-3.981
X-67.861 Y-147.702 Z-3.939
X-67.851 Y-147.472 Z-3.904
X-67.834 Y-147.243 Z-3.874
X-67.811 Y-147.016 Z-3.852
X-67.782 Y-146.789 Z-3.835
X-67.747 Y-146.564 Z-3.826
X-67.705 Y-146.34 Z-3.822
X-67.115 Y-143.399 Z-3.82
X-66.747 Y-141.833 Z-3.767
X-66.551 Y-141.008 Z-3.736
X-66.354 Y-140.199 Z-3.701
X-66.155 Y-139.404 Z-3.662
X-65.954 Y-138.625 Z-3.618
X-65.749 Y-137.862 Z-3.566
X-65.539 Y-137.114 Z-3.507
X-65.32 Y-136.383 Z-3.442
X-65.093 Y-135.668 Z-3.369
X-64.86 Y-134.974 Z-3.287
X-64.608 Y-134.279 Z-3.194
X-64.485 Y-133.959 Z-3.144
X-64.342 Y-133.596 Z-3.091
X-64.072 Y-132.946 Z-2.981
X-63.742 Y-132.207 Z-2.85
X-63.619 Y-131.945 Z-2.799
X-63.404 Y-131.498 Z-2.717
X-63.134 Y-130.958 Z-2.609
X-63.091 Y-130.874 Z-2.594
X-62.655 Y-130.059 Z-2.435
X-62.335 Y-129.493 Z-2.324
X-62.058 Y-129.023 Z-2.235
X-61.806 Y-128.609 Z-2.159
X-61.486 Y-128.104 Z-2.07
X-61.189 Y-127.655 Z-1.996
X-60.888 Y-127.215 Z-1.929
X-60.578 Y-126.78 Z-1.869
X-60.263 Y-126.354 Z-1.818
X-59.94 Y-125.935 Z-1.776
X-59.914 Y-125.9 Z-1.773
X-59.575 Y-125.545 Z-1.702
X-59.203 Y-125.169 Z-1.636
X-58.822 Y-124.802 Z-1.58
X-58.432 Y-124.444 Z-1.534
X-58.033 Y-124.097 Z-1.498
X-57.707 Y-123.827 Z-1.478
X-57.625 Y-123.761 Z-1.473
X-57.208 Y-123.437 Z-1.456
X-56.784 Y-123.127 Z-1.447
X-56.474 Y-122.91 Z-1.448
X-56.355 Y-122.829 Z-1.446
X-55.918 Y-122.543 Z-1.45
X-55.473 Y-122.27 Z-1.457
X-55.208 Y-122.114 Z-1.466
X-55.021 Y-122.007 Z-1.468
X-54.57 Y-121.759 Z-1.481
X-54.099 Y-121.518 Z-1.492
X-53.929 Y-121.433 Z-1.498
X-53.628 Y-121.292 Z-1.502
X-53.287 Y-121.137 Z-1.512
X-52.685 Y-120.879 Z-1.515
X-51.991 Y-120.613 Z-1.514
X-51.7 Y-120.51 Z-1.507
X-51.325 Y-120.381 Z-1.501
X-50.709 Y-120.184 Z-1.478
X-49.942 Y-119.959 Z-1.444
X-49.228 Y-119.765 Z-1.401
X-48.708 Y-119.633 Z-1.362
X-48.602 Y-119.608 Z-1.356
X-48.495 Y-119.587 Z-1.354
X-48.312 Y-119.561 Z-1.357
X-48.167 Y-119.549 Z-1.368
X-48.021 Y-119.543 Z-1.385
X-47.729 Y-119.539 Z-1.425
X-46.95 Y-119.535 Z-1.527
X-46.255 Y-119.542 Z-1.617
X-45.655 Y-119.555 Z-1.696
X-45.045 Y-119.577 Z-1.781
X-44.427 Y-119.609 Z-1.874
X-43.933 Y-119.643 Z-1.956
X-43.804 Y-119.663 Z-1.966
X-43.176 Y-119.774 Z-2.029
X-42.542 Y-119.903 Z-2.105
X-41.97 Y-120.038 Z-2.186
X-41.755 Y-120.093 Z-2.217
X-41.467 Y-120.174 Z-2.266
X-41.237 Y-120.24 Z-2.302
X-41.081 Y-120.288 Z-2.33
X-40.571 Y-120.458 Z-2.424
X-40.51 Y-120.479 Z-2.436
X-40.063 Y-120.653 Z-2.528
X-39.89 Y-120.724 Z-2.562
X-39.72 Y-120.797 Z-2.598
X-39.234 Y-121.023 Z-2.704
X-39.078 Y-121.103 Z-2.737
X-38.853 Y-121.222 Z-2.789
X-38.599 Y-121.364 Z-2.843
X-38.494 Y-121.424 Z-2.866
X-38.15 Y-121.638 Z-2.941
X-37.993 Y-121.741 Z-2.972
X-37.872 Y-121.822 Z-2.997
X-37.466 Y-122.112 Z-3.081
X-37.421 Y-122.146 Z-3.09
X-37.119 Y-122.378 Z-3.152
X-37.019 Y-122.458 Z-3.171
X-37.023 Y-122.698 Z-3.007
X-37.049 Y-123.598 Z-2.398
X-37.085 Y-124.442 Z-1.835
X-37.128 Y-125.252 Z-1.301
X-37.176 Y-126.036 Z-0.79
X-37.258 Y-127.252 Z-0.001
X-37.176 Y-126.036 Z-0.79
X-37.128 Y-125.252 Z-1.301
X-37.085 Y-124.442 Z-1.835
X-37.049 Y-123.598 Z-2.398
X-37.023 Y-122.698 Z-3.007
X-37.019 Y-122.458 Z-3.171
X-36.616 Y-122.403 Z-2.921
X-36.013 Y-122.328 Z-2.541
X-35.371 Y-122.256 Z-2.131
X-34.7 Y-122.187 Z-1.697
X-34.002 Y-122.121 Z-1.243
X-33.282 Y-122.058 Z-0.771
X-32.112 Y-121.959 Z0
G0 Z15
M30
%
